;LightBurn 1.6.04
;Custom GCode device profile, absolute coords
;Bounds: X2.34 Y2.05 to X45.66 Y45.95
G00 G17 G40 G21 G54
G90
M3
G1 Z10 F1000
;Cut @ 444 mm/min, 80% power

M8
G0 Z4.8F800
G0 X13.878Y9.391Z4.8F1500
G1 Z0F1500
;Layer C3
G1 X13.813Z0S800F1500
G1 X13.231Y9.65Z0F1500
G1 X14.266Y10.557Z0F1500
G1 X14.434Y10.147Z0F1500
G1 X14.533Y9.893Z0F1500
G1 X14.636Y9.621Z0F1500
G1 X14.731Y9.355Z0F1500
G1 X14.805Y9.119Z0F1500
G1 X14.849Y8.938Z0F1500
G1 X14.829Y8.799Z0F1500
G1 X14.735Y8.673Z0F1500
G1 X14.591Y8.563Z0F1500
G1 X14.42Y8.469Z0F1500
G1 X14.247Y8.393Z0F1500
G1 X14.093Y8.337Z0F1500
G1 X13.943Y8.291Z0F1500
G1 X13.89Y8.303Z0F1500
G1 X13.749Y8.339Z0F1500
G1 X13.547Y8.4Z0F1500
G1 X13.312Y8.485Z0F1500
G1 X13.07Y8.594Z0F1500
G1 X12.85Y8.728Z0F1500
G1 X12.679Y8.885Z0F1500
G1 X12.583Y9.068Z0F1500
G1 X12.513Y9.286Z0F1500
G1 X12.407Y9.539Z0F1500
G1 X12.281Y9.807Z0F1500
G1 X12.146Y10.071Z0F1500
G1 X12.018Y10.31Z0F1500
G1 X11.91Y10.506Z0F1500
G1 X11.806Y10.686Z0F1500
G1 X12.065Y10.767Z0F1500
G1 X12.339Y10.85Z0F1500
G1 X12.664Y10.945Z0F1500
G1 X13.008Y11.04Z0F1500
G1 X13.336Y11.123Z0F1500
G1 X13.616Y11.182Z0F1500
G1 X13.813Y11.204Z0F1500
G1 X15.367Z0F1500
G1 X15.495Y11.238Z0F1500
G1 X15.592Y11.331Z0F1500
G1 X15.661Y11.47Z0F1500
G1 X15.707Y11.641Z0F1500
G1 X15.749Y12.023Z0F1500
G1 X15.755Y12.369Z0F1500
G1 X15.789Y12.561Z0F1500
G1 X15.877Y12.826Z0F1500
G1 X16.001Y13.134Z0F1500
G1 X16.144Y13.454Z0F1500
G1 X16.286Y13.755Z0F1500
G1 X16.461Y14.107Z0F1500
G1 X16.532Y14.247Z0F1500
G1 X16.662Y14.318Z0F1500
G1 X16.805Y14.393Z0F1500
G1 X16.985Y14.481Z0F1500
G1 X17.406Y14.656Z0F1500
G1 X17.827Y14.764Z0F1500
G1 X18.031Y14.814Z0F1500
G1 X18.248Y14.903Z0F1500
G1 X18.464Y15.018Z0F1500
G1 X18.669Y15.145Z0F1500
G1 X18.849Y15.268Z0F1500
G1 X18.992Y15.374Z0F1500
G1 X19.122Y15.477Z0F1500
G1 X19.64Y16.642Z0F1500
G1 X20.158Y17.419Z0F1500
G1 X19.963Y22.468Z0F1500
G0 Z4.8F800
G0 X25.531Y22.048Z4.8F1500
G1 Z0F1500
G1 X25.466Y18.034Z0F1500
G0 Z4.8F800
G0 X28.023Z4.8F1500
G1 Z0F1500
G1 X27.797Y22.145Z0F1500
G0 Z4.8F800
G0 X30.386Y21.95Z4.8F1500
G1 Z0F1500
G1 X30.322Y17.678Z0F1500
G0 Z4.8F800
G0 X31.726Y11.02Z4.8F1500
G1 Z0F1500
G1 X32.686Y10.871Z0F1500
G1 X32.643Y11.556Z0F1500
G1 X32.221Y12.513Z0F1500
G1 X31.721Y12.045Z0F1500
G1 X30.706Y10.406Z0F1500
G1 X33.179Y9.515Z0F1500
G1 X33.594Y11.021Z0F1500
G1 X33.115Y12.494Z0F1500
G1 X32.231Y13.936Z0F1500
G1 X30.857Y12.434Z0F1500
G1 X29.689Y10.728Z0F1500
G0 Z4.8F800
G0 X25.078Y9.521Z4.8F1500
G1 Z0F1500
G1 X24.99Y9.496Z0F1500
G1 X24.89Y9.464Z0F1500
G1 X24.762Y9.42Z0F1500
G1 X24.45Y9.289Z0F1500
G1 X24.107Y9.1Z0F1500
G1 X23.933Y9.012Z0F1500
G1 X23.757Y8.962Z0F1500
G1 X23.583Y8.941Z0F1500
G1 X23.419Z0F1500
G1 X23.27Y8.957Z0F1500
G1 X23.142Y8.977Z0F1500
G1 X23.041Y8.995Z0F1500
G1 X22.974Y9.003Z0F1500
G1 X22.44Y8.922Z0F1500
G1 X22.003Y8.841Z0F1500
G1 X21.55Y9.521Z0F1500
G1 X22.557Y9.658Z0F1500
G1 X22.939Y9.714Z0F1500
G1 X23.284Y9.767Z0F1500
G1 X23.548Y9.812Z0F1500
G1 X23.635Y9.83Z0F1500
G1 X23.686Y9.844Z0F1500
G1 X23.79Y9.884Z0F1500
G1 X23.968Y9.948Z0F1500
G1 X24.197Y10.026Z0F1500
G1 X24.459Y10.111Z0F1500
G1 X24.731Y10.193Z0F1500
G1 X24.992Y10.263Z0F1500
G1 X25.223Y10.312Z0F1500
G1 X25.401Y10.33Z0F1500
G1 X25.544Y10.292Z0F1500
G1 X25.677Y10.19Z0F1500
G1 X25.797Y10.041Z0F1500
G1 X25.903Y9.865Z0F1500
G1 X25.991Y9.677Z0F1500
G1 X26.057Y9.497Z0F1500
G1 X26.099Y9.342Z0F1500
G1 X26.114Y9.229Z0F1500
G1 X26.058Y9.012Z0F1500
G1 X25.936Y8.756Z0F1500
G1 X25.87Y8.639Z0F1500
G1 X25.757Y8.453Z0F1500
G1 X24.807Y8.274Z0F1500
G1 X24.441Y8.209Z0F1500
G1 X24.105Y8.152Z0F1500
G1 X23.84Y8.112Z0F1500
G1 X23.746Y8.1Z0F1500
G1 X23.686Y8.096Z0F1500
G1 X23.459Y8.13Z0F1500
G1 X23.156Y8.218Z0F1500
G1 X22.835Y8.342Z0F1500
G1 X22.553Y8.485Z0F1500
G1 X22.391Y8.563Z0F1500
G1 X22.164Y8.649Z0F1500
G1 X21.893Y8.738Z0F1500
G1 X21.602Y8.825Z0F1500
G1 X21.312Y8.906Z0F1500
G1 X21.046Y8.976Z0F1500
G1 X20.827Y9.032Z0F1500
G1 X20.676Y9.068Z0F1500
G1 X20.438Y9.173Z0F1500
G1 X20.186Y9.355Z0F1500
G1 X19.952Y9.555Z0F1500
G1 X19.769Y9.715Z0F1500
G1 X19.72Y9.788Z0F1500
G1 X19.713Y9.879Z0F1500
G1 X19.735Y9.981Z0F1500
G1 X19.777Y10.083Z0F1500
G1 X19.829Y10.178Z0F1500
G1 X19.878Y10.257Z0F1500
G1 X19.931Y10.33Z0F1500
G1 X20.574Y10.225Z0F1500
G1 X21.119Y10.139Z0F1500
G1 X21.582Y10.071Z0F1500
G1 X21.93Y10.075Z0F1500
G1 X22.233Y10.152Z0F1500
G1 X22.469Y10.253Z0F1500
G1 X22.618Y10.33Z0F1500
G1 X22.652Y10.396Z0F1500
G1 X22.662Y10.529Z0F1500
G1 X22.654Y10.707Z0F1500
G1 X22.634Y10.904Z0F1500
G1 X22.608Y11.099Z0F1500
G1 X22.581Y11.268Z0F1500
G1 X22.553Y11.43Z0F1500
G1 X22.535Y11.629Z0F1500
G1 X22.514Y11.84Z0F1500
G1 X22.484Y12.094Z0F1500
G1 X22.447Y12.366Z0F1500
G1 X22.403Y12.632Z0F1500
G1 X22.352Y12.868Z0F1500
G1 X22.294Y13.049Z0F1500
G1 X22.221Y13.39Z0F1500
G1 X22.217Y13.761Z0F1500
G1 X22.229Y13.926Z0F1500
G1 X22.244Y14.059Z0F1500
G1 X22.262Y14.182Z0F1500
G1 X23.168Y14.538Z0F1500
G1 X23.649Y14.291Z0F1500
G1 X24.056Y14.087Z0F1500
G1 X24.398Y13.923Z0F1500
G1 X24.546Y13.89Z0F1500
G1 X24.715Y13.905Z0F1500
G1 X24.892Y13.954Z0F1500
G1 X25.066Y14.024Z0F1500
G1 X25.222Y14.101Z0F1500
G1 X25.349Y14.173Z0F1500
G1 X25.466Y14.247Z0F1500
G1 X24.992Y14.325Z0F1500
G1 X24.705Y14.376Z0F1500
G1 X24.407Y14.433Z0F1500
G1 X24.128Y14.492Z0F1500
G1 X23.899Y14.55Z0F1500
G1 X23.751Y14.603Z0F1500
G1 X23.635Y14.627Z0F1500
G1 X23.487Y14.612Z0F1500
G1 X23.312Y14.567Z0F1500
G1 X22.704Y14.375Z0F1500
G1 X22.294Y14.311Z0F1500
G1 X22.133Y14.331Z0F1500
G1 X22.03Y14.388Z0F1500
G1 X21.974Y14.473Z0F1500
G1 X21.954Y14.582Z0F1500
G1 X21.975Y14.844Z0F1500
G1 X22.003Y15.121Z0F1500
G1 X22.024Y15.269Z0F1500
G1 X22.08Y15.441Z0F1500
G1 X22.161Y15.627Z0F1500
G1 X22.258Y15.816Z0F1500
G1 X22.358Y16Z0F1500
G1 X22.532Y16.309Z0F1500
G1 X22.585Y16.415Z0F1500
G1 X22.62Y16.527Z0F1500
G1 X22.652Y16.681Z0F1500
G1 X22.681Y16.863Z0F1500
G1 X22.707Y17.059Z0F1500
G1 X22.766Y17.577Z0F1500
G1 X22.78Y17.678Z0F1500
G1 X22.812Y18.058Z0F1500
G1 X22.844Y18.39Z0F1500
G1 X22.85Y18.535Z0F1500
G1 X22.82Y18.754Z0F1500
G1 X22.753Y19.009Z0F1500
G1 X22.65Y19.264Z0F1500
G1 X22.597Y19.406Z0F1500
G1 X22.557Y19.583Z0F1500
G1 X22.529Y19.783Z0F1500
G1 X22.512Y19.996Z0F1500
G1 X22.504Y20.415Z0F1500
G1 X22.521Y20.753Z0F1500
G1 X22.601Y21.538Z0F1500
G1 X22.682Y22.274Z0F1500
G1 X22.687Y22.417Z0F1500
G1 X22.68Y22.619Z0F1500
G1 X22.664Y22.863Z0F1500
G1 X22.642Y23.136Z0F1500
G1 X22.591Y23.708Z0F1500
G1 X22.553Y24.216Z0F1500
G1 X22.484Y24.629Z0F1500
G1 X22.363Y24.969Z0F1500
G1 X22.301Y25.1Z0F1500
G1 X22.248Y25.199Z0F1500
G1 X22.197Y25.284Z0F1500
G1 X21.323Z0F1500
G1 X20.74Y25.204Z0F1500
G1 X20.061Y25.123Z0F1500
G1 X19.925Y25.188Z0F1500
G1 X19.753Y25.333Z0F1500
G1 X19.672Y25.41Z0F1500
G1 X19.543Y25.543Z0F1500
G1 X19.769Y26.32Z0F1500
G1 X19.996Y27.356Z0F1500
G0 Z4.8F800
G0 X20.002Y27.186Z4.8F1500
G1 Z0F1500
G1 X19.865Y32.313Z0F1500
G0 Z4.8F800
G0 X19.956Y32.176Z4.8F1500
G1 Z0F1500
G1 X19.911Y29.429Z0F1500
G1 X20.185Y27.918Z0F1500
G1 X19.865Y26.225Z0F1500
G0 Z4.8F800
G0 X22.52Y27.918Z4.8F1500
G1 Z0F1500
G1 X22.611Y30.573Z0F1500
G1 X22.52Y32.725Z0F1500
G1 X22.515Y32.956Z0F1500
G1 X22.503Y33.196Z0F1500
G1 X22.48Y33.475Z0F1500
G1 X22.442Y33.76Z0F1500
G1 X22.385Y34.019Z0F1500
G1 X22.305Y34.219Z0F1500
G1 X22.199Y34.327Z0F1500
G1 X22.046Y34.396Z0F1500
G1 X21.843Y34.492Z0F1500
G1 X21.37Y34.722Z0F1500
G1 X20.78Y35.014Z0F1500
G1 X18.995Y34.785Z0F1500
G1 X17.53Y35.197Z0F1500
G1 X16.844Y35.975Z0F1500
G1 X16.798Y37.12Z0F1500
G1 X18.585Y37.707Z0F1500
G1 X16.798Y37.989Z0F1500
G1 X17.329Y39.27Z0F1500
G1 X16.02Y37.669Z0F1500
G1 X15.623Y39.426Z0F1500
G1 X15.424Y37.532Z0F1500
G1 X14.327Y38.61Z0F1500
G1 X15.791Y37.028Z0F1500
G1 X14.071Y36.295Z0F1500
G1 X16.157Y36.708Z0F1500
G1 X16.065Y35.197Z0F1500
G1 X16.981Y34.922Z0F1500
G0 Z4.8F800
G0 X10.285Y35.416Z4.8F1500
G1 Z0F1500
G1 X10.373Y35.591Z0F1500
G1 X10.467Y35.766Z0F1500
G1 X10.58Y35.961Z0F1500
G1 X10.701Y36.148Z0F1500
G1 X10.82Y36.296Z0F1500
G1 X10.926Y36.378Z0F1500
G1 X11.008Y36.365Z0F1500
G1 X11.154Y36.208Z0F1500
G1 X11.292Y36.053Z0F1500
G1 X11.407Y35.913Z0F1500
G1 X11.483Y35.804Z0F1500
G1 X11.503Y35.668Z0F1500
G1 X11.477Y35.451Z0F1500
G1 X11.417Y35.183Z0F1500
G1 X11.337Y34.894Z0F1500
G1 X11.251Y34.616Z0F1500
G1 X11.141Y34.287Z0F1500
G1 X11.094Y34.154Z0F1500
G1 X10.888Y34.228Z0F1500
G1 X10.671Y34.311Z0F1500
G1 X10.415Y34.413Z0F1500
G1 X10.146Y34.527Z0F1500
G1 X9.893Y34.645Z0F1500
G1 X9.682Y34.761Z0F1500
G1 X9.541Y34.866Z0F1500
G1 X9.472Y34.991Z0F1500
G1 X9.453Y35.164Z0F1500
G1 X9.473Y35.37Z0F1500
G1 X9.52Y35.598Z0F1500
G1 X9.767Y36.452Z0F1500
G1 X9.814Y36.584Z0F1500
G1 X9.878Y36.674Z0F1500
G1 X9.951Y36.734Z0F1500
G1 X10.026Y36.775Z0F1500
G1 X10.095Y36.811Z0F1500
G1 X10.15Y36.852Z0F1500
G1 X10.183Y36.912Z0F1500
G1 X10.188Y37.002Z0F1500
G1 X10.163Y37.148Z0F1500
G1 X10.114Y37.358Z0F1500
G1 X10.046Y37.617Z0F1500
G1 X9.961Y37.908Z0F1500
G1 X9.76Y38.531Z0F1500
G1 X9.541Y39.106Z0F1500
G1 X9.427Y39.345Z0F1500
G1 X9.309Y39.552Z0F1500
G1 X9.189Y39.731Z0F1500
G1 X9.071Y39.883Z0F1500
G1 X8.858Y40.117Z0F1500
G1 X8.699Y40.271Z0F1500
G1 X8.254Y40.85Z0F1500
G1 X7.76Y41.501Z0F1500
G1 X7.609Y41.744Z0F1500
G1 X7.497Y42.056Z0F1500
G1 X7.428Y42.398Z0F1500
G1 X7.404Y42.731Z0F1500
G1 X7.438Y43.093Z0F1500
G1 X7.505Y43.512Z0F1500
G1 X7.554Y43.938Z0F1500
G1 X7.534Y44.317Z0F1500
G1 X7.488Y44.756Z0F1500
G1 X7.481Y45.28Z0F1500
G1 X7.486Y45.521Z0F1500
G1 X7.501Y45.904Z0F1500
G0 Z4.8F800
G0 X5.397Y45.871Z4.8F1500
G1 Z0F1500
G1 X5.353Y44.847Z0F1500
G1 X5.339Y44.45Z0F1500
G1 X5.329Y44.082Z0F1500
G1 X5.326Y43.786Z0F1500
G1 Y43.679Z0F1500
G1 X5.333Y43.605Z0F1500
G1 X5.396Y43.056Z0F1500
G1 X5.422Y42.812Z0F1500
G1 X5.46Y42.322Z0F1500
G1 Y41.922Z0F1500
G1 X5.443Y41.723Z0F1500
G1 X5.413Y41.461Z0F1500
G1 X5.337Y40.858Z0F1500
G1 X5.235Y40.109Z0F1500
G1 X5.192Y39.931Z0F1500
G1 X5.15Y39.748Z0F1500
G1 X5.106Y39.535Z0F1500
G1 X5.068Y39.319Z0F1500
G1 X5.044Y39.126Z0F1500
G1 Y38.982Z0F1500
G1 X5.074Y38.912Z0F1500
G1 X5.235Y38.878Z0F1500
G1 X5.49Y38.859Z0F1500
G1 X5.788Y38.834Z0F1500
G1 X6.077Y38.782Z0F1500
G1 X6.399Y38.662Z0F1500
G1 X6.761Y38.475Z0F1500
G1 X6.923Y38.37Z0F1500
G1 X7.056Y38.263Z0F1500
G1 X7.145Y38.162Z0F1500
G1 X7.178Y38.07Z0F1500
G1 X7.188Y37.963Z0F1500
G1 X7.215Y37.819Z0F1500
G1 X7.249Y37.65Z0F1500
G1 X7.283Y37.467Z0F1500
G1 X7.307Y37.283Z0F1500
G1 X7.314Y37.11Z0F1500
G1 X7.295Y36.958Z0F1500
G1 X7.242Y36.84Z0F1500
G1 X7.138Y36.745Z0F1500
G1 X6.981Y36.656Z0F1500
G1 X6.792Y36.576Z0F1500
G1 X6.587Y36.508Z0F1500
G1 X6.385Y36.456Z0F1500
G1 X6.205Y36.421Z0F1500
G1 X6.063Y36.408Z0F1500
G1 X5.98Y36.419Z0F1500
G1 X5.62Y36.634Z0F1500
G1 X5.235Y36.873Z0F1500
G1 X5.146Y36.942Z0F1500
G1 X5.01Y37.065Z0F1500
G1 X4.847Y37.222Z0F1500
G1 X4.673Y37.394Z0F1500
G1 X4.366Y37.706Z0F1500
G1 X4.232Y37.844Z0F1500
G1 X4.371Y37.889Z0F1500
G1 X4.685Y37.985Z0F1500
G1 X4.861Y38.035Z0F1500
G1 X5.024Y38.076Z0F1500
G1 X5.155Y38.101Z0F1500
G1 X5.235Z0F1500
G1 X5.305Y38.071Z0F1500
G1 X5.406Y38.008Z0F1500
G1 X5.528Y37.924Z0F1500
G1 X5.656Y37.831Z0F1500
G1 X5.882Y37.661Z0F1500
G1 X5.98Y37.585Z0F1500
G1 X6.271Y37.293Z0F1500
G0 Z4.8F800
G0 X11.463Y28.126Z4.8F1500
G1 Z0F1500
G1 X11.062Y25.061Z0F1500
G1 X10.818Y25.446Z0F1500
G1 X10.827Y28.989Z0F1500
G1 X10.35Y29.222Z0F1500
G1 X10.275Y27.582Z0F1500
G1 X10.252Y25.858Z0F1500
G1 X9.84Y24.577Z0F1500
G1 X9.519Y28.285Z0F1500
G1 X9.657Y31.077Z0F1500
G1 X10.435Y31.123Z0F1500
G1 X11.076Y30.161Z0F1500
G1 X12.266Y28.697Z0F1500
G1 X13.914Y28.239Z0F1500
G1 X15.928Y28.376Z0F1500
G1 X17.118Y27.552Z0F1500
G1 Y32.267Z0F1500
G1 X17.805Y32.038Z0F1500
G1 X17.439Y28.468Z0F1500
G1 X17.713Y26.911Z0F1500
G1 X17.393Y25.813Z0F1500
G1 X17.347Y25.63Z0F1500
G1 X17.622Y24.531Z0F1500
G1 X17.484Y23.02Z0F1500
G1 Y17.71Z0F1500
G0 Z4.8F800
G0 X25.221Y27.69Z4.8F1500
G1 Z0F1500
G1 X25.358Y30.894Z0F1500
G1 X25.083Y32.771Z0F1500
G1 X25.495Y34.007Z0F1500
G1 X25.707Y34.63Z0F1500
G1 X25.837Y35.03Z0F1500
G1 X26.024Y35.667Z0F1500
G1 X26.36Y36.753Z0F1500
G1 X26.471Y37.128Z0F1500
G1 X26.56Y37.455Z0F1500
G1 X26.592Y37.59Z0F1500
G1 X26.615Y37.701Z0F1500
G1 X26.625Y37.784Z0F1500
G1 X26.622Y37.834Z0F1500
G1 X26.136Y39.363Z0F1500
G1 X24.671Y39.5Z0F1500
G1 X24.541Y39.39Z0F1500
G1 X24.225Y39.115Z0F1500
G1 X23.966Y38.88Z0F1500
G1 X23.708Y38.632Z0F1500
G1 X23.482Y38.395Z0F1500
G1 X23.392Y38.289Z0F1500
G1 X23.322Y38.194Z0F1500
G1 X23.277Y38.115Z0F1500
G1 X23.262Y38.053Z0F1500
G1 Y37.957Z0F1500
G1 X23.265Y37.793Z0F1500
G1 X23.275Y37.583Z0F1500
G1 X23.298Y37.352Z0F1500
G1 X23.337Y37.124Z0F1500
G1 X23.398Y36.923Z0F1500
G1 X23.484Y36.772Z0F1500
G1 X23.6Y36.697Z0F1500
G1 X24.219Y36.567Z0F1500
G1 X24.722Y36.458Z0F1500
G1 X24.934Y36.408Z0F1500
G1 X25.091Y36.365Z0F1500
G1 X25.17Y36.334Z0F1500
G1 X25.206Y36.347Z0F1500
G1 X25.235Y36.435Z0F1500
G1 X25.258Y36.587Z0F1500
G1 X25.276Y36.791Z0F1500
G1 X25.298Y37.304Z0F1500
G1 X25.307Y37.876Z0F1500
G1 X25.297Y37.973Z0F1500
G1 X25.268Y38.049Z0F1500
G1 X25.221Y38.106Z0F1500
G1 X25.161Y38.146Z0F1500
G1 X25.01Y38.182Z0F1500
G1 X24.836Y38.174Z0F1500
G1 X24.662Y38.139Z0F1500
G1 X24.511Y38.093Z0F1500
G1 X24.403Y38.054Z0F1500
G1 X24.362Y38.037Z0F1500
G0 Z4.8F800
G0 X27.967Y33.045Z4.8F1500
G1 Z0F1500
G1 X27.784Y32.405Z0F1500
G1 X27.555Y28.513Z0F1500
G0 Z4.8F800
G0 X30.394Y28.605Z4.8F1500
G1 Z0F1500
G1 X30.165Y31.26Z0F1500
G1 X30.302Y32.862Z0F1500
G0 Z4.8F800
G0 X32.682Y33.045Z4.8F1500
G1 Z0F1500
G1 X32.741Y32.705Z0F1500
G1 X32.877Y31.935Z0F1500
G1 X32.955Y31.508Z0F1500
G1 X33.03Y31.114Z0F1500
G1 X33.094Y30.802Z0F1500
G1 X33.12Y30.692Z0F1500
G1 X33.14Y30.619Z0F1500
G1 X33.156Y30.55Z0F1500
G1 X33.168Y30.448Z0F1500
G1 X33.178Y30.319Z0F1500
G1 X33.186Y30.167Z0F1500
G1 X33.195Y29.818Z0F1500
G1 Y29.44Z0F1500
G1 Y29.076Z0F1500
G1 X33.186Y28.468Z0F1500
G0 Z4.8F800
G0 X35.63Y39.009Z4.8F1500
G1 Z0F1500
G1 X35.902Y38.672Z0F1500
G1 X36.152Y38.277Z0F1500
G1 X36.255Y38.096Z0F1500
G1 X36.336Y37.948Z0F1500
G1 X36.407Y37.811Z0F1500
G1 X36.277Y36.743Z0F1500
G1 X36.147Y36.671Z0F1500
G1 X36.021Y36.595Z0F1500
G1 X35.889Y36.504Z0F1500
G1 X35.775Y36.41Z0F1500
G1 X35.704Y36.32Z0F1500
G1 X35.701Y36.244Z0F1500
G1 X35.792Y36.193Z0F1500
G1 X35.969Y36.166Z0F1500
G1 X36.193Y36.157Z0F1500
G1 X36.444Y36.16Z0F1500
G1 X36.698Y36.173Z0F1500
G1 X36.934Y36.189Z0F1500
G1 X37.13Y36.207Z0F1500
G1 X37.313Y36.225Z0F1500
G1 X37.532Y36.451Z0F1500
G1 X37.661Y36.589Z0F1500
G1 X37.794Y36.737Z0F1500
G1 X37.914Y36.881Z0F1500
G1 X38.007Y37.006Z0F1500
G1 X38.058Y37.099Z0F1500
G1 X38.113Y37.26Z0F1500
G1 X38.187Y37.435Z0F1500
G1 X38.285Y37.604Z0F1500
G1 X38.414Y37.747Z0F1500
G1 X38.521Y37.786Z0F1500
G1 X38.683Y37.79Z0F1500
G1 X38.878Y37.766Z0F1500
G1 X39.085Y37.726Z0F1500
G1 X39.284Y37.679Z0F1500
G1 X39.452Y37.633Z0F1500
G1 X39.611Y37.585Z0F1500
G1 X39.662Y37.615Z0F1500
G1 X39.745Y37.702Z0F1500
G1 X39.768Y37.766Z0F1500
G1 X39.762Y37.844Z0F1500
G1 X39.714Y37.935Z0F1500
G1 X39.611Y38.038Z0F1500
G1 X39.325Y38.291Z0F1500
G1 X39.041Y38.584Z0F1500
G1 X38.92Y38.731Z0F1500
G1 X38.824Y38.871Z0F1500
G1 X38.76Y38.998Z0F1500
G1 X38.737Y39.106Z0F1500
G1 X38.711Y39.342Z0F1500
G1 X38.624Y39.608Z0F1500
G1 X38.554Y39.728Z0F1500
G1 X38.464Y39.825Z0F1500
G1 X38.353Y39.891Z0F1500
G1 X38.22Y39.915Z0F1500
G1 X37.853Y39.875Z0F1500
G1 X37.427Y39.786Z0F1500
G1 X37.232Y39.738Z0F1500
G1 X37.073Y39.697Z0F1500
G1 X36.925Y39.656Z0F1500
G1 X36.277Y39.138Z0F1500
G1 X36.345Y39.075Z0F1500
G1 X36.504Y38.92Z0F1500
G1 X36.687Y38.729Z0F1500
G1 X36.828Y38.556Z0F1500
G1 X36.876Y38.451Z0F1500
G1 X36.923Y38.297Z0F1500
G1 X36.967Y38.112Z0F1500
G1 X37.006Y37.916Z0F1500
G1 X37.039Y37.73Z0F1500
G1 X37.064Y37.573Z0F1500
G1 X37.087Y37.423Z0F1500
G1 X37.637Y38.167Z0F1500
G1 X37.831Y39.041Z0F1500
G1 X37.184Y39.106Z0F1500
G1 X37.119Y39.009Z0F1500
;Offset @ 555 mm/min, 90% power

M8
G0 Z4.8F800
G0 X20.224Y40.136Z4.8F1500
G1 Z0F1500
;Layer C1
G1 X20.167Y40.162Z0S900F1500
G1 X20.043Y40.145Z0F1500
G1 X20.124Y40.131Z0F1500
G1 X20.209Y40.106Z0F1500
G1 X20.298Y40.084Z0F1500
G1 X20.224Y40.136Z0F1500
G0 Z4.8F800
G0 X16.329Y42.657Z4.8F1500
G1 Z0F1500
G1 X16.271Y42.664Z0F1500
G1 X16.186Y42.667Z0F1500
G1 X16.115Y42.676Z0F1500
G1 X16.214Y42.653Z0F1500
G1 X16.32Y42.639Z0F1500
G1 X16.329Y42.657Z0F1500
G0 Z4.8F800
G0 X33.779Y22.217Z4.8F1500
G1 Z0F1500
G1 X33.677Z0F1500
G1 X33.635Y22.212Z0F1500
G1 X33.639Y22.209Z0F1500
G1 X33.671Y22.206Z0F1500
G1 X33.761Z0F1500
G1 X33.779Y22.217Z0F1500
G0 Z4.8F800
G0 X36.021Y18.494Z4.8F1500
G1 Z0F1500
G1 X36.004Y18.508Z0F1500
G1 X35.984Y18.521Z0F1500
G1 X36.032Y18.441Z0F1500
G1 X36.072Y18.355Z0F1500
G1 X36.021Y18.494Z0F1500
G0 Z4.8F800
G0 X40.608Y24.353Z4.8F1500
G1 Z0F1500
G1 X40.378Y24.017Z0F1500
G1 X40.504Y23.499Z0F1500
G1 X40.607Y22.798Z0F1500
G1 Y24.353Z0F1500
G0 Z4.8F800
G0 X40.57Y25.183Z4.8F1500
G1 Z0F1500
G1 X39.883Y24.178Z0F1500
G1 X39.836Y24.13Z0F1500
G1 X40.013Y23.403Z0F1500
G1 X40.126Y22.631Z0F1500
G1 X40.174Y21.78Z0F1500
G1 X40.13Y21.147Z0F1500
G1 X40.715Y20.146Z0F1500
G1 X41.029Y19.135Z0F1500
G1 X41.111Y18.425Z0F1500
G1 X41.107Y21.734Z0F1500
G1 Y26.294Z0F1500
G1 X41.078Y26.201Z0F1500
G1 X40.57Y25.183Z0F1500
G0 Z4.8F800
G0 X6.874Y17.966Z4.8F1500
G1 Z0F1500
G1 X6.847Y17.981Z0F1500
G1 Y17.948Z0F1500
G1 X6.874Y17.966Z0F1500
G0 Z4.8F800
G0 X7.575Y18.145Z4.8F1500
G1 Z0F1500
G1 X6.938Y18.504Z0F1500
G1 X6.465Y18.758Z0F1500
G1 X6.384Y18.819Z0F1500
G1 X6.349Y18.808Z0F1500
G1 X6.346Y16.838Z0F1500
G1 X6.908Y17.375Z0F1500
G1 X7.555Y17.841Z0F1500
G1 X7.888Y18.024Z0F1500
G1 X7.575Y18.145Z0F1500
G0 Z4.8F800
G0 X5.849Y19.172Z4.8F1500
G1 Z0F1500
G1 X5.843Y15.351Z0F1500
G1 X5.968Y15.57Z0F1500
G1 X6.329Y16.02Z0F1500
G1 X6.651Y16.438Z0F1500
G1 X7.229Y16.99Z0F1500
G1 X7.822Y17.417Z0F1500
G1 X8.461Y17.77Z0F1500
G1 X8.671Y17.85Z0F1500
G1 X8.675Y17.855Z0F1500
G1 X9.046Y18.167Z0F1500
G1 X8.652Y18.266Z0F1500
G1 X7.789Y18.599Z0F1500
G1 X7.185Y18.939Z0F1500
G1 X6.736Y19.18Z0F1500
G1 X6.479Y19.375Z0F1500
G1 X5.849Y19.172Z0F1500
G0 Z4.8F800
G0 X40.589Y14.521Z4.8F1500
G1 Z0F1500
G1 X40.623Y14.471Z0F1500
G1 X41.035Y13.686Z0F1500
G1 X41.116Y13.439Z0F1500
G1 X41.111Y17.827Z0F1500
G1 X41.094Y17.423Z0F1500
G1 X41.009Y17.035Z0F1500
G1 X40.973Y16.669Z0F1500
G1 X40.858Y15.858Z0F1500
G1 X40.713Y15.079Z0F1500
G1 X40.589Y14.521Z0F1500
G0 Z4.8F800
G0 X40.379Y6.86Z4.8F1500
G1 Z0F1500
G1 X40.339Y6.552Z0F1500
G1 X41.119Z0F1500
G1 Y8.868Z0F1500
G1 X40.766Y7.802Z0F1500
G1 X40.408Y6.928Z0F1500
G1 X40.379Y6.86Z0F1500
G0 Z4.8F800
G0 X39.643Y6.053Z4.8F1500
G1 Z0F1500
G1 X41.62Z0F1500
G1 Y12.205Z0F1500
G1 X41.607Y21.735Z0F1500
G1 Y28.072Z0F1500
G1 X41.033Y27.886Z0F1500
G1 X40.941Y27.865Z0F1500
G1 X40.875Y27.19Z0F1500
G1 X40.614Y26.392Z0F1500
G1 X40.138Y25.437Z0F1500
G1 X39.493Y24.494Z0F1500
G1 X39.268Y24.258Z0F1500
G1 X39.347Y24.029Z0F1500
G1 X39.522Y23.308Z0F1500
G1 X39.629Y22.581Z0F1500
G1 X39.673Y21.783Z0F1500
G1 X39.627Y21.123Z0F1500
G1 X39.596Y20.994Z0F1500
G1 X39.704Y20.884Z0F1500
G1 X40.255Y19.943Z0F1500
G1 X40.538Y19.032Z0F1500
G1 X40.628Y18.239Z0F1500
G1 X40.596Y17.488Z0F1500
G1 X40.513Y17.11Z0F1500
G1 X40.477Y16.729Z0F1500
G1 X40.364Y15.939Z0F1500
G1 X40.223Y15.178Z0F1500
G1 X40.056Y14.425Z0F1500
G1 X40.191Y14.218Z0F1500
G1 X40.573Y13.491Z0F1500
G1 X40.877Y12.563Z0F1500
G1 X40.994Y11.847Z0F1500
G1 X41.022Y11.155Z0F1500
G1 X40.951Y10.406Z0F1500
G1 X40.853Y10.01Z0F1500
G1 X40.657Y9.065Z0F1500
G1 X40.296Y7.976Z0F1500
G1 X39.947Y7.121Z0F1500
G1 X39.893Y6.994Z0F1500
G1 X39.84Y6.591Z0F1500
G1 X39.643Y6.053Z0F1500
G0 Z4.8F800
G0 X38.836Y5.553Z4.8F1500
G1 Z0F1500
G1 X42.12Z0F1500
G1 Y12.205Z0F1500
G1 X42.107Y21.735Z0F1500
G1 Y28.815Z0F1500
G1 X41.543Y28.576Z0F1500
G1 X40.9Y28.368Z0F1500
G1 X40.454Y28.265Z0F1500
G1 X40.467Y28.153Z0F1500
G1 X40.383Y27.293Z0F1500
G1 X40.15Y26.582Z0F1500
G1 X39.706Y25.691Z0F1500
G1 X39.103Y24.81Z0F1500
G1 X38.696Y24.383Z0F1500
G1 X38.866Y23.889Z0F1500
G1 X39.031Y23.212Z0F1500
G1 X39.131Y22.53Z0F1500
G1 X39.172Y21.787Z0F1500
G1 X39.131Y21.199Z0F1500
G1 X39.045Y20.841Z0F1500
G1 X39.304Y20.578Z0F1500
G1 X39.794Y19.74Z0F1500
G1 X40.046Y18.928Z0F1500
G1 X40.127Y18.221Z0F1500
G1 X40.099Y17.553Z0F1500
G1 X40.019Y17.189Z0F1500
G1 X39.98Y16.788Z0F1500
G1 X39.871Y16.02Z0F1500
G1 X39.733Y15.278Z0F1500
G1 X39.538Y14.398Z0F1500
G1 X39.516Y14.337Z0F1500
G1 X39.759Y13.964Z0F1500
G1 X40.111Y13.295Z0F1500
G1 X40.39Y12.445Z0F1500
G1 X40.496Y11.796Z0F1500
G1 X40.521Y11.169Z0F1500
G1 X40.457Y10.49Z0F1500
G1 X40.364Y10.117Z0F1500
G1 X40.173Y9.195Z0F1500
G1 X39.827Y8.149Z0F1500
G1 X39.486Y7.313Z0F1500
G1 X39.406Y7.125Z0F1500
G1 X39.351Y6.711Z0F1500
G1 X39.048Y5.881Z0F1500
G1 X38.836Y5.553Z0F1500
G0 Z4.8F800
G0 X37.782Y5.053Z4.8F1500
G1 Z0F1500
G1 X42.62Z0F1500
G1 Y12.206Z0F1500
G1 X42.607Y21.735Z0F1500
G1 X42.61Y29.652Z0F1500
G1 X42.543Y29.607Z0F1500
G1 X41.962Y29.295Z0F1500
G1 X41.369Y29.045Z0F1500
G1 X40.767Y28.851Z0F1500
G1 X40.158Y28.71Z0F1500
G1 X39.903Y28.674Z0F1500
G1 X39.964Y28.148Z0F1500
G1 X39.891Y27.396Z0F1500
G1 X39.687Y26.772Z0F1500
G1 X39.274Y25.945Z0F1500
G1 X38.713Y25.125Z0F1500
G1 X38.203Y24.591Z0F1500
G1 X38.106Y24.515Z0F1500
G1 X38.173Y24.368Z0F1500
G1 X38.386Y23.748Z0F1500
G1 X38.539Y23.117Z0F1500
G1 X38.633Y22.479Z0F1500
G1 X38.671Y21.79Z0F1500
G1 X38.636Y21.276Z0F1500
G1 X38.512Y20.759Z0F1500
G1 X38.487Y20.696Z0F1500
G1 X38.904Y20.272Z0F1500
G1 X39.334Y19.537Z0F1500
G1 X39.555Y18.825Z0F1500
G1 X39.626Y18.204Z0F1500
G1 X39.601Y17.618Z0F1500
G1 X39.524Y17.268Z0F1500
G1 X39.483Y16.847Z0F1500
G1 X39.377Y16.101Z0F1500
G1 X39.243Y15.378Z0F1500
G1 X39.056Y14.538Z0F1500
G1 X38.97Y14.298Z0F1500
G1 X39.039Y14.15Z0F1500
G1 X39.087Y14.08Z0F1500
G1 X39.328Y13.711Z0F1500
G1 X39.649Y13.099Z0F1500
G1 X39.903Y12.326Z0F1500
G1 X39.998Y11.746Z0F1500
G1 X40.021Y11.183Z0F1500
G1 X39.962Y10.575Z0F1500
G1 X39.878Y10.234Z0F1500
G1 X39.689Y9.325Z0F1500
G1 X39.358Y8.322Z0F1500
G1 X39.024Y7.506Z0F1500
G1 X38.919Y7.26Z0F1500
G1 X38.863Y6.832Z0F1500
G1 X38.597Y6.106Z0F1500
G1 X38.161Y5.43Z0F1500
G1 X37.782Y5.053Z0F1500
G0 Z4.8F800
G0 X36.68Y4.896Z4.8F1500
G1 Z0F1500
G1 X35.996Y4.677Z0F1500
G1 X35.39Y4.636Z0F1500
G1 X34.374Y4.719Z0F1500
G1 X33.578Y4.813Z0F1500
G1 X32.991Y4.871Z0F1500
G1 X32.497Y4.88Z0F1500
G1 X31.565Y4.869Z0F1500
G1 X30.794Y4.855Z0F1500
G1 X30.244Y4.816Z0F1500
G1 X29.938Y4.62Z0F1500
G1 X29.775Y4.554Z0F1500
G1 X35.193Z0F1500
G1 X43.12Y4.551Z0F1500
G1 Y12.206Z0F1500
G1 X43.107Y21.735Z0F1500
G1 X43.11Y30.635Z0F1500
G1 X42.805Y30.383Z0F1500
G1 X42.286Y30.037Z0F1500
G1 X41.747Y29.747Z0F1500
G1 X41.194Y29.514Z0F1500
G1 X40.634Y29.333Z0F1500
G1 X40.066Y29.202Z0F1500
G1 X39.497Y29.12Z0F1500
G1 X39.275Y29.106Z0F1500
G1 X39.386Y28.789Z0F1500
G1 X39.461Y28.144Z0F1500
G1 X39.398Y27.5Z0F1500
G1 X39.223Y26.962Z0F1500
G1 X38.842Y26.199Z0F1500
G1 X38.324Y25.441Z0F1500
G1 X37.866Y24.962Z0F1500
G1 X37.488Y24.665Z0F1500
G1 X37.708Y24.183Z0F1500
G1 X37.905Y23.607Z0F1500
G1 X38.048Y23.021Z0F1500
G1 X38.135Y22.429Z0F1500
G1 X38.17Y21.793Z0F1500
G1 X38.14Y21.352Z0F1500
G1 X38.033Y20.909Z0F1500
G1 X37.893Y20.549Z0F1500
G1 X37.989Y20.488Z0F1500
G1 X38.504Y19.965Z0F1500
G1 X38.874Y19.334Z0F1500
G1 X39.063Y18.721Z0F1500
G1 X39.125Y18.186Z0F1500
G1 X39.103Y17.682Z0F1500
G1 X39.029Y17.345Z0F1500
G1 X38.987Y16.906Z0F1500
G1 X38.884Y16.182Z0F1500
G1 X38.753Y15.478Z0F1500
G1 X38.575Y14.677Z0F1500
G1 X38.43Y14.274Z0F1500
G1 X38.571Y13.971Z0F1500
G1 X38.583Y13.931Z0F1500
G1 X38.671Y13.802Z0F1500
G1 X38.896Y13.458Z0F1500
G1 X39.187Y12.904Z0F1500
G1 X39.416Y12.207Z0F1500
G1 X39.499Y11.695Z0F1500
G1 X39.52Y11.196Z0F1500
G1 X39.468Y10.659Z0F1500
G1 X39.39Y10.341Z0F1500
G1 X39.206Y9.454Z0F1500
G1 X38.889Y8.496Z0F1500
G1 X38.563Y7.699Z0F1500
G1 X38.432Y7.393Z0F1500
G1 X38.374Y6.951Z0F1500
G1 X38.147Y6.33Z0F1500
G1 X37.77Y5.746Z0F1500
G1 X37.286Y5.265Z0F1500
G1 X36.68Y4.896Z0F1500
G0 Z4.8F800
G0 X35.193Y4.054Z4.8F1500
G1 Z0F1500
G1 X43.62Y4.051Z0F1500
G1 Y12.207Z0F1500
G1 X43.607Y21.735Z0F1500
G1 X43.61Y31.269Z0F1500
G1 X43.613Y31.914Z0F1500
G1 X43.116Y31.318Z0F1500
G1 X42.95Y31.151Z0F1500
G1 X42.506Y30.785Z0F1500
G1 X42.028Y30.466Z0F1500
G1 X41.531Y30.199Z0F1500
G1 X41.02Y29.983Z0F1500
G1 X40.5Y29.815Z0F1500
G1 X39.974Y29.694Z0F1500
G1 X39.445Y29.618Z0F1500
G1 X38.812Y29.578Z0F1500
G1 X38.608Y29.604Z0F1500
G1 X38.621Y29.5Z0F1500
G1 X38.648Y29.362Z0F1500
G1 X38.677Y29.262Z0F1500
G1 X38.77Y29.038Z0F1500
G1 X38.896Y28.676Z0F1500
G1 X38.958Y28.139Z0F1500
G1 X38.906Y27.603Z0F1500
G1 X38.759Y27.153Z0F1500
G1 X38.41Y26.453Z0F1500
G1 X37.934Y25.757Z0F1500
G1 X37.529Y25.333Z0F1500
G1 X37.063Y24.966Z0F1500
G1 X36.821Y24.834Z0F1500
G1 X37.006Y24.517Z0F1500
G1 X37.243Y23.998Z0F1500
G1 X37.425Y23.467Z0F1500
G1 X37.557Y22.925Z0F1500
G1 X37.637Y22.379Z0F1500
G1 X37.669Y21.797Z0F1500
G1 X37.644Y21.428Z0F1500
G1 X37.555Y21.059Z0F1500
G1 X37.3Y20.404Z0F1500
G1 X37.27Y20.351Z0F1500
G1 X37.673Y20.097Z0F1500
G1 X38.104Y19.659Z0F1500
G1 X38.413Y19.131Z0F1500
G1 X38.572Y18.618Z0F1500
G1 X38.624Y18.168Z0F1500
G1 X38.605Y17.747Z0F1500
G1 X38.534Y17.422Z0F1500
G1 X38.49Y16.966Z0F1500
G1 X38.39Y16.263Z0F1500
G1 X38.263Y15.578Z0F1500
G1 X38.094Y14.817Z0F1500
G1 X37.939Y14.387Z0F1500
G1 X37.87Y14.278Z0F1500
G1 X37.896Y14.237Z0F1500
G1 X38.103Y13.792Z0F1500
G1 X38.126Y13.713Z0F1500
G1 X38.255Y13.524Z0F1500
G1 X38.464Y13.204Z0F1500
G1 X38.725Y12.708Z0F1500
G1 X38.928Y12.088Z0F1500
G1 X39Y11.645Z0F1500
G1 X39.019Y11.21Z0F1500
G1 X38.974Y10.743Z0F1500
G1 X38.901Y10.45Z0F1500
G1 X38.722Y9.584Z0F1500
G1 X38.419Y8.669Z0F1500
G1 X38.102Y7.891Z0F1500
G1 X37.939Y7.511Z0F1500
G1 Y7.463Z0F1500
G1 X37.886Y7.071Z0F1500
G1 X37.696Y6.554Z0F1500
G1 X37.379Y6.063Z0F1500
G1 X36.975Y5.661Z0F1500
G1 X36.471Y5.354Z0F1500
G1 X35.901Y5.172Z0F1500
G1 X35.394Y5.138Z0F1500
G1 X34.423Y5.217Z0F1500
G1 X33.636Y5.31Z0F1500
G1 X33.018Y5.37Z0F1500
G1 X32.499Y5.38Z0F1500
G1 X31.56Y5.369Z0F1500
G1 X30.769Y5.354Z0F1500
G1 X30.092Y5.308Z0F1500
G1 X30.08Y5.305Z0F1500
G1 X29.707Y5.066Z0F1500
G1 X29.233Y4.874Z0F1500
G1 X28.719Y4.786Z0F1500
G1 X28.364Y4.794Z0F1500
G1 X28.268Y4.734Z0F1500
G1 X28.161Y4.481Z0F1500
G1 X27.834Y4.054Z0F1500
G1 X35.193Z0F1500
G0 Z4.8F800
G0 X44.12Y3.551Z4.8F1500
G1 Z0F1500
G1 Y12.208Z0F1500
G1 X44.107Y21.736Z0F1500
G1 X44.11Y31.268Z0F1500
G1 X44.119Y33.431Z0F1500
G1 X44.057Y33.332Z0F1500
G1 X43.434Y32.479Z0F1500
G1 X42.747Y31.655Z0F1500
G1 X42.613Y31.522Z0F1500
G1 X42.208Y31.187Z0F1500
G1 X41.771Y30.895Z0F1500
G1 X41.315Y30.65Z0F1500
G1 X40.846Y30.453Z0F1500
G1 X40.367Y30.298Z0F1500
G1 X39.882Y30.186Z0F1500
G1 X39.394Y30.116Z0F1500
G1 X38.828Y30.08Z0F1500
G1 X38.332Y30.142Z0F1500
G1 X38.086Y30.25Z0F1500
G1 X38.083Y30.142Z0F1500
G1 X38.103Y29.609Z0F1500
G1 X38.126Y29.422Z0F1500
G1 X38.161Y29.246Z0F1500
G1 X38.204Y29.099Z0F1500
G1 X38.302Y28.859Z0F1500
G1 X38.406Y28.564Z0F1500
G1 X38.456Y28.134Z0F1500
G1 X38.414Y27.706Z0F1500
G1 X38.295Y27.343Z0F1500
G1 X37.978Y26.707Z0F1500
G1 X37.544Y26.073Z0F1500
G1 X37.192Y25.704Z0F1500
G1 X36.786Y25.385Z0F1500
G1 X36.298Y25.117Z0F1500
G1 X36.077Y25.043Z0F1500
G1 X36.295Y24.744Z0F1500
G1 X36.562Y24.287Z0F1500
G1 X36.777Y23.813Z0F1500
G1 X36.944Y23.326Z0F1500
G1 X37.065Y22.83Z0F1500
G1 X37.139Y22.329Z0F1500
G1 X37.168Y21.8Z0F1500
G1 X37.148Y21.504Z0F1500
G1 X37.077Y21.209Z0F1500
G1 X36.848Y20.621Z0F1500
G1 X36.602Y20.191Z0F1500
G1 X36.646Y20.154Z0F1500
G1 X36.756Y20.029Z0F1500
G1 X36.989Y19.938Z0F1500
G1 X37.357Y19.705Z0F1500
G1 X37.704Y19.353Z0F1500
G1 X37.952Y18.928Z0F1500
G1 X38.081Y18.514Z0F1500
G1 X38.123Y18.15Z0F1500
G1 X38.108Y17.812Z0F1500
G1 X38.04Y17.503Z0F1500
G1 X37.994Y17.025Z0F1500
G1 X37.896Y16.343Z0F1500
G1 X37.773Y15.678Z0F1500
G1 X37.613Y14.957Z0F1500
G1 X37.488Y14.609Z0F1500
G1 X37.277Y14.278Z0F1500
G1 X37.456Y13.997Z0F1500
G1 X37.634Y13.613Z0F1500
G1 X37.668Y13.5Z0F1500
G1 X37.696Y13.457Z0F1500
G1 X37.839Y13.247Z0F1500
G1 X38.033Y12.95Z0F1500
G1 X38.263Y12.512Z0F1500
G1 X38.441Y11.969Z0F1500
G1 X38.502Y11.594Z0F1500
G1 X38.518Y11.223Z0F1500
G1 X38.479Y10.828Z0F1500
G1 X38.413Y10.557Z0F1500
G1 X38.238Y9.713Z0F1500
G1 X37.95Y8.842Z0F1500
G1 X37.64Y8.084Z0F1500
G1 X37.443Y7.622Z0F1500
G1 X37.438Y7.506Z0F1500
G1 X37.397Y7.191Z0F1500
G1 X37.246Y6.778Z0F1500
G1 X36.988Y6.379Z0F1500
G1 X36.665Y6.057Z0F1500
G1 X36.262Y5.812Z0F1500
G1 X35.807Y5.667Z0F1500
G1 X35.397Y5.639Z0F1500
G1 X34.473Y5.714Z0F1500
G1 X33.694Y5.806Z0F1500
G1 X33.046Y5.87Z0F1500
G1 X32.5Y5.88Z0F1500
G1 X31.554Y5.869Z0F1500
G1 X30.754Y5.854Z0F1500
G1 X30.027Y5.804Z0F1500
G1 X29.855Y5.774Z0F1500
G1 X29.777Y5.706Z0F1500
G1 X29.476Y5.512Z0F1500
G1 X29.095Y5.358Z0F1500
G1 X28.682Y5.287Z0F1500
G1 X28.307Y5.295Z0F1500
G1 X28.243Y5.308Z0F1500
G1 X27.978Y5.143Z0F1500
G1 X27.873Y5.083Z0F1500
G1 X27.725Y4.734Z0F1500
G1 X27.419Y4.334Z0F1500
G1 X27.049Y4.045Z0F1500
G1 X26.508Y3.776Z0F1500
G1 X25.992Y3.612Z0F1500
G1 X25.653Y3.554Z0F1500
G1 X35.193Z0F1500
G1 X44.12Y3.551Z0F1500
G0 Z4.8F800
G0 X6.768Y5.596Z4.8F1500
G1 Z0F1500
G1 X6.583Y6.068Z0F1500
G1 X6.442Y6.343Z0F1500
G1 X6.207Y6.975Z0F1500
G1 X6.171Y7.127Z0F1500
G1 X5.965Y7.653Z0F1500
G1 X5.864Y7.897Z0F1500
G1 X5.894Y5.599Z0F1500
G1 X6.768Y5.596Z0F1500
G0 Z4.8F800
G0 X7.5Y5.093Z4.8F1500
G1 Z0F1500
G1 X7.04Y6.273Z0F1500
G1 X6.9Y6.545Z0F1500
G1 X6.686Y7.12Z0F1500
G1 X6.649Y7.278Z0F1500
G1 X6.431Y7.838Z0F1500
G1 X6.06Y8.728Z0F1500
G1 X5.838Y9.371Z0F1500
G1 X5.649Y10.101Z0F1500
G1 X5.524Y10.932Z0F1500
G1 X5.491Y12.332Z0F1500
G1 X5.582Y13.28Z0F1500
G1 X5.748Y13.959Z0F1500
G1 X6.005Y14.622Z0F1500
G1 X6.383Y15.289Z0F1500
G1 X6.718Y15.705Z0F1500
G1 X7.024Y16.103Z0F1500
G1 X7.549Y16.604Z0F1500
G1 X8.09Y16.994Z0F1500
G1 X8.671Y17.315Z0F1500
G1 X8.979Y17.432Z0F1500
G1 X9.037Y17.505Z0F1500
G1 X9.566Y17.95Z0F1500
G1 X10.1Y18.267Z0F1500
G1 X10.519Y18.436Z0F1500
G1 X10.271Y18.449Z0F1500
G1 X9.557Y18.554Z0F1500
G1 X8.803Y18.743Z0F1500
G1 X8.002Y19.052Z0F1500
G1 X7.422Y19.379Z0F1500
G1 X7.007Y19.603Z0F1500
G1 X6.573Y19.931Z0F1500
G1 X6.015Y19.75Z0F1500
G1 X5.396Y21.356Z0F1500
G1 X5.348Y21.443Z0F1500
G1 Y19.22Z0F1500
G1 X5.341Y13.917Z0F1500
G1 X5.355Y8.608Z0F1500
G1 X5.4Y5.101Z0F1500
G1 X7.5Y5.093Z0F1500
G0 Z4.8F800
G0 X8.031Y5.109Z4.8F1500
G1 Z0F1500
G1 X7.497Y6.48Z0F1500
G1 X7.359Y6.748Z0F1500
G1 X7.166Y7.265Z0F1500
G1 X7.127Y7.426Z0F1500
G1 X6.898Y8.015Z0F1500
G1 X6.528Y8.905Z0F1500
G1 X6.317Y9.515Z0F1500
G1 X6.14Y10.202Z0F1500
G1 X6.023Y10.975Z0F1500
G1 X5.992Y12.313Z0F1500
G1 X6.077Y13.196Z0F1500
G1 X6.226Y13.809Z0F1500
G1 X6.458Y14.407Z0F1500
G1 X6.798Y15.007Z0F1500
G1 X7.118Y15.405Z0F1500
G1 X7.397Y15.768Z0F1500
G1 X7.869Y16.219Z0F1500
G1 X8.358Y16.571Z0F1500
G1 X8.882Y16.86Z0F1500
G1 X9.287Y17.014Z0F1500
G1 X9.398Y17.156Z0F1500
G1 X9.856Y17.541Z0F1500
G1 X10.322Y17.817Z0F1500
G1 X10.819Y18.018Z0F1500
G1 X11.312Y18.132Z0F1500
G1 X11.56Y18.157Z0F1500
G1 X11.509Y18.291Z0F1500
G1 X11.403Y18.89Z0F1500
G1 X11.313Y18.893Z0F1500
G1 X10.322Y18.947Z0F1500
G1 X9.654Y19.045Z0F1500
G1 X8.955Y19.221Z0F1500
G1 X8.216Y19.505Z0F1500
G1 X7.646Y19.827Z0F1500
G1 X7.278Y20.024Z0F1500
G1 X6.768Y20.41Z0F1500
G1 X6.687Y20.493Z0F1500
G1 X6.311Y20.372Z0F1500
G1 X5.85Y21.569Z0F1500
G1 X5.722Y21.799Z0F1500
G1 X5.518Y22.285Z0F1500
G1 X5.374Y22.774Z0F1500
G1 X5.362Y22.836Z0F1500
G1 X5.138Y23.42Z0F1500
G1 X4.975Y23.942Z0F1500
G1 X4.891Y23.933Z0F1500
G1 X4.845Y24.245Z0F1500
G1 X4.849Y19.22Z0F1500
G1 X4.841Y13.915Z0F1500
G1 X4.855Y8.632Z0F1500
G1 X4.907Y4.61Z0F1500
G1 X5.182Y4.602Z0F1500
G1 X8.577Y4.589Z0F1500
G1 X8.501Y4.889Z0F1500
G1 X8.47Y5.157Z0F1500
G1 X8.409Y5.224Z0F1500
G1 X8.031Y5.109Z0F1500
G0 Z4.8F800
G0 X5.165Y4.102Z4.8F1500
G1 Z0F1500
G1 X9.179Y4.087Z0F1500
G1 X9.122Y4.492Z0F1500
G1 X9.114Y4.508Z0F1500
G1 X8.994Y4.979Z0F1500
G1 X8.948Y5.376Z0F1500
G1 X8.944Y5.381Z0F1500
G1 X8.643Y5.708Z0F1500
G1 X8.572Y5.795Z0F1500
G1 X8.329Y5.722Z0F1500
G1 X7.953Y6.685Z0F1500
G1 X7.817Y6.95Z0F1500
G1 X7.645Y7.41Z0F1500
G1 X7.606Y7.574Z0F1500
G1 X7.367Y8.19Z0F1500
G1 X6.995Y9.083Z0F1500
G1 X6.796Y9.659Z0F1500
G1 X6.63Y10.302Z0F1500
G1 X6.522Y11.018Z0F1500
G1 X6.492Y12.295Z0F1500
G1 X6.571Y13.112Z0F1500
G1 X6.704Y13.659Z0F1500
G1 X6.911Y14.192Z0F1500
G1 X7.213Y14.725Z0F1500
G1 X7.504Y15.087Z0F1500
G1 X7.77Y15.433Z0F1500
G1 X8.189Y15.833Z0F1500
G1 X8.626Y16.147Z0F1500
G1 X9.093Y16.406Z0F1500
G1 X9.594Y16.596Z0F1500
G1 X9.759Y16.807Z0F1500
G1 X10.147Y17.132Z0F1500
G1 X10.544Y17.368Z0F1500
G1 X10.97Y17.539Z0F1500
G1 X11.394Y17.638Z0F1500
G1 X11.947Y17.694Z0F1500
G1 X12.12Y17.687Z0F1500
G1 X12.129Y17.747Z0F1500
G1 X12.132Y17.921Z0F1500
G1 X12.113Y18.064Z0F1500
G1 X12.05Y18.274Z0F1500
G1 X11.993Y18.424Z0F1500
G1 X11.889Y19.012Z0F1500
G1 X11.896Y19.376Z0F1500
G1 X11.334Y19.392Z0F1500
G1 X10.372Y19.445Z0F1500
G1 X9.752Y19.536Z0F1500
G1 X9.105Y19.698Z0F1500
G1 X8.43Y19.959Z0F1500
G1 X7.905Y20.255Z0F1500
G1 X7.548Y20.446Z0F1500
G1 X7.099Y20.787Z0F1500
G1 X6.828Y21.063Z0F1500
G1 X6.608Y20.993Z0F1500
G1 X6.304Y21.781Z0F1500
G1 X6.172Y22.018Z0F1500
G1 X5.99Y22.453Z0F1500
G1 X5.86Y22.891Z0F1500
G1 X5.845Y22.974Z0F1500
G1 X5.61Y23.584Z0F1500
G1 X5.328Y24.488Z0F1500
G1 X5.316Z0F1500
G1 X5.298Y24.609Z0F1500
G1 X5.197Y25.037Z0F1500
G1 X5.101Y25.571Z0F1500
G1 X5.037Y26.128Z0F1500
G1 X5.019Y26.52Z0F1500
G1 X4.96Y26.922Z0F1500
G1 X4.82Y27.47Z0F1500
G1 X4.624Y28.256Z0F1500
G1 X4.466Y29.29Z0F1500
G1 X4.489Y29.826Z0F1500
G1 X4.617Y30.288Z0F1500
G1 X4.808Y30.732Z0F1500
G1 X4.839Y30.802Z0F1500
G1 X4.851Y31.275Z0F1500
G1 X4.87Y31.795Z0F1500
G1 Y31.861Z0F1500
G1 X4.8Y31.935Z0F1500
G1 X4.349Y32.101Z0F1500
G1 Y29.732Z0F1500
G1 X4.345Y24.54Z0F1500
G1 X4.349Y19.22Z0F1500
G1 X4.341Y13.914Z0F1500
G1 X4.355Y8.626Z0F1500
G1 X4.413Y4.123Z0F1500
G1 X4.473Z0F1500
G1 X5.165Y4.102Z0F1500
G0 Z4.8F800
G0 X9.848Y4.11Z4.8F1500
G1 Z0F1500
G1 X9.785Y4.248Z0F1500
G1 X9.661Z0F1500
G1 X9.606Y4.635Z0F1500
G1 X9.587Y4.676Z0F1500
G1 X9.487Y5.07Z0F1500
G1 X9.443Y5.45Z0F1500
G1 X9.447Y5.567Z0F1500
G1 X9.325Y5.706Z0F1500
G1 X9.021Y6.035Z0F1500
G1 X8.749Y6.372Z0F1500
G1 X8.626Y6.335Z0F1500
G1 X8.409Y6.892Z0F1500
G1 X8.275Y7.152Z0F1500
G1 X8.125Y7.556Z0F1500
G1 X8.085Y7.722Z0F1500
G1 X7.82Y8.402Z0F1500
G1 X7.463Y9.261Z0F1500
G1 X7.276Y9.804Z0F1500
G1 X7.121Y10.402Z0F1500
G1 X7.021Y11.061Z0F1500
G1 X6.993Y12.277Z0F1500
G1 X7.065Y13.029Z0F1500
G1 X7.182Y13.508Z0F1500
G1 X7.364Y13.977Z0F1500
G1 X7.628Y14.443Z0F1500
G1 X7.894Y14.773Z0F1500
G1 X8.143Y15.097Z0F1500
G1 X8.51Y15.448Z0F1500
G1 X8.894Y15.725Z0F1500
G1 X9.304Y15.951Z0F1500
G1 X9.902Y16.178Z0F1500
G1 X10.121Y16.457Z0F1500
G1 X10.437Y16.723Z0F1500
G1 X10.767Y16.918Z0F1500
G1 X11.121Y17.061Z0F1500
G1 X11.476Y17.144Z0F1500
G1 X11.962Y17.192Z0F1500
G1 X12.398Y17.174Z0F1500
G1 X12.541Y17.155Z0F1500
G1 X12.562Y17.379Z0F1500
G1 X12.592Y17.466Z0F1500
G1 X12.628Y17.706Z0F1500
G1 X12.632Y17.952Z0F1500
G1 X12.603Y18.171Z0F1500
G1 X12.524Y18.433Z0F1500
G1 X12.477Y18.558Z0F1500
G1 X12.39Y19.051Z0F1500
G1 X12.399Y19.544Z0F1500
G1 X12.469Y19.884Z0F1500
G1 X12.25Y19.866Z0F1500
G1 X11.355Y19.892Z0F1500
G1 X10.422Y19.943Z0F1500
G1 X9.849Y20.027Z0F1500
G1 X9.257Y20.176Z0F1500
G1 X8.644Y20.412Z0F1500
G1 X8.16Y20.685Z0F1500
G1 X7.819Y20.869Z0F1500
G1 X7.43Y21.163Z0F1500
G1 X7.101Y21.499Z0F1500
G1 X6.994Y21.643Z0F1500
G1 X6.904Y21.614Z0F1500
G1 X6.757Y21.996Z0F1500
G1 X6.622Y22.238Z0F1500
G1 X6.461Y22.621Z0F1500
G1 X6.347Y23.008Z0F1500
G1 X6.328Y23.111Z0F1500
G1 X6.083Y23.749Z0F1500
G1 X5.805Y24.639Z0F1500
G1 X5.687Y25.139Z0F1500
G1 X5.595Y25.644Z0F1500
G1 X5.535Y26.168Z0F1500
G1 X5.517Y26.568Z0F1500
G1 X5.451Y27.02Z0F1500
G1 X5.305Y27.592Z0F1500
G1 X5.114Y28.354Z0F1500
G1 X4.967Y29.317Z0F1500
G1 X4.986Y29.748Z0F1500
G1 X5.089Y30.121Z0F1500
G1 X5.267Y30.532Z0F1500
G1 X5.336Y30.69Z0F1500
G1 X5.351Y31.259Z0F1500
G1 X5.37Y31.787Z0F1500
G1 X5.374Y32.06Z0F1500
G1 X5.08Y32.366Z0F1500
G1 X4.992Y32.397Z0F1500
G1 X4.324Y32.643Z0F1500
G1 X3.848Y32.859Z0F1500
G1 X3.851Y29.732Z0F1500
G1 X3.845Y24.539Z0F1500
G1 X3.849Y19.22Z0F1500
G1 X3.841Y13.913Z0F1500
G1 X3.855Y8.62Z0F1500
G1 X3.919Y3.624Z0F1500
G1 X4.465Z0F1500
G1 X5.165Y3.602Z0F1500
G1 X10.27Y3.583Z0F1500
G1 X10.202Y3.646Z0F1500
G1 X9.848Y4.11Z0F1500
G0 Z4.8F800
G0 X8.924Y6.948Z4.8F1500
G1 Z0F1500
G1 X8.866Y7.097Z0F1500
G1 X8.733Y7.355Z0F1500
G1 X8.604Y7.701Z0F1500
G1 X8.563Y7.873Z0F1500
G1 X8.29Y8.574Z0F1500
G1 X7.931Y9.438Z0F1500
G1 X7.755Y9.948Z0F1500
G1 X7.611Y10.502Z0F1500
G1 X7.521Y11.104Z0F1500
G1 X7.494Y12.259Z0F1500
G1 X7.559Y12.945Z0F1500
G1 X7.66Y13.358Z0F1500
G1 X7.817Y13.762Z0F1500
G1 X8.043Y14.162Z0F1500
G1 X8.283Y14.46Z0F1500
G1 X8.516Y14.762Z0F1500
G1 X8.83Y15.063Z0F1500
G1 X9.162Y15.301Z0F1500
G1 X9.515Y15.496Z0F1500
G1 X10.126Y15.729Z0F1500
G1 X10.207Y15.75Z0F1500
G1 X10.22Y15.774Z0F1500
G1 X10.482Y16.107Z0F1500
G1 X10.728Y16.314Z0F1500
G1 X10.989Y16.469Z0F1500
G1 X11.271Y16.583Z0F1500
G1 X11.558Y16.649Z0F1500
G1 X11.977Y16.691Z0F1500
G1 X12.354Y16.676Z0F1500
G1 X12.647Y16.636Z0F1500
G1 X12.843Y16.604Z0F1500
G1 X12.902Y16.596Z0F1500
G1 X12.97Y16.632Z0F1500
G1 X13.031Y17.032Z0F1500
G1 X13.054Y17.272Z0F1500
G1 X13.079Y17.345Z0F1500
G1 X13.127Y17.666Z0F1500
G1 X13.133Y17.983Z0F1500
G1 X13.094Y18.275Z0F1500
G1 X12.998Y18.594Z0F1500
G1 X12.961Y18.692Z0F1500
G1 X12.891Y19.09Z0F1500
G1 X12.898Y19.489Z0F1500
G1 X12.976Y19.867Z0F1500
G1 X13.126Y20.233Z0F1500
G1 X13.253Y20.411Z0F1500
G1 X13.02Y20.59Z0F1500
G1 X12.937Y20.536Z0F1500
G1 X12.577Y20.395Z0F1500
G1 X12.236Y20.367Z0F1500
G1 X11.376Y20.392Z0F1500
G1 X10.472Y20.441Z0F1500
G1 X9.947Y20.519Z0F1500
G1 X9.408Y20.653Z0F1500
G1 X8.858Y20.866Z0F1500
G1 X8.397Y21.125Z0F1500
G1 X8.09Y21.291Z0F1500
G1 X7.761Y21.54Z0F1500
G1 X7.482Y21.824Z0F1500
G1 X7.253Y22.134Z0F1500
G1 X7.072Y22.457Z0F1500
G1 X6.933Y22.789Z0F1500
G1 X6.834Y23.125Z0F1500
G1 X6.811Y23.249Z0F1500
G1 X6.555Y23.913Z0F1500
G1 X6.288Y24.771Z0F1500
G1 X6.176Y25.241Z0F1500
G1 X6.09Y25.717Z0F1500
G1 X6.034Y26.208Z0F1500
G1 X6.015Y26.619Z0F1500
G1 X5.943Y27.112Z0F1500
G1 X5.79Y27.714Z0F1500
G1 X5.605Y28.453Z0F1500
G1 X5.469Y29.345Z0F1500
G1 X5.483Y29.669Z0F1500
G1 X5.562Y29.955Z0F1500
G1 X5.725Y30.332Z0F1500
G1 X5.818Y30.544Z0F1500
G1 X5.836Y30.596Z0F1500
G1 Y30.62Z0F1500
G1 X5.851Y31.244Z0F1500
G1 X5.871Y31.801Z0F1500
G1 X5.877Y32.273Z0F1500
G1 X5.82Y32.317Z0F1500
G1 X5.47Y32.682Z0F1500
G1 X5.411Y32.779Z0F1500
G1 X5.162Y32.867Z0F1500
G1 X4.514Y33.106Z0F1500
G1 X3.81Y33.425Z0F1500
G1 X3.347Y33.71Z0F1500
G1 X3.351Y29.732Z0F1500
G1 X3.345Y24.539Z0F1500
G1 X3.349Y19.22Z0F1500
G1 X3.341Y13.911Z0F1500
G1 X3.355Y8.613Z0F1500
G1 X3.423Y3.314Z0F1500
G1 X3.439Y3.13Z0F1500
G1 X3.8Y3.124Z0F1500
G1 X4.458Z0F1500
G1 X5.147Y3.102Z0F1500
G1 X11.783Y3.077Z0F1500
G1 X11.437Y3.273Z0F1500
G1 X11.261Y3.409Z0F1500
G1 X11.087Y3.537Z0F1500
G1 X10.856Y3.72Z0F1500
G1 X10.574Y3.983Z0F1500
G1 X10.279Y4.369Z0F1500
G1 X10.106Y4.746Z0F1500
G1 X10.096Z0F1500
G1 X10.092Y4.776Z0F1500
G1 X10.061Y4.844Z0F1500
G1 X9.979Y5.161Z0F1500
G1 X9.944Y5.471Z0F1500
G1 X9.952Y5.729Z0F1500
G1 X9.872Y5.84Z0F1500
G1 X9.68Y6.059Z0F1500
G1 X9.399Y6.362Z0F1500
G1 X9.071Y6.769Z0F1500
G1 X8.95Y6.956Z0F1500
G1 X8.924Y6.948Z0F1500
G0 Z4.8F800
G0 X29.479Y43.422Z4.8F1500
G1 Z0F1500
G1 X29.517Y43.386Z0F1500
G1 X30.166Y42.891Z0F1500
G1 X30.358Y43.155Z0F1500
G1 X30.606Y43.422Z0F1500
G1 X29.479Z0F1500
G0 Z4.8F800
G0 X28.867Y43.307Z4.8F1500
G1 Z0F1500
G1 X28.936Y43.253Z0F1500
G1 X29.19Y43.007Z0F1500
G1 X29.687Y42.628Z0F1500
G1 X29.609Y42.525Z0F1500
G1 X29.839Y42.2Z0F1500
G1 X29.896Y42.098Z0F1500
G1 X30.163Y41.785Z0F1500
G1 X30.189Y41.91Z0F1500
G1 X30.425Y42.396Z0F1500
G1 X30.745Y42.837Z0F1500
G1 X31.064Y43.182Z0F1500
G1 X31.4Y43.47Z0F1500
G1 X31.768Y43.728Z0F1500
G1 X32.136Y43.922Z0F1500
G1 X28.003Z0F1500
G1 X28.358Y43.703Z0F1500
G1 X28.457Y43.626Z0F1500
G1 X28.542Y43.689Z0F1500
G1 X28.867Y43.307Z0F1500
G0 Z4.8F800
G0 X22.609Y43.922Z4.8F1500
G1 Z0F1500
G1 X20.245Z0F1500
G1 X20.235Y43.883Z0F1500
G1 X20.224Y43.861Z0F1500
G1 X20.49Y43.674Z0F1500
G1 X20.96Y43.162Z0F1500
G1 X21.271Y42.687Z0F1500
G1 X21.351Y42.531Z0F1500
G1 X21.621Y42.964Z0F1500
G1 X22.097Y43.505Z0F1500
G1 X22.609Y43.922Z0F1500
G0 Z4.8F800
G0 X23.512Y43.87Z4.8F1500
G1 Z0F1500
G1 X24.111Y44.08Z0F1500
G1 X24.361Y44.131Z0F1500
G1 X24.987Y44.178Z0F1500
G1 X25.65Y44.214Z0F1500
G1 X26.169Y44.177Z0F1500
G1 X26.229Y44.164Z0F1500
G1 X26.358Y44.353Z0F1500
G1 X27.125Y43.878Z0F1500
G1 X27.364Y43.771Z0F1500
G1 X27.652Y43.552Z0F1500
G1 X28.072Y43.292Z0F1500
G1 X28.448Y42.999Z0F1500
G1 X28.463Y43.01Z0F1500
G1 X28.521Y42.943Z0F1500
G1 X28.607Y42.875Z0F1500
G1 X28.863Y42.627Z0F1500
G1 X28.988Y42.532Z0F1500
G1 X28.971Y42.51Z0F1500
G1 X29.169Y42.28Z0F1500
G1 X29.416Y41.933Z0F1500
G1 X29.483Y41.813Z0F1500
G1 X29.811Y41.427Z0F1500
G1 X30.314Y40.83Z0F1500
G1 X30.554Y40.503Z0F1500
G1 X30.576Y41.319Z0F1500
G1 X30.667Y41.747Z0F1500
G1 X30.856Y42.139Z0F1500
G1 X31.132Y42.519Z0F1500
G1 X31.412Y42.821Z0F1500
G1 X31.707Y43.075Z0F1500
G1 X32.029Y43.3Z0F1500
G1 X32.581Y43.592Z0F1500
G1 X33.106Y43.79Z0F1500
G1 X33.548Y43.924Z0F1500
G1 X33.908Y44.025Z0F1500
G1 X34.159Y44.101Z0F1500
G1 X34.367Y44.183Z0F1500
G1 X34.913Y44.422Z0F1500
G1 X19.859Z0F1500
G1 X19.763Y44.055Z0F1500
G1 X19.708Y43.939Z0F1500
G1 X19.684Y43.82Z0F1500
G1 X19.615Y43.679Z0F1500
G1 X20.158Y43.296Z0F1500
G1 X20.564Y42.854Z0F1500
G1 X20.838Y42.436Z0F1500
G1 X21.01Y42.099Z0F1500
G1 X21.119Y41.867Z0F1500
G1 X21.198Y41.703Z0F1500
G1 X21.225Y41.654Z0F1500
G1 X21.379Y41.5Z0F1500
G1 X21.418Y41.426Z0F1500
G1 X21.442Y41.533Z0F1500
G1 X21.687Y42.124Z0F1500
G1 X22.023Y42.665Z0F1500
G1 X22.444Y43.144Z0F1500
G1 X22.942Y43.549Z0F1500
G1 X23.512Y43.87Z0F1500
G0 Z4.8F800
G0 X12.09Y43.917Z4.8F1500
G1 Z0F1500
G1 X11.423Z0F1500
G1 X11.433Y43.808Z0F1500
G1 X11.475Y43.754Z0F1500
G1 X11.623Y43.589Z0F1500
G1 X12.018Y43.176Z0F1500
G1 X12.161Y43.308Z0F1500
G1 X12.094Y43.795Z0F1500
G1 X12.09Y43.917Z0F1500
G0 Z4.8F800
G0 X12.586Y44.416Z4.8F1500
G1 Z0F1500
G1 X11.075Y44.42Z0F1500
G1 X10.909Y44.413Z0F1500
G1 X10.917Y43.971Z0F1500
G1 X10.947Y43.625Z0F1500
G1 X10.971Y43.586Z0F1500
G1 X11.089Y43.436Z0F1500
G1 X11.268Y43.237Z0F1500
G1 X11.745Y42.738Z0F1500
G1 X11.963Y42.491Z0F1500
G1 X12.177Y42.642Z0F1500
G1 X12.369Y42.819Z0F1500
G1 X12.404Y42.788Z0F1500
G1 X12.727Y42.968Z0F1500
G1 X12.776Y42.99Z0F1500
G1 X12.658Y43.368Z0F1500
G1 X12.593Y43.839Z0F1500
G1 X12.576Y44.285Z0F1500
G1 X12.586Y44.416Z0F1500
G0 Z4.8F800
G0 X13.149Y44.914Z4.8F1500
G1 Z0F1500
G1 X11.073Y44.92Z0F1500
G1 X10.602Y44.9Z0F1500
G1 X10.436Y44.903Z0F1500
G1 X10.421Y44.785Z0F1500
G1 X10.407Y44.535Z0F1500
G1 X10.418Y43.942Z0F1500
G1 X10.458Y43.471Z0F1500
G1 X10.474Y43.435Z0F1500
G1 X10.563Y43.295Z0F1500
G1 X10.703Y43.118Z0F1500
G1 X10.89Y42.909Z0F1500
G1 X11.376Y42.399Z0F1500
G1 X11.919Y41.785Z0F1500
G1 X12.204Y42.048Z0F1500
G1 X12.574Y42.31Z0F1500
G1 X12.948Y42.52Z0F1500
G1 X13.523Y42.768Z0F1500
G1 X13.421Y42.878Z0F1500
G1 X13.245Y43.167Z0F1500
G1 X13.147Y43.478Z0F1500
G1 X13.092Y43.882Z0F1500
G1 X13.077Y44.274Z0F1500
G1 X13.11Y44.696Z0F1500
G1 X13.158Y44.914Z0F1500
G1 X13.149Z0F1500
G0 Z4.8F800
G0 X9.922Y44.82Z4.8F1500
G1 Z0F1500
G1 X9.907Y44.546Z0F1500
G1 X9.919Y43.912Z0F1500
G1 X9.967Y43.344Z0F1500
G1 X10.033Y43.199Z0F1500
G1 X10.157Y43.003Z0F1500
G1 X10.321Y42.795Z0F1500
G1 X10.529Y42.562Z0F1500
G1 X11.008Y42.062Z0F1500
G1 X11.534Y41.466Z0F1500
G1 X11.573Y41.407Z0F1500
G1 X11.65Y41.311Z0F1500
G1 X11.743Y41.23Z0F1500
G1 X11.851Y41.165Z0F1500
G1 X11.951Y41.127Z0F1500
G1 X12.001Y41.118Z0F1500
G1 X12.032Y41.146Z0F1500
G1 X12.214Y41.376Z0F1500
G1 X12.52Y41.659Z0F1500
G1 X12.841Y41.886Z0F1500
G1 X13.17Y42.07Z0F1500
G1 X13.771Y42.33Z0F1500
G1 X14.31Y42.538Z0F1500
G1 X14.455Y42.584Z0F1500
G1 X14.511Y42.591Z0F1500
G1 X14.287Y42.737Z0F1500
G1 X14.052Y42.93Z0F1500
G1 X13.823Y43.18Z0F1500
G1 X13.704Y43.375Z0F1500
G1 X13.637Y43.587Z0F1500
G1 X13.591Y43.925Z0F1500
G1 X13.578Y44.265Z0F1500
G1 X13.606Y44.622Z0F1500
G1 X13.689Y44.998Z0F1500
G1 X13.851Y45.383Z0F1500
G1 X13.869Y45.409Z0F1500
G1 X13.153Y45.414Z0F1500
G1 X11.063Y45.42Z0F1500
G1 X10.595Y45.401Z0F1500
G1 X10.121Y45.408Z0F1500
G1 X10.022Y45.399Z0F1500
G1 X10.019Z0F1500
G1 X10.007Y45.359Z0F1500
G1 X9.957Y45.105Z0F1500
G1 X9.922Y44.82Z0F1500
G0 Z4.8F800
G0 X17.638Y4.063Z4.8F1500
G1 Z0F1500
G1 X20.696Y4.059Z0F1500
G1 X20.594Y4.087Z0F1500
G1 X20.152Y4.281Z0F1500
G1 X19.741Y4.521Z0F1500
G1 X19.469Y4.731Z0F1500
G1 X19.005Y4.57Z0F1500
G1 X18.382Y4.494Z0F1500
G1 X18.007Y4.502Z0F1500
G1 X17.959Y4.481Z0F1500
G1 X17.719Y4.162Z0F1500
G1 X17.638Y4.063Z0F1500
G0 Z4.8F800
G0 X16.407Y3.563Z4.8F1500
G1 Z0F1500
G1 X24.291Y3.555Z0F1500
G1 X24.221Y3.561Z0F1500
G1 X23.443Y3.706Z0F1500
G1 X22.917Y3.919Z0F1500
G1 X22.514Y4.272Z0F1500
G1 X21.938Y4.312Z0F1500
G1 X21.383Y4.387Z0F1500
G1 X20.762Y4.56Z0F1500
G1 X20.379Y4.728Z0F1500
G1 X20.021Y4.937Z0F1500
G1 X19.677Y5.203Z0F1500
G1 X19.563Y5.317Z0F1500
G1 X19.458Y5.257Z0F1500
G1 X18.892Y5.06Z0F1500
G1 X18.357Y4.995Z0F1500
G1 X17.968Y5.003Z0F1500
G1 X17.916Y5.008Z0F1500
G1 X17.739Y4.931Z0F1500
G1 X17.656Y4.902Z0F1500
G1 X17.603Y4.839Z0F1500
G1 X17.324Y4.47Z0F1500
G1 X17.098Y4.188Z0F1500
G1 X16.793Y3.871Z0F1500
G1 X16.407Y3.563Z0F1500
G0 Z4.8F800
G0 X15.154Y3.065Z4.8F1500
G1 Z0F1500
G1 X25.172Y3.054Z0F1500
G1 X35.192Z0F1500
G1 X44.621Y3.051Z0F1500
G1 X44.618Y12.208Z0F1500
G1 X44.607Y21.736Z0F1500
G1 X44.61Y31.267Z0F1500
G1 X44.627Y35.273Z0F1500
G1 X44.192Y34.478Z0F1500
G1 X43.643Y33.614Z0F1500
G1 X43.04Y32.787Z0F1500
G1 X42.377Y31.993Z0F1500
G1 X42.276Y31.892Z0F1500
G1 X41.909Y31.588Z0F1500
G1 X41.513Y31.324Z0F1500
G1 X41.099Y31.102Z0F1500
G1 X40.671Y30.921Z0F1500
G1 X40.234Y30.78Z0F1500
G1 X39.79Y30.678Z0F1500
G1 X39.343Y30.613Z0F1500
G1 X38.843Y30.582Z0F1500
G1 X38.466Y30.629Z0F1500
G1 X38.121Y30.781Z0F1500
G1 X37.837Y30.972Z0F1500
G1 X37.784Y31.012Z0F1500
G1 X37.695Y30.947Z0F1500
G1 X37.619Y30.877Z0F1500
G1 X37.604Y30.858Z0F1500
G1 Y30.85Z0F1500
G1 Y30.832Z0F1500
G1 X37.583Y30.142Z0F1500
G1 X37.604Y29.57Z0F1500
G1 X37.632Y29.343Z0F1500
G1 X37.676Y29.123Z0F1500
G1 X37.731Y28.935Z0F1500
G1 X37.835Y28.682Z0F1500
G1 X37.916Y28.451Z0F1500
G1 X37.953Y28.13Z0F1500
G1 X37.921Y27.809Z0F1500
G1 X37.832Y27.533Z0F1500
G1 X37.546Y26.961Z0F1500
G1 X37.154Y26.389Z0F1500
G1 X36.855Y26.075Z0F1500
G1 X36.509Y25.803Z0F1500
G1 X36.097Y25.577Z0F1500
G1 X35.733Y25.456Z0F1500
G1 X35.222Y25.261Z0F1500
G1 X35.231Y25.254Z0F1500
G1 X35.591Y24.86Z0F1500
G1 X35.876Y24.47Z0F1500
G1 X36.117Y24.057Z0F1500
G1 X36.313Y23.627Z0F1500
G1 X36.464Y23.186Z0F1500
G1 X36.574Y22.734Z0F1500
G1 X36.641Y22.278Z0F1500
G1 X36.667Y21.804Z0F1500
G1 X36.652Y21.581Z0F1500
G1 X36.599Y21.358Z0F1500
G1 X36.396Y20.837Z0F1500
G1 X36.106Y20.332Z0F1500
G1 X35.918Y20.089Z0F1500
G1 X35.97Y20.062Z0F1500
G1 X36.298Y19.793Z0F1500
G1 X36.468Y19.599Z0F1500
G1 X36.506Y19.59Z0F1500
G1 X36.762Y19.489Z0F1500
G1 X37.042Y19.313Z0F1500
G1 X37.304Y19.047Z0F1500
G1 X37.492Y18.725Z0F1500
G1 X37.589Y18.411Z0F1500
G1 X37.621Y18.133Z0F1500
G1 X37.61Y17.877Z0F1500
G1 X37.557Y17.635Z0F1500
G1 X37.548Y17.609Z0F1500
G1 X37.497Y17.084Z0F1500
G1 X37.403Y16.424Z0F1500
G1 X37.283Y15.777Z0F1500
G1 X37.132Y15.096Z0F1500
G1 X37.036Y14.831Z0F1500
G1 X36.86Y14.555Z0F1500
G1 X36.629Y14.324Z0F1500
G1 X36.609Y14.311Z0F1500
G1 X36.645Y14.276Z0F1500
G1 X36.727Y14.174Z0F1500
G1 X36.761Y14.188Z0F1500
G1 X36.837Y14.036Z0F1500
G1 X36.841Y14.031Z0F1500
G1 X37.017Y13.755Z0F1500
G1 X37.166Y13.435Z0F1500
G1 X37.208Y13.298Z0F1500
G1 X37.22Y13.273Z0F1500
G1 X37.283Y13.175Z0F1500
G1 X37.423Y12.97Z0F1500
G1 X37.601Y12.697Z0F1500
G1 X37.801Y12.316Z0F1500
G1 X37.954Y11.851Z0F1500
G1 X38.004Y11.543Z0F1500
G1 X38.017Y11.237Z0F1500
G1 X37.985Y10.912Z0F1500
G1 X37.928Y10.678Z0F1500
G1 X37.754Y9.843Z0F1500
G1 X37.48Y9.016Z0F1500
G1 X37.179Y8.277Z0F1500
G1 X36.947Y7.734Z0F1500
G1 X36.94Y7.548Z0F1500
G1 X36.909Y7.312Z0F1500
G1 X36.796Y7.003Z0F1500
G1 X36.598Y6.696Z0F1500
G1 X36.354Y6.454Z0F1500
G1 X36.053Y6.27Z0F1500
G1 X35.713Y6.161Z0F1500
G1 X35.4Y6.14Z0F1500
G1 X34.522Y6.212Z0F1500
G1 X33.749Y6.303Z0F1500
G1 X33.08Y6.369Z0F1500
G1 X32.501Y6.379Z0F1500
G1 X31.556Y6.369Z0F1500
G1 X30.72Y6.354Z0F1500
G1 X29.971Y6.301Z0F1500
G1 X29.63Y6.243Z0F1500
G1 X29.474Y6.105Z0F1500
G1 X29.245Y5.958Z0F1500
G1 X28.957Y5.841Z0F1500
G1 X28.645Y5.788Z0F1500
G1 X28.36Y5.794Z0F1500
G1 X28.147Y5.834Z0F1500
G1 X28.128Y5.825Z0F1500
G1 X27.722Y5.573Z0F1500
G1 X27.448Y5.417Z0F1500
G1 X27.437Y5.335Z0F1500
G1 X27.289Y4.988Z0F1500
G1 X27.061Y4.688Z0F1500
G1 X26.781Y4.47Z0F1500
G1 X26.32Y4.241Z0F1500
G1 X25.873Y4.099Z0F1500
G1 X25.438Y4.024Z0F1500
G1 X25.005Y4.001Z0F1500
G1 X24.286Y4.057Z0F1500
G1 X23.584Y4.188Z0F1500
G1 X23.183Y4.351Z0F1500
G1 X22.849Y4.644Z0F1500
G1 X22.768Y4.754Z0F1500
G1 X22.719Y4.76Z0F1500
G1 X21.989Y4.81Z0F1500
G1 X21.484Y4.877Z0F1500
G1 X20.93Y5.032Z0F1500
G1 X20.606Y5.174Z0F1500
G1 X20.301Y5.352Z0F1500
G1 X20.008Y5.579Z0F1500
G1 X19.807Y5.78Z0F1500
G1 X19.759Y5.824Z0F1500
G1 X19.722Y5.836Z0F1500
G1 X19.658Y5.847Z0F1500
G1 X19.583Z0F1500
G1 X19.502Y5.835Z0F1500
G1 X19.448Y5.819Z0F1500
G1 X19.351Y5.771Z0F1500
G1 X19.251Y5.714Z0F1500
G1 X18.777Y5.55Z0F1500
G1 X18.333Y5.495Z0F1500
G1 X17.994Y5.503Z0F1500
G1 X17.83Y5.516Z0F1500
G1 X17.821Y5.511Z0F1500
G1 X17.557Y5.397Z0F1500
G1 X17.359Y5.329Z0F1500
G1 X17.341Y5.303Z0F1500
G1 X17.208Y5.147Z0F1500
G1 X16.93Y4.777Z0F1500
G1 X16.722Y4.519Z0F1500
G1 X16.455Y4.241Z0F1500
G1 X16.109Y3.965Z0F1500
G1 X15.685Y3.728Z0F1500
G1 X15.35Y3.616Z0F1500
G1 X15.032Y3.46Z0F1500
G1 X14.606Y3.303Z0F1500
G1 X14.189Y3.191Z0F1500
G1 X13.778Y3.112Z0F1500
G1 X13.408Y3.071Z0F1500
G1 X15.154Y3.065Z0F1500
G0 Z4.8F800
G0 X25.171Y2.554Z4.8F1500
G1 Z0F1500
G1 X35.192Z0F1500
G1 X45.054Y2.551Z0F1500
G1 X45.112Y2.592Z0F1500
G1 X45.125Y2.604Z0F1500
G1 X45.121Y2.663Z0F1500
G1 X45.118Y12.209Z0F1500
G1 X45.107Y21.736Z0F1500
G1 X45.11Y31.265Z0F1500
G1 X45.147Y40.147Z0F1500
G1 X44.322Y35.854Z0F1500
G1 X44.293Y35.735Z0F1500
G1 X44.24Y35.608Z0F1500
G1 X43.761Y34.732Z0F1500
G1 X43.23Y33.896Z0F1500
G1 X42.646Y33.095Z0F1500
G1 X42.008Y32.331Z0F1500
G1 X41.94Y32.263Z0F1500
G1 X41.61Y31.99Z0F1500
G1 X41.255Y31.753Z0F1500
G1 X40.883Y31.554Z0F1500
G1 X40.497Y31.391Z0F1500
G1 X40.101Y31.263Z0F1500
G1 X39.698Y31.17Z0F1500
G1 X39.291Y31.111Z0F1500
G1 X38.859Y31.084Z0F1500
G1 X38.6Y31.116Z0F1500
G1 X38.363Y31.22Z0F1500
G1 X38.127Y31.379Z0F1500
G1 X37.827Y31.606Z0F1500
G1 X37.819Y31.611Z0F1500
G1 X37.722Y31.563Z0F1500
G1 X37.536Y31.451Z0F1500
G1 X37.376Y31.333Z0F1500
G1 X37.253Y31.22Z0F1500
G1 X37.171Y31.12Z0F1500
G1 X37.128Y31.041Z0F1500
G1 X37.109Y30.976Z0F1500
G1 X37.104Y30.854Z0F1500
G1 Y30.831Z0F1500
G1 X37.082Y30.135Z0F1500
G1 X37.105Y29.532Z0F1500
G1 X37.138Y29.264Z0F1500
G1 X37.188Y29.01Z0F1500
G1 X37.26Y28.765Z0F1500
G1 X37.367Y28.504Z0F1500
G1 X37.425Y28.338Z0F1500
G1 X37.45Y28.125Z0F1500
G1 X37.429Y27.913Z0F1500
G1 X37.368Y27.724Z0F1500
G1 X37.114Y27.215Z0F1500
G1 X36.765Y26.705Z0F1500
G1 X36.518Y26.446Z0F1500
G1 X36.232Y26.222Z0F1500
G1 X35.896Y26.037Z0F1500
G1 X35.569Y25.928Z0F1500
G1 X35.066Y25.736Z0F1500
G1 X34.537Y25.605Z0F1500
G1 X34.027Y25.528Z0F1500
G1 X33.588Y25.488Z0F1500
G1 X32.962Y25.331Z0F1500
G1 X32.286Y25.232Z0F1500
G1 X31.638Y25.184Z0F1500
G1 X31.082Y25.161Z0F1500
G1 X30.782Y25.075Z0F1500
G1 X30.347Y24.936Z0F1500
G1 X30.066Y24.869Z0F1500
G1 X29.757Y24.825Z0F1500
G1 X29.418Y24.817Z0F1500
G1 X29.187Y24.844Z0F1500
G1 X28.629Y24.847Z0F1500
G1 X28.223Y24.862Z0F1500
G1 X28.614Y24.676Z0F1500
G1 X29.008Y24.562Z0F1500
G1 X29.171Y24.543Z0F1500
G1 X29.332Z0F1500
G1 X29.481Y24.569Z0F1500
G1 X29.685Y24.637Z0F1500
G1 X30.16Y24.8Z0F1500
G1 X30.72Y24.885Z0F1500
G1 X31.269Y24.88Z0F1500
G1 X31.65Y24.824Z0F1500
G1 X32.231Z0F1500
G1 X32.819Y24.858Z0F1500
G1 X33.369Y24.942Z0F1500
G1 X33.931Y25.101Z0F1500
G1 X34.152Y25.147Z0F1500
G1 X34.426Y25.127Z0F1500
G1 X34.687Y25.033Z0F1500
G1 X34.896Y24.88Z0F1500
G1 X35.204Y24.542Z0F1500
G1 X35.458Y24.195Z0F1500
G1 X35.672Y23.827Z0F1500
G1 X35.847Y23.442Z0F1500
G1 X35.984Y23.045Z0F1500
G1 X36.083Y22.639Z0F1500
G1 X36.143Y22.228Z0F1500
G1 X36.167Y21.807Z0F1500
G1 X36.156Y21.657Z0F1500
G1 X36.12Y21.508Z0F1500
G1 X35.943Y21.053Z0F1500
G1 X35.689Y20.611Z0F1500
G1 X35.515Y20.385Z0F1500
G1 X35.317Y20.18Z0F1500
G1 X35.088Y19.993Z0F1500
G1 X34.987Y19.931Z0F1500
G1 X35.081Y19.908Z0F1500
G1 X35.41Y19.796Z0F1500
G1 X35.69Y19.644Z0F1500
G1 X35.949Y19.433Z0F1500
G1 X36.172Y19.178Z0F1500
G1 X36.191Y19.148Z0F1500
G1 X36.198Z0F1500
G1 X36.358Y19.111Z0F1500
G1 X36.535Y19.042Z0F1500
G1 X36.726Y18.921Z0F1500
G1 X36.903Y18.74Z0F1500
G1 X37.031Y18.522Z0F1500
G1 X37.098Y18.308Z0F1500
G1 X37.12Y18.115Z0F1500
G1 X37.112Y17.941Z0F1500
G1 X37.075Y17.773Z0F1500
G1 X37.056Y17.718Z0F1500
G1 X37Y17.144Z0F1500
G1 X36.91Y16.505Z0F1500
G1 X36.793Y15.877Z0F1500
G1 X36.65Y15.236Z0F1500
G1 X36.584Y15.052Z0F1500
G1 X36.468Y14.87Z0F1500
G1 X36.315Y14.716Z0F1500
G1 X36.141Y14.606Z0F1500
G1 X35.831Y14.477Z0F1500
G1 X35.722Y14.445Z0F1500
G1 X35.969Y14.239Z0F1500
G1 X36.273Y13.94Z0F1500
G1 X36.434Y13.74Z0F1500
G1 X36.577Y13.515Z0F1500
G1 X36.698Y13.255Z0F1500
G1 X36.742Y13.11Z0F1500
G1 X36.781Y13.031Z0F1500
G1 X36.877Y12.882Z0F1500
G1 X37.007Y12.692Z0F1500
G1 X37.169Y12.443Z0F1500
G1 X37.339Y12.121Z0F1500
G1 X37.467Y11.731Z0F1500
G1 X37.506Y11.493Z0F1500
G1 X37.516Y11.25Z0F1500
G1 X37.491Y10.996Z0F1500
G1 X37.439Y10.784Z0F1500
G1 X37.271Y9.973Z0F1500
G1 X37.011Y9.189Z0F1500
G1 X36.717Y8.469Z0F1500
G1 X36.449Y7.84Z0F1500
G1 Y7.788Z0F1500
G1 X36.441Y7.59Z0F1500
G1 X36.42Y7.431Z0F1500
G1 X36.345Y7.227Z0F1500
G1 X36.207Y7.012Z0F1500
G1 X36.043Y6.85Z0F1500
G1 X35.843Y6.728Z0F1500
G1 X35.619Y6.656Z0F1500
G1 X35.404Y6.642Z0F1500
G1 X34.572Y6.709Z0F1500
G1 X33.807Y6.8Z0F1500
G1 X33.107Y6.869Z0F1500
G1 X32.474Y6.88Z0F1500
G1 X32.47Z0F1500
G1 X31.546Y6.869Z0F1500
G1 X30.705Y6.854Z0F1500
G1 X29.906Y6.798Z0F1500
G1 X29.372Y6.707Z0F1500
G1 X29.293Y6.614Z0F1500
G1 X29.171Y6.505Z0F1500
G1 X29.015Y6.404Z0F1500
G1 X28.819Y6.325Z0F1500
G1 X28.608Y6.289Z0F1500
G1 X28.413Y6.293Z0F1500
G1 X28.24Y6.326Z0F1500
G1 X28.14Y6.361Z0F1500
G1 X28.097Y6.354Z0F1500
G1 X28.016Y6.327Z0F1500
G1 X27.886Y6.263Z0F1500
G1 X27.467Y6.003Z0F1500
G1 X26.987Y5.73Z0F1500
G1 X26.98Y5.667Z0F1500
G1 X26.951Y5.471Z0F1500
G1 X26.854Y5.241Z0F1500
G1 X26.702Y5.043Z0F1500
G1 X26.514Y4.896Z0F1500
G1 X26.132Y4.706Z0F1500
G1 X25.755Y4.586Z0F1500
G1 X25.381Y4.522Z0F1500
G1 X25.011Y4.502Z0F1500
G1 X24.352Y4.553Z0F1500
G1 X23.726Y4.67Z0F1500
G1 X23.449Y4.783Z0F1500
G1 X23.22Y4.983Z0F1500
G1 X23.084Y5.168Z0F1500
G1 X23.055Y5.221Z0F1500
G1 X23.032Y5.227Z0F1500
G1 X22.77Y5.257Z0F1500
G1 X22.039Y5.308Z0F1500
G1 X21.584Y5.369Z0F1500
G1 X21.099Y5.504Z0F1500
G1 X20.834Y5.62Z0F1500
G1 X20.581Y5.768Z0F1500
G1 X20.339Y5.954Z0F1500
G1 X20.148Y6.147Z0F1500
G1 X20.052Y6.233Z0F1500
G1 X19.96Y6.285Z0F1500
G1 X19.841Y6.324Z0F1500
G1 X19.698Y6.346Z0F1500
G1 X19.548Z0F1500
G1 X19.398Y6.326Z0F1500
G1 X19.261Y6.285Z0F1500
G1 X19.114Y6.211Z0F1500
G1 X19.044Y6.172Z0F1500
G1 X18.664Y6.04Z0F1500
G1 X18.308Y5.996Z0F1500
G1 X18.02Y6.002Z0F1500
G1 X17.812Y6.019Z0F1500
G1 X17.709Y6.024Z0F1500
G1 X17.697Y6.015Z0F1500
G1 X17.599Y5.96Z0F1500
G1 X17.375Y5.863Z0F1500
G1 X17.185Y5.797Z0F1500
G1 X17.055Y5.757Z0F1500
G1 X16.948Y5.614Z0F1500
G1 X16.821Y5.463Z0F1500
G1 X16.536Y5.084Z0F1500
G1 X16.346Y4.85Z0F1500
G1 X16.118Y4.611Z0F1500
G1 X15.83Y4.382Z0F1500
G1 X15.482Y4.188Z0F1500
G1 X15.156Y4.079Z0F1500
G1 X14.834Y3.921Z0F1500
G1 X14.454Y3.78Z0F1500
G1 X14.077Y3.678Z0F1500
G1 X13.703Y3.607Z0F1500
G1 X13.01Y3.531Z0F1500
G1 X12.319Y3.491Z0F1500
G1 X11.992Y3.533Z0F1500
G1 X11.714Y3.69Z0F1500
G1 X11.563Y3.808Z0F1500
G1 X11.391Y3.935Z0F1500
G1 X11.183Y4.099Z0F1500
G1 X10.946Y4.32Z0F1500
G1 X10.71Y4.629Z0F1500
G1 X10.534Y5.012Z0F1500
G1 X10.473Y5.251Z0F1500
G1 X10.445Y5.492Z0F1500
G1 X10.453Y5.745Z0F1500
G1 X10.458Y5.77Z0F1500
G1 X10.445Y5.855Z0F1500
G1 X10.391Y5.976Z0F1500
G1 X10.263Y6.153Z0F1500
G1 X10.06Y6.384Z0F1500
G1 X9.778Y6.689Z0F1500
G1 X9.477Y7.063Z0F1500
G1 X9.324Y7.298Z0F1500
G1 X9.191Y7.557Z0F1500
G1 X9.083Y7.846Z0F1500
G1 X9.043Y8.019Z0F1500
G1 X8.748Y8.777Z0F1500
G1 X8.398Y9.616Z0F1500
G1 X8.234Y10.093Z0F1500
G1 X8.102Y10.602Z0F1500
G1 X8.02Y11.147Z0F1500
G1 X7.994Y12.241Z0F1500
G1 X8.054Y12.861Z0F1500
G1 X8.138Y13.208Z0F1500
G1 X8.27Y13.547Z0F1500
G1 X8.458Y13.88Z0F1500
G1 X8.686Y14.163Z0F1500
G1 X8.889Y14.427Z0F1500
G1 X9.15Y14.677Z0F1500
G1 X9.429Y14.878Z0F1500
G1 X9.725Y15.041Z0F1500
G1 X10.277Y15.251Z0F1500
G1 X10.542Y15.318Z0F1500
G1 X10.64Y15.499Z0F1500
G1 X10.843Y15.758Z0F1500
G1 X11.018Y15.905Z0F1500
G1 X11.211Y16.02Z0F1500
G1 X11.422Y16.104Z0F1500
G1 X11.64Y16.155Z0F1500
G1 X11.992Y16.19Z0F1500
G1 X12.311Y16.177Z0F1500
G1 X12.573Y16.142Z0F1500
G1 X12.777Y16.108Z0F1500
G1 X12.914Y16.09Z0F1500
G1 X12.988Y16.087Z0F1500
G1 X13.006Y16.09Z0F1500
G1 X13.029Y16.098Z0F1500
G1 X13.358Y16.27Z0F1500
G1 X13.587Y16.428Z0F1500
G1 X13.545Y16.55Z0F1500
G1 X13.527Y16.739Z0F1500
G1 X13.494Y16.747Z0F1500
G1 X13.527Y16.965Z0F1500
G1 X13.546Y17.167Z0F1500
G1 X13.567Y17.227Z0F1500
G1 X13.627Y17.622Z0F1500
G1 X13.633Y18.011Z0F1500
G1 X13.584Y18.379Z0F1500
G1 X13.47Y18.759Z0F1500
G1 X13.445Y18.826Z0F1500
G1 X13.391Y19.13Z0F1500
G1 X13.397Y19.433Z0F1500
G1 X13.456Y19.72Z0F1500
G1 X13.566Y19.99Z0F1500
G1 X13.815Y20.338Z0F1500
G1 X13.938Y20.457Z0F1500
G1 X13.932Y20.464Z0F1500
G1 X13.572Y20.797Z0F1500
G1 X13.17Y21.105Z0F1500
G1 X13.024Y21.201Z0F1500
G1 X12.954Y21.143Z0F1500
G1 X12.707Y20.983Z0F1500
G1 X12.462Y20.887Z0F1500
G1 X12.222Y20.867Z0F1500
G1 X11.397Y20.891Z0F1500
G1 X10.522Y20.939Z0F1500
G1 X10.044Y21.009Z0F1500
G1 X9.56Y21.131Z0F1500
G1 X9.072Y21.319Z0F1500
G1 X8.634Y21.566Z0F1500
G1 X8.361Y21.713Z0F1500
G1 X8.092Y21.916Z0F1500
G1 X7.863Y22.149Z0F1500
G1 X7.674Y22.405Z0F1500
G1 X7.522Y22.676Z0F1500
G1 X7.405Y22.956Z0F1500
G1 X7.321Y23.242Z0F1500
G1 X7.294Y23.384Z0F1500
G1 X7.027Y24.077Z0F1500
G1 X6.77Y24.904Z0F1500
G1 X6.666Y25.343Z0F1500
G1 X6.585Y25.79Z0F1500
G1 X6.533Y26.249Z0F1500
G1 X6.514Y26.664Z0F1500
G1 X6.433Y27.215Z0F1500
G1 X6.274Y27.836Z0F1500
G1 X6.096Y28.552Z0F1500
G1 X5.971Y29.372Z0F1500
G1 X5.98Y29.591Z0F1500
G1 X6.035Y29.788Z0F1500
G1 X6.183Y30.132Z0F1500
G1 X6.286Y30.365Z0F1500
G1 X6.331Y30.499Z0F1500
G1 X6.338Y30.584Z0F1500
G1 X6.335Y30.63Z0F1500
G1 X6.35Y31.229Z0F1500
G1 X6.37Y31.772Z0F1500
G1 X6.378Y32.286Z0F1500
G1 X6.367Y32.531Z0F1500
G1 X6.153Y32.692Z0F1500
G1 X5.869Y32.988Z0F1500
G1 X5.747Y33.19Z0F1500
G1 X5.333Y33.337Z0F1500
G1 X4.704Y33.569Z0F1500
G1 X4.045Y33.868Z0F1500
G1 X3.392Y34.271Z0F1500
G1 X3.294Y34.351Z0F1500
G1 X3.202Y34.448Z0F1500
G1 X2.879Y34.926Z0F1500
G1 X2.847Y35Z0F1500
G1 Y34.923Z0F1500
G1 X2.851Y29.732Z0F1500
G1 X2.845Y24.539Z0F1500
G1 X2.849Y19.221Z0F1500
G1 X2.841Y13.91Z0F1500
G1 X2.855Y8.606Z0F1500
G1 X2.923Y3.291Z0F1500
G1 X2.957Y2.911Z0F1500
G1 X2.96Y2.655Z0F1500
G1 X3.179Y2.635Z0F1500
G1 X3.791Y2.624Z0F1500
G1 X4.449Z0F1500
G1 X5.146Y2.602Z0F1500
G1 X15.152Y2.565Z0F1500
G1 X25.171Y2.554Z0F1500
G0 Z4.8F800
G0 X44.11Y44.037Z4.8F1500
G1 Z0F1500
G1 X44.098Y44.422Z0F1500
G1 X43.305Z0F1500
G1 X43.701Y44.277Z0F1500
G1 X44.11Y44.037Z0F1500
G0 Z4.8F800
G0 X44.632Y43.294Z4.8F1500
G1 Z0F1500
G1 X44.597Y44.478Z0F1500
G1 X44.557Y44.922Z0F1500
G1 X19.396Z0F1500
G1 X19.384Y44.585Z0F1500
G1 X19.291Y44.228Z0F1500
G1 X19.23Y44.1Z0F1500
G1 X19.207Y43.982Z0F1500
G1 X18.986Y43.533Z0F1500
G1 X18.892Y43.41Z0F1500
G1 X19.336Y43.263Z0F1500
G1 X19.826Y42.918Z0F1500
G1 X20.168Y42.546Z0F1500
G1 X20.405Y42.184Z0F1500
G1 X20.562Y41.878Z0F1500
G1 X20.674Y41.639Z0F1500
G1 X20.755Y41.471Z0F1500
G1 X20.806Y41.377Z0F1500
G1 X20.832Y41.34Z0F1500
G1 X20.972Y41.2Z0F1500
G1 X21.1Y40.958Z0F1500
G1 X21.116Y40.935Z0F1500
G1 X21.347Y40.702Z0F1500
G1 X21.373Y40.713Z0F1500
G1 X21.498Y40.753Z0F1500
G1 X21.646Y40.833Z0F1500
G1 X21.81Y40.897Z0F1500
G1 X21.92Y41.38Z0F1500
G1 X22.133Y41.895Z0F1500
G1 X22.426Y42.365Z0F1500
G1 X22.792Y42.782Z0F1500
G1 X23.225Y43.134Z0F1500
G1 X23.719Y43.413Z0F1500
G1 X24.244Y43.597Z0F1500
G1 X24.43Y43.635Z0F1500
G1 X25.019Y43.679Z0F1500
G1 X25.646Y43.713Z0F1500
G1 X26.096Y43.681Z0F1500
G1 X26.451Y43.601Z0F1500
G1 X26.502Y43.676Z0F1500
G1 X26.891Y43.435Z0F1500
G1 X27.107Y43.338Z0F1500
G1 X27.367Y43.14Z0F1500
G1 X27.786Y42.88Z0F1500
G1 X28.279Y42.497Z0F1500
G1 X28.54Y42.245Z0F1500
G1 X28.775Y41.972Z0F1500
G1 X28.992Y41.666Z0F1500
G1 X29.07Y41.526Z0F1500
G1 X29.429Y41.104Z0F1500
G1 X29.921Y40.52Z0F1500
G1 X30.185Y40.162Z0F1500
G1 X30.435Y39.766Z0F1500
G1 X30.66Y39.323Z0F1500
G1 X30.857Y38.8Z0F1500
G1 X30.917Y38.458Z0F1500
G1 X30.914Y38.422Z0F1500
G1 X31.063Y38.334Z0F1500
G1 X31.157Y38.261Z0F1500
G1 X31.099Y39.036Z0F1500
G1 X31.043Y40.094Z0F1500
G1 X31.075Y41.26Z0F1500
G1 X31.143Y41.584Z0F1500
G1 X31.287Y41.881Z0F1500
G1 X31.519Y42.201Z0F1500
G1 X31.759Y42.46Z0F1500
G1 X32.014Y42.679Z0F1500
G1 X32.29Y42.873Z0F1500
G1 X32.787Y43.135Z0F1500
G1 X33.267Y43.316Z0F1500
G1 X33.688Y43.444Z0F1500
G1 X34.035Y43.541Z0F1500
G1 X34.328Y43.63Z0F1500
G1 X34.559Y43.721Z0F1500
G1 X35.132Y43.972Z0F1500
G1 X35.815Y44.211Z0F1500
G1 X36.224Y44.31Z0F1500
G1 X36.455Y44.344Z0F1500
G1 X36.461Y44.428Z0F1500
G1 X37.063Y44.391Z0F1500
G1 X37.099Z0F1500
G1 X37.454Y44.367Z0F1500
G1 X38.421Y44.307Z0F1500
G1 X39.352Y44.222Z0F1500
G1 X40.231Y44.158Z0F1500
G1 X41.739Y44.154Z0F1500
G1 X42.501Y44.107Z0F1500
G1 X42.987Y44.007Z0F1500
G1 X43.486Y43.823Z0F1500
G1 X43.981Y43.532Z0F1500
G1 X44.591Y42.983Z0F1500
G1 X44.633Y42.94Z0F1500
G1 Y43.294Z0F1500
G0 Z4.8F800
G0 X44.857Y45.422Z4.8F1500
G1 Z0F1500
G1 X18.744Z0F1500
G1 X18.771Y45.377Z0F1500
G1 X18.85Y45.172Z0F1500
G1 X18.896Y44.927Z0F1500
G1 X18.887Y44.658Z0F1500
G1 X18.819Y44.4Z0F1500
G1 X18.752Y44.258Z0F1500
G1 X18.729Y44.144Z0F1500
G1 X18.559Y43.798Z0F1500
G1 X18.359Y43.536Z0F1500
G1 X18.177Y43.35Z0F1500
G1 X18.036Y43.215Z0F1500
G1 X17.941Y43.121Z0F1500
G1 X17.879Y43.056Z0F1500
G1 X17.869Y43.042Z0F1500
G1 X17.844Y43Z0F1500
G1 X17.818Y42.964Z0F1500
G1 X17.75Y42.843Z0F1500
G1 X17.665Y42.713Z0F1500
G1 X17.701Y42.72Z0F1500
G1 X18.471Y42.904Z0F1500
G1 X18.785Y42.918Z0F1500
G1 X19.109Y42.812Z0F1500
G1 X19.495Y42.541Z0F1500
G1 X19.772Y42.238Z0F1500
G1 X19.972Y41.933Z0F1500
G1 X20.112Y41.658Z0F1500
G1 X20.219Y41.432Z0F1500
G1 X20.308Y41.248Z0F1500
G1 X20.38Y41.113Z0F1500
G1 X20.449Y41.016Z0F1500
G1 X20.565Y40.9Z0F1500
G1 X20.67Y40.7Z0F1500
G1 X20.711Y40.643Z0F1500
G1 X20.704Y40.637Z0F1500
G1 X20.732Y40.583Z0F1500
G1 X20.75Y40.52Z0F1500
G1 X20.846Y40.497Z0F1500
G1 X21.145Y40.194Z0F1500
G1 X21.208Y40.093Z0F1500
G1 X21.309Y40.142Z0F1500
G1 X21.548Y40.245Z0F1500
G1 X21.697Y40.292Z0F1500
G1 X21.857Y40.379Z0F1500
G1 X22.136Y40.488Z0F1500
G1 X22.279Y40.533Z0F1500
G1 X22.291Y40.76Z0F1500
G1 X22.398Y41.228Z0F1500
G1 X22.58Y41.666Z0F1500
G1 X22.829Y42.066Z0F1500
G1 X23.14Y42.42Z0F1500
G1 X23.508Y42.72Z0F1500
G1 X23.926Y42.956Z0F1500
G1 X24.378Y43.114Z0F1500
G1 X24.5Y43.139Z0F1500
G1 X25.051Y43.18Z0F1500
G1 X25.642Y43.212Z0F1500
G1 X26.022Y43.185Z0F1500
G1 X26.432Y43.092Z0F1500
G1 X26.644Y42.998Z0F1500
G1 X26.656Y42.992Z0F1500
G1 X26.85Y42.906Z0F1500
G1 X27.083Y42.729Z0F1500
G1 X27.5Y42.47Z0F1500
G1 X27.951Y42.119Z0F1500
G1 X28.175Y41.901Z0F1500
G1 X28.381Y41.663Z0F1500
G1 X28.568Y41.398Z0F1500
G1 X28.656Y41.241Z0F1500
G1 X29.048Y40.781Z0F1500
G1 X29.528Y40.21Z0F1500
G1 X29.771Y39.879Z0F1500
G1 X30Y39.519Z0F1500
G1 X30.202Y39.121Z0F1500
G1 X30.373Y38.667Z0F1500
G1 X30.413Y38.435Z0F1500
G1 X30.393Y38.186Z0F1500
G1 X30.376Y38.138Z0F1500
G1 X30.523Y38.073Z0F1500
G1 X30.782Y37.919Z0F1500
G1 X31.023Y37.733Z0F1500
G1 X31.243Y37.515Z0F1500
G1 X31.433Y37.266Z0F1500
G1 X31.547Y37.064Z0F1500
G1 X31.698Y37.31Z0F1500
G1 X31.671Y38.088Z0F1500
G1 X31.598Y39.068Z0F1500
G1 X31.543Y40.101Z0F1500
G1 X31.573Y41.201Z0F1500
G1 X31.62Y41.421Z0F1500
G1 X31.717Y41.623Z0F1500
G1 X31.906Y41.883Z0F1500
G1 X32.106Y42.1Z0F1500
G1 X32.321Y42.284Z0F1500
G1 X32.551Y42.445Z0F1500
G1 X32.993Y42.678Z0F1500
G1 X33.428Y42.843Z0F1500
G1 X33.828Y42.964Z0F1500
G1 X34.192Y43.066Z0F1500
G1 X34.488Y43.156Z0F1500
G1 X34.75Y43.259Z0F1500
G1 X35.315Y43.507Z0F1500
G1 X35.956Y43.731Z0F1500
G1 X36.319Y43.818Z0F1500
G1 X36.695Y43.875Z0F1500
G1 X36.923Y43.885Z0F1500
G1 Y43.899Z0F1500
G1 X37.058Y43.891Z0F1500
G1 X37.091Z0F1500
G1 X37.38Y43.871Z0F1500
G1 X38.383Y43.809Z0F1500
G1 X39.324Y43.723Z0F1500
G1 X40.208Y43.658Z0F1500
G1 X41.723Y43.654Z0F1500
G1 X42.435Y43.61Z0F1500
G1 X42.85Y43.524Z0F1500
G1 X43.271Y43.369Z0F1500
G1 X43.685Y43.126Z0F1500
G1 X44.246Y42.621Z0F1500
G1 X44.481Y42.383Z0F1500
G1 X44.711Y42.105Z0F1500
G1 X44.923Y41.777Z0F1500
G1 X45.1Y41.379Z0F1500
G1 X45.146Y41.18Z0F1500
G1 X45.137Y42.055Z0F1500
G1 X45.132Y43.293Z0F1500
G1 X45.096Y44.512Z0F1500
G1 X45.013Y45.438Z0F1500
G1 X44.95Y45.428Z0F1500
G1 X44.857Y45.422Z0F1500
G0 Z4.8F800
G0 X3.511Y43.342Z4.8F1500
G1 Z0F1500
G1 X3.534Y44.057Z0F1500
G1 X3.568Y44.724Z0F1500
G1 X3.58Y45.315Z0F1500
G1 X3.574Y45.403Z0F1500
G1 X3.39Y45.399Z0F1500
G1 X3.216Y45.416Z0F1500
G1 X3.111Z0F1500
G1 X3.024Y45.398Z0F1500
G1 X2.956Y45.374Z0F1500
G1 X2.93Y45.358Z0F1500
G1 Y45.355Z0F1500
G1 Y45.293Z0F1500
G1 X2.876Y41.15Z0F1500
G1 X3.011Y41.318Z0F1500
G1 X3.169Y41.472Z0F1500
G1 X3.285Y41.604Z0F1500
G1 X3.344Y41.717Z0F1500
G1 X3.392Y41.874Z0F1500
G1 X3.428Y42.097Z0F1500
G1 X3.464Y42.719Z0F1500
G1 X3.511Y43.342Z0F1500
G0 Z4.8F800
G0 X32.769Y21.673Z4.8F1500
G1 Z0F1500
G1 X32.756Y21.027Z0F1500
G1 X32.748Y19.942Z0F1500
G1 X32.764Y18.868Z0F1500
G1 X32.794Y18.283Z0F1500
G1 X32.926Y18.289Z0F1500
G1 X33.086Y18.301Z0F1500
G1 X33.124Y18.586Z0F1500
G1 X33.233Y18.893Z0F1500
G1 X33.346Y19.149Z0F1500
G1 X33.443Y19.39Z0F1500
G1 X33.498Y19.559Z0F1500
G1 X33.611Y19.813Z0F1500
G1 X33.697Y19.883Z0F1500
G1 X33.602Y19.928Z0F1500
G1 X33.345Y20.171Z0F1500
G1 X33.192Y20.442Z0F1500
G1 X33.123Y20.684Z0F1500
G1 X33.104Y20.883Z0F1500
G1 X33.107Y21.03Z0F1500
G1 X33.12Y21.231Z0F1500
G1 X33.132Y21.354Z0F1500
G1 Y21.375Z0F1500
G1 X33.085Y21.612Z0F1500
G1 Y21.686Z0F1500
G1 X33.034Y21.683Z0F1500
G1 X32.769Y21.673Z0F1500
G0 Z4.8F800
G0 X32.278Y22.146Z4.8F1500
G1 Z0F1500
G1 X32.256Y21.037Z0F1500
G1 X32.248Y19.934Z0F1500
G1 X32.265Y18.842Z0F1500
G1 X32.321Y17.764Z0F1500
G1 X32.957Y17.79Z0F1500
G1 X33.572Y17.836Z0F1500
G1 X33.579Y18.026Z0F1500
G1 X33.582Y18.233Z0F1500
G1 X33.613Y18.468Z0F1500
G1 X33.698Y18.708Z0F1500
G1 X33.808Y18.958Z0F1500
G1 X33.914Y19.22Z0F1500
G1 X33.965Y19.379Z0F1500
G1 X34.02Y19.501Z0F1500
G1 X34.104Y19.57Z0F1500
G1 X34.246Y19.573Z0F1500
G1 X34.684Y19.491Z0F1500
G1 X34.94Y19.428Z0F1500
G1 X35.208Y19.336Z0F1500
G1 X35.411Y19.227Z0F1500
G1 X35.6Y19.072Z0F1500
G1 X35.77Y18.878Z0F1500
G1 X35.914Y18.651Z0F1500
G1 X36.008Y18.658Z0F1500
G1 X36.126Y18.651Z0F1500
G1 X36.21Y18.632Z0F1500
G1 X36.308Y18.593Z0F1500
G1 X36.41Y18.529Z0F1500
G1 X36.503Y18.434Z0F1500
G1 X36.571Y18.319Z0F1500
G1 X36.606Y18.204Z0F1500
G1 X36.619Y18.097Z0F1500
G1 X36.615Y18.006Z0F1500
G1 X36.594Y17.911Z0F1500
G1 X36.564Y17.827Z0F1500
G1 X36.504Y17.203Z0F1500
G1 X36.416Y16.586Z0F1500
G1 X36.303Y15.977Z0F1500
G1 X36.169Y15.375Z0F1500
G1 X36.133Y15.274Z0F1500
G1 X36.076Y15.184Z0F1500
G1 X36Y15.109Z0F1500
G1 X35.91Y15.051Z0F1500
G1 X35.664Y14.949Z0F1500
G1 X35.436Y14.883Z0F1500
G1 X35.233Y14.834Z0F1500
G1 X35.064Y14.787Z0F1500
G1 X34.96Y14.743Z0F1500
G1 X34.908Y14.709Z0F1500
G1 X34.954Y14.551Z0F1500
G1 X35.044Y14.404Z0F1500
G1 X35.183Y14.253Z0F1500
G1 X35.376Y14.083Z0F1500
G1 X35.633Y13.868Z0F1500
G1 X35.902Y13.604Z0F1500
G1 X36.026Y13.449Z0F1500
G1 X36.138Y13.274Z0F1500
G1 X36.229Y13.077Z0F1500
G1 X36.296Y12.856Z0F1500
G1 X36.277Y12.922Z0F1500
G1 X36.348Y12.78Z0F1500
G1 X36.457Y12.611Z0F1500
G1 X36.591Y12.415Z0F1500
G1 X36.738Y12.19Z0F1500
G1 X36.877Y11.925Z0F1500
G1 X36.979Y11.613Z0F1500
G1 X37.007Y11.442Z0F1500
G1 X37.015Y11.264Z0F1500
G1 X36.997Y11.081Z0F1500
G1 X36.951Y10.893Z0F1500
G1 X36.787Y10.103Z0F1500
G1 X36.542Y9.362Z0F1500
G1 X36.256Y8.662Z0F1500
G1 X35.97Y7.993Z0F1500
G1 X35.949Y7.949Z0F1500
G1 X35.923Y7.909Z0F1500
G1 X35.954Y7.956Z0F1500
G1 X35.96Y7.962Z0F1500
G1 X35.954Y7.933Z0F1500
G1 X35.949Y7.875Z0F1500
G1 Y7.798Z0F1500
G1 X35.942Y7.633Z0F1500
G1 X35.932Y7.551Z0F1500
G1 X35.895Y7.451Z0F1500
G1 X35.816Y7.329Z0F1500
G1 X35.733Y7.246Z0F1500
G1 X35.634Y7.186Z0F1500
G1 X35.524Y7.151Z0F1500
G1 X35.408Y7.143Z0F1500
G1 X34.622Y7.207Z0F1500
G1 X33.865Y7.296Z0F1500
G1 X33.135Y7.368Z0F1500
G1 X32.427Y7.381Z0F1500
G1 X32.416Z0F1500
G1 X31.537Y7.369Z0F1500
G1 X30.68Y7.353Z0F1500
G1 X29.851Y7.295Z0F1500
G1 X29.058Y7.16Z0F1500
G1 X29.032Y7.1Z0F1500
G1 X28.982Y7.02Z0F1500
G1 X28.935Y6.963Z0F1500
G1 X28.868Y6.904Z0F1500
G1 X28.784Y6.85Z0F1500
G1 X28.681Y6.809Z0F1500
G1 X28.571Y6.79Z0F1500
G1 X28.465Z0F1500
G1 X28.37Y6.81Z0F1500
G1 X28.291Y6.838Z0F1500
G1 X28.263Y6.855Z0F1500
G1 X28.125Y6.864Z0F1500
G1 X27.98Y6.843Z0F1500
G1 X27.823Y6.789Z0F1500
G1 X27.644Y6.701Z0F1500
G1 X27.211Y6.433Z0F1500
G1 X26.705Y6.145Z0F1500
G1 X26.671Y6.129Z0F1500
G1 X26.591Y6.083Z0F1500
G1 X26.542Y6.014Z0F1500
G1 X26.502Y5.895Z0F1500
G1 X26.484Y5.731Z0F1500
G1 X26.466Y5.607Z0F1500
G1 X26.418Y5.495Z0F1500
G1 X26.344Y5.397Z0F1500
G1 X26.246Y5.321Z0F1500
G1 X25.944Y5.171Z0F1500
G1 X25.636Y5.073Z0F1500
G1 X25.326Y5.02Z0F1500
G1 X25.017Y5.003Z0F1500
G1 X24.417Y5.05Z0F1500
G1 X23.867Y5.153Z0F1500
G1 X23.715Y5.214Z0F1500
G1 X23.591Y5.323Z0F1500
G1 X23.505Y5.44Z0F1500
G1 X23.452Y5.534Z0F1500
G1 X23.4Y5.651Z0F1500
G1 X23.12Y5.72Z0F1500
G1 X22.812Y5.756Z0F1500
G1 X22.089Y5.805Z0F1500
G1 X21.686Y5.859Z0F1500
G1 X21.267Y5.976Z0F1500
G1 X21.061Y6.066Z0F1500
G1 X20.861Y6.183Z0F1500
G1 X20.671Y6.33Z0F1500
G1 X20.494Y6.508Z0F1500
G1 X20.344Y6.643Z0F1500
G1 X20.163Y6.744Z0F1500
G1 X19.958Y6.812Z0F1500
G1 X19.739Y6.846Z0F1500
G1 X19.513Z0F1500
G1 X19.29Y6.815Z0F1500
G1 X19.077Y6.751Z0F1500
G1 X18.882Y6.655Z0F1500
G1 X18.837Y6.629Z0F1500
G1 X18.55Y6.529Z0F1500
G1 X18.283Y6.497Z0F1500
G1 X18.045Y6.502Z0F1500
G1 X17.847Y6.518Z0F1500
G1 X17.7Y6.525Z0F1500
G1 X17.598Y6.521Z0F1500
G1 X17.527Y6.503Z0F1500
G1 X17.47Y6.469Z0F1500
G1 X17.425Y6.436Z0F1500
G1 X17.376Y6.409Z0F1500
G1 X17.194Y6.33Z0F1500
G1 X17.029Y6.272Z0F1500
G1 X16.889Y6.229Z0F1500
G1 X16.779Y6.192Z0F1500
G1 X16.682Y6.153Z0F1500
G1 X16.628Y6.021Z0F1500
G1 X16.556Y5.924Z0F1500
G1 X16.429Y5.774Z0F1500
G1 X16.141Y5.392Z0F1500
G1 X15.97Y5.18Z0F1500
G1 X15.78Y4.981Z0F1500
G1 X15.55Y4.798Z0F1500
G1 X15.279Y4.647Z0F1500
G1 X14.968Y4.543Z0F1500
G1 X14.637Y4.381Z0F1500
G1 X14.302Y4.257Z0F1500
G1 X13.965Y4.166Z0F1500
G1 X13.629Y4.102Z0F1500
G1 X12.968Y4.029Z0F1500
G1 X12.337Y3.993Z0F1500
G1 X12.153Y4.017Z0F1500
G1 X11.992Y4.108Z0F1500
G1 X11.859Y4.21Z0F1500
G1 X11.694Y4.332Z0F1500
G1 X11.509Y4.479Z0F1500
G1 X11.318Y4.657Z0F1500
G1 X11.141Y4.888Z0F1500
G1 X11.007Y5.18Z0F1500
G1 X10.965Y5.342Z0F1500
G1 X10.946Y5.513Z0F1500
G1 X10.951Y5.689Z0F1500
G1 X10.964Y5.756Z0F1500
G1 X10.931Y5.995Z0F1500
G1 X10.824Y6.229Z0F1500
G1 X10.654Y6.465Z0F1500
G1 X10.427Y6.723Z0F1500
G1 X10.157Y7.016Z0F1500
G1 X9.882Y7.356Z0F1500
G1 X9.758Y7.549Z0F1500
G1 X9.649Y7.76Z0F1500
G1 X9.563Y7.991Z0F1500
G1 X9.503Y8.245Z0F1500
G1 X9.519Y8.174Z0F1500
G1 X9.213Y8.958Z0F1500
G1 X8.866Y9.794Z0F1500
G1 X8.713Y10.237Z0F1500
G1 X8.592Y10.702Z0F1500
G1 X8.519Y11.19Z0F1500
G1 X8.495Y12.223Z0F1500
G1 X8.548Y12.778Z0F1500
G1 X8.616Y13.058Z0F1500
G1 X8.723Y13.333Z0F1500
G1 X8.874Y13.598Z0F1500
G1 X9.076Y13.85Z0F1500
G1 X9.262Y14.092Z0F1500
G1 X9.471Y14.292Z0F1500
G1 X9.697Y14.455Z0F1500
G1 X9.936Y14.586Z0F1500
G1 X10.428Y14.773Z0F1500
G1 X10.886Y14.889Z0F1500
G1 X10.89Y14.904Z0F1500
G1 X10.972Y15.063Z0F1500
G1 X11.059Y15.223Z0F1500
G1 X11.205Y15.409Z0F1500
G1 X11.308Y15.496Z0F1500
G1 X11.433Y15.57Z0F1500
G1 X11.573Y15.626Z0F1500
G1 X11.722Y15.661Z0F1500
G1 X12.007Y15.689Z0F1500
G1 X12.267Y15.679Z0F1500
G1 X12.499Y15.647Z0F1500
G1 X12.701Y15.614Z0F1500
G1 X12.873Y15.591Z0F1500
G1 X13.012Y15.586Z0F1500
G1 X13.128Y15.602Z0F1500
G1 X13.234Y15.641Z0F1500
G1 X13.617Y15.841Z0F1500
G1 X13.941Y16.065Z0F1500
G1 X14.039Y16.162Z0F1500
G1 X14.099Y16.251Z0F1500
G1 X14.13Y16.337Z0F1500
G1 X14.14Y16.426Z0F1500
G1 X14.128Y16.438Z0F1500
G1 X14.089Y16.504Z0F1500
G1 X14.038Y16.656Z0F1500
G1 X14.019Y16.852Z0F1500
G1 X14.038Y17.06Z0F1500
G1 X14.103Y17.249Z0F1500
G1 X14.056Y17.12Z0F1500
G1 X14.126Y17.582Z0F1500
G1 X14.134Y18.039Z0F1500
G1 X14.075Y18.486Z0F1500
G1 X13.945Y18.918Z0F1500
G1 X13.929Y18.959Z0F1500
G1 X13.892Y19.169Z0F1500
G1 X13.896Y19.377Z0F1500
G1 X13.937Y19.574Z0F1500
G1 X14.007Y19.747Z0F1500
G1 X14.195Y20.01Z0F1500
G1 X14.39Y20.198Z0F1500
G1 X14.528Y20.321Z0F1500
G1 X14.628Y20.418Z0F1500
G1 X14.292Y20.813Z0F1500
G1 X13.896Y21.178Z0F1500
G1 X13.456Y21.516Z0F1500
G1 X12.982Y21.829Z0F1500
G1 X12.976Y21.826Z0F1500
G1 X12.96Y21.815Z0F1500
G1 X12.885Y21.749Z0F1500
G1 X12.788Y21.655Z0F1500
G1 X12.657Y21.546Z0F1500
G1 X12.478Y21.43Z0F1500
G1 X12.348Y21.379Z0F1500
G1 X12.208Y21.368Z0F1500
G1 X11.418Y21.391Z0F1500
G1 X10.573Y21.437Z0F1500
G1 X10.142Y21.5Z0F1500
G1 X9.711Y21.608Z0F1500
G1 X9.286Y21.772Z0F1500
G1 X8.871Y22.006Z0F1500
G1 X8.632Y22.135Z0F1500
G1 X8.423Y22.292Z0F1500
G1 X8.245Y22.475Z0F1500
G1 X8.095Y22.677Z0F1500
G1 X7.973Y22.896Z0F1500
G1 X7.877Y23.124Z0F1500
G1 X7.808Y23.359Z0F1500
G1 X7.777Y23.522Z0F1500
G1 X7.5Y24.242Z0F1500
G1 X7.252Y25.036Z0F1500
G1 X7.155Y25.445Z0F1500
G1 X7.08Y25.863Z0F1500
G1 X7.031Y26.289Z0F1500
G1 X7.012Y26.711Z0F1500
G1 X6.924Y27.313Z0F1500
G1 X6.759Y27.959Z0F1500
G1 X6.586Y28.65Z0F1500
G1 X6.472Y29.399Z0F1500
G1 X6.477Y29.512Z0F1500
G1 X6.507Y29.622Z0F1500
G1 X6.642Y29.933Z0F1500
G1 X6.753Y30.186Z0F1500
G1 X6.825Y30.397Z0F1500
G1 X6.839Y30.584Z0F1500
G1 X6.835Y30.641Z0F1500
G1 X6.85Y31.213Z0F1500
G1 X6.87Y31.765Z0F1500
G1 X6.878Y32.293Z0F1500
G1 X6.855Y32.795Z0F1500
G1 X6.69Y32.913Z0F1500
G1 X6.486Y33.067Z0F1500
G1 X6.268Y33.294Z0F1500
G1 X6.082Y33.602Z0F1500
G1 X5.502Y33.808Z0F1500
G1 X4.894Y34.032Z0F1500
G1 X4.28Y34.31Z0F1500
G1 X3.683Y34.678Z0F1500
G1 X3.636Y34.717Z0F1500
G1 X3.593Y34.762Z0F1500
G1 X3.318Y35.169Z0F1500
G1 X3.128Y35.596Z0F1500
G1 X3.006Y36.033Z0F1500
G1 X2.936Y36.473Z0F1500
G1 X2.887Y37.326Z0F1500
G1 X2.849Y38.088Z0F1500
G1 Y38.116Z0F1500
G1 X2.838Y38.461Z0F1500
G1 X2.822Y38.813Z0F1500
G1 X2.814Y39.189Z0F1500
G1 X2.83Y39.584Z0F1500
G1 X2.89Y39.994Z0F1500
G1 X3.02Y40.405Z0F1500
G1 X3.116Y40.605Z0F1500
G1 X3.235Y40.798Z0F1500
G1 X3.382Y40.981Z0F1500
G1 X3.556Y41.151Z0F1500
G1 X3.542Y41.139Z0F1500
G1 X3.699Y41.319Z0F1500
G1 X3.809Y41.526Z0F1500
G1 X3.88Y41.764Z0F1500
G1 X3.925Y42.04Z0F1500
G1 X3.963Y42.686Z0F1500
G1 X4.017Y43.407Z0F1500
G1 X4.011Y43.344Z0F1500
G1 X4.033Y44.036Z0F1500
G1 X4.067Y44.698Z0F1500
G1 X4.08Y45.329Z0F1500
G1 X4.039Y45.926Z0F1500
G1 X4.021Y45.931Z0F1500
G1 X3.939Z0F1500
G1 X3.791Y45.92Z0F1500
G1 X3.614Y45.904Z0F1500
G1 X3.408Y45.899Z0F1500
G1 X3.173Y45.922Z0F1500
G1 X3.216Y45.916Z0F1500
G1 X3.06Y45.913Z0F1500
G1 X2.897Y45.883Z0F1500
G1 X2.744Y45.829Z0F1500
G1 X2.615Y45.754Z0F1500
G1 X2.519Y45.672Z0F1500
G1 X2.457Y45.586Z0F1500
G1 X2.426Y45.485Z0F1500
G1 Y45.359Z0F1500
G1 X2.431Y45.326Z0F1500
G1 Y45.293Z0F1500
G1 X2.363Y40.109Z0F1500
G1 X2.346Y34.922Z0F1500
G1 X2.351Y29.732Z0F1500
G1 X2.345Y24.538Z0F1500
G1 X2.349Y19.221Z0F1500
G1 X2.341Y13.909Z0F1500
G1 X2.355Y8.6Z0F1500
G1 X2.423Y3.295Z0F1500
G1 X2.414Y3.377Z0F1500
G1 X2.458Y2.885Z0F1500
G1 X2.462Y2.48Z0F1500
G1 X2.498Y2.294Z0F1500
G1 X2.554Y2.189Z0F1500
G1 X3.151Y2.135Z0F1500
G1 X3.781Y2.124Z0F1500
G1 X4.441Z0F1500
G1 X5.13Y2.102Z0F1500
G1 X15.15Y2.065Z0F1500
G1 X25.171Y2.054Z0F1500
G1 X35.192Z0F1500
G1 X45.214Y2.051Z0F1500
G1 X45.425Y2.201Z0F1500
G1 X45.578Y2.334Z0F1500
G1 X45.63Y2.395Z0F1500
G1 X45.656Y2.436Z0F1500
G1 X45.659Y2.479Z0F1500
G1 X45.626Y2.613Z0F1500
G1 X45.621Y2.684Z0F1500
G1 X45.618Y12.209Z0F1500
G1 X45.607Y21.736Z0F1500
G1 X45.61Y31.264Z0F1500
G1 X45.65Y40.795Z0F1500
G1 X45.637Y42.059Z0F1500
G1 X45.632Y43.308Z0F1500
G1 X45.596Y44.539Z0F1500
G1 X45.488Y45.746Z0F1500
G1 X45.426Y45.847Z0F1500
G1 X45.328Y45.912Z0F1500
G1 X45.156Y45.949Z0F1500
G1 X44.947Y45.934Z0F1500
G1 X44.896Y45.925Z0F1500
G1 X44.843Y45.922Z0F1500
G1 X17.535Z0F1500
G1 X17.582Y45.865Z0F1500
G1 X17.619Y45.829Z0F1500
G1 X17.686Y45.794Z0F1500
G1 X17.748Y45.75Z0F1500
G1 X17.933Y45.608Z0F1500
G1 X18.059Y45.497Z0F1500
G1 X18.191Y45.354Z0F1500
G1 X18.257Y45.266Z0F1500
G1 X18.318Y45.16Z0F1500
G1 X18.367Y45.035Z0F1500
G1 X18.394Y44.889Z0F1500
G1 X18.389Y44.73Z0F1500
G1 X18.348Y44.572Z0F1500
G1 X18.277Y44.425Z0F1500
G1 X18.274Y44.421Z0F1500
G1 X18.251Y44.306Z0F1500
G1 X18.131Y44.062Z0F1500
G1 X17.98Y43.863Z0F1500
G1 X17.826Y43.706Z0F1500
G1 X17.69Y43.576Z0F1500
G1 X17.579Y43.467Z0F1500
G1 X17.497Y43.379Z0F1500
G1 X17.451Y43.317Z0F1500
G1 X17.426Y43.275Z0F1500
G1 X17.398Y43.237Z0F1500
G1 X17.322Y43.104Z0F1500
G1 X17.243Y42.982Z0F1500
G1 X17.128Y42.838Z0F1500
G1 X17.05Y42.76Z0F1500
G1 X16.951Y42.684Z0F1500
G1 X16.83Y42.619Z0F1500
G1 X16.689Y42.575Z0F1500
G1 X16.539Y42.585Z0F1500
G1 X16.392Y42.627Z0F1500
G1 X16.33Y42.583Z0F1500
G1 X16.252Y42.541Z0F1500
G1 X16.148Y42.504Z0F1500
G1 X16.015Y42.486Z0F1500
G1 X15.871Y42.5Z0F1500
G1 X15.738Y42.547Z0F1500
G1 X15.622Y42.613Z0F1500
G1 X15.609Y42.624Z0F1500
G1 X15.331Y42.755Z0F1500
G1 X14.969Y42.914Z0F1500
G1 X14.776Y43.016Z0F1500
G1 X14.583Y43.141Z0F1500
G1 X14.397Y43.294Z0F1500
G1 X14.224Y43.482Z0F1500
G1 X14.162Y43.584Z0F1500
G1 X14.126Y43.697Z0F1500
G1 X14.089Y43.969Z0F1500
G1 X14.079Y44.254Z0F1500
G1 X14.102Y44.548Z0F1500
G1 X14.167Y44.846Z0F1500
G1 X14.292Y45.141Z0F1500
G1 X14.483Y45.416Z0F1500
G1 X14.741Y45.649Z0F1500
G1 X15.066Y45.816Z0F1500
G1 X15.021Y45.799Z0F1500
G1 X15.214Y45.898Z0F1500
G1 X13.157Y45.914Z0F1500
G1 X11.08Y45.92Z0F1500
G1 X11.146Y45.924Z0F1500
G1 X10.588Y45.901Z0F1500
G1 X10.107Y45.908Z0F1500
G1 X9.943Y45.895Z0F1500
G1 X9.812Y45.865Z0F1500
G1 X9.702Y45.822Z0F1500
G1 X9.607Y45.768Z0F1500
G1 X9.522Y45.481Z0F1500
G1 X9.462Y45.181Z0F1500
G1 X9.424Y44.871Z0F1500
G1 X9.407Y44.551Z0F1500
G1 X9.419Y43.891Z0F1500
G1 X9.476Y43.215Z0F1500
G1 X9.591Y42.96Z0F1500
G1 X9.748Y42.714Z0F1500
G1 X9.939Y42.472Z0F1500
G1 X10.156Y42.229Z0F1500
G1 X10.64Y41.723Z0F1500
G1 X11.136Y41.16Z0F1500
G1 X11.167Y41.113Z0F1500
G1 X11.289Y40.962Z0F1500
G1 X11.449Y40.824Z0F1500
G1 X11.63Y40.714Z0F1500
G1 X11.818Y40.643Z0F1500
G1 X11.989Y40.613Z0F1500
G1 X12.136Y40.625Z0F1500
G1 X12.267Y40.683Z0F1500
G1 X12.388Y40.795Z0F1500
G1 X12.357Y40.752Z0F1500
G1 X12.582Y41.036Z0F1500
G1 X12.835Y41.27Z0F1500
G1 X13.108Y41.463Z0F1500
G1 X13.392Y41.622Z0F1500
G1 X13.96Y41.867Z0F1500
G1 X14.476Y42.066Z0F1500
G1 X14.563Y42.094Z0F1500
G1 X14.654Y42.105Z0F1500
G1 X15.312Y42.096Z0F1500
G1 X15.933Y42.064Z0F1500
G1 X16.515Y42.056Z0F1500
G1 X17.058Y42.117Z0F1500
G1 X17.095Y42.124Z0F1500
G1 X17.463Y42.165Z0F1500
G1 X17.808Y42.232Z0F1500
G1 X18.541Y42.407Z0F1500
G1 X18.716Y42.415Z0F1500
G1 X18.882Y42.36Z0F1500
G1 X19.163Y42.163Z0F1500
G1 X19.376Y41.93Z0F1500
G1 X19.539Y41.681Z0F1500
G1 X19.664Y41.438Z0F1500
G1 X19.769Y41.214Z0F1500
G1 X19.864Y41.016Z0F1500
G1 X19.955Y40.849Z0F1500
G1 X20.044Y40.721Z0F1500
G1 X19.96Y40.797Z0F1500
G1 X20.158Y40.6Z0F1500
G1 X20.265Y40.398Z0F1500
G1 X20.313Y40.22Z0F1500
G1 X20.337Y40.094Z0F1500
G1 Y40.081Z0F1500
G1 X20.476Y40.071Z0F1500
G1 X20.591Y40.043Z0F1500
G1 X20.749Y39.884Z0F1500
G1 X20.83Y39.752Z0F1500
G1 X20.886Y39.669Z0F1500
G1 X20.917Y39.633Z0F1500
G1 X20.903Z0F1500
G1 X20.83Y39.663Z0F1500
G1 X20.938Y39.608Z0F1500
G1 X21.031Y39.53Z0F1500
G1 X21.051Y39.507Z0F1500
G1 X21.054Y39.51Z0F1500
G1 X21.099Y39.514Z0F1500
G1 X21.201Y39.542Z0F1500
G1 X21.344Y39.603Z0F1500
G1 X21.517Y39.687Z0F1500
G1 X21.723Y39.775Z0F1500
G1 X21.892Y39.829Z0F1500
G1 X22.068Y39.925Z0F1500
G1 X22.302Y40.016Z0F1500
G1 X22.505Y40.081Z0F1500
G1 X22.664Y40.137Z0F1500
G1 X22.756Y40.188Z0F1500
G1 X22.777Y40.204Z0F1500
G1 X22.771Y40.234Z0F1500
G1 X22.767Y40.289Z0F1500
G1 X22.788Y40.69Z0F1500
G1 X22.876Y41.075Z0F1500
G1 X23.026Y41.437Z0F1500
G1 X23.231Y41.767Z0F1500
G1 X23.488Y42.059Z0F1500
G1 X23.791Y42.305Z0F1500
G1 X24.133Y42.499Z0F1500
G1 X24.511Y42.631Z0F1500
G1 X24.568Y42.643Z0F1500
G1 X25.083Y42.681Z0F1500
G1 X25.638Y42.711Z0F1500
G1 X25.949Y42.689Z0F1500
G1 X26.273Y42.615Z0F1500
G1 X26.593Y42.473Z0F1500
G1 X26.798Y42.316Z0F1500
G1 X27.214Y42.059Z0F1500
G1 X27.622Y41.741Z0F1500
G1 X27.812Y41.558Z0F1500
G1 X27.987Y41.354Z0F1500
G1 X28.145Y41.131Z0F1500
G1 X28.245Y40.953Z0F1500
G1 X28.666Y40.458Z0F1500
G1 X29.135Y39.901Z0F1500
G1 X29.358Y39.597Z0F1500
G1 X29.564Y39.271Z0F1500
G1 X29.744Y38.918Z0F1500
G1 X29.888Y38.535Z0F1500
G1 X29.91Y38.413Z0F1500
G1 X29.899Y38.29Z0F1500
G1 X29.859Y38.174Z0F1500
G1 X29.791Y38.07Z0F1500
G1 X29.74Y37.967Z0F1500
G1 X29.736Y37.867Z0F1500
G1 X29.745Y37.822Z0F1500
G1 X29.806Y37.805Z0F1500
G1 X29.843Y37.797Z0F1500
G1 X30.073Y37.725Z0F1500
G1 X30.293Y37.627Z0F1500
G1 X30.501Y37.504Z0F1500
G1 X30.693Y37.356Z0F1500
G1 X30.866Y37.185Z0F1500
G1 X31.015Y36.989Z0F1500
G1 X31.139Y36.771Z0F1500
G1 X31.232Y36.531Z0F1500
G1 X31.254Y36.391Z0F1500
G1 X31.236Y36.25Z0F1500
G1 X31.146Y35.997Z0F1500
G1 X31.042Y35.77Z0F1500
G1 X30.938Y35.565Z0F1500
G1 X30.847Y35.381Z0F1500
G1 X30.806Y35.233Z0F1500
G1 X30.798Y35.119Z0F1500
G1 X30.859Y35.105Z0F1500
G1 X30.916Y35.1Z0F1500
G1 X31.048Y35.139Z0F1500
G1 X31.103Y35.203Z0F1500
G1 X31.122Y35.242Z0F1500
G1 X31.391Y35.705Z0F1500
G1 X31.633Y36.178Z0F1500
G1 X31.896Y36.676Z0F1500
G1 X32.203Y37.176Z0F1500
G1 X32.17Y38.122Z0F1500
G1 X32.097Y39.1Z0F1500
G1 X32.044Y40.107Z0F1500
G1 X32.072Y41.143Z0F1500
G1 X32.096Y41.258Z0F1500
G1 X32.148Y41.365Z0F1500
G1 X32.293Y41.565Z0F1500
G1 X32.454Y41.739Z0F1500
G1 X32.628Y41.889Z0F1500
G1 X32.813Y42.018Z0F1500
G1 X33.199Y42.222Z0F1500
G1 X33.589Y42.369Z0F1500
G1 X33.968Y42.484Z0F1500
G1 X34.327Y42.584Z0F1500
G1 X34.655Y42.685Z0F1500
G1 X34.941Y42.797Z0F1500
G1 X35.499Y43.041Z0F1500
G1 X36.098Y43.251Z0F1500
G1 X36.415Y43.327Z0F1500
G1 X36.743Y43.376Z0F1500
G1 X37.084Y43.391Z0F1500
G1 X37.437Y43.365Z0F1500
G1 X37.388Y43.369Z0F1500
G1 X38.345Y43.31Z0F1500
G1 X39.279Y43.225Z0F1500
G1 X40.191Y43.158Z0F1500
G1 X41.707Y43.154Z0F1500
G1 X42.369Y43.113Z0F1500
G1 X42.712Y43.042Z0F1500
G1 X43.057Y42.916Z0F1500
G1 X43.388Y42.721Z0F1500
G1 X43.9Y42.259Z0F1500
G1 X44.11Y42.047Z0F1500
G1 X44.308Y41.809Z0F1500
G1 X44.482Y41.539Z0F1500
G1 X44.623Y41.22Z0F1500
G1 X44.706Y40.865Z0F1500
G1 X44.711Y40.487Z0F1500
G1 X44.623Y40.098Z0F1500
G1 X44.644Y40.18Z0F1500
G1 X43.833Y35.961Z0F1500
G1 X43.816Y35.891Z0F1500
G1 X43.789Y35.824Z0F1500
G1 X43.331Y34.986Z0F1500
G1 X42.816Y34.177Z0F1500
G1 X42.251Y33.403Z0F1500
G1 X41.638Y32.668Z0F1500
G1 X41.603Y32.633Z0F1500
G1 X41.311Y32.392Z0F1500
G1 X40.998Y32.183Z0F1500
G1 X40.667Y32.005Z0F1500
G1 X40.323Y31.86Z0F1500
G1 X39.967Y31.745Z0F1500
G1 X39.605Y31.662Z0F1500
G1 X39.24Y31.609Z0F1500
G1 X38.875Y31.586Z0F1500
G1 X38.734Y31.604Z0F1500
G1 X38.605Y31.66Z0F1500
G1 X38.418Y31.786Z0F1500
G1 X38.115Y32.016Z0F1500
G1 X37.994Y32.096Z0F1500
G1 X37.907Y32.146Z0F1500
G1 X37.852Y32.168Z0F1500
G1 X37.806Y32.164Z0F1500
G1 X37.481Y32.001Z0F1500
G1 X37.26Y31.868Z0F1500
G1 X37.059Y31.721Z0F1500
G1 X36.888Y31.563Z0F1500
G1 X36.756Y31.401Z0F1500
G1 X36.664Y31.235Z0F1500
G1 X36.612Y31.056Z0F1500
G1 X36.603Y30.857Z0F1500
G1 Y30.83Z0F1500
G1 X36.582Y30.135Z0F1500
G1 X36.606Y29.493Z0F1500
G1 X36.644Y29.185Z0F1500
G1 X36.703Y28.887Z0F1500
G1 X36.787Y28.6Z0F1500
G1 X36.9Y28.326Z0F1500
G1 X36.935Y28.226Z0F1500
G1 X36.947Y28.121Z0F1500
G1 X36.937Y28.016Z0F1500
G1 X36.904Y27.914Z0F1500
G1 X36.682Y27.469Z0F1500
G1 X36.375Y27.021Z0F1500
G1 X36.181Y26.817Z0F1500
G1 X35.956Y26.64Z0F1500
G1 X35.694Y26.497Z0F1500
G1 X35.394Y26.396Z0F1500
G1 X34.917Y26.214Z0F1500
G1 X34.439Y26.096Z0F1500
G1 X33.967Y26.024Z0F1500
G1 X33.505Y25.982Z0F1500
G1 X32.865Y25.822Z0F1500
G1 X32.231Y25.729Z0F1500
G1 X31.609Y25.683Z0F1500
G1 X31.001Y25.658Z0F1500
G1 X30.639Y25.554Z0F1500
G1 X30.212Y25.417Z0F1500
G1 X29.973Y25.36Z0F1500
G1 X29.716Y25.324Z0F1500
G1 X29.441Y25.318Z0F1500
G1 X29.214Y25.344Z0F1500
G1 X28.64Y25.347Z0F1500
G1 X28.072Y25.368Z0F1500
G1 X27.552Z0F1500
G1 X27.083Y25.311Z0F1500
G1 X27.071Y25.27Z0F1500
G1 X27.066Y25.211Z0F1500
G1 X27.1Y24.978Z0F1500
G1 X27.16Y24.73Z0F1500
G1 X27.167Y24.674Z0F1500
G1 X27.193Y24.668Z0F1500
G1 X27.34Y24.648Z0F1500
G1 X27.537Y24.62Z0F1500
G1 X27.77Y24.545Z0F1500
G1 X28.027Y24.391Z0F1500
G1 X27.964Y24.432Z0F1500
G1 X28.436Y24.207Z0F1500
G1 X28.91Y24.07Z0F1500
G1 X29.144Y24.042Z0F1500
G1 X29.375Y24.045Z0F1500
G1 X29.6Y24.082Z0F1500
G1 X29.818Y24.154Z0F1500
G1 X29.808Y24.15Z0F1500
G1 X30.279Y24.312Z0F1500
G1 X30.756Y24.384Z0F1500
G1 X31.23Y24.38Z0F1500
G1 X31.613Y24.324Z0F1500
G1 X32.244Z0F1500
G1 X32.871Y24.361Z0F1500
G1 X33.476Y24.453Z0F1500
G1 X34.05Y24.615Z0F1500
G1 X34.186Y24.644Z0F1500
G1 X34.321Y24.634Z0F1500
G1 X34.449Y24.587Z0F1500
G1 X34.56Y24.506Z0F1500
G1 X34.816Y24.226Z0F1500
G1 X35.039Y23.921Z0F1500
G1 X35.228Y23.597Z0F1500
G1 X35.382Y23.257Z0F1500
G1 X35.503Y22.904Z0F1500
G1 X35.591Y22.543Z0F1500
G1 X35.645Y22.177Z0F1500
G1 X35.666Y21.811Z0F1500
G1 X35.66Y21.733Z0F1500
G1 X35.642Y21.658Z0F1500
G1 X35.491Y21.27Z0F1500
G1 X35.273Y20.89Z0F1500
G1 X35.136Y20.712Z0F1500
G1 X34.978Y20.548Z0F1500
G1 X34.797Y20.401Z0F1500
G1 X34.593Y20.275Z0F1500
G1 X34.523Y20.244Z0F1500
G1 X34.449Y20.225Z0F1500
G1 X34.269Y20.218Z0F1500
G1 X34.072Y20.258Z0F1500
G1 X33.888Y20.346Z0F1500
G1 X33.744Y20.482Z0F1500
G1 X33.657Y20.637Z0F1500
G1 X33.616Y20.777Z0F1500
G1 X33.605Y20.901Z0F1500
G1 Y21.01Z0F1500
G1 X33.619Y21.19Z0F1500
G1 X33.632Y21.328Z0F1500
G1 Y21.408Z0F1500
G1 X33.646Y21.371Z0F1500
G1 X33.638Y21.396Z0F1500
G1 X33.584Y21.665Z0F1500
G1 X33.581Y21.888Z0F1500
G1 X33.619Y22.219Z0F1500
G1 X33.01Y22.183Z0F1500
G1 X32.456Y22.162Z0F1500
G1 X32.344Z0F1500
G1 X32.278Y22.146Z0F1500
M9
M5
G1 Z10 F1000
G90
G1 Z10 F800
G1 X120 F1500
