;LightBurn 1.6.04
;Custom GCode device profile, absolute coords
;Bounds: X6.76 Y5.23 to X177.8 Y85.12
G00 G17 G40 G21 G54
G90
M3
;Cut @ 20 mm/sec, 90% power

M8
G0 Z1.5F500
G0 X8.881Y24.781Z1.5F1200
G1 Z0F500
;Layer C00
G1 X9.022Y25.182Z0S900F1200
G1 X9.133Y25.59Z0F1200
G1 X9.287Y26.68Z0F1200
G1 X9.394Y27.747Z0F1200
G1 X9.457Y28.814Z0F1200
G1 X9.477Y29.901Z0F1200
G1 X9.467Y30.186Z0F1200
G1 X9.448Y30.746Z0F1200
G1 X9.443Y31.041Z0F1200
G1 Y31.299Z0F1200
G1 X9.449Y31.403Z0F1200
G1 X9.455Y31.485Z0F1200
G1 X9.465Y31.54Z0F1200
G1 X9.477Y31.563Z0F1200
G1 X9.737Y31.624Z0F1200
G1 X10.008Y31.61Z0F1200
G1 X10.284Y31.573Z0F1200
G1 X10.557Y31.563Z0F1200
G1 X10.739Y31.619Z0F1200
G1 X10.921Y31.666Z0F1200
G1 X11.167Y31.648Z0F1200
G1 X11.46Y31.6Z0F1200
G1 X11.75Y31.534Z0F1200
G1 X11.988Y31.461Z0F1200
G1 X12.228Y31.33Z0F1200
G1 X12.399Y31.157Z0F1200
G1 X12.533Y30.945Z0F1200
G1 X12.661Y30.699Z0F1200
G1 X12.893Y30.196Z0F1200
G1 X13.06Y29.705Z0F1200
G1 X13.165Y29.222Z0F1200
G1 X13.213Y28.74Z0F1200
G1 X13.208Y28.255Z0F1200
G1 X13.154Y27.76Z0F1200
G1 X13.055Y27.25Z0F1200
G1 X12.915Y26.718Z0F1200
G1 X12.631Y26.319Z0F1200
G1 X12.338Y25.965Z0F1200
G1 X12.155Y25.874Z0F1200
G1 X11.887Y25.751Z0F1200
G1 X11.562Y25.608Z0F1200
G1 X11.208Y25.456Z0F1200
G1 X10.852Y25.309Z0F1200
G1 X10.521Y25.179Z0F1200
G1 X10.244Y25.078Z0F1200
G1 X10.047Y25.018Z0F1200
G1 X9.849Y24.978Z0F1200
G1 X9.703Y24.963Z0F1200
G1 X9.591Y24.96Z0F1200
G1 X9.494Z0F1200
G1 X9.393Y24.952Z0F1200
G1 X9.27Y24.927Z0F1200
G1 X9.106Y24.873Z0F1200
G1 X8.881Y24.781Z0F1200
G0 Z1.5F500
G0 X15.278Y27.262Z1.5F1200
G1 Z0F500
G1 X14.964Y27.317Z0F1200
G1 X14.6Y27.351Z0F1200
G1 X14.418Y27.343Z0F1200
G1 X14.246Y27.309Z0F1200
G1 X14.093Y27.242Z0F1200
G1 X13.966Y27.137Z0F1200
G1 X13.85Y26.969Z0F1200
G1 X13.775Y26.786Z0F1200
G1 X13.736Y26.591Z0F1200
G1 X13.724Y26.387Z0F1200
G1 X13.721Y26.183Z0F1200
G1 X13.716Y26.015Z0F1200
G1 Y25.873Z0F1200
G1 X13.722Y25.746Z0F1200
G1 X13.742Y25.622Z0F1200
G1 X13.782Y25.492Z0F1200
G1 X13.845Y25.343Z0F1200
G1 X13.938Y25.167Z0F1200
G1 X14.022Y25.021Z0F1200
G1 X14.074Y24.943Z0F1200
G1 X14.105Y24.915Z0F1200
G1 X14.124Y24.921Z0F1200
G1 X14.164Y24.97Z0F1200
G1 X14.275Y24.961Z0F1200
G1 X14.365Y24.907Z0F1200
G1 X14.383Y24.873Z0F1200
G1 X14.356Y24.854Z0F1200
G1 X14.315Y24.84Z0F1200
G1 X14.287Y24.827Z0F1200
G1 X14.303Y24.807Z0F1200
G1 X14.336Y24.793Z0F1200
G1 X14.391Y24.774Z0F1200
G1 X14.472Y24.75Z0F1200
G1 X14.581Y24.72Z0F1200
G1 X14.81Y24.69Z0F1200
G1 X15.037Y24.716Z0F1200
G1 X15.254Y24.794Z0F1200
G1 X15.452Y24.92Z0F1200
G1 X15.624Y25.088Z0F1200
G1 X15.761Y25.293Z0F1200
G1 X15.856Y25.531Z0F1200
G1 X15.9Y25.796Z0F1200
G1 X15.847Y26.025Z0F1200
G1 X15.71Y26.272Z0F1200
G1 X15.561Y26.491Z0F1200
G1 X15.466Y26.637Z0F1200
G1 X15.422Y26.8Z0F1200
G1 X15.399Y26.978Z0F1200
G1 X15.363Y27.141Z0F1200
G1 X15.278Y27.262Z0F1200
G1 X15.123Y27.317Z0F1200
G1 X14.951Y27.304Z0F1200
G1 X14.773Y27.274Z0F1200
G1 X14.599Z0F1200
G1 X14.552Y27.342Z0F1200
G1 X14.508Y27.421Z0F1200
G1 X14.318Y27.429Z0F1200
G1 X14.124Y27.421Z0F1200
G0 Z1.5F500
G0 X16.664Y25.357Z1.5F1200
G1 Z0F500
G1 X16.757Y25.802Z0F1200
G1 X16.836Y26.249Z0F1200
G1 X16.855Y26.691Z0F1200
G1 X16.877Y27.148Z0F1200
G1 X16.923Y27.347Z0F1200
G1 X17.009Y27.506Z0F1200
G1 X17.151Y27.613Z0F1200
G1 X17.36Y27.651Z0F1200
G1 X17.513Y27.632Z0F1200
G1 X17.696Y27.579Z0F1200
G1 X17.874Y27.5Z0F1200
G1 X18.009Y27.404Z0F1200
G1 X18.311Y27.1Z0F1200
G1 X18.561Y26.809Z0F1200
G1 X18.661Y26.653Z0F1200
G1 X18.744Y26.483Z0F1200
G1 X18.806Y26.293Z0F1200
G1 X18.847Y26.078Z0F1200
G1 X18.833Y25.85Z0F1200
G1 X18.775Y25.637Z0F1200
G1 X18.747Y25.549Z0F1200
G1 X18.731Y25.48Z0F1200
G1 Y25.434Z0F1200
G1 X18.759Y25.418Z0F1200
G0 Z1.5F500
G0 X21.344Y27.034Z1.5F1200
G1 Z0F500
G1 X20.972Y27.261Z0F1200
G1 X20.564Y27.438Z0F1200
G1 X20.368Y27.46Z0F1200
G1 X20.187Y27.413Z0F1200
G1 X20.105Y27.357Z0F1200
G1 X20.031Y27.277Z0F1200
G1 X19.964Y27.171Z0F1200
G1 X19.907Y27.035Z0F1200
G1 X19.846Y26.746Z0F1200
G1 X19.859Y26.471Z0F1200
G1 X19.935Y26.213Z0F1200
G1 X20.059Y25.975Z0F1200
G1 X20.219Y25.758Z0F1200
G1 X20.402Y25.564Z0F1200
G1 X20.596Y25.396Z0F1200
G1 X20.787Y25.256Z0F1200
G1 X20.956Y25.159Z0F1200
G1 X21.106Y25.11Z0F1200
G1 X21.231Z0F1200
G1 X21.328Y25.16Z0F1200
G1 X21.39Y25.26Z0F1200
G1 X21.413Y25.411Z0F1200
G1 X21.393Y25.615Z0F1200
G1 X21.325Y25.872Z0F1200
G1 X21.257Y26.017Z0F1200
G1 X21.179Y26.13Z0F1200
G1 X21.105Y26.243Z0F1200
G1 X21.052Y26.387Z0F1200
G1 Y26.456Z0F1200
G1 X21.064Y26.536Z0F1200
G1 X21.088Y26.592Z0F1200
G1 X21.114Y26.589Z0F1200
G1 X21.22Y26.379Z0F1200
G1 X21.305Y26.156Z0F1200
G1 X21.426Y25.751Z0F1200
G1 X21.536Y25.404Z0F1200
G1 X21.659Y25.052Z0F1200
G1 X21.721Y24.895Z0F1200
G1 X21.78Y24.762Z0F1200
G1 X21.836Y24.661Z0F1200
G1 X21.886Y24.601Z0F1200
G1 X21.927Y24.591Z0F1200
G1 X21.959Y24.638Z0F1200
G1 X21.98Y24.752Z0F1200
G1 X21.987Y24.94Z0F1200
G0 Z1.5F500
G0 X24.039Y30.794Z1.5F1200
G1 Z0F500
G1 X24.098Y30.012Z0F1200
G1 X24.138Y29.22Z0F1200
G1 X24.149Y28.426Z0F1200
G1 X24.121Y27.639Z0F1200
G1 X24.09Y27.257Z0F1200
G1 X24.066Y26.909Z0F1200
G1 X24.069Y26.56Z0F1200
G1 X24.121Y26.178Z0F1200
G1 X24.142Y26.112Z0F1200
G1 X24.304Y25.702Z0F1200
G1 X24.359Y25.55Z0F1200
G1 X24.4Y25.418Z0F1200
G1 X24.416Y25.323Z0F1200
G1 X24.398Y25.28Z0F1200
G1 X23.665Y25.112Z0F1200
G1 X22.928Y24.963Z0F1200
G0 Z1.5F500
G0 X27.051Y26.616Z1.5F1200
G1 Z0F500
G1 X27.001Y26.708Z0F1200
G1 X26.912Y26.769Z0F1200
G1 X26.789Y26.803Z0F1200
G1 X26.64Y26.813Z0F1200
G1 X26.291Y26.767Z0F1200
G1 X25.918Y26.65Z0F1200
G1 X25.577Y26.483Z0F1200
G1 X25.322Y26.283Z0F1200
G1 X25.244Y26.178Z0F1200
G1 X25.207Y26.071Z0F1200
G1 X25.219Y25.967Z0F1200
G1 X25.286Y25.866Z0F1200
G1 X25.528Y25.67Z0F1200
G1 X25.859Y25.476Z0F1200
G1 X26.249Y25.301Z0F1200
G1 X26.671Y25.163Z0F1200
G1 X27.097Y25.08Z0F1200
G1 X27.499Y25.071Z0F1200
G1 X27.683Y25.099Z0F1200
G1 X27.85Y25.152Z0F1200
G1 X27.997Y25.233Z0F1200
G1 X28.121Y25.343Z0F1200
G1 X28.275Y25.571Z0F1200
G1 X28.41Y25.867Z0F1200
G1 X28.526Y26.214Z0F1200
G1 X28.623Y26.59Z0F1200
G1 X28.703Y26.976Z0F1200
G1 X28.767Y27.353Z0F1200
G1 X28.815Y27.701Z0F1200
G1 X28.849Y28.001Z0F1200
G1 X28.855Y28.199Z0F1200
G1 X28.841Y28.441Z0F1200
G1 X28.811Y28.712Z0F1200
G1 X28.767Y28.996Z0F1200
G1 X28.711Y29.276Z0F1200
G1 X28.647Y29.536Z0F1200
G1 X28.578Y29.761Z0F1200
G1 X28.506Y29.934Z0F1200
G1 X28.404Y30.053Z0F1200
G1 X28.298Y30.168Z0F1200
G1 X28.142Y30.508Z0F1200
G1 X27.989Y30.807Z0F1200
G1 X27.966Y30.748Z0F1200
G1 Y30.679Z0F1200
G1 X27.989Y30.538Z0F1200
G1 X28.058Y30.25Z0F1200
G1 X28.117Y29.96Z0F1200
G1 X28.132Y29.481Z0F1200
G1 X28.103Y28.519Z0F1200
G1 X28.117Y28.04Z0F1200
G1 X28.177Y27.754Z0F1200
G1 X28.244Y27.469Z0F1200
G1 X28.237Y27.272Z0F1200
G1 X28.244Y27.08Z0F1200
G1 X28.363Y26.864Z0F1200
G1 X28.493Y26.654Z0F1200
G1 X28.522Y26.547Z0F1200
G1 X28.547Y26.396Z0F1200
G1 X28.572Y26.218Z0F1200
G1 X28.601Y26.033Z0F1200
G1 X28.639Y25.857Z0F1200
G1 X28.69Y25.71Z0F1200
G1 X28.759Y25.608Z0F1200
G1 X28.85Y25.57Z0F1200
G0 Z1.5F500
G0 X32.369Y27.795Z1.5F1200
G1 Z0F500
G1 X32.507Y28.143Z0F1200
G1 X32.715Y28.443Z0F1200
G1 X32.972Y28.712Z0F1200
G1 X33.259Y28.962Z0F1200
G1 X33.554Y29.209Z0F1200
G1 X33.837Y29.466Z0F1200
G1 X34.088Y29.747Z0F1200
G1 X34.288Y30.068Z0F1200
G1 X34.343Y30.208Z0F1200
G1 X34.37Y30.332Z0F1200
G1 X34.378Y30.452Z0F1200
G1 Y30.582Z0F1200
G1 Y30.657Z0F1200
G1 Y30.682Z0F1200
G1 X34.44Y30.326Z0F1200
G1 X34.478Y30.092Z0F1200
G1 X34.495Y29.958Z0F1200
G1 Y29.901Z0F1200
G1 X34.468Y29.935Z0F1200
G1 X34.423Y30.019Z0F1200
G1 X34.404Y30.025Z0F1200
G1 X34.394Y29.978Z0F1200
G1 Y29.856Z0F1200
G1 X34.413Y29.638Z0F1200
G1 X34.451Y29.302Z0F1200
G1 X34.512Y28.825Z0F1200
G1 X34.602Y28.187Z0F1200
G1 X34.723Y27.365Z0F1200
G1 X34.789Y27.046Z0F1200
G1 X34.879Y26.735Z0F1200
G1 X34.978Y26.426Z0F1200
G1 X35.07Y26.114Z0F1200
G1 X35.134Y25.949Z0F1200
G1 X35.211Y25.774Z0F1200
G1 X35.249Y25.614Z0F1200
G1 X35.197Y25.491Z0F1200
G1 X34.951Y25.315Z0F1200
G1 X34.689Y25.177Z0F1200
G1 X34.414Y25.075Z0F1200
G1 X34.13Y25.005Z0F1200
G1 X33.548Y24.943Z0F1200
G1 X32.971Y24.959Z0F1200
G1 X32.683Y24.98Z0F1200
G1 X32.332Y25.002Z0F1200
G1 X32.228Y25.016Z0F1200
G1 X32.145Y25.041Z0F1200
G1 X32.063Y25.083Z0F1200
G1 X31.96Y25.149Z0F1200
G1 X31.818Y25.245Z0F1200
G0 Z1.5F500
G0 X36.133Y25.326Z1.5F1200
G1 Z0F500
G1 X36.173Y25.015Z0F1200
G1 X36.235Y24.768Z0F1200
G1 X36.316Y24.579Z0F1200
G1 X36.41Y24.445Z0F1200
G1 X36.515Y24.359Z0F1200
G1 X36.625Y24.319Z0F1200
G1 X36.736Z0F1200
G1 X36.844Y24.351Z0F1200
G1 X36.944Y24.414Z0F1200
G1 X37.033Y24.502Z0F1200
G1 X37.106Y24.611Z0F1200
G1 X37.159Y24.735Z0F1200
G1 X37.187Y24.87Z0F1200
G1 Y25.011Z0F1200
G1 X37.154Y25.153Z0F1200
G1 X37.083Y25.291Z0F1200
G1 X36.927Y25.432Z0F1200
G1 X36.725Y25.552Z0F1200
G1 X36.63Y25.616Z0F1200
G1 X36.552Y25.689Z0F1200
G1 X36.498Y25.777Z0F1200
G1 X36.478Y25.882Z0F1200
G0 Z1.5F500
G0 X40.682Y30.558Z1.5F1200
G1 Z0F500
G1 X40.789Y29.28Z0F1200
G1 X40.82Y27.987Z0F1200
G1 X40.813Y26.689Z0F1200
G1 X40.803Y25.395Z0F1200
G0 Z1.5F500
G0 X37.775Y30.409Z1.5F1200
G1 Z0F500
G1 X38.149Y30.497Z0F1200
G1 X38.526Y30.541Z0F1200
G1 X38.903Y30.548Z0F1200
G1 X39.282Y30.529Z0F1200
G1 X40.79Y30.362Z0F1200
G1 X41.182Y30.342Z0F1200
G1 X41.58Y30.331Z0F1200
G1 X41.978Y30.31Z0F1200
G1 X42.368Y30.259Z0F1200
G1 X42.627Y30.192Z0F1200
G1 X42.883Y30.156Z0F1200
G0 Z1.5F500
G0 X43.058Y25.113Z1.5F1200
G1 Z0F500
G1 X42.992Y25.899Z0F1200
G1 X42.93Y26.686Z0F1200
G1 Y26.82Z0F1200
G1 X42.957Y26.928Z0F1200
G1 X43.003Y27.015Z0F1200
G1 X43.067Y27.081Z0F1200
G1 X43.238Y27.163Z0F1200
G1 X43.451Y27.194Z0F1200
G1 X43.915Y27.182Z0F1200
G1 X44.293Y27.204Z0F1200
G1 X44.357Y27.232Z0F1200
G1 X44.44Y27.278Z0F1200
G1 X44.471Y27.302Z0F1200
G1 X44.483Y27.322Z0F1200
G1 X44.47Y27.336Z0F1200
G1 X44.424Y27.342Z0F1200
G0 Z1.5F500
G0 Z1.5F1200
G1 Z0F500
G1 X44.822Y27.248Z0F1200
G1 X45.228Y27.174Z0F1200
G1 X45.427Y27.126Z0F1200
G1 X45.619Y27.062Z0F1200
G1 X45.8Y26.975Z0F1200
G1 X45.97Y26.859Z0F1200
G1 X46.032Y26.783Z0F1200
G1 X46.066Y26.69Z0F1200
G1 X46.08Y26.583Z0F1200
G1 Y26.466Z0F1200
G1 X46.059Y26.22Z0F1200
G1 Y25.986Z0F1200
G1 X46.118Y25.698Z0F1200
G1 X46.203Y25.455Z0F1200
G1 X46.317Y25.252Z0F1200
G1 X46.457Y25.081Z0F1200
G1 X46.624Y24.937Z0F1200
G1 X46.817Y24.814Z0F1200
G1 X47.035Y24.705Z0F1200
G1 X47.279Y24.605Z0F1200
G1 X47.421Y24.573Z0F1200
G1 X47.529Y24.596Z0F1200
G1 X47.606Y24.666Z0F1200
G1 X47.657Y24.776Z0F1200
G1 X47.684Y24.92Z0F1200
G1 X47.691Y25.09Z0F1200
G1 X47.68Y25.279Z0F1200
G1 X47.657Y25.479Z0F1200
G1 X47.582Y25.888Z0F1200
G1 X47.494Y26.259Z0F1200
G1 X47.383Y26.66Z0F1200
G1 X47.369Y26.824Z0F1200
G1 X47.375Y27.018Z0F1200
G1 X47.386Y27.1Z0F1200
G1 X47.401Y27.155Z0F1200
G1 X47.42Y27.175Z0F1200
G1 X47.444Y27.148Z0F1200
G1 X47.668Y26.593Z0F1200
G1 X47.977Y25.677Z0F1200
G1 X48.084Y25.392Z0F1200
G1 X48.196Y25.133Z0F1200
G1 X48.317Y24.912Z0F1200
G0 Z1.5F500
G0 X49.939Y26.02Z1.5F1200
G1 Z0F500
G1 X49.887Y26.033Z0F1200
G1 X49.867Y26.029Z0F1200
G1 X49.875Y26.009Z0F1200
G1 X49.907Y25.976Z0F1200
G1 X50.024Y25.875Z0F1200
G1 X50.183Y25.742Z0F1200
G1 X50.349Y25.592Z0F1200
G1 X50.487Y25.438Z0F1200
G1 X50.535Y25.365Z0F1200
G1 X50.562Y25.297Z0F1200
G1 X50.565Y25.236Z0F1200
G1 X50.539Y25.183Z0F1200
G1 X50.519Z0F1200
G1 X50.492Y25.219Z0F1200
G1 X50.459Y25.285Z0F1200
G1 X50.424Y25.38Z0F1200
G1 X50.348Y25.639Z0F1200
G1 X50.281Y25.966Z0F1200
G1 Y26.114Z0F1200
G1 X50.32Y26.26Z0F1200
G1 X50.393Y26.403Z0F1200
G1 X50.491Y26.537Z0F1200
G1 X50.723Y26.768Z0F1200
G1 X50.949Y26.927Z0F1200
G1 X51.126Y26.978Z0F1200
G1 X51.299Y26.944Z0F1200
G1 X51.465Y26.844Z0F1200
G1 X51.622Y26.697Z0F1200
G1 X51.893Y26.337Z0F1200
G1 X52.085Y26.014Z0F1200
G1 X52.202Y25.9Z0F1200
G1 X52.315Y25.783Z0F1200
G1 X52.342Y25.651Z0F1200
G1 X52.339Y25.477Z0F1200
G1 X52.324Y25.301Z0F1200
G1 X52.315Y25.165Z0F1200
G1 X52.318Y25.189Z0F1200
G1 X52.315Y25.258Z0F1200
G1 X52.245Y25.519Z0F1200
G1 X52.201Y25.701Z0F1200
G1 X52.169Y25.892Z0F1200
G1 X52.16Y26.074Z0F1200
G1 X52.187Y26.227Z0F1200
G1 X52.264Y26.333Z0F1200
G1 X52.401Y26.372Z0F1200
G1 X52.611Y26.388Z0F1200
G1 X52.779Y26.422Z0F1200
G1 X52.912Y26.453Z0F1200
G1 X53.019Y26.463Z0F1200
G1 X53.109Y26.43Z0F1200
G1 X53.191Y26.335Z0F1200
G1 X53.232Y26.258Z0F1200
G1 X53.273Y26.157Z0F1200
G1 X53.317Y26.031Z0F1200
G1 X53.364Y25.877Z0F1200
G1 X53.41Y25.715Z0F1200
G1 X53.444Y25.591Z0F1200
G1 X53.467Y25.495Z0F1200
G1 X53.481Y25.415Z0F1200
G1 X53.49Y25.261Z0F1200
G1 Y25.041Z0F1200
G0 Z1.5F500
G0 Z1.5F1200
G1 Z0F500
G1 X53.9Y24.999Z0F1200
G1 X54.313Y24.971Z0F1200
G1 X54.719Y24.913Z0F1200
G1 X55.106Y24.78Z0F1200
G1 X55.131Y24.737Z0F1200
G1 X55.163Y24.639Z0F1200
G1 X55.2Y24.503Z0F1200
G1 X55.352Y23.89Z0F1200
G1 X55.379Y23.801Z0F1200
G1 X55.43Y23.693Z0F1200
G1 X55.494Y23.571Z0F1200
G1 X55.531Y23.477Z0F1200
G1 X55.5Y23.456Z0F1200
G1 X55.451Y23.512Z0F1200
G1 X55.418Y23.59Z0F1200
G1 X55.129Y24.11Z0F1200
G1 X54.861Y24.643Z0F1200
G1 X54.64Y25.218Z0F1200
G1 X54.478Y25.817Z0F1200
G1 X54.463Y26.11Z0F1200
G1 X54.478Y26.407Z0F1200
G1 X54.492Y26.645Z0F1200
G1 X54.535Y26.81Z0F1200
G1 X54.605Y26.911Z0F1200
G1 X54.703Y26.958Z0F1200
G1 X54.829Y26.962Z0F1200
G1 X54.981Y26.934Z0F1200
G1 X55.159Y26.882Z0F1200
G1 X55.528Y26.766Z0F1200
G1 X55.725Y26.694Z0F1200
G1 X55.933Y26.599Z0F1200
G1 X56.131Y26.478Z0F1200
G1 X56.298Y26.329Z0F1200
G1 X56.413Y26.15Z0F1200
G1 X56.444Y26.047Z0F1200
G1 X56.454Y25.936Z0F1200
G1 X56.44Y25.817Z0F1200
G1 X56.4Y25.687Z0F1200
G1 X56.121Y25.572Z0F1200
G1 X55.798Y25.449Z0F1200
G1 X55.675Y25.459Z0F1200
G1 X55.521Y25.54Z0F1200
G1 X55.349Y25.671Z0F1200
G1 X55.175Y25.829Z0F1200
G1 X55.012Y25.99Z0F1200
G1 X54.78Y26.231Z0F1200
G1 X54.74Y26.266Z0F1200
G1 X54.412Y25.982Z0F1200
G1 X54.101Y25.674Z0F1200
G1 X53.797Y25.355Z0F1200
G1 X53.49Y25.041Z0F1200
G0 Z1.5F500
G0 X65.172Y27.287Z1.5F1200
G1 Z0F500
G1 X65.314Y27.46Z0F1200
G1 X65.456Y27.634Z0F1200
G1 X65.921Y28.219Z0F1200
G1 X66.379Y28.816Z0F1200
G1 X66.553Y29.101Z0F1200
G1 X66.717Y29.417Z0F1200
G1 X66.888Y29.721Z0F1200
G1 X67.088Y29.967Z0F1200
G1 X67.1Y29.962Z0F1200
G1 X67.076Y29.902Z0F1200
G1 X67.039Y29.82Z0F1200
G1 X67.01Y29.749Z0F1200
G1 X66.953Y29.407Z0F1200
G1 X66.932Y29.051Z0F1200
G1 X66.896Y28.707Z0F1200
G1 X66.837Y28.081Z0F1200
G1 X66.797Y27.582Z0F1200
G1 X66.764Y27.068Z0F1200
G1 X66.744Y26.584Z0F1200
G1 Y26.368Z0F1200
G1 Y26.176Z0F1200
G1 X66.757Y26.013Z0F1200
G1 X66.776Y25.886Z0F1200
G1 X66.862Y25.513Z0F1200
G1 X66.909Y25.145Z0F1200
G0 Z1.5F500
G0 X68.373Y29.876Z1.5F1200
G1 Z0F500
G1 X68.308Y29.299Z0F1200
G1 X68.239Y28.723Z0F1200
G1 X68.137Y27.983Z0F1200
G1 X68.027Y27.245Z0F1200
G1 X67.948Y26.859Z0F1200
G1 X67.894Y26.47Z0F1200
G1 X67.916Y26.406Z0F1200
G1 X67.982Y26.36Z0F1200
G1 X68.085Y26.33Z0F1200
G1 X68.219Y26.313Z0F1200
G1 X68.557Y26.316Z0F1200
G1 X68.946Y26.358Z0F1200
G1 X69.334Y26.426Z0F1200
G1 X69.674Y26.509Z0F1200
G1 X69.809Y26.553Z0F1200
G1 X69.914Y26.595Z0F1200
G1 X69.981Y26.636Z0F1200
G1 X70.005Y26.673Z0F1200
G0 Z1.5F500
G0 X69.781Y28.841Z1.5F1200
G1 Z0F500
G1 X69.513Y28.411Z0F1200
G1 X69.317Y27.973Z0F1200
G1 X69.185Y27.525Z0F1200
G1 X69.107Y27.064Z0F1200
G1 X69.074Y26.588Z0F1200
G1 X69.077Y26.095Z0F1200
G1 X69.106Y25.583Z0F1200
G1 X69.152Y25.049Z0F1200
G1 X69.208Y24.551Z0F1200
G1 X69.202Y24.496Z0F1200
G1 X69.208Y24.452Z0F1200
G1 X69.254Z0F1200
G1 X69.303Z0F1200
G1 X69.337Y24.397Z0F1200
G1 X69.304Y24.376Z0F1200
G1 X69.284Z0F1200
G1 X69.356Z0F1200
G0 Z1.5F500
G0 X70.85Y24.873Z1.5F1200
G1 Z0F500
G1 X70.828Y25.126Z0F1200
G1 Y25.283Z0F1200
G1 X70.843Y25.354Z0F1200
G1 X70.873Z0F1200
G1 X70.916Y25.291Z0F1200
G1 X70.968Y25.181Z0F1200
G1 X71.027Y25.035Z0F1200
G1 X71.091Y24.865Z0F1200
G1 X71.223Y24.502Z0F1200
G1 X71.342Y24.191Z0F1200
G1 X71.39Y24.085Z0F1200
G1 X71.428Y24.029Z0F1200
G1 X71.453Y24.034Z0F1200
G1 X71.462Y24.114Z0F1200
G0 Z1.5F500
G0 X73.989Y29.213Z1.5F1200
G1 Z0F500
G1 X73.672Y28.993Z0F1200
G1 X73.347Y28.786Z0F1200
G1 X73.038Y28.552Z0F1200
G1 X72.77Y28.248Z0F1200
G1 X72.708Y28.145Z0F1200
G1 X72.639Y28.006Z0F1200
G1 X72.563Y27.837Z0F1200
G1 X72.484Y27.641Z0F1200
G1 X72.322Y27.186Z0F1200
G1 X72.171Y26.678Z0F1200
G1 X72.047Y26.15Z0F1200
G1 X71.969Y25.639Z0F1200
G1 X71.952Y25.401Z0F1200
G1 Y25.179Z0F1200
G1 X71.974Y24.98Z0F1200
G1 X72.016Y24.806Z0F1200
G1 X72.159Y24.503Z0F1200
G1 X72.346Y24.241Z0F1200
G1 X72.557Y24.005Z0F1200
G1 X72.771Y23.781Z0F1200
G1 X72.838Y23.722Z0F1200
G1 X72.914Y23.679Z0F1200
G1 X72.993Y23.662Z0F1200
G1 X73.068Y23.68Z0F1200
G1 X73.142Y23.734Z0F1200
G1 X73.24Y23.83Z0F1200
G1 X73.346Y23.958Z0F1200
G1 X73.444Y24.107Z0F1200
G1 X73.52Y24.266Z0F1200
G1 X73.556Y24.426Z0F1200
G1 X73.539Y24.576Z0F1200
G1 X73.451Y24.706Z0F1200
G1 X73.369Y24.747Z0F1200
G1 X73.277Y24.754Z0F1200
G1 X73.183Z0F1200
G1 X73.095Y24.782Z0F1200
G1 X72.969Y24.879Z0F1200
G1 X72.857Y24.984Z0F1200
G1 X72.74Y25.067Z0F1200
G1 X72.595Y25.101Z0F1200
G0 Z1.5F500
G0 X75.61Y24.606Z1.5F1200
G1 Z0F500
G1 X75.55Y24.525Z0F1200
G1 X75.545Y24.435Z0F1200
G1 X75.58Y24.344Z0F1200
G1 X75.644Y24.261Z0F1200
G1 X75.723Y24.195Z0F1200
G1 X75.804Y24.154Z0F1200
G1 X75.876Y24.147Z0F1200
G1 X75.924Y24.183Z0F1200
G1 X75.974Y24.364Z0F1200
G1 X75.983Y24.599Z0F1200
G1 X75.972Y24.709Z0F1200
G1 X75.949Y24.801Z0F1200
G1 X75.914Y24.864Z0F1200
G1 X75.866Y24.887Z0F1200
G0 Z1.5F500
G0 X76.272Y27.894Z1.5F1200
G1 Z0F500
G1 X76.338Y27.907Z0F1200
G1 X76.426Y27.943Z0F1200
G1 X76.532Y27.998Z0F1200
G1 X76.653Y28.068Z0F1200
G1 X76.926Y28.244Z0F1200
G1 X77.218Y28.444Z0F1200
G1 X77.502Y28.64Z0F1200
G1 X77.75Y28.808Z0F1200
G1 X77.852Y28.873Z0F1200
G1 X77.935Y28.92Z0F1200
G1 X77.995Y28.947Z0F1200
G1 X78.029Y28.95Z0F1200
G1 X78.049Y28.909Z0F1200
G1 X78.055Y28.817Z0F1200
G1 X78.048Y28.681Z0F1200
G1 X78.03Y28.507Z0F1200
G1 X77.968Y28.073Z0F1200
G1 X77.882Y27.568Z0F1200
G1 X77.786Y27.046Z0F1200
G1 X77.615Y26.159Z0F1200
G1 X77.567Y25.901Z0F1200
G1 X77.539Y25.719Z0F1200
G1 X77.512Y25.448Z0F1200
G1 Y25.321Z0F1200
G1 X77.531Y25.222Z0F1200
G1 X77.571Y25.167Z0F1200
G1 X77.638Y25.175Z0F1200
G0 Z1.5F500
G0 X79.903Y28.331Z1.5F1200
G1 Z0F500
G1 X79.774Y28.37Z0F1200
G1 X79.647Y28.416Z0F1200
G1 X79.518Y28.449Z0F1200
G1 X79.39Z0F1200
G1 X79.361Y28.428Z0F1200
G1 X79.312Y28.372Z0F1200
G1 X79.25Y28.292Z0F1200
G1 X79.182Y28.197Z0F1200
G1 X79.061Y28.003Z0F1200
G1 X79.014Y27.87Z0F1200
G1 X79.051Y27.758Z0F1200
G1 X79.126Y27.622Z0F1200
G1 X79.23Y27.474Z0F1200
G1 X79.35Y27.325Z0F1200
G1 X79.473Y27.185Z0F1200
G1 X79.589Y27.066Z0F1200
G1 X79.686Y26.981Z0F1200
G1 X79.751Y26.939Z0F1200
G1 X79.86Y26.921Z0F1200
G1 X79.973Y26.939Z0F1200
G1 X80.082Y26.982Z0F1200
G1 X80.185Y27.045Z0F1200
G1 X80.303Y27.173Z0F1200
G1 X80.339Y27.308Z0F1200
G1 Y27.455Z0F1200
G1 Y27.617Z0F1200
G1 X80.396Y27.982Z0F1200
G1 X80.402Y28.033Z0F1200
G1 X80.396Y28.053Z0F1200
G1 X80.297Y27.822Z0F1200
G1 X80.251Y27.545Z0F1200
G1 X80.247Y27.238Z0F1200
G1 X80.278Y26.916Z0F1200
G1 X80.332Y26.594Z0F1200
G1 X80.402Y26.288Z0F1200
G1 X80.477Y26.014Z0F1200
G1 X80.548Y25.787Z0F1200
G1 X80.699Y25.57Z0F1200
G1 X80.771Y25.407Z0F1200
G1 X80.757Y25.249Z0F1200
G1 X80.702Y25.196Z0F1200
G1 X80.628Y25.188Z0F1200
G1 X80.54Y25.213Z0F1200
G1 X80.445Y25.26Z0F1200
G1 X80.258Y25.372Z0F1200
G1 X80.118Y25.431Z0F1200
G1 X79.947Y25.424Z0F1200
G1 X79.782Y25.421Z0F1200
G1 X79.625Y25.444Z0F1200
G1 X79.477Y25.517Z0F1200
G0 Z1.5F500
G0 X82.587Y28.5Z1.5F1200
G1 Z0F500
G1 X82.547Y28.42Z0F1200
G1 X82.491Y28.295Z0F1200
G1 X82.423Y28.132Z0F1200
G1 X82.345Y27.938Z0F1200
G1 X82.179Y27.486Z0F1200
G1 X82.025Y26.996Z0F1200
G1 X81.961Y26.754Z0F1200
G1 X81.911Y26.524Z0F1200
G1 X81.88Y26.313Z0F1200
G1 X81.87Y26.127Z0F1200
G1 X81.886Y25.974Z0F1200
G1 X81.932Y25.862Z0F1200
G1 X82.011Y25.796Z0F1200
G1 X82.127Y25.784Z0F1200
G1 X82.41Y25.868Z0F1200
G1 X82.735Y26.009Z0F1200
G1 X82.894Y26.081Z0F1200
G1 X83.04Y26.143Z0F1200
G1 X83.166Y26.186Z0F1200
G1 X83.264Y26.202Z0F1200
G0 Z1.5F500
G0 Z1.5F1200
G1 Z0F500
G1 X83.116Y25.832Z0F1200
G1 X83.006Y25.455Z0F1200
G1 X82.953Y25.063Z0F1200
G1 X82.974Y24.646Z0F1200
G1 X82.995Y24.637Z0F1200
G1 X83.027Y24.646Z0F1200
G1 Y24.548Z0F1200
G1 X83.024Y24.562Z0F1200
G1 X83.019Y24.675Z0F1200
G1 Y24.838Z0F1200
G1 X83.027Y24.974Z0F1200
G1 X83.139Y25.59Z0F1200
G1 X83.264Y26.202Z0F1200
G0 Z1.5F500
G0 X85.907Y29.417Z1.5F1200
G1 Z0F500
G1 X85.63Y28.85Z0F1200
G1 X85.37Y28.269Z0F1200
G1 X85.257Y27.954Z0F1200
G1 X85.149Y27.586Z0F1200
G1 X85.057Y27.183Z0F1200
G1 X84.992Y26.763Z0F1200
G1 X84.965Y26.343Z0F1200
G1 X84.986Y25.94Z0F1200
G1 X85.068Y25.573Z0F1200
G1 X85.221Y25.258Z0F1200
G1 X85.298Y25.171Z0F1200
G1 X85.388Y25.107Z0F1200
G1 X85.577Y24.999Z0F1200
G1 X85.714Y24.927Z0F1200
G1 X85.886Y24.854Z0F1200
G1 X86.055Y24.8Z0F1200
G1 X86.178Y24.786Z0F1200
G1 X86.269Y24.837Z0F1200
G1 X86.346Y24.95Z0F1200
G1 X86.408Y25.109Z0F1200
G1 X86.455Y25.294Z0F1200
G1 X86.485Y25.488Z0F1200
G1 X86.499Y25.673Z0F1200
G1 X86.495Y25.833Z0F1200
G1 X86.472Y25.948Z0F1200
G1 X86.421Y25.99Z0F1200
G1 X86.361Y26.024Z0F1200
G1 X86.336Y26.105Z0F1200
G1 X86.305Y26.176Z0F1200
G1 X85.833Y26.283Z0F1200
G1 X85.387Y26.327Z0F1200
G1 X85.275Y26.238Z0F1200
G1 X85.201Y26.169Z0F1200
G1 X85.124Y26.123Z0F1200
G1 X85.003Y26.107Z0F1200
G0 Z1.5F500
G0 X91.796Y31.203Z1.5F1200
G1 Z0F500
G1 X91.951Y30.399Z0F1200
G1 X92.027Y29.579Z0F1200
G1 X92.051Y28.752Z0F1200
G1 Y27.679Z0F1200
G1 X92.045Y26.956Z0F1200
G1 Y26.805Z0F1200
G1 X92.055Y26.665Z0F1200
G1 X92.073Y26.492Z0F1200
G1 X92.149Y25.871Z0F1200
G1 X92.191Y25.587Z0F1200
G1 X92.244Y25.37Z0F1200
G1 X92.311Y25.224Z0F1200
G1 X92.397Y25.155Z0F1200
G1 X92.506Y25.166Z0F1200
G1 X92.641Y25.264Z0F1200
G1 X92.721Y25.347Z0F1200
G1 X92.808Y25.452Z0F1200
G1 X92.904Y25.582Z0F1200
G1 X93.01Y25.737Z0F1200
G1 X93.299Y26.222Z0F1200
G1 X93.561Y26.729Z0F1200
G1 X93.733Y27.081Z0F1200
G1 X93.904Y27.472Z0F1200
G1 X94.049Y27.878Z0F1200
G1 X94.139Y28.275Z0F1200
G1 X94.134Y28.392Z0F1200
G1 X94.11Y28.514Z0F1200
G1 X94.101Y28.626Z0F1200
G1 X94.139Y28.714Z0F1200
G1 X94.204Y28.744Z0F1200
G1 X94.249Y28.698Z0F1200
G1 X94.278Y28.593Z0F1200
G1 X94.295Y28.447Z0F1200
G1 X94.31Y28.099Z0F1200
G1 X94.325Y27.797Z0F1200
G1 X94.455Y26.534Z0F1200
G1 X94.615Y25.277Z0F1200
G1 X94.646Y25.198Z0F1200
G1 X94.709Y25.097Z0F1200
G1 X94.788Y25.026Z0F1200
G1 X94.866Y25.037Z0F1200
G1 X95.073Y25.259Z0F1200
G1 X95.252Y25.489Z0F1200
G1 X95.404Y25.726Z0F1200
G1 X95.533Y25.969Z0F1200
G1 X95.729Y26.476Z0F1200
G1 X95.859Y27.006Z0F1200
G1 X95.993Y28.122Z0F1200
G1 X96.087Y29.293Z0F1200
G1 X96.184Y29.765Z0F1200
G1 X96.181Y30.102Z0F1200
G1 X96.184Y30.439Z0F1200
G1 X96.267Y30.826Z0F1200
G1 X96.322Y31.225Z0F1200
G0 Z1.5F500
G0 Z1.5F1200
G1 Z0F500
G1 X96.621Y30.883Z0F1200
G1 X96.941Y30.554Z0F1200
G1 X97.089Y30.382Z0F1200
G1 X97.219Y30.199Z0F1200
G1 X97.323Y30Z0F1200
G1 X97.393Y29.779Z0F1200
G1 X97.432Y29.495Z0F1200
G1 Y29.209Z0F1200
G1 X97.405Y28.92Z0F1200
G1 X97.356Y28.63Z0F1200
G1 X97.232Y28.048Z0F1200
G1 X97.131Y27.468Z0F1200
G1 X97.035Y26.679Z0F1200
G1 X96.982Y26.231Z0F1200
G1 X96.937Y25.786Z0F1200
G1 Y25.729Z0F1200
G1 Y25.709Z0F1200
G1 X96.948Y25.733Z0F1200
G1 X96.966Y25.807Z0F1200
G1 X96.992Y25.939Z0F1200
G1 X97.027Y26.136Z0F1200
G1 X97.131Y26.756Z0F1200
G1 X97.178Y27.124Z0F1200
G1 X97.249Y27.5Z0F1200
G1 X97.311Y27.662Z0F1200
G1 X97.4Y27.792Z0F1200
G1 X97.524Y27.878Z0F1200
G1 X97.689Y27.91Z0F1200
G1 X97.807Y27.925Z0F1200
G1 X97.919Y27.91Z0F1200
G1 X98.009Y27.837Z0F1200
G1 X98.086Y27.743Z0F1200
G1 X98.154Y27.635Z0F1200
G1 X98.216Y27.526Z0F1200
G1 X98.363Y27.211Z0F1200
G1 X98.433Y26.932Z0F1200
G1 X98.448Y26.68Z0F1200
G1 X98.427Y26.446Z0F1200
G1 X98.356Y26.001Z0F1200
G1 X98.381Y25.53Z0F1200
G1 X98.415Y25.654Z0F1200
G1 X98.446Y25.839Z0F1200
G0 Z1.5F500
G0 X100.038Y28.443Z1.5F1200
G1 Z0F500
G1 X99.901Y27.823Z0F1200
G1 X99.883Y27.727Z0F1200
G1 Y27.68Z0F1200
G1 X99.886Y27.608Z0F1200
G1 Y27.441Z0F1200
G1 X99.877Y27.299Z0F1200
G1 X99.864Y27.107Z0F1200
G1 X99.843Y26.855Z0F1200
G1 X99.813Y26.534Z0F1200
G1 X99.779Y26.231Z0F1200
G1 X99.792Y25.944Z0F1200
G1 X99.843Y25.824Z0F1200
G1 X99.938Y25.729Z0F1200
G1 X100.088Y25.666Z0F1200
G1 X100.303Y25.643Z0F1200
G1 X100.434Y25.679Z0F1200
G1 X100.552Y25.769Z0F1200
G1 X100.665Y25.879Z0F1200
G1 X100.78Y25.979Z0F1200
G0 Z1.5F500
G0 X100.746Y31.662Z1.5F1200
G1 Z0F500
G1 X100.662Y31.334Z0F1200
G0 Z1.5F500
G0 X102.883Y31.08Z1.5F1200
G1 Z0F500
G1 X102.8Y30.284Z0F1200
G1 X102.688Y29.495Z0F1200
G1 X102.554Y28.995Z0F1200
G1 X102.384Y28.498Z0F1200
G1 X102.228Y27.995Z0F1200
G1 X102.137Y27.476Z0F1200
G1 X102.12Y27.08Z0F1200
G1 X102.124Y26.6Z0F1200
G1 X102.136Y26.358Z0F1200
G1 X102.158Y26.129Z0F1200
G1 X102.19Y25.925Z0F1200
G1 X102.233Y25.758Z0F1200
G1 X102.288Y25.602Z0F1200
G1 X102.333Y25.486Z0F1200
G1 X102.371Y25.404Z0F1200
G1 X102.401Y25.352Z0F1200
G1 X102.445Y25.321Z0F1200
G1 X102.475Y25.357Z0F1200
G1 X102.499Y25.426Z0F1200
G1 X102.527Y25.493Z0F1200
G1 X102.568Y25.523Z0F1200
G1 X102.63Y25.481Z0F1200
G1 X102.653Y25.425Z0F1200
G1 X102.629Y25.403Z0F1200
G1 X102.623Z0F1200
G1 X102.699Z0F1200
G0 Z1.5F500
G0 X100.038Y28.443Z1.5F1200
G1 Z0F500
G1 X101.089Y28.633Z0F1200
G1 X102.138Y28.833Z0F1200
G1 X102.372Y28.885Z0F1200
G1 X102.517Y28.92Z0F1200
G1 X102.598Y28.935Z0F1200
G1 X102.637Y28.925Z0F1200
G1 X102.66Y28.887Z0F1200
G1 X102.69Y28.816Z0F1200
G1 X102.752Y28.708Z0F1200
G1 X102.869Y28.559Z0F1200
G1 X103.006Y28.454Z0F1200
G1 X103.153Y28.367Z0F1200
G1 X103.384Y28.065Z0F1200
G0 Z1.5F500
G0 X104.612Y26.685Z1.5F1200
G1 Z0F500
G1 X105.106Y26.708Z0F1200
G1 X105.589Y26.743Z0F1200
G1 X105.822Y26.792Z0F1200
G1 X106.046Y26.875Z0F1200
G1 X106.261Y27.004Z0F1200
G1 X106.465Y27.189Z0F1200
G1 X106.527Y27.294Z0F1200
G1 X106.531Y27.397Z0F1200
G1 X106.492Y27.495Z0F1200
G1 X106.421Y27.585Z0F1200
G1 X106.241Y27.723Z0F1200
G1 X106.097Y27.782Z0F1200
G1 X105.74Y27.809Z0F1200
G1 X105.392Y27.804Z0F1200
G1 X105.064Y27.756Z0F1200
G1 X104.768Y27.652Z0F1200
G1 X104.518Y27.479Z0F1200
G1 X104.323Y27.224Z0F1200
G1 X104.251Y27.062Z0F1200
G1 X104.198Y26.875Z0F1200
G1 X104.165Y26.661Z0F1200
G1 X104.154Y26.419Z0F1200
G1 X104.165Y26.283Z0F1200
G1 X104.199Y26.117Z0F1200
G1 X104.251Y25.934Z0F1200
G1 X104.319Y25.746Z0F1200
G1 X104.4Y25.566Z0F1200
G1 X104.492Y25.405Z0F1200
G1 X104.592Y25.278Z0F1200
G1 X104.697Y25.195Z0F1200
G1 X104.873Y25.15Z0F1200
G1 X105.053Y25.114Z0F1200
G1 X105.169Y25.029Z0F1200
G1 X105.287Y24.951Z0F1200
G1 X105.642Y24.887Z0F1200
G1 X106Y24.837Z0F1200
G1 X106.314Y24.783Z0F1200
G1 X106.586Z0F1200
G1 X106.713Y24.819Z0F1200
G1 X106.837Y24.881Z0F1200
G1 X106.961Y24.975Z0F1200
G1 X107.087Y25.106Z0F1200
G0 Z1.5F500
G0 X108.21Y30.553Z1.5F1200
G1 Z0F500
G1 X108.354Y29.979Z0F1200
G1 X108.465Y29.398Z0F1200
G1 X108.511Y28.464Z0F1200
G1 X108.534Y27.527Z0F1200
G1 X108.583Y27.034Z0F1200
G1 X108.631Y26.542Z0F1200
G1 X108.636Y26.056Z0F1200
G1 X108.631Y25.569Z0F1200
G1 Y25.382Z0F1200
G1 X108.624Y25.621Z0F1200
G1 X108.594Y26.23Z0F1200
G1 X108.583Y26.565Z0F1200
G1 Y26.899Z0F1200
G1 X108.604Y27.213Z0F1200
G1 X108.65Y27.49Z0F1200
G1 X108.727Y27.713Z0F1200
G1 X108.858Y27.822Z0F1200
G1 X109.075Y27.895Z0F1200
G1 X109.296Y27.924Z0F1200
G1 X109.441Y27.9Z0F1200
G1 X109.724Y27.664Z0F1200
G1 X109.925Y27.389Z0F1200
G1 X110.056Y27.083Z0F1200
G1 X110.133Y26.751Z0F1200
G1 X110.177Y26.033Z0F1200
G1 X110.167Y25.286Z0F1200
G0 Z1.5F500
G0 X113.209Y27.186Z1.5F1200
G1 Z0F500
G1 X112.964Y27.264Z0F1200
G1 X112.719Y27.356Z0F1200
G1 X112.475Y27.42Z0F1200
G1 X112.23Y27.411Z0F1200
G1 X112.06Y27.346Z0F1200
G1 X111.927Y27.245Z0F1200
G1 X111.826Y27.113Z0F1200
G1 X111.757Y26.955Z0F1200
G1 X111.715Y26.775Z0F1200
G1 X111.698Y26.577Z0F1200
G1 X111.703Y26.367Z0F1200
G1 X111.727Y26.15Z0F1200
G1 X111.822Y25.711Z0F1200
G1 X111.959Y25.298Z0F1200
G1 X112.036Y25.113Z0F1200
G1 X112.116Y24.948Z0F1200
G1 X112.194Y24.809Z0F1200
G1 X112.269Y24.7Z0F1200
G1 X112.53Y24.461Z0F1200
G1 X112.847Y24.3Z0F1200
G1 X113.183Y24.214Z0F1200
G1 X113.499Y24.197Z0F1200
G1 X113.752Y24.254Z0F1200
G1 X113.933Y24.382Z0F1200
G1 X114.056Y24.565Z0F1200
G1 X114.13Y24.79Z0F1200
G1 X114.18Y25.308Z0F1200
G1 X114.177Y25.821Z0F1200
G1 X114.19Y25.975Z0F1200
G1 X114.177Y26.121Z0F1200
G1 X114.043Y26.336Z0F1200
G1 X113.892Y26.539Z0F1200
G1 X113.792Y26.701Z0F1200
G1 X113.713Y26.815Z0F1200
G1 X113.646Y26.895Z0F1200
G1 X113.584Y26.951Z0F1200
G1 X113.209Y27.186Z0F1200
G0 Z1.5F500
G0 X115.863Y26.708Z1.5F1200
G1 Z0F500
G1 X115.856Y26.408Z0F1200
G1 X115.843Y26.107Z0F1200
G1 Y25.807Z0F1200
G1 X115.863Y25.51Z0F1200
G1 X115.902Y25.363Z0F1200
G1 X115.973Y25.227Z0F1200
G1 X116.069Y25.113Z0F1200
G1 X116.183Y25.033Z0F1200
G1 X116.305Y24.996Z0F1200
G1 X116.429Y25.016Z0F1200
G1 X116.547Y25.102Z0F1200
G1 X116.65Y25.267Z0F1200
G1 X116.735Y25.629Z0F1200
G1 X116.815Y25.993Z0F1200
G1 X116.855Y26.084Z0F1200
G1 X116.883Y26.136Z0F1200
G1 X116.901Y26.156Z0F1200
G1 X116.909Y26.152Z0F1200
G1 Y26.09Z0F1200
G1 X116.889Y25.932Z0F1200
G1 X116.901Z0F1200
G1 X116.92Y25.977Z0F1200
G1 X116.949Y26.057Z0F1200
G1 X117.047Y26.348Z0F1200
G1 X117.097Y26.582Z0F1200
G1 X117.144Y26.817Z0F1200
G1 X117.168Y26.88Z0F1200
G1 X117.204Y26.942Z0F1200
G1 X117.246Y26.983Z0F1200
G1 X117.289Y26.979Z0F1200
G1 X117.39Y26.828Z0F1200
G1 X117.426Y26.622Z0F1200
G1 X117.43Y26.394Z0F1200
G1 X117.437Y26.175Z0F1200
G1 X117.486Y25.563Z0F1200
G1 X117.57Y24.4Z0F1200
G1 X117.627Y23.853Z0F1200
G1 X117.646Y23.731Z0F1200
G1 X117.663Y23.643Z0F1200
G1 X117.677Y23.585Z0F1200
G1 X117.689Y23.552Z0F1200
G1 X117.706Y23.544Z0F1200
G1 X117.717Y23.585Z0F1200
G1 X117.722Y23.642Z0F1200
G1 Y23.678Z0F1200
G1 Y23.552Z0F1200
G0 Z1.5F500
G0 X120.883Y26.814Z1.5F1200
G1 Z0F500
G1 X120.737Y26.915Z0F1200
G1 X120.593Y27.028Z0F1200
G1 X120.445Y27.118Z0F1200
G1 X120.287Y27.154Z0F1200
G1 X120.183Y27.139Z0F1200
G1 X120.097Y27.101Z0F1200
G1 X120.028Y27.041Z0F1200
G1 X119.973Y26.964Z0F1200
G1 X119.904Y26.769Z0F1200
G1 X119.88Y26.538Z0F1200
G1 X119.891Y26.295Z0F1200
G1 X119.927Y26.065Z0F1200
G1 X119.979Y25.871Z0F1200
G1 X120.036Y25.737Z0F1200
G1 X120.23Y25.445Z0F1200
G1 X120.443Y25.172Z0F1200
G1 X120.663Y24.904Z0F1200
G1 X120.877Y24.63Z0F1200
G1 X121.169Y24.204Z0F1200
G1 X121.469Y23.785Z0F1200
G1 X121.564Z0F1200
G1 X121.598Y23.759Z0F1200
G1 X121.556Y23.682Z0F1200
G1 X121.504Y23.655Z0F1200
G1 X121.44Y23.662Z0F1200
G1 X121.372Y23.679Z0F1200
G1 X121.307Y23.682Z0F1200
G1 X120.849Y23.562Z0F1200
G1 X120.467Y23.472Z0F1200
G1 X120.282Y23.461Z0F1200
G1 X120.088Y23.486Z0F1200
G1 X119.876Y23.557Z0F1200
G1 X119.637Y23.683Z0F1200
G1 X119.558Y23.72Z0F1200
G1 X119.473Y23.755Z0F1200
G1 X119.406Y23.799Z0F1200
G1 X119.379Y23.865Z0F1200
G0 Z1.5F500
G0 X124.08Y25.161Z1.5F1200
G1 Z0F500
G1 X124.318Y25.246Z0F1200
G1 X124.513Y25.312Z0F1200
G1 X124.674Y25.374Z0F1200
G1 X124.809Y25.448Z0F1200
G1 X124.929Y25.551Z0F1200
G1 X125.041Y25.7Z0F1200
G1 X125.154Y25.909Z0F1200
G1 X125.278Y26.197Z0F1200
G1 X125.335Y26.433Z0F1200
G1 X125.308Y26.624Z0F1200
G1 X125.216Y26.774Z0F1200
G1 X125.078Y26.888Z0F1200
G1 X124.732Y27.026Z0F1200
G1 X124.416Y27.075Z0F1200
G1 X124.225Y27.09Z0F1200
G1 X124.034Y27.102Z0F1200
G1 X123.844Z0F1200
G1 X123.655Y27.075Z0F1200
G1 X123.507Y27.007Z0F1200
G1 X123.38Y26.884Z0F1200
G1 X123.273Y26.718Z0F1200
G1 X123.187Y26.525Z0F1200
G1 X123.073Y26.109Z0F1200
G1 X123.035Y25.75Z0F1200
G1 X123.038Y25.571Z0F1200
G1 X123.05Y25.392Z0F1200
G1 X123.079Y25.217Z0F1200
G1 X123.132Y25.053Z0F1200
G1 X123.187Y24.949Z0F1200
G1 X123.284Y24.795Z0F1200
G1 X123.413Y24.608Z0F1200
G1 X123.561Y24.408Z0F1200
G1 X123.718Y24.213Z0F1200
G1 X123.873Y24.04Z0F1200
G1 X124.016Y23.908Z0F1200
G1 X124.134Y23.836Z0F1200
G1 X124.301Y23.799Z0F1200
G1 X124.526Y23.783Z0F1200
G1 X124.784Y23.795Z0F1200
G1 X125.051Y23.84Z0F1200
G1 X125.302Y23.923Z0F1200
G1 X125.511Y24.051Z0F1200
G1 X125.593Y24.133Z0F1200
G1 X125.655Y24.229Z0F1200
G1 X125.694Y24.338Z0F1200
G1 X125.708Y24.463Z0F1200
G0 Z1.5F500
G0 X130.623Y28.192Z1.5F1200
G1 Z0F500
G1 X131.192Y28.456Z0F1200
G1 X131.766Y28.711Z0F1200
G1 X132.332Y28.984Z0F1200
G1 X132.881Y29.298Z0F1200
G1 X133.41Y29.67Z0F1200
G1 X133.92Y30.081Z0F1200
G1 X134.918Y30.941Z0F1200
G1 X134.925Y30.997Z0F1200
G1 X134.918Y31.021Z0F1200
G1 Y28.17Z0F1200
G1 X134.927Y27.592Z0F1200
G1 X134.918Y27.015Z0F1200
G1 X134.882Y26.652Z0F1200
G1 X134.835Y26.287Z0F1200
G1 X134.805Y25.905Z0F1200
G1 X134.822Y25.494Z0F1200
G1 X134.838Y25.304Z0F1200
G1 X134.844Y25.163Z0F1200
G1 Y25.065Z0F1200
G1 Y25.002Z0F1200
G1 X134.882Y24.95Z0F1200
G1 X135.002Y24.947Z0F1200
G0 Z1.5F500
G0 X142.564Y23.855Z1.5F1200
G1 Z0F500
G1 X143.038Y24.572Z0F1200
G1 X143.49Y25.267Z0F1200
G1 X143.68Y25.623Z0F1200
G1 X143.834Y25.992Z0F1200
G1 X143.938Y26.381Z0F1200
G1 X143.984Y26.797Z0F1200
G1 X144.255Y27.909Z0F1200
G1 X144.498Y28.965Z0F1200
G1 X144.724Y29.99Z0F1200
G1 X144.946Y31.008Z0F1200
G1 X144.932Y31.264Z0F1200
G1 X144.943Y31.579Z0F1200
G1 X144.965Y31.92Z0F1200
G1 X144.984Y32.261Z0F1200
G1 Y32.569Z0F1200
G1 X144.948Y32.817Z0F1200
G1 X144.913Y32.908Z0F1200
G1 X144.863Y32.973Z0F1200
G1 X144.798Y33.008Z0F1200
G1 X144.715Z0F1200
G1 X144.667Y31.822Z0F1200
G1 X144.703Y30.637Z0F1200
G1 X144.759Y30.047Z0F1200
G1 X144.844Y29.459Z0F1200
G1 X144.96Y28.873Z0F1200
G1 X145.111Y28.291Z0F1200
G1 X145.399Y27.446Z0F1200
G1 X145.688Y26.59Z0F1200
G1 X145.796Y26.158Z0F1200
G1 X145.859Y25.724Z0F1200
G1 X145.864Y25.288Z0F1200
G1 X145.796Y24.849Z0F1200
G1 X145.697Y24.618Z0F1200
G1 X145.558Y24.438Z0F1200
G1 X145.388Y24.306Z0F1200
G1 X145.192Y24.218Z0F1200
G1 X144.978Y24.173Z0F1200
G1 X144.752Y24.165Z0F1200
G1 X144.521Y24.193Z0F1200
G1 X144.292Y24.253Z0F1200
G1 X144.071Y24.342Z0F1200
G1 X143.866Y24.457Z0F1200
G1 X143.684Y24.594Z0F1200
G1 X143.531Y24.751Z0F1200
G1 X143.414Y24.925Z0F1200
G1 X143.339Y25.111Z0F1200
G1 X143.314Y25.308Z0F1200
G1 X143.346Y25.511Z0F1200
G1 X143.318Y25.717Z0F1200
G1 X143.312Y25.981Z0F1200
G1 X143.32Y26.275Z0F1200
G1 X143.337Y26.572Z0F1200
G1 X143.388Y27.204Z0F1200
G1 Y27.236Z0F1200
G1 X143.385Z0F1200
G1 X143.381Y26.872Z0F1200
G1 X143.396Y26.492Z0F1200
G1 X143.436Y26.106Z0F1200
G1 X143.511Y25.721Z0F1200
G1 X143.629Y25.343Z0F1200
G1 X143.799Y24.98Z0F1200
G1 X144.029Y24.638Z0F1200
G1 X144.328Y24.326Z0F1200
G1 X144.625Y24.163Z0F1200
G1 X144.915Y24.068Z0F1200
G1 X145.198Y24.036Z0F1200
G1 X145.471Y24.061Z0F1200
G1 X145.732Y24.135Z0F1200
G1 X145.979Y24.254Z0F1200
G1 X146.211Y24.41Z0F1200
G1 X146.425Y24.598Z0F1200
G1 X146.62Y24.811Z0F1200
G1 X146.793Y25.043Z0F1200
G1 X146.943Y25.288Z0F1200
G1 X147.068Y25.54Z0F1200
G1 X147.165Y25.792Z0F1200
G1 X147.233Y26.038Z0F1200
G1 X147.27Y26.272Z0F1200
G1 X147.274Y26.488Z0F1200
G1 X147.264Y26.715Z0F1200
G1 X147.231Y27.009Z0F1200
G1 X147.176Y27.32Z0F1200
G1 X147.097Y27.597Z0F1200
G1 X147.048Y27.708Z0F1200
G1 X146.994Y27.791Z0F1200
G1 X146.934Y27.842Z0F1200
G1 X146.868Y27.853Z0F1200
G1 X146.796Y27.818Z0F1200
G1 X146.717Y27.731Z0F1200
G1 X146.633Y27.586Z0F1200
G1 X146.543Y27.376Z0F1200
G1 X146.414Y26.653Z0F1200
G1 X146.36Y26.241Z0F1200
G1 X146.347Y25.831Z0F1200
G1 X146.364Y25.634Z0F1200
G1 X146.402Y25.448Z0F1200
G1 X146.463Y25.274Z0F1200
G1 X146.55Y25.117Z0F1200
G1 X146.668Y24.98Z0F1200
G1 X146.818Y24.865Z0F1200
G1 X147.005Y24.777Z0F1200
G1 X147.232Y24.718Z0F1200
G1 X147.671Y25.366Z0F1200
G1 X148.09Y26.051Z0F1200
G1 X148.28Y26.394Z0F1200
G1 X148.451Y26.73Z0F1200
G1 X148.597Y27.054Z0F1200
G1 X148.715Y27.362Z0F1200
G1 X148.558Y27.145Z0F1200
G1 X148.448Y26.871Z0F1200
G1 X148.384Y26.553Z0F1200
G1 X148.363Y26.208Z0F1200
G1 X148.384Y25.852Z0F1200
G1 X148.446Y25.5Z0F1200
G1 X148.546Y25.168Z0F1200
G1 X148.683Y24.873Z0F1200
G1 X148.885Y24.821Z0F1200
G1 X149.059Y24.829Z0F1200
G1 X149.206Y24.89Z0F1200
G1 X149.331Y24.994Z0F1200
G1 X149.435Y25.136Z0F1200
G1 X149.521Y25.306Z0F1200
G1 X149.593Y25.497Z0F1200
G1 X149.652Y25.702Z0F1200
G1 X149.746Y26.118Z0F1200
G1 X149.823Y26.494Z0F1200
G1 X149.862Y26.646Z0F1200
G1 X149.906Y26.765Z0F1200
G1 X149.956Y26.842Z0F1200
G1 X150.016Y26.87Z0F1200
G1 X150.031Y26.573Z0F1200
G1 X149.982Y26.206Z0F1200
G1 X149.91Y25.807Z0F1200
G1 X149.857Y25.411Z0F1200
G1 X149.85Y25.225Z0F1200
G1 X149.863Y25.054Z0F1200
G1 X149.902Y24.901Z0F1200
G1 X149.972Y24.772Z0F1200
G1 X150.077Y24.671Z0F1200
G1 X150.223Y24.602Z0F1200
G1 X150.415Y24.57Z0F1200
G1 X150.659Y24.579Z0F1200
G1 X150.786Y24.708Z0F1200
G1 X150.899Y24.871Z0F1200
G1 X151.001Y25.06Z0F1200
G1 X151.091Y25.271Z0F1200
G1 X151.241Y25.734Z0F1200
G1 X151.355Y26.213Z0F1200
G1 X151.441Y26.66Z0F1200
G1 X151.528Y27.17Z0F1200
G1 X151.55Y27.274Z0F1200
G1 X151.57Y27.335Z0F1200
G1 X151.588Y27.347Z0F1200
G1 X151.537Y26.541Z0F1200
G1 X151.433Y25.706Z0F1200
G1 X151.429Y25.297Z0F1200
G1 X151.493Y24.906Z0F1200
G1 X151.558Y24.719Z0F1200
G1 X151.651Y24.54Z0F1200
G1 X151.774Y24.37Z0F1200
G1 X151.931Y24.209Z0F1200
G1 X152.153Y24.131Z0F1200
G1 X152.337Y24.111Z0F1200
G1 X152.487Y24.141Z0F1200
G1 X152.605Y24.215Z0F1200
G1 X152.693Y24.328Z0F1200
G1 X152.756Y24.473Z0F1200
G1 X152.796Y24.644Z0F1200
G1 X152.816Y24.834Z0F1200
G1 X152.807Y25.25Z0F1200
G1 X152.754Y25.671Z0F1200
G1 X152.681Y26.049Z0F1200
G1 X152.611Y26.332Z0F1200
G1 X152.516Y26.587Z0F1200
G1 X152.413Y26.762Z0F1200
G1 X152.302Y26.866Z0F1200
G1 X152.189Y26.906Z0F1200
G1 X152.074Y26.889Z0F1200
G1 X151.963Y26.823Z0F1200
G1 X151.856Y26.715Z0F1200
G1 X151.758Y26.573Z0F1200
G1 X151.597Y26.215Z0F1200
G1 X151.505Y25.81Z0F1200
G1 X151.492Y25.607Z0F1200
G1 X151.504Y25.416Z0F1200
G1 X151.545Y25.242Z0F1200
G1 X151.618Y25.093Z0F1200
G1 X151.648Y24.839Z0F1200
G1 X151.717Y24.642Z0F1200
G1 X151.82Y24.497Z0F1200
G1 X151.95Y24.401Z0F1200
G1 X152.102Y24.351Z0F1200
G1 X152.272Y24.342Z0F1200
G1 X152.453Y24.372Z0F1200
G1 X152.64Y24.436Z0F1200
G1 X152.828Y24.531Z0F1200
G1 X153.012Y24.654Z0F1200
G1 X153.186Y24.801Z0F1200
G1 X153.344Y24.968Z0F1200
G1 X153.482Y25.152Z0F1200
G1 X153.594Y25.35Z0F1200
G1 X153.674Y25.557Z0F1200
G1 X153.717Y25.77Z0F1200
G1 X153.898Y26.438Z0F1200
G1 X153.956Y26.745Z0F1200
G1 X153.969Y27.065Z0F1200
G1 X154.111Y27.473Z0F1200
G1 X154.225Y27.899Z0F1200
G1 X154.317Y28.338Z0F1200
G1 X154.395Y28.786Z0F1200
G1 X154.535Y29.684Z0F1200
G1 X154.696Y30.549Z0F1200
G1 X154.796Y30.862Z0F1200
G1 X154.829Y31.135Z0F1200
G1 X154.808Y31.346Z0F1200
G1 X154.746Y31.475Z0F1200
G1 X154.704Y31.502Z0F1200
G1 X154.657Z0F1200
G1 X154.606Y31.468Z0F1200
G1 X154.552Y31.402Z0F1200
G1 X154.499Y31.3Z0F1200
G1 X154.446Y31.159Z0F1200
G1 X154.396Y30.976Z0F1200
G1 X154.35Y30.75Z0F1200
G1 X154.249Y30.46Z0F1200
G1 X154.178Y30.169Z0F1200
G1 X154.133Y29.876Z0F1200
G1 X154.111Y29.582Z0F1200
G1 X154.117Y28.99Z0F1200
G1 X154.163Y28.396Z0F1200
G1 X154.218Y27.801Z0F1200
G1 X154.249Y27.207Z0F1200
G1 X154.223Y26.615Z0F1200
G1 X154.107Y26.027Z0F1200
G1 X154.011Y25.836Z0F1200
G1 X153.96Y25.644Z0F1200
G1 X153.951Y25.455Z0F1200
G1 X153.978Y25.275Z0F1200
G1 X154.036Y25.106Z0F1200
G1 X154.122Y24.954Z0F1200
G1 X154.229Y24.823Z0F1200
G1 X154.354Y24.717Z0F1200
G1 X154.491Y24.64Z0F1200
G1 X154.636Y24.596Z0F1200
G1 X154.784Y24.591Z0F1200
G1 X154.93Y24.627Z0F1200
G1 X155.069Y24.71Z0F1200
G1 X155.196Y24.844Z0F1200
G1 X155.308Y25.033Z0F1200
G1 X155.398Y25.281Z0F1200
G1 X155.557Y25.789Z0F1200
G1 X155.763Y26.373Z0F1200
G1 X155.821Y26.651Z0F1200
G1 X155.818Y26.898Z0F1200
G1 X155.785Y27.004Z0F1200
G1 X155.728Y27.096Z0F1200
G1 X155.642Y27.172Z0F1200
G1 X155.526Y27.23Z0F1200
G1 X155.378Y26.888Z0F1200
G1 X155.266Y26.523Z0F1200
G1 X155.192Y26.143Z0F1200
G1 X155.16Y25.754Z0F1200
G1 X155.171Y25.365Z0F1200
G1 X155.228Y24.982Z0F1200
G1 X155.334Y24.613Z0F1200
G1 X155.491Y24.265Z0F1200
G1 X155.697Y24.363Z0F1200
G1 X155.879Y24.485Z0F1200
G1 X156.041Y24.629Z0F1200
G1 X156.182Y24.793Z0F1200
G1 X156.412Y25.169Z0F1200
G1 X156.58Y25.592Z0F1200
G1 X156.699Y26.043Z0F1200
G1 X156.78Y26.501Z0F1200
G1 X156.837Y26.946Z0F1200
G1 X156.88Y27.357Z0F1200
G1 X156.883Y27.459Z0F1200
G1 X156.893Y28.568Z0F1200
G1 X156.908Y29.137Z0F1200
G1 X156.939Y29.679Z0F1200
G1 X156.989Y30.128Z0F1200
G1 X157.023Y30.296Z0F1200
G1 X157.065Y30.417Z0F1200
G1 X157.114Y30.481Z0F1200
G1 X157.172Z0F1200
G1 X157.182Y30.227Z0F1200
G1 X157.211Y29.945Z0F1200
G1 X157.256Y29.638Z0F1200
G1 X157.318Y29.313Z0F1200
G1 X157.483Y28.621Z0F1200
G1 X157.698Y27.904Z0F1200
G1 X157.953Y27.2Z0F1200
G1 X158.237Y26.543Z0F1200
G1 X158.388Y26.244Z0F1200
G1 X158.542Y25.97Z0F1200
G1 X158.699Y25.725Z0F1200
G1 X158.858Y25.515Z0F1200
G1 X159.021Y25.371Z0F1200
G1 X159.141Y25.237Z0F1200
G1 X159.221Y25.112Z0F1200
G1 X159.263Y24.999Z0F1200
G1 X159.27Y24.898Z0F1200
G1 X159.246Y24.809Z0F1200
G1 X159.193Y24.733Z0F1200
G1 X159.114Y24.673Z0F1200
G1 X158.89Y24.597Z0F1200
G1 X158.597Y24.589Z0F1200
G1 X158.258Y24.655Z0F1200
G1 X157.897Y24.802Z0F1200
G1 X157.607Y24.813Z0F1200
G1 X157.33Y24.852Z0F1200
G1 X157.073Y24.914Z0F1200
G1 X156.838Y24.995Z0F1200
G1 X156.631Y25.089Z0F1200
G1 X156.456Y25.192Z0F1200
G1 X156.317Y25.3Z0F1200
G1 X156.219Y25.407Z0F1200
G1 X156.166Y25.509Z0F1200
G1 X156.163Y25.601Z0F1200
G1 X156.214Y25.679Z0F1200
G1 X156.324Y25.738Z0F1200
G1 X156.497Y25.772Z0F1200
G1 X156.738Y25.779Z0F1200
G1 X157.051Y25.752Z0F1200
G1 X157.441Y25.687Z0F1200
G1 X157.73Y25.769Z0F1200
G1 X157.987Y25.886Z0F1200
G1 X158.216Y26.034Z0F1200
G1 X158.417Y26.209Z0F1200
G1 X158.593Y26.407Z0F1200
G1 X158.747Y26.626Z0F1200
G1 X158.881Y26.862Z0F1200
G1 X158.997Y27.11Z0F1200
G1 X159.184Y27.632Z0F1200
G1 X159.327Y28.162Z0F1200
G1 X159.445Y28.674Z0F1200
G1 X159.556Y29.137Z0F1200
G1 X159.739Y29.535Z0F1200
G1 X159.883Y29.927Z0F1200
G1 X159.996Y30.316Z0F1200
G1 X160.087Y30.706Z0F1200
G1 X160.239Y31.504Z0F1200
G1 X160.41Y32.347Z0F1200
G1 X160.68Y32.825Z0F1200
G1 X160.745Y32.948Z0F1200
G1 X160.782Y33.04Z0F1200
G1 X160.803Y33.135Z0F1200
G1 X160.836Y33.358Z0F1200
G1 X160.877Y33.611Z0F1200
G1 X160.908Y33.782Z0F1200
G1 X160.905Y33.545Z0F1200
G1 Y33.341Z0F1200
G1 X160.908Y33.167Z0F1200
G1 X160.912Y33.017Z0F1200
G1 X160.929Y32.544Z0F1200
G1 Y32.312Z0F1200
G1 X160.912Y32.025Z0F1200
G1 X160.897Y31.847Z0F1200
G1 X160.876Y31.641Z0F1200
G1 X160.848Y31.399Z0F1200
G1 X160.813Y31.117Z0F1200
G1 X160.702Y30.653Z0F1200
G1 X160.667Y30.175Z0F1200
G1 X160.68Y29.686Z0F1200
G1 X160.755Y28.7Z0F1200
G1 X160.766Y28.212Z0F1200
G1 X160.725Y27.734Z0F1200
G1 X160.608Y27.272Z0F1200
G1 X160.484Y26.552Z0F1200
G1 X160.334Y25.824Z0F1200
G1 X160.294Y25.462Z0F1200
G1 X160.301Y25.102Z0F1200
G1 X160.373Y24.746Z0F1200
G1 X160.527Y24.395Z0F1200
G1 X160.858Y25.918Z0F1200
G1 X160.961Y26.293Z0F1200
G1 X161.091Y26.663Z0F1200
G1 X161.256Y27.025Z0F1200
G1 X161.465Y27.378Z0F1200
G1 X161.557Y27.605Z0F1200
G1 X161.625Y27.761Z0F1200
G1 X161.669Y27.851Z0F1200
G1 X161.693Y27.884Z0F1200
G1 X161.698Y27.866Z0F1200
G1 X161.687Y27.805Z0F1200
G1 X161.662Y27.707Z0F1200
G1 X161.625Y27.581Z0F1200
G1 X161.523Y27.268Z0F1200
G1 X161.4Y26.925Z0F1200
G1 X161.274Y26.607Z0F1200
G1 X161.161Y26.373Z0F1200
G1 X161.04Y26.194Z0F1200
G1 X160.951Y26.012Z0F1200
G1 X160.893Y25.832Z0F1200
G1 X160.864Y25.656Z0F1200
G1 Y25.491Z0F1200
G1 X160.886Y25.339Z0F1200
G1 X160.935Y25.205Z0F1200
G1 X161.005Y25.092Z0F1200
G1 X161.096Y25.005Z0F1200
G1 X161.206Y24.949Z0F1200
G1 X161.333Y24.926Z0F1200
G1 X161.475Y24.941Z0F1200
G1 X161.631Y24.998Z0F1200
G1 X161.8Y25.102Z0F1200
G1 X161.978Y25.255Z0F1200
G1 X162.165Y25.463Z0F1200
G1 X162.402Y25.656Z0F1200
G1 X162.637Y25.929Z0F1200
G1 X162.858Y26.248Z0F1200
G1 X163.051Y26.581Z0F1200
G1 X163.202Y26.896Z0F1200
G1 X163.298Y27.159Z0F1200
G1 X163.32Y27.261Z0F1200
G1 X163.323Y27.338Z0F1200
G1 X163.306Y27.385Z0F1200
G1 X163.266Y27.399Z0F1200
G1 X163.079Y27.019Z0F1200
G1 X162.828Y26.64Z0F1200
G1 X162.551Y26.259Z0F1200
G1 X162.286Y25.875Z0F1200
G1 X162.07Y25.487Z0F1200
G1 X161.941Y25.093Z0F1200
G1 X161.922Y24.894Z0F1200
G1 X161.938Y24.692Z0F1200
G1 X161.995Y24.488Z0F1200
G1 X162.098Y24.281Z0F1200
G1 X162.333Y24.355Z0F1200
G1 X162.549Y24.45Z0F1200
G1 X162.746Y24.564Z0F1200
G1 X162.925Y24.695Z0F1200
G1 X163.233Y25.001Z0F1200
G1 X163.48Y25.354Z0F1200
G1 X163.673Y25.738Z0F1200
G1 X163.821Y26.139Z0F1200
G1 X163.931Y26.542Z0F1200
G1 X164.009Y26.931Z0F1200
G1 X164.07Y27.128Z0F1200
G1 X164.145Y27.32Z0F1200
G1 X164.224Y27.488Z0F1200
G1 X164.293Y27.608Z0F1200
G1 X164.339Y27.661Z0F1200
G1 X164.351Y27.624Z0F1200
G1 X164.341Y27.565Z0F1200
G1 X164.316Y27.476Z0F1200
G1 X164.277Y27.354Z0F1200
G1 X164.222Y27.196Z0F1200
G1 X164.137Y26.86Z0F1200
G1 X163.989Y26.489Z0F1200
G1 X163.817Y26.098Z0F1200
G1 X163.658Y25.706Z0F1200
G1 X163.547Y25.33Z0F1200
G1 X163.524Y24.988Z0F1200
G1 X163.557Y24.835Z0F1200
G1 X163.625Y24.697Z0F1200
G1 X163.734Y24.576Z0F1200
G1 X163.888Y24.475Z0F1200
G1 X164.15Y24.564Z0F1200
G1 X164.371Y24.678Z0F1200
G1 X164.557Y24.813Z0F1200
G1 X164.71Y24.967Z0F1200
G1 X164.94Y25.322Z0F1200
G1 X165.092Y25.72Z0F1200
G1 X165.201Y26.141Z0F1200
G1 X165.3Y26.563Z0F1200
G1 X165.421Y26.965Z0F1200
G1 X165.598Y27.327Z0F1200
G1 X165.725Y27.49Z0F1200
G1 X165.849Y27.645Z0F1200
G1 X165.96Y27.774Z0F1200
G1 X166.049Y27.86Z0F1200
G1 X166.105Y27.888Z0F1200
G1 X166.119Y27.84Z0F1200
G1 X166.107Y27.782Z0F1200
G1 X166.081Y27.699Z0F1200
G1 X166.04Y27.589Z0F1200
G1 X165.982Y27.45Z0F1200
G1 X165.909Y27.122Z0F1200
G1 X165.774Y26.747Z0F1200
G1 X165.614Y26.346Z0F1200
G1 X165.465Y25.94Z0F1200
G1 X165.363Y25.552Z0F1200
G1 X165.344Y25.203Z0F1200
G1 X165.378Y25.051Z0F1200
G1 X165.446Y24.916Z0F1200
G1 X165.553Y24.801Z0F1200
G1 X165.703Y24.711Z0F1200
G1 X166.097Y24.903Z0F1200
G1 X166.444Y25.131Z0F1200
G1 X166.751Y25.389Z0F1200
G1 X167.021Y25.673Z0F1200
G1 X167.473Y26.299Z0F1200
G1 X167.838Y26.971Z0F1200
G1 X167.915Y27.158Z0F1200
G1 X167.955Y27.333Z0F1200
G1 X167.963Y27.481Z0F1200
G1 X167.946Y27.583Z0F1200
G1 X167.91Y27.621Z0F1200
G1 X167.86Y27.58Z0F1200
G1 X167.832Y27.523Z0F1200
G1 X167.803Y27.44Z0F1200
G1 X167.774Y27.328Z0F1200
G1 X167.745Y27.184Z0F1200
G1 X167.641Y26.902Z0F1200
G1 X167.517Y26.57Z0F1200
G1 X167.392Y26.21Z0F1200
G1 X167.288Y25.846Z0F1200
G1 X167.224Y25.503Z0F1200
G1 Y25.203Z0F1200
G1 X167.252Y25.076Z0F1200
G1 X167.305Y24.97Z0F1200
G1 X167.384Y24.885Z0F1200
G1 X167.491Y24.827Z0F1200
G1 X167.875Y25.055Z0F1200
G1 X168.225Y25.344Z0F1200
G1 X168.536Y25.678Z0F1200
G1 X168.806Y26.038Z0F1200
G1 X169.028Y26.408Z0F1200
G1 X169.198Y26.77Z0F1200
G1 X169.312Y27.106Z0F1200
G1 X169.366Y27.399Z0F1200
G1 X169.199Y26.686Z0F1200
G1 X168.967Y25.941Z0F1200
G1 X168.879Y25.575Z0F1200
G1 X168.837Y25.221Z0F1200
G1 X168.862Y24.889Z0F1200
G1 X168.975Y24.584Z0F1200
G1 X169.425Y24.822Z0F1200
G1 X169.829Y25.119Z0F1200
G1 X170.173Y25.465Z0F1200
G1 X170.444Y25.849Z0F1200
G1 X170.63Y26.261Z0F1200
G1 X170.719Y26.69Z0F1200
G1 X170.722Y26.908Z0F1200
G1 X170.697Y27.126Z0F1200
G1 X170.64Y27.344Z0F1200
G1 X170.551Y27.559Z0F1200
G1 X170.428Y26.817Z0F1200
G1 X170.217Y26.089Z0F1200
G1 X170.108Y25.726Z0F1200
G1 X170.014Y25.361Z0F1200
G1 X169.945Y24.991Z0F1200
G1 X169.913Y24.616Z0F1200
G1 X169.982Y24.504Z0F1200
G1 X170.064Y24.437Z0F1200
G1 X170.158Y24.411Z0F1200
G1 X170.263Y24.421Z0F1200
G1 X170.494Y24.53Z0F1200
G1 X170.744Y24.725Z0F1200
G1 X170.996Y24.969Z0F1200
G1 X171.448Y25.447Z0F1200
G1 X171.617Y25.605Z0F1200
G1 X171.774Y25.803Z0F1200
G1 X171.913Y26.083Z0F1200
G1 X172.026Y26.409Z0F1200
G1 X172.104Y26.745Z0F1200
G1 X172.142Y27.054Z0F1200
G1 X172.13Y27.3Z0F1200
G1 X172.103Y27.387Z0F1200
G1 X172.061Y27.446Z0F1200
G1 X172.003Y27.47Z0F1200
G1 X171.927Y27.456Z0F1200
G1 X171.709Y26.783Z0F1200
G1 X171.596Y26.393Z0F1200
G1 X171.51Y26Z0F1200
G1 X171.474Y25.633Z0F1200
G1 X171.51Y25.317Z0F1200
G1 X171.562Y25.187Z0F1200
G1 X171.641Y25.079Z0F1200
G1 X171.749Y24.997Z0F1200
G1 X171.889Y24.945Z0F1200
G1 X172.259Y25.194Z0F1200
G1 X172.623Y25.497Z0F1200
G1 X172.958Y25.84Z0F1200
G1 X173.243Y26.211Z0F1200
G1 X173.455Y26.597Z0F1200
G1 X173.573Y26.984Z0F1200
G1 X173.59Y27.175Z0F1200
G1 X173.575Y27.36Z0F1200
G1 X173.526Y27.54Z0F1200
G1 X173.439Y27.711Z0F1200
G1 X173.296Y27.393Z0F1200
G1 X173.202Y27.004Z0F1200
G1 X173.166Y26.579Z0F1200
G1 X173.196Y26.152Z0F1200
G1 X173.237Y25.949Z0F1200
G1 X173.299Y25.758Z0F1200
G1 X173.381Y25.585Z0F1200
G1 X173.484Y25.433Z0F1200
G1 X173.61Y25.307Z0F1200
G1 X173.76Y25.211Z0F1200
G1 X173.934Y25.15Z0F1200
G1 X174.134Y25.127Z0F1200
G1 X174.258Y25.229Z0F1200
G1 X174.359Y25.358Z0F1200
G1 X174.44Y25.51Z0F1200
G1 X174.505Y25.68Z0F1200
G1 X174.592Y26.055Z0F1200
G1 X174.641Y26.445Z0F1200
G1 X174.673Y26.811Z0F1200
G1 X174.708Y27.115Z0F1200
G1 X174.734Y27.232Z0F1200
G1 X174.768Y27.318Z0F1200
G1 X174.812Y27.37Z0F1200
G1 X174.871Y27.383Z0F1200
G1 X174.907Y26.478Z0F1200
G1 X174.9Y25.574Z0F1200
G1 X174.929Y25.127Z0F1200
G1 X175.005Y24.687Z0F1200
G1 X175.148Y24.254Z0F1200
G1 X175.377Y23.831Z0F1200
G1 X175.508Y23.868Z0F1200
G1 X175.616Y23.941Z0F1200
G1 X175.703Y24.046Z0F1200
G1 X175.772Y24.179Z0F1200
G1 X175.863Y24.513Z0F1200
G1 X175.904Y24.908Z0F1200
G1 X175.912Y25.332Z0F1200
G1 X175.903Y25.75Z0F1200
G1 X175.893Y26.13Z0F1200
G1 X175.897Y26.437Z0F1200
G1 X175.955Y27.114Z0F1200
G1 X175.997Y27.74Z0F1200
G1 X176.021Y28.331Z0F1200
G1 X176.026Y28.901Z0F1200
G1 X176.008Y29.465Z0F1200
G1 X175.965Y30.039Z0F1200
G1 X175.896Y30.636Z0F1200
G1 X175.797Y31.273Z0F1200
G1 X175.9Y31.985Z0F1200
G1 X175.97Y32.633Z0F1200
G1 X176.011Y33.211Z0F1200
G1 X176.026Y33.714Z0F1200
G1 X176.017Y34.137Z0F1200
G1 X175.988Y34.476Z0F1200
G1 X175.942Y34.724Z0F1200
G1 X175.882Y34.877Z0F1200
G1 X175.847Y34.916Z0F1200
G1 X175.811Y34.929Z0F1200
G1 X175.772Y34.916Z0F1200
G1 X175.732Y34.876Z0F1200
G1 X175.691Y34.809Z0F1200
G1 X175.649Y34.713Z0F1200
G1 X175.607Y34.588Z0F1200
G1 X175.565Y34.434Z0F1200
G1 X175.523Y34.249Z0F1200
G1 X175.482Y34.034Z0F1200
G1 X175.442Y33.788Z0F1200
G1 X175.404Y33.509Z0F1200
G1 X175.368Y33.197Z0F1200
G1 X175.334Y32.852Z0F1200
G1 X175.303Y32.474Z0F1200
G1 X175.275Y32.06Z0F1200
G1 X175.016Y31.421Z0F1200
G1 X174.835Y30.75Z0F1200
G1 X174.71Y30.056Z0F1200
G1 X174.621Y29.35Z0F1200
G1 X174.546Y28.64Z0F1200
G1 X174.463Y27.938Z0F1200
G1 X174.35Y27.253Z0F1200
G1 X174.186Y26.595Z0F1200
G1 X174.124Y25.973Z0F1200
G1 X174.017Y25.385Z0F1200
G1 X173.865Y24.823Z0F1200
G1 X173.669Y24.281Z0F1200
G1 X173.432Y23.752Z0F1200
G1 X173.153Y23.228Z0F1200
G1 X172.835Y22.703Z0F1200
G1 X172.479Y22.169Z0F1200
G1 X171.926Y21.499Z0F1200
G1 X171.352Y20.896Z0F1200
G1 X170.795Y20.343Z0F1200
G1 X170.294Y19.82Z0F1200
G0 Z1.5F500
G0 X8.649Y42.277Z1.5F1200
G1 Z0F500
G1 X9.47Y48.52Z0F1200
G1 X9.702Z0F1200
G1 X10.458Y43.076Z0F1200
G1 X12.673Y48.49Z0F1200
G1 X12.812Z0F1200
G1 X12.012Y42.307Z0F1200
G0 Z1.5F500
G0 X14.395Y46.303Z1.5F1200
G1 Z0F500
G1 X14.918Y46.674Z0F1200
G1 X15.354Y46.83Z0F1200
G1 X15.79Y46.889Z0F1200
G1 X16.088Y46.732Z0F1200
G1 X16.313Y46.4Z0F1200
G1 X16.407Y45.902Z0F1200
G1 X16.342Y45.228Z0F1200
G1 X16.066Y43.168Z0F1200
G1 X15.971Y42.339Z0F1200
G1 X16.066Y43.168Z0F1200
G1 X15.724Y42.892Z0F1200
G1 X15.354Y42.584Z0F1200
G1 X14.969Y42.369Z0F1200
G1 X14.555Y42.277Z0F1200
G1 X14.213Y42.43Z0F1200
G1 X13.981Y42.677Z0F1200
G1 X13.821Y43.076Z0F1200
G1 X13.894Y43.666Z0F1200
G1 X14.141Y44.125Z0F1200
G1 X14.555Y44.525Z0F1200
G1 X14.947Y44.711Z0F1200
G1 X15.398Y44.896Z0F1200
G1 X15.812Y44.984Z0F1200
G1 X16.088Y45.014Z0F1200
G1 X16.291Z0F1200
G0 Z1.5F500
G0 X17.737Y42.307Z1.5F1200
G1 Z0F500
G1 X18.332Y46.83Z0F1200
G1 X18.151Y45.443Z0F1200
G1 X18.427Y46Z0F1200
G1 X18.812Y46.557Z0F1200
G1 X19.175Y46.771Z0F1200
G1 X19.524Y46.83Z0F1200
G1 X19.727Y46.801Z0F1200
G0 Z1.5F500
G0 X22.335Y42.83Z1.5F1200
G1 Z0F500
G1 X21.899Y42.461Z0F1200
G1 X21.354Y42.307Z0F1200
G1 X20.867Y42.4Z0F1200
G1 X20.41Y42.861Z0F1200
G1 X20.185Y43.51Z0F1200
G1 X20.163Y44.271Z0F1200
G1 X20.279Y45.072Z0F1200
G1 X20.548Y45.814Z0F1200
G1 X20.984Y46.4Z0F1200
G1 X21.463Y46.732Z0F1200
G1 X21.972Y46.83Z0F1200
G1 X22.357Y46.732Z0F1200
G1 X22.633Y46.557Z0F1200
G1 X22.698Y46.371Z0F1200
G0 Z1.5F500
G0 X26.424Y42.43Z1.5F1200
G1 Z0F500
G1 X27.231Y48.432Z0F1200
G1 X28.509Z0F1200
G1 X29.01Y48.246Z0F1200
G1 X29.33Y47.963Z0F1200
G1 X29.584Y47.602Z0F1200
G1 X29.788Y46.889Z0F1200
G1 X29.817Y46.088Z0F1200
G1 X29.65Y44.955Z0F1200
G1 X29.468Y44.213Z0F1200
G1 X29.221Y43.695Z0F1200
G1 X28.829Y43.046Z0F1200
G1 X28.233Y42.646Z0F1200
G1 X27.754Y42.461Z0F1200
G1 X27.391Y42.43Z0F1200
G1 X26.424Z0F1200
G0 Z1.5F500
G0 X33.681Y46.771Z1.5F1200
G1 Z0F500
G1 X33.086Y42.307Z0F1200
G1 X33.245Y43.48Z0F1200
G1 X32.926Y43.076Z0F1200
G1 X32.584Y42.677Z0F1200
G1 X32.127Y42.369Z0F1200
G1 X31.734Y42.277Z0F1200
G1 X31.349Y42.43Z0F1200
G1 X31.095Y42.738Z0F1200
G1 X31.008Y43.138Z0F1200
G1 X31.073Y43.91Z0F1200
G1 X31.437Y46.771Z0F1200
G0 Z1.5F500
G0 X34.594Y42.892Z1.5F1200
G1 Z0F500
G1 X34.96Y42.522Z0F1200
G1 X35.374Y42.339Z0F1200
G1 X35.737Y42.277Z0F1200
G1 X36.216Y42.492Z0F1200
G1 X36.63Y42.861Z0F1200
G1 X36.79Y43.412Z0F1200
G1 X36.768Y43.969Z0F1200
G1 X36.427Y44.428Z0F1200
G1 X35.897Y44.74Z0F1200
G1 X35.417Y45.043Z0F1200
G1 X35.163Y45.443Z0F1200
G1 Y45.902Z0F1200
G1 X35.352Y46.342Z0F1200
G1 X35.759Y46.771Z0F1200
G1 X36.238Y46.859Z0F1200
G1 X36.674Y46.732Z0F1200
G1 X37.023Y46.43Z0F1200
G0 Z1.5F500
G0 X37.703Y42.892Z1.5F1200
G1 Z0F500
G1 X38.069Y42.522Z0F1200
G1 X38.483Y42.339Z0F1200
G1 X38.846Y42.277Z0F1200
G1 X39.325Y42.492Z0F1200
G1 X39.739Y42.861Z0F1200
G1 X39.899Y43.412Z0F1200
G1 X39.878Y43.969Z0F1200
G1 X39.536Y44.428Z0F1200
G1 X39.006Y44.74Z0F1200
G1 X38.526Y45.043Z0F1200
G1 X38.272Y45.443Z0F1200
G1 Y45.902Z0F1200
G1 X38.461Y46.342Z0F1200
G1 X38.868Y46.771Z0F1200
G1 X39.347Y46.859Z0F1200
G1 X39.783Y46.732Z0F1200
G1 X40.132Y46.43Z0F1200
G0 Z1.5F500
G0 X41.2Y44.711Z1.5F1200
G1 Z0F500
G1 X43.72Z0F1200
G1 X43.786Y45.258Z0F1200
G1 X43.764Y45.971Z0F1200
G1 X43.51Y46.518Z0F1200
G1 X43.19Y46.83Z0F1200
G1 X42.711Y46.859Z0F1200
G1 X42.209Y46.674Z0F1200
G1 X41.752Y46.215Z0F1200
G1 X41.497Y45.756Z0F1200
G1 X41.25Y45.17Z0F1200
G1 X41.134Y44.555Z0F1200
G1 Y43.812Z0F1200
G1 X41.25Y43.138Z0F1200
G1 X41.592Y42.584Z0F1200
G1 X41.955Y42.339Z0F1200
G1 X42.434Y42.277Z0F1200
G1 X42.849Y42.43Z0F1200
G1 X43.306Y42.708Z0F1200
G0 Z1.5F500
G0 X44.817Y42.277Z1.5F1200
G1 Z0F500
G1 X45.413Y46.801Z0F1200
G0 Z1.5F500
G0 X45.456Y48.676Z1.5F1200
G1 Z0F500
G1 X45.391Y48.188Z0F1200
G1 X45.754Z0F1200
G1 X45.827Y48.676Z0F1200
G1 X45.456Z0F1200
G0 Z1.5F500
G0 X47.563Y49.106Z1.5F1200
G1 Z0F500
G1 X46.742Y42.738Z0F1200
G1 Y42.522Z0F1200
G1 X46.786Y42.4Z0F1200
G1 X46.902Y42.307Z0F1200
G1 X47.032Z0F1200
G0 Z1.5F500
G0 X49.488Y49.106Z1.5F1200
G1 Z0F500
G1 X48.667Y42.738Z0F1200
G1 Y42.522Z0F1200
G1 X48.71Y42.4Z0F1200
G1 X48.827Y42.307Z0F1200
G1 X48.957Z0F1200
G0 Z1.5F500
G0 X50.541Y44.711Z1.5F1200
G1 Z0F500
G1 X53.062Z0F1200
G1 X53.127Y45.258Z0F1200
G1 X53.105Y45.971Z0F1200
G1 X52.851Y46.518Z0F1200
G1 X52.532Y46.83Z0F1200
G1 X52.052Y46.859Z0F1200
G1 X51.551Y46.674Z0F1200
G1 X51.093Y46.215Z0F1200
G1 X50.839Y45.756Z0F1200
G1 X50.592Y45.17Z0F1200
G1 X50.476Y44.555Z0F1200
G1 Y43.812Z0F1200
G1 X50.592Y43.138Z0F1200
G1 X50.933Y42.584Z0F1200
G1 X51.297Y42.339Z0F1200
G1 X51.776Y42.277Z0F1200
G1 X52.19Y42.43Z0F1200
G1 X52.648Y42.708Z0F1200
G0 Z1.5F500
G0 X54.18Y42.307Z1.5F1200
G1 Z0F500
G1 X54.776Y46.83Z0F1200
G1 X54.595Y45.443Z0F1200
G1 X54.871Y46Z0F1200
G1 X55.256Y46.557Z0F1200
G1 X55.619Y46.771Z0F1200
G1 X55.967Y46.83Z0F1200
G1 X56.171Y46.801Z0F1200
G0 Z1.5F500
G0 X66.667Y42.483Z1.5F1200
G1 Z0F500
G1 X67.286Y48.459Z0F1200
G1 X65.215Y44.469Z0F1200
G1 X67.449Z0F1200
G0 Z1.5F500
G0 X68.192Y43.033Z1.5F1200
G1 Z0F500
G1 X68.158Y42.544Z0F1200
G1 X68.423Z0F1200
G1 X68.474Y43.033Z0F1200
G1 X68.192Z0F1200
G0 Z1.5F500
G0 X71.063Y48.147Z1.5F1200
G1 Z0F500
G1 X70.483Y48.118Z0F1200
G1 X71.119Y48.517Z0F1200
G1 X70.517Y42.635Z0F1200
G1 X69.627Z0F1200
G1 X71.383Z0F1200
G0 Z1.5F500
G0 X73.899Y48.147Z1.5F1200
G1 Z0F500
G1 X73.32Y48.118Z0F1200
G1 X73.956Y48.517Z0F1200
G1 X73.353Y42.635Z0F1200
G1 X72.464Z0F1200
G1 X74.22Z0F1200
G0 Z1.5F500
G0 X75.267Y43.033Z1.5F1200
G1 Z0F500
G1 X75.233Y42.544Z0F1200
G1 X75.498Z0F1200
G1 X75.548Y43.033Z0F1200
G1 X75.267Z0F1200
G0 Z1.5F500
G0 X78.137Y48.147Z1.5F1200
G1 Z0F500
G1 X77.558Y48.118Z0F1200
G1 X78.194Y48.517Z0F1200
G1 X77.591Y42.635Z0F1200
G1 X76.702Z0F1200
G1 X78.458Z0F1200
G0 Z1.5F500
G0 X79.454Y43.064Z1.5F1200
G1 Z0F500
G1 X79.629Y42.727Z0F1200
G1 X79.91Y42.544Z0F1200
G1 X80.248Y42.483Z0F1200
G1 X80.642Y42.788Z0F1200
G1 X81.03Y43.37Z0F1200
G1 X81.312Y44.255Z0F1200
G1 X81.509Y45.335Z0F1200
G1 X81.616Y46.347Z0F1200
G1 X81.599Y47.291Z0F1200
G1 X81.452Y48.03Z0F1200
G1 X81.171Y48.459Z0F1200
G1 X80.783Y48.585Z0F1200
G1 X80.355Y48.332Z0F1200
G1 X80.073Y47.904Z0F1200
G1 X79.86Y47.359Z0F1200
G1 X79.753Y46.805Z0F1200
G1 X79.719Y46.192Z0F1200
G1 X79.843Y45.549Z0F1200
G1 X80.163Y45.15Z0F1200
G1 X80.569Y45.053Z0F1200
G1 X81.081Y45.394Z0F1200
G1 X81.402Y45.851Z0F1200
G1 X81.616Y46.25Z0F1200
G0 Z1.5F500
G0 X82.983Y42.513Z1.5F1200
G1 Z0F500
G1 X83.231Y44.139Z0F1200
G1 X83.479Y45.306Z0F1200
G1 X83.794Y46.318Z0F1200
G1 X84.098Y47.106Z0F1200
G1 X84.435Y47.846Z0F1200
G1 X84.773Y48.488Z0F1200
G1 X82.73Z0F1200
G0 Z1.5F500
G0 X84.984Y43.278Z1.5F1200
G1 Z0F500
G1 X85.161Y42.942Z0F1200
G1 X85.392Y42.697Z0F1200
G1 X85.657Y42.513Z0F1200
G1 X85.921Y42.483Z0F1200
G1 X86.332Y42.666Z0F1200
G1 X86.67Y43.064Z0F1200
G1 X86.951Y43.642Z0F1200
G1 X87.109Y44.323Z0F1200
G1 X87.148Y45.121Z0F1200
G1 X87.007Y45.734Z0F1200
G1 X86.653Y46.133Z0F1200
G1 X86.242Y46.192Z0F1200
G1 X85.921Y46.065Z0F1200
G1 X85.606Y45.793Z0F1200
G1 X85.567Y45.88Z0F1200
G1 X85.961Y48.459Z0F1200
G1 X87.413Z0F1200
G0 Z1.5F500
G0 X91.595Y43.983Z1.5F1200
G1 Z0F500
G1 X91.916Y43.601Z0F1200
G1 X92.211Y43.382Z0F1200
G1 X92.612Y43.272Z0F1200
G1 X93.094Y43.245Z0F1200
G1 X93.663Y43.519Z0F1200
G1 X94.065Y43.931Z0F1200
G1 X94.273Y44.479Z0F1200
G1 X94.319Y44.966Z0F1200
G1 X94.172Y45.461Z0F1200
G1 X93.73Y45.87Z0F1200
G1 X92.947Y46.366Z0F1200
G1 X92.505Y46.774Z0F1200
G1 X92.291Y47.218Z0F1200
G1 X92.378Y47.765Z0F1200
G1 X92.632Y48.339Z0F1200
G1 X93.135Y48.722Z0F1200
G1 X93.623Y48.809Z0F1200
G1 X94.065Y48.748Z0F1200
G1 X94.36Y48.531Z0F1200
G1 X94.634Y48.226Z0F1200
G0 Z1.5F500
G0 X97.439Y43.683Z1.5F1200
G1 Z0F500
G1 X97.037Y43.354Z0F1200
G1 X96.535Y43.217Z0F1200
G1 X96.087Y43.3Z0F1200
G1 X95.665Y43.71Z0F1200
G1 X95.458Y44.288Z0F1200
G1 X95.437Y44.966Z0F1200
G1 X95.545Y45.679Z0F1200
G1 X95.792Y46.34Z0F1200
G1 X96.194Y46.861Z0F1200
G1 X96.636Y47.157Z0F1200
G1 X97.104Y47.244Z0F1200
G1 X97.459Y47.157Z0F1200
G1 X97.714Y47Z0F1200
G1 X97.774Y46.835Z0F1200
G0 Z1.5F500
G0 X98.617Y43.245Z1.5F1200
G1 Z0F500
G1 X99.461Y49.27Z0F1200
G1 X99.039Y46.227Z0F1200
G1 X99.394Y46.67Z0F1200
G1 X99.715Y47Z0F1200
G1 X100.157Y47.218Z0F1200
G1 X100.559Y47.27Z0F1200
G1 X100.98Y46.939Z0F1200
G1 X101.108Y46.557Z0F1200
G1 X101.081Y45.931Z0F1200
G1 X100.726Y43.217Z0F1200
G0 Z1.5F500
G0 X103.404Z1.5F1200
G1 Z0F500
G1 X103.424Z0F1200
G1 X103.866Y43.354Z0F1200
G1 X104.307Y43.71Z0F1200
G1 X104.622Y44.262Z0F1200
G1 X104.836Y44.862Z0F1200
G1 X104.917Y45.435Z0F1200
G1 Y45.957Z0F1200
G1 X104.856Y46.418Z0F1200
G1 X104.709Y46.774Z0F1200
G1 X104.435Y47.105Z0F1200
G1 X104.14Y47.244Z0F1200
G1 X103.866Y47.27Z0F1200
G1 X103.504Y47.192Z0F1200
G1 X103.149Y46.939Z0F1200
G1 X102.828Y46.531Z0F1200
G1 X102.62Y46.148Z0F1200
G1 X102.413Y45.574Z0F1200
G1 X102.366Y45.131Z0F1200
G1 X102.326Y44.618Z0F1200
G1 X102.366Y44.149Z0F1200
G1 X102.56Y43.71Z0F1200
G1 X102.808Y43.409Z0F1200
G1 X103.102Y43.245Z0F1200
G1 X103.404Y43.217Z0F1200
G0 Z1.5F500
G0 X103.256Y49.157Z1.5F1200
G1 Z0F500
G1 X103.216Y48.722Z0F1200
G1 X103.531Z0F1200
G1 X103.598Y49.157Z0F1200
G1 X103.256Z0F1200
G0 Z1.5F500
G0 X104.89Z1.5F1200
G1 Z0F500
G1 X104.85Y48.722Z0F1200
G1 X105.164Z0F1200
G1 X105.231Y49.157Z0F1200
G1 X104.89Z0F1200
G0 Z1.5F500
G0 X106.081Y43.19Z1.5F1200
G1 Z0F500
G1 X106.63Y47.244Z0F1200
G1 X106.503Y46.261Z0F1200
G1 X106.838Y46.644Z0F1200
G1 X107.159Y46.966Z0F1200
G1 X107.387Y47.131Z0F1200
G1 X107.728Y47.244Z0F1200
G1 X107.936Y47.27Z0F1200
G1 X108.25Y47.157Z0F1200
G1 X108.398Y47Z0F1200
G1 X108.525Y46.722Z0F1200
G1 X108.592Y46.34Z0F1200
G1 X108.15Y43.19Z0F1200
G0 Z1.5F500
G0 X109.857Y45.357Z1.5F1200
G1 Z0F500
G1 X112.18Z0F1200
G1 X112.24Y45.844Z0F1200
G1 X112.22Y46.479Z0F1200
G1 X111.986Y46.966Z0F1200
G1 X111.691Y47.244Z0F1200
G1 X111.249Y47.27Z0F1200
G1 X110.788Y47.105Z0F1200
G1 X110.366Y46.696Z0F1200
G1 X110.132Y46.287Z0F1200
G1 X109.904Y45.766Z0F1200
G1 X109.797Y45.218Z0F1200
G1 Y44.557Z0F1200
G1 X109.904Y43.957Z0F1200
G1 X110.219Y43.463Z0F1200
G1 X110.553Y43.245Z0F1200
G1 X110.995Y43.19Z0F1200
G1 X111.377Y43.327Z0F1200
G1 X111.798Y43.574Z0F1200
G0 Z1.5F500
G0 X113.506Y43.409Z1.5F1200
G1 Z0F500
G1 X113.124Y43.026Z0F1200
G1 X112.874Y42.56Z0F1200
G1 X112.768Y42.071Z0F1200
G1 X112.977Y41.653Z0F1200
G1 X113.445Y41.384Z0F1200
G1 X113.994Y41.297Z0F1200
G1 X114.536Y41.462Z0F1200
G1 X115.085Y41.905Z0F1200
G1 X115.34Y42.314Z0F1200
G1 X115.38Y42.779Z0F1200
G1 X115.259Y43.217Z0F1200
G1 X114.811Y43.382Z0F1200
G1 X113.526Z0F1200
G1 X113.298Y43.628Z0F1200
G1 X113.211Y44.009Z0F1200
G1 X113.318Y44.366Z0F1200
G1 X113.76Y44.888Z0F1200
G1 X113.967Y44.696Z0F1200
G1 X114.309Y44.618Z0F1200
G1 X114.771Y44.809Z0F1200
G1 X115.132Y45.192Z0F1200
G1 X115.36Y45.653Z0F1200
G1 X115.427Y46.2Z0F1200
G1 X115.34Y46.696Z0F1200
G1 X115.233Y46.913Z0F1200
G1 X114.985Y47.157Z0F1200
G1 X115.996Z0F1200
G1 X114.965Z0F1200
G1 X114.664Y47.244Z0F1200
G1 X114.182Y47.192Z0F1200
G1 X113.8Y46.835Z0F1200
G1 X113.526Y46.34Z0F1200
G1 X113.425Y45.792Z0F1200
G1 X113.465Y45.357Z0F1200
G1 X113.593Y45.079Z0F1200
G1 X113.74Y44.862Z0F1200
G0 Z1.5F500
G0 X116.92Y43.409Z1.5F1200
G1 Z0F500
G1 X116.538Y43.026Z0F1200
G1 X116.288Y42.56Z0F1200
G1 X116.183Y42.071Z0F1200
G1 X116.391Y41.653Z0F1200
G1 X116.859Y41.384Z0F1200
G1 X117.408Y41.297Z0F1200
G1 X117.951Y41.462Z0F1200
G1 X118.499Y41.905Z0F1200
G1 X118.754Y42.314Z0F1200
G1 X118.794Y42.779Z0F1200
G1 X118.674Y43.217Z0F1200
G1 X118.225Y43.382Z0F1200
G1 X116.94Z0F1200
G1 X116.712Y43.628Z0F1200
G1 X116.625Y44.009Z0F1200
G1 X116.732Y44.366Z0F1200
G1 X117.174Y44.888Z0F1200
G1 X117.382Y44.696Z0F1200
G1 X117.723Y44.618Z0F1200
G1 X118.185Y44.809Z0F1200
G1 X118.546Y45.192Z0F1200
G1 X118.774Y45.653Z0F1200
G1 X118.841Y46.2Z0F1200
G1 X118.754Y46.696Z0F1200
G1 X118.647Y46.913Z0F1200
G1 X118.399Y47.157Z0F1200
G1 X119.41Z0F1200
G1 X118.379Z0F1200
G1 X118.078Y47.244Z0F1200
G1 X117.596Y47.192Z0F1200
G1 X117.214Y46.835Z0F1200
G1 X116.94Y46.34Z0F1200
G1 X116.839Y45.792Z0F1200
G1 X116.879Y45.357Z0F1200
G1 X117.007Y45.079Z0F1200
G1 X117.154Y44.862Z0F1200
G0 Z1.5F500
G0 X119.702Y43.738Z1.5F1200
G1 Z0F500
G1 X120.039Y43.409Z0F1200
G1 X120.421Y43.245Z0F1200
G1 X120.755Y43.19Z0F1200
G1 X121.197Y43.382Z0F1200
G1 X121.579Y43.71Z0F1200
G1 X121.726Y44.201Z0F1200
G1 X121.706Y44.696Z0F1200
G1 X121.391Y45.105Z0F1200
G1 X120.903Y45.383Z0F1200
G1 X120.461Y45.653Z0F1200
G1 X120.227Y46.009Z0F1200
G1 Y46.418Z0F1200
G1 X120.401Y46.809Z0F1200
G1 X120.776Y47.192Z0F1200
G1 X121.217Y47.27Z0F1200
G1 X121.619Y47.157Z0F1200
G1 X121.94Y46.887Z0F1200
G0 Z1.5F500
G0 X124.062Y43.382Z1.5F1200
G1 Z0F500
G1 X123.815Y43.245Z0F1200
G1 X123.514Z0F1200
G1 X123.239Y43.354Z0F1200
G1 X123.072Y43.71Z0F1200
G1 X123.119Y44.314Z0F1200
G1 X123.514Y47.131Z0F1200
G1 X122.884Z0F1200
G1 X124.504Z0F1200
G1 X123.514Z0F1200
G1 X123.688Y48.365Z0F1200
G0 Z1.5F500
G0 X125.14Y43.217Z1.5F1200
G1 Z0F500
G1 X125.689Y47.244Z0F1200
G1 X125.522Y46.009Z0F1200
G1 X125.776Y46.505Z0F1200
G1 X126.131Y47Z0F1200
G1 X126.466Y47.192Z0F1200
G1 X126.787Y47.244Z0F1200
G1 X126.975Y47.218Z0F1200
G0 Z1.5F500
G0 X127.269Y43.683Z1.5F1200
G1 Z0F500
G1 X127.229Y43.245Z0F1200
G1 X127.543Z0F1200
G1 X127.604Y43.683Z0F1200
G1 X127.269Z0F1200
G0 Z1.5F500
G0 X131.995Y48.061Z1.5F1200
G1 Z0F500
G1 X132.397Y48.391Z0F1200
G1 X132.859Y48.644Z0F1200
G1 X133.214Z0F1200
G1 X133.575Y48.504Z0F1200
G1 X133.85Y48.174Z0F1200
G1 X133.957Y47.739Z0F1200
G1 X133.937Y47.218Z0F1200
G1 X133.763Y46.748Z0F1200
G1 X133.368Y46.392Z0F1200
G1 X132.919Y46.122Z0F1200
G1 X132.584Y46.035Z0F1200
G1 X132.31Z0F1200
G1 X132.625Z0F1200
G1 X132.939Y45.983Z0F1200
G1 X133.281Y45.818Z0F1200
G1 X133.575Y45.461Z0F1200
G1 X133.702Y45.131Z0F1200
G1 X133.722Y44.749Z0F1200
G1 X133.635Y44.34Z0F1200
G1 X133.535Y44.009Z0F1200
G1 X133.281Y43.628Z0F1200
G1 X132.939Y43.382Z0F1200
G1 X132.544Y43.245Z0F1200
G1 X132.163Z0F1200
G1 X131.781Y43.382Z0F1200
G1 X131.446Y43.656Z0F1200
G1 X131.235Y43.931Z0F1200
G0 Z1.5F500
G0 X136.36Y43.19Z1.5F1200
G1 Z0F500
G1 X137.096Y48.531Z0F1200
G1 X134.633Y44.966Z0F1200
G1 X137.291Z0F1200
G0 Z1.5F500
G0 X145.006Y41.45Z1.5F1200
G1 Z0F500
G1 X145.243Y41.847Z0F1200
G1 X145.524Y42.241Z0F1200
G1 X145.833Y42.633Z0F1200
G1 X146.155Y43.026Z0F1200
G1 X146.475Y43.421Z0F1200
G1 X146.778Y43.819Z0F1200
G1 X147.049Y44.222Z0F1200
G1 X147.274Y44.631Z0F1200
G1 X147.784Y45.314Z0F1200
G1 X148.296Y46.041Z0F1200
G1 X148.568Y46.394Z0F1200
G1 X148.858Y46.727Z0F1200
G1 X149.173Y47.028Z0F1200
G1 X149.519Y47.286Z0F1200
G1 X149.799Y47.634Z0F1200
G1 X150.091Y47.941Z0F1200
G1 X150.232Y48.07Z0F1200
G1 X150.363Y48.177Z0F1200
G1 X150.482Y48.259Z0F1200
G1 X150.584Y48.312Z0F1200
G1 X150.665Y48.332Z0F1200
G1 X150.72Y48.315Z0F1200
G1 X150.747Y48.258Z0F1200
G1 X150.741Y48.157Z0F1200
G1 X150.697Y48.007Z0F1200
G1 X150.613Y47.805Z0F1200
G1 X150.483Y47.548Z0F1200
G1 X150.305Y47.231Z0F1200
G1 X150.056Y46.805Z0F1200
G1 X149.819Y46.436Z0F1200
G1 X149.592Y46.108Z0F1200
G1 X149.374Y45.808Z0F1200
G1 X148.967Y45.233Z0F1200
G1 X148.592Y44.592Z0F1200
G1 X148.422Y44.413Z0F1200
G1 X148.292Y44.249Z0F1200
G1 X148.201Y44.101Z0F1200
G1 X148.147Y43.971Z0F1200
G1 X148.128Y43.859Z0F1200
G1 X148.142Y43.766Z0F1200
G1 X148.187Y43.693Z0F1200
G1 X148.261Y43.642Z0F1200
G1 X148.362Y43.612Z0F1200
G1 X148.49Y43.605Z0F1200
G1 X148.64Y43.622Z0F1200
G1 X148.812Y43.665Z0F1200
G1 X149.005Y43.733Z0F1200
G1 X149.215Y43.828Z0F1200
G1 X149.441Y43.951Z0F1200
G1 X149.681Y44.103Z0F1200
G1 X150.035Y44.491Z0F1200
G1 X150.418Y44.929Z0F1200
G1 X150.497Y45.007Z0F1200
G1 X150.563Y45.062Z0F1200
G1 X150.614Y45.088Z0F1200
G1 X150.648Y45.082Z0F1200
G1 X150.66Y45.036Z0F1200
G1 X150.649Y44.946Z0F1200
G1 X150.612Y44.808Z0F1200
G1 X150.545Y44.615Z0F1200
G1 X150.422Y44.353Z0F1200
G1 X150.342Y44.012Z0F1200
G1 X150.309Y43.645Z0F1200
G1 X150.328Y43.307Z0F1200
G1 X150.36Y43.165Z0F1200
G1 X150.406Y43.051Z0F1200
G1 X150.468Y42.971Z0F1200
G1 X150.547Y42.933Z0F1200
G1 X150.642Y42.942Z0F1200
G1 X150.755Y43.005Z0F1200
G1 X150.887Y43.13Z0F1200
G1 X151.038Y43.323Z0F1200
G1 X151.413Y43.998Z0F1200
G0 Z1.5F500
G0 X152.785Y42.729Z1.5F1200
G1 Z0F500
G1 X152.539Y42.462Z0F1200
G1 X152.367Y42.253Z0F1200
G1 X152.263Y42.098Z0F1200
G1 X152.22Y41.993Z0F1200
G1 X152.231Y41.934Z0F1200
G1 X152.291Y41.917Z0F1200
G1 X152.393Y41.938Z0F1200
G1 X152.53Y41.994Z0F1200
G1 X152.696Y42.079Z0F1200
G1 X152.885Y42.19Z0F1200
G1 X153.091Y42.323Z0F1200
G1 X153.306Y42.475Z0F1200
G1 X153.741Y42.815Z0F1200
G1 X154.139Y43.178Z0F1200
G1 X154.645Y43.663Z0F1200
G1 X155.093Y44.112Z0F1200
G1 X155.304Y44.346Z0F1200
G1 X155.512Y44.601Z0F1200
G1 X155.72Y44.884Z0F1200
G1 X155.932Y45.206Z0F1200
G1 X156.382Y45.686Z0F1200
G1 X156.836Y46.246Z0F1200
G1 X157.359Y46.924Z0F1200
G1 X157.667Y47.319Z0F1200
G1 X158.016Y47.759Z0F1200
G1 X158.318Y48.042Z0F1200
G1 X158.712Y48.349Z0F1200
G1 X159.17Y48.669Z0F1200
G1 X159.661Y48.995Z0F1200
G1 X160.155Y49.318Z0F1200
G1 X160.623Y49.629Z0F1200
G1 X161.034Y49.919Z0F1200
G1 X161.359Y50.18Z0F1200
G1 X161.349Y50.018Z0F1200
G1 X161.296Y49.843Z0F1200
G1 X161.205Y49.656Z0F1200
G1 X161.081Y49.461Z0F1200
G1 X160.759Y49.049Z0F1200
G1 X160.372Y48.623Z0F1200
G1 X159.967Y48.198Z0F1200
G1 X159.585Y47.789Z0F1200
G1 X159.417Y47.595Z0F1200
G1 X159.272Y47.411Z0F1200
G1 X159.154Y47.238Z0F1200
G1 X159.071Y47.079Z0F1200
G1 X158.427Y46.247Z0F1200
G1 X157.748Y45.497Z0F1200
G1 X157.435Y45.118Z0F1200
G1 X157.161Y44.718Z0F1200
G1 X156.943Y44.282Z0F1200
G1 X156.796Y43.796Z0F1200
G1 X156.917Y43.655Z0F1200
G1 X157.051Y43.551Z0F1200
G1 X157.196Y43.48Z0F1200
G1 X157.35Y43.44Z0F1200
G1 X157.683Z0F1200
G1 X158.036Y43.52Z0F1200
G1 X158.757Y43.83Z0F1200
G1 X159.419Y44.164Z0F1200
G1 X159.622Y44.275Z0F1200
G1 X159.86Y44.447Z0F1200
G1 X160.112Y44.654Z0F1200
G1 X160.356Y44.871Z0F1200
G1 X160.569Y45.072Z0F1200
G1 X160.728Y45.23Z0F1200
G1 X160.812Y45.32Z0F1200
G1 X160.819Y45.331Z0F1200
G1 X160.799Y45.315Z0F1200
G1 X160.733Y45.119Z0F1200
G1 X160.684Y44.943Z0F1200
G1 X160.65Y44.788Z0F1200
G1 X160.631Y44.652Z0F1200
G1 Y44.434Z0F1200
G1 X160.686Y44.282Z0F1200
G1 X160.781Y44.191Z0F1200
G1 X160.913Y44.152Z0F1200
G1 X161.077Y44.159Z0F1200
G1 X161.265Y44.205Z0F1200
G1 X161.689Y44.386Z0F1200
G1 X162.136Y44.64Z0F1200
G1 X162.557Y44.91Z0F1200
G1 X162.9Y45.143Z0F1200
G1 X162.996Y45.106Z0F1200
G1 X163.026Y45.041Z0F1200
G1 X163.002Y44.954Z0F1200
G1 X162.933Y44.847Z0F1200
G1 X162.703Y44.59Z0F1200
G1 X162.415Y44.304Z0F1200
G1 X162.275Y44.161Z0F1200
G1 X162.151Y44.022Z0F1200
G1 X162.054Y43.891Z0F1200
G1 X161.992Y43.774Z0F1200
G1 X161.978Y43.673Z0F1200
G1 X162.02Y43.593Z0F1200
G1 X162.129Y43.538Z0F1200
G1 X162.315Y43.512Z0F1200
G1 X162.523Y43.529Z0F1200
G1 X162.672Y43.504Z0F1200
G1 X162.709Y43.456Z0F1200
G1 X162.713Y43.376Z0F1200
G1 X162.678Y43.254Z0F1200
G1 X162.599Y43.084Z0F1200
G1 X162.427Y42.865Z0F1200
G1 X162.265Y42.602Z0F1200
G1 X162.141Y42.336Z0F1200
G1 X162.08Y42.111Z0F1200
G1 Y42.026Z0F1200
G1 X162.108Y41.968Z0F1200
G1 X162.163Y41.941Z0F1200
G1 X162.251Y41.951Z0F1200
G1 X162.374Y42.003Z0F1200
G1 X162.536Y42.102Z0F1200
G1 X162.74Y42.253Z0F1200
G1 X162.989Y42.463Z0F1200
G1 X163.33Y42.682Z0F1200
G1 X163.61Y42.916Z0F1200
G1 X163.854Y43.165Z0F1200
G1 X164.342Y43.716Z0F1200
G1 X164.637Y44.022Z0F1200
G1 X165.001Y44.348Z0F1200
G1 X165.461Y44.698Z0F1200
G1 X166.056Y45.405Z0F1200
G1 X166.642Y46.064Z0F1200
G1 X167.216Y46.669Z0F1200
G1 X167.775Y47.218Z0F1200
G1 X168.315Y47.704Z0F1200
G1 X168.833Y48.124Z0F1200
G1 X169.327Y48.473Z0F1200
G1 X169.792Y48.747Z0F1200
G1 X170.086Y48.925Z0F1200
G1 X170.358Y49.057Z0F1200
G1 X170.61Y49.154Z0F1200
G1 X170.84Y49.224Z0F1200
G1 X171.234Y49.321Z0F1200
G1 X171.538Y49.422Z0F1200
G1 X171.644Y49.445Z0F1200
G1 X171.724Y49.419Z0F1200
G1 X171.78Y49.35Z0F1200
G1 X171.814Y49.243Z0F1200
G1 X171.829Y49.104Z0F1200
G1 X171.826Y48.938Z0F1200
G1 X171.807Y48.752Z0F1200
G1 X171.775Y48.551Z0F1200
G1 X171.68Y48.128Z0F1200
G1 X171.556Y47.714Z0F1200
G1 X171.489Y47.525Z0F1200
G1 X171.421Y47.355Z0F1200
G1 X171.355Y47.211Z0F1200
G1 X171.292Y47.098Z0F1200
G1 X170.872Y46.372Z0F1200
G1 X170.48Y45.631Z0F1200
G1 X170.307Y45.254Z0F1200
G1 X170.155Y44.87Z0F1200
G1 X170.029Y44.48Z0F1200
G1 X169.934Y44.083Z0F1200
G1 X170.002Y43.971Z0F1200
G1 X170.108Y43.924Z0F1200
G1 X170.248Y43.933Z0F1200
G1 X170.418Y43.992Z0F1200
G1 X170.613Y44.091Z0F1200
G1 X170.828Y44.225Z0F1200
G1 X171.058Y44.384Z0F1200
G1 X171.299Y44.562Z0F1200
G1 X171.795Y44.943Z0F1200
G1 X172.278Y45.304Z0F1200
G1 X172.503Y45.459Z0F1200
G1 X172.711Y45.586Z0F1200
G1 X172.897Y45.677Z0F1200
G1 X173.056Y45.726Z0F1200
G1 X173.107Y45.903Z0F1200
G1 X173.199Y46.093Z0F1200
G1 X173.314Y46.27Z0F1200
G1 X173.43Y46.408Z0F1200
G1 X173.529Y46.483Z0F1200
G1 X173.591Y46.469Z0F1200
G1 X173.603Y46.421Z0F1200
G1 X173.597Y46.341Z0F1200
G1 X173.573Y46.227Z0F1200
G1 X173.527Y46.074Z0F1200
G1 X173.148Y45.497Z0F1200
G1 X172.733Y44.974Z0F1200
G1 X172.596Y44.724Z0F1200
G1 X172.552Y44.477Z0F1200
G1 X172.575Y44.354Z0F1200
G1 X172.633Y44.23Z0F1200
G1 X172.732Y44.105Z0F1200
G1 X172.875Y43.979Z0F1200
G1 X173.008Y43.808Z0F1200
G1 X173.129Y43.63Z0F1200
G0 Z1.5F500
G0 X176.596Y47.944Z1.5F1200
G1 Z0F500
G1 X176.131Y47.925Z0F1200
G1 X175.711Y47.911Z0F1200
G1 X175.328Y47.9Z0F1200
G1 X174.285Y47.877Z0F1200
G1 X173.574Y47.855Z0F1200
G1 X173.182Y47.839Z0F1200
G1 X172.751Y47.817Z0F1200
G1 X172.271Y47.788Z0F1200
G1 X171.731Y47.752Z0F1200
G1 X171.121Y47.706Z0F1200
G1 X170.43Y47.65Z0F1200
G1 X169.646Y47.582Z0F1200
G1 X168.761Y47.501Z0F1200
G1 X167.613Y47.493Z0F1200
G1 X166.444Y47.439Z0F1200
G1 X165.274Y47.357Z0F1200
G1 X164.126Y47.263Z0F1200
G1 X164.025Y47.184Z0F1200
G1 X163.958Y47.118Z0F1200
G1 X163.921Y47.064Z0F1200
G1 X163.911Y47.02Z0F1200
G1 X163.96Y46.958Z0F1200
G1 X164.077Y46.922Z0F1200
G1 X164.405Y46.887Z0F1200
G1 X164.677Y46.834Z0F1200
G0 Z1.5F500
G0 X9.316Y32.848Z1.5F1200
G1 Z0F500
G1 X10.231Z0F1200
G1 X10.736Y33.079Z0F1200
G1 X11.316Y33.606Z0F1200
G1 X14.765Y39.678Z0F1200
G1 X12.906Z0F1200
G1 X11.756Y39.249Z0F1200
G1 X11.079Y38.516Z0F1200
G1 X10.843Y37.825Z0F1200
G1 X10.768Y36.998Z0F1200
G0 Z1.5F500
G0 X14.905Y39.709Z1.5F1200
G1 Z0F500
G1 X14.765Y35.721Z0F1200
G1 X12.595Z0F1200
G1 X14.765Z0F1200
G1 X14.797Y34.099Z0F1200
G1 X14.937Y33.277Z0F1200
G1 X15.27Y32.881Z0F1200
G1 X15.539Y32.815Z0F1200
G1 X16.259Y33.177Z0F1200
G0 Z1.5F500
G0 X20.084Y40.63Z1.5F1200
G1 Z0F500
G1 X19.579Y40.724Z0F1200
G1 X18.795Y40.431Z0F1200
G1 X18.121Y39.636Z0F1200
G1 X17.884Y38.652Z0F1200
G1 X17.139Y33.869Z0F1200
G1 X17.038Y32.782Z0F1200
G1 X17.85Y33.474Z0F1200
G1 X18.902Y34.696Z0F1200
G1 X19.44Y35.418Z0F1200
G0 Z1.5F500
G0 X22.148Y40.693Z1.5F1200
G1 Z0F500
G1 X21.234Y40.599Z0F1200
G1 X20.387Y39.908Z0F1200
G1 X19.981Y39.008Z0F1200
G1 X19.473Y34.696Z0F1200
G1 X19.338Y33.738Z0F1200
G1 X19.27Y33.211Z0F1200
G1 X19.406Y32.782Z0F1200
G1 X20.083Y32.881Z0F1200
G1 X21.17Y33.606Z0F1200
G1 X21.707Y34.759Z0F1200
G1 X21.943Y35.784Z0F1200
G1 X21.976Y36.674Z0F1200
G1 X21.911Y37.396Z0F1200
G1 X20.998Y36.506Z0F1200
G1 X20.049Y35.188Z0F1200
G1 X19.372Y33.771Z0F1200
G0 Z1.5F500
G0 X23.568Y34.989Z1.5F1200
G1 Z0F500
G1 X24.313Y35.449Z0F1200
G1 X25.232Y36.339Z0F1200
G1 X25.565Y36.799Z0F1200
G1 X25.661Y37.302Z0F1200
G1 X25.468Y37.501Z0F1200
G1 X25.027Y37.532Z0F1200
G1 X24.313Y37.072Z0F1200
G1 X23.77Y36.308Z0F1200
G1 X23.466Y35.188Z0F1200
G1 X23.331Y34.298Z0F1200
G1 X23.5Y33.574Z0F1200
G1 X23.872Y33.046Z0F1200
G1 X24.211Y32.716Z0F1200
G1 X25.36Y33.869Z0F1200
G1 X26.102Y34.696Z0F1200
G1 X26.618Y35.418Z0F1200
G0 Z1.5F500
G0 X26.108Y36.799Z1.5F1200
G1 Z0F500
G1 X26.718Y37.302Z0F1200
G1 X27.056Y37.532Z0F1200
G1 X26.718Y35.753Z0F1200
G1 X26.447Y34.131Z0F1200
G1 X26.412Y33.343Z0F1200
G1 Y33.013Z0F1200
G1 X26.718Y34.068Z0F1200
G1 X27.191Y35.093Z0F1200
G1 X27.598Y36.14Z0F1200
G1 X28.101Y36.967Z0F1200
G1 X28.38Y37.302Z0F1200
G1 X28.745Y37.459Z0F1200
G1 X29.186Y37.427Z0F1200
G0 Z1.5F500
G0 X29.427Y38.024Z1.5F1200
G1 Z0F500
G1 X29.392Y37.396Z0F1200
G1 X28.614Y37.333Z0F1200
G1 X29.392Y37.427Z0F1200
G1 X30.819Y37.459Z0F1200
G1 X29.392Y37.427Z0F1200
G1 X29.189Y35.617Z0F1200
G1 X28.986Y34.403Z0F1200
G1 X28.783Y33.672Z0F1200
G1 X28.545Y32.782Z0F1200
G1 X29.325Y33.408Z0F1200
G1 X30.303Y34.466Z0F1200
G1 X31.013Y35.418Z0F1200
G0 Z1.5F500
G0 X38.975Y33.376Z1.5F1200
G1 Z0F500
G1 X38.33Y33.013Z0F1200
G1 X37.041Y33.079Z0F1200
G1 X36.74Y32.881Z0F1200
G1 X37.116Y33.31Z0F1200
G1 X37.653Y34.036Z0F1200
G1 X38.535Y38.976Z0F1200
G1 X38.771Y39.678Z0F1200
G0 Z1.5F500
G0 X35.624Y36.475Z1.5F1200
G1 Z0F500
G1 X35.691Y37.427Z0F1200
G1 X36.198Y38.516Z0F1200
G1 X36.912Y39.207Z0F1200
G1 X37.761Y39.573Z0F1200
G1 X38.674Y39.678Z0F1200
G1 X39.448Y39.709Z0F1200
G1 X40.501Y39.542Z0F1200
G1 X41.103Y39.144Z0F1200
G1 X41.447Y38.39Z0F1200
G1 X41.339Y37.689Z0F1200
G1 X40.866Y37.072Z0F1200
G1 X40.297Y36.674Z0F1200
G1 X39.792Y36.569Z0F1200
G1 X39.115Z0F1200
G1 X40.093Y34.926Z0F1200
G1 X41.414Y32.98Z0F1200
G1 X42.392Y31.792Z0F1200
G0 Z1.5F500
G0 X43.075Y32.782Z1.5F1200
G1 Z0F500
G1 X43.21Z0F1200
G1 X43.821Y33.079Z0F1200
G1 X44.391Y33.706Z0F1200
G1 X44.907Y34.633Z0F1200
G1 X45.175Y35.585Z0F1200
G1 X45.111Y36.506Z0F1200
G1 X44.799Y36.998Z0F1200
G1 X44.563Y37.459Z0F1200
G1 X43.549Y36.998Z0F1200
G1 X42.906Y36.182Z0F1200
G1 X42.466Y35.25Z0F1200
G1 X42.398Y34.434Z0F1200
G1 X42.534Y33.606Z0F1200
G1 X42.736Y33.211Z0F1200
G1 X43.075Y32.782Z0F1200
G0 Z1.5F500
G0 X43.281Y40.17Z1.5F1200
G1 Z0F500
G1 X42.909Y39.803Z0F1200
G1 X43.315Y39.374Z0F1200
G1 X43.693Y39.699Z0F1200
G1 X43.281Y40.17Z0F1200
G0 Z1.5F500
G0 X46.067Y40.054Z1.5F1200
G1 Z0F500
G1 X45.691Y39.699Z0F1200
G1 X46.1Y39.269Z0F1200
G1 X46.476Y39.594Z0F1200
G1 X46.067Y40.054Z0F1200
G0 Z1.5F500
G0 X48.689Y37.302Z1.5F1200
G1 Z0F500
G1 X48.055Y37.595Z0F1200
G1 X47.507Y37.501Z0F1200
G1 X46.97Y37.103Z0F1200
G1 X46.765Y36.611Z0F1200
G1 X46.97Y35.983Z0F1200
G1 X47.475Y35.387Z0F1200
G1 X47.916Y34.79Z0F1200
G1 X48.184Y34.204Z0F1200
G1 X48.152Y33.672Z0F1200
G1 X47.744Y33.177Z0F1200
G1 X47.174Y32.848Z0F1200
G1 X46.697Y32.716Z0F1200
G1 X46.088Y32.98Z0F1200
G0 Z1.5F500
G0 X49.607Y38.024Z1.5F1200
G1 Z0F500
G1 X49.572Y37.396Z0F1200
G1 X48.794Y37.333Z0F1200
G1 X49.572Y37.427Z0F1200
G1 X50.999Y37.459Z0F1200
G1 X49.572Y37.427Z0F1200
G1 X49.369Y35.617Z0F1200
G1 X49.166Y34.403Z0F1200
G1 X48.963Y33.672Z0F1200
G1 X48.726Y32.782Z0F1200
G1 X49.505Y33.408Z0F1200
G1 X50.484Y34.466Z0F1200
G1 X51.193Y35.418Z0F1200
G0 Z1.5F500
G0 X50.896Y36.768Z1.5F1200
G1 Z0F500
G1 X51.438Y37.27Z0F1200
G1 X51.709Y37.396Z0F1200
G1 X51.234Y34.633Z0F1200
G1 X51.031Y33.672Z0F1200
G1 Y32.881Z0F1200
G1 X51.843Y33.574Z0F1200
G1 X52.482Y34.267Z0F1200
G1 X53.396Y35.418Z0F1200
G0 Z1.5F500
G0 X51.978Y39.406Z1.5F1200
G1 Z0F500
G1 Y38.851Z0F1200
G1 X51.877Y38.746Z0F1200
G0 Z1.5F500
G0 X64.805Y32.564Z1.5F1200
G1 Z0F500
G1 X65.278Y34.512Z0F1200
G1 X65.901Y36.181Z0F1200
G1 X66.4Y37.272Z0F1200
G1 X66.666Y37.92Z0F1200
G1 X65.486Y37.891Z0F1200
G1 X64.307Y38.038Z0F1200
G0 Z1.5F500
G0 X69.224Y34.574Z1.5F1200
G1 Z0F500
G1 X68.933Y34.234Z0F1200
G1 X69.249Y33.831Z0F1200
G1 X69.539Y34.14Z0F1200
G1 X69.224Y34.574Z0F1200
G0 Z1.5F500
G0 X73.144Y33.831Z1.5F1200
G1 Z0F500
G1 X72.413Y34.172Z0F1200
G1 X72.181Y34.512Z0F1200
G1 X72.098Y35.129Z0F1200
G1 X72.463Y36.063Z0F1200
G1 X73.908Y37.488Z0F1200
G1 X74.407Y38.284Z0F1200
G1 X74.506Y39.002Z0F1200
G1 X74.091Y39.405Z0F1200
G1 X73.385Y39.306Z0F1200
G1 X72.862Y38.943Z0F1200
G1 X72.596Y38.353Z0F1200
G1 X72.887Y37.517Z0F1200
G1 X73.958Y36.436Z0F1200
G1 X74.456Y35.748Z0F1200
G1 X74.556Y35.011Z0F1200
G1 X74.216Y34.264Z0F1200
G1 X73.75Y33.924Z0F1200
G1 X73.144Y33.831Z0F1200
G0 Z1.5F500
G0 X77.488Y34.574Z1.5F1200
G1 Z0F500
G1 X77.197Y34.234Z0F1200
G1 X77.513Y33.831Z0F1200
G1 X77.804Y34.14Z0F1200
G1 X77.488Y34.574Z0F1200
G0 Z1.5F500
G0 X80.885Y36.338Z1.5F1200
G1 Z0F500
G1 X81.408Y36.682Z0F1200
G1 X82.015Y36.77Z0F1200
G1 X82.513Y36.525Z0F1200
G1 X82.721Y36.033Z0F1200
G1 X82.771Y35.286Z0F1200
G1 X82.588Y34.638Z0F1200
G1 X82.139Y33.954Z0F1200
G1 X81.491Y33.707Z0F1200
G1 X80.785Y33.924Z0F1200
G1 X80.42Y34.388Z0F1200
G1 X80.204Y35.286Z0F1200
G1 X80.312Y36.367Z0F1200
G1 X80.678Y37.449Z0F1200
G1 X81.251Y38.382Z0F1200
G1 X81.99Y38.972Z0F1200
G1 X82.721Y39.218Z0F1200
G1 X83.344Y39.159Z0F1200
G0 Z1.5F500
G0 X85.835Y32.564Z1.5F1200
G1 Z0F500
G1 X86.309Y34.512Z0F1200
G1 X86.932Y36.181Z0F1200
G1 X87.43Y37.272Z0F1200
G1 X87.696Y37.92Z0F1200
G1 X86.516Y37.891Z0F1200
G1 X85.337Y38.038Z0F1200
G0 Z1.5F500
G0 X91.943Y35.643Z1.5F1200
G1 Z0F500
G1 X92.107Y36.774Z0F1200
G1 X92.461Y37.707Z0F1200
G1 X93.133Y38.401Z0F1200
G1 X93.952Y38.768Z0F1200
G1 X94.823Y38.838Z0F1200
G1 X95.582Y38.739Z0F1200
G1 X96.289Y38.362Z0F1200
G1 X96.479Y37.647Z0F1200
G1 X96.367Y37.112Z0F1200
G1 X96.048Y36.487Z0F1200
G1 X95.582Y36.12Z0F1200
G1 X95.151Y35.991Z0F1200
G1 X94.987Y36.02Z0F1200
G1 X95.66Y35.901Z0F1200
G1 X96.237Y35.524Z0F1200
G1 X96.505Y34.929Z0F1200
G1 X96.453Y34.086Z0F1200
G1 X96.125Y33.401Z0F1200
G1 X95.53Y32.835Z0F1200
G1 X94.849Y32.522Z0F1200
G1 X93.082Y32.491Z0F1200
G1 X92.84Y32.366Z0F1200
G1 X93.271Y32.928Z0F1200
G1 X93.599Y33.649Z0F1200
G1 X94.384Y38.739Z0F1200
G0 Z1.5F500
G0 X96.856Y36.179Z1.5F1200
G1 Z0F500
G1 X97.426Y36.645Z0F1200
G1 X97.589Y36.774Z0F1200
G1 X97.345Y35.524Z0F1200
G1 X97.236Y34.334Z0F1200
G1 X97.155Y33.62Z0F1200
G1 Y32.366Z0F1200
G1 X97.617Y32.866Z0F1200
G1 X98.238Y33.808Z0F1200
G1 X98.651Y34.681Z0F1200
G1 X99.083Y35.673Z0F1200
G1 X99.462Y36.675Z0F1200
G1 X99.195Y35.425Z0F1200
G1 X98.97Y34.145Z0F1200
G1 X98.841Y33.085Z0F1200
G1 X98.781Y32.334Z0F1200
G1 X99.436Y32.959Z0F1200
G1 X100.057Y33.838Z0F1200
G1 X100.686Y34.77Z0F1200
G0 Z1.5F500
G0 X100.633Y36.12Z1.5F1200
G1 Z0F500
G1 X101.149Y36.616Z0F1200
G1 X101.393Y36.804Z0F1200
G1 X101.258Y36.05Z0F1200
G1 X101.095Y34.741Z0F1200
G1 X100.932Y33.838Z0F1200
G1 X100.823Y32.991Z0F1200
G1 X100.769Y32.46Z0F1200
G1 X100.797Y32.303Z0F1200
G1 X100.769Y32.959Z0F1200
G1 X101.34Y33.868Z0F1200
G1 X101.773Y34.83Z0F1200
G1 X102.264Y35.643Z0F1200
G1 X102.781Y36.338Z0F1200
G1 X103.049Y36.705Z0F1200
G1 X103.187Z0F1200
G1 X103.264Y36.05Z0F1200
G1 X103.049Y34.83Z0F1200
G1 X102.859Y33.897Z0F1200
G1 X102.695Y33.178Z0F1200
G1 X102.557Y32.272Z0F1200
G1 X103.049Y32.741Z0F1200
G1 X103.756Y33.58Z0F1200
G1 X104.135Y34.205Z0F1200
G1 X104.514Y34.77Z0F1200
G0 Z1.5F500
G0 X108.619Y39.711Z1.5F1200
G1 Z0F500
G1 X107.963Z0F1200
G1 X107.368Y39.304Z0F1200
G1 X107.015Y38.62Z0F1200
G1 X106.825Y37.677Z0F1200
G1 X106.687Y36.526Z0F1200
G1 X106.61Y35.901Z0F1200
G1 X106.196Y34.989Z0F1200
G1 X105.627Y33.838Z0F1200
G1 X105.084Y32.959Z0F1200
G1 X104.514Y32.366Z0F1200
G1 X104.406Y33.52Z0F1200
G1 X104.542Y34.899Z0F1200
G1 X104.868Y35.772Z0F1200
G1 X105.14Y36.209Z0F1200
G1 X105.549Y36.457Z0F1200
G1 X105.98Y36.586Z0F1200
G1 X106.411Y36.526Z0F1200
G1 X106.61Y36.268Z0F1200
G1 X106.498Y35.118Z0F1200
G1 X106.385Y33.739Z0F1200
G1 X106.144Y32.303Z0F1200
G1 X106.765Y32.866Z0F1200
G1 X107.498Y33.897Z0F1200
G1 X108.075Y34.77Z0F1200
G0 Z1.5F500
G0 X108.077Y34.364Z1.5F1200
G1 Z0F500
G1 X108.675Y34.8Z0F1200
G1 X109.412Y35.643Z0F1200
G1 X109.679Y36.08Z0F1200
G1 X109.757Y36.556Z0F1200
G1 X109.601Y36.745Z0F1200
G1 X109.248Y36.774Z0F1200
G1 X108.675Y36.338Z0F1200
G1 X108.239Y35.614Z0F1200
G1 X107.995Y34.552Z0F1200
G1 X107.887Y33.709Z0F1200
G1 X108.022Y33.022Z0F1200
G1 X108.321Y32.522Z0F1200
G1 X108.593Y32.209Z0F1200
G1 X109.515Y33.302Z0F1200
G1 X110.11Y34.086Z0F1200
G1 X110.524Y34.77Z0F1200
G0 Z1.5F500
G0 X112.8Y36.556Z1.5F1200
G1 Z0F500
G1 X112.292Y36.834Z0F1200
G1 X111.852Y36.745Z0F1200
G1 X111.421Y36.368Z0F1200
G1 X111.256Y35.901Z0F1200
G1 X111.421Y35.306Z0F1200
G1 X111.826Y34.741Z0F1200
G1 X112.179Y34.175Z0F1200
G1 X112.395Y33.62Z0F1200
G1 X112.369Y33.116Z0F1200
G1 X112.041Y32.646Z0F1200
G1 X111.585Y32.334Z0F1200
G1 X111.202Y32.209Z0F1200
G1 X110.713Y32.46Z0F1200
G0 Z1.5F500
G0 X112.911Y36.179Z1.5F1200
G1 Z0F500
G1 X113.59Y36.745Z0F1200
G1 X112.885Y31.428Z0F1200
G1 X112.667Y30.644Z0F1200
G1 X111.852Y29.989Z0F1200
G1 X113.373Y30.931Z0F1200
G0 Z1.5F500
G0 X113.292Y33.897Z1.5F1200
G1 Z0F500
G1 X113.373Y33.957Z0F1200
G1 X113.618Y34.929Z0F1200
G1 X114.188Y35.832Z0F1200
G1 X114.706Y36.457Z0F1200
G1 X114.999Y36.705Z0F1200
G1 X115.137Y35.832Z0F1200
G1 X115.111Y34.929Z0F1200
G1 X114.921Y33.957Z0F1200
G1 X114.654Y33.116Z0F1200
G1 X114.326Y32.584Z0F1200
G1 X113.889Y32.397Z0F1200
G1 X113.537Y32.46Z0F1200
G1 X113.319Y32.646Z0F1200
G1 X113.101Y33.053Z0F1200
G0 Z1.5F500
G0 X117.965Y39.711Z1.5F1200
G1 Z0F500
G1 X117.56Y39.8Z0F1200
G1 X116.93Y39.522Z0F1200
G1 X116.39Y38.768Z0F1200
G1 X116.199Y37.836Z0F1200
G1 X115.602Y33.302Z0F1200
G1 X115.52Y32.272Z0F1200
G1 X116.172Y32.928Z0F1200
G1 X117.016Y34.086Z0F1200
G1 X117.447Y34.77Z0F1200
G0 Z1.5F500
G0 X119.784Y36.457Z1.5F1200
G1 Z0F500
G1 X118.836Y36.526Z0F1200
G1 X118.154Y36.179Z0F1200
G1 X117.665Y35.177Z0F1200
G1 X117.475Y33.897Z0F1200
G1 Y32.896Z0F1200
G1 X117.556Y32.397Z0F1200
G1 X118.073Y32.991Z0F1200
G1 X118.81Y34.175Z0F1200
G1 X119.267Y35.058Z0F1200
G1 X119.62Y35.901Z0F1200
G1 X119.784Y36.338Z0F1200
G1 X119.405Y34.393Z0F1200
G1 X119.215Y33.431Z0F1200
G1 X119.155Y32.896Z0F1200
G1 X119.103Y32.366Z0F1200
G1 X119.646Y32.772Z0F1200
G1 X120.595Y34.086Z0F1200
G1 X121.009Y34.741Z0F1200
G0 Z1.5F500
G0 X121.253Y37.241Z1.5F1200
G1 Z0F500
G1 X121.226Y36.645Z0F1200
G1 X120.601Y36.586Z0F1200
G1 X121.226Y36.675Z0F1200
G1 X122.371Y36.705Z0F1200
G1 X121.226Y36.675Z0F1200
G1 X121.063Y34.959Z0F1200
G1 X120.9Y33.808Z0F1200
G1 X120.737Y33.116Z0F1200
G1 X120.546Y32.272Z0F1200
G1 X121.171Y32.866Z0F1200
G1 X121.957Y33.868Z0F1200
G1 X122.526Y34.77Z0F1200
G0 Z1.5F500
G0 X123.347Y36.12Z1.5F1200
G1 Z0F500
G1 X123.914Y36.556Z0F1200
G1 X124.268Y36.616Z0F1200
G1 X124.975Y36.526Z0F1200
G1 X125.466Z0F1200
G1 X122.912Y32.303Z0F1200
G1 X123.457Y32.553Z0F1200
G1 X124.164Y32.491Z0F1200
G1 X125.19Y32.272Z0F1200
G1 X125.544Y32.584Z0F1200
G0 Z1.5F500
G0 X130.225Y36.179Z1.5F1200
G1 Z0F500
G1 X130.924Y36.586Z0F1200
G1 X131.717Y36.645Z0F1200
G1 X132.07Y36.268Z0F1200
G1 X132.234Y35.643Z0F1200
G1 X132.045Y35.018Z0F1200
G1 X131.605Y34.522Z0F1200
G1 X131.087Y34.116Z0F1200
G1 X131.665Y34.056Z0F1200
G1 X132.07Y33.709Z0F1200
G1 X132.234Y33.147Z0F1200
G1 X132.174Y32.522Z0F1200
G1 X131.907Y31.991Z0F1200
G1 X131.415Y31.491Z0F1200
G1 X130.734Y31.397Z0F1200
G1 X130.031Y31.521Z0F1200
G1 X129.488Y31.772Z0F1200
G0 Z1.5F500
G0 X144.187Y34.073Z1.5F1200
G1 Z0F500
G1 X144.502Y34.816Z0F1200
G1 X144.893Y35.502Z0F1200
G1 X145.334Y36.149Z0F1200
G1 X146.267Y37.406Z0F1200
G1 X146.709Y38.054Z0F1200
G1 X147.101Y38.739Z0F1200
G1 X147.418Y39.481Z0F1200
G1 Y39.491Z0F1200
G1 X147.406Y39.461Z0F1200
G1 X147.387Y39.394Z0F1200
G1 X147.118Y38.295Z0F1200
G1 X147.021Y37.917Z0F1200
G1 X146.927Y37.58Z0F1200
G1 X146.843Y37.32Z0F1200
G1 X146.794Y37.092Z0F1200
G1 X146.72Y36.841Z0F1200
G1 X146.628Y36.572Z0F1200
G1 X146.313Y35.708Z0F1200
G1 X146.141Y35.132Z0F1200
G1 X146.087Y34.859Z0F1200
G1 X146.065Y34.603Z0F1200
G1 X146.08Y34.367Z0F1200
G1 X146.141Y34.158Z0F1200
G1 X146.255Y33.979Z0F1200
G1 X146.427Y33.837Z0F1200
G1 X146.666Y33.735Z0F1200
G1 X146.978Y33.678Z0F1200
G1 X147.166Y33.689Z0F1200
G1 X147.351Y33.733Z0F1200
G1 X147.521Y33.822Z0F1200
G1 X147.667Y33.963Z0F1200
G0 Z1.5F500
G0 X143.73Y36.62Z1.5F1200
G1 Z0F500
G1 X144.765Y36.867Z0F1200
G1 X145.786Y37.207Z0F1200
G1 X146.299Y37.352Z0F1200
G1 X146.816Y37.448Z0F1200
G1 X147.341Y37.471Z0F1200
G1 X147.875Y37.398Z0F1200
G0 Z1.5F500
G0 X149.85Y34.404Z1.5F1200
G1 Z0F500
G1 X149.744Y34.434Z0F1200
G1 X149.626Z0F1200
G1 X149.5Y34.403Z0F1200
G1 X149.37Y34.352Z0F1200
G1 X149.122Y34.198Z0F1200
G1 X148.92Y34.007Z0F1200
G1 X148.849Y33.909Z0F1200
G1 X148.804Y33.816Z0F1200
G1 X148.79Y33.731Z0F1200
G1 X148.811Y33.659Z0F1200
G1 X148.873Y33.605Z0F1200
G1 X148.981Y33.573Z0F1200
G1 X149.14Y33.568Z0F1200
G1 X149.353Y33.595Z0F1200
G0 Z1.5F500
G0 X152.683Y34.165Z1.5F1200
G1 Z0F500
G1 X152.857Y33.972Z0F1200
G1 X153.035Y33.848Z0F1200
G1 X153.215Y33.786Z0F1200
G1 X153.398Y33.781Z0F1200
G1 X153.581Y33.825Z0F1200
G1 X153.765Y33.911Z0F1200
G1 X153.947Y34.034Z0F1200
G1 X154.127Y34.186Z0F1200
G1 X154.478Y34.552Z0F1200
G1 X154.81Y34.957Z0F1200
G1 X155.114Y35.345Z0F1200
G1 X155.384Y35.666Z0F1200
G1 X155.725Y36.214Z0F1200
G1 X156.025Y36.788Z0F1200
G1 X156.288Y37.384Z0F1200
G1 X156.518Y37.999Z0F1200
G1 X156.898Y39.265Z0F1200
G1 X157.204Y40.555Z0F1200
G1 X157.35Y40.53Z0F1200
G1 X157.49Y40.462Z0F1200
G1 X157.622Y40.354Z0F1200
G1 X157.745Y40.212Z0F1200
G1 X157.964Y39.844Z0F1200
G1 X158.143Y39.394Z0F1200
G1 X158.275Y38.902Z0F1200
G1 X158.358Y38.403Z0F1200
G1 X158.385Y37.937Z0F1200
G1 X158.353Y37.539Z0F1200
G1 X158.316Y37.333Z0F1200
G1 X158.235Y37.119Z0F1200
G1 X158.117Y36.902Z0F1200
G1 X157.968Y36.688Z0F1200
G1 X157.604Y36.291Z0F1200
G1 X157.193Y35.973Z0F1200
G1 X156.985Y35.857Z0F1200
G1 X156.786Y35.779Z0F1200
G1 X156.6Y35.742Z0F1200
G1 X156.434Y35.753Z0F1200
G1 X156.295Y35.818Z0F1200
G1 X156.188Y35.942Z0F1200
G1 X156.121Y36.131Z0F1200
G1 X156.1Y36.39Z0F1200
G1 X156.244Y36.589Z0F1200
G1 X156.415Y36.746Z0F1200
G1 X156.611Y36.863Z0F1200
G1 X156.825Y36.943Z0F1200
G1 X157.055Y36.987Z0F1200
G1 X157.296Y36.998Z0F1200
G1 X157.542Y36.978Z0F1200
G1 X157.791Y36.929Z0F1200
G1 X158.036Y36.853Z0F1200
G1 X158.275Y36.753Z0F1200
G1 X158.503Y36.629Z0F1200
G1 X158.714Y36.485Z0F1200
G1 X158.906Y36.323Z0F1200
G1 X159.073Y36.144Z0F1200
G1 X159.211Y35.951Z0F1200
G1 X159.316Y35.746Z0F1200
G1 X159.373Y35.507Z0F1200
G1 X159.386Y35.267Z0F1200
G1 X159.36Y35.028Z0F1200
G1 X159.3Y34.793Z0F1200
G1 X159.099Y34.34Z0F1200
G1 X158.824Y33.926Z0F1200
G1 X158.517Y33.568Z0F1200
G1 X158.22Y33.285Z0F1200
G1 X158.088Y33.176Z0F1200
G1 X157.974Y33.092Z0F1200
G1 X157.883Y33.036Z0F1200
G1 X157.821Y33.008Z0F1200
G1 X158.09Y33.048Z0F1200
G1 X158.344Y33.118Z0F1200
G1 X158.584Y33.217Z0F1200
G1 X158.811Y33.341Z0F1200
G1 X159.235Y33.65Z0F1200
G1 X159.628Y34.021Z0F1200
G1 X160.374Y34.844Z0F1200
G1 X161.151Y35.604Z0F1200
G1 X161.278Y35.703Z0F1200
G1 X161.375Y35.822Z0F1200
G1 X161.444Y35.956Z0F1200
G1 X161.488Y36.1Z0F1200
G1 X161.506Y36.391Z0F1200
G1 X161.445Y36.649Z0F1200
G1 X161.391Y36.751Z0F1200
G1 X161.322Y36.828Z0F1200
G1 X161.241Y36.873Z0F1200
G1 X161.151Y36.882Z0F1200
G1 X161.053Y36.847Z0F1200
G1 X160.95Y36.764Z0F1200
G1 X160.842Y36.626Z0F1200
G1 X160.6Y36.183Z0F1200
G1 X160.494Y35.916Z0F1200
G1 X160.417Y35.634Z0F1200
G1 X160.366Y35.338Z0F1200
G1 X160.342Y35.036Z0F1200
G1 X160.346Y34.73Z0F1200
G1 X160.375Y34.426Z0F1200
G1 X160.43Y34.128Z0F1200
G1 X160.512Y33.84Z0F1200
G1 X160.618Y33.567Z0F1200
G1 X160.749Y33.314Z0F1200
G1 X160.905Y33.085Z0F1200
G1 X161.086Y32.885Z0F1200
G1 X161.29Y32.719Z0F1200
G1 X161.518Y32.589Z0F1200
G1 X161.77Y32.503Z0F1200
G1 X162.009Y32.497Z0F1200
G1 X162.235Y32.53Z0F1200
G1 X162.448Y32.601Z0F1200
G1 X162.645Y32.705Z0F1200
G1 X162.828Y32.84Z0F1200
G1 X162.995Y33.001Z0F1200
G1 X163.146Y33.186Z0F1200
G1 X163.28Y33.392Z0F1200
G1 X163.495Y33.85Z0F1200
G1 X163.635Y34.349Z0F1200
G1 X163.694Y34.863Z0F1200
G1 X163.669Y35.366Z0F1200
G1 X163.638Y35.58Z0F1200
G1 X163.579Y35.738Z0F1200
G1 X163.498Y35.846Z0F1200
G1 X163.4Y35.91Z0F1200
G1 X163.294Y35.936Z0F1200
G1 X163.184Y35.93Z0F1200
G1 X163.078Y35.898Z0F1200
G1 X162.982Y35.845Z0F1200
G1 X162.902Y35.777Z0F1200
G1 X162.846Y35.702Z0F1200
G1 X162.819Y35.623Z0F1200
G1 X162.828Y35.548Z0F1200
G1 X162.88Y35.482Z0F1200
G1 X162.981Y35.431Z0F1200
G1 X163.137Y35.402Z0F1200
G1 X163.355Y35.399Z0F1200
G1 X165.067Y35.123Z0F1200
G1 X166.788Y34.892Z0F1200
G1 X167.645Y34.761Z0F1200
G1 X168.497Y34.605Z0F1200
G1 X169.343Y34.409Z0F1200
G1 X170.178Y34.163Z0F1200
G1 X170.358Y34.134Z0F1200
G1 X170.521Y34.157Z0F1200
G1 X170.666Y34.225Z0F1200
G1 X170.793Y34.331Z0F1200
G1 X170.99Y34.622Z0F1200
G1 X171.106Y34.969Z0F1200
G1 X171.132Y35.145Z0F1200
G1 X171.136Y35.312Z0F1200
G1 X171.118Y35.463Z0F1200
G1 X171.076Y35.59Z0F1200
G1 X171.01Y35.685Z0F1200
G1 X170.92Y35.74Z0F1200
G1 X170.805Y35.748Z0F1200
G1 X170.664Y35.702Z0F1200
G1 X170.48Y35.286Z0F1200
G1 X170.261Y34.819Z0F1200
G1 X170.025Y34.324Z0F1200
G1 X169.793Y33.825Z0F1200
G1 X169.587Y33.346Z0F1200
G1 X169.425Y32.909Z0F1200
G1 X169.368Y32.715Z0F1200
G1 X169.33Y32.54Z0F1200
G1 X169.312Y32.388Z0F1200
G1 X169.319Y32.261Z0F1200
G1 X169.825Y32.812Z0F1200
G1 X170.283Y33.408Z0F1200
G1 X170.705Y34.039Z0F1200
G1 X171.101Y34.696Z0F1200
G1 X171.854Y36.045Z0F1200
G1 X172.626Y37.373Z0F1200
G1 X172.897Y37.879Z0F1200
G1 X173.146Y38.406Z0F1200
G1 X173.366Y38.952Z0F1200
G1 X173.552Y39.513Z0F1200
G1 X173.697Y40.087Z0F1200
G1 X173.795Y40.671Z0F1200
G1 X173.839Y41.262Z0F1200
G1 X173.823Y41.857Z0F1200
G1 X173.703Y41.57Z0F1200
G1 X173.614Y41.23Z0F1200
G1 X173.551Y40.849Z0F1200
G1 X173.506Y40.441Z0F1200
G1 X173.448Y39.597Z0F1200
G1 X173.388Y38.807Z0F1200
G1 X173.33Y37.854Z0F1200
G1 X173.206Y36.915Z0F1200
G1 X173.032Y35.986Z0F1200
G1 X172.825Y35.064Z0F1200
G1 X172.379Y33.226Z0F1200
G1 X172.004Y31.371Z0F1200
G1 X172.482Y31.627Z0F1200
G1 X172.942Y31.918Z0F1200
G1 X173.387Y32.238Z0F1200
G1 X173.823Y32.575Z0F1200
G1 X174.685Y33.27Z0F1200
G1 X175.564Y33.93Z0F1200
G0 Z1.5F500
G0 X165.831Y38.573Z1.5F1200
G1 Z0F500
G1 X166.042Y38.625Z0F1200
G1 X166.163Y38.653Z0F1200
G1 X166.209Y38.66Z0F1200
G1 X166.192Y38.649Z0F1200
G1 X165.892Y38.534Z0F1200
G1 X165.752Y38.479Z0F1200
G1 X165.614Y38.419Z0F1200
G1 X165.49Y38.359Z0F1200
G1 X165.394Y38.3Z0F1200
G1 X165.338Y38.246Z0F1200
G1 Y38.199Z0F1200
G1 X165.4Y38.163Z0F1200
G1 X165.543Y38.139Z0F1200
G1 X165.779Y38.132Z0F1200
G1 X167.869Y38.205Z0F1200
G1 X169.96Y38.326Z0F1200
G1 X172.045Y38.519Z0F1200
G1 X174.119Y38.808Z0F1200
G1 X174.899Y39.163Z0F1200
G1 X175.676Y39.527Z0F1200
G0 Z1.5F500
G0 X160.857Y40.208Z1.5F1200
G1 Z0F500
G1 X160.896Y39.814Z0F1200
G1 X161.05Y39.041Z0F1200
G1 X161.085Y38.647Z0F1200
G0 Z1.5F500
G0 X162.518Y40.312Z1.5F1200
G1 Z0F500
G1 X162.563Y39.674Z0F1200
G1 X162.597Y39.035Z0F1200
G1 X162.64Y38.397Z0F1200
G1 X162.711Y37.762Z0F1200
G0 Z1.5F500
G0 X177.337Y41.829Z1.5F1200
G1 Z0F500
G1 X177.351Y41.438Z0F1200
G1 X177.271Y41.075Z0F1200
G1 X177.129Y40.731Z0F1200
G1 X176.957Y40.397Z0F1200
G1 X176.788Y40.063Z0F1200
G1 X176.654Y39.721Z0F1200
G1 X176.61Y39.543Z0F1200
G1 X176.587Y39.36Z0F1200
G1 Y39.171Z0F1200
G1 X176.62Y38.973Z0F1200
G0 Z1.5F500
G0 X63.561Y49.686Z1.5F1200
G1 Z0F500
G1 X63.991Y49.738Z0F1200
G1 X64.567Y49.816Z0F1200
G1 X65.171Y50.023Z0F1200
G1 X65.748Y50.335Z0F1200
G1 X66.281Y50.773Z0F1200
G1 X66.671Y51.243Z0F1200
G1 X66.887Y51.762Z0F1200
G1 X67.042Y52.207Z0F1200
G1 X67.067Y52.644Z0F1200
G1 X66.975Y52.957Z0F1200
G1 X66.698Y53.188Z0F1200
G1 X66.256Y53.32Z0F1200
G1 X65.663Y53.246Z0F1200
G1 X65.174Y53.04Z0F1200
G1 X64.803Y52.8Z0F1200
G1 X65.798Y55.323Z0F1200
G1 X68.133Z0F1200
G0 Z1.5F500
G0 X67.584Y50.439Z1.5F1200
G1 Z0F500
G1 X67.378Y50.309Z0F1200
G1 X67.214Y50.049Z0F1200
G1 X67.249Y49.894Z0F1200
G1 X67.349Y49.841Z0F1200
G1 X67.472Y49.868Z0F1200
G1 X67.652Y50.049Z0F1200
G1 X67.733Y50.283Z0F1200
G1 X67.706Y50.387Z0F1200
G1 X67.584Y50.439Z0F1200
G0 Z1.5F500
G0 X70.181Y53.369Z1.5F1200
G1 Z0F500
G1 X71.684Z0F1200
G1 X71.998Y53.188Z0F1200
G1 X72.214Y52.932Z0F1200
G1 X72.331Y52.512Z0F1200
G1 X72.282Y52.1Z0F1200
G1 X72.096Y51.556Z0F1200
G1 X71.837Y51.012Z0F1200
G1 X71.404Y50.517Z0F1200
G1 X71.006Y50.154Z0F1200
G1 X70.515Y49.894Z0F1200
G1 X70.037Y49.868Z0F1200
G1 X69.695Y49.945Z0F1200
G1 X69.427Y50.231Z0F1200
G1 X69.253Y50.723Z0F1200
G1 X69.306Y51.424Z0F1200
G1 X69.542Y52.1Z0F1200
G1 X69.856Y52.85Z0F1200
G1 X70.1Y53.27Z0F1200
G1 X70.487Y53.864Z0F1200
G1 X70.984Y54.466Z0F1200
G1 X71.592Y54.96Z0F1200
G1 X72.19Y55.348Z0F1200
G1 X72.746Y55.578Z0F1200
G1 X73.216Y55.554Z0F1200
G0 Z1.5F500
G0 X72.829Y50.439Z1.5F1200
G1 Z0F500
G1 X72.623Y50.309Z0F1200
G1 X72.459Y50.049Z0F1200
G1 X72.494Y49.894Z0F1200
G1 X72.594Y49.841Z0F1200
G1 X72.717Y49.868Z0F1200
G1 X72.898Y50.049Z0F1200
G1 X72.978Y50.283Z0F1200
G1 X72.951Y50.387Z0F1200
G1 X72.829Y50.439Z0F1200
G0 Z1.5F500
G0 X74.058Y49.92Z1.5F1200
G1 Z0F500
G1 X75.272Z0F1200
G1 X74.668Z0F1200
G1 X76.814Y55.372Z0F1200
G1 X75.512Y54.334Z0F1200
G0 Z1.5F500
G0 X76.408Y49.686Z1.5F1200
G1 Z0F500
G1 X76.816Y49.712Z0F1200
G1 X77.324Y49.92Z0F1200
G1 X77.815Y50.179Z0F1200
G1 X78.303Y50.517Z0F1200
G1 X78.809Y51.061Z0F1200
G1 X79.28Y51.63Z0F1200
G1 X79.646Y52.281Z0F1200
G1 X79.988Y52.932Z0F1200
G1 X80.199Y53.526Z0F1200
G1 X80.361Y54.202Z0F1200
G1 X80.291Y54.804Z0F1200
G1 X80.069Y55.24Z0F1200
G1 X79.784Y55.397Z0F1200
G1 X79.386Z0F1200
G1 X78.874Y55.265Z0F1200
G1 X78.319Y54.878Z0F1200
G1 X77.95Y54.49Z0F1200
G1 X77.624Y53.922Z0F1200
G1 X77.384Y53.369Z0F1200
G1 X77.278Y52.751Z0F1200
G1 X77.339Y52.413Z0F1200
G1 X77.48Y52.149Z0F1200
G1 X77.818Y51.918Z0F1200
G1 X78.221Y51.869Z0F1200
G1 X79.422Z0F1200
G0 Z1.5F500
G0 X81.209Y49.868Z1.5F1200
G1 Z0F500
G1 X81.718Y49.92Z0F1200
G1 X82.311Y50.154Z0F1200
G1 X82.868Y50.591Z0F1200
G1 X83.186Y51.086Z0F1200
G1 X83.329Y51.556Z0F1200
G1 X83.299Y51.943Z0F1200
G1 X83.128Y52.232Z0F1200
G1 X82.874Y52.413Z0F1200
G1 X82.419Y52.702Z0F1200
G1 X82.004Y52.932Z0F1200
G1 X81.664Y53.221Z0F1200
G1 X81.549Y53.584Z0F1200
G1 X81.62Y54.128Z0F1200
G1 X81.86Y54.622Z0F1200
G1 X82.372Y55.117Z0F1200
G1 X82.928Y55.348Z0F1200
G1 X83.424Y55.422Z0F1200
G1 X83.773Y55.372Z0F1200
G1 X84.196Y55.166Z0F1200
G1 X84.35Y54.746Z0F1200
G1 X84.288Y54.309Z0F1200
G1 X84.085Y53.814Z0F1200
G1 X83.652Y53.345Z0F1200
G1 X83.161Y53.064Z0F1200
G1 X82.585Y52.825Z0F1200
G1 X81.796Y52.512Z0F1200
G1 X81.233Y52.256Z0F1200
G1 X80.787Y51.918Z0F1200
G1 X80.492Y51.605Z0F1200
G1 X80.208Y50.962Z0F1200
G1 X80.197Y50.492Z0F1200
G1 X80.337Y50.154Z0F1200
G1 X80.62Y49.945Z0F1200
G1 X80.962Y49.868Z0F1200
G1 X81.209Z0F1200
G0 Z1.5F500
G0 X83.83Y49.92Z1.5F1200
G1 Z0F500
G1 X85.044Z0F1200
G1 X84.44Z0F1200
G1 X86.586Y55.372Z0F1200
G1 X85.285Y54.334Z0F1200
G0 Z1.5F500
G0 X6.759Y49.884Z1.5F1200
G1 Z0F500
G1 X8.601Z0F1200
G1 X9.109Y50.06Z0F1200
G1 X9.615Y50.379Z0F1200
G1 X10.237Y50.987Z0F1200
G1 X10.709Y51.596Z0F1200
G1 X11.117Y52.298Z0F1200
G1 X11.497Y53.314Z0F1200
G1 X11.681Y54.071Z0F1200
G1 X11.694Y54.828Z0F1200
G1 X11.594Y55.354Z0F1200
G1 X11.299Y55.761Z0F1200
G1 X10.932Y55.964Z0F1200
G1 X9.05Z0F1200
G1 X9.64Z0F1200
G1 X7.358Y49.914Z0F1200
G0 Z1.5F500
G0 X12.459Y49.797Z1.5F1200
G1 Z0F500
G1 X12.883Y49.856Z0F1200
G1 X13.432Y50.205Z0F1200
G1 X13.964Y50.756Z0F1200
G1 X14.372Y51.458Z0F1200
G1 X14.684Y52.215Z0F1200
G1 X14.853Y52.852Z0F1200
G1 X14.868Y53.461Z0F1200
G1 X14.719Y53.868Z0F1200
G1 X14.429Y54.163Z0F1200
G1 X14.128Y54.219Z0F1200
G1 X13.609Y54.136Z0F1200
G1 X12.938Y53.609Z0F1200
G1 X12.435Y52.972Z0F1200
G1 X12.017Y52.15Z0F1200
G1 X11.753Y51.365Z0F1200
G1 X11.698Y50.673Z0F1200
G1 X11.807Y50.118Z0F1200
G1 X12.139Y49.827Z0F1200
G1 X12.459Y49.797Z0F1200
G0 Z1.5F500
G0 X14.595Y49.856Z1.5F1200
G1 Z0F500
G1 X15.7Z0F1200
G1 X15.186Z0F1200
G1 X16.808Y54.163Z0F1200
G1 X16.235Z0F1200
G1 X16.784Z0F1200
G1 X16.385Y53.055Z0F1200
G1 X16.908Y53.637Z0F1200
G1 X17.468Y54.099Z0F1200
G1 X17.896Y54.191Z0F1200
G1 X18.222Y54.099Z0F1200
G1 X18.333Y53.812Z0F1200
G1 Y53.258Z0F1200
G1 X18.2Y52.76Z0F1200
G1 X17.105Y49.884Z0F1200
G1 X16.59Z0F1200
G1 X17.625Z0F1200
G1 X17.122Z0F1200
G1 X18.235Y52.824Z0F1200
G1 X18.405Y53.111Z0F1200
G1 X18.854Y53.637Z0F1200
G1 X19.378Y54.071Z0F1200
G1 X19.778Y54.191Z0F1200
G1 X20.073Y54.136Z0F1200
G1 X20.249Y53.895Z0F1200
G1 X20.321Y53.461Z0F1200
G1 X20.199Y52.935Z0F1200
G1 X19.057Y49.884Z0F1200
G1 X18.525Z0F1200
G1 X19.595Z0F1200
G0 Z1.5F500
G0 X20.229Y49.856Z1.5F1200
G1 Z0F500
G1 X21.446Z0F1200
G1 X20.82Z0F1200
G1 X22.442Y54.163Z0F1200
G1 X21.851Z0F1200
G0 Z1.5F500
G0 X22.749Y55.059Z1.5F1200
G1 Z0F500
G1 X22.958Y55.207Z0F1200
G1 X23.054Y55.438Z0F1200
G1 X23Y55.585Z0F1200
G1 X22.822Y55.53Z0F1200
G1 X22.685Y55.299Z0F1200
G1 X22.67Y55.179Z0F1200
G1 X22.749Y55.059Z0F1200
G0 Z1.5F500
G0 X22.072Y49.856Z1.5F1200
G1 Z0F500
G1 X23.123Z0F1200
G1 X22.626Z0F1200
G1 X24.24Y54.136Z0F1200
G1 X23.685Z0F1200
G1 X24.24Z0F1200
G1 X23.794Y52.935Z0F1200
G1 X24.333Y53.582Z0F1200
G1 X24.751Y53.923Z0F1200
G1 X25.173Y54.191Z0F1200
G1 X25.496Y54.219Z0F1200
G1 X25.818Y54.136Z0F1200
G1 X26.053Y53.895Z0F1200
G1 X26.101Y53.461Z0F1200
G1 X26.042Y53.083Z0F1200
G1 X25.879Y52.621Z0F1200
G1 X24.851Y49.914Z0F1200
G1 X24.337Z0F1200
G1 X25.459Z0F1200
G0 Z1.5F500
G0 X26.01Y49.856Z1.5F1200
G1 Z0F500
G1 X27.226Z0F1200
G1 X26.601Z0F1200
G1 X28.222Y54.163Z0F1200
G1 X27.632Z0F1200
G0 Z1.5F500
G0 X28.53Y55.059Z1.5F1200
G1 Z0F500
G1 X28.739Y55.207Z0F1200
G1 X28.835Y55.438Z0F1200
G1 X28.78Y55.585Z0F1200
G1 X28.602Y55.53Z0F1200
G1 X28.465Y55.299Z0F1200
G1 X28.451Y55.179Z0F1200
G1 X28.53Y55.059Z0F1200
G0 Z1.5F500
G0 X30.009Y55.964Z1.5F1200
G1 Z0F500
G1 X30.611Z0F1200
G1 X28.321Y49.884Z0F1200
G1 X27.731Z0F1200
G1 X28.852Z0F1200
G1 X28.338Z0F1200
G1 X28.798Y51.134Z0F1200
G1 X31.657Y54.136Z0F1200
G1 X32.154Z0F1200
G1 X31.014Z0F1200
G1 X31.657Z0F1200
G1 X30.029Y52.446Z0F1200
G1 X30.23Y49.856Z0F1200
G1 X30.727Z0F1200
G1 X29.622Z0F1200
G0 Z1.5F500
G0 X33.52Z1.5F1200
G1 Z0F500
G1 X34.66Z0F1200
G1 X34.129Z0F1200
G1 X36.412Y55.909Z0F1200
G1 X35.827Z0F1200
G1 X36.523Z0F1200
G1 X36.003Y49.914Z0F1200
G1 X40.048Y55.936Z0F1200
G1 X40.726Z0F1200
G1 X40.124Z0F1200
G1 X37.828Y49.856Z0F1200
G1 X37.331Z0F1200
G1 X38.418Z0F1200
G0 Z1.5F500
G0 X40.885Y53.692Z1.5F1200
G1 Z0F500
G1 X41.336Y54.071Z0F1200
G1 X41.845Y54.246Z0F1200
G1 X42.309Y54.191Z0F1200
G1 X42.59Y54.016Z0F1200
G1 X42.69Y53.489Z0F1200
G1 X42.609Y53.027Z0F1200
G1 X41.855Y51.024Z0F1200
G1 X41.407Y50.525Z0F1200
G1 X40.838Y50.03Z0F1200
G1 X40.349Y49.797Z0F1200
G1 X39.833Y49.856Z0F1200
G1 X39.557Y50.205Z0F1200
G1 X39.552Y50.673Z0F1200
G1 X39.744Y51.19Z0F1200
G1 X40.112Y51.744Z0F1200
G1 X40.699Y52.15Z0F1200
G1 X41.237Y52.243Z0F1200
G1 X42.307Z0F1200
G1 X41.424Y49.884Z0F1200
G1 X41.991Z0F1200
G0 Z1.5F500
G0 X44.888Y55.936Z1.5F1200
G1 Z0F500
G1 X45.455Z0F1200
G1 X43.172Y49.884Z0F1200
G1 X42.619Z0F1200
G1 X43.686Z0F1200
G1 X43.172Z0F1200
G1 X44.356Y53.027Z0F1200
G1 X44.889Y53.582Z0F1200
G1 X45.372Y54.016Z0F1200
G1 X45.87Y54.219Z0F1200
G1 X46.198Z0F1200
G1 X46.484Y54.043Z0F1200
G1 X46.62Y53.785Z0F1200
G1 X46.641Y53.314Z0F1200
G1 X46.452Y52.732Z0F1200
G1 X45.374Y49.856Z0F1200
G1 X44.859Z0F1200
G1 X45.923Z0F1200
G0 Z1.5F500
G0 X46.573Z1.5F1200
G1 Z0F500
G1 X47.624Z0F1200
G1 X47.127Z0F1200
G1 X48.741Y54.136Z0F1200
G1 X48.186Z0F1200
G1 X48.741Z0F1200
G1 X48.294Y52.935Z0F1200
G1 X48.834Y53.582Z0F1200
G1 X49.252Y53.923Z0F1200
G1 X49.674Y54.191Z0F1200
G1 X49.997Y54.219Z0F1200
G1 X50.319Y54.136Z0F1200
G1 X50.554Y53.895Z0F1200
G1 X50.602Y53.461Z0F1200
G1 X50.543Y53.083Z0F1200
G1 X50.379Y52.621Z0F1200
G1 X49.352Y49.914Z0F1200
G1 X48.837Z0F1200
G1 X49.96Z0F1200
G0 Z1.5F500
G0 X50.51Y49.856Z1.5F1200
G1 Z0F500
G1 X51.727Z0F1200
G1 X51.101Z0F1200
G1 X52.723Y54.163Z0F1200
G1 X52.133Z0F1200
G0 Z1.5F500
G0 X53.031Y55.059Z1.5F1200
G1 Z0F500
G1 X53.239Y55.207Z0F1200
G1 X53.335Y55.438Z0F1200
G1 X53.281Y55.585Z0F1200
G1 X53.103Y55.53Z0F1200
G1 X52.966Y55.299Z0F1200
G1 X52.951Y55.179Z0F1200
G1 X53.031Y55.059Z0F1200
G0 Z1.5F500
G0 X56.387Y54.163Z1.5F1200
G1 Z0F500
G1 X55.824Y52.677Z0F1200
G1 X56.036Y53.258Z0F1200
G1 X55.843Y53.785Z0F1200
G1 X55.447Y54.163Z0F1200
G1 X55.026Z0F1200
G1 X54.588Y53.988Z0F1200
G1 X54.142Y53.609Z0F1200
G1 X53.69Y53.027Z0F1200
G1 X53.347Y52.353Z0F1200
G1 X53.047Y51.568Z0F1200
G1 X52.926Y50.904Z0F1200
G1 X52.967Y50.233Z0F1200
G1 X53.258Y49.856Z0F1200
G1 X53.552Y49.797Z0F1200
G1 X53.903Z0F1200
G1 X54.522Y50.06Z0F1200
G1 X54.98Y50.466Z0F1200
G0 Z1.5F500
G0 X91.99Y56.351Z1.5F1200
G1 Z0F500
G1 X93.102Z0F1200
G1 X92.514Z0F1200
G1 X90.367Y50.397Z0F1200
G1 X89.873Z0F1200
G1 X92.17Z0F1200
G1 X92.629Y51.649Z0F1200
G0 Z1.5F500
G0 X94.256Y54.126Z1.5F1200
G1 Z0F500
G1 X94.648Y54.497Z0F1200
G1 X95.081Y54.669Z0F1200
G1 X95.468Y54.615Z0F1200
G1 X95.696Y54.443Z0F1200
G1 X95.761Y53.927Z0F1200
G1 X95.675Y53.475Z0F1200
G1 X94.968Y51.513Z0F1200
G1 X94.575Y51.025Z0F1200
G1 X94.079Y50.54Z0F1200
G1 X93.661Y50.312Z0F1200
G1 X93.23Y50.369Z0F1200
G1 X93.012Y50.711Z0F1200
G1 X93.025Y51.169Z0F1200
G1 X93.205Y51.676Z0F1200
G1 X93.534Y52.218Z0F1200
G1 X94.042Y52.616Z0F1200
G1 X94.496Y52.707Z0F1200
