
G0 Z10 F500;      ; Move to clearance level - Z motion limited to 500
; G0 X-10 Y-10 F1200; Homing
; G0 X-5 Y-5 F1200; go in
; G10 P0 L20 X0 Y0; set to zero
G1 F1200;           ; Set feed rate to 1000
;LightBurn 1.6.04
;Custom GCode device profile, absolute coords
;Bounds: X25.64 Y31.09 to X112.36 Y130.91
G00 G17 G40 G21 G54
G90
M3
G1 Z10 F1000
;Cut @ 1500 mm/min, 90% power

M8

; Washing sequence (no color)
G1 Z10 F1000;        ; Raise brush to safe height
G0 X5 Y5 F1200;     ; Rapid move to brush cleaning position
G1 Z-1 F800;         ; Lower brush for cleaning - controlled movement
G1 X10 Y12 Z8 F1200;     ; Rapid move to brush cleaning position
G1 Z-1 F800;         ; Lower brush for cleaning - controlled movement
G1 X25 Y14 Z6 F800;     ; Move across cleaning area - controlled movement
G1 Z8 F800;         ; Maintain brush height - controlled movement
G0 X5 Y5 F1200;     ; Rapid move to brush cleaning position
G1 Z-1 F800;         ; Lower brush for cleaning - controlled movement
G1 X15 Y12 Z8 F1200;     ; Rapid move to brush cleaning position
G1 Z-1 F800;         ; Lower brush for cleaning - controlled movement
G1 X25 Y14 Z6 F800;     ; Move across cleaning area - controlled movement
G1 Z10 F800;         ; Maintain brush height - controlled movement
G1 F1200;           ; Set feed rate to 1000

; Color 1 picking sequence
G1 Z10 F1000;         ; Raise brush to safe height
G0 X86 Y5 F1200;    ; Rapid move to color 1 position
G1 Z0 F1000;         ; Lower into color - controlled movement
G1 X85.102Y7.295Z0S800F1200
G1 X85.026Y7.642Z0F1200
G1 X85Y8Z0F1200
G1 X85.026Y8.358Z0F1200
G1 X85.102Y8.705Z0F1200
G1 X85.225Y9.041Z0F1200
G1 X85.393Y9.362Z0F1200
G1 X85.603Y9.668Z0F1200
G1 X85.854Y9.957Z0F1200
G1 X86.142Y10.226Z0F1200
G1 X86.464Y10.475Z0F1200
G1 X86.82Y10.701Z0F1200
G1 X87.204Y10.902Z0F1200
G1 X87.617Y11.078Z0F1200
G1 X88.054Y11.225Z0F1200
G1 X88.513Y11.343Z0F1200
G1 X88.992Y11.429Z0F1200
G1 X89.489Y11.482Z0F1200
G1 X90Y11.5Z0F1200
G1 X90.511Y11.482Z0F1200
G1 X91.008Y11.429Z0F1200
G1 X91.487Y11.343Z0F1200
G1 X91.946Y11.225Z0F1200
G1 X92.383Y11.078Z0F1200
G1 X92.796Y10.902Z0F1200
G1 X93.18Y10.701Z0F1200
G1 X93.536Y10.475Z0F1200
G1 X93.858Y10.226Z0F1200
G1 X94.146Y9.957Z0F1200
G1 X94.397Y9.668Z0F1200
G1 X94.607Y9.362Z0F1200
G1 X94.775Y9.041Z0F1200
G1 X94.898Y8.705Z0F1200
G1 X94.974Y8.358Z0F1200
G1 X95Y8Z0F1200
G1 X94.974Y7.642Z0F1200
G1 X94.898Y7.295Z0F1200
G1 X94.775Y6.959Z0F1200
G1 X94.607Y6.638Z0F1200
G1 X94.397Y6.332Z0F1200
G1 X94.146Y6.043Z0F1200
G1 X93.858Y5.774Z0F1200
G1 X93.536Y5.525Z0F1200
G1 X93.18Y5.299Z0F1200
G1 X92.796Y5.098Z0F1200
G1 X92.383Y4.922Z0F1200
G1 X91.946Y4.775Z0F1200
G1 X91.487Y4.657Z0F1200
G1 X91.008Y4.571Z0F1200
G1 X90.511Y4.518Z0F1200
G1 X90Y4.5Z0F1200
G1 X89.489Y4.518Z0F1200
G1 X88.992Y4.571Z0F1200
G1 X88.513Y4.657Z0F1200
G1 X88.054Y4.775Z0F1200
G1 X87.617Y4.922Z0F1200
G1 X87.204Y5.098Z0F1200
G1 X86.82Y5.299Z0F1200
G1 X86.464Y5.525Z0F1200
G1 X86.142Y5.774Z0F1200
G1 X85.854Y6.043Z0F1200
G1 X85.603Y6.332Z0F1200
G1 X85.393Y6.638Z0F1200
G1 X85.225Y6.959Z0F1200
G1 Z7 F800;         ; Raise from color - controlled movement
G1 X79 Y8 Z1 F1200;     ; Movement in paint - controlled movement
G1 X69 Y18 Z8 F500;     ; Move in paint - controlled movement
G1 F1200;           ; Set feed rate to 1000
G0 Z4.8F1000
G0 X55.685Y50.622Z4.8
G1 Z0F1000
;Layer Blue
G1 X55.573Y50.688Z0S900F1800
G1 X55.433Y50.798Z0F1800
G1 X55.264Y50.954Z0F1800
G1 X55.06Y51.157Z0F1800
G1 X54.793Y51.426Z0F1800
G1 X54.548Y51.66Z0F1800
G1 X54.314Y51.869Z0F1800
G1 X54.075Y52.065Z0F1800
G1 X53.819Y52.258Z0F1800
G1 X53.531Y52.459Z0F1800
G1 X53.198Y52.679Z0F1800
G1 X52.806Y52.928Z0F1800
G1 X52.396Y53.168Z0F1800
G1 X51.936Y53.409Z0F1800
G1 X51.449Y53.639Z0F1800
G1 X50.96Y53.849Z0F1800
G1 X50.493Y54.03Z0F1800
G1 X50.072Y54.171Z0F1800
G1 X49.886Y54.224Z0F1800
G1 X49.721Y54.263Z0F1800
G1 X49.579Y54.288Z0F1800
G1 X49.347Y54.303Z0F1800
G1 X49.262Y54.325Z0F1800
G1 X49.207Y54.363Z0F1800
G1 X49.184Y54.421Z0F1800
G1 X49.191Y54.498Z0F1800
G1 X49.228Y54.598Z0F1800
G1 X49.295Y54.722Z0F1800
G1 X49.45Y54.96Z0F1800
G1 X49.522Y55.075Z0F1800
G1 X49.702Y55.374Z0F1800
G1 X49.922Y55.75Z0F1800
G1 X50.172Y56.186Z0F1800
G1 X50.714Y57.157Z0F1800
G1 X51.244Y58.136Z0F1800
G1 X51.439Y58.499Z0F1800
G1 X51.612Y58.814Z0F1800
G1 X51.685Y58.943Z0F1800
G1 X51.79Y59.123Z0F1800
G1 X51.848Y59.212Z0F1800
G1 X51.898Y59.298Z0F1800
G1 X52.046Y59.569Z0F1800
G1 X52.243Y59.939Z0F1800
G1 X52.692Y60.803Z0F1800
G1 X52.979Y61.345Z0F1800
G1 X53.105Y61.573Z0F1800
G1 X53.169Y61.685Z0F1800
G1 X53.222Y61.786Z0F1800
G1 X53.389Y62.12Z0F1800
G1 X53.626Y62.605Z0F1800
G1 X53.921Y63.215Z0F1800
G1 X54.631Y64.697Z0F1800
G1 X55.415Y66.351Z0F1800
G1 X55.526Y66.569Z0F1800
G1 X55.629Y66.741Z0F1800
G1 X55.712Y66.849Z0F1800
G1 X55.764Y66.876Z0F1800
G1 X62.487Y62.797Z0F1800
G1 X62.872Y62.553Z0F1800
G1 X63.187Y62.333Z0F1800
G1 X63.308Y62.24Z0F1800
G1 X63.399Y62.162Z0F1800
G1 X63.457Y62.102Z0F1800
G1 X63.476Y62.063Z0F1800
G1 X63.461Y62.016Z0F1800
G1 X63.418Y61.932Z0F1800
G1 X63.349Y61.815Z0F1800
G1 X63.259Y61.67Z0F1800
G1 X63.024Y61.317Z0F1800
G1 X62.739Y60.91Z0F1800
G1 X62.003Y59.875Z0F1800
G1 X61.268Y58.824Z0F1800
G1 X60.506Y57.723Z0F1800
G1 X60.233Y57.326Z0F1800
G1 X60.011Y56.995Z0F1800
G1 X59.422Y56.108Z0F1800
G1 X58.705Y55.019Z0F1800
G1 X57.563Y53.272Z0F1800
G1 X56.87Y52.205Z0F1800
G1 X56.442Y51.543Z0F1800
G1 X56.219Y51.194Z0F1800
G1 X56.057Y50.938Z0F1800
G1 X55.966Y50.789Z0F1800
G1 X55.904Y50.668Z0F1800
G1 X55.847Y50.613Z0F1800
G1 X55.776Y50.597Z0F1800
G1 X55.685Y50.622Z0F1800
G0 Z4.8F1000
G0 X65.075Y63.584Z4.8F1500
G1 Z0F1000
G1 X64.989Y63.613Z0F1800
G1 X64.885Y63.655Z0F1800
G1 X64.761Y63.714Z0F1800
G1 X64.614Y63.788Z0F1800
G1 X64.443Y63.88Z0F1800
G1 X64.245Y63.991Z0F1800
G1 X64.019Y64.121Z0F1800
G1 X63.763Y64.271Z0F1800
G1 X63.15Y64.639Z0F1800
G1 X62.391Y65.102Z0F1800
G1 X61.339Y65.745Z0F1800
G1 X59.81Y66.671Z0F1800
G1 X58.873Y67.234Z0F1800
G1 X58.042Y67.73Z0F1800
G1 X57.351Y68.138Z0F1800
G1 X56.834Y68.437Z0F1800
G1 X56.651Y68.54Z0F1800
G1 X56.524Y68.609Z0F1800
G1 X56.458Y68.64Z0F1800
G1 X56.438Y68.687Z0F1800
G1 X56.443Y68.803Z0F1800
G1 X56.472Y68.981Z0F1800
G1 X56.523Y69.214Z0F1800
G1 X56.593Y69.498Z0F1800
G1 X56.681Y69.825Z0F1800
G1 X56.785Y70.189Z0F1800
G1 X56.902Y70.585Z0F1800
G1 X57.478Y72.357Z0F1800
G1 X58.129Y74.137Z0F1800
G1 X58.674Y75.457Z0F1800
G1 X59.27Y76.754Z0F1800
G1 X59.594Y77.406Z0F1800
G1 X59.938Y78.066Z0F1800
G1 X60.306Y78.739Z0F1800
G1 X60.699Y79.431Z0F1800
G1 X61.122Y80.144Z0F1800
G1 X61.576Y80.885Z0F1800
G1 X62.065Y81.658Z0F1800
G1 X62.591Y82.467Z0F1800
G1 X63.156Y83.317Z0F1800
G1 X63.764Y84.213Z0F1800
G1 X64.417Y85.16Z0F1800
G1 X65.118Y86.162Z0F1800
G1 X66.601Y88.271Z0F1800
G1 X67.503Y89.561Z0F1800
G1 X68.37Y90.798Z0F1800
G1 X69.745Y92.747Z0F1800
G1 X71.066Y94.604Z0F1800
G1 X71.834Y95.677Z0F1800
G1 X72.456Y96.539Z0F1800
G1 X72.797Y97.005Z0F1800
G1 X73.024Y97.305Z0F1800
G1 X73.803Y98.387Z0F1800
G1 X77.686Y103.801Z0F1800
G1 X81.333Y108.896Z0F1800
G1 X83.082Y111.342Z0F1800
G1 X84.272Y113.009Z0F1800
G1 X84.619Y113.498Z0F1800
G1 X85.298Y114.472Z0F1800
G1 X85.981Y115.445Z0F1800
G1 X87.873Y118.134Z0F1800
G1 X88.783Y119.435Z0F1800
G1 X89.308Y120.188Z0F1800
G1 X90.41Y121.78Z0F1800
G1 X91.646Y123.555Z0F1800
G1 X92.241Y124.412Z0F1800
G1 X92.977Y125.481Z0F1800
G1 X93.286Y125.922Z0F1800
G1 X93.415Y126.101Z0F1800
G1 X93.48Y126.186Z0F1800
G1 X93.608Y126.366Z0F1800
G1 X93.915Y126.806Z0F1800
G1 X95.301Y128.832Z0F1800
G1 X95.728Y129.45Z0F1800
G1 X96.069Y129.939Z0F1800
G1 X96.332Y130.309Z0F1800
G1 X96.523Y130.569Z0F1800
G1 X96.595Y130.662Z0F1800
G1 X96.65Y130.73Z0F1800
G1 X96.692Y130.776Z0F1800
G1 X96.72Y130.802Z0F1800
G1 X96.911Y130.888Z0F1800
G1 X97.131Y130.912Z0F1800
G1 X97.361Y130.882Z0F1800
G1 X97.587Y130.805Z0F1800
G1 X97.791Y130.688Z0F1800
G1 X97.957Y130.54Z0F1800
G1 X98.069Y130.367Z0F1800
G1 X98.11Y130.176Z0F1800
G1 X98.1Y130.105Z0F1800
G1 X98.072Y129.993Z0F1800
G1 X98.025Y129.839Z0F1800
G1 X97.958Y129.645Z0F1800
G1 X97.874Y129.411Z0F1800
G1 X97.77Y129.136Z0F1800
G1 X97.648Y128.821Z0F1800
G1 X97.508Y128.467Z0F1800
G1 X97.349Y128.072Z0F1800
G1 X96.977Y127.166Z0F1800
G1 X96.532Y126.103Z0F1800
G1 X96.015Y124.886Z0F1800
G1 X94.481Y121.304Z0F1800
G1 X93.53Y119.079Z0F1800
G1 X93.118Y118.127Z0F1800
G1 X92.937Y117.717Z0F1800
G1 X92.844Y117.515Z0F1800
G1 X92.725Y117.25Z0F1800
G1 X92.496Y116.722Z0F1800
G1 X92.17Y115.956Z0F1800
G1 X92.002Y115.565Z0F1800
G1 X91.85Y115.219Z0F1800
G1 X91.667Y114.813Z0F1800
G1 X91.421Y114.26Z0F1800
G1 X91.062Y113.446Z0F1800
G1 X87.693Y105.761Z0F1800
G1 X84.776Y99.092Z0F1800
G1 X84.177Y97.731Z0F1800
G1 X81.538Y91.709Z0F1800
G1 X81.157Y90.846Z0F1800
G1 X80.584Y89.564Z0F1800
G1 X78.342Y84.504Z0F1800
G1 X77.887Y83.487Z0F1800
G1 X77.444Y82.508Z0F1800
G1 X77.013Y81.567Z0F1800
G1 X76.592Y80.66Z0F1800
G1 X76.183Y79.789Z0F1800
G1 X75.782Y78.95Z0F1800
G1 X75.391Y78.143Z0F1800
G1 X75.007Y77.367Z0F1800
G1 X74.631Y76.62Z0F1800
G1 X74.261Y75.9Z0F1800
G1 X73.897Y75.208Z0F1800
G1 X73.182Y73.897Z0F1800
G1 X72.481Y72.677Z0F1800
G1 X71.787Y71.537Z0F1800
G1 X71.094Y70.467Z0F1800
G1 X70.397Y69.457Z0F1800
G1 X69.688Y68.496Z0F1800
G1 X68.962Y67.574Z0F1800
G1 X68.213Y66.68Z0F1800
G1 X67.434Y65.805Z0F1800
G1 X66.62Y64.937Z0F1800
G1 X66.156Y64.459Z0F1800
G1 X65.748Y64.046Z0F1800
G1 X65.44Y63.741Z0F1800
G1 X65.338Y63.644Z0F1800
G1 X65.277Y63.59Z0F1800
G1 X65.201Y63.565Z0F1800
G1 X65.075Y63.584Z0F1800
G0 Z4.8F1000
G0 X70.522Y65.762Z4.8
G1 Z0F1000
G1 X70.352Y65.986Z0F1800
G1 X70.251Y66.166Z0F1800
G1 X70.215Y66.307Z0F1800
G1 X70.242Y66.416Z0F1800
G1 X70.326Y66.497Z0F1800
G1 X70.444Y66.598Z0F1800
G1 X70.615Y66.785Z0F1800
G1 X70.831Y67.047Z0F1800
G1 X71.086Y67.374Z0F1800
G1 X71.373Y67.757Z0F1800
G1 X71.686Y68.187Z0F1800
G1 X72.017Y68.652Z0F1800
G1 X72.36Y69.144Z0F1800
G1 X73.053Y70.167Z0F1800
G1 X73.713Y71.179Z0F1800
G1 X74.013Y71.655Z0F1800
G1 X74.284Y72.099Z0F1800
G1 X74.52Y72.501Z0F1800
G1 X74.713Y72.851Z0F1800
G1 X75.417Y74.18Z0F1800
G1 X76.108Y75.493Z0F1800
G1 X76.735Y76.703Z0F1800
G1 X77.405Y78.023Z0F1800
G1 X77.575Y78.35Z0F1800
G1 X77.705Y78.583Z0F1800
G1 X77.802Y78.734Z0F1800
G1 X77.875Y78.811Z0F1800
G1 X77.928Y78.825Z0F1800
G1 X77.971Y78.786Z0F1800
G1 X78.011Y78.702Z0F1800
G1 X78.101Y78.478Z0F1800
G1 X79.294Y75.552Z0F1800
G1 X79.685Y74.581Z0F1800
G1 X79.97Y73.854Z0F1800
G1 X80.249Y73.115Z0F1800
G1 X80.448Y72.567Z0F1800
G1 X80.671Y71.931Z0F1800
G1 X80.901Y71.255Z0F1800
G1 X81.125Y70.585Z0F1800
G1 X81.325Y69.967Z0F1800
G1 X81.487Y69.45Z0F1800
G1 X81.549Y69.244Z0F1800
G1 X81.595Y69.081Z0F1800
G1 X81.624Y68.966Z0F1800
G1 X81.634Y68.905Z0F1800
G1 X81.619Y68.884Z0F1800
G1 X81.575Y68.846Z0F1800
G1 X81.504Y68.792Z0F1800
G1 X81.408Y68.723Z0F1800
G1 X81.144Y68.543Z0F1800
G1 X80.794Y68.315Z0F1800
G1 X80.371Y68.045Z0F1800
G1 X79.886Y67.741Z0F1800
G1 X79.351Y67.411Z0F1800
G1 X78.778Y67.062Z0F1800
G1 X77.556Y66.323Z0F1800
G1 X75.776Y65.242Z0F1800
G1 X74.189Y64.274Z0F1800
G1 X73.91Y64.107Z0F1800
G1 X73.652Y63.956Z0F1800
G1 X73.421Y63.824Z0F1800
G1 X73.224Y63.715Z0F1800
G1 X73.066Y63.632Z0F1800
G1 X72.956Y63.579Z0F1800
G1 X72.898Y63.56Z0F1800
G1 X72.844Y63.584Z0F1800
G1 X72.743Y63.654Z0F1800
G1 X72.602Y63.765Z0F1800
G1 X72.425Y63.913Z0F1800
G1 X72.22Y64.093Z0F1800
G1 X71.99Y64.299Z0F1800
G1 X71.744Y64.526Z0F1800
G1 X71.485Y64.77Z0F1800
G1 X71.275Y64.973Z0F1800
G1 X71.085Y65.159Z0F1800
G1 X70.916Y65.331Z0F1800
G1 X70.766Y65.488Z0F1800
G1 X70.522Y65.762Z0F1800
G0 Z4.8F1000
G0 X74.954Y62.511Z4.8
G1 Z0F1000
G1 X75.293Y62.718Z0F1800
G1 X75.679Y62.948Z0F1800
G1 X76.085Y63.194Z0F1800
G1 X76.464Y63.428Z0F1800
G1 X77.072Y63.814Z0F1800
G1 X77.424Y64.034Z0F1800
G1 X78.227Y64.528Z0F1800
G1 X79.106Y65.061Z0F1800
G1 X79.991Y65.591Z0F1800
G1 X80.415Y65.842Z0F1800
G1 X81.179Y66.289Z0F1800
G1 X81.502Y66.475Z0F1800
G1 X81.775Y66.629Z0F1800
G1 X81.988Y66.746Z0F1800
G1 X82.134Y66.821Z0F1800
G1 X82.202Y66.849Z0F1800
G1 X82.246Y66.829Z0F1800
G1 X82.306Y66.767Z0F1800
G1 X82.38Y66.665Z0F1800
G1 X82.467Y66.529Z0F1800
G1 X82.668Y66.166Z0F1800
G1 X82.889Y65.708Z0F1800
G1 X83.934Y63.482Z0F1800
G1 X85.003Y61.348Z0F1800
G1 X85.573Y60.267Z0F1800
G1 X86.178Y59.15Z0F1800
G1 X86.831Y57.978Z0F1800
G1 X87.779Y56.313Z0F1800
G1 X88.209Y55.553Z0F1800
G1 X88.539Y54.956Z0F1800
G1 X88.654Y54.742Z0F1800
G1 X88.73Y54.596Z0F1800
G1 X88.76Y54.527Z0F1800
G1 X88.748Y54.496Z0F1800
G1 X88.703Y54.457Z0F1800
G1 X88.626Y54.413Z0F1800
G1 X88.523Y54.365Z0F1800
G1 X88.249Y54.263Z0F1800
G1 X87.909Y54.161Z0F1800
G1 X87.299Y53.973Z0F1800
G1 X86.676Y53.73Z0F1800
G1 X86.046Y53.434Z0F1800
G1 X85.416Y53.091Z0F1800
G1 X84.792Y52.704Z0F1800
G1 X84.182Y52.278Z0F1800
G1 X83.592Y51.815Z0F1800
G1 X83.03Y51.321Z0F1800
G1 X82.77Y51.082Z0F1800
G1 X82.541Y50.876Z0F1800
G1 X82.446Y50.792Z0F1800
G1 X82.311Y50.678Z0F1800
G1 X82.276Y50.653Z0F1800
G1 X82.213Y50.667Z0F1800
G1 X82.118Y50.754Z0F1800
G1 X82.004Y50.9Z0F1800
G1 X81.884Y51.089Z0F1800
G1 X81.812Y51.21Z0F1800
G1 X81.719Y51.363Z0F1800
G1 X81.483Y51.737Z0F1800
G1 X81.208Y52.163Z0F1800
G1 X80.925Y52.591Z0F1800
G1 X80.182Y53.705Z0F1800
G1 X78.537Y56.186Z0F1800
G1 X77.25Y58.079Z0F1800
G1 X76.647Y58.95Z0F1800
G1 X76.089Y59.742Z0F1800
G1 X75.833Y60.101Z0F1800
G1 X75.593Y60.433Z0F1800
G1 X75.372Y60.734Z0F1800
G1 X74.881Y61.397Z0F1800
G1 X74.642Y61.736Z0F1800
G1 X74.55Y61.873Z0F1800
G1 X74.48Y61.983Z0F1800
G1 X74.436Y62.061Z0F1800
G1 X74.421Y62.102Z0F1800
G1 X74.439Y62.133Z0F1800
G1 X74.49Y62.182Z0F1800
G1 X74.571Y62.247Z0F1800
G1 X74.677Y62.325Z0F1800
G1 X74.954Y62.511Z0F1800
G0 Z4.8F1000
G0 X60.581Y82.675Z4.8
G1 Z0F1000
G1 X60.547Y82.717Z0F1800
G1 X60.479Y82.839Z0F1800
G1 X60.38Y83.03Z0F1800
G1 X60.255Y83.284Z0F1800
G1 X60.108Y83.591Z0F1800
G1 X59.942Y83.943Z0F1800
G1 X59.763Y84.332Z0F1800
G1 X59.574Y84.749Z0F1800
G1 X59.025Y85.968Z0F1800
G1 X58.535Y87.069Z0F1800
G1 X58.304Y87.595Z0F1800
G1 X57.564Y89.254Z0F1800
G1 X57.388Y89.657Z0F1800
G1 X57.269Y89.94Z0F1800
G1 X57.237Y90.023Z0F1800
G1 X57.219Y90.087Z0F1800
G1 X57.198Y90.142Z0F1800
G1 X57.123Y90.324Z0F1800
G1 X57.011Y90.577Z0F1800
G1 X56.593Y91.494Z0F1800
G1 X56.244Y92.272Z0F1800
G1 X53.741Y97.951Z0F1800
G1 X52.363Y101.06Z0F1800
G1 X51.408Y103.227Z0F1800
G1 X50.779Y104.659Z0F1800
G1 X49.758Y107Z0F1800
G1 X49.589Y107.381Z0F1800
G1 X49.371Y107.866Z0F1800
G1 X48.975Y108.755Z0F1800
G1 X48.488Y109.859Z0F1800
G1 X47.916Y111.168Z0F1800
G1 X47.228Y112.748Z0F1800
G1 X46.679Y114.004Z0F1800
G1 X46.088Y115.344Z0F1800
G1 X45.882Y115.826Z0F1800
G1 X45.812Y116.003Z0F1800
G1 X45.795Y116.061Z0F1800
G1 X45.74Y116.197Z0F1800
G1 X45.582Y116.559Z0F1800
G1 X45.301Y117.175Z0F1800
G1 X45.187Y117.441Z0F1800
G1 X45.143Y117.549Z0F1800
G1 X45.109Y117.635Z0F1800
G1 X45.088Y117.696Z0F1800
G1 X45.074Y117.761Z0F1800
G1 X45.053Y117.82Z0F1800
G1 X45.021Y117.902Z0F1800
G1 X44.979Y118.005Z0F1800
G1 X44.868Y118.258Z0F1800
G1 X44.661Y118.711Z0F1800
G1 X44.55Y118.961Z0F1800
G1 X44.223Y119.712Z0F1800
G1 X43.77Y120.761Z0F1800
G1 X43.211Y122.064Z0F1800
G1 X41.845Y125.265Z0F1800
G1 X40.273Y128.97Z0F1800
G1 X40.101Y129.42Z0F1800
G1 X39.991Y129.81Z0F1800
G1 X39.944Y130.14Z0F1800
G1 X39.959Y130.409Z0F1800
G1 X40.037Y130.619Z0F1800
G1 X40.177Y130.77Z0F1800
G1 X40.38Y130.86Z0F1800
G1 X40.645Y130.892Z0F1800
G1 X40.866Y130.877Z0F1800
G1 X41.084Y130.792Z0F1800
G1 X41.207Y130.706Z0F1800
G1 X41.347Y130.581Z0F1800
G1 X41.509Y130.409Z0F1800
G1 X41.7Y130.185Z0F1800
G1 X41.925Y129.9Z0F1800
G1 X42.19Y129.548Z0F1800
G1 X42.501Y129.122Z0F1800
G1 X42.863Y128.614Z0F1800
G1 X43.283Y128.017Z0F1800
G1 X43.767Y127.324Z0F1800
G1 X46.637Y123.187Z0F1800
G1 X47.48Y121.977Z0F1800
G1 X48.618Y120.362Z0F1800
G1 X49.477Y119.14Z0F1800
G1 X50.183Y118.129Z0F1800
G1 X51.422Y116.342Z0F1800
G1 X52.228Y115.188Z0F1800
G1 X53.112Y113.932Z0F1800
G1 X55.307Y110.831Z0F1800
G1 X57.172Y108.193Z0F1800
G1 X58.035Y106.967Z0F1800
G1 X58.382Y106.473Z0F1800
G1 X58.88Y105.771Z0F1800
G1 X60.096Y104.062Z0F1800
G1 X63.096Y99.856Z0F1800
G1 X64.224Y98.27Z0F1800
G1 X65.198Y96.895Z0F1800
G1 X65.516Y96.452Z0F1800
G1 X66.263Y95.424Z0F1800
G1 X66.689Y94.832Z0F1800
G1 X67.028Y94.355Z0F1800
G1 X67.287Y93.98Z0F1800
G1 X67.389Y93.827Z0F1800
G1 X67.473Y93.696Z0F1800
G1 X67.542Y93.584Z0F1800
G1 X67.596Y93.49Z0F1800
G1 X67.664Y93.35Z0F1800
G1 X67.684Y93.265Z0F1800
G1 X67.665Y93.177Z0F1800
G1 X67.6Y93.036Z0F1800
G1 X67.543Y92.936Z0F1800
G1 X67.467Y92.812Z0F1800
G1 X67.369Y92.659Z0F1800
G1 X67.247Y92.474Z0F1800
G1 X66.921Y91.994Z0F1800
G1 X66.467Y91.341Z0F1800
G1 X65.868Y90.487Z0F1800
G1 X64.324Y88.294Z0F1800
G1 X63.623Y87.29Z0F1800
G1 X63.002Y86.39Z0F1800
G1 X62.461Y85.595Z0F1800
G1 X62Y84.906Z0F1800
G1 X61.799Y84.601Z0F1800
G1 X61.62Y84.324Z0F1800
G1 X61.461Y84.074Z0F1800
G1 X61.322Y83.851Z0F1800
G1 X61.204Y83.655Z0F1800
G1 X60.925Y83.172Z0F1800
G1 X60.765Y82.914Z0F1800
G1 X60.699Y82.815Z0F1800
G1 X60.645Y82.74Z0F1800
G1 X60.605Y82.692Z0F1800
G1 X60.581Y82.675Z0F1800
;Offset @ 1500 mm/min, 90% power

M8

; Washing sequence (no color)
G1 Z10 F1000;        ; Raise brush to safe height
G0 X5 Y5 F1200;     ; Rapid move to brush cleaning position
G1 Z-1 F800;         ; Lower brush for cleaning - controlled movement
G1 X10 Y12 Z8 F1200;     ; Rapid move to brush cleaning position
G1 Z-1 F800;         ; Lower brush for cleaning - controlled movement
G1 X25 Y14 Z6 F800;     ; Move across cleaning area - controlled movement
G1 Z8 F800;         ; Maintain brush height - controlled movement
G0 X5 Y5 F1200;     ; Rapid move to brush cleaning position
G1 Z-1 F800;         ; Lower brush for cleaning - controlled movement
G1 X15 Y12 Z8 F1200;     ; Rapid move to brush cleaning position
G1 Z-1 F800;         ; Lower brush for cleaning - controlled movement
G1 X25 Y14 Z6 F800;     ; Move across cleaning area - controlled movement
G1 Z10 F800;         ; Maintain brush height - controlled movement
G1 F1200;           ; Set feed rate to 1000

; Color 1 picking sequence
G1 Z10 F1000;         ; Raise brush to safe height
G0 X41 Y5 F1200;    ; Rapid move to color 1 position
G1 Z0 F1000;         ; Lower into color - controlled movement
G1 X40.102Y7.295Z0S800F1200
G1 X40.026Y7.642Z0F1200
G1 X40Y8Z0F1200
G1 X40.026Y8.358Z0F1200
G1 X40.102Y8.705Z0F1200
G1 X40.225Y9.041Z0F1200
G1 X40.393Y9.362Z0F1200
G1 X40.603Y9.668Z0F1200
G1 X40.854Y9.957Z0F1200
G1 X41.142Y10.226Z0F1200
G1 X41.464Y10.475Z0F1200
G1 X41.82Y10.701Z0F1200
G1 X42.204Y10.902Z0F1200
G1 X42.617Y11.078Z0F1200
G1 X43.054Y11.225Z0F1200
G1 X43.513Y11.343Z0F1200
G1 X43.992Y11.429Z0F1200
G1 X44.489Y11.482Z0F1200
G1 X45Y11.5Z0F1200
G1 X45.511Y11.482Z0F1200
G1 X46.008Y11.429Z0F1200
G1 X46.487Y11.343Z0F1200
G1 X46.946Y11.225Z0F1200
G1 X47.383Y11.078Z0F1200
G1 X47.796Y10.902Z0F1200
G1 X48.18Y10.701Z0F1200
G1 X48.536Y10.475Z0F1200
G1 X48.858Y10.226Z0F1200
G1 X49.146Y9.957Z0F1200
G1 X49.397Y9.668Z0F1200
G1 X49.607Y9.362Z0F1200
G1 X49.775Y9.041Z0F1200
G1 X49.898Y8.705Z0F1200
G1 X49.974Y8.358Z0F1200
G1 X50Y8Z0F1200
G1 X49.974Y7.642Z0F1200
G1 X49.898Y7.295Z0F1200
G1 X49.775Y6.959Z0F1200
G1 X49.607Y6.638Z0F1200
G1 X49.397Y6.332Z0F1200
G1 X49.146Y6.043Z0F1200
G1 X48.858Y5.774Z0F1200
G1 X48.536Y5.525Z0F1200
G1 X48.18Y5.299Z0F1200
G1 X47.796Y5.098Z0F1200
G1 X47.383Y4.922Z0F1200
G1 X46.946Y4.775Z0F1200
G1 X46.487Y4.657Z0F1200
G1 X46.008Y4.571Z0F1200
G1 X45.511Y4.518Z0F1200
G1 X45Y4.5Z0F1200
G1 X44.489Y4.518Z0F1200
G1 X43.992Y4.571Z0F1200
G1 X43.513Y4.657Z0F1200
G1 X43.054Y4.775Z0F1200
G1 X42.617Y4.922Z0F1200
G1 X42.204Y5.098Z0F1200
G1 X41.82Y5.299Z0F1200
G1 X41.464Y5.525Z0F1200
G1 X41.142Y5.774Z0F1200
G1 X40.854Y6.043Z0F1200
G1 X40.603Y6.332Z0F1200
G1 X40.393Y6.638Z0F1200
G1 X40.225Y6.959Z0F1200
G1 Z7 F800;         ; Raise from color - controlled movement
G1 X34 Y8 Z1 F1200;     ; Movement in paint - controlled movement
G1 X24 Y18 Z8 F500;     ; Move in paint - controlled movement
G1 F1200;           ; Set feed rate to 1000
G0 Z4.8F1000
G0 X45.699Y41.137Z4.8
G1 Z0F1000
;Layer Green
G1 X46.127Y41.647Z0F1800
G1 X46.717Y42.372Z0F1800
G1 X47.268Y43.085Z0F1800
G1 X47.794Y43.808Z0F1800
G1 X48.29Y44.531Z0F1800
G1 X48.759Y45.261Z0F1800
G1 X49.188Y45.976Z0F1800
G1 X49.614Y46.738Z0F1800
G1 X50.002Y47.481Z0F1800
G1 X50.464Y48.464Z0F1800
G1 X50.881Y49.452Z0F1800
G1 X50.957Y49.649Z0F1800
G1 X50.934Y49.665Z0F1800
G1 X50.767Y49.452Z0F1800
G1 X50.481Y49.075Z0F1800
G1 X49.867Y48.237Z0F1800
G1 X49.249Y47.36Z0F1800
G1 X48.619Y46.432Z0F1800
G1 X48.054Y45.567Z0F1800
G1 X47.777Y45.129Z0F1800
G1 X47.536Y44.736Z0F1800
G1 X47.321Y44.375Z0F1800
G1 X47.122Y44.025Z0F1800
G1 X46.749Y43.341Z0F1800
G1 X46.375Y42.631Z0F1800
G1 X45.975Y41.842Z0F1800
G1 X45.585Y41.052Z0F1800
G1 X45.533Y40.941Z0F1800
G1 X45.699Y41.137Z0F1800
G0 Z4.8F1000
G0 X43.501Y48.368Z4.8
G1 Z0F1000
G1 X43.357Y48.147Z0F1800
G1 X43.13Y47.781Z0F1800
G1 X42.658Y46.968Z0F1800
G1 X42.271Y46.231Z0F1800
G1 X42.037Y45.719Z0F1800
G1 X41.825Y45.18Z0F1800
G1 X41.632Y44.61Z0F1800
G1 X41.555Y44.339Z0F1800
G1 X41.622Y44.521Z0F1800
G1 X42.166Y45.8Z0F1800
G1 X42.771Y47.046Z0F1800
G1 X43.439Y48.266Z0F1800
G1 X43.501Y48.368Z0F1800
G0 Z4.8F1000
G0 X52.988Y42.058Z4.8
G1 Z0F1000
G1 X52.905Y41.933Z0F1800
G1 X52.358Y41.18Z0F1800
G1 X51.578Y40.206Z0F1800
G1 X50.883Y39.419Z0F1800
G1 X51.188Y39.719Z0F1800
G1 X51.684Y40.257Z0F1800
G1 X52.131Y40.794Z0F1800
G1 X52.536Y41.341Z0F1800
G1 X52.882Y41.871Z0F1800
G1 X52.988Y42.058Z0F1800
G0 Z4.8F1000
G0 X41.878Y34.834Z4.8
G1 Z0F1000
G1 X40.745Y34.747Z0F1800
G1 Y34.681Z0F1800
G1 X40.757Y34.325Z0F1800
G1 X40.771Y34.076Z0F1800
G1 X40.787Y33.893Z0F1800
G1 X40.834Y33.523Z0F1800
G1 X41.804Y33.914Z0F1800
G1 X42.425Y34.185Z0F1800
G1 X42.131Y34.207Z0F1800
G1 X41.878Y34.834Z0F1800
G0 Z4.8F1000
G0 X40.715Y37.38Z4.8
G1 Z0F1000
G1 X40.744Y37.63Z0F1800
G1 X40.779Y37.907Z0F1800
G1 X40.963Y39.084Z0F1800
G1 X41.198Y40.213Z0F1800
G1 X41.57Y41.592Z0F1800
G1 X41.988Y42.913Z0F1800
G1 X42.459Y44.189Z0F1800
G1 X42.986Y45.427Z0F1800
G1 X43.571Y46.634Z0F1800
G1 X44.218Y47.814Z0F1800
G1 X44.93Y48.977Z0F1800
G1 X45.706Y50.125Z0F1800
G1 X46.385Y51.054Z0F1800
G1 X46.973Y51.821Z0F1800
G1 X46.819Y51.813Z0F1800
G1 X46.437Y51.775Z0F1800
G1 X46.133Y51.725Z0F1800
G1 X45.851Y51.644Z0F1800
G1 X45.559Y51.52Z0F1800
G1 X45.237Y51.339Z0F1800
G1 X44.883Y51.094Z0F1800
G1 X44.499Y50.781Z0F1800
G1 X44.074Y50.389Z0F1800
G1 X43.614Y49.92Z0F1800
G1 X43.125Y49.381Z0F1800
G1 X42.997Y49.221Z0F1800
G1 X42.808Y48.95Z0F1800
G1 X42.594Y48.625Z0F1800
G1 X42.36Y48.249Z0F1800
G1 X41.874Y47.41Z0F1800
G1 X41.461Y46.624Z0F1800
G1 X41.208Y46.069Z0F1800
G1 X40.983Y45.499Z0F1800
G1 X40.772Y44.875Z0F1800
G1 X40.579Y44.195Z0F1800
G1 X40.408Y43.481Z0F1800
G1 X40.245Y42.674Z0F1800
G1 X40.094Y41.786Z0F1800
G1 X39.956Y40.834Z0F1800
G1 X39.936Y40.639Z0F1800
G1 X39.914Y40.319Z0F1800
G1 X39.895Y39.933Z0F1800
G1 X39.877Y39.482Z0F1800
G1 X39.85Y38.433Z0F1800
G1 X39.833Y37.287Z0F1800
G1 X39.829Y36.712Z0F1800
G1 Y36.152Z0F1800
G1 Y35.615Z0F1800
G1 X39.837Y35.118Z0F1800
G1 X39.846Y34.663Z0F1800
G1 X39.858Y34.3Z0F1800
G1 X39.874Y33.999Z0F1800
G1 X39.892Y33.801Z0F1800
G1 X40.086Y32.286Z0F1800
G1 X41.018Y32.627Z0F1800
G1 X42.177Y33.095Z0F1800
G1 X43.33Y33.596Z0F1800
G1 X44.502Y34.142Z0F1800
G1 X45.62Y34.698Z0F1800
G1 X46.687Y35.266Z0F1800
G1 X47.169Y35.538Z0F1800
G1 X47.65Y35.82Z0F1800
G1 X48.068Y36.076Z0F1800
G1 X48.475Y36.339Z0F1800
G1 X49.237Y36.868Z0F1800
G1 X49.964Y37.416Z0F1800
G1 X50.637Y37.968Z0F1800
G1 X51.251Y38.519Z0F1800
G1 X51.834Y39.093Z0F1800
G1 X52.364Y39.667Z0F1800
G1 X52.845Y40.246Z0F1800
G1 X53.271Y40.822Z0F1800
G1 X53.647Y41.398Z0F1800
G1 X53.979Y41.983Z0F1800
G1 X54.255Y42.557Z0F1800
G1 X54.481Y43.128Z0F1800
G1 X54.657Y43.697Z0F1800
G1 X54.782Y44.258Z0F1800
G1 X54.857Y44.815Z0F1800
G1 X54.882Y45.37Z0F1800
G1 X54.87Y45.797Z0F1800
G1 X54.831Y46.168Z0F1800
G1 X54.767Y46.503Z0F1800
G1 X54.676Y46.816Z0F1800
G1 X54.639Y46.91Z0F1800
G1 X54.468Y46.509Z0F1800
G1 X54.08Y45.693Z0F1800
G1 X53.646Y44.862Z0F1800
G1 X53.176Y44.033Z0F1800
G1 X52.68Y43.222Z0F1800
G1 X52.165Y42.447Z0F1800
G1 X51.642Y41.726Z0F1800
G1 X50.889Y40.785Z0F1800
G1 X50.093Y39.884Z0F1800
G1 X49.259Y39.026Z0F1800
G1 X48.393Y38.217Z0F1800
G1 X47.497Y37.458Z0F1800
G1 X46.577Y36.756Z0F1800
G1 X45.637Y36.113Z0F1800
G1 X44.691Y35.542Z0F1800
G1 X44.467Y35.417Z0F1800
G1 X44.278Y35.313Z0F1800
G1 X44.107Y35.224Z0F1800
G1 X43.947Y35.147Z0F1800
G1 X43.778Y35.078Z0F1800
G1 X43.506Y35.004Z0F1800
G1 X42.757Y35.062Z0F1800
G1 X42.405Y35.932Z0F1800
G1 X42.584Y36.4Z0F1800
G1 X42.707Y36.588Z0F1800
G1 X42.819Y36.729Z0F1800
G1 X42.943Y36.872Z0F1800
G1 X43.088Y37.031Z0F1800
G1 X43.258Y37.209Z0F1800
G1 X43.671Y37.634Z0F1800
G1 X44.256Y38.23Z0F1800
G1 X44.728Y38.714Z0F1800
G1 X45.101Y39.103Z0F1800
G1 X45.423Y39.45Z0F1800
G1 X45.733Y39.794Z0F1800
G1 X46.035Y40.141Z0F1800
G1 X46.389Y40.559Z0F1800
G1 X46.809Y41.06Z0F1800
G1 X47.429Y41.821Z0F1800
G1 X47.991Y42.548Z0F1800
G1 X48.535Y43.295Z0F1800
G1 X49.036Y44.027Z0F1800
G1 X49.516Y44.773Z0F1800
G1 X49.98Y45.547Z0F1800
G1 X50.397Y46.292Z0F1800
G1 X50.813Y47.089Z0F1800
G1 X51.283Y48.09Z0F1800
G1 X51.72Y49.125Z0F1800
G1 X51.894Y49.577Z0F1800
G1 X52.032Y49.967Z0F1800
G1 X51.971Y50.02Z0F1800
G1 X51.703Y50.226Z0F1800
G1 X51.394Y50.441Z0F1800
G1 X51.076Y50.643Z0F1800
G1 X50.773Y50.814Z0F1800
G1 X50.727Y50.836Z0F1800
G1 X50.568Y50.649Z0F1800
G1 X50.317Y50.337Z0F1800
G1 X50.042Y49.985Z0F1800
G1 X49.761Y49.615Z0F1800
G1 X49.135Y48.76Z0F1800
G1 X48.5Y47.859Z0F1800
G1 X47.874Y46.938Z0F1800
G1 X47.285Y46.036Z0F1800
G1 X47.016Y45.61Z0F1800
G1 X46.772Y45.212Z0F1800
G1 X46.538Y44.819Z0F1800
G1 X46.347Y44.483Z0F1800
G1 X45.958Y43.772Z0F1800
G1 X45.567Y43.028Z0F1800
G1 X45.172Y42.25Z0F1800
G1 X44.777Y41.449Z0F1800
G1 X44.017Y39.832Z0F1800
G1 X43.32Y38.242Z0F1800
G1 X43.002Y37.497Z0F1800
G1 X42.729Y36.865Z0F1800
G1 X42.617Y36.614Z0F1800
G1 X42.526Y36.415Z0F1800
G1 X42.451Y36.256Z0F1800
G1 X42.171Y35.759Z0F1800
G1 X40.946Y35.665Z0F1800
G1 X40.69Y36.507Z0F1800
G1 X40.675Y36.749Z0F1800
G1 X40.68Y36.946Z0F1800
G1 X40.695Y37.153Z0F1800
G1 X40.715Y37.38Z0F1800
G0 Z4.8F1000
G0 X41.086Y47.846Z4.8
G1 Z0F1000
G1 X40.653Y47.021Z0F1800
G1 X40.381Y46.425Z0F1800
G1 X40.135Y45.801Z0F1800
G1 X39.912Y45.141Z0F1800
G1 X39.71Y44.434Z0F1800
G1 X39.527Y43.67Z0F1800
G1 X39.36Y42.841Z0F1800
G1 X39.207Y41.937Z0F1800
G1 X39.063Y40.949Z0F1800
G1 X39.039Y40.708Z0F1800
G1 X39.016Y40.38Z0F1800
G1 X38.996Y39.979Z0F1800
G1 X38.978Y39.517Z0F1800
G1 X38.95Y38.457Z0F1800
G1 X38.933Y37.3Z0F1800
G1 X38.929Y36.718Z0F1800
G1 Y36.148Z0F1800
G1 Y35.604Z0F1800
G1 X38.937Y35.099Z0F1800
G1 X38.946Y34.644Z0F1800
G1 X38.959Y34.253Z0F1800
G1 X38.976Y33.937Z0F1800
G1 X38.996Y33.709Z0F1800
G1 X39.197Y32.141Z0F1800
G1 X39.252Y31.732Z0F1800
G1 X39.301Y31.397Z0F1800
G1 X39.339Y31.171Z0F1800
G1 X39.352Y31.11Z0F1800
G1 X39.36Y31.088Z0F1800
G1 X39.437Y31.111Z0F1800
G1 X39.624Y31.173Z0F1800
G1 X40.22Y31.376Z0F1800
G1 X41.343Y31.788Z0F1800
G1 X42.514Y32.26Z0F1800
G1 X43.705Y32.778Z0F1800
G1 X44.888Y33.329Z0F1800
G1 X46.034Y33.899Z0F1800
G1 X47.116Y34.475Z0F1800
G1 X47.625Y34.761Z0F1800
G1 X48.105Y35.043Z0F1800
G1 X48.557Y35.32Z0F1800
G1 X48.974Y35.59Z0F1800
G1 X49.768Y36.141Z0F1800
G1 X50.516Y36.705Z0F1800
G1 X51.218Y37.281Z0F1800
G1 X51.874Y37.869Z0F1800
G1 X52.481Y38.467Z0F1800
G1 X53.041Y39.073Z0F1800
G1 X53.551Y39.687Z0F1800
G1 X54.01Y40.308Z0F1800
G1 X54.419Y40.933Z0F1800
G1 X54.776Y41.563Z0F1800
G1 X55.08Y42.196Z0F1800
G1 X55.331Y42.831Z0F1800
G1 X55.527Y43.465Z0F1800
G1 X55.669Y44.1Z0F1800
G1 X55.754Y44.732Z0F1800
G1 X55.783Y45.362Z0F1800
G1 X55.768Y45.856Z0F1800
G1 X55.722Y46.301Z0F1800
G1 X55.643Y46.713Z0F1800
G1 X55.528Y47.111Z0F1800
G1 X55.29Y47.708Z0F1800
G1 X54.979Y48.37Z0F1800
G1 X54.827Y48.665Z0F1800
G1 X54.692Y48.905Z0F1800
G1 X54.635Y48.997Z0F1800
G1 X54.586Y49.066Z0F1800
G1 X54.548Y49.11Z0F1800
G1 X54.521Y49.125Z0F1800
G1 X54.507Y49.109Z0F1800
G1 X54.484Y49.062Z0F1800
G1 X54.453Y48.986Z0F1800
G1 X54.414Y48.887Z0F1800
G1 X54.321Y48.629Z0F1800
G1 X54.215Y48.313Z0F1800
G1 X53.964Y47.625Z0F1800
G1 X53.647Y46.878Z0F1800
G1 X53.274Y46.095Z0F1800
G1 X52.855Y45.292Z0F1800
G1 X52.4Y44.489Z0F1800
G1 X51.921Y43.706Z0F1800
G1 X51.426Y42.96Z0F1800
G1 X50.926Y42.271Z0F1800
G1 X50.2Y41.365Z0F1800
G1 X49.433Y40.496Z0F1800
G1 X48.629Y39.669Z0F1800
G1 X47.794Y38.889Z0F1800
G1 X46.933Y38.16Z0F1800
G1 X46.049Y37.485Z0F1800
G1 X45.15Y36.871Z0F1800
G1 X44.239Y36.32Z0F1800
G1 X44.033Y36.205Z0F1800
G1 X43.854Y36.107Z0F1800
G1 X43.704Y36.029Z0F1800
G1 X43.582Y35.97Z0F1800
G1 X43.487Y35.931Z0F1800
G1 X43.42Y35.913Z0F1800
G1 X43.382Y35.916Z0F1800
G1 X43.372Y35.941Z0F1800
G1 X43.39Y35.989Z0F1800
G1 X43.437Y36.06Z0F1800
G1 X43.512Y36.154Z0F1800
G1 X43.615Y36.273Z0F1800
G1 X43.747Y36.417Z0F1800
G1 X43.907Y36.586Z0F1800
G1 X44.314Y37.005Z0F1800
G1 X44.901Y37.602Z0F1800
G1 X45.373Y38.086Z0F1800
G1 X45.759Y38.49Z0F1800
G1 X46.092Y38.848Z0F1800
G1 X46.402Y39.192Z0F1800
G1 X46.721Y39.559Z0F1800
G1 X47.079Y39.98Z0F1800
G1 X47.506Y40.491Z0F1800
G1 X48.127Y41.252Z0F1800
G1 X48.713Y42.011Z0F1800
G1 X49.267Y42.771Z0F1800
G1 X49.79Y43.535Z0F1800
G1 X50.284Y44.305Z0F1800
G1 X50.752Y45.084Z0F1800
G1 X51.195Y45.876Z0F1800
G1 X51.616Y46.683Z0F1800
G1 X52.105Y47.725Z0F1800
G1 X52.557Y48.795Z0F1800
G1 X52.743Y49.276Z0F1800
G1 X52.888Y49.688Z0F1800
G1 X52.943Y49.859Z0F1800
G1 X52.983Y50.003Z0F1800
G1 X53.008Y50.116Z0F1800
G1 X53.017Y50.196Z0F1800
G1 X53.001Y50.251Z0F1800
G1 X52.957Y50.321Z0F1800
G1 X52.886Y50.404Z0F1800
G1 X52.792Y50.499Z0F1800
G1 X52.543Y50.715Z0F1800
G1 X52.237Y50.951Z0F1800
G1 X51.894Y51.19Z0F1800
G1 X51.537Y51.416Z0F1800
G1 X51.19Y51.612Z0F1800
G1 X50.876Y51.761Z0F1800
G1 X50.747Y51.813Z0F1800
G1 X50.644Y51.847Z0F1800
G1 X50.559Y51.859Z0F1800
G1 X50.484Y51.848Z0F1800
G1 X50.411Y51.811Z0F1800
G1 X50.333Y51.746Z0F1800
G1 X50.239Y51.648Z0F1800
G1 X50.124Y51.518Z0F1800
G1 X49.881Y51.23Z0F1800
G1 X49.616Y50.902Z0F1800
G1 X49.333Y50.54Z0F1800
G1 X49.035Y50.147Z0F1800
G1 X48.409Y49.292Z0F1800
G1 X47.764Y48.378Z0F1800
G1 X47.129Y47.443Z0F1800
G1 X46.532Y46.528Z0F1800
G1 X46.255Y46.091Z0F1800
G1 X45.999Y45.673Z0F1800
G1 X45.765Y45.28Z0F1800
G1 X45.558Y44.917Z0F1800
G1 X45.168Y44.203Z0F1800
G1 X44.771Y43.447Z0F1800
G1 X44.37Y42.658Z0F1800
G1 X43.97Y41.847Z0F1800
G1 X43.198Y40.204Z0F1800
G1 X42.496Y38.604Z0F1800
G1 X42.176Y37.852Z0F1800
G1 X41.904Y37.227Z0F1800
G1 X41.796Y36.983Z0F1800
G1 X41.71Y36.795Z0F1800
G1 X41.651Y36.671Z0F1800
G1 X41.623Y36.62Z0F1800
G1 X41.597Z0F1800
G1 X41.582Y36.667Z0F1800
G1 X41.576Y36.765Z0F1800
G1 X41.58Y36.904Z0F1800
G1 X41.592Y37.081Z0F1800
G1 X41.611Y37.289Z0F1800
G1 X41.637Y37.523Z0F1800
G1 X41.67Y37.78Z0F1800
G1 X41.849Y38.922Z0F1800
G1 X42.074Y40.004Z0F1800
G1 X42.434Y41.339Z0F1800
G1 X42.84Y42.621Z0F1800
G1 X43.296Y43.857Z0F1800
G1 X43.805Y45.055Z0F1800
G1 X44.371Y46.221Z0F1800
G1 X44.997Y47.363Z0F1800
G1 X45.687Y48.49Z0F1800
G1 X46.442Y49.606Z0F1800
G1 X47.106Y50.515Z0F1800
G1 X47.777Y51.39Z0F1800
G1 X48.072Y51.762Z0F1800
G1 X48.319Y52.06Z0F1800
G1 X48.419Y52.175Z0F1800
G1 X48.5Y52.264Z0F1800
G1 X48.561Y52.324Z0F1800
G1 X48.598Y52.352Z0F1800
G1 X48.662Y52.43Z0F1800
G1 X48.688Y52.563Z0F1800
G1 X48.667Y52.6Z0F1800
G1 X48.608Y52.633Z0F1800
G1 X48.513Y52.662Z0F1800
G1 X48.388Y52.687Z0F1800
G1 X48.061Y52.721Z0F1800
G1 X47.658Y52.737Z0F1800
G1 X47.212Y52.734Z0F1800
G1 X46.754Y52.711Z0F1800
G1 X46.317Y52.667Z0F1800
G1 X45.933Y52.604Z0F1800
G1 X45.551Y52.495Z0F1800
G1 X45.161Y52.329Z0F1800
G1 X44.759Y52.103Z0F1800
G1 X44.343Y51.814Z0F1800
G1 X43.907Y51.459Z0F1800
G1 X43.447Y51.035Z0F1800
G1 X42.96Y50.539Z0F1800
G1 X42.441Y49.967Z0F1800
G1 X42.272Y49.755Z0F1800
G1 X42.067Y49.462Z0F1800
G1 X41.834Y49.107Z0F1800
G1 X41.586Y48.707Z0F1800
G1 X41.086Y47.846Z0F1800
G0 Z4.8F1000
G0 X92.311Y41.292Z4.8
G1 Z0F1000
G1 X91.541Y42.796Z0F1800
G1 X90.74Y44.234Z0F1800
G1 X89.917Y45.595Z0F1800
G1 X89.035Y46.937Z0F1800
G1 X88.099Y48.255Z0F1800
G1 X87.092Y49.575Z0F1800
G1 X87.033Y49.651Z0F1800
G1 X86.959Y49.602Z0F1800
G1 X86.983Y49.542Z0F1800
G1 X87.191Y49.059Z0F1800
G1 X87.428Y48.538Z0F1800
G1 X87.713Y47.938Z0F1800
G1 X87.988Y47.383Z0F1800
G1 X88.619Y46.208Z0F1800
G1 X89.276Y45.107Z0F1800
G1 X90.016Y43.993Z0F1800
G1 X90.825Y42.883Z0F1800
G1 X91.716Y41.767Z0F1800
G1 X92.546Y40.803Z0F1800
G1 X92.311Y41.292Z0F1800
G0 Z4.8F1000
G0 X94.987Y47.509Z4.8
G1 Z0F1000
G1 X95.433Y46.641Z0F1800
G1 X95.859Y45.742Z0F1800
G1 X96.246Y44.854Z0F1800
G1 X96.24Y44.872Z0F1800
G1 X96.021Y45.447Z0F1800
G1 X95.779Y46.009Z0F1800
G1 X95.519Y46.55Z0F1800
G1 X95.238Y47.079Z0F1800
G1 X94.987Y47.509Z0F1800
G0 Z4.8F1000
G0 X85.241Y41.65Z4.8
G1 Z0F1000
G1 X85.617Y41.093Z0F1800
G1 X86.115Y40.457Z0F1800
G1 X86.694Y39.807Z0F1800
G1 X87.36Y39.136Z0F1800
G1 X87.398Y39.101Z0F1800
G1 X87.294Y39.208Z0F1800
G1 X87.069Y39.452Z0F1800
G1 X86.866Y39.687Z0F1800
G1 X86.667Y39.941Z0F1800
G1 X86.588Y40.066Z0F1800
G1 X86.463Y40.181Z0F1800
G1 X86.175Y40.479Z0F1800
G1 X85.873Y40.83Z0F1800
G1 X85.306Y41.558Z0F1800
G1 X85.241Y41.65Z0F1800
G0 Z4.8F1000
G0 X95.387Y34.24Z4.8
G1 Z0F1000
G1 X95.499Y34.191Z0F1800
G1 X96.594Y33.729Z0F1800
G1 X97.083Y33.53Z0F1800
G1 X97.113Y33.519Z0F1800
G1 Y33.542Z0F1800
G1 X97.139Y34.022Z0F1800
G1 X97.159Y34.501Z0F1800
G1 X97.171Y34.847Z0F1800
G1 X96.875Y34.408Z0F1800
G1 X96.56Y34.605Z0F1800
G1 X96.582Y34.419Z0F1800
G1 X95.387Y34.24Z0F1800
G0 Z4.8F1000
G0 X94.001Y33.866Z4.8
G1 Z0F1000
G1 X95.133Y33.369Z0F1800
G1 X96.253Y32.896Z0F1800
G1 X96.752Y32.693Z0F1800
G1 X97.225Y32.507Z0F1800
G1 X97.626Y32.356Z0F1800
G1 X97.923Y32.251Z0F1800
G1 X97.927Y32.294Z0F1800
G1 X97.958Y32.653Z0F1800
G1 X97.986Y33.056Z0F1800
G1 X98.013Y33.496Z0F1800
G1 X98.037Y33.968Z0F1800
G1 X98.058Y34.47Z0F1800
G1 X98.076Y34.987Z0F1800
G1 X98.101Y36.096Z0F1800
G1 X98.109Y37.218Z0F1800
G1 Y37.841Z0F1800
G1 X98.102Y38.417Z0F1800
G1 X98.092Y38.952Z0F1800
G1 X98.079Y39.447Z0F1800
G1 X98.061Y39.91Z0F1800
G1 X98.039Y40.34Z0F1800
G1 X98.009Y40.761Z0F1800
G1 X97.977Y41.136Z0F1800
G1 X97.893Y41.846Z0F1800
G1 X97.78Y42.548Z0F1800
G1 X97.64Y43.226Z0F1800
G1 X97.467Y43.939Z0F1800
G1 X97.288Y44.57Z0F1800
G1 X97.087Y45.174Z0F1800
G1 X96.852Y45.792Z0F1800
G1 X96.604Y46.37Z0F1800
G1 X96.318Y46.964Z0F1800
G1 X96.025Y47.517Z0F1800
G1 X95.707Y48.06Z0F1800
G1 X95.37Y48.583Z0F1800
G1 X95.03Y49.064Z0F1800
G1 X94.674Y49.52Z0F1800
G1 X94.305Y49.947Z0F1800
G1 X93.942Y50.325Z0F1800
G1 X93.572Y50.667Z0F1800
G1 X93.205Y50.964Z0F1800
G1 X92.844Y51.214Z0F1800
G1 X92.484Y51.42Z0F1800
G1 X92.238Y51.543Z0F1800
G1 X92.047Y51.631Z0F1800
G1 X91.902Y51.686Z0F1800
G1 X91.77Y51.723Z0F1800
G1 X91.617Y51.751Z0F1800
G1 X91.388Y51.775Z0F1800
G1 X91.105Y51.793Z0F1800
G1 X91.016Y51.797Z0F1800
G1 X91.332Y51.382Z0F1800
G1 X91.767Y50.798Z0F1800
G1 X92.203Y50.2Z0F1800
G1 X92.616Y49.623Z0F1800
G1 X92.807Y49.35Z0F1800
G1 X92.982Y49.094Z0F1800
G1 X93.14Y48.86Z0F1800
G1 X93.281Y48.645Z0F1800
G1 X93.743Y47.888Z0F1800
G1 X94.193Y47.084Z0F1800
G1 X94.626Y46.242Z0F1800
G1 X95.039Y45.37Z0F1800
G1 X95.429Y44.473Z0F1800
G1 X95.794Y43.56Z0F1800
G1 X96.129Y42.636Z0F1800
G1 X96.433Y41.708Z0F1800
G1 X96.601Y41.117Z0F1800
G1 X96.764Y40.465Z0F1800
G1 X96.916Y39.786Z0F1800
G1 X97.05Y39.108Z0F1800
G1 X97.163Y38.464Z0F1800
G1 X97.247Y37.887Z0F1800
G1 X97.277Y37.623Z0F1800
G1 X97.298Y37.382Z0F1800
G1 X97.308Y37.157Z0F1800
G1 X97.301Y36.936Z0F1800
G1 X97.246Y36.569Z0F1800
G1 X96.615Y35.633Z0F1800
G1 X95.656Y36.233Z0F1800
G1 X95.445Y36.558Z0F1800
G1 X95.367Y36.707Z0F1800
G1 X95.294Y36.855Z0F1800
G1 X95.214Y37.027Z0F1800
G1 X95.027Y37.447Z0F1800
G1 X94.652Y38.321Z0F1800
G1 X94.271Y39.206Z0F1800
G1 X93.883Y40.071Z0F1800
G1 X93.506Y40.886Z0F1800
G1 X93.123Y41.679Z0F1800
G1 X92.332Y43.225Z0F1800
G1 X91.523Y44.678Z0F1800
G1 X90.674Y46.081Z0F1800
G1 X89.781Y47.44Z0F1800
G1 X88.818Y48.795Z0F1800
G1 X87.8Y50.132Z0F1800
G1 X87.252Y50.828Z0F1800
G1 X87.09Y50.742Z0F1800
G1 X86.638Y50.47Z0F1800
G1 X86.208Y50.183Z0F1800
G1 X85.87Y49.928Z0F1800
G1 X85.98Y49.623Z0F1800
G1 X86.152Y49.196Z0F1800
G1 X86.364Y48.703Z0F1800
G1 X86.622Y48.137Z0F1800
G1 X86.894Y47.564Z0F1800
G1 X87.197Y46.954Z0F1800
G1 X87.828Y45.777Z0F1800
G1 X88.522Y44.616Z0F1800
G1 X89.27Y43.488Z0F1800
G1 X90.11Y42.336Z0F1800
G1 X91.021Y41.193Z0F1800
G1 X92.051Y40Z0F1800
G1 X92.583Y39.414Z0F1800
G1 X93.159Y38.801Z0F1800
G1 X93.772Y38.166Z0F1800
G1 X94.408Y37.524Z0F1800
G1 X94.763Y37.161Z0F1800
G1 X95.053Y36.838Z0F1800
G1 X95.178Y36.688Z0F1800
G1 X95.289Y36.54Z0F1800
G1 X95.451Y36.271Z0F1800
G1 X95.583Y35.18Z0F1800
G1 X94.494Y35.016Z0F1800
G1 X94.188Y35.098Z0F1800
G1 X94.006Y35.169Z0F1800
G1 X93.825Y35.254Z0F1800
G1 X93.442Y35.455Z0F1800
G1 X92.991Y35.712Z0F1800
G1 X92.014Y36.321Z0F1800
G1 X91.096Y36.958Z0F1800
G1 X90.824Y37.169Z0F1800
G1 X90.543Y37.397Z0F1800
G1 X90.248Y37.647Z0F1800
G1 X89.942Y37.915Z0F1800
G1 X89.325Y38.474Z0F1800
G1 X88.728Y39.04Z0F1800
G1 X88.446Y39.316Z0F1800
G1 X88.186Y39.579Z0F1800
G1 X87.95Y39.825Z0F1800
G1 X87.741Y40.052Z0F1800
G1 X87.56Y40.26Z0F1800
G1 X87.403Y40.46Z0F1800
G1 X87.275Y40.663Z0F1800
G1 X87.227Y40.702Z0F1800
G1 X87.092Y40.825Z0F1800
G1 X86.84Y41.086Z0F1800
G1 X86.569Y41.4Z0F1800
G1 X86.029Y42.094Z0F1800
G1 X85.509Y42.829Z0F1800
G1 X85.012Y43.596Z0F1800
G1 X84.541Y44.39Z0F1800
G1 X84.102Y45.201Z0F1800
G1 X83.698Y46.021Z0F1800
G1 X83.334Y46.844Z0F1800
G1 X83.309Y46.909Z0F1800
G1 X83.304Y46.897Z0F1800
G1 X83.236Y46.618Z0F1800
G1 X83.219Y46.463Z0F1800
G1 X83.206Y46.203Z0F1800
G1 X83.199Y45.846Z0F1800
G1 Y45.403Z0F1800
G1 Y44.983Z0F1800
G1 X83.208Y44.631Z0F1800
G1 X83.222Y44.352Z0F1800
G1 X83.243Y44.138Z0F1800
G1 X83.313Y43.753Z0F1800
G1 X83.437Y43.34Z0F1800
G1 X83.711Y42.62Z0F1800
G1 X84.039Y41.927Z0F1800
G1 X84.434Y41.236Z0F1800
G1 X84.889Y40.564Z0F1800
G1 X85.425Y39.878Z0F1800
G1 X86.036Y39.192Z0F1800
G1 X86.743Y38.479Z0F1800
G1 X87.542Y37.748Z0F1800
G1 X87.941Y37.406Z0F1800
G1 X88.328Y37.108Z0F1800
G1 X88.557Y36.947Z0F1800
G1 X88.818Y36.77Z0F1800
G1 X89.158Y36.547Z0F1800
G1 X90.081Y35.949Z0F1800
G1 X90.689Y35.55Z0F1800
G1 X90.94Y35.38Z0F1800
G1 X90.995Y35.341Z0F1800
G1 X91.103Y35.267Z0F1800
G1 X91.292Y35.159Z0F1800
G1 X91.611Y34.991Z0F1800
G1 X91.976Y34.809Z0F1800
G1 X92.419Y34.594Z0F1800
G1 X92.911Y34.363Z0F1800
G1 X93.446Y34.117Z0F1800
G1 X94.001Y33.866Z0F1800
G0 Z4.8F1000
G0 X98.79Y31.891Z4.8
G1 Z0F1000
G1 X98.824Y32.217Z0F1800
G1 X98.855Y32.589Z0F1800
G1 X98.885Y33.001Z0F1800
G1 X98.912Y33.45Z0F1800
G1 X98.937Y33.931Z0F1800
G1 X98.958Y34.438Z0F1800
G1 X98.976Y34.967Z0F1800
G1 X99.001Y36.076Z0F1800
G1 X99.009Y37.221Z0F1800
G1 Y37.849Z0F1800
G1 X99.002Y38.433Z0F1800
G1 X98.992Y38.976Z0F1800
G1 X98.979Y39.482Z0F1800
G1 X98.96Y39.957Z0F1800
G1 X98.937Y40.402Z0F1800
G1 X98.907Y40.824Z0F1800
G1 X98.873Y41.225Z0F1800
G1 X98.783Y41.981Z0F1800
G1 X98.667Y42.704Z0F1800
G1 X98.518Y43.424Z0F1800
G1 X98.335Y44.176Z0F1800
G1 X98.15Y44.832Z0F1800
G1 X97.934Y45.481Z0F1800
G1 X97.689Y46.122Z0F1800
G1 X97.419Y46.75Z0F1800
G1 X97.125Y47.364Z0F1800
G1 X96.809Y47.959Z0F1800
G1 X96.473Y48.533Z0F1800
G1 X96.12Y49.082Z0F1800
G1 X95.75Y49.603Z0F1800
G1 X95.368Y50.093Z0F1800
G1 X94.974Y50.55Z0F1800
G1 X94.571Y50.97Z0F1800
G1 X94.16Y51.349Z0F1800
G1 X93.745Y51.685Z0F1800
G1 X93.327Y51.975Z0F1800
G1 X92.908Y52.214Z0F1800
G1 X92.631Y52.354Z0F1800
G1 X92.396Y52.461Z0F1800
G1 X92.184Y52.542Z0F1800
G1 X91.973Y52.601Z0F1800
G1 X91.743Y52.643Z0F1800
G1 X91.473Y52.671Z0F1800
G1 X91.144Y52.692Z0F1800
G1 X90.734Y52.71Z0F1800
G1 X90.22Y52.721Z0F1800
G1 X89.783Y52.715Z0F1800
G1 X89.608Y52.706Z0F1800
G1 X89.47Y52.692Z0F1800
G1 X89.375Y52.676Z0F1800
G1 X89.327Y52.656Z0F1800
G1 X89.314Y52.583Z0F1800
G1 X89.36Y52.46Z0F1800
G1 X89.455Y52.305Z0F1800
G1 X89.593Y52.131Z0F1800
G1 X89.717Y51.987Z0F1800
G1 X89.863Y51.808Z0F1800
G1 X90.029Y51.6Z0F1800
G1 X90.212Y51.366Z0F1800
G1 X90.613Y50.84Z0F1800
G1 X91.043Y50.264Z0F1800
G1 X91.474Y49.673Z0F1800
G1 X91.881Y49.104Z0F1800
G1 X92.067Y48.837Z0F1800
G1 X92.238Y48.588Z0F1800
G1 X92.39Y48.362Z0F1800
G1 X92.521Y48.164Z0F1800
G1 X92.966Y47.434Z0F1800
G1 X93.4Y46.658Z0F1800
G1 X93.819Y45.844Z0F1800
G1 X94.22Y44.998Z0F1800
G1 X94.599Y44.127Z0F1800
G1 X94.953Y43.24Z0F1800
G1 X95.278Y42.343Z0F1800
G1 X95.572Y41.444Z0F1800
G1 X95.731Y40.884Z0F1800
G1 X95.888Y40.258Z0F1800
G1 X96.035Y39.6Z0F1800
G1 X96.166Y38.942Z0F1800
G1 X96.274Y38.321Z0F1800
G1 X96.354Y37.771Z0F1800
G1 X96.382Y37.532Z0F1800
G1 X96.4Y37.324Z0F1800
G1 X96.407Y37.151Z0F1800
G1 X96.403Y37.017Z0F1800
G1 X96.386Y36.904Z0F1800
G1 X96.355Y36.857Z0F1800
G1 X96.303Y36.89Z0F1800
G1 X96.222Y37.014Z0F1800
G1 X96.169Y37.115Z0F1800
G1 X96.106Y37.243Z0F1800
G1 X96.033Y37.4Z0F1800
G1 X95.852Y37.808Z0F1800
G1 X95.479Y38.678Z0F1800
G1 X95.092Y39.573Z0F1800
G1 X94.705Y40.439Z0F1800
G1 X94.316Y41.277Z0F1800
G1 X93.924Y42.089Z0F1800
G1 X93.126Y43.648Z0F1800
G1 X92.3Y45.132Z0F1800
G1 X91.436Y46.561Z0F1800
G1 X90.522Y47.951Z0F1800
G1 X89.549Y49.32Z0F1800
G1 X88.507Y50.688Z0F1800
G1 X87.57Y51.878Z0F1800
G1 X87.512Y51.899Z0F1800
G1 X87.405Y51.883Z0F1800
G1 X87.258Y51.832Z0F1800
G1 X87.077Y51.752Z0F1800
G1 X86.644Y51.524Z0F1800
G1 X86.162Y51.233Z0F1800
G1 X85.688Y50.917Z0F1800
G1 X85.278Y50.609Z0F1800
G1 X85.116Y50.471Z0F1800
G1 X84.991Y50.349Z0F1800
G1 X84.911Y50.247Z0F1800
G1 X84.883Y50.17Z0F1800
G1 X84.891Y50.089Z0F1800
G1 X84.913Y49.979Z0F1800
G1 X84.95Y49.845Z0F1800
G1 X85Y49.687Z0F1800
G1 X85.138Y49.305Z0F1800
G1 X85.322Y48.849Z0F1800
G1 X85.545Y48.33Z0F1800
G1 X85.802Y47.765Z0F1800
G1 X86.088Y47.165Z0F1800
G1 X86.396Y46.543Z0F1800
G1 X87.047Y45.329Z0F1800
G1 X87.757Y44.141Z0F1800
G1 X88.536Y42.967Z0F1800
G1 X89.391Y41.795Z0F1800
G1 X90.333Y40.614Z0F1800
G1 X91.37Y39.412Z0F1800
G1 X91.927Y38.798Z0F1800
G1 X92.511Y38.175Z0F1800
G1 X93.125Y37.541Z0F1800
G1 X93.767Y36.893Z0F1800
G1 X94.106Y36.545Z0F1800
G1 X94.373Y36.249Z0F1800
G1 X94.472Y36.13Z0F1800
G1 X94.542Y36.037Z0F1800
G1 X94.581Y35.972Z0F1800
G1 X94.584Y35.94Z0F1800
G1 X94.545Y35.934Z0F1800
G1 X94.47Y35.954Z0F1800
G1 X94.361Y35.997Z0F1800
G1 X94.224Y36.061Z0F1800
G1 X93.875Y36.244Z0F1800
G1 X93.453Y36.485Z0F1800
G1 X92.509Y37.073Z0F1800
G1 X91.629Y37.684Z0F1800
G1 X91.384Y37.874Z0F1800
G1 X91.118Y38.09Z0F1800
G1 X90.834Y38.33Z0F1800
G1 X90.54Y38.587Z0F1800
G1 X89.937Y39.134Z0F1800
G1 X89.353Y39.688Z0F1800
G1 X89.081Y39.955Z0F1800
G1 X88.83Y40.208Z0F1800
G1 X88.605Y40.442Z0F1800
G1 X88.412Y40.652Z0F1800
G1 X88.255Y40.833Z0F1800
G1 X88.14Y40.979Z0F1800
G1 X88.073Y41.085Z0F1800
G1 X88.059Y41.146Z0F1800
G1 X88.073Y41.207Z0F1800
G1 X88.063Y41.251Z0F1800
G1 X88.035Y41.276Z0F1800
G1 X87.988Z0F1800
G1 X87.949Y41.287Z0F1800
G1 X87.89Y41.324Z0F1800
G1 X87.813Y41.385Z0F1800
G1 X87.721Y41.47Z0F1800
G1 X87.505Y41.693Z0F1800
G1 X87.266Y41.971Z0F1800
G1 X86.752Y42.631Z0F1800
G1 X86.254Y43.334Z0F1800
G1 X85.776Y44.071Z0F1800
G1 X85.324Y44.834Z0F1800
G1 X84.901Y45.614Z0F1800
G1 X84.514Y46.401Z0F1800
G1 X84.166Y47.189Z0F1800
G1 X83.863Y47.967Z0F1800
G1 X83.478Y49.035Z0F1800
G1 X83.214Y48.666Z0F1800
G1 X83.086Y48.467Z0F1800
G1 X82.932Y48.199Z0F1800
G1 X82.772Y47.898Z0F1800
G1 X82.624Y47.598Z0F1800
G1 X82.446Y47.178Z0F1800
G1 X82.348Y46.776Z0F1800
G1 X82.321Y46.533Z0F1800
G1 X82.306Y46.235Z0F1800
G1 X82.299Y45.863Z0F1800
G1 Y45.398Z0F1800
G1 Y44.963Z0F1800
G1 X82.308Y44.597Z0F1800
G1 X82.324Y44.287Z0F1800
G1 X82.35Y44.017Z0F1800
G1 X82.437Y43.541Z0F1800
G1 X82.583Y43.053Z0F1800
G1 X82.882Y42.268Z0F1800
G1 X83.242Y41.507Z0F1800
G1 X83.667Y40.764Z0F1800
G1 X84.162Y40.032Z0F1800
G1 X84.732Y39.304Z0F1800
G1 X85.382Y38.573Z0F1800
G1 X86.117Y37.833Z0F1800
G1 X86.941Y37.077Z0F1800
G1 X87.377Y36.705Z0F1800
G1 X87.796Y36.382Z0F1800
G1 X88.038Y36.211Z0F1800
G1 X88.324Y36.018Z0F1800
G1 X88.668Y35.792Z0F1800
G1 X89.589Y35.195Z0F1800
G1 X90.19Y34.801Z0F1800
G1 X90.424Y34.643Z0F1800
G1 X90.474Y34.606Z0F1800
G1 X90.625Y34.504Z0F1800
G1 X90.868Y34.365Z0F1800
G1 X91.191Y34.195Z0F1800
G1 X91.584Y33.998Z0F1800
G1 X92.036Y33.78Z0F1800
G1 X92.535Y33.545Z0F1800
G1 X93.07Y33.299Z0F1800
G1 X93.631Y33.046Z0F1800
G1 X94.783Y32.54Z0F1800
G1 X95.903Y32.067Z0F1800
G1 X96.423Y31.855Z0F1800
G1 X96.901Y31.667Z0F1800
G1 X97.327Y31.507Z0F1800
G1 X97.689Y31.379Z0F1800
G1 X98.022Y31.271Z0F1800
G1 X98.42Y31.145Z0F1800
G1 X98.574Y31.101Z0F1800
G1 X98.606Y31.094Z0F1800
G1 X98.645Y31.126Z0F1800
G1 X98.682Y31.227Z0F1800
G1 X98.719Y31.391Z0F1800
G1 X98.755Y31.614Z0F1800
G1 X98.79Y31.891Z0F1800
;Cut @ 1500 mm/min, 80% power

M8

; Washing sequence (no color)
G1 Z10 F1000;        ; Raise brush to safe height
G0 X5 Y5 F1200;     ; Rapid move to brush cleaning position
G1 Z-1 F800;         ; Lower brush for cleaning - controlled movement
G1 X10 Y12 Z8 F1200;     ; Rapid move to brush cleaning position
G1 Z-1 F800;         ; Lower brush for cleaning - controlled movement
G1 X25 Y14 Z6 F800;     ; Move across cleaning area - controlled movement
G1 Z8 F800;         ; Maintain brush height - controlled movement
G0 X5 Y5 F1200;     ; Rapid move to brush cleaning position
G1 Z-1 F800;         ; Lower brush for cleaning - controlled movement
G1 X15 Y12 Z8 F1200;     ; Rapid move to brush cleaning position
G1 Z-1 F800;         ; Lower brush for cleaning - controlled movement
G1 X25 Y14 Z6 F800;     ; Move across cleaning area - controlled movement
G1 Z10 F800;         ; Maintain brush height - controlled movement
G1 F1200;           ; Set feed rate to 1000

; Color 1 picking sequence
G1 Z10 F1000;         ; Raise brush to safe height
G0 X131 Y5 F1200;    ; Rapid move to color 1 position
G1 Z0 F1000;         ; Lower into color - controlled movement
G1 X130.102Y7.295Z0S800F1200
G1 X130.026Y7.642Z0F1200
G1 X130Y8Z0F1200
G1 X130.026Y8.358Z0F1200
G1 X130.102Y8.705Z0F1200
G1 X130.225Y9.041Z0F1200
G1 X130.393Y9.362Z0F1200
G1 X130.603Y9.668Z0F1200
G1 X130.854Y9.957Z0F1200
G1 X131.142Y10.226Z0F1200
G1 X131.464Y10.475Z0F1200
G1 X131.82Y10.701Z0F1200
G1 X132.204Y10.902Z0F1200
G1 X132.617Y11.078Z0F1200
G1 X133.054Y11.225Z0F1200
G1 X133.513Y11.343Z0F1200
G1 X133.992Y11.429Z0F1200
G1 X134.489Y11.482Z0F1200
G1 X135Y11.5Z0F1200
G1 X135.511Y11.482Z0F1200
G1 X136.008Y11.429Z0F1200
G1 X136.487Y11.343Z0F1200
G1 X136.946Y11.225Z0F1200
G1 X137.383Y11.078Z0F1200
G1 X137.796Y10.902Z0F1200
G1 X138.18Y10.701Z0F1200
G1 X138.536Y10.475Z0F1200
G1 X138.858Y10.226Z0F1200
G1 X139.146Y9.957Z0F1200
G1 X139.397Y9.668Z0F1200
G1 X139.607Y9.362Z0F1200
G1 X139.775Y9.041Z0F1200
G1 X139.898Y8.705Z0F1200
G1 X139.974Y8.358Z0F1200
G1 X140Y8Z0F1200
G1 X139.974Y7.642Z0F1200
G1 X139.898Y7.295Z0F1200
G1 X139.775Y6.959Z0F1200
G1 X139.607Y6.638Z0F1200
G1 X139.397Y6.332Z0F1200
G1 X139.146Y6.043Z0F1200
G1 X138.858Y5.774Z0F1200
G1 X138.536Y5.525Z0F1200
G1 X138.18Y5.299Z0F1200
G1 X137.796Y5.098Z0F1200
G1 X137.383Y4.922Z0F1200
G1 X136.946Y4.775Z0F1200
G1 X136.487Y4.657Z0F1200
G1 X136.008Y4.571Z0F1200
G1 X135.511Y4.518Z0F1200
G1 X135Y4.5Z0F1200
G1 X134.489Y4.518Z0F1200
G1 X133.992Y4.571Z0F1200
G1 X133.513Y4.657Z0F1200
G1 X133.054Y4.775Z0F1200
G1 X132.617Y4.922Z0F1200
G1 X132.204Y5.098Z0F1200
G1 X131.82Y5.299Z0F1200
G1 X131.464Y5.525Z0F1200
G1 X131.142Y5.774Z0F1200
G1 X130.854Y6.043Z0F1200
G1 X130.603Y6.332Z0F1200
G1 X130.393Y6.638Z0F1200
G1 X130.225Y6.959Z0F1200
G1 Z7 F800;         ; Raise from color - controlled movement
G1 X124 Y8 Z1 F1200;     ; Movement in paint - controlled movement
G1 X114 Y18 Z8 F500;     ; Move in paint - controlled movement
G1 F1200;           ; Set feed rate to 1000
G0 Z4.8F1000
G0 X73.791Y42.492Z4.8
G1 Z0F1000
;Layer Red
G1 X73.755Y42.482Z0S800F1800
G1 X73.678Y42.472Z0F1800
G1 X73.563Y42.463Z0F1800
G1 X73.413Y42.454Z0F1800
G1 X73.013Y42.438Z0F1800
G1 X72.496Y42.423Z0F1800
G1 X71.879Y42.411Z0F1800
G1 X71.178Y42.402Z0F1800
G1 X70.411Y42.396Z0F1800
G1 X69.596Z0F1800
G1 X69.041Z0F1800
G1 X68.072Z0F1800
G1 X67.279Y42.404Z0F1800
G1 X66.648Y42.416Z0F1800
G1 X66.389Y42.424Z0F1800
G1 X66.165Y42.434Z0F1800
G1 X65.974Y42.444Z0F1800
G1 X65.814Y42.456Z0F1800
G1 X65.685Y42.47Z0F1800
G1 X65.508Y42.503Z0F1800
G1 X65.428Y42.542Z0F1800
G1 X65.396Y42.605Z0F1800
G1 X65.354Y42.728Z0F1800
G1 X65.304Y42.904Z0F1800
G1 X65.246Y43.125Z0F1800
G1 X65.118Y43.673Z0F1800
G1 X64.984Y44.315Z0F1800
G1 X64.842Y45.026Z0F1800
G1 X64.62Y46.112Z0F1800
G1 X64.346Y47.403Z0F1800
G1 X64.258Y47.85Z0F1800
G1 X64.218Y48.059Z0F1800
G1 X64.155Y48.416Z0F1800
G1 X64.135Y48.551Z0F1800
G1 X64.109Y48.758Z0F1800
G1 X64.082Y48.909Z0F1800
G1 X64.026Y49.019Z0F1800
G1 X63.915Y49.101Z0F1800
G1 X63.83Y49.136Z0F1800
G1 X63.721Y49.168Z0F1800
G1 X63.584Y49.2Z0F1800
G1 X63.417Y49.234Z0F1800
G1 X63.215Y49.27Z0F1800
G1 X62.09Y49.459Z0F1800
G1 X61.869Y49.491Z0F1800
G1 X61.697Y49.509Z0F1800
G1 X61.566Y49.513Z0F1800
G1 X61.39Y49.476Z0F1800
G1 X61.273Y49.378Z0F1800
G1 X61.222Y49.313Z0F1800
G1 X61.142Y49.202Z0F1800
G1 X60.904Y48.861Z0F1800
G1 X60.586Y48.392Z0F1800
G1 X60.209Y47.831Z0F1800
G1 X59.38Y46.575Z0F1800
G1 X58.37Y45.015Z0F1800
G1 X58.166Y44.715Z0F1800
G1 X58.084Y44.599Z0F1800
G1 X58.018Y44.512Z0F1800
G1 X57.972Y44.456Z0F1800
G1 X57.947Y44.437Z0F1800
G1 X57.935Y44.468Z0F1800
G1 X57.924Y44.557Z0F1800
G1 X57.913Y44.699Z0F1800
G1 X57.904Y44.886Z0F1800
G1 X57.896Y45.113Z0F1800
G1 X57.89Y45.374Z0F1800
G1 X57.885Y45.661Z0F1800
G1 X57.88Y46.434Z0F1800
G1 X57.871Y46.815Z0F1800
G1 X57.854Y47.132Z0F1800
G1 X57.825Y47.404Z0F1800
G1 X57.723Y47.894Z0F1800
G1 X57.543Y48.442Z0F1800
G1 X57.206Y49.381Z0F1800
G1 X59.907Y53.418Z0F1800
G1 X60.723Y54.626Z0F1800
G1 X61.217Y55.351Z0F1800
G1 X61.472Y55.721Z0F1800
G1 X61.658Y55.986Z0F1800
G1 X61.763Y56.13Z0F1800
G1 X61.783Y56.152Z0F1800
G1 X61.815Y56.158Z0F1800
G1 X61.876Y56.155Z0F1800
G1 X61.961Y56.143Z0F1800
G1 X62.068Y56.124Z0F1800
G1 X62.333Y56.066Z0F1800
G1 X62.641Y55.987Z0F1800
G1 X63.265Y55.834Z0F1800
G1 X63.952Y55.701Z0F1800
G1 X64.693Y55.588Z0F1800
G1 X65.478Y55.496Z0F1800
G1 X66.298Y55.424Z0F1800
G1 X67.146Y55.373Z0F1800
G1 X68.01Y55.342Z0F1800
G1 X68.884Y55.331Z0F1800
G1 X69.758Y55.341Z0F1800
G1 X70.622Y55.371Z0F1800
G1 X71.468Y55.421Z0F1800
G1 X72.288Y55.492Z0F1800
G1 X73.071Y55.584Z0F1800
G1 X73.809Y55.695Z0F1800
G1 X74.494Y55.828Z0F1800
G1 X75.116Y55.98Z0F1800
G1 X75.472Y56.077Z0F1800
G1 X75.748Y56.147Z0F1800
G1 X75.956Y56.189Z0F1800
G1 X76.107Y56.203Z0F1800
G1 X76.216Y56.19Z0F1800
G1 X76.293Y56.149Z0F1800
G1 X76.353Y56.08Z0F1800
G1 X76.407Y55.985Z0F1800
G1 X76.459Y55.896Z0F1800
G1 X76.562Y55.735Z0F1800
G1 X76.71Y55.509Z0F1800
G1 X76.897Y55.228Z0F1800
G1 X77.362Y54.539Z0F1800
G1 X77.908Y53.741Z0F1800
G1 X79.747Y51.071Z0F1800
G1 X79.916Y50.807Z0F1800
G1 X80.041Y50.577Z0F1800
G1 X80.083Y50.482Z0F1800
G1 X80.109Y50.405Z0F1800
G1 X80.117Y50.349Z0F1800
G1 X80.108Y50.317Z0F1800
G1 X80.062Y50.293Z0F1800
G1 X79.964Y50.258Z0F1800
G1 X79.817Y50.211Z0F1800
G1 X79.628Y50.154Z0F1800
G1 X79.402Y50.089Z0F1800
G1 X79.143Y50.018Z0F1800
G1 X78.55Y49.859Z0F1800
G1 X77.206Y49.519Z0F1800
G1 X75.934Y49.221Z0F1800
G1 X75.222Y49.065Z0F1800
G1 X74.309Y44.444Z0F1800
G1 X74.233Y44.069Z0F1800
G1 X74.155Y43.715Z0F1800
G1 X74.079Y43.391Z0F1800
G1 X74.006Y43.105Z0F1800
G1 X73.938Y42.863Z0F1800
G1 X73.879Y42.675Z0F1800
G1 X73.829Y42.549Z0F1800
G1 X73.791Y42.492Z0F1800
G0 Z4.8F1000
G0 X90.157Y55.994Z4.8
G1 Z0F1000
G1 X88.672Y58.915Z0F1800
G1 X88.205Y59.824Z0F1800
G1 X87.825Y60.556Z0F1800
G1 X87.578Y61.022Z0F1800
G1 X87.468Y61.22Z0F1800
G1 X87.444Y61.303Z0F1800
G1 X87.457Y61.391Z0F1800
G1 X87.514Y61.495Z0F1800
G1 X87.625Y61.628Z0F1800
G1 X87.799Y61.802Z0F1800
G1 X88.044Y62.03Z0F1800
G1 X88.37Y62.324Z0F1800
G1 X89.068Y62.962Z0F1800
G1 X89.738Y63.601Z0F1800
G1 X90.382Y64.239Z0F1800
G1 X91Y64.879Z0F1800
G1 X92.158Y66.164Z0F1800
G1 X93.218Y67.46Z0F1800
G1 X94.183Y68.774Z0F1800
G1 X95.058Y70.111Z0F1800
G1 X95.846Y71.476Z0F1800
G1 X96.552Y72.874Z0F1800
G1 X96.834Y73.51Z0F1800
G1 X97.13Y74.238Z0F1800
G1 X97.428Y75.031Z0F1800
G1 X97.72Y75.862Z0F1800
G1 X97.997Y76.703Z0F1800
G1 X98.248Y77.526Z0F1800
G1 X98.465Y78.303Z0F1800
G1 X98.639Y79.007Z0F1800
G1 X98.808Y79.814Z0F1800
G1 X98.955Y80.637Z0F1800
G1 X99.08Y81.473Z0F1800
G1 X99.183Y82.319Z0F1800
G1 X99.322Y84.033Z0F1800
G1 X99.373Y85.757Z0F1800
G1 X99.336Y87.471Z0F1800
G1 X99.209Y89.156Z0F1800
G1 X99.113Y89.981Z0F1800
G1 X98.995Y90.791Z0F1800
G1 X98.854Y91.583Z0F1800
G1 X98.691Y92.354Z0F1800
G1 X98.571Y92.847Z0F1800
G1 X98.422Y93.41Z0F1800
G1 X98.254Y94.012Z0F1800
G1 X98.075Y94.624Z0F1800
G1 X97.894Y95.216Z0F1800
G1 X97.721Y95.756Z0F1800
G1 X97.64Y95.998Z0F1800
G1 X97.564Y96.215Z0F1800
G1 X97.495Y96.405Z0F1800
G1 X97.433Y96.563Z0F1800
G1 X97.061Y97.465Z0F1800
G1 X96.992Y97.623Z0F1800
G1 X96.901Y97.821Z0F1800
G1 X96.792Y98.053Z0F1800
G1 X96.666Y98.313Z0F1800
G1 X96.379Y98.893Z0F1800
G1 X96.066Y99.511Z0F1800
G1 X95.752Y100.118Z0F1800
G1 X95.462Y100.666Z0F1800
G1 X95.334Y100.901Z0F1800
G1 X95.222Y101.104Z0F1800
G1 X95.128Y101.267Z0F1800
G1 X95.056Y101.384Z0F1800
G1 X94.959Y101.531Z0F1800
G1 X94.7Y101.913Z0F1800
G1 X94.206Y102.629Z0F1800
G1 X93.851Y103.137Z0F1800
G1 X93.51Y103.621Z0F1800
G1 X93.093Y104.204Z0F1800
G1 X92.921Y104.436Z0F1800
G1 X92.879Y104.488Z0F1800
G1 X92.789Y104.591Z0F1800
G1 X92.634Y104.774Z0F1800
G1 X92.217Y105.276Z0F1800
G1 X91.676Y105.912Z0F1800
G1 X91.136Y106.52Z0F1800
G1 X90.919Y106.759Z0F1800
G1 X90.731Y106.976Z0F1800
G1 X90.59Y107.146Z0F1800
G1 X90.517Y107.247Z0F1800
G1 X90.512Y107.329Z0F1800
G1 X90.55Y107.488Z0F1800
G1 X90.629Y107.727Z0F1800
G1 X90.753Y108.048Z0F1800
G1 X90.92Y108.454Z0F1800
G1 X91.133Y108.946Z0F1800
G1 X91.392Y109.527Z0F1800
G1 X91.698Y110.2Z0F1800
G1 X91.797Y110.422Z0F1800
G1 X91.929Y110.722Z0F1800
G1 X92.075Y111.062Z0F1800
G1 X92.426Y111.889Z0F1800
G1 X92.616Y112.321Z0F1800
G1 X92.786Y112.693Z0F1800
G1 X92.935Y113.004Z0F1800
G1 X93.063Y113.251Z0F1800
G1 X93.166Y113.431Z0F1800
G1 X93.245Y113.541Z0F1800
G1 X93.298Y113.578Z0F1800
G1 X93.332Y113.564Z0F1800
G1 X93.392Y113.525Z0F1800
G1 X93.474Y113.464Z0F1800
G1 X93.575Y113.382Z0F1800
G1 X93.82Y113.17Z0F1800
G1 X94.101Y112.912Z0F1800
G1 X95.307Y111.767Z0F1800
G1 X96.989Y112.55Z0F1800
G1 X97.953Y112.993Z0F1800
G1 X98.406Y113.196Z0F1800
G1 X99.617Y113.745Z0F1800
G1 X99.896Y113.866Z0F1800
G1 X100.151Y113.971Z0F1800
G1 X100.384Y114.059Z0F1800
G1 X100.784Y114.189Z0F1800
G1 X101.108Y114.257Z0F1800
G1 X101.365Y114.264Z0F1800
G1 X101.566Y114.211Z0F1800
G1 X101.722Y114.1Z0F1800
G1 X101.841Y113.932Z0F1800
G1 X101.889Y113.854Z0F1800
G1 X101.984Y113.712Z0F1800
G1 X102.297Y113.26Z0F1800
G1 X102.745Y112.624Z0F1800
G1 X103.293Y111.854Z0F1800
G1 X104.55Y110.104Z0F1800
G1 X105.79Y108.399Z0F1800
G1 X106.076Y107.991Z0F1800
G1 X106.311Y107.624Z0F1800
G1 X106.401Y107.467Z0F1800
G1 X106.469Y107.336Z0F1800
G1 X106.512Y107.235Z0F1800
G1 X106.527Y107.169Z0F1800
G1 X106.512Y107.108Z0F1800
G1 X106.468Y107.019Z0F1800
G1 X106.398Y106.907Z0F1800
G1 X106.306Y106.776Z0F1800
G1 X106.067Y106.475Z0F1800
G1 X105.776Y106.148Z0F1800
G1 X103.779Y104.034Z0F1800
G1 X103.22Y103.434Z0F1800
G1 X102.93Y103.117Z0F1800
G1 X102.699Y102.858Z0F1800
G1 X102.522Y102.648Z0F1800
G1 X102.392Y102.482Z0F1800
G1 X102.304Y102.351Z0F1800
G1 X102.25Y102.247Z0F1800
G1 X102.224Y102.163Z0F1800
G1 X102.236Y102.027Z0F1800
G1 X102.323Y101.781Z0F1800
G1 X102.372Y101.649Z0F1800
G1 X102.507Y101.307Z0F1800
G1 X102.674Y100.898Z0F1800
G1 X102.854Y100.471Z0F1800
G1 X103.273Y99.467Z0F1800
G1 X103.667Y98.487Z0F1800
G1 X103.823Y98.101Z0F1800
G1 X103.973Y97.762Z0F1800
G1 X104.039Y97.621Z0F1800
G1 X104.098Y97.506Z0F1800
G1 X104.146Y97.421Z0F1800
G1 X104.181Y97.37Z0F1800
G1 X104.256Y97.329Z0F1800
G1 X104.408Y97.293Z0F1800
G1 X104.646Y97.261Z0F1800
G1 X104.979Y97.233Z0F1800
G1 X105.183Y97.219Z0F1800
G1 X105.674Y97.195Z0F1800
G1 X106.281Y97.172Z0F1800
G1 X107.012Y97.15Z0F1800
G1 X107.909Y97.128Z0F1800
G1 X108.723Y97.105Z0F1800
G1 X109.359Y97.082Z0F1800
G1 X109.618Y97.07Z0F1800
G1 X109.841Y97.057Z0F1800
G1 X110.032Y97.042Z0F1800
G1 X110.327Y97.01Z0F1800
G1 X110.528Y96.97Z0F1800
G1 X110.657Y96.92Z0F1800
G1 X110.74Y96.859Z0F1800
G1 X110.788Y96.794Z0F1800
G1 X110.839Y96.694Z0F1800
G1 X110.891Y96.562Z0F1800
G1 X110.945Y96.4Z0F1800
G1 X111.05Y96.003Z0F1800
G1 X111.147Y95.526Z0F1800
G1 X111.311Y94.621Z0F1800
G1 X111.509Y93.556Z0F1800
G1 X111.769Y92.186Z0F1800
G1 X112.118Y90.365Z0F1800
G1 X112.233Y89.717Z0F1800
G1 X112.317Y89.157Z0F1800
G1 X112.344Y88.928Z0F1800
G1 X112.36Y88.745Z0F1800
G1 X112.364Y88.613Z0F1800
G1 X112.356Y88.54Z0F1800
G1 X112.326Y88.466Z0F1800
G1 X112.285Y88.404Z0F1800
G1 X112.211Y88.344Z0F1800
G1 X112.078Y88.276Z0F1800
G1 X111.983Y88.235Z0F1800
G1 X111.864Y88.188Z0F1800
G1 X111.719Y88.134Z0F1800
G1 X111.338Y87.997Z0F1800
G1 X109.684Y87.417Z0F1800
G1 X108.905Y87.137Z0F1800
G1 X108.18Y86.873Z0F1800
G1 X107.532Y86.63Z0F1800
G1 X107.243Y86.521Z0F1800
G1 X106.749Y86.328Z0F1800
G1 X106.549Y86.247Z0F1800
G1 X106.385Y86.179Z0F1800
G1 X106.259Y86.123Z0F1800
G1 X106.174Y86.081Z0F1800
G1 X106.132Y86.054Z0F1800
G1 X106.11Y85.99Z0F1800
G1 X106.086Y85.843Z0F1800
G1 X106.059Y85.622Z0F1800
G1 X106.031Y85.337Z0F1800
G1 X106.003Y84.998Z0F1800
G1 X105.974Y84.613Z0F1800
G1 X105.947Y84.192Z0F1800
G1 X105.875Y82.852Z0F1800
G1 X105.828Y82.055Z0F1800
G1 X105.807Y81.72Z0F1800
G1 X105.773Y81.231Z0F1800
G1 X105.748Y80.96Z0F1800
G1 Y80.85Z0F1800
G1 X105.765Y80.76Z0F1800
G1 X105.807Y80.683Z0F1800
G1 X105.878Y80.612Z0F1800
G1 X105.985Y80.538Z0F1800
G1 X106.134Y80.454Z0F1800
G1 X106.331Y80.352Z0F1800
G1 X107.875Y79.539Z0F1800
G1 X109.448Y78.669Z0F1800
G1 X109.804Y78.466Z0F1800
G1 X110.133Y78.276Z0F1800
G1 X110.43Y78.102Z0F1800
G1 X110.691Y77.946Z0F1800
G1 X110.908Y77.812Z0F1800
G1 X111.076Y77.702Z0F1800
G1 X111.191Y77.621Z0F1800
G1 X111.245Y77.572Z0F1800
G1 X111.296Y77.468Z0F1800
G1 X111.324Y77.334Z0F1800
G1 X111.328Y77.167Z0F1800
G1 X111.309Y76.961Z0F1800
G1 X111.265Y76.714Z0F1800
G1 X111.196Y76.422Z0F1800
G1 X111.101Y76.08Z0F1800
G1 X110.98Y75.684Z0F1800
G1 X110.499Y74.147Z0F1800
G1 X109.843Y72.035Z0F1800
G1 X109.666Y71.472Z0F1800
G1 X109.501Y70.966Z0F1800
G1 X109.35Y70.521Z0F1800
G1 X109.214Y70.142Z0F1800
G1 X109.094Y69.831Z0F1800
G1 X108.993Y69.594Z0F1800
G1 X108.911Y69.435Z0F1800
G1 X108.85Y69.356Z0F1800
G1 X108.769Y69.301Z0F1800
G1 X108.669Y69.265Z0F1800
G1 X108.598Y69.254Z0F1800
G1 X108.504Y69.249Z0F1800
G1 X108.383Z0F1800
G1 X108.229Y69.257Z0F1800
G1 X108.035Y69.271Z0F1800
G1 X107.797Y69.291Z0F1800
G1 X107.509Y69.319Z0F1800
G1 X106.759Y69.398Z0F1800
G1 X105.74Y69.51Z0F1800
G1 X103.701Y69.736Z0F1800
G1 X103.36Y69.769Z0F1800
G1 X103.073Y69.79Z0F1800
G1 X102.834Y69.797Z0F1800
G1 X102.637Y69.789Z0F1800
G1 X102.476Y69.765Z0F1800
G1 X102.344Y69.723Z0F1800
G1 X102.235Y69.663Z0F1800
G1 X102.143Y69.581Z0F1800
G1 X102.062Y69.478Z0F1800
G1 X101.984Y69.351Z0F1800
G1 X101.905Y69.199Z0F1800
G1 X101.714Y68.816Z0F1800
G1 X101.599Y68.593Z0F1800
G1 X101.462Y68.34Z0F1800
G1 X101.311Y68.064Z0F1800
G1 X101.15Y67.776Z0F1800
G1 X100.816Y67.196Z0F1800
G1 X100.226Y66.211Z0F1800
G1 X100.001Y65.816Z0F1800
G1 X99.915Y65.656Z0F1800
G1 X99.849Y65.527Z0F1800
G1 X99.808Y65.436Z0F1800
G1 X99.793Y65.387Z0F1800
G1 X99.802Y65.36Z0F1800
G1 X99.829Y65.308Z0F1800
G1 X99.872Y65.231Z0F1800
G1 X99.931Y65.13Z0F1800
G1 X100.092Y64.866Z0F1800
G1 X100.306Y64.527Z0F1800
G1 X100.564Y64.123Z0F1800
G1 X100.86Y63.666Z0F1800
G1 X101.187Y63.168Z0F1800
G1 X101.898Y62.09Z0F1800
G1 X102.23Y61.576Z0F1800
G1 X102.527Y61.105Z0F1800
G1 X102.783Y60.686Z0F1800
G1 X102.992Y60.331Z0F1800
G1 X103.148Y60.048Z0F1800
G1 X103.205Y59.937Z0F1800
G1 X103.246Y59.847Z0F1800
G1 X103.272Y59.78Z0F1800
G1 X103.281Y59.738Z0F1800
G1 X103.258Y59.646Z0F1800
G1 X103.189Y59.516Z0F1800
G1 X103.071Y59.346Z0F1800
G1 X102.903Y59.133Z0F1800
G1 X102.683Y58.875Z0F1800
G1 X102.409Y58.57Z0F1800
G1 X102.079Y58.215Z0F1800
G1 X101.691Y57.809Z0F1800
G1 X100.62Y56.701Z0F1800
G1 X99.73Y55.787Z0F1800
G1 X99.006Y55.052Z0F1800
G1 X98.702Y54.747Z0F1800
G1 X98.434Y54.482Z0F1800
G1 X98.2Y54.255Z0F1800
G1 X97.999Y54.064Z0F1800
G1 X97.829Y53.907Z0F1800
G1 X97.688Y53.783Z0F1800
G1 X97.574Y53.689Z0F1800
G1 X97.485Y53.624Z0F1800
G1 X97.42Y53.587Z0F1800
G1 X97.376Y53.575Z0F1800
G1 X97.344Y53.584Z0F1800
G1 X97.285Y53.612Z0F1800
G1 X97.2Y53.656Z0F1800
G1 X97.092Y53.718Z0F1800
G1 X96.81Y53.886Z0F1800
G1 X96.45Y54.108Z0F1800
G1 X96.025Y54.377Z0F1800
G1 X95.547Y54.685Z0F1800
G1 X95.027Y55.025Z0F1800
G1 X94.477Y55.39Z0F1800
G1 X91.756Y57.205Z0F1800
G1 X90.157Y55.994Z0F1800
G0 Z4.8F1000
G0 X50.601Y61.353Z4.8
G1 Z0F1000
G1 X50.571Y61.28Z0F1800
G1 X50.522Y61.177Z0F1800
G1 X50.457Y61.046Z0F1800
G1 X50.29Y60.724Z0F1800
G1 X49.961Y60.121Z0F1800
G1 X49.641Y59.527Z0F1800
G1 X49.065Y58.443Z0F1800
G1 X48.191Y56.772Z0F1800
G1 X47.944Y56.306Z0F1800
G1 X47.798Y56.036Z0F1800
G1 X47.772Y55.992Z0F1800
G1 X47.751Z0F1800
G1 X47.707Y56.016Z0F1800
G1 X47.641Y56.058Z0F1800
G1 X47.558Y56.117Z0F1800
G1 X47.347Y56.277Z0F1800
G1 X47.098Y56.482Z0F1800
G1 X46.84Y56.697Z0F1800
G1 X46.605Y56.887Z0F1800
G1 X46.505Y56.966Z0F1800
G1 X46.355Y57.079Z0F1800
G1 X46.312Y57.108Z0F1800
G1 X46.252Y57.101Z0F1800
G1 X46.132Y57.051Z0F1800
G1 X45.957Y56.962Z0F1800
G1 X45.733Y56.839Z0F1800
G1 X45.468Y56.685Z0F1800
G1 X45.168Y56.505Z0F1800
G1 X44.839Y56.302Z0F1800
G1 X44.488Y56.081Z0F1800
G1 X43.746Y55.602Z0F1800
G1 X42.994Y55.1Z0F1800
G1 X42.63Y54.851Z0F1800
G1 X42.283Y54.608Z0F1800
G1 X41.96Y54.376Z0F1800
G1 X41.666Y54.159Z0F1800
G1 X41.371Y53.946Z0F1800
G1 X41.124Y53.793Z0F1800
G1 X40.911Y53.699Z0F1800
G1 X40.721Y53.663Z0F1800
G1 X40.541Y53.686Z0F1800
G1 X40.358Y53.766Z0F1800
G1 X40.161Y53.904Z0F1800
G1 X39.936Y54.099Z0F1800
G1 X39.869Y54.163Z0F1800
G1 X39.668Y54.359Z0F1800
G1 X39.224Y54.804Z0F1800
G1 X38.851Y55.183Z0F1800
G1 X37.972Y56.083Z0F1800
G1 X36.999Y57.091Z0F1800
G1 X36.311Y57.811Z0F1800
G1 X35.767Y58.387Z0F1800
G1 X35.544Y58.628Z0F1800
G1 X35.351Y58.839Z0F1800
G1 X35.188Y59.023Z0F1800
G1 X35.051Y59.183Z0F1800
G1 X34.938Y59.321Z0F1800
G1 X34.849Y59.439Z0F1800
G1 X34.78Y59.539Z0F1800
G1 X34.731Y59.623Z0F1800
G1 X34.682Y59.755Z0F1800
G1 X34.687Y59.851Z0F1800
G1 X34.721Y59.93Z0F1800
G1 X34.785Y60.053Z0F1800
G1 X34.875Y60.214Z0F1800
G1 X34.989Y60.407Z0F1800
G1 X35.27Y60.863Z0F1800
G1 X35.597Y61.371Z0F1800
G1 X36.058Y62.078Z0F1800
G1 X36.281Y62.428Z0F1800
G1 X36.406Y62.63Z0F1800
G1 X36.441Y62.698Z0F1800
G1 X36.577Y62.91Z0F1800
G1 X36.82Y63.278Z0F1800
G1 X37.141Y63.757Z0F1800
G1 X38.22Y65.347Z0F1800
G1 X37.712Y66.122Z0F1800
G1 X37.594Y66.308Z0F1800
G1 X37.453Y66.538Z0F1800
G1 X37.295Y66.804Z0F1800
G1 X37.124Y67.097Z0F1800
G1 X36.766Y67.726Z0F1800
G1 X36.215Y68.732Z0F1800
G1 X36.038Y69.046Z0F1800
G1 X35.886Y69.298Z0F1800
G1 X35.757Y69.494Z0F1800
G1 X35.648Y69.637Z0F1800
G1 X35.554Y69.734Z0F1800
G1 X35.473Y69.789Z0F1800
G1 X35.401Y69.806Z0F1800
G1 X35.361Z0F1800
G1 X35.197Y69.793Z0F1800
G1 X34.765Y69.756Z0F1800
G1 X33.909Y69.675Z0F1800
G1 X31.598Y69.444Z0F1800
G1 X31.019Y69.391Z0F1800
G1 X30.503Y69.348Z0F1800
G1 X30.058Y69.317Z0F1800
G1 X29.69Y69.297Z0F1800
G1 X29.407Y69.289Z0F1800
G1 X29.215Y69.294Z0F1800
G1 X29.121Y69.311Z0F1800
G1 X29.044Y69.393Z0F1800
G1 X28.947Y69.569Z0F1800
G1 X28.89Y69.695Z0F1800
G1 X28.828Y69.848Z0F1800
G1 X28.758Y70.029Z0F1800
G1 X28.682Y70.239Z0F1800
G1 X28.599Y70.48Z0F1800
G1 X28.507Y70.752Z0F1800
G1 X28.408Y71.057Z0F1800
G1 X28.183Y71.77Z0F1800
G1 X27.92Y72.628Z0F1800
G1 X27.603Y73.681Z0F1800
G1 X27.349Y74.503Z0F1800
G1 X27.211Y74.939Z0F1800
G1 X27.017Y75.543Z0F1800
G1 X26.892Y75.955Z0F1800
G1 X26.787Y76.328Z0F1800
G1 X26.703Y76.657Z0F1800
G1 X26.641Y76.938Z0F1800
G1 X26.603Y77.164Z0F1800
G1 X26.589Y77.33Z0F1800
G1 X26.601Y77.431Z0F1800
G1 X26.641Y77.495Z0F1800
G1 X26.715Y77.575Z0F1800
G1 X26.824Y77.669Z0F1800
G1 X26.967Y77.778Z0F1800
G1 X27.143Y77.901Z0F1800
G1 X27.352Y78.038Z0F1800
G1 X27.593Y78.188Z0F1800
G1 X27.866Y78.351Z0F1800
G1 X28.17Y78.527Z0F1800
G1 X28.504Y78.716Z0F1800
G1 X28.869Y78.916Z0F1800
G1 X29.262Y79.129Z0F1800
G1 X29.685Y79.353Z0F1800
G1 X30.136Y79.588Z0F1800
G1 X30.614Y79.834Z0F1800
G1 X32.25Y80.66Z0F1800
G1 X32.13Y82.687Z0F1800
G1 X32.075Y83.582Z0F1800
G1 X32.028Y84.323Z0F1800
G1 X31.986Y84.919Z0F1800
G1 X31.95Y85.381Z0F1800
G1 X31.918Y85.718Z0F1800
G1 X31.904Y85.842Z0F1800
G1 X31.89Y85.94Z0F1800
G1 X31.877Y86.01Z0F1800
G1 X31.865Y86.056Z0F1800
G1 X31.854Y86.079Z0F1800
G1 X31.801Y86.107Z0F1800
G1 X31.685Y86.159Z0F1800
G1 X31.511Y86.23Z0F1800
G1 X31.287Y86.318Z0F1800
G1 X30.716Y86.537Z0F1800
G1 X30.027Y86.794Z0F1800
G1 X29.276Y87.069Z0F1800
G1 X28.517Y87.341Z0F1800
G1 X28.152Y87.47Z0F1800
G1 X27.486Y87.7Z0F1800
G1 X27.199Y87.797Z0F1800
G1 X26.683Y87.979Z0F1800
G1 X26.236Y88.159Z0F1800
G1 X26.053Y88.241Z0F1800
G1 X25.906Y88.315Z0F1800
G1 X25.801Y88.377Z0F1800
G1 X25.742Y88.426Z0F1800
G1 X25.685Y88.524Z0F1800
G1 X25.649Y88.659Z0F1800
G1 X25.636Y88.846Z0F1800
G1 X25.647Y89.103Z0F1800
G1 X25.662Y89.262Z0F1800
G1 X25.684Y89.445Z0F1800
G1 X25.712Y89.654Z0F1800
G1 X25.748Y89.89Z0F1800
G1 X25.79Y90.156Z0F1800
G1 X25.84Y90.453Z0F1800
G1 X25.961Y91.152Z0F1800
G1 X26.567Y94.579Z0F1800
G1 X26.659Y95.084Z0F1800
G1 X26.744Y95.525Z0F1800
G1 X26.824Y95.902Z0F1800
G1 X26.898Y96.217Z0F1800
G1 X26.966Y96.471Z0F1800
G1 X27.029Y96.665Z0F1800
G1 X27.088Y96.801Z0F1800
G1 X27.142Y96.88Z0F1800
G1 X27.222Y96.936Z0F1800
G1 X27.348Y96.983Z0F1800
G1 X27.537Y97.021Z0F1800
G1 X27.807Y97.053Z0F1800
G1 X27.978Y97.067Z0F1800
G1 X28.176Y97.08Z0F1800
G1 X28.402Y97.093Z0F1800
G1 X28.952Y97.115Z0F1800
G1 X29.644Y97.138Z0F1800
G1 X30.604Y97.164Z0F1800
G1 X32.514Y97.21Z0F1800
G1 X33.102Y97.221Z0F1800
G1 X33.424Y97.225Z0F1800
G1 X33.552Y97.235Z0F1800
G1 X33.651Y97.261Z0F1800
G1 X33.729Y97.311Z0F1800
G1 X33.797Y97.394Z0F1800
G1 X33.861Y97.517Z0F1800
G1 X33.932Y97.688Z0F1800
G1 X34.131Y98.213Z0F1800
G1 X34.248Y98.51Z0F1800
G1 X34.354Y98.773Z0F1800
G1 X34.964Y100.201Z0F1800
G1 X35.84Y102.275Z0F1800
G1 X34.358Y103.864Z0F1800
G1 X33.124Y105.181Z0F1800
G1 X32.603Y105.734Z0F1800
G1 X32.239Y106.117Z0F1800
G1 X31.987Y106.396Z0F1800
G1 X31.77Y106.665Z0F1800
G1 X31.682Y106.787Z0F1800
G1 X31.612Y106.894Z0F1800
G1 X31.562Y106.983Z0F1800
G1 X31.536Y107.051Z0F1800
G1 X31.513Y107.166Z0F1800
G1 X31.524Y107.294Z0F1800
G1 X31.551Y107.376Z0F1800
G1 X31.597Y107.477Z0F1800
G1 X31.665Y107.603Z0F1800
G1 X31.759Y107.759Z0F1800
G1 X31.882Y107.951Z0F1800
G1 X32.037Y108.185Z0F1800
G1 X32.228Y108.465Z0F1800
G1 X32.458Y108.797Z0F1800
G1 X33.049Y109.641Z0F1800
G1 X34.606Y111.848Z0F1800
G1 X35.276Y112.802Z0F1800
G1 X35.776Y113.518Z0F1800
G1 X36.034Y113.891Z0F1800
G1 X36.177Y114.082Z0F1800
G1 X36.325Y114.216Z0F1800
G1 X36.496Y114.291Z0F1800
G1 X36.706Y114.307Z0F1800
G1 X36.973Y114.262Z0F1800
G1 X37.314Y114.155Z0F1800
G1 X37.517Y114.078Z0F1800
G1 X37.746Y113.986Z0F1800
G1 X38.002Y113.877Z0F1800
G1 X38.287Y113.753Z0F1800
G1 X38.928Y113.468Z0F1800
G1 X40.018Y112.975Z0F1800
G1 X40.861Y112.59Z0F1800
G1 X42.68Y111.753Z0F1800
G1 X43.129Y112.142Z0F1800
G1 X43.604Y112.57Z0F1800
G1 X44.331Y113.258Z0F1800
G1 X44.523Y113.424Z0F1800
G1 X44.669Y113.537Z0F1800
G1 X44.749Y113.578Z0F1800
G1 X44.797Y113.552Z0F1800
G1 X44.854Y113.481Z0F1800
G1 X44.915Y113.376Z0F1800
G1 X44.971Y113.247Z0F1800
G1 X45.041Y113.071Z0F1800
G1 X45.141Y112.837Z0F1800
G1 X45.257Y112.575Z0F1800
G1 X45.663Y111.697Z0F1800
G1 X46.038Y110.883Z0F1800
G1 X46.398Y110.094Z0F1800
G1 X46.644Y109.55Z0F1800
G1 X47.071Y108.588Z0F1800
G1 X47.268Y108.151Z0F1800
G1 X47.345Y107.976Z0F1800
G1 X47.405Y107.824Z0F1800
G1 X47.476Y107.571Z0F1800
G1 X47.471Y107.356Z0F1800
G1 X47.384Y107.143Z0F1800
G1 X47.206Y106.896Z0F1800
G1 X47.082Y106.748Z0F1800
G1 X46.931Y106.578Z0F1800
G1 X46.55Y106.154Z0F1800
G1 X45.71Y105.183Z0F1800
G1 X44.921Y104.207Z0F1800
G1 X44.181Y103.224Z0F1800
G1 X43.49Y102.233Z0F1800
G1 X42.847Y101.232Z0F1800
G1 X42.251Y100.219Z0F1800
G1 X41.702Y99.192Z0F1800
G1 X41.197Y98.149Z0F1800
G1 X40.738Y97.088Z0F1800
G1 X40.322Y96.008Z0F1800
G1 X39.95Y94.907Z0F1800
G1 X39.619Y93.782Z0F1800
G1 X39.329Y92.632Z0F1800
G1 X39.08Y91.456Z0F1800
G1 X38.871Y90.25Z0F1800
G1 X38.7Y89.014Z0F1800
G1 X38.663Y88.647Z0F1800
G1 X38.634Y88.224Z0F1800
G1 X38.613Y87.755Z0F1800
G1 X38.599Y87.247Z0F1800
G1 X38.594Y86.143Z0F1800
G1 X38.616Y84.974Z0F1800
G1 X38.664Y83.802Z0F1800
G1 X38.736Y82.686Z0F1800
G1 X38.78Y82.168Z0F1800
G1 X38.829Y81.688Z0F1800
G1 X38.884Y81.253Z0F1800
G1 X38.943Y80.871Z0F1800
G1 X39.12Y79.931Z0F1800
G1 X39.318Y79.011Z0F1800
G1 X39.54Y78.109Z0F1800
G1 X39.784Y77.224Z0F1800
G1 X40.052Y76.356Z0F1800
G1 X40.344Y75.502Z0F1800
G1 X40.66Y74.663Z0F1800
G1 X41.001Y73.836Z0F1800
G1 X41.368Y73.021Z0F1800
G1 X41.761Y72.216Z0F1800
G1 X42.18Y71.421Z0F1800
G1 X42.626Y70.635Z0F1800
G1 X43.099Y69.855Z0F1800
G1 X43.6Y69.082Z0F1800
G1 X44.129Y68.314Z0F1800
G1 X44.688Y67.55Z0F1800
G1 X44.904Y67.272Z0F1800
G1 X45.164Y66.955Z0F1800
G1 X45.463Y66.605Z0F1800
G1 X45.794Y66.227Z0F1800
G1 X46.527Y65.417Z0F1800
G1 X47.316Y64.577Z0F1800
G1 X48.111Y63.757Z0F1800
G1 X48.862Y63.01Z0F1800
G1 X49.207Y62.679Z0F1800
G1 X49.522Y62.386Z0F1800
G1 X49.802Y62.136Z0F1800
G1 X50.263Y61.753Z0F1800
G1 X50.444Y61.589Z0F1800
G1 X50.567Y61.462Z0F1800
G1 X50.612Y61.391Z0F1800
G1 X50.601Y61.353Z0F1800
G0 Z4.8F1000
G0 X56.044Y113.097Z4.8
G1 Z0F1000
G1 X56.01Y113.12Z0F1800
G1 X55.948Y113.185Z0F1800
G1 X55.863Y113.288Z0F1800
G1 X55.757Y113.424Z0F1800
G1 X55.498Y113.777Z0F1800
G1 X55.199Y114.209Z0F1800
G1 X54.889Y114.665Z0F1800
G1 X54.478Y115.264Z0F1800
G1 X54.285Y115.539Z0F1800
G1 X54.195Y115.665Z0F1800
G1 X53.829Y116.192Z0F1800
G1 X53.338Y116.907Z0F1800
G1 X51.704Y119.299Z0F1800
G1 X50.61Y120.89Z0F1800
G1 X49.984Y121.794Z0F1800
G1 X49.519Y122.46Z0F1800
G1 X49.32Y122.751Z0F1800
G1 X49.142Y123.016Z0F1800
G1 X48.987Y123.248Z0F1800
G1 X48.862Y123.442Z0F1800
G1 X48.771Y123.591Z0F1800
G1 X48.716Y123.688Z0F1800
G1 X48.703Y123.727Z0F1800
G1 X48.801Y123.794Z0F1800
G1 X48.979Y123.895Z0F1800
G1 X49.225Y124.026Z0F1800
G1 X49.528Y124.182Z0F1800
G1 X50.257Y124.545Z0F1800
G1 X51.076Y124.939Z0F1800
G1 X51.491Y125.135Z0F1800
G1 X51.893Y125.322Z0F1800
G1 X52.271Y125.495Z0F1800
G1 X52.615Y125.649Z0F1800
G1 X52.911Y125.779Z0F1800
G1 X53.15Y125.878Z0F1800
G1 X53.32Y125.941Z0F1800
G1 X53.408Y125.963Z0F1800
G1 X53.588Y125.929Z0F1800
G1 X53.777Y125.808Z0F1800
G1 X53.884Y125.708Z0F1800
G1 X54.004Y125.577Z0F1800
G1 X54.14Y125.413Z0F1800
G1 X54.846Y124.505Z0F1800
G1 X55.367Y123.859Z0F1800
G1 X55.611Y123.559Z0F1800
G1 X55.908Y123.187Z0F1800
G1 X56.22Y122.79Z0F1800
G1 X56.772Y122.077Z0F1800
G1 X57.009Y121.776Z0F1800
G1 X57.111Y121.65Z0F1800
G1 X57.263Y121.467Z0F1800
G1 X57.307Y121.418Z0F1800
G1 X57.468Y121.234Z0F1800
G1 X57.637Y121.01Z0F1800
G1 X57.741Y120.883Z0F1800
G1 X57.842Y120.826Z0F1800
G1 X57.969Y120.831Z0F1800
G1 X58.151Y120.892Z0F1800
G1 X58.295Y120.944Z0F1800
G1 X58.478Y121.004Z0F1800
G1 X58.693Y121.068Z0F1800
G1 X58.936Y121.137Z0F1800
G1 X59.485Y121.282Z0F1800
G1 X60.082Y121.428Z0F1800
G1 X60.684Y121.566Z0F1800
G1 X61.249Y121.685Z0F1800
G1 X61.505Y121.735Z0F1800
G1 X61.736Y121.776Z0F1800
G1 X61.936Y121.808Z0F1800
G1 X62.303Y121.852Z0F1800
G1 X62.475Y121.878Z0F1800
G1 X62.619Y121.907Z0F1800
G1 X62.738Y121.94Z0F1800
G1 X62.908Y122.021Z0F1800
G1 X63.004Y122.127Z0F1800
G1 X63.018Y122.164Z0F1800
G1 X63.039Y122.231Z0F1800
G1 X63.095Y122.445Z0F1800
G1 X63.169Y122.757Z0F1800
G1 X63.259Y123.152Z0F1800
G1 X63.36Y123.618Z0F1800
G1 X63.471Y124.143Z0F1800
G1 X63.588Y124.712Z0F1800
G1 X63.839Y125.954Z0F1800
G1 X63.962Y126.537Z0F1800
G1 X64.077Y127.052Z0F1800
G1 X64.181Y127.494Z0F1800
G1 X64.273Y127.855Z0F1800
G1 X64.351Y128.128Z0F1800
G1 X64.385Y128.23Z0F1800
G1 X64.414Y128.306Z0F1800
G1 X64.439Y128.358Z0F1800
G1 X64.46Y128.383Z0F1800
G1 X64.499Y128.393Z0F1800
G1 X64.581Y128.403Z0F1800
G1 X64.704Y128.413Z0F1800
G1 X64.866Y128.423Z0F1800
G1 X65.296Y128.44Z0F1800
G1 X65.853Y128.456Z0F1800
G1 X66.518Y128.468Z0F1800
G1 X67.273Y128.478Z0F1800
G1 X68.099Y128.484Z0F1800
G1 X68.977Y128.487Z0F1800
G1 X73.333Z0F1800
G1 X73.51Y128.218Z0F1800
G1 X73.549Y128.142Z0F1800
G1 X73.594Y128.028Z0F1800
G1 X73.643Y127.882Z0F1800
G1 X73.694Y127.709Z0F1800
G1 X73.796Y127.307Z0F1800
G1 X73.888Y126.865Z0F1800
G1 X74.067Y125.932Z0F1800
G1 X74.309Y124.693Z0F1800
G1 X74.857Y121.941Z0F1800
G1 X75.932Y121.791Z0F1800
G1 X76.18Y121.753Z0F1800
G1 X76.472Y121.701Z0F1800
G1 X76.799Y121.638Z0F1800
G1 X77.148Y121.565Z0F1800
G1 X77.875Y121.403Z0F1800
G1 X78.565Y121.233Z0F1800
G1 X80.123Y120.824Z0F1800
G1 X80.525Y121.339Z0F1800
G1 X81.395Y122.436Z0F1800
G1 X82.142Y123.386Z0F1800
G1 X82.838Y124.288Z0F1800
G1 X83.037Y124.548Z0F1800
G1 X83.376Y124.986Z0F1800
G1 X83.52Y125.167Z0F1800
G1 X83.764Y125.461Z0F1800
G1 X83.959Y125.675Z0F1800
G1 X84.117Y125.819Z0F1800
G1 X84.251Y125.908Z0F1800
G1 X84.372Y125.952Z0F1800
G1 X84.493Y125.964Z0F1800
G1 X84.603Y125.939Z0F1800
G1 X84.795Y125.87Z0F1800
G1 X85.057Y125.763Z0F1800
G1 X85.377Y125.623Z0F1800
G1 X86.139Y125.27Z0F1800
G1 X86.983Y124.861Z0F1800
G1 X87.405Y124.65Z0F1800
G1 X87.81Y124.444Z0F1800
G1 X88.187Y124.247Z0F1800
G1 X88.523Y124.067Z0F1800
G1 X88.806Y123.909Z0F1800
G1 X89.023Y123.779Z0F1800
G1 X89.162Y123.684Z0F1800
G1 X89.212Y123.63Z0F1800
G1 X89.163Y123.495Z0F1800
G1 X89.046Y123.328Z0F1800
G1 X88.993Y123.26Z0F1800
G1 X88.774Y122.963Z0F1800
G1 X88.44Y122.497Z0F1800
G1 X88.029Y121.918Z0F1800
G1 X87.355Y120.96Z0F1800
G1 X86.73Y120.061Z0F1800
G1 X86.406Y119.588Z0F1800
G1 X86.122Y119.166Z0F1800
G1 X85.679Y118.522Z0F1800
G1 X85.009Y117.559Z0F1800
G1 X84.361Y116.613Z0F1800
G1 X83.517Y115.373Z0F1800
G1 X82.485Y113.849Z0F1800
G1 X82.278Y113.557Z0F1800
G1 X82.091Y113.318Z0F1800
G1 X82.011Y113.226Z0F1800
G1 X81.943Y113.156Z0F1800
G1 X81.891Y113.112Z0F1800
G1 X81.857Y113.097Z0F1800
G1 X81.815Y113.105Z0F1800
G1 X81.743Y113.126Z0F1800
G1 X81.644Y113.161Z0F1800
G1 X81.523Y113.206Z0F1800
G1 X81.228Y113.325Z0F1800
G1 X80.889Y113.469Z0F1800
G1 X80.464Y113.648Z0F1800
G1 X80.008Y113.825Z0F1800
G1 X79.525Y114Z0F1800
G1 X79.018Y114.173Z0F1800
G1 X77.95Y114.503Z0F1800
G1 X76.837Y114.809Z0F1800
G1 X75.71Y115.081Z0F1800
G1 X74.601Y115.311Z0F1800
G1 X74.063Y115.408Z0F1800
G1 X73.542Y115.492Z0F1800
G1 X73.042Y115.56Z0F1800
G1 X72.566Y115.614Z0F1800
G1 X72.197Y115.646Z0F1800
G1 X71.795Y115.673Z0F1800
G1 X71.366Y115.695Z0F1800
G1 X70.914Y115.713Z0F1800
G1 X69.96Y115.734Z0F1800
G1 X68.967Z0F1800
G1 X67.972Y115.719Z0F1800
G1 X67.009Y115.684Z0F1800
G1 X66.551Y115.66Z0F1800
G1 X66.115Y115.631Z0F1800
G1 X65.704Y115.598Z0F1800
G1 X65.324Y115.56Z0F1800
G1 X64.204Y115.415Z0F1800
G1 X63.066Y115.226Z0F1800
G1 X61.928Y114.997Z0F1800
G1 X60.807Y114.733Z0F1800
G1 X59.72Y114.437Z0F1800
G1 X58.683Y114.115Z0F1800
G1 X57.715Y113.769Z0F1800
G1 X56.832Y113.406Z0F1800
G1 X56.554Y113.286Z0F1800
G1 X56.314Y113.188Z0F1800
G1 X56.135Y113.121Z0F1800
G1 X56.044Y113.097Z0F1800
M9
M5
G1 Z10 F1000
G90
G1 Z10 F800

; Return to 2,0 wash and park
G1 Z10 F1000;        ; Raise brush to safe height
G0 X5 Y5 F1200;     ; Rapid move to brush cleaning position
G1 Z-1 F800;         ; Lower brush for cleaning - controlled movement
G1 X10 Y12 Z8 F1200;     ; Rapid move to brush cleaning position
G1 Z-1 F800;         ; Lower brush for cleaning - controlled movement
G1 X25 Y14 Z6 F800;     ; Move across cleaning area - controlled movement
G0 X5 Y5 F1200;     ; Rapid move to brush cleaning position
G1 Z-1 F800;         ; Lower brush for cleaning - controlled movement
G1 X15 Y12 Z8 F1200;     ; Rapid move to brush cleaning position
G1 Z-1 F800;         ; Lower brush for cleaning - controlled movement
G1 X25 Y14 Z6 F800;     ; Move across cleaning area - controlled movement
G1 Z10 F800;         ; Maintain brush height - controlled movement
G0 X20 Y110 Z10 F500;; Move to parking position with Z at safe height
M2;                 ; End program
