
G0 Z10 F500;      ; Move to clearance level
; G0 X-10 Y-10 F1200; Homing
; G0 X-5 Y-5 F1200; go in
; G10 P0 L20 X0 Y0; set to zero
G1 F1200;           ; Set feed rate
G90 ; Force absolute mode
;LightBurn 1.6.04
;Custom GCode device profile, absolute coords
;Bounds: X3 Y32 to X147 Y137
G00 G17 G40 G21 G54
M3
G1 Z10 F1000

; Color picking sequence
G1 Z10 F1000;         ; Raise brush
G0 X41 Y5 F1200;    ; Rapid move to color 1
G1 Z10 F1000;         ; Raise brush
G0 X41 Y5 F1200;    ; Rapid move to color 1
G1 Z0 F1000;         ; Lower into color
G1 X40.102 Y7.295 Z0 S800 F1200
G1 X40.026 Y7.642 Z0 F1200
G1 X40 Y8 Z0 F1200
G1 X40.026 Y8.358 Z0 F1200
G1 X40.102 Y8.705 Z0 F1200
G1 X40.225 Y9.041 Z0 F1200
G1 X40.393 Y9.362 Z0 F1200
G1 X40.603 Y9.668 Z0 F1200
G1 X40.854 Y9.957 Z0 F1200
G1 X41.142 Y10.226 Z0 F1200
G1 X41.464 Y10.475 Z0 F1200
G1 X41.82 Y10.701 Z0 F1200
G1 X42.204 Y10.902 Z0 F1200
G1 X42.617 Y11.078 Z0 F1200
G1 X43.054 Y11.225 Z0 F1200
G1 X43.513 Y11.343 Z0 F1200
G1 X43.992 Y11.429 Z0 F1200
G1 X44.489 Y11.482 Z0 F1200
G1 X45 Y11.5 Z0 F1200
G1 X45.511 Y11.482 Z0 F1200
G1 X46.008 Y11.429 Z0 F1200
G1 X46.487 Y11.343 Z0 F1200
G1 X46.946 Y11.225 Z0 F1200
G1 X47.383 Y11.078 Z0 F1200
G1 X47.796 Y10.902 Z0 F1200
G1 X48.18 Y10.701 Z0 F1200
G1 X48.536 Y10.475 Z0 F1200
G1 X48.858 Y10.226 Z0 F1200
G1 X49.146 Y9.957 Z0 F1200
G1 X49.397 Y9.668 Z0 F1200
G1 X49.607 Y9.362 Z0 F1200
G1 X49.775 Y9.041 Z0 F1200
G1 X49.898 Y8.705 Z0 F1200
G1 X49.974 Y8.358 Z0 F1200
G1 X50 Y8 Z0 F1200
G1 X49.974 Y7.642 Z0 F1200
G1 X49.898 Y7.295 Z0 F1200
G1 X49.775 Y6.959 Z0 F1200
G1 X49.607 Y6.638 Z0 F1200
G1 X49.397 Y6.332 Z0 F1200
G1 X49.146 Y6.043 Z0 F1200
G1 X48.858 Y5.774 Z0 F1200
G1 X48.536 Y5.525 Z0 F1200
G1 X48.18 Y5.299 Z0 F1200
G1 X47.796 Y5.098 Z0 F1200
G1 X47.383 Y4.922 Z0 F1200
G1 X46.946 Y4.775 Z0 F1200
G1 X46.487 Y4.657 Z0 F1200
G1 X46.008 Y4.571 Z0 F1200
G1 X45.511 Y4.518 Z0 F1200
G1 X45 Y4.5 Z0 F1200
G1 X44.489 Y4.518 Z0 F1200
G1 X43.992 Y4.571 Z0 F1200
G1 X43.513 Y4.657 Z0 F1200
G1 X43.054 Y4.775 Z0 F1200
G1 X42.617 Y4.922 Z0 F1200
G1 X42.204 Y5.098 Z0 F1200
G1 X41.82 Y5.299 Z0 F1200
G1 X41.464 Y5.525 Z0 F1200
G1 X41.142 Y5.774 Z0 F1200
G1 X40.854 Y6.043 Z0 F1200
G1 X40.603 Y6.332 Z0 F1200
G1 X40.393 Y6.638 Z0 F1200
G1 X40.225 Y6.959 Z0 F1200
G1 Z7 F800;         ; Raise from color
G1 X34 Y8 Z1 F1200;     ; Movement in paint
G1 X24 Y18 Z8 F500;     ; Move in paint
G1 F1200;           ; Set feed rate
G0 Z2.5 F1000 ; Safety Lift
;Cut @ 1500 mm/min, 80% power

M8
G0 Z3.5 F1000
G0 X13.287 Y36.673 Z3.5
G1 Z0 F1000
;Layer C1
; --- FIX X Backlash ---
G0 X11.987 Y36.673 F1200
G1 X11.172 Y36.882 Z0 S800 F1600
G1 X10.391 Y37.168 Z0 F1600
G1 X9.648 Y37.526 Z0 F1600
G1 X8.948 Y37.952 Z0 F1600
G1 X8.293 Y38.441 Z0 F1600
G1 X7.69 Y38.99 Z0 F1600
G1 X7.141 Y39.593 Z0 F1600
G1 X6.652 Y40.248 Z0 F1600
G1 X6.226 Y40.948 Z0 F1600
G1 X5.868 Y41.691 Z0 F1600
G1 X5.582 Y42.472 Z0 F1600
G1 X5.373 Y43.287 Z0 F1600
G1 X5.244 Y44.131 Z0 F1600
G1 X5.2 Y45 Z0 F1600
G1 X5.244 Y45.869 Z0 F1600
; --- FIX X Backlash ---
G0 X6.544 Y45.869 F1200
G1 X6.673 Y46.713 Z0 F1600
G1 X6.882 Y47.528 Z0 F1600
G1 X7.168 Y48.309 Z0 F1600
G1 X7.526 Y49.052 Z0 F1600
G1 X7.952 Y49.752 Z0 F1600
G1 X8.441 Y50.407 Z0 F1600
G1 X8.99 Y51.01 Z0 F1600
G1 X9.593 Y51.559 Z0 F1600
G1 X10.248 Y52.048 Z0 F1600
G1 X10.948 Y52.474 Z0 F1600
G1 X11.691 Y52.832 Z0 F1600
G1 X12.472 Y53.118 Z0 F1600
G1 X13.287 Y53.327 Z0 F1600
G1 X14.131 Y53.456 Z0 F1600
G1 X15 Y53.5 Z0 F1600
G1 X15.869 Y53.456 Z0 F1600
; --- FIX Y Backlash ---
G0 X15.869 Y52.156 F1200
G1 X16.713 Y52.027 Z0 F1600
G1 X17.528 Y51.818 Z0 F1600
G1 X18.309 Y51.532 Z0 F1600
G1 X19.052 Y51.174 Z0 F1600
G1 X19.752 Y50.748 Z0 F1600
G1 X20.407 Y50.259 Z0 F1600
G1 X21.01 Y49.71 Z0 F1600
G1 X21.559 Y49.107 Z0 F1600
G1 X22.048 Y48.452 Z0 F1600
G1 X22.474 Y47.752 Z0 F1600
G1 X22.832 Y47.009 Z0 F1600
G1 X23.118 Y46.228 Z0 F1600
G1 X23.327 Y45.413 Z0 F1600
G1 X23.456 Y44.569 Z0 F1600
G1 X23.5 Y43.7 Z0 F1600
G1 X23.456 Y42.831 Z0 F1600
; --- FIX X Backlash ---
G0 X22.156 Y42.831 F1200
G1 X22.027 Y41.987 Z0 F1600
G1 X21.818 Y41.172 Z0 F1600
G1 X21.532 Y40.391 Z0 F1600
G1 X21.174 Y39.648 Z0 F1600
G1 X20.748 Y38.948 Z0 F1600
G1 X20.259 Y38.293 Z0 F1600
G1 X19.71 Y37.69 Z0 F1600
G1 X19.107 Y37.141 Z0 F1600
G1 X18.452 Y36.652 Z0 F1600
G1 X17.752 Y36.226 Z0 F1600
G1 X17.009 Y35.868 Z0 F1600
G1 X16.228 Y35.582 Z0 F1600
G1 X15.413 Y35.373 Z0 F1600
G1 X14.569 Y35.244 Z0 F1600
G1 X13.7 Y35.2 Z0 F1600
G1 X12.831 Y35.244 Z0 F1600
; --- FIX Y Backlash ---
G0 X12.831 Y36.544 F1200
G1 X11.987 Y36.673 Z0 F1600
G0 Z3.5 F1000
; --- FIX X Backlash ---
G0 X13.287 Y36.673 F1200
G0 X42.918 Y51.202 Z3.5 F1500
G1 Z0 F1000
; --- FIX X Backlash ---
G0 X41.618 Y51.202 F1200
G1 X40.82 Y51.973 Z0 F1600
G1 X40.04 Y52.763 Z0 F1600
G1 X39.28 Y53.571 Z0 F1600
G1 X38.539 Y54.396 Z0 F1600
G1 X37.818 Y55.24 Z0 F1600
G1 X37.118 Y56.1 Z0 F1600
G1 X36.438 Y56.977 Z0 F1600
G1 X35.779 Y57.871 Z0 F1600
G1 X35.141 Y58.781 Z0 F1600
G1 X34.526 Y59.706 Z0 F1600
G1 X33.932 Y60.647 Z0 F1600
G1 X33.361 Y61.603 Z0 F1600
G1 X32.812 Y62.574 Z0 F1600
G1 X32.287 Y63.558 Z0 F1600
G1 X31.785 Y64.557 Z0 F1600
G1 X31.308 Y65.569 Z0 F1600
G1 X30.854 Y66.595 Z0 F1600
G1 X30.425 Y67.633 Z0 F1600
G1 X30.022 Y68.684 Z0 F1600
G1 X29.643 Y69.746 Z0 F1600
G1 X29.291 Y70.821 Z0 F1600
G1 X28.964 Y71.907 Z0 F1600
G1 X28.664 Y73.004 Z0 F1600
G1 X28.391 Y74.111 Z0 F1600
G1 X28.145 Y75.229 Z0 F1600
G1 X27.926 Y76.357 Z0 F1600
G1 X27.736 Y77.495 Z0 F1600
G1 X27.574 Y78.641 Z0 F1600
G1 X27.44 Y79.797 Z0 F1600
G1 X27.336 Y80.961 Z0 F1600
G1 X27.261 Y82.133 Z0 F1600
G1 X27.215 Y83.313 Z0 F1600
G1 X27.2 Y84.5 Z0 F1600
G1 X27.215 Y85.687 Z0 F1600
G1 X27.261 Y86.867 Z0 F1600
; --- FIX X Backlash ---
G0 X28.561 Y86.867 F1200
G1 X28.636 Y88.039 Z0 F1600
G1 X28.74 Y89.203 Z0 F1600
G1 X28.874 Y90.359 Z0 F1600
G1 X29.036 Y91.505 Z0 F1600
G1 X29.226 Y92.643 Z0 F1600
G1 X29.445 Y93.771 Z0 F1600
G1 X29.691 Y94.889 Z0 F1600
G1 X29.964 Y95.996 Z0 F1600
G1 X30.264 Y97.093 Z0 F1600
G1 X30.591 Y98.179 Z0 F1600
G1 X30.943 Y99.254 Z0 F1600
G1 X31.322 Y100.316 Z0 F1600
G1 X31.725 Y101.367 Z0 F1600
G1 X32.154 Y102.405 Z0 F1600
G1 X32.608 Y103.431 Z0 F1600
G1 X33.085 Y104.443 Z0 F1600
G1 X33.587 Y105.442 Z0 F1600
G1 X34.112 Y106.426 Z0 F1600
G1 X34.661 Y107.397 Z0 F1600
G1 X35.232 Y108.353 Z0 F1600
G1 X35.826 Y109.294 Z0 F1600
G1 X36.441 Y110.219 Z0 F1600
G1 X37.079 Y111.129 Z0 F1600
G1 X37.738 Y112.023 Z0 F1600
G1 X38.418 Y112.9 Z0 F1600
G1 X39.118 Y113.76 Z0 F1600
G1 X39.839 Y114.604 Z0 F1600
G1 X40.58 Y115.429 Z0 F1600
G1 X41.34 Y116.237 Z0 F1600
G1 X42.12 Y117.027 Z0 F1600
G1 X42.918 Y117.798 Z0 F1600
G1 X43.734 Y118.55 Z0 F1600
G1 X44.569 Y119.283 Z0 F1600
G1 X45.422 Y119.996 Z0 F1600
G1 X46.292 Y120.689 Z0 F1600
G1 X47.178 Y121.361 Z0 F1600
G1 X48.082 Y122.013 Z0 F1600
G1 X49.001 Y122.644 Z0 F1600
G1 X49.937 Y123.253 Z0 F1600
G1 X50.888 Y123.84 Z0 F1600
G1 X51.854 Y124.406 Z0 F1600
G1 X52.835 Y124.948 Z0 F1600
G1 X53.831 Y125.468 Z0 F1600
G1 X54.84 Y125.964 Z0 F1600
G1 X55.864 Y126.437 Z0 F1600
G1 X56.9 Y126.885 Z0 F1600
G1 X57.95 Y127.309 Z0 F1600
G1 X59.012 Y127.709 Z0 F1600
G1 X60.086 Y128.083 Z0 F1600
G1 X61.172 Y128.432 Z0 F1600
G1 X62.27 Y128.755 Z0 F1600

; Color picking sequence
G1 Z10 F1000;         ; Raise brush
G0 X41 Y5 F1200;    ; Rapid move to color 1
G1 Z10 F1000;         ; Raise brush
G0 X41 Y5 F1200;    ; Rapid move to color 1
G1 Z0 F1000;         ; Lower into color
G1 X40.102 Y7.295 Z0 S800 F1200
G1 X40.026 Y7.642 Z0 F1200
G1 X40 Y8 Z0 F1200
G1 X40.026 Y8.358 Z0 F1200
G1 X40.102 Y8.705 Z0 F1200
G1 X40.225 Y9.041 Z0 F1200
G1 X40.393 Y9.362 Z0 F1200
G1 X40.603 Y9.668 Z0 F1200
G1 X40.854 Y9.957 Z0 F1200
G1 X41.142 Y10.226 Z0 F1200
G1 X41.464 Y10.475 Z0 F1200
G1 X41.82 Y10.701 Z0 F1200
G1 X42.204 Y10.902 Z0 F1200
G1 X42.617 Y11.078 Z0 F1200
G1 X43.054 Y11.225 Z0 F1200
G1 X43.513 Y11.343 Z0 F1200
G1 X43.992 Y11.429 Z0 F1200
G1 X44.489 Y11.482 Z0 F1200
G1 X45 Y11.5 Z0 F1200
G1 X45.511 Y11.482 Z0 F1200
G1 X46.008 Y11.429 Z0 F1200
G1 X46.487 Y11.343 Z0 F1200
G1 X46.946 Y11.225 Z0 F1200
G1 X47.383 Y11.078 Z0 F1200
G1 X47.796 Y10.902 Z0 F1200
G1 X48.18 Y10.701 Z0 F1200
G1 X48.536 Y10.475 Z0 F1200
G1 X48.858 Y10.226 Z0 F1200
G1 X49.146 Y9.957 Z0 F1200
G1 X49.397 Y9.668 Z0 F1200
G1 X49.607 Y9.362 Z0 F1200
G1 X49.775 Y9.041 Z0 F1200
G1 X49.898 Y8.705 Z0 F1200
G1 X49.974 Y8.358 Z0 F1200
G1 X50 Y8 Z0 F1200
G1 X49.974 Y7.642 Z0 F1200
G1 X49.898 Y7.295 Z0 F1200
G1 X49.775 Y6.959 Z0 F1200
G1 X49.607 Y6.638 Z0 F1200
G1 X49.397 Y6.332 Z0 F1200
G1 X49.146 Y6.043 Z0 F1200
G1 X48.858 Y5.774 Z0 F1200
G1 X48.536 Y5.525 Z0 F1200
G1 X48.18 Y5.299 Z0 F1200
G1 X47.796 Y5.098 Z0 F1200
G1 X47.383 Y4.922 Z0 F1200
G1 X46.946 Y4.775 Z0 F1200
G1 X46.487 Y4.657 Z0 F1200
G1 X46.008 Y4.571 Z0 F1200
G1 X45.511 Y4.518 Z0 F1200
G1 X45 Y4.5 Z0 F1200
G1 X44.489 Y4.518 Z0 F1200
G1 X43.992 Y4.571 Z0 F1200
G1 X43.513 Y4.657 Z0 F1200
G1 X43.054 Y4.775 Z0 F1200
G1 X42.617 Y4.922 Z0 F1200
G1 X42.204 Y5.098 Z0 F1200
G1 X41.82 Y5.299 Z0 F1200
G1 X41.464 Y5.525 Z0 F1200
G1 X41.142 Y5.774 Z0 F1200
G1 X40.854 Y6.043 Z0 F1200
G1 X40.603 Y6.332 Z0 F1200
G1 X40.393 Y6.638 Z0 F1200
G1 X40.225 Y6.959 Z0 F1200
G1 Z7 F800;         ; Raise from color
G1 X34 Y8 Z1 F1200;     ; Movement in paint
G1 X24 Y18 Z8 F500;     ; Move in paint
G1 F1200;           ; Set feed rate
G0 Z2.5 F1000 ; Safety Lift
G0 X62.27 Y128.755 F1200 ; Return
G1 Z0 F1000 ; Restore Z
G1 X63.379 Y129.052 Z0 F1600
G1 X64.499 Y129.322 Z0 F1600
G1 X65.629 Y129.565 Z0 F1600
G1 X66.769 Y129.782 Z0 F1600
G1 X67.919 Y129.97 Z0 F1600
G1 X69.078 Y130.13 Z0 F1600
G1 X70.246 Y130.263 Z0 F1600
G1 X71.422 Y130.366 Z0 F1600
G1 X72.607 Y130.44 Z0 F1600
G1 X73.8 Y130.485 Z0 F1600
G1 X75 Y130.5 Z0 F1600
G1 X76.2 Y130.485 Z0 F1600
G1 X77.393 Y130.44 Z0 F1600
; --- FIX Y Backlash ---
G0 X77.393 Y129.14 F1200
G1 X78.578 Y129.066 Z0 F1600
G1 X79.754 Y128.963 Z0 F1600
G1 X80.922 Y128.83 Z0 F1600
G1 X82.081 Y128.67 Z0 F1600
G1 X83.231 Y128.482 Z0 F1600
G1 X84.371 Y128.265 Z0 F1600
G1 X85.501 Y128.022 Z0 F1600
G1 X86.621 Y127.752 Z0 F1600
G1 X87.73 Y127.455 Z0 F1600
G1 X88.828 Y127.132 Z0 F1600
G1 X89.914 Y126.783 Z0 F1600
G1 X90.988 Y126.409 Z0 F1600
G1 X92.05 Y126.009 Z0 F1600
G1 X93.1 Y125.585 Z0 F1600
G1 X94.136 Y125.137 Z0 F1600
G1 X95.16 Y124.664 Z0 F1600
G1 X96.169 Y124.168 Z0 F1600
G1 X97.165 Y123.648 Z0 F1600
G1 X98.146 Y123.106 Z0 F1600
G1 X99.112 Y122.54 Z0 F1600
G1 X100.063 Y121.953 Z0 F1600
G1 X100.999 Y121.344 Z0 F1600
G1 X101.918 Y120.713 Z0 F1600
G1 X102.822 Y120.061 Z0 F1600
G1 X103.708 Y119.389 Z0 F1600
G1 X104.578 Y118.696 Z0 F1600
G1 X105.431 Y117.983 Z0 F1600
G1 X106.266 Y117.25 Z0 F1600
G1 X107.082 Y116.498 Z0 F1600
G1 X107.88 Y115.727 Z0 F1600
G1 X108.66 Y114.937 Z0 F1600
G1 X109.42 Y114.129 Z0 F1600
G1 X110.161 Y113.304 Z0 F1600
G1 X110.882 Y112.46 Z0 F1600
G1 X111.582 Y111.6 Z0 F1600
G1 X112.262 Y110.723 Z0 F1600
G1 X112.921 Y109.829 Z0 F1600
G1 X113.559 Y108.919 Z0 F1600
G1 X114.174 Y107.994 Z0 F1600
G1 X114.768 Y107.053 Z0 F1600
G1 X115.339 Y106.097 Z0 F1600
G1 X115.888 Y105.126 Z0 F1600
G1 X116.413 Y104.142 Z0 F1600
G1 X116.915 Y103.143 Z0 F1600
G1 X117.392 Y102.131 Z0 F1600
G1 X117.846 Y101.105 Z0 F1600
G1 X118.275 Y100.067 Z0 F1600
G1 X118.678 Y99.016 Z0 F1600
G1 X119.057 Y97.954 Z0 F1600
G1 X119.409 Y96.879 Z0 F1600
G1 X119.736 Y95.793 Z0 F1600
G1 X120.036 Y94.696 Z0 F1600
G1 X120.309 Y93.589 Z0 F1600
G1 X120.555 Y92.471 Z0 F1600
G1 X120.774 Y91.343 Z0 F1600
G1 X120.964 Y90.205 Z0 F1600
G1 X121.126 Y89.059 Z0 F1600
G1 X121.26 Y87.903 Z0 F1600
G1 X121.364 Y86.739 Z0 F1600
G1 X121.439 Y85.567 Z0 F1600
G1 X121.485 Y84.387 Z0 F1600
G1 X121.5 Y83.2 Z0 F1600
G1 X121.485 Y82.013 Z0 F1600
G1 X121.439 Y80.833 Z0 F1600
; --- FIX X Backlash ---
G0 X120.139 Y80.833 F1200
G1 X120.064 Y79.661 Z0 F1600
G1 X119.96 Y78.497 Z0 F1600
G1 X119.826 Y77.341 Z0 F1600
G1 X119.664 Y76.195 Z0 F1600
G1 X119.474 Y75.057 Z0 F1600
G1 X119.255 Y73.929 Z0 F1600
G1 X119.009 Y72.811 Z0 F1600
G1 X118.736 Y71.704 Z0 F1600
G1 X118.436 Y70.607 Z0 F1600
G1 X118.109 Y69.521 Z0 F1600
G1 X117.757 Y68.446 Z0 F1600
G1 X117.378 Y67.384 Z0 F1600
G1 X116.975 Y66.333 Z0 F1600
G1 X116.546 Y65.295 Z0 F1600
G1 X116.092 Y64.269 Z0 F1600
G1 X115.615 Y63.257 Z0 F1600
G1 X115.113 Y62.258 Z0 F1600
G1 X114.588 Y61.274 Z0 F1600
G1 X114.039 Y60.303 Z0 F1600
G1 X113.468 Y59.347 Z0 F1600
G1 X112.874 Y58.406 Z0 F1600
G1 X112.259 Y57.481 Z0 F1600
G1 X111.621 Y56.571 Z0 F1600
G1 X110.962 Y55.677 Z0 F1600
G1 X110.282 Y54.8 Z0 F1600
G1 X109.582 Y53.94 Z0 F1600
G1 X108.861 Y53.096 Z0 F1600
G1 X108.12 Y52.271 Z0 F1600
G1 X107.36 Y51.463 Z0 F1600
G1 X106.58 Y50.673 Z0 F1600
G1 X105.782 Y49.902 Z0 F1600
G1 X104.966 Y49.15 Z0 F1600
G1 X104.131 Y48.417 Z0 F1600
G1 X103.278 Y47.704 Z0 F1600
G1 X102.408 Y47.011 Z0 F1600
G1 X101.522 Y46.339 Z0 F1600
G1 X100.618 Y45.687 Z0 F1600
G1 X99.699 Y45.056 Z0 F1600
G1 X98.763 Y44.447 Z0 F1600
G1 X97.812 Y43.86 Z0 F1600
G1 X96.846 Y43.294 Z0 F1600
G1 X95.865 Y42.752 Z0 F1600
G1 X94.869 Y42.232 Z0 F1600
G1 X93.86 Y41.736 Z0 F1600
G1 X92.836 Y41.263 Z0 F1600
G1 X91.8 Y40.815 Z0 F1600
G1 X90.75 Y40.391 Z0 F1600
G1 X89.688 Y39.991 Z0 F1600
G1 X88.614 Y39.617 Z0 F1600
G1 X87.528 Y39.268 Z0 F1600
G1 X86.43 Y38.945 Z0 F1600
G1 X85.321 Y38.648 Z0 F1600
G1 X84.201 Y38.378 Z0 F1600
G1 X83.071 Y38.135 Z0 F1600
G1 X81.931 Y37.918 Z0 F1600
G1 X80.781 Y37.73 Z0 F1600

; Color picking sequence
G1 Z10 F1000;         ; Raise brush
G0 X41 Y5 F1200;    ; Rapid move to color 1
G1 Z10 F1000;         ; Raise brush
G0 X41 Y5 F1200;    ; Rapid move to color 1
G1 Z0 F1000;         ; Lower into color
G1 X40.102 Y7.295 Z0 S800 F1200
G1 X40.026 Y7.642 Z0 F1200
G1 X40 Y8 Z0 F1200
G1 X40.026 Y8.358 Z0 F1200
G1 X40.102 Y8.705 Z0 F1200
G1 X40.225 Y9.041 Z0 F1200
G1 X40.393 Y9.362 Z0 F1200
G1 X40.603 Y9.668 Z0 F1200
G1 X40.854 Y9.957 Z0 F1200
G1 X41.142 Y10.226 Z0 F1200
G1 X41.464 Y10.475 Z0 F1200
G1 X41.82 Y10.701 Z0 F1200
G1 X42.204 Y10.902 Z0 F1200
G1 X42.617 Y11.078 Z0 F1200
G1 X43.054 Y11.225 Z0 F1200
G1 X43.513 Y11.343 Z0 F1200
G1 X43.992 Y11.429 Z0 F1200
G1 X44.489 Y11.482 Z0 F1200
G1 X45 Y11.5 Z0 F1200
G1 X45.511 Y11.482 Z0 F1200
G1 X46.008 Y11.429 Z0 F1200
G1 X46.487 Y11.343 Z0 F1200
G1 X46.946 Y11.225 Z0 F1200
G1 X47.383 Y11.078 Z0 F1200
G1 X47.796 Y10.902 Z0 F1200
G1 X48.18 Y10.701 Z0 F1200
G1 X48.536 Y10.475 Z0 F1200
G1 X48.858 Y10.226 Z0 F1200
G1 X49.146 Y9.957 Z0 F1200
G1 X49.397 Y9.668 Z0 F1200
G1 X49.607 Y9.362 Z0 F1200
G1 X49.775 Y9.041 Z0 F1200
G1 X49.898 Y8.705 Z0 F1200
G1 X49.974 Y8.358 Z0 F1200
G1 X50 Y8 Z0 F1200
G1 X49.974 Y7.642 Z0 F1200
G1 X49.898 Y7.295 Z0 F1200
G1 X49.775 Y6.959 Z0 F1200
G1 X49.607 Y6.638 Z0 F1200
G1 X49.397 Y6.332 Z0 F1200
G1 X49.146 Y6.043 Z0 F1200
G1 X48.858 Y5.774 Z0 F1200
G1 X48.536 Y5.525 Z0 F1200
G1 X48.18 Y5.299 Z0 F1200
G1 X47.796 Y5.098 Z0 F1200
G1 X47.383 Y4.922 Z0 F1200
G1 X46.946 Y4.775 Z0 F1200
G1 X46.487 Y4.657 Z0 F1200
G1 X46.008 Y4.571 Z0 F1200
G1 X45.511 Y4.518 Z0 F1200
G1 X45 Y4.5 Z0 F1200
G1 X44.489 Y4.518 Z0 F1200
G1 X43.992 Y4.571 Z0 F1200
G1 X43.513 Y4.657 Z0 F1200
G1 X43.054 Y4.775 Z0 F1200
G1 X42.617 Y4.922 Z0 F1200
G1 X42.204 Y5.098 Z0 F1200
G1 X41.82 Y5.299 Z0 F1200
G1 X41.464 Y5.525 Z0 F1200
G1 X41.142 Y5.774 Z0 F1200
G1 X40.854 Y6.043 Z0 F1200
G1 X40.603 Y6.332 Z0 F1200
G1 X40.393 Y6.638 Z0 F1200
G1 X40.225 Y6.959 Z0 F1200
G1 Z7 F800;         ; Raise from color
G1 X34 Y8 Z1 F1200;     ; Movement in paint
G1 X24 Y18 Z8 F500;     ; Move in paint
G1 F1200;           ; Set feed rate
G0 Z2.5 F1000 ; Safety Lift
G0 X80.781 Y37.73 F1200 ; Return
G1 Z0 F1000 ; Restore Z
G1 X79.622 Y37.57 Z0 F1600
G1 X78.454 Y37.437 Z0 F1600
G1 X77.278 Y37.334 Z0 F1600
G1 X76.093 Y37.26 Z0 F1600
G1 X74.9 Y37.215 Z0 F1600
G1 X73.7 Y37.2 Z0 F1600
G1 X72.5 Y37.215 Z0 F1600
G1 X71.307 Y37.26 Z0 F1600
; --- FIX Y Backlash ---
G0 X71.307 Y38.56 F1200
G1 X70.122 Y38.634 Z0 F1600
G1 X68.946 Y38.737 Z0 F1600
G1 X67.778 Y38.87 Z0 F1600
G1 X66.619 Y39.03 Z0 F1600
G1 X65.469 Y39.218 Z0 F1600
G1 X64.329 Y39.435 Z0 F1600
G1 X63.199 Y39.678 Z0 F1600
G1 X62.079 Y39.948 Z0 F1600
G1 X60.97 Y40.245 Z0 F1600
G1 X59.872 Y40.568 Z0 F1600
G1 X58.786 Y40.917 Z0 F1600
G1 X57.712 Y41.291 Z0 F1600
G1 X56.65 Y41.691 Z0 F1600
G1 X55.6 Y42.115 Z0 F1600
G1 X54.564 Y42.563 Z0 F1600
G1 X53.54 Y43.036 Z0 F1600
G1 X52.531 Y43.532 Z0 F1600
G1 X51.535 Y44.052 Z0 F1600
G1 X50.554 Y44.594 Z0 F1600
G1 X49.588 Y45.16 Z0 F1600
G1 X48.637 Y45.747 Z0 F1600
G1 X47.701 Y46.356 Z0 F1600
G1 X46.782 Y46.987 Z0 F1600
G1 X45.878 Y47.639 Z0 F1600
G1 X44.992 Y48.311 Z0 F1600
G1 X44.122 Y49.004 Z0 F1600
G1 X43.269 Y49.717 Z0 F1600
G1 X42.434 Y50.45 Z0 F1600
G1 X41.618 Y51.202 Z0 F1600
G0 Z3.5 F1000
; --- FIX X Backlash ---
G0 X42.918 Y51.202 F1200
G0 X133.007 Y121.324 Z3.5
G1 Z0 F1000
; --- FIX X Backlash ---
G0 X131.707 Y121.324 F1200
G1 X131.362 Y121.533 Z0 F1600
G1 X131.04 Y121.774 Z0 F1600
G1 X130.744 Y122.044 Z0 F1600
G1 X130.474 Y122.34 Z0 F1600
G1 X130.233 Y122.662 Z0 F1600
G1 X130.024 Y123.007 Z0 F1600
G1 X129.848 Y123.373 Z0 F1600
G1 X129.707 Y123.757 Z0 F1600
G1 X129.604 Y124.157 Z0 F1600
G1 X129.541 Y124.573 Z0 F1600
G1 X129.519 Y125 Z0 F1600
G1 X129.541 Y125.427 Z0 F1600
; --- FIX X Backlash ---
G0 X130.841 Y125.427 F1200
G1 X130.904 Y125.843 Z0 F1600
G1 X131.007 Y126.243 Z0 F1600
G1 X131.148 Y126.627 Z0 F1600
G1 X131.324 Y126.993 Z0 F1600
G1 X131.533 Y127.338 Z0 F1600
G1 X131.774 Y127.66 Z0 F1600
G1 X132.044 Y127.956 Z0 F1600
G1 X132.34 Y128.226 Z0 F1600
G1 X132.662 Y128.467 Z0 F1600
G1 X133.007 Y128.676 Z0 F1600
G1 X133.373 Y128.852 Z0 F1600
G1 X133.757 Y128.993 Z0 F1600
G1 X134.157 Y129.096 Z0 F1600
G1 X134.573 Y129.159 Z0 F1600
G1 X135 Y129.181 Z0 F1600
G1 X135.427 Y129.159 Z0 F1600
; --- FIX Y Backlash ---
G0 X135.427 Y127.859 F1200
G1 X135.843 Y127.796 Z0 F1600
G1 X136.243 Y127.693 Z0 F1600
G1 X136.627 Y127.552 Z0 F1600
G1 X136.993 Y127.376 Z0 F1600
G1 X137.338 Y127.167 Z0 F1600
G1 X137.66 Y126.926 Z0 F1600
G1 X137.956 Y126.656 Z0 F1600
G1 X138.226 Y126.36 Z0 F1600
G1 X138.467 Y126.038 Z0 F1600
G1 X138.676 Y125.693 Z0 F1600
G1 X138.852 Y125.327 Z0 F1600
G1 X138.993 Y124.943 Z0 F1600
G1 X139.096 Y124.543 Z0 F1600
G1 X139.159 Y124.127 Z0 F1600
G1 X139.181 Y123.7 Z0 F1600
G1 X139.159 Y123.273 Z0 F1600
; --- FIX X Backlash ---
G0 X137.859 Y123.273 F1200
G1 X137.796 Y122.857 Z0 F1600
G1 X137.693 Y122.457 Z0 F1600
G1 X137.552 Y122.073 Z0 F1600
G1 X137.376 Y121.707 Z0 F1600
G1 X137.167 Y121.362 Z0 F1600
G1 X136.926 Y121.04 Z0 F1600
G1 X136.656 Y120.744 Z0 F1600
G1 X136.36 Y120.474 Z0 F1600
G1 X136.038 Y120.233 Z0 F1600
G1 X135.693 Y120.024 Z0 F1600
G1 X135.327 Y119.848 Z0 F1600
G1 X134.943 Y119.707 Z0 F1600
G1 X134.543 Y119.604 Z0 F1600
G1 X134.127 Y119.541 Z0 F1600
G1 X133.7 Y119.519 Z0 F1600
G1 X133.273 Y119.541 Z0 F1600
; --- FIX Y Backlash ---
G0 X133.273 Y120.841 F1200
G1 X132.857 Y120.904 Z0 F1600
G1 X132.457 Y121.007 Z0 F1600
G1 X132.073 Y121.148 Z0 F1600
G1 X131.707 Y121.324 Z0 F1600
G0 Z3.5 F1000
; --- FIX X Backlash ---
G0 X133.007 Y121.324 F1200
G0 X147 Y137 Z3.5
G1 Z0 F1000
; --- FIX Y Backlash ---
G0 X147 Y135.7 F1200
G1 Y30.7 Z0 F1600

; Color picking sequence
G1 Z10 F1000;         ; Raise brush
G0 X41 Y5 F1200;    ; Rapid move to color 1
G1 Z10 F1000;         ; Raise brush
G0 X41 Y5 F1200;    ; Rapid move to color 1
G1 Z0 F1000;         ; Lower into color
G1 X40.102 Y7.295 Z0 S800 F1200
G1 X40.026 Y7.642 Z0 F1200
G1 X40 Y8 Z0 F1200
G1 X40.026 Y8.358 Z0 F1200
G1 X40.102 Y8.705 Z0 F1200
G1 X40.225 Y9.041 Z0 F1200
G1 X40.393 Y9.362 Z0 F1200
G1 X40.603 Y9.668 Z0 F1200
G1 X40.854 Y9.957 Z0 F1200
G1 X41.142 Y10.226 Z0 F1200
G1 X41.464 Y10.475 Z0 F1200
G1 X41.82 Y10.701 Z0 F1200
G1 X42.204 Y10.902 Z0 F1200
G1 X42.617 Y11.078 Z0 F1200
G1 X43.054 Y11.225 Z0 F1200
G1 X43.513 Y11.343 Z0 F1200
G1 X43.992 Y11.429 Z0 F1200
G1 X44.489 Y11.482 Z0 F1200
G1 X45 Y11.5 Z0 F1200
G1 X45.511 Y11.482 Z0 F1200
G1 X46.008 Y11.429 Z0 F1200
G1 X46.487 Y11.343 Z0 F1200
G1 X46.946 Y11.225 Z0 F1200
G1 X47.383 Y11.078 Z0 F1200
G1 X47.796 Y10.902 Z0 F1200
G1 X48.18 Y10.701 Z0 F1200
G1 X48.536 Y10.475 Z0 F1200
G1 X48.858 Y10.226 Z0 F1200
G1 X49.146 Y9.957 Z0 F1200
G1 X49.397 Y9.668 Z0 F1200
G1 X49.607 Y9.362 Z0 F1200
G1 X49.775 Y9.041 Z0 F1200
G1 X49.898 Y8.705 Z0 F1200
G1 X49.974 Y8.358 Z0 F1200
G1 X50 Y8 Z0 F1200
G1 X49.974 Y7.642 Z0 F1200
G1 X49.898 Y7.295 Z0 F1200
G1 X49.775 Y6.959 Z0 F1200
G1 X49.607 Y6.638 Z0 F1200
G1 X49.397 Y6.332 Z0 F1200
G1 X49.146 Y6.043 Z0 F1200
G1 X48.858 Y5.774 Z0 F1200
G1 X48.536 Y5.525 Z0 F1200
G1 X48.18 Y5.299 Z0 F1200
G1 X47.796 Y5.098 Z0 F1200
G1 X47.383 Y4.922 Z0 F1200
G1 X46.946 Y4.775 Z0 F1200
G1 X46.487 Y4.657 Z0 F1200
G1 X46.008 Y4.571 Z0 F1200
G1 X45.511 Y4.518 Z0 F1200
G1 X45 Y4.5 Z0 F1200
G1 X44.489 Y4.518 Z0 F1200
G1 X43.992 Y4.571 Z0 F1200
G1 X43.513 Y4.657 Z0 F1200
G1 X43.054 Y4.775 Z0 F1200
G1 X42.617 Y4.922 Z0 F1200
G1 X42.204 Y5.098 Z0 F1200
G1 X41.82 Y5.299 Z0 F1200
G1 X41.464 Y5.525 Z0 F1200
G1 X41.142 Y5.774 Z0 F1200
G1 X40.854 Y6.043 Z0 F1200
G1 X40.603 Y6.332 Z0 F1200
G1 X40.393 Y6.638 Z0 F1200
G1 X40.225 Y6.959 Z0 F1200
G1 Z7 F800;         ; Raise from color
G1 X34 Y8 Z1 F1200;     ; Movement in paint
G1 X24 Y18 Z8 F500;     ; Move in paint
G1 F1200;           ; Set feed rate
G0 Z2.5 F1000 ; Safety Lift
G0 X147 Y30.7 F1200 ; Return
G1 Z0 F1000 ; Restore Z
; --- FIX X Backlash ---
G0 X145.7 Y30.7 F1200
G1 X1.7 Z0 F1600
; --- FIX Y Backlash ---
G0 X1.7 Y32 F1200
G1 Y137 Z0 F1600
; --- FIX X Backlash ---
G0 X3 Y137 F1200
G1 X147 Z0 F1600

; Washing sequence (no color)
G1 Z10 F1000;        ; Raise brush
G0 X5 Y5 F1200;     ; Rapid move to clean
G1 Z0 F800;         ; Lower brush
G1 X10 Y12 Z8 F1200;     ; Move
G1 Z0 F800;         ; Lower
G1 X25 Y14 Z6 F800;     ; Move
G1 Z8 F800;         ; Maintain
G0 X5 Y5 F1200;     ; Rapid
G1 Z0 F800;         ; Lower
G1 X15 Y12 Z8 F1200;     ; Move
G1 Z0 F800;         ; Lower
G1 X25 Y14 Z6 F800;     ; Move
G1 Z10 F800;         ; Maintain
G1 F1200;           ; Set feed
G0 Z2.5 F1000 ; Safety Lift

; Color picking sequence
G1 Z10 F1000;         ; Raise brush
G0 X131 Y5 F1200;    ; Rapid move to color 1
G1 Z10 F1000;         ; Raise brush
G0 X131 Y5 F1200;    ; Rapid move to color 1
G1 Z0 F1000;         ; Lower into color
G1 X130.102 Y7.295 Z0 S800 F1200
G1 X130.026 Y7.642 Z0 F1200
G1 X130 Y8 Z0 F1200
G1 X130.026 Y8.358 Z0 F1200
G1 X130.102 Y8.705 Z0 F1200
G1 X130.225 Y9.041 Z0 F1200
G1 X130.393 Y9.362 Z0 F1200
G1 X130.603 Y9.668 Z0 F1200
G1 X130.854 Y9.957 Z0 F1200
G1 X131.142 Y10.226 Z0 F1200
G1 X131.464 Y10.475 Z0 F1200
G1 X131.82 Y10.701 Z0 F1200
G1 X132.204 Y10.902 Z0 F1200
G1 X132.617 Y11.078 Z0 F1200
G1 X133.054 Y11.225 Z0 F1200
G1 X133.513 Y11.343 Z0 F1200
G1 X133.992 Y11.429 Z0 F1200
G1 X134.489 Y11.482 Z0 F1200
G1 X135 Y11.5 Z0 F1200
G1 X135.511 Y11.482 Z0 F1200
G1 X136.008 Y11.429 Z0 F1200
G1 X136.487 Y11.343 Z0 F1200
G1 X136.946 Y11.225 Z0 F1200
G1 X137.383 Y11.078 Z0 F1200
G1 X137.796 Y10.902 Z0 F1200
G1 X138.18 Y10.701 Z0 F1200
G1 X138.536 Y10.475 Z0 F1200
G1 X138.858 Y10.226 Z0 F1200
G1 X139.146 Y9.957 Z0 F1200
G1 X139.397 Y9.668 Z0 F1200
G1 X139.607 Y9.362 Z0 F1200
G1 X139.775 Y9.041 Z0 F1200
G1 X139.898 Y8.705 Z0 F1200
G1 X139.974 Y8.358 Z0 F1200
G1 X140 Y8 Z0 F1200
G1 X139.974 Y7.642 Z0 F1200
G1 X139.898 Y7.295 Z0 F1200
G1 X139.775 Y6.959 Z0 F1200
G1 X139.607 Y6.638 Z0 F1200
G1 X139.397 Y6.332 Z0 F1200
G1 X139.146 Y6.043 Z0 F1200
G1 X138.858 Y5.774 Z0 F1200
G1 X138.536 Y5.525 Z0 F1200
G1 X138.18 Y5.299 Z0 F1200
G1 X137.796 Y5.098 Z0 F1200
G1 X137.383 Y4.922 Z0 F1200
G1 X136.946 Y4.775 Z0 F1200
G1 X136.487 Y4.657 Z0 F1200
G1 X136.008 Y4.571 Z0 F1200
G1 X135.511 Y4.518 Z0 F1200
G1 X135 Y4.5 Z0 F1200
G1 X134.489 Y4.518 Z0 F1200
G1 X133.992 Y4.571 Z0 F1200
G1 X133.513 Y4.657 Z0 F1200
G1 X133.054 Y4.775 Z0 F1200
G1 X132.617 Y4.922 Z0 F1200
G1 X132.204 Y5.098 Z0 F1200
G1 X131.82 Y5.299 Z0 F1200
G1 X131.464 Y5.525 Z0 F1200
G1 X131.142 Y5.774 Z0 F1200
G1 X130.854 Y6.043 Z0 F1200
G1 X130.603 Y6.332 Z0 F1200
G1 X130.393 Y6.638 Z0 F1200
G1 X130.225 Y6.959 Z0 F1200
G1 Z7 F800;         ; Raise from color
G1 X124 Y8 Z1 F1200;     ; Movement in paint
G1 X114 Y18 Z8 F500;     ; Move in paint
G1 F1200;           ; Set feed rate
G0 Z2.5 F1000 ; Safety Lift
;Offset @ 1500 mm/min, 90% power

M8
G0 Z3.5 F1000
; --- FIX X Backlash ---
G0 X145.7 Y137 F1200
; --- FIX Y Backlash ---
G0 X145.7 Y135.7 F1200
G0 X13.761 Y123.213 Z3.5
G1 Z0 F1000
;Layer C3
G1 X13.809 Y123.221 Z0 S900 F1600
G1 X13.85 Y123.231 Z0 F1600
G1 X13.894 Y123.247 Z0 F1600
G1 X13.928 Y123.263 Z0 F1600
G1 X13.97 Y123.289 Z0 F1600
G1 X14.01 Y123.319 Z0 F1600
G1 X14.047 Y123.353 Z0 F1600
G1 X14.081 Y123.39 Z0 F1600
G1 X14.111 Y123.43 Z0 F1600
G1 X14.137 Y123.472 Z0 F1600
G1 X14.153 Y123.506 Z0 F1600
G1 X14.169 Y123.55 Z0 F1600
G1 X14.179 Y123.591 Z0 F1600
G1 X14.187 Y123.639 Z0 F1600
; --- FIX Y Backlash ---
G0 X14.187 Y124.939 F1200
G1 X14.19 Y125 Z0 F1600
G1 X14.187 Y125.061 Z0 F1600
G1 X14.179 Y125.109 Z0 F1600
G1 X14.169 Y125.15 Z0 F1600
G1 X14.153 Y125.194 Z0 F1600
G1 X14.137 Y125.228 Z0 F1600
G1 X14.111 Y125.27 Z0 F1600
G1 X14.081 Y125.31 Z0 F1600
G1 X14.047 Y125.347 Z0 F1600
G1 X14.01 Y125.381 Z0 F1600
G1 X13.97 Y125.411 Z0 F1600
G1 X13.928 Y125.437 Z0 F1600
G1 X13.894 Y125.453 Z0 F1600
G1 X13.85 Y125.469 Z0 F1600
G1 X13.809 Y125.479 Z0 F1600
G1 X13.761 Y125.487 Z0 F1600
G1 X13.7 Y125.49 Z0 F1600
G1 X13.639 Y125.487 Z0 F1600
G1 X13.591 Y125.479 Z0 F1600
G1 X13.55 Y125.469 Z0 F1600
G1 X13.506 Y125.453 Z0 F1600
G1 X13.472 Y125.437 Z0 F1600
G1 X13.43 Y125.411 Z0 F1600
G1 X13.39 Y125.381 Z0 F1600
G1 X13.353 Y125.347 Z0 F1600
G1 X13.319 Y125.31 Z0 F1600
G1 X13.289 Y125.27 Z0 F1600
G1 X13.263 Y125.228 Z0 F1600
G1 X13.247 Y125.194 Z0 F1600
G1 X13.231 Y125.15 Z0 F1600
G1 X13.221 Y125.109 Z0 F1600
G1 X13.213 Y125.061 Z0 F1600
; --- FIX Y Backlash ---
G0 X13.213 Y123.761 F1200
G1 X13.21 Y123.7 Z0 F1600
G1 X13.213 Y123.639 Z0 F1600
G1 X13.221 Y123.591 Z0 F1600
G1 X13.231 Y123.55 Z0 F1600
G1 X13.247 Y123.506 Z0 F1600
G1 X13.263 Y123.472 Z0 F1600
G1 X13.289 Y123.43 Z0 F1600
G1 X13.319 Y123.39 Z0 F1600
G1 X13.353 Y123.353 Z0 F1600
G1 X13.39 Y123.319 Z0 F1600
G1 X13.43 Y123.289 Z0 F1600
G1 X13.472 Y123.263 Z0 F1600
G1 X13.506 Y123.247 Z0 F1600
G1 X13.55 Y123.231 Z0 F1600
G1 X13.591 Y123.221 Z0 F1600
G1 X13.639 Y123.213 Z0 F1600
; --- FIX X Backlash ---
G0 X14.939 Y123.213 F1200
G1 X15 Y123.21 Z0 F1600
G1 X15.061 Y123.213 Z0 F1600
G0 Z3.5 F1000
; --- FIX Y Backlash ---
G0 X15.061 Y124.513 F1200
G0 X17.479 Y124.738 Z3.5
G1 Z0 F1000
G1 X17.493 Y125 Z0 F1600
G1 X17.479 Y125.262 Z0 F1600
G1 X17.441 Y125.511 Z0 F1600
; --- FIX X Backlash ---
G0 X16.141 Y125.511 F1200
G1 X16.081 Y125.745 Z0 F1600
G1 X15.998 Y125.97 Z0 F1600
G1 X15.894 Y126.187 Z0 F1600
G1 X15.772 Y126.388 Z0 F1600
G1 X15.625 Y126.584 Z0 F1600
G1 X15.463 Y126.763 Z0 F1600
G1 X15.284 Y126.925 Z0 F1600
G1 X15.088 Y127.072 Z0 F1600
G1 X14.887 Y127.194 Z0 F1600
G1 X14.67 Y127.298 Z0 F1600
G1 X14.445 Y127.381 Z0 F1600
G1 X14.211 Y127.441 Z0 F1600
G1 X13.962 Y127.479 Z0 F1600
G1 X13.7 Y127.493 Z0 F1600
G1 X13.438 Y127.479 Z0 F1600
G1 X13.189 Y127.441 Z0 F1600
; --- FIX Y Backlash ---
G0 X13.189 Y126.141 F1200
G1 X12.955 Y126.081 Z0 F1600
G1 X12.73 Y125.998 Z0 F1600
G1 X12.513 Y125.894 Z0 F1600
G1 X12.312 Y125.772 Z0 F1600
G1 X12.116 Y125.625 Z0 F1600
G1 X11.937 Y125.463 Z0 F1600
G1 X11.775 Y125.284 Z0 F1600
G1 X11.628 Y125.088 Z0 F1600
G1 X11.506 Y124.887 Z0 F1600
G1 X11.402 Y124.67 Z0 F1600
G1 X11.319 Y124.445 Z0 F1600
G1 X11.259 Y124.211 Z0 F1600
G1 X11.221 Y123.962 Z0 F1600
G1 X11.207 Y123.7 Z0 F1600
G1 X11.221 Y123.438 Z0 F1600
G1 X11.259 Y123.189 Z0 F1600
; --- FIX X Backlash ---
G0 X12.559 Y123.189 F1200
G1 X12.619 Y122.955 Z0 F1600
G1 X12.702 Y122.73 Z0 F1600
G1 X12.806 Y122.513 Z0 F1600
G1 X12.928 Y122.312 Z0 F1600
G1 X13.075 Y122.116 Z0 F1600
G1 X13.237 Y121.937 Z0 F1600
G1 X13.416 Y121.775 Z0 F1600
G1 X13.612 Y121.628 Z0 F1600
G1 X13.813 Y121.506 Z0 F1600
G1 X14.03 Y121.402 Z0 F1600
G1 X14.255 Y121.319 Z0 F1600
G1 X14.489 Y121.259 Z0 F1600
G1 X14.738 Y121.221 Z0 F1600
G1 X15 Y121.207 Z0 F1600
G1 X15.262 Y121.221 Z0 F1600
G1 X15.511 Y121.259 Z0 F1600
; --- FIX Y Backlash ---
G0 X15.511 Y122.559 F1200
G1 X15.745 Y122.619 Z0 F1600
G1 X15.97 Y122.702 Z0 F1600
G1 X16.187 Y122.806 Z0 F1600
G1 X16.388 Y122.928 Z0 F1600
G1 X16.584 Y123.075 Z0 F1600
G1 X16.763 Y123.237 Z0 F1600
G1 X16.925 Y123.416 Z0 F1600
G1 X17.072 Y123.612 Z0 F1600
G1 X17.194 Y123.813 Z0 F1600
G1 X17.298 Y124.03 Z0 F1600
G1 X17.381 Y124.255 Z0 F1600
G1 X17.441 Y124.489 Z0 F1600
G1 X17.479 Y124.738 Z0 F1600
G0 Z3.5 F1000
G0 X18.178 Y128.178 Z3.5
G1 Z0 F1000
; --- FIX X Backlash ---
G0 X16.878 Y128.178 F1200
G1 X16.557 Y128.471 Z0 F1600
G1 X16.21 Y128.73 Z0 F1600
G1 X15.843 Y128.954 Z0 F1600
G1 X15.447 Y129.144 Z0 F1600
G1 X15.04 Y129.293 Z0 F1600
G1 X14.612 Y129.403 Z0 F1600
G1 X14.168 Y129.471 Z0 F1600
G1 X13.7 Y129.495 Z0 F1600
G1 X13.232 Y129.471 Z0 F1600
; --- FIX Y Backlash ---
G0 X13.232 Y128.171 F1200
G1 X12.788 Y128.103 Z0 F1600
G1 X12.36 Y127.993 Z0 F1600
G1 X11.953 Y127.844 Z0 F1600
G1 X11.557 Y127.654 Z0 F1600
G1 X11.19 Y127.43 Z0 F1600
G1 X10.843 Y127.171 Z0 F1600
G1 X10.522 Y126.878 Z0 F1600
G1 X10.229 Y126.557 Z0 F1600
G1 X9.97 Y126.21 Z0 F1600
G1 X9.746 Y125.843 Z0 F1600
G1 X9.556 Y125.447 Z0 F1600
G1 X9.407 Y125.04 Z0 F1600
G1 X9.297 Y124.612 Z0 F1600
G1 X9.229 Y124.168 Z0 F1600
G1 X9.205 Y123.7 Z0 F1600
G1 X9.229 Y123.232 Z0 F1600
; --- FIX X Backlash ---
G0 X10.529 Y123.232 F1200
G1 X10.597 Y122.788 Z0 F1600
G1 X10.707 Y122.36 Z0 F1600
G1 X10.856 Y121.953 Z0 F1600
G1 X11.046 Y121.557 Z0 F1600
G1 X11.27 Y121.19 Z0 F1600
G1 X11.529 Y120.843 Z0 F1600
G1 X11.822 Y120.522 Z0 F1600
G1 X12.143 Y120.229 Z0 F1600
G1 X12.49 Y119.97 Z0 F1600
G1 X12.857 Y119.746 Z0 F1600
G1 X13.253 Y119.556 Z0 F1600
G1 X13.66 Y119.407 Z0 F1600
G1 X14.088 Y119.297 Z0 F1600
G1 X14.532 Y119.229 Z0 F1600
G1 X15 Y119.205 Z0 F1600
G1 X15.468 Y119.229 Z0 F1600
; --- FIX Y Backlash ---
G0 X15.468 Y120.529 F1200
G1 X15.912 Y120.597 Z0 F1600
G1 X16.34 Y120.707 Z0 F1600
G1 X16.747 Y120.856 Z0 F1600
G1 X17.143 Y121.046 Z0 F1600
G1 X17.51 Y121.27 Z0 F1600
G1 X17.857 Y121.529 Z0 F1600
G1 X18.178 Y121.822 Z0 F1600
G1 X18.471 Y122.143 Z0 F1600
G1 X18.73 Y122.49 Z0 F1600
G1 X18.954 Y122.857 Z0 F1600
G1 X19.144 Y123.253 Z0 F1600
G1 X19.293 Y123.66 Z0 F1600
G1 X19.403 Y124.088 Z0 F1600
G1 X19.471 Y124.532 Z0 F1600
G1 X19.495 Y125 Z0 F1600
G1 X19.471 Y125.468 Z0 F1600
; --- FIX X Backlash ---
G0 X18.171 Y125.468 F1200
G1 X18.103 Y125.912 Z0 F1600
G1 X17.993 Y126.34 Z0 F1600
G1 X17.844 Y126.747 Z0 F1600
G1 X17.654 Y127.143 Z0 F1600
G1 X17.43 Y127.51 Z0 F1600
G1 X17.171 Y127.857 Z0 F1600
G1 X16.878 Y128.178 Z0 F1600
G0 Z3.5 F1000
G0 X13.7 Y131.498 Z3.5
G1 Z0 F1000
G1 X13.032 Y131.463 Z0 F1600
; --- FIX Y Backlash ---
G0 X13.032 Y130.163 F1200
G1 X12.388 Y130.065 Z0 F1600
G1 X11.767 Y129.906 Z0 F1600
G1 X11.168 Y129.686 Z0 F1600
G1 X10.604 Y129.415 Z0 F1600
G1 X10.069 Y129.09 Z0 F1600
G1 X9.568 Y128.715 Z0 F1600
G1 X9.106 Y128.294 Z0 F1600
G1 X8.685 Y127.832 Z0 F1600
G1 X8.31 Y127.331 Z0 F1600
G1 X7.985 Y126.796 Z0 F1600
G1 X7.714 Y126.232 Z0 F1600
G1 X7.494 Y125.633 Z0 F1600
G1 X7.335 Y125.012 Z0 F1600
G1 X7.237 Y124.368 Z0 F1600
G1 X7.202 Y123.7 Z0 F1600
G1 X7.237 Y123.032 Z0 F1600
; --- FIX X Backlash ---
G0 X8.537 Y123.032 F1200
G1 X8.635 Y122.388 Z0 F1600
G1 X8.794 Y121.767 Z0 F1600
G1 X9.014 Y121.168 Z0 F1600
G1 X9.285 Y120.604 Z0 F1600
G1 X9.61 Y120.069 Z0 F1600
G1 X9.985 Y119.568 Z0 F1600
G1 X10.406 Y119.106 Z0 F1600
G1 X10.868 Y118.685 Z0 F1600
G1 X11.369 Y118.31 Z0 F1600
G1 X11.904 Y117.985 Z0 F1600
G1 X12.468 Y117.714 Z0 F1600
G1 X13.067 Y117.494 Z0 F1600
G1 X13.688 Y117.335 Z0 F1600
G1 X14.332 Y117.237 Z0 F1600
G1 X15 Y117.202 Z0 F1600
G1 X15.668 Y117.237 Z0 F1600
; --- FIX Y Backlash ---
G0 X15.668 Y118.537 F1200
G1 X16.312 Y118.635 Z0 F1600
G1 X16.933 Y118.794 Z0 F1600
G1 X17.532 Y119.014 Z0 F1600
G1 X18.096 Y119.285 Z0 F1600
G1 X18.631 Y119.61 Z0 F1600
G1 X19.132 Y119.985 Z0 F1600
G1 X19.594 Y120.406 Z0 F1600
G1 X20.015 Y120.868 Z0 F1600
G1 X20.39 Y121.369 Z0 F1600
G1 X20.715 Y121.904 Z0 F1600
G1 X20.986 Y122.468 Z0 F1600
G1 X21.206 Y123.067 Z0 F1600
G1 X21.365 Y123.688 Z0 F1600
G1 X21.463 Y124.332 Z0 F1600
G1 X21.498 Y125 Z0 F1600
G1 X21.463 Y125.668 Z0 F1600
; --- FIX X Backlash ---
G0 X20.163 Y125.668 F1200
G1 X20.065 Y126.312 Z0 F1600
G1 X19.906 Y126.933 Z0 F1600
G1 X19.686 Y127.532 Z0 F1600
G1 X19.415 Y128.096 Z0 F1600
G1 X19.09 Y128.631 Z0 F1600
G1 X18.715 Y129.132 Z0 F1600
G1 X18.294 Y129.594 Z0 F1600
G1 X17.832 Y130.015 Z0 F1600
G1 X17.331 Y130.39 Z0 F1600
G1 X16.796 Y130.715 Z0 F1600
G1 X16.232 Y130.986 Z0 F1600
G1 X15.633 Y131.206 Z0 F1600
G1 X15.012 Y131.365 Z0 F1600
G1 X14.368 Y131.463 Z0 F1600
G1 X13.7 Y131.498 Z0 F1600
G0 Z3.5 F1000
G0 X8.948 Y132.048 Z3.5
G1 Z0 F1000
; --- FIX Y Backlash ---
G0 X8.948 Y130.748 F1200
G1 X8.293 Y130.259 Z0 F1600
G1 X7.69 Y129.71 Z0 F1600
G1 X7.141 Y129.107 Z0 F1600
G1 X6.652 Y128.452 Z0 F1600
G1 X6.226 Y127.752 Z0 F1600
G1 X5.868 Y127.009 Z0 F1600
G1 X5.582 Y126.228 Z0 F1600
G1 X5.373 Y125.413 Z0 F1600
G1 X5.244 Y124.569 Z0 F1600
G1 X5.2 Y123.7 Z0 F1600
G1 X5.244 Y122.831 Z0 F1600
; --- FIX X Backlash ---
G0 X6.544 Y122.831 F1200
G1 X6.673 Y121.987 Z0 F1600
G1 X6.882 Y121.172 Z0 F1600
G1 X7.168 Y120.391 Z0 F1600
G1 X7.526 Y119.648 Z0 F1600
G1 X7.952 Y118.948 Z0 F1600
G1 X8.441 Y118.293 Z0 F1600
G1 X8.99 Y117.69 Z0 F1600
G1 X9.593 Y117.141 Z0 F1600
G1 X10.248 Y116.652 Z0 F1600
G1 X10.948 Y116.226 Z0 F1600
G1 X11.691 Y115.868 Z0 F1600
G1 X12.472 Y115.582 Z0 F1600
G1 X13.287 Y115.373 Z0 F1600
G1 X14.131 Y115.244 Z0 F1600
G1 X15 Y115.2 Z0 F1600
G1 X15.869 Y115.244 Z0 F1600
; --- FIX Y Backlash ---
G0 X15.869 Y116.544 F1200
G1 X16.713 Y116.673 Z0 F1600
G1 X17.528 Y116.882 Z0 F1600
G1 X18.309 Y117.168 Z0 F1600
G1 X19.052 Y117.526 Z0 F1600
G1 X19.752 Y117.952 Z0 F1600
G1 X20.407 Y118.441 Z0 F1600
G1 X21.01 Y118.99 Z0 F1600
G1 X21.559 Y119.593 Z0 F1600
G1 X22.048 Y120.248 Z0 F1600
G1 X22.474 Y120.948 Z0 F1600
G1 X22.832 Y121.691 Z0 F1600
G1 X23.118 Y122.472 Z0 F1600
G1 X23.327 Y123.287 Z0 F1600
G1 X23.456 Y124.131 Z0 F1600
G1 X23.5 Y125 Z0 F1600
G1 X23.456 Y125.869 Z0 F1600
; --- FIX X Backlash ---
G0 X22.156 Y125.869 F1200
G1 X22.027 Y126.713 Z0 F1600
G1 X21.818 Y127.528 Z0 F1600
G1 X21.532 Y128.309 Z0 F1600
G1 X21.174 Y129.052 Z0 F1600
G1 X20.748 Y129.752 Z0 F1600
G1 X20.259 Y130.407 Z0 F1600
G1 X19.71 Y131.01 Z0 F1600
G1 X19.107 Y131.559 Z0 F1600
G1 X18.452 Y132.048 Z0 F1600
G1 X17.752 Y132.474 Z0 F1600
G1 X17.009 Y132.832 Z0 F1600
G1 X16.228 Y133.118 Z0 F1600
G1 X15.413 Y133.327 Z0 F1600
G1 X14.569 Y133.456 Z0 F1600
G1 X13.7 Y133.5 Z0 F1600
G1 X12.831 Y133.456 Z0 F1600
; --- FIX Y Backlash ---
G0 X12.831 Y132.156 F1200
G1 X11.987 Y132.027 Z0 F1600
G1 X11.172 Y131.818 Z0 F1600
G1 X10.391 Y131.532 Z0 F1600
G1 X9.648 Y131.174 Z0 F1600
G1 X8.948 Y130.748 Z0 F1600

; Washing sequence (no color)
G1 Z10 F1000;        ; Raise brush
G0 X5 Y5 F1200;     ; Rapid move to clean
G1 Z0 F800;         ; Lower brush
G1 X10 Y12 Z8 F1200;     ; Move
G1 Z0 F800;         ; Lower
G1 X25 Y14 Z6 F800;     ; Move
G1 Z8 F800;         ; Maintain
G0 X5 Y5 F1200;     ; Rapid
G1 Z0 F800;         ; Lower
G1 X15 Y12 Z8 F1200;     ; Move
G1 Z0 F800;         ; Lower
G1 X25 Y14 Z6 F800;     ; Move
G1 Z10 F800;         ; Maintain
G1 F1200;           ; Set feed
G0 Z2.5 F1000 ; Safety Lift

; Color picking sequence
G1 Z10 F1000;         ; Raise brush
G0 X86 Y5 F1200;    ; Rapid move to color 1
G1 Z10 F1000;         ; Raise brush
G0 X86 Y5 F1200;    ; Rapid move to color 1
G1 Z0 F1000;         ; Lower into color
G1 X85.102 Y7.295 Z0 S800 F1200
G1 X85.026 Y7.642 Z0 F1200
G1 X85 Y8 Z0 F1200
G1 X85.026 Y8.358 Z0 F1200
G1 X85.102 Y8.705 Z0 F1200
G1 X85.225 Y9.041 Z0 F1200
G1 X85.393 Y9.362 Z0 F1200
G1 X85.603 Y9.668 Z0 F1200
G1 X85.854 Y9.957 Z0 F1200
G1 X86.142 Y10.226 Z0 F1200
G1 X86.464 Y10.475 Z0 F1200
G1 X86.82 Y10.701 Z0 F1200
G1 X87.204 Y10.902 Z0 F1200
G1 X87.617 Y11.078 Z0 F1200
G1 X88.054 Y11.225 Z0 F1200
G1 X88.513 Y11.343 Z0 F1200
G1 X88.992 Y11.429 Z0 F1200
G1 X89.489 Y11.482 Z0 F1200
G1 X90 Y11.5 Z0 F1200
G1 X90.511 Y11.482 Z0 F1200
G1 X91.008 Y11.429 Z0 F1200
G1 X91.487 Y11.343 Z0 F1200
G1 X91.946 Y11.225 Z0 F1200
G1 X92.383 Y11.078 Z0 F1200
G1 X92.796 Y10.902 Z0 F1200
G1 X93.18 Y10.701 Z0 F1200
G1 X93.536 Y10.475 Z0 F1200
G1 X93.858 Y10.226 Z0 F1200
G1 X94.146 Y9.957 Z0 F1200
G1 X94.397 Y9.668 Z0 F1200
G1 X94.607 Y9.362 Z0 F1200
G1 X94.775 Y9.041 Z0 F1200
G1 X94.898 Y8.705 Z0 F1200
G1 X94.974 Y8.358 Z0 F1200
G1 X95 Y8 Z0 F1200
G1 X94.974 Y7.642 Z0 F1200
G1 X94.898 Y7.295 Z0 F1200
G1 X94.775 Y6.959 Z0 F1200
G1 X94.607 Y6.638 Z0 F1200
G1 X94.397 Y6.332 Z0 F1200
G1 X94.146 Y6.043 Z0 F1200
G1 X93.858 Y5.774 Z0 F1200
G1 X93.536 Y5.525 Z0 F1200
G1 X93.18 Y5.299 Z0 F1200
G1 X92.796 Y5.098 Z0 F1200
G1 X92.383 Y4.922 Z0 F1200
G1 X91.946 Y4.775 Z0 F1200
G1 X91.487 Y4.657 Z0 F1200
G1 X91.008 Y4.571 Z0 F1200
G1 X90.511 Y4.518 Z0 F1200
G1 X90 Y4.5 Z0 F1200
G1 X89.489 Y4.518 Z0 F1200
G1 X88.992 Y4.571 Z0 F1200
G1 X88.513 Y4.657 Z0 F1200
G1 X88.054 Y4.775 Z0 F1200
G1 X87.617 Y4.922 Z0 F1200
G1 X87.204 Y5.098 Z0 F1200
G1 X86.82 Y5.299 Z0 F1200
G1 X86.464 Y5.525 Z0 F1200
G1 X86.142 Y5.774 Z0 F1200
G1 X85.854 Y6.043 Z0 F1200
G1 X85.603 Y6.332 Z0 F1200
G1 X85.393 Y6.638 Z0 F1200
G1 X85.225 Y6.959 Z0 F1200
G1 Z7 F800;         ; Raise from color
G1 X79 Y8 Z1 F1200;     ; Movement in paint
G1 X69 Y18 Z8 F500;     ; Move in paint
G1 F1200;           ; Set feed rate
G0 Z2.5 F1000 ; Safety Lift
;Cut @ 1500 mm/min, 80% power

M8
G0 Z3.5 F1000
; --- FIX X Backlash ---
G0 X10.248 Y130.748 F1200
G0 X128.472 Y123.7 Z3.5
G1 Z0 F1000
;Layer C2
G1 X141.528 Z0 S800 F1600
G0 Z3.5 F1000
; --- FIX X Backlash ---
G0 X140.228 Y123.7 F1200
; --- FIX Y Backlash ---
G0 X140.228 Y125 F1200
G0 X133.7 Y131.528 Z3.5
G1 Z0 F1000
; --- FIX Y Backlash ---
G0 X133.7 Y130.228 F1200
G1 Y117.172 Z0 F1600
G0 Z3.5 F1000
G0 X17.573 Y50.408 Z3.5
G1 Z0 F1000
G1 X9.827 Y36.992 Z0 F1600
G0 Z3.5 F1000
; --- FIX X Backlash ---
G0 X11.127 Y36.992 F1200
G0 X12.995 Y36.219 Z3.5
G1 Z0 F1000
; --- FIX Y Backlash ---
G0 X12.995 Y37.519 F1200
G1 X17.005 Y52.481 Z0 F1600
G0 Z3.5 F1000
; --- FIX X Backlash ---
G0 X15.705 Y52.481 F1200
G0 X13.7 Y52.745 Z3.5
G1 Z0 F1000
; --- FIX Y Backlash ---
G0 X13.7 Y51.445 F1200
G1 Y35.955 Z0 F1600
G0 Z3.5 F1000
; --- FIX X Backlash ---
G0 X15 Y35.955 F1200
; --- FIX Y Backlash ---
G0 X15 Y37.255 F1200
G0 X17.005 Y37.519 Z3.5
G1 Z0 F1000
; --- FIX X Backlash ---
G0 X15.705 Y37.519 F1200
G1 X11.695 Y52.481 Z0 F1600
G0 Z3.5 F1000
; --- FIX Y Backlash ---
G0 X11.695 Y51.181 F1200
G0 X9.827 Y50.408 Z3.5
G1 Z0 F1000
; --- FIX X Backlash ---
G0 X11.127 Y50.408 F1200
G1 X18.873 Y36.992 Z0 F1600
G0 Z3.5 F1000

; Color picking sequence
G1 Z10 F1000;         ; Raise brush
G0 X86 Y5 F1200;    ; Rapid move to color 1
G1 Z10 F1000;         ; Raise brush
G0 X86 Y5 F1200;    ; Rapid move to color 1
G1 Z0 F1000;         ; Lower into color
G1 X85.102 Y7.295 Z0 S800 F1200
G1 X85.026 Y7.642 Z0 F1200
G1 X85 Y8 Z0 F1200
G1 X85.026 Y8.358 Z0 F1200
G1 X85.102 Y8.705 Z0 F1200
G1 X85.225 Y9.041 Z0 F1200
G1 X85.393 Y9.362 Z0 F1200
G1 X85.603 Y9.668 Z0 F1200
G1 X85.854 Y9.957 Z0 F1200
G1 X86.142 Y10.226 Z0 F1200
G1 X86.464 Y10.475 Z0 F1200
G1 X86.82 Y10.701 Z0 F1200
G1 X87.204 Y10.902 Z0 F1200
G1 X87.617 Y11.078 Z0 F1200
G1 X88.054 Y11.225 Z0 F1200
G1 X88.513 Y11.343 Z0 F1200
G1 X88.992 Y11.429 Z0 F1200
G1 X89.489 Y11.482 Z0 F1200
G1 X90 Y11.5 Z0 F1200
G1 X90.511 Y11.482 Z0 F1200
G1 X91.008 Y11.429 Z0 F1200
G1 X91.487 Y11.343 Z0 F1200
G1 X91.946 Y11.225 Z0 F1200
G1 X92.383 Y11.078 Z0 F1200
G1 X92.796 Y10.902 Z0 F1200
G1 X93.18 Y10.701 Z0 F1200
G1 X93.536 Y10.475 Z0 F1200
G1 X93.858 Y10.226 Z0 F1200
G1 X94.146 Y9.957 Z0 F1200
G1 X94.397 Y9.668 Z0 F1200
G1 X94.607 Y9.362 Z0 F1200
G1 X94.775 Y9.041 Z0 F1200
G1 X94.898 Y8.705 Z0 F1200
G1 X94.974 Y8.358 Z0 F1200
G1 X95 Y8 Z0 F1200
G1 X94.974 Y7.642 Z0 F1200
G1 X94.898 Y7.295 Z0 F1200
G1 X94.775 Y6.959 Z0 F1200
G1 X94.607 Y6.638 Z0 F1200
G1 X94.397 Y6.332 Z0 F1200
G1 X94.146 Y6.043 Z0 F1200
G1 X93.858 Y5.774 Z0 F1200
G1 X93.536 Y5.525 Z0 F1200
G1 X93.18 Y5.299 Z0 F1200
G1 X92.796 Y5.098 Z0 F1200
G1 X92.383 Y4.922 Z0 F1200
G1 X91.946 Y4.775 Z0 F1200
G1 X91.487 Y4.657 Z0 F1200
G1 X91.008 Y4.571 Z0 F1200
G1 X90.511 Y4.518 Z0 F1200
G1 X90 Y4.5 Z0 F1200
G1 X89.489 Y4.518 Z0 F1200
G1 X88.992 Y4.571 Z0 F1200
G1 X88.513 Y4.657 Z0 F1200
G1 X88.054 Y4.775 Z0 F1200
G1 X87.617 Y4.922 Z0 F1200
G1 X87.204 Y5.098 Z0 F1200
G1 X86.82 Y5.299 Z0 F1200
G1 X86.464 Y5.525 Z0 F1200
G1 X86.142 Y5.774 Z0 F1200
G1 X85.854 Y6.043 Z0 F1200
G1 X85.603 Y6.332 Z0 F1200
G1 X85.393 Y6.638 Z0 F1200
G1 X85.225 Y6.959 Z0 F1200
G1 Z7 F800;         ; Raise from color
G1 X79 Y8 Z1 F1200;     ; Movement in paint
G1 X69 Y18 Z8 F500;     ; Move in paint
G1 F1200;           ; Set feed rate
G0 Z2.5 F1000 ; Safety Lift
G0 X18.873 Y36.992 F1200 ; Return to pos
; --- FIX Y Backlash ---
G0 X18.873 Y38.292 F1200
G0 X20.477 Y39.523 Z3.5
G1 Z0 F1000
; --- FIX X Backlash ---
G0 X19.177 Y39.523 F1200
G1 X8.223 Y50.477 Z0 F1600
G0 Z3.5 F1000
; --- FIX Y Backlash ---
G0 X8.223 Y49.177 F1200
G0 X6.992 Y47.573 Z3.5
G1 Z0 F1000
; --- FIX X Backlash ---
G0 X8.292 Y47.573 F1200
G1 X21.708 Y39.827 Z0 F1600
G0 Z3.5 F1000
; --- FIX Y Backlash ---
G0 X21.708 Y41.127 F1200
G0 X22.481 Y42.995 Z3.5
G1 Z0 F1000
; --- FIX X Backlash ---
G0 X21.181 Y42.995 F1200
G1 X6.219 Y47.005 Z0 F1600
G0 Z3.5 F1000
; --- FIX Y Backlash ---
G0 X6.219 Y45.705 F1200
G0 X5.955 Y43.7 Z3.5
G1 Z0 F1000
; --- FIX X Backlash ---
G0 X7.255 Y43.7 F1200
G1 X22.745 Z0 F1600
G0 Z3.5 F1000
; --- FIX X Backlash ---
G0 X21.445 Y43.7 F1200
; --- FIX Y Backlash ---
G0 X21.445 Y45 F1200
G0 X21.181 Y47.005 Z3.5
G1 Z0 F1000
; --- FIX Y Backlash ---
G0 X21.181 Y45.705 F1200
G1 X6.219 Y41.695 Z0 F1600
G0 Z3.5 F1000
; --- FIX X Backlash ---
G0 X7.519 Y41.695 F1200
G0 X8.292 Y39.827 Z3.5
G1 Z0 F1000
; --- FIX Y Backlash ---
G0 X8.292 Y41.127 F1200
G1 X21.708 Y48.873 Z0 F1600
G0 Z3.5 F1000
; --- FIX X Backlash ---
G0 X20.408 Y48.873 F1200
G0 X19.177 Y50.477 Z3.5
G1 Z0 F1000
; --- FIX Y Backlash ---
G0 X19.177 Y49.177 F1200
G1 X8.223 Y38.223 Z0 F1600

; Washing sequence (no color)
G1 Z10 F1000;        ; Raise brush
G0 X5 Y5 F1200;     ; Rapid move to clean
G1 Z0 F800;         ; Lower brush
G1 X10 Y12 Z8 F1200;     ; Move
G1 Z0 F800;         ; Lower
G1 X25 Y14 Z6 F800;     ; Move
G1 Z8 F800;         ; Maintain
G0 X5 Y5 F1200;     ; Rapid
G1 Z0 F800;         ; Lower
G1 X15 Y12 Z8 F1200;     ; Move
G1 Z0 F800;         ; Lower
G1 X25 Y14 Z6 F800;     ; Move
G1 Z10 F800;         ; Maintain
G1 F1200;           ; Set feed
G0 Z2.5 F1000 ; Safety Lift

; Color picking sequence
G1 Z10 F1000;         ; Raise brush
G0 X41 Y5 F1200;    ; Rapid move to color 1
G1 Z10 F1000;         ; Raise brush
G0 X41 Y5 F1200;    ; Rapid move to color 1
G1 Z0 F1000;         ; Lower into color
G1 X40.102 Y7.295 Z0 S800 F1200
G1 X40.026 Y7.642 Z0 F1200
G1 X40 Y8 Z0 F1200
G1 X40.026 Y8.358 Z0 F1200
G1 X40.102 Y8.705 Z0 F1200
G1 X40.225 Y9.041 Z0 F1200
G1 X40.393 Y9.362 Z0 F1200
G1 X40.603 Y9.668 Z0 F1200
G1 X40.854 Y9.957 Z0 F1200
G1 X41.142 Y10.226 Z0 F1200
G1 X41.464 Y10.475 Z0 F1200
G1 X41.82 Y10.701 Z0 F1200
G1 X42.204 Y10.902 Z0 F1200
G1 X42.617 Y11.078 Z0 F1200
G1 X43.054 Y11.225 Z0 F1200
G1 X43.513 Y11.343 Z0 F1200
G1 X43.992 Y11.429 Z0 F1200
G1 X44.489 Y11.482 Z0 F1200
G1 X45 Y11.5 Z0 F1200
G1 X45.511 Y11.482 Z0 F1200
G1 X46.008 Y11.429 Z0 F1200
G1 X46.487 Y11.343 Z0 F1200
G1 X46.946 Y11.225 Z0 F1200
G1 X47.383 Y11.078 Z0 F1200
G1 X47.796 Y10.902 Z0 F1200
G1 X48.18 Y10.701 Z0 F1200
G1 X48.536 Y10.475 Z0 F1200
G1 X48.858 Y10.226 Z0 F1200
G1 X49.146 Y9.957 Z0 F1200
G1 X49.397 Y9.668 Z0 F1200
G1 X49.607 Y9.362 Z0 F1200
G1 X49.775 Y9.041 Z0 F1200
G1 X49.898 Y8.705 Z0 F1200
G1 X49.974 Y8.358 Z0 F1200
G1 X50 Y8 Z0 F1200
G1 X49.974 Y7.642 Z0 F1200
G1 X49.898 Y7.295 Z0 F1200
G1 X49.775 Y6.959 Z0 F1200
G1 X49.607 Y6.638 Z0 F1200
G1 X49.397 Y6.332 Z0 F1200
G1 X49.146 Y6.043 Z0 F1200
G1 X48.858 Y5.774 Z0 F1200
G1 X48.536 Y5.525 Z0 F1200
G1 X48.18 Y5.299 Z0 F1200
G1 X47.796 Y5.098 Z0 F1200
G1 X47.383 Y4.922 Z0 F1200
G1 X46.946 Y4.775 Z0 F1200
G1 X46.487 Y4.657 Z0 F1200
G1 X46.008 Y4.571 Z0 F1200
G1 X45.511 Y4.518 Z0 F1200
G1 X45 Y4.5 Z0 F1200
G1 X44.489 Y4.518 Z0 F1200
G1 X43.992 Y4.571 Z0 F1200
G1 X43.513 Y4.657 Z0 F1200
G1 X43.054 Y4.775 Z0 F1200
G1 X42.617 Y4.922 Z0 F1200
G1 X42.204 Y5.098 Z0 F1200
G1 X41.82 Y5.299 Z0 F1200
G1 X41.464 Y5.525 Z0 F1200
G1 X41.142 Y5.774 Z0 F1200
G1 X40.854 Y6.043 Z0 F1200
G1 X40.603 Y6.332 Z0 F1200
G1 X40.393 Y6.638 Z0 F1200
G1 X40.225 Y6.959 Z0 F1200
G1 Z7 F800;         ; Raise from color
G1 X34 Y8 Z1 F1200;     ; Movement in paint
G1 X24 Y18 Z8 F500;     ; Move in paint
G1 F1200;           ; Set feed rate
G0 Z2.5 F1000 ; Safety Lift
;Scan @ 1500 mm/min, 90% power

M8
G0 Z3.5 F1000
; --- FIX X Backlash ---
G0 X9.523 Y38.223 F1200
; --- FIX Y Backlash ---
G0 X9.523 Y39.523 F1200
G0 X62.435 Y63.4 Z3.5
G1 Z0 F1000
;Layer C1
G0 Z2.5 F800 ; Lift S=0
G1 X64.185 S0 F1600
G0 Z0 F800 ; Drop S>0
G1 X66.079 S900 F1600
G0 Z2.5 F800 ; Lift S=0
G1 X83.958 S0 F1600
G0 Z0 F800 ; Drop S>0
G1 X85.801 S900 F1600
G0 Z2.5 F800 ; Lift S=0
G1 X87.551 S0 F1600
G1 X89.504 Y64.6 Z2.5 F1600
; --- FIX X Backlash ---
G0 X88.204 Y64.6 F1200
G1 X86.454 Z2.5 F1600
G0 Z0 F800 ; Drop S>0
G1 X81.863 S900 F1600
G0 Z2.5 F800 ; Lift S=0
G1 X65.559 S0 F1600
G0 Z0 F800 ; Drop S>0
G1 X60.878 S900 F1600
G0 Z2.5 F800 ; Lift S=0
G1 X59.128 S0 F1600
G1 X57.875 Y65.8 Z2.5 F1600
; --- FIX X Backlash ---
G0 X59.175 Y65.8 F1200
G1 X60.925 Z2.5 F1600
G0 Z0 F800 ; Drop S>0
G1 X67.645 S900 F1600
G0 Z2.5 F800 ; Lift S=0
G1 X82.367 S0 F1600
G0 Z0 F800 ; Drop S>0
G1 X89.08 S900 F1600
G0 Z2.5 F800 ; Lift S=0
G1 X90.83 S0 F1600
; --- FIX X Backlash ---
G0 X89.53 Y65.8 F1200
G1 X88.851 Y67 Z2.5 F1600
G1 X87.101 Z2.5 F1600
G0 Z0 F800 ; Drop S>0
G1 X80.261 S900 F1600
G0 Z2.5 F800 ; Lift S=0
G1 X67.139 S0 F1600
G0 Z0 F800 ; Drop S>0
G1 X60.309 S900 F1600
G0 Z2.5 F800 ; Lift S=0
G1 X58.559 S0 F1600
; --- FIX X Backlash ---
G0 X59.859 Y67 F1200
G1 X60.511 Y68.2 Z2.5 F1600
G1 X62.261 Z2.5 F1600
G0 Z0 F800 ; Drop S>0
G1 X69.262 S900 F1600
G0 Z2.5 F800 ; Lift S=0
G1 X80.74 S0 F1600
G0 Z0 F800 ; Drop S>0
G1 X87.724 S900 F1600
G0 Z2.5 F800 ; Lift S=0
G1 X89.474 S0 F1600
; --- FIX X Backlash ---
G0 X88.174 Y68.2 F1200
G1 X87.517 Y69.4 Z2.5 F1600
G1 X85.767 Z2.5 F1600
G0 Z0 F800 ; Drop S>0
G1 X78.593 S900 F1600
G0 Z2.5 F800 ; Lift S=0
G1 X68.803 S0 F1600
G0 Z0 F800 ; Drop S>0
G1 X61.622 S900 F1600
G0 Z2.5 F800 ; Lift S=0
G1 X59.872 S0 F1600
; --- FIX X Backlash ---
G0 X61.172 Y69.4 F1200
G1 X61.808 Y70.6 Z2.5 F1600
G1 X63.558 Z2.5 F1600
G0 Z0 F800 ; Drop S>0
G1 X70.924 S900 F1600
G0 Z2.5 F800 ; Lift S=0
G1 X79.026 S0 F1600
G0 Z0 F800 ; Drop S>0
G1 X86.446 S900 F1600
G0 Z2.5 F800 ; Lift S=0
G1 X88.196 S0 F1600
; --- FIX X Backlash ---
G0 X86.896 Y70.6 F1200
G1 X86.296 Y71.8 Z2.5 F1600
G1 X84.546 Z2.5 F1600
G0 Z0 F800 ; Drop S>0
G1 X79.273 S900 F1600
G0 Z2.5 F800 ; Lift S=0
G1 X68.056 S0 F1600
G0 Z0 F800 ; Drop S>0
G1 X62.842 S900 F1600
G0 Z2.5 F800 ; Lift S=0
G1 X61.092 S0 F1600
; --- FIX X Backlash ---
G0 X62.392 Y71.8 F1200
G1 X62.965 Y73 Z2.5 F1600
G1 X64.715 Z2.5 F1600
G0 Z0 F800 ; Drop S>0
G1 X67.378 S900 F1600
G0 Z2.5 F800 ; Lift S=0
G1 X70.074 S0 F1600
G0 Z0 F800 ; Drop S>0
G1 X73.446 S900 F1600
G0 Z2.5 F800 ; Lift S=0
G1 X76.49 S0 F1600
G0 Z0 F800 ; Drop S>0
G1 X79.881 S900 F1600
G0 Z2.5 F800 ; Lift S=0

; Color picking sequence
G1 Z10 F1000;         ; Raise brush
G0 X41 Y5 F1200;    ; Rapid move to color 1
G1 Z10 F1000;         ; Raise brush
G0 X41 Y5 F1200;    ; Rapid move to color 1
G1 Z0 F1000;         ; Lower into color
G1 X40.102 Y7.295 Z0 S800 F1200
G1 X40.026 Y7.642 Z0 F1200
G1 X40 Y8 Z0 F1200
G1 X40.026 Y8.358 Z0 F1200
G1 X40.102 Y8.705 Z0 F1200
G1 X40.225 Y9.041 Z0 F1200
G1 X40.393 Y9.362 Z0 F1200
G1 X40.603 Y9.668 Z0 F1200
G1 X40.854 Y9.957 Z0 F1200
G1 X41.142 Y10.226 Z0 F1200
G1 X41.464 Y10.475 Z0 F1200
G1 X41.82 Y10.701 Z0 F1200
G1 X42.204 Y10.902 Z0 F1200
G1 X42.617 Y11.078 Z0 F1200
G1 X43.054 Y11.225 Z0 F1200
G1 X43.513 Y11.343 Z0 F1200
G1 X43.992 Y11.429 Z0 F1200
G1 X44.489 Y11.482 Z0 F1200
G1 X45 Y11.5 Z0 F1200
G1 X45.511 Y11.482 Z0 F1200
G1 X46.008 Y11.429 Z0 F1200
G1 X46.487 Y11.343 Z0 F1200
G1 X46.946 Y11.225 Z0 F1200
G1 X47.383 Y11.078 Z0 F1200
G1 X47.796 Y10.902 Z0 F1200
G1 X48.18 Y10.701 Z0 F1200
G1 X48.536 Y10.475 Z0 F1200
G1 X48.858 Y10.226 Z0 F1200
G1 X49.146 Y9.957 Z0 F1200
G1 X49.397 Y9.668 Z0 F1200
G1 X49.607 Y9.362 Z0 F1200
G1 X49.775 Y9.041 Z0 F1200
G1 X49.898 Y8.705 Z0 F1200
G1 X49.974 Y8.358 Z0 F1200
G1 X50 Y8 Z0 F1200
G1 X49.974 Y7.642 Z0 F1200
G1 X49.898 Y7.295 Z0 F1200
G1 X49.775 Y6.959 Z0 F1200
G1 X49.607 Y6.638 Z0 F1200
G1 X49.397 Y6.332 Z0 F1200
G1 X49.146 Y6.043 Z0 F1200
G1 X48.858 Y5.774 Z0 F1200
G1 X48.536 Y5.525 Z0 F1200
G1 X48.18 Y5.299 Z0 F1200
G1 X47.796 Y5.098 Z0 F1200
G1 X47.383 Y4.922 Z0 F1200
G1 X46.946 Y4.775 Z0 F1200
G1 X46.487 Y4.657 Z0 F1200
G1 X46.008 Y4.571 Z0 F1200
G1 X45.511 Y4.518 Z0 F1200
G1 X45 Y4.5 Z0 F1200
G1 X44.489 Y4.518 Z0 F1200
G1 X43.992 Y4.571 Z0 F1200
G1 X43.513 Y4.657 Z0 F1200
G1 X43.054 Y4.775 Z0 F1200
G1 X42.617 Y4.922 Z0 F1200
G1 X42.204 Y5.098 Z0 F1200
G1 X41.82 Y5.299 Z0 F1200
G1 X41.464 Y5.525 Z0 F1200
G1 X41.142 Y5.774 Z0 F1200
G1 X40.854 Y6.043 Z0 F1200
G1 X40.603 Y6.332 Z0 F1200
G1 X40.393 Y6.638 Z0 F1200
G1 X40.225 Y6.959 Z0 F1200
G1 Z7 F800;         ; Raise from color
G1 X34 Y8 Z1 F1200;     ; Movement in paint
G1 X24 Y18 Z8 F500;     ; Move in paint
G1 F1200;           ; Set feed rate
G0 Z2.5 F1000 ; Safety Lift
G0 X79.881 Y73 F1200 ; Return to pos
G1 X82.523 S0 F1600
G0 Z0 F800 ; Drop S>0
G1 X85.283 S900 F1600
G0 Z2.5 F800 ; Lift S=0
G1 X87.033 S0 F1600
; --- FIX X Backlash ---
G0 X85.733 Y73 F1200
G1 X82.308 Y74.2 Z2.5 F1600
G1 X80.558 Z2.5 F1600
G0 Z0 F800 ; Drop S>0
G1 X74.913 S900 F1600
G0 Z2.5 F800 ; Lift S=0
G1 X73.229 S0 F1600
G0 Z0 F800 ; Drop S>0
G1 X66.798 S900 F1600
G0 Z2.5 F800 ; Lift S=0
G1 X64.101 S0 F1600
G0 Z0 F800 ; Drop S>0
G1 X64.027 S900 F1600
G0 Z2.5 F800 ; Lift S=0
G1 X62.277 S0 F1600
; --- FIX X Backlash ---
G0 X63.577 Y74.2 F1200
G1 X64.318 Y75.4 Z2.5 F1600
G1 X66.068 Z2.5 F1600
G0 Z0 F800 ; Drop S>0
G1 X75.501 S900 F1600
G0 Z2.5 F800 ; Lift S=0
G1 X77.115 S0 F1600
G0 Z0 F800 ; Drop S>0
G1 X83.787 S900 F1600
G0 Z2.5 F800 ; Lift S=0
G1 X85.537 S0 F1600
G1 X85.678 Y76.6 Z2.5 F1600
; --- FIX X Backlash ---
G0 X84.378 Y76.6 F1200
G1 X82.628 Z2.5 F1600
G0 Z0 F800 ; Drop S>0
G1 X76.639 S900 F1600
G0 Z2.5 F800 ; Lift S=0
G1 X75.063 S0 F1600
G0 Z0 F800 ; Drop S>0
G1 X64.8 S900 F1600
G0 Z2.5 F800 ; Lift S=0
G1 X63.05 S0 F1600
; --- FIX X Backlash ---
G0 X64.35 Y76.6 F1200
G1 X64.731 Y77.8 Z2.5 F1600
G1 X66.481 Z2.5 F1600
G0 Z0 F800 ; Drop S>0
G1 X77.142 S900 F1600
G0 Z2.5 F800 ; Lift S=0
G1 X78.71 S0 F1600
G0 Z0 F800 ; Drop S>0
G1 X83.528 S900 F1600
G0 Z2.5 F800 ; Lift S=0
G1 X85.278 S0 F1600
; --- FIX X Backlash ---
G0 X83.978 Y77.8 F1200
G1 X83.547 Y79 Z2.5 F1600
G1 X81.797 Z2.5 F1600
G0 Z0 F800 ; Drop S>0
G1 X78.086 S900 F1600
G0 Z2.5 F800 ; Lift S=0
G1 X76.554 S0 F1600
G0 Z0 F800 ; Drop S>0
G1 X65.603 S900 F1600
G0 Z2.5 F800 ; Lift S=0
G1 X63.853 S0 F1600
; --- FIX X Backlash ---
G0 X65.153 Y79 F1200
G1 X65.625 Y80.2 Z2.5 F1600
G1 X67.375 Z2.5 F1600
G0 Z0 F800 ; Drop S>0
G1 X78.518 S900 F1600
G0 Z2.5 F800 ; Lift S=0
G1 X80.019 S0 F1600
G0 Z0 F800 ; Drop S>0
G1 X82.627 S900 F1600
G0 Z2.5 F800 ; Lift S=0
G1 X84.377 S0 F1600
; --- FIX X Backlash ---
G0 X83.077 Y80.2 F1200
G1 X82.589 Y81.4 Z2.5 F1600
G1 X80.839 Z2.5 F1600
G0 Z0 F800 ; Drop S>0
G1 X79.343 S900 F1600
G0 Z2.5 F800 ; Lift S=0
G1 X77.842 S0 F1600
G0 Z0 F800 ; Drop S>0
G1 X66.614 S900 F1600
G0 Z2.5 F800 ; Lift S=0

; Color picking sequence
G1 Z10 F1000;         ; Raise brush
G0 X41 Y5 F1200;    ; Rapid move to color 1
G1 Z10 F1000;         ; Raise brush
G0 X41 Y5 F1200;    ; Rapid move to color 1
G1 Z0 F1000;         ; Lower into color
G1 X40.102 Y7.295 Z0 S800 F1200
G1 X40.026 Y7.642 Z0 F1200
G1 X40 Y8 Z0 F1200
G1 X40.026 Y8.358 Z0 F1200
G1 X40.102 Y8.705 Z0 F1200
G1 X40.225 Y9.041 Z0 F1200
G1 X40.393 Y9.362 Z0 F1200
G1 X40.603 Y9.668 Z0 F1200
G1 X40.854 Y9.957 Z0 F1200
G1 X41.142 Y10.226 Z0 F1200
G1 X41.464 Y10.475 Z0 F1200
G1 X41.82 Y10.701 Z0 F1200
G1 X42.204 Y10.902 Z0 F1200
G1 X42.617 Y11.078 Z0 F1200
G1 X43.054 Y11.225 Z0 F1200
G1 X43.513 Y11.343 Z0 F1200
G1 X43.992 Y11.429 Z0 F1200
G1 X44.489 Y11.482 Z0 F1200
G1 X45 Y11.5 Z0 F1200
G1 X45.511 Y11.482 Z0 F1200
G1 X46.008 Y11.429 Z0 F1200
G1 X46.487 Y11.343 Z0 F1200
G1 X46.946 Y11.225 Z0 F1200
G1 X47.383 Y11.078 Z0 F1200
G1 X47.796 Y10.902 Z0 F1200
G1 X48.18 Y10.701 Z0 F1200
G1 X48.536 Y10.475 Z0 F1200
G1 X48.858 Y10.226 Z0 F1200
G1 X49.146 Y9.957 Z0 F1200
G1 X49.397 Y9.668 Z0 F1200
G1 X49.607 Y9.362 Z0 F1200
G1 X49.775 Y9.041 Z0 F1200
G1 X49.898 Y8.705 Z0 F1200
G1 X49.974 Y8.358 Z0 F1200
G1 X50 Y8 Z0 F1200
G1 X49.974 Y7.642 Z0 F1200
G1 X49.898 Y7.295 Z0 F1200
G1 X49.775 Y6.959 Z0 F1200
G1 X49.607 Y6.638 Z0 F1200
G1 X49.397 Y6.332 Z0 F1200
G1 X49.146 Y6.043 Z0 F1200
G1 X48.858 Y5.774 Z0 F1200
G1 X48.536 Y5.525 Z0 F1200
G1 X48.18 Y5.299 Z0 F1200
G1 X47.796 Y5.098 Z0 F1200
G1 X47.383 Y4.922 Z0 F1200
G1 X46.946 Y4.775 Z0 F1200
G1 X46.487 Y4.657 Z0 F1200
G1 X46.008 Y4.571 Z0 F1200
G1 X45.511 Y4.518 Z0 F1200
G1 X45 Y4.5 Z0 F1200
G1 X44.489 Y4.518 Z0 F1200
G1 X43.992 Y4.571 Z0 F1200
G1 X43.513 Y4.657 Z0 F1200
G1 X43.054 Y4.775 Z0 F1200
G1 X42.617 Y4.922 Z0 F1200
G1 X42.204 Y5.098 Z0 F1200
G1 X41.82 Y5.299 Z0 F1200
G1 X41.464 Y5.525 Z0 F1200
G1 X41.142 Y5.774 Z0 F1200
G1 X40.854 Y6.043 Z0 F1200
G1 X40.603 Y6.332 Z0 F1200
G1 X40.393 Y6.638 Z0 F1200
G1 X40.225 Y6.959 Z0 F1200
G1 Z7 F800;         ; Raise from color
G1 X34 Y8 Z1 F1200;     ; Movement in paint
G1 X24 Y18 Z8 F500;     ; Move in paint
G1 F1200;           ; Set feed rate
G0 Z2.5 F1000 ; Safety Lift
G0 X66.614 Y81.4 F1200 ; Return to pos
G1 X64.864 S0 F1600
; --- FIX X Backlash ---
G0 X66.164 Y81.4 F1200
G1 X66.786 Y82.6 Z2.5 F1600
G1 X68.536 Z2.5 F1600
G0 Z0 F800 ; Drop S>0
G1 X79.738 S900 F1600
G0 Z2.5 F800 ; Lift S=0
G1 X81.257 S0 F1600
G0 Z0 F800 ; Drop S>0
G1 X81.65 S900 F1600
G0 Z2.5 F800 ; Lift S=0
G1 X83.4 S0 F1600
; --- FIX X Backlash ---
G0 X82.1 Y82.6 F1200
G1 X80.763 Y83.8 Z2.5 F1600
G1 X79.013 Z2.5 F1600
G0 Z0 F800 ; Drop S>0
G1 X67.92 S900 F1600
G0 Z2.5 F800 ; Lift S=0
G1 X66.17 S0 F1600
; --- FIX X Backlash ---
G0 X67.47 Y83.8 F1200
G1 X68.216 Y85 Z2.5 F1600
G1 X69.966 Z2.5 F1600
G0 Z0 F800 ; Drop S>0
G1 X80.872 S900 F1600
G0 Z2.5 F800 ; Lift S=0
G1 X82.622 S0 F1600
G1 X83.168 Y86.2 Z2.5 F1600
; --- FIX X Backlash ---
G0 X81.868 Y86.2 F1200
G1 X80.118 Z2.5 F1600
G0 Z0 F800 ; Drop S>0
G1 X69.456 S900 F1600
G0 Z2.5 F800 ; Lift S=0
G1 X67.892 S0 F1600
G0 Z0 F800 ; Drop S>0
G1 X67.317 S900 F1600
G0 Z2.5 F800 ; Lift S=0
G1 X65.567 S0 F1600
G1 X65.012 Y87.4 Z2.5 F1600
; --- FIX X Backlash ---
G0 X66.312 Y87.4 F1200
G1 X68.062 Z2.5 F1600
G0 Z0 F800 ; Drop S>0
G1 X69.943 S900 F1600
G0 Z2.5 F800 ; Lift S=0
G1 X71.576 S0 F1600
G0 Z0 F800 ; Drop S>0
G1 X81.954 S900 F1600
G0 Z2.5 F800 ; Lift S=0
G1 X83.704 S0 F1600
G1 X84.236 Y88.6 Z2.5 F1600
; --- FIX X Backlash ---
G0 X82.936 Y88.6 F1200
G1 X81.186 Z2.5 F1600
G0 Z0 F800 ; Drop S>0
G1 X71.116 S900 F1600
G0 Z2.5 F800 ; Lift S=0
G1 X69.456 S0 F1600
G0 Z0 F800 ; Drop S>0
G1 X66.225 S900 F1600
G0 Z2.5 F800 ; Lift S=0
G1 X64.475 S0 F1600
G1 X63.942 Y89.8 Z2.5 F1600
; --- FIX X Backlash ---
G0 X65.242 Y89.8 F1200
G1 X66.992 Z2.5 F1600
G0 Z0 F800 ; Drop S>0
G1 X71.59 S900 F1600
G0 Z2.5 F800 ; Lift S=0
G1 X73.259 S0 F1600
G0 Z0 F800 ; Drop S>0
G1 X83.018 S900 F1600
G0 Z2.5 F800 ; Lift S=0
G1 X84.768 S0 F1600
G1 X85.3 Y91 Z2.5 F1600
; --- FIX X Backlash ---
G0 X84 Y91 F1200
G1 X82.25 Z2.5 F1600
G0 Z0 F800 ; Drop S>0
G1 X72.798 S900 F1600
G0 Z2.5 F800 ; Lift S=0
G1 X71.135 S0 F1600
G0 Z0 F800 ; Drop S>0
G1 X65.166 S900 F1600
G0 Z2.5 F800 ; Lift S=0

; Color picking sequence
G1 Z10 F1000;         ; Raise brush
G0 X41 Y5 F1200;    ; Rapid move to color 1
G1 Z10 F1000;         ; Raise brush
G0 X41 Y5 F1200;    ; Rapid move to color 1
G1 Z0 F1000;         ; Lower into color
G1 X40.102 Y7.295 Z0 S800 F1200
G1 X40.026 Y7.642 Z0 F1200
G1 X40 Y8 Z0 F1200
G1 X40.026 Y8.358 Z0 F1200
G1 X40.102 Y8.705 Z0 F1200
G1 X40.225 Y9.041 Z0 F1200
G1 X40.393 Y9.362 Z0 F1200
G1 X40.603 Y9.668 Z0 F1200
G1 X40.854 Y9.957 Z0 F1200
G1 X41.142 Y10.226 Z0 F1200
G1 X41.464 Y10.475 Z0 F1200
G1 X41.82 Y10.701 Z0 F1200
G1 X42.204 Y10.902 Z0 F1200
G1 X42.617 Y11.078 Z0 F1200
G1 X43.054 Y11.225 Z0 F1200
G1 X43.513 Y11.343 Z0 F1200
G1 X43.992 Y11.429 Z0 F1200
G1 X44.489 Y11.482 Z0 F1200
G1 X45 Y11.5 Z0 F1200
G1 X45.511 Y11.482 Z0 F1200
G1 X46.008 Y11.429 Z0 F1200
G1 X46.487 Y11.343 Z0 F1200
G1 X46.946 Y11.225 Z0 F1200
G1 X47.383 Y11.078 Z0 F1200
G1 X47.796 Y10.902 Z0 F1200
G1 X48.18 Y10.701 Z0 F1200
G1 X48.536 Y10.475 Z0 F1200
G1 X48.858 Y10.226 Z0 F1200
G1 X49.146 Y9.957 Z0 F1200
G1 X49.397 Y9.668 Z0 F1200
G1 X49.607 Y9.362 Z0 F1200
G1 X49.775 Y9.041 Z0 F1200
G1 X49.898 Y8.705 Z0 F1200
G1 X49.974 Y8.358 Z0 F1200
G1 X50 Y8 Z0 F1200
G1 X49.974 Y7.642 Z0 F1200
G1 X49.898 Y7.295 Z0 F1200
G1 X49.775 Y6.959 Z0 F1200
G1 X49.607 Y6.638 Z0 F1200
G1 X49.397 Y6.332 Z0 F1200
G1 X49.146 Y6.043 Z0 F1200
G1 X48.858 Y5.774 Z0 F1200
G1 X48.536 Y5.525 Z0 F1200
G1 X48.18 Y5.299 Z0 F1200
G1 X47.796 Y5.098 Z0 F1200
G1 X47.383 Y4.922 Z0 F1200
G1 X46.946 Y4.775 Z0 F1200
G1 X46.487 Y4.657 Z0 F1200
G1 X46.008 Y4.571 Z0 F1200
G1 X45.511 Y4.518 Z0 F1200
G1 X45 Y4.5 Z0 F1200
G1 X44.489 Y4.518 Z0 F1200
G1 X43.992 Y4.571 Z0 F1200
G1 X43.513 Y4.657 Z0 F1200
G1 X43.054 Y4.775 Z0 F1200
G1 X42.617 Y4.922 Z0 F1200
G1 X42.204 Y5.098 Z0 F1200
G1 X41.82 Y5.299 Z0 F1200
G1 X41.464 Y5.525 Z0 F1200
G1 X41.142 Y5.774 Z0 F1200
G1 X40.854 Y6.043 Z0 F1200
G1 X40.603 Y6.332 Z0 F1200
G1 X40.393 Y6.638 Z0 F1200
G1 X40.225 Y6.959 Z0 F1200
G1 Z7 F800;         ; Raise from color
G1 X34 Y8 Z1 F1200;     ; Movement in paint
G1 X24 Y18 Z8 F500;     ; Move in paint
G1 F1200;           ; Set feed rate
G0 Z2.5 F1000 ; Safety Lift
G0 X65.166 Y91 F1200 ; Return to pos
G1 X63.416 S0 F1600
G1 X62.892 Y92.2 Z2.5 F1600
; --- FIX X Backlash ---
G0 X64.192 Y92.2 F1200
G1 X65.942 Z2.5 F1600
G0 Z0 F800 ; Drop S>0
G1 X73.277 S900 F1600
G0 Z2.5 F800 ; Lift S=0
G1 X74.942 S0 F1600
G0 Z0 F800 ; Drop S>0
G1 X84.083 S900 F1600
G0 Z2.5 F800 ; Lift S=0
G1 X85.833 S0 F1600
G1 X86.36 Y93.4 Z2.5 F1600
; --- FIX X Backlash ---
G0 X85.06 Y93.4 F1200
G1 X83.31 Z2.5 F1600
G0 Z0 F800 ; Drop S>0
G1 X74.491 S900 F1600
G0 Z2.5 F800 ; Lift S=0
G1 X72.736 S0 F1600
G0 Z0 F800 ; Drop S>0
G1 X64.109 S900 F1600
G0 Z2.5 F800 ; Lift S=0
G1 X62.359 S0 F1600
G1 X61.83 Y94.6 Z2.5 F1600
; --- FIX X Backlash ---
G0 X63.13 Y94.6 F1200
G1 X64.88 Z2.5 F1600
G0 Z0 F800 ; Drop S>0
G1 X73.294 S900 F1600
G0 Z2.5 F800 ; Lift S=0
G1 X76.645 S0 F1600
G0 Z0 F800 ; Drop S>0
G1 X85.136 S900 F1600
G0 Z2.5 F800 ; Lift S=0
G1 X86.886 S0 F1600
G1 X87.413 Y95.8 Z2.5 F1600
; --- FIX X Backlash ---
G0 X86.113 Y95.8 F1200
G1 X84.363 Z2.5 F1600
G0 Z0 F800 ; Drop S>0
G1 X76.208 S900 F1600
G0 Z2.5 F800 ; Lift S=0
G1 X71.127 S0 F1600
G0 Z0 F800 ; Drop S>0
G1 X63.051 S900 F1600
G0 Z2.5 F800 ; Lift S=0
G1 X61.301 S0 F1600
G1 X60.772 Y97 Z2.5 F1600
; --- FIX X Backlash ---
G0 X62.072 Y97 F1200
G1 X63.822 Z2.5 F1600
G0 Z0 F800 ; Drop S>0
G1 X71.573 S900 F1600
G0 Z2.5 F800 ; Lift S=0
G1 X78.384 S0 F1600
G0 Z0 F800 ; Drop S>0
G1 X86.189 S900 F1600
G0 Z2.5 F800 ; Lift S=0
G1 X87.939 S0 F1600
G1 X88.465 Y98.2 Z2.5 F1600
; --- FIX X Backlash ---
G0 X87.165 Y98.2 F1200
G1 X85.415 Z2.5 F1600
G0 Z0 F800 ; Drop S>0
G1 X77.946 S900 F1600
G0 Z2.5 F800 ; Lift S=0
G1 X69.42 S0 F1600
G0 Z0 F800 ; Drop S>0
G1 X61.99 S900 F1600
G0 Z2.5 F800 ; Lift S=0
G1 X60.24 S0 F1600
G1 X59.709 Y99.4 Z2.5 F1600
; --- FIX X Backlash ---
G0 X61.009 Y99.4 F1200
G1 X62.759 Z2.5 F1600
G0 Z0 F800 ; Drop S>0
G1 X69.865 S900 F1600
G0 Z2.5 F800 ; Lift S=0

; Color picking sequence
G1 Z10 F1000;         ; Raise brush
G0 X41 Y5 F1200;    ; Rapid move to color 1
G1 Z10 F1000;         ; Raise brush
G0 X41 Y5 F1200;    ; Rapid move to color 1
G1 Z0 F1000;         ; Lower into color
G1 X40.102 Y7.295 Z0 S800 F1200
G1 X40.026 Y7.642 Z0 F1200
G1 X40 Y8 Z0 F1200
G1 X40.026 Y8.358 Z0 F1200
G1 X40.102 Y8.705 Z0 F1200
G1 X40.225 Y9.041 Z0 F1200
G1 X40.393 Y9.362 Z0 F1200
G1 X40.603 Y9.668 Z0 F1200
G1 X40.854 Y9.957 Z0 F1200
G1 X41.142 Y10.226 Z0 F1200
G1 X41.464 Y10.475 Z0 F1200
G1 X41.82 Y10.701 Z0 F1200
G1 X42.204 Y10.902 Z0 F1200
G1 X42.617 Y11.078 Z0 F1200
G1 X43.054 Y11.225 Z0 F1200
G1 X43.513 Y11.343 Z0 F1200
G1 X43.992 Y11.429 Z0 F1200
G1 X44.489 Y11.482 Z0 F1200
G1 X45 Y11.5 Z0 F1200
G1 X45.511 Y11.482 Z0 F1200
G1 X46.008 Y11.429 Z0 F1200
G1 X46.487 Y11.343 Z0 F1200
G1 X46.946 Y11.225 Z0 F1200
G1 X47.383 Y11.078 Z0 F1200
G1 X47.796 Y10.902 Z0 F1200
G1 X48.18 Y10.701 Z0 F1200
G1 X48.536 Y10.475 Z0 F1200
G1 X48.858 Y10.226 Z0 F1200
G1 X49.146 Y9.957 Z0 F1200
G1 X49.397 Y9.668 Z0 F1200
G1 X49.607 Y9.362 Z0 F1200
G1 X49.775 Y9.041 Z0 F1200
G1 X49.898 Y8.705 Z0 F1200
G1 X49.974 Y8.358 Z0 F1200
G1 X50 Y8 Z0 F1200
G1 X49.974 Y7.642 Z0 F1200
G1 X49.898 Y7.295 Z0 F1200
G1 X49.775 Y6.959 Z0 F1200
G1 X49.607 Y6.638 Z0 F1200
G1 X49.397 Y6.332 Z0 F1200
G1 X49.146 Y6.043 Z0 F1200
G1 X48.858 Y5.774 Z0 F1200
G1 X48.536 Y5.525 Z0 F1200
G1 X48.18 Y5.299 Z0 F1200
G1 X47.796 Y5.098 Z0 F1200
G1 X47.383 Y4.922 Z0 F1200
G1 X46.946 Y4.775 Z0 F1200
G1 X46.487 Y4.657 Z0 F1200
G1 X46.008 Y4.571 Z0 F1200
G1 X45.511 Y4.518 Z0 F1200
G1 X45 Y4.5 Z0 F1200
G1 X44.489 Y4.518 Z0 F1200
G1 X43.992 Y4.571 Z0 F1200
G1 X43.513 Y4.657 Z0 F1200
G1 X43.054 Y4.775 Z0 F1200
G1 X42.617 Y4.922 Z0 F1200
G1 X42.204 Y5.098 Z0 F1200
G1 X41.82 Y5.299 Z0 F1200
G1 X41.464 Y5.525 Z0 F1200
G1 X41.142 Y5.774 Z0 F1200
G1 X40.854 Y6.043 Z0 F1200
G1 X40.603 Y6.332 Z0 F1200
G1 X40.393 Y6.638 Z0 F1200
G1 X40.225 Y6.959 Z0 F1200
G1 Z7 F800;         ; Raise from color
G1 X34 Y8 Z1 F1200;     ; Movement in paint
G1 X24 Y18 Z8 F500;     ; Move in paint
G1 F1200;           ; Set feed rate
G0 Z2.5 F1000 ; Safety Lift
G0 X69.865 Y99.4 F1200 ; Return to pos
G1 X80.106 S0 F1600
G0 Z0 F800 ; Drop S>0
G1 X87.24 S900 F1600
G0 Z2.5 F800 ; Lift S=0
G1 X88.99 S0 F1600
G1 X89.515 Y100.6 Z2.5 F1600
; --- FIX X Backlash ---
G0 X88.215 Y100.6 F1200
G1 X86.465 Z2.5 F1600
G0 Z0 F800 ; Drop S>0
G1 X79.666 S900 F1600
G0 Z2.5 F800 ; Lift S=0
G1 X67.709 S0 F1600
G0 Z0 F800 ; Drop S>0
G1 X60.931 S900 F1600
G0 Z2.5 F800 ; Lift S=0
G1 X59.181 S0 F1600
G1 X58.653 Y101.8 Z2.5 F1600
; --- FIX X Backlash ---
G0 X59.953 Y101.8 F1200
G1 X61.703 Z2.5 F1600
G0 Z0 F800 ; Drop S>0
G1 X68.153 S900 F1600
G0 Z2.5 F800 ; Lift S=0
G1 X81.825 S0 F1600
G0 Z0 F800 ; Drop S>0
G1 X88.29 S900 F1600
G0 Z2.5 F800 ; Lift S=0
G1 X90.04 S0 F1600
G1 X90.566 Y103 Z2.5 F1600
; --- FIX X Backlash ---
G0 X89.266 Y103 F1200
G1 X87.516 Z2.5 F1600
G0 Z0 F800 ; Drop S>0
G1 X81.385 S900 F1600
G0 Z2.5 F800 ; Lift S=0
G1 X66 S0 F1600
G0 Z0 F800 ; Drop S>0
G1 X59.88 S900 F1600
G0 Z2.5 F800 ; Lift S=0
G1 X58.13 S0 F1600
G1 X57.598 Y104.2 Z2.5 F1600
; --- FIX X Backlash ---
G0 X58.898 Y104.2 F1200
G1 X60.648 Z2.5 F1600
G0 Z0 F800 ; Drop S>0
G1 X66.456 S900 F1600
G0 Z2.5 F800 ; Lift S=0
G1 X83.544 S0 F1600
G0 Z0 F800 ; Drop S>0
G1 X89.341 S900 F1600
G0 Z2.5 F800 ; Lift S=0
G1 X91.091 S0 F1600
G1 X91.617 Y105.4 Z2.5 F1600
; --- FIX X Backlash ---
G0 X90.317 Y105.4 F1200
G1 X88.567 Z2.5 F1600
G0 Z0 F800 ; Drop S>0
G1 X83.102 S900 F1600
G0 Z2.5 F800 ; Lift S=0
G1 X64.308 S0 F1600
G0 Z0 F800 ; Drop S>0
G1 X58.817 S900 F1600
G0 Z2.5 F800 ; Lift S=0
G1 X57.067 S0 F1600
G1 X56.543 Y106.6 Z2.5 F1600
; --- FIX X Backlash ---
G0 X57.843 Y106.6 F1200
G1 X59.593 Z2.5 F1600
G0 Z0 F800 ; Drop S>0
G1 X64.759 S900 F1600
G0 Z2.5 F800 ; Lift S=0
G1 X85.26 S0 F1600
G0 Z0 F800 ; Drop S>0
G1 X90.393 S900 F1600
G0 Z2.5 F800 ; Lift S=0
G1 X92.143 S0 F1600
G1 X92.669 Y107.8 Z2.5 F1600
; --- FIX X Backlash ---
G0 X91.369 Y107.8 F1200
G1 X89.619 Z2.5 F1600
G0 Z0 F800 ; Drop S>0
G1 X84.817 S900 F1600
G0 Z2.5 F800 ; Lift S=0
G1 X62.61 S0 F1600
G0 Z0 F800 ; Drop S>0
G1 X57.769 S900 F1600
G0 Z2.5 F800 ; Lift S=0
G1 X56.019 S0 F1600
G1 X55.493 Y109 Z2.5 F1600
; --- FIX X Backlash ---
G0 X56.793 Y109 F1200
G1 X58.543 Z2.5 F1600
G0 Z0 F800 ; Drop S>0
G1 X63.063 S900 F1600
G0 Z2.5 F800 ; Lift S=0
G1 X86.96 S0 F1600
G0 Z0 F800 ; Drop S>0
G1 X91.449 S900 F1600
G0 Z2.5 F800 ; Lift S=0
G1 X93.199 S0 F1600
G1 X93.724 Y110.2 Z2.5 F1600
; --- FIX X Backlash ---
G0 X92.424 Y110.2 F1200
G1 X90.674 Z2.5 F1600
G0 Z0 F800 ; Drop S>0
G1 X86.502 S900 F1600
G0 Z2.5 F800 ; Lift S=0

; Color picking sequence
G1 Z10 F1000;         ; Raise brush
G0 X41 Y5 F1200;    ; Rapid move to color 1
G1 Z10 F1000;         ; Raise brush
G0 X41 Y5 F1200;    ; Rapid move to color 1
G1 Z0 F1000;         ; Lower into color
G1 X40.102 Y7.295 Z0 S800 F1200
G1 X40.026 Y7.642 Z0 F1200
G1 X40 Y8 Z0 F1200
G1 X40.026 Y8.358 Z0 F1200
G1 X40.102 Y8.705 Z0 F1200
G1 X40.225 Y9.041 Z0 F1200
G1 X40.393 Y9.362 Z0 F1200
G1 X40.603 Y9.668 Z0 F1200
G1 X40.854 Y9.957 Z0 F1200
G1 X41.142 Y10.226 Z0 F1200
G1 X41.464 Y10.475 Z0 F1200
G1 X41.82 Y10.701 Z0 F1200
G1 X42.204 Y10.902 Z0 F1200
G1 X42.617 Y11.078 Z0 F1200
G1 X43.054 Y11.225 Z0 F1200
G1 X43.513 Y11.343 Z0 F1200
G1 X43.992 Y11.429 Z0 F1200
G1 X44.489 Y11.482 Z0 F1200
G1 X45 Y11.5 Z0 F1200
G1 X45.511 Y11.482 Z0 F1200
G1 X46.008 Y11.429 Z0 F1200
G1 X46.487 Y11.343 Z0 F1200
G1 X46.946 Y11.225 Z0 F1200
G1 X47.383 Y11.078 Z0 F1200
G1 X47.796 Y10.902 Z0 F1200
G1 X48.18 Y10.701 Z0 F1200
G1 X48.536 Y10.475 Z0 F1200
G1 X48.858 Y10.226 Z0 F1200
G1 X49.146 Y9.957 Z0 F1200
G1 X49.397 Y9.668 Z0 F1200
G1 X49.607 Y9.362 Z0 F1200
G1 X49.775 Y9.041 Z0 F1200
G1 X49.898 Y8.705 Z0 F1200
G1 X49.974 Y8.358 Z0 F1200
G1 X50 Y8 Z0 F1200
G1 X49.974 Y7.642 Z0 F1200
G1 X49.898 Y7.295 Z0 F1200
G1 X49.775 Y6.959 Z0 F1200
G1 X49.607 Y6.638 Z0 F1200
G1 X49.397 Y6.332 Z0 F1200
G1 X49.146 Y6.043 Z0 F1200
G1 X48.858 Y5.774 Z0 F1200
G1 X48.536 Y5.525 Z0 F1200
G1 X48.18 Y5.299 Z0 F1200
G1 X47.796 Y5.098 Z0 F1200
G1 X47.383 Y4.922 Z0 F1200
G1 X46.946 Y4.775 Z0 F1200
G1 X46.487 Y4.657 Z0 F1200
G1 X46.008 Y4.571 Z0 F1200
G1 X45.511 Y4.518 Z0 F1200
G1 X45 Y4.5 Z0 F1200
G1 X44.489 Y4.518 Z0 F1200
G1 X43.992 Y4.571 Z0 F1200
G1 X43.513 Y4.657 Z0 F1200
G1 X43.054 Y4.775 Z0 F1200
G1 X42.617 Y4.922 Z0 F1200
G1 X42.204 Y5.098 Z0 F1200
G1 X41.82 Y5.299 Z0 F1200
G1 X41.464 Y5.525 Z0 F1200
G1 X41.142 Y5.774 Z0 F1200
G1 X40.854 Y6.043 Z0 F1200
G1 X40.603 Y6.332 Z0 F1200
G1 X40.393 Y6.638 Z0 F1200
G1 X40.225 Y6.959 Z0 F1200
G1 Z7 F800;         ; Raise from color
G1 X34 Y8 Z1 F1200;     ; Movement in paint
G1 X24 Y18 Z8 F500;     ; Move in paint
G1 F1200;           ; Set feed rate
G0 Z2.5 F1000 ; Safety Lift
G0 X86.502 Y110.2 F1200 ; Return to pos
G1 X60.923 S0 F1600
G0 Z0 F800 ; Drop S>0
G1 X56.736 S900 F1600
G0 Z2.5 F800 ; Lift S=0
G1 X54.986 S0 F1600
G1 X54.48 Y111.4 Z2.5 F1600
; --- FIX X Backlash ---
G0 X55.78 Y111.4 F1200
G1 X57.53 Z2.5 F1600
G0 Z0 F800 ; Drop S>0
G1 X61.391 S900 F1600
G0 Z2.5 F800 ; Lift S=0
G1 X88.647 S0 F1600
G0 Z0 F800 ; Drop S>0
G1 X92.5 S900 F1600
G0 Z2.5 F800 ; Lift S=0
G1 X94.25 S0 F1600
G1 X94.768 Y112.6 Z2.5 F1600
; --- FIX X Backlash ---
G0 X93.468 Y112.6 F1200
G1 X91.718 Z2.5 F1600
G0 Z0 F800 ; Drop S>0
G1 X88.187 S900 F1600
G0 Z2.5 F800 ; Lift S=0
G1 X59.252 S0 F1600
G0 Z0 F800 ; Drop S>0
G1 X55.699 S900 F1600
G0 Z2.5 F800 ; Lift S=0
G1 X53.949 S0 F1600
G1 X53.433 Y113.8 Z2.5 F1600
; --- FIX X Backlash ---
G0 X54.733 Y113.8 F1200
G1 X56.483 Z2.5 F1600
G0 Z0 F800 ; Drop S>0
G1 X59.706 S900 F1600
G0 Z2.5 F800 ; Lift S=0
G1 X90.319 S0 F1600
G0 Z0 F800 ; Drop S>0
G1 X93.532 S900 F1600
G0 Z2.5 F800 ; Lift S=0
G1 X95.282 S0 F1600
G1 X95.795 Y115 Z2.5 F1600
; --- FIX X Backlash ---
G0 X94.495 Y115 F1200
G1 X92.745 Z2.5 F1600
G0 Z0 F800 ; Drop S>0
G1 X89.853 S900 F1600
G0 Z2.5 F800 ; Lift S=0
G1 X57.567 S0 F1600
G0 Z0 F800 ; Drop S>0
G1 X54.669 S900 F1600
G0 Z2.5 F800 ; Lift S=0
G1 X52.919 S0 F1600
G1 X52.407 Y116.2 Z2.5 F1600
; --- FIX X Backlash ---
G0 X53.707 Y116.2 F1200
G1 X55.457 Z2.5 F1600
G0 Z0 F800 ; Drop S>0
G1 X58.033 S900 F1600
G0 Z2.5 F800 ; Lift S=0
G1 X91.986 S0 F1600
G0 Z0 F800 ; Drop S>0
G1 X94.559 S900 F1600
G0 Z2.5 F800 ; Lift S=0
G1 X96.309 S0 F1600
G1 X96.819 Y117.4 Z2.5 F1600
; --- FIX X Backlash ---
G0 X95.519 Y117.4 F1200
G1 X93.769 Z2.5 F1600
G0 Z0 F800 ; Drop S>0
G1 X91.525 S900 F1600
G0 Z2.5 F800 ; Lift S=0
G1 X55.901 S0 F1600
G0 Z0 F800 ; Drop S>0
G1 X53.646 S900 F1600
G0 Z2.5 F800 ; Lift S=0
G1 X51.896 S0 F1600
G1 X51.387 Y118.6 Z2.5 F1600
; --- FIX X Backlash ---
G0 X52.687 Y118.6 F1200
G1 X54.437 Z2.5 F1600
G0 Z0 F800 ; Drop S>0
G1 X56.367 S900 F1600
G0 Z2.5 F800 ; Lift S=0
G1 X93.655 S0 F1600
G0 Z0 F800 ; Drop S>0
G1 X95.567 S900 F1600
G0 Z2.5 F800 ; Lift S=0
G1 X97.317 S0 F1600
G1 X97.789 Y119.8 Z2.5 F1600
; --- FIX X Backlash ---
G0 X96.489 Y119.8 F1200
G1 X94.739 Z2.5 F1600
G0 Z0 F800 ; Drop S>0
G1 X93.179 S900 F1600
G0 Z2.5 F800 ; Lift S=0
G1 X54.212 S0 F1600
G0 Z0 F800 ; Drop S>0
G1 X52.65 S900 F1600
G0 Z2.5 F800 ; Lift S=0
G1 X50.9 S0 F1600

; Washing sequence (no color)
G1 Z10 F1000;        ; Raise brush
G0 X5 Y5 F1200;     ; Rapid move to clean
G1 Z0 F800;         ; Lower brush
G1 X10 Y12 Z8 F1200;     ; Move
G1 Z0 F800;         ; Lower
G1 X25 Y14 Z6 F800;     ; Move
G1 Z8 F800;         ; Maintain
G0 X5 Y5 F1200;     ; Rapid
G1 Z0 F800;         ; Lower
G1 X15 Y12 Z8 F1200;     ; Move
G1 Z0 F800;         ; Lower
G1 X25 Y14 Z6 F800;     ; Move
G1 Z10 F800;         ; Maintain
G1 F1200;           ; Set feed
G0 Z2.5 F1000 ; Safety Lift

; Color picking sequence
G1 Z10 F1000;         ; Raise brush
G0 X86 Y5 F1200;    ; Rapid move to color 1
G1 Z10 F1000;         ; Raise brush
G0 X86 Y5 F1200;    ; Rapid move to color 1
G1 Z0 F1000;         ; Lower into color
G1 X85.102 Y7.295 Z0 S800 F1200
G1 X85.026 Y7.642 Z0 F1200
G1 X85 Y8 Z0 F1200
G1 X85.026 Y8.358 Z0 F1200
G1 X85.102 Y8.705 Z0 F1200
G1 X85.225 Y9.041 Z0 F1200
G1 X85.393 Y9.362 Z0 F1200
G1 X85.603 Y9.668 Z0 F1200
G1 X85.854 Y9.957 Z0 F1200
G1 X86.142 Y10.226 Z0 F1200
G1 X86.464 Y10.475 Z0 F1200
G1 X86.82 Y10.701 Z0 F1200
G1 X87.204 Y10.902 Z0 F1200
G1 X87.617 Y11.078 Z0 F1200
G1 X88.054 Y11.225 Z0 F1200
G1 X88.513 Y11.343 Z0 F1200
G1 X88.992 Y11.429 Z0 F1200
G1 X89.489 Y11.482 Z0 F1200
G1 X90 Y11.5 Z0 F1200
G1 X90.511 Y11.482 Z0 F1200
G1 X91.008 Y11.429 Z0 F1200
G1 X91.487 Y11.343 Z0 F1200
G1 X91.946 Y11.225 Z0 F1200
G1 X92.383 Y11.078 Z0 F1200
G1 X92.796 Y10.902 Z0 F1200
G1 X93.18 Y10.701 Z0 F1200
G1 X93.536 Y10.475 Z0 F1200
G1 X93.858 Y10.226 Z0 F1200
G1 X94.146 Y9.957 Z0 F1200
G1 X94.397 Y9.668 Z0 F1200
G1 X94.607 Y9.362 Z0 F1200
G1 X94.775 Y9.041 Z0 F1200
G1 X94.898 Y8.705 Z0 F1200
G1 X94.974 Y8.358 Z0 F1200
G1 X95 Y8 Z0 F1200
G1 X94.974 Y7.642 Z0 F1200
G1 X94.898 Y7.295 Z0 F1200
G1 X94.775 Y6.959 Z0 F1200
G1 X94.607 Y6.638 Z0 F1200
G1 X94.397 Y6.332 Z0 F1200
G1 X94.146 Y6.043 Z0 F1200
G1 X93.858 Y5.774 Z0 F1200
G1 X93.536 Y5.525 Z0 F1200
G1 X93.18 Y5.299 Z0 F1200
G1 X92.796 Y5.098 Z0 F1200
G1 X92.383 Y4.922 Z0 F1200
G1 X91.946 Y4.775 Z0 F1200
G1 X91.487 Y4.657 Z0 F1200
G1 X91.008 Y4.571 Z0 F1200
G1 X90.511 Y4.518 Z0 F1200
G1 X90 Y4.5 Z0 F1200
G1 X89.489 Y4.518 Z0 F1200
G1 X88.992 Y4.571 Z0 F1200
G1 X88.513 Y4.657 Z0 F1200
G1 X88.054 Y4.775 Z0 F1200
G1 X87.617 Y4.922 Z0 F1200
G1 X87.204 Y5.098 Z0 F1200
G1 X86.82 Y5.299 Z0 F1200
G1 X86.464 Y5.525 Z0 F1200
G1 X86.142 Y5.774 Z0 F1200
G1 X85.854 Y6.043 Z0 F1200
G1 X85.603 Y6.332 Z0 F1200
G1 X85.393 Y6.638 Z0 F1200
G1 X85.225 Y6.959 Z0 F1200
G1 Z7 F800;         ; Raise from color
G1 X79 Y8 Z1 F1200;     ; Movement in paint
G1 X69 Y18 Z8 F500;     ; Move in paint
G1 F1200;           ; Set feed rate
G0 Z2.5 F1000 ; Safety Lift
;Offset @ 1500 mm/min, 90% power

M8
G0 Z3.5 F1000
; --- FIX X Backlash ---
G0 X52.2 Y119.8 F1200
; --- FIX Y Backlash ---
G0 X52.2 Y118.5 F1200
G0 X54.255 Y52.754 Z3.5
G1 Z0 F1000
;Layer C2
; --- FIX Y Backlash ---
G0 X54.255 Y54.054 F1200
G1 X54.429 Y54.894 Z0 S900 F1600
G1 X54.704 Y55.915 Z0 F1600
G1 X55.014 Y56.891 Z0 F1600
G1 X55.362 Y57.835 Z0 F1600
G1 X55.752 Y58.752 Z0 F1600
G1 X56.186 Y59.646 Z0 F1600
G1 X56.665 Y60.52 Z0 F1600
G1 X57.19 Y61.379 Z0 F1600
G1 X57.764 Y62.226 Z0 F1600
G1 X58.154 Y62.761 Z0 F1600
; --- FIX X Backlash ---
G0 X56.854 Y62.761 F1200
G1 X56.79 Y62.733 Z0 F1600
; --- FIX Y Backlash ---
G0 X56.79 Y61.433 F1200
G1 X56.591 Y61.321 Z0 F1600
G1 X56.353 Y61.156 Z0 F1600
G1 X56.093 Y60.945 Z0 F1600
G1 X55.797 Y60.672 Z0 F1600
G1 X55.477 Y60.345 Z0 F1600
G1 X55.13 Y59.963 Z0 F1600
G1 X55.052 Y59.864 Z0 F1600
G1 X54.925 Y59.684 Z0 F1600
G1 X54.765 Y59.44 Z0 F1600
G1 X54.61 Y59.19 Z0 F1600
G1 X54.259 Y58.585 Z0 F1600
G1 X53.965 Y58.026 Z0 F1600
G1 X53.792 Y57.647 Z0 F1600
G1 X53.631 Y57.24 Z0 F1600
G1 X53.485 Y56.804 Z0 F1600
G1 X53.348 Y56.326 Z0 F1600
G1 X53.227 Y55.822 Z0 F1600
G1 X53.108 Y55.229 Z0 F1600
G1 X53.004 Y54.615 Z0 F1600
G1 X52.904 Y53.924 Z0 F1600
G1 X52.89 Y53.79 Z0 F1600
G1 X52.874 Y53.567 Z0 F1600
G1 X52.861 Y53.294 Z0 F1600
G1 X52.848 Y52.968 Z0 F1600
G1 X52.829 Y52.221 Z0 F1600
G1 X52.825 Y51.925 Z0 F1600
; --- FIX X Backlash ---
G0 X54.125 Y51.925 F1200
; --- FIX Y Backlash ---
G0 X54.125 Y53.225 F1200
G1 X54.255 Y54.054 Z0 F1600
G0 Z3.5 F1000
G0 X58.815 Y57.757 Z3.5
G1 Z0 F1000
; --- FIX X Backlash ---
G0 X57.515 Y57.757 F1200
; --- FIX Y Backlash ---
G0 X57.515 Y56.457 F1200
G1 X56.947 Y55.396 Z0 F1600
G1 X56.377 Y54.256 Z0 F1600
G1 X55.832 Y53.097 Z0 F1600
G1 X55.525 Y52.396 Z0 F1600
; --- FIX X Backlash ---
G0 X56.825 Y52.396 F1200
; --- FIX Y Backlash ---
G0 X56.825 Y53.696 F1200
G1 X57.081 Y53.958 Z0 F1600
G1 X57.353 Y54.242 Z0 F1600
G1 X57.596 Y54.502 Z0 F1600
G1 X57.798 Y54.728 Z0 F1600
G1 X58.022 Y54.984 Z0 F1600
G1 X58.279 Y55.288 Z0 F1600
G1 X58.581 Y55.647 Z0 F1600
G1 X59.438 Y56.729 Z0 F1600
G1 X60.179 Y57.776 Z0 F1600
G1 X60.854 Y58.864 Z0 F1600
G1 X61.454 Y59.974 Z0 F1600
G1 X61.79 Y60.688 Z0 F1600
G1 X62.107 Y61.44 Z0 F1600
G1 X62.225 Y61.744 Z0 F1600
G1 X62.243 Y61.795 Z0 F1600
G1 X62.214 Y61.817 Z0 F1600
; --- FIX X Backlash ---
G0 X60.914 Y61.817 F1200
G1 X60.482 Y62.105 Z0 F1600
; --- FIX Y Backlash ---
G0 X60.482 Y60.805 F1200
G1 X60.38 Y60.678 Z0 F1600
G1 X60.174 Y60.414 Z0 F1600
G1 X59.965 Y60.14 Z0 F1600
G1 X59.531 Y59.546 Z0 F1600
G1 X59.061 Y58.881 Z0 F1600
G1 X58.619 Y58.229 Z0 F1600
G1 X58.19 Y57.573 Z0 F1600
G1 X57.807 Y56.959 Z0 F1600
G1 X57.515 Y56.457 Z0 F1600
G0 Z3.5 F1000
G0 X54.161 Y49.927 Z3.5
G1 Z0 F1000
G1 X53.024 Y49.836 Z0 F1600
; --- FIX Y Backlash ---
G0 X53.024 Y51.136 F1200
G1 X52.813 Y51.855 Z0 F1600
; --- FIX Y Backlash ---
G0 X52.813 Y50.555 F1200
G1 X52.819 Y49.812 Z0 F1600
G1 X52.825 Y49.494 Z0 F1600
G1 X52.835 Y49.209 Z0 F1600
G1 X52.846 Y49.009 Z0 F1600
G1 X52.857 Y48.89 Z0 F1600
; --- FIX X Backlash ---
G0 X54.157 Y48.89 F1200
G1 X54.243 Y48.217 Z0 F1600
; --- FIX Y Backlash ---
G0 X54.243 Y49.517 F1200
G1 X54.505 Y49.613 Z0 F1600
G1 X55.34 Y49.949 Z0 F1600
G1 X56.176 Y50.313 Z0 F1600
G1 X57.023 Y50.707 Z0 F1600
G1 X57.824 Y51.106 Z0 F1600
G1 X58.588 Y51.512 Z0 F1600
G1 X59.272 Y51.906 Z0 F1600
G1 X59.876 Y52.286 Z0 F1600
G1 X60.418 Y52.662 Z0 F1600
G1 X60.929 Y53.047 Z0 F1600
G1 X61.405 Y53.438 Z0 F1600
G1 X61.852 Y53.838 Z0 F1600
G1 X62.258 Y54.238 Z0 F1600
G1 X62.632 Y54.644 Z0 F1600
G1 X62.967 Y55.047 Z0 F1600
G1 X63.271 Y55.458 Z0 F1600
G1 X63.531 Y55.855 Z0 F1600
G1 X63.762 Y56.262 Z0 F1600
G1 X63.951 Y56.656 Z0 F1600
G1 X64.109 Y57.056 Z0 F1600
G1 X64.227 Y57.436 Z0 F1600
G1 X64.312 Y57.818 Z0 F1600
G1 X64.362 Y58.194 Z0 F1600
G1 X64.377 Y58.51 Z0 F1600
; --- FIX X Backlash ---
G0 X63.077 Y58.51 F1200
; --- FIX Y Backlash ---
G0 X63.077 Y57.21 F1200
G1 X62.828 Y56.733 Z0 F1600
G1 X62.48 Y56.119 Z0 F1600
G1 X62.113 Y55.519 Z0 F1600
G1 X61.731 Y54.944 Z0 F1600
G1 X61.341 Y54.406 Z0 F1600
G1 X60.782 Y53.708 Z0 F1600
G1 X60.192 Y53.04 Z0 F1600
G1 X59.574 Y52.404 Z0 F1600
G1 X58.93 Y51.804 Z0 F1600
G1 X58.265 Y51.24 Z0 F1600
G1 X57.582 Y50.718 Z0 F1600
G1 X56.883 Y50.24 Z0 F1600
G1 X56.179 Y49.815 Z0 F1600
G1 X55.865 Y49.641 Z0 F1600
G1 X55.616 Y49.515 Z0 F1600
G1 X55.454 Y49.45 Z0 F1600
G1 X55.183 Y49.375 Z0 F1600
; --- FIX Y Backlash ---
G0 X55.183 Y50.675 F1200
G1 X54.356 Y50.732 Z0 F1600
G1 X54.161 Y51.227 Z0 F1600
G0 Z3.5 F1000
G0 X53.774 Y52.199 Z3.5
G1 Z0 F1000
G1 X53.755 Z0 F1600
G1 X53.744 Y52.234 Z0 F1600
G1 X53.741 Y52.304 Z0 F1600
G1 Y52.406 Z0 F1600
G1 X53.765 Y52.686 Z0 F1600
G1 X53.808 Y53.043 Z0 F1600
; --- FIX X Backlash ---
G0 X55.108 Y53.043 F1200
G1 X55.239 Y53.875 Z0 F1600
G1 X55.402 Y54.662 Z0 F1600
G1 X55.664 Y55.634 Z0 F1600
G1 X55.96 Y56.566 Z0 F1600
G1 X56.292 Y57.466 Z0 F1600
G1 X56.663 Y58.338 Z0 F1600
G1 X57.075 Y59.187 Z0 F1600
G1 X57.53 Y60.019 Z0 F1600
G1 X58.032 Y60.838 Z0 F1600
G1 X58.582 Y61.651 Z0 F1600
G1 X59.065 Y62.312 Z0 F1600
G1 X59.553 Y62.949 Z0 F1600
G1 X59.769 Y63.22 Z0 F1600
G1 X59.948 Y63.437 Z0 F1600
G1 X60.021 Y63.521 Z0 F1600
G1 X60.08 Y63.585 Z0 F1600
G1 X60.124 Y63.629 Z0 F1600
G1 X60.151 Y63.649 Z0 F1600
G1 X60.197 Y63.706 Z0 F1600
G1 X60.216 Y63.802 Z0 F1600
G1 X60.201 Y63.83 Z0 F1600
G1 X60.158 Y63.854 Z0 F1600
; --- FIX X Backlash ---
G0 X58.858 Y63.854 F1200
G1 X58.789 Y63.875 Z0 F1600
G1 X58.698 Y63.893 Z0 F1600
G1 X58.46 Y63.918 Z0 F1600
G1 X58.167 Y63.93 Z0 F1600
G1 X57.509 Y63.911 Z0 F1600
; --- FIX Y Backlash ---
G0 X57.509 Y62.611 F1200
G1 X56.911 Y62.533 Z0 F1600
G1 X56.633 Y62.453 Z0 F1600
G1 X56.349 Y62.332 Z0 F1600
G1 X56.057 Y62.168 Z0 F1600
G1 X55.754 Y61.958 Z0 F1600
G1 X55.436 Y61.7 Z0 F1600
G1 X55.102 Y61.391 Z0 F1600
G1 X54.747 Y61.03 Z0 F1600
G1 X54.37 Y60.614 Z0 F1600
G1 X54.247 Y60.459 Z0 F1600
G1 X54.097 Y60.246 Z0 F1600
G1 X53.928 Y59.987 Z0 F1600
G1 X53.747 Y59.697 Z0 F1600
G1 X53.383 Y59.07 Z0 F1600
G1 X53.068 Y58.469 Z0 F1600
G1 X52.87 Y58.035 Z0 F1600
G1 X52.691 Y57.581 Z0 F1600
G1 X52.529 Y57.1 Z0 F1600
G1 X52.383 Y56.586 Z0 F1600
G1 X52.249 Y56.03 Z0 F1600
G1 X52.127 Y55.427 Z0 F1600
G1 X52.015 Y54.769 Z0 F1600
G1 X51.911 Y54.05 Z0 F1600
G1 X51.893 Y53.874 Z0 F1600
G1 X51.877 Y53.636 Z0 F1600
G1 X51.862 Y53.344 Z0 F1600
G1 X51.849 Y53.007 Z0 F1600
G1 X51.829 Y52.236 Z0 F1600
G1 X51.817 Y51.394 Z0 F1600
G1 X51.813 Y50.555 Z0 F1600
G1 X51.819 Y49.792 Z0 F1600
G1 X51.826 Y49.461 Z0 F1600
G1 X51.835 Y49.176 Z0 F1600
G1 X51.847 Y48.947 Z0 F1600
G1 X51.863 Y48.781 Z0 F1600
; --- FIX X Backlash ---
G0 X53.163 Y48.781 F1200
G1 X53.309 Y47.638 Z0 F1600
G1 X53.349 Y47.341 Z0 F1600
G1 X53.399 Y47.004 Z0 F1600
G1 X53.421 Y46.888 Z0 F1600
G1 X53.427 Y46.873 Z0 F1600
G1 X53.483 Y46.889 Z0 F1600
; --- FIX Y Backlash ---
G0 X53.483 Y48.189 F1200
G1 X53.816 Y48.301 Z0 F1600
G1 X54.053 Y48.383 Z0 F1600
G1 X54.87 Y48.682 Z0 F1600
G1 X55.723 Y49.025 Z0 F1600
G1 X56.589 Y49.402 Z0 F1600
G1 X57.451 Y49.803 Z0 F1600
G1 X58.285 Y50.219 Z0 F1600
G1 X59.073 Y50.638 Z0 F1600
G1 X59.792 Y51.051 Z0 F1600
G1 X60.425 Y51.45 Z0 F1600
G1 X61.002 Y51.85 Z0 F1600
G1 X61.547 Y52.261 Z0 F1600
G1 X62.058 Y52.68 Z0 F1600
G1 X62.535 Y53.108 Z0 F1600
G1 X62.978 Y53.543 Z0 F1600
G1 X63.385 Y53.984 Z0 F1600
G1 X63.756 Y54.431 Z0 F1600
G1 X64.09 Y54.883 Z0 F1600
G1 X64.388 Y55.338 Z0 F1600
G1 X64.647 Y55.797 Z0 F1600
G1 X64.869 Y56.257 Z0 F1600
G1 X65.051 Y56.719 Z0 F1600
G1 X65.194 Y57.181 Z0 F1600
G1 X65.297 Y57.643 Z0 F1600
G1 X65.359 Y58.104 Z0 F1600
G1 X65.38 Y58.562 Z0 F1600
G1 X65.37 Y58.921 Z0 F1600
G1 X65.336 Y59.245 Z0 F1600
; --- FIX X Backlash ---
G0 X64.036 Y59.245 F1200
G1 X63.978 Y59.545 Z0 F1600
G1 X63.894 Y59.834 Z0 F1600
G1 X63.721 Y60.27 Z0 F1600
G1 X63.495 Y60.75 Z0 F1600
G1 X63.385 Y60.965 Z0 F1600
G1 X63.286 Y61.14 Z0 F1600
G1 X63.209 Y61.258 Z0 F1600
G1 X63.162 Y61.301 Z0 F1600
G1 X63.135 Y61.254 Z0 F1600
; --- FIX Y Backlash ---
G0 X63.135 Y59.954 F1200
G1 X63.084 Y59.827 Z0 F1600
G1 X63.016 Y59.639 Z0 F1600
G1 X62.939 Y59.41 Z0 F1600
G1 X62.757 Y58.908 Z0 F1600
G1 X62.526 Y58.366 Z0 F1600
G1 X62.254 Y57.795 Z0 F1600
G1 X61.95 Y57.211 Z0 F1600
G1 X61.618 Y56.627 Z0 F1600
G1 X61.269 Y56.056 Z0 F1600
G1 X60.909 Y55.513 Z0 F1600
G1 X60.546 Y55.012 Z0 F1600
G1 X60.017 Y54.352 Z0 F1600
G1 X59.458 Y53.72 Z0 F1600
G1 X58.873 Y53.118 Z0 F1600
G1 X58.265 Y52.551 Z0 F1600
G1 X57.638 Y52.019 Z0 F1600
G1 X56.996 Y51.529 Z0 F1600
G1 X56.342 Y51.081 Z0 F1600
G1 X55.679 Y50.68 Z0 F1600
G1 X55.398 Y50.526 Z0 F1600
G1 X55.2 Y50.426 Z0 F1600
G1 X55.131 Y50.398 Z0 F1600
G1 X55.083 Y50.385 Z0 F1600
G1 X55.054 Z0 F1600
G1 X55.047 Y50.405 Z0 F1600
G1 X55.06 Y50.44 Z0 F1600
; --- FIX Y Backlash ---
G0 X55.06 Y51.74 F1200
G1 X55.095 Y51.791 Z0 F1600
; --- FIX X Backlash ---
G0 X56.395 Y51.791 F1200
G1 X56.449 Y51.86 Z0 F1600
G1 X56.524 Y51.946 Z0 F1600
G1 X56.62 Y52.051 Z0 F1600
G1 X56.875 Y52.317 Z0 F1600
G1 X57.803 Y53.266 Z0 F1600
G1 X58.084 Y53.56 Z0 F1600
G1 X58.327 Y53.82 Z0 F1600
G1 X58.553 Y54.071 Z0 F1600
G1 X58.785 Y54.338 Z0 F1600
G1 X59.045 Y54.645 Z0 F1600
G1 X59.356 Y55.016 Z0 F1600
G1 X60.234 Y56.123 Z0 F1600
G1 X61.018 Y57.232 Z0 F1600
G1 X61.719 Y58.36 Z0 F1600
G1 X62.347 Y59.523 Z0 F1600
G1 X62.704 Y60.281 Z0 F1600
G1 X63.032 Y61.061 Z0 F1600
G1 X63.167 Y61.411 Z0 F1600
G1 X63.273 Y61.71 Z0 F1600

; Color picking sequence
G1 Z10 F1000;         ; Raise brush
G0 X86 Y5 F1200;    ; Rapid move to color 1
G1 Z10 F1000;         ; Raise brush
G0 X86 Y5 F1200;    ; Rapid move to color 1
G1 Z0 F1000;         ; Lower into color
G1 X85.102 Y7.295 Z0 S800 F1200
G1 X85.026 Y7.642 Z0 F1200
G1 X85 Y8 Z0 F1200
G1 X85.026 Y8.358 Z0 F1200
G1 X85.102 Y8.705 Z0 F1200
G1 X85.225 Y9.041 Z0 F1200
G1 X85.393 Y9.362 Z0 F1200
G1 X85.603 Y9.668 Z0 F1200
G1 X85.854 Y9.957 Z0 F1200
G1 X86.142 Y10.226 Z0 F1200
G1 X86.464 Y10.475 Z0 F1200
G1 X86.82 Y10.701 Z0 F1200
G1 X87.204 Y10.902 Z0 F1200
G1 X87.617 Y11.078 Z0 F1200
G1 X88.054 Y11.225 Z0 F1200
G1 X88.513 Y11.343 Z0 F1200
G1 X88.992 Y11.429 Z0 F1200
G1 X89.489 Y11.482 Z0 F1200
G1 X90 Y11.5 Z0 F1200
G1 X90.511 Y11.482 Z0 F1200
G1 X91.008 Y11.429 Z0 F1200
G1 X91.487 Y11.343 Z0 F1200
G1 X91.946 Y11.225 Z0 F1200
G1 X92.383 Y11.078 Z0 F1200
G1 X92.796 Y10.902 Z0 F1200
G1 X93.18 Y10.701 Z0 F1200
G1 X93.536 Y10.475 Z0 F1200
G1 X93.858 Y10.226 Z0 F1200
G1 X94.146 Y9.957 Z0 F1200
G1 X94.397 Y9.668 Z0 F1200
G1 X94.607 Y9.362 Z0 F1200
G1 X94.775 Y9.041 Z0 F1200
G1 X94.898 Y8.705 Z0 F1200
G1 X94.974 Y8.358 Z0 F1200
G1 X95 Y8 Z0 F1200
G1 X94.974 Y7.642 Z0 F1200
G1 X94.898 Y7.295 Z0 F1200
G1 X94.775 Y6.959 Z0 F1200
G1 X94.607 Y6.638 Z0 F1200
G1 X94.397 Y6.332 Z0 F1200
G1 X94.146 Y6.043 Z0 F1200
G1 X93.858 Y5.774 Z0 F1200
G1 X93.536 Y5.525 Z0 F1200
G1 X93.18 Y5.299 Z0 F1200
G1 X92.796 Y5.098 Z0 F1200
G1 X92.383 Y4.922 Z0 F1200
G1 X91.946 Y4.775 Z0 F1200
G1 X91.487 Y4.657 Z0 F1200
G1 X91.008 Y4.571 Z0 F1200
G1 X90.511 Y4.518 Z0 F1200
G1 X90 Y4.5 Z0 F1200
G1 X89.489 Y4.518 Z0 F1200
G1 X88.992 Y4.571 Z0 F1200
G1 X88.513 Y4.657 Z0 F1200
G1 X88.054 Y4.775 Z0 F1200
G1 X87.617 Y4.922 Z0 F1200
G1 X87.204 Y5.098 Z0 F1200
G1 X86.82 Y5.299 Z0 F1200
G1 X86.464 Y5.525 Z0 F1200
G1 X86.142 Y5.774 Z0 F1200
G1 X85.854 Y6.043 Z0 F1200
G1 X85.603 Y6.332 Z0 F1200
G1 X85.393 Y6.638 Z0 F1200
G1 X85.225 Y6.959 Z0 F1200
G1 Z7 F800;         ; Raise from color
G1 X79 Y8 Z1 F1200;     ; Movement in paint
G1 X69 Y18 Z8 F500;     ; Move in paint
G1 F1200;           ; Set feed rate
G0 Z2.5 F1000 ; Safety Lift
G0 X63.273 Y61.71 F1200 ; Return
G1 Z0 F1000 ; Restore Z
G1 X63.343 Y61.939 Z0 F1600
G1 X63.367 Y62.08 Z0 F1600
G1 X63.323 Y62.171 Z0 F1600
; --- FIX X Backlash ---
G0 X62.023 Y62.171 F1200
G1 X61.903 Y62.301 Z0 F1600
G1 X61.722 Y62.458 Z0 F1600
G1 X61.499 Y62.629 Z0 F1600
G1 X60.99 Y62.968 Z0 F1600
G1 X60.509 Y63.219 Z0 F1600
G1 X60.34 Y63.281 Z0 F1600
G1 X60.224 Z0 F1600
G1 X60.171 Y63.255 Z0 F1600
G1 X60.113 Y63.208 Z0 F1600
; --- FIX Y Backlash ---
G0 X60.113 Y61.908 F1200
G1 X60.046 Y61.837 Z0 F1600
G1 X59.962 Y61.742 Z0 F1600
G1 X59.784 Y61.533 Z0 F1600
G1 X59.592 Y61.294 Z0 F1600
G1 X59.386 Y61.03 Z0 F1600
G1 X59.169 Y60.744 Z0 F1600
G1 X58.713 Y60.122 Z0 F1600
G1 X58.244 Y59.457 Z0 F1600
G1 X57.782 Y58.777 Z0 F1600
G1 X57.347 Y58.111 Z0 F1600
G1 X56.959 Y57.488 Z0 F1600
G1 X56.638 Y56.938 Z0 F1600
G1 X56.065 Y55.867 Z0 F1600
G1 X55.483 Y54.703 Z0 F1600
G1 X54.921 Y53.508 Z0 F1600
G1 X54.409 Y52.343 Z0 F1600
G1 X54.177 Y51.796 Z0 F1600
G1 X53.979 Y51.341 Z0 F1600
G1 X53.838 Y51.026 Z0 F1600
G1 X53.795 Y50.936 Z0 F1600
G1 X53.774 Y50.899 Z0 F1600
G0 Z3.5 F1000
; --- FIX X Backlash ---
G0 X55.074 Y50.899 F1200
; --- FIX Y Backlash ---
G0 X55.074 Y52.199 F1200
G0 X95.829 Y53.896 Z3.5
G1 Z0 F1000
G1 X95.82 Y54.237 Z0 F1600
G1 X95.791 Y54.889 Z0 F1600
G1 X95.747 Y55.447 Z0 F1600
; --- FIX X Backlash ---
G0 X94.447 Y55.447 F1200
G1 X94.307 Y56.447 Z0 F1600
G1 X94.083 Y57.443 Z0 F1600
G1 X93.816 Y58.311 Z0 F1600
G1 X93.474 Y59.156 Z0 F1600
G1 X93.066 Y59.965 Z0 F1600
G1 X92.604 Y60.717 Z0 F1600
G1 X92.367 Y61.051 Z0 F1600
G1 X92.115 Y61.375 Z0 F1600
G1 X91.867 Y61.662 Z0 F1600
G1 X91.609 Y61.93 Z0 F1600
G1 X91.358 Y62.162 Z0 F1600
G1 X91.113 Y62.361 Z0 F1600
G1 X90.868 Y62.53 Z0 F1600
G1 X90.633 Y62.665 Z0 F1600
G1 X90.566 Y62.699 Z0 F1600
; --- FIX X Backlash ---
G0 X91.866 Y62.699 F1200
; --- FIX Y Backlash ---
G0 X91.866 Y61.399 F1200
G1 X92.168 Y60.985 Z0 F1600
G1 X92.471 Y60.56 Z0 F1600
G1 X92.741 Y60.172 Z0 F1600
G1 X92.962 Y59.838 Z0 F1600
G1 X93.306 Y59.275 Z0 F1600
G1 X93.64 Y58.679 Z0 F1600
G1 X93.961 Y58.055 Z0 F1600
G1 X94.27 Y57.403 Z0 F1600
G1 X94.824 Y56.073 Z0 F1600
G1 X95.297 Y54.702 Z0 F1600
G1 X95.542 Y53.779 Z0 F1600
G1 X95.754 Y52.779 Z0 F1600
G1 X95.834 Y52.321 Z0 F1600
; --- FIX Y Backlash ---
G0 X95.834 Y53.621 F1200
G1 X95.829 Y53.896 Z0 F1600
G0 Z3.5 F1000
; --- FIX X Backlash ---
G0 X94.529 Y53.896 F1200
G0 X90.378 Y56.842 Z3.5
G1 Z0 F1000
G1 X89.788 Y57.901 Z0 F1600
G1 X89.184 Y58.9 Z0 F1600
G1 X88.544 Y59.874 Z0 F1600
G1 X87.846 Y60.857 Z0 F1600
G1 X87.111 Y61.82 Z0 F1600
G1 X86.896 Y62.093 Z0 F1600
; --- FIX Y Backlash ---
G0 X86.896 Y60.793 F1200
G1 X86.728 Y60.692 Z0 F1600
G1 X86.429 Y60.492 Z0 F1600
G1 X86.39 Y60.463 Z0 F1600
; --- FIX X Backlash ---
G0 X87.69 Y60.463 F1200
G1 X87.798 Y60.195 Z0 F1600
G1 X87.96 Y59.818 Z0 F1600
G1 X88.132 Y59.44 Z0 F1600
G1 X88.333 Y59.019 Z0 F1600
G1 X88.557 Y58.567 Z0 F1600
G1 X89.003 Y57.735 Z0 F1600
G1 X89.502 Y56.901 Z0 F1600
G1 X90.037 Y56.094 Z0 F1600
G1 X90.638 Y55.27 Z0 F1600
G1 X91.298 Y54.443 Z0 F1600
G1 X92.025 Y53.599 Z0 F1600
G1 X92.837 Y52.72 Z0 F1600
G1 X93.201 Y52.348 Z0 F1600
; --- FIX X Backlash ---
G0 X91.901 Y52.348 F1200
; --- FIX Y Backlash ---
G0 X91.901 Y53.648 F1200
G1 X91.497 Y54.567 Z0 F1600
G1 X90.948 Y55.729 Z0 F1600
G1 X90.378 Y56.842 Z0 F1600
G0 Z3.5 F1000
G0 X84.38 Y58.296 Z3.5
G1 Z0 F1000
G1 Y58.275 Z0 F1600
; --- FIX Y Backlash ---
G0 X84.38 Y56.975 F1200
G1 X84.385 Y56.745 Z0 F1600
G1 X84.395 Y56.556 Z0 F1600
G1 X84.408 Y56.422 Z0 F1600
G1 X84.454 Y56.166 Z0 F1600
; --- FIX X Backlash ---
G0 X85.754 Y56.166 F1200
G1 X85.833 Y55.905 Z0 F1600
G1 X86.023 Y55.405 Z0 F1600
G1 X86.253 Y54.919 Z0 F1600
G1 X86.527 Y54.439 Z0 F1600
G1 X86.842 Y53.974 Z0 F1600
G1 X87.22 Y53.492 Z0 F1600
G1 X87.652 Y53.006 Z0 F1600
G1 X88.153 Y52.501 Z0 F1600
G1 X88.719 Y51.982 Z0 F1600
G1 X89.005 Y51.738 Z0 F1600
G1 X89.268 Y51.535 Z0 F1600
G1 X89.428 Y51.422 Z0 F1600
G1 X89.625 Y51.289 Z0 F1600
G1 X89.859 Y51.135 Z0 F1600
G1 X90.531 Y50.7 Z0 F1600
G1 X90.977 Y50.407 Z0 F1600
G1 X91.168 Y50.278 Z0 F1600
G1 X91.205 Y50.251 Z0 F1600
G1 X91.265 Y50.211 Z0 F1600
G1 X91.398 Y50.135 Z0 F1600
G1 X91.608 Y50.024 Z0 F1600
G1 X91.885 Y49.886 Z0 F1600
G1 X92.192 Y49.737 Z0 F1600
G1 X92.547 Y49.57 Z0 F1600
G1 X92.937 Y49.39 Z0 F1600
G1 X93.338 Y49.209 Z0 F1600
G1 X94.155 Y48.851 Z0 F1600
G1 X94.97 Y48.507 Z0 F1600
G1 X95.325 Y48.362 Z0 F1600
G1 X95.659 Y48.23 Z0 F1600
G1 X95.744 Y48.199 Z0 F1600
; --- FIX Y Backlash ---
G0 X95.744 Y49.499 F1200
G1 X95.752 Y49.621 Z0 F1600
G1 X95.789 Y50.28 Z0 F1600
G1 X95.818 Y51.034 Z0 F1600
G1 X95.835 Y51.811 Z0 F1600
G1 Y51.956 Z0 F1600
; --- FIX X Backlash ---
G0 X94.535 Y51.956 F1200
; --- FIX Y Backlash ---
G0 X94.535 Y50.656 F1200
G1 X93.894 Y49.712 Z0 F1600
; --- FIX Y Backlash ---
G0 X93.894 Y51.012 F1200
G1 X93.375 Y51.338 Z0 F1600
; --- FIX X Backlash ---
G0 X94.675 Y51.338 F1200
; --- FIX Y Backlash ---
G0 X94.675 Y50.038 F1200
G1 X94.736 Y49.549 Z0 F1600
; --- FIX X Backlash ---
G0 X93.436 Y49.549 F1200
G1 X92.235 Y49.383 Z0 F1600
; --- FIX Y Backlash ---
G0 X92.235 Y50.683 F1200
G1 X91.929 Y50.761 Z0 F1600
G1 X91.764 Y50.826 Z0 F1600
G1 X91.616 Y50.895 Z0 F1600
G1 X91.324 Y51.048 Z0 F1600
G1 X90.985 Y51.242 Z0 F1600
G1 X90.261 Y51.693 Z0 F1600
G1 X89.573 Y52.171 Z0 F1600
G1 X89.16 Y52.499 Z0 F1600
G1 X88.715 Y52.882 Z0 F1600
G1 X88.259 Y53.295 Z0 F1600
G1 X87.817 Y53.714 Z0 F1600
G1 X87.416 Y54.113 Z0 F1600
G1 X87.087 Y54.463 Z0 F1600
G1 X86.943 Y54.628 Z0 F1600
G1 X86.813 Y54.794 Z0 F1600
G1 X86.735 Y54.918 Z0 F1600
G1 X86.638 Y55 Z0 F1600
G1 X86.429 Y55.216 Z0 F1600
G1 X86.22 Y55.459 Z0 F1600
G1 X85.817 Y55.978 Z0 F1600
G1 X85.43 Y56.524 Z0 F1600
G1 X85.06 Y57.095 Z0 F1600
G1 X84.711 Y57.684 Z0 F1600
G1 X84.385 Y58.286 Z0 F1600
G1 X84.38 Y58.296 Z0 F1600
G0 Z3.5 F1000
G0 X83.487 Y59.883 Z3.5
G1 Z0 F1000
; --- FIX Y Backlash ---
G0 X83.487 Y58.583 F1200
G1 X83.415 Y58.291 Z0 F1600
G1 X83.396 Y58.114 Z0 F1600
G1 X83.385 Y57.897 Z0 F1600
G1 X83.379 Y57.627 Z0 F1600
G1 Y57.288 Z0 F1600
G1 Y56.971 Z0 F1600
G1 X83.386 Y56.705 Z0 F1600
G1 X83.398 Y56.479 Z0 F1600
G1 X83.416 Y56.283 Z0 F1600
; --- FIX X Backlash ---
G0 X84.716 Y56.283 F1200
G1 X84.78 Y55.936 Z0 F1600
G1 X84.886 Y55.581 Z0 F1600
G1 X85.104 Y55.01 Z0 F1600
G1 X85.366 Y54.456 Z0 F1600
G1 X85.675 Y53.915 Z0 F1600
G1 X86.036 Y53.382 Z0 F1600
G1 X86.45 Y52.852 Z0 F1600
G1 X86.923 Y52.321 Z0 F1600
G1 X87.458 Y51.782 Z0 F1600
G1 X88.058 Y51.232 Z0 F1600
G1 X88.375 Y50.961 Z0 F1600
G1 X88.68 Y50.726 Z0 F1600
G1 X88.856 Y50.601 Z0 F1600
G1 X89.064 Y50.461 Z0 F1600
G1 X89.315 Y50.296 Z0 F1600
G1 X89.985 Y49.862 Z0 F1600
G1 X90.423 Y49.575 Z0 F1600
G1 X90.593 Y49.46 Z0 F1600
G1 X90.629 Y49.433 Z0 F1600
G1 X90.739 Y49.359 Z0 F1600
G1 X90.916 Y49.258 Z0 F1600
G1 X91.151 Y49.134 Z0 F1600
G1 X91.438 Y48.991 Z0 F1600
G1 X91.766 Y48.832 Z0 F1600
G1 X92.129 Y48.661 Z0 F1600
G1 X92.519 Y48.482 Z0 F1600
G1 X92.927 Y48.298 Z0 F1600
G1 X93.766 Y47.929 Z0 F1600
G1 X94.581 Y47.585 Z0 F1600
G1 X94.959 Y47.431 Z0 F1600
G1 X95.307 Y47.294 Z0 F1600
G1 X95.617 Y47.178 Z0 F1600
G1 X95.881 Y47.085 Z0 F1600
G1 X96.123 Y47.005 Z0 F1600
G1 X96.33 Y46.94 Z0 F1600
G1 X96.479 Y46.894 Z0 F1600
G1 X96.548 Y46.877 Z0 F1600
G1 X96.576 Y46.901 Z0 F1600
; --- FIX Y Backlash ---
G0 X96.576 Y48.201 F1200
G1 X96.604 Y48.274 Z0 F1600
G1 X96.63 Y48.393 Z0 F1600
G1 X96.657 Y48.555 Z0 F1600
G1 X96.682 Y48.757 Z0 F1600
G1 X96.707 Y48.995 Z0 F1600
G1 X96.729 Y49.265 Z0 F1600
G1 X96.751 Y49.565 Z0 F1600
G1 X96.789 Y50.242 Z0 F1600
G1 X96.817 Y50.996 Z0 F1600
G1 X96.835 Y51.803 Z0 F1600
G1 X96.842 Y52.636 Z0 F1600
G1 Y53.094 Z0 F1600
G1 X96.836 Y53.519 Z0 F1600
G1 X96.829 Y53.914 Z0 F1600
G1 X96.819 Y54.283 Z0 F1600
G1 X96.789 Y54.952 Z0 F1600
G1 X96.742 Y55.55 Z0 F1600
; --- FIX X Backlash ---
G0 X95.442 Y55.55 F1200
G1 X95.292 Y56.626 Z0 F1600
G1 X95.051 Y57.698 Z0 F1600
G1 X94.759 Y58.648 Z0 F1600
G1 X94.385 Y59.572 Z0 F1600
G1 X93.94 Y60.452 Z0 F1600
G1 X93.438 Y61.269 Z0 F1600
G1 X93.17 Y61.648 Z0 F1600
G1 X92.891 Y62.005 Z0 F1600
G1 X92.604 Y62.338 Z0 F1600
G1 X92.311 Y62.643 Z0 F1600
G1 X92.013 Y62.919 Z0 F1600
G1 X91.71 Y63.164 Z0 F1600
G1 X91.406 Y63.375 Z0 F1600
G1 X91.101 Y63.549 Z0 F1600
G1 X90.899 Y63.65 Z0 F1600
G1 X90.728 Y63.729 Z0 F1600
G1 X90.574 Y63.788 Z0 F1600
G1 X90.42 Y63.83 Z0 F1600
G1 X90.253 Y63.86 Z0 F1600
G1 X90.056 Y63.882 Z0 F1600
G1 X89.817 Y63.897 Z0 F1600
G1 X89.519 Y63.91 Z0 F1600
G1 X89.145 Y63.918 Z0 F1600
G1 X88.827 Y63.913 Z0 F1600
G1 X88.7 Y63.906 Z0 F1600
G1 X88.599 Y63.897 Z0 F1600
G1 X88.529 Y63.885 Z0 F1600
G1 X88.494 Y63.871 Z0 F1600
; --- FIX Y Backlash ---
G0 X88.494 Y62.571 F1200
G1 X88.486 Y62.517 Z0 F1600
G1 X88.518 Y62.428 Z0 F1600
; --- FIX X Backlash ---
G0 X89.818 Y62.428 F1200
G1 X89.888 Y62.315 Z0 F1600
G1 X89.988 Y62.188 Z0 F1600
G1 X90.078 Y62.083 Z0 F1600
G1 X90.185 Y61.953 Z0 F1600
G1 X90.306 Y61.802 Z0 F1600
G1 X90.438 Y61.632 Z0 F1600
G1 X90.731 Y61.248 Z0 F1600
G1 X91.043 Y60.829 Z0 F1600
G1 X91.357 Y60.4 Z0 F1600
G1 X91.653 Y59.985 Z0 F1600
G1 X91.914 Y59.61 Z0 F1600
G1 X92.119 Y59.301 Z0 F1600
G1 X92.443 Y58.77 Z0 F1600
G1 X92.759 Y58.205 Z0 F1600
G1 X93.064 Y57.612 Z0 F1600
G1 X93.355 Y56.996 Z0 F1600
G1 X93.889 Y55.717 Z0 F1600
G1 X94.34 Y54.41 Z0 F1600
G1 X94.569 Y53.547 Z0 F1600
G1 X94.772 Y52.589 Z0 F1600
G1 X94.851 Y52.138 Z0 F1600
G1 X94.91 Y51.737 Z0 F1600
G1 X94.929 Y51.563 Z0 F1600
G1 X94.942 Y51.411 Z0 F1600
G1 X94.948 Y51.285 Z0 F1600
G1 X94.945 Y51.188 Z0 F1600
G1 X94.933 Y51.105 Z0 F1600
G1 X94.91 Y51.072 Z0 F1600
G1 X94.872 Y51.096 Z0 F1600
; --- FIX X Backlash ---
G0 X93.572 Y51.096 F1200
; --- FIX Y Backlash ---
G0 X93.572 Y52.396 F1200
G1 X93.513 Y52.486 Z0 F1600
G1 X93.429 Y52.652 Z0 F1600
G1 X93.314 Y52.903 Z0 F1600
G1 X93.163 Y53.249 Z0 F1600
G1 X92.972 Y53.697 Z0 F1600
G1 X92.409 Y54.979 Z0 F1600
G1 X91.841 Y56.18 Z0 F1600
G1 X91.26 Y57.314 Z0 F1600
G1 X90.658 Y58.395 Z0 F1600
G1 X90.03 Y59.434 Z0 F1600
G1 X89.365 Y60.446 Z0 F1600
G1 X88.657 Y61.443 Z0 F1600
G1 X87.897 Y62.438 Z0 F1600
G1 X87.216 Y63.304 Z0 F1600

; Color picking sequence
G1 Z10 F1000;         ; Raise brush
G0 X86 Y5 F1200;    ; Rapid move to color 1
G1 Z10 F1000;         ; Raise brush
G0 X86 Y5 F1200;    ; Rapid move to color 1
G1 Z0 F1000;         ; Lower into color
G1 X85.102 Y7.295 Z0 S800 F1200
G1 X85.026 Y7.642 Z0 F1200
G1 X85 Y8 Z0 F1200
G1 X85.026 Y8.358 Z0 F1200
G1 X85.102 Y8.705 Z0 F1200
G1 X85.225 Y9.041 Z0 F1200
G1 X85.393 Y9.362 Z0 F1200
G1 X85.603 Y9.668 Z0 F1200
G1 X85.854 Y9.957 Z0 F1200
G1 X86.142 Y10.226 Z0 F1200
G1 X86.464 Y10.475 Z0 F1200
G1 X86.82 Y10.701 Z0 F1200
G1 X87.204 Y10.902 Z0 F1200
G1 X87.617 Y11.078 Z0 F1200
G1 X88.054 Y11.225 Z0 F1200
G1 X88.513 Y11.343 Z0 F1200
G1 X88.992 Y11.429 Z0 F1200
G1 X89.489 Y11.482 Z0 F1200
G1 X90 Y11.5 Z0 F1200
G1 X90.511 Y11.482 Z0 F1200
G1 X91.008 Y11.429 Z0 F1200
G1 X91.487 Y11.343 Z0 F1200
G1 X91.946 Y11.225 Z0 F1200
G1 X92.383 Y11.078 Z0 F1200
G1 X92.796 Y10.902 Z0 F1200
G1 X93.18 Y10.701 Z0 F1200
G1 X93.536 Y10.475 Z0 F1200
G1 X93.858 Y10.226 Z0 F1200
G1 X94.146 Y9.957 Z0 F1200
G1 X94.397 Y9.668 Z0 F1200
G1 X94.607 Y9.362 Z0 F1200
G1 X94.775 Y9.041 Z0 F1200
G1 X94.898 Y8.705 Z0 F1200
G1 X94.974 Y8.358 Z0 F1200
G1 X95 Y8 Z0 F1200
G1 X94.974 Y7.642 Z0 F1200
G1 X94.898 Y7.295 Z0 F1200
G1 X94.775 Y6.959 Z0 F1200
G1 X94.607 Y6.638 Z0 F1200
G1 X94.397 Y6.332 Z0 F1200
G1 X94.146 Y6.043 Z0 F1200
G1 X93.858 Y5.774 Z0 F1200
G1 X93.536 Y5.525 Z0 F1200
G1 X93.18 Y5.299 Z0 F1200
G1 X92.796 Y5.098 Z0 F1200
G1 X92.383 Y4.922 Z0 F1200
G1 X91.946 Y4.775 Z0 F1200
G1 X91.487 Y4.657 Z0 F1200
G1 X91.008 Y4.571 Z0 F1200
G1 X90.511 Y4.518 Z0 F1200
G1 X90 Y4.5 Z0 F1200
G1 X89.489 Y4.518 Z0 F1200
G1 X88.992 Y4.571 Z0 F1200
G1 X88.513 Y4.657 Z0 F1200
G1 X88.054 Y4.775 Z0 F1200
G1 X87.617 Y4.922 Z0 F1200
G1 X87.204 Y5.098 Z0 F1200
G1 X86.82 Y5.299 Z0 F1200
G1 X86.464 Y5.525 Z0 F1200
G1 X86.142 Y5.774 Z0 F1200
G1 X85.854 Y6.043 Z0 F1200
G1 X85.603 Y6.332 Z0 F1200
G1 X85.393 Y6.638 Z0 F1200
G1 X85.225 Y6.959 Z0 F1200
G1 Z7 F800;         ; Raise from color
G1 X79 Y8 Z1 F1200;     ; Movement in paint
G1 X69 Y18 Z8 F500;     ; Move in paint
G1 F1200;           ; Set feed rate
G0 Z2.5 F1000 ; Safety Lift
G0 X87.216 Y63.304 F1200 ; Return
G1 Z0 F1000 ; Restore Z
G1 X87.173 Y63.32 Z0 F1600
G1 X87.096 Y63.308 Z0 F1600
G1 X86.989 Y63.271 Z0 F1600
; --- FIX Y Backlash ---
G0 X86.989 Y61.971 F1200
G1 X86.857 Y61.913 Z0 F1600
G1 X86.542 Y61.747 Z0 F1600
G1 X86.191 Y61.535 Z0 F1600
G1 X85.846 Y61.304 Z0 F1600
G1 X85.548 Y61.081 Z0 F1600
G1 X85.429 Y60.98 Z0 F1600
G1 X85.339 Y60.891 Z0 F1600
G1 X85.281 Y60.817 Z0 F1600
G1 X85.26 Y60.762 Z0 F1600
G1 X85.282 Y60.623 Z0 F1600
; --- FIX X Backlash ---
G0 X86.582 Y60.623 F1200
G1 X86.646 Y60.409 Z0 F1600
G1 X86.746 Y60.132 Z0 F1600
G1 X86.879 Y59.799 Z0 F1600
G1 X87.042 Y59.422 Z0 F1600
G1 X87.229 Y59.01 Z0 F1600
G1 X87.437 Y58.574 Z0 F1600
G1 X87.662 Y58.122 Z0 F1600
G1 X88.135 Y57.238 Z0 F1600
G1 X88.652 Y56.373 Z0 F1600
G1 X89.218 Y55.518 Z0 F1600
G1 X89.841 Y54.666 Z0 F1600
G1 X90.526 Y53.806 Z0 F1600
G1 X91.281 Y52.93 Z0 F1600
G1 X92.112 Y52.031 Z0 F1600
G1 X93.273 Y50.845 Z0 F1600
G1 X93.467 Y50.629 Z0 F1600
G1 X93.539 Y50.543 Z0 F1600
G1 X93.59 Y50.475 Z0 F1600
G1 X93.618 Y50.428 Z0 F1600
G1 X93.621 Y50.404 Z0 F1600
G1 X93.593 Y50.4 Z0 F1600
; --- FIX X Backlash ---
G0 X92.293 Y50.4 F1200
G1 X92.238 Y50.414 Z0 F1600
G1 X92.158 Y50.446 Z0 F1600
G1 X92.058 Y50.492 Z0 F1600
; --- FIX Y Backlash ---
G0 X92.058 Y51.792 F1200
G1 X91.804 Y51.925 Z0 F1600
G1 X91.497 Y52.101 Z0 F1600
G1 X90.81 Y52.528 Z0 F1600
G1 X90.17 Y52.974 Z0 F1600
G1 X89.798 Y53.269 Z0 F1600
G1 X89.377 Y53.631 Z0 F1600
G1 X88.939 Y54.029 Z0 F1600
G1 X88.513 Y54.432 Z0 F1600
G1 X88.133 Y54.811 Z0 F1600
G1 X87.828 Y55.134 Z0 F1600
G1 X87.714 Y55.265 Z0 F1600
G1 X87.631 Y55.372 Z0 F1600
G1 X87.582 Y55.449 Z0 F1600
G1 X87.572 Y55.494 Z0 F1600
G1 X87.581 Y55.537 Z0 F1600
G1 X87.575 Y55.57 Z0 F1600
G1 X87.554 Y55.588 Z0 F1600
G1 X87.52 Z0 F1600
G1 X87.449 Y55.623 Z0 F1600
G1 X87.325 Y55.729 Z0 F1600
G1 X87.168 Y55.891 Z0 F1600
G1 X86.994 Y56.093 Z0 F1600
G1 X86.62 Y56.574 Z0 F1600
G1 X86.258 Y57.085 Z0 F1600
G1 X85.91 Y57.622 Z0 F1600
G1 X85.581 Y58.177 Z0 F1600
G1 X85.273 Y58.745 Z0 F1600
G1 X84.992 Y59.318 Z0 F1600
G1 X84.738 Y59.892 Z0 F1600
G1 X84.518 Y60.458 Z0 F1600
G1 X84.237 Y61.235 Z0 F1600
; --- FIX Y Backlash ---
G0 X84.237 Y59.935 F1200
G1 X84.045 Y59.666 Z0 F1600
G1 X83.952 Y59.521 Z0 F1600
G1 X83.84 Y59.327 Z0 F1600
G1 X83.723 Y59.108 Z0 F1600
G1 X83.616 Y58.889 Z0 F1600
G1 X83.487 Y58.583 Z0 F1600

; Washing sequence (no color)
G1 Z10 F1000;        ; Raise brush
G0 X5 Y5 F1200;     ; Rapid move to clean
G1 Z0 F800;         ; Lower brush
G1 X10 Y12 Z8 F1200;     ; Move
G1 Z0 F800;         ; Lower
G1 X25 Y14 Z6 F800;     ; Move
G1 Z8 F800;         ; Maintain
G0 X5 Y5 F1200;     ; Rapid
G1 Z0 F800;         ; Lower
G1 X15 Y12 Z8 F1200;     ; Move
G1 Z0 F800;         ; Lower
G1 X25 Y14 Z6 F800;     ; Move
G1 Z10 F800;         ; Maintain
G1 F1200;           ; Set feed
G0 Z2.5 F1000 ; Safety Lift

; Color picking sequence
G1 Z10 F1000;         ; Raise brush
G0 X131 Y5 F1200;    ; Rapid move to color 1
G1 Z10 F1000;         ; Raise brush
G0 X131 Y5 F1200;    ; Rapid move to color 1
G1 Z0 F1000;         ; Lower into color
G1 X130.102 Y7.295 Z0 S800 F1200
G1 X130.026 Y7.642 Z0 F1200
G1 X130 Y8 Z0 F1200
G1 X130.026 Y8.358 Z0 F1200
G1 X130.102 Y8.705 Z0 F1200
G1 X130.225 Y9.041 Z0 F1200
G1 X130.393 Y9.362 Z0 F1200
G1 X130.603 Y9.668 Z0 F1200
G1 X130.854 Y9.957 Z0 F1200
G1 X131.142 Y10.226 Z0 F1200
G1 X131.464 Y10.475 Z0 F1200
G1 X131.82 Y10.701 Z0 F1200
G1 X132.204 Y10.902 Z0 F1200
G1 X132.617 Y11.078 Z0 F1200
G1 X133.054 Y11.225 Z0 F1200
G1 X133.513 Y11.343 Z0 F1200
G1 X133.992 Y11.429 Z0 F1200
G1 X134.489 Y11.482 Z0 F1200
G1 X135 Y11.5 Z0 F1200
G1 X135.511 Y11.482 Z0 F1200
G1 X136.008 Y11.429 Z0 F1200
G1 X136.487 Y11.343 Z0 F1200
G1 X136.946 Y11.225 Z0 F1200
G1 X137.383 Y11.078 Z0 F1200
G1 X137.796 Y10.902 Z0 F1200
G1 X138.18 Y10.701 Z0 F1200
G1 X138.536 Y10.475 Z0 F1200
G1 X138.858 Y10.226 Z0 F1200
G1 X139.146 Y9.957 Z0 F1200
G1 X139.397 Y9.668 Z0 F1200
G1 X139.607 Y9.362 Z0 F1200
G1 X139.775 Y9.041 Z0 F1200
G1 X139.898 Y8.705 Z0 F1200
G1 X139.974 Y8.358 Z0 F1200
G1 X140 Y8 Z0 F1200
G1 X139.974 Y7.642 Z0 F1200
G1 X139.898 Y7.295 Z0 F1200
G1 X139.775 Y6.959 Z0 F1200
G1 X139.607 Y6.638 Z0 F1200
G1 X139.397 Y6.332 Z0 F1200
G1 X139.146 Y6.043 Z0 F1200
G1 X138.858 Y5.774 Z0 F1200
G1 X138.536 Y5.525 Z0 F1200
G1 X138.18 Y5.299 Z0 F1200
G1 X137.796 Y5.098 Z0 F1200
G1 X137.383 Y4.922 Z0 F1200
G1 X136.946 Y4.775 Z0 F1200
G1 X136.487 Y4.657 Z0 F1200
G1 X136.008 Y4.571 Z0 F1200
G1 X135.511 Y4.518 Z0 F1200
G1 X135 Y4.5 Z0 F1200
G1 X134.489 Y4.518 Z0 F1200
G1 X133.992 Y4.571 Z0 F1200
G1 X133.513 Y4.657 Z0 F1200
G1 X133.054 Y4.775 Z0 F1200
G1 X132.617 Y4.922 Z0 F1200
G1 X132.204 Y5.098 Z0 F1200
G1 X131.82 Y5.299 Z0 F1200
G1 X131.464 Y5.525 Z0 F1200
G1 X131.142 Y5.774 Z0 F1200
G1 X130.854 Y6.043 Z0 F1200
G1 X130.603 Y6.332 Z0 F1200
G1 X130.393 Y6.638 Z0 F1200
G1 X130.225 Y6.959 Z0 F1200
G1 Z7 F800;         ; Raise from color
G1 X124 Y8 Z1 F1200;     ; Movement in paint
G1 X114 Y18 Z8 F500;     ; Move in paint
G1 F1200;           ; Set feed rate
