
G0 Z10 F500;      ; Move to clearance level
; G0 X-10 Y-10 F1200; Homing
; G0 X-5 Y-5 F1200; go in
; G10 P0 L20 X0 Y0; set to zero
G1 F1200;           ; Set feed rate
;LightBurn 1.6.04
;Custom GCode device profile, absolute coords
;Bounds: X13.09 Y35.73 to X135.81 Y98.9
G00 G17 G40 G21 G54
G90
M3
G1 Z10 F500

; Color picking sequence
G1 Z10 F1000;         ; Raise brush
G0 X131 Y5 F1200;    ; Rapid move to color 1
G1 Z10 F1000;         ; Raise brush
G0 X131 Y5 F1200;    ; Rapid move to color 1
G1 Z0 F1000;         ; Lower into color
G1 X130.102 Y7.295 Z0 S800 F1200
G1 X130.026 Y7.642 Z0 F1200
G1 X130 Y8 Z0 F1200
G1 X130.026 Y8.358 Z0 F1200
G1 X130.102 Y8.705 Z0 F1200
G1 X130.225 Y9.041 Z0 F1200
G1 X130.393 Y9.362 Z0 F1200
G1 X130.603 Y9.668 Z0 F1200
G1 X130.854 Y9.957 Z0 F1200
G1 X131.142 Y10.226 Z0 F1200
G1 X131.464 Y10.475 Z0 F1200
G1 X131.82 Y10.701 Z0 F1200
G1 X132.204 Y10.902 Z0 F1200
G1 X132.617 Y11.078 Z0 F1200
G1 X133.054 Y11.225 Z0 F1200
G1 X133.513 Y11.343 Z0 F1200
G1 X133.992 Y11.429 Z0 F1200
G1 X134.489 Y11.482 Z0 F1200
G1 X135 Y11.5 Z0 F1200
G1 X135.511 Y11.482 Z0 F1200
G1 X136.008 Y11.429 Z0 F1200
G1 X136.487 Y11.343 Z0 F1200
G1 X136.946 Y11.225 Z0 F1200
G1 X137.383 Y11.078 Z0 F1200
G1 X137.796 Y10.902 Z0 F1200
G1 X138.18 Y10.701 Z0 F1200
G1 X138.536 Y10.475 Z0 F1200
G1 X138.858 Y10.226 Z0 F1200
G1 X139.146 Y9.957 Z0 F1200
G1 X139.397 Y9.668 Z0 F1200
G1 X139.607 Y9.362 Z0 F1200
G1 X139.775 Y9.041 Z0 F1200
G1 X139.898 Y8.705 Z0 F1200
G1 X139.974 Y8.358 Z0 F1200
G1 X140 Y8 Z0 F1200
G1 X139.974 Y7.642 Z0 F1200
G1 X139.898 Y7.295 Z0 F1200
G1 X139.775 Y6.959 Z0 F1200
G1 X139.607 Y6.638 Z0 F1200
G1 X139.397 Y6.332 Z0 F1200
G1 X139.146 Y6.043 Z0 F1200
G1 X138.858 Y5.774 Z0 F1200
G1 X138.536 Y5.525 Z0 F1200
G1 X138.18 Y5.299 Z0 F1200
G1 X137.796 Y5.098 Z0 F1200
G1 X137.383 Y4.922 Z0 F1200
G1 X136.946 Y4.775 Z0 F1200
G1 X136.487 Y4.657 Z0 F1200
G1 X136.008 Y4.571 Z0 F1200
G1 X135.511 Y4.518 Z0 F1200
G1 X135 Y4.5 Z0 F1200
G1 X134.489 Y4.518 Z0 F1200
G1 X133.992 Y4.571 Z0 F1200
G1 X133.513 Y4.657 Z0 F1200
G1 X133.054 Y4.775 Z0 F1200
G1 X132.617 Y4.922 Z0 F1200
G1 X132.204 Y5.098 Z0 F1200
G1 X131.82 Y5.299 Z0 F1200
G1 X131.464 Y5.525 Z0 F1200
G1 X131.142 Y5.774 Z0 F1200
G1 X130.854 Y6.043 Z0 F1200
G1 X130.603 Y6.332 Z0 F1200
G1 X130.393 Y6.638 Z0 F1200
G1 X130.225 Y6.959 Z0 F1200
G1 Z7 F800;         ; Raise from color
G1 X124 Y8 Z1 F1200;     ; Movement in paint
G1 X114 Y18 Z8 F500;     ; Move in paint
G1 F1200;           ; Set feed rate
G0 Z2.5 F1000 ; Safety Lift
;Offset @ 1500 mm/min, 80% power

M8
G0 Z3.5 F500
G0 X37.122 Y49.279 Z3.5
G1 Z0 F500
;Layer C04
G1 X37.633 Y49.356 Z0 S800 F1500
G1 X38.213 Y49.481 Z0 F1500
G1 X38.53 Y49.527 Z0 F1500
G1 X38.505 Y58.364 Z0 F1500
G1 X38.489 Y67.32 Z0 F1500
G1 X38.454 Y76.272 Z0 F1500
; --- FIX X Backlash ---
G0 X37.154 Y76.272 F1200
G1 X37.083 Y84.186 Z0 F1500
; --- FIX Y Backlash ---
G0 X37.083 Y82.886 F1200
G1 X36.398 Y82.763 Z0 F1500
G1 X35.608 Y82.585 Z0 F1500
G1 X35.551 Y82.568 Z0 F1500
G1 X35.555 Y74.206 Z0 F1500
G1 X35.546 Y65.099 Z0 F1500
G1 X35.564 Y55.999 Z0 F1500
; --- FIX X Backlash ---
G0 X36.864 Y55.999 F1200
G1 X36.939 Y47.923 Z0 F1500
; --- FIX Y Backlash ---
G0 X36.939 Y49.223 F1200
G1 X37.122 Y49.279 Z0 F1500
G0 Z3.5 F500
G0 X39.53 Y49.409 Z3.5 F1500
G1 Z0 F500
G1 X39.505 Y58.366 Z0 F1500
G1 X39.489 Y67.324 Z0 F1500
G1 X39.454 Y76.281 Z0 F1500
; --- FIX X Backlash ---
G0 X38.154 Y76.281 F1200
G1 X38.074 Y85.238 Z0 F1500
G1 X38.048 Y85.29 Z0 F1500
G1 X38.006 Y85.316 Z0 F1500
G1 X37.955 Y85.326 Z0 F1500
G1 X37.903 Z0 F1500
; --- FIX Y Backlash ---
G0 X37.903 Y84.026 F1200
G1 X37.052 Y83.897 Z0 F1500
G1 X36.197 Y83.743 Z0 F1500
G1 X35.356 Y83.553 Z0 F1500
G1 X34.551 Y83.314 Z0 F1500
G1 X34.555 Y74.206 Z0 F1500
G1 X34.546 Y65.097 Z0 F1500
G1 X34.564 Y55.99 Z0 F1500
; --- FIX X Backlash ---
G0 X35.864 Y55.99 F1200
G1 X35.949 Y46.882 Z0 F1500
G1 X36.156 Y46.787 Z0 F1500
G1 X36.379 Y46.762 Z0 F1500
G1 X36.614 Y46.789 Z0 F1500
; --- FIX Y Backlash ---
G0 X36.614 Y48.089 F1200
G1 X36.856 Y48.15 Z0 F1500
G1 X37.346 Y48.302 Z0 F1500
G1 X37.811 Y48.372 Z0 F1500
G1 X38.39 Y48.497 Z0 F1500
G1 X39.02 Y48.587 Z0 F1500
G1 X39.283 Y48.678 Z0 F1500
G1 X39.475 Y48.83 Z0 F1500
G1 X39.535 Y48.936 Z0 F1500
G1 X39.566 Y49.066 Z0 F1500
G1 Y49.223 Z0 F1500
G1 X39.53 Y49.409 Z0 F1500
G0 Z3.5 F500

; Color picking sequence
G1 Z10 F1000;         ; Raise brush
G0 X131 Y5 F1200;    ; Rapid move to color 1
G1 Z10 F1000;         ; Raise brush
G0 X131 Y5 F1200;    ; Rapid move to color 1
G1 Z0 F1000;         ; Lower into color
G1 X130.102 Y7.295 Z0 S800 F1200
G1 X130.026 Y7.642 Z0 F1200
G1 X130 Y8 Z0 F1200
G1 X130.026 Y8.358 Z0 F1200
G1 X130.102 Y8.705 Z0 F1200
G1 X130.225 Y9.041 Z0 F1200
G1 X130.393 Y9.362 Z0 F1200
G1 X130.603 Y9.668 Z0 F1200
G1 X130.854 Y9.957 Z0 F1200
G1 X131.142 Y10.226 Z0 F1200
G1 X131.464 Y10.475 Z0 F1200
G1 X131.82 Y10.701 Z0 F1200
G1 X132.204 Y10.902 Z0 F1200
G1 X132.617 Y11.078 Z0 F1200
G1 X133.054 Y11.225 Z0 F1200
G1 X133.513 Y11.343 Z0 F1200
G1 X133.992 Y11.429 Z0 F1200
G1 X134.489 Y11.482 Z0 F1200
G1 X135 Y11.5 Z0 F1200
G1 X135.511 Y11.482 Z0 F1200
G1 X136.008 Y11.429 Z0 F1200
G1 X136.487 Y11.343 Z0 F1200
G1 X136.946 Y11.225 Z0 F1200
G1 X137.383 Y11.078 Z0 F1200
G1 X137.796 Y10.902 Z0 F1200
G1 X138.18 Y10.701 Z0 F1200
G1 X138.536 Y10.475 Z0 F1200
G1 X138.858 Y10.226 Z0 F1200
G1 X139.146 Y9.957 Z0 F1200
G1 X139.397 Y9.668 Z0 F1200
G1 X139.607 Y9.362 Z0 F1200
G1 X139.775 Y9.041 Z0 F1200
G1 X139.898 Y8.705 Z0 F1200
G1 X139.974 Y8.358 Z0 F1200
G1 X140 Y8 Z0 F1200
G1 X139.974 Y7.642 Z0 F1200
G1 X139.898 Y7.295 Z0 F1200
G1 X139.775 Y6.959 Z0 F1200
G1 X139.607 Y6.638 Z0 F1200
G1 X139.397 Y6.332 Z0 F1200
G1 X139.146 Y6.043 Z0 F1200
G1 X138.858 Y5.774 Z0 F1200
G1 X138.536 Y5.525 Z0 F1200
G1 X138.18 Y5.299 Z0 F1200
G1 X137.796 Y5.098 Z0 F1200
G1 X137.383 Y4.922 Z0 F1200
G1 X136.946 Y4.775 Z0 F1200
G1 X136.487 Y4.657 Z0 F1200
G1 X136.008 Y4.571 Z0 F1200
G1 X135.511 Y4.518 Z0 F1200
G1 X135 Y4.5 Z0 F1200
G1 X134.489 Y4.518 Z0 F1200
G1 X133.992 Y4.571 Z0 F1200
G1 X133.513 Y4.657 Z0 F1200
G1 X133.054 Y4.775 Z0 F1200
G1 X132.617 Y4.922 Z0 F1200
G1 X132.204 Y5.098 Z0 F1200
G1 X131.82 Y5.299 Z0 F1200
G1 X131.464 Y5.525 Z0 F1200
G1 X131.142 Y5.774 Z0 F1200
G1 X130.854 Y6.043 Z0 F1200
G1 X130.603 Y6.332 Z0 F1200
G1 X130.393 Y6.638 Z0 F1200
G1 X130.225 Y6.959 Z0 F1200
G1 Z7 F800;         ; Raise from color
G1 X124 Y8 Z1 F1200;     ; Movement in paint
G1 X114 Y18 Z8 F500;     ; Move in paint
G1 F1200;           ; Set feed rate
G0 Z2.5 F1000 ; Safety Lift
G0 X39.53 Y49.409 F1200 ; Return to pos
; --- FIX X Backlash ---
G0 X38.23 Y49.409 F1200
G0 X33.438 Y66.058 Z3.5
G1 Z0 F500
; --- FIX X Backlash ---
G0 X34.738 Y66.058 F1200
G1 X34.909 Y66.055 Z0 F1500
G1 X35 Y66.058 Z0 F1500
G1 X35.074 Y66.088 Z0 F1500
G1 X35.103 Y66.168 Z0 F1500
G1 X35.094 Y84.412 Z0 F1500
G1 X35.063 Y84.474 Z0 F1500
; --- FIX X Backlash ---
G0 X33.763 Y84.474 F1200
G1 X33.704 Y84.512 Z0 F1500
G1 X33.632 Y84.531 Z0 F1500
G1 X33.561 Y84.542 Z0 F1500
G1 X33.476 Y84.519 Z0 F1500
; --- FIX Y Backlash ---
G0 X33.476 Y83.219 F1200
G1 X33.406 Y83.168 Z0 F1500
G1 X33.363 Y83.095 Z0 F1500
G1 X33.293 Y79.278 Z0 F1500
G1 X33.269 Y75.551 Z0 F1500
G1 X33.263 Y71.824 Z0 F1500
G1 X33.247 Y68.097 Z0 F1500
G1 X33.236 Y66.464 Z0 F1500
G1 X33.213 Y64.835 Z0 F1500
; --- FIX X Backlash ---
G0 X34.513 Y64.835 F1200
G1 X34.563 Y64.769 Z0 F1500
G1 X34.645 Y64.753 Z0 F1500
G1 X34.738 Y64.758 Z0 F1500
G0 Z3.5 F500
; --- FIX Y Backlash ---
G0 X34.738 Y66.058 F1200
G0 X56.136 Y93.006 Z3.5
G1 Z0 F500
G1 X57.246 Y93.201 Z0 F1500
G1 X57.255 Y93.59 Z0 F1500
; --- FIX X Backlash ---
G0 X55.955 Y93.59 F1200
; --- FIX Y Backlash ---
G0 X55.955 Y92.29 F1200
G1 X51.755 Y91.185 Z0 F1500
; --- FIX X Backlash ---
G0 X53.055 Y91.185 F1200
; --- FIX Y Backlash ---
G0 X53.055 Y92.485 F1200
G1 X56.136 Y93.006 Z0 F1500
G0 Z3.5 F500
G0 X58.271 Y94.205 Z3.5
G1 Z0 F500
G1 X58.265 Y94.89 Z0 F1500
; --- FIX X Backlash ---
G0 X56.965 Y94.89 F1200
; --- FIX Y Backlash ---
G0 X56.965 Y93.59 F1200
G1 X49.396 Y91.598 Z0 F1500
G1 X38.492 Y88.679 Z0 F1500
G1 X35.602 Y87.898 Z0 F1500
; --- FIX X Backlash ---
G0 X36.902 Y87.898 F1200
G1 X38.489 Y87.947 Z0 F1500
G1 X39.174 Y87.896 Z0 F1500
G1 X39.591 Y87.909 Z0 F1500
; --- FIX Y Backlash ---
G0 X39.591 Y89.209 F1200
G1 X40.084 Y89.265 Z0 F1500
G1 X40.659 Y89.362 Z0 F1500
G1 X42.071 Y89.643 Z0 F1500
G1 X43.494 Y89.864 Z0 F1500
G1 X47.761 Y90.585 Z0 F1500
G1 X52.046 Y91.301 Z0 F1500
G1 X56.309 Y92.021 Z0 F1500
G1 X58.226 Y92.357 Z0 F1500
G1 X58.271 Y94.205 Z0 F1500
G0 Z3.5 F500
G0 X59.232 Y96.178 Z3.5
G1 Z0 F500
; --- FIX X Backlash ---
G0 X57.932 Y96.178 F1200
; --- FIX Y Backlash ---
G0 X57.932 Y94.878 F1200
G1 X49.15 Y92.568 Z0 F1500
G1 X38.233 Y89.645 Z0 F1500
G1 X27.328 Y86.698 Z0 F1500
G1 X22.519 Y85.393 Z0 F1500
; --- FIX X Backlash ---
G0 X23.819 Y85.393 F1200
G1 X24.027 Y85.412 Z0 F1500
; --- FIX Y Backlash ---
G0 X24.027 Y86.712 F1200
G1 X26.01 Y86.95 Z0 F1500
G1 X28.002 Y87.223 Z0 F1500
G1 X30.034 Y87.51 Z0 F1500
G1 X32.087 Y87.783 Z0 F1500
G1 X34.169 Y88.015 Z0 F1500
G1 X36.279 Y88.179 Z0 F1500
G1 X38.467 Y88.246 Z0 F1500
; --- FIX Y Backlash ---
G0 X38.467 Y86.946 F1200
G1 X39.155 Y86.895 Z0 F1500
G1 X39.663 Y86.911 Z0 F1500
; --- FIX Y Backlash ---
G0 X39.663 Y88.211 F1200
G1 X40.227 Y88.275 Z0 F1500
G1 X40.836 Y88.377 Z0 F1500
G1 X42.246 Y88.658 Z0 F1500
G1 X43.646 Y88.875 Z0 F1500
G1 X47.927 Y89.599 Z0 F1500
G1 X52.213 Y90.315 Z0 F1500
G1 X56.493 Y91.039 Z0 F1500
G1 X59.185 Y91.51 Z0 F1500
G1 X59.22 Y92.076 Z0 F1500
G1 X59.271 Y94.204 Z0 F1500
G1 X59.262 Y95.245 Z0 F1500
G1 X59.232 Y96.178 Z0 F1500
G0 Z3.5 F500

; Color picking sequence
G1 Z10 F1000;         ; Raise brush
G0 X131 Y5 F1200;    ; Rapid move to color 1
G1 Z10 F1000;         ; Raise brush
G0 X131 Y5 F1200;    ; Rapid move to color 1
G1 Z0 F1000;         ; Lower into color
G1 X130.102 Y7.295 Z0 S800 F1200
G1 X130.026 Y7.642 Z0 F1200
G1 X130 Y8 Z0 F1200
G1 X130.026 Y8.358 Z0 F1200
G1 X130.102 Y8.705 Z0 F1200
G1 X130.225 Y9.041 Z0 F1200
G1 X130.393 Y9.362 Z0 F1200
G1 X130.603 Y9.668 Z0 F1200
G1 X130.854 Y9.957 Z0 F1200
G1 X131.142 Y10.226 Z0 F1200
G1 X131.464 Y10.475 Z0 F1200
G1 X131.82 Y10.701 Z0 F1200
G1 X132.204 Y10.902 Z0 F1200
G1 X132.617 Y11.078 Z0 F1200
G1 X133.054 Y11.225 Z0 F1200
G1 X133.513 Y11.343 Z0 F1200
G1 X133.992 Y11.429 Z0 F1200
G1 X134.489 Y11.482 Z0 F1200
G1 X135 Y11.5 Z0 F1200
G1 X135.511 Y11.482 Z0 F1200
G1 X136.008 Y11.429 Z0 F1200
G1 X136.487 Y11.343 Z0 F1200
G1 X136.946 Y11.225 Z0 F1200
G1 X137.383 Y11.078 Z0 F1200
G1 X137.796 Y10.902 Z0 F1200
G1 X138.18 Y10.701 Z0 F1200
G1 X138.536 Y10.475 Z0 F1200
G1 X138.858 Y10.226 Z0 F1200
G1 X139.146 Y9.957 Z0 F1200
G1 X139.397 Y9.668 Z0 F1200
G1 X139.607 Y9.362 Z0 F1200
G1 X139.775 Y9.041 Z0 F1200
G1 X139.898 Y8.705 Z0 F1200
G1 X139.974 Y8.358 Z0 F1200
G1 X140 Y8 Z0 F1200
G1 X139.974 Y7.642 Z0 F1200
G1 X139.898 Y7.295 Z0 F1200
G1 X139.775 Y6.959 Z0 F1200
G1 X139.607 Y6.638 Z0 F1200
G1 X139.397 Y6.332 Z0 F1200
G1 X139.146 Y6.043 Z0 F1200
G1 X138.858 Y5.774 Z0 F1200
G1 X138.536 Y5.525 Z0 F1200
G1 X138.18 Y5.299 Z0 F1200
G1 X137.796 Y5.098 Z0 F1200
G1 X137.383 Y4.922 Z0 F1200
G1 X136.946 Y4.775 Z0 F1200
G1 X136.487 Y4.657 Z0 F1200
G1 X136.008 Y4.571 Z0 F1200
G1 X135.511 Y4.518 Z0 F1200
G1 X135 Y4.5 Z0 F1200
G1 X134.489 Y4.518 Z0 F1200
G1 X133.992 Y4.571 Z0 F1200
G1 X133.513 Y4.657 Z0 F1200
G1 X133.054 Y4.775 Z0 F1200
G1 X132.617 Y4.922 Z0 F1200
G1 X132.204 Y5.098 Z0 F1200
G1 X131.82 Y5.299 Z0 F1200
G1 X131.464 Y5.525 Z0 F1200
G1 X131.142 Y5.774 Z0 F1200
G1 X130.854 Y6.043 Z0 F1200
G1 X130.603 Y6.332 Z0 F1200
G1 X130.393 Y6.638 Z0 F1200
G1 X130.225 Y6.959 Z0 F1200
G1 Z7 F800;         ; Raise from color
G1 X124 Y8 Z1 F1200;     ; Movement in paint
G1 X114 Y18 Z8 F500;     ; Move in paint
G1 F1200;           ; Set feed rate
G0 Z2.5 F1000 ; Safety Lift
G0 X59.232 Y96.178 F1200 ; Return to pos
; --- FIX X Backlash ---
G0 X57.932 Y96.178 F1200
; --- FIX Y Backlash ---
G0 X57.932 Y94.878 F1200
G0 X19.255 Y84.508 Z3.5
G1 Z0 F500
G1 X17.382 Y84 Z0 F1500
; --- FIX X Backlash ---
G0 X18.682 Y84 F1200
G1 X18.821 Y83.845 Z0 F1500
G1 X19.027 Y83.379 Z0 F1500
; --- FIX Y Backlash ---
G0 X19.027 Y84.679 F1200
G1 X19.556 Y84.753 Z0 F1500
G1 X19.945 Y84.817 Z0 F1500
G1 X20.27 Y85.5 Z0 F1500
G1 X20.555 Y85.808 Z0 F1500
G0 Z3.5 F500
; --- FIX Y Backlash ---
G0 X20.555 Y84.508 F1200
G0 X21.933 Y84.22 Z3.5
G1 Z0 F500
; --- FIX Y Backlash ---
G0 X21.933 Y85.52 F1200
G1 X24.137 Y85.718 Z0 F1500
G1 X26.122 Y85.956 Z0 F1500
G1 X28.142 Y86.233 Z0 F1500
G1 X30.17 Y86.52 Z0 F1500
G1 X32.209 Y86.791 Z0 F1500
G1 X34.263 Y87.02 Z0 F1500
G1 X36.333 Y87.18 Z0 F1500
G1 X38.445 Y87.245 Z0 F1500
; --- FIX Y Backlash ---
G0 X38.445 Y85.945 F1200
G1 X39.131 Y85.893 Z0 F1500
G1 X39.734 Y85.913 Z0 F1500
; --- FIX Y Backlash ---
G0 X39.734 Y87.213 F1200
G1 X40.361 Y87.284 Z0 F1500
G1 X41.02 Y87.395 Z0 F1500
G1 X42.42 Y87.673 Z0 F1500
G1 X43.826 Y87.892 Z0 F1500
G1 X48.093 Y88.613 Z0 F1500
G1 X52.382 Y89.329 Z0 F1500
G1 X56.654 Y90.051 Z0 F1500
G1 X60.134 Y90.661 Z0 F1500
G1 X60.219 Y92.042 Z0 F1500
G1 X60.271 Y94.188 Z0 F1500
G1 X60.262 Y95.265 Z0 F1500
G1 X60.229 Y96.322 Z0 F1500
; --- FIX X Backlash ---
G0 X58.929 Y96.322 F1200
G1 X58.867 Y97.399 Z0 F1500
G1 X58.862 Y97.457 Z0 F1500
; --- FIX Y Backlash ---
G0 X58.862 Y96.157 F1200
G1 X48.887 Y93.533 Z0 F1500
G1 X37.974 Y90.612 Z0 F1500
G1 X27.068 Y87.663 Z0 F1500
G1 X16.127 Y84.696 Z0 F1500
G1 X15.925 Y84.657 Z0 F1500
G1 X15.906 Y84.648 Z0 F1500
G1 X15.903 Y84.645 Z0 F1500
G1 X15.9 Y84.641 Z0 F1500
G1 Y84.629 Z0 F1500
G1 Y84.621 Z0 F1500
; --- FIX X Backlash ---
G0 X17.2 Y84.621 F1200
G1 X17.331 Y84.489 Z0 F1500
G1 X17.514 Y83.993 Z0 F1500
G1 X17.544 Y83.695 Z0 F1500
G1 X17.679 Y83.618 Z0 F1500
G1 X17.971 Y83.295 Z0 F1500
G1 X18.131 Y82.931 Z0 F1500
G1 X18.189 Y82.58 Z0 F1500
G1 X18.17 Y82.23 Z0 F1500
G1 X18.382 Y82.271 Z0 F1500
; --- FIX Y Backlash ---
G0 X18.382 Y83.571 F1200
G1 X19.052 Y83.672 Z0 F1500
G1 X19.69 Y83.763 Z0 F1500
G1 X20.293 Y83.862 Z0 F1500
G1 X20.846 Y83.985 Z0 F1500
G1 X20.93 Y84.012 Z0 F1500
G1 X20.904 Y84.506 Z0 F1500
G1 X21.107 Y84.933 Z0 F1500
G1 X21.342 Y85.186 Z0 F1500
G1 X21.581 Y85.351 Z0 F1500
G1 X21.933 Y85.52 Z0 F1500
G0 Z3.5 F500
G0 X28.106 Y89.928 Z3.5
G1 Z0 F500
; --- FIX X Backlash ---
G0 X26.806 Y89.928 F1200
; --- FIX Y Backlash ---
G0 X26.806 Y88.628 F1200
G1 X15.9 Y85.671 Z0 F1500
G1 X15.613 Y85.615 Z0 F1500
G1 X15.367 Y85.499 Z0 F1500
G1 X15.166 Y85.333 Z0 F1500
G1 X15.016 Y85.126 Z0 F1500
G1 X14.923 Y84.888 Z0 F1500
G1 X14.891 Y84.626 Z0 F1500
G1 X14.926 Y84.352 Z0 F1500
; --- FIX X Backlash ---
G0 X16.226 Y84.352 F1200
G1 X16.333 Y84.075 Z0 F1500
G1 X16.468 Y83.939 Z0 F1500
G1 X16.532 Y83.766 Z0 F1500
G1 X16.551 Y83.573 Z0 F1500
G1 X16.554 Y83.376 Z0 F1500
G1 X16.567 Y83.192 Z0 F1500
G1 X16.617 Y83.038 Z0 F1500
G1 X16.665 Y82.978 Z0 F1500
G1 X16.732 Y82.931 Z0 F1500
G1 X16.821 Y82.901 Z0 F1500
G1 X16.938 Y82.888 Z0 F1500
G1 X17.046 Y82.827 Z0 F1500
G1 X17.121 Y82.744 Z0 F1500
G1 X17.166 Y82.643 Z0 F1500
G1 X17.185 Y82.525 Z0 F1500
G1 X17.17 Y82.256 Z0 F1500
; --- FIX X Backlash ---
G0 X15.87 Y82.256 F1200
G1 X15.762 Y81.66 Z0 F1500
G1 X15.749 Y81.383 Z0 F1500
G1 X15.769 Y81.26 Z0 F1500
G1 X15.815 Y81.152 Z0 F1500
; --- FIX X Backlash ---
G0 X17.115 Y81.152 F1200
G1 X17.191 Y81.062 Z0 F1500
G1 X17.302 Y80.992 Z0 F1500
; --- FIX Y Backlash ---
G0 X17.302 Y82.292 F1200
G1 X17.918 Y82.462 Z0 F1500
G1 X18.553 Y82.585 Z0 F1500
G1 X19.197 Y82.683 Z0 F1500
G1 X19.843 Y82.774 Z0 F1500
G1 X20.482 Y82.879 Z0 F1500
G1 X21.108 Y83.019 Z0 F1500
G1 X21.712 Y83.214 Z0 F1500
G1 X22.286 Y83.483 Z0 F1500
G1 X22.266 Y83.633 Z0 F1500
; --- FIX X Backlash ---
G0 X20.966 Y83.633 F1200
G1 X20.891 Y83.777 Z0 F1500
G1 X20.69 Y84.051 Z0 F1500
G1 X20.622 Y84.18 Z0 F1500
G1 X20.616 Y84.305 Z0 F1500
G1 X20.645 Y84.365 Z0 F1500
; --- FIX X Backlash ---
G0 X21.945 Y84.365 F1200
G1 X22 Y84.425 Z0 F1500
G1 X22.084 Y84.483 Z0 F1500
G1 X22.203 Y84.54 Z0 F1500
G1 X24.232 Y84.722 Z0 F1500
G1 X26.258 Y84.965 Z0 F1500
G1 X28.282 Y85.243 Z0 F1500
G1 X30.306 Y85.529 Z0 F1500
G1 X32.33 Y85.798 Z0 F1500
G1 X34.357 Y86.024 Z0 F1500
G1 X36.387 Y86.181 Z0 F1500
G1 X38.423 Y86.244 Z0 F1500
; --- FIX Y Backlash ---
G0 X38.423 Y84.944 F1200
G1 X39.112 Y84.892 Z0 F1500
G1 X39.806 Y84.915 Z0 F1500
; --- FIX Y Backlash ---
G0 X39.806 Y86.215 F1200
G1 X40.502 Y86.293 Z0 F1500
G1 X41.2 Y86.411 Z0 F1500
G1 X42.595 Y86.688 Z0 F1500
G1 X43.979 Y86.903 Z0 F1500
G1 X48.258 Y87.627 Z0 F1500
G1 X52.546 Y88.343 Z0 F1500
G1 X56.827 Y89.066 Z0 F1500
G1 X61.083 Y89.813 Z0 F1500
G1 X61.218 Y91.994 Z0 F1500
G1 X61.271 Y94.188 Z0 F1500
G1 X61.262 Y95.285 Z0 F1500
G1 X61.227 Y96.38 Z0 F1500
; --- FIX X Backlash ---
G0 X59.927 Y96.38 F1200
G1 X59.864 Y97.472 Z0 F1500
G1 X59.771 Y98.559 Z0 F1500
G1 X59.711 Y98.65 Z0 F1500
G1 X59.613 Y98.684 Z0 F1500
G1 X59.587 Z0 F1500
; --- FIX Y Backlash ---
G0 X59.587 Y97.384 F1200
G1 X48.633 Y94.5 Z0 F1500
G1 X37.716 Y91.577 Z0 F1500
G1 X26.806 Y88.628 Z0 F1500
G0 Z3.5 F500

; Color picking sequence
G1 Z10 F1000;         ; Raise brush
G0 X131 Y5 F1200;    ; Rapid move to color 1
G1 Z10 F1000;         ; Raise brush
G0 X131 Y5 F1200;    ; Rapid move to color 1
G1 Z0 F1000;         ; Lower into color
G1 X130.102 Y7.295 Z0 S800 F1200
G1 X130.026 Y7.642 Z0 F1200
G1 X130 Y8 Z0 F1200
G1 X130.026 Y8.358 Z0 F1200
G1 X130.102 Y8.705 Z0 F1200
G1 X130.225 Y9.041 Z0 F1200
G1 X130.393 Y9.362 Z0 F1200
G1 X130.603 Y9.668 Z0 F1200
G1 X130.854 Y9.957 Z0 F1200
G1 X131.142 Y10.226 Z0 F1200
G1 X131.464 Y10.475 Z0 F1200
G1 X131.82 Y10.701 Z0 F1200
G1 X132.204 Y10.902 Z0 F1200
G1 X132.617 Y11.078 Z0 F1200
G1 X133.054 Y11.225 Z0 F1200
G1 X133.513 Y11.343 Z0 F1200
G1 X133.992 Y11.429 Z0 F1200
G1 X134.489 Y11.482 Z0 F1200
G1 X135 Y11.5 Z0 F1200
G1 X135.511 Y11.482 Z0 F1200
G1 X136.008 Y11.429 Z0 F1200
G1 X136.487 Y11.343 Z0 F1200
G1 X136.946 Y11.225 Z0 F1200
G1 X137.383 Y11.078 Z0 F1200
G1 X137.796 Y10.902 Z0 F1200
G1 X138.18 Y10.701 Z0 F1200
G1 X138.536 Y10.475 Z0 F1200
G1 X138.858 Y10.226 Z0 F1200
G1 X139.146 Y9.957 Z0 F1200
G1 X139.397 Y9.668 Z0 F1200
G1 X139.607 Y9.362 Z0 F1200
G1 X139.775 Y9.041 Z0 F1200
G1 X139.898 Y8.705 Z0 F1200
G1 X139.974 Y8.358 Z0 F1200
G1 X140 Y8 Z0 F1200
G1 X139.974 Y7.642 Z0 F1200
G1 X139.898 Y7.295 Z0 F1200
G1 X139.775 Y6.959 Z0 F1200
G1 X139.607 Y6.638 Z0 F1200
G1 X139.397 Y6.332 Z0 F1200
G1 X139.146 Y6.043 Z0 F1200
G1 X138.858 Y5.774 Z0 F1200
G1 X138.536 Y5.525 Z0 F1200
G1 X138.18 Y5.299 Z0 F1200
G1 X137.796 Y5.098 Z0 F1200
G1 X137.383 Y4.922 Z0 F1200
G1 X136.946 Y4.775 Z0 F1200
G1 X136.487 Y4.657 Z0 F1200
G1 X136.008 Y4.571 Z0 F1200
G1 X135.511 Y4.518 Z0 F1200
G1 X135 Y4.5 Z0 F1200
G1 X134.489 Y4.518 Z0 F1200
G1 X133.992 Y4.571 Z0 F1200
G1 X133.513 Y4.657 Z0 F1200
G1 X133.054 Y4.775 Z0 F1200
G1 X132.617 Y4.922 Z0 F1200
G1 X132.204 Y5.098 Z0 F1200
G1 X131.82 Y5.299 Z0 F1200
G1 X131.464 Y5.525 Z0 F1200
G1 X131.142 Y5.774 Z0 F1200
G1 X130.854 Y6.043 Z0 F1200
G1 X130.603 Y6.332 Z0 F1200
G1 X130.393 Y6.638 Z0 F1200
G1 X130.225 Y6.959 Z0 F1200
G1 Z7 F800;         ; Raise from color
G1 X124 Y8 Z1 F1200;     ; Movement in paint
G1 X114 Y18 Z8 F500;     ; Move in paint
G1 F1200;           ; Set feed rate
G0 Z2.5 F1000 ; Safety Lift
G0 X26.806 Y88.628 F1200 ; Return to pos
; --- FIX X Backlash ---
G0 X28.106 Y88.628 F1200
; --- FIX Y Backlash ---
G0 X28.106 Y89.928 F1200
G0 X79.927 Y91.989 Z3.5
G1 Z0 F500
; --- FIX Y Backlash ---
G0 X79.927 Y90.689 F1200
G1 X81.478 Y90.528 Z0 F1500
; --- FIX X Backlash ---
G0 X80.178 Y90.528 F1200
; --- FIX Y Backlash ---
G0 X80.178 Y91.828 F1200
G1 X72.784 Y93.01 Z0 F1500
; --- FIX X Backlash ---
G0 X74.084 Y93.01 F1200
; --- FIX Y Backlash ---
G0 X74.084 Y91.71 F1200
G1 X74.484 Y91.247 Z0 F1500
G1 X74.814 Y91.207 Z0 F1500
G1 X75.751 Y91.114 Z0 F1500
G1 X77.863 Y90.922 Z0 F1500
G1 X79.927 Y90.689 Z0 F1500
G0 Z3.5 F500
; --- FIX Y Backlash ---
G0 X79.927 Y91.989 F1200
G0 X84.822 Y92.306 Z3.5
G1 Z0 F500
; --- FIX X Backlash ---
G0 X83.522 Y92.306 F1200
G1 X63.619 Y95.487 Z0 F1500
; --- FIX Y Backlash ---
G0 X63.619 Y94.187 F1200
G1 Y93.952 Z0 F1500
G1 X63.6 Y92.802 Z0 F1500
; --- FIX X Backlash ---
G0 X64.9 Y92.802 F1200
G1 X65.503 Y92.772 Z0 F1500
G1 X66.706 Y92.655 Z0 F1500
G1 X68.882 Y92.384 Z0 F1500
G1 X71.175 Y92.177 Z0 F1500
G1 X71.761 Y92.057 Z0 F1500
G1 X72.444 Y91.775 Z0 F1500
G1 X73.109 Y91.309 Z0 F1500
G1 X73.734 Y90.586 Z0 F1500
G1 X73.845 Y90.317 Z0 F1500
G1 X74.687 Y90.215 Z0 F1500
G1 X75.689 Y90.115 Z0 F1500
G1 X77.762 Y89.928 Z0 F1500
G1 X79.823 Y89.695 Z0 F1500
G1 X92.811 Y88.343 Z0 F1500
G1 X105.797 Y87.019 Z0 F1500
G1 X112.043 Y86.377 Z0 F1500
; --- FIX X Backlash ---
G0 X110.743 Y86.377 F1200
; --- FIX Y Backlash ---
G0 X110.743 Y87.677 F1200
G1 X110.631 Y87.872 Z0 F1500
G1 X110.618 Y87.95 Z0 F1500
G1 X110.603 Z0 F1500
G1 X109.754 Y88.079 Z0 F1500
G1 X107.808 Y88.342 Z0 F1500
G1 X105.896 Y88.683 Z0 F1500
G1 X83.522 Y92.306 Z0 F1500
G0 Z3.5 F500
G0 X70.167 Y92.396 Z3.5
G1 Z0 F500
; --- FIX X Backlash ---
G0 X71.467 Y92.396 F1200
; --- FIX Y Backlash ---
G0 X71.467 Y91.096 F1200
G1 X71.961 Y90.893 Z0 F1500
G1 X72.433 Y90.561 Z0 F1500
G1 X72.872 Y90.054 Z0 F1500
G1 X73.139 Y89.409 Z0 F1500
G1 X73.615 Y89.337 Z0 F1500
G1 X74.562 Y89.222 Z0 F1500
G1 X75.59 Y89.12 Z0 F1500
G1 X77.661 Y88.932 Z0 F1500
G1 X79.723 Y88.7 Z0 F1500
G1 X92.703 Y87.348 Z0 F1500
G1 X105.696 Y86.024 Z0 F1500
G1 X118.69 Y84.689 Z0 F1500
G1 X131.662 Y83.306 Z0 F1500
G1 X132.5 Y83.232 Z0 F1500
G1 X132.837 Y83.165 Z0 F1500
G1 X132.842 Y83.179 Z0 F1500
; --- FIX Y Backlash ---
G0 X132.842 Y84.479 F1200
G1 X133.202 Y85.104 Z0 F1500
G1 X133.485 Y85.394 Z0 F1500
; --- FIX X Backlash ---
G0 X132.185 Y85.394 F1200
G1 X130.428 Y85.73 Z0 F1500
G1 X129.536 Y85.896 Z0 F1500
G1 X128.712 Y86.027 Z0 F1500
G1 X128.575 Y86.044 Z0 F1500
; --- FIX Y Backlash ---
G0 X128.575 Y84.744 F1200
G1 X127.81 Y84.175 Z0 F1500
G1 X127.149 Y83.984 Z0 F1500
G1 X126.627 Y83.965 Z0 F1500
G1 X126.32 Y84.006 Z0 F1500
; --- FIX Y Backlash ---
G0 X126.32 Y85.306 F1200
G1 X123.125 Y85.681 Z0 F1500
G1 X119.893 Y86.07 Z0 F1500
G1 X116.72 Y86.42 Z0 F1500
G1 X112.792 Y86.763 Z0 F1500
G1 X111.971 Y87.552 Z0 F1500
G1 X111.588 Y88.214 Z0 F1500
G1 X111.49 Y88.807 Z0 F1500
G1 X110.768 Y88.939 Z0 F1500
G1 X109.888 Y89.07 Z0 F1500
G1 X107.963 Y89.33 Z0 F1500
G1 X106.058 Y89.669 Z0 F1500
G1 X83.68 Y93.293 Z0 F1500
G1 X62.626 Y96.659 Z0 F1500
; --- FIX Y Backlash ---
G0 X62.626 Y95.359 F1200
G1 X62.614 Y95.272 Z0 F1500
G1 X62.62 Y93.958 Z0 F1500
G1 X62.595 Y92.509 Z0 F1500
G1 X62.591 Y91.827 Z0 F1500
; --- FIX X Backlash ---
G0 X63.891 Y91.827 F1200
G1 X64.224 Y91.834 Z0 F1500
G1 X65.431 Y91.774 Z0 F1500
G1 X66.596 Y91.661 Z0 F1500
G1 X68.783 Y91.388 Z0 F1500
G1 X71.029 Y91.186 Z0 F1500
G1 X71.467 Y91.096 Z0 F1500
G0 Z3.5 F500

; Color picking sequence
G1 Z10 F1000;         ; Raise brush
G0 X131 Y5 F1200;    ; Rapid move to color 1
G1 Z10 F1000;         ; Raise brush
G0 X131 Y5 F1200;    ; Rapid move to color 1
G1 Z0 F1000;         ; Lower into color
G1 X130.102 Y7.295 Z0 S800 F1200
G1 X130.026 Y7.642 Z0 F1200
G1 X130 Y8 Z0 F1200
G1 X130.026 Y8.358 Z0 F1200
G1 X130.102 Y8.705 Z0 F1200
G1 X130.225 Y9.041 Z0 F1200
G1 X130.393 Y9.362 Z0 F1200
G1 X130.603 Y9.668 Z0 F1200
G1 X130.854 Y9.957 Z0 F1200
G1 X131.142 Y10.226 Z0 F1200
G1 X131.464 Y10.475 Z0 F1200
G1 X131.82 Y10.701 Z0 F1200
G1 X132.204 Y10.902 Z0 F1200
G1 X132.617 Y11.078 Z0 F1200
G1 X133.054 Y11.225 Z0 F1200
G1 X133.513 Y11.343 Z0 F1200
G1 X133.992 Y11.429 Z0 F1200
G1 X134.489 Y11.482 Z0 F1200
G1 X135 Y11.5 Z0 F1200
G1 X135.511 Y11.482 Z0 F1200
G1 X136.008 Y11.429 Z0 F1200
G1 X136.487 Y11.343 Z0 F1200
G1 X136.946 Y11.225 Z0 F1200
G1 X137.383 Y11.078 Z0 F1200
G1 X137.796 Y10.902 Z0 F1200
G1 X138.18 Y10.701 Z0 F1200
G1 X138.536 Y10.475 Z0 F1200
G1 X138.858 Y10.226 Z0 F1200
G1 X139.146 Y9.957 Z0 F1200
G1 X139.397 Y9.668 Z0 F1200
G1 X139.607 Y9.362 Z0 F1200
G1 X139.775 Y9.041 Z0 F1200
G1 X139.898 Y8.705 Z0 F1200
G1 X139.974 Y8.358 Z0 F1200
G1 X140 Y8 Z0 F1200
G1 X139.974 Y7.642 Z0 F1200
G1 X139.898 Y7.295 Z0 F1200
G1 X139.775 Y6.959 Z0 F1200
G1 X139.607 Y6.638 Z0 F1200
G1 X139.397 Y6.332 Z0 F1200
G1 X139.146 Y6.043 Z0 F1200
G1 X138.858 Y5.774 Z0 F1200
G1 X138.536 Y5.525 Z0 F1200
G1 X138.18 Y5.299 Z0 F1200
G1 X137.796 Y5.098 Z0 F1200
G1 X137.383 Y4.922 Z0 F1200
G1 X136.946 Y4.775 Z0 F1200
G1 X136.487 Y4.657 Z0 F1200
G1 X136.008 Y4.571 Z0 F1200
G1 X135.511 Y4.518 Z0 F1200
G1 X135 Y4.5 Z0 F1200
G1 X134.489 Y4.518 Z0 F1200
G1 X133.992 Y4.571 Z0 F1200
G1 X133.513 Y4.657 Z0 F1200
G1 X133.054 Y4.775 Z0 F1200
G1 X132.617 Y4.922 Z0 F1200
G1 X132.204 Y5.098 Z0 F1200
G1 X131.82 Y5.299 Z0 F1200
G1 X131.464 Y5.525 Z0 F1200
G1 X131.142 Y5.774 Z0 F1200
G1 X130.854 Y6.043 Z0 F1200
G1 X130.603 Y6.332 Z0 F1200
G1 X130.393 Y6.638 Z0 F1200
G1 X130.225 Y6.959 Z0 F1200
G1 Z7 F800;         ; Raise from color
G1 X124 Y8 Z1 F1200;     ; Movement in paint
G1 X114 Y18 Z8 F500;     ; Move in paint
G1 F1200;           ; Set feed rate
G0 Z2.5 F1000 ; Safety Lift
G0 X71.467 Y91.096 F1200 ; Return to pos
G0 X79.616 Y87.705 Z3.5
G1 Z0 F500
G1 X92.604 Y86.353 Z0 F1500
G1 X105.594 Y85.029 Z0 F1500
G1 X118.586 Y83.695 Z0 F1500
G1 X131.553 Y82.312 Z0 F1500
G1 X132.357 Y82.241 Z0 F1500
G1 X133.177 Y82.076 Z0 F1500
G1 X133.482 Y82.03 Z0 F1500
G1 X133.542 Y82.027 Z0 F1500
; --- FIX Y Backlash ---
G0 X133.542 Y83.327 F1200
G1 X133.606 Y83.632 Z0 F1500
G1 X133.755 Y84.061 Z0 F1500
G1 X134.005 Y84.496 Z0 F1500
G1 X134.365 Y84.863 Z0 F1500
G1 X134.651 Y85.043 Z0 F1500
G1 X134.788 Y85.1 Z0 F1500
G1 X134.809 Y85.318 Z0 F1500
G1 Y85.608 Z0 F1500
G1 X134.764 Y86.209 Z0 F1500
; --- FIX X Backlash ---
G0 X133.464 Y86.209 F1200
G1 X132.424 Y86.366 Z0 F1500
G1 X130.61 Y86.714 Z0 F1500
G1 X129.716 Y86.879 Z0 F1500
G1 X128.851 Y87.018 Z0 F1500
G1 X127.991 Y87.122 Z0 F1500
G1 X127.955 Y87.125 Z0 F1500
; --- FIX Y Backlash ---
G0 X127.955 Y85.825 F1200
G1 X127.778 Y85.397 Z0 F1500
G1 X127.359 Y85.086 Z0 F1500
G1 X126.989 Y84.979 Z0 F1500
G1 X126.676 Y84.967 Z0 F1500
G1 X126.453 Y84.997 Z0 F1500
; --- FIX Y Backlash ---
G0 X126.453 Y86.297 F1200
G1 X123.243 Y86.673 Z0 F1500
G1 X120.023 Y87.062 Z0 F1500
G1 X116.791 Y87.418 Z0 F1500
G1 X113.23 Y87.729 Z0 F1500
G1 X112.765 Y88.175 Z0 F1500
G1 X112.545 Y88.557 Z0 F1500
G1 X112.47 Y89.008 Z0 F1500
; --- FIX X Backlash ---
G0 X113.77 Y89.008 F1200
G1 X113.851 Y89.449 Z0 F1500
G1 X113.923 Y89.574 Z0 F1500
; --- FIX X Backlash ---
G0 X112.623 Y89.574 F1200
G1 X111.825 Y89.762 Z0 F1500
G1 X110.93 Y89.925 Z0 F1500
G1 X110.022 Y90.061 Z0 F1500
G1 X108.117 Y90.318 Z0 F1500
G1 X106.249 Y90.651 Z0 F1500
G1 X83.836 Y94.281 Z0 F1500
G1 X61.617 Y97.833 Z0 F1500
; --- FIX Y Backlash ---
G0 X61.617 Y96.533 F1200
G1 X61.625 Y96.36 Z0 F1500
G1 X61.647 Y96.01 Z0 F1500
G1 X61.651 Y95.606 Z0 F1500
G1 X61.614 Y95.342 Z0 F1500
G1 X61.62 Y93.965 Z0 F1500
G1 X61.595 Y92.502 Z0 F1500
G1 X61.591 Y91.815 Z0 F1500
G1 X61.603 Y91.113 Z0 F1500
G1 X61.619 Y90.798 Z0 F1500
; --- FIX X Backlash ---
G0 X62.919 Y90.798 F1200
G1 X63.038 Y90.811 Z0 F1500
G1 X64.209 Y90.833 Z0 F1500
G1 X65.357 Y90.777 Z0 F1500
G1 X66.486 Y90.667 Z0 F1500
G1 X68.655 Y90.396 Z0 F1500
G1 X70.883 Y90.195 Z0 F1500
G1 X71.174 Y90.136 Z0 F1500
G1 X71.477 Y90.011 Z0 F1500
G1 X71.758 Y89.814 Z0 F1500
G1 X72.01 Y89.522 Z0 F1500
G1 X72.203 Y89.054 Z0 F1500
G1 X72.248 Y88.632 Z0 F1500
G1 Y88.543 Z0 F1500
G1 X72.485 Y88.497 Z0 F1500
G1 X73.474 Y88.347 Z0 F1500
G1 X74.461 Y88.228 Z0 F1500
G1 X75.481 Y88.126 Z0 F1500
G1 X77.56 Y87.938 Z0 F1500
G1 X79.616 Y87.705 Z0 F1500
G0 Z3.5 F500

; Color picking sequence
G1 Z10 F1000;         ; Raise brush
G0 X131 Y5 F1200;    ; Rapid move to color 1
G1 Z10 F1000;         ; Raise brush
G0 X131 Y5 F1200;    ; Rapid move to color 1
G1 Z0 F1000;         ; Lower into color
G1 X130.102 Y7.295 Z0 S800 F1200
G1 X130.026 Y7.642 Z0 F1200
G1 X130 Y8 Z0 F1200
G1 X130.026 Y8.358 Z0 F1200
G1 X130.102 Y8.705 Z0 F1200
G1 X130.225 Y9.041 Z0 F1200
G1 X130.393 Y9.362 Z0 F1200
G1 X130.603 Y9.668 Z0 F1200
G1 X130.854 Y9.957 Z0 F1200
G1 X131.142 Y10.226 Z0 F1200
G1 X131.464 Y10.475 Z0 F1200
G1 X131.82 Y10.701 Z0 F1200
G1 X132.204 Y10.902 Z0 F1200
G1 X132.617 Y11.078 Z0 F1200
G1 X133.054 Y11.225 Z0 F1200
G1 X133.513 Y11.343 Z0 F1200
G1 X133.992 Y11.429 Z0 F1200
G1 X134.489 Y11.482 Z0 F1200
G1 X135 Y11.5 Z0 F1200
G1 X135.511 Y11.482 Z0 F1200
G1 X136.008 Y11.429 Z0 F1200
G1 X136.487 Y11.343 Z0 F1200
G1 X136.946 Y11.225 Z0 F1200
G1 X137.383 Y11.078 Z0 F1200
G1 X137.796 Y10.902 Z0 F1200
G1 X138.18 Y10.701 Z0 F1200
G1 X138.536 Y10.475 Z0 F1200
G1 X138.858 Y10.226 Z0 F1200
G1 X139.146 Y9.957 Z0 F1200
G1 X139.397 Y9.668 Z0 F1200
G1 X139.607 Y9.362 Z0 F1200
G1 X139.775 Y9.041 Z0 F1200
G1 X139.898 Y8.705 Z0 F1200
G1 X139.974 Y8.358 Z0 F1200
G1 X140 Y8 Z0 F1200
G1 X139.974 Y7.642 Z0 F1200
G1 X139.898 Y7.295 Z0 F1200
G1 X139.775 Y6.959 Z0 F1200
G1 X139.607 Y6.638 Z0 F1200
G1 X139.397 Y6.332 Z0 F1200
G1 X139.146 Y6.043 Z0 F1200
G1 X138.858 Y5.774 Z0 F1200
G1 X138.536 Y5.525 Z0 F1200
G1 X138.18 Y5.299 Z0 F1200
G1 X137.796 Y5.098 Z0 F1200
G1 X137.383 Y4.922 Z0 F1200
G1 X136.946 Y4.775 Z0 F1200
G1 X136.487 Y4.657 Z0 F1200
G1 X136.008 Y4.571 Z0 F1200
G1 X135.511 Y4.518 Z0 F1200
G1 X135 Y4.5 Z0 F1200
G1 X134.489 Y4.518 Z0 F1200
G1 X133.992 Y4.571 Z0 F1200
G1 X133.513 Y4.657 Z0 F1200
G1 X133.054 Y4.775 Z0 F1200
G1 X132.617 Y4.922 Z0 F1200
G1 X132.204 Y5.098 Z0 F1200
G1 X131.82 Y5.299 Z0 F1200
G1 X131.464 Y5.525 Z0 F1200
G1 X131.142 Y5.774 Z0 F1200
G1 X130.854 Y6.043 Z0 F1200
G1 X130.603 Y6.332 Z0 F1200
G1 X130.393 Y6.638 Z0 F1200
G1 X130.225 Y6.959 Z0 F1200
G1 Z7 F800;         ; Raise from color
G1 X124 Y8 Z1 F1200;     ; Movement in paint
G1 X114 Y18 Z8 F500;     ; Move in paint
G1 F1200;           ; Set feed rate
G0 Z2.5 F1000 ; Safety Lift
G0 X79.616 Y87.705 F1200 ; Return to pos
G0 X92.5 Y85.359 Z3.5
G1 Z0 F500
G1 X105.492 Y84.034 Z0 F1500
G1 X118.482 Y82.7 Z0 F1500
G1 X131.464 Y81.316 Z0 F1500
G1 X132.214 Y81.25 Z0 F1500
G1 X132.997 Y81.093 Z0 F1500
G1 X133.385 Y81.033 Z0 F1500
G1 X133.765 Y81.014 Z0 F1500
G1 X134.129 Y81.057 Z0 F1500
; --- FIX Y Backlash ---
G0 X134.129 Y82.357 F1200
G1 X134.472 Y82.484 Z0 F1500
G1 X134.479 Y82.769 Z0 F1500
G1 X134.51 Y83.068 Z0 F1500
G1 X134.572 Y83.365 Z0 F1500
G1 X134.669 Y83.644 Z0 F1500
G1 X134.809 Y83.887 Z0 F1500
G1 X134.998 Y84.08 Z0 F1500
G1 X135.112 Y84.152 Z0 F1500
G1 X135.242 Y84.206 Z0 F1500
G1 X135.386 Y84.239 Z0 F1500
G1 X135.546 Y84.249 Z0 F1500
G1 X135.69 Y84.564 Z0 F1500
G1 X135.773 Y84.908 Z0 F1500
G1 X135.809 Y85.271 Z0 F1500
G1 Y85.645 Z0 F1500
; --- FIX X Backlash ---
G0 X134.509 Y85.645 F1200
G1 X134.401 Y87.08 Z0 F1500
G1 X132.593 Y87.352 Z0 F1500
G1 X130.792 Y87.697 Z0 F1500
G1 X129.891 Y87.864 Z0 F1500
G1 X128.99 Y88.008 Z0 F1500
G1 X128.086 Y88.118 Z0 F1500
G1 X127.18 Y88.178 Z0 F1500
; --- FIX Y Backlash ---
G0 X127.18 Y86.878 F1200
G1 X127.048 Y86.784 Z0 F1500
G1 X126.998 Y86.644 Z0 F1500
G1 Y86.479 Z0 F1500
G1 X127.011 Y86.308 Z0 F1500
G1 Y86.154 Z0 F1500
G1 X126.96 Y86.035 Z0 F1500
G1 X126.907 Y85.996 Z0 F1500
G1 X126.829 Y85.973 Z0 F1500
G1 X126.724 Y85.97 Z0 F1500
G1 X126.586 Y85.988 Z0 F1500
; --- FIX Y Backlash ---
G0 X126.586 Y87.288 F1200
G1 X123.361 Y87.667 Z0 F1500
G1 X120.133 Y88.056 Z0 F1500
G1 X116.901 Y88.413 Z0 F1500
G1 X113.668 Y88.694 Z0 F1500
G1 X113.56 Y88.798 Z0 F1500
G1 X113.502 Y88.899 Z0 F1500
G1 X113.485 Y89 Z0 F1500
G1 X113.503 Y89.098 Z0 F1500
; --- FIX X Backlash ---
G0 X114.803 Y89.098 F1200
G1 X114.915 Y89.291 Z0 F1500
G1 X115.243 Y89.668 Z0 F1500
G1 X115.345 Y89.856 Z0 F1500
G1 X115.356 Y89.952 Z0 F1500
G1 X115.331 Y90.048 Z0 F1500
; --- FIX X Backlash ---
G0 X114.031 Y90.048 F1200
G1 X113.963 Y90.146 Z0 F1500
G1 X113.844 Y90.245 Z0 F1500
G1 X112.943 Y90.525 Z0 F1500
G1 X112.026 Y90.742 Z0 F1500
G1 X111.096 Y90.912 Z0 F1500
G1 X110.157 Y91.052 Z0 F1500
G1 X108.272 Y91.307 Z0 F1500
G1 X106.408 Y91.639 Z0 F1500
G1 X83.996 Y95.268 Z0 F1500
G1 X61.576 Y98.852 Z0 F1500
G1 X61.383 Y98.874 Z0 F1500
G1 X61.189 Y98.893 Z0 F1500
G1 X61.124 Z0 F1500
G1 X61.059 Z0 F1500
; --- FIX Y Backlash ---
G0 X61.059 Y97.593 F1200
G1 X60.929 Y97.525 Z0 F1500
G1 X60.826 Y97.438 Z0 F1500
G1 X60.747 Y97.332 Z0 F1500
G1 X60.689 Y97.212 Z0 F1500
G1 X60.625 Y96.935 Z0 F1500
G1 X60.612 Y96.623 Z0 F1500
G1 X60.627 Y96.297 Z0 F1500
G1 X60.647 Y95.973 Z0 F1500
G1 X60.65 Y95.67 Z0 F1500
G1 X60.614 Y95.407 Z0 F1500
G1 X60.62 Y93.971 Z0 F1500
G1 X60.595 Y92.52 Z0 F1500
G1 X60.591 Y91.798 Z0 F1500
G1 X60.603 Y91.083 Z0 F1500
G1 X60.64 Y90.38 Z0 F1500
; --- FIX X Backlash ---
G0 X61.94 Y90.38 F1200
G1 X62.011 Y89.692 Z0 F1500
; --- FIX Y Backlash ---
G0 X62.011 Y90.992 F1200
G1 X63.103 Y91.112 Z0 F1500
G1 X64.194 Y91.133 Z0 F1500
; --- FIX Y Backlash ---
G0 X64.194 Y89.833 F1200
G1 X65.285 Y89.779 Z0 F1500
G1 X66.375 Y89.673 Z0 F1500
G1 X68.557 Y89.401 Z0 F1500
G1 X70.737 Y89.204 Z0 F1500
G1 X70.88 Y89.175 Z0 F1500
G1 X70.994 Y89.128 Z0 F1500
G1 X71.082 Y89.066 Z0 F1500
G1 X71.147 Y88.991 Z0 F1500
G1 X71.224 Y88.805 Z0 F1500
G1 X71.247 Y88.589 Z0 F1500
G1 X71.243 Y88.355 Z0 F1500
G1 X71.235 Y88.121 Z0 F1500
G1 X71.248 Y87.9 Z0 F1500
G1 X71.308 Y87.708 Z0 F1500
G1 X72.315 Y87.511 Z0 F1500
G1 X73.333 Y87.357 Z0 F1500
G1 X74.36 Y87.233 Z0 F1500
G1 X75.391 Y87.13 Z0 F1500
G1 X77.458 Y86.943 Z0 F1500
G1 X79.513 Y86.711 Z0 F1500
G1 X92.5 Y85.359 Z0 F1500
G0 Z3.5 F500

; Color picking sequence
G1 Z10 F1000;         ; Raise brush
G0 X131 Y5 F1200;    ; Rapid move to color 1
G1 Z10 F1000;         ; Raise brush
G0 X131 Y5 F1200;    ; Rapid move to color 1
G1 Z0 F1000;         ; Lower into color
G1 X130.102 Y7.295 Z0 S800 F1200
G1 X130.026 Y7.642 Z0 F1200
G1 X130 Y8 Z0 F1200
G1 X130.026 Y8.358 Z0 F1200
G1 X130.102 Y8.705 Z0 F1200
G1 X130.225 Y9.041 Z0 F1200
G1 X130.393 Y9.362 Z0 F1200
G1 X130.603 Y9.668 Z0 F1200
G1 X130.854 Y9.957 Z0 F1200
G1 X131.142 Y10.226 Z0 F1200
G1 X131.464 Y10.475 Z0 F1200
G1 X131.82 Y10.701 Z0 F1200
G1 X132.204 Y10.902 Z0 F1200
G1 X132.617 Y11.078 Z0 F1200
G1 X133.054 Y11.225 Z0 F1200
G1 X133.513 Y11.343 Z0 F1200
G1 X133.992 Y11.429 Z0 F1200
G1 X134.489 Y11.482 Z0 F1200
G1 X135 Y11.5 Z0 F1200
G1 X135.511 Y11.482 Z0 F1200
G1 X136.008 Y11.429 Z0 F1200
G1 X136.487 Y11.343 Z0 F1200
G1 X136.946 Y11.225 Z0 F1200
G1 X137.383 Y11.078 Z0 F1200
G1 X137.796 Y10.902 Z0 F1200
G1 X138.18 Y10.701 Z0 F1200
G1 X138.536 Y10.475 Z0 F1200
G1 X138.858 Y10.226 Z0 F1200
G1 X139.146 Y9.957 Z0 F1200
G1 X139.397 Y9.668 Z0 F1200
G1 X139.607 Y9.362 Z0 F1200
G1 X139.775 Y9.041 Z0 F1200
G1 X139.898 Y8.705 Z0 F1200
G1 X139.974 Y8.358 Z0 F1200
G1 X140 Y8 Z0 F1200
G1 X139.974 Y7.642 Z0 F1200
G1 X139.898 Y7.295 Z0 F1200
G1 X139.775 Y6.959 Z0 F1200
G1 X139.607 Y6.638 Z0 F1200
G1 X139.397 Y6.332 Z0 F1200
G1 X139.146 Y6.043 Z0 F1200
G1 X138.858 Y5.774 Z0 F1200
G1 X138.536 Y5.525 Z0 F1200
G1 X138.18 Y5.299 Z0 F1200
G1 X137.796 Y5.098 Z0 F1200
G1 X137.383 Y4.922 Z0 F1200
G1 X136.946 Y4.775 Z0 F1200
G1 X136.487 Y4.657 Z0 F1200
G1 X136.008 Y4.571 Z0 F1200
G1 X135.511 Y4.518 Z0 F1200
G1 X135 Y4.5 Z0 F1200
G1 X134.489 Y4.518 Z0 F1200
G1 X133.992 Y4.571 Z0 F1200
G1 X133.513 Y4.657 Z0 F1200
G1 X133.054 Y4.775 Z0 F1200
G1 X132.617 Y4.922 Z0 F1200
G1 X132.204 Y5.098 Z0 F1200
G1 X131.82 Y5.299 Z0 F1200
G1 X131.464 Y5.525 Z0 F1200
G1 X131.142 Y5.774 Z0 F1200
G1 X130.854 Y6.043 Z0 F1200
G1 X130.603 Y6.332 Z0 F1200
G1 X130.393 Y6.638 Z0 F1200
G1 X130.225 Y6.959 Z0 F1200
G1 Z7 F800;         ; Raise from color
G1 X124 Y8 Z1 F1200;     ; Movement in paint
G1 X114 Y18 Z8 F500;     ; Move in paint
G1 F1200;           ; Set feed rate
G0 Z2.5 F1000 ; Safety Lift
G0 X92.5 Y85.359 F1200 ; Return to pos
G0 X100.224 Y54.972 Z3.5
G1 Z0 F500
; --- FIX X Backlash ---
G0 X98.924 Y54.972 F1200
; --- FIX Y Backlash ---
G0 X98.924 Y56.272 F1200
G1 X98.865 Y65.853 Z0 F1500
G1 X98.77 Y75.432 Z0 F1500
G1 X98.647 Y84.162 Z0 F1500
G1 X98.46 Y84.182 Z0 F1500
G1 X97.935 Y84.213 Z0 F1500
G1 X97.669 Z0 F1500
; --- FIX Y Backlash ---
G0 X97.669 Y82.913 F1200
G1 X97.576 Y74.39 Z0 F1500
G1 X97.48 Y64.939 Z0 F1500
G1 X97.413 Y55.49 Z0 F1500
G1 X97.4 Y46.783 Z0 F1500
; --- FIX X Backlash ---
G0 X98.7 Y46.783 F1200
G1 X98.846 Y46.739 Z0 F1500
G1 X99.7 Y46.492 Z0 F1500
G1 X100.088 Y46.407 Z0 F1500
G1 X100.248 Y46.385 Z0 F1500
; --- FIX Y Backlash ---
G0 X100.248 Y47.685 F1200
G1 X100.224 Y56.272 Z0 F1500
G0 Z3.5 F500
G0 X101.165 Y65.863 Z3.5
G1 Z0 F500
; --- FIX X Backlash ---
G0 X99.865 Y65.863 F1200
G1 X99.77 Y75.446 Z0 F1500
G1 X99.635 Y85.029 Z0 F1500
G1 X99.114 Y85.115 Z0 F1500
G1 X98.547 Y85.179 Z0 F1500
G1 X97.962 Y85.213 Z0 F1500
G1 X97.386 Z0 F1500
G1 X97.02 Y85.193 Z0 F1500
G1 X96.679 Y85.153 Z0 F1500
; --- FIX Y Backlash ---
G0 X96.679 Y83.853 F1200
G1 X96.576 Y74.401 Z0 F1500
G1 X96.48 Y64.949 Z0 F1500
G1 X96.413 Y55.496 Z0 F1500
G1 X96.399 Y46.044 Z0 F1500
; --- FIX X Backlash ---
G0 X97.699 Y46.044 F1200
G1 X98.554 Y45.783 Z0 F1500
G1 X99.456 Y45.521 Z0 F1500
G1 X99.913 Y45.422 Z0 F1500
G1 X100.367 Y45.359 Z0 F1500
G1 X100.814 Y45.346 Z0 F1500
G1 X101.25 Y45.395 Z0 F1500
; --- FIX Y Backlash ---
G0 X101.25 Y46.695 F1200
G1 X101.224 Y56.279 Z0 F1500
; --- FIX X Backlash ---
G0 X99.924 Y56.279 F1200
G1 X99.865 Y65.863 Z0 F1500
G0 Z3.5 F500

; Color picking sequence
G1 Z10 F1000;         ; Raise brush
G0 X131 Y5 F1200;    ; Rapid move to color 1
G1 Z10 F1000;         ; Raise brush
G0 X131 Y5 F1200;    ; Rapid move to color 1
G1 Z0 F1000;         ; Lower into color
G1 X130.102 Y7.295 Z0 S800 F1200
G1 X130.026 Y7.642 Z0 F1200
G1 X130 Y8 Z0 F1200
G1 X130.026 Y8.358 Z0 F1200
G1 X130.102 Y8.705 Z0 F1200
G1 X130.225 Y9.041 Z0 F1200
G1 X130.393 Y9.362 Z0 F1200
G1 X130.603 Y9.668 Z0 F1200
G1 X130.854 Y9.957 Z0 F1200
G1 X131.142 Y10.226 Z0 F1200
G1 X131.464 Y10.475 Z0 F1200
G1 X131.82 Y10.701 Z0 F1200
G1 X132.204 Y10.902 Z0 F1200
G1 X132.617 Y11.078 Z0 F1200
G1 X133.054 Y11.225 Z0 F1200
G1 X133.513 Y11.343 Z0 F1200
G1 X133.992 Y11.429 Z0 F1200
G1 X134.489 Y11.482 Z0 F1200
G1 X135 Y11.5 Z0 F1200
G1 X135.511 Y11.482 Z0 F1200
G1 X136.008 Y11.429 Z0 F1200
G1 X136.487 Y11.343 Z0 F1200
G1 X136.946 Y11.225 Z0 F1200
G1 X137.383 Y11.078 Z0 F1200
G1 X137.796 Y10.902 Z0 F1200
G1 X138.18 Y10.701 Z0 F1200
G1 X138.536 Y10.475 Z0 F1200
G1 X138.858 Y10.226 Z0 F1200
G1 X139.146 Y9.957 Z0 F1200
G1 X139.397 Y9.668 Z0 F1200
G1 X139.607 Y9.362 Z0 F1200
G1 X139.775 Y9.041 Z0 F1200
G1 X139.898 Y8.705 Z0 F1200
G1 X139.974 Y8.358 Z0 F1200
G1 X140 Y8 Z0 F1200
G1 X139.974 Y7.642 Z0 F1200
G1 X139.898 Y7.295 Z0 F1200
G1 X139.775 Y6.959 Z0 F1200
G1 X139.607 Y6.638 Z0 F1200
G1 X139.397 Y6.332 Z0 F1200
G1 X139.146 Y6.043 Z0 F1200
G1 X138.858 Y5.774 Z0 F1200
G1 X138.536 Y5.525 Z0 F1200
G1 X138.18 Y5.299 Z0 F1200
G1 X137.796 Y5.098 Z0 F1200
G1 X137.383 Y4.922 Z0 F1200
G1 X136.946 Y4.775 Z0 F1200
G1 X136.487 Y4.657 Z0 F1200
G1 X136.008 Y4.571 Z0 F1200
G1 X135.511 Y4.518 Z0 F1200
G1 X135 Y4.5 Z0 F1200
G1 X134.489 Y4.518 Z0 F1200
G1 X133.992 Y4.571 Z0 F1200
G1 X133.513 Y4.657 Z0 F1200
G1 X133.054 Y4.775 Z0 F1200
G1 X132.617 Y4.922 Z0 F1200
G1 X132.204 Y5.098 Z0 F1200
G1 X131.82 Y5.299 Z0 F1200
G1 X131.464 Y5.525 Z0 F1200
G1 X131.142 Y5.774 Z0 F1200
G1 X130.854 Y6.043 Z0 F1200
G1 X130.603 Y6.332 Z0 F1200
G1 X130.393 Y6.638 Z0 F1200
G1 X130.225 Y6.959 Z0 F1200
G1 Z7 F800;         ; Raise from color
G1 X124 Y8 Z1 F1200;     ; Movement in paint
G1 X114 Y18 Z8 F500;     ; Move in paint
G1 F1200;           ; Set feed rate
G0 Z2.5 F1000 ; Safety Lift
G0 X99.865 Y65.863 F1200 ; Return to pos
; --- FIX X Backlash ---
G0 X101.165 Y65.863 F1200
; --- FIX Y Backlash ---
G0 X101.165 Y64.563 F1200
G0 X106.939 Y48.601 Z3.5
G1 Z0 F500
; --- FIX Y Backlash ---
G0 X106.939 Y49.901 F1200
G1 X108.452 Y50.21 Z0 F1500
G1 X109.558 Y50.466 Z0 F1500
G1 X110.712 Y50.707 Z0 F1500
G1 X110.729 Y50.71 Z0 F1500
; --- FIX X Backlash ---
G0 X109.429 Y50.71 F1200
G1 X109.242 Y50.875 Z0 F1500
; --- FIX X Backlash ---
G0 X110.542 Y50.875 F1200
G1 X110.66 Y51.838 Z0 F1500
; --- FIX X Backlash ---
G0 X109.36 Y51.838 F1200
G1 X109.251 Y51.821 Z0 F1500
; --- FIX Y Backlash ---
G0 X109.251 Y50.521 F1200
G1 X106.73 Y50.112 Z0 F1500
G1 X105.792 Y49.989 Z0 F1500
G1 X104.863 Y49.829 Z0 F1500
G1 X104.536 Y49.778 Z0 F1500
G1 Y49.164 Z0 F1500
G1 X104.523 Y48.349 Z0 F1500
; --- FIX X Backlash ---
G0 X105.823 Y48.349 F1200
; --- FIX Y Backlash ---
G0 X105.823 Y49.649 F1200
G1 X106.939 Y49.901 Z0 F1500
G0 Z3.5 F500
G0 X111.599 Y51.277 Z3.5
G1 Z0 F500
G1 X111.707 Y52.158 Z0 F1500
G1 X112.011 Y52.61 Z0 F1500
G1 X112.371 Y52.846 Z0 F1500
G1 X112.673 Y52.956 Z0 F1500
G1 X112.993 Y53.015 Z0 F1500
G1 X113.235 Y53.065 Z0 F1500
G1 X114.754 Y53.295 Z0 F1500
G1 X116.251 Y53.476 Z0 F1500
G1 X117.729 Y53.658 Z0 F1500
G1 X119.205 Y53.894 Z0 F1500
G1 X120.479 Y54.023 Z0 F1500
G1 X121.728 Y54.206 Z0 F1500
G1 X122.385 Y54.292 Z0 F1500
G1 X123.063 Y54.355 Z0 F1500
G1 X123.762 Y54.381 Z0 F1500
G1 X124.516 Y54.354 Z0 F1500
; --- FIX Y Backlash ---
G0 X124.516 Y53.054 F1200
G1 X125.22 Y52.911 Z0 F1500
G1 X125.818 Y52.748 Z0 F1500
G1 X126.312 Y52.636 Z0 F1500
G1 X126.606 Y52.615 Z0 F1500
; --- FIX Y Backlash ---
G0 X126.606 Y53.915 F1200
G1 X126.756 Y53.973 Z0 F1500
G1 X126.85 Z0 F1500
G1 X127.481 Y54.216 Z0 F1500
G1 X127.876 Y54.318 Z0 F1500
G1 X128.253 Y54.381 Z0 F1500
G1 X128.608 Y54.419 Z0 F1500
G1 X129.09 Y54.454 Z0 F1500
G1 X129.114 Y54.847 Z0 F1500
G1 X129.279 Y55.758 Z0 F1500
; --- FIX X Backlash ---
G0 X127.979 Y55.758 F1200
G1 X127.687 Y55.717 Z0 F1500
; --- FIX Y Backlash ---
G0 X127.687 Y54.417 F1200
G1 X125.354 Y54.045 Z0 F1500
G1 X124.175 Y53.887 Z0 F1500
G1 X121.564 Y53.452 Z0 F1500
G1 X118.922 Y53.028 Z0 F1500
G1 X116.636 Y52.683 Z0 F1500
G1 X114.381 Y52.336 Z0 F1500
G1 X113.693 Y52.209 Z0 F1500
G1 X112.988 Y52.082 Z0 F1500
G1 X112.258 Y51.972 Z0 F1500
G1 X111.573 Y51.902 Z0 F1500
G1 X109.095 Y51.508 Z0 F1500
G1 X106.585 Y51.101 Z0 F1500
G1 X105.627 Y50.976 Z0 F1500
G1 X104.7 Y50.816 Z0 F1500
G1 X103.71 Y50.66 Z0 F1500
G1 X103.55 Y50.646 Z0 F1500
G1 Y50.607 Z0 F1500
G1 X103.538 Y50.242 Z0 F1500
G1 X103.534 Y49.173 Z0 F1500
G1 X103.518 Y48.079 Z0 F1500
G1 X103.513 Y47.106 Z0 F1500
; --- FIX X Backlash ---
G0 X104.813 Y47.106 F1200
; --- FIX Y Backlash ---
G0 X104.813 Y48.406 F1200
G1 X105.131 Y48.495 Z0 F1500
G1 X105.664 Y48.589 Z0 F1500
G1 X107.149 Y48.923 Z0 F1500
G1 X108.64 Y49.228 Z0 F1500
G1 X109.772 Y49.489 Z0 F1500
G1 X110.913 Y49.727 Z0 F1500
G1 X112.044 Y49.955 Z0 F1500
G1 X112.519 Y50.055 Z0 F1500
G1 X112.524 Y50.167 Z0 F1500
G1 X112.611 Y50.542 Z0 F1500
G1 X112.561 Y50.557 Z0 F1500
; --- FIX X Backlash ---
G0 X111.261 Y50.557 F1200
G1 X110.918 Y50.73 Z0 F1500
G1 X110.299 Y51.277 Z0 F1500
G0 Z3.5 F500
G0 X106.44 Y53.391 Z3.5
G1 Z0 F500
; --- FIX Y Backlash ---
G0 X106.44 Y52.091 F1200
G1 X105.486 Y51.966 Z0 F1500
G1 X104.538 Y51.803 Z0 F1500
G1 X103.588 Y51.653 Z0 F1500
G1 X102.631 Y51.568 Z0 F1500
G1 X102.54 Y51.278 Z0 F1500
G1 X102.532 Y50.945 Z0 F1500
G1 X102.551 Y50.598 Z0 F1500
G1 X102.538 Y50.268 Z0 F1500
G1 X102.534 Y49.182 Z0 F1500
G1 X102.518 Y48.094 Z0 F1500
G1 X102.513 Y47.008 Z0 F1500
G1 X102.542 Y45.929 Z0 F1500
; --- FIX X Backlash ---
G0 X103.842 Y45.929 F1200
G1 X104.351 Y45.958 Z0 F1500
; --- FIX Y Backlash ---
G0 X104.351 Y47.258 F1200
G1 X104.852 Y47.378 Z0 F1500
G1 X105.353 Y47.519 Z0 F1500
G1 X105.86 Y47.608 Z0 F1500
G1 X107.359 Y47.945 Z0 F1500
G1 X108.864 Y48.253 Z0 F1500
G1 X109.987 Y48.512 Z0 F1500
G1 X111.114 Y48.747 Z0 F1500
G1 X112.242 Y48.975 Z0 F1500
G1 X113.367 Y49.212 Z0 F1500
G1 X113.477 Y49.458 Z0 F1500
G1 X113.505 Y49.739 Z0 F1500
G1 X113.519 Y50.03 Z0 F1500
G1 X113.583 Y50.304 Z0 F1500
G1 X113.651 Y50.546 Z0 F1500
G1 X113.775 Y50.77 Z0 F1500
G1 X113.895 Y50.991 Z0 F1500
G1 X113.948 Y51.224 Z0 F1500
; --- FIX X Backlash ---
G0 X112.648 Y51.224 F1200
G1 X112.328 Y51.346 Z0 F1500
G1 X111.974 Y51.406 Z0 F1500
G1 X111.8 Y51.439 Z0 F1500
G1 X111.634 Y51.489 Z0 F1500
G1 X111.484 Y51.565 Z0 F1500
G1 X111.355 Y51.678 Z0 F1500
G1 X111.37 Y51.798 Z0 F1500
; --- FIX X Backlash ---
G0 X112.67 Y51.798 F1200
G1 X112.729 Y51.885 Z0 F1500
G1 X112.821 Y51.946 Z0 F1500
G1 X112.937 Y51.987 Z0 F1500
G1 X113.192 Y52.035 Z0 F1500
G1 X113.411 Y52.08 Z0 F1500
G1 X114.889 Y52.304 Z0 F1500
G1 X116.374 Y52.483 Z0 F1500
G1 X117.858 Y52.666 Z0 F1500
G1 X119.334 Y52.901 Z0 F1500
G1 X120.602 Y53.031 Z0 F1500
G1 X121.865 Y53.215 Z0 F1500
G1 X122.497 Y53.297 Z0 F1500
G1 X123.129 Y53.357 Z0 F1500
G1 X123.762 Y53.381 Z0 F1500
G1 X124.397 Y53.357 Z0 F1500
; --- FIX Y Backlash ---
G0 X124.397 Y52.057 F1200
G1 X124.988 Y51.938 Z0 F1500
G1 X125.575 Y51.778 Z0 F1500
G1 X126.163 Y51.643 Z0 F1500
G1 X126.76 Y51.602 Z0 F1500
; --- FIX Y Backlash ---
G0 X126.76 Y52.902 F1200
G1 X126.941 Y52.972 Z0 F1500
G1 X127.149 Z0 F1500
G1 X127.252 Y52.976 Z0 F1500
G1 X127.347 Y52.999 Z0 F1500
G1 X127.43 Y53.053 Z0 F1500
G1 X127.498 Y53.151 Z0 F1500
G1 X127.787 Y53.262 Z0 F1500
G1 X128.084 Y53.339 Z0 F1500
G1 X128.389 Y53.39 Z0 F1500
G1 X128.698 Y53.423 Z0 F1500
G1 X129.32 Y53.468 Z0 F1500
G1 X129.932 Y53.54 Z0 F1500
G1 X130.075 Y53.628 Z0 F1500
G1 X130.155 Y53.767 Z0 F1500
G1 Y53.922 Z0 F1500
; --- FIX X Backlash ---
G0 X128.855 Y53.922 F1200
G1 X128.768 Y54.06 Z0 F1500
G1 X128.808 Y54.728 Z0 F1500
; --- FIX X Backlash ---
G0 X130.108 Y54.728 F1200
G1 X130.349 Y56.051 Z0 F1500
G1 X130.391 Y56.722 Z0 F1500
G1 X130.402 Y56.816 Z0 F1500
G1 X130.385 Y56.876 Z0 F1500
G1 X130.346 Y56.908 Z0 F1500
; --- FIX X Backlash ---
G0 X129.046 Y56.908 F1200
G1 X128.991 Y56.919 Z0 F1500
G1 X128.853 Y56.901 Z0 F1500
G1 X128.72 Y56.871 Z0 F1500
; --- FIX Y Backlash ---
G0 X128.72 Y55.571 F1200
G1 X127.549 Y55.408 Z0 F1500
G1 X125.208 Y55.034 Z0 F1500
G1 X124.034 Y54.877 Z0 F1500
G1 X121.403 Y54.439 Z0 F1500
G1 X118.768 Y54.016 Z0 F1500
G1 X116.486 Y53.672 Z0 F1500
G1 X114.203 Y53.321 Z0 F1500
G1 X113.514 Y53.193 Z0 F1500
G1 X112.825 Y53.069 Z0 F1500
G1 X112.133 Y52.965 Z0 F1500
G1 X111.436 Y52.893 Z0 F1500
G1 X108.937 Y52.496 Z0 F1500
G1 X106.44 Y52.091 Z0 F1500
G0 Z3.5 F500
G0 X101.134 Y45.28 Z3.5
G1 Z0 F500
; --- FIX X Backlash ---
G0 X102.434 Y45.28 F1200
; --- FIX Y Backlash ---
G0 X102.434 Y46.58 F1200
G1 X102.745 Y46.715 Z0 F1500
G1 X102.979 Y46.912 Z0 F1500
G1 X103.049 Y47.195 Z0 F1500
G1 X103.085 Y47.485 Z0 F1500
G1 X103.097 Y47.78 Z0 F1500
G1 X103.093 Y48.079 Z0 F1500
G1 X103.07 Y48.679 Z0 F1500
G1 X103.085 Y49.27 Z0 F1500
G1 X103.103 Y66.989 Z0 F1500
G1 X103.093 Y84.708 Z0 F1500
; --- FIX X Backlash ---
G0 X101.793 Y84.708 F1200
G1 X101.629 Y84.773 Z0 F1500
G1 X101.42 Y84.822 Z0 F1500
G1 X101.187 Y84.852 Z0 F1500
G1 X100.95 Y84.859 Z0 F1500
G1 X100.687 Y84.836 Z0 F1500
; --- FIX Y Backlash ---
G0 X100.687 Y83.536 F1200
G1 X100.482 Y83.473 Z0 F1500
G1 X100.505 Y73.979 Z0 F1500
G1 X100.517 Y64.485 Z0 F1500
G1 X100.552 Y54.991 Z0 F1500
; --- FIX X Backlash ---
G0 X101.852 Y54.991 F1200
G1 X101.939 Y45.498 Z0 F1500
G1 X102.02 Y45.359 Z0 F1500
G1 X102.136 Y45.282 Z0 F1500
G1 X102.278 Y45.259 Z0 F1500
G1 X102.434 Y45.28 Z0 F1500
G0 Z3.5 F500

; Color picking sequence
G1 Z10 F1000;         ; Raise brush
G0 X131 Y5 F1200;    ; Rapid move to color 1
G1 Z10 F1000;         ; Raise brush
G0 X131 Y5 F1200;    ; Rapid move to color 1
G1 Z0 F1000;         ; Lower into color
G1 X130.102 Y7.295 Z0 S800 F1200
G1 X130.026 Y7.642 Z0 F1200
G1 X130 Y8 Z0 F1200
G1 X130.026 Y8.358 Z0 F1200
G1 X130.102 Y8.705 Z0 F1200
G1 X130.225 Y9.041 Z0 F1200
G1 X130.393 Y9.362 Z0 F1200
G1 X130.603 Y9.668 Z0 F1200
G1 X130.854 Y9.957 Z0 F1200
G1 X131.142 Y10.226 Z0 F1200
G1 X131.464 Y10.475 Z0 F1200
G1 X131.82 Y10.701 Z0 F1200
G1 X132.204 Y10.902 Z0 F1200
G1 X132.617 Y11.078 Z0 F1200
G1 X133.054 Y11.225 Z0 F1200
G1 X133.513 Y11.343 Z0 F1200
G1 X133.992 Y11.429 Z0 F1200
G1 X134.489 Y11.482 Z0 F1200
G1 X135 Y11.5 Z0 F1200
G1 X135.511 Y11.482 Z0 F1200
G1 X136.008 Y11.429 Z0 F1200
G1 X136.487 Y11.343 Z0 F1200
G1 X136.946 Y11.225 Z0 F1200
G1 X137.383 Y11.078 Z0 F1200
G1 X137.796 Y10.902 Z0 F1200
G1 X138.18 Y10.701 Z0 F1200
G1 X138.536 Y10.475 Z0 F1200
G1 X138.858 Y10.226 Z0 F1200
G1 X139.146 Y9.957 Z0 F1200
G1 X139.397 Y9.668 Z0 F1200
G1 X139.607 Y9.362 Z0 F1200
G1 X139.775 Y9.041 Z0 F1200
G1 X139.898 Y8.705 Z0 F1200
G1 X139.974 Y8.358 Z0 F1200
G1 X140 Y8 Z0 F1200
G1 X139.974 Y7.642 Z0 F1200
G1 X139.898 Y7.295 Z0 F1200
G1 X139.775 Y6.959 Z0 F1200
G1 X139.607 Y6.638 Z0 F1200
G1 X139.397 Y6.332 Z0 F1200
G1 X139.146 Y6.043 Z0 F1200
G1 X138.858 Y5.774 Z0 F1200
G1 X138.536 Y5.525 Z0 F1200
G1 X138.18 Y5.299 Z0 F1200
G1 X137.796 Y5.098 Z0 F1200
G1 X137.383 Y4.922 Z0 F1200
G1 X136.946 Y4.775 Z0 F1200
G1 X136.487 Y4.657 Z0 F1200
G1 X136.008 Y4.571 Z0 F1200
G1 X135.511 Y4.518 Z0 F1200
G1 X135 Y4.5 Z0 F1200
G1 X134.489 Y4.518 Z0 F1200
G1 X133.992 Y4.571 Z0 F1200
G1 X133.513 Y4.657 Z0 F1200
G1 X133.054 Y4.775 Z0 F1200
G1 X132.617 Y4.922 Z0 F1200
G1 X132.204 Y5.098 Z0 F1200
G1 X131.82 Y5.299 Z0 F1200
G1 X131.464 Y5.525 Z0 F1200
G1 X131.142 Y5.774 Z0 F1200
G1 X130.854 Y6.043 Z0 F1200
G1 X130.603 Y6.332 Z0 F1200
G1 X130.393 Y6.638 Z0 F1200
G1 X130.225 Y6.959 Z0 F1200
G1 Z7 F800;         ; Raise from color
G1 X124 Y8 Z1 F1200;     ; Movement in paint
G1 X114 Y18 Z8 F500;     ; Move in paint
G1 F1200;           ; Set feed rate
G0 Z2.5 F1000 ; Safety Lift
G0 X102.434 Y45.28 F1200 ; Return to pos
; --- FIX Y Backlash ---
G0 X102.434 Y46.58 F1200
G0 X129.597 Y59.521 Z3.5
G1 Z0 F500
G1 X129.592 Y65.082 Z0 F1500
G1 X129.568 Y70.661 Z0 F1500
G1 X129.523 Y76.239 Z0 F1500
; --- FIX X Backlash ---
G0 X128.223 Y76.239 F1200
G1 X128.164 Y81.077 Z0 F1500
G1 X127.426 Y81.149 Z0 F1500
; --- FIX Y Backlash ---
G0 X127.426 Y79.849 F1200
G1 X127.409 Y74.5 Z0 F1500
G1 X127.415 Y68.871 Z0 F1500
G1 X127.447 Y63.243 Z0 F1500
; --- FIX X Backlash ---
G0 X128.747 Y63.243 F1200
G1 X128.802 Y58.077 Z0 F1500
G1 X128.87 Y58.067 Z0 F1500
G1 X129.416 Y57.985 Z0 F1500
G1 X129.586 Y57.966 Z0 F1500
; --- FIX Y Backlash ---
G0 X129.586 Y59.266 F1200
G1 X129.597 Y59.521 Z0 F1500
G0 Z3.5 F500
G0 X130.592 Y65.086 Z3.5
G1 Z0 F500
G1 X130.568 Y70.669 Z0 F1500
G1 X130.523 Y76.251 Z0 F1500
; --- FIX X Backlash ---
G0 X129.223 Y76.251 F1200
G1 X129.155 Y81.833 Z0 F1500
G1 X129.1 Y81.926 Z0 F1500
G1 X129.019 Y81.985 Z0 F1500
G1 X128.916 Y82.017 Z0 F1500
G1 X128.801 Y82.03 Z0 F1500
G1 X128.555 Y82.035 Z0 F1500
G1 X128.338 Y82.064 Z0 F1500
G1 X127.502 Y82.146 Z0 F1500
G1 X126.665 Y82.218 Z0 F1500
G1 X126.545 Y82.197 Z0 F1500
; --- FIX Y Backlash ---
G0 X126.545 Y80.897 F1200
G1 X126.472 Y80.833 Z0 F1500
G1 X126.435 Y80.736 Z0 F1500
G1 X126.424 Y80.617 Z0 F1500
G1 X126.437 Y80.356 Z0 F1500
G1 X126.427 Y80.132 Z0 F1500
G1 X126.409 Y74.499 Z0 F1500
G1 X126.415 Y68.866 Z0 F1500
G1 X126.447 Y63.233 Z0 F1500
; --- FIX X Backlash ---
G0 X127.747 Y63.233 F1200
G1 X127.807 Y57.6 Z0 F1500
G1 X127.8 Y57.429 Z0 F1500
G1 X127.854 Y57.287 Z0 F1500
G1 X127.965 Y57.195 Z0 F1500
G1 X128.135 Y57.171 Z0 F1500
G1 X128.713 Y57.079 Z0 F1500
G1 X129.295 Y56.992 Z0 F1500
G1 X129.879 Y56.927 Z0 F1500
G1 X130.46 Y56.903 Z0 F1500
; --- FIX Y Backlash ---
G0 X130.46 Y58.203 F1200
G1 X130.571 Y58.502 Z0 F1500
G1 X130.593 Y58.834 Z0 F1500
G1 X130.583 Y59.176 Z0 F1500
G1 X130.597 Y59.504 Z0 F1500
G1 X130.592 Y65.086 Z0 F1500
G0 Z3.5 F500
; --- FIX Y Backlash ---
G0 X130.592 Y63.786 F1200
G0 X131.979 Y56.187 Z3.5
G1 Z0 F500
; --- FIX Y Backlash ---
G0 X131.979 Y57.487 F1200
G1 X132.018 Y57.569 Z0 F1500
G1 Y57.663 Z0 F1500
G1 X132.01 Y62.011 Z0 F1500
G1 X131.974 Y66.358 Z0 F1500
; --- FIX X Backlash ---
G0 X130.674 Y66.358 F1200
G1 X130.618 Y67.891 Z0 F1500
G1 X130.594 Y69.426 Z0 F1500
G1 X130.554 Y73.433 Z0 F1500
G1 X130.504 Y77.438 Z0 F1500
G1 X130.5 Y77.49 Z0 F1500
G1 X130.484 Y77.527 Z0 F1500
G1 X130.527 Y77.572 Z0 F1500
G1 X130.551 Y77.632 Z0 F1500
G1 Y77.71 Z0 F1500
G1 X130.529 Y77.809 Z0 F1500
G1 X130.504 Y78.08 Z0 F1500
G1 X130.524 Y78.389 Z0 F1500
G1 X130.527 Y78.54 Z0 F1500
G1 X130.514 Y78.677 Z0 F1500
G1 X130.476 Y78.795 Z0 F1500
G1 X130.403 Y78.885 Z0 F1500
; --- FIX X Backlash ---
G0 X131.703 Y78.885 F1200
G1 X131.758 Y79.222 Z0 F1500
G1 X131.761 Y79.57 Z0 F1500
G1 X131.746 Y79.919 Z0 F1500
G1 Y80.265 Z0 F1500
G1 X131.731 Y80.638 Z0 F1500
G1 Y81.016 Z0 F1500
G1 X131.716 Y81.39 Z0 F1500
; --- FIX X Backlash ---
G0 X130.416 Y81.39 F1200
G1 X130.364 Y81.754 Z0 F1500
G1 X130.23 Y81.825 Z0 F1500
G1 X130.071 Y81.842 Z0 F1500
G1 X129.977 Y81.83 Z0 F1500
G1 X129.895 Y81.804 Z0 F1500
; --- FIX Y Backlash ---
G0 X129.895 Y80.504 F1200
G1 X129.871 Y79.092 Z0 F1500
G1 X129.874 Y77.676 Z0 F1500
G1 X129.893 Y77.65 Z0 F1500
G1 X129.852 Y77.636 Z0 F1500
G1 X129.82 Y76.955 Z0 F1500
G1 X129.832 Y76.612 Z0 F1500
; --- FIX X Backlash ---
G0 X131.132 Y76.612 F1200
G1 X131.204 Y76.287 Z0 F1500
G1 X131.167 Y76.158 Z0 F1500
G1 Y76.018 Z0 F1500
G1 X131.174 Y75.876 Z0 F1500
G1 X131.171 Y75.737 Z0 F1500
G1 X131.206 Y71.283 Z0 F1500
G1 X131.293 Y66.83 Z0 F1500
G1 X131.342 Y61.87 Z0 F1500
G1 X131.377 Y56.912 Z0 F1500
G1 X131.36 Y56.356 Z0 F1500
G1 X131.443 Y56.258 Z0 F1500
G1 X131.561 Y56.203 Z0 F1500
G1 X131.816 Y56.138 Z0 F1500
G1 X131.909 Z0 F1500
G1 X131.979 Y56.187 Z0 F1500
G0 Z3.5 F500
; --- FIX X Backlash ---
G0 X130.679 Y56.187 F1200
G0 X63.864 Y40.206 Z3.5
G1 Z0 F500
; --- FIX X Backlash ---
G0 X65.164 Y40.206 F1200
; --- FIX Y Backlash ---
G0 X65.164 Y41.506 F1200
G1 X65.456 Y41.563 Z0 F1500
; --- FIX X Backlash ---
G0 X64.156 Y41.563 F1200
G1 X64.096 Y64.235 Z0 F1500
G1 X64.057 Y86.745 Z0 F1500
G1 X63.523 Y86.794 Z0 F1500
G1 X63.242 Y86.823 Z0 F1500
; --- FIX Y Backlash ---
G0 X63.242 Y85.523 F1200
G1 X63.249 Y75.608 Z0 F1500
G1 X63.23 Y63.487 Z0 F1500
G1 X63.245 Y51.378 Z0 F1500
; --- FIX X Backlash ---
G0 X64.545 Y51.378 F1200
G1 X64.645 Y40.122 Z0 F1500
; --- FIX Y Backlash ---
G0 X64.645 Y41.422 F1200
G1 X65.164 Y41.506 Z0 F1500
G0 Z3.5 F500

; Color picking sequence
G1 Z10 F1000;         ; Raise brush
G0 X131 Y5 F1200;    ; Rapid move to color 1
G1 Z10 F1000;         ; Raise brush
G0 X131 Y5 F1200;    ; Rapid move to color 1
G1 Z0 F1000;         ; Lower into color
G1 X130.102 Y7.295 Z0 S800 F1200
G1 X130.026 Y7.642 Z0 F1200
G1 X130 Y8 Z0 F1200
G1 X130.026 Y8.358 Z0 F1200
G1 X130.102 Y8.705 Z0 F1200
G1 X130.225 Y9.041 Z0 F1200
G1 X130.393 Y9.362 Z0 F1200
G1 X130.603 Y9.668 Z0 F1200
G1 X130.854 Y9.957 Z0 F1200
G1 X131.142 Y10.226 Z0 F1200
G1 X131.464 Y10.475 Z0 F1200
G1 X131.82 Y10.701 Z0 F1200
G1 X132.204 Y10.902 Z0 F1200
G1 X132.617 Y11.078 Z0 F1200
G1 X133.054 Y11.225 Z0 F1200
G1 X133.513 Y11.343 Z0 F1200
G1 X133.992 Y11.429 Z0 F1200
G1 X134.489 Y11.482 Z0 F1200
G1 X135 Y11.5 Z0 F1200
G1 X135.511 Y11.482 Z0 F1200
G1 X136.008 Y11.429 Z0 F1200
G1 X136.487 Y11.343 Z0 F1200
G1 X136.946 Y11.225 Z0 F1200
G1 X137.383 Y11.078 Z0 F1200
G1 X137.796 Y10.902 Z0 F1200
G1 X138.18 Y10.701 Z0 F1200
G1 X138.536 Y10.475 Z0 F1200
G1 X138.858 Y10.226 Z0 F1200
G1 X139.146 Y9.957 Z0 F1200
G1 X139.397 Y9.668 Z0 F1200
G1 X139.607 Y9.362 Z0 F1200
G1 X139.775 Y9.041 Z0 F1200
G1 X139.898 Y8.705 Z0 F1200
G1 X139.974 Y8.358 Z0 F1200
G1 X140 Y8 Z0 F1200
G1 X139.974 Y7.642 Z0 F1200
G1 X139.898 Y7.295 Z0 F1200
G1 X139.775 Y6.959 Z0 F1200
G1 X139.607 Y6.638 Z0 F1200
G1 X139.397 Y6.332 Z0 F1200
G1 X139.146 Y6.043 Z0 F1200
G1 X138.858 Y5.774 Z0 F1200
G1 X138.536 Y5.525 Z0 F1200
G1 X138.18 Y5.299 Z0 F1200
G1 X137.796 Y5.098 Z0 F1200
G1 X137.383 Y4.922 Z0 F1200
G1 X136.946 Y4.775 Z0 F1200
G1 X136.487 Y4.657 Z0 F1200
G1 X136.008 Y4.571 Z0 F1200
G1 X135.511 Y4.518 Z0 F1200
G1 X135 Y4.5 Z0 F1200
G1 X134.489 Y4.518 Z0 F1200
G1 X133.992 Y4.571 Z0 F1200
G1 X133.513 Y4.657 Z0 F1200
G1 X133.054 Y4.775 Z0 F1200
G1 X132.617 Y4.922 Z0 F1200
G1 X132.204 Y5.098 Z0 F1200
G1 X131.82 Y5.299 Z0 F1200
G1 X131.464 Y5.525 Z0 F1200
G1 X131.142 Y5.774 Z0 F1200
G1 X130.854 Y6.043 Z0 F1200
G1 X130.603 Y6.332 Z0 F1200
G1 X130.393 Y6.638 Z0 F1200
G1 X130.225 Y6.959 Z0 F1200
G1 Z7 F800;         ; Raise from color
G1 X124 Y8 Z1 F1200;     ; Movement in paint
G1 X114 Y18 Z8 F500;     ; Move in paint
G1 F1200;           ; Set feed rate
G0 Z2.5 F1000 ; Safety Lift
G0 X65.164 Y41.506 F1200 ; Return to pos
; --- FIX Y Backlash ---
G0 X65.164 Y40.206 F1200
G0 X66.458 Y39.452 Z3.5
G1 Z0 F500
; --- FIX X Backlash ---
G0 X65.158 Y39.452 F1200
; --- FIX Y Backlash ---
G0 X65.158 Y40.752 F1200
G1 X65.096 Y64.237 Z0 F1500
G1 X65.056 Y87.637 Z0 F1500
G1 X64.78 Y87.682 Z0 F1500
G1 X63.62 Y87.79 Z0 F1500
G1 X62.381 Y87.916 Z0 F1500
G1 X62.242 Y87.942 Z0 F1500
; --- FIX Y Backlash ---
G0 X62.242 Y86.642 F1200
G1 X62.249 Y75.608 Z0 F1500
G1 X62.23 Y63.486 Z0 F1500
G1 X62.245 Y51.369 Z0 F1500
; --- FIX X Backlash ---
G0 X63.545 Y51.369 F1200
G1 X63.653 Y39.26 Z0 F1500
G1 X63.663 Y38.943 Z0 F1500
; --- FIX Y Backlash ---
G0 X63.663 Y40.243 F1200
G1 X64.352 Y40.361 Z0 F1500
G1 X65.343 Y40.522 Z0 F1500
G1 X66.283 Y40.705 Z0 F1500
G1 X66.458 Y40.752 Z0 F1500
G0 Z3.5 F500
; --- FIX Y Backlash ---
G0 X66.458 Y39.452 F1200
G0 X67.46 Y38.688 Z3.5
G1 Z0 F500
; --- FIX X Backlash ---
G0 X66.16 Y38.688 F1200
; --- FIX Y Backlash ---
G0 X66.16 Y39.988 F1200
G1 X66.096 Y64.239 Z0 F1500
G1 X66.054 Y88.49 Z0 F1500
G1 X64.904 Y88.674 Z0 F1500
G1 X63.717 Y88.785 Z0 F1500
G1 X62.523 Y88.907 Z0 F1500
G1 X61.35 Y89.123 Z0 F1500
; --- FIX Y Backlash ---
G0 X61.35 Y87.823 F1200
G1 X61.241 Y87.732 Z0 F1500
G1 X61.249 Y75.609 Z0 F1500
G1 X61.23 Y63.485 Z0 F1500
G1 X61.245 Y51.361 Z0 F1500
; --- FIX X Backlash ---
G0 X62.545 Y51.361 F1200
G1 X62.653 Y39.238 Z0 F1500
G1 X62.67 Y38.727 Z0 F1500
G1 X62.746 Y38.186 Z0 F1500
G1 X62.84 Y37.974 Z0 F1500
G1 X62.992 Y37.837 Z0 F1500
G1 X63.094 Y37.806 Z0 F1500
G1 X63.215 Z0 F1500
G1 X63.357 Y37.837 Z0 F1500
; --- FIX Y Backlash ---
G0 X63.357 Y39.137 F1200
G1 X63.523 Y39.205 Z0 F1500
G1 X64.516 Y39.375 Z0 F1500
G1 X65.52 Y39.538 Z0 F1500
G1 X66.509 Y39.73 Z0 F1500
G1 X67.46 Y39.988 Z0 F1500
G0 Z3.5 F500

; Color picking sequence
G1 Z10 F1000;         ; Raise brush
G0 X131 Y5 F1200;    ; Rapid move to color 1
G1 Z10 F1000;         ; Raise brush
G0 X131 Y5 F1200;    ; Rapid move to color 1
G1 Z0 F1000;         ; Lower into color
G1 X130.102 Y7.295 Z0 S800 F1200
G1 X130.026 Y7.642 Z0 F1200
G1 X130 Y8 Z0 F1200
G1 X130.026 Y8.358 Z0 F1200
G1 X130.102 Y8.705 Z0 F1200
G1 X130.225 Y9.041 Z0 F1200
G1 X130.393 Y9.362 Z0 F1200
G1 X130.603 Y9.668 Z0 F1200
G1 X130.854 Y9.957 Z0 F1200
G1 X131.142 Y10.226 Z0 F1200
G1 X131.464 Y10.475 Z0 F1200
G1 X131.82 Y10.701 Z0 F1200
G1 X132.204 Y10.902 Z0 F1200
G1 X132.617 Y11.078 Z0 F1200
G1 X133.054 Y11.225 Z0 F1200
G1 X133.513 Y11.343 Z0 F1200
G1 X133.992 Y11.429 Z0 F1200
G1 X134.489 Y11.482 Z0 F1200
G1 X135 Y11.5 Z0 F1200
G1 X135.511 Y11.482 Z0 F1200
G1 X136.008 Y11.429 Z0 F1200
G1 X136.487 Y11.343 Z0 F1200
G1 X136.946 Y11.225 Z0 F1200
G1 X137.383 Y11.078 Z0 F1200
G1 X137.796 Y10.902 Z0 F1200
G1 X138.18 Y10.701 Z0 F1200
G1 X138.536 Y10.475 Z0 F1200
G1 X138.858 Y10.226 Z0 F1200
G1 X139.146 Y9.957 Z0 F1200
G1 X139.397 Y9.668 Z0 F1200
G1 X139.607 Y9.362 Z0 F1200
G1 X139.775 Y9.041 Z0 F1200
G1 X139.898 Y8.705 Z0 F1200
G1 X139.974 Y8.358 Z0 F1200
G1 X140 Y8 Z0 F1200
G1 X139.974 Y7.642 Z0 F1200
G1 X139.898 Y7.295 Z0 F1200
G1 X139.775 Y6.959 Z0 F1200
G1 X139.607 Y6.638 Z0 F1200
G1 X139.397 Y6.332 Z0 F1200
G1 X139.146 Y6.043 Z0 F1200
G1 X138.858 Y5.774 Z0 F1200
G1 X138.536 Y5.525 Z0 F1200
G1 X138.18 Y5.299 Z0 F1200
G1 X137.796 Y5.098 Z0 F1200
G1 X137.383 Y4.922 Z0 F1200
G1 X136.946 Y4.775 Z0 F1200
G1 X136.487 Y4.657 Z0 F1200
G1 X136.008 Y4.571 Z0 F1200
G1 X135.511 Y4.518 Z0 F1200
G1 X135 Y4.5 Z0 F1200
G1 X134.489 Y4.518 Z0 F1200
G1 X133.992 Y4.571 Z0 F1200
G1 X133.513 Y4.657 Z0 F1200
G1 X133.054 Y4.775 Z0 F1200
G1 X132.617 Y4.922 Z0 F1200
G1 X132.204 Y5.098 Z0 F1200
G1 X131.82 Y5.299 Z0 F1200
G1 X131.464 Y5.525 Z0 F1200
G1 X131.142 Y5.774 Z0 F1200
G1 X130.854 Y6.043 Z0 F1200
G1 X130.603 Y6.332 Z0 F1200
G1 X130.393 Y6.638 Z0 F1200
G1 X130.225 Y6.959 Z0 F1200
G1 Z7 F800;         ; Raise from color
G1 X124 Y8 Z1 F1200;     ; Movement in paint
G1 X114 Y18 Z8 F500;     ; Move in paint
G1 F1200;           ; Set feed rate
G0 Z2.5 F1000 ; Safety Lift
G0 X67.46 Y39.988 F1200 ; Return to pos
; --- FIX X Backlash ---
G0 X66.16 Y39.988 F1200
; --- FIX Y Backlash ---
G0 X66.16 Y38.688 F1200
G0 X60.226 Y37.995 Z3.5
G1 Z0 F500
; --- FIX X Backlash ---
G0 X61.526 Y37.995 F1200
G1 X61.584 Y38.036 Z0 F1500
; --- FIX Y Backlash ---
G0 X61.584 Y39.336 F1200
G1 X61.626 Y39.398 Z0 F1500
G1 X61.65 Y39.484 Z0 F1500
G1 X61.764 Y46.608 Z0 F1500
G1 X61.79 Y53.622 Z0 F1500
G1 X61.78 Y60.636 Z0 F1500
G1 X61.787 Y67.65 Z0 F1500
G1 X61.778 Y72.919 Z0 F1500
G1 X61.786 Y78.189 Z0 F1500
G1 X61.76 Y83.458 Z0 F1500
; --- FIX X Backlash ---
G0 X60.46 Y83.458 F1200
G1 X60.349 Y88.726 Z0 F1500
G1 X60.335 Y88.839 Z0 F1500
G1 X60.314 Y88.967 Z0 F1500
G1 X60.265 Y89.07 Z0 F1500
G1 X60.165 Y89.111 Z0 F1500
G1 X60.147 Z0 F1500
; --- FIX Y Backlash ---
G0 X60.147 Y87.811 F1200
G1 X59.706 Y87.717 Z0 F1500
G1 X59.324 Y87.554 Z0 F1500
G1 X59.181 Y87.429 Z0 F1500
G1 X59.089 Y87.27 Z0 F1500
G1 X59.063 Y87.068 Z0 F1500
; --- FIX X Backlash ---
G0 X60.363 Y87.068 F1200
G1 X60.415 Y86.819 Z0 F1500
G1 X60.489 Y38.276 Z0 F1500
G1 X60.783 Y38.14 Z0 F1500
G1 X60.98 Y38.059 Z0 F1500
G1 X61.183 Y37.995 Z0 F1500
G1 X61.372 Y37.967 Z0 F1500
G1 X61.526 Y37.995 Z0 F1500

; Washing sequence (no color)
G1 Z10 F1000;        ; Raise brush
G0 X5 Y5 F1200;     ; Rapid move to clean
G1 Z0 F800;         ; Lower brush
G1 X10 Y12 Z8 F1200;     ; Move
G1 Z0 F800;         ; Lower
G1 X25 Y14 Z6 F800;     ; Move
G1 Z8 F800;         ; Maintain
G0 X5 Y5 F1200;     ; Rapid
G1 Z0 F800;         ; Lower
G1 X15 Y12 Z8 F1200;     ; Move
G1 Z0 F800;         ; Lower
G1 X25 Y14 Z6 F800;     ; Move
G1 Z10 F800;         ; Maintain
G1 F1200;           ; Set feed
G0 Z2.5 F1000 ; Safety Lift

; Color picking sequence
G1 Z10 F1000;         ; Raise brush
G0 X41 Y5 F1200;    ; Rapid move to color 1
G1 Z10 F1000;         ; Raise brush
G0 X41 Y5 F1200;    ; Rapid move to color 1
G1 Z0 F1000;         ; Lower into color
G1 X40.102 Y7.295 Z0 S800 F1200
G1 X40.026 Y7.642 Z0 F1200
G1 X40 Y8 Z0 F1200
G1 X40.026 Y8.358 Z0 F1200
G1 X40.102 Y8.705 Z0 F1200
G1 X40.225 Y9.041 Z0 F1200
G1 X40.393 Y9.362 Z0 F1200
G1 X40.603 Y9.668 Z0 F1200
G1 X40.854 Y9.957 Z0 F1200
G1 X41.142 Y10.226 Z0 F1200
G1 X41.464 Y10.475 Z0 F1200
G1 X41.82 Y10.701 Z0 F1200
G1 X42.204 Y10.902 Z0 F1200
G1 X42.617 Y11.078 Z0 F1200
G1 X43.054 Y11.225 Z0 F1200
G1 X43.513 Y11.343 Z0 F1200
G1 X43.992 Y11.429 Z0 F1200
G1 X44.489 Y11.482 Z0 F1200
G1 X45 Y11.5 Z0 F1200
G1 X45.511 Y11.482 Z0 F1200
G1 X46.008 Y11.429 Z0 F1200
G1 X46.487 Y11.343 Z0 F1200
G1 X46.946 Y11.225 Z0 F1200
G1 X47.383 Y11.078 Z0 F1200
G1 X47.796 Y10.902 Z0 F1200
G1 X48.18 Y10.701 Z0 F1200
G1 X48.536 Y10.475 Z0 F1200
G1 X48.858 Y10.226 Z0 F1200
G1 X49.146 Y9.957 Z0 F1200
G1 X49.397 Y9.668 Z0 F1200
G1 X49.607 Y9.362 Z0 F1200
G1 X49.775 Y9.041 Z0 F1200
G1 X49.898 Y8.705 Z0 F1200
G1 X49.974 Y8.358 Z0 F1200
G1 X50 Y8 Z0 F1200
G1 X49.974 Y7.642 Z0 F1200
G1 X49.898 Y7.295 Z0 F1200
G1 X49.775 Y6.959 Z0 F1200
G1 X49.607 Y6.638 Z0 F1200
G1 X49.397 Y6.332 Z0 F1200
G1 X49.146 Y6.043 Z0 F1200
G1 X48.858 Y5.774 Z0 F1200
G1 X48.536 Y5.525 Z0 F1200
G1 X48.18 Y5.299 Z0 F1200
G1 X47.796 Y5.098 Z0 F1200
G1 X47.383 Y4.922 Z0 F1200
G1 X46.946 Y4.775 Z0 F1200
G1 X46.487 Y4.657 Z0 F1200
G1 X46.008 Y4.571 Z0 F1200
G1 X45.511 Y4.518 Z0 F1200
G1 X45 Y4.5 Z0 F1200
G1 X44.489 Y4.518 Z0 F1200
G1 X43.992 Y4.571 Z0 F1200
G1 X43.513 Y4.657 Z0 F1200
G1 X43.054 Y4.775 Z0 F1200
G1 X42.617 Y4.922 Z0 F1200
G1 X42.204 Y5.098 Z0 F1200
G1 X41.82 Y5.299 Z0 F1200
G1 X41.464 Y5.525 Z0 F1200
G1 X41.142 Y5.774 Z0 F1200
G1 X40.854 Y6.043 Z0 F1200
G1 X40.603 Y6.332 Z0 F1200
G1 X40.393 Y6.638 Z0 F1200
G1 X40.225 Y6.959 Z0 F1200
G1 Z7 F800;         ; Raise from color
G1 X34 Y8 Z1 F1200;     ; Movement in paint
G1 X24 Y18 Z8 F500;     ; Move in paint
G1 F1200;           ; Set feed rate
G0 Z2.5 F1000 ; Safety Lift
;Cut @ 1300 mm/min, 90% power

M8
G0 Z3.5 F500
; --- FIX X Backlash ---
G0 X60.226 Y37.995 F1200
G0 X59.175 Y36.023 Z3.5
G1 Z0 F500
;Layer C1
; --- FIX X Backlash ---
G0 X60.475 Y36.023 F1200
G1 X64.011 Y34.609 Z0 S900 F1300
G0 Z3.5 F500
; --- FIX Y Backlash ---
G0 X64.011 Y35.909 F1200
G0 X65.779 Y36.262 Z3.5 F1300
G1 Z0 F500
; --- FIX Y Backlash ---
G0 X65.779 Y34.962 F1200
G1 X66.663 Y34.432 Z0 F1300
G0 Z3.5 F500
; --- FIX X Backlash ---
G0 X65.363 Y34.432 F1200
; --- FIX Y Backlash ---
G0 X65.363 Y35.732 F1200
G0 X65.009 Y36.616 Z3.5
G1 Z0 F500
; --- FIX X Backlash ---
G0 X66.309 Y36.616 F1200
; --- FIX Y Backlash ---
G0 X66.309 Y35.316 F1200
G1 X68.961 Y34.432 Z0 F1300
G0 Z3.5 F500
; --- FIX X Backlash ---
G0 X67.661 Y34.432 F1200
; --- FIX Y Backlash ---
G0 X67.661 Y35.732 F1200
G0 X66.601 Y40.329 Z3.5
G1 Z0 F500
G1 X66.606 Y41.015 Z0 F1300
G1 X66.622 Y41.75 Z0 F1300
G1 X66.646 Y42.529 Z0 F1300
G1 X66.676 Y43.344 Z0 F1300
; --- FIX X Backlash ---
G0 X67.976 Y43.344 F1200
G1 X68.045 Y45.055 Z0 F1300
G1 X68.113 Y46.827 Z0 F1300
G1 X68.164 Y48.604 Z0 F1300
G1 X68.18 Y50.331 Z0 F1300
G1 X68.17 Y51.158 Z0 F1300
G1 X68.145 Y51.952 Z0 F1300
G1 X68.103 Y52.705 Z0 F1300
; --- FIX X Backlash ---
G0 X66.803 Y52.705 F1200
G1 X66.743 Y53.411 Z0 F1300
G1 X66.647 Y54.625 Z0 F1300
G1 X66.606 Y55.792 Z0 F1300
G1 X66.598 Y56.962 Z0 F1300
G1 X66.601 Y58.185 Z0 F1300
G0 Z3.5 F500
; --- FIX X Backlash ---
G0 X67.901 Y58.185 F1200
; --- FIX Y Backlash ---
G0 X67.901 Y56.885 F1200
G0 X74.796 Y56.178 Z3.5
G1 Z0 F500
; --- FIX Y Backlash ---
G0 X74.796 Y57.478 F1200
G1 X74.888 Y57.804 Z0 F1300
G1 X74.991 Y58.102 Z0 F1300
G1 X75.106 Y58.379 Z0 F1300
G1 X75.24 Y58.638 Z0 F1300
G1 X75.395 Y58.885 Z0 F1300
G1 X75.576 Y59.124 Z0 F1300
G1 X75.788 Y59.36 Z0 F1300
G1 X76.033 Y59.599 Z0 F1300
G0 Z3.5 F500
G0 X77.271 Y60.13 Z3.5
G1 Z0 F500
; --- FIX Y Backlash ---
G0 X77.271 Y58.83 F1200
G1 X77.978 Y58.122 Z0 F1300
; --- FIX X Backlash ---
G0 X76.678 Y58.122 F1200
G1 X76.432 Y58.02 Z0 F1300
G1 X76.204 Y57.942 Z0 F1300
G1 X75.989 Y57.893 Z0 F1300
G1 X75.78 Y57.881 Z0 F1300
G1 X75.573 Y57.91 Z0 F1300
; --- FIX Y Backlash ---
G0 X75.573 Y59.21 F1200
G1 X75.363 Y59.285 Z0 F1300
G1 X75.144 Y59.413 Z0 F1300
G1 X74.91 Y59.599 Z0 F1300
; --- FIX X Backlash ---
G0 X76.21 Y59.599 F1200
G1 X76.55 Y59.827 Z0 F1300
G1 X76.806 Y60.058 Z0 F1300
G1 X76.989 Y60.297 Z0 F1300
G1 X77.107 Y60.547 Z0 F1300
G1 X77.167 Y60.811 Z0 F1300
G1 X77.18 Y61.093 Z0 F1300
G1 X77.152 Y61.395 Z0 F1300
; --- FIX X Backlash ---
G0 X75.852 Y61.395 F1200
G1 X75.794 Y61.721 Z0 F1300
; --- FIX X Backlash ---
G0 X77.094 Y61.721 F1200
G1 X77.37 Y61.788 Z0 F1300
G1 X77.62 Y61.842 Z0 F1300
G1 X77.846 Y61.884 Z0 F1300
G1 X78.053 Y61.915 Z0 F1300
G1 X78.425 Y61.945 Z0 F1300
G1 X78.767 Y61.941 Z0 F1300
G1 X79.11 Y61.907 Z0 F1300
; --- FIX Y Backlash ---
G0 X79.11 Y60.607 F1200
G1 X79.484 Y60.551 Z0 F1300
G1 X79.922 Y60.478 Z0 F1300
G1 X80.918 Y60.325 Z0 F1300
G1 X81.856 Y60.172 Z0 F1300
G1 X82.111 Y60.136 Z0 F1300
G1 X82.385 Y60.108 Z0 F1300
G1 X82.707 Y60.085 Z0 F1300
G1 X83.105 Y60.067 Z0 F1300
G0 Z3.5 F500
; --- FIX Y Backlash ---
G0 X83.105 Y61.367 F1200
G0 X85.58 Y61.721 Z3.5
G1 Z0 F500
; --- FIX Y Backlash ---
G0 X85.58 Y60.421 F1200
G1 X85.757 Y54.233 Z0 F1300
G0 Z3.5 F500
G0 X85.934 Y53.703 Z3.5
G1 Z0 F500
G1 Y52.465 Z0 F1300
G0 Z3.5 F500
; --- FIX X Backlash ---
G0 X84.634 Y52.465 F1200
; --- FIX Y Backlash ---
G0 X84.634 Y53.765 F1200
G0 X82.158 Y55.356 Z3.5
G1 Z0 F500
; --- FIX Y Backlash ---
G0 X82.158 Y54.056 F1200
G1 X82.146 Y52.769 Z0 F1300
G1 X82.111 Y51.464 Z0 F1300
G1 X82.057 Y50.129 Z0 F1300
G1 X81.988 Y48.752 Z0 F1300
G1 X81.965 Y48.336 Z0 F1300
G1 X81.942 Y47.836 Z0 F1300
G1 X81.926 Y47.282 Z0 F1300
G1 Y46.704 Z0 F1300
G1 X81.95 Y46.132 Z0 F1300
; --- FIX X Backlash ---
G0 X83.25 Y46.132 F1200
G1 X83.305 Y45.598 Z0 F1300
G1 X83.347 Y45.354 Z0 F1300
G1 X83.4 Y45.131 Z0 F1300
G1 X83.465 Y44.932 Z0 F1300
G1 X83.542 Y44.761 Z0 F1300
G1 X83.72 Y44.518 Z0 F1300
G1 X83.958 Y44.323 Z0 F1300
G1 X84.248 Y44.172 Z0 F1300
G1 X84.582 Y44.063 Z0 F1300
G1 X84.954 Y43.99 Z0 F1300
G1 X85.355 Y43.952 Z0 F1300
G1 X85.777 Y43.944 Z0 F1300
G1 X86.213 Y43.964 Z0 F1300
; --- FIX Y Backlash ---
G0 X86.213 Y45.264 F1200
G1 X87.097 Y45.371 Z0 F1300
G1 X87.946 Y45.545 Z0 F1300
G1 X88.338 Y45.649 Z0 F1300
G1 X88.698 Y45.759 Z0 F1300
G1 X89.019 Y45.873 Z0 F1300
G1 X89.293 Y45.986 Z0 F1300
G0 Z3.5 F500
; --- FIX X Backlash ---
G0 X87.993 Y45.986 F1200
; --- FIX Y Backlash ---
G0 X87.993 Y44.686 F1200
G0 X86.932 Y44.509 Z3.5
G1 Z0 F500
; --- FIX Y Backlash ---
G0 X86.932 Y45.809 F1200
G1 Y50.406 Z0 F1300
G0 Z3.5 F500
G0 X85.871 Y50.583 Z3.5
G1 Z0 F500
; --- FIX Y Backlash ---
G0 X85.871 Y49.283 F1200
G1 Y46.984 Z0 F1300
G0 Z3.5 F500
; --- FIX X Backlash ---
G0 X87.171 Y46.984 F1200
G0 X90.353 Z3.5
G1 Z0 F500
; --- FIX X Backlash ---
G0 X89.053 Y46.984 F1200
; --- FIX Y Backlash ---
G0 X89.053 Y48.284 F1200
G1 X88.877 Y52.704 Z0 F1300
G0 Z3.5 F500
; --- FIX X Backlash ---
G0 X90.177 Y52.704 F1200
G0 X92.298 Z3.5
G1 Z0 F500
; --- FIX Y Backlash ---
G0 X92.298 Y51.404 F1200
G1 X92.652 Y46.984 Z0 F1300
G0 Z3.5 F500
; --- FIX X Backlash ---
G0 X91.352 Y46.984 F1200
; --- FIX Y Backlash ---
G0 X91.352 Y48.284 F1200
G0 X89.937 Y49.522 Z3.5
G1 Z0 F500
G1 X89.407 Y57.301 Z0 F1300
G0 Z3.5 F500
G0 X86.932 Z3.5
G1 Z0 F500
G1 Y58.008 Z0 F1300
G0 Z3.5 F500
G0 X86.755 Y58.538 Z3.5
G1 Z0 F500
; --- FIX X Backlash ---
G0 X88.055 Y58.538 F1200
; --- FIX Y Backlash ---
G0 X88.055 Y57.238 F1200
G1 X88.232 Y56.708 Z0 F1300
; --- FIX Y Backlash ---
G0 X88.232 Y58.008 F1200
G1 X88.323 Y58.438 Z0 F1300
G1 X88.39 Y58.906 Z0 F1300
G1 X88.437 Y59.409 Z0 F1300
G1 X88.464 Y59.942 Z0 F1300
G1 X88.474 Y61.075 Z0 F1300
G1 X88.439 Y62.267 Z0 F1300
; --- FIX X Backlash ---
G0 X87.139 Y62.267 F1200
G1 X87.077 Y63.479 Z0 F1300
G1 X87.009 Y64.673 Z0 F1300
G1 X86.979 Y65.25 Z0 F1300
G1 X86.955 Y65.809 Z0 F1300
G1 X86.938 Y66.343 Z0 F1300
G1 X86.932 Y66.848 Z0 F1300
G0 Z3.5 F500
G0 X85.694 Y67.555 Z3.5
G1 Z0 F500
; --- FIX Y Backlash ---
G0 X85.694 Y66.255 F1200
G1 Y64.133 Z0 F1300
G0 Z3.5 F500
; --- FIX X Backlash ---
G0 X86.994 Y64.133 F1200
; --- FIX Y Backlash ---
G0 X86.994 Y65.433 F1200
G0 X89.646 Y65.61 Z3.5
G1 Z0 F500
; --- FIX X Backlash ---
G0 X88.346 Y65.61 F1200
G1 X88.169 Y80.815 Z0 F1300
G0 Z3.5 F500
G0 X87.462 Y80.991 Z3.5
G1 Z0 F500
G1 Y81.522 Z0 F1300
G0 Z3.5 F500
; --- FIX Y Backlash ---
G0 X87.462 Y80.222 F1200
G0 X87.285 Y79.338 Z3.5
G1 Z0 F500
G1 Y69.614 Z0 F1300
G1 X87.269 Y68.479 Z0 F1300
G1 X87.212 Y67.408 Z0 F1300
G1 X87.165 Y66.903 Z0 F1300
G1 X87.103 Y66.423 Z0 F1300
G1 X87.026 Y65.97 Z0 F1300
G1 X86.932 Y65.548 Z0 F1300
; --- FIX Y Backlash ---
G0 X86.932 Y66.848 F1200
G1 X86.826 Y67.298 Z0 F1300
G1 X86.738 Y67.791 Z0 F1300
G1 X86.665 Y68.32 Z0 F1300
G1 X86.605 Y68.877 Z0 F1300
G1 X86.509 Y70.054 Z0 F1300
G1 X86.426 Y71.268 Z0 F1300
G1 X86.265 Y73.869 Z0 F1300
G1 X86.146 Y76.479 Z0 F1300
G1 X86.073 Y79.091 Z0 F1300
G1 X86.048 Y81.698 Z0 F1300
G0 Z3.5 F500
; --- FIX Y Backlash ---
G0 X86.048 Y80.398 F1200
G0 X85.164 Y80.222 Z3.5
G1 Z0 F500
; --- FIX X Backlash ---
G0 X86.464 Y80.222 F1200
G1 X86.641 Y74.211 Z0 F1300
G0 Z3.5 F500
; --- FIX X Backlash ---
G0 X85.341 Y74.211 F1200
; --- FIX Y Backlash ---
G0 X85.341 Y75.511 F1200
G0 X84.103 Y76.925 Z3.5
G1 Z0 F500
G1 X83.926 Y83.997 Z0 F1300
G0 Z3.5 F500

; Color picking sequence
G1 Z10 F1000;         ; Raise brush
G0 X41 Y5 F1200;    ; Rapid move to color 1
G1 Z10 F1000;         ; Raise brush
G0 X41 Y5 F1200;    ; Rapid move to color 1
G1 Z0 F1000;         ; Lower into color
G1 X40.102 Y7.295 Z0 S800 F1200
G1 X40.026 Y7.642 Z0 F1200
G1 X40 Y8 Z0 F1200
G1 X40.026 Y8.358 Z0 F1200
G1 X40.102 Y8.705 Z0 F1200
G1 X40.225 Y9.041 Z0 F1200
G1 X40.393 Y9.362 Z0 F1200
G1 X40.603 Y9.668 Z0 F1200
G1 X40.854 Y9.957 Z0 F1200
G1 X41.142 Y10.226 Z0 F1200
G1 X41.464 Y10.475 Z0 F1200
G1 X41.82 Y10.701 Z0 F1200
G1 X42.204 Y10.902 Z0 F1200
G1 X42.617 Y11.078 Z0 F1200
G1 X43.054 Y11.225 Z0 F1200
G1 X43.513 Y11.343 Z0 F1200
G1 X43.992 Y11.429 Z0 F1200
G1 X44.489 Y11.482 Z0 F1200
G1 X45 Y11.5 Z0 F1200
G1 X45.511 Y11.482 Z0 F1200
G1 X46.008 Y11.429 Z0 F1200
G1 X46.487 Y11.343 Z0 F1200
G1 X46.946 Y11.225 Z0 F1200
G1 X47.383 Y11.078 Z0 F1200
G1 X47.796 Y10.902 Z0 F1200
G1 X48.18 Y10.701 Z0 F1200
G1 X48.536 Y10.475 Z0 F1200
G1 X48.858 Y10.226 Z0 F1200
G1 X49.146 Y9.957 Z0 F1200
G1 X49.397 Y9.668 Z0 F1200
G1 X49.607 Y9.362 Z0 F1200
G1 X49.775 Y9.041 Z0 F1200
G1 X49.898 Y8.705 Z0 F1200
G1 X49.974 Y8.358 Z0 F1200
G1 X50 Y8 Z0 F1200
G1 X49.974 Y7.642 Z0 F1200
G1 X49.898 Y7.295 Z0 F1200
G1 X49.775 Y6.959 Z0 F1200
G1 X49.607 Y6.638 Z0 F1200
G1 X49.397 Y6.332 Z0 F1200
G1 X49.146 Y6.043 Z0 F1200
G1 X48.858 Y5.774 Z0 F1200
G1 X48.536 Y5.525 Z0 F1200
G1 X48.18 Y5.299 Z0 F1200
G1 X47.796 Y5.098 Z0 F1200
G1 X47.383 Y4.922 Z0 F1200
G1 X46.946 Y4.775 Z0 F1200
G1 X46.487 Y4.657 Z0 F1200
G1 X46.008 Y4.571 Z0 F1200
G1 X45.511 Y4.518 Z0 F1200
G1 X45 Y4.5 Z0 F1200
G1 X44.489 Y4.518 Z0 F1200
G1 X43.992 Y4.571 Z0 F1200
G1 X43.513 Y4.657 Z0 F1200
G1 X43.054 Y4.775 Z0 F1200
G1 X42.617 Y4.922 Z0 F1200
G1 X42.204 Y5.098 Z0 F1200
G1 X41.82 Y5.299 Z0 F1200
G1 X41.464 Y5.525 Z0 F1200
G1 X41.142 Y5.774 Z0 F1200
G1 X40.854 Y6.043 Z0 F1200
G1 X40.603 Y6.332 Z0 F1200
G1 X40.393 Y6.638 Z0 F1200
G1 X40.225 Y6.959 Z0 F1200
G1 Z7 F800;         ; Raise from color
G1 X34 Y8 Z1 F1200;     ; Movement in paint
G1 X24 Y18 Z8 F500;     ; Move in paint
G1 F1200;           ; Set feed rate
G0 Z2.5 F1000 ; Safety Lift
G0 X83.926 Y83.997 F1200 ; Return to pos
; --- FIX X Backlash ---
G0 X85.226 Y83.997 F1200
; --- FIX Y Backlash ---
G0 X85.226 Y82.697 F1200
G0 X87.171 Y82.166 Z3.5
G1 Z0 F500
G1 Y81.459 Z0 F1300
G0 Z3.5 F500
; --- FIX X Backlash ---
G0 X85.871 Y81.459 F1200
G0 X82.158 Y81.283 Z3.5
G1 Z0 F500
G1 X81.865 Y81.251 Z0 F1300
G1 X81.611 Y81.231 Z0 F1300
G1 X81.388 Y81.225 Z0 F1300
G1 X81.186 Y81.235 Z0 F1300
; --- FIX Y Backlash ---
G0 X81.186 Y82.535 F1200
G1 X80.804 Y82.607 Z0 F1300
G1 X80.391 Y82.76 Z0 F1300
G0 Z3.5 F500
; --- FIX Y Backlash ---
G0 X80.391 Y81.46 F1200
G0 X79.507 Y81.106 Z3.5
G1 Z0 F500
G1 X78.99 Y81.133 Z0 F1300
G1 X78.529 Z0 F1300
G1 X78.07 Y81.119 Z0 F1300
G1 X77.562 Y81.106 Z0 F1300
G0 Z3.5 F500
G0 X76.147 Y80.575 Z3.5
G1 Z0 F500
; --- FIX X Backlash ---
G0 X77.447 Y80.575 F1200
; --- FIX Y Backlash ---
G0 X77.447 Y81.875 F1200
G1 X77.778 Y82.149 Z0 F1300
G1 X78.048 Y82.452 Z0 F1300
G1 X78.263 Y82.784 Z0 F1300
G1 X78.428 Y83.145 Z0 F1300
G1 X78.548 Y83.535 Z0 F1300
G1 X78.627 Y83.955 Z0 F1300
G1 X78.671 Y84.403 Z0 F1300
G1 X78.685 Y84.881 Z0 F1300
G0 Z3.5 F500
; --- FIX X Backlash ---
G0 X77.385 Y84.881 F1200
; --- FIX Y Backlash ---
G0 X77.385 Y83.581 F1200
G0 X74.556 Y83.404 Z3.5
G1 Z0 F500
G1 X74.147 Y83.395 Z0 F1300
G1 X73.691 Y83.373 Z0 F1300
G1 X73.194 Y83.337 Z0 F1300
G1 X72.666 Y83.292 Z0 F1300
G1 X71.55 Y83.178 Z0 F1300
G1 X70.41 Y83.048 Z0 F1300
G1 X68.802 Y82.859 Z0 F1300
G1 X68.327 Y82.805 Z0 F1300
G1 X67.896 Y82.761 Z0 F1300
G1 X67.518 Y82.726 Z0 F1300
G1 X67.201 Y82.704 Z0 F1300
G1 X66.954 Y82.697 Z0 F1300
G0 Z3.5 F500
G0 Y81.99 Z3.5
G1 Z0 F500
; --- FIX X Backlash ---
G0 X68.254 Y81.99 F1200
G1 X68.428 Y81.942 Z0 F1300
G1 X68.61 Y81.896 Z0 F1300
G1 X68.837 Y81.857 Z0 F1300
G1 X69.149 Y81.827 Z0 F1300
G1 X69.71 Y81.819 Z0 F1300
G1 X70.223 Y81.851 Z0 F1300
G1 X70.727 Y81.9 Z0 F1300
; --- FIX Y Backlash ---
G0 X70.727 Y83.2 F1200
G1 X72.479 Y83.345 Z0 F1300
G1 X73.113 Y83.372 Z0 F1300
G1 X73.716 Y83.343 Z0 F1300
G1 X73.996 Y83.298 Z0 F1300
; --- FIX Y Backlash ---
G0 X73.996 Y81.998 F1200
G1 X74.256 Y81.928 Z0 F1300
G1 X74.491 Y81.828 Z0 F1300
G1 X74.697 Y81.694 Z0 F1300
G1 X74.871 Y81.524 Z0 F1300
G1 X75.007 Y81.313 Z0 F1300
G1 X75.101 Y81.057 Z0 F1300
G1 X75.149 Y80.752 Z0 F1300
; --- FIX Y Backlash ---
G0 X75.149 Y82.052 F1200
G1 X75.389 Y82.129 Z0 F1300
G1 X75.569 Y82.241 Z0 F1300
G1 X75.698 Y82.382 Z0 F1300
G1 X75.784 Y82.549 Z0 F1300
G1 X75.854 Y82.941 Z0 F1300
G1 X75.844 Y83.377 Z0 F1300
G1 X75.814 Y83.821 Z0 F1300
G1 X75.827 Y84.235 Z0 F1300
G1 X75.869 Y84.418 Z0 F1300
G1 X75.945 Y84.581 Z0 F1300
G1 X76.062 Y84.717 Z0 F1300
G1 X76.229 Y84.822 Z0 F1300
G1 X76.551 Y84.943 Z0 F1300
G1 X76.936 Y85.049 Z0 F1300
G1 X77.374 Y85.141 Z0 F1300
G1 X77.856 Y85.221 Z0 F1300
G1 X78.912 Y85.349 Z0 F1300
G1 X80.024 Y85.445 Z0 F1300
G1 X80.577 Y85.486 Z0 F1300
G1 X81.625 Y85.559 Z0 F1300
G1 X82.102 Y85.594 Z0 F1300
G1 X82.533 Y85.631 Z0 F1300
G1 X82.91 Y85.67 Z0 F1300
G1 X83.221 Y85.715 Z0 F1300
G1 X83.458 Y85.765 Z0 F1300
G0 Z3.5 F500
; --- FIX X Backlash ---
G0 X82.158 Y85.765 F1200
; --- FIX Y Backlash ---
G0 X82.158 Y84.465 F1200
G0 X80.567 Y83.934 Z3.5
G1 Z0 F500
G1 X80.526 Y83.457 Z0 F1300
G1 X80.417 Y82.961 Z0 F1300
G1 X80.262 Y82.451 Z0 F1300
G1 X80.08 Y81.933 Z0 F1300
G1 X79.894 Y81.41 Z0 F1300
G1 X79.724 Y80.888 Z0 F1300
G1 X79.592 Y80.372 Z0 F1300
G1 X79.519 Y79.867 Z0 F1300
G1 Y79.005 Z0 F1300
G1 X79.566 Y78.204 Z0 F1300
G1 Y77.821 Z0 F1300
G1 X79.525 Y77.448 Z0 F1300
G1 X79.429 Y77.082 Z0 F1300
G1 X79.262 Y76.722 Z0 F1300
G1 X79.125 Y76.515 Z0 F1300
G1 X78.98 Y76.343 Z0 F1300
G1 X78.826 Y76.204 Z0 F1300
G1 X78.665 Y76.096 Z0 F1300
G1 X78.318 Y75.955 Z0 F1300
G1 X77.94 Y75.897 Z0 F1300
G1 X77.533 Z0 F1300
G1 X77.097 Y75.925 Z0 F1300
G1 X76.635 Y75.961 Z0 F1300
G1 X76.147 Y75.979 Z0 F1300
; --- FIX X Backlash ---
G0 X77.447 Y75.979 F1200
; --- FIX Y Backlash ---
G0 X77.447 Y77.279 F1200
G1 X77.54 Y78.271 Z0 F1300
G1 X77.683 Y79.347 Z0 F1300
G1 X77.709 Y79.905 Z0 F1300
G1 X77.671 Y80.471 Z0 F1300
; --- FIX X Backlash ---
G0 X76.371 Y80.471 F1200
G1 X76.32 Y80.756 Z0 F1300
G1 X76.244 Y81.041 Z0 F1300
G1 X76.139 Y81.325 Z0 F1300
G1 X76.002 Y81.609 Z0 F1300
G1 X75.88 Y81.781 Z0 F1300
G1 X75.735 Y81.896 Z0 F1300
G1 X75.571 Y81.963 Z0 F1300
G1 X75.391 Y81.99 Z0 F1300
G1 X74.99 Y81.96 Z0 F1300
; --- FIX Y Backlash ---
G0 X74.99 Y80.66 F1200
G1 X74.556 Y80.575 Z0 F1300
G0 Z3.5 F500
; --- FIX Y Backlash ---
G0 X74.556 Y81.875 F1200
G0 X73.849 Y82.052 Z3.5
G1 Z0 F500
; --- FIX Y Backlash ---
G0 X73.849 Y80.752 F1200
G1 X73.142 Y80.045 Z0 F1300
G0 Z3.5 F500
; --- FIX Y Backlash ---
G0 X73.142 Y81.345 F1200
G0 X70.136 Y81.876 Z3.5
G1 Z0 F500
G1 Y83.113 Z0 F1300
G0 Z3.5 F500
; --- FIX Y Backlash ---
G0 X70.136 Y81.813 F1200
G0 X66.601 Y79.868 Z3.5
G1 Z0 F500
G1 Y79.515 Z0 F1300
G0 Z3.5 F500
; --- FIX X Backlash ---
G0 X67.901 Y79.515 F1200
G0 X70.906 Y75.095 Z3.5
G1 Z0 F500
G1 Y74.582 Z0 F1300
G1 X70.892 Y74.135 Z0 F1300
; --- FIX X Backlash ---
G0 X69.592 Y74.135 F1200
G1 X69.541 Y73.682 Z0 F1300
G1 X69.429 Y73.15 Z0 F1300
G0 Z3.5 F500
G0 X68.192 Y69.791 Z3.5
G1 Z0 F500
G1 Y68.2 Z0 F1300
G0 Z3.5 F500
; --- FIX X Backlash ---
G0 X69.492 Y68.2 F1200
G0 X70.906 Z3.5
G1 Z0 F500
; --- FIX Y Backlash ---
G0 X70.906 Y69.5 F1200
G1 X70.912 Y71.975 Z0 F1300
; --- FIX X Backlash ---
G0 X69.612 Y71.975 F1200
G1 X69.105 Y75.334 Z0 F1300
; --- FIX X Backlash ---
G0 X70.405 Y75.334 F1200
G1 X70.906 Y78.693 Z0 F1300
G0 Z3.5 F500
; --- FIX Y Backlash ---
G0 X70.906 Y77.393 F1200
G0 X74.796 Y75.802 Z3.5
G1 Z0 F500
G1 X77.271 Z0 F1300
G0 Z3.5 F500
G0 X77.447 Y75.625 Z3.5
G1 Z0 F500
G1 X77.44 Y75.401 Z0 F1300
G1 X77.421 Y75.148 Z0 F1300
G1 X77.393 Y74.871 Z0 F1300
; --- FIX X Backlash ---
G0 X76.093 Y74.871 F1200
G1 X75.984 Y73.94 Z0 F1300
G1 X75.923 Y73.282 Z0 F1300
G1 X75.899 Y72.64 Z0 F1300
G1 X75.936 Y72.049 Z0 F1300
G1 X75.985 Y71.785 Z0 F1300
; --- FIX X Backlash ---
G0 X77.285 Y71.785 F1200
G1 X77.359 Y71.548 Z0 F1300
G1 X77.461 Y71.343 Z0 F1300
G1 X77.593 Y71.174 Z0 F1300
G1 X77.786 Y71.027 Z0 F1300
G1 X78.041 Y70.906 Z0 F1300
G1 X78.348 Y70.809 Z0 F1300
G1 X78.699 Y70.734 Z0 F1300
G1 X79.501 Y70.639 Z0 F1300
G1 X80.378 Y70.603 Z0 F1300
G1 X81.262 Y70.607 Z0 F1300
G1 X82.086 Y70.632 Z0 F1300
G1 X83.06 Y70.671 Z0 F1300
G1 X83.282 Y70.675 Z0 F1300
G0 Z3.5 F500
; --- FIX Y Backlash ---
G0 X83.282 Y71.975 F1200
G0 X84.342 Y73.743 Z3.5
G1 Z0 F500
; --- FIX Y Backlash ---
G0 X84.342 Y72.443 F1200
G1 X84.696 Y58.299 Z0 F1300
G0 Z3.5 F500
; --- FIX X Backlash ---
G0 X83.396 Y58.299 F1200
; --- FIX Y Backlash ---
G0 X83.396 Y59.599 F1200
G0 X76.855 Y59.776 Z3.5
G1 Z0 F500
; --- FIX X Backlash ---
G0 X78.155 Y59.776 F1200
; --- FIX Y Backlash ---
G0 X78.155 Y58.476 F1200
G1 X78.431 Y58.211 Z0 F1300
G1 X78.627 Y57.892 Z0 F1300
G1 X78.756 Y57.527 Z0 F1300
G1 X78.83 Y57.124 Z0 F1300
G1 X78.872 Y56.237 Z0 F1300
G1 X78.862 Y55.294 Z0 F1300
G0 Z3.5 F500
; --- FIX X Backlash ---
G0 X77.562 Y55.294 F1200
; --- FIX Y Backlash ---
G0 X77.562 Y56.594 F1200
G0 X76.678 Y57.124 Z3.5
G1 Z0 F500
G1 Y57.478 Z0 F1300
G0 Z3.5 F500
; --- FIX Y Backlash ---
G0 X76.678 Y56.178 F1200
G0 X75.971 Y56.001 Z3.5
G1 Z0 F500
; --- FIX X Backlash ---
G0 X77.271 Y56.001 F1200
; --- FIX Y Backlash ---
G0 X77.271 Y57.301 F1200
G1 X77.447 Y58.008 Z0 F1300
G0 Z3.5 F500
; --- FIX X Backlash ---
G0 X76.147 Y58.008 F1200
; --- FIX Y Backlash ---
G0 X76.147 Y56.708 F1200
G0 X75.44 Y56.531 Z3.5
G1 Z0 F500
G1 X75.178 Y56.407 Z0 F1300
G1 X74.954 Y56.285 Z0 F1300
G1 X74.761 Y56.157 Z0 F1300
G1 X74.592 Y56.013 Z0 F1300
G1 X74.441 Y55.846 Z0 F1300
G1 X74.301 Y55.646 Z0 F1300
G1 X74.165 Y55.406 Z0 F1300
G1 X74.026 Y55.117 Z0 F1300
G0 Z3.5 F500
; --- FIX X Backlash ---
G0 X75.326 Y55.117 F1200
; --- FIX Y Backlash ---
G0 X75.326 Y56.417 F1200
G0 X76.917 Y56.594 Z3.5
G1 Z0 F500
; --- FIX Y Backlash ---
G0 X76.917 Y55.294 F1200
G1 Y54.94 Z0 F1300
G0 Z3.5 F500
; --- FIX X Backlash ---
G0 X75.617 Y54.94 F1200
G0 X75.087 Y53.879 Z3.5
G1 Z0 F500
; --- FIX X Backlash ---
G0 X76.387 Y53.879 F1200
G1 X76.537 Y53.738 Z0 F1300
G1 X76.658 Y53.616 Z0 F1300
G1 X76.756 Y53.505 Z0 F1300
G1 X76.836 Y53.397 Z0 F1300
G1 X76.966 Y53.155 Z0 F1300
G1 X77.094 Y52.819 Z0 F1300
G0 Z3.5 F500
; --- FIX Y Backlash ---
G0 X77.094 Y54.119 F1200
G0 X78.155 Y54.295 Z3.5
G1 Z0 F500
G1 X78.444 Y54.782 Z0 F1300
G1 X78.693 Y55.192 Z0 F1300
G1 X78.924 Y55.531 Z0 F1300
G1 X79.16 Y55.8 Z0 F1300
G1 X79.426 Y56.002 Z0 F1300
G1 X79.744 Y56.141 Z0 F1300
G1 X79.93 Y56.188 Z0 F1300
G1 X80.138 Y56.219 Z0 F1300
G1 X80.37 Y56.237 Z0 F1300
G1 X80.63 Y56.24 Z0 F1300
G1 X80.602 Y57.46 Z0 F1300
; --- FIX X Backlash ---
G0 X79.302 Y57.46 F1200
G1 X79.209 Y59.207 Z0 F1300
G1 X79.181 Y59.853 Z0 F1300
G1 X79.161 Y60.566 Z0 F1300
G1 X79.153 Y61.367 Z0 F1300
G1 Y63.135 Z0 F1300
; --- FIX X Backlash ---
G0 X80.453 Y63.135 F1200
G1 X80.509 Y65.373 Z0 F1300
G1 X80.751 Y69.944 Z0 F1300
G1 X80.807 Y72.152 Z0 F1300
G1 Y77.455 Z0 F1300
G1 X83.282 Z0 F1300
G0 Z3.5 F500
; --- FIX Y Backlash ---
G0 X83.282 Y76.155 F1200
G0 X91.414 Y71.736 Z3.5
G1 Z0 F500
G1 X91.469 Y68.068 Z0 F1300
G1 X91.711 Y60.73 Z0 F1300
G1 X91.792 Y55.575 Z0 F1300
G1 X91.875 Y54.036 Z0 F1300
G1 X91.944 Y53.294 Z0 F1300
G1 X92.037 Y52.596 Z0 F1300
G1 X92.154 Y51.96 Z0 F1300
G1 X92.298 Y51.405 Z0 F1300
; --- FIX Y Backlash ---
G0 X92.298 Y52.705 F1200
G1 X92.364 Y53.023 Z0 F1300
G1 X92.417 Y53.396 Z0 F1300
G1 X92.459 Y53.819 Z0 F1300
G1 X92.49 Y54.283 Z0 F1300
G1 X92.525 Y55.311 Z0 F1300
G1 X92.532 Y56.426 Z0 F1300
G1 X92.521 Y57.572 Z0 F1300
G1 X92.483 Y59.744 Z0 F1300
G1 X92.477 Y60.222 Z0 F1300
G1 Y60.66 Z0 F1300
; --- FIX X Backlash ---
G0 X91.177 Y60.66 F1200
G1 X91.12 Y66.272 Z0 F1300
G1 X90.877 Y77.501 Z0 F1300
G1 X90.821 Y83.113 Z0 F1300
G0 Z3.5 F500

; Color picking sequence
G1 Z10 F1000;         ; Raise brush
G0 X41 Y5 F1200;    ; Rapid move to color 1
G1 Z10 F1000;         ; Raise brush
G0 X41 Y5 F1200;    ; Rapid move to color 1
G1 Z0 F1000;         ; Lower into color
G1 X40.102 Y7.295 Z0 S800 F1200
G1 X40.026 Y7.642 Z0 F1200
G1 X40 Y8 Z0 F1200
G1 X40.026 Y8.358 Z0 F1200
G1 X40.102 Y8.705 Z0 F1200
G1 X40.225 Y9.041 Z0 F1200
G1 X40.393 Y9.362 Z0 F1200
G1 X40.603 Y9.668 Z0 F1200
G1 X40.854 Y9.957 Z0 F1200
G1 X41.142 Y10.226 Z0 F1200
G1 X41.464 Y10.475 Z0 F1200
G1 X41.82 Y10.701 Z0 F1200
G1 X42.204 Y10.902 Z0 F1200
G1 X42.617 Y11.078 Z0 F1200
G1 X43.054 Y11.225 Z0 F1200
G1 X43.513 Y11.343 Z0 F1200
G1 X43.992 Y11.429 Z0 F1200
G1 X44.489 Y11.482 Z0 F1200
G1 X45 Y11.5 Z0 F1200
G1 X45.511 Y11.482 Z0 F1200
G1 X46.008 Y11.429 Z0 F1200
G1 X46.487 Y11.343 Z0 F1200
G1 X46.946 Y11.225 Z0 F1200
G1 X47.383 Y11.078 Z0 F1200
G1 X47.796 Y10.902 Z0 F1200
G1 X48.18 Y10.701 Z0 F1200
G1 X48.536 Y10.475 Z0 F1200
G1 X48.858 Y10.226 Z0 F1200
G1 X49.146 Y9.957 Z0 F1200
G1 X49.397 Y9.668 Z0 F1200
G1 X49.607 Y9.362 Z0 F1200
G1 X49.775 Y9.041 Z0 F1200
G1 X49.898 Y8.705 Z0 F1200
G1 X49.974 Y8.358 Z0 F1200
G1 X50 Y8 Z0 F1200
G1 X49.974 Y7.642 Z0 F1200
G1 X49.898 Y7.295 Z0 F1200
G1 X49.775 Y6.959 Z0 F1200
G1 X49.607 Y6.638 Z0 F1200
G1 X49.397 Y6.332 Z0 F1200
G1 X49.146 Y6.043 Z0 F1200
G1 X48.858 Y5.774 Z0 F1200
G1 X48.536 Y5.525 Z0 F1200
G1 X48.18 Y5.299 Z0 F1200
G1 X47.796 Y5.098 Z0 F1200
G1 X47.383 Y4.922 Z0 F1200
G1 X46.946 Y4.775 Z0 F1200
G1 X46.487 Y4.657 Z0 F1200
G1 X46.008 Y4.571 Z0 F1200
G1 X45.511 Y4.518 Z0 F1200
G1 X45 Y4.5 Z0 F1200
G1 X44.489 Y4.518 Z0 F1200
G1 X43.992 Y4.571 Z0 F1200
G1 X43.513 Y4.657 Z0 F1200
G1 X43.054 Y4.775 Z0 F1200
G1 X42.617 Y4.922 Z0 F1200
G1 X42.204 Y5.098 Z0 F1200
G1 X41.82 Y5.299 Z0 F1200
G1 X41.464 Y5.525 Z0 F1200
G1 X41.142 Y5.774 Z0 F1200
G1 X40.854 Y6.043 Z0 F1200
G1 X40.603 Y6.332 Z0 F1200
G1 X40.393 Y6.638 Z0 F1200
G1 X40.225 Y6.959 Z0 F1200
G1 Z7 F800;         ; Raise from color
G1 X34 Y8 Z1 F1200;     ; Movement in paint
G1 X24 Y18 Z8 F500;     ; Move in paint
G1 F1200;           ; Set feed rate
G0 Z2.5 F1000 ; Safety Lift
G0 X90.821 Y83.113 F1200 ; Return to pos
; --- FIX X Backlash ---
G0 X92.121 Y83.113 F1200
G0 X93.182 Y83.466 Z3.5
G1 Z0 F500
; --- FIX Y Backlash ---
G0 X93.182 Y82.166 F1200
G1 X93.713 Y57.592 Z0 F1300
G0 Z3.5 F500
; --- FIX Y Backlash ---
G0 X93.713 Y58.892 F1200
G0 X94.42 Y64.726 Z3.5
G1 Z0 F500
; --- FIX X Backlash ---
G0 X93.12 Y64.726 F1200
G1 X92.943 Y71.621 Z0 F1300
G0 Z3.5 F500
; --- FIX X Backlash ---
G0 X94.243 Y71.621 F1200
G0 X95.657 Y72.505 Z3.5
G1 Z0 F500
; --- FIX Y Backlash ---
G0 X95.657 Y71.205 F1200
G1 X96.18 Y67.316 Z0 F1300
G1 X96.364 Y64.664 Z0 F1300
G0 Z3.5 F500
; --- FIX X Backlash ---
G0 X95.064 Y64.664 F1200
; --- FIX Y Backlash ---
G0 X95.064 Y65.964 F1200
G0 X94.004 Y67.732 Z3.5
G1 Z0 F500
G1 Y68.439 Z0 F1300
G0 Z3.5 F500
; --- FIX X Backlash ---
G0 X95.304 Y68.439 F1200
G0 X96.188 Y69.676 Z3.5
G1 Z0 F500
G1 X96.304 Y70.275 Z0 F1300
G1 X96.355 Y70.873 Z0 F1300
G1 X96.364 Y71.193 Z0 F1300
G1 Y71.536 Z0 F1300
G1 Y72.328 Z0 F1300
G0 Z3.5 F500
G0 X103.436 Y74.98 Z3.5
G1 Z0 F500
G1 X111.569 Z0 F1300
G0 Z3.5 F500
G0 X112.629 Y75.334 Z3.5
G1 Z0 F500
; --- FIX Y Backlash ---
G0 X112.629 Y74.034 F1200
G1 Y71.559 Z0 F1300
G0 Z3.5 F500
; --- FIX Y Backlash ---
G0 X112.629 Y72.859 F1200
G0 X114.928 Y73.92 Z3.5
G1 Z0 F500
; --- FIX Y Backlash ---
G0 X114.928 Y72.62 F1200
G1 X114.934 Y71.734 Z0 F1300
G1 X114.931 Y71.344 Z0 F1300
G1 X114.914 Y70.979 Z0 F1300
G1 X114.877 Y70.632 Z0 F1300
; --- FIX X Backlash ---
G0 X113.577 Y70.632 F1200
G1 X113.513 Y70.294 Z0 F1300
G1 X113.414 Y69.957 Z0 F1300
G1 X113.274 Y69.614 Z0 F1300
; --- FIX Y Backlash ---
G0 X113.274 Y70.914 F1200
G1 X113.173 Y71.187 Z0 F1300
G1 X113.09 Y71.49 Z0 F1300
G1 X113.023 Y71.819 Z0 F1300
G1 X112.971 Y72.168 Z0 F1300
G1 X112.904 Y72.913 Z0 F1300
G1 X112.877 Y73.69 Z0 F1300
G1 Y74.461 Z0 F1300
G1 X112.893 Y75.193 Z0 F1300
G1 X112.912 Y75.849 Z0 F1300
G1 X112.918 Y76.138 Z0 F1300
G1 X112.921 Y76.395 Z0 F1300
G0 Z3.5 F500
; --- FIX Y Backlash ---
G0 X112.921 Y75.095 F1200
G0 X112.39 Y74.741 Z3.5
G1 Z0 F500
G1 X112.341 Y74.237 Z0 F1300
G1 X112.325 Y73.783 Z0 F1300
G1 X112.329 Y73.361 Z0 F1300
G1 X112.34 Y72.95 Z0 F1300
G1 X112.346 Y72.532 Z0 F1300
G1 X112.335 Y72.085 Z0 F1300
G1 X112.295 Y71.59 Z0 F1300
G1 X112.098 Y70.221 Z0 F1300
G1 X112.027 Y69.388 Z0 F1300
G1 X111.993 Y68.535 Z0 F1300
G1 X111.984 Y67.667 Z0 F1300
G1 X112.011 Y65.903 Z0 F1300
G1 X112.037 Y64.133 Z0 F1300
G0 Z3.5 F500
; --- FIX X Backlash ---
G0 X113.337 Y64.133 F1200
; --- FIX Y Backlash ---
G0 X113.337 Y65.433 F1200
G0 X114.397 Y66.671 Z3.5
G1 Z0 F500
G1 Y67.555 Z0 F1300
G0 Z3.5 F500
; --- FIX X Backlash ---
G0 X113.097 Y67.555 F1200
G0 X112.921 Y67.732 Z3.5
G1 Z0 F500
; --- FIX Y Backlash ---
G0 X112.921 Y66.432 F1200
G1 X112.567 Y65.725 Z0 F1300
G0 Z3.5 F500
; --- FIX X Backlash ---
G0 X113.867 Y65.725 F1200
; --- FIX Y Backlash ---
G0 X113.867 Y67.025 F1200
G0 X115.635 Y67.909 Z3.5
G1 Z0 F500
; --- FIX Y Backlash ---
G0 X115.635 Y66.609 F1200
G1 X116.696 Y62.189 Z0 F1300
G0 Z3.5 F500
; --- FIX X Backlash ---
G0 X115.396 Y62.189 F1200
G0 X114.158 Z3.5
G1 Z0 F500
G1 Y61.482 Z0 F1300
G0 Z3.5 F500
; --- FIX X Backlash ---
G0 X115.458 Y61.482 F1200
G0 X115.812 Y61.128 Z3.5
G1 Z0 F500
G1 X115.816 Y60.65 Z0 F1300
G1 X115.829 Y60.258 Z0 F1300
G1 X115.853 Y59.936 Z0 F1300
G1 X115.888 Y59.668 Z0 F1300
G1 X115.997 Y59.234 Z0 F1300
G1 X116.165 Y58.83 Z0 F1300
G0 Z3.5 F500
G0 X117.049 Y58.653 Z3.5
G1 Z0 F500
G1 Y55.824 Z0 F1300
G0 Z3.5 F500
; --- FIX X Backlash ---
G0 X115.749 Y55.824 F1200
G0 X114.689 Y55.647 Z3.5
G1 Z0 F500
G1 X114.335 Z0 F1300
G0 Z3.5 F500
; --- FIX Y Backlash ---
G0 X114.335 Y56.947 F1200
G0 Y57.478 Z3.5
G1 Z0 F500
; --- FIX Y Backlash ---
G0 X114.335 Y56.178 F1200
G1 X114.158 Y55.471 Z0 F1300
G1 X113.805 Z0 F1300
; --- FIX Y Backlash ---
G0 X113.805 Y56.771 F1200
G1 X113.709 Y57.203 Z0 F1300
G1 X113.634 Y57.66 Z0 F1300
G1 X113.576 Y58.142 Z0 F1300
G1 X113.533 Y58.645 Z0 F1300
G1 X113.479 Y59.709 Z0 F1300
G1 X113.451 Y60.837 Z0 F1300
G0 Z3.5 F500
; --- FIX Y Backlash ---
G0 X113.451 Y59.537 F1200
G0 X112.213 Y59.183 Z3.5
G1 Z0 F500
G1 Y56.531 Z0 F1300
G0 Z3.5 F500
; --- FIX Y Backlash ---
G0 X112.213 Y57.831 F1200
G0 X111.683 Y58.715 Z3.5
G1 Z0 F500
G1 X111.506 Y59.599 Z0 F1300
G0 Z3.5 F500
G0 X110.092 Y59.776 Z3.5
G1 Z0 F500
; --- FIX Y Backlash ---
G0 X110.092 Y58.476 F1200
G1 Y57.592 Z0 F1300
G0 Z3.5 F500
; --- FIX Y Backlash ---
G0 X110.092 Y58.892 F1200
G0 X109.385 Y59.069 Z3.5
G1 Z0 F500
G1 Y61.544 Z0 F1300
G0 Z3.5 F500
; --- FIX Y Backlash ---
G0 X109.385 Y60.244 F1200
G0 X108.854 Y59.714 Z3.5
G1 Z0 F500
; --- FIX Y Backlash ---
G0 X108.854 Y61.014 F1200
G1 X108.678 Y62.605 Z0 F1300
G0 Z3.5 F500
; --- FIX Y Backlash ---
G0 X108.678 Y61.305 F1200
G0 X108.147 Y61.128 Z3.5
G1 Z0 F500
; --- FIX X Backlash ---
G0 X109.447 Y61.128 F1200
G1 X109.624 Y58.476 Z0 F1300
G0 Z3.5 F500
; --- FIX X Backlash ---
G0 X108.324 Y58.476 F1200
G0 X107.97 Y57.946 Z3.5
G1 Z0 F500
; --- FIX Y Backlash ---
G0 X107.97 Y59.246 F1200
G1 X107.794 Y62.251 Z0 F1300
G0 Z3.5 F500
; --- FIX Y Backlash ---
G0 X107.794 Y60.951 F1200
G0 X107.263 Y60.598 Z3.5
G1 Z0 F500
; --- FIX X Backlash ---
G0 X108.563 Y60.598 F1200
G1 X108.74 Y55.647 Z0 F1300
G0 Z3.5 F500
; --- FIX X Backlash ---
G0 X107.44 Y55.647 F1200
; --- FIX Y Backlash ---
G0 X107.44 Y56.947 F1200
G0 X106.733 Y57.478 Z3.5
G1 Z0 F500
G1 X106.673 Y57.918 Z0 F1300
G1 X106.62 Y58.348 Z0 F1300
G1 X106.598 Y58.578 Z0 F1300
G1 X106.579 Y58.829 Z0 F1300
G1 X106.565 Y59.108 Z0 F1300
G1 X106.556 Y59.422 Z0 F1300
G0 Z3.5 F500
G0 X105.849 Y60.13 Z3.5
G1 Z0 F500
; --- FIX Y Backlash ---
G0 X105.849 Y58.83 F1200
G1 X105.83 Y58.342 Z0 F1300
G1 X105.791 Y57.756 Z0 F1300
G1 X105.759 Y57.118 Z0 F1300
G1 Y56.47 Z0 F1300
G1 X105.779 Y56.157 Z0 F1300
G1 X105.817 Y55.859 Z0 F1300
; --- FIX X Backlash ---
G0 X107.117 Y55.859 F1200
G1 X107.177 Y55.581 Z0 F1300
G1 X107.261 Y55.329 Z0 F1300
G1 X107.372 Y55.108 Z0 F1300
G1 X107.515 Y54.924 Z0 F1300
G1 X107.692 Y54.782 Z0 F1300
G1 X107.906 Y54.689 Z0 F1300
G1 X108.229 Y54.617 Z0 F1300
G1 X108.6 Y54.571 Z0 F1300
G1 X109.013 Y54.549 Z0 F1300
G1 X109.461 Z0 F1300
; --- FIX Y Backlash ---
G0 X109.461 Y55.849 F1200
G1 X110.43 Y55.908 Z0 F1300
G1 X111.452 Y56.036 Z0 F1300
G1 X112.469 Y56.217 Z0 F1300
G1 X113.425 Y56.439 Z0 F1300
G1 X113.863 Y56.561 Z0 F1300
G1 X114.264 Y56.687 Z0 F1300
G1 X114.621 Y56.817 Z0 F1300
G1 X114.928 Y56.947 Z0 F1300
G0 Z3.5 F500
G0 X118.64 Y59.069 Z3.5
G1 Z0 F500
G1 Y63.489 Z0 F1300
G0 Z3.5 F500
G0 X119.171 Y63.842 Z3.5
G1 Z0 F500
G1 Y64.019 Z0 F1300
G0 Z3.5 F500
; --- FIX Y Backlash ---
G0 X119.171 Y62.719 F1200
G0 X120.055 Y62.542 Z3.5
G1 Z0 F500
; --- FIX X Backlash ---
G0 X118.755 Y62.542 F1200
G1 X118.592 Y58.83 Z0 F1300
; --- FIX X Backlash ---
G0 X119.892 Y58.83 F1200
G1 X120.055 Y56.178 Z0 F1300
G0 Z3.5 F500
G0 X120.939 Z3.5
G1 Z0 F500
; --- FIX X Backlash ---
G0 X119.639 Y56.178 F1200
G1 X118.434 Y56.018 Z0 F1300
G1 X117.19 Y55.838 Z0 F1300
G1 X116.574 Y55.773 Z0 F1300
G1 X115.976 Y55.741 Z0 F1300
G1 X115.403 Y55.753 Z0 F1300
; --- FIX Y Backlash ---
G0 X115.403 Y57.053 F1200
G1 X114.865 Y57.124 Z0 F1300
G1 X114.911 Y57.369 Z0 F1300
G1 X114.943 Y57.582 Z0 F1300
G1 X114.962 Y57.768 Z0 F1300
G1 X114.971 Y57.932 Z0 F1300
G1 X114.962 Y58.211 Z0 F1300
G1 X114.929 Y58.454 Z0 F1300
G1 X114.886 Y58.696 Z0 F1300
G1 X114.846 Y58.973 Z0 F1300
G1 X114.831 Y59.136 Z0 F1300
G1 X114.823 Y59.321 Z0 F1300
G1 Y59.533 Z0 F1300
G1 X114.829 Y59.776 Z0 F1300
G1 X114.861 Y60.342 Z0 F1300
G1 X114.896 Y60.846 Z0 F1300
; --- FIX X Backlash ---
G0 X116.196 Y60.846 F1200
G1 X116.266 Y61.762 Z0 F1300
G1 X116.296 Y62.217 Z0 F1300
G1 X116.32 Y62.701 Z0 F1300
G1 X116.336 Y63.235 Z0 F1300
G1 X116.342 Y63.842 Z0 F1300
G0 Z3.5 F500
; --- FIX X Backlash ---
G0 X115.042 Y63.842 F1200
; --- FIX Y Backlash ---
G0 X115.042 Y62.542 F1200
G0 X113.451 Y62.366 Z3.5
G1 Z0 F500
G1 Y61.305 Z0 F1300
G0 Z3.5 F500
; --- FIX X Backlash ---
G0 X114.751 Y61.305 F1200
G0 X119.171 Y60.774 Z3.5
G1 Z0 F500
G1 X119.348 Y58.476 Z0 F1300
G0 Z3.5 F500
; --- FIX Y Backlash ---
G0 X119.348 Y59.776 F1200
G0 X120.585 Y59.953 Z3.5
G1 Z0 F500
G1 X120.942 Y67.378 Z0 F1300
; --- FIX X Backlash ---
G0 X119.642 Y67.378 F1200
G1 X119.54 Y73.566 Z0 F1300
G1 X119.147 Y75.157 Z0 F1300
G1 X119.108 Y78.339 Z0 F1300
G0 Z3.5 F500

; Color picking sequence
G1 Z10 F1000;         ; Raise brush
G0 X41 Y5 F1200;    ; Rapid move to color 1
G1 Z10 F1000;         ; Raise brush
G0 X41 Y5 F1200;    ; Rapid move to color 1
G1 Z0 F1000;         ; Lower into color
G1 X40.102 Y7.295 Z0 S800 F1200
G1 X40.026 Y7.642 Z0 F1200
G1 X40 Y8 Z0 F1200
G1 X40.026 Y8.358 Z0 F1200
G1 X40.102 Y8.705 Z0 F1200
G1 X40.225 Y9.041 Z0 F1200
G1 X40.393 Y9.362 Z0 F1200
G1 X40.603 Y9.668 Z0 F1200
G1 X40.854 Y9.957 Z0 F1200
G1 X41.142 Y10.226 Z0 F1200
G1 X41.464 Y10.475 Z0 F1200
G1 X41.82 Y10.701 Z0 F1200
G1 X42.204 Y10.902 Z0 F1200
G1 X42.617 Y11.078 Z0 F1200
G1 X43.054 Y11.225 Z0 F1200
G1 X43.513 Y11.343 Z0 F1200
G1 X43.992 Y11.429 Z0 F1200
G1 X44.489 Y11.482 Z0 F1200
G1 X45 Y11.5 Z0 F1200
G1 X45.511 Y11.482 Z0 F1200
G1 X46.008 Y11.429 Z0 F1200
G1 X46.487 Y11.343 Z0 F1200
G1 X46.946 Y11.225 Z0 F1200
G1 X47.383 Y11.078 Z0 F1200
G1 X47.796 Y10.902 Z0 F1200
G1 X48.18 Y10.701 Z0 F1200
G1 X48.536 Y10.475 Z0 F1200
G1 X48.858 Y10.226 Z0 F1200
G1 X49.146 Y9.957 Z0 F1200
G1 X49.397 Y9.668 Z0 F1200
G1 X49.607 Y9.362 Z0 F1200
G1 X49.775 Y9.041 Z0 F1200
G1 X49.898 Y8.705 Z0 F1200
G1 X49.974 Y8.358 Z0 F1200
G1 X50 Y8 Z0 F1200
G1 X49.974 Y7.642 Z0 F1200
G1 X49.898 Y7.295 Z0 F1200
G1 X49.775 Y6.959 Z0 F1200
G1 X49.607 Y6.638 Z0 F1200
G1 X49.397 Y6.332 Z0 F1200
G1 X49.146 Y6.043 Z0 F1200
G1 X48.858 Y5.774 Z0 F1200
G1 X48.536 Y5.525 Z0 F1200
G1 X48.18 Y5.299 Z0 F1200
G1 X47.796 Y5.098 Z0 F1200
G1 X47.383 Y4.922 Z0 F1200
G1 X46.946 Y4.775 Z0 F1200
G1 X46.487 Y4.657 Z0 F1200
G1 X46.008 Y4.571 Z0 F1200
G1 X45.511 Y4.518 Z0 F1200
G1 X45 Y4.5 Z0 F1200
G1 X44.489 Y4.518 Z0 F1200
G1 X43.992 Y4.571 Z0 F1200
G1 X43.513 Y4.657 Z0 F1200
G1 X43.054 Y4.775 Z0 F1200
G1 X42.617 Y4.922 Z0 F1200
G1 X42.204 Y5.098 Z0 F1200
G1 X41.82 Y5.299 Z0 F1200
G1 X41.464 Y5.525 Z0 F1200
G1 X41.142 Y5.774 Z0 F1200
G1 X40.854 Y6.043 Z0 F1200
G1 X40.603 Y6.332 Z0 F1200
G1 X40.393 Y6.638 Z0 F1200
G1 X40.225 Y6.959 Z0 F1200
G1 Z7 F800;         ; Raise from color
G1 X34 Y8 Z1 F1200;     ; Movement in paint
G1 X24 Y18 Z8 F500;     ; Move in paint
G1 F1200;           ; Set feed rate
G0 Z2.5 F1000 ; Safety Lift
G0 X119.108 Y78.339 F1200 ; Return to pos
; --- FIX X Backlash ---
G0 X120.408 Y78.339 F1200
G0 X121.116 Z3.5
G1 Z0 F500
; --- FIX Y Backlash ---
G0 X121.116 Y77.039 F1200
G1 Y73.327 Z0 F1300
G0 Z3.5 F500
; --- FIX Y Backlash ---
G0 X121.116 Y74.627 F1200
G0 X121.646 Y74.804 Z3.5
G1 Z0 F500
G1 X121.823 Y79.931 Z0 F1300
G0 Z3.5 F500
; --- FIX X Backlash ---
G0 X120.523 Y79.931 F1200
; --- FIX Y Backlash ---
G0 X120.523 Y78.631 F1200
G0 X119.462 Y78.1 Z3.5
G1 Z0 F500
G1 X119.108 Y77.04 Z0 F1300
; --- FIX Y Backlash ---
G0 X119.108 Y78.34 F1200
G1 X118.936 Y78.719 Z0 F1300
G1 X118.808 Y79.066 Z0 F1300
G1 X118.738 Y79.392 Z0 F1300
G1 Y79.707 Z0 F1300
; --- FIX X Backlash ---
G0 X120.038 Y79.707 F1200
G1 X120.126 Y80.021 Z0 F1300
G1 X120.313 Y80.345 Z0 F1300
G1 X120.447 Y80.515 Z0 F1300
G1 X120.612 Y80.69 Z0 F1300
G1 X120.809 Y80.874 Z0 F1300
G1 X121.039 Y81.066 Z0 F1300
G1 X121.315 Y81.275 Z0 F1300
G1 X121.532 Y81.424 Z0 F1300
G1 X121.701 Y81.537 Z0 F1300
G1 X121.831 Y81.638 Z0 F1300
G1 X121.933 Y81.751 Z0 F1300
G1 X122.018 Y81.901 Z0 F1300
G1 X122.096 Y82.111 Z0 F1300
G1 X122.176 Y82.406 Z0 F1300
G0 Z3.5 F500
; --- FIX X Backlash ---
G0 X120.876 Y82.406 F1200
G0 X119.639 Y82.583 Z3.5
G1 Z0 F500
; --- FIX Y Backlash ---
G0 X119.639 Y81.283 F1200
G1 Y80.222 Z0 F1300
; --- FIX Y Backlash ---
G0 X119.639 Y81.522 F1200
G1 X119.391 Y81.691 Z0 F1300
G1 X119.205 Y81.872 Z0 F1300
G1 X119.128 Y81.992 Z0 F1300
G1 X119.058 Y82.143 Z0 F1300
G1 X118.994 Y82.337 Z0 F1300
G1 X118.932 Y82.583 Z0 F1300
G0 Z3.5 F500
; --- FIX Y Backlash ---
G0 X118.932 Y81.283 F1200
G0 X118.755 Y80.398 Z3.5
G1 Z0 F500
G1 X118.439 Y80.345 Z0 F1300
G1 X118.157 Y80.314 Z0 F1300
G1 X117.899 Y80.302 Z0 F1300
G1 X117.655 Y80.306 Z0 F1300
G1 X117.173 Y80.343 Z0 F1300
; --- FIX Y Backlash ---
G0 X117.173 Y81.643 F1200
G1 X116.633 Y81.698 Z0 F1300
G0 Z3.5 F500
G0 X115.219 Y81.876 Z3.5
G1 Z0 F500
G1 X114.924 Z0 F1300
G1 X114.233 Y81.865 Z0 F1300
G1 X113.849 Y81.862 Z0 F1300
G1 X113.036 Y81.872 Z0 F1300
G1 X112.206 Y81.914 Z0 F1300
G1 X111.801 Y81.953 Z0 F1300
G1 X111.411 Y82.007 Z0 F1300
G1 X111.041 Y82.078 Z0 F1300
G1 X110.7 Y82.167 Z0 F1300
G1 X110.392 Y82.278 Z0 F1300
G1 X110.125 Y82.413 Z0 F1300
G1 X109.905 Y82.572 Z0 F1300
G1 X109.738 Y82.76 Z0 F1300
G0 Z3.5 F500
; --- FIX Y Backlash ---
G0 X109.738 Y81.46 F1200
G0 X109.561 Y80.929 Z3.5
G1 Z0 F500
G1 X109.178 Y80.907 Z0 F1300
G1 X108.806 Y80.855 Z0 F1300
G1 X108.445 Y80.775 Z0 F1300
G1 X108.096 Y80.669 Z0 F1300
G1 X107.428 Y80.395 Z0 F1300
G1 X106.8 Y80.053 Z0 F1300
G1 X106.208 Y79.665 Z0 F1300
G1 X105.648 Y79.255 Z0 F1300
G1 X104.611 Y78.454 Z0 F1300
; --- FIX Y Backlash ---
G0 X104.611 Y79.754 F1200
G1 X104.258 Y80.991 Z0 F1300
G0 Z3.5 F500
G0 X103.727 Y81.345 Z3.5
G1 Z0 F500
; --- FIX Y Backlash ---
G0 X103.727 Y80.045 F1200
G1 X103.551 Y78.631 Z0 F1300
G0 Z3.5 F500
G0 X103.02 Y78.277 Z3.5
G1 Z0 F500
; --- FIX Y Backlash ---
G0 X103.02 Y79.577 F1200
G1 X103.054 Y80.199 Z0 F1300
; --- FIX X Backlash ---
G0 X104.354 Y80.199 F1200
G1 X104.419 Y80.743 Z0 F1300
G1 X104.504 Y81.232 Z0 F1300
G1 X104.692 Y82.135 Z0 F1300
G1 X104.773 Y82.595 Z0 F1300
G1 X104.829 Y83.09 Z0 F1300
G1 X104.851 Y83.643 Z0 F1300
G0 Z3.5 F500
; --- FIX Y Backlash ---
G0 X104.851 Y82.343 F1200
G0 X105.734 Y82.166 Z3.5
G1 Z0 F500
G1 Y80.929 Z0 F1300
G0 Z3.5 F500
; --- FIX Y Backlash ---
G0 X105.734 Y82.229 F1200
G0 X106.795 Y82.406 Z3.5
G1 Z0 F500
; --- FIX Y Backlash ---
G0 X106.795 Y81.106 F1200
G1 Y80.399 Z0 F1300
G0 Z3.5 F500
; --- FIX X Backlash ---
G0 X105.495 Y80.399 F1200
G0 X104.965 Y79.868 Z3.5
G1 Z0 F500
; --- FIX X Backlash ---
G0 X106.265 Y79.868 F1200
; --- FIX Y Backlash ---
G0 X106.265 Y81.168 F1200
G1 X107.326 Y83.82 Z0 F1300
G0 Z3.5 F500
; --- FIX Y Backlash ---
G0 X107.326 Y82.52 F1200
G0 X108.033 Y81.813 Z3.5
G1 Z0 F500
G1 Y80.929 Z0 F1300
G0 Z3.5 F500
; --- FIX X Backlash ---
G0 X106.733 Y80.929 F1200
; --- FIX Y Backlash ---
G0 X106.733 Y82.229 F1200
G0 X106.202 Y82.406 Z3.5
G1 Z0 F500
G1 X105.849 Y82.936 Z0 F1300
G0 Z3.5 F500
; --- FIX Y Backlash ---
G0 X105.849 Y81.636 F1200
G0 X102.666 Y81.106 Z3.5
G1 Z0 F500
G1 X102.688 Y80.438 Z0 F1300
G1 X102.735 Y79.829 Z0 F1300
G1 X102.783 Y79.269 Z0 F1300
G1 X102.805 Y78.748 Z0 F1300
G1 X102.777 Y78.256 Z0 F1300
G1 X102.673 Y77.785 Z0 F1300
G1 X102.585 Y77.553 Z0 F1300
G1 X102.468 Y77.323 Z0 F1300
G1 X102.319 Y77.093 Z0 F1300
G1 X102.136 Y76.863 Z0 F1300
; --- FIX Y Backlash ---
G0 X102.136 Y78.163 F1200
G1 X102.071 Y78.462 Z0 F1300
G1 X102.019 Y78.793 Z0 F1300
G1 X101.978 Y79.15 Z0 F1300
G1 X101.948 Y79.53 Z0 F1300
G1 X101.913 Y80.337 Z0 F1300
G1 X101.905 Y81.179 Z0 F1300
G1 X101.915 Y82.019 Z0 F1300
G1 X101.943 Y83.199 Z0 F1300
G1 X101.957 Y83.879 Z0 F1300
G1 Y84.174 Z0 F1300
G0 Z3.5 F500
G0 X96.125 Y85.058 Z3.5
G1 Z0 F500
; --- FIX Y Backlash ---
G0 X96.125 Y83.758 F1200
G1 Y72.73 Z0 F1300
G1 X96.128 Y63.171 Z0 F1300
G1 X96.125 Y58.653 Z0 F1300
G1 X96.102 Y57.946 Z0 F1300
G1 X96.052 Y57.315 Z0 F1300
G1 X95.996 Y56.69 Z0 F1300
G1 X95.955 Y56.001 Z0 F1300
