
G0 Z10 F500;      ; Move to clearance level
; G0 X-10 Y-10 F1200; Homing
; G0 X-5 Y-5 F1200; go in
; G10 P0 L20 X0 Y0; set to zero
G1 F1200;           ; Set feed rate
G90 ; Force absolute mode
;LightBurn 1.6.04
;Custom GCode device profile, absolute coords
;Bounds: X45.67 Y39.24 to X104.33 Y106.15
G00 G17 G40 G21 G54
M3
G1 Z10 F1000

; Color picking sequence
G1 Z10 F1000;         ; Raise brush
G0 X41 Y5 F1200;    ; Rapid move to color 1
G1 Z10 F1000;         ; Raise brush
G0 X41 Y5 F1200;    ; Rapid move to color 1
G1 Z0 F1000;         ; Lower into color
G1 X40.102 Y7.295 Z0 S800 F1200
G1 X40.026 Y7.642 Z0 F1200
G1 X40 Y8 Z0 F1200
G1 X40.026 Y8.358 Z0 F1200
G1 X40.102 Y8.705 Z0 F1200
G1 X40.225 Y9.041 Z0 F1200
G1 X40.393 Y9.362 Z0 F1200
G1 X40.603 Y9.668 Z0 F1200
G1 X40.854 Y9.957 Z0 F1200
G1 X41.142 Y10.226 Z0 F1200
G1 X41.464 Y10.475 Z0 F1200
G1 X41.82 Y10.701 Z0 F1200
G1 X42.204 Y10.902 Z0 F1200
G1 X42.617 Y11.078 Z0 F1200
G1 X43.054 Y11.225 Z0 F1200
G1 X43.513 Y11.343 Z0 F1200
G1 X43.992 Y11.429 Z0 F1200
G1 X44.489 Y11.482 Z0 F1200
G1 X45 Y11.5 Z0 F1200
G1 X45.511 Y11.482 Z0 F1200
G1 X46.008 Y11.429 Z0 F1200
G1 X46.487 Y11.343 Z0 F1200
G1 X46.946 Y11.225 Z0 F1200
G1 X47.383 Y11.078 Z0 F1200
G1 X47.796 Y10.902 Z0 F1200
G1 X48.18 Y10.701 Z0 F1200
G1 X48.536 Y10.475 Z0 F1200
G1 X48.858 Y10.226 Z0 F1200
G1 X49.146 Y9.957 Z0 F1200
G1 X49.397 Y9.668 Z0 F1200
G1 X49.607 Y9.362 Z0 F1200
G1 X49.775 Y9.041 Z0 F1200
G1 X49.898 Y8.705 Z0 F1200
G1 X49.974 Y8.358 Z0 F1200
G1 X50 Y8 Z0 F1200
G1 X49.974 Y7.642 Z0 F1200
G1 X49.898 Y7.295 Z0 F1200
G1 X49.775 Y6.959 Z0 F1200
G1 X49.607 Y6.638 Z0 F1200
G1 X49.397 Y6.332 Z0 F1200
G1 X49.146 Y6.043 Z0 F1200
G1 X48.858 Y5.774 Z0 F1200
G1 X48.536 Y5.525 Z0 F1200
G1 X48.18 Y5.299 Z0 F1200
G1 X47.796 Y5.098 Z0 F1200
G1 X47.383 Y4.922 Z0 F1200
G1 X46.946 Y4.775 Z0 F1200
G1 X46.487 Y4.657 Z0 F1200
G1 X46.008 Y4.571 Z0 F1200
G1 X45.511 Y4.518 Z0 F1200
G1 X45 Y4.5 Z0 F1200
G1 X44.489 Y4.518 Z0 F1200
G1 X43.992 Y4.571 Z0 F1200
G1 X43.513 Y4.657 Z0 F1200
G1 X43.054 Y4.775 Z0 F1200
G1 X42.617 Y4.922 Z0 F1200
G1 X42.204 Y5.098 Z0 F1200
G1 X41.82 Y5.299 Z0 F1200
G1 X41.464 Y5.525 Z0 F1200
G1 X41.142 Y5.774 Z0 F1200
G1 X40.854 Y6.043 Z0 F1200
G1 X40.603 Y6.332 Z0 F1200
G1 X40.393 Y6.638 Z0 F1200
G1 X40.225 Y6.959 Z0 F1200
G1 Z7 F800;         ; Raise from color
G1 X34 Y8 Z1 F1200;     ; Movement in paint
G1 X24 Y18 Z8 F500;     ; Move in paint
G1 F1200;           ; Set feed rate
G0 Z2.5 F1000 ; Safety Lift
;Scan @ 1500 mm/min, 90% power

M8
G0 Z3.5 F1000
G0 X63.584 Y53.048 Z3.5
G1 Z0 F1000
;Layer C1
G0 Z2.5 F500 ; Lift S=0
G1 X65.334 S0 F1600
G0 Z0 F500 ; Drop S>0
G1 X66.488 S900 F1600
G0 Z2.5 F500 ; Lift S=0
G1 X83.544 S0 F1600
G0 Z0 F500 ; Drop S>0
G1 X84.628 S900 F1600
G0 Z2.5 F500 ; Lift S=0
G1 X86.378 S0 F1600
G1 X87.57 Y53.948 Z2.5 F1600
; --- FIX X Backlash ---
G0 X87.07 Y53.948 F1200
G1 X85.32 Z2.5 F1600
G0 Z0 F500 ; Drop S>0
G1 X82.457 S900 F1600
G0 Z2.5 F500 ; Lift S=0
G1 X66.571 S0 F1600
G0 Z0 F500 ; Drop S>0
G1 X63.649 S900 F1600
G0 Z2.5 F500 ; Lift S=0
G1 X61.899 S0 F1600
G1 X59.965 Y54.848 Z2.5 F1600
; --- FIX X Backlash ---
G0 X60.465 Y54.848 F1200
G1 X62.215 Z2.5 F1600
G0 Z0 F500 ; Drop S>0
G1 X67.658 S900 F1600
G0 Z2.5 F500 ; Lift S=0
G1 X82.359 S0 F1600
G0 Z0 F500 ; Drop S>0
G1 X87.792 S900 F1600
G0 Z2.5 F500 ; Lift S=0
G1 X89.542 S0 F1600
G1 X89.764 Y55.748 Z2.5 F1600
; --- FIX X Backlash ---
G0 X89.264 Y55.748 F1200
G1 X87.514 Z2.5 F1600
G0 Z0 F500 ; Drop S>0
G1 X81.262 S900 F1600
G0 Z2.5 F500 ; Lift S=0
G1 X67.748 S0 F1600
G0 Z0 F500 ; Drop S>0
G1 X61.495 S900 F1600
G0 Z2.5 F500 ; Lift S=0
G1 X59.745 S0 F1600
; --- FIX X Backlash ---
G0 X60.245 Y55.748 F1200
G1 X60.756 Y56.648 Z2.5 F1600
G1 X62.506 Z2.5 F1600
G0 Z0 F500 ; Drop S>0
G1 X68.843 S900 F1600
G0 Z2.5 F500 ; Lift S=0
G1 X81.158 S0 F1600
G0 Z0 F500 ; Drop S>0
G1 X87.505 S900 F1600
G0 Z2.5 F500 ; Lift S=0
G1 X89.255 S0 F1600
; --- FIX X Backlash ---
G0 X88.755 Y56.648 F1200
G1 X88.244 Y57.548 Z2.5 F1600
G1 X86.494 Z2.5 F1600
G0 Z0 F500 ; Drop S>0
G1 X80.045 S900 F1600
G0 Z2.5 F500 ; Lift S=0
G1 X68.957 S0 F1600
G0 Z0 F500 ; Drop S>0
G1 X62.496 S900 F1600
G0 Z2.5 F500 ; Lift S=0
G1 X60.746 S0 F1600
; --- FIX X Backlash ---
G0 X61.246 Y57.548 F1200
G1 X61.752 Y58.448 Z2.5 F1600
G1 X63.502 Z2.5 F1600
G0 Z0 F500 ; Drop S>0
G1 X70.083 S900 F1600
G0 Z2.5 F500 ; Lift S=0
G1 X79.917 S0 F1600
G0 Z0 F500 ; Drop S>0
G1 X86.496 S900 F1600
G0 Z2.5 F500 ; Lift S=0
G1 X88.246 S0 F1600
; --- FIX X Backlash ---
G0 X87.746 Y58.448 F1200
G1 X87.264 Y59.348 Z2.5 F1600
G1 X85.514 Z2.5 F1600
G0 Z0 F500 ; Drop S>0
G1 X78.768 S900 F1600
G0 Z2.5 F500 ; Lift S=0
G1 X70.22 S0 F1600
G0 Z0 F500 ; Drop S>0
G1 X63.474 S900 F1600
G0 Z2.5 F500 ; Lift S=0
G1 X61.724 S0 F1600
; --- FIX X Backlash ---
G0 X62.224 Y59.348 F1200
G1 X62.7 Y60.248 Z2.5 F1600
G1 X64.45 Z2.5 F1600
G0 Z0 F500 ; Drop S>0
G1 X71.222 S900 F1600
G0 Z2.5 F500 ; Lift S=0
G1 X78.692 S0 F1600
G0 Z0 F500 ; Drop S>0
G1 X85.554 S900 F1600
G0 Z2.5 F500 ; Lift S=0
G1 X87.304 S0 F1600
; --- FIX X Backlash ---
G0 X86.804 Y60.248 F1200
G1 X86.353 Y61.148 Z2.5 F1600
G1 X84.603 Z2.5 F1600
G0 Z0 F500 ; Drop S>0
G1 X79.599 S900 F1600
G0 Z2.5 F500 ; Lift S=0

; Color picking sequence
G1 Z10 F1000;         ; Raise brush
G0 X41 Y5 F1200;    ; Rapid move to color 1
G1 Z10 F1000;         ; Raise brush
G0 X41 Y5 F1200;    ; Rapid move to color 1
G1 Z0 F1000;         ; Lower into color
G1 X40.102 Y7.295 Z0 S800 F1200
G1 X40.026 Y7.642 Z0 F1200
G1 X40 Y8 Z0 F1200
G1 X40.026 Y8.358 Z0 F1200
G1 X40.102 Y8.705 Z0 F1200
G1 X40.225 Y9.041 Z0 F1200
G1 X40.393 Y9.362 Z0 F1200
G1 X40.603 Y9.668 Z0 F1200
G1 X40.854 Y9.957 Z0 F1200
G1 X41.142 Y10.226 Z0 F1200
G1 X41.464 Y10.475 Z0 F1200
G1 X41.82 Y10.701 Z0 F1200
G1 X42.204 Y10.902 Z0 F1200
G1 X42.617 Y11.078 Z0 F1200
G1 X43.054 Y11.225 Z0 F1200
G1 X43.513 Y11.343 Z0 F1200
G1 X43.992 Y11.429 Z0 F1200
G1 X44.489 Y11.482 Z0 F1200
G1 X45 Y11.5 Z0 F1200
G1 X45.511 Y11.482 Z0 F1200
G1 X46.008 Y11.429 Z0 F1200
G1 X46.487 Y11.343 Z0 F1200
G1 X46.946 Y11.225 Z0 F1200
G1 X47.383 Y11.078 Z0 F1200
G1 X47.796 Y10.902 Z0 F1200
G1 X48.18 Y10.701 Z0 F1200
G1 X48.536 Y10.475 Z0 F1200
G1 X48.858 Y10.226 Z0 F1200
G1 X49.146 Y9.957 Z0 F1200
G1 X49.397 Y9.668 Z0 F1200
G1 X49.607 Y9.362 Z0 F1200
G1 X49.775 Y9.041 Z0 F1200
G1 X49.898 Y8.705 Z0 F1200
G1 X49.974 Y8.358 Z0 F1200
G1 X50 Y8 Z0 F1200
G1 X49.974 Y7.642 Z0 F1200
G1 X49.898 Y7.295 Z0 F1200
G1 X49.775 Y6.959 Z0 F1200
G1 X49.607 Y6.638 Z0 F1200
G1 X49.397 Y6.332 Z0 F1200
G1 X49.146 Y6.043 Z0 F1200
G1 X48.858 Y5.774 Z0 F1200
G1 X48.536 Y5.525 Z0 F1200
G1 X48.18 Y5.299 Z0 F1200
G1 X47.796 Y5.098 Z0 F1200
G1 X47.383 Y4.922 Z0 F1200
G1 X46.946 Y4.775 Z0 F1200
G1 X46.487 Y4.657 Z0 F1200
G1 X46.008 Y4.571 Z0 F1200
G1 X45.511 Y4.518 Z0 F1200
G1 X45 Y4.5 Z0 F1200
G1 X44.489 Y4.518 Z0 F1200
G1 X43.992 Y4.571 Z0 F1200
G1 X43.513 Y4.657 Z0 F1200
G1 X43.054 Y4.775 Z0 F1200
G1 X42.617 Y4.922 Z0 F1200
G1 X42.204 Y5.098 Z0 F1200
G1 X41.82 Y5.299 Z0 F1200
G1 X41.464 Y5.525 Z0 F1200
G1 X41.142 Y5.774 Z0 F1200
G1 X40.854 Y6.043 Z0 F1200
G1 X40.603 Y6.332 Z0 F1200
G1 X40.393 Y6.638 Z0 F1200
G1 X40.225 Y6.959 Z0 F1200
G1 Z7 F800;         ; Raise from color
G1 X34 Y8 Z1 F1200;     ; Movement in paint
G1 X24 Y18 Z8 F500;     ; Move in paint
G1 F1200;           ; Set feed rate
G0 Z2.5 F1000 ; Safety Lift
G0 X79.599 Y61.148 F1200 ; Return to pos
G1 X69.337 S0 F1600
G0 Z0 F500 ; Drop S>0
G1 X64.386 S900 F1600
G0 Z2.5 F500 ; Lift S=0
G1 X62.636 S0 F1600
; --- FIX X Backlash ---
G0 X63.136 Y61.148 F1200
G1 X63.567 Y62.048 Z2.5 F1600
G1 X65.317 Z2.5 F1600
G0 Z0 F500 ; Drop S>0
G1 X68.354 S900 F1600
G0 Z2.5 F500 ; Lift S=0
G1 X70.856 S0 F1600
G0 Z0 F500 ; Drop S>0
G1 X73.305 S900 F1600
G0 Z2.5 F500 ; Lift S=0
G1 X76.655 S0 F1600
G0 Z0 F500 ; Drop S>0
G1 X79.102 S900 F1600
G0 Z2.5 F500 ; Lift S=0
G1 X81.552 S0 F1600
G0 Z0 F500 ; Drop S>0
G1 X84.68 S900 F1600
G0 Z2.5 F500 ; Lift S=0
G1 X86.43 S0 F1600
; --- FIX X Backlash ---
G0 X85.93 Y62.048 F1200
G1 X85.503 Y62.948 Z2.5 F1600
G1 X83.753 Z2.5 F1600
G0 Z0 F500 ; Drop S>0
G1 X82.563 S900 F1600
G0 Z2.5 F500 ; Lift S=0
G1 X80.081 S0 F1600
G0 Z0 F500 ; Drop S>0
G1 X75.357 S900 F1600
G0 Z2.5 F500 ; Lift S=0
G1 X73.632 S0 F1600
G0 Z0 F500 ; Drop S>0
G1 X68.88 S900 F1600
G0 Z2.5 F500 ; Lift S=0
G1 X66.37 S0 F1600
G0 Z0 F500 ; Drop S>0
G1 X65.243 S900 F1600
G0 Z2.5 F500 ; Lift S=0
G1 X63.493 S0 F1600
; --- FIX X Backlash ---
G0 X63.993 Y62.948 F1200
G1 X66.135 Y63.848 Z2.5 F1600
G1 X67.885 Z2.5 F1600
G0 Z0 F500 ; Drop S>0
G1 X74.901 S900 F1600
G0 Z2.5 F500 ; Lift S=0
G1 X76.459 S0 F1600
G0 Z0 F500 ; Drop S>0
G1 X82.065 S900 F1600
G0 Z2.5 F500 ; Lift S=0
G1 X83.815 S0 F1600
G1 X85.213 Y64.748 Z2.5 F1600
; --- FIX X Backlash ---
G0 X84.713 Y64.748 F1200
G1 X82.963 Z2.5 F1600
G0 Z0 F500 ; Drop S>0
G1 X76.61 S900 F1600
G0 Z2.5 F500 ; Lift S=0
G1 X75.117 S0 F1600
G0 Z0 F500 ; Drop S>0
G1 X66.007 S900 F1600
G0 Z2.5 F500 ; Lift S=0
G1 X64.257 S0 F1600
; --- FIX X Backlash ---
G0 X64.757 Y64.748 F1200
G1 X64.976 Y65.648 Z2.5 F1600
G1 X66.726 Z2.5 F1600
G0 Z0 F500 ; Drop S>0
G1 X76.259 S900 F1600
G0 Z2.5 F500 ; Lift S=0
G1 X77.724 S0 F1600
G0 Z0 F500 ; Drop S>0
G1 X83.301 S900 F1600
G0 Z2.5 F500 ; Lift S=0
G1 X85.051 S0 F1600
; --- FIX X Backlash ---
G0 X84.551 Y65.648 F1200
G1 X84.252 Y66.548 Z2.5 F1600
G1 X82.502 Z2.5 F1600
G0 Z0 F500 ; Drop S>0
G1 X77.808 S900 F1600
G0 Z2.5 F500 ; Lift S=0
G1 X76.352 S0 F1600
G0 Z0 F500 ; Drop S>0
G1 X66.51 S900 F1600
G0 Z2.5 F500 ; Lift S=0
G1 X64.76 S0 F1600
; --- FIX X Backlash ---
G0 X65.26 Y66.548 F1200
G1 X65.564 Y67.448 Z2.5 F1600
G1 X67.314 Z2.5 F1600
G0 Z0 F500 ; Drop S>0
G1 X77.399 S900 F1600
G0 Z2.5 F500 ; Lift S=0
G1 X78.842 S0 F1600
G0 Z0 F500 ; Drop S>0
G1 X82.688 S900 F1600
G0 Z2.5 F500 ; Lift S=0
G1 X84.438 S0 F1600
; --- FIX X Backlash ---
G0 X83.938 Y67.448 F1200
G1 X83.599 Y68.348 Z2.5 F1600
G1 X81.849 Z2.5 F1600
G0 Z0 F500 ; Drop S>0
G1 X78.819 S900 F1600
G0 Z2.5 F500 ; Lift S=0

; Color picking sequence
G1 Z10 F1000;         ; Raise brush
G0 X41 Y5 F1200;    ; Rapid move to color 1
G1 Z10 F1000;         ; Raise brush
G0 X41 Y5 F1200;    ; Rapid move to color 1
G1 Z0 F1000;         ; Lower into color
G1 X40.102 Y7.295 Z0 S800 F1200
G1 X40.026 Y7.642 Z0 F1200
G1 X40 Y8 Z0 F1200
G1 X40.026 Y8.358 Z0 F1200
G1 X40.102 Y8.705 Z0 F1200
G1 X40.225 Y9.041 Z0 F1200
G1 X40.393 Y9.362 Z0 F1200
G1 X40.603 Y9.668 Z0 F1200
G1 X40.854 Y9.957 Z0 F1200
G1 X41.142 Y10.226 Z0 F1200
G1 X41.464 Y10.475 Z0 F1200
G1 X41.82 Y10.701 Z0 F1200
G1 X42.204 Y10.902 Z0 F1200
G1 X42.617 Y11.078 Z0 F1200
G1 X43.054 Y11.225 Z0 F1200
G1 X43.513 Y11.343 Z0 F1200
G1 X43.992 Y11.429 Z0 F1200
G1 X44.489 Y11.482 Z0 F1200
G1 X45 Y11.5 Z0 F1200
G1 X45.511 Y11.482 Z0 F1200
G1 X46.008 Y11.429 Z0 F1200
G1 X46.487 Y11.343 Z0 F1200
G1 X46.946 Y11.225 Z0 F1200
G1 X47.383 Y11.078 Z0 F1200
G1 X47.796 Y10.902 Z0 F1200
G1 X48.18 Y10.701 Z0 F1200
G1 X48.536 Y10.475 Z0 F1200
G1 X48.858 Y10.226 Z0 F1200
G1 X49.146 Y9.957 Z0 F1200
G1 X49.397 Y9.668 Z0 F1200
G1 X49.607 Y9.362 Z0 F1200
G1 X49.775 Y9.041 Z0 F1200
G1 X49.898 Y8.705 Z0 F1200
G1 X49.974 Y8.358 Z0 F1200
G1 X50 Y8 Z0 F1200
G1 X49.974 Y7.642 Z0 F1200
G1 X49.898 Y7.295 Z0 F1200
G1 X49.775 Y6.959 Z0 F1200
G1 X49.607 Y6.638 Z0 F1200
G1 X49.397 Y6.332 Z0 F1200
G1 X49.146 Y6.043 Z0 F1200
G1 X48.858 Y5.774 Z0 F1200
G1 X48.536 Y5.525 Z0 F1200
G1 X48.18 Y5.299 Z0 F1200
G1 X47.796 Y5.098 Z0 F1200
G1 X47.383 Y4.922 Z0 F1200
G1 X46.946 Y4.775 Z0 F1200
G1 X46.487 Y4.657 Z0 F1200
G1 X46.008 Y4.571 Z0 F1200
G1 X45.511 Y4.518 Z0 F1200
G1 X45 Y4.5 Z0 F1200
G1 X44.489 Y4.518 Z0 F1200
G1 X43.992 Y4.571 Z0 F1200
G1 X43.513 Y4.657 Z0 F1200
G1 X43.054 Y4.775 Z0 F1200
G1 X42.617 Y4.922 Z0 F1200
G1 X42.204 Y5.098 Z0 F1200
G1 X41.82 Y5.299 Z0 F1200
G1 X41.464 Y5.525 Z0 F1200
G1 X41.142 Y5.774 Z0 F1200
G1 X40.854 Y6.043 Z0 F1200
G1 X40.603 Y6.332 Z0 F1200
G1 X40.393 Y6.638 Z0 F1200
G1 X40.225 Y6.959 Z0 F1200
G1 Z7 F800;         ; Raise from color
G1 X34 Y8 Z1 F1200;     ; Movement in paint
G1 X24 Y18 Z8 F500;     ; Move in paint
G1 F1200;           ; Set feed rate
G0 Z2.5 F1000 ; Safety Lift
G0 X78.819 Y68.348 F1200 ; Return to pos
G1 X77.412 S0 F1600
G0 Z0 F500 ; Drop S>0
G1 X67.143 S900 F1600
G0 Z2.5 F500 ; Lift S=0
G1 X65.393 S0 F1600
; --- FIX X Backlash ---
G0 X65.893 Y68.348 F1200
G1 X66.265 Y69.248 Z2.5 F1600
G1 X68.015 Z2.5 F1600
G0 Z0 F500 ; Drop S>0
G1 X78.398 S900 F1600
G0 Z2.5 F500 ; Lift S=0
G1 X79.792 S0 F1600
G0 Z0 F500 ; Drop S>0
G1 X81.99 S900 F1600
G0 Z2.5 F500 ; Lift S=0
G1 X83.74 S0 F1600
; --- FIX X Backlash ---
G0 X83.24 Y69.248 F1200
G1 X82.873 Y70.148 Z2.5 F1600
G1 X81.123 Z2.5 F1600
G0 Z0 F500 ; Drop S>0
G1 X79.759 S900 F1600
G0 Z2.5 F500 ; Lift S=0
G1 X78.364 S0 F1600
G0 Z0 F500 ; Drop S>0
G1 X67.929 S900 F1600
G0 Z2.5 F500 ; Lift S=0
G1 X66.179 S0 F1600
; --- FIX X Backlash ---
G0 X66.679 Y70.148 F1200
G1 X67.139 Y71.048 Z2.5 F1600
G1 X68.889 Z2.5 F1600
G0 Z0 F500 ; Drop S>0
G1 X79.313 S900 F1600
G0 Z2.5 F500 ; Lift S=0
G1 X80.717 S0 F1600
G0 Z0 F500 ; Drop S>0
G1 X81.257 S900 F1600
G0 Z2.5 F500 ; Lift S=0
G1 X83.007 S0 F1600
; --- FIX X Backlash ---
G0 X82.507 Y71.048 F1200
G1 X80.996 Y71.948 Z2.5 F1600
G1 X79.246 Z2.5 F1600
G0 Z0 F500 ; Drop S>0
G1 X68.891 S900 F1600
G0 Z2.5 F500 ; Lift S=0
G1 X67.141 S0 F1600
; --- FIX X Backlash ---
G0 X67.641 Y71.948 F1200
G1 X68.183 Y72.848 Z2.5 F1600
G1 X69.933 Z2.5 F1600
G0 Z0 F500 ; Drop S>0
G1 X80.17 S900 F1600
G0 Z2.5 F500 ; Lift S=0
G1 X81.92 S0 F1600
G1 X82.336 Y73.748 Z2.5 F1600
; --- FIX X Backlash ---
G0 X81.836 Y73.748 F1200
G1 X80.086 Z2.5 F1600
G0 Z0 F500 ; Drop S>0
G1 X70.006 S900 F1600
G0 Z2.5 F500 ; Lift S=0
G1 X68.256 S0 F1600
G1 X66.786 Y74.648 Z2.5 F1600
; --- FIX X Backlash ---
G0 X67.286 Y74.648 F1200
G1 X69.036 Z2.5 F1600
G0 Z0 F500 ; Drop S>0
G1 X69.642 S900 F1600
G0 Z2.5 F500 ; Lift S=0
G1 X71.102 S0 F1600
G0 Z0 F500 ; Drop S>0
G1 X80.995 S900 F1600
G0 Z2.5 F500 ; Lift S=0
G1 X82.745 S0 F1600
G1 X83.147 Y75.548 Z2.5 F1600
; --- FIX X Backlash ---
G0 X82.647 Y75.548 F1200
G1 X80.897 Z2.5 F1600
G0 Z0 F500 ; Drop S>0
G1 X71.217 S900 F1600
G0 Z2.5 F500 ; Lift S=0
G1 X69.704 S0 F1600
G0 Z0 F500 ; Drop S>0
G1 X68.119 S900 F1600
G0 Z2.5 F500 ; Lift S=0
G1 X66.369 S0 F1600
G1 X65.965 Y76.448 Z2.5 F1600
; --- FIX X Backlash ---
G0 X66.465 Y76.448 F1200
G1 X68.215 Z2.5 F1600
G0 Z0 F500 ; Drop S>0
G1 X70.808 S900 F1600
G0 Z2.5 F500 ; Lift S=0

; Color picking sequence
G1 Z10 F1000;         ; Raise brush
G0 X41 Y5 F1200;    ; Rapid move to color 1
G1 Z10 F1000;         ; Raise brush
G0 X41 Y5 F1200;    ; Rapid move to color 1
G1 Z0 F1000;         ; Lower into color
G1 X40.102 Y7.295 Z0 S800 F1200
G1 X40.026 Y7.642 Z0 F1200
G1 X40 Y8 Z0 F1200
G1 X40.026 Y8.358 Z0 F1200
G1 X40.102 Y8.705 Z0 F1200
G1 X40.225 Y9.041 Z0 F1200
G1 X40.393 Y9.362 Z0 F1200
G1 X40.603 Y9.668 Z0 F1200
G1 X40.854 Y9.957 Z0 F1200
G1 X41.142 Y10.226 Z0 F1200
G1 X41.464 Y10.475 Z0 F1200
G1 X41.82 Y10.701 Z0 F1200
G1 X42.204 Y10.902 Z0 F1200
G1 X42.617 Y11.078 Z0 F1200
G1 X43.054 Y11.225 Z0 F1200
G1 X43.513 Y11.343 Z0 F1200
G1 X43.992 Y11.429 Z0 F1200
G1 X44.489 Y11.482 Z0 F1200
G1 X45 Y11.5 Z0 F1200
G1 X45.511 Y11.482 Z0 F1200
G1 X46.008 Y11.429 Z0 F1200
G1 X46.487 Y11.343 Z0 F1200
G1 X46.946 Y11.225 Z0 F1200
G1 X47.383 Y11.078 Z0 F1200
G1 X47.796 Y10.902 Z0 F1200
G1 X48.18 Y10.701 Z0 F1200
G1 X48.536 Y10.475 Z0 F1200
G1 X48.858 Y10.226 Z0 F1200
G1 X49.146 Y9.957 Z0 F1200
G1 X49.397 Y9.668 Z0 F1200
G1 X49.607 Y9.362 Z0 F1200
G1 X49.775 Y9.041 Z0 F1200
G1 X49.898 Y8.705 Z0 F1200
G1 X49.974 Y8.358 Z0 F1200
G1 X50 Y8 Z0 F1200
G1 X49.974 Y7.642 Z0 F1200
G1 X49.898 Y7.295 Z0 F1200
G1 X49.775 Y6.959 Z0 F1200
G1 X49.607 Y6.638 Z0 F1200
G1 X49.397 Y6.332 Z0 F1200
G1 X49.146 Y6.043 Z0 F1200
G1 X48.858 Y5.774 Z0 F1200
G1 X48.536 Y5.525 Z0 F1200
G1 X48.18 Y5.299 Z0 F1200
G1 X47.796 Y5.098 Z0 F1200
G1 X47.383 Y4.922 Z0 F1200
G1 X46.946 Y4.775 Z0 F1200
G1 X46.487 Y4.657 Z0 F1200
G1 X46.008 Y4.571 Z0 F1200
G1 X45.511 Y4.518 Z0 F1200
G1 X45 Y4.5 Z0 F1200
G1 X44.489 Y4.518 Z0 F1200
G1 X43.992 Y4.571 Z0 F1200
G1 X43.513 Y4.657 Z0 F1200
G1 X43.054 Y4.775 Z0 F1200
G1 X42.617 Y4.922 Z0 F1200
G1 X42.204 Y5.098 Z0 F1200
G1 X41.82 Y5.299 Z0 F1200
G1 X41.464 Y5.525 Z0 F1200
G1 X41.142 Y5.774 Z0 F1200
G1 X40.854 Y6.043 Z0 F1200
G1 X40.603 Y6.332 Z0 F1200
G1 X40.393 Y6.638 Z0 F1200
G1 X40.225 Y6.959 Z0 F1200
G1 Z7 F800;         ; Raise from color
G1 X34 Y8 Z1 F1200;     ; Movement in paint
G1 X24 Y18 Z8 F500;     ; Move in paint
G1 F1200;           ; Set feed rate
G0 Z2.5 F1000 ; Safety Lift
G0 X70.808 Y76.448 F1200 ; Return to pos
G1 X72.344 S0 F1600
G0 Z0 F500 ; Drop S>0
G1 X81.796 S900 F1600
G0 Z2.5 F500 ; Lift S=0
G1 X83.546 S0 F1600
G1 X83.945 Y77.348 Z2.5 F1600
; --- FIX X Backlash ---
G0 X83.445 Y77.348 F1200
G1 X81.695 Z2.5 F1600
G0 Z0 F500 ; Drop S>0
G1 X72.476 S900 F1600
G0 Z2.5 F500 ; Lift S=0
G1 X70.928 S0 F1600
G0 Z0 F500 ; Drop S>0
G1 X67.315 S900 F1600
G0 Z2.5 F500 ; Lift S=0
G1 X65.565 S0 F1600
G1 X65.164 Y78.248 Z2.5 F1600
; --- FIX X Backlash ---
G0 X65.664 Y78.248 F1200
G1 X67.414 Z2.5 F1600
G0 Z0 F500 ; Drop S>0
G1 X72.058 S900 F1600
G0 Z2.5 F500 ; Lift S=0
G1 X73.608 S0 F1600
G0 Z0 F500 ; Drop S>0
G1 X82.594 S900 F1600
G0 Z2.5 F500 ; Lift S=0
G1 X84.344 S0 F1600
G1 X84.743 Y79.148 Z2.5 F1600
; --- FIX X Backlash ---
G0 X84.243 Y79.148 F1200
G1 X82.493 Z2.5 F1600
G0 Z0 F500 ; Drop S>0
G1 X73.739 S900 F1600
G0 Z2.5 F500 ; Lift S=0
G1 X72.192 S0 F1600
G0 Z0 F500 ; Drop S>0
G1 X66.529 S900 F1600
G0 Z2.5 F500 ; Lift S=0
G1 X64.779 S0 F1600
G1 X64.381 Y80.048 Z2.5 F1600
; --- FIX X Backlash ---
G0 X64.881 Y80.048 F1200
G1 X66.631 Z2.5 F1600
G0 Z0 F500 ; Drop S>0
G1 X73.324 S900 F1600
G0 Z2.5 F500 ; Lift S=0
G1 X74.87 S0 F1600
G0 Z0 F500 ; Drop S>0
G1 X83.394 S900 F1600
G0 Z2.5 F500 ; Lift S=0
G1 X85.144 S0 F1600
G1 X85.539 Y80.948 Z2.5 F1600
; --- FIX X Backlash ---
G0 X85.039 Y80.948 F1200
G1 X83.289 Z2.5 F1600
G0 Z0 F500 ; Drop S>0
G1 X75.007 S900 F1600
G0 Z2.5 F500 ; Lift S=0
G1 X73.436 S0 F1600
G0 Z0 F500 ; Drop S>0
G1 X65.729 S900 F1600
G0 Z2.5 F500 ; Lift S=0
G1 X63.979 S0 F1600
G1 X63.583 Y81.848 Z2.5 F1600
; --- FIX X Backlash ---
G0 X64.083 Y81.848 F1200
G1 X65.833 Z2.5 F1600
G0 Z0 F500 ; Drop S>0
G1 X73.794 S900 F1600
G0 Z2.5 F500 ; Lift S=0
G1 X76.145 S0 F1600
G0 Z0 F500 ; Drop S>0
G1 X84.184 S900 F1600
G0 Z2.5 F500 ; Lift S=0
G1 X85.934 S0 F1600
G1 X86.328 Y82.748 Z2.5 F1600
; --- FIX X Backlash ---
G0 X85.828 Y82.748 F1200
G1 X84.078 Z2.5 F1600
G0 Z0 F500 ; Drop S>0
G1 X76.288 S900 F1600
G0 Z2.5 F500 ; Lift S=0

; Color picking sequence
G1 Z10 F1000;         ; Raise brush
G0 X41 Y5 F1200;    ; Rapid move to color 1
G1 Z10 F1000;         ; Raise brush
G0 X41 Y5 F1200;    ; Rapid move to color 1
G1 Z0 F1000;         ; Lower into color
G1 X40.102 Y7.295 Z0 S800 F1200
G1 X40.026 Y7.642 Z0 F1200
G1 X40 Y8 Z0 F1200
G1 X40.026 Y8.358 Z0 F1200
G1 X40.102 Y8.705 Z0 F1200
G1 X40.225 Y9.041 Z0 F1200
G1 X40.393 Y9.362 Z0 F1200
G1 X40.603 Y9.668 Z0 F1200
G1 X40.854 Y9.957 Z0 F1200
G1 X41.142 Y10.226 Z0 F1200
G1 X41.464 Y10.475 Z0 F1200
G1 X41.82 Y10.701 Z0 F1200
G1 X42.204 Y10.902 Z0 F1200
G1 X42.617 Y11.078 Z0 F1200
G1 X43.054 Y11.225 Z0 F1200
G1 X43.513 Y11.343 Z0 F1200
G1 X43.992 Y11.429 Z0 F1200
G1 X44.489 Y11.482 Z0 F1200
G1 X45 Y11.5 Z0 F1200
G1 X45.511 Y11.482 Z0 F1200
G1 X46.008 Y11.429 Z0 F1200
G1 X46.487 Y11.343 Z0 F1200
G1 X46.946 Y11.225 Z0 F1200
G1 X47.383 Y11.078 Z0 F1200
G1 X47.796 Y10.902 Z0 F1200
G1 X48.18 Y10.701 Z0 F1200
G1 X48.536 Y10.475 Z0 F1200
G1 X48.858 Y10.226 Z0 F1200
G1 X49.146 Y9.957 Z0 F1200
G1 X49.397 Y9.668 Z0 F1200
G1 X49.607 Y9.362 Z0 F1200
G1 X49.775 Y9.041 Z0 F1200
G1 X49.898 Y8.705 Z0 F1200
G1 X49.974 Y8.358 Z0 F1200
G1 X50 Y8 Z0 F1200
G1 X49.974 Y7.642 Z0 F1200
G1 X49.898 Y7.295 Z0 F1200
G1 X49.775 Y6.959 Z0 F1200
G1 X49.607 Y6.638 Z0 F1200
G1 X49.397 Y6.332 Z0 F1200
G1 X49.146 Y6.043 Z0 F1200
G1 X48.858 Y5.774 Z0 F1200
G1 X48.536 Y5.525 Z0 F1200
G1 X48.18 Y5.299 Z0 F1200
G1 X47.796 Y5.098 Z0 F1200
G1 X47.383 Y4.922 Z0 F1200
G1 X46.946 Y4.775 Z0 F1200
G1 X46.487 Y4.657 Z0 F1200
G1 X46.008 Y4.571 Z0 F1200
G1 X45.511 Y4.518 Z0 F1200
G1 X45 Y4.5 Z0 F1200
G1 X44.489 Y4.518 Z0 F1200
G1 X43.992 Y4.571 Z0 F1200
G1 X43.513 Y4.657 Z0 F1200
G1 X43.054 Y4.775 Z0 F1200
G1 X42.617 Y4.922 Z0 F1200
G1 X42.204 Y5.098 Z0 F1200
G1 X41.82 Y5.299 Z0 F1200
G1 X41.464 Y5.525 Z0 F1200
G1 X41.142 Y5.774 Z0 F1200
G1 X40.854 Y6.043 Z0 F1200
G1 X40.603 Y6.332 Z0 F1200
G1 X40.393 Y6.638 Z0 F1200
G1 X40.225 Y6.959 Z0 F1200
G1 Z7 F800;         ; Raise from color
G1 X34 Y8 Z1 F1200;     ; Movement in paint
G1 X24 Y18 Z8 F500;     ; Move in paint
G1 F1200;           ; Set feed rate
G0 Z2.5 F1000 ; Safety Lift
G0 X76.288 Y82.748 F1200 ; Return to pos
G1 X72.654 S0 F1600
G0 Z0 F500 ; Drop S>0
G1 X64.936 S900 F1600
G0 Z2.5 F500 ; Lift S=0
G1 X63.186 S0 F1600
G1 X62.789 Y83.648 Z2.5 F1600
; --- FIX X Backlash ---
G0 X63.289 Y83.648 F1200
G1 X65.039 Z2.5 F1600
G0 Z0 F500 ; Drop S>0
G1 X72.504 S900 F1600
G0 Z2.5 F500 ; Lift S=0
G1 X77.439 S0 F1600
G0 Z0 F500 ; Drop S>0
G1 X84.973 S900 F1600
G0 Z2.5 F500 ; Lift S=0
G1 X86.723 S0 F1600
G1 X87.118 Y84.548 Z2.5 F1600
; --- FIX X Backlash ---
G0 X86.618 Y84.548 F1200
G1 X84.868 Z2.5 F1600
G0 Z0 F500 ; Drop S>0
G1 X77.595 S900 F1600
G0 Z2.5 F500 ; Lift S=0
G1 X71.363 S0 F1600
G0 Z0 F500 ; Drop S>0
G1 X64.143 S900 F1600
G0 Z2.5 F500 ; Lift S=0
G1 X62.393 S0 F1600
G1 X61.994 Y85.448 Z2.5 F1600
; --- FIX X Backlash ---
G0 X62.494 Y85.448 F1200
G1 X64.244 Z2.5 F1600
G0 Z0 F500 ; Drop S>0
G1 X71.225 S900 F1600
G0 Z2.5 F500 ; Lift S=0
G1 X78.743 S0 F1600
G0 Z0 F500 ; Drop S>0
G1 X85.762 S900 F1600
G0 Z2.5 F500 ; Lift S=0
G1 X87.512 S0 F1600
G1 X87.907 Y86.348 Z2.5 F1600
; --- FIX X Backlash ---
G0 X87.407 Y86.348 F1200
G1 X85.657 Z2.5 F1600
G0 Z0 F500 ; Drop S>0
G1 X78.887 S900 F1600
G0 Z2.5 F500 ; Lift S=0
G1 X70.083 S0 F1600
G0 Z0 F500 ; Drop S>0
G1 X63.344 S900 F1600
G0 Z2.5 F500 ; Lift S=0
G1 X61.594 S0 F1600
G1 X61.198 Y87.248 Z2.5 F1600
; --- FIX X Backlash ---
G0 X61.698 Y87.248 F1200
G1 X63.448 Z2.5 F1600
G0 Z0 F500 ; Drop S>0
G1 X69.942 S900 F1600
G0 Z2.5 F500 ; Lift S=0
G1 X80.032 S0 F1600
G0 Z0 F500 ; Drop S>0
G1 X86.551 S900 F1600
G0 Z2.5 F500 ; Lift S=0
G1 X88.301 S0 F1600
G1 X88.694 Y88.148 Z2.5 F1600
; --- FIX X Backlash ---
G0 X88.194 Y88.148 F1200
G1 X86.444 Z2.5 F1600
G0 Z0 F500 ; Drop S>0
G1 X80.177 S900 F1600
G0 Z2.5 F500 ; Lift S=0
G1 X68.8 S0 F1600
G0 Z0 F500 ; Drop S>0
G1 X62.552 S900 F1600
G0 Z2.5 F500 ; Lift S=0
G1 X60.802 S0 F1600
G1 X60.406 Y89.048 Z2.5 F1600
; --- FIX X Backlash ---
G0 X60.906 Y89.048 F1200
G1 X62.656 Z2.5 F1600
G0 Z0 F500 ; Drop S>0
G1 X68.658 S900 F1600
G0 Z2.5 F500 ; Lift S=0
G1 X81.322 S0 F1600
G0 Z0 F500 ; Drop S>0
G1 X87.338 S900 F1600
G0 Z2.5 F500 ; Lift S=0

; Color picking sequence
G1 Z10 F1000;         ; Raise brush
G0 X41 Y5 F1200;    ; Rapid move to color 1
G1 Z10 F1000;         ; Raise brush
G0 X41 Y5 F1200;    ; Rapid move to color 1
G1 Z0 F1000;         ; Lower into color
G1 X40.102 Y7.295 Z0 S800 F1200
G1 X40.026 Y7.642 Z0 F1200
G1 X40 Y8 Z0 F1200
G1 X40.026 Y8.358 Z0 F1200
G1 X40.102 Y8.705 Z0 F1200
G1 X40.225 Y9.041 Z0 F1200
G1 X40.393 Y9.362 Z0 F1200
G1 X40.603 Y9.668 Z0 F1200
G1 X40.854 Y9.957 Z0 F1200
G1 X41.142 Y10.226 Z0 F1200
G1 X41.464 Y10.475 Z0 F1200
G1 X41.82 Y10.701 Z0 F1200
G1 X42.204 Y10.902 Z0 F1200
G1 X42.617 Y11.078 Z0 F1200
G1 X43.054 Y11.225 Z0 F1200
G1 X43.513 Y11.343 Z0 F1200
G1 X43.992 Y11.429 Z0 F1200
G1 X44.489 Y11.482 Z0 F1200
G1 X45 Y11.5 Z0 F1200
G1 X45.511 Y11.482 Z0 F1200
G1 X46.008 Y11.429 Z0 F1200
G1 X46.487 Y11.343 Z0 F1200
G1 X46.946 Y11.225 Z0 F1200
G1 X47.383 Y11.078 Z0 F1200
G1 X47.796 Y10.902 Z0 F1200
G1 X48.18 Y10.701 Z0 F1200
G1 X48.536 Y10.475 Z0 F1200
G1 X48.858 Y10.226 Z0 F1200
G1 X49.146 Y9.957 Z0 F1200
G1 X49.397 Y9.668 Z0 F1200
G1 X49.607 Y9.362 Z0 F1200
G1 X49.775 Y9.041 Z0 F1200
G1 X49.898 Y8.705 Z0 F1200
G1 X49.974 Y8.358 Z0 F1200
G1 X50 Y8 Z0 F1200
G1 X49.974 Y7.642 Z0 F1200
G1 X49.898 Y7.295 Z0 F1200
G1 X49.775 Y6.959 Z0 F1200
G1 X49.607 Y6.638 Z0 F1200
G1 X49.397 Y6.332 Z0 F1200
G1 X49.146 Y6.043 Z0 F1200
G1 X48.858 Y5.774 Z0 F1200
G1 X48.536 Y5.525 Z0 F1200
G1 X48.18 Y5.299 Z0 F1200
G1 X47.796 Y5.098 Z0 F1200
G1 X47.383 Y4.922 Z0 F1200
G1 X46.946 Y4.775 Z0 F1200
G1 X46.487 Y4.657 Z0 F1200
G1 X46.008 Y4.571 Z0 F1200
G1 X45.511 Y4.518 Z0 F1200
G1 X45 Y4.5 Z0 F1200
G1 X44.489 Y4.518 Z0 F1200
G1 X43.992 Y4.571 Z0 F1200
G1 X43.513 Y4.657 Z0 F1200
G1 X43.054 Y4.775 Z0 F1200
G1 X42.617 Y4.922 Z0 F1200
G1 X42.204 Y5.098 Z0 F1200
G1 X41.82 Y5.299 Z0 F1200
G1 X41.464 Y5.525 Z0 F1200
G1 X41.142 Y5.774 Z0 F1200
G1 X40.854 Y6.043 Z0 F1200
G1 X40.603 Y6.332 Z0 F1200
G1 X40.393 Y6.638 Z0 F1200
G1 X40.225 Y6.959 Z0 F1200
G1 Z7 F800;         ; Raise from color
G1 X34 Y8 Z1 F1200;     ; Movement in paint
G1 X24 Y18 Z8 F500;     ; Move in paint
G1 F1200;           ; Set feed rate
G0 Z2.5 F1000 ; Safety Lift
G0 X87.338 Y89.048 F1200 ; Return to pos
G1 X89.088 S0 F1600
G1 X89.482 Y89.948 Z2.5 F1600
; --- FIX X Backlash ---
G0 X88.982 Y89.948 F1200
G1 X87.232 Z2.5 F1600
G0 Z0 F500 ; Drop S>0
G1 X81.467 S900 F1600
G0 Z2.5 F500 ; Lift S=0
G1 X67.518 S0 F1600
G0 Z0 F500 ; Drop S>0
G1 X61.764 S900 F1600
G0 Z2.5 F500 ; Lift S=0
G1 X60.014 S0 F1600
G1 X59.619 Y90.848 Z2.5 F1600
; --- FIX X Backlash ---
G0 X60.119 Y90.848 F1200
G1 X61.869 Z2.5 F1600
G0 Z0 F500 ; Drop S>0
G1 X67.384 S900 F1600
G0 Z2.5 F500 ; Lift S=0
G1 X82.611 S0 F1600
G0 Z0 F500 ; Drop S>0
G1 X88.126 S900 F1600
G0 Z2.5 F500 ; Lift S=0
G1 X89.876 S0 F1600
G1 X90.27 Y91.748 Z2.5 F1600
; --- FIX X Backlash ---
G0 X89.77 Y91.748 F1200
G1 X88.02 Z2.5 F1600
G0 Z0 F500 ; Drop S>0
G1 X82.755 S900 F1600
G0 Z2.5 F500 ; Lift S=0
G1 X66.249 S0 F1600
G0 Z0 F500 ; Drop S>0
G1 X60.966 S900 F1600
G0 Z2.5 F500 ; Lift S=0
G1 X59.216 S0 F1600
G1 X58.82 Y92.648 Z2.5 F1600
; --- FIX X Backlash ---
G0 X59.32 Y92.648 F1200
G1 X61.07 Z2.5 F1600
G0 Z0 F500 ; Drop S>0
G1 X66.112 S900 F1600
G0 Z2.5 F500 ; Lift S=0
G1 X83.899 S0 F1600
G0 Z0 F500 ; Drop S>0
G1 X88.915 S900 F1600
G0 Z2.5 F500 ; Lift S=0
G1 X90.665 S0 F1600
G1 X91.059 Y93.548 Z2.5 F1600
; --- FIX X Backlash ---
G0 X90.559 Y93.548 F1200
G1 X88.809 Z2.5 F1600
G0 Z0 F500 ; Drop S>0
G1 X84.042 S900 F1600
G0 Z2.5 F500 ; Lift S=0
G1 X64.975 S0 F1600
G0 Z0 F500 ; Drop S>0
G1 X60.178 S900 F1600
G0 Z2.5 F500 ; Lift S=0
G1 X58.428 S0 F1600
G1 X58.035 Y94.448 Z2.5 F1600
; --- FIX X Backlash ---
G0 X58.535 Y94.448 F1200
G1 X60.285 Z2.5 F1600
G0 Z0 F500 ; Drop S>0
G1 X64.838 S900 F1600
G0 Z2.5 F500 ; Lift S=0
G1 X85.185 S0 F1600
G0 Z0 F500 ; Drop S>0
G1 X89.704 S900 F1600
G0 Z2.5 F500 ; Lift S=0
G1 X91.454 S0 F1600
G1 X91.851 Y95.348 Z2.5 F1600
; --- FIX X Backlash ---
G0 X91.351 Y95.348 F1200
G1 X89.601 Z2.5 F1600
G0 Z0 F500 ; Drop S>0
G1 X85.321 S900 F1600
G0 Z2.5 F500 ; Lift S=0
G1 X63.702 S0 F1600
G0 Z0 F500 ; Drop S>0
G1 X59.392 S900 F1600
G0 Z2.5 F500 ; Lift S=0
G1 X57.642 S0 F1600
G1 X57.245 Y96.248 Z2.5 F1600
; --- FIX X Backlash ---
G0 X57.745 Y96.248 F1200
G1 X59.495 Z2.5 F1600
G0 Z0 F500 ; Drop S>0
G1 X63.57 S900 F1600
G0 Z2.5 F500 ; Lift S=0
G1 X86.45 S0 F1600
G0 Z0 F500 ; Drop S>0
G1 X90.5 S900 F1600
G0 Z2.5 F500 ; Lift S=0
G1 X92.25 S0 F1600
G1 X92.636 Y97.148 Z2.5 F1600
; --- FIX X Backlash ---
G0 X92.136 Y97.148 F1200
G1 X90.386 Z2.5 F1600
G0 Z0 F500 ; Drop S>0
G1 X86.584 S900 F1600
G0 Z2.5 F500 ; Lift S=0
G1 X62.442 S0 F1600
G0 Z0 F500 ; Drop S>0
G1 X58.616 S900 F1600
G0 Z2.5 F500 ; Lift S=0
G1 X56.866 S0 F1600
G1 X56.495 Y98.048 Z2.5 F1600
; --- FIX X Backlash ---
G0 X56.995 Y98.048 F1200
G1 X58.745 Z2.5 F1600
G0 Z0 F500 ; Drop S>0
G1 X62.318 S900 F1600
G0 Z2.5 F500 ; Lift S=0
G1 X87.717 S0 F1600
G0 Z0 F500 ; Drop S>0
G1 X91.284 S900 F1600
G0 Z2.5 F500 ; Lift S=0
G1 X93.034 S0 F1600
G1 X93.424 Y98.948 Z2.5 F1600
; --- FIX X Backlash ---
G0 X92.924 Y98.948 F1200
G1 X91.174 Z2.5 F1600
G0 Z0 F500 ; Drop S>0
G1 X87.847 S900 F1600
G0 Z2.5 F500 ; Lift S=0
G1 X61.189 S0 F1600
G0 Z0 F500 ; Drop S>0
G1 X57.844 S900 F1600
G0 Z2.5 F500 ; Lift S=0
G1 X56.094 S0 F1600
G1 X55.706 Y99.848 Z2.5 F1600
; --- FIX X Backlash ---
G0 X56.206 Y99.848 F1200
G1 X57.956 Z2.5 F1600
G0 Z0 F500 ; Drop S>0
G1 X61.056 S900 F1600
G0 Z2.5 F500 ; Lift S=0

; Color picking sequence
G1 Z10 F1000;         ; Raise brush
G0 X41 Y5 F1200;    ; Rapid move to color 1
G1 Z10 F1000;         ; Raise brush
G0 X41 Y5 F1200;    ; Rapid move to color 1
G1 Z0 F1000;         ; Lower into color
G1 X40.102 Y7.295 Z0 S800 F1200
G1 X40.026 Y7.642 Z0 F1200
G1 X40 Y8 Z0 F1200
G1 X40.026 Y8.358 Z0 F1200
G1 X40.102 Y8.705 Z0 F1200
G1 X40.225 Y9.041 Z0 F1200
G1 X40.393 Y9.362 Z0 F1200
G1 X40.603 Y9.668 Z0 F1200
G1 X40.854 Y9.957 Z0 F1200
G1 X41.142 Y10.226 Z0 F1200
G1 X41.464 Y10.475 Z0 F1200
G1 X41.82 Y10.701 Z0 F1200
G1 X42.204 Y10.902 Z0 F1200
G1 X42.617 Y11.078 Z0 F1200
G1 X43.054 Y11.225 Z0 F1200
G1 X43.513 Y11.343 Z0 F1200
G1 X43.992 Y11.429 Z0 F1200
G1 X44.489 Y11.482 Z0 F1200
G1 X45 Y11.5 Z0 F1200
G1 X45.511 Y11.482 Z0 F1200
G1 X46.008 Y11.429 Z0 F1200
G1 X46.487 Y11.343 Z0 F1200
G1 X46.946 Y11.225 Z0 F1200
G1 X47.383 Y11.078 Z0 F1200
G1 X47.796 Y10.902 Z0 F1200
G1 X48.18 Y10.701 Z0 F1200
G1 X48.536 Y10.475 Z0 F1200
G1 X48.858 Y10.226 Z0 F1200
G1 X49.146 Y9.957 Z0 F1200
G1 X49.397 Y9.668 Z0 F1200
G1 X49.607 Y9.362 Z0 F1200
G1 X49.775 Y9.041 Z0 F1200
G1 X49.898 Y8.705 Z0 F1200
G1 X49.974 Y8.358 Z0 F1200
G1 X50 Y8 Z0 F1200
G1 X49.974 Y7.642 Z0 F1200
G1 X49.898 Y7.295 Z0 F1200
G1 X49.775 Y6.959 Z0 F1200
G1 X49.607 Y6.638 Z0 F1200
G1 X49.397 Y6.332 Z0 F1200
G1 X49.146 Y6.043 Z0 F1200
G1 X48.858 Y5.774 Z0 F1200
G1 X48.536 Y5.525 Z0 F1200
G1 X48.18 Y5.299 Z0 F1200
G1 X47.796 Y5.098 Z0 F1200
G1 X47.383 Y4.922 Z0 F1200
G1 X46.946 Y4.775 Z0 F1200
G1 X46.487 Y4.657 Z0 F1200
G1 X46.008 Y4.571 Z0 F1200
G1 X45.511 Y4.518 Z0 F1200
G1 X45 Y4.5 Z0 F1200
G1 X44.489 Y4.518 Z0 F1200
G1 X43.992 Y4.571 Z0 F1200
G1 X43.513 Y4.657 Z0 F1200
G1 X43.054 Y4.775 Z0 F1200
G1 X42.617 Y4.922 Z0 F1200
G1 X42.204 Y5.098 Z0 F1200
G1 X41.82 Y5.299 Z0 F1200
G1 X41.464 Y5.525 Z0 F1200
G1 X41.142 Y5.774 Z0 F1200
G1 X40.854 Y6.043 Z0 F1200
G1 X40.603 Y6.332 Z0 F1200
G1 X40.393 Y6.638 Z0 F1200
G1 X40.225 Y6.959 Z0 F1200
G1 Z7 F800;         ; Raise from color
G1 X34 Y8 Z1 F1200;     ; Movement in paint
G1 X24 Y18 Z8 F500;     ; Move in paint
G1 F1200;           ; Set feed rate
G0 Z2.5 F1000 ; Safety Lift
G0 X61.056 Y99.848 F1200 ; Return to pos
G1 X88.972 S0 F1600
G0 Z0 F500 ; Drop S>0
G1 X92.059 S900 F1600
G0 Z2.5 F500 ; Lift S=0
G1 X93.809 S0 F1600
G1 X94.194 Y100.748 Z2.5 F1600
; --- FIX X Backlash ---
G0 X93.694 Y100.748 F1200
G1 X91.944 Z2.5 F1600
G0 Z0 F500 ; Drop S>0
G1 X89.096 S900 F1600
G0 Z2.5 F500 ; Lift S=0
G1 X59.922 S0 F1600
G0 Z0 F500 ; Drop S>0
G1 X57.068 S900 F1600
G0 Z2.5 F500 ; Lift S=0
G1 X55.318 S0 F1600
G1 X54.934 Y101.648 Z2.5 F1600
; --- FIX X Backlash ---
G0 X55.434 Y101.648 F1200
G1 X57.184 Z2.5 F1600
G0 Z0 F500 ; Drop S>0
G1 X59.795 S900 F1600
G0 Z2.5 F500 ; Lift S=0
G1 X90.223 S0 F1600
G0 Z0 F500 ; Drop S>0
G1 X92.829 S900 F1600
G0 Z2.5 F500 ; Lift S=0
G1 X94.579 S0 F1600
G1 X94.964 Y102.548 Z2.5 F1600
; --- FIX X Backlash ---
G0 X94.464 Y102.548 F1200
G1 X92.714 Z2.5 F1600
G0 Z0 F500 ; Drop S>0
G1 X90.347 S900 F1600
G0 Z2.5 F500 ; Lift S=0
G1 X58.671 S0 F1600
G0 Z0 F500 ; Drop S>0
G1 X56.3 S900 F1600
G0 Z2.5 F500 ; Lift S=0
G1 X54.55 S0 F1600
G1 X54.168 Y103.448 Z2.5 F1600
; --- FIX X Backlash ---
G0 X54.668 Y103.448 F1200
G1 X56.418 Z2.5 F1600
G0 Z0 F500 ; Drop S>0
G1 X58.547 S900 F1600
G0 Z2.5 F500 ; Lift S=0
G1 X91.472 S0 F1600
G0 Z0 F500 ; Drop S>0
G1 X93.597 S900 F1600
G0 Z2.5 F500 ; Lift S=0
G1 X95.347 S0 F1600
G1 X95.723 Y104.348 Z2.5 F1600
; --- FIX X Backlash ---
G0 X95.223 Y104.348 F1200
G1 X93.473 Z2.5 F1600
G0 Z0 F500 ; Drop S>0
G1 X91.602 S900 F1600
G0 Z2.5 F500 ; Lift S=0
G1 X57.421 S0 F1600
G0 Z0 F500 ; Drop S>0
G1 X55.536 S900 F1600
G0 Z2.5 F500 ; Lift S=0
G1 X53.786 S0 F1600
G1 X53.404 Y105.248 Z2.5 F1600
; --- FIX X Backlash ---
G0 X53.904 Y105.248 F1200
G1 X55.654 Z2.5 F1600
G0 Z0 F500 ; Drop S>0
G1 X57.291 S900 F1600
G0 Z2.5 F500 ; Lift S=0
G1 X92.719 S0 F1600
G0 Z0 F500 ; Drop S>0
G1 X94.338 S900 F1600
G0 Z2.5 F500 ; Lift S=0
G1 X96.088 S0 F1600
G1 X96.416 Y106.148 Z2.5 F1600
; --- FIX X Backlash ---
G0 X95.916 Y106.148 F1200
G1 X94.166 Z2.5 F1600
G0 Z0 F500 ; Drop S>0
G1 X92.843 S900 F1600
G0 Z2.5 F500 ; Lift S=0
G1 X56.129 S0 F1600
G0 Z0 F500 ; Drop S>0
G1 X54.86 S900 F1600
G0 Z2.5 F500 ; Lift S=0
G1 X53.11 S0 F1600

; Washing sequence (no color)
G1 Z10 F1000;        ; Raise brush
G0 X5 Y5 F1200;     ; Rapid move to clean
G1 Z-1 F800;         ; Lower brush
G1 X10 Y12 Z8 F1200;     ; Move
G1 Z-1 F800;         ; Lower
G1 X25 Y14 Z6 F800;     ; Move
G1 Z8 F800;         ; Maintain
G0 X5 Y5 F1200;     ; Rapid
G1 Z-1 F800;         ; Lower
G1 X15 Y12 Z8 F1200;     ; Move
G1 Z-1 F800;         ; Lower
G1 X25 Y14 Z6 F800;     ; Move
G1 Z10 F800;         ; Maintain
G1 F1200;           ; Set feed
G0 Z2.5 F1000 ; Safety Lift

; Color picking sequence
G1 Z10 F1000;         ; Raise brush
G0 X86 Y5 F1200;    ; Rapid move to color 1
G1 Z10 F1000;         ; Raise brush
G0 X86 Y5 F1200;    ; Rapid move to color 1
G1 Z0 F1000;         ; Lower into color
G1 X85.102 Y7.295 Z0 S800 F1200
G1 X85.026 Y7.642 Z0 F1200
G1 X85 Y8 Z0 F1200
G1 X85.026 Y8.358 Z0 F1200
G1 X85.102 Y8.705 Z0 F1200
G1 X85.225 Y9.041 Z0 F1200
G1 X85.393 Y9.362 Z0 F1200
G1 X85.603 Y9.668 Z0 F1200
G1 X85.854 Y9.957 Z0 F1200
G1 X86.142 Y10.226 Z0 F1200
G1 X86.464 Y10.475 Z0 F1200
G1 X86.82 Y10.701 Z0 F1200
G1 X87.204 Y10.902 Z0 F1200
G1 X87.617 Y11.078 Z0 F1200
G1 X88.054 Y11.225 Z0 F1200
G1 X88.513 Y11.343 Z0 F1200
G1 X88.992 Y11.429 Z0 F1200
G1 X89.489 Y11.482 Z0 F1200
G1 X90 Y11.5 Z0 F1200
G1 X90.511 Y11.482 Z0 F1200
G1 X91.008 Y11.429 Z0 F1200
G1 X91.487 Y11.343 Z0 F1200
G1 X91.946 Y11.225 Z0 F1200
G1 X92.383 Y11.078 Z0 F1200
G1 X92.796 Y10.902 Z0 F1200
G1 X93.18 Y10.701 Z0 F1200
G1 X93.536 Y10.475 Z0 F1200
G1 X93.858 Y10.226 Z0 F1200
G1 X94.146 Y9.957 Z0 F1200
G1 X94.397 Y9.668 Z0 F1200
G1 X94.607 Y9.362 Z0 F1200
G1 X94.775 Y9.041 Z0 F1200
G1 X94.898 Y8.705 Z0 F1200
G1 X94.974 Y8.358 Z0 F1200
G1 X95 Y8 Z0 F1200
G1 X94.974 Y7.642 Z0 F1200
G1 X94.898 Y7.295 Z0 F1200
G1 X94.775 Y6.959 Z0 F1200
G1 X94.607 Y6.638 Z0 F1200
G1 X94.397 Y6.332 Z0 F1200
G1 X94.146 Y6.043 Z0 F1200
G1 X93.858 Y5.774 Z0 F1200
G1 X93.536 Y5.525 Z0 F1200
G1 X93.18 Y5.299 Z0 F1200
G1 X92.796 Y5.098 Z0 F1200
G1 X92.383 Y4.922 Z0 F1200
G1 X91.946 Y4.775 Z0 F1200
G1 X91.487 Y4.657 Z0 F1200
G1 X91.008 Y4.571 Z0 F1200
G1 X90.511 Y4.518 Z0 F1200
G1 X90 Y4.5 Z0 F1200
G1 X89.489 Y4.518 Z0 F1200
G1 X88.992 Y4.571 Z0 F1200
G1 X88.513 Y4.657 Z0 F1200
G1 X88.054 Y4.775 Z0 F1200
G1 X87.617 Y4.922 Z0 F1200
G1 X87.204 Y5.098 Z0 F1200
G1 X86.82 Y5.299 Z0 F1200
G1 X86.464 Y5.525 Z0 F1200
G1 X86.142 Y5.774 Z0 F1200
G1 X85.854 Y6.043 Z0 F1200
G1 X85.603 Y6.332 Z0 F1200
G1 X85.393 Y6.638 Z0 F1200
G1 X85.225 Y6.959 Z0 F1200
G1 Z7 F800;         ; Raise from color
G1 X79 Y8 Z1 F1200;     ; Movement in paint
G1 X69 Y18 Z8 F500;     ; Move in paint
G1 F1200;           ; Set feed rate
G0 Z2.5 F1000 ; Safety Lift
;Offset @ 1500 mm/min, 90% power

M8
G0 Z3.5 F1000
; --- FIX X Backlash ---
G0 X53.61 Y106.148 F1200
; --- FIX Y Backlash ---
G0 X53.61 Y105.648 F1200
G0 X55.579 Y43.024 Z3.5 F1500
G1 Z0 F1000
;Layer C2
; --- FIX Y Backlash ---
G0 X55.579 Y43.524 F1200
G1 X55.623 Y43.891 Z0 S900 F1600
G1 X55.75 Y44.701 Z0 F1600
G1 X55.912 Y45.48 Z0 F1600
G1 X56.167 Y46.427 Z0 F1600
G1 X56.454 Y47.333 Z0 F1600
G1 X56.777 Y48.209 Z0 F1600
G1 X57.14 Y49.061 Z0 F1600
G1 X57.542 Y49.889 Z0 F1600
G1 X57.986 Y50.7 Z0 F1600
G1 X58.475 Y51.498 Z0 F1600
G1 X59.006 Y52.284 Z0 F1600
G1 X59.431 Y52.866 Z0 F1600
; --- FIX X Backlash ---
G0 X58.931 Y52.866 F1200
; --- FIX Y Backlash ---
G0 X58.931 Y52.366 F1200
G1 X58.771 Y52.298 Z0 F1600
G1 X58.586 Y52.193 Z0 F1600
G1 X58.363 Y52.039 Z0 F1600
G1 X58.115 Y51.837 Z0 F1600
G1 X57.846 Y51.589 Z0 F1600
G1 X57.539 Y51.276 Z0 F1600
G1 X57.219 Y50.923 Z0 F1600
G1 X57.148 Y50.833 Z0 F1600
G1 X57.022 Y50.656 Z0 F1600
G1 X56.884 Y50.444 Z0 F1600
G1 X56.734 Y50.203 Z0 F1600
G1 X56.407 Y49.638 Z0 F1600
G1 X56.135 Y49.121 Z0 F1600
G1 X55.971 Y48.761 Z0 F1600
G1 X55.822 Y48.383 Z0 F1600
G1 X55.687 Y47.983 Z0 F1600
G1 X55.559 Y47.534 Z0 F1600
G1 X55.445 Y47.062 Z0 F1600
G1 X55.334 Y46.512 Z0 F1600
G1 X55.235 Y45.928 Z0 F1600
G1 X55.146 Y45.306 Z0 F1600
G1 X55.132 Y45.168 Z0 F1600
G1 X55.118 Y44.964 Z0 F1600
G1 X55.105 Y44.709 Z0 F1600
G1 X55.093 Y44.406 Z0 F1600
G1 X55.075 Y43.701 Z0 F1600
G1 X55.063 Y42.93 Z0 F1600
G1 Y42.822 Z0 F1600
; --- FIX Y Backlash ---
G0 X55.063 Y43.322 F1200
G1 X55.079 Y43.524 Z0 F1600
G0 Z3.5 F1000
; --- FIX X Backlash ---
G0 X55.579 Y43.524 F1200
G0 X58.881 Y46.127 Z3.5
G1 Z0 F1000
; --- FIX X Backlash ---
G0 X58.381 Y46.127 F1200
; --- FIX Y Backlash ---
G0 X58.381 Y45.627 F1200
G1 X57.871 Y44.542 Z0 F1600
G1 X57.517 Y43.736 Z0 F1600
; --- FIX X Backlash ---
G0 X58.017 Y43.736 F1200
; --- FIX Y Backlash ---
G0 X58.017 Y44.236 F1200
G1 X58.22 Y44.443 Z0 F1600
G1 X58.622 Y44.86 Z0 F1600
G1 X58.837 Y45.091 Z0 F1600
G1 X59.037 Y45.313 Z0 F1600
G1 X59.252 Y45.561 Z0 F1600
G1 X59.483 Y45.834 Z0 F1600
G1 X59.763 Y46.168 Z0 F1600
G1 X60.558 Y47.169 Z0 F1600
G1 X61.259 Y48.161 Z0 F1600
G1 X61.876 Y49.155 Z0 F1600
G1 X62.439 Y50.197 Z0 F1600
G1 X62.75 Y50.859 Z0 F1600
G1 X63.042 Y51.552 Z0 F1600
G1 X63.159 Y51.853 Z0 F1600
G1 X63.179 Y51.911 Z0 F1600
G1 X63.134 Y51.946 Z0 F1600
; --- FIX X Backlash ---
G0 X62.634 Y51.946 F1200
G1 X62.232 Y52.213 Z0 F1600
G1 X62.209 Y52.225 Z0 F1600
; --- FIX Y Backlash ---
G0 X62.209 Y51.725 F1200
G1 X62.089 Y51.577 Z0 F1600
G1 X61.908 Y51.344 Z0 F1600
G1 X61.722 Y51.1 Z0 F1600
G1 X61.298 Y50.521 Z0 F1600
G1 X60.881 Y49.929 Z0 F1600
G1 X60.451 Y49.297 Z0 F1600
G1 X60.057 Y48.692 Z0 F1600
G1 X59.712 Y48.139 Z0 F1600
G1 X59.43 Y47.655 Z0 F1600
G1 X58.905 Y46.675 Z0 F1600
G1 X58.381 Y45.627 Z0 F1600
G0 Z3.5 F1000
G0 X56.12 Y41.591 Z3.5
G1 Z0 F1000
G1 X55.316 Y41.522 Z0 F1600
; --- FIX Y Backlash ---
G0 X55.316 Y42.022 F1200
G1 X55.063 Y42.855 Z0 F1600
G1 Y42.882 Z0 F1600
; --- FIX Y Backlash ---
G0 X55.063 Y42.382 F1200
G1 Y42.17 Z0 F1600
G1 X55.066 Y41.472 Z0 F1600
G1 X55.072 Y41.165 Z0 F1600
G1 X55.08 Y40.929 Z0 F1600
G1 X55.091 Y40.727 Z0 F1600
G1 X55.101 Y40.609 Z0 F1600
; --- FIX X Backlash ---
G0 X55.601 Y40.609 F1200
G1 X55.686 Y39.95 Z0 F1600
; --- FIX Y Backlash ---
G0 X55.686 Y40.45 F1200
G1 X55.974 Y40.556 Z0 F1600
G1 X56.743 Y40.866 Z0 F1600
G1 X57.524 Y41.205 Z0 F1600
G1 X58.296 Y41.565 Z0 F1600
G1 X59.053 Y41.941 Z0 F1600
G1 X59.766 Y42.321 Z0 F1600
G1 X60.402 Y42.687 Z0 F1600
G1 X60.956 Y43.036 Z0 F1600
G1 X61.461 Y43.385 Z0 F1600
G1 X61.946 Y43.751 Z0 F1600
G1 X62.392 Y44.117 Z0 F1600
G1 X62.799 Y44.482 Z0 F1600
G1 X63.175 Y44.852 Z0 F1600
G1 X63.527 Y45.234 Z0 F1600
G1 X63.841 Y45.612 Z0 F1600
G1 X64.125 Y45.995 Z0 F1600
G1 X64.368 Y46.367 Z0 F1600
G1 X64.58 Y46.741 Z0 F1600
G1 X64.762 Y47.119 Z0 F1600
G1 X64.905 Y47.481 Z0 F1600
G1 X65.018 Y47.845 Z0 F1600
G1 X65.096 Y48.2 Z0 F1600
G1 X65.144 Y48.55 Z0 F1600
G1 X65.16 Y48.903 Z0 F1600
G1 Y48.968 Z0 F1600
; --- FIX X Backlash ---
G0 X64.66 Y48.968 F1200
; --- FIX Y Backlash ---
G0 X64.66 Y48.468 F1200
G1 X64.371 Y47.918 Z0 F1600
G1 X64.048 Y47.348 Z0 F1600
G1 X63.707 Y46.791 Z0 F1600
G1 X63.353 Y46.257 Z0 F1600
G1 X62.991 Y45.759 Z0 F1600
G1 X62.473 Y45.112 Z0 F1600
G1 X61.925 Y44.492 Z0 F1600
G1 X61.352 Y43.902 Z0 F1600
G1 X60.755 Y43.344 Z0 F1600
G1 X60.139 Y42.822 Z0 F1600
G1 X59.504 Y42.338 Z0 F1600
G1 X58.856 Y41.895 Z0 F1600
G1 X58.203 Y41.5 Z0 F1600
G1 X57.912 Y41.339 Z0 F1600
G1 X57.661 Y41.213 Z0 F1600
G1 X57.106 Y41.017 Z0 F1600
; --- FIX Y Backlash ---
G0 X57.106 Y41.517 F1200
G1 X56.12 Y42.091 Z0 F1600
G0 Z3.5 F1000
G0 X54.164 Y43.443 Z3.5
G1 Z0 F1000
; --- FIX Y Backlash ---
G0 X54.164 Y42.943 F1200
G1 X54.161 Y42.163 Z0 F1600
G1 X54.166 Y41.454 Z0 F1600
G1 X54.172 Y41.146 Z0 F1600
G1 X54.181 Y40.881 Z0 F1600
G1 X54.192 Y40.668 Z0 F1600
G1 X54.206 Y40.514 Z0 F1600
; --- FIX X Backlash ---
G0 X54.706 Y40.514 F1200
G1 X54.842 Y39.453 Z0 F1600
G1 X54.879 Y39.176 Z0 F1600
G1 X54.913 Y38.95 Z0 F1600
G1 X54.938 Y38.797 Z0 F1600
G1 X54.953 Y38.741 Z0 F1600
G1 X55.004 Y38.756 Z0 F1600
; --- FIX Y Backlash ---
G0 X55.004 Y39.256 F1200
G1 X55.313 Y39.36 Z0 F1600
G1 X55.534 Y39.436 Z0 F1600
G1 X56.293 Y39.714 Z0 F1600
G1 X57.085 Y40.033 Z0 F1600
G1 X57.891 Y40.383 Z0 F1600
G1 X58.691 Y40.756 Z0 F1600
G1 X59.467 Y41.142 Z0 F1600
G1 X60.199 Y41.532 Z0 F1600
G1 X60.868 Y41.916 Z0 F1600
G1 X61.455 Y42.286 Z0 F1600
G1 X61.992 Y42.658 Z0 F1600
G1 X62.498 Y43.04 Z0 F1600
G1 X62.973 Y43.43 Z0 F1600
G1 X63.417 Y43.827 Z0 F1600
G1 X63.828 Y44.231 Z0 F1600
G1 X64.206 Y44.642 Z0 F1600
G1 X64.55 Y45.057 Z0 F1600
G1 X64.861 Y45.477 Z0 F1600
G1 X65.138 Y45.9 Z0 F1600
G1 X65.379 Y46.326 Z0 F1600
G1 X65.585 Y46.754 Z0 F1600
G1 X65.754 Y47.183 Z0 F1600
G1 X65.888 Y47.612 Z0 F1600
G1 X65.983 Y48.042 Z0 F1600
G1 X66.041 Y48.469 Z0 F1600
G1 X66.06 Y48.896 Z0 F1600
G1 X66.05 Y49.229 Z0 F1600
G1 X66.02 Y49.53 Z0 F1600
; --- FIX X Backlash ---
G0 X65.52 Y49.53 F1200
G1 X65.466 Y49.809 Z0 F1600
G1 X65.388 Y50.078 Z0 F1600
G1 X65.227 Y50.482 Z0 F1600
G1 X65.017 Y50.93 Z0 F1600
G1 X64.914 Y51.129 Z0 F1600
G1 X64.822 Y51.292 Z0 F1600
G1 X64.751 Y51.401 Z0 F1600
G1 X64.707 Y51.441 Z0 F1600
G1 X64.682 Y51.397 Z0 F1600
; --- FIX Y Backlash ---
G0 X64.682 Y50.897 F1200
G1 X64.634 Y50.779 Z0 F1600
G1 X64.571 Y50.605 Z0 F1600
G1 X64.5 Y50.392 Z0 F1600
G1 X64.33 Y49.926 Z0 F1600
G1 X64.116 Y49.421 Z0 F1600
G1 X63.863 Y48.891 Z0 F1600
G1 X63.58 Y48.348 Z0 F1600
G1 X63.272 Y47.805 Z0 F1600
G1 X62.948 Y47.275 Z0 F1600
G1 X62.613 Y46.771 Z0 F1600
G1 X62.275 Y46.305 Z0 F1600
G1 X61.784 Y45.692 Z0 F1600
G1 X61.265 Y45.104 Z0 F1600
G1 X60.722 Y44.545 Z0 F1600
G1 X60.157 Y44.017 Z0 F1600
G1 X59.574 Y43.524 Z0 F1600
G1 X58.977 Y43.068 Z0 F1600
G1 X58.369 Y42.652 Z0 F1600
G1 X57.752 Y42.279 Z0 F1600
G1 X57.492 Y42.136 Z0 F1600
G1 X57.308 Y42.043 Z0 F1600
G1 X57.199 Y42.004 Z0 F1600
G1 X57.166 Y42.023 Z0 F1600
G1 X57.178 Y42.056 Z0 F1600
G1 X57.209 Y42.104 Z0 F1600
; --- FIX X Backlash ---
G0 X57.709 Y42.104 F1200
; --- FIX Y Backlash ---
G0 X57.709 Y42.604 F1200
G1 X57.76 Y42.667 Z0 F1600
G1 X57.83 Y42.748 Z0 F1600
G1 X57.919 Y42.845 Z0 F1600
G1 X58.156 Y43.092 Z0 F1600
G1 X58.868 Y43.819 Z0 F1600
G1 X59.28 Y44.247 Z0 F1600
G1 X59.506 Y44.489 Z0 F1600
G1 X59.716 Y44.723 Z0 F1600
G1 X59.931 Y44.97 Z0 F1600
G1 X60.173 Y45.255 Z0 F1600
G1 X60.462 Y45.601 Z0 F1600
G1 X61.278 Y46.629 Z0 F1600
G1 X62.006 Y47.66 Z0 F1600
G1 X62.658 Y48.708 Z0 F1600
G1 X63.242 Y49.789 Z0 F1600
G1 X63.573 Y50.494 Z0 F1600
G1 X63.878 Y51.217 Z0 F1600
G1 X64.004 Y51.543 Z0 F1600
G1 X64.103 Y51.821 Z0 F1600
G1 X64.167 Y52.034 Z0 F1600
G1 X64.189 Y52.165 Z0 F1600
G1 X64.149 Y52.25 Z0 F1600
; --- FIX X Backlash ---
G0 X63.649 Y52.25 F1200
G1 X63.537 Y52.37 Z0 F1600
G1 X63.369 Y52.516 Z0 F1600
G1 X63.162 Y52.675 Z0 F1600
G1 X62.688 Y52.99 Z0 F1600
G1 X62.241 Y53.224 Z0 F1600
G1 X62.084 Y53.281 Z0 F1600
G1 X61.977 Z0 F1600
; --- FIX Y Backlash ---
G0 X61.977 Y52.781 F1200
G1 X61.874 Y52.713 Z0 F1600
G1 X61.733 Y52.559 Z0 F1600
G1 X61.568 Y52.364 Z0 F1600
G1 X61.389 Y52.143 Z0 F1600
G1 X61.198 Y51.897 Z0 F1600
G1 X60.996 Y51.632 Z0 F1600
G1 X60.572 Y51.054 Z0 F1600
G1 X60.137 Y50.435 Z0 F1600
G1 X59.707 Y49.803 Z0 F1600
G1 X59.303 Y49.184 Z0 F1600
G1 X58.942 Y48.605 Z0 F1600
G1 X58.644 Y48.094 Z0 F1600
G1 X58.112 Y47.1 Z0 F1600
G1 X57.57 Y46.018 Z0 F1600
G1 X57.048 Y44.907 Z0 F1600
G1 X56.573 Y43.824 Z0 F1600
G1 X56.356 Y43.316 Z0 F1600
G1 X56.173 Y42.893 Z0 F1600
G1 X56.042 Y42.601 Z0 F1600
G1 X56.002 Y42.517 Z0 F1600
G1 X55.982 Y42.482 Z0 F1600
G1 X55.965 Z0 F1600
G1 X55.955 Y42.515 Z0 F1600
; --- FIX Y Backlash ---
G0 X55.955 Y43.015 F1200
G1 X55.951 Y43.081 Z0 F1600
G1 X55.954 Y43.175 Z0 F1600
G1 X55.975 Y43.435 Z0 F1600
G1 X56.015 Y43.767 Z0 F1600
; --- FIX X Backlash ---
G0 X56.515 Y43.767 F1200
G1 X56.636 Y44.54 Z0 F1600
G1 X56.788 Y45.271 Z0 F1600
G1 X57.031 Y46.174 Z0 F1600
G1 X57.306 Y47.042 Z0 F1600
G1 X57.614 Y47.877 Z0 F1600
G1 X57.959 Y48.688 Z0 F1600
G1 X58.342 Y49.476 Z0 F1600
G1 X58.765 Y50.249 Z0 F1600
G1 X59.231 Y51.011 Z0 F1600
G1 X59.742 Y51.766 Z0 F1600
G1 X60.191 Y52.38 Z0 F1600
G1 X60.645 Y52.973 Z0 F1600
G1 X60.845 Y53.224 Z0 F1600
G1 X61.012 Y53.426 Z0 F1600
G1 X61.134 Y53.564 Z0 F1600
G1 X61.201 Y53.623 Z0 F1600
G1 X61.244 Y53.676 Z0 F1600
G1 X61.262 Y53.766 Z0 F1600
; --- FIX X Backlash ---
G0 X60.762 Y53.766 F1200
G1 X60.707 Y53.813 Z0 F1600
G1 X60.559 Y53.85 Z0 F1600
G1 X60.337 Y53.873 Z0 F1600
G1 X60.065 Y53.884 Z0 F1600
G1 X59.454 Y53.866 Z0 F1600
; --- FIX Y Backlash ---
G0 X59.454 Y53.366 F1200
G1 X58.898 Y53.293 Z0 F1600
G1 X58.639 Y53.22 Z0 F1600
G1 X58.375 Y53.107 Z0 F1600
G1 X58.104 Y52.955 Z0 F1600
G1 X57.823 Y52.759 Z0 F1600
G1 X57.528 Y52.52 Z0 F1600
G1 X57.217 Y52.232 Z0 F1600
G1 X56.887 Y51.897 Z0 F1600
G1 X56.536 Y51.51 Z0 F1600
G1 X56.422 Y51.366 Z0 F1600
G1 X56.283 Y51.168 Z0 F1600
G1 X56.125 Y50.928 Z0 F1600
G1 X55.958 Y50.658 Z0 F1600
G1 X55.62 Y50.075 Z0 F1600
G1 X55.327 Y49.518 Z0 F1600
G1 X55.143 Y49.114 Z0 F1600

; Color picking sequence
G1 Z10 F1000;         ; Raise brush
G0 X86 Y5 F1200;    ; Rapid move to color 1
G1 Z10 F1000;         ; Raise brush
G0 X86 Y5 F1200;    ; Rapid move to color 1
G1 Z0 F1000;         ; Lower into color
G1 X85.102 Y7.295 Z0 S800 F1200
G1 X85.026 Y7.642 Z0 F1200
G1 X85 Y8 Z0 F1200
G1 X85.026 Y8.358 Z0 F1200
G1 X85.102 Y8.705 Z0 F1200
G1 X85.225 Y9.041 Z0 F1200
G1 X85.393 Y9.362 Z0 F1200
G1 X85.603 Y9.668 Z0 F1200
G1 X85.854 Y9.957 Z0 F1200
G1 X86.142 Y10.226 Z0 F1200
G1 X86.464 Y10.475 Z0 F1200
G1 X86.82 Y10.701 Z0 F1200
G1 X87.204 Y10.902 Z0 F1200
G1 X87.617 Y11.078 Z0 F1200
G1 X88.054 Y11.225 Z0 F1200
G1 X88.513 Y11.343 Z0 F1200
G1 X88.992 Y11.429 Z0 F1200
G1 X89.489 Y11.482 Z0 F1200
G1 X90 Y11.5 Z0 F1200
G1 X90.511 Y11.482 Z0 F1200
G1 X91.008 Y11.429 Z0 F1200
G1 X91.487 Y11.343 Z0 F1200
G1 X91.946 Y11.225 Z0 F1200
G1 X92.383 Y11.078 Z0 F1200
G1 X92.796 Y10.902 Z0 F1200
G1 X93.18 Y10.701 Z0 F1200
G1 X93.536 Y10.475 Z0 F1200
G1 X93.858 Y10.226 Z0 F1200
G1 X94.146 Y9.957 Z0 F1200
G1 X94.397 Y9.668 Z0 F1200
G1 X94.607 Y9.362 Z0 F1200
G1 X94.775 Y9.041 Z0 F1200
G1 X94.898 Y8.705 Z0 F1200
G1 X94.974 Y8.358 Z0 F1200
G1 X95 Y8 Z0 F1200
G1 X94.974 Y7.642 Z0 F1200
G1 X94.898 Y7.295 Z0 F1200
G1 X94.775 Y6.959 Z0 F1200
G1 X94.607 Y6.638 Z0 F1200
G1 X94.397 Y6.332 Z0 F1200
G1 X94.146 Y6.043 Z0 F1200
G1 X93.858 Y5.774 Z0 F1200
G1 X93.536 Y5.525 Z0 F1200
G1 X93.18 Y5.299 Z0 F1200
G1 X92.796 Y5.098 Z0 F1200
G1 X92.383 Y4.922 Z0 F1200
G1 X91.946 Y4.775 Z0 F1200
G1 X91.487 Y4.657 Z0 F1200
G1 X91.008 Y4.571 Z0 F1200
G1 X90.511 Y4.518 Z0 F1200
G1 X90 Y4.5 Z0 F1200
G1 X89.489 Y4.518 Z0 F1200
G1 X88.992 Y4.571 Z0 F1200
G1 X88.513 Y4.657 Z0 F1200
G1 X88.054 Y4.775 Z0 F1200
G1 X87.617 Y4.922 Z0 F1200
G1 X87.204 Y5.098 Z0 F1200
G1 X86.82 Y5.299 Z0 F1200
G1 X86.464 Y5.525 Z0 F1200
G1 X86.142 Y5.774 Z0 F1200
G1 X85.854 Y6.043 Z0 F1200
G1 X85.603 Y6.332 Z0 F1200
G1 X85.393 Y6.638 Z0 F1200
G1 X85.225 Y6.959 Z0 F1200
G1 Z7 F800;         ; Raise from color
G1 X79 Y8 Z1 F1200;     ; Movement in paint
G1 X69 Y18 Z8 F500;     ; Move in paint
G1 F1200;           ; Set feed rate
G0 Z2.5 F1000 ; Safety Lift
G0 X55.143 Y49.114 F1200 ; Return
G1 Z0 F1000 ; Restore Z
G1 X54.977 Y48.692 Z0 F1600
G1 X54.826 Y48.246 Z0 F1600
G1 X54.689 Y47.767 Z0 F1600
G1 X54.565 Y47.251 Z0 F1600
G1 X54.452 Y46.69 Z0 F1600
G1 X54.348 Y46.079 Z0 F1600
G1 X54.251 Y45.41 Z0 F1600
G1 X54.235 Y45.247 Z0 F1600
G1 X54.22 Y45.026 Z0 F1600
G1 X54.206 Y44.754 Z0 F1600
G1 X54.194 Y44.441 Z0 F1600
G1 X54.175 Y43.725 Z0 F1600
G1 X54.164 Y42.943 Z0 F1600
G0 Z3.5 F1000
; --- FIX X Backlash ---
G0 X54.664 Y42.943 F1200
; --- FIX Y Backlash ---
G0 X54.664 Y43.443 F1200
G0 X94.393 Y44.193 Z3.5
G1 Z0 F1000
G1 X94.386 Y44.552 Z0 F1600
G1 X94.377 Y44.894 Z0 F1600
G1 X94.351 Y45.472 Z0 F1600
G1 X94.31 Y45.998 Z0 F1600
; --- FIX X Backlash ---
G0 X93.81 Y45.998 F1200
G1 X93.678 Y46.941 Z0 F1600
G1 X93.472 Y47.858 Z0 F1600
G1 X93.221 Y48.675 Z0 F1600
G1 X92.901 Y49.463 Z0 F1600
G1 X92.525 Y50.209 Z0 F1600
G1 X92.096 Y50.908 Z0 F1600
G1 X91.638 Y51.523 Z0 F1600
G1 X91.153 Y52.057 Z0 F1600
G1 X90.932 Y52.261 Z0 F1600
G1 X90.695 Y52.453 Z0 F1600
G1 X90.476 Y52.604 Z0 F1600
G1 X90.253 Y52.732 Z0 F1600
G1 X90.082 Y52.814 Z0 F1600
; --- FIX X Backlash ---
G0 X90.582 Y52.814 F1200
; --- FIX Y Backlash ---
G0 X90.582 Y52.314 F1200
G1 X90.633 Y52.246 Z0 F1600
G1 X90.931 Y51.838 Z0 F1600
G1 X91.212 Y51.444 Z0 F1600
G1 X91.462 Y51.083 Z0 F1600
G1 X91.668 Y50.773 Z0 F1600
G1 X91.987 Y50.251 Z0 F1600
G1 X92.296 Y49.698 Z0 F1600
G1 X92.594 Y49.12 Z0 F1600
G1 X92.881 Y48.515 Z0 F1600
G1 X93.396 Y47.28 Z0 F1600
G1 X93.834 Y46.008 Z0 F1600
G1 X94.062 Y45.152 Z0 F1600
G1 X94.258 Y44.224 Z0 F1600
G1 X94.336 Y43.776 Z0 F1600
G1 X94.396 Y43.371 Z0 F1600
G1 Y43.368 Z0 F1600
; --- FIX Y Backlash ---
G0 X94.396 Y43.868 F1200
G1 X94.393 Y44.193 Z0 F1600
G0 Z3.5 F1000
; --- FIX X Backlash ---
G0 X93.893 Y44.193 F1200
G0 X90.557 Y46.272 Z3.5
G1 Z0 F1000
G1 X90.027 Y47.308 Z0 F1600
G1 X89.482 Y48.286 Z0 F1600
G1 X88.908 Y49.234 Z0 F1600
G1 X88.318 Y50.133 Z0 F1600
G1 X87.672 Y51.042 Z0 F1600
G1 X86.987 Y51.941 Z0 F1600
G1 X86.771 Y52.216 Z0 F1600
; --- FIX Y Backlash ---
G0 X86.771 Y51.716 F1200
G1 X86.593 Y51.609 Z0 F1600
G1 X86.31 Y51.419 Z0 F1600
G1 X86.258 Y51.38 Z0 F1600
; --- FIX X Backlash ---
G0 X86.758 Y51.38 F1200
G1 X86.872 Y51.097 Z0 F1600
G1 X87.017 Y50.759 Z0 F1600
G1 X87.178 Y50.406 Z0 F1600
G1 X87.371 Y50 Z0 F1600
G1 X87.564 Y49.611 Z0 F1600
G1 X87.99 Y48.817 Z0 F1600
G1 X88.452 Y48.044 Z0 F1600
G1 X88.947 Y47.297 Z0 F1600
G1 X89.512 Y46.524 Z0 F1600
G1 X90.118 Y45.763 Z0 F1600
G1 X90.812 Y44.958 Z0 F1600
G1 X91.546 Y44.164 Z0 F1600
G1 X92.006 Y43.693 Z0 F1600
; --- FIX X Backlash ---
G0 X91.506 Y43.693 F1200
; --- FIX Y Backlash ---
G0 X91.506 Y44.193 F1200
G1 X91.063 Y45.201 Z0 F1600
G1 X90.557 Y46.272 Z0 F1600
G0 Z3.5 F1000
G0 X84.395 Y48.776 Z3.5
G1 Z0 F1000
; --- FIX Y Backlash ---
G0 X84.395 Y48.276 F1200
G1 Y48.147 Z0 F1600
G1 X84.401 Y47.909 Z0 F1600
G1 X84.41 Y47.735 Z0 F1600
G1 X84.422 Y47.605 Z0 F1600
G1 X84.464 Y47.375 Z0 F1600
; --- FIX X Backlash ---
G0 X84.964 Y47.375 F1200
G1 X85.04 Y47.122 Z0 F1600
G1 X85.217 Y46.658 Z0 F1600
G1 X85.434 Y46.2 Z0 F1600
G1 X85.682 Y45.766 Z0 F1600
G1 X85.986 Y45.316 Z0 F1600
G1 X86.331 Y44.875 Z0 F1600
G1 X86.734 Y44.423 Z0 F1600
G1 X87.205 Y43.949 Z0 F1600
G1 X87.735 Y43.462 Z0 F1600
G1 X87.994 Y43.241 Z0 F1600
G1 X88.25 Y43.044 Z0 F1600
G1 X88.389 Y42.946 Z0 F1600
G1 X88.565 Y42.827 Z0 F1600
G1 X88.792 Y42.678 Z0 F1600
G1 X89.418 Y42.273 Z0 F1600
G1 X89.832 Y42.001 Z0 F1600
G1 X90.007 Y41.882 Z0 F1600
G1 X90.042 Y41.857 Z0 F1600
G1 X90.104 Y41.815 Z0 F1600
G1 X90.224 Y41.747 Z0 F1600
G1 X90.429 Y41.639 Z0 F1600
G1 X90.667 Y41.52 Z0 F1600
G1 X90.964 Y41.376 Z0 F1600
G1 X91.295 Y41.22 Z0 F1600
G1 X91.658 Y41.053 Z0 F1600
G1 X92.021 Y40.889 Z0 F1600
G1 X92.801 Y40.547 Z0 F1600
G1 X93.535 Y40.237 Z0 F1600
G1 X93.887 Y40.094 Z0 F1600
G1 X94.202 Y39.97 Z0 F1600
G1 X94.304 Y39.931 Z0 F1600
; --- FIX Y Backlash ---
G0 X94.304 Y40.431 F1200
G1 X94.315 Y40.585 Z0 F1600
G1 X94.349 Y41.198 Z0 F1600
G1 X94.375 Y41.885 Z0 F1600
G1 X94.392 Y42.635 Z0 F1600
G1 Y42.91 Z0 F1600
; --- FIX Y Backlash ---
G0 X94.392 Y42.41 F1200
G1 X94.384 Y42.341 Z0 F1600
; --- FIX X Backlash ---
G0 X93.884 Y42.341 F1200
G1 X93.267 Y41.423 Z0 F1600
; --- FIX Y Backlash ---
G0 X93.267 Y41.923 F1200
G1 X92.741 Y42.247 Z0 F1600
; --- FIX X Backlash ---
G0 X93.241 Y42.247 F1200
; --- FIX Y Backlash ---
G0 X93.241 Y41.747 F1200
G1 X93.295 Y41.259 Z0 F1600
; --- FIX X Backlash ---
G0 X92.795 Y41.259 F1200
G1 X91.729 Y41.102 Z0 F1600
; --- FIX Y Backlash ---
G0 X91.729 Y41.602 F1200
G1 X91.447 Y41.675 Z0 F1600
G1 X91.297 Y41.734 Z0 F1600
G1 X91.162 Y41.797 Z0 F1600
G1 X90.893 Y41.938 Z0 F1600
G1 X90.578 Y42.118 Z0 F1600
G1 X89.906 Y42.537 Z0 F1600
G1 X89.268 Y42.979 Z0 F1600
G1 X88.886 Y43.283 Z0 F1600
G1 X88.473 Y43.639 Z0 F1600
G1 X88.05 Y44.022 Z0 F1600
G1 X87.639 Y44.412 Z0 F1600
G1 X87.268 Y44.781 Z0 F1600
G1 X86.961 Y45.106 Z0 F1600
G1 X86.829 Y45.259 Z0 F1600
G1 X86.708 Y45.412 Z0 F1600
G1 X86.636 Y45.528 Z0 F1600
G1 X86.543 Y45.608 Z0 F1600
G1 X86.351 Y45.807 Z0 F1600
G1 X86.158 Y46.032 Z0 F1600
G1 X85.785 Y46.511 Z0 F1600
G1 X85.425 Y47.018 Z0 F1600
G1 X85.082 Y47.547 Z0 F1600
G1 X84.758 Y48.094 Z0 F1600
G1 X84.456 Y48.652 Z0 F1600
G1 X84.395 Y48.776 Z0 F1600
G0 Z3.5 F1000
G0 X83.595 Y50.124 Z3.5
G1 Z0 F1000
; --- FIX Y Backlash ---
G0 X83.595 Y49.624 F1200
G1 X83.528 Y49.352 Z0 F1600
G1 X83.51 Y49.188 Z0 F1600
G1 X83.5 Y48.986 Z0 F1600
G1 X83.495 Y48.734 Z0 F1600
G1 Y48.419 Z0 F1600
G1 Y48.125 Z0 F1600
G1 X83.501 Y47.878 Z0 F1600
G1 X83.512 Y47.668 Z0 F1600
G1 X83.53 Y47.485 Z0 F1600
; --- FIX X Backlash ---
G0 X84.03 Y47.485 F1200
G1 X84.088 Y47.163 Z0 F1600
G1 X84.187 Y46.833 Z0 F1600
G1 X84.39 Y46.302 Z0 F1600
G1 X84.633 Y45.788 Z0 F1600
G1 X84.92 Y45.285 Z0 F1600
G1 X85.255 Y44.79 Z0 F1600
G1 X85.641 Y44.297 Z0 F1600
G1 X86.081 Y43.803 Z0 F1600
G1 X86.578 Y43.303 Z0 F1600
G1 X87.135 Y42.792 Z0 F1600
G1 X87.43 Y42.54 Z0 F1600
G1 X87.713 Y42.322 Z0 F1600
G1 X87.877 Y42.206 Z0 F1600
G1 X88.07 Y42.075 Z0 F1600
G1 X88.303 Y41.922 Z0 F1600
G1 X88.926 Y41.519 Z0 F1600
G1 X89.333 Y41.252 Z0 F1600
G1 X89.491 Y41.145 Z0 F1600
G1 X89.524 Y41.121 Z0 F1600
G1 X89.626 Y41.051 Z0 F1600
G1 X89.791 Y40.958 Z0 F1600
G1 X90.01 Y40.842 Z0 F1600
G1 X90.275 Y40.709 Z0 F1600
G1 X90.581 Y40.562 Z0 F1600
G1 X90.918 Y40.403 Z0 F1600
G1 X91.281 Y40.236 Z0 F1600
G1 X91.66 Y40.065 Z0 F1600
G1 X92.439 Y39.723 Z0 F1600
G1 X93.196 Y39.403 Z0 F1600
G1 X93.548 Y39.26 Z0 F1600
G1 X93.872 Y39.132 Z0 F1600
G1 X94.16 Y39.024 Z0 F1600
G1 X94.405 Y38.938 Z0 F1600
G1 X94.63 Y38.864 Z0 F1600
G1 X94.822 Y38.803 Z0 F1600
G1 X94.96 Y38.761 Z0 F1600
G1 X95.025 Y38.745 Z0 F1600
G1 X95.051 Y38.767 Z0 F1600
; --- FIX Y Backlash ---
G0 X95.051 Y39.267 F1200
G1 X95.076 Y39.335 Z0 F1600
G1 X95.102 Y39.446 Z0 F1600
G1 X95.126 Y39.596 Z0 F1600
G1 X95.149 Y39.784 Z0 F1600
G1 X95.172 Y40.004 Z0 F1600
G1 X95.193 Y40.256 Z0 F1600
G1 X95.213 Y40.535 Z0 F1600
G1 X95.248 Y41.164 Z0 F1600
G1 X95.275 Y41.865 Z0 F1600
G1 X95.292 Y42.615 Z0 F1600
G1 X95.298 Y43.389 Z0 F1600
G1 Y43.814 Z0 F1600
G1 X95.292 Y44.208 Z0 F1600
G1 X95.286 Y44.576 Z0 F1600
G1 X95.277 Y44.918 Z0 F1600
G1 X95.248 Y45.541 Z0 F1600
G1 X95.205 Y46.097 Z0 F1600
; --- FIX X Backlash ---
G0 X94.705 Y46.097 F1200
G1 X94.565 Y47.097 Z0 F1600
G1 X94.342 Y48.093 Z0 F1600
G1 X94.07 Y48.976 Z0 F1600
G1 X93.722 Y49.834 Z0 F1600
G1 X93.309 Y50.652 Z0 F1600
G1 X92.843 Y51.411 Z0 F1600
G1 X92.334 Y52.096 Z0 F1600
G1 X91.795 Y52.688 Z0 F1600
G1 X91.518 Y52.945 Z0 F1600
G1 X91.237 Y53.172 Z0 F1600
G1 X90.954 Y53.368 Z0 F1600
G1 X90.67 Y53.53 Z0 F1600
G1 X90.325 Y53.697 Z0 F1600
G1 X90.038 Y53.792 Z0 F1600
G1 X89.883 Y53.819 Z0 F1600
G1 X89.7 Y53.839 Z0 F1600
G1 X89.478 Y53.854 Z0 F1600
G1 X89.201 Y53.865 Z0 F1600
G1 X88.853 Y53.873 Z0 F1600
G1 X88.558 Y53.869 Z0 F1600
G1 X88.439 Y53.862 Z0 F1600
G1 X88.346 Y53.854 Z0 F1600
G1 X88.281 Y53.842 Z0 F1600
G1 X88.249 Y53.829 Z0 F1600
G1 X88.24 Y53.779 Z0 F1600
; --- FIX Y Backlash ---
G0 X88.24 Y53.279 F1200
G1 X88.271 Y53.197 Z0 F1600
; --- FIX X Backlash ---
G0 X88.771 Y53.197 F1200
G1 X88.835 Y53.091 Z0 F1600
G1 X88.929 Y52.974 Z0 F1600
G1 X89.111 Y52.755 Z0 F1600
G1 X89.347 Y52.456 Z0 F1600
G1 X89.619 Y52.1 Z0 F1600
G1 X89.909 Y51.711 Z0 F1600
G1 X90.201 Y51.312 Z0 F1600
G1 X90.476 Y50.926 Z0 F1600
G1 X90.718 Y50.578 Z0 F1600
G1 X90.909 Y50.29 Z0 F1600
G1 X91.21 Y49.797 Z0 F1600
G1 X91.503 Y49.272 Z0 F1600
G1 X91.787 Y48.721 Z0 F1600
G1 X92.058 Y48.149 Z0 F1600
G1 X92.554 Y46.96 Z0 F1600
G1 X92.973 Y45.745 Z0 F1600
G1 X93.186 Y44.943 Z0 F1600
G1 X93.374 Y44.053 Z0 F1600
G1 X93.448 Y43.633 Z0 F1600
G1 X93.502 Y43.261 Z0 F1600
G1 X93.533 Y42.959 Z0 F1600
G1 Y42.75 Z0 F1600
G1 X93.523 Y42.674 Z0 F1600
G1 X93.502 Y42.643 Z0 F1600
G1 X93.467 Y42.665 Z0 F1600
; --- FIX X Backlash ---
G0 X92.967 Y42.665 F1200
; --- FIX Y Backlash ---
G0 X92.967 Y43.165 F1200
G1 X92.912 Y43.249 Z0 F1600
G1 X92.834 Y43.404 Z0 F1600
G1 X92.728 Y43.637 Z0 F1600
G1 X92.587 Y43.958 Z0 F1600
G1 X92.41 Y44.374 Z0 F1600
G1 X91.886 Y45.565 Z0 F1600
G1 X91.358 Y46.682 Z0 F1600
G1 X90.818 Y47.736 Z0 F1600
G1 X90.26 Y48.74 Z0 F1600
G1 X89.675 Y49.706 Z0 F1600
G1 X89.057 Y50.646 Z0 F1600
G1 X88.399 Y51.573 Z0 F1600
G1 X87.694 Y52.498 Z0 F1600
G1 X87.061 Y53.303 Z0 F1600
G1 X87.021 Y53.317 Z0 F1600
G1 X86.949 Y53.306 Z0 F1600
G1 X86.849 Y53.271 Z0 F1600
; --- FIX Y Backlash ---
G0 X86.849 Y52.771 F1200
G1 X86.727 Y52.718 Z0 F1600
G1 X86.434 Y52.563 Z0 F1600
G1 X86.107 Y52.367 Z0 F1600
G1 X85.787 Y52.152 Z0 F1600
G1 X85.51 Y51.945 Z0 F1600
G1 X85.4 Y51.851 Z0 F1600
G1 X85.316 Y51.769 Z0 F1600
G1 X85.262 Y51.7 Z0 F1600
G1 X85.243 Y51.647 Z0 F1600
G1 X85.263 Y51.519 Z0 F1600
; --- FIX X Backlash ---
G0 X85.763 Y51.519 F1200
G1 X85.822 Y51.32 Z0 F1600
G1 X85.916 Y51.063 Z0 F1600
G1 X86.04 Y50.753 Z0 F1600
G1 X86.19 Y50.403 Z0 F1600
G1 X86.365 Y50.02 Z0 F1600
G1 X86.558 Y49.614 Z0 F1600
G1 X86.767 Y49.194 Z0 F1600
G1 X87.207 Y48.373 Z0 F1600
G1 X87.687 Y47.569 Z0 F1600
G1 X88.213 Y46.775 Z0 F1600
G1 X88.792 Y45.983 Z0 F1600
G1 X89.429 Y45.184 Z0 F1600
G1 X90.13 Y44.371 Z0 F1600
G1 X90.902 Y43.534 Z0 F1600
G1 X91.981 Y42.432 Z0 F1600
G1 X92.162 Y42.231 Z0 F1600
G1 X92.228 Y42.151 Z0 F1600
G1 X92.276 Y42.088 Z0 F1600
G1 X92.302 Y42.044 Z0 F1600
G1 X92.305 Y42.022 Z0 F1600
G1 X92.278 Y42.019 Z0 F1600
; --- FIX X Backlash ---
G0 X91.778 Y42.019 F1200
G1 X91.728 Y42.032 Z0 F1600
G1 X91.654 Y42.061 Z0 F1600
G1 X91.561 Y42.104 Z0 F1600
; --- FIX Y Backlash ---
G0 X91.561 Y42.604 F1200
G1 X91.325 Y42.728 Z0 F1600
G1 X91.039 Y42.891 Z0 F1600
G1 X90.401 Y43.289 Z0 F1600
G1 X89.806 Y43.702 Z0 F1600

; Color picking sequence
G1 Z10 F1000;         ; Raise brush
G0 X86 Y5 F1200;    ; Rapid move to color 1
G1 Z10 F1000;         ; Raise brush
G0 X86 Y5 F1200;    ; Rapid move to color 1
G1 Z0 F1000;         ; Lower into color
G1 X85.102 Y7.295 Z0 S800 F1200
G1 X85.026 Y7.642 Z0 F1200
G1 X85 Y8 Z0 F1200
G1 X85.026 Y8.358 Z0 F1200
G1 X85.102 Y8.705 Z0 F1200
G1 X85.225 Y9.041 Z0 F1200
G1 X85.393 Y9.362 Z0 F1200
G1 X85.603 Y9.668 Z0 F1200
G1 X85.854 Y9.957 Z0 F1200
G1 X86.142 Y10.226 Z0 F1200
G1 X86.464 Y10.475 Z0 F1200
G1 X86.82 Y10.701 Z0 F1200
G1 X87.204 Y10.902 Z0 F1200
G1 X87.617 Y11.078 Z0 F1200
G1 X88.054 Y11.225 Z0 F1200
G1 X88.513 Y11.343 Z0 F1200
G1 X88.992 Y11.429 Z0 F1200
G1 X89.489 Y11.482 Z0 F1200
G1 X90 Y11.5 Z0 F1200
G1 X90.511 Y11.482 Z0 F1200
G1 X91.008 Y11.429 Z0 F1200
G1 X91.487 Y11.343 Z0 F1200
G1 X91.946 Y11.225 Z0 F1200
G1 X92.383 Y11.078 Z0 F1200
G1 X92.796 Y10.902 Z0 F1200
G1 X93.18 Y10.701 Z0 F1200
G1 X93.536 Y10.475 Z0 F1200
G1 X93.858 Y10.226 Z0 F1200
G1 X94.146 Y9.957 Z0 F1200
G1 X94.397 Y9.668 Z0 F1200
G1 X94.607 Y9.362 Z0 F1200
G1 X94.775 Y9.041 Z0 F1200
G1 X94.898 Y8.705 Z0 F1200
G1 X94.974 Y8.358 Z0 F1200
G1 X95 Y8 Z0 F1200
G1 X94.974 Y7.642 Z0 F1200
G1 X94.898 Y7.295 Z0 F1200
G1 X94.775 Y6.959 Z0 F1200
G1 X94.607 Y6.638 Z0 F1200
G1 X94.397 Y6.332 Z0 F1200
G1 X94.146 Y6.043 Z0 F1200
G1 X93.858 Y5.774 Z0 F1200
G1 X93.536 Y5.525 Z0 F1200
G1 X93.18 Y5.299 Z0 F1200
G1 X92.796 Y5.098 Z0 F1200
G1 X92.383 Y4.922 Z0 F1200
G1 X91.946 Y4.775 Z0 F1200
G1 X91.487 Y4.657 Z0 F1200
G1 X91.008 Y4.571 Z0 F1200
G1 X90.511 Y4.518 Z0 F1200
G1 X90 Y4.5 Z0 F1200
G1 X89.489 Y4.518 Z0 F1200
G1 X88.992 Y4.571 Z0 F1200
G1 X88.513 Y4.657 Z0 F1200
G1 X88.054 Y4.775 Z0 F1200
G1 X87.617 Y4.922 Z0 F1200
G1 X87.204 Y5.098 Z0 F1200
G1 X86.82 Y5.299 Z0 F1200
G1 X86.464 Y5.525 Z0 F1200
G1 X86.142 Y5.774 Z0 F1200
G1 X85.854 Y6.043 Z0 F1200
G1 X85.603 Y6.332 Z0 F1200
G1 X85.393 Y6.638 Z0 F1200
G1 X85.225 Y6.959 Z0 F1200
G1 Z7 F800;         ; Raise from color
G1 X79 Y8 Z1 F1200;     ; Movement in paint
G1 X69 Y18 Z8 F500;     ; Move in paint
G1 F1200;           ; Set feed rate
G0 Z2.5 F1000 ; Safety Lift
G0 X89.806 Y43.702 F1200 ; Return
G1 Z0 F1000 ; Restore Z
G1 X89.46 Y43.977 Z0 F1600
G1 X89.069 Y44.313 Z0 F1600
G1 X88.662 Y44.683 Z0 F1600
G1 X88.266 Y45.058 Z0 F1600
G1 X87.913 Y45.409 Z0 F1600
G1 X87.629 Y45.709 Z0 F1600
G1 X87.523 Y45.832 Z0 F1600
G1 X87.446 Y45.931 Z0 F1600
G1 X87.401 Y46.002 Z0 F1600
G1 X87.391 Y46.044 Z0 F1600
G1 X87.394 Y46.115 Z0 F1600
G1 X87.343 Y46.133 Z0 F1600
G1 X87.276 Y46.164 Z0 F1600
G1 X87.162 Y46.263 Z0 F1600
G1 X87.016 Y46.414 Z0 F1600
G1 X86.854 Y46.602 Z0 F1600
G1 X86.507 Y47.048 Z0 F1600
G1 X86.17 Y47.523 Z0 F1600
G1 X85.847 Y48.022 Z0 F1600
G1 X85.541 Y48.538 Z0 F1600
G1 X85.255 Y49.065 Z0 F1600
G1 X84.993 Y49.599 Z0 F1600
G1 X84.758 Y50.131 Z0 F1600
G1 X84.553 Y50.658 Z0 F1600
G1 X84.292 Y51.38 Z0 F1600
; --- FIX Y Backlash ---
G0 X84.292 Y50.88 F1200
G1 X84.114 Y50.63 Z0 F1600
G1 X83.923 Y50.314 Z0 F1600
G1 X83.715 Y49.908 Z0 F1600
G1 X83.595 Y49.624 Z0 F1600

; Washing sequence (no color)
G1 Z10 F1000;        ; Raise brush
G0 X5 Y5 F1200;     ; Rapid move to clean
G1 Z-1 F800;         ; Lower brush
G1 X10 Y12 Z8 F1200;     ; Move
G1 Z-1 F800;         ; Lower
G1 X25 Y14 Z6 F800;     ; Move
G1 Z8 F800;         ; Maintain
G0 X5 Y5 F1200;     ; Rapid
G1 Z-1 F800;         ; Lower
G1 X15 Y12 Z8 F1200;     ; Move
G1 Z-1 F800;         ; Lower
G1 X25 Y14 Z6 F800;     ; Move
G1 Z10 F800;         ; Maintain
G1 F1200;           ; Set feed
G0 Z2.5 F1000 ; Safety Lift

; Color picking sequence
G1 Z10 F1000;         ; Raise brush
G0 X131 Y5 F1200;    ; Rapid move to color 1
G1 Z10 F1000;         ; Raise brush
G0 X131 Y5 F1200;    ; Rapid move to color 1
G1 Z0 F1000;         ; Lower into color
G1 X130.102 Y7.295 Z0 S800 F1200
G1 X130.026 Y7.642 Z0 F1200
G1 X130 Y8 Z0 F1200
G1 X130.026 Y8.358 Z0 F1200
G1 X130.102 Y8.705 Z0 F1200
G1 X130.225 Y9.041 Z0 F1200
G1 X130.393 Y9.362 Z0 F1200
G1 X130.603 Y9.668 Z0 F1200
G1 X130.854 Y9.957 Z0 F1200
G1 X131.142 Y10.226 Z0 F1200
G1 X131.464 Y10.475 Z0 F1200
G1 X131.82 Y10.701 Z0 F1200
G1 X132.204 Y10.902 Z0 F1200
G1 X132.617 Y11.078 Z0 F1200
G1 X133.054 Y11.225 Z0 F1200
G1 X133.513 Y11.343 Z0 F1200
G1 X133.992 Y11.429 Z0 F1200
G1 X134.489 Y11.482 Z0 F1200
G1 X135 Y11.5 Z0 F1200
G1 X135.511 Y11.482 Z0 F1200
G1 X136.008 Y11.429 Z0 F1200
G1 X136.487 Y11.343 Z0 F1200
G1 X136.946 Y11.225 Z0 F1200
G1 X137.383 Y11.078 Z0 F1200
G1 X137.796 Y10.902 Z0 F1200
G1 X138.18 Y10.701 Z0 F1200
G1 X138.536 Y10.475 Z0 F1200
G1 X138.858 Y10.226 Z0 F1200
G1 X139.146 Y9.957 Z0 F1200
G1 X139.397 Y9.668 Z0 F1200
G1 X139.607 Y9.362 Z0 F1200
G1 X139.775 Y9.041 Z0 F1200
G1 X139.898 Y8.705 Z0 F1200
G1 X139.974 Y8.358 Z0 F1200
G1 X140 Y8 Z0 F1200
G1 X139.974 Y7.642 Z0 F1200
G1 X139.898 Y7.295 Z0 F1200
G1 X139.775 Y6.959 Z0 F1200
G1 X139.607 Y6.638 Z0 F1200
G1 X139.397 Y6.332 Z0 F1200
G1 X139.146 Y6.043 Z0 F1200
G1 X138.858 Y5.774 Z0 F1200
G1 X138.536 Y5.525 Z0 F1200
G1 X138.18 Y5.299 Z0 F1200
G1 X137.796 Y5.098 Z0 F1200
G1 X137.383 Y4.922 Z0 F1200
G1 X136.946 Y4.775 Z0 F1200
G1 X136.487 Y4.657 Z0 F1200
G1 X136.008 Y4.571 Z0 F1200
G1 X135.511 Y4.518 Z0 F1200
G1 X135 Y4.5 Z0 F1200
G1 X134.489 Y4.518 Z0 F1200
G1 X133.992 Y4.571 Z0 F1200
G1 X133.513 Y4.657 Z0 F1200
G1 X133.054 Y4.775 Z0 F1200
G1 X132.617 Y4.922 Z0 F1200
G1 X132.204 Y5.098 Z0 F1200
G1 X131.82 Y5.299 Z0 F1200
G1 X131.464 Y5.525 Z0 F1200
G1 X131.142 Y5.774 Z0 F1200
G1 X130.854 Y6.043 Z0 F1200
G1 X130.603 Y6.332 Z0 F1200
G1 X130.393 Y6.638 Z0 F1200
G1 X130.225 Y6.959 Z0 F1200
G1 Z7 F800;         ; Raise from color
G1 X124 Y8 Z1 F1200;     ; Movement in paint
G1 X114 Y18 Z8 F500;     ; Move in paint
G1 F1200;           ; Set feed rate
G0 Z2.5 F1000 ; Safety Lift
;Cut @ 1500 mm/min, 80% power

M8
G0 Z3.5 F1000
; --- FIX Y Backlash ---
G0 X83.595 Y50.124 F1200
G0 X81.916 Y52.207 Z3.5
G1 Z0 F1000
;Layer C3
G1 X81.817 Y52.175 Z0 S800 F1600
G1 X81.689 Y52.137 Z0 F1600
; --- FIX Y Backlash ---
G0 X81.689 Y51.637 F1200
G1 X81.36 Y51.544 Z0 F1600
G1 X80.959 Y51.437 Z0 F1600
G1 X80.051 Y51.207 Z0 F1600
G1 X79.19 Y51.006 Z0 F1600
G1 X78.709 Y50.9 Z0 F1600
G1 X78.091 Y47.774 Z0 F1600
G1 X77.987 Y47.282 Z0 F1600
G1 X77.886 Y46.868 Z0 F1600
G1 X77.84 Y46.705 Z0 F1600
G1 X77.8 Y46.578 Z0 F1600
G1 X77.766 Y46.492 Z0 F1600
G1 X77.74 Y46.454 Z0 F1600
G1 X77.716 Y46.447 Z0 F1600
G1 X77.664 Y46.441 Z0 F1600
G1 X77.485 Y46.428 Z0 F1600
G1 X77.215 Y46.417 Z0 F1600
G1 X76.865 Y46.408 Z0 F1600
G1 X76.447 Y46.399 Z0 F1600
G1 X75.973 Y46.393 Z0 F1600
G1 X75.455 Y46.389 Z0 F1600
G1 X74.903 Z0 F1600
G1 X74.184 Z0 F1600
G1 X73.59 Y46.392 Z0 F1600
G1 X73.109 Y46.398 Z0 F1600
G1 X72.734 Y46.408 Z0 F1600
G1 X72.453 Y46.422 Z0 F1600
G1 X72.258 Y46.439 Z0 F1600
G1 X72.138 Y46.461 Z0 F1600
G1 X72.084 Y46.488 Z0 F1600
G1 X72.063 Y46.531 Z0 F1600
; --- FIX Y Backlash ---
G0 X72.063 Y47.031 F1200
G1 X72.034 Y47.114 Z0 F1600
G1 X72 Y47.233 Z0 F1600
G1 X71.961 Y47.382 Z0 F1600
G1 X71.874 Y47.753 Z0 F1600
G1 X71.784 Y48.187 Z0 F1600
G1 X71.688 Y48.668 Z0 F1600
G1 X71.537 Y49.403 Z0 F1600
G1 X71.352 Y50.276 Z0 F1600
G1 X71.292 Y50.578 Z0 F1600
G1 X71.242 Y50.849 Z0 F1600
G1 X71.209 Y51.052 Z0 F1600
G1 X71.192 Y51.192 Z0 F1600
G1 X71.174 Y51.295 Z0 F1600
G1 X71.136 Y51.369 Z0 F1600
G1 X71.061 Y51.424 Z0 F1600
G1 X70.929 Y51.47 Z0 F1600
G1 X70.724 Y51.514 Z0 F1600
G1 X70.587 Y51.539 Z0 F1600
G1 X69.826 Y51.666 Z0 F1600
G1 X69.677 Y51.688 Z0 F1600
G1 X69.56 Y51.7 Z0 F1600
G1 X69.472 Y51.703 Z0 F1600
G1 X69.353 Y51.678 Z0 F1600
; --- FIX Y Backlash ---
G0 X69.353 Y51.178 F1200
G1 X69.274 Y51.112 Z0 F1600
G1 X69.239 Y51.068 Z0 F1600
G1 X69.112 Y50.89 Z0 F1600
G1 X68.809 Y50.445 Z0 F1600
G1 X68.554 Y50.065 Z0 F1600
G1 X67.993 Y49.216 Z0 F1600
G1 X67.31 Y48.161 Z0 F1600
G1 X67.172 Y47.958 Z0 F1600
G1 X67.117 Y47.879 Z0 F1600
G1 X67.072 Y47.82 Z0 F1600
G1 X67.041 Y47.783 Z0 F1600
G1 X67.024 Y47.77 Z0 F1600
G1 X67.016 Y47.791 Z0 F1600
; --- FIX Y Backlash ---
G0 X67.016 Y48.291 F1200
G1 X67.008 Y48.351 Z0 F1600
G1 X67.001 Y48.447 Z0 F1600
G1 X66.995 Y48.574 Z0 F1600
G1 X66.985 Y48.903 Z0 F1600
G1 X66.979 Y49.62 Z0 F1600
G1 X66.973 Y49.878 Z0 F1600
G1 X66.961 Y50.092 Z0 F1600
G1 X66.941 Y50.277 Z0 F1600
G1 X66.872 Y50.608 Z0 F1600
G1 X66.751 Y50.978 Z0 F1600
G1 X66.523 Y51.614 Z0 F1600
; --- FIX X Backlash ---
G0 X67.023 Y51.614 F1200
G1 X68.85 Y54.344 Z0 F1600
G1 X69.401 Y55.161 Z0 F1600
G1 X69.828 Y55.785 Z0 F1600
G1 X70.034 Y56.081 Z0 F1600
G1 X70.105 Y56.178 Z0 F1600
G1 X70.119 Y56.194 Z0 F1600
G1 X70.181 Z0 F1600
G1 X70.312 Y56.175 Z0 F1600
G1 X70.49 Y56.136 Z0 F1600
; --- FIX Y Backlash ---
G0 X70.49 Y55.636 F1200
G1 X70.699 Y55.582 Z0 F1600
G1 X71.121 Y55.478 Z0 F1600
G1 X71.586 Y55.388 Z0 F1600
G1 X72.087 Y55.312 Z0 F1600
G1 X72.618 Y55.25 Z0 F1600
G1 X73.746 Y55.166 Z0 F1600
G1 X74.922 Y55.138 Z0 F1600
G1 X76.097 Y55.165 Z0 F1600
; --- FIX Y Backlash ---
G0 X76.097 Y55.665 F1200
G1 X77.224 Y55.747 Z0 F1600
G1 X77.754 Y55.809 Z0 F1600
G1 X78.253 Y55.885 Z0 F1600
G1 X78.716 Y55.974 Z0 F1600
G1 X79.137 Y56.077 Z0 F1600
G1 X79.378 Y56.143 Z0 F1600
G1 X79.564 Y56.19 Z0 F1600
G1 X79.705 Y56.218 Z0 F1600
G1 X79.807 Y56.228 Z0 F1600
G1 X79.933 Y56.191 Z0 F1600
; --- FIX Y Backlash ---
G0 X79.933 Y55.691 F1200
G1 X80.01 Y55.58 Z0 F1600
G1 X80.045 Y55.52 Z0 F1600
G1 X80.115 Y55.411 Z0 F1600
G1 X80.341 Y55.069 Z0 F1600
G1 X80.656 Y54.602 Z0 F1600
G1 X81.025 Y54.063 Z0 F1600
G1 X82.269 Y52.257 Z0 F1600
G1 X82.384 Y52.078 Z0 F1600
G1 X82.468 Y51.922 Z0 F1600
G1 X82.514 Y51.806 Z0 F1600
G1 Y51.747 Z0 F1600
G1 X82.482 Y51.731 Z0 F1600
; --- FIX X Backlash ---
G0 X81.982 Y51.731 F1200
G1 X81.916 Y51.707 Z0 F1600
G0 Z3.5 F1000
; --- FIX X Backlash ---
G0 X82.416 Y51.707 F1200
; --- FIX Y Backlash ---
G0 X82.416 Y52.207 F1200
G0 X89.31 Y56.087 Z3.5
G1 Z0 F1000
; --- FIX X Backlash ---
G0 X88.81 Y56.087 F1200
G1 X87.642 Y58.381 Z0 F1600
G1 X87.233 Y59.172 Z0 F1600
G1 X87.066 Y59.488 Z0 F1600
G1 X87.025 Y59.559 Z0 F1600
G1 X86.975 Y59.678 Z0 F1600
G1 X87.023 Y59.807 Z0 F1600
; --- FIX X Backlash ---
G0 X87.523 Y59.807 F1200
G1 X87.598 Y59.897 Z0 F1600
G1 X87.715 Y60.015 Z0 F1600
G1 X87.881 Y60.169 Z0 F1600
G1 X88.101 Y60.368 Z0 F1600
G1 X89.027 Y61.231 Z0 F1600
G1 X89.88 Y62.096 Z0 F1600
G1 X90.664 Y62.965 Z0 F1600
G1 X91.38 Y63.842 Z0 F1600
G1 X92.033 Y64.731 Z0 F1600
G1 X92.625 Y65.635 Z0 F1600
G1 X93.158 Y66.558 Z0 F1600
G1 X93.636 Y67.504 Z0 F1600
G1 X93.827 Y67.934 Z0 F1600
G1 X94.026 Y68.426 Z0 F1600
G1 X94.228 Y68.963 Z0 F1600
G1 X94.425 Y69.525 Z0 F1600
G1 X94.613 Y70.094 Z0 F1600
G1 X94.783 Y70.65 Z0 F1600
G1 X94.93 Y71.176 Z0 F1600
G1 X95.047 Y71.652 Z0 F1600
G1 X95.261 Y72.755 Z0 F1600
G1 X95.415 Y73.892 Z0 F1600
G1 X95.509 Y75.051 Z0 F1600
G1 X95.544 Y76.217 Z0 F1600
G1 X95.518 Y77.377 Z0 F1600
; --- FIX X Backlash ---
G0 X95.018 Y77.377 F1200
G1 X94.933 Y78.517 Z0 F1600
G1 X94.788 Y79.622 Z0 F1600
G1 X94.582 Y80.68 Z0 F1600
G1 X94.501 Y81.013 Z0 F1600
G1 X94.401 Y81.394 Z0 F1600
G1 X94.287 Y81.801 Z0 F1600
G1 X94.166 Y82.215 Z0 F1600
G1 X94.043 Y82.615 Z0 F1600
G1 X93.926 Y82.981 Z0 F1600
G1 X93.82 Y83.291 Z0 F1600
G1 X93.731 Y83.526 Z0 F1600
G1 X93.48 Y84.136 Z0 F1600
G1 X93.433 Y84.243 Z0 F1600
G1 X93.372 Y84.377 Z0 F1600
G1 X93.213 Y84.71 Z0 F1600
G1 X93.019 Y85.102 Z0 F1600
G1 X92.807 Y85.521 Z0 F1600
G1 X92.595 Y85.931 Z0 F1600
G1 X92.399 Y86.301 Z0 F1600
G1 X92.236 Y86.598 Z0 F1600
G1 X92.172 Y86.708 Z0 F1600
G1 X92.123 Y86.787 Z0 F1600
G1 X91.977 Y87.007 Z0 F1600
G1 X91.778 Y87.298 Z0 F1600
G1 X91.549 Y87.629 Z0 F1600
G1 X91.078 Y88.3 Z0 F1600
G1 X90.796 Y88.695 Z0 F1600
G1 X90.68 Y88.851 Z0 F1600
G1 X90.486 Y89.08 Z0 F1600
G1 X90.204 Y89.42 Z0 F1600
G1 X89.838 Y89.85 Z0 F1600
G1 X89.472 Y90.261 Z0 F1600
G1 X89.326 Y90.423 Z0 F1600
G1 X89.198 Y90.569 Z0 F1600
G1 X89.103 Y90.685 Z0 F1600
G1 X89.053 Y90.753 Z0 F1600
G1 X89.05 Y90.808 Z0 F1600
G1 X89.076 Y90.916 Z0 F1600
; --- FIX X Backlash ---
G0 X89.576 Y90.916 F1200
G1 X89.63 Y91.078 Z0 F1600
G1 X89.713 Y91.295 Z0 F1600
G1 X89.826 Y91.569 Z0 F1600
G1 X89.97 Y91.902 Z0 F1600
G1 X90.145 Y92.295 Z0 F1600
G1 X90.42 Y92.9 Z0 F1600
G1 X90.607 Y93.333 Z0 F1600
G1 X90.845 Y93.893 Z0 F1600
G1 X90.973 Y94.184 Z0 F1600
G1 X91.088 Y94.436 Z0 F1600
G1 X91.189 Y94.647 Z0 F1600
G1 X91.275 Y94.814 Z0 F1600
G1 X91.345 Y94.935 Z0 F1600
G1 X91.399 Y95.01 Z0 F1600
G1 X91.434 Y95.035 Z0 F1600
G1 X91.498 Y94.999 Z0 F1600
; --- FIX Y Backlash ---
G0 X91.498 Y94.499 F1200
G1 X91.622 Y94.403 Z0 F1600
G1 X91.788 Y94.259 Z0 F1600
G1 X91.978 Y94.084 Z0 F1600
G1 X92.793 Y93.31 Z0 F1600
; --- FIX Y Backlash ---
G0 X92.793 Y93.81 F1200
G1 X94.24 Y94.482 Z0 F1600
G1 X95.503 Y95.055 Z0 F1600
G1 X95.898 Y95.23 Z0 F1600
G1 X96.227 Y95.361 Z0 F1600
G1 X96.498 Y95.448 Z0 F1600
G1 X96.717 Y95.494 Z0 F1600
G1 X96.891 Y95.499 Z0 F1600
G1 X97.027 Y95.463 Z0 F1600
; --- FIX Y Backlash ---
G0 X97.027 Y94.963 F1200
G1 X97.132 Y94.888 Z0 F1600
G1 X97.213 Y94.775 Z0 F1600
G1 X97.246 Y94.722 Z0 F1600
G1 X97.31 Y94.626 Z0 F1600
G1 X97.522 Y94.32 Z0 F1600
G1 X97.824 Y93.89 Z0 F1600
G1 X98.195 Y93.369 Z0 F1600
G1 X99.045 Y92.185 Z0 F1600
G1 X99.884 Y91.032 Z0 F1600
G1 X100.078 Y90.756 Z0 F1600
G1 X100.236 Y90.508 Z0 F1600
G1 X100.297 Y90.402 Z0 F1600
G1 X100.343 Y90.313 Z0 F1600
G1 X100.372 Y90.245 Z0 F1600
G1 X100.382 Y90.2 Z0 F1600
G1 X100.342 Y90.099 Z0 F1600
; --- FIX X Backlash ---
G0 X99.842 Y90.099 F1200
G1 X99.733 Y89.934 Z0 F1600
G1 X99.572 Y89.731 Z0 F1600
G1 X99.374 Y89.51 Z0 F1600
G1 X98.175 Y88.24 Z0 F1600
G1 X97.645 Y87.674 Z0 F1600
G1 X97.449 Y87.459 Z0 F1600
G1 X97.293 Y87.284 Z0 F1600
G1 X97.174 Y87.143 Z0 F1600
G1 X97.086 Y87.03 Z0 F1600
G1 X97.026 Y86.941 Z0 F1600
G1 X96.989 Y86.871 Z0 F1600
G1 X96.972 Y86.814 Z0 F1600
G1 X96.98 Y86.722 Z0 F1600
; --- FIX X Backlash ---
G0 X97.48 Y86.722 F1200
G1 X97.572 Y86.467 Z0 F1600
G1 X97.663 Y86.235 Z0 F1600
G1 X97.776 Y85.959 Z0 F1600
G1 X98.182 Y84.99 Z0 F1600
G1 X98.554 Y84.067 Z0 F1600
G1 X98.655 Y83.837 Z0 F1600
G1 X98.739 Y83.664 Z0 F1600
G1 X98.796 Y83.572 Z0 F1600
G1 X98.846 Y83.545 Z0 F1600
G1 X98.949 Y83.52 Z0 F1600
G1 X99.11 Y83.499 Z0 F1600
G1 X99.335 Y83.479 Z0 F1600
G1 X99.63 Y83.462 Z0 F1600
G1 X100 Y83.446 Z0 F1600
G1 X100.452 Y83.431 Z0 F1600
G1 X101.609 Y83.401 Z0 F1600
G1 X102.097 Y83.385 Z0 F1600
G1 X102.473 Y83.369 Z0 F1600
G1 X102.753 Y83.351 Z0 F1600
G1 X102.953 Y83.329 Z0 F1600
G1 X103.088 Y83.301 Z0 F1600
G1 X103.176 Y83.268 Z0 F1600
G1 X103.232 Y83.227 Z0 F1600
G1 X103.299 Y83.115 Z0 F1600
G1 X103.37 Y82.916 Z0 F1600
G1 X103.442 Y82.648 Z0 F1600
G1 X103.507 Y82.325 Z0 F1600
G1 X103.618 Y81.713 Z0 F1600
G1 X103.752 Y80.993 Z0 F1600
G1 X104.164 Y78.834 Z0 F1600
G1 X104.242 Y78.396 Z0 F1600
G1 X104.298 Y78.017 Z0 F1600
G1 X104.317 Y77.863 Z0 F1600
G1 X104.328 Y77.738 Z0 F1600
G1 Y77.649 Z0 F1600
G1 X104.325 Y77.6 Z0 F1600
G1 X104.277 Y77.508 Z0 F1600
; --- FIX X Backlash ---
G0 X103.777 Y77.508 F1200
G1 X103.637 Y77.421 Z0 F1600
G1 X103.492 Y77.362 Z0 F1600
G1 X103.276 Y77.282 Z0 F1600
G1 X102.018 Y76.84 Z0 F1600
G1 X101.491 Y76.651 Z0 F1600
G1 X101.001 Y76.472 Z0 F1600
G1 X100.562 Y76.308 Z0 F1600
G1 X100.189 Y76.166 Z0 F1600
G1 X99.898 Y76.049 Z0 F1600
G1 X99.786 Y76.003 Z0 F1600
G1 X99.701 Y75.965 Z0 F1600
G1 X99.643 Y75.937 Z0 F1600
G1 X99.615 Y75.918 Z0 F1600
G1 X99.6 Y75.875 Z0 F1600
G1 X99.584 Y75.775 Z0 F1600
G1 X99.566 Y75.626 Z0 F1600
G1 X99.547 Y75.433 Z0 F1600
G1 X99.509 Y74.944 Z0 F1600
G1 X99.474 Y74.357 Z0 F1600
G1 X99.441 Y73.753 Z0 F1600
G1 X99.41 Y73.214 Z0 F1600
G1 X99.383 Y72.799 Z0 F1600
G1 X99.364 Y72.567 Z0 F1600
G1 X99.355 Y72.399 Z0 F1600
G1 X99.395 Y72.286 Z0 F1600
G1 X99.443 Y72.237 Z0 F1600
; --- FIX X Backlash ---
G0 X99.943 Y72.237 F1200
G1 X100.016 Y72.187 Z0 F1600
G1 X100.117 Y72.131 Z0 F1600
G1 X101.294 Y71.512 Z0 F1600
G1 X102.358 Y70.923 Z0 F1600
G1 X102.821 Y70.658 Z0 F1600
G1 X103.199 Y70.434 Z0 F1600
G1 X103.345 Y70.343 Z0 F1600
G1 X103.459 Y70.27 Z0 F1600
G1 X103.537 Y70.215 Z0 F1600
G1 X103.574 Y70.181 Z0 F1600
G1 X103.608 Y70.111 Z0 F1600
G1 X103.627 Y70.021 Z0 F1600
G1 X103.63 Y69.907 Z0 F1600
G1 X103.617 Y69.768 Z0 F1600
G1 X103.587 Y69.601 Z0 F1600
G1 X103.54 Y69.403 Z0 F1600
; --- FIX X Backlash ---
G0 X103.04 Y69.403 F1200
G1 X102.976 Y69.172 Z0 F1600
G1 X102.894 Y68.905 Z0 F1600
G1 X102.759 Y68.474 Z0 F1600
G1 X102.125 Y66.436 Z0 F1600
G1 X102.005 Y66.055 Z0 F1600
G1 X101.894 Y65.713 Z0 F1600
G1 X101.792 Y65.412 Z0 F1600
G1 X101.7 Y65.156 Z0 F1600
G1 X101.619 Y64.946 Z0 F1600
G1 X101.55 Y64.785 Z0 F1600
G1 X101.495 Y64.677 Z0 F1600
G1 X101.454 Y64.624 Z0 F1600
G1 X101.399 Y64.587 Z0 F1600
G1 X101.331 Y64.563 Z0 F1600
G1 X101.22 Y64.552 Z0 F1600
G1 X101.033 Y64.557 Z0 F1600
G1 X100.903 Y64.567 Z0 F1600
G1 X100.547 Y64.599 Z0 F1600
; --- FIX Y Backlash ---
G0 X100.547 Y65.099 F1200
G1 X100.039 Y65.153 Z0 F1600
G1 X97.971 Y65.381 Z0 F1600
G1 X97.74 Y65.403 Z0 F1600
G1 X97.546 Y65.418 Z0 F1600
G1 X97.385 Y65.422 Z0 F1600
G1 X97.252 Y65.417 Z0 F1600
G1 X97.142 Y65.401 Z0 F1600
; --- FIX Y Backlash ---
G0 X97.142 Y64.901 F1200
G1 X96.98 Y64.832 Z0 F1600
G1 X96.862 Y64.707 Z0 F1600
G1 X96.756 Y64.518 Z0 F1600
G1 X96.627 Y64.259 Z0 F1600
G1 X96.245 Y63.556 Z0 F1600
G1 X95.807 Y62.807 Z0 F1600
G1 X95.621 Y62.497 Z0 F1600
G1 X95.469 Y62.23 Z0 F1600
G1 X95.41 Y62.122 Z0 F1600
G1 X95.366 Y62.035 Z0 F1600
G1 X95.338 Y61.973 Z0 F1600
G1 X95.328 Y61.94 Z0 F1600
G1 X95.352 Y61.886 Z0 F1600
; --- FIX X Backlash ---
G0 X95.852 Y61.886 F1200
G1 X95.921 Y61.766 Z0 F1600
G1 X96.03 Y61.588 Z0 F1600
G1 X96.174 Y61.358 Z0 F1600
G1 X96.349 Y61.085 Z0 F1600
G1 X96.77 Y60.439 Z0 F1600
G1 X97.252 Y59.71 Z0 F1600

; Color picking sequence
G1 Z10 F1000;         ; Raise brush
G0 X131 Y5 F1200;    ; Rapid move to color 1
G1 Z10 F1000;         ; Raise brush
G0 X131 Y5 F1200;    ; Rapid move to color 1
G1 Z0 F1000;         ; Lower into color
G1 X130.102 Y7.295 Z0 S800 F1200
G1 X130.026 Y7.642 Z0 F1200
G1 X130 Y8 Z0 F1200
G1 X130.026 Y8.358 Z0 F1200
G1 X130.102 Y8.705 Z0 F1200
G1 X130.225 Y9.041 Z0 F1200
G1 X130.393 Y9.362 Z0 F1200
G1 X130.603 Y9.668 Z0 F1200
G1 X130.854 Y9.957 Z0 F1200
G1 X131.142 Y10.226 Z0 F1200
G1 X131.464 Y10.475 Z0 F1200
G1 X131.82 Y10.701 Z0 F1200
G1 X132.204 Y10.902 Z0 F1200
G1 X132.617 Y11.078 Z0 F1200
G1 X133.054 Y11.225 Z0 F1200
G1 X133.513 Y11.343 Z0 F1200
G1 X133.992 Y11.429 Z0 F1200
G1 X134.489 Y11.482 Z0 F1200
G1 X135 Y11.5 Z0 F1200
G1 X135.511 Y11.482 Z0 F1200
G1 X136.008 Y11.429 Z0 F1200
G1 X136.487 Y11.343 Z0 F1200
G1 X136.946 Y11.225 Z0 F1200
G1 X137.383 Y11.078 Z0 F1200
G1 X137.796 Y10.902 Z0 F1200
G1 X138.18 Y10.701 Z0 F1200
G1 X138.536 Y10.475 Z0 F1200
G1 X138.858 Y10.226 Z0 F1200
G1 X139.146 Y9.957 Z0 F1200
G1 X139.397 Y9.668 Z0 F1200
G1 X139.607 Y9.362 Z0 F1200
G1 X139.775 Y9.041 Z0 F1200
G1 X139.898 Y8.705 Z0 F1200
G1 X139.974 Y8.358 Z0 F1200
G1 X140 Y8 Z0 F1200
G1 X139.974 Y7.642 Z0 F1200
G1 X139.898 Y7.295 Z0 F1200
G1 X139.775 Y6.959 Z0 F1200
G1 X139.607 Y6.638 Z0 F1200
G1 X139.397 Y6.332 Z0 F1200
G1 X139.146 Y6.043 Z0 F1200
G1 X138.858 Y5.774 Z0 F1200
G1 X138.536 Y5.525 Z0 F1200
G1 X138.18 Y5.299 Z0 F1200
G1 X137.796 Y5.098 Z0 F1200
G1 X137.383 Y4.922 Z0 F1200
G1 X136.946 Y4.775 Z0 F1200
G1 X136.487 Y4.657 Z0 F1200
G1 X136.008 Y4.571 Z0 F1200
G1 X135.511 Y4.518 Z0 F1200
G1 X135 Y4.5 Z0 F1200
G1 X134.489 Y4.518 Z0 F1200
G1 X133.992 Y4.571 Z0 F1200
G1 X133.513 Y4.657 Z0 F1200
G1 X133.054 Y4.775 Z0 F1200
G1 X132.617 Y4.922 Z0 F1200
G1 X132.204 Y5.098 Z0 F1200
G1 X131.82 Y5.299 Z0 F1200
G1 X131.464 Y5.525 Z0 F1200
G1 X131.142 Y5.774 Z0 F1200
G1 X130.854 Y6.043 Z0 F1200
G1 X130.603 Y6.332 Z0 F1200
G1 X130.393 Y6.638 Z0 F1200
G1 X130.225 Y6.959 Z0 F1200
G1 Z7 F800;         ; Raise from color
G1 X124 Y8 Z1 F1200;     ; Movement in paint
G1 X114 Y18 Z8 F500;     ; Move in paint
G1 F1200;           ; Set feed rate
G0 Z2.5 F1000 ; Safety Lift
G0 X97.252 Y59.71 F1200 ; Return
G1 Z0 F1000 ; Restore Z
G1 X97.476 Y59.362 Z0 F1600
G1 X97.677 Y59.043 Z0 F1600
G1 X97.85 Y58.76 Z0 F1600
G1 X97.991 Y58.52 Z0 F1600
G1 X98.097 Y58.329 Z0 F1600
G1 X98.163 Y58.193 Z0 F1600
G1 X98.187 Y58.119 Z0 F1600
G1 X98.171 Y58.057 Z0 F1600
G1 X98.124 Y57.969 Z0 F1600
; --- FIX X Backlash ---
G0 X97.624 Y57.969 F1200
G1 X97.545 Y57.853 Z0 F1600
G1 X97.431 Y57.709 Z0 F1600
G1 X97.283 Y57.535 Z0 F1600
G1 X97.097 Y57.329 Z0 F1600
G1 X96.874 Y57.089 Z0 F1600
G1 X96.611 Y56.814 Z0 F1600
G1 X95.571 Y55.74 Z0 F1600
G1 X95.027 Y55.183 Z0 F1600
G1 X94.59 Y54.743 Z0 F1600
G1 X94.25 Y54.41 Z0 F1600
G1 X94.114 Y54.281 Z0 F1600
G1 X93.999 Y54.175 Z0 F1600
G1 X93.904 Y54.091 Z0 F1600
G1 X93.766 Y53.984 Z0 F1600
G1 X93.693 Y53.95 Z0 F1600
G1 X93.631 Y53.975 Z0 F1600
; --- FIX Y Backlash ---
G0 X93.631 Y54.475 F1200
G1 X93.501 Y54.547 Z0 F1600
G1 X93.31 Y54.66 Z0 F1600
G1 X93.067 Y54.811 Z0 F1600
G1 X92.779 Y54.993 Z0 F1600
G1 X92.456 Y55.201 Z0 F1600
G1 X92.104 Y55.431 Z0 F1600
G1 X91.732 Y55.678 Z0 F1600
G1 X89.892 Y56.906 Z0 F1600
; --- FIX Y Backlash ---
G0 X89.892 Y56.406 F1200
G1 X88.81 Y55.587 Z0 F1600
G0 Z3.5 F1000
; --- FIX Y Backlash ---
G0 X88.81 Y56.087 F1200
G0 X62.063 Y59.737 Z3.5
G1 Z0 F1000
; --- FIX Y Backlash ---
G0 X62.063 Y59.237 F1200
G1 X62.035 Y59.162 Z0 F1600
G1 X61.958 Y59.004 Z0 F1600
G1 X61.845 Y58.786 Z0 F1600
G1 X61.406 Y57.976 Z0 F1600
G1 X61.017 Y57.243 Z0 F1600
G1 X60.334 Y55.941 Z0 F1600
G1 X60.199 Y55.687 Z0 F1600
G1 X60.142 Y55.585 Z0 F1600
G1 X60.098 Y55.602 Z0 F1600
; --- FIX Y Backlash ---
G0 X60.098 Y56.102 F1200
G1 X59.997 Y56.17 Z0 F1600
G1 X59.855 Y56.278 Z0 F1600
G1 X59.511 Y56.562 Z0 F1600
G1 X59.353 Y56.691 Z0 F1600
G1 X59.228 Y56.788 Z0 F1600
G1 X59.154 Y56.84 Z0 F1600
G1 X59.114 Y56.835 Z0 F1600
G1 X59.032 Y56.802 Z0 F1600
; --- FIX Y Backlash ---
G0 X59.032 Y56.302 F1200
G1 X58.914 Y56.242 Z0 F1600
G1 X58.763 Y56.158 Z0 F1600
G1 X58.381 Y55.932 Z0 F1600
G1 X57.921 Y55.646 Z0 F1600
G1 X57.419 Y55.322 Z0 F1600
G1 X56.91 Y54.982 Z0 F1600
G1 X56.429 Y54.649 Z0 F1600
G1 X55.813 Y54.202 Z0 F1600
G1 X55.645 Y54.098 Z0 F1600
G1 X55.501 Y54.034 Z0 F1600
G1 X55.373 Y54.01 Z0 F1600
G1 X55.251 Y54.025 Z0 F1600
; --- FIX Y Backlash ---
G0 X55.251 Y54.525 F1200
G1 X55.127 Y54.58 Z0 F1600
G1 X54.994 Y54.673 Z0 F1600
G1 X54.842 Y54.805 Z0 F1600
G1 X54.736 Y54.907 Z0 F1600
G1 X54.572 Y55.069 Z0 F1600
G1 X54.108 Y55.538 Z0 F1600
G1 X53.514 Y56.147 Z0 F1600
G1 X52.855 Y56.829 Z0 F1600
G1 X52.39 Y57.315 Z0 F1600
G1 X52.022 Y57.705 Z0 F1600
G1 X51.741 Y58.011 Z0 F1600
G1 X51.63 Y58.136 Z0 F1600
G1 X51.537 Y58.244 Z0 F1600
G1 X51.401 Y58.417 Z0 F1600
G1 X51.321 Y58.541 Z0 F1600
G1 X51.288 Y58.63 Z0 F1600
G1 X51.291 Y58.695 Z0 F1600
G1 X51.314 Y58.749 Z0 F1600
G1 X51.358 Y58.832 Z0 F1600
; --- FIX X Backlash ---
G0 X51.858 Y58.832 F1200
G1 X51.919 Y58.941 Z0 F1600
G1 X51.996 Y59.071 Z0 F1600
G1 X52.186 Y59.38 Z0 F1600
G1 X52.407 Y59.724 Z0 F1600
G1 X52.624 Y60.055 Z0 F1600
G1 X52.87 Y60.438 Z0 F1600
G1 X52.954 Y60.575 Z0 F1600
G1 X52.978 Y60.621 Z0 F1600
G1 X53.07 Y60.765 Z0 F1600
G1 X53.337 Y61.168 Z0 F1600
G1 X54.181 Y62.412 Z0 F1600
; --- FIX X Backlash ---
G0 X53.681 Y62.412 F1200
G1 X53.338 Y62.937 Z0 F1600
G1 X53.258 Y63.063 Z0 F1600
G1 X53.163 Y63.218 Z0 F1600
G1 X52.94 Y63.596 Z0 F1600
G1 X52.698 Y64.022 Z0 F1600
G1 X52.325 Y64.702 Z0 F1600
G1 X52.205 Y64.914 Z0 F1600
G1 X52.102 Y65.085 Z0 F1600
G1 X52.015 Y65.217 Z0 F1600
G1 X51.941 Y65.315 Z0 F1600
G1 X51.878 Y65.38 Z0 F1600
G1 X51.823 Y65.417 Z0 F1600
G1 X51.774 Y65.429 Z0 F1600
G1 X51.701 Y65.425 Z0 F1600
G1 X51.344 Y65.395 Z0 F1600
; --- FIX Y Backlash ---
G0 X51.344 Y64.895 F1200
G1 X50.765 Y64.84 Z0 F1600
G1 X49.202 Y64.684 Z0 F1600
G1 X48.81 Y64.648 Z0 F1600
G1 X48.462 Y64.619 Z0 F1600
G1 X48.161 Y64.598 Z0 F1600
G1 X47.912 Y64.584 Z0 F1600
G1 X47.72 Y64.579 Z0 F1600
G1 X47.59 Y64.582 Z0 F1600
G1 X47.527 Y64.594 Z0 F1600
; --- FIX Y Backlash ---
G0 X47.527 Y65.094 F1200
G1 X47.475 Y65.149 Z0 F1600
G1 X47.409 Y65.268 Z0 F1600
G1 X47.328 Y65.457 Z0 F1600
G1 X47.23 Y65.722 Z0 F1600
G1 X47.112 Y66.069 Z0 F1600
G1 X46.972 Y66.504 Z0 F1600
G1 X46.892 Y66.757 Z0 F1600
G1 X46.715 Y67.338 Z0 F1600
G1 X46.5 Y68.049 Z0 F1600
G1 X46.278 Y68.764 Z0 F1600
G1 X46.103 Y69.309 Z0 F1600
G1 X46.019 Y69.587 Z0 F1600
G1 X45.948 Y69.84 Z0 F1600
G1 X45.892 Y70.063 Z0 F1600
G1 X45.85 Y70.252 Z0 F1600
G1 X45.824 Y70.405 Z0 F1600
G1 X45.814 Y70.518 Z0 F1600
G1 X45.823 Y70.586 Z0 F1600
G1 X45.849 Y70.63 Z0 F1600
; --- FIX X Backlash ---
G0 X46.349 Y70.63 F1200
G1 X46.4 Y70.683 Z0 F1600
G1 X46.473 Y70.747 Z0 F1600
G1 X46.57 Y70.821 Z0 F1600
G1 X46.83 Y70.996 Z0 F1600
G1 X47.178 Y71.208 Z0 F1600
G1 X47.61 Y71.455 Z0 F1600
G1 X48.123 Y71.734 Z0 F1600
G1 X48.713 Y72.045 Z0 F1600
G1 X49.379 Y72.385 Z0 F1600
G1 X50.143 Y72.77 Z0 F1600
; --- FIX X Backlash ---
G0 X49.643 Y72.77 F1200
G1 X49.525 Y74.747 Z0 F1600
G1 X49.478 Y75.461 Z0 F1600
G1 X49.452 Y75.818 Z0 F1600
G1 X49.429 Y76.087 Z0 F1600
G1 X49.409 Y76.275 Z0 F1600
G1 X49.391 Y76.389 Z0 F1600
G1 X49.375 Y76.435 Z0 F1600
G1 X49.34 Y76.455 Z0 F1600
G1 X49.261 Y76.489 Z0 F1600
G1 X48.992 Y76.597 Z0 F1600
G1 X48.606 Y76.745 Z0 F1600
G1 X48.14 Y76.919 Z0 F1600
G1 X47.631 Y77.105 Z0 F1600
G1 X47.118 Y77.289 Z0 F1600
G1 X46.638 Y77.458 Z0 F1600
G1 X46.227 Y77.597 Z0 F1600
G1 X45.878 Y77.721 Z0 F1600
G1 X45.575 Y77.842 Z0 F1600
G1 X45.452 Y77.898 Z0 F1600
G1 X45.352 Y77.948 Z0 F1600
G1 X45.281 Y77.99 Z0 F1600
G1 X45.241 Y78.023 Z0 F1600
G1 X45.203 Y78.089 Z0 F1600
G1 X45.178 Y78.18 Z0 F1600
G1 X45.17 Y78.307 Z0 F1600
G1 X45.177 Y78.481 Z0 F1600
G1 X45.202 Y78.712 Z0 F1600
G1 X45.245 Y79.013 Z0 F1600
; --- FIX X Backlash ---
G0 X45.745 Y79.013 F1200
G1 X45.808 Y79.394 Z0 F1600
G1 X46.3 Y82.184 Z0 F1600
G1 X46.362 Y82.526 Z0 F1600
G1 X46.419 Y82.824 Z0 F1600
G1 X46.473 Y83.079 Z0 F1600
G1 X46.523 Y83.292 Z0 F1600
G1 X46.569 Y83.464 Z0 F1600
G1 X46.612 Y83.596 Z0 F1600
G1 X46.651 Y83.688 Z0 F1600
G1 X46.688 Y83.741 Z0 F1600
G1 X46.742 Y83.779 Z0 F1600
G1 X46.828 Y83.81 Z0 F1600
G1 X46.956 Y83.836 Z0 F1600
G1 X47.138 Y83.858 Z0 F1600
G1 X47.387 Y83.876 Z0 F1600
G1 X47.715 Y83.892 Z0 F1600
G1 X48.134 Y83.908 Z0 F1600
G1 X48.655 Y83.923 Z0 F1600
G1 X50.047 Y83.958 Z0 F1600
G1 X50.549 Y83.969 Z0 F1600
G1 X50.825 Y83.973 Z0 F1600
G1 X51.024 Y83.981 Z0 F1600
G1 X51.144 Y84.033 Z0 F1600
G1 X51.189 Y84.088 Z0 F1600
G1 X51.233 Y84.172 Z0 F1600
G1 X51.281 Y84.287 Z0 F1600
G1 X51.494 Y84.843 Z0 F1600
G1 X51.622 Y85.153 Z0 F1600
G1 X51.979 Y85.987 Z0 F1600
G1 X52.571 Y87.39 Z0 F1600
; --- FIX X Backlash ---
G0 X52.071 Y87.39 F1200
G1 X51.069 Y88.465 Z0 F1600
G1 X50.234 Y89.356 Z0 F1600
G1 X49.636 Y89.989 Z0 F1600
G1 X49.465 Y90.178 Z0 F1600
G1 X49.319 Y90.36 Z0 F1600
G1 X49.212 Y90.514 Z0 F1600
G1 X49.16 Y90.62 Z0 F1600
G1 X49.144 Y90.698 Z0 F1600
G1 X49.152 Y90.784 Z0 F1600
G1 X49.202 Y90.908 Z0 F1600
; --- FIX X Backlash ---
G0 X49.702 Y90.908 F1200
G1 X49.811 Y91.099 Z0 F1600
G1 X49.894 Y91.229 Z0 F1600
G1 X49.999 Y91.387 Z0 F1600
G1 X50.284 Y91.801 Z0 F1600
G1 X50.684 Y92.372 Z0 F1600
G1 X51.737 Y93.865 Z0 F1600
G1 X52.528 Y94.994 Z0 F1600
G1 X52.703 Y95.247 Z0 F1600
G1 X52.799 Y95.376 Z0 F1600
G1 X52.9 Y95.466 Z0 F1600
G1 X53.015 Y95.517 Z0 F1600
G1 X53.157 Y95.528 Z0 F1600
G1 X53.338 Y95.497 Z0 F1600
; --- FIX Y Backlash ---
G0 X53.338 Y94.997 F1200
G1 X53.568 Y94.925 Z0 F1600
G1 X53.861 Y94.811 Z0 F1600
G1 X54.226 Y94.653 Z0 F1600
G1 X54.66 Y94.46 Z0 F1600
G1 X55.138 Y94.245 Z0 F1600
G1 X55.673 Y94.001 Z0 F1600
G1 X57.198 Y93.301 Z0 F1600
; --- FIX Y Backlash ---
G0 X57.198 Y93.801 F1200
G1 X57.502 Y94.064 Z0 F1600
G1 X57.823 Y94.353 Z0 F1600
G1 X58.315 Y94.818 Z0 F1600
G1 X58.444 Y94.931 Z0 F1600
G1 X58.543 Y95.007 Z0 F1600
G1 X58.597 Y95.035 Z0 F1600
; --- FIX Y Backlash ---
G0 X58.597 Y94.535 F1200
G1 X58.668 Y94.469 Z0 F1600
G1 X58.747 Y94.311 Z0 F1600
G1 X58.862 Y94.034 Z0 F1600
G1 X59.022 Y93.681 Z0 F1600
G1 X59.469 Y92.712 Z0 F1600
G1 X59.924 Y91.709 Z0 F1600
G1 X60.301 Y90.864 Z0 F1600
G1 X60.394 Y90.643 Z0 F1600
G1 X60.441 Y90.472 Z0 F1600
G1 X60.438 Y90.327 Z0 F1600
; --- FIX X Backlash ---
G0 X59.938 Y90.327 F1200
G1 X59.879 Y90.182 Z0 F1600
G1 X59.759 Y90.015 Z0 F1600
G1 X59.675 Y89.915 Z0 F1600
G1 X59.315 Y89.514 Z0 F1600
G1 X58.747 Y88.857 Z0 F1600
G1 X58.213 Y88.197 Z0 F1600
G1 X57.713 Y87.532 Z0 F1600
G1 X57.246 Y86.862 Z0 F1600
G1 X56.811 Y86.185 Z0 F1600
G1 X56.408 Y85.499 Z0 F1600
G1 X56.036 Y84.805 Z0 F1600
G1 X55.695 Y84.099 Z0 F1600
G1 X55.384 Y83.382 Z0 F1600
G1 X55.103 Y82.651 Z0 F1600
G1 X54.851 Y81.906 Z0 F1600
G1 X54.627 Y81.145 Z0 F1600
G1 X54.431 Y80.368 Z0 F1600
G1 X54.263 Y79.572 Z0 F1600
G1 X54.121 Y78.757 Z0 F1600
G1 X54.006 Y77.921 Z0 F1600
G1 X53.981 Y77.672 Z0 F1600
G1 X53.961 Y77.386 Z0 F1600
G1 X53.947 Y77.069 Z0 F1600
G1 X53.938 Y76.725 Z0 F1600
G1 X53.934 Y75.979 Z0 F1600
G1 X53.949 Y75.188 Z0 F1600
G1 X53.981 Y74.395 Z0 F1600
G1 X54.03 Y73.64 Z0 F1600
G1 X54.06 Y73.29 Z0 F1600
G1 X54.093 Y72.966 Z0 F1600
G1 X54.13 Y72.671 Z0 F1600
G1 X54.17 Y72.413 Z0 F1600
; --- FIX X Backlash ---
G0 X54.67 Y72.413 F1200
G1 X54.924 Y71.155 Z0 F1600
G1 X55.239 Y69.946 Z0 F1600
G1 X55.618 Y68.782 Z0 F1600
G1 X56.062 Y67.654 Z0 F1600
G1 X56.576 Y66.559 Z0 F1600
G1 X57.161 Y65.489 Z0 F1600
G1 X57.82 Y64.439 Z0 F1600
G1 X58.556 Y63.403 Z0 F1600
G1 X58.702 Y63.215 Z0 F1600
G1 X58.878 Y63 Z0 F1600
G1 X59.08 Y62.763 Z0 F1600
G1 X59.304 Y62.508 Z0 F1600
G1 X59.8 Y61.96 Z0 F1600
G1 X60.334 Y61.392 Z0 F1600
G1 X60.871 Y60.837 Z0 F1600
G1 X61.379 Y60.332 Z0 F1600
G1 X61.612 Y60.108 Z0 F1600
G1 X61.826 Y59.91 Z0 F1600
G1 X62.015 Y59.741 Z0 F1600
G1 X62.327 Y59.482 Z0 F1600
G1 X62.449 Y59.371 Z0 F1600
G1 X62.532 Y59.285 Z0 F1600
G1 X62.563 Y59.237 Z0 F1600
G0 Z3.5 F1000

; Color picking sequence
G1 Z10 F1000;         ; Raise brush
G0 X131 Y5 F1200;    ; Rapid move to color 1
G1 Z10 F1000;         ; Raise brush
G0 X131 Y5 F1200;    ; Rapid move to color 1
G1 Z0 F1000;         ; Lower into color
G1 X130.102 Y7.295 Z0 S800 F1200
G1 X130.026 Y7.642 Z0 F1200
G1 X130 Y8 Z0 F1200
G1 X130.026 Y8.358 Z0 F1200
G1 X130.102 Y8.705 Z0 F1200
G1 X130.225 Y9.041 Z0 F1200
G1 X130.393 Y9.362 Z0 F1200
G1 X130.603 Y9.668 Z0 F1200
G1 X130.854 Y9.957 Z0 F1200
G1 X131.142 Y10.226 Z0 F1200
G1 X131.464 Y10.475 Z0 F1200
G1 X131.82 Y10.701 Z0 F1200
G1 X132.204 Y10.902 Z0 F1200
G1 X132.617 Y11.078 Z0 F1200
G1 X133.054 Y11.225 Z0 F1200
G1 X133.513 Y11.343 Z0 F1200
G1 X133.992 Y11.429 Z0 F1200
G1 X134.489 Y11.482 Z0 F1200
G1 X135 Y11.5 Z0 F1200
G1 X135.511 Y11.482 Z0 F1200
G1 X136.008 Y11.429 Z0 F1200
G1 X136.487 Y11.343 Z0 F1200
G1 X136.946 Y11.225 Z0 F1200
G1 X137.383 Y11.078 Z0 F1200
G1 X137.796 Y10.902 Z0 F1200
G1 X138.18 Y10.701 Z0 F1200
G1 X138.536 Y10.475 Z0 F1200
G1 X138.858 Y10.226 Z0 F1200
G1 X139.146 Y9.957 Z0 F1200
G1 X139.397 Y9.668 Z0 F1200
G1 X139.607 Y9.362 Z0 F1200
G1 X139.775 Y9.041 Z0 F1200
G1 X139.898 Y8.705 Z0 F1200
G1 X139.974 Y8.358 Z0 F1200
G1 X140 Y8 Z0 F1200
G1 X139.974 Y7.642 Z0 F1200
G1 X139.898 Y7.295 Z0 F1200
G1 X139.775 Y6.959 Z0 F1200
G1 X139.607 Y6.638 Z0 F1200
G1 X139.397 Y6.332 Z0 F1200
G1 X139.146 Y6.043 Z0 F1200
G1 X138.858 Y5.774 Z0 F1200
G1 X138.536 Y5.525 Z0 F1200
G1 X138.18 Y5.299 Z0 F1200
G1 X137.796 Y5.098 Z0 F1200
G1 X137.383 Y4.922 Z0 F1200
G1 X136.946 Y4.775 Z0 F1200
G1 X136.487 Y4.657 Z0 F1200
G1 X136.008 Y4.571 Z0 F1200
G1 X135.511 Y4.518 Z0 F1200
G1 X135 Y4.5 Z0 F1200
G1 X134.489 Y4.518 Z0 F1200
G1 X133.992 Y4.571 Z0 F1200
G1 X133.513 Y4.657 Z0 F1200
G1 X133.054 Y4.775 Z0 F1200
G1 X132.617 Y4.922 Z0 F1200
G1 X132.204 Y5.098 Z0 F1200
G1 X131.82 Y5.299 Z0 F1200
G1 X131.464 Y5.525 Z0 F1200
G1 X131.142 Y5.774 Z0 F1200
G1 X130.854 Y6.043 Z0 F1200
G1 X130.603 Y6.332 Z0 F1200
G1 X130.393 Y6.638 Z0 F1200
G1 X130.225 Y6.959 Z0 F1200
G1 Z7 F800;         ; Raise from color
G1 X124 Y8 Z1 F1200;     ; Movement in paint
G1 X114 Y18 Z8 F500;     ; Move in paint
G1 F1200;           ; Set feed rate
G0 Z2.5 F1000 ; Safety Lift
G0 X62.563 Y59.237 F1200 ; Return to pos
; --- FIX Y Backlash ---
G0 X62.563 Y59.737 F1200
G0 X66.237 Y94.71 Z3.5
G1 Z0 F1000
G1 X66.214 Y94.725 Z0 F1600
G1 X66.172 Y94.769 Z0 F1600
; --- FIX X Backlash ---
G0 X65.672 Y94.769 F1200
G1 X65.614 Y94.839 Z0 F1600
G1 X65.543 Y94.931 Z0 F1600
G1 X65.368 Y95.17 Z0 F1600
G1 X65.165 Y95.462 Z0 F1600
G1 X64.956 Y95.77 Z0 F1600
G1 X64.678 Y96.175 Z0 F1600
G1 X64.455 Y96.491 Z0 F1600
G1 X63.906 Y97.287 Z0 F1600
G1 X62.801 Y98.905 Z0 F1600
G1 X62.061 Y99.981 Z0 F1600
G1 X61.189 Y101.239 Z0 F1600
G1 X60.964 Y101.576 Z0 F1600
G1 X60.879 Y101.707 Z0 F1600
G1 X60.817 Y101.807 Z0 F1600
G1 X60.78 Y101.873 Z0 F1600
G1 X60.772 Y101.9 Z0 F1600
; --- FIX X Backlash ---
G0 X61.272 Y101.9 F1200
G1 X61.338 Y101.945 Z0 F1600
G1 X61.458 Y102.013 Z0 F1600
G1 X61.625 Y102.102 Z0 F1600
G1 X61.829 Y102.207 Z0 F1600
G1 X62.323 Y102.452 Z0 F1600
G1 X62.877 Y102.719 Z0 F1600
G1 X63.429 Y102.978 Z0 F1600
G1 X63.917 Y103.2 Z0 F1600
G1 X64.118 Y103.287 Z0 F1600
G1 X64.28 Y103.354 Z0 F1600
G1 X64.394 Y103.397 Z0 F1600
G1 X64.454 Y103.412 Z0 F1600
G1 X64.576 Y103.389 Z0 F1600
; --- FIX Y Backlash ---
G0 X64.576 Y102.889 F1200
G1 X64.704 Y102.807 Z0 F1600
G1 X64.776 Y102.739 Z0 F1600
G1 X64.857 Y102.651 Z0 F1600
G1 X64.949 Y102.54 Z0 F1600
G1 X65.427 Y101.925 Z0 F1600
G1 X66.145 Y101.034 Z0 F1600
G1 X66.729 Y100.283 Z0 F1600
G1 X66.89 Y100.08 Z0 F1600
G1 X67.017 Y99.924 Z0 F1600
G1 X67.2 Y99.713 Z0 F1600
G1 X67.315 Y99.562 Z0 F1600
G1 X67.385 Y99.476 Z0 F1600
G1 X67.453 Y99.437 Z0 F1600
G1 X67.539 Y99.441 Z0 F1600
; --- FIX Y Backlash ---
G0 X67.539 Y99.941 F1200
G1 X67.883 Y100.057 Z0 F1600
G1 X68.193 Y100.148 Z0 F1600
G1 X68.564 Y100.246 Z0 F1600
G1 X68.968 Y100.345 Z0 F1600
G1 X69.375 Y100.438 Z0 F1600
G1 X69.757 Y100.519 Z0 F1600
G1 X70.086 Y100.58 Z0 F1600
G1 X70.334 Y100.616 Z0 F1600
G1 X70.586 Y100.649 Z0 F1600
G1 X70.764 Y100.691 Z0 F1600
G1 X70.879 Y100.745 Z0 F1600
G1 X70.944 Y100.817 Z0 F1600
G1 X70.968 Y100.888 Z0 F1600
G1 X71.006 Y101.033 Z0 F1600
G1 X71.056 Y101.243 Z0 F1600
G1 X71.117 Y101.511 Z0 F1600
G1 X71.185 Y101.826 Z0 F1600
G1 X71.34 Y102.565 Z0 F1600
G1 X71.509 Y103.406 Z0 F1600
G1 X71.593 Y103.8 Z0 F1600
G1 X71.67 Y104.149 Z0 F1600
G1 X71.74 Y104.447 Z0 F1600
G1 X71.803 Y104.692 Z0 F1600
G1 X71.856 Y104.876 Z0 F1600
G1 X71.898 Y104.997 Z0 F1600
G1 X71.929 Y105.049 Z0 F1600
G1 X71.955 Y105.056 Z0 F1600
G1 X72.011 Y105.062 Z0 F1600
G1 X72.094 Y105.069 Z0 F1600
G1 X72.204 Y105.075 Z0 F1600
G1 X72.495 Y105.087 Z0 F1600
G1 X72.872 Y105.098 Z0 F1600
G1 X73.321 Y105.106 Z0 F1600
G1 X73.832 Y105.113 Z0 F1600
G1 X74.39 Y105.117 Z0 F1600
G1 X74.985 Z0 F1600
G1 X77.931 Y105.12 Z0 F1600
; --- FIX Y Backlash ---
G0 X77.931 Y104.62 F1200
G1 X78.05 Y104.437 Z0 F1600
G1 X78.107 Y104.308 Z0 F1600
G1 X78.175 Y104.093 Z0 F1600
G1 X78.244 Y103.821 Z0 F1600
G1 X78.306 Y103.522 Z0 F1600
G1 X78.591 Y102.053 Z0 F1600
G1 X78.962 Y100.192 Z0 F1600
G1 X79.689 Y100.09 Z0 F1600
G1 X80.054 Y100.029 Z0 F1600
G1 X80.511 Y99.937 Z0 F1600
G1 X81.003 Y99.828 Z0 F1600
G1 X81.469 Y99.712 Z0 F1600
G1 X82.523 Y99.436 Z0 F1600
; --- FIX Y Backlash ---
G0 X82.523 Y99.936 F1200
G1 X82.689 Y100.149 Z0 F1600
G1 X83.384 Y101.027 Z0 F1600
G1 X83.889 Y101.669 Z0 F1600
G1 X84.615 Y102.612 Z0 F1600
G1 X84.821 Y102.874 Z0 F1600
G1 X84.986 Y103.072 Z0 F1600
G1 X85.118 Y103.217 Z0 F1600
G1 X85.225 Y103.315 Z0 F1600
G1 X85.315 Y103.374 Z0 F1600
G1 X85.397 Y103.404 Z0 F1600
G1 X85.479 Y103.412 Z0 F1600
G1 X85.553 Y103.396 Z0 F1600
G1 X85.684 Y103.349 Z0 F1600
; --- FIX Y Backlash ---
G0 X85.684 Y102.849 F1200
G1 X85.861 Y102.777 Z0 F1600
G1 X86.077 Y102.682 Z0 F1600
G1 X86.592 Y102.443 Z0 F1600
G1 X87.163 Y102.167 Z0 F1600
G1 X87.723 Y101.884 Z0 F1600
G1 X88.205 Y101.629 Z0 F1600
G1 X88.396 Y101.523 Z0 F1600
G1 X88.543 Y101.435 Z0 F1600
G1 X88.637 Y101.371 Z0 F1600
G1 X88.671 Y101.334 Z0 F1600
G1 X88.638 Y101.242 Z0 F1600
; --- FIX X Backlash ---
G0 X88.138 Y101.242 F1200
G1 X88.059 Y101.129 Z0 F1600
G1 X88.023 Y101.083 Z0 F1600
G1 X87.875 Y100.883 Z0 F1600
G1 X87.515 Y100.379 Z0 F1600
G1 X86.915 Y99.528 Z0 F1600
G1 X86.492 Y98.92 Z0 F1600
G1 X86.273 Y98.6 Z0 F1600
G1 X85.938 Y98.105 Z0 F1600
G1 X85.328 Y97.228 Z0 F1600
G1 X84.89 Y96.588 Z0 F1600
G1 X84.319 Y95.749 Z0 F1600
G1 X83.621 Y94.718 Z0 F1600
G1 X83.481 Y94.521 Z0 F1600
G1 X83.354 Y94.359 Z0 F1600
G1 X83.255 Y94.25 Z0 F1600
G1 X83.196 Y94.21 Z0 F1600
G1 X83.119 Y94.229 Z0 F1600
; --- FIX Y Backlash ---
G0 X83.119 Y94.729 F1200
G1 X82.97 Y94.784 Z0 F1600
G1 X82.77 Y94.864 Z0 F1600
G1 X82.541 Y94.961 Z0 F1600
G1 X81.946 Y95.202 Z0 F1600
G1 X81.276 Y95.437 Z0 F1600
G1 X80.554 Y95.661 Z0 F1600
G1 X79.801 Y95.867 Z0 F1600
G1 X79.038 Y96.051 Z0 F1600
G1 X78.288 Y96.207 Z0 F1600
G1 X77.572 Y96.329 Z0 F1600
G1 X76.912 Y96.412 Z0 F1600
G1 X76.39 Y96.452 Z0 F1600
G1 X75.795 Y96.479 Z0 F1600
G1 X75.149 Y96.493 Z0 F1600
G1 X74.478 Z0 F1600
G1 X73.805 Y96.483 Z0 F1600
G1 X73.153 Y96.459 Z0 F1600
G1 X72.548 Y96.423 Z0 F1600
G1 X72.014 Y96.376 Z0 F1600
; --- FIX Y Backlash ---
G0 X72.014 Y95.876 F1200
G1 X71.256 Y95.778 Z0 F1600
G1 X70.487 Y95.65 Z0 F1600
G1 X69.717 Y95.495 Z0 F1600
G1 X68.959 Y95.316 Z0 F1600
G1 X68.223 Y95.116 Z0 F1600
G1 X67.522 Y94.898 Z0 F1600
G1 X66.867 Y94.664 Z0 F1600
G1 X66.27 Y94.419 Z0 F1600
G1 X66.082 Y94.337 Z0 F1600
G1 X65.919 Y94.271 Z0 F1600
G1 X65.798 Y94.226 Z0 F1600
G1 X65.737 Y94.21 Z0 F1600
M9
M5
G1 Z10 F1000
G1 Z10 F800


; Return to 2,0 wash and park
G1 Z10 F1000;        ; Raise brush
G0 X5 Y5 F1200;     ; Rapid move to clean
G1 Z-1 F800;         ; Lower brush
G1 X10 Y12 Z8 F1200;     ; Move
G1 Z-1 F800;         ; Lower
G1 X25 Y14 Z6 F800;     ; Move
G0 X5 Y5 F1200;     ; Rapid
G1 Z-1 F800;         ; Lower
G1 X15 Y12 Z8 F1200;     ; Move
G1 Z-1 F800;         ; Lower
G1 X25 Y14 Z6 F800;     ; Move
G1 Z10 F800;         ; Maintain
G0 X20 Y130 Z10 F500;; Move to park
M2;                 ; End program
