
G0 Z10 F500;      ; Move to clearance level - Z motion limited to 500
; G0 X-10 Y-10 F1200; Homing
; G0 X-5 Y-5 F1200; go in
; G10 P0 L20 X0 Y0; set to zero
G1 F1200;           ; Set feed rate to 1000
;LightBurn 1.6.04
;Custom GCode device profile, absolute coords
;Bounds: X16.37 Y33.5 to X101.63 Y88.5
G00 G17 G40 G21 G54
G90
M3
G1 Z10 F1000
;Scan @ 1500 mm/min, 90% power

M8

; Washing sequence (no color)
G1 Z10 F1000;        ; Raise brush to safe height
G0 X5 Y5 F1200;     ; Rapid move to brush cleaning position
G1 Z-1 F800;         ; Lower brush for cleaning - controlled movement
G1 X10 Y12 Z8 F1200;     ; Rapid move to brush cleaning position
G1 Z-1 F800;         ; Lower brush for cleaning - controlled movement
G1 X25 Y14 Z6 F800;     ; Move across cleaning area - controlled movement
G1 Z8 F800;         ; Maintain brush height - controlled movement
G0 X5 Y5 F1200;     ; Rapid move to brush cleaning position
G1 Z-1 F800;         ; Lower brush for cleaning - controlled movement
G1 X15 Y12 Z8 F1200;     ; Rapid move to brush cleaning position
G1 Z-1 F800;         ; Lower brush for cleaning - controlled movement
G1 X25 Y14 Z6 F800;     ; Move across cleaning area - controlled movement
G1 Z10 F800;         ; Maintain brush height - controlled movement
G1 F1200;           ; Set feed rate to 1000

; Color picking sequence
G1 Z10 F1000;         ; Raise brush to safe height
G0 X86 Y5 F1200;    ; Rapid move to color 1 position
G1 Z0 F1000;         ; Lower into color - controlled movement
G1 X85.102Y7.295Z0S800F1200
G1 X85.026Y7.642Z0F1200
G1 X85Y8Z0F1200
G1 X85.026Y8.358Z0F1200
G1 X85.102Y8.705Z0F1200
G1 X85.225Y9.041Z0F1200
G1 X85.393Y9.362Z0F1200
G1 X85.603Y9.668Z0F1200
G1 X85.854Y9.957Z0F1200
G1 X86.142Y10.226Z0F1200
G1 X86.464Y10.475Z0F1200
G1 X86.82Y10.701Z0F1200
G1 X87.204Y10.902Z0F1200
G1 X87.617Y11.078Z0F1200
G1 X88.054Y11.225Z0F1200
G1 X88.513Y11.343Z0F1200
G1 X88.992Y11.429Z0F1200
G1 X89.489Y11.482Z0F1200
G1 X90Y11.5Z0F1200
G1 X90.511Y11.482Z0F1200
G1 X91.008Y11.429Z0F1200
G1 X91.487Y11.343Z0F1200
G1 X91.946Y11.225Z0F1200
G1 X92.383Y11.078Z0F1200
G1 X92.796Y10.902Z0F1200
G1 X93.18Y10.701Z0F1200
G1 X93.536Y10.475Z0F1200
G1 X93.858Y10.226Z0F1200
G1 X94.146Y9.957Z0F1200
G1 X94.397Y9.668Z0F1200
G1 X94.607Y9.362Z0F1200
G1 X94.775Y9.041Z0F1200
G1 X94.898Y8.705Z0F1200
G1 X94.974Y8.358Z0F1200
G1 X95Y8Z0F1200
G1 X94.974Y7.642Z0F1200
G1 X94.898Y7.295Z0F1200
G1 X94.775Y6.959Z0F1200
G1 X94.607Y6.638Z0F1200
G1 X94.397Y6.332Z0F1200
G1 X94.146Y6.043Z0F1200
G1 X93.858Y5.774Z0F1200
G1 X93.536Y5.525Z0F1200
G1 X93.18Y5.299Z0F1200
G1 X92.796Y5.098Z0F1200
G1 X92.383Y4.922Z0F1200
G1 X91.946Y4.775Z0F1200
G1 X91.487Y4.657Z0F1200
G1 X91.008Y4.571Z0F1200
G1 X90.511Y4.518Z0F1200
G1 X90Y4.5Z0F1200
G1 X89.489Y4.518Z0F1200
G1 X88.992Y4.571Z0F1200
G1 X88.513Y4.657Z0F1200
G1 X88.054Y4.775Z0F1200
G1 X87.617Y4.922Z0F1200
G1 X87.204Y5.098Z0F1200
G1 X86.82Y5.299Z0F1200
G1 X86.464Y5.525Z0F1200
G1 X86.142Y5.774Z0F1200
G1 X85.854Y6.043Z0F1200
G1 X85.603Y6.332Z0F1200
G1 X85.393Y6.638Z0F1200
G1 X85.225Y6.959Z0F1200
G1 Z7 F800;         ; Raise from color - controlled movement
G1 X79 Y8 Z1 F1200;     ; Movement in paint - controlled movement
G1 X69 Y18 Z8 F500;     ; Move in paint - controlled movement
G1 F1200;           ; Set feed rate to 1000
G0 Z3.5 F1000
G0 X16.37 Y33.5 Z3.5 
G1 Z0 F1000
;Layer C2
G91
G1 X0.625 Z0 S0 F1600
G1 X84.01 Z0 S900 F1600
G1 X0.625 Z0 S0 F1600
G1 Y1 Z0 F1600
G1 X-0.625 Z0 F1600
G1 X-84.01 Z0 S900 F1600
G1 X-0.625 Z0 S0 F1600
G1 Y1 Z0 F1600
G1 X0.625 Z0 F1600
G1 X84.01 Z0 S900 F1600
G1 X0.625 Z0 S0 F1600
G1 Y1 Z0 F1600
G1 X-0.625 Z0 F1600
G1 X-84.01 Z0 S900 F1600
G1 X-0.625 Z0 S0 F1600
G1 Y1 Z0 F1600
G1 X0.625 Z0 F1600
G1 X84.01 Z0 S900 F1600
G90

; Color picking sequence
G1 Z10 F1000;         ; Raise brush to safe height
G0 X86 Y5 F1200;    ; Rapid move to color 1 position
G1 Z0 F1000;         ; Lower into color - controlled movement
G1 X85.102Y7.295Z0S800F1200
G1 X85.026Y7.642Z0F1200
G1 X85Y8Z0F1200
G1 X85.026Y8.358Z0F1200
G1 X85.102Y8.705Z0F1200
G1 X85.225Y9.041Z0F1200
G1 X85.393Y9.362Z0F1200
G1 X85.603Y9.668Z0F1200
G1 X85.854Y9.957Z0F1200
G1 X86.142Y10.226Z0F1200
G1 X86.464Y10.475Z0F1200
G1 X86.82Y10.701Z0F1200
G1 X87.204Y10.902Z0F1200
G1 X87.617Y11.078Z0F1200
G1 X88.054Y11.225Z0F1200
G1 X88.513Y11.343Z0F1200
G1 X88.992Y11.429Z0F1200
G1 X89.489Y11.482Z0F1200
G1 X90Y11.5Z0F1200
G1 X90.511Y11.482Z0F1200
G1 X91.008Y11.429Z0F1200
G1 X91.487Y11.343Z0F1200
G1 X91.946Y11.225Z0F1200
G1 X92.383Y11.078Z0F1200
G1 X92.796Y10.902Z0F1200
G1 X93.18Y10.701Z0F1200
G1 X93.536Y10.475Z0F1200
G1 X93.858Y10.226Z0F1200
G1 X94.146Y9.957Z0F1200
G1 X94.397Y9.668Z0F1200
G1 X94.607Y9.362Z0F1200
G1 X94.775Y9.041Z0F1200
G1 X94.898Y8.705Z0F1200
G1 X94.974Y8.358Z0F1200
G1 X95Y8Z0F1200
G1 X94.974Y7.642Z0F1200
G1 X94.898Y7.295Z0F1200
G1 X94.775Y6.959Z0F1200
G1 X94.607Y6.638Z0F1200
G1 X94.397Y6.332Z0F1200
G1 X94.146Y6.043Z0F1200
G1 X93.858Y5.774Z0F1200
G1 X93.536Y5.525Z0F1200
G1 X93.18Y5.299Z0F1200
G1 X92.796Y5.098Z0F1200
G1 X92.383Y4.922Z0F1200
G1 X91.946Y4.775Z0F1200
G1 X91.487Y4.657Z0F1200
G1 X91.008Y4.571Z0F1200
G1 X90.511Y4.518Z0F1200
G1 X90Y4.5Z0F1200
G1 X89.489Y4.518Z0F1200
G1 X88.992Y4.571Z0F1200
G1 X88.513Y4.657Z0F1200
G1 X88.054Y4.775Z0F1200
G1 X87.617Y4.922Z0F1200
G1 X87.204Y5.098Z0F1200
G1 X86.82Y5.299Z0F1200
G1 X86.464Y5.525Z0F1200
G1 X86.142Y5.774Z0F1200
G1 X85.854Y6.043Z0F1200
G1 X85.603Y6.332Z0F1200
G1 X85.393Y6.638Z0F1200
G1 X85.225Y6.959Z0F1200
G1 Z7 F800;         ; Raise from color - controlled movement
G1 X79 Y8 Z1 F1200;     ; Movement in paint - controlled movement
G1 X69 Y18 Z8 F500;     ; Move in paint - controlled movement
G1 F1200;           ; Set feed rate to 1000

G91
G90

; Return to drawing position
G0 X101.005 Y37.500 F1200;  ; Return to position with raised Z
G1 Z0 F1000;                       ; Lower Z to drawing position

G91
G1 X0.625 Z0 S0 F1600
G1 Y1 Z0 F1600
G1 X-0.625 Z0 F1600
G1 X-84.01 Z0 S900 F1600
G1 X-0.625 Z0 S0 F1600
G1 Y1 Z0 F1600
G1 X0.625 Z0 F1600
G1 X37.361 Z0 S900 F1600
G1 X7.793 Z0 S0 F1600
G1 X38.856 Z0 S900 F1600
G1 X0.625 Z0 S0 F1600
G1 Y1 Z0 F1600
G1 X-0.625 Z0 F1600
G1 X-36.98 Z0 S900 F1600
G1 X-12.079 Z0 S0 F1600
G1 X-34.951 Z0 S900 F1600
G1 X-0.625 Z0 S0 F1600
G1 Y1 Z0 F1600
G1 X0.625 Z0 F1600
G1 X34.087 Z0 S900 F1600
G1 X14.276 Z0 S0 F1600
G1 X35.647 Z0 S900 F1600
G1 X0.625 Z0 S0 F1600
G1 Y1 Z0 F1600
G1 X-0.625 Z0 F1600
G1 X-29.881 Z0 S900 F1600
G1 X-20.27 Z0 S0 F1600
G1 X-1.125 Z0 S900 F1600
G1 X-0.569 Z0 S0 F1600
G1 X-32.165 Z0 S900 F1600
G90

; Color picking sequence
G1 Z10 F1000;         ; Raise brush to safe height
G0 X86 Y5 F1200;    ; Rapid move to color 1 position
G1 Z0 F1000;         ; Lower into color - controlled movement
G1 X85.102Y7.295Z0S800F1200
G1 X85.026Y7.642Z0F1200
G1 X85Y8Z0F1200
G1 X85.026Y8.358Z0F1200
G1 X85.102Y8.705Z0F1200
G1 X85.225Y9.041Z0F1200
G1 X85.393Y9.362Z0F1200
G1 X85.603Y9.668Z0F1200
G1 X85.854Y9.957Z0F1200
G1 X86.142Y10.226Z0F1200
G1 X86.464Y10.475Z0F1200
G1 X86.82Y10.701Z0F1200
G1 X87.204Y10.902Z0F1200
G1 X87.617Y11.078Z0F1200
G1 X88.054Y11.225Z0F1200
G1 X88.513Y11.343Z0F1200
G1 X88.992Y11.429Z0F1200
G1 X89.489Y11.482Z0F1200
G1 X90Y11.5Z0F1200
G1 X90.511Y11.482Z0F1200
G1 X91.008Y11.429Z0F1200
G1 X91.487Y11.343Z0F1200
G1 X91.946Y11.225Z0F1200
G1 X92.383Y11.078Z0F1200
G1 X92.796Y10.902Z0F1200
G1 X93.18Y10.701Z0F1200
G1 X93.536Y10.475Z0F1200
G1 X93.858Y10.226Z0F1200
G1 X94.146Y9.957Z0F1200
G1 X94.397Y9.668Z0F1200
G1 X94.607Y9.362Z0F1200
G1 X94.775Y9.041Z0F1200
G1 X94.898Y8.705Z0F1200
G1 X94.974Y8.358Z0F1200
G1 X95Y8Z0F1200
G1 X94.974Y7.642Z0F1200
G1 X94.898Y7.295Z0F1200
G1 X94.775Y6.959Z0F1200
G1 X94.607Y6.638Z0F1200
G1 X94.397Y6.332Z0F1200
G1 X94.146Y6.043Z0F1200
G1 X93.858Y5.774Z0F1200
G1 X93.536Y5.525Z0F1200
G1 X93.18Y5.299Z0F1200
G1 X92.796Y5.098Z0F1200
G1 X92.383Y4.922Z0F1200
G1 X91.946Y4.775Z0F1200
G1 X91.487Y4.657Z0F1200
G1 X91.008Y4.571Z0F1200
G1 X90.511Y4.518Z0F1200
G1 X90Y4.5Z0F1200
G1 X89.489Y4.518Z0F1200
G1 X88.992Y4.571Z0F1200
G1 X88.513Y4.657Z0F1200
G1 X88.054Y4.775Z0F1200
G1 X87.617Y4.922Z0F1200
G1 X87.204Y5.098Z0F1200
G1 X86.82Y5.299Z0F1200
G1 X86.464Y5.525Z0F1200
G1 X86.142Y5.774Z0F1200
G1 X85.854Y6.043Z0F1200
G1 X85.603Y6.332Z0F1200
G1 X85.393Y6.638Z0F1200
G1 X85.225Y6.959Z0F1200
G1 Z7 F800;         ; Raise from color - controlled movement
G1 X79 Y8 Z1 F1200;     ; Movement in paint - controlled movement
G1 X69 Y18 Z8 F500;     ; Move in paint - controlled movement
G1 F1200;           ; Set feed rate to 1000

G91
G90

; Return to drawing position
G0 X16.995 Y42.500 F1200;  ; Return to position with raised Z
G1 Z0 F1000;                       ; Lower Z to drawing position

G91
G1 X-0.625 Z0 S0 F1600
G1 Y1 Z0 F1600
G1 X0.625 Z0 F1600
G1 X27.711 Z0 S900 F1600
G1 X5.74 Z0 S0 F1600
G1 X0.644 Z0 S900 F1600
G1 X13.185 Z0 S0 F1600
G1 X0.653 Z0 S900 F1600
G1 X8.012 Z0 S0 F1600
G1 X28.065 Z0 S900 F1600
G1 X0.625 Z0 S0 F1600
G1 Y1 Z0 F1600
G1 X-0.625 Z0 F1600
G1 X-26.727 Z0 S900 F1600
G1 X-8.322 Z0 S0 F1600
G1 X-11.419 Z0 S900 F1600
G1 X-2.448 Z0 S0 F1600
G1 X-1.814 Z0 S900 F1600
G1 X-7.224 Z0 S0 F1600
G1 X-26.057 Z0 S900 F1600
G1 X-0.625 Z0 S0 F1600
G1 Y1 Z0 F1600
G1 X0.625 Z0 F1600
G1 X24.845 Z0 S900 F1600
G1 X7.592 Z0 S0 F1600
G1 X17.02 Z0 S900 F1600
G1 X8.878 Z0 S0 F1600
G1 X25.676 Z0 S900 F1600
G1 X0.625 Z0 S0 F1600
G1 Y1 Z0 F1600
G1 X-0.625 Z0 F1600
G1 X-24.793 Z0 S900 F1600
G1 X-8.139 Z0 S0 F1600
G1 X-19.194 Z0 S900 F1600
G1 X-7.993 Z0 S0 F1600
G1 X-23.892 Z0 S900 F1600
G1 X-0.625 Z0 S0 F1600
G1 Y1 Z0 F1600
G1 X0.625 Z0 F1600
G1 X23.148 Z0 S900 F1600
G1 X7.315 Z0 S0 F1600
G1 X22.666 Z0 S900 F1600
G90

; Color picking sequence
G1 Z10 F1000;         ; Raise brush to safe height
G0 X86 Y5 F1200;    ; Rapid move to color 1 position
G1 Z0 F1000;         ; Lower into color - controlled movement
G1 X85.102Y7.295Z0S800F1200
G1 X85.026Y7.642Z0F1200
G1 X85Y8Z0F1200
G1 X85.026Y8.358Z0F1200
G1 X85.102Y8.705Z0F1200
G1 X85.225Y9.041Z0F1200
G1 X85.393Y9.362Z0F1200
G1 X85.603Y9.668Z0F1200
G1 X85.854Y9.957Z0F1200
G1 X86.142Y10.226Z0F1200
G1 X86.464Y10.475Z0F1200
G1 X86.82Y10.701Z0F1200
G1 X87.204Y10.902Z0F1200
G1 X87.617Y11.078Z0F1200
G1 X88.054Y11.225Z0F1200
G1 X88.513Y11.343Z0F1200
G1 X88.992Y11.429Z0F1200
G1 X89.489Y11.482Z0F1200
G1 X90Y11.5Z0F1200
G1 X90.511Y11.482Z0F1200
G1 X91.008Y11.429Z0F1200
G1 X91.487Y11.343Z0F1200
G1 X91.946Y11.225Z0F1200
G1 X92.383Y11.078Z0F1200
G1 X92.796Y10.902Z0F1200
G1 X93.18Y10.701Z0F1200
G1 X93.536Y10.475Z0F1200
G1 X93.858Y10.226Z0F1200
G1 X94.146Y9.957Z0F1200
G1 X94.397Y9.668Z0F1200
G1 X94.607Y9.362Z0F1200
G1 X94.775Y9.041Z0F1200
G1 X94.898Y8.705Z0F1200
G1 X94.974Y8.358Z0F1200
G1 X95Y8Z0F1200
G1 X94.974Y7.642Z0F1200
G1 X94.898Y7.295Z0F1200
G1 X94.775Y6.959Z0F1200
G1 X94.607Y6.638Z0F1200
G1 X94.397Y6.332Z0F1200
G1 X94.146Y6.043Z0F1200
G1 X93.858Y5.774Z0F1200
G1 X93.536Y5.525Z0F1200
G1 X93.18Y5.299Z0F1200
G1 X92.796Y5.098Z0F1200
G1 X92.383Y4.922Z0F1200
G1 X91.946Y4.775Z0F1200
G1 X91.487Y4.657Z0F1200
G1 X91.008Y4.571Z0F1200
G1 X90.511Y4.518Z0F1200
G1 X90Y4.5Z0F1200
G1 X89.489Y4.518Z0F1200
G1 X88.992Y4.571Z0F1200
G1 X88.513Y4.657Z0F1200
G1 X88.054Y4.775Z0F1200
G1 X87.617Y4.922Z0F1200
G1 X87.204Y5.098Z0F1200
G1 X86.82Y5.299Z0F1200
G1 X86.464Y5.525Z0F1200
G1 X86.142Y5.774Z0F1200
G1 X85.854Y6.043Z0F1200
G1 X85.603Y6.332Z0F1200
G1 X85.393Y6.638Z0F1200
G1 X85.225Y6.959Z0F1200
G1 Z7 F800;         ; Raise from color - controlled movement
G1 X79 Y8 Z1 F1200;     ; Movement in paint - controlled movement
G1 X69 Y18 Z8 F500;     ; Move in paint - controlled movement
G1 F1200;           ; Set feed rate to 1000

G91
G90

; Return to drawing position
G0 X70.123 Y47.500 F1200;  ; Return to position with raised Z
G1 Z0 F1000;                       ; Lower Z to drawing position

G91
G1 X6.804 Z0 S0 F1600
G1 X24.078 Z0 S900 F1600
G1 X0.625 Z0 S0 F1600
G1 Y1 Z0 F1600
G1 X-0.625 Z0 F1600
G1 X-23.599 Z0 S900 F1600
G1 X-5.994 Z0 S0 F1600
G1 X-25.455 Z0 S900 F1600
G1 X-6.414 Z0 S0 F1600
G1 X-22.548 Z0 S900 F1600
G1 X-0.625 Z0 S0 F1600
G1 Y1 Z0 F1600
G1 X0.625 Z0 F1600
G1 X22.061 Z0 S900 F1600
G1 X5.801 Z0 S0 F1600
G1 X27.506 Z0 S900 F1600
G1 X5.194 Z0 S0 F1600
G1 X23.448 Z0 S900 F1600
G1 X0.625 Z0 S0 F1600
G1 Y1 Z0 F1600
G1 X-0.625 Z0 F1600
G1 X-23.443 Z0 S900 F1600
G1 X-4.321 Z0 S0 F1600
G1 X-29.192 Z0 S900 F1600
G1 X-5.249 Z0 S0 F1600
G1 X-21.805 Z0 S900 F1600
G1 X-0.625 Z0 S0 F1600
G1 Y1 Z0 F1600
G1 X0.625 Z0 F1600
G1 X21.789 Z0 S900 F1600
G1 X4.563 Z0 S0 F1600
G1 X30.99 Z0 S900 F1600
G1 X3.132 Z0 S0 F1600
G1 X23.536 Z0 S900 F1600
G1 X0.625 Z0 S0 F1600
G1 Y1 Z0 F1600
G1 X-0.625 Z0 F1600
G1 X-23.588 Z0 S900 F1600
G90

; Color picking sequence
G1 Z10 F1000;         ; Raise brush to safe height
G0 X86 Y5 F1200;    ; Rapid move to color 1 position
G1 Z0 F1000;         ; Lower into color - controlled movement
G1 X85.102Y7.295Z0S800F1200
G1 X85.026Y7.642Z0F1200
G1 X85Y8Z0F1200
G1 X85.026Y8.358Z0F1200
G1 X85.102Y8.705Z0F1200
G1 X85.225Y9.041Z0F1200
G1 X85.393Y9.362Z0F1200
G1 X85.603Y9.668Z0F1200
G1 X85.854Y9.957Z0F1200
G1 X86.142Y10.226Z0F1200
G1 X86.464Y10.475Z0F1200
G1 X86.82Y10.701Z0F1200
G1 X87.204Y10.902Z0F1200
G1 X87.617Y11.078Z0F1200
G1 X88.054Y11.225Z0F1200
G1 X88.513Y11.343Z0F1200
G1 X88.992Y11.429Z0F1200
G1 X89.489Y11.482Z0F1200
G1 X90Y11.5Z0F1200
G1 X90.511Y11.482Z0F1200
G1 X91.008Y11.429Z0F1200
G1 X91.487Y11.343Z0F1200
G1 X91.946Y11.225Z0F1200
G1 X92.383Y11.078Z0F1200
G1 X92.796Y10.902Z0F1200
G1 X93.18Y10.701Z0F1200
G1 X93.536Y10.475Z0F1200
G1 X93.858Y10.226Z0F1200
G1 X94.146Y9.957Z0F1200
G1 X94.397Y9.668Z0F1200
G1 X94.607Y9.362Z0F1200
G1 X94.775Y9.041Z0F1200
G1 X94.898Y8.705Z0F1200
G1 X94.974Y8.358Z0F1200
G1 X95Y8Z0F1200
G1 X94.974Y7.642Z0F1200
G1 X94.898Y7.295Z0F1200
G1 X94.775Y6.959Z0F1200
G1 X94.607Y6.638Z0F1200
G1 X94.397Y6.332Z0F1200
G1 X94.146Y6.043Z0F1200
G1 X93.858Y5.774Z0F1200
G1 X93.536Y5.525Z0F1200
G1 X93.18Y5.299Z0F1200
G1 X92.796Y5.098Z0F1200
G1 X92.383Y4.922Z0F1200
G1 X91.946Y4.775Z0F1200
G1 X91.487Y4.657Z0F1200
G1 X91.008Y4.571Z0F1200
G1 X90.511Y4.518Z0F1200
G1 X90Y4.5Z0F1200
G1 X89.489Y4.518Z0F1200
G1 X88.992Y4.571Z0F1200
G1 X88.513Y4.657Z0F1200
G1 X88.054Y4.775Z0F1200
G1 X87.617Y4.922Z0F1200
G1 X87.204Y5.098Z0F1200
G1 X86.82Y5.299Z0F1200
G1 X86.464Y5.525Z0F1200
G1 X86.142Y5.774Z0F1200
G1 X85.854Y6.043Z0F1200
G1 X85.603Y6.332Z0F1200
G1 X85.393Y6.638Z0F1200
G1 X85.225Y6.959Z0F1200
G1 Z7 F800;         ; Raise from color - controlled movement
G1 X79 Y8 Z1 F1200;     ; Movement in paint - controlled movement
G1 X69 Y18 Z8 F500;     ; Move in paint - controlled movement
G1 F1200;           ; Set feed rate to 1000

G91
G90

; Return to drawing position
G0 X77.417 Y52.500 F1200;  ; Return to position with raised Z
G1 Z0 F1000;                       ; Lower Z to drawing position

G91
G1 X-1.322 Z0 S0 F1600
G1 X-5.432 Z0 S900 F1600
G1 X-1.551 Z0 S0 F1600
G1 X-0.38 Z0 S900 F1600
G1 X-3.128 Z0 S0 F1600
G1 X-23.015 Z0 S900 F1600
G1 X-3.766 Z0 S0 F1600
G1 X-21.828 Z0 S900 F1600
G1 X-0.625 Z0 S0 F1600
G1 Y1 Z0 F1600
G1 X0.625 Z0 F1600
G1 X21.618 Z0 S900 F1600
G1 X1.615 Z0 S0 F1600
G1 X5.848 Z0 S900 F1600
G1 X0.259 Z0 S0 F1600
G1 X2.035 Z0 S900 F1600
G1 X2.351 Z0 S0 F1600
G1 X13.171 Z0 S900 F1600
G1 X7.246 Z0 S0 F1600
G1 X4.247 Z0 S900 F1600
G1 X3.465 Z0 S0 F1600
G1 X22.155 Z0 S900 F1600
G1 X0.625 Z0 S0 F1600
G1 Y1 Z0 F1600
G1 X-0.625 Z0 F1600
G1 X-21.094 Z0 S900 F1600
G1 X-4.088 Z0 S0 F1600
G1 X-6.184 Z0 S900 F1600
G1 X-7.028 Z0 S0 F1600
G1 X-9.366 Z0 S900 F1600
G1 X-7.936 Z0 S0 F1600
G1 X-5.289 Z0 S900 F1600
G1 X-2.047 Z0 S0 F1600
G1 X-20.978 Z0 S900 F1600
G1 X-0.625 Z0 S0 F1600
G1 Y1 Z0 F1600
G1 X0.625 Z0 F1600
G1 X19.643 Z0 S900 F1600
G1 X3.176 Z0 S0 F1600
G1 X5.115 Z0 S900 F1600
G1 X1.463 Z0 S0 F1600
G1 X0.244 Z0 S900 F1600
G1 X8.533 Z0 S0 F1600
G1 X6.31 Z0 S900 F1600
G1 X8.067 Z0 S0 F1600
G1 X6.099 Z0 S900 F1600
G1 X4.971 Z0 S0 F1600
G1 X20.389 Z0 S900 F1600
G1 X0.625 Z0 S0 F1600
G1 Y1 Z0 F1600
G1 X-0.625 Z0 F1600
G1 X-19.842 Z0 S900 F1600
G1 X-5.261 Z0 S0 F1600
G1 X-6.914 Z0 S900 F1600
G1 X-8.566 Z0 S0 F1600
G1 X-3.545 Z0 S900 F1600
G1 X-10.094 Z0 S0 F1600
G1 X-6.617 Z0 S900 F1600
G1 X-4.137 Z0 S0 F1600
G1 X-19.034 Z0 S900 F1600
G90

; Color picking sequence
G1 Z10 F1000;         ; Raise brush to safe height
G0 X86 Y5 F1200;    ; Rapid move to color 1 position
G1 Z0 F1000;         ; Lower into color - controlled movement
G1 X85.102Y7.295Z0S800F1200
G1 X85.026Y7.642Z0F1200
G1 X85Y8Z0F1200
G1 X85.026Y8.358Z0F1200
G1 X85.102Y8.705Z0F1200
G1 X85.225Y9.041Z0F1200
G1 X85.393Y9.362Z0F1200
G1 X85.603Y9.668Z0F1200
G1 X85.854Y9.957Z0F1200
G1 X86.142Y10.226Z0F1200
G1 X86.464Y10.475Z0F1200
G1 X86.82Y10.701Z0F1200
G1 X87.204Y10.902Z0F1200
G1 X87.617Y11.078Z0F1200
G1 X88.054Y11.225Z0F1200
G1 X88.513Y11.343Z0F1200
G1 X88.992Y11.429Z0F1200
G1 X89.489Y11.482Z0F1200
G1 X90Y11.5Z0F1200
G1 X90.511Y11.482Z0F1200
G1 X91.008Y11.429Z0F1200
G1 X91.487Y11.343Z0F1200
G1 X91.946Y11.225Z0F1200
G1 X92.383Y11.078Z0F1200
G1 X92.796Y10.902Z0F1200
G1 X93.18Y10.701Z0F1200
G1 X93.536Y10.475Z0F1200
G1 X93.858Y10.226Z0F1200
G1 X94.146Y9.957Z0F1200
G1 X94.397Y9.668Z0F1200
G1 X94.607Y9.362Z0F1200
G1 X94.775Y9.041Z0F1200
G1 X94.898Y8.705Z0F1200
G1 X94.974Y8.358Z0F1200
G1 X95Y8Z0F1200
G1 X94.974Y7.642Z0F1200
G1 X94.898Y7.295Z0F1200
G1 X94.775Y6.959Z0F1200
G1 X94.607Y6.638Z0F1200
G1 X94.397Y6.332Z0F1200
G1 X94.146Y6.043Z0F1200
G1 X93.858Y5.774Z0F1200
G1 X93.536Y5.525Z0F1200
G1 X93.18Y5.299Z0F1200
G1 X92.796Y5.098Z0F1200
G1 X92.383Y4.922Z0F1200
G1 X91.946Y4.775Z0F1200
G1 X91.487Y4.657Z0F1200
G1 X91.008Y4.571Z0F1200
G1 X90.511Y4.518Z0F1200
G1 X90Y4.5Z0F1200
G1 X89.489Y4.518Z0F1200
G1 X88.992Y4.571Z0F1200
G1 X88.513Y4.657Z0F1200
G1 X88.054Y4.775Z0F1200
G1 X87.617Y4.922Z0F1200
G1 X87.204Y5.098Z0F1200
G1 X86.82Y5.299Z0F1200
G1 X86.464Y5.525Z0F1200
G1 X86.142Y5.774Z0F1200
G1 X85.854Y6.043Z0F1200
G1 X85.603Y6.332Z0F1200
G1 X85.393Y6.638Z0F1200
G1 X85.225Y6.959Z0F1200
G1 Z7 F800;         ; Raise from color - controlled movement
G1 X79 Y8 Z1 F1200;     ; Movement in paint - controlled movement
G1 X69 Y18 Z8 F500;     ; Move in paint - controlled movement
G1 F1200;           ; Set feed rate to 1000

G91
G90

; Return to drawing position
G0 X16.995 Y56.500 F1200;  ; Return to position with raised Z
G1 Z0 F1000;                       ; Lower Z to drawing position

G91
G1 X-0.625 Z0 S0 F1600
G1 Y1 Z0 F1600
G1 X0.625 Z0 F1600
G1 X18.546 Z0 S900 F1600
G1 X4.694 Z0 S0 F1600
G1 X7.039 Z0 S900 F1600
G1 X11.17 Z0 S0 F1600
G1 X0.902 Z0 S900 F1600
G1 X8.777 Z0 S0 F1600
G1 X8.184 Z0 S900 F1600
G1 X5.274 Z0 S0 F1600
G1 X19.424 Z0 S900 F1600
G1 X0.625 Z0 S0 F1600
G1 Y1 Z0 F1600
G1 X-0.625 Z0 F1600
G1 X-19.122 Z0 S900 F1600
G1 X-5.149 Z0 S0 F1600
G1 X-9.605 Z0 S900 F1600
G1 X-18.74 Z0 S0 F1600
G1 X-8.298 Z0 S900 F1600
G1 X-4.941 Z0 S0 F1600
G1 X-18.155 Z0 S900 F1600
G1 X-0.625 Z0 S0 F1600
G1 Y1 Z0 F1600
G1 X0.625 Z0 F1600
G1 X17.92 Z0 S900 F1600
G1 X4.953 Z0 S0 F1600
G1 X10.112 Z0 S900 F1600
G1 X16.107 Z0 S0 F1600
G1 X11.002 Z0 S900 F1600
G1 X4.996 Z0 S0 F1600
G1 X18.92 Z0 S900 F1600
G1 X0.625 Z0 S0 F1600
G1 Y1 Z0 F1600
G1 X-0.625 Z0 F1600
G1 X-18.803 Z0 S900 F1600
G1 X-4.845 Z0 S0 F1600
G1 X-12.326 Z0 S900 F1600
G1 X-13.322 Z0 S0 F1600
G1 X-12.031 Z0 S900 F1600
G1 X-4.881 Z0 S0 F1600
G1 X-17.802 Z0 S900 F1600
G1 X-0.625 Z0 S0 F1600
G1 Y1 Z0 F1600
G1 X0.625 Z0 F1600
G1 X17.765 Z0 S900 F1600
G1 X4.859 Z0 S0 F1600
G1 X13.797 Z0 S900 F1600
G1 X10.747 Z0 S0 F1600
G1 X13.341 Z0 S900 F1600
G90

; Color picking sequence
G1 Z10 F1000;         ; Raise brush to safe height
G0 X86 Y5 F1200;    ; Rapid move to color 1 position
G1 Z0 F1000;         ; Lower into color - controlled movement
G1 X85.102Y7.295Z0S800F1200
G1 X85.026Y7.642Z0F1200
G1 X85Y8Z0F1200
G1 X85.026Y8.358Z0F1200
G1 X85.102Y8.705Z0F1200
G1 X85.225Y9.041Z0F1200
G1 X85.393Y9.362Z0F1200
G1 X85.603Y9.668Z0F1200
G1 X85.854Y9.957Z0F1200
G1 X86.142Y10.226Z0F1200
G1 X86.464Y10.475Z0F1200
G1 X86.82Y10.701Z0F1200
G1 X87.204Y10.902Z0F1200
G1 X87.617Y11.078Z0F1200
G1 X88.054Y11.225Z0F1200
G1 X88.513Y11.343Z0F1200
G1 X88.992Y11.429Z0F1200
G1 X89.489Y11.482Z0F1200
G1 X90Y11.5Z0F1200
G1 X90.511Y11.482Z0F1200
G1 X91.008Y11.429Z0F1200
G1 X91.487Y11.343Z0F1200
G1 X91.946Y11.225Z0F1200
G1 X92.383Y11.078Z0F1200
G1 X92.796Y10.902Z0F1200
G1 X93.18Y10.701Z0F1200
G1 X93.536Y10.475Z0F1200
G1 X93.858Y10.226Z0F1200
G1 X94.146Y9.957Z0F1200
G1 X94.397Y9.668Z0F1200
G1 X94.607Y9.362Z0F1200
G1 X94.775Y9.041Z0F1200
G1 X94.898Y8.705Z0F1200
G1 X94.974Y8.358Z0F1200
G1 X95Y8Z0F1200
G1 X94.974Y7.642Z0F1200
G1 X94.898Y7.295Z0F1200
G1 X94.775Y6.959Z0F1200
G1 X94.607Y6.638Z0F1200
G1 X94.397Y6.332Z0F1200
G1 X94.146Y6.043Z0F1200
G1 X93.858Y5.774Z0F1200
G1 X93.536Y5.525Z0F1200
G1 X93.18Y5.299Z0F1200
G1 X92.796Y5.098Z0F1200
G1 X92.383Y4.922Z0F1200
G1 X91.946Y4.775Z0F1200
G1 X91.487Y4.657Z0F1200
G1 X91.008Y4.571Z0F1200
G1 X90.511Y4.518Z0F1200
G1 X90Y4.5Z0F1200
G1 X89.489Y4.518Z0F1200
G1 X88.992Y4.571Z0F1200
G1 X88.513Y4.657Z0F1200
G1 X88.054Y4.775Z0F1200
G1 X87.617Y4.922Z0F1200
G1 X87.204Y5.098Z0F1200
G1 X86.82Y5.299Z0F1200
G1 X86.464Y5.525Z0F1200
G1 X86.142Y5.774Z0F1200
G1 X85.854Y6.043Z0F1200
G1 X85.603Y6.332Z0F1200
G1 X85.393Y6.638Z0F1200
G1 X85.225Y6.959Z0F1200
G1 Z7 F800;         ; Raise from color - controlled movement
G1 X79 Y8 Z1 F1200;     ; Movement in paint - controlled movement
G1 X69 Y18 Z8 F500;     ; Move in paint - controlled movement
G1 F1200;           ; Set feed rate to 1000

G91
G90

; Return to drawing position
G0 X77.504 Y61.500 F1200;  ; Return to position with raised Z
G1 Z0 F1000;                       ; Lower Z to drawing position

G91
G1 X4.744 Z0 S0 F1600
G1 X18.757 Z0 S900 F1600
G1 X0.625 Z0 S0 F1600
G1 Y1 Z0 F1600
G1 X-0.625 Z0 F1600
G1 X-18.76 Z0 S900 F1600
G1 X-4.74 Z0 S0 F1600
G1 X-12.41 Z0 S900 F1600
G1 X-10.116 Z0 S0 F1600
G1 X-15.322 Z0 S900 F1600
G1 X-4.867 Z0 S0 F1600
G1 X-17.795 Z0 S900 F1600
G1 X-0.625 Z0 S0 F1600
G1 Y1 Z0 F1600
G1 X0.625 Z0 F1600
G1 X17.901 Z0 S900 F1600
G1 X4.916 Z0 S0 F1600
G1 X14.437 Z0 S900 F1600
G1 X11.977 Z0 S0 F1600
G1 X11.258 Z0 S900 F1600
G1 X4.696 Z0 S0 F1600
G1 X18.825 Z0 S900 F1600
G1 X0.625 Z0 S0 F1600
G1 Y1 Z0 F1600
G1 X-0.625 Z0 F1600
G1 X-18.99 Z0 S900 F1600
G1 X-4.553 Z0 S0 F1600
G1 X-10.197 Z0 S900 F1600
G1 X-13.76 Z0 S0 F1600
G1 X-13.458 Z0 S900 F1600
G1 X-4.982 Z0 S0 F1600
G1 X-18.07 Z0 S900 F1600
G1 X-0.625 Z0 S0 F1600
G1 Y1 Z0 F1600
G1 X0.625 Z0 F1600
G1 X18.315 Z0 S900 F1600
G1 X4.967 Z0 S0 F1600
G1 X12.521 Z0 S900 F1600
G1 X15.381 Z0 S0 F1600
G1 X9.292 Z0 S900 F1600
G1 X4.215 Z0 S0 F1600
G1 X19.319 Z0 S900 F1600
G1 X0.625 Z0 S0 F1600
G1 Y1 Z0 F1600
G1 X-0.625 Z0 F1600
G1 X-19.963 Z0 S900 F1600
G1 X-3.038 Z0 S0 F1600
G1 X-9.075 Z0 S900 F1600
G90

; Color picking sequence
G1 Z10 F1000;         ; Raise brush to safe height
G0 X86 Y5 F1200;    ; Rapid move to color 1 position
G1 Z0 F1000;         ; Lower into color - controlled movement
G1 X85.102Y7.295Z0S800F1200
G1 X85.026Y7.642Z0F1200
G1 X85Y8Z0F1200
G1 X85.026Y8.358Z0F1200
G1 X85.102Y8.705Z0F1200
G1 X85.225Y9.041Z0F1200
G1 X85.393Y9.362Z0F1200
G1 X85.603Y9.668Z0F1200
G1 X85.854Y9.957Z0F1200
G1 X86.142Y10.226Z0F1200
G1 X86.464Y10.475Z0F1200
G1 X86.82Y10.701Z0F1200
G1 X87.204Y10.902Z0F1200
G1 X87.617Y11.078Z0F1200
G1 X88.054Y11.225Z0F1200
G1 X88.513Y11.343Z0F1200
G1 X88.992Y11.429Z0F1200
G1 X89.489Y11.482Z0F1200
G1 X90Y11.5Z0F1200
G1 X90.511Y11.482Z0F1200
G1 X91.008Y11.429Z0F1200
G1 X91.487Y11.343Z0F1200
G1 X91.946Y11.225Z0F1200
G1 X92.383Y11.078Z0F1200
G1 X92.796Y10.902Z0F1200
G1 X93.18Y10.701Z0F1200
G1 X93.536Y10.475Z0F1200
G1 X93.858Y10.226Z0F1200
G1 X94.146Y9.957Z0F1200
G1 X94.397Y9.668Z0F1200
G1 X94.607Y9.362Z0F1200
G1 X94.775Y9.041Z0F1200
G1 X94.898Y8.705Z0F1200
G1 X94.974Y8.358Z0F1200
G1 X95Y8Z0F1200
G1 X94.974Y7.642Z0F1200
G1 X94.898Y7.295Z0F1200
G1 X94.775Y6.959Z0F1200
G1 X94.607Y6.638Z0F1200
G1 X94.397Y6.332Z0F1200
G1 X94.146Y6.043Z0F1200
G1 X93.858Y5.774Z0F1200
G1 X93.536Y5.525Z0F1200
G1 X93.18Y5.299Z0F1200
G1 X92.796Y5.098Z0F1200
G1 X92.383Y4.922Z0F1200
G1 X91.946Y4.775Z0F1200
G1 X91.487Y4.657Z0F1200
G1 X91.008Y4.571Z0F1200
G1 X90.511Y4.518Z0F1200
G1 X90Y4.5Z0F1200
G1 X89.489Y4.518Z0F1200
G1 X88.992Y4.571Z0F1200
G1 X88.513Y4.657Z0F1200
G1 X88.054Y4.775Z0F1200
G1 X87.617Y4.922Z0F1200
G1 X87.204Y5.098Z0F1200
G1 X86.82Y5.299Z0F1200
G1 X86.464Y5.525Z0F1200
G1 X86.142Y5.774Z0F1200
G1 X85.854Y6.043Z0F1200
G1 X85.603Y6.332Z0F1200
G1 X85.393Y6.638Z0F1200
G1 X85.225Y6.959Z0F1200
G1 Z7 F800;         ; Raise from color - controlled movement
G1 X79 Y8 Z1 F1200;     ; Movement in paint - controlled movement
G1 X69 Y18 Z8 F500;     ; Move in paint - controlled movement
G1 F1200;           ; Set feed rate to 1000

G91
G90

; Return to drawing position
G0 X68.929 Y66.500 F1200;  ; Return to position with raised Z
G1 Z0 F1000;                       ; Lower Z to drawing position

G91
G1 X-8.588 Z0 S0 F1600
G1 X-0.685 Z0 S900 F1600
G1 X-7.537 Z0 S0 F1600
G1 X-11.719 Z0 S900 F1600
G1 X-4.746 Z0 S0 F1600
G1 X-18.659 Z0 S900 F1600
G1 X-0.625 Z0 S0 F1600
G1 Y1 Z0 F1600
G1 X0.625 Z0 F1600
G1 X19.161 Z0 S900 F1600
G1 X4.057 Z0 S0 F1600
G1 X11.27 Z0 S900 F1600
G1 X7.381 Z0 S0 F1600
G1 X2.658 Z0 S900 F1600
G1 X7.935 Z0 S0 F1600
G1 X8.85 Z0 S900 F1600
G1 X2.071 Z0 S0 F1600
G1 X20.627 Z0 S900 F1600
G1 X0.625 Z0 S0 F1600
G1 Y1 Z0 F1600
G1 X-0.625 Z0 F1600
G1 X-22.113 Z0 S900 F1600
G1 X-2.159 Z0 S0 F1600
G1 X-7.03 Z0 S900 F1600
G1 X-7.044 Z0 S0 F1600
G1 X-4.506 Z0 S900 F1600
G1 X-7.222 Z0 S0 F1600
G1 X-11.13 Z0 S900 F1600
G1 X-2.679 Z0 S0 F1600
G1 X-20.127 Z0 S900 F1600
G1 X-0.625 Z0 S0 F1600
G1 Y1 Z0 F1600
G1 X0.625 Z0 F1600
G1 X21.213 Z0 S900 F1600
G1 X2.446 Z0 S0 F1600
G1 X9.856 Z0 S900 F1600
G1 X6.946 Z0 S0 F1600
G1 X6.379 Z0 S900 F1600
G1 X5.832 Z0 S0 F1600
G1 X5.34 Z0 S900 F1600
G1 X3.469 Z0 S0 F1600
G1 X22.529 Z0 S900 F1600
G1 X0.625 Z0 S0 F1600
G1 Y1 Z0 F1600
G1 X-0.625 Z0 F1600
G1 X-22.501 Z0 S900 F1600
G1 X-4.23 Z0 S0 F1600
G1 X-3.743 Z0 S900 F1600
G1 X-5.306 Z0 S0 F1600
G1 X-8.478 Z0 S900 F1600
G1 X-6.51 Z0 S0 F1600
G1 X-7.95 Z0 S900 F1600
G1 X-3.392 Z0 S0 F1600
G1 X-21.9 Z0 S900 F1600
G1 X-0.625 Z0 S0 F1600
G1 Y1 Z0 F1600
G1 X0.625 Z0 F1600
G1 X21.686 Z0 S900 F1600
G90

; Color picking sequence
G1 Z10 F1000;         ; Raise brush to safe height
G0 X86 Y5 F1200;    ; Rapid move to color 1 position
G1 Z0 F1000;         ; Lower into color - controlled movement
G1 X85.102Y7.295Z0S800F1200
G1 X85.026Y7.642Z0F1200
G1 X85Y8Z0F1200
G1 X85.026Y8.358Z0F1200
G1 X85.102Y8.705Z0F1200
G1 X85.225Y9.041Z0F1200
G1 X85.393Y9.362Z0F1200
G1 X85.603Y9.668Z0F1200
G1 X85.854Y9.957Z0F1200
G1 X86.142Y10.226Z0F1200
G1 X86.464Y10.475Z0F1200
G1 X86.82Y10.701Z0F1200
G1 X87.204Y10.902Z0F1200
G1 X87.617Y11.078Z0F1200
G1 X88.054Y11.225Z0F1200
G1 X88.513Y11.343Z0F1200
G1 X88.992Y11.429Z0F1200
G1 X89.489Y11.482Z0F1200
G1 X90Y11.5Z0F1200
G1 X90.511Y11.482Z0F1200
G1 X91.008Y11.429Z0F1200
G1 X91.487Y11.343Z0F1200
G1 X91.946Y11.225Z0F1200
G1 X92.383Y11.078Z0F1200
G1 X92.796Y10.902Z0F1200
G1 X93.18Y10.701Z0F1200
G1 X93.536Y10.475Z0F1200
G1 X93.858Y10.226Z0F1200
G1 X94.146Y9.957Z0F1200
G1 X94.397Y9.668Z0F1200
G1 X94.607Y9.362Z0F1200
G1 X94.775Y9.041Z0F1200
G1 X94.898Y8.705Z0F1200
G1 X94.974Y8.358Z0F1200
G1 X95Y8Z0F1200
G1 X94.974Y7.642Z0F1200
G1 X94.898Y7.295Z0F1200
G1 X94.775Y6.959Z0F1200
G1 X94.607Y6.638Z0F1200
G1 X94.397Y6.332Z0F1200
G1 X94.146Y6.043Z0F1200
G1 X93.858Y5.774Z0F1200
G1 X93.536Y5.525Z0F1200
G1 X93.18Y5.299Z0F1200
G1 X92.796Y5.098Z0F1200
G1 X92.383Y4.922Z0F1200
G1 X91.946Y4.775Z0F1200
G1 X91.487Y4.657Z0F1200
G1 X91.008Y4.571Z0F1200
G1 X90.511Y4.518Z0F1200
G1 X90Y4.5Z0F1200
G1 X89.489Y4.518Z0F1200
G1 X88.992Y4.571Z0F1200
G1 X88.513Y4.657Z0F1200
G1 X88.054Y4.775Z0F1200
G1 X87.617Y4.922Z0F1200
G1 X87.204Y5.098Z0F1200
G1 X86.82Y5.299Z0F1200
G1 X86.464Y5.525Z0F1200
G1 X86.142Y5.774Z0F1200
G1 X85.854Y6.043Z0F1200
G1 X85.603Y6.332Z0F1200
G1 X85.393Y6.638Z0F1200
G1 X85.225Y6.959Z0F1200
G1 Z7 F800;         ; Raise from color - controlled movement
G1 X79 Y8 Z1 F1200;     ; Movement in paint - controlled movement
G1 X69 Y18 Z8 F500;     ; Move in paint - controlled movement
G1 F1200;           ; Set feed rate to 1000

G91
G90

; Return to drawing position
G0 X38.681 Y71.500 F1200;  ; Return to position with raised Z
G1 Z0 F1000;                       ; Lower Z to drawing position

G91
G1 X4.262 Z0 S0 F1600
G1 X7.215 Z0 S900 F1600
G1 X5.836 Z0 S0 F1600
G1 X12.866 Z0 S900 F1600
G1 X1.14 Z0 S0 F1600
G1 X3.862 Z0 S900 F1600
G1 X4.657 Z0 S0 F1600
G1 X22.486 Z0 S900 F1600
G1 X0.625 Z0 S0 F1600
G1 Y1 Z0 F1600
G1 X-0.625 Z0 F1600
G1 X-22.607 Z0 S900 F1600
G1 X-4.987 Z0 S0 F1600
G1 X-18.268 Z0 S900 F1600
G1 X-4.781 Z0 S0 F1600
G1 X-6.923 Z0 S900 F1600
G1 X-4.765 Z0 S0 F1600
G1 X-21.679 Z0 S900 F1600
G1 X-0.625 Z0 S0 F1600
G1 Y1 Z0 F1600
G1 X0.625 Z0 F1600
G1 X21.839 Z0 S900 F1600
G1 X5.167 Z0 S0 F1600
G1 X6.681 Z0 S900 F1600
G1 X3.281 Z0 S0 F1600
G1 X18.851 Z0 S900 F1600
G1 X5.254 Z0 S0 F1600
G1 X22.937 Z0 S900 F1600
G1 X0.625 Z0 S0 F1600
G1 Y1 Z0 F1600
G1 X-0.625 Z0 F1600
G1 X-23.377 Z0 S900 F1600
G1 X-5.545 Z0 S0 F1600
G1 X-20.416 Z0 S900 F1600
G1 X-1.322 Z0 S0 F1600
G1 X-5.507 Z0 S900 F1600
G1 X-5.671 Z0 S0 F1600
G1 X-22.172 Z0 S900 F1600
G1 X-0.625 Z0 S0 F1600
G1 Y1 Z0 F1600
G1 X0.625 Z0 F1600
G1 X22.672 Z0 S900 F1600
G1 X6.254 Z0 S0 F1600
G1 X25.327 Z0 S900 F1600
G1 X5.873 Z0 S0 F1600
G1 X23.884 Z0 S900 F1600
G90

; Color picking sequence
G1 Z10 F1000;         ; Raise brush to safe height
G0 X86 Y5 F1200;    ; Rapid move to color 1 position
G1 Z0 F1000;         ; Lower into color - controlled movement
G1 X85.102Y7.295Z0S800F1200
G1 X85.026Y7.642Z0F1200
G1 X85Y8Z0F1200
G1 X85.026Y8.358Z0F1200
G1 X85.102Y8.705Z0F1200
G1 X85.225Y9.041Z0F1200
G1 X85.393Y9.362Z0F1200
G1 X85.603Y9.668Z0F1200
G1 X85.854Y9.957Z0F1200
G1 X86.142Y10.226Z0F1200
G1 X86.464Y10.475Z0F1200
G1 X86.82Y10.701Z0F1200
G1 X87.204Y10.902Z0F1200
G1 X87.617Y11.078Z0F1200
G1 X88.054Y11.225Z0F1200
G1 X88.513Y11.343Z0F1200
G1 X88.992Y11.429Z0F1200
G1 X89.489Y11.482Z0F1200
G1 X90Y11.5Z0F1200
G1 X90.511Y11.482Z0F1200
G1 X91.008Y11.429Z0F1200
G1 X91.487Y11.343Z0F1200
G1 X91.946Y11.225Z0F1200
G1 X92.383Y11.078Z0F1200
G1 X92.796Y10.902Z0F1200
G1 X93.18Y10.701Z0F1200
G1 X93.536Y10.475Z0F1200
G1 X93.858Y10.226Z0F1200
G1 X94.146Y9.957Z0F1200
G1 X94.397Y9.668Z0F1200
G1 X94.607Y9.362Z0F1200
G1 X94.775Y9.041Z0F1200
G1 X94.898Y8.705Z0F1200
G1 X94.974Y8.358Z0F1200
G1 X95Y8Z0F1200
G1 X94.974Y7.642Z0F1200
G1 X94.898Y7.295Z0F1200
G1 X94.775Y6.959Z0F1200
G1 X94.607Y6.638Z0F1200
G1 X94.397Y6.332Z0F1200
G1 X94.146Y6.043Z0F1200
G1 X93.858Y5.774Z0F1200
G1 X93.536Y5.525Z0F1200
G1 X93.18Y5.299Z0F1200
G1 X92.796Y5.098Z0F1200
G1 X92.383Y4.922Z0F1200
G1 X91.946Y4.775Z0F1200
G1 X91.487Y4.657Z0F1200
G1 X91.008Y4.571Z0F1200
G1 X90.511Y4.518Z0F1200
G1 X90Y4.5Z0F1200
G1 X89.489Y4.518Z0F1200
G1 X88.992Y4.571Z0F1200
G1 X88.513Y4.657Z0F1200
G1 X88.054Y4.775Z0F1200
G1 X87.617Y4.922Z0F1200
G1 X87.204Y5.098Z0F1200
G1 X86.82Y5.299Z0F1200
G1 X86.464Y5.525Z0F1200
G1 X86.142Y5.774Z0F1200
G1 X85.854Y6.043Z0F1200
G1 X85.603Y6.332Z0F1200
G1 X85.393Y6.638Z0F1200
G1 X85.225Y6.959Z0F1200
G1 Z7 F800;         ; Raise from color - controlled movement
G1 X79 Y8 Z1 F1200;     ; Movement in paint - controlled movement
G1 X69 Y18 Z8 F500;     ; Move in paint - controlled movement
G1 F1200;           ; Set feed rate to 1000

G91
G90

; Return to drawing position
G0 X101.005 Y75.500 F1200;  ; Return to position with raised Z
G1 Z0 F1000;                       ; Lower Z to drawing position

G91
G1 X0.625 Z0 S0 F1600
G1 Y1 Z0 F1600
G1 X-0.625 Z0 F1600
G1 X-24.464 Z0 S900 F1600
G1 X-6.482 Z0 S0 F1600
G1 X-22.879 Z0 S900 F1600
G1 X-6.859 Z0 S0 F1600
G1 X-23.326 Z0 S900 F1600
G1 X-0.625 Z0 S0 F1600
G1 Y1 Z0 F1600
G1 X0.625 Z0 F1600
G1 X24.134 Z0 S900 F1600
G1 X7.367 Z0 S0 F1600
G1 X20.423 Z0 S900 F1600
G1 X6.934 Z0 S0 F1600
G1 X25.152 Z0 S900 F1600
G1 X0.625 Z0 S0 F1600
G1 Y1 Z0 F1600
G1 X-0.625 Z0 F1600
G1 X-26.042 Z0 S900 F1600
G1 X-6.529 Z0 S0 F1600
G1 X-19.153 Z0 S900 F1600
G1 X-7.195 Z0 S0 F1600
G1 X-25.091 Z0 S900 F1600
G1 X-0.625 Z0 S0 F1600
G1 Y1 Z0 F1600
G1 X0.625 Z0 F1600
G1 X26.175 Z0 S900 F1600
G1 X6.367 Z0 S0 F1600
G1 X1.695 Z0 S900 F1600
G1 X1.238 Z0 S0 F1600
G1 X0.482 Z0 S900 F1600
G1 X1.724 Z0 S0 F1600
G1 X13.779 Z0 S900 F1600
G1 X5.431 Z0 S0 F1600
G1 X27.119 Z0 S900 F1600
G1 X0.625 Z0 S0 F1600
G1 Y1 Z0 F1600
G1 X-0.625 Z0 F1600
G1 X-28.533 Z0 S900 F1600
G1 X-4.358 Z0 S0 F1600
G1 X-1.346 Z0 S900 F1600
G1 X-6.976 Z0 S0 F1600
G1 X-0.707 Z0 S900 F1600
G1 X-8.066 Z0 S0 F1600
G1 X-0.789 Z0 S900 F1600
G1 X-5.773 Z0 S0 F1600
G90

; Color picking sequence
G1 Z10 F1000;         ; Raise brush to safe height
G0 X86 Y5 F1200;    ; Rapid move to color 1 position
G1 Z0 F1000;         ; Lower into color - controlled movement
G1 X85.102Y7.295Z0S800F1200
G1 X85.026Y7.642Z0F1200
G1 X85Y8Z0F1200
G1 X85.026Y8.358Z0F1200
G1 X85.102Y8.705Z0F1200
G1 X85.225Y9.041Z0F1200
G1 X85.393Y9.362Z0F1200
G1 X85.603Y9.668Z0F1200
G1 X85.854Y9.957Z0F1200
G1 X86.142Y10.226Z0F1200
G1 X86.464Y10.475Z0F1200
G1 X86.82Y10.701Z0F1200
G1 X87.204Y10.902Z0F1200
G1 X87.617Y11.078Z0F1200
G1 X88.054Y11.225Z0F1200
G1 X88.513Y11.343Z0F1200
G1 X88.992Y11.429Z0F1200
G1 X89.489Y11.482Z0F1200
G1 X90Y11.5Z0F1200
G1 X90.511Y11.482Z0F1200
G1 X91.008Y11.429Z0F1200
G1 X91.487Y11.343Z0F1200
G1 X91.946Y11.225Z0F1200
G1 X92.383Y11.078Z0F1200
G1 X92.796Y10.902Z0F1200
G1 X93.18Y10.701Z0F1200
G1 X93.536Y10.475Z0F1200
G1 X93.858Y10.226Z0F1200
G1 X94.146Y9.957Z0F1200
G1 X94.397Y9.668Z0F1200
G1 X94.607Y9.362Z0F1200
G1 X94.775Y9.041Z0F1200
G1 X94.898Y8.705Z0F1200
G1 X94.974Y8.358Z0F1200
G1 X95Y8Z0F1200
G1 X94.974Y7.642Z0F1200
G1 X94.898Y7.295Z0F1200
G1 X94.775Y6.959Z0F1200
G1 X94.607Y6.638Z0F1200
G1 X94.397Y6.332Z0F1200
G1 X94.146Y6.043Z0F1200
G1 X93.858Y5.774Z0F1200
G1 X93.536Y5.525Z0F1200
G1 X93.18Y5.299Z0F1200
G1 X92.796Y5.098Z0F1200
G1 X92.383Y4.922Z0F1200
G1 X91.946Y4.775Z0F1200
G1 X91.487Y4.657Z0F1200
G1 X91.008Y4.571Z0F1200
G1 X90.511Y4.518Z0F1200
G1 X90Y4.5Z0F1200
G1 X89.489Y4.518Z0F1200
G1 X88.992Y4.571Z0F1200
G1 X88.513Y4.657Z0F1200
G1 X88.054Y4.775Z0F1200
G1 X87.617Y4.922Z0F1200
G1 X87.204Y5.098Z0F1200
G1 X86.82Y5.299Z0F1200
G1 X86.464Y5.525Z0F1200
G1 X86.142Y5.774Z0F1200
G1 X85.854Y6.043Z0F1200
G1 X85.603Y6.332Z0F1200
G1 X85.393Y6.638Z0F1200
G1 X85.225Y6.959Z0F1200
G1 Z7 F800;         ; Raise from color - controlled movement
G1 X79 Y8 Z1 F1200;     ; Movement in paint - controlled movement
G1 X69 Y18 Z8 F500;     ; Move in paint - controlled movement
G1 F1200;           ; Set feed rate to 1000

G91
G90

; Return to drawing position
G0 X44.457 Y80.500 F1200;  ; Return to position with raised Z
G1 Z0 F1000;                       ; Lower Z to drawing position

G91
G1 X-27.462 Z0 S900 F1600
G1 X-0.625 Z0 S0 F1600
G1 Y1 Z0 F1600
G1 X0.625 Z0 F1600
G1 X29.371 Z0 S900 F1600
G1 X3.369 Z0 S0 F1600
G1 X1.9 Z0 S900 F1600
G1 X15.332 Z0 S0 F1600
G1 X1.851 Z0 S900 F1600
G1 X1.166 Z0 S0 F1600
G1 X31.021 Z0 S900 F1600
G1 X0.625 Z0 S0 F1600
G1 Y1 Z0 F1600
G1 X-0.625 Z0 F1600
G1 X-35.022 Z0 S900 F1600
G1 X-14.002 Z0 S0 F1600
G1 X-34.986 Z0 S900 F1600
G1 X-0.625 Z0 S0 F1600
G1 Y1 Z0 F1600
G1 X0.625 Z0 F1600
G1 X35.905 Z0 S900 F1600
G1 X12.383 Z0 S0 F1600
G1 X35.722 Z0 S900 F1600
G1 X0.625 Z0 S0 F1600
G1 Y1 Z0 F1600
G1 X-0.625 Z0 F1600
G1 X-37.298 Z0 S900 F1600
G1 X-9.207 Z0 S0 F1600
G1 X-37.505 Z0 S900 F1600
G1 X-0.625 Z0 S0 F1600
G1 Y1 Z0 F1600
G1 X0.625 Z0 F1600
G1 X84.01 Z0 S900 F1600
G90

; Color picking sequence
G1 Z10 F1000;         ; Raise brush to safe height
G0 X86 Y5 F1200;    ; Rapid move to color 1 position
G1 Z0 F1000;         ; Lower into color - controlled movement
G1 X85.102Y7.295Z0S800F1200
G1 X85.026Y7.642Z0F1200
G1 X85Y8Z0F1200
G1 X85.026Y8.358Z0F1200
G1 X85.102Y8.705Z0F1200
G1 X85.225Y9.041Z0F1200
G1 X85.393Y9.362Z0F1200
G1 X85.603Y9.668Z0F1200
G1 X85.854Y9.957Z0F1200
G1 X86.142Y10.226Z0F1200
G1 X86.464Y10.475Z0F1200
G1 X86.82Y10.701Z0F1200
G1 X87.204Y10.902Z0F1200
G1 X87.617Y11.078Z0F1200
G1 X88.054Y11.225Z0F1200
G1 X88.513Y11.343Z0F1200
G1 X88.992Y11.429Z0F1200
G1 X89.489Y11.482Z0F1200
G1 X90Y11.5Z0F1200
G1 X90.511Y11.482Z0F1200
G1 X91.008Y11.429Z0F1200
G1 X91.487Y11.343Z0F1200
G1 X91.946Y11.225Z0F1200
G1 X92.383Y11.078Z0F1200
G1 X92.796Y10.902Z0F1200
G1 X93.18Y10.701Z0F1200
G1 X93.536Y10.475Z0F1200
G1 X93.858Y10.226Z0F1200
G1 X94.146Y9.957Z0F1200
G1 X94.397Y9.668Z0F1200
G1 X94.607Y9.362Z0F1200
G1 X94.775Y9.041Z0F1200
G1 X94.898Y8.705Z0F1200
G1 X94.974Y8.358Z0F1200
G1 X95Y8Z0F1200
G1 X94.974Y7.642Z0F1200
G1 X94.898Y7.295Z0F1200
G1 X94.775Y6.959Z0F1200
G1 X94.607Y6.638Z0F1200
G1 X94.397Y6.332Z0F1200
G1 X94.146Y6.043Z0F1200
G1 X93.858Y5.774Z0F1200
G1 X93.536Y5.525Z0F1200
G1 X93.18Y5.299Z0F1200
G1 X92.796Y5.098Z0F1200
G1 X92.383Y4.922Z0F1200
G1 X91.946Y4.775Z0F1200
G1 X91.487Y4.657Z0F1200
G1 X91.008Y4.571Z0F1200
G1 X90.511Y4.518Z0F1200
G1 X90Y4.5Z0F1200
G1 X89.489Y4.518Z0F1200
G1 X88.992Y4.571Z0F1200
G1 X88.513Y4.657Z0F1200
G1 X88.054Y4.775Z0F1200
G1 X87.617Y4.922Z0F1200
G1 X87.204Y5.098Z0F1200
G1 X86.82Y5.299Z0F1200
G1 X86.464Y5.525Z0F1200
G1 X86.142Y5.774Z0F1200
G1 X85.854Y6.043Z0F1200
G1 X85.603Y6.332Z0F1200
G1 X85.393Y6.638Z0F1200
G1 X85.225Y6.959Z0F1200
G1 Z7 F800;         ; Raise from color - controlled movement
G1 X79 Y8 Z1 F1200;     ; Movement in paint - controlled movement
G1 X69 Y18 Z8 F500;     ; Move in paint - controlled movement
G1 F1200;           ; Set feed rate to 1000

G91
G90

; Return to drawing position
G0 X101.005 Y85.500 F1200;  ; Return to position with raised Z
G1 Z0 F1000;                       ; Lower Z to drawing position

G91
G1 X0.625 Z0 S0 F1600
G1 Y1 Z0 F1600
G1 X-0.625 Z0 F1600
G1 X-84.01 Z0 S900 F1600
G1 X-0.625 Z0 S0 F1600
G1 Y1 Z0 F1600
G1 X0.625 Z0 F1600
G1 X84.01 Z0 S900 F1600
G1 X0.625 Z0 S0 F1600
G1 Y1 Z0 F1600
G1 X-0.625 Z0 F1600
G1 X-84.01 Z0 S900 F1600
G1 X-0.625 Z0 S0 F1600
G90
;Offset @ 1200 mm/min, 80% power

M8

; Washing sequence (no color)
G1 Z10 F1000;        ; Raise brush to safe height
G0 X5 Y5 F1200;     ; Rapid move to brush cleaning position
G1 Z-1 F800;         ; Lower brush for cleaning - controlled movement
G1 X10 Y12 Z8 F1200;     ; Rapid move to brush cleaning position
G1 Z-1 F800;         ; Lower brush for cleaning - controlled movement
G1 X25 Y14 Z6 F800;     ; Move across cleaning area - controlled movement
G1 Z8 F800;         ; Maintain brush height - controlled movement
G0 X5 Y5 F1200;     ; Rapid move to brush cleaning position
G1 Z-1 F800;         ; Lower brush for cleaning - controlled movement
G1 X15 Y12 Z8 F1200;     ; Rapid move to brush cleaning position
G1 Z-1 F800;         ; Lower brush for cleaning - controlled movement
G1 X25 Y14 Z6 F800;     ; Move across cleaning area - controlled movement
G1 Z10 F800;         ; Maintain brush height - controlled movement
G1 F1200;           ; Set feed rate to 1000

; Color picking sequence
G1 Z10 F1000;         ; Raise brush to safe height
G0 X131 Y5 F1200;    ; Rapid move to color 1 position
G1 Z0 F1000;         ; Lower into color - controlled movement
G1 X130.102Y7.295Z0S800F1200
G1 X130.026Y7.642Z0F1200
G1 X130Y8Z0F1200
G1 X130.026Y8.358Z0F1200
G1 X130.102Y8.705Z0F1200
G1 X130.225Y9.041Z0F1200
G1 X130.393Y9.362Z0F1200
G1 X130.603Y9.668Z0F1200
G1 X130.854Y9.957Z0F1200
G1 X131.142Y10.226Z0F1200
G1 X131.464Y10.475Z0F1200
G1 X131.82Y10.701Z0F1200
G1 X132.204Y10.902Z0F1200
G1 X132.617Y11.078Z0F1200
G1 X133.054Y11.225Z0F1200
G1 X133.513Y11.343Z0F1200
G1 X133.992Y11.429Z0F1200
G1 X134.489Y11.482Z0F1200
G1 X135Y11.5Z0F1200
G1 X135.511Y11.482Z0F1200
G1 X136.008Y11.429Z0F1200
G1 X136.487Y11.343Z0F1200
G1 X136.946Y11.225Z0F1200
G1 X137.383Y11.078Z0F1200
G1 X137.796Y10.902Z0F1200
G1 X138.18Y10.701Z0F1200
G1 X138.536Y10.475Z0F1200
G1 X138.858Y10.226Z0F1200
G1 X139.146Y9.957Z0F1200
G1 X139.397Y9.668Z0F1200
G1 X139.607Y9.362Z0F1200
G1 X139.775Y9.041Z0F1200
G1 X139.898Y8.705Z0F1200
G1 X139.974Y8.358Z0F1200
G1 X140Y8Z0F1200
G1 X139.974Y7.642Z0F1200
G1 X139.898Y7.295Z0F1200
G1 X139.775Y6.959Z0F1200
G1 X139.607Y6.638Z0F1200
G1 X139.397Y6.332Z0F1200
G1 X139.146Y6.043Z0F1200
G1 X138.858Y5.774Z0F1200
G1 X138.536Y5.525Z0F1200
G1 X138.18Y5.299Z0F1200
G1 X137.796Y5.098Z0F1200
G1 X137.383Y4.922Z0F1200
G1 X136.946Y4.775Z0F1200
G1 X136.487Y4.657Z0F1200
G1 X136.008Y4.571Z0F1200
G1 X135.511Y4.518Z0F1200
G1 X135Y4.5Z0F1200
G1 X134.489Y4.518Z0F1200
G1 X133.992Y4.571Z0F1200
G1 X133.513Y4.657Z0F1200
G1 X133.054Y4.775Z0F1200
G1 X132.617Y4.922Z0F1200
G1 X132.204Y5.098Z0F1200
G1 X131.82Y5.299Z0F1200
G1 X131.464Y5.525Z0F1200
G1 X131.142Y5.774Z0F1200
G1 X130.854Y6.043Z0F1200
G1 X130.603Y6.332Z0F1200
G1 X130.393Y6.638Z0F1200
G1 X130.225Y6.959Z0F1200
G1 Z7 F800;         ; Raise from color - controlled movement
G1 X124 Y8 Z1 F1200;     ; Movement in paint - controlled movement
G1 X114 Y18 Z8 F500;     ; Move in paint - controlled movement
G1 F1200;           ; Set feed rate to 1000
G0 Z3.5 F1000
G0 X40.817 Y71.875 Z3.5 F1500
G1 Z0 F1000
;Layer C3
G1 X40.875 Y71.883 Z0 S800 F1600
G1 X40.942 Y71.937 Z0 F1600
G1 X41.047 Y72.041 Z0 F1600
G1 X41.086 Y72.091 Z0 F1600
G1 X41.133 Y72.189 Z0 F1600
G1 X41.201 Y72.346 Z0 F1600
G1 X41.29 Y72.564 Z0 F1600
G1 X41.655 Y73.398 Z0 F1600
G1 X42.115 Y74.236 Z0 F1600
G1 X42.643 Y75.018 Z0 F1600
G1 X43.217 Y75.711 Z0 F1600
G1 X43.469 Y75.97 Z0 F1600
G1 X43.741 Y76.228 Z0 F1600
G1 X44.04 Y76.5 Z0 F1600
G1 X44.368 Y76.788 Z0 F1600
G1 X45.052 Y77.359 Z0 F1600
G1 X45.716 Y77.876 Z0 F1600
G1 X46.176 Y78.222 Z0 F1600
G1 X46.447 Y78.429 Z0 F1600
G1 X46.678 Y78.596 Z0 F1600
G1 X46.822 Y78.662 Z0 F1600
G1 X46.914 Y78.731 Z0 F1600
G1 X47.065 Y78.852 Z0 F1600
G1 X47.228 Y78.987 Z0 F1600
G1 X47.356 Y79.099 Z0 F1600
G1 X47.416 Y79.154 Z0 F1600
G1 X47.485 Y79.256 Z0 F1600
G1 X47.524 Y79.337 Z0 F1600
G1 X47.538 Y79.389 Z0 F1600
G1 X47.545 Y79.468 Z0 F1600
G1 X47.526 Y79.506 Z0 F1600
G1 X47.427 Y79.669 Z0 F1600
G1 X47.381 Y79.723 Z0 F1600
G1 X47.326 Y79.717 Z0 F1600
G1 X47.171 Y79.674 Z0 F1600
G1 X46.831 Y79.537 Z0 F1600
G1 X46.4 Y79.327 Z0 F1600
G1 X45.926 Y79.061 Z0 F1600
G1 X45.444 Y78.761 Z0 F1600
G1 X44.949 Y78.421 Z0 F1600
G1 X44.482 Y78.069 Z0 F1600
G1 X44.039 Y77.702 Z0 F1600
G1 X43.651 Y77.344 Z0 F1600
G1 X42.993 Y76.666 Z0 F1600
G1 X42.414 Y75.997 Z0 F1600
G1 X41.918 Y75.347 Z0 F1600
G1 X41.505 Y74.718 Z0 F1600
G1 X41.165 Y74.098 Z0 F1600
G1 X40.901 Y73.502 Z0 F1600
G1 X40.705 Y72.919 Z0 F1600
G1 X40.58 Y72.373 Z0 F1600
G1 X40.564 Y72.212 Z0 F1600
G1 X40.571 Y72.045 Z0 F1600
G1 X40.58 Y72 Z0 F1600
G1 X40.589 Y71.992 Z0 F1600
G1 X40.771 Y71.881 Z0 F1600
G1 X40.79 Y71.874 Z0 F1600
G1 X40.817 Z0 F1600
G0 Z3.5 F1000
G0 X41.853 Y71.839 Z3.5 F1200
G1 Z0 F1000
G1 X41.939 Y72.037 Z0 F1600
G1 X42.027 Y72.254 Z0 F1600
G1 X42.373 Y73.044 Z0 F1600
G1 X42.799 Y73.819 Z0 F1600
G1 X43.284 Y74.538 Z0 F1600
G1 X43.813 Y75.176 Z0 F1600
G1 X44.031 Y75.401 Z0 F1600
G1 X44.285 Y75.642 Z0 F1600
G1 X44.572 Y75.903 Z0 F1600
G1 X44.888 Y76.18 Z0 F1600
G1 X45.554 Y76.736 Z0 F1600
G1 X46.203 Y77.241 Z0 F1600
G1 X46.663 Y77.586 Z0 F1600
G1 X46.925 Y77.788 Z0 F1600
G1 X47.083 Y77.902 Z0 F1600
G1 X47.22 Y77.965 Z0 F1600
G1 X47.271 Y78 Z0 F1600
G1 X47.405 Y78.1 Z0 F1600
G1 X47.563 Y78.226 Z0 F1600
G1 X47.748 Y78.379 Z0 F1600
G1 X47.893 Y78.506 Z0 F1600
G1 X48.001 Y78.607 Z0 F1600
G1 X48.037 Y78.645 Z0 F1600
G1 X48.181 Y78.856 Z0 F1600
G1 X48.276 Y79.055 Z0 F1600
G1 X48.329 Y79.246 Z0 F1600
G1 X48.348 Y79.464 Z0 F1600
G1 X48.344 Y79.6 Z0 F1600
G1 X48.334 Y79.658 Z0 F1600
G1 X48.308 Y79.73 Z0 F1600
G1 X48.228 Y79.894 Z0 F1600
G1 X48.078 Y80.138 Z0 F1600
G1 X47.94 Y80.3 Z0 F1600
G1 X47.806 Y80.41 Z0 F1600
G1 X47.68 Y80.477 Z0 F1600
G1 X47.542 Y80.516 Z0 F1600
G1 X47.379 Y80.528 Z0 F1600
G1 X47.172 Y80.504 Z0 F1600
G1 X46.914 Y80.434 Z0 F1600
G1 X46.504 Y80.268 Z0 F1600
G1 X46.033 Y80.038 Z0 F1600
G1 X45.521 Y79.752 Z0 F1600
G1 X45.006 Y79.43 Z0 F1600
G1 X44.482 Y79.07 Z0 F1600
G1 X43.979 Y78.691 Z0 F1600
G1 X43.522 Y78.314 Z0 F1600
G1 X43.089 Y77.914 Z0 F1600
G1 X42.401 Y77.204 Z0 F1600
G1 X41.793 Y76.502 Z0 F1600
G1 X41.267 Y75.812 Z0 F1600
G1 X40.816 Y75.125 Z0 F1600
G1 X40.449 Y74.458 Z0 F1600
G1 X40.154 Y73.792 Z0 F1600
G1 X39.934 Y73.138 Z0 F1600
G1 X39.788 Y72.5 Z0 F1600
G1 X39.763 Y72.232 Z0 F1600
G1 X39.774 Y71.958 Z0 F1600
G1 X39.818 Y71.722 Z0 F1600
G1 X39.872 Y71.576 Z0 F1600
G1 X39.879 Y71.565 Z0 F1600
G1 X39.933 Y71.503 Z0 F1600
G1 X40.025 Y71.418 Z0 F1600
G1 X40.138 Y71.331 Z0 F1600
G1 X40.412 Y71.163 Z0 F1600
G1 X40.625 Y71.079 Z0 F1600
G1 X40.701 Y71.07 Z0 F1600
G1 X40.888 Y71.077 Z0 F1600
G1 X41.092 Y71.106 Z0 F1600
G1 X41.196 Y71.137 Z0 F1600
G1 X41.295 Y71.194 Z0 F1600
G1 X41.472 Y71.335 Z0 F1600
G1 X41.648 Y71.51 Z0 F1600
G1 X41.762 Y71.657 Z0 F1600
G1 X41.789 Y71.705 Z0 F1600
G1 X41.853 Y71.839 Z0 F1600
G0 Z3.5 F1000
G0 X43.482 Y73.401 Z3.5 
G1 Z0 F1000
G1 X43.925 Y74.058 Z0 F1600
G1 X44.408 Y74.641 Z0 F1600
G1 X44.594 Y74.832 Z0 F1600
G1 X44.83 Y75.056 Z0 F1600
G1 X45.105 Y75.306 Z0 F1600
G1 X45.408 Y75.572 Z0 F1600
G1 X46.057 Y76.113 Z0 F1600
G1 X46.688 Y76.605 Z0 F1600
G1 X47.149 Y76.951 Z0 F1600
G1 X47.403 Y77.146 Z0 F1600
G1 X47.489 Y77.208 Z0 F1600
G1 X47.611 Y77.264 Z0 F1600
G1 X47.734 Y77.347 Z0 F1600
G1 X47.895 Y77.467 Z0 F1600
G1 X48.076 Y77.611 Z0 F1600
G1 X48.26 Y77.765 Z0 F1600
G1 X48.431 Y77.914 Z0 F1600
G1 X48.57 Y78.044 Z0 F1600
G1 X48.661 Y78.142 Z0 F1600
G1 X48.876 Y78.456 Z0 F1600
G1 X49.028 Y78.774 Z0 F1600
G1 X49.119 Y79.103 Z0 F1600
G1 X49.149 Y79.443 Z0 F1600
G1 X49.142 Y79.675 Z0 F1600
G1 X49.111 Y79.861 Z0 F1600
G1 X49.044 Y80.047 Z0 F1600
G1 X48.928 Y80.282 Z0 F1600
G1 X48.728 Y80.608 Z0 F1600
G1 X48.503 Y80.874 Z0 F1600
G1 X48.253 Y81.079 Z0 F1600
G1 X47.979 Y81.224 Z0 F1600
G1 X47.682 Y81.308 Z0 F1600
G1 X47.362 Y81.331 Z0 F1600
G1 X47.021 Y81.292 Z0 F1600
G1 X46.658 Y81.192 Z0 F1600
G1 X46.177 Y80.999 Z0 F1600
G1 X45.659 Y80.746 Z0 F1600
G1 X45.117 Y80.442 Z0 F1600
G1 X44.565 Y80.098 Z0 F1600
G1 X44.017 Y79.722 Z0 F1600
G1 X43.486 Y79.322 Z0 F1600
G1 X42.987 Y78.909 Z0 F1600
G1 X42.534 Y78.49 Z0 F1600
G1 X41.813 Y77.746 Z0 F1600
G1 X41.172 Y77.007 Z0 F1600
G1 X40.612 Y76.272 Z0 F1600
G1 X40.132 Y75.541 Z0 F1600
G1 X39.73 Y74.811 Z0 F1600
G1 X39.408 Y74.083 Z0 F1600
G1 X39.163 Y73.355 Z0 F1600
G1 X38.997 Y72.627 Z0 F1600
G1 X38.961 Y72.252 Z0 F1600
G1 X38.978 Y71.868 Z0 F1600
G1 X39.043 Y71.51 Z0 F1600
G1 X39.153 Y71.214 Z0 F1600
G1 X39.239 Y71.081 Z0 F1600
G1 X39.361 Y70.943 Z0 F1600
G1 X39.51 Y70.805 Z0 F1600
G1 X39.68 Y70.673 Z0 F1600
G1 X40.054 Y70.444 Z0 F1600
G1 X40.428 Y70.297 Z0 F1600
G1 X40.666 Y70.269 Z0 F1600
G1 X40.963 Y70.279 Z0 F1600
G1 X41.264 Y70.323 Z0 F1600
G1 X41.513 Y70.396 Z0 F1600
G1 X41.747 Y70.531 Z0 F1600
G1 X42.006 Y70.738 Z0 F1600
G1 X42.249 Y70.979 Z0 F1600
G1 X42.433 Y71.216 Z0 F1600
G1 X42.5 Y71.34 Z0 F1600
G1 X42.585 Y71.518 Z0 F1600
G1 X42.677 Y71.728 Z0 F1600
G1 X42.765 Y71.944 Z0 F1600
G1 X43.091 Y72.69 Z0 F1600
G1 X43.482 Y73.401 Z0 F1600
G0 Z3.5 F1000
G0 X40.206 Y68.974 Z3.5 
G1 Z0 F1000
G1 X40.254 Y68.992 Z0 F1600
G1 X40.267 Y69.033 Z0 F1600
G1 X40.254 Y69.104 Z0 F1600
G1 X40.228 Y69.301 Z0 F1600
G1 X40.216 Y69.582 Z0 F1600
G1 Y69.921 Z0 F1600
G1 X39.478 Y70.309 Z0 F1600
G1 X39.295 Y70.155 Z0 F1600
G1 X39.149 Y70.046 Z0 F1600
G1 X39.056 Y70.001 Z0 F1600
G1 X39.005 Y69.953 Z0 F1600
G1 Y69.833 Z0 F1600
G1 X39.051 Y69.673 Z0 F1600
G1 X39.137 Y69.508 Z0 F1600
G1 X39.329 Y69.314 Z0 F1600
G1 X39.608 Y69.138 Z0 F1600
G1 X39.895 Y69.022 Z0 F1600
G1 X40.116 Y68.971 Z0 F1600
G1 X40.206 Y68.974 Z0 F1600
G0 Z3.5 F1000
G0 X39.283 Y68.502 Z3.5 
G1 Z0 F1000
G1 X39.353 Y68.554 Z0 F1600
G1 X39.406 Y68.631 Z0 F1600
G1 X39.423 Y68.706 Z0 F1600
G1 X39.402 Y68.763 Z0 F1600
G1 X39.248 Y68.824 Z0 F1600
G1 X39.125 Y68.917 Z0 F1600
G1 X38.961 Y69.022 Z0 F1600
G1 X38.764 Y69.091 Z0 F1600
G1 X38.577 Y69.135 Z0 F1600
G1 X38.437 Y69.179 Z0 F1600
G1 X38.381 Y69.191 Z0 F1600
G1 X38.334 Y69.17 Z0 F1600
G1 X38.289 Y69.11 Z0 F1600
G1 X38.24 Y69.007 Z0 F1600
G1 X38.176 Y68.844 Z0 F1600
G1 X38.149 Y68.757 Z0 F1600
G1 X38.174 Y68.744 Z0 F1600
G1 X38.243 Y68.734 Z0 F1600
G1 X38.344 Y68.727 Z0 F1600
G1 X38.468 Y68.724 Z0 F1600
G1 X38.752 Y68.694 Z0 F1600
G1 X38.969 Y68.607 Z0 F1600
G1 X39.108 Y68.526 Z0 F1600
G1 X39.207 Y68.492 Z0 F1600
G1 X39.283 Y68.502 Z0 F1600
G0 Z3.5 F1000
G0 X38.211 Y56.8 Z3.5 
G1 Z0 F1000
G1 X38.25 Y56.896 Z0 F1600
G1 X38.277 Y57.01 Z0 F1600
G1 X38.296 Y57.163 Z0 F1600
G1 Y57.352 Z0 F1600
G1 X38.277 Y57.575 Z0 F1600
G1 X38.225 Y57.862 Z0 F1600
G1 X38.18 Y58.055 Z0 F1600
G1 X38.131 Y58.254 Z0 F1600
G1 X38.09 Y58.414 Z0 F1600
G1 X38.024 Y58.642 Z0 F1600
G1 X37.967 Y58.879 Z0 F1600
G1 X37.907 Y59.147 Z0 F1600
G1 X37.843 Y59.45 Z0 F1600
G1 X37.759 Y59.909 Z0 F1600
G1 X37.706 Y60.377 Z0 F1600
G1 X37.69 Y60.648 Z0 F1600
G1 X37.681 Y60.917 Z0 F1600
G1 X37.676 Y61.215 Z0 F1600
G1 Y61.56 Z0 F1600
G1 X37.681 Y62.024 Z0 F1600
G1 X37.699 Y62.47 Z0 F1600
G1 X37.731 Y62.905 Z0 F1600
G1 X37.781 Y63.332 Z0 F1600
G1 X37.848 Y63.757 Z0 F1600
G1 X37.933 Y64.188 Z0 F1600
G1 X38.037 Y64.631 Z0 F1600
G1 X38.155 Y65.086 Z0 F1600
G1 X38.257 Y65.465 Z0 F1600
G1 X38.327 Y65.73 Z0 F1600
G1 X38.383 Y65.964 Z0 F1600
G1 X38.413 Y66.106 Z0 F1600
G1 X38.445 Y66.325 Z0 F1600
G1 X38.455 Y66.53 Z0 F1600
G1 Y66.599 Z0 F1600
G1 X38.384 Y66.713 Z0 F1600
G1 X38.314 Y66.75 Z0 F1600
G1 X38.268 Z0 F1600
G1 X38.102 Y66.728 Z0 F1600
G1 X38.064 Y66.719 Z0 F1600
G1 X38.043 Y66.698 Z0 F1600
G1 X37.951 Y66.577 Z0 F1600
G1 X37.812 Y66.349 Z0 F1600
G1 X37.643 Y66.028 Z0 F1600
G1 X37.424 Y65.545 Z0 F1600
G1 X37.239 Y65.041 Z0 F1600
G1 X37.09 Y64.526 Z0 F1600
G1 X36.968 Y63.959 Z0 F1600
G1 X36.877 Y63.355 Z0 F1600
G1 X36.816 Y62.69 Z0 F1600
G1 X36.786 Y61.969 Z0 F1600
G1 Y61.175 Z0 F1600
G1 X36.801 Y60.697 Z0 F1600
G1 X36.82 Y60.315 Z0 F1600
G1 X36.846 Y60.007 Z0 F1600
G1 X36.881 Y59.745 Z0 F1600
G1 X36.924 Y59.523 Z0 F1600
G1 X36.986 Y59.28 Z0 F1600
G1 X37.074 Y58.99 Z0 F1600
G1 X37.187 Y58.656 Z0 F1600
G1 X37.369 Y58.178 Z0 F1600
G1 X37.549 Y57.779 Z0 F1600
G1 X37.744 Y57.42 Z0 F1600
G1 X37.987 Y57.037 Z0 F1600
G1 X38.149 Y56.804 Z0 F1600
G1 X38.186 Y56.754 Z0 F1600
G1 X38.211 Y56.8 Z0 F1600
G0 Z3.5 F1000
G0 X39.009 Y58.021 Z3.5 
G1 Z0 F1000
G1 X38.957 Y58.244 Z0 F1600
G1 X38.906 Y58.455 Z0 F1600
G1 X38.862 Y58.624 Z0 F1600
G1 X38.798 Y58.846 Z0 F1600
G1 X38.746 Y59.061 Z0 F1600
G1 X38.688 Y59.317 Z0 F1600
G1 X38.627 Y59.605 Z0 F1600
G1 X38.551 Y60.026 Z0 F1600
G1 X38.503 Y60.446 Z0 F1600
G1 X38.489 Y60.685 Z0 F1600
G1 X38.481 Y60.938 Z0 F1600
G1 X38.477 Y61.223 Z0 F1600
G1 Y61.557 Z0 F1600
G1 X38.481 Y62.003 Z0 F1600
G1 X38.498 Y62.425 Z0 F1600
G1 X38.528 Y62.829 Z0 F1600
G1 X38.573 Y63.224 Z0 F1600
G1 X38.636 Y63.618 Z0 F1600
G1 X38.715 Y64.02 Z0 F1600
G1 X38.813 Y64.438 Z0 F1600
G1 X38.928 Y64.881 Z0 F1600
G1 X39.03 Y65.257 Z0 F1600
G1 X39.104 Y65.543 Z0 F1600
G1 X39.166 Y65.796 Z0 F1600
G1 X39.201 Y65.964 Z0 F1600
G1 X39.242 Y66.246 Z0 F1600
G1 X39.255 Y66.526 Z0 F1600
G1 Y66.724 Z0 F1600
G1 X39.244 Y66.793 Z0 F1600
G1 X39.228 Y66.841 Z0 F1600
G1 X39.154 Y66.988 Z0 F1600
G1 X39.031 Y67.188 Z0 F1600
G1 X38.934 Y67.3 Z0 F1600
G1 X38.815 Y67.39 Z0 F1600
G1 X38.606 Y67.501 Z0 F1600
G1 X38.506 Y67.542 Z0 F1600
G1 X38.473 Y67.551 Z0 F1600
G1 X38.4 Y67.555 Z0 F1600
G1 X38.199 Y67.545 Z0 F1600
G1 X37.96 Y67.517 Z0 F1600
G1 X37.789 Y67.474 Z0 F1600
G1 X37.669 Y67.421 Z0 F1600
G1 X37.563 Y67.348 Z0 F1600
G1 X37.439 Y67.227 Z0 F1600
G1 X37.29 Y67.029 Z0 F1600
G1 X37.117 Y66.747 Z0 F1600
G1 X36.924 Y66.379 Z0 F1600
G1 X36.681 Y65.843 Z0 F1600
G1 X36.479 Y65.294 Z0 F1600
G1 X36.314 Y64.723 Z0 F1600
G1 X36.18 Y64.102 Z0 F1600
G1 X36.083 Y63.453 Z0 F1600
G1 X36.017 Y62.738 Z0 F1600
G1 X35.985 Y61.978 Z0 F1600
G1 Y61.169 Z0 F1600
G1 X36.001 Y60.662 Z0 F1600
G1 X36.021 Y60.262 Z0 F1600
G1 X36.05 Y59.925 Z0 F1600
G1 X36.091 Y59.619 Z0 F1600
G1 X36.143 Y59.349 Z0 F1600
G1 X36.216 Y59.061 Z0 F1600
G1 X36.309 Y58.754 Z0 F1600
G1 X36.434 Y58.386 Z0 F1600
G1 X36.629 Y57.871 Z0 F1600
G1 X36.83 Y57.427 Z0 F1600
G1 X37.055 Y57.014 Z0 F1600
G1 X37.331 Y56.579 Z0 F1600
G1 X37.488 Y56.352 Z0 F1600
G1 X37.638 Y56.15 Z0 F1600
G1 X37.749 Y56.018 Z0 F1600
G1 X37.809 Y55.958 Z0 F1600
G1 X37.931 Y55.872 Z0 F1600
G1 X38.069 Y55.823 Z0 F1600
G1 X38.093 Y55.82 Z0 F1600
G1 X38.149 Z0 F1600
G1 X38.233 Y55.836 Z0 F1600
G1 X38.337 Y55.869 Z0 F1600
G1 X38.45 Y55.919 Z0 F1600
G1 X38.551 Y55.979 Z0 F1600
G1 X38.644 Y56.05 Z0 F1600
G1 X38.716 Y56.121 Z0 F1600
G1 X38.837 Y56.28 Z0 F1600
G1 X38.936 Y56.456 Z0 F1600
G1 X39.012 Y56.648 Z0 F1600
G1 X39.067 Y56.871 Z0 F1600
G1 X39.096 Y57.112 Z0 F1600
G1 Y57.385 Z0 F1600
G1 X39.071 Y57.685 Z0 F1600
G1 X39.009 Y58.021 Z0 F1600
G0 Z3.5 F1000
G0 X39.301 Y60.514 Z3.5 
G1 Z0 F1000
G1 X39.289 Y60.722 Z0 F1600
G1 X39.281 Y60.957 Z0 F1600
G1 X39.276 Y61.23 Z0 F1600
G1 Y61.553 Z0 F1600
G1 X39.281 Y61.983 Z0 F1600
G1 X39.296 Y62.379 Z0 F1600
G1 X39.324 Y62.753 Z0 F1600
G1 X39.366 Y63.115 Z0 F1600
G1 X39.423 Y63.478 Z0 F1600
G1 X39.497 Y63.851 Z0 F1600
G1 X39.59 Y64.247 Z0 F1600
G1 X39.702 Y64.676 Z0 F1600
G1 X39.802 Y65.049 Z0 F1600
G1 X39.882 Y65.355 Z0 F1600
G1 X39.943 Y65.609 Z0 F1600
G1 X39.988 Y65.821 Z0 F1600
G1 X40.04 Y66.172 Z0 F1600
G1 X40.055 Y66.506 Z0 F1600
G1 X40.052 Y66.78 Z0 F1600
G1 X40.027 Y66.976 Z0 F1600
G1 X39.966 Y67.155 Z0 F1600
G1 X39.854 Y67.375 Z0 F1600
G1 X39.677 Y67.665 Z0 F1600
G1 X39.483 Y67.887 Z0 F1600
G1 X39.248 Y68.066 Z0 F1600
G1 X38.946 Y68.226 Z0 F1600
G1 X38.758 Y68.304 Z0 F1600
G1 X38.593 Y68.345 Z0 F1600
G1 X38.402 Y68.356 Z0 F1600
G1 X38.138 Y68.343 Z0 F1600
G1 X37.814 Y68.305 Z0 F1600
G1 X37.53 Y68.234 Z0 F1600
G1 X37.278 Y68.124 Z0 F1600
G1 X37.049 Y67.966 Z0 F1600
G1 X36.836 Y67.754 Z0 F1600
G1 X36.629 Y67.482 Z0 F1600
G1 X36.421 Y67.142 Z0 F1600
G1 X36.203 Y66.728 Z0 F1600
G1 X35.941 Y66.149 Z0 F1600
G1 X35.719 Y65.546 Z0 F1600
G1 X35.537 Y64.915 Z0 F1600
G1 X35.394 Y64.249 Z0 F1600
G1 X35.288 Y63.544 Z0 F1600
G1 X35.219 Y62.796 Z0 F1600
G1 X35.186 Y61.998 Z0 F1600
G1 Y61.146 Z0 F1600
G1 X35.202 Y60.639 Z0 F1600
G1 X35.223 Y60.208 Z0 F1600
G1 X35.255 Y59.832 Z0 F1600
G1 X35.301 Y59.493 Z0 F1600
G1 X35.362 Y59.172 Z0 F1600
G1 X35.444 Y58.849 Z0 F1600
G1 X35.549 Y58.504 Z0 F1600
G1 X35.68 Y58.119 Z0 F1600
G1 X35.89 Y57.564 Z0 F1600
G1 X36.113 Y57.07 Z0 F1600
G1 X36.365 Y56.607 Z0 F1600
G1 X36.66 Y56.144 Z0 F1600
G1 X36.846 Y55.874 Z0 F1600
G1 X37.009 Y55.655 Z0 F1600
G1 X37.156 Y55.48 Z0 F1600
G1 X37.292 Y55.342 Z0 F1600
G1 X37.562 Y55.155 Z0 F1600
G1 X37.875 Y55.043 Z0 F1600
G1 X38.046 Y55.018 Z0 F1600
G1 X38.231 Y55.023 Z0 F1600
G1 X38.425 Y55.058 Z0 F1600
G1 X38.622 Y55.12 Z0 F1600
G1 X38.815 Y55.207 Z0 F1600
G1 X39 Y55.315 Z0 F1600
G1 X39.168 Y55.444 Z0 F1600
G1 X39.317 Y55.59 Z0 F1600
G1 X39.507 Y55.84 Z0 F1600
G1 X39.661 Y56.112 Z0 F1600
G1 X39.776 Y56.407 Z0 F1600
G1 X39.854 Y56.723 Z0 F1600
G1 X39.896 Y57.06 Z0 F1600
G1 Y57.417 Z0 F1600
G1 X39.864 Y57.794 Z0 F1600
G1 X39.791 Y58.19 Z0 F1600
G1 X39.734 Y58.434 Z0 F1600
G1 X39.68 Y58.656 Z0 F1600
G1 X39.634 Y58.833 Z0 F1600
G1 X39.572 Y59.051 Z0 F1600
G1 X39.525 Y59.243 Z0 F1600
G1 X39.47 Y59.488 Z0 F1600
G1 X39.413 Y59.76 Z0 F1600
G1 X39.343 Y60.143 Z0 F1600
G1 X39.301 Y60.514 Z0 F1600
G0 Z3.5 F1000
G0 X38.896 Y54.155 Z3.5 
G1 Z0 F1000
G1 X38.878 Y54.198 Z0 F1600
G1 X38.896 Y54.241 Z0 F1600
G1 X38.939 Y54.259 Z0 F1600
G1 X38.982 Y54.241 Z0 F1600
G1 X39 Y54.198 Z0 F1600
G1 X38.982 Y54.155 Z0 F1600
G1 X38.939 Y54.138 Z0 F1600
G1 X38.896 Y54.155 Z0 F1600
G0 Z3.5 F1000
G0 X38.507 Y54.236 Z3.5 
G1 Z0 F1000
G1 X38.552 Y53.986 Z0 F1600
G1 X38.589 Y53.929 Z0 F1600
G1 X38.645 Y53.903 Z0 F1600
G1 X38.721 Y53.908 Z0 F1600
G1 X38.818 Y53.944 Z0 F1600
G1 X38.938 Y54.013 Z0 F1600
G1 X39.08 Y54.113 Z0 F1600
G1 X39.246 Y54.247 Z0 F1600
G1 X39.436 Y54.414 Z0 F1600
G1 X39.568 Y54.539 Z0 F1600
G1 X39.632 Y54.626 Z0 F1600
G1 X39.641 Y54.706 Z0 F1600
G1 X39.607 Y54.807 Z0 F1600
G1 X39.526 Y54.957 Z0 F1600
G1 X39.431 Y55.075 Z0 F1600
G1 X39.368 Y55.121 Z0 F1600
G1 X39.311 Z0 F1600
G1 X39.235 Y55.07 Z0 F1600
G1 X39.121 Y54.958 Z0 F1600
G1 X38.933 Y54.806 Z0 F1600
G1 X38.773 Y54.746 Z0 F1600
G1 X38.699 Y54.726 Z0 F1600
G1 X38.634 Y54.67 Z0 F1600
G1 X38.58 Y54.587 Z0 F1600
G1 X38.54 Y54.482 Z0 F1600
G1 X38.507 Y54.236 Z0 F1600
G0 Z3.5 F1000
G0 X39.368 Y52.738 Z3.5 
G1 Z0 F1000
G1 X39.458 Y52.81 Z0 F1600
G1 X39.59 Y52.943 Z0 F1600
G1 X39.686 Y53.049 Z0 F1600
G1 X39.758 Y53.141 Z0 F1600
G1 X39.807 Y53.222 Z0 F1600
G1 X39.834 Y53.296 Z0 F1600
G1 X39.825 Y53.441 Z0 F1600
G1 X39.738 Y53.608 Z0 F1600
G1 X39.627 Y53.777 Z0 F1600
G1 X39.37 Y53.499 Z0 F1600
G1 X39.236 Y53.345 Z0 F1600
G1 X39.164 Y53.234 Z0 F1600
G1 X39.141 Y53.137 Z0 F1600
G1 X39.155 Y53.025 Z0 F1600
G1 X39.204 Y52.864 Z0 F1600
G1 X39.263 Y52.749 Z0 F1600
G1 X39.307 Y52.72 Z0 F1600
G1 X39.368 Y52.738 Z0 F1600
G0 Z3.5 F1000
G0 X47.411 Y44.695 Z3.5 
G1 Z0 F1000
G1 X47.417 Y44.699 Z0 F1600
G1 X47.432 Y44.71 Z0 F1600
G1 X47.495 Y44.789 Z0 F1600
G1 X47.523 Y44.848 Z0 F1600
G1 X47.539 Y44.913 Z0 F1600
G1 Y45.015 Z0 F1600
G1 X47.535 Y45.034 Z0 F1600
G1 X47.523 Y45.063 Z0 F1600
G1 X47.517 Y45.075 Z0 F1600
G1 X47.48 Y45.123 Z0 F1600
G1 X47.377 Y45.217 Z0 F1600
G1 X47.293 Y45.279 Z0 F1600
G1 X47.122 Y45.391 Z0 F1600
G1 X46.896 Y45.529 Z0 F1600
G1 X46.138 Y45.966 Z0 F1600
G1 X45.732 Y46.208 Z0 F1600
G1 X45.369 Y46.438 Z0 F1600
G1 X45.02 Y46.677 Z0 F1600
G1 X44.434 Y47.141 Z0 F1600
G1 X43.868 Y47.674 Z0 F1600
G1 X43.282 Y48.29 Z0 F1600
G1 X42.754 Y48.917 Z0 F1600
G1 X42.487 Y49.268 Z0 F1600
G1 X42.229 Y49.625 Z0 F1600
G1 X41.968 Y50.009 Z0 F1600
G1 X41.712 Y50.402 Z0 F1600
G1 X41.516 Y50.7 Z0 F1600
G1 X41.335 Y50.955 Z0 F1600
G1 X41.175 Y51.163 Z0 F1600
G1 X41.026 Y51.34 Z0 F1600
G1 X40.912 Y51.463 Z0 F1600
G1 X40.883 Y51.49 Z0 F1600
G1 X40.867 Y51.468 Z0 F1600
G1 X40.812 Y51.379 Z0 F1600
G1 X40.749 Y51.258 Z0 F1600
G1 X40.705 Y51.15 Z0 F1600
G1 X40.673 Y51.054 Z0 F1600
G1 X40.67 Y51.039 Z0 F1600
G1 Y51.034 Z0 F1600
G1 X40.718 Y50.834 Z0 F1600
G1 X40.817 Y50.517 Z0 F1600
G1 X40.956 Y50.141 Z0 F1600
G1 X41.12 Y49.749 Z0 F1600
G1 X41.296 Y49.375 Z0 F1600
G1 X41.466 Y49.055 Z0 F1600
G1 X41.628 Y48.793 Z0 F1600
G1 X41.916 Y48.391 Z0 F1600
G1 X42.224 Y48.002 Z0 F1600
G1 X42.558 Y47.624 Z0 F1600
G1 X42.95 Y47.217 Z0 F1600
G1 X43.453 Y46.739 Z0 F1600
G1 X43.948 Y46.317 Z0 F1600
G1 X44.448 Y45.94 Z0 F1600
G1 X44.935 Y45.618 Z0 F1600
G1 X45.44 Y45.331 Z0 F1600
G1 X45.96 Y45.081 Z0 F1600
G1 X46.483 Y44.87 Z0 F1600
G1 X46.981 Y44.708 Z0 F1600
G1 X47.057 Y44.695 Z0 F1600
G1 X47.249 Y44.688 Z0 F1600
G1 X47.411 Y44.695 Z0 F1600
G0 Z3.5 F1000
G0 X48.337 Y44.813 Z3.5 
G1 Z0 F1000
G1 X48.341 Y45.074 Z0 F1600
G1 X48.327 Y45.169 Z0 F1600
G1 X48.295 Y45.289 Z0 F1600
G1 X48.249 Y45.405 Z0 F1600
G1 X48.193 Y45.508 Z0 F1600
G1 X48.076 Y45.664 Z0 F1600
G1 X47.885 Y45.837 Z0 F1600
G1 X47.749 Y45.937 Z0 F1600
G1 X47.56 Y46.061 Z0 F1600
G1 X47.297 Y46.221 Z0 F1600
G1 X46.543 Y46.656 Z0 F1600
G1 X46.151 Y46.889 Z0 F1600
G1 X45.809 Y47.106 Z0 F1600
G1 X45.495 Y47.321 Z0 F1600
G1 X44.958 Y47.747 Z0 F1600
G1 X44.432 Y48.241 Z0 F1600
G1 X43.878 Y48.823 Z0 F1600
G1 X43.378 Y49.417 Z0 F1600
G1 X43.13 Y49.744 Z0 F1600
G1 X42.885 Y50.084 Z0 F1600
G1 X42.634 Y50.453 Z0 F1600
G1 X42.379 Y50.843 Z0 F1600
G1 X42.167 Y51.163 Z0 F1600
G1 X41.98 Y51.428 Z0 F1600
G1 X41.8 Y51.662 Z0 F1600
G1 X41.622 Y51.875 Z0 F1600
G1 X41.478 Y52.029 Z0 F1600
G1 X41.34 Y52.158 Z0 F1600
G1 X41.243 Y52.234 Z0 F1600
G1 X41.179 Y52.273 Z0 F1600
G1 X41.106 Y52.303 Z0 F1600
G1 X41.022 Y52.321 Z0 F1600
G1 X40.914 Y52.327 Z0 F1600
G1 X40.794 Y52.317 Z0 F1600
G1 X40.681 Y52.292 Z0 F1600
G1 X40.565 Y52.248 Z0 F1600
G1 X40.468 Y52.195 Z0 F1600
G1 X40.378 Y52.126 Z0 F1600
G1 X40.306 Y52.051 Z0 F1600
G1 X40.208 Y51.922 Z0 F1600
G1 X40.113 Y51.771 Z0 F1600
G1 X40.027 Y51.603 Z0 F1600
G1 X39.951 Y51.423 Z0 F1600
G1 X39.899 Y51.26 Z0 F1600
G1 X39.871 Y51.128 Z0 F1600
G1 X39.864 Y51.048 Z0 F1600
G1 X39.88 Y50.899 Z0 F1600
G1 X39.945 Y50.625 Z0 F1600
G1 X40.062 Y50.254 Z0 F1600
G1 X40.211 Y49.848 Z0 F1600
G1 X40.387 Y49.43 Z0 F1600
G1 X40.583 Y49.013 Z0 F1600
G1 X40.775 Y48.65 Z0 F1600
G1 X40.959 Y48.353 Z0 F1600
G1 X41.277 Y47.908 Z0 F1600
G1 X41.606 Y47.493 Z0 F1600
G1 X41.969 Y47.082 Z0 F1600
G1 X42.389 Y46.646 Z0 F1600
G1 X42.916 Y46.146 Z0 F1600
G1 X43.45 Y45.691 Z0 F1600
G1 X43.98 Y45.291 Z0 F1600
G1 X44.52 Y44.935 Z0 F1600
G1 X45.072 Y44.62 Z0 F1600
G1 X45.634 Y44.35 Z0 F1600
G1 X46.214 Y44.117 Z0 F1600
G1 X46.787 Y43.93 Z0 F1600
G1 X46.975 Y43.898 Z0 F1600
G1 X47.255 Y43.886 Z0 F1600
G1 X47.517 Y43.899 Z0 F1600
G1 X47.651 Y43.925 Z0 F1600
G1 X47.738 Y43.961 Z0 F1600
G1 X47.846 Y44.021 Z0 F1600
G1 X47.946 Y44.094 Z0 F1600
G1 X48.017 Y44.158 Z0 F1600
G1 X48.178 Y44.364 Z0 F1600
G1 X48.281 Y44.579 Z0 F1600
G1 X48.337 Y44.813 Z0 F1600

; Color picking sequence
G1 Z10 F1000;         ; Raise brush to safe height
G0 X131 Y5 F1200;    ; Rapid move to color 1 position
G1 Z0 F1000;         ; Lower into color - controlled movement
G1 X130.102Y7.295Z0S800F1200
G1 X130.026Y7.642Z0F1200
G1 X130Y8Z0F1200
G1 X130.026Y8.358Z0F1200
G1 X130.102Y8.705Z0F1200
G1 X130.225Y9.041Z0F1200
G1 X130.393Y9.362Z0F1200
G1 X130.603Y9.668Z0F1200
G1 X130.854Y9.957Z0F1200
G1 X131.142Y10.226Z0F1200
G1 X131.464Y10.475Z0F1200
G1 X131.82Y10.701Z0F1200
G1 X132.204Y10.902Z0F1200
G1 X132.617Y11.078Z0F1200
G1 X133.054Y11.225Z0F1200
G1 X133.513Y11.343Z0F1200
G1 X133.992Y11.429Z0F1200
G1 X134.489Y11.482Z0F1200
G1 X135Y11.5Z0F1200
G1 X135.511Y11.482Z0F1200
G1 X136.008Y11.429Z0F1200
G1 X136.487Y11.343Z0F1200
G1 X136.946Y11.225Z0F1200
G1 X137.383Y11.078Z0F1200
G1 X137.796Y10.902Z0F1200
G1 X138.18Y10.701Z0F1200
G1 X138.536Y10.475Z0F1200
G1 X138.858Y10.226Z0F1200
G1 X139.146Y9.957Z0F1200
G1 X139.397Y9.668Z0F1200
G1 X139.607Y9.362Z0F1200
G1 X139.775Y9.041Z0F1200
G1 X139.898Y8.705Z0F1200
G1 X139.974Y8.358Z0F1200
G1 X140Y8Z0F1200
G1 X139.974Y7.642Z0F1200
G1 X139.898Y7.295Z0F1200
G1 X139.775Y6.959Z0F1200
G1 X139.607Y6.638Z0F1200
G1 X139.397Y6.332Z0F1200
G1 X139.146Y6.043Z0F1200
G1 X138.858Y5.774Z0F1200
G1 X138.536Y5.525Z0F1200
G1 X138.18Y5.299Z0F1200
G1 X137.796Y5.098Z0F1200
G1 X137.383Y4.922Z0F1200
G1 X136.946Y4.775Z0F1200
G1 X136.487Y4.657Z0F1200
G1 X136.008Y4.571Z0F1200
G1 X135.511Y4.518Z0F1200
G1 X135Y4.5Z0F1200
G1 X134.489Y4.518Z0F1200
G1 X133.992Y4.571Z0F1200
G1 X133.513Y4.657Z0F1200
G1 X133.054Y4.775Z0F1200
G1 X132.617Y4.922Z0F1200
G1 X132.204Y5.098Z0F1200
G1 X131.82Y5.299Z0F1200
G1 X131.464Y5.525Z0F1200
G1 X131.142Y5.774Z0F1200
G1 X130.854Y6.043Z0F1200
G1 X130.603Y6.332Z0F1200
G1 X130.393Y6.638Z0F1200
G1 X130.225Y6.959Z0F1200
G1 Z7 F800;         ; Raise from color - controlled movement
G1 X124 Y8 Z1 F1200;     ; Movement in paint - controlled movement
G1 X114 Y18 Z8 F500;     ; Move in paint - controlled movement
G1 F1200;           ; Set feed rate to 1000
G0 Z3.5 F1000
G0 X48.67 Y46.204 Z3.5 
G1 Z0 F1000
G1 X48.39 Y46.459 Z0 F1600
G1 X48.205 Y46.594 Z0 F1600
G1 X47.981 Y46.741 Z0 F1600
G1 X47.713 Y46.904 Z0 F1600
G1 X46.948 Y47.346 Z0 F1600
G1 X46.57 Y47.571 Z0 F1600
G1 X46.249 Y47.774 Z0 F1600
G1 X45.969 Y47.966 Z0 F1600
G1 X45.481 Y48.353 Z0 F1600
G1 X44.997 Y48.809 Z0 F1600
G1 X44.475 Y49.357 Z0 F1600
G1 X44.003 Y49.918 Z0 F1600
G1 X43.773 Y50.22 Z0 F1600
G1 X43.54 Y50.543 Z0 F1600
G1 X43.299 Y50.896 Z0 F1600
G1 X43.046 Y51.285 Z0 F1600
G1 X42.832 Y51.609 Z0 F1600
G1 X42.624 Y51.903 Z0 F1600
G1 X42.422 Y52.167 Z0 F1600
G1 X42.227 Y52.398 Z0 F1600
G1 X42.041 Y52.598 Z0 F1600
G1 X41.864 Y52.763 Z0 F1600
G1 X41.698 Y52.894 Z0 F1600
G1 X41.542 Y52.989 Z0 F1600
G1 X41.342 Y53.07 Z0 F1600
G1 X41.127 Y53.116 Z0 F1600
G1 X40.903 Y53.129 Z0 F1600
G1 X40.675 Y53.11 Z0 F1600
G1 X40.45 Y53.059 Z0 F1600
G1 X40.233 Y52.978 Z0 F1600
G1 X40.03 Y52.867 Z0 F1600
G1 X39.847 Y52.728 Z0 F1600
G1 X39.695 Y52.57 Z0 F1600
G1 X39.55 Y52.38 Z0 F1600
G1 X39.417 Y52.167 Z0 F1600
G1 X39.299 Y51.938 Z0 F1600
G1 X39.201 Y51.702 Z0 F1600
G1 X39.125 Y51.468 Z0 F1600
G1 X39.078 Y51.244 Z0 F1600
G1 X39.061 Y51.039 Z0 F1600
G1 X39.09 Y50.765 Z0 F1600
G1 X39.174 Y50.411 Z0 F1600
G1 X39.303 Y50 Z0 F1600
G1 X39.467 Y49.555 Z0 F1600
G1 X39.657 Y49.101 Z0 F1600
G1 X39.865 Y48.659 Z0 F1600
G1 X40.08 Y48.253 Z0 F1600
G1 X40.294 Y47.908 Z0 F1600
G1 X40.64 Y47.424 Z0 F1600
G1 X40.994 Y46.978 Z0 F1600
G1 X41.379 Y46.541 Z0 F1600
G1 X41.822 Y46.082 Z0 F1600
G1 X42.383 Y45.549 Z0 F1600
G1 X42.948 Y45.068 Z0 F1600
G1 X43.52 Y44.636 Z0 F1600
G1 X44.102 Y44.251 Z0 F1600
G1 X44.697 Y43.913 Z0 F1600
G1 X45.31 Y43.618 Z0 F1600
G1 X45.942 Y43.364 Z0 F1600
G1 X46.597 Y43.15 Z0 F1600
G1 X46.889 Y43.101 Z0 F1600
G1 X47.256 Y43.085 Z0 F1600
G1 X47.614 Y43.104 Z0 F1600
G1 X47.881 Y43.154 Z0 F1600
G1 X48.087 Y43.24 Z0 F1600
G1 X48.277 Y43.346 Z0 F1600
G1 X48.45 Y43.471 Z0 F1600
G1 X48.605 Y43.613 Z0 F1600
G1 X48.862 Y43.939 Z0 F1600
G1 X49.04 Y44.311 Z0 F1600
G1 X49.135 Y44.712 Z0 F1600
G1 X49.142 Y45.127 Z0 F1600
G1 X49.111 Y45.335 Z0 F1600
G1 X49.055 Y45.542 Z0 F1600
G1 X48.975 Y45.744 Z0 F1600
G1 X48.869 Y45.94 Z0 F1600
G1 X48.67 Y46.204 Z0 F1600
G0 Z3.5 F1000
G0 X49.794 Y43.392 Z3.5 
G1 Z0 F1000
G1 X50.062 Y43.882 Z0 F1600
G1 X50.041 Y43.967 Z0 F1600
G1 X49.971 Y44.042 Z0 F1600
G1 X49.845 Y44.113 Z0 F1600
G1 X49.654 Y44.188 Z0 F1600
G1 X49.399 Y44.275 Z0 F1600
G1 X49.357 Y44.086 Z0 F1600
G1 X49.277 Y43.89 Z0 F1600
G1 X49.142 Y43.685 Z0 F1600
G1 X49.019 Y43.522 Z0 F1600
G1 X48.968 Y43.427 Z0 F1600
G1 X48.985 Y43.39 Z0 F1600
G1 X49.032 Y43.323 Z0 F1600
G1 X49.102 Y43.235 Z0 F1600
G1 X49.187 Y43.137 Z0 F1600
G1 X49.276 Y43.045 Z0 F1600
G1 X49.356 Y42.975 Z0 F1600
G1 X49.42 Y42.933 Z0 F1600
G1 X49.457 Y42.926 Z0 F1600
G1 X49.794 Y43.392 Z0 F1600
G0 Z3.5 F1000
G0 X58.308 Y40.937 Z3.5 
G1 Z0 F1000
G1 X58.826 Y40.953 Z0 F1600
G1 X59.348 Y40.985 Z0 F1600
G1 X59.833 Y41.03 Z0 F1600
G1 X60.261 Y41.086 Z0 F1600
G1 X60.688 Y41.159 Z0 F1600
G1 X61.06 Y41.238 Z0 F1600
G1 X61.402 Y41.329 Z0 F1600
G1 X61.706 Y41.427 Z0 F1600
G1 X61.972 Y41.531 Z0 F1600
G1 X62.189 Y41.633 Z0 F1600
G1 X62.378 Y41.74 Z0 F1600
G1 X62.514 Y41.834 Z0 F1600
G1 X62.619 Y41.923 Z0 F1600
G1 X62.688 Y41.995 Z0 F1600
G1 X62.727 Y42.049 Z0 F1600
G1 X62.732 Y42.058 Z0 F1600
G1 Y42.081 Z0 F1600
G1 X62.728 Y42.146 Z0 F1600
G1 X62.702 Y42.24 Z0 F1600
G1 X62.666 Y42.319 Z0 F1600
G1 X62.636 Z0 F1600
G1 X62.473 Y42.313 Z0 F1600
G1 X62.295 Y42.295 Z0 F1600
G1 X62.07 Y42.261 Z0 F1600
G1 X61.791 Y42.207 Z0 F1600
G1 X61.346 Y42.117 Z0 F1600
G1 X60.904 Y42.036 Z0 F1600
G1 X60.482 Y41.97 Z0 F1600
G1 X60.055 Y41.916 Z0 F1600
G1 X59.245 Y41.853 Z0 F1600
G1 X58.375 Y41.834 Z0 F1600
G1 X57.898 Y41.838 Z0 F1600
G1 X57.464 Y41.853 Z0 F1600
G1 X57.042 Y41.885 Z0 F1600
G1 X56.627 Y41.937 Z0 F1600
G1 X56.211 Y42.01 Z0 F1600
G1 X55.785 Y42.105 Z0 F1600
G1 X55.334 Y42.222 Z0 F1600
G1 X54.384 Y42.491 Z0 F1600
G1 X54.029 Y42.588 Z0 F1600
G1 X53.744 Y42.66 Z0 F1600
G1 X53.571 Y42.697 Z0 F1600
G1 X53.31 Y42.732 Z0 F1600
G1 X53.114 Z0 F1600
G1 X53.009 Y42.721 Z0 F1600
G1 X52.944 Y42.712 Z0 F1600
G1 X52.934 Y42.692 Z0 F1600
G1 X52.924 Y42.633 Z0 F1600
G1 X52.914 Y42.533 Z0 F1600
G1 X52.911 Y42.373 Z0 F1600
G1 Y42.296 Z0 F1600
G1 X53.004 Y42.155 Z0 F1600
G1 X53.009 Y42.149 Z0 F1600
G1 X53.114 Y42.075 Z0 F1600
G1 X53.391 Y41.927 Z0 F1600
G1 X53.791 Y41.756 Z0 F1600
G1 X54.278 Y41.584 Z0 F1600
G1 X54.872 Y41.411 Z0 F1600
G1 X55.548 Y41.244 Z0 F1600
G1 X56.279 Y41.094 Z0 F1600
G1 X57.059 Y40.959 Z0 F1600
G1 X57.089 Y40.956 Z0 F1600
G1 X57.165 Y40.95 Z0 F1600
G1 X57.3 Y40.944 Z0 F1600
G1 X57.468 Y40.938 Z0 F1600
G1 X57.852 Y40.933 Z0 F1600
G1 X58.308 Y40.937 Z0 F1600
G0 Z3.5 F1000
G0 X62.281 Y40.792 Z3.5 
G1 Z0 F1000
G1 X62.564 Y40.926 Z0 F1600
G1 X62.8 Y41.06 Z0 F1600
G1 X63.002 Y41.199 Z0 F1600
G1 X63.17 Y41.341 Z0 F1600
G1 X63.302 Y41.48 Z0 F1600
G1 X63.406 Y41.622 Z0 F1600
G1 X63.47 Y41.74 Z0 F1600
G1 X63.521 Y41.901 Z0 F1600
G1 X63.538 Y42.083 Z0 F1600
G1 X63.517 Y42.296 Z0 F1600
G1 X63.458 Y42.511 Z0 F1600
G1 X63.365 Y42.714 Z0 F1600
G1 X63.247 Y42.886 Z0 F1600
G1 X63.124 Y43.008 Z0 F1600
G1 X62.995 Y43.087 Z0 F1600
G1 X62.982 Y43.092 Z0 F1600
G1 X62.909 Y43.107 Z0 F1600
G1 X62.782 Y43.119 Z0 F1600
G1 X62.616 Y43.122 Z0 F1600
G1 X62.423 Y43.112 Z0 F1600
G1 X62.186 Y43.088 Z0 F1600
G1 X61.935 Y43.05 Z0 F1600
G1 X61.647 Y42.994 Z0 F1600
G1 X61.194 Y42.902 Z0 F1600
G1 X60.77 Y42.825 Z0 F1600
G1 X60.37 Y42.762 Z0 F1600
G1 X59.974 Y42.712 Z0 F1600
G1 X59.205 Y42.652 Z0 F1600
G1 X58.37 Y42.634 Z0 F1600
G1 X57.916 Y42.638 Z0 F1600
G1 X57.508 Y42.652 Z0 F1600
G1 X57.122 Y42.681 Z0 F1600
G1 X56.746 Y42.728 Z0 F1600
G1 X56.367 Y42.795 Z0 F1600
G1 X55.972 Y42.883 Z0 F1600
G1 X55.543 Y42.994 Z0 F1600
G1 X54.604 Y43.261 Z0 F1600
G1 X54.23 Y43.363 Z0 F1600
G1 X53.937 Y43.437 Z0 F1600
G1 X53.708 Y43.486 Z0 F1600
G1 X53.359 Y43.533 Z0 F1600
G1 X53.083 Z0 F1600
G1 X52.91 Y43.515 Z0 F1600
G1 X52.767 Y43.495 Z0 F1600
G1 X52.665 Y43.473 Z0 F1600
G1 X52.624 Y43.46 Z0 F1600
G1 X52.504 Y43.397 Z0 F1600
G1 X52.388 Y43.301 Z0 F1600
G1 X52.267 Y43.152 Z0 F1600
G1 X52.18 Y42.97 Z0 F1600
G1 X52.155 Y42.88 Z0 F1600
G1 X52.13 Y42.743 Z0 F1600
G1 X52.115 Y42.575 Z0 F1600
G1 X52.11 Y42.377 Z0 F1600
G1 X52.116 Y42.173 Z0 F1600
G1 X52.127 Y42.095 Z0 F1600
G1 X52.148 Y42.037 Z0 F1600
G1 X52.215 Y41.902 Z0 F1600
G1 X52.365 Y41.669 Z0 F1600
G1 X52.474 Y41.547 Z0 F1600
G1 X52.693 Y41.394 Z0 F1600
G1 X53.044 Y41.206 Z0 F1600
G1 X53.501 Y41.011 Z0 F1600
G1 X54.043 Y40.819 Z0 F1600
G1 X54.657 Y40.64 Z0 F1600
G1 X55.362 Y40.466 Z0 F1600
G1 X56.132 Y40.307 Z0 F1600
G1 X56.956 Y40.165 Z0 F1600
G1 X57.006 Y40.16 Z0 F1600
G1 X57.107 Y40.152 Z0 F1600
G1 X57.267 Y40.145 Z0 F1600
G1 X57.451 Y40.139 Z0 F1600
G1 X57.868 Y40.133 Z0 F1600
G1 X58.303 Y40.136 Z0 F1600
G1 X58.886 Y40.154 Z0 F1600
G1 X59.408 Y40.187 Z0 F1600
G1 X59.906 Y40.233 Z0 F1600
G1 X60.397 Y40.297 Z0 F1600
G1 X60.832 Y40.371 Z0 F1600
G1 X61.246 Y40.46 Z0 F1600
G1 X61.627 Y40.561 Z0 F1600
G1 X61.978 Y40.674 Z0 F1600
G1 X62.281 Y40.792 Z0 F1600
G0 Z3.5 F1000
G0 X64.209 Y41.424 Z3.5 
G1 Z0 F1000
G1 X64.311 Y41.744 Z0 F1600
G1 X64.341 Y42.087 Z0 F1600
G1 X64.307 Y42.439 Z0 F1600
G1 X64.212 Y42.786 Z0 F1600
G1 X64.063 Y43.111 Z0 F1600
G1 X63.864 Y43.401 Z0 F1600
G1 X63.622 Y43.64 Z0 F1600
G1 X63.342 Y43.813 Z0 F1600
G1 X63.198 Y43.864 Z0 F1600
G1 X63.026 Y43.899 Z0 F1600
G1 X62.828 Y43.918 Z0 F1600
G1 X62.604 Y43.922 Z0 F1600
G1 X62.356 Y43.91 Z0 F1600
G1 X62.087 Y43.882 Z0 F1600
G1 X61.797 Y43.838 Z0 F1600
G1 X61.488 Y43.778 Z0 F1600
G1 X61.043 Y43.688 Z0 F1600
G1 X60.636 Y43.614 Z0 F1600
G1 X60.257 Y43.554 Z0 F1600
G1 X59.893 Y43.508 Z0 F1600
G1 X59.166 Y43.452 Z0 F1600
G1 X58.365 Y43.434 Z0 F1600
G1 X57.933 Y43.438 Z0 F1600
G1 X57.552 Y43.451 Z0 F1600
G1 X57.202 Y43.478 Z0 F1600
G1 X56.865 Y43.52 Z0 F1600
G1 X56.523 Y43.58 Z0 F1600
G1 X56.159 Y43.661 Z0 F1600
G1 X55.753 Y43.766 Z0 F1600
G1 X54.823 Y44.03 Z0 F1600
G1 X54.436 Y44.136 Z0 F1600
G1 X54.113 Y44.217 Z0 F1600
G1 X53.843 Y44.275 Z0 F1600
G1 X53.412 Y44.333 Z0 F1600
G1 X53.04 Z0 F1600
G1 X52.819 Y44.311 Z0 F1600
G1 X52.627 Y44.283 Z0 F1600
G1 X52.461 Y44.248 Z0 F1600
G1 X52.313 Y44.201 Z0 F1600
G1 X52.057 Y44.066 Z0 F1600
G1 X51.817 Y43.867 Z0 F1600
G1 X51.586 Y43.583 Z0 F1600
G1 X51.428 Y43.25 Z0 F1600
G1 X51.375 Y43.06 Z0 F1600
G1 X51.337 Y42.852 Z0 F1600
G1 X51.316 Y42.625 Z0 F1600
G1 X51.31 Y42.377 Z0 F1600
G1 X51.318 Y42.106 Z0 F1600
G1 X51.346 Y41.908 Z0 F1600
G1 X51.409 Y41.726 Z0 F1600
G1 X51.519 Y41.506 Z0 F1600
G1 X51.727 Y41.183 Z0 F1600
G1 X51.939 Y40.945 Z0 F1600
G1 X52.274 Y40.71 Z0 F1600
G1 X52.698 Y40.483 Z0 F1600
G1 X53.207 Y40.266 Z0 F1600
G1 X53.794 Y40.059 Z0 F1600
G1 X54.456 Y39.865 Z0 F1600
G1 X55.188 Y39.685 Z0 F1600
G1 X55.983 Y39.521 Z0 F1600
G1 X56.838 Y39.374 Z0 F1600
G1 X56.935 Y39.363 Z0 F1600
G1 X57.069 Y39.353 Z0 F1600
G1 X57.235 Y39.345 Z0 F1600
G1 X57.426 Y39.339 Z0 F1600
G1 X57.862 Y39.333 Z0 F1600
G1 X58.328 Y39.336 Z0 F1600
G1 X58.912 Y39.354 Z0 F1600
G1 X59.471 Y39.389 Z0 F1600
G1 X60.003 Y39.439 Z0 F1600
G1 X60.508 Y39.505 Z0 F1600
G1 X60.985 Y39.586 Z0 F1600
G1 X61.434 Y39.682 Z0 F1600
G1 X61.853 Y39.793 Z0 F1600
G1 X62.242 Y39.919 Z0 F1600
G1 X62.602 Y40.059 Z0 F1600
G1 X62.93 Y40.213 Z0 F1600
G1 X63.226 Y40.381 Z0 F1600
G1 X63.49 Y40.563 Z0 F1600
G1 X63.721 Y40.759 Z0 F1600
G1 X63.918 Y40.968 Z0 F1600
G1 X64.081 Y41.189 Z0 F1600
G1 X64.209 Y41.424 Z0 F1600
G0 Z3.5 F1000
G0 X64.904 Y42.371 Z3.5 
G1 Z0 F1000
G1 X64.896 Y42.443 Z0 F1600
G1 X64.909 Y42.506 Z0 F1600
G1 X64.933 Y42.479 Z0 F1600
G1 X64.945 Y42.412 Z0 F1600
G1 X64.928 Y42.363 Z0 F1600
G1 X64.904 Y42.371 Z0 F1600
G0 Z3.5 F1000
G0 X64.693 Y42.398 Z3.5 
G1 Z0 F1000
G1 X64.713 Y42.172 Z0 F1600
G1 X64.743 Y42.02 Z0 F1600
G1 X64.786 Y41.919 Z0 F1600
G1 X64.851 Y41.85 Z0 F1600
G1 X64.952 Y41.793 Z0 F1600
G1 X65.05 Z0 F1600
G1 X65.16 Y41.859 Z0 F1600
G1 X65.294 Y41.991 Z0 F1600
G1 X65.43 Y42.158 Z0 F1600
G1 X65.501 Y42.294 Z0 F1600
G1 X65.512 Y42.414 Z0 F1600
G1 X65.468 Y42.533 Z0 F1600
G1 X65.39 Y42.678 Z0 F1600
G1 X65.321 Y42.819 Z0 F1600
G1 X65.25 Y42.932 Z0 F1600
G1 X65.159 Y42.987 Z0 F1600
G1 X65.038 Z0 F1600
G1 X64.876 Y42.934 Z0 F1600
G1 X64.664 Y42.845 Z0 F1600
G1 X64.693 Y42.398 Z0 F1600
G0 Z3.5 F1000
G0 X65.916 Y42.874 Z3.5 
G1 Z0 F1000
G1 X66.009 Y42.982 Z0 F1600
G1 X66.06 Y43.075 Z0 F1600
G1 X66.076 Y43.174 Z0 F1600
G1 X66.058 Y43.32 Z0 F1600
G1 X66.005 Y43.554 Z0 F1600
G1 X65.904 Y43.977 Z0 F1600
G1 X65.687 Y43.944 Z0 F1600
G1 X65.52 Y43.909 Z0 F1600
G1 X65.423 Y43.87 Z0 F1600
G1 X65.413 Y43.83 Z0 F1600
G1 X65.42 Y43.751 Z0 F1600
G1 X65.44 Y43.643 Z0 F1600
G1 X65.472 Y43.515 Z0 F1600
G1 X65.559 Y43.239 Z0 F1600
G1 X65.66 Y43 Z0 F1600
G1 X65.741 Y42.882 Z0 F1600
G1 X65.826 Y42.84 Z0 F1600
G1 X65.916 Y42.874 Z0 F1600
G0 Z3.5 F1000
G0 X68.45 Y43.832 Z3.5 
G1 Z0 F1000
G1 X68.801 Y43.865 Z0 F1600
G1 X69.145 Y43.933 Z0 F1600
G1 X69.569 Y44.054 Z0 F1600
G1 X70.01 Y44.211 Z0 F1600
G1 X70.457 Y44.401 Z0 F1600
G1 X70.912 Y44.625 Z0 F1600
G1 X71.387 Y44.893 Z0 F1600
G1 X71.884 Y45.205 Z0 F1600
G1 X72.39 Y45.555 Z0 F1600
G1 X72.929 Y45.959 Z0 F1600
G1 X73.313 Y46.273 Z0 F1600
G1 X73.66 Y46.585 Z0 F1600
G1 X74.001 Y46.924 Z0 F1600
G1 X74.328 Y47.281 Z0 F1600
G1 X74.626 Y47.642 Z0 F1600
G1 X74.908 Y48.019 Z0 F1600
G1 X75.162 Y48.397 Z0 F1600
G1 X75.376 Y48.754 Z0 F1600
G1 X75.533 Y49.083 Z0 F1600
G1 X75.604 Y49.319 Z0 F1600
G1 X75.623 Y49.482 Z0 F1600
G1 X75.615 Y49.569 Z0 F1600
G1 X75.604 Y49.604 Z0 F1600
G1 X75.575 Y49.65 Z0 F1600
G1 X75.564 Y49.66 Z0 F1600
G1 X75.525 Y49.687 Z0 F1600
G1 X75.453 Y49.726 Z0 F1600
G1 X75.399 Y49.749 Z0 F1600
G1 X75.324 Y49.752 Z0 F1600
G1 X75.228 Y49.748 Z0 F1600
G1 X75.164 Y49.697 Z0 F1600
G1 X75.005 Y49.542 Z0 F1600
G1 X74.762 Y49.27 Z0 F1600
G1 X74.438 Y48.877 Z0 F1600
G1 X73.798 Y48.117 Z0 F1600
G1 X73.144 Y47.417 Z0 F1600
G1 X72.479 Y46.79 Z0 F1600
G1 X71.789 Y46.231 Z0 F1600
G1 X71.066 Y45.738 Z0 F1600
G1 X70.309 Y45.309 Z0 F1600
G1 X69.511 Y44.937 Z0 F1600
G1 X68.693 Y44.621 Z0 F1600
G1 X68.383 Y44.51 Z0 F1600
G1 X68.196 Y44.439 Z0 F1600
G1 X68.092 Y44.396 Z0 F1600
G1 X68.084 Y44.393 Z0 F1600
G1 X68.072 Y44.381 Z0 F1600
G1 X68.013 Y44.305 Z0 F1600
G1 X67.974 Y44.238 Z0 F1600
G1 X67.946 Y44.169 Z0 F1600
G1 X67.93 Y44.11 Z0 F1600
G1 X67.926 Y44.066 Z0 F1600
G1 X67.955 Y44.022 Z0 F1600
G1 X68.019 Y43.959 Z0 F1600
G1 X68.124 Y43.889 Z0 F1600
G1 X68.254 Y43.833 Z0 F1600
G1 X68.338 Y43.83 Z0 F1600
G1 X68.45 Z0 F1600
G0 Z3.5 F1000
G0 X70.791 Y43.674 Z3.5 
G1 Z0 F1000
G1 X71.283 Y43.917 Z0 F1600
G1 X71.8 Y44.208 Z0 F1600
G1 X72.316 Y44.532 Z0 F1600
G1 X72.871 Y44.916 Z0 F1600
G1 X73.417 Y45.325 Z0 F1600
G1 X73.831 Y45.663 Z0 F1600
G1 X74.215 Y46.008 Z0 F1600
G1 X74.585 Y46.376 Z0 F1600
G1 X74.925 Y46.749 Z0 F1600
G1 X75.257 Y47.15 Z0 F1600
G1 X75.557 Y47.55 Z0 F1600
G1 X75.839 Y47.97 Z0 F1600
G1 X76.083 Y48.378 Z0 F1600
G1 X76.281 Y48.793 Z0 F1600
G1 X76.391 Y49.158 Z0 F1600
G1 X76.427 Y49.47 Z0 F1600
G1 X76.405 Y49.728 Z0 F1600
G1 X76.335 Y49.941 Z0 F1600
G1 X76.208 Y50.146 Z0 F1600
G1 X76.147 Y50.213 Z0 F1600
G1 X76.057 Y50.292 Z0 F1600
G1 X75.94 Y50.372 Z0 F1600
G1 X75.804 Y50.445 Z0 F1600
G1 X75.665 Y50.506 Z0 F1600
G1 X75.576 Y50.534 Z0 F1600
G1 X75.49 Y50.546 Z0 F1600
G1 X75.329 Y50.553 Z0 F1600
G1 X75.135 Y50.545 Z0 F1600
G1 X75.001 Y50.522 Z0 F1600
G1 X74.903 Y50.488 Z0 F1600
G1 X74.791 Y50.423 Z0 F1600
G1 X74.636 Y50.301 Z0 F1600
G1 X74.427 Y50.095 Z0 F1600
G1 X74.157 Y49.792 Z0 F1600
G1 X73.824 Y49.39 Z0 F1600
G1 X73.199 Y48.648 Z0 F1600
G1 X72.577 Y47.982 Z0 F1600
G1 X71.952 Y47.393 Z0 F1600
G1 X71.311 Y46.874 Z0 F1600
G1 X70.643 Y46.418 Z0 F1600
G1 X69.942 Y46.021 Z0 F1600
G1 X69.198 Y45.673 Z0 F1600
G1 X68.414 Y45.371 Z0 F1600
G1 X68.114 Y45.264 Z0 F1600
G1 X67.908 Y45.186 Z0 F1600
G1 X67.755 Y45.123 Z0 F1600
G1 X67.682 Y45.087 Z0 F1600
G1 X67.576 Y45.016 Z0 F1600
G1 X67.469 Y44.91 Z0 F1600
G1 X67.35 Y44.757 Z0 F1600
G1 X67.253 Y44.59 Z0 F1600
G1 X67.186 Y44.424 Z0 F1600
G1 X67.141 Y44.253 Z0 F1600
G1 X67.124 Y44.092 Z0 F1600
G1 X67.129 Y43.944 Z0 F1600
G1 X67.154 Y43.823 Z0 F1600
G1 X67.195 Y43.721 Z0 F1600
G1 X67.333 Y43.512 Z0 F1600
G1 X67.51 Y43.336 Z0 F1600
G1 X67.743 Y43.182 Z0 F1600
G1 X68.034 Y43.057 Z0 F1600
G1 X68.071 Y43.048 Z0 F1600
G1 X68.169 Y43.036 Z0 F1600
G1 X68.327 Y43.029 Z0 F1600
G1 X68.497 Y43.032 Z0 F1600
G1 X68.917 Y43.072 Z0 F1600
G1 X69.329 Y43.153 Z0 F1600
G1 X69.813 Y43.292 Z0 F1600
G1 X70.304 Y43.467 Z0 F1600
G1 X70.791 Y43.674 Z0 F1600
G0 Z3.5 F1000
G0 X73.917 Y44.7 Z3.5 
G1 Z0 F1000
G1 X74.35 Y45.053 Z0 F1600
G1 X74.764 Y45.427 Z0 F1600
G1 X75.159 Y45.819 Z0 F1600
G1 X75.533 Y46.228 Z0 F1600
G1 X75.884 Y46.652 Z0 F1600
G1 X76.212 Y47.09 Z0 F1600
G1 X76.514 Y47.54 Z0 F1600
G1 X76.789 Y47.999 Z0 F1600
G1 X77.03 Y48.506 Z0 F1600
G1 X77.177 Y48.994 Z0 F1600
G1 X77.231 Y49.458 Z0 F1600
G1 X77.194 Y49.889 Z0 F1600
G1 X77.066 Y50.282 Z0 F1600
G1 X76.85 Y50.63 Z0 F1600
G1 X76.708 Y50.786 Z0 F1600
G1 X76.545 Y50.927 Z0 F1600
G1 X76.361 Y51.054 Z0 F1600
G1 X76.155 Y51.165 Z0 F1600
G1 X75.941 Y51.258 Z0 F1600
G1 X75.756 Y51.315 Z0 F1600
G1 X75.564 Y51.344 Z0 F1600
G1 X75.328 Y51.353 Z0 F1600
G1 X75.05 Y51.342 Z0 F1600
G1 X74.801 Y51.3 Z0 F1600
G1 X74.569 Y51.219 Z0 F1600
G1 X74.342 Y51.088 Z0 F1600
G1 X74.104 Y50.9 Z0 F1600
G1 X73.846 Y50.646 Z0 F1600
G1 X73.551 Y50.316 Z0 F1600
G1 X73.209 Y49.902 Z0 F1600
G1 X72.601 Y49.179 Z0 F1600
G1 X72.01 Y48.547 Z0 F1600
G1 X71.425 Y47.996 Z0 F1600
G1 X70.833 Y47.516 Z0 F1600
G1 X70.22 Y47.098 Z0 F1600
G1 X69.575 Y46.732 Z0 F1600
G1 X68.884 Y46.41 Z0 F1600
G1 X68.136 Y46.121 Z0 F1600
G1 X67.845 Y46.017 Z0 F1600
G1 X67.613 Y45.93 Z0 F1600
G1 X67.429 Y45.854 Z0 F1600
G1 X67.284 Y45.783 Z0 F1600
G1 X67.064 Y45.636 Z0 F1600
G1 X66.871 Y45.442 Z0 F1600
G1 X66.685 Y45.204 Z0 F1600
G1 X66.535 Y44.947 Z0 F1600
G1 X66.424 Y44.676 Z0 F1600
G1 X66.353 Y44.398 Z0 F1600
G1 X66.322 Y44.12 Z0 F1600
G1 X66.332 Y43.848 Z0 F1600
G1 X66.386 Y43.588 Z0 F1600
G1 X66.483 Y43.347 Z0 F1600
G1 X66.71 Y43.003 Z0 F1600
G1 X67.003 Y42.712 Z0 F1600
G1 X67.36 Y42.476 Z0 F1600
G1 X67.779 Y42.296 Z0 F1600
G1 X67.926 Y42.26 Z0 F1600
G1 X68.106 Y42.238 Z0 F1600
G1 X68.315 Y42.229 Z0 F1600
G1 X68.543 Y42.233 Z0 F1600
G1 X69.032 Y42.28 Z0 F1600
G1 X69.519 Y42.375 Z0 F1600
G1 X70.057 Y42.53 Z0 F1600
G1 X70.591 Y42.72 Z0 F1600
G1 X71.125 Y42.946 Z0 F1600
G1 X71.662 Y43.211 Z0 F1600
G1 X72.206 Y43.518 Z0 F1600
G1 X72.761 Y43.867 Z0 F1600
G1 X73.33 Y44.26 Z0 F1600
G1 X73.917 Y44.7 Z0 F1600
G0 Z3.5 F1000
G0 X77.163 Y51.031 Z3.5 
G1 Z0 F1000
G1 X77.205 Y51.127 Z0 F1600
G1 X77.212 Y51.211 Z0 F1600
G1 X77.192 Y51.299 Z0 F1600
G1 X77.138 Y51.399 Z0 F1600
G1 X77.048 Y51.523 Z0 F1600
G1 X76.968 Y51.618 Z0 F1600
G1 X76.891 Y51.695 Z0 F1600
G1 X76.826 Y51.748 Z0 F1600
G1 X76.699 Y51.805 Z0 F1600
G1 X76.601 Y51.895 Z0 F1600
G1 X76.52 Y51.979 Z0 F1600
G1 X76.479 Y52.001 Z0 F1600
G1 X76.136 Y51.533 Z0 F1600
G1 X76.424 Y51.392 Z0 F1600
G1 X76.612 Y51.297 Z0 F1600
G1 X76.746 Y51.219 Z0 F1600
G1 X76.85 Y51.143 Z0 F1600
G1 X76.944 Y51.055 Z0 F1600
G1 X77.028 Y50.994 Z0 F1600
G1 X77.103 Y50.986 Z0 F1600
G1 X77.163 Y51.031 Z0 F1600
G0 Z3.5 F1000
G0 X76.984 Y52.537 Z3.5 
G1 Z0 F1000
G1 X77.02 Y52.639 Z0 F1600
G1 X77.045 Y52.838 Z0 F1600
G1 X77.034 Y53.039 Z0 F1600
G1 X76.993 Y53.194 Z0 F1600
G1 X76.93 Y53.256 Z0 F1600
G1 X76.876 Y53.277 Z0 F1600
G1 X76.795 Y53.334 Z0 F1600
G1 X76.697 Y53.418 Z0 F1600
G1 X76.594 Y53.521 Z0 F1600
G1 X76.344 Y53.784 Z0 F1600
G1 X75.846 Y53.498 Z0 F1600
G1 Y53.476 Z0 F1600
G1 X75.863 Y53.424 Z0 F1600
G1 X75.889 Y53.35 Z0 F1600
G1 X75.925 Y53.261 Z0 F1600
G1 X75.98 Y53.153 Z0 F1600
G1 X76.049 Y53.066 Z0 F1600
G1 X76.135 Y52.998 Z0 F1600
G1 X76.242 Y52.942 Z0 F1600
G1 X76.462 Y52.825 Z0 F1600
G1 X76.679 Y52.673 Z0 F1600
G1 X76.835 Y52.552 Z0 F1600
G1 X76.929 Y52.507 Z0 F1600
G1 X76.984 Y52.537 Z0 F1600

; Color picking sequence
G1 Z10 F1000;         ; Raise brush to safe height
G0 X131 Y5 F1200;    ; Rapid move to color 1 position
G1 Z0 F1000;         ; Lower into color - controlled movement
G1 X130.102Y7.295Z0S800F1200
G1 X130.026Y7.642Z0F1200
G1 X130Y8Z0F1200
G1 X130.026Y8.358Z0F1200
G1 X130.102Y8.705Z0F1200
G1 X130.225Y9.041Z0F1200
G1 X130.393Y9.362Z0F1200
G1 X130.603Y9.668Z0F1200
G1 X130.854Y9.957Z0F1200
G1 X131.142Y10.226Z0F1200
G1 X131.464Y10.475Z0F1200
G1 X131.82Y10.701Z0F1200
G1 X132.204Y10.902Z0F1200
G1 X132.617Y11.078Z0F1200
G1 X133.054Y11.225Z0F1200
G1 X133.513Y11.343Z0F1200
G1 X133.992Y11.429Z0F1200
G1 X134.489Y11.482Z0F1200
G1 X135Y11.5Z0F1200
G1 X135.511Y11.482Z0F1200
G1 X136.008Y11.429Z0F1200
G1 X136.487Y11.343Z0F1200
G1 X136.946Y11.225Z0F1200
G1 X137.383Y11.078Z0F1200
G1 X137.796Y10.902Z0F1200
G1 X138.18Y10.701Z0F1200
G1 X138.536Y10.475Z0F1200
G1 X138.858Y10.226Z0F1200
G1 X139.146Y9.957Z0F1200
G1 X139.397Y9.668Z0F1200
G1 X139.607Y9.362Z0F1200
G1 X139.775Y9.041Z0F1200
G1 X139.898Y8.705Z0F1200
G1 X139.974Y8.358Z0F1200
G1 X140Y8Z0F1200
G1 X139.974Y7.642Z0F1200
G1 X139.898Y7.295Z0F1200
G1 X139.775Y6.959Z0F1200
G1 X139.607Y6.638Z0F1200
G1 X139.397Y6.332Z0F1200
G1 X139.146Y6.043Z0F1200
G1 X138.858Y5.774Z0F1200
G1 X138.536Y5.525Z0F1200
G1 X138.18Y5.299Z0F1200
G1 X137.796Y5.098Z0F1200
G1 X137.383Y4.922Z0F1200
G1 X136.946Y4.775Z0F1200
G1 X136.487Y4.657Z0F1200
G1 X136.008Y4.571Z0F1200
G1 X135.511Y4.518Z0F1200
G1 X135Y4.5Z0F1200
G1 X134.489Y4.518Z0F1200
G1 X133.992Y4.571Z0F1200
G1 X133.513Y4.657Z0F1200
G1 X133.054Y4.775Z0F1200
G1 X132.617Y4.922Z0F1200
G1 X132.204Y5.098Z0F1200
G1 X131.82Y5.299Z0F1200
G1 X131.464Y5.525Z0F1200
G1 X131.142Y5.774Z0F1200
G1 X130.854Y6.043Z0F1200
G1 X130.603Y6.332Z0F1200
G1 X130.393Y6.638Z0F1200
G1 X130.225Y6.959Z0F1200
G1 Z7 F800;         ; Raise from color - controlled movement
G1 X124 Y8 Z1 F1200;     ; Movement in paint - controlled movement
G1 X114 Y18 Z8 F500;     ; Move in paint - controlled movement
G1 F1200;           ; Set feed rate to 1000
G0 Z3.5 F1000
G0 X77.749 Y55.147 Z3.5 
G1 Z0 F1000
G1 X77.808 Y55.164 Z0 F1600
G1 X77.877 Y55.222 Z0 F1600
G1 X78.057 Y55.396 Z0 F1600
G1 X78.37 Y55.743 Z0 F1600
G1 X78.67 Y56.138 Z0 F1600
G1 X78.962 Y56.583 Z0 F1600
G1 X79.239 Y57.079 Z0 F1600
G1 X79.497 Y57.611 Z0 F1600
G1 X79.724 Y58.165 Z0 F1600
G1 X79.917 Y58.732 Z0 F1600
G1 X80.074 Y59.302 Z0 F1600
G1 X80.248 Y60.224 Z0 F1600
G1 X80.339 Y61.169 Z0 F1600
G1 X80.353 Y62.111 Z0 F1600
G1 X80.29 Y63.029 Z0 F1600
G1 X80.237 Y63.422 Z0 F1600
G1 X80.164 Y63.817 Z0 F1600
G1 X80.078 Y64.171 Z0 F1600
G1 X79.987 Y64.471 Z0 F1600
G1 X79.887 Y64.729 Z0 F1600
G1 X79.792 Y64.922 Z0 F1600
G1 X79.714 Y65.047 Z0 F1600
G1 X79.665 Y65.106 Z0 F1600
G1 X79.652 Y65.118 Z0 F1600
G1 X79.623 Y65.136 Z0 F1600
G1 X79.585 Y65.153 Z0 F1600
G1 X79.539 Y65.167 Z0 F1600
G1 X79.5 Y65.173 Z0 F1600
G1 X79.491 Z0 F1600
G1 X79.395 Y65.127 Z0 F1600
G1 X79.387 Y65.123 Z0 F1600
G1 X79.374 Y65.07 Z0 F1600
G1 X79.357 Y64.975 Z0 F1600
G1 X79.353 Y64.902 Z0 F1600
G1 Y64.863 Z0 F1600
G1 X79.362 Y64.757 Z0 F1600
G1 X79.381 Y64.571 Z0 F1600
G1 X79.409 Y64.323 Z0 F1600
G1 X79.481 Y63.45 Z0 F1600
G1 X79.512 Y62.51 Z0 F1600
G1 Y62.04 Z0 F1600
G1 X79.499 Y61.6 Z0 F1600
G1 X79.473 Y61.189 Z0 F1600
G1 X79.431 Y60.809 Z0 F1600
G1 X79.256 Y59.857 Z0 F1600
G1 X79.011 Y58.949 Z0 F1600
G1 X78.847 Y58.464 Z0 F1600
G1 X78.665 Y57.982 Z0 F1600
G1 X78.456 Y57.479 Z0 F1600
G1 X78.223 Y56.952 Z0 F1600
G1 X78.006 Y56.466 Z0 F1600
G1 X77.852 Y56.106 Z0 F1600
G1 X77.745 Y55.836 Z0 F1600
G1 X77.672 Y55.626 Z0 F1600
G1 X77.639 Y55.507 Z0 F1600
G1 X77.629 Y55.453 Z0 F1600
G1 Y55.429 Z0 F1600
G1 Y55.384 Z0 F1600
G1 X77.635 Y55.323 Z0 F1600
G1 X77.642 Y55.294 Z0 F1600
G1 X77.654 Y55.258 Z0 F1600
G1 X77.678 Y55.203 Z0 F1600
G1 X77.705 Y55.158 Z0 F1600
G1 X77.718 Y55.151 Z0 F1600
G1 X77.736 Y55.146 Z0 F1600
G1 X77.749 Z0 F1600
G0 Z3.5 F1000
G0 X78.986 Y55.231 Z3.5 
G1 Z0 F1000
G1 X79.322 Y55.673 Z0 F1600
G1 X79.647 Y56.171 Z0 F1600
G1 X79.951 Y56.712 Z0 F1600
G1 X80.224 Y57.277 Z0 F1600
G1 X80.475 Y57.887 Z0 F1600
G1 X80.684 Y58.499 Z0 F1600
G1 X80.853 Y59.118 Z0 F1600
G1 X81.04 Y60.107 Z0 F1600
G1 X81.139 Y61.127 Z0 F1600
G1 X81.153 Y62.131 Z0 F1600
G1 X81.086 Y63.11 Z0 F1600
G1 X81.026 Y63.557 Z0 F1600
G1 X80.947 Y63.981 Z0 F1600
G1 X80.852 Y64.376 Z0 F1600
G1 X80.741 Y64.737 Z0 F1600
G1 X80.62 Y65.051 Z0 F1600
G1 X80.492 Y65.312 Z0 F1600
G1 X80.364 Y65.517 Z0 F1600
G1 X80.24 Y65.667 Z0 F1600
G1 X80.134 Y65.759 Z0 F1600
G1 X80.008 Y65.839 Z0 F1600
G1 X79.866 Y65.904 Z0 F1600
G1 X79.716 Y65.949 Z0 F1600
G1 X79.564 Y65.973 Z0 F1600
G1 X79.428 Z0 F1600
G1 X79.312 Y65.958 Z0 F1600
G1 X79.194 Y65.918 Z0 F1600
G1 X79.02 Y65.835 Z0 F1600
G1 X78.886 Y65.758 Z0 F1600
G1 X78.798 Y65.693 Z0 F1600
G1 X78.746 Y65.642 Z0 F1600
G1 X78.709 Y65.592 Z0 F1600
G1 X78.673 Y65.521 Z0 F1600
G1 X78.633 Y65.406 Z0 F1600
G1 X78.59 Y65.234 Z0 F1600
G1 X78.561 Y65.068 Z0 F1600
G1 X78.552 Y64.907 Z0 F1600
G1 X78.555 Y64.827 Z0 F1600
G1 X78.566 Y64.671 Z0 F1600
G1 X78.583 Y64.502 Z0 F1600
G1 X78.613 Y64.245 Z0 F1600
G1 X78.683 Y63.404 Z0 F1600
G1 X78.712 Y62.498 Z0 F1600
G1 Y62.052 Z0 F1600
G1 X78.699 Y61.637 Z0 F1600
G1 X78.676 Y61.258 Z0 F1600
G1 X78.639 Y60.925 Z0 F1600
G1 X78.475 Y60.033 Z0 F1600
G1 X78.246 Y59.182 Z0 F1600
G1 X78.094 Y58.734 Z0 F1600
G1 X77.921 Y58.277 Z0 F1600
G1 X77.72 Y57.793 Z0 F1600
G1 X77.492 Y57.277 Z0 F1600
G1 X77.276 Y56.793 Z0 F1600
G1 X77.108 Y56.402 Z0 F1600
G1 X76.991 Y56.107 Z0 F1600
G1 X76.907 Y55.865 Z0 F1600
G1 X76.86 Y55.693 Z0 F1600
G1 X76.835 Y55.557 Z0 F1600
G1 X76.827 Y55.445 Z0 F1600
G1 X76.83 Y55.328 Z0 F1600
G1 X76.844 Y55.196 Z0 F1600
G1 X76.869 Y55.083 Z0 F1600
G1 X76.908 Y54.967 Z0 F1600
G1 X76.966 Y54.836 Z0 F1600
G1 X77.072 Y54.654 Z0 F1600
G1 X77.156 Y54.558 Z0 F1600
G1 X77.258 Y54.483 Z0 F1600
G1 X77.434 Y54.401 Z0 F1600
G1 X77.592 Y54.355 Z0 F1600
G1 X77.737 Y54.342 Z0 F1600
G1 X77.9 Y54.359 Z0 F1600
G1 X78.097 Y54.415 Z0 F1600
G1 X78.182 Y54.452 Z0 F1600
G1 X78.274 Y54.511 Z0 F1600
G1 X78.418 Y54.632 Z0 F1600
G1 X78.628 Y54.836 Z0 F1600
G1 X78.986 Y55.231 Z0 F1600
G0 Z3.5 F1000
G0 X81.222 Y57.602 Z3.5 
G1 Z0 F1000
G1 X81.449 Y58.265 Z0 F1600
G1 X81.633 Y58.939 Z0 F1600
G1 X81.833 Y59.996 Z0 F1600
G1 X81.938 Y61.08 Z0 F1600
G1 X81.953 Y62.156 Z0 F1600
G1 X81.883 Y63.19 Z0 F1600
G1 X81.816 Y63.682 Z0 F1600
G1 X81.729 Y64.149 Z0 F1600
G1 X81.624 Y64.589 Z0 F1600
G1 X81.499 Y64.998 Z0 F1600
G1 X81.354 Y65.37 Z0 F1600
G1 X81.192 Y65.701 Z0 F1600
G1 X81.013 Y65.987 Z0 F1600
G1 X80.816 Y66.225 Z0 F1600
G1 X80.616 Y66.4 Z0 F1600
G1 X80.391 Y66.544 Z0 F1600
G1 X80.147 Y66.655 Z0 F1600
G1 X79.893 Y66.731 Z0 F1600
G1 X79.633 Y66.772 Z0 F1600
G1 X79.375 Y66.775 Z0 F1600
G1 X79.126 Y66.739 Z0 F1600
G1 X78.894 Y66.662 Z0 F1600
G1 X78.65 Y66.545 Z0 F1600
G1 X78.446 Y66.428 Z0 F1600
G1 X78.277 Y66.303 Z0 F1600
G1 X78.138 Y66.166 Z0 F1600
G1 X78.026 Y66.013 Z0 F1600
G1 X77.937 Y65.837 Z0 F1600
G1 X77.865 Y65.635 Z0 F1600
G1 X77.807 Y65.402 Z0 F1600
G1 X77.765 Y65.157 Z0 F1600
G1 X77.751 Y64.918 Z0 F1600
G1 X77.756 Y64.779 Z0 F1600
G1 X77.769 Y64.613 Z0 F1600
G1 X77.789 Y64.412 Z0 F1600
G1 X77.816 Y64.167 Z0 F1600
G1 X77.884 Y63.358 Z0 F1600
G1 X77.912 Y62.486 Z0 F1600
G1 Y62.064 Z0 F1600
G1 X77.9 Y61.673 Z0 F1600
G1 X77.878 Y61.327 Z0 F1600
G1 X77.847 Y61.042 Z0 F1600
G1 X77.694 Y60.21 Z0 F1600
G1 X77.479 Y59.414 Z0 F1600
G1 X77.341 Y59.004 Z0 F1600
G1 X77.177 Y58.572 Z0 F1600
G1 X76.985 Y58.108 Z0 F1600
G1 X76.761 Y57.602 Z0 F1600
G1 X76.545 Y57.12 Z0 F1600
G1 X76.373 Y56.718 Z0 F1600
G1 X76.241 Y56.384 Z0 F1600
G1 X76.144 Y56.104 Z0 F1600
G1 X76.079 Y55.867 Z0 F1600
G1 X76.041 Y55.659 Z0 F1600
G1 X76.026 Y55.466 Z0 F1600
G1 X76.031 Y55.277 Z0 F1600
G1 X76.054 Y55.065 Z0 F1600
G1 X76.097 Y54.87 Z0 F1600
G1 X76.162 Y54.676 Z0 F1600
G1 X76.253 Y54.472 Z0 F1600
G1 X76.419 Y54.186 Z0 F1600
G1 X76.612 Y53.965 Z0 F1600
G1 X76.849 Y53.792 Z0 F1600
G1 X77.15 Y53.65 Z0 F1600
G1 X77.444 Y53.565 Z0 F1600
G1 X77.744 Y53.539 Z0 F1600
G1 X78.051 Y53.57 Z0 F1600
G1 X78.367 Y53.66 Z0 F1600
G1 X78.562 Y53.746 Z0 F1600
G1 X78.747 Y53.863 Z0 F1600
G1 X78.952 Y54.035 Z0 F1600
G1 X79.207 Y54.283 Z0 F1600
G1 X79.602 Y54.72 Z0 F1600
G1 X79.978 Y55.213 Z0 F1600
G1 X80.332 Y55.756 Z0 F1600
G1 X80.66 Y56.34 Z0 F1600
G1 X80.958 Y56.958 Z0 F1600
G1 X81.222 Y57.602 Z0 F1600
G0 Z3.5 F1000
G0 X79.094 Y67.08 Z3.5 
G1 Z0 F1000
G1 X79.229 Y67.102 Z0 F1600
G1 X79.394 Y67.123 Z0 F1600
G1 X79.706 Y67.151 Z0 F1600
G1 X79.809 Y67.163 Z0 F1600
G1 X79.884 Y67.175 Z0 F1600
G1 X79.934 Y67.191 Z0 F1600
G1 X79.978 Y67.24 Z0 F1600
G1 X79.975 Y67.327 Z0 F1600
G1 X79.942 Y67.458 Z0 F1600
G1 X79.88 Y67.544 Z0 F1600
G1 X79.774 Y67.593 Z0 F1600
G1 X79.612 Y67.616 Z0 F1600
G1 X79.371 Y67.629 Z0 F1600
G1 X79.17 Z0 F1600
G1 X79.008 Y67.619 Z0 F1600
G1 X78.884 Y67.596 Z0 F1600
G1 X78.797 Y67.56 Z0 F1600
G1 X78.745 Y67.511 Z0 F1600
G1 X78.728 Y67.45 Z0 F1600
G1 X78.745 Y67.374 Z0 F1600
G1 X78.794 Y67.244 Z0 F1600
G1 X78.835 Y67.125 Z0 F1600
G1 X78.858 Y67.074 Z0 F1600
G1 X78.892 Y67.048 Z0 F1600
G1 X78.94 Y67.043 Z0 F1600
G1 X79.094 Y67.08 Z0 F1600
G0 Z3.5 F1000
G0 X77.421 Y68.086 Z3.5 
G1 Z0 F1000
G1 X77.586 Y68.122 Z0 F1600
G1 X77.761 Y68.186 Z0 F1600
G1 X77.934 Y68.272 Z0 F1600
G1 X78.096 Y68.377 Z0 F1600
G1 X78.236 Y68.496 Z0 F1600
G1 X78.342 Y68.624 Z0 F1600
G1 X78.392 Y68.713 Z0 F1600
G1 X78.385 Y68.784 Z0 F1600
G1 X78.354 Y68.824 Z0 F1600
G1 X78.301 Y68.872 Z0 F1600
G1 X78.224 Y68.933 Z0 F1600
G1 X77.802 Y69.249 Z0 F1600
G1 X77.537 Y69.115 Z0 F1600
G1 X77.388 Y69.031 Z0 F1600
G1 X77.295 Y68.941 Z0 F1600
G1 X77.232 Y68.804 Z0 F1600
G1 X77.17 Y68.577 Z0 F1600
G1 X77.118 Y68.356 Z0 F1600
G1 X77.1 Y68.228 Z0 F1600
G1 X77.115 Y68.158 Z0 F1600
G1 X77.164 Y68.117 Z0 F1600
G1 X77.277 Y68.083 Z0 F1600
G1 X77.421 Y68.086 Z0 F1600
G0 Z3.5 F1000
G0 X76.559 Y70.852 Z3.5 
G1 Z0 F1000
G1 X76.637 Y70.869 Z0 F1600
G1 X76.632 Y71.083 Z0 F1600
G1 X76.59 Y71.42 Z0 F1600
G1 X76.51 Y71.822 Z0 F1600
G1 X76.399 Y72.277 Z0 F1600
G1 X76.342 Y72.485 Z0 F1600
G1 X76.285 Y72.675 Z0 F1600
G1 X76.243 Y72.8 Z0 F1600
G1 X76.21 Y72.885 Z0 F1600
G1 X75.983 Y73.415 Z0 F1600
G1 X75.524 Y74.375 Z0 F1600
G1 X75.008 Y75.258 Z0 F1600
G1 X74.419 Y76.096 Z0 F1600
G1 X73.768 Y76.879 Z0 F1600
G1 X73.441 Y77.224 Z0 F1600
G1 X73.1 Y77.555 Z0 F1600
G1 X72.737 Y77.877 Z0 F1600
G1 X72.374 Y78.17 Z0 F1600
G1 X72.008 Y78.438 Z0 F1600
G1 X71.638 Y78.682 Z0 F1600
G1 X71.259 Y78.904 Z0 F1600
G1 X70.915 Y79.082 Z0 F1600
G1 X70.695 Y79.171 Z0 F1600
G1 X70.572 Y79.201 Z0 F1600
G1 X70.512 Y79.206 Z0 F1600
G1 X70.506 Z0 F1600
G1 X70.495 Y79.198 Z0 F1600
G1 X70.446 Y79.154 Z0 F1600
G1 X70.354 Y79.037 Z0 F1600
G1 X70.338 Y79.009 Z0 F1600
G1 X70.329 Y78.988 Z0 F1600
G1 Y78.984 Z0 F1600
G1 Y78.975 Z0 F1600
G1 X70.333 Y78.943 Z0 F1600
G1 X70.348 Y78.888 Z0 F1600
G1 X70.358 Y78.863 Z0 F1600
G1 X70.372 Y78.84 Z0 F1600
G1 X70.471 Y78.728 Z0 F1600
G1 X70.685 Y78.533 Z0 F1600
G1 X71.049 Y78.25 Z0 F1600
G1 X71.556 Y77.861 Z0 F1600
G1 X72.088 Y77.403 Z0 F1600
G1 X72.603 Y76.913 Z0 F1600
G1 X73.096 Y76.392 Z0 F1600
G1 X73.567 Y75.843 Z0 F1600
G1 X74.015 Y75.27 Z0 F1600
G1 X74.436 Y74.673 Z0 F1600
G1 X74.828 Y74.057 Z0 F1600
G1 X75.147 Y73.501 Z0 F1600
G1 X75.413 Y72.966 Z0 F1600
G1 X75.543 Y72.666 Z0 F1600
G1 X75.665 Y72.364 Z0 F1600
G1 X75.785 Y72.041 Z0 F1600
G1 X75.998 Y71.442 Z0 F1600
G1 X76.051 Y71.305 Z0 F1600
G1 X76.091 Y71.213 Z0 F1600
G1 X76.141 Y71.143 Z0 F1600
G1 X76.25 Y71.029 Z0 F1600
G1 X76.386 Y70.91 Z0 F1600
G1 X76.458 Y70.86 Z0 F1600
G1 X76.481 Y70.85 Z0 F1600
G1 X76.501 Z0 F1600
G1 X76.559 Z0 F1600
G0 Z3.5 F1000
G0 X77.439 Y70.802 Z3.5 
G1 Z0 F1000
G1 X77.431 Y71.142 Z0 F1600
G1 X77.381 Y71.543 Z0 F1600
G1 X77.291 Y71.994 Z0 F1600
G1 X77.168 Y72.497 Z0 F1600
G1 X77.113 Y72.701 Z0 F1600
G1 X77.051 Y72.907 Z0 F1600
G1 X76.996 Y73.07 Z0 F1600
G1 X76.948 Y73.193 Z0 F1600
G1 X76.709 Y73.751 Z0 F1600
G1 X76.232 Y74.749 Z0 F1600
G1 X75.68 Y75.692 Z0 F1600
G1 X75.057 Y76.582 Z0 F1600
G1 X74.369 Y77.408 Z0 F1600
G1 X74.014 Y77.783 Z0 F1600
G1 X73.64 Y78.146 Z0 F1600
G1 X73.255 Y78.486 Z0 F1600
G1 X72.862 Y78.804 Z0 F1600
G1 X72.462 Y79.097 Z0 F1600
G1 X72.06 Y79.362 Z0 F1600
G1 X71.649 Y79.604 Z0 F1600
G1 X71.247 Y79.811 Z0 F1600
G1 X70.944 Y79.934 Z0 F1600
G1 X70.694 Y79.995 Z0 F1600
G1 X70.489 Y80.009 Z0 F1600
G1 X70.319 Y79.988 Z0 F1600
G1 X70.167 Y79.934 Z0 F1600
G1 X70.015 Y79.843 Z0 F1600
G1 X69.858 Y79.7 Z0 F1600
G1 X69.695 Y79.492 Z0 F1600
G1 X69.622 Y79.368 Z0 F1600
G1 X69.573 Y79.255 Z0 F1600
G1 X69.542 Y79.144 Z0 F1600
G1 X69.527 Y79.032 Z0 F1600
G1 Y78.917 Z0 F1600
G1 X69.547 Y78.782 Z0 F1600
G1 X69.585 Y78.643 Z0 F1600
G1 X69.641 Y78.503 Z0 F1600
G1 X69.726 Y78.364 Z0 F1600
G1 X69.897 Y78.168 Z0 F1600
G1 X70.176 Y77.914 Z0 F1600
G1 X70.556 Y77.62 Z0 F1600
G1 X71.051 Y77.24 Z0 F1600
G1 X71.551 Y76.811 Z0 F1600
G1 X72.036 Y76.348 Z0 F1600
G1 X72.502 Y75.856 Z0 F1600
G1 X72.948 Y75.336 Z0 F1600
G1 X73.372 Y74.793 Z0 F1600
G1 X73.771 Y74.227 Z0 F1600
G1 X74.143 Y73.643 Z0 F1600
G1 X74.441 Y73.124 Z0 F1600
G1 X74.688 Y72.628 Z0 F1600
G1 X74.805 Y72.358 Z0 F1600
G1 X74.918 Y72.076 Z0 F1600
G1 X75.033 Y71.768 Z0 F1600
G1 X75.244 Y71.174 Z0 F1600
G1 X75.311 Y71.001 Z0 F1600
G1 X75.367 Y70.873 Z0 F1600
G1 X75.409 Y70.793 Z0 F1600
G1 X75.521 Y70.634 Z0 F1600
G1 X75.697 Y70.449 Z0 F1600
G1 X75.897 Y70.274 Z0 F1600
G1 X76.063 Y70.163 Z0 F1600
G1 X76.206 Y70.096 Z0 F1600
G1 X76.338 Y70.06 Z0 F1600
G1 X76.494 Y70.045 Z0 F1600
G1 X76.667 Y70.058 Z0 F1600
G1 X76.853 Y70.097 Z0 F1600
G1 X77.033 Y70.161 Z0 F1600
G1 X77.185 Y70.239 Z0 F1600
G1 X77.297 Y70.319 Z0 F1600
G1 X77.356 Y70.381 Z0 F1600
G1 X77.375 Y70.413 Z0 F1600
G1 X77.414 Y70.549 Z0 F1600
G1 X77.439 Y70.802 Z0 F1600
G0 Z3.5 F1000
G0 X77.812 Y73.153 Z3.5 
G1 Z0 F1000
G1 X77.748 Y73.344 Z0 F1600
G1 X77.689 Y73.495 Z0 F1600
G1 X77.441 Y74.073 Z0 F1600
G1 X76.939 Y75.124 Z0 F1600
G1 X76.354 Y76.125 Z0 F1600
G1 X75.693 Y77.067 Z0 F1600
G1 X74.966 Y77.94 Z0 F1600
G1 X74.582 Y78.347 Z0 F1600
G1 X74.183 Y78.733 Z0 F1600
G1 X73.773 Y79.097 Z0 F1600
G1 X73.352 Y79.437 Z0 F1600
G1 X72.921 Y79.753 Z0 F1600
G1 X72.481 Y80.042 Z0 F1600
G1 X72.035 Y80.305 Z0 F1600
G1 X71.581 Y80.539 Z0 F1600
G1 X71.191 Y80.697 Z0 F1600
G1 X70.819 Y80.788 Z0 F1600
G1 X70.466 Y80.813 Z0 F1600
G1 X70.134 Y80.771 Z0 F1600
G1 X69.824 Y80.662 Z0 F1600
G1 X69.536 Y80.488 Z0 F1600
G1 X69.271 Y80.248 Z0 F1600
G1 X69.031 Y79.942 Z0 F1600
G1 X68.908 Y79.734 Z0 F1600
G1 X68.816 Y79.521 Z0 F1600
G1 X68.756 Y79.304 Z0 F1600
G1 X68.727 Y79.081 Z0 F1600
G1 Y78.854 Z0 F1600
G1 X68.762 Y78.623 Z0 F1600
G1 X68.826 Y78.386 Z0 F1600
G1 X68.921 Y78.146 Z0 F1600
G1 X69.078 Y77.889 Z0 F1600
G1 X69.325 Y77.607 Z0 F1600
G1 X69.657 Y77.304 Z0 F1600
G1 X70.069 Y76.985 Z0 F1600
G1 X70.546 Y76.619 Z0 F1600
G1 X71.014 Y76.217 Z0 F1600
G1 X71.469 Y75.783 Z0 F1600
G1 X71.908 Y75.32 Z0 F1600
G1 X72.329 Y74.83 Z0 F1600
G1 X72.729 Y74.316 Z0 F1600
G1 X73.107 Y73.781 Z0 F1600
G1 X73.458 Y73.229 Z0 F1600
G1 X73.735 Y72.747 Z0 F1600
G1 X73.962 Y72.291 Z0 F1600
G1 X74.067 Y72.049 Z0 F1600
G1 X74.172 Y71.787 Z0 F1600
G1 X74.281 Y71.494 Z0 F1600
G1 X74.49 Y70.906 Z0 F1600
G1 X74.57 Y70.697 Z0 F1600
G1 X74.646 Y70.523 Z0 F1600
G1 X74.723 Y70.376 Z0 F1600
G1 X74.9 Y70.125 Z0 F1600
G1 X75.145 Y69.87 Z0 F1600
G1 X75.408 Y69.639 Z0 F1600
G1 X75.668 Y69.464 Z0 F1600
G1 X75.929 Y69.342 Z0 F1600
G1 X76.196 Y69.269 Z0 F1600
G1 X76.483 Y69.243 Z0 F1600
G1 X76.779 Y69.264 Z0 F1600
G1 X77.071 Y69.325 Z0 F1600
G1 X77.35 Y69.424 Z0 F1600
G1 X77.604 Y69.555 Z0 F1600
G1 X77.824 Y69.713 Z0 F1600
G1 X77.998 Y69.895 Z0 F1600
G1 X78.116 Y70.096 Z0 F1600
G1 X78.202 Y70.398 Z0 F1600
G1 X78.24 Y70.771 Z0 F1600
G1 X78.23 Y71.201 Z0 F1600
G1 X78.171 Y71.672 Z0 F1600
G1 X78.072 Y72.168 Z0 F1600
G1 X77.946 Y72.687 Z0 F1600
G1 X77.879 Y72.931 Z0 F1600
G1 X77.812 Y73.153 Z0 F1600
G0 Z3.5 F1000
G0 X68.903 Y80.313 Z3.5 
G1 Z0 F1000
G1 X69.16 Y80.57 Z0 F1600
G1 X69.512 Y80.887 Z0 F1600
G1 X69.584 Y80.979 Z0 F1600
G1 X69.607 Y81.066 Z0 F1600
G1 X69.595 Y81.175 Z0 F1600
G1 X69.563 Y81.311 Z0 F1600
G1 X69.539 Y81.367 Z0 F1600
G1 X69.497 Y81.351 Z0 F1600
G1 X69.25 Y81.241 Z0 F1600
G1 X68.894 Y81.08 Z0 F1600
G1 X68.6 Y80.951 Z0 F1600
G1 X68.523 Y80.921 Z0 F1600
G1 X68.44 Y80.864 Z0 F1600
G1 X68.426 Y80.775 Z0 F1600
G1 X68.481 Y80.65 Z0 F1600
G1 X68.605 Y80.487 Z0 F1600
G1 X68.682 Y80.404 Z0 F1600
G1 X68.751 Y80.335 Z0 F1600
G1 X68.806 Y80.29 Z0 F1600
G1 X68.837 Y80.272 Z0 F1600
G1 X68.903 Y80.313 Z0 F1600
G0 Z3.5 F1000
G0 X66.235 Y80.053 Z3.5 
G1 Z0 F1000
G1 X66.305 Y80.105 Z0 F1600
G1 X66.34 Y80.206 Z0 F1600
G1 X66.346 Y80.273 Z0 F1600
G1 X66.336 Y80.312 Z0 F1600
G1 X66.311 Y80.324 Z0 F1600
G1 X66.267 Y80.314 Z0 F1600
G1 X66.189 Y80.306 Z0 F1600
G1 X66.136 Y80.336 Z0 F1600
G1 X66.147 Y80.377 Z0 F1600
G1 X66.225 Y80.394 Z0 F1600
G1 X66.281 Y80.401 Z0 F1600
G1 X66.32 Y80.425 Z0 F1600
G1 X66.343 Y80.465 Z0 F1600
G1 X66.35 Y80.522 Z0 F1600
G1 X66.393 Y80.698 Z0 F1600
G1 X66.497 Y80.941 Z0 F1600
G1 X66.549 Y81.055 Z0 F1600
G1 X66.583 Y81.148 Z0 F1600
G1 X66.594 Y81.222 Z0 F1600
G1 X66.584 Y81.279 Z0 F1600
G1 X66.553 Y81.32 Z0 F1600
G1 X66.498 Y81.347 Z0 F1600
G1 X66.418 Y81.362 Z0 F1600
G1 X66.315 Y81.367 Z0 F1600
G1 X66.208 Y81.359 Z0 F1600
G1 X66.142 Y81.326 Z0 F1600
G1 X66.097 Y81.247 Z0 F1600
G1 X66.056 Y81.105 Z0 F1600
G1 X65.955 Y80.845 Z0 F1600
G1 X65.804 Y80.587 Z0 F1600
G1 X65.708 Y80.448 Z0 F1600
G1 X65.666 Y80.366 Z0 F1600
G1 X65.674 Y80.32 Z0 F1600
G1 X65.726 Y80.291 Z0 F1600
G1 X65.811 Y80.251 Z0 F1600
G1 X65.864 Y80.211 Z0 F1600
G1 X65.921 Y80.162 Z0 F1600
G1 X66.016 Y80.101 Z0 F1600
G1 X66.138 Y80.052 Z0 F1600
G1 X66.235 Z0 F1600
G0 Z3.5 F1000
G0 X61.992 Y82.503 Z3.5 
G1 Z0 F1000
G1 X62.88 Y82.693 Z0 F1600
G1 X62.768 Y82.743 Z0 F1600
G1 X62.226 Y82.934 Z0 F1600
G1 X61.617 Y83.1 Z0 F1600
G1 X60.958 Y83.234 Z0 F1600
G1 X60.261 Y83.332 Z0 F1600
G1 X59.524 Y83.392 Z0 F1600
G1 X58.741 Y83.413 Z0 F1600
G1 X58.286 Y83.407 Z0 F1600
G1 X57.934 Y83.39 Z0 F1600
G1 X57.78 Y83.375 Z0 F1600
G1 X60.339 Y82.604 Z0 F1600
G1 X60.261 Y82.483 Z0 F1600
G1 X60.442 Y82.475 Z0 F1600
G1 X60.949 Y82.431 Z0 F1600
G1 X61.438 Y82.367 Z0 F1600
G1 X61.868 Y82.29 Z0 F1600
G1 X61.992 Y82.503 Z0 F1600
G0 Z3.5 F1000
G0 X57.566 Y83.35 Z3.5 
G1 Z0 F1000
G1 X57.364 Y83.318 Z0 F1600
G1 X57.145 Y83.273 Z0 F1600
G1 X56.874 Y83.208 Z0 F1600
G1 X56.566 Y83.125 Z0 F1600
G1 X56.251 Y83.034 Z0 F1600
G1 X55.961 Y82.943 Z0 F1600
G1 X55.685 Y82.849 Z0 F1600
G1 X55.479 Y82.771 Z0 F1600
G1 X55.033 Y82.576 Z0 F1600
G1 X54.971 Y82.557 Z0 F1600
G1 X54.958 Y82.549 Z0 F1600
G1 X54.813 Y82.458 Z0 F1600
G1 X54.624 Y82.333 Z0 F1600
G1 X54.244 Y82.052 Z0 F1600
G1 X53.944 Y81.786 Z0 F1600
G1 X53.715 Y81.538 Z0 F1600
G1 X53.647 Y81.441 Z0 F1600
G1 X53.669 Y81.406 Z0 F1600
G1 X53.727 Y81.348 Z0 F1600
G1 X53.744 Y81.336 Z0 F1600
G1 X53.869 Y81.353 Z0 F1600
G1 X54.042 Y81.389 Z0 F1600
G1 X54.3 Y81.457 Z0 F1600
G1 X54.633 Y81.557 Z0 F1600
G1 X55.022 Y81.685 Z0 F1600
G1 X55.359 Y81.798 Z0 F1600
G1 X55.677 Y81.902 Z0 F1600
G1 X55.973 Y81.996 Z0 F1600
G1 X55.997 Y82.003 Z0 F1600
G1 X56.436 Y82.683 Z0 F1600
G1 X56.877 Y83.029 Z0 F1600
G1 X57.566 Y83.35 Z0 F1600
G0 Z3.5 F1000
G0 X59.565 Y84.191 Z3.5 
G1 Z0 F1000
G1 X58.74 Y84.213 Z0 F1600
G1 X58.279 Y84.208 Z0 F1600
G1 X57.876 Y84.188 Z0 F1600
G1 X57.536 Y84.155 Z0 F1600
G1 X57.224 Y84.106 Z0 F1600
G1 X56.965 Y84.053 Z0 F1600
G1 X56.669 Y83.981 Z0 F1600
G1 X56.361 Y83.899 Z0 F1600
G1 X56.016 Y83.798 Z0 F1600
G1 X55.699 Y83.699 Z0 F1600
G1 X55.409 Y83.6 Z0 F1600
G1 X55.191 Y83.518 Z0 F1600
G1 X54.753 Y83.327 Z0 F1600
G1 X54.646 Y83.293 Z0 F1600
G1 X54.561 Y83.244 Z0 F1600
G1 X54.367 Y83.122 Z0 F1600
G1 X54.166 Y82.989 Z0 F1600
G1 X53.741 Y82.675 Z0 F1600
G1 X53.378 Y82.353 Z0 F1600
G1 X53.095 Y82.045 Z0 F1600
G1 X52.921 Y81.8 Z0 F1600
G1 X52.857 Y81.643 Z0 F1600
G1 X52.835 Y81.466 Z0 F1600
G1 X52.856 Y81.271 Z0 F1600
G1 X52.924 Y81.083 Z0 F1600
G1 X53.041 Y80.905 Z0 F1600
G1 X53.204 Y80.737 Z0 F1600
G1 X53.377 Y80.617 Z0 F1600
G1 X53.544 Y80.548 Z0 F1600
G1 X53.59 Y80.539 Z0 F1600
G1 X53.688 Y80.533 Z0 F1600
G1 X53.824 Y80.539 Z0 F1600
G1 X53.997 Y80.563 Z0 F1600
G1 X54.236 Y80.613 Z0 F1600
G1 X54.511 Y80.685 Z0 F1600
G1 X54.86 Y80.79 Z0 F1600
G1 X55.282 Y80.929 Z0 F1600
G1 X55.611 Y81.039 Z0 F1600
G1 X55.922 Y81.141 Z0 F1600
G1 X56.21 Y81.232 Z0 F1600
G1 X56.484 Y81.315 Z0 F1600
