; --- START RESUME HEADER ---
; G-code resume file created for 1ymc.gcode
; Start position identified: MPos: 63.118, -8.323, 2.954 (Line 24838)
;
; NOTE: You MUST ensure your machine is in the exact position (63.118, -8.323, 2.954)
; before running this file, or set the current position.
;
M109 S180 ; Resume extruder temperature (If needed, modify to your actual print temp)
G21 ; Set units to millimeters
G90 ; Set to absolute positioning
G92 E0 ; Reset Extruder
G0 Z5.000 ; Lift Z-axis to a safe height (5mm)
; Move tool to the last known position from Line 24838
G0 X63.118 Y-8.323 Z5.000 ; Move to X/Y/Safe Z
G0 Z2.954 ; Lower Z back to the exact last known position
G92 E0 ; Reset Extruder again (important for subsequent E moves)
;
; --- END RESUME HEADER ---
; --- START FROM ORIGINAL LINE 24839 ---
G0 X62.946
G1 X62.775 Y-8.199 E0.003
G1 X62.603 Y-8.083 E0.003
G1 X62.433 Y-7.975 E0.003
G1 X62.262 Y-7.876 E0.003
G1 X62.092 Y-7.784 E0.003
G1 X61.921 Y-7.701 E0.003
G1 X61.752 Y-7.625 E0.003
G1 X61.583 Y-7.558 E0.003
G1 X61.414 Y-7.499 E0.003
G1 X61.246 Y-7.447 E0.003
G1 X61.079 Y-7.403 E0.003
G1 X61.000 Y-7.387 E0.001
G1 X60.835 Y-7.347 E0.003
G1 X60.671 Y-7.315 E0.003
G1 X60.506 Y-7.291 E0.003
G1 X60.344 Y-7.274 E0.003
G1 X60.181 Y-7.265 E0.003
G1 X60.020 Y-7.263 E0.003
G1 X59.859 Y-7.269 E0.003
G1 X59.699 Y-7.283 E0.003
G1 X59.541 Y-7.304 E0.003
G1 X59.383 Y-7.333 E0.003
G1 X59.227 Y-7.368 E0.003
G1 X59.072 Y-7.411 E0.003
G1 X58.918 Y-7.461 E0.003
G1 X58.766 Y-7.518 E0.003
G1 X58.615 Y-7.581 E0.003
G1 X58.466 Y-7.651 E0.003
G1 X58.318 Y-7.728 E0.003
G1 X58.172 Y-7.811 E0.003
G1 X58.028 Y-7.900 E0.003
G1 X57.886 Y-7.995 E0.003
G1 X57.746 Y-8.096 E0.003
G1 X57.608 Y-8.203 E0.003
G1 X57.472 Y-8.315 E0.003
G1 X57.338 Y-8.432 E0.003
G1 X57.207 Y-8.555 E0.003
G1 X57.078 Y-8.683 E0.003
G1 X56.952 Y-8.814 E0.003
G1 X56.828 Y-8.950 E0.003
G1 X56.707 Y-9.089 E0.003
G1 X56.588 Y-9.231 E0.003
G1 X56.473 Y-9.376 E0.003
G1 X56.360 Y-9.524 E0.003
G1 X56.250 Y-9.673 E0.003
G1 X56.143 Y-9.825 E0.003
G1 X56.040 Y-9.977 E0.003
G1 X55.939 Y-10.131 E0.003
G1 X55.842 Y-10.286 E0.003
G1 X55.748 Y-10.441 E0.003
G1 X55.658 Y-10.596 E0.003
G1 X55.571 Y-10.751 E0.003
G1 X55.488 Y-10.905 E0.003
G1 X55.409 Y-11.059 E0.003
G1 X55.334 Y-11.212 E0.003
G1 X55.263 Y-11.363 E0.003
G1 X55.197 Y-11.513 E0.003
G1 X55.134 Y-11.662 E0.003
G1 X55.076 Y-11.808 E0.003
G1 X55.023 Y-11.953 E0.003
G1 X54.974 Y-12.095 E0.003
G1 X54.930 Y-12.235 E0.003
G1 X54.892 Y-12.372 E0.003
G1 X54.858 Y-12.506 E0.003
G1 X54.830 Y-12.637 E0.003
G1 X54.808 Y-12.765 E0.002
G1 X54.792 Y-12.889 E0.002
G1 X54.781 Y-13.010 E0.002
G1 X54.776 Y-13.127 E0.002
G1 X54.777 Y-13.241 E0.002
G1 X54.785 Y-13.350 E0.002
G1 X54.799 Y-13.456 E0.002
G1 X54.819 Y-13.557 E0.002
G1 X54.845 Y-13.654 E0.002
G1 X54.877 Y-13.746 E0.002
G1 X54.914 Y-13.834 E0.002
G1 X54.958 Y-13.916 E0.002
G1 X55.008 Y-13.993 E0.002
G1 X55.064 Y-14.065 E0.002
G1 X55.126 Y-14.131 E0.002
G1 X55.193 Y-14.192 E0.002
G1 X55.266 Y-14.248 E0.002
G1 X55.344 Y-14.298 E0.002
G1 X55.428 Y-14.341 E0.002
G1 X55.517 Y-14.379 E0.002
G1 X55.611 Y-14.411 E0.002
G1 X55.710 Y-14.437 E0.002
G1 X55.813 Y-14.456 E0.002
G1 X55.921 Y-14.469 E0.002
G1 X56.033 Y-14.475 E0.002
G1 X56.148 Y-14.475 E0.002
G1 X56.267 Y-14.467 E0.002
G1 X56.389 Y-14.453 E0.002
G1 X56.514 Y-14.432 E0.002
G1 X56.641 Y-14.404 E0.002
G1 X56.771 Y-14.370 E0.002
G1 X56.903 Y-14.329 E0.002
G1 X57.037 Y-14.281 E0.002
G1 X57.172 Y-14.227 E0.002
G1 X57.309 Y-14.167 E0.002
G1 X57.447 Y-14.100 E0.002
G1 X57.586 Y-14.027 E0.002
G1 X57.726 Y-13.947 E0.002
G1 X57.867 Y-13.861 E0.002
G1 X58.007 Y-13.769 E0.002
G1 X58.148 Y-13.671 E0.002
G1 X58.288 Y-13.567 E0.002
G1 X58.428 Y-13.457 E0.002
G1 X58.566 Y-13.341 E0.002
G1 X58.703 Y-13.219 E0.002
G1 X58.839 Y-13.092 E0.002
G1 X58.973 Y-12.960 E0.002
G1 X59.104 Y-12.822 E0.002
G1 X59.234 Y-12.680 E0.002
G1 X59.360 Y-12.533 E0.002
G1 X59.484 Y-12.382 E0.002
G1 X59.605 Y-12.227 E0.002
G1 X59.723 Y-12.069 E0.002
G1 X59.838 Y-11.907 E0.002
G1 X59.949 Y-11.743 E0.002
G1 X60.057 Y-11.576 E0.002
G1 X60.161 Y-11.407 E0.002
G1 X60.262 Y-11.237 E0.002
G1 X60.358 Y-11.066 E0.002
G1 X60.450 Y-10.893 E0.002
G1 X60.538 Y-10.720 E0.002
G1 X60.622 Y-10.547 E0.002
G1 X60.701 Y-10.373 E0.002
G1 X60.775 Y-10.200 E0.002
G1 X60.844 Y-10.027 E0.002
G1 X60.908 Y-9.854 E0.002
G1 X60.966 Y-9.681 E0.002
G1 X61.019 Y-9.510 E0.002
G1 X61.066 Y-9.338 E0.002
G1 X61.107 Y-9.167 E0.002
G1 X61.141 Y-8.996 E0.002
G1 X61.169 Y-8.826 E0.002
G1 X61.191 Y-8.656 E0.002
G1 X61.206 Y-8.487 E0.002
G1 X61.214 Y-8.318 E0.002
G1 X61.215 Y-8.150 E0.002
G1 X61.209 Y-7.983 E0.002
G1 X61.196 Y-7.817 E0.002
G1 X61.176 Y-7.652 E0.002
G1 X61.148 Y-7.489 E0.002
G1 X61.114 Y-7.327 E0.002
G1 X61.072 Y-7.168 E0.002
G1 X61.023 Y-7.011 E0.002
G1 X60.967 Y-6.856 E0.002
G1 X60.903 Y-6.704 E0.002
G1 X60.832 Y-6.555 E0.002
G1 X60.754 Y-6.409 E0.002
G1 X60.669 Y-6.267 E0.002
G1 X60.576 Y-6.128 E0.002
G1 X60.476 Y-5.993 E0.002
G1 X60.369 Y-5.862 E0.002
G1 X60.254 Y-5.736 E0.002
G1 X60.132 Y-5.614 E0.002
G1 X60.002 Y-5.498 E0.002
G1 X59.865 Y-5.388 E0.002
G1 X59.720 Y-5.283 E0.002
G1 X59.568 Y-5.185 E0.002
G1 X59.408 Y-5.093 E0.002
G1 X59.241 Y-5.008 E0.002
G1 X59.066 Y-4.931 E0.002
G1 X58.883 Y-4.863 E0.002
G1 X58.692 Y-4.803 E0.002
G1 X58.494 Y-4.752 E0.002
G1 X58.288 Y-4.711 E0.002
G1 X58.073 Y-4.680 E0.002
G1 X57.851 Y-4.660 E0.002
G1 X57.620 Y-4.650 E0.002
G1 X57.382 Y-4.652 E0.002
G1 X57.136 Y-4.665 E0.002
G1 X56.883 Y-4.689 E0.002
G1 X56.623 Y-4.724 E0.002
G1 X56.355 Y-4.770 E0.002
G1 X56.081 Y-4.827 E0.002
G1 X55.800 Y-4.895 E0.002
G1 X55.513 Y-4.973 E0.002
G1 X55.220 Y-5.062 E0.002
G1 X54.920 Y-5.161 E0.002
G1 X54.614 Y-5.271 E0.002
G1 X54.303 Y-5.390 E0.002
G1 X53.986 Y-5.520 E0.002
G1 X53.664 Y-5.659 E0.002
G1 X53.337 Y-5.807 E0.002
G1 X53.006 Y-5.965 E0.002
G1 X52.671 Y-6.131 E0.002
G1 X52.333 Y-6.306 E0.002
G1 X51.992 Y-6.489 E0.002
G1 X51.649 Y-6.680 E0.002
G1 X51.305 Y-6.879 E0.002
G1 X50.961 Y-7.085 E0.002
G1 X50.617 Y-7.299 E0.002
G1 X50.273 Y-7.520 E0.002
G1 X49.931 Y-7.747 E0.002
G1 X49.590 Y-7.980 E0.002
G1 X49.252 Y-8.219 E0.002
G1 X48.916 Y-8.464 E0.002
G1 X48.583 Y-8.714 E0.002
G1 X48.254 Y-8.969 E0.002
G1 X47.928 Y-9.229 E0.002
G1 X47.607 Y-9.493 E0.002
G1 X47.291 Y-9.761 E0.002
G1 X46.979 Y-10.033 E0.002
G1 X46.673 Y-10.309 E0.002
G1 X46.373 Y-10.588 E0.002
G1 X46.079 Y-10.869 E0.002
G1 X45.791 Y-11.153 E0.002
G1 X45.509 Y-11.439 E0.002
G1 X45.233 Y-11.725 E0.002
G1 X44.964 Y-12.013 E0.002
G1 X44.701 Y-12.301 E0.002
G1 X44.445 Y-12.589 E0.002
G1 X44.196 Y-12.876 E0.002
G1 X43.955 Y-13.163 E0.002
G1 X43.721 Y-13.448 E0.002
G1 X43.496 Y-13.732 E0.002
G1 X43.279 Y-14.014 E0.002
G1 X43.071 Y-14.294 E0.002
G1 X42.871 Y-14.571 E0.002
G1 X42.680 Y-14.846 E0.002
G1 X42.497 Y-15.118 E0.002
G1 X42.323 Y-15.387 E0.002
G1 X42.158 Y-15.653 E0.002
G1 X42.002 Y-15.915 E0.002
G1 X41.855 Y-16.174 E0.002
G1 X41.717 Y-16.429 E0.002
G1 X41.588 Y-16.681 E0.002
G1 X41.467 Y-16.929 E0.002
G1 X41.356 Y-17.173 E0.002
G1 X41.253 Y-17.412 E0.002
G1 X41.159 Y-17.647 E0.002
G1 X41.074 Y-17.878 E0.002
G1 X40.998 Y-18.103 E0.002
G1 X40.931 Y-18.324 E0.002
G1 X40.873 Y-18.540 E0.002
G1 X40.824 Y-18.750 E0.002
G1 X40.784 Y-18.955 E0.002
G1 X40.753 Y-19.155 E0.002
G1 X40.730 Y-19.348 E0.002
G1 X40.717 Y-19.536 E0.002
G1 X40.712 Y-19.719 E0.002
G1 X40.717 Y-19.897 E0.002
G1 X40.731 Y-20.069 E0.002
G1 X40.753 Y-20.236 E0.002
G1 X40.784 Y-20.398 E0.002
G1 X40.824 Y-20.554 E0.002
G1 X40.873 Y-20.704 E0.002
G1 X40.931 Y-20.849 E0.002
G1 X40.998 Y-20.988 E0.002
G1 X41.074 Y-21.121 E0.002
G1 X41.159 Y-21.248 E0.002
G1 X41.253 Y-21.370 E0.002
G1 X41.356 Y-21.485 E0.002
G1 X41.467 Y-21.594 E0.002
G1 X41.588 Y-21.697 E0.002
G1 X41.717 Y-21.793 E0.002
G1 X41.855 Y-21.882 E0.002
G1 X42.002 Y-21.964 E0.002
G1 X42.158 Y-22.039 E0.002
G1 X42.323 Y-22.107 E0.002
G1 X42.497 Y-22.167 E0.002
G1 X42.680 Y-22.220 E0.002
G1 X42.871 Y-22.266 E0.002
G1 X43.071 Y-22.304 E0.002
G1 X43.279 Y-22.334 E0.002
G1 X43.496 Y-22.357 E0.002
G1 X43.721 Y-22.373 E0.002
G1 X43.955 Y-22.381 E0.002
G1 X44.196 Y-22.382 E0.002
G1 X44.445 Y-22.376 E0.002
G1 X44.701 Y-22.362 E0.002
G1 X44.964 Y-22.341 E0.002
G1 X45.233 Y-22.313 E0.002
G1 X45.509 Y-22.278 E0.002
G1 X45.791 Y-22.235 E0.002
G1 X46.079 Y-22.185 E0.002
G1 X46.373 Y-22.128 E0.002
G1 X46.673 Y-22.064 E0.002
G1 X46.979 Y-21.993 E0.002
G1 X47.291 Y-21.916 E0.002
G1 X47.607 Y-21.831 E0.002
G1 X47.928 Y-21.740 E0.002
G1 X48.254 Y-21.643 E0.002
G1 X48.583 Y-21.538 E0.002
G1 X48.916 Y-21.427 E0.002
G1 X49.252 Y-21.310 E0.002
G1 X49.590 Y-21.186 E0.002
G1 X49.931 Y-21.056 E0.002
G1 X50.273 Y-20.920 E0.002
G1 X50.617 Y-20.778 E0.002
G1 X50.961 Y-20.630 E0.002
G1 X51.305 Y-20.476 E0.002
G1 X51.649 Y-20.317 E0.002
G1 X51.992 Y-20.152 E0.002
G1 X52.333 Y-19.982 E0.002
G1 X52.671 Y-19.807 E0.002
G1 X53.006 Y-19.627 E0.002
G1 X53.337 Y-19.442 E0.002
G1 X53.664 Y-19.253 E0.002
G1 X53.986 Y-19.059 E0.002
G1 X54.303 Y-18.861 E0.002
G1 X54.614 Y-18.659 E0.002
G1 X54.920 Y-18.453 E0.002
G1 X55.220 Y-18.244 E0.002
G1 X55.513 Y-18.032 E0.002
G1 X55.800 Y-17.817 E0.002
G1 X56.081 Y-17.599 E0.002
G1 X56.355 Y-17.379 E0.002
G1 X56.623 Y-17.156 E0.002
G1 X56.883 Y-16.932 E0.002
G1 X57.136 Y-16.706 E0.002
G1 X57.382 Y-16.479 E0.002
G1 X57.620 Y-16.251 E0.002
G1 X57.851 Y-16.023 E0.002
G1 X58.073 Y-15.794 E0.002
G1 X58.288 Y-15.565 E0.002
G1 X58.494 Y-15.337 E0.002
G1 X58.692 Y-15.109 E0.002
G1 X58.883 Y-14.882 E0.002
G1 X59.066 Y-14.656 E0.002
G1 X59.241 Y-14.432 E0.002
G1 X59.408 Y-14.210 E0.002
G1 X59.568 Y-13.990 E0.002
G1 X59.720 Y-13.773 E0.002
G1 X59.865 Y-13.559 E0.002
G1 X60.002 Y-13.348 E0.002
G1 X60.132 Y-13.141 E0.002
G1 X60.254 Y-12.938 E0.002
G1 X60.369 Y-12.739 E0.002
G1 X60.476 Y-12.544 E0.002
G1 X60.576 Y-12.353 E0.002
G1 X60.669 Y-12.167 E0.002
G1 X60.754 Y-11.985 E0.002
G1 X60.832 Y-11.808 E0.002
G1 X60.903 Y-11.636 E0.002
G1 X60.967 Y-11.469 E0.002
G1 X61.023 Y-11.306 E0.002
G1 X61.072 Y-11.149 E0.002
G1 X61.114 Y-10.996 E0.002
G1 X61.148 Y-10.848 E0.002
G1 X61.176 Y-10.704 E0.002
G1 X61.196 Y-10.565 E0.002
G1 X61.209 Y-10.430 E0.002
G1 X61.215 Y-10.300 E0.002
G1 X61.214 Y-10.174 E0.002
G1 X61.206 Y-10.053 E0.002
G1 X61.191 Y-9.937 E0.002
G1 X61.169 Y-9.825 E0.002
G1 X61.141 Y-9.718 E0.002
G1 X61.107 Y-9.616 E0.002
G1 X61.066 Y-9.519 E0.002
G1 X61.019 Y-9.427 E0.002
G1 X60.966 Y-9.340 E0.002
G1 X60.908 Y-9.258 E0.002
G1 X60.844 Y-9.182 E0.002
G1 X60.775 Y-9.112 E0.002
G1 X60.701 Y-9.047 E0.002
G1 X60.622 Y-8.987 E0.002
G1 X60.538 Y-8.933 E0.002
G1 X60.450 Y-8.885 E0.002
G1 X60.358 Y-8.843 E0.002
G1 X60.262 Y-8.806 E0.002
G1 X60.161 Y-8.775 E0.002
G1 X60.057 Y-8.750 E0.002
G1 X59.949 Y-8.730 E0.002
G1 X59.838 Y-8.716 E0.002
G1 X59.723 Y-8.708 E0.002
G1 X59.605 Y-8.705 E0.002
G1 X59.484 Y-8.707 E0.002
G1 X59.360 Y-8.715 E0.002
G1 X59.234 Y-8.729 E0.002
G1 X59.104 Y-8.747 E0.002
G1 X58.973 Y-8.772 E0.002
G1 X58.839 Y-8.802 E0.002
G1 X58.703 Y-8.837 E0.002
G1 X58.566 Y-8.878 E0.002
G1 X58.428 Y-8.925 E0.002
G1 X58.288 Y-8.977 E0.002
G1 X58.148 Y-9.035 E0.002
G1 X58.007 Y-9.098 E0.002
G1 X57.867 Y-9.167 E0.002
G1 X57.726 Y-9.242 E0.002
G1 X57.586 Y-9.322 E0.002
G1 X57.447 Y-9.407 E0.002
G1 X57.309 Y-9.497 E0.002
G1 X57.172 Y-9.593 E0.002
G1 X57.037 Y-9.693 E0.002
G1 X56.903 Y-9.797 E0.002
G1 X56.771 Y-9.907 E0.002
G1 X56.641 Y-10.021 E0.002
G1 X56.514 Y-10.138 E0.002
G1 X56.389 Y-10.260 E0.002
G1 X56.267 Y-10.384 E0.002
G1 X56.148 Y-10.512 E0.002
G1 X56.033 Y-10.642 E0.002
G1 X55.921 Y-10.775 E0.002
G1 X55.813 Y-10.910 E0.002
G1 X55.710 Y-11.047 E0.002
G1 X55.611 Y-11.185 E0.002
G1 X55.517 Y-11.325 E0.002
G1 X55.428 Y-11.465 E0.002
G1 X55.344 Y-11.606 E0.002
G1 X55.263 Y-11.747 E0.002
G1 X55.197 Y-11.888 E0.002
G1 X55.134 Y-12.029 E0.002
G1 X55.076 Y-12.169 E0.002
G1 X55.023 Y-12.308 E0.002
G1 X54.974 Y-12.447 E0.002
G1 X54.930 Y-12.584 E0.002
G1 X54.892 Y-12.720 E0.002
G1 X54.858 Y-12.854 E0.002
G1 X54.830 Y-12.986 E0.002
G1 X54.808 Y-13.115 E0.002
G1 X54.792 Y-13.241 E0.002
G1 X54.781 Y-13.364 E0.002
G1 X54.776 Y-13.484 E0.002
G1 X54.777 Y-13.600 E0.002
G1 X54.785 Y-13.712 E0.002
G1 X54.799 Y-13.821 E0.002
G1 X54.819 Y-13.926 E0.002
G1 X54.845 Y-14.026 E0.002
G1 X54.877 Y-14.122 E0.002
G1 X54.914 Y-14.214 E0.002
G1 X54.958 Y-14.301 E0.002
G1 X55.008 Y-14.383 E0.002
G1 X55.064 Y-14.460 E0.002
G1 X55.126 Y-14.532 E0.002
G1 X55.193 Y-14.598 E0.002
G1 X55.266 Y-14.659 E0.002
G1 X55.344 Y-14.715 E0.002
G1 X55.428 Y-14.766 E0.002
G1 X55.517 Y-14.811 E0.002
G1 X55.611 Y-14.851 E0.002
G1 X55.710 Y-14.885 E0.002
G1 X55.813 Y-14.914 E0.002
G1 X55.921 Y-14.937 E0.002
G1 X56.033 Y-14.954 E0.002
G1 X56.148 Y-14.965 E0.002
G1 X56.267 Y-14.970 E0.002
G1 X56.389 Y-14.969 E0.002
G1 X56.514 Y-14.962 E0.002
G1 X56.641 Y-14.949 E0.002
G1 X56.771 Y-14.931 E0.002
G1 X56.903 Y-14.907 E0.002
G1 X57.037 Y-14.877 E0.002
G1 X57.172 Y-14.841 E0.002
G1 X57.309 Y-14.800 E0.002
G1 X57.447 Y-14.752 E0.002
G1 X57.586 Y-14.700 E0.002
G1 X57.726 Y-14.642 E0.002
G1 X57.867 Y-14.578 E0.002
G1 X58.007 Y-14.509 E0.002
G1 X58.148 Y-14.435 E0.002
G1 X58.288 Y-14.355 E0.002
G1 X58.428 Y-14.270 E0.002
G1 X58.566 Y-14.179 E0.002
G1 X58.703 Y-14.083 E0.002
G1 X58.839 Y-13.983 E0.002
G1 X58.973 Y-13.877 E0.002
G1 X59.104 Y-13.767 E0.002
G1 X59.234 Y-13.652 E0.002
G1 X59.360 Y-13.533 E0.002
G1 X59.484 Y-13.410 E0.002
G1 X59.605 Y-13.282 E0.002
G1 X59.723 Y-13.151 E0.002
G1 X59.838 Y-13.016 E0.002
G1 X59.949 Y-12.878 E0.002
G1 X60.057 Y-12.736 E0.002
G1 X60.161 Y-12.592 E0.002
G1 X60.262 Y-12.446 E0.002
G1 X60.358 Y-12.297 E0.002
G1 X60.450 Y-12.146 E0.002
G1 X60.538 Y-11.994 E0.002
G1 X60.622 Y-11.841 E0.002
G1 X60.701 Y-11.687 E0.002
G1 X60.775 Y-11.533 E0.002
G1 X60.844 Y-11.378 E0.002
G1 X60.908 Y-11.223 E0.002
G1 X60.966 Y-11.069 E0.002
G1 X61.019 Y-10.914 E0.002
G1 X61.066 Y-10.760 E0.002
G1 X61.107 Y-10.607 E0.002
G1 X61.141 Y-10.454 E0.002
G1 X61.169 Y-10.302 E0.002
G1 X61.191 Y-10.150 E0.002
G1 X61.206 Y-10.000 E0.002
G1 X61.214 Y-9.850 E0.002
G1 X61.215 Y-9.702 E0.002
G1 X61.209 Y-9.555 E0.002
G1 X61.196 Y-9.409 E0.002
G1 X61.176 Y-9.266 E0.002
G1 X61.148 Y-9.124 E0.002
G1 X61.114 Y-8.984 E0.002
G1 X61.072 Y-8.847 E0.002
G1 X61.023 Y-8.712 E0.002
G1 X60.967 Y-8.580 E0.002
G1 X60.903 Y-8.450 E0.002
G1 X60.832 Y-8.324 E0.002
G1 X60.754 Y-8.201 E0.002
G1 X60.669 Y-8.082 E0.002
G1 X60.576 Y-7.965 E0.002
G1 X60.476 Y-7.853 E0.002
G1 X60.369 Y-7.745 E0.002
G1 X60.254 Y-7.641 E0.002
G1 X60.132 Y-7.541 E0.002
G1 X60.002 Y-7.447 E0.002
G1 X59.865 Y-7.357 E0.002
G1 X59.720 Y-7.273 E0.002
G1 X59.568 Y-7.194 E0.002
G1 X59.408 Y-7.121 E0.002
G1 X59.241 Y-7.054 E0.002
G1 X59.066 Y-6.993 E0.002
G1 X58.883 Y-6.939 E0.002
G1 X58.692 Y-6.892 E0.002
G1 X58.494 Y-6.852 E0.002
G1 X58.288 Y-6.819 E0.002
G1 X58.073 Y-6.794 E0.002
G1 X57.851 Y-6.777 E0.002
G1 X57.620 Y-6.768 E0.002
G1 X57.382 Y-6.768 E0.002
G1 X57.136 Y-6.775 E0.002
G1 X56.883 Y-6.791 E0.002
G1 X56.623 Y-6.814 E0.002
G1 X56.355 Y-6.845 E0.002
G1 X56.081 Y-6.883 E0.002
G1 X55.800 Y-6.930 E0.002
G1 X55.513 Y-6.983 E0.002
G1 X55.220 Y-7.045 E0.002
G1 X54.920 Y-7.115 E0.002
G1 X54.614 Y-7.192 E0.002
G1 X54.303 Y-7.277 E0.002
G1 X53.986 Y-7.370 E0.002
G1 X53.664 Y-7.470 E0.002
G1 X53.337 Y-7.578 E0.002
G1 X53.006 Y-7.693 E0.002
G1 X52.671 Y-7.815 E0.002
G1 X52.333 Y-7.945 E0.002
G1 X51.992 Y-8.081 E0.002
G1 X51.649 Y-8.225 E0.002
G1 X51.305 Y-8.374 E0.002
G1 X50.961 Y-8.530 E0.002
G1 X50.617 Y-8.692 E0.002
G1 X50.273 Y-8.860 E0.002
G1 X49.931 Y-9.034 E0.002
G1 X49.590 Y-9.213 E0.002
G1 X49.252 Y-9.397 E0.002
G1 X48.916 Y-9.587 E0.002
G1 X48.583 Y-9.782 E0.002
G1 X48.254 Y-9.982 E0.002
G1 X47.928 Y-10.186 E0.002
G1 X47.607 Y-10.395 E0.002
G1 X47.291 Y-10.608 E0.002
G1 X46.979 Y-10.825 E0.002
G1 X46.673 Y-11.045 E0.002
G1 X46.373 Y-11.268 E0.002
G1 X46.079 Y-11.493 E0.002
G1 X45.791 Y-11.720 E0.002
G1 X45.509 Y-11.948 E0.002
G1 X45.233 Y-12.176 E0.002
G1 X44.964 Y-12.404 E0.002
G1 X44.701 Y-12.632 E0.002
G1 X44.445 Y-12.859 E0.002
G1 X44.196 Y-13.085 E0.002
G1 X43.955 Y-13.310 E0.002
G1 X43.721 Y-13.533 E0.002
G1 X43.496 Y-13.754 E0.002
G1 X43.279 Y-13.973 E0.002
G1 X43.071 Y-14.190 E0.002
G1 X42.871 Y-14.404 E0.002
G1 X42.680 Y-14.616 E0.002
G1 X42.497 Y-14.825 E0.002
G1 X42.323 Y-15.031 E0.002
G1 X42.158 Y-15.235 E0.002
G1 X42.002 Y-15.435 E0.002
G1 X41.855 Y-15.632 E0.002
G1 X41.717 Y-15.826 E0.002
G1 X41.588 Y-16.017 E0.002
G1 X41.467 Y-16.205 E0.002
G1 X41.356 Y-16.389 E0.002
G1 X41.253 Y-16.569 E0.002
G1 X41.159 Y-16.745 E0.002
G1 X41.074 Y-16.917 E0.002
G1 X40.998 Y-17.086 E0.002
G1 X40.931 Y-17.250 E0.002
G1 X40.873 Y-17.410 E0.002
G1 X40.824 Y-17.565 E0.002
G1 X40.784 Y-17.716 E0.002
G1 X40.753 Y-17.863 E0.002
G1 X40.730 Y-18.005 E0.002
G1 X40.717 Y-18.143 E0.002
G1 X40.712 Y-18.276 E0.002
G1 X40.717 Y-18.405 E0.002
G1 X40.731 Y-18.530 E0.002
G1 X40.753 Y-18.650 E0.002
G1 X40.784 Y-18.765 E0.002
G1 X40.824 Y-18.875 E0.002
G1 X40.873 Y-18.981 E0.002
G1 X40.931 Y-19.082 E0.002
G1 X40.998 Y-19.178 E0.002
G1 X41.074 Y-19.269 E0.002
G1 X41.159 Y-19.355 E0.002
G1 X41.253 Y-19.436 E0.002
G1 X41.356 Y-19.512 E0.002
G1 X41.467 Y-19.582 E0.002
G1 X41.588 Y-19.647 E0.002
G1 X41.717 Y-19.707 E0.002
G1 X41.855 Y-19.761 E0.002
G1 X42.002 Y-19.810 E0.002
G1 X42.158 Y-19.854 E0.002
G1 X42.323 Y-19.892 E0.002
G1 X42.497 Y-19.925 E0.002
G1 X42.680 Y-19.952 E0.002
G1 X42.871 Y-19.974 E0.002
G1 X43.071 Y-19.991 E0.002
G1 X43.279 Y-20.003 E0.002
G1 X43.496 Y-20.009 E0.002
G1 X43.721 Y-20.010 E0.002
G1 X43.955 Y-20.005 E0.002
G1 X44.196 Y-19.995 E0.002
G1 X44.445 Y-19.980 E0.002
G1 X44.701 Y-19.960 E0.002
G1 X44.964 Y-19.934 E0.002
G1 X45.233 Y-19.904 E0.002
G1 X45.509 Y-19.868 E0.002
G1 X45.791 Y-19.827 E0.002
G1 X46.079 Y-19.780 E0.002
G1 X46.373 Y-19.728 E0.002
G1 X46.673 Y-19.670 E0.002
G1 X46.979 Y-19.607 E0.002
G1 X47.291 Y-19.537 E0.002
G1 X47.607 Y-19.463 E0.002
G1 X47.928 Y-19.383 E0.002
G1 X48.254 Y-19.298 E0.002
G1 X48.583 Y-19.208 E0.002
G1 X48.916 Y-19.112 E0.002
G1 X49.252 Y-19.012 E0.002
G1 X49.590 Y-18.907 E0.002
G1 X49.931 Y-18.797 E0.002
G1 X50.273 Y-18.682 E0.002
G1 X50.617 Y-18.563 E0.002
G1 X50.961 Y-18.439 E0.002
G1 X51.305 Y-18.311 E0.002
G1 X51.649 Y-18.179 E0.002
G1 X51.992 Y-18.043 E0.002
G1 X52.333 Y-17.904 E0.002
G1 X52.671 Y-17.761 E0.002
G1 X53.006 Y-17.615 E0.002
G1 X53.337 Y-17.466 E0.002
G1 X53.664 Y-17.315 E0.002
G1 X53.986 Y-17.161 E0.002
G1 X54.303 Y-17.006 E0.002
G1 X54.614 Y-16.848 E0.002
G1 X54.920 Y-16.690 E0.002
G1 X55.220 Y-16.530 E0.002
G1 X55.513 Y-16.370 E0.002
G1 X55.800 Y-16.209 E0.002
G1 X56.081 Y-16.049 E0.002
G1 X56.355 Y-15.890 E0.002
G1 X56.623 Y-15.731 E0.002
G1 X56.883 Y-15.574 E0.002
G1 X57.136 Y-15.418 E0.002
G1 X57.382 Y-15.264 E0.002
G1 X57.620 Y-15.113 E0.002
G1 X57.851 Y-14.965 E0.002
G1 X58.073 Y-14.821 E0.002
G1 X58.288 Y-14.679 E0.002
G1 X58.494 Y-14.542 E0.002
G1 X58.692 Y-14.409 E0.002
G1 X58.883 Y-14.281 E0.002
G1 X59.066 Y-14.158 E0.002
G1 X59.241 Y-14.040 E0.002
G1 X59.408 Y-13.927 E0.002
G1 X59.568 Y-13.819 E0.002
G1 X59.720 Y-13.717 E0.002
G1 X59.865 Y-13.620 E0.002
G1 X60.002 Y-13.529 E0.002
G1 X60.132 Y-13.444 E0.002
G1 X60.254 Y-13.364 E0.002
G1 X60.369 Y-13.290 E0.002
G1 X60.476 Y-13.222 E0.002
G1 X60.576 Y-13.160 E0.002
G1 X60.669 Y-13.103 E0.002
G1 X60.754 Y-13.052 E0.002
G1 X60.832 Y-13.007 E0.002
G1 X60.903 Y-12.968 E0.002
G1 X60.967 Y-12.934 E0.002
G1 X61.023 Y-12.906 E0.002
G1 X61.072 Y-12.883 E0.002
G1 X61.114 Y-12.866 E0.002
G1 X61.148 Y-12.854 E0.002
G1 X61.176 Y-12.847 E0.002
G1 X61.196 Y-12.845 E0.002
G1 X61.209 Y-12.848 E0.002
G1 X61.215 Y-12.857 E0.002
G1 X61.214 Y-12.871 E0.002
G1 X61.206 Y-12.890 E0.002
G1 X61.191 Y-12.914 E0.002
G1 X61.169 Y-12.943 E0.002
G1 X61.141 Y-12.977 E0.002
G1 X61.107 Y-13.016 E0.002
G1 X61.066 Y-13.060 E0.002
G1 X61.019 Y-13.109 E0.002
G1 X60.967 Y-13.163 E0.002
G1 X60.908 Y-13.222 E0.002
G1 X60.844 Y-13.286 E0.002
G1 X60.775 Y-13.354 E0.002
G1 X60.701 Y-13.427 E0.002
G1 X60.622 Y-13.504 E0.002
G1 X60.538 Y-13.586 E0.002
G1 X60.450 Y-13.672 E0.002
G1 X60.358 Y-13.763 E0.002
G1 X60.262 Y-13.858 E0.002
G1 X60.161 Y-13.956 E0.002
G1 X60.057 Y-14.058 E0.002
G1 X59.949 Y-14.164 E0.002
G1 X59.838 Y-14.273 E0.002
G1 X59.723 Y-14.385 E0.002
G1 X59.605 Y-14.500 E0.002
G1 X59.484 Y-14.618 E0.002
G1 X59.360 Y-14.738 E0.002
G1 X59.234 Y-14.860 E0.002
G1 X59.104 Y-14.985 E0.002
G1 X58.973 Y-15.111 E0.002
G1 X58.839 Y-15.240 E0.002
G1 X58.703 Y-15.370 E0.002
G1 X58.566 Y-15.502 E0.002
G1 X58.428 Y-15.635 E0.002
G1 X58.288 Y-15.769 E0.002
G1 X58.148 Y-15.904 E0.002
G1 X58.007 Y-16.039 E0.002
G1 X57.867 Y-16.175 E0.002
G1 X57.726 Y-16.311 E0.002
G1 X57.586 Y-16.447 E0.002
G1 X57.447 Y-16.583 E0.002
G1 X57.309 Y-16.718 E0.002
G1 X57.172 Y-16.853 E0.002
G1 X57.037 Y-16.988 E0.002
G1 X56.903 Y-17.122 E0.002
G1 X56.771 Y-17.255 E0.002
G1 X56.641 Y-17.387 E0.002
G1 X56.514 Y-17.518 E0.002
G1 X56.389 Y-17.648 E0.002
G1 X56.267 Y-17.776 E0.002
G1 X56.148 Y-17.904 E0.002
G1 X56.033 Y-18.030 E0.002
G1 X55.921 Y-18.155 E0.002
G1 X55.813 Y-18.278 E0.002
G1 X55.710 Y-18.400 E0.002
G1 X55.611 Y-18.520 E0.002
G1 X55.517 Y-18.638 E0.002
G1 X55.428 Y-18.754 E0.002
G1 X55.344 Y-18.868 E0.002
G1 X55.263 Y-18.980 E0.002
G1 X55.197 Y-19.090 E0.002
G1 X55.134 Y-19.198 E0.002
G1 X55.076 Y-19.303 E0.002
G1 X55.023 Y-19.406 E0.002
G1 X54.974 Y-19.507 E0.002
G1 X54.930 Y-19.605 E0.002
G1 X54.892 Y-19.700 E0.002
G1 X54.858 Y-19.792 E0.002
G1 X54.830 Y-19.882 E0.002
G1 X54.808 Y-19.969 E0.002
G1 X54.792 Y-20.053 E0.002
G1 X54.781 Y-20.134 E0.002
G1 X54.776 Y-20.211 E0.002
G1 X54.777 Y-20.286 E0.002
G1 X54.785 Y-20.358 E0.002
G1 X54.799 Y-20.426 E0.002
G1 X54.819 Y-20.490 E0.002
G1 X54.845 Y-20.551 E0.002
G1 X54.877 Y-20.608 E0.002
G1 X54.914 Y-20.660 E0.002
G1 X54.958 Y-20.709 E0.002
G1 X55.008 Y-20.753 E0.002
G1 X55.064 Y-20.792 E0.002
G1 X55.126 Y-20.828 E0.002
G1 X55.193 Y-20.858 E0.002
G1 X55.266 Y-20.884 E0.002
G1 X55.344 Y-20.905 E0.002
G1 X55.428 Y-20.921 E0.002
G1 X55.517 Y-20.933 E0.002
G1 X55.611 Y-20.940 E0.002
G1 X55.710 Y-20.942 E0.002
G1 X55.813 Y-20.939 E0.002
G1 X55.921 Y-20.931 E0.002
G1 X56.033 Y-20.918 E0.002
G1 X56.148 Y-20.900 E0.002
G1 X56.267 Y-20.877 E0.002
G1 X56.389 Y-20.848 E0.002
G1 X56.514 Y-20.814 E0.002
G1 X56.641 Y-20.776 E0.002
G1 X56.771 Y-20.732 E0.002
G1 X56.903 Y-20.683 E0.002
G1 X57.037 Y-20.630 E0.002
G1 X57.172 Y-20.572 E0.002
G1 X57.309 Y-20.509 E0.002
G1 X57.447 Y-20.441 E0.002
G1 X57.586 Y-20.369 E0.002
G1 X57.726 Y-20.292 E0.002
G1 X57.867 Y-20.211 E0.002
G1 X58.007 Y-20.125 E0.002
G1 X58.148 Y-20.035 E0.002
G1 X58.288 Y-19.941 E0.002
G1 X58.428 Y-19.842 E0.002
G1 X58.566 Y-19.739 E0.002
G1 X58.703 Y-19.632 E0.002
G1 X58.839 Y-19.521 E0.002
G1 X58.973 Y-19.406 E0.002
G1 X59.104 Y-19.288 E0.002
G1 X59.234 Y-19.166 E0.002
G1 X59.360 Y-19.040 E0.002
G1 X59.484 Y-18.911 E0.002
G1 X59.605 Y-18.779 E0.002
G1 X59.723 Y-18.644 E0.002
G1 X59.838 Y-18.506 E0.002
G1 X59.949 Y-18.365 E0.002
G1 X60.057 Y-18.221 E0.002
G1 X60.161 Y-18.075 E0.002
G1 X60.262 Y-17.926 E0.002
G1 X60.358 Y-17.776 E0.002
G1 X60.450 Y-17.623 E0.002
G1 X60.538 Y-17.470 E0.002
G1 X60.622 Y-17.316 E0.002
G1 X60.701 Y-17.161 E0.002
G1 X60.775 Y-17.006 E0.002
G1 X60.844 Y-16.851 E0.002
G1 X60.908 Y-16.696 E0.002
G1 X60.966 Y-16.541 E0.002
G1 X61.019 Y-16.387 E0.002
G1 X61.066 Y-16.233 E0.002
G1 X61.107 Y-16.080 E0.002
G1 X61.141 Y-15.928 E0.002
G1 X61.169 Y-15.776 E0.002
G1 X61.191 Y-15.626 E0.002
G1 X61.206 Y-15.476 E0.002
G1 X61.214 Y-15.327 E0.002
G1 X61.215 Y-15.180 E0.002
G1 X61.209 Y-15.033 E0.002
G1 X61.196 Y-14.889 E0.002
G1 X61.176 Y-14.747 E0.002
G1 X61.148 Y-14.607 E0.002
G1 X61.114 Y-14.470 E0.002
G1 X61.072 Y-14.335 E0.002
G1 X61.023 Y-14.204 E0.002
G1 X60.967 Y-14.075 E0.002
G1 X60.903 Y-13.949 E0.002
G1 X60.832 Y-13.826 E0.002
G1 X60.754 Y-13.707 E0.002
G1 X60.669 Y-13.591 E0.002
G1 X60.576 Y-13.479 E0.002
G1 X60.476 Y-13.371 E0.002
G1 X60.369 Y-13.267 E0.002
G1 X60.254 Y-13.167 E0.002
G1 X60.132 Y-13.072 E0.002
G1 X60.002 Y-12.982 E0.002
G1 X59.865 Y-12.897 E0.002
G1 X59.720 Y-12.817 E0.002
G1 X59.568 Y-12.743 E0.002
G1 X59.408 Y-12.674 E0.002
G1 X59.241 Y-12.611 E0.002
G1 X59.066 Y-12.554 E0.002
G1 X58.883 Y-12.504 E0.002
G1 X58.692 Y-12.460 E0.002
G1 X58.494 Y-12.423 E0.002
G1 X58.288 Y-12.393 E0.002
G1 X58.073 Y-12.369 E0.002
G1 X57.851 Y-12.352 E0.002
G1 X57.620 Y-12.342 E0.002
G1 X57.382 Y-12.341 E0.002
G1 X57.136 Y-12.349 E0.002
G1 X56.883 Y-12.364 E0.002
G1 X56.623 Y-12.387 E0.002
G1 X56.355 Y-12.418 E0.002
G1 X56.081 Y-12.457 E0.002
G1 X55.800 Y-12.504 E0.002
G1 X55.513 Y-12.559 E0.002
G1 X55.220 Y-12.621 E0.002
G1 X54.920 Y-12.691 E0.002
G1 X54.614 Y-12.768 E0.002
G1 X54.303 Y-12.853 E0.002
G1 X53.986 Y-12.946 E0.002
G1 X53.664 Y-13.046 E0.002
G1 X53.337 Y-13.154 E0.002
G1 X53.006 Y-13.269 E0.002
G1 X52.671 Y-13.391 E0.002
G1 X52.333 Y-13.521 E0.002
G1 X51.992 Y-13.657 E0.002
G1 X51.649 Y-13.801 E0.002
G1 X51.305 Y-13.950 E0.002
G1 X50.961 Y-14.106 E0.002
G1 X50.617 Y-14.268 E0.002
G1 X50.273 Y-14.436 E0.002
G1 X49.931 Y-14.610 E0.002
G1 X49.590 Y-14.789 E0.002
G1 X49.252 Y-14.973 E0.002
G1 X48.916 Y-15.163 E0.002
G1 X48.583 Y-15.358 E0.002
G1 X48.254 Y-15.558 E0.002
G1 X47.928 Y-15.762 E0.002
G1 X47.607 Y-15.971 E0.002
G1 X47.291 Y-16.184 E0.002
G1 X46.979 Y-16.401 E0.002
G1 X46.673 Y-16.621 E0.002
G1 X46.373 Y-16.844 E0.002
G1 X46.079 Y-17.069 E0.002
G1 X45.791 Y-17.296 E0.002
G1 X45.509 Y-17.524 E0.002
G1 X45.233 Y-17.752 E0.002
G1 X44.964 Y-17.980 E0.002
G1 X44.701 Y-18.208 E0.002
G1 X44.445 Y-18.435 E0.002
G1 X44.196 Y-18.661 E0.002
G1 X43.955 Y-18.886 E0.002
G1 X43.721 Y-19.109 E0.002
G1 X43.496 Y-19.330 E0.002
G1 X43.279 Y-19.549 E0.002
G1 X43.071 Y-19.766 E0.002
G1 X42.871 Y-19.980 E0.002
G1 X42.680 Y-20.192 E0.002
G1 X42.497 Y-20.399 E0.002
G1 X42.323 Y-20.605 E0.002
G1 X42.158 Y-20.809 E0.002
G1 X42.002 Y-21.009 E0.002
G1 X41.855 Y-21.206 E0.002
G1 X41.717 Y-21.399 E0.002
G1 X41.588 Y-21.588 E0.002
G1 X41.467 Y-21.775 E0.002
G1 X41.356 Y-21.959 E0.002
G1 X41.253 Y-22.139 E0.002
G1 X41.159 Y-22.315 E0.002
G1 X41.074 Y-22.487 E0.002
G1 X40.998 Y-22.656 E0.002
G1 X40.931 Y-22.820 E0.002
G1 X40.873 Y-22.980 E0.002
G1 X40.824 Y-23.135 E0.002
G1 X40.784 Y-23.286 E0.002
G1 X40.753 Y-23.433 E0.002
G1 X40.730 Y-23.575 E0.002
G1 X40.717 Y-23.713 E0.002
G1 X40.712 Y-23.846 E0.002
G1 X40.717 Y-23.975 E0.002
G1 X40.731 Y-24.099 E0.002
G1 X40.753 Y-24.219 E0.002
G1 X40.784 Y-24.334 E0.002
G1 X40.824 Y-24.444 E0.002
G1 X40.873 Y-24.550 E0.002
G1 X40.931 Y-24.651 E0.002
G1 X40.998 Y-24.747 E0.002
G1 X41.074 Y-24.838 E0.002
G1 X41.159 Y-24.924 E0.002
G1 X41.253 Y-25.005 E0.002
G1 X41.356 Y-25.081 E0.002
G1 X41.467 Y-25.151 E0.002
G1 X41.588 Y-25.216 E0.002
G1 X41.717 Y-25.276 E0.002
G1 X41.855 Y-25.330 E0.002
G1 X42.002 Y-25.379 E0.002
G1 X42.158 Y-25.423 E0.002
G1 X42.323 Y-25.461 E0.002
G1 X42.497 Y-25.494 E0.002
G1 X42.680 Y-25.521 E0.002
G1 X42.871 Y-25.543 E0.002
G1 X43.071 Y-25.560 E0.002
G1 X43.279 Y-25.572 E0.002
G1 X43.496 Y-25.578 E0.002
G1 X43.721 Y-25.579 E0.002
G1 X43.955 Y-25.574 E0.002
G1 X44.196 Y-25.564 E0.002
G1 X44.445 Y-25.549 E0.002
G1 X44.701 Y-25.529 E0.002
G1 X44.964 Y-25.503 E0.002
G1 X45.233 Y-25.473 E0.002
G1 X45.509 Y-25.437 E0.002
G1 X45.791 Y-25.396 E0.002
G1 X46.079 Y-25.349 E0.002
G1 X46.373 Y-25.297 E0.002
G1 X46.673 Y-25.239 E0.002
G1 X46.979 Y-25.176 E0.002
G1 X47.291 Y-25.106 E0.002
G1 X47.607 Y-25.032 E0.002
G1 X47.928 Y-24.952 E0.002
G1 X48.254 Y-24.867 E0.002
G1 X48.583 Y-24.777 E0.002
G1 X48.916 Y-24.681 E0.002
G1 X49.252 Y-24.581 E0.002
G1 X49.590 Y-24.476 E0.002
G1 X49.931 Y-24.366 E0.002
G1 X50.273 Y-24.251 E0.002
G1 X50.617 Y-24.132 E0.002
G1 X50.961 Y-24.008 E0.002
G1 X51.305 Y-23.880 E0.002
G1 X51.649 Y-23.748 E0.002
G1 X51.992 Y-23.612 E0.002
G1 X52.333 Y-23.473 E0.002
G1 X52.671 Y-23.330 E0.002
G1 X53.006 Y-23.184 E0.002
G1 X53.337 Y-23.035 E0.002
G1 X53.664 Y-22.884 E0.002
G1 X53.986 Y-22.730 E0.002
G1 X54.303 Y-22.575 E0.002
G1 X54.614 Y-22.417 E0.002
G1 X54.920 Y-22.259 E0.002
G1 X55.220 Y-22.099 E0.002
G1 X55.513 Y-21.939 E0.002
G1 X55.800 Y-21.778 E0.002
G1 X56.081 Y-21.618 E0.002
G1 X56.355 Y-21.459 E0.002
G1 X56.623 Y-21.300 E0.002
G1 X56.883 Y-21.143 E0.002
G1 X57.136 Y-20.987 E0.002
G1 X57.382 Y-20.833 E0.002
G1 X57.620 Y-20.682 E0.002
G1 X57.851 Y-20.534 E0.002
G1 X58.073 Y-20.390 E0.002
G1 X58.288 Y-20.248 E0.002
G1 X58.494 Y-20.111 E0.002
G1 X58.692 Y-19.978 E0.002
G1 X58.883 Y-19.850 E0.002
G1 X59.066 Y-19.727 E0.002
G1 X59.241 Y-19.609 E0.002
G1 X59.408 Y-19.496 E0.002
G1 X59.568 Y-19.388 E0.002
G1 X59.720 Y-19.286 E0.002
G1 X59.865 Y-19.189 E0.002
G1 X60.002 Y-19.098 E0.002
G1 X60.132 Y-19.013 E0.002
G1 X60.254 Y-18.933 E0.002
G1 X60.369 Y-18.859 E0.002
G1 X60.476 Y-18.791 E0.002
G1 X60.576 Y-18.729 E0.002
G1 X60.669 Y-18.672 E0.002
G1 X60.754 Y-18.621 E0.002
G1 X60.832 Y-18.576 E0.002
G1 X60.903 Y-18.537 E0.002
G1 X60.967 Y-18.503 E0.002
G1 X61.023 Y-18.475 E0.002
G1 X61.072 Y-18.452 E0.002
G1 X61.114 Y-18.435 E0.002
G1 X61.148 Y-18.423 E0.002
G1 X61.176 Y-18.416 E0.002
G1 X61.196 Y-18.414 E0.002
G1 X61.209 Y-18.417 E0.002
G1 X61.215 Y-18.426 E0.002
G1 X61.214 Y-18.440 E0.002
G1 X61.206 Y-18.459 E0.002
G1 X61.191 Y-18.483 E0.002
G1 X61.169 Y-18.512 E0.002
G1 X61.141 Y-18.546 E0.002
G1 X61.107 Y-18.585 E0.002
G1 X61.066 Y-18.629 E0.002
G1 X61.019 Y-18.678 E0.002
G1 X60.967 Y-18.732 E0.002
G1 X60.908 Y-18.791 E0.002
G1 X60.844 Y-18.855 E0.002
G1 X60.775 Y-18.923 E0.002
G1 X60.701 Y-18.996 E0.002
G1 X60.622 Y-19.073 E0.002
G1 X60.538 Y-19.155 E0.002
G1 X60.450 Y-19.241 E0.002
G1 X60.358 Y-19.332 E0.002
G1 X60.262 Y-19.427 E0.002
G1 X60.161 Y-19.525 E0.002
G1 X60.057 Y-19.627 E0.002
G1 X59.949 Y-19.733 E0.002
G1 X59.838 Y-19.842 E0.002
G1 X59.723 Y-19.954 E0.002
G1 X59.605 Y-20.069 E0.002
G1 X59.484 Y-20.187 E0.002
G1 X59.360 Y-20.307 E0.002
G1 X59.234 Y-20.429 E0.002
G1 X59.104 Y-20.554 E0.002
G1 X58.973 Y-20.680 E0.002
G1 X58.839 Y-20.809 E0.002
G1 X58.703 Y-20.939 E0.002
G1 X58.566 Y-21.071 E0.002
G1 X58.428 Y-21.204 E0.002
G1 X58.288 Y-21.338 E0.002
G1 X58.148 Y-21.473 E0.002
G1 X58.007 Y-21.608 E0.002
G1 X57.867 Y-21.744 E0.002
G1 X57.726 Y-21.880 E0.002
G1 X57.586 Y-22.016 E0.002
G1 X57.447 Y-22.152 E0.002
G1 X57.309 Y-22.287 E0.002
G1 X57.172 Y-22.422 E0.002
G1 X57.037 Y-22.557 E0.002
G1 X56.903 Y-22.691 E0.002
G1 X56.771 Y-22.824 E0.002
G1 X56.641 Y-22.956 E0.002
G1 X56.514 Y-23.087 E0.002
G1 X56.389 Y-23.217 E0.002
G1 X56.267 Y-23.345 E0.002
G1 X56.148 Y-23.473 E0.002
G1 X56.033 Y-23.599 E0.002
G1 X55.921 Y-23.724 E0.002
G1 X55.813 Y-23.847 E0.002
G1 X55.710 Y-23.969 E0.002
G1 X55.611 Y-24.089 E0.002
G1 X55.517 Y-24.207 E0.002
G1 X55.428 Y-24.323 E0.002
G1 X55.344 Y-24.437 E0.002
G1 X55.263 Y-24.549 E0.002
G1 X55.197 Y-24.659 E0.002
G1 X55.134 Y-24.767 E0.002
G1 X55.076 Y-24.872 E0.002
G1 X55.023 Y-24.975 E0.002
G1 X54.974 Y-25.076 E0.002
G1 X54.930 Y-25.174 E0.002
G1 X54.892 Y-25.269 E0.002
G1 X54.858 Y-25.361 E0.002
G1 X54.830 Y-25.451 E0.002
G1 X54.808 Y-25.538 E0.002
G1 X54.792 Y-25.622 E0.002
G1 X54.781 Y-25.703 E0.002
G1 X54.776 Y-25.780 E0.002
G1 X54.777 Y-25.855 E0.002
G1 X54.785 Y-25.927 E0.002
G1 X54.799 Y-25.995 E0.002
G1 X54.819 Y-26.059 E0.002
G1 X54.845 Y-26.120 E0.002
G1 X54.877 Y-26.177 E0.002
G1 X54.914 Y-26.230 E0.002
G1 X54.958 Y-26.279 E0.002
G1 X55.008 Y-26.323 E0.002
G1 X55.064 Y-26.362 E0.002
G1 X55.126 Y-26.398 E0.002
G1 X55.193 Y-26.428 E0.002
G1 X55.266 Y-26.454 E0.002
G1 X55.344 Y-26.475 E0.002
G1 X55.428 Y-26.491 E0.002
G1 X55.517 Y-26.503 E0.002
G1 X55.611 Y-26.510 E0.002
G1 X55.710 Y-26.512 E0.002
G1 X55.813 Y-26.509 E0.002
G1 X55.921 Y-26.501 E0.002
G1 X56.033 Y-26.488 E0.002
G1 X56.148 Y-26.470 E0.002
G1 X56.267 Y-26.447 E0.002
G1 X56.389 Y-26.418 E0.002
G1 X56.514 Y-26.384 E0.002
G1 X56.641 Y-26.346 E0.002
G1 X56.771 Y-26.302 E0.002
G1 X56.903 Y-26.253 E0.002
G1 X57.037 Y-26.200 E0.002
G1 X57.172 Y-26.142 E0.002
G1 X57.309 Y-26.079 E0.002
G1 X57.447 Y-26.011 E0.002
G1 X57.586 Y-25.939 E0.002
G1 X57.726 Y-25.862 E0.002
G1 X57.867 Y-25.781 E0.002
G1 X58.007 Y-25.695 E0.002
G1 X58.148 Y-25.605 E0.002
G1 X58.288 Y-25.511 E0.002
G1 X58.428 Y-25.412 E0.002
G1 X58.566 Y-25.309 E0.002
G1 X58.703 Y-25.190 E0.002
G1 X58.839 Y-25.068 E0.002
G1 X58.973 Y-24.941 E0.002
G1 X59.104 Y-24.810 E0.002
G1 X59.234 Y-24.674 E0.002
G1 X59.360 Y-24.534 E0.002
G1 X59.484 Y-24.390 E0.002
G1 X59.605 Y-24.242 E0.002
G1 X59.723 Y-24.091 E0.002
G1 X59.838 Y-23.937 E0.002
G1 X59.949 Y-23.779 E0.002
G1 X60.057 Y-23.619 E0.002
G1 X60.161 Y-23.456 E0.002
G1 X60.262 Y-23.292 E0.002
G1 X60.358 Y-23.126 E0.002
G1 X60.450 Y-22.959 E0.002
G1 X60.538 Y-22.790 E0.002
G1 X60.622 Y-22.621 E0.002
G1 X60.701 Y-22.450 E0.002
G1 X60.775 Y-22.279 E0.002
G1 X60.844 Y-22.107 E0.002
G1 X60.908 Y-21.935 E0.002
G1 X60.966 Y-21.763 E0.002
G1 X61.019 Y-21.591 E0.002
G1 X61.066 Y-21.419 E0.002
G1 X61.107 Y-21.248 E0.002
G1 X61.141 Y-21.077 E0.002
G1 X61.169 Y-20.906 E0.002
G1 X61.191 Y-20.736 E0.002
G1 X61.206 Y-20.567 E0.002
G1 X61.214 Y-20.398 E0.002
G1 X61.215 Y-20.230 E0.002
G1 X61.209 Y-20.063 E0.002
G1 X61.196 Y-19.897 E0.002
G1 X61.176 Y-19.732 E0.002
G1 X61.148 Y-19.569 E0.002
G1 X61.114 Y-19.407 E0.002
G1 X61.072 Y-19.248 E0.002
G1 X61.023 Y-19.091 E0.002
G1 X60.967 Y-18.936 E0.002
G1 X60.903 Y-18.784 E0.002
G1 X60.832 Y-18.635 E0.002
G1 X60.754 Y-18.489 E0.002
G1 X60.669 Y-18.347 E0.002
G1 X60.576 Y-18.208 E0.002
G1 X60.476 Y-18.073 E0.002
G1 X60.369 Y-17.942 E0.002
G1 X60.254 Y-17.816 E0.002
G1 X60.132 Y-17.694 E0.002
G1 X60.002 Y-17.578 E0.002
G1 X59.865 Y-17.468 E0.002
G1 X59.720 Y-17.363 E0.002
G1 X59.568 Y-17.265 E0.002
G1 X59.408 Y-17.173 E0.002
G1 X59.241 Y-17.088 E0.002
G1 X59.066 Y-17.009 E0.002
G1 X58.883 Y-16.941 E0.002
G1 X58.692 Y-16.881 E0.002
G1 X58.494 Y-16.830 E0.002
G1 X58.288 Y-16.789 E0.002
G1 X58.073 Y-16.758 E0.002
G1 X57.851 Y-16.738 E0.002
G1 X57.620 Y-16.728 E0.002
G1 X57.382 Y-16.730 E0.002
G1 X57.136 Y-16.743 E0.002
G1 X56.883 Y-16.767 E0.002
G1 X56.623 Y-16.802 E0.002
G1 X56.355 Y-16.848 E0.002
G1 X56.081 Y-16.905 E0.002
G1 X55.800 Y-16.973 E0.002
G1 X55.513 Y-17.051 E0.002
G1 X55.220 Y-17.140 E0.002
G1 X54.920 Y-17.239 E0.002
G1 X54.614 Y-17.349 E0.002
G1 X54.303 Y-17.468 E0.002
G1 X53.986 Y-17.598 E0.002
G1 X53.664 Y-17.737 E0.002
G1 X53.337 Y-17.885 E0.002
G1 X53.006 Y-18.043 E0.002
G1 X52.671 Y-18.209 E0.002
G1 X52.333 Y-18.384 E0.002
G1 X51.992 Y-18.567 E0.002
G1 X51.649 Y-18.758 E0.002
G1 X51.305 Y-18.957 E0.002
G1 X50.961 Y-19.163 E0.002
G1 X50.617 Y-19.377 E0.002
G1 X50.273 Y-19.598 E0.002
G1 X49.931 Y-19.825 E0.002
G1 X49.590 Y-20.058 E0.002
G1 X49.252 Y-20.297 E0.002
G1 X48.916 Y-20.542 E0.002
G1 X48.583 Y-20.792 E0.002
G1 X48.254 Y-21.047 E0.002
G1 X47.928 Y-21.307 E0.002
G1 X47.607 Y-21.571 E0.002
G1 X47.291 Y-21.839 E0.002
G1 X46.979 Y-22.111 E0.002
G1 X46.673 Y-22.387 E0.002
G1 X46.373 Y-22.666 E0.002
G1 X46.079 Y-22.947 E0.002
G1 X45.791 Y-23.231 E0.002
G1 X45.509 Y-23.517 E0.002
G1 X45.233 Y-23.803 E0.002
G1 X44.964 Y-24.091 E0.002
G1 X44.701 Y-24.379 E0.002
G1 X44.445 Y-24.667 E0.002
G1 X44.196 Y-24.954 E0.002
G1 X43.955 Y-25.241 E0.002
G1 X43.721 Y-25.526 E0.002
G1 X43.496 Y-25.810 E0.002
G1 X43.279 Y-26.092 E0.002
G1 X43.071 Y-26.372 E0.002
G1 X42.871 Y-26.649 E0.002
G1 X42.680 Y-26.924 E0.002
G1 X42.497 Y-27.196 E0.002
G1 X42.323 Y-27.465 E0.002
G1 X42.158 Y-27.731 E0.002
G1 X42.002 Y-27.993 E0.002
G1 X41.855 Y-28.252 E0.002
G1 X41.717 Y-28.507 E0.002
G1 X41.588 Y-28.759 E0.002
G1 X41.467 Y-29.007 E0.002
G1 X41.356 Y-29.251 E0.002
G1 X41.253 Y-29.490 E0.002
G1 X41.159 Y-29.725 E0.002
G1 X41.074 Y-29.956 E0.002
G1 X40.998 Y-30.181 E0.002
G1 X40.931 Y-30.402 E0.002
G1 X40.873 Y-30.618 E0.002
G1 X40.824 Y-30.828 E0.002
G1 X40.784 Y-31.033 E0.002
G1 X40.753 Y-31.233 E0.002
G1 X40.730 Y-31.426 E0.002
G1 X40.717 Y-31.614 E0.002
G1 X40.712 Y-31.797 E0.002
G1 X40.717 Y-31.975 E0.002
G1 X40.731 Y-32.147 E0.002
G1 X40.753 Y-32.314 E0.002
G1 X40.784 Y-32.476 E0.002
G1 X40.824 Y-32.632 E0.002
G1 X40.873 Y-32.782 E0.002
G1 X40.931 Y-32.927 E0.002
G1 X40.998 Y-33.066 E0.002
G1 X41.074 Y-33.199 E0.002
G1 X41.159 Y-33.326 E0.002
G1 X41.253 Y-33.448 E0.002
G1 X41.356 Y-33.563 E0.002
G1 X41.467 Y-33.672 E0.002
G1 X41.588 Y-33.775 E0.002
G1 X41.717 Y-33.871 E0.002
G1 X41.855 Y-33.960 E0.002
G1 X42.002 Y-34.042 E0.002
G1 X42.158 Y-34.117 E0.002
G1 X42.323 Y-34.185 E0.002
G1 X42.497 Y-34.245 E0.002
G1 X42.680 Y-34.298 E0.002
G1 X42.871 Y-34.344 E0.002
G1 X43.071 Y-34.382 E0.002
G1 X43.279 Y-34.412 E0.002
G1 X43.496 Y-34.435 E0.002
G1 X43.721 Y-34.451 E0.002
G1 X43.955 Y-34.459 E0.002
G1 X44.196 Y-34.460 E0.002
G1 X44.445 Y-34.454 E0.002
G1 X44.701 Y-34.440 E0.002
G1 X44.964 Y-34.419 E0.002
G1 X45.233 Y-34.391 E0.002
G1 X45.509 Y-34.355 E0.002
G1 X45.791 Y-34.312 E0.002
G1 X46.079 Y-34.262 E0.002
G1 X46.373 Y-34.205 E0.002
G1 X46.673 Y-34.141 E0.002
G1 X46.979 Y-34.071 E0.002
G1 X47.291 Y-33.994 E0.002
G1 X47.607 Y-33.909 E0.002
G1 X47.928 Y-33.818 E0.002
G1 X48.254 Y-33.721 E0.002
G1 X48.583 Y-33.616 E0.002
G1 X48.916 Y-33.505 E0.002
G1 X49.252 Y-33.388 E0.002
G1 X49.590 Y-33.264 E0.002
G1 X49.931 Y-33.134 E0.002
G1 X50.273 Y-32.998 E0.002
G1 X50.617 Y-32.856 E0.002
G1 X50.961 Y-32.708 E0.002
G1 X51.305 Y-32.556 E0.002
G1 X51.649 Y-32.400 E0.002
G1 X51.992 Y-32.240 E0.002
G1 X52.333 Y-32.076 E0.002
G1 X52.671 Y-31.907 E0.002
G1 X53.006 Y-31.734 E0.002
G1 X53.337 Y-31.558 E0.002
G1 X53.664 Y-31.378 E0.002
G1 X53.986 Y-31.196 E0.002
G1 X54.303 Y-31.011 E0.002
G1 X54.614 Y-30.824 E0.002
G1 X54.920 Y-30.635 E0.002
G1 X55.220 Y-30.444 E0.002
G1 X55.513 Y-30.252 E0.002
G1 X55.800 Y-30.059 E0.002
G1 X56.081 Y-29.864 E0.002
G1 X56.355 Y-29.669 E0.002
G1 X56.623 Y-29.473 E0.002
G1 X56.883 Y-29.278 E0.002
G1 X57.136 Y-29.083 E0.002
G1 X57.382 Y-28.890 E0.002
G1 X57.620 Y-28.697 E0.002
G1 X57.851 Y-28.506 E0.002
G1 X58.073 Y-28.317 E0.002
G1 X58.288 Y-28.130 E0.002
G1 X58.494 Y-27.945 E0.002
G1 X58.692 Y-27.764 E0.002
G1 X58.883 Y-27.585 E0.002
G1 X59.066 Y-27.410 E0.002
G1 X59.241 Y-27.239 E0.002
G1 X59.408 Y-27.071 E0.002
G1 X59.568 Y-26.908 E0.002
G1 X59.720 Y-26.749 E0.002
G1 X59.865 Y-26.594 E0.002
G1 X60.002 Y-26.444 E0.002
G1 X60.132 Y-26.298 E0.002
G1 X60.254 Y-26.157 E0.002
G1 X60.369 Y-26.021 E0.002
G1 X60.476 Y-25.890 E0.002
G1 X60.576 Y-25.764 E0.002
G1 X60.669 Y-25.642 E0.002
G1 X60.754 Y-25.526 E0.002
G1 X60.832 Y-25.414 E0.002
G1 X60.903 Y-25.308 E0.002
G1 X60.967 Y-25.207 E0.002
G1 X61.023 Y-25.111 E0.002
G1 X61.072 Y-25.020 E0.002
G1 X61.114 Y-24.934 E0.002
G1 X61.148 Y-24.853 E0.002
G1 X61.176 Y-24.777 E0.002
G1 X61.196 Y-24.706 E0.002
G1 X61.209 Y-24.640 E0.002
G1 X61.215 Y-24.579 E0.002
G1 X61.214 Y-24.523 E0.002
G1 X61.206 Y-24.472 E0.002
G1 X61.191 Y-24.426 E0.002
G1 X61.169 Y-24.385 E0.002
G1 X61.141 Y-24.349 E0.002
G1 X61.107 Y-24.317 E0.002
G1 X61.066 Y-24.290 E0.002
G1 X61.019 Y-24.267 E0.002
G1 X60.967 Y-24.249 E0.002
G1 X60.908 Y-24.236 E0.002
G1 X60.844 Y-24.228 E0.002
G1 X60.775 Y-24.225 E0.002
G1 X60.701 Y-24.227 E0.002
G1 X60.622 Y-24.234 E0.002
G1 X60.538 Y-24.246 E0.002
G1 X60.450 Y-24.263 E0.002
G1 X60.358 Y-24.285 E0.002
G1 X60.262 Y-24.312 E0.002
G1 X60.161 Y-24.344 E0.002
G1 X60.057 Y-24.381 E0.002
G1 X59.949 Y-24.423 E0.002
G1 X59.838 Y-24.470 E0.002
G1 X59.723 Y-24.522 E0.002
G1 X59.605 Y-24.579 E0.002
G1 X59.484 Y-24.641 E0.002
G1 X59.360 Y-24.707 E0.002
G1 X59.234 Y-24.778 E0.002
G1 X59.104 Y-24.854 E0.002
G1 X58.973 Y-24.935 E0.002
G1 X58.839 Y-25.020 E0.002
G1 X58.703 Y-25.110 E0.002
G1 X58.566 Y-25.204 E0.002
G1 X58.428 Y-25.302 E0.002
G1 X58.288 Y-25.404 E0.002
G1 X58.148 Y-25.510 E0.002
G1 X58.007 Y-25.619 E0.002
G1 X57.867 Y-25.732 E0.002
G1 X57.726 Y-25.849 E0.002
G1 X57.586 Y-25.970 E0.002
G1 X57.447 Y-26.093 E0.002
G1 X57.309 Y-26.220 E0.002
G1 X57.172 Y-26.349 E0.002
G1 X57.037 Y-26.481 E0.002
G1 X56.903 Y-26.615 E0.002
G1 X56.771 Y-26.751 E0.002
G1 X56.641 Y-26.888 E0.002
G1 X56.514 Y-27.027 E0.002
G1 X56.389 Y-27.167 E0.002
G1 X56.267 Y-27.308 E0.002
G1 X56.148 Y-27.450 E0.002
G1 X56.033 Y-27.593 E0.002
G1 X55.921 Y-27.736 E0.002
G1 X55.813 Y-27.880 E0.002
G1 X55.710 Y-28.024 E0.002
G1 X55.611 Y-28.169 E0.002
G1 X55.517 Y-28.313 E0.002
G1 X55.428 Y-28.457 E0.002
G1 X55.344 Y-28.601 E0.002
G1 X55.263 Y-28.744 E0.002
G1 X55.197 Y-28.887 E0.002
G1 X55.134 Y-29.028 E0.002
G1 X55.076 Y-29.169 E0.002
G1 X55.023 Y-29.308 E0.002
G1 X54.974 Y-29.447 E0.002
G1 X54.930 Y-29.584 E0.002
G1 X54.892 Y-29.720 E0.002
G1 X54.858 Y-29.854 E0.002
G1 X54.830 Y-29.986 E0.002
G1 X54.808 Y-30.115 E0.002
G1 X54.792 Y-30.241 E0.002
G1 X54.781 Y-30.364 E0.002
G1 X54.776 Y-30.484 E0.002
G1 X54.777 Y-30.600 E0.002
G1 X54.785 Y-30.712 E0.002
G1 X54.799 Y-30.821 E0.002
G1 X54.819 Y-30.926 E0.002
G1 X54.845 Y-31.026 E0.002
G1 X54.877 Y-31.122 E0.002
G1 X54.914 Y-31.214 E0.002
G1 X54.958 Y-31.301 E0.002
G1 X55.008 Y-31.383 E0.002
G1 X55.064 Y-31.460 E0.002
G1 X55.126 Y-31.532 E0.002
G1 X55.193 Y-31.598 E0.002
G1 X55.266 Y-31.659 E0.002
G1 X55.344 Y-31.715 E0.002
G1 X55.428 Y-31.766 E0.002
G1 X55.517 Y-31.811 E0.002
G1 X55.611 Y-31.851 E0.002
G1 X55.710 Y-31.885 E0.002
G1 X55.813 Y-31.914 E0.002
G1 X55.921 Y-31.937 E0.002
G1 X56.033 Y-31.954 E0.002
G1 X56.148 Y-31.965 E0.002
G1 X56.267 Y-31.970 E0.002
G1 X56.389 Y-31.969 E0.002
G1 X56.514 Y-31.962 E0.002
G1 X56.641 Y-31.949 E0.002
G1 X56.771 Y-31.931 E0.002
G1 X56.903 Y-31.907 E0.002
G1 X57.037 Y-31.877 E0.002
G1 X57.172 Y-31.841 E0.002
G1 X57.309 Y-31.800 E0.002
G1 X57.447 Y-31.752 E0.002
G1 X57.586 Y-31.700 E0.002
G1 X57.726 Y-31.642 E0.002
G1 X57.867 Y-31.578 E0.002
G1 X58.007 Y-31.509 E0.002
G1 X58.148 Y-31.435 E0.002
G1 X58.288 Y-31.355 E0.002
G1 X58.428 Y-31.270 E0.002
G1 X58.566 Y-31.179 E0.002
G1 X58.703 Y-31.083 E0.002
G1 X58.839 Y-30.983 E0.002
G1 X58.973 Y-30.877 E0.002
G1 X59.104 Y-30.767 E0.002
G1 X59.234 Y-30.652 E0.002
G1 X59.360 Y-30.533 E0.002
G1 X59.484 Y-30.410 E0.002
G1 X59.605 Y-30.282 E0.002
G1 X59.723 Y-30.151 E0.002
G1 X59.838 Y-30.016 E0.002
G1 X59.949 Y-29.878 E0.002
G1 X60.057 Y-29.736 E0.002
G1 X60.161 Y-29.592 E0.002
G1 X60.262 Y-29.446 E0.002
G1 X60.358 Y-29.297 E0.002
G1 X60.450 Y-29.146 E0.002
G1 X60.538 Y-28.994 E0.002
G1 X60.622 Y-28.841 E0.002
G1 X60.701 Y-28.687 E0.002
G1 X60.775 Y-28.533 E0.002
G1 X60.844 Y-28.378 E0.002
G1 X60.908 Y-28.223 E0.002
G1 X60.966 Y-28.069 E0.002
G1 X61.019 Y-27.914 E0.002
G1 X61.066 Y-27.760 E0.002
G1 X61.107 Y-27.607 E0.002
G1 X61.141 Y-27.454 E0.002
G1 X61.169 Y-27.302 E0.002
G1 X61.191 Y-27.150 E0.002
G1 X61.206 Y-27.000 E0.002
G1 X61.214 Y-26.850 E0.002
G1 X61.215 Y-26.702 E0.002
G1 X61.209 Y-26.555 E0.002
G1 X61.196 Y-26.409 E0.002
G1 X61.176 Y-26.266 E0.002
G1 X61.148 Y-26.124 E0.002
G1 X61.114 Y-25.984 E0.002
G1 X61.072 Y-25.847 E0.002
G1 X61.023 Y-25.712 E0.002
G1 X60.967 Y-25.580 E0.002
G1 X60.903 Y-25.450 E0.002
G1 X60.832 Y-25.324 E0.002
G1 X60.754 Y-25.201 E0.002
G1 X60.669 Y-25.082 E0.002
G1 X60.576 Y-24.965 E0.002
G1 X60.476 Y-24.853 E0.002
G1 X60.369 Y-24.745 E0.002
G1 X60.254 Y-24.641 E0.002
G1 X60.132 Y-24.541 E0.002
G1 X60.002 Y-24.447 E0.002
G1 X59.865 Y-24.357 E0.002
G1 X59.720 Y-24.273 E0.002
G1 X59.568 Y-24.194 E0.002
G1 X59.408 Y-24.121 E0.002
G1 X59.241 Y-24.054 E0.002
G1 X59.066 Y-23.993 E0.002
G1 X58.883 Y-23.939 E0.002
G1 X58.692 Y-23.882 E0.003
G0 X63.118 Y-23.824 Z2.954 E-0.007
G0 Z-7.000 E7.000
G1 X63.118 Y-23.805 E0.000
G1 X62.946 Y-23.929 E0.003
G1 X62.775 Y-24.045 E0.003
G1 X62.603 Y-24.153 E0.003
G1 X62.433 Y-24.252 E0.003
G1 X62.262 Y-24.344 E0.003
G1 X62.092 Y-24.427 E0.003
G1 X61.921 Y-24.501 E0.003
G1 X61.752 Y-24.568 E0.003
G1 X61.583 Y-24.627 E0.003
G1 X61.414 Y-24.678 E0.003
G1 X61.246 Y-24.722 E0.003
G1 X61.079 Y-24.757 E0.003
G1 X61.000 Y-24.773 E0.001
G1 X60.835 Y-24.813 E0.003
G1 X60.671 Y-24.845 E0.003
G1 X60.506 Y-24.869 E0.003
G1 X60.344 Y-24.886 E0.003
G1 X60.181 Y-24.895 E0.003
G1 X60.020 Y-24.897 E0.003
G1 X59.859 Y-24.891 E0.003
G1 X59.699 Y-24.877 E0.003
G1 X59.541 Y-24.856 E0.003
G1 X59.383 Y-24.827 E0.003
G1 X59.227 Y-24.792 E0.003
G1 X59.072 Y-24.749 E0.003
G1 X58.918 Y-24.699 E0.003
G1 X58.766 Y-24.642 E0.003
G1 X58.615 Y-24.579 E0.003
G1 X58.466 Y-24.509 E0.003
G1 X58.318 Y-24.432 E0.003
G1 X58.172 Y-24.349 E0.003
G1 X58.028 Y-24.260 E0.003
G1 X57.886 Y-24.165 E0.003
G1 X57.746 Y-24.064 E0.003
G1 X57.608 Y-23.957 E0.003
G1 X57.472 Y-23.845 E0.003
G1 X57.338 Y-23.728 E0.003
G1 X57.207 Y-23.605 E0.003
G1 X57.078 Y-23.477 E0.003
G1 X56.952 Y-23.345 E0.003
G1 X56.828 Y-23.209 E0.003
G1 X56.707 Y-23.070 E0.003
G1 X56.588 Y-22.928 E0.003
G1 X56.473 Y-22.783 E0.003
G1 X56.360 Y-22.635 E0.003
G1 X56.250 Y-22.486 E0.003
G1 X56.143 Y-22.334 E0.003
G1 X56.040 Y-22.182 E0.003
G1 X55.939 Y-22.028 E0.003
G1 X55.842 Y-21.873 E0.003
G1 X55.748 Y-21.718 E0.003
G1 X55.658 Y-21.563 E0.003
G1 X55.571 Y-21.408 E0.003
G1 X55.488 Y-21.254 E0.003
G1 X55.409 Y-21.100 E0.003
G1 X55.334 Y-20.947 E0.003
G1 X55.263 Y-20.796 E0.003
G1 X55.197 Y-20.646 E0.003
G1 X55.134 Y-20.497 E0.003
G1 X55.076 Y-20.351 E0.003
G1 X55.023 Y-20.206 E0.003
G1 X54.974 Y-20.064 E0.003
G1 X54.930 Y-19.924 E0.003
G1 X54.892 Y-19.787 E0.003
G1 X54.858 Y-19.653 E0.003
G1 X54.830 Y-19.522 E0.003
G1 X54.808 Y-19.394 E0.002
G1 X54.792 Y-19.270 E0.002
G1 X54.781 Y-19.149 E0.002
G1 X54.776 Y-19.032 E0.002
G1 X54.777 Y-18.918 E0.002
G1 X54.785 Y-18.809 E0.002
G1 X54.799 Y-18.703 E0.002
G1 X54.819 Y-18.602 E0.002
G1 X54.845 Y-18.505 E0.002
G1 X54.877 Y-18.413 E0.002
G1 X54.914 Y-18.325 E0.002
G1 X54.958 Y-18.243 E0.002
G1 X55.008 Y-18.166 E0.002
G1 X55.064 Y-18.094 E0.002
G1 X55.126 Y-18.028 E0.002
G1 X55.193 Y-17.967 E0.002
G1 X55.266 Y-17.911 E0.002
G1 X55.344 Y-17.861 E0.002
G1 X55.428 Y-17.818 E0.002
G1 X55.517 Y-17.780 E0.002
G1 X55.611 Y-17.748 E0.002
G1 X55.710 Y-17.722 E0.002
G1 X55.813 Y-17.703 E0.002
G1 X55.921 Y-17.690 E0.002
G1 X56.033 Y-17.684 E0.002
G1 X56.148 Y-17.684 E0.002
G1 X56.267 Y-17.692 E0.002
G1 X56.389 Y-17.706 E0.002
G1 X56.514 Y-17.727 E0.002
G1 X56.641 Y-17.755 E0.002
G1 X56.771 Y-17.789 E0.002
G1 X56.903 Y-17.831 E0.002
G1 X57.037 Y-17.879 E0.002
G1 X57.172 Y-17.933 E0.002
G1 X57.309 Y-17.993 E0.002
G1 X57.447 Y-18.060 E0.002
G1 X57.586 Y-18.133 E0.002
G1 X57.726 Y-18.213 E0.002
G1 X57.867 Y-18.300 E0.002
G1 X58.007 Y-18.392 E0.002
G1 X58.148 Y-18.490 E0.002
G1 X58.288 Y-18.594 E0.002
G1 X58.428 Y-18.704 E0.002
G1 X58.566 Y-18.820 E0.002
G1 X58.703 Y-18.942 E0.002
G1 X58.839 Y-19.070 E0.002
G1 X58.973 Y-19.202 E0.002
G1 X59.104 Y-19.338 E0.002
G1 X59.234 Y-19.479 E0.002
G1 X59.360 Y-19.626 E0.002
G1 X59.484 Y-19.777 E0.002
G1 X59.605 Y-19.932 E0.002
G1 X59.723 Y-20.091 E0.002
G1 X59.838 Y-20.253 E0.002
G1 X59.949 Y-20.418 E0.002
G1 X60.057 Y-20.585 E0.002
G1 X60.161 Y-20.754 E0.002
G1 X60.262 Y-20.924 E0.002
G1 X60.358 Y-21.095 E0.002
G1 X60.450 Y-21.268 E0.002
G1 X60.538 Y-21.441 E0.002
G1 X60.622 Y-21.614 E0.002
G1 X60.701 Y-21.788 E0.002
G1 X60.775 Y-21.961 E0.002
G1 X60.844 Y-22.134 E0.002
G1 X60.908 Y-22.307 E0.002
G1 X60.966 Y-22.479 E0.002
G1 X61.019 Y-22.651 E0.002
G1 X61.066 Y-22.822 E0.002
G1 X61.107 Y-22.993 E0.002
G1 X61.141 Y-23.164 E0.002
G1 X61.169 Y-23.334 E0.002
G1 X61.191 Y-23.504 E0.002
G1 X61.206 Y-23.673 E0.002
G1 X61.214 Y-23.842 E0.002
G1 X61.215 Y-24.010 E0.002
G1 X61.209 Y-24.177 E0.002
G1 X61.196 Y-24.342 E0.002
G1 X61.176 Y-24.507 E0.002
G1 X61.148 Y-24.670 E0.002
G1 X61.114 Y-24.832 E0.002
G1 X61.072 Y-24.991 E0.002
G1 X61.023 Y-25.148 E0.002
G1 X60.967 Y-25.303 E0.002
G1 X60.903 Y-25.455 E0.002
G1 X60.832 Y-25.604 E0.002
G1 X60.754 Y-25.750 E0.002
G1 X60.669 Y-25.892 E0.002
G1 X60.576 Y-26.031 E0.002
G1 X60.476 Y-26.166 E0.002
G1 X60.369 Y-26.297 E0.002
G1 X60.254 Y-26.423 E0.002
G1 X60.132 Y-26.545 E0.002
G1 X60.002 Y-26.661 E0.002
G1 X59.865 Y-26.771 E0.002
G1 X59.720 Y-26.876 E0.002
G1 X59.568 Y-26.974 E0.002
G1 X59.408 Y-27.066 E0.002
G1 X59.241 Y-27.151 E0.002
G1 X59.066 Y-27.230 E0.002
G1 X58.883 Y-27.298 E0.002
G1 X58.692 Y-27.358 E0.002
G1 X58.494 Y-27.409 E0.002
G1 X58.288 Y-27.450 E0.002
G1 X58.073 Y-27.481 E0.002
G1 X57.851 Y-27.501 E0.002
G1 X57.620 Y-27.511 E0.002
G1 X57.382 Y-27.510 E0.002
G1 X57.136 Y-27.503 E0.002
G1 X56.883 Y-27.479 E0.002
G1 X56.623 Y-27.444 E0.002
G1 X56.355 Y-27.398 E0.002
G1 X56.081 Y-27.341 E0.002
G1 X55.800 Y-27.263 E0.002
G1 X55.513 Y-27.185 E0.002
G1 X55.220 Y-27.096 E0.002
G1 X54.920 Y-26.997 E0.002
G1 X54.614 Y-26.887 E0.002
G1 X54.303 Y-26.768 E0.002
G1 X53.986 Y-26.638 E0.002
G1 X53.664 Y-26.499 E0.002
G1 X53.337 Y-26.351 E0.002
G1 X53.006 Y-26.193 E0.002
G1 X52.671 Y-26.027 E0.002
G1 X52.333 Y-25.852 E0.002
G1 X51.992 Y-25.669 E0.002
G1 X51.649 Y-25.478 E0.002
G1 X51.305 Y-25.279 E0.002
G1 X50.961 Y-25.073 E0.002
G1 X50.617 Y-24.859 E0.002
G1 X50.273 Y-24.638 E0.002
G1 X49.931 Y-24.411 E0.002
G1 X49.590 Y-24.178 E0.002
G1 X49.252 Y-23.939 E0.002
G1 X48.916 Y-23.694 E0.002
G1 X48.583 Y-23.444 E0.002
G1 X48.254 Y-23.189 E0.002
G1 X47.928 Y-22.929 E0.002
G1 X47.607 Y-22.665 E0.002
G1 X47.291 Y-22.397 E0.002
G1 X46.979 Y-22.125 E0.002
G1 X46.673 Y-21.855 E0.002
G1 X46.373 Y-21.583 E0.002
G1 X46.079 Y-21.312 E0.002
G1 X45.791 Y-21.043 E0.002
G1 X45.509 Y-20.775 E0.002
G1 X45.233 Y-20.507 E0.002
G1 X44.964 Y-20.239 E0.002
G1 X44.701 Y-19.971 E0.002
G1 X44.445 Y-19.703 E0.002
G1 X44.196 Y-19.436 E0.002
G1 X43.955 Y-19.171 E0.002
G1 X43.721 Y-18.908 E0.002
G1 X43.496 Y-18.647 E0.002
G1 X43.279 Y-18.388 E0.002
G1 X43.071 Y-18.131 E0.002
G1 X42.871 Y-17.877 E0.002
G1 X42.680 Y-17.625 E0.002
G1 X42.497 Y-17.376 E0.002
G1 X42.323 Y-17.130 E0.002
G1 X42.158 Y-16.887 E0.002
G1 X42.002 Y-16.647 E0.002
G1 X41.855 Y-16.411 E0.002
G1 X41.717 Y-16.177 E0.002
G1 X41.588 Y-15.947 E0.002
G1 X41.467 Y-15.720 E0.002
G1 X41.356 Y-15.496 E0.002
G1 X41.253 Y-15.275 E0.002
G1 X41.159 Y-15.057 E0.002
G1 X41.074 Y-14.842 E0.002
G1 X40.998 Y-14.631 E0.002
G1 X40.931 Y-14.423 E0.002
G1 X40.873 Y-14.218 E0.002
G1 X40.824 Y-14.017 E0.002
G1 X40.784 Y-13.820 E0.002
G1 X40.753 Y-13.627 E0.002
G1 X40.730 Y-13.438 E0.002
G1 X40.717 Y-13.252 E0.002
G1 X40.712 Y-13.070 E0.002
G1 X40.717 Y-12.892 E0.002
G1 X40.731 Y-12.717 E0.002
G1 X40.753 Y-12.546 E0.002
G1 X40.784 Y-12.379 E0.002
G1 X40.824 Y-12.215 E0.002
G1 X40.873 Y-12.055 E0.002
G1 X40.931 Y-11.900 E0.002
G1 X40.998 Y-11.748 E0.002
G1 X41.074 Y-11.600 E0.002
G1 X41.159 Y-11.457 E0.002
G1 X41.253 Y-11.318 E0.002
G1 X41.356 Y-11.183 E0.002
G1 X41.467 Y-11.053 E0.002
G1 X41.588 Y-10.927 E0.002
G1 X41.717 Y-10.806 E0.002
G1 X41.855 Y-10.689 E0.002
G1 X42.002 Y-10.577 E0.002
G1 X42.158 Y-10.470 E0.002
G1 X42.323 Y-10.367 E0.002
G1 X42.497 Y-10.269 E0.002
G1 X42.680 Y-10.176 E0.002
G1 X42.871 Y-10.087 E0.002
G1 X43.071 Y-10.002 E0.002
G1 X43.279 Y-9.922 E0.002
G1 X43.496 Y-9.846 E0.002
G1 X43.721 Y-9.775 E0.002
G1 X43.955 Y-9.708 E0.002
G1 X44.196 Y-9.645 E0.002
G1 X44.445 Y-9.587 E0.002
G1 X44.701 Y-9.533 E0.002
G1 X44.964 Y-9.484 E0.002
G1 X45.233 Y-9.439 E0.002
G1 X45.509 Y-9.399 E0.002
G1 X45.791 Y-9.364 E0.002
G1 X46.079 Y-9.333 E0.002
G1 X46.373 Y-9.307 E0.002
G1 X46.673 Y-9.286 E0.002
G1 X46.979 Y-9.269 E0.002
G1 X47.291 Y-9.256 E0.002
G1 X47.607 Y-9.248 E0.002
G1 X47.928 Y-9.244 E0.002
G1 X48.254 Y-9.245 E0.002
G1 X48.583 Y-9.250 E0.002
G1 X48.916 Y-9.259 E0.002
G1 X49.252 Y-9.274 E0.002
G1 X49.590 Y-9.292 E0.002
G1 X49.931 Y-9.315 E0.002
G1 X50.273 Y-9.342 E0.002
G1 X50.617 Y-9.374 E0.002
G1 X50.961 Y-9.410 E0.002
G1 X51.305 Y-9.451 E0.002
G1 X51.649 Y-9.497 E0.002
G1 X51.992 Y-9.547 E0.002
G1 X52.333 Y-9.602 E0.002
G1 X52.671 Y-9.663 E0.002
G1 X53.006 Y-9.728 E0.002
G1 X53.337 Y-9.799 E0.002
G1 X53.664 Y-9.875 E0.002
G1 X53.986 Y-9.956 E0.002
G1 X54.303 Y-10.042 E0.002
G1 X54.614 Y-10.133 E0.002
G1 X54.920 Y-10.230 E0.002
G1 X55.220 Y-10.332 E0.002
G1 X55.513 Y-10.439 E0.002
G1 X55.800 Y-10.552 E0.002
G1 X56.081 Y-10.670 E0.002
G1 X56.355 Y-10.793 E0.002
G1 X56.623 Y-10.921 E0.002
G1 X56.883 Y-11.053 E0.002
G1 X57.136 Y-11.191 E0.002
G1 X57.382 Y-11.333 E0.002
G1 X57.620 Y-11.478 E0.002
G1 X57.851 Y-11.628 E0.002
G1 X58.073 Y-11.782 E0.002
G1 X58.288 Y-11.940 E0.002
G1 X58.494 Y-12.102 E0.002
G1 X58.692 Y-12.268 E0.002
G1 X58.883 Y-12.437 E0.002
G1 X59.066 Y-12.610 E0.002
G1 X59.241 Y-12.785 E0.002
G1 X59.408 Y-12.962 E0.002
G1 X59.568 Y-13.141 E0.002
G1 X59.720 Y-13.322 E0.002
G1 X59.865 Y-13.504 E0.002
G1 X60.002 Y-13.687 E0.002
G1 X60.132 Y-13.871 E0.002
G1 X60.254 Y-14.055 E0.002
G1 X60.369 Y-14.239 E0.002
G1 X60.476 Y-14.423 E0.002
G1 X60.576 Y-14.606 E0.002
G1 X60.669 Y-14.788 E0.002
G1 X60.754 Y-14.969 E0.002
G1 X60.832 Y-15.148 E0.002
G1 X60.903 Y-15.326 E0.002
G1 X60.967 Y-15.501 E0.002
G1 X61.023 Y-15.675 E0.002
G1 X61.072 Y-15.847 E0.002
G1 X61.114 Y-16.017 E0.002
G1 X61.148 Y-16.185 E0.002
G1 X61.176 Y-16.351 E0.002
G1 X61.196 Y-16.516 E0.002
G1 X61.209 Y-16.678 E0.002
G1 X61.215 Y-16.839 E0.002
G1 X61.214 Y-16.998 E0.002
G1 X61.206 Y-17.155 E0.002
G1 X61.191 Y-17.310 E0.002
G1 X61.169 Y-17.462 E0.002
G1 X61.141 Y-17.613 E0.002
G1 X61.107 Y-17.761 E0.002
G1 X61.066 Y-17.906 E0.002
G1 X61.019 Y-18.049 E0.002
G1 X60.967 Y-18.188 E0.002
G1 X60.908 Y-18.324 E0.002
G1 X60.844 Y-18.457 E0.002
G1 X60.775 Y-18.587 E0.002
G1 X60.701 Y-18.713 E0.002
G1 X60.622 Y-18.835 E0.002
G1 X60.538 Y-18.954 E0.002
G1 X60.450 Y-19.069 E0.002
G1 X60.358 Y-19.180 E0.002
G1 X60.262 Y-19.288 E0.002
G1 X60.161 Y-19.391 E0.002
G1 X60.057 Y-19.490 E0.002
G1 X59.949 Y-19.584 E0.002
G1 X59.838 Y-19.673 E0.002
G1 X59.723 Y-19.758 E0.002
G1 X59.605 Y-19.837 E0.002
G1 X59.484 Y-19.911 E0.002
G1 X59.360 Y-19.980 E0.002
G1 X59.234 Y-20.043 E0.002
G1 X59.104 Y-20.100 E0.002
G1 X58.973 Y-20.152 E0.002
G1 X58.839 Y-20.197 E0.002
G1 X58.703 Y-20.237 E0.002
G1 X58.566 Y-20.270 E0.002
G1 X58.428 Y-20.298 E0.002
G1 X58.288 Y-20.320 E0.002
G1 X58.148 Y-20.337 E0.002
G1 X58.007 Y-20.347 E0.002
G1 X57.867 Y-20.352 E0.002
G1 X57.726 Y-20.350 E0.002
G1 X57.586 Y-20.342 E0.002
G1 X57.447 Y-20.328 E0.002
G1 X57.309 Y-20.309 E0.002
G1 X57.172 Y-20.283 E0.002
G1 X57.037 Y-20.252 E0.002
G1 X56.903 Y-20.215 E0.002
G1 X56.771 Y-20.173 E0.002
G1 X56.641 Y-20.126 E0.002
G1 X56.514 Y-20.073 E0.002
G1 X56.389 Y-20.015 E0.002
G1 X56.267 Y-19.952 E0.002
G1 X56.148 Y-19.884 E0.002
G1 X56.033 Y-19.810 E0.002
G1 X55.921 Y-19.732 E0.002
G1 X55.813 Y-19.648 E0.002
G1 X55.710 Y-19.559 E0.002
G1 X55.611 Y-19.466 E0.002
G1 X55.517 Y-19.369 E0.002
G1 X55.428 Y-19.268 E0.002
G1 X55.344 Y-19.163 E0.002
G1 X55.263 Y-19.054 E0.002
G1 X55.197 Y-18.941 E0.002
G1 X55.134 Y-18.825 E0.002
G1 X55.076 Y-18.705 E0.002
G1 X55.023 Y-18.582 E0.002
G1 X54.974 Y-18.455 E0.002
G1 X54.930 Y-18.324 E0.002
G1 X54.892 Y-18.190 E0.002
G1 X54.858 Y-18.053 E0.002
G1 X54.830 Y-17.913 E0.002
G1 X54.808 Y-17.771 E0.002
G1 X54.792 Y-17.626 E0.002
G1 X54.781 Y-17.479 E0.002
G1 X54.776 Y-17.329 E0.002
G1 X54.777 Y-17.178 E0.002
G1 X54.785 Y-17.025 E0.002
G1 X54.799 Y-16.871 E0.002
G1 X54.819 Y-16.716 E0.002
G1 X54.845 Y-16.561 E0.002
G1 X54.877 Y-16.406 E0.002
G1 X54.914 Y-16.252 E0.002
G1 X54.958 Y-16.098 E0.002
G1 X55.008 Y-15.945 E0.002
G1 X55.064 Y-15.793 E0.002
G1 X55.126 Y-15.642 E0.002
G1 X55.193 Y-15.492 E0.002
G1 X55.266 Y-15.344 E0.002
G1 X55.344 Y-15.197 E0.002
G1 X55.428 Y-15.053 E0.002
G1 X55.517 Y-14.912 E0.002
G1 X55.611 Y-14.773 E0.002
G1 X55.710 Y-14.637 E0.002
G1 X55.813 Y-14.505 E0.002
G1 X55.921 Y-14.376 E0.002
G1 X56.033 Y-14.252 E0.002
G1 X56.148 Y-14.131 E0.002
G1 X56.267 Y-14.014 E0.002
G1 X56.389 Y-13.901 E0.002
G1 X56.514 Y-13.793 E0.002
G1 X56.641 Y-13.689 E0.002
G1 X56.771 Y-13.590 E0.002
G1 X56.903 Y-13.496 E0.002
G1 X57.037 Y-13.407 E0.002
G1 X57.172 Y-13.323 E0.002
G1 X57.309 Y-13.245 E0.002
G1 X57.447 Y-13.172 E0.002
G1 X57.586 Y-13.105 E0.002
G1 X57.726 Y-13.044 E0.002
G1 X57.867 Y-12.989 E0.002
G1 X58.007 Y-12.940 E0.002
G1 X58.148 Y-12.896 E0.002
G1 X58.288 Y-12.859 E0.002
G1 X58.428 Y-12.827 E0.002
G1 X58.566 Y-12.801 E0.002
G1 X58.703 Y-12.780 E0.002
G1 X58.839 Y-12.765 E0.002
G1 X58.973 Y-12.755 E0.002
G1 X59.104 Y-12.751 E0.002
G1 X59.234 Y-12.753 E0.002
G1 X59.360 Y-12.760 E0.002
G1 X59.484 Y-12.773 E0.002
G1 X59.605 Y-12.791 E0.002
G1 X59.723 Y-12.814 E0.002
G1 X59.838 Y-12.843 E0.002
G1 X59.949 Y-12.877 E0.002
G1 X60.057 Y-12.916 E0.002
G1 X60.161 Y-12.960 E0.002
G1 X60.262 Y-13.010 E0.002
G1 X60.358 Y-13.065 E0.002
G1 X60.450 Y-13.125 E0.002
G1 X60.538 Y-13.190 E0.002
G1 X60.622 Y-13.260 E0.002
G1 X60.701 Y-13.334 E0.002
G1 X60.775 Y-13.413 E0.002
G1 X60.844 Y-13.496 E0.002
G1 X60.908 Y-13.583 E0.002
G1 X60.966 Y-13.674 E0.002
G1 X61.019 Y-13.770 E0.002
G1 X61.066 Y-13.869 E0.002
G1 X61.107 Y-13.973 E0.002
G1 X61.141 Y-14.081 E0.002
G1 X61.169 Y-14.191 E0.002
G1 X61.191 Y-14.305 E0.002
G1 X61.206 Y-14.421 E0.002
G1 X61.214 Y-14.539 E0.002
G1 X61.215 Y-14.659 E0.002
G1 X61.209 Y-14.781 E0.002
G1 X61.196 Y-14.904 E0.002
G1 X61.176 Y-15.029 E0.002
G1 X61.148 Y-15.156 E0.002
G1 X61.114 Y-15.284 E0.002
G1 X61.072 Y-15.414 E0.002
G1 X61.023 Y-15.545 E0.002
G1 X60.967 Y-15.678 E0.002
G1 X60.903 Y-15.812 E0.002
G1 X60.832 Y-15.947 E0.002
G1 X60.754 Y-16.083 E0.002
G1 X60.669 Y-16.220 E0.002
G1 X60.576 Y-16.357 E0.002
G1 X60.476 Y-16.494 E0.002
G1 X60.369 Y-16.632 E0.002
G1 X60.254 Y-16.770 E0.002
G1 X60.132 Y-16.908 E0.002
G1 X60.002 Y-17.046 E0.002
G1 X59.865 Y-17.184 E0.002
G1 X59.720 Y-17.321 E0.002
G1 X59.568 Y-17.458 E0.002
G1 X59.408 Y-17.594 E0.002
G1 X59.241 Y-17.729 E0.002
G1 X59.066 Y-17.863 E0.002
G1 X58.883 Y-17.996 E0.002
G1 X58.692 Y-18.127 E0.002
G1 X58.494 Y-18.257 E0.002
G1 X58.288 Y-18.385 E0.002
G1 X58.073 Y-18.512 E0.002
G1 X57.851 Y-18.636 E0.002
G1 X57.620 Y-18.759 E0.002
G1 X57.382 Y-18.880 E0.002
G1 X57.136 Y-18.998 E0.002
G1 X56.883 Y-19.115 E0.002
G1 X56.623 Y-19.229 E0.002
G1 X56.355 Y-19.340 E0.002
G1 X56.081 Y-19.449 E0.002
G1 X55.800 Y-19.555 E0.002
G1 X55.513 Y-19.658 E0.002
G1 X55.220 Y-19.758 E0.002
G1 X54.920 Y-19.855 E0.002
G1 X54.614 Y-19.948 E0.002
G1 X54.303 Y-20.038 E0.002
G1 X53.986 Y-20.124 E0.002
G1 X53.664 Y-20.206 E0.002
G1 X53.337 Y-20.284 E0.002
G1 X53.006 Y-20.358 E0.002
G1 X52.671 Y-20.428 E0.002
G1 X52.333 Y-20.493 E0.002
G1 X51.992 Y-20.554 E0.002
G1 X51.649 Y-20.610 E0.002
G1 X51.305 Y-20.661 E0.002
G1 X50.961 Y-20.707 E0.002
G1 X50.617 Y-20.748 E0.002
G1 X50.273 Y-20.784 E0.002
G1 X49.931 Y-20.814 E0.002
G1 X49.590 Y-20.839 E0.002
G1 X49.252 Y-20.860 E0.002
G1 X48.916 Y-20.875 E0.002
G1 X48.583 Y-20.885 E0.002
G1 X48.254 Y-20.890 E0.002
G1 X47.928 Y-20.889 E0.002
G1 X47.607 Y-20.883 E0.002
G1 X47.291 Y-20.872 E0.002
G1 X46.979 Y-20.855 E0.002
G1 X46.673 Y-20.833 E0.002
G1 X46.373 Y-20.806 E0.002
G1 X46.079 Y-20.774 E0.002
G1 X45.791 Y-20.736 E0.002
G1 X45.509 Y-20.693 E0.002
G1 X45.233 Y-20.645 E0.002
G1 X44.964 Y-20.592 E0.002
G1 X44.701 Y-20.533 E0.002
G1 X44.445 Y-20.469 E0.002
G1 X44.196 Y-20.400 E0.002
G1 X43.955 Y-20.326 E0.002
G1 X43.721 Y-20.247 E0.002
G1 X43.496 Y-20.163 E0.002
G1 X43.279 Y-20.075 E0.002
G1 X43.071 Y-19.982 E0.002
G1 X42.871 Y-19.884 E0.002
G1 X42.680 Y-19.782 E0.002
G1 X42.497 Y-19.676 E0.002
G1 X42.323 Y-19.566 E0.002
G1 X42.158 Y-19.452 E0.002
G1 X42.002 Y-19.334 E0.002
G1 X41.855 Y-19.213 E0.002
G1 X41.717 Y-19.088 E0.002
G1 X41.588 Y-18.961 E0.002
G1 X41.467 Y-18.831 E0.002
G1 X41.356 Y-18.698 E0.002
G1 X41.253 Y-18.562 E0.002
G1 X41.159 Y-18.425 E0.002
G1 X41.074 Y-18.285 E0.002
G1 X40.998 Y-18.144 E0.002
G1 X40.931 Y-18.001 E0.002
G1 X40.873 Y-17.857 E0.002
G1 X40.824 Y-17.712 E0.002
G1 X40.784 Y-17.566 E0.002
G1 X40.753 Y-17.420 E0.002
G1 X40.730 Y-17.273 E0.002
G1 X40.717 Y-17.126 E0.002
G1 X40.712 Y-16.979 E0.002
G1 X40.717 Y-16.832 E0.002
G1 X40.731 Y-16.685 E0.002
G1 X40.753 Y-16.539 E0.002
G1 X40.784 Y-16.393 E0.002
G1 X40.824 Y-16.248 E0.002
G1 X40.873 Y-16.104 E0.002
G1 X40.931 Y-15.962 E0.002
G1 X40.998 Y-15.821 E0.002
G1 X41.074 Y-15.682 E0.002
G1 X41.159 Y-15.545 E0.002
G1 X41.253 Y-15.411 E0.002
G1 X41.356 Y-15.279 E0.002
G1 X41.467 Y-15.150 E0.002
G1 X41.588 Y-15.024 E0.002
G1 X41.717 Y-14.901 E0.002
G1 X41.855 Y-14.781 E0.002
G1 X42.002 Y-14.664 E0.002
G1 X42.158 Y-14.551 E0.002
G1 X42.323 Y-14.442 E0.002
G1 X42.497 Y-14.337 E0.002
G1 X42.680 Y-14.236 E0.002
G1 X42.871 Y-14.139 E0.002
G1 X43.071 Y-14.046 E0.002
G1 X43.279 Y-13.957 E0.002
G1 X43.496 Y-13.873 E0.002
G1 X43.721 Y-13.793 E0.002
G1 X43.955 Y-13.717 E0.002
G1 X44.196 Y-13.645 E0.002
G1 X44.445 Y-13.578 E0.002
G1 X44.701 Y-13.515 E0.002
G1 X44.964 Y-13.457 E0.002
G1 X45.233 Y-13.403 E0.002
G1 X45.509 Y-13.354 E0.002
G1 X45.791 Y-13.310 E0.002
G1 X46.079 Y-13.270 E0.002
G1 X46.373 Y-13.235 E0.002
G1 X46.673 Y-13.204 E0.002
G1 X46.979 Y-13.178 E0.002
G1 X47.291 Y-13.156 E0.002
G1 X47.607 Y-13.139 E0.002
G1 X47.928 Y-13.127 E0.002
G1 X48.254 Y-13.120 E0.002
G1 X48.583 Y-13.117 E0.002
G1 X48.916 Y-13.119 E0.002
G1 X49.252 Y-13.126 E0.002
G1 X49.590 Y-13.137 E0.002
G1 X49.931 Y-13.153 E0.002
G1 X50.273 Y-13.174 E0.002
G1 X50.617 Y-13.200 E0.002
G1 X50.961 Y-13.230 E0.002
G1 X51.305 Y-13.264 E0.002
G1 X51.649 Y-13.303 E0.002
G1 X51.992 Y-13.346 E0.002
G1 X52.333 Y-13.394 E0.002
G1 X52.671 Y-13.447 E0.002
G1 X53.006 Y-13.504 E0.002
G1 X53.337 Y-13.565 E0.002
G1 X53.664 Y-13.631 E0.002
G1 X53.986 Y-13.702 E0.002
G1 X54.303 Y-13.778 E0.002
G1 X54.614 Y-13.858 E0.002
G1 X54.920 Y-13.944 E0.002
G1 X55.220 Y-14.034 E0.002
G1 X55.513 Y-14.130 E0.002
G1 X55.800 Y-14.230 E0.002
G1 X56.081 Y-14.335 E0.002
G1 X56.355 Y-14.444 E0.002
G1 X56.623 Y-14.558 E0.002
G1 X56.883 Y-14.676 E0.002
G1 X57.136 Y-14.798 E0.002
G1 X57.382 Y-14.924 E0.002
G1 X57.620 Y-15.053 E0.002
G1 X57.851 Y-15.186 E0.002
G1 X58.073 Y-15.322 E0.002
G1 X58.288 Y-15.462 E0.002
G1 X58.494 Y-15.604 E0.002
G1 X58.692 Y-15.750 E0.002
G1 X58.883 Y-15.898 E0.002
G1 X59.066 Y-16.049 E0.002
G1 X59.241 Y-16.202 E0.002
G1 X59.408 Y-16.357 E0.002
G1 X59.568 Y-16.513 E0.002
G1 X59.720 Y-16.670 E0.002
G1 X59.865 Y-16.828 E0.002
G1 X60.002 Y-16.987 E0.002
G1 X60.132 Y-17.147 E0.002
G1 X60.254 Y-17.307 E0.002
G1 X60.369 Y-17.467 E0.002
G1 X60.476 Y-17.627 E0.002
G1 X60.576 Y-17.787 E0.002
G1 X60.669 Y-17.946 E0.002
G1 X60.754 Y-18.105 E0.002
G1 X60.832 Y-18.263 E0.002
G1 X60.903 Y-18.420 E0.002
G1 X60.967 Y-18.577 E0.002
G1 X61.023 Y-18.732 E0.002
G1 X61.072 Y-18.887 E0.002
G1 X61.114 Y-19.041 E0.002
G1 X61.148 Y-19.194 E0.002
G1 X61.176 Y-19.346 E0.002
G1 X61.196 Y-19.497 E0.002
G1 X61.209 Y-19.648 E0.002
G1 X61.215 Y-19.797 E0.002
G1 X61.214 Y-19.946 E0.002
G1 X61.206 Y-20.094 E0.002
G1 X61.191 Y-20.241 E0.002
G1 X61.169 Y-20.386 E0.002
G1 X61.141 Y-20.530 E0.002
G1 X61.107 Y-20.672 E0.002
G1 X61.066 Y-20.812 E0.002
G1 X61.019 Y-20.950 E0.002
G1 X60.967 Y-21.086 E0.002
G1 X60.908 Y-21.220 E0.002
G1 X60.844 Y-21.352 E0.002
G1 X60.775 Y-21.481 E0.002
G1 X60.701 Y-21.607 E0.002
G1 X60.622 Y-21.730 E0.002
G1 X60.538 Y-21.850 E0.002
G1 X60.450 Y-21.967 E0.002
G1 X60.358 Y-22.081 E0.002
G1 X60.262 Y-22.191 E0.002
G1 X60.161 Y-22.297 E0.002
G1 X60.057 Y-22.399 E0.002
G1 X59.949 Y-22.497 E0.002
G1 X59.838 Y-22.591 E0.002
G1 X59.723 Y-22.680 E0.002
G1 X59.605 Y-22.765 E0.002
G1 X59.484 Y-22.844 E0.002
G1 X59.360 Y-22.919 E0.002
G1 X59.234 Y-22.988 E0.002
G1 X59.104 Y-23.052 E0.002
G1 X58.973 Y-23.110 E0.002
G1 X58.839 Y-23.163 E0.002
G1 X58.703 Y-23.210 E0.002
G1 X58.566 Y-23.251 E0.002
G1 X58.428 Y-23.287 E0.002
G1 X58.288 Y-23.317 E0.002
G1 X58.148 Y-23.341 E0.002
G1 X58.007 Y-23.360 E0.002
G1 X57.867 Y-23.373 E0.002
G1 X57.726 Y-23.381 E0.002
G1 X57.586 Y-23.383 E0.002
G1 X57.447 Y-23.380 E0.002
G1 X57.309 Y-23.371 E0.002
G1 X57.172 Y-23.357 E0.002
G1 X57.037 Y-23.337 E0.002
G1 X56.903 Y-23.312 E0.002
G1 X56.771 Y-23.281 E0.002
G1 X56.641 Y-23.245 E0.002
G1 X56.514 Y-23.203 E0.002
G1 X56.389 Y-23.156 E0.002
G1 X56.267 Y-23.103 E0.002
G1 X56.148 Y-23.045 E0.002
G1 X56.033 Y-22.982 E0.002
G1 X55.921 Y-22.914 E0.002
G1 X55.813 Y-22.841 E0.002
G1 X55.710 Y-22.762 E0.002
G1 X55.611 Y-22.679 E0.002
G1 X55.517 Y-22.592 E0.002
G1 X55.428 Y-22.500 E0.002
G1 X55.344 Y-22.404 E0.002
G1 X55.263 Y-22.304 E0.002
G1 X55.197 Y-22.200 E0.002
G1 X55.134 Y-22.092 E0.002
G1 X55.076 Y-21.981 E0.002
G1 X55.023 Y-21.866 E0.002
G1 X54.974 Y-21.748 E0.002
G1 X54.930 Y-21.626 E0.002
G1 X54.892 Y-21.501 E0.002
G1 X54.858 Y-21.372 E0.002
G1 X54.830 Y-21.241 E0.002
G1 X54.808 Y-21.106 E0.002
G1 X54.792 Y-20.969 E0.002
G1 X54.781 Y-20.829 E0.002
G1 X54.776 Y-20.686 E0.002
G1 X54.777 Y-20.541 E0.002
G1 X54.785 Y-20.395 E0.002
G1 X54.799 Y-20.247 E0.002
G1 X54.819 Y-20.098 E0.002
G1 X54.845 Y-19.948 E0.002
G1 X54.877 Y-19.798 E0.002
G1 X54.914 Y-19.648 E0.002
G1 X54.958 Y-19.500 E0.002
G1 X55.008 Y-19.352 E0.002
G1 X55.064 Y-19.206 E0.002
G1 X55.126 Y-19.062 E0.002
G1 X55.193 Y-18.920 E0.002
G1 X55.266 Y-18.781 E0.002
G1 X55.344 Y-18.644 E0.002
G1 X55.428 Y-18.511 E0.002
G1 X55.517 Y-18.381 E0.002
G1 X55.611 Y-18.254 E0.002
G1 X55.710 Y-18.131 E0.002
G1 X55.813 Y-18.012 E0.002
G1 X55.921 Y-17.896 E0.002
G1 X56.033 Y-17.784 E0.002
G1 X56.148 Y-17.676 E0.002
G1 X56.267 Y-17.572 E0.002
G1 X56.389 Y-17.472 E0.002
G1 X56.514 Y-17.377 E0.002
G1 X56.641 Y-17.286 E0.002
G1 X56.771 Y-17.200 E0.002
G1 X56.903 Y-17.119 E0.002
G1 X57.037 Y-17.043 E0.002
G1 X57.172 Y-16.972 E0.002
G1 X57.309 Y-16.906 E0.002
G1 X57.447 Y-16.845 E0.002
G1 X57.586 Y-16.790 E0.002
G1 X57.726 Y-16.740 E0.002
G1 X57.867 Y-16.695 E0.002
G1 X58.007 Y-16.655 E0.002
G1 X58.148 Y-16.621 E0.002
G1 X58.288 Y-16.592 E0.002
G1 X58.428 Y-16.568 E0.002
G1 X58.566 Y-16.550 E0.002
G1 X58.703 Y-16.537 E0.002
G1 X58.839 Y-16.529 E0.002
G1 X58.973 Y-16.526 E0.002
G1 X59.104 Y-16.528 E0.002
G1 X59.234 Y-16.536 E0.002
G1 X59.360 Y-16.549 E0.002
G1 X59.484 Y-16.568 E0.002
G1 X59.605 Y-16.591 E0.002
G1 X59.723 Y-16.620 E0.002
G1 X59.838 Y-16.654 E0.002
G1 X59.949 Y-16.694 E0.002
G1 X60.057 Y-16.738 E0.002
G1 X60.161 Y-16.788 E0.002
G1 X60.262 Y-16.842 E0.002
G1 X60.358 Y-16.902 E0.002
G1 X60.450 Y-16.967 E0.002
G1 X60.538 Y-17.037 E0.002
G1 X60.622 Y-17.112 E0.002
G1 X60.701 Y-17.192 E0.002
G1 X60.775 Y-17.277 E0.002
G1 X60.844 Y-17.366 E0.002
G1 X60.908 Y-17.460 E0.002
G1 X60.966 Y-17.558 E0.002
G1 X61.019 Y-17.660 E0.002
G1 X61.066 Y-17.766 E0.002
G1 X61.107 Y-17.875 E0.002
G1 X61.141 Y-17.988 E0.002
G1 X61.169 Y-18.104 E0.002
G1 X61.191 Y-18.223 E0.002
G1 X61.206 Y-18.344 E0.002
G1 X61.214 Y-18.467 E0.002
G1 X61.215 Y-18.592 E0.002
G1 X61.209 Y-18.718 E0.002
G1 X61.196 Y-18.846 E0.002
G1 X61.176 Y-18.975 E0.002
G1 X61.148 Y-19.106 E0.002
G1 X61.114 Y-19.238 E0.002
G1 X61.072 Y-19.370 E0.002
G1 X61.023 Y-19.504 E0.002
G1 X60.967 Y-19.638 E0.002
G1 X60.903 Y-19.773 E0.002
G1 X60.832 Y-19.908 E0.002
G1 X60.754 Y-20.043 E0.002
G1 X60.669 Y-20.177 E0.002
G1 X60.576 Y-20.311 E0.002
G1 X60.476 Y-20.444 E0.002
G1 X60.369 Y-20.576 E0.002
G1 X60.254 Y-20.707 E0.002
G1 X60.132 Y-20.837 E0.002
G1 X60.002 Y-20.965 E0.002
G1 X59.865 Y-21.091 E0.002
G1 X59.720 Y-21.215 E0.002
G1 X59.568 Y-21.336 E0.002
G1 X59.408 Y-21.455 E0.002
G1 X59.241 Y-21.571 E0.002
G1 X59.066 Y-21.685 E0.002
G1 X58.883 Y-21.795 E0.002
G1 X58.692 Y-21.902 E0.002
G1 X58.494 Y-22.006 E0.002
G1 X58.288 Y-22.106 E0.002
G1 X58.073 Y-22.203 E0.002
G1 X57.851 Y-22.296 E0.002
G1 X57.620 Y-22.384 E0.002
G1 X57.382 Y-22.469 E0.002
G1 X57.136 Y-22.549 E0.002
G1 X56.883 Y-22.625 E0.002
G1 X56.623 Y-22.697 E0.002
G1 X56.355 Y-22.764 E0.002
G1 X56.081 Y-22.827 E0.002
G1 X55.800 Y-22.885 E0.002
G1 X55.513 Y-22.937 E0.002
G1 X55.220 Y-22.984 E0.002
G1 X54.920 Y-23.026 E0.002
G1 X54.614 Y-23.062 E0.002
G1 X54.303 Y-23.092 E0.002
G1 X53.986 Y-23.116 E0.002
G1 X53.664 Y-23.134 E0.002
G1 X53.337 Y-23.146 E0.002
G1 X53.006 Y-23.153 E0.002
G1 X52.671 Y-23.153 E0.002
G1 X52.333 Y-23.149 E0.002
G1 X51.992 Y-23.138 E0.002
G1 X51.649 Y-23.122 E0.002
G1 X51.305 Y-23.100 E0.002
G1 X50.961 Y-23.071 E0.002
G1 X50.617 Y-23.037 E0.002
G1 X50.273 Y-22.997 E0.002
G1 X49.931 Y-22.951 E0.002
G1 X49.590 Y-22.900 E0.002
G1 X49.252 Y-22.843 E0.002
G1 X48.916 Y-22.780 E0.002
G1 X48.583 Y-22.712 E0.002
G1 X48.254 Y-22.639 E0.002
G1 X47.928 Y-22.560 E0.002
G1 X47.607 Y-22.476 E0.002
G1 X47.291 Y-22.387 E0.002
G1 X46.979 Y-22.293 E0.002
G1 X46.673 Y-22.193 E0.002
G1 X46.373 Y-22.088 E0.002
G1 X46.079 Y-21.979 E0.002
G1 X45.791 Y-21.865 E0.002
G1 X45.509 Y-21.747 E0.002
G1 X45.233 Y-21.625 E0.002
G1 X44.964 Y-21.498 E0.002
G1 X44.701 Y-21.368 E0.002
G1 X44.445 Y-21.233 E0.002
G1 X44.196 Y-21.095 E0.002
G1 X43.955 Y-20.953 E0.002
G1 X43.721 Y-20.807 E0.002
G1 X43.496 Y-20.658 E0.002
G1 X43.279 Y-20.506 E0.002
G1 X43.071 Y-20.352 E0.002
G1 X42.871 Y-20.196 E0.002
G1 X42.680 Y-20.038 E0.002
G1 X42.497 Y-19.879 E0.002
G1 X42.323 Y-19.718 E0.002
G1 X42.158 Y-19.557 E0.002
G1 X42.002 Y-19.395 E0.002
G1 X41.855 Y-19.233 E0.002
G1 X41.717 Y-19.072 E0.002
G1 X41.588 Y-18.911 E0.002
G1 X41.467 Y-18.751 E0.002
G1 X41.356 Y-18.592 E0.002
G1 X41.253 Y-18.434 E0.002
G1 X41.159 Y-18.277 E0.002
G1 X41.074 Y-18.121 E0.002
G1 X40.998 Y-17.967 E0.002
G1 X40.931 Y-17.814 E0.002
G1 X40.873 Y-17.663 E0.002
G1 X40.824 Y-17.513 E0.002
G1 X40.784 Y-17.365 E0.002
G1 X40.753 Y-17.218 E0.002
G1 X40.730 Y-17.073 E0.002
G1 X40.717 Y-16.930 E0.002
G1 X40.712 Y-16.789 E0.002
G1 X40.717 Y-16.650 E0.002
G1 X40.731 Y-16.513 E0.002
G1 X40.753 Y-16.378 E0.002
G1 X40.784 Y-16.246 E0.002
G1 X40.824 Y-16.117 E0.002
G1 X40.873 Y-15.990 E0.002
G1 X40.931 Y-15.867 E0.002
G1 X40.998 Y-15.747 E0.002
G1 X41.074 Y-15.630 E0.002
G1 X41.159 Y-15.517 E0.002
G1 X41.253 Y-15.407 E0.002
G1 X41.356 Y-15.302 E0.002
G1 X41.467 Y-15.201 E0.002
G1 X41.588 Y-15.104 E0.002
G1 X41.717 Y-15.013 E0.002
G1 X41.855 Y-14.926 E0.002
G1 X42.002 Y-14.843 E0.002
G1 X42.158 Y-14.766 E0.002
G1 X42.323 Y-14.694 E0.002
G1 X42.497 Y-14.627 E0.002
G1 X42.680 Y-14.566 E0.002
G1 X42.871 Y-14.510 E0.002
G1 X43.071 Y-14.460 E0.002
G1 X43.279 Y-14.415 E0.002
G1 X43.496 Y-14.375 E0.002
G1 X43.721 Y-14.340 E0.002
G1 X43.955 Y-14.311 E0.002
G1 X44.196 Y-14.286 E0.002
G1 X44.445 Y-14.266 E0.002
G1 X44.701 Y-14.251 E0.002
G1 X44.964 Y-14.241 E0.002
G1 X45.233 Y-14.236 E0.002
G1 X45.509 Y-14.235 E0.002
G1 X45.791 Y-14.239 E0.002
G1 X46.079 Y-14.248 E0.002
G1 X46.373 Y-14.261 E0.002
G1 X46.673 Y-14.280 E0.002
G1 X46.979 Y-14.303 E0.002
G1 X47.291 Y-14.331 E0.002
G1 X47.607 Y-14.364 E0.002
G1 X47.928 Y-14.402 E0.002
G1 X48.254 Y-14.445 E0.002
G1 X48.583 Y-14.493 E0.002
G1 X48.916 Y-14.545 E0.002
G1 X49.252 Y-14.603 E0.002
G1 X49.590 Y-14.665 E0.002
G1 X49.931 Y-14.731 E0.002
G1 X50.273 Y-14.803 E0.002
G1 X50.617 Y-14.878 E0.002
G1 X50.961 Y-14.959 E0.002
G1 X51.305 Y-15.044 E0.002
G1 X51.649 Y-15.133 E0.002
G1 X51.992 Y-15.227 E0.002
G1 X52.333 Y-15.325 E0.002
G1 X52.671 Y-15.427 E0.002
G1 X53.006 Y-15.533 E0.002
G1 X53.337 Y-15.643 E0.002
G1 X53.664 Y-15.756 E0.002
G1 X53.986 Y-15.873 E0.002
G1 X54.303 Y-15.993 E0.002
G1 X54.614 Y-16.115 E0.002
G1 X54.920 Y-16.241 E0.002
G1 X55.220 Y-16.368 E0.002
G1 X55.513 Y-16.498 E0.002
G1 X55.800 Y-16.629 E0.002
G1 X56.081 Y-16.762 E0.002
G1 X56.355 Y-16.896 E0.002
G1 X56.623 Y-17.031 E0.002
G1 X56.883 Y-17.167 E0.002
G1 X57.136 Y-17.304 E0.002
G1 X57.382 Y-17.441 E0.002
G1 X57.620 Y-17.579 E0.002
G1 X57.851 Y-17.717 E0.002
G1 X58.073 Y-17.855 E0.002
G1 X58.288 Y-17.994 E0.002
G1 X58.494 Y-18.133 E0.002
G1 X58.692 Y-18.271 E0.002
G1 X58.883 Y-18.409 E0.002
G1 X59.066 Y-18.546 E0.002
G1 X59.241 Y-18.682 E0.002
G1 X59.408 Y-18.817 E0.002
G1 X59.568 Y-18.950 E0.002
G1 X59.720 Y-19.082 E0.002
G1 X59.865 Y-19.213 E0.002
G1 X60.002 Y-19.342 E0.002
G1 X60.132 Y-19.469 E0.002
G1 X60.254 Y-19.594 E0.002
G1 X60.369 Y-19.717 E0.002
G1 X60.476 Y-19.837 E0.002
G1 X60.576 Y-19.954 E0.002
G1 X60.669 Y-20.069 E0.002
G1 X60.754 Y-20.180 E0.002
G1 X60.832 Y-20.288 E0.002
G1 X60.903 Y-20.393 E0.002
G1 X60.967 Y-20.495 E0.002
G1 X61.023 Y-20.593 E0.002
G1 X61.072 Y-20.688 E0.002
G1 X61.114 Y-20.778 E0.002
G1 X61.148 Y-20.865 E0.002
G1 X61.176 Y-20.947 E0.002
G1 X61.196 Y-21.025 E0.002
G1 X61.209 Y-21.099 E0.002
G1 X61.215 Y-21.169 E0.002
G1 X61.214 Y-21.235 E0.002
G1 X61.206 Y-21.298 E0.002
G1 X61.191 Y-21.355 E0.002
G1 X61.169 Y-21.408 E0.002
G1 X61.141 Y-21.456 E0.002
G1 X61.107 Y-21.498 E0.002
G1 X61.066 Y-21.536 E0.002
G1 X61.019 Y-21.568 E0.002
G1 X60.967 Y-21.595 E0.002
G1 X60.908 Y-21.617 E0.002
G1 X60.844 Y-21.634 E0.002
G1 X60.775 Y-21.646 E0.002
G1 X60.701 Y-21.652 E0.002
G1 X60.622 Y-21.653 E0.002
G1 X60.538 Y-21.649 E0.002
G1 X60.450 Y-21.640 E0.002
G1 X60.358 Y-21.626 E0.002
G1 X60.262 Y-21.607 E0.002
G1 X60.161 Y-21.583 E0.002
G1 X60.057 Y-21.554 E0.002
G1 X59.949 Y-21.520 E0.002
G1 X59.838 Y-21.481 E0.002
G1 X59.723 Y-21.437 E0.002
G1 X59.605 Y-21.388 E0.002
G1 X59.484 Y-21.333 E0.002
G1 X59.360 Y-21.274 E0.002
G1 X59.234 Y-21.210 E0.002
G1 X59.104 Y-21.140 E0.002
G1 X58.973 Y-21.066 E0.002
G1 X58.839 Y-20.987 E0.002
G1 X58.703 Y-20.903 E0.002
G1 X58.566 Y-20.814 E0.002
G1 X58.428 Y-20.720 E0.002
G1 X58.288 Y-20.622 E0.002
G1 X58.148 Y-20.520 E0.002
G1 X58.007 Y-20.413 E0.002
G1 X57.867 Y-20.302 E0.002
G1 X57.726 Y-20.187 E0.002
G1 X57.586 Y-20.068 E0.002
G1 X57.447 Y-19.945 E0.002
G1 X57.309 Y-19.817 E0.002
G1 X57.172 Y-19.686 E0.002
G1 X57.037 Y-19.551 E0.002
G1 X56.903 Y-19.412 E0.002
G1 X56.771 Y-19.270 E0.002
G1 X56.641 Y-19.124 E0.002
G1 X56.514 Y-18.976 E0.002
G1 X56.389 Y-18.824 E0.002
G1 X56.267 Y-18.670 E0.002
G1 X56.148 Y-18.514 E0.002
G1 X56.033 Y-18.356 E0.002
G1 X55.921 Y-18.196 E0.002
G1 X55.813 Y-18.035 E0.002
G1 X55.710 Y-17.873 E0.002
G1 X55.611 Y-17.711 E0.002
G1 X55.517 Y-17.548 E0.002
G1 X55.428 Y-17.385 E0.002
G1 X55.344 Y-17.222 E0.002
G1 X55.263 Y-17.060 E0.002
G1 X55.197 Y-16.898 E0.002
G1 X55.134 Y-16.738 E0.002
G1 X55.076 Y-16.578 E0.002
G1 X55.023 Y-16.420 E0.002
G1 X54.974 Y-16.264 E0.002
G1 X54.930 Y-16.110 E0.002
G1 X54.892 Y-15.958 E0.002
G1 X54.858 Y-15.808 E0.002
G1 X54.830 Y-15.660 E0.002
G1 X54.808 Y-15.515 E0.002
G1 X54.792 Y-15.372 E0.002
G1 X54.781 Y-15.232 E0.002
G1 X54.776 Y-15.094 E0.002
G1 X54.777 Y-14.958 E0.002
G1 X54.785 Y-14.825 E0.002
G1 X54.7