;LightBurn 1.6.04
;Custom GCode device profile, absolute coords
;Bounds: X12.08 Y18.14 to X114.87 Y96.28
G00 G17 G40 G21 G54
G90
M3
G1 Z10 F500
;Cut @ 1200 mm/min, 90% power

M8
G0 Z2.8F500
G0 X83.515Y23.75Z2.8F1500
G1 Z0F500
;Layer Blue
G1 X82.891Y22.347Z0S900F1200
G1 X82.111Y20.943Z0F1200
G1 X85.074Y19.539Z0F1200
G1 X86.79Y18.135Z0F1200
G0 Z2.8F500
G0 X87.414Y19.071Z2.8F1500
G1 Z0F500
G1 X88.194Y20.475Z0F1200
G1 X88.818Y21.879Z0F1200
G1 X89.286Y23.283Z0F1200
G1 X89.442Y24.686Z0F1200
G1 Y26.09Z0F1200
G1 X90.378Y28.898Z0F1200
G1 X89.13Y30.302Z0F1200
G1 X86.01Y31.705Z0F1200
G0 Z2.8F500
G0 X85.698Y31.237Z2.8F1500
G1 Z0F500
G1 X84.919Y29.834Z0F1200
G1 X84.295Y28.43Z0F1200
G1 X83.983Y27.026Z0F1200
G1 X84.139Y25.778Z0F1200
G1 X85.542Y26.09Z0F1200
G1 X85.854Y25.154Z0F1200
G1 X87.102Y25.31Z0F1200
G1 X87.57Y25.154Z0F1200
G0 Z2.8F500
G0 X88.038Y24.998Z2.8F1500
G1 Z0F500
G1 X85.074Y26.402Z0F1200
G0 Z2.8F500
G0 X84.607Y27.65Z2.8F1500
G1 Z0F500
G1 X91.626Y34.669Z0F1200
G0 Z2.8F500
G0 X91.47Y33.889Z2.8F1500
G1 Z0F500
G1 X93.029Y35.293Z0F1200
G1 X93.965Y36.697Z0F1200
G1 X95.525Y39.504Z0F1200
G1 X96.461Y40.908Z0F1200
G1 X98.021Y43.716Z0F1200
G1 X98.957Y45.12Z0F1200
G1 X100.516Y47.927Z0F1200
G1 X101.452Y49.331Z0F1200
G1 X102.232Y50.735Z0F1200
G1 X103.168Y52.139Z0F1200
G1 X105.508Y56.35Z0F1200
G1 X106.444Y57.754Z0F1200
G1 X108.003Y60.561Z0F1200
G1 X108.939Y61.965Z0F1200
G1 X109.719Y63.369Z0F1200
G1 X108.783Y64.773Z0F1200
G1 X107.535Y65.241Z0F1200
G1 X103.948Y66.645Z0F1200
G1 X103.324Y68.048Z0F1200
G1 X103.012Y69.452Z0F1200
G1 X99.892Y70.856Z0F1200
G0 Z2.8F500
G0 X98.645Y69.764Z2.8F1500
G1 Z0F500
G1 X77.588Y48.707Z0F1200
G0 Z2.8F500
G0 X80.707Y51.203Z2.8F1500
G1 Z0F500
G1 X77.432Y52.607Z0F1200
G1 X75.404Y54.01Z0F1200
G1 X73.064Y54.478Z0F1200
G1 X71.036Y55.882Z0F1200
G0 Z2.8F500
G0 X70.412Y55.414Z2.8F1500
G1 Z0F500
G1 X71.348Y55.258Z0F1200
G1 X72.752Y54.79Z0F1200
G1 X76.964Y52.918Z0F1200
G1 X77.12Y52.451Z0F1200
G1 X79.147Y51.983Z0F1200
G1 X81.955Y50.735Z0F1200
G0 Z2.8F500
G0 X81.643Y50.891Z2.8F1500
G1 Z0F500
G1 X79.459Y52.295Z0F1200
G1 X76.184Y53.698Z0F1200
G0 Z2.8F500
G0 X77.588Y55.726Z2.8F1500
G1 Z0F500
G1 X70.568Y48.707Z0F1200
G0 Z2.8F500
G0 X68.073Y51.671Z2.8F1500
G1 Z0F500
G1 X66.201Y52.763Z0F1200
G1 X65.733Y53.386Z0F1200
G1 X64.329Y54.01Z0F1200
G1 X64.485Y54.478Z0F1200
G0 Z2.8F500
G0 X63.549Y55.726Z2.8F1500
G1 Z0F500
G1 X77.588Y69.764Z0F1200
G0 Z2.8F500
G0 X78.991Y67.736Z2.8F1500
G1 Z0F500
G1 X78.679Y67.269Z0F1200
G1 X79.147Y66.801Z0F1200
G1 X80.863Y65.397Z0F1200
G0 Z2.8F500
G0 X82.891Y64.149Z2.8F1500
G1 Z0F500
G1 X83.515Y63.057Z0F1200
G1 X83.671Y63.369Z0F1200
G1 X85.074Y62.745Z0F1200
G1 X84.295Z0F1200
G1 X85.542Y62.433Z0F1200
G0 Z2.8F500
G0 X84.607Y64.461Z2.8F1500
G1 Z0F500
G1 X14.416Z0F1200
G0 Z2.8F500
G0 Z2.8F1500
G1 Z0F500
G1 X42.492Y92.537Z0F1200
G0 Z2.8F500
G0 Z2.8F1500
G1 Z0F500
G1 X35.473Z0F1200
G0 Z2.8F500
G0 Z2.8F1500
G1 Z0F500
G1 X28.454Y85.518Z0F1200
G0 Z2.8F500
G0 Z2.8F1500
G1 Z0F500
G1 X63.549Z0F1200
G0 Z2.8F500
G0 Z2.8F1500
G1 Z0F500
G1 X42.492Y64.461Z0F1200
G0 Z2.8F500
G0 X44.52Y63.837Z2.8F1500
G1 Z0F500
G1 X44.364Y63.369Z0F1200
G1 X45.768Y63.057Z0F1200
G1 X46.86Y63.525Z0F1200
G0 Z2.8F500
G0 X49.511Y62.745Z2.8F1500
G1 Z0F500
G1 X63.549Y76.783Z0F1200
G0 Z2.8F500
G0 Y78.811Z2.8F1500
G1 Z0F500
G1 X61.99Y79.747Z0F1200
G1 X60.742Y80.371Z0F1200
G0 Z2.8F500
G0 X63.549Y81.931Z2.8F1500
G1 Z0F500
G1 X28.454Z0F1200
G0 Z2.8F500
G0 Y78.499Z2.8F1500
G1 Z0F500
G1 X56.53Z0F1200
G0 Z2.8F500
G0 X57.466Y79.747Z2.8F1500
G1 Z0F500
G1 X57.622Y79.435Z0F1200
G1 Y78.811Z0F1200
G1 X58.558Y78.499Z0F1200
G1 X61.522Y76.939Z0F1200
G0 Z2.8F500
G0 X59.806Y74.132Z2.8F1500
G1 Z0F500
G1 X61.99Y72.728Z0F1200
G0 Z2.8F500
G0 X62.302Y72.572Z2.8F1500
G1 Z0F500
G1 X60.898Y73.196Z0F1200
G1 X59.494Y73.664Z0F1200
G0 Z2.8F500
G0 X56.53Y72.104Z2.8F1500
G1 Z0F500
G1 X55.127Y72.572Z0F1200
G0 Z2.8F500
G0 X56.53Y71.48Z2.8F1500
G1 Z0F500
G1 X42.492Y57.442Z0F1200
G0 Z2.8F500
G0 Z2.8F1500
G1 Z0F500
G1 X112.683Z0F1200
G0 Z2.8F500
G0 X113.463Y60.717Z2.8F1500
G1 Z0F500
G1 X112.059Y62.121Z0F1200
G1 X110.811Y63.525Z0F1200
G0 Z2.8F500
G0 X112.683Y64.461Z2.8F1500
G1 Z0F500
G1 X98.645Z0F1200
G0 Z2.8F500
G0 Y62.745Z2.8F1500
G1 Z0F500
G1 X77.588Y41.688Z0F1200
G0 Z2.8F500
G0 X76.808Y41.376Z2.8F1500
G1 Z0F500
G1 X77.432Y40.44Z0F1200
G1 X76.028Y40.284Z0F1200
G1 X74.624Y41.064Z0F1200
G1 X74Y42Z0F1200
G1 X72.596Z0F1200
G1 X71.192Y42.468Z0F1200
G1 X65.577Y44.964Z0F1200
G1 X65.265Y45.12Z0F1200
G1 X63.861Y45.587Z0F1200
G1 X62.458Y46.367Z0F1200
G1 X59.65Y47.615Z0F1200
G1 X59.182Y48.395Z0F1200
G0 Z2.8F500
G0 X56.53Y50.423Z2.8F1500
G1 Z0F500
G1 X98.645Z0F1200
G0 Z2.8F500
G0 Y48.707Z2.8F1500
G1 Z0F500
G1 X91.626Y41.688Z0F1200
G0 Z2.8F500
G0 Y43.404Z2.8F1500
G1 Z0F500
G1 X70.568Z0F1200
G0 Z2.8F500
G0 X69.477Z2.8F1500
G1 Z0F500
G1 X66.201Y44.808Z0F1200
G1 X63.237Y46.211Z0F1200
G0 Z2.8F500
G0 X63.549Y46.835Z2.8F1500
G1 Z0F500
G1 X98.645Z0F1200
G0 Z2.8F500
G0 Y53.854Z2.8F1500
G1 Z0F500
G1 X49.511Z0F1200
G0 Z2.8F500
G0 X49.199Y52.139Z2.8F1500
G1 Z0F500
G1 X47.796Y53.542Z0F1200
G1 X45.144Y54.01Z0F1200
G0 Z2.8F500
G0 X43.428Y54.634Z2.8F1500
G1 Z0F500
G1 X40.465Y56.038Z0F1200
G0 Z2.8F500
G0 Y51.359Z2.8F1500
G1 Z0F500
G1 X43.584Y49.955Z0F1200
G1 X43.896Y48.551Z0F1200
G1 X43.272Y47.147Z0F1200
G1 X42.96Y45.743Z0F1200
G1 Y44.34Z0F1200
G1 X42.648Y42.936Z0F1200
G1 X42.18Y41.532Z0F1200
G1 X40.621Y38.724Z0F1200
G0 Z2.8F500
G0 X40.309Y38.257Z2.8F1500
G1 Z0F500
G1 X38.593Y39.66Z0F1200
G1 X35.629Y41.064Z0F1200
G1 X36.409Y42.468Z0F1200
G1 X37.033Y43.872Z0F1200
G0 Z2.8F500
G0 X37.501Y44.496Z2.8F1500
G1 Z0F500
G1 X39.997Y43.092Z0F1200
G0 Z2.8F500
G0 X40.933Y42.624Z2.8F1500
G1 Z0F500
G1 X39.529Y43.248Z0F1200
G1 X38.125Y43.716Z0F1200
G1 X36.721Y43.404Z0F1200
G1 X35.317Y41.064Z0F1200
G0 Z2.8F500
G0 X35.785Y40.752Z2.8F1500
G1 Z0F500
G1 X38.593Y39.504Z0F1200
G1 X39.997Y38.412Z0F1200
G1 X41.4Y40.128Z0F1200
G0 Z2.8F500
G0 X41.712Y43.248Z2.8F1500
G1 Z0F500
G1 X41.089Y44.652Z0F1200
G1 Y45.276Z0F1200
G1 X40.309Y45.587Z0F1200
G1 X38.905Y45.432Z0F1200
G1 X38.125Y45.743Z0F1200
G1 X37.501Y47.147Z0F1200
G1 X37.813Y48.551Z0F1200
G1 X38.437Y49.955Z0F1200
G1 X39.217Y51.359Z0F1200
G0 Z2.8F500
G0 X37.657Y48.395Z2.8F1500
G1 Z0F500
G1 X39.061Y51.203Z0F1200
G1 X40.465Z0F1200
G1 X43.272Y49.955Z0F1200
G0 Z2.8F500
G0 X42.492Y48.707Z2.8F1500
G1 Z0F500
G1 X70.568Y76.783Z0F1200
G0 Z2.8F500
G0 Y78.499Z2.8F1500
G1 Z0F500
G1 X77.588Z0F1200
G0 Z2.8F500
G0 X78.055Y77.875Z2.8F1500
G1 Z0F500
G1 X75.872Y79.123Z0F1200
G1 X74.624Y79.591Z0F1200
G1 X72.284Y80.371Z0F1200
G1 X69.009Y81.775Z0F1200
G1 X68.385Y83.178Z0F1200
G1 X68.073Y84.582Z0F1200
G1 X64.953Y85.986Z0F1200
G0 Z2.8F500
G0 X62.302Y84.894Z2.8F1500
G1 Z0F500
G1 X65.577Y83.49Z0F1200
G1 X68.853Y81.619Z0F1200
G1 X70.257Y81.151Z0F1200
G1 X71.66Y80.527Z0F1200
G1 X73.064Y80.995Z0F1200
G1 X74.468Y80.683Z0F1200
G1 X75.872Y80.995Z0F1200
G1 X78.679Y79.747Z0F1200
G1 X80.083Y78.499Z0F1200
G0 Z2.8F500
G0 Y76.783Z2.8F1500
G1 Z0F500
G1 X81.487Y76.159Z0F1200
G1 X84.295Y75.223Z0F1200
G1 X85.698Y75.847Z0F1200
G1 X87.102Y76.159Z0F1200
G1 X88.506Y75.691Z0F1200
G1 X91.314Y74.444Z0F1200
G0 Z2.8F500
G0 X91.626Y71.48Z2.8F1500
G1 Z0F500
G1 X21.435Z0F1200
G0 Z2.8F500
G0 Y74.911Z2.8F1500
G1 Z0F500
G1 X77.588Z0F1200
G0 Z2.8F500
G0 Y76.783Z2.8F1500
G1 Z0F500
G1 X70.568Y69.764Z0F1200
G0 Z2.8F500
G0 X67.449Y71.792Z2.8F1500
G1 Z0F500
G1 X67.137Y72.26Z0F1200
G1 X66.201Y72.104Z0F1200
G1 X64.797Y72.26Z0F1200
G0 Z2.8F500
G0 X61.366Y70.856Z2.8F1500
G1 Z0F500
G1 X60.742Y71.012Z0F1200
G1 X59.338Y71.168Z0F1200
G1 X57.934Y71.48Z0F1200
G1 X56.374Y71.792Z0F1200
G1 X55.906Y72.26Z0F1200
G1 X56.062Y74.444Z0F1200
G1 X54.347Y74.911Z0F1200
G1 X54.035Y75.691Z0F1200
G1 X52.631Y76.003Z0F1200
G1 X48.42Y77.875Z0F1200
G1 X47.016Y78.655Z0F1200
G1 X45.612Y79.279Z0F1200
G1 X45.3Y78.811Z0F1200
G1 X46.704Y79.435Z0F1200
G0 Z2.8F500
G0 X44.676Y79.903Z2.8F1500
G1 Z0F500
G1 X47.796Y78.499Z0F1200
G1 X51.071Y77.095Z0F1200
G1 X53.099Y75.691Z0F1200
G1 X55.906Y74.288Z0F1200
G0 Z2.8F500
G0 X48.887Y77.563Z2.8F1500
G1 Z0F500
G1 X45.456Y78.967Z0F1200
G1 X43.74Y80.371Z0F1200
G0 Z2.8F500
G0 X42.492Y85.518Z2.8F1500
G1 Z0F500
G1 X28.454Y71.48Z0F1200
G0 Z2.8F500
G0 X28.298Y70.856Z2.8F1500
G1 Z0F500
G1 X30.014Y69.452Z0F1200
G1 X30.326Y68.048Z0F1200
G1 X29.702Y66.645Z0F1200
G0 Z2.8F500
G0 X30.014Y67.269Z2.8F1500
G1 Z0F500
G1 X28.61Y65.865Z0F1200
G1 X27.206Y65.709Z0F1200
G1 X25.803Y66.021Z0F1200
G1 X24.399Y67.58Z0F1200
G0 Z2.8F500
G0 X24.555Y68.516Z2.8F1500
G1 Z0F500
G1 X25.959Y69.608Z0F1200
G1 X27.518Y69.764Z0F1200
G1 X28.922Y69.296Z0F1200
G0 Z2.8F500
G0 X29.078Y70.388Z2.8F1500
G1 Z0F500
G1 X27.674Y70.856Z0F1200
G1 X26.271Y70.7Z0F1200
G1 X24.867Y69.92Z0F1200
G1 X26.427Y69.764Z0F1200
G0 Z2.8F500
G0 Y70.856Z2.8F1500
G1 Z0F500
G1 X24.555Y69.452Z0F1200
G1 X24.399Y68.048Z0F1200
G1 X25.023Y66.645Z0F1200
G0 Z2.8F500
G0 X19.875Z2.8F1500
G1 Z0F500
G1 Y64.929Z0F1200
G1 X26.115Y62.121Z0F1200
G1 X29.39Y60.717Z0F1200
G0 Z2.8F500
G0 X28.922Y61.653Z2.8F1500
G1 Z0F500
G1 X31.574Y61.185Z0F1200
G0 Z2.8F500
G0 X35.473Y60.873Z2.8F1500
G1 Z0F500
G1 X105.664Z0F1200
G0 Z2.8F500
G0 Y62.745Z2.8F1500
G1 Z0F500
G1 X77.588Y34.669Z0F1200
G0 Z2.8F500
G0 X78.211Y34.825Z2.8F1500
G1 Z0F500
G1 X75.404Y36.073Z0F1200
G1 X74Y36.385Z0F1200
G1 X72.596Y33.577Z0F1200
G0 Z2.8F500
G0 X73.064Y31.549Z2.8F1500
G1 Z0F500
G1 X76.184Y30.146Z0F1200
G0 Z2.8F500
G0 Y29.21Z2.8F1500
G1 Z0F500
G1 X76.028Y29.834Z0F1200
G1 X74.624Y30.458Z0F1200
G1 X73.532Y30.614Z0F1200
G1 Y31.237Z0F1200
G1 X73.22Y30.77Z0F1200
G1 X72.44Y31.081Z0F1200
G0 Z2.8F500
G0 X72.908Z2.8F1500
G1 Z0F500
G1 X76.184Y29.678Z0F1200
G1 X76.496Y28.274Z0F1200
G0 Z2.8F500
G0 X76.184Y27.338Z2.8F1500
G1 Z0F500
G1 X73.22Y28.742Z0F1200
G0 Z2.8F500
G0 X71.816Z2.8F1500
G1 Z0F500
G1 X71.036Y27.338Z0F1200
G1 X70.568Y25.934Z0F1200
G1 X73.532Y24.53Z0F1200
G1 X75.092Y23.127Z0F1200
G0 Z2.8F500
G0 X75.56Y23.75Z2.8F1500
G1 Z0F500
G1 X77.12Y26.558Z0F1200
G1 X77.743Y29.366Z0F1200
G1 Y30.77Z0F1200
G1 X78.679Y33.577Z0F1200
G1 X78.367Y34.981Z0F1200
G1 X75.092Y36.385Z0F1200
G0 Z2.8F500
G0 X74.312Y36.853Z2.8F1500
G1 Z0F500
G1 X73.532Y35.449Z0F1200
G1 X72.908Y34.045Z0F1200
G1 X72.44Y32.641Z0F1200
G1 Y31.237Z0F1200
G1 X74.624Y29.834Z0F1200
G0 Z2.8F500
G0 X75.716Y27.494Z2.8F1500
G1 Z0F500
G1 X72.908Y28.742Z0F1200
G1 X71.504Y28.118Z0F1200
G1 X70.101Y25.934Z0F1200
G0 Z2.8F500
G0 X70.724Y25.622Z2.8F1500
G1 Z0F500
G1 X73.532Y24.374Z0F1200
G1 X74.936Y22.971Z0F1200
G1 X76.34Y25.31Z0F1200
G0 Z2.8F500
G0 X84.139Y28.274Z2.8F1500
G1 Z0F500
G1 X85.542Y31.081Z0F1200
G1 X86.946Z0F1200
G1 X89.754Y29.834Z0F1200
G0 Z2.8F500
G0 X94.589Y27.494Z2.8F1500
G1 Z0F500
G1 X95.525Y28.898Z0F1200
G1 X96.305Y30.302Z0F1200
G1 X97.241Y31.705Z0F1200
G1 X98.801Y34.513Z0F1200
G1 X99.736Y35.917Z0F1200
G1 X100.516Y37.321Z0F1200
G1 X101.452Y38.724Z0F1200
G1 X103.012Y41.532Z0F1200
G1 X103.948Y42.936Z0F1200
G1 X105.508Y45.743Z0F1200
G1 X106.444Y47.147Z0F1200
G1 X108.003Y49.955Z0F1200
G1 X108.939Y51.359Z0F1200
G1 X110.499Y54.166Z0F1200
G1 X111.435Y55.57Z0F1200
G1 X112.995Y58.378Z0F1200
G1 X113.619Y59.782Z0F1200
G1 X112.527Y57.442Z0F1200
G1 X106.911Y48.083Z0F1200
G1 X105.508Y45.587Z0F1200
G1 X104.104Y43.404Z0F1200
G1 X102.7Y41.064Z0F1200
G1 X101.296Y38.568Z0F1200
G1 X95.681Y29.21Z0F1200
G1 X95.213Y27.494Z0F1200
G1 X94.121Y26.246Z0F1200
G1 X92.873Y24.062Z0F1200
G0 Z2.8F500
G0 X93.653Y24.374Z2.8F1500
G1 Z0F500
G1 X94.121Y25.778Z0F1200
G1 X95.213Y27.182Z0F1200
G1 X96.461Y28.586Z0F1200
G1 X96.929Y29.99Z0F1200
G1 X97.865Y31.393Z0F1200
G1 X98.957Y32.797Z0F1200
G1 X99.425Y34.201Z0F1200
G1 X100.672Y35.605Z0F1200
G1 X101.14Y37.009Z0F1200
G1 X101.92Y38.412Z0F1200
G1 X103.168Y39.816Z0F1200
G1 X103.636Y41.22Z0F1200
G1 X104.728Y42.624Z0F1200
G1 X105.664Y44.028Z0F1200
G1 X106.132Y45.432Z0F1200
G1 X107.379Y46.835Z0F1200
G1 X108.159Y48.239Z0F1200
G1 X108.627Y49.643Z0F1200
G1 X109.875Y51.047Z0F1200
G1 X110.343Y52.451Z0F1200
G1 X111.123Y53.854Z0F1200
G1 X112.995Y56.662Z0F1200
G1 X113.775Y58.066Z0F1200
G1 X112.839Y56.35Z0F1200
G1 X111.435Y54.322Z0F1200
G1 X108.627Y49.643Z0F1200
G0 Z2.8F500
G0 X111.747Y54.01Z2.8F1500
G1 Z0F500
G1 X110.343Y51.671Z0F1200
G1 X108.939Y49.175Z0F1200
G1 X107.847Y48.239Z0F1200
G1 X106.288Y44.808Z0F1200
G1 X105.196Y43.872Z0F1200
G1 X104.416Y42Z0F1200
G1 X103.324Y40.752Z0F1200
G1 X103.012Y39.348Z0F1200
G1 X101.452Y36.697Z0F1200
G1 X97.241Y29.678Z0F1200
G1 X95.837Y28.118Z0F1200
G0 Z2.8F500
G0 X96.461Y29.054Z2.8F1500
G1 Z0F500
G1 X97.865Y31.549Z0F1200
G1 X100.672Y36.229Z0F1200
G1 X102.076Y37.789Z0F1200
G0 Z2.8F500
G0 X92.094Y38.257Z2.8F1500
G1 Z0F500
G1 X91.626Y38.412Z0F1200
G1 X90.222Y38.724Z0F1200
G1 X88.818Y39.348Z0F1200
G1 X87.414Y39.816Z0F1200
G1 X89.598Y38.88Z0F1200
G1 X87.726Y40.284Z0F1200
G0 Z2.8F500
G0 X88.662Y39.816Z2.8F1500
G1 Z0F500
G1 X90.69Y38.412Z0F1200
G0 Z2.8F500
G0 X91.626Y39.816Z2.8F1500
G1 Z0F500
G1 X84.607Z0F1200
G0 Z2.8F500
G0 X79.615Y38.724Z2.8F1500
G1 Z0F500
G1 X82.423Y37.789Z0F1200
G1 X85.23Y36.541Z0F1200
G1 X86.634Y35.761Z0F1200
G1 X88.038Y35.137Z0F1200
G1 X89.442Y34.669Z0F1200
G1 X90.846Y34.045Z0F1200
G1 X92.25Y34.201Z0F1200
G1 X93.653Y36.385Z0F1200
G1 X97.865Y43.404Z0F1200
G1 X99.269Y45.899Z0F1200
G1 X102.076Y50.579Z0F1200
G1 X103.48Y52.763Z0F1200
G1 X104.884Y55.258Z0F1200
G1 X107.691Y59.938Z0F1200
G1 X109.095Y62.433Z0F1200
G1 X110.499Y63.681Z0F1200
G1 X111.903Y61.965Z0F1200
G1 X113.307Y60.405Z0F1200
G1 X114.71Y63.369Z0F1200
G0 Z2.8F500
G0 X114.087Y64.617Z2.8F1500
G1 Z0F500
G1 X112.683Y65.085Z0F1200
G1 X111.279Y65.709Z0F1200
G1 X109.875Y65.553Z0F1200
G1 X108.471Y66.021Z0F1200
G1 X107.379Y65.397Z0F1200
G1 X105.976Y65.709Z0F1200
G1 X104.572Y66.177Z0F1200
G1 X102.076Y67.269Z0F1200
G1 X98.801Y68.672Z0F1200
G1 X96.617Y70.076Z0F1200
G0 Z2.8F500
G0 X97.397Y69.764Z2.8F1500
G1 Z0F500
G1 X100.672Y68.36Z0F1200
G0 Z2.8F500
G0 X98.645Y67.892Z2.8F1500
G1 Z0F500
G1 X35.473Z0F1200
G0 Z2.8F500
G0 X36.877Y69.92Z2.8F1500
G1 Z0F500
G1 Y70.544Z0F1200
G1 X36.253Z0F1200
G1 X34.381Y71.012Z0F1200
G1 X34.069Y71.48Z0F1200
G1 X29.858Y73.352Z0F1200
G1 X28.454Y73.82Z0F1200
G1 X27.05Y74.756Z0F1200
G1 X26.738Y74.288Z0F1200
G1 X30.014Y72.884Z0F1200
G1 X33.913Y71.168Z0F1200
G0 Z2.8F500
G0 X34.849Y71.012Z2.8F1500
G1 Z0F500
G1 X31.73Y72.416Z0F1200
G1 X30.326Y73.508Z0F1200
G1 X27.05Y74.911Z0F1200
G0 Z2.8F500
G0 X26.271Y75.379Z2.8F1500
G1 Z0F500
G1 X28.142Y73.976Z0F1200
G0 Z2.8F500
G0 X32.978Y72.416Z2.8F1500
G1 Z0F500
G1 X36.097Y71.012Z0F1200
G1 X37.969Y69.608Z0F1200
G0 Z2.8F500
G0 X40.153Y71.636Z2.8F1500
G1 Z0F500
G1 X40.465Y70.544Z0F1200
G1 X41.089Y70.7Z0F1200
G1 X41.244Y70.232Z0F1200
G1 X42.96Y69.608Z0F1200
G1 X43.116Y69.452Z0F1200
G0 Z2.8F500
G0 X37.501Y66.333Z2.8F1500
G1 Z0F500
G1 X39.685Y64.929Z0F1200
G0 Z2.8F500
G0 X39.997Y64.773Z2.8F1500
G1 Z0F500
G1 X38.593Y65.397Z0F1200
G1 X37.189Y65.865Z0F1200
G0 Z2.8F500
G0 X35.473Y64.461Z2.8F1500
G1 Z0F500
G1 X56.53Y85.518Z0F1200
G0 Z2.8F500
G0 Y88.95Z2.8F1500
G1 Z0F500
G1 X28.454Z0F1200
G0 Z2.8F500
G0 X34.225Y92.069Z2.8F1500
G1 Z0F500
G1 X35.629Y91.757Z0F1200
G1 X35.317Y90.665Z0F1200
G0 Z2.8F500
G0 X35.005Y90.197Z2.8F1500
G1 Z0F500
G1 X36.409Y89.729Z0F1200
G0 Z2.8F500
G0 X37.189Y90.821Z2.8F1500
G1 Z0F500
G1 X38.593Y90.353Z0F1200
G1 X38.437Y90.821Z0F1200
G0 Z2.8F500
G0 X39.685Y94.253Z2.8F1500
G1 Z0F500
G1 X37.189Y95.657Z0F1200
G0 Z2.8F500
G0 X38.593Y95.189Z2.8F1500
G1 Z0F500
G1 X40.621Y93.785Z0F1200
G1 X43.896Y92.381Z0F1200
G1 X46.392Y91.445Z0F1200
G1 X49.199Y90.197Z0F1200
G1 X50.603Y90.977Z0F1200
G1 X52.007Z0F1200
G1 X53.411Y90.821Z0F1200
G1 X56.218Y89.573Z0F1200
G0 Z2.8F500
G0 X53.411Y90.977Z2.8F1500
G1 Z0F500
G1 X56.53Y89.573Z0F1200
G1 X56.842Y88.17Z0F1200
G1 X57.622Y86.766Z0F1200
G1 X60.586Y85.362Z0F1200
G1 X63.082Y84.114Z0F1200
G1 X66.357Y82.71Z0F1200
G0 Z2.8F500
G0 X68.229Y83.178Z2.8F1500
G1 Z0F500
G1 X66.825Y85.05Z0F1200
G1 X65.421Y85.674Z0F1200
G1 X64.017Y86.142Z0F1200
G1 X62.614Y85.83Z0F1200
G1 X61.21Z0F1200
G1 X59.806Y85.518Z0F1200
G1 X56.998Y86.766Z0F1200
G1 X53.411Y88.326Z0F1200
G1 X51.071Y89.729Z0F1200
G0 Z2.8F500
G0 X49.043Y90.353Z2.8F1500
G1 Z0F500
G1 X46.08Y91.757Z0F1200
G1 X45.3Y93.161Z0F1200
G1 X44.988Y94.565Z0F1200
G1 X41.712Y95.969Z0F1200
G0 Z2.8F500
G0 X43.74Y95.033Z2.8F1500
G1 Z0F500
G1 X42.336Y95.501Z0F1200
G1 X40.933Y96.125Z0F1200
G1 X39.529Y95.813Z0F1200
G1 X38.125Y95.969Z0F1200
G1 X36.721Y95.501Z0F1200
G1 X35.317Y96.125Z0F1200
G1 X33.913Y96.281Z0F1200
G1 X32.51Y95.189Z0F1200
G1 X31.106Y93.629Z0F1200
G1 X28.298Y88.95Z0F1200
G1 X26.894Y86.454Z0F1200
G1 X22.683Y79.435Z0F1200
G1 X21.279Y76.939Z0F1200
G1 X19.875Y74.756Z0F1200
G1 X14.26Y65.397Z0F1200
G1 X13.636Y63.993Z0F1200
G1 X15.976Y68.204Z0F1200
G1 X16.912Y69.608Z0F1200
G1 X18.472Y72.416Z0F1200
G1 X19.407Y73.82Z0F1200
G1 X20.187Y75.223Z0F1200
G1 X21.123Y76.627Z0F1200
G1 X22.683Y79.435Z0F1200
G1 X23.619Y80.839Z0F1200
G1 X25.179Y83.646Z0F1200
G1 X26.115Y85.05Z0F1200
G1 X27.674Y87.858Z0F1200
G1 X28.61Y89.262Z0F1200
G1 X29.39Y90.665Z0F1200
G1 X30.326Y92.069Z0F1200
G1 X31.106Y93.473Z0F1200
G1 X32.042Y94.877Z0F1200
G1 X33.913Y96.281Z0F1200
G0 Z2.8F500
G0 X49.511Y85.518Z2.8F1500
G1 Z0F500
G1 X28.454Y64.461Z0F1200
G0 Z2.8F500
G0 X35.785Y63.837Z2.8F1500
G1 Z0F500
G1 X34.849Y63.681Z0F1200
G1 X36.253Y63.213Z0F1200
G1 X37.657Y62.901Z0F1200
G1 X39.061Y62.277Z0F1200
G1 X40.465Z0F1200
G0 Z2.8F500
G0 X31.574Y55.102Z2.8F1500
G1 Z0F500
G1 X30.17Y55.726Z0F1200
G1 X28.766Y56.194Z0F1200
G1 X27.362Z0F1200
G1 X25.959Y53.23Z0F1200
G0 Z2.8F500
G0 X25.803Y52.607Z2.8F1500
G1 Z0F500
G1 X26.582Y51.515Z0F1200
G1 X29.39Y50.267Z0F1200
G1 X29.546Y49.643Z0F1200
G0 Z2.8F500
G0 X29.39Y49.487Z2.8F1500
G1 Z0F500
G1 X25.959Y50.891Z0F1200
G1 X25.803Y52.295Z0F1200
G1 X26.738Y55.102Z0F1200
G1 X27.518Y56.506Z0F1200
G0 Z2.8F500
G0 X28.766Z2.8F1500
G1 Z0F500
G1 X31.886Y55.102Z0F1200
G1 X32.198Y53.698Z0F1200
G1 X31.262Y50.891Z0F1200
G1 Y49.487Z0F1200
G1 X30.95Y48.083Z0F1200
G1 X30.482Y46.679Z0F1200
G1 X29.858Y45.276Z0F1200
G1 X29.078Y43.872Z0F1200
G0 Z2.8F500
G0 X28.61Y43.248Z2.8F1500
G1 Z0F500
G1 X27.05Y44.652Z0F1200
G1 X23.931Y46.055Z0F1200
G1 X25.491Y48.863Z0F1200
G0 Z2.8F500
G0 X26.738Z2.8F1500
G1 Z0F500
G1 X29.702Y47.459Z0F1200
G0 Z2.8F500
G0 X30.638Y47.147Z2.8F1500
G1 Z0F500
G1 X29.234Y44.184Z0F1200
G1 X27.83Z0F1200
G1 X26.427Y44.808Z0F1200
G1 X25.023Y45.276Z0F1200
G1 X23.619Y46.055Z0F1200
G0 Z2.8F500
G0 X24.243Y46.835Z2.8F1500
G1 Z0F500
G1 X25.647Y49.175Z0F1200
G1 X28.454Y47.927Z0F1200
G0 Z2.8F500
G0 X30.014Y48.395Z2.8F1500
G1 Z0F500
G1 X29.702Y49.799Z0F1200
G1 X26.427Y51.203Z0F1200
G0 Z2.8F500
G0 X26.582Y51.671Z2.8F1500
G1 Z0F500
G1 X29.858Y50.267Z0F1200
G0 Z2.8F500
G0 X18.316Y52.918Z2.8F1500
G1 Z0F500
G1 X18.16Y54.322Z0F1200
G1 X17.692Y54.946Z0F1200
G1 X16.912Y55.258Z0F1200
G1 X16.132Y56.038Z0F1200
G1 X14.728Y56.194Z0F1200
G1 X13.948Z0F1200
G1 X14.26Y57.598Z0F1200
G1 X14.728Y59.002Z0F1200
G1 X15.352Y60.405Z0F1200
G1 X16.444Y61.809Z0F1200
G0 Z2.8F500
G0 X17.068Y61.497Z2.8F1500
G1 Z0F500
G1 X20.187Y60.094Z0F1200
G1 X20.655Y58.69Z0F1200
G1 X20.031Y57.286Z0F1200
G1 X19.719Y55.882Z0F1200
G1 Y54.478Z0F1200
G1 X19.407Y53.074Z0F1200
G1 X18.94Y51.671Z0F1200
G1 X17.38Y48.863Z0F1200
G0 Z2.8F500
G0 X16.912Y48.239Z2.8F1500
G1 Z0F500
G1 X15.508Y49.643Z0F1200
G1 X12.544Y51.047Z0F1200
G1 X13.012Y52.451Z0F1200
G1 X13.792Y53.854Z0F1200
G0 Z2.8F500
G0 X15.196Z2.8F1500
G1 Z0F500
G1 X18.004Y52.451Z0F1200
G0 Z2.8F500
G0 X17.692Y52.607Z2.8F1500
G1 Z0F500
G1 X14.884Y53.854Z0F1200
G1 X13.48Y53.386Z0F1200
G1 X12.076Y51.047Z0F1200
G0 Z2.8F500
G0 X12.544Y50.735Z2.8F1500
G1 Z0F500
G1 X15.352Y49.487Z0F1200
G1 X16.756Y47.927Z0F1200
G1 X18.16Y50.267Z0F1200
G0 Z2.8F500
G0 X14.26Y57.91Z2.8F1500
G1 Z0F500
G1 X15.664Y61.185Z0F1200
G1 X17.068Y61.341Z0F1200
G1 X19.875Y60.094Z0F1200
G0 Z2.8F500
G0 X16.132Y65.241Z2.8F1500
G1 Z0F500
G1 X14.884Y63.837Z0F1200
G1 X13.948Y62.433Z0F1200
G1 Y62.901Z0F1200
G1 X15.352Y64.305Z0F1200
G1 X16.756Y65.553Z0F1200
G1 X18.004Z0F1200
G1 X19.407Y64.773Z0F1200
G1 X20.343Y65.709Z0F1200
G1 X21.279Y64.149Z0F1200
G1 X31.106Y59.782Z0F1200
G1 X32.51Y59.314Z0F1200
G1 X34.381Y58.378Z0F1200
G1 X35.473Y58.066Z0F1200
G1 X36.565Y57.442Z0F1200
G1 X36.721Y58.066Z0F1200
G1 X38.905Y57.13Z0F1200
G1 X40.153Y56.038Z0F1200
G1 X42.96Y54.79Z0F1200
G1 X44.364Y54.01Z0F1200
G1 X45.768Y53.386Z0F1200
G1 X47.172Y52.918Z0F1200
G1 X52.787Y50.423Z0F1200
G1 X54.191Y50.891Z0F1200
G1 Y51.359Z0F1200
G0 Z2.8F500
G0 X59.806Y56.662Z2.8F1500
G1 Z0F500
G1 X59.026Y58.534Z0F1200
G0 Z2.8F500
G0 X63.393Y57.91Z2.8F1500
G1 Z0F500
G1 X64.797Y57.286Z0F1200
G1 X66.045Y56.974Z0F1200
G0 Z2.8F500
G0 X66.825Y59.002Z2.8F1500
G1 Z0F500
G1 X68.229Y58.534Z0F1200
G1 X69.945Y58.066Z0F1200
G0 Z2.8F500
G0 X70.257Z2.8F1500
G1 Z0F500
G1 X67.449Y59.314Z0F1200
G1 X66.045Y59.47Z0F1200
G1 X64.641Y59.158Z0F1200
G0 Z2.8F500
G0 X65.109Y62.277Z2.8F1500
G1 Z0F500
G1 X66.045Y61.809Z0F1200
G1 X64.641Y62.589Z0F1200
G1 X63.237Y62.901Z0F1200
G1 X61.522Y63.993Z0F1200
G1 X61.21Y63.837Z0F1200
G1 X59.806Y64.305Z0F1200
G1 X58.402Y64.929Z0F1200
G1 X56.998Y66.645Z0F1200
G1 X55.439Y66.333Z0F1200
G1 X54.659Y67.736Z0F1200
G1 X53.255Y68.204Z0F1200
G1 Y68.672Z0F1200
G0 Z2.8F500
G0 X57.622Y65.865Z2.8F1500
G1 Z0F500
G1 X59.494Y64.461Z0F1200
G0 Z2.8F500
G0 X63.549Y65.085Z2.8F1500
G1 Z0F500
G1 X66.357Y63.837Z0F1200
G1 X66.669Y63.993Z0F1200
G0 Z2.8F500
G0 X65.733Z2.8F1500
G1 Z0F500
G1 X63.861Y65.397Z0F1200
G0 Z2.8F500
G0 X65.889Y66.021Z2.8F1500
G1 Z0F500
G1 X67.293Y65.553Z0F1200
G0 Z2.8F500
G0 X70.101Y63.993Z2.8F1500
G1 Z0F500
G1 X69.789Y63.525Z0F1200
G1 X70.412Y61.965Z0F1200
G1 X71.816Y61.497Z0F1200
G1 X71.66Y61.965Z0F1200
G0 Z2.8F500
G0 X72.752Y63.213Z2.8F1500
G1 Z0F500
G1 X71.348Y63.681Z0F1200
G0 Z2.8F500
G0 X68.229Y61.341Z2.8F1500
G1 Z0F500
G1 X69.477Y60.249Z0F1200
G1 X70.568Y59.782Z0F1200
G1 X71.972Y59.158Z0F1200
G1 X71.036Y59.47Z0F1200
G0 Z2.8F500
G0 X64.173Y51.515Z2.8F1500
G1 Z0F500
G1 X64.953Y50.423Z0F1200
G1 X63.705Y51.359Z0F1200
G1 X66.513Y50.111Z0F1200
G1 X65.733Y50.891Z0F1200
G0 Z2.8F500
G0 X62.926Y41.688Z2.8F1500
G1 Z0F500
G1 X66.045Y40.284Z0F1200
G1 X67.137Y38.88Z0F1200
G1 X66.669Y37.477Z0F1200
G1 X66.045Y36.073Z0F1200
G1 X66.201Y34.669Z0F1200
G1 X66.045Y33.265Z0F1200
G1 X64.173Y29.054Z0F1200
G0 Z2.8F500
G0 X63.393Y28.118Z2.8F1500
G1 Z0F500
G1 X61.99Y29.522Z0F1200
G1 X59.026Y30.926Z0F1200
G1 X59.494Y32.329Z0F1200
G1 X60.274Y33.733Z0F1200
G0 Z2.8F500
G0 X61.678Z2.8F1500
G1 Z0F500
G1 X64.641Y32.329Z0F1200
G0 Z2.8F500
G0 X64.173Y32.485Z2.8F1500
G1 Z0F500
G1 X61.366Y33.733Z0F1200
G1 X59.962Y33.265Z0F1200
G1 X58.558Y30.926Z0F1200
G0 Z2.8F500
G0 X59.026Y30.614Z2.8F1500
G1 Z0F500
G1 X61.834Y29.366Z0F1200
G1 X63.237Y27.806Z0F1200
G1 X64.641Y30.146Z0F1200
G0 Z2.8F500
G0 X64.797Y33.109Z2.8F1500
G1 Z0F500
G1 X64.329Y34.513Z0F1200
G1 X63.705Y34.669Z0F1200
G1 X62.926Y34.981Z0F1200
G1 X62.146Y35.605Z0F1200
G1 X60.586Y37.165Z0F1200
G1 X61.054Y38.568Z0F1200
G1 X61.678Y39.972Z0F1200
G1 X62.458Y41.376Z0F1200
G0 Z2.8F500
G0 X66.513Y39.972Z2.8F1500
G1 Z0F500
G1 X65.109Y40.44Z0F1200
G1 X63.705Y41.064Z0F1200
G1 X62.302Y41.22Z0F1200
G1 X60.898Y38.257Z0F1200
G0 Z2.8F500
G0 X53.879Y37.009Z2.8F1500
G1 Z0F500
G1 X52.475Y34.201Z0F1200
G1 X51.071Y32.797Z0F1200
G1 X50.291Y34.357Z0F1200
G1 X47.484Y35.605Z0F1200
G0 Z2.8F500
G0 X47.016Y35.917Z2.8F1500
G1 Z0F500
G1 X48.42Y38.412Z0F1200
G1 X49.823Y38.724Z0F1200
G1 X52.631Y37.477Z0F1200
G0 Z2.8F500
G0 X53.255Y38.257Z2.8F1500
G1 Z0F500
G1 X52.943Y39.66Z0F1200
G1 X49.823Y41.064Z0F1200
G0 Z2.8F500
G0 X49.667Y41.688Z2.8F1500
G1 Z0F500
G1 X52.943Y40.284Z0F1200
G0 Z2.8F500
G0 X52.163Y39.66Z2.8F1500
G1 Z0F500
G1 Y40.44Z0F1200
G1 X49.355Y41.688Z0F1200
G1 X49.043Y40.752Z0F1200
G1 X51.227Y39.816Z0F1200
G1 X49.511Y40.752Z0F1200
G1 X49.043Y42.156Z0F1200
G1 X49.511Y43.56Z0F1200
G1 X50.135Y44.964Z0F1200
G1 X50.915Y46.367Z0F1200
G0 Z2.8F500
G0 X52.163Z2.8F1500
G1 Z0F500
G1 X55.127Y44.964Z0F1200
G1 X55.595Y43.56Z0F1200
G1 X54.815Y42.156Z0F1200
G1 X54.503Y40.752Z0F1200
G1 Y39.348Z0F1200
G1 X54.347Y37.945Z0F1200
G1 X53.879Y36.541Z0F1200
G1 X52.319Y33.733Z0F1200
G0 Z2.8F500
G0 X51.851Y33.265Z2.8F1500
G1 Z0F500
G1 X50.135Y34.669Z0F1200
G1 X47.328Y36.073Z0F1200
G1 X47.952Y37.477Z0F1200
G1 X48.731Y38.88Z0F1200
G0 Z2.8F500
G0 X48.887Y39.504Z2.8F1500
G1 Z0F500
G1 X51.695Y38.101Z0F1200
G0 Z2.8F500
G0 X49.199Y43.092Z2.8F1500
G1 Z0F500
G1 X50.603Y46.055Z0F1200
G1 X52.007Y46.211Z0F1200
G1 X54.815Y44.964Z0F1200
G0 Z2.8F500
G0 X49.511Y43.404Z2.8F1500
G1 Z0F500
G1 X42.492Z0F1200
G0 Z2.8F500
G0 X78.991Y39.348Z2.8F1500
G1 Z0F500
G1 X82.111Y37.945Z0F1200
G1 X88.662Y35.137Z0F1200
G0 Z2.8F500
G0 X86.322Y25.31Z2.8F1500
G1 Z0F500
G1 X88.194Y23.906Z0F1200
G0 Z2.8F500
G0 X87.414Y22.503Z2.8F1500
G1 Z0F500
G1 X86.01Y22.971Z0F1200
G1 X84.607Y23.595Z0F1200
G1 X83.203Y23.127Z0F1200
G1 X81.799Y20.943Z0F1200
G0 Z2.8F500
G0 X82.267Y20.631Z2.8F1500
G1 Z0F500
G1 X85.074Y19.383Z0F1200
G1 X86.478Y18.291Z0F1200
G1 X87.882Y20.007Z0F1200
G0 Z2.8F500
G0 X86.478Y22.971Z2.8F1500
G1 Z0F500
G1 X83.827Y24.374Z0F1200
G0 Z2.8F500
G0 X93.809Z2.8F1500
G1 Z0F500
G1 X94.589Y25.154Z0F1200
G0 Z2.8F500
G0 X111.435Y65.865Z2.8F1500
G1 Z0F500
G1 X114.71Y64.461Z0F1200
G1 X114.866Y63.057Z0F1200
G1 X114.243Y61.653Z0F1200
G0 Z2.8F500
G0 X102.388Y69.608Z2.8F1500
G1 Z0F500
G1 X99.581Y70.856Z0F1200
G1 X98.177Y70.544Z0F1200
G1 X96.773Y71.012Z0F1200
G1 X95.369Y70.388Z0F1200
G1 X93.965Y70.856Z0F1200
G1 X92.561Y71.48Z0F1200
G1 X91.782Y73.04Z0F1200
G1 X91.47Y74.444Z0F1200
G1 X88.35Y75.847Z0F1200
G0 Z2.8F500
G0 X86.634Y73.976Z2.8F1500
G1 Z0F500
G1 X84.139Y75.379Z0F1200
G0 Z2.8F500
G0 X85.074Y75.067Z2.8F1500
G1 Z0F500
G1 X88.194Y73.664Z0F1200
G1 X89.754Y72.572Z0F1200
G1 X92.561Y71.636Z0F1200
G1 X94.901Y70.232Z0F1200
G0 Z2.8F500
G0 X90.846Y66.645Z2.8F1500
G1 Z0F500
G1 X91.002Y66.957Z0F1200
G1 X86.79Y68.36Z0F1200
G1 X85.386Y67.892Z0F1200
G0 Z2.8F500
G0 X84.607Y69.764Z2.8F1500
G1 Z0F500
G1 X77.588Y62.745Z0F1200
G0 Z2.8F500
G0 X82.423Y61.341Z2.8F1500
G1 Z0F500
G1 X83.515Y60.561Z0F1200
G1 X84.919Y60.094Z0F1200
G1 X86.322Y59.47Z0F1200
G1 X86.478Y58.846Z0F1200
G0 Z2.8F500
G0 X86.01Y59.782Z2.8F1500
G1 Z0F500
G1 X84.295Y60.094Z0F1200
G1 X82.891Y61.497Z0F1200
G0 Z2.8F500
G0 X91.002Y65.241Z2.8F1500
G1 Z0F500
G1 X90.846Y64.773Z0F1200
G1 X92.25Y64.149Z0F1200
G1 X92.405Y64.305Z0F1200
G0 Z2.8F500
G0 X91.782Y59.47Z2.8F1500
G1 Z0F500
G1 X90.066Z0F1200
G1 X90.222Y59.782Z0F1200
G1 X94.433Y57.91Z0F1200
G1 X95.837Y57.598Z0F1200
G1 X97.241Y56.662Z0F1200
G1 X98.645Y56.35Z0F1200
G1 X100.048Y55.726Z0F1200
G1 X100.516Y54.946Z0F1200
G1 X101.14Y55.258Z0F1200
G0 Z2.8F500
G0 X100.828Y54.946Z2.8F1500
G1 Z0F500
G1 X98.333Y56.35Z0F1200
G1 X95.369Y57.442Z0F1200
G1 X93.185Y58.846Z0F1200
G0 Z2.8F500
G0 X80.551Y76.783Z2.8F1500
G1 Z0F500
G1 X79.615Y79.591Z0F1200
G1 X76.496Y80.995Z0F1200
;Offset @ 1500 mm/min, 90% power

M8
G0 Z2.8F500
G0 X43.312Y72.323Z2.8F1500
G1 Z0F500
;Layer Blue
G1 X41.984Y72.844Z0F1200
G1 X44.758Y74.292Z0F1200
G1 X47.538Y75.76Z0F1200
G1 X47.625Y75.726Z0F1200
G1 X46.131Y73.756Z0F1200
G1 X44.64Y71.799Z0F1200
G1 X43.312Y72.323Z0F1200
G0 Z2.8F500
G0 X39.816Y72.728Z2.8F1500
G1 Z0F500
G1 X44.338Y75.088Z0F1200
G1 X47.48Y76.747Z0F1200
G1 X49.063Y76.134Z0F1200
G1 X46.847Y73.212Z0F1200
G1 X44.943Y70.712Z0F1200
G1 X42.981Y71.486Z0F1200
G1 X39.816Y72.728Z0F1200
G0 Z2.8F500
G0 X38.259Y72.838Z2.8F1500
G1 Z0F500
G1 X40.166Y72.094Z0F1200
G1 X44.643Y70.318Z0F1200
G1 X43.262Y68.52Z0F1200
G1 X43.737Y68.327Z0F1200
G1 X44.672Y67.945Z0F1200
G1 X46.05Y69.746Z0F1200
G1 X47.691Y69.077Z0F1200
G1 X48.002Y69.485Z0F1200
G1 X46.358Y70.149Z0F1200
G1 X49.261Y73.979Z0F1200
G1 X50.953Y76.227Z0F1200
G1 X50.792Y76.29Z0F1200
G1 X49.285Y76.871Z0F1200
G1 X47.427Y77.581Z0F1200
G1 X47.41Y77.584Z0F1200
G1 X47.36Z0F1200
G1 X47.293Y77.57Z0F1200
G1 X47.271Y77.563Z0F1200
G1 X42.093Y74.823Z0F1200
G1 X38.259Y72.838Z0F1200
G0 Z2.8F500
G0 X36.466Y72.571Z2.8F1500
G1 Z0F500
G1 X39.836Y71.257Z0F1200
G1 X43.203Y69.921Z0F1200
G1 X42.033Y68.398Z0F1200
G1 X41.992Y68.304Z0F1200
G1 X41.997Y68.187Z0F1200
G1 X42.07Y68.063Z0F1200
G1 X42.223Y67.97Z0F1200
G1 X43.398Y67.493Z0F1200
G1 X44.572Y67.014Z0F1200
G1 X44.755Y66.971Z0F1200
G1 X44.936Y66.991Z0F1200
G1 X45.083Y67.047Z0F1200
G1 X45.175Y67.121Z0F1200
G1 X46.347Y68.653Z0F1200
G1 X47.536Y68.168Z0F1200
G1 X47.689Y68.129Z0F1200
G1 X47.88Y68.121Z0F1200
G1 X48.072Y68.161Z0F1200
G1 X48.202Y68.261Z0F1200
G1 X49.218Y69.599Z0F1200
G1 X49.265Y69.731Z0F1200
G1 X49.207Y69.867Z0F1200
G1 X49.102Y69.986Z0F1200
G1 X48.976Y70.063Z0F1200
G1 X47.786Y70.543Z0F1200
G1 X49.979Y73.438Z0F1200
G1 X52.179Y76.358Z0F1200
G1 X52.218Y76.456Z0F1200
G1 X52.206Y76.578Z0F1200
G1 X52.136Y76.702Z0F1200
G1 X51.989Y76.791Z0F1200
G1 X51.116Y77.129Z0F1200
G1 X49.606Y77.711Z0F1200
G1 X47.688Y78.445Z0F1200
G1 X47.489Y78.488Z0F1200
G1 X47.264Y78.479Z0F1200
G1 X47.057Y78.442Z0F1200
G1 X46.907Y78.388Z0F1200
G1 X41.675Y75.62Z0F1200
G1 X36.458Y72.919Z0F1200
G1 X36.36Y72.863Z0F1200
G1 X36.302Y72.766Z0F1200
G1 X36.328Y72.658Z0F1200
G1 X36.466Y72.571Z0F1200
G0 Z2.8F500
G0 X55.072Y65.419Z2.8F1500
G1 Z0F500
G1 X52.98Y66.3Z0F1200
G1 X55.089Y69.098Z0F1200
G1 X57.204Y71.92Z0F1200
G1 X59.301Y71.063Z0F1200
G1 X61.396Y70.197Z0F1200
G1 X59.277Y67.352Z0F1200
G1 X57.163Y64.531Z0F1200
G1 X55.072Y65.419Z0F1200
G0 Z2.8F500
G0 X51.566Y65.918Z2.8F1500
G1 Z0F500
G1 X54.369Y69.638Z0F1200
G1 X56.9Y73.016Z0F1200
G1 X59.643Y71.895Z0F1200
G1 X62.808Y70.587Z0F1200
G1 X59.998Y66.813Z0F1200
G1 X57.46Y63.426Z0F1200
G1 X54.723Y64.59Z0F1200
G1 X51.566Y65.918Z0F1200
G0 Z2.8F500
G0 X49.662Y65.879Z2.8F1500
G1 Z0F500
G1 X49.854Y65.799Z0F1200
G1 X53.284Y64.348Z0F1200
G1 X56.709Y62.875Z0F1200
G1 X58.385Y62.146Z0F1200
G1 X61.685Y66.559Z0F1200
G1 X64.747Y70.695Z0F1200
G1 X64.546Y70.778Z0F1200
G1 X62.906Y71.455Z0F1200
G1 X61.266Y72.126Z0F1200
G1 X59.439Y72.869Z0F1200
G1 X57.616Y73.603Z0F1200
G1 X55.981Y74.254Z0F1200
G1 X52.667Y69.843Z0F1200
G1 X49.662Y65.879Z0F1200
G0 Z2.8F500
G0 X49.505Y64.969Z2.8F1500
G1 Z0F500
G1 X52.931Y63.52Z0F1200
G1 X56.352Y62.049Z0F1200
G1 X58.284Y61.208Z0F1200
G1 X58.466Y61.161Z0F1200
G1 X58.646Y61.181Z0F1200
G1 X58.794Y61.237Z0F1200
G1 X58.886Y61.313Z0F1200
G1 X62.408Y66.023Z0F1200
G1 X65.943Y70.799Z0F1200
G1 X65.983Y70.9Z0F1200
G1 X65.972Y71.026Z0F1200
G1 X65.903Y71.155Z0F1200
G1 X65.758Y71.249Z0F1200
G1 X64.889Y71.61Z0F1200
G1 X63.248Y72.288Z0F1200
G1 X61.605Y72.96Z0F1200
G1 X59.778Y73.703Z0F1200
G1 X57.949Y74.438Z0F1200
G1 X56.071Y75.188Z0F1200
G1 X55.88Y75.231Z0F1200
G1 X55.696Y75.207Z0F1200
G1 X55.555Y75.144Z0F1200
G1 X55.465Y75.066Z0F1200
G1 X51.949Y70.385Z0F1200
G1 X48.448Y65.769Z0F1200
G1 X48.407Y65.673Z0F1200
G1 X48.412Y65.554Z0F1200
G1 X48.484Y65.428Z0F1200
G1 X48.637Y65.333Z0F1200
G1 X49.505Y64.969Z0F1200
G0 Z2.8F500
G0 X70.931Y63.91Z2.8F1500
G1 Z0F500
G1 X68.846Y64.824Z0F1200
G1 X70.086Y66.511Z0F1200
G1 X72.172Y65.603Z0F1200
G1 X74.256Y64.687Z0F1200
G1 X73.014Y62.987Z0F1200
G1 X70.931Y63.91Z0F1200
G0 Z2.8F500
G0 X67.455Y64.452Z2.8F1500
G1 Z0F500
G1 X69.787Y67.623Z0F1200
G1 X72.533Y66.428Z0F1200
G1 X75.644Y65.06Z0F1200
G1 X73.313Y61.871Z0F1200
G1 X70.569Y63.085Z0F1200
G1 X67.455Y64.452Z0F1200
G0 Z2.8F500
G0 X65.498Y64.367Z2.8F1500
G1 Z0F500
G1 X65.721Y64.269Z0F1200
G1 X68.74Y62.939Z0F1200
G1 X72.775Y61.138Z0F1200
G1 X70.287Y57.761Z0F1200
G1 X67.565Y58.99Z0F1200
G1 X64.48Y60.37Z0F1200
G1 X65.254Y61.413Z0F1200
G1 X64.725Y61.646Z0F1200
G1 X63.821Y62.042Z0F1200
G1 X63.049Y61.007Z0F1200
G1 X62.532Y60.315Z0F1200
G1 X66.259Y58.643Z0F1200
G1 X70.605Y56.655Z0F1200
G1 X71.192Y56.383Z0F1200
G1 X74.51Y60.898Z0F1200
G1 X77.626Y65.181Z0F1200
G1 X77.392Y65.284Z0F1200
G1 X73.979Y66.776Z0F1200
G1 X70.559Y68.248Z0F1200
G1 X68.887Y68.958Z0F1200
G1 X67.063Y66.481Z0F1200
G1 X65.498Y64.367Z0F1200
G0 Z2.8F500
G0 X63.92Y62.981Z2.8F1500
G1 Z0F500
G1 X63.731Y63.031Z0F1200
G1 X63.548Y63.011Z0F1200
G1 X63.408Y62.951Z0F1200
G1 X63.318Y62.873Z0F1200
G1 X62.328Y61.546Z0F1200
G1 X61.34Y60.224Z0F1200
G1 X61.289Y60.097Z0F1200
G1 X61.325Y59.966Z0F1200
G1 X61.423Y59.849Z0F1200
G1 X61.54Y59.773Z0F1200
G1 X65.888Y57.823Z0F1200
G1 X70.229Y55.837Z0F1200
G1 X71.089Y55.439Z0F1200
G1 X71.271Y55.389Z0F1200
G1 X71.451Y55.407Z0F1200
G1 X71.598Y55.463Z0F1200
G1 X71.69Y55.541Z0F1200
G1 X75.237Y60.368Z0F1200
G1 X78.798Y65.261Z0F1200
G1 X78.838Y65.365Z0F1200
G1 X78.828Y65.496Z0F1200
G1 X78.76Y65.629Z0F1200
G1 X78.616Y65.728Z0F1200
G1 X77.752Y66.109Z0F1200
G1 X74.335Y67.603Z0F1200
G1 X70.915Y69.075Z0F1200
G1 X68.979Y69.897Z0F1200
G1 X68.789Y69.944Z0F1200
G1 X68.604Y69.921Z0F1200
G1 X68.463Y69.858Z0F1200
G1 X68.373Y69.778Z0F1200
G1 X66.339Y67.016Z0F1200
G1 X64.31Y64.275Z0F1200
G1 X64.267Y64.174Z0F1200
G1 Y64.045Z0F1200
G1 X64.341Y63.92Z0F1200
G1 X64.495Y63.822Z0F1200
G1 X65.36Y63.445Z0F1200
G1 X68.375Y62.117Z0F1200
G1 X71.387Y60.772Z0F1200
G1 X69.994Y58.881Z0F1200
G1 X67.933Y59.811Z0F1200
G1 X65.871Y60.733Z0F1200
G1 X66.439Y61.499Z0F1200
G1 X66.479Y61.599Z0F1200
G1 X66.468Y61.727Z0F1200
G1 X66.404Y61.855Z0F1200
G1 X66.255Y61.955Z0F1200
G1 X65.088Y62.469Z0F1200
G1 X63.92Y62.981Z0F1200
G0 Z2.8F500
G0 X81.727Y63.354Z2.8F1500
G1 Z0F500
G1 X80.52Y61.685Z0F1200
G1 X80.059Y61.049Z0F1200
G1 X80.615Y60.794Z0F1200
G1 X81.499Y60.388Z0F1200
G1 X82.606Y61.92Z0F1200
G1 X85.356Y60.651Z0F1200
G1 X88.417Y59.226Z0F1200
G1 X86.124Y56.038Z0F1200
G1 X83.873Y57.095Z0F1200
G1 X82.865Y57.566Z0F1200
G1 X82.13Y57.909Z0F1200
G1 X81.57Y57.136Z0F1200
G1 X82.783Y56.566Z0F1200
G1 X85.556Y55.25Z0F1200
G1 X83.047Y51.788Z0F1200
G1 X80.304Y53.098Z0F1200
G1 X77.251Y54.544Z0F1200
G1 X78.297Y55.978Z0F1200
G1 X77.736Y56.239Z0F1200
G1 X76.852Y56.649Z0F1200
G1 X75.95Y55.417Z0F1200
G1 X75.262Y54.481Z0F1200
G1 X75.524Y54.357Z0F1200
G1 X78.919Y52.742Z0F1200
G1 X82.309Y51.105Z0F1200
G1 X83.934Y50.312Z0F1200
G1 X85.342Y52.256Z0F1200
G1 X86.787Y54.259Z0F1200
G1 X86.757Y54.318Z0F1200
G1 X86.202Y54.824Z0F1200
G1 X86.753Y56.02Z0F1200
G1 X87.565Y55.918Z0F1200
G1 X87.845Y55.959Z0F1200
G1 X88.045Y56.01Z0F1200
G1 X89.373Y57.863Z0F1200
G1 X90.439Y59.357Z0F1200
G1 X90.167Y59.485Z0F1200
G1 X86.743Y61.072Z0F1200
G1 X83.309Y62.64Z0F1200
G1 X81.727Y63.354Z0F1200
G0 Z2.8F500
G0 X81.215Y64.182Z2.8F1500
G1 Z0F500
G1 X79.791Y62.212Z0F1200
G1 X78.896Y60.979Z0F1200
G1 X78.852Y60.875Z0F1200
G1 Y60.741Z0F1200
G1 X78.925Y60.611Z0F1200
G1 X79.077Y60.509Z0F1200
G1 X80.24Y59.977Z0F1200
G1 X81.402Y59.441Z0F1200
G1 X81.582Y59.391Z0F1200
G1 X81.759Y59.406Z0F1200
G1 X81.911Y59.471Z0F1200
G1 X82.005Y59.552Z0F1200
G1 X82.902Y60.793Z0F1200
G1 X84.978Y59.835Z0F1200
G1 X87.051Y58.869Z0F1200
G1 X85.83Y57.17Z0F1200
G1 X84.254Y57.911Z0F1200
G1 X83.247Y58.382Z0F1200
G1 X82.238Y58.851Z0F1200
G1 X82.095Y58.891Z0F1200
G1 X81.915Y58.898Z0F1200
G1 X81.751Y58.858Z0F1200
G1 X81.63Y58.752Z0F1200
G1 X80.408Y57.067Z0F1200
G1 X80.356Y56.935Z0F1200
G1 X80.391Y56.798Z0F1200
G1 X80.488Y56.676Z0F1200
G1 X80.604Y56.596Z0F1200
G1 X82.398Y55.752Z0F1200
G1 X84.192Y54.901Z0F1200
G1 X82.758Y52.923Z0F1200
G1 X80.689Y53.912Z0F1200
G1 X78.619Y54.892Z0F1200
G1 X79.457Y56.042Z0F1200
G1 X79.497Y56.145Z0F1200
G1 X79.487Y56.277Z0F1200
G1 X79.419Y56.413Z0F1200
G1 X79.276Y56.514Z0F1200
G1 X78.115Y57.056Z0F1200
G1 X76.954Y57.595Z0F1200
G1 X76.765Y57.647Z0F1200
G1 X76.582Y57.629Z0F1200
G1 X76.441Y57.568Z0F1200
G1 X76.351Y57.488Z0F1200
G1 X75.224Y55.95Z0F1200
G1 X74.099Y54.418Z0F1200
G1 X74.056Y54.317Z0F1200
G1 X74.059Y54.19Z0F1200
G1 X74.129Y54.054Z0F1200
G1 X74.28Y53.949Z0F1200
G1 X75.139Y53.544Z0F1200
G1 X78.53Y51.931Z0F1200
G1 X81.916Y50.296Z0F1200
G1 X83.828Y49.362Z0F1200
G1 X84.009Y49.309Z0F1200
G1 X84.189Y49.326Z0F1200
G1 X84.336Y49.382Z0F1200
G1 X84.429Y49.461Z0F1200
G1 X86.072Y51.73Z0F1200
G1 X87.718Y54.012Z0F1200
G1 X87.75Y54.212Z0F1200
G1 X87.652Y54.544Z0F1200
G1 X87.484Y54.873Z0F1200
G1 X87.295Y55.045Z0F1200
G1 X87.574Y55.011Z0F1200
G1 X88.021Y55.075Z0F1200
G1 X88.445Y55.184Z0F1200
G1 X88.627Y55.277Z0F1200
G1 X90.105Y57.34Z0F1200
G1 X91.586Y59.415Z0F1200
G1 X91.627Y59.521Z0F1200
G1 X91.618Y59.656Z0F1200
G1 X91.551Y59.794Z0F1200
G1 X91.408Y59.897Z0F1200
G1 X90.548Y60.3Z0F1200
G1 X87.116Y61.891Z0F1200
G1 X83.679Y63.46Z0F1200
G1 X81.82Y64.299Z0F1200
G1 X81.631Y64.349Z0F1200
G1 X81.447Y64.328Z0F1200
G1 X81.306Y64.264Z0F1200
G1 X81.215Y64.182Z0F1200
M9
M5
G1 Z10 F500
G90
G1 Z10 F500
G1 Y100 F1000
