
G0 Z10 F500;      ; Move to clearance level - Z motion limited to 500
; G0 X-10 Y-10 F1200; Homing
; G0 X-5 Y-5 F1200; go in
; G10 P0 L20 X0 Y0; set to zero
G1 F1200;           ; Set feed rate to 1000
;LightBurn 1.6.04
;Custom GCode device profile, absolute coords
;Bounds: X36.3 Y49.31 to X91.63 Y78.49
G00 G17 G40 G21 G54
G90
M3
G1 Z10 F500
;Offset @ 1200 mm/min, 90% power

M8

; Washing sequence (no color)
G1 Z10 F1000;        ; Raise brush to safe height
G0 X2 Y0 F1200;     ; Rapid move to brush cleaning position
G1 Z0 F500;         ; Lower brush for cleaning - controlled movement
G1 Z10 F500;         ; Raise brush slightly - controlled movement
G1 Z0 F500;         ; Lower brush for cleaning - controlled movement
G1 Z2 F500;         ; Raise brush slightly - controlled movement
G1 X22 Y0 Z8 F500;     ; Move across cleaning area - controlled movement
G1 Z10 F500;         ; Maintain brush height - controlled movement
G1 X2 Y0 Z8 F1000;     ; Move across cleaning area - controlled movement
G1 Z10 F500;         ; Maintain brush height - controlled movement
G1 F1200;           ; Set feed rate to 1000

; Color 1 picking sequence
G1 Z10 F500;         ; Raise brush to safe height
;G0 X2 Y0 F1000;     ; Rapid move to brush cleaning position
;G1 Z0 F500;         ; Lower brush for cleaning - controlled movement
;G1 Z2 F500;         ; Raise brush slightly - controlled movement
;G1 X22 Y0 Z8 F800;     ; Move across cleaning area - controlled movement
;G1 Z8 F500;         ; Maintain brush height - controlled movement
G0 X85 Y0 F1200;    ; Rapid move to color 1 position
G1 Z0 F500;         ; Lower into color - controlled movement
G1 X79 Y1 F500;     ; Small movement in paint - controlled movement
G1 Z7 F500;         ; Raise from color - controlled movement
G1 X82 Y1 F500;     ; Movement in paint - controlled movement
G1 Z1 F500;         ; Lower slightly - controlled movement
G1 X71 Y10 Z10 F500;     ; Move in paint - controlled movement
;G1 Z8 F500;         ; Raise brush - controlled movement
G1 F1200;           ; Set feed rate to 1000
G0 Z2.8F500
G0 X43.312Y72.323Z2.8F1500
G1 Z0F500
;Layer Blue
G1 X41.984Y72.844Z0S900F1200
G1 X44.758Y74.292Z0F1200
G1 X47.538Y75.76Z0F1200
G1 X47.625Y75.726Z0F1200
G1 X46.131Y73.756Z0F1200
G1 X44.64Y71.799Z0F1200
G1 X43.312Y72.323Z0F1200
G0 Z2.8F500
G0 X39.816Y72.728Z2.8F1500
G1 Z0F500
G1 X44.338Y75.088Z0F1200
G1 X47.48Y76.747Z0F1200
G1 X49.063Y76.134Z0F1200
G1 X46.847Y73.212Z0F1200
G1 X44.943Y70.712Z0F1200
G1 X42.981Y71.486Z0F1200
G1 X39.816Y72.728Z0F1200
G0 Z2.8F500
G0 X38.259Y72.838Z2.8F1500
G1 Z0F500
G1 X40.166Y72.094Z0F1200
G1 X44.643Y70.318Z0F1200
G1 X43.262Y68.52Z0F1200
G1 X43.737Y68.327Z0F1200
G1 X44.672Y67.945Z0F1200
G1 X46.05Y69.746Z0F1200
G1 X47.691Y69.077Z0F1200
G1 X48.002Y69.485Z0F1200
G1 X46.358Y70.149Z0F1200
G1 X49.261Y73.979Z0F1200
G1 X50.953Y76.227Z0F1200
G1 X50.792Y76.29Z0F1200
G1 X49.285Y76.871Z0F1200
G1 X47.427Y77.581Z0F1200
G1 X47.41Y77.584Z0F1200
G1 X47.36Z0F1200
G1 X47.293Y77.57Z0F1200
G1 X47.271Y77.563Z0F1200
G1 X42.093Y74.823Z0F1200
G1 X38.259Y72.838Z0F1200
G0 Z2.8F500
G0 X36.466Y72.571Z2.8F1500
G1 Z0F500
G1 X39.836Y71.257Z0F1200
G1 X43.203Y69.921Z0F1200
G1 X42.033Y68.398Z0F1200
G1 X41.992Y68.304Z0F1200
G1 X41.997Y68.187Z0F1200
G1 X42.07Y68.063Z0F1200
G1 X42.223Y67.97Z0F1200
G1 X43.398Y67.493Z0F1200
G1 X44.572Y67.014Z0F1200
G1 X44.755Y66.971Z0F1200
G1 X44.936Y66.991Z0F1200
G1 X45.083Y67.047Z0F1200
G1 X45.175Y67.121Z0F1200
G1 X46.347Y68.653Z0F1200
G1 X47.536Y68.168Z0F1200
G1 X47.689Y68.129Z0F1200
G1 X47.88Y68.121Z0F1200
G1 X48.072Y68.161Z0F1200
G1 X48.202Y68.261Z0F1200
G1 X49.218Y69.599Z0F1200
G1 X49.265Y69.731Z0F1200
G1 X49.207Y69.867Z0F1200
G1 X49.102Y69.986Z0F1200
G1 X48.976Y70.063Z0F1200
G1 X47.786Y70.543Z0F1200
G1 X49.979Y73.438Z0F1200
G1 X52.179Y76.358Z0F1200
G1 X52.218Y76.456Z0F1200
G1 X52.206Y76.578Z0F1200
G1 X52.136Y76.702Z0F1200
G1 X51.989Y76.791Z0F1200
G1 X51.116Y77.129Z0F1200
G1 X49.606Y77.711Z0F1200
G1 X47.688Y78.445Z0F1200
G1 X47.489Y78.488Z0F1200
G1 X47.264Y78.479Z0F1200
G1 X47.057Y78.442Z0F1200
G1 X46.907Y78.388Z0F1200
G1 X41.675Y75.62Z0F1200
G1 X36.458Y72.919Z0F1200
G1 X36.36Y72.863Z0F1200
G1 X36.302Y72.766Z0F1200
G1 X36.328Y72.658Z0F1200
G1 X36.466Y72.571Z0F1200

; Color 1 picking sequence
G1 Z10 F500;         ; Raise brush to safe height
;G0 X2 Y0 F1000;     ; Rapid move to brush cleaning position
;G1 Z0 F500;         ; Lower brush for cleaning - controlled movement
;G1 Z2 F500;         ; Raise brush slightly - controlled movement
;G1 X22 Y0 Z8 F800;     ; Move across cleaning area - controlled movement
;G1 Z8 F500;         ; Maintain brush height - controlled movement
G0 X85 Y0 F1200;    ; Rapid move to color 1 position
G1 Z0 F500;         ; Lower into color - controlled movement
G1 X79 Y1 F500;     ; Small movement in paint - controlled movement
G1 Z7 F500;         ; Raise from color - controlled movement
G1 X82 Y1 F500;     ; Movement in paint - controlled movement
G1 Z1 F500;         ; Lower slightly - controlled movement
G1 X71 Y10 Z10 F500;     ; Move in paint - controlled movement
;G1 Z8 F500;         ; Raise brush - controlled movement
G1 F1200;           ; Set feed rate to 1000

; Return to drawing position
G0 X36.466 Y72.571 F1200;  ; Return to position with raised Z
G1 Z0 F500;                       ; Lower Z to drawing position
G0 Z2.8F500
G0 X55.072Y65.419Z2.8F1500
G1 Z0F500
G1 X52.98Y66.3Z0F1200
G1 X55.089Y69.098Z0F1200
G1 X57.204Y71.92Z0F1200
G1 X59.301Y71.063Z0F1200
G1 X61.396Y70.197Z0F1200
G1 X59.277Y67.352Z0F1200
G1 X57.163Y64.531Z0F1200
G1 X55.072Y65.419Z0F1200
G0 Z2.8F500
G0 X51.566Y65.918Z2.8F1500
G1 Z0F500
G1 X54.369Y69.638Z0F1200
G1 X56.9Y73.016Z0F1200
G1 X59.643Y71.895Z0F1200
G1 X62.808Y70.587Z0F1200
G1 X59.998Y66.813Z0F1200
G1 X57.46Y63.426Z0F1200
G1 X54.723Y64.59Z0F1200
G1 X51.566Y65.918Z0F1200
G0 Z2.8F500
G0 X49.662Y65.879Z2.8F1500
G1 Z0F500
G1 X49.854Y65.799Z0F1200
G1 X53.284Y64.348Z0F1200
G1 X56.709Y62.875Z0F1200
G1 X58.385Y62.146Z0F1200
G1 X61.685Y66.559Z0F1200
G1 X64.747Y70.695Z0F1200
G1 X64.546Y70.778Z0F1200
G1 X62.906Y71.455Z0F1200
G1 X61.266Y72.126Z0F1200
G1 X59.439Y72.869Z0F1200
G1 X57.616Y73.603Z0F1200
G1 X55.981Y74.254Z0F1200
G1 X52.667Y69.843Z0F1200
G1 X49.662Y65.879Z0F1200
G0 Z2.8F500
G0 X49.505Y64.969Z2.8F1500
G1 Z0F500
G1 X52.931Y63.52Z0F1200
G1 X56.352Y62.049Z0F1200
G1 X58.284Y61.208Z0F1200
G1 X58.466Y61.161Z0F1200
G1 X58.646Y61.181Z0F1200
G1 X58.794Y61.237Z0F1200
G1 X58.886Y61.313Z0F1200
G1 X62.408Y66.023Z0F1200
G1 X65.943Y70.799Z0F1200
G1 X65.983Y70.9Z0F1200
G1 X65.972Y71.026Z0F1200
G1 X65.903Y71.155Z0F1200
G1 X65.758Y71.249Z0F1200
G1 X64.889Y71.61Z0F1200
G1 X63.248Y72.288Z0F1200
G1 X61.605Y72.96Z0F1200
G1 X59.778Y73.703Z0F1200
G1 X57.949Y74.438Z0F1200
G1 X56.071Y75.188Z0F1200
G1 X55.88Y75.231Z0F1200
G1 X55.696Y75.207Z0F1200
G1 X55.555Y75.144Z0F1200
G1 X55.465Y75.066Z0F1200
G1 X51.949Y70.385Z0F1200
G1 X48.448Y65.769Z0F1200
G1 X48.407Y65.673Z0F1200
G1 X48.412Y65.554Z0F1200
G1 X48.484Y65.428Z0F1200
G1 X48.637Y65.333Z0F1200
G1 X49.505Y64.969Z0F1200

; Color 1 picking sequence
G1 Z10 F500;         ; Raise brush to safe height
;G0 X2 Y0 F1000;     ; Rapid move to brush cleaning position
;G1 Z0 F500;         ; Lower brush for cleaning - controlled movement
;G1 Z2 F500;         ; Raise brush slightly - controlled movement
;G1 X22 Y0 Z8 F800;     ; Move across cleaning area - controlled movement
;G1 Z8 F500;         ; Maintain brush height - controlled movement
G0 X85 Y0 F1200;    ; Rapid move to color 1 position
G1 Z0 F500;         ; Lower into color - controlled movement
G1 X79 Y1 F500;     ; Small movement in paint - controlled movement
G1 Z7 F500;         ; Raise from color - controlled movement
G1 X82 Y1 F500;     ; Movement in paint - controlled movement
G1 Z1 F500;         ; Lower slightly - controlled movement
G1 X71 Y10 Z10 F500;     ; Move in paint - controlled movement
;G1 Z8 F500;         ; Raise brush - controlled movement
G1 F1200;           ; Set feed rate to 1000

; Return to drawing position
G0 X49.505 Y64.969 F1200;  ; Return to position with raised Z
G1 Z0 F500;                       ; Lower Z to drawing position
G0 Z2.8F500
G0 X70.931Y63.91Z2.8F1500
G1 Z0F500
G1 X68.846Y64.824Z0F1200
G1 X70.086Y66.511Z0F1200
G1 X72.172Y65.603Z0F1200
G1 X74.256Y64.687Z0F1200
G1 X73.014Y62.987Z0F1200
G1 X70.931Y63.91Z0F1200
G0 Z2.8F500
G0 X67.455Y64.452Z2.8F1500
G1 Z0F500
G1 X69.787Y67.623Z0F1200
G1 X72.533Y66.428Z0F1200
G1 X75.644Y65.06Z0F1200
G1 X73.313Y61.871Z0F1200
G1 X70.569Y63.085Z0F1200
G1 X67.455Y64.452Z0F1200
G0 Z2.8F500
G0 X65.498Y64.367Z2.8F1500
G1 Z0F500
G1 X65.721Y64.269Z0F1200
G1 X68.74Y62.939Z0F1200
G1 X72.775Y61.138Z0F1200
G1 X70.287Y57.761Z0F1200
G1 X67.565Y58.99Z0F1200
G1 X64.48Y60.37Z0F1200
G1 X65.254Y61.413Z0F1200
G1 X64.725Y61.646Z0F1200
G1 X63.821Y62.042Z0F1200
G1 X63.049Y61.007Z0F1200
G1 X62.532Y60.315Z0F1200
G1 X66.259Y58.643Z0F1200
G1 X70.605Y56.655Z0F1200
G1 X71.192Y56.383Z0F1200
G1 X74.51Y60.898Z0F1200
G1 X77.626Y65.181Z0F1200
G1 X77.392Y65.284Z0F1200
G1 X73.979Y66.776Z0F1200
G1 X70.559Y68.248Z0F1200
G1 X68.887Y68.958Z0F1200
G1 X67.063Y66.481Z0F1200
G1 X65.498Y64.367Z0F1200
G0 Z2.8F500
G0 X63.92Y62.981Z2.8F1500
G1 Z0F500
G1 X63.731Y63.031Z0F1200
G1 X63.548Y63.011Z0F1200
G1 X63.408Y62.951Z0F1200
G1 X63.318Y62.873Z0F1200
G1 X62.328Y61.546Z0F1200
G1 X61.34Y60.224Z0F1200
G1 X61.289Y60.097Z0F1200
G1 X61.325Y59.966Z0F1200
G1 X61.423Y59.849Z0F1200
G1 X61.54Y59.773Z0F1200
G1 X65.888Y57.823Z0F1200
G1 X70.229Y55.837Z0F1200
G1 X71.089Y55.439Z0F1200
G1 X71.271Y55.389Z0F1200
G1 X71.451Y55.407Z0F1200
G1 X71.598Y55.463Z0F1200
G1 X71.69Y55.541Z0F1200
G1 X75.237Y60.368Z0F1200
G1 X78.798Y65.261Z0F1200
G1 X78.838Y65.365Z0F1200
G1 X78.828Y65.496Z0F1200
G1 X78.76Y65.629Z0F1200
G1 X78.616Y65.728Z0F1200
G1 X77.752Y66.109Z0F1200
G1 X74.335Y67.603Z0F1200
G1 X70.915Y69.075Z0F1200
G1 X68.979Y69.897Z0F1200
G1 X68.789Y69.944Z0F1200
G1 X68.604Y69.921Z0F1200
G1 X68.463Y69.858Z0F1200
G1 X68.373Y69.778Z0F1200
G1 X66.339Y67.016Z0F1200
G1 X64.31Y64.275Z0F1200
G1 X64.267Y64.174Z0F1200
G1 Y64.045Z0F1200
G1 X64.341Y63.92Z0F1200
G1 X64.495Y63.822Z0F1200
G1 X65.36Y63.445Z0F1200
G1 X68.375Y62.117Z0F1200
G1 X71.387Y60.772Z0F1200
G1 X69.994Y58.881Z0F1200
G1 X67.933Y59.811Z0F1200
G1 X65.871Y60.733Z0F1200
G1 X66.439Y61.499Z0F1200
G1 X66.479Y61.599Z0F1200
G1 X66.468Y61.727Z0F1200
G1 X66.404Y61.855Z0F1200
G1 X66.255Y61.955Z0F1200
G1 X65.088Y62.469Z0F1200
G1 X63.92Y62.981Z0F1200

; Color 1 picking sequence
G1 Z10 F500;         ; Raise brush to safe height
;G0 X2 Y0 F1000;     ; Rapid move to brush cleaning position
;G1 Z0 F500;         ; Lower brush for cleaning - controlled movement
;G1 Z2 F500;         ; Raise brush slightly - controlled movement
;G1 X22 Y0 Z8 F800;     ; Move across cleaning area - controlled movement
;G1 Z8 F500;         ; Maintain brush height - controlled movement
G0 X85 Y0 F1200;    ; Rapid move to color 1 position
G1 Z0 F500;         ; Lower into color - controlled movement
G1 X79 Y1 F500;     ; Small movement in paint - controlled movement
G1 Z7 F500;         ; Raise from color - controlled movement
G1 X82 Y1 F500;     ; Movement in paint - controlled movement
G1 Z1 F500;         ; Lower slightly - controlled movement
G1 X71 Y10 Z10 F500;     ; Move in paint - controlled movement
;G1 Z8 F500;         ; Raise brush - controlled movement
G1 F1200;           ; Set feed rate to 1000

; Return to drawing position
G0 X63.920 Y62.981 F1200;  ; Return to position with raised Z
G1 Z0 F500;                       ; Lower Z to drawing position
G0 Z2.8F500
G0 X81.727Y63.354Z2.8F1500
G1 Z0F500
G1 X80.52Y61.685Z0F1200
G1 X80.059Y61.049Z0F1200
G1 X80.615Y60.794Z0F1200
G1 X81.499Y60.388Z0F1200
G1 X82.606Y61.92Z0F1200
G1 X85.356Y60.651Z0F1200
G1 X88.417Y59.226Z0F1200
G1 X86.124Y56.038Z0F1200
G1 X83.873Y57.095Z0F1200
G1 X82.865Y57.566Z0F1200
G1 X82.13Y57.909Z0F1200
G1 X81.57Y57.136Z0F1200
G1 X82.783Y56.566Z0F1200
G1 X85.556Y55.25Z0F1200
G1 X83.047Y51.788Z0F1200
G1 X80.304Y53.098Z0F1200
G1 X77.251Y54.544Z0F1200
G1 X78.297Y55.978Z0F1200
G1 X77.736Y56.239Z0F1200
G1 X76.852Y56.649Z0F1200
G1 X75.95Y55.417Z0F1200
G1 X75.262Y54.481Z0F1200
G1 X75.524Y54.357Z0F1200
G1 X78.919Y52.742Z0F1200
G1 X82.309Y51.105Z0F1200
G1 X83.934Y50.312Z0F1200
G1 X85.342Y52.256Z0F1200
G1 X86.787Y54.259Z0F1200
G1 X86.757Y54.318Z0F1200
G1 X86.202Y54.824Z0F1200
G1 X86.753Y56.02Z0F1200
G1 X87.565Y55.918Z0F1200
G1 X87.845Y55.959Z0F1200
G1 X88.045Y56.01Z0F1200
G1 X89.373Y57.863Z0F1200
G1 X90.439Y59.357Z0F1200
G1 X90.167Y59.485Z0F1200
G1 X86.743Y61.072Z0F1200
G1 X83.309Y62.64Z0F1200
G1 X81.727Y63.354Z0F1200
G0 Z2.8F500
G0 X81.215Y64.182Z2.8F1500
G1 Z0F500
G1 X79.791Y62.212Z0F1200
G1 X78.896Y60.979Z0F1200
G1 X78.852Y60.875Z0F1200
G1 Y60.741Z0F1200
G1 X78.925Y60.611Z0F1200
G1 X79.077Y60.509Z0F1200
G1 X80.24Y59.977Z0F1200
G1 X81.402Y59.441Z0F1200
G1 X81.582Y59.391Z0F1200
G1 X81.759Y59.406Z0F1200
G1 X81.911Y59.471Z0F1200
G1 X82.005Y59.552Z0F1200
G1 X82.902Y60.793Z0F1200
G1 X84.978Y59.835Z0F1200
G1 X87.051Y58.869Z0F1200
G1 X85.83Y57.17Z0F1200
G1 X84.254Y57.911Z0F1200
G1 X83.247Y58.382Z0F1200
G1 X82.238Y58.851Z0F1200
G1 X82.095Y58.891Z0F1200
G1 X81.915Y58.898Z0F1200
G1 X81.751Y58.858Z0F1200
G1 X81.63Y58.752Z0F1200
G1 X80.408Y57.067Z0F1200
G1 X80.356Y56.935Z0F1200
G1 X80.391Y56.798Z0F1200
G1 X80.488Y56.676Z0F1200
G1 X80.604Y56.596Z0F1200
G1 X82.398Y55.752Z0F1200
G1 X84.192Y54.901Z0F1200
G1 X82.758Y52.923Z0F1200
G1 X80.689Y53.912Z0F1200
G1 X78.619Y54.892Z0F1200
G1 X79.457Y56.042Z0F1200
G1 X79.497Y56.145Z0F1200
G1 X79.487Y56.277Z0F1200
G1 X79.419Y56.413Z0F1200
G1 X79.276Y56.514Z0F1200
G1 X78.115Y57.056Z0F1200
G1 X76.954Y57.595Z0F1200
G1 X76.765Y57.647Z0F1200
G1 X76.582Y57.629Z0F1200
G1 X76.441Y57.568Z0F1200
G1 X76.351Y57.488Z0F1200
G1 X75.224Y55.95Z0F1200
G1 X74.099Y54.418Z0F1200
G1 X74.056Y54.317Z0F1200
G1 X74.059Y54.19Z0F1200
G1 X74.129Y54.054Z0F1200
G1 X74.28Y53.949Z0F1200
G1 X75.139Y53.544Z0F1200
G1 X78.53Y51.931Z0F1200
G1 X81.916Y50.296Z0F1200
G1 X83.828Y49.362Z0F1200
G1 X84.009Y49.309Z0F1200
G1 X84.189Y49.326Z0F1200
G1 X84.336Y49.382Z0F1200
G1 X84.429Y49.461Z0F1200
G1 X86.072Y51.73Z0F1200
G1 X87.718Y54.012Z0F1200
G1 X87.75Y54.212Z0F1200
G1 X87.652Y54.544Z0F1200
G1 X87.484Y54.873Z0F1200
G1 X87.295Y55.045Z0F1200
G1 X87.574Y55.011Z0F1200
G1 X88.021Y55.075Z0F1200
G1 X88.445Y55.184Z0F1200
G1 X88.627Y55.277Z0F1200
G1 X90.105Y57.34Z0F1200
G1 X91.586Y59.415Z0F1200
G1 X91.627Y59.521Z0F1200
G1 X91.618Y59.656Z0F1200
G1 X91.551Y59.794Z0F1200
G1 X91.408Y59.897Z0F1200
G1 X90.548Y60.3Z0F1200
G1 X87.116Y61.891Z0F1200
G1 X83.679Y63.46Z0F1200

; Color 1 picking sequence
G1 Z10 F500;         ; Raise brush to safe height
;G0 X2 Y0 F1000;     ; Rapid move to brush cleaning position
;G1 Z0 F500;         ; Lower brush for cleaning - controlled movement
;G1 Z2 F500;         ; Raise brush slightly - controlled movement
;G1 X22 Y0 Z8 F800;     ; Move across cleaning area - controlled movement
;G1 Z8 F500;         ; Maintain brush height - controlled movement
G0 X85 Y0 F1200;    ; Rapid move to color 1 position
G1 Z0 F500;         ; Lower into color - controlled movement
G1 X79 Y1 F500;     ; Small movement in paint - controlled movement
G1 Z7 F500;         ; Raise from color - controlled movement
G1 X82 Y1 F500;     ; Movement in paint - controlled movement
G1 Z1 F500;         ; Lower slightly - controlled movement
G1 X71 Y10 Z10 F500;     ; Move in paint - controlled movement
;G1 Z8 F500;         ; Raise brush - controlled movement
G1 F1200;           ; Set feed rate to 1000

; Return to drawing position
G0 X83.679 Y63.460 F1200;  ; Return to position with raised Z
G1 Z0 F500;                       ; Lower Z to drawing position
G1 X81.82Y64.299Z0F1200
G1 X81.631Y64.349Z0F1200
G1 X81.447Y64.328Z0F1200
G1 X81.306Y64.264Z0F1200
G1 X81.215Y64.182Z0F1200
M9
M5
G1 Z10 F500
G90
G1 Z10 F500
G1 Y100 F1000

; Return to 2,0 wash and park
G1 Z10 F500;         ; Raise brush to safe height
G0 X2 Y0 F1000;     ; Return to cleaning position
G1 Z0 F500;         ; Lower brush for cleaning
G1 Z2 F500;         ; Raise brush slightly
G1 X22 Y0 Z8 F500;     ; Move across cleaning area
G1 Z10 F500;         ; Raise brush to safe height
G0 X2 Y0 F1000;     ; Return to wash position
G1 Z0 F500;         ; Lower brush for cleaning
G1 Z2 F500;         ; Raise brush slightly
G1 X22 Y0 Z8 F500;     ; Move across cleaning area
G1 Z10 F500;         ; Raise brush completely
G0 X20 Y120 Z10 F500;; Move to parking position with Z at safe height
M2;                 ; End program
