;LightBurn 1.6.04
;Custom GCode device profile, absolute coords
;Bounds: X44.91 Y29.94 to X101.09 Y100.06
G00 G17 G40 G21 G54
G90
M4
;Cut @ 1200 mm/min, 90% power

M8
G0Z4
G0 X50.338Y32.159Z0
G1 Z0
G91
G0Z4
G0 Z0
G1 Z0
G90
;Layer C3
G1 X49.915Y31.845Z-3S900F1200
G1 X49.293Y31.715
G1 X48.713Y31.794
G1 X48.116Y32.185
G1 X47.776Y32.736
G1 X47.645Y33.383
G1 Y34.063
G1 X47.85Y34.693
G1 X48.273Y35.191
G1 X48.771Y35.473
G1 X49.318Y35.556
G1 X49.783Y35.473
G1 X50.098Y35.323
G1 X50.231Y35.166
G91
G0Z4
G0 Z0
G1 Z0
G90
G0Z4
G0 X51.922Y34.876Z0
G1 Z0
G91
G0Z4
G0 Z0
G1 Z0
G90
G1 X51.74Y34.511Z-3
G1 X51.586Y33.963
G1 Y33.54
G1 X51.637Y33.051
G1 X51.765Y32.603
G1 X52.08Y32.185
G1 X52.445Y31.897
G1 X52.843Y31.741
G1 X53.208Y31.715
G1 X53.233
G1 X53.755Y31.845
G1 X54.253Y32.185
G1 X54.56Y32.711
G1 X54.692Y33.283
G1 X54.717Y33.831
G1 X54.643Y34.328
G1 X54.46Y34.768
G1 X54.195Y35.108
G1 X53.83Y35.423
G1 X53.44Y35.556
G1 X53.075Y35.581
G1 X52.652Y35.506
G1 X52.262Y35.265
G1 X51.922Y34.876
G91
G0Z4
G0 Z0
G1 Z0
G90
G0Z4
G0 X56.5Y31.689Z0
G1 Z0
G91
G0Z4
G0 Z0
G1 Z0
G90
G1 Y35.531Z-3
G1 Y34.668
G1 X56.865Y34.983
G1 X57.205Y35.265
G1 X57.52Y35.473
G1 X57.91Y35.581
G1 X58.25Y35.531
G1 X58.482Y35.423
G1 X58.748Y35.166
G1 X58.93Y34.718
G1 X58.98Y34.171
G1 Y31.689
G1 Y34.585
G1 X59.088Y34.801
G1 X59.635Y35.29
G1 X60.05Y35.506
G1 X60.39Y35.605
G1 X60.755Y35.506
G1 X60.995Y35.373
G1 X61.277Y35.033
G1 X61.41Y34.353
G1 Y31.715
G91
G0Z4
G0 Z0
G1 Z0
G90
G0Z4
G0 X63.5Y32.342Z0
G1 Z0
G91
G0Z4
G0 Z0
G1 Z0
G90
G1 X63.923Y32.055Z-3
G1 X64.363Y31.819
G1 X64.761Y31.741
G1 X65.25Y31.767
G1 X65.565Y31.924
G1 X65.988Y32.316
G1 X66.27Y32.918
G1 X66.353Y33.491
G1 Y34.171
G1 X66.17Y34.768
G1 X65.806Y35.29
G1 X65.383Y35.531
G1 X64.835
G1 X64.387Y35.448
G1 X63.865Y35.166
G1 X63.425Y34.718
G1 Y35.556
G1 Y29.941
G91
G0Z4
G0 Z0
G1 Z0
G90
G0Z4
G0 X67.839Y33.756Z0
G1 Z0
G91
G0Z4
G0 Z0
G1 Z0
G90
G1 X70.715Z-3
G1 Y34.22
G1 X70.583Y34.826
G1 X70.193Y35.29
G1 X69.795Y35.556
G1 X69.247Y35.581
G1 X68.7Y35.423
G1 X68.227Y35.033
G1 X68.045Y34.643
G1 X67.839Y34.146
G1 X67.787Y33.623
G1 X67.917Y32.993
G1 X68.153Y32.421
G1 X68.625Y31.95
G1 X69.065Y31.741
G1 X69.612Y31.689
G1 X70.085Y31.819
G1 X70.533Y32.055
G91
G0Z4
G0 Z0
G1 Z0
G90
G0Z4
G0 X72.332Y31.689Z0
G1 Z0
G91
G0Z4
G0 Z0
G1 Z0
G90
G1 Y35.556Z-3
G1 Y34.618
G1 X72.697Y34.983
G1 X73.037Y35.29
G1 X73.303Y35.448
G1 X73.693Y35.556
G1 X73.95Y35.581
G1 X74.348Y35.473
G1 X74.58Y35.323
G1 X74.762Y35.058
G1 X74.92Y34.693
G1 Y31.689
G91
G0Z4
G0 Z0
G1 Z0
G90
G0Z4
G0 X76.463Y32.212Z0
G1 Z0
G91
G0Z4
G0 Z0
G1 Z0
G90
G1 X76.935Y31.897Z-3
G1 X77.458Y31.741
G1 X77.872Y31.689
G1 X78.395Y31.872
G1 X78.785Y32.185
G1 X78.917Y32.653
G1 X78.818Y33.126
G1 X78.345Y33.515
G1 X77.69Y33.781
G1 X77.093Y34.038
G1 X76.753Y34.378
G1 X76.673Y34.768
G1 X76.803Y35.141
G1 X77.226Y35.506
G1 X77.74Y35.581
G1 X78.27Y35.473
G1 X78.71Y35.216
G91
G0Z4
G0 Z0
G1 Z0
G90
G0Z4
G0 X80.435Y35.108Z0
G1 Z0
G91
G0Z4
G0 Z0
G1 Z0
G90
G1 X80.982Y35.423Z-3
G1 X81.447Y35.556
G1 X81.92Y35.605
G1 X82.285Y35.473
G1 X82.6Y35.191
G1 X82.807Y34.768
G1 X82.832Y34.196
G1 Y31.741
G1 X82.807Y32.446
G1 X82.467Y32.212
G1 X82.102Y31.95
G1 X81.687Y31.767
G1 X81.215Y31.689
G1 X80.825Y31.819
G1 X80.51Y32.028
G1 X80.274Y32.368
G1 Y32.869
G1 X80.46Y33.258
G1 X80.875Y33.598
G1 X81.289Y33.756
G1 X81.787Y33.914
G1 X82.26Y33.988
G1 X82.55Y34.013
G1 X82.782
G91
G0Z4
G0 Z0
G1 Z0
G90
G0Z4
G0 X84.93Y36.625Z0
G1 Z0
G91
G0Z4
G0 Z0
G1 Z0
G90
G1 Y35.448Z-3
G1 X86.183
G1 X84.169
G1 X84.93
G1 Y32.761
G1 X84.98Y32.185
G1 X85.27Y31.845
G1 X85.602Y31.741
G1 X85.975
G1 X86.257Y31.872
G91
G0Z4
G0 Z0
G1 Z0
G90
G0Z4
G0 X87.592Y31.689Z0
G1 Z0
G91
G0Z4
G0 Z0
G1 Z0
G90
G1 Y35.531Z-3
G91
G0Z4
G0 Z0
G1 Z0
G90
G0Z4
G0 X87.775Y36.708Z0
G1 Z0
G91
G0Z4
G0 Z0
G1 Z0
G90
G1 Y37.123Z-3
G1 X87.357
G1 Y36.708
G1 X87.775
G91
G0Z4
G0 Z0
G1 Z0
G90
G0Z4
G0 X90.072Y35.265Z0
G1 Z0
G91
G0Z4
G0 Z0
G1 Z0
G90
G1 X89.732Y34.876Z-3
G1 X89.55Y34.511
G1 X89.395Y33.963
G1 Y33.54
G1 X89.447Y33.051
G1 X89.575Y32.603
G1 X89.89Y32.185
G1 X90.255Y31.897
G1 X90.653Y31.741
G1 X91.018Y31.715
G1 X91.043
G1 X91.565Y31.845
G1 X92.063Y32.185
G1 X92.369Y32.711
G1 X92.502Y33.283
G1 X92.527Y33.831
G1 X92.452Y34.328
G1 X92.27Y34.768
G1 X92.005Y35.108
G1 X91.64Y35.423
G1 X91.25Y35.556
G1 X90.885Y35.581
G1 X90.462Y35.506
G1 X90.072Y35.265
G91
G0Z4
G0 Z0
G1 Z0
G90
G0Z4
G0 X94.335Y31.689Z0
G1 Z0
G91
G0Z4
G0 Z0
G1 Z0
G90
G1 Y35.556Z-3
G1 Y34.618
G1 X94.7Y34.983
G1 X95.04Y35.29
G1 X95.305Y35.448
G1 X95.695Y35.556
G1 X95.952Y35.581
G1 X96.35Y35.473
G1 X96.582Y35.323
G1 X96.765Y35.058
G1 X96.922Y34.693
G1 Y31.689
G91
G0Z4
G0 Z0
G1 Z0
G90
G0Z4
G0 X97.146Y45.152Z0
G1 Z0
G91
G0Z4
G0 Z0
G1 Z0
G90
G1 Y49.2Z-3
G1 X100.696
G1 X101.086Y48.811
G1 Y45.127
G91
G0Z4
G0 Z0
G1 Z0
G90
G0Z4
G0 X95.969Y45.806Z0
G1 Z0
G91
G0Z4
G0 Z0
G1 Z0
G90
G1 Y48.943Z-3
G1 X95.604Y49.333
G1 X92.601
G1 X92.079Y48.761
G1 Y45.858
G1 X92.518Y45.388
G1 X95.554
G1 X95.969Y45.806
G91
G0Z4
G0 Z0
G1 Z0
G90
G0Z4
G0 X90.719Y45.152Z0
G1 Z0
G91
G0Z4
G0 Z0
G1 Z0
G90
G1 X90.694Y45.205Z-3
G1 Y49.441
G91
G0Z4
G0 Z0
G1 Z0
G90
G0Z4
G0 X90.561Y50.585Z0
G1 Z0
G91
G0Z4
G0 Z0
G1 Z0
G90
G1 Y50.925Z-3
G1 X90.901
G1 Y50.585
G1 X90.561
G91
G0Z4
G0 Z0
G1 Z0
G90
G0Z4
G0 X87.849Y50.975Z0
G1 Z0
G91
G0Z4
G0 Z0
G1 Z0
G90
G1 Y49.25Z-3
G1 X90.014
G1 X87.849
G1 Y45.754
G1 X88.14Y45.44
G1 X90.014
G91
G0Z4
G0 Z0
G1 Z0
G90
G0Z4
G0 X86.647Y47.293Z0
G1 Z0
G91
G0Z4
G0 Z0
G1 Z0
G90
G1 X82.757Z-3
G1 Y45.806
G1 X83.172Y45.388
G1 X86.697
G1 Y48.86
G1 X86.257Y49.283
G1 X82.575
G91
G0Z4
G0 Z0
G1 Z0
G90
G0Z4
G0 X81.53Y48.653Z0
G1 Z0
G91
G0Z4
G0 Z0
G1 Z0
G90
G1 Y48.885Z-3
G1 X81.115Y49.308
G1 X78.163
G1 X77.715Y48.885
G1 Y47.716
G1 X78.138Y47.293
G1 X81.19
G1 X81.555Y46.928
G1 Y45.806
G1 X81.165Y45.388
G1 X78.03
G1 X77.665Y45.754
G1 Y46.015
G91
G0Z4
G0 Z0
G1 Z0
G90
G0Z4
G0 X76.512Y45.127Z0
G1 Z0
G91
G0Z4
G0 Z0
G1 Z0
G90
G1 Y48.811Z-3
G1 X76.123Y49.2
G1 X72.573
G1 Y45.152
G91
G0Z4
G0 Z0
G1 Z0
G90
G0Z4
G0 X71.611Y45.362Z0
G1 Z0
G91
G0Z4
G0 Z0
G1 Z0
G90
G1 X67.895Z-3
G1 X67.481Y45.806
G1 Y48.835
G1 X67.929Y49.308
G1 X70.956
G1 X71.395Y48.86
G1 Y47.351
G1 X67.456
G91
G0Z4
G0 Z0
G1 Z0
G90
G0Z4
G0 X62.695Y45.701Z0
G1 Z0
G91
G0Z4
G0 Z0
G1 Z0
G90
G1 X63.069Y45.336Z-3
G1 X66.228
G1 X66.568Y45.675
G1 Y48.885
G1 X66.203Y49.225
G1 X62.646
G1 Y43.32
G91
G0Z4
G0 Z0
G1 Z0
G90
G0Z4
G0 X61.576Y45.152Z0
G1 Z0
G91
G0Z4
G0 Z0
G1 Z0
G90
G1 Y48.835Z-3
G1 X61.161Y49.25
G1 X58.806
G1 X58.441Y48.885
G1 Y45.127
G1 Y48.885
G1 X58.051Y49.25
G1 X55.256
G1 Y45.205
G91
G0Z4
G0 Z0
G1 Z0
G90
G0Z4
G0 X54.078Y45.806Z0
G1 Z0
G91
G0Z4
G0 Z0
G1 Z0
G90
G1 Y48.943Z-3
G1 X53.714Y49.333
G1 X50.711
G1 X50.189Y48.761
G1 Y45.858
G1 X50.628Y45.388
G1 X53.664
G1 X54.078Y45.806
G91
G0Z4
G0 Z0
G1 Z0
G90
G0Z4
G0 X49.069Y45.388Z0
G1 Z0
G91
G0Z4
G0 Z0
G1 Z0
G90
G1 X45.362Z-3
G1 X44.914Y45.858
G1 Y48.86
G1 X45.362Y49.308
G1 X49.069
G91
G0Z4
G0 Z0
G1 Z0
G90
G0Z4
G0 X51.044Y59.173Z0
G1 Z0
G91
G0Z4
G0 Z0
G1 Z0
G90
G1 X51.459Y58.329Z-3
G1 X52.316Y57.908
G1 X53.574
G1 X54.417Y58.329
G1 X54.832Y58.751
G1 X55.26Y59.594
G1 Y60.852
G1 X54.832Y61.709
G1 X54.417Y62.124
G1 X53.145Y62.539
G1 X52.731
G91
G0Z4
G0 Z0
G1 Z0
G90
G0Z4
G0 X53.145Z0
G1 Z0
G91
G0Z4
G0 Z0
G1 Z0
G90
G1 X54.417Y62.967Z-3
G1 X55.26Y63.395
G1 X55.688Y63.81
G1 X56.103Y64.653
G1 Y65.496
G1 X55.688Y66.34
G1 X54.832Y66.768
G1 X53.574
G1 X52.316Y66.34
G1 X51.459Y65.911
G1 X50.629Y65.081
G1 X49.773Y63.81
G1 X49.358Y62.967
G1 X48.943Y61.709
G1 X48.515Y59.594
G1 Y58.329
G1 X48.943Y57.908
G1 X49.358
G1 X50.201Y58.329
G1 X51.044Y59.173
G1 X51.887Y60.437
G1 X52.316Y61.28
G1 X52.731Y62.539
G1 X53.145Y64.225
G1 Y65.496
G1 X52.731Y65.911
G91
G0Z4
G0 Z0
G1 Z0
G90
G0Z4
G0 X60.734Y60.437Z0
G1 Z0
G91
G0Z4
G0 Z0
G1 Z0
G90
G1 X60.319Y61.28Z-3
G1 X59.463Y61.709
G1 X58.633
G1 X57.783Y61.28
G1 X57.361Y60.852
G1 X56.94Y60.022
G1 Y59.173
G1 X57.361Y58.329
G1 X58.205Y57.908
G1 X59.048
G1 X59.891Y58.329
G1 X60.319Y59.173
G1 X61.149Y61.709
G1 X60.734Y59.594
G1 Y58.329
G1 X61.149Y57.908
G1 X61.577
G1 X62.42Y58.329
G1 X62.835Y58.751
G1 X63.692Y60.022
G91
G0Z4
G0 Z0
G1 Z0
G90
G0Z4
G0 X66.636Y60.852Z0
G1 Z0
G91
G0Z4
G0 Z0
G1 Z0
G90
G1 Y61.28Z-3
G1 X66.208Y61.709
G1 X65.378
G1 X64.528Y61.28
G1 X64.107Y60.852
G1 X63.685Y60.022
G1 Y59.173
G1 X64.107Y58.329
G1 X64.95Y57.908
G1 X66.208
G1 X67.479Y58.751
G1 X68.323Y60.022
G91
G0Z4
G0 Z0
G1 Z0
G90
G0Z4
G0 X68.316Z0
G1 Z0
G91
G0Z4
G0 Z0
G1 Z0
G90
G1 X69.159Y61.28Z-3
G1 X70.424Y63.395
G1 X70.839Y64.225
G1 X71.267Y65.496
G1 Y66.34
G1 X70.839Y66.768
G1 X70.009Y66.34
G1 X69.581Y65.496
G1 X69.159Y63.81
G1 X68.738Y61.28
G1 X68.316Y57.908
G91
G0Z4
G0 Z0
G1 Z0
G90
G0Z4
G0 Z0
G1 Z0
G91
G0Z4
G0 Z0
G1 Z0
G90
G1 X68.738Y59.173Z-3
G1 X69.159Y60.022
G1 X70.009Y61.28
G1 X70.839Y61.709
G1 X71.695
G1 X72.11Y61.28
G1 Y60.437
G1 X71.267Y60.022
G1 X70.009
G91
G0Z4
G0 Z0
G1 Z0
G90
G0Z4
G0 Z0
G1 Z0
G91
G0Z4
G0 Z0
G1 Z0
G90
G1 X70.839Y59.594Z-3
G1 X71.267Y58.329
G1 X71.695Y57.908
G1 X72.11
G1 X72.953Y58.329
G1 X73.382Y58.751
G1 X74.212Y60.022
G91
G0Z4
G0 Z0
G1 Z0
G90
G0Z4
G0 X74.218Z0
G1 Z0
G91
G0Z4
G0 Z0
G1 Z0
G90
G1 X75.061Y61.28Z-3
G1 X76.326Y63.395
G1 X76.741Y64.225
G1 X77.169Y65.496
G1 Y66.34
G1 X76.741Y66.768
G1 X75.911Y66.34
G1 X75.483Y65.496
G1 X75.061Y63.81
G1 X74.64Y60.852
G1 Y58.329
G1 X75.061Y57.908
G1 X75.483
G1 X76.326Y58.329
G1 X76.741Y58.751
G1 X77.598Y60.022
G91
G0Z4
G0 Z0
G1 Z0
G90
G0Z4
G0 X81.385Y60.437Z0
G1 Z0
G91
G0Z4
G0 Z0
G1 Z0
G90
G1 X80.97Y61.28Z-3
G1 X80.114Y61.709
G1 X79.284
G1 X78.434Y61.28
G1 X78.013Y60.852
G1 X77.591Y60.022
G1 Y59.173
G1 X78.013Y58.329
G1 X78.856Y57.908
G1 X79.699
G1 X80.542Y58.329
G1 X80.97Y59.173
G1 X81.8Y61.709
G1 X81.385Y59.594
G1 Y58.329
G1 X81.8Y57.908
G1 X82.228
G1 X83.072Y58.329
G1 X83.486Y58.751
G1 X84.343Y60.022
G91
G0Z4
G0 Z0
G1 Z0
G90
G0Z4
G0 X84.336Z0
G1 Z0
G91
G0Z4
G0 Z0
G1 Z0
G90
G1 X85.18Y61.28Z-3
G1 X85.601Y62.124
G1 Y61.28
G1 X86.444Y60.022
G1 X86.859Y59.173
G1 Y58.329
G1 X86.029Y57.908
G91
G0Z4
G0 Z0
G1 Z0
G90
G0Z4
G0 X84.336Y58.329Z0
G1 Z0
G91
G0Z4
G0 Z0
G1 Z0
G90
G1 X85.18Y57.908Z-3
G1 X86.859
G1 X87.716Y58.329
G1 X88.131Y58.751
G1 X88.974Y60.022
G91
G0Z4
G0 Z0
G1 Z0
G90
G0Z4
G0 X88.967Z0
G1 Z0
G91
G0Z4
G0 Z0
G1 Z0
G90
G1 X89.81Y61.28Z-3
G1 X91.075Y63.395
G1 X91.49Y64.225
G1 X91.918Y65.496
G1 Y66.34
G1 X91.49Y66.768
G1 X90.66Y66.34
G1 X90.232Y65.496
G1 X89.81Y63.81
G1 X89.389Y61.28
G1 X88.967Y57.908
G91
G0Z4
G0 Z0
G1 Z0
G90
G0Z4
G0 Z0
G1 Z0
G91
G0Z4
G0 Z0
G1 Z0
G90
G1 X89.389Y59.173Z-3
G1 X89.81Y60.022
G1 X90.66Y61.28
G1 X91.49Y61.709
G1 X92.347
G1 X92.761Y61.28
G1 Y60.437
G1 X92.347Y59.173
G1 Y58.329
G1 X92.761Y57.908
G1 X93.176
G1 X94.033Y58.329
G1 X94.448Y58.751
G1 X95.291Y60.022
G91
G0Z4
G0 Z0
G1 Z0
G90
G0Z4
G0 X87.911Y78.976Z0
G1 Z0
G91
G0Z4
G0 Z0
G1 Z0
G90
G1 Y80.782Z-3
G1 X87.817Y81.001
G1 X87.707Y81.161
G1 X87.567Y81.25
G1 X87.328Y81.315
G1 X87.174Y81.3
G1 X86.939Y81.235
G1 X86.78Y81.141
G1 X86.576Y80.956
G1 X86.356Y80.737
G1 Y81.3
G1 Y78.976
G91
G0Z4
G0 Z0
G1 Z0
G90
G0Z4
G0 X84.991Y79.275Z0
G1 Z0
G91
G0Z4
G0 Z0
G1 Z0
G90
G1 X85.175Y79.591Z-3
G1 X85.255Y79.934
G1 X85.27Y80.263
G1 X85.225Y80.563
G1 X85.115Y80.827
G1 X84.956Y81.031
G1 X84.736Y81.22
G1 X84.502Y81.3
G1 X84.283Y81.315
G1 X84.029Y81.27
G1 X83.794Y81.126
G1 X83.59Y80.891
G1 X83.48Y80.672
G1 X83.388Y80.343
G1 Y80.089
G1 X83.418Y79.795
G1 X83.495Y79.526
G1 X83.685Y79.275
G1 X83.904Y79.102
G1 X84.143Y79.008
G1 X84.363Y78.992
G1 X84.377
G1 X84.691Y79.07
G1 X84.991Y79.275
G91
G0Z4
G0 Z0
G1 Z0
G90
G0Z4
G0 X82.304Y78.976Z0
G1 Z0
G91
G0Z4
G0 Z0
G1 Z0
G90
G1 Y81.285Z-3
G91
G0Z4
G0 Z0
G1 Z0
G90
G0Z4
G0 X82.414Y81.993Z0
G1 Z0
G91
G0Z4
G0 Z0
G1 Z0
G90
G1 Y82.242Z-3
G1 X82.162
G1 Y81.993
G1 X82.414
G91
G0Z4
G0 Z0
G1 Z0
G90
G0Z4
G0 X80.704Y81.943Z0
G1 Z0
G91
G0Z4
G0 Z0
G1 Z0
G90
G1 Y81.235Z-3
G1 X81.457
G1 X80.246
G1 X80.704
G1 Y79.62
G1 X80.734Y79.275
G1 X80.908Y79.07
G1 X81.108Y79.008
G1 X81.332
G1 X81.501Y79.086
G91
G0Z4
G0 Z0
G1 Z0
G90
G0Z4
G0 X79.413Y80.373Z0
G1 Z0
G91
G0Z4
G0 Z0
G1 Z0
G90
G1 X79.273Z-3
G1 X79.099Y80.358
G1 X78.815Y80.313
G1 X78.516Y80.219
G1 X78.266Y80.124
G1 X78.017Y79.92
G1 X77.906Y79.685
G1 Y79.384
G1 X78.047Y79.18
G1 X78.237Y79.055
G1 X78.471Y78.976
G1 X78.755Y79.023
G1 X79.004Y79.133
G1 X79.223Y79.29
G1 X79.428Y79.431
G1 X79.443Y79.008
G1 Y80.483
G1 X79.428Y80.827
G1 X79.303Y81.081
G1 X79.114Y81.25
G1 X78.895Y81.33
G1 X78.61Y81.3
G1 X78.331Y81.22
G1 X78.002Y81.031
G91
G0Z4
G0 Z0
G1 Z0
G90
G0Z4
G0 X76.966Y81.096Z0
G1 Z0
G91
G0Z4
G0 Z0
G1 Z0
G90
G1 X76.701Y81.25Z-3
G1 X76.382Y81.315
G1 X76.073Y81.27
G1 X75.819Y81.051
G1 X75.741Y80.827
G1 X75.789Y80.592
G1 X75.994Y80.388
G1 X76.352Y80.234
G1 X76.746Y80.074
G1 X77.03Y79.84
G1 X77.09Y79.556
G1 X77.01Y79.275
G1 X76.776Y79.086
G1 X76.462Y78.976
G1 X76.213Y79.008
G1 X75.899Y79.102
G1 X75.615Y79.29
G91
G0Z4
G0 Z0
G1 Z0
G90
G0Z4
G0 X74.688Y78.976Z0
G1 Z0
G91
G0Z4
G0 Z0
G1 Z0
G90
G1 Y80.782Z-3
G1 X74.593Y81.001
G1 X74.483Y81.161
G1 X74.344Y81.25
G1 X74.105Y81.315
G1 X73.95Y81.3
G1 X73.716Y81.235
G1 X73.556Y81.141
G1 X73.352Y80.956
G1 X73.133Y80.737
G1 Y81.3
G1 Y78.976
G91
G0Z4
G0 Z0
G1 Z0
G90
G0Z4
G0 X72.051Y79.196Z0
G1 Z0
G91
G0Z4
G0 Z0
G1 Z0
G90
G1 X71.782Y79.055Z-3
G1 X71.498Y78.976
G1 X71.169Y79.008
G1 X70.905Y79.133
G1 X70.62Y79.416
G1 X70.479Y79.76
G1 X70.401Y80.139
G1 X70.432Y80.453
G1 X70.556Y80.752
G1 X70.665Y80.986
G1 X70.949Y81.22
G1 X71.278Y81.315
G1 X71.607Y81.3
G1 X71.847Y81.141
G1 X72.081Y80.862
G1 X72.161Y80.498
G1 Y80.219
G1 X70.432
G91
G0Z4
G0 Z0
G1 Z0
G90
G0Z4
G0 X67.824Y79.369Z0
G1 Z0
G91
G0Z4
G0 Z0
G1 Z0
G90
G1 X68.078Y79.196Z-3
G1 X68.343Y79.055
G1 X68.582Y79.008
G1 X68.876Y79.023
G1 X69.065Y79.118
G1 X69.32Y79.353
G1 X69.489Y79.715
G1 X69.539Y80.059
G1 Y80.468
G1 X69.429Y80.827
G1 X69.21Y81.141
G1 X68.956Y81.285
G1 X68.627
G1 X68.358Y81.235
G1 X68.043Y81.066
G1 X67.779Y80.797
G1 Y81.3
G1 Y77.926
G91
G0Z4
G0 Z0
G1 Z0
G90
G0Z4
G0 X66.568Y78.992Z0
G1 Z0
G91
G0Z4
G0 Z0
G1 Z0
G90
G1 Y80.577Z-3
G1 X66.488Y80.986
G1 X66.319Y81.191
G1 X66.174Y81.27
G1 X65.955Y81.33
G1 X65.751Y81.27
G1 X65.501Y81.141
G1 X65.172Y80.847
G1 X65.108Y80.717
G1 Y78.976
G1 Y80.468
G1 X65.078Y80.797
G1 X64.968Y81.066
G1 X64.809Y81.22
G1 X64.669Y81.285
G1 X64.465Y81.315
G1 X64.23Y81.25
G1 X64.041Y81.126
G1 X63.837Y80.956
G1 X63.617Y80.767
G1 Y81.285
G1 Y78.976
G91
G0Z4
G0 Z0
G1 Z0
G90
G0Z4
G0 X62.267Y79.275Z0
G1 Z0
G91
G0Z4
G0 Z0
G1 Z0
G90
G1 X62.451Y79.591Z-3
G1 X62.531Y79.934
G1 X62.546Y80.263
G1 X62.501Y80.563
G1 X62.391Y80.827
G1 X62.232Y81.031
G1 X62.012Y81.22
G1 X61.778Y81.3
G1 X61.559Y81.315
G1 X61.305Y81.27
G1 X61.07Y81.126
G1 X60.866Y80.891
G1 X60.756Y80.672
G1 X60.664Y80.343
G1 Y80.089
G1 X60.694Y79.795
G1 X60.771Y79.526
G1 X60.961Y79.275
G1 X61.18Y79.102
G1 X61.419Y79.008
G1 X61.638Y78.992
G1 X61.653
G1 X61.967Y79.07
G1 X62.267Y79.275
G91
G0Z4
G0 Z0
G1 Z0
G90
G0Z4
G0 X59.914Y79.259Z0
G1 Z0
G91
G0Z4
G0 Z0
G1 Z0
G90
G1 X59.66Y79.07Z-3
G1 X59.286Y78.992
G1 X58.937Y79.039
G1 X58.578Y79.275
G1 X58.374Y79.605
G1 X58.295Y79.994
G1 Y80.403
G1 X58.419Y80.782
G1 X58.673Y81.081
G1 X58.972Y81.25
G1 X59.301Y81.3
G1 X59.58Y81.25
G1 X59.769Y81.161
G1 X59.849Y81.066
G91
G0Z4
G0 Z0
G1 Z0
G90
G0Z4
G0 X60.088Y87.209Z0
G1 Z0
G91
G0Z4
G0 Z0
G1 Z0
G90
G1 X61.913Z-3
G1 X62.162Y87.461
G1 Y89.346
G1 X61.942Y89.581
G1 X60.138
G1 X59.824Y89.237
G1 Y87.492
G1 X60.088Y87.209
G91
G0Z4
G0 Z0
G1 Z0
G90
G0Z4
G0 X59.151Z0
G1 Z0
G91
G0Z4
G0 Z0
G1 Z0
G90
G1 X56.923Z-3
G1 X56.654Y87.492
G1 Y89.296
G1 X56.923Y89.566
G1 X59.151
G91
G0Z4
G0 Z0
G1 Z0
G90
G0Z4
G0 X62.87Y87.099Z0
G1 Z0
G91
G0Z4
G0 Z0
G1 Z0
G90
G1 Y89.531Z-3
G1 X64.549
G1 X64.784Y89.311
G1 Y87.052
G1 Y89.311
G1 X65.003Y89.531
G1 X66.418
G1 X66.668Y89.281
G1 Y87.068
G91
G0Z4
G0 Z0
G1 Z0
G90
G0Z4
G0 X67.341Y87.398Z0
G1 Z0
G91
G0Z4
G0 Z0
G1 Z0
G90
G1 X67.565Y87.178Z-3
G1 X69.464
G1 X69.668Y87.382
G1 Y89.311
G1 X69.449Y89.516
G1 X67.311
G1 Y85.967
G91
G0Z4
G0 Z0
G1 Z0
G90
G0Z4
G0 X70.202Y88.389Z0
G1 Z0
G91
G0Z4
G0 Z0
G1 Z0
G90
G1 X72.569Z-3
G1 Y89.296
G1 X72.305Y89.566
G1 X70.486
G1 X70.217Y89.281
G1 Y87.461
G1 X70.466Y87.194
G1 X72.699
G91
G0Z4
G0 Z0
G1 Z0
G90
G0Z4
G0 X73.277Y87.068Z0
G1 Z0
G91
G0Z4
G0 Z0
G1 Z0
G90
G1 Y89.501Z-3
G1 X75.41
G1 X75.645Y89.267
G1 Y87.052
G91
G0Z4
G0 Z0
G1 Z0
G90
G0Z4
G0 X76.338Y87.586Z0
G1 Z0
G91
G0Z4
G0 Z0
G1 Z0
G90
G1 Y87.429Z-3
G1 X76.557Y87.209
G1 X78.441
G1 X78.675Y87.461
G1 Y88.135
G1 X78.456Y88.354
G1 X76.622
G1 X76.367Y88.609
G1 Y89.311
G1 X76.637Y89.566
G1 X78.411
G1 X78.66Y89.311
G1 Y89.172
G91
G0Z4
G0 Z0
G1 Z0
G90
G0Z4
G0 X79.288Y89.551Z0
G1 Z0
G91
G0Z4
G0 Z0
G1 Z0
G90
G1 X81.501Z-3
G1 X81.766Y89.296
G1 Y87.209
G1 X79.647
G1 X79.398Y87.461
G1 Y88.354
G1 X81.736
G91
G0Z4
G0 Z0
G1 Z0
G90
G0Z4
G0 X83.759Y87.241Z0
G1 Z0
G91
G0Z4
G0 Z0
G1 Z0
G90
G1 X82.633Z-3
G1 X82.458Y87.429
G1 Y89.531
G1 X83.759
G1 X82.458
G1 Y90.567
G91
G0Z4
G0 Z0
G1 Z0
G90
G0Z4
G0 X84.088Y90.538Z0
G1 Z0
G91
G0Z4
G0 Z0
G1 Z0
G90
G1 X84.293Z-3
G1 Y90.333
G1 X84.088
G1 Y90.538
G91
G0Z4
G0 Z0
G1 Z0
G90
G0Z4
G0 X84.168Y89.645Z0
G1 Z0
G91
G0Z4
G0 Z0
G1 Z0
G90
G1 Y87.099Z-3
G1 X84.183Y87.068
G91
G0Z4
G0 Z0
G1 Z0
G90
G0Z4
G0 X85Y87.492Z0
G1 Z0
G91
G0Z4
G0 Z0
G1 Z0
G90
G1 X85.265Y87.209Z-3
G1 X87.089
G1 X87.338Y87.461
G1 Y89.346
G1 X87.119Y89.581
G1 X85.314
G1 X85Y89.237
G1 Y87.492
G91
G0Z4
G0 Z0
G1 Z0
G90
G0Z4
G0 X88.046Y87.068Z0
G1 Z0
G91
G0Z4
G0 Z0
G1 Z0
G90
G1 Y89.501Z-3
G1 X90.179
G1 X90.414Y89.267
G1 Y87.052
G91
G0Z4
G0 Z0
G1 Z0
G90
G0Z4
G0 X83.13Y94.734Z0
G1 Z0
G91
G0Z4
G0 Z0
G1 Z0
G90
G1 X83.383Y96.761Z-3
G1 X83.637Y98.281
G1 X83.89Y99.295
G1 X84.148Y99.802
G1 X84.646Y100.059
G1 X84.904Y99.802
G1 Y99.295
G1 X84.646Y98.531
G1 X84.397Y98.032
G1 X83.637Y96.761
G1 X83.13Y96.005
G91
G0Z4
G0 Z0
G1 Z0
G90
G0Z4
G0 X83.134Z0
G1 Z0
G91
G0Z4
G0 Z0
G1 Z0
G90
G1 X82.627Y95.241Z-3
G1 X82.378Y94.987
G1 X81.863Y94.734
G1 X80.854
G1 X80.347Y94.987
G91
G0Z4
G0 Z0
G1 Z0
G90
G0Z4
G0 X81.365Y94.734Z0
G1 Z0
G91
G0Z4
G0 Z0
G1 Z0
G90
G1 X81.863Y94.987Z-3
G1 Y95.494
G1 X81.614Y96.005
G1 X81.107Y96.761
G1 Y97.268
G1 X80.854Y96.761
G1 X80.347Y96.005
G91
G0Z4
G0 Z0
G1 Z0
G90
G0Z4
G0 X80.351Z0
G1 Z0
G91
G0Z4
G0 Z0
G1 Z0
G90
G1 X79.836Y95.241Z-3
G1 X79.587Y94.987
G1 X79.08Y94.734
G1 X78.823
G1 X78.573Y94.987
G1 Y95.748
G1 X78.823Y97.018
G1 X78.324Y95.494
G1 X78.067Y94.987
G1 X77.56Y94.734
G1 X77.053
G1 X76.546Y94.987
G1 X76.293Y95.494
G1 Y96.005
G1 X76.546Y96.504
G1 X76.8Y96.761
G1 X77.31Y97.018
G1 X77.809
G1 X78.324Y96.761
G1 X78.573Y96.254
G91
G0Z4
G0 Z0
G1 Z0
G90
G0Z4
G0 X76.297Y96.005Z0
G1 Z0
G91
G0Z4
G0 Z0
G1 Z0
G90
G1 X75.782Y95.241Z-3
G1 X75.533Y94.987
G1 X75.026Y94.734
G1 X74.773
G1 X74.519Y94.987
G1 Y96.504
G1 X74.773Y98.281
G1 X75.026Y99.295
G1 X75.283Y99.802
G1 X75.782Y100.059
G1 X76.04Y99.802
G1 Y99.295
G1 X75.782Y98.531
G1 X75.533Y98.032
G1 X74.773Y96.761
G1 X74.266Y96.005
G91
G0Z4
G0 Z0
G1 Z0
G90
G0Z4
G0 X74.262Z0
G1 Z0
G91
G0Z4
G0 Z0
G1 Z0
G90
G1 X73.763Y95.241Z-3
G1 X73.506Y94.987
G1 X72.999Y94.734
G1 X72.75
G1 X72.492Y94.987
G1 X72.235Y95.748
G1 X71.736Y96.005
G91
G0Z4
G0 Z0
G1 Z0
G90
G0Z4
G0 Z0
G1 Z0
G91
G0Z4
G0 Z0
G1 Z0
G90
G1 X72.492Z-3
G1 X72.999Y96.254
G1 Y96.761
G1 X72.75Y97.018
G1 X72.235
G1 X71.736Y96.761
G1 X71.225Y96.005
G1 X70.972Y95.494
G1 X70.719Y94.734
G91
G0Z4
G0 Z0
G1 Z0
G90
G0Z4
G0 Z0
G1 Z0
G91
G0Z4
G0 Z0
G1 Z0
G90
G1 X70.972Y96.761Z-3
G1 X71.225Y98.281
G1 X71.479Y99.295
G1 X71.736Y99.802
G1 X72.235Y100.059
G1 X72.492Y99.802
G1 Y99.295
G1 X72.235Y98.531
G1 X71.986Y98.032
G1 X71.225Y96.761
G1 X70.719Y96.005
G91
G0Z4
G0 Z0
G1 Z0
G90
G0Z4
G0 X70.723Z0
G1 Z0
G91
G0Z4
G0 Z0
G1 Z0
G90
G1 X70.216Y95.241Z-3
G1 X69.452Y94.734
G1 X68.696
G1 X68.189Y94.987
G1 X67.935Y95.494
G1 Y96.005
G1 X68.189Y96.504
G1 X68.442Y96.761
G1 X68.953Y97.018
G1 X69.452
G1 X69.709Y96.761
G1 Y96.504
G91
G0Z4
G0 Z0
G1 Z0
G90
G0Z4
G0 X67.939Y96.005Z0
G1 Z0
G91
G0Z4
G0 Z0
G1 Z0
G90
G1 X67.425Y95.241Z-3
G1 X67.175Y94.987
G1 X66.669Y94.734
G1 X66.411
G1 X66.162Y94.987
G1 Y95.748
G1 X66.411Y97.018
G1 X65.912Y95.494
G1 X65.655Y94.987
G1 X65.148Y94.734
G1 X64.642
G1 X64.135Y94.987
G1 X63.881Y95.494
G1 Y96.005
G1 X64.135Y96.504
G1 X64.388Y96.761
G1 X64.899Y97.018
G1 X65.398
G1 X65.912Y96.761
G1 X66.162Y96.254
G91
G0Z4
G0 Z0
G1 Z0
G90
G0Z4
G0 X61.352Y97.517Z0
G1 Z0
G91
G0Z4
G0 Z0
G1 Z0
G90
G1 X61.601Z-3
G1 X62.365Y97.268
G1 X62.615Y97.018
G1 X62.872Y96.504
G1 Y95.748
G1 X62.615Y95.241
G1 X62.365Y94.987
G1 X61.858Y94.734
G1 X61.102
G1 X60.587Y94.987
G1 X60.338Y95.494
G91
G0Z4
G0 Z0
G1 Z0
G90
G0Z4
G0 X61.601Y97.517Z0
G1 Z0
G91
G0Z4
G0 Z0
G1 Z0
G90
G1 X62.365Y97.775Z-3
G1 X62.872Y98.032
G1 X63.129Y98.281
G1 X63.379Y98.788
G1 Y99.295
G1 X63.129Y99.802
G1 X62.615Y100.059
G1 X61.858
G1 X61.102Y99.802
G1 X60.587Y99.544
G1 X60.089Y99.046
G1 X59.574Y98.281
G1 X59.325Y97.775
G1 X59.075Y97.018
G1 X58.818Y95.748
G1 Y94.987
G1 X59.075Y94.734
G1 X59.325
G1 X59.831Y94.987
G1 X60.338Y95.494
G1 X60.845Y96.254
G1 X61.102Y96.761
G1 X61.352Y97.517
G1 X61.601Y98.531
G1 Y99.295
G1 X61.352Y99.544
G91
G0Z4
G0 Z0
G1 Z0
G90
G0Z4
G0 X83.13Y94.734Z0
G1 Z0
G91
G0Z4
G0 Z0
G1 Z0
G90
G1 X83.383Y95.494Z-3
G1 X83.637Y96.005
G1 X84.148Y96.761
G1 X84.646Y97.018
G1 X85.161
G1 X85.411Y96.761
G1 Y96.254
G1 X85.161Y95.494
G1 Y94.987
G1 X85.411Y94.734
G1 X85.66
G1 X86.175Y94.987
G1 X86.424Y95.241
G1 X86.931Y96.005
G91
G0Z4
G0 Z0
G1 Z0
G90
M9
M5
G90
M2
