(GCode generated by: DrawingBotV3 Free 1.6.25 Stable)
(Time: 2025-12-23 at 20:37:59 CET)
G21 (programming in millimeters, mm)
G90 (programming in absolute positioning)
G28 (auto homing)
G1 F8000 (set speed)
G0 Z1


G0 X.000 Y50.000
G1 Z0

G1 X1.000 Y52.000
G1 X13.000 Y51.000
G1 X43.000 Y34.000
G1 X46.000 Y40.000
G1 X43.000 Y42.000
G1 X34.000 Y58.000
G1 X61.000 Y63.000
G1 X84.000 Y78.000
G1 X102.000 Y103.000
G1 X113.000 Y119.000
G1 X130.000 Y129.000
G1 X144.000 Y138.000
G1 X167.000 Y167.000
G1 X175.000 Y178.000
G1 X172.000 Y204.000
G1 X162.000 Y201.000
G1 X147.000 Y191.000
G1 X136.000 Y173.000
G1 X121.000 Y202.000
G1 X146.000 Y222.000
G1 X135.000 Y190.000
G1 X158.000 Y201.000
G1 X146.000 Y216.000
G1 X150.000 Y217.000
G1 X161.000 Y203.000
G1 X166.000 Y210.000
G0 Z1

G0 X163.000 Y199.000
G1 Z0

G1 X165.000 Y198.000
G1 X172.000 Y187.000
G1 X169.000 Y196.000
G1 X166.000 Y200.000
G1 X171.000 Y200.000
G1 X171.000 Y195.000
G1 X184.000 Y185.000
G1 X176.000 Y210.000
G1 X164.000 Y205.000
G1 X161.000 Y208.000
G1 X153.000 Y202.000
G1 X151.000 Y206.000
G1 X145.000 Y212.000
G1 X137.000 Y207.000
G1 X139.000 Y206.000
G1 X132.000 Y204.000
G1 X133.000 Y187.000
G1 X127.000 Y194.000
G1 X124.000 Y200.000
G1 X126.000 Y202.000
G1 X115.000 Y196.000
G1 X114.000 Y198.000
G1 X103.000 Y195.000
G1 X100.000 Y197.000
G1 X98.000 Y196.000
G0 Z1

G0 X90.000 Y213.000
G1 Z0

G1 X92.000 Y214.000
G1 X101.000 Y217.000
G1 X97.000 Y206.000
G1 X89.000 Y210.000
G1 X97.000 Y213.000
G1 X96.000 Y209.000
G1 X94.000 Y210.000
G1 X72.000 Y199.000
G1 X73.000 Y208.000
G1 X82.000 Y208.000
G1 X78.000 Y204.000
G1 X80.000 Y197.000
G1 X74.000 Y198.000
G1 X75.000 Y196.000
G1 X79.000 Y195.000
G1 X74.000 Y183.000
G1 X76.000 Y181.000
G1 X79.000 Y179.000
G1 X80.000 Y177.000
G1 X85.000 Y178.000
G1 X88.000 Y182.000
G1 X94.000 Y178.000
G1 X93.000 Y176.000
G1 X91.000 Y173.000
G1 X94.000 Y170.000
G0 Z1

G0 X102.000 Y172.000
G1 Z0

G1 X106.000 Y175.000
G1 X111.000 Y172.000
G1 X128.000 Y184.000
G1 X118.000 Y203.000
G1 X114.000 Y201.000
G1 X135.000 Y170.000
G1 X126.000 Y175.000
G1 X109.000 Y162.000
G1 X103.000 Y163.000
G1 X98.000 Y177.000
G1 X93.000 Y182.000
G1 X82.000 Y188.000
G1 X79.000 Y187.000
G1 X74.000 Y217.000
G1 X66.000 Y223.000
G1 X87.000 Y232.000
G1 X90.000 Y227.000
G1 X94.000 Y227.000
G1 X88.000 Y235.000
G1 X90.000 Y239.000
G1 X94.000 Y232.000
G1 X98.000 Y238.000
G1 X106.000 Y240.000
G1 X91.000 Y242.000
G1 X90.000 Y240.000
G0 Z1

G0 X94.000 Y236.000
G1 Z0

G1 X93.000 Y238.000
G1 X102.000 Y244.000
G1 X92.000 Y243.000
G1 X96.000 Y255.000
G1 X81.000 Y258.000
G1 X75.000 Y255.000
G1 X82.000 Y251.000
G1 X74.000 Y250.000
G1 X72.000 Y247.000
G1 X61.000 Y251.000
G1 X74.000 Y252.000
G1 X76.000 Y251.000
G1 X68.000 Y231.000
G1 X67.000 Y226.000
G1 X77.000 Y229.000
G1 X79.000 Y226.000
G1 X70.000 Y223.000
G1 X73.000 Y220.000
G1 X74.000 Y224.000
G1 X78.000 Y224.000
G1 X76.000 Y220.000
G1 X68.000 Y228.000
G1 X75.000 Y230.000
G1 X71.000 Y232.000
G1 X70.000 Y230.000
G0 Z1

G0 X77.000 Y248.000
G1 Z0

G1 X76.000 Y246.000
G1 X77.000 Y249.000
G1 X86.000 Y249.000
G1 X79.000 Y255.000
G1 X76.000 Y253.000
G1 X70.000 Y243.000
G1 X69.000 Y245.000
G1 X75.000 Y245.000
G1 X68.000 Y236.000
G1 X70.000 Y231.000
G1 X87.000 Y229.000
G1 X91.000 Y229.000
G1 X75.000 Y218.000
G1 X76.000 Y215.000
G1 X74.000 Y210.000
G1 X66.000 Y220.000
G1 X69.000 Y213.000
G1 X79.000 Y210.000
G1 X96.000 Y219.000
G1 X101.000 Y211.000
G1 X99.000 Y207.000
G1 X102.000 Y215.000
G1 X124.000 Y230.000
G0 Z1

G0 X120.000 Y220.000
G1 Z0

G1 X121.000 Y222.000
G1 X125.000 Y221.000
G1 X128.000 Y220.000
G1 X116.000 Y207.000
G1 X120.000 Y204.000
G1 X139.000 Y220.000
G1 X137.000 Y222.000
G1 X126.000 Y214.000
G1 X121.000 Y207.000
G1 X114.000 Y228.000
G1 X118.000 Y230.000
G1 X134.000 Y223.000
G1 X130.000 Y219.000
G1 X118.000 Y228.000
G1 X110.000 Y217.000
G1 X116.000 Y215.000
G1 X117.000 Y211.000
G1 X139.000 Y184.000
G1 X110.000 Y169.000
G1 X93.000 Y185.000
G1 X105.000 Y192.000
G1 X96.000 Y195.000
G1 X96.000 Y189.000
G1 X101.000 Y180.000
G1 X97.000 Y166.000
G1 X86.000 Y174.000
G1 X79.000 Y175.000
G1 X73.000 Y182.000
G0 Z1

G0 X101.000 Y163.000
G1 Z0

G1 X120.000 Y163.000
G1 X119.000 Y161.000
G1 X121.000 Y166.000
G1 X120.000 Y164.000
G1 X130.000 Y176.000
G1 X128.000 Y177.000
G1 X131.000 Y178.000
G1 X138.000 Y178.000
G1 X140.000 Y177.000
G1 X132.000 Y159.000
G1 X133.000 Y157.000
G1 X125.000 Y155.000
G1 X121.000 Y152.000
G1 X125.000 Y160.000
G1 X123.000 Y160.000
G1 X132.000 Y170.000
G1 X126.000 Y173.000
G1 X130.000 Y176.000
G1 X128.000 Y176.000
G0 Z1

G0 X140.000 Y164.000
G1 Z0

G1 X130.000 Y163.000
G1 X123.000 Y164.000
G1 X119.000 Y157.000
G1 X117.000 Y156.000
G1 X112.000 Y159.000
G1 X131.000 Y157.000
G1 X129.000 Y156.000
G1 X129.000 Y152.000
G1 X137.000 Y157.000
G1 X155.000 Y137.000
G1 X156.000 Y139.000
G1 X156.000 Y148.000
G1 X160.000 Y148.000
G1 X159.000 Y146.000
G1 X165.000 Y141.000
G1 X165.000 Y147.000
G1 X161.000 Y152.000
G1 X161.000 Y157.000
G1 X159.000 Y160.000
G1 X147.000 Y144.000
G1 X141.000 Y138.000
G1 X131.000 Y138.000
G1 X129.000 Y136.000
G1 X131.000 Y137.000
G0 Z1

G0 X120.000 Y136.000
G1 Z0

G1 X122.000 Y137.000
G1 X120.000 Y132.000
G1 X118.000 Y135.000
G1 X103.000 Y115.000
G1 X102.000 Y112.000
G1 X95.000 Y103.000
G1 X99.000 Y101.000
G1 X93.000 Y94.000
G1 X90.000 Y89.000
G1 X84.000 Y81.000
G1 X80.000 Y77.000
G1 X77.000 Y76.000
G1 X72.000 Y72.000
G1 X69.000 Y71.000
G1 X64.000 Y68.000
G1 X60.000 Y65.000
G1 X56.000 Y64.000
G1 X57.000 Y70.000
G1 X62.000 Y72.000
G1 X63.000 Y74.000
G1 X57.000 Y76.000
G1 X68.000 Y50.000
G1 X67.000 Y48.000
G1 X65.000 Y52.000
G0 Z1

G0 X60.000 Y50.000
G1 Z0

G1 X61.000 Y52.000
G1 X69.000 Y55.000
G1 X78.000 Y60.000
G1 X82.000 Y66.000
G1 X95.000 Y78.000
G1 X92.000 Y80.000
G1 X102.000 Y98.000
G1 X110.000 Y84.000
G1 X97.000 Y85.000
G1 X103.000 Y93.000
G1 X105.000 Y87.000
G1 X101.000 Y87.000
G1 X109.000 Y100.000
G1 X130.000 Y126.000
G1 X140.000 Y129.000
G1 X158.000 Y152.000
G1 X174.000 Y167.000
G1 X176.000 Y174.000
G1 X169.000 Y167.000
G1 X167.000 Y163.000
G1 X163.000 Y159.000
G1 X163.000 Y145.000
G1 X160.000 Y151.000
G1 X148.000 Y129.000
G1 X140.000 Y122.000
G0 Z1

G0 X132.000 Y122.000
G1 Z0

G1 X134.000 Y123.000
G1 X129.000 Y122.000
G1 X138.000 Y132.000
G1 X140.000 Y132.000
G1 X124.000 Y131.000
G1 X123.000 Y129.000
G1 X117.000 Y112.000
G1 X115.000 Y110.000
G1 X119.000 Y108.000
G1 X121.000 Y111.000
G1 X125.000 Y115.000
G1 X123.000 Y117.000
G1 X126.000 Y118.000
G1 X122.000 Y122.000
G1 X124.000 Y124.000
G1 X133.000 Y129.000
G1 X128.000 Y133.000
G1 X122.000 Y133.000
G1 X123.000 Y144.000
G1 X140.000 Y148.000
G1 X136.000 Y143.000
G1 X129.000 Y143.000
G1 X129.000 Y150.000
G1 X120.000 Y150.000
G0 Z1

G0 X118.000 Y142.000
G1 Z0

G1 X134.000 Y166.000
G1 X139.000 Y168.000
G1 X140.000 Y171.000
G1 X133.000 Y183.000
G1 X135.000 Y184.000
G1 X139.000 Y182.000
G1 X125.000 Y169.000
G1 X123.000 Y166.000
G1 X118.000 Y166.000
G1 X124.000 Y171.000
G1 X140.000 Y166.000
G1 X142.000 Y169.000
G1 X142.000 Y179.000
G1 X152.000 Y191.000
G1 X122.000 Y186.000
G1 X120.000 Y188.000
G1 X120.000 Y181.000
G1 X123.000 Y184.000
G1 X118.000 Y184.000
G1 X118.000 Y175.000
G1 X132.000 Y184.000
G1 X138.000 Y189.000
G1 X141.000 Y185.000
G1 X142.000 Y191.000
G1 X140.000 Y190.000
G0 Z1

G0 X130.000 Y206.000
G1 Z0

G1 X132.000 Y208.000
G1 X136.000 Y210.000
G1 X138.000 Y209.000
G1 X140.000 Y213.000
G1 X151.000 Y200.000
G1 X140.000 Y197.000
G1 X144.000 Y205.000
G1 X128.000 Y201.000
G1 X135.000 Y195.000
G1 X135.000 Y208.000
G1 X128.000 Y203.000
G1 X118.000 Y222.000
G1 X126.000 Y240.000
G1 X142.000 Y232.000
G1 X163.000 Y221.000
G1 X171.000 Y215.000
G1 X184.000 Y209.000
G1 X175.000 Y196.000
G1 X175.000 Y207.000
G1 X180.000 Y208.000
G1 X186.000 Y184.000
G1 X188.000 Y180.000
G1 X187.000 Y195.000
G1 X195.000 Y209.000
G0 Z1

G0 X195.000 Y211.000
G1 Z0

G1 X184.000 Y229.000
G1 X193.000 Y245.000
G1 X178.000 Y271.000
G1 X169.000 Y288.000
G1 X157.000 Y312.000
G1 X147.000 Y330.000
G1 X134.000 Y349.000
G1 X123.000 Y356.000
G1 X115.000 Y363.000
G1 X92.000 Y382.000
G1 X97.000 Y364.000
G1 X119.000 Y353.000
G1 X127.000 Y340.000
G1 X141.000 Y352.000
G1 X141.000 Y372.000
G1 X132.000 Y377.000
G1 X136.000 Y356.000
G1 X122.000 Y366.000
G1 X131.000 Y385.000
G1 X146.000 Y382.000
G1 X162.000 Y371.000
G1 X164.000 Y336.000
G1 X146.000 Y345.000
G1 X146.000 Y372.000
G1 X115.000 Y391.000
G1 X109.000 Y395.000
G1 X92.000 Y400.000
G1 X112.000 Y382.000
G1 X120.000 Y396.000
G1 X102.000 Y400.000
G1 X100.000 Y400.000
G0 Z1

G0 X102.000 Y395.000
G1 Z0

G1 X105.000 Y391.000
G1 X109.000 Y397.000
G1 X111.000 Y396.000
G1 X117.000 Y394.000
G1 X101.000 Y386.000
G1 X97.000 Y388.000
G1 X94.000 Y391.000
G1 X90.000 Y392.000
G1 X85.000 Y385.000
G1 X71.000 Y389.000
G1 X68.000 Y394.000
G1 X59.000 Y394.000
G1 X61.000 Y391.000
G1 X69.000 Y385.000
G1 X99.000 Y371.000
G1 X101.000 Y372.000
G1 X96.000 Y376.000
G1 X97.000 Y372.000
G1 X99.000 Y366.000
G1 X102.000 Y369.000
G1 X125.000 Y348.000
G1 X127.000 Y343.000
G1 X130.000 Y346.000
G1 X102.000 Y371.000
G1 X100.000 Y370.000
G0 Z1

G0 X91.000 Y378.000
G1 Z0

G1 X87.000 Y371.000
G1 X98.000 Y360.000
G1 X115.000 Y353.000
G1 X127.000 Y336.000
G1 X137.000 Y335.000
G1 X139.000 Y328.000
G1 X146.000 Y320.000
G1 X144.000 Y317.000
G1 X136.000 Y324.000
G1 X134.000 Y343.000
G1 X153.000 Y315.000
G1 X156.000 Y310.000
G1 X152.000 Y297.000
G1 X151.000 Y295.000
G1 X159.000 Y291.000
G1 X158.000 Y288.000
G1 X171.000 Y278.000
G1 X154.000 Y266.000
G1 X148.000 Y269.000
G1 X149.000 Y301.000
G1 X143.000 Y311.000
G1 X144.000 Y314.000
G1 X149.000 Y319.000
G1 X151.000 Y318.000
G1 X151.000 Y302.000
G1 X150.000 Y300.000
G0 Z1

G0 X150.000 Y298.000
G1 Z0

G1 X151.000 Y300.000
G1 X161.000 Y291.000
G1 X163.000 Y295.000
G1 X167.000 Y296.000
G1 X168.000 Y293.000
G1 X177.000 Y284.000
G1 X183.000 Y275.000
G1 X189.000 Y274.000
G1 X190.000 Y276.000
G1 X182.000 Y308.000
G1 X169.000 Y328.000
G1 X179.000 Y329.000
G1 X175.000 Y328.000
G1 X179.000 Y325.000
G1 X183.000 Y323.000
G1 X197.000 Y308.000
G1 X198.000 Y292.000
G1 X202.000 Y292.000
G1 X204.000 Y288.000
G1 X204.000 Y267.000
G1 X202.000 Y268.000
G1 X195.000 Y269.000
G1 X191.000 Y267.000
G0 Z1

G0 X197.000 Y266.000
G1 Z0

G1 X193.000 Y264.000
G1 X190.000 Y266.000
G1 X185.000 Y266.000
G1 X179.000 Y262.000
G1 X174.000 Y266.000
G1 X176.000 Y259.000
G1 X178.000 Y258.000
G1 X180.000 Y260.000
G1 X189.000 Y256.000
G1 X197.000 Y261.000
G1 X198.000 Y266.000
G1 X199.000 Y274.000
G1 X213.000 Y258.000
G1 X210.000 Y253.000
G1 X202.000 Y257.000
G1 X199.000 Y257.000
G1 X191.000 Y268.000
G1 X191.000 Y263.000
G1 X183.000 Y236.000
G1 X179.000 Y232.000
G1 X182.000 Y229.000
G1 X173.000 Y245.000
G1 X170.000 Y245.000
G1 X159.000 Y249.000
G0 Z1

G0 X161.000 Y256.000
G1 Z0

G1 X159.000 Y257.000
G1 X163.000 Y260.000
G1 X168.000 Y253.000
G1 X172.000 Y254.000
G1 X172.000 Y248.000
G1 X181.000 Y245.000
G1 X180.000 Y253.000
G1 X180.000 Y250.000
G1 X196.000 Y253.000
G1 X198.000 Y255.000
G1 X209.000 Y245.000
G1 X199.000 Y236.000
G1 X198.000 Y243.000
G1 X190.000 Y245.000
G1 X204.000 Y249.000
G1 X204.000 Y241.000
G1 X197.000 Y227.000
G1 X191.000 Y221.000
G1 X189.000 Y212.000
G1 X193.000 Y211.000
G1 X192.000 Y184.000
G1 X192.000 Y177.000
G1 X196.000 Y174.000
G1 X197.000 Y169.000
G1 X193.000 Y166.000
G1 X193.000 Y171.000
G1 X187.000 Y172.000
G1 X182.000 Y164.000
G1 X180.000 Y152.000
G1 X182.000 Y143.000
G1 X182.000 Y138.000
G1 X180.000 Y139.000
G1 X190.000 Y145.000
G1 X193.000 Y132.000
G1 X193.000 Y135.000
G1 X192.000 Y137.000
G1 X191.000 Y133.000
G1 X188.000 Y139.000
G1 X212.000 Y137.000
G1 X212.000 Y133.000
G1 X207.000 Y120.000
G1 X215.000 Y112.000
G1 X213.000 Y121.000
G1 X227.000 Y128.000
G1 X229.000 Y127.000
G1 X232.000 Y140.000
G1 X236.000 Y139.000
G1 X232.000 Y136.000
G1 X230.000 Y136.000
G0 Z1

G0 X231.000 Y138.000
G1 Z0

G1 X220.000 Y137.000
G1 X217.000 Y135.000
G1 X243.000 Y129.000
G1 X244.000 Y133.000
G1 X241.000 Y140.000
G1 X219.000 Y110.000
G1 X218.000 Y108.000
G1 X219.000 Y106.000
G1 X216.000 Y105.000
G1 X217.000 Y114.000
G1 X203.000 Y116.000
G1 X201.000 Y115.000
G1 X202.000 Y122.000
G1 X199.000 Y128.000
G1 X197.000 Y127.000
G1 X192.000 Y146.000
G1 X188.000 Y148.000
G1 X205.000 Y168.000
G1 X215.000 Y170.000
G1 X215.000 Y166.000
G1 X216.000 Y145.000
G1 X211.000 Y151.000
G1 X213.000 Y150.000
G1 X210.000 Y140.000
G1 X210.000 Y142.000
G0 Z1

G0 X218.000 Y128.000
G1 Z0

G1 X220.000 Y125.000
G1 X221.000 Y134.000
G1 X216.000 Y139.000
G1 X203.000 Y126.000
G1 X204.000 Y121.000
G1 X206.000 Y130.000
G1 X200.000 Y135.000
G1 X200.000 Y130.000
G1 X214.000 Y124.000
G1 X223.000 Y122.000
G1 X223.000 Y137.000
G1 X202.000 Y153.000
G1 X199.000 Y154.000
G1 X199.000 Y156.000
G1 X197.000 Y164.000
G1 X198.000 Y166.000
G1 X199.000 Y170.000
G1 X197.000 Y171.000
G1 X201.000 Y191.000
G1 X197.000 Y197.000
G1 X195.000 Y186.000
G1 X215.000 Y184.000
G1 X216.000 Y171.000
G1 X202.000 Y190.000
G1 X200.000 Y190.000
G0 Z1

G0 X200.000 Y178.000
G1 Z0

G1 X199.000 Y180.000
G1 X198.000 Y204.000
G1 X204.000 Y198.000
G1 X206.000 Y190.000
G1 X209.000 Y188.000
G1 X217.000 Y204.000
G1 X217.000 Y207.000
G1 X225.000 Y209.000
G1 X231.000 Y213.000
G1 X232.000 Y216.000
G1 X225.000 Y216.000
G1 X221.000 Y210.000
G1 X213.000 Y181.000
G1 X214.000 Y179.000
G1 X201.000 Y172.000
G1 X202.000 Y179.000
G1 X207.000 Y178.000
G1 X209.000 Y183.000
G1 X212.000 Y156.000
G1 X211.000 Y153.000
G1 X211.000 Y148.000
G1 X201.000 Y170.000
G1 X204.000 Y171.000
G1 X208.000 Y173.000
G0 Z1

G0 X200.000 Y166.000
G1 Z0

G1 X200.000 Y164.000
G1 X203.000 Y155.000
G1 X209.000 Y167.000
G1 X219.000 Y167.000
G1 X217.000 Y184.000
G1 X212.000 Y190.000
G1 X212.000 Y186.000
G1 X208.000 Y191.000
G1 X215.000 Y195.000
G1 X218.000 Y193.000
G1 X201.000 Y196.000
G1 X200.000 Y198.000
G1 X184.000 Y206.000
G1 X182.000 Y216.000
G1 X186.000 Y219.000
G1 X189.000 Y223.000
G1 X174.000 Y205.000
G1 X167.000 Y205.000
G1 X165.000 Y203.000
G1 X163.000 Y203.000
G1 X167.000 Y201.000
G1 X169.000 Y198.000
G1 X163.000 Y197.000
G1 X175.000 Y190.000
G1 X177.000 Y197.000
G1 X177.000 Y201.000
G1 X179.000 Y195.000
G1 X173.000 Y169.000
G1 X170.000 Y165.000
G1 X165.000 Y167.000
G1 X167.000 Y169.000
G1 X178.000 Y167.000
G1 X181.000 Y168.000
G1 X177.000 Y171.000
G1 X182.000 Y177.000
G1 X182.000 Y180.000
G1 X179.000 Y180.000
G0 Z1

G0 X181.000 Y182.000
G1 Z0

G1 X176.000 Y187.000
G1 X178.000 Y193.000
G1 X193.000 Y194.000
G1 X189.000 Y188.000
G1 X188.000 Y209.000
G1 X188.000 Y205.000
G1 X153.000 Y200.000
G1 X155.000 Y201.000
G1 X155.000 Y207.000
G1 X150.000 Y203.000
G1 X143.000 Y196.000
G1 X138.000 Y193.000
G1 X139.000 Y196.000
G1 X148.000 Y182.000
G1 X147.000 Y180.000
G1 X145.000 Y177.000
G1 X144.000 Y175.000
G1 X147.000 Y167.000
G1 X161.000 Y183.000
G1 X161.000 Y181.000
G1 X157.000 Y184.000
G1 X157.000 Y175.000
G1 X155.000 Y174.000
G1 X154.000 Y172.000
G0 Z1

G0 X159.000 Y164.000
G1 Z0

G1 X171.000 Y176.000
G1 X172.000 Y179.000
G1 X181.000 Y185.000
G1 X184.000 Y183.000
G1 X184.000 Y175.000
G1 X206.000 Y187.000
G1 X203.000 Y187.000
G1 X197.000 Y189.000
G1 X222.000 Y207.000
G1 X220.000 Y214.000
G1 X230.000 Y210.000
G1 X236.000 Y213.000
G1 X236.000 Y217.000
G1 X231.000 Y219.000
G1 X224.000 Y220.000
G1 X221.000 Y216.000
G1 X222.000 Y221.000
G1 X220.000 Y222.000
G1 X219.000 Y230.000
G1 X241.000 Y205.000
G1 X241.000 Y207.000
G1 X243.000 Y206.000
G1 X242.000 Y202.000
G1 X243.000 Y204.000
G1 X242.000 Y206.000
G0 Z1

G0 X220.000 Y213.000
G1 Z0

G1 X222.000 Y215.000
G1 X235.000 Y214.000
G1 X233.000 Y218.000
G1 X225.000 Y218.000
G1 X227.000 Y223.000
G1 X229.000 Y220.000
G1 X228.000 Y209.000
G1 X220.000 Y212.000
G1 X223.000 Y213.000
G1 X223.000 Y217.000
G1 X222.000 Y219.000
G1 X191.000 Y226.000
G1 X197.000 Y233.000
G1 X199.000 Y226.000
G1 X199.000 Y218.000
G1 X201.000 Y219.000
G1 X201.000 Y222.000
G1 X197.000 Y222.000
G1 X195.000 Y214.000
G1 X184.000 Y214.000
G1 X184.000 Y222.000
G1 X170.000 Y226.000
G1 X165.000 Y233.000
G1 X161.000 Y235.000
G1 X156.000 Y230.000
G0 Z1

G0 X160.000 Y229.000
G1 Z0

G1 X162.000 Y227.000
G1 X167.000 Y223.000
G1 X176.000 Y223.000
G1 X169.000 Y231.000
G1 X163.000 Y231.000
G1 X158.000 Y230.000
G1 X159.000 Y228.000
G1 X157.000 Y221.000
G1 X161.000 Y220.000
G1 X162.000 Y215.000
G1 X161.000 Y213.000
G1 X154.000 Y209.000
G1 X152.000 Y211.000
G1 X148.000 Y211.000
G1 X145.000 Y214.000
G1 X141.000 Y216.000
G1 X137.000 Y212.000
G1 X133.000 Y210.000
G1 X127.000 Y213.000
G1 X136.000 Y219.000
G1 X149.000 Y215.000
G1 X142.000 Y206.000
G1 X147.000 Y208.000
G0 Z1

G0 X151.000 Y219.000
G1 Z0

G1 X153.000 Y220.000
G1 X146.000 Y200.000
G1 X144.000 Y201.000
G1 X145.000 Y203.000
G1 X144.000 Y191.000
G1 X152.000 Y196.000
G1 X154.000 Y193.000
G1 X158.000 Y196.000
G1 X159.000 Y198.000
G1 X164.000 Y199.000
G1 X158.000 Y204.000
G1 X155.000 Y214.000
G1 X156.000 Y216.000
G1 X143.000 Y226.000
G1 X143.000 Y222.000
G1 X133.000 Y226.000
G1 X139.000 Y231.000
G1 X138.000 Y233.000
G1 X136.000 Y231.000
G1 X132.000 Y233.000
G1 X132.000 Y235.000
G1 X116.000 Y231.000
G1 X114.000 Y246.000
G1 X102.000 Y253.000
G0 Z1

G0 X97.000 Y252.000
G1 Z0

G1 X91.000 Y234.000
G1 X94.000 Y230.000
G1 X99.000 Y236.000
G1 X105.000 Y238.000
G1 X109.000 Y236.000
G1 X116.000 Y238.000
G1 X118.000 Y238.000
G1 X117.000 Y244.000
G1 X120.000 Y244.000
G1 X130.000 Y233.000
G1 X128.000 Y231.000
G1 X125.000 Y225.000
G1 X128.000 Y223.000
G1 X130.000 Y223.000
G1 X128.000 Y217.000
G1 X123.000 Y217.000
G1 X124.000 Y220.000
G1 X116.000 Y218.000
G1 X109.000 Y219.000
G1 X115.000 Y233.000
G1 X113.000 Y234.000
G1 X111.000 Y240.000
G1 X117.000 Y246.000
G1 X112.000 Y249.000
G1 X110.000 Y250.000
G0 Z1

G0 X106.000 Y248.000
G1 Z0

G1 X108.000 Y248.000
G1 X106.000 Y249.000
G1 X108.000 Y252.000
G1 X111.000 Y250.000
G1 X106.000 Y247.000
G1 X102.000 Y242.000
G1 X100.000 Y240.000
G1 X95.000 Y237.000
G1 X90.000 Y242.000
G1 X92.000 Y241.000
G1 X88.000 Y238.000
G1 X87.000 Y236.000
G1 X90.000 Y231.000
G1 X95.000 Y228.000
G1 X98.000 Y231.000
G1 X121.000 Y223.000
G1 X125.000 Y229.000
G1 X122.000 Y235.000
G1 X130.000 Y240.000
G1 X136.000 Y237.000
G1 X142.000 Y257.000
G1 X148.000 Y258.000
G1 X149.000 Y260.000
G1 X150.000 Y260.000
G1 X151.000 Y262.000
G1 X177.000 Y265.000
G1 X181.000 Y233.000
G1 X178.000 Y228.000
G1 X168.000 Y233.000
G1 X154.000 Y243.000
G1 X150.000 Y247.000
G1 X162.000 Y255.000
G1 X177.000 Y231.000
G1 X173.000 Y256.000
G1 X154.000 Y260.000
G1 X152.000 Y258.000
G1 X150.000 Y255.000
G1 X147.000 Y266.000
G1 X151.000 Y265.000
G1 X156.000 Y287.000
G1 X152.000 Y290.000
G1 X152.000 Y277.000
G1 X151.000 Y275.000
G1 X150.000 Y271.000
G1 X168.000 Y278.000
G1 X157.000 Y282.000
G1 X157.000 Y278.000
G1 X163.000 Y278.000
G1 X180.000 Y264.000
G1 X189.000 Y242.000
G1 X183.000 Y233.000
G1 X176.000 Y219.000
G1 X162.000 Y230.000
G1 X148.000 Y245.000
G1 X148.000 Y256.000
G0 Z1

G0 X147.000 Y258.000
G1 Z0

G1 X147.000 Y260.000
G1 X146.000 Y262.000
G1 X139.000 Y258.000
G1 X143.000 Y246.000
G1 X147.000 Y236.000
G1 X149.000 Y234.000
G1 X150.000 Y232.000
G1 X136.000 Y244.000
G1 X139.000 Y251.000
G1 X134.000 Y250.000
G1 X134.000 Y255.000
G1 X142.000 Y280.000
G1 X139.000 Y288.000
G1 X139.000 Y290.000
G1 X139.000 Y277.000
G1 X136.000 Y268.000
G1 X136.000 Y276.000
G1 X137.000 Y278.000
G1 X141.000 Y272.000
G1 X165.000 Y255.000
G1 X155.000 Y254.000
G1 X153.000 Y251.000
G1 X150.000 Y253.000
G1 X152.000 Y256.000
G1 X151.000 Y260.000
G0 Z1

G0 X150.000 Y250.000
G1 Z0

G1 X158.000 Y261.000
G1 X161.000 Y262.000
G1 X180.000 Y256.000
G1 X182.000 Y253.000
G1 X186.000 Y241.000
G1 X179.000 Y234.000
G1 X177.000 Y242.000
G1 X177.000 Y250.000
G1 X168.000 Y282.000
G1 X166.000 Y285.000
G1 X164.000 Y287.000
G1 X160.000 Y300.000
G1 X159.000 Y296.000
G1 X171.000 Y298.000
G1 X175.000 Y294.000
G1 X182.000 Y276.000
G1 X185.000 Y291.000
G1 X177.000 Y299.000
G1 X161.000 Y318.000
G1 X168.000 Y324.000
G1 X171.000 Y320.000
G1 X185.000 Y313.000
G1 X188.000 Y312.000
G1 X191.000 Y302.000
G1 X190.000 Y300.000
G1 X190.000 Y299.000
G1 X192.000 Y300.000
G1 X195.000 Y307.000
G1 X198.000 Y295.000
G1 X196.000 Y292.000
G1 X186.000 Y302.000
G1 X184.000 Y306.000
G1 X181.000 Y313.000
G1 X155.000 Y320.000
G1 X163.000 Y322.000
G1 X151.000 Y336.000
G1 X163.000 Y331.000
G1 X161.000 Y330.000
G1 X174.000 Y324.000
G1 X181.000 Y320.000
G1 X196.000 Y310.000
G1 X191.000 Y308.000
G1 X192.000 Y304.000
G1 X188.000 Y303.000
G1 X185.000 Y311.000
G1 X188.000 Y309.000
G1 X192.000 Y311.000
G1 X197.000 Y284.000
G1 X203.000 Y275.000
G0 Z1

G0 X210.000 Y270.000
G1 Z0

G1 X213.000 Y276.000
G1 X219.000 Y268.000
G1 X206.000 Y255.000
G1 X212.000 Y243.000
G1 X207.000 Y244.000
G1 X201.000 Y248.000
G1 X202.000 Y251.000
G1 X206.000 Y250.000
G1 X206.000 Y285.000
G1 X201.000 Y304.000
G1 X200.000 Y313.000
G1 X192.000 Y318.000
G1 X194.000 Y325.000
G1 X185.000 Y326.000
G1 X181.000 Y328.000
G1 X195.000 Y320.000
G1 X198.000 Y318.000
G1 X211.000 Y303.000
G1 X210.000 Y283.000
G1 X210.000 Y262.000
G1 X214.000 Y266.000
G1 X213.000 Y273.000
G1 X222.000 Y275.000
G0 Z1

G0 X220.000 Y270.000
G1 Z0

G1 X218.000 Y276.000
G1 X220.000 Y277.000
G1 X223.000 Y286.000
G1 X207.000 Y304.000
G1 X202.000 Y317.000
G1 X206.000 Y311.000
G1 X210.000 Y307.000
G1 X213.000 Y300.000
G1 X214.000 Y298.000
G1 X209.000 Y292.000
G1 X208.000 Y298.000
G1 X209.000 Y302.000
G1 X189.000 Y301.000
G1 X193.000 Y298.000
G1 X188.000 Y298.000
G1 X190.000 Y295.000
G1 X193.000 Y292.000
G1 X188.000 Y292.000
G1 X176.000 Y311.000
G1 X177.000 Y308.000
G1 X182.000 Y301.000
G1 X174.000 Y305.000
G1 X171.000 Y312.000
G1 X169.000 Y312.000
G1 X171.000 Y310.000
G0 Z1

G0 X153.000 Y310.000
G1 Z0

G1 X153.000 Y307.000
G1 X145.000 Y311.000
G1 X149.000 Y315.000
G1 X149.000 Y304.000
G1 X157.000 Y303.000
G1 X157.000 Y308.000
G1 X155.000 Y297.000
G1 X154.000 Y295.000
G1 X150.000 Y291.000
G1 X162.000 Y289.000
G1 X159.000 Y284.000
G1 X163.000 Y282.000
G1 X150.000 Y286.000
G1 X150.000 Y278.000
G1 X170.000 Y270.000
G1 X172.000 Y260.000
G1 X166.000 Y253.000
G1 X169.000 Y249.000
G1 X169.000 Y247.000
G1 X161.000 Y252.000
G1 X157.000 Y250.000
G1 X155.000 Y248.000
G1 X161.000 Y243.000
G1 X167.000 Y240.000
G0 Z1

G0 X154.000 Y235.000
G1 Z0

G1 X150.000 Y240.000
G1 X148.000 Y242.000
G1 X148.000 Y239.000
G1 X153.000 Y232.000
G1 X162.000 Y240.000
G1 X154.000 Y246.000
G1 X163.000 Y248.000
G1 X172.000 Y235.000
G1 X165.000 Y238.000
G1 X158.000 Y255.000
G1 X150.000 Y263.000
G1 X153.000 Y264.000
G1 X177.000 Y269.000
G1 X168.000 Y286.000
G1 X164.000 Y293.000
G1 X156.000 Y295.000
G1 X161.000 Y308.000
G1 X168.000 Y302.000
G1 X173.000 Y286.000
G1 X185.000 Y268.000
G1 X200.000 Y272.000
G1 X198.000 Y273.000
G1 X192.000 Y280.000
G1 X190.000 Y278.000
G0 Z1

G0 X184.000 Y276.000
G1 Z0

G1 X185.000 Y279.000
G1 X185.000 Y281.000
G1 X188.000 Y271.000
G1 X186.000 Y271.000
G1 X187.000 Y265.000
G1 X191.000 Y259.000
G1 X193.000 Y261.000
G1 X195.000 Y257.000
G1 X200.000 Y259.000
G1 X200.000 Y261.000
G1 X204.000 Y264.000
G1 X204.000 Y266.000
G1 X206.000 Y265.000
G1 X208.000 Y259.000
G1 X208.000 Y254.000
G1 X215.000 Y243.000
G1 X216.000 Y240.000
G1 X216.000 Y238.000
G1 X197.000 Y239.000
G1 X191.000 Y234.000
G1 X190.000 Y228.000
G1 X188.000 Y230.000
G1 X195.000 Y233.000
G1 X199.000 Y231.000
G1 X195.000 Y228.000
G0 Z1

G0 X200.000 Y233.000
G1 Z0

G1 X193.000 Y241.000
G1 X195.000 Y243.000
G1 X199.000 Y251.000
G1 X204.000 Y252.000
G1 X204.000 Y256.000
G1 X203.000 Y261.000
G1 X195.000 Y272.000
G1 X202.000 Y279.000
G1 X201.000 Y282.000
G1 X199.000 Y284.000
G1 X199.000 Y290.000
G1 X182.000 Y287.000
G1 X179.000 Y290.000
G1 X180.000 Y286.000
G1 X193.000 Y277.000
G1 X193.000 Y272.000
G1 X196.000 Y277.000
G1 X193.000 Y284.000
G1 X187.000 Y259.000
G1 X193.000 Y256.000
G1 X192.000 Y252.000
G1 X190.000 Y254.000
G1 X197.000 Y264.000
G1 X191.000 Y262.000
G1 X190.000 Y260.000
G0 Z1

G0 X181.000 Y249.000
G1 Z0

G1 X182.000 Y246.000
G1 X182.000 Y240.000
G1 X184.000 Y242.000
G1 X183.000 Y244.000
G1 X190.000 Y247.000
G1 X186.000 Y254.000
G1 X175.000 Y262.000
G1 X181.000 Y271.000
G1 X176.000 Y278.000
G1 X174.000 Y292.000
G1 X172.000 Y295.000
G1 X164.000 Y301.000
G1 X153.000 Y325.000
G1 X149.000 Y330.000
G1 X142.000 Y340.000
G1 X140.000 Y347.000
G1 X129.000 Y349.000
G1 X123.000 Y354.000
G1 X133.000 Y328.000
G1 X141.000 Y323.000
G1 X143.000 Y320.000
G1 X142.000 Y315.000
G1 X139.000 Y319.000
G1 X144.000 Y301.000
G1 X143.000 Y299.000
G0 Z1

G0 X143.000 Y307.000
G1 Z0

G1 X145.000 Y304.000
G1 X146.000 Y301.000
G1 X147.000 Y297.000
G1 X147.000 Y278.000
G1 X162.000 Y267.000
G1 X167.000 Y271.000
G1 X172.000 Y242.000
G1 X174.000 Y239.000
G1 X172.000 Y227.000
G1 X177.000 Y226.000
G1 X182.000 Y219.000
G1 X194.000 Y204.000
G1 X193.000 Y200.000
G1 X193.000 Y196.000
G1 X210.000 Y186.000
G1 X212.000 Y179.000
G1 X214.000 Y176.000
G1 X203.000 Y183.000
G1 X201.000 Y181.000
G1 X195.000 Y184.000
G1 X196.000 Y180.000
G1 X196.000 Y176.000
G1 X180.000 Y172.000
G1 X182.000 Y169.000
G0 Z1

G0 X186.000 Y179.000
G1 Z0

G1 X189.000 Y176.000
G1 X187.000 Y169.000
G1 X183.000 Y171.000
G1 X188.000 Y170.000
G1 X192.000 Y173.000
G1 X194.000 Y164.000
G1 X195.000 Y152.000
G1 X197.000 Y148.000
G1 X177.000 Y154.000
G1 X173.000 Y160.000
G1 X178.000 Y162.000
G1 X171.000 Y155.000
G1 X168.000 Y150.000
G1 X169.000 Y154.000
G1 X180.000 Y141.000
G1 X183.000 Y147.000
G1 X185.000 Y156.000
G1 X187.000 Y155.000
G1 X194.000 Y145.000
G1 X195.000 Y142.000
G1 X199.000 Y142.000
G1 X199.000 Y152.000
G1 X191.000 Y156.000
G0 Z1

G0 X170.000 Y146.000
G1 Z0

G1 X172.000 Y145.000
G1 X174.000 Y136.000
G1 X173.000 Y134.000
G1 X173.000 Y132.000
G1 X172.000 Y129.000
G1 X177.000 Y145.000
G1 X178.000 Y152.000
G1 X181.000 Y155.000
G1 X179.000 Y157.000
G1 X165.000 Y150.000
G1 X167.000 Y158.000
G1 X169.000 Y159.000
G1 X174.000 Y164.000
G1 X182.000 Y175.000
G1 X179.000 Y175.000
G1 X179.000 Y178.000
G1 X163.000 Y190.000
G1 X161.000 Y194.000
G1 X165.000 Y196.000
G1 X166.000 Y193.000
G1 X169.000 Y190.000
G1 X169.000 Y181.000
G1 X162.000 Y172.000
G1 X159.000 Y169.000
G1 X159.000 Y185.000
G0 Z1

G0 X154.000 Y162.000
G1 Z0

G1 X156.000 Y165.000
G1 X158.000 Y167.000
G1 X152.000 Y169.000
G1 X153.000 Y171.000
G1 X148.000 Y188.000
G1 X124.000 Y189.000
G1 X122.000 Y192.000
G1 X117.000 Y193.000
G1 X114.000 Y204.000
G1 X116.000 Y205.000
G1 X117.000 Y200.000
G1 X121.000 Y195.000
G1 X116.000 Y178.000
G1 X109.000 Y176.000
G1 X116.000 Y165.000
G1 X114.000 Y167.000
G1 X115.000 Y169.000
G1 X120.000 Y172.000
G1 X116.000 Y174.000
G1 X107.000 Y160.000
G1 X110.000 Y160.000
G1 X96.000 Y169.000
G1 X88.000 Y171.000
G1 X83.000 Y173.000
G1 X85.000 Y171.000
G1 X90.000 Y185.000
G1 X87.000 Y183.000
G1 X80.000 Y183.000
G1 X79.000 Y181.000
G1 X71.000 Y186.000
G1 X67.000 Y190.000
G1 X69.000 Y205.000
G1 X71.000 Y209.000
G1 X72.000 Y214.000
G1 X53.000 Y246.000
G1 X52.000 Y244.000
G1 X44.000 Y232.000
G1 X40.000 Y234.000
G1 X38.000 Y237.000
G1 X31.000 Y242.000
G1 X21.000 Y246.000
G1 X23.000 Y249.000
G1 X45.000 Y237.000
G1 X45.000 Y230.000
G1 X46.000 Y233.000
G1 X24.000 Y229.000
G1 X30.000 Y229.000
G1 X29.000 Y226.000
G1 X9.000 Y225.000
G1 X6.000 Y221.000
G1 X1.000 Y215.000
G1 X.000 Y206.000
G1 X.000 Y200.000
G1 X6.000 Y186.000
G1 X9.000 Y184.000
G1 X13.000 Y179.000
G1 X18.000 Y181.000
G1 X10.000 Y185.000
G0 Z1

G0 X22.000 Y154.000
G1 Z0

G1 X24.000 Y153.000
G1 X22.000 Y152.000
G1 X27.000 Y152.000
G1 X27.000 Y155.000
G1 X28.000 Y159.000
G1 X24.000 Y158.000
G1 X21.000 Y156.000
G1 X13.000 Y144.000
G1 X15.000 Y143.000
G1 X18.000 Y145.000
G1 X7.000 Y128.000
G1 X4.000 Y131.000
G1 X5.000 Y133.000
G1 X11.000 Y149.000
G1 X9.000 Y152.000
G1 X4.000 Y152.000
G1 X5.000 Y154.000
G1 X24.000 Y182.000
G1 X27.000 Y175.000
G1 X28.000 Y177.000
G1 X34.000 Y174.000
G1 X32.000 Y167.000
G1 X39.000 Y155.000
G1 X40.000 Y160.000
G1 X51.000 Y154.000
G1 X53.000 Y157.000
G1 X57.000 Y156.000
G1 X56.000 Y154.000
G1 X62.000 Y140.000
G1 X57.000 Y141.000
G1 X49.000 Y146.000
G1 X46.000 Y141.000
G1 X32.000 Y139.000
G1 X29.000 Y137.000
G1 X23.000 Y136.000
G1 X31.000 Y126.000
G1 X24.000 Y124.000
G0 Z1

G0 X30.000 Y110.000
G1 Z0

G1 X31.000 Y112.000
G1 X39.000 Y117.000
G1 X55.000 Y115.000
G1 X44.000 Y119.000
G1 X38.000 Y82.000
G1 X48.000 Y66.000
G1 X55.000 Y68.000
G1 X81.000 Y61.000
G1 X79.000 Y58.000
G1 X71.000 Y59.000
G1 X68.000 Y56.000
G1 X60.000 Y47.000
G1 X62.000 Y43.000
G1 X66.000 Y42.000
G1 X64.000 Y46.000
G1 X77.000 Y49.000
G1 X66.000 Y29.000
G1 X69.000 Y23.000
G1 X62.000 Y21.000
G1 X53.000 Y23.000
G1 X51.000 Y20.000
G1 X56.000 Y17.000
G1 X58.000 Y18.000
G1 X62.000 Y19.000
G1 X62.000 Y4.000
G1 X60.000 Y3.000
G1 X56.000 Y7.000
G1 X60.000 Y9.000
G1 X83.000 Y13.000
G1 X88.000 Y20.000
G1 X94.000 Y20.000
G1 X95.000 Y22.000
G1 X104.000 Y21.000
G1 X106.000 Y25.000
G1 X96.000 Y29.000
G1 X90.000 Y27.000
G1 X88.000 Y25.000
G1 X86.000 Y25.000
G0 Z1

G0 X80.000 Y20.000
G1 Z0

G1 X81.000 Y22.000
G1 X103.000 Y28.000
G1 X106.000 Y33.000
G1 X94.000 Y44.000
G1 X78.000 Y20.000
G1 X77.000 Y18.000
G1 X90.000 Y11.000
G1 X106.000 Y27.000
G1 X113.000 Y31.000
G1 X99.000 Y55.000
G1 X101.000 Y56.000
G1 X107.000 Y46.000
G1 X103.000 Y63.000
G1 X92.000 Y30.000
G1 X102.000 Y31.000
G1 X97.000 Y38.000
G1 X89.000 Y15.000
G1 X82.000 Y20.000
G1 X102.000 Y26.000
G1 X93.000 Y17.000
G1 X85.000 Y7.000
G1 X63.000 Y7.000
G1 X79.000 Y30.000
G1 X88.000 Y45.000
G1 X91.000 Y51.000
G1 X95.000 Y58.000
G0 Z1

G0 X91.000 Y64.000
G1 Z0

G1 X95.000 Y70.000
G1 X97.000 Y70.000
G1 X97.000 Y75.000
G1 X87.000 Y65.000
G1 X85.000 Y62.000
G1 X70.000 Y67.000
G1 X83.000 Y75.000
G1 X79.000 Y89.000
G1 X82.000 Y89.000
G1 X86.000 Y94.000
G1 X83.000 Y94.000
G1 X78.000 Y83.000
G1 X68.000 Y74.000
G1 X58.000 Y80.000
G1 X53.000 Y77.000
G1 X49.000 Y69.000
G1 X46.000 Y77.000
G1 X51.000 Y78.000
G1 X56.000 Y82.000
G1 X62.000 Y82.000
G1 X71.000 Y89.000
G1 X67.000 Y89.000
G1 X66.000 Y87.000
G0 Z1

G0 X64.000 Y72.000
G1 Z0

G1 X68.000 Y77.000
G1 X80.000 Y82.000
G1 X85.000 Y90.000
G1 X105.000 Y121.000
G1 X114.000 Y133.000
G1 X114.000 Y117.000
G1 X113.000 Y114.000
G1 X109.000 Y110.000
G1 X113.000 Y110.000
G1 X121.000 Y126.000
G1 X129.000 Y131.000
G1 X140.000 Y145.000
G1 X146.000 Y156.000
G1 X147.000 Y159.000
G1 X144.000 Y160.000
G1 X149.000 Y166.000
G1 X156.000 Y181.000
G1 X165.000 Y178.000
G1 X157.000 Y169.000
G1 X148.000 Y157.000
G1 X137.000 Y159.000
G1 X134.000 Y159.000
G1 X135.000 Y154.000
G1 X130.000 Y148.000
G1 X132.000 Y158.000
G1 X130.000 Y159.000
G0 Z1

G0 X140.000 Y156.000
G1 Z0

G1 X141.000 Y158.000
G1 X138.000 Y152.000
G1 X140.000 Y150.000
G1 X148.000 Y150.000
G1 X149.000 Y152.000
G1 X147.000 Y155.000
G1 X146.000 Y153.000
G1 X151.000 Y154.000
G1 X136.000 Y136.000
G1 X138.000 Y136.000
G1 X133.000 Y133.000
G1 X136.000 Y124.000
G1 X131.000 Y121.000
G1 X140.000 Y120.000
G1 X139.000 Y115.000
G1 X138.000 Y113.000
G1 X123.000 Y108.000
G1 X121.000 Y106.000
G1 X118.000 Y106.000
G1 X120.000 Y103.000
G1 X121.000 Y105.000
G1 X125.000 Y110.000
G1 X100.000 Y92.000
G1 X100.000 Y83.000
G1 X107.000 Y79.000
G0 Z1

G0 X120.000 Y94.000
G1 Z0

G1 X120.000 Y101.000
G1 X108.000 Y91.000
G1 X112.000 Y91.000
G1 X114.000 Y83.000
G1 X111.000 Y68.000
G1 X109.000 Y61.000
G1 X107.000 Y61.000
G1 X111.000 Y47.000
G1 X110.000 Y54.000
G1 X107.000 Y38.000
G1 X104.000 Y42.000
G1 X102.000 Y78.000
G1 X105.000 Y76.000
G1 X107.000 Y73.000
G1 X110.000 Y82.000
G1 X111.000 Y86.000
G1 X109.000 Y89.000
G1 X104.000 Y83.000
G1 X88.000 Y77.000
G1 X90.000 Y78.000
G1 X93.000 Y87.000
G1 X102.000 Y100.000
G1 X104.000 Y98.000
G1 X106.000 Y99.000
G1 X104.000 Y99.000
G0 Z1

G0 X108.000 Y108.000
G1 Z0

G1 X106.000 Y106.000
G1 X105.000 Y104.000
G1 X102.000 Y106.000
G1 X103.000 Y108.000
G1 X107.000 Y113.000
G1 X111.000 Y119.000
G1 X111.000 Y123.000
G1 X112.000 Y125.000
G1 X106.000 Y117.000
G1 X102.000 Y120.000
G1 X97.000 Y112.000
G1 X100.000 Y103.000
G1 X88.000 Y99.000
G1 X90.000 Y101.000
G1 X92.000 Y98.000
G1 X89.000 Y94.000
G1 X87.000 Y96.000
G1 X88.000 Y92.000
G1 X89.000 Y56.000
G1 X87.000 Y52.000
G1 X97.000 Y65.000
G1 X91.000 Y65.000
G1 X91.000 Y63.000
G1 X84.000 Y60.000
G0 Z1

G0 X79.000 Y56.000
G1 Z0

G1 X71.000 Y54.000
G1 X67.000 Y44.000
G1 X60.000 Y57.000
G1 X53.000 Y57.000
G1 X42.000 Y49.000
G1 X47.000 Y41.000
G1 X48.000 Y39.000
G1 X44.000 Y31.000
G1 X52.000 Y31.000
G1 X55.000 Y34.000
G1 X55.000 Y27.000
G1 X51.000 Y27.000
G1 X47.000 Y23.000
G1 X58.000 Y20.000
G1 X48.000 Y17.000
G1 X50.000 Y12.000
G1 X54.000 Y7.000
G1 X59.000 Y1.000
G1 X89.000 Y1.000
G1 X93.000 Y2.000
G1 X116.000 Y1.000
G1 X118.000 Y4.000
G1 X133.000 Y1.000
G1 X133.000 Y8.000
G1 X122.000 Y6.000
G1 X120.000 Y5.000
G0 Z1

G0 X120.000 Y1.000
G1 Z0

G1 X125.000 Y1.000
G1 X128.000 Y5.000
G1 X124.000 Y19.000
G1 X119.000 Y28.000
G1 X118.000 Y24.000
G1 X118.000 Y22.000
G1 X108.000 Y15.000
G1 X100.000 Y13.000
G1 X98.000 Y11.000
G1 X101.000 Y11.000
G1 X109.000 Y26.000
G1 X114.000 Y29.000
G1 X114.000 Y21.000
G1 X121.000 Y10.000
G1 X115.000 Y8.000
G1 X113.000 Y5.000
G1 X109.000 Y5.000
G1 X109.000 Y9.000
G1 X112.000 Y10.000
G1 X124.000 Y12.000
G1 X133.000 Y10.000
G1 X133.000 Y13.000
G1 X130.000 Y12.000
G1 X130.000 Y3.000
G0 Z1

G0 X125.000 Y5.000
G1 Z0

G1 X123.000 Y5.000
G1 X125.000 Y4.000
G1 X118.000 Y1.000
G1 X123.000 Y8.000
G1 X125.000 Y8.000
G1 X129.000 Y19.000
G1 X131.000 Y16.000
G1 X135.000 Y1.000
G1 X123.000 Y16.000
G1 X120.000 Y15.000
G1 X118.000 Y18.000
G1 X120.000 Y17.000
G1 X98.000 Y17.000
G1 X97.000 Y15.000
G1 X93.000 Y12.000
G1 X97.000 Y7.000
G1 X95.000 Y6.000
G1 X89.000 Y4.000
G1 X89.000 Y9.000
G1 X92.000 Y10.000
G1 X102.000 Y20.000
G1 X103.000 Y22.000
G1 X108.000 Y19.000
G1 X109.000 Y21.000
G0 Z1

G0 X123.000 Y26.000
G1 Z0

G1 X105.000 Y28.000
G1 X115.000 Y35.000
G1 X113.000 Y39.000
G1 X100.000 Y50.000
G1 X102.000 Y47.000
G1 X102.000 Y45.000
G1 X99.000 Y32.000
G1 X102.000 Y29.000
G1 X100.000 Y29.000
G1 X96.000 Y27.000
G1 X70.000 Y26.000
G1 X68.000 Y29.000
G1 X69.000 Y31.000
G1 X76.000 Y28.000
G1 X78.000 Y32.000
G1 X80.000 Y34.000
G1 X74.000 Y56.000
G1 X76.000 Y57.000
G1 X84.000 Y54.000
G1 X81.000 Y53.000
G1 X95.000 Y48.000
G1 X94.000 Y46.000
G1 X99.000 Y45.000
G1 X98.000 Y43.000
G0 Z1

G0 X102.000 Y40.000
G1 Z0

G1 X104.000 Y39.000
G1 X100.000 Y48.000
G1 X100.000 Y41.000
G1 X110.000 Y33.000
G1 X106.000 Y30.000
G1 X101.000 Y35.000
G1 X83.000 Y25.000
G1 X92.000 Y35.000
G1 X92.000 Y38.000
G1 X94.000 Y41.000
G1 X98.000 Y53.000
G1 X97.000 Y61.000
G1 X99.000 Y63.000
G1 X106.000 Y83.000
G1 X109.000 Y79.000
G1 X109.000 Y64.000
G1 X107.000 Y63.000
G1 X107.000 Y69.000
G1 X105.000 Y69.000
G1 X99.000 Y80.000
G1 X95.000 Y80.000
G1 X85.000 Y73.000
G1 X83.000 Y69.000
G1 X76.000 Y71.000
G1 X74.000 Y68.000
G0 Z1

G0 X78.000 Y69.000
G1 Z0

G1 X64.000 Y59.000
G1 X52.000 Y59.000
G1 X31.000 Y43.000
G1 X40.000 Y42.000
G1 X29.000 Y51.000
G1 X15.000 Y44.000
G1 X.000 Y48.000
G1 X8.000 Y53.000
G1 X34.000 Y53.000
G1 X9.000 Y29.000
G1 X6.000 Y19.000
G1 X6.000 Y27.000
G1 X8.000 Y34.000
G1 X11.000 Y28.000
G1 X4.000 Y7.000
G1 X4.000 Y31.000
G1 X.000 Y35.000
G1 X2.000 Y39.000
G1 X38.000 Y21.000
G1 X51.000 Y4.000
G1 X6.000 Y1.000
G1 X13.000 Y5.000
G1 X11.000 Y7.000
G1 X1.000 Y4.000
G1 X1.000 Y32.000
G1 X.000 Y30.000
G0 Z1

G0 X.000 Y40.000
G1 Z0

G1 X1.000 Y42.000
G1 X37.000 Y29.000
G1 X55.000 Y2.000
G1 X57.000 Y1.000
G1 X76.000 Y31.000
G1 X92.000 Y57.000
G1 X108.000 Y77.000
G1 X92.000 Y85.000
G1 X78.000 Y66.000
G1 X66.000 Y58.000
G1 X53.000 Y51.000
G1 X60.000 Y38.000
G1 X60.000 Y11.000
G1 X56.000 Y9.000
G1 X49.000 Y19.000
G1 X46.000 Y21.000
G1 X36.000 Y36.000
G1 X32.000 Y34.000
G1 X11.000 Y49.000
G1 X.000 Y46.000
G1 X17.000 Y42.000
G1 X8.000 Y10.000
G1 X30.000 Y11.000
G1 X34.000 Y16.000
G1 X16.000 Y28.000
G1 X16.000 Y13.000
G1 X29.000 Y13.000
G1 X18.000 Y23.000
G0 Z1

G0 X30.000 Y9.000
G1 Z0

G1 X32.000 Y10.000
G1 X43.000 Y11.000
G1 X46.000 Y6.000
G1 X33.000 Y8.000
G1 X21.000 Y7.000
G1 X16.000 Y4.000
G1 X15.000 Y6.000
G1 X13.000 Y22.000
G1 X14.000 Y25.000
G1 X21.000 Y15.000
G1 X40.000 Y15.000
G1 X36.000 Y19.000
G1 X28.000 Y22.000
G1 X27.000 Y24.000
G1 X18.000 Y29.000
G1 X36.000 Y28.000
G1 X38.000 Y23.000
G1 X34.000 Y26.000
G1 X31.000 Y26.000
G1 X25.000 Y37.000
G1 X43.000 Y40.000
G1 X42.000 Y37.000
G1 X40.000 Y38.000
G1 X39.000 Y35.000
G0 Z1

G0 X42.000 Y24.000
G1 Z0

G1 X40.000 Y22.000
G1 X43.000 Y17.000
G1 X43.000 Y5.000
G1 X43.000 Y8.000
G1 X39.000 Y9.000
G1 X36.000 Y9.000
G1 X33.000 Y12.000
G1 X41.000 Y13.000
G1 X41.000 Y5.000
G1 X34.000 Y5.000
G1 X31.000 Y6.000
G1 X27.000 Y1.000
G1 X51.000 Y1.000
G1 X58.000 Y6.000
G1 X58.000 Y12.000
G1 X54.000 Y15.000
G1 X65.000 Y17.000
G1 X67.000 Y20.000
G1 X67.000 Y25.000
G1 X76.000 Y39.000
G1 X80.000 Y42.000
G1 X73.000 Y30.000
G1 X75.000 Y39.000
G1 X73.000 Y37.000
G0 Z1

G0 X75.000 Y44.000
G1 Z0

G1 X80.000 Y47.000
G1 X85.000 Y51.000
G1 X83.000 Y46.000
G1 X71.000 Y39.000
G1 X71.000 Y13.000
G1 X69.000 Y9.000
G1 X72.000 Y9.000
G1 X86.000 Y11.000
G1 X80.000 Y12.000
G1 X75.000 Y18.000
G1 X73.000 Y12.000
G1 X92.000 Y6.000
G1 X97.000 Y9.000
G1 X100.000 Y8.000
G1 X116.000 Y26.000
G1 X115.000 Y14.000
G1 X109.000 Y11.000
G1 X102.000 Y5.000
G1 X104.000 Y5.000
G1 X113.000 Y8.000
G1 X117.000 Y14.000
G1 X122.000 Y21.000
G1 X122.000 Y15.000
G1 X121.000 Y12.000
G1 X120.000 Y10.000
G0 Z1

G0 X98.000 Y3.000
G1 Z0

G1 X113.000 Y3.000
G1 X130.000 Y14.000
G1 X123.000 Y24.000
G1 X99.000 Y5.000
G1 X84.000 Y2.000
G1 X63.000 Y3.000
G1 X64.000 Y5.000
G1 X87.000 Y5.000
G1 X117.000 Y29.000
G1 X112.000 Y37.000
G1 X110.000 Y41.000
G1 X104.000 Y68.000
G1 X87.000 Y37.000
G1 X67.000 Y10.000
G1 X63.000 Y14.000
G1 X65.000 Y32.000
G1 X72.000 Y44.000
G1 X88.000 Y55.000
G1 X86.000 Y56.000
G1 X91.000 Y61.000
G1 X101.000 Y72.000
G1 X97.000 Y78.000
G1 X83.000 Y55.000
G1 X71.000 Y52.000
G1 X70.000 Y50.000
G0 Z1

G0 X60.000 Y49.000
G1 Z0

G1 X62.000 Y50.000
G1 X65.000 Y37.000
G1 X73.000 Y51.000
G1 X79.000 Y51.000
G1 X84.000 Y64.000
G1 X88.000 Y69.000
G1 X92.000 Y73.000
G1 X111.000 Y70.000
G1 X111.000 Y77.000
G1 X113.000 Y86.000
G1 X108.000 Y94.000
G1 X109.000 Y96.000
G1 X111.000 Y92.000
G1 X123.000 Y111.000
G1 X116.000 Y136.000
G1 X123.000 Y140.000
G1 X141.000 Y140.000
G1 X150.000 Y150.000
G1 X155.000 Y159.000
G1 X162.000 Y164.000
G1 X165.000 Y170.000
G1 X170.000 Y174.000
G1 X160.000 Y192.000
G1 X149.000 Y174.000
G1 X142.000 Y160.000
G0 Z1

G0 X164.000 Y154.000
G1 Z0

G1 X165.000 Y156.000
G1 X169.000 Y156.000
G1 X173.000 Y158.000
G1 X171.000 Y138.000
G1 X177.000 Y132.000
G1 X187.000 Y116.000
G1 X188.000 Y120.000
G1 X176.000 Y113.000
G1 X176.000 Y111.000
G1 X179.000 Y109.000
G1 X175.000 Y103.000
G1 X174.000 Y101.000
G1 X189.000 Y103.000
G1 X192.000 Y100.000
G1 X187.000 Y91.000
G1 X188.000 Y84.000
G1 X186.000 Y83.000
G1 X187.000 Y86.000
G1 X189.000 Y90.000
G1 X189.000 Y101.000
G1 X192.000 Y97.000
G1 X183.000 Y91.000
G1 X186.000 Y112.000
G1 X181.000 Y108.000
G1 X179.000 Y101.000
G1 X180.000 Y99.000
G0 Z1

G0 X180.000 Y110.000
G1 Z0

G1 X181.000 Y112.000
G1 X183.000 Y129.000
G1 X182.000 Y131.000
G1 X178.000 Y134.000
G1 X184.000 Y136.000
G1 X185.000 Y145.000
G1 X185.000 Y150.000
G1 X167.000 Y148.000
G1 X171.000 Y144.000
G1 X172.000 Y140.000
G1 X174.000 Y141.000
G1 X174.000 Y144.000
G1 X175.000 Y147.000
G1 X175.000 Y163.000
G1 X187.000 Y168.000
G1 X187.000 Y164.000
G1 X184.000 Y163.000
G1 X195.000 Y148.000
G1 X198.000 Y139.000
G1 X198.000 Y131.000
G1 X202.000 Y131.000
G1 X201.000 Y128.000
G1 X193.000 Y121.000
G1 X190.000 Y120.000
G1 X185.000 Y86.000
G1 X180.000 Y91.000
G1 X173.000 Y114.000
G1 X179.000 Y117.000
G1 X177.000 Y107.000
G1 X184.000 Y98.000
G1 X183.000 Y113.000
G1 X185.000 Y116.000
G1 X185.000 Y125.000
G1 X174.000 Y127.000
G1 X171.000 Y123.000
G1 X161.000 Y122.000
G1 X171.000 Y117.000
G1 X175.000 Y118.000
G1 X168.000 Y121.000
G1 X168.000 Y129.000
G1 X170.000 Y129.000
G1 X170.000 Y125.000
G1 X175.000 Y124.000
G0 Z1

G0 X183.000 Y127.000
G1 Z0

G1 X179.000 Y129.000
G1 X181.000 Y135.000
G1 X177.000 Y138.000
G1 X184.000 Y158.000
G1 X190.000 Y164.000
G1 X190.000 Y160.000
G1 X193.000 Y159.000
G1 X191.000 Y169.000
G1 X190.000 Y181.000
G1 X191.000 Y198.000
G1 X189.000 Y202.000
G1 X194.000 Y220.000
G1 X187.000 Y228.000
G1 X190.000 Y236.000
G1 X196.000 Y241.000
G1 X202.000 Y243.000
G1 X193.000 Y249.000
G1 X199.000 Y263.000
G1 X206.000 Y271.000
G1 X201.000 Y289.000
G1 X198.000 Y311.000
G1 X169.000 Y330.000
G1 X165.000 Y327.000
G1 X191.000 Y312.000
G1 X190.000 Y310.000
G0 Z1

G0 X188.000 Y290.000
G1 Z0

G1 X178.000 Y302.000
G1 X172.000 Y314.000
G1 X159.000 Y316.000
G1 X179.000 Y292.000
G1 X191.000 Y284.000
G1 X182.000 Y268.000
G1 X186.000 Y262.000
G1 X203.000 Y271.000
G1 X190.000 Y292.000
G1 X178.000 Y311.000
G1 X159.000 Y329.000
G1 X158.000 Y337.000
G1 X148.000 Y342.000
G1 X150.000 Y338.000
G1 X167.000 Y333.000
G1 X173.000 Y349.000
G1 X157.000 Y355.000
G1 X161.000 Y357.000
G1 X150.000 Y365.000
G1 X149.000 Y351.000
G1 X148.000 Y347.000
G1 X161.000 Y345.000
G1 X152.000 Y362.000
G1 X150.000 Y360.000
G0 Z1

G0 X151.000 Y350.000
G1 Z0

G1 X152.000 Y352.000
G1 X152.000 Y359.000
G1 X158.000 Y348.000
G1 X152.000 Y348.000
G1 X153.000 Y352.000
G1 X162.000 Y339.000
G1 X160.000 Y340.000
G1 X154.000 Y344.000
G1 X151.000 Y344.000
G1 X125.000 Y357.000
G1 X122.000 Y360.000
G1 X117.000 Y363.000
G1 X112.000 Y368.000
G1 X110.000 Y369.000
G1 X107.000 Y372.000
G1 X118.000 Y387.000
G1 X119.000 Y385.000
G1 X126.000 Y391.000
G1 X123.000 Y391.000
G1 X119.000 Y400.000
G1 X146.000 Y400.000
G1 X143.000 Y396.000
G1 X140.000 Y398.000
G1 X136.000 Y398.000
G0 Z1

G0 X126.000 Y389.000
G1 Z0

G1 X135.000 Y396.000
G1 X145.000 Y394.000
G1 X148.000 Y400.000
G1 X167.000 Y383.000
G1 X163.000 Y388.000
G1 X164.000 Y384.000
G1 X156.000 Y390.000
G1 X165.000 Y390.000
G1 X172.000 Y376.000
G1 X172.000 Y372.000
G1 X180.000 Y363.000
G1 X180.000 Y360.000
G1 X182.000 Y356.000
G1 X198.000 Y382.000
G1 X196.000 Y385.000
G1 X195.000 Y382.000
G1 X195.000 Y370.000
G1 X191.000 Y380.000
G1 X191.000 Y387.000
G1 X194.000 Y385.000
G1 X190.000 Y370.000
G1 X184.000 Y371.000
G1 X181.000 Y368.000
G1 X176.000 Y377.000
G1 X167.000 Y396.000
G1 X152.000 Y399.000
G1 X150.000 Y400.000
G0 Z1

G0 X160.000 Y400.000
G1 Z0

G1 X162.000 Y400.000
G1 X166.000 Y399.000
G1 X158.000 Y394.000
G1 X166.000 Y394.000
G1 X147.000 Y394.000
G1 X149.000 Y397.000
G1 X151.000 Y395.000
G1 X157.000 Y400.000
G1 X160.000 Y399.000
G1 X157.000 Y396.000
G1 X155.000 Y396.000
G1 X154.000 Y400.000
G1 X151.000 Y400.000
G1 X136.000 Y386.000
G1 X142.000 Y385.000
G1 X149.000 Y374.000
G1 X144.000 Y375.000
G1 X137.000 Y382.000
G1 X133.000 Y382.000
G1 X131.000 Y383.000
G1 X134.000 Y387.000
G1 X126.000 Y369.000
G1 X130.000 Y368.000
G1 X131.000 Y375.000
G1 X114.000 Y378.000
G0 Z1

G0 X130.000 Y370.000
G1 Z0

G1 X131.000 Y372.000
G1 X132.000 Y361.000
G1 X129.000 Y364.000
G1 X107.000 Y376.000
G1 X98.000 Y383.000
G1 X93.000 Y386.000
G1 X88.000 Y378.000
G1 X90.000 Y371.000
G1 X94.000 Y367.000
G1 X106.000 Y363.000
G1 X109.000 Y360.000
G1 X112.000 Y350.000
G1 X116.000 Y348.000
G1 X118.000 Y346.000
G1 X122.000 Y376.000
G1 X127.000 Y381.000
G1 X150.000 Y377.000
G1 X161.000 Y361.000
G1 X152.000 Y366.000
G1 X160.000 Y370.000
G1 X169.000 Y361.000
G1 X166.000 Y360.000
G1 X164.000 Y363.000
G1 X167.000 Y338.000
G1 X170.000 Y348.000
G0 Z1

G0 X173.000 Y343.000
G1 Z0

G1 X176.000 Y348.000
G1 X171.000 Y358.000
G1 X169.000 Y357.000
G1 X174.000 Y357.000
G1 X175.000 Y353.000
G1 X180.000 Y342.000
G1 X176.000 Y340.000
G1 X176.000 Y333.000
G1 X179.000 Y337.000
G1 X182.000 Y346.000
G1 X180.000 Y347.000
G1 X185.000 Y354.000
G1 X189.000 Y362.000
G1 X192.000 Y364.000
G1 X188.000 Y357.000
G1 X186.000 Y351.000
G1 X185.000 Y347.000
G1 X188.000 Y349.000
G1 X191.000 Y355.000
G1 X192.000 Y353.000
G1 X195.000 Y356.000
G1 X197.000 Y357.000
G1 X194.000 Y341.000
G1 X196.000 Y340.000
G1 X197.000 Y334.000
G0 Z1

G0 X185.000 Y333.000
G1 Z0

G1 X182.000 Y335.000
G1 X186.000 Y337.000
G1 X185.000 Y341.000
G1 X192.000 Y333.000
G1 X194.000 Y334.000
G1 X194.000 Y339.000
G1 X187.000 Y331.000
G1 X178.000 Y333.000
G1 X182.000 Y339.000
G1 X193.000 Y327.000
G1 X174.000 Y332.000
G1 X170.000 Y335.000
G1 X173.000 Y339.000
G1 X178.000 Y347.000
G1 X179.000 Y349.000
G1 X165.000 Y357.000
G1 X176.000 Y363.000
G1 X167.000 Y377.000
G1 X154.000 Y387.000
G1 X144.000 Y390.000
G1 X146.000 Y387.000
G1 X167.000 Y374.000
G1 X171.000 Y378.000
G1 X152.000 Y390.000
G1 X150.000 Y390.000
G0 Z1

G0 X153.000 Y385.000
G1 Z0

G1 X163.000 Y378.000
G1 X168.000 Y379.000
G1 X191.000 Y390.000
G1 X185.000 Y393.000
G1 X188.000 Y394.000
G1 X185.000 Y390.000
G1 X188.000 Y384.000
G1 X195.000 Y366.000
G1 X189.000 Y373.000
G1 X178.000 Y376.000
G1 X181.000 Y371.000
G1 X187.000 Y368.000
G1 X184.000 Y363.000
G1 X182.000 Y366.000
G1 X184.000 Y355.000
G1 X178.000 Y360.000
G1 X173.000 Y345.000
G1 X171.000 Y340.000
G1 X178.000 Y343.000
G1 X175.000 Y345.000
G1 X172.000 Y351.000
G1 X178.000 Y351.000
G0 Z1

G0 X199.000 Y354.000
G1 Z0

G1 X196.000 Y351.000
G1 X195.000 Y354.000
G1 X200.000 Y356.000
G1 X197.000 Y360.000
G1 X193.000 Y357.000
G1 X194.000 Y347.000
G1 X189.000 Y354.000
G1 X194.000 Y363.000
G1 X190.000 Y378.000
G1 X182.000 Y363.000
G1 X193.000 Y343.000
G1 X191.000 Y339.000
G1 X187.000 Y341.000
G1 X165.000 Y372.000
G1 X139.000 Y389.000
G1 X137.000 Y390.000
G1 X123.000 Y383.000
G1 X118.000 Y373.000
G1 X92.000 Y389.000
G1 X83.000 Y380.000
G1 X81.000 Y381.000
G1 X75.000 Y385.000
G1 X67.000 Y399.000
G1 X62.000 Y400.000
G1 X60.000 Y400.000
G0 Z1

G0 X57.000 Y400.000
G1 Z0

G1 X69.000 Y400.000
G1 X83.000 Y398.000
G1 X91.000 Y390.000
G1 X93.000 Y393.000
G1 X91.000 Y394.000
G1 X81.000 Y383.000
G1 X84.000 Y383.000
G1 X84.000 Y365.000
G1 X82.000 Y366.000
G1 X78.000 Y369.000
G1 X80.000 Y374.000
G1 X78.000 Y376.000
G1 X76.000 Y371.000
G1 X59.000 Y367.000
G1 X55.000 Y371.000
G1 X44.000 Y377.000
G1 X41.000 Y378.000
G1 X37.000 Y377.000
G1 X30.000 Y377.000
G1 X24.000 Y375.000
G1 X17.000 Y380.000
G1 X13.000 Y380.000
G1 X.000 Y393.000
G1 X.000 Y397.000
G1 X6.000 Y393.000
G1 X5.000 Y391.000
G1 X8.000 Y388.000
G1 X.000 Y389.000
G0 Z1

G0 X32.000 Y399.000
G1 Z0

G1 X34.000 Y397.000
G1 X33.000 Y395.000
G1 X32.000 Y397.000
G1 X40.000 Y400.000
G1 X38.000 Y397.000
G1 X47.000 Y393.000
G1 X47.000 Y398.000
G1 X51.000 Y397.000
G1 X51.000 Y383.000
G1 X31.000 Y390.000
G1 X40.000 Y394.000
G1 X24.000 Y400.000
G1 X21.000 Y379.000
G1 X38.000 Y379.000
G1 X26.000 Y387.000
G1 X24.000 Y381.000
G1 X.000 Y387.000
G1 X.000 Y375.000
G1 X16.000 Y395.000
G1 X20.000 Y387.000
G1 X12.000 Y387.000
G1 X14.000 Y398.000
G1 X22.000 Y398.000
G1 X48.000 Y386.000
G1 X73.000 Y394.000
G0 Z1

G0 X80.000 Y400.000
G1 Z0

G1 X82.000 Y399.000
G1 X88.000 Y398.000
G1 X113.000 Y379.000
G1 X134.000 Y392.000
G1 X166.000 Y392.000
G1 X180.000 Y366.000
G1 X176.000 Y360.000
G1 X191.000 Y343.000
G1 X189.000 Y342.000
G1 X187.000 Y345.000
G1 X156.000 Y323.000
G1 X140.000 Y350.000
G1 X91.000 Y385.000
G1 X82.000 Y375.000
G1 X60.000 Y389.000
G1 X54.000 Y400.000
G1 X73.000 Y385.000
G1 X89.000 Y394.000
G1 X72.000 Y400.000
G1 X77.000 Y390.000
G1 X82.000 Y394.000
G1 X76.000 Y397.000
G1 X62.000 Y396.000
G0 Z1

G0 X61.000 Y397.000
G1 Z0

G1 X54.000 Y396.000
G1 X53.000 Y392.000
G1 X45.000 Y400.000
G1 X31.000 Y392.000
G1 X35.000 Y394.000
G1 X34.000 Y398.000
G1 X32.000 Y400.000
G1 X22.000 Y400.000
G1 X12.000 Y399.000
G1 X17.000 Y389.000
G1 X25.000 Y389.000
G1 X24.000 Y387.000
G1 X20.000 Y393.000
G1 X15.000 Y391.000
G1 X16.000 Y385.000
G1 X19.000 Y385.000
G1 X34.000 Y374.000
G1 X27.000 Y384.000
G1 X27.000 Y382.000
G1 X29.000 Y381.000
G1 X42.000 Y393.000
G1 X43.000 Y397.000
G1 X45.000 Y397.000
G1 X49.000 Y389.000
G1 X39.000 Y388.000
G1 X37.000 Y386.000
G1 X42.000 Y383.000
G1 X53.000 Y383.000
G1 X57.000 Y392.000
G1 X49.000 Y396.000
G1 X49.000 Y391.000
G1 X43.000 Y391.000
G1 X41.000 Y392.000
G0 Z1

G0 X32.000 Y400.000
G1 Z0

G1 X34.000 Y400.000
G1 X40.000 Y398.000
G1 X50.000 Y400.000
G1 X52.000 Y399.000
G1 X65.000 Y398.000
G1 X83.000 Y400.000
G1 X90.000 Y400.000
G1 X92.000 Y397.000
G1 X94.000 Y395.000
G1 X97.000 Y393.000
G1 X100.000 Y396.000
G1 X114.000 Y389.000
G1 X110.000 Y387.000
G1 X111.000 Y385.000
G1 X113.000 Y386.000
G1 X139.000 Y362.000
G1 X138.000 Y354.000
G1 X140.000 Y352.000
G1 X144.000 Y351.000
G1 X143.000 Y367.000
G1 X135.000 Y372.000
G1 X136.000 Y367.000
G1 X139.000 Y365.000
G1 X152.000 Y371.000
G0 Z1

G0 X160.000 Y367.000
G1 Z0

G1 X160.000 Y365.000
G1 X165.000 Y369.000
G1 X167.000 Y365.000
G1 X171.000 Y368.000
G1 X168.000 Y372.000
G1 X175.000 Y373.000
G1 X175.000 Y371.000
G1 X177.000 Y369.000
G1 X171.000 Y366.000
G1 X173.000 Y364.000
G1 X170.000 Y352.000
G1 X167.000 Y353.000
G1 X168.000 Y348.000
G1 X159.000 Y351.000
G1 X161.000 Y347.000
G1 X162.000 Y342.000
G1 X166.000 Y335.000
G1 X165.000 Y331.000
G1 X166.000 Y320.000
G1 X168.000 Y318.000
G1 X159.000 Y323.000
G1 X155.000 Y327.000
G1 X154.000 Y330.000
G1 X152.000 Y333.000
G1 X144.000 Y339.000
G0 Z1

G0 X146.000 Y329.000
G1 Z0

G1 X146.000 Y309.000
G1 X153.000 Y305.000
G1 X154.000 Y309.000
G1 X152.000 Y311.000
G1 X184.000 Y309.000
G1 X183.000 Y312.000
G1 X177.000 Y319.000
G1 X179.000 Y318.000
G1 X186.000 Y322.000
G1 X190.000 Y318.000
G1 X198.000 Y320.000
G1 X174.000 Y337.000
G1 X171.000 Y332.000
G1 X174.000 Y334.000
G1 X171.000 Y338.000
G1 X165.000 Y340.000
G1 X165.000 Y342.000
G1 X168.000 Y345.000
G1 X161.000 Y352.000
G1 X159.000 Y353.000
G1 X161.000 Y355.000
G1 X155.000 Y360.000
G1 X153.000 Y354.000
G1 X151.000 Y356.000
G1 X151.000 Y351.000
G1 X150.000 Y348.000
G1 X148.000 Y353.000
G1 X148.000 Y356.000
G1 X147.000 Y366.000
G1 X158.000 Y371.000
G1 X160.000 Y368.000
G1 X157.000 Y357.000
G1 X155.000 Y358.000
G1 X189.000 Y364.000
G1 X197.000 Y377.000
G1 X197.000 Y373.000
G1 X199.000 Y364.000
G1 X199.000 Y367.000
G1 X226.000 Y364.000
G1 X232.000 Y364.000
G1 X231.000 Y361.000
G1 X233.000 Y358.000
G1 X237.000 Y360.000
G1 X229.000 Y364.000
G1 X225.000 Y333.000
G1 X229.000 Y332.000
G1 X234.000 Y329.000
G1 X239.000 Y324.000
G1 X225.000 Y329.000
G1 X227.000 Y329.000
G1 X231.000 Y327.000
G1 X233.000 Y337.000
G1 X236.000 Y335.000
G1 X238.000 Y336.000
G1 X242.000 Y328.000
G1 X230.000 Y337.000
G0 Z1

G0 X230.000 Y330.000
G1 Z0

G1 X226.000 Y331.000
G1 X228.000 Y334.000
G1 X228.000 Y336.000
G1 X242.000 Y325.000
G1 X239.000 Y316.000
G1 X251.000 Y311.000
G1 X250.000 Y316.000
G1 X248.000 Y310.000
G1 X246.000 Y311.000
G1 X255.000 Y308.000
G1 X271.000 Y286.000
G1 X275.000 Y276.000
G1 X277.000 Y268.000
G1 X269.000 Y267.000
G1 X273.000 Y274.000
G1 X271.000 Y279.000
G1 X278.000 Y289.000
G1 X267.000 Y297.000
G1 X271.000 Y289.000
G1 X275.000 Y288.000
G1 X277.000 Y275.000
G1 X280.000 Y270.000
G1 X280.000 Y280.000
G1 X278.000 Y281.000
G1 X256.000 Y294.000
G1 X253.000 Y306.000
G1 X264.000 Y292.000
G1 X251.000 Y299.000
G1 X251.000 Y306.000
G1 X253.000 Y314.000
G1 X230.000 Y325.000
G1 X230.000 Y314.000
G1 X239.000 Y314.000
G1 X232.000 Y322.000
G1 X232.000 Y316.000
G1 X235.000 Y316.000
G1 X235.000 Y301.000
G1 X240.000 Y292.000
G1 X242.000 Y297.000
G1 X255.000 Y269.000
G1 X257.000 Y268.000
G1 X251.000 Y264.000
G1 X255.000 Y262.000
G1 X257.000 Y264.000
G1 X258.000 Y262.000
G1 X247.000 Y272.000
G1 X251.000 Y274.000
G1 X255.000 Y274.000
G1 X241.000 Y263.000
G1 X243.000 Y262.000
G1 X259.000 Y259.000
G0 Z1

G0 X250.000 Y259.000
G1 Z0

G1 X253.000 Y254.000
G1 X257.000 Y253.000
G1 X260.000 Y249.000
G1 X236.000 Y260.000
G1 X235.000 Y258.000
G1 X241.000 Y255.000
G1 X242.000 Y253.000
G1 X250.000 Y275.000
G1 X240.000 Y290.000
G1 X238.000 Y291.000
G1 X240.000 Y297.000
G1 X241.000 Y299.000
G1 X239.000 Y300.000
G1 X237.000 Y293.000
G1 X235.000 Y294.000
G1 X233.000 Y309.000
G1 X233.000 Y302.000
G1 X259.000 Y306.000
G1 X255.000 Y310.000
G1 X257.000 Y310.000
G1 X264.000 Y306.000
G1 X261.000 Y305.000
G1 X263.000 Y301.000
G1 X271.000 Y297.000
G1 X270.000 Y299.000
G0 Z1

G0 X250.000 Y270.000
G1 Z0

G1 X251.000 Y272.000
G1 X259.000 Y257.000
G1 X241.000 Y259.000
G1 X257.000 Y273.000
G1 X260.000 Y262.000
G1 X262.000 Y256.000
G1 X247.000 Y256.000
G1 X244.000 Y257.000
G1 X237.000 Y257.000
G1 X237.000 Y259.000
G1 X239.000 Y259.000
G1 X251.000 Y262.000
G1 X255.000 Y259.000
G1 X256.000 Y246.000
G1 X260.000 Y251.000
G1 X253.000 Y250.000
G1 X267.000 Y234.000
G1 X265.000 Y228.000
G1 X272.000 Y208.000
G1 X282.000 Y198.000
G1 X291.000 Y194.000
G1 X290.000 Y191.000
G1 X290.000 Y183.000
G1 X294.000 Y184.000
G1 X278.000 Y210.000
G1 X271.000 Y217.000
G0 Z1

G0 X270.000 Y207.000
G1 Z0

G1 X271.000 Y205.000
G1 X276.000 Y201.000
G1 X276.000 Y209.000
G1 X273.000 Y211.000
G1 X267.000 Y210.000
G1 X267.000 Y215.000
G1 X266.000 Y220.000
G1 X273.000 Y188.000
G1 X266.000 Y196.000
G1 X263.000 Y197.000
G1 X265.000 Y192.000
G1 X270.000 Y195.000
G1 X268.000 Y196.000
G1 X285.000 Y207.000
G1 X280.000 Y210.000
G1 X277.000 Y214.000
G1 X270.000 Y219.000
G1 X267.000 Y228.000
G1 X262.000 Y232.000
G1 X268.000 Y236.000
G1 X268.000 Y230.000
G1 X263.000 Y262.000
G1 X261.000 Y266.000
G1 X251.000 Y266.000
G0 Z1

G0 X216.000 Y268.000
G1 Z0

G1 X215.000 Y270.000
G1 X217.000 Y268.000
G1 X219.000 Y261.000
G1 X211.000 Y268.000
G1 X212.000 Y271.000
G1 X225.000 Y283.000
G1 X222.000 Y276.000
G1 X221.000 Y271.000
G1 X211.000 Y278.000
G1 X212.000 Y280.000
G1 X215.000 Y278.000
G1 X201.000 Y297.000
G1 X207.000 Y300.000
G1 X190.000 Y287.000
G1 X192.000 Y286.000
G1 X181.000 Y283.000
G1 X173.000 Y272.000
G1 X172.000 Y274.000
G1 X172.000 Y276.000
G1 X162.000 Y270.000
G1 X159.000 Y272.000
G1 X154.000 Y268.000
G1 X159.000 Y267.000
G1 X154.000 Y270.000
G1 X166.000 Y262.000
G0 Z1

G0 X141.000 Y262.000
G1 Z0

G1 X144.000 Y280.000
G1 X141.000 Y292.000
G1 X138.000 Y303.000
G1 X138.000 Y313.000
G1 X122.000 Y330.000
G1 X140.000 Y331.000
G1 X145.000 Y324.000
G1 X142.000 Y327.000
G1 X144.000 Y331.000
G1 X137.000 Y341.000
G1 X139.000 Y345.000
G1 X132.000 Y347.000
G1 X133.000 Y343.000
G1 X131.000 Y341.000
G1 X133.000 Y333.000
G1 X121.000 Y334.000
G1 X122.000 Y338.000
G1 X116.000 Y341.000
G1 X101.000 Y353.000
G1 X102.000 Y357.000
G1 X114.000 Y351.000
G1 X110.000 Y351.000
G1 X109.000 Y353.000
G1 X106.000 Y354.000
G1 X104.000 Y355.000
G0 Z1

G0 X103.000 Y347.000
G1 Z0

G1 X99.000 Y352.000
G1 X99.000 Y355.000
G1 X92.000 Y361.000
G1 X62.000 Y383.000
G1 X59.000 Y385.000
G1 X58.000 Y387.000
G1 X63.000 Y385.000
G1 X75.000 Y378.000
G1 X76.000 Y376.000
G1 X78.000 Y379.000
G1 X84.000 Y375.000
G1 X91.000 Y373.000
G1 X93.000 Y372.000
G1 X91.000 Y364.000
G1 X86.000 Y370.000
G1 X73.000 Y374.000
G1 X62.000 Y380.000
G1 X75.000 Y390.000
G1 X74.000 Y392.000
G1 X77.000 Y394.000
G1 X87.000 Y391.000
G1 X86.000 Y389.000
G1 X78.000 Y385.000
G1 X83.000 Y383.000
G1 X81.000 Y384.000
G0 Z1

G0 X84.000 Y394.000
G1 Z0

G1 X85.000 Y397.000
G1 X88.000 Y396.000
G1 X91.000 Y380.000
G1 X95.000 Y365.000
G1 X91.000 Y360.000
G1 X97.000 Y354.000
G1 X99.000 Y357.000
G1 X111.000 Y359.000
G1 X106.000 Y361.000
G1 X102.000 Y360.000
G1 X100.000 Y361.000
G1 X108.000 Y367.000
G1 X110.000 Y365.000
G1 X115.000 Y361.000
G1 X118.000 Y359.000
G1 X105.000 Y353.000
G1 X103.000 Y354.000
G1 X108.000 Y350.000
G1 X108.000 Y352.000
G1 X106.000 Y353.000
G1 X105.000 Y346.000
G1 X109.000 Y344.000
G1 X118.000 Y335.000
G1 X118.000 Y342.000
G1 X112.000 Y347.000
G1 X110.000 Y349.000
G0 Z1

G0 X130.000 Y328.000
G1 Z0

G1 X132.000 Y326.000
G1 X137.000 Y317.000
G1 X136.000 Y305.000
G1 X144.000 Y295.000
G1 X144.000 Y252.000
G1 X145.000 Y249.000
G1 X145.000 Y246.000
G1 X156.000 Y240.000
G1 X157.000 Y238.000
G1 X155.000 Y232.000
G1 X155.000 Y222.000
G1 X145.000 Y226.000
G1 X145.000 Y228.000
G1 X148.000 Y227.000
G1 X150.000 Y229.000
G1 X152.000 Y228.000
G1 X153.000 Y225.000
G1 X163.000 Y233.000
G1 X169.000 Y235.000
G1 X171.000 Y233.000
G1 X175.000 Y231.000
G1 X174.000 Y228.000
G1 X173.000 Y216.000
G1 X175.000 Y215.000
G1 X178.000 Y214.000
G1 X178.000 Y209.000
G1 X185.000 Y199.000
G1 X187.000 Y203.000
G0 Z1

G0 X186.000 Y217.000
G1 Z0

G1 X178.000 Y218.000
G1 X182.000 Y227.000
G1 X188.000 Y219.000
G1 X185.000 Y201.000
G1 X187.000 Y200.000
G1 X186.000 Y197.000
G1 X182.000 Y193.000
G1 X180.000 Y190.000
G1 X177.000 Y185.000
G1 X177.000 Y177.000
G1 X184.000 Y152.000
G1 X188.000 Y159.000
G1 X196.000 Y156.000
G1 X193.000 Y187.000
G1 X198.000 Y216.000
G1 X191.000 Y232.000
G1 X205.000 Y243.000
G1 X196.000 Y250.000
G1 X202.000 Y259.000
G1 X208.000 Y262.000
G1 X208.000 Y286.000
G1 X202.000 Y314.000
G1 X174.000 Y330.000
G1 X172.000 Y331.000
G1 X170.000 Y330.000
G0 Z1

G0 X137.000 Y328.000
G1 Z0

G1 X136.000 Y330.000
G1 X137.000 Y362.000
G1 X133.000 Y363.000
G1 X130.000 Y366.000
G1 X141.000 Y381.000
G1 X142.000 Y390.000
G1 X136.000 Y394.000
G1 X134.000 Y390.000
G1 X132.000 Y389.000
G1 X134.000 Y388.000
G1 X154.000 Y385.000
G1 X154.000 Y390.000
G1 X147.000 Y391.000
G1 X143.000 Y399.000
G1 X145.000 Y398.000
G1 X126.000 Y378.000
G1 X135.000 Y377.000
G1 X121.000 Y390.000
G1 X108.000 Y388.000
G1 X107.000 Y391.000
G1 X109.000 Y393.000
G1 X111.000 Y392.000
G1 X112.000 Y394.000
G1 X127.000 Y398.000
G1 X122.000 Y399.000
G0 Z1

G0 X110.000 Y400.000
G1 Z0

G1 X117.000 Y400.000
G1 X118.000 Y398.000
G1 X97.000 Y400.000
G1 X101.000 Y390.000
G1 X103.000 Y384.000
G1 X105.000 Y383.000
G1 X108.000 Y381.000
G1 X103.000 Y365.000
G1 X101.000 Y367.000
G1 X100.000 Y369.000
G1 X117.000 Y369.000
G1 X119.000 Y367.000
G1 X119.000 Y372.000
G1 X120.000 Y374.000
G1 X117.000 Y376.000
G1 X126.000 Y382.000
G1 X116.000 Y379.000
G1 X112.000 Y372.000
G1 X124.000 Y374.000
G1 X123.000 Y371.000
G1 X139.000 Y368.000
G1 X138.000 Y372.000
G1 X143.000 Y380.000
G0 Z1

G0 X69.000 Y272.000
G1 Z0

G1 X66.000 Y271.000
G1 X78.000 Y268.000
G1 X83.000 Y260.000
G1 X81.000 Y260.000
G1 X73.000 Y265.000
G1 X56.000 Y275.000
G1 X54.000 Y278.000
G1 X46.000 Y278.000
G1 X43.000 Y283.000
G1 X41.000 Y284.000
G1 X38.000 Y276.000
G1 X26.000 Y290.000
G1 X27.000 Y286.000
G1 X18.000 Y287.000
G1 X22.000 Y296.000
G1 X35.000 Y290.000
G1 X22.000 Y281.000
G1 X18.000 Y282.000
G1 X12.000 Y286.000
G1 X8.000 Y279.000
G1 X7.000 Y272.000
G1 X2.000 Y276.000
G1 X6.000 Y288.000
G1 X1.000 Y282.000
G1 X.000 Y280.000
G0 Z1

G0 X10.000 Y280.000
G1 Z0

G1 X11.000 Y282.000
G1 X23.000 Y279.000
G1 X52.000 Y258.000
G1 X66.000 Y266.000
G1 X79.000 Y259.000
G1 X59.000 Y253.000
G1 X37.000 Y249.000
G1 X32.000 Y253.000
G1 X17.000 Y227.000
G1 X13.000 Y229.000
G1 X13.000 Y259.000
G1 X37.000 Y261.000
G1 X4.000 Y278.000
G1 X11.000 Y292.000
G1 X9.000 Y293.000
G1 X.000 Y294.000
G1 X30.000 Y279.000
G1 X53.000 Y265.000
G1 X59.000 Y268.000
G1 X61.000 Y267.000
G1 X65.000 Y273.000
G1 X62.000 Y275.000
G1 X60.000 Y272.000
G1 X56.000 Y279.000
G1 X38.000 Y288.000
G0 Z1

G0 X52.000 Y271.000
G1 Z0

G1 X56.000 Y262.000
G1 X54.000 Y263.000
G1 X57.000 Y265.000
G1 X44.000 Y268.000
G1 X44.000 Y273.000
G1 X32.000 Y259.000
G1 X31.000 Y262.000
G1 X24.000 Y256.000
G1 X20.000 Y255.000
G1 X21.000 Y257.000
G1 X18.000 Y258.000
G1 X15.000 Y254.000
G1 X5.000 Y275.000
G1 X3.000 Y272.000
G1 X11.000 Y266.000
G1 X12.000 Y269.000
G1 X14.000 Y274.000
G1 X15.000 Y282.000
G1 X9.000 Y283.000
G1 X4.000 Y295.000
G1 X.000 Y296.000
G1 X.000 Y302.000
G1 X1.000 Y300.000
G1 X2.000 Y302.000
G1 X.000 Y301.000
G0 Z1

G0 X.000 Y308.000
G1 Z0

G1 X3.000 Y307.000
G1 X9.000 Y304.000
G1 X6.000 Y295.000
G1 X.000 Y276.000
G1 X14.000 Y280.000
G1 X18.000 Y278.000
G1 X22.000 Y277.000
G1 X27.000 Y274.000
G1 X38.000 Y284.000
G1 X48.000 Y270.000
G1 X53.000 Y267.000
G1 X58.000 Y270.000
G1 X61.000 Y270.000
G1 X70.000 Y249.000
G1 X72.000 Y250.000
G1 X71.000 Y255.000
G1 X73.000 Y255.000
G1 X47.000 Y249.000
G1 X51.000 Y242.000
G1 X50.000 Y239.000
G1 X36.000 Y247.000
G1 X43.000 Y247.000
G1 X44.000 Y245.000
G0 Z1

G0 X42.000 Y242.000
G1 Z0

G1 X36.000 Y240.000
G1 X34.000 Y240.000
G1 X30.000 Y234.000
G1 X24.000 Y236.000
G1 X26.000 Y237.000
G1 X27.000 Y240.000
G1 X24.000 Y242.000
G1 X20.000 Y239.000
G1 X23.000 Y232.000
G1 X3.000 Y214.000
G1 X6.000 Y209.000
G1 X4.000 Y208.000
G1 X4.000 Y203.000
G1 X8.000 Y209.000
G1 X11.000 Y211.000
G1 X13.000 Y214.000
G1 X12.000 Y217.000
G1 X9.000 Y211.000
G1 X1.000 Y212.000
G1 X4.000 Y188.000
G1 X18.000 Y187.000
G1 X26.000 Y167.000
G1 X25.000 Y162.000
G1 X21.000 Y158.000
G1 X25.000 Y155.000
G1 X30.000 Y169.000
G1 X38.000 Y169.000
G1 X32.000 Y164.000
G1 X24.000 Y172.000
G1 X56.000 Y170.000
G1 X58.000 Y169.000
G1 X63.000 Y164.000
G1 X67.000 Y166.000
G1 X68.000 Y158.000
G1 X70.000 Y149.000
G1 X69.000 Y147.000
G1 X56.000 Y147.000
G1 X61.000 Y137.000
G1 X80.000 Y155.000
G1 X77.000 Y150.000
G1 X74.000 Y163.000
G1 X65.000 Y187.000
G1 X69.000 Y189.000
G1 X68.000 Y180.000
G1 X69.000 Y178.000
G1 X73.000 Y179.000
G1 X75.000 Y177.000
G1 X59.000 Y172.000
G1 X52.000 Y172.000
G1 X60.000 Y159.000
G1 X60.000 Y157.000
G1 X50.000 Y143.000
G1 X50.000 Y139.000
G1 X51.000 Y131.000
G1 X58.000 Y118.000
G1 X50.000 Y96.000
G1 X40.000 Y75.000
G1 X40.000 Y63.000
G1 X37.000 Y61.000
G1 X33.000 Y65.000
G1 X5.000 Y49.000
G1 X7.000 Y50.000
G1 X10.000 Y47.000
G1 X16.000 Y51.000
G1 X18.000 Y51.000
G1 X22.000 Y49.000
G1 X30.000 Y58.000
G1 X35.000 Y60.000
G1 X34.000 Y81.000
G1 X34.000 Y105.000
G1 X24.000 Y104.000
G1 X23.000 Y121.000
G1 X44.000 Y129.000
G1 X45.000 Y131.000
G1 X41.000 Y141.000
G1 X35.000 Y134.000
G1 X33.000 Y145.000
G1 X38.000 Y148.000
G1 X49.000 Y153.000
G1 X48.000 Y159.000
G1 X52.000 Y161.000
G1 X49.000 Y163.000
G1 X41.000 Y155.000
G1 X44.000 Y167.000
G1 X40.000 Y168.000
G1 X36.000 Y149.000
G1 X56.000 Y161.000
G1 X41.000 Y172.000
G1 X40.000 Y170.000
G0 Z1

G0 X36.000 Y162.000
G1 Z0

G1 X36.000 Y165.000
G1 X45.000 Y162.000
G1 X47.000 Y164.000
G1 X46.000 Y173.000
G1 X43.000 Y173.000
G1 X39.000 Y176.000
G1 X35.000 Y177.000
G1 X36.000 Y174.000
G1 X65.000 Y162.000
G1 X70.000 Y158.000
G1 X72.000 Y153.000
G1 X72.000 Y145.000
G1 X71.000 Y139.000
G1 X65.000 Y143.000
G1 X61.000 Y154.000
G1 X52.000 Y137.000
G1 X53.000 Y135.000
G1 X53.000 Y131.000
G1 X59.000 Y122.000
G1 X59.000 Y113.000
G1 X56.000 Y102.000
G1 X54.000 Y100.000
G1 X54.000 Y93.000
G1 X52.000 Y90.000
G1 X50.000 Y91.000
G0 Z1

G0 X31.000 Y84.000
G1 Z0

G1 X32.000 Y86.000
G1 X32.000 Y92.000
G1 X37.000 Y91.000
G1 X36.000 Y81.000
G1 X31.000 Y81.000
G1 X32.000 Y83.000
G1 X55.000 Y70.000
G1 X53.000 Y63.000
G1 X50.000 Y63.000
G1 X67.000 Y63.000
G1 X60.000 Y61.000
G1 X57.000 Y61.000
G1 X64.000 Y55.000
G1 X61.000 Y51.000
G1 X55.000 Y50.000
G1 X56.000 Y48.000
G1 X44.000 Y48.000
G1 X46.000 Y46.000
G1 X50.000 Y40.000
G1 X47.000 Y27.000
G1 X49.000 Y27.000
G1 X42.000 Y30.000
G1 X39.000 Y29.000
G1 X46.000 Y18.000
G1 X54.000 Y10.000
G1 X58.000 Y14.000
G1 X81.000 Y14.000
G1 X82.000 Y18.000
G1 X80.000 Y19.000
G1 X87.000 Y14.000
G1 X88.000 Y18.000
G1 X92.000 Y18.000
G1 X90.000 Y36.000
G1 X87.000 Y40.000
G1 X84.000 Y35.000
G1 X82.000 Y43.000
G1 X88.000 Y42.000
G1 X95.000 Y55.000
G1 X73.000 Y61.000
G1 X80.000 Y66.000
G1 X69.000 Y53.000
G1 X72.000 Y46.000
G1 X73.000 Y38.000
G1 X61.000 Y33.000
G1 X58.000 Y33.000
G1 X54.000 Y36.000
G0 Z1

G0 X50.000 Y30.000
G1 Z0

G1 X51.000 Y32.000
G1 X46.000 Y50.000
G1 X56.000 Y57.000
G1 X58.000 Y45.000
G1 X63.000 Y38.000
G1 X63.000 Y29.000
G1 X62.000 Y24.000
G1 X46.000 Y25.000
G1 X44.000 Y29.000
G1 X55.000 Y29.000
G1 X58.000 Y27.000
G1 X58.000 Y30.000
G1 X50.000 Y50.000
G1 X49.000 Y45.000
G1 X51.000 Y43.000
G1 X52.000 Y34.000
G1 X41.000 Y32.000
G1 X26.000 Y29.000
G1 X19.000 Y34.000
G1 X31.000 Y47.000
G1 X49.000 Y59.000
G1 X38.000 Y56.000
G1 X27.000 Y57.000
G1 X22.000 Y55.000
G1 X19.000 Y55.000
G0 Z1

G0 X31.000 Y62.000
G1 Z0

G1 X26.000 Y51.000
G1 X25.000 Y57.000
G1 X26.000 Y59.000
G1 X28.000 Y59.000
G1 X32.000 Y74.000
G1 X32.000 Y72.000
G1 X23.000 Y66.000
G1 X19.000 Y63.000
G1 X15.000 Y61.000
G1 X9.000 Y55.000
G1 X3.000 Y54.000
G1 X7.000 Y58.000
G1 X8.000 Y60.000
G1 X11.000 Y60.000
G1 X23.000 Y57.000
G1 X21.000 Y51.000
G1 X24.000 Y47.000
G1 X38.000 Y54.000
G1 X33.000 Y55.000
G1 X29.000 Y55.000
G1 X42.000 Y63.000
G1 X42.000 Y71.000
G1 X46.000 Y62.000
G1 X48.000 Y62.000
G0 Z1

G0 X39.000 Y61.000
G1 Z0

G1 X59.000 Y67.000
G1 X71.000 Y74.000
G1 X82.000 Y81.000
G1 X95.000 Y100.000
G1 X111.000 Y121.000
G1 X115.000 Y123.000
G1 X134.000 Y144.000
G1 X142.000 Y155.000
G1 X164.000 Y180.000
G1 X156.000 Y193.000
G1 X137.000 Y170.000
G1 X138.000 Y161.000
G1 X127.000 Y161.000
G1 X127.000 Y144.000
G1 X135.000 Y149.000
G1 X147.000 Y177.000
G1 X161.000 Y197.000
G1 X172.000 Y183.000
G1 X170.000 Y179.000
G1 X167.000 Y175.000
G1 X150.000 Y156.000
G1 X143.000 Y146.000
G1 X140.000 Y142.000
G1 X121.000 Y142.000
G1 X120.000 Y140.000
G0 Z1

G0 X127.000 Y125.000
G1 Z0

G1 X119.000 Y116.000
G1 X116.000 Y126.000
G1 X114.000 Y135.000
G1 X117.000 Y139.000
G1 X122.000 Y145.000
G1 X125.000 Y148.000
G1 X126.000 Y138.000
G1 X120.000 Y135.000
G1 X153.000 Y134.000
G1 X150.000 Y129.000
G1 X145.000 Y124.000
G1 X140.000 Y118.000
G1 X135.000 Y114.000
G1 X133.000 Y113.000
G1 X136.000 Y112.000
G1 X139.000 Y124.000
G1 X155.000 Y146.000
G1 X153.000 Y142.000
G1 X151.000 Y140.000
G1 X149.000 Y135.000
G1 X144.000 Y129.000
G1 X143.000 Y127.000
G1 X137.000 Y126.000
G1 X131.000 Y124.000
G1 X130.000 Y122.000
G0 Z1

G0 X110.000 Y167.000
G1 Z0

G1 X109.000 Y165.000
G1 X107.000 Y164.000
G1 X99.000 Y166.000
G1 X101.000 Y173.000
G1 X98.000 Y183.000
G1 X81.000 Y201.000
G1 X83.000 Y206.000
G1 X78.000 Y206.000
G1 X77.000 Y210.000
G1 X74.000 Y206.000
G1 X75.000 Y203.000
G1 X69.000 Y203.000
G1 X80.000 Y189.000
G1 X81.000 Y187.000
G1 X83.000 Y185.000
G1 X93.000 Y188.000
G1 X100.000 Y192.000
G1 X105.000 Y190.000
G1 X103.000 Y188.000
G1 X101.000 Y183.000
G1 X91.000 Y212.000
G1 X93.000 Y216.000
G1 X99.000 Y218.000
G1 X95.000 Y218.000
G1 X93.000 Y217.000
G0 Z1

G0 X90.000 Y249.000
G1 Z0

G1 X91.000 Y247.000
G1 X90.000 Y244.000
G1 X89.000 Y248.000
G1 X91.000 Y249.000
G1 X93.000 Y247.000
G1 X100.000 Y251.000
G1 X100.000 Y253.000
G1 X98.000 Y252.000
G1 X87.000 Y255.000
G1 X90.000 Y261.000
G1 X88.000 Y262.000
G1 X86.000 Y262.000
G1 X84.000 Y263.000
G1 X82.000 Y265.000
G1 X77.000 Y266.000
G1 X79.000 Y268.000
G1 X80.000 Y270.000
G1 X82.000 Y269.000
G1 X84.000 Y273.000
G1 X86.000 Y275.000
G1 X87.000 Y277.000
G1 X61.000 Y258.000
G1 X53.000 Y253.000
G1 X55.000 Y248.000
G0 Z1

G0 X40.000 Y247.000
G1 Z0

G1 X42.000 Y248.000
G1 X53.000 Y248.000
G1 X47.000 Y241.000
G1 X26.000 Y235.000
G1 X21.000 Y226.000
G1 X26.000 Y223.000
G1 X27.000 Y227.000
G1 X33.000 Y235.000
G1 X47.000 Y235.000
G1 X48.000 Y239.000
G1 X40.000 Y237.000
G1 X33.000 Y250.000
G1 X28.000 Y238.000
G1 X35.000 Y242.000
G1 X34.000 Y244.000
G1 X47.000 Y244.000
G1 X30.000 Y272.000
G1 X28.000 Y271.000
G1 X16.000 Y274.000
G1 X13.000 Y266.000
G1 X23.000 Y266.000
G1 X15.000 Y246.000
G1 X16.000 Y239.000
G1 X15.000 Y237.000
G1 X14.000 Y239.000
G0 Z1

G0 X.000 Y230.000
G1 Z0

G1 X2.000 Y230.000
G1 X9.000 Y236.000
G1 X4.000 Y224.000
G1 X.000 Y221.000
G1 X1.000 Y225.000
G1 X4.000 Y229.000
G1 X.000 Y229.000
G1 X9.000 Y240.000
G1 X9.000 Y238.000
G1 X11.000 Y237.000
G1 X28.000 Y233.000
G1 X25.000 Y227.000
G1 X23.000 Y227.000
G1 X17.000 Y233.000
G1 X15.000 Y230.000
G1 X8.000 Y215.000
G1 X5.000 Y215.000
G1 X8.000 Y219.000
G1 X7.000 Y227.000
G1 X9.000 Y230.000
G1 X9.000 Y233.000
G1 X6.000 Y231.000
G1 X27.000 Y247.000
G1 X27.000 Y249.000
G1 X29.000 Y252.000
G0 Z1

G0 X27.000 Y264.000
G1 Z0

G1 X6.000 Y263.000
G1 X3.000 Y259.000
G1 X7.000 Y251.000
G1 X10.000 Y277.000
G1 X23.000 Y275.000
G1 X26.000 Y279.000
G1 X30.000 Y277.000
G1 X33.000 Y275.000
G1 X40.000 Y269.000
G1 X45.000 Y266.000
G1 X56.000 Y257.000
G1 X64.000 Y263.000
G1 X73.000 Y260.000
G1 X56.000 Y255.000
G1 X43.000 Y258.000
G1 X41.000 Y259.000
G1 X27.000 Y253.000
G1 X11.000 Y227.000
G1 X13.000 Y226.000
G1 X3.000 Y216.000
G1 X.000 Y217.000
G1 X11.000 Y229.000
G1 X11.000 Y272.000
G1 X10.000 Y270.000
G0 Z1

G0 X7.000 Y267.000
G1 Z0

G1 X6.000 Y261.000
G1 X6.000 Y259.000
G1 X2.000 Y258.000
G1 X3.000 Y254.000
G1 X2.000 Y256.000
G1 X10.000 Y258.000
G1 X9.000 Y253.000
G1 X9.000 Y251.000
G1 X14.000 Y249.000
G1 X41.000 Y257.000
G1 X38.000 Y256.000
G1 X37.000 Y251.000
G1 X49.000 Y258.000
G1 X26.000 Y270.000
G1 X24.000 Y270.000
G1 X24.000 Y280.000
G1 X27.000 Y282.000
G1 X30.000 Y281.000
G1 X19.000 Y299.000
G1 X15.000 Y301.000
G1 X11.000 Y294.000
G1 X13.000 Y294.000
G1 X14.000 Y296.000
G1 X12.000 Y295.000
G0 Z1

G0 X1.000 Y308.000
G1 Z0

G1 X2.000 Y310.000
G1 X.000 Y309.000
G1 X6.000 Y301.000
G1 X7.000 Y303.000
G1 X13.000 Y303.000
G1 X13.000 Y301.000
G1 X10.000 Y301.000
G1 X17.000 Y298.000
G1 X19.000 Y297.000
G1 X22.000 Y298.000
G1 X25.000 Y296.000
G1 X25.000 Y293.000
G1 X31.000 Y289.000
G1 X37.000 Y289.000
G1 X40.000 Y288.000
G1 X46.000 Y282.000
G1 X47.000 Y280.000
G1 X51.000 Y280.000
G1 X49.000 Y272.000
G1 X60.000 Y276.000
G1 X58.000 Y278.000
G1 X67.000 Y273.000
G1 X63.000 Y273.000
G1 X54.000 Y271.000
G1 X55.000 Y273.000
G0 Z1

G0 X90.000 Y250.000
G1 Z0

G1 X92.000 Y250.000
G1 X100.000 Y255.000
G1 X78.000 Y264.000
G1 X72.000 Y268.000
G1 X64.000 Y268.000
G1 X54.000 Y261.000
G1 X51.000 Y264.000
G1 X47.000 Y267.000
G1 X17.000 Y247.000
G1 X18.000 Y242.000
G1 X23.000 Y258.000
G1 X27.000 Y256.000
G1 X30.000 Y258.000
G1 X40.000 Y251.000
G1 X51.000 Y254.000
G1 X43.000 Y256.000
G1 X44.000 Y262.000
G1 X35.000 Y268.000
G1 X16.000 Y268.000
G1 X16.000 Y252.000
G1 X25.000 Y254.000
G1 X29.000 Y263.000
G1 X23.000 Y262.000
G1 X18.000 Y262.000
G1 X12.000 Y261.000
G0 Z1

G0 X8.000 Y149.000
G1 Z0

G1 X6.000 Y151.000
G1 X19.000 Y149.000
G1 X24.000 Y140.000
G1 X27.000 Y138.000
G1 X26.000 Y144.000
G1 X17.000 Y143.000
G1 X18.000 Y139.000
G1 X22.000 Y139.000
G1 X38.000 Y129.000
G1 X39.000 Y132.000
G1 X49.000 Y130.000
G1 X52.000 Y118.000
G1 X55.000 Y118.000
G1 X53.000 Y123.000
G1 X36.000 Y113.000
G1 X28.000 Y102.000
G1 X17.000 Y110.000
G1 X9.000 Y109.000
G1 X6.000 Y110.000
G1 X7.000 Y107.000
G1 X16.000 Y103.000
G1 X12.000 Y103.000
G1 X14.000 Y112.000
G1 X21.000 Y114.000
G1 X20.000 Y108.000
G1 X16.000 Y122.000
G1 X18.000 Y121.000
G1 X21.000 Y122.000
G1 X9.000 Y127.000
G1 X19.000 Y126.000
G1 X31.000 Y116.000
G1 X36.000 Y118.000
G1 X31.000 Y122.000
G1 X24.000 Y102.000
G1 X18.000 Y104.000
G1 X12.000 Y108.000
G1 X10.000 Y108.000
G0 Z1

G0 X10.000 Y110.000
G1 Z0

G1 X12.000 Y111.000
G1 X15.000 Y109.000
G1 X20.000 Y106.000
G1 X40.000 Y109.000
G1 X38.000 Y113.000
G1 X54.000 Y113.000
G1 X49.000 Y104.000
G1 X42.000 Y85.000
G1 X41.000 Y81.000
G1 X36.000 Y78.000
G1 X38.000 Y71.000
G1 X38.000 Y64.000
G1 X59.000 Y35.000
G1 X59.000 Y53.000
G1 X54.000 Y54.000
G1 X51.000 Y51.000
G1 X52.000 Y48.000
G1 X54.000 Y46.000
G1 X55.000 Y43.000
G1 X57.000 Y40.000
G1 X48.000 Y35.000
G1 X39.000 Y45.000
G1 X33.000 Y36.000
G1 X35.000 Y33.000
G1 X33.000 Y32.000
G1 X29.000 Y34.000
G1 X27.000 Y41.000
G1 X15.000 Y48.000
G1 X25.000 Y31.000
G1 X17.000 Y34.000
G1 X15.000 Y41.000
G1 X9.000 Y37.000
G1 X5.000 Y39.000
G1 X10.000 Y40.000
G1 X12.000 Y36.000
G1 X10.000 Y33.000
G1 X6.000 Y32.000
G1 X.000 Y33.000
G1 X2.000 Y35.000
G1 X.000 Y23.000
G1 X3.000 Y15.000
G1 X2.000 Y6.000
G1 X7.000 Y9.000
G1 X29.000 Y9.000
G1 X28.000 Y5.000
G1 X25.000 Y1.000
G1 X13.000 Y7.000
G1 X13.000 Y3.000
G0 Z1

G0 X17.000 Y2.000
G1 Z0

G1 X19.000 Y4.000
G1 X27.000 Y4.000
G1 X19.000 Y8.000
G1 X4.000 Y1.000
G1 X.000 Y1.000
G1 X.000 Y16.000
G1 X4.000 Y33.000
G1 X6.000 Y34.000
G1 X.000 Y38.000
G1 X.000 Y44.000
G1 X12.000 Y41.000
G1 X15.000 Y30.000
G1 X18.000 Y25.000
G1 X20.000 Y23.000
G1 X28.000 Y17.000
G1 X27.000 Y19.000
G1 X19.000 Y16.000
G1 X12.000 Y18.000
G1 X12.000 Y14.000
G1 X6.000 Y3.000
G1 X2.000 Y2.000
G1 X.000 Y2.000
G0 Z1

G0 X.000 Y52.000
G1 Z0

G1 X1.000 Y50.000
G1 X.000 Y59.000
G1 X13.000 Y56.000
G1 X32.000 Y70.000
G1 X28.000 Y71.000
G1 X30.000 Y94.000
G1 X32.000 Y103.000
G1 X23.000 Y91.000
G1 X26.000 Y85.000
G1 X28.000 Y94.000
G1 X38.000 Y94.000
G1 X36.000 Y105.000
G1 X40.000 Y107.000
G1 X39.000 Y103.000
G1 X50.000 Y111.000
G1 X43.000 Y101.000
G1 X42.000 Y91.000
G1 X66.000 Y115.000
G1 X65.000 Y120.000
G1 X84.000 Y126.000
G1 X88.000 Y131.000
G1 X89.000 Y129.000
G1 X72.000 Y129.000
G1 X76.000 Y137.000
G1 X80.000 Y134.000
G0 Z1

G0 X63.000 Y136.000
G1 Z0

G1 X65.000 Y136.000
G1 X68.000 Y130.000
G1 X69.000 Y133.000
G1 X70.000 Y137.000
G1 X76.000 Y140.000
G1 X78.000 Y140.000
G1 X76.000 Y142.000
G1 X71.000 Y126.000
G1 X74.000 Y127.000
G1 X70.000 Y119.000
G1 X63.000 Y116.000
G1 X63.000 Y114.000
G1 X62.000 Y108.000
G1 X65.000 Y111.000
G1 X45.000 Y111.000
G1 X42.000 Y122.000
G1 X36.000 Y128.000
G1 X38.000 Y146.000
G1 X47.000 Y149.000
G1 X49.000 Y151.000
G1 X51.000 Y148.000
G1 X54.000 Y145.000
G1 X45.000 Y138.000
G1 X45.000 Y136.000
G1 X41.000 Y134.000
G1 X31.000 Y145.000
G0 Z1

G0 X40.000 Y124.000
G1 Z0

G1 X42.000 Y123.000
G1 X48.000 Y122.000
G1 X40.000 Y119.000
G1 X39.000 Y123.000
G1 X33.000 Y123.000
G1 X38.000 Y121.000
G1 X43.000 Y125.000
G1 X47.000 Y124.000
G1 X48.000 Y143.000
G1 X42.000 Y146.000
G1 X41.000 Y143.000
G1 X13.000 Y141.000
G1 X.000 Y154.000
G1 X.000 Y150.000
G1 X4.000 Y147.000
G1 X28.000 Y146.000
G1 X32.000 Y133.000
G1 X36.000 Y131.000
G1 X44.000 Y142.000
G1 X67.000 Y172.000
G1 X76.000 Y147.000
G1 X67.000 Y121.000
G1 X86.000 Y133.000
G1 X73.000 Y131.000
G1 X54.000 Y152.000
G0 Z1

G0 X203.000 Y119.000
G1 Z0

G1 X205.000 Y118.000
G1 X207.000 Y125.000
G1 X209.000 Y128.000
G1 X211.000 Y129.000
G1 X210.000 Y138.000
G1 X232.000 Y149.000
G1 X233.000 Y145.000
G1 X238.000 Y155.000
G1 X232.000 Y161.000
G1 X238.000 Y172.000
G1 X235.000 Y173.000
G1 X240.000 Y181.000
G1 X243.000 Y185.000
G1 X243.000 Y178.000
G1 X247.000 Y173.000
G1 X256.000 Y175.000
G1 X247.000 Y180.000
G1 X248.000 Y190.000
G1 X245.000 Y187.000
G1 X245.000 Y179.000
G1 X254.000 Y174.000
G1 X257.000 Y171.000
G1 X258.000 Y178.000
G1 X252.000 Y179.000
G1 X250.000 Y178.000
G0 Z1

G0 X261.000 Y169.000
G1 Z0

G1 X263.000 Y169.000
G1 X264.000 Y164.000
G1 X261.000 Y165.000
G1 X261.000 Y167.000
G1 X259.000 Y174.000
G1 X256.000 Y177.000
G1 X252.000 Y173.000
G1 X246.000 Y177.000
G1 X242.000 Y176.000
G1 X241.000 Y162.000
G1 X238.000 Y162.000
G1 X234.000 Y143.000
G1 X228.000 Y145.000
G1 X227.000 Y140.000
G1 X225.000 Y141.000
G1 X239.000 Y132.000
G1 X246.000 Y138.000
G1 X247.000 Y141.000
G1 X242.000 Y142.000
G1 X238.000 Y139.000
G1 X237.000 Y137.000
G1 X231.000 Y122.000
G1 X233.000 Y121.000
G1 X237.000 Y124.000
G1 X237.000 Y126.000
G1 X229.000 Y118.000
G1 X231.000 Y117.000
G1 X225.000 Y131.000
G1 X225.000 Y135.000
G1 X228.000 Y130.000
G1 X233.000 Y134.000
G0 Z1

G0 X244.000 Y149.000
G1 Z0

G1 X243.000 Y144.000
G1 X250.000 Y149.000
G1 X244.000 Y157.000
G1 X244.000 Y153.000
G1 X249.000 Y146.000
G1 X240.000 Y135.000
G1 X242.000 Y127.000
G1 X239.000 Y128.000
G1 X235.000 Y128.000
G1 X235.000 Y117.000
G1 X226.000 Y122.000
G1 X225.000 Y128.000
G1 X234.000 Y153.000
G1 X230.000 Y160.000
G1 X230.000 Y163.000
G1 X240.000 Y176.000
G1 X240.000 Y171.000
G1 X236.000 Y163.000
G1 X246.000 Y171.000
G1 X250.000 Y171.000
G1 X248.000 Y175.000
G1 X249.000 Y184.000
G1 X249.000 Y182.000
G1 X270.000 Y175.000
G1 X272.000 Y176.000
G1 X268.000 Y178.000
G1 X265.000 Y189.000
G1 X271.000 Y187.000
G1 X273.000 Y181.000
G1 X266.000 Y186.000
G1 X265.000 Y184.000
G1 X274.000 Y177.000
G1 X284.000 Y163.000
G1 X293.000 Y169.000
G1 X295.000 Y160.000
G1 X295.000 Y157.000
G1 X289.000 Y161.000
G1 X296.000 Y163.000
G1 X300.000 Y151.000
G1 X279.000 Y163.000
G1 X277.000 Y168.000
G1 X285.000 Y168.000
G1 X273.000 Y150.000
G1 X290.000 Y165.000
G1 X295.000 Y183.000
G1 X293.000 Y181.000
G1 X286.000 Y188.000
G1 X291.000 Y198.000
G1 X287.000 Y193.000
G1 X287.000 Y191.000
G1 X288.000 Y189.000
G1 X287.000 Y169.000
G1 X273.000 Y195.000
G1 X274.000 Y191.000
G1 X274.000 Y185.000
G1 X281.000 Y172.000
G1 X280.000 Y170.000
G0 Z1

G0 X277.000 Y148.000
G1 Z0

G1 X274.000 Y155.000
G1 X283.000 Y170.000
G1 X285.000 Y177.000
G1 X284.000 Y181.000
G1 X270.000 Y190.000
G1 X264.000 Y191.000
G1 X271.000 Y215.000
G1 X268.000 Y224.000
G1 X266.000 Y222.000
G1 X271.000 Y220.000
G1 X265.000 Y227.000
G1 X263.000 Y228.000
G1 X266.000 Y208.000
G1 X274.000 Y209.000
G1 X272.000 Y202.000
G1 X272.000 Y213.000
G1 X282.000 Y211.000
G1 X280.000 Y212.000
G1 X282.000 Y211.000
G1 X282.000 Y200.000
G1 X277.000 Y207.000
G1 X279.000 Y206.000
G1 X278.000 Y204.000
G1 X278.000 Y206.000
G0 Z1

G0 X277.000 Y89.000
G1 Z0

G1 X276.000 Y86.000
G1 X279.000 Y86.000
G1 X282.000 Y88.000
G1 X282.000 Y101.000
G1 X282.000 Y99.000
G1 X279.000 Y88.000
G1 X283.000 Y86.000
G1 X281.000 Y80.000
G1 X284.000 Y76.000
G1 X292.000 Y66.000
G1 X311.000 Y66.000
G1 X309.000 Y66.000
G1 X305.000 Y69.000
G1 X303.000 Y77.000
G1 X306.000 Y75.000
G1 X308.000 Y76.000
G1 X309.000 Y72.000
G1 X311.000 Y73.000
G1 X303.000 Y89.000
G1 X306.000 Y100.000
G1 X305.000 Y96.000
G1 X310.000 Y81.000
G1 X304.000 Y75.000
G1 X300.000 Y77.000
G0 Z1

G0 X290.000 Y78.000
G1 Z0

G1 X292.000 Y77.000
G1 X301.000 Y68.000
G1 X293.000 Y68.000
G1 X294.000 Y71.000
G1 X290.000 Y76.000
G1 X299.000 Y78.000
G1 X301.000 Y71.000
G1 X297.000 Y75.000
G1 X312.000 Y78.000
G1 X311.000 Y76.000
G1 X307.000 Y83.000
G1 X305.000 Y90.000
G1 X308.000 Y96.000
G1 X306.000 Y97.000
G1 X305.000 Y101.000
G1 X280.000 Y85.000
G1 X280.000 Y76.000
G1 X285.000 Y78.000
G1 X302.000 Y62.000
G1 X310.000 Y63.000
G1 X312.000 Y64.000
G1 X312.000 Y67.000
G1 X303.000 Y70.000
G1 X303.000 Y68.000
G1 X310.000 Y86.000
G1 X309.000 Y88.000
G1 X301.000 Y78.000
G1 X296.000 Y63.000
G1 X299.000 Y62.000
G1 X303.000 Y64.000
G0 Z1

G0 X280.000 Y10.000
G1 Z0

G1 X281.000 Y12.000
G1 X308.000 Y3.000
G1 X294.000 Y1.000
G1 X281.000 Y2.000
G1 X277.000 Y17.000
G1 X297.000 Y10.000
G1 X306.000 Y6.000
G1 X302.000 Y14.000
G1 X286.000 Y16.000
G1 X282.000 Y17.000
G1 X279.000 Y19.000
G1 X275.000 Y18.000
G1 X273.000 Y15.000
G1 X278.000 Y5.000
G1 X294.000 Y4.000
G1 X299.000 Y4.000
G1 X282.000 Y9.000
G1 X282.000 Y7.000
G1 X278.000 Y1.000
G1 X277.000 Y3.000
G1 X296.000 Y18.000
G1 X293.000 Y20.000
G1 X305.000 Y14.000
G1 X308.000 Y15.000
G1 X305.000 Y16.000
G1 X305.000 Y12.000
G1 X297.000 Y12.000
G1 X295.000 Y13.000
G1 X309.000 Y5.000
G1 X308.000 Y1.000
G1 X306.000 Y1.000
G0 Z1

G0 X240.000 Y62.000
G1 Z0

G1 X261.000 Y63.000
G1 X265.000 Y64.000
G1 X257.000 Y60.000
G1 X234.000 Y60.000
G1 X235.000 Y62.000
G1 X238.000 Y70.000
G1 X244.000 Y72.000
G1 X241.000 Y74.000
G1 X245.000 Y80.000
G1 X254.000 Y83.000
G1 X252.000 Y80.000
G1 X256.000 Y78.000
G1 X262.000 Y71.000
G1 X259.000 Y70.000
G1 X267.000 Y73.000
G1 X271.000 Y69.000
G1 X272.000 Y66.000
G1 X267.000 Y65.000
G1 X265.000 Y62.000
G1 X286.000 Y71.000
G1 X292.000 Y79.000
G1 X264.000 Y80.000
G1 X267.000 Y82.000
G1 X266.000 Y87.000
G1 X265.000 Y97.000
G1 X237.000 Y89.000
G1 X236.000 Y91.000
G1 X229.000 Y79.000
G1 X231.000 Y79.000
G1 X238.000 Y62.000
G1 X239.000 Y67.000
G1 X230.000 Y66.000
G1 X232.000 Y68.000
G1 X238.000 Y72.000
G1 X247.000 Y67.000
G1 X233.000 Y62.000
G0 Z1

G0 X235.000 Y79.000
G1 Z0

G1 X237.000 Y85.000
G1 X234.000 Y91.000
G1 X233.000 Y75.000
G1 X234.000 Y72.000
G1 X229.000 Y68.000
G1 X230.000 Y77.000
G1 X246.000 Y76.000
G1 X260.000 Y100.000
G1 X257.000 Y97.000
G1 X257.000 Y94.000
G1 X264.000 Y99.000
G1 X264.000 Y102.000
G1 X261.000 Y108.000
G1 X258.000 Y108.000
G1 X258.000 Y101.000
G1 X261.000 Y103.000
G1 X265.000 Y89.000
G1 X259.000 Y80.000
G1 X256.000 Y81.000
G1 X249.000 Y74.000
G1 X260.000 Y78.000
G1 X280.000 Y99.000
G1 X277.000 Y104.000
G1 X275.000 Y102.000
G1 X279.000 Y96.000
G1 X272.000 Y78.000
G1 X249.000 Y67.000
G1 X250.000 Y69.000
G1 X270.000 Y67.000
G1 X262.000 Y66.000
G1 X232.000 Y64.000
G1 X241.000 Y82.000
G1 X246.000 Y72.000
G1 X256.000 Y92.000
G1 X263.000 Y85.000
G1 X259.000 Y98.000
G1 X254.000 Y102.000
G1 X265.000 Y107.000
G1 X269.000 Y80.000
G1 X241.000 Y67.000
G1 X237.000 Y83.000
G1 X235.000 Y84.000
G1 X231.000 Y82.000
G1 X230.000 Y80.000
G0 Z1


G0 Z1
G0 X0 Y0

(Distance Moved: 36487.559 mm)
(Distance Moved - Pen Up: 2364.668 mm)
(Distance Moved - Pen Down: 34122.902 mm)
(Points Plotted: 3628 points)
(Pen Lifted: 130 times)
(Pen Dropped: 129 times)
(Min X: .000 Max X: 312.000)
(Min Y: 1.000 Max Y: 400.000)
