;LightBurn 1.6.04
;Custom GCode device profile, absolute coords
;Bounds: X14.14 Y21.5 to X109.51 Y107.68
G00 G17 G40 G21 G54
G90
M3
G1 Z10 F1000
;Cut @ 1299 mm/min, 90% power

M8
G0 Z4.8F800
G0 X44.394Y44.225Z4.8F1500
G1 Z0F1500
;Layer C2
G1 X40.631Y44.299Z0S900F1500
G1 X42.402Y45.996Z0F1500
G1 X41.369Y55.219Z0F1500
G1 X35.909Y53.596Z0F1500
G1 X46.46Y60.532Z0F1500
G1 X44.689Y45.48Z0F1500
G0 Z4.8F800
G0 X53.248Y50.128Z4.8F1500
G1 Z0F1500
G1 X53.395Y54.408Z0F1500
G1 X55.461Y53.67Z0F1500
G1 X55.756Y52.784Z0F1500
G1 X53.986Y50.792Z0F1500
G0 Z4.8F800
G0 X68.447Y47.841Z4.8F1500
G1 Z0F1500
G1 X70.439Y42.233Z0F1500
G1 X66.603Y36.109Z0F1500
G1 X64.832Y38.028Z0F1500
G1 X68.078Y47.029Z0F1500
G0 Z4.8F800
G0 X40.778Y62.45Z4.8F1500
G1 Z0F1500
G1 X47.05Y63.04Z0F1500
G1 X48.378Y74.034Z0F1500
G1 X40.557Y71.673Z0F1500
G1 X42.623Y64.664Z0F1500
G1 X41.516Y63.188Z0F1500
G0 Z4.8F800
G0 X34.507Y103.548Z4.8F1500
G1 Z0F1500
G1 X34.654Y76.985Z0F1500
G1 X30.08Y70.788Z0F1500
G1 X26.391Y82.593Z0F1500
G1 X20.783Y80.527Z0F1500
G1 X19.845Y80.759Z0F1500
G1 X18.927Y81.058Z0F1500
G1 X18.476Y81.239Z0F1500
G1 X18.033Y81.444Z0F1500
G1 X17.598Y81.677Z0F1500
G1 X17.17Y81.939Z0F1500
G1 X16.752Y82.233Z0F1500
G1 X16.344Y82.561Z0F1500
G1 X15.947Y82.926Z0F1500
G1 X15.56Y83.331Z0F1500
G1 X15.186Y83.778Z0F1500
G1 X14.824Y84.27Z0F1500
G1 X14.476Y84.808Z0F1500
G1 X14.142Y85.397Z0F1500
G1 X16.061Y65.623Z0F1500
G1 X20.045Y68.722Z0F1500
G1 X17.684Y66.361Z0F1500
G1 X17.241Y60.163Z0F1500
G1 X15.175Y63.262Z0F1500
G1 X15.073Y61.768Z0F1500
G1 X15.015Y60.328Z0F1500
G1 X15Y58.941Z0F1500
G1 X15.026Y57.606Z0F1500
G1 X15.09Y56.323Z0F1500
G1 X15.192Y55.09Z0F1500
G1 X15.327Y53.907Z0F1500
G1 X15.495Y52.772Z0F1500
G1 X15.694Y51.685Z0F1500
G1 X15.92Y50.645Z0F1500
G1 X16.172Y49.651Z0F1500
G1 X16.449Y48.701Z0F1500
G1 X16.747Y47.796Z0F1500
G1 X17.065Y46.933Z0F1500
G1 X17.4Y46.113Z0F1500
G1 X17.751Y45.334Z0F1500
G1 X18.115Y44.595Z0F1500
G1 X18.49Y43.896Z0F1500
G1 X18.874Y43.235Z0F1500
G1 X19.266Y42.612Z0F1500
G1 X19.662Y42.026Z0F1500
G1 X20.061Y41.475Z0F1500
G1 X20.46Y40.959Z0F1500
G1 X20.858Y40.477Z0F1500
G1 X21.252Y40.028Z0F1500
G1 X21.641Y39.611Z0F1500
G1 X22.022Y39.226Z0F1500
G1 X22.393Y38.87Z0F1500
G1 X22.752Y38.544Z0F1500
G1 X23.096Y38.246Z0F1500
G1 X23.424Y37.976Z0F1500
G1 X23.734Y37.733Z0F1500
G1 X31.998Y48.21Z0F1500
G1 X30.965Y34.338Z0F1500
G1 X32.58Y34.827Z0F1500
G1 X34.213Y35.395Z0F1500
G1 X35.863Y36.043Z0F1500
G1 X37.532Y36.773Z0F1500
G1 X39.219Y37.587Z0F1500
G1 X40.925Y38.484Z0F1500
G1 X42.65Y39.467Z0F1500
G1 X44.394Y40.536Z0F1500
G1 X43.361Y37.142Z0F1500
G1 X54.133Y27.993Z0F1500
G1 X55.756Y33.453Z0F1500
G1 X60.774Y21.5Z0F1500
G1 X60.82Z0F1500
G1 X60.915Y21.53Z0F1500
G1 X61.055Y21.584Z0F1500
G1 X61.239Y21.662Z0F1500
G1 X61.464Y21.763Z0F1500
G1 X61.727Y21.886Z0F1500
G1 X62.361Y22.188Z0F1500
G1 X63.123Y22.559Z0F1500
G1 X65.988Y23.964Z0F1500
G1 X68.198Y25.031Z0F1500
G1 X70.476Y26.095Z0F1500
G1 X71.594Y26.597Z0F1500
G1 X72.674Y27.063Z0F1500
G1 X73.697Y27.483Z0F1500
G1 X75.808Y28.288Z0F1500
G1 X77.027Y28.785Z0F1500
G1 X78.283Y29.327Z0F1500
G1 X79.56Y29.9Z0F1500
G1 X80.838Y30.494Z0F1500
G1 X82.1Y31.096Z0F1500
G1 X83.327Y31.697Z0F1500
G1 X84.502Y32.283Z0F1500
G1 X85.607Y32.843Z0F1500
G1 X86.623Y33.366Z0F1500
G1 X87.532Y33.841Z0F1500
G1 X88.316Y34.255Z0F1500
G1 X88.958Y34.597Z0F1500
G1 X89.845Y35.076Z0F1500
G1 X95.009Y50.866Z0F1500
G1 X96.338Y41.274Z0F1500
G1 X101.945Y61.934Z0F1500
G1 X99.732Y70.197Z0F1500
G1 X103.273Y72.706Z0F1500
G1 X100.912Y44.963Z0F1500
G1 X102.546Y46.519Z0F1500
G1 X104.151Y48.108Z0F1500
G1 X104.922Y48.94Z0F1500
G1 X105.661Y49.808Z0F1500
G1 X106.359Y50.724Z0F1500
G1 X107.009Y51.697Z0F1500
G1 X107.602Y52.735Z0F1500
G1 X108.131Y53.85Z0F1500
G1 X108.368Y54.439Z0F1500
G1 X108.585Y55.05Z0F1500
G1 X108.783Y55.686Z0F1500
G1 X108.959Y56.346Z0F1500
G1 X109.112Y57.032Z0F1500
G1 X109.242Y57.746Z0F1500
G1 X109.348Y58.488Z0F1500
G1 X109.428Y59.26Z0F1500
G1 X109.481Y60.064Z0F1500
G1 X109.507Y60.899Z0F1500
G1 X109.504Y61.768Z0F1500
G1 X109.471Y62.671Z0F1500
G1 X107.995Y62.081Z0F1500
G1 X108.733Y80.379Z0F1500
G1 X103.716Y85.397Z0F1500
G1 X98.846Y81.265Z0F1500
G1 X100.765Y97.645Z0F1500
G1 X91.173Y74.772Z0F1500
G1 X89.992Y92.628Z0F1500
G1 X80.253Y107.679Z0F1500
G1 X84.975Y90.709Z0F1500
G1 X85.27Y89.234Z0F1500
G1 X79.22Y94.398Z0F1500
G1 X82.319Y78.018Z0F1500
G1 X80.548Y79.642Z0F1500
G1 X71.399Y64.442Z0F1500
G1 X69.48Y66.213Z0F1500
G1 X74.202Y85.102Z0F1500
G1 X73.154Y83.295Z0F1500
G1 X72.081Y81.502Z0F1500
G1 X70.981Y79.725Z0F1500
G1 X69.854Y77.963Z0F1500
G1 X68.698Y76.218Z0F1500
G1 X67.513Y74.489Z0F1500
G1 X66.298Y72.777Z0F1500
G1 X65.052Y71.084Z0F1500
G1 X63.773Y69.408Z0F1500
G1 X62.461Y67.752Z0F1500
G1 X61.115Y66.115Z0F1500
G1 X59.734Y64.499Z0F1500
G1 X58.317Y62.903Z0F1500
G1 X56.862Y61.328Z0F1500
G1 X55.37Y59.775Z0F1500
G1 X53.838Y58.244Z0F1500
G1 X54.871Y79.199Z0F1500
G1 X51.92Y88.496Z0F1500
G1 X40.262Y80.675Z0F1500
G1 X34.949Y105.318Z0F1500
;Offset @ 1500 mm/min, 80% power

M8
G0 Z4.8F800
G0 X47.575Y78.71Z4.8F1500
G1 Z0F1500
;Layer C3
G1 X50.053Y79.601Z0S800F1500
G1 X49.723Y80.541Z0F1500
G1 X48.767Y79.864Z0F1500
G1 X47.228Y78.826Z0F1500
G1 X46.482Y78.348Z0F1500
G1 X47.575Y78.71Z0F1500
G0 Z4.8F800
G0 X51.071Y79.117Z4.8F1500
G1 Z0F1500
G1 X50.202Y81.589Z0F1500
G1 X50.126Y81.816Z0F1500
G1 X49.827Y81.595Z0F1500
G1 X48.312Y80.522Z0F1500
G1 X46.789Y79.495Z0F1500
G1 X45.259Y78.515Z0F1500
G1 X43.724Y77.587Z0F1500
G1 X42.187Y76.717Z0F1500
G1 X40.818Y75.995Z0F1500
G1 X41.259Y76.083Z0F1500
G1 X42.87Y76.461Z0F1500
G1 X44.511Y76.902Z0F1500
G1 X46.164Y77.4Z0F1500
G1 X47.827Y77.95Z0F1500
G1 X51.071Y79.117Z0F1500
G0 Z4.8F800
G0 X52.048Y78.75Z4.8F1500
G1 Z0F1500
G1 X50.958Y81.85Z0F1500
G1 X50.534Y83.114Z0F1500
G1 X49.357Y82.243Z0F1500
G1 X47.857Y81.18Z0F1500
G1 X46.349Y80.163Z0F1500
G1 X44.836Y79.194Z0F1500
G1 X43.32Y78.278Z0F1500
G1 X41.803Y77.418Z0F1500
G1 X38.451Y75.651Z0F1500
G1 X38.391Y75.923Z0F1500
G1 Y74.75Z0F1500
G1 X39.795Y74.976Z0F1500
G1 X41.428Y75.301Z0F1500
G1 X43.073Y75.687Z0F1500
G1 X44.721Y76.13Z0F1500
G1 X46.398Y76.635Z0F1500
G1 X48.079Y77.191Z0F1500
G1 X52.04Y78.615Z0F1500
G1 X52.048Y78.75Z0F1500
G0 Z4.8F800
G0 X54.252Y45.959Z4.8F1500
G1 Z0F1500
G1 X52.821Y44.515Z0F1500
G1 X53.379Y44.702Z0F1500
G1 X54.544Y45.121Z0F1500
G1 X54.46Y45.356Z0F1500
G1 X54.252Y45.959Z0F1500
G0 Z4.8F800
G0 X54.576Y47.421Z4.8F1500
G1 Z0F1500
G1 X50.012Y42.817Z0F1500
G1 X51.784Y43.345Z0F1500
G1 X52.728Y43.641Z0F1500
G1 X53.65Y43.949Z0F1500
G1 X55.566Y44.639Z0F1500
G1 X55.215Y45.622Z0F1500
G1 X54.589Y47.436Z0F1500
G1 X54.576Y47.421Z0F1500
G0 Z4.8F800
G0 X48.862Y40.521Z4.8F1500
G1 Z0F1500
G1 X48.757Y40.416Z0F1500
G1 X49.075Y45.221Z0F1500
G1 X48.334Y39.409Z0F1500
G1 X48.789Y38.936Z0F1500
G1 X48.862Y40.521Z0F1500
G0 Z4.8F800
G0 X49.697Y42.5Z4.8F1500
G1 Z0F1500
G1 X51.043Y62.906Z0F1500
G1 X51.83Y75.305Z0F1500
G1 X50.85Y66.599Z0F1500
G1 X49.738Y57.126Z0F1500
G1 X48.586Y47.713Z0F1500
G1 X47.492Y39.129Z0F1500
G1 X48.78Y37.792Z0F1500
G1 X49.505Y37.081Z0F1500
G1 X49.756Y42.56Z0F1500
G1 X49.697Y42.5Z0F1500
G0 Z4.8F800
G0 X52.186Y35.622Z4.8F1500
G1 Z0F1500
G1 X52.631Y35.208Z0F1500
G1 X53.558Y37.161Z0F1500
G1 X52.186Y35.622Z0F1500
G0 Z4.8F800
G0 X51.068Y35.569Z4.8F1500
G1 Z0F1500
G1 X52.509Y34.23Z0F1500
G1 X52.885Y33.9Z0F1500
G1 X53.215Y34.571Z0F1500
G1 X54.452Y37.18Z0F1500
G1 X55.647Y39.789Z0F1500
G1 X56.57Y41.879Z0F1500
G1 X56.533Y41.981Z0F1500
G1 X55.385Y40.549Z0F1500
G1 X54.381Y39.334Z0F1500
G1 X53.364Y38.146Z0F1500
G1 X51.068Y35.569Z0F1500
G0 Z4.8F800
G0 X51.152Y38.068Z4.8F1500
G1 Z0F1500
G1 X51.311Y41.535Z0F1500
G1 X52.263Y41.818Z0F1500
G1 X53.216Y42.117Z0F1500
G1 X54.168Y42.435Z0F1500
G1 X55.121Y42.778Z0F1500
G1 X54.144Y41.559Z0F1500
G1 X53.156Y40.364Z0F1500
G1 X52.159Y39.199Z0F1500
G1 X51.152Y38.068Z0F1500
G0 Z4.8F800
G0 X50.25Y35.853Z4.8F1500
G1 Z0F1500
G1 X50.538Y42.139Z0F1500
G1 X52.029Y42.583Z0F1500
G1 X52.962Y42.875Z0F1500
G1 X53.897Y43.188Z0F1500
G1 X55.419Y43.736Z0F1500
G1 X56.124Y42.75Z0F1500
G1 X54.764Y41.054Z0F1500
G1 X53.769Y39.849Z0F1500
G1 X52.762Y38.672Z0F1500
G1 X50.25Y35.853Z0F1500
G0 Z4.8F800
G0 X50.076Y35.398Z4.8F1500
G1 Z0F1500
G1 X51.969Y33.64Z0F1500
G1 X53.143Y32.611Z0F1500
G1 X53.938Y34.229Z0F1500
G1 X55.17Y36.827Z0F1500
G1 X56.378Y39.466Z0F1500
G1 X57.433Y41.853Z0F1500
G1 X56.745Y43.715Z0F1500
G1 X55.97Y45.886Z0F1500
G1 X55.221Y48.057Z0F1500
G1 X54.919Y48.955Z0F1500
G1 X54Y47.977Z0F1500
G1 X50.636Y44.583Z0F1500
G1 X51.842Y62.851Z0F1500
G1 X52.857Y78.861Z0F1500
G1 X51.715Y82.109Z0F1500
G1 X50.937Y84.427Z0F1500
G1 X50.365Y83.985Z0F1500
G1 X48.888Y82.891Z0F1500
G1 X47.402Y81.838Z0F1500
G1 X45.91Y80.832Z0F1500
G1 X44.414Y79.874Z0F1500
G1 X42.916Y78.969Z0F1500
G1 X41.419Y78.121Z0F1500
G1 X39.007Y76.849Z0F1500
G1 X38.081Y81.071Z0F1500
G1 X37.623Y83.173Z0F1500
G1 X37.615Y81.77Z0F1500
G1 X37.594Y77.387Z0F1500
G1 X37.587Y73.842Z0F1500
G1 X38.311Y73.928Z0F1500
G1 X39.946Y74.19Z0F1500
G1 X41.596Y74.519Z0F1500
G1 X43.27Y74.912Z0F1500
G1 X44.941Y75.361Z0F1500
G1 X46.649Y75.875Z0F1500
G1 X48.335Y76.433Z0F1500
G1 X51.271Y77.488Z0F1500
G1 X50.055Y66.69Z0F1500
G1 X48.943Y57.222Z0F1500
G1 X47.792Y47.813Z0F1500
G1 X46.649Y38.851Z0F1500
G1 X48.209Y37.232Z0F1500
G1 X50.076Y35.398Z0F1500
G0 Z4.8F800
G0 X53.401Y31.322Z4.8F1500
G1 Z0F1500
G1 X54.661Y33.886Z0F1500
G1 X55.898Y36.494Z0F1500
G1 X57.11Y39.143Z0F1500
G1 X58.296Y41.826Z0F1500
G1 X57.497Y43.988Z0F1500
G1 X56.725Y46.151Z0F1500
G1 X55.978Y48.314Z0F1500
G1 X55.253Y50.478Z0F1500
G1 X53.424Y48.533Z0F1500
G1 X51.575Y46.667Z0F1500
G1 X52.64Y62.8Z0F1500
G1 X53.666Y78.973Z0F1500
G1 X52.472Y82.37Z0F1500
G1 X51.337Y85.747Z0F1500
G1 X49.883Y84.624Z0F1500
G1 X48.418Y83.539Z0F1500
G1 X46.947Y82.496Z0F1500
G1 X45.47Y81.5Z0F1500
G1 X43.991Y80.553Z0F1500
G1 X42.512Y79.659Z0F1500
G1 X41.035Y78.823Z0F1500
G1 X39.563Y78.047Z0F1500
G1 X38.863Y81.242Z0F1500
G1 X38.184Y84.357Z0F1500
G1 X37.521Y87.394Z0F1500
G1 X36.865Y90.35Z0F1500
G1 X36.841Y86.093Z0F1500
G1 X36.815Y81.774Z0F1500
G1 X36.794Y77.391Z0F1500
G1 X36.785Y72.94Z0F1500
G1 X38.424Y73.136Z0F1500
G1 X40.085Y73.402Z0F1500
G1 X41.765Y73.736Z0F1500
G1 X43.459Y74.134Z0F1500
G1 X45.167Y74.593Z0F1500
G1 X46.883Y75.11Z0F1500
G1 X48.606Y75.68Z0F1500
G1 X50.332Y76.301Z0F1500
G1 X49.26Y66.782Z0F1500
G1 X48.149Y57.317Z0F1500
G1 X46.998Y47.912Z0F1500
G1 X45.808Y38.571Z0F1500
G1 X47.638Y36.672Z0F1500
G1 X49.515Y34.827Z0F1500
G1 X51.437Y33.042Z0F1500
G1 X53.401Y31.322Z0F1500
G0 Z4.8F800
G0 X36.337Y41.117Z4.8F1500
G1 Z0F1500
G1 X36.7Y41.291Z0F1500
G1 X36.089Y41.399Z0F1500
G1 X36.042Y40.99Z0F1500
G1 X36.337Y41.117Z0F1500
G0 Z4.8F800
G0 X37.913Y41.89Z4.8F1500
G1 Z0F1500
G1 X35.391Y42.334Z0F1500
G1 X35.092Y39.722Z0F1500
G1 X35.325Y39.81Z0F1500
G1 X36.666Y40.387Z0F1500
G1 X38.023Y41.041Z0F1500
G1 X39.276Y41.706Z0F1500
G1 X38.848Y41.754Z0F1500
G1 X37.913Y41.89Z0F1500
G0 Z4.8F800
G0 X38.144Y50.895Z4.8F1500
G1 Z0F1500
G1 X38.38Y50.827Z0F1500
G1 X38.923Y50.695Z0F1500
G1 X38.862Y51.127Z0F1500
G1 X38.144Y50.895Z0F1500
G0 Z4.8F800
G0 X36.145Y50.635Z4.8F1500
G1 Z0F1500
G1 X38.173Y50.054Z0F1500
G1 X39.881Y49.639Z0F1500
G1 X39.816Y50.097Z0F1500
G1 X39.518Y52.196Z0F1500
G1 X39.071Y52.035Z0F1500
G1 X37.704Y51.593Z0F1500
G1 X36.35Y51.215Z0F1500
G1 X35.584Y51.041Z0F1500
G1 X34.149Y38.521Z0F1500
G1 X34.293Y38.566Z0F1500
G1 X35.63Y39.07Z0F1500
G1 X37.005Y39.662Z0F1500
G1 X38.382Y40.325Z0F1500
G1 X39.784Y41.069Z0F1500
G1 X41.226Y41.902Z0F1500
G1 X41.887Y42.315Z0F1500
G1 X40.801Y42.363Z0F1500
G1 X39.87Y42.443Z0F1500
G1 X38.95Y42.548Z0F1500
G1 X38.039Y42.68Z0F1500
G1 X35.497Y43.128Z0F1500
G1 X37.7Y45.042Z0F1500
G1 X38.623Y45.878Z0F1500
G1 X39.549Y46.757Z0F1500
G1 X40.197Y47.402Z0F1500
G1 X40.01Y48.729Z0F1500
G1 X38.374Y47.122Z0F1500
G1 X35.524Y44.454Z0F1500
G1 X35.874Y48.134Z0F1500
G1 X36.145Y50.635Z0F1500
G0 Z4.8F800
G0 X36.838Y49.604Z4.8F1500
G1 Z0F1500
G1 X37.969Y49.28Z0F1500
G1 X39.14Y48.996Z0F1500
G1 X37.82Y47.699Z0F1500
G1 X36.521Y46.482Z0F1500
G1 X36.669Y48.053Z0F1500
G1 X36.838Y49.604Z0F1500
G0 Z4.8F800
G0 X37.473Y52.359Z4.8F1500
G1 Z0F1500
G1 X36.153Y51.991Z0F1500
G1 X34.854Y51.694Z0F1500
G1 X33.213Y37.38Z0F1500
G1 X34.558Y37.812Z0F1500
G1 X35.932Y38.329Z0F1500
G1 X37.329Y38.931Z0F1500
G1 X38.747Y39.613Z0F1500
G1 X40.18Y40.374Z0F1500
G1 X41.626Y41.209Z0F1500
G1 X43.08Y42.118Z0F1500
G1 X44.538Y43.096Z0F1500
G1 X42.683Y43.082Z0F1500
G1 X40.853Y43.162Z0F1500
G1 X39.949Y43.239Z0F1500
G1 X39.053Y43.341Z0F1500
G1 X38.166Y43.47Z0F1500
G1 X37.288Y43.625Z0F1500
G1 X38.225Y44.438Z0F1500
G1 X39.167Y45.292Z0F1500
G1 X40.108Y46.185Z0F1500
G1 X41.045Y47.117Z0F1500
G1 X40.608Y50.209Z0F1500
G1 X40.172Y53.282Z0F1500
G1 X38.813Y52.792Z0F1500
G1 X37.473Y52.359Z0F1500
G0 Z4.8F800
G0 X36.649Y58.483Z4.8F1500
G1 Z0F1500
G1 X36.792Y58.568Z0F1500
G1 X36.61Y58.571Z0F1500
G1 X36.596Y58.454Z0F1500
G1 X36.649Y58.483Z0F1500
G0 Z4.8F800
G0 X39.443Y59.324Z4.8F1500
G1 Z0F1500
G1 X35.901Y59.383Z0F1500
G1 X35.619Y57.009Z0F1500
G1 X35.691Y57.045Z0F1500
G1 X37.046Y57.789Z0F1500
G1 X38.43Y58.617Z0F1500
G1 X39.53Y59.327Z0F1500
G1 X39.443Y59.324Z0F1500
G0 Z4.8F800
G0 X36.188Y61.794Z4.8F1500
G1 Z0F1500
G1 X36.429Y62.041Z0F1500
G1 X36.228Y62.132Z0F1500
G1 X36.188Y61.794Z0F1500
G0 Z4.8F800
G0 X35.733Y60.187Z4.8F1500
G1 Z0F1500
G1 X37.916Y62.415Z0F1500
G1 X38.799Y63.354Z0F1500
G1 X39.691Y64.339Z0F1500
G1 X40.29Y65.02Z0F1500
G1 X40.033Y65.938Z0F1500
G1 X38.717Y64.439Z0F1500
G1 X37.062Y62.631Z0F1500
G1 X36.002Y63.116Z0F1500
G1 X36.251Y65.229Z0F1500
G1 X36.5Y67.571Z0F1500
G1 X38.381Y67.322Z0F1500
G1 X39.686Y67.176Z0F1500
G1 X39.654Y67.291Z0F1500
G1 X39.158Y69.036Z0F1500
G1 X38.91Y68.918Z0F1500
G1 X37.801Y68.435Z0F1500
G1 X36.701Y67.997Z0F1500
G1 X36.093Y67.778Z0F1500
G1 X35.317Y61.248Z0F1500
G1 X34.649Y55.638Z0F1500
G1 X34.714Y55.666Z0F1500
G1 X36.069Y56.34Z0F1500
G1 X37.443Y57.094Z0F1500
G1 X38.845Y57.932Z0F1500
G1 X40.266Y58.849Z0F1500
G1 X41.69Y59.833Z0F1500
G1 X42.281Y60.266Z0F1500
G1 X41.333Y60.189Z0F1500
G1 X39.437Y60.124Z0F1500
G1 X35.733Y60.187Z0F1500
G0 Z4.8F800
G0 X36.865Y63.601Z4.8F1500
G1 Z0F1500
G1 X37.046Y65.145Z0F1500
G1 X37.208Y66.67Z0F1500
G1 X38.283Y66.528Z0F1500
G1 X39.378Y66.405Z0F1500
G1 X38.122Y64.973Z0F1500
G1 X36.865Y63.601Z0F1500
G0 Z4.8F800
G0 X34.523Y61.342Z4.8F1500
G1 Z0F1500
G1 X33.689Y54.34Z0F1500
G1 X35.052Y54.941Z0F1500
G1 X36.438Y55.63Z0F1500
G1 X37.845Y56.402Z0F1500
G1 X39.269Y57.254Z0F1500
G1 X40.707Y58.182Z0F1500
G1 X42.154Y59.181Z0F1500
G1 X43.609Y60.248Z0F1500
G1 X45.067Y61.378Z0F1500
G1 X43.168Y61.141Z0F1500
G1 X41.287Y60.988Z0F1500
G1 X39.43Y60.924Z0F1500
G1 X37.605Y60.955Z0F1500
G1 X38.499Y61.867Z0F1500
G1 X39.392Y62.817Z0F1500
G1 X40.284Y63.801Z0F1500
G1 X41.177Y64.818Z0F1500
G1 X40.423Y67.51Z0F1500
G1 X39.669Y70.163Z0F1500
G1 X38.579Y69.647Z0F1500
G1 X37.493Y69.173Z0F1500
G1 X36.417Y68.745Z0F1500
G1 X35.356Y68.363Z0F1500
G1 X34.523Y61.342Z0F1500
G0 Z4.8F800
G0 X24.446Y46.969Z4.8F1500
G1 Z0F1500
G1 X24.318Y46.856Z0F1500
G1 X24.012Y46.603Z0F1500
G1 X24.077Y46.496Z0F1500
G1 X24.446Y46.969Z0F1500
G0 Z4.8F800
G0 X25.675Y49.23Z4.8F1500
G1 Z0F1500
G1 X25.198Y48.752Z0F1500
G1 X24.727Y48.299Z0F1500
G1 X24.26Y47.87Z0F1500
G1 X23.799Y47.465Z0F1500
G1 X22.979Y46.784Z0F1500
G1 X23.093Y46.572Z0F1500
G1 X23.539Y45.842Z0F1500
G1 X24.018Y45.148Z0F1500
G1 X24.638Y45.915Z0F1500
G1 X25.416Y46.911Z0F1500
G1 X26.209Y47.965Z0F1500
G1 X27.036Y49.1Z0F1500
G1 X27.401Y49.616Z0F1500
G1 X27.593Y51.319Z0F1500
G1 X27.145Y50.808Z0F1500
G1 X26.648Y50.258Z0F1500
G1 X26.159Y49.732Z0F1500
G1 X25.675Y49.23Z0F1500
G0 Z4.8F800
G0 X22.398Y46.174Z4.8F1500
G1 Z0F1500
G1 X22.87Y45.403Z0F1500
G1 X23.371Y44.678Z0F1500
G1 X23.909Y43.984Z0F1500
G1 X24Y43.879Z0F1500
G1 X24.501Y44.474Z0F1500
G1 X25.282Y45.439Z0F1500
G1 X26.052Y46.427Z0F1500
G1 X26.859Y47.498Z0F1500
G1 X27.671Y48.613Z0F1500
G1 X28.173Y49.322Z0F1500
G1 X28.688Y53.892Z0F1500
G1 X28.575Y53.748Z0F1500
G1 X28.054Y53.106Z0F1500
G1 X27.544Y52.494Z0F1500
G1 X27.042Y51.905Z0F1500
G1 X26.547Y51.339Z0F1500
G1 X26.058Y50.798Z0F1500
G1 X25.578Y50.283Z0F1500
G1 X25.104Y49.791Z0F1500
G1 X24.638Y49.324Z0F1500
G1 X24.179Y48.882Z0F1500
G1 X23.726Y48.465Z0F1500
G1 X23.279Y48.074Z0F1500
G1 X21.963Y46.981Z0F1500
G1 X22.398Y46.174Z0F1500
G0 Z4.8F800
G0 X24.369Y43.075Z4.8F1500
G1 Z0F1500
G1 X25.123Y43.97Z0F1500
G1 X25.886Y44.913Z0F1500
G1 X26.682Y45.933Z0F1500
G1 X27.51Y47.033Z0F1500
G1 X28.325Y48.151Z0F1500
G1 X28.944Y49.028Z0F1500
G1 X29.804Y56.654Z0F1500
G1 X28.988Y55.57Z0F1500
G1 X27.949Y54.247Z0F1500
G1 X27.436Y53.614Z0F1500
G1 X26.933Y53.009Z0F1500
G1 X26.437Y52.428Z0F1500
G1 X25.949Y51.871Z0F1500
G1 X25.468Y51.339Z0F1500
G1 X24.997Y50.833Z0F1500
G1 X24.533Y50.351Z0F1500
G1 X24.077Y49.895Z0F1500
G1 X23.63Y49.465Z0F1500
G1 X23.191Y49.06Z0F1500
G1 X22.76Y48.683Z0F1500
G1 X20.973Y47.199Z0F1500
G1 X21.237Y46.64Z0F1500
G1 X21.703Y45.778Z0F1500
G1 X22.199Y44.967Z0F1500
G1 X22.727Y44.203Z0F1500
G1 X23.288Y43.479Z0F1500
G1 X23.874Y42.806Z0F1500
G1 X24.009Y42.667Z0F1500
G1 X24.369Y43.075Z0F1500
G0 Z4.8F800
G0 X21.136Y75.868Z4.8F1500
G1 Z0F1500
G1 X20.985Y75.865Z0F1500
G1 X21.001Y75.7Z0F1500
G1 X21.136Y75.868Z0F1500
G0 Z4.8F800
G0 X21.86Y76.734Z4.8F1500
G1 Z0F1500
G1 X21.126Y76.668Z0F1500
G1 X20.397Y76.652Z0F1500
G1 X20.095Y76.668Z0F1500
G1 X20.138Y76.28Z0F1500
G1 X20.286Y74.835Z0F1500
G1 X20.391Y73.719Z0F1500
G1 X20.626Y73.99Z0F1500
G1 X21.033Y74.473Z0F1500
G1 X21.435Y74.961Z0F1500
G1 X21.884Y75.522Z0F1500
G1 X22.986Y76.926Z0F1500
G1 X22.599Y76.845Z0F1500
G1 X21.86Y76.734Z0F1500
G0 Z4.8F800
G0 X29.498Y64.43Z4.8F1500
G1 Z0F1500
G1 X29.764Y63.443Z0F1500
G1 X29.932Y64.934Z0F1500
G1 X29.498Y64.43Z0F1500
G0 Z4.8F800
G0 X29.713Y60.565Z4.8F1500
G1 Z0F1500
G1 X30.089Y59.182Z0F1500
G1 X31.017Y67.417Z0F1500
G1 X29.188Y65.295Z0F1500
G1 X27.405Y71.216Z0F1500
G1 X26.477Y74.264Z0F1500
G1 X26.021Y75.741Z0F1500
G1 X25.564Y77.198Z0F1500
G1 X25.184Y78.396Z0F1500
G1 X24.602Y78.189Z0F1500
G1 X23.876Y77.965Z0F1500
G1 X23.162Y77.779Z0F1500
G1 X22.458Y77.633Z0F1500
G1 X21.765Y77.528Z0F1500
G1 X21.082Y77.467Z0F1500
G1 X20.41Y77.452Z0F1500
G1 X19.751Y77.487Z0F1500
G1 X19.191Y77.563Z0F1500
G1 X19.342Y76.195Z0F1500
G1 X19.49Y74.757Z0F1500
G1 X19.627Y73.293Z0F1500
G1 X19.754Y71.833Z0F1500
G1 X20.078Y72.172Z0F1500
G1 X20.43Y72.555Z0F1500
G1 X20.832Y73.005Z0F1500
G1 X21.217Y73.451Z0F1500
G1 X21.632Y73.942Z0F1500
G1 X22.059Y74.461Z0F1500
G1 X22.498Y75.008Z0F1500
G1 X24.904Y78.075Z0F1500
G1 X26.306Y73.091Z0F1500
G1 X26.858Y71.096Z0F1500
G1 X27.415Y69.061Z0F1500
G1 X27.978Y66.989Z0F1500
G1 X29.713Y60.565Z0F1500
G0 Z4.8F800
G0 X22.021Y57.701Z4.8F1500
G1 Z0F1500
G1 X22.339Y60.654Z0F1500
G1 X22.656Y63.627Z0F1500
G1 X23.163Y62.354Z0F1500
G1 X23.688Y61.061Z0F1500
G1 X23.257Y60.179Z0F1500
G1 X22.835Y59.321Z0F1500
G1 X22.423Y58.494Z0F1500
G1 X22.021Y57.701Z0F1500
G0 Z4.8F800
G0 X21.155Y57.123Z4.8F1500
G1 Z0F1500
G1 X21.543Y60.739Z0F1500
G1 X21.927Y64.334Z0F1500
G1 X23.168Y64.504Z0F1500
G1 X23.904Y62.655Z0F1500
G1 X24.564Y61.03Z0F1500
G1 X23.975Y59.826Z0F1500
G1 X23.552Y58.967Z0F1500
G1 X23.138Y58.135Z0F1500
G1 X22.434Y56.744Z0F1500
G1 X21.155Y57.123Z0F1500
G0 Z4.8F800
G0 X21.406Y65.07Z4.8F1500
G1 Z0F1500
G1 X23.043Y65.295Z0F1500
G1 X22.999Y65.52Z0F1500
G1 X22.748Y66.791Z0F1500
G1 X22.305Y66.202Z0F1500
G1 X21.836Y65.601Z0F1500
G1 X21.406Y65.07Z0F1500
G0 Z4.8F800
G0 X23.667Y57.408Z4.8F1500
G1 Z0F1500
G1 X23.707Y57.428Z0F1500
G1 X24.246Y57.72Z0F1500
G1 X24.498Y57.869Z0F1500
G1 X24.328Y58.732Z0F1500
G1 X24.269Y58.612Z0F1500
G1 X23.853Y57.776Z0F1500
G1 X23.667Y57.408Z0F1500
G0 Z4.8F800
G0 X20.782Y56.399Z4.8F1500
G1 Z0F1500
G1 X20.589Y56.456Z0F1500
G1 X20.58Y56.351Z0F1500
G1 X20.782Y56.399Z0F1500
G0 Z4.8F800
G0 X20.141Y55.584Z4.8F1500
G1 Z0F1500
G1 X19.709Y55.227Z0F1500
G1 X19.227Y54.96Z0F1500
G1 X18.958Y54.87Z0F1500
G1 X19.045Y54.086Z0F1500
G1 X19.233Y52.867Z0F1500
G1 X19.466Y51.699Z0F1500
G1 X19.743Y50.579Z0F1500
G1 X19.79Y50.421Z0F1500
G1 X19.932Y52.401Z0F1500
G1 X20.141Y55.584Z0F1500
G0 Z4.8F800
G0 X19.774Y56.32Z4.8F1500
G1 Z0F1500
G1 X19.256Y55.891Z0F1500
G1 X18.903Y55.695Z0F1500
G1 X18.526Y55.568Z0F1500
G1 X18.135Y55.512Z0F1500
G1 X18.088Z0F1500
G1 X18.103Y55.31Z0F1500
G1 X18.25Y53.991Z0F1500
G1 X18.444Y52.734Z0F1500
G1 X18.686Y51.521Z0F1500
G1 X18.972Y50.365Z0F1500
G1 X19.3Y49.265Z0F1500
G1 X19.668Y48.222Z0F1500
G1 X20.08Y47.217Z0F1500
G1 X20.523Y46.279Z0F1500
G1 X21.009Y45.38Z0F1500
G1 X21.531Y44.526Z0F1500
G1 X22.081Y43.73Z0F1500
G1 X22.671Y42.969Z0F1500
G1 X23.287Y42.261Z0F1500
G1 X23.93Y41.6Z0F1500
G1 X24.039Y41.5Z0F1500
G1 X24.22Y41.695Z0F1500
G1 X24.976Y42.554Z0F1500
G1 X25.731Y43.45Z0F1500
G1 X26.526Y44.433Z0F1500
G1 X27.321Y45.452Z0F1500
G1 X28.149Y46.552Z0F1500
G1 X28.978Y47.689Z0F1500
G1 X29.716Y48.734Z0F1500
G1 X32.102Y69.901Z0F1500
G1 X29.534Y66.922Z0F1500
G1 X28.171Y71.45Z0F1500
G1 X27.244Y74.494Z0F1500
G1 X26.784Y75.979Z0F1500
G1 X26.326Y77.44Z0F1500
G1 X25.871Y78.875Z0F1500
G1 X25.685Y79.449Z0F1500
G1 X25.057Y79.199Z0F1500
G1 X24.35Y78.949Z0F1500
G1 X23.658Y78.735Z0F1500
G1 X22.979Y78.559Z0F1500
G1 X22.316Y78.421Z0F1500
G1 X21.669Y78.323Z0F1500
G1 X21.037Y78.266Z0F1500
G1 X20.422Y78.253Z0F1500
G1 X19.827Y78.284Z0F1500
G1 X19.249Y78.362Z0F1500
G1 X18.691Y78.491Z0F1500
G1 X18.257Y78.637Z0F1500
G1 X18.392Y77.515Z0F1500
G1 X18.547Y76.111Z0F1500
G1 X18.694Y74.679Z0F1500
G1 X18.831Y73.221Z0F1500
G1 X18.96Y71.735Z0F1500
G1 X19.082Y70.223Z0F1500
G1 X19.09Y70.102Z0F1500
G1 X19.281Y70.266Z0F1500
G1 X19.604Y70.561Z0F1500
G1 X19.945Y70.889Z0F1500
G1 X20.293Y71.239Z0F1500
G1 X20.647Y71.61Z0F1500
G1 X21.027Y72.022Z0F1500
G1 X21.421Y72.464Z0F1500
G1 X21.829Y72.935Z0F1500
G1 X22.256Y73.441Z0F1500
G1 X22.683Y73.96Z0F1500
G1 X23.127Y74.514Z0F1500
G1 X24.561Y76.341Z0F1500
G1 X25.535Y72.875Z0F1500
G1 X26.087Y70.883Z0F1500
G1 X26.644Y68.851Z0F1500
G1 X27.206Y66.78Z0F1500
G1 X28.941Y60.355Z0F1500
G1 X29.643Y57.77Z0F1500
G1 X28.354Y56.058Z0F1500
G1 X27.324Y54.746Z0F1500
G1 X26.818Y54.122Z0F1500
G1 X26.321Y53.524Z0F1500
G1 X25.832Y52.951Z0F1500
G1 X25.351Y52.403Z0F1500
G1 X24.879Y51.88Z0F1500
G1 X24.416Y51.383Z0F1500
G1 X23.962Y50.911Z0F1500
G1 X23.517Y50.466Z0F1500
G1 X23.082Y50.047Z0F1500
G1 X22.656Y49.655Z0F1500
G1 X22.241Y49.291Z0F1500
G1 X20.401Y47.764Z0F1500
G1 X20.73Y52.349Z0F1500
G1 X20.944Y55.616Z0F1500
G1 X21.999Y55.869Z0F1500
G1 X22.474Y56.016Z0F1500
G1 X22.987Y56.21Z0F1500
G1 X23.515Y56.441Z0F1500
G1 X24.07Y56.715Z0F1500
G1 X24.645Y57.026Z0F1500
G1 X25.24Y57.378Z0F1500
G1 X25.391Y57.474Z0F1500
G1 X24.795Y60.504Z0F1500
G1 X23.784Y65.675Z0F1500
G1 X23.455Y67.346Z0F1500
G1 X23.174Y68.752Z0F1500
G1 X23.163Y68.736Z0F1500
G1 X22.646Y68.007Z0F1500
G1 X22.148Y67.324Z0F1500
G1 X21.669Y66.688Z0F1500
G1 X21.21Y66.098Z0F1500
G1 X20.77Y65.556Z0F1500
G1 X20.522Y65.263Z0F1500
G1 X19.774Y56.32Z0F1500
G0 Z4.8F800
G0 X18.539Y49.02Z4.8F1500
G1 Z0F1500
G1 X18.921Y47.934Z0F1500
G1 X19.346Y46.899Z0F1500
G1 X19.811Y45.915Z0F1500
G1 X20.316Y44.979Z0F1500
G1 X20.858Y44.093Z0F1500
G1 X21.437Y43.255Z0F1500
G1 X22.05Y42.464Z0F1500
G1 X22.697Y41.721Z0F1500
G1 X23.375Y41.023Z0F1500
G1 X24.085Y40.37Z0F1500
G1 X24.82Y41.167Z0F1500
G1 X25.577Y42.025Z0F1500
G1 X26.353Y42.947Z0F1500
G1 X27.148Y43.929Z0F1500
G1 X27.96Y44.971Z0F1500
G1 X28.788Y46.07Z0F1500
G1 X29.631Y47.228Z0F1500
G1 X30.488Y48.44Z0F1500
G1 X33.187Y72.385Z0F1500
G1 X29.879Y68.548Z0F1500
G1 X28.936Y71.683Z0F1500
G1 X28.008Y74.73Z0F1500
G1 X27.547Y76.219Z0F1500
G1 X27.089Y77.683Z0F1500
G1 X26.632Y79.122Z0F1500
G1 X26.175Y80.534Z0F1500
G1 X25.468Y80.224Z0F1500
G1 X24.775Y79.948Z0F1500
G1 X24.099Y79.708Z0F1500
G1 X23.439Y79.505Z0F1500
G1 X22.797Y79.338Z0F1500
G1 X22.175Y79.208Z0F1500
G1 X21.573Y79.118Z0F1500
G1 X20.993Y79.065Z0F1500
G1 X20.435Y79.053Z0F1500
G1 X19.901Y79.082Z0F1500
G1 X19.392Y79.15Z0F1500
G1 X18.909Y79.262Z0F1500
G1 X18.453Y79.415Z0F1500
G1 X18.025Y79.612Z0F1500
G1 X17.627Y79.852Z0F1500
G1 X17.259Y80.137Z0F1500
G1 X17.433Y78.794Z0F1500
G1 X17.597Y77.423Z0F1500
G1 X17.751Y76.026Z0F1500
G1 X17.897Y74.601Z0F1500
G1 X18.034Y73.148Z0F1500
G1 X18.163Y71.669Z0F1500
G1 X18.284Y70.162Z0F1500
G1 X18.396Y68.628Z0F1500
G1 X18.648Y68.773Z0F1500
G1 X18.917Y68.951Z0F1500
G1 X19.202Y69.161Z0F1500
G1 X19.503Y69.402Z0F1500
G1 X19.82Y69.675Z0F1500
G1 X20.152Y69.978Z0F1500
G1 X20.5Y70.312Z0F1500
G1 X20.861Y70.675Z0F1500
G1 X21.236Y71.068Z0F1500
G1 X21.625Y71.49Z0F1500
G1 X22.026Y71.94Z0F1500
G1 X22.441Y72.419Z0F1500
G1 X22.868Y72.926Z0F1500
G1 X23.307Y73.459Z0F1500
G1 X23.756Y74.02Z0F1500
G1 X24.217Y74.607Z0F1500
G1 X24.765Y72.661Z0F1500
G1 X25.315Y70.671Z0F1500
G1 X25.872Y68.64Z0F1500
G1 X26.434Y66.571Z0F1500
G1 X28.169Y60.146Z0F1500
G1 X28.769Y57.938Z0F1500
G1 X27.72Y56.545Z0F1500
G1 X26.699Y55.245Z0F1500
G1 X26.2Y54.63Z0F1500
G1 X25.709Y54.04Z0F1500
G1 X25.227Y53.475Z0F1500
G1 X24.753Y52.935Z0F1500
G1 X24.289Y52.42Z0F1500
G1 X23.835Y51.933Z0F1500
G1 X23.391Y51.471Z0F1500
G1 X22.957Y51.037Z0F1500
G1 X22.534Y50.63Z0F1500
G1 X22.122Y50.25Z0F1500
G1 X21.722Y49.9Z0F1500
G1 X21.333Y49.578Z0F1500
G1 X21.529Y52.296Z0F1500
G1 X21.704Y54.975Z0F1500
G1 X22.211Y55.097Z0F1500
G1 X22.739Y55.261Z0F1500
G1 X23.287Y55.468Z0F1500
G1 X23.854Y55.716Z0F1500
G1 X24.438Y56.004Z0F1500
G1 X25.038Y56.33Z0F1500
G1 X25.653Y56.693Z0F1500
G1 X26.281Y57.092Z0F1500
G1 X25.581Y60.658Z0F1500
G1 X24.569Y65.829Z0F1500
G1 X24.239Y67.502Z0F1500
G1 X23.91Y69.15Z0F1500
G1 X23.583Y70.771Z0F1500
G1 X23.036Y69.96Z0F1500
G1 X22.507Y69.194Z0F1500
G1 X21.997Y68.474Z0F1500
G1 X21.505Y67.801Z0F1500
G1 X21.034Y67.175Z0F1500
G1 X20.583Y66.596Z0F1500
G1 X20.154Y66.066Z0F1500
G1 X19.746Y65.585Z0F1500
G1 X19.005Y56.722Z0F1500
G1 X18.803Y56.554Z0F1500
G1 X18.579Y56.43Z0F1500
G1 X18.341Y56.35Z0F1500
G1 X18.096Y56.315Z0F1500
G1 X17.852Y56.326Z0F1500
G1 X17.617Y56.383Z0F1500
G1 X17.399Y56.488Z0F1500
G1 X17.206Y56.642Z0F1500
G1 X17.306Y55.236Z0F1500
G1 X17.457Y53.885Z0F1500
G1 X17.657Y52.589Z0F1500
G1 X17.905Y51.346Z0F1500
G1 X18.199Y50.157Z0F1500
G1 X18.539Y49.02Z0F1500
G0 Z4.8F800
G0 X60.78Y58.711Z4.8F1500
G1 Z0F1500
G1 X62.712Y60.961Z0F1500
G1 X64.583Y63.239Z0F1500
G1 X65.039Y63.819Z0F1500
G1 X64.999Y63.882Z0F1500
G1 X62.945Y61.388Z0F1500
G1 X60.698Y58.804Z0F1500
G1 X59.542Y57.531Z0F1500
G1 X59.216Y57.183Z0F1500
G1 X59.281Y57.042Z0F1500
G1 X60.78Y58.711Z0F1500
G0 Z4.8F800
G0 X63.319Y60.44Z4.8F1500
G1 Z0F1500
G1 X65.221Y62.755Z0F1500
G1 X66.019Y63.771Z0F1500
G1 X65.151Y65.129Z0F1500
G1 X65.247Y65.487Z0F1500
G1 X64.517Y64.555Z0F1500
G1 X62.334Y61.905Z0F1500
G1 X60.101Y59.335Z0F1500
G1 X58.955Y58.073Z0F1500
G1 X58.203Y57.271Z0F1500
G1 X58.31Y57.238Z0F1500
G1 X59.064Y55.603Z0F1500
G1 X61.384Y58.187Z0F1500
G1 X63.319Y60.44Z0F1500
G0 Z4.8F800
G0 X65.839Y62.248Z4.8F1500
G1 Z0F1500
G1 X66.999Y63.723Z0F1500
G1 X66.015Y65.264Z0F1500
G1 X66.955Y68.801Z0F1500
G1 X67.042Y69.144Z0F1500
G1 X66.003Y67.752Z0F1500
G1 X63.893Y65.056Z0F1500
G1 X61.724Y62.421Z0F1500
G1 X59.502Y59.867Z0F1500
G1 X58.366Y58.616Z0F1500
G1 X57.221Y57.392Z0F1500
G1 X56.738Y56.893Z0F1500
G1 X57.732Y56.581Z0F1500
G1 X59.757Y52.19Z0F1500
G1 X60.452Y50.757Z0F1500
G1 X59.417Y54.799Z0F1500
G1 X61.979Y57.651Z0F1500
G1 X63.936Y59.93Z0F1500
G1 X65.839Y62.248Z0F1500
G0 Z4.8F800
G0 X73.644Y39.048Z4.8F1500
G1 Z0F1500
G1 X73.451Y38.73Z0F1500
G1 X73.667Y38.965Z0F1500
G1 X73.644Y39.048Z0F1500
G0 Z4.8F800
G0 X73.906Y41.025Z4.8F1500
G1 Z0F1500
G1 X72.661Y38.969Z0F1500
G1 X71.307Y36.809Z0F1500
G1 X69.922Y34.671Z0F1500
G1 X68.836Y33.053Z0F1500
G1 X70.206Y34.318Z0F1500
G1 X71.994Y36.063Z0F1500
G1 X73.753Y37.878Z0F1500
G1 X74.561Y38.754Z0F1500
G1 X73.906Y41.025Z0F1500
G0 Z4.8F800
G0 X70.029Y55.201Z4.8F1500
G1 Z0F1500
G1 X69.938Y55.543Z0F1500
G1 X69.647Y56.695Z0F1500
G1 X68.564Y55.234Z0F1500
G1 X70.029Y55.201Z0F1500
G0 Z4.8F800
G0 X65.57Y51.429Z4.8F1500
G1 Z0F1500
G1 X65.036Y50.775Z0F1500
G1 X62.701Y47.993Z0F1500
G1 X63.627Y46.172Z0F1500
G1 X64.104Y47.418Z0F1500
G1 X65.252Y50.533Z0F1500
G1 X65.57Y51.429Z0F1500
G0 Z4.8F800
G0 X66.676Y54.089Z4.8F1500
G1 Z0F1500
G1 X65.556Y52.677Z0F1500
G1 X64.42Y51.285Z0F1500
G1 X61.747Y48.102Z0F1500
G1 X63.419Y44.819Z0F1500
G1 X63.738Y44.222Z0F1500
G1 X64.861Y47.159Z0F1500
G1 X65.996Y50.238Z0F1500
G1 X67.494Y54.458Z0F1500
G1 X69.808Y54.406Z0F1500
G1 X70.945Y50.676Z0F1500
G1 X71.762Y48.065Z0F1500
G1 X72.594Y45.468Z0F1500
G1 X73.671Y42.181Z0F1500
G1 X71.979Y39.389Z0F1500
G1 X70.632Y37.238Z0F1500
G1 X69.254Y35.112Z0F1500
G1 X66.698Y31.302Z0F1500
G1 X66.342Y31.705Z0F1500
G1 X65.209Y30.425Z0F1500
G1 X62.593Y27.582Z0F1500
G1 X60.587Y31.873Z0F1500
G1 X59.603Y34.02Z0F1500
G1 X59.502Y33.882Z0F1500
G1 X60.194Y32.351Z0F1500
G1 X61.291Y29.988Z0F1500
G1 X62.41Y27.647Z0F1500
G1 X62.729Y27.004Z0F1500
G1 X63.196Y27.341Z0F1500
G1 X65.12Y28.824Z0F1500
G1 X67.039Y30.4Z0F1500
G1 X68.908Y32.03Z0F1500
G1 X70.76Y33.741Z0F1500
G1 X72.561Y35.5Z0F1500
G1 X74.332Y37.325Z0F1500
G1 X75.454Y38.543Z0F1500
G1 X73.994Y43.608Z0F1500
G1 X72.329Y49.637Z0F1500
G1 X70.713Y55.744Z0F1500
G1 X70.008Y58.531Z0F1500
G1 X69.939Y58.434Z0F1500
G1 X67.784Y55.525Z0F1500
G1 X66.676Y54.089Z0F1500
G0 Z4.8F800
G0 X61.047Y34.708Z4.8F1500
G1 Z0F1500
G1 X62.024Y34.147Z0F1500
G1 X63.009Y33.61Z0F1500
G1 X63.998Y33.093Z0F1500
G1 X64.99Y32.592Z0F1500
G1 X64.021Y31.497Z0F1500
G1 X63.032Y30.422Z0F1500
G1 X62.04Y32.545Z0F1500
G1 X61.047Y34.708Z0F1500
G0 Z4.8F800
G0 X60.939Y35.692Z4.8F1500
G1 Z0F1500
G1 X62.414Y34.846Z0F1500
G1 X63.392Y34.313Z0F1500
G1 X64.369Y33.802Z0F1500
G1 X66.276Y32.838Z0F1500
G1 X64.615Y30.961Z0F1500
G1 X62.812Y29.002Z0F1500
G1 X61.313Y32.209Z0F1500
G1 X60.077Y34.905Z0F1500
G1 X60.939Y35.692Z0F1500
G0 Z4.8F800
G0 X61.301Y36.407Z4.8F1500
G1 Z0F1500
G1 X62.821Y35.535Z0F1500
G1 X63.145Y35.358Z0F1500
G1 X62.823Y35.735Z0F1500
G1 X61.741Y37.043Z0F1500
G1 X61.301Y36.407Z0F1500
G0 Z4.8F800
G0 X58.582Y33.978Z4.8F1500
G1 Z0F1500
G1 X59.468Y32.015Z0F1500
G1 X60.569Y29.643Z0F1500
G1 X61.693Y27.292Z0F1500
G1 X62.43Y25.802Z0F1500
G1 X63.661Y26.689Z0F1500
G1 X65.626Y28.204Z0F1500
G1 X67.55Y29.785Z0F1500
G1 X69.458Y31.448Z0F1500
G1 X71.306Y33.155Z0F1500
G1 X73.128Y34.936Z0F1500
G1 X74.916Y36.778Z0F1500
G1 X76.347Y38.333Z0F1500
G1 X74.764Y43.826Z0F1500
G1 X73.101Y49.845Z0F1500
G1 X71.487Y55.944Z0F1500
G1 X70.356Y60.418Z0F1500
G1 X69.291Y58.902Z0F1500
G1 X67.146Y56.008Z0F1500
G1 X66.046Y54.582Z0F1500
G1 X64.933Y53.178Z0F1500
G1 X63.804Y51.795Z0F1500
G1 X61.664Y49.246Z0F1500
G1 X60.299Y54.583Z0F1500
G1 X62.592Y57.137Z0F1500
G1 X64.541Y59.406Z0F1500
G1 X66.466Y61.75Z0F1500
G1 X67.979Y63.675Z0F1500
G1 X66.878Y65.398Z0F1500
G1 X67.726Y68.588Z0F1500
G1 X68.457Y71.439Z0F1500
G1 X68.834Y72.966Z0F1500
G1 X67.406Y70.967Z0F1500
G1 X65.368Y68.238Z0F1500
G1 X63.269Y65.557Z0F1500
G1 X61.113Y62.938Z0F1500
G1 X58.904Y60.398Z0F1500
G1 X57.778Y59.158Z0F1500
G1 X56.641Y57.944Z0F1500
G1 X55.492Y56.755Z0F1500
G1 X55.258Y56.521Z0F1500
G1 X55.423Y56.466Z0F1500
G1 X57.154Y55.923Z0F1500
G1 X59.044Y51.827Z0F1500
G1 X60.841Y48.119Z0F1500
G1 X62.721Y44.427Z0F1500
G1 X63.849Y42.321Z0F1500
G1 X64.426Y43.779Z0F1500
G1 X65.605Y46.865Z0F1500
G1 X66.75Y49.97Z0F1500
G1 X68.054Y53.645Z0F1500
G1 X69.211Y53.619Z0F1500
G1 X70.182Y50.437Z0F1500
G1 X71.002Y47.815Z0F1500
G1 X71.834Y45.219Z0F1500
G1 X72.796Y42.281Z0F1500
G1 X71.298Y39.809Z0F1500
G1 X69.958Y37.668Z0F1500
G1 X68.586Y35.552Z0F1500
G1 X66.611Y32.608Z0F1500
G1 X64.676Y34.798Z0F1500
G1 X63.435Y36.25Z0F1500
G1 X62.209Y37.733Z0F1500
G1 X61.686Y38.385Z0F1500
G1 X61.313Y37.831Z0F1500
G1 X60.32Y36.395Z0F1500
G1 X59.317Y34.985Z0F1500
G1 X58.582Y33.978Z0F1500
G0 Z4.8F800
G0 X57.661Y34.073Z4.8F1500
G1 Z0F1500
G1 X58.743Y31.678Z0F1500
G1 X59.847Y29.297Z0F1500
G1 X60.976Y26.937Z0F1500
G1 X62.132Y24.601Z0F1500
G1 X64.142Y26.05Z0F1500
G1 X66.123Y27.577Z0F1500
G1 X68.07Y29.177Z0F1500
G1 X69.984Y30.845Z0F1500
G1 X71.86Y32.579Z0F1500
G1 X73.696Y34.372Z0F1500
G1 X75.49Y36.221Z0F1500
G1 X77.24Y38.122Z0F1500
G1 X75.534Y44.043Z0F1500
G1 X73.873Y50.054Z0F1500
G1 X72.262Y56.145Z0F1500
G1 X70.705Y62.304Z0F1500
G1 X68.642Y59.37Z0F1500
G1 X66.508Y56.49Z0F1500
G1 X65.416Y55.075Z0F1500
G1 X64.309Y53.68Z0F1500
G1 X63.188Y52.305Z0F1500
G1 X62.053Y50.954Z0F1500
G1 X61.18Y54.367Z0F1500
G1 X63.188Y56.603Z0F1500
G1 X65.159Y58.898Z0F1500
G1 X67.084Y61.243Z0F1500
G1 X68.958Y63.627Z0F1500
G1 X67.742Y65.532Z0F1500
G1 X68.501Y68.39Z0F1500
G1 X69.233Y71.247Z0F1500
G1 X69.94Y74.104Z0F1500
G1 X70.625Y76.962Z0F1500
G1 X68.726Y74.19Z0F1500
G1 X66.76Y71.439Z0F1500
G1 X64.732Y68.724Z0F1500
G1 X62.645Y66.058Z0F1500
G1 X60.502Y63.455Z0F1500
G1 X58.306Y60.93Z0F1500
G1 X57.19Y59.7Z0F1500
G1 X56.062Y58.495Z0F1500
G1 X54.922Y57.316Z0F1500
G1 X53.771Y56.166Z0F1500
G1 X55.174Y55.706Z0F1500
G1 X56.576Y55.266Z0F1500
G1 X58.317Y51.492Z0F1500
G1 X60.128Y47.755Z0F1500
G1 X62.008Y44.063Z0F1500
G1 X63.958Y40.423Z0F1500
G1 X65.173Y43.493Z0F1500
G1 X66.355Y46.588Z0F1500
G1 X67.504Y49.703Z0F1500
G1 X68.615Y52.832Z0F1500
G1 X69.418Y50.198Z0F1500
G1 X70.238Y47.577Z0F1500
G1 X71.074Y44.97Z0F1500
G1 X71.922Y42.381Z0F1500
G1 X70.617Y40.229Z0F1500
G1 X69.283Y38.098Z0F1500
G1 X67.918Y35.993Z0F1500
G1 X66.524Y33.915Z0F1500
G1 X65.28Y35.323Z0F1500
G1 X64.047Y36.765Z0F1500
G1 X62.83Y38.238Z0F1500
G1 X61.629Y39.735Z0F1500
G1 X60.652Y38.281Z0F1500
G1 X59.665Y36.854Z0F1500
G1 X58.668Y35.453Z0F1500
G1 X57.661Y34.073Z0F1500
G0 Z4.8F800
G0 X88.629Y67.551Z4.8F1500
G1 Z0F1500
G1 X87.471Y68.311Z0F1500
G1 X88.014Y67.426Z0F1500
G1 X88.771Y66.222Z0F1500
G1 X88.629Y67.551Z0F1500
G0 Z4.8F800
G0 X88.764Y68.419Z4.8F1500
G1 Z0F1500
G1 X86.525Y69.887Z0F1500
G1 X85.509Y70.584Z0F1500
G1 X84.93Y70.998Z0F1500
G1 X85.455Y70.104Z0F1500
G1 X86.4Y68.527Z0F1500
G1 X87.319Y67.03Z0F1500
G1 X88.264Y65.527Z0F1500
G1 X89.177Y64.112Z0F1500
G1 X89.923Y62.987Z0F1500
G1 X89.306Y68.741Z0F1500
G1 X88.764Y68.419Z0F1500
G0 Z4.8F800
G0 X86.642Y66.604Z4.8F1500
G1 Z0F1500
G1 X87.587Y65.101Z0F1500
G1 X88.51Y63.67Z0F1500
G1 X89.441Y62.265Z0F1500
G1 X90.368Y60.905Z0F1500
G1 X91.059Y59.92Z0F1500
G1 X90.826Y62.067Z0F1500
G1 X89.969Y70.063Z0F1500
G1 X88.786Y69.362Z0F1500
G1 X86.971Y70.552Z0F1500
G1 X85.968Y71.239Z0F1500
G1 X84.96Y71.961Z0F1500
G1 X83.948Y72.714Z0F1500
G1 X82.935Y73.499Z0F1500
G1 X82.186Y74.099Z0F1500
G1 X84.776Y69.678Z0F1500
G1 X85.705Y68.129Z0F1500
G1 X86.642Y66.604Z0F1500
G0 Z4.8F800
G0 X76.896Y62.286Z4.8F1500
G1 Z0F1500
G1 X77.351Y63.892Z0F1500
G1 X77.812Y65.558Z0F1500
G1 X76.573Y63.598Z0F1500
G1 X76.896Y62.286Z0F1500
G0 Z4.8F800
G0 X77.421Y61.201Z4.8F1500
G1 Z0F1500
G1 X78.122Y63.679Z0F1500
G1 X78.81Y66.165Z0F1500
G1 X79.479Y68.635Z0F1500
G1 X80.079Y70.893Z0F1500
G1 X79.264Y69.496Z0F1500
G1 X77.255Y66.175Z0F1500
G1 X75.714Y63.738Z0F1500
G1 X76.325Y61.26Z0F1500
G1 X76.839Y59.219Z0F1500
G1 X77.421Y61.201Z0F1500
G0 Z4.8F800
G0 X78.893Y63.465Z4.8F1500
G1 Z0F1500
G1 X79.582Y65.955Z0F1500
G1 X80.252Y68.429Z0F1500
G1 X81.834Y74.384Z0F1500
G1 X81.383Y74.758Z0F1500
G1 X80.494Y73.192Z0F1500
G1 X78.576Y69.904Z0F1500
G1 X76.575Y66.596Z0F1500
G1 X74.856Y63.878Z0F1500
G1 X75.549Y61.065Z0F1500
G1 X76.418Y57.614Z0F1500
G1 X76.784Y56.194Z0F1500
G1 X78.184Y60.96Z0F1500
G1 X78.893Y63.465Z0F1500
G0 Z4.8F800
G0 X83.776Y38.803Z4.8F1500
G1 Z0F1500
G1 X83.904Y38.04Z0F1500
G1 X83.093Y36.958Z0F1500
G1 X83.547Y37.176Z0F1500
G1 X85.159Y38.04Z0F1500
G1 X85.807Y38.428Z0F1500
G1 X85.864Y38.586Z0F1500
G1 X83.776Y38.803Z0F1500
G0 Z4.8F800
G0 X83.058Y38.246Z4.8F1500
G1 Z0F1500
G1 X80.788Y35.216Z0F1500
G1 X80.587Y34.962Z0F1500
G1 X82.221Y35.655Z0F1500
G1 X83.914Y36.464Z0F1500
G1 X85.549Y37.341Z0F1500
G1 X86.464Y37.889Z0F1500
G1 X87.555Y40.929Z0F1500
G1 X88.876Y44.792Z0F1500
G1 X90.101Y48.556Z0F1500
G1 X91.125Y51.875Z0F1500
G1 X90.964Y53.366Z0F1500
G1 X89.865Y49.68Z0F1500
G1 X88.549Y45.435Z0F1500
G1 X86.573Y39.317Z0F1500
G1 X82.813Y39.707Z0F1500
G1 X83.058Y38.246Z0F1500
G0 Z4.8F800
G0 X82.525Y41.418Z4.8F1500
G1 Z0F1500
G1 X81.939Y46.902Z0F1500
G1 X82.029Y47.156Z0F1500
G1 X81.58Y47.159Z0F1500
G1 X81.958Y44.791Z0F1500
G1 X82.525Y41.418Z0F1500
G0 Z4.8F800
G0 X82.212Y38.451Z4.8F1500
G1 Z0F1500
G1 X80.153Y35.704Z0F1500
G1 X78.442Y33.534Z0F1500
G1 X78.213Y33.258Z0F1500
G1 X78.979Y33.505Z0F1500
G1 X80.778Y34.174Z0F1500
G1 X82.547Y34.924Z0F1500
G1 X84.267Y35.747Z0F1500
G1 X85.959Y36.654Z0F1500
G1 X87.12Y37.348Z0F1500
G1 X88.32Y40.692Z0F1500
G1 X89.625Y44.51Z0F1500
G1 X90.873Y48.343Z0F1500
G1 X91.938Y51.797Z0F1500
G1 X91.322Y57.486Z0F1500
G1 X90.348Y54.098Z0F1500
G1 X89.1Y49.913Z0F1500
G1 X87.787Y45.676Z0F1500
G1 X86.011Y40.18Z0F1500
G1 X83.433Y40.447Z0F1500
G1 X82.754Y46.806Z0F1500
G1 X83.16Y47.949Z0F1500
G1 X81.341Y47.96Z0F1500
G1 X80.834Y51.767Z0F1500
G1 X80.33Y49.913Z0F1500
G1 X81.168Y44.664Z0F1500
G1 X82.212Y38.451Z0F1500
G0 Z4.8F800
G0 X82.743Y49.551Z4.8F1500
G1 Z0F1500
G1 X82.363Y52.409Z0F1500
G1 X82.002Y55.267Z0F1500
G1 X82.916Y56.156Z0F1500
G1 X83.828Y57.065Z0F1500
G1 X83.296Y53.328Z0F1500
G1 X82.743Y49.551Z0F1500
G0 Z4.8F800
G0 X82.042Y48.756Z4.8F1500
G1 Z0F1500
G1 X81.569Y52.306Z0F1500
G1 X81.159Y55.562Z0F1500
G1 X82.351Y56.723Z0F1500
G1 X83.671Y58.039Z0F1500
G1 X84.701Y57.523Z0F1500
G1 X84.088Y53.214Z0F1500
G1 X83.434Y48.747Z0F1500
G1 X82.042Y48.756Z0F1500
G0 Z4.8F800
G0 X82.463Y57.964Z4.8F1500
G1 Z0F1500
G1 X83.515Y59.012Z0F1500
G1 X84.954Y58.291Z0F1500
G1 X83.855Y60.241Z0F1500
G1 X83.29Y61.273Z0F1500
G1 X82.463Y57.964Z0F1500
G0 Z4.8F800
G0 X84.836Y52.807Z4.8F1500
G1 Z0F1500
G1 X85.447Y54.646Z0F1500
G1 X86.028Y56.431Z0F1500
G1 X85.487Y57.363Z0F1500
G1 X84.879Y53.1Z0F1500
G1 X84.836Y52.807Z0F1500
G0 Z4.8F800
G0 X84.521Y49.392Z4.8F1500
G1 Z0F1500
G1 X85.377Y51.897Z0F1500
G1 X86.205Y54.389Z0F1500
G1 X86.899Y56.523Z0F1500
G1 X85.821Y58.381Z0F1500
G1 X84.554Y60.629Z0F1500
G1 X83.282Y62.952Z0F1500
G1 X83Y63.481Z0F1500
G1 X82.56Y61.654Z0F1500
G1 X81.581Y57.731Z0F1500
G1 X80.55Y53.773Z0F1500
G1 X79.513Y49.958Z0F1500
G1 X80.377Y44.544Z0F1500
G1 X81.367Y38.657Z0F1500
G1 X79.519Y36.192Z0F1500
G1 X77.819Y34.037Z0F1500
G1 X76.075Y31.927Z0F1500
G1 X75.918Y31.746Z0F1500
G1 X77.369Y32.145Z0F1500
G1 X79.231Y32.745Z0F1500
G1 X81.075Y33.431Z0F1500
G1 X82.878Y34.195Z0F1500
G1 X84.633Y35.035Z0F1500
G1 X86.344Y35.953Z0F1500
G1 X87.776Y36.809Z0F1500
G1 X89.069Y40.411Z0F1500
G1 X90.386Y44.263Z0F1500
G1 X91.63Y48.084Z0F1500
G1 X92.752Y51.72Z0F1500
G1 X91.622Y62.152Z0F1500
G1 X90.631Y71.391Z0F1500
G1 X90.487Y71.299Z0F1500
G1 X88.807Y70.305Z0F1500
G1 X87.417Y71.216Z0F1500
G1 X86.427Y71.895Z0F1500
G1 X85.432Y72.607Z0F1500
G1 X84.432Y73.352Z0F1500
G1 X83.43Y74.127Z0F1500
G1 X82.426Y74.932Z0F1500
G1 X81.422Y75.765Z0F1500
G1 X81.161Y75.988Z0F1500
G1 X79.8Y73.591Z0F1500
G1 X77.888Y70.313Z0F1500
G1 X75.895Y67.017Z0F1500
G1 X73.998Y64.017Z0F1500
G1 X74.773Y60.87Z0F1500
G1 X75.644Y57.414Z0F1500
G1 X76.528Y53.984Z0F1500
G1 X76.718Y53.267Z0F1500
G1 X77.469Y55.689Z0F1500
G1 X78.956Y60.75Z0F1500
G1 X79.664Y63.252Z0F1500
G1 X80.354Y65.746Z0F1500
G1 X81.025Y68.224Z0F1500
G1 X82.172Y72.541Z0F1500
G1 X84.082Y69.281Z0F1500
G1 X85.027Y67.704Z0F1500
G1 X85.964Y66.178Z0F1500
G1 X86.905Y64.683Z0F1500
G1 X87.844Y63.228Z0F1500
G1 X88.786Y61.806Z0F1500
G1 X89.713Y60.445Z0F1500
G1 X90.868Y58.799Z0F1500
G1 X89.58Y54.323Z0F1500
G1 X88.334Y50.146Z0F1500
G1 X87.024Y45.917Z0F1500
G1 X85.449Y41.042Z0F1500
G1 X84.16Y41.176Z0F1500
G1 X83.569Y46.71Z0F1500
G1 X84.521Y49.392Z0F1500
G0 Z4.8F800
G0 X86.137Y51.645Z4.8F1500
G1 Z0F1500
G1 X86.966Y54.142Z0F1500
G1 X87.771Y56.616Z0F1500
G1 X86.516Y58.778Z0F1500
G1 X85.253Y61.018Z0F1500
G1 X83.986Y63.332Z0F1500
G1 X82.717Y65.717Z0F1500
G1 X81.783Y61.844Z0F1500
G1 X80.805Y57.929Z0F1500
G1 X79.777Y53.979Z0F1500
G1 X78.695Y50.001Z0F1500
G1 X79.588Y44.412Z0F1500
G1 X80.521Y38.862Z0F1500
G1 X78.885Y36.68Z0F1500
G1 X77.197Y34.54Z0F1500
G1 X75.464Y32.444Z0F1500
G1 X73.695Y30.396Z0F1500
G1 X75.657Y30.844Z0F1500
G1 X77.593Y31.376Z0F1500
G1 X79.5Y31.991Z0F1500
G1 X81.371Y32.688Z0F1500
G1 X83.204Y33.464Z0F1500
G1 X84.994Y34.321Z0F1500
G1 X86.738Y35.256Z0F1500
G1 X88.432Y36.269Z0F1500
G1 X89.826Y40.152Z0F1500
G1 X91.147Y44.015Z0F1500
G1 X92.395Y47.848Z0F1500
G1 X93.565Y51.642Z0F1500
G1 X92.417Y62.238Z0F1500
G1 X91.29Y72.755Z0F1500
G1 X90.069Y71.981Z0F1500
G1 X88.829Y71.247Z0F1500
G1 X87.862Y71.881Z0F1500
G1 X86.886Y72.55Z0F1500
G1 X85.904Y73.253Z0F1500
G1 X84.916Y73.989Z0F1500
G1 X83.925Y74.756Z0F1500
G1 X82.932Y75.552Z0F1500
G1 X81.938Y76.376Z0F1500
G1 X80.944Y77.227Z0F1500
G1 X79.107Y73.99Z0F1500
G1 X77.2Y70.721Z0F1500
G1 X75.214Y67.438Z0F1500
G1 X73.139Y64.156Z0F1500
G1 X73.998Y60.674Z0F1500
G1 X74.869Y57.214Z0F1500
G1 X75.754Y53.779Z0F1500
G1 X76.658Y50.372Z0F1500
G1 X78.237Y55.463Z0F1500
G1 X79.724Y60.525Z0F1500
G1 X80.435Y63.039Z0F1500
G1 X81.126Y65.537Z0F1500
G1 X81.798Y68.019Z0F1500
G1 X82.452Y70.48Z0F1500
G1 X83.396Y68.869Z0F1500
G1 X84.341Y67.292Z0F1500
G1 X85.287Y65.752Z0F1500
G1 X86.232Y64.249Z0F1500
G1 X87.177Y62.786Z0F1500
G1 X88.119Y61.364Z0F1500
G1 X89.058Y59.986Z0F1500
G1 X89.993Y58.653Z0F1500
G1 X88.812Y54.548Z0F1500
G1 X87.569Y50.378Z0F1500
G1 X86.261Y46.159Z0F1500
G1 X84.887Y41.905Z0F1500
G1 X84.384Y46.614Z0F1500
G1 X85.277Y49.133Z0F1500
G1 X86.137Y51.645Z0F1500
G0 Z4.8F800
G0 X96.821Y74.14Z4.8F1500
G1 Z0F1500
G1 X97.584Y74.803Z0F1500
G1 X97.904Y75.099Z0F1500
G1 X96.559Y74.316Z0F1500
G1 X96.604Y73.963Z0F1500
G1 X96.821Y74.14Z0F1500
G0 Z4.8F800
G0 X100.316Y76.382Z4.8F1500
G1 Z0F1500
G1 X101.002Y77.156Z0F1500
G1 X101.646Y77.93Z0F1500
G1 X102.438Y78.949Z0F1500
G1 X101.72Y78.43Z0F1500
G1 X100.849Y77.832Z0F1500
G1 X99.955Y77.25Z0F1500
G1 X99.042Y76.688Z0F1500
G1 X95.699Y74.74Z0F1500
G1 X95.991Y72.435Z0F1500
G1 X97.34Y73.531Z0F1500
G1 X98.118Y74.207Z0F1500
G1 X98.875Y74.909Z0F1500
G1 X99.604Y75.631Z0F1500
G1 X100.316Y76.382Z0F1500
G0 Z4.8F800
G0 X96.703Y66.818Z4.8F1500
G1 Z0F1500
G1 X97.524Y60.344Z0F1500
G1 X98.03Y62.165Z0F1500
G1 X97.611Y63.641Z0F1500
G1 X96.703Y66.818Z0F1500
G0 Z4.8F800
G0 X96.181Y71.558Z4.8F1500
G1 Z0F1500
G1 X97.859Y72.922Z0F1500
G1 X98.645Y73.605Z0F1500
G1 X99.431Y74.333Z0F1500
G1 X100.183Y75.078Z0F1500
G1 X100.901Y75.836Z0F1500
G1 X101.607Y76.632Z0F1500
G1 X102.269Y77.429Z0F1500
G1 X103.678Y79.24Z0F1500
G1 X104.966Y78.723Z0F1500
G1 X104.629Y79.053Z0F1500
G1 X104.196Y79.501Z0F1500
G1 X103.735Y80Z0F1500
G1 X103.247Y80.549Z0F1500
G1 X103.232Y80.566Z0F1500
G1 X102.911Y80.309Z0F1500
G1 X102.095Y79.688Z0F1500
G1 X101.259Y79.084Z0F1500
G1 X100.404Y78.497Z0F1500
G1 X99.527Y77.926Z0F1500
G1 X98.63Y77.375Z0F1500
G1 X95.088Y75.311Z0F1500
G1 X95.246Y77.293Z0F1500
G1 X94.729Y76.032Z0F1500
G1 X97.223Y56.361Z0F1500
G1 X98.068Y59.313Z0F1500
G1 X98.861Y62.167Z0F1500
G1 X98.38Y63.861Z0F1500
G1 X96.181Y71.558Z0F1500
G0 Z4.8F800
G0 X104.524Y59.831Z4.8F1500
G1 Z0F1500
G1 X104.478Y58.963Z0F1500
G1 X104.385Y57.144Z0F1500
G1 X104.296Y55.322Z0F1500
G1 X104.426Y55.686Z0F1500
G1 X104.617Y56.318Z0F1500
G1 X104.785Y56.987Z0F1500
G1 X104.929Y57.691Z0F1500
G1 X105.046Y58.436Z0F1500
G1 X105.132Y59.174Z0F1500
G1 X104.973Y59.337Z0F1500
G1 X104.761Y59.565Z0F1500
G1 X104.524Y59.831Z0F1500
G0 Z4.8F800
G0 X103.774Y60.795Z4.8F1500
G1 Z0F1500
G1 X103.679Y59.002Z0F1500
G1 X103.586Y57.185Z0F1500
G1 X103.405Y53.477Z0F1500
G1 X103.33Y51.853Z0F1500
G1 X103.468Y52.031Z0F1500
G1 X103.804Y52.518Z0F1500
G1 X104.127Y53.045Z0F1500
G1 X104.429Y53.603Z0F1500
G1 X104.702Y54.177Z0F1500
G1 X104.958Y54.796Z0F1500
G1 X105.186Y55.433Z0F1500
G1 X105.387Y56.101Z0F1500
G1 X105.567Y56.818Z0F1500
G1 X105.716Y57.548Z0F1500
G1 X105.837Y58.313Z0F1500
G1 X105.932Y59.131Z0F1500
G1 X105.959Y59.493Z0F1500
G1 X105.908Y59.537Z0F1500
G1 X105.736Y59.701Z0F1500
G1 X105.552Y59.889Z0F1500
G1 X105.353Y60.104Z0F1500
G1 X104.929Y60.578Z0F1500
G1 X104.994Y63.409Z0F1500
G1 X105.071Y65.868Z0F1500
G1 X105.167Y68.27Z0F1500
G1 X105.284Y70.61Z0F1500
G1 X105.422Y72.889Z0F1500
G1 X105.582Y75.106Z0F1500
G1 X105.765Y77.26Z0F1500
G1 X105.93Y78.922Z0F1500
G1 X105.585Y79.236Z0F1500
G1 X105.196Y79.617Z0F1500
G1 X104.777Y80.05Z0F1500
G1 X104.328Y80.537Z0F1500
G1 X103.85Y81.075Z0F1500
G1 X103.346Y81.664Z0F1500
G1 X103.333Y81.678Z0F1500
G1 X103.198Y81.564Z0F1500
G1 X102.418Y80.939Z0F1500
G1 X101.618Y80.33Z0F1500
G1 X100.798Y79.738Z0F1500
G1 X99.959Y79.162Z0F1500
G1 X99.099Y78.603Z0F1500
G1 X98.219Y78.061Z0F1500
G1 X96.006Y76.771Z0F1500
G1 X96.307Y80.559Z0F1500
G1 X96.445Y82.25Z0F1500
G1 X96.133Y81.517Z0F1500
G1 X94.988Y78.776Z0F1500
G1 X93.908Y76.14Z0F1500
G1 X96.909Y52.478Z0F1500
G1 X97.882Y55.758Z0F1500
G1 X98.839Y59.099Z0F1500
G1 X99.692Y62.17Z0F1500
G1 X99.149Y64.081Z0F1500
G1 X97.096Y71.27Z0F1500
G1 X98.36Y72.298Z0F1500
G1 X99.187Y73.017Z0F1500
G1 X99.987Y73.759Z0F1500
G1 X100.743Y74.506Z0F1500
G1 X101.499Y75.305Z0F1500
G1 X102.212Y76.109Z0F1500
G1 X102.899Y76.935Z0F1500
G1 X103.94Y78.273Z0F1500
G1 X105.058Y77.825Z0F1500
G1 X104.843Y75.707Z0F1500
G1 X104.698Y74.165Z0F1500
G1 X104.561Y72.593Z0F1500
G1 X104.431Y70.991Z0F1500
G1 X104.309Y69.361Z0F1500
G1 X104.191Y67.706Z0F1500
G1 X104.081Y66.016Z0F1500
G1 X103.974Y64.305Z0F1500
G1 X103.873Y62.562Z0F1500
G1 X103.774Y60.795Z0F1500
G0 Z4.8F800
G0 X102.787Y57.226Z4.8F1500
G1 Z0F1500
G1 X102.606Y53.515Z0F1500
G1 X102.428Y49.71Z0F1500
G1 X102.88Y50.13Z0F1500
G1 X103.312Y50.578Z0F1500
G1 X103.722Y51.052Z0F1500
G1 X104.111Y51.555Z0F1500
G1 X104.478Y52.086Z0F1500
G1 X104.821Y52.646Z0F1500
G1 X105.141Y53.235Z0F1500
G1 X105.435Y53.854Z0F1500
G1 X105.703Y54.503Z0F1500
G1 X105.945Y55.183Z0F1500
G1 X106.16Y55.893Z0F1500
G1 X106.346Y56.634Z0F1500
G1 X106.504Y57.408Z0F1500
G1 X106.631Y58.213Z0F1500
G1 X106.729Y59.052Z0F1500
G1 X106.794Y59.923Z0F1500
G1 X106.742Z0F1500
G1 X106.666Y59.957Z0F1500
G1 X106.566Y60.027Z0F1500
G1 X106.443Y60.131Z0F1500
G1 X106.298Y60.27Z0F1500
G1 X106.132Y60.44Z0F1500
G1 X105.944Y60.643Z0F1500
G1 X105.736Y60.875Z0F1500
G1 X105.794Y63.387Z0F1500
G1 X105.871Y65.84Z0F1500
G1 X105.967Y68.233Z0F1500
G1 X106.083Y70.566Z0F1500
G1 X106.22Y72.836Z0F1500
G1 X106.379Y75.044Z0F1500
G1 X106.562Y77.187Z0F1500
G1 X106.768Y79.264Z0F1500
G1 X106.47Y79.512Z0F1500
G1 X106.135Y79.818Z0F1500
G1 X105.764Y80.181Z0F1500
G1 X105.358Y80.6Z0F1500
G1 X104.921Y81.074Z0F1500
G1 X104.453Y81.601Z0F1500
G1 X103.957Y82.18Z0F1500
G1 X103.434Y82.81Z0F1500
G1 X102.689Y82.182Z0F1500
G1 X101.926Y81.57Z0F1500
G1 X101.142Y80.973Z0F1500
G1 X100.338Y80.392Z0F1500
G1 X99.515Y79.827Z0F1500
G1 X98.671Y79.278Z0F1500
G1 X97.808Y78.747Z0F1500
G1 X96.925Y78.232Z0F1500
G1 X97.104Y80.494Z0F1500
G1 X97.286Y82.713Z0F1500
G1 X97.472Y84.889Z0F1500
G1 X97.666Y87.017Z0F1500
G1 X97.1Y85.761Z0F1500
G1 X96.534Y84.478Z0F1500
G1 X95.966Y83.167Z0F1500
G1 X95.397Y81.831Z0F1500
G1 X94.25Y79.084Z0F1500
G1 X93.088Y76.248Z0F1500
G1 X96.581Y48.705Z0F1500
G1 X97.644Y52.141Z0F1500
G1 X98.651Y55.538Z0F1500
G1 X99.61Y58.885Z0F1500
G1 X100.523Y62.172Z0F1500
G1 X99.918Y64.3Z0F1500
G1 X98.01Y70.982Z0F1500
G1 X98.879Y71.689Z0F1500
G1 X99.721Y72.421Z0F1500
G1 X100.536Y73.176Z0F1500
G1 X101.324Y73.956Z0F1500
G1 X102.084Y74.759Z0F1500
G1 X102.817Y75.585Z0F1500
G1 X103.522Y76.434Z0F1500
G1 X104.201Y77.306Z0F1500
G1 X104.047Y75.788Z0F1500
G1 X103.901Y74.24Z0F1500
G1 X103.764Y72.662Z0F1500
G1 X103.634Y71.056Z0F1500
G1 X103.511Y69.421Z0F1500
G1 X103.394Y67.758Z0F1500
G1 X103.282Y66.068Z0F1500
G1 X103.176Y64.352Z0F1500
G1 X103.074Y62.608Z0F1500
G1 X102.975Y60.839Z0F1500
G1 X102.88Y59.045Z0F1500
G1 X102.787Y57.226Z0F1500
G0 Z4.8F800
G0 X84.214Y85.112Z4.8F1500
G1 Z0F1500
G1 X83.716Y85.492Z0F1500
G1 X83.814Y84.903Z0F1500
G1 X84.663Y84.784Z0F1500
G1 X84.214Y85.112Z0F1500
G0 Z4.8F800
G0 X86.922Y77.981Z4.8F1500
G1 Z0F1500
G1 X86.986Y77.943Z0F1500
G1 X87.267Y77.79Z0F1500
G1 X87.248Y78.104Z0F1500
G1 X86.922Y77.981Z0F1500
G0 Z4.8F800
G0 X85.171Y78.083Z4.8F1500
G1 Z0F1500
G1 X86.584Y77.251Z0F1500
G1 X87.992Y76.48Z0F1500
G1 X88.155Y76.398Z0F1500
G1 X87.739Y83.06Z0F1500
G1 X87.249Y90.82Z0F1500
G1 X86.521Y92.036Z0F1500
G1 X87.112Y90.307Z0F1500
G1 X87.257Y83.88Z0F1500
G1 X84.693Y85.753Z0F1500
G1 X83.431Y86.717Z0F1500
G1 X82.588Y87.39Z0F1500
G1 X83.122Y84.192Z0F1500
G1 X85.047Y83.923Z0F1500
G1 X86.748Y83.71Z0F1500
G1 X87.286Y78.973Z0F1500
G1 X86.12Y78.534Z0F1500
G1 X84.475Y80.902Z0F1500
G1 X83.411Y82.476Z0F1500
G1 X84.028Y78.799Z0F1500
G1 X85.171Y78.083Z0F1500
G0 Z4.8F800
G0 X86.421Y79.502Z4.8F1500
G1 Z0F1500
G1 X85.134Y81.354Z0F1500
G1 X83.828Y83.286Z0F1500
G1 X84.936Y83.13Z0F1500
G1 X86.024Y82.995Z0F1500
G1 X86.421Y79.502Z0F1500
G0 Z4.8F800
G0 X86.189Y76.555Z4.8F1500
G1 Z0F1500
G1 X87.623Y75.771Z0F1500
G1 X89.041Y75.057Z0F1500
G1 X88.538Y83.11Z0F1500
G1 X88.035Y91.064Z0F1500
G1 X86.84Y93.059Z0F1500
G1 X85.641Y95.113Z0F1500
G1 X84.441Y97.226Z0F1500
G1 X83.246Y99.399Z0F1500
G1 X84.005Y97.048Z0F1500
G1 X84.771Y94.722Z0F1500
G1 X85.542Y92.426Z0F1500
G1 X86.315Y90.165Z0F1500
G1 X86.421Y85.482Z0F1500
G1 X85.171Y86.395Z0F1500
G1 X83.924Y87.347Z0F1500
G1 X82.682Y88.339Z0F1500
G1 X81.447Y89.371Z0F1500
G1 X82.373Y83.821Z0F1500
G1 X83.299Y78.312Z0F1500
G1 X84.747Y77.405Z0F1500
G1 X86.189Y76.555Z0F1500
M9
M5
G1 Z10 F1000
G90
G1 Z10 F800
G1 X120 F1500
