G90 ; Absolutno pozicioniranje
G21 ; Milimetri
;LightBurn 1.6.04
;Custom GCode device profile, absolute coords
;Bounds: X7.34 Y78.05 to X136.66 Y81.95
G00 G17 G40 G21 G54
G90
G1 Z10 F1000
;Cut @ 1500 mm/min, 90% power

M8
G0 Z2.8F1000
G0 X9.291 Y78.045 Z2.800
G1 Z0F1000
;Layer Green
; --- FIX X Backlash: -0.600mm ---
G0 X8.691 Y78.045 F1200
G1 X8.297 Y78.085 F1800
G1 X7.930 Y78.199 F1800
G1 X7.598 Y78.379 F1800
G1 X7.308 Y78.618 F1800
G1 X7.070 Y78.907 F1800
G1 X6.890 Y79.239 F1800
G1 X6.776 Y79.606 F1800
G1 X6.736 Y80.000 F1800
G1 X6.776 Y80.394 F1800
; --- FIX X Backlash: 0.600mm ---
G0 X7.376 Y80.394 F1200
G1 X7.490 Y80.761 F1800
G1 X7.670 Y81.093 F1800
G1 X7.908 Y81.382 F1800
G1 X8.198 Y81.621 F1800
G1 X8.530 Y81.801 F1800
G1 X8.897 Y81.915 F1800
G1 X9.291 Y81.955 F1800
G1 X9.685 Y81.915 F1800
; --- FIX Y Backlash: -1.500mm ---
G0 X9.685 Y80.415 F1200
G1 X10.052 Y80.301 F1800
G1 X10.384 Y80.121 F1800
G1 X10.673 Y79.882 F1800
G1 X10.912 Y79.593 F1800
G1 X11.092 Y79.261 F1800
G1 X11.206 Y78.894 F1800
G1 X11.246 Y78.500 F1800
G1 X11.206 Y78.106 F1800
; --- FIX X Backlash: -0.600mm ---
G0 X10.606 Y78.106 F1200
G1 X10.492 Y77.739 F1800
G1 X10.312 Y77.407 F1800
G1 X10.073 Y77.118 F1800
G1 X9.784 Y76.879 F1800
G1 X9.452 Y76.699 F1800
G1 X9.085 Y76.585 F1800
G1 X8.691 Y76.545 F1800
G0 Z2.8F1000
; --- FIX X Backlash: 0.600mm ---
G0 X9.291 Y76.545 F1200
; --- FIX Y Backlash: 1.500mm ---
G0 X9.291 Y78.045 F1200
G0 X14.480 Y79.239 Z2.800
G1 Z0F1000
; --- FIX X Backlash: -0.600mm ---
G0 X13.880 Y79.239 F1200
G1 X13.766 Y79.606 F1800
G1 X13.726 Y80.000 F1800
G1 X13.766 Y80.394 F1800
; --- FIX X Backlash: 0.600mm ---
G0 X14.366 Y80.394 F1200
G1 X14.480 Y80.761 F1800
G1 X14.660 Y81.093 F1800
G1 X14.899 Y81.382 F1800
G1 X15.188 Y81.621 F1800
G1 X15.520 Y81.801 F1800
G1 X15.887 Y81.915 F1800
G1 X16.281 Y81.955 F1800
G1 X16.675 Y81.915 F1800
; --- FIX Y Backlash: -1.500mm ---
G0 X16.675 Y80.415 F1200
G1 X17.042 Y80.301 F1800
G1 X17.374 Y80.121 F1800
G1 X17.664 Y79.882 F1800
G1 X17.902 Y79.593 F1800
G1 X18.083 Y79.261 F1800
G1 X18.196 Y78.894 F1800
G1 X18.236 Y78.500 F1800
G1 X18.196 Y78.106 F1800
; --- FIX X Backlash: -0.600mm ---
G0 X17.596 Y78.106 F1200
G1 X17.483 Y77.739 F1800
G1 X17.302 Y77.407 F1800
G1 X17.064 Y77.118 F1800
G1 X16.774 Y76.879 F1800
G1 X16.442 Y76.699 F1800
G1 X16.075 Y76.585 F1800
G1 X15.681 Y76.545 F1800
G1 X15.287 Y76.585 F1800
; --- FIX Y Backlash: 1.500mm ---
G0 X15.287 Y78.085 F1200
G1 X14.920 Y78.199 F1800
G1 X14.588 Y78.379 F1800
G1 X14.299 Y78.618 F1800
G1 X14.060 Y78.907 F1800
G1 X13.880 Y79.239 F1800
G0 Z2.8F1000
; --- FIX X Backlash: 0.600mm ---
G0 X14.480 Y79.239 F1200
G0 X21.356 Y79.606 Z2.800
G1 Z0F1000
G1 X21.317 Y80.000 F1800
G1 X21.356 Y80.394 F1800
G1 X21.470 Y80.761 F1800
G1 X21.651 Y81.093 F1800
G1 X21.889 Y81.382 F1800
G1 X22.179 Y81.621 F1800
G1 X22.511 Y81.801 F1800
G1 X22.878 Y81.915 F1800
G1 X23.272 Y81.955 F1800
G1 X23.666 Y81.915 F1800
; --- FIX Y Backlash: -1.500mm ---
G0 X23.666 Y80.415 F1200
G1 X24.033 Y80.301 F1800
G1 X24.365 Y80.121 F1800
G1 X24.654 Y79.882 F1800
G1 X24.893 Y79.593 F1800
G1 X25.073 Y79.261 F1800
G1 X25.187 Y78.894 F1800
G1 X25.227 Y78.500 F1800
G1 X25.187 Y78.106 F1800
; --- FIX X Backlash: -0.600mm ---
G0 X24.587 Y78.106 F1200
G1 X24.473 Y77.739 F1800
G1 X24.293 Y77.407 F1800
G1 X24.054 Y77.118 F1800
G1 X23.765 Y76.879 F1800
G1 X23.433 Y76.699 F1800
G1 X23.066 Y76.585 F1800
G1 X22.672 Y76.545 F1800
G1 X22.278 Y76.585 F1800
; --- FIX Y Backlash: 1.500mm ---
G0 X22.278 Y78.085 F1200
G1 X21.911 Y78.199 F1800
G1 X21.579 Y78.379 F1800
G1 X21.289 Y78.618 F1800
G1 X21.051 Y78.907 F1800
G1 X20.870 Y79.239 F1800
G1 X20.756 Y79.606 F1800
G0 Z2.8F1000
; --- FIX X Backlash: 0.600mm ---
G0 X21.356 Y79.606 F1200
G0 X28.307 Y80.000 Z2.800
G1 Z0F1000
G1 X28.347 Y80.394 F1800
G1 X28.461 Y80.761 F1800
G1 X28.641 Y81.093 F1800
G1 X28.880 Y81.382 F1800
G1 X29.169 Y81.621 F1800
G1 X29.501 Y81.801 F1800
G1 X29.868 Y81.915 F1800
G1 X30.262 Y81.955 F1800
G1 X30.656 Y81.915 F1800
; --- FIX Y Backlash: -1.500mm ---
G0 X30.656 Y80.415 F1200
G1 X31.023 Y80.301 F1800
G1 X31.355 Y80.121 F1800
G1 X31.644 Y79.882 F1800
G1 X31.883 Y79.593 F1800
G1 X32.063 Y79.261 F1800
G1 X32.177 Y78.894 F1800
G1 X32.217 Y78.500 F1800
G1 X32.177 Y78.106 F1800
; --- FIX X Backlash: -0.600mm ---
G0 X31.577 Y78.106 F1200
G1 X31.463 Y77.739 F1800
G1 X31.283 Y77.407 F1800
G1 X31.044 Y77.118 F1800
G1 X30.755 Y76.879 F1800
G1 X30.423 Y76.699 F1800
G1 X30.056 Y76.585 F1800
G1 X29.662 Y76.545 F1800
G1 X29.268 Y76.585 F1800
; --- FIX Y Backlash: 1.500mm ---
G0 X29.268 Y78.085 F1200
G1 X28.901 Y78.199 F1800
G1 X28.569 Y78.379 F1800
G1 X28.280 Y78.618 F1800
G1 X28.041 Y78.907 F1800
G1 X27.861 Y79.239 F1800
G1 X27.747 Y79.606 F1800
G1 X27.707 Y80.000 F1800
G0 Z2.8F1000
; --- FIX X Backlash: 0.600mm ---
G0 X28.307 Y80.000 F1200
G0 X35.297 Y80.000 Z2.800
G1 Z0F1000
G1 X35.337 Y80.394 F1800
G1 X35.451 Y80.761 F1800
G1 X35.631 Y81.093 F1800
G1 X35.870 Y81.382 F1800
G1 X36.159 Y81.621 F1800
G1 X36.491 Y81.801 F1800
G1 X36.858 Y81.915 F1800
G1 X37.252 Y81.955 F1800
G1 X37.646 Y81.915 F1800
; --- FIX Y Backlash: -1.500mm ---
G0 X37.646 Y80.415 F1200
G1 X38.013 Y80.301 F1800
G1 X38.345 Y80.121 F1800
G1 X38.635 Y79.882 F1800
G1 X38.873 Y79.593 F1800
G1 X39.054 Y79.261 F1800
G1 X39.168 Y78.894 F1800
G1 X39.207 Y78.500 F1800
G1 X39.168 Y78.106 F1800
; --- FIX X Backlash: -0.600mm ---
G0 X38.568 Y78.106 F1200
G1 X38.454 Y77.739 F1800
G1 X38.273 Y77.407 F1800
G1 X38.035 Y77.118 F1800
G1 X37.745 Y76.879 F1800
G1 X37.413 Y76.699 F1800
G1 X37.046 Y76.585 F1800
G1 X36.652 Y76.545 F1800
G1 X36.258 Y76.585 F1800
; --- FIX Y Backlash: 1.500mm ---
G0 X36.258 Y78.085 F1200
G1 X35.891 Y78.199 F1800
G1 X35.559 Y78.379 F1800
G1 X35.270 Y78.618 F1800
G1 X35.031 Y78.907 F1800
G1 X34.851 Y79.239 F1800
G1 X34.737 Y79.606 F1800
G1 X34.697 Y80.000 F1800
G0 Z2.8F1000
; --- FIX X Backlash: 0.600mm ---
G0 X35.297 Y80.000 F1200
G0 X42.288 Y80.000 Z2.800
G1 Z0F1000
G1 X42.328 Y80.394 F1800
G1 X42.441 Y80.761 F1800
G1 X42.622 Y81.093 F1800
G1 X42.860 Y81.382 F1800
G1 X43.150 Y81.621 F1800
G1 X43.482 Y81.801 F1800
G1 X43.849 Y81.915 F1800
G1 X44.243 Y81.955 F1800
G1 X44.637 Y81.915 F1800
; --- FIX Y Backlash: -1.500mm ---
G0 X44.637 Y80.415 F1200
G1 X45.004 Y80.301 F1800
G1 X45.336 Y80.121 F1800
G1 X45.625 Y79.882 F1800
G1 X45.864 Y79.593 F1800
G1 X46.044 Y79.261 F1800
G1 X46.158 Y78.894 F1800
G1 X46.198 Y78.500 F1800
G1 X46.158 Y78.106 F1800
; --- FIX X Backlash: -0.600mm ---
G0 X45.558 Y78.106 F1200
G1 X45.444 Y77.739 F1800
G1 X45.264 Y77.407 F1800
G1 X45.025 Y77.118 F1800
G1 X44.736 Y76.879 F1800
G1 X44.404 Y76.699 F1800
G1 X44.037 Y76.585 F1800
G1 X43.643 Y76.545 F1800
G1 X43.249 Y76.585 F1800
; --- FIX Y Backlash: 1.500mm ---
G0 X43.249 Y78.085 F1200
G1 X42.882 Y78.199 F1800
G1 X42.550 Y78.379 F1800
G1 X42.260 Y78.618 F1800
G1 X42.022 Y78.907 F1800
G1 X41.841 Y79.239 F1800
G1 X41.728 Y79.606 F1800
G1 X41.688 Y80.000 F1800
G0 Z2.8F1000
; --- FIX X Backlash: 0.600mm ---
G0 X42.288 Y80.000 F1200
G0 X49.278 Y80.000 Z2.800
G1 Z0F1000
G1 X49.318 Y80.394 F1800
G1 X49.432 Y80.761 F1800
G1 X49.612 Y81.093 F1800
G1 X49.851 Y81.382 F1800
G1 X50.140 Y81.621 F1800
G1 X50.472 Y81.801 F1800
G1 X50.839 Y81.915 F1800
G1 X51.233 Y81.955 F1800
G1 X51.627 Y81.915 F1800
; --- FIX Y Backlash: -1.500mm ---
G0 X51.627 Y80.415 F1200
G1 X51.994 Y80.301 F1800
G1 X52.326 Y80.121 F1800
G1 X52.616 Y79.882 F1800
G1 X52.854 Y79.593 F1800
G1 X53.034 Y79.261 F1800
G1 X53.148 Y78.894 F1800
G1 X53.188 Y78.500 F1800
G1 X53.148 Y78.106 F1800
; --- FIX X Backlash: -0.600mm ---
G0 X52.548 Y78.106 F1200
G1 X52.434 Y77.739 F1800
G1 X52.254 Y77.407 F1800
G1 X52.016 Y77.118 F1800
G1 X51.726 Y76.879 F1800
G1 X51.394 Y76.699 F1800
G1 X51.027 Y76.585 F1800
G1 X50.633 Y76.545 F1800
G1 X50.239 Y76.585 F1800
; --- FIX Y Backlash: 1.500mm ---
G0 X50.239 Y78.085 F1200
G1 X49.872 Y78.199 F1800
G1 X49.540 Y78.379 F1800
G1 X49.251 Y78.618 F1800
G1 X49.012 Y78.907 F1800
G1 X48.832 Y79.239 F1800
G1 X48.718 Y79.606 F1800
G1 X48.678 Y80.000 F1800
G0 Z2.8F1000
; --- FIX X Backlash: 0.600mm ---
G0 X49.278 Y80.000 F1200
G0 X56.269 Y80.000 Z2.800
G1 Z0F1000
G1 X56.308 Y80.394 F1800
G1 X56.422 Y80.761 F1800
G1 X56.602 Y81.093 F1800
G1 X56.841 Y81.382 F1800
G1 X57.131 Y81.621 F1800
G1 X57.463 Y81.801 F1800
G1 X57.830 Y81.915 F1800
G1 X58.224 Y81.955 F1800
G1 X58.618 Y81.915 F1800
; --- FIX Y Backlash: -1.500mm ---
G0 X58.618 Y80.415 F1200
G1 X58.984 Y80.301 F1800
G1 X59.317 Y80.121 F1800
G1 X59.606 Y79.882 F1800
G1 X59.845 Y79.593 F1800
G1 X60.025 Y79.261 F1800
G1 X60.139 Y78.894 F1800
G1 X60.178 Y78.500 F1800
G1 X60.139 Y78.106 F1800
; --- FIX X Backlash: -0.600mm ---
G0 X59.539 Y78.106 F1200
G1 X59.425 Y77.739 F1800
G1 X59.245 Y77.407 F1800
G1 X59.006 Y77.118 F1800
G1 X58.717 Y76.879 F1800
G1 X58.384 Y76.699 F1800
G1 X58.018 Y76.585 F1800
G1 X57.624 Y76.545 F1800
G1 X57.230 Y76.585 F1800
; --- FIX Y Backlash: 1.500mm ---
G0 X57.230 Y78.085 F1200
G1 X56.863 Y78.199 F1800
G1 X56.531 Y78.379 F1800
G1 X56.241 Y78.618 F1800
G1 X56.002 Y78.907 F1800
G1 X55.822 Y79.239 F1800
G1 X55.708 Y79.606 F1800
G1 X55.669 Y80.000 F1800
G0 Z2.8F1000
; --- FIX X Backlash: 0.600mm ---
G0 X56.269 Y80.000 F1200
G0 X63.259 Y80.000 Z2.800
G1 Z0F1000
G1 X63.299 Y80.394 F1800
G1 X63.413 Y80.761 F1800
G1 X63.593 Y81.093 F1800
G1 X63.832 Y81.382 F1800
G1 X64.121 Y81.621 F1800
G1 X64.453 Y81.801 F1800
G1 X64.820 Y81.915 F1800
G1 X65.214 Y81.955 F1800
G1 X65.608 Y81.915 F1800
; --- FIX Y Backlash: -1.500mm ---
G0 X65.608 Y80.415 F1200
G1 X65.975 Y80.301 F1800
G1 X66.307 Y80.121 F1800
G1 X66.596 Y79.882 F1800
G1 X66.835 Y79.593 F1800
G1 X67.015 Y79.261 F1800
G1 X67.129 Y78.894 F1800
G1 X67.169 Y78.500 F1800
G1 X67.129 Y78.106 F1800
; --- FIX X Backlash: -0.600mm ---
G0 X66.529 Y78.106 F1200
G1 X66.415 Y77.739 F1800
G1 X66.235 Y77.407 F1800
G1 X65.996 Y77.118 F1800
G1 X65.707 Y76.879 F1800
G1 X65.375 Y76.699 F1800
G1 X65.008 Y76.585 F1800
G1 X64.614 Y76.545 F1800
G1 X64.220 Y76.585 F1800
; --- FIX Y Backlash: 1.500mm ---
G0 X64.220 Y78.085 F1200
G1 X63.853 Y78.199 F1800
G1 X63.521 Y78.379 F1800
G1 X63.232 Y78.618 F1800
G1 X62.993 Y78.907 F1800
G1 X62.813 Y79.239 F1800
G1 X62.699 Y79.606 F1800
G1 X62.659 Y80.000 F1800
G0 Z2.8F1000
; --- FIX X Backlash: 0.600mm ---
G0 X63.259 Y80.000 F1200
G0 X70.249 Y80.000 Z2.800
G1 Z0F1000
G1 X70.289 Y80.394 F1800
G1 X70.403 Y80.761 F1800
G1 X70.583 Y81.093 F1800
G1 X70.822 Y81.382 F1800
G1 X71.111 Y81.621 F1800
G1 X71.443 Y81.801 F1800
G1 X71.810 Y81.915 F1800
G1 X72.204 Y81.955 F1800
G1 X72.598 Y81.915 F1800
; --- FIX Y Backlash: -1.500mm ---
G0 X72.598 Y80.415 F1200
G1 X72.965 Y80.301 F1800
G1 X73.297 Y80.121 F1800
G1 X73.587 Y79.882 F1800
G1 X73.825 Y79.593 F1800
G1 X74.006 Y79.261 F1800
G1 X74.120 Y78.894 F1800
G1 X74.159 Y78.500 F1800
G1 X74.120 Y78.106 F1800
; --- FIX X Backlash: -0.600mm ---
G0 X73.520 Y78.106 F1200
G1 X73.406 Y77.739 F1800
G1 X73.225 Y77.407 F1800
G1 X72.987 Y77.118 F1800
G1 X72.697 Y76.879 F1800
G1 X72.365 Y76.699 F1800
G1 X71.998 Y76.585 F1800
G1 X71.604 Y76.545 F1800
G1 X71.210 Y76.585 F1800
; --- FIX Y Backlash: 1.500mm ---
G0 X71.210 Y78.085 F1200
G1 X70.843 Y78.199 F1800
G1 X70.511 Y78.379 F1800
G1 X70.222 Y78.618 F1800
G1 X69.983 Y78.907 F1800
G1 X69.803 Y79.239 F1800
G1 X69.689 Y79.606 F1800
G1 X69.649 Y80.000 F1800
G0 Z2.8F1000
; --- FIX X Backlash: 0.600mm ---
G0 X70.249 Y80.000 F1200
G0 X77.240 Y80.000 Z2.800
G1 Z0F1000
G1 X77.279 Y80.394 F1800
G1 X77.393 Y80.761 F1800
G1 X77.574 Y81.093 F1800
G1 X77.812 Y81.382 F1800
G1 X78.102 Y81.621 F1800
G1 X78.434 Y81.801 F1800
G1 X78.801 Y81.915 F1800
G1 X79.195 Y81.955 F1800
G1 X79.589 Y81.915 F1800
; --- FIX Y Backlash: -1.500mm ---
G0 X79.589 Y80.415 F1200
G1 X79.956 Y80.301 F1800
G1 X80.288 Y80.121 F1800
G1 X80.577 Y79.882 F1800
G1 X80.816 Y79.593 F1800
G1 X80.996 Y79.261 F1800
G1 X81.110 Y78.894 F1800
G1 X81.150 Y78.500 F1800
G1 X81.110 Y78.106 F1800
; --- FIX X Backlash: -0.600mm ---
G0 X80.510 Y78.106 F1200
G1 X80.396 Y77.739 F1800
G1 X80.216 Y77.407 F1800
G1 X79.977 Y77.118 F1800
G1 X79.688 Y76.879 F1800
G1 X79.356 Y76.699 F1800
G1 X78.989 Y76.585 F1800
G1 X78.595 Y76.545 F1800
G1 X78.201 Y76.585 F1800
; --- FIX Y Backlash: 1.500mm ---
G0 X78.201 Y78.085 F1200
G1 X77.834 Y78.199 F1800
G1 X77.502 Y78.379 F1800
G1 X77.212 Y78.618 F1800
G1 X76.974 Y78.907 F1800
G1 X76.793 Y79.239 F1800
G1 X76.679 Y79.606 F1800
G1 X76.640 Y80.000 F1800
G0 Z2.8F1000
; --- FIX X Backlash: 0.600mm ---
G0 X77.240 Y80.000 F1200
G0 X84.230 Y80.000 Z2.800
G1 Z0F1000
G1 X84.270 Y80.394 F1800
G1 X84.384 Y80.761 F1800
G1 X84.564 Y81.093 F1800
G1 X84.803 Y81.382 F1800
G1 X85.092 Y81.621 F1800
G1 X85.424 Y81.801 F1800
G1 X85.791 Y81.915 F1800
G1 X86.185 Y81.955 F1800
G1 X86.579 Y81.915 F1800
; --- FIX Y Backlash: -1.500mm ---
G0 X86.579 Y80.415 F1200
G1 X86.946 Y80.301 F1800
G1 X87.278 Y80.121 F1800
G1 X87.567 Y79.882 F1800
G1 X87.806 Y79.593 F1800
G1 X87.986 Y79.261 F1800
G1 X88.100 Y78.894 F1800
G1 X88.140 Y78.500 F1800
G1 X88.100 Y78.106 F1800
; --- FIX X Backlash: -0.600mm ---
G0 X87.500 Y78.106 F1200
G1 X87.386 Y77.739 F1800
G1 X87.206 Y77.407 F1800
G1 X86.967 Y77.118 F1800
G1 X86.678 Y76.879 F1800
G1 X86.346 Y76.699 F1800
G1 X85.979 Y76.585 F1800
G1 X85.585 Y76.545 F1800
G1 X85.191 Y76.585 F1800
; --- FIX Y Backlash: 1.500mm ---
G0 X85.191 Y78.085 F1200
G1 X84.824 Y78.199 F1800
G1 X84.492 Y78.379 F1800
G1 X84.203 Y78.618 F1800
G1 X83.964 Y78.907 F1800
G1 X83.784 Y79.239 F1800
G1 X83.670 Y79.606 F1800
G1 X83.630 Y80.000 F1800
G0 Z2.8F1000
; --- FIX X Backlash: 0.600mm ---
G0 X84.230 Y80.000 F1200
G0 X91.220 Y80.000 Z2.800
G1 Z0F1000
G1 X91.260 Y80.394 F1800
G1 X91.374 Y80.761 F1800
G1 X91.554 Y81.093 F1800
G1 X91.793 Y81.382 F1800
G1 X92.082 Y81.621 F1800
G1 X92.414 Y81.801 F1800
G1 X92.781 Y81.915 F1800
G1 X93.175 Y81.955 F1800
G1 X93.569 Y81.915 F1800
; --- FIX Y Backlash: -1.500mm ---
G0 X93.569 Y80.415 F1200
G1 X93.936 Y80.301 F1800
G1 X94.268 Y80.121 F1800
G1 X94.558 Y79.882 F1800
G1 X94.797 Y79.593 F1800
G1 X94.977 Y79.261 F1800
G1 X95.091 Y78.894 F1800
G1 X95.130 Y78.500 F1800
G1 X95.091 Y78.106 F1800
; --- FIX X Backlash: -0.600mm ---
G0 X94.491 Y78.106 F1200
G1 X94.377 Y77.739 F1800
G1 X94.197 Y77.407 F1800
G1 X93.958 Y77.118 F1800
G1 X93.668 Y76.879 F1800
G1 X93.336 Y76.699 F1800
G1 X92.969 Y76.585 F1800
G1 X92.575 Y76.545 F1800
G1 X92.181 Y76.585 F1800
; --- FIX Y Backlash: 1.500mm ---
G0 X92.181 Y78.085 F1200
G1 X91.814 Y78.199 F1800
G1 X91.482 Y78.379 F1800
G1 X91.193 Y78.618 F1800
G1 X90.954 Y78.907 F1800
G1 X90.774 Y79.239 F1800
G1 X90.660 Y79.606 F1800
G1 X90.620 Y80.000 F1800
G0 Z2.8F1000
; --- FIX X Backlash: 0.600mm ---
G0 X91.220 Y80.000 F1200
G0 X98.211 Y80.000 Z2.800
G1 Z0F1000
G1 X98.251 Y80.394 F1800
G1 X98.365 Y80.761 F1800
G1 X98.545 Y81.093 F1800
G1 X98.783 Y81.382 F1800
G1 X99.073 Y81.621 F1800
G1 X99.405 Y81.801 F1800
G1 X99.772 Y81.915 F1800
G1 X100.166 Y81.955 F1800
G1 X100.560 Y81.915 F1800
; --- FIX Y Backlash: -1.500mm ---
G0 X100.560 Y80.415 F1200
G1 X100.927 Y80.301 F1800
G1 X101.259 Y80.121 F1800
G1 X101.548 Y79.882 F1800
G1 X101.787 Y79.593 F1800
G1 X101.967 Y79.261 F1800
G1 X102.081 Y78.894 F1800
G1 X102.121 Y78.500 F1800
G1 X102.081 Y78.106 F1800
; --- FIX X Backlash: -0.600mm ---
G0 X101.481 Y78.106 F1200
G1 X101.367 Y77.739 F1800
G1 X101.187 Y77.407 F1800
G1 X100.948 Y77.118 F1800
G1 X100.659 Y76.879 F1800
G1 X100.327 Y76.699 F1800
G1 X99.960 Y76.585 F1800
G1 X99.566 Y76.545 F1800
G1 X99.172 Y76.585 F1800
; --- FIX Y Backlash: 1.500mm ---
G0 X99.172 Y78.085 F1200
G1 X98.805 Y78.199 F1800
G1 X98.473 Y78.379 F1800
G1 X98.183 Y78.618 F1800
G1 X97.945 Y78.907 F1800
G1 X97.765 Y79.239 F1800
G1 X97.651 Y79.606 F1800
G1 X97.611 Y80.000 F1800
G0 Z2.8F1000
; --- FIX X Backlash: 0.600mm ---
G0 X98.211 Y80.000 F1200
G0 X104.793 Y80.000 Z2.800
G1 Z0F1000
G1 X104.832 Y80.394 F1800
G1 X104.946 Y80.761 F1800
G1 X105.127 Y81.093 F1800
G1 X105.365 Y81.382 F1800
G1 X105.655 Y81.621 F1800
G1 X105.987 Y81.801 F1800
G1 X106.354 Y81.915 F1800
G1 X106.748 Y81.955 F1800
G1 X107.142 Y81.915 F1800
; --- FIX Y Backlash: -1.500mm ---
G0 X107.142 Y80.415 F1200
G1 X107.509 Y80.301 F1800
G1 X107.841 Y80.121 F1800
G1 X108.130 Y79.882 F1800
G1 X108.369 Y79.593 F1800
G1 X108.549 Y79.261 F1800
G1 X108.663 Y78.894 F1800
G1 X108.703 Y78.500 F1800
G1 X108.663 Y78.106 F1800
; --- FIX X Backlash: -0.600mm ---
G0 X108.063 Y78.106 F1200
G1 X107.949 Y77.739 F1800
G1 X107.769 Y77.407 F1800
G1 X107.530 Y77.118 F1800
G1 X107.241 Y76.879 F1800
G1 X106.909 Y76.699 F1800
G1 X106.542 Y76.585 F1800
G1 X106.148 Y76.545 F1800
G1 X105.754 Y76.585 F1800
; --- FIX Y Backlash: 1.500mm ---
G0 X105.754 Y78.085 F1200
G1 X105.387 Y78.199 F1800
G1 X105.055 Y78.379 F1800
G1 X104.765 Y78.618 F1800
G1 X104.527 Y78.907 F1800
G1 X104.346 Y79.239 F1800
G1 X104.232 Y79.606 F1800
G1 X104.193 Y80.000 F1800
G0 Z2.8F1000
; --- FIX X Backlash: 0.600mm ---
G0 X104.793 Y80.000 F1200
G0 X111.783 Y80.000 Z2.800
G1 Z0F1000
G1 X111.823 Y80.394 F1800
G1 X111.937 Y80.761 F1800
G1 X112.117 Y81.093 F1800
G1 X112.356 Y81.382 F1800
G1 X112.645 Y81.621 F1800
G1 X112.977 Y81.801 F1800
G1 X113.344 Y81.915 F1800
G1 X113.738 Y81.955 F1800
G1 X114.132 Y81.915 F1800
; --- FIX Y Backlash: -1.500mm ---
G0 X114.132 Y80.415 F1200
G1 X114.499 Y80.301 F1800
G1 X114.831 Y80.121 F1800
G1 X115.120 Y79.882 F1800
G1 X115.359 Y79.593 F1800
G1 X115.539 Y79.261 F1800
G1 X115.653 Y78.894 F1800
G1 X115.693 Y78.500 F1800
G1 X115.653 Y78.106 F1800
; --- FIX X Backlash: -0.600mm ---
G0 X115.053 Y78.106 F1200
G1 X114.939 Y77.739 F1800
G1 X114.759 Y77.407 F1800
G1 X114.520 Y77.118 F1800
G1 X114.231 Y76.879 F1800
G1 X113.899 Y76.699 F1800
G1 X113.532 Y76.585 F1800
G1 X113.138 Y76.545 F1800
G1 X112.744 Y76.585 F1800
; --- FIX Y Backlash: 1.500mm ---
G0 X112.744 Y78.085 F1200
G1 X112.377 Y78.199 F1800
G1 X112.045 Y78.379 F1800
G1 X111.756 Y78.618 F1800
G1 X111.517 Y78.907 F1800
G1 X111.337 Y79.239 F1800
G1 X111.223 Y79.606 F1800
G1 X111.183 Y80.000 F1800
G0 Z2.8F1000
; --- FIX X Backlash: 0.600mm ---
G0 X111.783 Y80.000 F1200
G0 X118.773 Y80.000 Z2.800
G1 Z0F1000
G1 X118.813 Y80.394 F1800
G1 X118.927 Y80.761 F1800
G1 X119.107 Y81.093 F1800
G1 X119.346 Y81.382 F1800
G1 X119.635 Y81.621 F1800
G1 X119.967 Y81.801 F1800
G1 X120.334 Y81.915 F1800
G1 X120.728 Y81.955 F1800
G1 X121.122 Y81.915 F1800
; --- FIX Y Backlash: -1.500mm ---
G0 X121.122 Y80.415 F1200
G1 X121.489 Y80.301 F1800
G1 X121.821 Y80.121 F1800
G1 X122.111 Y79.882 F1800
G1 X122.349 Y79.593 F1800
G1 X122.530 Y79.261 F1800
G1 X122.644 Y78.894 F1800
G1 X122.683 Y78.500 F1800
G1 X122.644 Y78.106 F1800
; --- FIX X Backlash: -0.600mm ---
G0 X122.044 Y78.106 F1200
G1 X121.930 Y77.739 F1800
G1 X121.749 Y77.407 F1800
G1 X121.511 Y77.118 F1800
G1 X121.221 Y76.879 F1800
G1 X120.889 Y76.699 F1800
G1 X120.522 Y76.585 F1800
G1 X120.128 Y76.545 F1800
G1 X119.734 Y76.585 F1800
; --- FIX Y Backlash: 1.500mm ---
G0 X119.734 Y78.085 F1200
G1 X119.367 Y78.199 F1800
G1 X119.035 Y78.379 F1800
G1 X118.746 Y78.618 F1800
G1 X118.507 Y78.907 F1800
G1 X118.327 Y79.239 F1800
G1 X118.213 Y79.606 F1800
G1 X118.173 Y80.000 F1800
G0 Z2.8F1000
; --- FIX X Backlash: 0.600mm ---
G0 X118.773 Y80.000 F1200
G0 X125.764 Y80.000 Z2.800
G1 Z0F1000
G1 X125.803 Y80.394 F1800
G1 X125.917 Y80.761 F1800
G1 X126.098 Y81.093 F1800
G1 X126.336 Y81.382 F1800
G1 X126.626 Y81.621 F1800
G1 X126.958 Y81.801 F1800
G1 X127.325 Y81.915 F1800
G1 X127.719 Y81.955 F1800
G1 X128.113 Y81.915 F1800
; --- FIX Y Backlash: -1.500mm ---
G0 X128.113 Y80.415 F1200
G1 X128.480 Y80.301 F1800
G1 X128.812 Y80.121 F1800
G1 X129.101 Y79.882 F1800
G1 X129.340 Y79.593 F1800
G1 X129.520 Y79.261 F1800
G1 X129.634 Y78.894 F1800
G1 X129.674 Y78.500 F1800
G1 X129.634 Y78.106 F1800
; --- FIX X Backlash: -0.600mm ---
G0 X129.034 Y78.106 F1200
G1 X128.920 Y77.739 F1800
G1 X128.740 Y77.407 F1800
G1 X128.501 Y77.118 F1800
G1 X128.212 Y76.879 F1800
G1 X127.880 Y76.699 F1800
G1 X127.513 Y76.585 F1800
G1 X127.119 Y76.545 F1800
G1 X126.725 Y76.585 F1800
; --- FIX Y Backlash: 1.500mm ---
G0 X126.725 Y78.085 F1200
G1 X126.358 Y78.199 F1800
G1 X126.026 Y78.379 F1800
G1 X125.736 Y78.618 F1800
G1 X125.498 Y78.907 F1800
G1 X125.317 Y79.239 F1800
G1 X125.203 Y79.606 F1800
G1 X125.164 Y80.000 F1800
G0 Z2.8F1000
; --- FIX X Backlash: 0.600mm ---
G0 X125.764 Y80.000 F1200
G0 X132.754 Y80.000 Z2.800
G1 Z0F1000
G1 X132.794 Y80.394 F1800
G1 X132.908 Y80.761 F1800
G1 X133.088 Y81.093 F1800
G1 X133.327 Y81.382 F1800
G1 X133.616 Y81.621 F1800
G1 X133.948 Y81.801 F1800
G1 X134.315 Y81.915 F1800
G1 X134.709 Y81.955 F1800
G1 X135.103 Y81.915 F1800
; --- FIX Y Backlash: -1.500mm ---
G0 X135.103 Y80.415 F1200
G1 X135.470 Y80.301 F1800
G1 X135.802 Y80.121 F1800
G1 X136.092 Y79.882 F1800
G1 X136.330 Y79.593 F1800
G1 X136.510 Y79.261 F1800
G1 X136.624 Y78.894 F1800
G1 X136.664 Y78.500 F1800
G1 X136.624 Y78.106 F1800
; --- FIX X Backlash: -0.600mm ---
G0 X136.024 Y78.106 F1200
G1 X135.910 Y77.739 F1800
G1 X135.730 Y77.407 F1800
G1 X135.492 Y77.118 F1800
G1 X135.202 Y76.879 F1800
G1 X134.870 Y76.699 F1800
G1 X134.503 Y76.585 F1800
G1 X134.109 Y76.545 F1800
G1 X133.715 Y76.585 F1800
; --- FIX Y Backlash: 1.500mm ---
G0 X133.715 Y78.085 F1200
G1 X133.348 Y78.199 F1800
G1 X133.016 Y78.379 F1800
G1 X132.727 Y78.618 F1800
G1 X132.488 Y78.907 F1800
G1 X132.308 Y79.239 F1800
G1 X132.194 Y79.606 F1800
G1 X132.154 Y80.000 F1800
M9
G1 Z10 F1000
G90
G1 Z10 F800
M2 ; Konec G-kode