;LightBurn 1.6.04
;Custom GCode device profile, absolute coords
;Bounds: X2.74 Y7.27 to X127.26 Y100.73
G00 G17 G40 G21 G54
G90
M3
G1 Z10 F500
;Cut @ 1200 mm/min, 90% power

M8
G0 Z2.8F500
G0 X127.096Y98.69Z2.8F1500
G1 Z0F500
;Layer Blue
G1 X126.986Y97Z0S900F1200
G1 X126.932Y95.312Z0F1200
G1 X126.925Y93.625Z0F1200
G1 X126.956Y91.939Z0F1200
G1 X127.093Y88.568Z0F1200
G1 X127.265Y85.195Z0F1200
G1 X127.248Y82.263Z0F1200
G1 X127.19Y79.332Z0F1200
G1 X127.1Y76.403Z0F1200
G1 X126.986Y73.474Z0F1200
G1 X126.722Y67.618Z0F1200
G1 X126.469Y61.761Z0F1200
G1 X126.5Y60.017Z0F1200
G1 X126.489Y58.274Z0F1200
G1 X126.451Y56.532Z0F1200
G1 X126.405Y54.79Z0F1200
G1 X126.366Y53.049Z0F1200
G1 X126.352Y51.306Z0F1200
G1 X126.379Y49.563Z0F1200
G1 X126.464Y47.819Z0F1200
G1 X126.408Y46.16Z0F1200
G1 X126.391Y44.501Z0F1200
G1 X126.41Y42.844Z0F1200
G1 X126.459Y41.188Z0F1200
G1 X126.626Y37.88Z0F1200
G1 X126.854Y34.577Z0F1200
G1 X126.77Y27.786Z0F1200
G1 X126.625Y20.993Z0F1200
G1 X126.578Y17.597Z0F1200
G1 X126.572Y14.201Z0F1200
G1 X126.627Y10.807Z0F1200
G1 X126.762Y7.415Z0F1200
G0 Z2.8F500
G0 X109.483Y69.906Z2.8F1500
G1 Z0F500
G1 X109.077Y74.153Z0F1200
G0 Z2.8F500
G0 X110.557Y73.306Z2.8F1500
G1 Z0F500
G1 X110.433Y75.54Z0F1200
G1 X110.332Y77.773Z0F1200
G1 X110.251Y80.008Z0F1200
G1 X110.191Y82.244Z0F1200
G0 Z2.8F500
G0 X111.476Y78.878Z2.8F1500
G1 Z0F500
G1 X111.321Y75.915Z0F1200
G1 X111.257Y72.949Z0F1200
G1 X111.277Y69.983Z0F1200
G1 X111.375Y67.017Z0F1200
G1 X111.542Y64.054Z0F1200
G1 X111.771Y61.095Z0F1200
G1 X112.055Y58.141Z0F1200
G1 X112.387Y55.196Z0F1200
G1 X112.54Y52.507Z0F1200
G1 X112.633Y49.815Z0F1200
G1 X112.694Y47.122Z0F1200
G1 X112.748Y44.429Z0F1200
G1 X112.822Y41.738Z0F1200
G1 X112.943Y39.049Z0F1200
G1 X113.136Y36.366Z0F1200
G1 X113.428Y33.689Z0F1200
G1 X113.368Y29.602Z0F1200
G0 Z2.8F500
G0 X114.868Y28.776Z2.8F1500
G1 Z0F500
G1 X114.75Y30.442Z0F1200
G1 X114.677Y32.107Z0F1200
G1 X114.642Y33.773Z0F1200
G1 X114.638Y35.44Z0F1200
G1 X114.696Y38.773Z0F1200
G1 X114.796Y42.106Z0F1200
G1 X114.882Y45.438Z0F1200
G1 X114.901Y48.769Z0F1200
G1 X114.868Y50.434Z0F1200
G1 X114.797Y52.098Z0F1200
G1 X114.682Y53.761Z0F1200
G1 X114.516Y55.423Z0F1200
G1 X114.106Y59.962Z0F1200
G1 X113.675Y64.5Z0F1200
G1 X113.485Y66.771Z0F1200
G1 X113.329Y69.044Z0F1200
G1 X113.221Y71.319Z0F1200
G1 X113.173Y73.597Z0F1200
G0 Z2.8F500
G0 X113.445Y76.778Z2.8F1500
G1 Z0F500
G1 X112.988Y76.822Z0F1200
G1 X112.607Y76.894Z0F1200
G1 X112.3Y76.986Z0F1200
G1 X112.064Y77.093Z0F1200
G1 X111.896Y77.206Z0F1200
G1 X111.793Y77.319Z0F1200
G1 X111.753Y77.426Z0F1200
G1 X111.771Y77.52Z0F1200
G1 X111.847Y77.594Z0F1200
G1 X111.976Y77.641Z0F1200
G1 X112.155Y77.655Z0F1200
G1 X112.383Y77.628Z0F1200
G1 X112.656Y77.554Z0F1200
G1 X112.971Y77.427Z0F1200
G1 X113.325Y77.239Z0F1200
G1 X113.716Y76.984Z0F1200
G1 X114.317Y76.559Z0F1200
G1 X114.84Y76.091Z0F1200
G1 X115.292Y75.583Z0F1200
G1 X115.677Y75.038Z0F1200
G1 X116.002Y74.461Z0F1200
G1 X116.273Y73.856Z0F1200
G1 X116.495Y73.227Z0F1200
G1 X116.674Y72.577Z0F1200
G1 X116.817Y71.91Z0F1200
G1 X116.928Y71.231Z0F1200
G1 X117.013Y70.543Z0F1200
G1 X117.079Y69.851Z0F1200
G1 X117.177Y68.466Z0F1200
G1 X117.265Y67.109Z0F1200
G0 Z2.8F500
G0 X116.794Y67.103Z2.8F1500
G1 Z0F500
G1 X113.064Y70.34Z0F1200
G1 X109.395Y73.646Z0F1200
G1 X105.78Y77.01Z0F1200
G1 X102.209Y80.423Z0F1200
G0 Z2.8F500
G0 X95.637Y78.965Z2.8F1500
G1 Z0F500
G1 X94.666Y78.442Z0F1200
G1 X93.742Y77.857Z0F1200
G1 X92.86Y77.216Z0F1200
G1 X92.015Y76.527Z0F1200
G1 X91.204Y75.796Z0F1200
G1 X90.423Y75.03Z0F1200
G1 X89.666Y74.235Z0F1200
G1 X88.931Y73.42Z0F1200
G1 X85.937Y72.688Z0F1200
G1 X82.972Y71.878Z0F1200
G1 X81.519Y71.395Z0F1200
G1 X80.096Y70.833Z0F1200
G1 X79.397Y70.517Z0F1200
G1 X78.709Y70.174Z0F1200
G1 X78.032Y69.802Z0F1200
G1 X77.366Y69.398Z0F1200
G1 X76.918Y69.292Z0F1200
G1 X76.55Y69.148Z0F1200
G1 X76.259Y68.969Z0F1200
G1 X76.04Y68.76Z0F1200
G1 X75.886Y68.525Z0F1200
G1 X75.793Y68.267Z0F1200
G1 X75.756Y67.99Z0F1200
G1 X75.769Y67.699Z0F1200
G1 X75.828Y67.398Z0F1200
G1 X75.928Y67.09Z0F1200
G1 X76.063Y66.779Z0F1200
G1 X76.228Y66.47Z0F1200
G1 X76.629Y65.871Z0F1200
G1 X77.09Y65.325Z0F1200
G1 X77.344Y65.015Z0F1200
G1 X77.557Y64.692Z0F1200
G1 X77.733Y64.356Z0F1200
G1 X77.877Y64.009Z0F1200
G1 X78.083Y63.286Z0F1200
G1 X78.206Y62.536Z0F1200
G1 X78.33Y60.997Z0F1200
G1 X78.5Y59.48Z0F1200
G1 X78.43Y58.869Z0F1200
G1 X78.418Y58.213Z0F1200
G1 X78.468Y57.534Z0F1200
G1 X78.582Y56.854Z0F1200
G1 X78.762Y56.196Z0F1200
G1 X79.013Y55.58Z0F1200
G1 X79.165Y55.295Z0F1200
G1 X79.336Y55.03Z0F1200
G1 X79.525Y54.786Z0F1200
G1 X79.734Y54.567Z0F1200
G0 Z2.8F500
G0 X79.605Y53.74Z2.8F1500
G1 Z0F500
G1 X79.911Y53.71Z0F1200
G1 X80.191Y53.667Z0F1200
G1 X80.447Y53.611Z0F1200
G1 X80.68Y53.541Z0F1200
G1 X81.087Y53.358Z0F1200
G1 X81.427Y53.113Z0F1200
G1 X81.714Y52.801Z0F1200
G1 X81.963Y52.418Z0F1200
G1 X82.188Y51.96Z0F1200
G1 X82.403Y51.422Z0F1200
G0 Z2.8F500
G0 X83.333Y51.771Z2.8F1500
G1 Z0F500
G1 X83.024Y51.929Z0F1200
G1 X82.757Y52.069Z0F1200
G1 X82.53Y52.192Z0F1200
G1 X82.342Y52.299Z0F1200
G1 X82.189Y52.389Z0F1200
G1 X82.07Y52.464Z0F1200
G1 X81.983Y52.524Z0F1200
G1 X81.925Y52.569Z0F1200
G1 X81.895Y52.599Z0F1200
G1 X81.89Y52.616Z0F1200
G1 X81.909Y52.619Z0F1200
G1 X81.949Y52.61Z0F1200
G1 X82.083Y52.554Z0F1200
G1 X82.278Y52.451Z0F1200
G1 X82.514Y52.306Z0F1200
G1 X82.777Y52.121Z0F1200
G1 X83.049Y51.901Z0F1200
G1 X83.313Y51.649Z0F1200
G1 X83.552Y51.369Z0F1200
G1 X83.75Y51.064Z0F1200
G1 X83.89Y50.737Z0F1200
G1 X83.954Y50.394Z0F1200
G1 X84.041Y50.118Z0F1200
G1 X84.076Y49.903Z0F1200
G1 X84.065Y49.741Z0F1200
G1 X84.017Y49.623Z0F1200
G1 X83.841Y49.479Z0F1200
G1 X83.498Y49.361Z0F1200
G1 X83.394Y49.312Z0F1200
G1 X83.308Y49.242Z0F1200
G1 X83.249Y49.143Z0F1200
G1 X83.224Y49.005Z0F1200
G1 X83.242Y48.82Z0F1200
G1 X83.311Y48.578Z0F1200
G1 X83.437Y48.27Z0F1200
G0 Z2.8F500
G0 X83.073Y50.464Z2.8F1500
G1 Z0F500
G1 X83.185Y48.159Z0F1200
G1 X83.232Y45.856Z0F1200
G1 X83.22Y43.551Z0F1200
G1 X83.156Y41.244Z0F1200
G0 Z2.8F500
G0 X81.639Y42.983Z2.8F1500
G1 Z0F500
G1 X80.852Y42.878Z0F1200
G1 X80.062Y42.822Z0F1200
G1 X79.276Z0F1200
G1 X78.5Y42.893Z0F1200
G1 X77.74Y43.041Z0F1200
G1 X77.002Y43.277Z0F1200
G1 X76.643Y43.431Z0F1200
G1 X76.293Y43.611Z0F1200
G1 X75.95Y43.818Z0F1200
G1 X75.618Y44.053Z0F1200
G1 X75.49Y43.373Z0F1200
G1 X75.325Y42.737Z0F1200
G1 X75.112Y42.149Z0F1200
G1 X74.839Y41.608Z0F1200
G1 X74.495Y41.117Z0F1200
G1 X74.067Y40.677Z0F1200
G1 X73.819Y40.477Z0F1200
G1 X73.546Y40.29Z0F1200
G1 X73.246Y40.117Z0F1200
G1 X72.919Y39.957Z0F1200
G0 Z2.8F500
G0 X72.724Y39.996Z2.8F1500
G1 Z0F500
G1 X73.11Y40.179Z0F1200
G1 X73.461Y40.362Z0F1200
G1 X73.78Y40.547Z0F1200
G1 X74.069Y40.736Z0F1200
G1 X74.329Y40.931Z0F1200
G1 X74.563Y41.132Z0F1200
G1 X74.773Y41.343Z0F1200
G1 X74.96Y41.564Z0F1200
G1 X75.275Y42.045Z0F1200
G1 X75.523Y42.591Z0F1200
G1 X75.72Y43.214Z0F1200
G1 X75.883Y43.93Z0F1200
G1 X76.156Y44.983Z0F1200
G1 X76.378Y46.049Z0F1200
G1 X76.56Y47.124Z0F1200
G1 X76.712Y48.207Z0F1200
G1 X76.974Y50.382Z0F1200
G1 X77.252Y52.549Z0F1200
G1 X77.233Y52.824Z0F1200
G1 X77.264Y53.102Z0F1200
G1 X77.34Y53.386Z0F1200
G1 X77.453Y53.674Z0F1200
G1 X77.764Y54.263Z0F1200
G1 X78.145Y54.871Z0F1200
G1 X78.54Y55.497Z0F1200
G1 X78.898Y56.142Z0F1200
G1 X79.045Y56.472Z0F1200
G1 X79.163Y56.806Z0F1200
G1 X79.244Y57.144Z0F1200
G1 X79.282Y57.488Z0F1200
G1 X79.044Y57.492Z0F1200
G1 X78.828Y57.517Z0F1200
G1 X78.633Y57.561Z0F1200
G1 X78.458Y57.623Z0F1200
G1 X78.162Y57.791Z0F1200
G1 X77.927Y58.012Z0F1200
G1 X77.741Y58.271Z0F1200
G1 X77.592Y58.559Z0F1200
G1 X77.468Y58.862Z0F1200
G1 X77.247Y59.466Z0F1200
G1 X77.127Y59.744Z0F1200
G1 X76.983Y59.989Z0F1200
G1 X76.804Y60.19Z0F1200
G1 X76.578Y60.334Z0F1200
G1 X76.292Y60.411Z0F1200
G1 X76.124Y60.419Z0F1200
G1 X75.936Y60.406Z0F1200
G1 X75.727Y60.37Z0F1200
G1 X75.497Y60.31Z0F1200
G1 X75.167Y60.355Z0F1200
G1 X74.838Y60.429Z0F1200
G1 X74.514Y60.53Z0F1200
G1 X74.195Y60.657Z0F1200
G1 X73.884Y60.81Z0F1200
G1 X73.584Y60.985Z0F1200
G1 X73.296Y61.183Z0F1200
G1 X73.022Y61.401Z0F1200
G1 X72.765Y61.639Z0F1200
G1 X72.527Y61.895Z0F1200
G1 X72.311Y62.167Z0F1200
G1 X72.117Y62.455Z0F1200
G1 X71.949Y62.756Z0F1200
G1 X71.809Y63.071Z0F1200
G1 X71.698Y63.396Z0F1200
G1 X71.583Y63.88Z0F1200
G1 X71.554Y63.989Z0F1200
G1 X71.532Y64.062Z0F1200
G1 X71.516Y64.1Z0F1200
G1 X71.507Y64.105Z0F1200
G1 X71.504Y64.081Z0F1200
G1 X71.507Y64.03Z0F1200
G1 X71.516Y63.953Z0F1200
G1 X71.554Y63.734Z0F1200
G1 X71.616Y63.441Z0F1200
G1 X71.701Y63.094Z0F1200
G1 X71.81Y62.711Z0F1200
G1 X71.941Y62.31Z0F1200
G1 X72.094Y61.911Z0F1200
G1 X72.268Y61.531Z0F1200
G1 X72.463Y61.189Z0F1200
G1 X72.678Y60.904Z0F1200
G1 X72.912Y60.694Z0F1200
G1 X73.037Y60.623Z0F1200
G1 X73.166Y60.578Z0F1200
G1 X73.299Y60.56Z0F1200
G1 X73.438Y60.574Z0F1200
G1 X74.852Y60.15Z0F1200
G0 Z2.8F500
G0 X74.8Y57.888Z2.8F1500
G1 Z0F500
G1 X74.359Y57.709Z0F1200
G1 X73.961Y57.604Z0F1200
G1 X73.605Y57.567Z0F1200
G1 X73.292Y57.591Z0F1200
G1 X73.022Y57.67Z0F1200
G1 X72.792Y57.797Z0F1200
G1 X72.604Y57.966Z0F1200
G1 X72.456Y58.171Z0F1200
G1 X72.349Y58.405Z0F1200
G1 X72.281Y58.661Z0F1200
G1 X72.253Y58.933Z0F1200
G1 X72.264Y59.215Z0F1200
G1 X72.313Y59.5Z0F1200
G1 X72.4Y59.781Z0F1200
G1 X72.524Y60.053Z0F1200
G1 X72.686Y60.308Z0F1200
G1 X73.373Y60.004Z0F1200
G1 X74.158Y59.719Z0F1200
G1 X74.971Y59.421Z0F1200
G1 X75.742Y59.076Z0F1200
G1 X76.089Y58.877Z0F1200
G1 X76.4Y58.653Z0F1200
G1 X76.665Y58.402Z0F1200
G1 X76.876Y58.118Z0F1200
G1 X77.024Y57.799Z0F1200
G1 X77.101Y57.439Z0F1200
G1 X77.109Y57.243Z0F1200
G1 X77.097Y57.036Z0F1200
G1 X77.062Y56.816Z0F1200
G1 X77.003Y56.584Z0F1200
G1 X77.28Y56.398Z0F1200
G1 X77.509Y56.182Z0F1200
G1 X77.693Y55.939Z0F1200
G1 X77.838Y55.67Z0F1200
G1 X77.947Y55.379Z0F1200
G1 X78.025Y55.069Z0F1200
G1 X78.077Y54.743Z0F1200
G1 X78.106Y54.403Z0F1200
G1 X78.084Y52.964Z0F1200
G1 X78.051Y51.535Z0F1200
G1 X78.041Y50.665Z0F1200
G1 X77.973Y49.802Z0F1200
G1 X77.866Y48.945Z0F1200
G1 X77.739Y48.091Z0F1200
G1 X77.608Y47.237Z0F1200
G1 X77.494Y46.381Z0F1200
G1 X77.413Y45.522Z0F1200
G1 X77.384Y44.657Z0F1200
G0 Z2.8F500
G0 X77.84Y43.717Z2.8F1500
G1 Z0F500
G1 X77.979Y45.585Z0F1200
G1 X78.166Y47.451Z0F1200
G1 X78.306Y48.375Z0F1200
G1 X78.491Y49.291Z0F1200
G1 X78.731Y50.193Z0F1200
G1 X79.039Y51.081Z0F1200
G1 X79.482Y51.069Z0F1200
G1 X79.881Y51.101Z0F1200
G1 X80.242Y51.171Z0F1200
G1 X80.569Y51.276Z0F1200
G1 X80.865Y51.413Z0F1200
G1 X81.136Y51.577Z0F1200
G1 X81.386Y51.765Z0F1200
G1 X81.619Y51.972Z0F1200
G1 X82.468Y52.923Z0F1200
G1 X83.393Y53.882Z0F1200
G1 X84.578Y54.014Z0F1200
G1 X85.765Y54.113Z0F1200
G1 X86.953Y54.183Z0F1200
G1 X88.141Y54.226Z0F1200
G1 X90.52Y54.243Z0F1200
G1 X92.899Y54.186Z0F1200
G1 X97.659Y53.939Z0F1200
G1 X102.409Y53.661Z0F1200
G1 X103.766Y53.675Z0F1200
G1 X105.121Y53.738Z0F1200
G1 X106.475Y53.833Z0F1200
G1 X107.827Y53.945Z0F1200
G0 Z2.8F500
G0 X106.57Y54.2Z2.8F1500
G1 Z0F500
G1 X106.975Y54.286Z0F1200
G1 X107.358Y54.39Z0F1200
G1 X107.716Y54.512Z0F1200
G1 X108.048Y54.653Z0F1200
G1 X108.35Y54.813Z0F1200
G1 X108.621Y54.993Z0F1200
G1 X108.856Y55.193Z0F1200
G1 X109.055Y55.415Z0F1200
G1 X109.215Y55.659Z0F1200
G1 X109.333Y55.926Z0F1200
G1 X109.407Y56.216Z0F1200
G1 X109.433Y56.53Z0F1200
G1 X109.411Y56.869Z0F1200
G1 X109.337Y57.232Z0F1200
G1 X109.208Y57.622Z0F1200
G1 X109.023Y58.039Z0F1200
G1 X108.755Y59.652Z0F1200
G1 X108.402Y61.248Z0F1200
G1 X108.192Y62.036Z0F1200
G1 X107.957Y62.816Z0F1200
G1 X107.696Y63.587Z0F1200
G1 X107.41Y64.348Z0F1200
G1 X107.096Y65.097Z0F1200
G1 X106.754Y65.833Z0F1200
G1 X106.383Y66.555Z0F1200
G1 X105.982Y67.261Z0F1200
G1 X105.549Y67.95Z0F1200
G1 X105.084Y68.622Z0F1200
G1 X104.586Y69.274Z0F1200
G1 X104.053Y69.906Z0F1200
G1 X103.572Y70.447Z0F1200
G1 X103.062Y70.964Z0F1200
G1 X102.542Y71.473Z0F1200
G1 X102.033Y71.99Z0F1200
G0 Z2.8F500
G0 X101.683Y70.128Z2.8F1500
G1 Z0F500
G1 X103.5Y69.503Z0F1200
G0 Z2.8F500
G0 X104.365Y66.996Z2.8F1500
G1 Z0F500
G1 X103.445Y67.066Z0F1200
G1 X102.526Y67.101Z0F1200
G1 X101.608Y67.105Z0F1200
G1 X100.69Y67.083Z0F1200
G1 X98.855Y66.978Z0F1200
G1 X97.02Y66.818Z0F1200
G1 X95.186Y66.636Z0F1200
G1 X93.35Y66.466Z0F1200
G1 X91.513Y66.341Z0F1200
G1 X89.673Y66.295Z0F1200
G1 X87.752Y66.076Z0F1200
G1 X85.829Y65.862Z0F1200
G1 X84.876Y65.724Z0F1200
G1 X83.932Y65.549Z0F1200
G1 X83.001Y65.322Z0F1200
G1 X82.087Y65.031Z0F1200
G1 X81.364Y65.017Z0F1200
G1 X80.642Y64.986Z0F1200
G1 X79.935Y64.978Z0F1200
G1 X79.258Y65.032Z0F1200
G1 X78.936Y65.094Z0F1200
G1 X78.627Y65.186Z0F1200
G1 X78.333Y65.312Z0F1200
G1 X78.057Y65.478Z0F1200
G1 X77.8Y65.689Z0F1200
G1 X77.564Y65.95Z0F1200
G1 X77.35Y66.264Z0F1200
G1 X77.162Y66.638Z0F1200
G1 X76.835Y67.018Z0F1200
G0 Z2.8F500
G0 X75.916Y64.935Z2.8F1500
G1 Z0F500
G1 X76.087Y64.631Z0F1200
G1 X76.224Y64.373Z0F1200
G1 X76.33Y64.157Z0F1200
G1 X76.407Y63.983Z0F1200
G1 X76.457Y63.846Z0F1200
G1 X76.484Y63.746Z0F1200
G1 X76.489Y63.678Z0F1200
G1 X76.475Y63.642Z0F1200
G1 X76.445Y63.634Z0F1200
G1 X76.401Y63.652Z0F1200
G1 X76.346Y63.693Z0F1200
G1 X76.282Y63.755Z0F1200
G1 X76.137Y63.933Z0F1200
G1 X75.986Y64.165Z0F1200
G1 X75.85Y64.432Z0F1200
G1 X75.748Y64.713Z0F1200
G1 X75.7Y64.99Z0F1200
G1 X75.727Y65.243Z0F1200
G1 X75.775Y65.354Z0F1200
G1 X75.848Y65.451Z0F1200
G1 X75.95Y65.532Z0F1200
G1 X76.083Y65.595Z0F1200
G1 X76.25Y65.637Z0F1200
G1 X76.453Y65.656Z0F1200
G1 X76.694Y65.649Z0F1200
G1 X76.977Y65.614Z0F1200
G1 X77.129Y65.492Z0F1200
G1 X77.25Y65.401Z0F1200
G1 X77.342Y65.338Z0F1200
G1 X77.405Y65.302Z0F1200
G1 X77.442Y65.291Z0F1200
G1 X77.454Y65.303Z0F1200
G1 X77.444Y65.335Z0F1200
G1 X77.413Y65.386Z0F1200
G1 X77.294Y65.537Z0F1200
G1 X77.113Y65.74Z0F1200
G1 X76.885Y65.978Z0F1200
G1 X76.622Y66.236Z0F1200
G1 X76.34Y66.5Z0F1200
G1 X76.053Y66.752Z0F1200
G1 X75.775Y66.977Z0F1200
G1 X75.52Y67.159Z0F1200
G1 X75.303Y67.283Z0F1200
G1 X75.138Y67.334Z0F1200
G1 X75.079Y67.326Z0F1200
G1 X75.039Y67.294Z0F1200
G1 X75.018Y67.236Z0F1200
G1 Y67.15Z0F1200
G1 X74.929Y66.81Z0F1200
G1 X74.878Y66.472Z0F1200
G1 X74.862Y66.136Z0F1200
G1 X74.876Y65.801Z0F1200
G1 X74.977Y65.133Z0F1200
G1 X75.146Y64.467Z0F1200
G1 X75.347Y63.8Z0F1200
G1 X75.543Y63.13Z0F1200
G1 X75.7Y62.454Z0F1200
G1 X75.78Y61.77Z0F1200
G1 X75.805Y61.429Z0F1200
G1 X75.852Y61.175Z0F1200
G1 X75.92Y61.001Z0F1200
G1 X76.008Y60.897Z0F1200
G1 X76.114Y60.855Z0F1200
G1 X76.235Y60.866Z0F1200
G1 X76.37Y60.922Z0F1200
G1 X76.516Y61.015Z0F1200
G1 X76.837Y61.273Z0F1200
G1 X77.182Y61.572Z0F1200
G1 X77.536Y61.844Z0F1200
G1 X77.884Y62.02Z0F1200
G0 Z2.8F500
G0 X79.184Y60.529Z2.8F1500
G1 Z0F500
G1 X79.209Y55.845Z0F1200
G1 X79.283Y51.161Z0F1200
G1 X79.298Y48.819Z0F1200
G1 X79.278Y46.478Z0F1200
G1 X79.204Y44.139Z0F1200
G1 X79.063Y41.801Z0F1200
G0 Z2.8F500
G0 X75.983Y43.372Z2.8F1500
G1 Z0F500
G1 X75.855Y47.896Z0F1200
G0 Z2.8F500
G0 X75.807Y51.569Z2.8F1500
G1 Z0F500
G1 X75.27Y52.057Z0F1200
G1 X74.715Y52.483Z0F1200
G1 X74.139Y52.835Z0F1200
G1 X73.539Y53.102Z0F1200
G1 X73.23Y53.201Z0F1200
G1 X72.913Y53.275Z0F1200
G1 X72.589Y53.323Z0F1200
G1 X72.258Y53.342Z0F1200
G1 X71.918Y53.333Z0F1200
G1 X71.569Y53.294Z0F1200
G1 X71.212Y53.222Z0F1200
G1 X70.845Y53.118Z0F1200
G1 X71.435Y53.17Z0F1200
G1 X72Y53.181Z0F1200
G1 X72.542Y53.147Z0F1200
G1 X73.067Y53.062Z0F1200
G1 X73.577Y52.921Z0F1200
G1 X74.078Y52.718Z0F1200
G1 X74.572Y52.448Z0F1200
G1 X75.064Y52.105Z0F1200
G0 Z2.8F500
G0 X72.462Y54.27Z2.8F1500
G1 Z0F500
G1 X72.745Y54.126Z0F1200
G1 X73.06Y53.951Z0F1200
G1 X73.394Y53.752Z0F1200
G1 X73.736Y53.538Z0F1200
G1 X74.071Y53.315Z0F1200
G1 X74.388Y53.091Z0F1200
G1 X74.674Y52.874Z0F1200
G1 X74.916Y52.671Z0F1200
G1 X75.101Y52.488Z0F1200
G1 X75.217Y52.335Z0F1200
G1 X75.244Y52.272Z0F1200
G1 X75.25Y52.218Z0F1200
G1 X75.232Y52.175Z0F1200
G1 X75.188Y52.145Z0F1200
G1 X75.118Y52.127Z0F1200
G1 X75.019Y52.122Z0F1200
G1 X74.89Y52.133Z0F1200
G1 X74.73Y52.159Z0F1200
G1 X74.536Y52.201Z0F1200
G1 X74.307Y52.261Z0F1200
G1 X74.042Y52.339Z0F1200
G1 X73.739Y52.437Z0F1200
G1 X73.309Y52.427Z0F1200
G1 X72.946Y52.489Z0F1200
G1 X72.638Y52.612Z0F1200
G1 X72.376Y52.784Z0F1200
G1 X71.951Y53.229Z0F1200
G1 X71.592Y53.734Z0F1200
G1 X71.413Y53.98Z0F1200
G1 X71.221Y54.207Z0F1200
G1 X71.006Y54.403Z0F1200
G1 X70.758Y54.558Z0F1200
G1 X70.468Y54.659Z0F1200
G1 X70.126Y54.695Z0F1200
G1 X69.932Y54.686Z0F1200
G1 X69.722Y54.656Z0F1200
G1 X69.493Y54.604Z0F1200
G1 X69.246Y54.528Z0F1200
G1 X69.239Y54.66Z0F1200
G1 X69.224Y54.841Z0F1200
G1 X69.204Y55.066Z0F1200
G1 X69.177Y55.33Z0F1200
G1 X69.109Y55.952Z0F1200
G1 X69.025Y56.662Z0F1200
G1 X68.927Y57.415Z0F1200
G1 X68.822Y58.167Z0F1200
G1 X68.714Y58.874Z0F1200
G1 X68.606Y59.491Z0F1200
G1 X68.498Y60.174Z0F1200
G1 X68.321Y60.84Z0F1200
G1 X68.113Y61.499Z0F1200
G1 X67.911Y62.161Z0F1200
G0 Z2.8F500
G0 X67.464Y65.203Z2.8F1500
G1 Z0F500
G1 X67.003Y65.49Z0F1200
G1 X66.529Y65.714Z0F1200
G1 X66.044Y65.879Z0F1200
G1 X65.549Y65.995Z0F1200
G1 X65.046Y66.068Z0F1200
G1 X64.535Y66.107Z0F1200
G1 X64.018Y66.119Z0F1200
G1 X63.497Y66.11Z0F1200
G1 X62.446Y66.065Z0F1200
G1 X61.392Y66.031Z0F1200
G1 X60.867Y66.037Z0F1200
G1 X60.346Y66.069Z0F1200
G1 X59.828Y66.134Z0F1200
G1 X59.317Y66.239Z0F1200
G1 X58.575Y66.199Z0F1200
G1 X57.837Y66.179Z0F1200
G1 X57.103Y66.183Z0F1200
G1 X56.373Y66.219Z0F1200
G1 X55.648Y66.292Z0F1200
G1 X54.926Y66.408Z0F1200
G1 X54.209Y66.575Z0F1200
G1 X53.497Y66.797Z0F1200
G1 X48.778Y67.035Z0F1200
G1 X44.06Y67.328Z0F1200
G1 X39.348Y67.688Z0F1200
G1 X34.644Y68.124Z0F1200
G1 X33.695Y68.286Z0F1200
G0 Z2.8F500
G0 X29.142Y68.034Z2.8F1500
G1 Z0F500
G1 X29.19Y68.427Z0F1200
G1 X29.24Y68.789Z0F1200
G1 X29.294Y69.124Z0F1200
G1 X29.351Y69.437Z0F1200
G1 X29.481Y70.009Z0F1200
G1 X29.636Y70.535Z0F1200
G1 X29.823Y71.049Z0F1200
G1 X30.049Y71.58Z0F1200
G1 X30.318Y72.16Z0F1200
G1 X30.639Y72.821Z0F1200
G1 X30.91Y73.098Z0F1200
G1 X31.101Y73.39Z0F1200
G1 X31.224Y73.694Z0F1200
G1 X31.29Y74.005Z0F1200
G1 X31.298Y74.631Z0F1200
G1 X31.215Y75.236Z0F1200
G1 X31.17Y75.52Z0F1200
G1 X31.136Y75.786Z0F1200
G1 X31.125Y76.029Z0F1200
G1 X31.15Y76.247Z0F1200
G1 X31.221Y76.434Z0F1200
G1 X31.35Y76.586Z0F1200
G1 X31.549Y76.699Z0F1200
G1 X31.828Y76.769Z0F1200
G1 X32.574Y76.83Z0F1200
G1 X33.317Y76.8Z0F1200
G1 X34.058Y76.706Z0F1200
G1 X34.8Y76.574Z0F1200
G1 X35.543Y76.431Z0F1200
G1 X36.29Y76.303Z0F1200
G1 X37.041Y76.217Z0F1200
G1 X37.8Y76.2Z0F1200
G1 X38.975Y76.009Z0F1200
G0 Z2.8F500
G0 X38.56Y75.711Z2.8F1500
G1 Z0F500
G1 X38.774Y80.351Z0F1200
G1 X38.959Y84.987Z0F1200
G1 X38.982Y87.303Z0F1200
G1 X38.927Y89.619Z0F1200
G1 X38.863Y90.776Z0F1200
G1 X38.771Y91.933Z0F1200
G1 X38.648Y93.091Z0F1200
G1 X38.49Y94.248Z0F1200
G0 Z2.8F500
G0 X38.769Y94.527Z2.8F1500
G1 Z0F500
G1 X43.679Y90.135Z0F1200
G0 Z2.8F500
G0 X43.144Y89.6Z2.8F1500
G1 Z0F500
G1 X42.989Y94.096Z0F1200
G0 Z2.8F500
G0 X45.643Y94.426Z2.8F1500
G1 Z0F500
G1 X45.82Y89.952Z0F1200
G0 Z2.8F500
G0 X49.026Y90.832Z2.8F1500
G1 Z0F500
G1 X48.962Y95.42Z0F1200
G0 Z2.8F500
G0 X50.473Y94.606Z2.8F1500
G1 Z0F500
G1 X50.543Y90.025Z0F1200
G0 Z2.8F500
G0 X52.248Y89.404Z2.8F1500
G1 Z0F500
G1 X51.998Y93.806Z0F1200
G0 Z2.8F500
G0 X54.326Y93.809Z2.8F1500
G1 Z0F500
G1 X54.222Y89.053Z0F1200
G0 Z2.8F500
G0 X53.639Y87.656Z2.8F1500
G1 Z0F500
G1 X48.921Y92.239Z0F1200
G0 Z2.8F500
G0 X46.345Y93.384Z2.8F1500
G1 Z0F500
G1 X50.144Y92.591Z0F1200
G1 X53.964Y91.789Z0F1200
G1 X54.908Y91.556Z0F1200
G1 X55.844Y91.302Z0F1200
G1 X56.771Y91.023Z0F1200
G1 X57.685Y90.714Z0F1200
G1 X58.586Y90.373Z0F1200
G1 X59.472Y89.993Z0F1200
G1 X60.34Y89.572Z0F1200
G1 X61.19Y89.106Z0F1200
G1 X61.622Y88.81Z0F1200
G1 X62.052Y88.481Z0F1200
G1 X62.474Y88.122Z0F1200
G1 X62.881Y87.735Z0F1200
G1 X63.269Y87.323Z0F1200
G1 X63.632Y86.887Z0F1200
G1 X63.963Y86.432Z0F1200
G1 X64.256Y85.958Z0F1200
G1 X64.507Y85.47Z0F1200
G1 X64.708Y84.969Z0F1200
G1 X64.855Y84.457Z0F1200
G1 X64.941Y83.939Z0F1200
G1 X64.961Y83.415Z0F1200
G1 X64.909Y82.888Z0F1200
G1 X64.778Y82.362Z0F1200
G1 X64.564Y81.838Z0F1200
G1 X62.855Y80.129Z0F1200
G0 Z2.8F500
G0 X63.793Y80.835Z2.8F1500
G1 Z0F500
G1 X63.5Y80.697Z0F1200
G1 X63.22Y80.586Z0F1200
G1 X62.951Y80.502Z0F1200
G1 X62.694Y80.443Z0F1200
G1 X62.203Y80.398Z0F1200
G1 X61.734Y80.444Z0F1200
G1 X61.275Y80.575Z0F1200
G1 X60.814Y80.784Z0F1200
G1 X60.337Y81.064Z0F1200
G1 X59.833Y81.408Z0F1200
G0 Z2.8F500
G0 X60.616Y80.098Z2.8F1500
G1 Z0F500
G1 X60.341Y80.344Z0F1200
G1 X60.13Y80.624Z0F1200
G1 X59.973Y80.93Z0F1200
G1 X59.86Y81.258Z0F1200
G1 X59.724Y81.951Z0F1200
G1 X59.643Y82.65Z0F1200
G1 X59.598Y82.987Z0F1200
G1 X59.537Y83.306Z0F1200
G1 X59.45Y83.6Z0F1200
G1 X59.327Y83.865Z0F1200
G1 X59.157Y84.093Z0F1200
G1 X58.932Y84.278Z0F1200
G1 X58.64Y84.414Z0F1200
G1 X58.272Y84.493Z0F1200
G1 X54.075Y85.999Z0F1200
G0 Z2.8F500
G0 X55.441Y87.947Z2.8F1500
G1 Z0F500
G1 X55.435Y92.592Z0F1200
G0 Z2.8F500
G0 X55.21Y93.879Z2.8F1500
G1 Z0F500
G1 X56.254Y92.594Z0F1200
G1 X57.327Y91.342Z0F1200
G1 X58.429Y90.123Z0F1200
G1 X59.561Y88.934Z0F1200
G1 X60.724Y87.776Z0F1200
G1 X61.919Y86.648Z0F1200
G1 X63.148Y85.548Z0F1200
G1 X64.41Y84.475Z0F1200
G0 Z2.8F500
G0 X63.572Y84.451Z2.8F1500
G1 Z0F500
G1 X63.489Y89.02Z0F1200
G0 Z2.8F500
G0 X65.044Y88.249Z2.8F1500
G1 Z0F500
G1 X64.977Y83.531Z0F1200
G0 Z2.8F500
G0 X62.89Y87.257Z2.8F1500
G1 Z0F500
G1 X62.028Y88.01Z0F1200
G1 X61.123Y88.681Z0F1200
G1 X60.179Y89.277Z0F1200
G1 X59.2Y89.803Z0F1200
G1 X58.191Y90.268Z0F1200
G1 X57.154Y90.677Z0F1200
G1 X56.094Y91.038Z0F1200
G1 X55.016Y91.358Z0F1200
G1 X52.818Y91.899Z0F1200
G1 X50.594Y92.356Z0F1200
G1 X48.375Y92.782Z0F1200
G1 X46.194Y93.233Z0F1200
G1 X43.36Y93.565Z0F1200
G1 X40.504Y93.992Z0F1200
G1 X39.791Y94.072Z0F1200
G1 X39.079Y94.132Z0F1200
G1 X38.368Y94.166Z0F1200
G1 X37.66Z0F1200
G1 X36.955Y94.132Z0F1200
G1 X36.253Y94.055Z0F1200
G1 X35.554Y93.929Z0F1200
G1 X34.86Y93.75Z0F1200
G1 X34.294Y93.528Z0F1200
G1 X33.747Y93.274Z0F1200
G1 X33.219Y92.991Z0F1200
G1 X32.708Y92.68Z0F1200
G1 X32.214Y92.343Z0F1200
G1 X31.736Y91.983Z0F1200
G1 X31.275Y91.602Z0F1200
G1 X30.828Y91.201Z0F1200
G1 X29.977Y90.349Z0F1200
G1 X29.178Y89.444Z0F1200
G1 X28.425Y88.501Z0F1200
G1 X27.714Y87.538Z0F1200
G1 X27.943Y87.255Z0F1200
G1 X28.124Y86.957Z0F1200
G1 X28.263Y86.647Z0F1200
G1 X28.367Y86.326Z0F1200
G1 X28.494Y85.658Z0F1200
G1 X28.559Y84.967Z0F1200
G1 X28.614Y84.268Z0F1200
G1 X28.71Y83.575Z0F1200
G1 X28.791Y83.235Z0F1200
G1 X28.902Y82.901Z0F1200
G1 X29.049Y82.575Z0F1200
G1 X29.24Y82.26Z0F1200
G1 X29.298Y81.866Z0F1200
G1 X29.414Y81.521Z0F1200
G1 X29.58Y81.219Z0F1200
G1 X29.79Y80.954Z0F1200
G1 X30.037Y80.721Z0F1200
G1 X30.315Y80.514Z0F1200
G1 X30.616Y80.326Z0F1200
G1 X30.933Y80.154Z0F1200
G1 X31.59Y79.83Z0F1200
G1 X32.23Y79.498Z0F1200
G1 X32.527Y79.315Z0F1200
G1 X32.798Y79.112Z0F1200
G1 X33.039Y78.885Z0F1200
G1 X33.24Y78.627Z0F1200
G1 X33.406Y78.252Z0F1200
G1 X33.511Y77.9Z0F1200
G1 X33.563Y77.568Z0F1200
G1 X33.57Y77.252Z0F1200
G1 X33.537Y76.951Z0F1200
G1 X33.472Y76.66Z0F1200
G1 X33.383Y76.378Z0F1200
G1 X33.275Y76.101Z0F1200
G1 X33.033Y75.55Z0F1200
G1 X32.804Y74.984Z0F1200
G1 X32.711Y74.688Z0F1200
G1 X32.642Y74.38Z0F1200
G1 X32.604Y74.056Z0F1200
G1 Y73.713Z0F1200
G1 X32.626Y69.984Z0F1200
G1 X32.655Y66.253Z0F1200
G1 X32.728Y64.392Z0F1200
G1 X32.868Y62.535Z0F1200
G1 X32.97Y61.609Z0F1200
G1 X33.097Y60.685Z0F1200
G1 X33.253Y59.762Z0F1200
G1 X33.439Y58.842Z0F1200
G1 X33.491Y58.065Z0F1200
G1 X33.47Y57.274Z0F1200
G1 X33.406Y56.475Z0F1200
G1 X33.329Y55.676Z0F1200
G1 X33.269Y54.885Z0F1200
G1 X33.255Y54.107Z0F1200
G1 X33.275Y53.727Z0F1200
G1 X33.317Y53.352Z0F1200
G1 X33.386Y52.985Z0F1200
G1 X33.485Y52.626Z0F1200
G1 X33.7Y52.504Z0F1200
G1 X33.881Y52.38Z0F1200
G1 X34.032Y52.254Z0F1200
G1 X34.154Y52.126Z0F1200
G1 X34.32Y51.863Z0F1200
G1 X34.397Y51.592Z0F1200
G1 X34.402Y51.313Z0F1200
G1 X34.352Y51.027Z0F1200
G1 X34.264Y50.735Z0F1200
G1 X34.041Y50.13Z0F1200
G1 X33.94Y49.82Z0F1200
G1 X33.869Y49.504Z0F1200
G1 X33.844Y49.183Z0F1200
G1 X33.883Y48.858Z0F1200
G1 X34.002Y48.529Z0F1200
G1 X34.098Y48.363Z0F1200
G1 X34.219Y48.196Z0F1200
G1 X34.37Y48.029Z0F1200
G1 X34.551Y47.86Z0F1200
G1 X34.682Y47.65Z0F1200
G1 X34.778Y47.45Z0F1200
G1 X34.842Y47.259Z0F1200
G1 X34.877Y47.077Z0F1200
G1 X34.867Y46.74Z0F1200
G1 X34.768Y46.435Z0F1200
G1 X34.598Y46.16Z0F1200
G1 X34.377Y45.912Z0F1200
G1 X34.124Y45.687Z0F1200
G1 X33.859Y45.483Z0F1200
G1 X33.601Y45.298Z0F1200
G1 X33.369Y45.127Z0F1200
G1 X33.183Y44.969Z0F1200
G1 X33.061Y44.821Z0F1200
G1 X33.031Y44.75Z0F1200
G1 X33.024Y44.68Z0F1200
G1 X33.043Y44.611Z0F1200
G1 X33.09Y44.542Z0F1200
G1 X33.168Y44.474Z0F1200
G1 X33.279Y44.406Z0F1200
G1 X33.425Y44.337Z0F1200
G1 X33.61Y44.268Z0F1200
G1 X33.943Y43.924Z0F1200
G1 X34.213Y43.558Z0F1200
G1 X34.426Y43.173Z0F1200
G1 X34.592Y42.772Z0F1200
G1 X34.716Y42.356Z0F1200
G1 X34.808Y41.929Z0F1200
G1 X34.875Y41.492Z0F1200
G1 X34.925Y41.049Z0F1200
G1 X35.005Y40.151Z0F1200
G1 X35.108Y39.256Z0F1200
G1 X35.189Y38.815Z0F1200
G1 X35.299Y38.383Z0F1200
G1 X35.446Y37.961Z0F1200
G1 X35.639Y37.552Z0F1200
G1 X35.371Y37.287Z0F1200
G1 X35.171Y37.009Z0F1200
G1 X35.029Y36.72Z0F1200
G1 X34.938Y36.423Z0F1200
G1 X34.889Y36.118Z0F1200
G1 X34.875Y35.81Z0F1200
G1 X34.887Y35.498Z0F1200
G1 X34.918Y35.186Z0F1200
G1 X35Y34.568Z0F1200
G1 X35.059Y33.973Z0F1200
G1 Y33.689Z0F1200
G1 X35.028Y33.417Z0F1200
G1 X34.959Y33.158Z0F1200
G1 X34.843Y32.915Z0F1200
G1 X34.604Y32.908Z0F1200
G1 X34.387Y32.885Z0F1200
G1 X34.192Y32.846Z0F1200
G1 X34.018Y32.792Z0F1200
G1 X33.728Y32.644Z0F1200
G1 X33.51Y32.446Z0F1200
G1 X33.358Y32.205Z0F1200
G1 X33.264Y31.927Z0F1200
G1 X33.223Y31.618Z0F1200
G1 X33.226Y31.286Z0F1200
G1 X33.341Y30.574Z0F1200
G1 X33.553Y29.843Z0F1200
G1 X33.807Y29.143Z0F1200
G1 X34.05Y28.526Z0F1200
G1 X34.308Y28.393Z0F1200
G1 X34.522Y28.226Z0F1200
G1 X34.694Y28.028Z0F1200
G1 X34.829Y27.803Z0F1200
G1 X34.931Y27.554Z0F1200
G1 X35.004Y27.283Z0F1200
G1 X35.052Y26.994Z0F1200
G1 X35.08Y26.69Z0F1200
G1 X35.069Y25.379Z0F1200
G1 X35.061Y24.066Z0F1200
G1 X35.15Y23.781Z0F1200
G1 X35.274Y23.476Z0F1200
G1 X35.431Y23.157Z0F1200
G1 X35.617Y22.831Z0F1200
G1 X36.059Y22.184Z0F1200
G1 X36.569Y21.592Z0F1200
G1 X36.84Y21.334Z0F1200
G1 X37.118Y21.109Z0F1200
G1 X37.397Y20.926Z0F1200
G1 X37.675Y20.791Z0F1200
G1 X37.947Y20.711Z0F1200
G1 X38.21Y20.693Z0F1200
G1 X38.46Y20.743Z0F1200
G1 X38.692Y20.869Z0F1200
G1 X38.304Y20.915Z0F1200
G1 X37.866Y21.041Z0F1200
G1 X37.395Y21.247Z0F1200
G1 X36.91Y21.534Z0F1200
G1 X36.427Y21.902Z0F1200
G1 X35.966Y22.349Z0F1200
G1 X35.543Y22.877Z0F1200
G1 X35.177Y23.484Z0F1200
G0 Z2.8F500
G0 X36.656Y27.289Z2.8F1500
G1 Z0F500
G1 X36.768Y29.59Z0F1200
G1 X36.796Y31.884Z0F1200
G1 X36.774Y33.031Z0F1200
G1 X36.725Y34.177Z0F1200
G1 X36.647Y35.325Z0F1200
G1 X36.538Y36.474Z0F1200
G0 Z2.8F500
G0 X38.426Y37.433Z2.8F1500
G1 Z0F500
G1 X38.311Y37.246Z0F1200
G1 X38.186Y37.085Z0F1200
G1 X38.052Y36.949Z0F1200
G1 X37.909Y36.835Z0F1200
G1 X37.6Y36.671Z0F1200
G1 X37.267Y36.58Z0F1200
G1 X36.917Y36.55Z0F1200
G1 X36.557Y36.569Z0F1200
G1 X36.192Y36.626Z0F1200
G1 X35.831Y36.707Z0F1200
G1 X35.479Y36.801Z0F1200
G1 X35.144Y36.896Z0F1200
G1 X34.832Y36.98Z0F1200
G1 X34.551Y37.04Z0F1200
G1 X34.306Y37.064Z0F1200
G1 X34.105Y37.041Z0F1200
G1 X33.954Y36.957Z0F1200
G1 X33.861Y36.802Z0F1200
G1 X33.791Y36.511Z0F1200
G1 X33.778Y36.226Z0F1200
G1 X33.813Y35.948Z0F1200
G1 X33.882Y35.677Z0F1200
G1 X34.081Y35.162Z0F1200
G1 X34.284Y34.684Z0F1200
G1 X34.358Y34.461Z0F1200
G1 X34.399Y34.249Z0F1200
G1 X34.396Y34.049Z0F1200
G1 X34.337Y33.861Z0F1200
G1 X34.21Y33.687Z0F1200
G1 X34.005Y33.526Z0F1200
G1 X33.869Y33.451Z0F1200
G1 X33.709Y33.379Z0F1200
G1 X33.524Y33.311Z0F1200
G1 X33.312Y33.247Z0F1200
G0 Z2.8F500
G0 X32.194Y30.849Z2.8F1500
G1 Z0F500
G1 X32.956Y30.712Z0F1200
G1 X33.664Y30.538Z0F1200
G1 X33.984Y30.432Z0F1200
G1 X34.274Y30.31Z0F1200
G1 X34.528Y30.171Z0F1200
G1 X34.742Y30.012Z0F1200
G1 X34.909Y29.832Z0F1200
G1 X35.025Y29.628Z0F1200
G1 X35.083Y29.398Z0F1200
G1 X35.079Y29.141Z0F1200
G1 X35.007Y28.854Z0F1200
G1 X34.861Y28.535Z0F1200
G1 X34.636Y28.182Z0F1200
G1 X34.327Y27.793Z0F1200
G1 X34.246Y27.547Z0F1200
G1 X34.166Y27.342Z0F1200
G1 X34.086Y27.175Z0F1200
G1 X34.007Y27.044Z0F1200
G1 X33.928Y26.949Z0F1200
G1 X33.851Y26.885Z0F1200
G1 X33.774Y26.853Z0F1200
G1 X33.697Y26.849Z0F1200
G1 X33.548Y26.92Z0F1200
G1 X33.402Y27.084Z0F1200
G1 X33.261Y27.324Z0F1200
G1 X33.125Y27.625Z0F1200
G1 X32.868Y28.349Z0F1200
G1 X32.637Y29.134Z0F1200
G1 X32.434Y29.856Z0F1200
G1 X32.344Y30.154Z0F1200
G1 X32.263Y30.39Z0F1200
G1 X31.39Y33.22Z0F1200
G1 X30.558Y36.057Z0F1200
G1 X29.71Y38.886Z0F1200
G1 X28.789Y41.696Z0F1200
G1 X28.341Y43.585Z0F1200
G1 X27.857Y45.465Z0F1200
G1 X27.307Y47.326Z0F1200
G1 X26.664Y49.158Z0F1200
G1 X26.78Y49.247Z0F1200
G1 X26.887Y49.307Z0F1200
G1 X26.985Y49.338Z0F1200
G1 X27.075Y49.344Z0F1200
G1 X27.231Y49.281Z0F1200
G1 X27.36Y49.131Z0F1200
G1 X27.466Y48.906Z0F1200
G1 X27.552Y48.619Z0F1200
G1 X27.623Y48.28Z0F1200
G1 X27.684Y47.904Z0F1200
G1 X27.786Y47.086Z0F1200
G1 X27.893Y46.262Z0F1200
G1 X27.958Y45.879Z0F1200
G1 X28.036Y45.531Z0F1200
G1 X28.131Y45.231Z0F1200
G1 X28.247Y44.991Z0F1200
G1 X29.267Y41.86Z0F1200
G1 X30.374Y38.75Z0F1200
G1 X31.006Y37.232Z0F1200
G1 X31.714Y35.752Z0F1200
G1 X32.102Y35.031Z0F1200
G1 X32.515Y34.324Z0F1200
G1 X32.957Y33.632Z0F1200
G1 X33.429Y32.958Z0F1200
G1 X33.652Y32.256Z0F1200
G1 X33.949Y31.592Z0F1200
G1 X34.305Y30.96Z0F1200
G1 X34.703Y30.349Z0F1200
G1 X35.562Y29.161Z0F1200
G1 X36.395Y27.959Z0F1200
G1 X36.217Y27.944Z0F1200
G1 X36.059Y27.952Z0F1200
G1 X35.919Y27.98Z0F1200
G1 X35.796Y28.028Z0F1200
G1 X35.598Y28.179Z0F1200
G1 X35.453Y28.393Z0F1200
G1 X35.353Y28.66Z0F1200
G1 X35.287Y28.971Z0F1200
G1 X35.247Y29.315Z0F1200
G1 X35.221Y29.683Z0F1200
G1 X35.174Y30.448Z0F1200
G1 X35.071Y31.185Z0F1200
G1 X34.973Y31.519Z0F1200
G1 X34.831Y31.815Z0F1200
G1 X34.635Y32.064Z0F1200
G1 X34.377Y32.256Z0F1200
G1 X34.039Y33.597Z0F1200
G1 X33.628Y34.98Z0F1200
G1 X33.479Y35.669Z0F1200
G1 X33.412Y36.345Z0F1200
G1 X33.42Y36.677Z0F1200
G1 X33.461Y37.002Z0F1200
G1 X33.539Y37.321Z0F1200
G1 X33.659Y37.632Z0F1200
G1 X33.852Y37.776Z0F1200
G1 X34.014Y37.918Z0F1200
G1 X34.147Y38.057Z0F1200
G1 X34.252Y38.195Z0F1200
G1 X34.39Y38.463Z0F1200
G1 X34.442Y38.723Z0F1200
G1 X34.426Y38.975Z0F1200
G1 X34.357Y39.219Z0F1200
G1 X34.25Y39.457Z0F1200
G1 X34.123Y39.687Z0F1200
G1 X33.992Y39.91Z0F1200
G1 X33.871Y40.127Z0F1200
G1 X33.778Y40.338Z0F1200
G1 X33.728Y40.543Z0F1200
G1 X33.737Y40.743Z0F1200
G1 X33.822Y40.937Z0F1200
G1 X33.898Y41.032Z0F1200
G1 X33.998Y41.126Z0F1200
G1 X34.125Y41.219Z0F1200
G1 X34.281Y41.311Z0F1200
G1 X34.29Y41.755Z0F1200
G1 X34.239Y42.133Z0F1200
G1 X34.142Y42.452Z0F1200
G1 X34.014Y42.719Z0F1200
G1 X33.869Y42.941Z0F1200
G1 X33.72Y43.126Z0F1200
G1 X33.581Y43.279Z0F1200
G1 X33.467Y43.408Z0F1200
G1 X33.392Y43.52Z0F1200
G1 X33.37Y43.622Z0F1200
G1 X33.414Y43.721Z0F1200
G1 X33.539Y43.824Z0F1200
G1 X33.637Y43.879Z0F1200
G1 X33.76Y43.937Z0F1200
G1 X33.91Y44Z0F1200
G1 X34.089Y44.068Z0F1200
G1 X34.298Y44.142Z0F1200
G1 X34.541Y44.223Z0F1200
G1 X34.817Y44.313Z0F1200
G1 X35.129Y44.411Z0F1200
G1 X35.364Y44.456Z0F1200
G1 X35.552Y44.507Z0F1200
G1 X35.696Y44.564Z0F1200
G1 X35.801Y44.625Z0F1200
G1 X35.869Y44.692Z0F1200
G1 X35.903Y44.763Z0F1200
G1 X35.907Y44.839Z0F1200
G1 X35.882Y44.919Z0F1200
G1 X35.764Y45.09Z0F1200
G1 X35.573Y45.276Z0F1200
G1 X35.335Y45.475Z0F1200
G1 X35.074Y45.684Z0F1200
G1 X34.816Y45.901Z0F1200
G1 X34.585Y46.126Z0F1200
G1 X34.406Y46.355Z0F1200
G1 X34.306Y46.588Z0F1200
G1 X34.292Y46.705Z0F1200
G1 X34.308Y46.823Z0F1200
G1 X34.355Y46.94Z0F1200
G1 X34.437Y47.056Z0F1200
G1 X34.558Y47.173Z0F1200
G1 X34.72Y47.288Z0F1200
G1 X34.926Y47.402Z0F1200
G1 X35.18Y47.515Z0F1200
G1 X34.901Y47.734Z0F1200
G1 X34.688Y47.95Z0F1200
G1 X34.536Y48.164Z0F1200
G1 X34.436Y48.379Z0F1200
G1 X34.382Y48.595Z0F1200
G1 X34.367Y48.815Z0F1200
G1 X34.384Y49.041Z0F1200
G1 X34.425Y49.274Z0F1200
G1 X34.555Y49.768Z0F1200
G1 X34.699Y50.311Z0F1200
G1 X34.759Y50.605Z0F1200
G1 X34.802Y50.917Z0F1200
G1 X34.821Y51.248Z0F1200
G1 X34.808Y51.6Z0F1200
G1 X34.511Y55.036Z0F1200
G1 X34.169Y58.472Z0F1200
G1 X33.965Y60.187Z0F1200
G1 X33.733Y61.898Z0F1200
G1 X33.466Y63.605Z0F1200
G1 X33.157Y65.306Z0F1200
G1 X33.263Y65.466Z0F1200
G1 X33.364Y65.664Z0F1200
G1 X33.46Y65.896Z0F1200
G1 X33.548Y66.158Z0F1200
G1 X33.694Y66.75Z0F1200
G1 X33.787Y67.404Z0F1200
G1 X33.811Y68.082Z0F1200
G1 X33.751Y68.747Z0F1200
G1 X33.686Y69.063Z0F1200
G1 X33.594Y69.362Z0F1200
G1 X33.473Y69.639Z0F1200
G1 X33.323Y69.89Z0F1200
G1 X33.256Y70.719Z0F1200
G1 X33.179Y71.541Z0F1200
G1 X33.073Y72.35Z0F1200
G1 X32.92Y73.142Z0F1200
G1 X32.703Y73.913Z0F1200
G1 X32.404Y74.656Z0F1200
G1 X32.217Y75.016Z0F1200
G1 X32.003Y75.368Z0F1200
G1 X31.76Y75.711Z0F1200
G1 X31.262Y76.313Z0F1200
G1 X31.011Y76.557Z0F1200
G1 X30.738Y76.779Z0F1200
G1 X30.449Y76.984Z0F1200
G1 X29.842Y77.365Z0F1200
G1 X29.238Y77.741Z0F1200
G1 X28.95Y77.94Z0F1200
G1 X28.68Y78.152Z0F1200
G1 X28.433Y78.384Z0F1200
G1 X28.214Y78.64Z0F1200
G1 X28.03Y78.925Z0F1200
G1 X27.886Y79.244Z0F1200
G1 X27.788Y79.603Z0F1200
G1 X27.741Y80.006Z0F1200
G1 X27.389Y81.129Z0F1200
G1 X27.109Y82.3Z0F1200
G1 X27.005Y82.896Z0F1200
G1 X26.932Y83.495Z0F1200
G1 X26.892Y84.092Z0F1200
G1 X26.889Y84.686Z0F1200
G1 X26.929Y85.273Z0F1200
G1 X27.014Y85.85Z0F1200
G1 X27.148Y86.413Z0F1200
G1 X27.336Y86.96Z0F1200
G1 X27.582Y87.487Z0F1200
G1 X27.889Y87.99Z0F1200
G1 X28.262Y88.468Z0F1200
G1 X28.704Y88.916Z0F1200
G1 X29.314Y89.594Z0F1200
G1 X29.97Y90.21Z0F1200
G1 X30.665Y90.771Z0F1200
G1 X31.393Y91.286Z0F1200
G1 X32.925Y92.216Z0F1200
G1 X34.521Y93.068Z0F1200
G0 Z2.8F500
G0 X36.659Y94.742Z2.8F1500
G1 Z0F500
G1 X36.635Y91.176Z0F1200
G1 X36.539Y87.613Z0F1200
G1 X36.428Y84.05Z0F1200
G1 X36.358Y80.485Z0F1200
G0 Z2.8F500
G0 X36.406Y81.93Z2.8F1500
G1 Z0F500
G1 X37.352Y80.11Z0F1200
G1 X38.301Y78.243Z0F1200
G1 X38.809Y77.34Z0F1200
G1 X39.357Y76.48Z0F1200
G1 X39.65Y76.073Z0F1200
G1 X39.958Y75.683Z0F1200
G1 X40.283Y75.314Z0F1200
G1 X40.626Y74.968Z0F1200
G1 X41.914Y74.728Z0F1200
G1 X43.208Y74.522Z0F1200
G1 X44.506Y74.342Z0F1200
G1 X45.807Y74.183Z0F1200
G1 X48.416Y73.904Z0F1200
G1 X51.025Y73.634Z0F1200
G1 X53.626Y73.325Z0F1200
G1 X56.209Y72.927Z0F1200
G1 X57.492Y72.68Z0F1200
G1 X58.768Y72.393Z0F1200
G1 X60.035Y72.058Z0F1200
G1 X61.293Y71.671Z0F1200
G1 X61.772Y71.577Z0F1200
G1 X62.239Y71.44Z0F1200
G1 X62.697Y71.268Z0F1200
G1 X63.147Y71.068Z0F1200
G1 X64.034Y70.62Z0F1200
G1 X64.914Y70.156Z0F1200
G1 X65.358Y69.937Z0F1200
G1 X65.807Y69.738Z0F1200
G1 X66.262Y69.566Z0F1200
G1 X66.727Y69.429Z0F1200
G1 X67.203Y69.334Z0F1200
G1 X67.692Y69.29Z0F1200
G1 X68.197Y69.303Z0F1200
G1 X68.719Y69.383Z0F1200
G1 X69.019Y69.329Z0F1200
G1 X69.35Z0F1200
G1 X69.704Y69.373Z0F1200
G1 X70.076Y69.449Z0F1200
G1 X70.846Y69.659Z0F1200
G1 X71.609Y69.875Z0F1200
G1 X71.972Y69.96Z0F1200
G1 X72.315Y70.016Z0F1200
G1 X72.63Y70.032Z0F1200
G1 X72.912Y69.998Z0F1200
G1 X73.154Y69.903Z0F1200
G1 X73.35Y69.738Z0F1200
G1 X73.429Y69.626Z0F1200
G1 X73.494Y69.492Z0F1200
G1 X73.544Y69.335Z0F1200
G1 X73.578Y69.154Z0F1200
G1 X74.239Y65.817Z0F1200
G0 Z2.8F500
G0 X74.316Y70.545Z2.8F1500
G1 Z0F500
G1 X77.82Y70.993Z0F1200
G1 X81.313Y71.523Z0F1200
G1 X84.801Y72.068Z0F1200
G1 X88.29Y72.565Z0F1200
G1 X89.636Y72.819Z0F1200
G1 X90.991Y73.035Z0F1200
G1 X92.354Y73.216Z0F1200
G1 X93.721Y73.363Z0F1200
G1 X95.092Y73.48Z0F1200
G1 X96.462Y73.567Z0F1200
G1 X97.83Y73.627Z0F1200
G1 X99.194Y73.662Z0F1200
G1 X99.695Y73.577Z0F1200
G1 X100.167Y73.435Z0F1200
G1 X100.613Y73.241Z0F1200
G1 X101.035Y73Z0F1200
G1 X101.435Y72.717Z0F1200
G1 X101.815Y72.399Z0F1200
G1 X102.177Y72.049Z0F1200
G1 X102.522Y71.675Z0F1200
G1 X103.783Y70.029Z0F1200
G1 X104.948Y68.406Z0F1200
G1 X105.832Y67.069Z0F1200
G0 Z2.8F500
G0 X104.809Y74.534Z2.8F1500
G1 Z0F500
G1 X104.59Y78.967Z0F1200
G0 Z2.8F500
G0 X105.956Y79.519Z2.8F1500
G1 Z0F500
G1 X108.598Y77.517Z0F1200
G1 X111.222Y75.494Z0F1200
G1 X113.829Y73.448Z0F1200
G1 X116.419Y71.38Z0F1200
G0 Z2.8F500
G0 X115.46Y71.118Z2.8F1500
G1 Z0F500
G1 X114.706Y71.406Z0F1200
G1 X113.998Y71.752Z0F1200
G1 X113.338Y72.155Z0F1200
G1 X112.724Y72.615Z0F1200
G1 X112.156Y73.13Z0F1200
G1 X111.634Y73.702Z0F1200
G1 X111.157Y74.328Z0F1200
G1 X110.724Y75.01Z0F1200
G1 X110.254Y75.49Z0F1200
G1 X109.733Y75.924Z0F1200
G1 X109.195Y76.341Z0F1200
G1 X108.675Y76.773Z0F1200
G0 Z2.8F500
G0 X108.022Y77.4Z2.8F1500
G1 Z0F500
G1 X108.853Y76.893Z0F1200
G1 X109.648Y76.344Z0F1200
G1 X110.407Y75.756Z0F1200
G1 X111.131Y75.13Z0F1200
G1 X111.821Y74.47Z0F1200
G1 X112.477Y73.777Z0F1200
G1 X113.099Y73.053Z0F1200
G1 X113.689Y72.301Z0F1200
G1 X114.245Y71.522Z0F1200
G1 X114.77Y70.721Z0F1200
G1 X115.263Y69.897Z0F1200
G1 X115.725Y69.055Z0F1200
G1 X116.157Y68.195Z0F1200
G1 X116.558Y67.321Z0F1200
G1 X116.93Y66.434Z0F1200
G1 X117.272Y65.536Z0F1200
G1 X117.517Y65.076Z0F1200
G1 X117.732Y64.608Z0F1200
G1 X117.92Y64.132Z0F1200
G1 X118.082Y63.649Z0F1200
G1 X118.345Y62.667Z0F1200
G1 X118.541Y61.668Z0F1200
G1 X118.825Y59.648Z0F1200
G1 X119.112Y57.646Z0F1200
G1 X119.16Y57.286Z0F1200
G1 X119.254Y57.005Z0F1200
G1 X119.393Y56.79Z0F1200
G1 X119.574Y56.632Z0F1200
G1 X119.796Y56.52Z0F1200
G1 X120.058Y56.443Z0F1200
G1 X120.357Y56.389Z0F1200
G1 X120.692Y56.349Z0F1200
G0 Z2.8F500
G0 X121.408Y53.112Z2.8F1500
G1 Z0F500
G1 X117.026Y58.032Z0F1200
G0 Z2.8F500
G0 X117.177Y60.973Z2.8F1500
G1 Z0F500
G1 X115.813Y63.762Z0F1200
G1 X114.381Y66.52Z0F1200
G1 X113.599Y67.857Z0F1200
G1 X112.75Y69.151Z0F1200
G1 X112.296Y69.778Z0F1200
G1 X111.819Y70.39Z0F1200
G1 X111.317Y70.985Z0F1200
G1 X110.788Y71.561Z0F1200
G1 X112.061Y69.564Z0F1200
G1 X113.243Y67.525Z0F1200
G1 X113.796Y66.485Z0F1200
G1 X114.321Y65.43Z0F1200
G1 X114.817Y64.357Z0F1200
G1 X115.281Y63.264Z0F1200
G0 Z2.8F500
G0 X121.136Y62.84Z2.8F1500
G1 Z0F500
G1 X120.431Y63.315Z0F1200
G1 X119.676Y63.73Z0F1200
G1 X118.909Y64.123Z0F1200
G1 X118.163Y64.532Z0F1200
G1 X117.81Y64.755Z0F1200
G1 X117.476Y64.995Z0F1200
G1 X117.165Y65.259Z0F1200
G1 X116.883Y65.55Z0F1200
G1 X116.633Y65.873Z0F1200
G1 X116.419Y66.233Z0F1200
G1 X116.247Y66.635Z0F1200
G1 X116.121Y67.084Z0F1200
G1 X115.793Y67.805Z0F1200
G1 X115.44Y68.511Z0F1200
G1 X115.064Y69.203Z0F1200
G1 X114.663Y69.88Z0F1200
G1 X114.238Y70.539Z0F1200
G1 X113.789Y71.182Z0F1200
G1 X113.317Y71.806Z0F1200
G1 X112.822Y72.411Z0F1200
G1 X112.304Y72.996Z0F1200
G1 X111.762Y73.56Z0F1200
G1 X111.199Y74.102Z0F1200
G1 X110.613Y74.622Z0F1200
G1 X110.005Y75.118Z0F1200
G1 X109.374Y75.589Z0F1200
G1 X108.722Y76.036Z0F1200
G1 X106.917Y77.162Z0F1200
G1 X105.871Y77.889Z0F1200
G1 X105.402Y78.303Z0F1200
G1 X104.978Y78.774Z0F1200
G1 X104.786Y79.037Z0F1200
G1 X104.608Y79.32Z0F1200
G1 X104.447Y79.626Z0F1200
G1 X104.301Y79.957Z0F1200
G1 X106.417Y79.519Z0F1200
G1 X108.52Y79.005Z0F1200
G1 X109.542Y78.675Z0F1200
G1 X110.531Y78.272Z0F1200
G1 X111.01Y78.038Z0F1200
G1 X111.477Y77.779Z0F1200
G1 X111.931Y77.493Z0F1200
G1 X112.37Y77.178Z0F1200
G1 X112.935Y76.896Z0F1200
G1 X113.535Y76.567Z0F1200
G1 X114.137Y76.208Z0F1200
G1 X114.708Y75.83Z0F1200
G1 X115.217Y75.449Z0F1200
G1 X115.631Y75.079Z0F1200
G1 X115.792Y74.902Z0F1200
G1 X115.917Y74.733Z0F1200
G1 X116.003Y74.573Z0F1200
G1 X116.044Y74.425Z0F1200
G1 X116.4Y73.803Z0F1200
G1 X116.764Y73.215Z0F1200
G1 X117.146Y72.657Z0F1200
G1 X117.551Y72.122Z0F1200
G1 X117.988Y71.604Z0F1200
G1 X118.464Y71.099Z0F1200
G1 X118.986Y70.601Z0F1200
G1 X119.561Y70.104Z0F1200
G1 X119.668Y69.7Z0F1200
G1 X119.738Y69.34Z0F1200
G1 X119.78Y69.017Z0F1200
G1 X119.8Y68.728Z0F1200
G1 X119.813Y68.236Z0F1200
G1 X119.844Y67.83Z0F1200
G1 X119.887Y67.649Z0F1200
G1 X119.96Y67.478Z0F1200
G1 X120.071Y67.311Z0F1200
G1 X120.228Y67.146Z0F1200
G1 X120.44Y66.977Z0F1200
G1 X120.714Y66.802Z0F1200
G1 X121.06Y66.615Z0F1200
G1 X121.486Y66.412Z0F1200
G1 X121.321Y66.421Z0F1200
G1 X121.247Y66.394Z0F1200
G1 X121.253Y66.334Z0F1200
G1 X121.326Y66.242Z0F1200
G1 X121.452Y66.118Z0F1200
G1 X121.814Y65.783Z0F1200
G1 X122.025Y65.573Z0F1200
G1 X122.238Y65.337Z0F1200
G1 X122.441Y65.076Z0F1200
G1 X122.621Y64.792Z0F1200
G1 X122.766Y64.484Z0F1200
G1 X122.862Y64.155Z0F1200
G1 X122.897Y63.806Z0F1200
G1 X122.858Y63.438Z0F1200
G1 X122.732Y63.052Z0F1200
G1 X122.859Y62.723Z0F1200
G1 X122.934Y62.415Z0F1200
G1 X122.963Y62.124Z0F1200
G1 X122.955Y61.849Z0F1200
G1 X122.856Y61.327Z0F1200
G1 X122.532Y60.308Z0F1200
G1 X122.424Y59.756Z0F1200
G1 X122.409Y59.457Z0F1200
G1 X122.43Y59.138Z0F1200
G1 X122.495Y58.796Z0F1200
G1 X122.61Y58.428Z0F1200
G1 X122.779Y58.141Z0F1200
G1 X122.92Y57.843Z0F1200
G1 X123.038Y57.537Z0F1200
G1 X123.136Y57.224Z0F1200
G1 X123.284Y56.588Z0F1200
G1 X123.391Y55.951Z0F1200
G1 X123.486Y55.33Z0F1200
G1 X123.595Y54.743Z0F1200
G1 X123.746Y54.204Z0F1200
G1 X123.966Y53.733Z0F1200
G1 X123.976Y53.456Z0F1200
G1 X123.993Y53.23Z0F1200
G1 X124.013Y53.049Z0F1200
G1 X124.062Y52.732Z0F1200
G1 Y52.686Z0F1200
G1 X124.048Y52.662Z0F1200
G1 X124.017Y52.656Z0F1200
G1 X123.965Y52.662Z0F1200
G1 X123.783Y52.694Z0F1200
G1 X123.647Y52.711Z0F1200
G1 X123.476Y52.721Z0F1200
G1 X123.266Z0F1200
G1 X123.013Y52.706Z0F1200
G1 X123.439Y51.492Z0F1200
G1 X123.776Y50.317Z0F1200
G1 X123.935Y49.724Z0F1200
G1 X124.101Y49.117Z0F1200
G1 X124.284Y48.486Z0F1200
G1 X124.493Y47.824Z0F1200
G1 X124.268Y47.718Z0F1200
G1 X124.099Y47.558Z0F1200
G1 X123.978Y47.35Z0F1200
G1 X123.899Y47.102Z0F1200
G1 X123.854Y46.821Z0F1200
G1 X123.834Y46.512Z0F1200
G1 Y46.183Z0F1200
G1 X123.865Y45.143Z0F1200
G1 X123.839Y44.471Z0F1200
G1 X123.79Y44.162Z0F1200
G1 X123.706Y43.879Z0F1200
G1 X123.579Y43.63Z0F1200
G1 X123.403Y43.422Z0F1200
G1 X123.075Y42.55Z0F1200
G1 X122.995Y42.325Z0F1200
G1 X122.876Y41.931Z0F1200
G1 X122.811Y41.564Z0F1200
G1 X122.795Y41.17Z0F1200
G1 X122.827Y40.691Z0F1200
G1 X122.859Y40.403Z0F1200
G1 X122.903Y40.073Z0F1200
G1 X123.02Y39.257Z0F1200
G1 X122.393Y37.426Z0F1200
G1 X121.712Y35.617Z0F1200
G1 X121.007Y33.815Z0F1200
G1 X120.307Y32.007Z0F1200
G1 X120.105Y31.734Z0F1200
G1 X119.877Y31.495Z0F1200
G1 X119.625Y31.286Z0F1200
G1 X119.353Y31.101Z0F1200
G1 X118.766Y30.783Z0F1200
G1 X118.145Y30.502Z0F1200
G1 X117.519Y30.217Z0F1200
G1 X116.92Y29.887Z0F1200
G1 X116.64Y29.692Z0F1200
G1 X116.377Y29.471Z0F1200
G1 X116.136Y29.219Z0F1200
G1 X115.92Y28.93Z0F1200
G1 X115.613Y28.371Z0F1200
G1 X115.272Y27.849Z0F1200
G1 X114.898Y27.364Z0F1200
G1 X114.494Y26.912Z0F1200
G1 X114.064Y26.492Z0F1200
G1 X113.608Y26.099Z0F1200
G1 X113.13Y25.734Z0F1200
G1 X112.633Y25.391Z0F1200
G1 X111.59Y24.767Z0F1200
G1 X110.498Y24.208Z0F1200
G1 X109.379Y23.694Z0F1200
G1 X108.253Y23.206Z0F1200
G0 Z2.8F500
G0 X108.331Y24.563Z2.8F1500
G1 Z0F500
G1 X108.942Y31.773Z0F1200
G1 X109.546Y38.991Z0F1200
G1 X109.654Y40.796Z0F1200
G1 X109.733Y42.602Z0F1200
G1 X109.779Y44.408Z0F1200
G1 X109.784Y46.214Z0F1200
G1 X109.745Y48.02Z0F1200
G1 X109.654Y49.827Z0F1200
G1 X109.507Y51.633Z0F1200
G1 X109.298Y53.44Z0F1200
G0 Z2.8F500
G0 X110.292Y52.109Z2.8F1500
G1 Z0F500
G1 X110.063Y49.746Z0F1200
G1 X109.895Y47.377Z0F1200
G1 X109.799Y45.006Z0F1200
G1 X109.781Y42.635Z0F1200
G1 X109.85Y40.266Z0F1200
G1 X110.016Y37.902Z0F1200
G1 X110.137Y36.723Z0F1200
G1 X110.286Y35.547Z0F1200
G1 X110.463Y34.373Z0F1200
G1 X110.669Y33.202Z0F1200
G1 X110.931Y29.489Z0F1200
G0 Z2.8F500
G0 X109.192Y30.076Z2.8F1500
G1 Z0F500
G1 X107.957Y31.183Z0F1200
G1 X106.76Y32.319Z0F1200
G1 X105.598Y33.484Z0F1200
G1 X104.472Y34.679Z0F1200
G1 X103.38Y35.906Z0F1200
G1 X102.321Y37.165Z0F1200
G1 X101.293Y38.457Z0F1200
G1 X100.296Y39.783Z0F1200
G0 Z2.8F500
G0 X100.917Y37.265Z2.8F1500
G1 Z0F500
G1 X103.228Y34.919Z0F1200
G1 X105.49Y32.53Z0F1200
G1 X107.706Y30.097Z0F1200
G1 X109.875Y27.62Z0F1200
G0 Z2.8F500
G0 X112.653Y23.072Z2.8F1500
G1 Z0F500
G1 X113.324Y23.8Z0F1200
G1 X114.05Y24.502Z0F1200
G1 X115.559Y25.878Z0F1200
G1 X116.285Y26.58Z0F1200
G1 X116.956Y27.311Z0F1200
G1 X117.262Y27.69Z0F1200
G1 X117.543Y28.082Z0F1200
G1 X117.797Y28.488Z0F1200
G1 X118.019Y28.909Z0F1200
G1 X117.928Y29.129Z0F1200
G1 X117.864Y29.332Z0F1200
G1 X117.823Y29.518Z0F1200
G1 X117.804Y29.689Z0F1200
G1 X117.828Y29.991Z0F1200
G1 X117.921Y30.246Z0F1200
G1 X118.071Y30.465Z0F1200
G1 X118.264Y30.657Z0F1200
G1 X118.488Y30.833Z0F1200
G1 X118.975Y31.174Z0F1200
G1 X119.211Y31.359Z0F1200
G1 X119.426Y31.566Z0F1200
G1 X119.605Y31.806Z0F1200
G1 X119.736Y32.088Z0F1200
G1 X119.806Y32.422Z0F1200
G1 X119.814Y32.612Z0F1200
G1 X119.802Y32.819Z0F1200
G1 X119.768Y33.043Z0F1200
G1 X119.71Y33.286Z0F1200
G1 X119.847Y34.317Z0F1200
G1 X119.995Y35.298Z0F1200
G1 X120.141Y35.748Z0F1200
G1 X120.369Y36.16Z0F1200
G1 X120.522Y36.349Z0F1200
G1 X120.706Y36.525Z0F1200
G1 X120.925Y36.688Z0F1200
G1 X121.18Y36.835Z0F1200
G0 Z2.8F500
G0 X121.03Y34.941Z2.8F1500
G1 Z0F500
G1 X121.29Y37.704Z0F1200
G1 X121.484Y40.48Z0F1200
G1 X121.548Y41.871Z0F1200
G1 X121.586Y43.261Z0F1200
G1 X121.594Y44.651Z0F1200
G1 X121.569Y46.04Z0F1200
G1 X121.508Y47.425Z0F1200
G1 X121.408Y48.807Z0F1200
G1 X121.265Y50.185Z0F1200
G1 X121.077Y51.557Z0F1200
G1 X120.84Y52.922Z0F1200
G1 X120.55Y54.28Z0F1200
G1 X120.205Y55.63Z0F1200
G1 X119.801Y56.97Z0F1200
G1 X119.631Y58.587Z0F1200
G1 X119.518Y60.207Z0F1200
G1 X119.441Y61.828Z0F1200
G1 X119.375Y63.449Z0F1200
G1 X119.299Y65.069Z0F1200
G1 X119.191Y66.687Z0F1200
G1 X119.028Y68.301Z0F1200
G1 X118.787Y69.91Z0F1200
G0 Z2.8F500
G0 X120.88Y65.026Z2.8F1500
G1 Z0F500
G1 X120.911Y63.233Z0F1200
G1 X120.992Y61.445Z0F1200
G1 X121.121Y59.661Z0F1200
G1 X121.296Y57.883Z0F1200
G1 X121.514Y56.109Z0F1200
G1 X121.771Y54.34Z0F1200
G1 X122.067Y52.576Z0F1200
G1 X122.398Y50.817Z0F1200
G1 X122.593Y49.318Z0F1200
G1 X122.714Y47.814Z0F1200
G1 X122.772Y46.305Z0F1200
G1 X122.779Y44.794Z0F1200
G1 X122.683Y41.77Z0F1200
G1 X122.517Y38.754Z0F1200
G0 Z2.8F500
G0 X119.471Y41.289Z2.8F1500
G1 Z0F500
G1 X119.617Y41.456Z0F1200
G1 X119.739Y41.661Z0F1200
G1 X119.841Y41.9Z0F1200
G1 X119.926Y42.169Z0F1200
G1 X120.054Y42.78Z0F1200
G1 X120.147Y43.458Z0F1200
G1 X120.228Y44.169Z0F1200
G1 X120.32Y44.878Z0F1200
G1 X120.446Y45.551Z0F1200
G1 X120.629Y46.152Z0F1200
G1 X120.68Y47.05Z0F1200
G1 X120.699Y47.957Z0F1200
G1 X120.688Y48.868Z0F1200
G1 X120.647Y49.779Z0F1200
G1 X120.579Y50.686Z0F1200
G1 X120.484Y51.585Z0F1200
G1 X120.363Y52.472Z0F1200
G1 X120.217Y53.342Z0F1200
G1 X120.017Y53.639Z0F1200
G1 X119.896Y53.933Z0F1200
G1 X119.841Y54.226Z0F1200
G1 X119.844Y54.517Z0F1200
G1 X119.976Y55.102Z0F1200
G1 X120.204Y55.693Z0F1200
G1 X120.444Y56.297Z0F1200
G1 X120.607Y56.921Z0F1200
G1 X120.634Y57.242Z0F1200
G1 X120.609Y57.571Z0F1200
G1 X120.522Y57.908Z0F1200
G1 X120.363Y58.254Z0F1200
G1 X119.974Y60.045Z0F1200
G1 X119.506Y61.816Z0F1200
G1 X118.963Y63.565Z0F1200
G1 X118.348Y65.29Z0F1200
G1 X117.663Y66.989Z0F1200
G1 X116.911Y68.659Z0F1200
G1 X116.097Y70.299Z0F1200
G1 X115.221Y71.905Z0F1200
G1 X115.008Y72.236Z0F1200
G1 X114.764Y72.525Z0F1200
G1 X114.492Y72.778Z0F1200
G1 X114.197Y73.002Z0F1200
G1 X113.556Y73.382Z0F1200
G1 X112.873Y73.713Z0F1200
G1 X112.182Y74.041Z0F1200
G1 X111.517Y74.412Z0F1200
G1 X111.205Y74.628Z0F1200
G1 X110.911Y74.872Z0F1200
G1 X110.641Y75.15Z0F1200
G1 X110.398Y75.468Z0F1200
G1 X110.018Y75.786Z0F1200
G1 X109.612Y76.071Z0F1200
G1 X109.186Y76.33Z0F1200
G1 X108.748Y76.573Z0F1200
G1 X107.859Y77.039Z0F1200
G1 X106.996Y77.536Z0F1200
G0 Z2.8F500
G0 X107.387Y79.439Z2.8F1500
G1 Z0F500
G1 X109.273Y78.651Z0F1200
G0 Z2.8F500
G0 X111.453Y77.925Z2.8F1500
G1 Z0F500
G1 X110.468Y78.549Z0F1200
G1 X109.453Y79.13Z0F1200
G1 X108.408Y79.65Z0F1200
G1 X107.336Y80.093Z0F1200
G1 X106.79Y80.28Z0F1200
G1 X106.236Y80.441Z0F1200
G1 X105.677Y80.575Z0F1200
G1 X105.111Y80.679Z0F1200
G1 X104.538Y80.75Z0F1200
G1 X103.959Y80.788Z0F1200
G1 X103.374Z0F1200
G1 X102.783Y80.752Z0F1200
G1 X101.734Y80.813Z0F1200
G1 X100.703Y80.78Z0F1200
G1 X99.69Y80.657Z0F1200
G1 X98.697Y80.451Z0F1200
G1 X97.725Y80.167Z0F1200
G1 X96.776Y79.81Z0F1200
G1 X95.852Y79.386Z0F1200
G1 X94.953Y78.9Z0F1200
G1 X94.081Y78.359Z0F1200
G1 X93.237Y77.766Z0F1200
G1 X92.423Y77.129Z0F1200
G1 X91.641Y76.452Z0F1200
G1 X90.891Y75.741Z0F1200
G1 X90.175Y75.001Z0F1200
G1 X89.495Y74.238Z0F1200
G1 X88.852Y73.457Z0F1200
G0 Z2.8F500
G0 X58.659Y83.723Z2.8F1500
G1 Z0F500
G1 X57.895Y84.084Z0F1200
G1 X57.118Y84.406Z0F1200
G1 X56.329Y84.69Z0F1200
G1 X55.529Y84.942Z0F1200
G1 X54.72Y85.163Z0F1200
G1 X53.903Y85.357Z0F1200
G1 X53.079Y85.526Z0F1200
G1 X52.25Y85.675Z0F1200
G1 X48.902Y86.123Z0F1200
G1 X45.564Y86.487Z0F1200
G1 X43.161Y86.228Z0F1200
G1 X40.711Y85.998Z0F1200
G1 X40.117Y85.894Z0F1200
G1 X39.536Y85.759Z0F1200
G1 X38.972Y85.585Z0F1200
G1 X38.428Y85.367Z0F1200
G1 X37.908Y85.096Z0F1200
G1 X37.414Y84.766Z0F1200
G1 X36.951Y84.372Z0F1200
G1 X36.521Y83.905Z0F1200
G0 Z2.8F500
G0 X38.261Y85.297Z2.8F1500
G1 Z0F500
G1 X37.812Y85.221Z0F1200
G1 X37.424Y85.103Z0F1200
G1 X37.094Y84.946Z0F1200
G1 X36.82Y84.755Z0F1200
G1 X36.599Y84.532Z0F1200
G1 X36.429Y84.281Z0F1200
G1 X36.308Y84.006Z0F1200
G1 X36.233Y83.71Z0F1200
G1 X36.202Y83.396Z0F1200
G1 X36.212Y83.068Z0F1200
G1 X36.261Y82.73Z0F1200
G1 X36.347Y82.385Z0F1200
G1 X36.466Y82.037Z0F1200
G1 X36.618Y81.688Z0F1200
G1 X36.799Y81.343Z0F1200
G1 X37.007Y81.005Z0F1200
G1 X37.132Y80.706Z0F1200
G1 X37.297Y80.409Z0F1200
G1 X37.493Y80.113Z0F1200
G1 X37.712Y79.818Z0F1200
G1 X38.179Y79.229Z0F1200
G1 X38.626Y78.638Z0F1200
G1 X38.819Y78.342Z0F1200
G1 X38.979Y78.044Z0F1200
G1 X39.097Y77.744Z0F1200
G1 X39.165Y77.442Z0F1200
G1 X39.172Y77.138Z0F1200
G1 X39.11Y76.83Z0F1200
G1 X38.97Y76.52Z0F1200
G1 X38.742Y76.206Z0F1200
G1 X38.697Y76.066Z0F1200
G1 X38.678Y75.939Z0F1200
G1 X38.682Y75.824Z0F1200
G1 X38.71Y75.719Z0F1200
G1 X38.829Y75.542Z0F1200
G1 X39.024Y75.402Z0F1200
G1 X39.284Y75.293Z0F1200
G1 X39.597Y75.21Z0F1200
G1 X39.955Y75.149Z0F1200
G1 X40.345Y75.104Z0F1200
G1 X42.021Y74.979Z0F1200
G1 X42.416Y74.936Z0F1200
G1 X42.779Y74.878Z0F1200
G1 X43.1Y74.799Z0F1200
G1 X43.369Y74.695Z0F1200
G1 X48.4Y73.853Z0F1200
G1 X53.45Y73.083Z0F1200
G1 X55.971Y72.687Z0F1200
G1 X58.485Y72.262Z0F1200
G1 X60.988Y71.795Z0F1200
G1 X63.476Y71.27Z0F1200
G1 X63.741Y71.103Z0F1200
G1 X64.057Y70.959Z0F1200
G1 X64.413Y70.834Z0F1200
G1 X64.796Y70.723Z0F1200
G1 X65.6Y70.519Z0F1200
G1 X66.38Y70.303Z0F1200
G1 X66.733Y70.177Z0F1200
G1 X67.046Y70.032Z0F1200
G1 X67.307Y69.862Z0F1200
G1 X67.506Y69.662Z0F1200
G1 X67.631Y69.426Z0F1200
G1 X67.672Y69.149Z0F1200
G1 X67.656Y68.994Z0F1200
G1 X67.615Y68.826Z0F1200
G1 X67.547Y68.645Z0F1200
G1 X67.451Y68.451Z0F1200
G1 X67.195Y68.124Z0F1200
G1 X67.015Y67.792Z0F1200
G1 X66.902Y67.459Z0F1200
G1 X66.848Y67.127Z0F1200
G1 X66.844Y66.799Z0F1200
G1 X66.881Y66.476Z0F1200
G1 X66.952Y66.162Z0F1200
G1 X67.047Y65.859Z0F1200
G1 X67.278Y65.297Z0F1200
G1 X67.505Y64.808Z0F1200
G1 X67.596Y64.598Z0F1200
G1 X67.661Y64.414Z0F1200
G1 X67.691Y64.259Z0F1200
G1 X67.678Y64.135Z0F1200
G1 X68.039Y63.631Z0F1200
G1 X68.332Y63.112Z0F1200
G1 X68.563Y62.578Z0F1200
G1 X68.738Y62.031Z0F1200
G1 X68.865Y61.473Z0F1200
G1 X68.948Y60.905Z0F1200
G1 X68.995Y60.329Z0F1200
G1 X69.013Y59.746Z0F1200
G1 X68.913Y57.383Z0F1200
G1 X68.852Y55.043Z0F1200
G1 X69.06Y54.368Z0F1200
G1 X69.222Y53.688Z0F1200
G1 X69.341Y53.003Z0F1200
G1 X69.417Y52.314Z0F1200
G1 X69.454Y51.621Z0F1200
G1 Y50.925Z0F1200
G1 X69.415Y50.225Z0F1200
G1 X69.345Y49.524Z0F1200
G1 X69.193Y49.31Z0F1200
G1 X69.082Y49.088Z0F1200
G1 X69.006Y48.856Z0F1200
G1 X68.96Y48.617Z0F1200
G1 X68.926Y48.116Z0F1200
G1 Y47.591Z0F1200
G1 X68.911Y47.047Z0F1200
G1 X68.826Y46.488Z0F1200
G1 X68.741Y46.205Z0F1200
G1 X68.619Y45.921Z0F1200
G1 X68.452Y45.635Z0F1200
G1 X68.236Y45.35Z0F1200
G1 X68.044Y44.986Z0F1200
G1 X67.887Y44.609Z0F1200
G1 X67.762Y44.221Z0F1200
G1 X67.664Y43.824Z0F1200
G1 X67.531Y43.011Z0F1200
G1 X67.451Y42.186Z0F1200
G1 X67.39Y41.364Z0F1200
G1 X67.311Y40.561Z0F1200
G1 X67.253Y40.171Z0F1200
G1 X67.177Y39.792Z0F1200
G1 X67.079Y39.425Z0F1200
G1 X66.954Y39.073Z0F1200
G1 X64.614Y37.464Z0F1200
G0 Z2.8F500
G0 X67.665Y42.377Z2.8F1500
G1 Z0F500
G1 X67.957Y43.081Z0F1200
G1 X68.251Y43.724Z0F1200
G1 X68.407Y44.017Z0F1200
G1 X68.574Y44.288Z0F1200
G1 X68.754Y44.537Z0F1200
G1 X68.951Y44.761Z0F1200
G1 X69.169Y44.958Z0F1200
G1 X69.411Y45.126Z0F1200
G1 X69.679Y45.263Z0F1200
G1 X69.979Y45.368Z0F1200
G1 X70.312Y45.439Z0F1200
G1 X70.681Y45.473Z0F1200
G1 X71.092Y45.469Z0F1200
G1 X71.546Y45.424Z0F1200
G1 X71.902Y45.58Z0F1200
G1 X71.977Y45.61Z0F1200
G1 X71.974Y45.607Z0F1200
G1 X71.898Y45.567Z0F1200
G1 X71.055Y45.151Z0F1200
G1 X70.811Y45.027Z0F1200
G1 X70.596Y44.914Z0F1200
G1 X70.429Y44.819Z0F1200
G1 X70.332Y44.752Z0F1200
G1 X70.316Y44.732Z0F1200
G1 X70.324Y44.723Z0F1200
G1 X70.361Z0F1200
G1 X70.427Y44.739Z0F1200
G1 X70.527Y44.768Z0F1200
G1 X70.661Y44.811Z0F1200
G1 X70.834Y44.87Z0F1200
G1 X71.047Y44.946Z0F1200
G0 Z2.8F500
G0 X68.809Y43.057Z2.8F1500
G1 Z0F500
G1 X68.884Y43.074Z0F1200
G1 X68.994Y43.068Z0F1200
G1 X69.132Y43.044Z0F1200
G1 X69.292Y43.006Z0F1200
G1 X70.018Y42.803Z0F1200
G1 X70.19Y42.761Z0F1200
G1 X70.345Y42.732Z0F1200
G1 X70.476Y42.72Z0F1200
G1 X70.579Y42.73Z0F1200
G1 X70.645Y42.765Z0F1200
G1 X70.669Y42.83Z0F1200
G1 X70.644Y42.93Z0F1200
G1 X70.565Y43.068Z0F1200
G0 Z2.8F500
G0 X66.324Y43.013Z2.8F1500
G1 Z0F500
G1 X66.466Y45.52Z0F1200
G1 X66.633Y48.024Z0F1200
G1 X66.823Y50.527Z0F1200
G1 X67.036Y53.029Z0F1200
G0 Z2.8F500
G0 X66.879Y53.686Z2.8F1500
G1 Z0F500
G1 X66.17Y53.756Z0F1200
G1 X65.478Y53.768Z0F1200
G1 X64.802Y53.724Z0F1200
G1 X64.141Y53.627Z0F1200
G1 X63.496Y53.48Z0F1200
G1 X62.864Y53.285Z0F1200
G1 X62.246Y53.046Z0F1200
G1 X61.641Y52.764Z0F1200
G1 X59.239Y52.771Z0F1200
G1 X56.837Y52.759Z0F1200
G1 X55.637Y52.765Z0F1200
G1 X54.439Y52.79Z0F1200
G1 X53.245Y52.841Z0F1200
G1 X52.054Y52.926Z0F1200
G1 X51.514Y52.765Z0F1200
G1 X50.91Y52.657Z0F1200
G1 X50.259Y52.598Z0F1200
G1 X49.579Y52.584Z0F1200
G1 X48.887Y52.613Z0F1200
G1 X48.201Y52.68Z0F1200
G1 X47.54Y52.782Z0F1200
G1 X46.921Y52.915Z0F1200
G1 X45.804Y53.001Z0F1200
G1 X44.675Y52.994Z0F1200
G1 X43.537Y52.924Z0F1200
G1 X42.393Y52.82Z0F1200
G1 X41.244Y52.71Z0F1200
G1 X40.094Y52.625Z0F1200
G1 X38.946Y52.593Z0F1200
G1 X37.802Y52.644Z0F1200
G1 X37.118Z0F1200
G1 X36.44Y52.572Z0F1200
G1 X35.09Y52.353Z0F1200
G0 Z2.8F500
G0 X33.577Y52.236Z2.8F1500
G1 Z0F500
G1 X33.605Y54.577Z0F1200
G1 X33.665Y56.925Z0F1200
G1 X33.759Y59.274Z0F1200
G1 X33.89Y61.62Z0F1200
G0 Z2.8F500
G0 X34.155Y57.349Z2.8F1500
G1 Z0F500
G1 X34.178Y55.689Z0F1200
G1 X34.249Y54.032Z0F1200
G1 X34.354Y52.379Z0F1200
G1 X34.479Y50.726Z0F1200
G1 X34.607Y49.074Z0F1200
G1 X34.724Y47.421Z0F1200
G1 X34.816Y45.765Z0F1200
G1 X34.867Y44.106Z0F1200
G0 Z2.8F500
G0 X35.837Y41.588Z2.8F1500
G1 Z0F500
G1 X35.872Y41.348Z0F1200
G1 X35.886Y41.125Z0F1200
G1 X35.88Y40.92Z0F1200
G1 X35.856Y40.731Z0F1200
G1 X35.757Y40.396Z0F1200
G1 X35.602Y40.112Z0F1200
G1 X35.404Y39.867Z0F1200
G1 X35.175Y39.655Z0F1200
G1 X34.926Y39.464Z0F1200
G1 X34.421Y39.115Z0F1200
G1 X34.188Y38.937Z0F1200
G1 X33.984Y38.744Z0F1200
G1 X33.823Y38.529Z0F1200
G1 X33.716Y38.28Z0F1200
G1 X33.675Y37.99Z0F1200
G1 X33.683Y37.827Z0F1200
G1 X33.712Y37.649Z0F1200
G1 X33.764Y37.457Z0F1200
G1 X33.84Y37.248Z0F1200
G1 X33.918Y37.015Z0F1200
G1 X33.972Y36.801Z0F1200
G1 X34.003Y36.605Z0F1200
G1 X34.014Y36.425Z0F1200
G1 X33.98Y36.109Z0F1200
G1 X33.884Y35.845Z0F1200
G1 X33.741Y35.621Z0F1200
G1 X33.565Y35.429Z0F1200
G1 X33.369Y35.259Z0F1200
G1 X33.168Y35.101Z0F1200
G1 X32.976Y34.945Z0F1200
G1 X32.807Y34.782Z0F1200
G1 X32.674Y34.603Z0F1200
G1 X32.593Y34.396Z0F1200
G1 X32.576Y34.153Z0F1200
G1 X32.639Y33.865Z0F1200
G1 X32.705Y33.7Z0F1200
G1 X32.795Y33.52Z0F1200
G1 X32.912Y33.324Z0F1200
G1 X33.058Y33.11Z0F1200
G1 X33.557Y32.646Z0F1200
G1 X34.087Y32.24Z0F1200
G1 X34.339Y32.057Z0F1200
G1 X34.569Y31.885Z0F1200
G1 X34.767Y31.723Z0F1200
G1 X34.922Y31.571Z0F1200
G1 X35.024Y31.427Z0F1200
G1 X35.064Y31.29Z0F1200
G1 X35.031Y31.16Z0F1200
G1 X34.914Y31.034Z0F1200
G1 X34.822Y30.973Z0F1200
G1 X34.705Y30.913Z0F1200
G1 X34.562Y30.853Z0F1200
G1 X34.392Y30.794Z0F1200
G1 X34.194Y30.736Z0F1200
G1 X33.966Y30.677Z0F1200
G1 X33.708Y30.619Z0F1200
G1 X33.417Y30.561Z0F1200
G0 Z2.8F500
G0 X32.087Y35.627Z2.8F1500
G1 Z0F500
G1 X31.918Y35.927Z0F1200
G1 X31.771Y36.212Z0F1200
G1 X31.646Y36.482Z0F1200
G1 X31.545Y36.74Z0F1200
G1 X31.468Y36.988Z0F1200
G1 X31.415Y37.227Z0F1200
G1 X31.388Y37.461Z0F1200
G1 Y37.689Z0F1200
G1 X31.415Y37.915Z0F1200
G1 X31.471Y38.14Z0F1200
G1 X31.555Y38.367Z0F1200
G1 X31.669Y38.597Z0F1200
G1 X31.814Y38.832Z0F1200
G1 X31.991Y39.074Z0F1200
G1 X32.199Y39.324Z0F1200
G1 X32.441Y39.586Z0F1200
G0 Z2.8F500
G0 X48.545Y39.298Z2.8F1500
G1 Z0F500
G1 X50.338Y39.464Z0F1200
G0 Z2.8F500
G0 X52.888Y38.875Z2.8F1500
G1 Z0F500
G1 X52.914Y42.508Z0F1200
G1 X53.032Y46.138Z0F1200
G1 X53.219Y49.766Z0F1200
G1 X53.449Y53.391Z0F1200
G0 Z2.8F500
G0 X55.68Y53.065Z2.8F1500
G1 Z0F500
G1 X56.353Y53.079Z0F1200
G1 X56.999Y53.155Z0F1200
G1 X58.247Y53.37Z0F1200
G1 X58.866Y53.447Z0F1200
G1 X59.494Y53.461Z0F1200
G1 X59.814Y53.435Z0F1200
G1 X60.14Y53.382Z0F1200
G1 X60.472Y53.298Z0F1200
G1 X60.812Y53.179Z0F1200
G1 X61.602Y53.218Z0F1200
G1 X62.39Y53.282Z0F1200
G1 X63.177Y53.361Z0F1200
G1 X63.963Y53.443Z0F1200
G0 Z2.8F500
G0 X68.699Y53.297Z2.8F1500
G1 Z0F500
G1 X69.11Y51.498Z0F1200
G0 Z2.8F500
G0 X89.248Y51.99Z2.8F1500
G1 Z0F500
G1 X89.232Y50.139Z0F1200
G1 X89.185Y48.29Z0F1200
G1 X89.111Y46.441Z0F1200
G1 X89.012Y44.595Z0F1200
G1 X88.753Y40.904Z0F1200
G1 X88.431Y37.217Z0F1200
G0 Z2.8F500
G0 X93.008Y37.145Z2.8F1500
G1 Z0F500
G1 X95.371Y34.856Z0F1200
G1 X97.716Y32.551Z0F1200
G1 X100.045Y30.229Z0F1200
G1 X102.357Y27.89Z0F1200
G0 Z2.8F500
G0 X103.185Y28.718Z2.8F1500
G1 Z0F500
G1 X103.156Y30.498Z0F1200
G1 X103.19Y32.273Z0F1200
G1 X103.264Y34.046Z0F1200
G1 X103.355Y35.818Z0F1200
G1 X103.44Y37.59Z0F1200
G1 X103.496Y39.363Z0F1200
G1 X103.5Y41.138Z0F1200
G1 X103.428Y42.916Z0F1200
G0 Z2.8F500
G0 X102.738Y42.11Z2.8F1500
G1 Z0F500
G1 X101.546Y42.16Z0F1200
G1 X100.354Y42.151Z0F1200
G1 X99.161Y42.107Z0F1200
G1 X97.969Y42.048Z0F1200
G1 X96.777Y41.997Z0F1200
G1 X95.586Y41.975Z0F1200
G1 X94.395Y42.005Z0F1200
G1 X93.204Y42.109Z0F1200
G0 Z2.8F500
G0 X94.571Y38.708Z2.8F1500
G1 Z0F500
G1 X94.475Y33.961Z0F1200
G0 Z2.8F500
G0 X93.403Y32.888Z2.8F1500
G1 Z0F500
G1 X98.182Y28.365Z0F1200
G0 Z2.8F500
G0 X97.275Y27.458Z2.8F1500
G1 Z0F500
G1 X97.161Y29.299Z0F1200
G1 X97.127Y31.137Z0F1200
G1 X97.163Y32.973Z0F1200
G1 X97.257Y34.807Z0F1200
G1 X97.574Y38.471Z0F1200
G1 X97.991Y42.129Z0F1200
G0 Z2.8F500
G0 X101.967Y43.781Z2.8F1500
G1 Z0F500
G1 X101.89Y41.876Z0F1200
G1 X101.769Y39.975Z0F1200
G1 X101.616Y38.077Z0F1200
G1 X101.442Y36.18Z0F1200
G1 X101.069Y32.389Z0F1200
G1 X100.734Y28.592Z0F1200
G0 Z2.8F500
G0 X104.235Y27.443Z2.8F1500
G1 Z0F500
G1 X104.356Y29.259Z0F1200
G1 X104.437Y31.077Z0F1200
G1 X104.49Y32.894Z0F1200
G1 X104.569Y36.529Z0F1200
G1 X104.621Y38.347Z0F1200
G1 X104.699Y40.164Z0F1200
G1 X104.817Y41.981Z0F1200
G0 Z2.8F500
G0 X106.55Y38.249Z2.8F1500
G1 Z0F500
G1 X107.878Y37.252Z0F1200
G1 X109.169Y36.223Z0F1200
G1 X110.424Y35.161Z0F1200
G1 X111.645Y34.064Z0F1200
G1 X112.832Y32.93Z0F1200
G1 X113.987Y31.759Z0F1200
G1 X115.111Y30.55Z0F1200
G1 X116.205Y29.3Z0F1200
G0 Z2.8F500
G0 X117.316Y29.714Z2.8F1500
G1 Z0F500
G1 X115.986Y28.334Z0F1200
G1 X114.573Y26.996Z0F1200
G1 X113.835Y26.357Z0F1200
G1 X113.075Y25.748Z0F1200
G1 X112.294Y25.173Z0F1200
G1 X111.489Y24.638Z0F1200
G1 X110.663Y24.15Z0F1200
G1 X109.812Y23.715Z0F1200
G1 X108.939Y23.338Z0F1200
G1 X108.041Y23.026Z0F1200
G1 X107.119Y22.785Z0F1200
G1 X106.172Y22.62Z0F1200
G1 X105.2Y22.538Z0F1200
G1 X104.202Y22.544Z0F1200
G1 X103.496Z0F1200
G1 X102.793Y22.59Z0F1200
G1 X101.388Y22.735Z0F1200
G0 Z2.8F500
G0 X99.089Y23.109Z2.8F1500
G1 Z0F500
G1 X98.055Y23.646Z0F1200
G1 X97.049Y24.228Z0F1200
G1 X96.07Y24.853Z0F1200
G1 X95.119Y25.52Z0F1200
G1 X94.197Y26.226Z0F1200
G1 X93.303Y26.969Z0F1200
G1 X92.439Y27.747Z0F1200
G1 X91.604Y28.557Z0F1200
G1 X90.799Y29.399Z0F1200
G1 X90.025Y30.27Z0F1200
G1 X89.281Y31.167Z0F1200
G1 X88.568Y32.089Z0F1200
G1 X87.887Y33.034Z0F1200
G1 X87.237Y34Z0F1200
G1 X86.62Y34.984Z0F1200
G1 X86.036Y35.985Z0F1200
G1 X85.921Y36.223Z0F1200
G1 X85.833Y36.44Z0F1200
G1 X85.772Y36.635Z0F1200
G1 X85.735Y36.811Z0F1200
G1 X85.722Y36.967Z0F1200
G1 X85.731Y37.105Z0F1200
G1 X85.762Y37.226Z0F1200
G1 X85.812Y37.33Z0F1200
G1 X85.967Y37.494Z0F1200
G1 X86.186Y37.604Z0F1200
G1 X86.458Y37.668Z0F1200
G1 X86.775Y37.694Z0F1200
G1 X87.499Y37.66Z0F1200
G1 X88.277Y37.565Z0F1200
G1 X88.661Y37.512Z0F1200
G1 X89.028Y37.468Z0F1200
G1 X89.368Y37.438Z0F1200
G1 X89.671Y37.431Z0F1200
G1 X91.39Y37.358Z0F1200
G1 X93.107Y37.244Z0F1200
G0 Z2.8F500
G0 X96.285Y38.097Z2.8F1500
G1 Z0F500
G1 X96.186Y33.346Z0F1200
G0 Z2.8F500
G0 X92.034Y22.216Z2.8F1500
G1 Z0F500
G1 X96.589Y17.468Z0F1200
G0 Z2.8F500
G0 X95.894Y16.774Z2.8F1500
G1 Z0F500
G1 X96.076Y12.303Z0F1200
G0 Z2.8F500
G0 X96.952Y13.18Z2.8F1500
G1 Z0F500
G1 X95.932Y14.246Z0F1200
G1 X94.882Y15.28Z0F1200
G1 X93.808Y16.288Z0F1200
G1 X92.714Y17.273Z0F1200
G1 X90.484Y19.198Z0F1200
G1 X88.226Y21.093Z0F1200
G1 X85.976Y22.996Z0F1200
G1 X83.771Y24.947Z0F1200
G1 X82.696Y25.952Z0F1200
G1 X81.645Y26.984Z0F1200
G1 X80.623Y28.047Z0F1200
G1 X79.634Y29.146Z0F1200
G1 X77.733Y31.167Z0F1200
G0 Z2.8F500
G0 X76.699Y30.133Z2.8F1500
G1 Z0F500
G1 X76.595Y28.298Z0F1200
G1 X76.533Y26.462Z0F1200
G1 X76.51Y24.627Z0F1200
G1 X76.524Y22.792Z0F1200
G1 X76.574Y20.958Z0F1200
G1 X76.657Y19.126Z0F1200
G1 X76.772Y17.296Z0F1200
G1 X76.916Y15.468Z0F1200
G1 X76.82Y11.647Z0F1200
G0 Z2.8F500
G0 X77.372Y9.874Z2.8F1500
G1 Z0F500
G1 X77.443Y12.14Z0F1200
G1 X77.474Y14.408Z0F1200
G1 X77.467Y16.677Z0F1200
G1 X77.423Y18.945Z0F1200
G1 X77.343Y21.213Z0F1200
G1 X77.227Y23.479Z0F1200
G1 X77.077Y25.742Z0F1200
G1 X76.894Y28.002Z0F1200
G0 Z2.8F500
G0 X73.629Y28.108Z2.8F1500
G1 Z0F500
G1 X75.989Y25.941Z0F1200
G1 X78.384Y23.813Z0F1200
G1 X80.812Y21.725Z0F1200
G1 X83.274Y19.676Z0F1200
G1 X85.767Y17.666Z0F1200
G1 X88.292Y15.696Z0F1200
G1 X90.847Y13.763Z0F1200
G1 X93.431Y11.87Z0F1200
G1 X94.857Y10.704Z0F1200
G1 X96.271Y9.526Z0F1200
G1 X97.703Y8.37Z0F1200
G1 X99.182Y7.27Z0F1200
G0 Z2.8F500
G0 X98.926Y8.061Z2.8F1500
G1 Z0F500
G1 X94.797Y11.565Z0F1200
G1 X90.676Y15.083Z0F1200
G1 X88.581Y16.798Z0F1200
G1 X86.444Y18.459Z0F1200
G1 X85.355Y19.263Z0F1200
G1 X84.25Y20.046Z0F1200
G1 X83.127Y20.806Z0F1200
G1 X81.985Y21.54Z0F1200
G1 X79.715Y23.25Z0F1200
G1 X77.481Y25.005Z0F1200
G1 X75.28Y26.801Z0F1200
G1 X73.109Y28.635Z0F1200
G1 X72.893Y28.142Z0F1200
G1 X72.72Y27.639Z0F1200
G1 X72.585Y27.126Z0F1200
G1 X72.486Y26.604Z0F1200
G1 X72.374Y25.539Z0F1200
G1 X72.35Y24.453Z0F1200
G1 X72.428Y22.26Z0F1200
G1 X72.451Y20.099Z0F1200
G1 X72.588Y18.54Z0F1200
G1 X72.631Y16.981Z0F1200
G1 X72.611Y15.42Z0F1200
G1 X72.509Y12.297Z0F1200
G1 X72.49Y10.736Z0F1200
G1 X72.534Y9.175Z0F1200
G1 X72.673Y7.615Z0F1200
G0 Z2.8F500
G0 X70.8Y10.276Z2.8F1500
G1 Z0F500
G1 X71.116Y15.245Z0F1200
G0 Z2.8F500
G0 X70.379Y14.042Z2.8F1500
G1 Z0F500
G1 X68.578Y13.636Z0F1200
G0 Z2.8F500
G0 X70.172Y12.556Z2.8F1500
G1 Z0F500
G1 X69.334Y12.418Z0F1200
G1 X68.494Y12.201Z0F1200
G1 X67.654Y11.951Z0F1200
G1 X66.814Y11.714Z0F1200
G1 X66.395Y11.614Z0F1200
G1 X65.977Y11.535Z0F1200
G1 X65.56Y11.482Z0F1200
G1 X65.143Y11.46Z0F1200
G1 X64.728Y11.475Z0F1200
G1 X64.313Y11.534Z0F1200
G1 X63.901Y11.641Z0F1200
G1 X63.489Y11.802Z0F1200
G1 X61.327Y11.29Z0F1200
G1 X59.146Y10.868Z0F1200
G1 X56.952Y10.511Z0F1200
G1 X54.751Y10.19Z0F1200
G1 X52.546Y9.88Z0F1200
G1 X50.345Y9.555Z0F1200
G1 X48.151Y9.187Z0F1200
G1 X45.97Y8.75Z0F1200
G1 X44.372Y8.504Z0F1200
G1 X42.767Y8.298Z0F1200
G1 X41.16Y8.096Z0F1200
G1 X39.558Y7.864Z0F1200
G0 Z2.8F500
G0 X39.258Y21.751Z2.8F1500
G1 Z0F500
G1 X39.575Y22.346Z0F1200
G1 X39.929Y22.906Z0F1200
G1 X40.318Y23.434Z0F1200
G1 X40.736Y23.935Z0F1200
G1 X41.182Y24.41Z0F1200
G1 X41.651Y24.864Z0F1200
G1 X42.141Y25.299Z0F1200
G1 X42.647Y25.718Z0F1200
G1 X44.769Y27.303Z0F1200
G1 X46.882Y28.892Z0F1200
G1 X47.777Y29.532Z0F1200
G1 X48.655Y30.199Z0F1200
G1 X49.517Y30.889Z0F1200
G1 X50.366Y31.595Z0F1200
G1 X52.032Y33.031Z0F1200
G1 X53.67Y34.462Z0F1200
G1 X54.345Y34.729Z0F1200
G1 X55.029Y34.967Z0F1200
G1 X55.721Y35.181Z0F1200
G1 X56.42Y35.374Z0F1200
G1 X57.832Y35.716Z0F1200
G1 X59.253Y36.022Z0F1200
G1 X60.673Y36.325Z0F1200
G1 X62.079Y36.655Z0F1200
G1 X63.46Y37.045Z0F1200
G1 X64.806Y37.525Z0F1200
G1 X65.078Y37.877Z0F1200
G1 X65.377Y38.177Z0F1200
G1 X65.699Y38.427Z0F1200
G1 X66.041Y38.634Z0F1200
G1 X66.403Y38.803Z0F1200
G1 X66.781Y38.939Z0F1200
G1 X67.172Y39.046Z0F1200
G1 X67.574Y39.129Z0F1200
G1 X69.247Y39.331Z0F1200
G1 X70.903Y39.559Z0F1200
G1 X71.257Y39.596Z0F1200
G1 X71.603Y39.588Z0F1200
G1 X71.94Y39.541Z0F1200
G1 X72.272Y39.462Z0F1200
G1 X72.922Y39.234Z0F1200
G1 X73.564Y38.955Z0F1200
G1 X74.212Y38.678Z0F1200
G1 X74.876Y38.454Z0F1200
G1 X75.219Y38.379Z0F1200
G1 X75.57Y38.337Z0F1200
G1 X75.931Y38.334Z0F1200
G1 X76.304Y38.378Z0F1200
G1 X78.538Y38.302Z0F1200
G1 X80.815Y38.221Z0F1200
G1 X81.94Y38.129Z0F1200
G1 X83.04Y37.978Z0F1200
G1 X83.577Y37.874Z0F1200
G1 X84.103Y37.748Z0F1200
G1 X84.617Y37.597Z0F1200
G1 X85.118Y37.419Z0F1200
G1 X85.658Y36.516Z0F1200
G1 X86.221Y35.629Z0F1200
G1 X86.807Y34.758Z0F1200
G1 X87.414Y33.903Z0F1200
G1 X88.043Y33.065Z0F1200
G1 X88.694Y32.245Z0F1200
G1 X89.366Y31.443Z0F1200
G1 X90.058Y30.659Z0F1200
G1 X90.772Y29.894Z0F1200
G1 X91.505Y29.148Z0F1200
G1 X92.259Y28.422Z0F1200
G1 X93.033Y27.716Z0F1200
G1 X93.826Y27.031Z0F1200
G1 X94.639Y26.368Z0F1200
G1 X95.471Y25.726Z0F1200
G1 X96.321Y25.106Z0F1200
G1 X97.762Y24.316Z0F1200
G1 X99.259Y23.584Z0F1200
G1 X100.027Y23.251Z0F1200
G1 X100.805Y22.945Z0F1200
G1 X101.593Y22.673Z0F1200
G1 X102.389Y22.436Z0F1200
G1 X103.193Y22.241Z0F1200
G1 X104.003Y22.092Z0F1200
G1 X104.817Y21.993Z0F1200
G1 X105.636Y21.948Z0F1200
G1 X106.458Y21.962Z0F1200
G1 X107.281Y22.039Z0F1200
G1 X108.104Y22.184Z0F1200
G1 X108.927Y22.401Z0F1200
G1 X109.194Y22.591Z0F1200
G1 X109.474Y22.753Z0F1200
G1 X109.765Y22.89Z0F1200
G1 X110.065Y23.008Z0F1200
G1 X110.689Y23.2Z0F1200
G1 X111.977Y23.523Z0F1200
G1 X112.614Y23.719Z0F1200
G1 X112.926Y23.841Z0F1200
G1 X113.23Y23.983Z0F1200
G1 X113.526Y24.15Z0F1200
G1 X113.81Y24.346Z0F1200
G1 X115.159Y25.695Z0F1200
G1 X116.475Y27.076Z0F1200
G1 X117.746Y28.497Z0F1200
G1 X118.964Y29.966Z0F1200
G0 Z2.8F500
G0 X119.622Y31.206Z2.8F1500
G1 Z0F500
G1 X119.611Y33.334Z0F1200
G1 X119.522Y35.455Z0F1200
G1 X119.357Y37.569Z0F1200
G1 X119.117Y39.674Z0F1200
G1 X118.805Y41.77Z0F1200
G1 X118.421Y43.855Z0F1200
G1 X117.967Y45.929Z0F1200
G1 X117.445Y47.989Z0F1200
G1 X117.029Y51.291Z0F1200
G1 X116.711Y54.601Z0F1200
G1 X116.484Y57.917Z0F1200
G1 X116.341Y61.237Z0F1200
G1 X116.272Y64.561Z0F1200
G1 Y67.886Z0F1200
G1 X116.327Y71.212Z0F1200
G1 X116.436Y74.536Z0F1200
G0 Z2.8F500
G0 X104.459Y76.51Z2.8F1500
G1 Z0F500
G1 X105.029Y81.732Z0F1200
G0 Z2.8F500
G0 X95.286Y76.637Z2.8F1500
G1 Z0F500
G1 X95.553Y72.253Z0F1200
G0 Z2.8F500
G0 X100.445Y95.753Z2.8F1500
G1 Z0F500
G1 X101.487Y96.109Z0F1200
G1 X102.498Y96.535Z0F1200
G1 X103.484Y97.018Z0F1200
G1 X104.449Y97.542Z0F1200
G1 X106.337Y98.649Z0F1200
G1 X108.204Y99.736Z0F1200
G1 X110.303Y99.907Z0F1200
G1 X112.402Y100.002Z0F1200
G1 X114.502Y100.044Z0F1200
G1 X116.602Y100.058Z0F1200
G1 X118.703Y100.068Z0F1200
G1 X120.803Y100.099Z0F1200
G1 X122.904Y100.174Z0F1200
G1 X125.004Y100.319Z0F1200
G0 Z2.8F500
G0 X125.566Y55.759Z2.8F1500
G1 Z0F500
G1 X125.149Y50.691Z0F1200
G0 Z2.8F500
G0 X124.93Y48.843Z2.8F1500
G1 Z0F500
G1 X124.883Y49.597Z0F1200
G1 X124.774Y50.339Z0F1200
G1 X124.621Y51.071Z0F1200
G1 X124.446Y51.798Z0F1200
G1 X124.268Y52.526Z0F1200
G1 X124.108Y53.257Z0F1200
G1 X123.986Y53.998Z0F1200
G1 X123.922Y54.751Z0F1200
G1 X123.658Y55.436Z0F1200
G1 X123.409Y56.107Z0F1200
G1 X123.194Y56.77Z0F1200
G1 X123.031Y57.432Z0F1200
G1 X122.938Y58.1Z0F1200
G1 X122.935Y58.78Z0F1200
G1 X122.972Y59.127Z0F1200
G1 X123.038Y59.479Z0F1200
G1 X123.136Y59.838Z0F1200
G1 X123.267Y60.205Z0F1200
G0 Z2.8F500
G0 X125.15Y57.669Z2.8F1500
G1 Z0F500
G1 X125.169Y54.272Z0F1200
G1 X125.239Y50.875Z0F1200
G1 X125.358Y47.48Z0F1200
G1 X125.522Y44.087Z0F1200
G0 Z2.8F500
G0 X123.473Y42.85Z2.8F1500
G1 Z0F500
G1 X123.3Y42.57Z0F1200
G1 X123.163Y42.255Z0F1200
G1 X123.053Y41.913Z0F1200
G1 X122.964Y41.552Z0F1200
G1 X122.822Y40.802Z0F1200
G1 X122.68Y40.064Z0F1200
G1 X122.591Y39.719Z0F1200
G1 X122.481Y39.4Z0F1200
G1 X122.344Y39.114Z0F1200
G1 X122.171Y38.869Z0F1200
G1 X121.956Y38.672Z0F1200
G1 X121.693Y38.531Z0F1200
G1 X121.373Y38.453Z0F1200
G1 X120.99Y38.446Z0F1200
G1 X120.788Y38.301Z0F1200
G1 X120.625Y38.134Z0F1200
G1 X120.494Y37.948Z0F1200
G1 X120.387Y37.751Z0F1200
G1 X120.041Y36.936Z0F1200
G1 X119.936Y36.751Z0F1200
G1 X119.809Y36.584Z0F1200
G1 X119.652Y36.44Z0F1200
G1 X119.457Y36.324Z0F1200
G1 X119.216Y36.24Z0F1200
G1 X118.921Y36.194Z0F1200
G1 X118.565Z0F1200
G1 X118.141Y36.237Z0F1200
G0 Z2.8F500
G0 X118.634Y36.381Z2.8F1500
G1 Z0F500
G1 X113.764Y40.811Z0F1200
G1 X108.944Y45.295Z0F1200
G0 Z2.8F500
G0 X110.086Y46.437Z2.8F1500
G1 Z0F500
G1 X114.424Y41.473Z0F1200
G0 Z2.8F500
G0 X109.734Y41.434Z2.8F1500
G1 Z0F500
G1 X113.993Y36.391Z0F1200
G0 Z2.8F500
G0 X120.204Y42.953Z2.8F1500
G1 Z0F500
G1 X120.285Y43.461Z0F1200
G1 X120.337Y43.973Z0F1200
G1 X120.364Y44.486Z0F1200
G1 X120.369Y45.002Z0F1200
G1 X120.329Y46.038Z0F1200
G1 X120.25Y47.074Z0F1200
G1 X120.162Y48.107Z0F1200
G1 X120.096Y49.132Z0F1200
G1 X120.083Y50.145Z0F1200
G1 X120.153Y51.14Z0F1200
G1 X120.283Y51.425Z0F1200
G1 X120.444Y51.721Z0F1200
G1 X120.628Y52.028Z0F1200
G1 X120.828Y52.343Z0F1200
G1 X121.245Y52.992Z0F1200
G1 X121.633Y53.652Z0F1200
G1 X121.797Y53.982Z0F1200
G1 X121.931Y54.309Z0F1200
G1 X122.028Y54.632Z0F1200
G1 X122.079Y54.949Z0F1200
G1 Y55.257Z0F1200
G1 X122.015Y55.556Z0F1200
G1 X121.884Y55.844Z0F1200
G1 X121.678Y56.117Z0F1200
G1 X121.728Y56.28Z0F1200
G1 X121.841Y56.452Z0F1200
G1 X122.003Y56.631Z0F1200
G1 X122.201Y56.819Z0F1200
G1 X122.651Y57.223Z0F1200
G1 X123.084Y57.665Z0F1200
G1 X123.262Y57.901Z0F1200
G1 X123.395Y58.149Z0F1200
G1 X123.471Y58.407Z0F1200
G1 X123.476Y58.677Z0F1200
G1 X123.397Y58.958Z0F1200
G1 X123.221Y59.252Z0F1200
G1 X123.092Y59.403Z0F1200
G1 X122.934Y59.557Z0F1200
G1 X122.745Y59.715Z0F1200
G1 X122.524Y59.876Z0F1200
G1 X122.201Y60.061Z0F1200
G1 X121.909Y60.287Z0F1200
G1 X121.648Y60.546Z0F1200
G1 X121.416Y60.833Z0F1200
G1 X121.213Y61.138Z0F1200
G1 X121.037Y61.454Z0F1200
G1 X120.887Y61.774Z0F1200
G1 X120.762Y62.09Z0F1200
G1 X120.661Y62.395Z0F1200
G1 X120.583Y62.681Z0F1200
G1 X120.527Y62.941Z0F1200
G1 X120.492Y63.167Z0F1200
G1 X120.476Y63.351Z0F1200
G1 X120.479Y63.487Z0F1200
G1 X120.499Y63.565Z0F1200
G1 X120.536Y63.58Z0F1200
G1 X120.399Y63.549Z0F1200
G1 X120.284Y63.501Z0F1200
G1 X120.189Y63.438Z0F1200
G1 X120.114Y63.36Z0F1200
G1 X120.018Y63.165Z0F1200
G1 X119.986Y62.921Z0F1200
G1 X120.009Y62.636Z0F1200
G1 X120.077Y62.317Z0F1200
G1 X120.183Y61.971Z0F1200
G1 X120.317Y61.603Z0F1200
G1 X120.944Y60.063Z0F1200
G1 X121.079Y59.695Z0F1200
G1 X121.186Y59.347Z0F1200
G1 X121.258Y59.026Z0F1200
G1 X121.283Y58.739Z0F1200
G1 X121.344Y58.446Z0F1200
G1 X121.44Y58.175Z0F1200
G1 X121.566Y57.923Z0F1200
G1 X121.72Y57.687Z0F1200
G1 X122.094Y57.258Z0F1200
G1 X122.533Y56.87Z0F1200
G1 X123.493Y56.147Z0F1200
G1 X124.368Y55.375Z0F1200
G0 Z2.8F500
G0 X121.436Y48.488Z2.8F1500
G1 Z0F500
G1 X116.918Y53.272Z0F1200
G0 Z2.8F500
G0 X111.507Y52.51Z2.8F1500
G1 Z0F500
G1 X116.367Y48.068Z0F1200
G1 X121.24Y43.64Z0F1200
G0 Z2.8F500
G0 X91.52Y10.072Z2.8F1500
G1 Z0F500
G1 X91.624Y14.828Z0F1200
G0 Z2.8F500
G0 X89.526Y10.403Z2.8F1500
G1 Z0F500
G1 X89.502Y15.058Z0F1200
G1 X89.533Y19.713Z0F1200
G0 Z2.8F500
G0 X84.852Y17.356Z2.8F1500
G1 Z0F500
G1 X84.563Y14.903Z0F1200
G1 X84.365Y12.453Z0F1200
G1 X84.307Y11.227Z0F1200
G1 X84.279Y9.998Z0F1200
G1 X84.285Y8.765Z0F1200
G1 X84.326Y7.527Z0F1200
G0 Z2.8F500
G0 X83.142Y8.668Z2.8F1500
G1 Z0F500
G1 X83.177Y11.118Z0F1200
G1 X83.271Y13.564Z0F1200
G1 X83.42Y16.007Z0F1200
G1 X83.619Y18.449Z0F1200
G0 Z2.8F500
G0 X80.929Y22.736Z2.8F1500
G1 Z0F500
G1 X80.574Y19.022Z0F1200
G1 X80.283Y15.304Z0F1200
G1 X80.171Y13.443Z0F1200
G1 X80.084Y11.581Z0F1200
G1 X80.026Y9.717Z0F1200
G1 X80.001Y7.852Z0F1200
G0 Z2.8F500
G0 X79.455Y9.632Z2.8F1500
G1 Z0F500
G1 X79.314Y11.371Z0F1200
G1 X79.264Y13.109Z0F1200
G1 X79.278Y14.845Z0F1200
G1 X79.331Y16.581Z0F1200
G1 X79.396Y18.318Z0F1200
G1 X79.448Y20.055Z0F1200
G1 X79.46Y21.795Z0F1200
G1 X79.406Y23.538Z0F1200
G0 Z2.8F500
G0 X75.918Y24.7Z2.8F1500
G1 Z0F500
G1 X79.32Y21.114Z0F1200
G1 X82.651Y17.464Z0F1200
G1 X84.288Y15.614Z0F1200
G1 X85.906Y13.745Z0F1200
G1 X87.502Y11.859Z0F1200
G1 X89.078Y9.954Z0F1200
G0 Z2.8F500
G0 X82.661Y8.187Z2.8F1500
G1 Z0F500
G1 X80.472Y10.652Z0F1200
G1 X78.302Y13.134Z0F1200
G1 X76.151Y15.633Z0F1200
G1 X74.019Y18.149Z0F1200
G0 Z2.8F500
G0 X73.522Y13Z2.8F1500
G1 Z0F500
G1 X78.073Y8.249Z0F1200
G0 Z2.8F500
G0 X66.21Y10.337Z2.8F1500
G1 Z0F500
G1 X66.637Y15.416Z0F1200
G0 Z2.8F500
G0 X51.469Y33.967Z2.8F1500
G1 Z0F500
G1 X51.605Y33.805Z0F1200
G1 X51.712Y33.649Z0F1200
G1 X51.791Y33.496Z0F1200
G1 X51.845Y33.347Z0F1200
G1 X51.879Y33.06Z0F1200
G1 X51.827Y32.786Z0F1200
G1 X51.698Y32.524Z0F1200
G1 X51.506Y32.272Z0F1200
G1 X51.26Y32.03Z0F1200
G1 X50.972Y31.794Z0F1200
G1 X50.316Y31.339Z0F1200
G1 X49.628Y30.894Z0F1200
G1 X49.301Y30.673Z0F1200
G1 X49Y30.449Z0F1200
G1 X48.737Y30.222Z0F1200
G1 X48.522Y29.99Z0F1200
G1 X47.312Y29.01Z0F1200
G1 X46.047Y28.074Z0F1200
G1 X44.758Y27.153Z0F1200
G1 X43.479Y26.221Z0F1200
G1 X42.241Y25.249Z0F1200
G1 X41.076Y24.211Z0F1200
G1 X40.531Y23.657Z0F1200
G1 X40.017Y23.077Z0F1200
G1 X39.537Y22.466Z0F1200
G1 X39.095Y21.821Z0F1200
G0 Z2.8F500
G0 X44.029Y30.013Z2.8F1500
G1 Z0F500
G1 X43.567Y35.515Z0F1200
G1 X43.12Y41.014Z0F1200
G1 X42.944Y43.767Z0F1200
G1 X42.822Y46.522Z0F1200
G1 X42.771Y49.283Z0F1200
G1 X42.807Y52.049Z0F1200
G0 Z2.8F500
G0 X47.324Y51.916Z2.8F1500
G1 Z0F500
G1 X47.259Y49.626Z0F1200
G1 X47.288Y47.34Z0F1200
G1 X47.377Y45.055Z0F1200
G1 X47.614Y40.487Z0F1200
G1 X47.698Y38.203Z0F1200
G1 X47.717Y35.916Z0F1200
G1 X47.641Y33.627Z0F1200
G0 Z2.8F500
G0 X48.696Y34.449Z2.8F1500
G1 Z0F500
G1 X50.552Y34.6Z0F1200
G1 X52.405Y34.787Z0F1200
G0 Z2.8F500
G0 X57.92Y39.257Z2.8F1500
G1 Z0F500
G1 X57.819Y42.555Z0F1200
G1 X57.64Y45.848Z0F1200
G1 X57.405Y49.139Z0F1200
G1 X57.135Y52.427Z0F1200
G0 Z2.8F500
G0 X59.805Y50.446Z2.8F1500
G1 Z0F500
G1 X59.687Y48.035Z0F1200
G1 X59.59Y45.622Z0F1200
G1 X59.513Y43.21Z0F1200
G1 X59.458Y40.796Z0F1200
G0 Z2.8F500
G0 X51.93Y56.756Z2.8F1500
G1 Z0F500
G1 X51.585Y57.344Z0F1200
G1 X51.122Y58.058Z0F1200
G1 X50.999Y58.26Z0F1200
G1 X50.896Y58.447Z0F1200
G1 X50.819Y58.621Z0F1200
G1 X50.772Y58.784Z0F1200
G1 X50.757Y58.937Z0F1200
G1 X50.78Y59.084Z0F1200
G1 X50.843Y59.226Z0F1200
G1 X50.951Y59.364Z0F1200
G1 X51.107Y59.501Z0F1200
G1 X51.316Y59.639Z0F1200
G1 X51.581Y59.78Z0F1200
G0 Z2.8F500
G0 X51.922Y59.423Z2.8F1500
G1 Z0F500
G1 X51.672Y59.378Z0F1200
G1 X51.461Y59.347Z0F1200
G1 X51.286Y59.332Z0F1200
G1 X51.147Z0F1200
G1 X51.04Y59.341Z0F1200
G1 X50.965Y59.364Z0F1200
G1 X50.92Y59.398Z0F1200
G1 X50.901Y59.442Z0F1200
G1 X50.941Y59.557Z0F1200
G1 X51.069Y59.701Z0F1200
G1 X51.27Y59.867Z0F1200
G1 X51.531Y60.047Z0F1200
G1 X52.171Y60.422Z0F1200
G1 X52.87Y60.767Z0F1200
G1 X53.205Y60.909Z0F1200
G1 X53.511Y61.022Z0F1200
G1 X53.773Y61.098Z0F1200
G1 X53.976Y61.129Z0F1200
G0 Z2.8F500
G0 X52.991Y65.958Z2.8F1500
G1 Z0F500
G1 X51.177Y66.12Z0F1200
G0 Z2.8F500
G0 X52.993Y71.543Z2.8F1500
G1 Z0F500
G1 X52.71Y75.911Z0F1200
G0 Z2.8F500
G0 X49.364Y77.216Z2.8F1500
G1 Z0F500
G1 X49.527Y72.727Z0F1200
G0 Z2.8F500
G0 X43.003Y70.852Z2.8F1500
G1 Z0F500
G1 X42.992Y75.493Z0F1200
G0 Z2.8F500
G0 X33.082Y79.535Z2.8F1500
G1 Z0F500
G1 X33.341Y84.42Z0F1200
G1 X33.552Y89.308Z0F1200
G0 Z2.8F500
G0 X31.101Y89.182Z2.8F1500
G1 Z0F500
G1 X31.422Y84.852Z0F1200
G0 Z2.8F500
G0 X28.956Y85.408Z2.8F1500
G1 Z0F500
G1 X28.729Y85.008Z0F1200
G1 X28.562Y84.604Z0F1200
G1 X28.453Y84.197Z0F1200
G1 X28.394Y83.788Z0F1200
G1 X28.38Y83.377Z0F1200
G1 X28.407Y82.965Z0F1200
G1 X28.469Y82.551Z0F1200
G1 X28.561Y82.138Z0F1200
G1 X29.12Y80.489Z0F1200
G1 X29.732Y78.876Z0F1200
G1 X29.945Y78.531Z0F1200
G1 X30.079Y78.22Z0F1200
G1 X30.144Y77.939Z0F1200
G1 X30.15Y77.68Z0F1200
G1 X30.107Y77.44Z0F1200
G1 X30.026Y77.211Z0F1200
G1 X29.916Y76.988Z0F1200
G1 X29.522Y76.297Z0F1200
G1 X29.308Y75.761Z0F1200
G1 X29.246Y75.453Z0F1200
G1 X29.228Y75.111Z0F1200
G1 X29.264Y74.729Z0F1200
G1 X29.364Y74.3Z0F1200
G1 X29.358Y73.213Z0F1200
G1 X29.446Y72.117Z0F1200
G1 X29.578Y71.017Z0F1200
G1 X29.698Y69.918Z0F1200
G1 X29.737Y69.37Z0F1200
G1 X29.754Y68.825Z0F1200
G1 X29.741Y68.283Z0F1200
G1 X29.693Y67.744Z0F1200
G1 X29.601Y67.209Z0F1200
G1 X29.461Y66.68Z0F1200
G1 X29.264Y66.156Z0F1200
G1 X29.005Y65.638Z0F1200
G1 X28.254Y63.498Z0F1200
G1 X27.527Y61.35Z0F1200
G1 X26.806Y59.199Z0F1200
G1 X26.071Y57.054Z0F1200
G1 X26.887Y56.126Z0F1200
G0 Z2.8F500
G0 X26.215Y55.803Z2.8F1500
G1 Z0F500
G1 X25.662Y56.072Z0F1200
G1 X25.098Y56.287Z0F1200
G1 X24.523Y56.455Z0F1200
G1 X23.939Y56.582Z0F1200
G1 X22.751Y56.745Z0F1200
G1 X21.544Y56.831Z0F1200
G1 X20.331Y56.896Z0F1200
G1 X19.122Y56.994Z0F1200
G1 X18.523Y57.073Z0F1200
G1 X17.93Y57.182Z0F1200
G1 X17.344Y57.327Z0F1200
G1 X16.767Y57.515Z0F1200
G1 X14.973Y56.418Z0F1200
G0 Z2.8F500
G0 X15.342Y56.671Z2.8F1500
G1 Z0F500
G1 X15.217Y55.256Z0F1200
G1 X15.063Y53.85Z0F1200
G1 X14.937Y52.457Z0F1200
G1 X14.893Y51.077Z0F1200
G1 X14.95Y50.77Z0F1200
G1 X15.058Y50.472Z0F1200
G1 X15.211Y50.184Z0F1200
G1 X15.404Y49.91Z0F1200
G1 X15.633Y49.651Z0F1200
G1 X15.892Y49.411Z0F1200
G1 X16.177Y49.191Z0F1200
G1 X16.484Y48.994Z0F1200
G1 X16.807Y48.822Z0F1200
G1 X17.142Y48.678Z0F1200
G1 X17.483Y48.565Z0F1200
G1 X17.827Y48.485Z0F1200
G1 X18.168Y48.439Z0F1200
G1 X18.501Y48.432Z0F1200
G1 X18.823Y48.464Z0F1200
G1 X19.127Y48.539Z0F1200
G1 X24.62Y49.671Z0F1200
G0 Z2.8F500
G0 X26.261Y50.499Z2.8F1500
G1 Z0F500
G1 X25.711Y50.222Z0F1200
G1 X25.147Y49.991Z0F1200
G1 X24.573Y49.798Z0F1200
G1 X23.991Y49.638Z0F1200
G1 X22.804Y49.394Z0F1200
G1 X21.601Y49.208Z0F1200
G1 X20.393Y49.033Z0F1200
G1 X19.194Y48.821Z0F1200
G1 X18.602Y48.685Z0F1200
G1 X18.017Y48.521Z0F1200
G1 X17.44Y48.324Z0F1200
G1 X16.874Y48.086Z0F1200
G1 X15.046Y49.514Z0F1200
G0 Z2.8F500
G0 X18.1Y50.592Z2.8F1500
G1 Z0F500
G1 X18.267Y55.41Z0F1200
G0 Z2.8F500
G0 X19.156Y56.3Z2.8F1500
G1 Z0F500
G1 X23.554Y51.397Z0F1200
G0 Z2.8F500
G0 X23.309Y51.151Z2.8F1500
G1 Z0F500
G1 X22.943Y55.437Z0F1200
G0 Z2.8F500
G0 X22.352Y57.172Z2.8F1500
G1 Z0F500
G1 X22.707Y52.874Z0F1200
G0 Z2.8F500
G0 X32.672Y78.31Z2.8F1500
G1 Z0F500
G1 X31.697Y78.916Z0F1200
G1 X30.758Y79.569Z0F1200
G1 X29.85Y80.265Z0F1200
G1 X28.966Y80.999Z0F1200
G0 Z2.8F500
G0 X38.094Y86.874Z2.8F1500
G1 Z0F500
G1 X38.352Y91.784Z0F1200
G0 Z2.8F500
G0 X57.151Y75.702Z2.8F1500
G1 Z0F500
G1 X57.544Y71.443Z0F1200
G0 Z2.8F500
G0 X88.539Y98.38Z2.8F1500
G1 Z0F500
G1 X89.862Y97.749Z0F1200
G1 X91.126Y97.142Z0F1200
G1 X91.334Y97.034Z0F1200
G1 X91.472Y96.955Z0F1200
G1 X91.511Y96.928Z0F1200
G1 X91.528Y96.91Z0F1200
G1 X91.52Y96.902Z0F1200
G1 X91.487Z0F1200
G1 X91.426Y96.917Z0F1200
G1 X91.337Y96.943Z0F1200
G1 X91.217Y96.981Z0F1200
G1 X91.064Y97.032Z0F1200
G1 X90.656Y97.176Z0F1200
G1 X90.099Y97.381Z0F1200
G1 X88.769Y98.398Z0F1200
G1 X87.475Y99.476Z0F1200
G1 X87.14Y99.713Z0F1200
G1 X86.796Y99.928Z0F1200
G1 X86.44Y100.113Z0F1200
G1 X86.071Y100.264Z0F1200
G1 X85.685Y100.375Z0F1200
G1 X85.281Y100.44Z0F1200
G1 X84.857Y100.455Z0F1200
G1 X84.41Y100.413Z0F1200
G1 X83.032Y100.566Z0F1200
G1 X81.655Y100.665Z0F1200
G1 X80.277Y100.717Z0F1200
G1 X78.899Y100.73Z0F1200
G1 X76.142Y100.664Z0F1200
G1 X73.385Y100.522Z0F1200
G1 X70.626Y100.361Z0F1200
G1 X67.867Y100.236Z0F1200
G1 X66.487Y100.205Z0F1200
G1 X65.106Z0F1200
G1 X63.725Y100.239Z0F1200
G1 X62.344Y100.318Z0F1200
G1 X59.238Y100.267Z0F1200
G1 X56.133Y100.277Z0F1200
G1 X53.027Y100.329Z0F1200
G1 X49.922Y100.404Z0F1200
G1 X46.816Y100.483Z0F1200
G1 X43.71Y100.546Z0F1200
G1 X40.603Y100.575Z0F1200
G1 X37.496Y100.55Z0F1200
G1 X34.902Y100.422Z0F1200
G1 X32.308Y100.373Z0F1200
G1 X29.712Y100.384Z0F1200
G1 X27.117Y100.433Z0F1200
G1 X21.925Y100.574Z0F1200
G1 X16.733Y100.642Z0F1200
G1 X13.232Y100.604Z0F1200
G1 X9.734Y100.486Z0F1200
G1 X6.235Y100.342Z0F1200
G1 X2.735Y100.229Z0F1200
G0 Z2.8F500
G0 X91.556Y97.327Z2.8F1500
G1 Z0F500
G1 X92.244Y96.966Z0F1200
G1 X92.95Y96.657Z0F1200
G1 X93.671Y96.399Z0F1200
G1 X94.404Y96.189Z0F1200
G1 X95.148Y96.028Z0F1200
G1 X95.9Y95.913Z0F1200
G1 X96.658Y95.844Z0F1200
G1 X97.419Y95.82Z0F1200
G1 X98.182Y95.839Z0F1200
G1 X98.943Y95.9Z0F1200
G1 X99.702Y96.002Z0F1200
G1 X100.454Y96.144Z0F1200
G1 X101.199Y96.325Z0F1200
G1 X101.934Y96.543Z0F1200
G1 X102.657Y96.798Z0F1200
G1 X103.365Y97.088Z0F1200
G1 X103.966Y97.359Z0F1200
G1 X104.549Y97.637Z0F1200
G1 X105.103Y97.936Z0F1200
G1 X105.621Y98.27Z0F1200
G1 X106.093Y98.654Z0F1200
G1 X106.512Y99.103Z0F1200
G1 X106.698Y99.356Z0F1200
G1 X106.867Y99.63Z0F1200
G1 X107.018Y99.928Z0F1200
G1 X107.151Y100.252Z0F1200
G0 Z2.8F500
G0 X106.214Y99.663Z2.8F1500
G1 Z0F500
G1 X104.371Y98.75Z0F1200
G0 Z2.8F500
G0 X106.222Y99.439Z2.8F1500
G1 Z0F500
G1 X105.571Y98.963Z0F1200
G1 X104.913Y98.513Z0F1200
G1 X104.245Y98.092Z0F1200
G1 X103.561Y97.705Z0F1200
G1 X102.858Y97.357Z0F1200
G1 X102.132Y97.054Z0F1200
G1 X101.377Y96.799Z0F1200
G1 X100.591Y96.597Z0F1200
M9
M5
G1 Z10 F500
G90
G1 Z10 F500
