G90 ; Absolutno pozicioniranje
G21 ; Milimetri

G0 Z10 F500;      ; Move to clearance level - Z motion limited to 500
; G0 X-10 Y-10 F1200; Homing
; G0 X-5 Y-5 F1200; go in
; G10 P0 L20 X0 Y0; set to zero
G1 F1200;           ; Set feed rate to 1000
;LightBurn 1.6.04
;Custom GCode device profile, absolute coords
;Bounds: X19.45 Y34.68 to X98.55 Y87.32
G00 G17 G40 G21 G54
G90
M4
;Cut @ 1500 mm/min, 90% power

M8

; Washing sequence (no color)
G1 Z10 F1000;        ; Raise brush to safe height
G0 X5.000 Y5.000
G1 Z-1 F800;         ; Lower brush for cleaning - controlled movement
G1 X10.000 Y12.000 Z8.000 F1200
G1 Z-1 F800;         ; Lower brush for cleaning - controlled movement
G1 X25.000 Y14.000 Z6.000 F800
G1 Z8 F800;         ; Maintain brush height - controlled movement
; --- FIX X Backlash: -0.600mm ---
G0 X24.400 Y14.000 F1200
; --- FIX Y Backlash: -0.900mm ---
G0 X24.400 Y13.100 F1200
G0 X4.400 Y4.100
G1 Z-1 F800;         ; Lower brush for cleaning - controlled movement
; --- FIX X Backlash: 0.600mm ---
G0 X5.000 Y4.100 F1200
; --- FIX Y Backlash: 0.900mm ---
G0 X5.000 Y5.000 F1200
G1 X15.000 Y12.000 Z8.000 F1200
G1 Z-1 F800;         ; Lower brush for cleaning - controlled movement
G1 X25.000 Y14.000 Z6.000 F800
G1 Z10 F800;         ; Maintain brush height - controlled movement
G1 F1200;           ; Set feed rate to 1000

; Color picking sequence
G1 Z10 F1000;         ; Raise brush to safe height
; --- FIX Y Backlash: -0.900mm ---
G0 X25.000 Y13.100 F1200
G0 X41.000 Y4.100
G1 Z0 F1000;         ; Lower into color - controlled movement
; --- FIX X Backlash: -0.600mm ---
G0 X40.400 Y4.100 F1200
; --- FIX Y Backlash: 0.900mm ---
G0 X40.400 Y5.000 F1200
G1 X39.502 Y7.295 F1200
G1 X39.426 Y7.642 F1200
G1 X39.400 Y8.000 F1200
G1 X39.426 Y8.358 F1200
; --- FIX X Backlash: 0.600mm ---
G0 X40.026 Y8.358 F1200
G1 X40.102 Y8.705 F1200
G1 X40.225 Y9.041 F1200
G1 X40.393 Y9.362 F1200
G1 X40.603 Y9.668 F1200
G1 X40.854 Y9.957 F1200
G1 X41.142 Y10.226 F1200
G1 X41.464 Y10.475 F1200
G1 X41.820 Y10.701 F1200
G1 X42.204 Y10.902 F1200
G1 X42.617 Y11.078 F1200
G1 X43.054 Y11.225 F1200
G1 X43.513 Y11.343 F1200
G1 X43.992 Y11.429 F1200
G1 X44.489 Y11.482 F1200
G1 X45.000 Y11.500 F1200
G1 X45.511 Y11.482 F1200
; --- FIX Y Backlash: -0.900mm ---
G0 X45.511 Y10.582 F1200
G1 X46.008 Y10.529 F1200
G1 X46.487 Y10.443 F1200
G1 X46.946 Y10.325 F1200
G1 X47.383 Y10.178 F1200
G1 X47.796 Y10.002 F1200
G1 X48.180 Y9.801 F1200
G1 X48.536 Y9.575 F1200
G1 X48.858 Y9.326 F1200
G1 X49.146 Y9.057 F1200
G1 X49.397 Y8.768 F1200
G1 X49.607 Y8.462 F1200
G1 X49.775 Y8.141 F1200
G1 X49.898 Y7.805 F1200
G1 X49.974 Y7.458 F1200
G1 X50.000 Y7.100 F1200
G1 X49.974 Y6.742 F1200
; --- FIX X Backlash: -0.600mm ---
G0 X49.374 Y6.742 F1200
G1 X49.298 Y6.395 F1200
G1 X49.175 Y6.059 F1200
G1 X49.007 Y5.738 F1200
G1 X48.797 Y5.432 F1200
G1 X48.546 Y5.143 F1200
G1 X48.258 Y4.874 F1200
G1 X47.936 Y4.625 F1200
G1 X47.580 Y4.399 F1200
G1 X47.196 Y4.198 F1200
G1 X46.783 Y4.022 F1200
G1 X46.346 Y3.875 F1200
G1 X45.887 Y3.757 F1200
G1 X45.408 Y3.671 F1200
G1 X44.911 Y3.618 F1200
G1 X44.400 Y3.600 F1200
G1 X43.889 Y3.618 F1200
; --- FIX Y Backlash: 0.900mm ---
G0 X43.889 Y4.518 F1200
G1 X43.392 Y4.571 F1200
G1 X42.913 Y4.657 F1200
G1 X42.454 Y4.775 F1200
G1 X42.017 Y4.922 F1200
G1 X41.604 Y5.098 F1200
G1 X41.220 Y5.299 F1200
G1 X40.864 Y5.525 F1200
G1 X40.542 Y5.774 F1200
G1 X40.254 Y6.043 F1200
G1 X40.003 Y6.332 F1200
G1 X39.793 Y6.638 F1200
G1 X39.625 Y6.959 F1200
G1 Z7 F800;         ; Raise from color - controlled movement
G1 X33.400 Y8.000 Z1.000 F1200
G1 X23.400 Y18.000 Z8.000 F500
G1 F1200;           ; Set feed rate to 1000
G0 Z3.5 F1000
G0 X18.850 Y34.683 Z3.500
G1 Z0 F1000
;Layer Green
G1 X18.868 Y34.922 F1000
; --- FIX X Backlash: 0.600mm ---
G0 X19.468 Y34.922 F1200
G1 X19.518 Y35.105 F1000
G1 X19.609 Y35.278 F1000
G1 X19.751 Y35.486 F1000
G0 Z3.5 F1000
G0 X20.027 Y35.586 Z3.500
G1 Z0 F1000
; --- FIX X Backlash: -0.600mm ---
G0 X19.427 Y35.586 F1200
G1 X19.339 Y35.563 F1000
G1 X19.251 Y35.537 F1000
G1 X19.220 Y35.525 F1000
G1 X19.155 Y35.525 F1000
G1 X19.108 Y35.556 F1000
G1 X19.090 Y35.597 F1000
G1 X19.090 Y35.636 F1000
G1 X19.118 Y35.841 F1000
; --- FIX X Backlash: 0.600mm ---
G0 X19.718 Y35.841 F1200
G1 X19.786 Y36.189 F1000
G1 X19.804 Y36.307 F1000
G1 X19.834 Y36.439 F1000
G1 X19.925 Y36.696 F1000
G1 X20.044 Y36.950 F1000
G1 X20.176 Y37.200 F1000
G1 X20.308 Y37.443 F1000
G1 X21.051 Y38.772 F1000
G1 X21.828 Y40.077 F1000
G1 X22.680 Y41.545 F1000
G1 X24.026 Y43.916 F1000
G1 X24.653 Y45.007 F1000
G1 X25.290 Y46.098 F1000
G1 X28.452 Y51.291 F1000
G1 X31.682 Y56.438 F1000
G1 X34.975 Y61.545 F1000
G1 X38.324 Y66.620 F1000
G1 X40.540 Y69.899 F1000
G1 X42.772 Y73.167 F1000
G1 X44.179 Y75.212 F1000
G1 X45.601 Y77.232 F1000
G1 X46.844 Y78.968 F1000
G1 X48.109 Y80.694 F1000
G1 X49.173 Y82.075 F1000
G1 X50.246 Y83.428 F1000
G1 X50.433 Y83.679 F1000
G1 X50.752 Y84.083 F1000
G1 X51.071 Y84.482 F1000
G1 X51.381 Y84.859 F1000
G1 X52.035 Y85.636 F1000
G1 X52.200 Y85.827 F1000
G1 X52.369 Y86.011 F1000
G1 X52.460 Y86.088 F1000
G1 X52.565 Y86.137 F1000
G1 X52.791 Y86.213 F1000
G1 X52.882 Y86.252 F1000
G1 X52.955 Y86.300 F1000
G1 X52.995 Y86.331 F1000
G1 X53.059 Y86.387 F1000
G1 X53.167 Y86.489 F1000
G1 X53.286 Y86.597 F1000
G1 X53.641 Y86.904 F1000
G1 X53.828 Y87.069 F1000
G1 X53.979 Y87.206 F1000
G1 X54.095 Y87.317 F1000
G0 Z3.5 F1000
; --- FIX X Backlash: -0.600mm ---
G0 X53.495 Y87.317 F1200
; --- FIX Y Backlash: -0.900mm ---
G0 X53.495 Y86.417 F1200
G0 X52.266 Y72.368 Z3.500
G1 Z0 F1000
; --- FIX X Backlash: 0.600mm ---
G0 X52.866 Y72.368 F1200
; --- FIX Y Backlash: 0.900mm ---
G0 X52.866 Y73.268 F1200
G1 X53.102 Y73.536 F1000
G1 X53.343 Y73.795 F1000
G1 X53.493 Y73.935 F1000
G1 X53.644 Y74.072 F1000
G1 X54.203 Y74.559 F1000
G1 X54.798 Y75.006 F1000
G1 X55.154 Y75.249 F1000
G1 X55.525 Y75.479 F1000
G1 X56.456 Y75.992 F1000
G1 X57.407 Y76.460 F1000
G1 X58.602 Y76.956 F1000
G1 X59.815 Y77.406 F1000
G1 X60.187 Y77.537 F1000
G1 X60.568 Y77.666 F1000
G1 X60.731 Y77.719 F1000
G1 X60.894 Y77.769 F1000
G1 X61.622 Y78.006 F1000
G1 X63.503 Y78.572 F1000
G1 X64.366 Y78.835 F1000
G1 X65.234 Y79.091 F1000
G1 X66.982 Y79.585 F1000
G1 X68.721 Y80.116 F1000
G1 X69.926 Y80.442 F1000
G1 X70.546 Y80.615 F1000
G1 X71.186 Y80.768 F1000
G1 X71.830 Y80.908 F1000
G1 X72.459 Y81.040 F1000
G1 X72.823 Y81.108 F1000
G1 X73.187 Y81.168 F1000
G1 X73.618 Y81.231 F1000
G1 X74.040 Y81.271 F1000
G1 X74.266 Y81.295 F1000
G1 X74.567 Y81.300 F1000
G1 X74.868 Y81.295 F1000
G1 X74.969 Y81.287 F1000
G1 X75.068 Y81.275 F1000
G1 X75.289 Y81.253 F1000
G1 X75.495 Y81.220 F1000
G1 X75.636 Y81.181 F1000
; --- FIX Y Backlash: -0.900mm ---
G0 X75.636 Y80.281 F1200
G1 X75.762 Y80.230 F1000
G1 X75.870 Y80.162 F1000
G1 X75.959 Y80.069 F1000
G1 X76.051 Y79.887 F1000
G1 X76.091 Y79.693 F1000
G1 X76.091 Y79.608 F1000
G1 X76.065 Y79.467 F1000
G1 X76.035 Y79.315 F1000
G1 X75.999 Y79.166 F1000
; --- FIX X Backlash: -0.600mm ---
G0 X75.399 Y79.166 F1200
G1 X75.319 Y78.962 F1000
G1 X75.204 Y78.765 F1000
G1 X74.932 Y78.398 F1000
G1 X74.620 Y78.051 F1000
G1 X74.285 Y77.724 F1000
G1 X73.942 Y77.421 F1000
G1 X73.273 Y76.893 F1000
G1 X72.574 Y76.408 F1000
G1 X71.857 Y75.950 F1000
G1 X71.132 Y75.505 F1000
G1 X70.281 Y74.987 F1000
G1 X69.451 Y74.458 F1000
G1 X68.855 Y74.041 F1000
G1 X68.278 Y73.581 F1000
G1 X67.745 Y73.075 F1000
G1 X67.279 Y72.518 F1000
G1 X66.997 Y72.098 F1000
G1 X66.760 Y71.640 F1000
G1 X66.664 Y71.381 F1000
G1 X66.597 Y71.126 F1000
G1 X66.552 Y70.865 F1000
G1 X66.520 Y70.586 F1000
G1 X66.520 Y70.268 F1000
G1 X66.540 Y69.959 F1000
G1 X66.561 Y69.762 F1000
G1 X66.603 Y69.572 F1000
; --- FIX X Backlash: 0.600mm ---
G0 X67.203 Y69.572 F1200
G1 X67.264 Y69.380 F1000
G1 X67.345 Y69.182 F1000
G1 X67.463 Y68.924 F1000
G1 X67.601 Y68.680 F1000
G1 X67.846 Y68.334 F1000
G1 X68.112 Y68.006 F1000
G1 X68.391 Y67.689 F1000
G1 X68.675 Y67.375 F1000
G1 X68.785 Y67.261 F1000
G1 X68.897 Y67.150 F1000
G1 X69.272 Y66.747 F1000
G1 X69.650 Y66.347 F1000
G1 X69.874 Y66.121 F1000
G1 X70.263 Y65.680 F1000
G1 X70.638 Y65.218 F1000
G1 X70.784 Y65.031 F1000
G1 X70.920 Y64.841 F1000
G1 X71.074 Y64.598 F1000
G1 X71.218 Y64.340 F1000
G1 X71.345 Y64.068 F1000
G1 X71.445 Y63.788 F1000
G1 X71.513 Y63.497 F1000
G1 X71.556 Y63.211 F1000
G1 X71.569 Y63.112 F1000
G1 X71.575 Y63.010 F1000
G1 X71.567 Y62.920 F1000
; --- FIX X Backlash: -0.600mm ---
G0 X70.967 Y62.920 F1200
G1 X70.915 Y62.535 F1000
G1 X70.896 Y62.226 F1000
G1 X70.868 Y61.899 F1000
G1 X70.856 Y61.806 F1000
G1 X70.848 Y61.761 F1000
G1 X70.839 Y61.681 F1000
G1 X70.844 Y61.613 F1000
G1 X70.859 Y61.576 F1000
G1 X70.882 Y61.557 F1000
G1 X70.910 Y61.545 F1000
; --- FIX X Backlash: 0.600mm ---
G0 X71.510 Y61.545 F1200
G1 X71.650 Y61.527 F1000
G1 X71.832 Y61.530 F1000
G1 X72.033 Y61.530 F1000
G1 X72.206 Y61.537 F1000
G1 X72.384 Y61.551 F1000
G1 X72.772 Y61.575 F1000
G1 X73.162 Y61.580 F1000
G1 X73.354 Y61.580 F1000
G1 X73.538 Y61.580 F1000
G1 X73.739 Y61.604 F1000
G1 X73.901 Y61.607 F1000
G1 X74.040 Y61.590 F1000
G1 X74.168 Y61.512 F1000
G1 X74.241 Y61.437 F1000
G1 X74.270 Y61.413 F1000
G1 X74.341 Y61.395 F1000
G1 X74.435 Y61.404 F1000
G1 X74.517 Y61.419 F1000
G1 X74.749 Y61.446 F1000
G1 X74.993 Y61.473 F1000
G1 X75.254 Y61.495 F1000
G1 X75.520 Y61.505 F1000
G1 X75.620 Y61.505 F1000
G1 X75.721 Y61.515 F1000
G1 X76.076 Y61.559 F1000
G1 X76.423 Y61.580 F1000
G1 X76.749 Y61.580 F1000
G0 Z3.5 F1000
; --- FIX X Backlash: -0.600mm ---
G0 X76.149 Y61.580 F1200
G0 X73.716 Y61.354 Z3.500
G1 Z0 F1000
G1 X73.716 Y61.078 F1000
G1 X73.716 Y60.968 F1000
G1 X73.721 Y60.853 F1000
G1 X73.747 Y60.739 F1000
G1 X73.786 Y60.652 F1000
; --- FIX X Backlash: 0.600mm ---
G0 X74.386 Y60.652 F1200
G1 X74.440 Y60.525 F1000
G1 X74.499 Y60.401 F1000
G1 X74.565 Y60.295 F1000
G1 X74.642 Y60.235 F1000
G1 X74.699 Y60.215 F1000
G1 X74.777 Y60.199 F1000
G1 X74.882 Y60.183 F1000
G1 X75.018 Y60.165 F1000
G1 X75.347 Y60.134 F1000
G1 X75.645 Y60.125 F1000
G1 X76.134 Y60.090 F1000
G1 X76.624 Y60.079 F1000
G1 X76.750 Y60.093 F1000
G1 X76.875 Y60.100 F1000
G1 X77.262 Y60.106 F1000
G1 X77.652 Y60.132 F1000
; --- FIX Y Backlash: 0.900mm ---
G0 X77.652 Y61.032 F1200
G1 X78.575 Y61.133 F1000
G1 X79.484 Y61.240 F1000
G1 X80.096 Y61.328 F1000
G1 X80.713 Y61.424 F1000
G1 X80.917 Y61.444 F1000
G1 X81.114 Y61.459 F1000
G1 X81.516 Y61.495 F1000
G1 X81.682 Y61.495 F1000
G1 X81.785 Y61.454 F1000
; --- FIX Y Backlash: -0.900mm ---
G0 X81.785 Y60.554 F1200
G1 X81.854 Y60.494 F1000
G1 X81.917 Y60.432 F1000
G1 X82.079 Y60.333 F1000
G1 X82.319 Y60.271 F1000
G1 X82.429 Y60.253 F1000
G1 X82.543 Y60.247 F1000
G1 X82.663 Y60.258 F1000
G1 X82.792 Y60.291 F1000
G1 X82.836 Y60.317 F1000
G1 X82.867 Y60.355 F1000
; --- FIX Y Backlash: 0.900mm ---
G0 X82.867 Y61.255 F1200
G1 X82.908 Y61.339 F1000
G1 X82.908 Y61.376 F1000
G1 X82.905 Y61.455 F1000
G1 X82.885 Y61.527 F1000
; --- FIX X Backlash: -0.600mm ---
G0 X82.285 Y61.527 F1200
G1 X82.200 Y61.677 F1000
G1 X82.070 Y61.828 F1000
G1 X82.015 Y61.882 F1000
G1 X81.969 Y61.932 F1000
G1 X81.937 Y61.993 F1000
G1 X81.921 Y62.079 F1000
G1 X81.929 Y62.226 F1000
G1 X81.949 Y62.405 F1000
G1 X81.995 Y62.756 F1000
G1 X82.033 Y62.929 F1000
; --- FIX X Backlash: 0.600mm ---
G0 X82.633 Y62.929 F1200
G1 X82.701 Y63.107 F1000
G1 X82.921 Y63.465 F1000
G1 X83.197 Y63.785 F1000
G1 X83.389 Y63.970 F1000
G1 X83.598 Y64.150 F1000
G1 X83.750 Y64.266 F1000
G1 X83.932 Y64.391 F1000
G1 X84.123 Y64.500 F1000
G1 X84.301 Y64.567 F1000
G1 X84.430 Y64.593 F1000
G1 X84.857 Y64.666 F1000
G1 X85.053 Y64.655 F1000
G1 X85.164 Y64.615 F1000
; --- FIX Y Backlash: -0.900mm ---
G0 X85.164 Y63.715 F1200
G1 X85.304 Y63.624 F1000
G1 X85.457 Y63.489 F1000
G1 X85.551 Y63.370 F1000
G1 X85.605 Y63.256 F1000
G1 X85.638 Y63.136 F1000
G1 X85.648 Y62.981 F1000
G1 X85.633 Y62.834 F1000
G1 X85.619 Y62.733 F1000
G1 X85.594 Y62.584 F1000
G1 X85.560 Y62.399 F1000
G1 X85.512 Y62.207 F1000
G1 X85.463 Y62.079 F1000
; --- FIX X Backlash: -0.600mm ---
G0 X84.863 Y62.079 F1200
G1 X84.789 Y61.956 F1000
G1 X84.519 Y61.597 F1000
G1 X84.225 Y61.254 F1000
G1 X84.053 Y61.062 F1000
G1 X83.876 Y60.879 F1000
G1 X83.778 Y60.788 F1000
G1 X83.675 Y60.705 F1000
G1 X83.479 Y60.610 F1000
G1 X83.299 Y60.548 F1000
G1 X83.174 Y60.510 F1000
G1 X83.089 Y60.477 F1000
G1 X83.023 Y60.438 F1000
G1 X82.944 Y60.373 F1000
G1 X82.807 Y60.234 F1000
G1 X82.763 Y60.150 F1000
G1 X82.763 Y60.094 F1000
G1 X82.780 Y60.062 F1000
G1 X82.824 Y60.025 F1000
G1 X82.865 Y59.985 F1000
G1 X82.912 Y59.944 F1000
; --- FIX X Backlash: 0.600mm ---
G0 X83.512 Y59.944 F1200
G1 X83.574 Y59.880 F1000
G1 X83.657 Y59.774 F1000
G1 X83.693 Y59.713 F1000
G1 X83.732 Y59.640 F1000
G1 X83.783 Y59.568 F1000
G1 X83.852 Y59.512 F1000
G1 X83.995 Y59.456 F1000
G1 X84.167 Y59.416 F1000
G1 X84.350 Y59.388 F1000
G1 X84.526 Y59.368 F1000
G1 X84.991 Y59.333 F1000
G1 X85.455 Y59.322 F1000
G1 X85.695 Y59.332 F1000
G1 X85.931 Y59.348 F1000
; --- FIX Y Backlash: 0.900mm ---
G0 X85.931 Y60.248 F1200
G1 X86.519 Y60.324 F1000
G1 X87.085 Y60.445 F1000
G1 X87.296 Y60.508 F1000
G1 X87.422 Y60.570 F1000
G1 X87.501 Y60.639 F1000
G1 X87.568 Y60.722 F1000
G1 X87.620 Y60.770 F1000
G1 X87.738 Y60.801 F1000
G1 X87.860 Y60.813 F1000
G1 X88.019 Y60.834 F1000
G1 X88.118 Y60.842 F1000
G1 X88.246 Y60.847 F1000
G1 X88.415 Y60.847 F1000
G1 X88.747 Y60.866 F1000
G1 X89.019 Y60.906 F1000
G1 X89.252 Y60.963 F1000
G1 X89.468 Y61.025 F1000
G1 X89.613 Y61.086 F1000
G1 X89.745 Y61.178 F1000
G1 X89.806 Y61.297 F1000
G1 X89.815 Y61.376 F1000
G1 X89.818 Y61.418 F1000
G1 X89.818 Y61.502 F1000
G1 X89.818 Y61.878 F1000
G1 X89.825 Y62.046 F1000
G1 X89.838 Y62.129 F1000
G1 X89.856 Y62.186 F1000
G1 X89.846 Y62.304 F1000
G1 X89.799 Y62.381 F1000
; --- FIX X Backlash: -0.600mm ---
G0 X89.199 Y62.381 F1200
G1 X89.143 Y62.416 F1000
G1 X89.034 Y62.447 F1000
G1 X88.927 Y62.452 F1000
G1 X88.828 Y62.442 F1000
; --- FIX Y Backlash: -0.900mm ---
G0 X88.828 Y61.542 F1200
G1 X88.359 Y61.465 F1000
G1 X88.091 Y61.396 F1000
G1 X87.899 Y61.318 F1000
G1 X87.707 Y61.227 F1000
G1 X87.526 Y61.120 F1000
G1 X87.364 Y60.996 F1000
G1 X87.282 Y60.904 F1000
G1 X87.231 Y60.802 F1000
G1 X87.185 Y60.672 F1000
G1 X87.148 Y60.552 F1000
G1 X87.106 Y60.398 F1000
G1 X87.057 Y60.177 F1000
G1 X87.041 Y60.075 F1000
G1 X87.036 Y59.984 F1000
G1 X87.036 Y59.924 F1000
G0 Z3.5 F1000
; --- FIX X Backlash: 0.600mm ---
G0 X87.636 Y59.924 F1200
; --- FIX Y Backlash: 0.900mm ---
G0 X87.636 Y60.824 F1200
G0 X89.719 Y61.125 Z3.500
G1 Z0 F1000
; --- FIX Y Backlash: -0.900mm ---
G0 X89.719 Y60.225 F1200
G1 X89.775 Y60.151 F1000
G1 X89.827 Y60.113 F1000
G1 X89.920 Y60.087 F1000
G1 X90.028 Y60.090 F1000
G1 X90.146 Y60.100 F1000
G1 X90.269 Y60.097 F1000
G1 X90.447 Y60.107 F1000
G1 X90.848 Y60.136 F1000
G1 X91.139 Y60.174 F1000
G1 X91.425 Y60.199 F1000
G1 X91.877 Y60.226 F1000
G1 X92.041 Y60.241 F1000
G1 X92.203 Y60.250 F1000
G1 X92.486 Y60.218 F1000
G1 X92.780 Y60.131 F1000
G1 X92.906 Y60.067 F1000
G1 X92.997 Y59.991 F1000
G1 X93.062 Y59.902 F1000
G1 X93.109 Y59.799 F1000
G1 X93.174 Y59.581 F1000
G1 X93.220 Y59.474 F1000
G1 X93.289 Y59.398 F1000
G1 X93.378 Y59.365 F1000
G1 X93.479 Y59.361 F1000
G1 X93.584 Y59.374 F1000
G1 X93.834 Y59.416 F1000
G1 X93.984 Y59.452 F1000
; --- FIX Y Backlash: 0.900mm ---
G0 X93.984 Y60.352 F1200
G1 X94.097 Y60.403 F1000
G1 X94.210 Y60.468 F1000
G1 X94.361 Y60.541 F1000
G1 X94.699 Y60.656 F1000
G1 X95.038 Y60.740 F1000
G1 X95.514 Y60.812 F1000
G1 X95.991 Y60.860 F1000
G1 X96.315 Y60.883 F1000
G1 X96.619 Y60.871 F1000
G1 X96.916 Y60.830 F1000
; --- FIX Y Backlash: -0.900mm ---
G0 X96.916 Y59.930 F1200
G1 X97.221 Y59.869 F1000
G1 X97.575 Y59.760 F1000
G1 X97.898 Y59.598 F1000
G1 X98.025 Y59.500 F1000
G1 X98.154 Y59.397 F1000
G1 X98.324 Y59.314 F1000
G1 X98.475 Y59.247 F1000
G0 Z3.5 F1000
; --- FIX X Backlash: -0.600mm ---
G0 X97.875 Y59.247 F1200
; --- FIX Y Backlash: 0.900mm ---
G0 X97.875 Y60.147 F1200
G0 X97.474 Y60.423 Z3.500
G1 Z0 F1000
; --- FIX X Backlash: 0.600mm ---
G0 X98.074 Y60.423 F1200
G1 X98.233 Y60.625 F1000
G1 X98.355 Y60.710 F1000
G1 X98.550 Y60.749 F1000
G0 Z3.5 F1000
; --- FIX X Backlash: -0.600mm ---
G0 X97.950 Y60.749 F1200
G0 X82.722 Y61.050 Z3.500
G1 Z0 F1000
G1 X82.518 Y61.050 F1000
G1 X82.464 Y61.054 F1000
G1 X82.421 Y61.065 F1000
G1 X82.319 Y61.127 F1000
G1 X82.246 Y61.201 F1000
G0 Z3.5 F1000
G0 X70.831 Y62.480 Z3.500
G1 Z0 F1000
G1 X70.789 Y62.449 F1000
; --- FIX Y Backlash: -0.900mm ---
G0 X70.789 Y61.549 F1200
G1 X70.644 Y61.471 F1000
G1 X70.429 Y61.434 F1000
G1 X70.326 Y61.427 F1000
G1 X70.229 Y61.409 F1000
G1 X70.095 Y61.351 F1000
G1 X69.953 Y61.317 F1000
G1 X69.802 Y61.350 F1000
G1 X69.675 Y61.343 F1000
G1 X69.551 Y61.330 F1000
G1 X69.417 Y61.330 F1000
G1 X69.225 Y61.315 F1000
G1 X69.041 Y61.306 F1000
G1 X68.849 Y61.300 F1000
G1 X68.338 Y61.238 F1000
G1 X67.820 Y61.164 F1000
G1 X66.243 Y60.974 F1000
G1 X64.659 Y60.788 F1000
G1 X64.094 Y60.727 F1000
G1 X63.530 Y60.702 F1000
G1 X63.172 Y60.702 F1000
G1 X63.004 Y60.702 F1000
G1 X62.778 Y60.678 F1000
G1 X62.632 Y60.678 F1000
G1 X62.502 Y60.673 F1000
G1 X62.406 Y60.649 F1000
G1 X62.354 Y60.617 F1000
G1 X62.301 Y60.551 F1000
G1 X62.231 Y60.504 F1000
G1 X62.196 Y60.459 F1000
G1 X62.167 Y60.376 F1000
G1 X62.188 Y60.273 F1000
G1 X62.222 Y60.200 F1000
; --- FIX X Backlash: 0.600mm ---
G0 X62.822 Y60.200 F1200
G1 X62.896 Y60.065 F1000
G1 X62.991 Y59.899 F1000
G1 X63.050 Y59.807 F1000
G1 X63.115 Y59.745 F1000
G1 X63.220 Y59.693 F1000
G1 X63.403 Y59.634 F1000
G1 X63.638 Y59.564 F1000
G1 X63.879 Y59.503 F1000
G1 X64.091 Y59.458 F1000
G1 X64.632 Y59.352 F1000
G1 X64.958 Y59.294 F1000
G1 X65.143 Y59.267 F1000
G1 X65.335 Y59.243 F1000
G1 X65.736 Y59.218 F1000
G1 X65.850 Y59.204 F1000
G1 X65.962 Y59.197 F1000
G1 X66.200 Y59.197 F1000
G1 X66.552 Y59.222 F1000
G1 X66.664 Y59.222 F1000
G1 X66.901 Y59.233 F1000
G1 X67.141 Y59.258 F1000
G1 X67.404 Y59.295 F1000
G1 X67.668 Y59.336 F1000
; --- FIX Y Backlash: 0.900mm ---
G0 X67.668 Y60.236 F1200
G1 X68.022 Y60.307 F1000
G1 X68.368 Y60.399 F1000
G1 X68.710 Y60.510 F1000
G1 X69.047 Y60.639 F1000
G1 X69.337 Y60.768 F1000
G1 X69.611 Y60.914 F1000
G1 X69.873 Y61.084 F1000
G1 X70.126 Y61.283 F1000
G1 X70.299 Y61.519 F1000
G1 X70.402 Y61.727 F1000
G1 X70.443 Y61.848 F1000
G1 X70.491 Y61.999 F1000
G1 X70.553 Y62.154 F1000
G0 Z3.5 F1000
; --- FIX X Backlash: -0.600mm ---
G0 X69.953 Y62.154 F1200
; --- FIX Y Backlash: -0.900mm ---
G0 X69.953 Y61.254 F1200
G0 X62.125 Y60.376 Z3.500
G1 Z0 F1000
; --- FIX Y Backlash: 0.900mm ---
G0 X62.125 Y61.276 F1200
G1 X61.799 Y61.337 F1000
G1 X61.700 Y61.362 F1000
G1 X61.599 Y61.389 F1000
G1 X61.018 Y61.533 F1000
G1 X60.445 Y61.698 F1000
G1 X60.235 Y61.770 F1000
G1 X60.038 Y61.842 F1000
G1 X59.869 Y61.912 F1000
G1 X59.742 Y61.978 F1000
G0 Z3.5 F1000
; --- FIX Y Backlash: -0.900mm ---
G0 X59.742 Y61.078 F1200
G0 X53.571 Y58.294 Z3.500
G1 Z0 F1000
; --- FIX Y Backlash: 0.900mm ---
G0 X53.571 Y59.194 F1200
G1 X53.489 Y59.494 F1000
G1 X53.473 Y59.796 F1000
G1 X53.491 Y59.946 F1000
G1 X53.507 Y60.106 F1000
G1 X53.527 Y60.272 F1000
; --- FIX X Backlash: 0.600mm ---
G0 X54.127 Y60.272 F1200
G1 X54.196 Y60.576 F1000
G1 X54.290 Y60.875 F1000
G1 X54.434 Y61.225 F1000
G1 X54.603 Y61.552 F1000
G1 X54.797 Y61.903 F1000
G1 X55.004 Y62.254 F1000
G1 X55.323 Y62.754 F1000
G1 X55.662 Y63.241 F1000
G1 X56.016 Y63.718 F1000
G1 X56.378 Y64.186 F1000
G1 X56.730 Y64.663 F1000
G1 X58.350 Y66.703 F1000
G1 X59.991 Y68.727 F1000
G0 Z3.5 F1000
; --- FIX X Backlash: -0.600mm ---
G0 X59.391 Y68.727 F1200
; --- FIX Y Backlash: -0.900mm ---
G0 X59.391 Y67.827 F1200
G0 X47.500 Y65.945 Z3.500
G1 Z0 F1000
G1 X47.300 Y65.720 F1000
G1 X47.113 Y65.418 F1000
G1 X46.948 Y65.168 F1000
G0 Z3.5 F1000
; --- FIX X Backlash: 0.600mm ---
G0 X47.548 Y65.168 F1200
G0 X48.978 Y64.741 Z3.500
G1 Z0 F1000
G1 X49.104 Y64.720 F1000
G1 X49.168 Y64.688 F1000
G1 X49.197 Y64.651 F1000
G1 X49.213 Y64.614 F1000
G1 X49.222 Y64.586 F1000
G1 X49.226 Y64.515 F1000
G1 X49.212 Y64.429 F1000
; --- FIX X Backlash: -0.600mm ---
G0 X48.612 Y64.429 F1200
G1 X48.481 Y63.998 F1000
G1 X48.436 Y63.863 F1000
G1 X48.394 Y63.761 F1000
G1 X48.352 Y63.687 F1000
; --- FIX Y Backlash: 0.900mm ---
G0 X48.352 Y64.587 F1200
G1 X47.198 Y65.741 F1000
G1 X47.071 Y65.863 F1000
G1 X46.923 Y66.043 F1000
G1 X46.948 Y66.068 F1000
; --- FIX X Backlash: 0.600mm ---
G0 X47.548 Y66.068 F1200
; --- FIX Y Backlash: -0.900mm ---
G0 X47.548 Y65.168 F1200
G1 X47.710 Y65.029 F1000
G1 X47.849 Y64.892 F1000
G1 X47.921 Y64.812 F1000
G1 X48.049 Y64.749 F1000
G1 X48.219 Y64.739 F1000
G1 X48.426 Y64.739 F1000
G1 X48.576 Y64.739 F1000
G1 X48.715 Y64.739 F1000
G1 X48.852 Y64.745 F1000
G1 X48.960 Y64.782 F1000
G1 X48.995 Y64.820 F1000
G1 X49.027 Y64.869 F1000
G1 X49.040 Y64.918 F1000
G1 X49.035 Y64.968 F1000
G1 X49.013 Y65.017 F1000
; --- FIX X Backlash: -0.600mm ---
G0 X48.413 Y65.017 F1200
; --- FIX Y Backlash: 0.900mm ---
G0 X48.413 Y65.917 F1200
G1 X48.309 Y66.041 F1000
G1 X48.177 Y66.168 F1000
G1 X47.500 Y66.845 F1000
; --- FIX X Backlash: 0.600mm ---
G0 X48.100 Y66.845 F1200
G1 X49.354 Y67.194 F1000
G1 X49.881 Y67.322 F1000
G0 Z3.5 F1000
; --- FIX X Backlash: -0.600mm ---
G0 X49.281 Y67.322 F1200
; --- FIX Y Backlash: -0.900mm ---
G0 X49.281 Y66.422 F1200
G0 X48.353 Y63.662 Z3.500
G1 Z0 F1000
G1 X47.736 Y63.096 F1000
G1 X47.109 Y62.564 F1000
G1 X46.483 Y62.028 F1000
G1 X45.869 Y61.455 F1000
G1 X45.753 Y61.344 F1000
G1 X45.644 Y61.237 F1000
G1 X45.552 Y61.120 F1000
G1 X45.486 Y60.978 F1000
G1 X45.461 Y60.890 F1000
G1 X45.407 Y60.669 F1000
G1 X45.421 Y60.552 F1000
G1 X45.451 Y60.454 F1000
; --- FIX X Backlash: 0.600mm ---
G0 X46.051 Y60.454 F1200
G1 X46.105 Y60.369 F1000
G1 X46.195 Y60.322 F1000
G1 X46.293 Y60.298 F1000
G1 X46.399 Y60.274 F1000
G1 X46.740 Y60.211 F1000
G1 X46.920 Y60.180 F1000
G1 X47.541 Y60.126 F1000
G1 X47.698 Y60.126 F1000
G1 X47.892 Y60.133 F1000
G1 X48.074 Y60.148 F1000
G1 X48.300 Y60.154 F1000
G1 X48.390 Y60.166 F1000
G1 X48.476 Y60.174 F1000
G1 X48.626 Y60.174 F1000
; --- FIX Y Backlash: 0.900mm ---
G0 X48.626 Y61.074 F1200
G1 X49.075 Y61.126 F1000
G1 X49.530 Y61.197 F1000
G1 X49.867 Y61.242 F1000
G1 X50.207 Y61.304 F1000
G1 X50.800 Y61.438 F1000
G1 X51.386 Y61.619 F1000
G1 X51.712 Y61.762 F1000
G1 X52.013 Y61.953 F1000
G0 Z3.5 F1000
; --- FIX X Backlash: -0.600mm ---
G0 X51.413 Y61.953 F1200
G0 X38.794 Y63.684 Z3.500
G1 Z0 F1000
G1 X38.594 Y63.634 F1000
G0 Z3.5 F1000
; --- FIX X Backlash: 0.600mm ---
G0 X39.194 Y63.634 F1200
; --- FIX Y Backlash: -0.900mm ---
G0 X39.194 Y62.734 F1200
G0 X40.899 Y60.627 Z3.500
G1 Z0 F1000
; --- FIX X Backlash: -0.600mm ---
G0 X40.299 Y60.627 F1200
; --- FIX Y Backlash: 0.900mm ---
G0 X40.299 Y61.527 F1200
G1 X40.218 Y61.605 F1000
G1 X40.132 Y61.702 F1000
G1 X40.106 Y61.759 F1000
G1 X40.066 Y61.878 F1000
G1 X40.029 Y61.959 F1000
G1 X39.995 Y61.996 F1000
G1 X39.924 Y62.068 F1000
G1 X39.798 Y62.172 F1000
G1 X39.691 Y62.235 F1000
G1 X39.575 Y62.269 F1000
G1 X39.450 Y62.281 F1000
G1 X39.321 Y62.277 F1000
G1 X39.121 Y62.249 F1000
; --- FIX Y Backlash: -0.900mm ---
G0 X39.121 Y61.349 F1200
G1 X38.965 Y61.296 F1000
G1 X38.823 Y61.221 F1000
G1 X38.669 Y61.124 F1000
G1 X38.185 Y60.814 F1000
G1 X37.665 Y60.468 F1000
G1 X37.494 Y60.344 F1000
G1 X37.047 Y60.001 F1000
G1 X36.700 Y59.724 F1000
G1 X36.619 Y59.654 F1000
G1 X36.550 Y59.567 F1000
G1 X36.499 Y59.448 F1000
G1 X36.464 Y59.297 F1000
G1 X36.433 Y59.172 F1000
G1 X36.408 Y59.116 F1000
G1 X36.378 Y59.042 F1000
G1 X36.378 Y58.946 F1000
; --- FIX X Backlash: 0.600mm ---
G0 X36.978 Y58.946 F1200
G1 X37.049 Y58.828 F1000
G1 X37.170 Y58.738 F1000
G1 X37.302 Y58.705 F1000
G1 X37.430 Y58.705 F1000
G1 X37.538 Y58.717 F1000
G1 X37.738 Y58.743 F1000
G1 X37.918 Y58.784 F1000
; --- FIX Y Backlash: 0.900mm ---
G0 X37.918 Y59.684 F1200
G1 X38.103 Y59.745 F1000
G1 X38.315 Y59.832 F1000
G1 X38.685 Y60.000 F1000
G1 X39.043 Y60.179 F1000
G1 X39.841 Y60.636 F1000
G1 X40.598 Y61.140 F1000
G1 X40.763 Y61.300 F1000
G1 X40.860 Y61.450 F1000
G1 X40.908 Y61.514 F1000
G1 X40.976 Y61.552 F1000
G1 X41.072 Y61.584 F1000
G1 X41.175 Y61.613 F1000
G1 X41.295 Y61.657 F1000
G1 X41.401 Y61.719 F1000
G1 X41.732 Y61.965 F1000
G1 X42.191 Y62.332 F1000
G1 X42.329 Y62.455 F1000
G1 X42.424 Y62.565 F1000
G1 X42.479 Y62.681 F1000
G1 X42.515 Y62.797 F1000
G1 X42.547 Y62.907 F1000
G1 X42.596 Y63.044 F1000
G1 X42.596 Y63.095 F1000
G1 X42.578 Y63.183 F1000
G1 X42.534 Y63.304 F1000
; --- FIX X Backlash: -0.600mm ---
G0 X41.934 Y63.304 F1200
G1 X41.870 Y63.398 F1000
G1 X41.758 Y63.467 F1000
G1 X41.629 Y63.508 F1000
G1 X41.461 Y63.539 F1000
G1 X41.278 Y63.563 F1000
G1 X40.982 Y63.584 F1000
G1 X40.701 Y63.584 F1000
G1 X40.166 Y63.537 F1000
; --- FIX Y Backlash: -0.900mm ---
G0 X40.166 Y62.637 F1200
G1 X39.514 Y62.568 F1000
G1 X39.396 Y62.559 F1000
G1 X39.222 Y62.556 F1000
G1 X39.070 Y62.563 F1000
G1 X38.966 Y62.609 F1000
; --- FIX Y Backlash: 0.900mm ---
G0 X38.966 Y63.509 F1200
G1 X38.921 Y63.560 F1000
G1 X38.865 Y63.607 F1000
G1 X38.844 Y63.644 F1000
G1 X38.832 Y63.709 F1000
G1 X38.846 Y63.794 F1000
G1 X38.865 Y63.835 F1000
G1 X38.895 Y63.914 F1000
; --- FIX X Backlash: 0.600mm ---
G0 X39.495 Y63.914 F1200
G1 X39.545 Y64.036 F1000
G1 X39.627 Y64.227 F1000
G1 X39.751 Y64.427 F1000
G1 X39.908 Y64.526 F1000
G1 X40.323 Y64.700 F1000
G1 X40.548 Y64.787 F1000
G1 X41.054 Y64.970 F1000
G1 X41.563 Y65.141 F1000
G1 X42.080 Y65.292 F1000
G1 X42.605 Y65.421 F1000
G1 X42.905 Y65.491 F1000
G1 X43.581 Y65.675 F1000
G1 X43.960 Y65.749 F1000
G1 X44.437 Y65.810 F1000
G1 X44.581 Y65.816 F1000
G1 X44.699 Y65.799 F1000
G1 X44.799 Y65.762 F1000
G1 X44.888 Y65.713 F1000
G1 X44.926 Y65.688 F1000
G1 X44.970 Y65.664 F1000
G1 X45.042 Y65.642 F1000
G1 X45.164 Y65.621 F1000
G1 X45.445 Y65.599 F1000
G1 X45.716 Y65.618 F1000
G1 X45.808 Y65.641 F1000
G1 X46.212 Y65.728 F1000
G1 X46.544 Y65.811 F1000
G1 X46.695 Y65.843 F1000
G1 X46.845 Y65.878 F1000
G1 X47.247 Y65.978 F1000
G1 X47.396 Y66.023 F1000
G1 X47.486 Y66.041 F1000
G1 X47.523 Y66.041 F1000
G0 Z3.5 F1000
; --- FIX X Backlash: -0.600mm ---
G0 X46.923 Y66.041 F1200
; --- FIX Y Backlash: -0.900mm ---
G0 X46.923 Y65.141 F1200
G0 X36.561 Y59.598 Z3.500
G1 Z0 F1000
; --- FIX X Backlash: 0.600mm ---
G0 X37.161 Y59.598 F1200
G1 X37.964 Y58.795 F1000
G0 Z3.5 F1000
; --- FIX Y Backlash: 0.900mm ---
G0 X37.964 Y59.695 F1200
G0 X84.276 Y70.834 Z3.500
G1 Z0 F1000
; --- FIX X Backlash: -0.600mm ---
G0 X83.676 Y70.834 F1200
G1 X83.500 Y71.006 F1000
G1 X83.338 Y71.185 F1000
G1 X83.214 Y71.376 F1000
G1 X83.120 Y71.587 F1000
G1 X83.077 Y71.726 F1000
G1 X83.046 Y71.872 F1000
G1 X83.030 Y72.020 F1000
G1 X83.038 Y72.164 F1000
G1 X83.071 Y72.371 F1000
; --- FIX X Backlash: 0.600mm ---
G0 X83.671 Y72.371 F1200
G1 X83.724 Y72.565 F1000
G1 X83.816 Y72.769 F1000
G1 X83.940 Y72.942 F1000
G1 X84.086 Y73.102 F1000
G1 X84.250 Y73.252 F1000
G1 X84.435 Y73.396 F1000
G1 X84.627 Y73.526 F1000
G1 X84.926 Y73.710 F1000
G1 X85.244 Y73.884 F1000
G1 X85.574 Y74.041 F1000
G1 X85.906 Y74.171 F1000
M9

G90
G1 Z10 F800

; Return to 2,0 wash and park
G1 Z10 F1000;        ; Raise brush to safe height
; --- FIX X Backlash: -0.600mm ---
G0 X85.306 Y74.171 F1200
; --- FIX Y Backlash: -0.900mm ---
G0 X85.306 Y73.271 F1200
G0 X4.400 Y4.100
G1 Z-1 F800;         ; Lower brush for cleaning - controlled movement
; --- FIX X Backlash: 0.600mm ---
G0 X5.000 Y4.100 F1200
; --- FIX Y Backlash: 0.900mm ---
G0 X5.000 Y5.000 F1200
G1 X10.000 Y12.000 Z8.000 F1200
G1 Z-1 F800;         ; Lower brush for cleaning - controlled movement
G1 X25.000 Y14.000 Z6.000 F800
; --- FIX X Backlash: -0.600mm ---
G0 X24.400 Y14.000 F1200
; --- FIX Y Backlash: -0.900mm ---
G0 X24.400 Y13.100 F1200
G0 X4.400 Y4.100
G1 Z-1 F800;         ; Lower brush for cleaning - controlled movement
; --- FIX X Backlash: 0.600mm ---
G0 X5.000 Y4.100 F1200
; --- FIX Y Backlash: 0.900mm ---
G0 X5.000 Y5.000 F1200
G1 X15.000 Y12.000 Z8.000 F1200
G1 Z-1 F800;         ; Lower brush for cleaning - controlled movement
G1 X25.000 Y14.000 Z6.000 F800
G1 Z10 F800;         ; Maintain brush height - controlled movement
; --- FIX X Backlash: -0.600mm ---
G0 X24.400 Y14.000 F1200
G0 X19.400 Y130.000 Z10.000
M2;                 ; End program
M2 ; Konec G-kode