;LightBurn 1.6.04
;Custom GCode device profile, absolute coords
;Bounds: X26.82 Y13.75 to X113.18 Y108.25
G00 G17 G40 G21 G54
G90
M3
G1 Z1F500
;Cut @ 15 mm/sec, 90% power

M8
G0 Z1.8F500
G0 X30.566Y24.477Z1.8F1000
G1 Z0F500
;Layer C00
G1 X30.485Y26.432Z0S900F800
G1 Y28.392Z0F800
G1 X30.52Y30.354Z0F800
G1 X30.533Y32.313Z0F800
G1 X35.726Z0F800
G1 X37.163Y32.302Z0F800
G1 X38.603Y32.311Z0F800
G1 X39.321Y32.303Z0F800
G1 X40.038Y32.277Z0F800
G1 X40.751Y32.224Z0F800
G1 X41.461Y32.138Z0F800
G1 X42.05Y31.905Z0F800
G1 X42.609Y31.581Z0F800
G1 X43.117Y31.176Z0F800
G1 X43.555Y30.701Z0F800
G1 X43.743Y30.44Z0F800
G1 X43.905Y30.166Z0F800
G1 X44.041Y29.881Z0F800
G1 X44.148Y29.584Z0F800
G1 X44.222Y29.279Z0F800
G1 X44.263Y28.965Z0F800
G1 X44.266Y28.645Z0F800
G1 X44.231Y28.32Z0F800
G1 X44.205Y27.778Z0F800
G1 X44.083Y27.254Z0F800
G1 X43.874Y26.758Z0F800
G1 X43.588Y26.302Z0F800
G1 X43.234Y25.898Z0F800
G1 X42.821Y25.557Z0F800
G1 X42.358Y25.291Z0F800
G1 X41.855Y25.11Z0F800
G1 X41.203Y24.857Z0F800
G1 X40.528Y24.687Z0F800
G1 X39.835Y24.582Z0F800
G1 X39.129Y24.527Z0F800
G1 X37.703Y24.501Z0F800
G1 X36.293Y24.479Z0F800
G1 X33.43Z0F800
G1 X30.566Z0F800
G0 Z1.8F500
G0 X31.78Y35.588Z1.8F1000
G1 Z0F500
G1 X30.376Y35.669Z0F800
G1 X30.348Y37.526Z0F800
G1 X30.354Y39.384Z0F800
G1 X30.374Y41.241Z0F800
G1 X30.39Y43.099Z0F800
G1 X34.849Z0F800
G1 X35.504Y43.076Z0F800
G1 X36.169Z0F800
G1 X36.84Y43.091Z0F800
G1 X37.512Y43.102Z0F800
G1 X38.071Y43.099Z0F800
G1 X38.626Y43.077Z0F800
G1 X39.175Y43.029Z0F800
G1 X39.716Y42.946Z0F800
G1 X40.245Y42.821Z0F800
G1 X40.762Y42.646Z0F800
G1 X41.263Y42.413Z0F800
G1 X41.747Y42.114Z0F800
G1 X41.974Y41.908Z0F800
G1 X42.179Y41.682Z0F800
G1 X42.36Y41.438Z0F800
G1 X42.519Y41.177Z0F800
G1 X42.767Y40.618Z0F800
G1 X42.923Y40.022Z0F800
G1 X42.99Y39.407Z0F800
G1 X42.967Y38.791Z0F800
G1 X42.855Y38.191Z0F800
G1 X42.655Y37.624Z0F800
G1 X42.414Y37.318Z0F800
G1 X42.155Y37.024Z0F800
G1 X41.879Y36.75Z0F800
G1 X41.583Y36.498Z0F800
G1 X41.268Y36.276Z0F800
G1 X40.933Y36.087Z0F800
G1 X40.576Y35.936Z0F800
G1 X40.197Y35.83Z0F800
G1 X39.69Y35.724Z0F800
G1 X39.173Y35.657Z0F800
G1 X38.65Y35.622Z0F800
G1 X38.122Y35.607Z0F800
G1 X37.061Y35.603Z0F800
G1 X36.009Y35.572Z0F800
G1 X34.599Y35.564Z0F800
G1 X33.188Y35.561Z0F800
G1 X31.78Y35.588Z0F800
G0 Z1.8F500
G0 X26.902Y35.64Z1.8F1000
G1 Z0F500
G1 X26.897Y30.435Z0F800
G1 X26.876Y25.232Z0F800
G1 X26.882Y24.334Z0F800
G1 X26.861Y23.429Z0F800
G1 X26.864Y22.53Z0F800
G1 X26.946Y21.649Z0F800
G1 X30.605Y21.599Z0F800
G1 X34.274Y21.593Z0F800
G1 X37.944Y21.605Z0F800
G1 X41.611Y21.611Z0F800
G1 X42.471Y21.873Z0F800
G1 X43.336Y22.175Z0F800
G1 X44.186Y22.53Z0F800
G1 X44.999Y22.949Z0F800
G1 X45.386Y23.186Z0F800
G1 X45.757Y23.445Z0F800
G1 X46.107Y23.726Z0F800
G1 X46.436Y24.031Z0F800
G1 X46.741Y24.361Z0F800
G1 X47.019Y24.718Z0F800
G1 X47.267Y25.104Z0F800
G1 X47.482Y25.52Z0F800
G1 X47.706Y26.03Z0F800
G1 X47.851Y26.56Z0F800
G1 X47.931Y27.105Z0F800
G1 X47.959Y27.66Z0F800
G1 X47.915Y28.781Z0F800
G1 X47.824Y29.884Z0F800
G1 X47.745Y30.244Z0F800
G1 X47.638Y30.595Z0F800
G1 X47.506Y30.936Z0F800
G1 X47.349Y31.267Z0F800
G1 X46.969Y31.892Z0F800
G1 X46.508Y32.463Z0F800
G1 X45.98Y32.976Z0F800
G1 X45.396Y33.421Z0F800
G1 X44.767Y33.794Z0F800
G1 X44.106Y34.087Z0F800
G1 X43.928Y34.198Z0F800
G1 X43.696Y34.242Z0F800
G1 X43.61Y34.265Z0F800
G1 X43.572Y34.303Z0F800
G1 X43.602Y34.366Z0F800
G1 X43.72Y34.464Z0F800
G1 X44.246Y34.793Z0F800
G1 X44.73Y35.183Z0F800
G1 X45.169Y35.626Z0F800
G1 X45.56Y36.115Z0F800
G1 X45.897Y36.643Z0F800
G1 X46.179Y37.2Z0F800
G1 X46.401Y37.781Z0F800
G1 X46.56Y38.377Z0F800
G1 X46.634Y39.198Z0F800
G1 X46.623Y40.033Z0F800
G1 X46.584Y40.45Z0F800
G1 X46.522Y40.863Z0F800
G1 X46.435Y41.271Z0F800
G1 X46.322Y41.67Z0F800
G1 X46.183Y42.059Z0F800
G1 X46.018Y42.435Z0F800
G1 X45.824Y42.796Z0F800
G1 X45.602Y43.14Z0F800
G1 X45.35Y43.464Z0F800
G1 X45.068Y43.766Z0F800
G1 X44.754Y44.044Z0F800
G1 X44.409Y44.295Z0F800
G1 X43.781Y44.714Z0F800
G1 X43.122Y45.071Z0F800
G1 X42.437Y45.37Z0F800
G1 X41.729Y45.61Z0F800
G1 X41.005Y45.795Z0F800
G1 X40.267Y45.927Z0F800
G1 X39.52Y46.006Z0F800
G1 X38.769Y46.035Z0F800
G1 X37.244Y46.107Z0F800
G1 X35.718Y46.148Z0F800
G1 X34.191Y46.166Z0F800
G1 X32.664Z0F800
G1 X31.242Y46.149Z0F800
G1 X29.813Y46.155Z0F800
G1 X28.391Y46.134Z0F800
G1 X26.987Y46.038Z0F800
G1 X26.922Y40.843Z0F800
G1 X26.902Y35.64Z0F800
G0 Z1.8F500
G0 X27.358Y54.084Z1.8F1000
G1 Z0F500
G1 X28.594Y54.1Z0F800
G1 X29.19Y54.092Z0F800
G1 X29.83Y54.088Z0F800
G1 X29.97Y54.111Z0F800
G1 X30.095Y54.149Z0F800
G1 X30.2Y54.207Z0F800
G1 X30.284Y54.287Z0F800
G1 X30.341Y54.392Z0F800
G1 X30.368Y54.526Z0F800
G1 X30.362Y54.691Z0F800
G1 X30.32Y54.891Z0F800
G1 X30.331Y57.513Z0F800
G1 X30.309Y60.146Z0F800
G1 X30.313Y61.459Z0F800
G1 X30.343Y62.767Z0F800
G1 X30.408Y64.066Z0F800
G1 X30.521Y65.354Z0F800
G1 X30.634Y65.93Z0F800
G1 X30.813Y66.49Z0F800
G1 X31.056Y67.023Z0F800
G1 X31.361Y67.521Z0F800
G1 X31.727Y67.974Z0F800
G1 X32.152Y68.374Z0F800
G1 X32.634Y68.71Z0F800
G1 X33.171Y68.975Z0F800
G1 X33.72Y69.229Z0F800
G1 X34.292Y69.416Z0F800
G1 X34.882Y69.543Z0F800
G1 X35.483Y69.618Z0F800
G1 X36.09Y69.645Z0F800
G1 X36.696Y69.633Z0F800
G1 X37.297Y69.587Z0F800
G1 X37.886Y69.515Z0F800
G1 X38.452Y69.268Z0F800
G1 X38.983Y68.949Z0F800
G1 X39.47Y68.564Z0F800
G1 X39.903Y68.121Z0F800
G1 X40.271Y67.626Z0F800
G1 X40.567Y67.087Z0F800
G1 X40.779Y66.51Z0F800
G1 X40.898Y65.903Z0F800
G1 X40.995Y65.514Z0F800
G1 X41.051Y65.114Z0F800
G1 X41.076Y64.705Z0F800
G1 X41.08Y64.291Z0F800
G1 X41.067Y63.457Z0F800
G1 X41.093Y62.637Z0F800
G1 X41.109Y60.522Z0F800
G1 X41.097Y58.403Z0F800
G1 X41.101Y56.287Z0F800
G1 X41.166Y54.186Z0F800
G1 X41.938Y54.093Z0F800
G1 X42.743Y54.088Z0F800
G1 X43.559Y54.11Z0F800
G1 X44.361Y54.1Z0F800
G1 X44.511Y54.329Z0F800
G1 X44.589Y54.598Z0F800
G1 X44.612Y54.897Z0F800
G1 X44.6Y55.214Z0F800
G1 X44.542Y55.866Z0F800
G1 X44.562Y56.474Z0F800
G1 X44.532Y59.206Z0F800
G1 Y61.941Z0F800
G1 X44.521Y63.308Z0F800
G1 X44.49Y64.673Z0F800
G1 X44.431Y66.037Z0F800
G1 X44.335Y67.398Z0F800
G1 X44.115Y67.936Z0F800
G1 X43.913Y68.489Z0F800
G1 X43.678Y69.03Z0F800
G1 X43.362Y69.535Z0F800
G1 X43.105Y69.975Z0F800
G1 X42.812Y70.378Z0F800
G1 X42.488Y70.744Z0F800
G1 X42.134Y71.076Z0F800
G1 X41.755Y71.375Z0F800
G1 X41.351Y71.642Z0F800
G1 X40.927Y71.879Z0F800
G1 X40.485Y72.087Z0F800
G1 X40.028Y72.267Z0F800
G1 X39.558Y72.422Z0F800
G1 X39.08Y72.551Z0F800
G1 X38.594Y72.658Z0F800
G1 X37.616Y72.806Z0F800
G1 X36.645Y72.877Z0F800
G1 X35.752Y72.799Z0F800
G1 X34.87Y72.645Z0F800
G1 X34.006Y72.414Z0F800
G1 X33.168Y72.107Z0F800
G1 X32.364Y71.723Z0F800
G1 X31.601Y71.262Z0F800
G1 X30.889Y70.724Z0F800
G1 X30.233Y70.108Z0F800
G1 X30.188Y70.376Z0F800
G1 X30.171Y70.672Z0F800
G1 Y70.99Z0F800
G1 X30.182Y71.32Z0F800
G1 X30.19Y71.654Z0F800
G1 X30.185Y71.985Z0F800
G1 X30.157Y72.304Z0F800
G1 X30.096Y72.603Z0F800
G1 X29.305Y72.647Z0F800
G1 X28.5Y72.667Z0F800
G1 X27.698Y72.648Z0F800
G1 X26.916Y72.571Z0F800
G1 X26.865Y68.158Z0F800
G1 X26.862Y63.736Z0F800
G1 X26.873Y59.312Z0F800
G1 X26.867Y54.891Z0F800
G1 X26.826Y54.688Z0F800
G1 X26.822Y54.521Z0F800
G1 X26.85Y54.387Z0F800
G1 X26.907Y54.281Z0F800
G1 X26.99Y54.201Z0F800
G1 X27.095Y54.144Z0F800
G1 X27.219Y54.106Z0F800
G1 X27.358Y54.084Z0F800
G0 Z1.8F500
G0 X52.752Y54.317Z1.8F1000
G1 Z0F500
G1 X53.002Y54.172Z0F800
G1 X53.29Y54.094Z0F800
G1 X53.605Y54.066Z0F800
G1 X53.939Y54.072Z0F800
G1 X54.623Y54.117Z0F800
G1 X55.268Y54.094Z0F800
G1 X74.97Y54.028Z0F800
G1 X75.043Y21.816Z0F800
G1 X75.264Y21.666Z0F800
G1 X75.524Y21.588Z0F800
G1 X75.812Y21.562Z0F800
G1 X76.12Y21.571Z0F800
G1 X76.753Y21.622Z0F800
G1 X77.343Y21.6Z0F800
G1 X77.537Y21.55Z0F800
G1 X77.713Y21.525Z0F800
G1 X77.87Z0F800
G1 X78.009Y21.543Z0F800
G1 X78.237Y21.642Z0F800
G1 X78.401Y21.813Z0F800
G1 X78.504Y22.042Z0F800
G1 X78.551Y22.318Z0F800
G1 X78.546Y22.63Z0F800
G1 X78.494Y22.967Z0F800
G1 Y57.334Z0F800
G1 X78.243Y57.479Z0F800
G1 X77.956Y57.558Z0F800
G1 X77.641Y57.585Z0F800
G1 X77.307Y57.579Z0F800
G1 X76.623Y57.534Z0F800
G1 X75.978Y57.558Z0F800
G1 X56.277Y57.623Z0F800
G1 X56.372Y100.332Z0F800
G1 X56.158Y100.481Z0F800
G1 X55.906Y100.56Z0F800
G1 X55.625Y100.587Z0F800
G1 X55.326Y100.579Z0F800
G1 X54.708Y100.529Z0F800
G1 X54.41Y100.521Z0F800
G1 X54.131Y100.549Z0F800
G1 X53.796Y100.54Z0F800
G1 X53.453Y100.559Z0F800
G1 X53.116Y100.553Z0F800
G1 X52.8Y100.469Z0F800
G1 X52.75Y96.055Z0F800
G1 X52.746Y91.634Z0F800
G1 X52.757Y87.21Z0F800
G1 X52.752Y82.789Z0F800
G1 Y54.317Z0F800
G0 Z1.8F500
G0 X59.418Y37.114Z1.8F1000
G1 Z0F500
G1 X59.814Y37.179Z0F800
G1 X60.216Y37.213Z0F800
G1 X60.625Z0F800
G1 X61.496Y37.17Z0F800
G1 X62.376Y37.086Z0F800
G1 X62.805Y37.004Z0F800
G1 X63.218Y36.882Z0F800
G1 X63.611Y36.71Z0F800
G1 X63.977Y36.478Z0F800
G1 X64.245Y36.311Z0F800
G1 X64.531Y36.166Z0F800
G1 X64.8Y35.99Z0F800
G1 X65.016Y35.733Z0F800
G1 X65.552Y35.091Z0F800
G1 X66.028Y34.396Z0F800
G1 X66.236Y34.031Z0F800
G1 X66.421Y33.654Z0F800
G1 X66.58Y33.266Z0F800
G1 X66.709Y32.867Z0F800
G1 X66.824Y32.45Z0F800
G1 X66.895Y32.017Z0F800
G1 X66.931Y31.572Z0F800
G1 X66.937Y31.121Z0F800
G1 X66.898Y30.217Z0F800
G1 X66.839Y29.347Z0F800
G1 X66.634Y28.785Z0F800
G1 X66.465Y28.205Z0F800
G1 X66.371Y27.917Z0F800
G1 X66.259Y27.636Z0F800
G1 X66.12Y27.366Z0F800
G1 X65.944Y27.11Z0F800
G1 X65.725Y26.785Z0F800
G1 X65.484Y26.478Z0F800
G1 X65.221Y26.19Z0F800
G1 X64.939Y25.922Z0F800
G1 X64.639Y25.675Z0F800
G1 X64.323Y25.448Z0F800
G1 X63.992Y25.243Z0F800
G1 X63.648Y25.061Z0F800
G1 X63.293Y24.901Z0F800
G1 X62.927Y24.766Z0F800
G1 X62.553Y24.654Z0F800
G1 X62.173Y24.568Z0F800
G1 X61.787Y24.507Z0F800
G1 X61.398Y24.473Z0F800
G1 X61.006Y24.466Z0F800
G1 X60.614Y24.487Z0F800
G1 X60.175Y24.477Z0F800
G1 X59.742Y24.509Z0F800
G1 X59.317Y24.58Z0F800
G1 X58.901Y24.689Z0F800
G1 X58.497Y24.832Z0F800
G1 X58.105Y25.008Z0F800
G1 X57.727Y25.215Z0F800
G1 X57.364Y25.451Z0F800
G1 X57.019Y25.713Z0F800
G1 X56.691Y25.999Z0F800
G1 X56.383Y26.307Z0F800
G1 X56.097Y26.635Z0F800
G1 X55.833Y26.981Z0F800
G1 X55.593Y27.342Z0F800
G1 X55.379Y27.717Z0F800
G1 X55.191Y28.102Z0F800
G1 X54.966Y28.829Z0F800
G1 X54.807Y29.578Z0F800
G1 X54.717Y30.341Z0F800
G1 X54.697Y31.111Z0F800
G1 X54.75Y31.879Z0F800
G1 X54.878Y32.638Z0F800
G1 X55.084Y33.379Z0F800
G1 X55.369Y34.096Z0F800
G1 X55.816Y34.762Z0F800
G1 X56.339Y35.372Z0F800
G1 X56.93Y35.913Z0F800
G1 X57.581Y36.376Z0F800
G1 X57.927Y36.575Z0F800
G1 X58.284Y36.749Z0F800
G1 X58.652Y36.898Z0F800
G1 X59.031Y37.02Z0F800
G1 X59.418Y37.114Z0F800
G0 Z1.8F500
G0 X57.753Y39.943Z1.8F1000
G1 Z0F500
G1 X57.029Y39.72Z0F800
G1 X56.327Y39.431Z0F800
G1 X55.656Y39.079Z0F800
G1 X55.018Y38.665Z0F800
G1 X54.421Y38.187Z0F800
G1 X53.84Y37.669Z0F800
G1 X53.312Y37.104Z0F800
G1 X52.839Y36.497Z0F800
G1 X52.422Y35.853Z0F800
G1 X52.06Y35.177Z0F800
G1 X51.755Y34.472Z0F800
G1 X51.507Y33.745Z0F800
G1 X51.316Y33Z0F800
G1 X51.183Y32.242Z0F800
G1 X51.109Y31.475Z0F800
G1 X51.094Y30.704Z0F800
G1 X51.14Y29.935Z0F800
G1 X51.245Y29.171Z0F800
G1 X51.412Y28.419Z0F800
G1 X51.64Y27.682Z0F800
G1 X51.93Y26.965Z0F800
G1 X52.14Y26.483Z0F800
G1 X52.382Y26.02Z0F800
G1 X52.654Y25.577Z0F800
G1 X52.956Y25.153Z0F800
G1 X53.283Y24.75Z0F800
G1 X53.636Y24.366Z0F800
G1 X54.011Y24.004Z0F800
G1 X54.406Y23.662Z0F800
G1 X54.82Y23.34Z0F800
G1 X55.251Y23.04Z0F800
G1 X55.697Y22.762Z0F800
G1 X56.155Y22.505Z0F800
G1 X57.101Y22.057Z0F800
G1 X58.073Y21.698Z0F800
G1 X58.668Y21.581Z0F800
G1 X59.27Y21.516Z0F800
G1 X59.876Y21.49Z0F800
G1 X60.485Y21.493Z0F800
G1 X61.705Y21.545Z0F800
G1 X62.918Y21.587Z0F800
G1 X63.454Y21.677Z0F800
G1 X63.981Y21.812Z0F800
G1 X64.497Y21.985Z0F800
G1 X65.002Y22.193Z0F800
G1 X65.973Y22.69Z0F800
G1 X66.887Y23.264Z0F800
G1 X67.539Y23.841Z0F800
G1 X68.143Y24.469Z0F800
G1 X68.691Y25.144Z0F800
G1 X69.176Y25.863Z0F800
G1 X69.592Y26.622Z0F800
G1 X69.929Y27.418Z0F800
G1 X70.183Y28.249Z0F800
G1 X70.344Y29.11Z0F800
G1 X70.461Y30.141Z0F800
G1 X70.486Y31.185Z0F800
G1 X70.463Y31.707Z0F800
G1 X70.415Y32.227Z0F800
G1 X70.342Y32.743Z0F800
G1 X70.242Y33.254Z0F800
G1 X70.115Y33.758Z0F800
G1 X69.961Y34.253Z0F800
G1 X69.779Y34.738Z0F800
G1 X69.568Y35.211Z0F800
G1 X69.328Y35.67Z0F800
G1 X69.058Y36.114Z0F800
G1 X68.757Y36.541Z0F800
G1 X68.424Y36.949Z0F800
G1 X67.911Y37.535Z0F800
G1 X67.346Y38.071Z0F800
G1 X66.736Y38.554Z0F800
G1 X66.085Y38.983Z0F800
G1 X65.4Y39.353Z0F800
G1 X64.685Y39.664Z0F800
G1 X63.948Y39.912Z0F800
G1 X63.192Y40.094Z0F800
G1 X62.502Y40.165Z0F800
G1 X61.809Y40.198Z0F800
G1 X61.115Y40.207Z0F800
G1 X60.422Z0F800
G1 X60.218Y40.216Z0F800
G1 X60.014Y40.221Z0F800
G1 X59.252Y40.195Z0F800
G1 X58.496Y40.102Z0F800
G1 X57.753Y39.943Z0F800
G0 Z1.8F500
G0 X82.52Y39.512Z1.8F1000
G1 Z0F500
G1 X82.526Y38.794Z0F800
G1 X82.574Y38.08Z0F800
G1 X82.678Y37.39Z0F800
G1 X83.403Y37.334Z0F800
G1 X84.133Y37.324Z0F800
G1 X84.859Y37.306Z0F800
G1 X85.572Y37.227Z0F800
G1 X85.684Y34.256Z0F800
G1 X85.711Y29.773Z0F800
G1 X85.742Y28.279Z0F800
G1 X85.808Y26.788Z0F800
G1 X85.925Y25.302Z0F800
G1 X86.027Y24.869Z0F800
G1 X86.174Y24.454Z0F800
G1 X86.363Y24.058Z0F800
G1 X86.591Y23.684Z0F800
G1 X86.855Y23.333Z0F800
G1 X87.15Y23.007Z0F800
G1 X87.475Y22.708Z0F800
G1 X87.825Y22.437Z0F800
G1 X88.198Y22.196Z0F800
G1 X88.59Y21.987Z0F800
G1 X88.998Y21.812Z0F800
G1 X89.419Y21.673Z0F800
G1 X89.849Y21.57Z0F800
G1 X90.285Y21.507Z0F800
G1 X90.725Y21.485Z0F800
G1 X91.163Y21.505Z0F800
G1 X91.737Y21.499Z0F800
G1 X92.323Y21.513Z0F800
G1 X92.909Y21.556Z0F800
G1 X93.488Y21.643Z0F800
G1 X94.049Y21.784Z0F800
G1 X94.583Y21.992Z0F800
G1 X94.836Y22.125Z0F800
G1 X95.08Y22.279Z0F800
G1 X95.312Y22.455Z0F800
G1 X95.531Y22.656Z0F800
G1 X95.535Y22.917Z0F800
G1 X95.495Y23.174Z0F800
G1 X95.423Y23.428Z0F800
G1 X95.327Y23.68Z0F800
G1 X95.108Y24.176Z0F800
G1 X94.917Y24.664Z0F800
G1 X94.765Y24.748Z0F800
G1 X94.612Y24.802Z0F800
G1 X94.457Y24.829Z0F800
G1 X94.301Y24.832Z0F800
G1 X93.986Y24.783Z0F800
G1 X93.667Y24.684Z0F800
G1 X93.346Y24.565Z0F800
G1 X93.023Y24.455Z0F800
G1 X92.699Y24.384Z0F800
G1 X92.375Y24.38Z0F800
G1 X91.875Y24.328Z0F800
G1 X91.383Y24.37Z0F800
G1 X90.912Y24.5Z0F800
G1 X90.475Y24.711Z0F800
G1 X90.084Y24.997Z0F800
G1 X89.751Y25.352Z0F800
G1 X89.61Y25.553Z0F800
G1 X89.489Y25.768Z0F800
G1 X89.389Y25.998Z0F800
G1 X89.311Y26.24Z0F800
G1 X89.214Y27.27Z0F800
G1 X89.161Y28.304Z0F800
G1 X89.143Y29.342Z0F800
G1 X89.148Y30.382Z0F800
G1 X89.185Y32.464Z0F800
G1 Y34.543Z0F800
G1 X89.206Y37.349Z0F800
G1 X90.545Y37.378Z0F800
G1 X91.892Z0F800
G1 X93.232Y37.404Z0F800
G1 X94.553Y37.507Z0F800
G1 X94.592Y38.189Z0F800
G1 X94.615Y38.884Z0F800
G1 X94.599Y39.576Z0F800
G1 X94.52Y40.247Z0F800
G1 X93.181Y40.298Z0F800
G1 X91.833Y40.302Z0F800
G1 X90.483Y40.29Z0F800
G1 X89.135Y40.295Z0F800
G1 X89.126Y41.256Z0F800
G1 X89.145Y42.224Z0F800
G1 X89.14Y43.186Z0F800
G1 X89.055Y44.13Z0F800
G1 X88.231Y44.172Z0F800
G1 X87.387Y44.194Z0F800
G1 X86.546Y44.176Z0F800
G1 X85.731Y44.098Z0F800
G1 X85.68Y43.154Z0F800
G1 X85.677Y42.202Z0F800
G1 X85.689Y41.247Z0F800
G1 X85.683Y40.295Z0F800
G1 X84.895Y40.286Z0F800
G1 X84.101Y40.306Z0F800
G1 X83.312Y40.301Z0F800
G1 X82.542Y40.216Z0F800
G1 X82.52Y39.512Z0F800
G0 Z1.8F500
G0 X98.237Y36.533Z1.8F1000
G1 Z0F500
G1 X98.118Y36.193Z0F800
G1 X98.024Y35.845Z0F800
G1 X97.954Y35.491Z0F800
G1 X97.908Y35.133Z0F800
G1 X97.888Y34.771Z0F800
G1 X97.894Y34.408Z0F800
G1 X97.927Y34.045Z0F800
G1 X97.986Y33.684Z0F800
G1 X98.098Y33.291Z0F800
G1 X98.235Y32.9Z0F800
G1 X98.4Y32.519Z0F800
G1 X98.596Y32.157Z0F800
G1 X98.829Y31.82Z0F800
G1 X99.102Y31.518Z0F800
G1 X99.418Y31.258Z0F800
G1 X99.781Y31.048Z0F800
G1 X100.422Y30.658Z0F800
G1 X101.09Y30.339Z0F800
G1 X101.783Y30.08Z0F800
G1 X102.493Y29.869Z0F800
G1 X103.947Y29.549Z0F800
G1 X105.412Y29.284Z0F800
G1 X106.483Y29.067Z0F800
G1 X107.601Y28.857Z0F800
G1 X108.128Y28.692Z0F800
G1 X108.609Y28.454Z0F800
G1 X108.826Y28.299Z0F800
G1 X109.024Y28.117Z0F800
G1 X109.201Y27.904Z0F800
G1 X109.354Y27.656Z0F800
G1 X109.442Y27.452Z0F800
G1 X109.503Y27.244Z0F800
G1 X109.536Y27.034Z0F800
G1 X109.544Y26.824Z0F800
G1 X109.488Y26.411Z0F800
G1 X109.344Y26.019Z0F800
G1 X109.122Y25.661Z0F800
G1 X108.832Y25.352Z0F800
G1 X108.484Y25.105Z0F800
G1 X108.086Y24.935Z0F800
G1 X107.282Y24.694Z0F800
G1 X106.463Y24.544Z0F800
G1 X105.634Y24.477Z0F800
G1 X104.8Y24.48Z0F800
G1 X103.965Y24.545Z0F800
G1 X103.134Y24.662Z0F800
G1 X102.312Y24.82Z0F800
G1 X101.503Y25.008Z0F800
G1 X100.83Y25.284Z0F800
G1 X100.147Y25.632Z0F800
G1 X99.802Y25.774Z0F800
G1 X99.452Y25.865Z0F800
G1 X99.098Y25.88Z0F800
G1 X98.739Y25.796Z0F800
G1 X98.528Y25.585Z0F800
G1 X98.338Y25.35Z0F800
G1 X98.167Y25.096Z0F800
G1 X98.017Y24.827Z0F800
G1 X97.78Y24.261Z0F800
G1 X97.626Y23.683Z0F800
G1 X97.829Y23.38Z0F800
G1 X98.087Y23.132Z0F800
G1 X98.387Y22.928Z0F800
G1 X98.718Y22.758Z0F800
G1 X99.422Y22.479Z0F800
G1 X100.1Y22.214Z0F800
G1 X100.72Y22.012Z0F800
G1 X101.35Y21.837Z0F800
G1 X101.987Y21.69Z0F800
G1 X102.631Y21.571Z0F800
G1 X103.28Y21.479Z0F800
G1 X103.933Y21.416Z0F800
G1 X104.587Y21.382Z0F800
G1 X105.243Y21.376Z0F800
G1 X105.898Y21.4Z0F800
G1 X106.55Y21.453Z0F800
G1 X107.199Y21.536Z0F800
G1 X107.843Y21.65Z0F800
G1 X108.48Y21.794Z0F800
G1 X109.11Y21.969Z0F800
G1 X109.73Y22.175Z0F800
G1 X110.339Y22.412Z0F800
G1 X110.93Y22.775Z0F800
G1 X111.491Y23.206Z0F800
G1 X112.003Y23.699Z0F800
G1 X112.445Y24.248Z0F800
G1 X112.635Y24.542Z0F800
G1 X112.8Y24.847Z0F800
G1 X112.939Y25.164Z0F800
G1 X113.048Y25.492Z0F800
G1 X113.126Y25.829Z0F800
G1 X113.17Y26.175Z0F800
G1 X113.178Y26.529Z0F800
G1 X113.148Y26.892Z0F800
G1 X113.145Y27.416Z0F800
G1 X113.07Y27.937Z0F800
G1 X112.926Y28.446Z0F800
G1 X112.719Y28.933Z0F800
G1 X112.453Y29.391Z0F800
G1 X112.134Y29.811Z0F800
G1 X111.766Y30.184Z0F800
G1 X111.355Y30.501Z0F800
G1 X110.889Y30.814Z0F800
G1 X110.366Y31.069Z0F800
G1 X109.819Y31.279Z0F800
G1 X109.279Y31.454Z0F800
G1 X108.657Y31.672Z0F800
G1 X108.009Y31.796Z0F800
G1 X107.357Y31.909Z0F800
G1 X106.72Y32.092Z0F800
G1 X105.415Y32.338Z0F800
G1 X104.096Y32.583Z0F800
G1 X103.459Y32.76Z0F800
G1 X102.853Y33.004Z0F800
G1 X102.565Y33.158Z0F800
G1 X102.29Y33.336Z0F800
G1 X102.027Y33.543Z0F800
G1 X101.78Y33.78Z0F800
G1 X101.624Y33.958Z0F800
G1 X101.527Y34.17Z0F800
G1 X101.477Y34.408Z0F800
G1 X101.465Y34.662Z0F800
G1 X101.512Y35.19Z0F800
G1 X101.582Y35.689Z0F800
G1 X101.752Y35.941Z0F800
G1 X101.942Y36.165Z0F800
G1 X102.152Y36.362Z0F800
G1 X102.378Y36.534Z0F800
G1 X102.875Y36.808Z0F800
G1 X103.418Y37.002Z0F800
G1 X103.99Y37.127Z0F800
G1 X104.578Y37.195Z0F800
G1 X105.164Y37.221Z0F800
G1 X105.734Y37.216Z0F800
G1 X106.838Y37.184Z0F800
G1 X107.934Y37.086Z0F800
G1 X108.471Y36.988Z0F800
G1 X108.997Y36.844Z0F800
G1 X109.508Y36.645Z0F800
G1 X110.002Y36.381Z0F800
G1 X110.2Y36.279Z0F800
G1 X110.408Y36.208Z0F800
G1 X110.617Y36.173Z0F800
G1 X110.821Y36.178Z0F800
G1 X111.012Y36.229Z0F800
G1 X111.183Y36.33Z0F800
G1 X111.326Y36.487Z0F800
G1 X111.435Y36.703Z0F800
G1 X111.728Y37.172Z0F800
G1 X112.058Y37.652Z0F800
G1 X112.201Y37.899Z0F800
G1 X112.31Y38.151Z0F800
G1 X112.372Y38.411Z0F800
G1 Y38.679Z0F800
G1 X112.01Y38.929Z0F800
G1 X111.629Y39.138Z0F800
G1 X111.231Y39.315Z0F800
G1 X110.822Y39.466Z0F800
G1 X109.983Y39.721Z0F800
G1 X109.145Y39.961Z0F800
G1 X108.147Y40.106Z0F800
G1 X107.143Y40.199Z0F800
G1 X106.135Y40.248Z0F800
G1 X105.126Y40.262Z0F800
G1 X104.45Y40.247Z0F800
G1 X103.775Y40.182Z0F800
G1 X103.105Y40.069Z0F800
G1 X102.444Y39.907Z0F800
G1 X101.797Y39.699Z0F800
G1 X101.167Y39.444Z0F800
G1 X100.56Y39.144Z0F800
G1 X99.978Y38.8Z0F800
G1 X99.688Y38.575Z0F800
G1 X99.418Y38.33Z0F800
G1 X99.167Y38.067Z0F800
G1 X98.938Y37.788Z0F800
G1 X98.729Y37.493Z0F800
G1 X98.543Y37.185Z0F800
G1 X98.378Y36.864Z0F800
G1 X98.237Y36.533Z0F800
G0 Z1.8F500
G0 X77.719Y17.911Z1.8F1000
G1 Z0F500
G1 X77.458Y18.015Z0F800
G1 X77.178Y18.082Z0F800
G1 X76.977Y18.115Z0F800
G1 X76.774Y18.129Z0F800
G1 X76.638Z0F800
G1 X76.403Y18.11Z0F800
G1 X76.172Y18.065Z0F800
G1 X75.948Y17.994Z0F800
G1 X75.733Y17.901Z0F800
G1 X75.337Y17.651Z0F800
G1 X75Y17.329Z0F800
G1 X74.859Y17.144Z0F800
G1 X74.739Y16.947Z0F800
G1 X74.641Y16.738Z0F800
G1 X74.569Y16.519Z0F800
G1 X74.523Y16.292Z0F800
G1 X74.506Y16.058Z0F800
G1 X74.52Y15.82Z0F800
G1 X74.568Y15.578Z0F800
G1 X74.62Y15.243Z0F800
G1 X74.729Y14.939Z0F800
G1 X74.888Y14.665Z0F800
G1 X75.09Y14.425Z0F800
G1 X75.329Y14.219Z0F800
G1 X75.598Y14.049Z0F800
G1 X75.89Y13.915Z0F800
G1 X76.199Y13.82Z0F800
G1 X76.518Y13.764Z0F800
G1 X76.841Y13.749Z0F800
G1 X77.162Y13.777Z0F800
G1 X77.473Y13.848Z0F800
G1 X77.768Y13.964Z0F800
G1 X78.04Y14.126Z0F800
G1 X78.284Y14.336Z0F800
G1 X78.492Y14.595Z0F800
G1 X78.653Y14.833Z0F800
G1 X78.776Y15.086Z0F800
G1 X78.862Y15.35Z0F800
G1 X78.912Y15.621Z0F800
G1 X78.927Y15.895Z0F800
G1 X78.909Y16.17Z0F800
G1 X78.859Y16.441Z0F800
G1 X78.778Y16.704Z0F800
G1 X78.667Y16.955Z0F800
G1 X78.529Y17.192Z0F800
G1 X78.364Y17.409Z0F800
G1 X78.172Y17.604Z0F800
G1 X77.957Y17.773Z0F800
G1 X77.719Y17.911Z0F800
G0 Z1.8F500
G0 X81.303Y81.634Z1.8F1000
G1 Z0F500
G1 X82.212Y81.616Z0F800
G1 X83.122Y81.655Z0F800
G1 X83.876Y81.671Z0F800
G1 X84.618Y81.756Z0F800
G1 X85.349Y81.902Z0F800
G1 X86.07Y82.099Z0F800
G1 X86.523Y82.215Z0F800
G1 X86.96Y82.369Z0F800
G1 X87.384Y82.557Z0F800
G1 X87.793Y82.775Z0F800
G1 X88.569Y83.286Z0F800
G1 X89.291Y83.871Z0F800
G1 X89.479Y84.035Z0F800
G1 X89.592Y84.251Z0F800
G1 X89.701Y84.48Z0F800
G1 X89.875Y84.679Z0F800
G1 X90.104Y85.213Z0F800
G1 X90.266Y85.775Z0F800
G1 X90.363Y86.354Z0F800
G1 X90.397Y86.944Z0F800
G1 X90.37Y87.535Z0F800
G1 X90.284Y88.119Z0F800
G1 X90.142Y88.687Z0F800
G1 X89.946Y89.232Z0F800
G1 X89.718Y89.603Z0F800
G1 X89.459Y89.937Z0F800
G1 X89.171Y90.237Z0F800
G1 X88.858Y90.506Z0F800
G1 X88.521Y90.745Z0F800
G1 X88.165Y90.958Z0F800
G1 X87.791Y91.146Z0F800
G1 X87.404Y91.314Z0F800
G1 X86.597Y91.595Z0F800
G1 X85.768Y91.821Z0F800
G1 X84.939Y92.013Z0F800
G1 X84.134Y92.192Z0F800
G1 X82.453Y92.55Z0F800
G1 X80.769Y92.883Z0F800
G1 X80.455Y93.003Z0F800
G1 X80.137Y93.145Z0F800
G1 X79.828Y93.312Z0F800
G1 X79.537Y93.507Z0F800
G1 X79.277Y93.733Z0F800
G1 X79.058Y93.991Z0F800
G1 X78.892Y94.285Z0F800
G1 X78.79Y94.617Z0F800
G1 X78.762Y94.852Z0F800
G1 Y95.079Z0F800
G1 X78.79Y95.298Z0F800
G1 X78.843Y95.507Z0F800
G1 X79.016Y95.898Z0F800
G1 X79.268Y96.248Z0F800
G1 X79.582Y96.553Z0F800
G1 X79.945Y96.81Z0F800
G1 X80.341Y97.015Z0F800
G1 X80.755Y97.166Z0F800
G1 X81.363Y97.349Z0F800
G1 X81.983Y97.461Z0F800
G1 X82.614Y97.512Z0F800
G1 X83.251Z0F800
G1 X84.526Y97.407Z0F800
G1 X85.78Y97.229Z0F800
G1 X86.139Y97.162Z0F800
G1 X86.49Y97.032Z0F800
G1 X86.835Y96.87Z0F800
G1 X87.177Y96.701Z0F800
G1 X87.52Y96.553Z0F800
G1 X87.866Y96.453Z0F800
G1 X88.042Y96.431Z0F800
G1 X88.22Z0F800
G1 X88.4Y96.456Z0F800
G1 X88.583Y96.511Z0F800
G1 X88.969Y97.02Z0F800
G1 X89.313Y97.574Z0F800
G1 X89.609Y98.156Z0F800
G1 X89.848Y98.75Z0F800
G1 X89.642Y98.99Z0F800
G1 X89.391Y99.181Z0F800
G1 X89.107Y99.333Z0F800
G1 X88.799Y99.456Z0F800
G1 X88.158Y99.658Z0F800
G1 X87.549Y99.873Z0F800
G1 X86.943Y100.057Z0F800
G1 X86.328Y100.199Z0F800
G1 X85.707Y100.303Z0F800
G1 X85.081Y100.376Z0F800
G1 X83.819Y100.447Z0F800
G1 X82.556Y100.456Z0F800
G1 X82.319Y100.461Z0F800
G1 X82.081Z0F800
G1 X81.179Y100.401Z0F800
G1 X80.279Y100.255Z0F800
G1 X79.835Y100.148Z0F800
G1 X79.398Y100.017Z0F800
G1 X78.97Y99.863Z0F800
G1 X78.554Y99.684Z0F800
G1 X78.151Y99.48Z0F800
G1 X77.764Y99.252Z0F800
G1 X77.395Y98.997Z0F800
G1 X77.047Y98.717Z0F800
G1 X76.72Y98.41Z0F800
G1 X76.419Y98.077Z0F800
G1 X76.144Y97.715Z0F800
G1 X75.899Y97.326Z0F800
G1 X75.729Y97.021Z0F800
G1 X75.585Y96.705Z0F800
G1 X75.466Y96.38Z0F800
G1 X75.372Y96.047Z0F800
G1 X75.303Y95.709Z0F800
G1 X75.259Y95.367Z0F800
G1 X75.24Y95.022Z0F800
G1 X75.246Y94.678Z0F800
G1 X75.277Y94.334Z0F800
G1 X75.333Y93.994Z0F800
G1 X75.413Y93.659Z0F800
G1 X75.519Y93.331Z0F800
G1 X75.649Y93.012Z0F800
G1 X75.803Y92.703Z0F800
G1 X75.983Y92.406Z0F800
G1 X76.187Y92.123Z0F800
G1 X76.654Y91.594Z0F800
G1 X77.178Y91.134Z0F800
G1 X77.463Y90.936Z0F800
G1 X77.763Y90.761Z0F800
G1 X78.079Y90.614Z0F800
G1 X78.411Y90.495Z0F800
G1 X79.181Y90.228Z0F800
G1 X79.962Y90.008Z0F800
G1 X80.752Y89.835Z0F800
G1 X81.549Y89.71Z0F800
G1 X81.894Y89.584Z0F800
G1 X82.25Y89.493Z0F800
G1 X82.613Y89.427Z0F800
G1 X82.98Y89.373Z0F800
G1 X83.712Y89.255Z0F800
G1 X84.421Y89.048Z0F800
G1 X84.917Y88.993Z0F800
G1 X85.414Y88.852Z0F800
G1 X85.886Y88.631Z0F800
G1 X86.306Y88.335Z0F800
G1 X86.487Y88.162Z0F800
G1 X86.646Y87.972Z0F800
G1 X86.778Y87.766Z0F800
G1 X86.881Y87.546Z0F800
G1 X86.95Y87.312Z0F800
G1 X86.983Y87.064Z0F800
G1 X86.975Y86.804Z0F800
G1 X86.925Y86.532Z0F800
G1 X86.829Y86.254Z0F800
G1 X86.7Y86.003Z0F800
G1 X86.541Y85.779Z0F800
G1 X86.356Y85.58Z0F800
G1 X86.148Y85.405Z0F800
G1 X85.92Y85.251Z0F800
G1 X85.675Y85.118Z0F800
G1 X85.416Y85.004Z0F800
G1 X84.868Y84.828Z0F800
G1 X84.3Y84.709Z0F800
G1 X83.738Y84.636Z0F800
G1 X83.206Y84.598Z0F800
G1 X82.365Y84.595Z0F800
G1 X81.529Y84.653Z0F800
G1 X80.701Y84.769Z0F800
G1 X79.882Y84.939Z0F800
G1 X79.075Y85.161Z0F800
G1 X78.283Y85.434Z0F800
G1 X77.507Y85.754Z0F800
G1 X76.75Y86.118Z0F800
G1 X76.569Y86.16Z0F800
G1 X76.401Y86.168Z0F800
G1 X76.246Y86.145Z0F800
G1 X76.103Y86.093Z0F800
G1 X75.85Y85.92Z0F800
G1 X75.636Y85.674Z0F800
G1 X75.298Y85.064Z0F800
G1 X75.041Y84.471Z0F800
G1 X74.963Y84.332Z0F800
G1 X74.918Y84.199Z0F800
G1 X74.901Y84.073Z0F800
G1 X74.91Y83.953Z0F800
G1 X74.995Y83.731Z0F800
G1 X75.152Y83.533Z0F800
G1 X75.594Y83.209Z0F800
G1 X76.065Y82.975Z0F800
G1 X76.892Y82.6Z0F800
G1 X77.743Y82.287Z0F800
G1 X78.613Y82.034Z0F800
G1 X79.499Y81.842Z0F800
G1 X80.397Y81.709Z0F800
G1 X81.303Y81.634Z0F800
G0 Z1.8F500
G0 X72.845Y82.932Z1.8F1000
G1 Z0F500
G1 X72.836Y83.19Z0F800
G1 X72.786Y83.442Z0F800
G1 X72.708Y83.689Z0F800
G1 X72.609Y83.932Z0F800
G1 X72.391Y84.413Z0F800
G1 X72.212Y84.894Z0F800
G1 X71.939Y84.986Z0F800
G1 X71.672Y84.982Z0F800
G1 X71.41Y84.909Z0F800
G1 X71.15Y84.796Z0F800
G1 X70.888Y84.67Z0F800
G1 X70.622Y84.559Z0F800
G1 X70.35Y84.492Z0F800
G1 X70.068Y84.497Z0F800
G1 X69.632Y84.442Z0F800
G1 X69.185Z0F800
G1 X68.74Y84.496Z0F800
G1 X68.308Y84.61Z0F800
G1 X67.903Y84.788Z0F800
G1 X67.535Y85.031Z0F800
G1 X67.217Y85.344Z0F800
G1 X66.96Y85.73Z0F800
G1 X66.774Y86.172Z0F800
G1 X66.664Y86.631Z0F800
G1 X66.612Y87.104Z0F800
G1 X66.6Y87.585Z0F800
G1 X66.622Y88.559Z0F800
G1 X66.586Y89.521Z0F800
G1 X66.563Y91.507Z0F800
G1 X66.546Y93.498Z0F800
G1 Y95.486Z0F800
G1 X66.567Y97.462Z0F800
G1 X67.883Y97.524Z0F800
G1 X69.207Y97.52Z0F800
G1 X70.527Y97.523Z0F800
G1 X71.831Y97.608Z0F800
G1 X71.873Y98.291Z0F800
G1 X71.895Y98.988Z0F800
G1 X71.877Y99.683Z0F800
G1 X71.799Y100.356Z0F800
G1 X70.496Y100.408Z0F800
G1 X69.184Y100.411Z0F800
G1 X67.869Y100.399Z0F800
G1 X66.558Y100.405Z0F800
G1 X66.549Y101.402Z0F800
G1 X66.568Y102.405Z0F800
G1 X66.561Y103.403Z0F800
G1 X66.478Y104.383Z0F800
G1 X65.656Y104.425Z0F800
G1 X64.814Y104.447Z0F800
G1 X63.975Y104.43Z0F800
G1 X63.162Y104.351Z0F800
G1 X63.095Y103.388Z0F800
G1 X63.072Y102.417Z0F800
G1 X63.063Y101.443Z0F800
G1 X63.038Y100.471Z0F800
G1 X62.273Y100.442Z0F800
G1 X61.5Z0F800
G1 X60.733Y100.414Z0F800
G1 X59.987Y100.31Z0F800
G1 X59.95Y99.63Z0F800
G1 X59.927Y98.937Z0F800
G1 X59.942Y98.246Z0F800
G1 X60.022Y97.576Z0F800
G1 X60.786Y97.524Z0F800
G1 X61.559Y97.521Z0F800
G1 X62.334Y97.534Z0F800
G1 X63.106Y97.528Z0F800
G1 X63.116Y94.542Z0F800
G1 X63.095Y91.555Z0F800
G1 Y90.062Z0F800
G1 X63.113Y88.569Z0F800
G1 X63.159Y87.078Z0F800
G1 X63.242Y85.588Z0F800
G1 X63.4Y85.065Z0F800
G1 X63.603Y84.555Z0F800
G1 X63.855Y84.067Z0F800
G1 X64.154Y83.611Z0F800
G1 X64.502Y83.194Z0F800
G1 X64.899Y82.825Z0F800
G1 X65.346Y82.513Z0F800
G1 X65.845Y82.266Z0F800
G1 X66.365Y81.974Z0F800
G1 X66.91Y81.778Z0F800
G1 X67.474Y81.662Z0F800
G1 X68.053Y81.611Z0F800
G1 X69.229Y81.639Z0F800
G1 X70.393Y81.735Z0F800
G1 X71.076Y81.874Z0F800
G1 X71.773Y82.081Z0F800
G1 X72.099Y82.228Z0F800
G1 X72.393Y82.413Z0F800
G1 X72.646Y82.646Z0F800
G1 X72.845Y82.932Z0F800
G0 Z1.8F500
G0 X44.078Y87.33Z1.8F1000
G1 Z0F500
G1 X43.877Y86.864Z0F800
G1 X43.603Y86.439Z0F800
G1 X43.438Y86.245Z0F800
G1 X43.252Y86.066Z0F800
G1 X43.047Y85.903Z0F800
G1 X42.821Y85.757Z0F800
G1 X42.421Y85.511Z0F800
G1 X42.01Y85.306Z0F800
G1 X41.589Y85.138Z0F800
G1 X41.158Y85.003Z0F800
G1 X40.274Y84.819Z0F800
G1 X39.366Y84.723Z0F800
G1 X37.52Y84.678Z0F800
G1 X35.695Y84.631Z0F800
G1 X34.419Y84.622Z0F800
G1 X33.142Y84.617Z0F800
G1 X31.867Y84.64Z0F800
G1 X30.596Y84.715Z0F800
G1 X30.496Y86.699Z0F800
G1 X30.45Y88.702Z0F800
G1 X30.47Y90.702Z0F800
G1 X30.569Y92.683Z0F800
G1 X31.023Y92.73Z0F800
G1 X31.478Y92.749Z0F800
G1 X32.392Y92.757Z0F800
G1 X34.593Y92.732Z0F800
G1 X36.797Y92.723Z0F800
G1 X37.897Y92.695Z0F800
G1 X38.992Y92.636Z0F800
G1 X40.081Y92.535Z0F800
G1 X41.164Y92.378Z0F800
G1 X41.701Y92.207Z0F800
G1 X42.236Y91.979Z0F800
G1 X42.747Y91.692Z0F800
G1 X43.214Y91.346Z0F800
G1 X43.424Y91.151Z0F800
G1 X43.615Y90.941Z0F800
G1 X43.785Y90.716Z0F800
G1 X43.93Y90.476Z0F800
G1 X44.049Y90.222Z0F800
G1 X44.139Y89.952Z0F800
G1 X44.196Y89.668Z0F800
G1 X44.219Y89.368Z0F800
G1 X44.275Y88.855Z0F800
G1 Y88.337Z0F800
G1 X44.208Y87.825Z0F800
G1 X44.078Y87.33Z0F800
G0 Z1.8F500
G0 X39.567Y96.007Z1.8F1000
G1 Z0F500
G1 X39.141Y95.936Z0F800
G1 X38.274Y95.849Z0F800
G1 X37.397Y95.816Z0F800
G1 X35.676Y95.807Z0F800
G1 X34.359Z0F800
G1 X33.04Y95.814Z0F800
G1 X31.724Y95.84Z0F800
G1 X30.411Y95.904Z0F800
G1 X30.339Y97.756Z0F800
G1 X30.35Y99.615Z0F800
G1 X30.412Y101.47Z0F800
G1 X30.496Y103.313Z0F800
G1 X31.287Y103.384Z0F800
G1 X32.079Y103.416Z0F800
G1 X33.668Y103.436Z0F800
G1 X35.538Y103.41Z0F800
G1 X37.421Y103.396Z0F800
G1 X38.356Y103.338Z0F800
G1 X39.279Y103.215Z0F800
G1 X39.735Y103.122Z0F800
G1 X40.186Y103.005Z0F800
G1 X40.632Y102.861Z0F800
G1 X41.072Y102.687Z0F800
G1 X41.478Y102.481Z0F800
G1 X41.854Y102.221Z0F800
G1 X42.191Y101.912Z0F800
G1 X42.476Y101.561Z0F800
G1 X42.7Y101.172Z0F800
G1 X42.853Y100.751Z0F800
G1 X42.923Y100.304Z0F800
G1 X42.9Y99.837Z0F800
G1 X42.906Y99.157Z0F800
G1 X42.863Y98.478Z0F800
G1 X42.79Y98.156Z0F800
G1 X42.667Y97.853Z0F800
G1 X42.479Y97.577Z0F800
G1 X41.885Y97.033Z0F800
G1 X41.536Y96.775Z0F800
G1 X41.17Y96.556Z0F800
G1 X40.788Y96.373Z0F800
G1 X40.392Y96.223Z0F800
G1 X39.985Y96.102Z0F800
G1 X39.567Y96.007Z0F800
G0 Z1.8F500
G0 X43.523Y94.525Z1.8F1000
G1 Z0F500
G1 X44.026Y94.781Z0F800
G1 X44.486Y95.095Z0F800
G1 X44.905Y95.459Z0F800
G1 X45.282Y95.867Z0F800
G1 X45.618Y96.312Z0F800
G1 X45.912Y96.788Z0F800
G1 X46.166Y97.287Z0F800
G1 X46.379Y97.802Z0F800
G1 X46.517Y98.187Z0F800
G1 X46.6Y98.586Z0F800
G1 X46.64Y98.996Z0F800
G1 X46.648Y99.413Z0F800
G1 X46.615Y100.253Z0F800
G1 X46.59Y101.077Z0F800
G1 X46.5Y101.507Z0F800
G1 X46.373Y101.923Z0F800
G1 X46.213Y102.323Z0F800
G1 X46.021Y102.707Z0F800
G1 X45.799Y103.075Z0F800
G1 X45.549Y103.424Z0F800
G1 X45.273Y103.755Z0F800
G1 X44.975Y104.066Z0F800
G1 X44.654Y104.357Z0F800
G1 X44.315Y104.627Z0F800
G1 X43.957Y104.875Z0F800
G1 X43.585Y105.1Z0F800
G1 X43.2Y105.301Z0F800
G1 X42.803Y105.478Z0F800
G1 X42.398Y105.63Z0F800
G1 X41.986Y105.756Z0F800
G1 X40.991Y106.011Z0F800
G1 X39.982Y106.172Z0F800
G1 X38.963Y106.26Z0F800
G1 X37.937Y106.293Z0F800
G1 X35.876Y106.282Z0F800
G1 X33.828Y106.3Z0F800
G1 X32.098Y106.292Z0F800
G1 X30.36Y106.311Z0F800
G1 X29.493Y106.314Z0F800
G1 X28.629Y106.304Z0F800
G1 X27.769Y106.275Z0F800
G1 X26.916Y106.221Z0F800
G1 X26.865Y101.806Z0F800
G1 X26.861Y97.384Z0F800
G1 X26.873Y92.959Z0F800
G1 X26.867Y88.537Z0F800
G1 X26.875Y86.848Z0F800
G1 X26.86Y85.154Z0F800
G1 X26.864Y83.464Z0F800
G1 X26.93Y81.788Z0F800
G1 X28.129Y81.704Z0F800
G1 X29.36Y81.707Z0F800
G1 X30.601Y81.738Z0F800
G1 X31.831Z0F800
G1 X34.401Y81.766Z0F800
G1 X36.975Y81.773Z0F800
G1 X38.261Y81.791Z0F800
G1 X39.546Y81.831Z0F800
G1 X40.828Y81.902Z0F800
G1 X42.107Y82.012Z0F800
G1 X42.926Y82.248Z0F800
G1 X43.741Y82.544Z0F800
G1 X44.535Y82.904Z0F800
G1 X45.29Y83.336Z0F800
G1 X45.646Y83.579Z0F800
G1 X45.986Y83.842Z0F800
G1 X46.307Y84.125Z0F800
G1 X46.606Y84.429Z0F800
G1 X46.881Y84.755Z0F800
G1 X47.13Y85.102Z0F800
G1 X47.352Y85.473Z0F800
G1 X47.542Y85.866Z0F800
G1 X47.779Y86.551Z0F800
G1 X47.929Y87.256Z0F800
G1 X47.999Y87.974Z0F800
G1 X47.995Y88.698Z0F800
G1 X47.925Y89.421Z0F800
G1 X47.794Y90.136Z0F800
G1 X47.61Y90.837Z0F800
G1 X47.379Y91.516Z0F800
G1 X46.872Y92.19Z0F800
G1 X46.292Y92.832Z0F800
G1 X45.977Y93.132Z0F800
G1 X45.647Y93.415Z0F800
G1 X45.301Y93.677Z0F800
G1 X44.942Y93.914Z0F800
G1 X44.569Y94.038Z0F800
G1 X44.189Y94.191Z0F800
G1 X43.831Y94.359Z0F800
G1 X43.523Y94.525Z0F800
G0 Z1.8F500
G0 X53.274Y104.164Z1.8F1000
G1 Z0F500
G1 X53.664Y103.984Z0F800
G1 X53.87Y103.927Z0F800
G1 X54.08Y103.895Z0F800
G1 X54.293Y103.887Z0F800
G1 X54.507Y103.908Z0F800
G1 X54.834Y103.886Z0F800
G1 X55.15Y103.918Z0F800
G1 X55.45Y104Z0F800
G1 X55.731Y104.129Z0F800
G1 X55.989Y104.3Z0F800
G1 X56.22Y104.511Z0F800
G1 X56.421Y104.759Z0F800
G1 X56.586Y105.038Z0F800
G1 X56.737Y105.307Z0F800
G1 X56.84Y105.581Z0F800
G1 X56.897Y105.856Z0F800
G1 X56.913Y106.131Z0F800
G1 X56.888Y106.401Z0F800
G1 X56.826Y106.664Z0F800
G1 X56.729Y106.917Z0F800
G1 X56.601Y107.157Z0F800
G1 X56.444Y107.381Z0F800
G1 X56.259Y107.586Z0F800
G1 X56.051Y107.769Z0F800
G1 X55.822Y107.927Z0F800
G1 X55.574Y108.057Z0F800
G1 X55.31Y108.157Z0F800
G1 X55.033Y108.222Z0F800
G1 X54.746Y108.251Z0F800
G1 X54.589Z0F800
G1 X54.43Y108.237Z0F800
G1 X53.98Y108.195Z0F800
G1 X53.546Y108.065Z0F800
G1 X53.146Y107.855Z0F800
G1 X52.797Y107.575Z0F800
G1 X52.648Y107.411Z0F800
G1 X52.518Y107.233Z0F800
G1 X52.41Y107.043Z0F800
G1 X52.326Y106.841Z0F800
G1 X52.269Y106.628Z0F800
G1 X52.239Y106.405Z0F800
G1 Y106.175Z0F800
G1 X52.274Y105.937Z0F800
G1 X52.27Y105.722Z0F800
G1 X52.295Y105.511Z0F800
G1 X52.346Y105.305Z0F800
G1 X52.421Y105.107Z0F800
G1 X52.637Y104.739Z0F800
G1 X52.927Y104.42Z0F800
G1 X53.274Y104.164Z0F800
M5
G1 Z1F500
M9
G90
G1 Z1F500
G1 Z2 F500;         ; Raise brush slightly
G0 X22 Y0 F1000;     ; Move across cleaning area
G1 Z5 F500;         ; Raise brush completely
G0 X20 Y110 Z10 F1000;; Move to parking position with Z at safe height
M2;                 ; End program
