
G0 Z10 F500;      ; Move to clearance level
; G0 X-10 Y-10 F1200; Homing
; G0 X-5 Y-5 F1200; go in
; G10 P0 L20 X0 Y0; set to zero
G1 F1200;           ; Set feed rate
G90 ; Force absolute mode
;LightBurn 1.6.04
;Custom GCode device profile, absolute coords
;Bounds: X3 Y32 to X147 Y137
G00 G17 G40 G21 G54
M3
G1 Z10 F1000

; Color picking sequence
G1 Z10 F1000;         ; Raise brush
G0 X41 Y5 F1200;    ; Rapid move to color 1
G1 Z10 F1000;         ; Raise brush
G0 X41 Y5 F1200;    ; Rapid move to color 1
G1 Z0 F1000;         ; Lower into color
G1 X40.102 Y7.295 Z0 S800 F1200
G1 X40.026 Y7.642 Z0 F1200
G1 X40 Y8 Z0 F1200
G1 X40.026 Y8.358 Z0 F1200
G1 X40.102 Y8.705 Z0 F1200
G1 X40.225 Y9.041 Z0 F1200
G1 X40.393 Y9.362 Z0 F1200
G1 X40.603 Y9.668 Z0 F1200
G1 X40.854 Y9.957 Z0 F1200
G1 X41.142 Y10.226 Z0 F1200
G1 X41.464 Y10.475 Z0 F1200
G1 X41.82 Y10.701 Z0 F1200
G1 X42.204 Y10.902 Z0 F1200
G1 X42.617 Y11.078 Z0 F1200
G1 X43.054 Y11.225 Z0 F1200
G1 X43.513 Y11.343 Z0 F1200
G1 X43.992 Y11.429 Z0 F1200
G1 X44.489 Y11.482 Z0 F1200
G1 X45 Y11.5 Z0 F1200
G1 X45.511 Y11.482 Z0 F1200
G1 X46.008 Y11.429 Z0 F1200
G1 X46.487 Y11.343 Z0 F1200
G1 X46.946 Y11.225 Z0 F1200
G1 X47.383 Y11.078 Z0 F1200
G1 X47.796 Y10.902 Z0 F1200
G1 X48.18 Y10.701 Z0 F1200
G1 X48.536 Y10.475 Z0 F1200
G1 X48.858 Y10.226 Z0 F1200
G1 X49.146 Y9.957 Z0 F1200
G1 X49.397 Y9.668 Z0 F1200
G1 X49.607 Y9.362 Z0 F1200
G1 X49.775 Y9.041 Z0 F1200
G1 X49.898 Y8.705 Z0 F1200
G1 X49.974 Y8.358 Z0 F1200
G1 X50 Y8 Z0 F1200
G1 X49.974 Y7.642 Z0 F1200
G1 X49.898 Y7.295 Z0 F1200
G1 X49.775 Y6.959 Z0 F1200
G1 X49.607 Y6.638 Z0 F1200
G1 X49.397 Y6.332 Z0 F1200
G1 X49.146 Y6.043 Z0 F1200
G1 X48.858 Y5.774 Z0 F1200
G1 X48.536 Y5.525 Z0 F1200
G1 X48.18 Y5.299 Z0 F1200
G1 X47.796 Y5.098 Z0 F1200
G1 X47.383 Y4.922 Z0 F1200
G1 X46.946 Y4.775 Z0 F1200
G1 X46.487 Y4.657 Z0 F1200
G1 X46.008 Y4.571 Z0 F1200
G1 X45.511 Y4.518 Z0 F1200
G1 X45 Y4.5 Z0 F1200
G1 X44.489 Y4.518 Z0 F1200
G1 X43.992 Y4.571 Z0 F1200
G1 X43.513 Y4.657 Z0 F1200
G1 X43.054 Y4.775 Z0 F1200
G1 X42.617 Y4.922 Z0 F1200
G1 X42.204 Y5.098 Z0 F1200
G1 X41.82 Y5.299 Z0 F1200
G1 X41.464 Y5.525 Z0 F1200
G1 X41.142 Y5.774 Z0 F1200
G1 X40.854 Y6.043 Z0 F1200
G1 X40.603 Y6.332 Z0 F1200
G1 X40.393 Y6.638 Z0 F1200
G1 X40.225 Y6.959 Z0 F1200
G1 Z7 F800;         ; Raise from color
G1 X34 Y8 Z1 F1200;     ; Movement in paint
G1 X24 Y18 Z8 F500;     ; Move in paint
G1 F1200;           ; Set feed rate
G0 Z2.5 F1000 ; Safety Lift
;Cut @ 1500 mm/min, 80% power

M8
G0 Z3.5 F1000
G0 X13.287 Y36.673 Z3.5
G1 Z0 F1000
;Layer C1
G1 X12.472 Y36.882 Z0 S800 F1600
G1 X11.691 Y37.168 Z0 F1600
G1 X10.948 Y37.526 Z0 F1600
G1 X10.248 Y37.952 Z0 F1600
G1 X9.593 Y38.441 Z0 F1600
G1 X8.99 Y38.99 Z0 F1600
G1 X8.441 Y39.593 Z0 F1600
G1 X7.952 Y40.248 Z0 F1600
G1 X7.526 Y40.948 Z0 F1600
G1 X7.168 Y41.691 Z0 F1600
G1 X6.882 Y42.472 Z0 F1600
G1 X6.673 Y43.287 Z0 F1600
G1 X6.544 Y44.131 Z0 F1600
G1 X6.5 Y45 Z0 F1600
G1 X6.544 Y45.869 Z0 F1600
G1 X6.673 Y46.713 Z0 F1600
G1 X6.882 Y47.528 Z0 F1600
G1 X7.168 Y48.309 Z0 F1600
G1 X7.526 Y49.052 Z0 F1600
G1 X7.952 Y49.752 Z0 F1600
G1 X8.441 Y50.407 Z0 F1600
G1 X8.99 Y51.01 Z0 F1600
G1 X9.593 Y51.559 Z0 F1600
G1 X10.248 Y52.048 Z0 F1600
G1 X10.948 Y52.474 Z0 F1600
G1 X11.691 Y52.832 Z0 F1600
G1 X12.472 Y53.118 Z0 F1600
G1 X13.287 Y53.327 Z0 F1600
G1 X14.131 Y53.456 Z0 F1600
G1 X15 Y53.5 Z0 F1600
G1 X15.869 Y53.456 Z0 F1600
G1 X16.713 Y53.327 Z0 F1600
G1 X17.528 Y53.118 Z0 F1600
G1 X18.309 Y52.832 Z0 F1600
G1 X19.052 Y52.474 Z0 F1600
G1 X19.752 Y52.048 Z0 F1600
G1 X20.407 Y51.559 Z0 F1600
G1 X21.01 Y51.01 Z0 F1600
G1 X21.559 Y50.407 Z0 F1600
G1 X22.048 Y49.752 Z0 F1600
G1 X22.474 Y49.052 Z0 F1600
G1 X22.832 Y48.309 Z0 F1600
G1 X23.118 Y47.528 Z0 F1600
G1 X23.327 Y46.713 Z0 F1600
G1 X23.456 Y45.869 Z0 F1600
G1 X23.5 Y45 Z0 F1600
G1 X23.456 Y44.131 Z0 F1600
G1 X23.327 Y43.287 Z0 F1600
G1 X23.118 Y42.472 Z0 F1600
G1 X22.832 Y41.691 Z0 F1600
G1 X22.474 Y40.948 Z0 F1600
G1 X22.048 Y40.248 Z0 F1600
G1 X21.559 Y39.593 Z0 F1600
G1 X21.01 Y38.99 Z0 F1600
G1 X20.407 Y38.441 Z0 F1600
G1 X19.752 Y37.952 Z0 F1600
G1 X19.052 Y37.526 Z0 F1600
G1 X18.309 Y37.168 Z0 F1600
G1 X17.528 Y36.882 Z0 F1600
G1 X16.713 Y36.673 Z0 F1600
G1 X15.869 Y36.544 Z0 F1600
G1 X15 Y36.5 Z0 F1600
G1 X14.131 Y36.544 Z0 F1600
G1 X13.287 Y36.673 Z0 F1600
G0 Z3.5 F1000
G0 X42.918 Y51.202 Z3.5 F1500
G1 Z0 F1000
G1 X42.12 Y51.973 Z0 F1600
G1 X41.34 Y52.763 Z0 F1600
G1 X40.58 Y53.571 Z0 F1600
G1 X39.839 Y54.396 Z0 F1600
G1 X39.118 Y55.24 Z0 F1600
G1 X38.418 Y56.1 Z0 F1600
G1 X37.738 Y56.977 Z0 F1600
G1 X37.079 Y57.871 Z0 F1600
G1 X36.441 Y58.781 Z0 F1600
G1 X35.826 Y59.706 Z0 F1600
G1 X35.232 Y60.647 Z0 F1600
G1 X34.661 Y61.603 Z0 F1600
G1 X34.112 Y62.574 Z0 F1600
G1 X33.587 Y63.558 Z0 F1600
G1 X33.085 Y64.557 Z0 F1600
G1 X32.608 Y65.569 Z0 F1600
G1 X32.154 Y66.595 Z0 F1600
G1 X31.725 Y67.633 Z0 F1600
G1 X31.322 Y68.684 Z0 F1600
G1 X30.943 Y69.746 Z0 F1600
G1 X30.591 Y70.821 Z0 F1600
G1 X30.264 Y71.907 Z0 F1600
G1 X29.964 Y73.004 Z0 F1600
G1 X29.691 Y74.111 Z0 F1600
G1 X29.445 Y75.229 Z0 F1600
G1 X29.226 Y76.357 Z0 F1600
G1 X29.036 Y77.495 Z0 F1600
G1 X28.874 Y78.641 Z0 F1600
G1 X28.74 Y79.797 Z0 F1600
G1 X28.636 Y80.961 Z0 F1600
G1 X28.561 Y82.133 Z0 F1600
G1 X28.515 Y83.313 Z0 F1600
G1 X28.5 Y84.5 Z0 F1600
G1 X28.515 Y85.687 Z0 F1600
G1 X28.561 Y86.867 Z0 F1600
G1 X28.636 Y88.039 Z0 F1600
G1 X28.74 Y89.203 Z0 F1600
G1 X28.874 Y90.359 Z0 F1600
G1 X29.036 Y91.505 Z0 F1600
G1 X29.226 Y92.643 Z0 F1600
G1 X29.445 Y93.771 Z0 F1600
G1 X29.691 Y94.889 Z0 F1600
G1 X29.964 Y95.996 Z0 F1600
G1 X30.264 Y97.093 Z0 F1600
G1 X30.591 Y98.179 Z0 F1600
G1 X30.943 Y99.254 Z0 F1600
G1 X31.322 Y100.316 Z0 F1600
G1 X31.725 Y101.367 Z0 F1600
G1 X32.154 Y102.405 Z0 F1600
G1 X32.608 Y103.431 Z0 F1600
G1 X33.085 Y104.443 Z0 F1600
G1 X33.587 Y105.442 Z0 F1600
G1 X34.112 Y106.426 Z0 F1600
G1 X34.661 Y107.397 Z0 F1600
G1 X35.232 Y108.353 Z0 F1600
G1 X35.826 Y109.294 Z0 F1600
G1 X36.441 Y110.219 Z0 F1600
G1 X37.079 Y111.129 Z0 F1600
G1 X37.738 Y112.023 Z0 F1600
G1 X38.418 Y112.9 Z0 F1600
G1 X39.118 Y113.76 Z0 F1600
G1 X39.839 Y114.604 Z0 F1600
G1 X40.58 Y115.429 Z0 F1600
G1 X41.34 Y116.237 Z0 F1600
G1 X42.12 Y117.027 Z0 F1600
G1 X42.918 Y117.798 Z0 F1600
G1 X43.734 Y118.55 Z0 F1600
G1 X44.569 Y119.283 Z0 F1600
G1 X45.422 Y119.996 Z0 F1600
G1 X46.292 Y120.689 Z0 F1600
G1 X47.178 Y121.361 Z0 F1600
G1 X48.082 Y122.013 Z0 F1600
G1 X49.001 Y122.644 Z0 F1600
G1 X49.937 Y123.253 Z0 F1600
G1 X50.888 Y123.84 Z0 F1600
G1 X51.854 Y124.406 Z0 F1600
G1 X52.835 Y124.948 Z0 F1600
G1 X53.831 Y125.468 Z0 F1600
G1 X54.84 Y125.964 Z0 F1600
G1 X55.864 Y126.437 Z0 F1600
G1 X56.9 Y126.885 Z0 F1600
G1 X57.95 Y127.309 Z0 F1600
G1 X59.012 Y127.709 Z0 F1600
G1 X60.086 Y128.083 Z0 F1600
G1 X61.172 Y128.432 Z0 F1600
G1 X62.27 Y128.755 Z0 F1600

; Color picking sequence
G1 Z10 F1000;         ; Raise brush
G0 X41 Y5 F1200;    ; Rapid move to color 1
G1 Z10 F1000;         ; Raise brush
G0 X41 Y5 F1200;    ; Rapid move to color 1
G1 Z0 F1000;         ; Lower into color
G1 X40.102 Y7.295 Z0 S800 F1200
G1 X40.026 Y7.642 Z0 F1200
G1 X40 Y8 Z0 F1200
G1 X40.026 Y8.358 Z0 F1200
G1 X40.102 Y8.705 Z0 F1200
G1 X40.225 Y9.041 Z0 F1200
G1 X40.393 Y9.362 Z0 F1200
G1 X40.603 Y9.668 Z0 F1200
G1 X40.854 Y9.957 Z0 F1200
G1 X41.142 Y10.226 Z0 F1200
G1 X41.464 Y10.475 Z0 F1200
G1 X41.82 Y10.701 Z0 F1200
G1 X42.204 Y10.902 Z0 F1200
G1 X42.617 Y11.078 Z0 F1200
G1 X43.054 Y11.225 Z0 F1200
G1 X43.513 Y11.343 Z0 F1200
G1 X43.992 Y11.429 Z0 F1200
G1 X44.489 Y11.482 Z0 F1200
G1 X45 Y11.5 Z0 F1200
G1 X45.511 Y11.482 Z0 F1200
G1 X46.008 Y11.429 Z0 F1200
G1 X46.487 Y11.343 Z0 F1200
G1 X46.946 Y11.225 Z0 F1200
G1 X47.383 Y11.078 Z0 F1200
G1 X47.796 Y10.902 Z0 F1200
G1 X48.18 Y10.701 Z0 F1200
G1 X48.536 Y10.475 Z0 F1200
G1 X48.858 Y10.226 Z0 F1200
G1 X49.146 Y9.957 Z0 F1200
G1 X49.397 Y9.668 Z0 F1200
G1 X49.607 Y9.362 Z0 F1200
G1 X49.775 Y9.041 Z0 F1200
G1 X49.898 Y8.705 Z0 F1200
G1 X49.974 Y8.358 Z0 F1200
G1 X50 Y8 Z0 F1200
G1 X49.974 Y7.642 Z0 F1200
G1 X49.898 Y7.295 Z0 F1200
G1 X49.775 Y6.959 Z0 F1200
G1 X49.607 Y6.638 Z0 F1200
G1 X49.397 Y6.332 Z0 F1200
G1 X49.146 Y6.043 Z0 F1200
G1 X48.858 Y5.774 Z0 F1200
G1 X48.536 Y5.525 Z0 F1200
G1 X48.18 Y5.299 Z0 F1200
G1 X47.796 Y5.098 Z0 F1200
G1 X47.383 Y4.922 Z0 F1200
G1 X46.946 Y4.775 Z0 F1200
G1 X46.487 Y4.657 Z0 F1200
G1 X46.008 Y4.571 Z0 F1200
G1 X45.511 Y4.518 Z0 F1200
G1 X45 Y4.5 Z0 F1200
G1 X44.489 Y4.518 Z0 F1200
G1 X43.992 Y4.571 Z0 F1200
G1 X43.513 Y4.657 Z0 F1200
G1 X43.054 Y4.775 Z0 F1200
G1 X42.617 Y4.922 Z0 F1200
G1 X42.204 Y5.098 Z0 F1200
G1 X41.82 Y5.299 Z0 F1200
G1 X41.464 Y5.525 Z0 F1200
G1 X41.142 Y5.774 Z0 F1200
G1 X40.854 Y6.043 Z0 F1200
G1 X40.603 Y6.332 Z0 F1200
G1 X40.393 Y6.638 Z0 F1200
G1 X40.225 Y6.959 Z0 F1200
G1 Z7 F800;         ; Raise from color
G1 X34 Y8 Z1 F1200;     ; Movement in paint
G1 X24 Y18 Z8 F500;     ; Move in paint
G1 F1200;           ; Set feed rate
G0 Z2.5 F1000 ; Safety Lift
G0 X62.27 Y128.755 F1200 ; Return
G1 Z0 F1000 ; Restore Z
G1 X63.379 Y129.052 Z0 F1600
G1 X64.499 Y129.322 Z0 F1600
G1 X65.629 Y129.565 Z0 F1600
G1 X66.769 Y129.782 Z0 F1600
G1 X67.919 Y129.97 Z0 F1600
G1 X69.078 Y130.13 Z0 F1600
G1 X70.246 Y130.263 Z0 F1600
G1 X71.422 Y130.366 Z0 F1600
G1 X72.607 Y130.44 Z0 F1600
G1 X73.8 Y130.485 Z0 F1600
G1 X75 Y130.5 Z0 F1600
G1 X76.2 Y130.485 Z0 F1600
G1 X77.393 Y130.44 Z0 F1600
G1 X78.578 Y130.366 Z0 F1600
G1 X79.754 Y130.263 Z0 F1600
G1 X80.922 Y130.13 Z0 F1600
G1 X82.081 Y129.97 Z0 F1600
G1 X83.231 Y129.782 Z0 F1600
G1 X84.371 Y129.565 Z0 F1600
G1 X85.501 Y129.322 Z0 F1600
G1 X86.621 Y129.052 Z0 F1600
G1 X87.73 Y128.755 Z0 F1600
G1 X88.828 Y128.432 Z0 F1600
G1 X89.914 Y128.083 Z0 F1600
G1 X90.988 Y127.709 Z0 F1600
G1 X92.05 Y127.309 Z0 F1600
G1 X93.1 Y126.885 Z0 F1600
G1 X94.136 Y126.437 Z0 F1600
G1 X95.16 Y125.964 Z0 F1600
G1 X96.169 Y125.468 Z0 F1600
G1 X97.165 Y124.948 Z0 F1600
G1 X98.146 Y124.406 Z0 F1600
G1 X99.112 Y123.84 Z0 F1600
G1 X100.063 Y123.253 Z0 F1600
G1 X100.999 Y122.644 Z0 F1600
G1 X101.918 Y122.013 Z0 F1600
G1 X102.822 Y121.361 Z0 F1600
G1 X103.708 Y120.689 Z0 F1600
G1 X104.578 Y119.996 Z0 F1600
G1 X105.431 Y119.283 Z0 F1600
G1 X106.266 Y118.55 Z0 F1600
G1 X107.082 Y117.798 Z0 F1600
G1 X107.88 Y117.027 Z0 F1600
G1 X108.66 Y116.237 Z0 F1600
G1 X109.42 Y115.429 Z0 F1600
G1 X110.161 Y114.604 Z0 F1600
G1 X110.882 Y113.76 Z0 F1600
G1 X111.582 Y112.9 Z0 F1600
G1 X112.262 Y112.023 Z0 F1600
G1 X112.921 Y111.129 Z0 F1600
G1 X113.559 Y110.219 Z0 F1600
G1 X114.174 Y109.294 Z0 F1600
G1 X114.768 Y108.353 Z0 F1600
G1 X115.339 Y107.397 Z0 F1600
G1 X115.888 Y106.426 Z0 F1600
G1 X116.413 Y105.442 Z0 F1600
G1 X116.915 Y104.443 Z0 F1600
G1 X117.392 Y103.431 Z0 F1600
G1 X117.846 Y102.405 Z0 F1600
G1 X118.275 Y101.367 Z0 F1600
G1 X118.678 Y100.316 Z0 F1600
G1 X119.057 Y99.254 Z0 F1600
G1 X119.409 Y98.179 Z0 F1600
G1 X119.736 Y97.093 Z0 F1600
G1 X120.036 Y95.996 Z0 F1600
G1 X120.309 Y94.889 Z0 F1600
G1 X120.555 Y93.771 Z0 F1600
G1 X120.774 Y92.643 Z0 F1600
G1 X120.964 Y91.505 Z0 F1600
G1 X121.126 Y90.359 Z0 F1600
G1 X121.26 Y89.203 Z0 F1600
G1 X121.364 Y88.039 Z0 F1600
G1 X121.439 Y86.867 Z0 F1600
G1 X121.485 Y85.687 Z0 F1600
G1 X121.5 Y84.5 Z0 F1600
G1 X121.485 Y83.313 Z0 F1600
G1 X121.439 Y82.133 Z0 F1600
G1 X121.364 Y80.961 Z0 F1600
G1 X121.26 Y79.797 Z0 F1600
G1 X121.126 Y78.641 Z0 F1600
G1 X120.964 Y77.495 Z0 F1600
G1 X120.774 Y76.357 Z0 F1600
G1 X120.555 Y75.229 Z0 F1600
G1 X120.309 Y74.111 Z0 F1600
G1 X120.036 Y73.004 Z0 F1600
G1 X119.736 Y71.907 Z0 F1600
G1 X119.409 Y70.821 Z0 F1600
G1 X119.057 Y69.746 Z0 F1600
G1 X118.678 Y68.684 Z0 F1600
G1 X118.275 Y67.633 Z0 F1600
G1 X117.846 Y66.595 Z0 F1600
G1 X117.392 Y65.569 Z0 F1600
G1 X116.915 Y64.557 Z0 F1600
G1 X116.413 Y63.558 Z0 F1600
G1 X115.888 Y62.574 Z0 F1600
G1 X115.339 Y61.603 Z0 F1600
G1 X114.768 Y60.647 Z0 F1600
G1 X114.174 Y59.706 Z0 F1600
G1 X113.559 Y58.781 Z0 F1600
G1 X112.921 Y57.871 Z0 F1600
G1 X112.262 Y56.977 Z0 F1600
G1 X111.582 Y56.1 Z0 F1600
G1 X110.882 Y55.24 Z0 F1600
G1 X110.161 Y54.396 Z0 F1600
G1 X109.42 Y53.571 Z0 F1600
G1 X108.66 Y52.763 Z0 F1600
G1 X107.88 Y51.973 Z0 F1600
G1 X107.082 Y51.202 Z0 F1600
G1 X106.266 Y50.45 Z0 F1600
G1 X105.431 Y49.717 Z0 F1600
G1 X104.578 Y49.004 Z0 F1600
G1 X103.708 Y48.311 Z0 F1600
G1 X102.822 Y47.639 Z0 F1600
G1 X101.918 Y46.987 Z0 F1600
G1 X100.999 Y46.356 Z0 F1600
G1 X100.063 Y45.747 Z0 F1600
G1 X99.112 Y45.16 Z0 F1600
G1 X98.146 Y44.594 Z0 F1600
G1 X97.165 Y44.052 Z0 F1600
G1 X96.169 Y43.532 Z0 F1600
G1 X95.16 Y43.036 Z0 F1600
G1 X94.136 Y42.563 Z0 F1600
G1 X93.1 Y42.115 Z0 F1600
G1 X92.05 Y41.691 Z0 F1600
G1 X90.988 Y41.291 Z0 F1600
G1 X89.914 Y40.917 Z0 F1600
G1 X88.828 Y40.568 Z0 F1600
G1 X87.73 Y40.245 Z0 F1600
G1 X86.621 Y39.948 Z0 F1600
G1 X85.501 Y39.678 Z0 F1600
G1 X84.371 Y39.435 Z0 F1600
G1 X83.231 Y39.218 Z0 F1600
G1 X82.081 Y39.03 Z0 F1600

; Color picking sequence
G1 Z10 F1000;         ; Raise brush
G0 X41 Y5 F1200;    ; Rapid move to color 1
G1 Z10 F1000;         ; Raise brush
G0 X41 Y5 F1200;    ; Rapid move to color 1
G1 Z0 F1000;         ; Lower into color
G1 X40.102 Y7.295 Z0 S800 F1200
G1 X40.026 Y7.642 Z0 F1200
G1 X40 Y8 Z0 F1200
G1 X40.026 Y8.358 Z0 F1200
G1 X40.102 Y8.705 Z0 F1200
G1 X40.225 Y9.041 Z0 F1200
G1 X40.393 Y9.362 Z0 F1200
G1 X40.603 Y9.668 Z0 F1200
G1 X40.854 Y9.957 Z0 F1200
G1 X41.142 Y10.226 Z0 F1200
G1 X41.464 Y10.475 Z0 F1200
G1 X41.82 Y10.701 Z0 F1200
G1 X42.204 Y10.902 Z0 F1200
G1 X42.617 Y11.078 Z0 F1200
G1 X43.054 Y11.225 Z0 F1200
G1 X43.513 Y11.343 Z0 F1200
G1 X43.992 Y11.429 Z0 F1200
G1 X44.489 Y11.482 Z0 F1200
G1 X45 Y11.5 Z0 F1200
G1 X45.511 Y11.482 Z0 F1200
G1 X46.008 Y11.429 Z0 F1200
G1 X46.487 Y11.343 Z0 F1200
G1 X46.946 Y11.225 Z0 F1200
G1 X47.383 Y11.078 Z0 F1200
G1 X47.796 Y10.902 Z0 F1200
G1 X48.18 Y10.701 Z0 F1200
G1 X48.536 Y10.475 Z0 F1200
G1 X48.858 Y10.226 Z0 F1200
G1 X49.146 Y9.957 Z0 F1200
G1 X49.397 Y9.668 Z0 F1200
G1 X49.607 Y9.362 Z0 F1200
G1 X49.775 Y9.041 Z0 F1200
G1 X49.898 Y8.705 Z0 F1200
G1 X49.974 Y8.358 Z0 F1200
G1 X50 Y8 Z0 F1200
G1 X49.974 Y7.642 Z0 F1200
G1 X49.898 Y7.295 Z0 F1200
G1 X49.775 Y6.959 Z0 F1200
G1 X49.607 Y6.638 Z0 F1200
G1 X49.397 Y6.332 Z0 F1200
G1 X49.146 Y6.043 Z0 F1200
G1 X48.858 Y5.774 Z0 F1200
G1 X48.536 Y5.525 Z0 F1200
G1 X48.18 Y5.299 Z0 F1200
G1 X47.796 Y5.098 Z0 F1200
G1 X47.383 Y4.922 Z0 F1200
G1 X46.946 Y4.775 Z0 F1200
G1 X46.487 Y4.657 Z0 F1200
G1 X46.008 Y4.571 Z0 F1200
G1 X45.511 Y4.518 Z0 F1200
G1 X45 Y4.5 Z0 F1200
G1 X44.489 Y4.518 Z0 F1200
G1 X43.992 Y4.571 Z0 F1200
G1 X43.513 Y4.657 Z0 F1200
G1 X43.054 Y4.775 Z0 F1200
G1 X42.617 Y4.922 Z0 F1200
G1 X42.204 Y5.098 Z0 F1200
G1 X41.82 Y5.299 Z0 F1200
G1 X41.464 Y5.525 Z0 F1200
G1 X41.142 Y5.774 Z0 F1200
G1 X40.854 Y6.043 Z0 F1200
G1 X40.603 Y6.332 Z0 F1200
G1 X40.393 Y6.638 Z0 F1200
G1 X40.225 Y6.959 Z0 F1200
G1 Z7 F800;         ; Raise from color
G1 X34 Y8 Z1 F1200;     ; Movement in paint
G1 X24 Y18 Z8 F500;     ; Move in paint
G1 F1200;           ; Set feed rate
G0 Z2.5 F1000 ; Safety Lift
G0 X82.081 Y39.03 F1200 ; Return
G1 Z0 F1000 ; Restore Z
G1 X80.922 Y38.87 Z0 F1600
G1 X79.754 Y38.737 Z0 F1600
G1 X78.578 Y38.634 Z0 F1600
G1 X77.393 Y38.56 Z0 F1600
G1 X76.2 Y38.515 Z0 F1600
G1 X75 Y38.5 Z0 F1600
G1 X73.8 Y38.515 Z0 F1600
G1 X72.607 Y38.56 Z0 F1600
G1 X71.422 Y38.634 Z0 F1600
G1 X70.246 Y38.737 Z0 F1600
G1 X69.078 Y38.87 Z0 F1600
G1 X67.919 Y39.03 Z0 F1600
G1 X66.769 Y39.218 Z0 F1600
G1 X65.629 Y39.435 Z0 F1600
G1 X64.499 Y39.678 Z0 F1600
G1 X63.379 Y39.948 Z0 F1600
G1 X62.27 Y40.245 Z0 F1600
G1 X61.172 Y40.568 Z0 F1600
G1 X60.086 Y40.917 Z0 F1600
G1 X59.012 Y41.291 Z0 F1600
G1 X57.95 Y41.691 Z0 F1600
G1 X56.9 Y42.115 Z0 F1600
G1 X55.864 Y42.563 Z0 F1600
G1 X54.84 Y43.036 Z0 F1600
G1 X53.831 Y43.532 Z0 F1600
G1 X52.835 Y44.052 Z0 F1600
G1 X51.854 Y44.594 Z0 F1600
G1 X50.888 Y45.16 Z0 F1600
G1 X49.937 Y45.747 Z0 F1600
G1 X49.001 Y46.356 Z0 F1600
G1 X48.082 Y46.987 Z0 F1600
G1 X47.178 Y47.639 Z0 F1600
G1 X46.292 Y48.311 Z0 F1600
G1 X45.422 Y49.004 Z0 F1600
G1 X44.569 Y49.717 Z0 F1600
G1 X43.734 Y50.45 Z0 F1600
G1 X42.918 Y51.202 Z0 F1600
G0 Z3.5 F1000
G0 X133.007 Y121.324 Z3.5
G1 Z0 F1000
G1 X132.662 Y121.533 Z0 F1600
G1 X132.34 Y121.774 Z0 F1600
G1 X132.044 Y122.044 Z0 F1600
G1 X131.774 Y122.34 Z0 F1600
G1 X131.533 Y122.662 Z0 F1600
G1 X131.324 Y123.007 Z0 F1600
G1 X131.148 Y123.373 Z0 F1600
G1 X131.007 Y123.757 Z0 F1600
G1 X130.904 Y124.157 Z0 F1600
G1 X130.841 Y124.573 Z0 F1600
G1 X130.819 Y125 Z0 F1600
G1 X130.841 Y125.427 Z0 F1600
G1 X130.904 Y125.843 Z0 F1600
G1 X131.007 Y126.243 Z0 F1600
G1 X131.148 Y126.627 Z0 F1600
G1 X131.324 Y126.993 Z0 F1600
G1 X131.533 Y127.338 Z0 F1600
G1 X131.774 Y127.66 Z0 F1600
G1 X132.044 Y127.956 Z0 F1600
G1 X132.34 Y128.226 Z0 F1600
G1 X132.662 Y128.467 Z0 F1600
G1 X133.007 Y128.676 Z0 F1600
G1 X133.373 Y128.852 Z0 F1600
G1 X133.757 Y128.993 Z0 F1600
G1 X134.157 Y129.096 Z0 F1600
G1 X134.573 Y129.159 Z0 F1600
G1 X135 Y129.181 Z0 F1600
G1 X135.427 Y129.159 Z0 F1600
G1 X135.843 Y129.096 Z0 F1600
G1 X136.243 Y128.993 Z0 F1600
G1 X136.627 Y128.852 Z0 F1600
G1 X136.993 Y128.676 Z0 F1600
G1 X137.338 Y128.467 Z0 F1600
G1 X137.66 Y128.226 Z0 F1600
G1 X137.956 Y127.956 Z0 F1600
G1 X138.226 Y127.66 Z0 F1600
G1 X138.467 Y127.338 Z0 F1600
G1 X138.676 Y126.993 Z0 F1600
G1 X138.852 Y126.627 Z0 F1600
G1 X138.993 Y126.243 Z0 F1600
G1 X139.096 Y125.843 Z0 F1600
G1 X139.159 Y125.427 Z0 F1600
G1 X139.181 Y125 Z0 F1600
G1 X139.159 Y124.573 Z0 F1600
G1 X139.096 Y124.157 Z0 F1600
G1 X138.993 Y123.757 Z0 F1600
G1 X138.852 Y123.373 Z0 F1600
G1 X138.676 Y123.007 Z0 F1600
G1 X138.467 Y122.662 Z0 F1600
G1 X138.226 Y122.34 Z0 F1600
G1 X137.956 Y122.044 Z0 F1600
G1 X137.66 Y121.774 Z0 F1600
G1 X137.338 Y121.533 Z0 F1600
G1 X136.993 Y121.324 Z0 F1600
G1 X136.627 Y121.148 Z0 F1600
G1 X136.243 Y121.007 Z0 F1600
G1 X135.843 Y120.904 Z0 F1600
G1 X135.427 Y120.841 Z0 F1600
G1 X135 Y120.819 Z0 F1600
G1 X134.573 Y120.841 Z0 F1600
G1 X134.157 Y120.904 Z0 F1600
G1 X133.757 Y121.007 Z0 F1600
G1 X133.373 Y121.148 Z0 F1600
G1 X133.007 Y121.324 Z0 F1600
G0 Z3.5 F1000
G0 X147 Y137 Z3.5
G1 Z0 F1000
G1 Y32 Z0 F1600
G1 X3 Z0 F1600
G1 Y137 Z0 F1600
G1 X147 Z0 F1600

; Washing sequence (no color)
G1 Z10 F1000;        ; Raise brush
G0 X5 Y5 F1200;     ; Rapid move to clean
G1 Z-1 F800;         ; Lower brush
G1 X10 Y12 Z8 F1200;     ; Move
G1 Z-1 F800;         ; Lower
G1 X25 Y14 Z6 F800;     ; Move
G1 Z8 F800;         ; Maintain
G0 X5 Y5 F1200;     ; Rapid
G1 Z-1 F800;         ; Lower
G1 X15 Y12 Z8 F1200;     ; Move
G1 Z-1 F800;         ; Lower
G1 X25 Y14 Z6 F800;     ; Move
G1 Z10 F800;         ; Maintain
G1 F1200;           ; Set feed
G0 Z2.5 F1000 ; Safety Lift

; Color picking sequence
G1 Z10 F1000;         ; Raise brush
G0 X131 Y5 F1200;    ; Rapid move to color 1
G1 Z10 F1000;         ; Raise brush
G0 X131 Y5 F1200;    ; Rapid move to color 1
G1 Z0 F1000;         ; Lower into color
G1 X130.102 Y7.295 Z0 S800 F1200
G1 X130.026 Y7.642 Z0 F1200
G1 X130 Y8 Z0 F1200
G1 X130.026 Y8.358 Z0 F1200
G1 X130.102 Y8.705 Z0 F1200
G1 X130.225 Y9.041 Z0 F1200
G1 X130.393 Y9.362 Z0 F1200
G1 X130.603 Y9.668 Z0 F1200
G1 X130.854 Y9.957 Z0 F1200
G1 X131.142 Y10.226 Z0 F1200
G1 X131.464 Y10.475 Z0 F1200
G1 X131.82 Y10.701 Z0 F1200
G1 X132.204 Y10.902 Z0 F1200
G1 X132.617 Y11.078 Z0 F1200
G1 X133.054 Y11.225 Z0 F1200
G1 X133.513 Y11.343 Z0 F1200
G1 X133.992 Y11.429 Z0 F1200
G1 X134.489 Y11.482 Z0 F1200
G1 X135 Y11.5 Z0 F1200
G1 X135.511 Y11.482 Z0 F1200
G1 X136.008 Y11.429 Z0 F1200
G1 X136.487 Y11.343 Z0 F1200
G1 X136.946 Y11.225 Z0 F1200
G1 X137.383 Y11.078 Z0 F1200
G1 X137.796 Y10.902 Z0 F1200
G1 X138.18 Y10.701 Z0 F1200
G1 X138.536 Y10.475 Z0 F1200
G1 X138.858 Y10.226 Z0 F1200
G1 X139.146 Y9.957 Z0 F1200
G1 X139.397 Y9.668 Z0 F1200
G1 X139.607 Y9.362 Z0 F1200
G1 X139.775 Y9.041 Z0 F1200
G1 X139.898 Y8.705 Z0 F1200
G1 X139.974 Y8.358 Z0 F1200
G1 X140 Y8 Z0 F1200
G1 X139.974 Y7.642 Z0 F1200
G1 X139.898 Y7.295 Z0 F1200
G1 X139.775 Y6.959 Z0 F1200
G1 X139.607 Y6.638 Z0 F1200
G1 X139.397 Y6.332 Z0 F1200
G1 X139.146 Y6.043 Z0 F1200
G1 X138.858 Y5.774 Z0 F1200
G1 X138.536 Y5.525 Z0 F1200
G1 X138.18 Y5.299 Z0 F1200
G1 X137.796 Y5.098 Z0 F1200
G1 X137.383 Y4.922 Z0 F1200
G1 X136.946 Y4.775 Z0 F1200
G1 X136.487 Y4.657 Z0 F1200
G1 X136.008 Y4.571 Z0 F1200
G1 X135.511 Y4.518 Z0 F1200
G1 X135 Y4.5 Z0 F1200
G1 X134.489 Y4.518 Z0 F1200
G1 X133.992 Y4.571 Z0 F1200
G1 X133.513 Y4.657 Z0 F1200
G1 X133.054 Y4.775 Z0 F1200
G1 X132.617 Y4.922 Z0 F1200
G1 X132.204 Y5.098 Z0 F1200
G1 X131.82 Y5.299 Z0 F1200
G1 X131.464 Y5.525 Z0 F1200
G1 X131.142 Y5.774 Z0 F1200
G1 X130.854 Y6.043 Z0 F1200
G1 X130.603 Y6.332 Z0 F1200
G1 X130.393 Y6.638 Z0 F1200
G1 X130.225 Y6.959 Z0 F1200
G1 Z7 F800;         ; Raise from color
G1 X124 Y8 Z1 F1200;     ; Movement in paint
G1 X114 Y18 Z8 F500;     ; Move in paint
G1 F1200;           ; Set feed rate
G0 Z2.5 F1000 ; Safety Lift
;Offset @ 1500 mm/min, 90% power

M8
G0 Z3.5 F1000
G0 X15.061 Y124.513 Z3.5
G1 Z0 F1000
;Layer C3
G1 X15.109 Y124.521 Z0 S900 F1600
G1 X15.15 Y124.531 Z0 F1600
G1 X15.194 Y124.547 Z0 F1600
G1 X15.228 Y124.563 Z0 F1600
G1 X15.27 Y124.589 Z0 F1600
G1 X15.31 Y124.619 Z0 F1600
G1 X15.347 Y124.653 Z0 F1600
G1 X15.381 Y124.69 Z0 F1600
G1 X15.411 Y124.73 Z0 F1600
G1 X15.437 Y124.772 Z0 F1600
G1 X15.453 Y124.806 Z0 F1600
G1 X15.469 Y124.85 Z0 F1600
G1 X15.479 Y124.891 Z0 F1600
G1 X15.487 Y124.939 Z0 F1600
G1 X15.49 Y125 Z0 F1600
G1 X15.487 Y125.061 Z0 F1600
G1 X15.479 Y125.109 Z0 F1600
G1 X15.469 Y125.15 Z0 F1600
G1 X15.453 Y125.194 Z0 F1600
G1 X15.437 Y125.228 Z0 F1600
G1 X15.411 Y125.27 Z0 F1600
G1 X15.381 Y125.31 Z0 F1600
G1 X15.347 Y125.347 Z0 F1600
G1 X15.31 Y125.381 Z0 F1600
G1 X15.27 Y125.411 Z0 F1600
G1 X15.228 Y125.437 Z0 F1600
G1 X15.194 Y125.453 Z0 F1600
G1 X15.15 Y125.469 Z0 F1600
G1 X15.109 Y125.479 Z0 F1600
G1 X15.061 Y125.487 Z0 F1600
G1 X15 Y125.49 Z0 F1600
G1 X14.939 Y125.487 Z0 F1600
G1 X14.891 Y125.479 Z0 F1600
G1 X14.85 Y125.469 Z0 F1600
G1 X14.806 Y125.453 Z0 F1600
G1 X14.772 Y125.437 Z0 F1600
G1 X14.73 Y125.411 Z0 F1600
G1 X14.69 Y125.381 Z0 F1600
G1 X14.653 Y125.347 Z0 F1600
G1 X14.619 Y125.31 Z0 F1600
G1 X14.589 Y125.27 Z0 F1600
G1 X14.563 Y125.228 Z0 F1600
G1 X14.547 Y125.194 Z0 F1600
G1 X14.531 Y125.15 Z0 F1600
G1 X14.521 Y125.109 Z0 F1600
G1 X14.513 Y125.061 Z0 F1600
G1 X14.51 Y125 Z0 F1600
G1 X14.513 Y124.939 Z0 F1600
G1 X14.521 Y124.891 Z0 F1600
G1 X14.531 Y124.85 Z0 F1600
G1 X14.547 Y124.806 Z0 F1600
G1 X14.563 Y124.772 Z0 F1600
G1 X14.589 Y124.73 Z0 F1600
G1 X14.619 Y124.69 Z0 F1600
G1 X14.653 Y124.653 Z0 F1600
G1 X14.69 Y124.619 Z0 F1600
G1 X14.73 Y124.589 Z0 F1600
G1 X14.772 Y124.563 Z0 F1600
G1 X14.806 Y124.547 Z0 F1600
G1 X14.85 Y124.531 Z0 F1600
G1 X14.891 Y124.521 Z0 F1600
G1 X14.939 Y124.513 Z0 F1600
G1 X15 Y124.51 Z0 F1600
G1 X15.061 Y124.513 Z0 F1600
G0 Z3.5 F1000
G0 X17.479 Y124.738 Z3.5
G1 Z0 F1000
G1 X17.493 Y125 Z0 F1600
G1 X17.479 Y125.262 Z0 F1600
G1 X17.441 Y125.511 Z0 F1600
G1 X17.381 Y125.745 Z0 F1600
G1 X17.298 Y125.97 Z0 F1600
G1 X17.194 Y126.187 Z0 F1600
G1 X17.072 Y126.388 Z0 F1600
G1 X16.925 Y126.584 Z0 F1600
G1 X16.763 Y126.763 Z0 F1600
G1 X16.584 Y126.925 Z0 F1600
G1 X16.388 Y127.072 Z0 F1600
G1 X16.187 Y127.194 Z0 F1600
G1 X15.97 Y127.298 Z0 F1600
G1 X15.745 Y127.381 Z0 F1600
G1 X15.511 Y127.441 Z0 F1600
G1 X15.262 Y127.479 Z0 F1600
G1 X15 Y127.493 Z0 F1600
G1 X14.738 Y127.479 Z0 F1600
G1 X14.489 Y127.441 Z0 F1600
G1 X14.255 Y127.381 Z0 F1600
G1 X14.03 Y127.298 Z0 F1600
G1 X13.813 Y127.194 Z0 F1600
G1 X13.612 Y127.072 Z0 F1600
G1 X13.416 Y126.925 Z0 F1600
G1 X13.237 Y126.763 Z0 F1600
G1 X13.075 Y126.584 Z0 F1600
G1 X12.928 Y126.388 Z0 F1600
G1 X12.806 Y126.187 Z0 F1600
G1 X12.702 Y125.97 Z0 F1600
G1 X12.619 Y125.745 Z0 F1600
G1 X12.559 Y125.511 Z0 F1600
G1 X12.521 Y125.262 Z0 F1600
G1 X12.507 Y125 Z0 F1600
G1 X12.521 Y124.738 Z0 F1600
G1 X12.559 Y124.489 Z0 F1600
G1 X12.619 Y124.255 Z0 F1600
G1 X12.702 Y124.03 Z0 F1600
G1 X12.806 Y123.813 Z0 F1600
G1 X12.928 Y123.612 Z0 F1600
G1 X13.075 Y123.416 Z0 F1600
G1 X13.237 Y123.237 Z0 F1600
G1 X13.416 Y123.075 Z0 F1600
G1 X13.612 Y122.928 Z0 F1600
G1 X13.813 Y122.806 Z0 F1600
G1 X14.03 Y122.702 Z0 F1600
G1 X14.255 Y122.619 Z0 F1600
G1 X14.489 Y122.559 Z0 F1600
G1 X14.738 Y122.521 Z0 F1600
G1 X15 Y122.507 Z0 F1600
G1 X15.262 Y122.521 Z0 F1600
G1 X15.511 Y122.559 Z0 F1600
G1 X15.745 Y122.619 Z0 F1600
G1 X15.97 Y122.702 Z0 F1600
G1 X16.187 Y122.806 Z0 F1600
G1 X16.388 Y122.928 Z0 F1600
G1 X16.584 Y123.075 Z0 F1600
G1 X16.763 Y123.237 Z0 F1600
G1 X16.925 Y123.416 Z0 F1600
G1 X17.072 Y123.612 Z0 F1600
G1 X17.194 Y123.813 Z0 F1600
G1 X17.298 Y124.03 Z0 F1600
G1 X17.381 Y124.255 Z0 F1600
G1 X17.441 Y124.489 Z0 F1600
G1 X17.479 Y124.738 Z0 F1600
G0 Z3.5 F1000
G0 X18.178 Y128.178 Z3.5
G1 Z0 F1000
G1 X17.857 Y128.471 Z0 F1600
G1 X17.51 Y128.73 Z0 F1600
G1 X17.143 Y128.954 Z0 F1600
G1 X16.747 Y129.144 Z0 F1600
G1 X16.34 Y129.293 Z0 F1600
G1 X15.912 Y129.403 Z0 F1600
G1 X15.468 Y129.471 Z0 F1600
G1 X15 Y129.495 Z0 F1600
G1 X14.532 Y129.471 Z0 F1600
G1 X14.088 Y129.403 Z0 F1600
G1 X13.66 Y129.293 Z0 F1600
G1 X13.253 Y129.144 Z0 F1600
G1 X12.857 Y128.954 Z0 F1600
G1 X12.49 Y128.73 Z0 F1600
G1 X12.143 Y128.471 Z0 F1600
G1 X11.822 Y128.178 Z0 F1600
G1 X11.529 Y127.857 Z0 F1600
G1 X11.27 Y127.51 Z0 F1600
G1 X11.046 Y127.143 Z0 F1600
G1 X10.856 Y126.747 Z0 F1600
G1 X10.707 Y126.34 Z0 F1600
G1 X10.597 Y125.912 Z0 F1600
G1 X10.529 Y125.468 Z0 F1600
G1 X10.505 Y125 Z0 F1600
G1 X10.529 Y124.532 Z0 F1600
G1 X10.597 Y124.088 Z0 F1600
G1 X10.707 Y123.66 Z0 F1600
G1 X10.856 Y123.253 Z0 F1600
G1 X11.046 Y122.857 Z0 F1600
G1 X11.27 Y122.49 Z0 F1600
G1 X11.529 Y122.143 Z0 F1600
G1 X11.822 Y121.822 Z0 F1600
G1 X12.143 Y121.529 Z0 F1600
G1 X12.49 Y121.27 Z0 F1600
G1 X12.857 Y121.046 Z0 F1600
G1 X13.253 Y120.856 Z0 F1600
G1 X13.66 Y120.707 Z0 F1600
G1 X14.088 Y120.597 Z0 F1600
G1 X14.532 Y120.529 Z0 F1600
G1 X15 Y120.505 Z0 F1600
G1 X15.468 Y120.529 Z0 F1600
G1 X15.912 Y120.597 Z0 F1600
G1 X16.34 Y120.707 Z0 F1600
G1 X16.747 Y120.856 Z0 F1600
G1 X17.143 Y121.046 Z0 F1600
G1 X17.51 Y121.27 Z0 F1600
G1 X17.857 Y121.529 Z0 F1600
G1 X18.178 Y121.822 Z0 F1600
G1 X18.471 Y122.143 Z0 F1600
G1 X18.73 Y122.49 Z0 F1600
G1 X18.954 Y122.857 Z0 F1600
G1 X19.144 Y123.253 Z0 F1600
G1 X19.293 Y123.66 Z0 F1600
G1 X19.403 Y124.088 Z0 F1600
G1 X19.471 Y124.532 Z0 F1600
G1 X19.495 Y125 Z0 F1600
G1 X19.471 Y125.468 Z0 F1600
G1 X19.403 Y125.912 Z0 F1600
G1 X19.293 Y126.34 Z0 F1600
G1 X19.144 Y126.747 Z0 F1600
G1 X18.954 Y127.143 Z0 F1600
G1 X18.73 Y127.51 Z0 F1600
G1 X18.471 Y127.857 Z0 F1600
G1 X18.178 Y128.178 Z0 F1600
G0 Z3.5 F1000
G0 X15 Y131.498 Z3.5
G1 Z0 F1000
G1 X14.332 Y131.463 Z0 F1600
G1 X13.688 Y131.365 Z0 F1600
G1 X13.067 Y131.206 Z0 F1600
G1 X12.468 Y130.986 Z0 F1600
G1 X11.904 Y130.715 Z0 F1600
G1 X11.369 Y130.39 Z0 F1600
G1 X10.868 Y130.015 Z0 F1600
G1 X10.406 Y129.594 Z0 F1600
G1 X9.985 Y129.132 Z0 F1600
G1 X9.61 Y128.631 Z0 F1600
G1 X9.285 Y128.096 Z0 F1600
G1 X9.014 Y127.532 Z0 F1600
G1 X8.794 Y126.933 Z0 F1600
G1 X8.635 Y126.312 Z0 F1600
G1 X8.537 Y125.668 Z0 F1600
G1 X8.502 Y125 Z0 F1600
G1 X8.537 Y124.332 Z0 F1600
G1 X8.635 Y123.688 Z0 F1600
G1 X8.794 Y123.067 Z0 F1600
G1 X9.014 Y122.468 Z0 F1600
G1 X9.285 Y121.904 Z0 F1600
G1 X9.61 Y121.369 Z0 F1600
G1 X9.985 Y120.868 Z0 F1600
G1 X10.406 Y120.406 Z0 F1600
G1 X10.868 Y119.985 Z0 F1600
G1 X11.369 Y119.61 Z0 F1600
G1 X11.904 Y119.285 Z0 F1600
G1 X12.468 Y119.014 Z0 F1600
G1 X13.067 Y118.794 Z0 F1600
G1 X13.688 Y118.635 Z0 F1600
G1 X14.332 Y118.537 Z0 F1600
G1 X15 Y118.502 Z0 F1600
G1 X15.668 Y118.537 Z0 F1600
G1 X16.312 Y118.635 Z0 F1600
G1 X16.933 Y118.794 Z0 F1600
G1 X17.532 Y119.014 Z0 F1600
G1 X18.096 Y119.285 Z0 F1600
G1 X18.631 Y119.61 Z0 F1600
G1 X19.132 Y119.985 Z0 F1600
G1 X19.594 Y120.406 Z0 F1600
G1 X20.015 Y120.868 Z0 F1600
G1 X20.39 Y121.369 Z0 F1600
G1 X20.715 Y121.904 Z0 F1600
G1 X20.986 Y122.468 Z0 F1600
G1 X21.206 Y123.067 Z0 F1600
G1 X21.365 Y123.688 Z0 F1600
G1 X21.463 Y124.332 Z0 F1600
G1 X21.498 Y125 Z0 F1600
G1 X21.463 Y125.668 Z0 F1600
G1 X21.365 Y126.312 Z0 F1600
G1 X21.206 Y126.933 Z0 F1600
G1 X20.986 Y127.532 Z0 F1600
G1 X20.715 Y128.096 Z0 F1600
G1 X20.39 Y128.631 Z0 F1600
G1 X20.015 Y129.132 Z0 F1600
G1 X19.594 Y129.594 Z0 F1600
G1 X19.132 Y130.015 Z0 F1600
G1 X18.631 Y130.39 Z0 F1600
G1 X18.096 Y130.715 Z0 F1600
G1 X17.532 Y130.986 Z0 F1600
G1 X16.933 Y131.206 Z0 F1600
G1 X16.312 Y131.365 Z0 F1600
G1 X15.668 Y131.463 Z0 F1600
G1 X15 Y131.498 Z0 F1600
G0 Z3.5 F1000
G0 X10.248 Y132.048 Z3.5
G1 Z0 F1000
G1 X9.593 Y131.559 Z0 F1600
G1 X8.99 Y131.01 Z0 F1600
G1 X8.441 Y130.407 Z0 F1600
G1 X7.952 Y129.752 Z0 F1600
G1 X7.526 Y129.052 Z0 F1600
G1 X7.168 Y128.309 Z0 F1600
G1 X6.882 Y127.528 Z0 F1600
G1 X6.673 Y126.713 Z0 F1600
G1 X6.544 Y125.869 Z0 F1600
G1 X6.5 Y125 Z0 F1600
G1 X6.544 Y124.131 Z0 F1600
G1 X6.673 Y123.287 Z0 F1600
G1 X6.882 Y122.472 Z0 F1600
G1 X7.168 Y121.691 Z0 F1600
G1 X7.526 Y120.948 Z0 F1600
G1 X7.952 Y120.248 Z0 F1600
G1 X8.441 Y119.593 Z0 F1600
G1 X8.99 Y118.99 Z0 F1600
G1 X9.593 Y118.441 Z0 F1600
G1 X10.248 Y117.952 Z0 F1600
G1 X10.948 Y117.526 Z0 F1600
G1 X11.691 Y117.168 Z0 F1600
G1 X12.472 Y116.882 Z0 F1600
G1 X13.287 Y116.673 Z0 F1600
G1 X14.131 Y116.544 Z0 F1600
G1 X15 Y116.5 Z0 F1600
G1 X15.869 Y116.544 Z0 F1600
G1 X16.713 Y116.673 Z0 F1600
G1 X17.528 Y116.882 Z0 F1600
G1 X18.309 Y117.168 Z0 F1600
G1 X19.052 Y117.526 Z0 F1600
G1 X19.752 Y117.952 Z0 F1600
G1 X20.407 Y118.441 Z0 F1600
G1 X21.01 Y118.99 Z0 F1600
G1 X21.559 Y119.593 Z0 F1600
G1 X22.048 Y120.248 Z0 F1600
G1 X22.474 Y120.948 Z0 F1600
G1 X22.832 Y121.691 Z0 F1600
G1 X23.118 Y122.472 Z0 F1600
G1 X23.327 Y123.287 Z0 F1600
G1 X23.456 Y124.131 Z0 F1600
G1 X23.5 Y125 Z0 F1600
G1 X23.456 Y125.869 Z0 F1600
G1 X23.327 Y126.713 Z0 F1600
G1 X23.118 Y127.528 Z0 F1600
G1 X22.832 Y128.309 Z0 F1600
G1 X22.474 Y129.052 Z0 F1600
G1 X22.048 Y129.752 Z0 F1600
G1 X21.559 Y130.407 Z0 F1600
G1 X21.01 Y131.01 Z0 F1600
G1 X20.407 Y131.559 Z0 F1600
G1 X19.752 Y132.048 Z0 F1600
G1 X19.052 Y132.474 Z0 F1600
G1 X18.309 Y132.832 Z0 F1600
G1 X17.528 Y133.118 Z0 F1600
G1 X16.713 Y133.327 Z0 F1600
G1 X15.869 Y133.456 Z0 F1600
G1 X15 Y133.5 Z0 F1600
G1 X14.131 Y133.456 Z0 F1600
G1 X13.287 Y133.327 Z0 F1600
G1 X12.472 Y133.118 Z0 F1600
G1 X11.691 Y132.832 Z0 F1600
G1 X10.948 Y132.474 Z0 F1600
G1 X10.248 Y132.048 Z0 F1600

; Washing sequence (no color)
G1 Z10 F1000;        ; Raise brush
G0 X5 Y5 F1200;     ; Rapid move to clean
G1 Z-1 F800;         ; Lower brush
G1 X10 Y12 Z8 F1200;     ; Move
G1 Z-1 F800;         ; Lower
G1 X25 Y14 Z6 F800;     ; Move
G1 Z8 F800;         ; Maintain
G0 X5 Y5 F1200;     ; Rapid
G1 Z-1 F800;         ; Lower
G1 X15 Y12 Z8 F1200;     ; Move
G1 Z-1 F800;         ; Lower
G1 X25 Y14 Z6 F800;     ; Move
G1 Z10 F800;         ; Maintain
G1 F1200;           ; Set feed
G0 Z2.5 F1000 ; Safety Lift

; Color picking sequence
G1 Z10 F1000;         ; Raise brush
G0 X86 Y5 F1200;    ; Rapid move to color 1
G1 Z10 F1000;         ; Raise brush
G0 X86 Y5 F1200;    ; Rapid move to color 1
G1 Z0 F1000;         ; Lower into color
G1 X85.102 Y7.295 Z0 S800 F1200
G1 X85.026 Y7.642 Z0 F1200
G1 X85 Y8 Z0 F1200
G1 X85.026 Y8.358 Z0 F1200
G1 X85.102 Y8.705 Z0 F1200
G1 X85.225 Y9.041 Z0 F1200
G1 X85.393 Y9.362 Z0 F1200
G1 X85.603 Y9.668 Z0 F1200
G1 X85.854 Y9.957 Z0 F1200
G1 X86.142 Y10.226 Z0 F1200
G1 X86.464 Y10.475 Z0 F1200
G1 X86.82 Y10.701 Z0 F1200
G1 X87.204 Y10.902 Z0 F1200
G1 X87.617 Y11.078 Z0 F1200
G1 X88.054 Y11.225 Z0 F1200
G1 X88.513 Y11.343 Z0 F1200
G1 X88.992 Y11.429 Z0 F1200
G1 X89.489 Y11.482 Z0 F1200
G1 X90 Y11.5 Z0 F1200
G1 X90.511 Y11.482 Z0 F1200
G1 X91.008 Y11.429 Z0 F1200
G1 X91.487 Y11.343 Z0 F1200
G1 X91.946 Y11.225 Z0 F1200
G1 X92.383 Y11.078 Z0 F1200
G1 X92.796 Y10.902 Z0 F1200
G1 X93.18 Y10.701 Z0 F1200
G1 X93.536 Y10.475 Z0 F1200
G1 X93.858 Y10.226 Z0 F1200
G1 X94.146 Y9.957 Z0 F1200
G1 X94.397 Y9.668 Z0 F1200
G1 X94.607 Y9.362 Z0 F1200
G1 X94.775 Y9.041 Z0 F1200
G1 X94.898 Y8.705 Z0 F1200
G1 X94.974 Y8.358 Z0 F1200
G1 X95 Y8 Z0 F1200
G1 X94.974 Y7.642 Z0 F1200
G1 X94.898 Y7.295 Z0 F1200
G1 X94.775 Y6.959 Z0 F1200
G1 X94.607 Y6.638 Z0 F1200
G1 X94.397 Y6.332 Z0 F1200
G1 X94.146 Y6.043 Z0 F1200
G1 X93.858 Y5.774 Z0 F1200
G1 X93.536 Y5.525 Z0 F1200
G1 X93.18 Y5.299 Z0 F1200
G1 X92.796 Y5.098 Z0 F1200
G1 X92.383 Y4.922 Z0 F1200
G1 X91.946 Y4.775 Z0 F1200
G1 X91.487 Y4.657 Z0 F1200
G1 X91.008 Y4.571 Z0 F1200
G1 X90.511 Y4.518 Z0 F1200
G1 X90 Y4.5 Z0 F1200
G1 X89.489 Y4.518 Z0 F1200
G1 X88.992 Y4.571 Z0 F1200
G1 X88.513 Y4.657 Z0 F1200
G1 X88.054 Y4.775 Z0 F1200
G1 X87.617 Y4.922 Z0 F1200
G1 X87.204 Y5.098 Z0 F1200
G1 X86.82 Y5.299 Z0 F1200
G1 X86.464 Y5.525 Z0 F1200
G1 X86.142 Y5.774 Z0 F1200
G1 X85.854 Y6.043 Z0 F1200
G1 X85.603 Y6.332 Z0 F1200
G1 X85.393 Y6.638 Z0 F1200
G1 X85.225 Y6.959 Z0 F1200
G1 Z7 F800;         ; Raise from color
G1 X79 Y8 Z1 F1200;     ; Movement in paint
G1 X69 Y18 Z8 F500;     ; Move in paint
G1 F1200;           ; Set feed rate
G0 Z2.5 F1000 ; Safety Lift
;Cut @ 1500 mm/min, 80% power

M8
G0 Z3.5 F1000
G0 X128.472 Y125 Z3.5
G1 Z0 F1000
;Layer C2
G1 X141.528 Z0 S800 F1600
G0 Z3.5 F1000
G0 X135 Y131.528 Z3.5
G1 Z0 F1000
G1 Y118.472 Z0 F1600
G0 Z3.5 F1000
G0 X18.873 Y51.708 Z3.5
G1 Z0 F1000
G1 X11.127 Y38.292 Z0 F1600
G0 Z3.5 F1000
G0 X12.995 Y37.519 Z3.5
G1 Z0 F1000
G1 X17.005 Y52.481 Z0 F1600
G0 Z3.5 F1000
G0 X15 Y52.745 Z3.5
G1 Z0 F1000
G1 Y37.255 Z0 F1600
G0 Z3.5 F1000
G0 X17.005 Y37.519 Z3.5
G1 Z0 F1000
G1 X12.995 Y52.481 Z0 F1600
G0 Z3.5 F1000
G0 X11.127 Y51.708 Z3.5
G1 Z0 F1000
G1 X18.873 Y38.292 Z0 F1600
G0 Z3.5 F1000

; Color picking sequence
G1 Z10 F1000;         ; Raise brush
G0 X86 Y5 F1200;    ; Rapid move to color 1
G1 Z10 F1000;         ; Raise brush
G0 X86 Y5 F1200;    ; Rapid move to color 1
G1 Z0 F1000;         ; Lower into color
G1 X85.102 Y7.295 Z0 S800 F1200
G1 X85.026 Y7.642 Z0 F1200
G1 X85 Y8 Z0 F1200
G1 X85.026 Y8.358 Z0 F1200
G1 X85.102 Y8.705 Z0 F1200
G1 X85.225 Y9.041 Z0 F1200
G1 X85.393 Y9.362 Z0 F1200
G1 X85.603 Y9.668 Z0 F1200
G1 X85.854 Y9.957 Z0 F1200
G1 X86.142 Y10.226 Z0 F1200
G1 X86.464 Y10.475 Z0 F1200
G1 X86.82 Y10.701 Z0 F1200
G1 X87.204 Y10.902 Z0 F1200
G1 X87.617 Y11.078 Z0 F1200
G1 X88.054 Y11.225 Z0 F1200
G1 X88.513 Y11.343 Z0 F1200
G1 X88.992 Y11.429 Z0 F1200
G1 X89.489 Y11.482 Z0 F1200
G1 X90 Y11.5 Z0 F1200
G1 X90.511 Y11.482 Z0 F1200
G1 X91.008 Y11.429 Z0 F1200
G1 X91.487 Y11.343 Z0 F1200
G1 X91.946 Y11.225 Z0 F1200
G1 X92.383 Y11.078 Z0 F1200
G1 X92.796 Y10.902 Z0 F1200
G1 X93.18 Y10.701 Z0 F1200
G1 X93.536 Y10.475 Z0 F1200
G1 X93.858 Y10.226 Z0 F1200
G1 X94.146 Y9.957 Z0 F1200
G1 X94.397 Y9.668 Z0 F1200
G1 X94.607 Y9.362 Z0 F1200
G1 X94.775 Y9.041 Z0 F1200
G1 X94.898 Y8.705 Z0 F1200
G1 X94.974 Y8.358 Z0 F1200
G1 X95 Y8 Z0 F1200
G1 X94.974 Y7.642 Z0 F1200
G1 X94.898 Y7.295 Z0 F1200
G1 X94.775 Y6.959 Z0 F1200
G1 X94.607 Y6.638 Z0 F1200
G1 X94.397 Y6.332 Z0 F1200
G1 X94.146 Y6.043 Z0 F1200
G1 X93.858 Y5.774 Z0 F1200
G1 X93.536 Y5.525 Z0 F1200
G1 X93.18 Y5.299 Z0 F1200
G1 X92.796 Y5.098 Z0 F1200
G1 X92.383 Y4.922 Z0 F1200
G1 X91.946 Y4.775 Z0 F1200
G1 X91.487 Y4.657 Z0 F1200
G1 X91.008 Y4.571 Z0 F1200
G1 X90.511 Y4.518 Z0 F1200
G1 X90 Y4.5 Z0 F1200
G1 X89.489 Y4.518 Z0 F1200
G1 X88.992 Y4.571 Z0 F1200
G1 X88.513 Y4.657 Z0 F1200
G1 X88.054 Y4.775 Z0 F1200
G1 X87.617 Y4.922 Z0 F1200
G1 X87.204 Y5.098 Z0 F1200
G1 X86.82 Y5.299 Z0 F1200
G1 X86.464 Y5.525 Z0 F1200
G1 X86.142 Y5.774 Z0 F1200
G1 X85.854 Y6.043 Z0 F1200
G1 X85.603 Y6.332 Z0 F1200
G1 X85.393 Y6.638 Z0 F1200
G1 X85.225 Y6.959 Z0 F1200
G1 Z7 F800;         ; Raise from color
G1 X79 Y8 Z1 F1200;     ; Movement in paint
G1 X69 Y18 Z8 F500;     ; Move in paint
G1 F1200;           ; Set feed rate
G0 Z2.5 F1000 ; Safety Lift
G0 X18.873 Y38.292 F1200 ; Return to pos
G0 X20.477 Y39.523 Z3.5
G1 Z0 F1000
G1 X9.523 Y50.477 Z0 F1600
G0 Z3.5 F1000
G0 X8.292 Y48.873 Z3.5
G1 Z0 F1000
G1 X21.708 Y41.127 Z0 F1600
G0 Z3.5 F1000
G0 X22.481 Y42.995 Z3.5
G1 Z0 F1000
G1 X7.519 Y47.005 Z0 F1600
G0 Z3.5 F1000
G0 X7.255 Y45 Z3.5
G1 Z0 F1000
G1 X22.745 Z0 F1600
G0 Z3.5 F1000
G0 X22.481 Y47.005 Z3.5
G1 Z0 F1000
G1 X7.519 Y42.995 Z0 F1600
G0 Z3.5 F1000
G0 X8.292 Y41.127 Z3.5
G1 Z0 F1000
G1 X21.708 Y48.873 Z0 F1600
G0 Z3.5 F1000
G0 X20.477 Y50.477 Z3.5
G1 Z0 F1000
G1 X9.523 Y39.523 Z0 F1600

; Washing sequence (no color)
G1 Z10 F1000;        ; Raise brush
G0 X5 Y5 F1200;     ; Rapid move to clean
G1 Z-1 F800;         ; Lower brush
G1 X10 Y12 Z8 F1200;     ; Move
G1 Z-1 F800;         ; Lower
G1 X25 Y14 Z6 F800;     ; Move
G1 Z8 F800;         ; Maintain
G0 X5 Y5 F1200;     ; Rapid
G1 Z-1 F800;         ; Lower
G1 X15 Y12 Z8 F1200;     ; Move
G1 Z-1 F800;         ; Lower
G1 X25 Y14 Z6 F800;     ; Move
G1 Z10 F800;         ; Maintain
G1 F1200;           ; Set feed
G0 Z2.5 F1000 ; Safety Lift

; Color picking sequence
G1 Z10 F1000;         ; Raise brush
G0 X41 Y5 F1200;    ; Rapid move to color 1
G1 Z10 F1000;         ; Raise brush
G0 X41 Y5 F1200;    ; Rapid move to color 1
G1 Z0 F1000;         ; Lower into color
G1 X40.102 Y7.295 Z0 S800 F1200
G1 X40.026 Y7.642 Z0 F1200
G1 X40 Y8 Z0 F1200
G1 X40.026 Y8.358 Z0 F1200
G1 X40.102 Y8.705 Z0 F1200
G1 X40.225 Y9.041 Z0 F1200
G1 X40.393 Y9.362 Z0 F1200
G1 X40.603 Y9.668 Z0 F1200
G1 X40.854 Y9.957 Z0 F1200
G1 X41.142 Y10.226 Z0 F1200
G1 X41.464 Y10.475 Z0 F1200
G1 X41.82 Y10.701 Z0 F1200
G1 X42.204 Y10.902 Z0 F1200
G1 X42.617 Y11.078 Z0 F1200
G1 X43.054 Y11.225 Z0 F1200
G1 X43.513 Y11.343 Z0 F1200
G1 X43.992 Y11.429 Z0 F1200
G1 X44.489 Y11.482 Z0 F1200
G1 X45 Y11.5 Z0 F1200
G1 X45.511 Y11.482 Z0 F1200
G1 X46.008 Y11.429 Z0 F1200
G1 X46.487 Y11.343 Z0 F1200
G1 X46.946 Y11.225 Z0 F1200
G1 X47.383 Y11.078 Z0 F1200
G1 X47.796 Y10.902 Z0 F1200
G1 X48.18 Y10.701 Z0 F1200
G1 X48.536 Y10.475 Z0 F1200
G1 X48.858 Y10.226 Z0 F1200
G1 X49.146 Y9.957 Z0 F1200
G1 X49.397 Y9.668 Z0 F1200
G1 X49.607 Y9.362 Z0 F1200
G1 X49.775 Y9.041 Z0 F1200
G1 X49.898 Y8.705 Z0 F1200
G1 X49.974 Y8.358 Z0 F1200
G1 X50 Y8 Z0 F1200
G1 X49.974 Y7.642 Z0 F1200
G1 X49.898 Y7.295 Z0 F1200
G1 X49.775 Y6.959 Z0 F1200
G1 X49.607 Y6.638 Z0 F1200
G1 X49.397 Y6.332 Z0 F1200
G1 X49.146 Y6.043 Z0 F1200
G1 X48.858 Y5.774 Z0 F1200
G1 X48.536 Y5.525 Z0 F1200
G1 X48.18 Y5.299 Z0 F1200
G1 X47.796 Y5.098 Z0 F1200
G1 X47.383 Y4.922 Z0 F1200
G1 X46.946 Y4.775 Z0 F1200
G1 X46.487 Y4.657 Z0 F1200
G1 X46.008 Y4.571 Z0 F1200
G1 X45.511 Y4.518 Z0 F1200
G1 X45 Y4.5 Z0 F1200
G1 X44.489 Y4.518 Z0 F1200
G1 X43.992 Y4.571 Z0 F1200
G1 X43.513 Y4.657 Z0 F1200
G1 X43.054 Y4.775 Z0 F1200
G1 X42.617 Y4.922 Z0 F1200
G1 X42.204 Y5.098 Z0 F1200
G1 X41.82 Y5.299 Z0 F1200
G1 X41.464 Y5.525 Z0 F1200
G1 X41.142 Y5.774 Z0 F1200
G1 X40.854 Y6.043 Z0 F1200
G1 X40.603 Y6.332 Z0 F1200
G1 X40.393 Y6.638 Z0 F1200
G1 X40.225 Y6.959 Z0 F1200
G1 Z7 F800;         ; Raise from color
G1 X34 Y8 Z1 F1200;     ; Movement in paint
G1 X24 Y18 Z8 F500;     ; Move in paint
G1 F1200;           ; Set feed rate
G0 Z2.5 F1000 ; Safety Lift
;Scan @ 1500 mm/min, 90% power

M8
G0 Z3.5 F1000
G0 X62.435 Y63.4 Z3.5
G1 Z0 F1000
;Layer C1
G0 Z2.5 F500 ; Lift S=0
G1 X64.185 S0 F1600
G0 Z0 F500 ; Drop S>0
G1 X66.079 S900 F1600
G0 Z2.5 F500 ; Lift S=0
G1 X83.958 S0 F1600
G0 Z0 F500 ; Drop S>0
G1 X85.801 S900 F1600
G0 Z2.5 F500 ; Lift S=0
G1 X87.551 S0 F1600
G1 X89.504 Y64.6 Z2.5 F1600
G1 X87.754 Z2.5 F1600
G0 Z0 F500 ; Drop S>0
G1 X83.163 S900 F1600
G0 Z2.5 F500 ; Lift S=0
G1 X66.859 S0 F1600
G0 Z0 F500 ; Drop S>0
G1 X62.178 S900 F1600
G0 Z2.5 F500 ; Lift S=0
G1 X60.428 S0 F1600
G1 X59.175 Y65.8 Z2.5 F1600
G1 X60.925 Z2.5 F1600
G0 Z0 F500 ; Drop S>0
G1 X67.645 S900 F1600
G0 Z2.5 F500 ; Lift S=0
G1 X82.367 S0 F1600
G0 Z0 F500 ; Drop S>0
G1 X89.08 S900 F1600
G0 Z2.5 F500 ; Lift S=0
G1 X90.83 S0 F1600
G1 X90.151 Y67 Z2.5 F1600
G1 X88.401 Z2.5 F1600
G0 Z0 F500 ; Drop S>0
G1 X81.561 S900 F1600
G0 Z2.5 F500 ; Lift S=0
G1 X68.439 S0 F1600
G0 Z0 F500 ; Drop S>0
G1 X61.609 S900 F1600
G0 Z2.5 F500 ; Lift S=0
G1 X59.859 S0 F1600
G1 X60.511 Y68.2 Z2.5 F1600
G1 X62.261 Z2.5 F1600
G0 Z0 F500 ; Drop S>0
G1 X69.262 S900 F1600
G0 Z2.5 F500 ; Lift S=0
G1 X80.74 S0 F1600
G0 Z0 F500 ; Drop S>0
G1 X87.724 S900 F1600
G0 Z2.5 F500 ; Lift S=0
G1 X89.474 S0 F1600
G1 X88.817 Y69.4 Z2.5 F1600
G1 X87.067 Z2.5 F1600
G0 Z0 F500 ; Drop S>0
G1 X79.893 S900 F1600
G0 Z2.5 F500 ; Lift S=0
G1 X70.103 S0 F1600
G0 Z0 F500 ; Drop S>0
G1 X62.922 S900 F1600
G0 Z2.5 F500 ; Lift S=0
G1 X61.172 S0 F1600
G1 X61.808 Y70.6 Z2.5 F1600
G1 X63.558 Z2.5 F1600
G0 Z0 F500 ; Drop S>0
G1 X70.924 S900 F1600
G0 Z2.5 F500 ; Lift S=0
G1 X79.026 S0 F1600
G0 Z0 F500 ; Drop S>0
G1 X86.446 S900 F1600
G0 Z2.5 F500 ; Lift S=0
G1 X88.196 S0 F1600
G1 X87.596 Y71.8 Z2.5 F1600
G1 X85.846 Z2.5 F1600
G0 Z0 F500 ; Drop S>0
G1 X80.573 S900 F1600
G0 Z2.5 F500 ; Lift S=0
G1 X69.356 S0 F1600
G0 Z0 F500 ; Drop S>0
G1 X64.142 S900 F1600
G0 Z2.5 F500 ; Lift S=0
G1 X62.392 S0 F1600
G1 X62.965 Y73 Z2.5 F1600
G1 X64.715 Z2.5 F1600
G0 Z0 F500 ; Drop S>0
G1 X67.378 S900 F1600
G0 Z2.5 F500 ; Lift S=0
G1 X70.074 S0 F1600
G0 Z0 F500 ; Drop S>0
G1 X73.446 S900 F1600
G0 Z2.5 F500 ; Lift S=0
G1 X76.49 S0 F1600
G0 Z0 F500 ; Drop S>0
G1 X79.881 S900 F1600
G0 Z2.5 F500 ; Lift S=0

; Color picking sequence
G1 Z10 F1000;         ; Raise brush
G0 X41 Y5 F1200;    ; Rapid move to color 1
G1 Z10 F1000;         ; Raise brush
G0 X41 Y5 F1200;    ; Rapid move to color 1
G1 Z0 F1000;         ; Lower into color
G1 X40.102 Y7.295 Z0 S800 F1200
G1 X40.026 Y7.642 Z0 F1200
G1 X40 Y8 Z0 F1200
G1 X40.026 Y8.358 Z0 F1200
G1 X40.102 Y8.705 Z0 F1200
G1 X40.225 Y9.041 Z0 F1200
G1 X40.393 Y9.362 Z0 F1200
G1 X40.603 Y9.668 Z0 F1200
G1 X40.854 Y9.957 Z0 F1200
G1 X41.142 Y10.226 Z0 F1200
G1 X41.464 Y10.475 Z0 F1200
G1 X41.82 Y10.701 Z0 F1200
G1 X42.204 Y10.902 Z0 F1200
G1 X42.617 Y11.078 Z0 F1200
G1 X43.054 Y11.225 Z0 F1200
G1 X43.513 Y11.343 Z0 F1200
G1 X43.992 Y11.429 Z0 F1200
G1 X44.489 Y11.482 Z0 F1200
G1 X45 Y11.5 Z0 F1200
G1 X45.511 Y11.482 Z0 F1200
G1 X46.008 Y11.429 Z0 F1200
G1 X46.487 Y11.343 Z0 F1200
G1 X46.946 Y11.225 Z0 F1200
G1 X47.383 Y11.078 Z0 F1200
G1 X47.796 Y10.902 Z0 F1200
G1 X48.18 Y10.701 Z0 F1200
G1 X48.536 Y10.475 Z0 F1200
G1 X48.858 Y10.226 Z0 F1200
G1 X49.146 Y9.957 Z0 F1200
G1 X49.397 Y9.668 Z0 F1200
G1 X49.607 Y9.362 Z0 F1200
G1 X49.775 Y9.041 Z0 F1200
G1 X49.898 Y8.705 Z0 F1200
G1 X49.974 Y8.358 Z0 F1200
G1 X50 Y8 Z0 F1200
G1 X49.974 Y7.642 Z0 F1200
G1 X49.898 Y7.295 Z0 F1200
G1 X49.775 Y6.959 Z0 F1200
G1 X49.607 Y6.638 Z0 F1200
G1 X49.397 Y6.332 Z0 F1200
G1 X49.146 Y6.043 Z0 F1200
G1 X48.858 Y5.774 Z0 F1200
G1 X48.536 Y5.525 Z0 F1200
G1 X48.18 Y5.299 Z0 F1200
G1 X47.796 Y5.098 Z0 F1200
G1 X47.383 Y4.922 Z0 F1200
G1 X46.946 Y4.775 Z0 F1200
G1 X46.487 Y4.657 Z0 F1200
G1 X46.008 Y4.571 Z0 F1200
G1 X45.511 Y4.518 Z0 F1200
G1 X45 Y4.5 Z0 F1200
G1 X44.489 Y4.518 Z0 F1200
G1 X43.992 Y4.571 Z0 F1200
G1 X43.513 Y4.657 Z0 F1200
G1 X43.054 Y4.775 Z0 F1200
G1 X42.617 Y4.922 Z0 F1200
G1 X42.204 Y5.098 Z0 F1200
G1 X41.82 Y5.299 Z0 F1200
G1 X41.464 Y5.525 Z0 F1200
G1 X41.142 Y5.774 Z0 F1200
G1 X40.854 Y6.043 Z0 F1200
G1 X40.603 Y6.332 Z0 F1200
G1 X40.393 Y6.638 Z0 F1200
G1 X40.225 Y6.959 Z0 F1200
G1 Z7 F800;         ; Raise from color
G1 X34 Y8 Z1 F1200;     ; Movement in paint
G1 X24 Y18 Z8 F500;     ; Move in paint
G1 F1200;           ; Set feed rate
G0 Z2.5 F1000 ; Safety Lift
G0 X79.881 Y73 F1200 ; Return to pos
G1 X82.523 S0 F1600
G0 Z0 F500 ; Drop S>0
G1 X85.283 S900 F1600
G0 Z2.5 F500 ; Lift S=0
G1 X87.033 S0 F1600
G1 X83.608 Y74.2 Z2.5 F1600
G1 X81.858 Z2.5 F1600
G0 Z0 F500 ; Drop S>0
G1 X76.213 S900 F1600
G0 Z2.5 F500 ; Lift S=0
G1 X74.529 S0 F1600
G0 Z0 F500 ; Drop S>0
G1 X68.098 S900 F1600
G0 Z2.5 F500 ; Lift S=0
G1 X65.401 S0 F1600
G0 Z0 F500 ; Drop S>0
G1 X65.327 S900 F1600
G0 Z2.5 F500 ; Lift S=0
G1 X63.577 S0 F1600
G1 X64.318 Y75.4 Z2.5 F1600
G1 X66.068 Z2.5 F1600
G0 Z0 F500 ; Drop S>0
G1 X75.501 S900 F1600
G0 Z2.5 F500 ; Lift S=0
G1 X77.115 S0 F1600
G0 Z0 F500 ; Drop S>0
G1 X83.787 S900 F1600
G0 Z2.5 F500 ; Lift S=0
G1 X85.537 S0 F1600
G1 X85.678 Y76.6 Z2.5 F1600
G1 X83.928 Z2.5 F1600
G0 Z0 F500 ; Drop S>0
G1 X77.939 S900 F1600
G0 Z2.5 F500 ; Lift S=0
G1 X76.363 S0 F1600
G0 Z0 F500 ; Drop S>0
G1 X66.1 S900 F1600
G0 Z2.5 F500 ; Lift S=0
G1 X64.35 S0 F1600
G1 X64.731 Y77.8 Z2.5 F1600
G1 X66.481 Z2.5 F1600
G0 Z0 F500 ; Drop S>0
G1 X77.142 S900 F1600
G0 Z2.5 F500 ; Lift S=0
G1 X78.71 S0 F1600
G0 Z0 F500 ; Drop S>0
G1 X83.528 S900 F1600
G0 Z2.5 F500 ; Lift S=0
G1 X85.278 S0 F1600
G1 X84.847 Y79 Z2.5 F1600
G1 X83.097 Z2.5 F1600
G0 Z0 F500 ; Drop S>0
G1 X79.386 S900 F1600
G0 Z2.5 F500 ; Lift S=0
G1 X77.854 S0 F1600
G0 Z0 F500 ; Drop S>0
G1 X66.903 S900 F1600
G0 Z2.5 F500 ; Lift S=0
G1 X65.153 S0 F1600
G1 X65.625 Y80.2 Z2.5 F1600
G1 X67.375 Z2.5 F1600
G0 Z0 F500 ; Drop S>0
G1 X78.518 S900 F1600
G0 Z2.5 F500 ; Lift S=0
G1 X80.019 S0 F1600
G0 Z0 F500 ; Drop S>0
G1 X82.627 S900 F1600
G0 Z2.5 F500 ; Lift S=0
G1 X84.377 S0 F1600
G1 X83.889 Y81.4 Z2.5 F1600
G1 X82.139 Z2.5 F1600
G0 Z0 F500 ; Drop S>0
G1 X80.643 S900 F1600
G0 Z2.5 F500 ; Lift S=0
G1 X79.142 S0 F1600
G0 Z0 F500 ; Drop S>0
G1 X67.914 S900 F1600
G0 Z2.5 F500 ; Lift S=0

; Color picking sequence
G1 Z10 F1000;         ; Raise brush
G0 X41 Y5 F1200;    ; Rapid move to color 1
G1 Z10 F1000;         ; Raise brush
G0 X41 Y5 F1200;    ; Rapid move to color 1
G1 Z0 F1000;         ; Lower into color
G1 X40.102 Y7.295 Z0 S800 F1200
G1 X40.026 Y7.642 Z0 F1200
G1 X40 Y8 Z0 F1200
G1 X40.026 Y8.358 Z0 F1200
G1 X40.102 Y8.705 Z0 F1200
G1 X40.225 Y9.041 Z0 F1200
G1 X40.393 Y9.362 Z0 F1200
G1 X40.603 Y9.668 Z0 F1200
G1 X40.854 Y9.957 Z0 F1200
G1 X41.142 Y10.226 Z0 F1200
G1 X41.464 Y10.475 Z0 F1200
G1 X41.82 Y10.701 Z0 F1200
G1 X42.204 Y10.902 Z0 F1200
G1 X42.617 Y11.078 Z0 F1200
G1 X43.054 Y11.225 Z0 F1200
G1 X43.513 Y11.343 Z0 F1200
G1 X43.992 Y11.429 Z0 F1200
G1 X44.489 Y11.482 Z0 F1200
G1 X45 Y11.5 Z0 F1200
G1 X45.511 Y11.482 Z0 F1200
G1 X46.008 Y11.429 Z0 F1200
G1 X46.487 Y11.343 Z0 F1200
G1 X46.946 Y11.225 Z0 F1200
G1 X47.383 Y11.078 Z0 F1200
G1 X47.796 Y10.902 Z0 F1200
G1 X48.18 Y10.701 Z0 F1200
G1 X48.536 Y10.475 Z0 F1200
G1 X48.858 Y10.226 Z0 F1200
G1 X49.146 Y9.957 Z0 F1200
G1 X49.397 Y9.668 Z0 F1200
G1 X49.607 Y9.362 Z0 F1200
G1 X49.775 Y9.041 Z0 F1200
G1 X49.898 Y8.705 Z0 F1200
G1 X49.974 Y8.358 Z0 F1200
G1 X50 Y8 Z0 F1200
G1 X49.974 Y7.642 Z0 F1200
G1 X49.898 Y7.295 Z0 F1200
G1 X49.775 Y6.959 Z0 F1200
G1 X49.607 Y6.638 Z0 F1200
G1 X49.397 Y6.332 Z0 F1200
G1 X49.146 Y6.043 Z0 F1200
G1 X48.858 Y5.774 Z0 F1200
G1 X48.536 Y5.525 Z0 F1200
G1 X48.18 Y5.299 Z0 F1200
G1 X47.796 Y5.098 Z0 F1200
G1 X47.383 Y4.922 Z0 F1200
G1 X46.946 Y4.775 Z0 F1200
G1 X46.487 Y4.657 Z0 F1200
G1 X46.008 Y4.571 Z0 F1200
G1 X45.511 Y4.518 Z0 F1200
G1 X45 Y4.5 Z0 F1200
G1 X44.489 Y4.518 Z0 F1200
G1 X43.992 Y4.571 Z0 F1200
G1 X43.513 Y4.657 Z0 F1200
G1 X43.054 Y4.775 Z0 F1200
G1 X42.617 Y4.922 Z0 F1200
G1 X42.204 Y5.098 Z0 F1200
G1 X41.82 Y5.299 Z0 F1200
G1 X41.464 Y5.525 Z0 F1200
G1 X41.142 Y5.774 Z0 F1200
G1 X40.854 Y6.043 Z0 F1200
G1 X40.603 Y6.332 Z0 F1200
G1 X40.393 Y6.638 Z0 F1200
G1 X40.225 Y6.959 Z0 F1200
G1 Z7 F800;         ; Raise from color
G1 X34 Y8 Z1 F1200;     ; Movement in paint
G1 X24 Y18 Z8 F500;     ; Move in paint
G1 F1200;           ; Set feed rate
G0 Z2.5 F1000 ; Safety Lift
G0 X67.914 Y81.4 F1200 ; Return to pos
G1 X66.164 S0 F1600
G1 X66.786 Y82.6 Z2.5 F1600
G1 X68.536 Z2.5 F1600
G0 Z0 F500 ; Drop S>0
G1 X79.738 S900 F1600
G0 Z2.5 F500 ; Lift S=0
G1 X81.257 S0 F1600
G0 Z0 F500 ; Drop S>0
G1 X81.65 S900 F1600
G0 Z2.5 F500 ; Lift S=0
G1 X83.4 S0 F1600
G1 X82.063 Y83.8 Z2.5 F1600
G1 X80.313 Z2.5 F1600
G0 Z0 F500 ; Drop S>0
G1 X69.22 S900 F1600
G0 Z2.5 F500 ; Lift S=0
G1 X67.47 S0 F1600
G1 X68.216 Y85 Z2.5 F1600
G1 X69.966 Z2.5 F1600
G0 Z0 F500 ; Drop S>0
G1 X80.872 S900 F1600
G0 Z2.5 F500 ; Lift S=0
G1 X82.622 S0 F1600
G1 X83.168 Y86.2 Z2.5 F1600
G1 X81.418 Z2.5 F1600
G0 Z0 F500 ; Drop S>0
G1 X70.756 S900 F1600
G0 Z2.5 F500 ; Lift S=0
G1 X69.192 S0 F1600
G0 Z0 F500 ; Drop S>0
G1 X68.617 S900 F1600
G0 Z2.5 F500 ; Lift S=0
G1 X66.867 S0 F1600
G1 X66.312 Y87.4 Z2.5 F1600
G1 X68.062 Z2.5 F1600
G0 Z0 F500 ; Drop S>0
G1 X69.943 S900 F1600
G0 Z2.5 F500 ; Lift S=0
G1 X71.576 S0 F1600
G0 Z0 F500 ; Drop S>0
G1 X81.954 S900 F1600
G0 Z2.5 F500 ; Lift S=0
G1 X83.704 S0 F1600
G1 X84.236 Y88.6 Z2.5 F1600
G1 X82.486 Z2.5 F1600
G0 Z0 F500 ; Drop S>0
G1 X72.416 S900 F1600
G0 Z2.5 F500 ; Lift S=0
G1 X70.756 S0 F1600
G0 Z0 F500 ; Drop S>0
G1 X67.525 S900 F1600
G0 Z2.5 F500 ; Lift S=0
G1 X65.775 S0 F1600
G1 X65.242 Y89.8 Z2.5 F1600
G1 X66.992 Z2.5 F1600
G0 Z0 F500 ; Drop S>0
G1 X71.59 S900 F1600
G0 Z2.5 F500 ; Lift S=0
G1 X73.259 S0 F1600
G0 Z0 F500 ; Drop S>0
G1 X83.018 S900 F1600
G0 Z2.5 F500 ; Lift S=0
G1 X84.768 S0 F1600
G1 X85.3 Y91 Z2.5 F1600
G1 X83.55 Z2.5 F1600
G0 Z0 F500 ; Drop S>0
G1 X74.098 S900 F1600
G0 Z2.5 F500 ; Lift S=0
G1 X72.435 S0 F1600
G0 Z0 F500 ; Drop S>0
G1 X66.466 S900 F1600
G0 Z2.5 F500 ; Lift S=0

; Color picking sequence
G1 Z10 F1000;         ; Raise brush
G0 X41 Y5 F1200;    ; Rapid move to color 1
G1 Z10 F1000;         ; Raise brush
G0 X41 Y5 F1200;    ; Rapid move to color 1
G1 Z0 F1000;         ; Lower into color
G1 X40.102 Y7.295 Z0 S800 F1200
G1 X40.026 Y7.642 Z0 F1200
G1 X40 Y8 Z0 F1200
G1 X40.026 Y8.358 Z0 F1200
G1 X40.102 Y8.705 Z0 F1200
G1 X40.225 Y9.041 Z0 F1200
G1 X40.393 Y9.362 Z0 F1200
G1 X40.603 Y9.668 Z0 F1200
G1 X40.854 Y9.957 Z0 F1200
G1 X41.142 Y10.226 Z0 F1200
G1 X41.464 Y10.475 Z0 F1200
G1 X41.82 Y10.701 Z0 F1200
G1 X42.204 Y10.902 Z0 F1200
G1 X42.617 Y11.078 Z0 F1200
G1 X43.054 Y11.225 Z0 F1200
G1 X43.513 Y11.343 Z0 F1200
G1 X43.992 Y11.429 Z0 F1200
G1 X44.489 Y11.482 Z0 F1200
G1 X45 Y11.5 Z0 F1200
G1 X45.511 Y11.482 Z0 F1200
G1 X46.008 Y11.429 Z0 F1200
G1 X46.487 Y11.343 Z0 F1200
G1 X46.946 Y11.225 Z0 F1200
G1 X47.383 Y11.078 Z0 F1200
G1 X47.796 Y10.902 Z0 F1200
G1 X48.18 Y10.701 Z0 F1200
G1 X48.536 Y10.475 Z0 F1200
G1 X48.858 Y10.226 Z0 F1200
G1 X49.146 Y9.957 Z0 F1200
G1 X49.397 Y9.668 Z0 F1200
G1 X49.607 Y9.362 Z0 F1200
G1 X49.775 Y9.041 Z0 F1200
G1 X49.898 Y8.705 Z0 F1200
G1 X49.974 Y8.358 Z0 F1200
G1 X50 Y8 Z0 F1200
G1 X49.974 Y7.642 Z0 F1200
G1 X49.898 Y7.295 Z0 F1200
G1 X49.775 Y6.959 Z0 F1200
G1 X49.607 Y6.638 Z0 F1200
G1 X49.397 Y6.332 Z0 F1200
G1 X49.146 Y6.043 Z0 F1200
G1 X48.858 Y5.774 Z0 F1200
G1 X48.536 Y5.525 Z0 F1200
G1 X48.18 Y5.299 Z0 F1200
G1 X47.796 Y5.098 Z0 F1200
G1 X47.383 Y4.922 Z0 F1200
G1 X46.946 Y4.775 Z0 F1200
G1 X46.487 Y4.657 Z0 F1200
G1 X46.008 Y4.571 Z0 F1200
G1 X45.511 Y4.518 Z0 F1200
G1 X45 Y4.5 Z0 F1200
G1 X44.489 Y4.518 Z0 F1200
G1 X43.992 Y4.571 Z0 F1200
G1 X43.513 Y4.657 Z0 F1200
G1 X43.054 Y4.775 Z0 F1200
G1 X42.617 Y4.922 Z0 F1200
G1 X42.204 Y5.098 Z0 F1200
G1 X41.82 Y5.299 Z0 F1200
G1 X41.464 Y5.525 Z0 F1200
G1 X41.142 Y5.774 Z0 F1200
G1 X40.854 Y6.043 Z0 F1200
G1 X40.603 Y6.332 Z0 F1200
G1 X40.393 Y6.638 Z0 F1200
G1 X40.225 Y6.959 Z0 F1200
G1 Z7 F800;         ; Raise from color
G1 X34 Y8 Z1 F1200;     ; Movement in paint
G1 X24 Y18 Z8 F500;     ; Move in paint
G1 F1200;           ; Set feed rate
G0 Z2.5 F1000 ; Safety Lift
G0 X66.466 Y91 F1200 ; Return to pos
G1 X64.716 S0 F1600
G1 X64.192 Y92.2 Z2.5 F1600
G1 X65.942 Z2.5 F1600
G0 Z0 F500 ; Drop S>0
G1 X73.277 S900 F1600
G0 Z2.5 F500 ; Lift S=0
G1 X74.942 S0 F1600
G0 Z0 F500 ; Drop S>0
G1 X84.083 S900 F1600
G0 Z2.5 F500 ; Lift S=0
G1 X85.833 S0 F1600
G1 X86.36 Y93.4 Z2.5 F1600
G1 X84.61 Z2.5 F1600
G0 Z0 F500 ; Drop S>0
G1 X75.791 S900 F1600
G0 Z2.5 F500 ; Lift S=0
G1 X74.036 S0 F1600
G0 Z0 F500 ; Drop S>0
G1 X65.409 S900 F1600
G0 Z2.5 F500 ; Lift S=0
G1 X63.659 S0 F1600
G1 X63.13 Y94.6 Z2.5 F1600
G1 X64.88 Z2.5 F1600
G0 Z0 F500 ; Drop S>0
G1 X73.294 S900 F1600
G0 Z2.5 F500 ; Lift S=0
G1 X76.645 S0 F1600
G0 Z0 F500 ; Drop S>0
G1 X85.136 S900 F1600
G0 Z2.5 F500 ; Lift S=0
G1 X86.886 S0 F1600
G1 X87.413 Y95.8 Z2.5 F1600
G1 X85.663 Z2.5 F1600
G0 Z0 F500 ; Drop S>0
G1 X77.508 S900 F1600
G0 Z2.5 F500 ; Lift S=0
G1 X72.427 S0 F1600
G0 Z0 F500 ; Drop S>0
G1 X64.351 S900 F1600
G0 Z2.5 F500 ; Lift S=0
G1 X62.601 S0 F1600
G1 X62.072 Y97 Z2.5 F1600
G1 X63.822 Z2.5 F1600
G0 Z0 F500 ; Drop S>0
G1 X71.573 S900 F1600
G0 Z2.5 F500 ; Lift S=0
G1 X78.384 S0 F1600
G0 Z0 F500 ; Drop S>0
G1 X86.189 S900 F1600
G0 Z2.5 F500 ; Lift S=0
G1 X87.939 S0 F1600
G1 X88.465 Y98.2 Z2.5 F1600
G1 X86.715 Z2.5 F1600
G0 Z0 F500 ; Drop S>0
G1 X79.246 S900 F1600
G0 Z2.5 F500 ; Lift S=0
G1 X70.72 S0 F1600
G0 Z0 F500 ; Drop S>0
G1 X63.29 S900 F1600
G0 Z2.5 F500 ; Lift S=0
G1 X61.54 S0 F1600
G1 X61.009 Y99.4 Z2.5 F1600
G1 X62.759 Z2.5 F1600
G0 Z0 F500 ; Drop S>0
G1 X69.865 S900 F1600
G0 Z2.5 F500 ; Lift S=0

; Color picking sequence
G1 Z10 F1000;         ; Raise brush
G0 X41 Y5 F1200;    ; Rapid move to color 1
G1 Z10 F1000;         ; Raise brush
G0 X41 Y5 F1200;    ; Rapid move to color 1
G1 Z0 F1000;         ; Lower into color
G1 X40.102 Y7.295 Z0 S800 F1200
G1 X40.026 Y7.642 Z0 F1200
G1 X40 Y8 Z0 F1200
G1 X40.026 Y8.358 Z0 F1200
G1 X40.102 Y8.705 Z0 F1200
G1 X40.225 Y9.041 Z0 F1200
G1 X40.393 Y9.362 Z0 F1200
G1 X40.603 Y9.668 Z0 F1200
G1 X40.854 Y9.957 Z0 F1200
G1 X41.142 Y10.226 Z0 F1200
G1 X41.464 Y10.475 Z0 F1200
G1 X41.82 Y10.701 Z0 F1200
G1 X42.204 Y10.902 Z0 F1200
G1 X42.617 Y11.078 Z0 F1200
G1 X43.054 Y11.225 Z0 F1200
G1 X43.513 Y11.343 Z0 F1200
G1 X43.992 Y11.429 Z0 F1200
G1 X44.489 Y11.482 Z0 F1200
G1 X45 Y11.5 Z0 F1200
G1 X45.511 Y11.482 Z0 F1200
G1 X46.008 Y11.429 Z0 F1200
G1 X46.487 Y11.343 Z0 F1200
G1 X46.946 Y11.225 Z0 F1200
G1 X47.383 Y11.078 Z0 F1200
G1 X47.796 Y10.902 Z0 F1200
G1 X48.18 Y10.701 Z0 F1200
G1 X48.536 Y10.475 Z0 F1200
G1 X48.858 Y10.226 Z0 F1200
G1 X49.146 Y9.957 Z0 F1200
G1 X49.397 Y9.668 Z0 F1200
G1 X49.607 Y9.362 Z0 F1200
G1 X49.775 Y9.041 Z0 F1200
G1 X49.898 Y8.705 Z0 F1200
G1 X49.974 Y8.358 Z0 F1200
G1 X50 Y8 Z0 F1200
G1 X49.974 Y7.642 Z0 F1200
G1 X49.898 Y7.295 Z0 F1200
G1 X49.775 Y6.959 Z0 F1200
G1 X49.607 Y6.638 Z0 F1200
G1 X49.397 Y6.332 Z0 F1200
G1 X49.146 Y6.043 Z0 F1200
G1 X48.858 Y5.774 Z0 F1200
G1 X48.536 Y5.525 Z0 F1200
G1 X48.18 Y5.299 Z0 F1200
G1 X47.796 Y5.098 Z0 F1200
G1 X47.383 Y4.922 Z0 F1200
G1 X46.946 Y4.775 Z0 F1200
G1 X46.487 Y4.657 Z0 F1200
G1 X46.008 Y4.571 Z0 F1200
G1 X45.511 Y4.518 Z0 F1200
G1 X45 Y4.5 Z0 F1200
G1 X44.489 Y4.518 Z0 F1200
G1 X43.992 Y4.571 Z0 F1200
G1 X43.513 Y4.657 Z0 F1200
G1 X43.054 Y4.775 Z0 F1200
G1 X42.617 Y4.922 Z0 F1200
G1 X42.204 Y5.098 Z0 F1200
G1 X41.82 Y5.299 Z0 F1200
G1 X41.464 Y5.525 Z0 F1200
G1 X41.142 Y5.774 Z0 F1200
G1 X40.854 Y6.043 Z0 F1200
G1 X40.603 Y6.332 Z0 F1200
G1 X40.393 Y6.638 Z0 F1200
G1 X40.225 Y6.959 Z0 F1200
G1 Z7 F800;         ; Raise from color
G1 X34 Y8 Z1 F1200;     ; Movement in paint
G1 X24 Y18 Z8 F500;     ; Move in paint
G1 F1200;           ; Set feed rate
G0 Z2.5 F1000 ; Safety Lift
G0 X69.865 Y99.4 F1200 ; Return to pos
G1 X80.106 S0 F1600
G0 Z0 F500 ; Drop S>0
G1 X87.24 S900 F1600
G0 Z2.5 F500 ; Lift S=0
G1 X88.99 S0 F1600
G1 X89.515 Y100.6 Z2.5 F1600
G1 X87.765 Z2.5 F1600
G0 Z0 F500 ; Drop S>0
G1 X80.966 S900 F1600
G0 Z2.5 F500 ; Lift S=0
G1 X69.009 S0 F1600
G0 Z0 F500 ; Drop S>0
G1 X62.231 S900 F1600
G0 Z2.5 F500 ; Lift S=0
G1 X60.481 S0 F1600
G1 X59.953 Y101.8 Z2.5 F1600
G1 X61.703 Z2.5 F1600
G0 Z0 F500 ; Drop S>0
G1 X68.153 S900 F1600
G0 Z2.5 F500 ; Lift S=0
G1 X81.825 S0 F1600
G0 Z0 F500 ; Drop S>0
G1 X88.29 S900 F1600
G0 Z2.5 F500 ; Lift S=0
G1 X90.04 S0 F1600
G1 X90.566 Y103 Z2.5 F1600
G1 X88.816 Z2.5 F1600
G0 Z0 F500 ; Drop S>0
G1 X82.685 S900 F1600
G0 Z2.5 F500 ; Lift S=0
G1 X67.3 S0 F1600
G0 Z0 F500 ; Drop S>0
G1 X61.18 S900 F1600
G0 Z2.5 F500 ; Lift S=0
G1 X59.43 S0 F1600
G1 X58.898 Y104.2 Z2.5 F1600
G1 X60.648 Z2.5 F1600
G0 Z0 F500 ; Drop S>0
G1 X66.456 S900 F1600
G0 Z2.5 F500 ; Lift S=0
G1 X83.544 S0 F1600
G0 Z0 F500 ; Drop S>0
G1 X89.341 S900 F1600
G0 Z2.5 F500 ; Lift S=0
G1 X91.091 S0 F1600
G1 X91.617 Y105.4 Z2.5 F1600
G1 X89.867 Z2.5 F1600
G0 Z0 F500 ; Drop S>0
G1 X84.402 S900 F1600
G0 Z2.5 F500 ; Lift S=0
G1 X65.608 S0 F1600
G0 Z0 F500 ; Drop S>0
G1 X60.117 S900 F1600
G0 Z2.5 F500 ; Lift S=0
G1 X58.367 S0 F1600
G1 X57.843 Y106.6 Z2.5 F1600
G1 X59.593 Z2.5 F1600
G0 Z0 F500 ; Drop S>0
G1 X64.759 S900 F1600
G0 Z2.5 F500 ; Lift S=0
G1 X85.26 S0 F1600
G0 Z0 F500 ; Drop S>0
G1 X90.393 S900 F1600
G0 Z2.5 F500 ; Lift S=0
G1 X92.143 S0 F1600
G1 X92.669 Y107.8 Z2.5 F1600
G1 X90.919 Z2.5 F1600
G0 Z0 F500 ; Drop S>0
G1 X86.117 S900 F1600
G0 Z2.5 F500 ; Lift S=0
G1 X63.91 S0 F1600
G0 Z0 F500 ; Drop S>0
G1 X59.069 S900 F1600
G0 Z2.5 F500 ; Lift S=0
G1 X57.319 S0 F1600
G1 X56.793 Y109 Z2.5 F1600
G1 X58.543 Z2.5 F1600
G0 Z0 F500 ; Drop S>0
G1 X63.063 S900 F1600
G0 Z2.5 F500 ; Lift S=0
G1 X86.96 S0 F1600
G0 Z0 F500 ; Drop S>0
G1 X91.449 S900 F1600
G0 Z2.5 F500 ; Lift S=0
G1 X93.199 S0 F1600
G1 X93.724 Y110.2 Z2.5 F1600
G1 X91.974 Z2.5 F1600
G0 Z0 F500 ; Drop S>0
G1 X87.802 S900 F1600
G0 Z2.5 F500 ; Lift S=0

; Color picking sequence
G1 Z10 F1000;         ; Raise brush
G0 X41 Y5 F1200;    ; Rapid move to color 1
G1 Z10 F1000;         ; Raise brush
G0 X41 Y5 F1200;    ; Rapid move to color 1
G1 Z0 F1000;         ; Lower into color
G1 X40.102 Y7.295 Z0 S800 F1200
G1 X40.026 Y7.642 Z0 F1200
G1 X40 Y8 Z0 F1200
G1 X40.026 Y8.358 Z0 F1200
G1 X40.102 Y8.705 Z0 F1200
G1 X40.225 Y9.041 Z0 F1200
G1 X40.393 Y9.362 Z0 F1200
G1 X40.603 Y9.668 Z0 F1200
G1 X40.854 Y9.957 Z0 F1200
G1 X41.142 Y10.226 Z0 F1200
G1 X41.464 Y10.475 Z0 F1200
G1 X41.82 Y10.701 Z0 F1200
G1 X42.204 Y10.902 Z0 F1200
G1 X42.617 Y11.078 Z0 F1200
G1 X43.054 Y11.225 Z0 F1200
G1 X43.513 Y11.343 Z0 F1200
G1 X43.992 Y11.429 Z0 F1200
G1 X44.489 Y11.482 Z0 F1200
G1 X45 Y11.5 Z0 F1200
G1 X45.511 Y11.482 Z0 F1200
G1 X46.008 Y11.429 Z0 F1200
G1 X46.487 Y11.343 Z0 F1200
G1 X46.946 Y11.225 Z0 F1200
G1 X47.383 Y11.078 Z0 F1200
G1 X47.796 Y10.902 Z0 F1200
G1 X48.18 Y10.701 Z0 F1200
G1 X48.536 Y10.475 Z0 F1200
G1 X48.858 Y10.226 Z0 F1200
G1 X49.146 Y9.957 Z0 F1200
G1 X49.397 Y9.668 Z0 F1200
G1 X49.607 Y9.362 Z0 F1200
G1 X49.775 Y9.041 Z0 F1200
G1 X49.898 Y8.705 Z0 F1200
G1 X49.974 Y8.358 Z0 F1200
G1 X50 Y8 Z0 F1200
G1 X49.974 Y7.642 Z0 F1200
G1 X49.898 Y7.295 Z0 F1200
G1 X49.775 Y6.959 Z0 F1200
G1 X49.607 Y6.638 Z0 F1200
G1 X49.397 Y6.332 Z0 F1200
G1 X49.146 Y6.043 Z0 F1200
G1 X48.858 Y5.774 Z0 F1200
G1 X48.536 Y5.525 Z0 F1200
G1 X48.18 Y5.299 Z0 F1200
G1 X47.796 Y5.098 Z0 F1200
G1 X47.383 Y4.922 Z0 F1200
G1 X46.946 Y4.775 Z0 F1200
G1 X46.487 Y4.657 Z0 F1200
G1 X46.008 Y4.571 Z0 F1200
G1 X45.511 Y4.518 Z0 F1200
G1 X45 Y4.5 Z0 F1200
G1 X44.489 Y4.518 Z0 F1200
G1 X43.992 Y4.571 Z0 F1200
G1 X43.513 Y4.657 Z0 F1200
G1 X43.054 Y4.775 Z0 F1200
G1 X42.617 Y4.922 Z0 F1200
G1 X42.204 Y5.098 Z0 F1200
G1 X41.82 Y5.299 Z0 F1200
G1 X41.464 Y5.525 Z0 F1200
G1 X41.142 Y5.774 Z0 F1200
G1 X40.854 Y6.043 Z0 F1200
G1 X40.603 Y6.332 Z0 F1200
G1 X40.393 Y6.638 Z0 F1200
G1 X40.225 Y6.959 Z0 F1200
G1 Z7 F800;         ; Raise from color
G1 X34 Y8 Z1 F1200;     ; Movement in paint
G1 X24 Y18 Z8 F500;     ; Move in paint
G1 F1200;           ; Set feed rate
G0 Z2.5 F1000 ; Safety Lift
G0 X87.802 Y110.2 F1200 ; Return to pos
G1 X62.223 S0 F1600
G0 Z0 F500 ; Drop S>0
G1 X58.036 S900 F1600
G0 Z2.5 F500 ; Lift S=0
G1 X56.286 S0 F1600
G1 X55.78 Y111.4 Z2.5 F1600
G1 X57.53 Z2.5 F1600
G0 Z0 F500 ; Drop S>0
G1 X61.391 S900 F1600
G0 Z2.5 F500 ; Lift S=0
G1 X88.647 S0 F1600
G0 Z0 F500 ; Drop S>0
G1 X92.5 S900 F1600
G0 Z2.5 F500 ; Lift S=0
G1 X94.25 S0 F1600
G1 X94.768 Y112.6 Z2.5 F1600
G1 X93.018 Z2.5 F1600
G0 Z0 F500 ; Drop S>0
G1 X89.487 S900 F1600
G0 Z2.5 F500 ; Lift S=0
G1 X60.552 S0 F1600
G0 Z0 F500 ; Drop S>0
G1 X56.999 S900 F1600
G0 Z2.5 F500 ; Lift S=0
G1 X55.249 S0 F1600
G1 X54.733 Y113.8 Z2.5 F1600
G1 X56.483 Z2.5 F1600
G0 Z0 F500 ; Drop S>0
G1 X59.706 S900 F1600
G0 Z2.5 F500 ; Lift S=0
G1 X90.319 S0 F1600
G0 Z0 F500 ; Drop S>0
G1 X93.532 S900 F1600
G0 Z2.5 F500 ; Lift S=0
G1 X95.282 S0 F1600
G1 X95.795 Y115 Z2.5 F1600
G1 X94.045 Z2.5 F1600
G0 Z0 F500 ; Drop S>0
G1 X91.153 S900 F1600
G0 Z2.5 F500 ; Lift S=0
G1 X58.867 S0 F1600
G0 Z0 F500 ; Drop S>0
G1 X55.969 S900 F1600
G0 Z2.5 F500 ; Lift S=0
G1 X54.219 S0 F1600
G1 X53.707 Y116.2 Z2.5 F1600
G1 X55.457 Z2.5 F1600
G0 Z0 F500 ; Drop S>0
G1 X58.033 S900 F1600
G0 Z2.5 F500 ; Lift S=0
G1 X91.986 S0 F1600
G0 Z0 F500 ; Drop S>0
G1 X94.559 S900 F1600
G0 Z2.5 F500 ; Lift S=0
G1 X96.309 S0 F1600
G1 X96.819 Y117.4 Z2.5 F1600
G1 X95.069 Z2.5 F1600
G0 Z0 F500 ; Drop S>0
G1 X92.825 S900 F1600
G0 Z2.5 F500 ; Lift S=0
G1 X57.201 S0 F1600
G0 Z0 F500 ; Drop S>0
G1 X54.946 S900 F1600
G0 Z2.5 F500 ; Lift S=0
G1 X53.196 S0 F1600
G1 X52.687 Y118.6 Z2.5 F1600
G1 X54.437 Z2.5 F1600
G0 Z0 F500 ; Drop S>0
G1 X56.367 S900 F1600
G0 Z2.5 F500 ; Lift S=0
G1 X93.655 S0 F1600
G0 Z0 F500 ; Drop S>0
G1 X95.567 S900 F1600
G0 Z2.5 F500 ; Lift S=0
G1 X97.317 S0 F1600
G1 X97.789 Y119.8 Z2.5 F1600
G1 X96.039 Z2.5 F1600
G0 Z0 F500 ; Drop S>0
G1 X94.479 S900 F1600
G0 Z2.5 F500 ; Lift S=0
G1 X55.512 S0 F1600
G0 Z0 F500 ; Drop S>0
G1 X53.95 S900 F1600
G0 Z2.5 F500 ; Lift S=0
G1 X52.2 S0 F1600

; Washing sequence (no color)
G1 Z10 F1000;        ; Raise brush
G0 X5 Y5 F1200;     ; Rapid move to clean
G1 Z-1 F800;         ; Lower brush
G1 X10 Y12 Z8 F1200;     ; Move
G1 Z-1 F800;         ; Lower
G1 X25 Y14 Z6 F800;     ; Move
G1 Z8 F800;         ; Maintain
G0 X5 Y5 F1200;     ; Rapid
G1 Z-1 F800;         ; Lower
G1 X15 Y12 Z8 F1200;     ; Move
G1 Z-1 F800;         ; Lower
G1 X25 Y14 Z6 F800;     ; Move
G1 Z10 F800;         ; Maintain
G1 F1200;           ; Set feed
G0 Z2.5 F1000 ; Safety Lift

; Color picking sequence
G1 Z10 F1000;         ; Raise brush
G0 X86 Y5 F1200;    ; Rapid move to color 1
G1 Z10 F1000;         ; Raise brush
G0 X86 Y5 F1200;    ; Rapid move to color 1
G1 Z0 F1000;         ; Lower into color
G1 X85.102 Y7.295 Z0 S800 F1200
G1 X85.026 Y7.642 Z0 F1200
G1 X85 Y8 Z0 F1200
G1 X85.026 Y8.358 Z0 F1200
G1 X85.102 Y8.705 Z0 F1200
G1 X85.225 Y9.041 Z0 F1200
G1 X85.393 Y9.362 Z0 F1200
G1 X85.603 Y9.668 Z0 F1200
G1 X85.854 Y9.957 Z0 F1200
G1 X86.142 Y10.226 Z0 F1200
G1 X86.464 Y10.475 Z0 F1200
G1 X86.82 Y10.701 Z0 F1200
G1 X87.204 Y10.902 Z0 F1200
G1 X87.617 Y11.078 Z0 F1200
G1 X88.054 Y11.225 Z0 F1200
G1 X88.513 Y11.343 Z0 F1200
G1 X88.992 Y11.429 Z0 F1200
G1 X89.489 Y11.482 Z0 F1200
G1 X90 Y11.5 Z0 F1200
G1 X90.511 Y11.482 Z0 F1200
G1 X91.008 Y11.429 Z0 F1200
G1 X91.487 Y11.343 Z0 F1200
G1 X91.946 Y11.225 Z0 F1200
G1 X92.383 Y11.078 Z0 F1200
G1 X92.796 Y10.902 Z0 F1200
G1 X93.18 Y10.701 Z0 F1200
G1 X93.536 Y10.475 Z0 F1200
G1 X93.858 Y10.226 Z0 F1200
G1 X94.146 Y9.957 Z0 F1200
G1 X94.397 Y9.668 Z0 F1200
G1 X94.607 Y9.362 Z0 F1200
G1 X94.775 Y9.041 Z0 F1200
G1 X94.898 Y8.705 Z0 F1200
G1 X94.974 Y8.358 Z0 F1200
G1 X95 Y8 Z0 F1200
G1 X94.974 Y7.642 Z0 F1200
G1 X94.898 Y7.295 Z0 F1200
G1 X94.775 Y6.959 Z0 F1200
G1 X94.607 Y6.638 Z0 F1200
G1 X94.397 Y6.332 Z0 F1200
G1 X94.146 Y6.043 Z0 F1200
G1 X93.858 Y5.774 Z0 F1200
G1 X93.536 Y5.525 Z0 F1200
G1 X93.18 Y5.299 Z0 F1200
G1 X92.796 Y5.098 Z0 F1200
G1 X92.383 Y4.922 Z0 F1200
G1 X91.946 Y4.775 Z0 F1200
G1 X91.487 Y4.657 Z0 F1200
G1 X91.008 Y4.571 Z0 F1200
G1 X90.511 Y4.518 Z0 F1200
G1 X90 Y4.5 Z0 F1200
G1 X89.489 Y4.518 Z0 F1200
G1 X88.992 Y4.571 Z0 F1200
G1 X88.513 Y4.657 Z0 F1200
G1 X88.054 Y4.775 Z0 F1200
G1 X87.617 Y4.922 Z0 F1200
G1 X87.204 Y5.098 Z0 F1200
G1 X86.82 Y5.299 Z0 F1200
G1 X86.464 Y5.525 Z0 F1200
G1 X86.142 Y5.774 Z0 F1200
G1 X85.854 Y6.043 Z0 F1200
G1 X85.603 Y6.332 Z0 F1200
G1 X85.393 Y6.638 Z0 F1200
G1 X85.225 Y6.959 Z0 F1200
G1 Z7 F800;         ; Raise from color
G1 X79 Y8 Z1 F1200;     ; Movement in paint
G1 X69 Y18 Z8 F500;     ; Move in paint
G1 F1200;           ; Set feed rate
G0 Z2.5 F1000 ; Safety Lift
;Offset @ 1500 mm/min, 90% power

M8
G0 Z3.5 F1000
G0 X54.255 Y54.054 Z3.5
G1 Z0 F1000
;Layer C2
G1 X54.429 Y54.894 Z0 S900 F1600
G1 X54.704 Y55.915 Z0 F1600
G1 X55.014 Y56.891 Z0 F1600
G1 X55.362 Y57.835 Z0 F1600
G1 X55.752 Y58.752 Z0 F1600
G1 X56.186 Y59.646 Z0 F1600
G1 X56.665 Y60.52 Z0 F1600
G1 X57.19 Y61.379 Z0 F1600
G1 X57.764 Y62.226 Z0 F1600
G1 X58.154 Y62.761 Z0 F1600
G1 X58.09 Y62.733 Z0 F1600
G1 X57.891 Y62.621 Z0 F1600
G1 X57.653 Y62.456 Z0 F1600
G1 X57.393 Y62.245 Z0 F1600
G1 X57.097 Y61.972 Z0 F1600
G1 X56.777 Y61.645 Z0 F1600
G1 X56.43 Y61.263 Z0 F1600
G1 X56.352 Y61.164 Z0 F1600
G1 X56.225 Y60.984 Z0 F1600
G1 X56.065 Y60.74 Z0 F1600
G1 X55.91 Y60.49 Z0 F1600
G1 X55.559 Y59.885 Z0 F1600
G1 X55.265 Y59.326 Z0 F1600
G1 X55.092 Y58.947 Z0 F1600
G1 X54.931 Y58.54 Z0 F1600
G1 X54.785 Y58.104 Z0 F1600
G1 X54.648 Y57.626 Z0 F1600
G1 X54.527 Y57.122 Z0 F1600
G1 X54.408 Y56.529 Z0 F1600
G1 X54.304 Y55.915 Z0 F1600
G1 X54.204 Y55.224 Z0 F1600
G1 X54.19 Y55.09 Z0 F1600
G1 X54.174 Y54.867 Z0 F1600
G1 X54.161 Y54.594 Z0 F1600
G1 X54.148 Y54.268 Z0 F1600
G1 X54.129 Y53.521 Z0 F1600
G1 X54.125 Y53.225 Z0 F1600
G1 X54.255 Y54.054 Z0 F1600
G0 Z3.5 F1000
G0 X58.815 Y57.757 Z3.5
G1 Z0 F1000
G1 X58.247 Y56.696 Z0 F1600
G1 X57.677 Y55.556 Z0 F1600
G1 X57.132 Y54.397 Z0 F1600
G1 X56.825 Y53.696 Z0 F1600
G1 X57.081 Y53.958 Z0 F1600
G1 X57.353 Y54.242 Z0 F1600
G1 X57.596 Y54.502 Z0 F1600
G1 X57.798 Y54.728 Z0 F1600
G1 X58.022 Y54.984 Z0 F1600
G1 X58.279 Y55.288 Z0 F1600
G1 X58.581 Y55.647 Z0 F1600
G1 X59.438 Y56.729 Z0 F1600
G1 X60.179 Y57.776 Z0 F1600
G1 X60.854 Y58.864 Z0 F1600
G1 X61.454 Y59.974 Z0 F1600
G1 X61.79 Y60.688 Z0 F1600
G1 X62.107 Y61.44 Z0 F1600
G1 X62.225 Y61.744 Z0 F1600
G1 X62.243 Y61.795 Z0 F1600
G1 X62.214 Y61.817 Z0 F1600
G1 X61.782 Y62.105 Z0 F1600
G1 X61.68 Y61.978 Z0 F1600
G1 X61.474 Y61.714 Z0 F1600
G1 X61.265 Y61.44 Z0 F1600
G1 X60.831 Y60.846 Z0 F1600
G1 X60.361 Y60.181 Z0 F1600
G1 X59.919 Y59.529 Z0 F1600
G1 X59.49 Y58.873 Z0 F1600
G1 X59.107 Y58.259 Z0 F1600
G1 X58.815 Y57.757 Z0 F1600
G0 Z3.5 F1000
G0 X55.461 Y51.227 Z3.5
G1 Z0 F1000
G1 X54.324 Y51.136 Z0 F1600
G1 X54.113 Y51.855 Z0 F1600
G1 X54.119 Y51.112 Z0 F1600
G1 X54.125 Y50.794 Z0 F1600
G1 X54.135 Y50.509 Z0 F1600
G1 X54.146 Y50.309 Z0 F1600
G1 X54.157 Y50.19 Z0 F1600
G1 X54.243 Y49.517 Z0 F1600
G1 X54.505 Y49.613 Z0 F1600
G1 X55.34 Y49.949 Z0 F1600
G1 X56.176 Y50.313 Z0 F1600
G1 X57.023 Y50.707 Z0 F1600
G1 X57.824 Y51.106 Z0 F1600
G1 X58.588 Y51.512 Z0 F1600
G1 X59.272 Y51.906 Z0 F1600
G1 X59.876 Y52.286 Z0 F1600
G1 X60.418 Y52.662 Z0 F1600
G1 X60.929 Y53.047 Z0 F1600
G1 X61.405 Y53.438 Z0 F1600
G1 X61.852 Y53.838 Z0 F1600
G1 X62.258 Y54.238 Z0 F1600
G1 X62.632 Y54.644 Z0 F1600
G1 X62.967 Y55.047 Z0 F1600
G1 X63.271 Y55.458 Z0 F1600
G1 X63.531 Y55.855 Z0 F1600
G1 X63.762 Y56.262 Z0 F1600
G1 X63.951 Y56.656 Z0 F1600
G1 X64.109 Y57.056 Z0 F1600
G1 X64.227 Y57.436 Z0 F1600
G1 X64.312 Y57.818 Z0 F1600
G1 X64.362 Y58.194 Z0 F1600
G1 X64.377 Y58.51 Z0 F1600
G1 X64.128 Y58.033 Z0 F1600
G1 X63.78 Y57.419 Z0 F1600
G1 X63.413 Y56.819 Z0 F1600
G1 X63.031 Y56.244 Z0 F1600
G1 X62.641 Y55.706 Z0 F1600
G1 X62.082 Y55.008 Z0 F1600
G1 X61.492 Y54.34 Z0 F1600
G1 X60.874 Y53.704 Z0 F1600
G1 X60.23 Y53.104 Z0 F1600
G1 X59.565 Y52.54 Z0 F1600
G1 X58.882 Y52.018 Z0 F1600
G1 X58.183 Y51.54 Z0 F1600
G1 X57.479 Y51.115 Z0 F1600
G1 X57.165 Y50.941 Z0 F1600
G1 X56.916 Y50.815 Z0 F1600
G1 X56.754 Y50.75 Z0 F1600
G1 X56.483 Y50.675 Z0 F1600
G1 X55.656 Y50.732 Z0 F1600
G1 X55.461 Y51.227 Z0 F1600
G0 Z3.5 F1000
G0 X55.074 Y52.199 Z3.5
G1 Z0 F1000
G1 X55.055 Z0 F1600
G1 X55.044 Y52.234 Z0 F1600
G1 X55.041 Y52.304 Z0 F1600
G1 Y52.406 Z0 F1600
G1 X55.065 Y52.686 Z0 F1600
G1 X55.108 Y53.043 Z0 F1600
G1 X55.239 Y53.875 Z0 F1600
G1 X55.402 Y54.662 Z0 F1600
G1 X55.664 Y55.634 Z0 F1600
G1 X55.96 Y56.566 Z0 F1600
G1 X56.292 Y57.466 Z0 F1600
G1 X56.663 Y58.338 Z0 F1600
G1 X57.075 Y59.187 Z0 F1600
G1 X57.53 Y60.019 Z0 F1600
G1 X58.032 Y60.838 Z0 F1600
G1 X58.582 Y61.651 Z0 F1600
G1 X59.065 Y62.312 Z0 F1600
G1 X59.553 Y62.949 Z0 F1600
G1 X59.769 Y63.22 Z0 F1600
G1 X59.948 Y63.437 Z0 F1600
G1 X60.021 Y63.521 Z0 F1600
G1 X60.08 Y63.585 Z0 F1600
G1 X60.124 Y63.629 Z0 F1600
G1 X60.151 Y63.649 Z0 F1600
G1 X60.197 Y63.706 Z0 F1600
G1 X60.216 Y63.802 Z0 F1600
G1 X60.201 Y63.83 Z0 F1600
G1 X60.158 Y63.854 Z0 F1600
G1 X60.089 Y63.875 Z0 F1600
G1 X59.998 Y63.893 Z0 F1600
G1 X59.76 Y63.918 Z0 F1600
G1 X59.467 Y63.93 Z0 F1600
G1 X58.809 Y63.911 Z0 F1600
G1 X58.211 Y63.833 Z0 F1600
G1 X57.933 Y63.753 Z0 F1600
G1 X57.649 Y63.632 Z0 F1600
G1 X57.357 Y63.468 Z0 F1600
G1 X57.054 Y63.258 Z0 F1600
G1 X56.736 Y63 Z0 F1600
G1 X56.402 Y62.691 Z0 F1600
G1 X56.047 Y62.33 Z0 F1600
G1 X55.67 Y61.914 Z0 F1600
G1 X55.547 Y61.759 Z0 F1600
G1 X55.397 Y61.546 Z0 F1600
G1 X55.228 Y61.287 Z0 F1600
G1 X55.047 Y60.997 Z0 F1600
G1 X54.683 Y60.37 Z0 F1600
G1 X54.368 Y59.769 Z0 F1600
G1 X54.17 Y59.335 Z0 F1600
G1 X53.991 Y58.881 Z0 F1600
G1 X53.829 Y58.4 Z0 F1600
G1 X53.683 Y57.886 Z0 F1600
G1 X53.549 Y57.33 Z0 F1600
G1 X53.427 Y56.727 Z0 F1600
G1 X53.315 Y56.069 Z0 F1600
G1 X53.211 Y55.35 Z0 F1600
G1 X53.193 Y55.174 Z0 F1600
G1 X53.177 Y54.936 Z0 F1600
G1 X53.162 Y54.644 Z0 F1600
G1 X53.149 Y54.307 Z0 F1600
G1 X53.129 Y53.536 Z0 F1600
G1 X53.117 Y52.694 Z0 F1600
G1 X53.113 Y51.855 Z0 F1600
G1 X53.119 Y51.092 Z0 F1600
G1 X53.126 Y50.761 Z0 F1600
G1 X53.135 Y50.476 Z0 F1600
G1 X53.147 Y50.247 Z0 F1600
G1 X53.163 Y50.081 Z0 F1600
G1 X53.309 Y48.938 Z0 F1600
G1 X53.349 Y48.641 Z0 F1600
G1 X53.399 Y48.304 Z0 F1600
G1 X53.421 Y48.188 Z0 F1600
G1 X53.427 Y48.173 Z0 F1600
G1 X53.483 Y48.189 Z0 F1600
G1 X53.816 Y48.301 Z0 F1600
G1 X54.053 Y48.383 Z0 F1600
G1 X54.87 Y48.682 Z0 F1600
G1 X55.723 Y49.025 Z0 F1600
G1 X56.589 Y49.402 Z0 F1600
G1 X57.451 Y49.803 Z0 F1600
G1 X58.285 Y50.219 Z0 F1600
G1 X59.073 Y50.638 Z0 F1600
G1 X59.792 Y51.051 Z0 F1600
G1 X60.425 Y51.45 Z0 F1600
G1 X61.002 Y51.85 Z0 F1600
G1 X61.547 Y52.261 Z0 F1600
G1 X62.058 Y52.68 Z0 F1600
G1 X62.535 Y53.108 Z0 F1600
G1 X62.978 Y53.543 Z0 F1600
G1 X63.385 Y53.984 Z0 F1600
G1 X63.756 Y54.431 Z0 F1600
G1 X64.09 Y54.883 Z0 F1600
G1 X64.388 Y55.338 Z0 F1600
G1 X64.647 Y55.797 Z0 F1600
G1 X64.869 Y56.257 Z0 F1600
G1 X65.051 Y56.719 Z0 F1600
G1 X65.194 Y57.181 Z0 F1600
G1 X65.297 Y57.643 Z0 F1600
G1 X65.359 Y58.104 Z0 F1600
G1 X65.38 Y58.562 Z0 F1600
G1 X65.37 Y58.921 Z0 F1600
G1 X65.336 Y59.245 Z0 F1600
G1 X65.278 Y59.545 Z0 F1600
G1 X65.194 Y59.834 Z0 F1600
G1 X65.021 Y60.27 Z0 F1600
G1 X64.795 Y60.75 Z0 F1600
G1 X64.685 Y60.965 Z0 F1600
G1 X64.586 Y61.14 Z0 F1600
G1 X64.509 Y61.258 Z0 F1600
G1 X64.462 Y61.301 Z0 F1600
G1 X64.435 Y61.254 Z0 F1600
G1 X64.384 Y61.127 Z0 F1600
G1 X64.316 Y60.939 Z0 F1600
G1 X64.239 Y60.71 Z0 F1600
G1 X64.057 Y60.208 Z0 F1600
G1 X63.826 Y59.666 Z0 F1600
G1 X63.554 Y59.095 Z0 F1600
G1 X63.25 Y58.511 Z0 F1600
G1 X62.918 Y57.927 Z0 F1600
G1 X62.569 Y57.356 Z0 F1600
G1 X62.209 Y56.813 Z0 F1600
G1 X61.846 Y56.312 Z0 F1600
G1 X61.317 Y55.652 Z0 F1600
G1 X60.758 Y55.02 Z0 F1600
G1 X60.173 Y54.418 Z0 F1600
G1 X59.565 Y53.851 Z0 F1600
G1 X58.938 Y53.319 Z0 F1600
G1 X58.296 Y52.829 Z0 F1600
G1 X57.642 Y52.381 Z0 F1600
G1 X56.979 Y51.98 Z0 F1600
G1 X56.698 Y51.826 Z0 F1600
G1 X56.5 Y51.726 Z0 F1600
G1 X56.431 Y51.698 Z0 F1600
G1 X56.383 Y51.685 Z0 F1600
G1 X56.354 Z0 F1600
G1 X56.347 Y51.705 Z0 F1600
G1 X56.36 Y51.74 Z0 F1600
G1 X56.395 Y51.791 Z0 F1600
G1 X56.449 Y51.86 Z0 F1600
G1 X56.524 Y51.946 Z0 F1600
G1 X56.62 Y52.051 Z0 F1600
G1 X56.875 Y52.317 Z0 F1600
G1 X57.803 Y53.266 Z0 F1600
G1 X58.084 Y53.56 Z0 F1600
G1 X58.327 Y53.82 Z0 F1600
G1 X58.553 Y54.071 Z0 F1600
G1 X58.785 Y54.338 Z0 F1600
G1 X59.045 Y54.645 Z0 F1600
G1 X59.356 Y55.016 Z0 F1600
G1 X60.234 Y56.123 Z0 F1600
G1 X61.018 Y57.232 Z0 F1600
G1 X61.719 Y58.36 Z0 F1600
G1 X62.347 Y59.523 Z0 F1600
G1 X62.704 Y60.281 Z0 F1600
G1 X63.032 Y61.061 Z0 F1600
G1 X63.167 Y61.411 Z0 F1600
G1 X63.273 Y61.71 Z0 F1600

; Color picking sequence
G1 Z10 F1000;         ; Raise brush
G0 X86 Y5 F1200;    ; Rapid move to color 1
G1 Z10 F1000;         ; Raise brush
G0 X86 Y5 F1200;    ; Rapid move to color 1
G1 Z0 F1000;         ; Lower into color
G1 X85.102 Y7.295 Z0 S800 F1200
G1 X85.026 Y7.642 Z0 F1200
G1 X85 Y8 Z0 F1200
G1 X85.026 Y8.358 Z0 F1200
G1 X85.102 Y8.705 Z0 F1200
G1 X85.225 Y9.041 Z0 F1200
G1 X85.393 Y9.362 Z0 F1200
G1 X85.603 Y9.668 Z0 F1200
G1 X85.854 Y9.957 Z0 F1200
G1 X86.142 Y10.226 Z0 F1200
G1 X86.464 Y10.475 Z0 F1200
G1 X86.82 Y10.701 Z0 F1200
G1 X87.204 Y10.902 Z0 F1200
G1 X87.617 Y11.078 Z0 F1200
G1 X88.054 Y11.225 Z0 F1200
G1 X88.513 Y11.343 Z0 F1200
G1 X88.992 Y11.429 Z0 F1200
G1 X89.489 Y11.482 Z0 F1200
G1 X90 Y11.5 Z0 F1200
G1 X90.511 Y11.482 Z0 F1200
G1 X91.008 Y11.429 Z0 F1200
G1 X91.487 Y11.343 Z0 F1200
G1 X91.946 Y11.225 Z0 F1200
G1 X92.383 Y11.078 Z0 F1200
G1 X92.796 Y10.902 Z0 F1200
G1 X93.18 Y10.701 Z0 F1200
G1 X93.536 Y10.475 Z0 F1200
G1 X93.858 Y10.226 Z0 F1200
G1 X94.146 Y9.957 Z0 F1200
G1 X94.397 Y9.668 Z0 F1200
G1 X94.607 Y9.362 Z0 F1200
G1 X94.775 Y9.041 Z0 F1200
G1 X94.898 Y8.705 Z0 F1200
G1 X94.974 Y8.358 Z0 F1200
G1 X95 Y8 Z0 F1200
G1 X94.974 Y7.642 Z0 F1200
G1 X94.898 Y7.295 Z0 F1200
G1 X94.775 Y6.959 Z0 F1200
G1 X94.607 Y6.638 Z0 F1200
G1 X94.397 Y6.332 Z0 F1200
G1 X94.146 Y6.043 Z0 F1200
G1 X93.858 Y5.774 Z0 F1200
G1 X93.536 Y5.525 Z0 F1200
G1 X93.18 Y5.299 Z0 F1200
G1 X92.796 Y5.098 Z0 F1200
G1 X92.383 Y4.922 Z0 F1200
G1 X91.946 Y4.775 Z0 F1200
G1 X91.487 Y4.657 Z0 F1200
G1 X91.008 Y4.571 Z0 F1200
G1 X90.511 Y4.518 Z0 F1200
G1 X90 Y4.5 Z0 F1200
G1 X89.489 Y4.518 Z0 F1200
G1 X88.992 Y4.571 Z0 F1200
G1 X88.513 Y4.657 Z0 F1200
G1 X88.054 Y4.775 Z0 F1200
G1 X87.617 Y4.922 Z0 F1200
G1 X87.204 Y5.098 Z0 F1200
G1 X86.82 Y5.299 Z0 F1200
G1 X86.464 Y5.525 Z0 F1200
G1 X86.142 Y5.774 Z0 F1200
G1 X85.854 Y6.043 Z0 F1200
G1 X85.603 Y6.332 Z0 F1200
G1 X85.393 Y6.638 Z0 F1200
G1 X85.225 Y6.959 Z0 F1200
G1 Z7 F800;         ; Raise from color
G1 X79 Y8 Z1 F1200;     ; Movement in paint
G1 X69 Y18 Z8 F500;     ; Move in paint
G1 F1200;           ; Set feed rate
G0 Z2.5 F1000 ; Safety Lift
G0 X63.273 Y61.71 F1200 ; Return
G1 Z0 F1000 ; Restore Z
G1 X63.343 Y61.939 Z0 F1600
G1 X63.367 Y62.08 Z0 F1600
G1 X63.323 Y62.171 Z0 F1600
G1 X63.203 Y62.301 Z0 F1600
G1 X63.022 Y62.458 Z0 F1600
G1 X62.799 Y62.629 Z0 F1600
G1 X62.29 Y62.968 Z0 F1600
G1 X61.809 Y63.219 Z0 F1600
G1 X61.64 Y63.281 Z0 F1600
G1 X61.524 Z0 F1600
G1 X61.471 Y63.255 Z0 F1600
G1 X61.413 Y63.208 Z0 F1600
G1 X61.346 Y63.137 Z0 F1600
G1 X61.262 Y63.042 Z0 F1600
G1 X61.084 Y62.833 Z0 F1600
G1 X60.892 Y62.594 Z0 F1600
G1 X60.686 Y62.33 Z0 F1600
G1 X60.469 Y62.044 Z0 F1600
G1 X60.013 Y61.422 Z0 F1600
G1 X59.544 Y60.757 Z0 F1600
G1 X59.082 Y60.077 Z0 F1600
G1 X58.647 Y59.411 Z0 F1600
G1 X58.259 Y58.788 Z0 F1600
G1 X57.938 Y58.238 Z0 F1600
G1 X57.365 Y57.167 Z0 F1600
G1 X56.783 Y56.003 Z0 F1600
G1 X56.221 Y54.808 Z0 F1600
G1 X55.709 Y53.643 Z0 F1600
G1 X55.477 Y53.096 Z0 F1600
G1 X55.279 Y52.641 Z0 F1600
G1 X55.138 Y52.326 Z0 F1600
G1 X55.095 Y52.236 Z0 F1600
G1 X55.074 Y52.199 Z0 F1600
G0 Z3.5 F1000
G0 X95.829 Y53.896 Z3.5
G1 Z0 F1000
G1 X95.82 Y54.237 Z0 F1600
G1 X95.791 Y54.889 Z0 F1600
G1 X95.747 Y55.447 Z0 F1600
G1 X95.607 Y56.447 Z0 F1600
G1 X95.383 Y57.443 Z0 F1600
G1 X95.116 Y58.311 Z0 F1600
G1 X94.774 Y59.156 Z0 F1600
G1 X94.366 Y59.965 Z0 F1600
G1 X93.904 Y60.717 Z0 F1600
G1 X93.667 Y61.051 Z0 F1600
G1 X93.415 Y61.375 Z0 F1600
G1 X93.167 Y61.662 Z0 F1600
G1 X92.909 Y61.93 Z0 F1600
G1 X92.658 Y62.162 Z0 F1600
G1 X92.413 Y62.361 Z0 F1600
G1 X92.168 Y62.53 Z0 F1600
G1 X91.933 Y62.665 Z0 F1600
G1 X91.866 Y62.699 Z0 F1600
G1 X92.168 Y62.285 Z0 F1600
G1 X92.471 Y61.86 Z0 F1600
G1 X92.741 Y61.472 Z0 F1600
G1 X92.962 Y61.138 Z0 F1600
G1 X93.306 Y60.575 Z0 F1600
G1 X93.64 Y59.979 Z0 F1600
G1 X93.961 Y59.355 Z0 F1600
G1 X94.27 Y58.703 Z0 F1600
G1 X94.824 Y57.373 Z0 F1600
G1 X95.297 Y56.002 Z0 F1600
G1 X95.542 Y55.079 Z0 F1600
G1 X95.754 Y54.079 Z0 F1600
G1 X95.834 Y53.621 Z0 F1600
G1 X95.829 Y53.896 Z0 F1600
G0 Z3.5 F1000
G0 X91.678 Y56.842 Z3.5
G1 Z0 F1000
G1 X91.088 Y57.901 Z0 F1600
G1 X90.484 Y58.9 Z0 F1600
G1 X89.844 Y59.874 Z0 F1600
G1 X89.146 Y60.857 Z0 F1600
G1 X88.411 Y61.82 Z0 F1600
G1 X88.196 Y62.093 Z0 F1600
G1 X88.028 Y61.992 Z0 F1600
G1 X87.729 Y61.792 Z0 F1600
G1 X87.69 Y61.763 Z0 F1600
G1 X87.798 Y61.495 Z0 F1600
G1 X87.96 Y61.118 Z0 F1600
G1 X88.132 Y60.74 Z0 F1600
G1 X88.333 Y60.319 Z0 F1600
G1 X88.557 Y59.867 Z0 F1600
G1 X89.003 Y59.035 Z0 F1600
G1 X89.502 Y58.201 Z0 F1600
G1 X90.037 Y57.394 Z0 F1600
G1 X90.638 Y56.57 Z0 F1600
G1 X91.298 Y55.743 Z0 F1600
G1 X92.025 Y54.899 Z0 F1600
G1 X92.837 Y54.02 Z0 F1600
G1 X93.201 Y53.648 Z0 F1600
G1 X92.797 Y54.567 Z0 F1600
G1 X92.248 Y55.729 Z0 F1600
G1 X91.678 Y56.842 Z0 F1600
G0 Z3.5 F1000
G0 X85.68 Y58.296 Z3.5
G1 Z0 F1000
G1 Y58.275 Z0 F1600
G1 X85.685 Y58.045 Z0 F1600
G1 X85.695 Y57.856 Z0 F1600
G1 X85.708 Y57.722 Z0 F1600
G1 X85.754 Y57.466 Z0 F1600
G1 X85.833 Y57.205 Z0 F1600
G1 X86.023 Y56.705 Z0 F1600
G1 X86.253 Y56.219 Z0 F1600
G1 X86.527 Y55.739 Z0 F1600
G1 X86.842 Y55.274 Z0 F1600
G1 X87.22 Y54.792 Z0 F1600
G1 X87.652 Y54.306 Z0 F1600
G1 X88.153 Y53.801 Z0 F1600
G1 X88.719 Y53.282 Z0 F1600
G1 X89.005 Y53.038 Z0 F1600
G1 X89.268 Y52.835 Z0 F1600
G1 X89.428 Y52.722 Z0 F1600
G1 X89.625 Y52.589 Z0 F1600
G1 X89.859 Y52.435 Z0 F1600
G1 X90.531 Y52 Z0 F1600
G1 X90.977 Y51.707 Z0 F1600
G1 X91.168 Y51.578 Z0 F1600
G1 X91.205 Y51.551 Z0 F1600
G1 X91.265 Y51.511 Z0 F1600
G1 X91.398 Y51.435 Z0 F1600
G1 X91.608 Y51.324 Z0 F1600
G1 X91.885 Y51.186 Z0 F1600
G1 X92.192 Y51.037 Z0 F1600
G1 X92.547 Y50.87 Z0 F1600
G1 X92.937 Y50.69 Z0 F1600
G1 X93.338 Y50.509 Z0 F1600
G1 X94.155 Y50.151 Z0 F1600
G1 X94.97 Y49.807 Z0 F1600
G1 X95.325 Y49.662 Z0 F1600
G1 X95.659 Y49.53 Z0 F1600
G1 X95.744 Y49.499 Z0 F1600
G1 X95.752 Y49.621 Z0 F1600
G1 X95.789 Y50.28 Z0 F1600
G1 X95.818 Y51.034 Z0 F1600
G1 X95.835 Y51.811 Z0 F1600
G1 Y51.956 Z0 F1600
G1 X95.194 Y51.012 Z0 F1600
G1 X94.675 Y51.338 Z0 F1600
G1 X94.736 Y50.849 Z0 F1600
G1 X93.535 Y50.683 Z0 F1600
G1 X93.229 Y50.761 Z0 F1600
G1 X93.064 Y50.826 Z0 F1600
G1 X92.916 Y50.895 Z0 F1600
G1 X92.624 Y51.048 Z0 F1600
G1 X92.285 Y51.242 Z0 F1600
G1 X91.561 Y51.693 Z0 F1600
G1 X90.873 Y52.171 Z0 F1600
G1 X90.46 Y52.499 Z0 F1600
G1 X90.015 Y52.882 Z0 F1600
G1 X89.559 Y53.295 Z0 F1600
G1 X89.117 Y53.714 Z0 F1600
G1 X88.716 Y54.113 Z0 F1600
G1 X88.387 Y54.463 Z0 F1600
G1 X88.243 Y54.628 Z0 F1600
G1 X88.113 Y54.794 Z0 F1600
G1 X88.035 Y54.918 Z0 F1600
G1 X87.938 Y55 Z0 F1600
G1 X87.729 Y55.216 Z0 F1600
G1 X87.52 Y55.459 Z0 F1600
G1 X87.117 Y55.978 Z0 F1600
G1 X86.73 Y56.524 Z0 F1600
G1 X86.36 Y57.095 Z0 F1600
G1 X86.011 Y57.684 Z0 F1600
G1 X85.685 Y58.286 Z0 F1600
G1 X85.68 Y58.296 Z0 F1600
G0 Z3.5 F1000
G0 X84.787 Y59.883 Z3.5
G1 Z0 F1000
G1 X84.715 Y59.591 Z0 F1600
G1 X84.696 Y59.414 Z0 F1600
G1 X84.685 Y59.197 Z0 F1600
G1 X84.679 Y58.927 Z0 F1600
G1 Y58.588 Z0 F1600
G1 Y58.271 Z0 F1600
G1 X84.686 Y58.005 Z0 F1600
G1 X84.698 Y57.779 Z0 F1600
G1 X84.716 Y57.583 Z0 F1600
G1 X84.78 Y57.236 Z0 F1600
G1 X84.886 Y56.881 Z0 F1600
G1 X85.104 Y56.31 Z0 F1600
G1 X85.366 Y55.756 Z0 F1600
G1 X85.675 Y55.215 Z0 F1600
G1 X86.036 Y54.682 Z0 F1600
G1 X86.45 Y54.152 Z0 F1600
G1 X86.923 Y53.621 Z0 F1600
G1 X87.458 Y53.082 Z0 F1600
G1 X88.058 Y52.532 Z0 F1600
G1 X88.375 Y52.261 Z0 F1600
G1 X88.68 Y52.026 Z0 F1600
G1 X88.856 Y51.901 Z0 F1600
G1 X89.064 Y51.761 Z0 F1600
G1 X89.315 Y51.596 Z0 F1600
G1 X89.985 Y51.162 Z0 F1600
G1 X90.423 Y50.875 Z0 F1600
G1 X90.593 Y50.76 Z0 F1600
G1 X90.629 Y50.733 Z0 F1600
G1 X90.739 Y50.659 Z0 F1600
G1 X90.916 Y50.558 Z0 F1600
G1 X91.151 Y50.434 Z0 F1600
G1 X91.438 Y50.291 Z0 F1600
G1 X91.766 Y50.132 Z0 F1600
G1 X92.129 Y49.961 Z0 F1600
G1 X92.519 Y49.782 Z0 F1600
G1 X92.927 Y49.598 Z0 F1600
G1 X93.766 Y49.229 Z0 F1600
G1 X94.581 Y48.885 Z0 F1600
G1 X94.959 Y48.731 Z0 F1600
G1 X95.307 Y48.594 Z0 F1600
G1 X95.617 Y48.478 Z0 F1600
G1 X95.881 Y48.385 Z0 F1600
G1 X96.123 Y48.305 Z0 F1600
G1 X96.33 Y48.24 Z0 F1600
G1 X96.479 Y48.194 Z0 F1600
G1 X96.548 Y48.177 Z0 F1600
G1 X96.576 Y48.201 Z0 F1600
G1 X96.604 Y48.274 Z0 F1600
G1 X96.63 Y48.393 Z0 F1600
G1 X96.657 Y48.555 Z0 F1600
G1 X96.682 Y48.757 Z0 F1600
G1 X96.707 Y48.995 Z0 F1600
G1 X96.729 Y49.265 Z0 F1600
G1 X96.751 Y49.565 Z0 F1600
G1 X96.789 Y50.242 Z0 F1600
G1 X96.817 Y50.996 Z0 F1600
G1 X96.835 Y51.803 Z0 F1600
G1 X96.842 Y52.636 Z0 F1600
G1 Y53.094 Z0 F1600
G1 X96.836 Y53.519 Z0 F1600
G1 X96.829 Y53.914 Z0 F1600
G1 X96.819 Y54.283 Z0 F1600
G1 X96.789 Y54.952 Z0 F1600
G1 X96.742 Y55.55 Z0 F1600
G1 X96.592 Y56.626 Z0 F1600
G1 X96.351 Y57.698 Z0 F1600
G1 X96.059 Y58.648 Z0 F1600
G1 X95.685 Y59.572 Z0 F1600
G1 X95.24 Y60.452 Z0 F1600
G1 X94.738 Y61.269 Z0 F1600
G1 X94.47 Y61.648 Z0 F1600
G1 X94.191 Y62.005 Z0 F1600
G1 X93.904 Y62.338 Z0 F1600
G1 X93.611 Y62.643 Z0 F1600
G1 X93.313 Y62.919 Z0 F1600
G1 X93.01 Y63.164 Z0 F1600
G1 X92.706 Y63.375 Z0 F1600
G1 X92.401 Y63.549 Z0 F1600
G1 X92.199 Y63.65 Z0 F1600
G1 X92.028 Y63.729 Z0 F1600
G1 X91.874 Y63.788 Z0 F1600
G1 X91.72 Y63.83 Z0 F1600
G1 X91.553 Y63.86 Z0 F1600
G1 X91.356 Y63.882 Z0 F1600
G1 X91.117 Y63.897 Z0 F1600
G1 X90.819 Y63.91 Z0 F1600
G1 X90.445 Y63.918 Z0 F1600
G1 X90.127 Y63.913 Z0 F1600
G1 X90 Y63.906 Z0 F1600
G1 X89.899 Y63.897 Z0 F1600
G1 X89.829 Y63.885 Z0 F1600
G1 X89.794 Y63.871 Z0 F1600
G1 X89.786 Y63.817 Z0 F1600
G1 X89.818 Y63.728 Z0 F1600
G1 X89.888 Y63.615 Z0 F1600
G1 X89.988 Y63.488 Z0 F1600
G1 X90.078 Y63.383 Z0 F1600
G1 X90.185 Y63.253 Z0 F1600
G1 X90.306 Y63.102 Z0 F1600
G1 X90.438 Y62.932 Z0 F1600
G1 X90.731 Y62.548 Z0 F1600
G1 X91.043 Y62.129 Z0 F1600
G1 X91.357 Y61.7 Z0 F1600
G1 X91.653 Y61.285 Z0 F1600
G1 X91.914 Y60.91 Z0 F1600
G1 X92.119 Y60.601 Z0 F1600
G1 X92.443 Y60.07 Z0 F1600
G1 X92.759 Y59.505 Z0 F1600
G1 X93.064 Y58.912 Z0 F1600
G1 X93.355 Y58.296 Z0 F1600
G1 X93.889 Y57.017 Z0 F1600
G1 X94.34 Y55.71 Z0 F1600
G1 X94.569 Y54.847 Z0 F1600
G1 X94.772 Y53.889 Z0 F1600
G1 X94.851 Y53.438 Z0 F1600
G1 X94.91 Y53.037 Z0 F1600
G1 X94.929 Y52.863 Z0 F1600
G1 X94.942 Y52.711 Z0 F1600
G1 X94.948 Y52.585 Z0 F1600
G1 X94.945 Y52.488 Z0 F1600
G1 X94.933 Y52.405 Z0 F1600
G1 X94.91 Y52.372 Z0 F1600
G1 X94.872 Y52.396 Z0 F1600
G1 X94.813 Y52.486 Z0 F1600
G1 X94.729 Y52.652 Z0 F1600
G1 X94.614 Y52.903 Z0 F1600
G1 X94.463 Y53.249 Z0 F1600
G1 X94.272 Y53.697 Z0 F1600
G1 X93.709 Y54.979 Z0 F1600
G1 X93.141 Y56.18 Z0 F1600
G1 X92.56 Y57.314 Z0 F1600
G1 X91.958 Y58.395 Z0 F1600
G1 X91.33 Y59.434 Z0 F1600
G1 X90.665 Y60.446 Z0 F1600
G1 X89.957 Y61.443 Z0 F1600
G1 X89.197 Y62.438 Z0 F1600
G1 X88.516 Y63.304 Z0 F1600

; Color picking sequence
G1 Z10 F1000;         ; Raise brush
G0 X86 Y5 F1200;    ; Rapid move to color 1
G1 Z10 F1000;         ; Raise brush
G0 X86 Y5 F1200;    ; Rapid move to color 1
G1 Z0 F1000;         ; Lower into color
G1 X85.102 Y7.295 Z0 S800 F1200
G1 X85.026 Y7.642 Z0 F1200
G1 X85 Y8 Z0 F1200
G1 X85.026 Y8.358 Z0 F1200
G1 X85.102 Y8.705 Z0 F1200
G1 X85.225 Y9.041 Z0 F1200
G1 X85.393 Y9.362 Z0 F1200
G1 X85.603 Y9.668 Z0 F1200
G1 X85.854 Y9.957 Z0 F1200
G1 X86.142 Y10.226 Z0 F1200
G1 X86.464 Y10.475 Z0 F1200
G1 X86.82 Y10.701 Z0 F1200
G1 X87.204 Y10.902 Z0 F1200
G1 X87.617 Y11.078 Z0 F1200
G1 X88.054 Y11.225 Z0 F1200
G1 X88.513 Y11.343 Z0 F1200
G1 X88.992 Y11.429 Z0 F1200
G1 X89.489 Y11.482 Z0 F1200
G1 X90 Y11.5 Z0 F1200
G1 X90.511 Y11.482 Z0 F1200
G1 X91.008 Y11.429 Z0 F1200
G1 X91.487 Y11.343 Z0 F1200
G1 X91.946 Y11.225 Z0 F1200
G1 X92.383 Y11.078 Z0 F1200
G1 X92.796 Y10.902 Z0 F1200
G1 X93.18 Y10.701 Z0 F1200
G1 X93.536 Y10.475 Z0 F1200
G1 X93.858 Y10.226 Z0 F1200
G1 X94.146 Y9.957 Z0 F1200
G1 X94.397 Y9.668 Z0 F1200
G1 X94.607 Y9.362 Z0 F1200
G1 X94.775 Y9.041 Z0 F1200
G1 X94.898 Y8.705 Z0 F1200
G1 X94.974 Y8.358 Z0 F1200
G1 X95 Y8 Z0 F1200
G1 X94.974 Y7.642 Z0 F1200
G1 X94.898 Y7.295 Z0 F1200
G1 X94.775 Y6.959 Z0 F1200
G1 X94.607 Y6.638 Z0 F1200
G1 X94.397 Y6.332 Z0 F1200
G1 X94.146 Y6.043 Z0 F1200
G1 X93.858 Y5.774 Z0 F1200
G1 X93.536 Y5.525 Z0 F1200
G1 X93.18 Y5.299 Z0 F1200
G1 X92.796 Y5.098 Z0 F1200
G1 X92.383 Y4.922 Z0 F1200
G1 X91.946 Y4.775 Z0 F1200
G1 X91.487 Y4.657 Z0 F1200
G1 X91.008 Y4.571 Z0 F1200
G1 X90.511 Y4.518 Z0 F1200
G1 X90 Y4.5 Z0 F1200
G1 X89.489 Y4.518 Z0 F1200
G1 X88.992 Y4.571 Z0 F1200
G1 X88.513 Y4.657 Z0 F1200
G1 X88.054 Y4.775 Z0 F1200
G1 X87.617 Y4.922 Z0 F1200
G1 X87.204 Y5.098 Z0 F1200
G1 X86.82 Y5.299 Z0 F1200
G1 X86.464 Y5.525 Z0 F1200
G1 X86.142 Y5.774 Z0 F1200
G1 X85.854 Y6.043 Z0 F1200
G1 X85.603 Y6.332 Z0 F1200
G1 X85.393 Y6.638 Z0 F1200
G1 X85.225 Y6.959 Z0 F1200
G1 Z7 F800;         ; Raise from color
G1 X79 Y8 Z1 F1200;     ; Movement in paint
G1 X69 Y18 Z8 F500;     ; Move in paint
G1 F1200;           ; Set feed rate
G0 Z2.5 F1000 ; Safety Lift
G0 X88.516 Y63.304 F1200 ; Return
G1 Z0 F1000 ; Restore Z
G1 X88.473 Y63.32 Z0 F1600
G1 X88.396 Y63.308 Z0 F1600
G1 X88.289 Y63.271 Z0 F1600
G1 X88.157 Y63.213 Z0 F1600
G1 X87.842 Y63.047 Z0 F1600
G1 X87.491 Y62.835 Z0 F1600
G1 X87.146 Y62.604 Z0 F1600
G1 X86.848 Y62.381 Z0 F1600
G1 X86.729 Y62.28 Z0 F1600
G1 X86.639 Y62.191 Z0 F1600
G1 X86.581 Y62.117 Z0 F1600
G1 X86.56 Y62.062 Z0 F1600
G1 X86.582 Y61.923 Z0 F1600
G1 X86.646 Y61.709 Z0 F1600
G1 X86.746 Y61.432 Z0 F1600
G1 X86.879 Y61.099 Z0 F1600
G1 X87.042 Y60.722 Z0 F1600
G1 X87.229 Y60.31 Z0 F1600
G1 X87.437 Y59.874 Z0 F1600
G1 X87.662 Y59.422 Z0 F1600
G1 X88.135 Y58.538 Z0 F1600
G1 X88.652 Y57.673 Z0 F1600
G1 X89.218 Y56.818 Z0 F1600
G1 X89.841 Y55.966 Z0 F1600
G1 X90.526 Y55.106 Z0 F1600
G1 X91.281 Y54.23 Z0 F1600
G1 X92.112 Y53.331 Z0 F1600
G1 X93.273 Y52.145 Z0 F1600
G1 X93.467 Y51.929 Z0 F1600
G1 X93.539 Y51.843 Z0 F1600
G1 X93.59 Y51.775 Z0 F1600
G1 X93.618 Y51.728 Z0 F1600
G1 X93.621 Y51.704 Z0 F1600
G1 X93.593 Y51.7 Z0 F1600
G1 X93.538 Y51.714 Z0 F1600
G1 X93.458 Y51.746 Z0 F1600
G1 X93.358 Y51.792 Z0 F1600
G1 X93.104 Y51.925 Z0 F1600
G1 X92.797 Y52.101 Z0 F1600
G1 X92.11 Y52.528 Z0 F1600
G1 X91.47 Y52.974 Z0 F1600
G1 X91.098 Y53.269 Z0 F1600
G1 X90.677 Y53.631 Z0 F1600
G1 X90.239 Y54.029 Z0 F1600
G1 X89.813 Y54.432 Z0 F1600
G1 X89.433 Y54.811 Z0 F1600
G1 X89.128 Y55.134 Z0 F1600
G1 X89.014 Y55.265 Z0 F1600
G1 X88.931 Y55.372 Z0 F1600
G1 X88.882 Y55.449 Z0 F1600
G1 X88.872 Y55.494 Z0 F1600
G1 X88.881 Y55.537 Z0 F1600
G1 X88.875 Y55.57 Z0 F1600
G1 X88.854 Y55.588 Z0 F1600
G1 X88.82 Z0 F1600
G1 X88.749 Y55.623 Z0 F1600
G1 X88.625 Y55.729 Z0 F1600
G1 X88.468 Y55.891 Z0 F1600
G1 X88.294 Y56.093 Z0 F1600
G1 X87.92 Y56.574 Z0 F1600
G1 X87.558 Y57.085 Z0 F1600
G1 X87.21 Y57.622 Z0 F1600
G1 X86.881 Y58.177 Z0 F1600
G1 X86.573 Y58.745 Z0 F1600
G1 X86.292 Y59.318 Z0 F1600
G1 X86.038 Y59.892 Z0 F1600
G1 X85.818 Y60.458 Z0 F1600
G1 X85.537 Y61.235 Z0 F1600
G1 X85.345 Y60.966 Z0 F1600
G1 X85.252 Y60.821 Z0 F1600
G1 X85.14 Y60.627 Z0 F1600
G1 X85.023 Y60.408 Z0 F1600
G1 X84.916 Y60.189 Z0 F1600
G1 X84.787 Y59.883 Z0 F1600

; Washing sequence (no color)
G1 Z10 F1000;        ; Raise brush
G0 X5 Y5 F1200;     ; Rapid move to clean
G1 Z-1 F800;         ; Lower brush
G1 X10 Y12 Z8 F1200;     ; Move
G1 Z-1 F800;         ; Lower
G1 X25 Y14 Z6 F800;     ; Move
G1 Z8 F800;         ; Maintain
G0 X5 Y5 F1200;     ; Rapid
G1 Z-1 F800;         ; Lower
G1 X15 Y12 Z8 F1200;     ; Move
G1 Z-1 F800;         ; Lower
G1 X25 Y14 Z6 F800;     ; Move
G1 Z10 F800;         ; Maintain
G1 F1200;           ; Set feed
G0 Z2.5 F1000 ; Safety Lift

; Color picking sequence
G1 Z10 F1000;         ; Raise brush
G0 X131 Y5 F1200;    ; Rapid move to color 1
G1 Z10 F1000;         ; Raise brush
G0 X131 Y5 F1200;    ; Rapid move to color 1
G1 Z0 F1000;         ; Lower into color
G1 X130.102 Y7.295 Z0 S800 F1200
G1 X130.026 Y7.642 Z0 F1200
G1 X130 Y8 Z0 F1200
G1 X130.026 Y8.358 Z0 F1200
G1 X130.102 Y8.705 Z0 F1200
G1 X130.225 Y9.041 Z0 F1200
G1 X130.393 Y9.362 Z0 F1200
G1 X130.603 Y9.668 Z0 F1200
G1 X130.854 Y9.957 Z0 F1200
G1 X131.142 Y10.226 Z0 F1200
G1 X131.464 Y10.475 Z0 F1200
G1 X131.82 Y10.701 Z0 F1200
G1 X132.204 Y10.902 Z0 F1200
G1 X132.617 Y11.078 Z0 F1200
G1 X133.054 Y11.225 Z0 F1200
G1 X133.513 Y11.343 Z0 F1200
G1 X133.992 Y11.429 Z0 F1200
G1 X134.489 Y11.482 Z0 F1200
G1 X135 Y11.5 Z0 F1200
G1 X135.511 Y11.482 Z0 F1200
G1 X136.008 Y11.429 Z0 F1200
G1 X136.487 Y11.343 Z0 F1200
G1 X136.946 Y11.225 Z0 F1200
G1 X137.383 Y11.078 Z0 F1200
G1 X137.796 Y10.902 Z0 F1200
G1 X138.18 Y10.701 Z0 F1200
G1 X138.536 Y10.475 Z0 F1200
G1 X138.858 Y10.226 Z0 F1200
G1 X139.146 Y9.957 Z0 F1200
G1 X139.397 Y9.668 Z0 F1200
G1 X139.607 Y9.362 Z0 F1200
G1 X139.775 Y9.041 Z0 F1200
G1 X139.898 Y8.705 Z0 F1200
G1 X139.974 Y8.358 Z0 F1200
G1 X140 Y8 Z0 F1200
G1 X139.974 Y7.642 Z0 F1200
G1 X139.898 Y7.295 Z0 F1200
G1 X139.775 Y6.959 Z0 F1200
G1 X139.607 Y6.638 Z0 F1200
G1 X139.397 Y6.332 Z0 F1200
G1 X139.146 Y6.043 Z0 F1200
G1 X138.858 Y5.774 Z0 F1200
G1 X138.536 Y5.525 Z0 F1200
G1 X138.18 Y5.299 Z0 F1200
G1 X137.796 Y5.098 Z0 F1200
G1 X137.383 Y4.922 Z0 F1200
G1 X136.946 Y4.775 Z0 F1200
G1 X136.487 Y4.657 Z0 F1200
G1 X136.008 Y4.571 Z0 F1200
G1 X135.511 Y4.518 Z0 F1200
G1 X135 Y4.5 Z0 F1200
G1 X134.489 Y4.518 Z0 F1200
G1 X133.992 Y4.571 Z0 F1200
G1 X133.513 Y4.657 Z0 F1200
G1 X133.054 Y4.775 Z0 F1200
G1 X132.617 Y4.922 Z0 F1200
G1 X132.204 Y5.098 Z0 F1200
G1 X131.82 Y5.299 Z0 F1200
G1 X131.464 Y5.525 Z0 F1200
G1 X131.142 Y5.774 Z0 F1200
G1 X130.854 Y6.043 Z0 F1200
G1 X130.603 Y6.332 Z0 F1200
G1 X130.393 Y6.638 Z0 F1200
G1 X130.225 Y6.959 Z0 F1200
G1 Z7 F800;         ; Raise from color
G1 X124 Y8 Z1 F1200;     ; Movement in paint
G1 X114 Y18 Z8 F500;     ; Move in paint
G1 F1200;           ; Set feed rate
G0 Z2.5 F1000 ; Safety Lift
;Cut @ 1500 mm/min, 80% power

M8
G0 Z3.5 F1000
G0 X82.98 Y62.125 Z3.5
G1 Z0 F1000
;Layer C3
G1 X82.873 Y62.091 Z0 S800 F1600
G1 X82.736 Y62.05 Z0 F1600
G1 X82.382 Y61.95 Z0 F1600
G1 X81.95 Y61.835 Z0 F1600
G1 X80.973 Y61.587 Z0 F1600
G1 X80.047 Y61.371 Z0 F1600
G1 X79.529 Y61.257 Z0 F1600
G1 X78.864 Y57.893 Z0 F1600
G1 X78.752 Y57.363 Z0 F1600
G1 X78.643 Y56.919 Z0 F1600
G1 X78.594 Y56.743 Z0 F1600
G1 X78.551 Y56.606 Z0 F1600
G1 X78.515 Y56.514 Z0 F1600
G1 X78.487 Y56.472 Z0 F1600
G1 X78.46 Y56.465 Z0 F1600
G1 X78.405 Y56.458 Z0 F1600
G1 X78.321 Y56.452 Z0 F1600
G1 X78.212 Y56.445 Z0 F1600
G1 X77.921 Y56.433 Z0 F1600
G1 X77.545 Y56.423 Z0 F1600
G1 X77.095 Y56.414 Z0 F1600
G1 X76.585 Y56.407 Z0 F1600
G1 X76.027 Y56.403 Z0 F1600
G1 X75.434 Z0 F1600
G1 X74.66 Z0 F1600
G1 X74.021 Y56.406 Z0 F1600
G1 X73.504 Y56.413 Z0 F1600
G1 X73.099 Y56.424 Z0 F1600
G1 X72.797 Y56.438 Z0 F1600
G1 X72.587 Y56.457 Z0 F1600
G1 X72.458 Y56.481 Z0 F1600
G1 X72.4 Y56.509 Z0 F1600
G1 X72.377 Y56.555 Z0 F1600
G1 X72.347 Y56.645 Z0 F1600
G1 X72.31 Y56.773 Z0 F1600
G1 X72.268 Y56.933 Z0 F1600
G1 X72.174 Y57.333 Z0 F1600
G1 X72.077 Y57.8 Z0 F1600
G1 X71.974 Y58.317 Z0 F1600
G1 X71.812 Y59.108 Z0 F1600
G1 X71.613 Y60.047 Z0 F1600
G1 X71.548 Y60.372 Z0 F1600
G1 X71.495 Y60.664 Z0 F1600
G1 X71.459 Y60.883 Z0 F1600
G1 X71.44 Y61.033 Z0 F1600
G1 X71.421 Y61.143 Z0 F1600
G1 X71.38 Y61.224 Z0 F1600
G1 X71.299 Y61.283 Z0 F1600
G1 X71.158 Y61.332 Z0 F1600
G1 X70.936 Y61.38 Z0 F1600
G1 X70.789 Y61.406 Z0 F1600
G1 X69.971 Y61.543 Z0 F1600
G1 X69.81 Y61.567 Z0 F1600
G1 X69.685 Y61.58 Z0 F1600
G1 X69.589 Y61.583 Z0 F1600
G1 X69.461 Y61.556 Z0 F1600
G1 X69.376 Y61.485 Z0 F1600
G1 X69.339 Y61.437 Z0 F1600
G1 X69.203 Y61.246 Z0 F1600
G1 X68.876 Y60.767 Z0 F1600
G1 X68.602 Y60.359 Z0 F1600
G1 X67.998 Y59.445 Z0 F1600
G1 X67.263 Y58.309 Z0 F1600
G1 X67.115 Y58.091 Z0 F1600
G1 X67.055 Y58.007 Z0 F1600
G1 X67.007 Y57.943 Z0 F1600
G1 X66.973 Y57.902 Z0 F1600
G1 X66.955 Y57.888 Z0 F1600
G1 X66.947 Y57.911 Z0 F1600
G1 X66.938 Y57.976 Z0 F1600
G1 X66.931 Y58.079 Z0 F1600
G1 X66.924 Y58.216 Z0 F1600
G1 X66.914 Y58.57 Z0 F1600
G1 X66.907 Y59.342 Z0 F1600
G1 X66.9 Y59.619 Z0 F1600
G1 X66.887 Y59.85 Z0 F1600
G1 X66.866 Y60.048 Z0 F1600
G1 X66.792 Y60.404 Z0 F1600
G1 X66.661 Y60.803 Z0 F1600
G1 X66.416 Y61.487 Z0 F1600
G1 X68.382 Y64.425 Z0 F1600
G1 X68.976 Y65.304 Z0 F1600
G1 X69.434 Y65.976 Z0 F1600
G1 X69.656 Y66.294 Z0 F1600
G1 X69.733 Y66.399 Z0 F1600
G1 X69.747 Y66.415 Z0 F1600
G1 X69.815 Z0 F1600
G1 X69.955 Y66.395 Z0 F1600
G1 X70.147 Y66.353 Z0 F1600
G1 X70.372 Y66.295 Z0 F1600
G1 X70.826 Y66.183 Z0 F1600
G1 X71.326 Y66.086 Z0 F1600
G1 X71.865 Y66.005 Z0 F1600
G1 X72.436 Y65.937 Z0 F1600
G1 X73.65 Y65.848 Z0 F1600
G1 X74.916 Y65.817 Z0 F1600
G1 X76.181 Y65.846 Z0 F1600
G1 X77.393 Y65.935 Z0 F1600
G1 X77.963 Y66.001 Z0 F1600
G1 X78.5 Y66.083 Z0 F1600
G1 X78.999 Y66.179 Z0 F1600
G1 X79.451 Y66.29 Z0 F1600
G1 X79.711 Y66.361 Z0 F1600
G1 X79.911 Y66.411 Z0 F1600
G1 X80.062 Y66.442 Z0 F1600
G1 X80.173 Y66.452 Z0 F1600
G1 X80.308 Y66.413 Z0 F1600
G1 X80.391 Y66.293 Z0 F1600
G1 X80.429 Y66.229 Z0 F1600
G1 X80.504 Y66.111 Z0 F1600
G1 X80.748 Y65.743 Z0 F1600
G1 X81.086 Y65.241 Z0 F1600
G1 X81.484 Y64.66 Z0 F1600
G1 X82.822 Y62.717 Z0 F1600
G1 X82.945 Y62.525 Z0 F1600
G1 X83.036 Y62.357 Z0 F1600
G1 X83.085 Y62.232 Z0 F1600
G1 Y62.168 Z0 F1600
G1 X83.051 Y62.151 Z0 F1600
G1 X82.98 Y62.125 Z0 F1600
G0 Z3.5 F1000
G0 X90.399 Y66.3 Z3.5
G1 Z0 F1000
G1 X89.318 Y68.426 Z0 F1600
G1 X88.978 Y69.088 Z0 F1600
G1 X88.702 Y69.621 Z0 F1600
G1 X88.522 Y69.96 Z0 F1600
G1 X88.441 Y70.103 Z0 F1600
G1 X88.424 Y70.164 Z0 F1600
G1 X88.433 Y70.228 Z0 F1600
G1 X88.475 Y70.304 Z0 F1600
G1 X88.556 Y70.401 Z0 F1600
G1 X88.683 Y70.527 Z0 F1600
G1 X88.861 Y70.693 Z0 F1600
G1 X89.098 Y70.907 Z0 F1600
G1 X90.094 Y71.836 Z0 F1600
G1 X91.012 Y72.767 Z0 F1600
G1 X91.855 Y73.702 Z0 F1600
G1 X92.626 Y74.645 Z0 F1600
G1 X93.329 Y75.602 Z0 F1600
G1 X93.965 Y76.575 Z0 F1600
G1 X94.539 Y77.568 Z0 F1600
G1 X95.053 Y78.586 Z0 F1600
G1 X95.259 Y79.048 Z0 F1600
G1 X95.473 Y79.578 Z0 F1600
G1 X95.691 Y80.156 Z0 F1600
G1 X95.903 Y80.761 Z0 F1600
G1 X96.104 Y81.372 Z0 F1600
G1 X96.288 Y81.971 Z0 F1600
G1 X96.446 Y82.537 Z0 F1600
G1 X96.572 Y83.049 Z0 F1600
G1 X96.802 Y84.236 Z0 F1600
G1 X96.968 Y85.46 Z0 F1600
G1 X97.069 Y86.707 Z0 F1600
G1 X97.107 Y87.962 Z0 F1600
G1 X97.079 Y89.21 Z0 F1600
G1 X96.987 Y90.436 Z0 F1600
G1 X96.831 Y91.626 Z0 F1600
G1 X96.61 Y92.764 Z0 F1600
G1 X96.523 Y93.122 Z0 F1600
G1 X96.414 Y93.532 Z0 F1600
G1 X96.292 Y93.971 Z0 F1600
G1 X96.162 Y94.416 Z0 F1600
G1 X96.03 Y94.847 Z0 F1600
G1 X95.904 Y95.24 Z0 F1600
G1 X95.79 Y95.574 Z0 F1600
G1 X95.694 Y95.827 Z0 F1600
G1 X95.423 Y96.484 Z0 F1600
G1 X95.373 Y96.598 Z0 F1600
G1 X95.307 Y96.743 Z0 F1600
G1 X95.136 Y97.101 Z0 F1600
G1 X94.927 Y97.523 Z0 F1600
G1 X94.699 Y97.973 Z0 F1600
G1 X94.471 Y98.415 Z0 F1600
G1 X94.26 Y98.813 Z0 F1600
G1 X94.085 Y99.132 Z0 F1600
G1 X94.017 Y99.251 Z0 F1600
G1 X93.964 Y99.336 Z0 F1600
G1 X93.806 Y99.573 Z0 F1600
G1 X93.593 Y99.885 Z0 F1600
G1 X93.346 Y100.242 Z0 F1600
G1 X92.839 Y100.964 Z0 F1600
G1 X92.536 Y101.388 Z0 F1600
G1 X92.411 Y101.557 Z0 F1600
G1 X92.379 Y101.595 Z0 F1600
G1 X92.202 Y101.803 Z0 F1600
G1 X91.898 Y102.169 Z0 F1600
G1 X91.505 Y102.632 Z0 F1600
G1 X91.111 Y103.074 Z0 F1600
G1 X90.953 Y103.248 Z0 F1600
G1 X90.816 Y103.406 Z0 F1600
G1 X90.713 Y103.53 Z0 F1600
G1 X90.66 Y103.603 Z0 F1600
G1 X90.657 Y103.663 Z0 F1600
G1 X90.684 Y103.779 Z0 F1600
G1 X90.742 Y103.953 Z0 F1600
G1 X90.832 Y104.186 Z0 F1600
G1 X90.954 Y104.482 Z0 F1600
G1 X91.109 Y104.84 Z0 F1600
G1 X91.297 Y105.263 Z0 F1600
G1 X91.593 Y105.914 Z0 F1600
G1 X91.795 Y106.38 Z0 F1600
G1 X92.05 Y106.982 Z0 F1600
G1 X92.188 Y107.296 Z0 F1600
G1 X92.312 Y107.567 Z0 F1600
G1 X92.421 Y107.793 Z0 F1600
G1 X92.513 Y107.973 Z0 F1600
G1 X92.589 Y108.104 Z0 F1600
G1 X92.646 Y108.184 Z0 F1600
G1 X92.685 Y108.211 Z0 F1600
G1 X92.753 Y108.173 Z0 F1600
G1 X92.886 Y108.069 Z0 F1600
G1 X93.065 Y107.914 Z0 F1600
G1 X93.269 Y107.726 Z0 F1600
G1 X94.147 Y106.893 Z0 F1600
G1 X95.014 Y107.297 Z0 F1600
G1 X95.973 Y107.74 Z0 F1600
G1 X96.521 Y107.987 Z0 F1600
G1 X97.062 Y108.233 Z0 F1600
G1 X97.487 Y108.421 Z0 F1600
G1 X97.842 Y108.562 Z0 F1600
G1 X98.133 Y108.656 Z0 F1600
G1 X98.369 Y108.705 Z0 F1600
G1 X98.556 Y108.71 Z0 F1600
G1 X98.703 Y108.672 Z0 F1600
G1 X98.816 Y108.591 Z0 F1600
G1 X98.903 Y108.469 Z0 F1600
G1 X98.938 Y108.412 Z0 F1600
G1 X99.007 Y108.309 Z0 F1600
G1 X99.235 Y107.98 Z0 F1600
G1 X99.561 Y107.517 Z0 F1600
G1 X99.959 Y106.956 Z0 F1600
G1 X100.874 Y105.683 Z0 F1600
G1 X101.777 Y104.442 Z0 F1600
G1 X101.985 Y104.145 Z0 F1600
G1 X102.156 Y103.877 Z0 F1600
G1 X102.221 Y103.764 Z0 F1600
G1 X102.271 Y103.668 Z0 F1600
G1 X102.302 Y103.595 Z0 F1600
G1 X102.313 Y103.547 Z0 F1600
G1 X102.302 Y103.502 Z0 F1600
G1 X102.27 Y103.437 Z0 F1600
G1 X102.22 Y103.356 Z0 F1600
G1 X102.153 Y103.261 Z0 F1600
G1 X101.979 Y103.041 Z0 F1600
G1 X101.766 Y102.804 Z0 F1600
G1 X100.475 Y101.438 Z0 F1600
G1 X99.906 Y100.828 Z0 F1600
G1 X99.695 Y100.597 Z0 F1600
G1 X99.527 Y100.409 Z0 F1600
G1 X99.398 Y100.256 Z0 F1600
G1 X99.304 Y100.135 Z0 F1600
G1 X99.239 Y100.04 Z0 F1600
G1 X99.2 Y99.964 Z0 F1600
G1 X99.182 Y99.903 Z0 F1600
G1 X99.19 Y99.804 Z0 F1600
G1 X99.289 Y99.529 Z0 F1600
G1 X99.387 Y99.28 Z0 F1600
G1 X99.509 Y98.983 Z0 F1600
G1 X99.945 Y97.94 Z0 F1600
G1 X100.345 Y96.947 Z0 F1600
G1 X100.454 Y96.7 Z0 F1600
G1 X100.545 Y96.513 Z0 F1600
G1 X100.606 Y96.414 Z0 F1600
G1 X100.66 Y96.385 Z0 F1600
G1 X100.771 Y96.359 Z0 F1600
G1 X100.944 Y96.335 Z0 F1600
G1 X101.186 Y96.314 Z0 F1600
G1 X101.503 Y96.296 Z0 F1600
G1 X101.902 Y96.278 Z0 F1600
G1 X102.388 Y96.262 Z0 F1600
G1 X103.912 Y96.222 Z0 F1600
G1 X104.375 Y96.205 Z0 F1600
G1 X104.725 Y96.186 Z0 F1600
G1 X104.864 Y96.176 Z0 F1600
G1 X105.079 Y96.152 Z0 F1600
G1 X105.225 Y96.123 Z0 F1600
G1 X105.319 Y96.087 Z0 F1600
G1 X105.38 Y96.043 Z0 F1600
G1 X105.451 Y95.923 Z0 F1600
G1 X105.528 Y95.709 Z0 F1600
G1 X105.605 Y95.419 Z0 F1600
G1 X105.676 Y95.072 Z0 F1600
G1 X105.795 Y94.414 Z0 F1600
G1 X105.939 Y93.639 Z0 F1600
G1 X106.128 Y92.642 Z0 F1600
G1 X106.382 Y91.316 Z0 F1600
G1 X106.466 Y90.844 Z0 F1600
G1 X106.527 Y90.437 Z0 F1600
G1 X106.547 Y90.271 Z0 F1600
G1 X106.559 Y90.137 Z0 F1600
G1 X106.562 Y90.041 Z0 F1600
G1 X106.555 Y89.988 Z0 F1600
G1 X106.534 Y89.934 Z0 F1600
G1 X106.504 Y89.889 Z0 F1600
G1 X106.45 Y89.845 Z0 F1600
G1 X106.353 Y89.796 Z0 F1600
G1 X106.197 Y89.732 Z0 F1600
G1 X105.965 Y89.646 Z0 F1600
G1 X104.611 Y89.17 Z0 F1600
G1 X104.044 Y88.967 Z0 F1600
G1 X103.517 Y88.774 Z0 F1600
G1 X103.045 Y88.598 Z0 F1600
G1 X102.644 Y88.444 Z0 F1600
G1 X102.329 Y88.319 Z0 F1600
G1 X102.21 Y88.269 Z0 F1600
G1 X102.118 Y88.229 Z0 F1600
G1 X102.056 Y88.198 Z0 F1600
G1 X102.025 Y88.178 Z0 F1600
G1 X102.01 Y88.132 Z0 F1600
G1 X101.992 Y88.025 Z0 F1600
G1 X101.973 Y87.864 Z0 F1600
G1 X101.952 Y87.657 Z0 F1600
G1 X101.931 Y87.41 Z0 F1600
G1 X101.911 Y87.13 Z0 F1600
G1 X101.891 Y86.824 Z0 F1600
G1 X101.838 Y85.848 Z0 F1600
G1 X101.804 Y85.268 Z0 F1600
G1 X101.776 Y84.822 Z0 F1600
G1 X101.756 Y84.572 Z0 F1600
G1 X101.746 Y84.391 Z0 F1600
G1 X101.789 Y84.27 Z0 F1600
G1 X101.841 Y84.217 Z0 F1600
G1 X101.919 Y84.164 Z0 F1600
G1 X102.027 Y84.103 Z0 F1600
G1 X102.17 Y84.029 Z0 F1600
G1 X103.295 Y83.436 Z0 F1600
G1 X104.439 Y82.803 Z0 F1600
G1 X104.698 Y82.656 Z0 F1600
G1 X105.154 Y82.391 Z0 F1600
G1 X105.344 Y82.277 Z0 F1600
G1 X105.502 Y82.179 Z0 F1600
G1 X105.624 Y82.1 Z0 F1600
G1 X105.707 Y82.041 Z0 F1600
G1 X105.747 Y82.005 Z0 F1600
G1 X105.784 Y81.929 Z0 F1600
G1 X105.804 Y81.832 Z0 F1600
G1 X105.808 Y81.71 Z0 F1600
G1 X105.793 Y81.56 Z0 F1600
G1 X105.761 Y81.381 Z0 F1600
G1 X105.711 Y81.168 Z0 F1600
G1 X105.642 Y80.919 Z0 F1600
G1 X105.554 Y80.631 Z0 F1600
G1 X105.409 Y80.168 Z0 F1600
G1 X104.726 Y77.975 Z0 F1600
G1 X104.598 Y77.565 Z0 F1600
G1 X104.478 Y77.197 Z0 F1600
G1 X104.368 Y76.873 Z0 F1600

; Color picking sequence
G1 Z10 F1000;         ; Raise brush
G0 X131 Y5 F1200;    ; Rapid move to color 1
G1 Z10 F1000;         ; Raise brush
G0 X131 Y5 F1200;    ; Rapid move to color 1
G1 Z0 F1000;         ; Lower into color
G1 X130.102 Y7.295 Z0 S800 F1200
G1 X130.026 Y7.642 Z0 F1200
G1 X130 Y8 Z0 F1200
G1 X130.026 Y8.358 Z0 F1200
G1 X130.102 Y8.705 Z0 F1200
G1 X130.225 Y9.041 Z0 F1200
G1 X130.393 Y9.362 Z0 F1200
G1 X130.603 Y9.668 Z0 F1200
G1 X130.854 Y9.957 Z0 F1200
G1 X131.142 Y10.226 Z0 F1200
G1 X131.464 Y10.475 Z0 F1200
G1 X131.82 Y10.701 Z0 F1200
G1 X132.204 Y10.902 Z0 F1200
G1 X132.617 Y11.078 Z0 F1200
G1 X133.054 Y11.225 Z0 F1200
G1 X133.513 Y11.343 Z0 F1200
G1 X133.992 Y11.429 Z0 F1200
G1 X134.489 Y11.482 Z0 F1200
G1 X135 Y11.5 Z0 F1200
G1 X135.511 Y11.482 Z0 F1200
G1 X136.008 Y11.429 Z0 F1200
G1 X136.487 Y11.343 Z0 F1200
G1 X136.946 Y11.225 Z0 F1200
G1 X137.383 Y11.078 Z0 F1200
G1 X137.796 Y10.902 Z0 F1200
G1 X138.18 Y10.701 Z0 F1200
G1 X138.536 Y10.475 Z0 F1200
G1 X138.858 Y10.226 Z0 F1200
G1 X139.146 Y9.957 Z0 F1200
G1 X139.397 Y9.668 Z0 F1200
G1 X139.607 Y9.362 Z0 F1200
G1 X139.775 Y9.041 Z0 F1200
G1 X139.898 Y8.705 Z0 F1200
G1 X139.974 Y8.358 Z0 F1200
G1 X140 Y8 Z0 F1200
G1 X139.974 Y7.642 Z0 F1200
G1 X139.898 Y7.295 Z0 F1200
G1 X139.775 Y6.959 Z0 F1200
G1 X139.607 Y6.638 Z0 F1200
G1 X139.397 Y6.332 Z0 F1200
G1 X139.146 Y6.043 Z0 F1200
G1 X138.858 Y5.774 Z0 F1200
G1 X138.536 Y5.525 Z0 F1200
G1 X138.18 Y5.299 Z0 F1200
G1 X137.796 Y5.098 Z0 F1200
G1 X137.383 Y4.922 Z0 F1200
