
G0 Z10 F500;      ; Move to clearance level
; G0 X-10 Y-10 F1200; Homing
; G0 X-5 Y-5 F1200; go in
; G10 P0 L20 X0 Y0; set to zero
G1 F1200;           ; Set feed rate
G90 ; Force absolute mode
;LightBurn 1.6.04
;Custom GCode device profile, absolute coords
;Bounds: X45.67 Y39.24 to X104.33 Y106.15
G00 G17 G40 G21 G54
M3
G1 Z10 F1000

; Color picking sequence
G1 Z10 F1000;         ; Raise brush
G0 X41 Y5 F1200;    ; Rapid move to color 1
G1 Z10 F1000;         ; Raise brush
G0 X41 Y5 F1200;    ; Rapid move to color 1
G1 Z0 F1000;         ; Lower into color
G1 X40.102 Y7.295 Z0 S800 F1200
G1 X40.026 Y7.642 Z0 F1200
G1 X40 Y8 Z0 F1200
G1 X40.026 Y8.358 Z0 F1200
G1 X40.102 Y8.705 Z0 F1200
G1 X40.225 Y9.041 Z0 F1200
G1 X40.393 Y9.362 Z0 F1200
G1 X40.603 Y9.668 Z0 F1200
G1 X40.854 Y9.957 Z0 F1200
G1 X41.142 Y10.226 Z0 F1200
G1 X41.464 Y10.475 Z0 F1200
G1 X41.82 Y10.701 Z0 F1200
G1 X42.204 Y10.902 Z0 F1200
G1 X42.617 Y11.078 Z0 F1200
G1 X43.054 Y11.225 Z0 F1200
G1 X43.513 Y11.343 Z0 F1200
G1 X43.992 Y11.429 Z0 F1200
G1 X44.489 Y11.482 Z0 F1200
G1 X45 Y11.5 Z0 F1200
G1 X45.511 Y11.482 Z0 F1200
G1 X46.008 Y11.429 Z0 F1200
G1 X46.487 Y11.343 Z0 F1200
G1 X46.946 Y11.225 Z0 F1200
G1 X47.383 Y11.078 Z0 F1200
G1 X47.796 Y10.902 Z0 F1200
G1 X48.18 Y10.701 Z0 F1200
G1 X48.536 Y10.475 Z0 F1200
G1 X48.858 Y10.226 Z0 F1200
G1 X49.146 Y9.957 Z0 F1200
G1 X49.397 Y9.668 Z0 F1200
G1 X49.607 Y9.362 Z0 F1200
G1 X49.775 Y9.041 Z0 F1200
G1 X49.898 Y8.705 Z0 F1200
G1 X49.974 Y8.358 Z0 F1200
G1 X50 Y8 Z0 F1200
G1 X49.974 Y7.642 Z0 F1200
G1 X49.898 Y7.295 Z0 F1200
G1 X49.775 Y6.959 Z0 F1200
G1 X49.607 Y6.638 Z0 F1200
G1 X49.397 Y6.332 Z0 F1200
G1 X49.146 Y6.043 Z0 F1200
G1 X48.858 Y5.774 Z0 F1200
G1 X48.536 Y5.525 Z0 F1200
G1 X48.18 Y5.299 Z0 F1200
G1 X47.796 Y5.098 Z0 F1200
G1 X47.383 Y4.922 Z0 F1200
G1 X46.946 Y4.775 Z0 F1200
G1 X46.487 Y4.657 Z0 F1200
G1 X46.008 Y4.571 Z0 F1200
G1 X45.511 Y4.518 Z0 F1200
G1 X45 Y4.5 Z0 F1200
G1 X44.489 Y4.518 Z0 F1200
G1 X43.992 Y4.571 Z0 F1200
G1 X43.513 Y4.657 Z0 F1200
G1 X43.054 Y4.775 Z0 F1200
G1 X42.617 Y4.922 Z0 F1200
G1 X42.204 Y5.098 Z0 F1200
G1 X41.82 Y5.299 Z0 F1200
G1 X41.464 Y5.525 Z0 F1200
G1 X41.142 Y5.774 Z0 F1200
G1 X40.854 Y6.043 Z0 F1200
G1 X40.603 Y6.332 Z0 F1200
G1 X40.393 Y6.638 Z0 F1200
G1 X40.225 Y6.959 Z0 F1200
G1 Z7 F800;         ; Raise from color
G1 X34 Y8 Z1 F1200;     ; Movement in paint
G1 X24 Y18 Z8 F500;     ; Move in paint
G1 F1200;           ; Set feed rate
G0 Z2 F1000 ; Safety Lift
;Scan @ 1500 mm/min, 90% power

M8
G0 Z3.5 F1000
G0 X63.584 Y53.048 Z3.5
G1 Z0 F1000
;Layer C1
G0 Z2 F500 ; Lift S=0
G1 X65.334 S0 F1600
G0 Z0 F500 ; Drop S>0
G1 X66.488 S900 F1600
G0 Z2 F500 ; Lift S=0
G1 X83.544 S0 F1600
G0 Z0 F500 ; Drop S>0
G1 X84.628 S900 F1600
G0 Z2 F500 ; Lift S=0
G1 X86.378 S0 F1600
G1 X87.57 Y53.948 Z2 F1600
; --- FIX X Backlash ---
G0 X85.67 Y53.948 F1200
G1 X83.92 Z2 F1600
G0 Z0 F500 ; Drop S>0
G1 X81.057 S900 F1600
G0 Z2 F500 ; Lift S=0
G1 X65.171 S0 F1600
G0 Z0 F500 ; Drop S>0
G1 X62.249 S900 F1600
G0 Z2 F500 ; Lift S=0
G1 X60.499 S0 F1600
G1 X58.565 Y54.848 Z2 F1600
; --- FIX X Backlash ---
G0 X60.465 Y54.848 F1200
G1 X62.215 Z2 F1600
G0 Z0 F500 ; Drop S>0
G1 X67.658 S900 F1600
G0 Z2 F500 ; Lift S=0
G1 X82.359 S0 F1600
G0 Z0 F500 ; Drop S>0
G1 X87.792 S900 F1600
G0 Z2 F500 ; Lift S=0
G1 X89.542 S0 F1600
G1 X89.764 Y55.748 Z2 F1600
; --- FIX X Backlash ---
G0 X87.864 Y55.748 F1200
G1 X86.114 Z2 F1600
G0 Z0 F500 ; Drop S>0
G1 X79.862 S900 F1600
G0 Z2 F500 ; Lift S=0
G1 X66.348 S0 F1600
G0 Z0 F500 ; Drop S>0
G1 X60.095 S900 F1600
G0 Z2 F500 ; Lift S=0
G1 X58.345 S0 F1600
; --- FIX X Backlash ---
G0 X60.245 Y55.748 F1200
G1 X60.756 Y56.648 Z2 F1600
G1 X62.506 Z2 F1600
G0 Z0 F500 ; Drop S>0
G1 X68.843 S900 F1600
G0 Z2 F500 ; Lift S=0
G1 X81.158 S0 F1600
G0 Z0 F500 ; Drop S>0
G1 X87.505 S900 F1600
G0 Z2 F500 ; Lift S=0
G1 X89.255 S0 F1600
; --- FIX X Backlash ---
G0 X87.355 Y56.648 F1200
G1 X86.844 Y57.548 Z2 F1600
G1 X85.094 Z2 F1600
G0 Z0 F500 ; Drop S>0
G1 X78.645 S900 F1600
G0 Z2 F500 ; Lift S=0
G1 X67.557 S0 F1600
G0 Z0 F500 ; Drop S>0
G1 X61.096 S900 F1600
G0 Z2 F500 ; Lift S=0
G1 X59.346 S0 F1600
; --- FIX X Backlash ---
G0 X61.246 Y57.548 F1200
G1 X61.752 Y58.448 Z2 F1600
G1 X63.502 Z2 F1600
G0 Z0 F500 ; Drop S>0
G1 X70.083 S900 F1600
G0 Z2 F500 ; Lift S=0
G1 X79.917 S0 F1600
G0 Z0 F500 ; Drop S>0
G1 X86.496 S900 F1600
G0 Z2 F500 ; Lift S=0
G1 X88.246 S0 F1600
; --- FIX X Backlash ---
G0 X86.346 Y58.448 F1200
G1 X85.864 Y59.348 Z2 F1600
G1 X84.114 Z2 F1600
G0 Z0 F500 ; Drop S>0
G1 X77.368 S900 F1600
G0 Z2 F500 ; Lift S=0
G1 X68.82 S0 F1600
G0 Z0 F500 ; Drop S>0
G1 X62.074 S900 F1600
G0 Z2 F500 ; Lift S=0
G1 X60.324 S0 F1600
; --- FIX X Backlash ---
G0 X62.224 Y59.348 F1200
G1 X62.7 Y60.248 Z2 F1600
G1 X64.45 Z2 F1600
G0 Z0 F500 ; Drop S>0
G1 X71.222 S900 F1600
G0 Z2 F500 ; Lift S=0
G1 X78.692 S0 F1600
G0 Z0 F500 ; Drop S>0
G1 X85.554 S900 F1600
G0 Z2 F500 ; Lift S=0
G1 X87.304 S0 F1600
; --- FIX X Backlash ---
G0 X85.404 Y60.248 F1200
G1 X84.953 Y61.148 Z2 F1600
G1 X83.203 Z2 F1600
G0 Z0 F500 ; Drop S>0
G1 X78.199 S900 F1600
G0 Z2 F500 ; Lift S=0
G1 X67.937 S0 F1600
G0 Z0 F500 ; Drop S>0
G1 X62.986 S900 F1600
G0 Z2 F500 ; Lift S=0
G1 X61.236 S0 F1600
; --- FIX X Backlash ---
G0 X63.136 Y61.148 F1200
G1 X63.567 Y62.048 Z2 F1600
G1 X65.317 Z2 F1600
G0 Z0 F500 ; Drop S>0
G1 X68.354 S900 F1600
G0 Z2 F500 ; Lift S=0
G1 X70.856 S0 F1600
G0 Z0 F500 ; Drop S>0
G1 X73.305 S900 F1600
G0 Z2 F500 ; Lift S=0
G1 X76.655 S0 F1600
G0 Z0 F500 ; Drop S>0
G1 X79.102 S900 F1600
G0 Z2 F500 ; Lift S=0
G1 X81.552 S0 F1600
G0 Z0 F500 ; Drop S>0
G1 X84.68 S900 F1600
G0 Z2 F500 ; Lift S=0
G1 X86.43 S0 F1600
; --- FIX X Backlash ---
G0 X84.53 Y62.048 F1200
G1 X84.103 Y62.948 Z2 F1600
G1 X82.353 Z2 F1600
G0 Z0 F500 ; Drop S>0
G1 X81.163 S900 F1600
G0 Z2 F500 ; Lift S=0
G1 X78.681 S0 F1600
G0 Z0 F500 ; Drop S>0
G1 X73.957 S900 F1600
G0 Z2 F500 ; Lift S=0
G1 X72.232 S0 F1600
G0 Z0 F500 ; Drop S>0
G1 X67.48 S900 F1600
G0 Z2 F500 ; Lift S=0
G1 X64.97 S0 F1600
G0 Z0 F500 ; Drop S>0
G1 X63.843 S900 F1600
G0 Z2 F500 ; Lift S=0
G1 X62.093 S0 F1600
; --- FIX X Backlash ---
G0 X63.993 Y62.948 F1200
G1 X66.135 Y63.848 Z2 F1600
G1 X67.885 Z2 F1600
G0 Z0 F500 ; Drop S>0
G1 X74.901 S900 F1600
G0 Z2 F500 ; Lift S=0
G1 X76.459 S0 F1600
G0 Z0 F500 ; Drop S>0
G1 X82.065 S900 F1600
G0 Z2 F500 ; Lift S=0
G1 X83.815 S0 F1600
G1 X85.213 Y64.748 Z2 F1600
; --- FIX X Backlash ---
G0 X83.313 Y64.748 F1200
G1 X81.563 Z2 F1600
G0 Z0 F500 ; Drop S>0
G1 X75.21 S900 F1600
G0 Z2 F500 ; Lift S=0
G1 X73.717 S0 F1600
G0 Z0 F500 ; Drop S>0
G1 X64.607 S900 F1600
G0 Z2 F500 ; Lift S=0

; Color picking sequence
G1 Z10 F1000;         ; Raise brush
G0 X41 Y5 F1200;    ; Rapid move to color 1
G1 Z10 F1000;         ; Raise brush
G0 X41 Y5 F1200;    ; Rapid move to color 1
G1 Z0 F1000;         ; Lower into color
G1 X40.102 Y7.295 Z0 S800 F1200
G1 X40.026 Y7.642 Z0 F1200
G1 X40 Y8 Z0 F1200
G1 X40.026 Y8.358 Z0 F1200
G1 X40.102 Y8.705 Z0 F1200
G1 X40.225 Y9.041 Z0 F1200
G1 X40.393 Y9.362 Z0 F1200
G1 X40.603 Y9.668 Z0 F1200
G1 X40.854 Y9.957 Z0 F1200
G1 X41.142 Y10.226 Z0 F1200
G1 X41.464 Y10.475 Z0 F1200
G1 X41.82 Y10.701 Z0 F1200
G1 X42.204 Y10.902 Z0 F1200
G1 X42.617 Y11.078 Z0 F1200
G1 X43.054 Y11.225 Z0 F1200
G1 X43.513 Y11.343 Z0 F1200
G1 X43.992 Y11.429 Z0 F1200
G1 X44.489 Y11.482 Z0 F1200
G1 X45 Y11.5 Z0 F1200
G1 X45.511 Y11.482 Z0 F1200
G1 X46.008 Y11.429 Z0 F1200
G1 X46.487 Y11.343 Z0 F1200
G1 X46.946 Y11.225 Z0 F1200
G1 X47.383 Y11.078 Z0 F1200
G1 X47.796 Y10.902 Z0 F1200
G1 X48.18 Y10.701 Z0 F1200
G1 X48.536 Y10.475 Z0 F1200
G1 X48.858 Y10.226 Z0 F1200
G1 X49.146 Y9.957 Z0 F1200
G1 X49.397 Y9.668 Z0 F1200
G1 X49.607 Y9.362 Z0 F1200
G1 X49.775 Y9.041 Z0 F1200
G1 X49.898 Y8.705 Z0 F1200
G1 X49.974 Y8.358 Z0 F1200
G1 X50 Y8 Z0 F1200
G1 X49.974 Y7.642 Z0 F1200
G1 X49.898 Y7.295 Z0 F1200
G1 X49.775 Y6.959 Z0 F1200
G1 X49.607 Y6.638 Z0 F1200
G1 X49.397 Y6.332 Z0 F1200
G1 X49.146 Y6.043 Z0 F1200
G1 X48.858 Y5.774 Z0 F1200
G1 X48.536 Y5.525 Z0 F1200
G1 X48.18 Y5.299 Z0 F1200
G1 X47.796 Y5.098 Z0 F1200
G1 X47.383 Y4.922 Z0 F1200
G1 X46.946 Y4.775 Z0 F1200
G1 X46.487 Y4.657 Z0 F1200
G1 X46.008 Y4.571 Z0 F1200
G1 X45.511 Y4.518 Z0 F1200
G1 X45 Y4.5 Z0 F1200
G1 X44.489 Y4.518 Z0 F1200
G1 X43.992 Y4.571 Z0 F1200
G1 X43.513 Y4.657 Z0 F1200
G1 X43.054 Y4.775 Z0 F1200
G1 X42.617 Y4.922 Z0 F1200
G1 X42.204 Y5.098 Z0 F1200
G1 X41.82 Y5.299 Z0 F1200
G1 X41.464 Y5.525 Z0 F1200
G1 X41.142 Y5.774 Z0 F1200
G1 X40.854 Y6.043 Z0 F1200
G1 X40.603 Y6.332 Z0 F1200
G1 X40.393 Y6.638 Z0 F1200
G1 X40.225 Y6.959 Z0 F1200
G1 Z7 F800;         ; Raise from color
G1 X34 Y8 Z1 F1200;     ; Movement in paint
G1 X24 Y18 Z8 F500;     ; Move in paint
G1 F1200;           ; Set feed rate
G0 Z2 F1000 ; Safety Lift
G0 X64.607 Y64.748 F1200 ; Return to pos
G1 X62.857 S0 F1600
; --- FIX X Backlash ---
G0 X64.757 Y64.748 F1200
G1 X64.976 Y65.648 Z2 F1600
G1 X66.726 Z2 F1600
G0 Z0 F500 ; Drop S>0
G1 X76.259 S900 F1600
G0 Z2 F500 ; Lift S=0
G1 X77.724 S0 F1600
G0 Z0 F500 ; Drop S>0
G1 X83.301 S900 F1600
G0 Z2 F500 ; Lift S=0
G1 X85.051 S0 F1600
; --- FIX X Backlash ---
G0 X83.151 Y65.648 F1200
G1 X82.852 Y66.548 Z2 F1600
G1 X81.102 Z2 F1600
G0 Z0 F500 ; Drop S>0
G1 X76.408 S900 F1600
G0 Z2 F500 ; Lift S=0
G1 X74.952 S0 F1600
G0 Z0 F500 ; Drop S>0
G1 X65.11 S900 F1600
G0 Z2 F500 ; Lift S=0
G1 X63.36 S0 F1600
; --- FIX X Backlash ---
G0 X65.26 Y66.548 F1200
G1 X65.564 Y67.448 Z2 F1600
G1 X67.314 Z2 F1600
G0 Z0 F500 ; Drop S>0
G1 X77.399 S900 F1600
G0 Z2 F500 ; Lift S=0
G1 X78.842 S0 F1600
G0 Z0 F500 ; Drop S>0
G1 X82.688 S900 F1600
G0 Z2 F500 ; Lift S=0
G1 X84.438 S0 F1600
; --- FIX X Backlash ---
G0 X82.538 Y67.448 F1200
G1 X82.199 Y68.348 Z2 F1600
G1 X80.449 Z2 F1600
G0 Z0 F500 ; Drop S>0
G1 X77.419 S900 F1600
G0 Z2 F500 ; Lift S=0
G1 X76.012 S0 F1600
G0 Z0 F500 ; Drop S>0
G1 X65.743 S900 F1600
G0 Z2 F500 ; Lift S=0
G1 X63.993 S0 F1600
; --- FIX X Backlash ---
G0 X65.893 Y68.348 F1200
G1 X66.265 Y69.248 Z2 F1600
G1 X68.015 Z2 F1600
G0 Z0 F500 ; Drop S>0
G1 X78.398 S900 F1600
G0 Z2 F500 ; Lift S=0
G1 X79.792 S0 F1600
G0 Z0 F500 ; Drop S>0
G1 X81.99 S900 F1600
G0 Z2 F500 ; Lift S=0
G1 X83.74 S0 F1600
; --- FIX X Backlash ---
G0 X81.84 Y69.248 F1200
G1 X81.473 Y70.148 Z2 F1600
G1 X79.723 Z2 F1600
G0 Z0 F500 ; Drop S>0
G1 X78.359 S900 F1600
G0 Z2 F500 ; Lift S=0
G1 X76.964 S0 F1600
G0 Z0 F500 ; Drop S>0
G1 X66.529 S900 F1600
G0 Z2 F500 ; Lift S=0
G1 X64.779 S0 F1600
; --- FIX X Backlash ---
G0 X66.679 Y70.148 F1200
G1 X67.139 Y71.048 Z2 F1600
G1 X68.889 Z2 F1600
G0 Z0 F500 ; Drop S>0
G1 X79.313 S900 F1600
G0 Z2 F500 ; Lift S=0
G1 X80.717 S0 F1600
G0 Z0 F500 ; Drop S>0
G1 X81.257 S900 F1600
G0 Z2 F500 ; Lift S=0
G1 X83.007 S0 F1600
; --- FIX X Backlash ---
G0 X81.107 Y71.048 F1200
G1 X79.596 Y71.948 Z2 F1600
G1 X77.846 Z2 F1600
G0 Z0 F500 ; Drop S>0
G1 X67.491 S900 F1600
G0 Z2 F500 ; Lift S=0
G1 X65.741 S0 F1600
; --- FIX X Backlash ---
G0 X67.641 Y71.948 F1200
G1 X68.183 Y72.848 Z2 F1600
G1 X69.933 Z2 F1600
G0 Z0 F500 ; Drop S>0
G1 X80.17 S900 F1600
G0 Z2 F500 ; Lift S=0
G1 X81.92 S0 F1600
G1 X82.336 Y73.748 Z2 F1600
; --- FIX X Backlash ---
G0 X80.436 Y73.748 F1200
G1 X78.686 Z2 F1600
G0 Z0 F500 ; Drop S>0
G1 X68.606 S900 F1600
G0 Z2 F500 ; Lift S=0
G1 X66.856 S0 F1600
G1 X65.386 Y74.648 Z2 F1600
; --- FIX X Backlash ---
G0 X67.286 Y74.648 F1200
G1 X69.036 Z2 F1600
G0 Z0 F500 ; Drop S>0
G1 X69.642 S900 F1600
G0 Z2 F500 ; Lift S=0
G1 X71.102 S0 F1600
G0 Z0 F500 ; Drop S>0
G1 X80.995 S900 F1600
G0 Z2 F500 ; Lift S=0
G1 X82.745 S0 F1600
G1 X83.147 Y75.548 Z2 F1600
; --- FIX X Backlash ---
G0 X81.247 Y75.548 F1200
G1 X79.497 Z2 F1600
G0 Z0 F500 ; Drop S>0
G1 X69.817 S900 F1600
G0 Z2 F500 ; Lift S=0
G1 X68.304 S0 F1600
G0 Z0 F500 ; Drop S>0
G1 X66.719 S900 F1600
G0 Z2 F500 ; Lift S=0
G1 X64.969 S0 F1600
G1 X64.565 Y76.448 Z2 F1600
; --- FIX X Backlash ---
G0 X66.465 Y76.448 F1200
G1 X68.215 Z2 F1600
G0 Z0 F500 ; Drop S>0
G1 X70.808 S900 F1600
G0 Z2 F500 ; Lift S=0
G1 X72.344 S0 F1600
G0 Z0 F500 ; Drop S>0
G1 X81.796 S900 F1600
G0 Z2 F500 ; Lift S=0

; Color picking sequence
G1 Z10 F1000;         ; Raise brush
G0 X41 Y5 F1200;    ; Rapid move to color 1
G1 Z10 F1000;         ; Raise brush
G0 X41 Y5 F1200;    ; Rapid move to color 1
G1 Z0 F1000;         ; Lower into color
G1 X40.102 Y7.295 Z0 S800 F1200
G1 X40.026 Y7.642 Z0 F1200
G1 X40 Y8 Z0 F1200
G1 X40.026 Y8.358 Z0 F1200
G1 X40.102 Y8.705 Z0 F1200
G1 X40.225 Y9.041 Z0 F1200
G1 X40.393 Y9.362 Z0 F1200
G1 X40.603 Y9.668 Z0 F1200
G1 X40.854 Y9.957 Z0 F1200
G1 X41.142 Y10.226 Z0 F1200
G1 X41.464 Y10.475 Z0 F1200
G1 X41.82 Y10.701 Z0 F1200
G1 X42.204 Y10.902 Z0 F1200
G1 X42.617 Y11.078 Z0 F1200
G1 X43.054 Y11.225 Z0 F1200
G1 X43.513 Y11.343 Z0 F1200
G1 X43.992 Y11.429 Z0 F1200
G1 X44.489 Y11.482 Z0 F1200
G1 X45 Y11.5 Z0 F1200
G1 X45.511 Y11.482 Z0 F1200
G1 X46.008 Y11.429 Z0 F1200
G1 X46.487 Y11.343 Z0 F1200
G1 X46.946 Y11.225 Z0 F1200
G1 X47.383 Y11.078 Z0 F1200
G1 X47.796 Y10.902 Z0 F1200
G1 X48.18 Y10.701 Z0 F1200
G1 X48.536 Y10.475 Z0 F1200
G1 X48.858 Y10.226 Z0 F1200
G1 X49.146 Y9.957 Z0 F1200
G1 X49.397 Y9.668 Z0 F1200
G1 X49.607 Y9.362 Z0 F1200
G1 X49.775 Y9.041 Z0 F1200
G1 X49.898 Y8.705 Z0 F1200
G1 X49.974 Y8.358 Z0 F1200
G1 X50 Y8 Z0 F1200
G1 X49.974 Y7.642 Z0 F1200
G1 X49.898 Y7.295 Z0 F1200
G1 X49.775 Y6.959 Z0 F1200
G1 X49.607 Y6.638 Z0 F1200
G1 X49.397 Y6.332 Z0 F1200
G1 X49.146 Y6.043 Z0 F1200
G1 X48.858 Y5.774 Z0 F1200
G1 X48.536 Y5.525 Z0 F1200
G1 X48.18 Y5.299 Z0 F1200
G1 X47.796 Y5.098 Z0 F1200
G1 X47.383 Y4.922 Z0 F1200
G1 X46.946 Y4.775 Z0 F1200
G1 X46.487 Y4.657 Z0 F1200
G1 X46.008 Y4.571 Z0 F1200
G1 X45.511 Y4.518 Z0 F1200
G1 X45 Y4.5 Z0 F1200
G1 X44.489 Y4.518 Z0 F1200
G1 X43.992 Y4.571 Z0 F1200
G1 X43.513 Y4.657 Z0 F1200
G1 X43.054 Y4.775 Z0 F1200
G1 X42.617 Y4.922 Z0 F1200
G1 X42.204 Y5.098 Z0 F1200
G1 X41.82 Y5.299 Z0 F1200
G1 X41.464 Y5.525 Z0 F1200
G1 X41.142 Y5.774 Z0 F1200
G1 X40.854 Y6.043 Z0 F1200
G1 X40.603 Y6.332 Z0 F1200
G1 X40.393 Y6.638 Z0 F1200
G1 X40.225 Y6.959 Z0 F1200
G1 Z7 F800;         ; Raise from color
G1 X34 Y8 Z1 F1200;     ; Movement in paint
G1 X24 Y18 Z8 F500;     ; Move in paint
G1 F1200;           ; Set feed rate
G0 Z2 F1000 ; Safety Lift
G0 X81.796 Y76.448 F1200 ; Return to pos
G1 X83.546 S0 F1600
G1 X83.945 Y77.348 Z2 F1600
; --- FIX X Backlash ---
G0 X82.045 Y77.348 F1200
G1 X80.295 Z2 F1600
G0 Z0 F500 ; Drop S>0
G1 X71.076 S900 F1600
G0 Z2 F500 ; Lift S=0
G1 X69.528 S0 F1600
G0 Z0 F500 ; Drop S>0
G1 X65.915 S900 F1600
G0 Z2 F500 ; Lift S=0
G1 X64.165 S0 F1600
G1 X63.764 Y78.248 Z2 F1600
; --- FIX X Backlash ---
G0 X65.664 Y78.248 F1200
G1 X67.414 Z2 F1600
G0 Z0 F500 ; Drop S>0
G1 X72.058 S900 F1600
G0 Z2 F500 ; Lift S=0
G1 X73.608 S0 F1600
G0 Z0 F500 ; Drop S>0
G1 X82.594 S900 F1600
G0 Z2 F500 ; Lift S=0
G1 X84.344 S0 F1600
G1 X84.743 Y79.148 Z2 F1600
; --- FIX X Backlash ---
G0 X82.843 Y79.148 F1200
G1 X81.093 Z2 F1600
G0 Z0 F500 ; Drop S>0
G1 X72.339 S900 F1600
G0 Z2 F500 ; Lift S=0
G1 X70.792 S0 F1600
G0 Z0 F500 ; Drop S>0
G1 X65.129 S900 F1600
G0 Z2 F500 ; Lift S=0
G1 X63.379 S0 F1600
G1 X62.981 Y80.048 Z2 F1600
; --- FIX X Backlash ---
G0 X64.881 Y80.048 F1200
G1 X66.631 Z2 F1600
G0 Z0 F500 ; Drop S>0
G1 X73.324 S900 F1600
G0 Z2 F500 ; Lift S=0
G1 X74.87 S0 F1600
G0 Z0 F500 ; Drop S>0
G1 X83.394 S900 F1600
G0 Z2 F500 ; Lift S=0
G1 X85.144 S0 F1600
G1 X85.539 Y80.948 Z2 F1600
; --- FIX X Backlash ---
G0 X83.639 Y80.948 F1200
G1 X81.889 Z2 F1600
G0 Z0 F500 ; Drop S>0
G1 X73.607 S900 F1600
G0 Z2 F500 ; Lift S=0
G1 X72.036 S0 F1600
G0 Z0 F500 ; Drop S>0
G1 X64.329 S900 F1600
G0 Z2 F500 ; Lift S=0
G1 X62.579 S0 F1600
G1 X62.183 Y81.848 Z2 F1600
; --- FIX X Backlash ---
G0 X64.083 Y81.848 F1200
G1 X65.833 Z2 F1600
G0 Z0 F500 ; Drop S>0
G1 X73.794 S900 F1600
G0 Z2 F500 ; Lift S=0
G1 X76.145 S0 F1600
G0 Z0 F500 ; Drop S>0
G1 X84.184 S900 F1600
G0 Z2 F500 ; Lift S=0
G1 X85.934 S0 F1600
G1 X86.328 Y82.748 Z2 F1600
; --- FIX X Backlash ---
G0 X84.428 Y82.748 F1200
G1 X82.678 Z2 F1600
G0 Z0 F500 ; Drop S>0
G1 X74.888 S900 F1600
G0 Z2 F500 ; Lift S=0
G1 X71.254 S0 F1600
G0 Z0 F500 ; Drop S>0
G1 X63.536 S900 F1600
G0 Z2 F500 ; Lift S=0
G1 X61.786 S0 F1600
G1 X61.389 Y83.648 Z2 F1600
; --- FIX X Backlash ---
G0 X63.289 Y83.648 F1200
G1 X65.039 Z2 F1600
G0 Z0 F500 ; Drop S>0
G1 X72.504 S900 F1600
G0 Z2 F500 ; Lift S=0
G1 X77.439 S0 F1600
G0 Z0 F500 ; Drop S>0
G1 X84.973 S900 F1600
G0 Z2 F500 ; Lift S=0
G1 X86.723 S0 F1600
G1 X87.118 Y84.548 Z2 F1600
; --- FIX X Backlash ---
G0 X85.218 Y84.548 F1200
G1 X83.468 Z2 F1600
G0 Z0 F500 ; Drop S>0
G1 X76.195 S900 F1600
G0 Z2 F500 ; Lift S=0
G1 X69.963 S0 F1600
G0 Z0 F500 ; Drop S>0
G1 X62.743 S900 F1600
G0 Z2 F500 ; Lift S=0
G1 X60.993 S0 F1600
G1 X60.594 Y85.448 Z2 F1600
; --- FIX X Backlash ---
G0 X62.494 Y85.448 F1200
G1 X64.244 Z2 F1600
G0 Z0 F500 ; Drop S>0
G1 X71.225 S900 F1600
G0 Z2 F500 ; Lift S=0
G1 X78.743 S0 F1600
G0 Z0 F500 ; Drop S>0
G1 X85.762 S900 F1600
G0 Z2 F500 ; Lift S=0
G1 X87.512 S0 F1600
G1 X87.907 Y86.348 Z2 F1600
; --- FIX X Backlash ---
G0 X86.007 Y86.348 F1200
G1 X84.257 Z2 F1600
G0 Z0 F500 ; Drop S>0
G1 X77.487 S900 F1600
G0 Z2 F500 ; Lift S=0

; Color picking sequence
G1 Z10 F1000;         ; Raise brush
G0 X41 Y5 F1200;    ; Rapid move to color 1
G1 Z10 F1000;         ; Raise brush
G0 X41 Y5 F1200;    ; Rapid move to color 1
G1 Z0 F1000;         ; Lower into color
G1 X40.102 Y7.295 Z0 S800 F1200
G1 X40.026 Y7.642 Z0 F1200
G1 X40 Y8 Z0 F1200
G1 X40.026 Y8.358 Z0 F1200
G1 X40.102 Y8.705 Z0 F1200
G1 X40.225 Y9.041 Z0 F1200
G1 X40.393 Y9.362 Z0 F1200
G1 X40.603 Y9.668 Z0 F1200
G1 X40.854 Y9.957 Z0 F1200
G1 X41.142 Y10.226 Z0 F1200
G1 X41.464 Y10.475 Z0 F1200
G1 X41.82 Y10.701 Z0 F1200
G1 X42.204 Y10.902 Z0 F1200
G1 X42.617 Y11.078 Z0 F1200
G1 X43.054 Y11.225 Z0 F1200
G1 X43.513 Y11.343 Z0 F1200
G1 X43.992 Y11.429 Z0 F1200
G1 X44.489 Y11.482 Z0 F1200
G1 X45 Y11.5 Z0 F1200
G1 X45.511 Y11.482 Z0 F1200
G1 X46.008 Y11.429 Z0 F1200
G1 X46.487 Y11.343 Z0 F1200
G1 X46.946 Y11.225 Z0 F1200
G1 X47.383 Y11.078 Z0 F1200
G1 X47.796 Y10.902 Z0 F1200
G1 X48.18 Y10.701 Z0 F1200
G1 X48.536 Y10.475 Z0 F1200
G1 X48.858 Y10.226 Z0 F1200
G1 X49.146 Y9.957 Z0 F1200
G1 X49.397 Y9.668 Z0 F1200
G1 X49.607 Y9.362 Z0 F1200
G1 X49.775 Y9.041 Z0 F1200
G1 X49.898 Y8.705 Z0 F1200
G1 X49.974 Y8.358 Z0 F1200
G1 X50 Y8 Z0 F1200
G1 X49.974 Y7.642 Z0 F1200
G1 X49.898 Y7.295 Z0 F1200
G1 X49.775 Y6.959 Z0 F1200
G1 X49.607 Y6.638 Z0 F1200
G1 X49.397 Y6.332 Z0 F1200
G1 X49.146 Y6.043 Z0 F1200
G1 X48.858 Y5.774 Z0 F1200
G1 X48.536 Y5.525 Z0 F1200
G1 X48.18 Y5.299 Z0 F1200
G1 X47.796 Y5.098 Z0 F1200
G1 X47.383 Y4.922 Z0 F1200
G1 X46.946 Y4.775 Z0 F1200
G1 X46.487 Y4.657 Z0 F1200
G1 X46.008 Y4.571 Z0 F1200
G1 X45.511 Y4.518 Z0 F1200
G1 X45 Y4.5 Z0 F1200
G1 X44.489 Y4.518 Z0 F1200
G1 X43.992 Y4.571 Z0 F1200
G1 X43.513 Y4.657 Z0 F1200
G1 X43.054 Y4.775 Z0 F1200
G1 X42.617 Y4.922 Z0 F1200
G1 X42.204 Y5.098 Z0 F1200
G1 X41.82 Y5.299 Z0 F1200
G1 X41.464 Y5.525 Z0 F1200
G1 X41.142 Y5.774 Z0 F1200
G1 X40.854 Y6.043 Z0 F1200
G1 X40.603 Y6.332 Z0 F1200
G1 X40.393 Y6.638 Z0 F1200
G1 X40.225 Y6.959 Z0 F1200
G1 Z7 F800;         ; Raise from color
G1 X34 Y8 Z1 F1200;     ; Movement in paint
G1 X24 Y18 Z8 F500;     ; Move in paint
G1 F1200;           ; Set feed rate
G0 Z2 F1000 ; Safety Lift
G0 X77.487 Y86.348 F1200 ; Return to pos
G1 X68.683 S0 F1600
G0 Z0 F500 ; Drop S>0
G1 X61.944 S900 F1600
G0 Z2 F500 ; Lift S=0
G1 X60.194 S0 F1600
G1 X59.798 Y87.248 Z2 F1600
; --- FIX X Backlash ---
G0 X61.698 Y87.248 F1200
G1 X63.448 Z2 F1600
G0 Z0 F500 ; Drop S>0
G1 X69.942 S900 F1600
G0 Z2 F500 ; Lift S=0
G1 X80.032 S0 F1600
G0 Z0 F500 ; Drop S>0
G1 X86.551 S900 F1600
G0 Z2 F500 ; Lift S=0
G1 X88.301 S0 F1600
G1 X88.694 Y88.148 Z2 F1600
; --- FIX X Backlash ---
G0 X86.794 Y88.148 F1200
G1 X85.044 Z2 F1600
G0 Z0 F500 ; Drop S>0
G1 X78.777 S900 F1600
G0 Z2 F500 ; Lift S=0
G1 X67.4 S0 F1600
G0 Z0 F500 ; Drop S>0
G1 X61.152 S900 F1600
G0 Z2 F500 ; Lift S=0
G1 X59.402 S0 F1600
G1 X59.006 Y89.048 Z2 F1600
; --- FIX X Backlash ---
G0 X60.906 Y89.048 F1200
G1 X62.656 Z2 F1600
G0 Z0 F500 ; Drop S>0
G1 X68.658 S900 F1600
G0 Z2 F500 ; Lift S=0
G1 X81.322 S0 F1600
G0 Z0 F500 ; Drop S>0
G1 X87.338 S900 F1600
G0 Z2 F500 ; Lift S=0
G1 X89.088 S0 F1600
G1 X89.482 Y89.948 Z2 F1600
; --- FIX X Backlash ---
G0 X87.582 Y89.948 F1200
G1 X85.832 Z2 F1600
G0 Z0 F500 ; Drop S>0
G1 X80.067 S900 F1600
G0 Z2 F500 ; Lift S=0
G1 X66.118 S0 F1600
G0 Z0 F500 ; Drop S>0
G1 X60.364 S900 F1600
G0 Z2 F500 ; Lift S=0
G1 X58.614 S0 F1600
G1 X58.219 Y90.848 Z2 F1600
; --- FIX X Backlash ---
G0 X60.119 Y90.848 F1200
G1 X61.869 Z2 F1600
G0 Z0 F500 ; Drop S>0
G1 X67.384 S900 F1600
G0 Z2 F500 ; Lift S=0
G1 X82.611 S0 F1600
G0 Z0 F500 ; Drop S>0
G1 X88.126 S900 F1600
G0 Z2 F500 ; Lift S=0
G1 X89.876 S0 F1600
G1 X90.27 Y91.748 Z2 F1600
; --- FIX X Backlash ---
G0 X88.37 Y91.748 F1200
G1 X86.62 Z2 F1600
G0 Z0 F500 ; Drop S>0
G1 X81.355 S900 F1600
G0 Z2 F500 ; Lift S=0
G1 X64.849 S0 F1600
G0 Z0 F500 ; Drop S>0
G1 X59.566 S900 F1600
G0 Z2 F500 ; Lift S=0
G1 X57.816 S0 F1600
G1 X57.42 Y92.648 Z2 F1600
; --- FIX X Backlash ---
G0 X59.32 Y92.648 F1200
G1 X61.07 Z2 F1600
G0 Z0 F500 ; Drop S>0
G1 X66.112 S900 F1600
G0 Z2 F500 ; Lift S=0
G1 X83.899 S0 F1600
G0 Z0 F500 ; Drop S>0
G1 X88.915 S900 F1600
G0 Z2 F500 ; Lift S=0
G1 X90.665 S0 F1600
G1 X91.059 Y93.548 Z2 F1600
; --- FIX X Backlash ---
G0 X89.159 Y93.548 F1200
G1 X87.409 Z2 F1600
G0 Z0 F500 ; Drop S>0
G1 X82.642 S900 F1600
G0 Z2 F500 ; Lift S=0
G1 X63.575 S0 F1600
G0 Z0 F500 ; Drop S>0
G1 X58.778 S900 F1600
G0 Z2 F500 ; Lift S=0
G1 X57.028 S0 F1600
G1 X56.635 Y94.448 Z2 F1600
; --- FIX X Backlash ---
G0 X58.535 Y94.448 F1200
G1 X60.285 Z2 F1600
G0 Z0 F500 ; Drop S>0
G1 X64.838 S900 F1600
G0 Z2 F500 ; Lift S=0
G1 X85.185 S0 F1600
G0 Z0 F500 ; Drop S>0
G1 X89.704 S900 F1600
G0 Z2 F500 ; Lift S=0
G1 X91.454 S0 F1600
G1 X91.851 Y95.348 Z2 F1600
; --- FIX X Backlash ---
G0 X89.951 Y95.348 F1200
G1 X88.201 Z2 F1600
G0 Z0 F500 ; Drop S>0
G1 X83.921 S900 F1600
G0 Z2 F500 ; Lift S=0
G1 X62.302 S0 F1600
G0 Z0 F500 ; Drop S>0
G1 X57.992 S900 F1600
G0 Z2 F500 ; Lift S=0
G1 X56.242 S0 F1600
G1 X55.845 Y96.248 Z2 F1600
; --- FIX X Backlash ---
G0 X57.745 Y96.248 F1200
G1 X59.495 Z2 F1600
G0 Z0 F500 ; Drop S>0
G1 X63.57 S900 F1600
G0 Z2 F500 ; Lift S=0
G1 X86.45 S0 F1600
G0 Z0 F500 ; Drop S>0
G1 X90.5 S900 F1600
G0 Z2 F500 ; Lift S=0
G1 X92.25 S0 F1600
G1 X92.636 Y97.148 Z2 F1600
; --- FIX X Backlash ---
G0 X90.736 Y97.148 F1200
G1 X88.986 Z2 F1600
G0 Z0 F500 ; Drop S>0
G1 X85.184 S900 F1600
G0 Z2 F500 ; Lift S=0
G1 X61.042 S0 F1600
G0 Z0 F500 ; Drop S>0
G1 X57.216 S900 F1600
G0 Z2 F500 ; Lift S=0
G1 X55.466 S0 F1600
G1 X55.095 Y98.048 Z2 F1600
; --- FIX X Backlash ---
G0 X56.995 Y98.048 F1200
G1 X58.745 Z2 F1600
G0 Z0 F500 ; Drop S>0
G1 X62.318 S900 F1600
G0 Z2 F500 ; Lift S=0
G1 X87.717 S0 F1600
G0 Z0 F500 ; Drop S>0
G1 X91.284 S900 F1600
G0 Z2 F500 ; Lift S=0
G1 X93.034 S0 F1600
G1 X93.424 Y98.948 Z2 F1600
; --- FIX X Backlash ---
G0 X91.524 Y98.948 F1200
G1 X89.774 Z2 F1600
G0 Z0 F500 ; Drop S>0
G1 X86.447 S900 F1600
G0 Z2 F500 ; Lift S=0
G1 X59.789 S0 F1600
G0 Z0 F500 ; Drop S>0
G1 X56.444 S900 F1600
G0 Z2 F500 ; Lift S=0
G1 X54.694 S0 F1600
G1 X54.306 Y99.848 Z2 F1600
; --- FIX X Backlash ---
G0 X56.206 Y99.848 F1200
G1 X57.956 Z2 F1600
G0 Z0 F500 ; Drop S>0
G1 X61.056 S900 F1600
G0 Z2 F500 ; Lift S=0
G1 X88.972 S0 F1600
G0 Z0 F500 ; Drop S>0
G1 X92.059 S900 F1600
G0 Z2 F500 ; Lift S=0

; Color picking sequence
G1 Z10 F1000;         ; Raise brush
G0 X41 Y5 F1200;    ; Rapid move to color 1
G1 Z10 F1000;         ; Raise brush
G0 X41 Y5 F1200;    ; Rapid move to color 1
G1 Z0 F1000;         ; Lower into color
G1 X40.102 Y7.295 Z0 S800 F1200
G1 X40.026 Y7.642 Z0 F1200
G1 X40 Y8 Z0 F1200
G1 X40.026 Y8.358 Z0 F1200
G1 X40.102 Y8.705 Z0 F1200
G1 X40.225 Y9.041 Z0 F1200
G1 X40.393 Y9.362 Z0 F1200
G1 X40.603 Y9.668 Z0 F1200
G1 X40.854 Y9.957 Z0 F1200
G1 X41.142 Y10.226 Z0 F1200
G1 X41.464 Y10.475 Z0 F1200
G1 X41.82 Y10.701 Z0 F1200
G1 X42.204 Y10.902 Z0 F1200
G1 X42.617 Y11.078 Z0 F1200
G1 X43.054 Y11.225 Z0 F1200
G1 X43.513 Y11.343 Z0 F1200
G1 X43.992 Y11.429 Z0 F1200
G1 X44.489 Y11.482 Z0 F1200
G1 X45 Y11.5 Z0 F1200
G1 X45.511 Y11.482 Z0 F1200
G1 X46.008 Y11.429 Z0 F1200
G1 X46.487 Y11.343 Z0 F1200
G1 X46.946 Y11.225 Z0 F1200
G1 X47.383 Y11.078 Z0 F1200
G1 X47.796 Y10.902 Z0 F1200
G1 X48.18 Y10.701 Z0 F1200
G1 X48.536 Y10.475 Z0 F1200
G1 X48.858 Y10.226 Z0 F1200
G1 X49.146 Y9.957 Z0 F1200
G1 X49.397 Y9.668 Z0 F1200
G1 X49.607 Y9.362 Z0 F1200
G1 X49.775 Y9.041 Z0 F1200
G1 X49.898 Y8.705 Z0 F1200
G1 X49.974 Y8.358 Z0 F1200
G1 X50 Y8 Z0 F1200
G1 X49.974 Y7.642 Z0 F1200
G1 X49.898 Y7.295 Z0 F1200
G1 X49.775 Y6.959 Z0 F1200
G1 X49.607 Y6.638 Z0 F1200
G1 X49.397 Y6.332 Z0 F1200
G1 X49.146 Y6.043 Z0 F1200
G1 X48.858 Y5.774 Z0 F1200
G1 X48.536 Y5.525 Z0 F1200
G1 X48.18 Y5.299 Z0 F1200
G1 X47.796 Y5.098 Z0 F1200
G1 X47.383 Y4.922 Z0 F1200
G1 X46.946 Y4.775 Z0 F1200
G1 X46.487 Y4.657 Z0 F1200
G1 X46.008 Y4.571 Z0 F1200
G1 X45.511 Y4.518 Z0 F1200
G1 X45 Y4.5 Z0 F1200
G1 X44.489 Y4.518 Z0 F1200
G1 X43.992 Y4.571 Z0 F1200
G1 X43.513 Y4.657 Z0 F1200
G1 X43.054 Y4.775 Z0 F1200
G1 X42.617 Y4.922 Z0 F1200
G1 X42.204 Y5.098 Z0 F1200
G1 X41.82 Y5.299 Z0 F1200
G1 X41.464 Y5.525 Z0 F1200
G1 X41.142 Y5.774 Z0 F1200
G1 X40.854 Y6.043 Z0 F1200
G1 X40.603 Y6.332 Z0 F1200
G1 X40.393 Y6.638 Z0 F1200
G1 X40.225 Y6.959 Z0 F1200
G1 Z7 F800;         ; Raise from color
G1 X34 Y8 Z1 F1200;     ; Movement in paint
G1 X24 Y18 Z8 F500;     ; Move in paint
G1 F1200;           ; Set feed rate
G0 Z2 F1000 ; Safety Lift
G0 X92.059 Y99.848 F1200 ; Return to pos
G1 X93.809 S0 F1600
G1 X94.194 Y100.748 Z2 F1600
; --- FIX X Backlash ---
G0 X92.294 Y100.748 F1200
G1 X90.544 Z2 F1600
G0 Z0 F500 ; Drop S>0
G1 X87.696 S900 F1600
G0 Z2 F500 ; Lift S=0
G1 X58.522 S0 F1600
G0 Z0 F500 ; Drop S>0
G1 X55.668 S900 F1600
G0 Z2 F500 ; Lift S=0
G1 X53.918 S0 F1600
G1 X53.534 Y101.648 Z2 F1600
; --- FIX X Backlash ---
G0 X55.434 Y101.648 F1200
G1 X57.184 Z2 F1600
G0 Z0 F500 ; Drop S>0
G1 X59.795 S900 F1600
G0 Z2 F500 ; Lift S=0
G1 X90.223 S0 F1600
G0 Z0 F500 ; Drop S>0
G1 X92.829 S900 F1600
G0 Z2 F500 ; Lift S=0
G1 X94.579 S0 F1600
G1 X94.964 Y102.548 Z2 F1600
; --- FIX X Backlash ---
G0 X93.064 Y102.548 F1200
G1 X91.314 Z2 F1600
G0 Z0 F500 ; Drop S>0
G1 X88.947 S900 F1600
G0 Z2 F500 ; Lift S=0
G1 X57.271 S0 F1600
G0 Z0 F500 ; Drop S>0
G1 X54.9 S900 F1600
G0 Z2 F500 ; Lift S=0
G1 X53.15 S0 F1600
G1 X52.768 Y103.448 Z2 F1600
; --- FIX X Backlash ---
G0 X54.668 Y103.448 F1200
G1 X56.418 Z2 F1600
G0 Z0 F500 ; Drop S>0
G1 X58.547 S900 F1600
G0 Z2 F500 ; Lift S=0
G1 X91.472 S0 F1600
G0 Z0 F500 ; Drop S>0
G1 X93.597 S900 F1600
G0 Z2 F500 ; Lift S=0
G1 X95.347 S0 F1600
G1 X95.723 Y104.348 Z2 F1600
; --- FIX X Backlash ---
G0 X93.823 Y104.348 F1200
G1 X92.073 Z2 F1600
G0 Z0 F500 ; Drop S>0
G1 X90.202 S900 F1600
G0 Z2 F500 ; Lift S=0
G1 X56.021 S0 F1600
G0 Z0 F500 ; Drop S>0
G1 X54.136 S900 F1600
G0 Z2 F500 ; Lift S=0
G1 X52.386 S0 F1600
G1 X52.004 Y105.248 Z2 F1600
; --- FIX X Backlash ---
G0 X53.904 Y105.248 F1200
G1 X55.654 Z2 F1600
G0 Z0 F500 ; Drop S>0
G1 X57.291 S900 F1600
G0 Z2 F500 ; Lift S=0
G1 X92.719 S0 F1600
G0 Z0 F500 ; Drop S>0
G1 X94.338 S900 F1600
G0 Z2 F500 ; Lift S=0
G1 X96.088 S0 F1600
G1 X96.416 Y106.148 Z2 F1600
; --- FIX X Backlash ---
G0 X94.516 Y106.148 F1200
G1 X92.766 Z2 F1600
G0 Z0 F500 ; Drop S>0
G1 X91.443 S900 F1600
G0 Z2 F500 ; Lift S=0
G1 X54.729 S0 F1600
G0 Z0 F500 ; Drop S>0
G1 X53.46 S900 F1600
G0 Z2 F500 ; Lift S=0
G1 X51.71 S0 F1600

; Washing sequence (no color)
G1 Z10 F1000;        ; Raise brush
G0 X5 Y5 F1200;     ; Rapid move to clean
G1 Z-1 F800;         ; Lower brush
G1 X10 Y12 Z8 F1200;     ; Move
G1 Z-1 F800;         ; Lower
G1 X25 Y14 Z6 F800;     ; Move
G1 Z8 F800;         ; Maintain
G0 X5 Y5 F1200;     ; Rapid
G1 Z-1 F800;         ; Lower
G1 X15 Y12 Z8 F1200;     ; Move
G1 Z-1 F800;         ; Lower
G1 X25 Y14 Z6 F800;     ; Move
G1 Z10 F800;         ; Maintain
G1 F1200;           ; Set feed
G0 Z2 F1000 ; Safety Lift

; Color picking sequence
G1 Z10 F1000;         ; Raise brush
G0 X86 Y5 F1200;    ; Rapid move to color 1
G1 Z10 F1000;         ; Raise brush
G0 X86 Y5 F1200;    ; Rapid move to color 1
G1 Z0 F1000;         ; Lower into color
G1 X85.102 Y7.295 Z0 S800 F1200
G1 X85.026 Y7.642 Z0 F1200
G1 X85 Y8 Z0 F1200
G1 X85.026 Y8.358 Z0 F1200
G1 X85.102 Y8.705 Z0 F1200
G1 X85.225 Y9.041 Z0 F1200
G1 X85.393 Y9.362 Z0 F1200
G1 X85.603 Y9.668 Z0 F1200
G1 X85.854 Y9.957 Z0 F1200
G1 X86.142 Y10.226 Z0 F1200
G1 X86.464 Y10.475 Z0 F1200
G1 X86.82 Y10.701 Z0 F1200
G1 X87.204 Y10.902 Z0 F1200
G1 X87.617 Y11.078 Z0 F1200
G1 X88.054 Y11.225 Z0 F1200
G1 X88.513 Y11.343 Z0 F1200
G1 X88.992 Y11.429 Z0 F1200
G1 X89.489 Y11.482 Z0 F1200
G1 X90 Y11.5 Z0 F1200
G1 X90.511 Y11.482 Z0 F1200
G1 X91.008 Y11.429 Z0 F1200
G1 X91.487 Y11.343 Z0 F1200
G1 X91.946 Y11.225 Z0 F1200
G1 X92.383 Y11.078 Z0 F1200
G1 X92.796 Y10.902 Z0 F1200
G1 X93.18 Y10.701 Z0 F1200
G1 X93.536 Y10.475 Z0 F1200
G1 X93.858 Y10.226 Z0 F1200
G1 X94.146 Y9.957 Z0 F1200
G1 X94.397 Y9.668 Z0 F1200
G1 X94.607 Y9.362 Z0 F1200
G1 X94.775 Y9.041 Z0 F1200
G1 X94.898 Y8.705 Z0 F1200
G1 X94.974 Y8.358 Z0 F1200
G1 X95 Y8 Z0 F1200
G1 X94.974 Y7.642 Z0 F1200
G1 X94.898 Y7.295 Z0 F1200
G1 X94.775 Y6.959 Z0 F1200
G1 X94.607 Y6.638 Z0 F1200
G1 X94.397 Y6.332 Z0 F1200
G1 X94.146 Y6.043 Z0 F1200
G1 X93.858 Y5.774 Z0 F1200
G1 X93.536 Y5.525 Z0 F1200
G1 X93.18 Y5.299 Z0 F1200
G1 X92.796 Y5.098 Z0 F1200
G1 X92.383 Y4.922 Z0 F1200
G1 X91.946 Y4.775 Z0 F1200
G1 X91.487 Y4.657 Z0 F1200
G1 X91.008 Y4.571 Z0 F1200
G1 X90.511 Y4.518 Z0 F1200
G1 X90 Y4.5 Z0 F1200
G1 X89.489 Y4.518 Z0 F1200
G1 X88.992 Y4.571 Z0 F1200
G1 X88.513 Y4.657 Z0 F1200
G1 X88.054 Y4.775 Z0 F1200
G1 X87.617 Y4.922 Z0 F1200
G1 X87.204 Y5.098 Z0 F1200
G1 X86.82 Y5.299 Z0 F1200
G1 X86.464 Y5.525 Z0 F1200
G1 X86.142 Y5.774 Z0 F1200
G1 X85.854 Y6.043 Z0 F1200
G1 X85.603 Y6.332 Z0 F1200
G1 X85.393 Y6.638 Z0 F1200
G1 X85.225 Y6.959 Z0 F1200
G1 Z7 F800;         ; Raise from color
G1 X79 Y8 Z1 F1200;     ; Movement in paint
G1 X69 Y18 Z8 F500;     ; Move in paint
G1 F1200;           ; Set feed rate
G0 Z2 F1000 ; Safety Lift
;Offset @ 1500 mm/min, 90% power

M8
G0 Z3.5 F1000
; --- FIX X Backlash ---
G0 X53.61 Y106.148 F1200
; --- FIX Y Backlash ---
G0 X53.61 Y104.348 F1200
G0 X55.579 Y41.724 Z3.5 F1500
G1 Z0 F1000
;Layer C2
; --- FIX Y Backlash ---
G0 X55.579 Y43.524 F1200
G1 X55.623 Y43.891 Z0 S900 F1600
G1 X55.75 Y44.701 Z0 F1600
G1 X55.912 Y45.48 Z0 F1600
G1 X56.167 Y46.427 Z0 F1600
G1 X56.454 Y47.333 Z0 F1600
G1 X56.777 Y48.209 Z0 F1600
G1 X57.14 Y49.061 Z0 F1600
G1 X57.542 Y49.889 Z0 F1600
G1 X57.986 Y50.7 Z0 F1600
G1 X58.475 Y51.498 Z0 F1600
G1 X59.006 Y52.284 Z0 F1600
G1 X59.431 Y52.866 Z0 F1600
; --- FIX X Backlash ---
G0 X57.531 Y52.866 F1200
; --- FIX Y Backlash ---
G0 X57.531 Y51.066 F1200
G1 X57.371 Y50.998 Z0 F1600
G1 X57.186 Y50.893 Z0 F1600
G1 X56.963 Y50.739 Z0 F1600
G1 X56.715 Y50.537 Z0 F1600
G1 X56.446 Y50.289 Z0 F1600
G1 X56.139 Y49.976 Z0 F1600
G1 X55.819 Y49.623 Z0 F1600
G1 X55.748 Y49.533 Z0 F1600
G1 X55.622 Y49.356 Z0 F1600
G1 X55.484 Y49.144 Z0 F1600
G1 X55.334 Y48.903 Z0 F1600
G1 X55.007 Y48.338 Z0 F1600
G1 X54.735 Y47.821 Z0 F1600
G1 X54.571 Y47.461 Z0 F1600
G1 X54.422 Y47.083 Z0 F1600
G1 X54.287 Y46.683 Z0 F1600
G1 X54.159 Y46.234 Z0 F1600
G1 X54.045 Y45.762 Z0 F1600
G1 X53.934 Y45.212 Z0 F1600
G1 X53.835 Y44.628 Z0 F1600
G1 X53.746 Y44.006 Z0 F1600
G1 X53.732 Y43.868 Z0 F1600
G1 X53.718 Y43.664 Z0 F1600
G1 X53.705 Y43.409 Z0 F1600
G1 X53.693 Y43.106 Z0 F1600
G1 X53.675 Y42.401 Z0 F1600
G1 X53.663 Y41.63 Z0 F1600
G1 Y41.522 Z0 F1600
; --- FIX Y Backlash ---
G0 X53.663 Y43.322 F1200
G1 X53.679 Y43.524 Z0 F1600
G0 Z3.5 F1000
; --- FIX X Backlash ---
G0 X55.579 Y43.524 F1200
G0 X58.881 Y46.127 Z3.5
G1 Z0 F1000
; --- FIX X Backlash ---
G0 X56.981 Y46.127 F1200
; --- FIX Y Backlash ---
G0 X56.981 Y44.327 F1200
G1 X56.471 Y43.242 Z0 F1600
G1 X56.117 Y42.436 Z0 F1600
; --- FIX X Backlash ---
G0 X58.017 Y42.436 F1200
; --- FIX Y Backlash ---
G0 X58.017 Y44.236 F1200
G1 X58.22 Y44.443 Z0 F1600
G1 X58.622 Y44.86 Z0 F1600
G1 X58.837 Y45.091 Z0 F1600
G1 X59.037 Y45.313 Z0 F1600
G1 X59.252 Y45.561 Z0 F1600
G1 X59.483 Y45.834 Z0 F1600
G1 X59.763 Y46.168 Z0 F1600
G1 X60.558 Y47.169 Z0 F1600
G1 X61.259 Y48.161 Z0 F1600
G1 X61.876 Y49.155 Z0 F1600
G1 X62.439 Y50.197 Z0 F1600
G1 X62.75 Y50.859 Z0 F1600
G1 X63.042 Y51.552 Z0 F1600
G1 X63.159 Y51.853 Z0 F1600
G1 X63.179 Y51.911 Z0 F1600
G1 X63.134 Y51.946 Z0 F1600
; --- FIX X Backlash ---
G0 X61.234 Y51.946 F1200
G1 X60.832 Y52.213 Z0 F1600
G1 X60.809 Y52.225 Z0 F1600
; --- FIX Y Backlash ---
G0 X60.809 Y50.425 F1200
G1 X60.689 Y50.277 Z0 F1600
G1 X60.508 Y50.044 Z0 F1600
G1 X60.322 Y49.8 Z0 F1600
G1 X59.898 Y49.221 Z0 F1600
G1 X59.481 Y48.629 Z0 F1600
G1 X59.051 Y47.997 Z0 F1600
G1 X58.657 Y47.392 Z0 F1600
G1 X58.312 Y46.839 Z0 F1600
G1 X58.03 Y46.355 Z0 F1600
G1 X57.505 Y45.375 Z0 F1600
G1 X56.981 Y44.327 Z0 F1600
G0 Z3.5 F1000
G0 X54.72 Y40.291 Z3.5
G1 Z0 F1000
G1 X53.916 Y40.222 Z0 F1600
; --- FIX Y Backlash ---
G0 X53.916 Y42.022 F1200
G1 X53.663 Y42.855 Z0 F1600
G1 Y42.882 Z0 F1600
; --- FIX Y Backlash ---
G0 X53.663 Y41.082 F1200
G1 Y40.87 Z0 F1600
G1 X53.666 Y40.172 Z0 F1600
G1 X53.672 Y39.865 Z0 F1600
G1 X53.68 Y39.629 Z0 F1600
G1 X53.691 Y39.427 Z0 F1600
G1 X53.701 Y39.309 Z0 F1600
; --- FIX X Backlash ---
G0 X55.601 Y39.309 F1200
G1 X55.686 Y38.65 Z0 F1600
; --- FIX Y Backlash ---
G0 X55.686 Y40.45 F1200
G1 X55.974 Y40.556 Z0 F1600
G1 X56.743 Y40.866 Z0 F1600
G1 X57.524 Y41.205 Z0 F1600
G1 X58.296 Y41.565 Z0 F1600
G1 X59.053 Y41.941 Z0 F1600
G1 X59.766 Y42.321 Z0 F1600
G1 X60.402 Y42.687 Z0 F1600
G1 X60.956 Y43.036 Z0 F1600
G1 X61.461 Y43.385 Z0 F1600
G1 X61.946 Y43.751 Z0 F1600
G1 X62.392 Y44.117 Z0 F1600
G1 X62.799 Y44.482 Z0 F1600
G1 X63.175 Y44.852 Z0 F1600
G1 X63.527 Y45.234 Z0 F1600
G1 X63.841 Y45.612 Z0 F1600
G1 X64.125 Y45.995 Z0 F1600
G1 X64.368 Y46.367 Z0 F1600
G1 X64.58 Y46.741 Z0 F1600
G1 X64.762 Y47.119 Z0 F1600
G1 X64.905 Y47.481 Z0 F1600
G1 X65.018 Y47.845 Z0 F1600
G1 X65.096 Y48.2 Z0 F1600
G1 X65.144 Y48.55 Z0 F1600
G1 X65.16 Y48.903 Z0 F1600
G1 Y48.968 Z0 F1600
; --- FIX X Backlash ---
G0 X63.26 Y48.968 F1200
; --- FIX Y Backlash ---
G0 X63.26 Y47.168 F1200
G1 X62.971 Y46.618 Z0 F1600
G1 X62.648 Y46.048 Z0 F1600
G1 X62.307 Y45.491 Z0 F1600
G1 X61.953 Y44.957 Z0 F1600
G1 X61.591 Y44.459 Z0 F1600
G1 X61.073 Y43.812 Z0 F1600
G1 X60.525 Y43.192 Z0 F1600
G1 X59.952 Y42.602 Z0 F1600
G1 X59.355 Y42.044 Z0 F1600
G1 X58.739 Y41.522 Z0 F1600
G1 X58.104 Y41.038 Z0 F1600
G1 X57.456 Y40.595 Z0 F1600
G1 X56.803 Y40.2 Z0 F1600
G1 X56.512 Y40.039 Z0 F1600
G1 X56.261 Y39.913 Z0 F1600
G1 X55.706 Y39.717 Z0 F1600
; --- FIX Y Backlash ---
G0 X55.706 Y41.517 F1200
G1 X54.72 Y42.091 Z0 F1600
G0 Z3.5 F1000
G0 X52.764 Y43.443 Z3.5
G1 Z0 F1000
; --- FIX Y Backlash ---
G0 X52.764 Y41.643 F1200
G1 X52.761 Y40.863 Z0 F1600
G1 X52.766 Y40.154 Z0 F1600
G1 X52.772 Y39.846 Z0 F1600
G1 X52.781 Y39.581 Z0 F1600
G1 X52.792 Y39.368 Z0 F1600
G1 X52.806 Y39.214 Z0 F1600
; --- FIX X Backlash ---
G0 X54.706 Y39.214 F1200
G1 X54.842 Y38.153 Z0 F1600
G1 X54.879 Y37.876 Z0 F1600
G1 X54.913 Y37.65 Z0 F1600
G1 X54.938 Y37.497 Z0 F1600
G1 X54.953 Y37.441 Z0 F1600
G1 X55.004 Y37.456 Z0 F1600
; --- FIX Y Backlash ---
G0 X55.004 Y39.256 F1200
G1 X55.313 Y39.36 Z0 F1600
G1 X55.534 Y39.436 Z0 F1600
G1 X56.293 Y39.714 Z0 F1600
G1 X57.085 Y40.033 Z0 F1600
G1 X57.891 Y40.383 Z0 F1600
G1 X58.691 Y40.756 Z0 F1600
G1 X59.467 Y41.142 Z0 F1600
G1 X60.199 Y41.532 Z0 F1600
G1 X60.868 Y41.916 Z0 F1600
G1 X61.455 Y42.286 Z0 F1600
G1 X61.992 Y42.658 Z0 F1600
G1 X62.498 Y43.04 Z0 F1600
G1 X62.973 Y43.43 Z0 F1600
G1 X63.417 Y43.827 Z0 F1600
G1 X63.828 Y44.231 Z0 F1600
G1 X64.206 Y44.642 Z0 F1600
G1 X64.55 Y45.057 Z0 F1600
G1 X64.861 Y45.477 Z0 F1600
G1 X65.138 Y45.9 Z0 F1600
G1 X65.379 Y46.326 Z0 F1600
G1 X65.585 Y46.754 Z0 F1600
G1 X65.754 Y47.183 Z0 F1600
G1 X65.888 Y47.612 Z0 F1600
G1 X65.983 Y48.042 Z0 F1600
G1 X66.041 Y48.469 Z0 F1600
G1 X66.06 Y48.896 Z0 F1600
G1 X66.05 Y49.229 Z0 F1600
G1 X66.02 Y49.53 Z0 F1600
; --- FIX X Backlash ---
G0 X64.12 Y49.53 F1200
G1 X64.066 Y49.809 Z0 F1600
G1 X63.988 Y50.078 Z0 F1600
G1 X63.827 Y50.482 Z0 F1600
G1 X63.617 Y50.93 Z0 F1600
G1 X63.514 Y51.129 Z0 F1600
G1 X63.422 Y51.292 Z0 F1600
G1 X63.351 Y51.401 Z0 F1600
G1 X63.307 Y51.441 Z0 F1600
G1 X63.282 Y51.397 Z0 F1600
; --- FIX Y Backlash ---
G0 X63.282 Y49.597 F1200
G1 X63.234 Y49.479 Z0 F1600
G1 X63.171 Y49.305 Z0 F1600
G1 X63.1 Y49.092 Z0 F1600
G1 X62.93 Y48.626 Z0 F1600
G1 X62.716 Y48.121 Z0 F1600
G1 X62.463 Y47.591 Z0 F1600
G1 X62.18 Y47.048 Z0 F1600
G1 X61.872 Y46.505 Z0 F1600
G1 X61.548 Y45.975 Z0 F1600
G1 X61.213 Y45.471 Z0 F1600
G1 X60.875 Y45.005 Z0 F1600
G1 X60.384 Y44.392 Z0 F1600
G1 X59.865 Y43.804 Z0 F1600
G1 X59.322 Y43.245 Z0 F1600
G1 X58.757 Y42.717 Z0 F1600
G1 X58.174 Y42.224 Z0 F1600
G1 X57.577 Y41.768 Z0 F1600
G1 X56.969 Y41.352 Z0 F1600
G1 X56.352 Y40.979 Z0 F1600
G1 X56.092 Y40.836 Z0 F1600
G1 X55.908 Y40.743 Z0 F1600
G1 X55.799 Y40.704 Z0 F1600
G1 X55.766 Y40.723 Z0 F1600
G1 X55.778 Y40.756 Z0 F1600
G1 X55.809 Y40.804 Z0 F1600
; --- FIX X Backlash ---
G0 X57.709 Y40.804 F1200
; --- FIX Y Backlash ---
G0 X57.709 Y42.604 F1200
G1 X57.76 Y42.667 Z0 F1600
G1 X57.83 Y42.748 Z0 F1600
G1 X57.919 Y42.845 Z0 F1600
G1 X58.156 Y43.092 Z0 F1600
G1 X58.868 Y43.819 Z0 F1600
G1 X59.28 Y44.247 Z0 F1600
G1 X59.506 Y44.489 Z0 F1600
G1 X59.716 Y44.723 Z0 F1600
G1 X59.931 Y44.97 Z0 F1600
G1 X60.173 Y45.255 Z0 F1600
G1 X60.462 Y45.601 Z0 F1600
G1 X61.278 Y46.629 Z0 F1600
G1 X62.006 Y47.66 Z0 F1600
G1 X62.658 Y48.708 Z0 F1600
G1 X63.242 Y49.789 Z0 F1600
G1 X63.573 Y50.494 Z0 F1600
G1 X63.878 Y51.217 Z0 F1600
G1 X64.004 Y51.543 Z0 F1600
G1 X64.103 Y51.821 Z0 F1600
G1 X64.167 Y52.034 Z0 F1600
G1 X64.189 Y52.165 Z0 F1600
G1 X64.149 Y52.25 Z0 F1600
; --- FIX X Backlash ---
G0 X62.249 Y52.25 F1200
G1 X62.137 Y52.37 Z0 F1600
G1 X61.969 Y52.516 Z0 F1600
G1 X61.762 Y52.675 Z0 F1600
G1 X61.288 Y52.99 Z0 F1600
G1 X60.841 Y53.224 Z0 F1600
G1 X60.684 Y53.281 Z0 F1600
G1 X60.577 Z0 F1600
; --- FIX Y Backlash ---
G0 X60.577 Y51.481 F1200
G1 X60.474 Y51.413 Z0 F1600
G1 X60.333 Y51.259 Z0 F1600
G1 X60.168 Y51.064 Z0 F1600
G1 X59.989 Y50.843 Z0 F1600
G1 X59.798 Y50.597 Z0 F1600
G1 X59.596 Y50.332 Z0 F1600
G1 X59.172 Y49.754 Z0 F1600
G1 X58.737 Y49.135 Z0 F1600
G1 X58.307 Y48.503 Z0 F1600
G1 X57.903 Y47.884 Z0 F1600
G1 X57.542 Y47.305 Z0 F1600
G1 X57.244 Y46.794 Z0 F1600
G1 X56.712 Y45.8 Z0 F1600
G1 X56.17 Y44.718 Z0 F1600
G1 X55.648 Y43.607 Z0 F1600
G1 X55.173 Y42.524 Z0 F1600
G1 X54.956 Y42.016 Z0 F1600
G1 X54.773 Y41.593 Z0 F1600
G1 X54.642 Y41.301 Z0 F1600
G1 X54.602 Y41.217 Z0 F1600
G1 X54.582 Y41.182 Z0 F1600
G1 X54.565 Z0 F1600
G1 X54.555 Y41.215 Z0 F1600
; --- FIX Y Backlash ---
G0 X54.555 Y43.015 F1200
G1 X54.551 Y43.081 Z0 F1600
G1 X54.554 Y43.175 Z0 F1600
G1 X54.575 Y43.435 Z0 F1600
G1 X54.615 Y43.767 Z0 F1600
; --- FIX X Backlash ---
G0 X56.515 Y43.767 F1200
G1 X56.636 Y44.54 Z0 F1600
G1 X56.788 Y45.271 Z0 F1600
G1 X57.031 Y46.174 Z0 F1600
G1 X57.306 Y47.042 Z0 F1600
G1 X57.614 Y47.877 Z0 F1600
G1 X57.959 Y48.688 Z0 F1600
G1 X58.342 Y49.476 Z0 F1600
G1 X58.765 Y50.249 Z0 F1600
G1 X59.231 Y51.011 Z0 F1600
G1 X59.742 Y51.766 Z0 F1600
G1 X60.191 Y52.38 Z0 F1600
G1 X60.645 Y52.973 Z0 F1600
G1 X60.845 Y53.224 Z0 F1600
G1 X61.012 Y53.426 Z0 F1600
G1 X61.134 Y53.564 Z0 F1600
G1 X61.201 Y53.623 Z0 F1600
G1 X61.244 Y53.676 Z0 F1600
G1 X61.262 Y53.766 Z0 F1600
; --- FIX X Backlash ---
G0 X59.362 Y53.766 F1200
G1 X59.307 Y53.813 Z0 F1600
G1 X59.159 Y53.85 Z0 F1600
G1 X58.937 Y53.873 Z0 F1600
G1 X58.665 Y53.884 Z0 F1600
G1 X58.054 Y53.866 Z0 F1600
; --- FIX Y Backlash ---
G0 X58.054 Y52.066 F1200
G1 X57.498 Y51.993 Z0 F1600
G1 X57.239 Y51.92 Z0 F1600
G1 X56.975 Y51.807 Z0 F1600
G1 X56.704 Y51.655 Z0 F1600
G1 X56.423 Y51.459 Z0 F1600
G1 X56.128 Y51.22 Z0 F1600
G1 X55.817 Y50.932 Z0 F1600
G1 X55.487 Y50.597 Z0 F1600
G1 X55.136 Y50.21 Z0 F1600
G1 X55.022 Y50.066 Z0 F1600
G1 X54.883 Y49.868 Z0 F1600
G1 X54.725 Y49.628 Z0 F1600
G1 X54.558 Y49.358 Z0 F1600
G1 X54.22 Y48.775 Z0 F1600
G1 X53.927 Y48.218 Z0 F1600
G1 X53.743 Y47.814 Z0 F1600
G1 X53.577 Y47.392 Z0 F1600
G1 X53.426 Y46.946 Z0 F1600
G1 X53.289 Y46.467 Z0 F1600
G1 X53.165 Y45.951 Z0 F1600
G1 X53.052 Y45.39 Z0 F1600
G1 X52.948 Y44.779 Z0 F1600
G1 X52.851 Y44.11 Z0 F1600
G1 X52.835 Y43.947 Z0 F1600
G1 X52.82 Y43.726 Z0 F1600
G1 X52.806 Y43.454 Z0 F1600
G1 X52.794 Y43.141 Z0 F1600
G1 X52.775 Y42.425 Z0 F1600
G1 X52.764 Y41.643 Z0 F1600
G0 Z3.5 F1000

; Color picking sequence
G1 Z10 F1000;         ; Raise brush
G0 X86 Y5 F1200;    ; Rapid move to color 1
G1 Z10 F1000;         ; Raise brush
G0 X86 Y5 F1200;    ; Rapid move to color 1
G1 Z0 F1000;         ; Lower into color
G1 X85.102 Y7.295 Z0 S800 F1200
G1 X85.026 Y7.642 Z0 F1200
G1 X85 Y8 Z0 F1200
G1 X85.026 Y8.358 Z0 F1200
G1 X85.102 Y8.705 Z0 F1200
G1 X85.225 Y9.041 Z0 F1200
G1 X85.393 Y9.362 Z0 F1200
G1 X85.603 Y9.668 Z0 F1200
G1 X85.854 Y9.957 Z0 F1200
G1 X86.142 Y10.226 Z0 F1200
G1 X86.464 Y10.475 Z0 F1200
G1 X86.82 Y10.701 Z0 F1200
G1 X87.204 Y10.902 Z0 F1200
G1 X87.617 Y11.078 Z0 F1200
G1 X88.054 Y11.225 Z0 F1200
G1 X88.513 Y11.343 Z0 F1200
G1 X88.992 Y11.429 Z0 F1200
G1 X89.489 Y11.482 Z0 F1200
G1 X90 Y11.5 Z0 F1200
G1 X90.511 Y11.482 Z0 F1200
G1 X91.008 Y11.429 Z0 F1200
G1 X91.487 Y11.343 Z0 F1200
G1 X91.946 Y11.225 Z0 F1200
G1 X92.383 Y11.078 Z0 F1200
G1 X92.796 Y10.902 Z0 F1200
G1 X93.18 Y10.701 Z0 F1200
G1 X93.536 Y10.475 Z0 F1200
G1 X93.858 Y10.226 Z0 F1200
G1 X94.146 Y9.957 Z0 F1200
G1 X94.397 Y9.668 Z0 F1200
G1 X94.607 Y9.362 Z0 F1200
G1 X94.775 Y9.041 Z0 F1200
G1 X94.898 Y8.705 Z0 F1200
G1 X94.974 Y8.358 Z0 F1200
G1 X95 Y8 Z0 F1200
G1 X94.974 Y7.642 Z0 F1200
G1 X94.898 Y7.295 Z0 F1200
G1 X94.775 Y6.959 Z0 F1200
G1 X94.607 Y6.638 Z0 F1200
G1 X94.397 Y6.332 Z0 F1200
G1 X94.146 Y6.043 Z0 F1200
G1 X93.858 Y5.774 Z0 F1200
G1 X93.536 Y5.525 Z0 F1200
G1 X93.18 Y5.299 Z0 F1200
G1 X92.796 Y5.098 Z0 F1200
G1 X92.383 Y4.922 Z0 F1200
G1 X91.946 Y4.775 Z0 F1200
G1 X91.487 Y4.657 Z0 F1200
G1 X91.008 Y4.571 Z0 F1200
G1 X90.511 Y4.518 Z0 F1200
G1 X90 Y4.5 Z0 F1200
G1 X89.489 Y4.518 Z0 F1200
G1 X88.992 Y4.571 Z0 F1200
G1 X88.513 Y4.657 Z0 F1200
G1 X88.054 Y4.775 Z0 F1200
G1 X87.617 Y4.922 Z0 F1200
G1 X87.204 Y5.098 Z0 F1200
G1 X86.82 Y5.299 Z0 F1200
G1 X86.464 Y5.525 Z0 F1200
G1 X86.142 Y5.774 Z0 F1200
G1 X85.854 Y6.043 Z0 F1200
G1 X85.603 Y6.332 Z0 F1200
G1 X85.393 Y6.638 Z0 F1200
G1 X85.225 Y6.959 Z0 F1200
G1 Z7 F800;         ; Raise from color
G1 X79 Y8 Z1 F1200;     ; Movement in paint
G1 X69 Y18 Z8 F500;     ; Move in paint
G1 F1200;           ; Set feed rate
G0 Z2 F1000 ; Safety Lift
G0 X52.764 Y41.643 F1200 ; Return to pos
; --- FIX X Backlash ---
G0 X54.664 Y41.643 F1200
; --- FIX Y Backlash ---
G0 X54.664 Y43.443 F1200
G0 X94.393 Y44.193 Z3.5
G1 Z0 F1000
G1 X94.386 Y44.552 Z0 F1600
G1 X94.377 Y44.894 Z0 F1600
G1 X94.351 Y45.472 Z0 F1600
G1 X94.31 Y45.998 Z0 F1600
; --- FIX X Backlash ---
G0 X92.41 Y45.998 F1200
G1 X92.278 Y46.941 Z0 F1600
G1 X92.072 Y47.858 Z0 F1600
G1 X91.821 Y48.675 Z0 F1600
G1 X91.501 Y49.463 Z0 F1600
G1 X91.125 Y50.209 Z0 F1600
G1 X90.696 Y50.908 Z0 F1600
G1 X90.238 Y51.523 Z0 F1600
G1 X89.753 Y52.057 Z0 F1600
G1 X89.532 Y52.261 Z0 F1600
G1 X89.295 Y52.453 Z0 F1600
G1 X89.076 Y52.604 Z0 F1600
G1 X88.853 Y52.732 Z0 F1600
G1 X88.682 Y52.814 Z0 F1600
; --- FIX X Backlash ---
G0 X90.582 Y52.814 F1200
; --- FIX Y Backlash ---
G0 X90.582 Y51.014 F1200
G1 X90.633 Y50.946 Z0 F1600
G1 X90.931 Y50.538 Z0 F1600
G1 X91.212 Y50.144 Z0 F1600
G1 X91.462 Y49.783 Z0 F1600
G1 X91.668 Y49.473 Z0 F1600
G1 X91.987 Y48.951 Z0 F1600
G1 X92.296 Y48.398 Z0 F1600
G1 X92.594 Y47.82 Z0 F1600
G1 X92.881 Y47.215 Z0 F1600
G1 X93.396 Y45.98 Z0 F1600
G1 X93.834 Y44.708 Z0 F1600
G1 X94.062 Y43.852 Z0 F1600
G1 X94.258 Y42.924 Z0 F1600
G1 X94.336 Y42.476 Z0 F1600
G1 X94.396 Y42.071 Z0 F1600
G1 Y42.068 Z0 F1600
; --- FIX Y Backlash ---
G0 X94.396 Y43.868 F1200
G1 X94.393 Y44.193 Z0 F1600
G0 Z3.5 F1000
; --- FIX X Backlash ---
G0 X92.493 Y44.193 F1200
G0 X89.157 Y46.272 Z3.5
G1 Z0 F1000
G1 X88.627 Y47.308 Z0 F1600
G1 X88.082 Y48.286 Z0 F1600
G1 X87.508 Y49.234 Z0 F1600
G1 X86.918 Y50.133 Z0 F1600
G1 X86.272 Y51.042 Z0 F1600
G1 X85.587 Y51.941 Z0 F1600
G1 X85.371 Y52.216 Z0 F1600
; --- FIX Y Backlash ---
G0 X85.371 Y50.416 F1200
G1 X85.193 Y50.309 Z0 F1600
G1 X84.91 Y50.119 Z0 F1600
G1 X84.858 Y50.08 Z0 F1600
; --- FIX X Backlash ---
G0 X86.758 Y50.08 F1200
G1 X86.872 Y49.797 Z0 F1600
G1 X87.017 Y49.459 Z0 F1600
G1 X87.178 Y49.106 Z0 F1600
G1 X87.371 Y48.7 Z0 F1600
G1 X87.564 Y48.311 Z0 F1600
G1 X87.99 Y47.517 Z0 F1600
G1 X88.452 Y46.744 Z0 F1600
G1 X88.947 Y45.997 Z0 F1600
G1 X89.512 Y45.224 Z0 F1600
G1 X90.118 Y44.463 Z0 F1600
G1 X90.812 Y43.658 Z0 F1600
G1 X91.546 Y42.864 Z0 F1600
G1 X92.006 Y42.393 Z0 F1600
; --- FIX X Backlash ---
G0 X90.106 Y42.393 F1200
; --- FIX Y Backlash ---
G0 X90.106 Y44.193 F1200
G1 X89.663 Y45.201 Z0 F1600
G1 X89.157 Y46.272 Z0 F1600
G0 Z3.5 F1000
G0 X82.995 Y48.776 Z3.5
G1 Z0 F1000
; --- FIX Y Backlash ---
G0 X82.995 Y46.976 F1200
G1 Y46.847 Z0 F1600
G1 X83.001 Y46.609 Z0 F1600
G1 X83.01 Y46.435 Z0 F1600
G1 X83.022 Y46.305 Z0 F1600
G1 X83.064 Y46.075 Z0 F1600
; --- FIX X Backlash ---
G0 X84.964 Y46.075 F1200
G1 X85.04 Y45.822 Z0 F1600
G1 X85.217 Y45.358 Z0 F1600
G1 X85.434 Y44.9 Z0 F1600
G1 X85.682 Y44.466 Z0 F1600
G1 X85.986 Y44.016 Z0 F1600
G1 X86.331 Y43.575 Z0 F1600
G1 X86.734 Y43.123 Z0 F1600
G1 X87.205 Y42.649 Z0 F1600
G1 X87.735 Y42.162 Z0 F1600
G1 X87.994 Y41.941 Z0 F1600
G1 X88.25 Y41.744 Z0 F1600
G1 X88.389 Y41.646 Z0 F1600
G1 X88.565 Y41.527 Z0 F1600
G1 X88.792 Y41.378 Z0 F1600
G1 X89.418 Y40.973 Z0 F1600
G1 X89.832 Y40.701 Z0 F1600
G1 X90.007 Y40.582 Z0 F1600
G1 X90.042 Y40.557 Z0 F1600
G1 X90.104 Y40.515 Z0 F1600
G1 X90.224 Y40.447 Z0 F1600
G1 X90.429 Y40.339 Z0 F1600
G1 X90.667 Y40.22 Z0 F1600
G1 X90.964 Y40.076 Z0 F1600
G1 X91.295 Y39.92 Z0 F1600
G1 X91.658 Y39.753 Z0 F1600
G1 X92.021 Y39.589 Z0 F1600
G1 X92.801 Y39.247 Z0 F1600
G1 X93.535 Y38.937 Z0 F1600
G1 X93.887 Y38.794 Z0 F1600
G1 X94.202 Y38.67 Z0 F1600
G1 X94.304 Y38.631 Z0 F1600
; --- FIX Y Backlash ---
G0 X94.304 Y40.431 F1200
G1 X94.315 Y40.585 Z0 F1600
G1 X94.349 Y41.198 Z0 F1600
G1 X94.375 Y41.885 Z0 F1600
G1 X94.392 Y42.635 Z0 F1600
G1 Y42.91 Z0 F1600
; --- FIX Y Backlash ---
G0 X94.392 Y41.11 F1200
G1 X94.384 Y41.041 Z0 F1600
; --- FIX X Backlash ---
G0 X92.484 Y41.041 F1200
G1 X91.867 Y40.123 Z0 F1600
; --- FIX Y Backlash ---
G0 X91.867 Y41.923 F1200
G1 X91.341 Y42.247 Z0 F1600
; --- FIX X Backlash ---
G0 X93.241 Y42.247 F1200
; --- FIX Y Backlash ---
G0 X93.241 Y40.447 F1200
G1 X93.295 Y39.959 Z0 F1600
; --- FIX X Backlash ---
G0 X91.395 Y39.959 F1200
G1 X90.329 Y39.802 Z0 F1600
; --- FIX Y Backlash ---
G0 X90.329 Y41.602 F1200
G1 X90.047 Y41.675 Z0 F1600
G1 X89.897 Y41.734 Z0 F1600
G1 X89.762 Y41.797 Z0 F1600
G1 X89.493 Y41.938 Z0 F1600
G1 X89.178 Y42.118 Z0 F1600
G1 X88.506 Y42.537 Z0 F1600
G1 X87.868 Y42.979 Z0 F1600
G1 X87.486 Y43.283 Z0 F1600
G1 X87.073 Y43.639 Z0 F1600
G1 X86.65 Y44.022 Z0 F1600
G1 X86.239 Y44.412 Z0 F1600
G1 X85.868 Y44.781 Z0 F1600
G1 X85.561 Y45.106 Z0 F1600
G1 X85.429 Y45.259 Z0 F1600
G1 X85.308 Y45.412 Z0 F1600
G1 X85.236 Y45.528 Z0 F1600
G1 X85.143 Y45.608 Z0 F1600
G1 X84.951 Y45.807 Z0 F1600
G1 X84.758 Y46.032 Z0 F1600
G1 X84.385 Y46.511 Z0 F1600
G1 X84.025 Y47.018 Z0 F1600
G1 X83.682 Y47.547 Z0 F1600
G1 X83.358 Y48.094 Z0 F1600
G1 X83.056 Y48.652 Z0 F1600
G1 X82.995 Y48.776 Z0 F1600
G0 Z3.5 F1000
G0 X82.195 Y50.124 Z3.5
G1 Z0 F1000
; --- FIX Y Backlash ---
G0 X82.195 Y48.324 F1200
G1 X82.128 Y48.052 Z0 F1600
G1 X82.11 Y47.888 Z0 F1600
G1 X82.1 Y47.686 Z0 F1600
G1 X82.095 Y47.434 Z0 F1600
G1 Y47.119 Z0 F1600
G1 Y46.825 Z0 F1600
G1 X82.101 Y46.578 Z0 F1600
G1 X82.112 Y46.368 Z0 F1600
G1 X82.13 Y46.185 Z0 F1600
; --- FIX X Backlash ---
G0 X84.03 Y46.185 F1200
G1 X84.088 Y45.863 Z0 F1600
G1 X84.187 Y45.533 Z0 F1600
G1 X84.39 Y45.002 Z0 F1600
G1 X84.633 Y44.488 Z0 F1600
G1 X84.92 Y43.985 Z0 F1600
G1 X85.255 Y43.49 Z0 F1600
G1 X85.641 Y42.997 Z0 F1600
G1 X86.081 Y42.503 Z0 F1600
G1 X86.578 Y42.003 Z0 F1600
G1 X87.135 Y41.492 Z0 F1600
G1 X87.43 Y41.24 Z0 F1600
G1 X87.713 Y41.022 Z0 F1600
G1 X87.877 Y40.906 Z0 F1600
G1 X88.07 Y40.775 Z0 F1600
G1 X88.303 Y40.622 Z0 F1600
G1 X88.926 Y40.219 Z0 F1600
G1 X89.333 Y39.952 Z0 F1600
G1 X89.491 Y39.845 Z0 F1600
G1 X89.524 Y39.821 Z0 F1600
G1 X89.626 Y39.751 Z0 F1600
G1 X89.791 Y39.658 Z0 F1600
G1 X90.01 Y39.542 Z0 F1600
G1 X90.275 Y39.409 Z0 F1600
G1 X90.581 Y39.262 Z0 F1600
G1 X90.918 Y39.103 Z0 F1600
G1 X91.281 Y38.936 Z0 F1600
G1 X91.66 Y38.765 Z0 F1600
G1 X92.439 Y38.423 Z0 F1600
G1 X93.196 Y38.103 Z0 F1600
G1 X93.548 Y37.96 Z0 F1600
G1 X93.872 Y37.832 Z0 F1600
G1 X94.16 Y37.724 Z0 F1600
G1 X94.405 Y37.638 Z0 F1600
G1 X94.63 Y37.564 Z0 F1600
G1 X94.822 Y37.503 Z0 F1600
G1 X94.96 Y37.461 Z0 F1600
G1 X95.025 Y37.445 Z0 F1600
G1 X95.051 Y37.467 Z0 F1600
; --- FIX Y Backlash ---
G0 X95.051 Y39.267 F1200
G1 X95.076 Y39.335 Z0 F1600
G1 X95.102 Y39.446 Z0 F1600
G1 X95.126 Y39.596 Z0 F1600
G1 X95.149 Y39.784 Z0 F1600
G1 X95.172 Y40.004 Z0 F1600
G1 X95.193 Y40.256 Z0 F1600
G1 X95.213 Y40.535 Z0 F1600
G1 X95.248 Y41.164 Z0 F1600
G1 X95.275 Y41.865 Z0 F1600
G1 X95.292 Y42.615 Z0 F1600
G1 X95.298 Y43.389 Z0 F1600
G1 Y43.814 Z0 F1600
G1 X95.292 Y44.208 Z0 F1600
G1 X95.286 Y44.576 Z0 F1600
G1 X95.277 Y44.918 Z0 F1600
G1 X95.248 Y45.541 Z0 F1600
G1 X95.205 Y46.097 Z0 F1600
; --- FIX X Backlash ---
G0 X93.305 Y46.097 F1200
G1 X93.165 Y47.097 Z0 F1600
G1 X92.942 Y48.093 Z0 F1600
G1 X92.67 Y48.976 Z0 F1600
G1 X92.322 Y49.834 Z0 F1600
G1 X91.909 Y50.652 Z0 F1600
G1 X91.443 Y51.411 Z0 F1600
G1 X90.934 Y52.096 Z0 F1600
G1 X90.395 Y52.688 Z0 F1600
G1 X90.118 Y52.945 Z0 F1600
G1 X89.837 Y53.172 Z0 F1600
G1 X89.554 Y53.368 Z0 F1600
G1 X89.27 Y53.53 Z0 F1600
G1 X88.925 Y53.697 Z0 F1600
G1 X88.638 Y53.792 Z0 F1600
G1 X88.483 Y53.819 Z0 F1600
G1 X88.3 Y53.839 Z0 F1600
G1 X88.078 Y53.854 Z0 F1600
G1 X87.801 Y53.865 Z0 F1600
G1 X87.453 Y53.873 Z0 F1600
G1 X87.158 Y53.869 Z0 F1600
G1 X87.039 Y53.862 Z0 F1600
G1 X86.946 Y53.854 Z0 F1600
G1 X86.881 Y53.842 Z0 F1600
G1 X86.849 Y53.829 Z0 F1600
G1 X86.84 Y53.779 Z0 F1600
; --- FIX Y Backlash ---
G0 X86.84 Y51.979 F1200
G1 X86.871 Y51.897 Z0 F1600
; --- FIX X Backlash ---
G0 X88.771 Y51.897 F1200
G1 X88.835 Y51.791 Z0 F1600
G1 X88.929 Y51.674 Z0 F1600
G1 X89.111 Y51.455 Z0 F1600
G1 X89.347 Y51.156 Z0 F1600
G1 X89.619 Y50.8 Z0 F1600
G1 X89.909 Y50.411 Z0 F1600
G1 X90.201 Y50.012 Z0 F1600
G1 X90.476 Y49.626 Z0 F1600
G1 X90.718 Y49.278 Z0 F1600
G1 X90.909 Y48.99 Z0 F1600
G1 X91.21 Y48.497 Z0 F1600
G1 X91.503 Y47.972 Z0 F1600
G1 X91.787 Y47.421 Z0 F1600
G1 X92.058 Y46.849 Z0 F1600
G1 X92.554 Y45.66 Z0 F1600
G1 X92.973 Y44.445 Z0 F1600
G1 X93.186 Y43.643 Z0 F1600
G1 X93.374 Y42.753 Z0 F1600
G1 X93.448 Y42.333 Z0 F1600
G1 X93.502 Y41.961 Z0 F1600
G1 X93.533 Y41.659 Z0 F1600
G1 Y41.45 Z0 F1600
G1 X93.523 Y41.374 Z0 F1600
G1 X93.502 Y41.343 Z0 F1600
G1 X93.467 Y41.365 Z0 F1600
; --- FIX X Backlash ---
G0 X91.567 Y41.365 F1200
; --- FIX Y Backlash ---
G0 X91.567 Y43.165 F1200
G1 X91.512 Y43.249 Z0 F1600
G1 X91.434 Y43.404 Z0 F1600
G1 X91.328 Y43.637 Z0 F1600
G1 X91.187 Y43.958 Z0 F1600
G1 X91.01 Y44.374 Z0 F1600
G1 X90.486 Y45.565 Z0 F1600
G1 X89.958 Y46.682 Z0 F1600
G1 X89.418 Y47.736 Z0 F1600
G1 X88.86 Y48.74 Z0 F1600
G1 X88.275 Y49.706 Z0 F1600
G1 X87.657 Y50.646 Z0 F1600
G1 X86.999 Y51.573 Z0 F1600
G1 X86.294 Y52.498 Z0 F1600
G1 X85.661 Y53.303 Z0 F1600
G1 X85.621 Y53.317 Z0 F1600
G1 X85.549 Y53.306 Z0 F1600
G1 X85.449 Y53.271 Z0 F1600
; --- FIX Y Backlash ---
G0 X85.449 Y51.471 F1200
G1 X85.327 Y51.418 Z0 F1600
G1 X85.034 Y51.263 Z0 F1600
G1 X84.707 Y51.067 Z0 F1600
G1 X84.387 Y50.852 Z0 F1600
G1 X84.11 Y50.645 Z0 F1600
G1 X84 Y50.551 Z0 F1600
G1 X83.916 Y50.469 Z0 F1600
G1 X83.862 Y50.4 Z0 F1600
G1 X83.843 Y50.347 Z0 F1600
G1 X83.863 Y50.219 Z0 F1600
; --- FIX X Backlash ---
G0 X85.763 Y50.219 F1200
G1 X85.822 Y50.02 Z0 F1600
G1 X85.916 Y49.763 Z0 F1600
G1 X86.04 Y49.453 Z0 F1600
G1 X86.19 Y49.103 Z0 F1600
G1 X86.365 Y48.72 Z0 F1600
G1 X86.558 Y48.314 Z0 F1600
G1 X86.767 Y47.894 Z0 F1600
G1 X87.207 Y47.073 Z0 F1600
G1 X87.687 Y46.269 Z0 F1600
G1 X88.213 Y45.475 Z0 F1600
G1 X88.792 Y44.683 Z0 F1600
G1 X89.429 Y43.884 Z0 F1600
G1 X90.13 Y43.071 Z0 F1600
G1 X90.902 Y42.234 Z0 F1600
G1 X91.981 Y41.132 Z0 F1600
G1 X92.162 Y40.931 Z0 F1600
G1 X92.228 Y40.851 Z0 F1600
G1 X92.276 Y40.788 Z0 F1600
G1 X92.302 Y40.744 Z0 F1600
G1 X92.305 Y40.722 Z0 F1600
G1 X92.278 Y40.719 Z0 F1600
; --- FIX X Backlash ---
G0 X90.378 Y40.719 F1200
G1 X90.328 Y40.732 Z0 F1600
G1 X90.254 Y40.761 Z0 F1600
G1 X90.161 Y40.804 Z0 F1600
; --- FIX Y Backlash ---
G0 X90.161 Y42.604 F1200
G1 X89.925 Y42.728 Z0 F1600
G1 X89.639 Y42.891 Z0 F1600
G1 X89.001 Y43.289 Z0 F1600
G1 X88.406 Y43.702 Z0 F1600
G1 X88.06 Y43.977 Z0 F1600
G1 X87.669 Y44.313 Z0 F1600
G1 X87.262 Y44.683 Z0 F1600
G1 X86.866 Y45.058 Z0 F1600
G1 X86.513 Y45.409 Z0 F1600
G1 X86.229 Y45.709 Z0 F1600
G1 X86.123 Y45.832 Z0 F1600
G1 X86.046 Y45.931 Z0 F1600
G1 X86.001 Y46.002 Z0 F1600
G1 X85.991 Y46.044 Z0 F1600
G1 X85.994 Y46.115 Z0 F1600
G1 X85.943 Y46.133 Z0 F1600
G1 X85.876 Y46.164 Z0 F1600
G1 X85.762 Y46.263 Z0 F1600
G1 X85.616 Y46.414 Z0 F1600
G1 X85.454 Y46.602 Z0 F1600
G1 X85.107 Y47.048 Z0 F1600
G1 X84.77 Y47.523 Z0 F1600
G1 X84.447 Y48.022 Z0 F1600
G1 X84.141 Y48.538 Z0 F1600
G1 X83.855 Y49.065 Z0 F1600
G1 X83.593 Y49.599 Z0 F1600
G1 X83.358 Y50.131 Z0 F1600
G1 X83.153 Y50.658 Z0 F1600
G1 X82.892 Y51.38 Z0 F1600
; --- FIX Y Backlash ---
G0 X82.892 Y49.58 F1200
G1 X82.714 Y49.33 Z0 F1600
G1 X82.523 Y49.014 Z0 F1600
G1 X82.315 Y48.608 Z0 F1600
G1 X82.195 Y48.324 Z0 F1600

; Washing sequence (no color)
G1 Z10 F1000;        ; Raise brush
G0 X5 Y5 F1200;     ; Rapid move to clean
G1 Z-1 F800;         ; Lower brush
G1 X10 Y12 Z8 F1200;     ; Move
G1 Z-1 F800;         ; Lower
G1 X25 Y14 Z6 F800;     ; Move
G1 Z8 F800;         ; Maintain
G0 X5 Y5 F1200;     ; Rapid
G1 Z-1 F800;         ; Lower
G1 X15 Y12 Z8 F1200;     ; Move
G1 Z-1 F800;         ; Lower
G1 X25 Y14 Z6 F800;     ; Move
G1 Z10 F800;         ; Maintain
G1 F1200;           ; Set feed
G0 Z2 F1000 ; Safety Lift

; Color picking sequence
G1 Z10 F1000;         ; Raise brush
G0 X131 Y5 F1200;    ; Rapid move to color 1
G1 Z10 F1000;         ; Raise brush
G0 X131 Y5 F1200;    ; Rapid move to color 1
G1 Z0 F1000;         ; Lower into color
G1 X130.102 Y7.295 Z0 S800 F1200
G1 X130.026 Y7.642 Z0 F1200
G1 X130 Y8 Z0 F1200
G1 X130.026 Y8.358 Z0 F1200
G1 X130.102 Y8.705 Z0 F1200
G1 X130.225 Y9.041 Z0 F1200
G1 X130.393 Y9.362 Z0 F1200
G1 X130.603 Y9.668 Z0 F1200
G1 X130.854 Y9.957 Z0 F1200
G1 X131.142 Y10.226 Z0 F1200
G1 X131.464 Y10.475 Z0 F1200
G1 X131.82 Y10.701 Z0 F1200
G1 X132.204 Y10.902 Z0 F1200
G1 X132.617 Y11.078 Z0 F1200
G1 X133.054 Y11.225 Z0 F1200
G1 X133.513 Y11.343 Z0 F1200
G1 X133.992 Y11.429 Z0 F1200
G1 X134.489 Y11.482 Z0 F1200
G1 X135 Y11.5 Z0 F1200
G1 X135.511 Y11.482 Z0 F1200
G1 X136.008 Y11.429 Z0 F1200
G1 X136.487 Y11.343 Z0 F1200
G1 X136.946 Y11.225 Z0 F1200
G1 X137.383 Y11.078 Z0 F1200
G1 X137.796 Y10.902 Z0 F1200
G1 X138.18 Y10.701 Z0 F1200
G1 X138.536 Y10.475 Z0 F1200
G1 X138.858 Y10.226 Z0 F1200
G1 X139.146 Y9.957 Z0 F1200
G1 X139.397 Y9.668 Z0 F1200
G1 X139.607 Y9.362 Z0 F1200
G1 X139.775 Y9.041 Z0 F1200
G1 X139.898 Y8.705 Z0 F1200
G1 X139.974 Y8.358 Z0 F1200
G1 X140 Y8 Z0 F1200
G1 X139.974 Y7.642 Z0 F1200
G1 X139.898 Y7.295 Z0 F1200
G1 X139.775 Y6.959 Z0 F1200
G1 X139.607 Y6.638 Z0 F1200
G1 X139.397 Y6.332 Z0 F1200
G1 X139.146 Y6.043 Z0 F1200
G1 X138.858 Y5.774 Z0 F1200
G1 X138.536 Y5.525 Z0 F1200
G1 X138.18 Y5.299 Z0 F1200
G1 X137.796 Y5.098 Z0 F1200
G1 X137.383 Y4.922 Z0 F1200
G1 X136.946 Y4.775 Z0 F1200
G1 X136.487 Y4.657 Z0 F1200
G1 X136.008 Y4.571 Z0 F1200
G1 X135.511 Y4.518 Z0 F1200
G1 X135 Y4.5 Z0 F1200
G1 X134.489 Y4.518 Z0 F1200
G1 X133.992 Y4.571 Z0 F1200
G1 X133.513 Y4.657 Z0 F1200
G1 X133.054 Y4.775 Z0 F1200
G1 X132.617 Y4.922 Z0 F1200
G1 X132.204 Y5.098 Z0 F1200
G1 X131.82 Y5.299 Z0 F1200
G1 X131.464 Y5.525 Z0 F1200
G1 X131.142 Y5.774 Z0 F1200
G1 X130.854 Y6.043 Z0 F1200
G1 X130.603 Y6.332 Z0 F1200
G1 X130.393 Y6.638 Z0 F1200
G1 X130.225 Y6.959 Z0 F1200
G1 Z7 F800;         ; Raise from color
G1 X124 Y8 Z1 F1200;     ; Movement in paint
G1 X114 Y18 Z8 F500;     ; Move in paint
G1 F1200;           ; Set feed rate
G0 Z2 F1000 ; Safety Lift
;Cut @ 1500 mm/min, 80% power

M8
G0 Z3.5 F1000
; --- FIX Y Backlash ---
G0 X82.195 Y50.124 F1200
G0 X80.516 Y52.207 Z3.5
G1 Z0 F1000
;Layer C3
G1 X80.417 Y52.175 Z0 S800 F1600
G1 X80.289 Y52.137 Z0 F1600
; --- FIX Y Backlash ---
G0 X80.289 Y50.337 F1200
G1 X79.96 Y50.244 Z0 F1600
G1 X79.559 Y50.137 Z0 F1600
G1 X78.651 Y49.907 Z0 F1600
G1 X77.79 Y49.706 Z0 F1600
G1 X77.309 Y49.6 Z0 F1600
G1 X76.691 Y46.474 Z0 F1600
G1 X76.587 Y45.982 Z0 F1600
G1 X76.486 Y45.568 Z0 F1600
G1 X76.44 Y45.405 Z0 F1600
G1 X76.4 Y45.278 Z0 F1600
G1 X76.366 Y45.192 Z0 F1600
G1 X76.34 Y45.154 Z0 F1600
G1 X76.316 Y45.147 Z0 F1600
G1 X76.264 Y45.141 Z0 F1600
G1 X76.085 Y45.128 Z0 F1600
G1 X75.815 Y45.117 Z0 F1600
G1 X75.465 Y45.108 Z0 F1600
G1 X75.047 Y45.099 Z0 F1600
G1 X74.573 Y45.093 Z0 F1600
G1 X74.055 Y45.089 Z0 F1600
G1 X73.503 Z0 F1600
G1 X72.784 Z0 F1600
G1 X72.19 Y45.092 Z0 F1600
G1 X71.709 Y45.098 Z0 F1600
G1 X71.334 Y45.108 Z0 F1600
G1 X71.053 Y45.122 Z0 F1600
G1 X70.858 Y45.139 Z0 F1600
G1 X70.738 Y45.161 Z0 F1600
G1 X70.684 Y45.188 Z0 F1600
G1 X70.663 Y45.231 Z0 F1600
; --- FIX Y Backlash ---
G0 X70.663 Y47.031 F1200
G1 X70.634 Y47.114 Z0 F1600
G1 X70.6 Y47.233 Z0 F1600
G1 X70.561 Y47.382 Z0 F1600
G1 X70.474 Y47.753 Z0 F1600
G1 X70.384 Y48.187 Z0 F1600
G1 X70.288 Y48.668 Z0 F1600
G1 X70.137 Y49.403 Z0 F1600
G1 X69.952 Y50.276 Z0 F1600
G1 X69.892 Y50.578 Z0 F1600
G1 X69.842 Y50.849 Z0 F1600
G1 X69.809 Y51.052 Z0 F1600
G1 X69.792 Y51.192 Z0 F1600
G1 X69.774 Y51.295 Z0 F1600
G1 X69.736 Y51.369 Z0 F1600
G1 X69.661 Y51.424 Z0 F1600
G1 X69.529 Y51.47 Z0 F1600
G1 X69.324 Y51.514 Z0 F1600
G1 X69.187 Y51.539 Z0 F1600
G1 X68.426 Y51.666 Z0 F1600
G1 X68.277 Y51.688 Z0 F1600
G1 X68.16 Y51.7 Z0 F1600
G1 X68.072 Y51.703 Z0 F1600
G1 X67.953 Y51.678 Z0 F1600
; --- FIX Y Backlash ---
G0 X67.953 Y49.878 F1200
G1 X67.874 Y49.812 Z0 F1600
G1 X67.839 Y49.768 Z0 F1600
G1 X67.712 Y49.59 Z0 F1600
G1 X67.409 Y49.145 Z0 F1600
G1 X67.154 Y48.765 Z0 F1600
G1 X66.593 Y47.916 Z0 F1600
G1 X65.91 Y46.861 Z0 F1600
G1 X65.772 Y46.658 Z0 F1600
G1 X65.717 Y46.579 Z0 F1600
G1 X65.672 Y46.52 Z0 F1600
G1 X65.641 Y46.483 Z0 F1600
G1 X65.624 Y46.47 Z0 F1600
G1 X65.616 Y46.491 Z0 F1600
; --- FIX Y Backlash ---
G0 X65.616 Y48.291 F1200
G1 X65.608 Y48.351 Z0 F1600
G1 X65.601 Y48.447 Z0 F1600
G1 X65.595 Y48.574 Z0 F1600
G1 X65.585 Y48.903 Z0 F1600
G1 X65.579 Y49.62 Z0 F1600
G1 X65.573 Y49.878 Z0 F1600
G1 X65.561 Y50.092 Z0 F1600
G1 X65.541 Y50.277 Z0 F1600
G1 X65.472 Y50.608 Z0 F1600
G1 X65.351 Y50.978 Z0 F1600
G1 X65.123 Y51.614 Z0 F1600
; --- FIX X Backlash ---
G0 X67.023 Y51.614 F1200
G1 X68.85 Y54.344 Z0 F1600
G1 X69.401 Y55.161 Z0 F1600
G1 X69.828 Y55.785 Z0 F1600
G1 X70.034 Y56.081 Z0 F1600
G1 X70.105 Y56.178 Z0 F1600
G1 X70.119 Y56.194 Z0 F1600
G1 X70.181 Z0 F1600
G1 X70.312 Y56.175 Z0 F1600
G1 X70.49 Y56.136 Z0 F1600
; --- FIX Y Backlash ---
G0 X70.49 Y54.336 F1200
G1 X70.699 Y54.282 Z0 F1600
G1 X71.121 Y54.178 Z0 F1600
G1 X71.586 Y54.088 Z0 F1600
G1 X72.087 Y54.012 Z0 F1600
G1 X72.618 Y53.95 Z0 F1600
G1 X73.746 Y53.866 Z0 F1600
G1 X74.922 Y53.838 Z0 F1600
G1 X76.097 Y53.865 Z0 F1600
; --- FIX Y Backlash ---
G0 X76.097 Y55.665 F1200
G1 X77.224 Y55.747 Z0 F1600
G1 X77.754 Y55.809 Z0 F1600
G1 X78.253 Y55.885 Z0 F1600
G1 X78.716 Y55.974 Z0 F1600
G1 X79.137 Y56.077 Z0 F1600
G1 X79.378 Y56.143 Z0 F1600
G1 X79.564 Y56.19 Z0 F1600
G1 X79.705 Y56.218 Z0 F1600
G1 X79.807 Y56.228 Z0 F1600
G1 X79.933 Y56.191 Z0 F1600
; --- FIX Y Backlash ---
G0 X79.933 Y54.391 F1200
G1 X80.01 Y54.28 Z0 F1600
G1 X80.045 Y54.22 Z0 F1600
G1 X80.115 Y54.111 Z0 F1600
G1 X80.341 Y53.769 Z0 F1600
G1 X80.656 Y53.302 Z0 F1600
G1 X81.025 Y52.763 Z0 F1600
G1 X82.269 Y50.957 Z0 F1600
G1 X82.384 Y50.778 Z0 F1600
G1 X82.468 Y50.622 Z0 F1600
G1 X82.514 Y50.506 Z0 F1600
G1 Y50.447 Z0 F1600
G1 X82.482 Y50.431 Z0 F1600
; --- FIX X Backlash ---
G0 X80.582 Y50.431 F1200
G1 X80.516 Y50.407 Z0 F1600
G0 Z3.5 F1000
; --- FIX X Backlash ---
G0 X82.416 Y50.407 F1200
; --- FIX Y Backlash ---
G0 X82.416 Y52.207 F1200
G0 X89.31 Y56.087 Z3.5
G1 Z0 F1000
; --- FIX X Backlash ---
G0 X87.41 Y56.087 F1200
G1 X86.242 Y58.381 Z0 F1600
G1 X85.833 Y59.172 Z0 F1600
G1 X85.666 Y59.488 Z0 F1600
G1 X85.625 Y59.559 Z0 F1600
G1 X85.575 Y59.678 Z0 F1600
G1 X85.623 Y59.807 Z0 F1600
; --- FIX X Backlash ---
G0 X87.523 Y59.807 F1200
G1 X87.598 Y59.897 Z0 F1600
G1 X87.715 Y60.015 Z0 F1600
G1 X87.881 Y60.169 Z0 F1600
G1 X88.101 Y60.368 Z0 F1600
G1 X89.027 Y61.231 Z0 F1600
G1 X89.88 Y62.096 Z0 F1600
G1 X90.664 Y62.965 Z0 F1600
G1 X91.38 Y63.842 Z0 F1600
G1 X92.033 Y64.731 Z0 F1600
G1 X92.625 Y65.635 Z0 F1600
G1 X93.158 Y66.558 Z0 F1600
G1 X93.636 Y67.504 Z0 F1600
G1 X93.827 Y67.934 Z0 F1600
G1 X94.026 Y68.426 Z0 F1600
G1 X94.228 Y68.963 Z0 F1600
G1 X94.425 Y69.525 Z0 F1600
G1 X94.613 Y70.094 Z0 F1600
G1 X94.783 Y70.65 Z0 F1600
G1 X94.93 Y71.176 Z0 F1600
G1 X95.047 Y71.652 Z0 F1600
G1 X95.261 Y72.755 Z0 F1600
G1 X95.415 Y73.892 Z0 F1600
G1 X95.509 Y75.051 Z0 F1600
G1 X95.544 Y76.217 Z0 F1600
G1 X95.518 Y77.377 Z0 F1600
; --- FIX X Backlash ---
G0 X93.618 Y77.377 F1200
G1 X93.533 Y78.517 Z0 F1600
G1 X93.388 Y79.622 Z0 F1600
G1 X93.182 Y80.68 Z0 F1600
G1 X93.101 Y81.013 Z0 F1600
G1 X93.001 Y81.394 Z0 F1600
G1 X92.887 Y81.801 Z0 F1600
G1 X92.766 Y82.215 Z0 F1600
G1 X92.643 Y82.615 Z0 F1600
G1 X92.526 Y82.981 Z0 F1600
G1 X92.42 Y83.291 Z0 F1600
G1 X92.331 Y83.526 Z0 F1600
G1 X92.08 Y84.136 Z0 F1600
G1 X92.033 Y84.243 Z0 F1600
G1 X91.972 Y84.377 Z0 F1600
G1 X91.813 Y84.71 Z0 F1600
G1 X91.619 Y85.102 Z0 F1600
G1 X91.407 Y85.521 Z0 F1600
G1 X91.195 Y85.931 Z0 F1600
G1 X90.999 Y86.301 Z0 F1600
G1 X90.836 Y86.598 Z0 F1600
G1 X90.772 Y86.708 Z0 F1600
G1 X90.723 Y86.787 Z0 F1600
G1 X90.577 Y87.007 Z0 F1600
G1 X90.378 Y87.298 Z0 F1600
G1 X90.149 Y87.629 Z0 F1600
G1 X89.678 Y88.3 Z0 F1600
G1 X89.396 Y88.695 Z0 F1600
G1 X89.28 Y88.851 Z0 F1600
G1 X89.086 Y89.08 Z0 F1600
G1 X88.804 Y89.42 Z0 F1600
G1 X88.438 Y89.85 Z0 F1600
G1 X88.072 Y90.261 Z0 F1600
G1 X87.926 Y90.423 Z0 F1600
G1 X87.798 Y90.569 Z0 F1600
G1 X87.703 Y90.685 Z0 F1600
G1 X87.653 Y90.753 Z0 F1600
G1 X87.65 Y90.808 Z0 F1600
G1 X87.676 Y90.916 Z0 F1600
; --- FIX X Backlash ---
G0 X89.576 Y90.916 F1200
G1 X89.63 Y91.078 Z0 F1600
G1 X89.713 Y91.295 Z0 F1600
G1 X89.826 Y91.569 Z0 F1600
G1 X89.97 Y91.902 Z0 F1600
G1 X90.145 Y92.295 Z0 F1600
G1 X90.42 Y92.9 Z0 F1600
G1 X90.607 Y93.333 Z0 F1600
G1 X90.845 Y93.893 Z0 F1600
G1 X90.973 Y94.184 Z0 F1600
G1 X91.088 Y94.436 Z0 F1600
G1 X91.189 Y94.647 Z0 F1600
G1 X91.275 Y94.814 Z0 F1600
G1 X91.345 Y94.935 Z0 F1600
G1 X91.399 Y95.01 Z0 F1600
G1 X91.434 Y95.035 Z0 F1600
G1 X91.498 Y94.999 Z0 F1600
; --- FIX Y Backlash ---
G0 X91.498 Y93.199 F1200
G1 X91.622 Y93.103 Z0 F1600
G1 X91.788 Y92.959 Z0 F1600
G1 X91.978 Y92.784 Z0 F1600
G1 X92.793 Y92.01 Z0 F1600
; --- FIX Y Backlash ---
G0 X92.793 Y93.81 F1200
G1 X94.24 Y94.482 Z0 F1600
G1 X95.503 Y95.055 Z0 F1600
G1 X95.898 Y95.23 Z0 F1600
G1 X96.227 Y95.361 Z0 F1600
G1 X96.498 Y95.448 Z0 F1600
G1 X96.717 Y95.494 Z0 F1600
G1 X96.891 Y95.499 Z0 F1600
G1 X97.027 Y95.463 Z0 F1600
; --- FIX Y Backlash ---
G0 X97.027 Y93.663 F1200
G1 X97.132 Y93.588 Z0 F1600
G1 X97.213 Y93.475 Z0 F1600
G1 X97.246 Y93.422 Z0 F1600
G1 X97.31 Y93.326 Z0 F1600
G1 X97.522 Y93.02 Z0 F1600
G1 X97.824 Y92.59 Z0 F1600
G1 X98.195 Y92.069 Z0 F1600
G1 X99.045 Y90.885 Z0 F1600
G1 X99.884 Y89.732 Z0 F1600
G1 X100.078 Y89.456 Z0 F1600
G1 X100.236 Y89.208 Z0 F1600
G1 X100.297 Y89.102 Z0 F1600
G1 X100.343 Y89.013 Z0 F1600
G1 X100.372 Y88.945 Z0 F1600
G1 X100.382 Y88.9 Z0 F1600
G1 X100.342 Y88.799 Z0 F1600
; --- FIX X Backlash ---
G0 X98.442 Y88.799 F1200
G1 X98.333 Y88.634 Z0 F1600
G1 X98.172 Y88.431 Z0 F1600
G1 X97.974 Y88.21 Z0 F1600
G1 X96.775 Y86.94 Z0 F1600
G1 X96.245 Y86.374 Z0 F1600
G1 X96.049 Y86.159 Z0 F1600
G1 X95.893 Y85.984 Z0 F1600
G1 X95.774 Y85.843 Z0 F1600
G1 X95.686 Y85.73 Z0 F1600
G1 X95.626 Y85.641 Z0 F1600
G1 X95.589 Y85.571 Z0 F1600
G1 X95.572 Y85.514 Z0 F1600
G1 X95.58 Y85.422 Z0 F1600
; --- FIX X Backlash ---
G0 X97.48 Y85.422 F1200
G1 X97.572 Y85.167 Z0 F1600
G1 X97.663 Y84.935 Z0 F1600
G1 X97.776 Y84.659 Z0 F1600
G1 X98.182 Y83.69 Z0 F1600
G1 X98.554 Y82.767 Z0 F1600
G1 X98.655 Y82.537 Z0 F1600
G1 X98.739 Y82.364 Z0 F1600
G1 X98.796 Y82.272 Z0 F1600
G1 X98.846 Y82.245 Z0 F1600
G1 X98.949 Y82.22 Z0 F1600
G1 X99.11 Y82.199 Z0 F1600
G1 X99.335 Y82.179 Z0 F1600
G1 X99.63 Y82.162 Z0 F1600
G1 X100 Y82.146 Z0 F1600
G1 X100.452 Y82.131 Z0 F1600
G1 X101.609 Y82.101 Z0 F1600
G1 X102.097 Y82.085 Z0 F1600
G1 X102.473 Y82.069 Z0 F1600
G1 X102.753 Y82.051 Z0 F1600
G1 X102.953 Y82.029 Z0 F1600
G1 X103.088 Y82.001 Z0 F1600
G1 X103.176 Y81.968 Z0 F1600
G1 X103.232 Y81.927 Z0 F1600
G1 X103.299 Y81.815 Z0 F1600
G1 X103.37 Y81.616 Z0 F1600
G1 X103.442 Y81.348 Z0 F1600
G1 X103.507 Y81.025 Z0 F1600
G1 X103.618 Y80.413 Z0 F1600
G1 X103.752 Y79.693 Z0 F1600
G1 X104.164 Y77.534 Z0 F1600
G1 X104.242 Y77.096 Z0 F1600
G1 X104.298 Y76.717 Z0 F1600
G1 X104.317 Y76.563 Z0 F1600
G1 X104.328 Y76.438 Z0 F1600
G1 Y76.349 Z0 F1600
G1 X104.325 Y76.3 Z0 F1600
G1 X104.277 Y76.208 Z0 F1600
; --- FIX X Backlash ---
G0 X102.377 Y76.208 F1200
G1 X102.237 Y76.121 Z0 F1600
G1 X102.092 Y76.062 Z0 F1600
G1 X101.876 Y75.982 Z0 F1600
G1 X100.618 Y75.54 Z0 F1600
G1 X100.091 Y75.351 Z0 F1600
G1 X99.601 Y75.172 Z0 F1600
G1 X99.162 Y75.008 Z0 F1600
G1 X98.789 Y74.866 Z0 F1600
G1 X98.498 Y74.749 Z0 F1600
G1 X98.386 Y74.703 Z0 F1600
G1 X98.301 Y74.665 Z0 F1600
G1 X98.243 Y74.637 Z0 F1600
G1 X98.215 Y74.618 Z0 F1600
G1 X98.2 Y74.575 Z0 F1600
G1 X98.184 Y74.475 Z0 F1600
G1 X98.166 Y74.326 Z0 F1600
G1 X98.147 Y74.133 Z0 F1600
G1 X98.109 Y73.644 Z0 F1600
G1 X98.074 Y73.057 Z0 F1600
G1 X98.041 Y72.453 Z0 F1600
G1 X98.01 Y71.914 Z0 F1600
G1 X97.983 Y71.499 Z0 F1600
G1 X97.964 Y71.267 Z0 F1600
G1 X97.955 Y71.099 Z0 F1600
G1 X97.995 Y70.986 Z0 F1600
G1 X98.043 Y70.937 Z0 F1600
; --- FIX X Backlash ---
G0 X99.943 Y70.937 F1200
G1 X100.016 Y70.887 Z0 F1600
G1 X100.117 Y70.831 Z0 F1600
G1 X101.294 Y70.212 Z0 F1600
G1 X102.358 Y69.623 Z0 F1600
G1 X102.821 Y69.358 Z0 F1600
G1 X103.199 Y69.134 Z0 F1600
G1 X103.345 Y69.043 Z0 F1600
G1 X103.459 Y68.97 Z0 F1600
G1 X103.537 Y68.915 Z0 F1600
G1 X103.574 Y68.881 Z0 F1600
G1 X103.608 Y68.811 Z0 F1600
G1 X103.627 Y68.721 Z0 F1600
G1 X103.63 Y68.607 Z0 F1600
G1 X103.617 Y68.468 Z0 F1600
G1 X103.587 Y68.301 Z0 F1600
G1 X103.54 Y68.103 Z0 F1600
; --- FIX X Backlash ---
G0 X101.64 Y68.103 F1200
G1 X101.576 Y67.872 Z0 F1600
G1 X101.494 Y67.605 Z0 F1600
G1 X101.359 Y67.174 Z0 F1600
G1 X100.725 Y65.136 Z0 F1600
G1 X100.605 Y64.755 Z0 F1600
G1 X100.494 Y64.413 Z0 F1600
G1 X100.392 Y64.112 Z0 F1600
G1 X100.3 Y63.856 Z0 F1600
G1 X100.219 Y63.646 Z0 F1600
G1 X100.15 Y63.485 Z0 F1600
G1 X100.095 Y63.377 Z0 F1600
G1 X100.054 Y63.324 Z0 F1600
G1 X99.999 Y63.287 Z0 F1600
G1 X99.931 Y63.263 Z0 F1600
G1 X99.82 Y63.252 Z0 F1600
G1 X99.633 Y63.257 Z0 F1600
G1 X99.503 Y63.267 Z0 F1600
G1 X99.147 Y63.299 Z0 F1600
; --- FIX Y Backlash ---
G0 X99.147 Y65.099 F1200
G1 X98.639 Y65.153 Z0 F1600
G1 X96.571 Y65.381 Z0 F1600
G1 X96.34 Y65.403 Z0 F1600
G1 X96.146 Y65.418 Z0 F1600
G1 X95.985 Y65.422 Z0 F1600
G1 X95.852 Y65.417 Z0 F1600
G1 X95.742 Y65.401 Z0 F1600
; --- FIX Y Backlash ---
G0 X95.742 Y63.601 F1200
G1 X95.58 Y63.532 Z0 F1600
G1 X95.462 Y63.407 Z0 F1600
G1 X95.356 Y63.218 Z0 F1600
G1 X95.227 Y62.959 Z0 F1600
G1 X94.845 Y62.256 Z0 F1600
G1 X94.407 Y61.507 Z0 F1600
G1 X94.221 Y61.197 Z0 F1600
G1 X94.069 Y60.93 Z0 F1600
G1 X94.01 Y60.822 Z0 F1600
G1 X93.966 Y60.735 Z0 F1600
G1 X93.938 Y60.673 Z0 F1600
G1 X93.928 Y60.64 Z0 F1600
G1 X93.952 Y60.586 Z0 F1600
; --- FIX X Backlash ---
G0 X95.852 Y60.586 F1200
G1 X95.921 Y60.466 Z0 F1600
G1 X96.03 Y60.288 Z0 F1600
G1 X96.174 Y60.058 Z0 F1600
G1 X96.349 Y59.785 Z0 F1600
G1 X96.77 Y59.139 Z0 F1600
G1 X97.252 Y58.41 Z0 F1600
G1 X97.476 Y58.062 Z0 F1600
G1 X97.677 Y57.743 Z0 F1600
G1 X97.85 Y57.46 Z0 F1600
G1 X97.991 Y57.22 Z0 F1600
G1 X98.097 Y57.029 Z0 F1600
G1 X98.163 Y56.893 Z0 F1600
G1 X98.187 Y56.819 Z0 F1600
G1 X98.171 Y56.757 Z0 F1600
G1 X98.124 Y56.669 Z0 F1600
; --- FIX X Backlash ---
G0 X96.224 Y56.669 F1200
G1 X96.145 Y56.553 Z0 F1600
G1 X96.031 Y56.409 Z0 F1600
G1 X95.883 Y56.235 Z0 F1600
G1 X95.697 Y56.029 Z0 F1600
G1 X95.474 Y55.789 Z0 F1600
G1 X95.211 Y55.514 Z0 F1600
G1 X94.171 Y54.44 Z0 F1600
G1 X93.627 Y53.883 Z0 F1600
G1 X93.19 Y53.443 Z0 F1600
G1 X92.85 Y53.11 Z0 F1600
G1 X92.714 Y52.981 Z0 F1600
G1 X92.599 Y52.875 Z0 F1600
G1 X92.504 Y52.791 Z0 F1600
G1 X92.366 Y52.684 Z0 F1600
G1 X92.293 Y52.65 Z0 F1600
G1 X92.231 Y52.675 Z0 F1600
; --- FIX Y Backlash ---
G0 X92.231 Y54.475 F1200
G1 X92.101 Y54.547 Z0 F1600
G1 X91.91 Y54.66 Z0 F1600
G1 X91.667 Y54.811 Z0 F1600
G1 X91.379 Y54.993 Z0 F1600
G1 X91.056 Y55.201 Z0 F1600
G1 X90.704 Y55.431 Z0 F1600
G1 X90.332 Y55.678 Z0 F1600
G1 X88.492 Y56.906 Z0 F1600
; --- FIX Y Backlash ---
G0 X88.492 Y55.106 F1200
G1 X87.41 Y54.287 Z0 F1600
G0 Z3.5 F1000

; Color picking sequence
G1 Z10 F1000;         ; Raise brush
G0 X131 Y5 F1200;    ; Rapid move to color 1
G1 Z10 F1000;         ; Raise brush
G0 X131 Y5 F1200;    ; Rapid move to color 1
G1 Z0 F1000;         ; Lower into color
G1 X130.102 Y7.295 Z0 S800 F1200
G1 X130.026 Y7.642 Z0 F1200
G1 X130 Y8 Z0 F1200
G1 X130.026 Y8.358 Z0 F1200
G1 X130.102 Y8.705 Z0 F1200
G1 X130.225 Y9.041 Z0 F1200
G1 X130.393 Y9.362 Z0 F1200
G1 X130.603 Y9.668 Z0 F1200
G1 X130.854 Y9.957 Z0 F1200
G1 X131.142 Y10.226 Z0 F1200
G1 X131.464 Y10.475 Z0 F1200
G1 X131.82 Y10.701 Z0 F1200
G1 X132.204 Y10.902 Z0 F1200
G1 X132.617 Y11.078 Z0 F1200
G1 X133.054 Y11.225 Z0 F1200
G1 X133.513 Y11.343 Z0 F1200
G1 X133.992 Y11.429 Z0 F1200
G1 X134.489 Y11.482 Z0 F1200
G1 X135 Y11.5 Z0 F1200
G1 X135.511 Y11.482 Z0 F1200
G1 X136.008 Y11.429 Z0 F1200
G1 X136.487 Y11.343 Z0 F1200
G1 X136.946 Y11.225 Z0 F1200
G1 X137.383 Y11.078 Z0 F1200
G1 X137.796 Y10.902 Z0 F1200
G1 X138.18 Y10.701 Z0 F1200
G1 X138.536 Y10.475 Z0 F1200
G1 X138.858 Y10.226 Z0 F1200
G1 X139.146 Y9.957 Z0 F1200
G1 X139.397 Y9.668 Z0 F1200
G1 X139.607 Y9.362 Z0 F1200
G1 X139.775 Y9.041 Z0 F1200
G1 X139.898 Y8.705 Z0 F1200
G1 X139.974 Y8.358 Z0 F1200
G1 X140 Y8 Z0 F1200
G1 X139.974 Y7.642 Z0 F1200
G1 X139.898 Y7.295 Z0 F1200
G1 X139.775 Y6.959 Z0 F1200
G1 X139.607 Y6.638 Z0 F1200
G1 X139.397 Y6.332 Z0 F1200
G1 X139.146 Y6.043 Z0 F1200
G1 X138.858 Y5.774 Z0 F1200
G1 X138.536 Y5.525 Z0 F1200
G1 X138.18 Y5.299 Z0 F1200
G1 X137.796 Y5.098 Z0 F1200
G1 X137.383 Y4.922 Z0 F1200
G1 X136.946 Y4.775 Z0 F1200
G1 X136.487 Y4.657 Z0 F1200
G1 X136.008 Y4.571 Z0 F1200
G1 X135.511 Y4.518 Z0 F1200
G1 X135 Y4.5 Z0 F1200
G1 X134.489 Y4.518 Z0 F1200
G1 X133.992 Y4.571 Z0 F1200
G1 X133.513 Y4.657 Z0 F1200
G1 X133.054 Y4.775 Z0 F1200
G1 X132.617 Y4.922 Z0 F1200
G1 X132.204 Y5.098 Z0 F1200
G1 X131.82 Y5.299 Z0 F1200
G1 X131.464 Y5.525 Z0 F1200
G1 X131.142 Y5.774 Z0 F1200
G1 X130.854 Y6.043 Z0 F1200
G1 X130.603 Y6.332 Z0 F1200
G1 X130.393 Y6.638 Z0 F1200
G1 X130.225 Y6.959 Z0 F1200
G1 Z7 F800;         ; Raise from color
G1 X124 Y8 Z1 F1200;     ; Movement in paint
G1 X114 Y18 Z8 F500;     ; Move in paint
G1 F1200;           ; Set feed rate
G0 Z2 F1000 ; Safety Lift
G0 X87.41 Y54.287 F1200 ; Return to pos
; --- FIX Y Backlash ---
G0 X87.41 Y56.087 F1200
G0 X60.663 Y59.737 Z3.5
G1 Z0 F1000
; --- FIX Y Backlash ---
G0 X60.663 Y57.937 F1200
G1 X60.635 Y57.862 Z0 F1600
G1 X60.558 Y57.704 Z0 F1600
G1 X60.445 Y57.486 Z0 F1600
G1 X60.006 Y56.676 Z0 F1600
G1 X59.617 Y55.943 Z0 F1600
G1 X58.934 Y54.641 Z0 F1600
G1 X58.799 Y54.387 Z0 F1600
G1 X58.742 Y54.285 Z0 F1600
G1 X58.698 Y54.302 Z0 F1600
; --- FIX Y Backlash ---
G0 X58.698 Y56.102 F1200
G1 X58.597 Y56.17 Z0 F1600
G1 X58.455 Y56.278 Z0 F1600
G1 X58.111 Y56.562 Z0 F1600
G1 X57.953 Y56.691 Z0 F1600
G1 X57.828 Y56.788 Z0 F1600
G1 X57.754 Y56.84 Z0 F1600
G1 X57.714 Y56.835 Z0 F1600
G1 X57.632 Y56.802 Z0 F1600
; --- FIX Y Backlash ---
G0 X57.632 Y55.002 F1200
G1 X57.514 Y54.942 Z0 F1600
G1 X57.363 Y54.858 Z0 F1600
G1 X56.981 Y54.632 Z0 F1600
G1 X56.521 Y54.346 Z0 F1600
G1 X56.019 Y54.022 Z0 F1600
G1 X55.51 Y53.682 Z0 F1600
G1 X55.029 Y53.349 Z0 F1600
G1 X54.413 Y52.902 Z0 F1600
G1 X54.245 Y52.798 Z0 F1600
G1 X54.101 Y52.734 Z0 F1600
G1 X53.973 Y52.71 Z0 F1600
G1 X53.851 Y52.725 Z0 F1600
; --- FIX Y Backlash ---
G0 X53.851 Y54.525 F1200
G1 X53.727 Y54.58 Z0 F1600
G1 X53.594 Y54.673 Z0 F1600
G1 X53.442 Y54.805 Z0 F1600
G1 X53.336 Y54.907 Z0 F1600
G1 X53.172 Y55.069 Z0 F1600
G1 X52.708 Y55.538 Z0 F1600
G1 X52.114 Y56.147 Z0 F1600
G1 X51.455 Y56.829 Z0 F1600
G1 X50.99 Y57.315 Z0 F1600
G1 X50.622 Y57.705 Z0 F1600
G1 X50.341 Y58.011 Z0 F1600
G1 X50.23 Y58.136 Z0 F1600
G1 X50.137 Y58.244 Z0 F1600
G1 X50.001 Y58.417 Z0 F1600
G1 X49.921 Y58.541 Z0 F1600
G1 X49.888 Y58.63 Z0 F1600
G1 X49.891 Y58.695 Z0 F1600
G1 X49.914 Y58.749 Z0 F1600
G1 X49.958 Y58.832 Z0 F1600
; --- FIX X Backlash ---
G0 X51.858 Y58.832 F1200
G1 X51.919 Y58.941 Z0 F1600
G1 X51.996 Y59.071 Z0 F1600
G1 X52.186 Y59.38 Z0 F1600
G1 X52.407 Y59.724 Z0 F1600
G1 X52.624 Y60.055 Z0 F1600
G1 X52.87 Y60.438 Z0 F1600
G1 X52.954 Y60.575 Z0 F1600
G1 X52.978 Y60.621 Z0 F1600
G1 X53.07 Y60.765 Z0 F1600
G1 X53.337 Y61.168 Z0 F1600
G1 X54.181 Y62.412 Z0 F1600
; --- FIX X Backlash ---
G0 X52.281 Y62.412 F1200
G1 X51.938 Y62.937 Z0 F1600
G1 X51.858 Y63.063 Z0 F1600
G1 X51.763 Y63.218 Z0 F1600
G1 X51.54 Y63.596 Z0 F1600
G1 X51.298 Y64.022 Z0 F1600
G1 X50.925 Y64.702 Z0 F1600
G1 X50.805 Y64.914 Z0 F1600
G1 X50.702 Y65.085 Z0 F1600
G1 X50.615 Y65.217 Z0 F1600
G1 X50.541 Y65.315 Z0 F1600
G1 X50.478 Y65.38 Z0 F1600
G1 X50.423 Y65.417 Z0 F1600
G1 X50.374 Y65.429 Z0 F1600
G1 X50.301 Y65.425 Z0 F1600
G1 X49.944 Y65.395 Z0 F1600
; --- FIX Y Backlash ---
G0 X49.944 Y63.595 F1200
G1 X49.365 Y63.54 Z0 F1600
G1 X47.802 Y63.384 Z0 F1600
G1 X47.41 Y63.348 Z0 F1600
G1 X47.062 Y63.319 Z0 F1600
G1 X46.761 Y63.298 Z0 F1600
G1 X46.512 Y63.284 Z0 F1600
G1 X46.32 Y63.279 Z0 F1600
G1 X46.19 Y63.282 Z0 F1600
G1 X46.127 Y63.294 Z0 F1600
; --- FIX Y Backlash ---
G0 X46.127 Y65.094 F1200
G1 X46.075 Y65.149 Z0 F1600
G1 X46.009 Y65.268 Z0 F1600
G1 X45.928 Y65.457 Z0 F1600
G1 X45.83 Y65.722 Z0 F1600
G1 X45.712 Y66.069 Z0 F1600
G1 X45.572 Y66.504 Z0 F1600
G1 X45.492 Y66.757 Z0 F1600
G1 X45.315 Y67.338 Z0 F1600
G1 X45.1 Y68.049 Z0 F1600
G1 X44.878 Y68.764 Z0 F1600
G1 X44.703 Y69.309 Z0 F1600
G1 X44.619 Y69.587 Z0 F1600
G1 X44.548 Y69.84 Z0 F1600
G1 X44.492 Y70.063 Z0 F1600
G1 X44.45 Y70.252 Z0 F1600
G1 X44.424 Y70.405 Z0 F1600
G1 X44.414 Y70.518 Z0 F1600
G1 X44.423 Y70.586 Z0 F1600
G1 X44.449 Y70.63 Z0 F1600
; --- FIX X Backlash ---
G0 X46.349 Y70.63 F1200
G1 X46.4 Y70.683 Z0 F1600
G1 X46.473 Y70.747 Z0 F1600
G1 X46.57 Y70.821 Z0 F1600
G1 X46.83 Y70.996 Z0 F1600
G1 X47.178 Y71.208 Z0 F1600
G1 X47.61 Y71.455 Z0 F1600
G1 X48.123 Y71.734 Z0 F1600
G1 X48.713 Y72.045 Z0 F1600
G1 X49.379 Y72.385 Z0 F1600
G1 X50.143 Y72.77 Z0 F1600
; --- FIX X Backlash ---
G0 X48.243 Y72.77 F1200
G1 X48.125 Y74.747 Z0 F1600
G1 X48.078 Y75.461 Z0 F1600
G1 X48.052 Y75.818 Z0 F1600
G1 X48.029 Y76.087 Z0 F1600
G1 X48.009 Y76.275 Z0 F1600
G1 X47.991 Y76.389 Z0 F1600
G1 X47.975 Y76.435 Z0 F1600
G1 X47.94 Y76.455 Z0 F1600
G1 X47.861 Y76.489 Z0 F1600
G1 X47.592 Y76.597 Z0 F1600
G1 X47.206 Y76.745 Z0 F1600
G1 X46.74 Y76.919 Z0 F1600
G1 X46.231 Y77.105 Z0 F1600
G1 X45.718 Y77.289 Z0 F1600
G1 X45.238 Y77.458 Z0 F1600
G1 X44.827 Y77.597 Z0 F1600
G1 X44.478 Y77.721 Z0 F1600
G1 X44.175 Y77.842 Z0 F1600
G1 X44.052 Y77.898 Z0 F1600
G1 X43.952 Y77.948 Z0 F1600
G1 X43.881 Y77.99 Z0 F1600
G1 X43.841 Y78.023 Z0 F1600
G1 X43.803 Y78.089 Z0 F1600
G1 X43.778 Y78.18 Z0 F1600
G1 X43.77 Y78.307 Z0 F1600
G1 X43.777 Y78.481 Z0 F1600
G1 X43.802 Y78.712 Z0 F1600
G1 X43.845 Y79.013 Z0 F1600
; --- FIX X Backlash ---
G0 X45.745 Y79.013 F1200
G1 X45.808 Y79.394 Z0 F1600
G1 X46.3 Y82.184 Z0 F1600
G1 X46.362 Y82.526 Z0 F1600
G1 X46.419 Y82.824 Z0 F1600
G1 X46.473 Y83.079 Z0 F1600
G1 X46.523 Y83.292 Z0 F1600
G1 X46.569 Y83.464 Z0 F1600
G1 X46.612 Y83.596 Z0 F1600
G1 X46.651 Y83.688 Z0 F1600
G1 X46.688 Y83.741 Z0 F1600
G1 X46.742 Y83.779 Z0 F1600
G1 X46.828 Y83.81 Z0 F1600
G1 X46.956 Y83.836 Z0 F1600
G1 X47.138 Y83.858 Z0 F1600
G1 X47.387 Y83.876 Z0 F1600
G1 X47.715 Y83.892 Z0 F1600
G1 X48.134 Y83.908 Z0 F1600
G1 X48.655 Y83.923 Z0 F1600
G1 X50.047 Y83.958 Z0 F1600
G1 X50.549 Y83.969 Z0 F1600
G1 X50.825 Y83.973 Z0 F1600
G1 X51.024 Y83.981 Z0 F1600
G1 X51.144 Y84.033 Z0 F1600
G1 X51.189 Y84.088 Z0 F1600
G1 X51.233 Y84.172 Z0 F1600
G1 X51.281 Y84.287 Z0 F1600
G1 X51.494 Y84.843 Z0 F1600
G1 X51.622 Y85.153 Z0 F1600
G1 X51.979 Y85.987 Z0 F1600
G1 X52.571 Y87.39 Z0 F1600
; --- FIX X Backlash ---
G0 X50.671 Y87.39 F1200
G1 X49.669 Y88.465 Z0 F1600
G1 X48.834 Y89.356 Z0 F1600
G1 X48.236 Y89.989 Z0 F1600
G1 X48.065 Y90.178 Z0 F1600
G1 X47.919 Y90.36 Z0 F1600
G1 X47.812 Y90.514 Z0 F1600
G1 X47.76 Y90.62 Z0 F1600
G1 X47.744 Y90.698 Z0 F1600
G1 X47.752 Y90.784 Z0 F1600
G1 X47.802 Y90.908 Z0 F1600
; --- FIX X Backlash ---
G0 X49.702 Y90.908 F1200
G1 X49.811 Y91.099 Z0 F1600
G1 X49.894 Y91.229 Z0 F1600
G1 X49.999 Y91.387 Z0 F1600
G1 X50.284 Y91.801 Z0 F1600
G1 X50.684 Y92.372 Z0 F1600
G1 X51.737 Y93.865 Z0 F1600
G1 X52.528 Y94.994 Z0 F1600
G1 X52.703 Y95.247 Z0 F1600
G1 X52.799 Y95.376 Z0 F1600
G1 X52.9 Y95.466 Z0 F1600
G1 X53.015 Y95.517 Z0 F1600
G1 X53.157 Y95.528 Z0 F1600
G1 X53.338 Y95.497 Z0 F1600
; --- FIX Y Backlash ---
G0 X53.338 Y93.697 F1200
G1 X53.568 Y93.625 Z0 F1600
G1 X53.861 Y93.511 Z0 F1600
G1 X54.226 Y93.353 Z0 F1600
G1 X54.66 Y93.16 Z0 F1600
G1 X55.138 Y92.945 Z0 F1600
G1 X55.673 Y92.701 Z0 F1600
G1 X57.198 Y92.001 Z0 F1600
; --- FIX Y Backlash ---
G0 X57.198 Y93.801 F1200
G1 X57.502 Y94.064 Z0 F1600
G1 X57.823 Y94.353 Z0 F1600
G1 X58.315 Y94.818 Z0 F1600
G1 X58.444 Y94.931 Z0 F1600
G1 X58.543 Y95.007 Z0 F1600
G1 X58.597 Y95.035 Z0 F1600
; --- FIX Y Backlash ---
G0 X58.597 Y93.235 F1200
G1 X58.668 Y93.169 Z0 F1600
G1 X58.747 Y93.011 Z0 F1600
G1 X58.862 Y92.734 Z0 F1600
G1 X59.022 Y92.381 Z0 F1600
G1 X59.469 Y91.412 Z0 F1600
G1 X59.924 Y90.409 Z0 F1600
G1 X60.301 Y89.564 Z0 F1600
G1 X60.394 Y89.343 Z0 F1600
G1 X60.441 Y89.172 Z0 F1600
G1 X60.438 Y89.027 Z0 F1600
; --- FIX X Backlash ---
G0 X58.538 Y89.027 F1200
G1 X58.479 Y88.882 Z0 F1600
G1 X58.359 Y88.715 Z0 F1600
G1 X58.275 Y88.615 Z0 F1600
G1 X57.915 Y88.214 Z0 F1600
G1 X57.347 Y87.557 Z0 F1600
G1 X56.813 Y86.897 Z0 F1600
G1 X56.313 Y86.232 Z0 F1600
G1 X55.846 Y85.562 Z0 F1600
G1 X55.411 Y84.885 Z0 F1600
G1 X55.008 Y84.199 Z0 F1600
G1 X54.636 Y83.505 Z0 F1600
G1 X54.295 Y82.799 Z0 F1600
G1 X53.984 Y82.082 Z0 F1600
G1 X53.703 Y81.351 Z0 F1600
G1 X53.451 Y80.606 Z0 F1600
G1 X53.227 Y79.845 Z0 F1600
G1 X53.031 Y79.068 Z0 F1600
G1 X52.863 Y78.272 Z0 F1600
G1 X52.721 Y77.457 Z0 F1600
G1 X52.606 Y76.621 Z0 F1600
G1 X52.581 Y76.372 Z0 F1600
G1 X52.561 Y76.086 Z0 F1600
G1 X52.547 Y75.769 Z0 F1600
G1 X52.538 Y75.425 Z0 F1600
G1 X52.534 Y74.679 Z0 F1600
G1 X52.549 Y73.888 Z0 F1600
G1 X52.581 Y73.095 Z0 F1600
G1 X52.63 Y72.34 Z0 F1600
G1 X52.66 Y71.99 Z0 F1600
G1 X52.693 Y71.666 Z0 F1600
G1 X52.73 Y71.371 Z0 F1600
G1 X52.77 Y71.113 Z0 F1600
; --- FIX X Backlash ---
G0 X54.67 Y71.113 F1200
G1 X54.924 Y69.855 Z0 F1600
G1 X55.239 Y68.646 Z0 F1600
G1 X55.618 Y67.482 Z0 F1600
G1 X56.062 Y66.354 Z0 F1600
G1 X56.576 Y65.259 Z0 F1600
G1 X57.161 Y64.189 Z0 F1600
G1 X57.82 Y63.139 Z0 F1600
G1 X58.556 Y62.103 Z0 F1600
G1 X58.702 Y61.915 Z0 F1600
G1 X58.878 Y61.7 Z0 F1600
G1 X59.08 Y61.463 Z0 F1600
G1 X59.304 Y61.208 Z0 F1600
G1 X59.8 Y60.66 Z0 F1600
G1 X60.334 Y60.092 Z0 F1600
G1 X60.871 Y59.537 Z0 F1600
G1 X61.379 Y59.032 Z0 F1600
G1 X61.612 Y58.808 Z0 F1600
G1 X61.826 Y58.61 Z0 F1600
G1 X62.015 Y58.441 Z0 F1600
G1 X62.327 Y58.182 Z0 F1600
G1 X62.449 Y58.071 Z0 F1600
G1 X62.532 Y57.985 Z0 F1600
G1 X62.563 Y57.937 Z0 F1600
G0 Z3.5 F1000
; --- FIX Y Backlash ---
G0 X62.563 Y59.737 F1200
G0 X66.237 Y94.71 Z3.5
G1 Z0 F1000
G1 X66.214 Y94.725 Z0 F1600
G1 X66.172 Y94.769 Z0 F1600
; --- FIX X Backlash ---
G0 X64.272 Y94.769 F1200
G1 X64.214 Y94.839 Z0 F1600
G1 X64.143 Y94.931 Z0 F1600
G1 X63.968 Y95.17 Z0 F1600
G1 X63.765 Y95.462 Z0 F1600
G1 X63.556 Y95.77 Z0 F1600
G1 X63.278 Y96.175 Z0 F1600
G1 X63.055 Y96.491 Z0 F1600
G1 X62.506 Y97.287 Z0 F1600
G1 X61.401 Y98.905 Z0 F1600
G1 X60.661 Y99.981 Z0 F1600
G1 X59.789 Y101.239 Z0 F1600
G1 X59.564 Y101.576 Z0 F1600
G1 X59.479 Y101.707 Z0 F1600
G1 X59.417 Y101.807 Z0 F1600
G1 X59.38 Y101.873 Z0 F1600
G1 X59.372 Y101.9 Z0 F1600
; --- FIX X Backlash ---
G0 X61.272 Y101.9 F1200
G1 X61.338 Y101.945 Z0 F1600
G1 X61.458 Y102.013 Z0 F1600
G1 X61.625 Y102.102 Z0 F1600
G1 X61.829 Y102.207 Z0 F1600
G1 X62.323 Y102.452 Z0 F1600
G1 X62.877 Y102.719 Z0 F1600
G1 X63.429 Y102.978 Z0 F1600
G1 X63.917 Y103.2 Z0 F1600
G1 X64.118 Y103.287 Z0 F1600
G1 X64.28 Y103.354 Z0 F1600
G1 X64.394 Y103.397 Z0 F1600
G1 X64.454 Y103.412 Z0 F1600
G1 X64.576 Y103.389 Z0 F1600
; --- FIX Y Backlash ---
G0 X64.576 Y101.589 F1200
G1 X64.704 Y101.507 Z0 F1600
G1 X64.776 Y101.439 Z0 F1600
G1 X64.857 Y101.351 Z0 F1600
G1 X64.949 Y101.24 Z0 F1600
G1 X65.427 Y100.625 Z0 F1600
G1 X66.145 Y99.734 Z0 F1600
G1 X66.729 Y98.983 Z0 F1600
G1 X66.89 Y98.78 Z0 F1600
G1 X67.017 Y98.624 Z0 F1600
G1 X67.2 Y98.413 Z0 F1600
G1 X67.315 Y98.262 Z0 F1600
G1 X67.385 Y98.176 Z0 F1600
G1 X67.453 Y98.137 Z0 F1600
G1 X67.539 Y98.141 Z0 F1600
; --- FIX Y Backlash ---
G0 X67.539 Y99.941 F1200
G1 X67.883 Y100.057 Z0 F1600
G1 X68.193 Y100.148 Z0 F1600
G1 X68.564 Y100.246 Z0 F1600
G1 X68.968 Y100.345 Z0 F1600
G1 X69.375 Y100.438 Z0 F1600
G1 X69.757 Y100.519 Z0 F1600
G1 X70.086 Y100.58 Z0 F1600
G1 X70.334 Y100.616 Z0 F1600
G1 X70.586 Y100.649 Z0 F1600
G1 X70.764 Y100.691 Z0 F1600
G1 X70.879 Y100.745 Z0 F1600
G1 X70.944 Y100.817 Z0 F1600
G1 X70.968 Y100.888 Z0 F1600
G1 X71.006 Y101.033 Z0 F1600
G1 X71.056 Y101.243 Z0 F1600
G1 X71.117 Y101.511 Z0 F1600
G1 X71.185 Y101.826 Z0 F1600
G1 X71.34 Y102.565 Z0 F1600
G1 X71.509 Y103.406 Z0 F1600
G1 X71.593 Y103.8 Z0 F1600
G1 X71.67 Y104.149 Z0 F1600
G1 X71.74 Y104.447 Z0 F1600
G1 X71.803 Y104.692 Z0 F1600
G1 X71.856 Y104.876 Z0 F1600
G1 X71.898 Y104.997 Z0 F1600
G1 X71.929 Y105.049 Z0 F1600
G1 X71.955 Y105.056 Z0 F1600
G1 X72.011 Y105.062 Z0 F1600
G1 X72.094 Y105.069 Z0 F1600
G1 X72.204 Y105.075 Z0 F1600
G1 X72.495 Y105.087 Z0 F1600
G1 X72.872 Y105.098 Z0 F1600
G1 X73.321 Y105.106 Z0 F1600
G1 X73.832 Y105.113 Z0 F1600
G1 X74.39 Y105.117 Z0 F1600
G1 X74.985 Z0 F1600
G1 X77.931 Y105.12 Z0 F1600
; --- FIX Y Backlash ---
G0 X77.931 Y103.32 F1200
G1 X78.05 Y103.137 Z0 F1600
G1 X78.107 Y103.008 Z0 F1600
G1 X78.175 Y102.793 Z0 F1600
G1 X78.244 Y102.521 Z0 F1600
G1 X78.306 Y102.222 Z0 F1600
G1 X78.591 Y100.753 Z0 F1600
G1 X78.962 Y98.892 Z0 F1600
G1 X79.689 Y98.79 Z0 F1600
G1 X80.054 Y98.729 Z0 F1600
G1 X80.511 Y98.637 Z0 F1600
G1 X81.003 Y98.528 Z0 F1600
G1 X81.469 Y98.412 Z0 F1600
G1 X82.523 Y98.136 Z0 F1600
; --- FIX Y Backlash ---
G0 X82.523 Y99.936 F1200
G1 X82.689 Y100.149 Z0 F1600
G1 X83.384 Y101.027 Z0 F1600
G1 X83.889 Y101.669 Z0 F1600
G1 X84.615 Y102.612 Z0 F1600
G1 X84.821 Y102.874 Z0 F1600
G1 X84.986 Y103.072 Z0 F1600
G1 X85.118 Y103.217 Z0 F1600
G1 X85.225 Y103.315 Z0 F1600
G1 X85.315 Y103.374 Z0 F1600
G1 X85.397 Y103.404 Z0 F1600
G1 X85.479 Y103.412 Z0 F1600
G1 X85.553 Y103.396 Z0 F1600
G1 X85.684 Y103.349 Z0 F1600
; --- FIX Y Backlash ---
G0 X85.684 Y101.549 F1200
G1 X85.861 Y101.477 Z0 F1600
G1 X86.077 Y101.382 Z0 F1600
G1 X86.592 Y101.143 Z0 F1600
G1 X87.163 Y100.867 Z0 F1600
G1 X87.723 Y100.584 Z0 F1600
G1 X88.205 Y100.329 Z0 F1600
G1 X88.396 Y100.223 Z0 F1600
G1 X88.543 Y100.135 Z0 F1600
G1 X88.637 Y100.071 Z0 F1600
G1 X88.671 Y100.034 Z0 F1600
G1 X88.638 Y99.942 Z0 F1600
; --- FIX X Backlash ---
G0 X86.738 Y99.942 F1200
G1 X86.659 Y99.829 Z0 F1600
G1 X86.623 Y99.783 Z0 F1600
G1 X86.475 Y99.583 Z0 F1600
G1 X86.115 Y99.079 Z0 F1600
G1 X85.515 Y98.228 Z0 F1600
G1 X85.092 Y97.62 Z0 F1600
G1 X84.873 Y97.3 Z0 F1600
G1 X84.538 Y96.805 Z0 F1600
G1 X83.928 Y95.928 Z0 F1600
G1 X83.49 Y95.288 Z0 F1600
G1 X82.919 Y94.449 Z0 F1600
G1 X82.221 Y93.418 Z0 F1600
G1 X82.081 Y93.221 Z0 F1600
G1 X81.954 Y93.059 Z0 F1600
G1 X81.855 Y92.95 Z0 F1600
G1 X81.796 Y92.91 Z0 F1600
G1 X81.719 Y92.929 Z0 F1600
; --- FIX Y Backlash ---
G0 X81.719 Y94.729 F1200
G1 X81.57 Y94.784 Z0 F1600
G1 X81.37 Y94.864 Z0 F1600
G1 X81.141 Y94.961 Z0 F1600
G1 X80.546 Y95.202 Z0 F1600
G1 X79.876 Y95.437 Z0 F1600
G1 X79.154 Y95.661 Z0 F1600
G1 X78.401 Y95.867 Z0 F1600
G1 X77.638 Y96.051 Z0 F1600
G1 X76.888 Y96.207 Z0 F1600
G1 X76.172 Y96.329 Z0 F1600
G1 X75.512 Y96.412 Z0 F1600
G1 X74.99 Y96.452 Z0 F1600
G1 X74.395 Y96.479 Z0 F1600
G1 X73.749 Y96.493 Z0 F1600
G1 X73.078 Z0 F1600
G1 X72.405 Y96.483 Z0 F1600
G1 X71.753 Y96.459 Z0 F1600
G1 X71.148 Y96.423 Z0 F1600
G1 X70.614 Y96.376 Z0 F1600
; --- FIX Y Backlash ---
G0 X70.614 Y94.576 F1200
G1 X69.856 Y94.478 Z0 F1600
G1 X69.087 Y94.35 Z0 F1600
G1 X68.317 Y94.195 Z0 F1600
G1 X67.559 Y94.016 Z0 F1600
G1 X66.823 Y93.816 Z0 F1600
G1 X66.122 Y93.598 Z0 F1600
G1 X65.467 Y93.364 Z0 F1600
G1 X64.87 Y93.119 Z0 F1600
G1 X64.682 Y93.037 Z0 F1600
G1 X64.519 Y92.971 Z0 F1600
G1 X64.398 Y92.926 Z0 F1600
G1 X64.337 Y92.91 Z0 F1600
M9
M5
G1 Z10 F1000

; Color picking sequence
G1 Z10 F1000;         ; Raise brush
G0 X131 Y5 F1200;    ; Rapid move to color 1
G1 Z10 F1000;         ; Raise brush
G0 X131 Y5 F1200;    ; Rapid move to color 1
G1 Z0 F1000;         ; Lower into color
G1 X130.102 Y7.295 Z0 S800 F1200
G1 X130.026 Y7.642 Z0 F1200
G1 X130 Y8 Z0 F1200
G1 X130.026 Y8.358 Z0 F1200
G1 X130.102 Y8.705 Z0 F1200
G1 X130.225 Y9.041 Z0 F1200
G1 X130.393 Y9.362 Z0 F1200
G1 X130.603 Y9.668 Z0 F1200
G1 X130.854 Y9.957 Z0 F1200
G1 X131.142 Y10.226 Z0 F1200
G1 X131.464 Y10.475 Z0 F1200
G1 X131.82 Y10.701 Z0 F1200
G1 X132.204 Y10.902 Z0 F1200
G1 X132.617 Y11.078 Z0 F1200
G1 X133.054 Y11.225 Z0 F1200
G1 X133.513 Y11.343 Z0 F1200
G1 X133.992 Y11.429 Z0 F1200
G1 X134.489 Y11.482 Z0 F1200
G1 X135 Y11.5 Z0 F1200
G1 X135.511 Y11.482 Z0 F1200
G1 X136.008 Y11.429 Z0 F1200
G1 X136.487 Y11.343 Z0 F1200
G1 X136.946 Y11.225 Z0 F1200
G1 X137.383 Y11.078 Z0 F1200
G1 X137.796 Y10.902 Z0 F1200
G1 X138.18 Y10.701 Z0 F1200
G1 X138.536 Y10.475 Z0 F1200
G1 X138.858 Y10.226 Z0 F1200
G1 X139.146 Y9.957 Z0 F1200
G1 X139.397 Y9.668 Z0 F1200
G1 X139.607 Y9.362 Z0 F1200
G1 X139.775 Y9.041 Z0 F1200
G1 X139.898 Y8.705 Z0 F1200
G1 X139.974 Y8.358 Z0 F1200
G1 X140 Y8 Z0 F1200
G1 X139.974 Y7.642 Z0 F1200
G1 X139.898 Y7.295 Z0 F1200
G1 X139.775 Y6.959 Z0 F1200
G1 X139.607 Y6.638 Z0 F1200
G1 X139.397 Y6.332 Z0 F1200
G1 X139.146 Y6.043 Z0 F1200
G1 X138.858 Y5.774 Z0 F1200
G1 X138.536 Y5.525 Z0 F1200
G1 X138.18 Y5.299 Z0 F1200
G1 X137.796 Y5.098 Z0 F1200
G1 X137.383 Y4.922 Z0 F1200
G1 X136.946 Y4.775 Z0 F1200
G1 X136.487 Y4.657 Z0 F1200
G1 X136.008 Y4.571 Z0 F1200
G1 X135.511 Y4.518 Z0 F1200
G1 X135 Y4.5 Z0 F1200
G1 X134.489 Y4.518 Z0 F1200
G1 X133.992 Y4.571 Z0 F1200
G1 X133.513 Y4.657 Z0 F1200
G1 X133.054 Y4.775 Z0 F1200
G1 X132.617 Y4.922 Z0 F1200
G1 X132.204 Y5.098 Z0 F1200
G1 X131.82 Y5.299 Z0 F1200
G1 X131.464 Y5.525 Z0 F1200
G1 X131.142 Y5.774 Z0 F1200
G1 X130.854 Y6.043 Z0 F1200
G1 X130.603 Y6.332 Z0 F1200
G1 X130.393 Y6.638 Z0 F1200
G1 X130.225 Y6.959 Z0 F1200
G1 Z7 F800;         ; Raise from color
G1 X124 Y8 Z1 F1200;     ; Movement in paint
G1 X114 Y18 Z8 F500;     ; Move in paint
G1 F1200;           ; Set feed rate
G0 Z2 F1000 ; Safety Lift
G0 X64.337 Y92.91 F1200 ; Return to pos
G1 Z10 F800


; Return to 2,0 wash and park
G1 Z10 F1000;        ; Raise brush
G0 X5 Y5 F1200;     ; Rapid move to clean
G1 Z-1 F800;         ; Lower brush
G1 X10 Y12 Z8 F1200;     ; Move
G1 Z-1 F800;         ; Lower
G1 X25 Y14 Z6 F800;     ; Move
G0 X5 Y5 F1200;     ; Rapid
G1 Z-1 F800;         ; Lower
G1 X15 Y12 Z8 F1200;     ; Move
G1 Z-1 F800;         ; Lower
G1 X25 Y14 Z6 F800;     ; Move
G1 Z10 F800;         ; Maintain
G0 X20 Y130 Z10 F500;; Move to park
M2;                 ; End program
