
G0 Z10 F500;      ; Move to clearance level - Z motion limited to 500
; G0 X-10 Y-10 F1200; Homing
; G0 X-5 Y-5 F1200; go in
; G10 P0 L20 X0 Y0; set to zero
G1 F1200;           ; Set feed rate to 1000
;LightBurn 1.6.04
;Custom GCode device profile, absolute coords
;Bounds: X26.68 Y27.53 to X121.32 Y136.47
G00 G17 G40 G21 G54
G90
M3
G1 Z10 F1000
;Cut @ 1600 mm/min, 80% power

M8

; Washing sequence (no color)
G1 Z10 F1000;        ; Raise brush to safe height
G0 X5 Y5 F1200;     ; Rapid move to brush cleaning position
G1 Z-1 F800;         ; Lower brush for cleaning - controlled movement
G1 X10 Y12 Z8 F1200;     ; Rapid move to brush cleaning position
G1 Z-1 F800;         ; Lower brush for cleaning - controlled movement
G1 X25 Y14 Z6 F800;     ; Move across cleaning area - controlled movement
G1 Z8 F800;         ; Maintain brush height - controlled movement
G0 X5 Y5 F1200;     ; Rapid move to brush cleaning position
G1 Z-1 F800;         ; Lower brush for cleaning - controlled movement
G1 X15 Y12 Z8 F1200;     ; Rapid move to brush cleaning position
G1 Z-1 F800;         ; Lower brush for cleaning - controlled movement
G1 X25 Y14 Z6 F800;     ; Move across cleaning area - controlled movement
G1 Z10 F800;         ; Maintain brush height - controlled movement
G1 F1200;           ; Set feed rate to 1000

; Color picking sequence
G1 Z10 F1000;         ; Raise brush to safe height
G0 X86 Y5 F1200;    ; Rapid move to color 1 position
G1 Z0 F1000;         ; Lower into color - controlled movement
G1 X85.102Y7.295Z0S800F1200
G1 X85.026Y7.642Z0F1200
G1 X85Y8Z0F1200
G1 X85.026Y8.358Z0F1200
G1 X85.102Y8.705Z0F1200
G1 X85.225Y9.041Z0F1200
G1 X85.393Y9.362Z0F1200
G1 X85.603Y9.668Z0F1200
G1 X85.854Y9.957Z0F1200
G1 X86.142Y10.226Z0F1200
G1 X86.464Y10.475Z0F1200
G1 X86.82Y10.701Z0F1200
G1 X87.204Y10.902Z0F1200
G1 X87.617Y11.078Z0F1200
G1 X88.054Y11.225Z0F1200
G1 X88.513Y11.343Z0F1200
G1 X88.992Y11.429Z0F1200
G1 X89.489Y11.482Z0F1200
G1 X90Y11.5Z0F1200
G1 X90.511Y11.482Z0F1200
G1 X91.008Y11.429Z0F1200
G1 X91.487Y11.343Z0F1200
G1 X91.946Y11.225Z0F1200
G1 X92.383Y11.078Z0F1200
G1 X92.796Y10.902Z0F1200
G1 X93.18Y10.701Z0F1200
G1 X93.536Y10.475Z0F1200
G1 X93.858Y10.226Z0F1200
G1 X94.146Y9.957Z0F1200
G1 X94.397Y9.668Z0F1200
G1 X94.607Y9.362Z0F1200
G1 X94.775Y9.041Z0F1200
G1 X94.898Y8.705Z0F1200
G1 X94.974Y8.358Z0F1200
G1 X95Y8Z0F1200
G1 X94.974Y7.642Z0F1200
G1 X94.898Y7.295Z0F1200
G1 X94.775Y6.959Z0F1200
G1 X94.607Y6.638Z0F1200
G1 X94.397Y6.332Z0F1200
G1 X94.146Y6.043Z0F1200
G1 X93.858Y5.774Z0F1200
G1 X93.536Y5.525Z0F1200
G1 X93.18Y5.299Z0F1200
G1 X92.796Y5.098Z0F1200
G1 X92.383Y4.922Z0F1200
G1 X91.946Y4.775Z0F1200
G1 X91.487Y4.657Z0F1200
G1 X91.008Y4.571Z0F1200
G1 X90.511Y4.518Z0F1200
G1 X90Y4.5Z0F1200
G1 X89.489Y4.518Z0F1200
G1 X88.992Y4.571Z0F1200
G1 X88.513Y4.657Z0F1200
G1 X88.054Y4.775Z0F1200
G1 X87.617Y4.922Z0F1200
G1 X87.204Y5.098Z0F1200
G1 X86.82Y5.299Z0F1200
G1 X86.464Y5.525Z0F1200
G1 X86.142Y5.774Z0F1200
G1 X85.854Y6.043Z0F1200
G1 X85.603Y6.332Z0F1200
G1 X85.393Y6.638Z0F1200
G1 X85.225Y6.959Z0F1200
G1 Z7 F800;         ; Raise from color - controlled movement
G1 X79 Y8 Z1 F1200;     ; Movement in paint - controlled movement
G1 X69 Y18 Z8 F500;     ; Move in paint - controlled movement
G1 F1200;           ; Set feed rate to 1000
G0 Z4.8F1000
G0 X59.47Y48.848Z4.8
G1 Z0F1000
;Layer C2
G1 X59.347Y48.921Z0S800F1600
G1 X59.195Y49.041Z0F1600
G1 X59.01Y49.211Z0F1600
G1 X58.788Y49.432Z0F1600
G1 X58.495Y49.726Z0F1600
G1 X58.229Y49.981Z0F1600
G1 X57.973Y50.209Z0F1600
G1 X57.713Y50.423Z0F1600
G1 X57.433Y50.634Z0F1600
G1 X57.119Y50.853Z0F1600
G1 X56.755Y51.093Z0F1600
G1 X56.328Y51.365Z0F1600
G1 X55.88Y51.627Z0F1600
G1 X55.378Y51.889Z0F1600
G1 X54.846Y52.141Z0F1600
G1 X54.313Y52.37Z0F1600
G1 X53.803Y52.567Z0F1600
G1 X53.344Y52.722Z0F1600
G1 X53.141Y52.779Z0F1600
G1 X52.96Y52.822Z0F1600
G1 X52.806Y52.849Z0F1600
G1 X52.553Y52.865Z0F1600
G1 X52.46Y52.889Z0F1600
G1 X52.4Y52.931Z0F1600
G1 X52.375Y52.994Z0F1600
G1 X52.382Y53.079Z0F1600
G1 X52.423Y53.188Z0F1600
G1 X52.496Y53.323Z0F1600
G1 X52.665Y53.583Z0F1600
G1 X52.743Y53.708Z0F1600
G1 X52.94Y54.034Z0F1600
G1 X53.181Y54.445Z0F1600
G1 X53.453Y54.92Z0F1600
G1 X54.045Y55.98Z0F1600
G1 X54.623Y57.049Z0F1600
G1 X54.836Y57.444Z0F1600
G1 X55.025Y57.788Z0F1600
G1 X55.104Y57.929Z0F1600
G1 X55.219Y58.126Z0F1600
G1 X55.282Y58.223Z0F1600
G1 X55.336Y58.317Z0F1600
G1 X55.498Y58.612Z0F1600
G1 X55.713Y59.016Z0F1600
G1 X56.203Y59.959Z0F1600
G1 X56.516Y60.55Z0F1600
G1 X56.653Y60.799Z0F1600
G1 X56.724Y60.921Z0F1600
G1 X56.862Y61.192Z0F1600
G1 X57.084Y61.642Z0F1600
G1 X57.376Y62.243Z0F1600
G1 X57.915Y63.362Z0F1600
G1 X58.32Y64.209Z0F1600
G1 X58.744Y65.103Z0F1600
G1 X59.175Y66.014Z0F1600
G1 X59.296Y66.252Z0F1600
G1 X59.408Y66.439Z0F1600
G1 X59.498Y66.557Z0F1600
G1 X59.555Y66.587Z0F1600
G1 X66.892Y62.135Z0F1600
G1 X67.312Y61.869Z0F1600
G1 X67.656Y61.629Z0F1600
G1 X67.788Y61.527Z0F1600
G1 X67.888Y61.442Z0F1600
G1 X67.951Y61.377Z0F1600
G1 X67.972Y61.335Z0F1600
G1 X67.955Y61.283Z0F1600
G1 X67.908Y61.191Z0F1600
G1 X67.833Y61.063Z0F1600
G1 X67.735Y60.905Z0F1600
G1 X67.479Y60.52Z0F1600
G1 X67.167Y60.075Z0F1600
G1 X66.364Y58.947Z0F1600
G1 X65.562Y57.8Z0F1600
G1 X64.53Y56.307Z0F1600
G1 X64.319Y55.996Z0F1600
G1 X63.892Y55.355Z0F1600
G1 X63.169Y54.26Z0F1600
G1 X62.349Y53.012Z0F1600
G1 X61.518Y51.74Z0F1600
G1 X60.762Y50.576Z0F1600
G1 X60.295Y49.853Z0F1600
G1 X60.052Y49.473Z0F1600
G1 X59.875Y49.193Z0F1600
G1 X59.776Y49.03Z0F1600
G1 X59.709Y48.898Z0F1600
G1 X59.647Y48.839Z0F1600
G1 X59.568Y48.822Z0F1600
G1 X59.47Y48.848Z0F1600
G0 Z4.8F1000
G0 X69.717Y62.994Z4.8F1600
G1 Z0F1000
G1 X69.623Y63.025Z0F1600
G1 X69.51Y63.072Z0F1600
G1 X69.374Y63.135Z0F1600
G1 X69.213Y63.217Z0F1600
G1 X69.027Y63.317Z0F1600
G1 X68.811Y63.438Z0F1600
G1 X68.564Y63.58Z0F1600
G1 X68.284Y63.744Z0F1600
G1 X67.616Y64.145Z0F1600
G1 X66.788Y64.65Z0F1600
G1 X65.639Y65.352Z0F1600
G1 X63.971Y66.363Z0F1600
G1 X62.949Y66.978Z0F1600
G1 X62.042Y67.518Z0F1600
G1 X61.288Y67.963Z0F1600
G1 X60.723Y68.29Z0F1600
G1 X60.523Y68.403Z0F1600
G1 X60.385Y68.477Z0F1600
G1 X60.313Y68.512Z0F1600
G1 X60.291Y68.563Z0F1600
G1 X60.297Y68.69Z0F1600
G1 X60.328Y68.884Z0F1600
G1 X60.383Y69.138Z0F1600
G1 X60.46Y69.448Z0F1600
G1 X60.556Y69.804Z0F1600
G1 X60.669Y70.202Z0F1600
G1 X60.798Y70.634Z0F1600
G1 X61.426Y72.567Z0F1600
G1 X62.136Y74.51Z0F1600
G1 X62.732Y75.95Z0F1600
G1 X63.382Y77.366Z0F1600
G1 X63.735Y78.077Z0F1600
G1 X64.11Y78.798Z0F1600
G1 X64.512Y79.533Z0F1600
G1 X64.941Y80.287Z0F1600
G1 X65.403Y81.066Z0F1600
G1 X65.899Y81.874Z0F1600
G1 X66.432Y82.718Z0F1600
G1 X67.005Y83.601Z0F1600
G1 X67.622Y84.528Z0F1600
G1 X68.286Y85.506Z0F1600
G1 X68.999Y86.539Z0F1600
G1 X69.764Y87.633Z0F1600
G1 X71.105Y89.54Z0F1600
G1 X71.803Y90.535Z0F1600
G1 X72.829Y92.004Z0F1600
G1 X73.808Y93.397Z0F1600
G1 X74.813Y94.819Z0F1600
G1 X76.254Y96.846Z0F1600
G1 X77.093Y98.017Z0F1600
G1 X77.771Y98.957Z0F1600
G1 X78.144Y99.466Z0F1600
G1 X78.314Y99.694Z0F1600
G1 X78.391Y99.794Z0F1600
G1 X79.242Y100.974Z0F1600
G1 X80.83Y103.187Z0F1600
G1 X83.479Y106.883Z0F1600
G1 X87.459Y112.442Z0F1600
G1 X89.368Y115.113Z0F1600
G1 X90.667Y116.932Z0F1600
G1 X91.045Y117.465Z0F1600
G1 X91.363Y117.922Z0F1600
G1 X92.531Y119.59Z0F1600
G1 X94.596Y122.524Z0F1600
G1 X95.59Y123.944Z0F1600
G1 X96.162Y124.766Z0F1600
G1 X97.365Y126.503Z0F1600
G1 X98.714Y128.441Z0F1600
G1 X99.362Y129.376Z0F1600
G1 X100.166Y130.543Z0F1600
G1 X100.503Y131.024Z0F1600
G1 X100.644Y131.219Z0F1600
G1 X100.715Y131.312Z0F1600
G1 X100.855Y131.507Z0F1600
G1 X101.19Y131.988Z0F1600
G1 X102.702Y134.199Z0F1600
G1 X103.168Y134.874Z0F1600
G1 X103.541Y135.408Z0F1600
G1 X103.827Y135.811Z0F1600
G1 X104.036Y136.095Z0F1600
G1 X104.114Y136.196Z0F1600
G1 X104.175Y136.271Z0F1600
G1 X104.22Y136.321Z0F1600
G1 X104.251Y136.348Z0F1600
G1 X104.46Y136.442Z0F1600
G1 X104.699Y136.469Z0F1600
G1 X104.951Y136.436Z0F1600
G1 X105.197Y136.352Z0F1600
G1 X105.42Y136.225Z0F1600
G1 X105.601Y136.063Z0F1600
G1 X105.723Y135.874Z0F1600
G1 X105.768Y135.666Z0F1600
G1 X105.757Y135.588Z0F1600
G1 X105.726Y135.466Z0F1600
G1 X105.675Y135.298Z0F1600
G1 X105.602Y135.087Z0F1600
G1 X105.51Y134.831Z0F1600
G1 X105.397Y134.531Z0F1600
G1 X105.264Y134.187Z0F1600
G1 X105.111Y133.8Z0F1600
G1 X104.937Y133.37Z0F1600
G1 X104.744Y132.897Z0F1600
G1 X104.531Y132.381Z0F1600
G1 X104.045Y131.221Z0F1600
G1 X103.481Y129.893Z0F1600
G1 X101.807Y125.984Z0F1600
G1 X100.77Y123.555Z0F1600
G1 X100.32Y122.517Z0F1600
G1 X100.122Y122.069Z0F1600
G1 X100.021Y121.849Z0F1600
G1 X99.891Y121.56Z0F1600
G1 X99.641Y120.984Z0F1600
G1 X99.286Y120.147Z0F1600
G1 X99.016Y119.523Z0F1600
G1 X98.867Y119.187Z0F1600
G1 X98.779Y118.994Z0F1600
G1 X98.468Y118.296Z0F1600
G1 X97.61Y116.345Z0F1600
G1 X93.348Y106.618Z0F1600
G1 X91.116Y101.516Z0F1600
G1 X90.563Y100.258Z0F1600
G1 X87.683Y93.687Z0F1600
G1 X87.267Y92.745Z0F1600
G1 X86.641Y91.346Z0F1600
G1 X84.195Y85.824Z0F1600
G1 X83.698Y84.714Z0F1600
G1 X83.215Y83.646Z0F1600
G1 X82.744Y82.618Z0F1600
G1 X82.286Y81.629Z0F1600
G1 X81.838Y80.678Z0F1600
G1 X81.402Y79.763Z0F1600
G1 X80.974Y78.883Z0F1600
G1 X80.556Y78.035Z0F1600
G1 X80.145Y77.22Z0F1600
G1 X79.741Y76.435Z0F1600
G1 X79.344Y75.679Z0F1600
G1 X78.951Y74.95Z0F1600
G1 X78.564Y74.248Z0F1600
G1 X78.18Y73.571Z0F1600
G1 X77.799Y72.917Z0F1600
G1 X77.041Y71.673Z0F1600
G1 X76.285Y70.505Z0F1600
G1 X75.524Y69.403Z0F1600
G1 X74.751Y68.354Z0F1600
G1 X73.959Y67.348Z0F1600
G1 X73.141Y66.373Z0F1600
G1 X72.291Y65.418Z0F1600
G1 X71.402Y64.471Z0F1600
G1 X70.896Y63.949Z0F1600
G1 X70.451Y63.498Z0F1600
G1 X70.267Y63.314Z0F1600
G1 X70.115Y63.166Z0F1600
G1 X70.004Y63.059Z0F1600
G1 X69.937Y63.001Z0F1600
G1 X69.854Y62.973Z0F1600
G1 X69.717Y62.994Z0F1600

; Color picking sequence
G1 Z10 F1000;         ; Raise brush to safe height
G0 X86 Y5 F1200;    ; Rapid move to color 1 position
G1 Z0 F1000;         ; Lower into color - controlled movement
G1 X85.102Y7.295Z0S800F1200
G1 X85.026Y7.642Z0F1200
G1 X85Y8Z0F1200
G1 X85.026Y8.358Z0F1200
G1 X85.102Y8.705Z0F1200
G1 X85.225Y9.041Z0F1200
G1 X85.393Y9.362Z0F1200
G1 X85.603Y9.668Z0F1200
G1 X85.854Y9.957Z0F1200
G1 X86.142Y10.226Z0F1200
G1 X86.464Y10.475Z0F1200
G1 X86.82Y10.701Z0F1200
G1 X87.204Y10.902Z0F1200
G1 X87.617Y11.078Z0F1200
G1 X88.054Y11.225Z0F1200
G1 X88.513Y11.343Z0F1200
G1 X88.992Y11.429Z0F1200
G1 X89.489Y11.482Z0F1200
G1 X90Y11.5Z0F1200
G1 X90.511Y11.482Z0F1200
G1 X91.008Y11.429Z0F1200
G1 X91.487Y11.343Z0F1200
G1 X91.946Y11.225Z0F1200
G1 X92.383Y11.078Z0F1200
G1 X92.796Y10.902Z0F1200
G1 X93.18Y10.701Z0F1200
G1 X93.536Y10.475Z0F1200
G1 X93.858Y10.226Z0F1200
G1 X94.146Y9.957Z0F1200
G1 X94.397Y9.668Z0F1200
G1 X94.607Y9.362Z0F1200
G1 X94.775Y9.041Z0F1200
G1 X94.898Y8.705Z0F1200
G1 X94.974Y8.358Z0F1200
G1 X95Y8Z0F1200
G1 X94.974Y7.642Z0F1200
G1 X94.898Y7.295Z0F1200
G1 X94.775Y6.959Z0F1200
G1 X94.607Y6.638Z0F1200
G1 X94.397Y6.332Z0F1200
G1 X94.146Y6.043Z0F1200
G1 X93.858Y5.774Z0F1200
G1 X93.536Y5.525Z0F1200
G1 X93.18Y5.299Z0F1200
G1 X92.796Y5.098Z0F1200
G1 X92.383Y4.922Z0F1200
G1 X91.946Y4.775Z0F1200
G1 X91.487Y4.657Z0F1200
G1 X91.008Y4.571Z0F1200
G1 X90.511Y4.518Z0F1200
G1 X90Y4.5Z0F1200
G1 X89.489Y4.518Z0F1200
G1 X88.992Y4.571Z0F1200
G1 X88.513Y4.657Z0F1200
G1 X88.054Y4.775Z0F1200
G1 X87.617Y4.922Z0F1200
G1 X87.204Y5.098Z0F1200
G1 X86.82Y5.299Z0F1200
G1 X86.464Y5.525Z0F1200
G1 X86.142Y5.774Z0F1200
G1 X85.854Y6.043Z0F1200
G1 X85.603Y6.332Z0F1200
G1 X85.393Y6.638Z0F1200
G1 X85.225Y6.959Z0F1200
G1 Z7 F800;         ; Raise from color - controlled movement
G1 X79 Y8 Z1 F1200;     ; Movement in paint - controlled movement
G1 X69 Y18 Z8 F500;     ; Move in paint - controlled movement
G1 F1200;           ; Set feed rate to 1000
G0 Z4.8F1000
G0 X75.661Y65.37Z4.8
G1 Z0F1000
G1 X75.476Y65.615Z0F1600
G1 X75.365Y65.811Z0F1600
G1 X75.326Y65.966Z0F1600
G1 X75.355Y66.084Z0F1600
G1 X75.447Y66.173Z0F1600
G1 X75.504Y66.216Z0F1600
G1 X75.576Y66.283Z0F1600
G1 X75.662Y66.374Z0F1600
G1 X75.762Y66.487Z0F1600
G1 X75.998Y66.773Z0F1600
G1 X76.276Y67.13Z0F1600
G1 X76.59Y67.548Z0F1600
G1 X76.931Y68.017Z0F1600
G1 X77.292Y68.525Z0F1600
G1 X77.666Y69.061Z0F1600
G1 X78.423Y70.178Z0F1600
G1 X79.143Y71.282Z0F1600
G1 X79.471Y71.802Z0F1600
G1 X79.767Y72.287Z0F1600
G1 X80.024Y72.725Z0F1600
G1 X80.235Y73.107Z0F1600
G1 X81.216Y74.962Z0F1600
G1 X81.91Y76.284Z0F1600
G1 X82.441Y77.311Z0F1600
G1 X83.172Y78.751Z0F1600
G1 X83.358Y79.108Z0F1600
G1 X83.5Y79.363Z0F1600
G1 X83.606Y79.527Z0F1600
G1 X83.685Y79.611Z0F1600
G1 X83.744Y79.627Z0F1600
G1 X83.79Y79.583Z0F1600
G1 X83.833Y79.492Z0F1600
G1 X84.105Y78.821Z0F1600
G1 X84.941Y76.771Z0F1600
G1 X85.469Y75.474Z0F1600
G1 X85.661Y74.995Z0F1600
G1 X85.971Y74.201Z0F1600
G1 X86.276Y73.395Z0F1600
G1 X86.493Y72.797Z0F1600
G1 X86.736Y72.104Z0F1600
G1 X86.988Y71.365Z0F1600
G1 X87.232Y70.634Z0F1600
G1 X87.45Y69.96Z0F1600
G1 X87.627Y69.396Z0F1600
G1 X87.694Y69.171Z0F1600
G1 X87.745Y68.992Z0F1600
G1 X87.777Y68.867Z0F1600
G1 X87.787Y68.801Z0F1600
G1 X87.771Y68.778Z0F1600
G1 X87.723Y68.736Z0F1600
G1 X87.646Y68.677Z0F1600
G1 X87.541Y68.602Z0F1600
G1 X87.409Y68.511Z0F1600
G1 X87.252Y68.406Z0F1600
G1 X86.871Y68.156Z0F1600
G1 X86.409Y67.862Z0F1600
G1 X85.88Y67.53Z0F1600
G1 X85.296Y67.17Z0F1600
G1 X84.671Y66.79Z0F1600
G1 X83.337Y65.983Z0F1600
G1 X81.394Y64.804Z0F1600
G1 X79.662Y63.747Z0F1600
G1 X79.358Y63.565Z0F1600
G1 X79.077Y63.4Z0F1600
G1 X78.825Y63.256Z0F1600
G1 X78.609Y63.137Z0F1600
G1 X78.438Y63.046Z0F1600
G1 X78.317Y62.989Z0F1600
G1 X78.254Y62.968Z0F1600
G1 X78.195Y62.994Z0F1600
G1 X78.085Y63.07Z0F1600
G1 X77.931Y63.192Z0F1600
G1 X77.738Y63.353Z0F1600
G1 X77.514Y63.549Z0F1600
G1 X77.263Y63.774Z0F1600
G1 X76.994Y64.022Z0F1600
G1 X76.712Y64.288Z0F1600
G1 X76.483Y64.509Z0F1600
G1 X76.276Y64.713Z0F1600
G1 X76.091Y64.9Z0F1600
G1 X75.927Y65.072Z0F1600
G1 X75.661Y65.37Z0F1600
G0 Z4.8F1000
G0 X80.498Y61.823Z4.8
G1 Z0F1000
G1 X80.867Y62.049Z0F1600
G1 X81.289Y62.3Z0F1600
G1 X81.732Y62.569Z0F1600
G1 X82.145Y62.823Z0F1600
G1 X82.809Y63.244Z0F1600
G1 X83.193Y63.485Z0F1600
G1 X83.616Y63.747Z0F1600
G1 X84.069Y64.025Z0F1600
G1 X85.029Y64.606Z0F1600
G1 X85.995Y65.184Z0F1600
G1 X86.457Y65.458Z0F1600
G1 X87.291Y65.946Z0F1600
G1 X87.644Y66.149Z0F1600
G1 X87.941Y66.317Z0F1600
G1 X88.174Y66.445Z0F1600
G1 X88.333Y66.527Z0F1600
G1 X88.407Y66.557Z0F1600
G1 X88.455Y66.535Z0F1600
G1 X88.521Y66.467Z0F1600
G1 X88.602Y66.356Z0F1600
G1 X88.697Y66.207Z0F1600
G1 X88.802Y66.024Z0F1600
G1 X88.915Y65.811Z0F1600
G1 X89.035Y65.573Z0F1600
G1 X89.157Y65.312Z0F1600
G1 X89.729Y64.074Z0F1600
G1 X90.297Y62.883Z0F1600
G1 X90.872Y61.717Z0F1600
G1 X91.464Y60.554Z0F1600
G1 X92.086Y59.374Z0F1600
G1 X92.747Y58.155Z0F1600
G1 X93.096Y57.525Z0F1600
G1 X93.458Y56.876Z0F1600
G1 X93.837Y56.208Z0F1600
G1 X94.739Y54.627Z0F1600
G1 X95.159Y53.876Z0F1600
G1 X95.323Y53.578Z0F1600
G1 X95.449Y53.345Z0F1600
G1 X95.531Y53.185Z0F1600
G1 X95.564Y53.11Z0F1600
G1 X95.551Y53.076Z0F1600
G1 X95.501Y53.034Z0F1600
G1 X95.418Y52.986Z0F1600
G1 X95.305Y52.933Z0F1600
G1 X95.006Y52.821Z0F1600
G1 X94.636Y52.711Z0F1600
G1 X93.97Y52.506Z0F1600
G1 X93.29Y52.24Z0F1600
G1 X92.602Y51.918Z0F1600
G1 X91.914Y51.543Z0F1600
G1 X91.234Y51.121Z0F1600
G1 X90.568Y50.656Z0F1600
G1 X89.925Y50.151Z0F1600
G1 X89.311Y49.611Z0F1600
G1 X89.027Y49.35Z0F1600
G1 X88.777Y49.125Z0F1600
G1 X88.674Y49.034Z0F1600
G1 X88.526Y48.909Z0F1600
G1 X88.488Y48.882Z0F1600
G1 X88.419Y48.898Z0F1600
G1 X88.315Y48.993Z0F1600
G1 X88.191Y49.151Z0F1600
G1 X88.06Y49.358Z0F1600
G1 X87.982Y49.49Z0F1600
G1 X87.88Y49.657Z0F1600
G1 X87.623Y50.065Z0F1600
G1 X87.323Y50.53Z0F1600
G1 X87.013Y50.997Z0F1600
G1 X86.203Y52.212Z0F1600
G1 X84.408Y54.921Z0F1600
G1 X83.003Y56.987Z0F1600
G1 X82.669Y57.471Z0F1600
G1 X82.033Y58.381Z0F1600
G1 X81.736Y58.801Z0F1600
G1 X81.456Y59.193Z0F1600
G1 X81.195Y59.555Z0F1600
G1 X80.954Y59.883Z0F1600
G1 X80.736Y60.176Z0F1600
G1 X80.418Y60.607Z0F1600
G1 X80.157Y60.977Z0F1600
G1 X80.057Y61.127Z0F1600
G1 X79.981Y61.247Z0F1600
G1 X79.933Y61.332Z0F1600
G1 X79.916Y61.376Z0F1600
G1 X79.935Y61.41Z0F1600
G1 X79.991Y61.464Z0F1600
G1 X80.079Y61.535Z0F1600
G1 X80.196Y61.62Z0F1600
G1 X80.498Y61.823Z0F1600
G0 Z4.8F1000
G0 X64.812Y83.828Z4.8
G1 Z0F1000
G1 X64.775Y83.874Z0F1600
G1 X64.701Y84.006Z0F1600
G1 X64.593Y84.216Z0F1600
G1 X64.457Y84.492Z0F1600
G1 X64.296Y84.828Z0F1600
G1 X64.116Y85.212Z0F1600
G1 X63.92Y85.636Z0F1600
G1 X63.713Y86.091Z0F1600
G1 X63.115Y87.422Z0F1600
G1 X62.579Y88.623Z0F1600
G1 X62.327Y89.198Z0F1600
G1 X61.519Y91.007Z0F1600
G1 X61.328Y91.447Z0F1600
G1 X61.198Y91.756Z0F1600
G1 X61.163Y91.846Z0F1600
G1 X61.143Y91.917Z0F1600
G1 X61.121Y91.977Z0F1600
G1 X61.038Y92.175Z0F1600
G1 X60.916Y92.452Z0F1600
G1 X60.46Y93.452Z0F1600
G1 X60.079Y94.301Z0F1600
G1 X57.348Y100.498Z0F1600
G1 X56.942Y101.413Z0F1600
G1 X55.844Y103.891Z0F1600
G1 X54.556Y106.814Z0F1600
G1 X53.771Y108.605Z0F1600
G1 X53.375Y109.519Z0F1600
G1 X53.001Y110.374Z0F1600
G1 X52.817Y110.789Z0F1600
G1 X52.579Y111.319Z0F1600
G1 X52.146Y112.289Z0F1600
G1 X51.615Y113.494Z0F1600
G1 X50.991Y114.922Z0F1600
G1 X50.241Y116.647Z0F1600
G1 X49.641Y118.017Z0F1600
G1 X48.997Y119.479Z0F1600
G1 X48.834Y119.856Z0F1600
G1 X48.725Y120.121Z0F1600
G1 X48.695Y120.199Z0F1600
G1 X48.676Y120.262Z0F1600
G1 X48.653Y120.323Z0F1600
G1 X48.569Y120.523Z0F1600
G1 X48.443Y120.806Z0F1600
G1 X48.138Y121.478Z0F1600
G1 X48.013Y121.768Z0F1600
G1 X47.964Y121.885Z0F1600
G1 X47.928Y121.98Z0F1600
G1 X47.905Y122.046Z0F1600
G1 X47.889Y122.117Z0F1600
G1 X47.867Y122.181Z0F1600
G1 X47.832Y122.271Z0F1600
G1 X47.786Y122.383Z0F1600
G1 X47.665Y122.659Z0F1600
G1 X47.484Y123.054Z0F1600
G1 X47.383Y123.278Z0F1600
G1 X47.157Y123.793Z0F1600
G1 X46.729Y124.781Z0F1600
G1 X46.175Y126.07Z0F1600
G1 X45.514Y127.614Z0F1600
G1 X44.766Y129.367Z0F1600
G1 X43.526Y132.282Z0F1600
G1 X42.651Y134.349Z0F1600
G1 X42.463Y134.841Z0F1600
G1 X42.343Y135.266Z0F1600
G1 X42.291Y135.626Z0F1600
G1 X42.308Y135.921Z0F1600
G1 X42.393Y136.15Z0F1600
G1 X42.546Y136.314Z0F1600
G1 X42.767Y136.413Z0F1600
G1 X43.057Y136.447Z0F1600
G1 X43.298Y136.431Z0F1600
G1 X43.536Y136.338Z0F1600
G1 X43.67Y136.244Z0F1600
G1 X43.822Y136.107Z0F1600
G1 X43.999Y135.92Z0F1600
G1 X44.207Y135.675Z0F1600
G1 X44.453Y135.365Z0F1600
G1 X44.742Y134.981Z0F1600
G1 X45.081Y134.515Z0F1600
G1 X45.477Y133.961Z0F1600
G1 X45.935Y133.309Z0F1600
G1 X46.463Y132.554Z0F1600
G1 X48.721Y129.297Z0F1600
G1 X49.966Y127.505Z0F1600
G1 X50.515Y126.718Z0F1600
G1 X51.757Y124.956Z0F1600
G1 X52.694Y123.622Z0F1600
G1 X53.465Y122.519Z0F1600
G1 X54.817Y120.569Z0F1600
G1 X55.697Y119.309Z0F1600
G1 X56.661Y117.938Z0F1600
G1 X59.057Y114.554Z0F1600
G1 X60.787Y112.107Z0F1600
G1 X61.849Y110.602Z0F1600
G1 X62.333Y109.91Z0F1600
G1 X62.789Y109.267Z0F1600
G1 X63.789Y107.861Z0F1600
G1 X66.489Y104.077Z0F1600
G1 X68.628Y101.072Z0F1600
G1 X69.45Y99.911Z0F1600
G1 X70.034Y99.09Z0F1600
G1 X70.335Y98.671Z0F1600
G1 X71.258Y97.402Z0F1600
G1 X71.675Y96.82Z0F1600
G1 X71.999Y96.357Z0F1600
G1 X72.13Y96.165Z0F1600
G1 X72.241Y95.999Z0F1600
G1 X72.334Y95.855Z0F1600
G1 X72.409Y95.733Z0F1600
G1 X72.468Y95.63Z0F1600
G1 X72.542Y95.478Z0F1600
G1 X72.564Y95.384Z0F1600
G1 X72.544Y95.289Z0F1600
G1 X72.472Y95.135Z0F1600
G1 X72.41Y95.026Z0F1600
G1 X72.327Y94.89Z0F1600
G1 X72.22Y94.723Z0F1600
G1 X72.087Y94.522Z0F1600
G1 X71.925Y94.281Z0F1600
G1 X71.731Y93.998Z0F1600
G1 X71.236Y93.286Z0F1600
G1 X70.582Y92.353Z0F1600
G1 X68.897Y89.96Z0F1600
G1 X68.132Y88.864Z0F1600
G1 X67.454Y87.882Z0F1600
G1 X66.863Y87.014Z0F1600
G1 X66.601Y86.624Z0F1600
G1 X66.36Y86.262Z0F1600
G1 X66.142Y85.93Z0F1600
G1 X65.946Y85.627Z0F1600
G1 X65.772Y85.354Z0F1600
G1 X65.621Y85.111Z0F1600
G1 X65.493Y84.897Z0F1600
G1 X65.188Y84.37Z0F1600
G1 X65.013Y84.089Z0F1600
G1 X64.941Y83.98Z0F1600
G1 X64.882Y83.898Z0F1600
G1 X64.838Y83.846Z0F1600
G1 X64.812Y83.828Z0F1600
;Offset @ 1200 mm/min, 80% power

M8

; Washing sequence (no color)
G1 Z10 F1000;        ; Raise brush to safe height
G0 X5 Y5 F1200;     ; Rapid move to brush cleaning position
G1 Z-1 F800;         ; Lower brush for cleaning - controlled movement
G1 X10 Y12 Z8 F1200;     ; Rapid move to brush cleaning position
G1 Z-1 F800;         ; Lower brush for cleaning - controlled movement
G1 X25 Y14 Z6 F800;     ; Move across cleaning area - controlled movement
G1 Z8 F800;         ; Maintain brush height - controlled movement
G0 X5 Y5 F1200;     ; Rapid move to brush cleaning position
G1 Z-1 F800;         ; Lower brush for cleaning - controlled movement
G1 X15 Y12 Z8 F1200;     ; Rapid move to brush cleaning position
G1 Z-1 F800;         ; Lower brush for cleaning - controlled movement
G1 X25 Y14 Z6 F800;     ; Move across cleaning area - controlled movement
G1 Z10 F800;         ; Maintain brush height - controlled movement
G1 F1200;           ; Set feed rate to 1000

; Color picking sequence
G1 Z10 F1000;         ; Raise brush to safe height
G0 X41 Y5 F1200;    ; Rapid move to color 1 position
G1 Z0 F1000;         ; Lower into color - controlled movement
G1 X40.102Y7.295Z0S800F1200
G1 X40.026Y7.642Z0F1200
G1 X40Y8Z0F1200
G1 X40.026Y8.358Z0F1200
G1 X40.102Y8.705Z0F1200
G1 X40.225Y9.041Z0F1200
G1 X40.393Y9.362Z0F1200
G1 X40.603Y9.668Z0F1200
G1 X40.854Y9.957Z0F1200
G1 X41.142Y10.226Z0F1200
G1 X41.464Y10.475Z0F1200
G1 X41.82Y10.701Z0F1200
G1 X42.204Y10.902Z0F1200
G1 X42.617Y11.078Z0F1200
G1 X43.054Y11.225Z0F1200
G1 X43.513Y11.343Z0F1200
G1 X43.992Y11.429Z0F1200
G1 X44.489Y11.482Z0F1200
G1 X45Y11.5Z0F1200
G1 X45.511Y11.482Z0F1200
G1 X46.008Y11.429Z0F1200
G1 X46.487Y11.343Z0F1200
G1 X46.946Y11.225Z0F1200
G1 X47.383Y11.078Z0F1200
G1 X47.796Y10.902Z0F1200
G1 X48.18Y10.701Z0F1200
G1 X48.536Y10.475Z0F1200
G1 X48.858Y10.226Z0F1200
G1 X49.146Y9.957Z0F1200
G1 X49.397Y9.668Z0F1200
G1 X49.607Y9.362Z0F1200
G1 X49.775Y9.041Z0F1200
G1 X49.898Y8.705Z0F1200
G1 X49.974Y8.358Z0F1200
G1 X50Y8Z0F1200
G1 X49.974Y7.642Z0F1200
G1 X49.898Y7.295Z0F1200
G1 X49.775Y6.959Z0F1200
G1 X49.607Y6.638Z0F1200
G1 X49.397Y6.332Z0F1200
G1 X49.146Y6.043Z0F1200
G1 X48.858Y5.774Z0F1200
G1 X48.536Y5.525Z0F1200
G1 X48.18Y5.299Z0F1200
G1 X47.796Y5.098Z0F1200
G1 X47.383Y4.922Z0F1200
G1 X46.946Y4.775Z0F1200
G1 X46.487Y4.657Z0F1200
G1 X46.008Y4.571Z0F1200
G1 X45.511Y4.518Z0F1200
G1 X45Y4.5Z0F1200
G1 X44.489Y4.518Z0F1200
G1 X43.992Y4.571Z0F1200
G1 X43.513Y4.657Z0F1200
G1 X43.054Y4.775Z0F1200
G1 X42.617Y4.922Z0F1200
G1 X42.204Y5.098Z0F1200
G1 X41.82Y5.299Z0F1200
G1 X41.464Y5.525Z0F1200
G1 X41.142Y5.774Z0F1200
G1 X40.854Y6.043Z0F1200
G1 X40.603Y6.332Z0F1200
G1 X40.393Y6.638Z0F1200
G1 X40.225Y6.959Z0F1200
G1 Z7 F800;         ; Raise from color - controlled movement
G1 X34 Y8 Z1 F1200;     ; Movement in paint - controlled movement
G1 X24 Y18 Z8 F500;     ; Move in paint - controlled movement
G1 F1200;           ; Set feed rate to 1000
G0 Z4.8F1000
G0 X43.748Y40.7Z4.8
G1 Z0F1000
;Layer C1
G1 X44.276Y42.13Z0F1600
G1 X44.866Y43.518Z0F1600
G1 X45.522Y44.871Z0F1600
G1 X46.248Y46.195Z0F1600
G1 X47.044Y47.496Z0F1600
G1 X47.426Y48.061Z0F1600
G1 X47.368Y48.007Z0F1600
G1 X46.897Y47.527Z0F1600
G1 X46.386Y46.964Z0F1600
G1 X46.277Y46.826Z0F1600
G1 X46.099Y46.575Z0F1600
G1 X45.87Y46.223Z0F1600
G1 X45.625Y45.83Z0F1600
G1 X45.112Y44.946Z0F1600
G1 X44.683Y44.129Z0F1600
G1 X44.426Y43.565Z0F1600
G1 X44.189Y42.966Z0F1600
G1 X43.977Y42.337Z0F1600
G1 X43.776Y41.629Z0F1600
G1 X43.594Y40.874Z0F1600
G1 X43.423Y40.029Z0F1600
G1 X43.294Y39.269Z0F1600
G1 X43.748Y40.7Z0F1600
G0 Z4.8F1000
G0 X52.994Y46.353Z4.8F1200
G1 Z0F1000
G1 X52.297Y45.363Z0F1600
G1 X51.639Y44.395Z0F1600
G1 X50.999Y43.415Z0F1600
G1 X50.702Y42.943Z0F1600
G1 X50.432Y42.504Z0F1600
G1 X50.19Y42.098Z0F1600
G1 X49.995Y41.755Z0F1600
G1 X49.581Y40.998Z0F1600
G1 X49.152Y40.181Z0F1600
G1 X48.725Y39.341Z0F1600
G1 X48.3Y38.477Z0F1600
G1 X47.743Y37.293Z0F1600
G1 X47.981Y37.557Z0F1600
G1 X48.329Y37.957Z0F1600
G1 X48.698Y38.392Z0F1600
G1 X49.165Y38.949Z0F1600
G1 X49.811Y39.742Z0F1600
G1 X50.417Y40.526Z0F1600
G1 X50.996Y41.321Z0F1600
G1 X51.538Y42.113Z0F1600
G1 X52.049Y42.909Z0F1600
G1 X52.523Y43.7Z0F1600
G1 X52.989Y44.531Z0F1600
G1 X53.414Y45.348Z0F1600
G1 X53.922Y46.427Z0F1600
G1 X54.384Y47.522Z0F1600
G1 X54.51Y47.847Z0F1600
G1 X54.331Y47.971Z0F1600
G1 X54.248Y48.024Z0F1600
G1 X53.956Y47.651Z0F1600
G1 X53.646Y47.242Z0F1600
G1 X52.994Y46.353Z0F1600
G0 Z4.8F1000
G0 X51.225Y33.997Z4.8
G1 Z0F1000
G1 X51.958Y34.505Z0F1600
G1 X52.722Y35.081Z0F1600
G1 X53.424Y35.657Z0F1600
G1 X54.076Y36.242Z0F1600
G1 X54.675Y36.831Z0F1600
G1 X55.233Y37.436Z0F1600
G1 X55.722Y38.024Z0F1600
G1 X56.165Y38.623Z0F1600
G1 X56.548Y39.209Z0F1600
G1 X56.883Y39.8Z0F1600
G1 X57.16Y40.376Z0F1600
G1 X57.382Y40.939Z0F1600
G1 X57.524Y41.396Z0F1600
G1 X57.436Y41.242Z0F1600
G1 X56.879Y40.333Z0F1600
G1 X56.3Y39.46Z0F1600
G1 X55.708Y38.644Z0F1600
G1 X54.862Y37.587Z0F1600
G1 X53.967Y36.574Z0F1600
G1 X53.029Y35.61Z0F1600
G1 X52.055Y34.699Z0F1600
G1 X51.225Y33.997Z0F1600
G0 Z4.8F1000
G0 X45.673Y31.024Z4.8
G1 Z0F1000
G1 X44.797Y31.096Z0F1600
G1 X44.51Y31.795Z0F1600
G1 X42.998Y31.661Z0F1600
G1 X43.002Y31.448Z0F1600
G1 X43.015Y31.063Z0F1600
G1 X43.03Y30.768Z0F1600
G1 X43.045Y30.599Z0F1600
G1 X43.127Y29.959Z0F1600
G1 X43.164Y29.973Z0F1600
G1 X44.41Y30.474Z0F1600
G1 X45.652Y31.015Z0F1600
G1 X45.673Y31.024Z0F1600
G0 Z4.8F1000
G0 X46.982Y32.214Z4.8
G1 Z0F1000
G1 X46.796Y32.118Z0F1600
G1 X46.626Y32.036Z0F1600
G1 X46.45Y31.963Z0F1600
G1 X46.17Y31.886Z0F1600
G1 X45.42Y31.948Z0F1600
G1 X45.064Y32.815Z0F1600
G1 X45.246Y33.291Z0F1600
G1 X45.372Y33.484Z0F1600
G1 X45.493Y33.635Z0F1600
G1 X45.626Y33.789Z0F1600
G1 X45.783Y33.96Z0F1600
G1 X45.965Y34.153Z0F1600
G1 X46.178Y34.373Z0F1600
G1 X47.326Y35.544Z0F1600
G1 X47.565Y35.79Z0F1600
G1 X47.979Y36.222Z0F1600
G1 X48.332Y36.601Z0F1600
G1 X48.67Y36.978Z0F1600
G1 X49Y37.357Z0F1600
G1 X49.391Y37.817Z0F1600
G1 X49.846Y38.36Z0F1600
G1 X50.517Y39.184Z0F1600
G1 X51.139Y39.989Z0F1600
G1 X51.73Y40.801Z0F1600
G1 X52.284Y41.61Z0F1600
G1 X52.812Y42.432Z0F1600
G1 X53.311Y43.262Z0F1600
G1 X53.771Y44.085Z0F1600
G1 X54.22Y44.947Z0F1600
G1 X54.742Y46.057Z0F1600
G1 X55.221Y47.192Z0F1600
G1 X55.41Y47.68Z0F1600
G1 X55.564Y48.115Z0F1600
G1 X55.578Y48.159Z0F1600
G1 X55.47Y48.253Z0F1600
G1 X55.17Y48.483Z0F1600
G1 X54.839Y48.714Z0F1600
G1 X54.477Y48.944Z0F1600
G1 X54.147Y49.131Z0F1600
G1 X54.036Y49.184Z0F1600
G1 X53.831Y48.941Z0F1600
G1 X53.546Y48.588Z0F1600
G1 X53.254Y48.214Z0F1600
G1 X52.938Y47.798Z0F1600
G1 X52.254Y46.865Z0F1600
G1 X51.561Y45.881Z0F1600
G1 X50.877Y44.874Z0F1600
G1 X50.233Y43.889Z0F1600
G1 X49.945Y43.432Z0F1600
G1 X49.665Y42.976Z0F1600
G1 X49.417Y42.559Z0F1600
G1 X49.206Y42.189Z0F1600
G1 X48.782Y41.413Z0F1600
G1 X48.355Y40.6Z0F1600
G1 X47.928Y39.759Z0F1600
G1 X47.493Y38.875Z0F1600
G1 X46.665Y37.114Z0F1600
G1 X45.9Y35.371Z0F1600
G1 X45.553Y34.557Z0F1600
G1 X45.254Y33.869Z0F1600
G1 X45.133Y33.596Z0F1600
G1 X45.035Y33.379Z0F1600
G1 X44.953Y33.207Z0F1600
G1 X44.671Y32.713Z0F1600
G1 X43.447Y32.604Z0F1600
G1 X43.186Y33.462Z0F1600
G1 X43.172Y33.711Z0F1600
G1 X43.177Y33.919Z0F1600
G1 X43.192Y34.143Z0F1600
G1 X43.215Y34.39Z0F1600
G1 X43.246Y34.661Z0F1600
G1 X43.284Y34.961Z0F1600
G1 X43.484Y36.242Z0F1600
G1 X43.74Y37.47Z0F1600
G1 X44.145Y38.971Z0F1600
G1 X44.6Y40.409Z0F1600
G1 X45.112Y41.798Z0F1600
G1 X45.686Y43.145Z0F1600
G1 X46.323Y44.458Z0F1600
G1 X47.027Y45.744Z0F1600
G1 X47.801Y47.009Z0F1600
G1 X48.646Y48.258Z0F1600
G1 X49.386Y49.271Z0F1600
G1 X50.129Y50.241Z0F1600
G1 X50.134Y50.248Z0F1600
G1 X49.785Y50.23Z0F1600
G1 X49.367Y50.188Z0F1600
G1 X49.024Y50.132Z0F1600
G1 X48.712Y50.042Z0F1600
G1 X48.382Y49.902Z0F1600
G1 X48.023Y49.7Z0F1600
G1 X47.634Y49.43Z0F1600
G1 X47.203Y49.08Z0F1600
G1 X46.741Y48.653Z0F1600
G1 X46.243Y48.146Z0F1600
G1 X45.701Y47.549Z0F1600
G1 X45.557Y47.367Z0F1600
G1 X45.348Y47.071Z0F1600
G1 X45.107Y46.703Z0F1600
G1 X44.857Y46.3Z0F1600
G1 X44.322Y45.378Z0F1600
G1 X43.875Y44.526Z0F1600
G1 X43.595Y43.913Z0F1600
G1 X43.348Y43.286Z0F1600
G1 X43.116Y42.599Z0F1600
G1 X42.906Y41.861Z0F1600
G1 X42.716Y41.073Z0F1600
G1 X42.536Y40.179Z0F1600
G1 X42.375Y39.232Z0F1600
G1 X42.224Y38.188Z0F1600
G1 X42.2Y37.951Z0F1600
G1 X42.176Y37.609Z0F1600
G1 X42.155Y37.189Z0F1600
G1 X42.136Y36.694Z0F1600
G1 X42.12Y36.15Z0F1600
G1 X42.106Y35.552Z0F1600
G1 X42.096Y34.932Z0F1600
G1 X42.088Y34.3Z0F1600
G1 X42.084Y33.668Z0F1600
G1 Y33.058Z0F1600
G1 Y32.47Z0F1600
G1 X42.092Y31.926Z0F1600
G1 X42.102Y31.43Z0F1600
G1 X42.115Y31.032Z0F1600
G1 X42.132Y30.704Z0F1600
G1 X42.152Y30.482Z0F1600
G1 X42.368Y28.801Z0F1600
G1 X42.378Y28.726Z0F1600
G1 X43.503Y29.139Z0F1600
G1 X44.753Y29.642Z0F1600
G1 X46.021Y30.193Z0F1600
G1 X47.301Y30.789Z0F1600
G1 X48.523Y31.397Z0F1600
G1 X49.677Y32.011Z0F1600
G1 X50.231Y32.324Z0F1600
G1 X50.727Y32.615Z0F1600
G1 X51.219Y32.917Z0F1600
G1 X51.649Y33.195Z0F1600
G1 X52.485Y33.775Z0F1600
G1 X53.265Y34.363Z0F1600
G1 X54.012Y34.977Z0F1600
G1 X54.69Y35.583Z0F1600
G1 X55.327Y36.21Z0F1600
G1 X55.911Y36.843Z0F1600
G1 X56.428Y37.465Z0F1600
G1 X56.904Y38.108Z0F1600
G1 X57.321Y38.748Z0F1600
G1 X57.675Y39.371Z0F1600
G1 X57.985Y40.016Z0F1600
G1 X58.233Y40.644Z0F1600
G1 X58.427Y41.271Z0F1600
G1 X58.564Y41.884Z0F1600
G1 X58.648Y42.506Z0F1600
G1 X58.676Y43.116Z0F1600
G1 X58.662Y43.583Z0F1600
G1 X58.619Y44.003Z0F1600
G1 X58.547Y44.371Z0F1600
G1 X58.443Y44.734Z0F1600
G1 X58.345Y44.996Z0F1600
G1 X58.333Y45.022Z0F1600
G1 X58.066Y44.394Z0F1600
G1 X57.644Y43.506Z0F1600
G1 X57.172Y42.602Z0F1600
G1 X56.661Y41.699Z0F1600
G1 X56.12Y40.817Z0F1600
G1 X55.561Y39.974Z0F1600
G1 X54.992Y39.189Z0F1600
G1 X54.173Y38.167Z0F1600
G1 X53.307Y37.186Z0F1600
G1 X52.399Y36.253Z0F1600
G1 X51.457Y35.372Z0F1600
G1 X50.482Y34.546Z0F1600
G1 X49.481Y33.783Z0F1600
G1 X48.459Y33.084Z0F1600
G1 X47.431Y32.463Z0F1600
G1 X47.189Y32.327Z0F1600
G1 X46.982Y32.214Z0F1600

; Color picking sequence
G1 Z10 F1000;         ; Raise brush to safe height
G0 X41 Y5 F1200;    ; Rapid move to color 1 position
G1 Z0 F1000;         ; Lower into color - controlled movement
G1 X40.102Y7.295Z0S800F1200
G1 X40.026Y7.642Z0F1200
G1 X40Y8Z0F1200
G1 X40.026Y8.358Z0F1200
G1 X40.102Y8.705Z0F1200
G1 X40.225Y9.041Z0F1200
G1 X40.393Y9.362Z0F1200
G1 X40.603Y9.668Z0F1200
G1 X40.854Y9.957Z0F1200
G1 X41.142Y10.226Z0F1200
G1 X41.464Y10.475Z0F1200
G1 X41.82Y10.701Z0F1200
G1 X42.204Y10.902Z0F1200
G1 X42.617Y11.078Z0F1200
G1 X43.054Y11.225Z0F1200
G1 X43.513Y11.343Z0F1200
G1 X43.992Y11.429Z0F1200
G1 X44.489Y11.482Z0F1200
G1 X45Y11.5Z0F1200
G1 X45.511Y11.482Z0F1200
G1 X46.008Y11.429Z0F1200
G1 X46.487Y11.343Z0F1200
G1 X46.946Y11.225Z0F1200
G1 X47.383Y11.078Z0F1200
G1 X47.796Y10.902Z0F1200
G1 X48.18Y10.701Z0F1200
G1 X48.536Y10.475Z0F1200
G1 X48.858Y10.226Z0F1200
G1 X49.146Y9.957Z0F1200
G1 X49.397Y9.668Z0F1200
G1 X49.607Y9.362Z0F1200
G1 X49.775Y9.041Z0F1200
G1 X49.898Y8.705Z0F1200
G1 X49.974Y8.358Z0F1200
G1 X50Y8Z0F1200
G1 X49.974Y7.642Z0F1200
G1 X49.898Y7.295Z0F1200
G1 X49.775Y6.959Z0F1200
G1 X49.607Y6.638Z0F1200
G1 X49.397Y6.332Z0F1200
G1 X49.146Y6.043Z0F1200
G1 X48.858Y5.774Z0F1200
G1 X48.536Y5.525Z0F1200
G1 X48.18Y5.299Z0F1200
G1 X47.796Y5.098Z0F1200
G1 X47.383Y4.922Z0F1200
G1 X46.946Y4.775Z0F1200
G1 X46.487Y4.657Z0F1200
G1 X46.008Y4.571Z0F1200
G1 X45.511Y4.518Z0F1200
G1 X45Y4.5Z0F1200
G1 X44.489Y4.518Z0F1200
G1 X43.992Y4.571Z0F1200
G1 X43.513Y4.657Z0F1200
G1 X43.054Y4.775Z0F1200
G1 X42.617Y4.922Z0F1200
G1 X42.204Y5.098Z0F1200
G1 X41.82Y5.299Z0F1200
G1 X41.464Y5.525Z0F1200
G1 X41.142Y5.774Z0F1200
G1 X40.854Y6.043Z0F1200
G1 X40.603Y6.332Z0F1200
G1 X40.393Y6.638Z0F1200
G1 X40.225Y6.959Z0F1200
G1 Z7 F800;         ; Raise from color - controlled movement
G1 X34 Y8 Z1 F1200;     ; Movement in paint - controlled movement
G1 X24 Y18 Z8 F500;     ; Move in paint - controlled movement
G1 F1200;           ; Set feed rate to 1000
G0 Z4.8F1000
G0 X41.476Y28.68Z4.8
G1 Z0F1000
G1 X41.537Y28.234Z0F1600
G1 X41.59Y27.869Z0F1600
G1 X41.631Y27.622Z0F1600
G1 X41.646Y27.555Z0F1600
G1 X41.654Y27.531Z0F1600
G1 X41.737Y27.556Z0F1600
G1 X41.942Y27.624Z0F1600
G1 X42.592Y27.846Z0F1600
G1 X43.817Y28.295Z0F1600
G1 X45.096Y28.81Z0F1600
G1 X46.396Y29.375Z0F1600
G1 X47.687Y29.976Z0F1600
G1 X48.938Y30.599Z0F1600
G1 X50.119Y31.227Z0F1600
G1 X50.673Y31.54Z0F1600
G1 X51.198Y31.848Z0F1600
G1 X51.69Y32.15Z0F1600
G1 X52.146Y32.444Z0F1600
G1 X53.012Y33.045Z0F1600
G1 X53.829Y33.661Z0F1600
G1 X54.595Y34.29Z0F1600
G1 X55.311Y34.931Z0F1600
G1 X55.974Y35.583Z0F1600
G1 X56.584Y36.245Z0F1600
G1 X57.14Y36.915Z0F1600
G1 X57.642Y37.592Z0F1600
G1 X58.088Y38.275Z0F1600
G1 X58.478Y38.962Z0F1600
G1 X58.809Y39.653Z0F1600
G1 X59.083Y40.346Z0F1600
G1 X59.297Y41.039Z0F1600
G1 X59.452Y41.731Z0F1600
G1 X59.545Y42.421Z0F1600
G1 X59.576Y43.108Z0F1600
G1 X59.56Y43.647Z0F1600
G1 X59.51Y44.133Z0F1600
G1 X59.423Y44.583Z0F1600
G1 X59.298Y45.017Z0F1600
G1 X59.184Y45.321Z0F1600
G1 X59.038Y45.669Z0F1600
G1 X58.872Y46.034Z0F1600
G1 X58.699Y46.391Z0F1600
G1 X58.533Y46.712Z0F1600
G1 X58.386Y46.975Z0F1600
G1 X58.323Y47.075Z0F1600
G1 X58.27Y47.151Z0F1600
G1 X58.228Y47.199Z0F1600
G1 X58.199Y47.215Z0F1600
G1 X58.184Y47.197Z0F1600
G1 X58.159Y47.146Z0F1600
G1 X58.125Y47.063Z0F1600
G1 X58.083Y46.955Z0F1600
G1 X57.98Y46.673Z0F1600
G1 X57.865Y46.33Z0F1600
G1 X57.591Y45.577Z0F1600
G1 X57.246Y44.763Z0F1600
G1 X56.838Y43.908Z0F1600
G1 X56.381Y43.032Z0F1600
G1 X55.885Y42.156Z0F1600
G1 X55.361Y41.301Z0F1600
G1 X54.821Y40.487Z0F1600
G1 X54.276Y39.735Z0F1600
G1 X53.484Y38.746Z0F1600
G1 X52.646Y37.798Z0F1600
G1 X51.769Y36.896Z0F1600
G1 X50.858Y36.044Z0F1600
G1 X49.917Y35.248Z0F1600
G1 X48.954Y34.512Z0F1600
G1 X47.973Y33.841Z0F1600
G1 X46.979Y33.241Z0F1600
G1 X46.753Y33.115Z0F1600
G1 X46.559Y33.008Z0F1600
G1 X46.395Y32.923Z0F1600
G1 X46.261Y32.859Z0F1600
G1 X46.158Y32.816Z0F1600
G1 X46.085Y32.796Z0F1600
G1 X46.043Y32.8Z0F1600
G1 X46.032Y32.827Z0F1600
G1 X46.052Y32.879Z0F1600
G1 X46.103Y32.957Z0F1600
G1 X46.185Y33.06Z0F1600
G1 X46.297Y33.189Z0F1600
G1 X46.441Y33.346Z0F1600
G1 X46.616Y33.531Z0F1600
G1 X46.823Y33.745Z0F1600
G1 X47.972Y34.917Z0F1600
G1 X48.215Y35.168Z0F1600
G1 X48.637Y35.609Z0F1600
G1 X49Y35.999Z0F1600
G1 X49.339Y36.375Z0F1600
G1 X49.687Y36.775Z0F1600
G1 X50.077Y37.235Z0F1600
G1 X50.544Y37.792Z0F1600
G1 X51.221Y38.623Z0F1600
G1 X51.861Y39.452Z0F1600
G1 X52.465Y40.281Z0F1600
G1 X53.036Y41.114Z0F1600
G1 X53.575Y41.955Z0F1600
G1 X54.086Y42.805Z0F1600
G1 X54.57Y43.669Z0F1600
G1 X55.028Y44.55Z0F1600
G1 X55.563Y45.687Z0F1600
G1 X56.056Y46.854Z0F1600
G1 X56.259Y47.38Z0F1600
G1 X56.417Y47.829Z0F1600
G1 X56.477Y48.016Z0F1600
G1 X56.521Y48.173Z0F1600
G1 X56.548Y48.297Z0F1600
G1 X56.558Y48.384Z0F1600
G1 X56.541Y48.443Z0F1600
G1 X56.492Y48.52Z0F1600
G1 X56.415Y48.611Z0F1600
G1 X56.312Y48.714Z0F1600
G1 X56.041Y48.95Z0F1600
G1 X55.706Y49.207Z0F1600
G1 X55.332Y49.468Z0F1600
G1 X54.942Y49.715Z0F1600
G1 X54.564Y49.929Z0F1600
G1 X54.221Y50.092Z0F1600
G1 X54.08Y50.148Z0F1600
G1 X53.968Y50.185Z0F1600
G1 X53.875Y50.198Z0F1600
G1 X53.794Y50.187Z0F1600
G1 X53.714Y50.146Z0F1600
G1 X53.628Y50.075Z0F1600
G1 X53.526Y49.969Z0F1600
G1 X53.4Y49.826Z0F1600
G1 X53.135Y49.512Z0F1600
G1 X52.846Y49.154Z0F1600
G1 X52.537Y48.758Z0F1600
G1 X52.212Y48.33Z0F1600
G1 X51.528Y47.397Z0F1600
G1 X50.825Y46.399Z0F1600
G1 X50.132Y45.379Z0F1600
G1 X49.48Y44.381Z0F1600
G1 X49.179Y43.903Z0F1600
G1 X48.898Y43.448Z0F1600
G1 X48.643Y43.019Z0F1600
G1 X48.417Y42.622Z0F1600
G1 X47.992Y41.844Z0F1600
G1 X47.559Y41.018Z0F1600
G1 X47.121Y40.157Z0F1600
G1 X46.685Y39.272Z0F1600
G1 X45.842Y37.479Z0F1600
G1 X45.076Y35.733Z0F1600
G1 X44.727Y34.913Z0F1600
G1 X44.431Y34.231Z0F1600
G1 X44.312Y33.964Z0F1600
G1 X44.219Y33.759Z0F1600
G1 X44.154Y33.624Z0F1600
G1 X44.123Y33.568Z0F1600
G1 X44.095Y33.565Z0F1600
G1 X44.079Y33.62Z0F1600
G1 X44.073Y33.726Z0F1600
G1 X44.076Y33.878Z0F1600
G1 X44.089Y34.071Z0F1600
G1 X44.11Y34.298Z0F1600
G1 X44.139Y34.554Z0F1600
G1 X44.175Y34.834Z0F1600
G1 X44.37Y36.081Z0F1600
G1 X44.616Y37.261Z0F1600
G1 X45.008Y38.718Z0F1600
G1 X45.451Y40.117Z0F1600
G1 X45.949Y41.466Z0F1600
G1 X46.505Y42.772Z0F1600
G1 X47.123Y44.045Z0F1600
G1 X47.806Y45.292Z0F1600
G1 X48.558Y46.521Z0F1600
G1 X49.383Y47.74Z0F1600
G1 X50.107Y48.731Z0F1600
G1 X50.839Y49.687Z0F1600
G1 X51.162Y50.092Z0F1600
G1 X51.431Y50.418Z0F1600
G1 X51.54Y50.543Z0F1600
G1 X51.628Y50.641Z0F1600
G1 X51.694Y50.706Z0F1600
G1 X51.735Y50.736Z0F1600
G1 X51.805Y50.822Z0F1600
G1 X51.833Y50.966Z0F1600
G1 X51.811Y51.007Z0F1600
G1 X51.746Y51.043Z0F1600
G1 X51.643Y51.075Z0F1600
G1 X51.506Y51.102Z0F1600
G1 X51.149Y51.139Z0F1600
G1 X50.709Y51.157Z0F1600
G1 X50.223Y51.153Z0F1600
G1 X49.724Y51.128Z0F1600
G1 X49.247Y51.081Z0F1600
G1 X48.827Y51.011Z0F1600
G1 X48.41Y50.892Z0F1600
G1 X47.984Y50.711Z0F1600
G1 X47.546Y50.465Z0F1600
G1 X47.092Y50.149Z0F1600
G1 X46.616Y49.762Z0F1600
G1 X46.114Y49.299Z0F1600
G1 X45.583Y48.758Z0F1600
G1 X45.016Y48.134Z0F1600
G1 X44.833Y47.902Z0F1600
G1 X44.607Y47.583Z0F1600
G1 X44.354Y47.195Z0F1600
G1 X44.083Y46.759Z0F1600
G1 X43.537Y45.819Z0F1600
G1 X43.065Y44.919Z0F1600
G1 X42.768Y44.268Z0F1600
G1 X42.5Y43.588Z0F1600
G1 X42.256Y42.867Z0F1600
G1 X42.037Y42.095Z0F1600
G1 X41.836Y41.262Z0F1600
G1 X41.654Y40.357Z0F1600
G1 X41.486Y39.371Z0F1600
G1 X41.33Y38.292Z0F1600
G1 X41.303Y38.029Z0F1600
G1 X41.278Y37.672Z0F1600
G1 X41.256Y37.234Z0F1600
G1 X41.237Y36.729Z0F1600
G1 X41.22Y36.17Z0F1600
G1 X41.207Y35.572Z0F1600
G1 X41.196Y34.948Z0F1600
G1 X41.188Y34.311Z0F1600
G1 X41.184Y33.675Z0F1600
G1 Y33.053Z0F1600
G1 Y32.459Z0F1600
G1 X41.192Y31.908Z0F1600
G1 X41.202Y31.412Z0F1600
G1 X41.216Y30.985Z0F1600
G1 X41.234Y30.64Z0F1600
G1 X41.257Y30.392Z0F1600
G1 X41.476Y28.68Z0F1600
G0 Z4.8F1000
G0 X99.996Y37.889Z4.8
G1 Z0F1000
G1 X99.594Y38.725Z0F1600
G1 X98.74Y40.391Z0F1600
G1 X97.873Y41.95Z0F1600
G1 X96.963Y43.454Z0F1600
G1 X95.998Y44.922Z0F1600
G1 X94.978Y46.358Z0F1600
G1 X93.866Y47.817Z0F1600
G1 X93.715Y48.009Z0F1600
G1 X93.693Y47.995Z0F1600
G1 X93.396Y47.797Z0F1600
G1 X93.478Y47.595Z0F1600
G1 X93.7Y47.081Z0F1600
G1 X93.962Y46.503Z0F1600
G1 X94.273Y45.849Z0F1600
G1 X94.583Y45.225Z0F1600
G1 X95.262Y43.959Z0F1600
G1 X95.992Y42.737Z0F1600
G1 X96.796Y41.523Z0F1600
G1 X97.691Y40.298Z0F1600
G1 X98.15Y39.709Z0F1600
G1 X98.654Y39.09Z0F1600
G1 X99.207Y38.438Z0F1600
G1 X99.755Y37.813Z0F1600
G1 X100.32Y37.191Z0F1600
G1 X99.996Y37.889Z0F1600

; Color picking sequence
G1 Z10 F1000;         ; Raise brush to safe height
G0 X41 Y5 F1200;    ; Rapid move to color 1 position
G1 Z0 F1000;         ; Lower into color - controlled movement
G1 X40.102Y7.295Z0S800F1200
G1 X40.026Y7.642Z0F1200
G1 X40Y8Z0F1200
G1 X40.026Y8.358Z0F1200
G1 X40.102Y8.705Z0F1200
G1 X40.225Y9.041Z0F1200
G1 X40.393Y9.362Z0F1200
G1 X40.603Y9.668Z0F1200
G1 X40.854Y9.957Z0F1200
G1 X41.142Y10.226Z0F1200
G1 X41.464Y10.475Z0F1200
G1 X41.82Y10.701Z0F1200
G1 X42.204Y10.902Z0F1200
G1 X42.617Y11.078Z0F1200
G1 X43.054Y11.225Z0F1200
G1 X43.513Y11.343Z0F1200
G1 X43.992Y11.429Z0F1200
G1 X44.489Y11.482Z0F1200
G1 X45Y11.5Z0F1200
G1 X45.511Y11.482Z0F1200
G1 X46.008Y11.429Z0F1200
G1 X46.487Y11.343Z0F1200
G1 X46.946Y11.225Z0F1200
G1 X47.383Y11.078Z0F1200
G1 X47.796Y10.902Z0F1200
G1 X48.18Y10.701Z0F1200
G1 X48.536Y10.475Z0F1200
G1 X48.858Y10.226Z0F1200
G1 X49.146Y9.957Z0F1200
G1 X49.397Y9.668Z0F1200
G1 X49.607Y9.362Z0F1200
G1 X49.775Y9.041Z0F1200
G1 X49.898Y8.705Z0F1200
G1 X49.974Y8.358Z0F1200
G1 X50Y8Z0F1200
G1 X49.974Y7.642Z0F1200
G1 X49.898Y7.295Z0F1200
G1 X49.775Y6.959Z0F1200
G1 X49.607Y6.638Z0F1200
G1 X49.397Y6.332Z0F1200
G1 X49.146Y6.043Z0F1200
G1 X48.858Y5.774Z0F1200
G1 X48.536Y5.525Z0F1200
G1 X48.18Y5.299Z0F1200
G1 X47.796Y5.098Z0F1200
G1 X47.383Y4.922Z0F1200
G1 X46.946Y4.775Z0F1200
G1 X46.487Y4.657Z0F1200
G1 X46.008Y4.571Z0F1200
G1 X45.511Y4.518Z0F1200
G1 X45Y4.5Z0F1200
G1 X44.489Y4.518Z0F1200
G1 X43.992Y4.571Z0F1200
G1 X43.513Y4.657Z0F1200
G1 X43.054Y4.775Z0F1200
G1 X42.617Y4.922Z0F1200
G1 X42.204Y5.098Z0F1200
G1 X41.82Y5.299Z0F1200
G1 X41.464Y5.525Z0F1200
G1 X41.142Y5.774Z0F1200
G1 X40.854Y6.043Z0F1200
G1 X40.603Y6.332Z0F1200
G1 X40.393Y6.638Z0F1200
G1 X40.225Y6.959Z0F1200
G1 Z7 F800;         ; Raise from color - controlled movement
G1 X34 Y8 Z1 F1200;     ; Movement in paint - controlled movement
G1 X24 Y18 Z8 F500;     ; Move in paint - controlled movement
G1 F1200;           ; Set feed rate to 1000
G0 Z4.8F1000
G0 X100.636Y47.95Z4.8
G1 Z0F1000
G1 X100.652Y47.927Z0F1600
G1 X100.848Y47.642Z0F1600
G1 X101.026Y47.377Z0F1600
G1 X101.19Y47.126Z0F1600
G1 X101.708Y46.279Z0F1600
G1 X102.214Y45.375Z0F1600
G1 X102.699Y44.431Z0F1600
G1 X103.161Y43.455Z0F1600
G1 X103.597Y42.453Z0F1600
G1 X104.004Y41.433Z0F1600
G1 X104.379Y40.4Z0F1600
G1 X104.659Y39.545Z0F1600
G1 X104.605Y39.875Z0F1600
G1 X104.454Y40.609Z0F1600
G1 X104.274Y41.35Z0F1600
G1 X104.09Y42Z0F1600
G1 X103.88Y42.632Z0F1600
G1 X103.64Y43.262Z0F1600
G1 X103.372Y43.886Z0F1600
G1 X103.087Y44.479Z0F1600
G1 X102.777Y45.063Z0F1600
G1 X102.451Y45.62Z0F1600
G1 X102.096Y46.171Z0F1600
G1 X101.75Y46.659Z0F1600
G1 X101.384Y47.128Z0F1600
G1 X101.017Y47.554Z0F1600
G1 X100.641Y47.946Z0F1600
G1 X100.636Y47.95Z0F1600
G0 Z4.8F1000
G0 X90.526Y41.174Z4.8
G1 Z0F1000
G1 X90.529Y41.167Z0F1600
G1 X90.808Y40.435Z0F1600
G1 X91.139Y39.736Z0F1600
G1 X91.534Y39.045Z0F1600
G1 X92.005Y38.347Z0F1600
G1 X92.552Y37.649Z0F1600
G1 X93.188Y36.935Z0F1600
G1 X93.928Y36.189Z0F1600
G1 X94.771Y35.416Z0F1600
G1 X95.193Y35.056Z0F1600
G1 X95.578Y34.759Z0F1600
G1 X95.806Y34.598Z0F1600
G1 X96.087Y34.408Z0F1600
G1 X96.442Y34.175Z0F1600
G1 X96.814Y33.934Z0F1600
G1 X96.655Y34.069Z0F1600
G1 X96.31Y34.37Z0F1600
G1 X95.625Y34.991Z0F1600
G1 X94.96Y35.621Z0F1600
G1 X94.645Y35.932Z0F1600
G1 X94.353Y36.226Z0F1600
G1 X94.084Y36.505Z0F1600
G1 X93.842Y36.768Z0F1600
G1 X93.624Y37.02Z0F1600
G1 X93.413Y37.289Z0F1600
G1 X93.321Y37.435Z0F1600
G1 X93.174Y37.569Z0F1600
G1 X92.864Y37.89Z0F1600
G1 X92.54Y38.267Z0F1600
G1 X91.927Y39.054Z0F1600
G1 X91.339Y39.885Z0F1600
G1 X90.778Y40.75Z0F1600
G1 X90.526Y41.174Z0F1600
G0 Z4.8F1000
G0 X102.209Y31.049Z4.8
G1 Z0F1000
G1 X102.837Y30.773Z0F1600
G1 X104.039Y30.266Z0F1600
G1 X104.605Y30.035Z0F1600
G1 X104.83Y29.947Z0F1600
G1 X104.845Y30.199Z0F1600
G1 X104.871Y30.709Z0F1600
G1 X104.894Y31.247Z0F1600
G1 X104.913Y31.806Z0F1600
G1 X104.922Y32.199Z0F1600
G1 X104.648Y31.796Z0F1600
G1 X103.84Y31.983Z0F1600
G1 X103.924Y31.306Z0F1600
G1 X102.209Y31.049Z0F1600
G0 Z4.8F1000
G0 X100.638Y30.764Z4.8
G1 Z0F1000
G1 X101.242Y30.492Z0F1600
G1 X102.499Y29.939Z0F1600
G1 X103.709Y29.428Z0F1600
G1 X104.256Y29.206Z0F1600
G1 X104.772Y29.002Z0F1600
G1 X105.217Y28.835Z0F1600
G1 X105.606Y28.698Z0F1600
G1 X105.634Y28.689Z0F1600
G1 X105.649Y28.84Z0F1600
G1 X105.684Y29.246Z0F1600
G1 X105.715Y29.674Z0F1600
G1 X105.744Y30.154Z0F1600
G1 X105.77Y30.671Z0F1600
G1 X105.793Y31.225Z0F1600
G1 X105.813Y31.785Z0F1600
G1 X105.84Y32.996Z0F1600
G1 X105.85Y34.22Z0F1600
G1 X105.847Y34.901Z0F1600
G1 X105.841Y35.53Z0F1600
G1 X105.831Y36.115Z0F1600
G1 X105.816Y36.657Z0F1600
G1 X105.796Y37.162Z0F1600
G1 X105.771Y37.634Z0F1600
G1 X105.74Y38.094Z0F1600
G1 X105.706Y38.488Z0F1600
G1 X105.61Y39.295Z0F1600
G1 X105.488Y40.052Z0F1600
G1 X105.335Y40.795Z0F1600
G1 X105.142Y41.59Z0F1600
G1 X104.952Y42.262Z0F1600
G1 X104.728Y42.935Z0F1600
G1 X104.474Y43.602Z0F1600
G1 X104.198Y44.243Z0F1600
G1 X103.886Y44.894Z0F1600
G1 X103.562Y45.504Z0F1600
G1 X103.217Y46.092Z0F1600
G1 X102.846Y46.669Z0F1600
G1 X102.476Y47.192Z0F1600
G1 X102.073Y47.708Z0F1600
G1 X101.681Y48.163Z0F1600
G1 X101.277Y48.583Z0F1600
G1 X100.87Y48.959Z0F1600
G1 X100.462Y49.289Z0F1600
G1 X100.066Y49.563Z0F1600
G1 X99.664Y49.793Z0F1600
G1 X99.406Y49.923Z0F1600
G1 X99.185Y50.025Z0F1600
G1 X99.018Y50.088Z0F1600
G1 X98.869Y50.129Z0F1600
G1 X98.692Y50.162Z0F1600
G1 X98.438Y50.189Z0F1600
G1 X98.127Y50.209Z0F1600
G1 X97.854Y50.22Z0F1600
G1 X97.861Y50.211Z0F1600
G1 X98.306Y49.628Z0F1600
G1 X98.779Y48.992Z0F1600
G1 X99.255Y48.34Z0F1600
G1 X99.705Y47.711Z0F1600
G1 X99.913Y47.414Z0F1600
G1 X100.104Y47.136Z0F1600
G1 X100.276Y46.88Z0F1600
G1 X100.429Y46.646Z0F1600
G1 X100.931Y45.824Z0F1600
G1 X101.42Y44.949Z0F1600
G1 X101.892Y44.032Z0F1600
G1 X102.341Y43.083Z0F1600
G1 X102.766Y42.106Z0F1600
G1 X103.163Y41.112Z0F1600
G1 X103.528Y40.107Z0F1600
G1 X103.859Y39.095Z0F1600
G1 X104.042Y38.454Z0F1600
G1 X104.218Y37.746Z0F1600
G1 X104.383Y37.005Z0F1600
G1 X104.531Y36.268Z0F1600
G1 X104.653Y35.567Z0F1600
G1 X104.745Y34.939Z0F1600
G1 X104.777Y34.653Z0F1600
G1 X104.8Y34.394Z0F1600
G1 X104.81Y34.154Z0F1600
G1 X104.804Y33.922Z0F1600
G1 X104.746Y33.541Z0F1600
G1 X104.25Y32.812Z0F1600
G1 X103.388Y33.011Z0F1600
G1 X103.118Y33.264Z0F1600
G1 X103.003Y33.421Z0F1600
G1 X102.922Y33.558Z0F1600
G1 X102.848Y33.699Z0F1600
G1 X102.769Y33.86Z0F1600
G1 X102.683Y34.045Z0F1600
G1 X102.586Y34.259Z0F1600
G1 X102.357Y34.785Z0F1600
G1 X102.07Y35.457Z0F1600
G1 X101.652Y36.423Z0F1600
G1 X101.235Y37.356Z0F1600
G1 X100.816Y38.259Z0F1600
G1 X100.393Y39.139Z0F1600
G1 X99.534Y40.815Z0F1600
G1 X98.647Y42.409Z0F1600
G1 X97.722Y43.938Z0F1600
G1 X96.748Y45.42Z0F1600
G1 X95.699Y46.897Z0F1600
G1 X94.581Y48.365Z0F1600
G1 X93.941Y49.178Z0F1600
G1 X93.697Y49.049Z0F1600
G1 X93.217Y48.759Z0F1600
G1 X92.726Y48.432Z0F1600
G1 X92.333Y48.136Z0F1600
G1 X92.313Y48.119Z0F1600
G1 Y48.115Z0F1600
G1 X92.455Y47.727Z0F1600
G1 X92.639Y47.269Z0F1600
G1 X92.875Y46.72Z0F1600
G1 X93.156Y46.103Z0F1600
G1 X93.454Y45.476Z0F1600
G1 X93.782Y44.815Z0F1600
G1 X94.48Y43.512Z0F1600
G1 X95.234Y42.25Z0F1600
G1 X96.053Y41.016Z0F1600
G1 X96.969Y39.761Z0F1600
G1 X97.463Y39.128Z0F1600
G1 X97.967Y38.508Z0F1600
G1 X98.52Y37.856Z0F1600
G1 X99.078Y37.22Z0F1600
G1 X99.677Y36.561Z0F1600
G1 X100.305Y35.891Z0F1600
G1 X100.974Y35.198Z0F1600
G1 X101.669Y34.497Z0F1600
G1 X102.054Y34.102Z0F1600
G1 X102.371Y33.752Z0F1600
G1 X102.504Y33.591Z0F1600
G1 X102.621Y33.435Z0F1600
G1 X102.785Y33.163Z0F1600
G1 X102.922Y32.066Z0F1600
G1 X101.829Y31.902Z0F1600
G1 X101.516Y31.984Z0F1600
G1 X101.322Y32.061Z0F1600
G1 X101.132Y32.148Z0F1600
G1 X100.931Y32.251Z0F1600
G1 X100.712Y32.369Z0F1600
G1 X100.477Y32.501Z0F1600
G1 X100.221Y32.649Z0F1600
G1 X99.16Y33.31Z0F1600
G1 X98.162Y34.004Z0F1600
G1 X97.869Y34.231Z0F1600
G1 X97.563Y34.48Z0F1600
G1 X97.241Y34.752Z0F1600
G1 X96.908Y35.043Z0F1600
G1 X96.237Y35.651Z0F1600
G1 X95.586Y36.269Z0F1600
G1 X95.28Y36.57Z0F1600
G1 X94.997Y36.854Z0F1600
G1 X94.74Y37.123Z0F1600
G1 X94.513Y37.368Z0F1600
G1 X94.318Y37.593Z0F1600
G1 X94.15Y37.807Z0F1600
G1 X94.008Y38.034Z0F1600
G1 X93.945Y38.084Z0F1600
G1 X93.802Y38.215Z0F1600
G1 X93.529Y38.497Z0F1600
G1 X93.236Y38.837Z0F1600
G1 X92.65Y39.591Z0F1600
G1 X92.084Y40.39Z0F1600
G1 X91.543Y41.225Z0F1600
G1 X91.031Y42.087Z0F1600
G1 X90.553Y42.97Z0F1600
G1 X90.114Y43.862Z0F1600
G1 X89.719Y44.757Z0F1600
G1 X89.619Y45.015Z0F1600
G1 X89.53Y44.805Z0F1600
G1 X89.455Y44.495Z0F1600
G1 X89.436Y44.32Z0F1600
G1 X89.421Y44.03Z0F1600
G1 X89.416Y43.847Z0F1600
G1 X89.412Y43.407Z0F1600
G1 Y43.152Z0F1600
G1 Y42.692Z0F1600
G1 X89.422Y42.31Z0F1600
G1 X89.439Y41.995Z0F1600
G1 X89.461Y41.761Z0F1600
G1 X89.539Y41.333Z0F1600
G1 X89.676Y40.875Z0F1600
G1 X89.979Y40.084Z0F1600
G1 X90.34Y39.319Z0F1600
G1 X90.771Y38.565Z0F1600
G1 X91.275Y37.82Z0F1600
G1 X91.855Y37.079Z0F1600
G1 X92.536Y36.315Z0F1600
G1 X93.301Y35.543Z0F1600
G1 X94.188Y34.73Z0F1600
G1 X94.615Y34.366Z0F1600
G1 X95.047Y34.032Z0F1600
G1 X95.295Y33.858Z0F1600
G1 X95.583Y33.663Z0F1600
G1 X95.954Y33.419Z0F1600
G1 X96.96Y32.767Z0F1600
G1 X97.624Y32.332Z0F1600
G1 X97.897Y32.147Z0F1600
G1 X98.016Y32.061Z0F1600
G1 X98.065Y32.029Z0F1600
G1 X98.166Y31.97Z0F1600
G1 X98.291Y31.9Z0F1600
G1 X98.636Y31.719Z0F1600
G1 X99.039Y31.517Z0F1600
G1 X99.522Y31.283Z0F1600
G1 X100.067Y31.027Z0F1600
G1 X100.638Y30.764Z0F1600

; Color picking sequence
G1 Z10 F1000;         ; Raise brush to safe height
G0 X41 Y5 F1200;    ; Rapid move to color 1 position
G1 Z0 F1000;         ; Lower into color - controlled movement
G1 X40.102Y7.295Z0S800F1200
G1 X40.026Y7.642Z0F1200
G1 X40Y8Z0F1200
G1 X40.026Y8.358Z0F1200
G1 X40.102Y8.705Z0F1200
G1 X40.225Y9.041Z0F1200
G1 X40.393Y9.362Z0F1200
G1 X40.603Y9.668Z0F1200
G1 X40.854Y9.957Z0F1200
G1 X41.142Y10.226Z0F1200
G1 X41.464Y10.475Z0F1200
G1 X41.82Y10.701Z0F1200
G1 X42.204Y10.902Z0F1200
G1 X42.617Y11.078Z0F1200
G1 X43.054Y11.225Z0F1200
G1 X43.513Y11.343Z0F1200
G1 X43.992Y11.429Z0F1200
G1 X44.489Y11.482Z0F1200
G1 X45Y11.5Z0F1200
G1 X45.511Y11.482Z0F1200
G1 X46.008Y11.429Z0F1200
G1 X46.487Y11.343Z0F1200
G1 X46.946Y11.225Z0F1200
G1 X47.383Y11.078Z0F1200
G1 X47.796Y10.902Z0F1200
G1 X48.18Y10.701Z0F1200
G1 X48.536Y10.475Z0F1200
G1 X48.858Y10.226Z0F1200
G1 X49.146Y9.957Z0F1200
G1 X49.397Y9.668Z0F1200
G1 X49.607Y9.362Z0F1200
G1 X49.775Y9.041Z0F1200
G1 X49.898Y8.705Z0F1200
G1 X49.974Y8.358Z0F1200
G1 X50Y8Z0F1200
G1 X49.974Y7.642Z0F1200
G1 X49.898Y7.295Z0F1200
G1 X49.775Y6.959Z0F1200
G1 X49.607Y6.638Z0F1200
G1 X49.397Y6.332Z0F1200
G1 X49.146Y6.043Z0F1200
G1 X48.858Y5.774Z0F1200
G1 X48.536Y5.525Z0F1200
G1 X48.18Y5.299Z0F1200
G1 X47.796Y5.098Z0F1200
G1 X47.383Y4.922Z0F1200
G1 X46.946Y4.775Z0F1200
G1 X46.487Y4.657Z0F1200
G1 X46.008Y4.571Z0F1200
G1 X45.511Y4.518Z0F1200
G1 X45Y4.5Z0F1200
G1 X44.489Y4.518Z0F1200
G1 X43.992Y4.571Z0F1200
G1 X43.513Y4.657Z0F1200
G1 X43.054Y4.775Z0F1200
G1 X42.617Y4.922Z0F1200
G1 X42.204Y5.098Z0F1200
G1 X41.82Y5.299Z0F1200
G1 X41.464Y5.525Z0F1200
G1 X41.142Y5.774Z0F1200
G1 X40.854Y6.043Z0F1200
G1 X40.603Y6.332Z0F1200
G1 X40.393Y6.638Z0F1200
G1 X40.225Y6.959Z0F1200
G1 Z7 F800;         ; Raise from color - controlled movement
G1 X34 Y8 Z1 F1200;     ; Movement in paint - controlled movement
G1 X24 Y18 Z8 F500;     ; Move in paint - controlled movement
G1 F1200;           ; Set feed rate to 1000
G0 Z4.8F1000
G0 X106.472Y28.104Z4.8
G1 Z0F1000
G1 X106.51Y28.407Z0F1600
G1 X106.546Y28.763Z0F1600
G1 X106.581Y29.169Z0F1600
G1 X106.613Y29.62Z0F1600
G1 X106.643Y30.109Z0F1600
G1 X106.669Y30.633Z0F1600
G1 X106.693Y31.187Z0F1600
G1 X106.712Y31.765Z0F1600
G1 X106.74Y32.975Z0F1600
G1 X106.75Y34.224Z0F1600
G1 X106.747Y34.91Z0F1600
G1 X106.741Y35.546Z0F1600
G1 X106.73Y36.139Z0F1600
G1 X106.715Y36.692Z0F1600
G1 X106.695Y37.209Z0F1600
G1 X106.669Y37.696Z0F1600
G1 X106.638Y38.156Z0F1600
G1 X106.6Y38.593Z0F1600
G1 X106.502Y39.418Z0F1600
G1 X106.375Y40.207Z0F1600
G1 X106.213Y40.994Z0F1600
G1 X106.014Y41.814Z0F1600
G1 X105.811Y42.529Z0F1600
G1 X105.576Y43.238Z0F1600
G1 X105.309Y43.938Z0F1600
G1 X105.014Y44.624Z0F1600
G1 X104.693Y45.293Z0F1600
G1 X104.348Y45.942Z0F1600
G1 X103.981Y46.568Z0F1600
G1 X103.596Y47.167Z0F1600
G1 X103.193Y47.736Z0F1600
G1 X102.775Y48.271Z0F1600
G1 X102.345Y48.77Z0F1600
G1 X101.905Y49.228Z0F1600
G1 X101.458Y49.642Z0F1600
G1 X101.004Y50.008Z0F1600
G1 X100.548Y50.325Z0F1600
G1 X100.09Y50.586Z0F1600
G1 X99.788Y50.738Z0F1600
G1 X99.532Y50.855Z0F1600
G1 X99.3Y50.943Z0F1600
G1 X99.07Y51.008Z0F1600
G1 X98.819Y51.053Z0F1600
G1 X98.525Y51.085Z0F1600
G1 X98.166Y51.108Z0F1600
G1 X97.719Y51.127Z0F1600
G1 X97.158Y51.139Z0F1600
G1 X96.681Y51.132Z0F1600
G1 X96.49Y51.122Z0F1600
G1 X96.339Y51.108Z0F1600
G1 X96.235Y51.09Z0F1600
G1 X96.183Y51.068Z0F1600
G1 X96.169Y50.988Z0F1600
G1 X96.219Y50.855Z0F1600
G1 X96.323Y50.685Z0F1600
G1 X96.473Y50.496Z0F1600
G1 X96.608Y50.338Z0F1600
G1 X96.768Y50.143Z0F1600
G1 X96.949Y49.916Z0F1600
G1 X97.148Y49.661Z0F1600
G1 X97.587Y49.086Z0F1600
G1 X98.055Y48.458Z0F1600
G1 X98.525Y47.813Z0F1600
G1 X98.97Y47.191Z0F1600
G1 X99.173Y46.9Z0F1600
G1 X99.36Y46.629Z0F1600
G1 X99.526Y46.383Z0F1600
G1 X99.667Y46.166Z0F1600
G1 X100.154Y45.37Z0F1600
G1 X100.627Y44.523Z0F1600
G1 X101.085Y43.634Z0F1600
G1 X101.522Y42.71Z0F1600
G1 X101.936Y41.76Z0F1600
G1 X102.322Y40.792Z0F1600
G1 X102.677Y39.813Z0F1600
G1 X102.998Y38.832Z0F1600
G1 X103.172Y38.222Z0F1600
G1 X103.342Y37.539Z0F1600
G1 X103.503Y36.819Z0F1600
G1 X103.646Y36.103Z0F1600
G1 X103.765Y35.425Z0F1600
G1 X103.852Y34.824Z0F1600
G1 X103.882Y34.563Z0F1600
G1 X103.901Y34.336Z0F1600
G1 X103.909Y34.147Z0F1600
G1 X103.905Y34.001Z0F1600
G1 X103.887Y33.877Z0F1600
G1 X103.853Y33.827Z0F1600
G1 X103.827Y33.833Z0F1600
G1 X103.795Y33.863Z0F1600
G1 X103.756Y33.917Z0F1600
G1 X103.708Y33.999Z0F1600
G1 X103.649Y34.108Z0F1600
G1 X103.581Y34.248Z0F1600
G1 X103.501Y34.419Z0F1600
G1 X103.409Y34.624Z0F1600
G1 X103.183Y35.142Z0F1600
G1 X102.896Y35.813Z0F1600
G1 X102.474Y36.791Z0F1600
G1 X102.052Y37.735Z0F1600
G1 X101.627Y38.65Z0F1600
G1 X101.2Y39.537Z0F1600
G1 X100.329Y41.238Z0F1600
G1 X99.428Y42.857Z0F1600
G1 X98.484Y44.416Z0F1600
G1 X97.487Y45.933Z0F1600
G1 X96.426Y47.428Z0F1600
G1 X95.288Y48.921Z0F1600
G1 X94.266Y50.219Z0F1600
G1 X94.202Y50.243Z0F1600
G1 X94.085Y50.224Z0F1600
G1 X93.925Y50.169Z0F1600
G1 X93.728Y50.083Z0F1600
G1 X93.254Y49.833Z0F1600
G1 X92.729Y49.516Z0F1600
G1 X92.211Y49.17Z0F1600
G1 X91.765Y48.835Z0F1600
G1 X91.587Y48.684Z0F1600
G1 X91.451Y48.55Z0F1600
G1 X91.364Y48.439Z0F1600
G1 X91.333Y48.356Z0F1600
G1 X91.341Y48.267Z0F1600
G1 X91.366Y48.147Z0F1600
G1 X91.406Y48Z0F1600
G1 X91.461Y47.828Z0F1600
G1 X91.612Y47.411Z0F1600
G1 X91.812Y46.913Z0F1600
G1 X92.056Y46.348Z0F1600
G1 X92.336Y45.73Z0F1600
G1 X92.648Y45.075Z0F1600
G1 X92.984Y44.398Z0F1600
G1 X93.695Y43.072Z0F1600
G1 X94.47Y41.776Z0F1600
G1 X95.319Y40.495Z0F1600
G1 X96.252Y39.216Z0F1600
G1 X96.754Y38.574Z0F1600
G1 X97.28Y37.927Z0F1600
G1 X97.833Y37.274Z0F1600
G1 X98.412Y36.614Z0F1600
G1 X99.02Y35.945Z0F1600
G1 X99.658Y35.265Z0F1600
G1 X100.327Y34.573Z0F1600
G1 X101.028Y33.866Z0F1600
G1 X101.398Y33.486Z0F1600
G1 X101.69Y33.163Z0F1600
G1 X101.797Y33.034Z0F1600
G1 X101.874Y32.932Z0F1600
G1 X101.916Y32.861Z0F1600
G1 X101.92Y32.826Z0F1600
G1 X101.878Y32.82Z0F1600
G1 X101.795Y32.841Z0F1600
G1 X101.677Y32.888Z0F1600
G1 X101.526Y32.958Z0F1600
G1 X101.348Y33.049Z0F1600
G1 X101.146Y33.158Z0F1600
G1 X100.923Y33.283Z0F1600
G1 X100.685Y33.421Z0F1600
G1 X99.655Y34.062Z0F1600
G1 X98.695Y34.729Z0F1600
G1 X98.428Y34.936Z0F1600
G1 X98.137Y35.173Z0F1600
G1 X97.828Y35.435Z0F1600
G1 X97.506Y35.715Z0F1600
G1 X96.849Y36.312Z0F1600
G1 X96.211Y36.916Z0F1600
G1 X95.915Y37.208Z0F1600
G1 X95.641Y37.483Z0F1600
G1 X95.395Y37.739Z0F1600
G1 X95.184Y37.968Z0F1600
G1 X95.013Y38.166Z0F1600
G1 X94.888Y38.325Z0F1600
G1 X94.815Y38.441Z0F1600
G1 X94.799Y38.508Z0F1600
G1 X94.814Y38.573Z0F1600
G1 X94.804Y38.622Z0F1600
G1 X94.772Y38.649Z0F1600
G1 X94.721Z0F1600
G1 X94.679Y38.661Z0F1600
G1 X94.614Y38.701Z0F1600
G1 X94.53Y38.769Z0F1600
G1 X94.43Y38.86Z0F1600
G1 X94.194Y39.104Z0F1600
G1 X93.933Y39.407Z0F1600
G1 X93.373Y40.127Z0F1600
G1 X92.83Y40.895Z0F1600
G1 X92.308Y41.699Z0F1600
G1 X91.814Y42.532Z0F1600
G1 X91.353Y43.383Z0F1600
G1 X90.93Y44.243Z0F1600
G1 X90.551Y45.102Z0F1600
G1 X90.22Y45.952Z0F1600
G1 X89.799Y47.117Z0F1600
G1 X89.512Y46.713Z0F1600
G1 X89.372Y46.497Z0F1600
G1 X89.204Y46.205Z0F1600
G1 X89.029Y45.876Z0F1600
G1 X88.868Y45.549Z0F1600
G1 X88.674Y45.09Z0F1600
G1 X88.566Y44.651Z0F1600
G1 X88.538Y44.386Z0F1600
G1 X88.521Y44.061Z0F1600
G1 X88.516Y43.87Z0F1600
G1 X88.512Y43.416Z0F1600
G1 Y43.147Z0F1600
G1 Y42.672Z0F1600
G1 X88.523Y42.273Z0F1600
G1 X88.541Y41.935Z0F1600
G1 X88.569Y41.64Z0F1600
G1 X88.664Y41.12Z0F1600
G1 X88.823Y40.588Z0F1600
G1 X89.15Y39.731Z0F1600
G1 X89.542Y38.901Z0F1600
G1 X90.006Y38.09Z0F1600
G1 X90.546Y37.291Z0F1600
G1 X91.168Y36.497Z0F1600
G1 X91.878Y35.7Z0F1600
G1 X92.68Y34.892Z0F1600
G1 X93.58Y34.067Z0F1600
G1 X94.055Y33.661Z0F1600
G1 X94.512Y33.309Z0F1600
G1 X94.776Y33.122Z0F1600
G1 X95.088Y32.911Z0F1600
G1 X95.464Y32.664Z0F1600
G1 X96.469Y32.013Z0F1600
G1 X97.125Y31.583Z0F1600
G1 X97.38Y31.41Z0F1600
G1 X97.504Y31.32Z0F1600
G1 X97.6Y31.259Z0F1600
G1 X97.72Y31.188Z0F1600
G1 X97.864Y31.107Z0F1600
G1 X98.217Y30.922Z0F1600
G1 X98.646Y30.707Z0F1600
G1 X99.139Y30.469Z0F1600
G1 X99.684Y30.212Z0F1600
G1 X100.268Y29.943Z0F1600
G1 X100.88Y29.667Z0F1600
G1 X102.137Y29.115Z0F1600
G1 X103.359Y28.599Z0F1600
G1 X103.926Y28.368Z0F1600
G1 X104.449Y28.163Z0F1600
G1 X104.913Y27.988Z0F1600
G1 X105.308Y27.849Z0F1600
G1 X105.671Y27.73Z0F1600
G1 X106.106Y27.593Z0F1600
G1 X106.274Y27.545Z0F1600
G1 X106.31Y27.537Z0F1600
G1 X106.351Y27.573Z0F1600
G1 X106.392Y27.683Z0F1600
G1 X106.433Y27.862Z0F1600
G1 X106.472Y28.104Z0F1600
;Cut @ 1600 mm/min, 90% power

M8

; Washing sequence (no color)
G1 Z10 F1000;        ; Raise brush to safe height
G0 X5 Y5 F1200;     ; Rapid move to brush cleaning position
G1 Z-1 F800;         ; Lower brush for cleaning - controlled movement
G1 X10 Y12 Z8 F1200;     ; Rapid move to brush cleaning position
G1 Z-1 F800;         ; Lower brush for cleaning - controlled movement
G1 X25 Y14 Z6 F800;     ; Move across cleaning area - controlled movement
G1 Z8 F800;         ; Maintain brush height - controlled movement
G0 X5 Y5 F1200;     ; Rapid move to brush cleaning position
G1 Z-1 F800;         ; Lower brush for cleaning - controlled movement
G1 X15 Y12 Z8 F1200;     ; Rapid move to brush cleaning position
G1 Z-1 F800;         ; Lower brush for cleaning - controlled movement
G1 X25 Y14 Z6 F800;     ; Move across cleaning area - controlled movement
G1 Z10 F800;         ; Maintain brush height - controlled movement
G1 F1200;           ; Set feed rate to 1000

; Color picking sequence
G1 Z10 F1000;         ; Raise brush to safe height
G0 X131 Y5 F1200;    ; Rapid move to color 1 position
G1 Z0 F1000;         ; Lower into color - controlled movement
G1 X130.102Y7.295Z0S800F1200
G1 X130.026Y7.642Z0F1200
G1 X130Y8Z0F1200
G1 X130.026Y8.358Z0F1200
G1 X130.102Y8.705Z0F1200
G1 X130.225Y9.041Z0F1200
G1 X130.393Y9.362Z0F1200
G1 X130.603Y9.668Z0F1200
G1 X130.854Y9.957Z0F1200
G1 X131.142Y10.226Z0F1200
G1 X131.464Y10.475Z0F1200
G1 X131.82Y10.701Z0F1200
G1 X132.204Y10.902Z0F1200
G1 X132.617Y11.078Z0F1200
G1 X133.054Y11.225Z0F1200
G1 X133.513Y11.343Z0F1200
G1 X133.992Y11.429Z0F1200
G1 X134.489Y11.482Z0F1200
G1 X135Y11.5Z0F1200
G1 X135.511Y11.482Z0F1200
G1 X136.008Y11.429Z0F1200
G1 X136.487Y11.343Z0F1200
G1 X136.946Y11.225Z0F1200
G1 X137.383Y11.078Z0F1200
G1 X137.796Y10.902Z0F1200
G1 X138.18Y10.701Z0F1200
G1 X138.536Y10.475Z0F1200
G1 X138.858Y10.226Z0F1200
G1 X139.146Y9.957Z0F1200
G1 X139.397Y9.668Z0F1200
G1 X139.607Y9.362Z0F1200
G1 X139.775Y9.041Z0F1200
G1 X139.898Y8.705Z0F1200
G1 X139.974Y8.358Z0F1200
G1 X140Y8Z0F1200
G1 X139.974Y7.642Z0F1200
G1 X139.898Y7.295Z0F1200
G1 X139.775Y6.959Z0F1200
G1 X139.607Y6.638Z0F1200
G1 X139.397Y6.332Z0F1200
G1 X139.146Y6.043Z0F1200
G1 X138.858Y5.774Z0F1200
G1 X138.536Y5.525Z0F1200
G1 X138.18Y5.299Z0F1200
G1 X137.796Y5.098Z0F1200
G1 X137.383Y4.922Z0F1200
G1 X136.946Y4.775Z0F1200
G1 X136.487Y4.657Z0F1200
G1 X136.008Y4.571Z0F1200
G1 X135.511Y4.518Z0F1200
G1 X135Y4.5Z0F1200
G1 X134.489Y4.518Z0F1200
G1 X133.992Y4.571Z0F1200
G1 X133.513Y4.657Z0F1200
G1 X133.054Y4.775Z0F1200
G1 X132.617Y4.922Z0F1200
G1 X132.204Y5.098Z0F1200
G1 X131.82Y5.299Z0F1200
G1 X131.464Y5.525Z0F1200
G1 X131.142Y5.774Z0F1200
G1 X130.854Y6.043Z0F1200
G1 X130.603Y6.332Z0F1200
G1 X130.393Y6.638Z0F1200
G1 X130.225Y6.959Z0F1200
G1 Z7 F800;         ; Raise from color - controlled movement
G1 X124 Y8 Z1 F1200;     ; Movement in paint - controlled movement
G1 X114 Y18 Z8 F500;     ; Move in paint - controlled movement
G1 F1200;           ; Set feed rate to 1000
G0 Z4.8F1000
G0 X79.228Y39.976Z4.8
G1 Z0F1000
;Layer C3
G1 X79.189Y39.965Z0S900F1600
G1 X79.105Y39.955Z0F1600
G1 X78.98Y39.945Z0F1600
G1 X78.816Y39.935Z0F1600
G1 X78.38Y39.917Z0F1600
G1 X77.815Y39.901Z0F1600
G1 X77.141Y39.888Z0F1600
G1 X76.377Y39.878Z0F1600
G1 X75.54Y39.871Z0F1600
G1 X74.65Z0F1600
G1 X73.491Z0F1600
G1 X72.531Y39.876Z0F1600
G1 X71.756Y39.886Z0F1600
G1 X71.433Y39.894Z0F1600
G1 X71.15Y39.902Z0F1600
G1 X70.906Y39.912Z0F1600
G1 X70.697Y39.924Z0F1600
G1 X70.523Y39.937Z0F1600
G1 X70.382Y39.952Z0F1600
G1 X70.271Y39.969Z0F1600
G1 X70.189Y39.988Z0F1600
G1 X70.133Y40.008Z0F1600
G1 X70.102Y40.031Z0F1600
G1 X70.067Y40.1Z0F1600
G1 X70.022Y40.234Z0F1600
G1 X69.966Y40.426Z0F1600
G1 X69.903Y40.667Z0F1600
G1 X69.835Y40.949Z0F1600
G1 X69.763Y41.265Z0F1600
G1 X69.69Y41.607Z0F1600
G1 X69.462Y42.742Z0F1600
G1 X69.22Y43.927Z0F1600
G1 X68.921Y45.335Z0F1600
G1 X68.825Y45.823Z0F1600
G1 X68.782Y46.051Z0F1600
G1 X68.713Y46.441Z0F1600
G1 X68.69Y46.589Z0F1600
G1 X68.662Y46.814Z0F1600
G1 X68.633Y46.979Z0F1600
G1 X68.572Y47.099Z0F1600
G1 X68.451Y47.189Z0F1600
G1 X68.358Y47.227Z0F1600
G1 X68.239Y47.262Z0F1600
G1 X68.09Y47.297Z0F1600
G1 X67.907Y47.333Z0F1600
G1 X67.686Y47.373Z0F1600
G1 X66.459Y47.579Z0F1600
G1 X66.218Y47.614Z0F1600
G1 X66.03Y47.634Z0F1600
G1 X65.887Y47.638Z0F1600
G1 X65.696Y47.598Z0F1600
G1 X65.568Y47.491Z0F1600
G1 X65.512Y47.42Z0F1600
G1 X65.424Y47.299Z0F1600
G1 X65.165Y46.927Z0F1600
G1 X64.817Y46.415Z0F1600
G1 X64.407Y45.803Z0F1600
G1 X63.501Y44.432Z0F1600
G1 X62.4Y42.73Z0F1600
G1 X62.177Y42.402Z0F1600
G1 X62.087Y42.276Z0F1600
G1 X62.015Y42.18Z0F1600
G1 X61.965Y42.12Z0F1600
G1 X61.938Y42.099Z0F1600
G1 X61.925Y42.132Z0F1600
G1 X61.912Y42.23Z0F1600
G1 X61.901Y42.385Z0F1600
G1 X61.891Y42.589Z0F1600
G1 X61.882Y42.837Z0F1600
G1 X61.875Y43.121Z0F1600
G1 X61.871Y43.435Z0F1600
G1 X61.865Y44.278Z0F1600
G1 X61.855Y44.694Z0F1600
G1 X61.836Y45.04Z0F1600
G1 X61.804Y45.337Z0F1600
G1 X61.758Y45.607Z0F1600
G1 X61.693Y45.871Z0F1600
G1 X61.607Y46.151Z0F1600
G1 X61.497Y46.469Z0F1600
G1 X61.129Y47.494Z0F1600
G1 X64.077Y51.9Z0F1600
G1 X64.967Y53.218Z0F1600
G1 X65.506Y54.009Z0F1600
G1 X65.785Y54.413Z0F1600
G1 X65.987Y54.702Z0F1600
G1 X66.102Y54.859Z0F1600
G1 X66.124Y54.884Z0F1600
G1 X66.159Y54.89Z0F1600
G1 X66.225Y54.886Z0F1600
G1 X66.318Y54.874Z0F1600
G1 X66.435Y54.853Z0F1600
G1 X66.724Y54.79Z0F1600
G1 X67.06Y54.703Z0F1600
G1 X67.742Y54.536Z0F1600
G1 X68.492Y54.391Z0F1600
G1 X69.3Y54.268Z0F1600
G1 X70.156Y54.167Z0F1600
G1 X71.052Y54.089Z0F1600
G1 X71.976Y54.033Z0F1600
G1 X72.92Y53.999Z0F1600
G1 X73.874Y53.987Z0F1600
G1 X74.827Y53.998Z0F1600
G1 X75.77Y54.031Z0F1600
G1 X76.694Y54.086Z0F1600
G1 X77.588Y54.163Z0F1600
G1 X78.443Y54.263Z0F1600
G1 X79.249Y54.385Z0F1600
G1 X79.996Y54.529Z0F1600
G1 X80.674Y54.696Z0F1600
G1 X81.063Y54.802Z0F1600
G1 X81.364Y54.878Z0F1600
G1 X81.591Y54.924Z0F1600
G1 X81.756Y54.939Z0F1600
G1 X81.874Y54.925Z0F1600
G1 X81.959Y54.88Z0F1600
G1 X82.024Y54.805Z0F1600
G1 X82.083Y54.701Z0F1600
G1 X82.14Y54.604Z0F1600
G1 X82.252Y54.428Z0F1600
G1 X82.414Y54.181Z0F1600
G1 X82.618Y53.875Z0F1600
G1 X83.125Y53.123Z0F1600
G1 X83.722Y52.252Z0F1600
G1 X85.728Y49.339Z0F1600
G1 X85.913Y49.05Z0F1600
G1 X86.049Y48.799Z0F1600
G1 X86.094Y48.696Z0F1600
G1 X86.123Y48.612Z0F1600
G1 X86.132Y48.55Z0F1600
G1 X86.122Y48.515Z0F1600
G1 X86.072Y48.49Z0F1600
G1 X85.965Y48.451Z0F1600
G1 X85.805Y48.4Z0F1600
G1 X85.599Y48.338Z0F1600
G1 X85.351Y48.267Z0F1600
G1 X85.069Y48.189Z0F1600
G1 X84.421Y48.016Z0F1600
G1 X82.956Y47.644Z0F1600
G1 X81.567Y47.32Z0F1600
G1 X80.79Y47.15Z0F1600
G1 X79.794Y42.106Z0F1600
G1 X79.71Y41.697Z0F1600
G1 X79.626Y41.311Z0F1600
G1 X79.542Y40.958Z0F1600
G1 X79.463Y40.645Z0F1600
G1 X79.389Y40.381Z0F1600
G1 X79.324Y40.176Z0F1600
G1 X79.27Y40.038Z0F1600
G1 X79.228Y39.976Z0F1600
G0 Z4.8F1000
G0 X97.089Y54.711Z4.8F1600
G1 Z0F1000
G1 X95.468Y57.899Z0F1600
G1 X94.959Y58.891Z0F1600
G1 X94.544Y59.69Z0F1600
G1 X94.325Y60.104Z0F1600
G1 X94.235Y60.269Z0F1600
G1 X94.154Y60.414Z0F1600
G1 X94.128Y60.505Z0F1600
G1 X94.142Y60.601Z0F1600
G1 X94.205Y60.714Z0F1600
G1 X94.326Y60.859Z0F1600
G1 X94.516Y61.049Z0F1600
G1 X94.639Y61.166Z0F1600
G1 X94.783Y61.298Z0F1600
G1 X95.138Y61.619Z0F1600
G1 X95.9Y62.315Z0F1600
G1 X96.632Y63.012Z0F1600
G1 X97.334Y63.709Z0F1600
G1 X98.008Y64.407Z0F1600
G1 X98.654Y65.107Z0F1600
G1 X99.273Y65.809Z0F1600
G1 X99.864Y66.515Z0F1600
G1 X100.429Y67.224Z0F1600
G1 X100.968Y67.938Z0F1600
G1 X101.482Y68.658Z0F1600
G1 X101.971Y69.384Z0F1600
G1 X102.437Y70.117Z0F1600
G1 X103.297Y71.606Z0F1600
G1 X104.068Y73.132Z0F1600
G1 X104.219Y73.465Z0F1600
G1 X104.376Y73.826Z0F1600
G1 X104.536Y74.212Z0F1600
G1 X104.698Y74.621Z0F1600
G1 X105.023Y75.487Z0F1600
G1 X105.342Y76.393Z0F1600
G1 X105.644Y77.311Z0F1600
G1 X105.919Y78.208Z0F1600
G1 X106.156Y79.057Z0F1600
G1 X106.345Y79.825Z0F1600
G1 X106.529Y80.706Z0F1600
G1 X106.69Y81.604Z0F1600
G1 X106.826Y82.516Z0F1600
G1 X106.939Y83.44Z0F1600
G1 X107.091Y85.309Z0F1600
G1 X107.146Y87.191Z0F1600
G1 X107.138Y88.129Z0F1600
G1 X107.105Y89.062Z0F1600
G1 X107.049Y89.987Z0F1600
G1 X106.968Y90.901Z0F1600
G1 X106.862Y91.801Z0F1600
G1 X106.733Y92.685Z0F1600
G1 X106.579Y93.549Z0F1600
G1 X106.401Y94.391Z0F1600
G1 X106.271Y94.928Z0F1600
G1 X106.109Y95.543Z0F1600
G1 X105.925Y96.2Z0F1600
G1 X105.729Y96.868Z0F1600
G1 X105.532Y97.514Z0F1600
G1 X105.343Y98.103Z0F1600
G1 X105.255Y98.367Z0F1600
G1 X105.172Y98.605Z0F1600
G1 X105.096Y98.811Z0F1600
G1 X105.029Y98.984Z0F1600
G1 X104.623Y99.968Z0F1600
G1 X104.548Y100.14Z0F1600
G1 X104.449Y100.357Z0F1600
G1 X104.329Y100.61Z0F1600
G1 X104.192Y100.894Z0F1600
G1 X103.879Y101.527Z0F1600
G1 X103.537Y102.201Z0F1600
G1 X103.195Y102.864Z0F1600
G1 X102.878Y103.461Z0F1600
G1 X102.739Y103.718Z0F1600
G1 X102.616Y103.939Z0F1600
G1 X102.513Y104.117Z0F1600
G1 X102.435Y104.245Z0F1600
G1 X102.329Y104.405Z0F1600
G1 X102.046Y104.823Z0F1600
G1 X101.507Y105.604Z0F1600
G1 X101.12Y106.158Z0F1600
G1 X100.748Y106.686Z0F1600
G1 X100.425Y107.139Z0F1600
G1 X100.185Y107.47Z0F1600
G1 X100.105Y107.575Z0F1600
G1 X100.059Y107.633Z0F1600
G1 X99.961Y107.745Z0F1600
G1 X99.792Y107.944Z0F1600
G1 X99.337Y108.492Z0F1600
G1 X98.747Y109.186Z0F1600
G1 X98.156Y109.85Z0F1600
G1 X97.921Y110.111Z0F1600
G1 X97.715Y110.347Z0F1600
G1 X97.63Y110.448Z0F1600
G1 X97.561Y110.533Z0F1600
G1 X97.51Y110.599Z0F1600
G1 X97.481Y110.643Z0F1600
G1 X97.476Y110.732Z0F1600
G1 X97.517Y110.906Z0F1600
G1 X97.555Y111.026Z0F1600
G1 X97.604Y111.167Z0F1600
G1 X97.665Y111.331Z0F1600
G1 X97.739Y111.518Z0F1600
G1 X97.824Y111.727Z0F1600
G1 X97.921Y111.96Z0F1600
G1 X98.154Y112.498Z0F1600
G1 X98.436Y113.132Z0F1600
G1 X98.771Y113.866Z0F1600
G1 X98.879Y114.108Z0F1600
G1 X99.022Y114.436Z0F1600
G1 X99.182Y114.807Z0F1600
G1 X99.565Y115.71Z0F1600
G1 X99.772Y116.18Z0F1600
G1 X99.958Y116.587Z0F1600
G1 X100.121Y116.926Z0F1600
G1 X100.259Y117.195Z0F1600
G1 X100.373Y117.392Z0F1600
G1 X100.459Y117.512Z0F1600
G1 X100.516Y117.552Z0F1600
G1 X100.554Y117.538Z0F1600
G1 X100.619Y117.495Z0F1600
G1 X100.709Y117.428Z0F1600
G1 X100.819Y117.339Z0F1600
G1 X101.086Y117.107Z0F1600
G1 X101.392Y116.825Z0F1600
G1 X102.709Y115.576Z0F1600
G1 X104.009Y116.182Z0F1600
G1 X105.042Y116.661Z0F1600
G1 X105.447Y116.846Z0F1600
G1 X105.933Y117.065Z0F1600
G1 X107.412Y117.735Z0F1600
G1 X107.717Y117.867Z0F1600
G1 X107.996Y117.981Z0F1600
G1 X108.249Y118.078Z0F1600
G1 X108.478Y118.157Z0F1600
G1 X108.686Y118.219Z0F1600
G1 X108.872Y118.265Z0F1600
G1 X109.039Y118.293Z0F1600
G1 X109.32Y118.301Z0F1600
G1 X109.54Y118.243Z0F1600
G1 X109.709Y118.122Z0F1600
G1 X109.839Y117.939Z0F1600
G1 X109.892Y117.854Z0F1600
G1 X109.996Y117.699Z0F1600
G1 X110.337Y117.205Z0F1600
G1 X110.826Y116.512Z0F1600
G1 X111.424Y115.671Z0F1600
G1 X112.795Y113.761Z0F1600
G1 X114.149Y111.9Z0F1600
G1 X114.462Y111.456Z0F1600
G1 X114.717Y111.054Z0F1600
G1 X114.816Y110.884Z0F1600
G1 X114.89Y110.741Z0F1600
G1 X114.937Y110.63Z0F1600
G1 X114.953Y110.559Z0F1600
G1 X114.937Y110.491Z0F1600
G1 X114.889Y110.394Z0F1600
G1 X114.813Y110.272Z0F1600
G1 X114.713Y110.13Z0F1600
G1 X114.452Y109.801Z0F1600
G1 X114.133Y109.444Z0F1600
G1 X112.749Y107.98Z0F1600
G1 X111.732Y106.899Z0F1600
G1 X111.344Y106.482Z0F1600
G1 X111.027Y106.136Z0F1600
G1 X110.776Y105.853Z0F1600
G1 X110.583Y105.625Z0F1600
G1 X110.441Y105.443Z0F1600
G1 X110.344Y105.3Z0F1600
G1 X110.285Y105.187Z0F1600
G1 X110.258Y105.096Z0F1600
G1 X110.27Y104.946Z0F1600
G1 X110.365Y104.679Z0F1600
G1 X110.419Y104.534Z0F1600
G1 X110.566Y104.16Z0F1600
G1 X110.748Y103.715Z0F1600
G1 X110.945Y103.249Z0F1600
G1 X111.403Y102.153Z0F1600
G1 X111.832Y101.083Z0F1600
G1 X112.003Y100.663Z0F1600
G1 X112.166Y100.292Z0F1600
G1 X112.238Y100.139Z0F1600
G1 X112.302Y100.013Z0F1600
G1 X112.354Y99.92Z0F1600
G1 X112.393Y99.864Z0F1600
G1 X112.475Y99.82Z0F1600
G1 X112.641Y99.781Z0F1600
G1 X112.758Y99.763Z0F1600
G1 X112.9Y99.746Z0F1600
G1 X113.068Y99.73Z0F1600
G1 X113.263Y99.715Z0F1600
G1 X113.487Y99.7Z0F1600
G1 X113.739Y99.686Z0F1600
G1 X114.337Y99.661Z0F1600
G1 X115.066Y99.636Z0F1600
G1 X116.932Y99.588Z0F1600
G1 X117.72Y99.563Z0F1600
G1 X118.044Y99.55Z0F1600
G1 X118.327Y99.537Z0F1600
G1 X118.57Y99.522Z0F1600
G1 X118.778Y99.507Z0F1600
G1 X118.954Y99.49Z0F1600
G1 X119.1Y99.471Z0F1600
G1 X119.221Y99.451Z0F1600
G1 X119.319Y99.428Z0F1600
G1 X119.461Y99.374Z0F1600
G1 X119.551Y99.307Z0F1600
G1 X119.603Y99.236Z0F1600
G1 X119.659Y99.127Z0F1600
G1 X119.716Y98.983Z0F1600
G1 X119.774Y98.806Z0F1600
G1 X119.889Y98.373Z0F1600
G1 X119.995Y97.852Z0F1600
G1 X120.174Y96.864Z0F1600
G1 X120.39Y95.703Z0F1600
G1 X120.674Y94.208Z0F1600
G1 X121.054Y92.22Z0F1600
G1 X121.121Y91.858Z0F1600
G1 X121.181Y91.513Z0F1600
G1 X121.231Y91.191Z0F1600
G1 X121.271Y90.901Z0F1600
G1 X121.301Y90.652Z0F1600
G1 X121.319Y90.452Z0F1600
G1 X121.323Y90.308Z0F1600
G1 X121.314Y90.229Z0F1600
G1 X121.281Y90.147Z0F1600
G1 X121.237Y90.08Z0F1600
G1 X121.156Y90.015Z0F1600
G1 X121.011Y89.94Z0F1600
G1 X120.907Y89.896Z0F1600
G1 X120.777Y89.844Z0F1600
G1 X120.619Y89.785Z0F1600
G1 X120.203Y89.636Z0F1600
G1 X118.398Y89.003Z0F1600
G1 X117.548Y88.698Z0F1600
G1 X116.758Y88.409Z0F1600
G1 X116.05Y88.145Z0F1600
G1 X115.734Y88.025Z0F1600
G1 X115.195Y87.814Z0F1600
G1 X114.978Y87.726Z0F1600
G1 X114.799Y87.651Z0F1600
G1 X114.661Y87.591Z0F1600
G1 X114.568Y87.545Z0F1600
G1 X114.522Y87.515Z0F1600
G1 X114.498Y87.445Z0F1600
G1 X114.472Y87.285Z0F1600
G1 X114.443Y87.044Z0F1600
G1 X114.412Y86.733Z0F1600
G1 X114.381Y86.363Z0F1600
G1 X114.35Y85.943Z0F1600
G1 X114.321Y85.484Z0F1600
G1 X114.215Y83.567Z0F1600
G1 X114.167Y82.786Z0F1600
G1 X114.13Y82.253Z0F1600
G1 X114.103Y81.957Z0F1600
G1 Y81.836Z0F1600
G1 X114.122Y81.738Z0F1600
G1 X114.167Y81.654Z0F1600
G1 X114.245Y81.576Z0F1600
G1 X114.362Y81.496Z0F1600
G1 X114.525Y81.404Z0F1600
G1 X114.739Y81.293Z0F1600
G1 X116.425Y80.405Z0F1600
G1 X118.141Y79.456Z0F1600
G1 X118.529Y79.235Z0F1600
G1 X118.888Y79.028Z0F1600
G1 X119.213Y78.837Z0F1600
G1 X119.497Y78.667Z0F1600
G1 X119.734Y78.52Z0F1600
G1 X119.918Y78.401Z0F1600
G1 X120.043Y78.313Z0F1600
G1 X120.102Y78.259Z0F1600
G1 X120.157Y78.146Z0F1600
G1 X120.188Y78Z0F1600
G1 X120.193Y77.817Z0F1600
G1 X120.171Y77.592Z0F1600
G1 X120.123Y77.323Z0F1600
G1 X120.048Y77.003Z0F1600
G1 X119.945Y76.63Z0F1600
G1 X119.813Y76.199Z0F1600
G1 X119.288Y74.522Z0F1600
G1 X118.572Y72.216Z0F1600
G1 X118.379Y71.602Z0F1600
G1 X118.199Y71.05Z0F1600
G1 X118.034Y70.564Z0F1600
G1 X117.885Y70.15Z0F1600
G1 X117.755Y69.812Z0F1600
G1 X117.644Y69.553Z0F1600
G1 X117.555Y69.379Z0F1600
G1 X117.488Y69.293Z0F1600
G1 X117.4Y69.233Z0F1600
G1 X117.291Y69.194Z0F1600
G1 X117.213Y69.182Z0F1600
G1 X117.111Y69.176Z0F1600
G1 X116.979Z0F1600
G1 X116.81Y69.185Z0F1600
G1 X116.599Y69.2Z0F1600
G1 X116.34Y69.222Z0F1600
G1 X116.025Y69.253Z0F1600
G1 X115.649Y69.291Z0F1600
G1 X114.69Y69.395Z0F1600
G1 X113.412Y69.536Z0F1600
G1 X112.308Y69.66Z0F1600
G1 X111.869Y69.707Z0F1600
G1 X111.497Y69.743Z0F1600
G1 X111.184Y69.766Z0F1600
G1 X110.923Y69.774Z0F1600
G1 X110.708Y69.766Z0F1600
G1 X110.533Y69.739Z0F1600
G1 X110.389Y69.694Z0F1600
G1 X110.27Y69.627Z0F1600
G1 X110.169Y69.539Z0F1600
G1 X110.08Y69.426Z0F1600
G1 X109.996Y69.287Z0F1600
G1 X109.909Y69.122Z0F1600
G1 X109.701Y68.703Z0F1600
G1 X109.575Y68.46Z0F1600
G1 X109.426Y68.184Z0F1600
G1 X109.261Y67.883Z0F1600
G1 X109.085Y67.569Z0F1600
G1 X108.721Y66.935Z0F1600
G1 X108.077Y65.86Z0F1600
G1 X107.832Y65.43Z0F1600
G1 X107.737Y65.255Z0F1600
G1 X107.666Y65.115Z0F1600
G1 X107.621Y65.015Z0F1600
G1 X107.605Y64.961Z0F1600
G1 X107.615Y64.932Z0F1600
G1 X107.644Y64.875Z0F1600
G1 X107.691Y64.791Z0F1600
G1 X107.835Y64.549Z0F1600
G1 X108.041Y64.218Z0F1600
G1 X108.446Y63.582Z0F1600
G1 X108.769Y63.084Z0F1600
G1 X109.125Y62.54Z0F1600
G1 X109.902Y61.364Z0F1600
G1 X110.264Y60.802Z0F1600
G1 X110.588Y60.288Z0F1600
G1 X110.867Y59.832Z0F1600
G1 X111.095Y59.444Z0F1600
G1 X111.266Y59.135Z0F1600
G1 X111.328Y59.014Z0F1600
G1 X111.373Y58.916Z0F1600
G1 X111.401Y58.843Z0F1600
G1 X111.41Y58.797Z0F1600
G1 X111.386Y58.696Z0F1600
G1 X111.31Y58.554Z0F1600
G1 X111.182Y58.369Z0F1600
G1 X110.999Y58.136Z0F1600
G1 X110.759Y57.855Z0F1600
G1 X110.459Y57.522Z0F1600
G1 X110.099Y57.135Z0F1600
G1 X109.675Y56.691Z0F1600
G1 X109.066Y56.059Z0F1600
G1 X107.998Y54.958Z0F1600
G1 X107.119Y54.06Z0F1600
G1 X106.745Y53.683Z0F1600
G1 X106.414Y53.35Z0F1600
G1 X106.121Y53.061Z0F1600
G1 X105.866Y52.813Z0F1600
G1 X105.647Y52.605Z0F1600
G1 X105.461Y52.433Z0F1600
G1 X105.307Y52.298Z0F1600
G1 X105.182Y52.195Z0F1600
G1 X105.085Y52.125Z0F1600
G1 X105.014Y52.084Z0F1600
G1 X104.967Y52.071Z0F1600
G1 X104.931Y52.081Z0F1600
G1 X104.867Y52.111Z0F1600
G1 X104.775Y52.16Z0F1600
G1 X104.657Y52.227Z0F1600
G1 X104.349Y52.41Z0F1600
G1 X103.957Y52.652Z0F1600
G1 X103.493Y52.946Z0F1600
G1 X102.971Y53.282Z0F1600
G1 X102.403Y53.654Z0F1600
G1 X101.803Y54.051Z0F1600
G1 X98.834Y56.032Z0F1600
G1 X97.089Y54.711Z0F1600

; Color picking sequence
G1 Z10 F1000;         ; Raise brush to safe height
G0 X131 Y5 F1200;    ; Rapid move to color 1 position
G1 Z0 F1000;         ; Lower into color - controlled movement
G1 X130.102Y7.295Z0S800F1200
G1 X130.026Y7.642Z0F1200
G1 X130Y8Z0F1200
G1 X130.026Y8.358Z0F1200
G1 X130.102Y8.705Z0F1200
G1 X130.225Y9.041Z0F1200
G1 X130.393Y9.362Z0F1200
G1 X130.603Y9.668Z0F1200
G1 X130.854Y9.957Z0F1200
G1 X131.142Y10.226Z0F1200
G1 X131.464Y10.475Z0F1200
G1 X131.82Y10.701Z0F1200
G1 X132.204Y10.902Z0F1200
G1 X132.617Y11.078Z0F1200
G1 X133.054Y11.225Z0F1200
G1 X133.513Y11.343Z0F1200
G1 X133.992Y11.429Z0F1200
G1 X134.489Y11.482Z0F1200
G1 X135Y11.5Z0F1200
G1 X135.511Y11.482Z0F1200
G1 X136.008Y11.429Z0F1200
G1 X136.487Y11.343Z0F1200
G1 X136.946Y11.225Z0F1200
G1 X137.383Y11.078Z0F1200
G1 X137.796Y10.902Z0F1200
G1 X138.18Y10.701Z0F1200
G1 X138.536Y10.475Z0F1200
G1 X138.858Y10.226Z0F1200
G1 X139.146Y9.957Z0F1200
G1 X139.397Y9.668Z0F1200
G1 X139.607Y9.362Z0F1200
G1 X139.775Y9.041Z0F1200
G1 X139.898Y8.705Z0F1200
G1 X139.974Y8.358Z0F1200
G1 X140Y8Z0F1200
G1 X139.974Y7.642Z0F1200
G1 X139.898Y7.295Z0F1200
G1 X139.775Y6.959Z0F1200
G1 X139.607Y6.638Z0F1200
G1 X139.397Y6.332Z0F1200
G1 X139.146Y6.043Z0F1200
G1 X138.858Y5.774Z0F1200
G1 X138.536Y5.525Z0F1200
G1 X138.18Y5.299Z0F1200
G1 X137.796Y5.098Z0F1200
G1 X137.383Y4.922Z0F1200
G1 X136.946Y4.775Z0F1200
G1 X136.487Y4.657Z0F1200
G1 X136.008Y4.571Z0F1200
G1 X135.511Y4.518Z0F1200
G1 X135Y4.5Z0F1200
G1 X134.489Y4.518Z0F1200
G1 X133.992Y4.571Z0F1200
G1 X133.513Y4.657Z0F1200
G1 X133.054Y4.775Z0F1200
G1 X132.617Y4.922Z0F1200
G1 X132.204Y5.098Z0F1200
G1 X131.82Y5.299Z0F1200
G1 X131.464Y5.525Z0F1200
G1 X131.142Y5.774Z0F1200
G1 X130.854Y6.043Z0F1200
G1 X130.603Y6.332Z0F1200
G1 X130.393Y6.638Z0F1200
G1 X130.225Y6.959Z0F1200
G1 Z7 F800;         ; Raise from color - controlled movement
G1 X124 Y8 Z1 F1200;     ; Movement in paint - controlled movement
G1 X114 Y18 Z8 F500;     ; Move in paint - controlled movement
G1 F1200;           ; Set feed rate to 1000
G0 Z4.8F1000
G0 X53.922Y60.559Z4.8
G1 Z0F1000
G1 X53.888Y60.48Z0F1600
G1 X53.835Y60.367Z0F1600
G1 X53.764Y60.225Z0F1600
G1 X53.581Y59.872Z0F1600
G1 X53.223Y59.214Z0F1600
G1 X52.874Y58.566Z0F1600
G1 X52.245Y57.383Z0F1600
G1 X51.291Y55.56Z0F1600
G1 X51.022Y55.052Z0F1600
G1 X50.862Y54.757Z0F1600
G1 X50.834Y54.709Z0F1600
G1 X50.811Z0F1600
G1 X50.762Y54.735Z0F1600
G1 X50.691Y54.781Z0F1600
G1 X50.6Y54.845Z0F1600
G1 X50.37Y55.02Z0F1600
G1 X50.098Y55.243Z0F1600
G1 X49.816Y55.479Z0F1600
G1 X49.561Y55.686Z0F1600
G1 X49.359Y55.843Z0F1600
G1 X49.288Y55.895Z0F1600
G1 X49.24Y55.927Z0F1600
G1 X49.175Y55.919Z0F1600
G1 X49.044Y55.865Z0F1600
G1 X48.853Y55.768Z0F1600
G1 X48.609Y55.633Z0F1600
G1 X48.32Y55.465Z0F1600
G1 X47.992Y55.268Z0F1600
G1 X47.633Y55.047Z0F1600
G1 X47.25Y54.806Z0F1600
G1 X46.441Y54.283Z0F1600
G1 X45.619Y53.735Z0F1600
G1 X45.222Y53.463Z0F1600
G1 X44.844Y53.199Z0F1600
G1 X44.491Y52.946Z0F1600
G1 X44.17Y52.709Z0F1600
G1 X43.849Y52.476Z0F1600
G1 X43.579Y52.309Z0F1600
G1 X43.347Y52.206Z0F1600
G1 X43.139Y52.167Z0F1600
G1 X42.942Y52.192Z0F1600
G1 X42.743Y52.28Z0F1600
G1 X42.528Y52.43Z0F1600
G1 X42.283Y52.643Z0F1600
G1 X42.209Y52.712Z0F1600
G1 X41.99Y52.927Z0F1600
G1 X41.505Y53.413Z0F1600
G1 X41.098Y53.826Z0F1600
G1 X40.638Y54.296Z0F1600
G1 X39.615Y55.35Z0F1600
G1 X38.681Y56.322Z0F1600
G1 X38.011Y57.027Z0F1600
G1 X37.732Y57.323Z0F1600
G1 X37.489Y57.585Z0F1600
G1 X37.279Y57.816Z0F1600
G1 X37.101Y58.017Z0F1600
G1 X36.951Y58.192Z0F1600
G1 X36.828Y58.342Z0F1600
G1 X36.731Y58.47Z0F1600
G1 X36.656Y58.58Z0F1600
G1 X36.602Y58.672Z0F1600
G1 X36.549Y58.815Z0F1600
G1 X36.554Y58.92Z0F1600
G1 X36.591Y59.006Z0F1600
G1 X36.661Y59.14Z0F1600
G1 X36.76Y59.316Z0F1600
G1 X36.884Y59.527Z0F1600
G1 X37.19Y60.024Z0F1600
G1 X37.547Y60.579Z0F1600
G1 X37.897Y61.114Z0F1600
G1 X38.184Y61.558Z0F1600
G1 X38.378Y61.865Z0F1600
G1 X38.43Y61.953Z0F1600
G1 X38.469Y62.027Z0F1600
G1 X38.526Y62.119Z0F1600
G1 X38.617Y62.259Z0F1600
G1 X38.882Y62.66Z0F1600
G1 X39.232Y63.182Z0F1600
G1 X40.41Y64.918Z0F1600
G1 X39.856Y65.764Z0F1600
G1 X39.727Y65.966Z0F1600
G1 X39.573Y66.218Z0F1600
G1 X39.4Y66.508Z0F1600
G1 X39.214Y66.828Z0F1600
G1 X38.824Y67.514Z0F1600
G1 X38.222Y68.612Z0F1600
G1 X38.028Y68.954Z0F1600
G1 X37.863Y69.23Z0F1600
G1 X37.722Y69.443Z0F1600
G1 X37.603Y69.6Z0F1600
G1 X37.5Y69.705Z0F1600
G1 X37.412Y69.765Z0F1600
G1 X37.333Y69.784Z0F1600
G1 X37.29Z0F1600
G1 X37.111Y69.77Z0F1600
G1 X36.639Y69.729Z0F1600
G1 X35.705Y69.641Z0F1600
G1 X33.183Y69.389Z0F1600
G1 X32.551Y69.331Z0F1600
G1 X31.988Y69.285Z0F1600
G1 X31.502Y69.25Z0F1600
G1 X31.101Y69.229Z0F1600
G1 X30.792Y69.22Z0F1600
G1 X30.674Z0F1600
G1 X30.582Y69.225Z0F1600
G1 X30.517Y69.232Z0F1600
G1 X30.48Y69.244Z0F1600
G1 X30.44Y69.276Z0F1600
G1 X30.396Y69.333Z0F1600
G1 X30.346Y69.416Z0F1600
G1 X30.29Y69.525Z0F1600
G1 X30.228Y69.663Z0F1600
G1 X30.16Y69.83Z0F1600
G1 X30.084Y70.027Z0F1600
G1 X30.001Y70.257Z0F1600
G1 X29.91Y70.519Z0F1600
G1 X29.81Y70.817Z0F1600
G1 X29.702Y71.15Z0F1600
G1 X29.584Y71.52Z0F1600
G1 X29.456Y71.928Z0F1600
G1 X29.17Y72.864Z0F1600
G1 X28.823Y74.012Z0F1600
G1 X28.546Y74.91Z0F1600
G1 X28.396Y75.386Z0F1600
G1 X28.183Y76.045Z0F1600
G1 X28.048Y76.494Z0F1600
G1 X27.933Y76.901Z0F1600
G1 X27.842Y77.261Z0F1600
G1 X27.774Y77.567Z0F1600
G1 X27.732Y77.813Z0F1600
G1 X27.717Y77.995Z0F1600
G1 X27.73Y78.105Z0F1600
G1 X27.773Y78.175Z0F1600
G1 X27.855Y78.262Z0F1600
G1 X27.974Y78.365Z0F1600
G1 X28.129Y78.484Z0F1600
G1 X28.322Y78.618Z0F1600
G1 X28.55Y78.767Z0F1600
G1 X28.813Y78.931Z0F1600
G1 X29.111Y79.109Z0F1600
G1 X29.442Y79.301Z0F1600
G1 X29.807Y79.507Z0F1600
G1 X30.205Y79.726Z0F1600
G1 X30.634Y79.958Z0F1600
G1 X31.096Y80.203Z0F1600
G1 X31.587Y80.459Z0F1600
G1 X32.11Y80.728Z0F1600
G1 X32.661Y81.008Z0F1600
G1 X33.895Y81.629Z0F1600
G1 X33.764Y83.841Z0F1600
G1 X33.704Y84.818Z0F1600
G1 X33.652Y85.627Z0F1600
G1 X33.607Y86.277Z0F1600
G1 X33.567Y86.781Z0F1600
G1 X33.532Y87.148Z0F1600
G1 X33.517Y87.284Z0F1600
G1 X33.502Y87.391Z0F1600
G1 X33.488Y87.468Z0F1600
G1 X33.475Y87.518Z0F1600
G1 X33.462Y87.542Z0F1600
G1 X33.405Y87.574Z0F1600
G1 X33.278Y87.63Z0F1600
G1 X33.089Y87.707Z0F1600
G1 X32.844Y87.804Z0F1600
G1 X32.221Y88.042Z0F1600
G1 X31.469Y88.323Z0F1600
G1 X30.649Y88.623Z0F1600
G1 X29.821Y88.92Z0F1600
G1 X29.423Y89.061Z0F1600
G1 X28.696Y89.312Z0F1600
G1 X28.383Y89.417Z0F1600
G1 X27.819Y89.616Z0F1600
G1 X27.331Y89.812Z0F1600
G1 X27.132Y89.902Z0F1600
G1 X26.972Y89.983Z0F1600
G1 X26.856Y90.051Z0F1600
G1 X26.793Y90.104Z0F1600
G1 X26.73Y90.211Z0F1600
G1 X26.691Y90.358Z0F1600
G1 X26.677Y90.563Z0F1600
G1 X26.689Y90.843Z0F1600
G1 X26.706Y91.017Z0F1600
G1 X26.729Y91.216Z0F1600
G1 X26.76Y91.444Z0F1600
G1 X26.799Y91.702Z0F1600
G1 X26.845Y91.992Z0F1600
G1 X26.899Y92.317Z0F1600
G1 X27.032Y93.079Z0F1600
G1 X27.693Y96.819Z0F1600
G1 X27.793Y97.37Z0F1600
G1 X27.886Y97.851Z0F1600
G1 X27.973Y98.263Z0F1600
G1 X28.054Y98.606Z0F1600
G1 X28.128Y98.884Z0F1600
G1 X28.197Y99.096Z0F1600
G1 X28.261Y99.244Z0F1600
G1 X28.32Y99.329Z0F1600
G1 X28.408Y99.391Z0F1600
G1 X28.545Y99.442Z0F1600
G1 X28.752Y99.484Z0F1600
G1 X29.046Y99.519Z0F1600
G1 X29.233Y99.534Z0F1600
G1 X29.448Y99.548Z0F1600
G1 X29.696Y99.562Z0F1600
G1 X30.295Y99.587Z0F1600
G1 X31.051Y99.611Z0F1600
G1 X32.098Y99.639Z0F1600
G1 X33.235Y99.668Z0F1600
G1 X34.699Y99.7Z0F1600
G1 X35.176Y99.706Z0F1600
G1 X35.315Y99.717Z0F1600
G1 X35.423Y99.746Z0F1600
G1 X35.509Y99.8Z0F1600
G1 X35.583Y99.891Z0F1600
G1 X35.653Y100.025Z0F1600
G1 X35.731Y100.212Z0F1600
G1 X35.948Y100.784Z0F1600
G1 X36.075Y101.109Z0F1600
G1 X36.191Y101.396Z0F1600
G1 X36.495Y102.104Z0F1600
G1 X36.857Y102.954Z0F1600
G1 X37.812Y105.217Z0F1600
G1 X36.195Y106.952Z0F1600
G1 X34.849Y108.389Z0F1600
G1 X34.28Y108.992Z0F1600
G1 X33.883Y109.41Z0F1600
G1 X33.608Y109.715Z0F1600
G1 X33.371Y110.009Z0F1600
G1 X33.275Y110.141Z0F1600
G1 X33.198Y110.258Z0F1600
G1 X33.144Y110.355Z0F1600
G1 X33.115Y110.429Z0F1600
G1 X33.09Y110.555Z0F1600
G1 X33.103Y110.694Z0F1600
G1 X33.132Y110.784Z0F1600
G1 X33.182Y110.894Z0F1600
G1 X33.257Y111.032Z0F1600
G1 X33.359Y111.202Z0F1600
G1 X33.493Y111.412Z0F1600
G1 X33.662Y111.667Z0F1600
G1 X33.87Y111.973Z0F1600
G1 X34.122Y112.335Z0F1600
G1 X34.767Y113.255Z0F1600
G1 X36.466Y115.665Z0F1600
G1 X37.197Y116.706Z0F1600
G1 X37.743Y117.486Z0F1600
G1 X38.024Y117.894Z0F1600
G1 X38.18Y118.102Z0F1600
G1 X38.342Y118.248Z0F1600
G1 X38.528Y118.33Z0F1600
G1 X38.757Y118.347Z0F1600
G1 X38.894Y118.331Z0F1600
G1 X39.049Y118.298Z0F1600
G1 X39.224Y118.249Z0F1600
G1 X39.421Y118.182Z0F1600
G1 X39.643Y118.098Z0F1600
G1 X39.893Y117.997Z0F1600
G1 X40.172Y117.879Z0F1600
G1 X40.483Y117.743Z0F1600
G1 X41.183Y117.432Z0F1600
G1 X42.372Y116.895Z0F1600
G1 X43.292Y116.474Z0F1600
G1 X45.277Y115.561Z0F1600
G1 X45.767Y115.985Z0F1600
G1 X46.285Y116.453Z0F1600
G1 X47.079Y117.203Z0F1600
G1 X47.288Y117.384Z0F1600
G1 X47.375Y117.454Z0F1600
G1 X47.448Y117.507Z0F1600
G1 X47.502Y117.541Z0F1600
G1 X47.535Y117.552Z0F1600
G1 X47.587Y117.524Z0F1600
G1 X47.65Y117.446Z0F1600
G1 X47.716Y117.332Z0F1600
G1 X47.777Y117.191Z0F1600
G1 X47.854Y117Z0F1600
G1 X47.963Y116.744Z0F1600
G1 X48.09Y116.458Z0F1600
G1 X48.533Y115.5Z0F1600
G1 X48.941Y114.611Z0F1600
G1 X49.334Y113.75Z0F1600
G1 X49.602Y113.156Z0F1600
G1 X50.069Y112.106Z0F1600
G1 X50.284Y111.63Z0F1600
G1 X50.367Y111.439Z0F1600
G1 X50.434Y111.273Z0F1600
G1 X50.51Y110.997Z0F1600
G1 X50.505Y110.763Z0F1600
G1 X50.47Y110.648Z0F1600
G1 X50.41Y110.53Z0F1600
G1 X50.326Y110.402Z0F1600
G1 X50.217Y110.26Z0F1600
G1 X50.08Y110.099Z0F1600
G1 X49.916Y109.913Z0F1600
G1 X49.5Y109.451Z0F1600
G1 X48.584Y108.391Z0F1600
G1 X47.722Y107.326Z0F1600
G1 X46.915Y106.253Z0F1600
G1 X46.161Y105.172Z0F1600
G1 X45.459Y104.08Z0F1600
G1 X44.809Y102.974Z0F1600
G1 X44.209Y101.853Z0F1600
G1 X43.659Y100.715Z0F1600
G1 X43.158Y99.557Z0F1600
G1 X42.704Y98.378Z0F1600
G1 X42.297Y97.176Z0F1600
G1 X41.936Y95.949Z0F1600
G1 X41.62Y94.694Z0F1600
G1 X41.348Y93.41Z0F1600
G1 X41.12Y92.095Z0F1600
G1 X40.933Y90.746Z0F1600
G1 X40.893Y90.345Z0F1600
G1 X40.861Y89.884Z0F1600
G1 X40.838Y89.372Z0F1600
G1 X40.824Y88.818Z0F1600
G1 X40.818Y87.613Z0F1600
G1 X40.842Y86.337Z0F1600
G1 X40.894Y85.057Z0F1600
G1 X40.973Y83.84Z0F1600
G1 X41.021Y83.275Z0F1600
G1 X41.075Y82.751Z0F1600
G1 X41.134Y82.276Z0F1600
G1 X41.199Y81.859Z0F1600
G1 X41.392Y80.833Z0F1600
G1 X41.609Y79.829Z0F1600
G1 X41.85Y78.845Z0F1600
G1 X42.117Y77.88Z0F1600
G1 X42.409Y76.932Z0F1600
G1 X42.727Y76Z0F1600
G1 X43.072Y75.084Z0F1600
G1 X43.445Y74.182Z0F1600
G1 X43.845Y73.292Z0F1600
G1 X44.274Y72.414Z0F1600
G1 X44.731Y71.547Z0F1600
G1 X45.218Y70.688Z0F1600
G1 X45.734Y69.838Z0F1600
G1 X46.281Y68.994Z0F1600
G1 X46.859Y68.156Z0F1600
G1 X47.468Y67.322Z0F1600
G1 X47.704Y67.019Z0F1600
G1 X47.988Y66.673Z0F1600
G1 X48.314Y66.29Z0F1600
G1 X48.675Y65.878Z0F1600
G1 X49.476Y64.995Z0F1600
G1 X50.336Y64.077Z0F1600
G1 X51.204Y63.183Z0F1600
G1 X52.024Y62.367Z0F1600
G1 X52.4Y62.007Z0F1600
G1 X52.744Y61.687Z0F1600
G1 X53.05Y61.414Z0F1600
G1 X53.552Y60.996Z0F1600
G1 X53.75Y60.817Z0F1600
G1 X53.826Y60.741Z0F1600
G1 X53.884Y60.678Z0F1600
G1 X53.921Y60.631Z0F1600
G1 X53.933Y60.6Z0F1600
G1 X53.922Y60.559Z0F1600

; Color picking sequence
G1 Z10 F1000;         ; Raise brush to safe height
G0 X131 Y5 F1200;    ; Rapid move to color 1 position
G1 Z0 F1000;         ; Lower into color - controlled movement
G1 X130.102Y7.295Z0S800F1200
G1 X130.026Y7.642Z0F1200
G1 X130Y8Z0F1200
G1 X130.026Y8.358Z0F1200
G1 X130.102Y8.705Z0F1200
G1 X130.225Y9.041Z0F1200
G1 X130.393Y9.362Z0F1200
G1 X130.603Y9.668Z0F1200
G1 X130.854Y9.957Z0F1200
G1 X131.142Y10.226Z0F1200
G1 X131.464Y10.475Z0F1200
G1 X131.82Y10.701Z0F1200
G1 X132.204Y10.902Z0F1200
G1 X132.617Y11.078Z0F1200
G1 X133.054Y11.225Z0F1200
G1 X133.513Y11.343Z0F1200
G1 X133.992Y11.429Z0F1200
G1 X134.489Y11.482Z0F1200
G1 X135Y11.5Z0F1200
G1 X135.511Y11.482Z0F1200
G1 X136.008Y11.429Z0F1200
G1 X136.487Y11.343Z0F1200
G1 X136.946Y11.225Z0F1200
G1 X137.383Y11.078Z0F1200
G1 X137.796Y10.902Z0F1200
G1 X138.18Y10.701Z0F1200
G1 X138.536Y10.475Z0F1200
G1 X138.858Y10.226Z0F1200
G1 X139.146Y9.957Z0F1200
G1 X139.397Y9.668Z0F1200
G1 X139.607Y9.362Z0F1200
G1 X139.775Y9.041Z0F1200
G1 X139.898Y8.705Z0F1200
G1 X139.974Y8.358Z0F1200
G1 X140Y8Z0F1200
G1 X139.974Y7.642Z0F1200
G1 X139.898Y7.295Z0F1200
G1 X139.775Y6.959Z0F1200
G1 X139.607Y6.638Z0F1200
G1 X139.397Y6.332Z0F1200
G1 X139.146Y6.043Z0F1200
G1 X138.858Y5.774Z0F1200
G1 X138.536Y5.525Z0F1200
G1 X138.18Y5.299Z0F1200
G1 X137.796Y5.098Z0F1200
G1 X137.383Y4.922Z0F1200
G1 X136.946Y4.775Z0F1200
G1 X136.487Y4.657Z0F1200
G1 X136.008Y4.571Z0F1200
G1 X135.511Y4.518Z0F1200
G1 X135Y4.5Z0F1200
G1 X134.489Y4.518Z0F1200
G1 X133.992Y4.571Z0F1200
G1 X133.513Y4.657Z0F1200
G1 X133.054Y4.775Z0F1200
G1 X132.617Y4.922Z0F1200
G1 X132.204Y5.098Z0F1200
G1 X131.82Y5.299Z0F1200
G1 X131.464Y5.525Z0F1200
G1 X131.142Y5.774Z0F1200
G1 X130.854Y6.043Z0F1200
G1 X130.603Y6.332Z0F1200
G1 X130.393Y6.638Z0F1200
G1 X130.225Y6.959Z0F1200
G1 Z7 F800;         ; Raise from color - controlled movement
G1 X124 Y8 Z1 F1200;     ; Movement in paint - controlled movement
G1 X114 Y18 Z8 F500;     ; Move in paint - controlled movement
G1 F1200;           ; Set feed rate to 1000
G0 Z4.8F1000
G0 X59.861Y117.028Z4.8
G1 Z0F1000
G1 X59.824Y117.052Z0F1600
G1 X59.757Y117.123Z0F1600
G1 X59.664Y117.236Z0F1600
G1 X59.548Y117.384Z0F1600
G1 X59.265Y117.77Z0F1600
G1 X58.938Y118.241Z0F1600
G1 X58.601Y118.739Z0F1600
G1 X58.152Y119.392Z0F1600
G1 X57.942Y119.693Z0F1600
G1 X57.843Y119.83Z0F1600
G1 X57.444Y120.405Z0F1600
G1 X56.908Y121.186Z0F1600
G1 X55.124Y123.796Z0F1600
G1 X53.93Y125.532Z0F1600
G1 X53.248Y126.518Z0F1600
G1 X52.741Y127.246Z0F1600
G1 X52.523Y127.563Z0F1600
G1 X52.328Y127.852Z0F1600
G1 X52.16Y128.105Z0F1600
G1 X52.024Y128.317Z0F1600
G1 X51.924Y128.48Z0F1600
G1 X51.864Y128.586Z0F1600
G1 X51.85Y128.628Z0F1600
G1 X51.957Y128.701Z0F1600
G1 X52.151Y128.811Z0F1600
G1 X52.419Y128.955Z0F1600
G1 X52.75Y129.125Z0F1600
G1 X53.13Y129.315Z0F1600
G1 X53.546Y129.52Z0F1600
G1 X53.987Y129.734Z0F1600
G1 X54.44Y129.951Z0F1600
G1 X54.892Y130.164Z0F1600
G1 X55.331Y130.368Z0F1600
G1 X55.744Y130.558Z0F1600
G1 X56.119Y130.726Z0F1600
G1 X56.443Y130.867Z0F1600
G1 X56.703Y130.975Z0F1600
G1 X56.888Y131.044Z0F1600
G1 X56.984Y131.069Z0F1600
G1 X57.181Y131.031Z0F1600
G1 X57.388Y130.899Z0F1600
G1 X57.504Y130.789Z0F1600
G1 X57.635Y130.647Z0F1600
G1 X57.783Y130.468Z0F1600
G1 X58.554Y129.477Z0F1600
G1 X59.122Y128.772Z0F1600
G1 X59.389Y128.445Z0F1600
G1 X59.713Y128.039Z0F1600
G1 X60.053Y127.606Z0F1600
G1 X60.655Y126.827Z0F1600
G1 X60.915Y126.499Z0F1600
G1 X61.026Y126.361Z0F1600
G1 X61.192Y126.161Z0F1600
G1 X61.24Y126.108Z0F1600
G1 X61.415Y125.907Z0F1600
G1 X61.6Y125.663Z0F1600
G1 X61.713Y125.525Z0F1600
G1 X61.823Y125.462Z0F1600
G1 X61.962Y125.467Z0F1600
G1 X62.161Y125.534Z0F1600
G1 X62.318Y125.591Z0F1600
G1 X62.517Y125.656Z0F1600
G1 X62.752Y125.726Z0F1600
G1 X63.018Y125.801Z0F1600
G1 X63.616Y125.959Z0F1600
G1 X64.267Y126.119Z0F1600
G1 X64.924Y126.27Z0F1600
G1 X65.541Y126.4Z0F1600
G1 X65.82Y126.454Z0F1600
G1 X66.072Y126.499Z0F1600
G1 X66.291Y126.534Z0F1600
G1 X66.471Y126.556Z0F1600
G1 X66.691Y126.582Z0F1600
G1 X66.879Y126.61Z0F1600
G1 X67.036Y126.642Z0F1600
G1 X67.166Y126.678Z0F1600
G1 X67.352Y126.766Z0F1600
G1 X67.456Y126.881Z0F1600
G1 X67.472Y126.922Z0F1600
G1 X67.495Y126.995Z0F1600
G1 X67.523Y127.098Z0F1600
G1 X67.556Y127.229Z0F1600
G1 X67.637Y127.569Z0F1600
G1 X67.735Y128.001Z0F1600
G1 X67.845Y128.509Z0F1600
G1 X67.966Y129.081Z0F1600
G1 X68.094Y129.702Z0F1600
G1 X68.368Y131.059Z0F1600
G1 X68.502Y131.694Z0F1600
G1 X68.627Y132.257Z0F1600
G1 X68.741Y132.739Z0F1600
G1 X68.841Y133.133Z0F1600
G1 X68.927Y133.431Z0F1600
G1 X68.963Y133.542Z0F1600
G1 X68.995Y133.625Z0F1600
G1 X69.023Y133.682Z0F1600
G1 X69.045Y133.709Z0F1600
G1 X69.088Y133.72Z0F1600
G1 X69.178Y133.731Z0F1600
G1 X69.312Y133.742Z0F1600
G1 X69.489Y133.752Z0F1600
G1 X69.705Y133.762Z0F1600
G1 X69.958Y133.771Z0F1600
G1 X70.566Y133.788Z0F1600
G1 X71.292Y133.802Z0F1600
G1 X72.115Y133.813Z0F1600
G1 X73.017Y133.82Z0F1600
G1 X73.975Z0F1600
G1 X78.729Y133.824Z0F1600
G1 X78.921Y133.529Z0F1600
G1 X78.965Y133.446Z0F1600
G1 X79.013Y133.321Z0F1600
G1 X79.067Y133.162Z0F1600
G1 X79.122Y132.974Z0F1600
G1 X79.234Y132.535Z0F1600
G1 X79.334Y132.053Z0F1600
G1 X79.529Y131.034Z0F1600
G1 X79.794Y129.683Z0F1600
G1 X80.392Y126.679Z0F1600
G1 X81.565Y126.516Z0F1600
G1 X81.835Y126.474Z0F1600
G1 X82.154Y126.417Z0F1600
G1 X82.511Y126.348Z0F1600
G1 X82.892Y126.269Z0F1600
G1 X83.685Y126.092Z0F1600
G1 X84.438Y125.906Z0F1600
G1 X86.138Y125.46Z0F1600
G1 X86.578Y126.022Z0F1600
G1 X87.527Y127.22Z0F1600
G1 X88.342Y128.256Z0F1600
G1 X89.102Y129.24Z0F1600
G1 X89.318Y129.524Z0F1600
G1 X89.689Y130.002Z0F1600
G1 X89.846Y130.2Z0F1600
G1 X89.986Y130.372Z0F1600
G1 X90.112Y130.521Z0F1600
G1 X90.224Y130.647Z0F1600
G1 X90.325Y130.753Z0F1600
G1 X90.498Y130.911Z0F1600
G1 X90.644Y131.008Z0F1600
G1 X90.776Y131.056Z0F1600
G1 X90.907Y131.069Z0F1600
G1 X90.955Y131.062Z0F1600
G1 X91.027Y131.042Z0F1600
G1 X91.122Y131.01Z0F1600
G1 X91.237Y130.967Z0F1600
G1 X91.523Y130.85Z0F1600
G1 X91.872Y130.697Z0F1600
G1 X92.27Y130.516Z0F1600
G1 X92.703Y130.312Z0F1600
G1 X93.159Y130.093Z0F1600
G1 X93.624Y129.866Z0F1600
G1 X94.085Y129.636Z0F1600
G1 X94.528Y129.41Z0F1600
G1 X94.939Y129.196Z0F1600
G1 X95.306Y128.999Z0F1600
G1 X95.614Y128.827Z0F1600
G1 X95.851Y128.685Z0F1600
G1 X95.939Y128.628Z0F1600
G1 X96.003Y128.581Z0F1600
G1 X96.043Y128.546Z0F1600
G1 X96.057Y128.522Z0F1600
G1 X96.004Y128.374Z0F1600
G1 X95.877Y128.192Z0F1600
G1 X95.818Y128.118Z0F1600
G1 X95.717Y127.983Z0F1600
G1 X95.58Y127.794Z0F1600
G1 X95.215Y127.286Z0F1600
G1 X94.766Y126.654Z0F1600
G1 X94.031Y125.608Z0F1600
G1 X93.349Y124.628Z0F1600
G1 X92.995Y124.111Z0F1600
G1 X92.685Y123.65Z0F1600
G1 X92.454Y123.313Z0F1600
G1 X92.202Y122.948Z0F1600
G1 X91.742Y122.29Z0F1600
G1 X91.47Y121.897Z0F1600
G1 X90.763Y120.865Z0F1600
G1 X89.843Y119.512Z0F1600
G1 X88.716Y117.848Z0F1600
G1 X88.49Y117.529Z0F1600
G1 X88.286Y117.268Z0F1600
G1 X88.199Y117.168Z0F1600
G1 X88.125Y117.092Z0F1600
G1 X88.068Y117.044Z0F1600
G1 X88.03Y117.027Z0F1600
G1 X87.985Y117.036Z0F1600
G1 X87.907Y117.06Z0F1600
G1 X87.799Y117.097Z0F1600
G1 X87.666Y117.147Z0F1600
G1 X87.344Y117.276Z0F1600
G1 X86.974Y117.433Z0F1600
G1 X86.511Y117.628Z0F1600
G1 X86.014Y117.822Z0F1600
G1 X85.486Y118.013Z0F1600
G1 X84.933Y118.201Z0F1600
G1 X83.768Y118.562Z0F1600
G1 X82.552Y118.895Z0F1600
G1 X81.322Y119.192Z0F1600
G1 X80.112Y119.444Z0F1600
G1 X79.526Y119.549Z0F1600
G1 X78.957Y119.641Z0F1600
G1 X78.411Y119.716Z0F1600
G1 X77.892Y119.774Z0F1600
G1 X77.488Y119.809Z0F1600
G1 X77.05Y119.839Z0F1600
G1 X76.582Y119.863Z0F1600
G1 X76.089Y119.882Z0F1600
G1 X75.047Y119.905Z0F1600
G1 X73.964Z0F1600
G1 X72.878Y119.889Z0F1600
G1 X71.827Y119.851Z0F1600
G1 X71.328Y119.824Z0F1600
G1 X70.851Y119.793Z0F1600
G1 X70.403Y119.756Z0F1600
G1 X69.988Y119.715Z0F1600
G1 X68.766Y119.557Z0F1600
G1 X67.525Y119.351Z0F1600
G1 X66.283Y119.101Z0F1600
G1 X65.059Y118.813Z0F1600
G1 X63.873Y118.49Z0F1600
G1 X62.742Y118.138Z0F1600
G1 X61.685Y117.761Z0F1600
G1 X60.721Y117.364Z0F1600
G1 X60.418Y117.234Z0F1600
G1 X60.155Y117.127Z0F1600
G1 X60.047Y117.085Z0F1600
G1 X59.96Y117.054Z0F1600
G1 X59.897Y117.034Z0F1600
G1 X59.861Y117.028Z0F1600
M9
M5
G1 Z10 F1000
G90
G1 Z10 F800

; Return to 2,0 wash and park
G1 Z10 F1000;        ; Raise brush to safe height
G0 X5 Y5 F1200;     ; Rapid move to brush cleaning position
G1 Z-1 F800;         ; Lower brush for cleaning - controlled movement
G1 X10 Y12 Z8 F1200;     ; Rapid move to brush cleaning position
G1 Z-1 F800;         ; Lower brush for cleaning - controlled movement
G1 X25 Y14 Z6 F800;     ; Move across cleaning area - controlled movement
G0 X5 Y5 F1200;     ; Rapid move to brush cleaning position
G1 Z-1 F800;         ; Lower brush for cleaning - controlled movement
G1 X15 Y12 Z8 F1200;     ; Rapid move to brush cleaning position
G1 Z-1 F800;         ; Lower brush for cleaning - controlled movement
G1 X25 Y14 Z6 F800;     ; Move across cleaning area - controlled movement
G1 Z10 F800;         ; Maintain brush height - controlled movement
G0 X20 Y130 Z10 F500;; Move to parking position with Z at safe height
M2;                 ; End program
