;LightBurn 1.6.04
;Custom GCode device profile, absolute coords
;Bounds: X15.07 Y13.07 to X58.93 Y56.93
G00 G17 G40 G21 G54
G90
M3
G1 Z10 F500
;Cut @ 444 mm/min, 80% power

M8
G0 Z3.5 F500
G0 X25.044 Y23.568 Z3.5 
G1 Z0 F500
;Layer C3 Pass 1 of 2
G1 X24.776 Y23.315 Z0 S800 F800
G1 X24.51 Y23.095 Z0 F800
G1 X24.407 Y23.009 Z0 F800
G1 X24.339 Y22.934 Z0 F800
G1 X24.289 Y22.855 Z0 F800
G1 X24.235 Y22.751 Z0 F800
G1 X24.138 Y22.531 Z0 F800
G1 X24.054 Y22.301 Z0 F800
G1 X24.017 Y22.132 Z0 F800
G1 X24.042 Y21.992 Z0 F800
G1 X24.137 Y21.812 Z0 F800
G1 X24.218 Y21.715 Z0 F800
G1 X24.293 Y21.658 Z0 F800
G1 X24.369 Y21.598 Z0 F800
G1 X24.436 Y21.521 Z0 F800
G1 X24.494 Y21.48 Z0 F800
G1 X24.594 Y21.439 Z0 F800
G1 X24.916 Y21.374 Z0 F800
G1 X25.213 Y21.33 Z0 F800
G1 X25.471 Y21.252 Z0 F800
G1 X25.691 Y21.14 Z0 F800
G1 X25.811 Y21.031 Z0 F800
G1 X25.915 Y20.838 Z0 F800
G1 X25.946 Y20.725 Z0 F800
G1 Y20.649 Z0 F800
G1 X25.93 Y20.59 Z0 F800
G1 X25.907 Y20.528 Z0 F800
G1 X25.855 Y20.368 Z0 F800
G1 X25.794 Y20.19 Z0 F800
G1 X25.737 Y20.066 Z0 F800
G1 X25.666 Y19.961 Z0 F800
G1 X25.569 Y19.865 Z0 F800
G1 X25.438 Y19.764 Z0 F800
G1 X25.124 Y19.586 Z0 F800
G1 X24.764 Y19.443 Z0 F800
G1 X24.389 Y19.333 Z0 F800
G1 X24.031 Y19.253 Z0 F800
G1 X23.804 Y19.222 Z0 F800
G1 X23.581 Y19.2 Z0 F800
G1 X23.431 Y19.182 Z0 F800
G1 X23.271 Y19.168 Z0 F800
G1 X23.052 Y19.176 Z0 F800
G1 X22.849 Y19.2 Z0 F800
G1 X22.558 Y19.227 Z0 F800
G1 X22.258 Y19.287 Z0 F800
G1 X21.887 Y19.412 Z0 F800
G1 X21.542 Y19.561 Z0 F800
G1 X21.226 Y19.757 Z0 F800
G1 X20.942 Y20.022 Z0 F800
G1 X20.745 Y20.3 Z0 F800
G1 X20.605 Y20.613 Z0 F800
G1 X20.495 Y20.99 Z0 F800
G1 X20.434 Y21.372 Z0 F800
G1 X20.406 Y21.654 Z0 F800
G1 X20.391 Y22.011 Z0 F800
G1 X20.401 Y22.372 Z0 F800
G1 X20.426 Y22.733 Z0 F800
G1 X20.454 Y23.089 Z0 F800
G1 X20.477 Y23.317 Z0 F800
G1 X20.522 Y23.539 Z0 F800
G1 X20.579 Y23.751 Z0 F800
G1 X20.644 Y23.966 Z0 F800
G1 X20.724 Y24.171 Z0 F800
G1 X20.828 Y24.355 Z0 F800
G1 X21.012 Y24.609 Z0 F800
G1 X21.135 Y24.764 Z0 F800
G1 X21.273 Y24.909 Z0 F800
G1 X21.508 Y25.097 Z0 F800
G1 X21.78 Y25.237 Z0 F800
G1 X22.107 Y25.32 Z0 F800
G1 X22.399 Y25.353 Z0 F800
G1 X22.789 Y25.415 Z0 F800
G1 X23.159 Y25.514 Z0 F800
G1 X23.26 Y25.55 Z0 F800
G1 X23.349 Y25.589 Z0 F800
G1 X23.428 Y25.64 Z0 F800
G1 X23.501 Y25.713 Z0 F800
G1 X23.596 Y25.883 Z0 F800
G1 X23.653 Y26.072 Z0 F800
G1 X23.678 Y26.236 Z0 F800
G1 X23.648 Y26.382 Z0 F800
G1 X23.608 Y26.559 Z0 F800
G1 X23.554 Y26.748 Z0 F800
G1 X23.485 Y26.917 Z0 F800
G1 X23.404 Y27.063 Z0 F800
G1 X23.3 Y27.206 Z0 F800
G1 X23.166 Y27.367 Z0 F800
G1 X22.893 Y27.633 Z0 F800
G1 X22.568 Y27.869 Z0 F800
G1 X22.437 Y27.95 Z0 F800
G1 X22.314 Y28.031 Z0 F800
G1 X22.016 Y28.298 Z0 F800
G1 X21.739 Y28.606 Z0 F800
G1 X21.594 Y28.793 Z0 F800
G1 X21.478 Y28.97 Z0 F800
G1 X21.383 Y29.155 Z0 F800
G1 X21.301 Y29.365 Z0 F800
G1 X21.25 Y29.533 Z0 F800
G1 X21.211 Y29.703 Z0 F800
G1 X21.162 Y29.936 Z0 F800
G1 X21.136 Y30.153 Z0 F800
G1 X21.15 Y30.361 Z0 F800
G1 X21.203 Y30.741 Z0 F800
G1 X21.235 Y30.913 Z0 F800
G1 X21.293 Y31.12 Z0 F800
G1 X21.371 Y31.323 Z0 F800
G1 X21.469 Y31.5 Z0 F800
G1 X21.585 Y31.631 Z0 F800
G1 X21.712 Y31.704 Z0 F800
G1 X21.892 Y31.772 Z0 F800
G1 X22.032 Y31.813 Z0 F800
G1 X22.174 Y31.809 Z0 F800
G1 X22.34 Y31.769 Z0 F800
G1 X22.511 Y31.71 Z0 F800
G1 X22.6 Y31.675 Z0 F800
G1 X22.67 Y31.636 Z0 F800
G1 X22.733 Y31.583 Z0 F800
G1 X22.798 Y31.503 Z0 F800
G1 X22.904 Y31.326 Z0 F800
G1 X22.995 Y31.138 Z0 F800
G1 X23.087 Y30.87 Z0 F800
G1 X23.157 Y30.603 Z0 F800
G1 X23.286 Y30.237 Z0 F800
G1 X23.43 Y29.871 Z0 F800
G1 X23.53 Y29.648 Z0 F800
G1 X23.654 Y29.429 Z0 F800
G1 X23.802 Y29.22 Z0 F800
G1 X23.975 Y29.028 Z0 F800
G1 X24.093 Y28.918 Z0 F800
G1 X24.192 Y28.843 Z0 F800
G1 X24.295 Y28.787 Z0 F800
G1 X24.425 Y28.737 Z0 F800
G1 X24.598 Y28.686 Z0 F800
G1 X24.763 Y28.65 Z0 F800
G1 X24.913 Y28.613 Z0 F800
G1 X25.025 Y28.59 Z0 F800
G1 X25.154 Y28.596 Z0 F800
G1 X25.354 Y28.646 Z0 F800
G1 X25.5 Y28.706 Z0 F800
G1 X25.621 Y28.806 Z0 F800
G1 X25.691 Y28.921 Z0 F800
G1 X25.733 Y29.055 Z0 F800
G1 X25.773 Y29.237 Z0 F800
G1 X25.853 Y29.677 Z0 F800
G1 X25.889 Y29.843 Z0 F800
;Layer C3 Pass 2 of 2
G1 X25.853 Y29.677 Z0 F800
G1 X25.773 Y29.237 Z0 F800
G1 X25.733 Y29.055 Z0 F800
G1 X25.691 Y28.921 Z0 F800
G1 X25.621 Y28.806 Z0 F800
G1 X25.5 Y28.706 Z0 F800
G1 X25.354 Y28.646 Z0 F800
G1 X25.154 Y28.596 Z0 F800
G1 X25.025 Y28.59 Z0 F800
G1 X24.913 Y28.613 Z0 F800
G1 X24.763 Y28.65 Z0 F800
G1 X24.598 Y28.686 Z0 F800
G1 X24.425 Y28.737 Z0 F800
G1 X24.295 Y28.787 Z0 F800
G1 X24.192 Y28.843 Z0 F800
G1 X24.093 Y28.918 Z0 F800
G1 X23.975 Y29.028 Z0 F800
G1 X23.802 Y29.22 Z0 F800
G1 X23.654 Y29.429 Z0 F800
G1 X23.53 Y29.648 Z0 F800
G1 X23.43 Y29.871 Z0 F800
G1 X23.286 Y30.237 Z0 F800
G1 X23.157 Y30.603 Z0 F800
G1 X23.087 Y30.87 Z0 F800
G1 X22.995 Y31.138 Z0 F800
G1 X22.904 Y31.326 Z0 F800
G1 X22.798 Y31.503 Z0 F800
G1 X22.733 Y31.583 Z0 F800
G1 X22.67 Y31.636 Z0 F800
G1 X22.6 Y31.675 Z0 F800
G1 X22.511 Y31.71 Z0 F800
G1 X22.34 Y31.769 Z0 F800
G1 X22.174 Y31.809 Z0 F800
G1 X22.032 Y31.813 Z0 F800
G1 X21.892 Y31.772 Z0 F800
G1 X21.712 Y31.704 Z0 F800
G1 X21.585 Y31.631 Z0 F800
G1 X21.469 Y31.5 Z0 F800
G1 X21.371 Y31.323 Z0 F800
G1 X21.293 Y31.12 Z0 F800
G1 X21.235 Y30.913 Z0 F800
G1 X21.203 Y30.741 Z0 F800
G1 X21.15 Y30.361 Z0 F800
G1 X21.136 Y30.153 Z0 F800
G1 X21.162 Y29.936 Z0 F800
G1 X21.211 Y29.703 Z0 F800
G1 X21.25 Y29.533 Z0 F800
G1 X21.301 Y29.365 Z0 F800
G1 X21.383 Y29.155 Z0 F800
G1 X21.478 Y28.97 Z0 F800
G1 X21.594 Y28.793 Z0 F800
G1 X21.739 Y28.606 Z0 F800
G1 X22.016 Y28.298 Z0 F800
G1 X22.314 Y28.031 Z0 F800
G1 X22.437 Y27.95 Z0 F800
G1 X22.568 Y27.869 Z0 F800
G1 X22.893 Y27.633 Z0 F800
G1 X23.166 Y27.367 Z0 F800
G1 X23.3 Y27.206 Z0 F800
G1 X23.404 Y27.063 Z0 F800
G1 X23.485 Y26.917 Z0 F800
G1 X23.554 Y26.748 Z0 F800
G1 X23.608 Y26.559 Z0 F800
G1 X23.648 Y26.382 Z0 F800
G1 X23.678 Y26.236 Z0 F800
G1 X23.653 Y26.072 Z0 F800
G1 X23.596 Y25.883 Z0 F800
G1 X23.501 Y25.713 Z0 F800
G1 X23.428 Y25.64 Z0 F800
G1 X23.349 Y25.589 Z0 F800
G1 X23.26 Y25.55 Z0 F800
G1 X23.159 Y25.514 Z0 F800
G1 X22.789 Y25.415 Z0 F800
G1 X22.399 Y25.353 Z0 F800
G1 X22.107 Y25.32 Z0 F800
G1 X21.78 Y25.237 Z0 F800
G1 X21.508 Y25.097 Z0 F800
G1 X21.273 Y24.909 Z0 F800
G1 X21.135 Y24.764 Z0 F800
G1 X21.012 Y24.609 Z0 F800
G1 X20.828 Y24.355 Z0 F800
G1 X20.724 Y24.171 Z0 F800
G1 X20.644 Y23.966 Z0 F800
G1 X20.579 Y23.751 Z0 F800
G1 X20.522 Y23.539 Z0 F800
G1 X20.477 Y23.317 Z0 F800
G1 X20.454 Y23.089 Z0 F800
G1 X20.426 Y22.733 Z0 F800
G1 X20.401 Y22.372 Z0 F800
G1 X20.391 Y22.011 Z0 F800
G1 X20.406 Y21.654 Z0 F800
G1 X20.434 Y21.372 Z0 F800
G1 X20.495 Y20.99 Z0 F800
G1 X20.605 Y20.613 Z0 F800
G1 X20.745 Y20.3 Z0 F800
G1 X20.942 Y20.022 Z0 F800
G1 X21.226 Y19.757 Z0 F800
G1 X21.542 Y19.561 Z0 F800
G1 X21.887 Y19.412 Z0 F800
G1 X22.258 Y19.287 Z0 F800
G1 X22.558 Y19.227 Z0 F800
G1 X22.849 Y19.2 Z0 F800
G1 X23.052 Y19.176 Z0 F800
G1 X23.271 Y19.168 Z0 F800
G1 X23.431 Y19.182 Z0 F800
G1 X23.581 Y19.2 Z0 F800
G1 X23.804 Y19.222 Z0 F800
G1 X24.031 Y19.253 Z0 F800
G1 X24.389 Y19.333 Z0 F800
G1 X24.764 Y19.443 Z0 F800
G1 X25.124 Y19.586 Z0 F800
G1 X25.438 Y19.764 Z0 F800
G1 X25.569 Y19.865 Z0 F800
G1 X25.666 Y19.961 Z0 F800
G1 X25.737 Y20.066 Z0 F800
G1 X25.794 Y20.19 Z0 F800
G1 X25.855 Y20.368 Z0 F800
G1 X25.907 Y20.528 Z0 F800
G1 X25.93 Y20.59 Z0 F800
G1 X25.948 Y20.649 Z0 F800
G1 Y20.725 Z0 F800
G1 X25.915 Y20.838 Z0 F800
G1 X25.811 Y21.031 Z0 F800
G1 X25.691 Y21.14 Z0 F800
G1 X25.471 Y21.252 Z0 F800
G1 X25.213 Y21.33 Z0 F800
G1 X24.916 Y21.374 Z0 F800
G1 X24.594 Y21.439 Z0 F800
G1 X24.494 Y21.48 Z0 F800
G1 X24.436 Y21.521 Z0 F800
G1 X24.369 Y21.598 Z0 F800
G1 X24.293 Y21.658 Z0 F800
G1 X24.218 Y21.715 Z0 F800
G1 X24.137 Y21.812 Z0 F800
G1 X24.042 Y21.992 Z0 F800
G1 X24.017 Y22.132 Z0 F800
G1 X24.054 Y22.301 Z0 F800
G1 X24.138 Y22.531 Z0 F800
G1 X24.235 Y22.751 Z0 F800
G1 X24.289 Y22.855 Z0 F800
G1 X24.339 Y22.934 Z0 F800
G1 X24.407 Y23.009 Z0 F800
G1 X24.51 Y23.095 Z0 F800
G1 X24.776 Y23.315 Z0 F800
G1 X25.044 Y23.568 Z0 F800
G0 Z3.5 F500
G0 X27.633 Y25.988 Z3.5 F444
G1 Z0 F500
;Layer C3 Pass 1 of 2
G1 X27.722 Y26.027 Z0 F800
G1 X27.859 Y26.072 Z0 F800
G1 X27.952 Y26.079 Z0 F800
G1 X27.999 Y26.069 Z0 F800
G1 X28.124 Y26.033 Z0 F800
G1 X28.505 Y25.892 Z0 F800
G1 X29.004 Y25.697 Z0 F800
G1 X29.153 Y25.642 Z0 F800
G1 X29.372 Y25.558 Z0 F800
G1 X29.603 Y25.455 Z0 F800
G1 X29.777 Y25.331 Z0 F800
G1 X29.904 Y25.179 Z0 F800
G1 X29.972 Y25.087 Z0 F800
G1 X30.056 Y24.982 Z0 F800
G1 X30.165 Y24.862 Z0 F800
G1 X30.307 Y24.725 Z0 F800
G1 X30.642 Y24.453 Z0 F800
G1 X31.011 Y24.218 Z0 F800
G1 X31.202 Y24.133 Z0 F800
G1 X31.43 Y24.06 Z0 F800
G1 X31.66 Y24.002 Z0 F800
G1 X31.855 Y23.964 Z0 F800
G1 X32.02 Y23.944 Z0 F800
G1 X32.193 Y23.928 Z0 F800
G1 X32.37 Y23.903 Z0 F800
G1 X33.009 Y23.793 Z0 F800
;Layer C3 Pass 2 of 2
G1 X32.37 Y23.903 Z0 F800
G1 X32.193 Y23.928 Z0 F800
G1 X32.02 Y23.944 Z0 F800
G1 X31.855 Y23.964 Z0 F800
G1 X31.66 Y24.002 Z0 F800
G1 X31.43 Y24.06 Z0 F800
G1 X31.202 Y24.133 Z0 F800
G1 X31.011 Y24.218 Z0 F800
G1 X30.642 Y24.453 Z0 F800
G1 X30.307 Y24.725 Z0 F800
G1 X30.165 Y24.862 Z0 F800
G1 X30.056 Y24.982 Z0 F800
G1 X29.972 Y25.087 Z0 F800
G1 X29.904 Y25.179 Z0 F800
G1 X29.777 Y25.331 Z0 F800
G1 X29.603 Y25.455 Z0 F800
G1 X29.372 Y25.558 Z0 F800
G1 X29.153 Y25.642 Z0 F800
G1 X29.004 Y25.697 Z0 F800
G1 X28.505 Y25.892 Z0 F800
G1 X28.124 Y26.033 Z0 F800
G1 X27.999 Y26.069 Z0 F800
G1 X27.952 Y26.079 Z0 F800
G1 X27.859 Y26.072 Z0 F800
G1 X27.722 Y26.027 Z0 F800
G1 X27.633 Y25.988 Z0 F800
G0 Z3.5 F500
G0 X36.611 Y21.963 Z3.5 
G1 Z0 F500
;Layer C3 Pass 1 of 2
G1 X36.691 Y22.071 Z0 F800
G1 X36.822 Y22.245 Z0 F800
G1 X37.112 Y22.608 Z0 F800
G1 X37.211 Y22.72 Z0 F800
G1 X37.299 Y22.81 Z0 F800
G1 X37.407 Y22.897 Z0 F800
G1 X37.562 Y22.974 Z0 F800
G1 X37.793 Y23.038 Z0 F800
G1 X38.069 Y23.055 Z0 F800
G1 X38.356 Y23.038 Z0 F800
G1 X38.567 Y23.014 Z0 F800
G1 X38.862 Y23.005 Z0 F800
G1 X39.262 Z0 F800
G1 X39.637 Y23.019 Z0 F800
G1 X39.99 Y23.061 Z0 F800
G1 X40.326 Y23.146 Z0 F800
G1 X40.682 Y23.282 Z0 F800
G1 X41.001 Y23.428 Z0 F800
G1 X41.292 Y23.578 Z0 F800
G1 X41.564 Y23.702 Z0 F800
G1 X41.753 Y23.771 Z0 F800
G1 X41.93 Y23.846 Z0 F800
G1 X42.058 Y23.907 Z0 F800
G1 X42.111 Y23.948 Z0 F800
G1 X42.124 Y24.01 Z0 F800
G1 X42.131 Y24.13 Z0 F800
G1 X42.146 Y24.271 Z0 F800
G1 X42.175 Y24.468 Z0 F800
G1 X42.185 Y24.55 Z0 F800
G1 X42.209 Y24.794 Z0 F800
G1 X42.231 Y25.003 Z0 F800
G1 X42.255 Y25.284 Z0 F800
G1 X42.267 Y25.555 Z0 F800
G1 X42.285 Y25.819 Z0 F800
G1 X42.313 Y25.99 Z0 F800
G1 X42.343 Y26.157 Z0 F800
G1 X42.431 Y26.579 Z0 F800
G1 X42.525 Y26.962 Z0 F800
G1 X42.647 Y27.339 Z0 F800
G1 X42.716 Y27.505 Z0 F800
G1 X42.801 Y27.65 Z0 F800
G1 X42.904 Y27.786 Z0 F800
G1 X43.031 Y27.93 Z0 F800
G1 X43.17 Y28.064 Z0 F800
G1 X43.311 Y28.17 Z0 F800
G1 X43.466 Y28.262 Z0 F800
G1 X43.646 Y28.357 Z0 F800
G1 X43.896 Y28.482 Z0 F800
G1 X44.125 Y28.608 Z0 F800
G1 X44.285 Y28.708 Z0 F800
G1 X44.454 Y28.84 Z0 F800
G1 X44.613 Y28.99 Z0 F800
G1 X44.714 Y29.108 Z0 F800
G1 X44.786 Y29.23 Z0 F800
G1 X44.856 Y29.393 Z0 F800
G1 X44.895 Y29.505 Z0 F800
G1 X44.925 Y29.618 Z0 F800
G1 X44.983 Y29.822 Z0 F800
G1 X45.023 Y30.04 Z0 F800
G1 X45.047 Y30.449 Z0 F800
G1 X45.038 Y30.856 Z0 F800
G1 X45.026 Y30.982 Z0 F800
G1 X45.012 Y31.11 Z0 F800
G1 X44.976 Y31.284 Z0 F800
G1 X44.938 Y31.447 Z0 F800
G1 X44.87 Y31.753 Z0 F800
G1 X44.772 Y32.067 Z0 F800
G1 X44.647 Y32.369 Z0 F800
G1 X44.514 Y32.673 Z0 F800
G1 X44.366 Y32.97 Z0 F800
G1 X44.199 Y33.249 Z0 F800
G1 X44.059 Y33.473 Z0 F800
G1 X43.932 Y33.711 Z0 F800
G1 X43.825 Y33.957 Z0 F800
G1 X43.745 Y34.205 Z0 F800
G1 X43.691 Y34.452 Z0 F800
G1 X43.655 Y34.712 Z0 F800
G1 X43.644 Y34.9 Z0 F800
G1 Y35.078 Z0 F800
G1 X43.677 Y35.781 Z0 F800
G1 X43.667 Y35.933 Z0 F800
G1 X43.632 Y36.091 Z0 F800
G1 X43.573 Y36.261 Z0 F800
G1 X43.472 Y36.408 Z0 F800
G1 X43.346 Y36.509 Z0 F800
G1 X43.196 Y36.572 Z0 F800
G1 X43.027 Y36.618 Z0 F800
G1 X42.922 Y36.633 Z0 F800
G1 X42.827 Y36.624 Z0 F800
G1 X42.69 Y36.6 Z0 F800
G1 X42.536 Y36.567 Z0 F800
G1 X42.38 Y36.523 Z0 F800
G1 X42.235 Y36.467 Z0 F800
G1 X42.116 Y36.399 Z0 F800
G1 X42.009 Y36.316 Z0 F800
G1 X41.902 Y36.211 Z0 F800
G1 X41.742 Y36.008 Z0 F800
G1 X41.643 Y35.781 Z0 F800
G1 X41.586 Y35.575 Z0 F800
G1 X41.543 Y35.359 Z0 F800
G1 X41.486 Y35.057 Z0 F800
G1 X41.432 Y34.822 Z0 F800
G1 X41.375 Y34.645 Z0 F800
G1 X41.309 Y34.519 Z0 F800
G1 X41.277 Y34.48 Z0 F800
G1 X41.227 Y34.438 Z0 F800
G1 X41.147 Y34.393 Z0 F800
G1 X41.029 Y34.346 Z0 F800
G1 X40.904 Y34.312 Z0 F800
G1 X40.832 Y34.306 Z0 F800
G1 X40.72 Y34.318 Z0 F800
G1 X40.579 Y34.359 Z0 F800
G1 X40.398 Y34.415 Z0 F800
G1 X40.213 Y34.487 Z0 F800
G1 X40.11 Y34.545 Z0 F800
G1 X40.016 Y34.617 Z0 F800
G1 X39.899 Y34.719 Z0 F800
G1 X39.791 Y34.81 Z0 F800
G1 X39.682 Y34.87 Z0 F800
G1 X39.622 Y34.881 Z0 F800
;Layer C3 Pass 2 of 2
G1 X39.682 Y34.87 Z0 F800
G1 X39.791 Y34.81 Z0 F800
G1 X39.899 Y34.719 Z0 F800
G1 X40.016 Y34.617 Z0 F800
G1 X40.11 Y34.545 Z0 F800
G1 X40.213 Y34.487 Z0 F800
G1 X40.398 Y34.415 Z0 F800
G1 X40.579 Y34.359 Z0 F800
G1 X40.72 Y34.318 Z0 F800
G1 X40.832 Y34.306 Z0 F800
G1 X40.904 Y34.312 Z0 F800
G1 X41.029 Y34.346 Z0 F800
G1 X41.147 Y34.393 Z0 F800
G1 X41.227 Y34.438 Z0 F800
G1 X41.277 Y34.48 Z0 F800
G1 X41.309 Y34.519 Z0 F800
G1 X41.375 Y34.645 Z0 F800
G1 X41.432 Y34.822 Z0 F800
G1 X41.486 Y35.057 Z0 F800
G1 X41.543 Y35.359 Z0 F800
G1 X41.586 Y35.575 Z0 F800
G1 X41.643 Y35.781 Z0 F800
G1 X41.742 Y36.008 Z0 F800
G1 X41.902 Y36.211 Z0 F800
G1 X42.009 Y36.316 Z0 F800
G1 X42.116 Y36.399 Z0 F800
G1 X42.235 Y36.467 Z0 F800
G1 X42.38 Y36.523 Z0 F800
G1 X42.536 Y36.567 Z0 F800
G1 X42.69 Y36.6 Z0 F800
G1 X42.827 Y36.624 Z0 F800
G1 X42.922 Y36.633 Z0 F800
G1 X43.027 Y36.618 Z0 F800
G1 X43.196 Y36.572 Z0 F800
G1 X43.346 Y36.509 Z0 F800
G1 X43.472 Y36.408 Z0 F800
G1 X43.573 Y36.261 Z0 F800
G1 X43.632 Y36.091 Z0 F800
G1 X43.667 Y35.933 Z0 F800
G1 X43.677 Y35.781 Z0 F800
G1 X43.646 Y35.078 Z0 F800
G1 Y34.9 Z0 F800
G1 X43.655 Y34.712 Z0 F800
G1 X43.691 Y34.452 Z0 F800
G1 X43.745 Y34.205 Z0 F800
G1 X43.825 Y33.957 Z0 F800
G1 X43.932 Y33.711 Z0 F800
G1 X44.059 Y33.473 Z0 F800
G1 X44.199 Y33.249 Z0 F800
G1 X44.366 Y32.97 Z0 F800
G1 X44.514 Y32.673 Z0 F800
G1 X44.647 Y32.369 Z0 F800
G1 X44.772 Y32.067 Z0 F800
G1 X44.87 Y31.753 Z0 F800
G1 X44.938 Y31.447 Z0 F800
G1 X44.976 Y31.284 Z0 F800
G1 X45.012 Y31.11 Z0 F800
G1 X45.026 Y30.982 Z0 F800
G1 X45.038 Y30.856 Z0 F800
G1 X45.047 Y30.449 Z0 F800
G1 X45.023 Y30.04 Z0 F800
G1 X44.983 Y29.822 Z0 F800
G1 X44.925 Y29.618 Z0 F800
G1 X44.895 Y29.505 Z0 F800
G1 X44.856 Y29.393 Z0 F800
G1 X44.786 Y29.23 Z0 F800
G1 X44.714 Y29.108 Z0 F800
G1 X44.613 Y28.99 Z0 F800
G1 X44.454 Y28.84 Z0 F800
G1 X44.285 Y28.708 Z0 F800
G1 X44.125 Y28.608 Z0 F800
G1 X43.896 Y28.482 Z0 F800
G1 X43.646 Y28.357 Z0 F800
G1 X43.466 Y28.262 Z0 F800
G1 X43.311 Y28.17 Z0 F800
G1 X43.17 Y28.064 Z0 F800
G1 X43.031 Y27.93 Z0 F800
G1 X42.904 Y27.786 Z0 F800
G1 X42.801 Y27.65 Z0 F800
G1 X42.716 Y27.505 Z0 F800
G1 X42.647 Y27.339 Z0 F800
G1 X42.525 Y26.962 Z0 F800
G1 X42.431 Y26.579 Z0 F800
G1 X42.343 Y26.157 Z0 F800
G1 X42.313 Y25.99 Z0 F800
G1 X42.285 Y25.819 Z0 F800
G1 X42.267 Y25.555 Z0 F800
G1 X42.255 Y25.284 Z0 F800
G1 X42.231 Y25.003 Z0 F800
G1 X42.209 Y24.794 Z0 F800
G1 X42.185 Y24.55 Z0 F800
G1 X42.175 Y24.468 Z0 F800
G1 X42.146 Y24.271 Z0 F800
G1 X42.131 Y24.13 Z0 F800
G1 X42.124 Y24.01 Z0 F800
G1 X42.111 Y23.948 Z0 F800
G1 X42.058 Y23.907 Z0 F800
G1 X41.93 Y23.846 Z0 F800
G1 X41.753 Y23.771 Z0 F800
G1 X41.564 Y23.702 Z0 F800
G1 X41.292 Y23.578 Z0 F800
G1 X41.001 Y23.428 Z0 F800
G1 X40.682 Y23.282 Z0 F800
G1 X40.326 Y23.146 Z0 F800
G1 X39.99 Y23.061 Z0 F800
G1 X39.637 Y23.019 Z0 F800
G1 X39.262 Y23.006 Z0 F800
G1 X38.862 Z0 F800
G1 X38.567 Y23.014 Z0 F800
G1 X38.356 Y23.038 Z0 F800
G1 X38.069 Y23.055 Z0 F800
G1 X37.793 Y23.038 Z0 F800
G1 X37.562 Y22.974 Z0 F800
G1 X37.407 Y22.897 Z0 F800
G1 X37.299 Y22.81 Z0 F800
G1 X37.211 Y22.72 Z0 F800
G1 X37.112 Y22.608 Z0 F800
G1 X36.822 Y22.245 Z0 F800
G1 X36.691 Y22.071 Z0 F800
G1 X36.611 Y21.963 Z0 F800
G0 Z3.5 F500
G0 X38.947 Y33.558 Z3.5 
G1 Z0 F500
;Layer C3 Pass 1 of 2
G1 X38.953 Y33.328 Z0 F800
G1 X38.942 Y33.172 Z0 F800
G1 X38.906 Y32.967 Z0 F800
G1 X38.861 Y32.785 Z0 F800
G1 X38.835 Y32.573 Z0 F800
G1 X38.848 Y32.352 Z0 F800
G1 X38.887 Y32.151 Z0 F800
G1 X38.918 Y32.029 Z0 F800
G1 X38.964 Y31.918 Z0 F800
G1 X39.05 Y31.82 Z0 F800
G1 X39.2 Y31.738 Z0 F800
G1 X39.356 Y31.697 Z0 F800
G1 X39.425 Y31.701 Z0 F800
G1 X39.531 Y31.722 Z0 F800
G1 X39.706 Y31.776 Z0 F800
G1 X39.853 Y31.824 Z0 F800
G1 X40.016 Y31.88 Z0 F800
G1 X40.131 Y31.925 Z0 F800
G1 X40.241 Y31.985 Z0 F800
G1 X40.528 Y32.153 Z0 F800
G1 X40.832 Y32.28 Z0 F800
G1 X41.013 Y32.315 Z0 F800
G1 X41.198 Y32.336 Z0 F800
G1 X41.421 Y32.357 Z0 F800
G1 X41.62 Y32.353 Z0 F800
G1 X41.808 Y32.323 Z0 F800
G1 X41.988 Y32.282 Z0 F800
G1 X42.156 Y32.205 Z0 F800
G1 X42.306 Y32.065 Z0 F800
G1 X42.375 Y31.949 Z0 F800
G1 X42.426 Y31.813 Z0 F800
G1 X42.483 Y31.608 Z0 F800
G1 X42.492 Y31.419 Z0 F800
G1 X42.456 Y31.183 Z0 F800
G1 X42.389 Y30.969 Z0 F800
G1 X42.326 Y30.842 Z0 F800
G1 X42.242 Y30.743 Z0 F800
G1 X42.137 Y30.656 Z0 F800
G1 X42.014 Y30.563 Z0 F800
G1 X41.781 Y30.382 Z0 F800
G1 X41.57 Y30.201 Z0 F800
G1 X41.38 Y30.001 Z0 F800
G1 X41.209 Y29.759 Z0 F800
G1 X41.057 Y29.428 Z0 F800
G1 X40.952 Y29.083 Z0 F800
G1 X40.901 Y28.902 Z0 F800
G1 X40.747 Y28.363 Z0 F800
G1 X40.64 Y28.007 Z0 F800
G1 X40.517 Y27.655 Z0 F800
G1 X40.37 Y27.31 Z0 F800
G1 X40.211 Y27.005 Z0 F800
G1 X40.038 Y26.727 Z0 F800
G1 X39.844 Y26.466 Z0 F800
G1 X39.62 Y26.213 Z0 F800
G1 X39.311 Y25.903 Z0 F800
G1 X38.975 Y25.628 Z0 F800
G1 X38.739 Y25.486 Z0 F800
G1 X38.53 Y25.408 Z0 F800
G1 X38.319 Y25.375 Z0 F800
G1 X38.074 Y25.369 Z0 F800
G1 X37.957 Z0 F800
G1 X37.849 Z0 F800
G1 X37.548 Y25.415 Z0 F800
G1 X37.258 Y25.507 Z0 F800
G1 X36.838 Y25.629 Z0 F800
G1 X36.442 Y25.69 Z0 F800
G1 X36.22 Y25.709 Z0 F800
G1 X36.024 Y25.702 Z0 F800
G1 X35.84 Y25.672 Z0 F800
G1 X35.654 Y25.624 Z0 F800
G1 X35.352 Y25.506 Z0 F800
G1 X35.063 Y25.352 Z0 F800
G1 X34.84 Y25.22 Z0 F800
G1 X34.641 Y25.077 Z0 F800
G1 X34.473 Y24.942 Z0 F800
G1 X34.303 Y24.801 Z0 F800
G1 X33.922 Y24.52 Z0 F800
G1 X33.571 Y24.278 Z0 F800
G1 X33.436 Y24.174 Z0 F800
G1 X33.347 Y24.099 Z0 F800
G1 X33.189 Y23.933 Z0 F800
G1 X33.037 Y23.764 Z0 F800
G1 X33.089 Y23.679 Z0 F800
G1 X33.139 Y23.567 Z0 F800
G1 X33.157 Y23.511 Z0 F800
G1 X33.188 Y23.399 Z0 F800
G1 X33.23 Y23.175 Z0 F800
G1 X33.234 Y22.948 Z0 F800
G1 X33.243 Y22.742 Z0 F800
G1 Y22.554 Z0 F800
G1 X33.212 Y22.385 Z0 F800
G1 X33.155 Y22.217 Z0 F800
G1 X33.102 Y22.091 Z0 F800
G1 X33.035 Y21.97 Z0 F800
G1 X32.957 Y21.861 Z0 F800
G1 X32.868 Y21.773 Z0 F800
G1 X32.644 Y21.644 Z0 F800
G1 X32.402 Y21.585 Z0 F800
G1 X32.132 Y21.58 Z0 F800
G1 X31.827 Y21.609 Z0 F800
G1 X31.682 Y21.622 Z0 F800
G1 X31.545 Y21.631 Z0 F800
G1 X31.232 Y21.695 Z0 F800
G1 X30.926 Y21.794 Z0 F800
G1 X30.678 Y21.905 Z0 F800
G1 X30.448 Y22.047 Z0 F800
G1 X30.14 Y22.223 Z0 F800
G1 X29.8 Y22.359 Z0 F800
G1 X29.597 Y22.412 Z0 F800
G1 X29.406 Y22.44 Z0 F800
G1 X29.272 Y22.457 Z0 F800
G1 X29.181 Y22.467 Z0 F800
G1 X29.055 Z0 F800
G1 X28.891 Y22.445 Z0 F800
G1 X28.723 Y22.37 Z0 F800
G1 X28.585 Y22.216 Z0 F800
G1 X28.506 Y22.027 Z0 F800
G1 X28.493 Y21.883 Z0 F800
G1 X28.517 Y21.758 Z0 F800
G1 X28.546 Y21.626 Z0 F800
G1 X28.588 Y21.401 Z0 F800
G1 X28.657 Y21.119 Z0 F800
G1 X28.774 Y20.855 Z0 F800
G1 X28.932 Y20.621 Z0 F800
G1 X29.052 Y20.49 Z0 F800
G1 X29.181 Y20.359 Z0 F800
G1 X29.384 Y20.163 Z0 F800
G1 X29.603 Y19.993 Z0 F800
G1 X29.829 Y19.878 Z0 F800
G1 X30.07 Y19.799 Z0 F800
G1 X30.324 Y19.749 Z0 F800
G1 X30.588 Y19.717 Z0 F800
G1 X30.973 Y19.692 Z0 F800
G1 X31.348 Y19.685 Z0 F800
G1 X31.593 Y19.707 Z0 F800
G1 X31.855 Y19.758 Z0 F800
G1 X32.212 Y19.813 Z0 F800
G1 X32.558 Y19.824 Z0 F800
G1 X32.971 Y19.796 Z0 F800
G1 X33.318 Y19.721 Z0 F800
G1 X33.439 Y19.679 Z0 F800
G1 X33.566 Y19.628 Z0 F800
G1 X33.685 Y19.563 Z0 F800
G1 X33.781 Y19.48 Z0 F800
G1 X33.857 Y19.363 Z0 F800
G1 X33.916 Y19.205 Z0 F800
G1 X33.949 Y19.09 Z0 F800
G1 X33.967 Y18.985 Z0 F800
G1 Y18.877 Z0 F800
G1 X33.951 Y18.755 Z0 F800
G1 X33.915 Y18.614 Z0 F800
G1 X33.871 Y18.474 Z0 F800
G1 X33.824 Y18.352 Z0 F800
G1 X33.76 Y18.248 Z0 F800
G1 X33.42 Y17.826 Z0 F800
G1 X33.263 Y17.599 Z0 F800
G1 X33.147 Y17.348 Z0 F800
G1 X33.079 Y17.113 Z0 F800
G1 X33.045 Y16.898 Z0 F800
G1 Y16.58 Z0 F800
G1 X33.077 Y16.25 Z0 F800
G1 X33.098 Y16.079 Z0 F800
G1 X33.126 Y15.908 Z0 F800
G1 X33.169 Y15.738 Z0 F800
G1 X33.238 Y15.575 Z0 F800
G1 X33.358 Y15.36 Z0 F800
G1 X33.481 Y15.153 Z0 F800
G1 X33.733 Y14.797 Z0 F800
G1 X34.029 Y14.465 Z0 F800
G1 X34.346 Y14.151 Z0 F800
G1 X34.664 Y13.846 Z0 F800
G1 X34.887 Y13.639 Z0 F800
G1 X35.116 Y13.456 Z0 F800
G1 X35.359 Y13.3 Z0 F800
G1 X35.626 Y13.173 Z0 F800
G1 X35.987 Y13.089 Z0 F800
G1 X36.386 Y13.067 Z0 F800
G1 X36.647 Y13.085 Z0 F800
G1 X36.91 Y13.128 Z0 F800
G1 X37.163 Y13.196 Z0 F800
G1 X37.399 Y13.29 Z0 F800
G1 X37.572 Y13.383 Z0 F800
G1 X38.059 Y13.683 Z0 F800
G1 X38.356 Y13.915 Z0 F800
G1 X38.604 Y14.16 Z0 F800
G1 X38.818 Y14.421 Z0 F800
G1 X39.141 Y14.972 Z0 F800
G1 X39.416 Y15.547 Z0 F800
G1 X39.498 Y15.8 Z0 F800
G1 X39.553 Y16.053 Z0 F800
G1 X39.578 Y16.25 Z0 F800
G1 X39.624 Y16.588 Z0 F800
G1 X39.64 Y16.749 Z0 F800
G1 X39.626 Y16.898 Z0 F800
G1 X39.569 Y17.041 Z0 F800
G1 X39.495 Y17.128 Z0 F800
G1 X39.458 Y17.154 Z0 F800
G1 X39.368 Y17.185 Z0 F800
G1 X39.262 Y17.193 Z0 F800
G1 X39.2 Y17.186 Z0 F800
G1 X39.067 Y17.166 Z0 F800
G1 X38.89 Y17.129 Z0 F800
G1 X38.75 Y17.102 Z0 F800
G1 X38.159 Y16.964 Z0 F800
G1 X37.981 Y16.928 Z0 F800
G1 X37.821 Y16.891 Z0 F800
G1 X37.702 Y16.855 Z0 F800
G1 X37.28 Y16.715 Z0 F800
G1 X37.005 Y16.616 Z0 F800
G1 X36.908 Y16.584 Z0 F800
G1 X36.808 Y16.564 Z0 F800
G1 X36.773 Y16.56 Z0 F800
G1 X36.698 Y16.572 Z0 F800
G1 X36.626 Y16.619 Z0 F800
G1 X36.594 Y16.675 Z0 F800
G1 X36.582 Y16.781 Z0 F800
G1 Y17.599 Z0 F800
G1 X36.595 Y17.742 Z0 F800
G1 X36.628 Y17.966 Z0 F800
G1 X36.667 Y18.164 Z0 F800
;Layer C3 Pass 2 of 2
G1 X36.628 Y17.966 Z0 F800
G1 X36.595 Y17.742 Z0 F800
G1 X36.582 Y17.599 Z0 F800
G1 Y16.781 Z0 F800
G1 X36.594 Y16.675 Z0 F800
G1 X36.626 Y16.619 Z0 F800
G1 X36.698 Y16.572 Z0 F800
G1 X36.773 Y16.56 Z0 F800
G1 X36.808 Y16.564 Z0 F800
G1 X36.908 Y16.584 Z0 F800
G1 X37.005 Y16.616 Z0 F800
G1 X37.28 Y16.715 Z0 F800
G1 X37.702 Y16.855 Z0 F800
G1 X37.821 Y16.891 Z0 F800
G1 X37.981 Y16.928 Z0 F800
G1 X38.159 Y16.964 Z0 F800
G1 X38.75 Y17.102 Z0 F800
G1 X38.89 Y17.129 Z0 F800
G1 X39.067 Y17.166 Z0 F800
G1 X39.2 Y17.186 Z0 F800
G1 X39.262 Y17.193 Z0 F800
G1 X39.368 Y17.185 Z0 F800
G1 X39.458 Y17.154 Z0 F800
G1 X39.495 Y17.128 Z0 F800
G1 X39.569 Y17.041 Z0 F800
G1 X39.626 Y16.898 Z0 F800
G1 X39.64 Y16.749 Z0 F800
G1 X39.624 Y16.588 Z0 F800
G1 X39.578 Y16.25 Z0 F800
G1 X39.553 Y16.053 Z0 F800
G1 X39.498 Y15.8 Z0 F800
G1 X39.416 Y15.547 Z0 F800
G1 X39.141 Y14.972 Z0 F800
G1 X38.818 Y14.421 Z0 F800
G1 X38.604 Y14.16 Z0 F800
G1 X38.356 Y13.915 Z0 F800
G1 X38.059 Y13.683 Z0 F800
G1 X37.572 Y13.383 Z0 F800
G1 X37.399 Y13.29 Z0 F800
G1 X37.163 Y13.196 Z0 F800
G1 X36.91 Y13.128 Z0 F800
G1 X36.647 Y13.085 Z0 F800
G1 X36.386 Y13.067 Z0 F800
G1 X35.987 Y13.089 Z0 F800
G1 X35.626 Y13.173 Z0 F800
G1 X35.359 Y13.3 Z0 F800
G1 X35.116 Y13.456 Z0 F800
G1 X34.887 Y13.639 Z0 F800
G1 X34.664 Y13.846 Z0 F800
G1 X34.346 Y14.151 Z0 F800
G1 X34.029 Y14.465 Z0 F800
G1 X33.733 Y14.797 Z0 F800
G1 X33.481 Y15.153 Z0 F800
G1 X33.358 Y15.36 Z0 F800
G1 X33.238 Y15.575 Z0 F800
G1 X33.169 Y15.738 Z0 F800
G1 X33.126 Y15.908 Z0 F800
G1 X33.098 Y16.079 Z0 F800
G1 X33.077 Y16.25 Z0 F800
G1 X33.046 Y16.58 Z0 F800
G1 Y16.898 Z0 F800
G1 X33.079 Y17.113 Z0 F800
G1 X33.147 Y17.348 Z0 F800
G1 X33.263 Y17.599 Z0 F800
G1 X33.42 Y17.826 Z0 F800
G1 X33.76 Y18.248 Z0 F800
G1 X33.824 Y18.352 Z0 F800
G1 X33.871 Y18.474 Z0 F800
G1 X33.915 Y18.614 Z0 F800
G1 X33.951 Y18.755 Z0 F800
G1 X33.969 Y18.877 Z0 F800
G1 Y18.985 Z0 F800
G1 X33.949 Y19.09 Z0 F800
G1 X33.916 Y19.205 Z0 F800
G1 X33.857 Y19.363 Z0 F800
G1 X33.781 Y19.48 Z0 F800
G1 X33.685 Y19.563 Z0 F800
G1 X33.566 Y19.628 Z0 F800
G1 X33.439 Y19.679 Z0 F800
G1 X33.318 Y19.721 Z0 F800
G1 X32.971 Y19.796 Z0 F800
G1 X32.558 Y19.824 Z0 F800
G1 X32.212 Y19.813 Z0 F800
G1 X31.855 Y19.758 Z0 F800
G1 X31.593 Y19.707 Z0 F800
G1 X31.348 Y19.685 Z0 F800
G1 X30.973 Y19.692 Z0 F800
G1 X30.588 Y19.717 Z0 F800
G1 X30.324 Y19.749 Z0 F800
G1 X30.07 Y19.799 Z0 F800
G1 X29.829 Y19.878 Z0 F800
G1 X29.603 Y19.993 Z0 F800
G1 X29.384 Y20.163 Z0 F800
G1 X29.181 Y20.359 Z0 F800
G1 X29.052 Y20.49 Z0 F800
G1 X28.932 Y20.621 Z0 F800
G1 X28.774 Y20.855 Z0 F800
G1 X28.657 Y21.119 Z0 F800
G1 X28.588 Y21.401 Z0 F800
G1 X28.546 Y21.626 Z0 F800
G1 X28.517 Y21.758 Z0 F800
G1 X28.493 Y21.883 Z0 F800
G1 X28.506 Y22.027 Z0 F800
G1 X28.585 Y22.216 Z0 F800
G1 X28.723 Y22.37 Z0 F800
G1 X28.891 Y22.445 Z0 F800
G1 X29.055 Y22.468 Z0 F800
G1 X29.181 Z0 F800
G1 X29.272 Y22.457 Z0 F800
G1 X29.406 Y22.44 Z0 F800
G1 X29.597 Y22.412 Z0 F800
G1 X29.8 Y22.359 Z0 F800
G1 X30.14 Y22.223 Z0 F800
G1 X30.448 Y22.047 Z0 F800
G1 X30.678 Y21.905 Z0 F800
G1 X30.926 Y21.794 Z0 F800
G1 X31.232 Y21.695 Z0 F800
G1 X31.545 Y21.631 Z0 F800
G1 X31.682 Y21.622 Z0 F800
G1 X31.827 Y21.609 Z0 F800
G1 X32.132 Y21.58 Z0 F800
G1 X32.402 Y21.585 Z0 F800
G1 X32.644 Y21.644 Z0 F800
G1 X32.868 Y21.773 Z0 F800
G1 X32.957 Y21.861 Z0 F800
G1 X33.035 Y21.97 Z0 F800
G1 X33.102 Y22.091 Z0 F800
G1 X33.155 Y22.217 Z0 F800
G1 X33.212 Y22.385 Z0 F800
G1 X33.243 Y22.554 Z0 F800
G1 Y22.742 Z0 F800
G1 X33.234 Y22.948 Z0 F800
G1 X33.23 Y23.175 Z0 F800
G1 X33.188 Y23.399 Z0 F800
G1 X33.157 Y23.511 Z0 F800
G1 X33.139 Y23.567 Z0 F800
G1 X33.089 Y23.679 Z0 F800
G1 X33.037 Y23.764 Z0 F800
G1 X33.189 Y23.933 Z0 F800
G1 X33.347 Y24.099 Z0 F800
G1 X33.436 Y24.174 Z0 F800
G1 X33.571 Y24.278 Z0 F800
G1 X33.922 Y24.52 Z0 F800
G1 X34.303 Y24.801 Z0 F800
G1 X34.473 Y24.942 Z0 F800
G1 X34.641 Y25.077 Z0 F800
G1 X34.84 Y25.22 Z0 F800
G1 X35.063 Y25.352 Z0 F800
G1 X35.352 Y25.506 Z0 F800
G1 X35.654 Y25.624 Z0 F800
G1 X35.84 Y25.672 Z0 F800
G1 X36.024 Y25.702 Z0 F800
G1 X36.22 Y25.709 Z0 F800
G1 X36.442 Y25.69 Z0 F800
G1 X36.838 Y25.629 Z0 F800
G1 X37.258 Y25.507 Z0 F800
G1 X37.548 Y25.415 Z0 F800
G1 X37.849 Y25.37 Z0 F800
G1 X37.957 Z0 F800
G1 X38.074 Z0 F800
G1 X38.319 Y25.375 Z0 F800
G1 X38.53 Y25.408 Z0 F800
G1 X38.739 Y25.486 Z0 F800
G1 X38.975 Y25.628 Z0 F800
G1 X39.311 Y25.903 Z0 F800
G1 X39.62 Y26.213 Z0 F800
G1 X39.844 Y26.466 Z0 F800
G1 X40.038 Y26.727 Z0 F800
G1 X40.211 Y27.005 Z0 F800
G1 X40.37 Y27.31 Z0 F800
G1 X40.517 Y27.655 Z0 F800
G1 X40.64 Y28.007 Z0 F800
G1 X40.747 Y28.363 Z0 F800
G1 X40.901 Y28.902 Z0 F800
G1 X40.952 Y29.083 Z0 F800
G1 X41.057 Y29.428 Z0 F800
G1 X41.209 Y29.759 Z0 F800
G1 X41.38 Y30.001 Z0 F800
G1 X41.57 Y30.201 Z0 F800
G1 X41.781 Y30.382 Z0 F800
G1 X42.014 Y30.563 Z0 F800
G1 X42.137 Y30.656 Z0 F800
G1 X42.242 Y30.743 Z0 F800
G1 X42.326 Y30.842 Z0 F800
G1 X42.389 Y30.969 Z0 F800
G1 X42.456 Y31.183 Z0 F800
G1 X42.492 Y31.419 Z0 F800
G1 X42.483 Y31.608 Z0 F800
G1 X42.426 Y31.813 Z0 F800
G1 X42.375 Y31.949 Z0 F800
G1 X42.306 Y32.065 Z0 F800
G1 X42.156 Y32.205 Z0 F800
G1 X41.988 Y32.282 Z0 F800
G1 X41.808 Y32.323 Z0 F800
G1 X41.62 Y32.353 Z0 F800
G1 X41.421 Y32.357 Z0 F800
G1 X41.198 Y32.336 Z0 F800
G1 X41.013 Y32.315 Z0 F800
G1 X40.832 Y32.28 Z0 F800
G1 X40.528 Y32.153 Z0 F800
G1 X40.241 Y31.985 Z0 F800
G1 X40.131 Y31.925 Z0 F800
G1 X40.016 Y31.88 Z0 F800
G1 X39.853 Y31.824 Z0 F800
G1 X39.706 Y31.776 Z0 F800
G1 X39.531 Y31.722 Z0 F800
G1 X39.425 Y31.701 Z0 F800
G1 X39.356 Y31.697 Z0 F800
G1 X39.2 Y31.738 Z0 F800
G1 X39.05 Y31.82 Z0 F800
G1 X38.964 Y31.918 Z0 F800
G1 X38.918 Y32.029 Z0 F800
G1 X38.887 Y32.151 Z0 F800
G1 X38.848 Y32.352 Z0 F800
G1 X38.835 Y32.573 Z0 F800
G1 X38.861 Y32.785 Z0 F800
G1 X38.906 Y32.967 Z0 F800
G1 X38.942 Y33.172 Z0 F800
G1 X38.953 Y33.328 Z0 F800
G1 X38.947 Y33.558 Z0 F800
G0 Z3.5 F500
G0 X42.155 Y23.905 Z3.5 
G1 Z0 F500
;Layer C3 Pass 1 of 2
G1 X42.317 Y23.865 Z0 F800
G1 X42.549 Y23.821 Z0 F800
G1 X42.757 Y23.784 Z0 F800
G1 X42.943 Y23.742 Z0 F800
G1 X43.078 Y23.698 Z0 F800
G1 X43.194 Y23.619 Z0 F800
G1 X43.297 Y23.49 Z0 F800
G1 X43.354 Y23.342 Z0 F800
G1 X43.396 Y23.155 Z0 F800
G1 X43.4 Y23.034 Z0 F800
G1 X43.378 Y22.928 Z0 F800
G1 X43.301 Y22.604 Z0 F800
G1 X43.243 Y22.414 Z0 F800
G1 X43.141 Y22.195 Z0 F800
G1 X42.969 Y21.992 Z0 F800
G1 X42.774 Y21.811 Z0 F800
G1 X42.559 Y21.656 Z0 F800
G1 X42.332 Y21.527 Z0 F800
G1 X42.099 Y21.425 Z0 F800
G1 X41.748 Y21.288 Z0 F800
G1 X41.395 Y21.169 Z0 F800
G1 X41.128 Y21.104 Z0 F800
G1 X40.86 Y21.008 Z0 F800
G1 X40.674 Y20.916 Z0 F800
G1 X40.498 Y20.809 Z0 F800
G1 X40.379 Y20.694 Z0 F800
G1 X40.309 Y20.556 Z0 F800
G1 X40.241 Y20.371 Z0 F800
G1 X40.199 Y20.19 Z0 F800
G1 X40.196 Y20.049 Z0 F800
G1 X40.236 Y19.909 Z0 F800
G1 X40.312 Y19.713 Z0 F800
G1 X40.399 Y19.575 Z0 F800
G1 X40.527 Y19.47 Z0 F800
G1 X40.713 Y19.371 Z0 F800
G1 X40.921 Y19.288 Z0 F800
G1 X41.114 Y19.23 Z0 F800
G1 X41.256 Y19.203 Z0 F800
G1 X41.395 Y19.186 Z0 F800
G1 X41.632 Y19.152 Z0 F800
G1 X41.874 Y19.141 Z0 F800
G1 X42.086 Y19.168 Z0 F800
G1 X42.296 Y19.212 Z0 F800
G1 X42.438 Y19.245 Z0 F800
G1 X42.577 Y19.285 Z0 F800
G1 X42.775 Y19.357 Z0 F800
G1 X42.948 Y19.441 Z0 F800
G1 X43.112 Y19.542 Z0 F800
G1 X43.281 Y19.663 Z0 F800
G1 X43.663 Y19.996 Z0 F800
G1 X43.982 Y20.359 Z0 F800
G1 X44.114 Y20.556 Z0 F800
G1 X44.361 Y20.897 Z0 F800
G1 X44.632 Y21.182 Z0 F800
G1 X44.926 Y21.408 Z0 F800
G1 X45.223 Y21.556 Z0 F800
G1 X45.426 Y21.617 Z0 F800
G1 X45.617 Y21.657 Z0 F800
G1 X45.775 Y21.689 Z0 F800
G1 X45.954 Y21.661 Z0 F800
G1 X46.132 Y21.606 Z0 F800
G1 X46.287 Y21.518 Z0 F800
G1 X46.357 Y21.445 Z0 F800
G1 X46.404 Y21.365 Z0 F800
G1 X46.44 Y21.276 Z0 F800
G1 X46.474 Y21.175 Z0 F800
G1 X46.555 Y20.886 Z0 F800
G1 X46.631 Y20.511 Z0 F800
G1 X46.652 Y20.387 Z0 F800
G1 X46.678 Y20.13 Z0 F800
G1 X46.744 Y19.853 Z0 F800
G1 X46.857 Y19.597 Z0 F800
G1 X46.989 Y19.402 Z0 F800
G1 X47.146 Y19.23 Z0 F800
G1 X47.333 Y19.065 Z0 F800
G1 X47.466 Y18.967 Z0 F800
G1 X47.587 Y18.882 Z0 F800
G1 X47.799 Y18.754 Z0 F800
G1 X48.037 Y18.648 Z0 F800
G1 X48.454 Y18.519 Z0 F800
G1 X48.881 Y18.449 Z0 F800
G1 X49.599 Y18.415 Z0 F800
G1 X50.316 Z0 F800
G1 X50.72 Y18.444 Z0 F800
G1 X51.133 Y18.526 Z0 F800
G1 X51.391 Y18.609 Z0 F800
G1 X51.62 Y18.709 Z0 F800
G1 X51.831 Y18.838 Z0 F800
G1 X52.033 Y19.009 Z0 F800
G1 X52.259 Y19.269 Z0 F800
G1 X52.425 Y19.541 Z0 F800
G1 X52.554 Y19.836 Z0 F800
G1 X52.672 Y20.162 Z0 F800
G1 X52.758 Y20.534 Z0 F800
G1 X52.813 Y21.018 Z0 F800
G1 X52.823 Y21.147 Z0 F800
G1 X52.818 Y21.383 Z0 F800
G1 X52.775 Y21.81 Z0 F800
G1 X52.748 Y22.02 Z0 F800
G1 X52.626 Y22.525 Z0 F800
G1 X52.444 Y23.005 Z0 F800
G1 X52.31 Y23.306 Z0 F800
G1 X52.144 Y23.594 Z0 F800
G1 X52.066 Y23.684 Z0 F800
G1 X51.997 Y23.741 Z0 F800
G1 X51.924 Y23.78 Z0 F800
G1 X51.836 Y23.817 Z0 F800
G1 X51.643 Y23.888 Z0 F800
G1 X51.47 Y23.942 Z0 F800
G1 X51.413 Y23.964 Z0 F800
G1 X51.354 Y23.981 Z0 F800
G1 X51.275 Z0 F800
G1 X51.161 Y23.954 Z0 F800
G1 X51.048 Y23.905 Z0 F800
G1 X50.963 Y23.849 Z0 F800
G1 X50.903 Y23.79 Z0 F800
G1 X50.862 Y23.735 Z0 F800
G1 X50.742 Y23.489 Z0 F800
G1 X50.664 Y23.202 Z0 F800
G1 X50.626 Y22.91 Z0 F800
G1 X50.56 Y22.583 Z0 F800
G1 X50.506 Y22.47 Z0 F800
G1 X50.342 Y22.296 Z0 F800
G1 X50.232 Y22.193 Z0 F800
G1 X50.157 Y22.117 Z0 F800
G1 X50.091 Y22.074 Z0 F800
G1 X49.979 Y22.024 Z0 F800
G1 X49.848 Y22.015 Z0 F800
G1 X49.697 Y22.05 Z0 F800
G1 X49.482 Y22.129 Z0 F800
G1 X49.275 Y22.213 Z0 F800
G1 X49.145 Y22.273 Z0 F800
G1 X49.06 Y22.324 Z0 F800
G1 X48.993 Y22.39 Z0 F800
G1 X48.913 Y22.498 Z0 F800
G1 X48.696 Y22.77 Z0 F800
G1 X48.431 Y23.061 Z0 F800
;Layer C3 Pass 2 of 2
G1 X48.696 Y22.77 Z0 F800
G1 X48.913 Y22.498 Z0 F800
G1 X48.993 Y22.39 Z0 F800
G1 X49.06 Y22.324 Z0 F800
G1 X49.145 Y22.273 Z0 F800
G1 X49.275 Y22.213 Z0 F800
G1 X49.482 Y22.129 Z0 F800
G1 X49.697 Y22.05 Z0 F800
G1 X49.848 Y22.015 Z0 F800
G1 X49.979 Y22.024 Z0 F800
G1 X50.091 Y22.074 Z0 F800
G1 X50.157 Y22.117 Z0 F800
G1 X50.232 Y22.193 Z0 F800
G1 X50.342 Y22.296 Z0 F800
G1 X50.506 Y22.47 Z0 F800
G1 X50.56 Y22.583 Z0 F800
G1 X50.626 Y22.91 Z0 F800
G1 X50.664 Y23.202 Z0 F800
G1 X50.742 Y23.489 Z0 F800
G1 X50.862 Y23.735 Z0 F800
G1 X50.903 Y23.79 Z0 F800
G1 X50.963 Y23.849 Z0 F800
G1 X51.048 Y23.905 Z0 F800
G1 X51.161 Y23.954 Z0 F800
G1 X51.275 Y23.982 Z0 F800
G1 X51.354 Z0 F800
G1 X51.413 Y23.964 Z0 F800
G1 X51.47 Y23.942 Z0 F800
G1 X51.643 Y23.888 Z0 F800
G1 X51.836 Y23.817 Z0 F800
G1 X51.924 Y23.78 Z0 F800
G1 X51.997 Y23.741 Z0 F800
G1 X52.066 Y23.684 Z0 F800
G1 X52.144 Y23.594 Z0 F800
G1 X52.31 Y23.306 Z0 F800
G1 X52.444 Y23.005 Z0 F800
G1 X52.626 Y22.525 Z0 F800
G1 X52.748 Y22.02 Z0 F800
G1 X52.775 Y21.81 Z0 F800
G1 X52.818 Y21.383 Z0 F800
G1 X52.823 Y21.147 Z0 F800
G1 X52.813 Y21.018 Z0 F800
G1 X52.758 Y20.534 Z0 F800
G1 X52.672 Y20.162 Z0 F800
G1 X52.554 Y19.836 Z0 F800
G1 X52.425 Y19.541 Z0 F800
G1 X52.259 Y19.269 Z0 F800
G1 X52.033 Y19.009 Z0 F800
G1 X51.831 Y18.838 Z0 F800
G1 X51.62 Y18.709 Z0 F800
G1 X51.391 Y18.609 Z0 F800
G1 X51.133 Y18.526 Z0 F800
G1 X50.72 Y18.444 Z0 F800
G1 X50.316 Y18.417 Z0 F800
G1 X49.599 Z0 F800
G1 X48.881 Y18.449 Z0 F800
G1 X48.454 Y18.519 Z0 F800
G1 X48.037 Y18.648 Z0 F800
G1 X47.799 Y18.754 Z0 F800
G1 X47.587 Y18.882 Z0 F800
G1 X47.466 Y18.967 Z0 F800
G1 X47.333 Y19.065 Z0 F800
G1 X47.146 Y19.23 Z0 F800
G1 X46.989 Y19.402 Z0 F800
G1 X46.857 Y19.597 Z0 F800
G1 X46.744 Y19.853 Z0 F800
G1 X46.678 Y20.13 Z0 F800
G1 X46.652 Y20.387 Z0 F800
G1 X46.631 Y20.511 Z0 F800
G1 X46.555 Y20.886 Z0 F800
G1 X46.474 Y21.175 Z0 F800
G1 X46.44 Y21.276 Z0 F800
G1 X46.404 Y21.365 Z0 F800
G1 X46.357 Y21.445 Z0 F800
G1 X46.287 Y21.518 Z0 F800
G1 X46.132 Y21.606 Z0 F800
G1 X45.954 Y21.661 Z0 F800
G1 X45.775 Y21.689 Z0 F800
G1 X45.617 Y21.657 Z0 F800
G1 X45.426 Y21.617 Z0 F800
G1 X45.223 Y21.556 Z0 F800
G1 X44.926 Y21.408 Z0 F800
G1 X44.632 Y21.182 Z0 F800
G1 X44.361 Y20.897 Z0 F800
G1 X44.114 Y20.556 Z0 F800
G1 X43.982 Y20.359 Z0 F800
G1 X43.663 Y19.996 Z0 F800
G1 X43.281 Y19.663 Z0 F800
G1 X43.112 Y19.542 Z0 F800
G1 X42.948 Y19.441 Z0 F800
G1 X42.775 Y19.357 Z0 F800
G1 X42.577 Y19.285 Z0 F800
G1 X42.438 Y19.245 Z0 F800
G1 X42.296 Y19.212 Z0 F800
G1 X42.086 Y19.168 Z0 F800
G1 X41.874 Y19.141 Z0 F800
G1 X41.632 Y19.152 Z0 F800
G1 X41.395 Y19.186 Z0 F800
G1 X41.256 Y19.203 Z0 F800
G1 X41.114 Y19.23 Z0 F800
G1 X40.921 Y19.288 Z0 F800
G1 X40.713 Y19.371 Z0 F800
G1 X40.527 Y19.47 Z0 F800
G1 X40.399 Y19.575 Z0 F800
G1 X40.312 Y19.713 Z0 F800
G1 X40.236 Y19.909 Z0 F800
G1 X40.196 Y20.049 Z0 F800
G1 X40.199 Y20.19 Z0 F800
G1 X40.241 Y20.371 Z0 F800
G1 X40.309 Y20.556 Z0 F800
G1 X40.379 Y20.694 Z0 F800
G1 X40.498 Y20.809 Z0 F800
G1 X40.674 Y20.916 Z0 F800
G1 X40.86 Y21.008 Z0 F800
G1 X41.128 Y21.104 Z0 F800
G1 X41.395 Y21.169 Z0 F800
G1 X41.748 Y21.288 Z0 F800
G1 X42.099 Y21.425 Z0 F800
G1 X42.332 Y21.527 Z0 F800
G1 X42.559 Y21.656 Z0 F800
G1 X42.774 Y21.811 Z0 F800
G1 X42.969 Y21.992 Z0 F800
G1 X43.141 Y22.195 Z0 F800
G1 X43.243 Y22.414 Z0 F800
G1 X43.301 Y22.604 Z0 F800
G1 X43.378 Y22.928 Z0 F800
G1 X43.4 Y23.034 Z0 F800
G1 X43.396 Y23.155 Z0 F800
G1 X43.354 Y23.342 Z0 F800
G1 X43.297 Y23.49 Z0 F800
G1 X43.194 Y23.619 Z0 F800
G1 X43.078 Y23.698 Z0 F800
G1 X42.943 Y23.742 Z0 F800
G1 X42.757 Y23.784 Z0 F800
G1 X42.549 Y23.821 Z0 F800
G1 X42.317 Y23.865 Z0 F800
G1 X42.155 Y23.905 Z0 F800
G0 Z3.5 F500
G0 X46.011 Y25.65 Z3.5 
G1 Z0 F500
;Layer C3 Pass 1 of 2
G1 X45.979 Y25.725 Z0 F800
G1 X45.94 Y25.847 Z0 F800
G1 X45.93 Y25.963 Z0 F800
G1 X45.94 Y26.016 Z0 F800
G1 X45.974 Y26.138 Z0 F800
G1 X46.011 Y26.241 Z0 F800
G1 X46.12 Y26.532 Z0 F800
G1 X46.32 Y27.049 Z0 F800
G1 X46.376 Y27.198 Z0 F800
G1 X46.46 Y27.41 Z0 F800
G1 X46.555 Y27.619 Z0 F800
G1 X46.677 Y27.797 Z0 F800
G1 X46.818 Y27.92 Z0 F800
G1 X46.903 Y27.984 Z0 F800
G1 X47.001 Y28.061 Z0 F800
G1 X47.114 Y28.162 Z0 F800
G1 X47.245 Y28.296 Z0 F800
G1 X47.547 Y28.659 Z0 F800
G1 X47.805 Y29.055 Z0 F800
G1 X47.89 Y29.248 Z0 F800
G1 X47.953 Y29.462 Z0 F800
G1 X47.998 Y29.677 Z0 F800
G1 X48.03 Y29.871 Z0 F800
G1 X48.053 Y30.064 Z0 F800
G1 X48.074 Y30.265 Z0 F800
G1 X48.142 Y30.702 Z0 F800
G1 X48.206 Y31.053 Z0 F800
;Layer C3 Pass 2 of 2
G1 X48.142 Y30.702 Z0 F800
G1 X48.074 Y30.265 Z0 F800
G1 X48.053 Y30.064 Z0 F800
G1 X48.03 Y29.871 Z0 F800
G1 X47.998 Y29.677 Z0 F800
G1 X47.953 Y29.462 Z0 F800
G1 X47.89 Y29.248 Z0 F800
G1 X47.805 Y29.055 Z0 F800
G1 X47.547 Y28.659 Z0 F800
G1 X47.245 Y28.296 Z0 F800
G1 X47.114 Y28.162 Z0 F800
G1 X47.001 Y28.061 Z0 F800
G1 X46.903 Y27.984 Z0 F800
G1 X46.818 Y27.92 Z0 F800
G1 X46.677 Y27.797 Z0 F800
G1 X46.555 Y27.619 Z0 F800
G1 X46.46 Y27.41 Z0 F800
G1 X46.376 Y27.198 Z0 F800
G1 X46.32 Y27.049 Z0 F800
G1 X46.12 Y26.532 Z0 F800
G1 X46.011 Y26.241 Z0 F800
G1 X45.974 Y26.138 Z0 F800
G1 X45.94 Y26.016 Z0 F800
G1 X45.93 Y25.963 Z0 F800
G1 X45.94 Y25.847 Z0 F800
G1 X45.979 Y25.725 Z0 F800
G1 X46.011 Y25.65 Z0 F800
G0 Z3.5 F500
G0 X50.006 Y34.628 Z3.5 
G1 Z0 F500
;Layer C3 Pass 1 of 2
G1 X49.944 Y34.684 Z0 F800
G1 X49.853 Y34.759 Z0 F800
G1 X49.733 Y34.852 Z0 F800
G1 X49.528 Y35.002 Z0 F800
G1 X49.325 Y35.154 Z0 F800
G1 X49.194 Y35.268 Z0 F800
G1 X49.079 Y35.433 Z0 F800
G1 X48.98 Y35.697 Z0 F800
G1 X48.946 Y36.005 Z0 F800
G1 X48.96 Y36.345 Z0 F800
G1 X48.973 Y36.462 Z0 F800
G1 X48.984 Y36.578 Z0 F800
G1 X48.991 Y36.726 Z0 F800
G1 X48.996 Y37.292 Z0 F800
G1 X48.99 Y37.639 Z0 F800
G1 X48.946 Y37.995 Z0 F800
G1 X48.839 Y38.371 Z0 F800
G1 X48.701 Y38.726 Z0 F800
G1 X48.553 Y39.046 Z0 F800
G1 X48.421 Y39.306 Z0 F800
G1 X48.314 Y39.553 Z0 F800
G1 X48.26 Y39.706 Z0 F800
G1 X48.201 Y39.862 Z0 F800
G1 X48.142 Y40.001 Z0 F800
G1 X48.106 Y40.144 Z0 F800
G1 X48.131 Y40.332 Z0 F800
G1 X48.177 Y40.538 Z0 F800
G1 X48.219 Y40.778 Z0 F800
G1 X48.269 Y40.988 Z0 F800
G1 X48.312 Y41.106 Z0 F800
G1 X48.382 Y41.209 Z0 F800
G1 X48.517 Y41.32 Z0 F800
G1 X48.654 Y41.38 Z0 F800
G1 X48.787 Y41.404 Z0 F800
G1 X48.909 Y41.408 Z0 F800
G1 X49.048 Y41.393 Z0 F800
G1 X49.382 Y41.318 Z0 F800
G1 X49.556 Y41.269 Z0 F800
G1 X49.78 Y41.169 Z0 F800
G1 X49.978 Y41.011 Z0 F800
G1 X50.203 Y40.763 Z0 F800
G1 X50.384 Y40.486 Z0 F800
G1 X50.53 Y40.191 Z0 F800
G1 X50.743 Y39.668 Z0 F800
G1 X50.822 Y39.44 Z0 F800
G1 X50.887 Y39.157 Z0 F800
G1 X50.99 Y38.877 Z0 F800
G1 X51.091 Y38.675 Z0 F800
G1 X51.208 Y38.485 Z0 F800
G1 X51.336 Y38.361 Z0 F800
G1 X51.498 Y38.287 Z0 F800
G1 X51.655 Y38.232 Z0 F800
G1 X51.808 Y38.194 Z0 F800
G1 X51.959 Z0 F800
G1 X52.117 Y38.242 Z0 F800
G1 X52.298 Y38.318 Z0 F800
G1 X52.423 Y38.404 Z0 F800
G1 X52.531 Y38.543 Z0 F800
G1 X52.629 Y38.735 Z0 F800
G1 X52.711 Y38.95 Z0 F800
G1 X52.767 Y39.159 Z0 F800
G1 X52.791 Y39.286 Z0 F800
G1 X52.842 Y39.664 Z0 F800
G1 X52.85 Y39.919 Z0 F800
G1 X52.822 Y40.125 Z0 F800
G1 X52.774 Y40.341 Z0 F800
G1 X52.736 Y40.495 Z0 F800
G1 X52.692 Y40.65 Z0 F800
G1 X52.626 Y40.83 Z0 F800
G1 X52.545 Y40.991 Z0 F800
G1 X52.447 Y41.143 Z0 F800
G1 X52.331 Y41.298 Z0 F800
G1 X51.997 Y41.67 Z0 F800
G1 X51.639 Y41.986 Z0 F800
G1 X51.543 Y42.057 Z0 F800
G1 X51.26 Y42.253 Z0 F800
G1 X51.095 Y42.373 Z0 F800
G1 X50.944 Y42.501 Z0 F800
G1 X50.807 Y42.649 Z0 F800
G1 X50.602 Y42.933 Z0 F800
G1 X50.46 Y43.211 Z0 F800
G1 X50.385 Y43.445 Z0 F800
G1 X50.341 Y43.662 Z0 F800
G1 X50.318 Y43.794 Z0 F800
G1 X50.338 Y43.943 Z0 F800
G1 X50.392 Y44.132 Z0 F800
G1 X50.496 Y44.304 Z0 F800
G1 X50.632 Y44.407 Z0 F800
G1 X50.795 Y44.474 Z0 F800
G1 X51.178 Y44.586 Z0 F800
G1 X51.583 Y44.65 Z0 F800
G1 X51.89 Y44.682 Z0 F800
G1 X52.042 Y44.71 Z0 F800
G1 X52.202 Y44.767 Z0 F800
G1 X52.461 Y44.899 Z0 F800
G1 X52.68 Y45.071 Z0 F800
G1 X52.952 Y45.365 Z0 F800
G1 X53.159 Y45.678 Z0 F800
G1 X53.321 Y46.024 Z0 F800
G1 X53.457 Y46.42 Z0 F800
G1 X53.514 Y46.655 Z0 F800
G1 X53.547 Y46.898 Z0 F800
G1 X53.583 Y47.63 Z0 F800
G1 Y48.361 Z0 F800
G1 X53.559 Y48.709 Z0 F800
G1 X53.492 Y49.065 Z0 F800
G1 X53.394 Y49.384 Z0 F800
G1 X53.269 Y49.664 Z0 F800
G1 X53.102 Y49.917 Z0 F800
G1 X52.877 Y50.159 Z0 F800
G1 X52.612 Y50.363 Z0 F800
G1 X52.321 Y50.519 Z0 F800
G1 X52.005 Y50.639 Z0 F800
G1 X51.667 Y50.736 Z0 F800
G1 X51.374 Y50.788 Z0 F800
G1 X51.076 Y50.81 Z0 F800
G1 X50.921 Y50.826 Z0 F800
G1 X50.766 Y50.837 Z0 F800
G1 X50.596 Y50.827 Z0 F800
G1 X50.429 Y50.809 Z0 F800
G1 X50.106 Y50.782 Z0 F800
G1 X49.781 Y50.715 Z0 F800
G1 X49.411 Y50.607 Z0 F800
G1 X49.05 Y50.48 Z0 F800
G1 X48.878 Y50.409 Z0 F800
G1 X48.713 Y50.333 Z0 F800
G1 X48.558 Y50.23 Z0 F800
G1 X48.451 Y50.118 Z0 F800
G1 X48.373 Y49.993 Z0 F800
G1 X48.306 Y49.853 Z0 F800
G1 X48.229 Y49.656 Z0 F800
G1 X48.169 Y49.459 Z0 F800
G1 X48.147 Y49.381 Z0 F800
G1 X48.14 Y49.317 Z0 F800
G1 X48.151 Y49.246 Z0 F800
G1 X48.186 Y49.149 Z0 F800
G1 X48.25 Y49.002 Z0 F800
G1 X48.305 Y48.901 Z0 F800
G1 X48.37 Y48.83 Z0 F800
G1 X48.46 Y48.769 Z0 F800
G1 X48.658 Y48.703 Z0 F800
G1 X49.111 Y48.623 Z0 F800
G1 X49.359 Y48.572 Z0 F800
G1 X49.478 Y48.532 Z0 F800
G1 X49.546 Y48.49 Z0 F800
G1 X49.584 Y48.45 Z0 F800
G1 X49.613 Y48.416 Z0 F800
G1 X49.725 Y48.307 Z0 F800
G1 X49.83 Y48.193 Z0 F800
G1 X49.888 Y48.127 Z0 F800
G1 X49.96 Y47.996 Z0 F800
G1 X49.975 Y47.864 Z0 F800
G1 X49.938 Y47.714 Z0 F800
G1 X49.852 Y47.483 Z0 F800
G1 X49.759 Y47.264 Z0 F800
G1 X49.657 Y47.085 Z0 F800
G1 X49.5 Y46.936 Z0 F800
G1 X49.233 Y46.711 Z0 F800
G1 X48.965 Y46.448 Z0 F800
;Layer C3 Pass 2 of 2
G1 X49.233 Y46.711 Z0 F800
G1 X49.5 Y46.936 Z0 F800
G1 X49.657 Y47.085 Z0 F800
G1 X49.759 Y47.264 Z0 F800
G1 X49.852 Y47.483 Z0 F800
G1 X49.938 Y47.714 Z0 F800
G1 X49.975 Y47.864 Z0 F800
G1 X49.96 Y47.996 Z0 F800
G1 X49.888 Y48.127 Z0 F800
G1 X49.83 Y48.193 Z0 F800
G1 X49.725 Y48.307 Z0 F800
G1 X49.613 Y48.416 Z0 F800
G1 X49.584 Y48.45 Z0 F800
G1 X49.546 Y48.49 Z0 F800
G1 X49.478 Y48.532 Z0 F800
G1 X49.359 Y48.572 Z0 F800
G1 X49.111 Y48.623 Z0 F800
G1 X48.658 Y48.703 Z0 F800
G1 X48.46 Y48.769 Z0 F800
G1 X48.37 Y48.83 Z0 F800
G1 X48.305 Y48.901 Z0 F800
G1 X48.25 Y49.002 Z0 F800
G1 X48.186 Y49.149 Z0 F800
G1 X48.151 Y49.246 Z0 F800
G1 X48.14 Y49.317 Z0 F800
G1 X48.147 Y49.381 Z0 F800
G1 X48.169 Y49.459 Z0 F800
G1 X48.229 Y49.656 Z0 F800
G1 X48.306 Y49.853 Z0 F800
G1 X48.373 Y49.993 Z0 F800
G1 X48.451 Y50.118 Z0 F800
G1 X48.558 Y50.23 Z0 F800
G1 X48.713 Y50.333 Z0 F800
G1 X48.878 Y50.409 Z0 F800
G1 X49.05 Y50.48 Z0 F800
G1 X49.411 Y50.607 Z0 F800
G1 X49.781 Y50.715 Z0 F800
G1 X50.106 Y50.782 Z0 F800
G1 X50.429 Y50.809 Z0 F800
G1 X50.596 Y50.827 Z0 F800
G1 X50.766 Y50.837 Z0 F800
G1 X50.921 Y50.826 Z0 F800
G1 X51.076 Y50.81 Z0 F800
G1 X51.374 Y50.788 Z0 F800
G1 X51.667 Y50.736 Z0 F800
G1 X52.005 Y50.639 Z0 F800
G1 X52.321 Y50.519 Z0 F800
G1 X52.612 Y50.363 Z0 F800
G1 X52.877 Y50.159 Z0 F800
G1 X53.102 Y49.917 Z0 F800
G1 X53.269 Y49.664 Z0 F800
G1 X53.394 Y49.384 Z0 F800
G1 X53.492 Y49.065 Z0 F800
G1 X53.559 Y48.709 Z0 F800
G1 X53.581 Y48.361 Z0 F800
G1 Y47.63 Z0 F800
G1 X53.547 Y46.898 Z0 F800
G1 X53.514 Y46.655 Z0 F800
G1 X53.457 Y46.42 Z0 F800
G1 X53.321 Y46.024 Z0 F800
G1 X53.159 Y45.678 Z0 F800
G1 X52.952 Y45.365 Z0 F800
G1 X52.68 Y45.071 Z0 F800
G1 X52.461 Y44.899 Z0 F800
G1 X52.202 Y44.767 Z0 F800
G1 X52.042 Y44.71 Z0 F800
G1 X51.89 Y44.682 Z0 F800
G1 X51.583 Y44.65 Z0 F800
G1 X51.178 Y44.586 Z0 F800
G1 X50.795 Y44.474 Z0 F800
G1 X50.632 Y44.407 Z0 F800
G1 X50.496 Y44.304 Z0 F800
G1 X50.392 Y44.132 Z0 F800
G1 X50.338 Y43.943 Z0 F800
G1 X50.318 Y43.794 Z0 F800
G1 X50.341 Y43.662 Z0 F800
G1 X50.385 Y43.445 Z0 F800
G1 X50.46 Y43.211 Z0 F800
G1 X50.602 Y42.933 Z0 F800
G1 X50.807 Y42.649 Z0 F800
G1 X50.944 Y42.501 Z0 F800
G1 X51.095 Y42.373 Z0 F800
G1 X51.26 Y42.253 Z0 F800
G1 X51.543 Y42.057 Z0 F800
G1 X51.639 Y41.986 Z0 F800
G1 X51.997 Y41.67 Z0 F800
G1 X52.331 Y41.298 Z0 F800
G1 X52.447 Y41.143 Z0 F800
G1 X52.545 Y40.991 Z0 F800
G1 X52.626 Y40.83 Z0 F800
G1 X52.692 Y40.65 Z0 F800
G1 X52.736 Y40.495 Z0 F800
G1 X52.774 Y40.341 Z0 F800
G1 X52.822 Y40.125 Z0 F800
G1 X52.85 Y39.919 Z0 F800
G1 X52.842 Y39.664 Z0 F800
G1 X52.791 Y39.286 Z0 F800
G1 X52.767 Y39.159 Z0 F800
G1 X52.711 Y38.95 Z0 F800
G1 X52.629 Y38.735 Z0 F800
G1 X52.531 Y38.543 Z0 F800
G1 X52.423 Y38.404 Z0 F800
G1 X52.298 Y38.318 Z0 F800
G1 X52.117 Y38.242 Z0 F800
G1 X51.959 Y38.192 Z0 F800
G1 X51.808 Z0 F800
G1 X51.655 Y38.232 Z0 F800
G1 X51.498 Y38.287 Z0 F800
G1 X51.336 Y38.361 Z0 F800
G1 X51.208 Y38.485 Z0 F800
G1 X51.091 Y38.675 Z0 F800
G1 X50.99 Y38.877 Z0 F800
G1 X50.887 Y39.157 Z0 F800
G1 X50.822 Y39.44 Z0 F800
G1 X50.743 Y39.668 Z0 F800
G1 X50.53 Y40.191 Z0 F800
G1 X50.384 Y40.486 Z0 F800
G1 X50.203 Y40.763 Z0 F800
G1 X49.978 Y41.011 Z0 F800
G1 X49.78 Y41.169 Z0 F800
G1 X49.556 Y41.269 Z0 F800
G1 X49.382 Y41.318 Z0 F800
G1 X49.048 Y41.393 Z0 F800
G1 X48.909 Y41.408 Z0 F800
G1 X48.787 Y41.404 Z0 F800
G1 X48.654 Y41.38 Z0 F800
G1 X48.517 Y41.32 Z0 F800
G1 X48.382 Y41.209 Z0 F800
G1 X48.312 Y41.106 Z0 F800
G1 X48.269 Y40.988 Z0 F800
G1 X48.219 Y40.778 Z0 F800
G1 X48.177 Y40.538 Z0 F800
G1 X48.131 Y40.332 Z0 F800
G1 X48.106 Y40.144 Z0 F800
G1 X48.142 Y40.001 Z0 F800
G1 X48.201 Y39.862 Z0 F800
G1 X48.26 Y39.706 Z0 F800
G1 X48.314 Y39.553 Z0 F800
G1 X48.421 Y39.306 Z0 F800
G1 X48.553 Y39.046 Z0 F800
G1 X48.701 Y38.726 Z0 F800
G1 X48.839 Y38.371 Z0 F800
G1 X48.946 Y37.995 Z0 F800
G1 X48.99 Y37.639 Z0 F800
G1 X48.996 Y37.292 Z0 F800
G1 X48.991 Y36.726 Z0 F800
G1 X48.984 Y36.578 Z0 F800
G1 X48.973 Y36.462 Z0 F800
G1 X48.96 Y36.345 Z0 F800
G1 X48.946 Y36.005 Z0 F800
G1 X48.98 Y35.697 Z0 F800
G1 X49.079 Y35.433 Z0 F800
G1 X49.194 Y35.268 Z0 F800
G1 X49.325 Y35.154 Z0 F800
G1 X49.528 Y35.002 Z0 F800
G1 X49.733 Y34.852 Z0 F800
G1 X49.853 Y34.759 Z0 F800
G1 X49.944 Y34.684 Z0 F800
G1 X50.006 Y34.628 Z0 F800
G0 Z3.5 F500
G0 X46.376 Y44.027 Z3.5 
G1 Z0 F500
;Layer C3 Pass 1 of 2
G1 X46.28 Y43.982 Z0 F800
G1 X46.123 Y43.933 Z0 F800
G1 X46.008 Y43.93 Z0 F800
G1 X45.832 Y43.982 Z0 F800
G1 X45.729 Y44.018 Z0 F800
G1 X45.475 Y44.115 Z0 F800
G1 X45.222 Y44.215 Z0 F800
G1 X45.088 Y44.264 Z0 F800
G1 X44.856 Y44.352 Z0 F800
G1 X44.641 Y44.436 Z0 F800
G1 X44.406 Y44.54 Z0 F800
G1 X44.232 Y44.662 Z0 F800
G1 X44.096 Y44.818 Z0 F800
G1 X44.021 Y44.912 Z0 F800
G1 X43.932 Y45.018 Z0 F800
G1 X43.819 Y45.139 Z0 F800
G1 X43.674 Y45.274 Z0 F800
G1 X43.326 Y45.56 Z0 F800
G1 X42.943 Y45.809 Z0 F800
G1 X42.759 Y45.892 Z0 F800
G1 X42.559 Y45.958 Z0 F800
G1 X42.36 Y46.005 Z0 F800
G1 X42.183 Y46.031 Z0 F800
G1 X41.969 Y46.054 Z0 F800
G1 X41.523 Y46.116 Z0 F800
G1 X41.36 Y46.14 Z0 F800
G1 X41.235 Y46.161 Z0 F800
G1 X41.142 Y46.182 Z0 F800
G1 X41.085 Y46.193 Z0 F800
G1 X40.982 Y46.228 Z0 F800
G1 X40.918 Y46.278 Z0 F800
G1 X40.881 Y46.351 Z0 F800
G1 X40.862 Y46.399 Z0 F800
G1 X40.84 Y46.473 Z0 F800
G1 X40.811 Y46.588 Z0 F800
G1 X40.779 Y46.789 Z0 F800
G1 X40.776 Y47.011 Z0 F800
G1 X40.757 Y47.236 Z0 F800
G1 X40.748 Y47.461 Z0 F800
G1 X40.796 Y47.692 Z0 F800
G1 X40.888 Y47.939 Z0 F800
G1 X41.001 Y48.13 Z0 F800
G1 X41.151 Y48.259 Z0 F800
G1 X41.324 Y48.338 Z0 F800
G1 X41.507 Y48.383 Z0 F800
G1 X41.64 Y48.404 Z0 F800
G1 X41.789 Y48.417 Z0 F800
G1 X41.974 Y48.408 Z0 F800
G1 X42.155 Y48.392 Z0 F800
G1 X42.38 Y48.367 Z0 F800
G1 X42.531 Y48.353 Z0 F800
G1 X42.689 Y48.325 Z0 F800
G1 X42.929 Y48.245 Z0 F800
G1 X43.168 Y48.156 Z0 F800
G1 X43.359 Y48.078 Z0 F800
G1 X43.534 Y47.974 Z0 F800
G1 X43.669 Y47.885 Z0 F800
G1 X43.815 Y47.806 Z0 F800
G1 X44.039 Y47.7 Z0 F800
G1 X44.265 Y47.62 Z0 F800
G1 X44.418 Y47.589 Z0 F800
G1 X44.575 Y47.562 Z0 F800
G1 X44.699 Y47.543 Z0 F800
G1 X44.8 Y47.531 Z0 F800
G1 X44.939 Z0 F800
G1 X45.104 Y47.56 Z0 F800
G1 X45.269 Y47.642 Z0 F800
G1 X45.406 Y47.799 Z0 F800
G1 X45.484 Y47.983 Z0 F800
G1 X45.498 Y48.126 Z0 F800
G1 X45.476 Y48.253 Z0 F800
G1 X45.447 Y48.389 Z0 F800
G1 X45.408 Y48.608 Z0 F800
G1 X45.35 Y48.868 Z0 F800
G1 X45.22 Y49.151 Z0 F800
G1 X45.047 Y49.403 Z0 F800
G1 X44.933 Y49.538 Z0 F800
G1 X44.801 Y49.668 Z0 F800
G1 X44.596 Y49.862 Z0 F800
G1 X44.378 Y50.031 Z0 F800
G1 X44.157 Y50.137 Z0 F800
G1 X43.91 Y50.208 Z0 F800
G1 X43.651 Y50.252 Z0 F800
G1 X43.393 Y50.278 Z0 F800
G1 X43.008 Y50.313 Z0 F800
G1 X42.633 Y50.323 Z0 F800
G1 X42.388 Y50.294 Z0 F800
G1 X42.127 Y50.25 Z0 F800
G1 X41.769 Y50.186 Z0 F800
G1 X41.423 Y50.182 Z0 F800
G1 X40.999 Y50.225 Z0 F800
G1 X40.635 Y50.298 Z0 F800
G1 X40.493 Y50.354 Z0 F800
G1 X40.353 Y50.423 Z0 F800
G1 X40.228 Y50.515 Z0 F800
G1 X40.135 Y50.641 Z0 F800
G1 X40.069 Y50.8 Z0 F800
G1 X40.031 Y50.955 Z0 F800
G1 X40.022 Y51.107 Z0 F800
G1 X40.041 Y51.26 Z0 F800
G1 X40.077 Y51.412 Z0 F800
G1 X40.13 Y51.57 Z0 F800
G1 X40.218 Y51.74 Z0 F800
G1 X40.336 Y51.897 Z0 F800
G1 X40.468 Y52.052 Z0 F800
G1 X40.597 Y52.217 Z0 F800
G1 X40.738 Y52.431 Z0 F800
G1 X40.844 Y52.667 Z0 F800
G1 X40.921 Y52.922 Z0 F800
G1 X40.951 Y53.174 Z0 F800
G1 X40.941 Y53.515 Z0 F800
G1 X40.909 Y53.849 Z0 F800
G1 X40.849 Y54.143 Z0 F800
G1 X40.75 Y54.44 Z0 F800
G1 X40.631 Y54.659 Z0 F800
G1 X40.493 Y54.862 Z0 F800
G1 X40.32 Y55.101 Z0 F800
G1 X40.129 Y55.327 Z0 F800
G1 X39.928 Y55.545 Z0 F800
G1 X39.722 Y55.757 Z0 F800
G1 X39.487 Y56.005 Z0 F800
G1 X39.248 Y56.249 Z0 F800
G1 X38.996 Y56.472 Z0 F800
G1 X38.721 Y56.656 Z0 F800
G1 X38.439 Y56.79 Z0 F800
G1 X38.178 Y56.871 Z0 F800
G1 X37.915 Y56.914 Z0 F800
G1 X37.624 Y56.933 Z0 F800
G1 X37.354 Y56.925 Z0 F800
G1 X37.082 Y56.883 Z0 F800
G1 X36.82 Y56.811 Z0 F800
G1 X36.582 Y56.713 Z0 F800
G1 X36.423 Y56.632 Z0 F800
G1 X36.273 Y56.545 Z0 F800
G1 X36.075 Y56.421 Z0 F800
G1 X35.879 Y56.294 Z0 F800
G1 X35.62 Y56.084 Z0 F800
G1 X35.378 Y55.844 Z0 F800
G1 X35.156 Y55.552 Z0 F800
G1 X34.966 Y55.228 Z0 F800
G1 X34.755 Y54.855 Z0 F800
G1 X34.573 Y54.468 Z0 F800
G1 X34.488 Y54.196 Z0 F800
G1 X34.432 Y53.934 Z0 F800
G1 X34.41 Y53.708 Z0 F800
G1 X34.39 Y53.563 Z0 F800
G1 X34.372 Y53.455 Z0 F800
G1 X34.36 Y53.325 Z0 F800
G1 Y53.191 Z0 F800
G1 X34.379 Y53.07 Z0 F800
G1 X34.415 Y52.978 Z0 F800
G1 X34.434 Y52.945 Z0 F800
G1 X34.465 Y52.903 Z0 F800
G1 X34.521 Y52.86 Z0 F800
G1 X34.613 Y52.823 Z0 F800
G1 X34.736 Y52.809 Z0 F800
G1 X34.809 Y52.817 Z0 F800
G1 X34.931 Y52.837 Z0 F800
G1 X35.207 Y52.901 Z0 F800
G1 X35.288 Y52.915 Z0 F800
G1 X35.568 Y52.977 Z0 F800
G1 X35.879 Y53.049 Z0 F800
G1 X35.999 Y53.071 Z0 F800
G1 X36.132 Y53.105 Z0 F800
G1 X36.691 Y53.29 Z0 F800
G1 X36.976 Y53.392 Z0 F800
G1 X37.072 Y53.421 Z0 F800
G1 X37.173 Y53.44 Z0 F800
G1 X37.208 Y53.445 Z0 F800
G1 X37.285 Y53.435 Z0 F800
G1 X37.377 Y53.387 Z0 F800
G1 X37.412 Y53.312 Z0 F800
G1 Y53.174 Z0 F800
G1 X37.399 Y53.005 Z0 F800
G1 Y52.47 Z0 F800
G1 X37.384 Y52.247 Z0 F800
G1 X37.342 Y51.964 Z0 F800
;Layer C3 Pass 2 of 2
G1 X37.384 Y52.247 Z0 F800
G1 X37.399 Y52.47 Z0 F800
G1 Y53.005 Z0 F800
G1 X37.412 Y53.174 Z0 F800
G1 Y53.312 Z0 F800
G1 X37.377 Y53.387 Z0 F800
G1 X37.285 Y53.435 Z0 F800
G1 X37.208 Y53.445 Z0 F800
G1 X37.173 Y53.44 Z0 F800
G1 X37.072 Y53.421 Z0 F800
G1 X36.976 Y53.392 Z0 F800
G1 X36.691 Y53.29 Z0 F800
G1 X36.132 Y53.105 Z0 F800
G1 X35.999 Y53.071 Z0 F800
G1 X35.879 Y53.049 Z0 F800
G1 X35.568 Y52.977 Z0 F800
G1 X35.288 Y52.915 Z0 F800
G1 X35.207 Y52.901 Z0 F800
G1 X34.931 Y52.837 Z0 F800
G1 X34.809 Y52.817 Z0 F800
G1 X34.736 Y52.809 Z0 F800
G1 X34.613 Y52.823 Z0 F800
G1 X34.521 Y52.86 Z0 F800
G1 X34.465 Y52.903 Z0 F800
G1 X34.434 Y52.945 Z0 F800
G1 X34.415 Y52.978 Z0 F800
G1 X34.379 Y53.07 Z0 F800
G1 X34.361 Y53.191 Z0 F800
G1 Y53.325 Z0 F800
G1 X34.372 Y53.455 Z0 F800
G1 X34.39 Y53.563 Z0 F800
G1 X34.41 Y53.708 Z0 F800
G1 X34.432 Y53.934 Z0 F800
G1 X34.488 Y54.196 Z0 F800
G1 X34.573 Y54.468 Z0 F800
G1 X34.755 Y54.855 Z0 F800
G1 X34.966 Y55.228 Z0 F800
G1 X35.156 Y55.552 Z0 F800
G1 X35.378 Y55.844 Z0 F800
G1 X35.62 Y56.084 Z0 F800
G1 X35.879 Y56.294 Z0 F800
G1 X36.075 Y56.421 Z0 F800
G1 X36.273 Y56.545 Z0 F800
G1 X36.423 Y56.632 Z0 F800
G1 X36.582 Y56.713 Z0 F800
G1 X36.82 Y56.811 Z0 F800
G1 X37.082 Y56.883 Z0 F800
G1 X37.354 Y56.925 Z0 F800
G1 X37.624 Y56.933 Z0 F800
G1 X37.915 Y56.914 Z0 F800
G1 X38.178 Y56.871 Z0 F800
G1 X38.439 Y56.79 Z0 F800
G1 X38.721 Y56.656 Z0 F800
G1 X38.996 Y56.472 Z0 F800
G1 X39.248 Y56.249 Z0 F800
G1 X39.487 Y56.005 Z0 F800
G1 X39.722 Y55.757 Z0 F800
G1 X39.928 Y55.545 Z0 F800
G1 X40.129 Y55.327 Z0 F800
G1 X40.32 Y55.101 Z0 F800
G1 X40.493 Y54.862 Z0 F800
G1 X40.631 Y54.659 Z0 F800
G1 X40.75 Y54.44 Z0 F800
G1 X40.849 Y54.143 Z0 F800
G1 X40.909 Y53.849 Z0 F800
G1 X40.941 Y53.515 Z0 F800
G1 X40.951 Y53.174 Z0 F800
G1 X40.921 Y52.922 Z0 F800
G1 X40.844 Y52.667 Z0 F800
G1 X40.738 Y52.431 Z0 F800
G1 X40.597 Y52.217 Z0 F800
G1 X40.468 Y52.052 Z0 F800
G1 X40.336 Y51.897 Z0 F800
G1 X40.218 Y51.74 Z0 F800
G1 X40.13 Y51.57 Z0 F800
G1 X40.077 Y51.412 Z0 F800
G1 X40.041 Y51.26 Z0 F800
G1 X40.022 Y51.107 Z0 F800
G1 X40.031 Y50.955 Z0 F800
G1 X40.069 Y50.8 Z0 F800
G1 X40.135 Y50.641 Z0 F800
G1 X40.228 Y50.515 Z0 F800
G1 X40.353 Y50.423 Z0 F800
G1 X40.493 Y50.354 Z0 F800
G1 X40.635 Y50.298 Z0 F800
G1 X40.999 Y50.225 Z0 F800
G1 X41.423 Y50.182 Z0 F800
G1 X41.769 Y50.186 Z0 F800
G1 X42.127 Y50.25 Z0 F800
G1 X42.388 Y50.294 Z0 F800
G1 X42.633 Y50.323 Z0 F800
G1 X43.008 Y50.313 Z0 F800
G1 X43.393 Y50.278 Z0 F800
G1 X43.651 Y50.252 Z0 F800
G1 X43.91 Y50.208 Z0 F800
G1 X44.157 Y50.137 Z0 F800
G1 X44.378 Y50.031 Z0 F800
G1 X44.596 Y49.862 Z0 F800
G1 X44.801 Y49.668 Z0 F800
G1 X44.933 Y49.538 Z0 F800
G1 X45.047 Y49.403 Z0 F800
G1 X45.22 Y49.151 Z0 F800
G1 X45.35 Y48.868 Z0 F800
G1 X45.408 Y48.608 Z0 F800
G1 X45.447 Y48.389 Z0 F800
G1 X45.476 Y48.253 Z0 F800
G1 X45.498 Y48.126 Z0 F800
G1 X45.484 Y47.983 Z0 F800
G1 X45.406 Y47.799 Z0 F800
G1 X45.269 Y47.642 Z0 F800
G1 X45.104 Y47.56 Z0 F800
G1 X44.939 Y47.53 Z0 F800
G1 X44.8 Z0 F800
G1 X44.699 Y47.543 Z0 F800
G1 X44.575 Y47.562 Z0 F800
G1 X44.418 Y47.589 Z0 F800
G1 X44.265 Y47.62 Z0 F800
G1 X44.039 Y47.7 Z0 F800
G1 X43.815 Y47.806 Z0 F800
G1 X43.669 Y47.885 Z0 F800
G1 X43.534 Y47.974 Z0 F800
G1 X43.359 Y48.078 Z0 F800
G1 X43.168 Y48.156 Z0 F800
G1 X42.929 Y48.245 Z0 F800
G1 X42.689 Y48.325 Z0 F800
G1 X42.531 Y48.353 Z0 F800
G1 X42.38 Y48.367 Z0 F800
G1 X42.155 Y48.392 Z0 F800
G1 X41.974 Y48.408 Z0 F800
G1 X41.789 Y48.417 Z0 F800
G1 X41.64 Y48.404 Z0 F800
G1 X41.507 Y48.383 Z0 F800
G1 X41.324 Y48.338 Z0 F800
G1 X41.151 Y48.259 Z0 F800
G1 X41.001 Y48.13 Z0 F800
G1 X40.888 Y47.939 Z0 F800
G1 X40.796 Y47.692 Z0 F800
G1 X40.748 Y47.461 Z0 F800
G1 X40.757 Y47.236 Z0 F800
G1 X40.776 Y47.011 Z0 F800
G1 X40.779 Y46.789 Z0 F800
G1 X40.811 Y46.588 Z0 F800
G1 X40.84 Y46.473 Z0 F800
G1 X40.862 Y46.399 Z0 F800
G1 X40.881 Y46.351 Z0 F800
G1 X40.918 Y46.278 Z0 F800
G1 X40.982 Y46.228 Z0 F800
G1 X41.085 Y46.193 Z0 F800
G1 X41.142 Y46.182 Z0 F800
G1 X41.235 Y46.161 Z0 F800
G1 X41.36 Y46.14 Z0 F800
G1 X41.523 Y46.116 Z0 F800
G1 X41.969 Y46.054 Z0 F800
G1 X42.183 Y46.031 Z0 F800
G1 X42.36 Y46.005 Z0 F800
G1 X42.559 Y45.958 Z0 F800
G1 X42.759 Y45.892 Z0 F800
G1 X42.943 Y45.809 Z0 F800
G1 X43.326 Y45.56 Z0 F800
G1 X43.674 Y45.274 Z0 F800
G1 X43.819 Y45.139 Z0 F800
G1 X43.932 Y45.018 Z0 F800
G1 X44.021 Y44.912 Z0 F800
G1 X44.096 Y44.818 Z0 F800
G1 X44.232 Y44.662 Z0 F800
G1 X44.406 Y44.54 Z0 F800
G1 X44.641 Y44.436 Z0 F800
G1 X44.856 Y44.352 Z0 F800
G1 X45.088 Y44.264 Z0 F800
G1 X45.222 Y44.215 Z0 F800
G1 X45.475 Y44.115 Z0 F800
G1 X45.729 Y44.018 Z0 F800
G1 X45.832 Y43.982 Z0 F800
G1 X46.008 Y43.93 Z0 F800
G1 X46.123 Y43.933 Z0 F800
G1 X46.28 Y43.982 Z0 F800
G1 X46.376 Y44.027 Z0 F800
G0 Z3.5 F500
G0 X37.371 Y48.024 Z3.5 
G1 Z0 F500
;Layer C3 Pass 1 of 2
G1 X37.02 Y47.578 Z0 F800
G1 X36.873 Y47.398 Z0 F800
G1 X36.688 Y47.2 Z0 F800
G1 X36.584 Y47.105 Z0 F800
G1 X36.513 Y47.062 Z0 F800
G1 X36.423 Y47.021 Z0 F800
G1 X36.307 Y46.986 Z0 F800
G1 X36.16 Y46.956 Z0 F800
G1 X35.911 Y46.945 Z0 F800
G1 X35.654 Y46.96 Z0 F800
G1 X35.491 Y46.973 Z0 F800
G1 X35.315 Y46.98 Z0 F800
G1 X35.098 Z0 F800
G1 X34.81 Z0 F800
G1 X34.468 Y46.985 Z0 F800
G1 X34.185 Y46.979 Z0 F800
G1 X33.92 Y46.941 Z0 F800
G1 X33.628 Y46.849 Z0 F800
G1 X33.287 Y46.712 Z0 F800
G1 X32.98 Y46.571 Z0 F800
G1 X32.672 Y46.417 Z0 F800
G1 X32.389 Y46.296 Z0 F800
G1 X32.094 Y46.184 Z0 F800
G1 X31.883 Y46.082 Z0 F800
;Layer C3 Pass 2 of 2
G1 X32.094 Y46.184 Z0 F800
G1 X32.389 Y46.296 Z0 F800
G1 X32.672 Y46.417 Z0 F800
G1 X32.98 Y46.571 Z0 F800
G1 X33.287 Y46.712 Z0 F800
G1 X33.628 Y46.849 Z0 F800
G1 X33.92 Y46.941 Z0 F800
G1 X34.185 Y46.979 Z0 F800
G1 X34.468 Y46.985 Z0 F800
G1 X34.81 Y46.982 Z0 F800
G1 X35.098 Z0 F800
G1 X35.315 Z0 F800
G1 X35.491 Y46.973 Z0 F800
G1 X35.654 Y46.96 Z0 F800
G1 X35.911 Y46.945 Z0 F800
G1 X36.16 Y46.956 Z0 F800
G1 X36.307 Y46.986 Z0 F800
G1 X36.423 Y47.021 Z0 F800
G1 X36.513 Y47.062 Z0 F800
G1 X36.584 Y47.105 Z0 F800
G1 X36.688 Y47.2 Z0 F800
G1 X36.873 Y47.398 Z0 F800
G1 X37.02 Y47.578 Z0 F800
G1 X37.371 Y48.024 Z0 F800
G0 Z3.5 F500
G0 X27.971 Y44.365 Z3.5 
G1 Z0 F500
;Layer C3 Pass 1 of 2
G1 X28.022 Y44.236 Z0 F800
G1 X28.048 Y44.124 Z0 F800
G1 X28.051 Y44.028 Z0 F800
G1 X28.036 Y43.943 Z0 F800
G1 X27.984 Y43.78 Z0 F800
G1 X27.93 Y43.633 Z0 F800
G1 X27.751 Y43.183 Z0 F800
G1 X27.635 Y42.874 Z0 F800
G1 X27.545 Y42.644 Z0 F800
G1 X27.434 Y42.395 Z0 F800
G1 X27.359 Y42.271 Z0 F800
G1 X27.27 Y42.17 Z0 F800
G1 X27.152 Y42.068 Z0 F800
G1 X26.986 Y41.938 Z0 F800
G1 X26.81 Y41.784 Z0 F800
G1 X26.654 Y41.619 Z0 F800
G1 X26.518 Y41.454 Z0 F800
G1 X26.4 Y41.298 Z0 F800
G1 X26.303 Y41.147 Z0 F800
G1 X26.198 Y40.96 Z0 F800
G1 X26.048 Y40.588 Z0 F800
G1 X25.971 Y40.228 Z0 F800
G1 X25.954 Y40.044 Z0 F800
G1 X25.928 Y39.834 Z0 F800
G1 X25.869 Y39.403 Z0 F800
G1 X25.846 Y39.256 Z0 F800
G1 X25.827 Y39.159 Z0 F800
G1 X25.808 Y39.102 Z0 F800
G1 Y38.99 Z0 F800
G1 X25.837 Y38.917 Z0 F800
G1 X25.867 Y38.881 Z0 F800
G1 X25.947 Y38.803 Z0 F800
G1 X26.029 Y38.731 Z0 F800
G1 X26.148 Y38.592 Z0 F800
G1 X26.351 Y38.282 Z0 F800
G1 X26.443 Y38.145 Z0 F800
G1 X26.555 Y37.988 Z0 F800
G1 X26.692 Y37.808 Z0 F800
G1 X27.07 Y37.358 Z0 F800
G1 X27.182 Y37.207 Z0 F800
G1 X27.284 Y37.048 Z0 F800
G1 X27.427 Y36.798 Z0 F800
G1 X27.544 Y36.541 Z0 F800
G1 X27.621 Y36.32 Z0 F800
G1 X27.677 Y36.105 Z0 F800
G1 X27.705 Y35.883 Z0 F800
G1 X27.696 Y35.641 Z0 F800
G1 X27.642 Y35.269 Z0 F800
G1 X27.541 Y34.881 Z0 F800
G1 X27.469 Y34.64 Z0 F800
G1 X27.418 Y34.425 Z0 F800
G1 X27.385 Y34.205 Z0 F800
G1 X27.369 Y33.952 Z0 F800
G1 X27.375 Y33.761 Z0 F800
G1 X27.402 Y33.555 Z0 F800
G1 X27.449 Y33.358 Z0 F800
G1 X27.516 Y33.193 Z0 F800
G1 X27.723 Y32.883 Z0 F800
G1 X27.971 Y32.602 Z0 F800
G1 X28.275 Y32.315 Z0 F800
G1 X28.591 Y32.063 Z0 F800
G1 X28.927 Y31.837 Z0 F800
G1 X29.294 Y31.631 Z0 F800
G1 X29.634 Y31.477 Z0 F800
G1 X29.987 Y31.352 Z0 F800
G1 X30.345 Y31.247 Z0 F800
G1 X31.067 Y31.054 Z0 F800
G1 X31.409 Y30.947 Z0 F800
G1 X31.742 Y30.805 Z0 F800
G1 X31.981 Y30.661 Z0 F800
G1 X32.19 Y30.489 Z0 F800
G1 X32.378 Y30.261 Z0 F800
G1 X32.534 Y30.024 Z0 F800
G1 X32.687 Y29.808 Z0 F800
G1 X32.868 Y29.644 Z0 F800
G1 X33 Y29.574 Z0 F800
G1 X33.106 Y29.541 Z0 F800
G1 X33.213 Y29.525 Z0 F800
G1 X33.519 Y29.485 Z0 F800
G1 X33.655 Y29.494 Z0 F800
G1 X33.792 Y29.54 Z0 F800
G1 X33.965 Y29.628 Z0 F800
G1 X34.141 Y29.779 Z0 F800
G1 X34.269 Y29.984 Z0 F800
G1 X34.316 Y30.151 Z0 F800
G1 X34.339 Y30.354 Z0 F800
G1 X34.344 Y30.568 Z0 F800
G1 X34.334 Y30.772 Z0 F800
G1 X34.314 Y30.965 Z0 F800
G1 X34.281 Y31.138 Z0 F800
G1 X34.107 Y31.519 Z0 F800
G1 X33.911 Y31.898 Z0 F800
G1 X33.843 Y32.091 Z0 F800
G1 X33.748 Y32.388 Z0 F800
G1 X33.725 Y32.467 Z0 F800
G1 X33.713 Y32.521 Z0 F800
G1 X33.707 Y32.573 Z0 F800
G1 Y32.647 Z0 F800
G1 X33.74 Y32.798 Z0 F800
G1 X33.781 Y32.9 Z0 F800
G1 X33.825 Y32.967 Z0 F800
G1 X33.869 Y33.01 Z0 F800
G1 X33.91 Y33.038 Z0 F800
G1 X34.118 Y33.109 Z0 F800
G1 X34.359 Y33.145 Z0 F800
G1 X34.48 Y33.158 Z0 F800
G1 X34.641 Y33.164 Z0 F800
;Layer C3 Pass 2 of 2
G1 X34.48 Y33.158 Z0 F800
G1 X34.359 Y33.145 Z0 F800
G1 X34.118 Y33.109 Z0 F800
G1 X33.91 Y33.038 Z0 F800
G1 X33.869 Y33.01 Z0 F800
G1 X33.825 Y32.967 Z0 F800
G1 X33.781 Y32.9 Z0 F800
G1 X33.74 Y32.798 Z0 F800
G1 X33.705 Y32.647 Z0 F800
G1 Y32.573 Z0 F800
G1 X33.713 Y32.521 Z0 F800
G1 X33.725 Y32.467 Z0 F800
G1 X33.748 Y32.388 Z0 F800
G1 X33.843 Y32.091 Z0 F800
G1 X33.911 Y31.898 Z0 F800
G1 X34.107 Y31.519 Z0 F800
G1 X34.281 Y31.138 Z0 F800
G1 X34.314 Y30.965 Z0 F800
G1 X34.334 Y30.772 Z0 F800
G1 X34.344 Y30.568 Z0 F800
G1 X34.339 Y30.354 Z0 F800
G1 X34.316 Y30.151 Z0 F800
G1 X34.269 Y29.984 Z0 F800
G1 X34.141 Y29.779 Z0 F800
G1 X33.965 Y29.628 Z0 F800
G1 X33.792 Y29.54 Z0 F800
G1 X33.655 Y29.494 Z0 F800
G1 X33.519 Y29.485 Z0 F800
G1 X33.213 Y29.525 Z0 F800
G1 X33.106 Y29.541 Z0 F800
G1 X33 Y29.574 Z0 F800
G1 X32.868 Y29.644 Z0 F800
G1 X32.687 Y29.808 Z0 F800
G1 X32.534 Y30.024 Z0 F800
G1 X32.378 Y30.261 Z0 F800
G1 X32.19 Y30.489 Z0 F800
G1 X31.981 Y30.661 Z0 F800
G1 X31.742 Y30.805 Z0 F800
G1 X31.409 Y30.947 Z0 F800
G1 X31.067 Y31.054 Z0 F800
G1 X30.345 Y31.247 Z0 F800
G1 X29.987 Y31.352 Z0 F800
G1 X29.634 Y31.477 Z0 F800
G1 X29.294 Y31.631 Z0 F800
G1 X28.927 Y31.837 Z0 F800
G1 X28.591 Y32.063 Z0 F800
G1 X28.275 Y32.315 Z0 F800
G1 X27.971 Y32.602 Z0 F800
G1 X27.723 Y32.883 Z0 F800
G1 X27.516 Y33.193 Z0 F800
G1 X27.449 Y33.358 Z0 F800
G1 X27.402 Y33.555 Z0 F800
G1 X27.375 Y33.761 Z0 F800
G1 X27.369 Y33.952 Z0 F800
G1 X27.385 Y34.205 Z0 F800
G1 X27.418 Y34.425 Z0 F800
G1 X27.469 Y34.64 Z0 F800
G1 X27.541 Y34.881 Z0 F800
G1 X27.642 Y35.269 Z0 F800
G1 X27.696 Y35.641 Z0 F800
G1 X27.705 Y35.883 Z0 F800
G1 X27.677 Y36.105 Z0 F800
G1 X27.621 Y36.32 Z0 F800
G1 X27.544 Y36.541 Z0 F800
G1 X27.427 Y36.798 Z0 F800
G1 X27.284 Y37.048 Z0 F800
G1 X27.182 Y37.207 Z0 F800
G1 X27.07 Y37.358 Z0 F800
G1 X26.692 Y37.808 Z0 F800
G1 X26.555 Y37.988 Z0 F800
G1 X26.443 Y38.145 Z0 F800
G1 X26.351 Y38.282 Z0 F800
G1 X26.148 Y38.592 Z0 F800
G1 X26.029 Y38.731 Z0 F800
G1 X25.947 Y38.803 Z0 F800
G1 X25.867 Y38.881 Z0 F800
G1 X25.837 Y38.917 Z0 F800
G1 X25.806 Y38.99 Z0 F800
G1 Y39.102 Z0 F800
G1 X25.827 Y39.159 Z0 F800
G1 X25.846 Y39.256 Z0 F800
G1 X25.869 Y39.403 Z0 F800
G1 X25.928 Y39.834 Z0 F800
G1 X25.954 Y40.044 Z0 F800
G1 X25.971 Y40.228 Z0 F800
G1 X26.048 Y40.588 Z0 F800
G1 X26.198 Y40.96 Z0 F800
G1 X26.303 Y41.147 Z0 F800
G1 X26.4 Y41.298 Z0 F800
G1 X26.518 Y41.454 Z0 F800
G1 X26.654 Y41.619 Z0 F800
G1 X26.81 Y41.784 Z0 F800
G1 X26.986 Y41.938 Z0 F800
G1 X27.152 Y42.068 Z0 F800
G1 X27.27 Y42.17 Z0 F800
G1 X27.359 Y42.271 Z0 F800
G1 X27.434 Y42.395 Z0 F800
G1 X27.545 Y42.644 Z0 F800
G1 X27.635 Y42.874 Z0 F800
G1 X27.751 Y43.183 Z0 F800
G1 X27.93 Y43.633 Z0 F800
G1 X27.984 Y43.78 Z0 F800
G1 X28.036 Y43.943 Z0 F800
G1 X28.051 Y44.028 Z0 F800
G1 X28.048 Y44.124 Z0 F800
G1 X28.022 Y44.236 Z0 F800
G1 X27.971 Y44.365 Z0 F800
G0 Z3.5 F500
G0 X34.359 Y35.106 Z3.5 
G1 Z0 F500
;Layer C3 Pass 1 of 2
G1 X34.291 Y35.135 Z0 F800
G1 X34.168 Y35.212 Z0 F800
G1 X34.07 Y35.305 Z0 F800
G1 X33.965 Y35.408 Z0 F800
G1 X33.875 Y35.475 Z0 F800
G1 X33.768 Y35.525 Z0 F800
G1 X33.583 Y35.589 Z0 F800
G1 X33.402 Y35.643 Z0 F800
G1 X33.316 Y35.673 Z0 F800
G1 X33.229 Y35.698 Z0 F800
G1 X33.117 Z0 F800
G1 X32.952 Y35.659 Z0 F800
G1 X32.848 Y35.619 Z0 F800
G1 X32.775 Y35.581 Z0 F800
G1 X32.727 Y35.547 Z0 F800
G1 X32.697 Y35.516 Z0 F800
G1 X32.639 Y35.418 Z0 F800
G1 X32.585 Y35.28 Z0 F800
G1 X32.536 Y35.108 Z0 F800
G1 X32.489 Y34.909 Z0 F800
G1 X32.434 Y34.571 Z0 F800
G1 X32.393 Y34.392 Z0 F800
G1 X32.338 Y34.206 Z0 F800
G1 X32.238 Y33.988 Z0 F800
G1 X32.078 Y33.784 Z0 F800
G1 X31.97 Y33.68 Z0 F800
G1 X31.859 Y33.596 Z0 F800
G1 X31.739 Y33.53 Z0 F800
G1 X31.601 Y33.478 Z0 F800
G1 X31.44 Y33.436 Z0 F800
G1 X31.164 Y33.379 Z0 F800
G1 X31.072 Y33.371 Z0 F800
G1 X30.969 Y33.385 Z0 F800
G1 X30.813 Y33.426 Z0 F800
G1 X30.715 Y33.459 Z0 F800
G1 X30.62 Y33.508 Z0 F800
G1 X30.533 Y33.577 Z0 F800
G1 X30.457 Y33.674 Z0 F800
G1 X30.347 Y33.887 Z0 F800
G1 X30.307 Y34.046 Z0 F800
G1 X30.31 Y34.194 Z0 F800
G1 X30.329 Y34.374 Z0 F800
G1 X30.347 Y34.716 Z0 F800
G1 X30.359 Y35.078 Z0 F800
G1 X30.352 Y35.217 Z0 F800
G1 X30.293 Y35.6 Z0 F800
G1 X30.238 Y35.838 Z0 F800
G1 X30.149 Y36.09 Z0 F800
G1 X30.034 Y36.343 Z0 F800
G1 X29.902 Y36.59 Z0 F800
G1 X29.757 Y36.823 Z0 F800
G1 X29.607 Y37.074 Z0 F800
G1 X29.471 Y37.342 Z0 F800
G1 X29.348 Y37.618 Z0 F800
G1 X29.236 Y37.892 Z0 F800
G1 X29.114 Y38.261 Z0 F800
G1 X28.98 Y38.905 Z0 F800
G1 X28.963 Y39.058 Z0 F800
G1 X28.95 Y39.215 Z0 F800
G1 X28.942 Y39.69 Z0 F800
G1 X28.999 Y40.144 Z0 F800
G1 X29.03 Y40.269 Z0 F800
G1 X29.065 Y40.397 Z0 F800
G1 X29.103 Y40.525 Z0 F800
G1 X29.149 Y40.65 Z0 F800
G1 X29.261 Y40.867 Z0 F800
G1 X29.429 Y41.071 Z0 F800
G1 X29.609 Y41.236 Z0 F800
G1 X29.799 Y41.368 Z0 F800
G1 X30.003 Y41.48 Z0 F800
G1 X30.445 Y41.695 Z0 F800
G1 X30.634 Y41.801 Z0 F800
G1 X30.802 Y41.925 Z0 F800
G1 X30.961 Y42.086 Z0 F800
G1 X31.175 Y42.359 Z0 F800
G1 X31.331 Y42.648 Z0 F800
G1 X31.451 Y42.993 Z0 F800
G1 X31.543 Y43.352 Z0 F800
G1 X31.601 Y43.62 Z0 F800
G1 X31.655 Y43.887 Z0 F800
G1 X31.678 Y44.025 Z0 F800
G1 X31.728 Y44.383 Z0 F800
G1 X31.742 Y44.59 Z0 F800
G1 X31.753 Y44.82 Z0 F800
G1 X31.768 Y45.04 Z0 F800
G1 X31.778 Y45.202 Z0 F800
G1 X31.786 Y45.294 Z0 F800
G1 X31.859 Y45.857 Z0 F800
G1 X31.866 Y45.976 Z0 F800
G1 X31.859 Y46.02 Z0 F800
G1 X31.835 Y46.063 Z0 F800
G1 X31.785 Y46.1 Z0 F800
G1 X31.694 Y46.133 Z0 F800
G1 X31.545 Y46.164 Z0 F800
G1 X31.275 Y46.211 Z0 F800
G1 X31.038 Y46.259 Z0 F800
G1 X30.903 Y46.3 Z0 F800
G1 X30.793 Y46.373 Z0 F800
G1 X30.703 Y46.499 Z0 F800
G1 X30.647 Y46.645 Z0 F800
G1 X30.593 Y46.854 Z0 F800
G1 X30.586 Y46.978 Z0 F800
G1 X30.611 Y47.082 Z0 F800
G1 X30.65 Y47.236 Z0 F800
G1 X30.691 Y47.411 Z0 F800
G1 X30.748 Y47.601 Z0 F800
G1 X30.83 Y47.784 Z0 F800
G1 X30.941 Y47.939 Z0 F800
G1 X31.119 Y48.123 Z0 F800
G1 X31.32 Y48.279 Z0 F800
G1 X31.592 Y48.446 Z0 F800
G1 X31.883 Y48.58 Z0 F800
G1 X32.233 Y48.719 Z0 F800
G1 X32.586 Y48.842 Z0 F800
G1 X32.855 Y48.905 Z0 F800
G1 X33.121 Y49 Z0 F800
G1 X33.309 Y49.092 Z0 F800
G1 X33.486 Y49.197 Z0 F800
G1 X33.613 Y49.318 Z0 F800
G1 X33.683 Y49.459 Z0 F800
G1 X33.75 Y49.642 Z0 F800
G1 X33.797 Y49.825 Z0 F800
G1 Y49.988 Z0 F800
G1 X33.735 Y50.162 Z0 F800
G1 X33.685 Y50.29 Z0 F800
G1 X33.636 Y50.386 Z0 F800
G1 X33.566 Y50.467 Z0 F800
G1 X33.459 Y50.548 Z0 F800
G1 X33.164 Y50.689 Z0 F800
G1 X32.839 Y50.778 Z0 F800
G1 X32.7 Y50.803 Z0 F800
G1 X32.346 Y50.851 Z0 F800
G1 X32.136 Y50.864 Z0 F800
G1 X31.917 Y50.84 Z0 F800
G1 X31.686 Y50.793 Z0 F800
G1 X31.518 Y50.755 Z0 F800
G1 X31.348 Y50.703 Z0 F800
G1 X31.145 Y50.622 Z0 F800
G1 X30.968 Y50.527 Z0 F800
G1 X30.799 Y50.413 Z0 F800
G1 X30.617 Y50.272 Z0 F800
G1 X30.289 Y49.975 Z0 F800
G1 X30.012 Y49.656 Z0 F800
G1 X29.856 Y49.431 Z0 F800
G1 X29.619 Y49.101 Z0 F800
G1 X29.35 Y48.819 Z0 F800
G1 X29.06 Y48.603 Z0 F800
G1 X28.787 Y48.46 Z0 F800
G1 X28.581 Y48.392 Z0 F800
G1 X28.238 Y48.317 Z0 F800
G1 X28.112 Y48.325 Z0 F800
G1 X27.988 Y48.355 Z0 F800
G1 X27.855 Y48.406 Z0 F800
G1 X27.73 Y48.482 Z0 F800
G1 X27.627 Y48.588 Z0 F800
G1 X27.49 Y48.837 Z0 F800
G1 X27.415 Y49.087 Z0 F800
G1 X27.376 Y49.34 Z0 F800
G1 X27.344 Y49.6 Z0 F800
G1 X27.311 Y49.902 Z0 F800
G1 X27.282 Y50.057 Z0 F800
G1 X27.226 Y50.219 Z0 F800
G1 X27.089 Y50.477 Z0 F800
G1 X26.917 Y50.697 Z0 F800
G1 X26.631 Y50.978 Z0 F800
G1 X26.312 Y51.193 Z0 F800
G1 X25.954 Y51.354 Z0 F800
G1 X25.551 Y51.475 Z0 F800
G1 X25.328 Y51.519 Z0 F800
G1 X25.1 Y51.545 Z0 F800
G1 X24.733 Y51.573 Z0 F800
G1 X24.355 Y51.598 Z0 F800
G1 X23.977 Y51.608 Z0 F800
G1 X23.609 Y51.592 Z0 F800
G1 X23.286 Y51.564 Z0 F800
G1 X22.961 Y51.512 Z0 F800
G1 X22.625 Y51.412 Z0 F800
G1 X22.316 Y51.273 Z0 F800
G1 X22.038 Y51.085 Z0 F800
G1 X21.79 Y50.838 Z0 F800
G1 X21.683 Y50.696 Z0 F800
G1 X21.595 Y50.556 Z0 F800
G1 X21.442 Y50.233 Z0 F800
G1 X21.325 Y49.881 Z0 F800
G1 X21.27 Y49.683 Z0 F800
G1 X21.229 Y49.487 Z0 F800
G1 X21.201 Y49.177 Z0 F800
G1 X21.175 Y48.973 Z0 F800
G1 X21.163 Y48.783 Z0 F800
G1 X21.172 Y48.617 Z0 F800
G1 X21.191 Y48.446 Z0 F800
G1 X21.216 Y48.19 Z0 F800
G1 X21.254 Y47.939 Z0 F800
G1 X21.369 Y47.48 Z0 F800
G1 X21.524 Y47.039 Z0 F800
G1 X21.599 Y46.854 Z0 F800
G1 X21.69 Y46.673 Z0 F800
G1 X21.795 Y46.509 Z0 F800
G1 X21.908 Y46.379 Z0 F800
G1 X22.032 Y46.277 Z0 F800
G1 X22.173 Y46.199 Z0 F800
G1 X22.366 Y46.126 Z0 F800
G1 X22.539 Y46.073 Z0 F800
G1 X22.593 Y46.054 Z0 F800
G1 X22.641 Y46.041 Z0 F800
G1 X22.702 Z0 F800
G1 X22.793 Y46.062 Z0 F800
G1 X22.91 Y46.11 Z0 F800
G1 X23.006 Y46.168 Z0 F800
G1 X23.078 Y46.228 Z0 F800
G1 X23.123 Y46.281 Z0 F800
G1 X23.244 Y46.521 Z0 F800
G1 X23.322 Y46.813 Z0 F800
G1 X23.365 Y47.098 Z0 F800
G1 X23.426 Y47.404 Z0 F800
G1 X23.493 Y47.566 Z0 F800
G1 X23.677 Y47.758 Z0 F800
G1 X23.806 Y47.87 Z0 F800
G1 X23.831 Y47.895 Z0 F800
G1 X23.867 Y47.925 Z0 F800
G1 X23.927 Y47.958 Z0 F800
G1 X24.031 Y47.991 Z0 F800
G1 X24.143 Z0 F800
G1 X24.256 Y47.965 Z0 F800
G1 X24.538 Y47.861 Z0 F800
G1 X24.791 Y47.749 Z0 F800
G1 X24.933 Y47.663 Z0 F800
G1 X25.062 Y47.517 Z0 F800
G1 X25.256 Y47.265 Z0 F800
G1 X25.489 Y47.025 Z0 F800
G1 X25.543 Y46.981 Z0 F800
G1 X25.579 Y46.954 Z0 F800
;Layer C3 Pass 2 of 2
G1 X25.543 Y46.981 Z0 F800
G1 X25.489 Y47.025 Z0 F800
G1 X25.256 Y47.265 Z0 F800
G1 X25.062 Y47.517 Z0 F800
G1 X24.933 Y47.663 Z0 F800
G1 X24.791 Y47.749 Z0 F800
G1 X24.538 Y47.861 Z0 F800
G1 X24.256 Y47.965 Z0 F800
G1 X24.143 Y47.993 Z0 F800
G1 X24.031 Z0 F800
G1 X23.927 Y47.958 Z0 F800
G1 X23.867 Y47.925 Z0 F800
G1 X23.831 Y47.895 Z0 F800
G1 X23.806 Y47.87 Z0 F800
G1 X23.677 Y47.758 Z0 F800
G1 X23.493 Y47.566 Z0 F800
G1 X23.426 Y47.404 Z0 F800
G1 X23.365 Y47.098 Z0 F800
G1 X23.322 Y46.813 Z0 F800
G1 X23.244 Y46.521 Z0 F800
G1 X23.123 Y46.281 Z0 F800
G1 X23.078 Y46.228 Z0 F800
G1 X23.006 Y46.168 Z0 F800
G1 X22.91 Y46.11 Z0 F800
G1 X22.793 Y46.062 Z0 F800
G1 X22.702 Y46.041 Z0 F800
G1 X22.641 Z0 F800
G1 X22.593 Y46.054 Z0 F800
G1 X22.539 Y46.073 Z0 F800
G1 X22.366 Y46.126 Z0 F800
G1 X22.173 Y46.199 Z0 F800
G1 X22.032 Y46.277 Z0 F800
G1 X21.908 Y46.379 Z0 F800
G1 X21.795 Y46.509 Z0 F800
G1 X21.69 Y46.673 Z0 F800
G1 X21.599 Y46.854 Z0 F800
G1 X21.524 Y47.039 Z0 F800
G1 X21.369 Y47.48 Z0 F800
G1 X21.254 Y47.939 Z0 F800
G1 X21.216 Y48.19 Z0 F800
G1 X21.191 Y48.446 Z0 F800
G1 X21.172 Y48.617 Z0 F800
G1 X21.163 Y48.783 Z0 F800
G1 X21.175 Y48.973 Z0 F800
G1 X21.201 Y49.177 Z0 F800
G1 X21.229 Y49.487 Z0 F800
G1 X21.27 Y49.683 Z0 F800
G1 X21.325 Y49.881 Z0 F800
G1 X21.442 Y50.233 Z0 F800
G1 X21.595 Y50.556 Z0 F800
G1 X21.683 Y50.696 Z0 F800
G1 X21.79 Y50.838 Z0 F800
G1 X22.038 Y51.085 Z0 F800
G1 X22.316 Y51.273 Z0 F800
G1 X22.625 Y51.412 Z0 F800
G1 X22.961 Y51.512 Z0 F800
G1 X23.286 Y51.564 Z0 F800
G1 X23.609 Y51.592 Z0 F800
G1 X23.977 Y51.608 Z0 F800
G1 X24.355 Y51.598 Z0 F800
G1 X24.733 Y51.573 Z0 F800
G1 X25.1 Y51.545 Z0 F800
G1 X25.328 Y51.519 Z0 F800
G1 X25.551 Y51.475 Z0 F800
G1 X25.954 Y51.354 Z0 F800
G1 X26.312 Y51.193 Z0 F800
G1 X26.631 Y50.978 Z0 F800
G1 X26.917 Y50.697 Z0 F800
G1 X27.089 Y50.477 Z0 F800
G1 X27.226 Y50.219 Z0 F800
G1 X27.282 Y50.057 Z0 F800
G1 X27.311 Y49.902 Z0 F800
G1 X27.344 Y49.6 Z0 F800
G1 X27.376 Y49.34 Z0 F800
G1 X27.415 Y49.087 Z0 F800
G1 X27.49 Y48.837 Z0 F800
G1 X27.627 Y48.588 Z0 F800
G1 X27.73 Y48.482 Z0 F800
G1 X27.855 Y48.406 Z0 F800
G1 X27.988 Y48.355 Z0 F800
G1 X28.112 Y48.325 Z0 F800
G1 X28.238 Y48.317 Z0 F800
G1 X28.581 Y48.392 Z0 F800
G1 X28.787 Y48.46 Z0 F800
G1 X29.06 Y48.603 Z0 F800
G1 X29.35 Y48.819 Z0 F800
G1 X29.619 Y49.101 Z0 F800
G1 X29.856 Y49.431 Z0 F800
G1 X30.012 Y49.656 Z0 F800
G1 X30.289 Y49.975 Z0 F800
G1 X30.617 Y50.272 Z0 F800
G1 X30.799 Y50.413 Z0 F800
G1 X30.968 Y50.527 Z0 F800
G1 X31.145 Y50.622 Z0 F800
G1 X31.348 Y50.703 Z0 F800
G1 X31.518 Y50.755 Z0 F800
G1 X31.686 Y50.793 Z0 F800
G1 X31.917 Y50.84 Z0 F800
G1 X32.136 Y50.864 Z0 F800
G1 X32.346 Y50.851 Z0 F800
G1 X32.7 Y50.803 Z0 F800
G1 X32.839 Y50.778 Z0 F800
G1 X33.164 Y50.689 Z0 F800
G1 X33.459 Y50.548 Z0 F800
G1 X33.566 Y50.467 Z0 F800
G1 X33.636 Y50.386 Z0 F800
G1 X33.685 Y50.29 Z0 F800
G1 X33.735 Y50.162 Z0 F800
G1 X33.795 Y49.988 Z0 F800
G1 Y49.825 Z0 F800
G1 X33.75 Y49.642 Z0 F800
G1 X33.683 Y49.459 Z0 F800
G1 X33.613 Y49.318 Z0 F800
G1 X33.486 Y49.197 Z0 F800
G1 X33.309 Y49.092 Z0 F800
G1 X33.121 Y49 Z0 F800
G1 X32.855 Y48.905 Z0 F800
G1 X32.586 Y48.842 Z0 F800
G1 X32.233 Y48.719 Z0 F800
G1 X31.883 Y48.58 Z0 F800
G1 X31.592 Y48.446 Z0 F800
G1 X31.32 Y48.279 Z0 F800
G1 X31.119 Y48.123 Z0 F800
G1 X30.941 Y47.939 Z0 F800
G1 X30.83 Y47.784 Z0 F800
G1 X30.748 Y47.601 Z0 F800
G1 X30.691 Y47.411 Z0 F800
G1 X30.65 Y47.236 Z0 F800
G1 X30.611 Y47.082 Z0 F800
G1 X30.586 Y46.978 Z0 F800
G1 X30.593 Y46.854 Z0 F800
G1 X30.647 Y46.645 Z0 F800
G1 X30.703 Y46.499 Z0 F800
G1 X30.793 Y46.373 Z0 F800
G1 X30.903 Y46.3 Z0 F800
G1 X31.038 Y46.259 Z0 F800
G1 X31.275 Y46.211 Z0 F800
G1 X31.545 Y46.164 Z0 F800
G1 X31.694 Y46.133 Z0 F800
G1 X31.785 Y46.1 Z0 F800
G1 X31.835 Y46.063 Z0 F800
G1 X31.859 Y46.02 Z0 F800
G1 X31.866 Y45.976 Z0 F800
G1 X31.859 Y45.857 Z0 F800
G1 X31.786 Y45.294 Z0 F800
G1 X31.778 Y45.202 Z0 F800
G1 X31.768 Y45.04 Z0 F800
G1 X31.753 Y44.82 Z0 F800
G1 X31.742 Y44.59 Z0 F800
G1 X31.728 Y44.383 Z0 F800
G1 X31.678 Y44.025 Z0 F800
G1 X31.655 Y43.887 Z0 F800
G1 X31.601 Y43.62 Z0 F800
G1 X31.543 Y43.352 Z0 F800
G1 X31.451 Y42.993 Z0 F800
G1 X31.331 Y42.648 Z0 F800
G1 X31.175 Y42.359 Z0 F800
G1 X30.961 Y42.086 Z0 F800
G1 X30.802 Y41.925 Z0 F800
G1 X30.634 Y41.801 Z0 F800
G1 X30.445 Y41.695 Z0 F800
G1 X30.003 Y41.48 Z0 F800
G1 X29.799 Y41.368 Z0 F800
G1 X29.609 Y41.236 Z0 F800
G1 X29.429 Y41.071 Z0 F800
G1 X29.261 Y40.867 Z0 F800
G1 X29.149 Y40.65 Z0 F800
G1 X29.103 Y40.525 Z0 F800
G1 X29.065 Y40.397 Z0 F800
G1 X29.03 Y40.269 Z0 F800
G1 X28.999 Y40.144 Z0 F800
G1 X28.942 Y39.69 Z0 F800
G1 X28.95 Y39.215 Z0 F800
G1 X28.963 Y39.058 Z0 F800
G1 X28.98 Y38.905 Z0 F800
G1 X29.114 Y38.261 Z0 F800
G1 X29.236 Y37.892 Z0 F800
G1 X29.348 Y37.618 Z0 F800
G1 X29.471 Y37.342 Z0 F800
G1 X29.607 Y37.074 Z0 F800
G1 X29.757 Y36.823 Z0 F800
G1 X29.902 Y36.59 Z0 F800
G1 X30.034 Y36.343 Z0 F800
G1 X30.149 Y36.09 Z0 F800
G1 X30.238 Y35.838 Z0 F800
G1 X30.293 Y35.6 Z0 F800
G1 X30.352 Y35.217 Z0 F800
G1 X30.359 Y35.078 Z0 F800
G1 X30.347 Y34.716 Z0 F800
G1 X30.329 Y34.374 Z0 F800
G1 X30.31 Y34.194 Z0 F800
G1 X30.307 Y34.046 Z0 F800
G1 X30.347 Y33.887 Z0 F800
G1 X30.457 Y33.674 Z0 F800
G1 X30.533 Y33.577 Z0 F800
G1 X30.62 Y33.508 Z0 F800
G1 X30.715 Y33.459 Z0 F800
G1 X30.813 Y33.426 Z0 F800
G1 X30.969 Y33.385 Z0 F800
G1 X31.072 Y33.371 Z0 F800
G1 X31.164 Y33.379 Z0 F800
G1 X31.44 Y33.436 Z0 F800
G1 X31.601 Y33.478 Z0 F800
G1 X31.739 Y33.53 Z0 F800
G1 X31.859 Y33.596 Z0 F800
G1 X31.97 Y33.68 Z0 F800
G1 X32.078 Y33.784 Z0 F800
G1 X32.238 Y33.988 Z0 F800
G1 X32.338 Y34.206 Z0 F800
G1 X32.393 Y34.392 Z0 F800
G1 X32.434 Y34.571 Z0 F800
G1 X32.489 Y34.909 Z0 F800
G1 X32.536 Y35.108 Z0 F800
G1 X32.585 Y35.28 Z0 F800
G1 X32.639 Y35.418 Z0 F800
G1 X32.697 Y35.516 Z0 F800
G1 X32.727 Y35.547 Z0 F800
G1 X32.775 Y35.581 Z0 F800
G1 X32.848 Y35.619 Z0 F800
G1 X32.952 Y35.659 Z0 F800
G1 X33.117 Y35.698 Z0 F800
G1 X33.229 Z0 F800
G1 X33.316 Y35.673 Z0 F800
G1 X33.402 Y35.643 Z0 F800
G1 X33.583 Y35.589 Z0 F800
G1 X33.768 Y35.525 Z0 F800
G1 X33.875 Y35.475 Z0 F800
G1 X33.965 Y35.408 Z0 F800
G1 X34.07 Y35.305 Z0 F800
G1 X34.168 Y35.212 Z0 F800
G1 X34.291 Y35.135 Z0 F800
G1 X34.359 Y35.106 Z0 F800
G0 Z3.5 F500
G0 X25.748 Y38.933 Z3.5 
G1 Z0 F500
;Layer C3 Pass 1 of 2
G1 X25.654 Y38.904 Z0 F800
G1 X25.494 Y38.85 Z0 F800
G1 X25.382 Y38.818 Z0 F800
G1 X25.157 Y38.772 Z0 F800
G1 X24.932 Y38.765 Z0 F800
G1 X24.728 Y38.753 Z0 F800
G1 X24.538 Y38.749 Z0 F800
G1 X24.368 Y38.777 Z0 F800
G1 X24.2 Y38.833 Z0 F800
G1 X24.076 Y38.887 Z0 F800
G1 X23.955 Y38.956 Z0 F800
G1 X23.847 Y39.038 Z0 F800
G1 X23.761 Y39.131 Z0 F800
G1 X23.646 Y39.346 Z0 F800
G1 X23.592 Y39.584 Z0 F800
G1 X23.583 Y39.841 Z0 F800
G1 X23.604 Y40.115 Z0 F800
G1 X23.622 Y40.281 Z0 F800
G1 X23.636 Y40.425 Z0 F800
G1 X23.701 Y40.772 Z0 F800
G1 X23.811 Y41.129 Z0 F800
G1 X23.911 Y41.348 Z0 F800
G1 X24.037 Y41.551 Z0 F800
G1 X24.226 Y41.886 Z0 F800
G1 X24.365 Y42.254 Z0 F800
G1 X24.4 Y42.41 Z0 F800
G1 X24.427 Y42.564 Z0 F800
G1 X24.448 Y42.694 Z0 F800
G1 X24.459 Y42.789 Z0 F800
G1 Y42.926 Z0 F800
G1 X24.429 Y43.11 Z0 F800
G1 X24.341 Y43.296 Z0 F800
G1 X24.172 Y43.436 Z0 F800
G1 X24.039 Y43.48 Z0 F800
G1 X23.92 Y43.493 Z0 F800
G1 X23.821 Y43.489 Z0 F800
G1 X23.688 Y43.471 Z0 F800
G1 X23.41 Y43.422 Z0 F800
G1 X23.215 Y43.379 Z0 F800
G1 X22.906 Y43.26 Z0 F800
G1 X22.629 Y43.086 Z0 F800
G1 X22.485 Y42.957 Z0 F800
G1 X22.342 Y42.817 Z0 F800
G1 X22.157 Y42.627 Z0 F800
G1 X21.995 Y42.423 Z0 F800
G1 X21.868 Y42.177 Z0 F800
G1 X21.791 Y41.916 Z0 F800
G1 X21.747 Y41.641 Z0 F800
G1 X21.718 Y41.354 Z0 F800
G1 X21.685 Y40.996 Z0 F800
G1 X21.679 Y40.65 Z0 F800
G1 X21.704 Y40.406 Z0 F800
G1 X21.743 Y40.144 Z0 F800
G1 X21.805 Y39.786 Z0 F800
G1 X21.813 Y39.44 Z0 F800
G1 X21.799 Y39.074 Z0 F800
G1 X21.744 Y38.774 Z0 F800
G1 X21.644 Y38.483 Z0 F800
G1 X21.569 Y38.338 Z0 F800
G1 X21.466 Y38.213 Z0 F800
G1 X21.359 Y38.139 Z0 F800
G1 X21.217 Y38.082 Z0 F800
G1 X21.09 Y38.046 Z0 F800
G1 X20.977 Y38.024 Z0 F800
G1 X20.864 Y38.021 Z0 F800
G1 X20.738 Y38.04 Z0 F800
G1 X20.599 Y38.074 Z0 F800
G1 X20.457 Y38.119 Z0 F800
G1 X20.338 Y38.174 Z0 F800
G1 X20.237 Y38.247 Z0 F800
G1 X20.043 Y38.399 Z0 F800
G1 X19.838 Y38.554 Z0 F800
G1 X19.709 Y38.649 Z0 F800
G1 X19.581 Y38.736 Z0 F800
G1 X19.448 Y38.809 Z0 F800
G1 X19.303 Y38.865 Z0 F800
G1 X19.095 Y38.922 Z0 F800
G1 X18.909 Y38.953 Z0 F800
G1 X18.549 Y38.95 Z0 F800
G1 X18.177 Y38.917 Z0 F800
G1 X17.88 Y38.864 Z0 F800
G1 X17.586 Y38.773 Z0 F800
G1 X17.353 Y38.648 Z0 F800
G1 X17.136 Y38.502 Z0 F800
G1 X16.802 Y38.252 Z0 F800
G1 X16.491 Y37.976 Z0 F800
G1 X16.192 Y37.683 Z0 F800
G1 X15.731 Y37.215 Z0 F800
G1 X15.569 Y37.036 Z0 F800
G1 X15.423 Y36.849 Z0 F800
G1 X15.301 Y36.654 Z0 F800
G1 X15.185 Y36.397 Z0 F800
G1 X15.115 Y36.146 Z0 F800
G1 X15.08 Y35.889 Z0 F800
G1 X15.071 Y35.613 Z0 F800
G1 X15.083 Y35.33 Z0 F800
G1 X15.122 Y35.07 Z0 F800
G1 X15.193 Y34.821 Z0 F800
G1 X15.3 Y34.571 Z0 F800
G1 X15.378 Y34.426 Z0 F800
G1 X15.583 Y34.093 Z0 F800
G1 X15.707 Y33.896 Z0 F800
G1 X15.811 Y33.754 Z0 F800
G1 X15.928 Y33.62 Z0 F800
G1 X16.126 Y33.434 Z0 F800
G1 X16.327 Y33.271 Z0 F800
G1 X16.539 Y33.123 Z0 F800
G1 X16.77 Y32.979 Z0 F800
G1 X17.14 Y32.757 Z0 F800
G1 X17.53 Y32.58 Z0 F800
G1 X17.774 Y32.525 Z0 F800
G1 X18.35 Y32.442 Z0 F800
G1 X18.599 Y32.413 Z0 F800
G1 X18.74 Y32.404 Z0 F800
G1 X18.881 Y32.412 Z0 F800
G1 X19.036 Y32.459 Z0 F800
G1 X19.116 Y32.527 Z0 F800
G1 X19.14 Y32.56 Z0 F800
G1 X19.168 Y32.63 Z0 F800
G1 X19.184 Y32.736 Z0 F800
G1 X19.181 Y32.798 Z0 F800
G1 X19.159 Y32.937 Z0 F800
G1 X19.102 Y33.17 Z0 F800
G1 X19.087 Y33.249 Z0 F800
G1 X19.029 Y33.514 Z0 F800
G1 X18.962 Y33.84 Z0 F800
G1 X18.928 Y34.024 Z0 F800
G1 X18.881 Y34.206 Z0 F800
G1 X18.789 Y34.487 Z0 F800
G1 X18.709 Y34.741 Z0 F800
G1 X18.587 Y35.088 Z0 F800
G1 X18.555 Y35.225 Z0 F800
G1 X18.561 Y35.3 Z0 F800
G1 X18.605 Y35.373 Z0 F800
G1 X18.66 Y35.404 Z0 F800
G1 X18.822 Y35.419 Z0 F800
G1 X18.993 Y35.416 Z0 F800
G1 X19.5 Z0 F800
G1 X19.742 Y35.395 Z0 F800
G1 X20.063 Y35.359 Z0 F800
;Layer C3 Pass 2 of 2
G1 X19.742 Y35.395 Z0 F800
G1 X19.5 Y35.416 Z0 F800
G1 X18.993 Z0 F800
G1 X18.822 Y35.419 Z0 F800
G1 X18.66 Y35.404 Z0 F800
G1 X18.605 Y35.373 Z0 F800
G1 X18.561 Y35.3 Z0 F800
G1 X18.555 Y35.225 Z0 F800
G1 X18.587 Y35.088 Z0 F800
G1 X18.709 Y34.741 Z0 F800
G1 X18.789 Y34.487 Z0 F800
G1 X18.881 Y34.206 Z0 F800
G1 X18.928 Y34.024 Z0 F800
G1 X18.962 Y33.84 Z0 F800
G1 X19.029 Y33.514 Z0 F800
G1 X19.087 Y33.249 Z0 F800
G1 X19.102 Y33.17 Z0 F800
G1 X19.159 Y32.937 Z0 F800
G1 X19.181 Y32.798 Z0 F800
G1 X19.184 Y32.736 Z0 F800
G1 X19.168 Y32.63 Z0 F800
G1 X19.14 Y32.56 Z0 F800
G1 X19.116 Y32.527 Z0 F800
G1 X19.036 Y32.459 Z0 F800
G1 X18.881 Y32.412 Z0 F800
G1 X18.74 Y32.404 Z0 F800
G1 X18.599 Y32.413 Z0 F800
G1 X18.35 Y32.442 Z0 F800
G1 X17.774 Y32.525 Z0 F800
G1 X17.53 Y32.58 Z0 F800
G1 X17.14 Y32.757 Z0 F800
G1 X16.77 Y32.979 Z0 F800
G1 X16.539 Y33.123 Z0 F800
G1 X16.327 Y33.271 Z0 F800
G1 X16.126 Y33.434 Z0 F800
G1 X15.928 Y33.62 Z0 F800
G1 X15.811 Y33.754 Z0 F800
G1 X15.707 Y33.896 Z0 F800
G1 X15.583 Y34.093 Z0 F800
G1 X15.378 Y34.426 Z0 F800
G1 X15.3 Y34.571 Z0 F800
G1 X15.193 Y34.821 Z0 F800
G1 X15.122 Y35.07 Z0 F800
G1 X15.083 Y35.33 Z0 F800
G1 X15.071 Y35.613 Z0 F800
G1 X15.08 Y35.889 Z0 F800
G1 X15.115 Y36.146 Z0 F800
G1 X15.185 Y36.397 Z0 F800
G1 X15.301 Y36.654 Z0 F800
G1 X15.423 Y36.849 Z0 F800
G1 X15.569 Y37.036 Z0 F800
G1 X15.731 Y37.215 Z0 F800
G1 X16.192 Y37.683 Z0 F800
G1 X16.491 Y37.976 Z0 F800
G1 X16.802 Y38.252 Z0 F800
G1 X17.136 Y38.502 Z0 F800
G1 X17.353 Y38.648 Z0 F800
G1 X17.586 Y38.773 Z0 F800
G1 X17.88 Y38.864 Z0 F800
G1 X18.177 Y38.917 Z0 F800
G1 X18.549 Y38.95 Z0 F800
G1 X18.909 Y38.953 Z0 F800
G1 X19.095 Y38.922 Z0 F800
G1 X19.303 Y38.865 Z0 F800
G1 X19.448 Y38.809 Z0 F800
G1 X19.581 Y38.736 Z0 F800
G1 X19.709 Y38.649 Z0 F800
G1 X19.838 Y38.554 Z0 F800
G1 X20.043 Y38.399 Z0 F800
G1 X20.237 Y38.247 Z0 F800
G1 X20.338 Y38.174 Z0 F800
G1 X20.457 Y38.119 Z0 F800
G1 X20.599 Y38.074 Z0 F800
G1 X20.738 Y38.04 Z0 F800
G1 X20.864 Y38.021 Z0 F800
G1 X20.977 Y38.024 Z0 F800
G1 X21.09 Y38.046 Z0 F800
G1 X21.217 Y38.082 Z0 F800
G1 X21.359 Y38.139 Z0 F800
G1 X21.466 Y38.213 Z0 F800
G1 X21.569 Y38.338 Z0 F800
G1 X21.644 Y38.483 Z0 F800
G1 X21.744 Y38.774 Z0 F800
G1 X21.799 Y39.074 Z0 F800
G1 X21.813 Y39.44 Z0 F800
G1 X21.805 Y39.786 Z0 F800
G1 X21.743 Y40.144 Z0 F800
G1 X21.704 Y40.406 Z0 F800
G1 X21.679 Y40.65 Z0 F800
G1 X21.685 Y40.996 Z0 F800
G1 X21.718 Y41.354 Z0 F800
G1 X21.747 Y41.641 Z0 F800
G1 X21.791 Y41.916 Z0 F800
G1 X21.868 Y42.177 Z0 F800
G1 X21.995 Y42.423 Z0 F800
G1 X22.157 Y42.627 Z0 F800
G1 X22.342 Y42.817 Z0 F800
G1 X22.485 Y42.957 Z0 F800
G1 X22.629 Y43.086 Z0 F800
G1 X22.906 Y43.26 Z0 F800
G1 X23.215 Y43.379 Z0 F800
G1 X23.41 Y43.422 Z0 F800
G1 X23.688 Y43.471 Z0 F800
G1 X23.821 Y43.489 Z0 F800
G1 X23.92 Y43.493 Z0 F800
G1 X24.039 Y43.48 Z0 F800
G1 X24.172 Y43.436 Z0 F800
G1 X24.341 Y43.296 Z0 F800
G1 X24.429 Y43.11 Z0 F800
G1 X24.46 Y42.926 Z0 F800
G1 Y42.789 Z0 F800
G1 X24.448 Y42.694 Z0 F800
G1 X24.427 Y42.564 Z0 F800
G1 X24.4 Y42.41 Z0 F800
G1 X24.365 Y42.254 Z0 F800
G1 X24.226 Y41.886 Z0 F800
G1 X24.037 Y41.551 Z0 F800
G1 X23.911 Y41.348 Z0 F800
G1 X23.811 Y41.129 Z0 F800
G1 X23.701 Y40.772 Z0 F800
G1 X23.636 Y40.425 Z0 F800
G1 X23.622 Y40.281 Z0 F800
G1 X23.604 Y40.115 Z0 F800
G1 X23.583 Y39.841 Z0 F800
G1 X23.592 Y39.584 Z0 F800
G1 X23.646 Y39.346 Z0 F800
G1 X23.761 Y39.131 Z0 F800
G1 X23.847 Y39.038 Z0 F800
G1 X23.955 Y38.956 Z0 F800
G1 X24.076 Y38.887 Z0 F800
G1 X24.2 Y38.833 Z0 F800
G1 X24.368 Y38.777 Z0 F800
G1 X24.538 Y38.749 Z0 F800
G1 X24.728 Y38.753 Z0 F800
G1 X24.932 Y38.765 Z0 F800
G1 X25.157 Y38.772 Z0 F800
G1 X25.382 Y38.818 Z0 F800
G1 X25.494 Y38.85 Z0 F800
G1 X25.654 Y38.904 Z0 F800
G1 X25.748 Y38.933 Z0 F800
G0 Z3.5 F500
G0 X35.035 Y36.739 Z3.5 
G1 Z0 F500
;Layer C3 Pass 1 of 2
G1 X35.04 Y36.91 Z0 F800
G1 X35.096 Y37.161 Z0 F800
G1 X35.132 Y37.296 Z0 F800
G1 X35.154 Y37.442 Z0 F800
G1 X35.135 Y37.712 Z0 F800
G1 X35.083 Y37.949 Z0 F800
G1 X35.056 Y38.041 Z0 F800
G1 X35.018 Y38.122 Z0 F800
G1 X34.951 Y38.192 Z0 F800
G1 X34.837 Y38.249 Z0 F800
G1 X34.674 Y38.295 Z0 F800
G1 X34.584 Y38.302 Z0 F800
G1 X34.463 Y38.285 Z0 F800
G1 X34.275 Y38.229 Z0 F800
G1 X34.115 Y38.178 Z0 F800
G1 X33.937 Y38.117 Z0 F800
G1 X33.545 Y37.913 Z0 F800
G1 X33.149 Y37.719 Z0 F800
G1 X32.972 Y37.682 Z0 F800
G1 X32.783 Y37.664 Z0 F800
G1 X32.533 Y37.653 Z0 F800
G1 X32.305 Y37.659 Z0 F800
G1 X32.139 Y37.683 Z0 F800
G1 X31.984 Y37.723 Z0 F800
G1 X31.837 Y37.798 Z0 F800
G1 X31.696 Y37.926 Z0 F800
G1 X31.62 Y38.053 Z0 F800
G1 X31.567 Y38.202 Z0 F800
G1 X31.502 Y38.42 Z0 F800
G1 X31.499 Y38.624 Z0 F800
G1 X31.541 Y38.859 Z0 F800
G1 X31.614 Y39.074 Z0 F800
G1 X31.677 Y39.188 Z0 F800
G1 X31.76 Y39.28 Z0 F800
G1 X31.858 Y39.362 Z0 F800
G1 X32.201 Y39.622 Z0 F800
G1 X32.411 Y39.794 Z0 F800
G1 X32.602 Y39.986 Z0 F800
G1 X32.773 Y40.228 Z0 F800
G1 X32.895 Y40.475 Z0 F800
G1 X32.988 Y40.74 Z0 F800
G1 X33.063 Y41.008 Z0 F800
G1 X33.128 Y41.269 Z0 F800
G1 X33.166 Y41.396 Z0 F800
G1 X33.205 Y41.523 Z0 F800
G1 X33.289 Y41.816 Z0 F800
G1 X33.377 Y42.109 Z0 F800
G1 X33.479 Y42.398 Z0 F800
G1 X33.603 Y42.677 Z0 F800
G1 X33.771 Y42.989 Z0 F800
G1 X33.951 Y43.276 Z0 F800
G1 X34.153 Y43.545 Z0 F800
G1 X34.387 Y43.802 Z0 F800
G1 X34.673 Y44.097 Z0 F800
G1 X34.978 Y44.363 Z0 F800
G1 X35.15 Y44.473 Z0 F800
G1 X35.309 Y44.549 Z0 F800
G1 X35.465 Y44.596 Z0 F800
G1 X35.626 Y44.617 Z0 F800
G1 X35.77 Y44.628 Z0 F800
G1 X35.935 Y44.631 Z0 F800
G1 X36.155 Y44.618 Z0 F800
G1 X36.358 Y44.597 Z0 F800
G1 X36.554 Y44.56 Z0 F800
G1 X37.185 Y44.369 Z0 F800
G1 X37.596 Y44.301 Z0 F800
G1 X37.817 Y44.287 Z0 F800
G1 X38.009 Y44.304 Z0 F800
G1 X38.191 Y44.344 Z0 F800
G1 X38.384 Y44.4 Z0 F800
G1 X38.673 Y44.518 Z0 F800
G1 X38.946 Y44.674 Z0 F800
G1 X39.152 Y44.799 Z0 F800
G1 X39.34 Y44.929 Z0 F800
G1 X39.508 Y45.065 Z0 F800
G1 X39.678 Y45.207 Z0 F800
G1 X40.057 Y45.48 Z0 F800
G1 X40.41 Y45.717 Z0 F800
G1 X40.6 Y45.87 Z0 F800
G1 X40.73 Y46.003 Z0 F800
G1 X40.916 Y46.223 Z0 F800
;Layer C3 Pass 2 of 2
G1 X40.73 Y46.003 Z0 F800
G1 X40.6 Y45.87 Z0 F800
G1 X40.41 Y45.717 Z0 F800
G1 X40.057 Y45.48 Z0 F800
G1 X39.678 Y45.207 Z0 F800
G1 X39.508 Y45.065 Z0 F800
G1 X39.34 Y44.929 Z0 F800
G1 X39.152 Y44.799 Z0 F800
G1 X38.946 Y44.674 Z0 F800
G1 X38.673 Y44.518 Z0 F800
G1 X38.384 Y44.4 Z0 F800
G1 X38.191 Y44.344 Z0 F800
G1 X38.009 Y44.304 Z0 F800
G1 X37.817 Y44.287 Z0 F800
G1 X37.596 Y44.301 Z0 F800
G1 X37.185 Y44.369 Z0 F800
G1 X36.554 Y44.56 Z0 F800
G1 X36.358 Y44.597 Z0 F800
G1 X36.155 Y44.618 Z0 F800
G1 X35.935 Y44.631 Z0 F800
G1 X35.77 Y44.628 Z0 F800
G1 X35.626 Y44.617 Z0 F800
G1 X35.465 Y44.596 Z0 F800
G1 X35.309 Y44.549 Z0 F800
G1 X35.15 Y44.473 Z0 F800
G1 X34.978 Y44.363 Z0 F800
G1 X34.673 Y44.097 Z0 F800
G1 X34.387 Y43.802 Z0 F800
G1 X34.153 Y43.545 Z0 F800
G1 X33.951 Y43.276 Z0 F800
G1 X33.771 Y42.989 Z0 F800
G1 X33.603 Y42.677 Z0 F800
G1 X33.479 Y42.398 Z0 F800
G1 X33.377 Y42.109 Z0 F800
G1 X33.289 Y41.816 Z0 F800
G1 X33.205 Y41.523 Z0 F800
G1 X33.166 Y41.396 Z0 F800
G1 X33.128 Y41.269 Z0 F800
G1 X33.063 Y41.008 Z0 F800
G1 X32.988 Y40.74 Z0 F800
G1 X32.895 Y40.475 Z0 F800
G1 X32.773 Y40.228 Z0 F800
G1 X32.602 Y39.986 Z0 F800
G1 X32.411 Y39.794 Z0 F800
G1 X32.201 Y39.622 Z0 F800
G1 X31.858 Y39.362 Z0 F800
G1 X31.76 Y39.28 Z0 F800
G1 X31.677 Y39.188 Z0 F800
G1 X31.614 Y39.074 Z0 F800
G1 X31.541 Y38.859 Z0 F800
G1 X31.499 Y38.624 Z0 F800
G1 X31.502 Y38.42 Z0 F800
G1 X31.567 Y38.202 Z0 F800
G1 X31.62 Y38.053 Z0 F800
G1 X31.696 Y37.926 Z0 F800
G1 X31.837 Y37.798 Z0 F800
G1 X31.984 Y37.723 Z0 F800
G1 X32.139 Y37.683 Z0 F800
G1 X32.305 Y37.659 Z0 F800
G1 X32.533 Y37.653 Z0 F800
G1 X32.783 Y37.664 Z0 F800
G1 X32.972 Y37.682 Z0 F800
G1 X33.149 Y37.719 Z0 F800
G1 X33.545 Y37.913 Z0 F800
G1 X33.937 Y38.117 Z0 F800
G1 X34.115 Y38.178 Z0 F800
G1 X34.275 Y38.229 Z0 F800
G1 X34.463 Y38.285 Z0 F800
G1 X34.584 Y38.302 Z0 F800
G1 X34.674 Y38.295 Z0 F800
G1 X34.837 Y38.249 Z0 F800
G1 X34.951 Y38.192 Z0 F800
G1 X35.018 Y38.122 Z0 F800
G1 X35.056 Y38.041 Z0 F800
G1 X35.083 Y37.949 Z0 F800
G1 X35.135 Y37.712 Z0 F800
G1 X35.154 Y37.442 Z0 F800
G1 X35.132 Y37.296 Z0 F800
G1 X35.096 Y37.161 Z0 F800
G1 X35.04 Y36.91 Z0 F800
G1 X35.035 Y36.739 Z0 F800
G0 Z3.5 F500
G0 X48.065 Y40.115 Z3.5 
G1 Z0 F500
;Layer C3 Pass 1 of 2
G1 X48.003 Z0 F800
G1 X47.923 Y40.121 Z0 F800
G1 X47.458 Y40.187 Z0 F800
G1 X47.186 Y40.219 Z0 F800
G1 X46.804 Y40.244 Z0 F800
G1 X46.573 Y40.256 Z0 F800
G1 X46.366 Y40.273 Z0 F800
G1 X46.151 Y40.304 Z0 F800
G1 X46.008 Y40.32 Z0 F800
G1 X45.87 Y40.344 Z0 F800
G1 X45.42 Y40.435 Z0 F800
G1 X44.969 Y40.549 Z0 F800
G1 X44.784 Y40.608 Z0 F800
G1 X44.603 Y40.673 Z0 F800
G1 X44.331 Y40.826 Z0 F800
G1 X44.069 Y41.036 Z0 F800
G1 X43.923 Y41.187 Z0 F800
G1 X43.811 Y41.344 Z0 F800
G1 X43.713 Y41.519 Z0 F800
G1 X43.488 Y41.957 Z0 F800
G1 X43.366 Y42.17 Z0 F800
G1 X43.28 Y42.304 Z0 F800
G1 X43.165 Y42.451 Z0 F800
G1 X43.028 Y42.596 Z0 F800
G1 X42.907 Y42.703 Z0 F800
G1 X42.783 Y42.785 Z0 F800
G1 X42.633 Y42.855 Z0 F800
G1 X42.482 Y42.909 Z0 F800
G1 X42.099 Y43.009 Z0 F800
G1 X41.884 Y43.047 Z0 F800
G1 X41.656 Y43.066 Z0 F800
G1 X41.425 Z0 F800
G1 X41.04 Y43.038 Z0 F800
G1 X40.888 Y43.021 Z0 F800
G1 X40.729 Y42.989 Z0 F800
G1 X40.579 Y42.956 Z0 F800
G1 X40.231 Y42.875 Z0 F800
G1 X39.875 Y42.755 Z0 F800
G1 X39.313 Y42.514 Z0 F800
G1 X38.778 Y42.22 Z0 F800
G1 X38.547 Y42.077 Z0 F800
G1 X38.312 Y41.95 Z0 F800
G1 X38.071 Y41.842 Z0 F800
G1 X37.821 Y41.756 Z0 F800
G1 X37.568 Y41.698 Z0 F800
G1 X37.314 Y41.659 Z0 F800
G1 X37.189 Y41.643 Z0 F800
G1 X37.061 Y41.637 Z0 F800
G1 X36.717 Y41.649 Z0 F800
G1 X36.386 Y41.669 Z0 F800
G1 X36.206 Y41.689 Z0 F800
G1 X36.056 Y41.694 Z0 F800
G1 X35.896 Y41.659 Z0 F800
G1 X35.686 Y41.56 Z0 F800
G1 X35.583 Y41.483 Z0 F800
G1 X35.511 Y41.39 Z0 F800
G1 X35.461 Y41.288 Z0 F800
G1 X35.426 Y41.185 Z0 F800
G1 X35.385 Y41.031 Z0 F800
G1 X35.371 Y40.935 Z0 F800
G1 X35.378 Y40.852 Z0 F800
G1 X35.398 Y40.735 Z0 F800
G1 X35.446 Y40.523 Z0 F800
G1 X35.521 Y40.284 Z0 F800
G1 X35.632 Y40.084 Z0 F800
G1 X35.795 Y39.917 Z0 F800
G1 X35.907 Y39.821 Z0 F800
G1 X36.009 Y39.746 Z0 F800
G1 X36.117 Y39.687 Z0 F800
G1 X36.245 Y39.64 Z0 F800
G1 X36.548 Y39.567 Z0 F800
G1 X36.864 Y39.509 Z0 F800
G1 X37.083 Y39.462 Z0 F800
G1 X37.254 Y39.416 Z0 F800
G1 X37.385 Y39.366 Z0 F800
G1 X37.481 Y39.308 Z0 F800
G1 X37.515 Y39.277 Z0 F800
G1 X37.556 Y39.229 Z0 F800
G1 X37.599 Y39.155 Z0 F800
G1 X37.642 Y39.046 Z0 F800
G1 X37.683 Y38.88 Z0 F800
G1 Y38.764 Z0 F800
G1 X37.66 Y38.676 Z0 F800
G1 X37.63 Y38.596 Z0 F800
G1 X37.573 Y38.418 Z0 F800
G1 X37.504 Y38.23 Z0 F800
G1 X37.456 Y38.125 Z0 F800
G1 X37.391 Y38.033 Z0 F800
G1 X37.283 Y37.912 Z0 F800
G1 X37.194 Y37.808 Z0 F800
G1 X37.135 Y37.703 Z0 F800
G1 X37.117 Y37.639 Z0 F800
;Layer C3 Pass 2 of 2
G1 X37.135 Y37.703 Z0 F800
G1 X37.194 Y37.808 Z0 F800
G1 X37.283 Y37.912 Z0 F800
G1 X37.391 Y38.033 Z0 F800
G1 X37.456 Y38.125 Z0 F800
G1 X37.504 Y38.23 Z0 F800
G1 X37.573 Y38.418 Z0 F800
G1 X37.63 Y38.596 Z0 F800
G1 X37.66 Y38.676 Z0 F800
G1 X37.683 Y38.764 Z0 F800
G1 Y38.88 Z0 F800
G1 X37.642 Y39.046 Z0 F800
G1 X37.599 Y39.155 Z0 F800
G1 X37.556 Y39.229 Z0 F800
G1 X37.515 Y39.277 Z0 F800
G1 X37.481 Y39.308 Z0 F800
G1 X37.385 Y39.366 Z0 F800
G1 X37.254 Y39.416 Z0 F800
G1 X37.083 Y39.462 Z0 F800
G1 X36.864 Y39.509 Z0 F800
G1 X36.548 Y39.567 Z0 F800
G1 X36.245 Y39.64 Z0 F800
G1 X36.117 Y39.687 Z0 F800
G1 X36.009 Y39.746 Z0 F800
G1 X35.907 Y39.821 Z0 F800
G1 X35.795 Y39.917 Z0 F800
G1 X35.632 Y40.084 Z0 F800
G1 X35.521 Y40.284 Z0 F800
G1 X35.446 Y40.523 Z0 F800
G1 X35.398 Y40.735 Z0 F800
G1 X35.378 Y40.852 Z0 F800
G1 X35.371 Y40.935 Z0 F800
G1 X35.385 Y41.031 Z0 F800
G1 X35.426 Y41.185 Z0 F800
G1 X35.461 Y41.288 Z0 F800
G1 X35.511 Y41.39 Z0 F800
G1 X35.583 Y41.483 Z0 F800
G1 X35.686 Y41.56 Z0 F800
G1 X35.896 Y41.659 Z0 F800
G1 X36.056 Y41.694 Z0 F800
G1 X36.206 Y41.689 Z0 F800
G1 X36.386 Y41.669 Z0 F800
G1 X36.717 Y41.649 Z0 F800
G1 X37.061 Y41.637 Z0 F800
G1 X37.189 Y41.643 Z0 F800
G1 X37.314 Y41.659 Z0 F800
G1 X37.568 Y41.698 Z0 F800
G1 X37.821 Y41.756 Z0 F800
G1 X38.071 Y41.842 Z0 F800
G1 X38.312 Y41.95 Z0 F800
G1 X38.547 Y42.077 Z0 F800
G1 X38.778 Y42.22 Z0 F800
G1 X39.313 Y42.514 Z0 F800
G1 X39.875 Y42.755 Z0 F800
G1 X40.231 Y42.875 Z0 F800
G1 X40.579 Y42.956 Z0 F800
G1 X40.729 Y42.989 Z0 F800
G1 X40.888 Y43.021 Z0 F800
G1 X41.04 Y43.038 Z0 F800
G1 X41.425 Y43.067 Z0 F800
G1 X41.656 Z0 F800
G1 X41.884 Y43.047 Z0 F800
G1 X42.099 Y43.009 Z0 F800
G1 X42.482 Y42.909 Z0 F800
G1 X42.633 Y42.855 Z0 F800
G1 X42.783 Y42.785 Z0 F800
G1 X42.907 Y42.703 Z0 F800
G1 X43.028 Y42.596 Z0 F800
G1 X43.165 Y42.451 Z0 F800
G1 X43.28 Y42.304 Z0 F800
G1 X43.366 Y42.17 Z0 F800
G1 X43.488 Y41.957 Z0 F800
G1 X43.713 Y41.519 Z0 F800
G1 X43.811 Y41.344 Z0 F800
G1 X43.923 Y41.187 Z0 F800
G1 X44.069 Y41.036 Z0 F800
G1 X44.331 Y40.826 Z0 F800
G1 X44.603 Y40.673 Z0 F800
G1 X44.784 Y40.608 Z0 F800
G1 X44.969 Y40.549 Z0 F800
G1 X45.42 Y40.435 Z0 F800
G1 X45.87 Y40.344 Z0 F800
G1 X46.008 Y40.32 Z0 F800
G1 X46.151 Y40.304 Z0 F800
G1 X46.366 Y40.273 Z0 F800
G1 X46.573 Y40.256 Z0 F800
G1 X46.804 Y40.244 Z0 F800
G1 X47.186 Y40.219 Z0 F800
G1 X47.458 Y40.187 Z0 F800
G1 X47.923 Y40.121 Z0 F800
G1 X48.003 Y40.116 Z0 F800
G1 X48.065 Z0 F800
G0 Z3.5 F500
G0 X38.384 Y36.964 Z3.5 
G1 Z0 F500
;Layer C3 Pass 1 of 2
G1 X38.522 Y36.968 Z0 F800
G1 X38.664 Z0 F800
G1 X38.835 Y36.954 Z0 F800
G1 X39.059 Y36.903 Z0 F800
G1 X39.212 Y36.857 Z0 F800
G1 X39.397 Y36.837 Z0 F800
G1 X39.592 Y36.849 Z0 F800
G1 X39.763 Y36.87 Z0 F800
G1 X39.9 Y36.898 Z0 F800
G1 X40.032 Y36.944 Z0 F800
G1 X40.148 Y37.033 Z0 F800
G1 X40.24 Y37.189 Z0 F800
G1 X40.283 Y37.335 Z0 F800
G1 X40.289 Y37.414 Z0 F800
G1 X40.271 Y37.54 Z0 F800
G1 X40.222 Y37.695 Z0 F800
G1 X40.11 Y38.033 Z0 F800
G1 X40.066 Y38.15 Z0 F800
G1 X40.009 Y38.258 Z0 F800
G1 X39.831 Y38.578 Z0 F800
G1 X39.71 Y38.905 Z0 F800
G1 X39.682 Y39.075 Z0 F800
G1 X39.658 Y39.271 Z0 F800
G1 X39.65 Y39.611 Z0 F800
G1 X39.692 Y39.918 Z0 F800
G1 X39.728 Y40.041 Z0 F800
G1 X39.784 Y40.155 Z0 F800
G1 X39.861 Y40.256 Z0 F800
G1 X39.961 Y40.34 Z0 F800
G1 X40.063 Y40.396 Z0 F800
G1 X40.185 Y40.443 Z0 F800
G1 X40.389 Y40.5 Z0 F800
G1 X40.579 Y40.506 Z0 F800
G1 X40.833 Y40.467 Z0 F800
G1 X41.057 Y40.395 Z0 F800
G1 X41.162 Y40.341 Z0 F800
G1 X41.246 Y40.268 Z0 F800
G1 X41.319 Y40.182 Z0 F800
G1 X41.393 Y40.087 Z0 F800
G1 X41.597 Y39.807 Z0 F800
G1 X41.818 Y39.525 Z0 F800
G1 X42.051 Y39.327 Z0 F800
G1 X42.312 Y39.17 Z0 F800
G1 X42.593 Y39.049 Z0 F800
G1 X42.887 Y38.962 Z0 F800
G1 X43.069 Y38.919 Z0 F800
G1 X43.252 Y38.873 Z0 F800
G1 X43.646 Y38.756 Z0 F800
G1 X44.04 Y38.636 Z0 F800
G1 X44.355 Y38.533 Z0 F800
G1 X44.663 Y38.407 Z0 F800
G1 X44.963 Y38.258 Z0 F800
G1 X45.251 Y38.085 Z0 F800
G1 X45.588 Y37.811 Z0 F800
G1 X45.898 Y37.498 Z0 F800
G1 X46.05 Y37.349 Z0 F800
G1 X46.207 Y37.191 Z0 F800
G1 X46.351 Y37.025 Z0 F800
G1 X46.466 Y36.851 Z0 F800
G1 X46.544 Y36.672 Z0 F800
G1 X46.595 Y36.487 Z0 F800
G1 X46.622 Y36.294 Z0 F800
G1 X46.63 Y36.091 Z0 F800
G1 X46.62 Y35.857 Z0 F800
G1 X46.591 Y35.637 Z0 F800
G1 X46.543 Y35.425 Z0 F800
G1 X46.477 Y35.219 Z0 F800
G1 X46.396 Y34.946 Z0 F800
G1 X46.341 Y34.684 Z0 F800
G1 X46.308 Y34.431 Z0 F800
G1 X46.293 Y34.19 Z0 F800
G1 X46.309 Y33.964 Z0 F800
G1 X46.353 Y33.746 Z0 F800
G1 X46.422 Y33.53 Z0 F800
G1 X46.558 Y33.245 Z0 F800
G1 X46.816 Y32.808 Z0 F800
G1 X46.921 Y32.658 Z0 F800
G1 X47.179 Y32.348 Z0 F800
G1 X47.441 Y32.01 Z0 F800
G1 X47.552 Y31.854 Z0 F800
G1 X47.643 Y31.721 Z0 F800
G1 X47.779 Y31.516 Z0 F800
G1 X47.881 Y31.37 Z0 F800
G1 X47.981 Y31.259 Z0 F800
G1 X48.06 Y31.183 Z0 F800
G1 X48.206 Y31.098 Z0 F800
G1 X48.282 Y31.091 Z0 F800
G1 X48.318 Y31.101 Z0 F800
G1 X48.407 Y31.133 Z0 F800
G1 X48.485 Y31.157 Z0 F800
G1 X48.6 Y31.187 Z0 F800
G1 X48.788 Y31.22 Z0 F800
G1 X48.994 Z0 F800
G1 X49.219 Y31.245 Z0 F800
G1 X49.444 Y31.259 Z0 F800
G1 X49.652 Y31.218 Z0 F800
G1 X49.866 Y31.14 Z0 F800
G1 X50.014 Y31.071 Z0 F800
G1 X50.13 Y30.985 Z0 F800
G1 X50.22 Y30.885 Z0 F800
G1 X50.286 Y30.773 Z0 F800
G1 X50.368 Y30.518 Z0 F800
G1 X50.411 Y30.237 Z0 F800
G1 X50.4 Y30.013 Z0 F800
G1 X50.378 Y29.787 Z0 F800
G1 X50.371 Y29.663 Z0 F800
G1 X50.36 Y29.534 Z0 F800
G1 X50.281 Y29.191 Z0 F800
G1 X50.166 Y28.858 Z0 F800
G1 X50.076 Y28.653 Z0 F800
G1 X49.872 Y28.315 Z0 F800
G1 X49.789 Y28.155 Z0 F800
G1 X49.7 Y27.958 Z0 F800
G1 X49.631 Y27.761 Z0 F800
G1 X49.592 Y27.599 Z0 F800
G1 X49.56 Y27.423 Z0 F800
G1 X49.543 Y27.305 Z0 F800
G1 X49.534 Y27.226 Z0 F800
G1 X49.546 Y27.067 Z0 F800
G1 X49.611 Y26.85 Z0 F800
G1 X49.667 Y26.742 Z0 F800
G1 X49.741 Y26.645 Z0 F800
G1 X49.835 Y26.569 Z0 F800
G1 X49.95 Y26.521 Z0 F800
G1 X50.151 Y26.513 Z0 F800
G1 X50.373 Y26.547 Z0 F800
G1 X50.564 Y26.584 Z0 F800
G1 X50.795 Y26.636 Z0 F800
G1 X51.093 Y26.753 Z0 F800
G1 X51.358 Y26.925 Z0 F800
G1 X51.51 Y27.052 Z0 F800
G1 X51.655 Y27.198 Z0 F800
G1 X51.839 Y27.389 Z0 F800
G1 X52.001 Y27.592 Z0 F800
G1 X52.12 Y27.831 Z0 F800
G1 X52.199 Y28.088 Z0 F800
G1 X52.249 Y28.357 Z0 F800
G1 X52.281 Y28.633 Z0 F800
G1 X52.307 Y29.004 Z0 F800
G1 X52.313 Y29.365 Z0 F800
G1 X52.286 Y29.61 Z0 F800
G1 X52.234 Y29.872 Z0 F800
G1 X52.181 Y30.215 Z0 F800
G1 X52.174 Y30.547 Z0 F800
G1 X52.185 Y30.754 Z0 F800
G1 X52.2 Y30.941 Z0 F800
G1 X52.238 Y31.183 Z0 F800
G1 X52.315 Y31.419 Z0 F800
G1 X52.399 Y31.624 Z0 F800
G1 X52.522 Y31.798 Z0 F800
G1 X52.625 Y31.868 Z0 F800
G1 X52.765 Y31.921 Z0 F800
G1 X52.883 Y31.953 Z0 F800
G1 X52.997 Y31.974 Z0 F800
G1 X53.114 Y31.979 Z0 F800
G1 X53.243 Y31.963 Z0 F800
G1 X53.382 Y31.931 Z0 F800
G1 X53.525 Y31.888 Z0 F800
G1 X53.646 Y31.841 Z0 F800
G1 X53.75 Y31.777 Z0 F800
G1 X54.172 Y31.417 Z0 F800
G1 X54.43 Y31.251 Z0 F800
G1 X54.706 Y31.129 Z0 F800
G1 X54.938 Y31.063 Z0 F800
G1 X55.185 Y31.04 Z0 F800
G1 X55.497 Y31.055 Z0 F800
G1 X55.804 Y31.083 Z0 F800
G1 X56.103 Y31.13 Z0 F800
G1 X56.395 Y31.232 Z0 F800
G1 X56.625 Y31.355 Z0 F800
G1 X56.845 Y31.49 Z0 F800
G1 X57.088 Y31.658 Z0 F800
G1 X57.317 Y31.849 Z0 F800
G1 X57.535 Y32.055 Z0 F800
G1 X57.746 Y32.264 Z0 F800
G1 X58.116 Y32.637 Z0 F800
G1 X58.465 Y33.024 Z0 F800
G1 X58.566 Y33.158 Z0 F800
G1 X58.654 Y33.305 Z0 F800
G1 X58.788 Y33.587 Z0 F800
G1 X58.882 Y33.867 Z0 F800
G1 X58.929 Y34.154 Z0 F800
G1 Y34.459 Z0 F800
G1 X58.897 Y34.731 Z0 F800
G1 X58.852 Y34.991 Z0 F800
G1 X58.778 Y35.245 Z0 F800
G1 X58.666 Y35.5 Z0 F800
G1 X58.49 Y35.812 Z0 F800
G1 X58.293 Y36.119 Z0 F800
G1 X58.105 Y36.351 Z0 F800
G1 X57.887 Y36.569 Z0 F800
G1 X57.738 Y36.708 Z0 F800
G1 X57.577 Y36.831 Z0 F800
G1 X57.024 Y37.148 Z0 F800
G1 X56.451 Y37.424 Z0 F800
G1 X56.182 Y37.514 Z0 F800
G1 X55.917 Y37.57 Z0 F800
G1 X55.72 Y37.588 Z0 F800
G1 X55.581 Y37.607 Z0 F800
G1 X55.494 Y37.622 Z0 F800
G1 X55.322 Y37.643 Z0 F800
G1 X55.129 Y37.636 Z0 F800
G1 X55.023 Y37.607 Z0 F800
G1 X54.962 Y37.573 Z0 F800
G1 X54.934 Y37.555 Z0 F800
G1 X54.895 Y37.521 Z0 F800
G1 X54.854 Y37.467 Z0 F800
G1 X54.822 Y37.385 Z0 F800
G1 X54.811 Y37.278 Z0 F800
G1 X54.817 Y37.217 Z0 F800
G1 X54.836 Y37.087 Z0 F800
G1 X54.875 Y36.907 Z0 F800
G1 X54.906 Y36.738 Z0 F800
G1 X55.036 Y36.147 Z0 F800
G1 X55.064 Y35.991 Z0 F800
G1 X55.098 Y35.838 Z0 F800
G1 X55.131 Y35.73 Z0 F800
G1 X55.169 Y35.617 Z0 F800
G1 X55.27 Y35.306 Z0 F800
G1 X55.405 Y34.926 Z0 F800
G1 X55.431 Y34.825 Z0 F800
G1 X55.436 Y34.79 Z0 F800
G1 X55.432 Y34.714 Z0 F800
G1 X55.414 Y34.656 Z0 F800
G1 X55.385 Y34.618 Z0 F800
G1 X55.346 Y34.594 Z0 F800
G1 X55.296 Y34.581 Z0 F800
G1 X55.153 Y34.584 Z0 F800
G1 X54.988 Y34.599 Z0 F800
G1 X54.704 Z0 F800
G1 X54.481 Z0 F800
G1 X54.239 Y34.611 Z0 F800
G1 X53.918 Y34.656 Z0 F800
;Layer C3 Pass 2 of 2
G1 X54.239 Y34.611 Z0 F800
G1 X54.481 Y34.599 Z0 F800
G1 X54.704 Z0 F800
G1 X54.988 Z0 F800
G1 X55.153 Y34.584 Z0 F800
G1 X55.296 Y34.581 Z0 F800
G1 X55.346 Y34.594 Z0 F800
G1 X55.385 Y34.618 Z0 F800
G1 X55.414 Y34.656 Z0 F800
G1 X55.432 Y34.714 Z0 F800
G1 X55.436 Y34.79 Z0 F800
G1 X55.431 Y34.825 Z0 F800
G1 X55.405 Y34.926 Z0 F800
G1 X55.27 Y35.306 Z0 F800
G1 X55.169 Y35.617 Z0 F800
G1 X55.131 Y35.73 Z0 F800
G1 X55.098 Y35.838 Z0 F800
G1 X55.064 Y35.991 Z0 F800
G1 X55.036 Y36.147 Z0 F800
G1 X54.906 Y36.738 Z0 F800
G1 X54.875 Y36.907 Z0 F800
G1 X54.836 Y37.087 Z0 F800
G1 X54.817 Y37.217 Z0 F800
G1 X54.811 Y37.278 Z0 F800
G1 X54.822 Y37.385 Z0 F800
G1 X54.854 Y37.467 Z0 F800
G1 X54.895 Y37.521 Z0 F800
G1 X54.934 Y37.555 Z0 F800
G1 X54.962 Y37.573 Z0 F800
G1 X55.023 Y37.607 Z0 F800
G1 X55.129 Y37.636 Z0 F800
G1 X55.322 Y37.643 Z0 F800
G1 X55.494 Y37.622 Z0 F800
G1 X55.581 Y37.607 Z0 F800
G1 X55.72 Y37.588 Z0 F800
G1 X55.917 Y37.57 Z0 F800
G1 X56.182 Y37.514 Z0 F800
G1 X56.451 Y37.424 Z0 F800
G1 X57.024 Y37.148 Z0 F800
G1 X57.577 Y36.831 Z0 F800
G1 X57.738 Y36.708 Z0 F800
G1 X57.887 Y36.569 Z0 F800
G1 X58.105 Y36.351 Z0 F800
G1 X58.293 Y36.119 Z0 F800
G1 X58.49 Y35.812 Z0 F800
G1 X58.666 Y35.5 Z0 F800
G1 X58.778 Y35.245 Z0 F800
G1 X58.852 Y34.991 Z0 F800
G1 X58.897 Y34.731 Z0 F800
G1 X58.927 Y34.459 Z0 F800
G1 Y34.154 Z0 F800
G1 X58.882 Y33.867 Z0 F800
G1 X58.788 Y33.587 Z0 F800
G1 X58.654 Y33.305 Z0 F800
G1 X58.566 Y33.158 Z0 F800
G1 X58.465 Y33.024 Z0 F800
G1 X58.116 Y32.637 Z0 F800
G1 X57.746 Y32.264 Z0 F800
G1 X57.535 Y32.055 Z0 F800
G1 X57.317 Y31.849 Z0 F800
G1 X57.088 Y31.658 Z0 F800
G1 X56.845 Y31.49 Z0 F800
G1 X56.625 Y31.355 Z0 F800
G1 X56.395 Y31.232 Z0 F800
G1 X56.103 Y31.13 Z0 F800
G1 X55.804 Y31.083 Z0 F800
G1 X55.497 Y31.055 Z0 F800
G1 X55.185 Y31.04 Z0 F800
G1 X54.938 Y31.063 Z0 F800
G1 X54.706 Y31.129 Z0 F800
G1 X54.43 Y31.251 Z0 F800
G1 X54.172 Y31.417 Z0 F800
G1 X53.75 Y31.777 Z0 F800
G1 X53.646 Y31.841 Z0 F800
G1 X53.525 Y31.888 Z0 F800
G1 X53.382 Y31.931 Z0 F800
G1 X53.243 Y31.963 Z0 F800
G1 X53.114 Y31.979 Z0 F800
G1 X52.997 Y31.974 Z0 F800
G1 X52.883 Y31.953 Z0 F800
G1 X52.765 Y31.921 Z0 F800
G1 X52.625 Y31.868 Z0 F800
G1 X52.522 Y31.798 Z0 F800
G1 X52.399 Y31.624 Z0 F800
G1 X52.315 Y31.419 Z0 F800
G1 X52.238 Y31.183 Z0 F800
G1 X52.2 Y30.941 Z0 F800
G1 X52.185 Y30.754 Z0 F800
G1 X52.174 Y30.547 Z0 F800
G1 X52.181 Y30.215 Z0 F800
G1 X52.234 Y29.872 Z0 F800
