;LightBurn 1.6.04
;Custom GCode device profile, absolute coords
;Bounds: X1.62 Y2.56 to X62.38 Y47.44
G00 G17 G40 G21 G54
G90
M3
G1 Z10 F1000
;Cut @ 1498.998 mm/min, 80% power

M8
G0 Z4.8F800
G0 X6.028Y11.615Z4.8F1500
G1 Z0F1500
;Layer C1
G1 X6.238Y11.623Z0S800F1500
G1 X6.438Y11.686Z0F1500
G1 X6.616Y11.796Z0F1500
G1 X6.76Y11.944Z0F1500
G1 X6.858Y12.123Z0F1500
G1 X6.899Y12.325Z0F1500
G1 X6.872Y12.54Z0F1500
G1 X6.746Y12.772Z0F1500
G1 X6.565Y12.955Z0F1500
G1 X6.457Y13.021Z0F1500
G1 X6.341Y13.063Z0F1500
G1 X6.217Y13.08Z0F1500
G1 X6.087Y13.068Z0F1500
G1 X5.944Y13.073Z0F1500
G1 X5.815Y13.048Z0F1500
G1 X5.701Y12.997Z0F1500
G1 X5.602Y12.924Z0F1500
G1 X5.453Y12.724Z0F1500
G1 X5.373Y12.48Z0F1500
G1 X5.364Y12.223Z0F1500
G1 X5.433Y11.981Z0F1500
G1 X5.497Y11.877Z0F1500
G1 X5.582Y11.787Z0F1500
G1 X5.689Y11.717Z0F1500
G1 X5.818Y11.671Z0F1500
G1 X6.028Y11.615Z0F1500
G0 Z4.8F800
G0 X8.475Y13.057Z4.8F1500
G1 Z0F1500
G1 X8.676Y13.048Z0F1500
G1 X8.87Y13.014Z0F1500
G1 X9.054Y12.949Z0F1500
G1 X9.224Y12.851Z0F1500
G1 X9.417Y12.668Z0F1500
G1 X9.562Y12.436Z0F1500
G1 X9.642Y12.167Z0F1500
G1 Y11.87Z0F1500
G1 X9.594Y11.545Z0F1500
G1 X9.514Y11.23Z0F1500
G1 X9.404Y10.925Z0F1500
G1 X9.266Y10.634Z0F1500
G1 X9.103Y10.357Z0F1500
G1 X8.915Y10.097Z0F1500
G1 X8.704Y9.854Z0F1500
G1 X8.473Y9.631Z0F1500
G1 X8.223Y9.429Z0F1500
G1 X7.957Y9.249Z0F1500
G1 X7.675Y9.095Z0F1500
G1 X7.38Y8.966Z0F1500
G1 X7.073Y8.865Z0F1500
G1 X6.757Y8.794Z0F1500
G1 X6.433Y8.754Z0F1500
G1 X6.103Y8.746Z0F1500
G1 X5.737Y8.76Z0F1500
G1 X5.379Y8.814Z0F1500
G1 X5.03Y8.906Z0F1500
G1 X4.695Y9.033Z0F1500
G1 X4.374Y9.192Z0F1500
G1 X4.071Y9.382Z0F1500
G1 X3.788Y9.6Z0F1500
G1 X3.526Y9.844Z0F1500
G1 X3.29Y10.112Z0F1500
G1 X3.081Y10.402Z0F1500
G1 X2.901Y10.71Z0F1500
G1 X2.752Y11.035Z0F1500
G1 X2.639Y11.375Z0F1500
G1 X2.561Y11.727Z0F1500
G1 X2.523Y12.089Z0F1500
G1 X2.526Y12.459Z0F1500
G1 X2.583Y12.892Z0F1500
G1 X2.684Y13.32Z0F1500
G1 X2.831Y13.738Z0F1500
G1 X3.023Y14.138Z0F1500
G1 X3.259Y14.514Z0F1500
G1 X3.539Y14.858Z0F1500
G1 X3.863Y15.163Z0F1500
G1 X4.229Y15.422Z0F1500
G1 X4.261Y15.439Z0F1500
G1 X4.681Y15.621Z0F1500
G1 X5.122Y15.779Z0F1500
G1 X5.585Y15.897Z0F1500
G1 X6.067Y15.956Z0F1500
G1 X6.109Z0F1500
G1 X6.402Y15.89Z0F1500
G1 X6.655Y15.757Z0F1500
G1 X6.866Y15.574Z0F1500
G1 X7.03Y15.358Z0F1500
G1 X7.133Y15.162Z0F1500
G1 X7.207Y14.959Z0F1500
G1 X7.256Y14.752Z0F1500
G1 X7.284Y14.545Z0F1500
G1 X7.672Y14.249Z0F1500
G1 X8.002Y13.896Z0F1500
G1 X8.271Y13.496Z0F1500
G1 X8.475Y13.057Z0F1500
G0 Z4.8F800
G0 X11.148Y13.661Z4.8F1500
G1 Z0F1500
G1 X10.855Y14.478Z0F1500
G1 X10.493Y15.267Z0F1500
G1 X10.06Y16.012Z0F1500
G1 X9.816Y16.363Z0F1500
G1 X9.554Y16.698Z0F1500
G1 X9.273Y17.014Z0F1500
G1 X8.972Y17.31Z0F1500
G1 X8.653Y17.583Z0F1500
G1 X8.313Y17.832Z0F1500
G1 X7.954Y18.055Z0F1500
G1 X7.574Y18.249Z0F1500
G1 X7.087Y18.409Z0F1500
G1 X6.589Y18.518Z0F1500
G1 X6.082Y18.579Z0F1500
G1 X5.557Y18.593Z0F1500
G1 X5.182Y18.557Z0F1500
G1 X4.814Y18.442Z0F1500
G1 X4.484Y18.256Z0F1500
G1 X4.222Y18.011Z0F1500
G1 X4.351Y17.956Z0F1500
G1 X4.494Y17.881Z0F1500
G1 X4.586Y17.822Z0F1500
G1 X4.676Y17.748Z0F1500
G1 X4.759Y17.655Z0F1500
G1 X4.827Y17.537Z0F1500
G1 X4.867Y17.399Z0F1500
G1 X4.872Y17.251Z0F1500
G1 X4.846Y17.102Z0F1500
G1 X4.791Y16.958Z0F1500
G1 X4.754Y16.9Z0F1500
G1 X4.706Y16.851Z0F1500
G1 X4.152Y16.448Z0F1500
G1 X3.605Y16.083Z0F1500
G1 X3.103Y15.708Z0F1500
G1 X2.678Y15.273Z0F1500
G1 X2.317Y14.785Z0F1500
G1 X2.033Y14.257Z0F1500
G1 X1.822Y13.694Z0F1500
G1 X1.683Y13.106Z0F1500
G1 X1.619Y12.506Z0F1500
G1 X1.63Y11.903Z0F1500
G1 X1.716Y11.308Z0F1500
G1 X1.879Y10.734Z0F1500
G1 X2.174Y10.131Z0F1500
G1 X2.555Y9.574Z0F1500
G1 X3.01Y9.075Z0F1500
G1 X3.53Y8.645Z0F1500
G1 X3.811Y8.46Z0F1500
G1 X4.104Y8.296Z0F1500
G1 X4.408Y8.155Z0F1500
G1 X4.72Y8.039Z0F1500
G1 X5.041Y7.949Z0F1500
G1 X5.369Y7.886Z0F1500
G1 X5.702Y7.852Z0F1500
G1 X6.05Y7.849Z0F1500
G1 X6.429Y7.853Z0F1500
G1 X6.793Y7.89Z0F1500
G1 X7.153Y7.96Z0F1500
G1 X7.507Y8.06Z0F1500
G1 X7.852Y8.19Z0F1500
G1 X8.185Y8.346Z0F1500
G1 X8.506Y8.529Z0F1500
G1 X8.813Y8.737Z0F1500
G1 X9.102Y8.967Z0F1500
G1 X9.372Y9.22Z0F1500
G1 X9.62Y9.492Z0F1500
G1 X9.846Y9.782Z0F1500
G1 X10.046Y10.09Z0F1500
G1 X10.218Y10.413Z0F1500
G1 X10.361Y10.751Z0F1500
G1 X10.473Y11.101Z0F1500
G1 X10.463Y11.039Z0F1500
G1 X10.525Y11.321Z0F1500
G1 X10.658Y11.556Z0F1500
G1 X10.837Y11.737Z0F1500
G1 X11.042Y11.858Z0F1500
G1 X11.309Y11.934Z0F1500
G1 X11.561Y11.968Z0F1500
G1 Y12.059Z0F1500
G1 X11.536Y12.194Z0F1500
G1 X11.445Y12.508Z0F1500
G1 X11.368Y12.862Z0F1500
G1 X11.374Y12.832Z0F1500
G1 X11.148Y13.661Z0F1500
G0 Z4.8F800
G0 X12.985Y14.038Z4.8F1500
G1 Z0F1500
G1 X13.238Y13.632Z0F1500
G1 X13.536Y13.259Z0F1500
G1 X13.873Y12.926Z0F1500
G1 X14.249Y12.64Z0F1500
G1 X14.658Y12.409Z0F1500
G1 X15.097Y12.24Z0F1500
G1 X15.57Y12.138Z0F1500
G1 X16.613Y11.925Z0F1500
G1 X17.649Y11.732Z0F1500
G1 X17.773Y17.052Z0F1500
G1 X17.919Y22.371Z0F1500
G1 X17.968Y22.502Z0F1500
G1 X18.056Y22.586Z0F1500
G1 X18.15Y22.638Z0F1500
G1 X18.257Y22.678Z0F1500
G1 X18.515Y22.741Z0F1500
G1 X18.831Y22.789Z0F1500
G1 X19.199Y22.828Z0F1500
G1 X19.608Y22.858Z0F1500
G1 X20.045Y22.881Z0F1500
G1 X20.498Y22.897Z0F1500
G1 X21.401Y22.913Z0F1500
G1 X22.215Y22.916Z0F1500
G1 X23.135Y22.911Z0F1500
G1 X23.381Y22.95Z0F1500
G1 X23.554Y23.036Z0F1500
G1 X23.671Y23.167Z0F1500
G1 X23.748Y23.34Z0F1500
G1 X23.791Y23.553Z0F1500
G1 X23.798Y23.798Z0F1500
G1 X23.773Y24.063Z0F1500
G1 X23.721Y24.334Z0F1500
G1 X23.645Y24.601Z0F1500
G1 X23.554Y24.85Z0F1500
G1 X23.456Y25.07Z0F1500
G1 X23.36Y25.248Z0F1500
G1 X23.316Y25.311Z0F1500
G1 X23.282Y25.35Z0F1500
G1 X23.137Y25.246Z0F1500
G1 X22.981Y25.178Z0F1500
G1 X22.821Y25.139Z0F1500
G1 X22.662Y25.123Z0F1500
G1 X22.331Y25.12Z0F1500
G1 X22.062Y25.097Z0F1500
G1 X22.049Y25.094Z0F1500
G1 X21.369Y25.047Z0F1500
G1 X20.702Y25.011Z0F1500
G1 X20.045Y24.967Z0F1500
G1 X19.409Y24.898Z0F1500
G1 X19.325Y24.364Z0F1500
G1 X19.275Y24.176Z0F1500
G1 X19.186Y23.995Z0F1500
G1 X19.121Y23.911Z0F1500
G1 X19.04Y23.837Z0F1500
G1 X18.944Y23.775Z0F1500
G1 X18.835Y23.728Z0F1500
G1 X18.65Y23.701Z0F1500
G1 X18.478Y23.723Z0F1500
G1 X18.32Y23.785Z0F1500
G1 X18.182Y23.883Z0F1500
G1 X18.072Y24.011Z0F1500
G1 X17.998Y24.163Z0F1500
G1 X17.967Y24.333Z0F1500
G1 X17.987Y24.515Z0F1500
G1 X17.981Y24.473Z0F1500
G1 X18.016Y27.114Z0F1500
G1 X18.092Y29.756Z0F1500
G1 X18.095Y29.78Z0F1500
G1 X18.1Y29.803Z0F1500
G1 X18.155Y29.952Z0F1500
G1 X18.229Y30.101Z0F1500
G1 X18.32Y30.244Z0F1500
G1 X18.43Y30.378Z0F1500
G1 X18.56Y30.498Z0F1500
G1 X18.71Y30.595Z0F1500
G1 X18.879Y30.661Z0F1500
G1 X19.065Y30.685Z0F1500
G1 X19.094Z0F1500
G1 X19.122Y30.677Z0F1500
G1 X19.234Y30.628Z0F1500
G1 X19.331Y30.564Z0F1500
G1 X19.412Y30.486Z0F1500
G1 X19.475Y30.399Z0F1500
G1 X19.553Y30.209Z0F1500
G1 X19.585Y30.014Z0F1500
G1 X19.596Y29.348Z0F1500
G1 X19.653Y29.204Z0F1500
G1 X19.762Y29.081Z0F1500
G1 X19.895Y29.014Z0F1500
G1 X20.03Y29.017Z0F1500
G1 X20.064Y29.023Z0F1500
G1 X20.387Y29.039Z0F1500
G1 X20.694Y29.046Z0F1500
G1 X20.974Y29.074Z0F1500
G1 X21.216Y29.153Z0F1500
G1 X21.271Y30.334Z0F1500
G1 X21.287Y31.516Z0F1500
G1 X21.266Y32.697Z0F1500
G1 X21.214Y33.875Z0F1500
G1 X21.194Y33.945Z0F1500
G1 X21.157Y33.984Z0F1500
G1 X21.087Y34.017Z0F1500
G1 X20.982Y34.041Z0F1500
G1 X20.715Y34.049Z0F1500
G1 X20.43Z0F1500
G1 X19.903Y34.01Z0F1500
G1 X19.793Y33.986Z0F1500
G1 X19.711Y33.952Z0F1500
G1 X19.665Y33.912Z0F1500
G1 X19.634Y33.856Z0F1500
G1 X19.596Y33.266Z0F1500
G1 X19.6Y32.658Z0F1500
G1 Y32.038Z0F1500
G1 X19.547Y31.412Z0F1500
G1 X19.532Y31.363Z0F1500
G1 X19.503Y31.319Z0F1500
G1 X19.294Y31.125Z0F1500
G1 X19.03Y30.964Z0F1500
G1 X18.878Y30.908Z0F1500
G1 X18.716Y30.877Z0F1500
G1 X18.549Y30.882Z0F1500
G1 X18.381Y30.929Z0F1500
G1 X18.346Y30.95Z0F1500
G1 X18.316Y30.977Z0F1500
G1 X18.199Y31.161Z0F1500
G1 X18.135Y31.357Z0F1500
G1 X18.112Y31.557Z0F1500
G1 X18.115Y31.751Z0F1500
G1 X18.145Y32.115Z0F1500
G1 Y32.43Z0F1500
G1 X18.152Y32.746Z0F1500
G1 X18.163Y32.981Z0F1500
G1 X18.155Y33.027Z0F1500
G1 X18.159Z0F1500
G1 X18.141Z0F1500
G1 X18.032Y33.005Z0F1500
G1 X17.978Y32.997Z0F1500
G1 X17.924Y33.005Z0F1500
G1 X17.838Y33.022Z0F1500
G1 X17.847Y33.03Z0F1500
G1 X17.842Y33.011Z0F1500
G1 X17.83Y32.86Z0F1500
G1 X17.819Y32.634Z0F1500
G1 Y32.643Z0F1500
G1 X17.641Y28.118Z0F1500
G1 X17.497Y23.585Z0F1500
G1 X17.341Y19.049Z0F1500
G1 X17.123Y14.515Z0F1500
G1 X17.101Y14.395Z0F1500
G1 X17.062Y14.293Z0F1500
G1 X17.006Y14.205Z0F1500
G1 X16.934Y14.133Z0F1500
G1 X16.767Y14.048Z0F1500
G1 X16.593Y14.019Z0F1500
G1 X16.263Y14.037Z0F1500
G1 X16.006Y14.073Z0F1500
G1 X14.368Y14.277Z0F1500
G1 X12.78Y14.471Z0F1500
G1 X12.985Y14.038Z0F1500
G0 Z4.8F800
G0 X13.03Y16.369Z4.8F1500
G1 Z0F1500
G1 X13.991Y16.284Z0F1500
G1 X12.91Y17.522Z0F1500
G1 X11.881Y18.806Z0F1500
G1 X11.391Y19.467Z0F1500
G1 X10.92Y20.143Z0F1500
G1 X10.47Y20.834Z0F1500
G1 X10.045Y21.541Z0F1500
G1 X9.95Y21.545Z0F1500
G1 X9.855Y21.554Z0F1500
G1 X9.506Y21.624Z0F1500
G1 X9.831Y20.997Z0F1500
G1 X9.98Y20.65Z0F1500
G1 X10.085Y20.267Z0F1500
G1 X10.089Y20.205Z0F1500
G1 X10.077Y20.144Z0F1500
G1 X10.02Y20.013Z0F1500
G1 X9.941Y19.899Z0F1500
G1 X9.844Y19.808Z0F1500
G1 X9.729Y19.746Z0F1500
G1 X9.607Y19.717Z0F1500
G1 X9.489Z0F1500
G1 X9.376Y19.736Z0F1500
G1 X9.272Y19.771Z0F1500
G1 X9.086Y19.869Z0F1500
G1 X8.924Y19.994Z0F1500
G1 X8.788Y20.135Z0F1500
G1 X8.679Y20.286Z0F1500
G1 X8.153Y20.957Z0F1500
G1 X7.667Y21.616Z0F1500
G1 X7.241Y21.435Z0F1500
G1 X6.85Y21.207Z0F1500
G1 X6.512Y20.927Z0F1500
G1 X6.245Y20.592Z0F1500
G1 X6.973Y20.455Z0F1500
G1 X7.683Y20.25Z0F1500
G1 X8.37Y19.978Z0F1500
G1 X9.026Y19.642Z0F1500
G1 X9.645Y19.244Z0F1500
G1 X10.223Y18.785Z0F1500
G1 X10.751Y18.268Z0F1500
G1 X11.224Y17.695Z0F1500
G1 X11.449Y17.41Z0F1500
G1 X11.668Y17.111Z0F1500
G1 X11.873Y16.795Z0F1500
G1 X12.056Y16.459Z0F1500
G1 X13.03Y16.369Z0F1500
G0 Z4.8F800
G0 X15.301Y17.31Z4.8F1500
G1 Z0F1500
G1 X15.514Y23.364Z0F1500
G1 X15.713Y29.415Z0F1500
G1 X14.985Y29.371Z0F1500
G1 X14.26Y29.366Z0F1500
G1 X13.541Y29.389Z0F1500
G1 X12.828Y29.43Z0F1500
G1 X12.996Y29.107Z0F1500
G1 X13.107Y28.758Z0F1500
G1 X13.146Y28.414Z0F1500
G1 X13.113Y28.065Z0F1500
G1 X13.001Y27.727Z0F1500
G1 X12.798Y27.414Z0F1500
G1 X12.636Y27.234Z0F1500
G1 X12.447Y27.083Z0F1500
G1 X12.238Y26.959Z0F1500
G1 X12.013Y26.859Z0F1500
G1 X12.192Y26.553Z0F1500
G1 X12.353Y26.234Z0F1500
G1 X12.489Y25.902Z0F1500
G1 X12.595Y25.559Z0F1500
G1 X12.666Y25.207Z0F1500
G1 X12.697Y24.847Z0F1500
G1 X12.681Y24.481Z0F1500
G1 X12.614Y24.11Z0F1500
G1 X12.502Y23.673Z0F1500
G1 X12.358Y23.225Z0F1500
G1 X12.167Y22.784Z0F1500
G1 X11.912Y22.37Z0F1500
G1 X12.228Y21.72Z0F1500
G1 X12.581Y21.086Z0F1500
G1 X12.965Y20.466Z0F1500
G1 X13.374Y19.857Z0F1500
G1 X14.242Y18.665Z0F1500
G1 X15.139Y17.49Z0F1500
G1 X15.301Y17.31Z0F1500
G0 Z4.8F800
G0 X19.853Y17.955Z4.8F1500
G1 Z0F1500
G1 X19.773Y15.855Z0F1500
G1 X19.75Y14.81Z0F1500
G1 Y13.771Z0F1500
G1 X19.773Y12.738Z0F1500
G1 X19.832Y11.712Z0F1500
G1 Y11.675Z0F1500
G1 X19.868Y11.458Z0F1500
G1 X19.977Y11.292Z0F1500
G1 X20.146Y11.193Z0F1500
G1 X20.362Y11.173Z0F1500
G1 X20.396Z0F1500
G1 X20.429Z0F1500
G1 X22.536Y11.01Z0F1500
G1 X24.66Y10.896Z0F1500
G1 X26.789Y10.833Z0F1500
G1 X28.916Y10.818Z0F1500
G1 X29.118Y10.822Z0F1500
G1 X29.316Y10.853Z0F1500
G1 X29.506Y10.911Z0F1500
G1 X29.672Y10.991Z0F1500
G1 X29.8Y11.085Z0F1500
G1 X29.888Y11.191Z0F1500
G1 X29.935Y11.319Z0F1500
G1 X29.939Y11.482Z0F1500
G1 Y11.498Z0F1500
G1 X29.932Y13.025Z0F1500
G1 X29.909Y14.543Z0F1500
G1 X29.864Y16.06Z0F1500
G1 X29.797Y17.568Z0F1500
G1 X29.419Y17.575Z0F1500
G1 X29.008Y17.572Z0F1500
G1 X28.703Y17.576Z0F1500
G1 X28.389Y17.605Z0F1500
G1 X28.071Y17.677Z0F1500
G1 X27.756Y17.807Z0F1500
G1 X27.672Y17.87Z0F1500
G1 X27.61Y17.956Z0F1500
G1 X27.504Y18.207Z0F1500
G1 X27.43Y18.458Z0F1500
G1 X27.383Y18.708Z0F1500
G1 X27.357Y18.954Z0F1500
G1 X27.341Y19.431Z0F1500
G1 X27.335Y19.877Z0F1500
G1 X27.153Y19.89Z0F1500
G1 X26.72Y19.917Z0F1500
G1 X26.085Y19.953Z0F1500
G1 X25.731Y19.977Z0F1500
G1 X25.411Y20.008Z0F1500
G1 X25.142Y20.05Z0F1500
G1 X25.21Y20.043Z0F1500
G1 X22.568Y20.049Z0F1500
G1 X19.928Y20.064Z0F1500
G1 X19.853Y17.955Z0F1500
G0 Z4.8F800
G0 X26.238Y19.206Z4.8F1500
G1 Z0F1500
G1 X26.95Y19.95Z0F1500
G1 X26.497Y20.695Z0F1500
G1 X26.756Y23.09Z0F1500
G1 X27.047Y23.349Z0F1500
G1 X26.886Y27.395Z0F1500
G1 X26.335Y27.525Z0F1500
G1 X26.465Y23.899Z0F1500
G1 X26.432Y22.864Z0F1500
G1 X26.594Y22.022Z0F1500
G1 X26.497Y20.986Z0F1500
G1 X25.882Y20.015Z0F1500
G1 X26.238Y19.206Z0F1500
G0 Z4.8F800
G0 X29.414Y19.742Z4.8F1500
G1 Z0F1500
G1 X29.934Y19.75Z0F1500
G1 X30.479Y19.764Z0F1500
G1 X30.757Y19.757Z0F1500
G1 X31.038Y19.73Z0F1500
G1 X31.32Y19.678Z0F1500
G1 X31.602Y19.593Z0F1500
G1 X31.649Y19.569Z0F1500
G1 X31.69Y19.534Z0F1500
G1 X31.84Y19.322Z0F1500
G1 X31.926Y19.093Z0F1500
G1 X31.964Y18.859Z0F1500
G1 X31.972Y18.629Z0F1500
G1 X31.959Y18.205Z0F1500
G1 X31.977Y17.857Z0F1500
G1 X31.98Y17.839Z0F1500
G1 X32.022Y16.174Z0F1500
G1 X32.043Y14.531Z0F1500
G1 X32.081Y12.894Z0F1500
G1 X32.172Y11.266Z0F1500
G1 X32.262Y11.041Z0F1500
G1 X32.403Y10.876Z0F1500
G1 X32.592Y10.759Z0F1500
G1 X32.825Y10.677Z0F1500
G1 X33.098Y10.625Z0F1500
G1 X33.388Y10.599Z0F1500
G1 X33.679Y10.593Z0F1500
G1 X33.956Y10.598Z0F1500
G1 X34.305Y10.62Z0F1500
G1 X34.612Y10.701Z0F1500
G1 X34.747Y10.769Z0F1500
G1 X34.869Y10.858Z0F1500
G1 X34.974Y10.969Z0F1500
G1 X35.072Y11.123Z0F1500
G1 X36.794Y13.369Z0F1500
G1 X38.458Y15.639Z0F1500
G1 X40.104Y17.927Z0F1500
G1 X41.757Y20.212Z0F1500
G1 X35.708Y20.205Z0F1500
G1 X29.657Y20.166Z0F1500
G1 X29.616Y20.17Z0F1500
G1 X29.461Y20.208Z0F1500
G1 X29.426Z0F1500
G1 X29.422Y20.204Z0F1500
G1 X29.407Y20.166Z0F1500
G1 X29.399Y19.992Z0F1500
G1 X29.414Y19.742Z0F1500
G0 Z4.8F800
G0 X29.734Y19.983Z4.8F1500
G1 Z0F1500
G1 X30.608Y20.015Z0F1500
G1 X30.641Y20.274Z0F1500
G1 X29.864Y20.533Z0F1500
G1 X29.216Y22.864Z0F1500
G1 X29.443Y27.654Z0F1500
G1 X29.087Y29.37Z0F1500
G1 X29.022Y30.309Z0F1500
G1 X26.692Z0F1500
G1 X26.789Y32.736Z0F1500
G1 X26.692Y37.397Z0F1500
G1 X26.271Y37.559Z0F1500
G1 Y32.704Z0F1500
G1 X26.562Y32.574Z0F1500
G1 X26.724Y30.244Z0F1500
G1 X29.022Y30.114Z0F1500
G1 X29.184Y28.172Z0F1500
G1 X28.893Y27.687Z0F1500
G1 X28.925Y22.799Z0F1500
G1 X29.249Y21.796Z0F1500
G1 X29.734Y19.983Z0F1500
G0 Z4.8F800
G0 X32.162Y22.669Z4.8F1500
G1 Z0F1500
G1 X31.903Y23.835Z0F1500
G1 X32.097Y26.165Z0F1500
G1 X31.968Y27.59Z0F1500
G1 X31.45Y27.816Z0F1500
G1 X31.612Y22.993Z0F1500
G1 X32.162Y22.669Z0F1500
G0 Z4.8F800
G0 X34.104Y22.702Z4.8F1500
G1 Z0F1500
G1 X34.622Y22.864Z0F1500
G1 X34.557Y25.162Z0F1500
G1 X34.59Y27.751Z0F1500
G1 X34.136Y27.654Z0F1500
G1 X34.363Y24.094Z0F1500
G1 X34.104Y22.702Z0F1500
G0 Z4.8F800
G0 X36.693Y23.414Z4.8F1500
G1 Z0F1500
G1 X37.244Y22.928Z0F1500
G1 X37.223Y23.382Z0F1500
G1 X37.203Y23.72Z0F1500
G1 X37.191Y23.852Z0F1500
G1 X37.173Y23.976Z0F1500
G1 X37.158Y24.171Z0F1500
G1 X37.134Y24.644Z0F1500
G1 X37.118Y25.016Z0F1500
G1 X37.082Y26.003Z0F1500
G1 X37.244Y27.136Z0F1500
G1 X37.341Y27.881Z0F1500
G1 X36.661Y27.622Z0F1500
G1 X36.629Y24.935Z0F1500
G1 X36.693Y23.414Z0F1500
G0 Z4.8F800
G0 X42.201Y27.208Z4.8F1500
G1 Z0F1500
G1 X43.042Y27.251Z0F1500
G1 X43.825Y27.319Z0F1500
G1 X43.27Y32.415Z0F1500
G1 X42.66Y37.503Z0F1500
G1 X42.539Y37.493Z0F1500
G1 X42.417Z0F1500
G1 X42.182Y37.515Z0F1500
G1 X41.97Y37.532Z0F1500
G1 X41.811Y37.524Z0F1500
G1 X41.736Y37.503Z0F1500
G1 Y37.495Z0F1500
G1 X41.732Y37.455Z0F1500
G1 X41.75Y37.338Z0F1500
G1 X41.782Y36.565Z0F1500
G1 X41.987Y31.886Z0F1500
G1 X42.201Y27.208Z0F1500
G0 Z4.8F800
G0 X49.648Y29.296Z4.8F1500
G1 Z0F1500
G1 X49.124Y30.182Z0F1500
G1 X48.638Y31.093Z0F1500
G1 X48.195Y32.026Z0F1500
G1 X47.801Y32.98Z0F1500
G1 X47.459Y33.954Z0F1500
G1 X47.176Y34.947Z0F1500
G1 X46.954Y35.965Z0F1500
G1 X46.948Y36.095Z0F1500
G1 X46.962Y36.216Z0F1500
G1 X46.998Y36.333Z0F1500
G1 X47.058Y36.444Z0F1500
G1 X47.145Y36.541Z0F1500
G1 X47.256Y36.617Z0F1500
G1 X47.386Y36.667Z0F1500
G1 X47.526Y36.685Z0F1500
G1 X47.617Y36.666Z0F1500
G1 X47.717Y36.638Z0F1500
G1 X47.916Y36.466Z0F1500
G1 X48.065Y36.266Z0F1500
G1 X48.175Y36.051Z0F1500
G1 X48.259Y35.833Z0F1500
G1 X48.396Y35.422Z0F1500
G1 X48.541Y35.087Z0F1500
G1 X48.55Y35.07Z0F1500
G1 X49.19Y33.532Z0F1500
G1 X49.855Y32.018Z0F1500
G1 X50.538Y30.509Z0F1500
G1 X51.227Y29.002Z0F1500
G1 X51.21Y29.032Z0F1500
G1 X51.268Y28.913Z0F1500
G1 X51.3Y28.788Z0F1500
G1 X51.304Y28.664Z0F1500
G1 X51.28Y28.545Z0F1500
G1 X51.233Y28.44Z0F1500
G1 X51.168Y28.35Z0F1500
G1 X51.089Y28.274Z0F1500
G1 X50.999Y28.215Z0F1500
G1 X50.902Y28.172Z0F1500
G1 X50.796Y28.145Z0F1500
G1 X50.686Y28.138Z0F1500
G1 X50.573Y28.153Z0F1500
G1 X50.46Y28.194Z0F1500
G1 X50.356Y28.26Z0F1500
G1 X50.264Y28.35Z0F1500
G1 X50.191Y28.46Z0F1500
G1 X50.206Y28.434Z0F1500
G1 X49.648Y29.296Z0F1500
G0 Z4.8F800
G0 X51.853Y30.15Z4.8F1500
G1 Z0F1500
G1 X51.151Y31.054Z0F1500
G1 X50.504Y31.999Z0F1500
G1 X49.91Y32.979Z0F1500
G1 X49.369Y33.988Z0F1500
G1 X48.88Y35.021Z0F1500
G1 X48.44Y36.073Z0F1500
G1 X48.345Y36.361Z0F1500
G1 X48.296Y36.538Z0F1500
G1 X48.264Y36.731Z0F1500
G1 X48.259Y36.834Z0F1500
G1 X48.269Y36.942Z0F1500
G1 X48.299Y37.052Z0F1500
G1 X48.355Y37.16Z0F1500
G1 X48.44Y37.255Z0F1500
G1 X48.548Y37.328Z0F1500
G1 X48.674Y37.378Z0F1500
G1 X48.811Y37.404Z0F1500
G1 X48.872Z0F1500
G1 X48.931Y37.387Z0F1500
G1 X49.159Y37.258Z0F1500
G1 X49.338Y37.088Z0F1500
G1 X49.477Y36.894Z0F1500
G1 X49.587Y36.692Z0F1500
G1 X49.765Y36.308Z0F1500
G1 X49.933Y36.006Z0F1500
G1 X49.946Y35.988Z0F1500
G1 X50.433Y35.062Z0F1500
G1 X50.941Y34.174Z0F1500
G1 X51.476Y33.301Z0F1500
G1 X52.035Y32.442Z0F1500
G1 X53.207Y30.754Z0F1500
G1 X54.423Y29.093Z0F1500
G1 X54.441Y29.065Z0F1500
G1 X54.494Y28.943Z0F1500
G1 X54.52Y28.815Z0F1500
G1 Y28.689Z0F1500
G1 X54.487Y28.57Z0F1500
G1 X54.428Y28.466Z0F1500
G1 X54.352Y28.382Z0F1500
G1 X54.262Y28.318Z0F1500
G1 X54.165Y28.272Z0F1500
G1 X53.955Y28.231Z0F1500
G1 X53.737Y28.26Z0F1500
G1 X53.537Y28.363Z0F1500
G1 X53.379Y28.546Z0F1500
G1 X53.428Y28.484Z0F1500
G1 X52.612Y29.291Z0F1500
G1 X51.853Y30.15Z0F1500
G0 Z4.8F800
G0 X53.929Y30.895Z4.8F1500
G1 Z0F1500
G1 X53.226Y31.751Z0F1500
G1 X52.562Y32.638Z0F1500
G1 X51.939Y33.554Z0F1500
G1 X51.356Y34.496Z0F1500
G1 X50.812Y35.46Z0F1500
G1 X50.306Y36.443Z0F1500
G1 X49.839Y37.442Z0F1500
G1 X49.826Y37.476Z0F1500
G1 X49.819Y37.512Z0F1500
G1 Y37.638Z0F1500
G1 X49.844Y37.754Z0F1500
G1 X49.894Y37.859Z0F1500
G1 X49.962Y37.95Z0F1500
G1 X50.046Y38.028Z0F1500
G1 X50.146Y38.089Z0F1500
G1 X50.261Y38.127Z0F1500
G1 X50.389Y38.137Z0F1500
G1 X50.464Y38.121Z0F1500
G1 X50.541Y38.098Z0F1500
G1 X50.77Y37.931Z0F1500
G1 X50.961Y37.734Z0F1500
G1 X51.121Y37.52Z0F1500
G1 X51.258Y37.298Z0F1500
G1 X51.503Y36.868Z0F1500
G1 X51.746Y36.502Z0F1500
G1 X51.757Y36.488Z0F1500
G1 X52.72Y34.971Z0F1500
G1 X53.71Y33.495Z0F1500
G1 X54.72Y32.029Z0F1500
G1 X55.733Y30.555Z0F1500
G1 X55.752Y30.52Z0F1500
G1 X55.766Y30.483Z0F1500
G1 X55.79Y30.357Z0F1500
G1 Y30.231Z0F1500
G1 X55.761Y30.112Z0F1500
G1 X55.707Y30.006Z0F1500
G1 X55.631Y29.919Z0F1500
G1 X55.542Y29.854Z0F1500
G1 X55.444Y29.81Z0F1500
G1 X55.344Y29.785Z0F1500
G1 X55.14Y29.781Z0F1500
G1 X54.941Y29.837Z0F1500
G1 X54.765Y29.955Z0F1500
G1 X54.631Y30.137Z0F1500
G1 X54.674Y30.074Z0F1500
G1 X53.929Y30.895Z0F1500
G0 Z4.8F800
G0 X55.954Y30.425Z4.8F1500
G1 Z0F1500
G1 X54.417Y33.274Z0F1500
G1 X53.687Y34.719Z0F1500
G1 X52.989Y36.181Z0F1500
G1 X52.328Y37.661Z0F1500
G1 X51.709Y39.168Z0F1500
G1 X51.457Y40.067Z0F1500
G1 X51.261Y40.965Z0F1500
G1 X51.1Y41.866Z0F1500
G1 X50.955Y42.764Z0F1500
G1 X50.804Y43.655Z0F1500
G1 X50.629Y44.534Z0F1500
G1 X50.41Y45.396Z0F1500
G1 X50.128Y46.235Z0F1500
G1 X49.924Y46.583Z0F1500
G1 X49.659Y46.852Z0F1500
G1 X49.34Y47.057Z0F1500
G1 X48.974Y47.207Z0F1500
G1 X48.57Y47.31Z0F1500
G1 X48.145Y47.374Z0F1500
G1 X47.713Y47.406Z0F1500
G1 X47.286Y47.415Z0F1500
G1 X45.608Y47.439Z0F1500
G1 X43.921Z0F1500
G1 X37.573Y47.389Z0F1500
G1 X31.225Y47.306Z0F1500
G1 X24.88Y47.166Z0F1500
G1 X18.539Y46.946Z0F1500
G1 X18.604Y46.957Z0F1500
G1 X18.417Y46.919Z0F1500
G1 X18.241Y46.91Z0F1500
G1 X17.933Y46.919Z0F1500
G1 X17.812Y46.91Z0F1500
G1 X17.729Y46.891Z0F1500
G1 X17.7Y46.872Z0F1500
G1 X17.682Y46.851Z0F1500
G1 X17.594Y45.726Z0F1500
G1 X17.598Y44.577Z0F1500
G1 X17.636Y43.41Z0F1500
G1 X17.65Y42.231Z0F1500
G1 X17.67Y41.818Z0F1500
G1 X17.655Y41.372Z0F1500
G1 X17.634Y41.303Z0F1500
G1 X17.586Y41.207Z0F1500
G1 X17.521Y41.091Z0F1500
G1 X17.446Y40.967Z0F1500
G1 X17.299Y40.727Z0F1500
G1 X17.206Y40.562Z0F1500
G1 X17.487Y40.844Z0F1500
G1 X17.777Y41.115Z0F1500
G1 X17.838Y41.133Z0F1500
G1 X17.902Y41.136Z0F1500
G1 X18.092Y41.095Z0F1500
G1 X18.258Y41.016Z0F1500
G1 X18.397Y40.908Z0F1500
G1 X18.505Y40.781Z0F1500
G1 X18.649Y40.508Z0F1500
G1 X18.745Y40.239Z0F1500
G1 X18.832Y40.001Z0F1500
G1 X18.924Y39.824Z0F1500
G1 X18.972Y39.764Z0F1500
G1 X19.023Y39.721Z0F1500
G1 X19.088Y39.693Z0F1500
G1 X19.182Y39.676Z0F1500
G1 X19.87Y39.598Z0F1500
G1 X20.56Y39.563Z0F1500
G1 X21.257Y39.55Z0F1500
G1 X21.96Y39.544Z0F1500
G1 X22.162Y40.358Z0F1500
G1 X22.318Y41.185Z0F1500
G1 X22.448Y42.021Z0F1500
G1 X22.569Y42.866Z0F1500
G1 X22.579Y42.907Z0F1500
G1 X22.595Y42.946Z0F1500
G1 X22.672Y43.066Z0F1500
G1 X22.766Y43.167Z0F1500
G1 X22.873Y43.247Z0F1500
G1 X22.986Y43.306Z0F1500
G1 X23.217Y43.367Z0F1500
G1 X23.441Y43.382Z0F1500
G1 X23.655Y43.378Z0F1500
G1 X23.852Y43.37Z0F1500
G1 X24.02Y43.367Z0F1500
G1 X24.149Y43.38Z0F1500
G1 X24.175Y43.385Z0F1500
G1 X24.201Z0F1500
G1 X35.71Y43.531Z0F1500
G1 X47.218Y43.644Z0F1500
G1 X47.177Y43.64Z0F1500
G1 X47.373Y43.659Z0F1500
G1 X47.579Y43.649Z0F1500
G1 X47.787Y43.605Z0F1500
G1 X47.989Y43.523Z0F1500
G1 X48.086Y43.464Z0F1500
G1 X48.176Y43.389Z0F1500
G1 X48.253Y43.296Z0F1500
G1 X48.311Y43.182Z0F1500
G1 X48.341Y43.053Z0F1500
G1 Y42.918Z0F1500
G1 X48.308Y42.78Z0F1500
G1 X48.246Y42.638Z0F1500
G1 X48.011Y42.235Z0F1500
G1 X47.719Y41.8Z0F1500
G1 X47.521Y41.606Z0F1500
G1 X47.276Y41.455Z0F1500
G1 X47.137Y41.404Z0F1500
G1 X46.988Y41.372Z0F1500
G1 X46.83Y41.364Z0F1500
G1 X46.663Y41.383Z0F1500
G1 X46.726Y41.379Z0F1500
G1 X45.154Y41.311Z0F1500
G1 X43.585Y41.287Z0F1500
G1 X40.455Y41.284Z0F1500
G1 X40.26Y40.505Z0F1500
G1 X40.079Y39.729Z0F1500
G1 X42.008Y39.754Z0F1500
G1 X43.939Y39.798Z0F1500
G1 X45.864Y39.874Z0F1500
G1 X47.777Y39.996Z0F1500
G1 X48.013Y40.124Z0F1500
G1 X48.223Y40.291Z0F1500
G1 X48.408Y40.492Z0F1500
G1 X48.571Y40.721Z0F1500
G1 X48.84Y41.239Z0F1500
G1 X49.048Y41.796Z0F1500
G1 X49.043Y41.778Z0F1500
G1 X49.146Y41.99Z0F1500
G1 X49.312Y42.137Z0F1500
G1 X49.514Y42.214Z0F1500
G1 X49.722Y42.218Z0F1500
G1 X49.821Y42.192Z0F1500
G1 X49.916Y42.15Z0F1500
G1 X50.003Y42.091Z0F1500
G1 X50.081Y42.014Z0F1500
G1 X50.143Y41.92Z0F1500
G1 X50.187Y41.812Z0F1500
G1 X50.209Y41.694Z0F1500
G1 Y41.57Z0F1500
G1 Y41.611Z0F1500
G1 X50.223Y41.171Z0F1500
G1 X50.216Y40.712Z0F1500
G1 X50.175Y40.244Z0F1500
G1 X50.087Y39.779Z0F1500
G1 X49.938Y39.328Z0F1500
G1 X49.713Y38.906Z0F1500
G1 X49.568Y38.713Z0F1500
G1 X49.4Y38.534Z0F1500
G1 X49.207Y38.371Z0F1500
G1 X48.982Y38.225Z0F1500
G1 X48.481Y38.011Z0F1500
G1 X47.974Y37.859Z0F1500
G1 X47.461Y37.754Z0F1500
G1 X46.945Y37.684Z0F1500
G1 X45.925Y37.602Z0F1500
G1 X44.949Y37.516Z0F1500
G1 X45.484Y32.415Z0F1500
G1 X46.026Y27.317Z0F1500
G1 X46.886Y27.278Z0F1500
G1 X47.77Y27.295Z0F1500
G1 X48.673Y27.33Z0F1500
G1 X49.587Y27.342Z0F1500
G1 X51.094Y27.383Z0F1500
G1 X52.609Y27.448Z0F1500
G1 X54.131Y27.495Z0F1500
G1 X55.657Y27.48Z0F1500
G1 X55.7Y27.475Z0F1500
G1 X55.741Y27.462Z0F1500
G1 X55.867Y27.398Z0F1500
G1 X55.974Y27.312Z0F1500
G1 X56.058Y27.21Z0F1500
G1 X56.116Y27.095Z0F1500
G1 X56.145Y26.974Z0F1500
G1 X56.149Y26.854Z0F1500
G1 X56.131Y26.739Z0F1500
G1 X56.095Y26.63Z0F1500
G1 X55.981Y26.432Z0F1500
G1 X55.815Y26.271Z0F1500
G1 X55.606Y26.164Z0F1500
G1 X55.361Y26.127Z0F1500
G1 X55.384Z0F1500
G1 X51.589Y25.863Z0F1500
G1 X47.792Y25.626Z0F1500
G1 X43.994Y25.406Z0F1500
G1 X40.197Y25.192Z0F1500
G1 X40.126Y25.198Z0F1500
G1 X40.059Y25.223Z0F1500
G1 X39.928Y25.311Z0F1500
G1 X39.82Y25.416Z0F1500
G1 X39.734Y25.533Z0F1500
G1 X39.672Y25.658Z0F1500
G1 X39.609Y25.913Z0F1500
G1 X39.598Y26.161Z0F1500
G1 X39.609Y26.399Z0F1500
G1 X39.625Y26.619Z0F1500
G1 X39.634Y26.813Z0F1500
G1 X39.623Y26.968Z0F1500
G1 X39.605Y27.258Z0F1500
G1 X39.617Y27.465Z0F1500
G1 X39.581Y27.46Z0F1500
G1 X39.545Z0F1500
G1 X39.386Y27.475Z0F1500
G1 X39.257Z0F1500
G1 X39.168Y27.465Z0F1500
G1 X39.128Y27.455Z0F1500
G1 Y27.459Z0F1500
G1 X39.131Y27.369Z0F1500
G1 X39.181Y27.181Z0F1500
G1 X39.186Y27.144Z0F1500
G1 X39.225Y26.074Z0F1500
G1 X39.241Y25.007Z0F1500
G1 X39.244Y23.941Z0F1500
G1 Y22.877Z0F1500
G1 X40.712Z0F1500
G1 X42.187Y22.882Z0F1500
G1 X43.666Y22.863Z0F1500
G1 X45.148Y22.788Z0F1500
G1 X45.2Y22.779Z0F1500
G1 X45.248Y22.759Z0F1500
G1 X45.376Y22.674Z0F1500
G1 X45.481Y22.569Z0F1500
G1 X45.557Y22.449Z0F1500
G1 X45.599Y22.317Z0F1500
G1 X45.608Y22.186Z0F1500
G1 X45.59Y22.064Z0F1500
G1 X45.554Y21.95Z0F1500
G1 X45.505Y21.845Z0F1500
G1 X45.389Y21.655Z0F1500
G1 X45.262Y21.485Z0F1500
G1 X45.145Y21.343Z0F1500
G1 X45.057Y21.234Z0F1500
G1 X44.575Y20.602Z0F1500
G1 X44.083Y19.99Z0F1500
G1 X43.607Y19.383Z0F1500
G1 X43.17Y18.764Z0F1500
G1 X44.413Y18.83Z0F1500
G1 X45.653Y18.903Z0F1500
G1 X46.891Y18.989Z0F1500
G1 X48.128Y19.097Z0F1500
G1 X48.196Y19.094Z0F1500
G1 X48.262Y19.073Z0F1500
G1 X48.523Y18.925Z0F1500
G1 X48.758Y18.749Z0F1500
G1 X48.97Y18.554Z0F1500
G1 X49.165Y18.348Z0F1500
G1 X49.526Y17.934Z0F1500
G1 X49.881Y17.575Z0F1500
G1 X50.137Y17.339Z0F1500
G1 X50.366Y17.11Z0F1500
G1 X50.578Y16.916Z0F1500
G1 X50.782Y16.784Z0F1500
G1 X55Y17.99Z0F1500
G1 X59.228Y19.15Z0F1500
G1 X59.27Y19.158Z0F1500
G1 X59.339Y19.174Z0F1500
G1 X59.386Y19.212Z0F1500
G1 X59.443Y19.286Z0F1500
G1 X59.509Y19.4Z0F1500
G1 X59.588Y19.544Z0F1500
G1 X59.695Y19.704Z0F1500
G1 X59.843Y19.852Z0F1500
G1 X60.049Y19.962Z0F1500
G1 X60.573Y20.135Z0F1500
G1 X61.096Y20.227Z0F1500
G1 X61.605Y20.281Z0F1500
G1 X62.09Y20.342Z0F1500
G1 X62.023Y20.862Z0F1500
G1 X62.038Y21.383Z0F1500
G1 X62.081Y21.641Z0F1500
G1 X62.151Y21.893Z0F1500
G1 X62.25Y22.139Z0F1500
G1 X62.381Y22.378Z0F1500
G1 X62.362Y22.756Z0F1500
G1 X62.309Y23.147Z0F1500
G1 X62.235Y23.548Z0F1500
G1 X62.152Y23.955Z0F1500
G1 X61.764Y23.933Z0F1500
G1 X61.408Y23.891Z0F1500
G1 X61.209Y23.841Z0F1500
G1 X61.037Y23.765Z0F1500
G1 X60.89Y23.654Z0F1500
G1 X60.764Y23.496Z0F1500
G1 X60.74Y23.463Z0F1500
G1 X60.496Y23.256Z0F1500
G1 X60.208Y23.122Z0F1500
G1 X59.895Y23.06Z0F1500
G1 X59.576Y23.067Z0F1500
G1 X59.42Y23.096Z0F1500
G1 X59.268Y23.146Z0F1500
G1 X59.124Y23.218Z0F1500
G1 X58.991Y23.313Z0F1500
G1 X58.876Y23.434Z0F1500
G1 X58.784Y23.58Z0F1500
G1 X58.719Y23.747Z0F1500
G1 X58.686Y23.93Z0F1500
G1 X58.695Y23.881Z0F1500
G1 X58.472Y24.879Z0F1500
G1 X58.286Y25.857Z0F1500
G1 X58.172Y26.326Z0F1500
G1 X58.024Y26.774Z0F1500
G1 X57.829Y27.196Z0F1500
G1 X57.563Y27.602Z0F1500
G1 X55.954Y30.425Z0F1500
G0 Z4.8F800
G0 X39.704Y32.833Z4.8F1500
G1 Z0F1500
G1 X39.769Y34.614Z0F1500
G1 X39.607Y36.394Z0F1500
G1 X39.769Y37.171Z0F1500
G1 X39.186Y37.365Z0F1500
G1 X39.251Y32.704Z0F1500
G1 X39.704Y32.833Z0F1500
G0 Z4.8F800
G0 X37.082Y32.736Z4.8F1500
G1 Z0F1500
G1 X36.952Y37.43Z0F1500
G1 X36.629Z0F1500
G1 X36.693Y32.769Z0F1500
G1 X37.082Y32.736Z0F1500
G0 Z4.8F800
G0 X34.492Y32.833Z4.8F1500
G1 Z0F1500
G1 X34.525Y36.653Z0F1500
G1 X34.557Y37.624Z0F1500
G1 X33.975Y37.592Z0F1500
G1 X34.039Y32.736Z0F1500
G1 X34.492Y32.833Z0F1500
G0 Z4.8F800
G0 X32.032Y32.866Z4.8F1500
G1 Z0F1500
G1 X31.741Y36.232Z0F1500
G1 X31.903Y37.948Z0F1500
G1 X32.194Y38.692Z0F1500
G1 X33.877Y39.922Z0F1500
G1 X34.039Y40.602Z0F1500
G1 X33.586Y40.764Z0F1500
G1 X32.647Y39.469Z0F1500
G1 X31.709Y37.915Z0F1500
G1 X31.45Y37.851Z0F1500
G1 X31.579Y32.898Z0F1500
G1 X32.032Y32.866Z0F1500
G0 Z4.8F800
G0 X29.281Y32.801Z4.8F1500
G1 Z0F1500
G1 X29.378Y34.419Z0F1500
G1 X29.313Y37.689Z0F1500
G1 X29.119Y38.142Z0F1500
G1 Y40.472Z0F1500
G1 X28.634Y40.602Z0F1500
G1 X28.957Y39.663Z0F1500
G1 X29.184Y37.656Z0F1500
G1 X28.86Y37.527Z0F1500
G1 Y32.801Z0F1500
G1 X29.281Z0F1500
G0 Z4.8F800
G0 X24.102Y32.574Z4.8F1500
G1 Z0F1500
G1 X24.134Y37.592Z0F1500
G1 X23.908Y36.718Z0F1500
G1 X23.875Y27.719Z0F1500
G1 X23.616Y27.59Z0F1500
G1 Y22.799Z0F1500
G1 X24.167Y22.831Z0F1500
G1 X24.296Y27.525Z0F1500
G1 X24.07Y27.816Z0F1500
G1 X23.843Y37.268Z0F1500
G1 X23.649Y37.462Z0F1500
G1 X23.681Y32.639Z0F1500
G1 X24.102Y32.574Z0F1500
G0 Z4.8F800
G0 X18.102Y35.028Z4.8F1500
G1 Z0F1500
G1 X18.123Y35.054Z0F1500
G1 X18.149Y35.118Z0F1500
G1 X18.169Y35.225Z0F1500
G1 X18.181Y35.368Z0F1500
G1 X18.178Y35.565Z0F1500
G1 X18.254Y36.282Z0F1500
G1 X18.322Y36.952Z0F1500
G1 X18.313Y37.267Z0F1500
G1 X18.254Y37.568Z0F1500
G1 X18.129Y37.853Z0F1500
G1 X17.922Y38.121Z0F1500
G1 X17.832Y38.287Z0F1500
G1 X17.743Y38.456Z0F1500
G1 X17.333Y38.917Z0F1500
G1 X16.832Y39.401Z0F1500
G1 X16.823Y39.432Z0F1500
G1 X16.839Y39.486Z0F1500
G1 X16.876Y39.559Z0F1500
G1 X16.932Y39.649Z0F1500
G1 X17.087Y39.87Z0F1500
G1 X17.478Y40.406Z0F1500
G1 X17.664Y40.68Z0F1500
G1 X17.809Y40.931Z0F1500
G1 X17.888Y41.138Z0F1500
G1 X17.879Y41.202Z0F1500
G1 X17.815Y41.183Z0F1500
G1 X17.713Y41.102Z0F1500
G1 X17.588Y40.982Z0F1500
G1 X17.456Y40.843Z0F1500
G1 X17.333Y40.708Z0F1500
G1 X17.176Y40.533Z0F1500
G1 X16.399Y39.707Z0F1500
G1 X16.269Y39.539Z0F1500
G1 X16.178Y39.372Z0F1500
G1 X16.095Y39.2Z0F1500
G1 X15.984Y39.015Z0F1500
G1 X16.066Y39.045Z0F1500
G1 X16.163Y39.039Z0F1500
G1 X16.268Y39.022Z0F1500
G1 X16.373Z0F1500
G1 X16.522Y39.007Z0F1500
G1 X16.687Y38.937Z0F1500
G1 X16.849Y38.837Z0F1500
G1 X16.99Y38.732Z0F1500
G1 X17.219Y38.54Z0F1500
G1 X17.427Y38.327Z0F1500
G1 X17.609Y38.095Z0F1500
G1 X17.761Y37.844Z0F1500
G1 X17.879Y37.573Z0F1500
G1 X17.958Y37.283Z0F1500
G1 X17.993Y36.974Z0F1500
G1 X17.982Y36.646Z0F1500
G1 X17.934Y36.299Z0F1500
G1 X17.98Y35.656Z0F1500
G1 X18.004Y35.023Z0F1500
G1 X18.067Y35.016Z0F1500
G1 X18.102Y35.028Z0F1500
G0 Z4.8F800
G0 X13.674Y36.087Z4.8F1500
G1 Z0F1500
G1 X13.096Y35.186Z0F1500
G1 X12.507Y34.248Z0F1500
G1 X11.922Y33.299Z0F1500
G1 X11.353Y32.367Z0F1500
G1 X10.096Y30.287Z0F1500
G1 X9.695Y29.627Z0F1500
G1 X9.373Y29.104Z0F1500
G1 X9.246Y28.904Z0F1500
G1 X9.143Y28.748Z0F1500
G1 X9.068Y28.64Z0F1500
G1 X8.943Y28.423Z0F1500
G1 X8.843Y28.19Z0F1500
G1 X8.772Y27.954Z0F1500
G1 X8.731Y27.726Z0F1500
G1 X9.403Y27.63Z0F1500
G1 X10.068Y27.541Z0F1500
G1 X9.948Y27.781Z0F1500
G1 X9.866Y28.035Z0F1500
G1 X9.824Y28.297Z0F1500
G1 Y28.562Z0F1500
G1 X9.863Y28.825Z0F1500
G1 X9.947Y29.079Z0F1500
G1 X10.075Y29.32Z0F1500
G1 X10.248Y29.541Z0F1500
G1 X10.366Y29.679Z0F1500
G1 X10.498Y29.798Z0F1500
G1 X10.64Y29.897Z0F1500
G1 X10.79Y29.979Z0F1500
G1 X10.767Y30.094Z0F1500
G1 X10.791Y30.252Z0F1500
G1 X10.825Y30.413Z0F1500
G1 X10.832Y30.537Z0F1500
G1 X10.812Y30.713Z0F1500
G1 X10.847Y30.826Z0F1500
G1 X10.931Y30.93Z0F1500
G1 X11.061Y31.079Z0F1500
G1 X16.805Y39.388Z0F1500
G1 X16.792Y39.406Z0F1500
G1 X16.726Y39.395Z0F1500
G1 X16.622Y39.366Z0F1500
G1 X16.499Y39.324Z0F1500
G1 X16.262Y39.236Z0F1500
G1 X16.152Y39.193Z0F1500
G1 X16.052Y39.165Z0F1500
G1 X15.926Y39.084Z0F1500
G1 X15.777Y38.953Z0F1500
G1 X15.607Y38.776Z0F1500
G1 X15.417Y38.555Z0F1500
G1 X15.208Y38.295Z0F1500
G1 X14.983Y37.998Z0F1500
G1 X14.744Y37.668Z0F1500
G1 X14.228Y36.923Z0F1500
G1 X13.674Y36.087Z0F1500
G0 Z4.8F800
G0 X24.111Y39.362Z4.8F1500
G1 Z0F1500
G1 X25.215Y39.341Z0F1500
G1 X26.329Y39.346Z0F1500
G1 X27.445Y39.333Z0F1500
G1 X28.556Y39.261Z0F1500
G1 X28.787Y39.114Z0F1500
G1 X28.949Y39.017Z0F1500
G1 X29.004Y39.008Z0F1500
G1 X29.041Y39.037Z0F1500
G1 X29.06Y39.114Z0F1500
G1 Y39.245Z0F1500
G1 X29.086Y39.394Z0F1500
G1 X29.152Y39.475Z0F1500
G1 X29.252Y39.502Z0F1500
G1 X29.377Y39.491Z0F1500
G1 X29.672Y39.41Z0F1500
G1 X29.972Y39.346Z0F1500
G1 X30.061Y39.384Z0F1500
G1 X30.131Y39.451Z0F1500
G1 X30.184Y39.541Z0F1500
G1 X30.227Y39.646Z0F1500
G1 X30.292Y39.875Z0F1500
G1 X30.36Y40.084Z0F1500
G1 X30.507Y40.724Z0F1500
G1 X30.597Y41.383Z0F1500
G1 X29.551Y41.398Z0F1500
G1 X28.504Y41.395Z0F1500
G1 X24.559Y41.379Z0F1500
G1 X24.486Y40.866Z0F1500
G1 X24.398Y40.355Z0F1500
G1 X24.278Y39.852Z0F1500
G1 X24.111Y39.362Z0F1500
G0 Z4.8F800
G0 X32.02Y39.276Z4.8F1500
G1 Z0F1500
G1 X32.123Y39.185Z0F1500
G1 X32.181Y39.079Z0F1500
G1 X32.202Y38.962Z0F1500
G1 X32.192Y38.838Z0F1500
G1 X32.103Y38.594Z0F1500
G1 X31.965Y38.383Z0F1500
G1 X32.279Y38.648Z0F1500
G1 X32.586Y38.926Z0F1500
G1 X32.907Y39.181Z0F1500
G1 X33.262Y39.379Z0F1500
G1 X35.519Y39.415Z0F1500
G1 X37.777Y39.458Z0F1500
G1 X38.073Y40.453Z0F1500
G1 X38.327Y41.442Z0F1500
G1 X32.698Z0F1500
G1 X32.672Y41.291Z0F1500
G1 X32.564Y40.77Z0F1500
G1 X32.418Y40.258Z0F1500
G1 X32.236Y39.758Z0F1500
G1 X32.02Y39.276Z0F1500
G0 Z4.8F800
G0 X10.862Y25.924Z4.8F1500
G1 Z0F1500
G1 X10.632Y26.041Z0F1500
G1 X10.372Y26.114Z0F1500
G1 X9.814Y26.182Z0F1500
G1 X9.282Y26.241Z0F1500
G1 X9.355Y25.812Z0F1500
G1 X9.388Y25.409Z0F1500
G1 Y25.005Z0F1500
G1 X9.351Y24.603Z0F1500
G1 X9.282Y24.206Z0F1500
G1 X9.179Y23.816Z0F1500
G1 X9.044Y23.435Z0F1500
G1 X8.876Y23.066Z0F1500
G1 X9.341Y23.037Z0F1500
G1 X9.813Y22.994Z0F1500
G1 X10.047Y22.986Z0F1500
G1 X10.276Y22.998Z0F1500
G1 X10.499Y23.038Z0F1500
G1 X10.713Y23.113Z0F1500
G1 X10.911Y23.361Z0F1500
G1 X11.06Y23.636Z0F1500
G1 X11.165Y23.932Z0F1500
G1 X11.23Y24.243Z0F1500
G1 X11.26Y24.562Z0F1500
G1 Y24.882Z0F1500
G1 X11.234Y25.196Z0F1500
G1 X11.188Y25.499Z0F1500
G1 X11.051Y25.748Z0F1500
G1 X10.862Y25.924Z0F1500
G0 Z4.8F800
G0 X8.664Y26.359Z4.8F1500
G1 Z0F1500
G1 X8.405Y26.391Z0F1500
G1 X8.142Y26.418Z0F1500
G1 X8.256Y26.269Z0F1500
G1 X8.34Y26.101Z0F1500
G1 X8.402Y25.922Z0F1500
G1 X8.451Y25.74Z0F1500
G1 X8.474Y25.474Z0F1500
G1 X8.462Y25.207Z0F1500
G1 X8.395Y24.676Z0F1500
G1 X8.359Y24.42Z0F1500
G1 X8.308Y24.165Z0F1500
G1 X8.229Y23.92Z0F1500
G1 X8.105Y23.693Z0F1500
G1 X8.012Y23.557Z0F1500
G1 X7.908Y23.428Z0F1500
G1 X7.787Y23.319Z0F1500
G1 X7.641Y23.243Z0F1500
G1 X8.042Y23.174Z0F1500
G1 X8.445Y23.114Z0F1500
G1 X8.362Y23.223Z0F1500
G1 X8.33Y23.353Z0F1500
G1 Y23.493Z0F1500
G1 X8.345Y23.628Z0F1500
G1 X8.452Y24.332Z0F1500
G1 X8.535Y25.033Z0F1500
G1 X8.589Y26.173Z0F1500
G1 X8.614Y26.271Z0F1500
G1 X8.664Y26.359Z0F1500
G0 Z4.8F800
G0 X41.111Y15.9Z4.8F1500
G1 Z0F1500
G1 X40.856Y15.533Z0F1500
G1 X40.565Y15.152Z0F1500
G1 X40.594Y15.191Z0F1500
G1 X40.244Y14.673Z0F1500
G1 X39.898Y14.171Z0F1500
G1 X39.572Y13.678Z0F1500
G1 X39.285Y13.186Z0F1500
G1 X39.561Y13.019Z0F1500
G1 X39.881Y12.84Z0F1500
G1 X40.155Y12.684Z0F1500
G1 X40.425Y12.488Z0F1500
G1 X40.669Y12.239Z0F1500
G1 X40.866Y11.923Z0F1500
G1 X40.878Y11.896Z0F1500
G1 X40.887Y11.868Z0F1500
G1 Y11.832Z0F1500
G1 X41.246Y12.159Z0F1500
G1 X41.628Y12.458Z0F1500
G1 X42.03Y12.728Z0F1500
G1 X42.452Y12.965Z0F1500
G1 X42.893Y13.166Z0F1500
G1 X43.352Y13.33Z0F1500
G1 X43.827Y13.453Z0F1500
G1 X44.318Y13.533Z0F1500
G1 X44.599Y13.554Z0F1500
G1 X44.874Z0F1500
G1 X44.74Y13.603Z0F1500
G1 X44.598Y13.629Z0F1500
G1 X44.119Y13.644Z0F1500
G1 X43.861Y13.665Z0F1500
G1 X43.589Y13.711Z0F1500
G1 X43.322Y13.805Z0F1500
G1 X43.064Y13.964Z0F1500
G1 X42.84Y14.19Z0F1500
G1 X42.675Y14.484Z0F1500
G1 X42.571Y14.678Z0F1500
G1 X42.512Y14.883Z0F1500
G1 X42.501Y15.092Z0F1500
G1 X42.544Y15.296Z0F1500
G1 X42.654Y15.504Z0F1500
G1 X42.82Y15.678Z0F1500
G1 X43.03Y15.806Z0F1500
G1 X43.273Y15.875Z0F1500
G1 X43.194Y15.856Z0F1500
G1 X44.08Y16.156Z0F1500
G1 X44.976Y16.436Z0F1500
G1 X45.876Y16.695Z0F1500
G1 X46.777Y16.932Z0F1500
G1 X44.171Y16.722Z0F1500
G1 X41.591Y16.502Z0F1500
G1 X41.35Y16.231Z0F1500
G1 X41.111Y15.9Z0F1500
G0 Z4.8F800
G0 X47.008Y16.951Z4.8F1500
G1 Z0F1500
G1 X47.046Z0F1500
G1 X47.084Y16.948Z0F1500
G1 X47.404Y16.796Z0F1500
G1 X47.652Y16.594Z0F1500
G1 X47.849Y16.378Z0F1500
G1 X48.017Y16.183Z0F1500
G1 X48.168Y16.037Z0F1500
G1 X48.293Y15.948Z0F1500
G1 X48.39Y15.913Z0F1500
G1 X48.508Y15.922Z0F1500
G1 X48.477Y15.914Z0F1500
G1 X48.573Y15.939Z0F1500
G1 X48.667Y15.959Z0F1500
G1 X48.39Y16.253Z0F1500
G1 X48.111Y16.529Z0F1500
G1 X47.828Y16.779Z0F1500
G1 X47.539Y16.995Z0F1500
G1 X47.008Y16.951Z0F1500
G0 Z4.8F800
G0 X39.896Y10.638Z4.8F1500
G1 Z0F1500
G1 X39.709Y10.648Z0F1500
G1 X39.525Y10.698Z0F1500
G1 X39.088Y10.867Z0F1500
G1 X38.694Y11.054Z0F1500
G1 X38.34Y11.233Z0F1500
G1 X38.024Y11.38Z0F1500
G1 X37.624Y10.792Z0F1500
G1 X37.295Y10.218Z0F1500
G1 X38.223Y9.656Z0F1500
G1 X39.19Y9.062Z0F1500
G1 X39.328Y9.473Z0F1500
G1 X39.491Y9.874Z0F1500
G1 X39.679Y10.263Z0F1500
G1 X39.896Y10.638Z0F1500
G0 Z4.8F800
G0 X44.979Y7.696Z4.8F1500
G1 Z0F1500
G1 X44.843Y7.565Z0F1500
G1 X44.744Y7.405Z0F1500
G1 X44.689Y7.225Z0F1500
G1 X44.686Y7.032Z0F1500
G1 X44.742Y6.835Z0F1500
G1 X44.781Y6.704Z0F1500
G1 X44.843Y6.595Z0F1500
G1 X44.924Y6.505Z0F1500
G1 X45.02Y6.435Z0F1500
G1 X45.245Y6.354Z0F1500
G1 X45.49Y6.347Z0F1500
G1 X45.729Y6.412Z0F1500
G1 X45.932Y6.544Z0F1500
G1 X46.012Y6.634Z0F1500
G1 X46.073Y6.74Z0F1500
G1 X46.111Y6.862Z0F1500
G1 X46.123Y6.998Z0F1500
G1 X46.115Y7.285Z0F1500
G1 X46.011Y7.566Z0F1500
G1 X45.924Y7.682Z0F1500
G1 X45.816Y7.772Z0F1500
G1 X45.686Y7.827Z0F1500
G1 X45.536Y7.837Z0F1500
G1 X45.332Y7.84Z0F1500
G1 X45.144Y7.79Z0F1500
G1 X44.979Y7.696Z0F1500
G0 Z4.8F800
G0 X42.039Y8.062Z4.8F1500
G1 Z0F1500
G1 X42.177Y8.49Z0F1500
G1 X42.36Y8.901Z0F1500
G1 X42.634Y9.304Z0F1500
G1 X42.957Y9.652Z0F1500
G1 X43.324Y9.951Z0F1500
G1 X43.727Y10.197Z0F1500
G1 X44.159Y10.39Z0F1500
G1 X44.611Y10.529Z0F1500
G1 X45.076Y10.611Z0F1500
G1 X45.547Y10.635Z0F1500
G1 X45.91Y10.614Z0F1500
G1 X46.262Y10.552Z0F1500
G1 X46.602Y10.452Z0F1500
G1 X46.927Y10.316Z0F1500
G1 X47.236Y10.147Z0F1500
G1 X47.526Y9.948Z0F1500
G1 X47.796Y9.721Z0F1500
G1 X48.042Y9.468Z0F1500
G1 X48.265Y9.193Z0F1500
G1 X48.46Y8.898Z0F1500
G1 X48.627Y8.586Z0F1500
G1 X48.763Y8.259Z0F1500
G1 X48.866Y7.92Z0F1500
G1 X48.934Y7.572Z0F1500
G1 X48.966Y7.217Z0F1500
G1 X48.958Y6.857Z0F1500
G1 X48.901Y6.358Z0F1500
G1 X48.762Y5.885Z0F1500
G1 X48.552Y5.443Z0F1500
G1 X48.28Y5.034Z0F1500
G1 X47.958Y4.662Z0F1500
G1 X47.595Y4.332Z0F1500
G1 X47.202Y4.045Z0F1500
G1 X46.789Y3.806Z0F1500
G1 X46.757Y3.792Z0F1500
G1 X46.448Y3.698Z0F1500
G1 X46.132Y3.632Z0F1500
G1 X45.811Y3.592Z0F1500
G1 X45.489Y3.579Z0F1500
G1 X45.167Y3.593Z0F1500
G1 X44.847Y3.633Z0F1500
G1 X44.532Y3.699Z0F1500
G1 X44.224Y3.79Z0F1500
G1 X43.926Y3.907Z0F1500
G1 X43.639Y4.049Z0F1500
G1 X43.367Y4.216Z0F1500
G1 X43.11Y4.408Z0F1500
G1 X42.872Y4.623Z0F1500
G1 X42.655Y4.863Z0F1500
G1 X42.461Y5.127Z0F1500
G1 X42.292Y5.414Z0F1500
G1 X42.099Y5.831Z0F1500
G1 X41.972Y6.267Z0F1500
G1 X41.907Y6.715Z0F1500
G1 X41.899Y7.168Z0F1500
G1 X41.944Y7.62Z0F1500
G1 X42.039Y8.062Z0F1500
G0 Z4.8F800
G0 X40.936Y8.093Z4.8F1500
G1 Z0F1500
G1 X40.872Y7.638Z0F1500
G1 X40.854Y7.174Z0F1500
G1 X40.877Y6.705Z0F1500
G1 X40.936Y6.237Z0F1500
G1 X41.028Y5.774Z0F1500
G1 X41.191Y5.324Z0F1500
G1 X41.405Y4.893Z0F1500
G1 X41.667Y4.485Z0F1500
G1 X41.97Y4.105Z0F1500
G1 X42.311Y3.755Z0F1500
G1 X42.683Y3.44Z0F1500
G1 X43.082Y3.163Z0F1500
G1 X43.503Y2.928Z0F1500
G1 X44.07Y2.743Z0F1500
G1 X44.66Y2.619Z0F1500
G1 X45.262Y2.561Z0F1500
G1 X45.865Y2.572Z0F1500
G1 X46.46Y2.655Z0F1500
G1 X47.036Y2.815Z0F1500
G1 X47.582Y3.055Z0F1500
G1 X48.087Y3.379Z0F1500
G1 X48.375Y3.603Z0F1500
G1 X48.636Y3.845Z0F1500
G1 X48.877Y4.108Z0F1500
G1 X49.096Y4.389Z0F1500
G1 X49.293Y4.686Z0F1500
G1 X49.467Y4.997Z0F1500
G1 X49.617Y5.321Z0F1500
G1 X49.743Y5.655Z0F1500
G1 X49.843Y5.997Z0F1500
G1 X49.918Y6.345Z0F1500
G1 X49.965Y6.697Z0F1500
G1 X49.985Y7.051Z0F1500
G1 X49.976Y7.405Z0F1500
G1 X49.939Y7.758Z0F1500
G1 X49.871Y8.106Z0F1500
G1 X49.77Y8.455Z0F1500
G1 X49.583Y8.983Z0F1500
G1 X49.326Y9.476Z0F1500
G1 X49.005Y9.935Z0F1500
G1 X48.628Y10.352Z0F1500
G1 X48.202Y10.721Z0F1500
G1 X47.734Y11.036Z0F1500
G1 X47.232Y11.29Z0F1500
G1 X46.698Y11.476Z0F1500
G1 X46.379Y11.564Z0F1500
G1 X46.059Y11.625Z0F1500
G1 X45.737Y11.659Z0F1500
G1 X45.402Y11.665Z0F1500
G1 X44.807Y11.633Z0F1500
G1 X44.225Y11.517Z0F1500
G1 X43.663Y11.322Z0F1500
G1 X43.13Y11.054Z0F1500
G1 X42.634Y10.719Z0F1500
G1 X42.184Y10.324Z0F1500
G1 X41.788Y9.873Z0F1500
G1 X41.45Y9.366Z0F1500
G1 X41.217Y8.958Z0F1500
G1 X41.049Y8.535Z0F1500
G1 X40.936Y8.093Z0F1500
M9
M5
G1 Z10 F1000
G90
G1 Z10 F800
G1 X120 F1500
