;FLAVOR:Marlin
;TIME:7646
;Filament used: 7.16052m
;Layer height: 0.2
;MINX:11.536
;MINY:15.802
;MINZ:0.2
;MAXX:221.956
;MAXY:221.69
;MAXZ:4
;Generated with Cura_SteamEngine main
M140 S50
M105
M190 S50
M104 S200
M105
M109 S200
M82 ;absolute extrusion mode
; Ender 3 Custom Start G-code
G92 E0 ; Reset Extruder
G28 ; Home all axes
G1 Z2.0 F3000 ; Move Z Axis up little to prevent scratching of Heat Bed
G1 X0.1 Y20 Z0.3 F5000.0 ; Move to start position
G1 X0.1 Y200.0 Z0.3 F1500.0 E15 ; Draw the first line
G1 X0.4 Y200.0 Z0.3 F5000.0 ; Move to side a little
G1 X0.4 Y20 Z0.3 F1500.0 E30 ; Draw the second line
G92 E0 ; Reset Extruder
G1 Z2.0 F3000 ; Move Z Axis up little to prevent scratching of Heat Bed
G1 X5 Y20 Z0.3 F5000.0 ; Move over to prevent blob squish
G92 E0
G92 E0
G1 F2700 E-5
;LAYER_COUNT:20
;LAYER:0
M107
G0 F6000 X13.235 Y16.888 Z0.2
G0 X11.539 Y20.402
;TYPE:SKIRT
G1 F2700 E0
G1 F1200 X11.568 Y20.01 E0.01961
G1 X11.625 Y19.622 E0.03918
G1 X11.756 Y19.099 E0.06607
G1 X11.89 Y18.727 E0.0858
G1 X12.081 Y18.311 E0.10864
G1 X12.276 Y17.967 E0.12837
G1 X12.678 Y17.427 E0.16195
G1 X12.947 Y17.147 E0.18132
G1 X13.235 Y16.888 E0.20065
G1 X13.547 Y16.645 E0.22038
G1 X14.107 Y16.309 E0.25296
G1 X14.466 Y16.149 E0.27257
G1 X14.847 Y16.012 E0.29277
G1 X15.126 Y15.935 E0.30721
G1 X15.519 Y15.858 E0.32719
G1 X15.816 Y15.822 E0.34211
G1 X16.141 Y15.802 E0.35836
G1 X60.336 Y15.802 E2.56326
G1 X60.666 Y15.822 E2.57975
G1 X60.958 Y15.858 E2.59443
G1 X61.411 Y15.954 E2.61753
G1 X61.784 Y16.067 E2.63697
G1 X62.276 Y16.271 E2.66355
G1 X62.625 Y16.458 E2.6833
G1 X63.066 Y16.754 E2.7098
G1 X63.366 Y17.001 E2.72919
G1 X63.696 Y17.323 E2.75219
G1 X63.888 Y17.546 E2.76687
G1 X64.123 Y17.863 E2.78656
G1 X64.282 Y18.114 E2.80138
G1 X64.493 Y18.519 E2.82416
G1 X64.673 Y18.951 E2.84751
G1 X64.94 Y18.61 E2.86912
G1 X65.209 Y18.314 E2.88907
G1 X65.425 Y18.109 E2.90393
G1 X65.782 Y17.824 E2.92672
G1 X66.106 Y17.607 E2.94618
G1 X66.519 Y17.38 E2.96969
G1 X66.875 Y17.223 E2.9891
G1 X67.504 Y17.032 E3.02189
G1 X67.955 Y16.954 E3.04473
G1 X68.415 Y16.915 E3.06776
G1 X112.55 Y16.915 E5.26966
G1 X113.046 Y16.944 E5.29445
G1 X113.507 Y17.019 E5.31775
G1 X113.887 Y17.115 E5.33731
G1 X114.313 Y17.262 E5.35979
G1 X114.579 Y17.379 E5.37429
G1 X114.993 Y17.606 E5.39784
G1 X115.322 Y17.826 E5.41759
G1 X115.688 Y18.119 E5.44098
G1 X115.898 Y18.32 E5.45548
G1 X116.198 Y18.66 E5.4781
G1 X116.433 Y18.976 E5.49775
G1 X116.679 Y19.376 E5.52118
G1 X116.812 Y19.641 E5.53597
G1 X116.982 Y20.065 E5.55876
G1 X117.104 Y20.483 E5.58049
G1 X117.532 Y19.907 E5.61629
G1 X117.894 Y19.51 E5.64309
G1 X118.251 Y19.189 E5.66704
G1 X118.621 Y18.91 E5.69016
G1 X118.841 Y18.786 E5.70276
G1 X119.244 Y18.583 E5.72528
G1 X119.737 Y18.392 E5.75165
G1 X120.065 Y18.301 E5.76864
G1 X120.462 Y18.223 E5.78882
G1 X120.759 Y18.187 E5.80375
G1 X121.084 Y18.167 E5.81999
G1 X165.278 Y18.167 E8.02484
G1 X165.608 Y18.187 E8.04133
G1 X165.9 Y18.223 E8.05601
G1 X166.357 Y18.32 E8.07932
G1 X166.826 Y18.463 E8.10378
G1 X167.257 Y18.636 E8.12695
G1 X167.537 Y18.799 E8.14311
G1 X167.948 Y19.073 E8.16776
G1 X168.317 Y19.369 E8.19136
G1 X168.527 Y19.57 E8.20586
G1 X168.79 Y19.862 E8.22547
G1 X169.04 Y20.183 E8.24577
G1 X169.253 Y20.51 E8.26524
G1 X169.652 Y19.954 E8.29938
G1 X169.89 Y19.711 E8.31635
G1 X170.33 Y19.313 E8.34595
G1 X170.7 Y19.032 E8.36913
G1 X170.995 Y18.87 E8.38592
G1 X171.443 Y18.66 E8.4106
G1 X171.866 Y18.504 E8.4331
G1 X172.143 Y18.427 E8.44744
G1 X172.541 Y18.348 E8.46768
G1 X172.838 Y18.312 E8.48261
G1 X173.163 Y18.292 E8.49885
G1 X217.466 Y18.292 E10.70914
G1 X218.064 Y18.359 E10.73916
G1 X218.535 Y18.466 E10.76326
G1 X219.142 Y18.683 E10.79542
G1 X219.581 Y18.902 E10.81989
G1 X220.146 Y19.279 E10.85378
G1 X220.442 Y19.536 E10.87334
G1 X220.714 Y19.809 E10.89256
G1 X220.906 Y20.031 E10.90721
G1 X221.147 Y20.356 E10.92739
G1 X221.306 Y20.608 E10.94226
G1 X221.487 Y20.946 E10.96139
G1 X221.649 Y21.308 E10.98117
G1 X221.802 Y21.747 E11.00437
G1 X221.856 Y22.016 E11.01806
G1 X221.927 Y22.496 E11.04226
G1 X221.956 Y22.891 E11.06202
G1 X221.956 Y217.086 E20.75045
G1 X221.927 Y217.48 E20.77016
G1 X221.855 Y217.968 E20.79477
G1 X221.748 Y218.42 E20.81794
G1 X221.626 Y218.725 E20.83433
G1 X221.378 Y219.251 E20.86335
G1 X221.145 Y219.653 E20.88653
G1 X220.978 Y219.866 E20.90003
G1 X220.716 Y220.169 E20.92001
G1 X220.392 Y220.486 E20.94263
G1 X220.09 Y220.735 E20.96216
G1 X219.642 Y221.035 E20.98906
G1 X219.216 Y221.262 E21.01314
G1 X218.789 Y221.444 E21.0363
G1 X218.539 Y221.513 E21.04923
G1 X218.144 Y221.602 E21.06944
G1 X217.753 Y221.66 E21.08916
G1 X217.258 Y221.69 E21.1139
G1 X173.258 Y221.69 E23.30907
G1 X172.763 Y221.66 E23.33381
G1 X172.368 Y221.601 E23.35373
G1 X171.975 Y221.512 E23.37384
G1 X171.532 Y221.371 E23.39703
G1 X171.302 Y221.262 E23.40973
G1 X170.874 Y221.034 E23.43392
G1 X170.427 Y220.736 E23.46072
G1 X170.054 Y220.429 E23.48482
G1 X169.722 Y220.104 E23.508
G1 X169.557 Y219.891 E23.52145
G1 X169.186 Y219.36 E23.55376
G1 X168.792 Y219.866 E23.58576
G1 X168.529 Y220.157 E23.60533
G1 X168.317 Y220.36 E23.61997
G1 X167.951 Y220.654 E23.64339
G1 X167.622 Y220.874 E23.66314
G1 X167.217 Y221.098 E23.68623
G1 X166.949 Y221.217 E23.70086
G1 X166.573 Y221.351 E23.72077
G1 X166.291 Y221.429 E23.73537
G1 X165.898 Y221.507 E23.75536
G1 X165.603 Y221.543 E23.77018
G1 X165.276 Y221.563 E23.78653
G1 X121.082 Y221.563 E25.99138
G1 X120.756 Y221.543 E26.00767
G1 X120.46 Y221.507 E26.02255
G1 X120.001 Y221.41 E26.04595
G1 X119.629 Y221.297 E26.06535
G1 X119.136 Y221.093 E26.09197
G1 X118.786 Y220.905 E26.11179
G1 X118.395 Y220.649 E26.13511
G1 X118.166 Y220.469 E26.14964
G1 X117.884 Y220.213 E26.16864
G1 X117.683 Y220.003 E26.18314
G1 X117.387 Y219.634 E26.20674
G1 X117.167 Y219.304 E26.22653
G1 X116.921 Y218.842 E26.25264
G1 X116.737 Y218.399 E26.27657
G1 X116.606 Y217.987 E26.29814
G1 X116.261 Y218.503 E26.32911
G1 X116.004 Y218.799 E26.34867
G1 X115.732 Y219.07 E26.36782
G1 X115.434 Y219.328 E26.38749
G1 X114.877 Y219.701 E26.42093
G1 X114.524 Y219.878 E26.44063
G1 X114.097 Y220.048 E26.46356
G1 X113.724 Y220.161 E26.48301
G1 X113.269 Y220.257 E26.50621
G1 X112.975 Y220.293 E26.52098
G1 X112.647 Y220.313 E26.53738
G1 X68.341 Y220.313 E28.74781
G1 X67.742 Y220.246 E28.77788
G1 X67.272 Y220.139 E28.80193
G1 X66.664 Y219.921 E28.83416
G1 X66.226 Y219.702 E28.85859
G1 X65.667 Y219.329 E28.89212
G1 X65.29 Y219.003 E28.91698
G1 X64.966 Y218.671 E28.94012
G1 X64.812 Y218.463 E28.95304
G1 X64.541 Y218.058 E28.97735
G1 X64.29 Y217.588 E29.00393
G1 X64.108 Y217.147 E29.02773
G1 X63.956 Y217.374 E29.04136
G1 X63.7 Y217.672 E29.06096
G1 X63.37 Y217.996 E29.08403
G1 X63.068 Y218.245 E29.10356
G1 X62.625 Y218.542 E29.13017
G1 X62.276 Y218.729 E29.14992
G1 X61.784 Y218.933 E29.1765
G1 X61.411 Y219.046 E29.19594
G1 X60.956 Y219.142 E29.21914
G1 X60.662 Y219.178 E29.23392
G1 X60.334 Y219.198 E29.25031
G1 X16.139 Y219.198 E31.45521
G1 X15.813 Y219.178 E31.4715
G1 X15.517 Y219.142 E31.48638
G1 X15.056 Y219.045 E31.50988
G1 X14.685 Y218.932 E31.52923
G1 X14.197 Y218.729 E31.5556
G1 X13.846 Y218.541 E31.57547
G1 X13.452 Y218.284 E31.59894
G1 X13.223 Y218.104 E31.61347
G1 X12.938 Y217.845 E31.63268
G1 X12.668 Y217.562 E31.65219
G1 X12.271 Y217.025 E31.68551
G1 X12.078 Y216.683 E31.7051
G1 X11.887 Y216.265 E31.72803
G1 X11.754 Y215.893 E31.74774
G1 X11.635 Y215.444 E31.77092
G1 X11.575 Y215.097 E31.78848
G1 X11.536 Y214.637 E31.81152
G1 X11.539 Y20.402 E41.50194
G0 F6000 X12.139 Y20.402
G1 F1200 X12.161 Y20.097 E41.5172
G1 X12.218 Y19.709 E41.53676
G1 X12.32 Y19.302 E41.55769
G1 X12.454 Y18.93 E41.57742
G1 X12.603 Y18.606 E41.59521
G1 X12.798 Y18.262 E41.61494
G1 X13.111 Y17.843 E41.64103
G1 X13.38 Y17.563 E41.6604
G1 X13.604 Y17.361 E41.67545
G1 X13.916 Y17.118 E41.69518
G1 X14.351 Y16.857 E41.72049
G1 X14.71 Y16.697 E41.7401
G1 X15.006 Y16.591 E41.75579
G1 X15.285 Y16.514 E41.77023
G1 X15.591 Y16.453 E41.78579
G1 X15.888 Y16.417 E41.80072
G1 X16.141 Y16.402 E41.81336
G1 X60.336 Y16.402 E44.01826
G1 X60.593 Y16.418 E44.03111
G1 X60.885 Y16.454 E44.04579
G1 X61.237 Y16.528 E44.06373
G1 X61.61 Y16.641 E44.08317
G1 X61.993 Y16.8 E44.10386
G1 X62.342 Y16.987 E44.12362
G1 X62.685 Y17.217 E44.14422
G1 X62.985 Y17.464 E44.16361
G1 X63.241 Y17.715 E44.18149
G1 X63.433 Y17.938 E44.19618
G1 X63.616 Y18.184 E44.21147
G1 X63.775 Y18.435 E44.2263
G1 X63.939 Y18.75 E44.24401
G1 X64.123 Y19.191 E44.26785
G1 X64.269 Y19.745 E44.29644
G1 X64.318 Y20.146 E44.31659
G1 X64.334 Y20.401 E44.32934
G1 X64.334 Y214.71 E54.02345
G1 X64.281 Y215.178 E54.04695
G1 X64.174 Y215.646 E54.0709
G1 X64.004 Y216.119 E54.09598
G1 X63.785 Y216.556 E54.12037
G1 X63.501 Y216.983 E54.14595
G1 X63.245 Y217.281 E54.16555
G1 X62.988 Y217.533 E54.18351
G1 X62.686 Y217.782 E54.20303
G1 X62.342 Y218.013 E54.22371
G1 X61.993 Y218.2 E54.24346
G1 X61.61 Y218.359 E54.26415
G1 X61.237 Y218.472 E54.28359
G1 X60.883 Y218.546 E54.30164
G1 X60.589 Y218.582 E54.31641
G1 X60.334 Y218.598 E54.32916
G1 X16.139 Y218.598 E56.53406
G1 X15.885 Y218.583 E56.54675
G1 X15.589 Y218.547 E56.56163
G1 X15.231 Y218.471 E56.57989
G1 X14.86 Y218.358 E56.59924
G1 X14.48 Y218.2 E56.61977
G1 X14.129 Y218.012 E56.63963
G1 X13.823 Y217.812 E56.65787
G1 X13.594 Y217.632 E56.6724
G1 X13.373 Y217.431 E56.68731
G1 X13.103 Y217.148 E56.70682
G1 X12.793 Y216.73 E56.73278
G1 X12.6 Y216.388 E56.75238
G1 X12.452 Y216.063 E56.77019
G1 X12.319 Y215.691 E56.7899
G1 X12.227 Y215.342 E56.80791
G1 X12.167 Y214.995 E56.82548
G1 X12.136 Y214.637 E56.84341
G1 X12.139 Y20.402 E66.53383
G0 F6000 X12.739 Y20.293
G1 F1200 X12.812 Y19.796 E66.55889
G1 X12.885 Y19.506 E66.57381
G1 X13.019 Y19.134 E66.59354
G1 X13.125 Y18.902 E66.60626
G1 X13.32 Y18.558 E66.62599
G1 X13.543 Y18.259 E66.6446
G1 X13.886 Y17.902 E66.6693
G1 X14.284 Y17.592 E66.69447
G1 X14.595 Y17.405 E66.71257
G1 X15.057 Y17.199 E66.73781
G1 X15.552 Y17.063 E66.76342
G1 X16.052 Y17.002 E66.78855
G1 X60.431 Y17.002 E69.00263
G1 X60.812 Y17.049 E69.02178
G1 X61.063 Y17.102 E69.03458
G1 X61.436 Y17.215 E69.05402
G1 X61.709 Y17.329 E69.06878
G1 X62.058 Y17.516 E69.08854
G1 X62.303 Y17.68 E69.10324
G1 X62.603 Y17.927 E69.12263
G1 X62.787 Y18.106 E69.13544
G1 X63.049 Y18.41 E69.15546
G1 X63.268 Y18.756 E69.17589
G1 X63.385 Y18.981 E69.18854
G1 X63.569 Y19.422 E69.21238
G1 X63.674 Y19.818 E69.23282
G1 X63.734 Y20.309 E69.2575
G1 X63.734 Y214.71 E78.9562
G1 X63.696 Y215.044 E78.97298
G1 X63.589 Y215.512 E78.99693
G1 X63.468 Y215.85 E79.01484
G1 X63.249 Y216.287 E79.03922
G1 X63.046 Y216.592 E79.0575
G1 X62.79 Y216.89 E79.0771
G1 X62.606 Y217.07 E79.08994
G1 X62.304 Y217.319 E79.10947
G1 X62.058 Y217.484 E79.12425
G1 X61.709 Y217.671 E79.144
G1 X61.436 Y217.785 E79.15876
G1 X61.063 Y217.898 E79.17821
G1 X60.81 Y217.951 E79.1911
G1 X60.426 Y217.998 E79.2104
G1 X16.048 Y217.998 E81.42443
G1 X15.662 Y217.951 E81.44383
G1 X15.406 Y217.897 E81.45688
G1 X15.035 Y217.784 E81.47623
G1 X14.764 Y217.671 E81.49088
G1 X14.413 Y217.483 E81.51075
G1 X14.194 Y217.34 E81.5238
G1 X13.883 Y217.095 E81.54355
G1 X13.537 Y216.733 E81.56853
G1 X13.316 Y216.435 E81.58704
G1 X13.123 Y216.093 E81.60663
G1 X13.017 Y215.861 E81.61936
G1 X12.884 Y215.489 E81.63907
G1 X12.818 Y215.24 E81.65192
G1 X12.758 Y214.893 E81.66949
G1 X12.736 Y214.637 E81.68231
G1 X12.739 Y20.293 E91.37817
G0 F6000 X13.339 Y20.339
G1 F1200 X13.42 Y19.791 E91.40581
G1 X13.609 Y19.265 E91.43369
G1 X13.898 Y18.755 E91.46294
G1 X14.288 Y18.349 E91.49102
G1 X14.739 Y17.998 E91.51953
G1 X15.264 Y17.764 E91.54821
G1 X15.67 Y17.652 E91.56922
G1 X16.141 Y17.602 E91.59285
G1 X60.336 Y17.602 E93.79775
G1 X60.808 Y17.653 E93.82144
G1 X61.347 Y17.816 E93.84953
G1 X61.855 Y18.088 E93.87828
G1 X62.28 Y18.438 E93.90575
G1 X62.567 Y18.771 E93.92768
G1 X62.804 Y19.145 E93.94977
G1 X63.065 Y19.77 E93.98356
G1 X63.134 Y20.401 E94.01523
G1 X63.134 Y214.81 E103.71433
G1 X62.98 Y215.486 E103.74892
G1 X62.663 Y216.117 E103.78415
G1 X62.284 Y216.558 E103.81316
G1 X61.855 Y216.912 E103.84091
G1 X61.347 Y217.184 E103.86966
G1 X60.809 Y217.347 E103.89771
G1 X60.334 Y217.398 E103.92154
G1 X16.139 Y217.398 E106.12644
G1 X15.66 Y217.347 E106.15047
G1 X15.126 Y217.184 E106.17832
G1 X14.624 Y216.915 E106.20674
G1 X14.288 Y216.651 E106.22806
G1 X13.893 Y216.237 E106.2566
G1 X13.609 Y215.734 E106.28542
G1 X13.422 Y215.211 E106.31313
G1 X13.336 Y214.715 E106.33825
G1 X13.339 Y20.339 E116.03571
G0 F6000 X13.942 Y20.358
G1 F1200 X14.003 Y19.941 E116.05673
G1 X14.169 Y19.494 E116.08052
G1 X14.383 Y19.117 E116.10215
G1 X14.71 Y18.781 E116.12554
G1 X15.051 Y18.515 E116.14712
G1 X15.485 Y18.326 E116.17073
G1 X15.808 Y18.24 E116.18741
G1 X16.105 Y18.204 E116.20233
G1 X60.373 Y18.204 E118.41087
G1 X60.665 Y18.24 E118.42555
G1 X61.116 Y18.372 E118.449
G1 X61.541 Y18.606 E118.4732
G1 X61.841 Y18.853 E118.49259
G1 X62.095 Y19.147 E118.51197
G1 X62.278 Y19.443 E118.52933
G1 X62.478 Y19.922 E118.55523
G1 X62.532 Y20.365 E118.5775
G1 X62.534 Y214.742 E128.275
G1 X62.411 Y215.28 E128.30254
G1 X62.159 Y215.784 E128.33065
G1 X61.88 Y216.108 E128.35198
G1 X61.518 Y216.413 E128.3756
G1 X61.088 Y216.636 E128.39976
G1 X60.664 Y216.76 E128.4218
G1 X60.37 Y216.796 E128.43658
G1 X16.103 Y216.796 E130.64507
G1 X15.807 Y216.76 E130.65995
G1 X15.357 Y216.628 E130.68334
G1 X14.936 Y216.397 E130.7073
G1 X14.675 Y216.188 E130.72398
G1 X14.379 Y215.878 E130.74537
G1 X14.147 Y215.457 E130.76935
G1 X14 Y215.035 E130.79164
G1 X13.94 Y214.688 E130.80921
G1 X13.942 Y20.358 E140.50437
G1 F2700 E135.50437
G0 F6000 X13.581 Y20.306
G0 X13.649 Y19.85
G0 X13.823 Y19.365
G0 X14.088 Y18.898
G0 X14.862 Y18.201
G0 X15.717 Y17.884
G0 X16.1 Y17.838
G0 X60.378 Y17.838
G0 X60.765 Y17.885
G0 X61.258 Y18.036
G0 X61.719 Y18.282
G0 X62.253 Y18.792
G0 X64.453 Y21.517
G1 F2700 E140.50437
G1 F1200 X64.475 Y21.215 E140.51948
G1 X64.532 Y20.823 E140.53924
G1 X64.62 Y20.454 E140.55817
G1 X64.713 Y20.178 E140.5727
G1 X64.849 Y19.863 E140.58982
G1 X65.032 Y19.519 E140.60926
G1 X65.231 Y19.212 E140.62751
G1 X65.413 Y18.979 E140.64226
G1 X65.622 Y18.749 E140.65776
G1 X65.838 Y18.544 E140.67262
G1 X66.115 Y18.322 E140.69033
G1 X66.439 Y18.105 E140.70979
G1 X66.761 Y17.929 E140.72809
G1 X67.117 Y17.772 E140.7475
G1 X67.606 Y17.624 E140.77299
G1 X68.057 Y17.546 E140.79583
G1 X68.415 Y17.515 E140.81376
G1 X112.55 Y17.515 E143.01566
G1 X113.002 Y17.543 E143.03825
G1 X113.36 Y17.601 E143.05635
G1 X113.74 Y17.697 E143.0759
G1 X114.072 Y17.811 E143.09341
G1 X114.338 Y17.928 E143.10791
G1 X114.659 Y18.104 E143.12618
G1 X114.988 Y18.324 E143.14592
G1 X115.273 Y18.553 E143.16416
G1 X115.483 Y18.754 E143.17866
G1 X115.716 Y19.018 E143.19623
G1 X115.951 Y19.334 E143.21588
G1 X116.143 Y19.645 E143.23411
G1 X116.276 Y19.91 E143.24891
G1 X116.408 Y20.24 E143.26664
G1 X116.521 Y20.611 E143.28599
G1 X116.596 Y20.967 E143.30414
G1 X116.632 Y21.26 E143.31886
G1 X116.648 Y21.516 E143.33166
G1 X116.648 Y215.712 E153.02014
G1 X116.633 Y215.966 E153.03283
G1 X116.597 Y216.262 E153.04771
G1 X116.521 Y216.62 E153.06597
G1 X116.408 Y216.991 E153.08532
G1 X116.277 Y217.318 E153.10289
G1 X116.1 Y217.672 E153.12264
G1 X115.808 Y218.11 E153.1489
G1 X115.551 Y218.406 E153.16846
G1 X115.34 Y218.617 E153.18334
G1 X115.042 Y218.875 E153.20301
G1 X114.608 Y219.164 E153.22902
G1 X114.255 Y219.341 E153.24872
G1 X113.923 Y219.474 E153.26657
G1 X113.55 Y219.587 E153.28601
G1 X113.196 Y219.661 E153.30405
G1 X112.902 Y219.697 E153.31883
G1 X112.647 Y219.713 E153.33158
G1 X68.341 Y219.713 E155.54201
G1 X67.875 Y219.661 E155.56541
G1 X67.405 Y219.554 E155.58946
G1 X66.932 Y219.384 E155.61453
