; Generated by CMYK Pro (V2.3 - Diagonal Fix)
G21 ; Millimeters
G90 ; Absolute positioning
G0 Z8.000

; --- COLOR CHANGE: YELLOW ---
G0 Z8.000
G0 X109.000 Y0.000
G1 Z0.000 F800
G1 Z5.000 F800
; Smart Wipe -> Angle 117.7 deg
G0 X106.214 Y5.314
G0 Z5.000
G1 X99.713 Y17.713 F600
G0 F1000
G0 Z8.000
G0 X0.000 F200
G0 Y0.000 F200
G0 X28.376 Y95.068
G1 X30.528 Y95.068 Z0.000 F1000
G0 Z8.000
G0 X30.920 Y95.068
G1 X33.072 Y95.068 Z0.000 F1000
G0 Z8.000
G0 X35.421 Y95.068
G1 X47.554 Y95.068 Z0.000 F1000
G0 Z8.000
G0 X47.750 Y95.068
G1 X47.750 Y95.068 Z0.000 F1000
G0 Z8.000
G0 X49.217 Y95.068
G1 X50.685 Y95.068 Z0.000 F1000
G0 Z8.000
G0 X50.978 Y95.068
G1 X53.033 Y95.068 Z0.000 F1000
G0 Z8.000
G0 X53.229 Y95.068
G1 X55.773 Y95.068 Z0.000 F1000
G0 Z8.000
G0 X55.969 Y95.068
G1 X57.926 Y95.068 Z0.000 F1000
G0 Z8.000
G0 X60.274 Y95.068
G1 X61.350 Y95.068 Z0.000 F1000
G0 Z8.000
G0 X62.720 Y95.068
G1 X63.601 Y95.068 Z0.000 F1000
G0 Z8.000
G0 X67.417 Y95.068
G1 X67.417 Y95.068 Z0.000 F1000
G0 Z8.000
G0 X72.798 Y95.068
G1 X73.288 Y95.068 Z0.000 F1000
G0 Z8.000
G0 X73.483 Y95.068
G1 X74.462 Y95.068 Z0.000 F1000
G0 Z8.000
G0 X74.755 Y95.068
G1 X99.902 Y95.068 Z0.000 F1000
G0 Z8.000

; --- COLOR CHANGE: BLACK ---
G0 Z8.000
G0 X142.000 Y0.000
G1 Z0.000 F800
G1 Z5.000 F800
; Smart Wipe -> Angle 106.0 deg
G0 X140.350 Y5.769
G0 Z5.000
G1 X136.500 Y19.229 F600
G0 F1000
G0 Z8.000
G0 X100.402 F200
G0 Y96.668 F200
G0 X0.000 Y80.391
G0 X0.000 F200
G1 X99.902 Y80.391 Z0.000 F1000
G0 Z8.000

; --- COLOR CHANGE: MAGENTA ---
G0 Z8.000
G0 X63.000 Y0.000
G1 Z0.000 F800
G1 Z5.000 F800
; Smart Wipe -> Angle 69.6 deg
G0 X65.090 Y5.624
G0 Z5.000
G1 X69.966 Y18.748 F600
G0 F1000
G0 Z8.000
G0 X100.402 F200
G0 X83.757 Y43.209
G0 X83.257 F200
G1 X83.855 Y43.209 Z0.000 F1000
G0 Z8.000
G0 X85.127 Y43.209
G1 X94.227 Y43.209 Z0.000 F1000
G0 Z8.000
G0 X94.814 Y43.209
G1 X99.902 Y43.209 Z0.000 F1000
G0 Z8.000
G0 X100.402 F200
G0 X6.751 Y42.231
G0 X6.251 F200
G1 X7.339 Y42.231 Z0.000 F1000
G0 Z8.000
G0 X7.632 Y42.231
G1 X7.730 Y42.231 Z0.000 F1000
G0 Z8.000
G0 X14.971 Y42.231
G1 X14.971 Y42.231 Z0.000 F1000
G0 Z8.000
G0 X18.297 Y42.231
G1 X19.276 Y42.231 Z0.000 F1000
G0 Z8.000
G0 X27.789 Y42.231
G1 X28.180 Y42.231 Z0.000 F1000
G0 Z8.000
G0 X30.528 Y42.231
G1 X31.800 Y42.231 Z0.000 F1000
G0 Z8.000
G0 X40.117 Y42.231
G1 X40.313 Y42.231 Z0.000 F1000
G0 Z8.000
G0 X42.074 Y42.231
G1 X51.272 Y42.231 Z0.000 F1000
G0 Z8.000
G0 X52.935 Y42.231
G1 X52.935 Y42.231 Z0.000 F1000
G0 Z8.000
G0 X53.425 Y42.231
G1 X54.501 Y42.231 Z0.000 F1000
G0 Z8.000
G0 X55.969 Y42.231
G1 X55.969 Y42.231 Z0.000 F1000
G0 Z8.000
G0 X57.534 Y42.231
G1 X57.730 Y42.231 Z0.000 F1000
G0 Z8.000
G0 X58.708 Y42.231
G1 X59.002 Y42.231 Z0.000 F1000
G0 Z8.000
G0 X61.644 Y42.231
G1 X61.937 Y42.231 Z0.000 F1000
G0 Z8.000
G0 X62.329 Y42.231
G1 X62.427 Y42.231 Z0.000 F1000
G0 Z8.000
G0 X67.417 Y42.231
G1 X68.102 Y42.231 Z0.000 F1000
G0 Z8.000
G0 X71.037 Y42.231
G1 X75.538 Y42.231 Z0.000 F1000
G0 Z8.000

; --- COLOR CHANGE: CYAN ---
G0 Z8.000
G0 X0.000 Y17.000
G1 Z0.000 F800
G1 Z5.000 F800
; Smart Wipe -> Angle 10.1 deg
G0 X5.907 Y18.054
G0 Z5.000
G1 X19.689 Y20.512 F600
G0 F1000
G0 Z8.000
G0 X76.038 F200
G0 X0.000 Y37.339
G0 X0.000 F200
G1 X99.902 Y37.339 Z0.000 F1000
G0 Z8.000
G0 X100.402 F200
G0 Y35.739 F200
G0 X0.000 Y104.853
G0 X0.000 F200
G1 X99.902 Y104.853 Z0.000 F1000
G0 Z8.000

; --- COLOR CHANGE: YELLOW ---
G0 Z8.000
G0 X109.000 Y0.000
G1 Z0.000 F800
G1 Z5.000 F800
; Smart Wipe -> Angle 149.5 deg
G0 X103.830 Y3.044
G0 Z5.000
G1 X91.765 Y10.147 F600
G0 F1000
G0 Z8.000
G0 X100.402 F200
G0 Y106.453 F200
G0 X61.546 Y34.403
G0 X61.046 F200
G1 X62.035 Y34.403 Z0.000 F1000
G0 Z8.000
G0 X63.209 Y34.403
G1 X82.192 Y34.403 Z0.000 F1000
G0 Z8.000
G0 X82.387 Y34.403
G1 X84.834 Y34.403 Z0.000 F1000
G0 Z8.000
G0 X85.127 Y34.403
G1 X88.748 Y34.403 Z0.000 F1000
G0 Z8.000
G0 X89.139 Y34.403
G1 X90.509 Y34.403 Z0.000 F1000
G0 Z8.000
G0 X90.900 Y34.403
G1 X90.998 Y34.403 Z0.000 F1000
G0 Z8.000
G0 X91.194 Y34.403
G1 X92.368 Y34.403 Z0.000 F1000
G0 Z8.000
G0 X92.759 Y34.403
G1 X93.151 Y34.403 Z0.000 F1000
G0 Z8.000
G0 X93.640 Y34.403
G1 X94.618 Y34.403 Z0.000 F1000
G0 Z8.000
G0 X95.010 Y34.403
G1 X95.205 Y34.403 Z0.000 F1000
G0 Z8.000
G0 X95.597 Y34.403
G1 X96.575 Y34.403 Z0.000 F1000
G0 Z8.000
G0 X96.771 Y34.403
G1 X97.456 Y34.403 Z0.000 F1000
G0 Z8.000
G0 X97.750 Y34.403
G1 X97.945 Y34.403 Z0.000 F1000
G0 Z8.000

; --- COLOR CHANGE: CYAN ---
G0 Z8.000
G0 X0.000 Y17.000
G1 Z0.000 F800
G1 Z5.000 F800
; Smart Wipe -> Angle 20.2 deg
G0 X5.631 Y19.072
G0 Z5.000
G1 X18.770 Y23.906 F600
G0 F1000
G0 Z8.000
G0 X98.445 F200
G0 Y32.803 F200
G0 X0.000 Y52.994
G0 X0.000 F200
G1 X99.902 Y52.994 Z0.000 F1000
G0 Z8.000

; --- COLOR CHANGE: BLACK ---
G0 Z8.000
G0 X142.000 Y0.000
G1 Z0.000 F800
G1 Z5.000 F800
; Smart Wipe -> Angle 143.8 deg
G0 X137.160 Y3.546
G0 Z5.000
G1 X125.866 Y11.819 F600
G0 F1000
G0 Z8.000
G0 X100.402 F200
G0 Y54.594 F200
G0 X0.000 Y43.209
G0 X0.000 F200
G1 X99.902 Y43.209 Z0.000 F1000
G0 Z8.000

; --- COLOR CHANGE: YELLOW ---
G0 Z8.000
G0 X109.000 Y0.000
G1 Z0.000 F800
G1 Z5.000 F800
; Smart Wipe -> Angle 144.4 deg
G0 X104.120 Y3.490
G0 Z5.000
G1 X92.732 Y11.634 F600
G0 F1000
G0 Z8.000
G0 X100.402 F200
G0 Y41.609 F200
G0 X41.879 Y49.080
G0 X41.379 F200
G1 X43.249 Y49.080 Z0.000 F1000
G0 Z8.000
G0 X43.542 Y49.080
G1 X52.740 Y49.080 Z0.000 F1000
G0 Z8.000
G0 X53.033 Y49.080
G1 X53.718 Y49.080 Z0.000 F1000
G0 Z8.000
G0 X54.207 Y49.080
G1 X54.892 Y49.080 Z0.000 F1000
G0 Z8.000
G0 X55.088 Y49.080
G1 X55.382 Y49.080 Z0.000 F1000
G0 Z8.000
G0 X55.773 Y49.080
G1 X55.871 Y49.080 Z0.000 F1000
G0 Z8.000
G0 X57.143 Y49.080
G1 X57.534 Y49.080 Z0.000 F1000
G0 Z8.000
G0 X58.708 Y49.080
G1 X61.350 Y49.080 Z0.000 F1000
G0 Z8.000
G0 X61.644 Y49.080
G1 X63.209 Y49.080 Z0.000 F1000
G0 Z8.000
G0 X63.699 Y49.080
G1 X65.753 Y49.080 Z0.000 F1000
G0 Z8.000
G0 X68.787 Y49.080
G1 X99.902 Y49.080 Z0.000 F1000
G0 Z8.000

; --- COLOR CHANGE: MAGENTA ---
G0 Z8.000
G0 X63.000 Y0.000
G1 Z0.000 F800
G1 Z5.000 F800
; Smart Wipe -> Angle 108.7 deg
G0 X61.075 Y5.683
G0 Z5.000
G1 X56.582 Y18.942 F600
G0 F1000
G0 Z8.000
G0 X100.402 F200
G0 X0.000 Y87.241
G0 X0.000 F200
G1 X40.313 Y87.241 Z0.000 F1000
G0 Z8.000

; --- COLOR CHANGE: YELLOW ---
G0 Z8.000
G0 X109.000 Y0.000
G1 Z0.000 F800
G1 Z5.000 F800
; Smart Wipe -> Angle 87.2 deg
G0 X109.295 Y5.993
G0 Z5.000
G1 X109.984 Y19.976 F600
G0 F1000
G0 Z8.000
G0 X40.813 F200
G0 X0.000 Y114.638
G0 X0.000 F200
G1 X99.902 Y114.638 Z0.000 F1000
G0 Z8.000

; --- COLOR CHANGE: MAGENTA ---
G0 Z8.000
G0 X63.000 Y0.000
G1 Z0.000 F800
G1 Z5.000 F800
; Smart Wipe -> Angle 49.2 deg
G0 X66.920 Y4.543
G0 Z5.000
G1 X76.066 Y15.142 F600
G0 F1000
G0 Z8.000
G0 X100.402 F200
G0 Y116.238 F200
G0 X92.172 Y52.016
G0 X91.672 F200
G1 X92.759 Y52.016 Z0.000 F1000
G0 Z8.000
G0 X97.260 Y52.016
G1 X97.260 Y52.016 Z0.000 F1000
G0 Z8.000
G0 X97.760 F200
G0 X1.370 Y51.037
G0 X0.870 F200
G1 X25.049 Y51.037 Z0.000 F1000
G0 Z8.000
G0 X26.712 Y51.037
G1 X27.886 Y51.037 Z0.000 F1000
G0 Z8.000
G0 X28.767 Y51.037
G1 X36.595 Y51.037 Z0.000 F1000
G0 Z8.000
G0 X37.378 Y51.037
G1 X38.650 Y51.037 Z0.000 F1000
G0 Z8.000
G0 X39.335 Y51.037
G1 X40.998 Y51.037 Z0.000 F1000
G0 Z8.000
G0 X41.683 Y51.037
G1 X41.683 Y51.037 Z0.000 F1000
G0 Z8.000
G0 X42.466 Y51.037
G1 X42.857 Y51.037 Z0.000 F1000
G0 Z8.000
G0 X43.249 Y51.037
G1 X43.836 Y51.037 Z0.000 F1000
G0 Z8.000
G0 X44.423 Y51.037
G1 X51.663 Y51.037 Z0.000 F1000
G0 Z8.000

; --- COLOR CHANGE: YELLOW ---
G0 Z8.000
G0 X109.000 Y0.000
G1 Z0.000 F800
G1 Z5.000 F800
; Smart Wipe -> Angle 136.9 deg
G0 X104.616 Y4.096
G0 Z5.000
G1 X94.386 Y13.654 F600
G0 F1000
G0 Z8.000
G0 X69.863 Y43.209
G1 X70.059 Y43.209 Z0.000 F1000
G0 Z8.000
G0 X70.450 Y43.209
G1 X71.037 Y43.209 Z0.000 F1000
G0 Z8.000
G0 X71.429 Y43.209
G1 X71.624 Y43.209 Z0.000 F1000
G0 Z8.000
G0 X72.016 Y43.209
G1 X72.407 Y43.209 Z0.000 F1000
G0 Z8.000
G0 X72.798 Y43.209
G1 X73.973 Y43.209 Z0.000 F1000
G0 Z8.000
G0 X74.266 Y43.209
G1 X77.397 Y43.209 Z0.000 F1000
G0 Z8.000
G0 X77.593 Y43.209
G1 X78.571 Y43.209 Z0.000 F1000
G0 Z8.000
G0 X79.550 Y43.209
G1 X79.746 Y43.209 Z0.000 F1000
G0 Z8.000
G0 X80.822 Y43.209
G1 X81.311 Y43.209 Z0.000 F1000
G0 Z8.000
G0 X81.800 Y43.209
G1 X82.681 Y43.209 Z0.000 F1000
G0 Z8.000
G0 X83.170 Y43.209
G1 X83.366 Y43.209 Z0.000 F1000
G0 Z8.000
G0 X85.225 Y43.209
G1 X89.335 Y43.209 Z0.000 F1000
G0 Z8.000
G0 X89.726 Y43.209
G1 X94.325 Y43.209 Z0.000 F1000
G0 Z8.000
G0 X94.521 Y43.209
G1 X95.108 Y43.209 Z0.000 F1000
G0 Z8.000
G0 X95.303 Y43.209
G1 X99.902 Y43.209 Z0.000 F1000
G0 Z8.000
G0 X100.402 F200
G0 X0.000 Y42.231
G0 X0.000 F200
G1 X0.294 Y42.231 Z0.000 F1000
G0 Z8.000
G0 X0.978 Y42.231
G1 X1.076 Y42.231 Z0.000 F1000
G0 Z8.000
G0 X2.055 Y42.231
G1 X2.935 Y42.231 Z0.000 F1000
G0 Z8.000
G0 X3.131 Y42.231
G1 X4.403 Y42.231 Z0.000 F1000
G0 Z8.000
G0 X4.795 Y42.231
G1 X4.990 Y42.231 Z0.000 F1000
G0 Z8.000
G0 X5.382 Y42.231
G1 X9.491 Y42.231 Z0.000 F1000
G0 Z8.000
G0 X9.785 Y42.231
G1 X10.176 Y42.231 Z0.000 F1000
G0 Z8.000
G0 X10.568 Y42.231
G1 X14.579 Y42.231 Z0.000 F1000
G0 Z8.000
G0 X15.264 Y42.231
G1 X15.558 Y42.231 Z0.000 F1000
G0 Z8.000
G0 X15.851 Y42.231
G1 X16.341 Y42.231 Z0.000 F1000
G0 Z8.000
G0 X16.634 Y42.231
G1 X16.928 Y42.231 Z0.000 F1000
G0 Z8.000
G0 X17.221 Y42.231
G1 X18.004 Y42.231 Z0.000 F1000
G0 Z8.000
G0 X18.591 Y42.231
G1 X20.059 Y42.231 Z0.000 F1000
G0 Z8.000
G0 X20.254 Y42.231
G1 X23.777 Y42.231 Z0.000 F1000
G0 Z8.000
G0 Y40.631 F200
G0 X24.560 Y57.886
G1 X99.902 Y57.886 Z0.000 F1000
G0 Z8.000

; --- COLOR CHANGE: BLACK ---
G0 Z8.000
G0 X142.000 Y0.000
G1 Z0.000 F800
G1 Z5.000 F800
; Smart Wipe -> Angle 145.5 deg
G0 X137.056 Y3.399
G0 Z5.000
G1 X125.519 Y11.330 F600
G0 F1000
G0 Z8.000
G0 X100.402 F200
G0 Y59.486 F200
G0 X0.000 Y41.252
G0 X0.000 F200
G1 X99.902 Y41.252 Z0.000 F1000
G0 Z8.000

; --- COLOR CHANGE: MAGENTA ---
G0 Z8.000
G0 X63.000 Y0.000
G1 Z0.000 F800
G1 Z5.000 F800
; Smart Wipe -> Angle 126.7 deg
G0 X59.414 Y4.810
G0 Z5.000
G1 X51.046 Y16.034 F600
G0 F1000
G0 Z8.000
G0 X100.402 F200
G0 Y39.652 F200
G0 X0.000 Y59.843
G0 X0.000 F200
G1 X0.391 Y59.843 Z0.000 F1000
G0 Z8.000
G0 X3.914 Y59.843
G1 X7.143 Y59.843 Z0.000 F1000
G0 Z8.000
G0 X9.002 Y59.843
G1 X11.644 Y59.843 Z0.000 F1000
G0 Z8.000
G0 X13.405 Y59.843
G1 X13.405 Y59.843 Z0.000 F1000
G0 Z8.000
G0 X14.286 Y59.843
G1 X17.221 Y59.843 Z0.000 F1000
G0 Z8.000
G0 X19.472 Y59.843
G1 X22.114 Y59.843 Z0.000 F1000
G0 Z8.000
G0 X24.462 Y59.843
G1 X26.614 Y59.843 Z0.000 F1000
G0 Z8.000
G0 X26.908 Y59.843
G1 X27.006 Y59.843 Z0.000 F1000
G0 Z8.000
G0 X29.159 Y59.843
G1 X36.791 Y59.843 Z0.000 F1000
G0 Z8.000
G0 X37.182 Y59.843
G1 X38.258 Y59.843 Z0.000 F1000
G0 Z8.000
G0 X39.824 Y59.843
G1 X40.705 Y59.843 Z0.000 F1000
G0 Z8.000
G0 X41.292 Y59.843
G1 X41.683 Y59.843 Z0.000 F1000
G0 Z8.000
G0 X42.074 Y59.843
G1 X42.074 Y59.843 Z0.000 F1000
G0 Z8.000
G0 X42.270 Y59.843
G1 X71.331 Y59.843 Z0.000 F1000
G0 Z8.000

; --- COLOR CHANGE: CYAN ---
G0 Z8.000
G0 X0.000 Y17.000
G1 Z0.000 F800
G1 Z5.000 F800
; Smart Wipe -> Angle 40.8 deg
G0 X4.540 Y20.923
G0 Z5.000
G1 X15.134 Y30.076 F600
G0 F1000
G0 Z8.000
G0 X71.831 F200
G0 X0.000 Y106.810
G0 X0.000 F200
G1 X99.902 Y106.810 Z0.000 F1000
G0 Z8.000
G0 X100.402 F200
G0 X0.000 Y116.595
G0 X0.000 F200
G1 X99.902 Y116.595 Z0.000 F1000
G0 Z8.000
G0 X100.402 F200
G0 Y118.195 F200
G0 X0.000 Y41.252
G0 X0.000 F200
G1 X99.902 Y41.252 Z0.000 F1000
G0 Z8.000

; --- COLOR CHANGE: YELLOW ---
G0 Z8.000
G0 X109.000 Y0.000
G1 Z0.000 F800
G1 Z5.000 F800
; Smart Wipe -> Angle 107.4 deg
G0 X107.205 Y5.725
G0 Z5.000
G1 X103.016 Y19.084 F600
G0 F1000
G0 Z8.000
G0 X100.402 F200
G0 Y39.652 F200
G0 X61.742 Y85.284
G0 X61.242 F200
G1 X99.902 Y85.284 Z0.000 F1000
G0 Z8.000

; --- COLOR CHANGE: MAGENTA ---
G0 Z8.000
G0 X63.000 Y0.000
G1 Z0.000 F800
G1 Z5.000 F800
; Smart Wipe -> Angle 127.3 deg
G0 X59.368 Y4.776
G0 Z5.000
G1 X50.892 Y15.918 F600
G0 F1000
G0 Z8.000
G0 X100.402 F200
G0 Y86.884 F200
G0 X39.139 Y30.489
G0 X38.639 F200
G1 X40.411 Y30.489 Z0.000 F1000
G0 Z8.000
G0 X40.607 Y30.489
G1 X42.172 Y30.489 Z0.000 F1000
G0 Z8.000
G0 X43.836 Y30.489
G1 X44.227 Y30.489 Z0.000 F1000
G0 Z8.000
G0 X44.618 Y30.489
G1 X44.814 Y30.489 Z0.000 F1000
G0 Z8.000
G0 X45.303 Y30.489
G1 X45.401 Y30.489 Z0.000 F1000
G0 Z8.000
G0 X48.630 Y30.489
G1 X49.511 Y30.489 Z0.000 F1000
G0 Z8.000
G0 X50.000 Y30.489
G1 X50.000 Y30.489 Z0.000 F1000
G0 Z8.000
G0 X53.327 Y30.489
G1 X53.425 Y30.489 Z0.000 F1000
G0 Z8.000
G0 X64.677 Y30.489
G1 X64.873 Y30.489 Z0.000 F1000
G0 Z8.000
G0 X69.080 Y30.489
G1 X76.517 Y30.489 Z0.000 F1000
G0 Z8.000
G0 X78.474 Y30.489
G1 X82.877 Y30.489 Z0.000 F1000
G0 Z8.000
G0 X93.640 Y30.489
G1 X94.521 Y30.489 Z0.000 F1000
G0 Z8.000
G0 X96.184 Y30.489
G1 X99.902 Y30.489 Z0.000 F1000
G0 Z8.000

; --- COLOR CHANGE: CYAN ---
G0 Z8.000
G0 X0.000 Y17.000
G1 Z0.000 F800
G1 Z5.000 F800
; Smart Wipe -> Angle 10.7 deg
G0 X5.896 Y18.114
G0 Z5.000
G1 X19.652 Y20.714 F600
G0 F1000
G0 Z8.000
G0 X100.402 F200
G0 Y28.889 F200
G0 X0.000 Y40.274
G0 X0.000 F200
G1 X99.902 Y40.274 Z0.000 F1000
G0 Z8.000

; --- COLOR CHANGE: MAGENTA ---
G0 Z8.000
G0 X63.000 Y0.000
G1 Z0.000 F800
G1 Z5.000 F800
; Smart Wipe -> Angle 94.6 deg
G0 X62.515 Y5.980
G0 Z5.000
G1 X61.383 Y19.934 F600
G0 F1000
G0 Z8.000
G0 X100.402 F200
G0 X51.663 Y98.982
G0 X51.163 F200
G1 X54.110 Y98.982 Z0.000 F1000
G0 Z8.000
G0 X58.708 Y98.982
G1 X59.883 Y98.982 Z0.000 F1000
G0 Z8.000
G0 X60.665 Y98.982
G1 X63.699 Y98.982 Z0.000 F1000
G0 Z8.000
G0 X65.068 Y98.982
G1 X66.145 Y98.982 Z0.000 F1000
G0 Z8.000
G0 X66.634 Y98.982
G1 X66.732 Y98.982 Z0.000 F1000
G0 Z8.000
G0 X74.951 Y98.982
G1 X76.027 Y98.982 Z0.000 F1000
G0 Z8.000
G0 X77.397 Y98.982
G1 X77.495 Y98.982 Z0.000 F1000
G0 Z8.000
G0 X77.984 Y98.982
G1 X78.180 Y98.982 Z0.000 F1000
G0 Z8.000
G0 X78.669 Y98.982
G1 X79.452 Y98.982 Z0.000 F1000
G0 Z8.000
G0 X80.137 Y98.982
G1 X80.235 Y98.982 Z0.000 F1000
G0 Z8.000
G0 X84.540 Y98.982
G1 X85.225 Y98.982 Z0.000 F1000
G0 Z8.000
G0 X86.791 Y98.982
G1 X99.902 Y98.982 Z0.000 F1000
G0 Z8.000
G0 X100.402 F200
G0 Y100.582 F200
G0 X1.957 Y98.004
G0 X1.457 F200
G1 X2.250 Y98.004 Z0.000 F1000
G0 Z8.000
G0 X5.479 Y98.004
G1 X7.143 Y98.004 Z0.000 F1000
G0 Z8.000
G0 X8.317 Y98.004
G1 X8.513 Y98.004 Z0.000 F1000
G0 Z8.000
G0 X9.295 Y98.004
G1 X9.295 Y98.004 Z0.000 F1000
G0 Z8.000
G0 X10.176 Y98.004
G1 X11.448 Y98.004 Z0.000 F1000
G0 Z8.000
G0 X12.329 Y98.004
G1 X12.720 Y98.004 Z0.000 F1000
G0 Z8.000
G0 X12.916 Y98.004
G1 X13.014 Y98.004 Z0.000 F1000
G0 Z8.000
G0 X13.209 Y98.004
G1 X14.286 Y98.004 Z0.000 F1000
G0 Z8.000
G0 X14.677 Y98.004
G1 X23.875 Y98.004 Z0.000 F1000
G0 Z8.000

; --- COLOR CHANGE: YELLOW ---
G0 Z8.000
G0 X109.000 Y0.000
G1 Z0.000 F800
G1 Z5.000 F800
; Smart Wipe -> Angle 130.7 deg
G0 X105.087 Y4.549
G0 Z5.000
G1 X95.958 Y15.163 F600
G0 F1000
G0 Z8.000
G0 X39.530 Y73.542
G1 X45.597 Y73.542 Z0.000 F1000
G0 Z8.000
G0 X45.988 Y73.542
G1 X46.184 Y73.542 Z0.000 F1000
G0 Z8.000
G0 X46.575 Y73.542
G1 X46.967 Y73.542 Z0.000 F1000
G0 Z8.000
G0 X48.043 Y73.542
G1 X58.317 Y73.542 Z0.000 F1000
G0 Z8.000
G0 X58.904 Y73.542
G1 X59.687 Y73.542 Z0.000 F1000
G0 Z8.000
G0 X60.274 Y73.542
G1 X81.605 Y73.542 Z0.000 F1000
G0 Z8.000

; --- COLOR CHANGE: MAGENTA ---
G0 Z8.000
G0 X63.000 Y0.000
G1 Z0.000 F800
G1 Z5.000 F800
; Smart Wipe -> Angle 108.1 deg
G0 X61.141 Y5.705
G0 Z5.000
G1 X56.803 Y19.016 F600
G0 F1000
G0 Z8.000
G0 X82.105 F200
G0 X47.260 Y68.650
G1 X47.260 Y68.650 Z0.000 F1000
G0 Z8.000
G0 X46.760 F200
G0 X47.456 Y68.650
G1 X48.924 Y68.650 Z0.000 F1000
G0 Z8.000
G0 X49.511 Y68.650
G1 X50.294 Y68.650 Z0.000 F1000
G0 Z8.000
G0 X53.131 Y68.650
G1 X53.327 Y68.650 Z0.000 F1000
G0 Z8.000
G0 X59.687 Y68.650
G1 X59.980 Y68.650 Z0.000 F1000
G0 Z8.000
G0 X60.274 Y68.650
G1 X60.470 Y68.650 Z0.000 F1000
G0 Z8.000
G0 X67.123 Y68.650
G1 X68.591 Y68.650 Z0.000 F1000
G0 Z8.000
G0 X69.091 F200
G0 X0.000 Y67.671
G0 X0.000 F200
G1 X2.838 Y67.671 Z0.000 F1000
G0 Z8.000
G0 X3.033 Y67.671
G1 X5.871 Y67.671 Z0.000 F1000
G0 Z8.000
G0 X6.751 Y67.671
G1 X8.708 Y67.671 Z0.000 F1000
G0 Z8.000
G0 X9.295 Y67.671
