; Generated by CMYK Pro (V0.9 - Dual Mode, No Dwell)
G21 ; Millimeters
G90 ; Absolute positioning
G0 Z8.000

; --- COLOR CHANGE: CYAN ---
G0 Z8.000
G0 X17.000 Y0.000
G1 Z0.000 F800
G1 Z5.000 F800
; Smart Wipe -> Angle 46.8 deg
G0 X21.110 Y4.371
G0 Z5.000
G1 X30.701 Y14.570 F600
G0 F1000
G0 Z8.000
G0 X0.000 F200
G0 Y0.000 F200
G0 X37.280 Y30.489
G1 X37.867 Y30.489 Z0.000 F1000
G0 X50.587 Y30.489
G1 X50.685 Y30.489 Z0.000 F1000
G0 X53.816 Y30.489
G1 X55.969 Y30.489 Z0.000 F1000
G0 X57.045 Y30.489
G1 X58.904 Y30.489 Z0.000 F1000
G0 X59.883 Y30.489
G1 X60.959 Y30.489 Z0.000 F1000
G0 X62.035 Y30.489
G1 X63.894 Y30.489 Z0.000 F1000
G0 X88.160 Y30.489
G1 X88.258 Y30.489 Z0.000 F1000
G0 X91.194 Y30.489
G1 X91.194 Y30.489 Z0.000 F1000

; --- COLOR CHANGE: MAGENTA ---
G0 Z8.000
G0 X63.000 Y0.000
G1 Z0.000 F800
G1 Z5.000 F800
; Smart Wipe -> Angle 78.7 deg
G0 X64.176 Y5.884
G0 Z5.000
G1 X66.919 Y19.612 F600
G0 F1000
G0 Z8.000
G0 X91.694 F200
G0 X70.059 Y30.489
G0 X69.559 F200
G1 X70.254 Y30.489 Z0.000 F1000
G0 X70.548 Y30.489
G1 X70.939 Y30.489 Z0.000 F1000
G0 X93.542 Y30.489
G1 X93.836 Y30.489 Z0.000 F1000
G0 X94.423 Y30.489
G1 X94.423 Y30.489 Z0.000 F1000
G0 X94.716 Y30.489
G1 X94.716 Y30.489 Z0.000 F1000
G0 X96.771 Y30.489
G1 X96.869 Y30.489 Z0.000 F1000

; --- COLOR CHANGE: YELLOW ---
G0 Z8.000
G0 X109.000 Y0.000
G1 Z0.000 F800
G1 Z5.000 F800
; Smart Wipe -> Angle 158.4 deg
G0 X103.420 Y2.205
G0 Z5.000
G1 X90.400 Y7.352 F600
G0 F1000
G0 Z8.000
G0 X97.369 F200
G0 X18.982 Y30.489
G0 X18.482 F200
G1 X20.548 Y30.489 Z0.000 F1000
G0 X22.505 Y30.489
G1 X23.679 Y30.489 Z0.000 F1000
G0 X28.278 Y30.489
G1 X28.474 Y30.489 Z0.000 F1000
G0 X29.550 Y30.489
G1 X30.626 Y30.489 Z0.000 F1000
G0 X31.115 Y30.489
G1 X31.507 Y30.489 Z0.000 F1000
G0 X35.421 Y30.489
G1 X36.204 Y30.489 Z0.000 F1000
G0 X43.444 Y30.489
G1 X43.542 Y30.489 Z0.000 F1000
G0 X45.108 Y30.489
G1 X45.205 Y30.489 Z0.000 F1000
G0 X69.472 Y30.489
G1 X71.233 Y30.489 Z0.000 F1000
G0 X72.701 Y30.489
G1 X73.777 Y30.489 Z0.000 F1000

; --- COLOR CHANGE: BLACK ---
G0 Z8.000
G0 X140.000 Y0.000
G1 Z0.000 F800
G1 Z5.000 F800
; Smart Wipe -> Angle 153.5 deg
G0 X136.630 Y2.676
G0 Z5.000
G1 X124.099 Y8.919 F600
G0 F1000
G0 Z8.000
G0 X74.277 F200
G0 X49.706 Y30.489
G1 X49.706 Y30.489 Z0.000 F1000
G0 X49.206 F200
G0 X51.566 Y30.489
G1 X51.566 Y30.489 Z0.000 F1000
G0 X53.816 Y30.489
G1 X53.914 Y30.489 Z0.000 F1000
G0 X59.198 Y30.489
G1 X59.295 Y30.489 Z0.000 F1000
G0 X59.589 Y30.489
G1 X59.785 Y30.489 Z0.000 F1000
G0 X61.155 Y30.489
G1 X61.448 Y30.489 Z0.000 F1000
G0 X62.035 Y30.489
G1 X62.133 Y30.489 Z0.000 F1000
G0 X64.188 Y30.489
G1 X64.579 Y30.489 Z0.000 F1000
G0 X64.873 Y30.489
G1 X65.362 Y30.489 Z0.000 F1000
G0 X65.753 Y30.489
G1 X65.753 Y30.489 Z0.000 F1000
G0 X68.591 Y30.489
G1 X69.276 Y30.489 Z0.000 F1000
G0 X75.930 Y30.489
G1 X77.202 Y30.489 Z0.000 F1000
G0 X77.789 Y30.489
G1 X78.376 Y30.489 Z0.000 F1000
G0 X78.767 Y30.489
G1 X78.963 Y30.489 Z0.000 F1000
G0 X83.366 Y30.489
G1 X83.464 Y30.489 Z0.000 F1000
G0 X84.149 Y30.489
G1 X84.540 Y30.489 Z0.000 F1000
G0 X84.932 Y30.489
G1 X85.323 Y30.489 Z0.000 F1000
G0 X89.432 Y30.489
G1 X89.824 Y30.489 Z0.000 F1000
G0 X90.020 Y30.489
G1 X90.313 Y30.489 Z0.000 F1000
G0 X91.096 Y30.489
G1 X92.074 Y30.489 Z0.000 F1000
G0 X92.368 Y30.489
G1 X92.661 Y30.489 Z0.000 F1000
G0 X93.053 Y30.489
G1 X93.346 Y30.489 Z0.000 F1000
G0 X94.716 Y30.489
G1 X94.716 Y30.489 Z0.000 F1000
G0 X95.108 Y30.489
G1 X95.890 Y30.489 Z0.000 F1000
G0 X96.184 Y30.489
G1 X96.184 Y30.489 Z0.000 F1000
G0 X96.575 Y30.489
G1 X96.869 Y30.489 Z0.000 F1000

; --- COLOR CHANGE: CYAN ---
G0 Z8.000
G0 X17.000 Y0.000
G1 Z0.000 F800
G1 Z5.000 F800
; Smart Wipe -> Angle 60.4 deg
G0 X19.964 Y5.217
G0 Z5.000
G1 X26.881 Y17.389 F600
G0 F1000
G0 Z8.000
G0 X97.369 F200
G0 X37.476 Y30.978
G1 X37.476 Y30.978 Z0.000 F1000
G0 X36.976 F200
G0 X48.532 Y30.978
G1 X48.924 Y30.978 Z0.000 F1000
G0 X54.207 Y30.978
G1 X55.871 Y30.978 Z0.000 F1000
G0 X57.143 Y30.978
G1 X57.143 Y30.978 Z0.000 F1000
G0 X59.589 Y30.978
G1 X60.274 Y30.978 Z0.000 F1000
G0 X60.568 Y30.978
G1 X61.546 Y30.978 Z0.000 F1000
G0 X61.840 Y30.978
G1 X63.992 Y30.978 Z0.000 F1000
G0 X87.769 Y30.978
G1 X87.867 Y30.978 Z0.000 F1000
G0 X88.454 Y30.978
G1 X88.552 Y30.978 Z0.000 F1000
G0 X99.315 Y30.978
G1 X99.315 Y30.978 Z0.000 F1000

; --- COLOR CHANGE: MAGENTA ---
G0 Z8.000
G0 X63.000 Y0.000
G1 Z0.000 F800
G1 Z5.000 F800
; Smart Wipe -> Angle 67.6 deg
G0 X65.286 Y5.548
G0 Z5.000
G1 X70.619 Y18.492 F600
G0 F1000
G0 Z8.000
G0 X99.815 F200
G0 X73.483 Y30.978
G0 X72.983 F200
G1 X73.973 Y30.978 Z0.000 F1000
G0 X93.444 Y30.978
G1 X93.836 Y30.978 Z0.000 F1000
G0 X94.325 Y30.978
G1 X94.423 Y30.978 Z0.000 F1000
G0 X96.771 Y30.978
G1 X96.869 Y30.978 Z0.000 F1000

; --- COLOR CHANGE: YELLOW ---
G0 Z8.000
G0 X109.000 Y0.000
G1 Z0.000 F800
G1 Z5.000 F800
; Smart Wipe -> Angle 172.8 deg
G0 X103.048 Y0.756
G0 Z5.000
G1 X89.160 Y2.521 F600
G0 F1000
G0 Z8.000
G0 X97.369 F200
G0 X19.080 Y30.978
G1 X19.080 Y30.978 Z0.000 F1000
G0 X18.580 F200
G0 X20.548 Y30.978
G1 X20.646 Y30.978 Z0.000 F1000
G0 X21.135 Y30.978
G1 X21.429 Y30.978 Z0.000 F1000
G0 X21.918 Y30.978
G1 X22.016 Y30.978 Z0.000 F1000
G0 X27.202 Y30.978
G1 X27.397 Y30.978 Z0.000 F1000
G0 X28.474 Y30.978
G1 X28.669 Y30.978 Z0.000 F1000
G0 X29.256 Y30.978
G1 X29.256 Y30.978 Z0.000 F1000
G0 X34.638 Y30.978
G1 X34.638 Y30.978 Z0.000 F1000
G0 X35.029 Y30.978
G1 X35.225 Y30.978 Z0.000 F1000
G0 X45.499 Y30.978
G1 X45.597 Y30.978 Z0.000 F1000
G0 X70.939 Y30.978
G1 X70.939 Y30.978 Z0.000 F1000
G0 X72.701 Y30.978
G1 X73.973 Y30.978 Z0.000 F1000
G0 X81.213 Y30.978
G1 X81.507 Y30.978 Z0.000 F1000

; --- COLOR CHANGE: BLACK ---
G0 Z8.000
G0 X140.000 Y0.000
G1 Z0.000 F800
G1 Z5.000 F800
; Smart Wipe -> Angle 172.0 deg
G0 X136.058 Y0.831
G0 Z5.000
G1 X122.193 Y2.770 F600
G0 F1000
G0 Z8.000
G0 X82.007 F200
G0 X24.951 Y30.978
G0 X24.451 F200
G1 X25.147 Y30.978 Z0.000 F1000
G0 X25.342 Y30.978
G1 X25.342 Y30.978 Z0.000 F1000
G0 X31.409 Y30.978
G1 X31.507 Y30.978 Z0.000 F1000
G0 X37.476 Y30.978
G1 X37.476 Y30.978 Z0.000 F1000
G0 X49.022 Y30.978
G1 X49.022 Y30.978 Z0.000 F1000
G0 X50.685 Y30.978
G1 X50.685 Y30.978 Z0.000 F1000
G0 X57.045 Y30.978
G1 X57.143 Y30.978 Z0.000 F1000
G0 X58.513 Y30.978
G1 X58.611 Y30.978 Z0.000 F1000
G0 X59.198 Y30.978
G1 X59.295 Y30.978 Z0.000 F1000
G0 X59.883 Y30.978
G1 X59.980 Y30.978 Z0.000 F1000
G0 X61.840 Y30.978
G1 X62.035 Y30.978 Z0.000 F1000
G0 X64.188 Y30.978
G1 X66.341 Y30.978 Z0.000 F1000
G0 X66.928 Y30.978
G1 X66.928 Y30.978 Z0.000 F1000
G0 X68.689 Y30.978
G1 X68.982 Y30.978 Z0.000 F1000
G0 X69.569 Y30.978
G1 X69.569 Y30.978 Z0.000 F1000
G0 X69.765 Y30.978
G1 X70.059 Y30.978 Z0.000 F1000
G0 X71.624 Y30.978
G1 X71.722 Y30.978 Z0.000 F1000
G0 X77.691 Y30.978
G1 X77.886 Y30.978 Z0.000 F1000
G0 X78.180 Y30.978
G1 X78.571 Y30.978 Z0.000 F1000
G0 X83.170 Y30.978
G1 X83.366 Y30.978 Z0.000 F1000
G0 X83.855 Y30.978
G1 X84.834 Y30.978 Z0.000 F1000
G0 X85.519 Y30.978
G1 X85.519 Y30.978 Z0.000 F1000
G0 X89.824 Y30.978
G1 X90.117 Y30.978 Z0.000 F1000
G0 X91.096 Y30.978
G1 X92.955 Y30.978 Z0.000 F1000
G0 X93.444 Y30.978
G1 X93.640 Y30.978 Z0.000 F1000
G0 X94.618 Y30.978
G1 X94.814 Y30.978 Z0.000 F1000
G0 X95.597 Y30.978
G1 X95.890 Y30.978 Z0.000 F1000
G0 X96.086 Y30.978
G1 X96.477 Y30.978 Z0.000 F1000
G0 X96.673 Y30.978
G1 X96.869 Y30.978 Z0.000 F1000
G0 X97.847 Y30.978
G1 X97.945 Y30.978 Z0.000 F1000
G0 X98.434 Y30.978
G1 X99.609 Y30.978 Z0.000 F1000

; --- COLOR CHANGE: CYAN ---
G0 Z8.000
G0 X17.000 Y0.000
G1 Z0.000 F800
G1 Z5.000 F800
; Smart Wipe -> Angle 42.1 deg
G0 X21.454 Y4.020
G0 Z5.000
G1 X31.848 Y13.399 F600
G0 F1000
G0 Z8.000
G0 X100.109 F200
G0 X54.795 Y31.468
G0 X54.295 F200
G1 X55.088 Y31.468 Z0.000 F1000
G0 X55.382 Y31.468
G1 X55.675 Y31.468 Z0.000 F1000
G0 X59.491 Y31.468
G1 X60.372 Y31.468 Z0.000 F1000
G0 X60.665 Y31.468
G1 X61.742 Y31.468 Z0.000 F1000
G0 X62.622 Y31.468
G1 X63.992 Y31.468 Z0.000 F1000
G0 X66.536 Y31.468
G1 X66.732 Y31.468 Z0.000 F1000
G0 X66.928 Y31.468
G1 X66.928 Y31.468 Z0.000 F1000
G0 X67.221 Y31.468
G1 X67.515 Y31.468 Z0.000 F1000
G0 X88.454 Y31.468
G1 X88.454 Y31.468 Z0.000 F1000
G0 X98.826 Y31.468
G1 X99.902 Y31.468 Z0.000 F1000

; --- COLOR CHANGE: MAGENTA ---
G0 Z8.000
G0 X63.000 Y0.000
G1 Z0.000 F800
G1 Z5.000 F800
; Smart Wipe -> Angle 68.8 deg
G0 X65.166 Y5.596
G0 Z5.000
G1 X70.219 Y18.652 F600
G0 F1000
G0 Z8.000
G0 X100.402 F200
G0 X77.202 Y31.468
G1 X77.202 Y31.468 Z0.000 F1000
G0 X76.702 F200
G0 X93.738 Y31.468
G1 X93.738 Y31.468 Z0.000 F1000
G0 X96.967 Y31.468
G1 X97.065 Y31.468 Z0.000 F1000

; --- COLOR CHANGE: YELLOW ---
G0 Z8.000
G0 X109.000 Y0.000
G1 Z0.000 F800
G1 Z5.000 F800
; Smart Wipe -> Angle 153.7 deg
G0 X103.622 Y2.660
G0 Z5.000
G1 X91.072 Y8.865 F600
G0 F1000
G0 Z8.000
G0 X97.565 F200
G0 X26.517 Y31.468
G0 X26.017 F200
G1 X26.614 Y31.468 Z0.000 F1000
G0 X26.810 Y31.468
G1 X28.278 Y31.468 Z0.000 F1000
G0 X28.571 Y31.468
G1 X28.571 Y31.468 Z0.000 F1000
G0 X30.822 Y31.468
G1 X30.920 Y31.468 Z0.000 F1000
G0 X39.530 Y31.468
G1 X39.726 Y31.468 Z0.000 F1000
G0 X42.661 Y31.468
G1 X42.759 Y31.468 Z0.000 F1000
G0 X43.836 Y31.468
G1 X44.129 Y31.468 Z0.000 F1000
G0 X51.468 Y31.468
G1 X52.055 Y31.468 Z0.000 F1000
G0 X73.581 Y31.468
G1 X73.581 Y31.468 Z0.000 F1000
G0 X74.070 Y31.468
G1 X74.168 Y31.468 Z0.000 F1000
G0 X81.703 Y31.468
G1 X82.290 Y31.468 Z0.000 F1000

; --- COLOR CHANGE: BLACK ---
G0 Z8.000
G0 X140.000 Y0.000
G1 Z0.000 F800
G1 Z5.000 F800
; Smart Wipe -> Angle 152.4 deg
G0 X136.685 Y2.784
G0 Z5.000
G1 X124.283 Y9.279 F600
G0 F1000
G0 Z8.000
G0 X82.790 F200
G0 X37.280 Y31.468
G1 X37.280 Y31.468 Z0.000 F1000
G0 X36.780 F200
G0 X37.573 Y31.468
G1 X37.671 Y31.468 Z0.000 F1000
G0 X40.411 Y31.468
G1 X40.411 Y31.468 Z0.000 F1000
G0 X48.434 Y31.468
G1 X48.630 Y31.468 Z0.000 F1000
G0 X48.924 Y31.468
G1 X48.924 Y31.468 Z0.000 F1000
G0 X49.511 Y31.468
G1 X49.804 Y31.468 Z0.000 F1000
G0 X51.859 Y31.468
G1 X52.250 Y31.468 Z0.000 F1000
G0 X53.523 Y31.468
G1 X53.620 Y31.468 Z0.000 F1000
G0 X62.133 Y31.468
G1 X62.524 Y31.468 Z0.000 F1000
G0 X63.796 Y31.468
G1 X64.286 Y31.468 Z0.000 F1000
G0 X64.579 Y31.468
G1 X64.873 Y31.468 Z0.000 F1000
G0 X66.536 Y31.468
G1 X66.830 Y31.468 Z0.000 F1000
G0 X70.548 Y31.468
G1 X70.646 Y31.468 Z0.000 F1000
G0 X71.135 Y31.468
G1 X71.526 Y31.468 Z0.000 F1000
G0 X77.104 Y31.468
G1 X77.202 Y31.468 Z0.000 F1000
G0 X77.691 Y31.468
G1 X77.789 Y31.468 Z0.000 F1000
G0 X78.082 Y31.468
G1 X78.376 Y31.468 Z0.000 F1000
G0 X83.170 Y31.468
G1 X83.464 Y31.468 Z0.000 F1000
G0 X83.953 Y31.468
G1 X84.247 Y31.468 Z0.000 F1000
G0 X84.442 Y31.468
G1 X84.932 Y31.468 Z0.000 F1000
G0 X85.323 Y31.468
G1 X85.616 Y31.468 Z0.000 F1000
G0 X89.139 Y31.468
G1 X89.432 Y31.468 Z0.000 F1000
G0 X89.922 Y31.468
G1 X90.020 Y31.468 Z0.000 F1000
G0 X91.389 Y31.468
G1 X91.487 Y31.468 Z0.000 F1000
G0 X91.781 Y31.468
G1 X93.738 Y31.468 Z0.000 F1000
G0 X94.716 Y31.468
G1 X95.401 Y31.468 Z0.000 F1000
G0 X95.597 Y31.468
G1 X95.988 Y31.468 Z0.000 F1000
G0 X96.184 Y31.468
G1 X96.184 Y31.468 Z0.000 F1000
G0 X96.869 Y31.468
G1 X97.945 Y31.468 Z0.000 F1000
G0 X98.532 Y31.468
G1 X99.315 Y31.468 Z0.000 F1000

; --- COLOR CHANGE: CYAN ---
G0 Z8.000
G0 X17.000 Y0.000
G1 Z0.000 F800
G1 Z5.000 F800
; Smart Wipe -> Angle 30.5 deg
G0 X22.170 Y3.045
G0 Z5.000
G1 X34.234 Y10.149 F600
G0 F1000
G0 Z8.000
G0 X99.815 F200
G0 X52.055 Y31.957
G0 X51.555 F200
G1 X53.131 Y31.957 Z0.000 F1000
G0 X59.491 Y31.957
G1 X59.883 Y31.957 Z0.000 F1000
G0 X60.959 Y31.957
G1 X61.937 Y31.957 Z0.000 F1000
G0 X62.720 Y31.957
G1 X62.720 Y31.957 Z0.000 F1000
G0 X63.014 Y31.957
G1 X63.503 Y31.957 Z0.000 F1000
G0 X64.677 Y31.957
G1 X64.775 Y31.957 Z0.000 F1000
G0 X65.949 Y31.957
G1 X65.949 Y31.957 Z0.000 F1000
G0 X66.928 Y31.957
G1 X67.221 Y31.957 Z0.000 F1000
G0 X89.041 Y31.957
G1 X89.041 Y31.957 Z0.000 F1000
G0 X90.802 Y31.957
G1 X91.389 Y31.957 Z0.000 F1000

; --- COLOR CHANGE: MAGENTA ---
G0 Z8.000
G0 X63.000 Y0.000
G1 Z0.000 F800
G1 Z5.000 F800
; Smart Wipe -> Angle 34.4 deg
G0 X67.951 Y3.389
G0 Z5.000
G1 X79.504 Y11.297 F600
G0 F1000
G0 Z8.000
G0 X93.444 Y31.957
G1 X93.444 Y31.957 Z0.000 F1000
G0 X97.652 Y31.957
G1 X97.652 Y31.957 Z0.000 F1000

; --- COLOR CHANGE: YELLOW ---
G0 Z8.000
G0 X109.000 Y0.000
G1 Z0.000 F800
G1 Z5.000 F800
; Smart Wipe -> Angle 156.9 deg
G0 X103.481 Y2.354
G0 Z5.000
G1 X90.604 Y7.848 F600
G0 F1000
G0 Z8.000
G0 X98.152 F200
G0 X27.299 Y31.957
G0 X26.799 F200
G1 X27.886 Y31.957 Z0.000 F1000
G0 X29.648 Y31.957
G1 X30.039 Y31.957 Z0.000 F1000
G0 X30.431 Y31.957
G1 X31.996 Y31.957 Z0.000 F1000
G0 X39.335 Y31.957
G1 X39.335 Y31.957 Z0.000 F1000
G0 X42.955 Y31.957
G1 X42.955 Y31.957 Z0.000 F1000
G0 X70.548 Y31.957
G1 X70.646 Y31.957 Z0.000 F1000
G0 X80.528 Y31.957
G1 X81.213 Y31.957 Z0.000 F1000
G0 X93.933 Y31.957
G1 X94.521 Y31.957 Z0.000 F1000
G0 X98.630 Y31.957
G1 X98.826 Y31.957 Z0.000 F1000

; --- COLOR CHANGE: BLACK ---
G0 Z8.000
G0 X140.000 Y0.000
G1 Z0.000 F800
G1 Z5.000 F800
; Smart Wipe -> Angle 159.4 deg
G0 X136.385 Y2.113
G0 Z5.000
G1 X123.282 Y7.045 F600
G0 F1000
G0 Z8.000
G0 X99.326 F200
G0 X45.401 Y31.957
G0 X44.901 F200
G1 X45.499 Y31.957 Z0.000 F1000
G0 X47.847 Y31.957
G1 X47.945 Y31.957 Z0.000 F1000
G0 X49.413 Y31.957
G1 X49.511 Y31.957 Z0.000 F1000
G0 X51.370 Y31.957
G1 X51.663 Y31.957 Z0.000 F1000
G0 X52.935 Y31.957
G1 X53.131 Y31.957 Z0.000 F1000
G0 X53.327 Y31.957
G1 X53.327 Y31.957 Z0.000 F1000
G0 X54.599 Y31.957
G1 X54.697 Y31.957 Z0.000 F1000
G0 X55.088 Y31.957
G1 X55.382 Y31.957 Z0.000 F1000
G0 X55.871 Y31.957
G1 X55.969 Y31.957 Z0.000 F1000
G0 X59.002 Y31.957
G1 X59.100 Y31.957 Z0.000 F1000
G0 X62.427 Y31.957
G1 X62.818 Y31.957 Z0.000 F1000
G0 X66.047 Y31.957
G1 X66.438 Y31.957 Z0.000 F1000
G0 X68.591 Y31.957
G1 X70.841 Y31.957 Z0.000 F1000
G0 X71.918 Y31.957
G1 X72.016 Y31.957 Z0.000 F1000
G0 X72.701 Y31.957
G1 X72.701 Y31.957 Z0.000 F1000
G0 X73.288 Y31.957
G1 X73.679 Y31.957 Z0.000 F1000
G0 X73.973 Y31.957
G1 X74.168 Y31.957 Z0.000 F1000
G0 X74.658 Y31.957
G1 X75.538 Y31.957 Z0.000 F1000
G0 X83.072 Y31.957
G1 X83.268 Y31.957 Z0.000 F1000
G0 X83.562 Y31.957
G1 X83.562 Y31.957 Z0.000 F1000
G0 X83.757 Y31.957
G1 X84.834 Y31.957 Z0.000 F1000
G0 X85.323 Y31.957
G1 X85.323 Y31.957 Z0.000 F1000
G0 X87.280 Y31.957
G1 X87.280 Y31.957 Z0.000 F1000
G0 X90.020 Y31.957
G1 X90.509 Y31.957 Z0.000 F1000
G0 X91.585 Y31.957
G1 X92.172 Y31.957 Z0.000 F1000
G0 X92.368 Y31.957
G1 X93.053 Y31.957 Z0.000 F1000
G0 X93.346 Y31.957
G1 X93.542 Y31.957 Z0.000 F1000
G0 X94.912 Y31.957
G1 X96.184 Y31.957 Z0.000 F1000
G0 X96.673 Y31.957
G1 X97.162 Y31.957 Z0.000 F1000
G0 X97.358 Y31.957
G1 X98.043 Y31.957 Z0.000 F1000
G0 X99.609 Y31.957
G1 X99.902 Y31.957 Z0.000 F1000

; --- COLOR CHANGE: CYAN ---
G0 Z8.000
G0 X17.000 Y0.000
G1 Z0.000 F800
G1 Z5.000 F800
; Smart Wipe -> Angle 40.3 deg
G0 X21.577 Y3.880
G0 Z5.000
G1 X32.256 Y12.933 F600
G0 F1000
G0 Z8.000
G0 X100.402 F200
G0 X51.663 Y32.446
G0 X51.163 F200
G1 X52.348 Y32.446 Z0.000 F1000
G0 X59.589 Y32.446
G1 X59.589 Y32.446 Z0.000 F1000
G0 X61.350 Y32.446
G1 X61.644 Y32.446 Z0.000 F1000
G0 X65.558 Y32.446
G1 X66.243 Y32.446 Z0.000 F1000
G0 X66.536 Y32.446
G1 X67.123 Y32.446 Z0.000 F1000
G0 X90.998 Y32.446
G1 X91.292 Y32.446 Z0.000 F1000
G0 X93.346 Y32.446
G1 X93.346 Y32.446 Z0.000 F1000

; --- COLOR CHANGE: MAGENTA ---
G0 Z8.000
G0 X63.000 Y0.000
G1 Z0.000 F800
G1 Z5.000 F800
; Smart Wipe -> Angle 56.9 deg
G0 X66.273 Y5.029
G0 Z5.000
G1 X73.909 Y16.763 F600
G0 F1000
G0 Z8.000
G0 X93.846 F200
G0 X81.311 Y32.446
G0 X80.811 F200
G1 X81.605 Y32.446 Z0.000 F1000
G0 X93.346 Y32.446
G1 X93.346 Y32.446 Z0.000 F1000
G0 X96.673 Y32.446
G1 X96.673 Y32.446 Z0.000 F1000
G0 X97.652 Y32.446
G1 X97.652 Y32.446 Z0.000 F1000

; --- COLOR CHANGE: YELLOW ---
G0 Z8.000
G0 X109.000 Y0.000
G1 Z0.000 F800
G1 Z5.000 F800
; Smart Wipe -> Angle 171.9 deg
G0 X103.060 Y0.847
G0 Z5.000
G1 X89.200 Y2.824 F600
G0 F1000
G0 Z8.000
G0 X98.152 F200
G0 X12.524 Y32.446
G0 X12.024 F200
G1 X13.796 Y32.446 Z0.000 F1000
G0 X13.992 Y32.446
G1 X13.992 Y32.446 Z0.000 F1000
G0 X14.188 Y32.446
G1 X14.286 Y32.446 Z0.000 F1000
G0 X15.656 Y32.446
