; Generated by CMYK Hatching G-Code Generator V2.5 (Multi-File/Random Fix)
G21 ; Millimeters
G90 ; Absolute positioning
G0 Z8.000

; --- COLOR CHANGE: YELLOW ---
G0 Z8.000
G0 X109.000 Y17.000
G0 Z5.000
G1 Z0.000 F800
G4 P1 ; Dwell
G1 Z5.000 F800
; Smart Wipe -> Angle 0.0 deg
G0 X124.000 Y17.000
G0 Z5.000
G1 X94.000 Y17.000 F600
G0 F1000
G0 Z8.000
G0 X0.000 F200
G0 Y0.000 F200
G0 Z2.000
G0 X10.000 YNaN
G1 Z0.000 F800
G1 X129.531 YNaN F1000
G0 Z2.000
G0 Z2.000
G0 X10.000 YNaN
G1 Z0.000 F800
G1 X76.563 YNaN F1000
G0 Z2.000
G0 Z2.000
G0 X10.000 YNaN
G1 Z0.000 F800
G1 X129.531 YNaN F1000
G0 Z2.000
G0 Z2.000
G0 X10.000 YNaN
G1 Z0.000 F800
G1 X93.906 YNaN F1000
G0 Z2.000
G0 Z2.000
G0 X41.875 YNaN
G1 Z0.000 F800
G1 X43.281 YNaN F1000
G0 Z2.000
G0 Z2.000
G0 X10.000 YNaN
G1 Z0.000 F800
G1 X129.531 YNaN F1000
G0 Z2.000
G0 Z2.000
G0 X10.000 YNaN
G1 Z0.000 F800
G1 X121.563 YNaN F1000
G0 Z2.000
G0 Z2.000
G0 X91.563 YNaN
G1 Z0.000 F800
G1 X94.844 YNaN F1000
G0 Z2.000
G0 Z2.000
G0 X10.000 YNaN
G1 Z0.000 F800
G1 X79.844 YNaN F1000
G0 Z2.000
G0 Z2.000
G0 X90.625 YNaN
G1 Z0.000 F800
G1 X90.625 YNaN F1000
G0 Z2.000
G0 Z2.000
G0 X107.500 YNaN
G1 Z0.000 F800
G1 X111.250 YNaN F1000
G0 Z2.000
G0 Z2.000
G0 X10.000 YNaN
G1 Z0.000 F800
G1 X129.531 YNaN F1000
G0 Z2.000
G0 Z2.000
G0 X10.000 YNaN
G1 Z0.000 F800
G1 X25.469 YNaN F1000
G0 Z2.000
G0 Z2.000
G0 X86.875 YNaN
G1 Z0.000 F800
G1 X86.875 YNaN F1000
G0 Z2.000
G0 Z2.000
G0 X10.000 YNaN
G1 Z0.000 F800
G1 X129.531 YNaN F1000
G0 Z2.000
G0 Z2.000
G0 X89.219 YNaN
G1 Z0.000 F800
G1 X89.688 YNaN F1000
G0 Z2.000
G0 Z2.000
G0 X49.844 YNaN
G1 Z0.000 F800
G1 X85.938 YNaN F1000
G0 Z2.000
G0 Z2.000
G0 X10.000 YNaN
G1 Z0.000 F800
G1 X129.531 YNaN F1000
G0 Z2.000
G0 Z2.000
G0 X116.875 YNaN
G1 Z0.000 F800
G1 X129.531 YNaN F1000
G0 Z2.000
G0 Z2.000
G0 X10.000 YNaN
G1 Z0.000 F800
G1 X22.188 YNaN F1000
G0 Z2.000
G0 Z2.000
G0 X10.000 YNaN
G1 Z0.000 F800
G1 X129.531 YNaN F1000
G0 Z2.000
G0 Z2.000
G0 X112.188 YNaN
G1 Z0.000 F800
G1 X115.938 YNaN F1000
G0 Z2.000
G0 Z2.000
G0 X103.281 YNaN
G1 Z0.000 F800
G1 X105.156 YNaN F1000
G0 Z2.000
G0 Z2.000
G0 X10.000 YNaN
G1 Z0.000 F800
G1 X129.531 YNaN F1000
G0 Z2.000
G0 Z2.000
G0 X87.344 YNaN
G1 Z0.000 F800
G1 X129.531 YNaN F1000
G0 Z2.000
G0 Z2.000
G0 X10.000 YNaN
G1 Z0.000 F800
G1 X129.531 YNaN F1000
G0 Z2.000
G0 Z2.000
G0 X10.000 YNaN
G1 Z0.000 F800
G1 X129.531 YNaN F1000
G0 Z2.000
G0 Z2.000
G0 X96.250 YNaN
G1 Z0.000 F800
G1 X129.531 YNaN F1000
G0 Z2.000
G0 Z2.000
G0 X65.313 YNaN
G1 Z0.000 F800
G1 X66.250 YNaN F1000
G0 Z2.000
G0 Z2.000
G0 X92.031 YNaN
G1 Z0.000 F800
G1 X129.531 YNaN F1000
G0 Z2.000
G0 Z2.000
G0 X10.000 YNaN
G1 Z0.000 F800
G1 X129.531 YNaN F1000
G0 Z2.000
G0 Z2.000
G0 X10.000 YNaN
G1 Z0.000 F800
G1 X129.531 YNaN F1000
G0 Z2.000
G0 Z2.000
G0 X10.000 YNaN
G1 Z0.000 F800
G1 X129.531 YNaN F1000
G0 Z2.000
G0 Z2.000
G0 X98.594 YNaN
G1 Z0.000 F800
G1 X102.344 YNaN F1000
G0 Z2.000
G0 Z2.000
G0 X10.000 YNaN
G1 Z0.000 F800
G1 X129.531 YNaN F1000
G0 Z2.000
G0 Z2.000
G0 X83.125 YNaN
G1 Z0.000 F800
G1 X85.000 YNaN F1000
G0 Z2.000
G0 Z2.000
G0 X95.313 YNaN
G1 Z0.000 F800
G1 X129.531 YNaN F1000
G0 Z2.000
G0 Z2.000
G0 X81.250 YNaN
G1 Z0.000 F800
G1 X82.188 YNaN F1000
G0 Z2.000
G0 Z2.000
G0 X10.000 YNaN
G1 Z0.000 F800
G1 X129.531 YNaN F1000
G0 Z2.000
G0 Z2.000
G0 X10.000 YNaN
G1 Z0.000 F800
G1 X129.531 YNaN F1000
G0 Z2.000
G0 Z2.000
G0 X10.000 YNaN
G1 Z0.000 F800
G1 X87.344 YNaN F1000
G0 Z2.000
G0 Z2.000
G0 X10.000 YNaN
G1 Z0.000 F800
G1 X45.625 YNaN F1000
G0 Z2.000
G0 Z2.000
G0 X10.000 YNaN
G1 Z0.000 F800
G1 X74.219 YNaN F1000
G0 Z2.000
G0 Z2.000
G0 X10.000 YNaN
G1 Z0.000 F800
G1 X129.531 YNaN F1000
G0 Z2.000
G0 Z2.000
G0 X10.000 YNaN
G1 Z0.000 F800
G1 X129.531 YNaN F1000
G0 Z2.000
G0 Z2.000
G0 X97.656 YNaN
G1 Z0.000 F800
G1 X105.625 YNaN F1000
G0 Z2.000
G0 Z2.000
G0 X91.563 YNaN
G1 Z0.000 F800
G1 X129.531 YNaN F1000
G0 Z2.000
G0 Z2.000
G0 X108.438 YNaN
G1 Z0.000 F800
G1 X111.719 YNaN F1000
G0 Z2.000
G0 Z2.000
G0 X10.000 YNaN
G1 Z0.000 F800
G1 X129.531 YNaN F1000
G0 Z2.000
G0 Z2.000
G0 X10.000 YNaN
G1 Z0.000 F800
G1 X129.531 YNaN F1000
G0 Z2.000
G0 Z2.000
G0 X116.875 YNaN
G1 Z0.000 F800
G1 X129.531 YNaN F1000
G0 Z2.000
G0 Z2.000
G0 X91.094 YNaN
G1 Z0.000 F800
G1 X106.094 YNaN F1000
G0 Z2.000
G0 Z2.000
G0 X10.000 YNaN
G1 Z0.000 F800
G1 X129.531 YNaN F1000
G0 Z2.000
G0 Z2.000
G0 X74.219 YNaN
G1 Z0.000 F800
G1 X74.219 YNaN F1000
G0 Z2.000
G0 Z2.000
G0 X87.813 YNaN
G1 Z0.000 F800
G1 X88.281 YNaN F1000
G0 Z2.000
G0 Z2.000
G0 X79.375 YNaN
G1 Z0.000 F800
G1 X79.375 YNaN F1000
G0 Z2.000
G0 Z2.000
G0 X10.000 YNaN
G1 Z0.000 F800
G1 X129.531 YNaN F1000
G0 Z2.000
G0 Z2.000
G0 X10.000 YNaN
G1 Z0.000 F800
G1 X85.000 YNaN F1000
G0 Z2.000
G0 Z2.000
G0 X97.656 YNaN
G1 Z0.000 F800
G1 X129.531 YNaN F1000
G0 Z2.000
G0 Z2.000
G0 X10.000 YNaN
G1 Z0.000 F800
G1 X129.531 YNaN F1000
G0 Z2.000
G0 Z2.000
G0 X80.313 YNaN
G1 Z0.000 F800
G1 X81.719 YNaN F1000
G0 Z2.000
G0 Z2.000
G0 X10.000 YNaN
G1 Z0.000 F800
G1 X129.531 YNaN F1000
G0 Z2.000
G0 Z2.000
G0 X10.000 YNaN
G1 Z0.000 F800
G1 X129.531 YNaN F1000
G0 Z2.000
G0 Z2.000
G0 X10.000 YNaN
G1 Z0.000 F800
G1 X129.531 YNaN F1000
G0 Z2.000
G0 Z2.000
G0 X90.625 YNaN
G1 Z0.000 F800
G1 X91.563 YNaN F1000
G0 Z2.000
G0 Z2.000
G0 X10.000 YNaN
G1 Z0.000 F800
G1 X129.531 YNaN F1000
G0 Z2.000
G0 Z2.000
G0 X10.000 YNaN
G1 Z0.000 F800
G1 X129.531 YNaN F1000
G0 Z2.000
G0 Z2.000
G0 X89.219 YNaN
G1 Z0.000 F800
G1 X89.688 YNaN F1000
G0 Z2.000
G0 Z2.000
G0 X10.000 YNaN
G1 Z0.000 F800
G1 X129.531 YNaN F1000
G0 Z2.000
G0 Z2.000
G0 X22.188 YNaN
G1 Z0.000 F800
G1 X129.531 YNaN F1000
G0 Z2.000
G0 Z2.000
G0 X112.188 YNaN
G1 Z0.000 F800
G1 X115.938 YNaN F1000
G0 Z2.000
G0 Z2.000
G0 X10.000 YNaN
G1 Z0.000 F800
G1 X129.531 YNaN F1000
G0 Z2.000
G0 Z2.000
G0 X106.563 YNaN
G1 Z0.000 F800
G1 X111.719 YNaN F1000
G0 Z2.000
G0 Z2.000
G0 X10.000 YNaN
G1 Z0.000 F800
G1 X129.531 YNaN F1000
G0 Z2.000
G0 Z2.000
G0 X10.000 YNaN
G1 Z0.000 F800
G1 X129.531 YNaN F1000
G0 Z2.000
G0 Z2.000
G0 X95.781 YNaN
G1 Z0.000 F800
G1 X129.531 YNaN F1000
G0 Z2.000
G0 Z2.000
G0 X10.000 YNaN
G1 Z0.000 F800
G1 X129.531 YNaN F1000
G0 Z2.000
G0 Z2.000
G0 X25.938 YNaN
G1 Z0.000 F800
G1 X129.531 YNaN F1000
G0 Z2.000
G0 Z2.000
G0 X10.000 YNaN
G1 Z0.000 F800
G1 X129.531 YNaN F1000
G0 Z2.000
G0 Z2.000
G0 X113.125 YNaN
G1 Z0.000 F800
G1 X115.938 YNaN F1000
G0 Z2.000
G0 Z2.000
G0 X10.000 YNaN
G1 Z0.000 F800
G1 X129.531 YNaN F1000
G0 Z2.000
G0 Z2.000
G0 X118.750 YNaN
G1 Z0.000 F800
G1 X129.531 YNaN F1000
G0 Z2.000
G0 Z2.000
G0 X91.094 YNaN
G1 Z0.000 F800
G1 X106.094 YNaN F1000
G0 Z2.000
G0 Z2.000
G0 X10.000 YNaN
G1 Z0.000 F800
G1 X81.250 YNaN F1000
G0 Z2.000
G0 Z2.000
G0 X10.000 YNaN
G1 Z0.000 F800
G1 X129.531 YNaN F1000
G0 Z2.000
G0 Z2.000
G0 X77.500 YNaN
G1 Z0.000 F800
G1 X129.531 YNaN F1000
G0 Z2.000
G0 Z2.000
G0 X10.000 YNaN
G1 Z0.000 F800
G1 X129.531 YNaN F1000
G0 Z2.000
G0 Z2.000
G0 X10.000 YNaN
G1 Z0.000 F800
G1 X74.219 YNaN F1000
G0 Z2.000
G0 Z2.000
G0 X77.031 YNaN
G1 Z0.000 F800
G1 X77.500 YNaN F1000
G0 Z2.000
G0 Z2.000
G0 X10.000 YNaN
G1 Z0.000 F800
G1 X129.531 YNaN F1000
G0 Z2.000
G0 Z2.000
G0 X10.000 YNaN
G1 Z0.000 F800
G1 X129.531 YNaN F1000
G0 Z2.000
G0 Z2.000
G0 X10.000 YNaN
G1 Z0.000 F800
G1 X129.531 YNaN F1000
G0 Z2.000
G0 Z2.000
G0 X10.000 YNaN
G1 Z0.000 F800
G1 X129.531 YNaN F1000
G0 Z2.000
G0 Z2.000
G0 X94.844 YNaN
G1 Z0.000 F800
G1 X129.531 YNaN F1000
G0 Z2.000
G0 Z2.000
G0 X10.938 YNaN
G1 Z0.000 F800
G1 X85.000 YNaN F1000
G0 Z2.000
G0 Z2.000
G0 X67.656 YNaN
G1 Z0.000 F800
G1 X68.125 YNaN F1000
G0 Z2.000
G0 Z2.000
G0 X10.000 YNaN
G1 Z0.000 F800
G1 X129.531 YNaN F1000
G0 Z2.000
G0 Z2.000
G0 X72.344 YNaN
G1 Z0.000 F800
G1 X72.813 YNaN F1000
G0 Z2.000
G0 Z2.000
G0 X112.188 YNaN
G1 Z0.000 F800
G1 X115.938 YNaN F1000
G0 Z2.000
G0 Z2.000
G0 X10.000 YNaN
G1 Z0.000 F800
G1 X84.063 YNaN F1000
G0 Z2.000
G0 Z2.000
G0 X10.938 YNaN
G1 Z0.000 F800
G1 X85.000 YNaN F1000
G0 Z2.000
G0 Z2.000
G0 X108.438 YNaN
G1 Z0.000 F800
G1 X111.250 YNaN F1000
G0 Z2.000
G0 Z2.000
G0 X82.188 YNaN
G1 Z0.000 F800
G1 X85.000 YNaN F1000
G0 Z2.000
G0 Z2.000
G0 X75.625 YNaN
G1 Z0.000 F800
G1 X77.969 YNaN F1000
G0 Z2.000
G0 Z2.000
G0 X73.750 YNaN
G1 Z0.000 F800
G1 X74.688 YNaN F1000
G0 Z2.000
G0 Z2.000
G0 X10.000 YNaN
G1 Z0.000 F800
G1 X129.531 YNaN F1000
G0 Z2.000
G0 Z2.000
G0 X10.000 YNaN
G1 Z0.000 F800
G1 X129.531 YNaN F1000
G0 Z2.000
G0 Z2.000
G0 X77.969 YNaN
G1 Z0.000 F800
G1 X129.531 YNaN F1000
G0 Z2.000
G0 Z2.000
G0 X61.563 YNaN
G1 Z0.000 F800
G1 X65.313 YNaN F1000
G0 Z2.000
G0 Z2.000
G0 X68.594 YNaN
G1 Z0.000 F800
G1 X68.594 YNaN F1000
G0 Z2.000
G0 Z2.000
G0 X70.938 YNaN
G1 Z0.000 F800
G1 X71.875 YNaN F1000
G0 Z2.000
G0 Z2.000
G0 X10.000 YNaN
G1 Z0.000 F800
G1 X129.531 YNaN F1000
G0 Z2.000
G0 Z2.000
G0 X10.000 YNaN
G1 Z0.000 F800
G1 X129.531 YNaN F1000
G0 Z2.000
G0 Z2.000
G0 X126.719 YNaN
G1 Z0.000 F800
G1 X129.531 YNaN F1000
G0 Z2.000
G0 Z2.000
G0 X10.000 YNaN
G1 Z0.000 F800
G1 X129.531 YNaN F1000
G0 Z2.000
G0 Z2.000
G0 X10.000 YNaN
G1 Z0.000 F800
G1 X17.031 YNaN F1000
G0 Z2.000
G0 Z2.000
G0 X83.125 YNaN
G1 Z0.000 F800
G1 X83.125 YNaN F1000
G0 Z2.000
G0 Z2.000
G0 X10.000 YNaN
G1 Z0.000 F800
G1 X129.531 YNaN F1000
G0 Z2.000
G0 Z2.000
G0 X10.000 YNaN
G1 Z0.000 F800
G1 X129.531 YNaN F1000
G0 Z2.000
G0 Z2.000
G0 X87.344 YNaN
G1 Z0.000 F800
G1 X88.750 YNaN F1000
G0 Z2.000
G0 Z2.000
G0 X82.656 YNaN
G1 Z0.000 F800
G1 X85.000 YNaN F1000
G0 Z2.000
G0 Z2.000
G0 X10.000 YNaN
G1 Z0.000 F800
G1 X68.594 YNaN F1000
G0 Z2.000
G0 Z2.000
G0 X116.875 YNaN
G1 Z0.000 F800
G1 X123.438 YNaN F1000
G0 Z2.000
G0 Z2.000
G0 X10.000 YNaN
G1 Z0.000 F800
G1 X129.531 YNaN F1000
G0 Z2.000
G0 Z2.000
G0 X90.156 YNaN
G1 Z0.000 F800
G1 X90.156 YNaN F1000
G0 Z2.000
G0 Z2.000
G0 X91.563 YNaN
G1 Z0.000 F800
G1 X129.531 YNaN F1000
G0 Z2.000
G0 Z2.000
G0 X18.438 YNaN
G1 Z0.000 F800
G1 X23.125 YNaN F1000
G0 Z2.000
G0 Z2.000
G0 X74.688 YNaN
G1 Z0.000 F800
G1 X74.688 YNaN F1000
G0 Z2.000
G0 Z2.000
G0 X113.125 YNaN
G1 Z0.000 F800
G1 X129.531 YNaN F1000
G0 Z2.000
G0 Z2.000
G0 X10.000 YNaN
G1 Z0.000 F800
G1 X129.531 YNaN F1000
G0 Z2.000
G0 Z2.000
G0 X88.750 YNaN
G1 Z0.000 F800
G1 X88.750 YNaN F1000
G0 Z2.000
G0 Z2.000
G0 X10.000 YNaN
G1 Z0.000 F800
G1 X129.531 YNaN F1000
G0 Z2.000
G0 Z2.000
G0 X23.125 YNaN
G1 Z0.000 F800
G1 X86.406 YNaN F1000
G0 Z2.000
G0 Z2.000
G0 X85.938 YNaN
G1 Z0.000 F800
G1 X103.281 YNaN F1000
G0 Z2.000
G0 Z2.000
G0 X10.000 YNaN
G1 Z0.000 F800
G1 X21.250 YNaN F1000
G0 Z2.000
G0 Z2.000
G0 X10.000 YNaN
G1 Z0.000 F800
G1 X129.531 YNaN F1000
G0 Z2.000
G0 Z2.000
G0 X65.313 YNaN
G1 Z0.000 F800
G1 X70.000 YNaN F1000
G0 Z2.000
G0 Z2.000
G0 X52.656 YNaN
G1 Z0.000 F800
G1 X85.469 YNaN F1000
G0 Z2.000
G0 Z2.000
G0 X10.000 YNaN
G1 Z0.000 F800
G1 X129.531 YNaN F1000
G0 Z2.000
G0 Z2.000
G0 X87.813 YNaN
G1 Z0.000 F800
G1 X88.750 YNaN F1000
G0 Z2.000
G0 Z2.000
G0 X10.000 YNaN
G1 Z0.000 F800
G1 X129.531 YNaN F1000
G0 Z2.000
G0 Z2.000
G0 X114.063 YNaN
G1 Z0.000 F800
G1 X129.531 YNaN F1000
G0 Z2.000
G0 Z2.000
G0 X71.875 YNaN
G1 Z0.000 F800
G1 X73.281 YNaN F1000
G0 Z2.000
G0 Z2.000
G0 X10.000 YNaN
G1 Z0.000 F800
G1 X117.813 YNaN F1000
G0 Z2.000
G0 Z2.000
G0 X108.438 YNaN
G1 Z0.000 F800
G1 X111.250 YNaN F1000
G0 Z2.000
G0 Z2.000
G0 X62.969 YNaN
G1 Z0.000 F800
G1 X63.906 YNaN F1000
G0 Z2.000
G0 Z2.000
G0 X10.000 YNaN
G1 Z0.000 F800
G1 X129.531 YNaN F1000
G0 Z2.000
G0 Z2.000
G0 X113.594 YNaN
G1 Z0.000 F800
G1 X118.281 YNaN F1000
G0 Z2.000
G0 Z2.000
G0 X87.344 YNaN
G1 Z0.000 F800
G1 X87.344 YNaN F1000
G0 Z2.000
G0 Z2.000
G0 X10.000 YNaN
G1 Z0.000 F800
G1 X129.531 YNaN F1000
G0 Z2.000
G0 Z2.000
G0 X10.000 YNaN
G1 Z0.000 F800
G1 X85.938 YNaN F1000
G0 Z2.000
G0 Z2.000
G0 X10.000 YNaN
G1 Z0.000 F800
G1 X122.969 YNaN F1000
G0 Z2.000
G0 Z2.000
G0 X10.000 YNaN
G1 Z0.000 F800
G1 X129.531 YNaN F1000
G0 Z2.000
G0 Z2.000
G0 X10.000 YNaN
G1 Z0.000 F800
G1 X129.531 YNaN F1000
G0 Z2.000
G0 Z2.000
G0 X89.219 YNaN
G1 Z0.000 F800
G1 X89.688 YNaN F1000
G0 Z2.000
G0 Z2.000
G0 X108.906 YNaN
G1 Z0.000 F800
G1 X111.719 YNaN F1000
G0 Z2.000
G0 Z2.000
G0 X10.000 YNaN
G1 Z0.000 F800
G1 X129.531 YNaN F1000
G0 Z2.000
G0 Z2.000
G0 X10.000 YNaN
G1 Z0.000 F800
G1 X129.531 YNaN F1000
G0 Z2.000
G0 Z2.000
G0 X10.000 YNaN
G1 Z0.000 F800
G1 X72.344 YNaN F1000
G0 Z2.000
G0 Z2.000
G0 X10.000 YNaN
G1 Z0.000 F800
G1 X10.000 YNaN F1000
G0 Z2.000
G0 Z2.000
G0 X122.500 YNaN
G1 Z0.000 F800
G1 X122.969 YNaN F1000
G0 Z2.000
G0 Z2.000
G0 X75.156 YNaN
G1 Z0.000 F800
G1 X75.156 YNaN F1000
G0 Z2.000
G0 Z2.000
G0 X112.656 YNaN
G1 Z0.000 F800
G1 X126.719 YNaN F1000
G0 Z2.000
G0 Z2.000
G0 X95.781 YNaN
G1 Z0.000 F800
G1 X107.500 YNaN F1000
G0 Z2.000
G0 Z2.000
G0 X91.094 YNaN
G1 Z0.000 F800
G1 X106.094 YNaN F1000
G0 Z2.000
G0 Z2.000
G0 X10.000 YNaN
G1 Z0.000 F800
G1 X129.531 YNaN F1000
G0 Z2.000
G0 Z2.000
G0 X10.000 YNaN
G1 Z0.000 F800
G1 X129.531 YNaN F1000
G0 Z2.000
G0 Z2.000
G0 X86.875 YNaN
G1 Z0.000 F800
G1 X129.531 YNaN F1000
G0 Z2.000
G0 Z2.000
G0 X10.000 YNaN
G1 Z0.000 F800
G1 X129.531 YNaN F1000
G0 Z2.000
G0 Z2.000
G0 X10.000 YNaN
G1 Z0.000 F800
G1 X129.531 YNaN F1000
G0 Z2.000
G0 Z2.000
G0 X10.000 YNaN
G1 Z0.000 F800
G1 X129.531 YNaN F1000
G0 Z2.000
G0 Z2.000
G0 X10.000 YNaN
G1 Z0.000 F800
G1 X129.531 YNaN F1000
G0 Z2.000
G0 Z2.000
G0 X10.000 YNaN
G1 Z0.000 F800
G1 X129.531 YNaN F1000
G0 Z2.000
G0 Z2.000
G0 X85.938 YNaN
G1 Z0.000 F800
G1 X102.813 YNaN F1000
G0 Z2.000
G0 Z2.000
G0 X116.875 YNaN
G1 Z0.000 F800
G1 X129.531 YNaN F1000
G0 Z2.000
G0 Z2.000
G0 X10.000 YNaN
G1 Z0.000 F800
G1 X129.531 YNaN F1000
G0 Z2.000
G0 Z2.000
G0 X10.000 YNaN
G1 Z0.000 F800
G1 X129.531 YNaN F1000
G0 Z2.000
G0 Z2.000
G0 X10.000 YNaN
G1 Z0.000 F800
G1 X129.531 YNaN F1000
G0 Z2.000
G0 Z2.000
G0 X10.000 YNaN
G1 Z0.000 F800
G1 X129.531 YNaN F1000
G0 Z2.000
G0 Z2.000
G0 X10.000 YNaN
G1 Z0.000 F800
G1 X116.406 YNaN F1000
G0 Z2.000
G0 Z2.000
G0 X25.938 YNaN
G1 Z0.000 F800
G1 X129.531 YNaN F1000
G0 Z2.000
G0 Z2.000
G0 X10.000 YNaN
G1 Z0.000 F800
G1 X85.469 YNaN F1000
G0 Z2.000
G0 Z2.000
G0 X89.219 YNaN
G1 Z0.000 F800
G1 X129.531 YNaN F1000
G0 Z2.000
G0 Z2.000
G0 X69.063 YNaN
G1 Z0.000 F800
G1 X72.344 YNaN F1000
G0 Z2.000
G0 Z2.000
G0 X98.125 YNaN
G1 Z0.000 F800
G1 X98.125 YNaN F1000
G0 Z2.000
G0 Z2.000
G0 X10.000 YNaN
G1 Z0.000 F800
G1 X129.531 YNaN F1000
G0 Z2.000
G0 Z2.000
G0 X10.000 YNaN
G1 Z0.000 F800
G1 X129.531 YNaN F1000
G0 Z2.000
G0 Z2.000
G0 X94.844 YNaN
G1 Z0.000 F800
G1 X102.344 YNaN F1000
G0 Z2.000
G0 Z2.000
G0 X10.000 YNaN
G1 Z0.000 F800
G1 X85.469 YNaN F1000
G0 Z2.000
G0 Z2.000
G0 X96.250 YNaN
G1 Z0.000 F800
G1 X129.531 YNaN F1000
G0 Z2.000
G0 Z2.000
G0 X10.000 YNaN
G1 Z0.000 F800
G1 X129.531 YNaN F1000
G0 Z2.000
G0 Z2.000
G0 X49.844 YNaN
G1 Z0.000 F800
G1 X84.531 YNaN F1000
G0 Z2.000
G0 Z2.000
G0 X85.469 YNaN
G1 Z0.000 F800
G1 X129.531 YNaN F1000
G0 Z2.000
G0 Z2.000
G0 X10.000 YNaN
G1 Z0.000 F800
G1 X79.844 YNaN F1000
G0 Z2.000
G0 Z2.000
G0 X123.906 YNaN
G1 Z0.000 F800
G1 X129.531 YNaN F1000
G0 Z2.000
G0 Z2.000
G0 X10.000 YNaN
G1 Z0.000 F800
G1 X129.531 YNaN F1000
G0 Z2.000
G0 Z2.000
G0 X10.000 YNaN
G1 Z0.000 F800
G1 X71.875 YNaN F1000
G0 Z2.000
G0 Z2.000
G0 X10.000 YNaN
G1 Z0.000 F800
G1 X105.625 YNaN F1000
G0 Z2.000
G0 Z2.000
G0 X10.000 YNaN
G1 Z0.000 F800
G1 X129.531 YNaN F1000
G0 Z2.000
G0 Z2.000
G0 X10.000 YNaN
G1 Z0.000 F800
G1 X129.531 YNaN F1000
G0 Z2.000
G0 Z2.000
G0 X10.000 YNaN
G1 Z0.000 F800
G1 X129.531 YNaN F1000
G0 Z2.000
G0 Z2.000
G0 X10.000 YNaN
G1 Z0.000 F800
G1 X129.531 YNaN F1000
G0 Z2.000
G0 Z2.000
G0 X52.656 YNaN
G1 Z0.000 F800
G1 X63.906 YNaN F1000
G0 Z2.000
G0 Z2.000
G0 X117.344 YNaN
G1 Z0.000 F800
G1 X129.531 YNaN F1000
G0 Z2.000
G0 Z2.000
G0 X10.000 YNaN
G1 Z0.000 F800
G1 X129.531 YNaN F1000
G0 Z2.000
G0 Z2.000
G0 X10.000 YNaN
G1 Z0.000 F800
G1 X129.531 YNaN F1000
G0 Z2.000
G0 Z2.000
G0 X10.000 YNaN
G1 Z0.000 F800
G1 X129.531 YNaN F1000
G0 Z2.000
G0 Z2.000
G0 X10.000 YNaN
G1 Z0.000 F800
G1 X129.531 YNaN F1000
G0 Z2.000
G0 Z2.000
G0 X10.000 YNaN
G1 Z0.000 F800
G1 X85.000 YNaN F1000
G0 Z2.000
G0 Z2.000
G0 X10.000 YNaN
G1 Z0.000 F800
G1 X129.531 YNaN F1000
G0 Z2.000
G0 Z2.000
G0 X10.000 YNaN
G1 Z0.000 F800
G1 X85.000 YNaN F1000
G0 Z2.000
G0 Z2.000
G0 X10.000 YNaN
G1 Z0.000 F800
