; Generated by CMYK Hatching G-Code Generator V2.6 (Max Travel Distance)
G21 ; Millimeters

G90 ; Absolute positioning

G0 Z8.000

; --- COLOR CHANGE: CYAN ---
G0 Z8.000
G0 X17.000 Y0.000
G0 Z5.000
G1 Z0.000 F800
G4 P500 ; Dwell
G1 Z5.000 F800
; Smart Wipe -> Angle 75.0 deg
G0 X20.882 Y14.489
G0 Z5.000
G1 X13.118 Y-14.489 F600
G0 F1000
G0 Z8.000
G0 X0.000 F200
G0 Y0.000 F200
G0 Z2.000
G0 X38.229 Y106.124
G1 Z0.000 F800
G1 X38.229 Y106.124 F1000
G0 Z2.000
G0 Z2.000
G0 X105.741 Y109.170
G1 Z0.000 F800
G1 X106.833 Y105.095 F1000
G0 Z2.000
G0 Z2.000
G0 X118.722 Y60.722
G1 Z0.000 F800
G1 X119.450 Y58.006 F1000
G0 Z2.000
G0 Z2.000
G0 X84.845 Y109.879
G1 Z0.000 F800
G1 X84.845 Y109.879 F1000
G0 Z2.000
G0 Z2.000
G0 X67.786 Y134.911
G1 Z0.000 F800
G1 X67.907 Y134.458 F1000
G0 Z2.000
G0 Z2.000
G0 X97.164 Y110.268
G1 Z0.000 F800
G1 X97.892 Y107.552 F1000
G0 Z2.000
G0 Z2.000
G0 X104.070 Y92.222
G1 Z0.000 F800
G1 X104.313 Y91.317 F1000
G0 Z2.000
G0 Z2.000
G0 X92.283 Y51.212
G1 Z0.000 F800
G1 X92.768 Y49.400 F1000
G0 Z2.000
G0 Z2.000
G0 X25.994 Y35.876
G1 Z0.000 F800
G1 X26.600 Y33.612 F1000
G0 Z2.000
G0 Z2.000
G0 X100.617 Y51.018
G1 Z0.000 F800
G1 X100.738 Y50.565 F1000
G0 Z2.000
G0 Z2.000
G0 X93.534 Y116.090
G1 Z0.000 F800
G1 X93.777 Y115.184 F1000
G0 Z2.000
G0 Z2.000
G0 X101.999 Y107.682
G1 Z0.000 F800
G1 X102.241 Y106.776 F1000
G0 Z2.000
G0 Z2.000
G0 X77.137 Y92.285
G1 Z0.000 F800
G1 X77.137 Y92.285 F1000
G0 Z2.000
G0 Z2.000
G0 X104.873 Y127.863
G1 Z0.000 F800
G1 X105.116 Y126.958 F1000
G0 Z2.000
G0 Z2.000
G0 X93.515 Y131.614
G1 Z0.000 F800
G1 X93.637 Y131.161 F1000
G0 Z2.000
G0 Z2.000
G0 X107.785 Y116.997
G1 Z0.000 F800
G1 X108.149 Y115.638 F1000
G0 Z2.000
G0 Z2.000
G0 X19.835 Y136.135
G1 Z0.000 F800
G1 X19.835 Y136.135 F1000
G0 Z2.000
G0 Z2.000
G0 X106.581 Y113.762
G1 Z0.000 F800
G1 X106.702 Y113.309 F1000
G0 Z2.000
G0 Z2.000
G0 X69.139 Y114.406
G1 Z0.000 F800
G1 X69.381 Y113.500 F1000
G0 Z2.000
G0 Z2.000
G0 X26.237 Y135.424
G1 Z0.000 F800
G1 X26.601 Y134.066 F1000
G0 Z2.000
G0 Z2.000
G0 X14.879 Y139.175
G1 Z0.000 F800
G1 X14.879 Y139.175 F1000
G0 Z2.000
G0 Z2.000
G0 X96.763 Y42.221
G1 Z0.000 F800
G1 X96.763 Y42.221 F1000
G0 Z2.000
G0 Z2.000
G0 X86.544 Y103.540
G1 Z0.000 F800
G1 X89.577 Y92.221 F1000
G0 Z2.000
G0 Z2.000
G0 X85.779 Y137.305
G1 Z0.000 F800
G1 X85.779 Y137.305 F1000
G0 Z2.000
G0 Z2.000
G0 X99.208 Y118.095
G1 Z0.000 F800
G1 X99.451 Y117.190 F1000
G0 Z2.000
G0 Z2.000
G0 X104.957 Y58.004
G1 Z0.000 F800
G1 X105.078 Y57.552 F1000
G0 Z2.000
G0 Z2.000
G0 X111.546 Y102.960
G1 Z0.000 F800
G1 X111.789 Y102.055 F1000
G0 Z2.000
G0 Z2.000
G0 X104.220 Y68.483
G1 Z0.000 F800
G1 X105.554 Y63.503 F1000
G0 Z2.000
G0 Z2.000
G0 X18.267 Y134.259
G1 Z0.000 F800
G1 X18.388 Y133.807 F1000
G0 Z2.000
G0 Z2.000
G0 X42.662 Y35.489
G1 Z0.000 F800
G1 X43.147 Y33.678 F1000
G0 Z2.000
G0 Z2.000
G0 X25.761 Y129.474
G1 Z0.000 F800
G1 X27.217 Y124.040 F1000
G0 Z2.000
G0 Z2.000
G0 X104.920 Y89.053
G1 Z0.000 F800
G1 X105.041 Y88.600 F1000
G0 Z2.000
G0 Z2.000
G0 X30.315 Y58.386
G1 Z0.000 F800
G1 X30.557 Y57.481 F1000
G0 Z2.000
G0 Z2.000
G0 X95.671 Y146.750
G1 Z0.000 F800
G1 X96.035 Y145.392 F1000
G0 Z2.000
G0 Z2.000
G0 X106.842 Y97.333
G1 Z0.000 F800
G1 X106.842 Y97.333 F1000
G0 Z2.000
G0 Z2.000
G0 X15.877 Y112.267
G1 Z0.000 F800
G1 X17.940 Y104.569 F1000
G0 Z2.000
G0 Z2.000
G0 X36.717 Y57.675
G1 Z0.000 F800
G1 X36.717 Y57.675 F1000
G0 Z2.000
G0 Z2.000
G0 X112.208 Y54.124
G1 Z0.000 F800
G1 X112.694 Y52.313 F1000
G0 Z2.000
G0 Z2.000
G0 X96.399 Y144.033
G1 Z0.000 F800
G1 X99.796 Y131.356 F1000
G0 Z2.000
G0 Z2.000
G0 X96.483 Y74.175
G1 Z0.000 F800
G1 X96.483 Y74.175 F1000
G0 Z2.000
G0 Z2.000
G0 X13.946 Y111.749
G1 Z0.000 F800
G1 X15.401 Y106.316 F1000
G0 Z2.000
G0 Z2.000
G0 X122.717 Y53.543
G1 Z0.000 F800
G1 X122.717 Y53.543 F1000
G0 Z2.000
G0 Z2.000
G0 X18.491 Y148.878
G1 Z0.000 F800
G1 X20.675 Y140.728 F1000
G0 Z2.000
G0 Z2.000
G0 X22.186 Y88.722
G1 Z0.000 F800
G1 X22.186 Y88.722 F1000
G0 Z2.000
G0 Z2.000
G0 X129.847 Y50.115
G1 Z0.000 F800
G1 X129.968 Y49.662 F1000
G0 Z2.000
G0 Z2.000
G0 X96.875 Y149.984
G1 Z0.000 F800
G1 X97.239 Y148.626 F1000
G0 Z2.000
G0 Z2.000
G0 X125.377 Y51.344
G1 Z0.000 F800
G1 X126.347 Y47.722 F1000
G0 Z2.000
G0 Z2.000
G0 X50.837 Y66.797
G1 Z0.000 F800
G1 X50.837 Y66.797 F1000
G0 Z2.000
G0 Z2.000
G0 X31.202 Y124.623
G1 Z0.000 F800
G1 X31.202 Y124.623 F1000
G0 Z2.000
G0 Z2.000
G0 X79.824 Y66.799
G1 Z0.000 F800
G1 X80.067 Y65.894 F1000
G0 Z2.000
G0 Z2.000
G0 X41.813 Y139.113
G1 Z0.000 F800
G1 X41.813 Y139.113 F1000
G0 Z2.000
G0 Z2.000
G0 X120.888 Y68.097
G1 Z0.000 F800
G1 X121.009 Y67.644 F1000
G0 Z2.000
G0 Z2.000
G0 X102.913 Y50.178
G1 Z0.000 F800
G1 X102.913 Y50.178 F1000
G0 Z2.000
G0 Z2.000
G0 X58.359 Y38.725
G1 Z0.000 F800
G1 X58.966 Y36.461 F1000
G0 Z2.000
G0 Z2.000
G0 X29.494 Y138.724
G1 Z0.000 F800
G1 X29.494 Y138.724 F1000
G0 Z2.000
G0 Z2.000
G0 X39.153 Y141.312
G1 Z0.000 F800
G1 X39.153 Y141.312 F1000
G0 Z2.000

; --- COLOR CHANGE: CYAN ---
G0 Z8.000
G0 X17.000 Y0.000
G0 Z5.000
G1 Z0.000 F800
G4 P500 ; Dwell
G1 Z5.000 F800
; Smart Wipe -> Angle 75.0 deg
G0 X20.882 Y14.489
G0 Z5.000
G1 X13.118 Y-14.489 F600
G0 F1000
G0 Z8.000
G0 X0.000 F200
G0 Y0.000 F200
G0 Z2.000
G0 X23.175 Y69.576
G1 Z0.000 F800
G1 X23.418 Y68.670 F1000
G0 Z2.000
G0 Z2.000
G0 X23.446 Y145.838
G1 Z0.000 F800
G1 X24.053 Y143.574 F1000
G0 Z2.000
G0 Z2.000
G0 X36.782 Y103.795
G1 Z0.000 F800
G1 X37.025 Y102.889 F1000
G0 Z2.000
G0 Z2.000
G0 X27.925 Y36.393
G1 Z0.000 F800
G1 X28.532 Y34.130 F1000
G0 Z2.000
G0 Z2.000
G0 X11.556 Y89.756
G1 Z0.000 F800
G1 X11.678 Y89.304 F1000
G0 Z2.000
G0 Z2.000
G0 X118.359 Y62.081
G1 Z0.000 F800
G1 X118.480 Y61.628 F1000
G0 Z2.000
G0 Z2.000
G0 X124.406 Y54.966
G1 Z0.000 F800
G1 X124.527 Y54.513 F1000
G0 Z2.000
G0 Z2.000
G0 X95.223 Y117.513
G1 Z0.000 F800
G1 X95.587 Y116.155 F1000
G0 Z2.000
G0 Z2.000
G0 X38.761 Y65.502
G1 Z0.000 F800
G1 X38.882 Y65.049 F1000
G0 Z2.000
G0 Z2.000
G0 X43.623 Y140.083
G1 Z0.000 F800
G1 X43.623 Y140.083 F1000
G0 Z2.000
G0 Z2.000
G0 X119.703 Y149.792
G1 Z0.000 F800
G1 X125.890 Y126.701 F1000
G0 Z2.000
G0 Z2.000
G0 X65.490 Y135.751
G1 Z0.000 F800
G1 X67.552 Y128.054 F1000
G0 Z2.000
G0 Z2.000
G0 X129.977 Y41.900
G1 Z0.000 F800
G1 X129.977 Y41.900 F1000
G0 Z2.000
G0 Z2.000
G0 X43.679 Y93.511
G1 Z0.000 F800
G1 X43.679 Y93.511 F1000
G0 Z2.000
G0 Z2.000
G0 X10.073 Y118.476
G1 Z0.000 F800
G1 X10.801 Y115.759 F1000
G0 Z2.000
G0 Z2.000
G0 X123.856 Y111.112
G1 Z0.000 F800
G1 X123.856 Y111.112 F1000
G0 Z2.000
G0 Z2.000
G0 X70.314 Y40.472
G1 Z0.000 F800
G1 X71.406 Y36.397 F1000
G0 Z2.000
G0 Z2.000
G0 X35.569 Y108.323
G1 Z0.000 F800
G1 X35.691 Y107.870 F1000
G0 Z2.000
G0 Z2.000
G0 X35.896 Y138.013
G1 Z0.000 F800
G1 X35.896 Y138.013 F1000
G0 Z2.000
G0 Z2.000
G0 X45.919 Y139.243
G1 Z0.000 F800
G1 X45.919 Y139.243 F1000
G0 Z2.000
G0 Z2.000
G0 X102.988 Y88.535
G1 Z0.000 F800
G1 X102.988 Y88.535 F1000
G0 Z2.000
G0 Z2.000
G0 X79.666 Y98.300
G1 Z0.000 F800
G1 X79.787 Y97.848 F1000
G0 Z2.000
G0 Z2.000
G0 X21.729 Y67.247
G1 Z0.000 F800
G1 X21.850 Y66.794 F1000
G0 Z2.000
G0 Z2.000
G0 X93.917 Y99.207
G1 Z0.000 F800
G1 X94.402 Y97.396 F1000
G0 Z2.000
G0 Z2.000
G0 X98.275 Y90.669
G1 Z0.000 F800
G1 X98.275 Y90.669 F1000
G0 Z2.000
G0 Z2.000
G0 X92.209 Y113.308
G1 Z0.000 F800
G1 X92.694 Y111.497 F1000
G0 Z2.000
G0 Z2.000
G0 X84.304 Y57.809
G1 Z0.000 F800
G1 X84.425 Y57.356 F1000
G0 Z2.000
G0 Z2.000
G0 X15.812 Y66.147
G1 Z0.000 F800
G1 X16.904 Y62.072 F1000
G0 Z2.000
G0 Z2.000
G0 X73.814 Y143.320
G1 Z0.000 F800
G1 X75.756 Y136.076 F1000
G0 Z2.000
G0 Z2.000
G0 X106.665 Y144.358
G1 Z0.000 F800
G1 X107.757 Y140.283 F1000
G0 Z2.000
G0 Z2.000
G0 X31.444 Y123.717
G1 Z0.000 F800
G1 X31.444 Y123.717 F1000
G0 Z2.000
G0 Z2.000
G0 X44.416 Y83.032
G1 Z0.000 F800
G1 X44.416 Y83.032 F1000
G0 Z2.000
G0 Z2.000
G0 X93.422 Y108.780
G1 Z0.000 F800
G1 X93.786 Y107.422 F1000
G0 Z2.000
G0 Z2.000
G0 X12.938 Y146.420
G1 Z0.000 F800
G1 X12.938 Y146.420 F1000
G0 Z2.000
G0 Z2.000
G0 X90.230 Y51.147
G1 Z0.000 F800
G1 X90.473 Y50.241 F1000
G0 Z2.000
G0 Z2.000
G0 X84.491 Y103.476
G1 Z0.000 F800
G1 X85.219 Y100.759 F1000
G0 Z2.000
G0 Z2.000
G0 X75.326 Y91.314
G1 Z0.000 F800
G1 X75.569 Y90.409 F1000
G0 Z2.000
G0 Z2.000
G0 X98.004 Y114.861
G1 Z0.000 F800
G1 X98.490 Y113.050 F1000
G0 Z2.000
G0 Z2.000
G0 X126.179 Y86.985
G1 Z0.000 F800
G1 X126.422 Y86.079 F1000
G0 Z2.000
G0 Z2.000
G0 X30.744 Y103.148
G1 Z0.000 F800
G1 X30.744 Y103.148 F1000
G0 Z2.000
G0 Z2.000
G0 X111.359 Y57.294
G1 Z0.000 F800
G1 X111.480 Y56.841 F1000
G0 Z2.000
G0 Z2.000
G0 X25.929 Y90.210
G1 Z0.000 F800
G1 X26.293 Y88.852 F1000
G0 Z2.000
G0 Z2.000
G0 X107.374 Y56.711
G1 Z0.000 F800
G1 X107.859 Y54.900 F1000
G0 Z2.000
G0 Z2.000
G0 X108.419 Y91.446
G1 Z0.000 F800
G1 X108.419 Y91.446 F1000
G0 Z2.000
G0 Z2.000
G0 X101.131 Y126.375
G1 Z0.000 F800
G1 X101.131 Y126.375 F1000
G0 Z2.000
G0 Z2.000
G0 X99.161 Y56.452
G1 Z0.000 F800
G1 X99.161 Y56.452 F1000
G0 Z2.000
G0 Z2.000
G0 X120.113 Y109.624
G1 Z0.000 F800
G1 X121.690 Y103.738 F1000
G0 Z2.000
G0 Z2.000
G0 X17.548 Y129.214
G1 Z0.000 F800
G1 X19.368 Y122.422 F1000
G0 Z2.000
G0 Z2.000
G0 X13.302 Y145.061
G1 Z0.000 F800
G1 X14.030 Y142.345 F1000
G0 Z2.000

; --- COLOR CHANGE: CYAN ---
G0 Z8.000
G0 X17.000 Y0.000
G0 Z5.000
G1 Z0.000 F800
G4 P500 ; Dwell
G1 Z5.000 F800
; Smart Wipe -> Angle 75.0 deg
G0 X20.882 Y14.489
G0 Z5.000
G1 X13.118 Y-14.489 F600
G0 F1000
G0 Z8.000
G0 X0.000 F200
G0 Y0.000 F200
G0 Z2.000
G0 X31.761 Y60.715
G1 Z0.000 F800
G1 X32.125 Y59.357 F1000
G0 Z2.000
G0 Z2.000
G0 X129.436 Y90.284
G1 Z0.000 F800
G1 X129.436 Y90.284 F1000
G0 Z2.000
G0 Z2.000
G0 X71.462 Y90.279
G1 Z0.000 F800
G1 X71.705 Y89.373 F1000
G0 Z2.000
G0 Z2.000
G0 X30.912 Y63.884
G1 Z0.000 F800
G1 X30.912 Y63.884 F1000
G0 Z2.000
G0 Z2.000
G0 X47.375 Y133.809
G1 Z0.000 F800
G1 X49.923 Y124.301 F1000
G0 Z2.000
G0 Z2.000
G0 X41.076 Y149.592
G1 Z0.000 F800
G1 X42.168 Y145.517 F1000
G0 Z2.000
G0 Z2.000
G0 X115.829 Y56.065
G1 Z0.000 F800
G1 X116.436 Y53.801 F1000
G0 Z2.000
G0 Z2.000
G0 X107.692 Y94.163
G1 Z0.000 F800
G1 X107.692 Y94.163 F1000
G0 Z2.000
G0 Z2.000
G0 X112.526 Y91.576
G1 Z0.000 F800
G1 X112.526 Y91.576 F1000
G0 Z2.000
G0 Z2.000
G0 X68.149 Y133.552
G1 Z0.000 F800
G1 X69.484 Y128.572 F1000
G0 Z2.000
G0 Z2.000
G0 X43.511 Y32.320
G1 Z0.000 F800
G1 X43.511 Y32.320 F1000
G0 Z2.000
G0 Z2.000
G0 X117.556 Y126.894
G1 Z0.000 F800
G1 X117.799 Y125.988 F1000
G0 Z2.000
G0 Z2.000
G0 X62.428 Y69.903
G1 Z0.000 F800
G1 X62.428 Y69.903 F1000
G0 Z2.000
G0 Z2.000
G0 X19.928 Y58.515
G1 Z0.000 F800
G1 X20.170 Y57.609 F1000
G0 Z2.000
G0 Z2.000
G0 X36.129 Y144.869
G1 Z0.000 F800
G1 X36.129 Y144.869 F1000
G0 Z2.000
G0 Z2.000
G0 X34.813 Y134.326
G1 Z0.000 F800
G1 X34.935 Y133.873 F1000
G0 Z2.000
G0 Z2.000
G0 X82.372 Y57.291
G1 Z0.000 F800
G1 X82.372 Y57.291 F1000
G0 Z2.000
G0 Z2.000
G0 X96.175 Y129.415
G1 Z0.000 F800
G1 X96.418 Y128.509 F1000
G0 Z2.000
G0 Z2.000
G0 X76.679 Y70.809
G1 Z0.000 F800
G1 X76.679 Y70.809 F1000
G0 Z2.000
G0 Z2.000
G0 X100.916 Y103.994
G1 Z0.000 F800
G1 X100.916 Y103.994 F1000
G0 Z2.000
G0 Z2.000
G0 X89.792 Y114.602
G1 Z0.000 F800
G1 X90.034 Y113.696 F1000
G0 Z2.000
G0 Z2.000
G0 X75.933 Y89.050
G1 Z0.000 F800
G1 X76.054 Y88.598 F1000
G0 Z2.000
G0 Z2.000
G0 X125.862 Y149.987
G1 Z0.000 F800
G1 X127.076 Y145.459 F1000
G0 Z2.000
G0 Z2.000
G0 X68.401 Y124.885
G1 Z0.000 F800
G1 X68.401 Y124.885 F1000
G0 Z2.000
G0 Z2.000
G0 X17.874 Y58.450
G1 Z0.000 F800
G1 X18.238 Y57.091 F1000
G0 Z2.000
G0 Z2.000
G0 X102.605 Y105.418
G1 Z0.000 F800
G1 X103.212 Y103.154 F1000
G0 Z2.000
G0 Z2.000
G0 X35.532 Y139.371
G1 Z0.000 F800
G1 X35.532 Y139.371 F1000
G0 Z2.000
G0 Z2.000
G0 X68.653 Y116.217
G1 Z0.000 F800
G1 X68.775 Y115.764 F1000
G0 Z2.000
G0 Z2.000
G0 X33.376 Y124.235
G1 Z0.000 F800
G1 X33.376 Y124.235 F1000
G0 Z2.000
G0 Z2.000
G0 X65.004 Y137.562
G1 Z0.000 F800
G1 X65.247 Y136.657 F1000
G0 Z2.000
G0 Z2.000
G0 X22.354 Y149.913
G1 Z0.000 F800
G1 X23.082 Y147.197 F1000
G0 Z2.000
G0 Z2.000
G0 X115.597 Y149.663
G1 Z0.000 F800
G1 X121.784 Y126.571 F1000
G0 Z2.000
G0 Z2.000
G0 X100.160 Y129.997
G1 Z0.000 F800
G1 X100.767 Y127.733 F1000
G0 Z2.000
G0 Z2.000
G0 X54.953 Y59.164
G1 Z0.000 F800
G1 X55.074 Y58.712 F1000
G0 Z2.000
G0 Z2.000
G0 X26.899 Y86.588
G1 Z0.000 F800
G1 X27.020 Y86.135 F1000
G0 Z2.000
G0 Z2.000
G0 X100.851 Y57.875
G1 Z0.000 F800
G1 X100.851 Y57.875 F1000
G0 Z2.000
G0 Z2.000
G0 X17.865 Y66.212
G1 Z0.000 F800
G1 X18.472 Y63.948 F1000
G0 Z2.000
G0 Z2.000
G0 X10.091 Y102.952
G1 Z0.000 F800
G1 X10.576 Y101.141 F1000
G0 Z2.000
G0 Z2.000
G0 X27.767 Y67.895
G1 Z0.000 F800
G1 X27.767 Y67.895 F1000
G0 Z2.000
G0 Z2.000
G0 X43.866 Y139.178
G1 Z0.000 F800
G1 X44.109 Y138.272 F1000
G0 Z2.000
G0 Z2.000
G0 X10.446 Y109.355
G1 Z0.000 F800
G1 X12.630 Y101.205 F1000
G0 Z2.000
G0 Z2.000
G0 X61.616 Y42.024
G1 Z0.000 F800
G1 X61.980 Y40.665 F1000
G0 Z2.000
G0 Z2.000
G0 X37.585 Y139.436
G1 Z0.000 F800
G1 X38.192 Y137.172 F1000
G0 Z2.000
G0 Z2.000
G0 X129.474 Y59.236
G1 Z0.000 F800
G1 X129.474 Y59.236 F1000
G0 Z2.000
G0 Z2.000
G0 X22.009 Y35.293
G1 Z0.000 F800
G1 X22.615 Y33.029 F1000
G0 Z2.000
G0 Z2.000
G0 X106.805 Y128.381
G1 Z0.000 F800
G1 X107.048 Y127.475 F1000
G0 Z2.000
G0 Z2.000
G0 X128.354 Y86.597
G1 Z0.000 F800
G1 X128.718 Y85.238 F1000
G0 Z2.000
G0 Z2.000
G0 X70.949 Y115.376
G1 Z0.000 F800
G1 X71.434 Y113.565 F1000
G0 Z2.000
G0 Z2.000
G0 X113.478 Y103.478
G1 Z0.000 F800
G1 X113.599 Y103.025 F1000
G0 Z2.000
G0 Z2.000
G0 X14.337 Y87.105
G1 Z0.000 F800
G1 X14.459 Y86.652 F1000
G0 Z2.000
G0 Z2.000
G0 X115.755 Y118.162
G1 Z0.000 F800
G1 X116.240 Y116.350 F1000
G0 Z2.000
G0 Z2.000
G0 X101.103 Y149.661
G1 Z0.000 F800
G1 X101.103 Y149.661 F1000
G0 Z2.000
G0 Z2.000
G0 X114.486 Y68.808
G1 Z0.000 F800
G1 X115.335 Y65.638 F1000
G0 Z2.000

; --- COLOR CHANGE: CYAN ---
G0 Z8.000
G0 X17.000 Y0.000
G0 Z5.000
G1 Z0.000 F800
G4 P500 ; Dwell
G1 Z5.000 F800
; Smart Wipe -> Angle 75.0 deg
G0 X20.882 Y14.489
G0 Z5.000
G1 X13.118 Y-14.489 F600
G0 F1000
G0 Z8.000
G0 X0.000 F200
G0 Y0.000 F200
G0 Z2.000
G0 X18.295 Y110.973
G1 Z0.000 F800
G1 X19.750 Y105.540 F1000
G0 Z2.000
G0 Z2.000
G0 X19.601 Y129.279
G1 Z0.000 F800
G1 X21.300 Y122.940 F1000
G0 Z2.000
G0 Z2.000
G0 X83.959 Y144.097
G1 Z0.000 F800
G1 X85.536 Y138.211 F1000
G0 Z2.000
G0 Z2.000
G0 X112.554 Y68.290
G1 Z0.000 F800
G1 X113.160 Y66.026 F1000
G0 Z2.000
G0 Z2.000
G0 X95.951 Y114.796
G1 Z0.000 F800
G1 X96.679 Y112.080 F1000
G0 Z2.000
G0 Z2.000
G0 X80.310 Y64.988
G1 Z0.000 F800
G1 X80.431 Y64.535 F1000
G0 Z2.000
G0 Z2.000
G0 X125.115 Y67.773
G1 Z0.000 F800
G1 X125.601 Y65.962 F1000
G0 Z2.000
G0 Z2.000
G0 X75.989 Y142.932
G1 Z0.000 F800
G1 X79.022 Y131.613 F1000
G0 Z2.000
G0 Z2.000
G0 X105.638 Y94.098
G1 Z0.000 F800
G1 X105.881 Y93.193 F1000
G0 Z2.000
G0 Z2.000
G0 X77.164 Y68.998
G1 Z0.000 F800
G1 X78.620 Y63.565 F1000
G0 Z2.000
G0 Z2.000
G0 X67.533 Y43.124
G1 Z0.000 F800
G1 X69.474 Y35.879 F1000
G0 Z2.000
G0 Z2.000
G0 X27.207 Y131.802
G1 Z0.000 F800
G1 X27.207 Y131.802 F1000
G0 Z2.000
G0 Z2.000
G0 X87.524 Y92.156
G1 Z0.000 F800
G1 X88.252 Y89.439 F1000
G0 Z2.000
G0 Z2.000
G0 X85.583 Y99.401
G1 Z0.000 F800
G1 X85.583 Y99.401 F1000
G0 Z2.000
G0 Z2.000
G0 X20.161 Y65.371
G1 Z0.000 F800
G1 X20.404 Y64.466 F1000
G0 Z2.000
G0 Z2.000
G0 X32.751 Y142.023
G1 Z0.000 F800
G1 X32.872 Y141.570 F1000
G0 Z2.000
G0 Z2.000
G0 X119.227 Y143.841
G1 Z0.000 F800
G1 X123.958 Y126.183 F1000
G0 Z2.000
G0 Z2.000
G0 X99.050 Y149.597
G1 Z0.000 F800
G1 X100.142 Y145.522 F1000
G0 Z2.000
G0 Z2.000
G0 X48.336 Y137.949
G1 Z0.000 F800
G1 X48.579 Y137.044 F1000
G0 Z2.000
G0 Z2.000
G0 X19.237 Y130.637
G1 Z0.000 F800
G1 X19.359 Y130.184 F1000
G0 Z2.000
G0 Z2.000
G0 X90.333 Y66.218
G1 Z0.000 F800
G1 X91.303 Y62.596 F1000
G0 Z2.000
G0 Z2.000
G0 X16.802 Y147.455
G1 Z0.000 F800
G1 X18.379 Y141.569 F1000
G0 Z2.000
G0 Z2.000
G0 X103.996 Y53.865
G1 Z0.000 F800
G1 X104.481 Y52.054 F1000
G0 Z2.000
G0 Z2.000
G0 X36.848 Y149.915
G1 Z0.000 F800
G1 X37.940 Y145.840 F1000
G0 Z2.000
G0 Z2.000
G0 X26.750 Y110.327
G1 Z0.000 F800
G1 X27.235 Y108.516 F1000
G0 Z2.000
G0 Z2.000
G0 X86.973 Y148.302
G1 Z0.000 F800
G1 X86.973 Y148.302 F1000
G0 Z2.000

; --- COLOR CHANGE: CYAN ---
