; Generated by CMYK Pro (V1.0 - Popravljena NaN pot)
G21 ; Millimeters
G90 ; Absolute positioning
G0 Z8.000

; --- COLOR CHANGE: CYAN ---
G0 Z8.000
G0 X17.000 Y0.000
G1 Z0.000 F800
G1 Z5.000 F800
; Smart Wipe -> Angle 29.8 deg
G0 X22.206 Y2.984
G0 Z5.000
G1 X34.352 Y9.945 F600
G0 F1000
G0 Z8.000
G0 Y0.000 F200
G0 X0.000 Y30.489
G0 X0.000 F200
G1 X99.902 Y30.489 Z0.000 F1000

; --- COLOR CHANGE: MAGENTA ---
G0 Z8.000
G0 X63.000 Y0.000
G1 Z0.000 F800
G1 Z5.000 F800
; Smart Wipe -> Angle 140.6 deg
G0 X58.363 Y3.808
G0 Z5.000
G1 X47.545 Y12.694 F600
G0 F1000
G0 Z8.000
G0 X100.402 F200
G0 X0.000 Y30.489
G0 X0.000 F200
G1 X22.701 Y30.489 Z0.000 F1000
G0 X23.288 Y30.489
G1 X24.755 Y30.489 Z0.000 F1000
G0 X24.951 Y30.489
G1 X26.419 Y30.489 Z0.000 F1000
G0 X26.810 Y30.489
G1 X31.018 Y30.489 Z0.000 F1000
G0 X32.094 Y30.489
G1 X36.595 Y30.489 Z0.000 F1000
G0 X39.139 Y30.489
G1 X40.411 Y30.489 Z0.000 F1000
G0 X40.607 Y30.489
G1 X42.172 Y30.489 Z0.000 F1000
G0 X43.836 Y30.489
G1 X44.227 Y30.489 Z0.000 F1000
G0 X44.618 Y30.489
G1 X44.814 Y30.489 Z0.000 F1000
G0 X45.303 Y30.489
G1 X45.401 Y30.489 Z0.000 F1000
G0 X48.630 Y30.489
G1 X49.511 Y30.489 Z0.000 F1000
G0 X50.000 Y30.489
G1 X50.000 Y30.489 Z0.000 F1000
G0 X53.327 Y30.489
G1 X53.425 Y30.489 Z0.000 F1000
G0 X64.677 Y30.489
G1 X64.873 Y30.489 Z0.000 F1000
G0 X69.080 Y30.489
G1 X76.517 Y30.489 Z0.000 F1000
G0 X78.474 Y30.489
G1 X82.877 Y30.489 Z0.000 F1000
G0 X93.640 Y30.489
G1 X94.521 Y30.489 Z0.000 F1000
G0 X96.184 Y30.489
G1 X99.902 Y30.489 Z0.000 F1000

; --- COLOR CHANGE: YELLOW ---
G0 Z8.000
G0 X109.000 Y0.000
G1 Z0.000 F800
G1 Z5.000 F800
; Smart Wipe -> Angle 159.6 deg
G0 X103.377 Y2.093
G0 Z5.000
G1 X90.257 Y6.977 F600
G0 F1000
G0 Z8.000
G0 X100.402 F200
G0 X0.000 Y30.489
G0 X0.000 F200
G1 X37.182 Y30.489 Z0.000 F1000
G0 X38.063 Y30.489
G1 X50.489 Y30.489 Z0.000 F1000
G0 X50.881 Y30.489
G1 X53.718 Y30.489 Z0.000 F1000
G0 X56.164 Y30.489
G1 X56.849 Y30.489 Z0.000 F1000
G0 X59.100 Y30.489
G1 X59.589 Y30.489 Z0.000 F1000
G0 X61.155 Y30.489
G1 X61.155 Y30.489 Z0.000 F1000
G0 X61.448 Y30.489
G1 X61.937 Y30.489 Z0.000 F1000
G0 X64.090 Y30.489
G1 X64.090 Y30.489 Z0.000 F1000
G0 X64.384 Y30.489
G1 X88.063 Y30.489 Z0.000 F1000
G0 X88.356 Y30.489
G1 X90.998 Y30.489 Z0.000 F1000
G0 X91.292 Y30.489
G1 X94.912 Y30.489 Z0.000 F1000
G0 X95.205 Y30.489
G1 X99.902 Y30.489 Z0.000 F1000

; --- COLOR CHANGE: BLACK ---
G0 Z8.000
G0 X140.000 Y0.000
G1 Z0.000 F800
G1 Z5.000 F800
; Smart Wipe -> Angle 163.2 deg
G0 X136.255 Y1.731
G0 Z5.000
G1 X122.850 Y5.768 F600
G0 F1000
G0 Z8.000
G0 X100.402 F200
G0 X0.000 Y30.489
G0 X0.000 F200
G1 X64.188 Y30.489 Z0.000 F1000
G0 X65.460 Y30.489
G1 X68.982 Y30.489 Z0.000 F1000
G0 X69.374 Y30.489
G1 X75.734 Y30.489 Z0.000 F1000
G0 X76.223 Y30.489
G1 X79.159 Y30.489 Z0.000 F1000
G0 X79.354 Y30.489
G1 X90.117 Y30.489 Z0.000 F1000
G0 X90.313 Y30.489
G1 X90.998 Y30.489 Z0.000 F1000
G0 X91.487 Y30.489
G1 X96.477 Y30.489 Z0.000 F1000
G0 X97.065 Y30.489
G1 X99.902 Y30.489 Z0.000 F1000

; --- COLOR CHANGE: CYAN ---
G0 Z8.000
G0 X17.000 Y0.000
G1 Z0.000 F800
G1 Z5.000 F800
; Smart Wipe -> Angle 13.1 deg
G0 X22.845 Y1.357
G0 Z5.000
G1 X36.482 Y4.522 F600
G0 F1000
G0 Z8.000
G0 X100.402 F200
G0 X0.000 Y30.978
G0 X0.000 F200
G1 X99.902 Y30.978 Z0.000 F1000

; --- COLOR CHANGE: MAGENTA ---
G0 Z8.000
G0 X63.000 Y0.000
G1 Z0.000 F800
G1 Z5.000 F800
; Smart Wipe -> Angle 148.2 deg
G0 X57.901 Y3.162
G0 Z5.000
G1 X46.003 Y10.541 F600
G0 F1000
G0 Z8.000
G0 X100.402 F200
G0 X0.000 Y30.978
G0 X0.000 F200
G1 X24.951 Y30.978 Z0.000 F1000
G0 X25.147 Y30.978
G1 X26.712 Y30.978 Z0.000 F1000
G0 X26.908 Y30.978
G1 X28.474 Y30.978 Z0.000 F1000
G0 X28.669 Y30.978
G1 X31.213 Y30.978 Z0.000 F1000
G0 X31.898 Y30.978
G1 X36.497 Y30.978 Z0.000 F1000
G0 X38.063 Y30.978
G1 X42.857 Y30.978 Z0.000 F1000
G0 X43.249 Y30.978
G1 X44.521 Y30.978 Z0.000 F1000
G0 X46.086 Y30.978
G1 X46.086 Y30.978 Z0.000 F1000
G0 X49.413 Y30.978
G1 X50.489 Y30.978 Z0.000 F1000
G0 X50.783 Y30.978
G1 X52.544 Y30.978 Z0.000 F1000
G0 X52.838 Y30.978
G1 X53.229 Y30.978 Z0.000 F1000
G0 X53.523 Y30.978
G1 X53.523 Y30.978 Z0.000 F1000
G0 X56.458 Y30.978
G1 X56.654 Y30.978 Z0.000 F1000
G0 X64.579 Y30.978
G1 X65.068 Y30.978 Z0.000 F1000
G0 X66.536 Y30.978
G1 X66.634 Y30.978 Z0.000 F1000
G0 X69.863 Y30.978
G1 X77.299 Y30.978 Z0.000 F1000
G0 X78.767 Y30.978
G1 X83.072 Y30.978 Z0.000 F1000
G0 X93.151 Y30.978
G1 X93.249 Y30.978 Z0.000 F1000
G0 X93.738 Y30.978
G1 X94.521 Y30.978 Z0.000 F1000
G0 X97.065 Y30.978
G1 X98.141 Y30.978 Z0.000 F1000

; --- COLOR CHANGE: YELLOW ---
G0 Z8.000
G0 X109.000 Y0.000
G1 Z0.000 F800
G1 Z5.000 F800
; Smart Wipe -> Angle 168.1 deg
G0 X103.129 Y1.236
G0 Z5.000
G1 X89.429 Y4.120 F600
G0 F1000
G0 Z8.000
G0 X98.641 F200
G0 X0.000 Y30.978
G0 X0.000 F200
G1 X37.378 Y30.978 Z0.000 F1000
G0 X37.671 Y30.978
G1 X48.337 Y30.978 Z0.000 F1000
G0 X49.119 Y30.978
G1 X54.012 Y30.978 Z0.000 F1000
G0 X56.067 Y30.978
G1 X56.947 Y30.978 Z0.000 F1000
G0 X57.339 Y30.978
G1 X57.534 Y30.978 Z0.000 F1000
G0 X57.926 Y30.978
G1 X59.393 Y30.978 Z0.000 F1000
G0 X60.372 Y30.978
G1 X60.470 Y30.978 Z0.000 F1000
G0 X64.188 Y30.978
G1 X67.123 Y30.978 Z0.000 F1000
G0 X67.515 Y30.978
G1 X88.356 Y30.978 Z0.000 F1000
G0 X88.552 Y30.978
G1 X89.139 Y30.978 Z0.000 F1000
G0 X89.335 Y30.978
G1 X92.661 Y30.978 Z0.000 F1000
G0 X92.955 Y30.978
G1 X96.673 Y30.978 Z0.000 F1000
G0 X96.967 Y30.978
G1 X98.532 Y30.978 Z0.000 F1000
G0 X98.924 Y30.978
G1 X99.119 Y30.978 Z0.000 F1000
G0 X99.609 Y30.978
G1 X99.902 Y30.978 Z0.000 F1000

; --- COLOR CHANGE: BLACK ---
G0 Z8.000
G0 X140.000 Y0.000
G1 Z0.000 F800
G1 Z5.000 F800
; Smart Wipe -> Angle 157.1 deg
G0 X136.473 Y2.336
G0 Z5.000
G1 X123.578 Y7.786 F600
G0 F1000
G0 Z8.000
G0 X100.402 F200
G0 X0.000 Y30.978
G0 X0.000 F200
G1 X24.853 Y30.978 Z0.000 F1000
G0 X25.147 Y30.978
G1 X64.090 Y30.978 Z0.000 F1000
G0 X66.438 Y30.978
G1 X69.961 Y30.978 Z0.000 F1000
G0 X70.254 Y30.978
G1 X71.429 Y30.978 Z0.000 F1000
G0 X71.918 Y30.978
G1 X82.975 Y30.978 Z0.000 F1000
G0 X83.366 Y30.978
G1 X97.750 Y30.978 Z0.000 F1000
G0 X98.043 Y30.978
G1 X98.337 Y30.978 Z0.000 F1000
G0 X98.630 Y30.978
G1 X99.902 Y30.978 Z0.000 F1000

; --- COLOR CHANGE: CYAN ---
G0 Z8.000
G0 X17.000 Y0.000
G1 Z0.000 F800
G1 Z5.000 F800
; Smart Wipe -> Angle 16.6 deg
G0 X22.750 Y1.713
G0 Z5.000
G1 X36.167 Y5.711 F600
G0 F1000
G0 Z8.000
G0 X100.402 F200
G0 X0.000 Y31.468
G0 X0.000 F200
G1 X99.902 Y31.468 Z0.000 F1000

; --- COLOR CHANGE: MAGENTA ---
G0 Z8.000
G0 X63.000 Y0.000
G1 Z0.000 F800
G1 Z5.000 F800
; Smart Wipe -> Angle 127.6 deg
G0 X59.339 Y4.753
G0 Z5.000
G1 X50.796 Y15.845 F600
G0 F1000
G0 Z8.000
G0 X100.402 F200
G0 X0.000 Y31.468
G0 X0.000 F200
G1 X28.082 Y31.468 Z0.000 F1000
G0 X28.376 Y31.468
G1 X28.376 Y31.468 Z0.000 F1000
G0 X28.669 Y31.468
G1 X37.280 Y31.468 Z0.000 F1000
G0 X37.769 Y31.468
G1 X40.215 Y31.468 Z0.000 F1000
G0 X40.607 Y31.468
G1 X42.466 Y31.468 Z0.000 F1000
G0 X43.249 Y31.468
G1 X43.836 Y31.468 Z0.000 F1000
G0 X44.618 Y31.468
G1 X45.205 Y31.468 Z0.000 F1000
G0 X45.695 Y31.468
G1 X46.477 Y31.468 Z0.000 F1000
G0 X50.196 Y31.468
G1 X51.859 Y31.468 Z0.000 F1000
G0 X53.131 Y31.468
G1 X53.327 Y31.468 Z0.000 F1000
G0 X53.914 Y31.468
G1 X53.914 Y31.468 Z0.000 F1000
G0 X56.654 Y31.468
G1 X56.849 Y31.468 Z0.000 F1000
G0 X57.045 Y31.468
G1 X57.534 Y31.468 Z0.000 F1000
G0 X58.806 Y31.468
G1 X58.806 Y31.468 Z0.000 F1000
G0 X64.971 Y31.468
G1 X66.243 Y31.468 Z0.000 F1000
G0 X68.493 Y31.468
G1 X77.104 Y31.468 Z0.000 F1000
G0 X77.299 Y31.468
G1 X77.593 Y31.468 Z0.000 F1000
G0 X78.474 Y31.468
G1 X83.072 Y31.468 Z0.000 F1000
G0 X85.029 Y31.468
G1 X85.225 Y31.468 Z0.000 F1000
G0 X93.542 Y31.468
G1 X94.912 Y31.468 Z0.000 F1000

; --- COLOR CHANGE: YELLOW ---
G0 Z8.000
G0 X109.000 Y0.000
G1 Z0.000 F800
G1 Z5.000 F800
; Smart Wipe -> Angle 141.3 deg
G0 X104.318 Y3.753
G0 Z5.000
G1 X93.395 Y12.509 F600
G0 F1000
G0 Z8.000
G0 X95.412 F200
G0 X0.000 Y31.468
G0 X0.000 F200
G1 X47.847 Y31.468 Z0.000 F1000
G0 X48.043 Y31.468
G1 X48.924 Y31.468 Z0.000 F1000
G0 X49.119 Y31.468
G1 X49.119 Y31.468 Z0.000 F1000
G0 X49.315 Y31.468
G1 X49.413 Y31.468 Z0.000 F1000
G0 X49.706 Y31.468
G1 X54.599 Y31.468 Z0.000 F1000
G0 X55.871 Y31.468
G1 X59.393 Y31.468 Z0.000 F1000
G0 X60.470 Y31.468
G1 X60.568 Y31.468 Z0.000 F1000
G0 X61.937 Y31.468
G1 X62.035 Y31.468 Z0.000 F1000
G0 X62.427 Y31.468
G1 X62.427 Y31.468 Z0.000 F1000
G0 X64.090 Y31.468
G1 X66.438 Y31.468 Z0.000 F1000
G0 X67.613 Y31.468
G1 X88.356 Y31.468 Z0.000 F1000
G0 X88.552 Y31.468
G1 X89.041 Y31.468 Z0.000 F1000
G0 X89.237 Y31.468
G1 X91.292 Y31.468 Z0.000 F1000
G0 X91.487 Y31.468
G1 X92.759 Y31.468 Z0.000 F1000
G0 X93.053 Y31.468
G1 X96.771 Y31.468 Z0.000 F1000
G0 X97.162 Y31.468
G1 X97.260 Y31.468 Z0.000 F1000
G0 X97.554 Y31.468
G1 X97.554 Y31.468 Z0.000 F1000
G0 X97.750 Y31.468
G1 X97.750 Y31.468 Z0.000 F1000
G0 X97.945 Y31.468
G1 X98.434 Y31.468 Z0.000 F1000

; --- COLOR CHANGE: BLACK ---
G0 Z8.000
G0 X140.000 Y0.000
G1 Z0.000 F800
G1 Z5.000 F800
; Smart Wipe -> Angle 168.4 deg
G0 X136.122 Y1.205
G0 Z5.000
G1 X122.407 Y4.017 F600
G0 F1000
G0 Z8.000
G0 X98.934 F200
G0 X0.000 Y31.468
G0 X0.000 F200
G1 X48.434 Y31.468 Z0.000 F1000
G0 X48.630 Y31.468
G1 X51.957 Y31.468 Z0.000 F1000
G0 X52.250 Y31.468
G1 X53.523 Y31.468 Z0.000 F1000
G0 X53.718 Y31.468
G1 X62.133 Y31.468 Z0.000 F1000
G0 X62.524 Y31.468
G1 X63.894 Y31.468 Z0.000 F1000
G0 X64.384 Y31.468
G1 X64.384 Y31.468 Z0.000 F1000
G0 X64.971 Y31.468
G1 X66.438 Y31.468 Z0.000 F1000
G0 X66.830 Y31.468
G1 X71.331 Y31.468 Z0.000 F1000
G0 X71.624 Y31.468
G1 X83.072 Y31.468 Z0.000 F1000
G0 X83.464 Y31.468
G1 X84.638 Y31.468 Z0.000 F1000
G0 X84.932 Y31.468
G1 X91.781 Y31.468 Z0.000 F1000
G0 X92.074 Y31.468
G1 X93.640 Y31.468 Z0.000 F1000
G0 X93.836 Y31.468
G1 X94.521 Y31.468 Z0.000 F1000
G0 X95.205 Y31.468
G1 X96.967 Y31.468 Z0.000 F1000
G0 X97.162 Y31.468
G1 X98.630 Y31.468 Z0.000 F1000
G0 X99.217 Y31.468
G1 X99.902 Y31.468 Z0.000 F1000

; --- COLOR CHANGE: CYAN ---
G0 Z8.000
G0 X17.000 Y0.000
G1 Z0.000 F800
G1 Z5.000 F800
; Smart Wipe -> Angle 30.2 deg
G0 X22.187 Y3.016
G0 Z5.000
G1 X34.290 Y10.053 F600
G0 F1000
G0 Z8.000
G0 X100.402 F200
G0 X0.000 Y31.957
G0 X0.000 F200
G1 X99.902 Y31.957 Z0.000 F1000

; --- COLOR CHANGE: MAGENTA ---
G0 Z8.000
G0 X63.000 Y0.000
G1 Z0.000 F800
G1 Z5.000 F800
; Smart Wipe -> Angle 121.5 deg
G0 X59.868 Y5.118
G0 Z5.000
G1 X52.559 Y17.058 F600
G0 F1000
G0 Z8.000
G0 X100.402 F200
G0 X0.000 Y31.957
G0 X0.000 F200
G1 X41.977 Y31.957 Z0.000 F1000
G0 X42.368 Y31.957
G1 X42.759 Y31.957 Z0.000 F1000
G0 X43.151 Y31.957
G1 X43.346 Y31.957 Z0.000 F1000
G0 X44.521 Y31.957
G1 X45.108 Y31.957 Z0.000 F1000
G0 X45.597 Y31.957
G1 X47.652 Y31.957 Z0.000 F1000
G0 X48.141 Y31.957
G1 X48.337 Y31.957 Z0.000 F1000
G0 X48.532 Y31.957
G1 X48.728 Y31.957 Z0.000 F1000
G0 X49.706 Y31.957
G1 X51.174 Y31.957 Z0.000 F1000
G0 X53.620 Y31.957
G1 X54.403 Y31.957 Z0.000 F1000
G0 X56.164 Y31.957
G1 X58.023 Y31.957 Z0.000 F1000
G0 X58.513 Y31.957
G1 X58.611 Y31.957 Z0.000 F1000
G0 X60.665 Y31.957
G1 X60.665 Y31.957 Z0.000 F1000
G0 X63.992 Y31.957
G1 X64.286 Y31.957 Z0.000 F1000
G0 X65.264 Y31.957
G1 X65.264 Y31.957 Z0.000 F1000
G0 X68.102 Y31.957
G1 X68.395 Y31.957 Z0.000 F1000
G0 X68.982 Y31.957
G1 X70.450 Y31.957 Z0.000 F1000
G0 X70.841 Y31.957
G1 X71.624 Y31.957 Z0.000 F1000
G0 X72.016 Y31.957
G1 X83.170 Y31.957 Z0.000 F1000
G0 X85.421 Y31.957
G1 X87.378 Y31.957 Z0.000 F1000
G0 X93.542 Y31.957
G1 X95.108 Y31.957 Z0.000 F1000
G0 X95.597 Y31.957
G1 X95.890 Y31.957 Z0.000 F1000
G0 X97.847 Y31.957
G1 X99.902 Y31.957 Z0.000 F1000

; --- COLOR CHANGE: YELLOW ---
G0 Z8.000
G0 X109.000 Y0.000
G1 Z0.000 F800
G1 Z5.000 F800
; Smart Wipe -> Angle 144.7 deg
G0 X104.103 Y3.467
G0 Z5.000
G1 X92.676 Y11.556 F600
G0 F1000
G0 Z8.000
G0 X100.402 F200
G0 X0.000 Y31.957
G0 X0.000 F200
G1 X51.859 Y31.957 Z0.000 F1000
G0 X53.229 Y31.957
G1 X55.186 Y31.957 Z0.000 F1000
G0 X55.479 Y31.957
G1 X59.393 Y31.957 Z0.000 F1000
G0 X60.274 Y31.957
G1 X60.861 Y31.957 Z0.000 F1000
G0 X62.133 Y31.957
G1 X62.622 Y31.957 Z0.000 F1000
G0 X63.699 Y31.957
G1 X64.481 Y31.957 Z0.000 F1000
G0 X64.971 Y31.957
G1 X65.656 Y31.957 Z0.000 F1000
G0 X66.145 Y31.957
G1 X66.830 Y31.957 Z0.000 F1000
G0 X67.319 Y31.957
G1 X67.417 Y31.957 Z0.000 F1000
G0 X67.710 Y31.957
G1 X88.943 Y31.957 Z0.000 F1000
G0 X89.237 Y31.957
G1 X90.705 Y31.957 Z0.000 F1000
G0 X91.683 Y31.957
G1 X99.902 Y31.957 Z0.000 F1000

; --- COLOR CHANGE: BLACK ---
G0 Z8.000
G0 X140.000 Y0.000
G1 Z0.000 F800
G1 Z5.000 F800
; Smart Wipe -> Angle 171.0 deg
G0 X136.074 Y0.940
G0 Z5.000
G1 X122.247 Y3.135 F600
G0 F1000
G0 Z8.000
G0 X100.402 F200
G0 X0.000 Y31.957
G0 X0.000 F200
G1 X45.401 Y31.957 Z0.000 F1000
G0 X45.597 Y31.957
G1 X47.750 Y31.957 Z0.000 F1000
G0 X48.043 Y31.957
G1 X49.413 Y31.957 Z0.000 F1000
G0 X49.609 Y31.957
G1 X54.501 Y31.957 Z0.000 F1000
G0 X54.697 Y31.957
G1 X55.186 Y31.957 Z0.000 F1000
G0 X55.382 Y31.957
G1 X59.002 Y31.957 Z0.000 F1000
G0 X59.198 Y31.957
G1 X62.427 Y31.957 Z0.000 F1000
G0 X62.818 Y31.957
G1 X66.047 Y31.957 Z0.000 F1000
G0 X66.536 Y31.957
G1 X68.493 Y31.957 Z0.000 F1000
G0 X70.939 Y31.957
G1 X71.820 Y31.957 Z0.000 F1000
G0 X72.309 Y31.957
G1 X72.603 Y31.957 Z0.000 F1000
G0 X72.798 Y31.957
G1 X73.190 Y31.957 Z0.000 F1000
G0 X75.636 Y31.957
G1 X82.975 Y31.957 Z0.000 F1000
G0 X83.268 Y31.957
G1 X85.910 Y31.957 Z0.000 F1000
G0 X86.106 Y31.957
G1 X87.084 Y31.957 Z0.000 F1000
G0 X87.476 Y31.957
G1 X92.466 Y31.957 Z0.000 F1000
G0 X92.857 Y31.957
G1 X93.249 Y31.957 Z0.000 F1000
G0 X93.640 Y31.957
G1 X94.814 Y31.957 Z0.000 F1000
G0 X96.086 Y31.957
G1 X97.456 Y31.957 Z0.000 F1000
G0 X97.847 Y31.957
G1 X97.847 Y31.957 Z0.000 F1000
G0 X98.141 Y31.957
G1 X99.413 Y31.957 Z0.000 F1000

; --- COLOR CHANGE: CYAN ---
G0 Z8.000
G0 X17.000 Y0.000
G1 Z0.000 F800
G1 Z5.000 F800
; Smart Wipe -> Angle 22.6 deg
G0 X22.538 Y2.308
G0 Z5.000
G1 X35.461 Y7.694 F600
G0 F1000
G0 Z8.000
G0 X99.913 F200
G0 X0.000 Y32.446
G0 X0.000 F200
G1 X99.902 Y32.446 Z0.000 F1000

; --- COLOR CHANGE: MAGENTA ---
G0 Z8.000
G0 X63.000 Y0.000
G1 Z0.000 F800
G1 Z5.000 F800
; Smart Wipe -> Angle 124.8 deg
G0 X59.579 Y4.930
G0 Z5.000
G1 X51.598 Y16.432 F600
G0 F1000
G0 Z8.000
G0 X100.402 F200
G0 X0.000 Y32.446
G0 X0.000 F200
G1 X42.172 Y32.446 Z0.000 F1000
G0 X43.933 Y32.446
G1 X51.076 Y32.446 Z0.000 F1000
G0 X53.033 Y32.446
G1 X53.131 Y32.446 Z0.000 F1000
G0 X53.523 Y32.446
G1 X54.207 Y32.446 Z0.000 F1000
G0 X54.795 Y32.446
G1 X54.795 Y32.446 Z0.000 F1000
G0 X57.339 Y32.446
G1 X57.436 Y32.446 Z0.000 F1000
G0 X57.632 Y32.446
G1 X57.730 Y32.446 Z0.000 F1000
G0 X59.295 Y32.446
G1 X59.295 Y32.446 Z0.000 F1000
G0 X60.470 Y32.446
G1 X60.568 Y32.446 Z0.000 F1000
G0 X62.329 Y32.446
G1 X63.112 Y32.446 Z0.000 F1000
G0 X63.796 Y32.446
G1 X64.286 Y32.446 Z0.000 F1000
G0 X69.080 Y32.446
G1 X69.569 Y32.446 Z0.000 F1000
G0 X71.037 Y32.446
G1 X71.526 Y32.446 Z0.000 F1000
G0 X71.918 Y32.446
G1 X72.309 Y32.446 Z0.000 F1000
G0 X72.603 Y32.446
G1 X72.701 Y32.446 Z0.000 F1000
G0 X73.092 Y32.446
G1 X73.386 Y32.446 Z0.000 F1000
G0 X73.581 Y32.446
G1 X74.364 Y32.446 Z0.000 F1000
G0 X75.049 Y32.446
G1 X83.170 Y32.446 Z0.000 F1000
G0 X85.323 Y32.446
G1 X88.845 Y32.446 Z0.000 F1000
G0 X93.542 Y32.446
G1 X95.108 Y32.446 Z0.000 F1000
G0 X97.847 Y32.446
G1 X99.902 Y32.446 Z0.000 F1000

; --- COLOR CHANGE: YELLOW ---
G0 Z8.000
G0 X109.000 Y0.000
G1 Z0.000 F800
G1 Z5.000 F800
; Smart Wipe -> Angle 139.4 deg
G0 X104.444 Y3.904
G0 Z5.000
G1 X93.812 Y13.013 F600
G0 F1000
G0 Z8.000
G0 X100.402 F200
G0 X0.000 Y32.446
G0 X0.000 F200
G1 X51.468 Y32.446 Z0.000 F1000
G0 X52.446 Y32.446
G1 X59.491 Y32.446 Z0.000 F1000
G0 X59.785 Y32.446
G1 X61.252 Y32.446 Z0.000 F1000
G0 X61.742 Y32.446
G1 X61.937 Y32.446 Z0.000 F1000
G0 X62.231 Y32.446
G1 X64.579 Y32.446 Z0.000 F1000
G0 X64.873 Y32.446
G1 X65.362 Y32.446 Z0.000 F1000
G0 X67.221 Y32.446
G1 X67.319 Y32.446 Z0.000 F1000
G0 X67.710 Y32.446
G1 X90.900 Y32.446 Z0.000 F1000
G0 X91.389 Y32.446
G1 X92.368 Y32.446 Z0.000 F1000
G0 X92.857 Y32.446
G1 X93.053 Y32.446 Z0.000 F1000
G0 X93.444 Y32.446
G1 X96.575 Y32.446 Z0.000 F1000
