; Generated by CMYK Pro (V1.0 - Popravljena NaN pot)
G21 ; Millimeters
G90 ; Absolute positioning
G0 Z8.000

; --- COLOR CHANGE: MAGENTA ---
G0 Z8.000
G0 X63.000 Y0.000
G1 Z0.000 F800
G1 Z5.000 F800
; Smart Wipe -> Angle 70.1 deg
G0 X65.040 Y5.643
G0 Z5.000
G1 X69.799 Y18.809 F600
G0 F1000
G0 Z8.000
G0 X0.000 F200
G0 Y0.000 F200
G0 X80.920 Y35.382
G1 X81.115 Y35.382 Z0.000 F1000

; --- COLOR CHANGE: BLACK ---
G0 Z8.000
G0 X142.000 Y0.000
G1 Z0.000 F800
G1 Z5.000 F800
; Smart Wipe -> Angle 143.7 deg
G0 X137.163 Y3.550
G0 Z5.000
G1 X125.876 Y11.833 F600
G0 F1000
G0 Z8.000
G0 X86.693 Y38.806
G1 X86.986 Y38.806 Z0.000 F1000

; --- COLOR CHANGE: MAGENTA ---
G0 Z8.000
G0 X63.000 Y0.000
G1 Z0.000 F800
G1 Z5.000 F800
; Smart Wipe -> Angle 57.8 deg
G0 X66.198 Y5.077
G0 Z5.000
G1 X73.660 Y16.922 F600
G0 F1000
G0 Z8.000
G0 Y40.406 F200
G0 X97.065 Y36.849
G1 X97.162 Y36.849 Z0.000 F1000

; --- COLOR CHANGE: BLACK ---
G0 Z8.000
G0 X142.000 Y0.000
G1 Z0.000 F800
G1 Z5.000 F800
; Smart Wipe -> Angle 148.0 deg
G0 X136.912 Y3.180
G0 Z5.000
G1 X125.039 Y10.599 F600
G0 F1000
G0 Z8.000
G0 X97.662 F200
G0 Y35.249 F200
G0 X57.339 Y41.742
G0 X56.839 F200
G1 X58.904 Y41.742 Z0.000 F1000
G0 X59.404 F200
G0 X24.951 Y74.031
G0 X24.451 F200
G1 X25.342 Y74.031 Z0.000 F1000
G0 Y75.631 F200
G0 X86.888 Y37.828
G1 X88.552 Y37.828 Z0.000 F1000

; --- COLOR CHANGE: YELLOW ---
G0 Z8.000
G0 X109.000 Y0.000
G1 Z0.000 F800
G1 Z5.000 F800
; Smart Wipe -> Angle 123.2 deg
G0 X105.717 Y5.022
G0 Z5.000
G1 X98.056 Y16.740 F600
G0 F1000
G0 Z8.000
G0 X89.052 F200
G0 Y36.228 F200
G0 X41.487 Y88.219
G0 X40.987 F200
G1 X42.074 Y88.219 Z0.000 F1000
G0 X93.053 Y99.472
G1 X93.151 Y99.472 Z0.000 F1000

; --- COLOR CHANGE: BLACK ---
G0 Z8.000
G0 X142.000 Y0.000
G1 Z0.000 F800
G1 Z5.000 F800
; Smart Wipe -> Angle 171.6 deg
G0 X136.064 Y0.875
G0 Z5.000
G1 X122.214 Y2.918 F600
G0 F1000
G0 Z8.000
G0 X93.651 F200
G0 Y101.072 F200
G0 X9.491 Y42.231
G0 X8.991 F200
G1 X12.818 Y42.231 Z0.000 F1000
G0 X13.318 F200
G0 Y40.631 F200
G0 X3.033 Y46.145
G0 X2.533 F200
G1 X3.327 Y46.145 Z0.000 F1000

; --- COLOR CHANGE: YELLOW ---
G0 Z8.000
G0 X109.000 Y0.000
G1 Z0.000 F800
G1 Z5.000 F800
; Smart Wipe -> Angle 157.8 deg
G0 X103.444 Y2.264
G0 Z5.000
G1 X90.479 Y7.548 F600
G0 F1000
G0 Z8.000
G0 Y47.745 F200
G0 X38.943 Y33.914
G1 X39.041 Y33.914 Z0.000 F1000
G0 Y32.314 F200
G0 X66.732 Y92.133
G1 X70.254 Y92.133 Z0.000 F1000

; --- COLOR CHANGE: BLACK ---
G0 Z8.000
G0 X142.000 Y0.000
G1 Z0.000 F800
G1 Z5.000 F800
; Smart Wipe -> Angle 165.9 deg
G0 X136.181 Y1.462
G0 Z5.000
G1 X122.603 Y4.874 F600
G0 F1000
G0 Z8.000
G0 X70.754 F200
G0 Y93.733 F200
G0 X25.147 Y36.849
G0 X24.647 F200
G1 X25.245 Y36.849 Z0.000 F1000
G0 Y35.249 F200
G0 X59.295 Y72.564
G1 X60.470 Y72.564 Z0.000 F1000

; --- COLOR CHANGE: CYAN ---
G0 Z8.000
G0 X17.000 Y0.000
G1 Z0.000 F800
G1 Z5.000 F800
; Smart Wipe -> Angle 54.6 deg
G0 X20.477 Y4.890
G0 Z5.000
G1 X28.591 Y16.299 F600
G0 F1000
G0 Z8.000
G0 X60.970 F200
G0 X0.000 Y109.746
G0 X0.000 F200
G1 X94.227 Y109.746 Z0.000 F1000

; --- COLOR CHANGE: BLACK ---
G0 Z8.000
G0 X142.000 Y0.000
G1 Z0.000 F800
G1 Z5.000 F800
; Smart Wipe -> Angle 138.1 deg
G0 X137.534 Y4.006
G0 Z5.000
G1 X127.112 Y13.355 F600
G0 F1000
G0 Z8.000
G0 Y111.346 F200
G0 X99.217 Y41.252
G1 X99.902 Y41.252 Z0.000 F1000
G0 X100.402 F200
G0 Y39.652 F200
G0 X16.243 Y41.742
G0 X15.743 F200
G1 X16.536 Y41.742 Z0.000 F1000

; --- COLOR CHANGE: CYAN ---
G0 Z8.000
G0 X17.000 Y0.000
G1 Z0.000 F800
G1 Z5.000 F800
; Smart Wipe -> Angle 40.0 deg
G0 X21.597 Y3.856
G0 Z5.000
G1 X32.324 Y12.852 F600
G0 F1000
G0 Z8.000
G0 X70.646 Y43.209
G1 X70.939 Y43.209 Z0.000 F1000

; --- COLOR CHANGE: YELLOW ---
G0 Z8.000
G0 X109.000 Y0.000
G1 Z0.000 F800
G1 Z5.000 F800
; Smart Wipe -> Angle 120.9 deg
G0 X105.922 Y5.150
G0 Z5.000
G1 X98.740 Y17.168 F600
G0 F1000
G0 Z8.000
G0 Y44.809 F200
G0 X81.311 Y32.935
G1 X81.311 Y32.935 Z0.000 F1000
G0 X81.811 F200
G0 Y31.335 F200
G0 X16.047 Y97.025
G0 X15.547 F200
G1 X21.135 Y97.025 Z0.000 F1000
G0 Y98.625 F200
G0 X52.642 Y83.327
G1 X52.740 Y83.327 Z0.000 F1000

; --- COLOR CHANGE: BLACK ---
G0 Z8.000
G0 X142.000 Y0.000
G1 Z0.000 F800
G1 Z5.000 F800
; Smart Wipe -> Angle 152.1 deg
G0 X136.698 Y2.809
G0 Z5.000
G1 X124.328 Y9.364 F600
G0 F1000
G0 Z8.000
G0 X53.240 F200
G0 X26.125 Y43.209
G0 X25.625 F200
G1 X27.299 Y43.209 Z0.000 F1000

; --- COLOR CHANGE: CYAN ---
G0 Z8.000
G0 X17.000 Y0.000
G1 Z0.000 F800
G1 Z5.000 F800
; Smart Wipe -> Angle 63.3 deg
G0 X19.696 Y5.360
G0 Z5.000
G1 X25.987 Y17.867 F600
G0 F1000
G0 Z8.000
G0 X27.799 F200
G0 X23.483 Y37.828
G0 X22.983 F200
G1 X27.495 Y37.828 Z0.000 F1000
G0 X27.995 F200
G0 Y36.228 F200
G0 X17.417 Y39.785
G0 X16.917 F200
G1 X18.395 Y39.785 Z0.000 F1000

; --- COLOR CHANGE: YELLOW ---
G0 Z8.000
G0 X109.000 Y0.000
G1 Z0.000 F800
G1 Z5.000 F800
; Smart Wipe -> Angle 119.3 deg
G0 X106.061 Y5.231
G0 Z5.000
G1 X99.204 Y17.436 F600
G0 F1000
G0 Z8.000
G0 X46.575 Y100.450
G1 X48.728 Y100.450 Z0.000 F1000

; --- COLOR CHANGE: CYAN ---
G0 Z8.000
G0 X17.000 Y0.000
G1 Z0.000 F800
G1 Z5.000 F800
; Smart Wipe -> Angle 93.9 deg
G0 X16.596 Y5.986
G0 Z5.000
G1 X15.655 Y19.955 F600
G0 F1000
G0 Z8.000
G0 X49.228 F200
G0 Y102.050 F200
G0 X23.973 Y64.736
G0 X23.473 F200
G1 X24.755 Y64.736 Z0.000 F1000

; --- COLOR CHANGE: MAGENTA ---
G0 Z8.000
G0 X63.000 Y0.000
G1 Z0.000 F800
G1 Z5.000 F800
; Smart Wipe -> Angle 123.2 deg
G0 X59.716 Y5.022
G0 Z5.000
G1 X52.053 Y16.738 F600
G0 F1000
G0 Z8.000
G0 X47.260 Y36.849
G1 X47.847 Y36.849 Z0.000 F1000

; --- COLOR CHANGE: BLACK ---
G0 Z8.000
G0 X142.000 Y0.000
G1 Z0.000 F800
G1 Z5.000 F800
; Smart Wipe -> Angle 141.3 deg
G0 X137.320 Y3.754
G0 Z5.000
G1 X126.399 Y12.514 F600
G0 F1000
G0 Z8.000
G0 X48.347 F200
G0 Y35.249 F200
G0 X23.190 Y64.736
G0 X22.690 F200
G1 X24.070 Y64.736 Z0.000 F1000

; --- COLOR CHANGE: YELLOW ---
G0 Z8.000
G0 X109.000 Y0.000
G1 Z0.000 F800
G1 Z5.000 F800
; Smart Wipe -> Angle 148.5 deg
G0 X103.885 Y3.136
G0 Z5.000
G1 X91.950 Y10.454 F600
G0 F1000
G0 Z8.000
G0 Y66.336 F200
G0 X57.339 Y41.742
G1 X58.708 Y41.742 Z0.000 F1000

; --- COLOR CHANGE: BLACK ---
G0 Z8.000
G0 X142.000 Y0.000
G1 Z0.000 F800
G1 Z5.000 F800
; Smart Wipe -> Angle 150.2 deg
G0 X136.794 Y2.984
G0 Z5.000
G1 X124.648 Y9.946 F600
G0 F1000
G0 Z8.000
G0 Y40.142 F200
G0 X61.742 Y44.188
G1 X62.231 Y44.188 Z0.000 F1000
G0 Y45.788 F200
G0 X93.249 Y33.425
G1 X93.542 Y33.425 Z0.000 F1000
G0 X94.042 F200
G0 X62.035 Y30.489
G0 X61.535 F200
G1 X62.133 Y30.489 Z0.000 F1000

; --- COLOR CHANGE: CYAN ---
G0 Z8.000
G0 X17.000 Y0.000
G1 Z0.000 F800
G1 Z5.000 F800
; Smart Wipe -> Angle 32.3 deg
G0 X22.073 Y3.204
G0 Z5.000
G1 X33.910 Y10.679 F600
G0 F1000
G0 Z8.000
G0 Y28.889 F200
G0 X98.924 Y68.650
G1 X99.119 Y68.650 Z0.000 F1000
G0 X99.619 F200
G0 X94.618 Y109.746
G0 X94.118 F200
G1 X97.065 Y109.746 Z0.000 F1000
G0 X97.565 F200
G0 Y111.346 F200
G0 X57.632 Y94.579
G0 X57.132 F200
G1 X58.513 Y94.579 Z0.000 F1000

; --- COLOR CHANGE: BLACK ---
G0 Z8.000
G0 X142.000 Y0.000
G1 Z0.000 F800
G1 Z5.000 F800
; Smart Wipe -> Angle 136.7 deg
G0 X137.633 Y4.114
G0 Z5.000
G1 X127.442 Y13.714 F600
G0 F1000
G0 Z8.000
G0 X59.013 F200
G0 X56.947 Y62.779
G0 X56.447 F200
G1 X57.926 Y62.779 Z0.000 F1000
G0 Y61.179 F200
G0 X60.274 Y76.477
G1 X60.470 Y76.477 Z0.000 F1000

; --- COLOR CHANGE: YELLOW ---
G0 Z8.000
G0 X109.000 Y0.000
G1 Z0.000 F800
G1 Z5.000 F800
; Smart Wipe -> Angle 159.0 deg
G0 X103.398 Y2.148
G0 Z5.000
G1 X90.326 Y7.161 F600
G0 F1000
G0 Z8.000
G0 X60.970 F200
G0 Y78.077 F200
G0 X1.468 Y55.930
G0 X0.968 F200
G1 X2.055 Y55.930 Z0.000 F1000

; --- COLOR CHANGE: BLACK ---
G0 Z8.000
G0 X142.000 Y0.000
G1 Z0.000 F800
G1 Z5.000 F800
; Smart Wipe -> Angle 154.1 deg
G0 X136.603 Y2.621
G0 Z5.000
G1 X124.009 Y8.737 F600
G0 F1000
G0 Z8.000
G0 X8.317 Y37.828
G1 X9.980 Y37.828 Z0.000 F1000

; --- COLOR CHANGE: YELLOW ---
G0 Z8.000
G0 X109.000 Y0.000
G1 Z0.000 F800
G1 Z5.000 F800
; Smart Wipe -> Angle 123.4 deg
G0 X105.699 Y5.011
G0 Z5.000
G1 X97.998 Y16.702 F600
G0 F1000
G0 Z8.000
G0 Y36.228 F200
G0 X46.967 Y98.004
G1 X47.065 Y98.004 Z0.000 F1000

; --- COLOR CHANGE: MAGENTA ---
G0 Z8.000
G0 X63.000 Y0.000
G1 Z0.000 F800
G1 Z5.000 F800
; Smart Wipe -> Angle 47.8 deg
G0 X67.028 Y4.447
G0 Z5.000
G1 X76.425 Y14.825 F600
G0 F1000
G0 Z8.000
G0 Y99.604 F200
G0 X93.346 Y33.914
G1 X93.444 Y33.914 Z0.000 F1000

; --- COLOR CHANGE: YELLOW ---
G0 Z8.000
G0 X109.000 Y0.000
G1 Z0.000 F800
G1 Z5.000 F800
; Smart Wipe -> Angle 118.3 deg
G0 X106.152 Y5.281
G0 Z5.000
G1 X99.506 Y17.603 F600
G0 F1000
G0 Z8.000
G0 X93.944 F200
G0 Y32.314 F200
G0 X77.397 Y63.757
G0 X76.897 F200
G1 X77.593 Y63.757 Z0.000 F1000
G0 X78.093 F200
G0 Y65.357 F200
G0 X55.871 Y57.886
G1 X55.871 Y57.886 Z0.000 F1000
G0 Y56.286 F200
G0 X47.750 Y82.348
G0 X47.250 F200
G1 X48.141 Y82.348 Z0.000 F1000

; --- COLOR CHANGE: MAGENTA ---
G0 Z8.000
G0 X63.000 Y0.000
G1 Z0.000 F800
G1 Z5.000 F800
; Smart Wipe -> Angle 106.5 deg
G0 X61.292 Y5.752
G0 Z5.000
G1 X57.308 Y19.173 F600
G0 F1000
G0 Z8.000
G0 Y83.948 F200
G0 X51.859 Y62.290
G1 X53.131 Y62.290 Z0.000 F1000
G0 Y60.690 F200
G0 X67.710 Y63.757
G1 X68.102 Y63.757 Z0.000 F1000

; --- COLOR CHANGE: BLACK ---
G0 Z8.000
G0 X142.000 Y0.000
G1 Z0.000 F800
G1 Z5.000 F800
; Smart Wipe -> Angle 155.8 deg
G0 X136.529 Y2.463
G0 Z5.000
G1 X123.763 Y8.209 F600
G0 F1000
G0 Z8.000
G0 X68.602 F200
G0 Y65.357 F200
G0 X0.978 Y48.591
G0 X0.478 F200
G1 X1.859 Y48.591 Z0.000 F1000
G0 Y46.991 F200
G0 X16.830 Y61.311
G1 X16.928 Y61.311 Z0.000 F1000

; --- COLOR CHANGE: MAGENTA ---
G0 Z8.000
G0 X63.000 Y0.000
G1 Z0.000 F800
G1 Z5.000 F800
; Smart Wipe -> Angle 83.2 deg
G0 X63.706 Y5.958
G0 Z5.000
G1 X65.354 Y19.861 F600
G0 F1000
G0 Z8.000
G0 X65.656 Y66.693
G1 X65.656 Y66.693 Z0.000 F1000

; --- COLOR CHANGE: BLACK ---
G0 Z8.000
G0 X142.000 Y0.000
G1 Z0.000 F800
G1 Z5.000 F800
; Smart Wipe -> Angle 152.4 deg
G0 X136.684 Y2.782
G0 Z5.000
G1 X124.279 Y9.272 F600
G0 F1000
G0 Z8.000
G0 X66.156 F200
G0 Y68.293 F200
G0 X1.566 Y45.656
G0 X1.066 F200
G1 X2.153 Y45.656 Z0.000 F1000

; --- COLOR CHANGE: CYAN ---
G0 Z8.000
G0 X17.000 Y0.000
G1 Z0.000 F800
G1 Z5.000 F800
; Smart Wipe -> Angle 32.5 deg
G0 X22.058 Y3.228
G0 Z5.000
G1 X33.860 Y10.759 F600
G0 F1000
G0 Z8.000
G0 Y44.056 F200
G0 X95.401 Y67.671
G1 X95.695 Y67.671 Z0.000 F1000
G0 X96.195 F200
G0 X18.297 Y75.988
G0 X17.797 F200
G1 X18.787 Y75.988 Z0.000 F1000

; --- COLOR CHANGE: YELLOW ---
G0 Z8.000
G0 X109.000 Y0.000
G1 Z0.000 F800
G1 Z5.000 F800
; Smart Wipe -> Angle 140.2 deg
G0 X104.389 Y3.840
G0 Z5.000
G1 X93.632 Y12.799 F600
G0 F1000
G0 Z8.000
G0 Y77.588 F200
G0 X53.914 Y41.252
G1 X55.186 Y41.252 Z0.000 F1000

; --- COLOR CHANGE: BLACK ---
G0 Z8.000
G0 X142.000 Y0.000
G1 Z0.000 F800
G1 Z5.000 F800
; Smart Wipe -> Angle 142.2 deg
G0 X137.262 Y3.681
G0 Z5.000
G1 X126.206 Y12.270 F600
G0 F1000
G0 Z8.000
G0 X55.686 F200
G0 Y39.652 F200
G0 X44.227 Y72.564
G0 X43.727 F200
G1 X44.325 Y72.564 Z0.000 F1000

; --- COLOR CHANGE: YELLOW ---
G0 Z8.000
G0 X109.000 Y0.000
G1 Z0.000 F800
G1 Z5.000 F800
; Smart Wipe -> Angle 115.2 deg
G0 X106.443 Y5.428
G0 Z5.000
G1 X100.477 Y18.093 F600
G0 F1000
G0 Z8.000
G0 Y74.164 F200
G0 X88.552 Y47.123
G1 X88.943 Y47.123 Z0.000 F1000

; --- COLOR CHANGE: CYAN ---
G0 Z8.000
G0 X17.000 Y0.000
G1 Z0.000 F800
G1 Z5.000 F800
; Smart Wipe -> Angle 80.8 deg
G0 X17.961 Y5.922
G0 Z5.000
G1 X20.205 Y19.742 F600
G0 F1000
G0 Z8.000
G0 X89.443 F200
G0 X16.145 Y42.231
G0 X15.645 F200
G1 X16.536 Y42.231 Z0.000 F1000

; --- COLOR CHANGE: BLACK ---
G0 Z8.000
G0 X142.000 Y0.000
G1 Z0.000 F800
G1 Z5.000 F800
; Smart Wipe -> Angle 130.7 deg
G0 X138.084 Y4.546
G0 Z5.000
G1 X128.948 Y15.154 F600
G0 F1000
G0 Z8.000
G0 Y40.631 F200
G0 X60.665 Y97.515
G1 X62.524 Y97.515 Z0.000 F1000
G0 Y99.115 F200
G0 X73.190 Y36.849
G1 X73.483 Y36.849 Z0.000 F1000

; --- COLOR CHANGE: YELLOW ---
G0 Z8.000
G0 X109.000 Y0.000
G1 Z0.000 F800
G1 Z5.000 F800
; Smart Wipe -> Angle 109.9 deg
G0 X106.959 Y5.642
G0 Z5.000
G1 X102.196 Y18.807 F600
G0 F1000
G0 Z8.000
G0 Y35.249 F200
G0 X84.247 Y45.656
G1 X85.225 Y45.656 Z0.000 F1000

; --- COLOR CHANGE: CYAN ---
G0 Z8.000
G0 X17.000 Y0.000
G1 Z0.000 F800
G1 Z5.000 F800
; Smart Wipe -> Angle 24.8 deg
G0 X22.448 Y2.514
G0 Z5.000
G1 X35.160 Y8.379 F600
G0 F1000
G0 Z8.000
G0 X85.725 F200
G0 Y47.256 F200
G0 X66.438 Y32.935
G0 X65.938 F200
G1 X67.221 Y32.935 Z0.000 F1000

; --- COLOR CHANGE: BLACK ---
G0 Z8.000
G0 X142.000 Y0.000
G1 Z0.000 F800
G1 Z5.000 F800
; Smart Wipe -> Angle 150.2 deg
G0 X136.794 Y2.983
G0 Z5.000
G1 X124.648 Y9.945 F600
G0 F1000
G0 Z8.000
G0 X67.721 F200
G0 Y31.335 F200
G0 X14.677 Y61.311
G1 X14.677 Y61.311 Z0.000 F1000
G0 X14.177 F200
G0 Y62.911 F200
G0 X31.800 Y41.252
G1 X31.996 Y41.252 Z0.000 F1000
G0 Y39.652 F200
G0 X77.691 Y65.225
G1 X77.691 Y65.225 Z0.000 F1000

; --- COLOR CHANGE: YELLOW ---
G0 Z8.000
G0 X109.000 Y0.000
G1 Z0.000 F800
G1 Z5.000 F800
; Smart Wipe -> Angle 117.9 deg
G0 X106.195 Y5.304
G0 Z5.000
G1 X99.650 Y17.680 F600
G0 F1000
G0 Z8.000
G0 Y66.825 F200
G0 X82.779 Y53.973
G1 X83.072 Y53.973 Z0.000 F1000

; --- COLOR CHANGE: BLACK ---
G0 Z8.000
G0 X142.000 Y0.000
G1 Z0.000 F800
G1 Z5.000 F800
; Smart Wipe -> Angle 154.0 deg
G0 X136.606 Y2.629
G0 Z5.000
G1 X124.022 Y8.762 F600
G0 F1000
G0 Z8.000
G0 X83.572 F200
G0 X69.765 Y32.446
G0 X69.265 F200
G1 X70.352 Y32.446 Z0.000 F1000
G0 X70.852 F200
G0 Y30.846 F200
G0 X1.272 Y46.634
G1 X1.272 Y46.634 Z0.000 F1000

; --- COLOR CHANGE: YELLOW ---
G0 Z8.000
G0 X109.000 Y0.000
G1 Z0.000 F800
G1 Z5.000 F800
; Smart Wipe -> Angle 155.3 deg
G0 X103.549 Y2.507
G0 Z5.000
G1 X90.830 Y8.358 F600
G0 F1000
G0 Z8.000
G0 X0.772 F200
G0 X5.088 Y74.521
G1 X5.382 Y74.521 Z0.000 F1000
G0 X95.401 Y84.795
G1 X99.902 Y84.795 Z0.000 F1000
G0 X100.402 F200
G0 Y86.395 F200
G0 X57.926 Y79.413
G0 X57.426 F200
G1 X58.121 Y79.413 Z0.000 F1000

; --- COLOR CHANGE: BLACK ---
G0 Z8.000
G0 X142.000 Y0.000
G1 Z0.000 F800
G1 Z5.000 F800
; Smart Wipe -> Angle 146.7 deg
G0 X136.985 Y3.295
G0 Z5.000
G1 X125.285 Y10.982 F600
G0 F1000
G0 Z8.000
G0 X97.847 Y36.360
G1 X98.043 Y36.360 Z0.000 F1000
G0 X98.543 F200
G0 X95.303 Y34.892
G0 X94.803 F200
G1 X95.401 Y34.892 Z0.000 F1000
G0 X95.901 F200
G0 Y33.292 F200
G0 X29.550 Y64.247
G0 X29.050 F200
G1 X30.920 Y64.247 Z0.000 F1000
G0 X71.233 Y69.628
G1 X72.407 Y69.628 Z0.000 F1000

; --- COLOR CHANGE: YELLOW ---
G0 Z8.000
G0 X109.000 Y0.000
G1 Z0.000 F800
G1 Z5.000 F800
; Smart Wipe -> Angle 107.8 deg
G0 X107.168 Y5.713
G0 Z5.000
G1 X102.893 Y19.045 F600
G0 F1000
G0 Z8.000
G0 X82.192 Y99.961
G1 X86.204 Y99.961 Z0.000 F1000

; --- COLOR CHANGE: MAGENTA ---
G0 Z8.000
G0 X63.000 Y0.000
G1 Z0.000 F800
G1 Z5.000 F800
; Smart Wipe -> Angle 79.8 deg
G0 X64.062 Y5.905
G0 Z5.000
G1 X66.539 Y19.684 F600
G0 F1000
G0 Z8.000
G0 X86.704 F200
G0 Y101.561 F200
G0 X78.669 Y57.886
G0 X78.169 F200
G1 X78.865 Y57.886 Z0.000 F1000

; --- COLOR CHANGE: BLACK ---
G0 Z8.000
G0 X142.000 Y0.000
G1 Z0.000 F800
G1 Z5.000 F800
; Smart Wipe -> Angle 140.6 deg
G0 X137.364 Y3.809
G0 Z5.000
G1 X126.547 Y12.697 F600
G0 F1000
G0 Z8.000
G0 X79.365 F200
G0 Y56.286 F200
G0 X56.360 Y67.182
G0 X55.860 F200
G1 X59.393 Y67.182 Z0.000 F1000
G0 Y68.782 F200
G0 X62.720 Y45.166
G1 X66.732 Y45.166 Z0.000 F1000
G0 Y43.566 F200
G0 X70.646 Y101.918
G1 X70.939 Y101.918 Z0.000 F1000

; --- COLOR CHANGE: CYAN ---
G0 Z8.000
G0 X17.000 Y0.000
G1 Z0.000 F800
G1 Z5.000 F800
; Smart Wipe -> Angle 104.0 deg
G0 X15.550 Y5.822
G0 Z5.000
G1 X12.167 Y19.407 F600
G0 F1000
G0 Z8.000
G0 X71.439 F200
G0 Y103.518 F200
G0 X0.000 Y39.295
G0 X0.000 F200
G1 X0.685 Y39.295 Z0.000 F1000

; --- COLOR CHANGE: YELLOW ---
G0 Z8.000
G0 X109.000 Y0.000
G1 Z0.000 F800
G1 Z5.000 F800
; Smart Wipe -> Angle 125.3 deg
G0 X105.535 Y4.898
G0 Z5.000
G1 X97.450 Y16.328 F600
G0 F1000
G0 Z8.000
G0 Y37.695 F200
G0 X62.818 Y70.607
G1 X62.916 Y70.607 Z0.000 F1000
G0 X63.416 F200
G0 X17.613 Y99.472
G0 X17.113 F200
G1 X23.288 Y99.472 Z0.000 F1000

; --- COLOR CHANGE: BLACK ---
G0 Z8.000
G0 X142.000 Y0.000
G1 Z0.000 F800
G1 Z5.000 F800
; Smart Wipe -> Angle 150.6 deg
G0 X136.775 Y2.950
G0 Z5.000
