; Generated by CMYK Hatching G-Code Generator V2.5.1 (Y-NaN Fix)
G21 ; Millimeters

G90 ; Absolute positioning

G0 Z8.000

; --- COLOR CHANGE: CYAN ---
G0 Z8.000
G0 X0.000 Y17.000
G0 Z5.000
G1 Z0.000 F800
G4 P500 ; Dwell
G1 Z5.000 F800
; Smart Wipe -> Angle 75.0 deg
G0 X3.882 Y31.489
G0 Z5.000
G1 X-3.882 Y2.511 F600
G0 F1000
G0 Z8.000
G0 X0.000 F200
G0 Y0.000 F200
G0 Z2.000
G0 X122.621 Y12.650
G1 Z0.000 F800
G1 X122.742 Y12.197 F1000
G0 Z2.000
G0 Z2.000
G0 X123.097 Y18.601
G1 Z0.000 F800
G1 X123.218 Y18.148 F1000
G0 Z2.000
G0 Z2.000
G0 X31.675 Y112.514
G1 Z0.000 F800
G1 X31.675 Y112.514 F1000
G0 Z2.000
G0 Z2.000
G0 X69.535 Y65.880
G1 Z0.000 F800
G1 X69.778 Y64.975 F1000
G0 Z2.000
G0 Z2.000
G0 X107.108 Y57.022
G1 Z0.000 F800
G1 X108.928 Y50.230 F1000
G0 Z2.000
G0 Z2.000
G0 X80.062 Y49.775
G1 Z0.000 F800
G1 X80.911 Y46.605 F1000
G0 Z2.000
G0 Z2.000
G0 X96.313 Y95.378
G1 Z0.000 F800
G1 X96.313 Y95.378 F1000
G0 Z2.000
G0 Z2.000
G0 X68.327 Y66.527
G1 Z0.000 F800
G1 X68.933 Y64.263 F1000
G0 Z2.000
G0 Z2.000
G0 X112.507 Y87.100
G1 Z0.000 F800
G1 X113.356 Y83.931 F1000
G0 Z2.000
G0 Z2.000
G0 X123.039 Y67.114
G1 Z0.000 F800
G1 X124.737 Y60.775 F1000
G0 Z2.000
G0 Z2.000
G0 X79.701 Y49.193
G1 Z0.000 F800
G1 X80.186 Y47.382 F1000
G0 Z2.000
G0 Z2.000
G0 X111.763 Y103.401
G1 Z0.000 F800
G1 X111.763 Y103.401 F1000
G0 Z2.000
G0 Z2.000
G0 X104.730 Y25.326
G1 Z0.000 F800
G1 X104.973 Y24.421 F1000
G0 Z2.000
G0 Z2.000
G0 X77.965 Y86.580
G1 Z0.000 F800
G1 X77.965 Y86.580 F1000
G0 Z2.000
G0 Z2.000
G0 X77.032 Y59.154
G1 Z0.000 F800
G1 X77.881 Y55.984 F1000
G0 Z2.000
G0 Z2.000
G0 X74.185 Y116.140
G1 Z0.000 F800
G1 X75.156 Y112.518 F1000
G0 Z2.000
G0 Z2.000
G0 X110.298 Y116.596
G1 Z0.000 F800
G1 X110.298 Y116.596 F1000
G0 Z2.000
G0 Z2.000
G0 X106.910 Y121.512
G1 Z0.000 F800
G1 X106.910 Y121.512 F1000
G0 Z2.000
G0 Z2.000
G0 X97.640 Y96.219
G1 Z0.000 F800
G1 X97.640 Y96.219 F1000
G0 Z2.000
G0 Z2.000
G0 X120.792 Y27.204
G1 Z0.000 F800
G1 X120.792 Y27.204 F1000
G0 Z2.000
G0 Z2.000
G0 X95.205 Y113.037
G1 Z0.000 F800
G1 X95.326 Y112.584 F1000
G0 Z2.000
G0 Z2.000
G0 X112.472 Y116.208
G1 Z0.000 F800
G1 X112.594 Y115.755 F1000
G0 Z2.000
G0 Z2.000
G0 X126.364 Y114.592
G1 Z0.000 F800
G1 X127.820 Y109.159 F1000
G0 Z2.000
G0 Z2.000
G0 X81.474 Y81.211
G1 Z0.000 F800
G1 X81.474 Y81.211 F1000
G0 Z2.000
G0 Z2.000
G0 X109.213 Y114.849
G1 Z0.000 F800
G1 X109.213 Y114.849 F1000
G0 Z2.000
G0 Z2.000
G0 X124.182 Y120.802
G1 Z0.000 F800
G1 X124.304 Y120.349 F1000
G0 Z2.000
G0 Z2.000
G0 X66.094 Y115.428
G1 Z0.000 F800
G1 X67.065 Y111.806 F1000
G0 Z2.000
G0 Z2.000
G0 X111.751 Y113.103
G1 Z0.000 F800
G1 X112.358 Y110.839 F1000
G0 Z2.000
G0 Z2.000
G0 X80.163 Y66.787
G1 Z0.000 F800
G1 X80.891 Y64.070 F1000
G0 Z2.000
G0 Z2.000
G0 X120.606 Y81.991
G1 Z0.000 F800
G1 X125.944 Y62.069 F1000
G0 Z2.000
G0 Z2.000
G0 X114.418 Y105.083
G1 Z0.000 F800
G1 X114.418 Y105.083 F1000
G0 Z2.000
G0 Z2.000
G0 X111.212 Y59.092
G1 Z0.000 F800
G1 X113.760 Y49.584 F1000
G0 Z2.000
G0 Z2.000
G0 X89.820 Y71.315
G1 Z0.000 F800
G1 X92.125 Y62.713 F1000
G0 Z2.000
G0 Z2.000
G0 X112.470 Y118.149
G1 Z0.000 F800
G1 X112.470 Y118.149 F1000
G0 Z2.000
G0 Z2.000
G0 X95.926 Y116.142
G1 Z0.000 F800
G1 X96.411 Y114.331 F1000
G0 Z2.000
G0 Z2.000
G0 X59.960 Y93.888
G1 Z0.000 F800
G1 X61.173 Y89.360 F1000
G0 Z2.000
G0 Z2.000
G0 X96.287 Y116.724
G1 Z0.000 F800
G1 X96.894 Y114.460 F1000
G0 Z2.000
G0 Z2.000
G0 X75.083 Y72.220
G1 Z0.000 F800
G1 X76.418 Y67.239 F1000
G0 Z2.000
G0 Z2.000
G0 X124.913 Y116.144
G1 Z0.000 F800
G1 X125.277 Y114.786 F1000
G0 Z2.000
G0 Z2.000
G0 X115.974 Y16.207
G1 Z0.000 F800
G1 X115.974 Y16.207 F1000
G0 Z2.000
G0 Z2.000
G0 X102.064 Y33.347
G1 Z0.000 F800
G1 X102.428 Y31.989 F1000
G0 Z2.000
G0 Z2.000
G0 X79.622 Y115.170
G1 Z0.000 F800
G1 X81.927 Y106.568 F1000
G0 Z2.000
G0 Z2.000
G0 X93.152 Y112.972
G1 Z0.000 F800
G1 X93.273 Y112.519 F1000
G0 Z2.000
G0 Z2.000
G0 X96.800 Y91.627
G1 Z0.000 F800
G1 X96.922 Y91.174 F1000
G0 Z2.000
G0 Z2.000
G0 X62.139 Y89.619
G1 Z0.000 F800
G1 X63.231 Y85.544 F1000
G0 Z2.000
G0 Z2.000
G0 X94.607 Y107.539
G1 Z0.000 F800
G1 X94.607 Y107.539 F1000
G0 Z2.000
G0 Z2.000
G0 X110.898 Y120.154
G1 Z0.000 F800
G1 X111.140 Y119.248 F1000
G0 Z2.000
G0 Z2.000
G0 X108.109 Y128.627
G1 Z0.000 F800
G1 X108.352 Y127.722 F1000
G0 Z2.000
G0 Z2.000
G0 X112.843 Y109.028
G1 Z0.000 F800
G1 X113.207 Y107.670 F1000
G0 Z2.000
G0 Z2.000
G0 X114.973 Y45.056
G1 Z0.000 F800
G1 X119.705 Y27.398 F1000
G0 Z2.000
G0 Z2.000
G0 X92.176 Y120.476
G1 Z0.000 F800
G1 X92.176 Y120.476 F1000
G0 Z2.000
G0 Z2.000
G0 X83.896 Y76.037
G1 Z0.000 F800
G1 X84.017 Y75.584 F1000
G0 Z2.000
G0 Z2.000
G0 X81.187 Y18.533
G1 Z0.000 F800
G1 X81.187 Y18.533 F1000
G0 Z2.000
G0 Z2.000
G0 X86.222 Y49.969
G1 Z0.000 F800
G1 X88.042 Y43.178 F1000
G0 Z2.000
G0 Z2.000
G0 X82.379 Y31.469
G1 Z0.000 F800
G1 X82.379 Y31.469 F1000
G0 Z2.000
G0 Z2.000
G0 X109.087 Y119.183
G1 Z0.000 F800
G1 X109.208 Y118.730 F1000
G0 Z2.000
G0 Z2.000
G0 X107.124 Y43.438
G1 Z0.000 F800
G1 X108.459 Y38.458 F1000
G0 Z2.000
G0 Z2.000
G0 X96.187 Y99.712
G1 Z0.000 F800
G1 X96.187 Y99.712 F1000
G0 Z2.000
G0 Z2.000
G0 X65.889 Y85.285
G1 Z0.000 F800
G1 X70.499 Y68.080 F1000
G0 Z2.000
G0 Z2.000
G0 X110.184 Y111.227
G1 Z0.000 F800
G1 X111.154 Y107.605 F1000
G0 Z2.000
G0 Z2.000
G0 X115.610 Y118.020
G1 Z0.000 F800
G1 X115.610 Y118.020 F1000
G0 Z2.000
G0 Z2.000
G0 X126.019 Y100.426
G1 Z0.000 F800
G1 X126.504 Y98.615 F1000
G0 Z2.000
G0 Z2.000
G0 X121.170 Y114.656
G1 Z0.000 F800
G1 X122.141 Y111.034 F1000
G0 Z2.000
G0 Z2.000
G0 X87.725 Y106.180
G1 Z0.000 F800
G1 X87.725 Y106.180 F1000
G0 Z2.000
G0 Z2.000
G0 X92.038 Y34.058
G1 Z0.000 F800
G1 X92.281 Y33.152 F1000
G0 Z2.000
G0 Z2.000
G0 X88.672 Y121.963
G1 Z0.000 F800
G1 X88.672 Y121.963 F1000
G0 Z2.000
G0 Z2.000
G0 X89.241 Y50.293
G1 Z0.000 F800
G1 X89.969 Y47.576 F1000
G0 Z2.000
G0 Z2.000
G0 X86.026 Y12.065
G1 Z0.000 F800
G1 X86.511 Y10.253 F1000
G0 Z2.000
G0 Z2.000
G0 X117.927 Y99.714
G1 Z0.000 F800
G1 X118.170 Y98.809 F1000
G0 Z2.000
G0 Z2.000
G0 X79.558 Y67.110
G1 Z0.000 F800
G1 X80.408 Y63.941 F1000
G0 Z2.000
G0 Z2.000
G0 X112.204 Y38.005
G1 Z0.000 F800
G1 X112.204 Y38.005 F1000
G0 Z2.000
G0 Z2.000
G0 X120.680 Y120.349
G1 Z0.000 F800
G1 X120.680 Y120.349 F1000
G0 Z2.000
G0 Z2.000
G0 X103.354 Y65.236
G1 Z0.000 F800
G1 X104.082 Y62.520 F1000
G0 Z2.000
G0 Z2.000
G0 X91.343 Y110.061
G1 Z0.000 F800
G1 X91.950 Y107.797 F1000
G0 Z2.000
G0 Z2.000
G0 X64.402 Y115.945
G1 Z0.000 F800
G1 X64.402 Y115.945 F1000
G0 Z2.000
G0 Z2.000
G0 X115.577 Y44.733
G1 Z0.000 F800
G1 X120.188 Y27.527 F1000
G0 Z2.000
G0 Z2.000
G0 X62.487 Y101.844
G1 Z0.000 F800
G1 X62.487 Y101.844 F1000
G0 Z2.000
G0 Z2.000
G0 X107.227 Y58.510
G1 Z0.000 F800
G1 X109.532 Y49.907 F1000
G0 Z2.000
G0 Z2.000
G0 X121.301 Y106.442
G1 Z0.000 F800
G1 X121.544 Y105.536 F1000
G0 Z2.000
G0 Z2.000
G0 X76.931 Y42.142
G1 Z0.000 F800
G1 X78.266 Y37.161 F1000
G0 Z2.000
G0 Z2.000
G0 X87.682 Y40.655
G1 Z0.000 F800
G1 X88.895 Y36.127 F1000
G0 Z2.000
G0 Z2.000
G0 X97.867 Y108.898
G1 Z0.000 F800
G1 X97.988 Y108.445 F1000
G0 Z2.000
G0 Z2.000
G0 X62.107 Y116.786
G1 Z0.000 F800
G1 X62.107 Y116.786 F1000
G0 Z2.000
G0 Z2.000
G0 X108.970 Y115.755
G1 Z0.000 F800
G1 X108.970 Y115.755 F1000
G0 Z2.000
G0 Z2.000
G0 X76.728 Y110.513
G1 Z0.000 F800
G1 X78.184 Y105.080 F1000
G0 Z2.000
G0 Z2.000
G0 X92.174 Y122.416
G1 Z0.000 F800
G1 X92.174 Y122.416 F1000
G0 Z2.000
G0 Z2.000
G0 X115.512 Y99.067
G1 Z0.000 F800
G1 X115.512 Y99.067 F1000
G0 Z2.000
G0 Z2.000
G0 X92.538 Y121.058
G1 Z0.000 F800
G1 X92.659 Y120.605 F1000
G0 Z2.000
G0 Z2.000
G0 X128.895 Y118.668
G1 Z0.000 F800
G1 X128.895 Y118.668 F1000
G0 Z2.000
G0 Z2.000
G0 X89.579 Y70.280
G1 Z0.000 F800
G1 X91.278 Y63.942 F1000
G0 Z2.000
G0 Z2.000
G0 X72.321 Y59.347
G1 Z0.000 F800
G1 X72.927 Y57.084 F1000
G0 Z2.000
G0 Z2.000
G0 X64.174 Y105.208
G1 Z0.000 F800
G1 X64.174 Y105.208 F1000
G0 Z2.000
G0 Z2.000
G0 X110.745 Y45.379
G1 Z0.000 F800
G1 X112.808 Y37.682 F1000
G0 Z2.000
G0 Z2.000
G0 X78.518 Y28.494
G1 Z0.000 F800
G1 X79.003 Y26.683 F1000
G0 Z2.000
G0 Z2.000
G0 X94.927 Y42.596
G1 Z0.000 F800
G1 X94.927 Y42.596 F1000
G0 Z2.000
G0 Z2.000
G0 X53.768 Y120.860
G1 Z0.000 F800
G1 X53.889 Y120.408 F1000
G0 Z2.000
G0 Z2.000
G0 X108.489 Y13.231
G1 Z0.000 F800
G1 X108.489 Y13.231 F1000
G0 Z2.000
G0 Z2.000
G0 X66.092 Y117.368
G1 Z0.000 F800
G1 X66.092 Y117.368 F1000
G0 Z2.000
G0 Z2.000
G0 X105.687 Y33.347
G1 Z0.000 F800
G1 X105.808 Y32.895 F1000
G0 Z2.000
G0 Z2.000
G0 X86.509 Y12.194
G1 Z0.000 F800
G1 X86.872 Y10.836 F1000
G0 Z2.000
G0 Z2.000
G0 X124.742 Y56.894
G1 Z0.000 F800
G1 X127.169 Y47.838 F1000
G0 Z2.000
G0 Z2.000
G0 X83.240 Y119.052
G1 Z0.000 F800
G1 X83.483 Y118.146 F1000
G0 Z2.000
G0 Z2.000
G0 X79.302 Y79.659
G1 Z0.000 F800
G1 X81.364 Y71.962 F1000
G0 Z2.000
G0 Z2.000
G0 X110.179 Y115.108
G1 Z0.000 F800
G1 X110.179 Y115.108 F1000
G0 Z2.000
G0 Z2.000
G0 X94.689 Y39.621
G1 Z0.000 F800
G1 X95.295 Y37.357 F1000
G0 Z2.000
G0 Z2.000
G0 X110.890 Y25.521
G1 Z0.000 F800
G1 X110.890 Y25.521 F1000
G0 Z2.000
G0 Z2.000
G0 X54.851 Y124.547
G1 Z0.000 F800
G1 X54.851 Y124.547 F1000
G0 Z2.000
G0 Z2.000
G0 X90.230 Y31.147
G1 Z0.000 F800
G1 X90.473 Y30.241 F1000
G0 Z2.000
G0 Z2.000
G0 X78.441 Y92.531
G1 Z0.000 F800
G1 X78.441 Y92.531 F1000
G0 Z2.000
G0 Z2.000
G0 X61.495 Y122.931
G1 Z0.000 F800
G1 X61.617 Y122.478 F1000
G0 Z2.000
G0 Z2.000
G0 X76.843 Y115.882
G1 Z0.000 F800
G1 X76.843 Y115.882 F1000
G0 Z2.000
G0 Z2.000
G0 X93.877 Y11.742
G1 Z0.000 F800
G1 X93.877 Y11.742 F1000
G0 Z2.000
G0 Z2.000
G0 X80.704 Y118.857
G1 Z0.000 F800
G1 X80.704 Y118.857 F1000
G0 Z2.000
G0 Z2.000
G0 X88.935 Y103.593
G1 Z0.000 F800
G1 X89.542 Y101.329 F1000
G0 Z2.000
G0 Z2.000
G0 X96.264 Y35.675
G1 Z0.000 F800
G1 X97.962 Y29.336 F1000
G0 Z2.000
G0 Z2.000
G0 X87.242 Y106.051
G1 Z0.000 F800
G1 X87.363 Y105.598 F1000
G0 Z2.000
G0 Z2.000
G0 X121.382 Y38.523
G1 Z0.000 F800
G1 X122.838 Y33.090 F1000
G0 Z2.000
G0 Z2.000
G0 X65.611 Y115.299
G1 Z0.000 F800
G1 X65.854 Y114.393 F1000
G0 Z2.000
G0 Z2.000
G0 X62.349 Y115.880
G1 Z0.000 F800
G1 X63.077 Y113.164 F1000
G0 Z2.000
G0 Z2.000
G0 X66.820 Y114.652
G1 Z0.000 F800
G1 X68.761 Y107.407 F1000
G0 Z2.000
G0 Z2.000
G0 X116.607 Y93.052
G1 Z0.000 F800
G1 X116.849 Y92.146 F1000
G0 Z2.000
G0 Z2.000
G0 X128.042 Y125.718
G1 Z0.000 F800
G1 X128.042 Y125.718 F1000
G0 Z2.000
G0 Z2.000
G0 X86.133 Y123.709
G1 Z0.000 F800
G1 X86.133 Y123.709 F1000
G0 Z2.000
G0 Z2.000
G0 X97.358 Y29.660
G1 Z0.000 F800
G1 X97.358 Y29.660 F1000
G0 Z2.000
G0 Z2.000
G0 X90.856 Y113.813
G1 Z0.000 F800
G1 X91.584 Y111.096 F1000
G0 Z2.000
G0 Z2.000
G0 X128.074 Y98.551
G1 Z0.000 F800
G1 X128.438 Y97.192 F1000
G0 Z2.000
G0 Z2.000
G0 X71.166 Y115.816
G1 Z0.000 F800
G1 X71.409 Y114.911 F1000
G0 Z2.000
G0 Z2.000
G0 X102.596 Y93.180
G1 Z0.000 F800
G1 X102.717 Y92.727 F1000
G0 Z2.000
G0 Z2.000
G0 X84.099 Y108.120
G1 Z0.000 F800
G1 X84.099 Y108.120 F1000
G0 Z2.000
G0 Z2.000
G0 X85.212 Y86.580
G1 Z0.000 F800
G1 X85.212 Y86.580 F1000
G0 Z2.000
G0 Z2.000
G0 X91.509 Y72.739
G1 Z0.000 F800
G1 X94.178 Y62.778 F1000
G0 Z2.000
G0 Z2.000
G0 X100.067 Y87.164
G1 Z0.000 F800
G1 X100.067 Y87.164 F1000
G0 Z2.000
G0 Z2.000
G0 X119.759 Y83.220
G1 Z0.000 F800
G1 X119.759 Y83.220 F1000
G0 Z2.000
G0 Z2.000
G0 X80.895 Y60.189
G1 Z0.000 F800
G1 X81.866 Y56.567 F1000
G0 Z2.000
G0 Z2.000
G0 X127.852 Y81.992
G1 Z0.000 F800
G1 X127.974 Y81.539 F1000
G0 Z2.000
G0 Z2.000
G0 X60.777 Y117.885
G1 Z0.000 F800
G1 X62.111 Y112.905 F1000
G0 Z2.000
G0 Z2.000
G0 X84.453 Y14.070
G1 Z0.000 F800
G1 X84.817 Y12.711 F1000
G0 Z2.000
G0 Z2.000
G0 X99.033 Y42.726
G1 Z0.000 F800
G1 X101.095 Y35.029 F1000
G0 Z2.000
G0 Z2.000
G0 X105.692 Y129.921
G1 Z0.000 F800
G1 X105.935 Y129.015 F1000
G0 Z2.000
G0 Z2.000
G0 X122.612 Y120.866
G1 Z0.000 F800
G1 X122.734 Y120.413 F1000
G0 Z2.000
G0 Z2.000
G0 X111.875 Y110.710
G1 Z0.000 F800
G1 X111.875 Y110.710 F1000
G0 Z2.000
G0 Z2.000
G0 X125.225 Y57.023
G1 Z0.000 F800
G1 X127.773 Y47.515 F1000
G0 Z2.000
G0 Z2.000
G0 X103.798 Y98.355
G1 Z0.000 F800
G1 X103.919 Y97.902 F1000
G0 Z2.000
G0 Z2.000
G0 X86.661 Y86.969
G1 Z0.000 F800
G1 X86.661 Y86.969 F1000
G0 Z2.000
G0 Z2.000
G0 X82.393 Y120.281
G1 Z0.000 F800
G1 X82.515 Y119.828 F1000
G0 Z2.000
G0 Z2.000
G0 X102.640 Y56.310
G1 Z0.000 F800
G1 X104.217 Y50.424 F1000
G0 Z2.000
G0 Z2.000
G0 X74.790 Y115.817
G1 Z0.000 F800
G1 X76.003 Y111.289 F1000
G0 Z2.000
G0 Z2.000
G0 X127.917 Y27.657
G1 Z0.000 F800
G1 X128.403 Y25.846 F1000
G0 Z2.000
G0 Z2.000
G0 X95.692 Y109.285
G1 Z0.000 F800
G1 X95.814 Y108.833 F1000
G0 Z2.000
G0 Z2.000
G0 X110.356 Y68.083
G1 Z0.000 F800
G1 X111.569 Y63.555 F1000
G0 Z2.000
G0 Z2.000
G0 X79.178 Y82.052
G1 Z0.000 F800
G1 X79.178 Y82.052 F1000
G0 Z2.000
G0 Z2.000
G0 X78.963 Y59.671
G1 Z0.000 F800
G1 X79.813 Y56.502 F1000
G0 Z2.000
G0 Z2.000
G0 X111.079 Y69.247
G1 Z0.000 F800
G1 X111.443 Y67.889 F1000
G0 Z2.000
G0 Z2.000
G0 X94.476 Y15.299
G1 Z0.000 F800
G1 X95.325 Y12.130 F1000
G0 Z2.000
G0 Z2.000
G0 X120.123 Y81.862
G1 Z0.000 F800
G1 X124.126 Y66.920 F1000
G0 Z2.000
G0 Z2.000
G0 X122.146 Y107.153
G1 Z0.000 F800
G1 X122.631 Y105.342 F1000
G0 Z2.000
G0 Z2.000
G0 X112.649 Y69.183
G1 Z0.000 F800
G1 X112.771 Y68.730 F1000
G0 Z2.000
G0 Z2.000
G0 X103.672 Y102.688
G1 Z0.000 F800
G1 X104.157 Y100.877 F1000
G0 Z2.000
G0 Z2.000
G0 X57.396 Y116.980
G1 Z0.000 F800
G1 X57.881 Y115.168 F1000
G0 Z2.000
G0 Z2.000
G0 X115.260 Y107.735
G1 Z0.000 F800
G1 X115.503 Y106.829 F1000
G0 Z2.000
G0 Z2.000
G0 X127.927 Y120.349
G1 Z0.000 F800
G1 X128.170 Y119.444 F1000
G0 Z2.000
G0 Z2.000
G0 X106.158 Y43.179
G1 Z0.000 F800
G1 X106.765 Y40.915 F1000
G0 Z2.000
G0 Z2.000
G0 X75.310 Y84.898
G1 Z0.000 F800
G1 X76.038 Y82.181 F1000
G0 Z2.000
G0 Z2.000
G0 X84.586 Y104.369
G1 Z0.000 F800
G1 X84.586 Y104.369 F1000
G0 Z2.000
G0 Z2.000
G0 X126.257 Y103.402
G1 Z0.000 F800
G1 X126.621 Y102.044 F1000
G0 Z2.000
G0 Z2.000
G0 X115.069 Y65.949
G1 Z0.000 F800
G1 X116.282 Y61.421 F1000
G0 Z2.000
G0 Z2.000
G0 X127.444 Y120.220
G1 Z0.000 F800
G1 X127.444 Y120.220 F1000
G0 Z2.000
G0 Z2.000
G0 X126.142 Y98.033
G1 Z0.000 F800
G1 X126.142 Y98.033 F1000
G0 Z2.000
G0 Z2.000
G0 X126.765 Y82.186
G1 Z0.000 F800
G1 X126.886 Y81.733 F1000
G0 Z2.000
G0 Z2.000
G0 X82.757 Y118.922
G1 Z0.000 F800
G1 X82.879 Y118.470 F1000
G0 Z2.000
G0 Z2.000
G0 X55.823 Y118.985
G1 Z0.000 F800
G1 X55.823 Y118.985 F1000
G0 Z2.000
G0 Z2.000
G0 X74.106 Y81.664
G1 Z0.000 F800
G1 X77.867 Y67.627 F1000
G0 Z2.000
G0 Z2.000
G0 X106.527 Y37.940
G1 Z0.000 F800
G1 X106.648 Y37.487 F1000
G0 Z2.000
G0 Z2.000
G0 X71.717 Y59.671
G1 Z0.000 F800
G1 X72.445 Y56.954 F1000
G0 Z2.000
G0 Z2.000
G0 X111.520 Y104.306
G1 Z0.000 F800
G1 X111.520 Y104.306 F1000
G0 Z2.000
G0 Z2.000
G0 X94.747 Y91.562
G1 Z0.000 F800
G1 X95.111 Y90.204 F1000
G0 Z2.000
G0 Z2.000
G0 X79.243 Y27.718
G1 Z0.000 F800
G1 X79.364 Y27.265 F1000
G0 Z2.000
G0 Z2.000
G0 X114.642 Y119.701
G1 Z0.000 F800
G1 X114.642 Y119.701 F1000
G0 Z2.000
G0 Z2.000
G0 X118.646 Y104.760
G1 Z0.000 F800
G1 X118.646 Y104.760 F1000
G0 Z2.000
G0 Z2.000
G0 X117.178 Y119.895
G1 Z0.000 F800
G1 X117.178 Y119.895 F1000
G0 Z2.000
G0 Z2.000
G0 X87.745 Y88.715
G1 Z0.000 F800
G1 X87.867 Y88.262 F1000
G0 Z2.000
G0 Z2.000
G0 X109.089 Y117.243
G1 Z0.000 F800
G1 X109.211 Y116.790 F1000
G0 Z2.000
G0 Z2.000
G0 X79.979 Y119.634
G1 Z0.000 F800
G1 X80.585 Y117.370 F1000
G0 Z2.000
G0 Z2.000
G0 X69.265 Y90.072
G1 Z0.000 F800
G1 X71.570 Y81.469 F1000
G0 Z2.000
G0 Z2.000
G0 X33.285 Y79.461
G1 Z0.000 F800
G1 X35.347 Y71.764 F1000
G0 Z2.000
G0 Z2.000
G0 X49.188 Y112.839
G1 Z0.000 F800
G1 X49.188 Y112.839 F1000
G0 Z2.000
G0 Z2.000
G0 X55.361 Y101.391
G1 Z0.000 F800
G1 X55.725 Y100.032 F1000
G0 Z2.000
G0 Z2.000
G0 X104.089 Y56.698
G1 Z0.000 F800
G1 X105.788 Y50.359 F1000
G0 Z2.000
G0 Z2.000
G0 X82.818 Y68.469
G1 Z0.000 F800
G1 X82.818 Y68.469 F1000
G0 Z2.000
G0 Z2.000
G0 X99.042 Y34.964
G1 Z0.000 F800
G1 X100.256 Y30.436 F1000
G0 Z2.000
G0 Z2.000
G0 X93.132 Y28.042
G1 Z0.000 F800
G1 X93.132 Y28.042 F1000
G0 Z2.000
G0 Z2.000
G0 X117.064 Y114.527
G1 Z0.000 F800
G1 X117.549 Y112.716 F1000
G0 Z2.000
G0 Z2.000
G0 X91.488 Y90.203
G1 Z0.000 F800
G1 X91.731 Y89.298 F1000
G0 Z2.000
G0 Z2.000
G0 X16.208 Y17.621
