; Generated by CMYK Pro (V2.1 - Z-move and Randomization Fixes)
G21 ; Millimeters
G90 ; Absolute positioning
G0 Z8.000

; --- COLOR CHANGE: BLACK ---
G0 Z8.000
G0 X140.000 Y0.000
G1 Z0.000 F800
G1 Z5.000 F800
; Smart Wipe -> Angle 168.5 deg
G0 X136.121 Y1.197
G0 Z5.000
G1 X122.402 Y3.990 F600
G0 F1000
G0 Z8.000
G0 X0.000 F200
G0 Y0.000 F200
G0 Z8.000
G0 X14.384 Y41.252
G1 X14.677 Y41.252 Z0.000 F1000

; --- COLOR CHANGE: MAGENTA ---
G0 Z8.000
G0 X63.000 Y0.000
G1 Z0.000 F800
G1 Z5.000 F800
; Smart Wipe -> Angle 97.1 deg
G0 X62.261 Y5.954
G0 Z5.000
G1 X60.536 Y19.848 F600
G0 F1000
G0 Z8.000
G0 Z8.000
G0 X54.305 Y62.779
G1 X54.305 Y62.779 Z0.000 F1000

; --- COLOR CHANGE: BLACK ---
G0 Z8.000
G0 X140.000 Y0.000
G1 Z0.000 F800
G1 Z5.000 F800
; Smart Wipe -> Angle 150.1 deg
G0 X136.798 Y2.989
G0 Z5.000
G1 X124.659 Y9.964 F600
G0 F1000
G0 Z8.000
G0 Y64.379 F200
G0 Z8.000
G0 X87.280 Y39.295
G1 X89.041 Y39.295 Z0.000 F1000
G0 X89.541 F200
G0 Z8.000
G0 X8.904 Y37.339
G0 X8.404 F200
G1 X12.329 Y37.339 Z0.000 F1000

; --- COLOR CHANGE: YELLOW ---
G0 Z8.000
G0 X109.000 Y0.000
G1 Z0.000 F800
G1 Z5.000 F800
; Smart Wipe -> Angle 121.6 deg
G0 X105.855 Y5.110
G0 Z5.000
G1 X98.516 Y17.032 F600
G0 F1000
G0 Z8.000
G0 Y35.739 F200
G0 Z8.000
G0 X74.658 Y52.505
G1 X75.049 Y52.505 Z0.000 F1000

; --- COLOR CHANGE: BLACK ---
G0 Z8.000
G0 X140.000 Y0.000
G1 Z0.000 F800
G1 Z5.000 F800
; Smart Wipe -> Angle 113.7 deg
G0 X139.589 Y5.494
G0 Z5.000
G1 X133.963 Y18.314 F600
G0 F1000
G0 Z8.000
G0 Z8.000
G0 X97.358 Y66.693
G1 X98.630 Y66.693 Z0.000 F1000
G0 X99.130 F200
G0 Y68.293 F200
G0 Z8.000
G0 X38.748 Y42.720
G0 X38.248 F200
G1 X39.041 Y42.720 Z0.000 F1000
G0 X39.541 F200
G0 Y41.120 F200
G0 Z8.000
G0 X0.587 Y60.822
G0 X0.087 F200
G1 X0.685 Y60.822 Z0.000 F1000

; --- COLOR CHANGE: CYAN ---
G0 Z8.000
G0 X0.000 Y17.000
G1 Z0.000 F800
G1 Z5.000 F800
; Smart Wipe -> Angle 60.0 deg
G0 X2.997 Y22.198
G0 Z5.000
G1 X9.991 Y34.325 F600
G0 F1000
G0 Z8.000
G0 Z8.000
G0 X32.877 Y93.601
G1 X32.975 Y93.601 Z0.000 F1000
G0 Y95.201 F200
G0 Z8.000
G0 X49.119 Y87.241
G1 X49.217 Y87.241 Z0.000 F1000

; --- COLOR CHANGE: BLACK ---
G0 Z8.000
G0 X140.000 Y0.000
G1 Z0.000 F800
G1 Z5.000 F800
; Smart Wipe -> Angle 139.9 deg
G0 X137.413 Y3.867
G0 Z5.000
G1 X126.709 Y12.891 F600
G0 F1000
G0 Z8.000
G0 X49.717 F200
G0 Z8.000
G0 X24.462 Y64.736
G0 X23.962 F200
G1 X24.560 Y64.736 Z0.000 F1000
G0 Z8.000
G0 X31.507 Y63.757
G1 X35.225 Y63.757 Z0.000 F1000
G0 Z8.000
G0 X87.182 Y46.145
G1 X89.628 Y46.145 Z0.000 F1000

; --- COLOR CHANGE: MAGENTA ---
G0 Z8.000
G0 X63.000 Y0.000
G1 Z0.000 F800
G1 Z5.000 F800
; Smart Wipe -> Angle 89.2 deg
G0 X63.081 Y5.999
G0 Z5.000
G1 X63.271 Y19.998 F600
G0 F1000
G0 Z8.000
G0 X90.128 F200
G0 Y44.545 F200
G0 Z8.000
G0 X61.057 Y62.779
G0 X60.557 F200
G1 X61.252 Y62.779 Z0.000 F1000

; --- COLOR CHANGE: BLACK ---
G0 Z8.000
G0 X140.000 Y0.000
G1 Z0.000 F800
G1 Z5.000 F800
; Smart Wipe -> Angle 124.3 deg
G0 X138.617 Y4.956
G0 Z5.000
G1 X130.725 Y16.519 F600
G0 F1000
G0 Z8.000
G0 Z8.000
G0 X69.863 Y99.961
G1 X70.157 Y99.961 Z0.000 F1000
G0 X70.657 F200
G0 Y101.561 F200
G0 Z8.000
G0 X34.834 Y46.145
G1 X34.834 Y46.145 Z0.000 F1000

; --- COLOR CHANGE: CYAN ---
G0 Z8.000
G0 X0.000 Y17.000
G1 Z0.000 F800
G1 Z5.000 F800
; Smart Wipe -> Angle 51.9 deg
G0 X3.699 Y21.724
G0 Z5.000
G1 X12.331 Y32.746 F600
G0 F1000
G0 Z8.000
G0 Z8.000
G0 X18.591 Y36.849
G0 X18.091 F200
G1 X19.276 Y36.849 Z0.000 F1000
G0 Y35.249 F200
G0 Z8.000
G0 X51.468 Y94.579
G1 X53.914 Y94.579 Z0.000 F1000

; --- COLOR CHANGE: YELLOW ---
G0 Z8.000
G0 X109.000 Y0.000
G1 Z0.000 F800
G1 Z5.000 F800
; Smart Wipe -> Angle 124.5 deg
G0 X105.605 Y4.947
G0 Z5.000
G1 X97.684 Y16.491 F600
G0 F1000
G0 Z8.000
G0 Y96.179 F200
G0 Z8.000
G0 X83.757 Y48.591
G1 X84.247 Y48.591 Z0.000 F1000

; --- COLOR CHANGE: MAGENTA ---
G0 Z8.000
G0 X63.000 Y0.000
G1 Z0.000 F800
G1 Z5.000 F800
; Smart Wipe -> Angle 78.7 deg
G0 X64.180 Y5.883
G0 Z5.000
G1 X66.933 Y19.609 F600
G0 F1000
G0 Z8.000
G0 X84.747 F200
G0 Y46.991 F200
G0 Z8.000
G0 X68.004 Y62.290
G1 X68.004 Y62.290 Z0.000 F1000

; --- COLOR CHANGE: CYAN ---
G0 Z8.000
G0 X0.000 Y17.000
G1 Z0.000 F800
G1 Z5.000 F800
; Smart Wipe -> Angle 39.5 deg
G0 X4.632 Y20.814
G0 Z5.000
G1 X15.440 Y29.712 F600
G0 F1000
G0 Z8.000
G0 Y63.890 F200
G0 Z8.000
G0 X37.769 Y39.785
G0 X37.269 F200
G1 X38.160 Y39.785 Z0.000 F1000
G0 X38.660 F200
G0 Y38.185 F200
G0 Z8.000
G0 X27.397 Y43.699
G0 X26.897 F200
G1 X27.593 Y43.699 Z0.000 F1000

; --- COLOR CHANGE: MAGENTA ---
G0 Z8.000
G0 X63.000 Y0.000
G1 Z0.000 F800
G1 Z5.000 F800
; Smart Wipe -> Angle 120.4 deg
G0 X59.960 Y5.173
G0 Z5.000
G1 X52.866 Y17.242 F600
G0 F1000
G0 Z8.000
G0 X28.093 F200
G0 Z8.000
G0 X24.560 Y68.650
G1 X24.560 Y68.650 Z0.000 F1000

; --- COLOR CHANGE: CYAN ---
G0 Z8.000
G0 X0.000 Y17.000
G1 Z0.000 F800
G1 Z5.000 F800
; Smart Wipe -> Angle 21.8 deg
G0 X5.571 Y19.229
G0 Z5.000
G1 X18.569 Y24.430 F600
G0 F1000
G0 Z8.000
G0 X24.060 F200
G0 Y70.250 F200
G0 Z8.000
G0 X36.204 Y39.785
G1 X36.497 Y39.785 Z0.000 F1000

; --- COLOR CHANGE: YELLOW ---
G0 Z8.000
G0 X109.000 Y0.000
G1 Z0.000 F800
G1 Z5.000 F800
; Smart Wipe -> Angle 146.1 deg
G0 X104.021 Y3.349
G0 Z5.000
G1 X92.405 Y11.162 F600
G0 F1000
G0 Z8.000
G0 X36.997 F200
G0 Y38.185 F200
G0 Z8.000
G0 X34.149 Y56.419
G0 X33.649 F200
G1 X36.693 Y56.419 Z0.000 F1000

; --- COLOR CHANGE: BLACK ---
G0 Z8.000
G0 X140.000 Y0.000
G1 Z0.000 F800
G1 Z5.000 F800
; Smart Wipe -> Angle 134.5 deg
G0 X137.792 Y4.277
G0 Z5.000
G1 X127.972 Y14.255 F600
G0 F1000
G0 Z8.000
G0 Z8.000
G0 X69.080 Y98.493
G1 X69.765 Y98.493 Z0.000 F1000
G0 X70.265 F200
G0 Y100.093 F200
G0 Z8.000
G0 X23.190 Y37.828
G1 X23.190 Y37.828 Z0.000 F1000
G0 X22.690 F200
G0 Y36.228 F200
G0 Z8.000
G0 X95.401 Y53.483
G1 X95.597 Y53.483 Z0.000 F1000

; --- COLOR CHANGE: CYAN ---
G0 Z8.000
G0 X0.000 Y17.000
G1 Z0.000 F800
G1 Z5.000 F800
; Smart Wipe -> Angle 45.9 deg
G0 X4.173 Y21.311
G0 Z5.000
G1 X13.911 Y31.369 F600
G0 F1000
G0 Z8.000
G0 X96.097 F200
G0 Y55.083 F200
G0 Z8.000
G0 X17.417 Y37.339
G0 X16.917 F200
G1 X17.613 Y37.339 Z0.000 F1000
G0 Y35.739 F200
G0 Z8.000
G0 X32.779 Y48.591
G1 X34.149 Y48.591 Z0.000 F1000
G0 X34.649 F200
G0 Z8.000
G0 X32.975 Y64.736
G0 X32.475 F200
G1 X33.953 Y64.736 Z0.000 F1000

; --- COLOR CHANGE: BLACK ---
G0 Z8.000
G0 X140.000 Y0.000
G1 Z0.000 F800
G1 Z5.000 F800
; Smart Wipe -> Angle 157.5 deg
G0 X136.456 Y2.294
G0 Z5.000
G1 X123.520 Y7.648 F600
G0 F1000
G0 Z8.000
G0 X34.453 F200
G0 Y66.336 F200
G0 Z8.000
G0 X14.090 Y41.742
G0 X13.590 F200
G1 X14.286 Y41.742 Z0.000 F1000
G0 X14.786 F200
G0 Y40.142 F200
G0 Z8.000
G0 X12.622 Y61.800
G1 X12.622 Y61.800 Z0.000 F1000
G0 X12.122 F200
G0 Y63.400 F200
G0 Z8.000
G0 X70.450 Y49.080
G1 X70.646 Y49.080 Z0.000 F1000

; --- COLOR CHANGE: YELLOW ---
G0 Z8.000
G0 X109.000 Y0.000
G1 Z0.000 F800
G1 Z5.000 F800
; Smart Wipe -> Angle 109.1 deg
G0 X107.032 Y5.668
G0 Z5.000
G1 X102.441 Y18.894 F600
G0 F1000
G0 Z8.000
G0 X71.146 F200
G0 Y47.480 F200
G0 Z8.000
G0 X64.188 Y91.644
G0 X63.688 F200
G1 X68.200 Y91.644 Z0.000 F1000

; --- COLOR CHANGE: BLACK ---
G0 Z8.000
G0 X140.000 Y0.000
G1 Z0.000 F800
G1 Z5.000 F800
; Smart Wipe -> Angle 140.4 deg
G0 X137.375 Y3.822
G0 Z5.000
G1 X126.584 Y12.741 F600
G0 F1000
G0 Z8.000
G0 Y93.244 F200
G0 Z8.000
G0 X97.456 Y50.059
G1 X97.456 Y50.059 Z0.000 F1000
G0 X97.956 F200
G0 Z8.000
G0 X25.832 Y36.849
G0 X25.332 F200
G1 X28.865 Y36.849 Z0.000 F1000
G0 X29.365 F200
G0 Y35.249 F200
G0 Z8.000
G0 X17.613 Y44.677
G0 X17.113 F200
G1 X17.808 Y44.677 Z0.000 F1000

; --- COLOR CHANGE: YELLOW ---
G0 Z8.000
G0 X109.000 Y0.000
G1 Z0.000 F800
G1 Z5.000 F800
; Smart Wipe -> Angle 133.5 deg
G0 X104.867 Y4.349
G0 Z5.000
G1 X95.222 Y14.497 F600
G0 F1000
G0 Z8.000
G0 Z8.000
G0 X65.264 Y55.930
G1 X65.656 Y55.930 Z0.000 F1000

; --- COLOR CHANGE: BLACK ---
G0 Z8.000
G0 X140.000 Y0.000
G1 Z0.000 F800
G1 Z5.000 F800
; Smart Wipe -> Angle 150.7 deg
G0 X136.768 Y2.937
G0 Z5.000
G1 X124.560 Y9.790 F600
G0 F1000
G0 Z8.000
G0 X66.156 F200
G0 Z8.000
G0 X50.294 Y64.736
G0 X49.794 F200
G1 X52.055 Y64.736 Z0.000 F1000
G0 X52.555 F200
G0 Y66.336 F200
G0 Z8.000
G0 X11.937 Y38.806
G0 X11.437 F200
G1 X12.427 Y38.806 Z0.000 F1000

; --- COLOR CHANGE: YELLOW ---
G0 Z8.000
G0 X109.000 Y0.000
G1 Z0.000 F800
G1 Z5.000 F800
; Smart Wipe -> Angle 102.4 deg
G0 X107.713 Y5.860
G0 Z5.000
G1 X104.710 Y19.534 F600
G0 F1000
G0 Z8.000
G0 Y37.206 F200
G0 Z8.000
G0 X82.975 Y47.613
G1 X91.879 Y47.613 Z0.000 F1000

; --- COLOR CHANGE: BLACK ---
G0 Z8.000
G0 X140.000 Y0.000
G1 Z0.000 F800
G1 Z5.000 F800
; Smart Wipe -> Angle 142.8 deg
G0 X137.219 Y3.625
G0 Z5.000
G1 X126.062 Y12.082 F600
G0 F1000
G0 Z8.000
G0 X92.379 F200
G0 Z8.000
G0 X66.145 Y64.247
G0 X65.645 F200
G1 X66.438 Y64.247 Z0.000 F1000
G0 Z8.000
G0 X76.321 Y69.139
G1 X76.517 Y69.139 Z0.000 F1000

; --- COLOR CHANGE: CYAN ---
G0 Z8.000
G0 X0.000 Y17.000
G1 Z0.000 F800
G1 Z5.000 F800
; Smart Wipe -> Angle 38.2 deg
G0 X4.715 Y20.711
G0 Z5.000
G1 X15.717 Y29.369 F600
G0 F1000
G0 Z8.000
G0 Z8.000
G0 X89.628 Y112.681
G1 X94.618 Y112.681 Z0.000 F1000

; --- COLOR CHANGE: BLACK ---
G0 Z8.000
G0 X140.000 Y0.000
G1 Z0.000 F800
G1 Z5.000 F800
; Smart Wipe -> Angle 144.7 deg
G0 X137.103 Y3.467
G0 Z5.000
G1 X125.678 Y11.558 F600
G0 F1000
G0 Z8.000
G0 X95.118 F200
G0 Y114.281 F200
G0 Z8.000
G0 X8.708 Y93.112
G0 X8.208 F200
G1 X10.470 Y93.112 Z0.000 F1000
G0 X10.970 F200
G0 Z8.000
G0 X4.305 Y68.160
G0 X3.805 F200
G1 X4.599 Y68.160 Z0.000 F1000
G0 Y66.560 F200
G0 Z8.000
G0 X79.159 Y96.536
G1 X79.256 Y96.536 Z0.000 F1000
G0 X79.756 F200
G0 Y98.136 F200
G0 Z8.000
G0 X9.883 Y39.295
G0 X9.383 F200
G1 X10.176 Y39.295 Z0.000 F1000
G0 Y37.695 F200
G0 Z8.000
G0 X60.274 Y94.579
G1 X60.763 Y94.579 Z0.000 F1000
G0 Y96.179 F200
G0 Z8.000
G0 X69.276 Y40.763
G1 X69.374 Y40.763 Z0.000 F1000

; --- COLOR CHANGE: YELLOW ---
G0 Z8.000
G0 X109.000 Y0.000
G1 Z0.000 F800
G1 Z5.000 F800
; Smart Wipe -> Angle 136.8 deg
G0 X104.628 Y4.109
G0 Z5.000
G1 X94.426 Y13.697 F600
G0 F1000
G0 Z8.000
G0 X69.874 F200
G0 Y39.163 F200
G0 Z8.000
G0 X19.765 Y72.074
G0 X19.265 F200
G1 X20.059 Y72.074 Z0.000 F1000
G0 Z8.000
G0 X33.366 Y76.967
G1 X33.855 Y76.967 Z0.000 F1000

; --- COLOR CHANGE: BLACK ---
G0 Z8.000
G0 X140.000 Y0.000
G1 Z0.000 F800
G1 Z5.000 F800
; Smart Wipe -> Angle 160.2 deg
G0 X136.355 Y2.033
G0 Z5.000
G1 X123.183 Y6.776 F600
G0 F1000
G0 Z8.000
G0 X34.355 F200
G0 Y78.567 F200
G0 Z8.000
G0 X3.131 Y43.699
G0 X2.631 F200
G1 X3.327 Y43.699 Z0.000 F1000
G0 Z8.000
G0 X83.170 Y30.978
G1 X83.366 Y30.978 Z0.000 F1000
G0 X83.866 F200
G0 Y29.378 F200
G0 Z8.000
G0 X65.460 Y51.526
G0 X64.960 F200
G1 X69.080 Y51.526 Z0.000 F1000
G0 Z8.000
G0 X93.542 Y72.564
G1 X93.738 Y72.564 Z0.000 F1000
G0 X94.238 F200
G0 Z8.000
G0 X48.924 Y94.090
G0 X48.424 F200
G1 X50.685 Y94.090 Z0.000 F1000

; --- COLOR CHANGE: CYAN ---
G0 Z8.000
G0 X0.000 Y17.000
G1 Z0.000 F800
G1 Z5.000 F800
; Smart Wipe -> Angle 50.9 deg
G0 X3.785 Y21.656
G0 Z5.000
G1 X12.616 Y32.519 F600
G0 F1000
G0 Z8.000
G0 X51.185 F200
G0 Y95.690 F200
G0 Z8.000
G0 X38.845 Y73.053
G0 X38.345 F200
G1 X38.943 Y73.053 Z0.000 F1000

; --- COLOR CHANGE: BLACK ---
G0 Z8.000
G0 X140.000 Y0.000
G1 Z0.000 F800
G1 Z5.000 F800
; Smart Wipe -> Angle 155.1 deg
G0 X136.556 Y2.523
G0 Z5.000
G1 X123.854 Y8.411 F600
G0 F1000
G0 Z8.000
G0 X39.443 F200
G0 Z8.000
G0 X0.000 Y51.526
G0 X0.000 F200
G1 X0.098 Y51.526 Z0.000 F1000
G0 Z8.000
G0 X23.679 Y37.339
G1 X23.679 Y37.339 Z0.000 F1000
G0 X24.179 F200
G0 Y35.739 F200
G0 Z8.000
G0 X11.644 Y48.102
G0 X11.144 F200
G1 X11.840 Y48.102 Z0.000 F1000
G0 Z8.000
G0 X77.299 Y96.047
G1 X77.593 Y96.047 Z0.000 F1000

; --- COLOR CHANGE: MAGENTA ---
G0 Z8.000
G0 X63.000 Y0.000
G1 Z0.000 F800
G1 Z5.000 F800
; Smart Wipe -> Angle 100.1 deg
G0 X61.943 Y5.906
G0 Z5.000
G1 X59.476 Y19.687 F600
G0 F1000
G0 Z8.000
G0 X78.093 F200
G0 Y97.647 F200
G0 Z8.000
G0 X42.074 Y68.160
G0 X41.574 F200
G1 X42.172 Y68.160 Z0.000 F1000

; --- COLOR CHANGE: YELLOW ---
G0 Z8.000
G0 X109.000 Y0.000
G1 Z0.000 F800
G1 Z5.000 F800
; Smart Wipe -> Angle 139.5 deg
G0 X104.437 Y3.897
G0 Z5.000
G1 X93.792 Y12.989 F600
G0 F1000
G0 Z8.000
G0 X42.672 F200
G0 Z8.000
G0 X29.256 Y55.930
G0 X28.756 F200
G1 X32.192 Y55.930 Z0.000 F1000

; --- COLOR CHANGE: BLACK ---
G0 Z8.000
G0 X140.000 Y0.000
G1 Z0.000 F800
G1 Z5.000 F800
; Smart Wipe -> Angle 154.3 deg
G0 X136.595 Y2.604
G0 Z5.000
G1 X123.982 Y8.681 F600
G0 F1000
G0 Z8.000
G0 X32.692 F200
G0 Y54.330 F200
G0 Z8.000
G0 X30.626 Y69.139
G0 X30.126 F200
G1 X32.094 Y69.139 Z0.000 F1000

; --- COLOR CHANGE: YELLOW ---
G0 Z8.000
G0 X109.000 Y0.000
G1 Z0.000 F800
G1 Z5.000 F800
; Smart Wipe -> Angle 85.4 deg
G0 X109.478 Y5.981
G0 Z5.000
G1 X110.594 Y19.936 F600
G0 F1000
G0 Z8.000
G0 Z8.000
G0 X96.086 Y94.090
G1 X96.967 Y94.090 Z0.000 F1000

; --- COLOR CHANGE: BLACK ---
G0 Z8.000
G0 X140.000 Y0.000
G1 Z0.000 F800
G1 Z5.000 F800
; Smart Wipe -> Angle 144.6 deg
G0 X137.112 Y3.480
G0 Z5.000
G1 X125.707 Y11.599 F600
G0 F1000
G0 Z8.000
G0 X97.467 F200
G0 Y95.690 F200
G0 Z8.000
G0 X81.018 Y33.425
G0 X80.518 F200
G1 X81.115 Y33.425 Z0.000 F1000
G0 X81.615 F200
G0 Y31.825 F200
G0 Z8.000
G0 X75.440 Y43.209
G0 X74.940 F200
G1 X75.636 Y43.209 Z0.000 F1000

; --- COLOR CHANGE: YELLOW ---
G0 Z8.000
G0 X109.000 Y0.000
G1 Z0.000 F800
G1 Z5.000 F800
; Smart Wipe -> Angle 86.7 deg
G0 X109.345 Y5.990
G0 Z5.000
G1 X110.152 Y19.967 F600
G0 F1000
G0 Z8.000
G0 Z8.000
G0 X91.977 Y86.262
G1 X99.902 Y86.262 Z0.000 F1000

; --- COLOR CHANGE: BLACK ---
G0 Z8.000
G0 X140.000 Y0.000
G1 Z0.000 F800
G1 Z5.000 F800
; Smart Wipe -> Angle 125.6 deg
G0 X138.510 Y4.881
G0 Z5.000
G1 X130.367 Y16.269 F600
G0 F1000
G0 Z8.000
G0 X100.402 F200
G0 Z8.000
G0 X77.104 Y100.939
G0 X76.604 F200
G1 X77.691 Y100.939 Z0.000 F1000

; --- COLOR CHANGE: CYAN ---
G0 Z8.000
G0 X0.000 Y17.000
G1 Z0.000 F800
G1 Z5.000 F800
; Smart Wipe -> Angle 52.0 deg
G0 X3.692 Y21.730
G0 Z5.000
G1 X12.307 Y32.765 F600
G0 F1000
G0 Z8.000
G0 X78.191 F200
G0 Y102.539 F200
G0 Z8.000
G0 X17.417 Y45.166
G0 X16.917 F200
G1 X18.004 Y45.166 Z0.000 F1000

; --- COLOR CHANGE: YELLOW ---
G0 Z8.000
G0 X109.000 Y0.000
G1 Z0.000 F800
G1 Z5.000 F800
; Smart Wipe -> Angle 100.1 deg
G0 X107.952 Y5.908
G0 Z5.000
G1 X105.506 Y19.692 F600
G0 F1000
G0 Z8.000
G0 Y43.566 F200
G0 Z8.000
G0 X97.065 Y53.483
G1 X97.065 Y53.483 Z0.000 F1000

; --- COLOR CHANGE: BLACK ---
G0 Z8.000
G0 X140.000 Y0.000
G1 Z0.000 F800
G1 Z5.000 F800
; Smart Wipe -> Angle 159.3 deg
G0 X136.387 Y2.121
G0 Z5.000
G1 X123.291 Y7.070 F600
G0 F1000
G0 Z8.000
G0 X97.565 F200
G0 Y55.083 F200
G0 Z8.000
G0 X0.000 Y47.123
G0 X0.000 F200
G1 X0.196 Y47.123 Z0.000 F1000

; --- COLOR CHANGE: YELLOW ---
G0 Z8.000
G0 X109.000 Y0.000
G1 Z0.000 F800
G1 Z5.000 F800
; Smart Wipe -> Angle 123.8 deg
G0 X105.666 Y4.988
G0 Z5.000
G1 X97.886 Y16.627 F600
G0 F1000
G0 Z8.000
G0 Y45.523 F200
G0 Z8.000
G0 X61.252 Y71.585
G1 X62.818 Y71.585 Z0.000 F1000

; --- COLOR CHANGE: CYAN ---
G0 Z8.000
G0 X0.000 Y17.000
G1 Z0.000 F800
G1 Z5.000 F800
; Smart Wipe -> Angle 53.7 deg
G0 X3.556 Y21.833
G0 Z5.000
G1 X11.852 Y33.110 F600
G0 F1000
G0 Z8.000
G0 X63.318 F200
G0 Z8.000
G0 X51.761 Y101.429
G0 X51.261 F200
G1 X51.859 Y101.429 Z0.000 F1000
G0 X52.359 F200
G0 Y103.029 F200
G0 Z8.000
G0 X5.871 Y40.274
G0 X5.371 F200
G1 X6.262 Y40.274 Z0.000 F1000
G0 Y38.674 F200
G0 Z8.000
G0 X12.524 Y62.779
G1 X13.699 Y62.779 Z0.000 F1000

; --- COLOR CHANGE: BLACK ---
G0 Z8.000
G0 X140.000 Y0.000
G1 Z0.000 F800
G1 Z5.000 F800
; Smart Wipe -> Angle 162.7 deg
G0 X136.270 Y1.779
G0 Z5.000
G1 X122.900 Y5.931 F600
G0 F1000
G0 Z8.000
G0 X14.199 F200
G0 Z8.000
G0 X11.155 Y62.779
G0 X10.655 F200
G1 X11.644 Y62.779 Z0.000 F1000

; --- COLOR CHANGE: CYAN ---
G0 Z8.000
G0 X0.000 Y17.000
G1 Z0.000 F800
G1 Z5.000 F800
; Smart Wipe -> Angle 94.2 deg
G0 X0.000 Y22.984
G0 Z5.000
G1 X0.000 Y36.947 F600
G0 F1000
G0 Z8.000
G0 X12.144 F200
G0 Y64.379 F200
G0 Z8.000
G0 X0.000 Y44.677
G0 X0.000 F200
G1 X2.446 Y44.677 Z0.000 F1000

; --- COLOR CHANGE: BLACK ---
G0 Z8.000
G0 X140.000 Y0.000
G1 Z0.000 F800
G1 Z5.000 F800
; Smart Wipe -> Angle 147.2 deg
G0 X136.954 Y3.246
