; Generated by CMYK Pro (V2.0 - Randomization/NaN Fix)
G21 ; Millimeters
G90 ; Absolute positioning
G0 Z8.000

; --- COLOR CHANGE: BLACK ---
G0 Z8.000
G0 X140.000 Y0.000
G1 Z0.000 F800
G1 Z5.000 F800
; Smart Wipe -> Angle 118.6 deg
G0 X139.124 Y5.266
G0 Z5.000
G1 X132.412 Y17.552 F600
G0 F1000
G0 Z8.000
G0 X0.000 F200
G0 Y0.000 F200
G0 X70.646 Y96.047
G1 X70.744 Y96.047 Z0.000 F1000
G0 X71.244 F200
G0 X23.973 Y96.047
G1 X23.973 Y96.047 Z0.000 F1000

; --- COLOR CHANGE: YELLOW ---
G0 Z8.000
G0 X109.000 Y0.000
G1 Z0.000 F800
G1 Z5.000 F800
; Smart Wipe -> Angle 110.3 deg
G0 X106.914 Y5.626
G0 Z5.000
G1 X102.047 Y18.753 F600
G0 F1000
G0 Z8.000
G0 X23.473 F200
G0 X64.873 Y99.961
G1 X64.873 Y99.961 Z0.000 F1000
G0 Y101.561 F200
G0 X98.532 Y82.348
G1 X98.532 Y82.348 Z0.000 F1000
G0 X99.032 F200
G0 Y80.748 F200
G0 X91.977 Y86.262
G0 X91.477 F200
G1 X99.902 Y86.262 Z0.000 F1000

; --- COLOR CHANGE: BLACK ---
G0 Z8.000
G0 X140.000 Y0.000
G1 Z0.000 F800
G1 Z5.000 F800
; Smart Wipe -> Angle 157.0 deg
G0 X136.477 Y2.344
G0 Z5.000
G1 X123.590 Y7.814 F600
G0 F1000
G0 Z8.000
G0 X100.402 F200
G0 Y87.862 F200
G0 X15.851 Y68.650
G0 X15.351 F200
G1 X15.949 Y68.650 Z0.000 F1000

; --- COLOR CHANGE: YELLOW ---
G0 Z8.000
G0 X109.000 Y0.000
G1 Z0.000 F800
G1 Z5.000 F800
; Smart Wipe -> Angle 146.9 deg
G0 X103.973 Y3.276
G0 Z5.000
G1 X92.244 Y10.920 F600
G0 F1000
G0 Z8.000
G0 X16.449 F200
G0 Y67.050 F200
G0 X12.818 Y70.607
G1 X12.818 Y70.607 Z0.000 F1000
G0 X12.318 F200
G0 Y72.207 F200
G0 X85.029 Y41.252
G1 X85.029 Y41.252 Z0.000 F1000

; --- COLOR CHANGE: BLACK ---
G0 Z8.000
G0 X140.000 Y0.000
G1 Z0.000 F800
G1 Z5.000 F800
; Smart Wipe -> Angle 141.1 deg
G0 X137.330 Y3.767
G0 Z5.000
G1 X126.432 Y12.556 F600
G0 F1000
G0 Z8.000
G0 X85.529 F200
G0 Y39.652 F200
G0 X36.693 Y64.736
G1 X36.693 Y64.736 Z0.000 F1000
G0 Y66.336 F200
G0 X32.387 Y49.080
G0 X31.887 F200
G1 X32.485 Y49.080 Z0.000 F1000
G0 X78.180 Y39.295
G1 X79.941 Y39.295 Z0.000 F1000

; --- COLOR CHANGE: YELLOW ---
G0 Z8.000
G0 X109.000 Y0.000
G1 Z0.000 F800
G1 Z5.000 F800
; Smart Wipe -> Angle 109.1 deg
G0 X107.036 Y5.669
G0 Z5.000
G1 X102.453 Y18.898 F600
G0 F1000
G0 Z8.000
G0 X80.441 F200
G0 Y37.695 F200
G0 X54.697 Y82.348
G0 X54.197 F200
G1 X61.350 Y82.348 Z0.000 F1000
G0 X61.850 F200
G0 Y83.948 F200
G0 X47.065 Y56.908
G0 X46.565 F200
G1 X48.532 Y56.908 Z0.000 F1000

; --- COLOR CHANGE: CYAN ---
G0 Z8.000
G0 X17.000 Y0.000
G1 Z0.000 F800
G1 Z5.000 F800
; Smart Wipe -> Angle 89.0 deg
G0 X17.103 Y5.999
G0 Z5.000
G1 X17.343 Y19.997 F600
G0 F1000
G0 Z8.000
G0 X49.032 F200
G0 Y55.308 F200
G0 X25.049 Y76.477
G0 X24.549 F200
G1 X25.440 Y76.477 Z0.000 F1000
G0 X25.940 F200
G0 X0.000 Y111.703
G0 X0.000 F200
G1 X99.902 Y111.703 Z0.000 F1000
G0 X100.402 F200
G0 Y113.303 F200
G0 X51.468 Y94.090
G0 X50.968 F200
G1 X54.207 Y94.090 Z0.000 F1000

; --- COLOR CHANGE: BLACK ---
G0 Z8.000
G0 X140.000 Y0.000
G1 Z0.000 F800
G1 Z5.000 F800
; Smart Wipe -> Angle 140.0 deg
G0 X137.404 Y3.857
G0 Z5.000
G1 X126.679 Y12.855 F600
G0 F1000
G0 Z8.000
G0 X94.912 Y33.425
G1 X95.205 Y33.425 Z0.000 F1000

; --- COLOR CHANGE: YELLOW ---
G0 Z8.000
G0 X109.000 Y0.000
G1 Z0.000 F800
G1 Z5.000 F800
; Smart Wipe -> Angle 128.4 deg
G0 X105.274 Y4.703
G0 Z5.000
G1 X96.581 Y15.677 F600
G0 F1000
G0 Z8.000
G0 X95.705 F200
G0 Y31.825 F200
G0 X68.591 Y78.434
G0 X68.091 F200
G1 X69.374 Y78.434 Z0.000 F1000
G0 X71.722 Y101.918
G1 X72.701 Y101.918 Z0.000 F1000

; --- COLOR CHANGE: BLACK ---
G0 Z8.000
G0 X140.000 Y0.000
G1 Z0.000 F800
G1 Z5.000 F800
; Smart Wipe -> Angle 167.8 deg
G0 X136.136 Y1.269
G0 Z5.000
G1 X122.453 Y4.230 F600
G0 F1000
G0 Z8.000
G0 X73.201 F200
G0 Y103.518 F200
G0 X10.665 Y41.252
G0 X10.165 F200
G1 X10.861 Y41.252 Z0.000 F1000
G0 X11.361 F200
G0 X5.577 Y37.339
G1 X5.577 Y37.339 Z0.000 F1000

; --- COLOR CHANGE: YELLOW ---
G0 Z8.000
G0 X109.000 Y0.000
G1 Z0.000 F800
G1 Z5.000 F800
; Smart Wipe -> Angle 114.1 deg
G0 X106.550 Y5.477
G0 Z5.000
G1 X100.835 Y18.257 F600
G0 F1000
G0 Z8.000
G0 X5.077 F200
G0 Y35.739 F200
G0 X54.599 Y76.477
G1 X55.186 Y76.477 Z0.000 F1000
G0 X55.686 F200
G0 Y78.077 F200
G0 X33.268 Y35.382
G0 X32.768 F200
G1 X34.834 Y35.382 Z0.000 F1000

; --- COLOR CHANGE: BLACK ---
G0 Z8.000
G0 X140.000 Y0.000
G1 Z0.000 F800
G1 Z5.000 F800
; Smart Wipe -> Angle 134.5 deg
G0 X137.796 Y4.281
G0 Z5.000
G1 X127.987 Y14.270 F600
G0 F1000
G0 Z8.000
G0 Y33.782 F200
G0 X47.945 Y94.090
G1 X48.141 Y94.090 Z0.000 F1000
G0 Y95.690 F200
G0 X64.286 Y43.209
G1 X65.558 Y43.209 Z0.000 F1000
G0 X66.058 F200
G0 X59.491 Y39.295
G0 X58.991 F200
G1 X60.959 Y39.295 Z0.000 F1000
G0 X61.459 F200
G0 Y37.695 F200
G0 X25.930 Y94.090
G0 X25.430 F200
G1 X29.550 Y94.090 Z0.000 F1000

; --- COLOR CHANGE: CYAN ---
G0 Z8.000
G0 X17.000 Y0.000
G1 Z0.000 F800
G1 Z5.000 F800
; Smart Wipe -> Angle 37.9 deg
G0 X21.732 Y3.688
G0 Z5.000
G1 X32.775 Y12.295 F600
G0 F1000
G0 Z8.000
G0 Y95.690 F200
G0 X86.204 Y37.339
G1 X86.595 Y37.339 Z0.000 F1000

; --- COLOR CHANGE: YELLOW ---
G0 Z8.000
G0 X109.000 Y0.000
G1 Z0.000 F800
G1 Z5.000 F800
; Smart Wipe -> Angle 131.2 deg
G0 X105.047 Y4.514
G0 Z5.000
G1 X95.825 Y15.047 F600
G0 F1000
G0 Z8.000
G0 X87.095 F200
G0 Y35.739 F200
G0 X56.947 Y78.434
G0 X56.447 F200
G1 X57.339 Y78.434 Z0.000 F1000
G0 Y80.034 F200
G0 X68.591 Y70.607
G1 X71.429 Y70.607 Z0.000 F1000

; --- COLOR CHANGE: MAGENTA ---
G0 Z8.000
G0 X63.000 Y0.000
G1 Z0.000 F800
G1 Z5.000 F800
; Smart Wipe -> Angle 109.6 deg
G0 X60.983 Y5.651
G0 Z5.000
G1 X56.276 Y18.836 F600
G0 F1000
G0 Z8.000
G0 X71.929 F200
G0 X48.141 Y37.339
G0 X47.641 F200
G1 X48.532 Y37.339 Z0.000 F1000

; --- COLOR CHANGE: YELLOW ---
G0 Z8.000
G0 X109.000 Y0.000
G1 Z0.000 F800
G1 Z5.000 F800
; Smart Wipe -> Angle 145.6 deg
G0 X104.051 Y3.393
G0 Z5.000
G1 X92.505 Y11.309 F600
G0 F1000
G0 Z8.000
G0 Y35.739 F200
G0 X51.761 Y56.908
G1 X51.957 Y56.908 Z0.000 F1000

; --- COLOR CHANGE: BLACK ---
G0 Z8.000
G0 X140.000 Y0.000
G1 Z0.000 F800
G1 Z5.000 F800
; Smart Wipe -> Angle 160.5 deg
G0 X136.344 Y2.002
G0 Z5.000
G1 X123.147 Y6.675 F600
G0 F1000
G0 Z8.000
G0 X52.457 F200
G0 Y58.508 F200
G0 X29.354 Y45.166
G0 X28.854 F200
G1 X31.018 Y45.166 Z0.000 F1000

; --- COLOR CHANGE: YELLOW ---
G0 Z8.000
G0 X109.000 Y0.000
G1 Z0.000 F800
G1 Z5.000 F800
; Smart Wipe -> Angle 138.3 deg
G0 X104.522 Y3.994
G0 Z5.000
G1 X94.075 Y13.313 F600
G0 F1000
G0 Z8.000
G0 X31.518 F200
G0 Y43.566 F200
G0 X15.851 Y68.650
G0 X15.351 F200
G1 X15.949 Y68.650 Z0.000 F1000
G0 X16.449 F200
G0 Y70.250 F200
G0 X12.720 Y62.779
G1 X12.720 Y62.779 Z0.000 F1000

; --- COLOR CHANGE: BLACK ---
G0 Z8.000
G0 X140.000 Y0.000
G1 Z0.000 F800
G1 Z5.000 F800
; Smart Wipe -> Angle 130.3 deg
G0 X138.121 Y4.577
G0 Z5.000
G1 X129.069 Y15.257 F600
G0 F1000
G0 Z8.000
G0 X12.220 F200
G0 Y61.179 F200
G0 X61.840 Y64.736
G1 X61.937 Y64.736 Z0.000 F1000
G0 X61.937 Y96.047
G1 X62.133 Y96.047 Z0.000 F1000
G0 Y97.647 F200
G0 X78.963 Y70.607
G1 X78.963 Y70.607 Z0.000 F1000

; --- COLOR CHANGE: CYAN ---
G0 Z8.000
G0 X17.000 Y0.000
G1 Z0.000 F800
G1 Z5.000 F800
; Smart Wipe -> Angle 31.0 deg
G0 X22.141 Y3.094
G0 Z5.000
G1 X34.136 Y10.313 F600
G0 F1000
G0 Z8.000
G0 Y69.007 F200
G0 X96.380 Y72.564
G1 X96.771 Y72.564 Z0.000 F1000

; --- COLOR CHANGE: BLACK ---
G0 Z8.000
G0 X140.000 Y0.000
G1 Z0.000 F800
G1 Z5.000 F800
; Smart Wipe -> Angle 153.9 deg
G0 X136.613 Y2.642
G0 Z5.000
G1 X124.043 Y8.805 F600
G0 F1000
G0 Z8.000
G0 X97.271 F200
G0 Y74.164 F200
G0 X96.380 Y33.425
G0 X95.880 F200
G1 X98.043 Y33.425 Z0.000 F1000
G0 X98.543 F200
G0 Y31.825 F200
G0 X74.951 Y43.209
G1 X74.951 Y43.209 Z0.000 F1000
G0 X1.566 Y45.166
G0 X1.066 F200
G1 X2.838 Y45.166 Z0.000 F1000

; --- COLOR CHANGE: YELLOW ---
G0 Z8.000
G0 X109.000 Y0.000
G1 Z0.000 F800
G1 Z5.000 F800
; Smart Wipe -> Angle 127.3 deg
G0 X105.362 Y4.771
G0 Z5.000
G1 X96.873 Y15.904 F600
G0 F1000
G0 Z8.000
G0 X49.315 Y54.951
G1 X49.706 Y54.951 Z0.000 F1000
G0 Y56.551 F200
G0 X95.499 Y45.166
G1 X99.902 Y45.166 Z0.000 F1000
G0 X100.402 F200
G0 Y43.566 F200
G0 X50.391 Y72.564
G0 X49.891 F200
G1 X50.587 Y72.564 Z0.000 F1000
G0 X51.087 F200
G0 Y74.164 F200
G0 X50.000 Y66.693
G0 X49.500 F200
G1 X50.098 Y66.693 Z0.000 F1000

; --- COLOR CHANGE: MAGENTA ---
G0 Z8.000
G0 X63.000 Y0.000
G1 Z0.000 F800
G1 Z5.000 F800
; Smart Wipe -> Angle 134.4 deg
G0 X58.802 Y4.287
G0 Z5.000
G1 X49.007 Y14.289 F600
G0 F1000
G0 Z8.000
G0 X50.598 F200
G0 X12.133 Y39.295
G0 X11.633 F200
G1 X12.231 Y39.295 Z0.000 F1000

; --- COLOR CHANGE: BLACK ---
G0 Z8.000
G0 X140.000 Y0.000
G1 Z0.000 F800
G1 Z5.000 F800
; Smart Wipe -> Angle 164.3 deg
G0 X136.225 Y1.629
G0 Z5.000
G1 X122.751 Y5.429 F600
G0 F1000
G0 Z8.000
G0 Y37.695 F200
G0 X36.204 Y47.123
G1 X36.888 Y47.123 Z0.000 F1000
G0 X37.388 F200
G0 X17.808 Y96.047
G0 X17.308 F200
G1 X17.906 Y96.047 Z0.000 F1000
G0 Y97.647 F200
G0 X79.159 Y37.339
G1 X79.550 Y37.339 Z0.000 F1000

; --- COLOR CHANGE: YELLOW ---
G0 Z8.000
G0 X109.000 Y0.000
G1 Z0.000 F800
G1 Z5.000 F800
; Smart Wipe -> Angle 102.5 deg
G0 X107.703 Y5.858
G0 Z5.000
G1 X104.677 Y19.527 F600
G0 F1000
G0 Z8.000
G0 X93.738 Y35.382
G1 X94.618 Y35.382 Z0.000 F1000
G0 X95.118 F200
G0 Y33.782 F200
G0 X82.485 Y76.477
G0 X81.985 F200
G1 X89.139 Y76.477 Z0.000 F1000
G0 X89.639 F200
G0 X63.209 Y86.262
G0 X62.709 F200
G1 X64.579 Y86.262 Z0.000 F1000

; --- COLOR CHANGE: CYAN ---
G0 Z8.000
G0 X17.000 Y0.000
G1 Z0.000 F800
G1 Z5.000 F800
; Smart Wipe -> Angle 23.1 deg
G0 X22.519 Y2.354
G0 Z5.000
G1 X35.396 Y7.847 F600
G0 F1000
G0 Z8.000
G0 Y87.862 F200
G0 X95.108 Y41.252
G1 X95.303 Y41.252 Z0.000 F1000

; --- COLOR CHANGE: BLACK ---
G0 Z8.000
G0 X140.000 Y0.000
G1 Z0.000 F800
G1 Z5.000 F800
; Smart Wipe -> Angle 162.4 deg
G0 X136.280 Y1.812
G0 Z5.000
G1 X122.934 Y6.041 F600
G0 F1000
G0 Z8.000
G0 X95.803 F200
G0 Y39.652 F200
G0 X15.068 Y45.166
G0 X14.568 F200
G1 X15.656 Y45.166 Z0.000 F1000
G0 X92.955 Y70.607
G1 X92.955 Y70.607 Z0.000 F1000

; --- COLOR CHANGE: MAGENTA ---
G0 Z8.000
G0 X63.000 Y0.000
G1 Z0.000 F800
G1 Z5.000 F800
; Smart Wipe -> Angle 81.4 deg
G0 X63.902 Y5.932
G0 Z5.000
G1 X66.008 Y19.773 F600
G0 F1000
G0 Z8.000
G0 X93.455 F200
G0 Y72.207 F200
G0 X69.667 Y35.382
G0 X69.167 F200
G1 X70.352 Y35.382 Z0.000 F1000

; --- COLOR CHANGE: YELLOW ---
G0 Z8.000
G0 X109.000 Y0.000
G1 Z0.000 F800
G1 Z5.000 F800
; Smart Wipe -> Angle 125.7 deg
G0 X105.503 Y4.875
G0 Z5.000
G1 X97.342 Y16.251 F600
G0 F1000
G0 Z8.000
G0 X70.852 F200
G0 Y33.782 F200
G0 X59.393 Y99.961
G0 X58.893 F200
G1 X61.937 Y99.961 Z0.000 F1000

; --- COLOR CHANGE: BLACK ---
G0 Z8.000
G0 X140.000 Y0.000
G1 Z0.000 F800
G1 Z5.000 F800
; Smart Wipe -> Angle 157.1 deg
G0 X136.473 Y2.336
G0 Z5.000
G1 X123.578 Y7.786 F600
G0 F1000
G0 Z8.000
G0 X62.437 F200
G0 Y101.561 F200
G0 X18.297 Y39.295
G1 X18.297 Y39.295 Z0.000 F1000

; --- COLOR CHANGE: YELLOW ---
G0 Z8.000
G0 X109.000 Y0.000
G1 Z0.000 F800
G1 Z5.000 F800
; Smart Wipe -> Angle 115.3 deg
G0 X106.432 Y5.423
G0 Z5.000
G1 X100.440 Y18.075 F600
G0 F1000
G0 Z8.000
G0 X17.797 F200
G0 Y37.695 F200
G0 X79.452 Y88.219
G1 X79.746 Y88.219 Z0.000 F1000

; --- COLOR CHANGE: CYAN ---
G0 Z8.000
G0 X17.000 Y0.000
G1 Z0.000 F800
G1 Z5.000 F800
; Smart Wipe -> Angle 75.6 deg
G0 X18.497 Y5.810
G0 Z5.000
G1 X21.990 Y19.368 F600
G0 F1000
G0 Z8.000
G0 X80.246 F200
G0 X26.908 Y94.090
G0 X26.408 F200
G1 X31.800 Y94.090 Z0.000 F1000

; --- COLOR CHANGE: YELLOW ---
G0 Z8.000
G0 X109.000 Y0.000
G1 Z0.000 F800
G1 Z5.000 F800
; Smart Wipe -> Angle 97.6 deg
G0 X108.206 Y5.947
G0 Z5.000
G1 X106.352 Y19.824 F600
G0 F1000
G0 Z8.000
G0 Y95.690 F200
G0 X95.597 Y49.080
G1 X99.902 Y49.080 Z0.000 F1000
G0 X100.402 F200
G0 X30.822 Y31.468
G0 X30.322 F200
G1 X30.920 Y31.468 Z0.000 F1000

; --- COLOR CHANGE: BLACK ---
G0 Z8.000
G0 X140.000 Y0.000
G1 Z0.000 F800
G1 Z5.000 F800
; Smart Wipe -> Angle 140.5 deg
G0 X137.373 Y3.820
G0 Z5.000
G1 X126.576 Y12.732 F600
G0 F1000
G0 Z8.000
G0 Y29.868 F200
G0 X64.873 Y49.080
G1 X65.068 Y49.080 Z0.000 F1000

; --- COLOR CHANGE: YELLOW ---
G0 Z8.000
G0 X109.000 Y0.000
G1 Z0.000 F800
G1 Z5.000 F800
; Smart Wipe -> Angle 121.8 deg
G0 X105.840 Y5.101
G0 Z5.000
G1 X98.468 Y17.002 F600
G0 F1000
G0 Z8.000
G0 X67.808 Y66.693
G1 X67.808 Y66.693 Z0.000 F1000

; --- COLOR CHANGE: BLACK ---
G0 Z8.000
G0 X140.000 Y0.000
G1 Z0.000 F800
G1 Z5.000 F800
; Smart Wipe -> Angle 137.5 deg
G0 X137.578 Y4.055
G0 Z5.000
G1 X127.260 Y13.518 F600
G0 F1000
G0 Z8.000
G0 X68.308 F200
G0 Y68.293 F200
G0 X56.947 Y64.736
G0 X56.447 F200
G1 X57.045 Y64.736 Z0.000 F1000
G0 X57.545 F200
G0 X34.344 Y49.080
G0 X33.844 F200
G1 X34.834 Y49.080 Z0.000 F1000
G0 X35.334 F200
G0 Y47.480 F200
G0 X2.740 Y66.693
G0 X2.240 F200
G1 X2.838 Y66.693 Z0.000 F1000
G0 X48.337 Y94.090
G1 X48.532 Y94.090 Z0.000 F1000
G0 Y95.690 F200
G0 X59.100 Y41.252
G1 X66.438 Y41.252 Z0.000 F1000

; --- COLOR CHANGE: YELLOW ---
G0 Z8.000
G0 X109.000 Y0.000
G1 Z0.000 F800
G1 Z5.000 F800
; Smart Wipe -> Angle 127.9 deg
G0 X105.317 Y4.736
G0 Z5.000
G1 X96.722 Y15.788 F600
G0 F1000
G0 Z8.000
G0 X66.938 F200
G0 Y39.652 F200
G0 X57.926 Y70.607
G0 X57.426 F200
G1 X58.219 Y70.607 Z0.000 F1000

; --- COLOR CHANGE: BLACK ---
G0 Z8.000
G0 X140.000 Y0.000
G1 Z0.000 F800
G1 Z5.000 F800
; Smart Wipe -> Angle 150.5 deg
G0 X136.780 Y2.959
G0 Z5.000
G1 X124.601 Y9.862 F600
G0 F1000
G0 Z8.000
G0 X58.719 F200
G0 Y72.207 F200
G0 X13.307 Y60.822
G0 X12.807 F200
G1 X13.601 Y60.822 Z0.000 F1000
G0 X14.101 F200
G0 Y59.222 F200
G0 X1.174 Y68.650
G0 X0.674 F200
G1 X1.370 Y68.650 Z0.000 F1000

; --- COLOR CHANGE: YELLOW ---
G0 Z8.000
G0 X109.000 Y0.000
G1 Z0.000 F800
G1 Z5.000 F800
; Smart Wipe -> Angle 159.1 deg
G0 X103.393 Y2.137
G0 Z5.000
G1 X90.312 Y7.123 F600
G0 F1000
G0 Z8.000
G0 Y70.250 F200
G0 X14.971 Y52.994
G1 X16.243 Y52.994 Z0.000 F1000

; --- COLOR CHANGE: CYAN ---
G0 Z8.000
G0 X17.000 Y0.000
G1 Z0.000 F800
G1 Z5.000 F800
; Smart Wipe -> Angle 89.9 deg
G0 X17.008 Y6.000
G0 Z5.000
G1 X17.028 Y20.000 F600
G0 F1000
G0 Z8.000
G0 X16.743 F200
G0 Y51.394 F200
G0 X13.112 Y76.477
G0 X12.612 F200
G1 X14.188 Y76.477 Z0.000 F1000

; --- COLOR CHANGE: BLACK ---
G0 Z8.000
G0 X140.000 Y0.000
G1 Z0.000 F800
G1 Z5.000 F800
; Smart Wipe -> Angle 122.5 deg
G0 X138.772 Y5.058
G0 Z5.000
G1 X131.240 Y16.859 F600
G0 F1000
G0 Z8.000
G0 X72.603 Y101.918
G1 X72.603 Y101.918 Z0.000 F1000

; --- COLOR CHANGE: YELLOW ---
G0 Z8.000
G0 X109.000 Y0.000
G1 Z0.000 F800
G1 Z5.000 F800
; Smart Wipe -> Angle 115.1 deg
G0 X106.453 Y5.433
G0 Z5.000
G1 X100.510 Y18.108 F600
G0 F1000
G0 Z8.000
G0 Y103.518 F200
G0 X83.366 Y82.348
G1 X85.714 Y82.348 Z0.000 F1000

; --- COLOR CHANGE: BLACK ---
G0 Z8.000
G0 X140.000 Y0.000
G1 Z0.000 F800
G1 Z5.000 F800
; Smart Wipe -> Angle 150.3 deg
G0 X136.791 Y2.977
G0 Z5.000
G1 X124.636 Y9.924 F600
G0 F1000
G0 Z8.000
G0 X86.214 F200
G0 Y80.748 F200
G0 X18.982 Y94.090
G0 X18.482 F200
G1 X21.722 Y94.090 Z0.000 F1000

; --- COLOR CHANGE: MAGENTA ---
G0 Z8.000
G0 X63.000 Y0.000
G1 Z0.000 F800
G1 Z5.000 F800
; Smart Wipe -> Angle 88.2 deg
G0 X63.186 Y5.997
G0 Z5.000
G1 X63.621 Y19.990 F600
G0 F1000
G0 Z8.000
G0 Y95.690 F200
G0 X68.395 Y62.779
G1 X68.395 Y62.779 Z0.000 F1000

; --- COLOR CHANGE: BLACK ---
G0 Z8.000
G0 X140.000 Y0.000
G1 Z0.000 F800
G1 Z5.000 F800
; Smart Wipe -> Angle 128.4 deg
G0 X138.276 Y4.704
G0 Z5.000
G1 X129.587 Y15.681 F600
G0 F1000
G0 Z8.000
G0 X68.895 F200
G0 Y61.179 F200
G0 X66.536 Y99.961
G0 X66.036 F200
G1 X68.200 Y99.961 Z0.000 F1000

; --- COLOR CHANGE: YELLOW ---
G0 Z8.000
G0 X109.000 Y0.000
G1 Z0.000 F800
G1 Z5.000 F800
; Smart Wipe -> Angle 99.2 deg
G0 X108.036 Y5.922
G0 Z5.000
G1 X105.785 Y19.740 F600
G0 F1000
G0 Z8.000
G0 Y101.561 F200
G0 X99.022 Y94.090
G1 X99.902 Y94.090 Z0.000 F1000

; --- COLOR CHANGE: BLACK ---
G0 Z8.000
G0 X140.000 Y0.000
G1 Z0.000 F800
G1 Z5.000 F800
; Smart Wipe -> Angle 141.0 deg
G0 X137.338 Y3.777
G0 Z5.000
G1 X126.461 Y12.592 F600
G0 F1000
G0 Z8.000
G0 X100.402 F200
G0 X20.254 Y66.693
G0 X19.754 F200
G1 X20.352 Y66.693 Z0.000 F1000

; --- COLOR CHANGE: CYAN ---
G0 Z8.000
G0 X17.000 Y0.000
G1 Z0.000 F800
G1 Z5.000 F800
; Smart Wipe -> Angle 56.6 deg
G0 X20.300 Y5.011
G0 Z5.000
G1 X27.999 Y16.704 F600
G0 F1000
G0 Z8.000
