; Generated by CMYK Pro (V2.0 - Randomization/NaN Fix)
G21 ; Millimeters
G90 ; Absolute positioning
G0 Z8.000

; --- COLOR CHANGE: BLACK ---
G0 Z8.000
G0 X140.000 Y0.000
G1 Z0.000 F800
G1 Z5.000 F800
; Smart Wipe -> Angle 162.7 deg
G0 X136.271 Y1.782
G0 Z5.000
G1 X122.903 Y5.941 F600
G0 F1000
G0 Z8.000
G0 X0.000 F200
G0 Y0.000 F200
G0 X1.272 Y68.160
G1 X1.370 Y68.160 Z0.000 F1000
G0 X1.870 F200
G0 X0.000 Y77.456
G1 X0.000 Y77.456 Z0.000 F1000

; --- COLOR CHANGE: CYAN ---
G0 Z8.000
G0 X17.000 Y0.000
G1 Z0.000 F800
G1 Z5.000 F800
; Smart Wipe -> Angle 85.0 deg
G0 X17.525 Y5.977
G0 Z5.000
G1 X18.750 Y19.923 F600
G0 F1000
G0 Z8.000
G0 X0.000 F200
G0 Y79.056 F200
G0 X32.975 Y64.736
G1 X33.953 Y64.736 Z0.000 F1000

; --- COLOR CHANGE: BLACK ---
G0 Z8.000
G0 X140.000 Y0.000
G1 Z0.000 F800
G1 Z5.000 F800
; Smart Wipe -> Angle 136.5 deg
G0 X137.648 Y4.131
G0 Z5.000
G1 X127.494 Y13.769 F600
G0 F1000
G0 Z8.000
G0 X94.618 Y37.339
G1 X94.814 Y37.339 Z0.000 F1000

; --- COLOR CHANGE: YELLOW ---
G0 Z8.000
G0 X109.000 Y0.000
G1 Z0.000 F800
G1 Z5.000 F800
; Smart Wipe -> Angle 108.2 deg
G0 X107.126 Y5.700
G0 Z5.000
G1 X102.754 Y19.000 F600
G0 F1000
G0 Z8.000
G0 X95.314 F200
G0 X93.542 Y33.914
G1 X93.542 Y33.914 Z0.000 F1000

; --- COLOR CHANGE: BLACK ---
G0 Z8.000
G0 X140.000 Y0.000
G1 Z0.000 F800
G1 Z5.000 F800
; Smart Wipe -> Angle 166.1 deg
G0 X136.176 Y1.441
G0 Z5.000
G1 X122.585 Y4.804 F600
G0 F1000
G0 Z8.000
G0 Y32.314 F200
G0 X4.012 Y62.290
G1 X4.012 Y62.290 Z0.000 F1000

; --- COLOR CHANGE: YELLOW ---
G0 Z8.000
G0 X109.000 Y0.000
G1 Z0.000 F800
G1 Z5.000 F800
; Smart Wipe -> Angle 89.8 deg
G0 X109.019 Y6.000
G0 Z5.000
G1 X109.065 Y20.000 F600
G0 F1000
G0 Z8.000
G0 X3.512 F200
G0 X96.967 Y89.198
G1 X96.967 Y89.198 Z0.000 F1000

; --- COLOR CHANGE: BLACK ---
G0 Z8.000
G0 X140.000 Y0.000
G1 Z0.000 F800
G1 Z5.000 F800
; Smart Wipe -> Angle 142.4 deg
G0 X137.248 Y3.664
G0 Z5.000
G1 X126.162 Y12.212 F600
G0 F1000
G0 Z8.000
G0 X97.467 F200
G0 Y90.798 F200
G0 X51.761 Y63.268
G0 X51.261 F200
G1 X53.033 Y63.268 Z0.000 F1000
G0 X74.070 Y42.720
G1 X74.168 Y42.720 Z0.000 F1000

; --- COLOR CHANGE: CYAN ---
G0 Z8.000
G0 X17.000 Y0.000
G1 Z0.000 F800
G1 Z5.000 F800
; Smart Wipe -> Angle 73.8 deg
G0 X18.677 Y5.761
G0 Z5.000
G1 X22.589 Y19.203 F600
G0 F1000
G0 Z8.000
G0 X74.668 F200
G0 X25.440 Y38.806
G0 X24.940 F200
G1 X30.039 Y38.806 Z0.000 F1000
G0 X30.539 F200
G0 Y37.206 F200
G0 X0.000 Y47.613
G0 X0.000 F200
G1 X3.523 Y47.613 Z0.000 F1000

; --- COLOR CHANGE: MAGENTA ---
G0 Z8.000
G0 X63.000 Y0.000
G1 Z0.000 F800
G1 Z5.000 F800
; Smart Wipe -> Angle 78.1 deg
G0 X64.238 Y5.871
G0 Z5.000
G1 X67.127 Y19.570 F600
G0 F1000
G0 Z8.000
G0 Y49.213 F200
G0 X62.916 Y34.892
G1 X63.112 Y34.892 Z0.000 F1000

; --- COLOR CHANGE: CYAN ---
G0 Z8.000
G0 X17.000 Y0.000
G1 Z0.000 F800
G1 Z5.000 F800
; Smart Wipe -> Angle 31.1 deg
G0 X22.139 Y3.097
G0 Z5.000
G1 X34.131 Y10.322 F600
G0 F1000
G0 Z8.000
G0 Y33.292 F200
G0 X95.303 Y70.117
G1 X95.499 Y70.117 Z0.000 F1000

; --- COLOR CHANGE: BLACK ---
G0 Z8.000
G0 X140.000 Y0.000
G1 Z0.000 F800
G1 Z5.000 F800
; Smart Wipe -> Angle 146.0 deg
G0 X137.024 Y3.352
G0 Z5.000
G1 X125.413 Y11.175 F600
G0 F1000
G0 Z8.000
G0 X95.999 F200
G0 X62.818 Y70.607
G0 X62.318 F200
G1 X63.014 Y70.607 Z0.000 F1000

; --- COLOR CHANGE: YELLOW ---
G0 Z8.000
G0 X109.000 Y0.000
G1 Z0.000 F800
G1 Z5.000 F800
; Smart Wipe -> Angle 143.8 deg
G0 X104.159 Y3.544
G0 Z5.000
G1 X92.863 Y11.815 F600
G0 F1000
G0 Z8.000
G0 X63.514 F200
G0 X22.505 Y75.988
G1 X22.505 Y75.988 Z0.000 F1000

; --- COLOR CHANGE: MAGENTA ---
G0 Z8.000
G0 X63.000 Y0.000
G1 Z0.000 F800
G1 Z5.000 F800
; Smart Wipe -> Angle 71.3 deg
G0 X64.928 Y5.682
G0 Z5.000
G1 X69.426 Y18.940 F600
G0 F1000
G0 Z8.000
G0 X22.005 F200
G0 Y77.588 F200
G0 X68.200 Y34.892
G1 X69.080 Y34.892 Z0.000 F1000

; --- COLOR CHANGE: BLACK ---
G0 Z8.000
G0 X140.000 Y0.000
G1 Z0.000 F800
G1 Z5.000 F800
; Smart Wipe -> Angle 155.6 deg
G0 X136.535 Y2.476
G0 Z5.000
G1 X123.782 Y8.253 F600
G0 F1000
G0 Z8.000
G0 X69.580 F200
G0 Y33.292 F200
G0 X0.000 Y39.295
G0 X0.000 F200
G1 X0.587 Y39.295 Z0.000 F1000
G0 X42.955 Y87.730
G1 X42.955 Y87.730 Z0.000 F1000

; --- COLOR CHANGE: YELLOW ---
G0 Z8.000
G0 X109.000 Y0.000
G1 Z0.000 F800
G1 Z5.000 F800
; Smart Wipe -> Angle 135.3 deg
G0 X104.732 Y4.217
G0 Z5.000
G1 X94.773 Y14.057 F600
G0 F1000
G0 Z8.000
G0 X43.455 F200
G0 Y89.330 F200
G0 X1.566 Y72.074
G0 X1.066 F200
G1 X1.663 Y72.074 Z0.000 F1000
G0 X81.213 Y38.317
G1 X81.213 Y38.317 Z0.000 F1000
G0 X81.713 F200
G0 Y36.717 F200
G0 X10.372 Y55.930
G0 X9.872 F200
G1 X10.568 Y55.930 Z0.000 F1000

; --- COLOR CHANGE: BLACK ---
G0 Z8.000
G0 X140.000 Y0.000
G1 Z0.000 F800
G1 Z5.000 F800
; Smart Wipe -> Angle 142.5 deg
G0 X137.237 Y3.649
G0 Z5.000
G1 X126.124 Y12.163 F600
G0 F1000
G0 Z8.000
G0 X75.734 Y66.693
G1 X76.419 Y66.693 Z0.000 F1000

; --- COLOR CHANGE: YELLOW ---
G0 Z8.000
G0 X109.000 Y0.000
G1 Z0.000 F800
G1 Z5.000 F800
; Smart Wipe -> Angle 101.1 deg
G0 X107.847 Y5.888
G0 Z5.000
G1 X105.155 Y19.627 F600
G0 F1000
G0 Z8.000
G0 X76.919 F200
G0 X68.200 Y102.407
G0 X67.700 F200
G1 X71.037 Y102.407 Z0.000 F1000

; --- COLOR CHANGE: CYAN ---
G0 Z8.000
G0 X17.000 Y0.000
G1 Z0.000 F800
G1 Z5.000 F800
; Smart Wipe -> Angle 88.6 deg
G0 X17.149 Y5.998
G0 Z5.000
G1 X17.495 Y19.994 F600
G0 F1000
G0 Z8.000
G0 X71.537 F200
G0 Y104.007 F200
G0 X3.718 Y35.871
G0 X3.218 F200
G1 X13.992 Y35.871 Z0.000 F1000

; --- COLOR CHANGE: BLACK ---
G0 Z8.000
G0 X140.000 Y0.000
G1 Z0.000 F800
G1 Z5.000 F800
; Smart Wipe -> Angle 144.5 deg
G0 X137.117 Y3.487
G0 Z5.000
G1 X125.725 Y11.624 F600
G0 F1000
G0 Z8.000
G0 X14.492 F200
G0 Y34.271 F200
G0 X8.219 Y93.112
G1 X8.219 Y93.112 Z0.000 F1000

; --- COLOR CHANGE: YELLOW ---
G0 Z8.000
G0 X109.000 Y0.000
G1 Z0.000 F800
G1 Z5.000 F800
; Smart Wipe -> Angle 129.4 deg
G0 X105.190 Y4.635
G0 Z5.000
G1 X96.300 Y15.451 F600
G0 F1000
G0 Z8.000
G0 X7.719 F200
G0 Y94.712 F200
G0 X56.849 Y86.751
G1 X62.720 Y86.751 Z0.000 F1000

; --- COLOR CHANGE: CYAN ---
G0 Z8.000
G0 X17.000 Y0.000
G1 Z0.000 F800
G1 Z5.000 F800
; Smart Wipe -> Angle 67.8 deg
G0 X19.267 Y5.555
G0 Z5.000
G1 X24.556 Y18.518 F600
G0 F1000
G0 Z8.000
G0 X63.220 F200
G0 X36.693 Y78.434
G0 X36.193 F200
G1 X37.769 Y78.434 Z0.000 F1000

; --- COLOR CHANGE: BLACK ---
G0 Z8.000
G0 X140.000 Y0.000
G1 Z0.000 F800
G1 Z5.000 F800
; Smart Wipe -> Angle 134.3 deg
G0 X137.810 Y4.295
G0 Z5.000
G1 X128.035 Y14.317 F600
G0 F1000
G0 Z8.000
G0 X78.669 Y69.628
G1 X78.865 Y69.628 Z0.000 F1000
G0 X79.365 F200
G0 X40.411 Y62.290
G0 X39.911 F200
G1 X40.607 Y62.290 Z0.000 F1000

; --- COLOR CHANGE: YELLOW ---
G0 Z8.000
G0 X109.000 Y0.000
G1 Z0.000 F800
G1 Z5.000 F800
; Smart Wipe -> Angle 97.5 deg
G0 X108.216 Y5.949
G0 Z5.000
G1 X106.387 Y19.829 F600
G0 F1000
G0 Z8.000
G0 X98.630 Y35.382
G1 X99.902 Y35.382 Z0.000 F1000

; --- COLOR CHANGE: BLACK ---
G0 Z8.000
G0 X140.000 Y0.000
G1 Z0.000 F800
G1 Z5.000 F800
; Smart Wipe -> Angle 120.5 deg
G0 X138.958 Y5.172
G0 Z5.000
G1 X131.861 Y17.240 F600
G0 F1000
G0 Z8.000
G0 X100.402 F200
G0 Y33.782 F200
G0 X98.141 Y69.139
G0 X97.641 F200
G1 X98.337 Y69.139 Z0.000 F1000

; --- COLOR CHANGE: MAGENTA ---
G0 Z8.000
G0 X63.000 Y0.000
G1 Z0.000 F800
G1 Z5.000 F800
; Smart Wipe -> Angle 67.9 deg
G0 X65.254 Y5.561
G0 Z5.000
G1 X70.513 Y18.535 F600
G0 F1000
G0 Z8.000
G0 X98.837 F200
G0 Y70.739 F200
G0 X70.352 Y38.317
G1 X70.352 Y38.317 Z0.000 F1000

; --- COLOR CHANGE: BLACK ---
G0 Z8.000
G0 X140.000 Y0.000
G1 Z0.000 F800
G1 Z5.000 F800
; Smart Wipe -> Angle 138.0 deg
G0 X137.544 Y4.018
G0 Z5.000
G1 X127.147 Y13.394 F600
G0 F1000
G0 Z8.000
G0 Y36.717 F200
G0 X31.507 Y63.757
G0 X31.007 F200
G1 X35.225 Y63.757 Z0.000 F1000

; --- COLOR CHANGE: CYAN ---
G0 Z8.000
G0 X17.000 Y0.000
G1 Z0.000 F800
G1 Z5.000 F800
; Smart Wipe -> Angle 39.4 deg
G0 X21.634 Y3.811
G0 Z5.000
G1 X32.448 Y12.703 F600
G0 F1000
G0 Z8.000
G0 X94.031 Y65.225
G1 X94.031 Y65.225 Z0.000 F1000

; --- COLOR CHANGE: BLACK ---
G0 Z8.000
G0 X140.000 Y0.000
G1 Z0.000 F800
G1 Z5.000 F800
; Smart Wipe -> Angle 144.9 deg
G0 X137.091 Y3.450
G0 Z5.000
G1 X125.637 Y11.500 F600
G0 F1000
G0 Z8.000
G0 X94.531 F200
G0 Y66.825 F200
G0 X90.900 Y40.274
G0 X90.400 F200
G1 X92.466 Y40.274 Z0.000 F1000
G0 X92.966 F200
G0 Y38.674 F200
G0 X10.470 Y63.268
G1 X10.470 Y63.268 Z0.000 F1000

; --- COLOR CHANGE: CYAN ---
G0 Z8.000
G0 X17.000 Y0.000
G1 Z0.000 F800
G1 Z5.000 F800
; Smart Wipe -> Angle 41.5 deg
G0 X21.497 Y3.972
G0 Z5.000
G1 X31.989 Y13.241 F600
G0 F1000
G0 Z8.000
G0 X9.970 F200
G0 Y64.868 F200
G0 X69.472 Y41.252
G1 X69.472 Y41.252 Z0.000 F1000

; --- COLOR CHANGE: YELLOW ---
G0 Z8.000
G0 X109.000 Y0.000
G1 Z0.000 F800
G1 Z5.000 F800
; Smart Wipe -> Angle 139.9 deg
G0 X104.411 Y3.866
G0 Z5.000
G1 X93.704 Y12.886 F600
G0 F1000
G0 Z8.000
G0 X69.972 F200
G0 X63.699 Y36.849
G0 X63.199 F200
G1 X63.894 Y36.849 Z0.000 F1000

; --- COLOR CHANGE: CYAN ---
G0 Z8.000
G0 X17.000 Y0.000
G1 Z0.000 F800
G1 Z5.000 F800
; Smart Wipe -> Angle 57.1 deg
G0 X20.258 Y5.038
G0 Z5.000
G1 X27.862 Y16.794 F600
G0 F1000
G0 Z8.000
G0 Y35.249 F200
G0 X72.994 Y64.247
G1 X72.994 Y64.247 Z0.000 F1000

; --- COLOR CHANGE: BLACK ---
G0 Z8.000
G0 X140.000 Y0.000
G1 Z0.000 F800
G1 Z5.000 F800
; Smart Wipe -> Angle 154.7 deg
G0 X136.576 Y2.565
G0 Z5.000
G1 X123.920 Y8.550 F600
G0 F1000
G0 Z8.000
G0 X73.494 F200
G0 X8.806 Y89.687
G0 X8.306 F200
G1 X9.198 Y89.687 Z0.000 F1000
G0 Y91.287 F200
G0 X70.939 Y63.268
G1 X71.526 Y63.268 Z0.000 F1000
G0 X72.026 F200
G0 Y61.668 F200
G0 X11.350 Y67.671
G0 X10.850 F200
G1 X12.916 Y67.671 Z0.000 F1000

; --- COLOR CHANGE: CYAN ---
G0 Z8.000
G0 X17.000 Y0.000
G1 Z0.000 F800
G1 Z5.000 F800
; Smart Wipe -> Angle 64.7 deg
G0 X19.564 Y5.425
G0 Z5.000
G1 X25.547 Y18.082 F600
G0 F1000
G0 Z8.000
G0 X79.550 Y107.299
G1 X86.888 Y107.299 Z0.000 F1000

; --- COLOR CHANGE: YELLOW ---
G0 Z8.000
G0 X109.000 Y0.000
G1 Z0.000 F800
G1 Z5.000 F800
; Smart Wipe -> Angle 144.0 deg
G0 X104.146 Y3.527
G0 Z5.000
G1 X92.820 Y11.757 F600
G0 F1000
G0 Z8.000
G0 X87.388 F200
G0 Y108.899 F200
G0 X33.072 Y54.462
G1 X33.072 Y54.462 Z0.000 F1000

; --- COLOR CHANGE: CYAN ---
G0 Z8.000
G0 X17.000 Y0.000
G1 Z0.000 F800
G1 Z5.000 F800
; Smart Wipe -> Angle 87.8 deg
G0 X17.235 Y5.995
G0 Z5.000
G1 X17.783 Y19.985 F600
G0 F1000
G0 Z8.000
G0 Y52.862 F200
G0 X12.427 Y93.601
G0 X11.927 F200
G1 X13.405 Y93.601 Z0.000 F1000
G0 Y95.201 F200
G0 X27.006 Y76.477
G1 X27.202 Y76.477 Z0.000 F1000

; --- COLOR CHANGE: YELLOW ---
G0 Z8.000
G0 X109.000 Y0.000
G1 Z0.000 F800
G1 Z5.000 F800
; Smart Wipe -> Angle 116.1 deg
G0 X106.357 Y5.387
G0 Z5.000
G1 X100.190 Y17.955 F600
G0 F1000
G0 Z8.000
G0 X51.272 Y75.010
G1 X51.468 Y75.010 Z0.000 F1000

; --- COLOR CHANGE: BLACK ---
G0 Z8.000
G0 X140.000 Y0.000
G1 Z0.000 F800
G1 Z5.000 F800
; Smart Wipe -> Angle 165.8 deg
G0 X136.183 Y1.470
G0 Z5.000
G1 X122.609 Y4.899 F600
G0 F1000
G0 Z8.000
G0 X51.968 F200
G0 X21.526 Y39.295
G1 X21.526 Y39.295 Z0.000 F1000
G0 Y37.695 F200
G0 X19.863 Y65.225
G0 X19.363 F200
G1 X19.961 Y65.225 Z0.000 F1000

; --- COLOR CHANGE: YELLOW ---
G0 Z8.000
G0 X109.000 Y0.000
G1 Z0.000 F800
G1 Z5.000 F800
; Smart Wipe -> Angle 130.2 deg
G0 X105.129 Y4.585
G0 Z5.000
G1 X96.098 Y15.282 F600
G0 F1000
G0 Z8.000
G0 X52.935 Y82.348
G1 X53.033 Y82.348 Z0.000 F1000

; --- COLOR CHANGE: BLACK ---
G0 Z8.000
G0 X140.000 Y0.000
G1 Z0.000 F800
G1 Z5.000 F800
; Smart Wipe -> Angle 138.8 deg
G0 X137.483 Y3.950
G0 Z5.000
G1 X126.944 Y13.165 F600
G0 F1000
G0 Z8.000
G0 X63.503 Y86.262
G1 X64.090 Y86.262 Z0.000 F1000
G0 Y87.862 F200
G0 X76.517 Y71.585
G1 X76.712 Y71.585 Z0.000 F1000

; --- COLOR CHANGE: CYAN ---
G0 Z8.000
G0 X17.000 Y0.000
G1 Z0.000 F800
G1 Z5.000 F800
; Smart Wipe -> Angle 70.9 deg
G0 X18.960 Y5.671
G0 Z5.000
G1 X23.534 Y18.902 F600
G0 F1000
G0 Z8.000
G0 X77.212 F200
G0 X33.366 Y45.166
G0 X32.866 F200
G1 X34.540 Y45.166 Z0.000 F1000
G0 Y43.566 F200
G0 X57.632 Y69.139
G1 X58.415 Y69.139 Z0.000 F1000

; --- COLOR CHANGE: BLACK ---
G0 Z8.000
G0 X140.000 Y0.000
G1 Z0.000 F800
G1 Z5.000 F800
; Smart Wipe -> Angle 145.8 deg
G0 X137.035 Y3.369
G0 Z5.000
G1 X125.451 Y11.230 F600
G0 F1000
G0 Z8.000
G0 X58.915 F200
G0 X49.217 Y69.628
G0 X48.717 F200
G1 X55.871 Y69.628 Z0.000 F1000
G0 Y71.228 F200
G0 X59.589 Y36.360
G1 X59.589 Y36.360 Z0.000 F1000
G0 X60.089 F200
G0 Y34.760 F200
G0 X22.896 Y46.145
G0 X22.396 F200
G1 X23.288 Y46.145 Z0.000 F1000
G0 X23.788 F200
G0 X10.959 Y77.456
G0 X10.459 F200
G1 X11.546 Y77.456 Z0.000 F1000

; --- COLOR CHANGE: YELLOW ---
G0 Z8.000
G0 X109.000 Y0.000
G1 Z0.000 F800
G1 Z5.000 F800
; Smart Wipe -> Angle 147.3 deg
G0 X103.950 Y3.240
G0 Z5.000
G1 X92.167 Y10.801 F600
G0 F1000
G0 Z8.000
G0 Y79.056 F200
G0 X50.978 Y38.317
G1 X51.174 Y38.317 Z0.000 F1000

; --- COLOR CHANGE: BLACK ---
G0 Z8.000
G0 X140.000 Y0.000
G1 Z0.000 F800
G1 Z5.000 F800
; Smart Wipe -> Angle 138.4 deg
G0 X137.512 Y3.982
G0 Z5.000
G1 X127.040 Y13.274 F600
G0 F1000
G0 Z8.000
G0 X51.674 F200
G0 Y36.717 F200
G0 X19.961 Y69.139
G0 X19.461 F200
G1 X21.233 Y69.139 Z0.000 F1000
G0 Y70.739 F200
G0 X98.239 Y34.892
G1 X98.337 Y34.892 Z0.000 F1000

; --- COLOR CHANGE: CYAN ---
G0 Z8.000
G0 X17.000 Y0.000
G1 Z0.000 F800
G1 Z5.000 F800
; Smart Wipe -> Angle 88.7 deg
G0 X17.132 Y5.999
G0 Z5.000
G1 X17.439 Y19.995 F600
G0 F1000
G0 Z8.000
G0 X98.837 F200
G0 Y33.292 F200
G0 X23.875 Y42.231
G0 X23.375 F200
G1 X24.070 Y42.231 Z0.000 F1000
G0 X24.570 F200
G0 Y43.831 F200
G0 X4.795 Y41.252
G0 X4.295 F200
G1 X6.360 Y41.252 Z0.000 F1000

; --- COLOR CHANGE: BLACK ---
G0 Z8.000
G0 X140.000 Y0.000
G1 Z0.000 F800
G1 Z5.000 F800
; Smart Wipe -> Angle 163.0 deg
G0 X136.262 Y1.754
G0 Z5.000
G1 X122.873 Y5.845 F600
G0 F1000
G0 Z8.000
G0 Y39.652 F200
G0 X42.955 Y50.059
G1 X43.249 Y50.059 Z0.000 F1000
G0 X61.057 Y88.219
G1 X61.057 Y88.219 Z0.000 F1000

; --- COLOR CHANGE: CYAN ---
G0 Z8.000
G0 X17.000 Y0.000
G1 Z0.000 F800
G1 Z5.000 F800
; Smart Wipe -> Angle 29.1 deg
G0 X22.245 Y2.914
G0 Z5.000
G1 X34.483 Y9.712 F600
G0 F1000
G0 Z8.000
G0 Y89.819 F200
G0 X89.530 Y41.252
G1 X90.313 Y41.252 Z0.000 F1000

; --- COLOR CHANGE: BLACK ---
G0 Z8.000
G0 X140.000 Y0.000
G1 Z0.000 F800
G1 Z5.000 F800
; Smart Wipe -> Angle 155.2 deg
G0 X136.551 Y2.512
G0 Z5.000
G1 X123.837 Y8.374 F600
G0 F1000
G0 Z8.000
G0 X90.813 F200
G0 Y39.652 F200
G0 X50.294 Y62.290
G0 X49.794 F200
G1 X50.783 Y62.290 Z0.000 F1000
G0 X51.283 F200
G0 X29.354 Y70.117
G0 X28.854 F200
G1 X31.018 Y70.117 Z0.000 F1000

; --- COLOR CHANGE: CYAN ---
G0 Z8.000
G0 X17.000 Y0.000
G1 Z0.000 F800
G1 Z5.000 F800
; Smart Wipe -> Angle 63.2 deg
G0 X19.704 Y5.356
G0 Z5.000
G1 X26.015 Y17.853 F600
G0 F1000
G0 Z8.000
G0 X82.681 Y112.192
G1 X83.170 Y112.192 Z0.000 F1000

; --- COLOR CHANGE: BLACK ---
G0 Z8.000
G0 X140.000 Y0.000
G1 Z0.000 F800
G1 Z5.000 F800
; Smart Wipe -> Angle 155.0 deg
G0 X136.561 Y2.533
G0 Z5.000
G1 X123.870 Y8.445 F600
G0 F1000
G0 Z8.000
G0 X83.670 F200
G0 Y113.792 F200
G0 X41.781 Y48.591
G0 X41.281 F200
G1 X42.172 Y48.591 Z0.000 F1000

; --- COLOR CHANGE: YELLOW ---
G0 Z8.000
G0 X109.000 Y0.000
G1 Z0.000 F800
G1 Z5.000 F800
; Smart Wipe -> Angle 112.3 deg
G0 X106.720 Y5.550
G0 Z5.000
G1 X101.399 Y18.499 F600
G0 F1000
G0 Z8.000
G0 Y46.991 F200
G0 X61.155 Y73.542
G1 X61.350 Y73.542 Z0.000 F1000

; --- COLOR CHANGE: CYAN ---
G0 Z8.000
G0 X17.000 Y0.000
G1 Z0.000 F800
G1 Z5.000 F800
; Smart Wipe -> Angle 79.0 deg
G0 X18.141 Y5.890
G0 Z5.000
G1 X20.804 Y19.635 F600
G0 F1000
G0 Z8.000
G0 X61.850 F200
G0 X14.188 Y94.090
G0 X13.688 F200
G1 X15.362 Y94.090 Z0.000 F1000

; --- COLOR CHANGE: YELLOW ---
G0 Z8.000
G0 X109.000 Y0.000
G1 Z0.000 F800
G1 Z5.000 F800
; Smart Wipe -> Angle 150.4 deg
G0 X103.785 Y2.967
G0 Z5.000
G1 X91.616 Y9.890 F600
G0 F1000
G0 Z8.000
G0 Y95.690 F200
G0 X19.863 Y69.628
G1 X19.961 Y69.628 Z0.000 F1000
G0 Y68.028 F200
G0 X28.082 Y77.456
G1 X29.256 Y77.456 Z0.000 F1000

; --- COLOR CHANGE: BLACK ---
G0 Z8.000
G0 X140.000 Y0.000
G1 Z0.000 F800
G1 Z5.000 F800
; Smart Wipe -> Angle 156.3 deg
G0 X136.505 Y2.410
G0 Z5.000
G1 X123.684 Y8.033 F600
G0 F1000
G0 Z8.000
G0 Y79.056 F200
G0 X32.290 Y42.231
G1 X32.387 Y42.231 Z0.000 F1000

