; Generated by CMYK Pro (V2.2 - Randomization Fix)
G21 ; Millimeters
G90 ; Absolute positioning
G0 Z8.000

; --- COLOR CHANGE: YELLOW ---
G0 Z8.000
G0 X109.000 Y0.000
G1 Z0.000 F800
G1 Z5.000 F800
; Smart Wipe -> Angle 117.5 deg
G0 X106.231 Y5.323
G0 Z5.000
G1 X99.769 Y17.742 F600
G0 F1000
G0 Z8.000
G0 X0.000 F200
G0 Y0.000 F200
G0 Z8.000
G0 X71.037 Y104.853
G1 X71.820 Y104.853 Z0.000 F1000
G0 X72.320 F200
G0 Y106.453 F200
G0 Z8.000
G0 X68.395 Y104.364
G0 X67.895 F200
G1 X69.374 Y104.364 Z0.000 F1000
G0 Z8.000
G0 X69.667 Y104.364
G1 X70.352 Y104.364 Z0.000 F1000
G0 Z8.000
G0 X70.548 Y104.364
G1 X72.309 Y104.364 Z0.000 F1000
G0 X72.809 F200
G0 Z8.000
G0 X68.395 Y103.875
G0 X67.895 F200
G1 X72.896 Y103.875 Z0.000 F1000
G0 X73.396 F200
G0 Z8.000
G0 X68.004 Y103.386
G0 X67.504 F200
G1 X74.266 Y103.386 Z0.000 F1000
G0 Z8.000
G0 X76.321 Y103.386
G1 X77.202 Y103.386 Z0.000 F1000
G0 X77.702 F200
G0 Z8.000
G0 X67.808 Y102.896
G0 X67.308 F200
G1 X68.004 Y102.896 Z0.000 F1000
G0 Z8.000
G0 X68.493 Y102.896
G1 X77.691 Y102.896 Z0.000 F1000
G0 Z8.000
G0 X78.082 Y102.896
G1 X79.354 Y102.896 Z0.000 F1000
G0 X79.854 F200
G0 Z8.000
G0 X68.200 Y102.407
G0 X67.700 F200
G1 X71.037 Y102.407 Z0.000 F1000
G0 Z8.000
G0 X71.331 Y102.407
G1 X79.746 Y102.407 Z0.000 F1000
G0 X80.246 F200
G0 Z8.000
G0 X61.350 Y101.918
G1 X61.350 Y101.918 Z0.000 F1000
G0 X60.850 F200
G0 Z8.000
G0 X68.297 Y101.918
G1 X71.037 Y101.918 Z0.000 F1000
G0 Z8.000
G0 X71.722 Y101.918
G1 X72.701 Y101.918 Z0.000 F1000
G0 Z8.000
G0 X73.288 Y101.918
G1 X73.973 Y101.918 Z0.000 F1000
G0 Z8.000
G0 X74.266 Y101.918
G1 X74.853 Y101.918 Z0.000 F1000
G0 Z8.000
G0 X75.049 Y101.918
G1 X81.115 Y101.918 Z0.000 F1000
G0 Z8.000
G0 X81.800 Y101.918
G1 X82.290 Y101.918 Z0.000 F1000
G0 X82.790 F200
G0 Z8.000
G0 X42.368 Y101.429
G0 X41.868 F200
G1 X42.857 Y101.429 Z0.000 F1000
G0 Z8.000
G0 X60.959 Y101.429
G1 X61.937 Y101.429 Z0.000 F1000
G0 Z8.000
G0 X68.493 Y101.429
G1 X70.254 Y101.429 Z0.000 F1000

; --- COLOR CHANGE: CYAN ---
G0 Z8.000
G0 X17.000 Y0.000
G1 Z0.000 F800
G1 Z5.000 F800
; Smart Wipe -> Angle 88.1 deg
G0 X17.200 Y5.997
G0 Z5.000
G1 X17.665 Y19.989 F600
G0 F1000
G0 Z8.000
G0 X70.754 F200
G0 Y99.829 F200
G0 Z8.000
G0 X15.753 Y102.896
G1 X15.753 Y102.896 Z0.000 F1000
G0 X15.253 F200
G0 Z8.000
G0 X59.198 Y102.896
G1 X59.393 Y102.896 Z0.000 F1000
G0 Z8.000
G0 X60.274 Y102.896
G1 X60.763 Y102.896 Z0.000 F1000
G0 Z8.000
G0 X61.742 Y102.896
G1 X62.133 Y102.896 Z0.000 F1000
G0 X62.633 F200
G0 Y104.496 F200
G0 Z8.000
G0 X0.000 Y102.407
G0 X0.000 F200
G1 X0.391 Y102.407 Z0.000 F1000
G0 Z8.000
G0 X2.055 Y102.407
G1 X10.078 Y102.407 Z0.000 F1000
G0 Z8.000
G0 X10.568 Y102.407
G1 X11.252 Y102.407 Z0.000 F1000
G0 Z8.000
G0 X11.840 Y102.407
G1 X12.427 Y102.407 Z0.000 F1000
G0 Z8.000
G0 X14.384 Y102.407
G1 X14.481 Y102.407 Z0.000 F1000
G0 Z8.000
G0 X60.372 Y102.407
G1 X60.470 Y102.407 Z0.000 F1000
G0 Z8.000
G0 X61.742 Y102.407
G1 X61.840 Y102.407 Z0.000 F1000
G0 Z8.000
G0 X66.830 Y102.407
G1 X66.928 Y102.407 Z0.000 F1000
G0 X67.428 F200
G0 Z8.000
G0 X0.391 Y101.918
G0 X0.000 F200
G1 X0.587 Y101.918 Z0.000 F1000
G0 Z8.000
G0 X51.663 Y101.918
G1 X51.663 Y101.918 Z0.000 F1000
G0 Z8.000
G0 X58.708 Y101.918
G1 X58.708 Y101.918 Z0.000 F1000
G0 Z8.000
G0 X65.264 Y101.918
G1 X65.656 Y101.918 Z0.000 F1000
G0 X66.156 F200
G0 Z8.000
G0 X1.272 Y101.429
G0 X0.772 F200
G1 X1.663 Y101.429 Z0.000 F1000
G0 Z8.000
G0 X51.761 Y101.429
G1 X51.859 Y101.429 Z0.000 F1000
G0 Z8.000
G0 X56.849 Y101.429
G1 X57.730 Y101.429 Z0.000 F1000
G0 Z8.000
G0 X59.295 Y101.429
G1 X59.883 Y101.429 Z0.000 F1000
G0 Z8.000
G0 X64.579 Y101.429
G1 X65.264 Y101.429 Z0.000 F1000
G0 X65.764 F200
G0 Z8.000
G0 X51.859 Y100.939
G0 X51.359 F200
G1 X52.055 Y100.939 Z0.000 F1000
G0 Z8.000
G0 X54.697 Y100.939
G1 X55.088 Y100.939 Z0.000 F1000
G0 Z8.000
G0 X57.534 Y100.939
G1 X57.730 Y100.939 Z0.000 F1000
G0 Z8.000
G0 X57.730 Y100.450
G1 X57.730 Y100.450 Z0.000 F1000
G0 X58.230 F200
G0 Z8.000
G0 X1.272 Y99.961
G0 X0.772 F200
G1 X1.859 Y99.961 Z0.000 F1000
G0 Z8.000
G0 X57.730 Y99.961
G1 X57.828 Y99.961 Z0.000 F1000
G0 X58.328 F200
G0 Z8.000
G0 X0.587 Y98.982
G0 X0.087 F200
G1 X1.076 Y98.982 Z0.000 F1000
G0 Z8.000
G0 X1.272 Y98.493
G1 X1.468 Y98.493 Z0.000 F1000
G0 Z8.000
G0 X4.697 Y98.004
G1 X4.795 Y98.004 Z0.000 F1000
G0 X5.295 F200
G0 Z8.000
G0 X2.153 Y96.536
G0 X1.653 F200
G1 X2.446 Y96.536 Z0.000 F1000
G0 Z8.000
G0 X3.131 Y96.536
G1 X3.327 Y96.536 Z0.000 F1000
G0 Z8.000
G0 X10.078 Y96.536
G1 X10.372 Y96.536 Z0.000 F1000
G0 X10.872 F200
G0 Z8.000
G0 X2.348 Y96.047
G0 X1.848 F200
G1 X3.229 Y96.047 Z0.000 F1000
G0 Z8.000
G0 X10.470 Y96.047
G1 X10.470 Y96.047 Z0.000 F1000
G0 X10.970 F200
G0 Z8.000
G0 X1.468 Y95.558
G0 X0.968 F200
G1 X1.663 Y95.558 Z0.000 F1000
G0 Z8.000
G0 X9.785 Y95.558
G1 X9.980 Y95.558 Z0.000 F1000
G0 Z8.000
G0 X12.622 Y95.558
G1 X12.818 Y95.558 Z0.000 F1000
G0 Z8.000
G0 X26.321 Y95.558
G1 X27.006 Y95.558 Z0.000 F1000
G0 Z8.000
G0 X35.519 Y95.558
G1 X35.714 Y95.558 Z0.000 F1000
G0 Z8.000
G0 X50.881 Y95.558
G1 X50.978 Y95.558 Z0.000 F1000
G0 Z8.000
G0 X51.272 Y95.558
G1 X51.761 Y95.558 Z0.000 F1000
G0 Z8.000
G0 X52.055 Y95.558
G1 X52.250 Y95.558 Z0.000 F1000
G0 Z8.000
G0 X53.033 Y95.558
G1 X54.012 Y95.558 Z0.000 F1000
G0 Z8.000
G0 X54.892 Y95.558
G1 X55.088 Y95.558 Z0.000 F1000
G0 X55.588 F200
G0 Z8.000
G0 X10.959 Y95.068
G0 X10.459 F200
G1 X11.057 Y95.068 Z0.000 F1000
G0 Z8.000
G0 X12.133 Y95.068
G1 X13.209 Y95.068 Z0.000 F1000
G0 Z8.000
G0 X26.223 Y95.068
G1 X28.082 Y95.068 Z0.000 F1000
G0 Z8.000
G0 X35.616 Y95.068
G1 X35.714 Y95.068 Z0.000 F1000
G0 Z8.000
G0 X49.511 Y95.068
G1 X50.391 Y95.068 Z0.000 F1000
G0 Z8.000
G0 X50.685 Y95.068
G1 X52.642 Y95.068 Z0.000 F1000
G0 Z8.000
G0 X52.838 Y95.068
G1 X53.327 Y95.068 Z0.000 F1000
G0 Z8.000
G0 X53.620 Y95.068
G1 X54.697 Y95.068 Z0.000 F1000
G0 Z8.000
G0 X56.360 Y95.068
G1 X57.534 Y95.068 Z0.000 F1000
G0 X58.034 F200
G0 Z8.000
G0 X9.687 Y94.579
G0 X9.187 F200
G1 X9.980 Y94.579 Z0.000 F1000
G0 Z8.000
G0 X10.763 Y94.579
G1 X10.861 Y94.579 Z0.000 F1000
G0 Z8.000
G0 X14.090 Y94.579
G1 X14.188 Y94.579 Z0.000 F1000
G0 Z8.000
G0 X19.178 Y94.579
G1 X19.472 Y94.579 Z0.000 F1000
G0 Z8.000
G0 X19.667 Y94.579
G1 X21.429 Y94.579 Z0.000 F1000
G0 Z8.000
G0 X24.266 Y94.579
G1 X24.266 Y94.579 Z0.000 F1000
G0 Z8.000
G0 X26.223 Y94.579
G1 X29.648 Y94.579 Z0.000 F1000
G0 Z8.000
G0 X30.137 Y94.579
G1 X31.409 Y94.579 Z0.000 F1000
G0 Z8.000
G0 X49.217 Y94.579
G1 X50.881 Y94.579 Z0.000 F1000
G0 Z8.000
G0 X51.468 Y94.579
G1 X53.914 Y94.579 Z0.000 F1000
G0 Z8.000
G0 X54.403 Y94.579
G1 X54.697 Y94.579 Z0.000 F1000
G0 Z8.000
G0 X55.186 Y94.579
G1 X56.360 Y94.579 Z0.000 F1000
G0 Z8.000
G0 X56.751 Y94.579
G1 X57.241 Y94.579 Z0.000 F1000
G0 Z8.000
G0 X57.632 Y94.579
G1 X58.513 Y94.579 Z0.000 F1000
G0 Z8.000
G0 X58.708 Y94.579
G1 X59.100 Y94.579 Z0.000 F1000
G0 Z8.000
G0 X59.589 Y94.579
G1 X59.883 Y94.579 Z0.000 F1000
G0 Z8.000
G0 X61.155 Y94.579
G1 X61.252 Y94.579 Z0.000 F1000
G0 Z8.000
G0 X62.427 Y94.579
G1 X62.427 Y94.579 Z0.000 F1000
G0 Z8.000
G0 X65.949 Y94.579
G1 X66.341 Y94.579 Z0.000 F1000
G0 Z8.000
G0 X66.830 Y94.579
G1 X67.710 Y94.579 Z0.000 F1000
G0 X68.210 F200
G0 Z8.000
G0 X9.491 Y94.090
G0 X8.991 F200
G1 X9.980 Y94.090 Z0.000 F1000
G0 Z8.000
G0 X10.959 Y94.090
G1 X11.155 Y94.090 Z0.000 F1000
G0 Z8.000
G0 X11.546 Y94.090
G1 X11.546 Y94.090 Z0.000 F1000
G0 Z8.000
G0 X11.937 Y94.090
G1 X12.133 Y94.090 Z0.000 F1000
G0 Z8.000
G0 X14.188 Y94.090
G1 X15.362 Y94.090 Z0.000 F1000
G0 Z8.000
G0 X16.634 Y94.090
G1 X16.634 Y94.090 Z0.000 F1000
G0 Z8.000
G0 X17.613 Y94.090
G1 X19.374 Y94.090 Z0.000 F1000
G0 Z8.000
G0 X19.569 Y94.090
G1 X21.722 Y94.090 Z0.000 F1000

; --- COLOR CHANGE: BLACK ---
G0 Z8.000
G0 X140.000 Y0.000
G1 Z0.000 F800
G1 Z5.000 F800
; Smart Wipe -> Angle 148.1 deg
G0 X136.906 Y3.170
G0 Z5.000
G1 X125.020 Y10.567 F600
G0 F1000
G0 Z8.000
G0 Z8.000
G0 X30.431 Y62.290
G1 X30.528 Y62.290 Z0.000 F1000
G0 Z8.000
G0 X31.996 Y62.290
G1 X32.681 Y62.290 Z0.000 F1000
G0 Z8.000
G0 X32.975 Y62.290
G1 X33.953 Y62.290 Z0.000 F1000
G0 Z8.000
G0 X40.411 Y62.290
G1 X40.607 Y62.290 Z0.000 F1000
G0 Z8.000
G0 X42.172 Y62.290
G1 X42.466 Y62.290 Z0.000 F1000
G0 Z8.000
G0 X43.836 Y62.290
G1 X44.031 Y62.290 Z0.000 F1000
G0 Z8.000
G0 X45.205 Y62.290
G1 X45.988 Y62.290 Z0.000 F1000
G0 Z8.000
G0 X47.260 Y62.290
G1 X47.358 Y62.290 Z0.000 F1000
G0 Z8.000
G0 X48.924 Y62.290
G1 X49.119 Y62.290 Z0.000 F1000
G0 Z8.000
G0 X50.294 Y62.290
G1 X50.783 Y62.290 Z0.000 F1000
G0 Z8.000
G0 X51.859 Y62.290
G1 X53.033 Y62.290 Z0.000 F1000
G0 Z8.000
G0 X54.207 Y62.290
G1 X54.501 Y62.290 Z0.000 F1000
G0 Z8.000
G0 X55.675 Y62.290
G1 X55.871 Y62.290 Z0.000 F1000
G0 Z8.000
G0 X56.849 Y62.290
G1 X58.611 Y62.290 Z0.000 F1000
G0 Z8.000
G0 X59.980 Y62.290
G1 X61.742 Y62.290 Z0.000 F1000
G0 Z8.000
G0 X63.503 Y62.290
G1 X63.601 Y62.290 Z0.000 F1000
G0 Z8.000
G0 X63.992 Y62.290
G1 X64.090 Y62.290 Z0.000 F1000
G0 Z8.000
G0 X64.873 Y62.290
G1 X65.949 Y62.290 Z0.000 F1000
G0 Z8.000
G0 X66.830 Y62.290
G1 X67.025 Y62.290 Z0.000 F1000
G0 Z8.000
G0 X67.613 Y62.290
G1 X67.613 Y62.290 Z0.000 F1000
G0 Z8.000
G0 X70.744 Y62.290
G1 X71.526 Y62.290 Z0.000 F1000
G0 X72.026 F200
G0 Z8.000
G0 X5.186 Y61.800
G1 X5.186 Y61.800 Z0.000 F1000
G0 X4.686 F200
G0 Z8.000
G0 X10.763 Y61.800
G1 X10.861 Y61.800 Z0.000 F1000
G0 Z8.000
G0 X11.155 Y61.800
G1 X11.252 Y61.800 Z0.000 F1000
G0 Z8.000
G0 X12.622 Y61.800
G1 X12.622 Y61.800 Z0.000 F1000
G0 Z8.000
G0 X13.014 Y61.800
G1 X13.112 Y61.800 Z0.000 F1000
G0 Z8.000
G0 X16.047 Y61.800
G1 X16.145 Y61.800 Z0.000 F1000
G0 Z8.000
G0 X16.732 Y61.800
G1 X16.830 Y61.800 Z0.000 F1000
G0 Z8.000
G0 X23.190 Y61.800
G1 X23.190 Y61.800 Z0.000 F1000
G0 Z8.000
G0 X26.712 Y61.800
G1 X26.908 Y61.800 Z0.000 F1000
G0 Z8.000
G0 X38.258 Y61.800
G1 X38.552 Y61.800 Z0.000 F1000
G0 Z8.000
G0 X42.172 Y61.800
G1 X42.172 Y61.800 Z0.000 F1000
G0 Z8.000
G0 X43.738 Y61.800
G1 X43.738 Y61.800 Z0.000 F1000
G0 Z8.000
G0 X45.108 Y61.800
G1 X45.303 Y61.800 Z0.000 F1000
G0 Z8.000
G0 X45.793 Y61.800
G1 X45.988 Y61.800 Z0.000 F1000
G0 Z8.000
G0 X47.260 Y61.800
G1 X47.554 Y61.800 Z0.000 F1000
G0 Z8.000
G0 X47.847 Y61.800
G1 X47.847 Y61.800 Z0.000 F1000
G0 Z8.000
G0 X49.119 Y61.800
G1 X49.119 Y61.800 Z0.000 F1000
G0 Z8.000
G0 X50.294 Y61.800
G1 X50.881 Y61.800 Z0.000 F1000
G0 Z8.000
G0 X51.957 Y61.800
G1 X53.131 Y61.800 Z0.000 F1000
G0 Z8.000
G0 X54.110 Y61.800
G1 X54.501 Y61.800 Z0.000 F1000
G0 Z8.000
G0 X70.744 Y61.800
G1 X70.939 Y61.800 Z0.000 F1000
G0 Z8.000
G0 X72.114 Y61.800
G1 X72.211 Y61.800 Z0.000 F1000
G0 X72.711 F200
G0 Z8.000
G0 X3.131 Y61.311
G0 X2.631 F200
G1 X3.229 Y61.311 Z0.000 F1000
G0 Z8.000
G0 X3.718 Y61.311
G1 X3.718 Y61.311 Z0.000 F1000
G0 Z8.000
G0 X5.088 Y61.311
G1 X5.186 Y61.311 Z0.000 F1000
G0 Z8.000
G0 X7.632 Y61.311
G1 X7.632 Y61.311 Z0.000 F1000
G0 Z8.000
G0 X14.677 Y61.311
G1 X14.677 Y61.311 Z0.000 F1000
G0 Z8.000
G0 X16.830 Y61.311
G1 X16.928 Y61.311 Z0.000 F1000
G0 Z8.000
G0 X17.710 Y61.311
G1 X17.808 Y61.311 Z0.000 F1000
G0 Z8.000
G0 X26.614 Y61.311
G1 X26.810 Y61.311 Z0.000 F1000
G0 Z8.000
G0 X37.671 Y61.311
G1 X37.769 Y61.311 Z0.000 F1000
G0 Z8.000
G0 X39.922 Y61.311
G1 X40.020 Y61.311 Z0.000 F1000
G0 Z8.000
G0 X47.652 Y61.311
G1 X47.652 Y61.311 Z0.000 F1000
G0 Z8.000
G0 X50.783 Y61.311
G1 X50.881 Y61.311 Z0.000 F1000
G0 Z8.000
G0 X68.885 Y61.311
G1 X69.080 Y61.311 Z0.000 F1000
G0 Z8.000
G0 X72.016 Y61.311
G1 X72.114 Y61.311 Z0.000 F1000
G0 Z8.000
G0 X72.309 Y61.311
G1 X72.505 Y61.311 Z0.000 F1000
G0 X73.005 F200
G0 Z8.000
G0 X0.587 Y60.822
G0 X0.087 F200
G1 X0.685 Y60.822 Z0.000 F1000
G0 Z8.000
G0 X3.816 Y60.822
G1 X3.914 Y60.822 Z0.000 F1000
G0 Z8.000
G0 X5.088 Y60.822
G1 X5.088 Y60.822 Z0.000 F1000
G0 Z8.000
G0 X6.556 Y60.822
G1 X6.654 Y60.822 Z0.000 F1000
G0 Z8.000
G0 X6.947 Y60.822
G1 X6.947 Y60.822 Z0.000 F1000
G0 Z8.000
G0 X8.121 Y60.822
G1 X8.513 Y60.822 Z0.000 F1000
G0 Z8.000
G0 X8.904 Y60.822
G1 X9.100 Y60.822 Z0.000 F1000
G0 Z8.000
G0 X10.470 Y60.822
G1 X10.470 Y60.822 Z0.000 F1000
G0 Z8.000
G0 X12.720 Y60.822
G1 X12.818 Y60.822 Z0.000 F1000
G0 Z8.000
G0 X13.307 Y60.822
G1 X13.601 Y60.822 Z0.000 F1000
G0 Z8.000
G0 X13.894 Y60.822
G1 X14.384 Y60.822 Z0.000 F1000
G0 Z8.000
G0 X14.873 Y60.822
G1 X15.166 Y60.822 Z0.000 F1000
G0 Z8.000
G0 X16.732 Y60.822
G1 X17.613 Y60.822 Z0.000 F1000
G0 Z8.000
G0 X18.297 Y60.822
G1 X18.787 Y60.822 Z0.000 F1000
G0 Z8.000
G0 X22.114 Y60.822
G1 X22.211 Y60.822 Z0.000 F1000
G0 Z8.000
G0 X26.712 Y60.822
G1 X26.810 Y60.822 Z0.000 F1000
G0 Z8.000
G0 X27.593 Y60.822
G1 X27.789 Y60.822 Z0.000 F1000
G0 Z8.000
G0 X36.693 Y60.822
G1 X36.693 Y60.822 Z0.000 F1000
G0 Z8.000
G0 X37.182 Y60.822
G1 X37.378 Y60.822 Z0.000 F1000
G0 Z8.000
G0 X40.020 Y60.822
G1 X40.313 Y60.822 Z0.000 F1000
G0 Z8.000
G0 X40.900 Y60.822
G1 X41.683 Y60.822 Z0.000 F1000
G0 Z8.000
G0 X72.309 Y60.822
G1 X72.309 Y60.822 Z0.000 F1000
G0 Z8.000
G0 X72.701 Y60.822
G1 X72.701 Y60.822 Z0.000 F1000
G0 X73.201 F200
G0 Z8.000
G0 X9.393 Y60.333
G1 X9.393 Y60.333 Z0.000 F1000
G0 X8.893 F200
G0 Z8.000
G0 X11.350 Y60.333
G1 X11.546 Y60.333 Z0.000 F1000
G0 Z8.000
G0 X14.188 Y60.333
G1 X14.286 Y60.333 Z0.000 F1000
G0 Z8.000
G0 X17.123 Y60.333
G1 X17.515 Y60.333 Z0.000 F1000
G0 Z8.000
G0 X26.712 Y60.333
G1 X26.908 Y60.333 Z0.000 F1000
G0 Z8.000
G0 X27.397 Y60.333
G1 X27.397 Y60.333 Z0.000 F1000
G0 Z8.000
G0 X45.597 Y60.333
G1 X45.695 Y60.333 Z0.000 F1000
G0 Z8.000
G0 X55.284 Y60.333
G1 X55.577 Y60.333 Z0.000 F1000
G0 Z8.000
G0 X56.849 Y60.333
G1 X56.849 Y60.333 Z0.000 F1000
G0 X57.349 F200
G0 Z8.000
G0 X3.914 Y59.843
G0 X3.414 F200
G1 X4.110 Y59.843 Z0.000 F1000
G0 Z8.000
G0 X70.059 Y59.843
G1 X70.157 Y59.843 Z0.000 F1000
G0 Z8.000
G0 X70.744 Y59.843
G1 X70.841 Y59.843 Z0.000 F1000
G0 Z8.000
G0 X71.429 Y59.843
G1 X71.624 Y59.843 Z0.000 F1000
G0 Z8.000
G0 X72.798 Y59.843
G1 X72.798 Y59.843 Z0.000 F1000
G0 Z8.000
G0 X73.581 Y59.843
G1 X73.679 Y59.843 Z0.000 F1000
G0 Z8.000
G0 X79.648 Y59.354
G1 X79.843 Y59.354 Z0.000 F1000
G0 Z8.000
G0 X80.137 Y59.354
G1 X80.333 Y59.354 Z0.000 F1000
G0 X80.833 F200
G0 Z8.000
G0 X24.951 Y58.865
G1 X24.951 Y58.865 Z0.000 F1000
G0 X24.451 F200
G0 Z8.000
G0 X78.571 Y58.865
G1 X78.571 Y58.865 Z0.000 F1000
G0 Z8.000
G0 X79.746 Y58.865
G1 X79.746 Y58.865 Z0.000 F1000
G0 Z8.000
G0 X80.626 Y58.865
G1 X80.724 Y58.865 Z0.000 F1000
G0 Z8.000
G0 X90.313 Y58.865
G1 X90.313 Y58.865 Z0.000 F1000
G0 X90.813 F200
G0 Z8.000
G0 X19.472 Y58.376
G1 X19.472 Y58.376 Z0.000 F1000
G0 X18.972 F200
G0 Z8.000
G0 X36.888 Y58.376
G1 X36.986 Y58.376 Z0.000 F1000
G0 X37.486 F200
G0 Z8.000
G0 X9.295 Y57.886
G1 X9.295 Y57.886 Z0.000 F1000
G0 X8.795 F200
G0 Z8.000
G0 X23.875 Y57.886
G1 X24.560 Y57.886 Z0.000 F1000
G0 X25.060 F200
G0 Z8.000
G0 X2.838 Y57.397
G0 X2.338 F200
G1 X2.935 Y57.397 Z0.000 F1000
G0 Z8.000
G0 X23.092 Y57.397
G1 X23.190 Y57.397 Z0.000 F1000
G0 Z8.000
G0 X45.108 Y55.930
G1 X45.108 Y55.930 Z0.000 F1000
G0 X45.608 F200
G0 Z8.000
G0 X41.683 Y55.440
G1 X41.683 Y55.440 Z0.000 F1000
G0 X41.183 F200
G0 Z8.000
G0 X86.008 Y55.440
G1 X86.204 Y55.440 Z0.000 F1000
G0 Z8.000
G0 X87.280 Y55.440
G1 X87.476 Y55.440 Z0.000 F1000
G0 Z8.000
G0 X89.530 Y55.440
G1 X89.726 Y55.440 Z0.000 F1000
G0 Z8.000
G0 X98.630 Y55.440
G1 X98.630 Y55.440 Z0.000 F1000
G0 X99.130 F200
G0 Z8.000
G0 X64.286 Y54.951
G0 X63.786 F200
G1 X64.384 Y54.951 Z0.000 F1000
G0 Z8.000
G0 X86.301 Y54.951
G1 X86.301 Y54.951 Z0.000 F1000
G0 Z8.000
G0 X89.922 Y54.951
G1 X89.922 Y54.951 Z0.000 F1000
G0 Z8.000
G0 X90.607 Y54.951
G1 X90.802 Y54.951 Z0.000 F1000
G0 Z8.000
G0 X92.759 Y54.951
G1 X93.151 Y54.951 Z0.000 F1000
G0 Z8.000
G0 X93.738 Y54.951
G1 X93.738 Y54.951 Z0.000 F1000
G0 Z8.000
G0 X94.423 Y54.951
G1 X94.814 Y54.951 Z0.000 F1000
G0 Z8.000
G0 X95.010 Y54.951
G1 X95.205 Y54.951 Z0.000 F1000
G0 Z8.000
G0 X95.597 Y54.951
G1 X95.597 Y54.951 Z0.000 F1000
G0 X96.097 F200
G0 Z8.000
G0 X64.481 Y54.462
G1 X64.481 Y54.462 Z0.000 F1000
G0 X63.981 F200
G0 Z8.000
G0 X81.409 Y54.462
G1 X81.409 Y54.462 Z0.000 F1000
G0 Z8.000
G0 X90.117 Y54.462
G1 X90.117 Y54.462 Z0.000 F1000
G0 Z8.000
G0 X90.705 Y54.462
G1 X90.705 Y54.462 Z0.000 F1000
G0 Z8.000
G0 X94.521 Y54.462
