; Generated by CMYK Pro (V2.2 - Randomization Fix)
G21 ; Millimeters
G90 ; Absolute positioning
G0 Z8.000

; --- COLOR CHANGE: BLACK ---
G0 Z8.000
G0 X142.000 Y0.000
G1 Z0.000 F800
G1 Z5.000 F800
; Smart Wipe -> Angle 146.4 deg
G0 X133.675 Y5.540
G0 Z5.000
G1 X133.675 Y5.540 F600
G0 F1000
G0 Z8.000
G0 X0.000 F200
G0 Y0.000 F200
G0 Z8.000
G0 X3.718 Y92.133
G1 X3.718 Y92.133 Z0.000 F1000
G0 Z8.000
G0 X3.914 Y92.133
G1 X3.914 Y92.133 Z0.000 F1000
G0 Z8.000
G0 X8.806 Y92.133
G1 X8.904 Y92.133 Z0.000 F1000
G0 Z8.000
G0 X9.198 Y92.133
G1 X11.937 Y92.133 Z0.000 F1000
G0 Z8.000
G0 X31.409 Y92.133
G1 X54.599 Y92.133 Z0.000 F1000
G0 Z8.000
G0 X55.382 Y92.133
G1 X99.902 Y92.133 Z0.000 F1000
G0 X100.402 F200
G0 Y93.733 F200
G0 Z8.000
G0 X0.000 Y82.348
G0 X0.000 F200
G1 X9.002 Y82.348 Z0.000 F1000
G0 Z8.000
G0 X10.274 Y82.348
G1 X12.231 Y82.348 Z0.000 F1000
G0 Z8.000
G0 X13.307 Y82.348
G1 X14.090 Y82.348 Z0.000 F1000
G0 Z8.000
G0 X15.068 Y82.348
G1 X30.626 Y82.348 Z0.000 F1000
G0 Z8.000
G0 X39.824 Y82.348
G1 X45.793 Y82.348 Z0.000 F1000
G0 Z8.000
G0 X46.967 Y82.348
G1 X47.847 Y82.348 Z0.000 F1000
G0 Z8.000
G0 X48.141 Y82.348
G1 X48.337 Y82.348 Z0.000 F1000
G0 Z8.000
G0 X48.630 Y82.348
G1 X49.315 Y82.348 Z0.000 F1000
G0 Z8.000
G0 X49.706 Y82.348
G1 X49.706 Y82.348 Z0.000 F1000
G0 Z8.000
G0 X52.642 Y82.348
G1 X53.914 Y82.348 Z0.000 F1000
G0 Z8.000
G0 X54.305 Y82.348
G1 X56.360 Y82.348 Z0.000 F1000
G0 Z8.000
G0 X57.926 Y82.348
G1 X58.023 Y82.348 Z0.000 F1000
G0 Z8.000
G0 X58.611 Y82.348
G1 X58.611 Y82.348 Z0.000 F1000
G0 Z8.000
G0 X59.491 Y82.348
G1 X99.902 Y82.348 Z0.000 F1000
G0 X100.402 F200
G0 Z8.000
G0 X17.123 Y72.564
G0 X16.623 F200
G1 X28.474 Y72.564 Z0.000 F1000
G0 Z8.000
G0 X29.354 Y72.564
G1 X29.354 Y72.564 Z0.000 F1000
G0 Z8.000
G0 X30.235 Y72.564
G1 X30.431 Y72.564 Z0.000 F1000
G0 Z8.000
G0 X34.540 Y72.564
G1 X34.540 Y72.564 Z0.000 F1000
G0 Z8.000
G0 X36.106 Y72.564
G1 X36.204 Y72.564 Z0.000 F1000
G0 Z8.000
G0 X36.693 Y72.564
G1 X36.986 Y72.564 Z0.000 F1000
G0 Z8.000
G0 X40.313 Y72.564
G1 X40.705 Y72.564 Z0.000 F1000
G0 Z8.000
G0 X43.346 Y72.564
G1 X45.597 Y72.564 Z0.000 F1000
G0 Z8.000
G0 X48.630 Y72.564
G1 X49.511 Y72.564 Z0.000 F1000
G0 Z8.000
G0 X50.000 Y72.564
G1 X50.196 Y72.564 Z0.000 F1000
G0 Z8.000
G0 X50.685 Y72.564
G1 X53.523 Y72.564 Z0.000 F1000
G0 Z8.000
G0 X60.470 Y72.564
G1 X65.460 Y72.564 Z0.000 F1000
G0 Z8.000
G0 X65.949 Y72.564
G1 X68.004 Y72.564 Z0.000 F1000
G0 Z8.000
G0 X68.200 Y72.564
G1 X68.591 Y72.564 Z0.000 F1000
G0 Z8.000
G0 X68.885 Y72.564
G1 X70.841 Y72.564 Z0.000 F1000
G0 Z8.000
G0 X71.624 Y72.564
G1 X74.755 Y72.564 Z0.000 F1000
G0 Z8.000
G0 X75.049 Y72.564
G1 X78.571 Y72.564 Z0.000 F1000
G0 Z8.000
G0 X80.235 Y72.564
G1 X80.235 Y72.564 Z0.000 F1000
G0 Z8.000
G0 X80.528 Y72.564
G1 X80.528 Y72.564 Z0.000 F1000
G0 Z8.000
G0 X88.845 Y72.564
G1 X88.943 Y72.564 Z0.000 F1000
G0 X89.443 F200
G0 Z8.000
G0 X0.000 Y70.607
G0 X0.000 F200
G1 X2.055 Y70.607 Z0.000 F1000
G0 Z8.000
G0 X2.250 Y70.607
G1 X4.305 Y70.607 Z0.000 F1000
G0 Z8.000
G0 X5.186 Y70.607
G1 X6.164 Y70.607 Z0.000 F1000
G0 Z8.000
G0 X6.849 Y70.607
G1 X6.947 Y70.607 Z0.000 F1000
G0 Z8.000
G0 X7.436 Y70.607
G1 X8.023 Y70.607 Z0.000 F1000
G0 Z8.000
G0 X8.219 Y70.607
G1 X10.078 Y70.607 Z0.000 F1000
G0 Z8.000
G0 X10.470 Y70.607
G1 X11.448 Y70.607 Z0.000 F1000
G0 Z8.000
G0 X13.699 Y70.607
G1 X14.384 Y70.607 Z0.000 F1000
G0 Z8.000
G0 X14.677 Y70.607
G1 X14.873 Y70.607 Z0.000 F1000
G0 Z8.000
G0 X15.851 Y70.607
G1 X15.851 Y70.607 Z0.000 F1000
G0 Z8.000
G0 X16.145 Y70.607
G1 X16.341 Y70.607 Z0.000 F1000
G0 Z8.000
G0 X16.536 Y70.607
G1 X17.710 Y70.607 Z0.000 F1000
G0 Z8.000
G0 X18.004 Y70.607
G1 X20.059 Y70.607 Z0.000 F1000
G0 Z8.000
G0 X21.429 Y70.607
G1 X21.624 Y70.607 Z0.000 F1000
G0 Z8.000
G0 X22.016 Y70.607
G1 X28.767 Y70.607 Z0.000 F1000
G0 Z8.000
G0 X29.648 Y70.607
G1 X29.648 Y70.607 Z0.000 F1000
G0 Z8.000
G0 X30.137 Y70.607
G1 X30.431 Y70.607 Z0.000 F1000
G0 Z8.000
G0 X31.018 Y70.607
G1 X31.115 Y70.607 Z0.000 F1000
G0 Z8.000
G0 X31.311 Y70.607
G1 X31.507 Y70.607 Z0.000 F1000
G0 Z8.000
G0 X32.290 Y70.607
G1 X32.779 Y70.607 Z0.000 F1000
G0 Z8.000
G0 X33.072 Y70.607
G1 X34.051 Y70.607 Z0.000 F1000
G0 Z8.000
G0 X34.344 Y70.607
G1 X38.650 Y70.607 Z0.000 F1000

; --- COLOR CHANGE: MAGENTA ---
G0 Z8.000
G0 X63.000 Y0.000
G1 Z0.000 F800
G1 Z5.000 F800
; Smart Wipe -> Angle 50.7 deg
G0 X69.337 Y7.736
G0 Z5.000
G1 X69.337 Y7.736 F600
G0 F1000
G0 Z8.000
G0 X39.150 F200
G0 Z8.000
G0 X0.000 Y33.425
G0 X0.000 F200
G1 X99.902 Y33.425 Z0.000 F1000

; --- COLOR CHANGE: BLACK ---
G0 Z8.000
G0 X142.000 Y0.000
G1 Z0.000 F800
G1 Z5.000 F800
; Smart Wipe -> Angle 158.8 deg
G0 X132.675 Y3.613
G0 Z5.000
G1 X132.675 Y3.613 F600
G0 F1000
G0 Z8.000
G0 X100.402 F200
G0 Y31.825 F200
G0 Z8.000
G0 X56.849 Y52.994
G0 X56.349 F200
G1 X57.730 Y52.994 Z0.000 F1000
G0 Z8.000
G0 X67.123 Y52.994
G1 X75.930 Y52.994 Z0.000 F1000
G0 Z8.000
G0 X76.419 Y52.994
G1 X77.006 Y52.994 Z0.000 F1000
G0 Z8.000
G0 X79.550 Y52.994
G1 X80.626 Y52.994 Z0.000 F1000
G0 Z8.000
G0 X88.748 Y52.994
G1 X91.683 Y52.994 Z0.000 F1000
G0 Z8.000
G0 X95.303 Y52.994
G1 X95.303 Y52.994 Z0.000 F1000
G0 X95.803 F200
G0 Y54.594 F200
G0 Z8.000
G0 X1.370 Y51.037
G0 X0.870 F200
G1 X25.049 Y51.037 Z0.000 F1000
G0 Z8.000
G0 X26.712 Y51.037
G1 X27.886 Y51.037 Z0.000 F1000
G0 Z8.000
G0 X28.767 Y51.037
G1 X36.595 Y51.037 Z0.000 F1000
G0 Z8.000
G0 X37.378 Y51.037
G1 X38.650 Y51.037 Z0.000 F1000
G0 Z8.000
G0 X39.335 Y51.037
G1 X40.998 Y51.037 Z0.000 F1000
G0 Z8.000
G0 X41.683 Y51.037
G1 X41.683 Y51.037 Z0.000 F1000
G0 Z8.000
G0 X42.466 Y51.037
G1 X42.857 Y51.037 Z0.000 F1000
G0 Z8.000
G0 X43.249 Y51.037
G1 X43.836 Y51.037 Z0.000 F1000
G0 Z8.000
G0 X44.423 Y51.037
G1 X51.663 Y51.037 Z0.000 F1000
G0 Z8.000
G0 X56.849 Y51.037
G1 X56.947 Y51.037 Z0.000 F1000
G0 Z8.000
G0 X65.362 Y51.037
G1 X65.460 Y51.037 Z0.000 F1000
G0 Z8.000
G0 X65.949 Y51.037
G1 X65.949 Y51.037 Z0.000 F1000
G0 Z8.000
G0 X66.732 Y51.037
G1 X66.732 Y51.037 Z0.000 F1000
G0 Z8.000
G0 X66.928 Y51.037
G1 X66.928 Y51.037 Z0.000 F1000
G0 Z8.000
G0 X69.863 Y51.037
G1 X72.798 Y51.037 Z0.000 F1000
G0 Z8.000
G0 X74.070 Y51.037
G1 X74.168 Y51.037 Z0.000 F1000
G0 Z8.000
G0 X74.364 Y51.037
G1 X82.192 Y51.037 Z0.000 F1000

; --- COLOR CHANGE: CYAN ---
G0 Z8.000
G0 X17.000 Y0.000
G1 Z0.000 F800
G1 Z5.000 F800
; Smart Wipe -> Angle 43.0 deg
G0 X24.312 Y6.822
G0 Z5.000
G1 X24.312 Y6.822 F600
G0 F1000
G0 Z8.000
G0 X82.692 F200
G0 Y49.437 F200
G0 Z8.000
G0 X0.000 Y111.703
G0 X0.000 F200
G1 X99.902 Y111.703 Z0.000 F1000

; --- COLOR CHANGE: MAGENTA ---
G0 Z8.000
G0 X63.000 Y0.000
G1 Z0.000 F800
G1 Z5.000 F800
; Smart Wipe -> Angle 64.5 deg
G0 X67.298 Y9.029
G0 Z5.000
G1 X67.298 Y9.029 F600
G0 F1000
G0 Z8.000
G0 X100.402 F200
G0 Y113.303 F200
G0 Z8.000
G0 X0.000 Y70.607
G0 X0.000 F200
G1 X99.902 Y70.607 Z0.000 F1000

; --- COLOR CHANGE: YELLOW ---
G0 Z8.000
G0 X109.000 Y0.000
G1 Z0.000 F800
G1 Z5.000 F800
; Smart Wipe -> Angle 112.5 deg
G0 X105.180 Y9.242
G0 Z5.000
G1 X105.180 Y9.242 F600
G0 F1000
G0 Z8.000
G0 X100.402 F200
G0 Z8.000
G0 X0.000 Y49.080
G0 X0.000 F200
G1 X99.902 Y49.080 Z0.000 F1000

; --- COLOR CHANGE: CYAN ---
G0 Z8.000
G0 X17.000 Y0.000
G1 Z0.000 F800
G1 Z5.000 F800
; Smart Wipe -> Angle 52.4 deg
G0 X23.108 Y7.918
G0 Z5.000
G1 X23.108 Y7.918 F600
G0 F1000
G0 Z8.000
G0 X100.402 F200
G0 Z8.000
G0 X52.740 Y41.252
G0 X52.240 F200
G1 X53.718 Y41.252 Z0.000 F1000
G0 Z8.000
G0 X57.534 Y41.252
G1 X58.708 Y41.252 Z0.000 F1000
G0 Z8.000
G0 X66.536 Y41.252
G1 X67.221 Y41.252 Z0.000 F1000
G0 Z8.000
G0 X68.885 Y41.252
G1 X69.374 Y41.252 Z0.000 F1000
G0 Z8.000
G0 X69.765 Y41.252
G1 X70.059 Y41.252 Z0.000 F1000
G0 Z8.000
G0 X71.135 Y41.252
G1 X77.202 Y41.252 Z0.000 F1000
G0 Z8.000
G0 X77.397 Y41.252
G1 X77.397 Y41.252 Z0.000 F1000
G0 Z8.000
G0 X77.886 Y41.252
G1 X78.180 Y41.252 Z0.000 F1000
G0 Z8.000
G0 X78.963 Y41.252
G1 X81.311 Y41.252 Z0.000 F1000
G0 Z8.000
G0 X81.800 Y41.252
G1 X83.268 Y41.252 Z0.000 F1000
G0 Z8.000
G0 X84.540 Y41.252
G1 X85.812 Y41.252 Z0.000 F1000
G0 Z8.000
G0 X86.204 Y41.252
G1 X86.204 Y41.252 Z0.000 F1000
G0 Z8.000
G0 X86.595 Y41.252
G1 X88.454 Y41.252 Z0.000 F1000
G0 Z8.000
G0 X88.845 Y41.252
G1 X89.041 Y41.252 Z0.000 F1000
G0 Z8.000
G0 X89.530 Y41.252
G1 X90.020 Y41.252 Z0.000 F1000
G0 Z8.000
G0 X90.215 Y41.252
G1 X90.509 Y41.252 Z0.000 F1000
G0 Z8.000
G0 X90.900 Y41.252
G1 X90.998 Y41.252 Z0.000 F1000
G0 Z8.000
G0 X91.585 Y41.252
G1 X91.683 Y41.252 Z0.000 F1000
G0 Z8.000
G0 X91.879 Y41.252
G1 X91.977 Y41.252 Z0.000 F1000
G0 Z8.000
G0 X92.564 Y41.252
G1 X93.738 Y41.252 Z0.000 F1000
G0 Z8.000
G0 X94.031 Y41.252
G1 X94.227 Y41.252 Z0.000 F1000
G0 Z8.000
G0 X96.282 Y41.252
G1 X97.652 Y41.252 Z0.000 F1000
G0 Z8.000
G0 X99.119 Y41.252
G1 X99.119 Y41.252 Z0.000 F1000
G0 Z8.000
G0 X99.511 Y41.252
G1 X99.902 Y41.252 Z0.000 F1000
G0 X100.402 F200
G0 Z8.000
G0 X0.000 Y39.295
G0 X0.000 F200
G1 X0.294 Y39.295 Z0.000 F1000
G0 Z8.000
G0 X0.587 Y39.295
G1 X6.947 Y39.295 Z0.000 F1000
G0 Z8.000
G0 X7.241 Y39.295
G1 X7.534 Y39.295 Z0.000 F1000
G0 Z8.000
G0 X7.926 Y39.295
G1 X8.317 Y39.295 Z0.000 F1000
G0 Z8.000
G0 X8.513 Y39.295
G1 X9.002 Y39.295 Z0.000 F1000
G0 Z8.000
G0 X9.295 Y39.295
G1 X9.883 Y39.295 Z0.000 F1000
G0 Z8.000
G0 X10.176 Y39.295
G1 X11.350 Y39.295 Z0.000 F1000
G0 Z8.000
G0 X11.937 Y39.295
G1 X11.937 Y39.295 Z0.000 F1000
G0 Z8.000
G0 X12.329 Y39.295
G1 X18.493 Y39.295 Z0.000 F1000
G0 Z8.000
G0 X18.885 Y39.295
G1 X19.080 Y39.295 Z0.000 F1000
G0 Z8.000
G0 X19.569 Y39.295
G1 X19.961 Y39.295 Z0.000 F1000
G0 Z8.000
G0 X20.157 Y39.295
G1 X20.157 Y39.295 Z0.000 F1000
G0 Z8.000
G0 X20.352 Y39.295
G1 X21.037 Y39.295 Z0.000 F1000
G0 Z8.000
G0 X21.233 Y39.295
G1 X23.581 Y39.295 Z0.000 F1000
G0 Z8.000
G0 X23.875 Y39.295
G1 X23.973 Y39.295 Z0.000 F1000
G0 Z8.000
G0 X24.168 Y39.295
G1 X25.440 Y39.295 Z0.000 F1000
G0 Z8.000
G0 X25.930 Y39.295
G1 X26.027 Y39.295 Z0.000 F1000
G0 Z8.000
G0 X26.321 Y39.295
G1 X26.419 Y39.295 Z0.000 F1000
G0 Z8.000
G0 X27.202 Y39.295
G1 X27.397 Y39.295 Z0.000 F1000
G0 Z8.000
G0 X27.691 Y39.295
G1 X27.984 Y39.295 Z0.000 F1000
G0 Z8.000
G0 X28.180 Y39.295
G1 X28.865 Y39.295 Z0.000 F1000
G0 Z8.000
G0 X29.159 Y39.295
G1 X29.550 Y39.295 Z0.000 F1000
G0 Z8.000
G0 X29.843 Y39.295
G1 X29.941 Y39.295 Z0.000 F1000
G0 Z8.000
G0 X31.311 Y39.295
G1 X31.605 Y39.295 Z0.000 F1000
G0 Z8.000
G0 X31.996 Y39.295
G1 X35.225 Y39.295 Z0.000 F1000
G0 Z8.000
G0 X35.714 Y39.295
G1 X36.791 Y39.295 Z0.000 F1000
G0 Z8.000
G0 X37.182 Y39.295
G1 X37.378 Y39.295 Z0.000 F1000
G0 Z8.000
G0 X37.769 Y39.295
G1 X38.845 Y39.295 Z0.000 F1000
G0 Z8.000
G0 X39.335 Y39.295
G1 X39.530 Y39.295 Z0.000 F1000
G0 Z8.000
G0 X40.607 Y39.295
G1 X59.295 Y39.295 Z0.000 F1000

; --- COLOR CHANGE: MAGENTA ---
G0 Z8.000
G0 X63.000 Y0.000
G1 Z0.000 F800
G1 Z5.000 F800
; Smart Wipe -> Angle 48.5 deg
G0 X69.624 Y7.491
G0 Z5.000
G1 X69.624 Y7.491 F600
G0 F1000
G0 Z8.000
G0 X59.795 F200
G0 Y37.695 F200
G0 Z8.000
G0 X0.000 Y47.123
G0 X0.000 F200
G1 X99.902 Y47.123 Z0.000 F1000

; --- COLOR CHANGE: YELLOW ---
G0 Z8.000
G0 X109.000 Y0.000
G1 Z0.000 F800
G1 Z5.000 F800
; Smart Wipe -> Angle 100.0 deg
G0 X107.260 Y9.847
G0 Z5.000
G1 X107.260 Y9.847 F600
G0 F1000
G0 Z8.000
G0 X100.402 F200
G0 Z8.000
G0 X0.000 Y105.832
G0 X0.000 F200
G1 X99.902 Y105.832 Z0.000 F1000

; --- COLOR CHANGE: MAGENTA ---
G0 Z8.000
G0 X63.000 Y0.000
G1 Z0.000 F800
G1 Z5.000 F800
; Smart Wipe -> Angle 58.3 deg
G0 X68.255 Y8.508
G0 Z5.000
G1 X68.255 Y8.508 F600
G0 F1000
G0 Z8.000
G0 X100.402 F200
G0 Y107.432 F200
G0 Z8.000
G0 X0.000 Y66.693
G0 X0.000 F200
G1 X99.902 Y66.693 Z0.000 F1000

; --- COLOR CHANGE: CYAN ---
G0 Z8.000
G0 X17.000 Y0.000
G1 Z0.000 F800
G1 Z5.000 F800
; Smart Wipe -> Angle 35.4 deg
G0 X25.149 Y5.796
G0 Z5.000
G1 X25.149 Y5.796 F600
G0 F1000
G0 Z8.000
G0 X100.402 F200
G0 Z8.000
G0 X68.787 Y49.080
G0 X68.287 F200
G1 X99.902 Y49.080 Z0.000 F1000
G0 X100.402 F200
G0 Z8.000
G0 X0.000 Y47.123
G0 X0.000 F200
G1 X0.685 Y47.123 Z0.000 F1000
G0 Z8.000
G0 X1.174 Y47.123
G1 X1.957 Y47.123 Z0.000 F1000
G0 Z8.000
G0 X2.348 Y47.123
G1 X2.935 Y47.123 Z0.000 F1000
G0 Z8.000
G0 X3.229 Y47.123
G1 X4.305 Y47.123 Z0.000 F1000
G0 Z8.000
G0 X4.697 Y47.123
G1 X5.577 Y47.123 Z0.000 F1000
G0 Z8.000
G0 X5.871 Y47.123
G1 X7.339 Y47.123 Z0.000 F1000
G0 Z8.000
G0 X7.534 Y47.123
G1 X9.295 Y47.123 Z0.000 F1000
G0 Z8.000
G0 X9.589 Y47.123
G1 X12.133 Y47.123 Z0.000 F1000
G0 Z8.000
G0 X12.622 Y47.123
G1 X17.025 Y47.123 Z0.000 F1000
G0 Z8.000
G0 X17.319 Y47.123
G1 X17.613 Y47.123 Z0.000 F1000
G0 Z8.000
G0 X17.808 Y47.123
G1 X20.841 Y47.123 Z0.000 F1000
G0 Z8.000
G0 X21.429 Y47.123
G1 X21.918 Y47.123 Z0.000 F1000
G0 Z8.000
G0 X22.114 Y47.123
G1 X27.397 Y47.123 Z0.000 F1000
G0 Z8.000
G0 X27.984 Y47.123
G1 X28.474 Y47.123 Z0.000 F1000
G0 Z8.000
G0 X28.767 Y47.123
G1 X29.159 Y47.123 Z0.000 F1000
G0 Z8.000
G0 X29.452 Y47.123
G1 X32.975 Y47.123 Z0.000 F1000
G0 Z8.000
G0 X33.170 Y47.123
G1 X33.562 Y47.123 Z0.000 F1000
G0 Z8.000
G0 X33.953 Y47.123
G1 X34.149 Y47.123 Z0.000 F1000
G0 Z8.000
G0 X34.442 Y47.123
G1 X36.399 Y47.123 Z0.000 F1000
G0 Z8.000
G0 X37.182 Y47.123
G1 X38.356 Y47.123 Z0.000 F1000
G0 Z8.000
G0 X38.650 Y47.123
G1 X40.998 Y47.123 Z0.000 F1000
G0 Z8.000
G0 X41.292 Y47.123
G1 X53.425 Y47.123 Z0.000 F1000

; --- COLOR CHANGE: YELLOW ---
G0 Z8.000
G0 X109.000 Y0.000
G1 Z0.000 F800
G1 Z5.000 F800
; Smart Wipe -> Angle 91.3 deg
G0 X108.780 Y9.998
G0 Z5.000
G1 X108.780 Y9.998 F600
G0 F1000
G0 Z8.000
G0 X53.925 F200
G0 Y45.523 F200
G0 Z8.000
G0 X0.000 Y111.703
G0 X0.000 F200
G1 X99.902 Y111.703 Z0.000 F1000
G0 X100.402 F200
G0 Y113.303 F200
G0 Z8.000
G0 X0.000 Y66.693
G0 X0.000 F200
G1 X99.902 Y66.693 Z0.000 F1000

; --- COLOR CHANGE: BLACK ---
G0 Z8.000
G0 X142.000 Y0.000
G1 Z0.000 F800
G1 Z5.000 F800
; Smart Wipe -> Angle 127.6 deg
G0 X135.899 Y7.923
G0 Z5.000
G1 X135.899 Y7.923 F600
G0 F1000
G0 Z8.000
G0 X100.402 F200
G0 Z8.000
G0 X83.268 Y51.037
G0 X82.768 F200
G1 X93.444 Y51.037 Z0.000 F1000
G0 Z8.000
G0 X94.912 Y51.037
G1 X95.401 Y51.037 Z0.000 F1000
G0 Z8.000
G0 X95.988 Y51.037
G1 X96.086 Y51.037 Z0.000 F1000
G0 Z8.000
G0 X96.380 Y51.037
G1 X97.260 Y51.037 Z0.000 F1000
G0 Z8.000
G0 X98.630 Y51.037
G1 X98.630 Y51.037 Z0.000 F1000
G0 X99.130 F200
G0 Z8.000
G0 X2.055 Y49.080
G0 X1.555 F200
G1 X9.198 Y49.080 Z0.000 F1000
G0 Z8.000
G0 X11.252 Y49.080
G1 X14.286 Y49.080 Z0.000 F1000
G0 Z8.000
G0 X14.971 Y49.080
G1 X16.243 Y49.080 Z0.000 F1000
G0 Z8.000
G0 X16.830 Y49.080
G1 X18.689 Y49.080 Z0.000 F1000
G0 Z8.000
G0 X20.059 Y49.080
G1 X21.624 Y49.080 Z0.000 F1000
G0 Z8.000
G0 X22.016 Y49.080
G1 X22.407 Y49.080 Z0.000 F1000
G0 Z8.000
G0 X29.746 Y49.080
G1 X29.941 Y49.080 Z0.000 F1000
G0 Z8.000
G0 X31.800 Y49.080
G1 X31.996 Y49.080 Z0.000 F1000
G0 Z8.000
G0 X38.845 Y49.080
G1 X39.237 Y49.080 Z0.000 F1000
G0 Z8.000
G0 X41.389 Y49.080
G1 X41.487 Y49.080 Z0.000 F1000
G0 Z8.000
G0 X43.542 Y49.080
G1 X43.933 Y49.080 Z0.000 F1000
G0 Z8.000
G0 X44.227 Y49.080
G1 X44.521 Y49.080 Z0.000 F1000
G0 Z8.000
G0 X44.814 Y49.080
G1 X52.642 Y49.080 Z0.000 F1000
G0 Z8.000
G0 X53.229 Y49.080
G1 X53.229 Y49.080 Z0.000 F1000
G0 Z8.000
G0 X56.849 Y49.080
G1 X56.947 Y49.080 Z0.000 F1000
G0 Z8.000
G0 X58.708 Y49.080
G1 X58.708 Y49.080 Z0.000 F1000
G0 Z8.000
G0 X59.785 Y49.080
G1 X59.883 Y49.080 Z0.000 F1000
G0 Z8.000
G0 X61.155 Y49.080
G1 X61.155 Y49.080 Z0.000 F1000
G0 Z8.000
G0 X62.622 Y49.080
G1 X62.622 Y49.080 Z0.000 F1000
G0 Z8.000
G0 X63.014 Y49.080
G1 X63.112 Y49.080 Z0.000 F1000
G0 Z8.000
G0 X66.341 Y49.080
G1 X66.341 Y49.080 Z0.000 F1000
G0 Z8.000
G0 X66.536 Y49.080
G1 X66.634 Y49.080 Z0.000 F1000
G0 Z8.000
G0 X71.037 Y49.080
G1 X77.495 Y49.080 Z0.000 F1000
G0 Z8.000
G0 X78.376 Y49.080
G1 X90.998 Y49.080 Z0.000 F1000
G0 Z8.000
G0 X91.683 Y49.080
G1 X91.977 Y49.080 Z0.000 F1000
G0 Z8.000
G0 X92.955 Y49.080
G1 X95.010 Y49.080 Z0.000 F1000
G0 Z8.000
G0 X95.401 Y49.080
G1 X99.902 Y49.080 Z0.000 F1000
G0 X100.402 F200
G0 Z8.000
G0 X28.180 Y47.123
G1 X28.180 Y47.123 Z0.000 F1000
G0 X27.680 F200
G0 Z8.000
G0 X30.333 Y47.123
G1 X30.724 Y47.123 Z0.000 F1000
G0 Z8.000
G0 X31.213 Y47.123
G1 X31.703 Y47.123 Z0.000 F1000
G0 Z8.000
G0 X41.292 Y47.123
