; Generated by CMYK Pro (V0.5 - NaN Fix, Backlash, Dwell)
G21 ; Millimeters
G90 ; Absolute positioning
G0 Z8

; --- COLOR CHANGE: BLACK ---
G0 Z8
G0 X140.000 Y0.000
G1 Z-5 F800
G4 P1
G1 Z5 F800
; Smart Wipe -> Angle 128.9 deg
G0 X138.231 Y4.669
G0 Z5
G1 X132.578 Y11.672 F600
G0 F1000
G0 Z8
G0 Y0.000 F200
G0 X0.000 Y30.000
G0 X0.000 F200
G0 X83.855 Y46.634
G1 X86.986 Y46.634 Z0 F1000
G0 X87.182 Y46.634
G1 X87.965 Y46.634 Z0 F1000
G0 X88.454 Y46.634
G1 X88.454 Y46.634 Z0 F1000
G0 X89.628 Y46.634
G1 X91.292 Y46.634 Z0 F1000
G0 X91.585 Y46.634
G1 X92.661 Y46.634 Z0 F1000
G0 X92.857 Y46.634
G1 X99.902 Y46.634 Z0 F1000
G0 X100.402 F200
G0 Y48.234 F200
G0 X0.000 Y46.145
G0 X0.000 F200
G1 X0.098 Y46.145 Z0 F1000
G0 X1.272 Y46.145
G1 X1.761 Y46.145 Z0 F1000
G0 X2.740 Y46.145
G1 X3.033 Y46.145 Z0 F1000
G0 X3.327 Y46.145
G1 X6.947 Y46.145 Z0 F1000
G0 X9.002 Y46.145
G1 X14.090 Y46.145 Z0 F1000
G0 X14.286 Y46.145
G1 X15.753 Y46.145 Z0 F1000
G0 X16.047 Y46.145
G1 X17.808 Y46.145 Z0 F1000
G0 X18.004 Y46.145
G1 X18.885 Y46.145 Z0 F1000
G0 X19.080 Y46.145
G1 X22.798 Y46.145 Z0 F1000
G0 X23.483 Y46.145
G1 X26.810 Y46.145 Z0 F1000
G0 X27.006 Y46.145
G1 X27.886 Y46.145 Z0 F1000
G0 X28.474 Y46.145
G1 X29.159 Y46.145 Z0 F1000
G0 X29.354 Y46.145
G1 X30.137 Y46.145 Z0 F1000
G0 X30.626 Y46.145
G1 X33.855 Y46.145 Z0 F1000
G0 X34.149 Y46.145
G1 X36.986 Y46.145 Z0 F1000
G0 X37.378 Y46.145
G1 X38.160 Y46.145 Z0 F1000
G0 X38.650 Y46.145
G1 X52.642 Y46.145 Z0 F1000
G0 X52.838 Y46.145
G1 X54.305 Y46.145 Z0 F1000

; --- COLOR CHANGE: MAGENTA ---
G0 Z8
G0 X63.000 Y0.000
G1 Z-5 F800
G4 P1
G1 Z5 F800
; Smart Wipe -> Angle 60.8 deg
G0 X65.931 Y5.236
G0 Z5
G1 X70.326 Y13.089 F600
G0 F1000
G0 Z8
G0 X54.305 Y46.145
G1 Z0 F1000
G0 X54.805 F200
G0 Y44.545 F200
G0 X0.000 Y94.579
G0 X0.000 F200
G1 X99.902 Y94.579 Z0 F1000

; --- COLOR CHANGE: YELLOW ---
G0 Z8
G0 X109.000 Y0.000
G1 Z-5 F800
G4 P1
G1 Z5 F800
; Smart Wipe -> Angle 98.9 deg
G0 X108.075 Y5.928
G0 Z5
G1 X106.687 Y14.821 F600
G0 F1000
G0 Z8
G0 X99.902 Y94.579
G1 Z0 F1000
G0 X100.402 F200
G0 Y96.179 F200
G0 X0.000 Y89.198
G0 X0.000 F200
G1 X99.902 Y89.198 Z0 F1000
G0 X100.402 F200
G0 X0.000 Y67.671
G0 X0.000 F200
G1 X99.902 Y67.671 Z0 F1000

; --- COLOR CHANGE: BLACK ---
G0 Z8
G0 X140.000 Y0.000
G1 Z-5 F800
G4 P1
G1 Z5 F800
; Smart Wipe -> Angle 143.4 deg
G0 X137.182 Y3.575
G0 Z5
G1 X129.954 Y8.938 F600
G0 F1000
G0 Z8
G0 X99.902 Y67.671
G1 Z0 F1000
G0 X100.402 F200
G0 Y66.071 F200
G0 X0.391 Y75.499
G0 X0.000 F200
G1 X0.783 Y75.499 Z0 F1000
G0 X1.174 Y75.499
G1 X1.174 Y75.499 Z0 F1000
G0 X1.663 Y75.499
G1 X1.859 Y75.499 Z0 F1000
G0 X2.055 Y75.499
G1 X3.523 Y75.499 Z0 F1000
G0 X5.675 Y75.499
G1 X5.773 Y75.499 Z0 F1000
G0 X5.969 Y75.499
G1 X8.708 Y75.499 Z0 F1000
G0 X9.785 Y75.499
G1 X12.035 Y75.499 Z0 F1000
G0 X13.112 Y75.499
G1 X58.904 Y75.499 Z0 F1000

; --- COLOR CHANGE: CYAN ---
G0 Z8
G0 X0.000 Y17.000
G1 Z-5 F800
G4 P1
G1 Z5 F800
; Smart Wipe -> Angle 33.8 deg
G0 X4.988 Y20.335
G0 Z5
G1 X12.469 Y25.338 F600
G0 F1000
G0 Z8
G0 X58.904 Y75.499
G1 Z0 F1000
G0 X59.404 F200
G0 X0.000 Y98.493
G0 X0.000 F200
G1 X99.902 Y98.493 Z0 F1000
G0 X100.402 F200
G0 Y100.093 F200
G0 X0.000 Y90.665
G0 X0.000 F200
G1 X5.675 Y90.665 Z0 F1000
G0 X6.360 Y90.665
G1 X6.654 Y90.665 Z0 F1000
G0 X7.828 Y90.665
G1 X12.427 Y90.665 Z0 F1000
G0 X15.851 Y90.665
G1 X22.994 Y90.665 Z0 F1000
G0 X25.245 Y90.665
G1 X25.440 Y90.665 Z0 F1000
G0 X25.636 Y90.665
G1 X25.636 Y90.665 Z0 F1000
G0 X27.006 Y90.665
G1 X99.902 Y90.665 Z0 F1000
G0 X100.402 F200
G0 X0.000 Y86.751
G0 X0.000 F200
G1 X47.945 Y86.751 Z0 F1000
G0 X48.141 Y86.751
G1 X99.902 Y86.751 Z0 F1000

; --- COLOR CHANGE: YELLOW ---
G0 Z8
G0 X109.000 Y0.000
G1 Z-5 F800
G4 P1
G1 Z5 F800
; Smart Wipe -> Angle 100.3 deg
G0 X107.923 Y5.903
G0 Z5
G1 X106.307 Y14.756 F600
G0 F1000
G0 Z8
G0 X99.902 Y86.751
G1 Z0 F1000
G0 X100.402 F200
G0 Y85.151 F200
G0 X0.000 Y94.579
G0 X0.000 F200
G1 X99.902 Y94.579 Z0 F1000

; --- COLOR CHANGE: MAGENTA ---
G0 Z8
G0 X63.000 Y0.000
G1 Z-5 F800
G4 P1
G1 Z5 F800
; Smart Wipe -> Angle 57.7 deg
G0 X66.206 Y5.072
G0 Z5
G1 X71.015 Y12.679 F600
G0 F1000
G0 Z8
G0 X99.902 Y94.579
G1 Z0 F1000
G0 X100.402 F200
G0 Y96.179 F200
G0 X0.000 Y94.090
G0 X0.000 F200
G1 X99.902 Y94.090 Z0 F1000
G0 X100.402 F200
G0 X0.000 Y62.290
G0 X0.000 F200
G1 X99.902 Y62.290 Z0 F1000

; --- COLOR CHANGE: BLACK ---
G0 Z8
G0 X140.000 Y0.000
G1 Z-5 F800
G4 P1
G1 Z5 F800
; Smart Wipe -> Angle 143.6 deg
G0 X137.173 Y3.564
G0 Z5
G1 X129.932 Y8.909 F600
G0 F1000
G0 Z8
G0 X99.902 Y62.290
G1 Z0 F1000
G0 X100.402 F200
G0 Y60.690 F200
G0 X35.225 Y65.714
G0 X34.725 F200
G1 X68.493 Y65.714 Z0 F1000
G0 X68.885 Y65.714
G1 X73.190 Y65.714 Z0 F1000
G0 X74.070 Y65.714
G1 X75.440 Y65.714 Z0 F1000
G0 X75.636 Y65.714
G1 X75.734 Y65.714 Z0 F1000
G0 X76.125 Y65.714
G1 X76.321 Y65.714 Z0 F1000
G0 X76.908 Y65.714
G1 X77.006 Y65.714 Z0 F1000
G0 X77.886 Y65.714
G1 X77.886 Y65.714 Z0 F1000
G0 X78.278 Y65.714
G1 X80.724 Y65.714 Z0 F1000
G0 X81.703 Y65.714
G1 X82.779 Y65.714 Z0 F1000
G0 X83.268 Y65.714
G1 X83.464 Y65.714 Z0 F1000
G0 X84.247 Y65.714
G1 X84.540 Y65.714 Z0 F1000
G0 X85.029 Y65.714
G1 X87.573 Y65.714 Z0 F1000
G0 X88.063 Y65.714
G1 X88.356 Y65.714 Z0 F1000
G0 X88.650 Y65.714
G1 X91.977 Y65.714 Z0 F1000
G0 X92.270 Y65.714
G1 X98.728 Y65.714 Z0 F1000

; --- COLOR CHANGE: MAGENTA ---
G0 Z8
G0 X63.000 Y0.000
G1 Z-5 F800
G4 P1
G1 Z5 F800
; Smart Wipe -> Angle 52.8 deg
G0 X66.626 Y4.780
G0 Z5
G1 X72.066 Y11.950 F600
G0 F1000
G0 Z8
G0 X98.728 Y65.714
G1 Z0 F1000
G0 X99.228 F200
G0 X0.000 Y67.671
G0 X0.000 F200
G1 X99.902 Y67.671 Z0 F1000

; --- COLOR CHANGE: BLACK ---
G0 Z8
G0 X140.000 Y0.000
G1 Z-5 F800
G4 P1
G1 Z5 F800
; Smart Wipe -> Angle 156.1 deg
G0 X136.514 Y2.429
G0 Z5
G1 X128.284 Y6.072 F600
G0 F1000
G0 Z8
G0 X99.902 Y67.671
G1 Z0 F1000
G0 X100.402 F200
G0 X0.000 Y71.585
G0 X0.000 F200
G1 X41.683 Y71.585 Z0 F1000

; --- COLOR CHANGE: YELLOW ---
G0 Z8
G0 X109.000 Y0.000
G1 Z-5 F800
G4 P1
G1 Z5 F800
; Smart Wipe -> Angle 89.8 deg
G0 X109.019 Y6.000
G0 Z5
G1 X109.048 Y15.000 F600
G0 F1000
G0 Z8
G0 X41.683 Y71.585
G1 Z0 F1000
G0 X42.183 F200
G0 X0.000 Y81.859
G0 X0.000 F200
G1 X99.902 Y81.859 Z0 F1000

; --- COLOR CHANGE: CYAN ---
G0 Z8
G0 X0.000 Y17.000
G1 Z-5 F800
G4 P1
G1 Z5 F800
; Smart Wipe -> Angle 24.7 deg
G0 X5.450 Y19.509
G0 Z5
G1 X13.625 Y23.273 F600
G0 F1000
G0 Z8
G0 X99.902 Y81.859
G1 Z0 F1000
G0 X100.402 F200
G0 Y83.459 F200
G0 X36.008 Y43.699
G0 X35.508 F200
G1 X36.791 Y43.699 Z0 F1000
G0 X37.182 Y43.699
G1 X53.523 Y43.699 Z0 F1000
G0 X53.718 Y43.699
G1 X56.751 Y43.699 Z0 F1000
G0 X57.339 Y43.699
G1 X61.350 Y43.699 Z0 F1000
G0 X62.427 Y43.699
G1 X63.112 Y43.699 Z0 F1000
G0 X63.796 Y43.699
G1 X67.319 Y43.699 Z0 F1000
G0 X68.297 Y43.699
G1 X70.548 Y43.699 Z0 F1000
G0 X71.429 Y43.699
G1 X71.624 Y43.699 Z0 F1000
G0 X72.016 Y43.699
G1 X72.309 Y43.699 Z0 F1000
G0 X73.190 Y43.699
G1 X74.462 Y43.699 Z0 F1000
G0 X77.397 Y43.699
G1 X80.626 Y43.699 Z0 F1000
G0 X81.213 Y43.699
G1 X81.800 Y43.699 Z0 F1000
G0 X83.072 Y43.699
G1 X99.902 Y43.699 Z0 F1000

; --- COLOR CHANGE: YELLOW ---
G0 Z8
G0 X109.000 Y0.000
G1 Z-5 F800
G4 P1
G1 Z5 F800
; Smart Wipe -> Angle 101.1 deg
G0 X107.848 Y5.888
G0 Z5
G1 X106.120 Y14.721 F600
G0 F1000
G0 Z8
G0 X99.902 Y43.699
G1 Z0 F1000
G0 X100.402 F200
G0 Y42.099 F200
G0 X0.000 Y102.896
G0 X0.000 F200
G1 X99.902 Y102.896 Z0 F1000

; --- COLOR CHANGE: CYAN ---
G0 Z8
G0 X0.000 Y17.000
G1 Z-5 F800
G4 P1
G1 Z5 F800
; Smart Wipe -> Angle 15.1 deg
G0 X5.794 Y18.558
G0 Z5
G1 X14.485 Y20.895 F600
G0 F1000
G0 Z8
G0 X99.902 Y102.896
G1 Z0 F1000
G0 X100.402 F200
G0 Y104.496 F200
G0 X79.843 Y38.317
G0 X79.343 F200
G1 X90.313 Y38.317 Z0 F1000
G0 X90.705 Y38.317
G1 X96.869 Y38.317 Z0 F1000
G0 X97.162 Y38.317
G1 X97.456 Y38.317 Z0 F1000
G0 X97.652 Y38.317
G1 X99.902 Y38.317 Z0 F1000
G0 X100.402 F200
G0 X3.131 Y37.828
G0 X2.631 F200
G1 X4.795 Y37.828 Z0 F1000
G0 X5.186 Y37.828
G1 X5.675 Y37.828 Z0 F1000
G0 X6.654 Y37.828
G1 X6.849 Y37.828 Z0 F1000
G0 X11.546 Y37.828
G1 X11.644 Y37.828 Z0 F1000
G0 X14.090 Y37.828
G1 X14.579 Y37.828 Z0 F1000
G0 X15.851 Y37.828
G1 X16.047 Y37.828 Z0 F1000
G0 X17.710 Y37.828
G1 X18.493 Y37.828 Z0 F1000
G0 X27.593 Y37.828
G1 X27.593 Y37.828 Z0 F1000
G0 X30.528 Y37.828
G1 X30.724 Y37.828 Z0 F1000
G0 X30.920 Y37.828
G1 X31.311 Y37.828 Z0 F1000
G0 X31.800 Y37.828
G1 X31.996 Y37.828 Z0 F1000
G0 X34.051 Y37.828
G1 X34.051 Y37.828 Z0 F1000
G0 X36.595 Y37.828
G1 X36.693 Y37.828 Z0 F1000
G0 X37.280 Y37.828
G1 X37.378 Y37.828 Z0 F1000
G0 X37.769 Y37.828
G1 X38.063 Y37.828 Z0 F1000
G0 X38.258 Y37.828
G1 X79.256 Y37.828 Z0 F1000
G0 Y36.228 F200
G0 X80.039 Y39.295
G1 X87.084 Y39.295 Z0 F1000
G0 X88.356 Y39.295
G1 X88.454 Y39.295 Z0 F1000
G0 X88.845 Y39.295
G1 X89.824 Y39.295 Z0 F1000
G0 X90.117 Y39.295
G1 X90.509 Y39.295 Z0 F1000
G0 X90.900 Y39.295
G1 X95.988 Y39.295 Z0 F1000
G0 X96.184 Y39.295
G1 X96.380 Y39.295 Z0 F1000
G0 X96.575 Y39.295
G1 X96.771 Y39.295 Z0 F1000
G0 X97.065 Y39.295
G1 X99.902 Y39.295 Z0 F1000
G0 X100.402 F200
G0 Y40.895 F200
G0 X2.348 Y38.806
G1 X2.348 Y38.806 Z0 F1000
G0 X1.848 F200
G0 X2.642 Y38.806
G1 X2.838 Y38.806 Z0 F1000
G0 X3.816 Y38.806
G1 X4.403 Y38.806 Z0 F1000
G0 X4.697 Y38.806
G1 X6.849 Y38.806 Z0 F1000
G0 X18.493 Y38.806
G1 X18.689 Y38.806 Z0 F1000
G0 X22.016 Y38.806
G1 X22.114 Y38.806 Z0 F1000
G0 X25.245 Y38.806
G1 X25.245 Y38.806 Z0 F1000
G0 X30.235 Y38.806
G1 X30.822 Y38.806 Z0 F1000
G0 X31.898 Y38.806
G1 X31.898 Y38.806 Z0 F1000
G0 X36.204 Y38.806
G1 X36.301 Y38.806 Z0 F1000
G0 X37.573 Y38.806
G1 X37.867 Y38.806 Z0 F1000
G0 X38.454 Y38.806
G1 X38.552 Y38.806 Z0 F1000
G0 X38.943 Y38.806
G1 X39.139 Y38.806 Z0 F1000
G0 X39.530 Y38.806
G1 X77.691 Y38.806 Z0 F1000
G0 X78.191 F200
G0 Y37.206 F200
G0 X65.949 Y70.117
G0 X65.449 F200
G1 X78.180 Y70.117 Z0 F1000
G0 X78.474 Y70.117
G1 X79.452 Y70.117 Z0 F1000
G0 X79.843 Y70.117
G1 X81.605 Y70.117 Z0 F1000
G0 X82.094 Y70.117
G1 X87.573 Y70.117 Z0 F1000
G0 X88.063 Y70.117
G1 X88.160 Y70.117 Z0 F1000
G0 X89.530 Y70.117
G1 X89.628 Y70.117 Z0 F1000
G0 X90.215 Y70.117
G1 X90.509 Y70.117 Z0 F1000
G0 X90.998 Y70.117
G1 X91.292 Y70.117 Z0 F1000
G0 X91.683 Y70.117
G1 X91.683 Y70.117 Z0 F1000
G0 X92.368 Y70.117
G1 X92.661 Y70.117 Z0 F1000
G0 X92.955 Y70.117
G1 X92.955 Y70.117 Z0 F1000
G0 X93.249 Y70.117
G1 X93.249 Y70.117 Z0 F1000
G0 X94.325 Y70.117
G1 X94.912 Y70.117 Z0 F1000
G0 X95.988 Y70.117
G1 X96.380 Y70.117 Z0 F1000
G0 X96.771 Y70.117
G1 X97.260 Y70.117 Z0 F1000
G0 X97.554 Y70.117
G1 X97.847 Y70.117 Z0 F1000
G0 X98.337 Y70.117
G1 X98.434 Y70.117 Z0 F1000
G0 X98.934 F200
G0 Y71.717 F200
G0 X0.000 Y69.628
G0 X0.000 F200
G1 X6.067 Y69.628 Z0 F1000
G0 X7.143 Y69.628
G1 X7.339 Y69.628 Z0 F1000
G0 X10.176 Y69.628
G1 X29.550 Y69.628 Z0 F1000
G0 X29.941 Y69.628
G1 X34.736 Y69.628 Z0 F1000
G0 X35.225 Y69.628
G1 X35.225 Y69.628 Z0 F1000
G0 X35.714 Y69.628
G1 X35.714 Y69.628 Z0 F1000
G0 X36.008 Y69.628
G1 X36.595 Y69.628 Z0 F1000
G0 X37.084 Y69.628
G1 X37.965 Y69.628 Z0 F1000
G0 X38.552 Y69.628
G1 X44.423 Y69.628 Z0 F1000

; --- COLOR CHANGE: BLACK ---
G0 Z8
G0 X140.000 Y0.000
G1 Z-5 F800
G4 P1
G1 Z5 F800
; Smart Wipe -> Angle 144.1 deg
G0 X137.138 Y3.516
G0 Z5
G1 X129.846 Y8.791 F600
G0 F1000
G0 Z8
G0 X44.423 Y69.628
G1 Z0 F1000
G0 X44.923 F200
G0 Y68.028 F200
G0 X21.820 Y92.133
G0 X21.320 F200
G1 X21.918 Y92.133 Z0 F1000
G0 X22.114 Y92.133
G1 X26.810 Y92.133 Z0 F1000
G0 X27.202 Y92.133
G1 X31.213 Y92.133 Z0 F1000
G0 X31.507 Y92.133
G1 X53.425 Y92.133 Z0 F1000
G0 X54.892 Y92.133
G1 X55.088 Y92.133 Z0 F1000
G0 X55.577 Y92.133
G1 X99.902 Y92.133 Z0 F1000

; --- COLOR CHANGE: CYAN ---
G0 Z8
G0 X0.000 Y17.000
G1 Z-5 F800
G4 P1
G1 Z5 F800
; Smart Wipe -> Angle 22.0 deg
G0 X5.563 Y19.248
G0 Z5
G1 X13.908 Y22.619 F600
G0 F1000
G0 Z8
G0 X99.902 Y92.133
G1 Z0 F1000
G0 X100.402 F200
G0 Y93.733 F200
G0 X0.000 Y54.462
G0 X0.000 F200
G1 X65.068 Y54.462 Z0 F1000

; --- COLOR CHANGE: YELLOW ---
G0 Z8
G0 X109.000 Y0.000
G1 Z-5 F800
G4 P1
G1 Z5 F800
; Smart Wipe -> Angle 108.1 deg
G0 X107.140 Y5.704
G0 Z5
G1 X104.350 Y14.261 F600
G0 F1000
G0 Z8
G0 X65.068 Y54.462
G1 Z0 F1000
G0 X65.568 F200
G0 Y52.862 F200
G0 X0.000 Y63.268
G0 X0.000 F200
G1 X99.902 Y63.268 Z0 F1000

; --- COLOR CHANGE: BLACK ---
G0 Z8
G0 X140.000 Y0.000
G1 Z-5 F800
G4 P1
G1 Z5 F800
; Smart Wipe -> Angle 141.8 deg
G0 X137.284 Y3.709
G0 Z5
G1 X130.209 Y9.273 F600
G0 F1000
G0 Z8
G0 X99.902 Y63.268
G1 Z0 F1000
G0 X100.402 F200
G0 Y64.868 F200
G0 X95.108 Y45.166
G0 X94.608 F200
G1 X99.902 Y45.166 Z0 F1000
G0 X100.402 F200
G0 X0.000 Y44.677
G0 X0.000 F200
G1 X0.098 Y44.677 Z0 F1000
G0 X1.076 Y44.677
G1 X1.174 Y44.677 Z0 F1000
G0 X1.761 Y44.677
G1 X2.055 Y44.677 Z0 F1000
G0 X2.446 Y44.677
G1 X2.642 Y44.677 Z0 F1000
G0 X3.229 Y44.677
G1 X3.620 Y44.677 Z0 F1000
G0 X3.914 Y44.677
G1 X5.186 Y44.677 Z0 F1000
G0 X5.479 Y44.677
G1 X5.479 Y44.677 Z0 F1000
G0 X5.675 Y44.677
G1 X5.871 Y44.677 Z0 F1000
G0 X6.360 Y44.677
G1 X7.045 Y44.677 Z0 F1000
G0 X7.241 Y44.677
G1 X7.436 Y44.677 Z0 F1000
G0 X7.926 Y44.677
G1 X11.252 Y44.677 Z0 F1000
G0 X11.546 Y44.677
G1 X14.971 Y44.677 Z0 F1000
G0 X15.264 Y44.677
G1 X15.264 Y44.677 Z0 F1000
G0 X15.460 Y44.677
G1 X16.243 Y44.677 Z0 F1000
G0 X16.438 Y44.677
G1 X17.515 Y44.677 Z0 F1000
G0 X17.906 Y44.677
G1 X18.591 Y44.677 Z0 F1000
G0 X18.787 Y44.677
G1 X18.982 Y44.677 Z0 F1000
G0 X19.374 Y44.677
G1 X19.961 Y44.677 Z0 F1000
G0 X20.157 Y44.677
G1 X20.548 Y44.677 Z0 F1000
G0 X21.135 Y44.677
G1 X25.440 Y44.677 Z0 F1000
G0 X25.636 Y44.677
G1 X25.832 Y44.677 Z0 F1000
G0 X26.027 Y44.677
G1 X27.886 Y44.677 Z0 F1000
G0 X28.082 Y44.677
G1 X28.376 Y44.677 Z0 F1000
G0 X28.865 Y44.677
G1 X29.061 Y44.677 Z0 F1000
G0 X29.354 Y44.677
G1 X29.746 Y44.677 Z0 F1000
G0 X30.920 Y44.677
G1 X31.018 Y44.677 Z0 F1000
G0 X31.605 Y44.677
G1 X32.290 Y44.677 Z0 F1000
G0 X32.583 Y44.677
G1 X33.366 Y44.677 Z0 F1000
G0 X33.562 Y44.677
G1 X34.247 Y44.677 Z0 F1000
G0 X34.638 Y44.677
G1 X34.834 Y44.677 Z0 F1000
G0 X35.421 Y44.677
G1 X37.867 Y44.677 Z0 F1000
G0 X38.356 Y44.677
G1 X40.509 Y44.677 Z0 F1000
G0 X40.802 Y44.677
G1 X51.957 Y44.677 Z0 F1000
G0 X52.250 Y44.677
G1 X52.446 Y44.677 Z0 F1000
G0 X52.740 Y44.677
G1 X52.740 Y44.677 Z0 F1000
G0 X53.033 Y44.677
G1 X53.033 Y44.677 Z0 F1000
G0 X53.523 Y44.677
G1 X55.871 Y44.677 Z0 F1000

; --- COLOR CHANGE: MAGENTA ---
G0 Z8
G0 X63.000 Y0.000
G1 Z-5 F800
G4 P1
G1 Z5 F800
; Smart Wipe -> Angle 33.6 deg
G0 X67.997 Y3.321
G0 Z5
G1 X75.493 Y8.302 F600
G0 F1000
G0 Z8
G0 X55.871 Y44.677
G1 Z0 F1000
G0 X56.371 F200
G0 X0.000 Y30.978
G0 X0.000 F200
G1 X99.902 Y30.978 Z0 F1000

; --- COLOR CHANGE: BLACK ---
G0 Z8
G0 X140.000 Y0.000
G1 Z-5 F800
G4 P1
G1 Z5 F800
; Smart Wipe -> Angle 140.8 deg
G0 X137.349 Y3.791
G0 Z5
G1 X130.373 Y9.476 F600
G0 F1000
G0 Z8
G0 X99.902 Y30.978
G1 Z0 F1000
G0 X100.402 F200
G0 Y29.378 F200
G0 X38.943 Y73.053
G0 X38.443 F200
G1 X39.628 Y73.053 Z0 F1000
G0 X39.922 Y73.053
G1 X45.499 Y73.053 Z0 F1000
G0 X45.988 Y73.053
G1 X46.380 Y73.053 Z0 F1000
G0 X46.771 Y73.053
G1 X47.750 Y73.053 Z0 F1000
G0 X48.239 Y73.053
G1 X57.632 Y73.053 Z0 F1000
G0 X58.023 Y73.053
G1 X58.121 Y73.053 Z0 F1000
G0 X58.806 Y73.053
G1 X59.883 Y73.053 Z0 F1000
G0 X60.470 Y73.053
G1 X93.151 Y73.053 Z0 F1000

; --- COLOR CHANGE: CYAN ---
G0 Z8
G0 X0.000 Y17.000
G1 Z-5 F800
G4 P1
G1 Z5 F800
; Smart Wipe -> Angle 29.1 deg
G0 X5.243 Y19.918
G0 Z5
G1 X13.106 Y24.295 F600
G0 F1000
G0 Z8
G0 X93.151 Y73.053
G1 Z0 F1000
G0 X93.651 F200
G0 X0.000 Y84.795
G0 X0.000 F200
G1 X99.902 Y84.795 Z0 F1000
G0 X100.402 F200
G0 Y86.395 F200
G0 X0.000 Y84.305
G0 X0.000 F200
G1 X35.225 Y84.305 Z0 F1000

; --- COLOR CHANGE: BLACK ---
G0 Z8
G0 X140.000 Y0.000
G1 Z-5 F800
G4 P1
G1 Z5 F800
; Smart Wipe -> Angle 130.2 deg
G0 X138.129 Y4.584
G0 Z5
G1 X132.322 Y11.460 F600
G0 F1000
G0 Z8
G0 X35.225 Y84.305
G1 Z0 F1000
G0 X90.802 Y68.160
G1 X97.260 Y68.160 Z0 F1000
G0 X98.239 Y68.160
G1 X99.902 Y68.160 Z0 F1000
G0 X100.402 F200
G0 X0.098 Y67.671
G0 X0.000 F200
G1 X1.076 Y67.671 Z0 F1000
G0 X1.566 Y67.671
G1 X2.544 Y67.671 Z0 F1000
G0 X3.131 Y67.671
G1 X4.305 Y67.671 Z0 F1000
G0 X4.795 Y67.671
G1 X5.773 Y67.671 Z0 F1000
G0 X6.067 Y67.671
