; Generated by CMYK Pro
G21
G90
G0 Z8

; --- COLOR: CYAN ---
G0 Z8
G0 X0.000 Y17.000
G1 Z-5 F800
G1 Z5 F800
; Wipe Angle 5.9
G0 X5.968 Y17.616
G0 Z5
G1 X14.921 Y18.539 F600
G0 F1000
G0 Z8
G0 Y15.400 F200
G0 X0.000 Y30.000
G0 XNaN YNaN
G1 XNaN YNaN Z0 F1000
G0 XNaN YNaN
G1 XNaN YNaN Z0 F1000
G0 XNaN YNaN
G1 XNaN YNaN Z0 F1000
G0 XNaN YNaN
G1 XNaN YNaN Z0 F1000
G0 XNaN YNaN
G1 XNaN YNaN Z0 F1000
G0 XNaN YNaN
G1 XNaN YNaN Z0 F1000
G0 XNaN YNaN
G1 XNaN YNaN Z0 F1000
G0 XNaN YNaN
G1 XNaN YNaN Z0 F1000
G0 XNaN YNaN
G1 XNaN YNaN Z0 F1000
G0 XNaN YNaN
G1 XNaN YNaN Z0 F1000
G0 XNaN YNaN
G1 XNaN YNaN Z0 F1000
G0 XNaN YNaN
G1 XNaN YNaN Z0 F1000
G0 XNaN YNaN
G1 XNaN YNaN Z0 F1000
G0 XNaN YNaN
G1 XNaN YNaN Z0 F1000
G0 XNaN YNaN
G1 XNaN YNaN Z0 F1000
G0 XNaN YNaN
G1 XNaN YNaN Z0 F1000
G0 XNaN YNaN
G1 XNaN YNaN Z0 F1000
G0 XNaN YNaN
G1 XNaN YNaN Z0 F1000
G0 XNaN YNaN
G1 XNaN YNaN Z0 F1000
G0 XNaN YNaN
G1 XNaN YNaN Z0 F1000
G0 XNaN YNaN
G1 XNaN YNaN Z0 F1000
G0 XNaN YNaN
G1 XNaN YNaN Z0 F1000
G0 XNaN YNaN
G1 XNaN YNaN Z0 F1000
G0 XNaN YNaN
G1 XNaN YNaN Z0 F1000
G0 XNaN YNaN
G1 XNaN YNaN Z0 F1000
G0 XNaN YNaN
G1 XNaN YNaN Z0 F1000
G0 XNaN YNaN
G1 XNaN YNaN Z0 F1000
G0 XNaN YNaN
G1 XNaN YNaN Z0 F1000
G0 XNaN YNaN
G1 XNaN YNaN Z0 F1000
G0 XNaN YNaN
G1 XNaN YNaN Z0 F1000
G0 XNaN YNaN
G1 XNaN YNaN Z0 F1000
G0 XNaN YNaN
G1 XNaN YNaN Z0 F1000
G0 XNaN YNaN
G1 XNaN YNaN Z0 F1000
G0 XNaN YNaN
G1 XNaN YNaN Z0 F1000
G0 XNaN YNaN
G1 XNaN YNaN Z0 F1000
G0 XNaN YNaN
G1 XNaN YNaN Z0 F1000
G0 XNaN YNaN
G1 XNaN YNaN Z0 F1000
G0 XNaN YNaN
G1 XNaN YNaN Z0 F1000
G0 XNaN YNaN
G1 XNaN YNaN Z0 F1000
G0 XNaN YNaN
G1 XNaN YNaN Z0 F1000
G0 XNaN YNaN
G1 XNaN YNaN Z0 F1000
G0 XNaN YNaN
G1 XNaN YNaN Z0 F1000
G0 XNaN YNaN
G1 XNaN YNaN Z0 F1000
G0 XNaN YNaN
G1 XNaN YNaN Z0 F1000
G0 XNaN YNaN
G1 XNaN YNaN Z0 F1000
G0 XNaN YNaN
G1 XNaN YNaN Z0 F1000
G0 XNaN YNaN
G1 XNaN YNaN Z0 F1000
G0 XNaN YNaN
G1 XNaN YNaN Z0 F1000
G0 XNaN YNaN
G1 XNaN YNaN Z0 F1000
G0 XNaN YNaN
G1 XNaN YNaN Z0 F1000
G0 XNaN YNaN
G1 XNaN YNaN Z0 F1000
G0 XNaN YNaN
G1 XNaN YNaN Z0 F1000
G0 XNaN YNaN
G1 XNaN YNaN Z0 F1000
G0 XNaN YNaN
G1 XNaN YNaN Z0 F1000
G0 XNaN YNaN
G1 XNaN YNaN Z0 F1000
G0 XNaN YNaN
G1 XNaN YNaN Z0 F1000
G0 XNaN YNaN
G1 XNaN YNaN Z0 F1000
G0 XNaN YNaN
G1 XNaN YNaN Z0 F1000
G0 XNaN YNaN
G1 XNaN YNaN Z0 F1000
G0 XNaN YNaN
G1 XNaN YNaN Z0 F1000
G0 XNaN YNaN
G1 XNaN YNaN Z0 F1000
G0 XNaN YNaN
G1 XNaN YNaN Z0 F1000
G0 XNaN YNaN
G1 XNaN YNaN Z0 F1000
G0 XNaN YNaN
G1 XNaN YNaN Z0 F1000
G0 XNaN YNaN
G1 XNaN YNaN Z0 F1000
G0 XNaN YNaN
G1 XNaN YNaN Z0 F1000
G0 XNaN YNaN
G1 XNaN YNaN Z0 F1000
G0 XNaN YNaN
G1 XNaN YNaN Z0 F1000
G0 XNaN YNaN
G1 XNaN YNaN Z0 F1000
G0 XNaN YNaN
G1 XNaN YNaN Z0 F1000
G0 XNaN YNaN
G1 XNaN YNaN Z0 F1000
G0 XNaN YNaN
G1 XNaN YNaN Z0 F1000
G0 XNaN YNaN
G1 XNaN YNaN Z0 F1000
G0 XNaN YNaN
G1 XNaN YNaN Z0 F1000
G0 XNaN YNaN
G1 XNaN YNaN Z0 F1000
G0 XNaN YNaN
G1 XNaN YNaN Z0 F1000
G0 XNaN YNaN
G1 XNaN YNaN Z0 F1000
G0 XNaN YNaN
G1 XNaN YNaN Z0 F1000
G0 XNaN YNaN
G1 XNaN YNaN Z0 F1000
G0 XNaN YNaN
G1 XNaN YNaN Z0 F1000
G0 XNaN YNaN
G1 XNaN YNaN Z0 F1000
G0 XNaN YNaN
G1 XNaN YNaN Z0 F1000
G0 XNaN YNaN
G1 XNaN YNaN Z0 F1000
G0 XNaN YNaN
G1 XNaN YNaN Z0 F1000
G0 XNaN YNaN
G1 XNaN YNaN Z0 F1000
G0 XNaN YNaN
G1 XNaN YNaN Z0 F1000
G0 XNaN YNaN
G1 XNaN YNaN Z0 F1000
G0 XNaN YNaN
G1 XNaN YNaN Z0 F1000
G0 XNaN YNaN
G1 XNaN YNaN Z0 F1000
G0 XNaN YNaN
G1 XNaN YNaN Z0 F1000
G0 XNaN YNaN
G1 XNaN YNaN Z0 F1000
G0 XNaN YNaN
G1 XNaN YNaN Z0 F1000
G0 XNaN YNaN
G1 XNaN YNaN Z0 F1000
G0 XNaN YNaN
G1 XNaN YNaN Z0 F1000
G0 XNaN YNaN
G1 XNaN YNaN Z0 F1000
G0 XNaN YNaN
G1 XNaN YNaN Z0 F1000
G0 XNaN YNaN
G1 XNaN YNaN Z0 F1000
G0 XNaN YNaN
G1 XNaN YNaN Z0 F1000
G0 XNaN YNaN
G1 XNaN YNaN Z0 F1000
G0 XNaN YNaN
G1 XNaN YNaN Z0 F1000
G0 XNaN YNaN
G1 XNaN YNaN Z0 F1000
G0 XNaN YNaN
G1 XNaN YNaN Z0 F1000
G0 XNaN YNaN
G1 XNaN YNaN Z0 F1000
G0 XNaN YNaN
G1 XNaN YNaN Z0 F1000
G0 XNaN YNaN
G1 XNaN YNaN Z0 F1000
G0 XNaN YNaN
G1 XNaN YNaN Z0 F1000
G0 XNaN YNaN
G1 XNaN YNaN Z0 F1000
G0 XNaN YNaN
G1 XNaN YNaN Z0 F1000
G0 XNaN YNaN
G1 XNaN YNaN Z0 F1000
G0 XNaN YNaN
G1 XNaN YNaN Z0 F1000
G0 XNaN YNaN
G1 XNaN YNaN Z0 F1000
G0 XNaN YNaN
G1 XNaN YNaN Z0 F1000
G0 XNaN YNaN
G1 XNaN YNaN Z0 F1000
G0 XNaN YNaN
G1 XNaN YNaN Z0 F1000
G0 XNaN YNaN
G1 XNaN YNaN Z0 F1000
G0 XNaN YNaN
G1 XNaN YNaN Z0 F1000
G0 XNaN YNaN
G1 XNaN YNaN Z0 F1000
G0 XNaN YNaN
G1 XNaN YNaN Z0 F1000
G0 XNaN YNaN
G1 XNaN YNaN Z0 F1000
G0 XNaN YNaN
G1 XNaN YNaN Z0 F1000
G0 XNaN YNaN
G1 XNaN YNaN Z0 F1000
G0 XNaN YNaN
G1 XNaN YNaN Z0 F1000
G0 XNaN YNaN
G1 XNaN YNaN Z0 F1000
G0 XNaN YNaN
G1 XNaN YNaN Z0 F1000
G0 XNaN YNaN
G1 XNaN YNaN Z0 F1000
G0 XNaN YNaN
G1 XNaN YNaN Z0 F1000
G0 XNaN YNaN
G1 XNaN YNaN Z0 F1000
G0 XNaN YNaN
G1 XNaN YNaN Z0 F1000
G0 XNaN YNaN
G1 XNaN YNaN Z0 F1000
G0 XNaN YNaN
G1 XNaN YNaN Z0 F1000
G0 XNaN YNaN
G1 XNaN YNaN Z0 F1000
G0 XNaN YNaN
G1 XNaN YNaN Z0 F1000
G0 XNaN YNaN
G1 XNaN YNaN Z0 F1000
G0 XNaN YNaN
G1 XNaN YNaN Z0 F1000
G0 XNaN YNaN
G1 XNaN YNaN Z0 F1000
G0 XNaN YNaN
G1 XNaN YNaN Z0 F1000
G0 XNaN YNaN
G1 XNaN YNaN Z0 F1000
G0 XNaN YNaN
G1 XNaN YNaN Z0 F1000
G0 XNaN YNaN
G1 XNaN YNaN Z0 F1000
G0 XNaN YNaN
G1 XNaN YNaN Z0 F1000
G0 XNaN YNaN
G1 XNaN YNaN Z0 F1000
G0 XNaN YNaN
G1 XNaN YNaN Z0 F1000
G0 XNaN YNaN
G1 XNaN YNaN Z0 F1000
G0 XNaN YNaN
G1 XNaN YNaN Z0 F1000
G0 XNaN YNaN
G1 XNaN YNaN Z0 F1000
G0 XNaN YNaN
G1 XNaN YNaN Z0 F1000
G0 XNaN YNaN
G1 XNaN YNaN Z0 F1000
G0 XNaN YNaN
G1 XNaN YNaN Z0 F1000
G0 XNaN YNaN
G1 XNaN YNaN Z0 F1000
G0 XNaN YNaN
G1 XNaN YNaN Z0 F1000
G0 XNaN YNaN
G1 XNaN YNaN Z0 F1000
G0 XNaN YNaN
G1 XNaN YNaN Z0 F1000
G0 XNaN YNaN
G1 XNaN YNaN Z0 F1000
G0 XNaN YNaN
G1 XNaN YNaN Z0 F1000
G0 XNaN YNaN
G1 XNaN YNaN Z0 F1000
G0 XNaN YNaN
G1 XNaN YNaN Z0 F1000
G0 XNaN YNaN
G1 XNaN YNaN Z0 F1000
G0 XNaN YNaN
G1 XNaN YNaN Z0 F1000
G0 XNaN YNaN
G1 XNaN YNaN Z0 F1000
G0 XNaN YNaN
G1 XNaN YNaN Z0 F1000
G0 XNaN YNaN
G1 XNaN YNaN Z0 F1000
G0 XNaN YNaN
G1 XNaN YNaN Z0 F1000
G0 XNaN YNaN
G1 XNaN YNaN Z0 F1000
G0 XNaN YNaN
G1 XNaN YNaN Z0 F1000
G0 XNaN YNaN
G1 XNaN YNaN Z0 F1000
G0 XNaN YNaN
G1 XNaN YNaN Z0 F1000
G0 XNaN YNaN
G1 XNaN YNaN Z0 F1000
G0 XNaN YNaN
G1 XNaN YNaN Z0 F1000
G0 XNaN YNaN
G1 XNaN YNaN Z0 F1000
G0 XNaN YNaN
G1 XNaN YNaN Z0 F1000
G0 XNaN YNaN
G1 XNaN YNaN Z0 F1000
G0 XNaN YNaN
G1 XNaN YNaN Z0 F1000
G0 XNaN YNaN
G1 XNaN YNaN Z0 F1000
G0 XNaN YNaN
G1 XNaN YNaN Z0 F1000
G0 XNaN YNaN
G1 XNaN YNaN Z0 F1000
G0 XNaN YNaN
G1 XNaN YNaN Z0 F1000
G0 XNaN YNaN
G1 XNaN YNaN Z0 F1000
G0 XNaN YNaN
G1 XNaN YNaN Z0 F1000
G0 XNaN YNaN
G1 XNaN YNaN Z0 F1000
G0 XNaN YNaN
G1 XNaN YNaN Z0 F1000
G0 XNaN YNaN
G1 XNaN YNaN Z0 F1000
G0 XNaN YNaN
G1 XNaN YNaN Z0 F1000
G0 XNaN YNaN
G1 XNaN YNaN Z0 F1000
G0 XNaN YNaN
G1 XNaN YNaN Z0 F1000
G0 XNaN YNaN
G1 XNaN YNaN Z0 F1000
G0 XNaN YNaN
G1 XNaN YNaN Z0 F1000
G0 XNaN YNaN
G1 XNaN YNaN Z0 F1000
G0 XNaN YNaN
G1 XNaN YNaN Z0 F1000
G0 XNaN YNaN
G1 XNaN YNaN Z0 F1000
G0 XNaN YNaN
G1 XNaN YNaN Z0 F1000
G0 XNaN YNaN
G1 XNaN YNaN Z0 F1000
G0 XNaN YNaN
G1 XNaN YNaN Z0 F1000
G0 XNaN YNaN
G1 XNaN YNaN Z0 F1000
G0 XNaN YNaN
G1 XNaN YNaN Z0 F1000
G0 XNaN YNaN
G1 XNaN YNaN Z0 F1000
G0 XNaN YNaN
G1 XNaN YNaN Z0 F1000
G0 XNaN YNaN
G1 XNaN YNaN Z0 F1000
G0 XNaN YNaN
G1 XNaN YNaN Z0 F1000
G0 XNaN YNaN
G1 XNaN YNaN Z0 F1000
G0 XNaN YNaN
G1 XNaN YNaN Z0 F1000
G0 XNaN YNaN
G1 XNaN YNaN Z0 F1000
G0 XNaN YNaN
G1 XNaN YNaN Z0 F1000
G0 XNaN YNaN
G1 XNaN YNaN Z0 F1000
G0 XNaN YNaN
G1 XNaN YNaN Z0 F1000
G0 XNaN YNaN
G1 XNaN YNaN Z0 F1000
G0 XNaN YNaN
G1 XNaN YNaN Z0 F1000
G0 XNaN YNaN
G1 XNaN YNaN Z0 F1000
G0 XNaN YNaN
G1 XNaN YNaN Z0 F1000
G0 XNaN YNaN
G1 XNaN YNaN Z0 F1000
G0 XNaN YNaN
G1 XNaN YNaN Z0 F1000
G0 XNaN YNaN
G1 XNaN YNaN Z0 F1000
G0 XNaN YNaN
G1 XNaN YNaN Z0 F1000
G0 XNaN YNaN
G1 XNaN YNaN Z0 F1000
G0 XNaN YNaN
G1 XNaN YNaN Z0 F1000
G0 XNaN YNaN
G1 XNaN YNaN Z0 F1000
G0 XNaN YNaN
G1 XNaN YNaN Z0 F1000
G0 XNaN YNaN
G1 XNaN YNaN Z0 F1000
G0 XNaN YNaN
G1 XNaN YNaN Z0 F1000
G0 XNaN YNaN
G1 XNaN YNaN Z0 F1000
G0 XNaN YNaN
G1 XNaN YNaN Z0 F1000
G0 XNaN YNaN
G1 XNaN YNaN Z0 F1000
G0 XNaN YNaN
G1 XNaN YNaN Z0 F1000
G0 XNaN YNaN
G1 XNaN YNaN Z0 F1000
G0 XNaN YNaN
G1 XNaN YNaN Z0 F1000
G0 XNaN YNaN
G1 XNaN YNaN Z0 F1000
G0 XNaN YNaN
G1 XNaN YNaN Z0 F1000
G0 XNaN YNaN
G1 XNaN YNaN Z0 F1000
G0 XNaN YNaN
G1 XNaN YNaN Z0 F1000
G0 XNaN YNaN
G1 XNaN YNaN Z0 F1000
G0 XNaN YNaN
G1 XNaN YNaN Z0 F1000
G0 XNaN YNaN
G1 XNaN YNaN Z0 F1000
G0 XNaN YNaN
G1 XNaN YNaN Z0 F1000
G0 XNaN YNaN
G1 XNaN YNaN Z0 F1000
G0 XNaN YNaN
G1 XNaN YNaN Z0 F1000
G0 XNaN YNaN
G1 XNaN YNaN Z0 F1000
G0 XNaN YNaN
G1 XNaN YNaN Z0 F1000
G0 XNaN YNaN
G1 XNaN YNaN Z0 F1000
G0 XNaN YNaN
G1 XNaN YNaN Z0 F1000
G0 XNaN YNaN
G1 XNaN YNaN Z0 F1000
G0 XNaN YNaN
G1 XNaN YNaN Z0 F1000
G0 XNaN YNaN
G1 XNaN YNaN Z0 F1000
G0 XNaN YNaN
G1 XNaN YNaN Z0 F1000
G0 XNaN YNaN
G1 XNaN YNaN Z0 F1000
G0 XNaN YNaN
G1 XNaN YNaN Z0 F1000
G0 XNaN YNaN
G1 XNaN YNaN Z0 F1000
G0 XNaN YNaN
G1 XNaN YNaN Z0 F1000
G0 XNaN YNaN
G1 XNaN YNaN Z0 F1000
G0 XNaN YNaN
G1 XNaN YNaN Z0 F1000
G0 XNaN YNaN
G1 XNaN YNaN Z0 F1000
G0 XNaN YNaN
G1 XNaN YNaN Z0 F1000
G0 XNaN YNaN
G1 XNaN YNaN Z0 F1000
G0 XNaN YNaN
G1 XNaN YNaN Z0 F1000
G0 XNaN YNaN
G1 XNaN YNaN Z0 F1000
G0 XNaN YNaN
G1 XNaN YNaN Z0 F1000
G0 XNaN YNaN
G1 XNaN YNaN Z0 F1000
G0 XNaN YNaN
G1 XNaN YNaN Z0 F1000
G0 XNaN YNaN
G1 XNaN YNaN Z0 F1000
G0 XNaN YNaN
G1 XNaN YNaN Z0 F1000
G0 XNaN YNaN
G1 XNaN YNaN Z0 F1000
G0 XNaN YNaN
G1 XNaN YNaN Z0 F1000
G0 XNaN YNaN
G1 XNaN YNaN Z0 F1000
G0 XNaN YNaN
G1 XNaN YNaN Z0 F1000
G0 XNaN YNaN
G1 XNaN YNaN Z0 F1000
G0 XNaN YNaN
G1 XNaN YNaN Z0 F1000
G0 XNaN YNaN
G1 XNaN YNaN Z0 F1000
G0 XNaN YNaN
G1 XNaN YNaN Z0 F1000
G0 XNaN YNaN
G1 XNaN YNaN Z0 F1000
G0 XNaN YNaN
G1 XNaN YNaN Z0 F1000
G0 XNaN YNaN
G1 XNaN YNaN Z0 F1000
G0 XNaN YNaN
G1 XNaN YNaN Z0 F1000
G0 XNaN YNaN
G1 XNaN YNaN Z0 F1000
G0 XNaN YNaN
G1 XNaN YNaN Z0 F1000
G0 XNaN YNaN
G1 XNaN YNaN Z0 F1000
G0 XNaN YNaN
G1 XNaN YNaN Z0 F1000
G0 XNaN YNaN
G1 XNaN YNaN Z0 F1000
G0 XNaN YNaN
G1 XNaN YNaN Z0 F1000
G0 XNaN YNaN
G1 XNaN YNaN Z0 F1000
G0 XNaN YNaN
G1 XNaN YNaN Z0 F1000
G0 XNaN YNaN
G1 XNaN YNaN Z0 F1000
G0 XNaN YNaN
G1 XNaN YNaN Z0 F1000
G0 XNaN YNaN
G1 XNaN YNaN Z0 F1000
G0 XNaN YNaN
G1 XNaN YNaN Z0 F1000
G0 XNaN YNaN
G1 XNaN YNaN Z0 F1000
G0 XNaN YNaN
G1 XNaN YNaN Z0 F1000
G0 XNaN YNaN
G1 XNaN YNaN Z0 F1000
G0 XNaN YNaN
G1 XNaN YNaN Z0 F1000
G0 XNaN YNaN
G1 XNaN YNaN Z0 F1000
G0 XNaN YNaN
G1 XNaN YNaN Z0 F1000
G0 XNaN YNaN
G1 XNaN YNaN Z0 F1000
G0 XNaN YNaN
G1 XNaN YNaN Z0 F1000
G0 XNaN YNaN
G1 XNaN YNaN Z0 F1000
G0 XNaN YNaN
G1 XNaN YNaN Z0 F1000
G0 XNaN YNaN
G1 XNaN YNaN Z0 F1000
G0 XNaN YNaN
G1 XNaN YNaN Z0 F1000
G0 XNaN YNaN
G1 XNaN YNaN Z0 F1000
G0 XNaN YNaN
G1 XNaN YNaN Z0 F1000
G0 XNaN YNaN
G1 XNaN YNaN Z0 F1000
G0 XNaN YNaN
G1 XNaN YNaN Z0 F1000
G0 XNaN YNaN
G1 XNaN YNaN Z0 F1000
G0 XNaN YNaN
G1 XNaN YNaN Z0 F1000
G0 XNaN YNaN
G1 XNaN YNaN Z0 F1000
G0 XNaN YNaN
G1 XNaN YNaN Z0 F1000
G0 XNaN YNaN
G1 XNaN YNaN Z0 F1000
G0 XNaN YNaN
G1 XNaN YNaN Z0 F1000
G0 XNaN YNaN
G1 XNaN YNaN Z0 F1000
G0 XNaN YNaN
G1 XNaN YNaN Z0 F1000
G0 XNaN YNaN
G1 XNaN YNaN Z0 F1000
G0 XNaN YNaN
G1 XNaN YNaN Z0 F1000
G0 XNaN YNaN
G1 XNaN YNaN Z0 F1000
G0 XNaN YNaN
G1 XNaN YNaN Z0 F1000
G0 XNaN YNaN
G1 XNaN YNaN Z0 F1000
G0 XNaN YNaN
G1 XNaN YNaN Z0 F1000
G0 XNaN YNaN
G1 XNaN YNaN Z0 F1000
G0 XNaN YNaN
G1 XNaN YNaN Z0 F1000
G0 XNaN YNaN
G1 XNaN YNaN Z0 F1000
G0 XNaN YNaN
G1 XNaN YNaN Z0 F1000
G0 XNaN YNaN
G1 XNaN YNaN Z0 F1000
G0 XNaN YNaN
G1 XNaN YNaN Z0 F1000
G0 XNaN YNaN
G1 XNaN YNaN Z0 F1000
G0 XNaN YNaN
G1 XNaN YNaN Z0 F1000
G0 XNaN YNaN
G1 XNaN YNaN Z0 F1000
G0 XNaN YNaN
G1 XNaN YNaN Z0 F1000
G0 XNaN YNaN
G1 XNaN YNaN Z0 F1000
G0 XNaN YNaN
G1 XNaN YNaN Z0 F1000
G0 XNaN YNaN
G1 XNaN YNaN Z0 F1000
G0 XNaN YNaN
G1 XNaN YNaN Z0 F1000
G0 XNaN YNaN
G1 XNaN YNaN Z0 F1000
G0 XNaN YNaN
G1 XNaN YNaN Z0 F1000
G0 XNaN YNaN
G1 XNaN YNaN Z0 F1000
G0 XNaN YNaN
G1 XNaN YNaN Z0 F1000
G0 XNaN YNaN
G1 XNaN YNaN Z0 F1000
G0 XNaN YNaN
G1 XNaN YNaN Z0 F1000
G0 XNaN YNaN
G1 XNaN YNaN Z0 F1000
G0 XNaN YNaN
G1 XNaN YNaN Z0 F1000
G0 XNaN YNaN
G1 XNaN YNaN Z0 F1000
G0 XNaN YNaN
G1 XNaN YNaN Z0 F1000
G0 XNaN YNaN
G1 XNaN YNaN Z0 F1000
G0 XNaN YNaN
G1 XNaN YNaN Z0 F1000
G0 XNaN YNaN
G1 XNaN YNaN Z0 F1000
G0 XNaN YNaN
G1 XNaN YNaN Z0 F1000
G0 XNaN YNaN
G1 XNaN YNaN Z0 F1000
G0 XNaN YNaN
G1 XNaN YNaN Z0 F1000
G0 XNaN YNaN
G1 XNaN YNaN Z0 F1000
G0 XNaN YNaN
G1 XNaN YNaN Z0 F1000
G0 XNaN YNaN
G1 XNaN YNaN Z0 F1000
G0 XNaN YNaN
G1 XNaN YNaN Z0 F1000
G0 XNaN YNaN
G1 XNaN YNaN Z0 F1000
G0 XNaN YNaN
G1 XNaN YNaN Z0 F1000
G0 XNaN YNaN
G1 XNaN YNaN Z0 F1000
G0 XNaN YNaN
G1 XNaN YNaN Z0 F1000
G0 XNaN YNaN
G1 XNaN YNaN Z0 F1000
G0 XNaN YNaN
G1 XNaN YNaN Z0 F1000
G0 XNaN YNaN
G1 XNaN YNaN Z0 F1000
G0 XNaN YNaN
G1 XNaN YNaN Z0 F1000
G0 XNaN YNaN
G1 XNaN YNaN Z0 F1000
G0 XNaN YNaN
G1 XNaN YNaN Z0 F1000
G0 XNaN YNaN
G1 XNaN YNaN Z0 F1000
G0 XNaN YNaN
G1 XNaN YNaN Z0 F1000
G0 XNaN YNaN
G1 XNaN YNaN Z0 F1000
G0 XNaN YNaN
G1 XNaN YNaN Z0 F1000
G0 XNaN YNaN
G1 XNaN YNaN Z0 F1000
G0 XNaN YNaN
G1 XNaN YNaN Z0 F1000
G0 XNaN YNaN
G1 XNaN YNaN Z0 F1000
G0 XNaN YNaN
G1 XNaN YNaN Z0 F1000
G0 XNaN YNaN
G1 XNaN YNaN Z0 F1000
G0 XNaN YNaN
G1 XNaN YNaN Z0 F1000
G0 XNaN YNaN
G1 XNaN YNaN Z0 F1000
G0 XNaN YNaN
G1 XNaN YNaN Z0 F1000
G0 XNaN YNaN
G1 XNaN YNaN Z0 F1000
G0 XNaN YNaN
G1 XNaN YNaN Z0 F1000
G0 XNaN YNaN
G1 XNaN YNaN Z0 F1000
G0 XNaN YNaN
G1 XNaN YNaN Z0 F1000
G0 XNaN YNaN
G1 XNaN YNaN Z0 F1000
G0 XNaN YNaN
G1 XNaN YNaN Z0 F1000
G0 XNaN YNaN
G1 XNaN YNaN Z0 F1000
G0 XNaN YNaN
G1 XNaN YNaN Z0 F1000
G0 XNaN YNaN
G1 XNaN YNaN Z0 F1000
G0 XNaN YNaN
G1 XNaN YNaN Z0 F1000
G0 XNaN YNaN
G1 XNaN YNaN Z0 F1000
G0 XNaN YNaN
G1 XNaN YNaN Z0 F1000
G0 XNaN YNaN
G1 XNaN YNaN Z0 F1000
G0 XNaN YNaN
G1 XNaN YNaN Z0 F1000
G0 XNaN YNaN
G1 XNaN YNaN Z0 F1000
G0 XNaN YNaN
G1 XNaN YNaN Z0 F1000
G0 XNaN YNaN
G1 XNaN YNaN Z0 F1000
G0 XNaN YNaN
G1 XNaN YNaN Z0 F1000
G0 XNaN YNaN
G1 XNaN YNaN Z0 F1000
G0 XNaN YNaN
G1 XNaN YNaN Z0 F1000
G0 XNaN YNaN
G1 XNaN YNaN Z0 F1000
G0 XNaN YNaN
G1 XNaN YNaN Z0 F1000
G0 XNaN YNaN
G1 XNaN YNaN Z0 F1000
G0 XNaN YNaN
G1 XNaN YNaN Z0 F1000
G0 XNaN YNaN
G1 XNaN YNaN Z0 F1000
G0 XNaN YNaN
G1 XNaN YNaN Z0 F1000
G0 XNaN YNaN
G1 XNaN YNaN Z0 F1000
G0 XNaN YNaN
G1 XNaN YNaN Z0 F1000
G0 XNaN YNaN
G1 XNaN YNaN Z0 F1000
G0 XNaN YNaN
G1 XNaN YNaN Z0 F1000
G0 XNaN YNaN
G1 XNaN YNaN Z0 F1000
G0 XNaN YNaN
G1 XNaN YNaN Z0 F1000
G0 XNaN YNaN
G1 XNaN YNaN Z0 F1000
G0 XNaN YNaN
G1 XNaN YNaN Z0 F1000
G0 XNaN YNaN
G1 XNaN YNaN Z0 F1000
G0 XNaN YNaN
G1 XNaN YNaN Z0 F1000
G0 XNaN YNaN
G1 XNaN YNaN Z0 F1000
G0 XNaN YNaN
G1 XNaN YNaN Z0 F1000
G0 XNaN YNaN
G1 XNaN YNaN Z0 F1000
G0 XNaN YNaN
G1 XNaN YNaN Z0 F1000
G0 XNaN YNaN
G1 XNaN YNaN Z0 F1000
G0 XNaN YNaN
G1 XNaN YNaN Z0 F1000
G0 XNaN YNaN
G1 XNaN YNaN Z0 F1000
G0 XNaN YNaN
G1 XNaN YNaN Z0 F1000
G0 XNaN YNaN
G1 XNaN YNaN Z0 F1000
G0 XNaN YNaN
G1 XNaN YNaN Z0 F1000
G0 XNaN YNaN
G1 XNaN YNaN Z0 F1000
G0 XNaN YNaN
G1 XNaN YNaN Z0 F1000
G0 XNaN YNaN
G1 XNaN YNaN Z0 F1000
G0 XNaN YNaN
G1 XNaN YNaN Z0 F1000
G0 XNaN YNaN
G1 XNaN YNaN Z0 F1000
G0 XNaN YNaN
G1 XNaN YNaN Z0 F1000
G0 XNaN YNaN
G1 XNaN YNaN Z0 F1000
G0 XNaN YNaN
G1 XNaN YNaN Z0 F1000
G0 XNaN YNaN
G1 XNaN YNaN Z0 F1000
G0 XNaN YNaN
G1 XNaN YNaN Z0 F1000
G0 XNaN YNaN
G1 XNaN YNaN Z0 F1000
G0 XNaN YNaN
G1 XNaN YNaN Z0 F1000
G0 XNaN YNaN
G1 XNaN YNaN Z0 F1000
G0 XNaN YNaN
G1 XNaN YNaN Z0 F1000
G0 XNaN YNaN
G1 XNaN YNaN Z0 F1000
G0 XNaN YNaN
G1 XNaN YNaN Z0 F1000
G0 XNaN YNaN
G1 XNaN YNaN Z0 F1000
G0 XNaN YNaN
G1 XNaN YNaN Z0 F1000
G0 XNaN YNaN
G1 XNaN YNaN Z0 F1000
G0 XNaN YNaN
G1 XNaN YNaN Z0 F1000
G0 XNaN YNaN
G1 XNaN YNaN Z0 F1000
G0 XNaN YNaN
G1 XNaN YNaN Z0 F1000
G0 XNaN YNaN
G1 XNaN YNaN Z0 F1000
G0 XNaN YNaN
G1 XNaN YNaN Z0 F1000
G0 XNaN YNaN
G1 XNaN YNaN Z0 F1000
G0 XNaN YNaN
G1 XNaN YNaN Z0 F1000
G0 XNaN YNaN
G1 XNaN YNaN Z0 F1000
G0 XNaN YNaN
G1 XNaN YNaN Z0 F1000
G0 XNaN YNaN
G1 XNaN YNaN Z0 F1000
G0 XNaN YNaN
G1 XNaN YNaN Z0 F1000
G0 XNaN YNaN
G1 XNaN YNaN Z0 F1000
G0 XNaN YNaN
G1 XNaN YNaN Z0 F1000
G0 XNaN YNaN
G1 XNaN YNaN Z0 F1000
G0 XNaN YNaN
G1 XNaN YNaN Z0 F1000
G0 XNaN YNaN
G1 XNaN YNaN Z0 F1000
G0 XNaN YNaN
G1 XNaN YNaN Z0 F1000
G0 XNaN YNaN
