; Generated by CMYK Pro (V2.1 - Z-move and Randomization Fixes)
G21 ; Millimeters
G90 ; Absolute positioning
G0 Z8.000

; --- COLOR CHANGE: YELLOW ---
G0 Z8.000
G0 X109.000 Y0.000
G1 Z0.000 F800
G1 Z5.000 F800
; Smart Wipe -> Angle 151.1 deg
G0 X103.750 Y2.904
G0 Z5.000
G1 X91.499 Y9.681 F600
G0 F1000
G0 Z8.000
G0 X0.000 F200
G0 Y0.000 F200
G0 Z8.000
G0 X3.131 Y85.284
G1 X3.816 Y85.284 Z0.000 F1000

; --- COLOR CHANGE: CYAN ---
G0 Z8.000
G0 X0.000 Y17.000
G1 Z0.000 F800
G1 Z5.000 F800
; Smart Wipe -> Angle 33.7 deg
G0 X4.990 Y20.332
G0 Z5.000
G1 X16.633 Y28.106 F600
G0 F1000
G0 Z8.000
G0 Y86.884 F200
G0 Z8.000
G0 X37.573 Y41.252
G1 X37.573 Y41.252 Z0.000 F1000

; --- COLOR CHANGE: BLACK ---
G0 Z8.000
G0 X140.000 Y0.000
G1 Z0.000 F800
G1 Z5.000 F800
; Smart Wipe -> Angle 124.5 deg
G0 X138.597 Y4.942
G0 Z5.000
G1 X130.658 Y16.473 F600
G0 F1000
G0 Z8.000
G0 Y39.652 F200
G0 Z8.000
G0 X86.986 Y74.521
G1 X87.182 Y74.521 Z0.000 F1000

; --- COLOR CHANGE: CYAN ---
G0 Z8.000
G0 X0.000 Y17.000
G1 Z0.000 F800
G1 Z5.000 F800
; Smart Wipe -> Angle 71.0 deg
G0 X1.958 Y22.672
G0 Z5.000
G1 X6.526 Y35.905 F600
G0 F1000
G0 Z8.000
G0 X87.682 F200
G0 Z8.000
G0 X12.818 Y90.665
G0 X12.318 F200
G1 X15.460 Y90.665 Z0.000 F1000

; --- COLOR CHANGE: BLACK ---
G0 Z8.000
G0 X140.000 Y0.000
G1 Z0.000 F800
G1 Z5.000 F800
; Smart Wipe -> Angle 141.1 deg
G0 X137.328 Y3.765
G0 Z5.000
G1 X126.427 Y12.549 F600
G0 F1000
G0 Z8.000
G0 Y92.265 F200
G0 Z8.000
G0 X54.697 Y46.634
G1 X54.795 Y46.634 Z0.000 F1000

; --- COLOR CHANGE: YELLOW ---
G0 Z8.000
G0 X109.000 Y0.000
G1 Z0.000 F800
G1 Z5.000 F800
; Smart Wipe -> Angle 115.6 deg
G0 X106.405 Y5.410
G0 Z5.000
G1 X100.350 Y18.033 F600
G0 F1000
G0 Z8.000
G0 X55.295 F200
G0 Y45.034 F200
G0 Z8.000
G0 X52.446 Y77.945
G1 X52.446 Y77.945 Z0.000 F1000
G0 X51.946 F200
G0 Z8.000
G0 X70.450 Y91.155
G1 X74.266 Y91.155 Z0.000 F1000

; --- COLOR CHANGE: BLACK ---
G0 Z8.000
G0 X140.000 Y0.000
G1 Z0.000 F800
G1 Z5.000 F800
; Smart Wipe -> Angle 146.0 deg
G0 X137.026 Y3.356
G0 Z5.000
G1 X125.421 Y11.186 F600
G0 F1000
G0 Z8.000
G0 X74.766 F200
G0 Y92.755 F200
G0 Z8.000
G0 X62.231 Y47.123
G0 X61.731 F200
G1 X62.622 Y47.123 Z0.000 F1000

; --- COLOR CHANGE: CYAN ---
G0 Z8.000
G0 X0.000 Y17.000
G1 Z0.000 F800
G1 Z5.000 F800
; Smart Wipe -> Angle 17.2 deg
G0 X5.732 Y18.773
G0 Z5.000
G1 X19.106 Y22.911 F600
G0 F1000
G0 Z8.000
G0 Z8.000
G0 X91.879 Y39.785
G1 X92.466 Y39.785 Z0.000 F1000
G0 X92.966 F200
G0 Y38.185 F200
G0 Z8.000
G0 X44.325 Y106.321
G0 X43.825 F200
G1 X44.618 Y106.321 Z0.000 F1000

; --- COLOR CHANGE: YELLOW ---
G0 Z8.000
G0 X109.000 Y0.000
G1 Z0.000 F800
G1 Z5.000 F800
; Smart Wipe -> Angle 113.9 deg
G0 X106.568 Y5.485
G0 Z5.000
G1 X100.895 Y18.284 F600
G0 F1000
G0 Z8.000
G0 Y107.921 F200
G0 Z8.000
G0 X86.301 Y45.656
G1 X86.791 Y45.656 Z0.000 F1000

; --- COLOR CHANGE: BLACK ---
G0 Z8.000
G0 X140.000 Y0.000
G1 Z0.000 F800
G1 Z5.000 F800
; Smart Wipe -> Angle 129.0 deg
G0 X138.220 Y4.660
G0 Z5.000
G1 X129.400 Y15.532 F600
G0 F1000
G0 Z8.000
G0 X87.291 F200
G0 Y44.056 F200
G0 Z8.000
G0 X55.479 Y70.607
G0 X54.979 F200
G1 X55.773 Y70.607 Z0.000 F1000
G0 X56.273 F200
G0 Y72.207 F200
G0 Z8.000
G0 X6.947 Y64.247
G0 X6.447 F200
G1 X7.241 Y64.247 Z0.000 F1000

; --- COLOR CHANGE: YELLOW ---
G0 Z8.000
G0 X109.000 Y0.000
G1 Z0.000 F800
G1 Z5.000 F800
; Smart Wipe -> Angle 109.5 deg
G0 X106.995 Y5.655
G0 Z5.000
G1 X102.318 Y18.851 F600
G0 F1000
G0 Z8.000
G0 Y62.647 F200
G0 Z8.000
G0 X94.031 Y79.413
G1 X94.129 Y79.413 Z0.000 F1000

; --- COLOR CHANGE: BLACK ---
G0 Z8.000
G0 X140.000 Y0.000
G1 Z0.000 F800
G1 Z5.000 F800
; Smart Wipe -> Angle 170.1 deg
G0 X136.090 Y1.035
G0 Z5.000
G1 X122.300 Y3.450 F600
G0 F1000
G0 Z8.000
G0 X94.629 F200
G0 Y81.013 F200
G0 Z8.000
G0 X30.431 Y43.699
G0 X29.931 F200
G1 X30.528 Y43.699 Z0.000 F1000

; --- COLOR CHANGE: YELLOW ---
G0 Z8.000
G0 X109.000 Y0.000
G1 Z0.000 F800
G1 Z5.000 F800
; Smart Wipe -> Angle 112.4 deg
G0 X106.715 Y5.548
G0 Z5.000
G1 X101.385 Y18.493 F600
G0 F1000
G0 Z8.000
G0 Y42.099 F200
G0 Z8.000
G0 X54.697 Y82.348
G1 X61.350 Y82.348 Z0.000 F1000

; --- COLOR CHANGE: BLACK ---
G0 Z8.000
G0 X140.000 Y0.000
G1 Z0.000 F800
G1 Z5.000 F800
; Smart Wipe -> Angle 145.0 deg
G0 X137.085 Y3.441
G0 Z5.000
G1 X125.617 Y11.471 F600
G0 F1000
G0 Z8.000
G0 X61.850 F200
G0 Y83.948 F200
G0 Z8.000
G0 X6.360 Y77.456
G0 X5.860 F200
G1 X6.556 Y77.456 Z0.000 F1000

; --- COLOR CHANGE: YELLOW ---
G0 Z8.000
G0 X109.000 Y0.000
G1 Z0.000 F800
G1 Z5.000 F800
; Smart Wipe -> Angle 137.0 deg
G0 X104.610 Y4.090
G0 Z5.000
G1 X94.368 Y13.634 F600
G0 F1000
G0 Z8.000
G0 Y75.856 F200
G0 Z8.000
G0 X22.603 Y100.450
G1 X22.701 Y100.450 Z0.000 F1000
G0 Y102.050 F200
G0 Z8.000
G0 X55.577 Y39.295
G1 X56.067 Y39.295 Z0.000 F1000
G0 X56.567 F200
G0 Y37.695 F200
G0 Z8.000
G0 X41.487 Y88.219
G0 X40.987 F200
G1 X42.074 Y88.219 Z0.000 F1000

; --- COLOR CHANGE: CYAN ---
G0 Z8.000
G0 X0.000 Y17.000
G1 Z0.000 F800
G1 Z5.000 F800
; Smart Wipe -> Angle 27.2 deg
G0 X5.335 Y19.745
G0 Z5.000
G1 X17.784 Y26.150 F600
G0 F1000
G0 Z8.000
G0 Y89.819 F200
G0 Z8.000
G0 X84.247 Y41.252
G1 X84.344 Y41.252 Z0.000 F1000

; --- COLOR CHANGE: BLACK ---
G0 Z8.000
G0 X140.000 Y0.000
G1 Z0.000 F800
G1 Z5.000 F800
; Smart Wipe -> Angle 148.7 deg
G0 X136.875 Y3.120
G0 Z5.000
G1 X124.916 Y10.400 F600
G0 F1000
G0 Z8.000
G0 X84.844 F200
G0 Y39.652 F200
G0 Z8.000
G0 X22.505 Y67.671
G0 X22.005 F200
G1 X22.896 Y67.671 Z0.000 F1000

; --- COLOR CHANGE: YELLOW ---
G0 Z8.000
G0 X109.000 Y0.000
G1 Z0.000 F800
G1 Z5.000 F800
; Smart Wipe -> Angle 114.2 deg
G0 X106.537 Y5.471
G0 Z5.000
G1 X100.791 Y18.238 F600
G0 F1000
G0 Z8.000
G0 Z8.000
G0 X74.364 Y99.472
G1 X76.614 Y99.472 Z0.000 F1000

; --- COLOR CHANGE: BLACK ---
G0 Z8.000
G0 X140.000 Y0.000
G1 Z0.000 F800
G1 Z5.000 F800
; Smart Wipe -> Angle 153.7 deg
G0 X136.619 Y2.655
G0 Z5.000
G1 X124.064 Y8.850 F600
G0 F1000
G0 Z8.000
G0 X77.114 F200
G0 Y101.072 F200
G0 Z8.000
G0 X71.429 Y44.188
G0 X70.929 F200
G1 X71.624 Y44.188 Z0.000 F1000
G0 X72.124 F200
G0 Z8.000
G0 X55.479 Y42.231
G0 X54.979 F200
G1 X55.675 Y42.231 Z0.000 F1000

; --- COLOR CHANGE: CYAN ---
G0 Z8.000
G0 X0.000 Y17.000
G1 Z0.000 F800
G1 Z5.000 F800
; Smart Wipe -> Angle 55.8 deg
G0 X3.374 Y21.961
G0 Z5.000
G1 X11.247 Y33.538 F600
G0 F1000
G0 Z8.000
G0 X56.175 F200
G0 Z8.000
G0 X9.491 Y41.742
G0 X8.991 F200
G1 X13.601 Y41.742 Z0.000 F1000

; --- COLOR CHANGE: YELLOW ---
G0 Z8.000
G0 X109.000 Y0.000
G1 Z0.000 F800
G1 Z5.000 F800
; Smart Wipe -> Angle 128.2 deg
G0 X105.291 Y4.716
G0 Z5.000
G1 X96.637 Y15.721 F600
G0 F1000
G0 Z8.000
G0 Y40.142 F200
G0 Z8.000
G0 X59.295 Y96.536
G1 X59.491 Y96.536 Z0.000 F1000

; --- COLOR CHANGE: BLACK ---
G0 Z8.000
G0 X140.000 Y0.000
G1 Z0.000 F800
G1 Z5.000 F800
; Smart Wipe -> Angle 154.6 deg
G0 X136.580 Y2.574
G0 Z5.000
G1 X123.935 Y8.582 F600
G0 F1000
G0 Z8.000
G0 Y98.136 F200
G0 Z8.000
G0 X66.634 Y40.274
G1 X67.221 Y40.274 Z0.000 F1000
G0 X67.721 F200
G0 Y38.674 F200
G0 Z8.000
G0 X33.464 Y69.139
G0 X32.964 F200
G1 X33.855 Y69.139 Z0.000 F1000

; --- COLOR CHANGE: YELLOW ---
G0 Z8.000
G0 X109.000 Y0.000
G1 Z0.000 F800
G1 Z5.000 F800
; Smart Wipe -> Angle 117.6 deg
G0 X106.217 Y5.315
G0 Z5.000
G1 X99.723 Y17.718 F600
G0 F1000
G0 Z8.000
G0 Z8.000
G0 X53.523 Y72.564
G1 X54.697 Y72.564 Z0.000 F1000

; --- COLOR CHANGE: BLACK ---
G0 Z8.000
G0 X140.000 Y0.000
G1 Z0.000 F800
G1 Z5.000 F800
; Smart Wipe -> Angle 157.5 deg
G0 X136.459 Y2.300
G0 Z5.000
G1 X123.528 Y7.668 F600
G0 F1000
G0 Z8.000
G0 X55.197 F200
G0 Y74.164 F200
G0 Z8.000
G0 X42.172 Y67.671
G0 X41.672 F200
G1 X42.759 Y67.671 Z0.000 F1000
G0 Z8.000
G0 X48.141 Y65.225
G1 X48.141 Y65.225 Z0.000 F1000

; --- COLOR CHANGE: YELLOW ---
G0 Z8.000
G0 X109.000 Y0.000
G1 Z0.000 F800
G1 Z5.000 F800
; Smart Wipe -> Angle 123.6 deg
G0 X105.679 Y4.997
G0 Z5.000
G1 X97.929 Y16.656 F600
G0 F1000
G0 Z8.000
G0 Z8.000
G0 X67.221 Y46.634
G1 X83.366 Y46.634 Z0.000 F1000

; --- COLOR CHANGE: CYAN ---
G0 Z8.000
G0 X0.000 Y17.000
G1 Z0.000 F800
G1 Z5.000 F800
; Smart Wipe -> Angle 41.5 deg
G0 X4.491 Y20.978
G0 Z5.000
G1 X14.971 Y30.261 F600
G0 F1000
G0 Z8.000
G0 X83.866 F200
G0 Z8.000
G0 X30.920 Y39.295
G0 X30.420 F200
G1 X31.018 Y39.295 Z0.000 F1000
G0 Y37.695 F200
G0 Z8.000
G0 X34.834 Y43.209
G1 X36.008 Y43.209 Z0.000 F1000

; --- COLOR CHANGE: YELLOW ---
G0 Z8.000
G0 X109.000 Y0.000
G1 Z0.000 F800
G1 Z5.000 F800
; Smart Wipe -> Angle 110.1 deg
G0 X106.943 Y5.636
G0 Z5.000
G1 X102.142 Y18.787 F600
G0 F1000
G0 Z8.000
G0 Z8.000
G0 X76.810 Y82.348
G1 X80.333 Y82.348 Z0.000 F1000
G0 X80.833 F200
G0 Y83.948 F200
G0 Z8.000
G0 X27.202 Y30.978
G0 X26.702 F200
G1 X27.397 Y30.978 Z0.000 F1000

; --- COLOR CHANGE: BLACK ---
G0 Z8.000
G0 X140.000 Y0.000
G1 Z0.000 F800
G1 Z5.000 F800
; Smart Wipe -> Angle 142.2 deg
G0 X137.259 Y3.677
G0 Z5.000
G1 X126.197 Y12.258 F600
G0 F1000
G0 Z8.000
G0 Y29.378 F200
G0 Z8.000
G0 X33.757 Y66.693
G1 X33.855 Y66.693 Z0.000 F1000

; --- COLOR CHANGE: YELLOW ---
G0 Z8.000
G0 X109.000 Y0.000
G1 Z0.000 F800
G1 Z5.000 F800
; Smart Wipe -> Angle 127.1 deg
G0 X105.377 Y4.782
G0 Z5.000
G1 X96.922 Y15.941 F600
G0 F1000
G0 Z8.000
G0 X34.355 F200
G0 Z8.000
G0 X3.816 Y95.068
G0 X3.316 F200
G1 X9.002 Y95.068 Z0.000 F1000
G0 Z8.000
G0 X86.106 Y101.429
G1 X86.204 Y101.429 Z0.000 F1000
G0 X86.704 F200
G0 Y103.029 F200
G0 Z8.000
G0 X39.530 Y51.526
G0 X39.030 F200
G1 X40.705 Y51.526 Z0.000 F1000
G0 Z8.000
G0 X74.070 Y31.468
G1 X74.168 Y31.468 Z0.000 F1000

; --- COLOR CHANGE: BLACK ---
G0 Z8.000
G0 X140.000 Y0.000
G1 Z0.000 F800
G1 Z5.000 F800
; Smart Wipe -> Angle 150.2 deg
G0 X136.795 Y2.985
G0 Z5.000
G1 X124.650 Y9.949 F600
G0 F1000
G0 Z8.000
G0 Y29.868 F200
G0 Z8.000
G0 X89.628 Y38.317
G1 X89.922 Y38.317 Z0.000 F1000
G0 X90.422 F200
G0 Z8.000
G0 X48.924 Y95.558
G0 X48.424 F200
G1 X51.566 Y95.558 Z0.000 F1000

; --- COLOR CHANGE: YELLOW ---
G0 Z8.000
G0 X109.000 Y0.000
G1 Z0.000 F800
G1 Z5.000 F800
; Smart Wipe -> Angle 93.3 deg
G0 X108.650 Y5.990
G0 Z5.000
G1 X107.835 Y19.966 F600
G0 F1000
G0 Z8.000
G0 Y97.158 F200
G0 Z8.000
G0 X97.945 Y47.123
G1 X99.902 Y47.123 Z0.000 F1000

; --- COLOR CHANGE: BLACK ---
G0 Z8.000
G0 X140.000 Y0.000
G1 Z0.000 F800
G1 Z5.000 F800
; Smart Wipe -> Angle 153.8 deg
G0 X136.616 Y2.648
G0 Z5.000
G1 X124.053 Y8.826 F600
G0 F1000
G0 Z8.000
G0 X100.402 F200
G0 Y45.523 F200
G0 Z8.000
G0 X36.791 Y48.591
G0 X36.291 F200
G1 X37.182 Y48.591 Z0.000 F1000

; --- COLOR CHANGE: MAGENTA ---
G0 Z8.000
G0 X63.000 Y0.000
G1 Z0.000 F800
G1 Z5.000 F800
; Smart Wipe -> Angle 83.3 deg
G0 X63.702 Y5.959
G0 Z5.000
G1 X65.341 Y19.862 F600
G0 F1000
G0 Z8.000
G0 Z8.000
G0 X54.697 Y67.182
G1 X57.828 Y67.182 Z0.000 F1000

; --- COLOR CHANGE: BLACK ---
G0 Z8.000
G0 X140.000 Y0.000
G1 Z0.000 F800
G1 Z5.000 F800
; Smart Wipe -> Angle 155.8 deg
G0 X136.527 Y2.458
G0 Z5.000
G1 X123.756 Y8.195 F600
G0 F1000
G0 Z8.000
G0 X58.328 F200
G0 Y68.782 F200
G0 Z8.000
G0 X54.501 Y63.757
G0 X54.001 F200
G1 X54.599 Y63.757 Z0.000 F1000
G0 X55.099 F200
G0 Z8.000
G0 X15.362 Y62.779
G0 X14.862 F200
G1 X17.221 Y62.779 Z0.000 F1000
G0 Y61.179 F200
G0 Z8.000
G0 X22.603 Y65.225
G1 X22.701 Y65.225 Z0.000 F1000
G0 X23.201 F200
G0 Y66.825 F200
G0 Z8.000
G0 X1.566 Y41.742
G0 X1.066 F200
G1 X1.859 Y41.742 Z0.000 F1000

; --- COLOR CHANGE: CYAN ---
G0 Z8.000
G0 X0.000 Y17.000
G1 Z0.000 F800
G1 Z5.000 F800
; Smart Wipe -> Angle 23.0 deg
G0 X5.522 Y19.346
G0 Z5.000
G1 X18.407 Y24.821 F600
G0 F1000
G0 Z8.000
G0 Y40.142 F200
G0 Z8.000
G0 X96.869 Y74.031
G1 X96.967 Y74.031 Z0.000 F1000

; --- COLOR CHANGE: BLACK ---
G0 Z8.000
G0 X140.000 Y0.000
G1 Z0.000 F800
G1 Z5.000 F800
; Smart Wipe -> Angle 132.3 deg
G0 X137.965 Y4.441
G0 Z5.000
G1 X128.551 Y14.803 F600
G0 F1000
G0 Z8.000
G0 X97.467 F200
G0 Z8.000
G0 X83.268 Y99.961
G0 X82.768 F200
G1 X83.659 Y99.961 Z0.000 F1000
G0 X84.159 F200
G0 Y101.561 F200
G0 Z8.000
G0 X70.059 Y48.591
G0 X69.559 F200
G1 X70.352 Y48.591 Z0.000 F1000

; --- COLOR CHANGE: CYAN ---
G0 Z8.000
G0 X0.000 Y17.000
G1 Z0.000 F800
G1 Z5.000 F800
; Smart Wipe -> Angle 69.9 deg
G0 X2.060 Y22.635
G0 Z5.000
G1 X6.868 Y35.784 F600
G0 F1000
G0 Z8.000
G0 X70.852 F200
G0 Y46.991 F200
G0 Z8.000
G0 X36.791 Y78.924
G0 X36.291 F200
G1 X37.476 Y78.924 Z0.000 F1000

; --- COLOR CHANGE: BLACK ---
G0 Z8.000
G0 X140.000 Y0.000
G1 Z0.000 F800
G1 Z5.000 F800
; Smart Wipe -> Angle 155.5 deg
G0 X136.542 Y2.492
G0 Z5.000
G1 X123.807 Y8.306 F600
G0 F1000
G0 Z8.000
G0 X37.976 F200
G0 Y80.524 F200
G0 Z8.000
G0 X31.898 Y45.656
G0 X31.398 F200
G1 X31.996 Y45.656 Z0.000 F1000

; --- COLOR CHANGE: CYAN ---
G0 Z8.000
G0 X0.000 Y17.000
G1 Z0.000 F800
G1 Z5.000 F800
; Smart Wipe -> Angle 96.5 deg
G0 X0.000 Y22.962
G0 Z5.000
G1 X0.000 Y36.872 F600
G0 F1000
G0 Z8.000
G0 X32.496 F200
G0 Y44.056 F200
G0 Z8.000
G0 X0.000 Y51.037
G0 X0.000 F200
G1 X1.174 Y51.037 Z0.000 F1000

; --- COLOR CHANGE: YELLOW ---
G0 Z8.000
G0 X109.000 Y0.000
G1 Z0.000 F800
G1 Z5.000 F800
; Smart Wipe -> Angle 147.5 deg
G0 X103.938 Y3.222
G0 Z5.000
G1 X92.127 Y10.739 F600
G0 F1000
G0 Z8.000
G0 Z8.000
G0 X2.740 Y72.074
G1 X3.033 Y72.074 Z0.000 F1000
G0 Y73.674 F200
G0 Z8.000
G0 X77.006 Y51.526
G1 X77.397 Y51.526 Z0.000 F1000

; --- COLOR CHANGE: BLACK ---
G0 Z8.000
G0 X140.000 Y0.000
G1 Z0.000 F800
G1 Z5.000 F800
; Smart Wipe -> Angle 134.0 deg
G0 X137.832 Y4.316
G0 Z5.000
G1 X128.105 Y14.385 F600
G0 F1000
G0 Z8.000
G0 X77.897 F200
G0 Y49.926 F200
G0 Z8.000
G0 X76.419 Y98.493
G0 X75.919 F200
G1 X76.810 Y98.493 Z0.000 F1000

; --- COLOR CHANGE: YELLOW ---
G0 Z8.000
G0 X109.000 Y0.000
G1 Z0.000 F800
G1 Z5.000 F800
; Smart Wipe -> Angle 110.1 deg
G0 X106.937 Y5.634
G0 Z5.000
G1 X102.123 Y18.781 F600
G0 F1000
G0 Z8.000
G0 X77.310 F200
G0 Y100.093 F200
G0 Z8.000
G0 X62.622 Y80.391
G0 X62.122 F200
G1 X64.873 Y80.391 Z0.000 F1000

; --- COLOR CHANGE: BLACK ---
G0 Z8.000
G0 X140.000 Y0.000
G1 Z0.000 F800
G1 Z5.000 F800
; Smart Wipe -> Angle 133.8 deg
G0 X137.847 Y4.331
G0 Z5.000
G1 X128.158 Y14.436 F600
G0 F1000
G0 Z8.000
G0 X65.373 F200
G0 Z8.000
G0 X59.687 Y73.053
G1 X59.687 Y73.053 Z0.000 F1000
G0 Z8.000
G0 X54.110 Y61.800
G0 X53.610 F200
G1 X54.501 Y61.800 Z0.000 F1000

; --- COLOR CHANGE: YELLOW ---
G0 Z8.000
G0 X109.000 Y0.000
G1 Z0.000 F800
G1 Z5.000 F800
; Smart Wipe -> Angle 141.3 deg
G0 X104.315 Y3.749
G0 Z5.000
G1 X93.384 Y12.496 F600
G0 F1000
G0 Z8.000
G0 X55.001 F200
G0 Z8.000
G0 X52.544 Y56.908
G0 X52.044 F200
G1 X52.740 Y56.908 Z0.000 F1000

; --- COLOR CHANGE: BLACK ---
G0 Z8.000
G0 X140.000 Y0.000
G1 Z0.000 F800
G1 Z5.000 F800
; Smart Wipe -> Angle 162.2 deg
G0 X136.286 Y1.830
G0 Z5.000
G1 X122.953 Y6.099 F600
G0 F1000
G0 Z8.000
G0 X53.240 F200
G0 Z8.000
G0 X22.701 Y46.634
G0 X22.201 F200
G1 X22.798 Y46.634 Z0.000 F1000
G0 Z8.000
G0 X91.389 Y32.935
G1 X91.585 Y32.935 Z0.000 F1000

; --- COLOR CHANGE: YELLOW ---
G0 Z8.000
G0 X109.000 Y0.000
G1 Z0.000 F800
G1 Z5.000 F800
; Smart Wipe -> Angle 122.9 deg
G0 X105.739 Y5.037
G0 Z5.000
G1 X98.131 Y16.789 F600
G0 F1000
G0 Z8.000
G0 X92.085 F200
G0 Y31.335 F200
G0 Z8.000
G0 X77.886 Y50.548
G0 X77.386 F200
G1 X79.159 Y50.548 Z0.000 F1000

; --- COLOR CHANGE: BLACK ---
G0 Z8.000
G0 X140.000 Y0.000
G1 Z0.000 F800
G1 Z5.000 F800
; Smart Wipe -> Angle 166.3 deg
G0 X136.170 Y1.418
G0 Z5.000
G1 X122.566 Y4.726 F600
G0 F1000
G0 Z8.000
G0 X79.659 F200
G0 Y52.148 F200
G0 Z8.000
G0 X17.808 Y45.166
G0 X17.308 F200
G1 X17.906 Y45.166 Z0.000 F1000

; --- COLOR CHANGE: CYAN ---
G0 Z8.000
G0 X0.000 Y17.000
G1 Z0.000 F800
G1 Z5.000 F800
; Smart Wipe -> Angle 92.6 deg
G0 X0.000 Y22.994
G0 Z5.000
G1 X0.000 Y36.980 F600
G0 F1000
G0 Z8.000
G0 X18.406 F200
G0 Y43.566 F200
G0 Z8.000
G0 X4.305 Y92.622
G0 X3.805 F200
G1 X6.360 Y92.622 Z0.000 F1000

; --- COLOR CHANGE: BLACK ---
G0 Z8.000
G0 X140.000 Y0.000
G1 Z0.000 F800
G1 Z5.000 F800
; Smart Wipe -> Angle 166.0 deg
G0 X136.178 Y1.452
G0 Z5.000
G1 X122.595 Y4.841 F600
G0 F1000
G0 Z8.000
G0 X6.860 F200
G0 Y94.222 F200
G0 Z8.000
G0 X1.761 Y37.339
G0 X1.261 F200
G1 X1.859 Y37.339 Z0.000 F1000
G0 Z8.000
G0 X88.063 Y34.892
G1 X88.063 Y34.892 Z0.000 F1000
G0 X88.563 F200
G0 Y33.292 F200
G0 Z8.000
G0 X85.714 Y67.182
G0 X85.214 F200
