; Generated by CMYK Hatching G-Code Generator V2.5.1 (Y-NaN Fix)
G21 ; Millimeters

G90 ; Absolute positioning

G0 Z8.000

; --- COLOR CHANGE: MAGENTA ---
G0 Z8.000
G0 X63.000 Y0.000
G0 Z5.000
G1 Z0.000 F800
G4 P500 ; Dwell
G1 Z5.000 F800
; Smart Wipe -> Angle 15.0 deg
G0 X77.489 Y3.882
G0 Z5.000
G1 X48.511 Y-3.882 F600
G0 F1000
G0 Z8.000
G0 X0.000 F200
G0 Y0.000 F200
G0 Z2.000
G0 X10.204 Y90.995
G1 Z0.000 F800
G1 X129.737 Y58.966 F1000
G0 Z2.000
G0 Z2.000
G0 X10.269 Y93.048
G1 Z0.000 F800
G1 X129.802 Y61.019 F1000
G0 Z2.000
G0 Z2.000
G0 X10.394 Y39.180
G1 Z0.000 F800
G1 X44.352 Y30.081 F1000
G0 Z2.000
G0 Z2.000
G0 X10.071 Y43.408
G1 Z0.000 F800
G1 X59.876 Y30.063 F1000
G0 Z2.000
G0 Z2.000
G0 X10.333 Y80.608
G1 Z0.000 F800
G1 X129.866 Y48.579 F1000
G0 Z2.000
G0 Z2.000
G0 X10.331 Y66.114
G1 Z0.000 F800
G1 X129.865 Y34.085 F1000
G0 Z2.000
G0 Z2.000
G0 X10.268 Y78.555
G1 Z0.000 F800
G1 X129.801 Y46.526 F1000
G0 Z2.000
G0 Z2.000
G0 X10.008 Y70.342
G1 Z0.000 F800
G1 X129.994 Y38.192 F1000
G0 Z2.000
G0 Z2.000
G0 X10.208 Y134.476
G1 Z0.000 F800
G1 X129.741 Y102.447 F1000
G0 Z2.000
G0 Z2.000
G0 X37.635 Y149.902
G1 Z0.000 F800
G1 X129.549 Y125.274 F1000
G0 Z2.000
G0 Z2.000
G0 X10.200 Y47.514
G1 Z0.000 F800
G1 X75.400 Y30.044 F1000
G0 Z2.000
G0 Z2.000
G0 X45.397 Y149.893
G1 Z0.000 F800
G1 X129.614 Y127.327 F1000
G0 Z2.000
G0 Z2.000
G0 X53.159 Y149.884
G1 Z0.000 F800
G1 X129.679 Y129.381 F1000
G0 Z2.000
G0 Z2.000
G0 X10.335 Y109.595
G1 Z0.000 F800
G1 X129.868 Y77.566 F1000
G0 Z2.000
G0 Z2.000
G0 X10.400 Y111.648
G1 Z0.000 F800
G1 X129.933 Y79.619 F1000
G0 Z2.000
G0 Z2.000
G0 X10.074 Y86.889
G1 Z0.000 F800
G1 X129.608 Y54.860 F1000
G0 Z2.000
G0 Z2.000
G0 X75.993 Y149.977
G1 Z0.000 F800
G1 X129.873 Y135.540 F1000
G0 Z2.000
G0 Z2.000
G0 X10.139 Y88.942
G1 Z0.000 F800
G1 X129.673 Y56.913 F1000
G0 Z2.000
G0 Z2.000
G0 X10.078 Y130.369
G1 Z0.000 F800
G1 X129.611 Y98.340 F1000
G0 Z2.000
G0 Z2.000
G0 X10.011 Y99.329
G1 Z0.000 F800
G1 X129.997 Y67.179 F1000
G0 Z2.000
G0 Z2.000
G0 X10.399 Y97.154
G1 Z0.000 F800
G1 X129.932 Y65.126 F1000
G0 Z2.000
G0 Z2.000
G0 X10.012 Y113.822
G1 Z0.000 F800
G1 X129.998 Y81.672 F1000
G0 Z2.000
G0 Z2.000
G0 X10.140 Y103.435
G1 Z0.000 F800
G1 X129.674 Y71.406 F1000
G0 Z2.000
G0 Z2.000
G0 X10.009 Y84.835
G1 Z0.000 F800
G1 X129.996 Y52.685 F1000
G0 Z2.000
G0 Z2.000
G0 X10.336 Y124.088
G1 Z0.000 F800
G1 X129.870 Y92.059 F1000
G0 Z2.000
G0 Z2.000
G0 X10.334 Y95.101
G1 Z0.000 F800
G1 X129.867 Y63.072 F1000
G0 Z2.000
G0 Z2.000
G0 X10.402 Y140.635
G1 Z0.000 F800
G1 X129.936 Y108.606 F1000
G0 Z2.000
G0 Z2.000
G0 X10.014 Y142.810
G1 Z0.000 F800
G1 X129.548 Y110.781 F1000
G0 Z2.000
G0 Z2.000
G0 X10.013 Y128.316
G1 Z0.000 F800
G1 X129.999 Y96.166 F1000
G0 Z2.000
G0 Z2.000
G0 X10.397 Y82.661
G1 Z0.000 F800
G1 X129.931 Y50.632 F1000
G0 Z2.000
G0 Z2.000
G0 X122.565 Y149.922
G1 Z0.000 F800
G1 X129.810 Y147.980 F1000
G0 Z2.000
G0 Z2.000
G0 X10.006 Y41.355
G1 Z0.000 F800
G1 X52.114 Y30.072 F1000
G0 Z2.000
G0 Z2.000
G0 X10.203 Y76.501
G1 Z0.000 F800
G1 X129.736 Y44.473 F1000
G0 Z2.000
G0 Z2.000
G0 X10.330 Y51.621
G1 Z0.000 F800
G1 X90.924 Y30.025 F1000
G0 Z2.000
G0 Z2.000
G0 X10.135 Y45.461
G1 Z0.000 F800
G1 X67.638 Y30.053 F1000
G0 Z2.000
G0 Z2.000
G0 X114.803 Y149.931
G1 Z0.000 F800
G1 X129.745 Y145.927 F1000
G0 Z2.000
G0 Z2.000
G0 X10.077 Y115.876
G1 Z0.000 F800
G1 X129.610 Y83.847 F1000
G0 Z2.000
G0 Z2.000
G0 X10.073 Y72.395
G1 Z0.000 F800
G1 X129.606 Y40.366 F1000
G0 Z2.000
G0 Z2.000
G0 X10.144 Y146.916
G1 Z0.000 F800
G1 X129.678 Y114.887 F1000
G0 Z2.000
G0 Z2.000
G0 X10.072 Y57.902
G1 Z0.000 F800
G1 X113.758 Y30.119 F1000
G0 Z2.000
G0 Z2.000
G0 X10.396 Y68.167
G1 Z0.000 F800
G1 X129.929 Y36.139 F1000
G0 Z2.000
G0 Z2.000
G0 X10.273 Y136.529
G1 Z0.000 F800
G1 X129.806 Y104.500 F1000
G0 Z2.000
G0 Z2.000
G0 X10.395 Y53.674
G1 Z0.000 F800
G1 X98.687 Y30.016 F1000
G0 Z2.000
G0 Z2.000
G0 X10.207 Y119.982
G1 Z0.000 F800
G1 X129.740 Y87.953 F1000
G0 Z2.000
G0 Z2.000
G0 X10.079 Y144.863
G1 Z0.000 F800
G1 X129.613 Y112.834 F1000
G0 Z2.000
G0 Z2.000
G0 X10.143 Y132.422
G1 Z0.000 F800
G1 X129.676 Y100.393 F1000
G0 Z2.000
G0 Z2.000
G0 X91.517 Y149.959
G1 Z0.000 F800
G1 X129.550 Y139.768 F1000
G0 Z2.000
G0 Z2.000
G0 X14.349 Y149.930
G1 Z0.000 F800
G1 X129.807 Y118.993 F1000
G0 Z2.000
G0 Z2.000
G0 X10.138 Y74.448
G1 Z0.000 F800
G1 X129.671 Y42.419 F1000
G0 Z2.000
G0 Z2.000
G0 X10.205 Y105.488
G1 Z0.000 F800
G1 X129.739 Y73.460 F1000
G0 Z2.000
G0 Z2.000
G0 X10.199 Y33.021
G1 Z0.000 F800
G1 X21.066 Y30.109 F1000
G0 Z2.000
G0 Z2.000
G0 X10.134 Y30.968
G1 Z0.000 F800
G1 X13.304 Y30.118 F1000
G0 Z2.000
G0 Z2.000
G0 X10.265 Y49.567
G1 Z0.000 F800
G1 X83.162 Y30.035 F1000
G0 Z2.000
G0 Z2.000
G0 X22.111 Y149.921
G1 Z0.000 F800
G1 X129.872 Y121.047 F1000
G0 Z2.000
G0 Z2.000
G0 X10.076 Y101.382
G1 Z0.000 F800
G1 X129.609 Y69.353 F1000
G0 Z2.000
G0 Z2.000
G0 X107.041 Y149.940
G1 Z0.000 F800
G1 X129.680 Y143.874 F1000
G0 Z2.000
G0 Z2.000
G0 X10.329 Y37.127
G1 Z0.000 F800
G1 X36.590 Y30.090 F1000
G0 Z2.000
G0 Z2.000
G0 X10.007 Y55.848
G1 Z0.000 F800
G1 X106.449 Y30.007 F1000
G0 Z2.000
G0 Z2.000
G0 X10.137 Y59.955
G1 Z0.000 F800
G1 X121.520 Y30.110 F1000
G0 Z2.000
G0 Z2.000
G0 X10.142 Y117.929
G1 Z0.000 F800
G1 X129.675 Y85.900 F1000
G0 Z2.000
G0 Z2.000
G0 X10.270 Y107.542
G1 Z0.000 F800
G1 X129.803 Y75.513 F1000
G0 Z2.000
G0 Z2.000
G0 X60.469 Y149.996
G1 Z0.000 F800
G1 X129.744 Y131.434 F1000
G0 Z2.000
G0 Z2.000
G0 X99.279 Y149.949
G1 Z0.000 F800
G1 X129.615 Y141.821 F1000
G0 Z2.000
G0 Z2.000
G0 X10.266 Y64.061
G1 Z0.000 F800
G1 X129.800 Y32.032 F1000
G0 Z2.000
G0 Z2.000
G0 X29.873 Y149.912
G1 Z0.000 F800
G1 X129.937 Y123.100 F1000
G0 Z2.000
G0 Z2.000
G0 X10.202 Y62.008
G1 Z0.000 F800
G1 X129.282 Y30.100 F1000
G0 Z2.000
G0 Z2.000
G0 X10.209 Y148.969
G1 Z0.000 F800
G1 X129.742 Y116.940 F1000
G0 Z2.000
G0 Z2.000
G0 X10.338 Y138.582
G1 Z0.000 F800
G1 X129.871 Y106.553 F1000
G0 Z2.000
G0 Z2.000
G0 X10.264 Y35.074
G1 Z0.000 F800
G1 X28.828 Y30.100 F1000
G0 Z2.000
G0 Z2.000
G0 X68.231 Y149.987
G1 Z0.000 F800
G1 X129.808 Y133.487 F1000
G0 Z2.000
G0 Z2.000
G0 X83.755 Y149.968
G1 Z0.000 F800
G1 X129.938 Y137.593 F1000
G0 Z2.000
G0 Z2.000
G0 X10.401 Y126.142
G1 Z0.000 F800
G1 X129.934 Y94.113 F1000
G0 Z2.000
G0 Z2.000
G0 X10.271 Y122.035
G1 Z0.000 F800
G1 X129.805 Y90.006 F1000
G0 Z2.000
; --- COLOR CHANGE: YELLOW ---
G0 Z8.000
G0 X109.000 Y17.000
G0 Z5.000
G1 Z0.000 F800
G4 P500 ; Dwell
G1 Z5.000 F800
; Smart Wipe -> Angle 0.0 deg
G0 X124.000 Y17.000
G0 Z5.000
G1 X94.000 Y17.000 F600
G0 F1000
G0 Z8.000
G0 X0.000 F200
G0 Y0.000 F200
G0 Z2.000
G0 X10.000 Y72.000
G1 Z0.000 F800
G1 X129.531 Y72.000 F1000
G0 Z2.000
G0 Z2.000
G0 X10.000 Y32.000
G1 Z0.000 F800
G1 X129.531 Y32.000 F1000
G0 Z2.000
G0 Z2.000
G0 X10.000 Y114.000
G1 Z0.000 F800
G1 X129.531 Y114.000 F1000
G0 Z2.000
G0 Z2.000
G0 X10.000 Y64.000
G1 Z0.000 F800
G1 X129.531 Y64.000 F1000
G0 Z2.000
G0 Z2.000
G0 X10.000 Y92.000
G1 Z0.000 F800
G1 X129.531 Y92.000 F1000
G0 Z2.000
G0 Z2.000
G0 X10.000 Y56.000
G1 Z0.000 F800
G1 X129.531 Y56.000 F1000
G0 Z2.000
G0 Z2.000
G0 X10.000 Y134.000
G1 Z0.000 F800
G1 X129.531 Y134.000 F1000
G0 Z2.000
G0 Z2.000
G0 X10.000 Y34.000
G1 Z0.000 F800
G1 X129.531 Y34.000 F1000
G0 Z2.000
G0 Z2.000
G0 X10.000 Y138.000
G1 Z0.000 F800
G1 X129.531 Y138.000 F1000
G0 Z2.000
G0 Z2.000
G0 X10.000 Y116.000
G1 Z0.000 F800
G1 X129.531 Y116.000 F1000
G0 Z2.000
G0 Z2.000
G0 X10.000 Y118.000
G1 Z0.000 F800
G1 X129.531 Y118.000 F1000
G0 Z2.000
G0 Z2.000
G0 X10.000 Y128.000
G1 Z0.000 F800
G1 X129.531 Y128.000 F1000
G0 Z2.000
G0 Z2.000
G0 X10.000 Y96.000
G1 Z0.000 F800
G1 X129.531 Y96.000 F1000
G0 Z2.000
G0 Z2.000
G0 X10.000 Y90.000
G1 Z0.000 F800
G1 X129.531 Y90.000 F1000
G0 Z2.000
G0 Z2.000
G0 X10.000 Y54.000
G1 Z0.000 F800
G1 X129.531 Y54.000 F1000
G0 Z2.000
G0 Z2.000
G0 X10.000 Y86.000
G1 Z0.000 F800
G1 X129.531 Y86.000 F1000
G0 Z2.000
G0 Z2.000
G0 X10.000 Y144.000
G1 Z0.000 F800
G1 X129.531 Y144.000 F1000
G0 Z2.000
G0 Z2.000
G0 X10.000 Y120.000
G1 Z0.000 F800
G1 X129.531 Y120.000 F1000
G0 Z2.000
G0 Z2.000
G0 X10.000 Y104.000
G1 Z0.000 F800
G1 X129.531 Y104.000 F1000
G0 Z2.000
G0 Z2.000
G0 X10.000 Y70.000
G1 Z0.000 F800
G1 X129.531 Y70.000 F1000
G0 Z2.000
G0 Z2.000
G0 X10.000 Y58.000
G1 Z0.000 F800
G1 X129.531 Y58.000 F1000
G0 Z2.000
G0 Z2.000
G0 X10.000 Y112.000
G1 Z0.000 F800
G1 X129.531 Y112.000 F1000
G0 Z2.000
G0 Z2.000
G0 X10.000 Y100.000
G1 Z0.000 F800
G1 X129.531 Y100.000 F1000
G0 Z2.000
G0 Z2.000
G0 X10.000 Y142.000
G1 Z0.000 F800
G1 X129.531 Y142.000 F1000
G0 Z2.000
G0 Z2.000
G0 X10.000 Y106.000
G1 Z0.000 F800
G1 X129.531 Y106.000 F1000
G0 Z2.000
G0 Z2.000
G0 X10.000 Y136.000
G1 Z0.000 F800
G1 X129.531 Y136.000 F1000
G0 Z2.000
G0 Z2.000
G0 X10.000 Y42.000
G1 Z0.000 F800
G1 X129.531 Y42.000 F1000
G0 Z2.000
G0 Z2.000
G0 X10.000 Y146.000
G1 Z0.000 F800
G1 X129.531 Y146.000 F1000
G0 Z2.000
G0 Z2.000
G0 X10.000 Y124.000
G1 Z0.000 F800
G1 X129.531 Y124.000 F1000
G0 Z2.000
G0 Z2.000
G0 X10.000 Y80.000
G1 Z0.000 F800
G1 X129.531 Y80.000 F1000
G0 Z2.000
G0 Z2.000
G0 X10.000 Y78.000
G1 Z0.000 F800
G1 X129.531 Y78.000 F1000
G0 Z2.000
G0 Z2.000
G0 X10.000 Y108.000
G1 Z0.000 F800
G1 X129.531 Y108.000 F1000
G0 Z2.000
G0 Z2.000
G0 X10.000 Y148.000
G1 Z0.000 F800
G1 X129.531 Y148.000 F1000
G0 Z2.000
G0 Z2.000
G0 X10.000 Y50.000
G1 Z0.000 F800
G1 X129.531 Y50.000 F1000
G0 Z2.000
G0 Z2.000
G0 X10.000 Y82.000
G1 Z0.000 F800
G1 X129.531 Y82.000 F1000
G0 Z2.000
G0 Z2.000
G0 X10.000 Y132.000
G1 Z0.000 F800
G1 X129.531 Y132.000 F1000
G0 Z2.000
G0 Z2.000
G0 X10.000 Y76.000
G1 Z0.000 F800
G1 X129.531 Y76.000 F1000
G0 Z2.000
G0 Z2.000
G0 X10.000 Y84.000
G1 Z0.000 F800
G1 X129.531 Y84.000 F1000
G0 Z2.000
G0 Z2.000
G0 X10.000 Y74.000
G1 Z0.000 F800
G1 X129.531 Y74.000 F1000
G0 Z2.000
G0 Z2.000
G0 X10.000 Y94.000
G1 Z0.000 F800
G1 X129.531 Y94.000 F1000
G0 Z2.000
G0 Z2.000
G0 X10.000 Y44.000
G1 Z0.000 F800
G1 X129.531 Y44.000 F1000
G0 Z2.000
G0 Z2.000
G0 X10.000 Y122.000
G1 Z0.000 F800
G1 X129.531 Y122.000 F1000
G0 Z2.000
G0 Z2.000
G0 X10.000 Y150.000
G1 Z0.000 F800
G1 X129.531 Y150.000 F1000
G0 Z2.000
G0 Z2.000
G0 X10.000 Y140.000
G1 Z0.000 F800
G1 X129.531 Y140.000 F1000
G0 Z2.000
G0 Z2.000
G0 X10.000 Y62.000
G1 Z0.000 F800
G1 X129.531 Y62.000 F1000
G0 Z2.000
G0 Z2.000
G0 X10.000 Y60.000
G1 Z0.000 F800
G1 X129.531 Y60.000 F1000
G0 Z2.000
G0 Z2.000
G0 X10.000 Y40.000
G1 Z0.000 F800
G1 X129.531 Y40.000 F1000
G0 Z2.000
G0 Z2.000
G0 X10.000 Y98.000
G1 Z0.000 F800
G1 X129.531 Y98.000 F1000
G0 Z2.000
G0 Z2.000
G0 X10.000 Y110.000
G1 Z0.000 F800
G1 X129.531 Y110.000 F1000
G0 Z2.000
G0 Z2.000
G0 X10.000 Y52.000
G1 Z0.000 F800
G1 X129.531 Y52.000 F1000
G0 Z2.000
G0 Z2.000
G0 X10.000 Y126.000
G1 Z0.000 F800
G1 X129.531 Y126.000 F1000
G0 Z2.000
G0 Z2.000
G0 X10.000 Y102.000
G1 Z0.000 F800
G1 X129.531 Y102.000 F1000
G0 Z2.000
G0 Z2.000
G0 X10.000 Y48.000
G1 Z0.000 F800
G1 X129.531 Y48.000 F1000
G0 Z2.000
G0 Z2.000
G0 X10.000 Y130.000
G1 Z0.000 F800
G1 X129.531 Y130.000 F1000
G0 Z2.000
G0 Z2.000
G0 X10.000 Y68.000
G1 Z0.000 F800
G1 X129.531 Y68.000 F1000
G0 Z2.000
G0 Z2.000
G0 X10.000 Y46.000
G1 Z0.000 F800
G1 X129.531 Y46.000 F1000
G0 Z2.000
G0 Z2.000
G0 X10.000 Y66.000
G1 Z0.000 F800
G1 X129.531 Y66.000 F1000
G0 Z2.000
G0 Z2.000
G0 X10.000 Y88.000
G1 Z0.000 F800
G1 X129.531 Y88.000 F1000
G0 Z2.000
G0 Z2.000
G0 X10.000 Y38.000
G1 Z0.000 F800
G1 X129.531 Y38.000 F1000
G0 Z2.000
G0 Z2.000
G0 X10.000 Y36.000
G1 Z0.000 F800
G1 X129.531 Y36.000 F1000
G0 Z2.000
; --- COLOR CHANGE: CYAN ---
G0 Z8.000
G0 X17.000 Y0.000
G0 Z5.000
G1 Z0.000 F800
G4 P500 ; Dwell
G1 Z5.000 F800
; Smart Wipe -> Angle 75.0 deg
G0 X20.882 Y14.489
G0 Z5.000
G1 X13.118 Y-14.489 F600
G0 F1000
G0 Z8.000
G0 X0.000 F200
G0 Y0.000 F200
G0 Z2.000
G0 X73.721 Y120.487
G1 Z0.000 F800
G1 X73.721 Y120.487 F1000
G0 Z2.000
G0 Z2.000
G0 X107.607 Y63.568
G1 Z0.000 F800
G1 X108.821 Y59.040 F1000
G0 Z2.000
G0 Z2.000
G0 X47.235 Y49.332
G1 Z0.000 F800
G1 X48.448 Y44.804 F1000
G0 Z2.000
G0 Z2.000
G0 X39.115 Y71.906
G1 Z0.000 F800
G1 X40.935 Y65.114 F1000
G0 Z2.000
G0 Z2.000
G0 X41.421 Y63.303
G1 Z0.000 F800
G1 X41.663 Y62.398 F1000
G0 Z2.000
G0 Z2.000
G0 X45.004 Y96.292
G1 Z0.000 F800
G1 X45.004 Y96.292 F1000
G0 Z2.000
G0 Z2.000
G0 X56.287 Y54.184
G1 Z0.000 F800
G1 X56.287 Y54.184 F1000
G0 Z2.000
G0 Z2.000
G0 X12.947 Y38.203
G1 Z0.000 F800
G1 X12.947 Y38.203 F1000
G0 Z2.000
G0 Z2.000
G0 X19.471 Y137.494
G1 Z0.000 F800
G1 X19.471 Y137.494 F1000
G0 Z2.000
G0 Z2.000
G0 X56.763 Y60.135
G1 Z0.000 F800
G1 X57.977 Y55.607 F1000
G0 Z2.000
G0 Z2.000
G0 X55.252 Y112.141
G1 Z0.000 F800
G1 X58.163 Y101.274 F1000
G0 Z2.000
G0 Z2.000
G0 X12.275 Y94.802
G1 Z0.000 F800
G1 X12.275 Y94.802 F1000
G0 Z2.000
G0 Z2.000
G0 X59.190 Y51.079
G1 Z0.000 F800
G1 X59.918 Y48.363 F1000
G0 Z2.000
G0 Z2.000
G0 X23.717 Y121.647
G1 Z0.000 F800
G1 X24.809 Y117.572 F1000
G0 Z2.000
G0 Z2.000
G0 X72.946 Y61.559
G1 Z0.000 F800
G1 X74.645 Y55.220 F1000
G0 Z2.000
G0 Z2.000
G0 X40.637 Y112.592
G1 Z0.000 F800
G1 X40.758 Y112.139 F1000
G0 Z2.000
G0 Z2.000
G0 X10.100 Y95.190
G1 Z0.000 F800
G1 X10.222 Y94.737 F1000
G0 Z2.000
G0 Z2.000
G0 X57.585 Y80.252
G1 Z0.000 F800
G1 X58.191 Y77.988 F1000
G0 Z2.000
G0 Z2.000
G0 X49.214 Y111.493
G1 Z0.000 F800
G1 X52.974 Y97.457 F1000
G0 Z2.000
G0 Z2.000
G0 X51.379 Y118.868
G1 Z0.000 F800
G1 X51.379 Y118.868 F1000
G0 Z2.000
G0 Z2.000
G0 X80.225 Y34.393
G1 Z0.000 F800
G1 X80.832 Y32.129 F1000
G0 Z2.000
G0 Z2.000
G0 X30.884 Y87.171
G1 Z0.000 F800
G1 X31.491 Y84.907 F1000
G0 Z2.000
G0 Z2.000
G0 X57.594 Y72.490
G1 Z0.000 F800
G1 X60.506 Y61.623 F1000
G0 Z2.000
G0 Z2.000
G0 X40.366 Y136.784
G1 Z0.000 F800
G1 X40.366 Y136.784 F1000
G0 Z2.000
G0 Z2.000
G0 X60.160 Y47.457
G1 Z0.000 F800
G1 X60.524 Y46.099 F1000
G0 Z2.000
G0 Z2.000
G0 X57.389 Y42.347
G1 Z0.000 F800
G1 X57.631 Y41.441 F1000
G0 Z2.000
G0 Z2.000
G0 X41.934 Y38.206
G1 Z0.000 F800
G1 X42.419 Y36.395 F1000
G0 Z2.000
G0 Z2.000
G0 X53.021 Y58.647
G1 Z0.000 F800
G1 X53.749 Y55.930 F1000
G0 Z2.000
G0 Z2.000
G0 X41.365 Y109.876
G1 Z0.000 F800
G1 X43.549 Y101.726 F1000
G0 Z2.000
G0 Z2.000
G0 X55.532 Y80.187
G1 Z0.000 F800
G1 X56.138 Y77.923 F1000
G0 Z2.000
G0 Z2.000
G0 X52.078 Y38.983
G1 Z0.000 F800
G1 X52.078 Y38.983 F1000
G0 Z2.000
G0 Z2.000
G0 X25.751 Y137.236
G1 Z0.000 F800
G1 X25.751 Y137.236 F1000
G0 Z2.000
G0 Z2.000
G0 X43.371 Y48.297
G1 Z0.000 F800
G1 X43.492 Y47.844 F1000
G0 Z2.000
G0 Z2.000
G0 X16.782 Y62.525
G1 Z0.000 F800
G1 X17.389 Y60.261 F1000
G0 Z2.000
G0 Z2.000
G0 X43.502 Y40.082
G1 Z0.000 F800
G1 X43.502 Y40.082 F1000
G0 Z2.000
G0 Z2.000
G0 X49.326 Y118.803
G1 Z0.000 F800
G1 X49.447 Y118.350 F1000
G0 Z2.000
G0 Z2.000
G0 X40.273 Y113.951
G1 Z0.000 F800
G1 X40.273 Y113.951 F1000
G0 Z2.000
G0 Z2.000
G0 X63.744 Y80.446
G1 Z0.000 F800
G1 X64.593 Y77.277 F1000
G0 Z2.000
G0 Z2.000
G0 X23.698 Y36.716
G1 Z0.000 F800
G1 X23.819 Y36.264 F1000
G0 Z2.000
G0 Z2.000
G0 X68.093 Y79.670
G1 Z0.000 F800
G1 X68.578 Y77.859 F1000
G0 Z2.000
G0 Z2.000
G0 X50.734 Y51.725
G1 Z0.000 F800
G1 X50.734 Y51.725 F1000
G0 Z2.000
G0 Z2.000
G0 X14.758 Y139.628
G1 Z0.000 F800
G1 X14.758 Y139.628 F1000
G0 Z2.000
G0 Z2.000
G0 X83.370 Y30.383
G1 Z0.000 F800
G1 X83.370 Y30.383 F1000
G0 Z2.000
G0 Z2.000
G0 X12.032 Y95.707
G1 Z0.000 F800
G1 X12.032 Y95.707 F1000
G0 Z2.000
G0 Z2.000
G0 X20.525 Y64.013
G1 Z0.000 F800
G1 X21.738 Y59.485 F1000
G0 Z2.000
G0 Z2.000
G0 X74.887 Y54.315
G1 Z0.000 F800
G1 X75.130 Y53.409 F1000
G0 Z2.000
G0 Z2.000
G0 X46.554 Y113.692
G1 Z0.000 F800
G1 X50.315 Y99.656 F1000
G0 Z2.000
G0 Z2.000
G0 X16.279 Y79.860
G1 Z0.000 F800
G1 X17.128 Y76.691 F1000
G0 Z2.000
G0 Z2.000
G0 X123.473 Y127.994
G1 Z0.000 F800
G1 X123.594 Y127.541 F1000
G0 Z2.000
G0 Z2.000
G0 X65.014 Y129.800
G1 Z0.000 F800
G1 X65.742 Y127.084 F1000
G0 Z2.000
G0 Z2.000
G0 X94.962 Y133.943
G1 Z0.000 F800
G1 X94.962 Y133.943 F1000
G0 Z2.000
G0 Z2.000
G0 X34.468 Y120.160
G1 Z0.000 F800
G1 X34.711 Y119.254 F1000
G0 Z2.000
G0 Z2.000
G0 X111.126 Y50.437
G1 Z0.000 F800
G1 X111.611 Y48.626 F1000
G0 Z2.000
G0 Z2.000
G0 X112.470 Y138.149
G1 Z0.000 F800
G1 X112.470 Y138.149 F1000
G0 Z2.000
G0 Z2.000
G0 X38.649 Y58.193
G1 Z0.000 F800
G1 X39.013 Y56.834 F1000
