; Generated by CMYK Pro (V0.6 - NaN Fix, Backlash, Limits)
G21 ; Millimeters
G90 ; Absolute positioning
G0 Z8.000

; --- COLOR CHANGE: CYAN ---
G0 Z8.000
G0 X17.000 Y0.000
G1 Z0.000 F800
G4 P1
G1 Z5.000 F800
; Smart Wipe -> Angle 54.7 deg
G0 X20.464 Y4.899
G0 Z5.000
G1 X25.661 Y12.247 F600
G0 F1300
G0 Z8.000
G0 X0.000 F200
G0 Y0.000 F200
G0 X40.450 Y42.084
G1 X40.450 Y42.084 Z0.000 F1300

; --- COLOR CHANGE: YELLOW ---
G0 Z8.000
G0 X109.000 Y0.000
G1 Z0.000 F800
G4 P1
G1 Z5.000 F800
; Smart Wipe -> Angle 71.1 deg
G0 X110.945 Y5.676
G0 Z5.000
G1 X113.864 Y14.190 F600
G0 F1300
G0 Z8.000
G0 X40.950 F200
G0 X0.000 Y139.775
G0 X0.000 F200
G1 X129.873 Y139.775 Z0.000 F1300

; --- COLOR CHANGE: BLACK ---
G0 Z8.000
G0 X142.000 Y0.000
G1 Z0.000 F800
G4 P1
G1 Z5.000 F800
; Smart Wipe -> Angle 120.7 deg
G0 X138.938 Y5.160
G0 Z5.000
G1 X134.345 Y12.899 F600
G0 F1300
G0 Z8.000
G0 X130.373 F200
G0 Y141.375 F200
G0 X102.906 Y80.753
G0 X102.406 F200
G1 X108.376 Y80.753 Z0.000 F1300
G0 X108.876 F200
G0 X63.982 Y33.943
G0 X63.482 F200
G1 X67.162 Y33.943 Z0.000 F1300
G0 Y32.343 F200
G0 X126.184 Y52.260
G1 X126.566 Y52.260 Z0.000 F1300
G0 X127.066 F200
G0 Y53.860 F200
G0 X80.137 Y40.049
G0 X79.637 F200
G1 X80.519 Y40.049 Z0.000 F1300
G0 X82.172 Y35.978
G1 X102.652 Y35.978 Z0.000 F1300

; --- COLOR CHANGE: CYAN ---
G0 Z8.000
G0 X17.000 Y0.000
G1 Z0.000 F800
G4 P1
G1 Z5.000 F800
; Smart Wipe -> Angle 58.7 deg
G0 X20.122 Y5.124
G0 Z5.000
G1 X24.804 Y12.810 F600
G0 F1300
G0 Z8.000
G0 X103.152 F200
G0 Y34.378 F200
G0 X33.708 Y52.260
G0 X33.208 F200
G1 X41.595 Y52.260 Z0.000 F1300
G0 X42.095 F200
G0 X0.000 Y72.613
G0 X0.000 F200
G1 X16.155 Y72.613 Z0.000 F1300
G0 X119.188 Y80.753
G1 X120.078 Y80.753 Z0.000 F1300

; --- COLOR CHANGE: BLACK ---
G0 Z8.000
G0 X142.000 Y0.000
G1 Z0.000 F800
G4 P1
G1 Z5.000 F800
; Smart Wipe -> Angle 130.4 deg
G0 X138.115 Y4.573
G0 Z5.000
G1 X132.288 Y11.431 F600
G0 F1300
G0 Z8.000
G0 X120.578 F200
G0 Y82.353 F200
G0 X84.971 Y74.648
G1 X84.971 Y74.648 Z0.000 F1300
G0 X12.720 Y50.225
G0 X12.220 F200
G1 X13.102 Y50.225 Z0.000 F1300

; --- COLOR CHANGE: CYAN ---
G0 Z8.000
G0 X17.000 Y0.000
G1 Z0.000 F800
G4 P1
G1 Z5.000 F800
; Smart Wipe -> Angle 55.9 deg
G0 X20.365 Y4.967
G0 Z5.000
G1 X25.413 Y12.419 F600
G0 F1300
G0 Z8.000
G0 Y48.625 F200
G0 X36.634 Y56.331
G1 X69.706 Y56.331 Z0.000 F1300

; --- COLOR CHANGE: BLACK ---
G0 Z8.000
G0 X142.000 Y0.000
G1 Z0.000 F800
G4 P1
G1 Z5.000 F800
; Smart Wipe -> Angle 128.6 deg
G0 X138.254 Y4.687
G0 Z5.000
G1 X132.636 Y11.718 F600
G0 F1300
G0 Z8.000
G0 X70.206 F200
G0 X19.589 Y113.317
G0 X19.089 F200
G1 X27.348 Y113.317 Z0.000 F1300
G0 Y114.917 F200
G0 X69.452 Y33.943
G1 X76.830 Y33.943 Z0.000 F1300

; --- COLOR CHANGE: CYAN ---
G0 Z8.000
G0 X17.000 Y0.000
G1 Z0.000 F800
G4 P1
G1 Z5.000 F800
; Smart Wipe -> Angle 61.4 deg
G0 X19.876 Y5.266
G0 Z5.000
G1 X24.190 Y13.165 F600
G0 F1300
G0 Z8.000
G0 X77.330 F200
G0 Y32.343 F200
G0 X42.994 Y139.775
G0 X42.494 F200
G1 X129.873 Y139.775 Z0.000 F1300

; --- COLOR CHANGE: BLACK ---
G0 Z8.000
G0 X142.000 Y0.000
G1 Z0.000 F800
G4 P1
G1 Z5.000 F800
; Smart Wipe -> Angle 146.2 deg
G0 X137.014 Y3.338
G0 Z5.000
G1 X129.535 Y8.344 F600
G0 F1300
G0 Z8.000
G0 X130.373 F200
G0 Y141.375 F200
G0 X77.084 Y52.260
G0 X76.584 F200
G1 X77.720 Y52.260 Z0.000 F1300

; --- COLOR CHANGE: CYAN ---
G0 Z8.000
G0 X17.000 Y0.000
G1 Z0.000 F800
G4 P1
G1 Z5.000 F800
; Smart Wipe -> Angle 27.2 deg
G0 X22.335 Y2.746
G0 Z5.000
G1 X30.336 Y6.866 F600
G0 F1300
G0 Z8.000
G0 X78.220 F200
G0 X72.632 Y31.908
G0 X72.132 F200
G1 X77.211 Y31.908 Z0.000 F1300
G0 X77.711 F200
G0 Y30.308 F200
G0 X42.104 Y113.317
G0 X41.604 F200
G1 X42.740 Y113.317 Z0.000 F1300
G0 X43.240 F200
G0 Y114.917 F200
G0 X2.926 Y54.295
G0 X2.426 F200
G1 X12.084 Y54.295 Z0.000 F1300
G0 Y52.695 F200
G0 X35.108 Y92.965
G1 X45.411 Y92.965 Z0.000 F1300

; --- COLOR CHANGE: BLACK ---
G0 Z8.000
G0 X142.000 Y0.000
G1 Z0.000 F800
G4 P1
G1 Z5.000 F800
; Smart Wipe -> Angle 108.7 deg
G0 X140.080 Y5.685
G0 Z5.000
G1 X137.200 Y14.211 F600
G0 F1300
G0 Z8.000
G0 Y94.565 F200
G0 X116.389 Y50.225
G1 X122.622 Y50.225 Z0.000 F1300

; --- COLOR CHANGE: CYAN ---
G0 Z8.000
G0 X17.000 Y0.000
G1 Z0.000 F800
G4 P1
G1 Z5.000 F800
; Smart Wipe -> Angle 79.7 deg
G0 X18.075 Y5.903
G0 Z5.000
G1 X19.687 Y14.757 F600
G0 F1300
G0 Z8.000
G0 X123.122 F200
G0 X18.444 Y40.049
G0 X17.944 F200
G1 X19.462 Y40.049 Z0.000 F1300
G0 X19.962 F200
G0 Y38.449 F200
G0 X0.000 Y62.436
G0 X0.000 F200
G1 X129.873 Y62.436 Z0.000 F1300

; --- COLOR CHANGE: BLACK ---
G0 Z8.000
G0 X142.000 Y0.000
G1 Z0.000 F800
G4 P1
G1 Z5.000 F800
; Smart Wipe -> Angle 160.2 deg
G0 X136.353 Y2.029
G0 Z5.000
G1 X127.884 Y5.072 F600
G0 F1300
G0 Z8.000
G0 X130.373 F200
G0 Y64.036 F200
G0 X4.961 Y50.225
G0 X4.461 F200
G1 X8.014 Y50.225 Z0.000 F1300
G0 X8.514 F200
G0 Y48.625 F200
G0 X0.000 Y54.295
G0 X0.000 F200
G1 X0.763 Y54.295 Z0.000 F1300
G0 Y55.895 F200
G0 X42.485 Y38.014
G1 X46.810 Y38.014 Z0.000 F1300

; --- COLOR CHANGE: CYAN ---
G0 Z8.000
G0 X17.000 Y0.000
G1 Z0.000 F800
G4 P1
G1 Z5.000 F800
; Smart Wipe -> Angle 39.2 deg
G0 X21.650 Y3.792
G0 Z5.000
G1 X28.624 Y9.481 F600
G0 F1300
G0 Z8.000
G0 X47.310 F200
G0 Y36.414 F200
G0 X0.127 Y60.401
G0 X0.000 F200
G1 X83.571 Y60.401 Z0.000 F1300

; --- COLOR CHANGE: MAGENTA ---
G0 Z8.000
G0 X63.000 Y0.000
G1 Z0.000 F800
G4 P1
G1 Z5.000 F800
; Smart Wipe -> Angle 47.0 deg
G0 X67.094 Y4.386
G0 Z5.000
G1 X73.236 Y10.964 F600
G0 F1300
G0 Z8.000
G0 X84.071 F200
G0 X0.000 Y74.648
G0 X0.000 F200
G1 X129.873 Y74.648 Z0.000 F1300

; --- COLOR CHANGE: BLACK ---
G0 Z8.000
G0 X142.000 Y0.000
G1 Z0.000 F800
G4 P1
G1 Z5.000 F800
; Smart Wipe -> Angle 155.6 deg
G0 X136.536 Y2.479
G0 Z5.000
G1 X128.341 Y6.198 F600
G0 F1300
G0 Z8.000
G0 X130.373 F200
G0 Y76.248 F200
G0 X1.781 Y48.190
G0 X1.281 F200
G1 X2.035 Y48.190 Z0.000 F1300
G0 X22.260 Y48.190
G1 X22.769 Y48.190 Z0.000 F1300
G0 Y46.590 F200
G0 X97.945 Y78.718
G1 X99.726 Y78.718 Z0.000 F1300
G0 X100.226 F200
G0 Y80.318 F200
G0 X98.200 Y76.683
G1 X98.200 Y76.683 Z0.000 F1300
G0 X74.540 Y54.295
G1 X74.540 Y54.295 Z0.000 F1300
G0 Y52.695 F200
G0 X12.339 Y111.282
G0 X11.839 F200
G1 X23.532 Y111.282 Z0.000 F1300
G0 X24.032 F200
G0 Y112.882 F200
G0 X17.045 Y54.295
G0 X16.545 F200
G1 X18.063 Y54.295 Z0.000 F1300
G0 Y52.695 F200
G0 X22.515 Y72.613
G1 X22.769 Y72.613 Z0.000 F1300

; --- COLOR CHANGE: CYAN ---
G0 Z8.000
G0 X17.000 Y0.000
G1 Z0.000 F800
G4 P1
G1 Z5.000 F800
; Smart Wipe -> Angle 37.7 deg
G0 X21.748 Y3.668
G0 Z5.000
G1 X28.871 Y9.170 F600
G0 F1300
G0 Z8.000
G0 X115.372 Y80.753
G1 X115.626 Y80.753 Z0.000 F1300

; --- COLOR CHANGE: MAGENTA ---
G0 Z8.000
G0 X63.000 Y0.000
G1 Z0.000 F800
G4 P1
G1 Z5.000 F800
; Smart Wipe -> Angle 59.7 deg
G0 X66.027 Y5.181
G0 Z5.000
G1 X70.567 Y12.952 F600
G0 F1300
G0 Z8.000
G0 X116.126 F200
G0 X0.000 Y82.789
G0 X0.000 F200
G1 X129.873 Y82.789 Z0.000 F1300

; --- COLOR CHANGE: BLACK ---
G0 Z8.000
G0 X142.000 Y0.000
G1 Z0.000 F800
G4 P1
G1 Z5.000 F800
; Smart Wipe -> Angle 134.3 deg
G0 X137.806 Y4.291
G0 Z5.000
G1 X131.516 Y10.728 F600
G0 F1300
G0 Z8.000
G0 X130.373 F200
G0 X28.366 Y92.965
G0 X27.866 F200
G1 X31.419 Y92.965 Z0.000 F1300

; --- COLOR CHANGE: CYAN ---
G0 Z8.000
G0 X17.000 Y0.000
G1 Z0.000 F800
G4 P1
G1 Z5.000 F800
; Smart Wipe -> Angle 53.5 deg
G0 X20.572 Y4.821
G0 Z5.000
G1 X25.929 Y12.053 F600
G0 F1300
G0 Z8.000
G0 X110.665 Y131.634
G1 X110.920 Y131.634 Z0.000 F1300

; --- COLOR CHANGE: MAGENTA ---
G0 Z8.000
G0 X63.000 Y0.000
G1 Z0.000 F800
G4 P1
G1 Z5.000 F800
; Smart Wipe -> Angle 59.4 deg
G0 X66.057 Y5.163
G0 Z5.000
G1 X70.642 Y12.908 F600
G0 F1300
G0 Z8.000
G0 X111.420 F200
G0 Y133.234 F200
G0 X0.000 Y88.894
G0 X0.000 F200
G1 X129.873 Y88.894 Z0.000 F1300

; --- COLOR CHANGE: BLACK ---
G0 Z8.000
G0 X142.000 Y0.000
G1 Z0.000 F800
G4 P1
G1 Z5.000 F800
; Smart Wipe -> Angle 150.5 deg
G0 X136.778 Y2.955
G0 Z5.000
G1 X128.946 Y7.388 F600
G0 F1300
G0 Z8.000
G0 X130.373 F200
G0 X81.409 Y42.084
G0 X80.909 F200
G1 X82.554 Y42.084 Z0.000 F1300
G0 X126.693 Y35.978
G1 X127.202 Y35.978 Z0.000 F1300
G0 X127.702 F200
G0 Y34.378 F200
G0 X69.706 Y111.282
G0 X69.206 F200
G1 X70.215 Y111.282 Z0.000 F1300
G0 X70.715 F200
G0 Y112.882 F200
G0 X14.247 Y44.119
G0 X13.747 F200
G1 X14.628 Y44.119 Z0.000 F1300

; --- COLOR CHANGE: CYAN ---
G0 Z8.000
G0 X17.000 Y0.000
G1 Z0.000 F800
G4 P1
G1 Z5.000 F800
; Smart Wipe -> Angle 107.1 deg
G0 X15.234 Y5.734
G0 Z5.000
G1 X12.585 Y14.335 F600
G0 F1300
G0 Z8.000
G0 X15.128 F200
G0 X4.325 Y38.014
G0 X3.825 F200
G1 X4.834 Y38.014 Z0.000 F1300

; --- COLOR CHANGE: BLACK ---
G0 Z8.000
G0 X142.000 Y0.000
G1 Z0.000 F800
G4 P1
G1 Z5.000 F800
; Smart Wipe -> Angle 141.7 deg
G0 X137.293 Y3.721
G0 Z5.000
G1 X130.233 Y9.302 F600
G0 F1300
G0 Z8.000
G0 Y36.414 F200
G0 X103.542 Y42.084
G1 X104.305 Y42.084 Z0.000 F1300

; --- COLOR CHANGE: CYAN ---
G0 Z8.000
G0 X17.000 Y0.000
G1 Z0.000 F800
G4 P1
G1 Z5.000 F800
; Smart Wipe -> Angle 30.9 deg
G0 X22.150 Y3.079
G0 Z5.000
G1 X29.874 Y7.697 F600
G0 F1300
G0 Z8.000
G0 X121.732 Y44.119
G1 X121.732 Y44.119 Z0.000 F1300
G0 X122.232 F200
G0 X94.892 Y48.190
G0 X94.392 F200
G1 X97.182 Y48.190 Z0.000 F1300
G0 X118.043 Y131.634
G1 X118.170 Y131.634 Z0.000 F1300
G0 X118.670 F200
G0 Y133.234 F200
G0 X76.194 Y113.317
G0 X75.694 F200
G1 X78.102 Y113.317 Z0.000 F1300

; --- COLOR CHANGE: BLACK ---
G0 Z8.000
G0 X142.000 Y0.000
G1 Z0.000 F800
G4 P1
G1 Z5.000 F800
; Smart Wipe -> Angle 145.0 deg
G0 X137.084 Y3.441
G0 Z5.000
G1 X129.711 Y8.601 F600
G0 F1300
G0 Z8.000
G0 X78.602 F200
G0 X59.530 Y74.648
G0 X59.030 F200
G1 X59.658 Y74.648 Z0.000 F1300
G0 Y73.048 F200
G0 X63.092 Y76.683
G1 X64.491 Y76.683 Z0.000 F1300
G0 Y78.283 F200
G0 X69.834 Y52.260
G1 X70.342 Y52.260 Z0.000 F1300
G0 X70.842 F200
G0 X24.041 Y40.049
G0 X23.541 F200
G1 X32.309 Y40.049 Z0.000 F1300
G0 Y38.449 F200
G0 X48.337 Y42.084
G1 X48.591 Y42.084 Z0.000 F1300

; --- COLOR CHANGE: CYAN ---
G0 Z8.000
G0 X17.000 Y0.000
G1 Z0.000 F800
G4 P1
G1 Z5.000 F800
; Smart Wipe -> Angle 70.0 deg
G0 X19.053 Y5.638
G0 Z5.000
G1 X22.132 Y14.095 F600
G0 F1300
G0 Z8.000
G0 X49.091 F200
G0 X36.634 Y109.247
G0 X36.134 F200
G1 X39.814 Y109.247 Z0.000 F1300

; --- COLOR CHANGE: BLACK ---
G0 Z8.000
G0 X142.000 Y0.000
G1 Z0.000 F800
G4 P1
G1 Z5.000 F800
; Smart Wipe -> Angle 133.5 deg
G0 X137.869 Y4.351
G0 Z5.000
G1 X131.672 Y10.878 F600
G0 F1300
G0 Z8.000
G0 Y110.847 F200
G0 X80.264 Y80.753
G1 X80.773 Y80.753 Z0.000 F1300
G0 X81.273 F200
G0 X30.274 Y76.683
G0 X29.774 F200
G1 X45.284 Y76.683 Z0.000 F1300
G0 X45.784 F200
G0 X0.000 Y60.401
G0 X0.000 F200
G1 X78.102 Y60.401 Z0.000 F1300

; --- COLOR CHANGE: CYAN ---
G0 Z8.000
G0 X17.000 Y0.000
G1 Z0.000 F800
G4 P1
G1 Z5.000 F800
; Smart Wipe -> Angle 40.5 deg
G0 X21.561 Y3.898
G0 Z5.000
G1 X28.403 Y9.745 F600
G0 F1300
G0 Z8.000
G0 X88.405 Y48.190
G1 X92.094 Y48.190 Z0.000 F1300
G0 X92.594 F200
G0 Y46.590 F200
G0 X66.781 Y121.458
G0 X66.281 F200
G1 X67.926 Y121.458 Z0.000 F1300

; --- COLOR CHANGE: MAGENTA ---
G0 Z8.000
G0 X63.000 Y0.000
G1 Z0.000 F800
G4 P1
G1 Z5.000 F800
; Smart Wipe -> Angle 35.8 deg
G0 X67.865 Y3.511
G0 Z5.000
G1 X75.163 Y8.779 F600
G0 F1300
G0 Z8.000
G0 X68.426 F200
G0 Y123.058 F200
G0 X0.000 Y31.908
G0 X0.000 F200
G1 X129.873 Y31.908 Z0.000 F1300

; --- COLOR CHANGE: BLACK ---
G0 Z8.000
G0 X142.000 Y0.000
G1 Z0.000 F800
G4 P1
G1 Z5.000 F800
; Smart Wipe -> Angle 145.9 deg
G0 X137.033 Y3.366
G0 Z5.000
G1 X129.582 Y8.414 F600
G0 F1300
G0 Z8.000
G0 X130.373 F200
G0 Y30.308 F200
G0 X93.875 Y48.190
G0 X93.375 F200
G1 X94.256 Y48.190 Z0.000 F1300

; --- COLOR CHANGE: CYAN ---
G0 Z8.000
G0 X17.000 Y0.000
G1 Z0.000 F800
G4 P1
G1 Z5.000 F800
; Smart Wipe -> Angle 56.6 deg
G0 X20.305 Y5.008
G0 Z5.000
G1 X25.262 Y12.519 F600
G0 F1300
G0 Z8.000
G0 X94.756 F200
G0 X81.282 Y125.528
G0 X80.782 F200
G1 X81.536 Y125.528 Z0.000 F1300
G0 Y127.128 F200
G0 X120.587 Y80.753
G1 X120.587 Y80.753 Z0.000 F1300

; --- COLOR CHANGE: BLACK ---
G0 Z8.000
G0 X142.000 Y0.000
G1 Z0.000 F800
G4 P1
G1 Z5.000 F800
; Smart Wipe -> Angle 174.9 deg
G0 X136.023 Y0.528
G0 Z5.000
G1 X127.058 Y1.321 F600
G0 F1300
G0 Z8.000
G0 X121.087 F200
G0 X0.000 Y42.084
G0 X0.000 F200
G1 X0.382 Y42.084 Z0.000 F1300
G0 Y40.484 F200
G0 X30.783 Y109.247
G1 X35.235 Y109.247 Z0.000 F1300

; --- COLOR CHANGE: CYAN ---
G0 Z8.000
G0 X17.000 Y0.000
G1 Z0.000 F800
G4 P1
G1 Z5.000 F800
; Smart Wipe -> Angle 34.4 deg
G0 X21.953 Y3.387
G0 Z5.000
G1 X29.381 Y8.468 F600
G0 F1300
G0 Z8.000
G0 X35.735 F200
G0 Y110.847 F200
G0 X0.000 Y64.472
G0 X0.000 F200
G1 X129.873 Y64.472 Z0.000 F1300
G0 X130.373 F200
G0 X39.814 Y50.225
G1 X39.814 Y50.225 Z0.000 F1300

; --- COLOR CHANGE: BLACK ---
G0 Z8.000
G0 X142.000 Y0.000
G1 Z0.000 F800
G4 P1
G1 Z5.000 F800
; Smart Wipe -> Angle 154.4 deg
G0 X136.591 Y2.596
G0 Z5.000
G1 X128.477 Y6.490 F600
G0 F1300
G0 Z8.000
G0 X39.314 F200
G0 X63.219 Y31.908
G1 X67.544 Y31.908 Z0.000 F1300

; --- COLOR CHANGE: CYAN ---
G0 Z8.000
G0 X17.000 Y0.000
G1 Z0.000 F800
G4 P1
G1 Z5.000 F800
; Smart Wipe -> Angle 27.7 deg
G0 X22.315 Y2.784
G0 Z5.000
G1 X30.287 Y6.961 F600
G0 F1300
G0 Z8.000
G0 Y30.308 F200
G0 X126.184 Y40.049
G1 X129.873 Y40.049 Z0.000 F1300

; --- COLOR CHANGE: BLACK ---
G0 Z8.000
G0 X142.000 Y0.000
G1 Z0.000 F800
G4 P1
G1 Z5.000 F800
; Smart Wipe -> Angle 139.9 deg
G0 X137.412 Y3.867
G0 Z5.000
G1 X130.530 Y9.666 F600
G0 F1300
G0 Z8.000
G0 X130.373 F200
G0 X32.182 Y72.613
G0 X31.682 F200
G1 X33.327 Y72.613 Z0.000 F1300
G0 Y74.213 F200
G0 X52.661 Y44.119
G1 X52.916 Y44.119 Z0.000 F1300
G0 X53.416 F200
G0 Y42.519 F200
G0 X13.738 Y80.753
G0 X13.238 F200
G1 X14.501 Y80.753 Z0.000 F1300
G0 X15.001 F200
G0 Y82.353 F200
G0 X9.413 Y38.014
G0 X8.913 F200
G1 X10.303 Y38.014 Z0.000 F1300
G0 Y36.414 F200
G0 X120.460 Y42.084
G1 X121.732 Y42.084 Z0.000 F1300

; --- COLOR CHANGE: CYAN ---
G0 Z8.000
G0 X17.000 Y0.000
G1 Z0.000 F800
G4 P1
G1 Z5.000 F800
; Smart Wipe -> Angle 89.7 deg
G0 X17.027 Y6.000
G0 Z5.000
G1 X17.067 Y15.000 F600
G0 F1300
G0 Z8.000
G0 X122.232 F200
G0 X15.900 Y50.225
G0 X15.400 F200
G1 X16.536 Y50.225 Z0.000 F1300
G0 X91.204 Y54.295
G1 X91.331 Y54.295 Z0.000 F1300
G0 X118.933 Y84.824
G1 X119.061 Y84.824 Z0.000 F1300

; --- COLOR CHANGE: BLACK ---
G0 Z8.000
G0 X142.000 Y0.000
G1 Z0.000 F800
G4 P1
G1 Z5.000 F800
; Smart Wipe -> Angle 129.8 deg
G0 X138.162 Y4.612
G0 Z5.000
G1 X132.405 Y11.530 F600
G0 F1300
G0 Z8.000
G0 X119.561 F200
G0 X51.262 Y86.859
G0 X50.762 F200
G1 X57.750 Y86.859 Z0.000 F1300

; --- COLOR CHANGE: CYAN ---
G0 Z8.000
G0 X17.000 Y0.000
G1 Z0.000 F800
G4 P1
G1 Z5.000 F800
; Smart Wipe -> Angle 46.0 deg
G0 X21.171 Y4.313
G0 Z5.000
G1 X27.427 Y10.784 F600
G0 F1300
G0 Z8.000
G0 X128.855 Y86.859
G1 X129.364 Y86.859 Z0.000 F1300

; --- COLOR CHANGE: BLACK ---
G0 Z8.000
G0 X142.000 Y0.000
G1 Z0.000 F800
G4 P1
G1 Z5.000 F800
; Smart Wipe -> Angle 138.2 deg
G0 X137.526 Y3.998
G0 Z5.000
G1 X130.816 Y9.996 F600
G0 F1300
G0 Z8.000
G0 X129.864 F200
G0 Y88.459 F200
G0 X59.912 Y72.613
G0 X59.412 F200
G1 X61.693 Y72.613 Z0.000 F1300

; --- COLOR CHANGE: CYAN ---
G0 Z8.000
G0 X17.000 Y0.000
G1 Z0.000 F800
G4 P1
G1 Z5.000 F800
; Smart Wipe -> Angle 33.7 deg
G0 X21.994 Y3.326
G0 Z5.000
G1 X29.485 Y8.314 F600
G0 F1300
G0 Z8.000
G0 X62.193 F200
G0 X51.135 Y42.084
G0 X50.635 F200
G1 X81.791 Y42.084 Z0.000 F1300

; --- COLOR CHANGE: BLACK ---
G0 Z8.000
G0 X142.000 Y0.000
G1 Z0.000 F800
G4 P1
G1 Z5.000 F800
; Smart Wipe -> Angle 116.1 deg
G0 X139.356 Y5.386
G0 Z5.000
G1 X135.391 Y13.465 F600
G0 F1300
G0 Z8.000
G0 Y40.484 F200
G0 X109.012 Y58.366
G1 X110.920 Y58.366 Z0.000 F1300
G0 X111.420 F200
G0 Y59.966 F200
G0 X8.014 Y38.014
G0 X7.514 F200
G1 X8.777 Y38.014 Z0.000 F1300
G0 X109.521 Y33.943
G1 X114.990 Y33.943 Z0.000 F1300
G0 X115.490 F200
G0 Y32.343 F200
G0 X54.697 Y56.331
G0 X54.197 F200
G1 X54.824 Y56.331 Z0.000 F1300
G0 X55.324 F200
G0 X8.395 Y92.965
G0 X7.895 F200
G1 X8.650 Y92.965 Z0.000 F1300

; --- COLOR CHANGE: CYAN ---
G0 Z8.000
G0 X17.000 Y0.000
G1 Z0.000 F800
G4 P1
G1 Z5.000 F800
; Smart Wipe -> Angle 71.6 deg
G0 X18.893 Y5.694
G0 Z5.000
G1 X21.732 Y14.234 F600
G0 F1300
G0 Z8.000
G0 Y94.565 F200
