; Generated by CMYK Pro (V0.6 - NaN Fix, Backlash, Limits)
G21 ; Millimeters
G90 ; Absolute positioning
G0 Z8.000

; --- COLOR CHANGE: BLACK ---
G0 Z8.000
G0 X142.000 Y0.000
G1 Z0.000 F800
G4 P500
G1 Z5.000 F800
; Smart Wipe -> Angle 164.4 deg
G0 X136.221 Y1.613
G0 Z5.000
G1 X122.737 Y5.378 F600
G0 F1000
G0 Z8.000
G0 X0.000 F200
G0 Y0.000 F200
G0 X40.705 Y42.084
G1 X41.086 Y42.084 Z0.000 F1000

; --- COLOR CHANGE: CYAN ---
G0 Z8.000
G0 X0.000 Y17.000
G1 Z0.000 F800
G4 P500
G1 Z5.000 F800
; Smart Wipe -> Angle 13.8 deg
G0 X5.827 Y18.432
G0 Z5.000
G1 X19.422 Y21.772 F600
G0 F1000
G0 Z8.000
G0 X128.346 Y44.119
G1 X129.364 Y44.119 Z0.000 F1000

; --- COLOR CHANGE: BLACK ---
G0 Z8.000
G0 X142.000 Y0.000
G1 Z0.000 F800
G4 P500
G1 Z5.000 F800
; Smart Wipe -> Angle 152.3 deg
G0 X136.686 Y2.786
G0 Z5.000
G1 X124.288 Y9.288 F600
G0 F1000
G0 Z8.000
G0 X129.864 F200
G0 X50.881 Y54.295
G0 X50.381 F200
G1 X51.389 Y54.295 Z0.000 F1000
G0 X51.889 F200
G0 X3.689 Y80.753
G0 X3.189 F200
G1 X4.961 Y80.753 Z0.000 F1000
G0 X89.295 Y113.317
G1 X129.873 Y113.317 Z0.000 F1000
G0 X130.373 F200
G0 Y114.917 F200
G0 X101.380 Y78.718
G0 X100.880 F200
G1 X113.845 Y78.718 Z0.000 F1000

; --- COLOR CHANGE: CYAN ---
G0 Z8.000
G0 X0.000 Y17.000
G1 Z0.000 F800
G4 P500
G1 Z5.000 F800
; Smart Wipe -> Angle 34.7 deg
G0 X4.936 Y20.412
G0 Z5.000
G1 X16.452 Y28.372 F600
G0 F1000
G0 Z8.000
G0 X114.345 F200
G0 X46.429 Y42.084
G0 X45.929 F200
G1 X46.810 Y42.084 Z0.000 F1000

; --- COLOR CHANGE: BLACK ---
G0 Z8.000
G0 X142.000 Y0.000
G1 Z0.000 F800
G4 P500
G1 Z5.000 F800
; Smart Wipe -> Angle 120.1 deg
G0 X138.992 Y5.192
G0 Z5.000
G1 X131.974 Y17.305 F600
G0 F1000
G0 Z8.000
G0 X47.310 F200
G0 Y40.484 F200
G0 X42.867 Y113.317
G0 X42.367 F200
G1 X43.376 Y113.317 Z0.000 F1000

; --- COLOR CHANGE: CYAN ---
G0 Z8.000
G0 X0.000 Y17.000
G1 Z0.000 F800
G4 P500
G1 Z5.000 F800
; Smart Wipe -> Angle 70.4 deg
G0 X2.009 Y22.654
G0 Z5.000
G1 X6.697 Y35.845 F600
G0 F1000
G0 Z8.000
G0 X43.876 F200
G0 Y114.917 F200
G0 X7.759 Y52.260
G0 X7.259 F200
G1 X8.014 Y52.260 Z0.000 F1000

; --- COLOR CHANGE: BLACK ---
G0 Z8.000
G0 X142.000 Y0.000
G1 Z0.000 F800
G4 P500
G1 Z5.000 F800
; Smart Wipe -> Angle 140.0 deg
G0 X137.400 Y3.853
G0 Z5.000
G1 X126.668 Y12.843 F600
G0 F1000
G0 Z8.000
G0 Y50.660 F200
G0 X43.121 Y80.753
G1 X43.503 Y80.753 Z0.000 F1000
G0 Y82.353 F200
G0 X118.933 Y44.119
G1 X119.697 Y44.119 Z0.000 F1000
G0 X120.197 F200
G0 Y42.519 F200
G0 X73.014 Y74.648
G0 X72.514 F200
G1 X78.738 Y74.648 Z0.000 F1000
G0 X117.153 Y74.648
G1 X117.407 Y74.648 Z0.000 F1000
G0 X117.907 F200
G0 Y76.248 F200
G0 X68.689 Y46.155
G0 X68.189 F200
G1 X69.706 Y46.155 Z0.000 F1000
G0 X110.157 Y44.119
G1 X112.446 Y44.119 Z0.000 F1000
G0 X112.946 F200
G0 X19.207 Y44.119
G0 X18.707 F200
G1 X21.370 Y44.119 Z0.000 F1000

; --- COLOR CHANGE: CYAN ---
G0 Z8.000
G0 X0.000 Y17.000
G1 Z0.000 F800
G4 P500
G1 Z5.000 F800
; Smart Wipe -> Angle 63.9 deg
G0 X2.642 Y22.387
G0 Z5.000
G1 X8.807 Y34.956 F600
G0 F1000
G0 Z8.000
G0 X21.870 F200
G0 Y42.519 F200
G0 X19.080 Y48.190
G0 X18.580 F200
G1 X19.843 Y48.190 Z0.000 F1000
G0 X20.343 F200
G0 X14.247 Y115.352
G0 X13.747 F200
G1 X16.409 Y115.352 Z0.000 F1000

; --- COLOR CHANGE: YELLOW ---
G0 Z8.000
G0 X109.000 Y0.000
G1 Z0.000 F800
G4 P500
G1 Z5.000 F800
; Smart Wipe -> Angle 87.0 deg
G0 X109.315 Y5.992
G0 Z5.000
G1 X110.050 Y19.972 F600
G0 F1000
G0 Z8.000
G0 X16.909 F200
G0 Y116.952 F200
G0 X0.000 Y105.176
G0 X0.000 F200
G1 X129.873 Y105.176 Z0.000 F1000

; --- COLOR CHANGE: BLACK ---
G0 Z8.000
G0 X142.000 Y0.000
G1 Z0.000 F800
G4 P500
G1 Z5.000 F800
; Smart Wipe -> Angle 133.2 deg
G0 X137.891 Y4.373
G0 Z5.000
G1 X128.305 Y14.575 F600
G0 F1000
G0 Z8.000
G0 X130.373 F200
G0 X61.057 Y78.718
G0 X60.557 F200
G1 X61.566 Y78.718 Z0.000 F1000
G0 X118.425 Y42.084
G1 X118.679 Y42.084 Z0.000 F1000

; --- COLOR CHANGE: CYAN ---
G0 Z8.000
G0 X0.000 Y17.000
G1 Z0.000 F800
G4 P500
G1 Z5.000 F800
; Smart Wipe -> Angle 72.2 deg
G0 X1.839 Y22.711
G0 Z5.000
G1 X6.129 Y36.038 F600
G0 F1000
G0 Z8.000
G0 X119.179 F200
G0 Y40.484 F200
G0 X15.900 Y50.225
G0 X15.400 F200
G1 X16.536 Y50.225 Z0.000 F1000

; --- COLOR CHANGE: BLACK ---
G0 Z8.000
G0 X142.000 Y0.000
G1 Z0.000 F800
G4 P500
G1 Z5.000 F800
; Smart Wipe -> Angle 103.9 deg
G0 X140.557 Y5.824
G0 Z5.000
G1 X137.191 Y19.413 F600
G0 F1000
G0 Z8.000
G0 X107.613 Y82.789
G1 X107.994 Y82.789 Z0.000 F1000

; --- COLOR CHANGE: YELLOW ---
G0 Z8.000
G0 X109.000 Y0.000
G1 Z0.000 F800
G4 P500
G1 Z5.000 F800
; Smart Wipe -> Angle 62.0 deg
G0 X111.817 Y5.298
G0 Z5.000
G1 X118.390 Y17.658 F600
G0 F1000
G0 Z8.000
G0 X108.494 F200
G0 Y84.389 F200
G0 X0.000 Y44.119
G0 X0.000 F200
G1 X129.873 Y44.119 Z0.000 F1000

; --- COLOR CHANGE: BLACK ---
G0 Z8.000
G0 X142.000 Y0.000
G1 Z0.000 F800
G4 P500
G1 Z5.000 F800
; Smart Wipe -> Angle 149.0 deg
G0 X136.858 Y3.092
G0 Z5.000
G1 X124.861 Y10.308 F600
G0 F1000
G0 Z8.000
G0 Y42.519 F200
G1 X129.873 Y143.845 Z0.000 F1000
G0 X130.373 F200
G0 Y145.445 F200
G0 X36.380 Y72.613
G0 X35.880 F200
G1 X37.016 Y72.613 Z0.000 F1000
G0 Y71.013 F200
G0 X43.885 Y78.718
G1 X44.012 Y78.718 Z0.000 F1000

; --- COLOR CHANGE: CYAN ---
G0 Z8.000
G0 X0.000 Y17.000
G1 Z0.000 F800
G4 P500
G1 Z5.000 F800
; Smart Wipe -> Angle 32.4 deg
G0 X5.069 Y20.211
G0 Z5.000
G1 X16.896 Y27.702 F600
G0 F1000
G0 Z8.000
G0 X117.280 Y80.753
G1 X117.661 Y80.753 Z0.000 F1000
G0 X118.161 F200
G0 X0.000 Y86.859
G0 X0.000 F200
G1 X36.761 Y86.859 Z0.000 F1000

; --- COLOR CHANGE: BLACK ---
G0 Z8.000
G0 X142.000 Y0.000
G1 Z0.000 F800
G4 P500
G1 Z5.000 F800
; Smart Wipe -> Angle 127.5 deg
G0 X138.345 Y4.758
G0 Z5.000
G1 X129.817 Y15.861 F600
G0 F1000
G0 Z8.000
G0 Y88.459 F200
G0 X72.632 Y80.753
G1 X73.014 Y80.753 Z0.000 F1000
G0 X73.514 F200
G0 X24.041 Y48.190
G0 X23.541 F200
G1 X25.568 Y48.190 Z0.000 F1000
G0 X37.906 Y42.084
G1 X38.415 Y42.084 Z0.000 F1000

; --- COLOR CHANGE: CYAN ---
G0 Z8.000
G0 X0.000 Y17.000
G1 Z0.000 F800
G4 P500
G1 Z5.000 F800
; Smart Wipe -> Angle 54.2 deg
G0 X3.510 Y21.867
G0 Z5.000
G1 X11.698 Y33.222 F600
G0 F1000
G0 Z8.000
G0 Y40.484 F200
G0 X77.593 Y123.493
G1 X83.063 Y123.493 Z0.000 F1000

; --- COLOR CHANGE: BLACK ---
G0 Z8.000
G0 X142.000 Y0.000
G1 Z0.000 F800
G4 P500
G1 Z5.000 F800
; Smart Wipe -> Angle 127.5 deg
G0 X138.344 Y4.757
G0 Z5.000
G1 X129.812 Y15.857 F600
G0 F1000
G0 Z8.000
G0 X83.563 F200
G0 Y125.093 F200
G0 X49.990 Y78.718
G0 X49.490 F200
G1 X50.626 Y78.718 Z0.000 F1000
G0 X51.126 F200
G0 X11.957 Y50.225
G1 X11.957 Y50.225 Z0.000 F1000

; --- COLOR CHANGE: CYAN ---
G0 Z8.000
G0 X0.000 Y17.000
G1 Z0.000 F800
G4 P500
G1 Z5.000 F800
; Smart Wipe -> Angle 20.2 deg
G0 X5.632 Y19.070
G0 Z5.000
G1 X18.773 Y23.899 F600
G0 F1000
G0 Z8.000
G0 X11.457 F200
G0 X119.951 Y44.119
G1 X120.205 Y44.119 Z0.000 F1000

; --- COLOR CHANGE: BLACK ---
G0 Z8.000
G0 X142.000 Y0.000
G1 Z0.000 F800
G4 P500
G1 Z5.000 F800
; Smart Wipe -> Angle 155.4 deg
G0 X136.543 Y2.494
G0 Z5.000
G1 X123.810 Y8.314 F600
G0 F1000
G0 Z8.000
G0 X120.705 F200
G0 Y42.519 F200
G0 X20.988 Y80.753
G0 X20.488 F200
G1 X21.115 Y80.753 Z0.000 F1000
G0 Y82.353 F200
G0 X83.699 Y62.436
G1 X117.661 Y62.436 Z0.000 F1000

; --- COLOR CHANGE: CYAN ---
G0 Z8.000
G0 X0.000 Y17.000
G1 Z0.000 F800
G4 P500
G1 Z5.000 F800
; Smart Wipe -> Angle 48.2 deg
G0 X4.000 Y21.472
G0 Z5.000
G1 X13.333 Y31.907 F600
G0 F1000
G0 Z8.000
G0 X118.161 F200
G0 Y60.836 F200
G0 X67.926 Y133.669
G0 X67.426 F200
G1 X68.307 Y133.669 Z0.000 F1000
G0 X68.807 F200
G0 Y135.269 F200
G0 X34.599 Y111.282
G0 X34.099 F200
G1 X35.998 Y111.282 Z0.000 F1000

; --- COLOR CHANGE: BLACK ---
G0 Z8.000
G0 X142.000 Y0.000
G1 Z0.000 F800
G4 P500
G1 Z5.000 F800
; Smart Wipe -> Angle 88.4 deg
G0 X142.167 Y5.998
G0 Z5.000
G1 X142.556 Y19.992 F600
G0 F1000
G0 Z8.000
G0 Y109.682 F200
G0 X106.341 Y117.387
G1 X129.873 Y117.387 Z0.000 F1000
G0 X130.373 F200
G0 Y118.987 F200
G0 X42.740 Y72.613
G0 X42.240 F200
G1 X43.630 Y72.613 Z0.000 F1000
G0 X113.209 Y44.119
G1 X114.736 Y44.119 Z0.000 F1000
G0 Y42.519 F200
G0 X120.205 Y76.683
G1 X127.583 Y76.683 Z0.000 F1000
G0 X128.083 F200
G0 Y78.283 F200
G0 X20.607 Y50.225
G0 X20.107 F200
G1 X20.861 Y50.225 Z0.000 F1000
G0 X21.361 F200
G0 Y48.625 F200
G0 X13.738 Y72.613
G0 X13.238 F200
G1 X14.501 Y72.613 Z0.000 F1000
G0 Y74.213 F200
G0 X79.755 Y40.049
G1 X79.755 Y40.049 Z0.000 F1000

; --- COLOR CHANGE: CYAN ---
G0 Z8.000
G0 X0.000 Y17.000
G1 Z0.000 F800
G4 P500
G1 Z5.000 F800
; Smart Wipe -> Angle 51.8 deg
G0 X3.706 Y21.718
G0 Z5.000
G1 X12.355 Y32.728 F600
G0 F1000
G0 Z8.000
G0 X80.255 F200
G0 Y38.449 F200
G0 X0.000 Y68.542
G0 X0.000 F200
G1 X51.262 Y68.542 Z0.000 F1000

; --- COLOR CHANGE: BLACK ---
G0 Z8.000
G0 X142.000 Y0.000
G1 Z0.000 F800
G4 P500
G1 Z5.000 F800
; Smart Wipe -> Angle 125.3 deg
G0 X138.532 Y4.897
G0 Z5.000
G1 X130.441 Y16.322 F600
G0 F1000
G0 Z8.000
G0 Y70.142 F200
G0 X123.640 Y35.978
G1 X123.767 Y35.978 Z0.000 F1000

; --- COLOR CHANGE: CYAN ---
G0 Z8.000
G0 X0.000 Y17.000
G1 Z0.000 F800
G4 P500
G1 Z5.000 F800
; Smart Wipe -> Angle 10.3 deg
G0 X5.903 Y18.072
G0 Z5.000
G1 X19.678 Y20.575 F600
G0 F1000
G0 Z8.000
G0 X124.267 F200
G0 Y34.378 F200
G0 X91.840 Y54.295
G0 X91.340 F200
G1 X129.873 Y54.295 Z0.000 F1000

; --- COLOR CHANGE: YELLOW ---
G0 Z8.000
G0 X109.000 Y0.000
G1 Z0.000 F800
G4 P500
G1 Z5.000 F800
; Smart Wipe -> Angle 71.2 deg
G0 X110.935 Y5.679
G0 Z5.000
G1 X115.449 Y18.932 F600
G0 F1000
G0 Z8.000
G0 X130.373 F200
G0 X0.000 Y74.648
G0 X0.000 F200
G1 X129.873 Y74.648 Z0.000 F1000

; --- COLOR CHANGE: CYAN ---
G0 Z8.000
G0 X0.000 Y17.000
G1 Z0.000 F800
G4 P500
G1 Z5.000 F800
; Smart Wipe -> Angle 19.5 deg
G0 X5.655 Y19.006
G0 Z5.000
G1 X18.849 Y23.687 F600
G0 F1000
G0 Z8.000
G0 X130.373 F200
G0 Y76.248 F200
G0 X107.231 Y46.155
G0 X106.731 F200
G1 X108.630 Y46.155 Z0.000 F1000

; --- COLOR CHANGE: BLACK ---
G0 Z8.000
G0 X142.000 Y0.000
G1 Z0.000 F800
G4 P500
G1 Z5.000 F800
; Smart Wipe -> Angle 139.0 deg
G0 X137.473 Y3.937
G0 Z5.000
G1 X126.908 Y13.124 F600
G0 F1000
G0 Z8.000
G0 X109.130 F200
G0 Y44.555 F200
G0 X0.000 Y109.247
G0 X0.000 F200
G1 X5.597 Y109.247 Z0.000 F1000

; --- COLOR CHANGE: CYAN ---
G0 Z8.000
G0 X0.000 Y17.000
G1 Z0.000 F800
G4 P500
G1 Z5.000 F800
; Smart Wipe -> Angle 54.3 deg
G0 X3.502 Y21.872
G0 Z5.000
G1 X11.675 Y33.239 F600
G0 F1000
G0 Z8.000
G0 Y110.847 F200
G0 X44.393 Y74.648
G1 X49.609 Y74.648 Z0.000 F1000
G0 X50.109 F200
G0 Y73.048 F200
G0 X24.804 Y88.894
G0 X24.304 F200
G1 X27.094 Y88.894 Z0.000 F1000

; --- COLOR CHANGE: MAGENTA ---
G0 Z8.000
G0 X63.000 Y0.000
G1 Z0.000 F800
G4 P500
G1 Z5.000 F800
; Smart Wipe -> Angle 43.4 deg
G0 X67.358 Y4.124
G0 Z5.000
G1 X77.527 Y13.747 F600
G0 F1000
G0 Z8.000
G0 X27.594 F200
G0 Y90.494 F200
G0 X0.000 Y58.366
G0 X0.000 F200
G1 X129.873 Y58.366 Z0.000 F1000

; --- COLOR CHANGE: BLACK ---
G0 Z8.000
G0 X142.000 Y0.000
G1 Z0.000 F800
G4 P500
G1 Z5.000 F800
; Smart Wipe -> Angle 117.6 deg
G0 X139.216 Y5.315
G0 Z5.000
G1 X132.719 Y17.716 F600
G0 F1000
G0 Z8.000
G0 X130.373 F200
G0 X114.990 Y40.049
G0 X114.490 F200
G1 X117.661 Y40.049 Z0.000 F1000
G0 Y38.449 F200
G0 X122.241 Y74.648
G1 X123.513 Y74.648 Z0.000 F1000

; --- COLOR CHANGE: CYAN ---
G0 Z8.000
G0 X0.000 Y17.000
G1 Z0.000 F800
G4 P500
G1 Z5.000 F800
; Smart Wipe -> Angle 44.4 deg
G0 X4.290 Y21.195
G0 Z5.000
G1 X14.299 Y30.984 F600
G0 F1000
G0 Z8.000
G0 X124.013 F200
G0 Y76.248 F200
G0 X21.879 Y38.014
G0 X21.379 F200
G1 X24.295 Y38.014 Z0.000 F1000
G0 Y36.414 F200
G0 X51.517 Y68.542
G1 X129.873 Y68.542 Z0.000 F1000

; --- COLOR CHANGE: BLACK ---
G0 Z8.000
G0 X142.000 Y0.000
G1 Z0.000 F800
G4 P500
G1 Z5.000 F800
; Smart Wipe -> Angle 144.0 deg
G0 X137.148 Y3.530
G0 Z5.000
G1 X125.827 Y11.766 F600
G0 F1000
G0 Z8.000
G0 X130.373 F200
G0 X60.166 Y84.824
G1 X60.166 Y84.824 Z0.000 F1000
G0 X59.666 F200
G0 Y86.424 F200
G0 X98.327 Y68.542
G1 X99.980 Y68.542 Z0.000 F1000

; --- COLOR CHANGE: CYAN ---
G0 Z8.000
G0 X0.000 Y17.000
G1 Z0.000 F800
G4 P500
G1 Z5.000 F800
; Smart Wipe -> Angle 24.8 deg
G0 X5.448 Y19.513
G0 Z5.000
G1 X18.161 Y25.377 F600
G0 F1000
G0 Z8.000
G0 X100.480 F200
G0 Y66.942 F200
G0 X90.186 Y76.683
G0 X89.686 F200
G1 X92.094 Y76.683 Z0.000 F1000
G0 X92.594 F200
G0 Y78.283 F200
G0 X80.646 Y48.190
G0 X80.146 F200
G1 X81.155 Y48.190 Z0.000 F1000
G0 X81.655 F200
G0 Y46.590 F200
G0 X77.847 Y125.528
G1 X77.847 Y125.528 Z0.000 F1000

; --- COLOR CHANGE: BLACK ---
G0 Z8.000
G0 X142.000 Y0.000
G1 Z0.000 F800
G4 P500
G1 Z5.000 F800
; Smart Wipe -> Angle 136.7 deg
G0 X137.630 Y4.112
G0 Z5.000
G1 X127.434 Y13.705 F600
G0 F1000
G0 Z8.000
G0 Y127.128 F200
G0 X23.787 Y111.282
G0 X23.287 F200
G1 X25.186 Y111.282 Z0.000 F1000
G0 X74.159 Y52.260
G1 X76.575 Y52.260 Z0.000 F1000

; --- COLOR CHANGE: CYAN ---
G0 Z8.000
G0 X0.000 Y17.000
G1 Z0.000 F800
G4 P500
G1 Z5.000 F800
; Smart Wipe -> Angle 1.9 deg
G0 X5.997 Y17.194
G0 Z5.000
G1 X19.990 Y17.648 F600
G0 F1000
G0 Z8.000
G0 X127.329 Y31.908
G1 X127.965 Y31.908 Z0.000 F1000
G0 X128.465 F200
G0 Y30.308 F200
G0 X71.487 Y135.705
G0 X70.987 F200
G1 X72.123 Y135.705 Z0.000 F1000

; --- COLOR CHANGE: BLACK ---
G0 Z8.000
G0 X142.000 Y0.000
G1 Z0.000 F800
G4 P500
G1 Z5.000 F800
; Smart Wipe -> Angle 122.8 deg
G0 X138.753 Y5.046
G0 Z5.000
G1 X131.177 Y16.819 F600
G0 F1000
G0 Z8.000
G0 Y137.305 F200
G0 X102.906 Y80.753
G1 X108.376 Y80.753 Z0.000 F1000
G0 X108.876 F200
G0 X57.368 Y70.577
G0 X56.868 F200
G1 X129.873 Y70.577 Z0.000 F1000
G0 X130.373 F200
G0 X82.808 Y46.155
G1 X82.808 Y46.155 Z0.000 F1000
G0 Y44.555 F200
G0 X62.074 Y72.613
G0 X61.574 F200
G1 X63.474 Y72.613 Z0.000 F1000

; --- COLOR CHANGE: CYAN ---
G0 Z8.000
G0 X0.000 Y17.000
G1 Z0.000 F800
G4 P500
G1 Z5.000 F800
; Smart Wipe -> Angle 62.0 deg
G0 X2.820 Y22.296
G0 Z5.000
G1 X9.402 Y34.652 F600
G0 F1000
G0 Z8.000
G0 X63.974 F200
G0 X0.000 Y121.458
G0 X0.000 F200
G1 X66.145 Y121.458 Z0.000 F1000
G0 Y123.058 F200
G0 X120.205 Y82.789
G1 X120.587 Y82.789 Z0.000 F1000

; --- COLOR CHANGE: BLACK ---
G0 Z8.000
G0 X142.000 Y0.000
G1 Z0.000 F800
G4 P500
G1 Z5.000 F800
; Smart Wipe -> Angle 159.1 deg
G0 X136.393 Y2.136
G0 Z5.000
G1 X123.311 Y7.121 F600
G0 F1000
G0 Z8.000
G0 X121.087 F200
G0 X37.652 Y40.049
G0 X37.152 F200
G1 X37.906 Y40.049 Z0.000 F1000
G0 Y38.449 F200
G0 X51.262 Y44.119
G1 X52.153 Y44.119 Z0.000 F1000
G0 X52.653 F200
G0 X40.832 Y80.753
G0 X40.332 F200
G1 X41.086 Y80.753 Z0.000 F1000
G0 X41.586 F200
G0 Y82.353 F200
G0 X20.861 Y54.295
G0 X20.361 F200
G1 X21.370 Y54.295 Z0.000 F1000

; --- COLOR CHANGE: CYAN ---
G0 Z8.000
G0 X0.000 Y17.000
G1 Z0.000 F800
G4 P500
G1 Z5.000 F800
; Smart Wipe -> Angle 55.4 deg
G0 X3.408 Y21.938
G0 Z5.000
G1 X11.360 Y33.461 F600
G0 F1000
G0 Z8.000
G0 Y52.695 F200
G0 X43.630 Y113.317
G1 X63.474 Y113.317 Z0.000 F1000

; --- COLOR CHANGE: BLACK ---
G0 Z8.000
G0 X142.000 Y0.000
G1 Z0.000 F800
G4 P500
G1 Z5.000 F800
; Smart Wipe -> Angle 164.0 deg
G0 X136.233 Y1.656
G0 Z5.000
G1 X122.777 Y5.521 F600
G0 F1000
G0 Z8.000
G0 Y114.917 F200
G0 X69.452 Y33.943
G1 X76.830 Y33.943 Z0.000 F1000
G0 X115.245 Y33.943
G1 X115.499 Y33.943 Z0.000 F1000
G0 X115.999 F200
G0 Y32.343 F200
G0 X2.417 Y88.894
G0 X1.917 F200
G1 X3.307 Y88.894 Z0.000 F1000

; --- COLOR CHANGE: CYAN ---
G0 Z8.000
G0 X0.000 Y17.000
G1 Z0.000 F800
G4 P500
G1 Z5.000 F800
; Smart Wipe -> Angle 19.8 deg
G0 X5.644 Y19.037
G0 Z5.000
G1 X18.813 Y23.789 F600
G0 F1000
G0 Z8.000
G0 Y90.494 F200
G0 X86.624 Y60.401
G1 X129.873 Y60.401 Z0.000 F1000

; --- COLOR CHANGE: BLACK ---
G0 Z8.000
G0 X142.000 Y0.000
G1 Z0.000 F800
G4 P500
G1 Z5.000 F800
; Smart Wipe -> Angle 108.5 deg
G0 X140.101 Y5.691
G0 Z5.000
G1 X135.669 Y18.972 F600
G0 F1000
G0 Z8.000
G0 X130.373 F200
G0 X119.188 Y42.084
G0 X118.688 F200
G1 X119.569 Y42.084 Z0.000 F1000

; --- COLOR CHANGE: YELLOW ---
G0 Z8.000
G0 X109.000 Y0.000
G1 Z0.000 F800
G4 P500
G1 Z5.000 F800
; Smart Wipe -> Angle 51.7 deg
G0 X112.718 Y4.710
G0 Z5.000
G1 X121.392 Y15.699 F600
G0 F1000
G0 Z8.000
G0 X120.069 F200
G0 X0.000 Y38.014
G0 X0.000 F200
G1 X129.873 Y38.014 Z0.000 F1000

; --- COLOR CHANGE: BLACK ---
G0 Z8.000
G0 X142.000 Y0.000
G1 Z0.000 F800
G4 P500
G1 Z5.000 F800
; Smart Wipe -> Angle 155.5 deg
