; Generated by CMYK Pro (V0.9 - Dual Mode, No Dwell)
G21 ; Millimeters
G90 ; Absolute positioning
G0 Z8.000

; --- COLOR CHANGE: CYAN ---
G0 Z8.000
G0 X17.000 Y0.000
G1 Z0.000 F800
G1 Z5.000 F800
; Smart Wipe -> Angle 50.5 deg
G0 X20.820 Y4.627
G0 Z5.000
G1 X29.732 Y15.424 F600
G0 F1000
G0 Z8.000
G0 Y0.000 F200
G0 X0.000 Y30.489
G0 X0.000 F200
G1 X37.182 Y30.489 Z0.000 F1000
G0 X38.063 Y30.489
G1 X50.489 Y30.489 Z0.000 F1000
G0 X50.881 Y30.489
G1 X53.718 Y30.489 Z0.000 F1000
G0 X56.164 Y30.489
G1 X56.849 Y30.489 Z0.000 F1000
G0 X59.100 Y30.489
G1 X59.589 Y30.489 Z0.000 F1000
G0 X61.155 Y30.489
G1 X61.155 Y30.489 Z0.000 F1000
G0 X61.448 Y30.489
G1 X61.937 Y30.489 Z0.000 F1000
G0 X64.090 Y30.489
G1 X64.090 Y30.489 Z0.000 F1000
G0 X64.384 Y30.489
G1 X88.063 Y30.489 Z0.000 F1000
G0 X88.356 Y30.489
G1 X90.998 Y30.489 Z0.000 F1000
G0 X91.292 Y30.489
G1 X94.912 Y30.489 Z0.000 F1000
G0 X95.205 Y30.489
G1 X99.902 Y30.489 Z0.000 F1000

; --- COLOR CHANGE: MAGENTA ---
G0 Z8.000
G0 X63.000 Y0.000
G1 Z0.000 F800
G1 Z5.000 F800
; Smart Wipe -> Angle 44.8 deg
G0 X67.258 Y4.227
G0 Z5.000
G1 X77.193 Y14.091 F600
G0 F1000
G0 Z8.000
G0 X100.402 F200
G0 X0.000 Y30.489
G0 X0.000 F200
G1 X99.902 Y30.489 Z0.000 F1000

; --- COLOR CHANGE: YELLOW ---
G0 Z8.000
G0 X109.000 Y0.000
G1 Z0.000 F800
G1 Z5.000 F800
; Smart Wipe -> Angle 150.8 deg
G0 X103.761 Y2.925
G0 Z5.000
G1 X91.538 Y9.751 F600
G0 F1000
G0 Z8.000
G0 X100.402 F200
G0 X0.000 Y30.489
G0 X0.000 F200
G1 X64.188 Y30.489 Z0.000 F1000
G0 X65.460 Y30.489
G1 X68.982 Y30.489 Z0.000 F1000
G0 X69.374 Y30.489
G1 X75.734 Y30.489 Z0.000 F1000
G0 X76.223 Y30.489
G1 X79.159 Y30.489 Z0.000 F1000
G0 X79.354 Y30.489
G1 X90.117 Y30.489 Z0.000 F1000
G0 X90.313 Y30.489
G1 X90.998 Y30.489 Z0.000 F1000
G0 X91.487 Y30.489
G1 X96.477 Y30.489 Z0.000 F1000
G0 X97.065 Y30.489
G1 X99.902 Y30.489 Z0.000 F1000

; --- COLOR CHANGE: BLACK ---
G0 Z8.000
G0 X140.000 Y0.000
G1 Z0.000 F800
G1 Z5.000 F800
; Smart Wipe -> Angle 135.6 deg
G0 X137.711 Y4.196
G0 Z5.000
G1 X127.705 Y13.987 F600
G0 F1000
G0 Z8.000
G0 X100.402 F200
G0 X0.000 Y30.489
G0 X0.000 F200
G1 X99.902 Y30.489 Z0.000 F1000

; --- COLOR CHANGE: CYAN ---
G0 Z8.000
G0 X17.000 Y0.000
G1 Z0.000 F800
G1 Z5.000 F800
; Smart Wipe -> Angle 60.5 deg
G0 X19.959 Y5.220
G0 Z5.000
G1 X26.862 Y17.399 F600
G0 F1000
G0 Z8.000
G0 X100.402 F200
G0 X0.000 Y30.978
G0 X0.000 F200
G1 X37.378 Y30.978 Z0.000 F1000
G0 X37.671 Y30.978
G1 X48.337 Y30.978 Z0.000 F1000
G0 X49.119 Y30.978
G1 X54.012 Y30.978 Z0.000 F1000
G0 X56.067 Y30.978
G1 X56.947 Y30.978 Z0.000 F1000
G0 X57.339 Y30.978
G1 X57.534 Y30.978 Z0.000 F1000
G0 X57.926 Y30.978
G1 X59.393 Y30.978 Z0.000 F1000
G0 X60.372 Y30.978
G1 X60.470 Y30.978 Z0.000 F1000
G0 X64.188 Y30.978
G1 X67.123 Y30.978 Z0.000 F1000
G0 X67.515 Y30.978
G1 X88.356 Y30.978 Z0.000 F1000
G0 X88.552 Y30.978
G1 X89.139 Y30.978 Z0.000 F1000
G0 X89.335 Y30.978
G1 X92.661 Y30.978 Z0.000 F1000
G0 X92.955 Y30.978
G1 X96.673 Y30.978 Z0.000 F1000
G0 X96.967 Y30.978
G1 X98.532 Y30.978 Z0.000 F1000
G0 X98.924 Y30.978
G1 X99.119 Y30.978 Z0.000 F1000
G0 X99.609 Y30.978
G1 X99.902 Y30.978 Z0.000 F1000

; --- COLOR CHANGE: MAGENTA ---
G0 Z8.000
G0 X63.000 Y0.000
G1 Z0.000 F800
G1 Z5.000 F800
; Smart Wipe -> Angle 38.3 deg
G0 X67.710 Y3.717
G0 Z5.000
G1 X78.701 Y12.389 F600
G0 F1000
G0 Z8.000
G0 X100.402 F200
G0 X0.000 Y30.978
G0 X0.000 F200
G1 X99.902 Y30.978 Z0.000 F1000

; --- COLOR CHANGE: YELLOW ---
G0 Z8.000
G0 X109.000 Y0.000
G1 Z0.000 F800
G1 Z5.000 F800
; Smart Wipe -> Angle 151.2 deg
G0 X103.742 Y2.890
G0 Z5.000
G1 X91.473 Y9.633 F600
G0 F1000
G0 Z8.000
G0 X100.402 F200
G0 X0.000 Y30.978
G0 X0.000 F200
G1 X24.853 Y30.978 Z0.000 F1000
G0 X25.147 Y30.978
G1 X64.090 Y30.978 Z0.000 F1000
G0 X66.438 Y30.978
G1 X69.961 Y30.978 Z0.000 F1000
G0 X70.254 Y30.978
G1 X71.429 Y30.978 Z0.000 F1000
G0 X71.918 Y30.978
G1 X82.975 Y30.978 Z0.000 F1000
G0 X83.366 Y30.978
G1 X97.750 Y30.978 Z0.000 F1000
G0 X98.043 Y30.978
G1 X98.337 Y30.978 Z0.000 F1000
G0 X98.630 Y30.978
G1 X99.902 Y30.978 Z0.000 F1000

; --- COLOR CHANGE: BLACK ---
G0 Z8.000
G0 X140.000 Y0.000
G1 Z0.000 F800
G1 Z5.000 F800
; Smart Wipe -> Angle 142.1 deg
G0 X137.267 Y3.688
G0 Z5.000
G1 X126.224 Y12.292 F600
G0 F1000
G0 Z8.000
G0 X100.402 F200
G0 X0.000 Y30.978
G0 X0.000 F200
G1 X99.902 Y30.978 Z0.000 F1000

; --- COLOR CHANGE: CYAN ---
G0 Z8.000
G0 X17.000 Y0.000
G1 Z0.000 F800
G1 Z5.000 F800
; Smart Wipe -> Angle 39.5 deg
G0 X21.628 Y3.819
G0 Z5.000
G1 X32.425 Y12.730 F600
G0 F1000
G0 Z8.000
G0 X100.402 F200
G0 X0.000 Y31.468
G0 X0.000 F200
G1 X47.847 Y31.468 Z0.000 F1000
G0 X48.043 Y31.468
G1 X48.924 Y31.468 Z0.000 F1000
G0 X49.119 Y31.468
G1 X49.119 Y31.468 Z0.000 F1000
G0 X49.315 Y31.468
G1 X49.413 Y31.468 Z0.000 F1000
G0 X49.706 Y31.468
G1 X54.599 Y31.468 Z0.000 F1000
G0 X55.871 Y31.468
G1 X59.393 Y31.468 Z0.000 F1000
G0 X60.470 Y31.468
G1 X60.568 Y31.468 Z0.000 F1000
G0 X61.937 Y31.468
G1 X62.035 Y31.468 Z0.000 F1000
G0 X62.427 Y31.468
G1 X62.427 Y31.468 Z0.000 F1000
G0 X64.090 Y31.468
G1 X66.438 Y31.468 Z0.000 F1000
G0 X67.613 Y31.468
G1 X88.356 Y31.468 Z0.000 F1000
G0 X88.552 Y31.468
G1 X89.041 Y31.468 Z0.000 F1000
G0 X89.237 Y31.468
G1 X91.292 Y31.468 Z0.000 F1000
G0 X91.487 Y31.468
G1 X92.759 Y31.468 Z0.000 F1000
G0 X93.053 Y31.468
G1 X96.771 Y31.468 Z0.000 F1000
G0 X97.162 Y31.468
G1 X97.260 Y31.468 Z0.000 F1000
G0 X97.554 Y31.468
G1 X97.554 Y31.468 Z0.000 F1000
G0 X97.750 Y31.468
G1 X97.750 Y31.468 Z0.000 F1000
G0 X97.945 Y31.468
G1 X98.434 Y31.468 Z0.000 F1000

; --- COLOR CHANGE: MAGENTA ---
G0 Z8.000
G0 X63.000 Y0.000
G1 Z0.000 F800
G1 Z5.000 F800
; Smart Wipe -> Angle 32.7 deg
G0 X68.047 Y3.244
G0 Z5.000
G1 X79.824 Y10.815 F600
G0 F1000
G0 Z8.000
G0 X98.934 F200
G0 X0.000 Y31.468
G0 X0.000 F200
G1 X99.902 Y31.468 Z0.000 F1000

; --- COLOR CHANGE: YELLOW ---
G0 Z8.000
G0 X109.000 Y0.000
G1 Z0.000 F800
G1 Z5.000 F800
; Smart Wipe -> Angle 158.0 deg
G0 X103.437 Y2.249
G0 Z5.000
G1 X90.458 Y7.496 F600
G0 F1000
G0 Z8.000
G0 X100.402 F200
G0 X0.000 Y31.468
G0 X0.000 F200
G1 X48.434 Y31.468 Z0.000 F1000
G0 X48.630 Y31.468
G1 X51.957 Y31.468 Z0.000 F1000
G0 X52.250 Y31.468
G1 X53.523 Y31.468 Z0.000 F1000
G0 X53.718 Y31.468
G1 X62.133 Y31.468 Z0.000 F1000
G0 X62.524 Y31.468
G1 X63.894 Y31.468 Z0.000 F1000
G0 X64.384 Y31.468
G1 X64.384 Y31.468 Z0.000 F1000
G0 X64.971 Y31.468
G1 X66.438 Y31.468 Z0.000 F1000
G0 X66.830 Y31.468
G1 X71.331 Y31.468 Z0.000 F1000
G0 X71.624 Y31.468
G1 X83.072 Y31.468 Z0.000 F1000
G0 X83.464 Y31.468
G1 X84.638 Y31.468 Z0.000 F1000
G0 X84.932 Y31.468
G1 X91.781 Y31.468 Z0.000 F1000
G0 X92.074 Y31.468
G1 X93.640 Y31.468 Z0.000 F1000
G0 X93.836 Y31.468
G1 X94.521 Y31.468 Z0.000 F1000
G0 X95.205 Y31.468
G1 X96.967 Y31.468 Z0.000 F1000
G0 X97.162 Y31.468
G1 X98.630 Y31.468 Z0.000 F1000
G0 X99.217 Y31.468
G1 X99.902 Y31.468 Z0.000 F1000

; --- COLOR CHANGE: BLACK ---
G0 Z8.000
G0 X140.000 Y0.000
G1 Z0.000 F800
G1 Z5.000 F800
; Smart Wipe -> Angle 141.2 deg
G0 X137.322 Y3.757
G0 Z5.000
G1 X126.407 Y12.524 F600
G0 F1000
G0 Z8.000
G0 X100.402 F200
G0 X0.000 Y31.468
G0 X0.000 F200
G1 X99.902 Y31.468 Z0.000 F1000

; --- COLOR CHANGE: CYAN ---
G0 Z8.000
G0 X17.000 Y0.000
G1 Z0.000 F800
G1 Z5.000 F800
; Smart Wipe -> Angle 46.2 deg
G0 X21.153 Y4.330
G0 Z5.000
G1 X30.845 Y14.433 F600
G0 F1000
G0 Z8.000
G0 X100.402 F200
G0 X0.000 Y31.957
G0 X0.000 F200
G1 X51.859 Y31.957 Z0.000 F1000
G0 X53.229 Y31.957
G1 X55.186 Y31.957 Z0.000 F1000
G0 X55.479 Y31.957
G1 X59.393 Y31.957 Z0.000 F1000
G0 X60.274 Y31.957
G1 X60.861 Y31.957 Z0.000 F1000
G0 X62.133 Y31.957
G1 X62.622 Y31.957 Z0.000 F1000
G0 X63.699 Y31.957
G1 X64.481 Y31.957 Z0.000 F1000
G0 X64.971 Y31.957
G1 X65.656 Y31.957 Z0.000 F1000
G0 X66.145 Y31.957
G1 X66.830 Y31.957 Z0.000 F1000
G0 X67.319 Y31.957
G1 X67.417 Y31.957 Z0.000 F1000
G0 X67.710 Y31.957
G1 X88.943 Y31.957 Z0.000 F1000
G0 X89.237 Y31.957
G1 X90.705 Y31.957 Z0.000 F1000
G0 X91.683 Y31.957
G1 X99.902 Y31.957 Z0.000 F1000

; --- COLOR CHANGE: MAGENTA ---
G0 Z8.000
G0 X63.000 Y0.000
G1 Z0.000 F800
G1 Z5.000 F800
; Smart Wipe -> Angle 49.2 deg
G0 X66.920 Y4.542
G0 Z5.000
G1 X76.068 Y15.141 F600
G0 F1000
G0 Z8.000
G0 X100.402 F200
G0 X0.000 Y31.957
G0 X0.000 F200
G1 X99.902 Y31.957 Z0.000 F1000

; --- COLOR CHANGE: YELLOW ---
G0 Z8.000
G0 X109.000 Y0.000
G1 Z0.000 F800
G1 Z5.000 F800
; Smart Wipe -> Angle 165.2 deg
G0 X103.199 Y1.531
G0 Z5.000
G1 X89.662 Y5.104 F600
G0 F1000
G0 Z8.000
G0 X100.402 F200
G0 X0.000 Y31.957
G0 X0.000 F200
G1 X45.401 Y31.957 Z0.000 F1000
G0 X45.597 Y31.957
G1 X47.750 Y31.957 Z0.000 F1000
G0 X48.043 Y31.957
G1 X49.413 Y31.957 Z0.000 F1000
G0 X49.609 Y31.957
G1 X54.501 Y31.957 Z0.000 F1000
G0 X54.697 Y31.957
G1 X55.186 Y31.957 Z0.000 F1000
G0 X55.382 Y31.957
G1 X59.002 Y31.957 Z0.000 F1000
G0 X59.198 Y31.957
G1 X62.427 Y31.957 Z0.000 F1000
G0 X62.818 Y31.957
G1 X66.047 Y31.957 Z0.000 F1000
G0 X66.536 Y31.957
G1 X68.493 Y31.957 Z0.000 F1000
G0 X70.939 Y31.957
G1 X71.820 Y31.957 Z0.000 F1000
G0 X72.309 Y31.957
G1 X72.603 Y31.957 Z0.000 F1000
G0 X72.798 Y31.957
G1 X73.190 Y31.957 Z0.000 F1000
G0 X75.636 Y31.957
G1 X82.975 Y31.957 Z0.000 F1000
G0 X83.268 Y31.957
G1 X85.910 Y31.957 Z0.000 F1000
G0 X86.106 Y31.957
G1 X87.084 Y31.957 Z0.000 F1000
G0 X87.476 Y31.957
G1 X92.466 Y31.957 Z0.000 F1000
G0 X92.857 Y31.957
G1 X93.249 Y31.957 Z0.000 F1000
G0 X93.640 Y31.957
G1 X94.814 Y31.957 Z0.000 F1000
G0 X96.086 Y31.957
G1 X97.456 Y31.957 Z0.000 F1000
G0 X97.847 Y31.957
G1 X97.847 Y31.957 Z0.000 F1000
G0 X98.141 Y31.957
G1 X99.413 Y31.957 Z0.000 F1000

; --- COLOR CHANGE: BLACK ---
G0 Z8.000
G0 X140.000 Y0.000
G1 Z0.000 F800
G1 Z5.000 F800
; Smart Wipe -> Angle 147.6 deg
G0 X136.937 Y3.219
G0 Z5.000
G1 X125.122 Y10.730 F600
G0 F1000
G0 Z8.000
G0 X99.913 F200
G0 X0.000 Y31.957
G0 X0.000 F200
G1 X99.902 Y31.957 Z0.000 F1000

; --- COLOR CHANGE: CYAN ---
G0 Z8.000
G0 X17.000 Y0.000
G1 Z0.000 F800
G1 Z5.000 F800
; Smart Wipe -> Angle 45.5 deg
G0 X21.207 Y4.278
G0 Z5.000
G1 X31.023 Y14.260 F600
G0 F1000
G0 Z8.000
G0 X100.402 F200
G0 X0.000 Y32.446
G0 X0.000 F200
G1 X51.468 Y32.446 Z0.000 F1000
G0 X52.446 Y32.446
G1 X59.491 Y32.446 Z0.000 F1000
G0 X59.785 Y32.446
G1 X61.252 Y32.446 Z0.000 F1000
G0 X61.742 Y32.446
G1 X61.937 Y32.446 Z0.000 F1000
G0 X62.231 Y32.446
G1 X64.579 Y32.446 Z0.000 F1000
G0 X64.873 Y32.446
G1 X65.362 Y32.446 Z0.000 F1000
G0 X67.221 Y32.446
G1 X67.319 Y32.446 Z0.000 F1000
G0 X67.710 Y32.446
G1 X90.900 Y32.446 Z0.000 F1000
G0 X91.389 Y32.446
G1 X92.368 Y32.446 Z0.000 F1000
G0 X92.857 Y32.446
G1 X93.053 Y32.446 Z0.000 F1000
G0 X93.444 Y32.446
G1 X96.575 Y32.446 Z0.000 F1000
G0 X97.260 Y32.446
G1 X99.902 Y32.446 Z0.000 F1000

; --- COLOR CHANGE: MAGENTA ---
G0 Z8.000
G0 X63.000 Y0.000
G1 Z0.000 F800
G1 Z5.000 F800
; Smart Wipe -> Angle 36.4 deg
G0 X67.830 Y3.560
G0 Z5.000
G1 X79.099 Y11.866 F600
G0 F1000
G0 Z8.000
G0 X100.402 F200
G0 X0.000 Y32.446
G0 X0.000 F200
G1 X99.902 Y32.446 Z0.000 F1000

; --- COLOR CHANGE: YELLOW ---
G0 Z8.000
G0 X109.000 Y0.000
G1 Z0.000 F800
G1 Z5.000 F800
; Smart Wipe -> Angle 142.5 deg
G0 X104.240 Y3.652
G0 Z5.000
G1 X93.132 Y12.174 F600
G0 F1000
G0 Z8.000
G0 X100.402 F200
G0 X0.000 Y32.446
G0 X0.000 F200
G1 X43.738 Y32.446 Z0.000 F1000
G0 X44.325 Y32.446
G1 X46.380 Y32.446 Z0.000 F1000
G0 X46.771 Y32.446
G1 X47.847 Y32.446 Z0.000 F1000
G0 X48.043 Y32.446
G1 X49.315 Y32.446 Z0.000 F1000
G0 X50.098 Y32.446
G1 X50.587 Y32.446 Z0.000 F1000
G0 X51.174 Y32.446
G1 X61.937 Y32.446 Z0.000 F1000
G0 X62.231 Y32.446
G1 X68.395 Y32.446 Z0.000 F1000
G0 X68.689 Y32.446
G1 X69.569 Y32.446 Z0.000 F1000
G0 X70.352 Y32.446
G1 X71.624 Y32.446 Z0.000 F1000
G0 X71.918 Y32.446
G1 X72.701 Y32.446 Z0.000 F1000
G0 X72.994 Y32.446
G1 X73.777 Y32.446 Z0.000 F1000
G0 X74.658 Y32.446
G1 X79.354 Y32.446 Z0.000 F1000
G0 X79.648 Y32.446
G1 X84.344 Y32.446 Z0.000 F1000
G0 X84.540 Y32.446
G1 X85.714 Y32.446 Z0.000 F1000
G0 X86.106 Y32.446
G1 X88.063 Y32.446 Z0.000 F1000
G0 X88.454 Y32.446
G1 X91.585 Y32.446 Z0.000 F1000
G0 X91.977 Y32.446
G1 X93.249 Y32.446 Z0.000 F1000
G0 X93.640 Y32.446
G1 X94.618 Y32.446 Z0.000 F1000
G0 X95.108 Y32.446
G1 X97.750 Y32.446 Z0.000 F1000
G0 X98.141 Y32.446
G1 X99.902 Y32.446 Z0.000 F1000

; --- COLOR CHANGE: BLACK ---
G0 Z8.000
G0 X140.000 Y0.000
G1 Z0.000 F800
G1 Z5.000 F800
; Smart Wipe -> Angle 141.1 deg
G0 X137.330 Y3.767
G0 Z5.000
G1 X126.433 Y12.557 F600
G0 F1000
G0 Z8.000
G0 X100.402 F200
G0 X0.000 Y32.446
G0 X0.000 F200
G1 X99.902 Y32.446 Z0.000 F1000

; --- COLOR CHANGE: CYAN ---
G0 Z8.000
G0 X17.000 Y0.000
G1 Z0.000 F800
G1 Z5.000 F800
; Smart Wipe -> Angle 38.1 deg
G0 X21.722 Y3.702
G0 Z5.000
G1 X32.740 Y12.339 F600
G0 F1000
G0 Z8.000
G0 X100.402 F200
G0 X0.000 Y32.935
G0 X0.000 F200
G1 X61.350 Y32.935 Z0.000 F1000
G0 X61.546 Y32.935
G1 X65.460 Y32.935 Z0.000 F1000
G0 X66.243 Y32.935
G1 X66.243 Y32.935 Z0.000 F1000
G0 X67.417 Y32.935
G1 X68.591 Y32.935 Z0.000 F1000
G0 X69.080 Y32.935
G1 X70.059 Y32.935 Z0.000 F1000
G0 X70.939 Y32.935
G1 X74.462 Y32.935 Z0.000 F1000
G0 X74.755 Y32.935
G1 X90.509 Y32.935 Z0.000 F1000
G0 X90.900 Y32.935
G1 X91.096 Y32.935 Z0.000 F1000
G0 X91.585 Y32.935
G1 X92.759 Y32.935 Z0.000 F1000
G0 X93.346 Y32.935
G1 X99.902 Y32.935 Z0.000 F1000

; --- COLOR CHANGE: MAGENTA ---
G0 Z8.000
G0 X63.000 Y0.000
G1 Z0.000 F800
G1 Z5.000 F800
; Smart Wipe -> Angle 52.6 deg
G0 X66.641 Y4.769
G0 Z5.000
G1 X75.136 Y15.897 F600
G0 F1000
G0 Z8.000
G0 X100.402 F200
G0 X0.000 Y32.935
G0 X0.000 F200
G1 X99.902 Y32.935 Z0.000 F1000

; --- COLOR CHANGE: YELLOW ---
G0 Z8.000
G0 X109.000 Y0.000
G1 Z0.000 F800
G1 Z5.000 F800
; Smart Wipe -> Angle 150.4 deg
G0 X103.785 Y2.967
G0 Z5.000
G1 X91.616 Y9.888 F600
G0 F1000
G0 Z8.000
G0 X100.402 F200
G0 X0.000 Y32.935
G0 X0.000 F200
G1 X48.826 Y32.935 Z0.000 F1000
G0 X49.315 Y32.935
G1 X51.370 Y32.935 Z0.000 F1000
G0 X51.566 Y32.935
G1 X53.229 Y32.935 Z0.000 F1000
G0 X53.523 Y32.935
G1 X53.620 Y32.935 Z0.000 F1000
G0 X54.012 Y32.935
G1 X59.100 Y32.935 Z0.000 F1000
G0 X59.393 Y32.935
G1 X59.883 Y32.935 Z0.000 F1000
G0 X60.176 Y32.935
G1 X61.252 Y32.935 Z0.000 F1000
G0 X62.231 Y32.935
G1 X62.622 Y32.935 Z0.000 F1000
G0 X63.209 Y32.935
G1 X63.307 Y32.935 Z0.000 F1000
G0 X63.601 Y32.935
G1 X64.286 Y32.935 Z0.000 F1000
G0 X64.677 Y32.935
G1 X64.677 Y32.935 Z0.000 F1000
G0 X65.166 Y32.935
G1 X68.200 Y32.935 Z0.000 F1000
G0 X68.493 Y32.935
G1 X72.798 Y32.935 Z0.000 F1000
G0 X73.288 Y32.935
G1 X73.581 Y32.935 Z0.000 F1000
G0 X74.462 Y32.935
G1 X78.865 Y32.935 Z0.000 F1000
G0 X79.354 Y32.935
G1 X79.550 Y32.935 Z0.000 F1000
G0 X80.039 Y32.935
G1 X80.333 Y32.935 Z0.000 F1000
G0 X80.626 Y32.935
G1 X83.855 Y32.935 Z0.000 F1000
G0 X84.344 Y32.935
G1 X88.356 Y32.935 Z0.000 F1000
G0 X88.845 Y32.935
G1 X92.270 Y32.935 Z0.000 F1000
G0 X92.466 Y32.935
G1 X92.759 Y32.935 Z0.000 F1000
G0 X93.151 Y32.935
G1 X93.249 Y32.935 Z0.000 F1000
G0 X93.640 Y32.935
G1 X94.716 Y32.935 Z0.000 F1000
G0 X95.499 Y32.935
G1 X97.065 Y32.935 Z0.000 F1000
G0 X97.456 Y32.935
G1 X97.750 Y32.935 Z0.000 F1000
G0 X98.141 Y32.935
G1 X99.902 Y32.935 Z0.000 F1000

; --- COLOR CHANGE: BLACK ---
G0 Z8.000
G0 X140.000 Y0.000
G1 Z0.000 F800
G1 Z5.000 F800
; Smart Wipe -> Angle 135.8 deg
G0 X137.700 Y4.184
G0 Z5.000
G1 X127.666 Y13.948 F600
G0 F1000
G0 Z8.000
G0 X100.402 F200
G0 X0.000 Y32.935
G0 X0.000 F200
G1 X99.902 Y32.935 Z0.000 F1000

; --- COLOR CHANGE: CYAN ---
G0 Z8.000
G0 X17.000 Y0.000
G1 Z0.000 F800
G1 Z5.000 F800
; Smart Wipe -> Angle 42.7 deg
G0 X21.407 Y4.071
G0 Z5.000
G1 X31.691 Y13.571 F600
G0 F1000
G0 Z8.000
G0 X100.402 F200
G0 X0.000 Y33.425
G0 X0.000 F200
G1 X62.133 Y33.425 Z0.000 F1000
G0 X62.524 Y33.425
G1 X70.450 Y33.425 Z0.000 F1000
G0 X70.646 Y33.425
G1 X90.509 Y33.425 Z0.000 F1000
G0 X90.998 Y33.425
G1 X92.172 Y33.425 Z0.000 F1000
G0 X92.661 Y33.425
G1 X99.902 Y33.425 Z0.000 F1000

; --- COLOR CHANGE: MAGENTA ---
G0 Z8.000
G0 X63.000 Y0.000
G1 Z0.000 F800
G1 Z5.000 F800
; Smart Wipe -> Angle 31.0 deg
G0 X68.145 Y3.087
G0 Z5.000
G1 X80.150 Y10.289 F600
G0 F1000
G0 Z8.000
G0 X100.402 F200
G0 X0.000 Y33.425
G0 X0.000 F200
G1 X99.902 Y33.425 Z0.000 F1000

