; Generated by CMYK Pro (V0.6 - NaN Fix, Backlash, Limits)
G21 ; Millimeters
G90 ; Absolute positioning
G0 Z8.000

; --- COLOR CHANGE: CYAN ---
G0 Z8.000
G0 X17.000 Y0.000
G1 Z0.000 F800
G4 P500
G1 Z5.000 F800
; Smart Wipe -> Angle 46.3 deg
G0 X21.142 Y4.341
G0 Z5.000
G1 X27.354 Y10.853 F600
G0 F1300
G0 Z8.000
G0 X0.000 F200
G0 Y0.000 F200
G0 X49.863 Y46.155
G1 X49.863 Y46.155 Z0.000 F1300

; --- COLOR CHANGE: BLACK ---
G0 Z8.000
G0 X142.000 Y0.000
G1 Z0.000 F800
G4 P500
G1 Z5.000 F800
; Smart Wipe -> Angle 134.7 deg
G0 X137.780 Y4.265
G0 Z5.000
G1 X131.449 Y10.662 F600
G0 F1300
G0 Z8.000
G0 Y47.755 F200
G0 X110.538 Y35.978
G1 X115.499 Y35.978 Z0.000 F1300

; --- COLOR CHANGE: CYAN ---
G0 Z8.000
G0 X17.000 Y0.000
G1 Z0.000 F800
G4 P500
G1 Z5.000 F800
; Smart Wipe -> Angle 71.9 deg
G0 X18.869 Y5.702
G0 Z5.000
G1 X21.672 Y14.254 F600
G0 F1300
G0 Z8.000
G0 X115.999 F200
G0 Y34.378 F200
G0 X83.953 Y131.634
G0 X83.453 F200
G1 X92.094 Y131.634 Z0.000 F1300

; --- COLOR CHANGE: MAGENTA ---
G0 Z8.000
G0 X63.000 Y0.000
G1 Z0.000 F800
G4 P500
G1 Z5.000 F800
; Smart Wipe -> Angle 51.4 deg
G0 X66.743 Y4.689
G0 Z5.000
G1 X72.358 Y11.723 F600
G0 F1300
G0 Z8.000
G0 X92.594 F200
G0 Y133.234 F200
G0 X0.000 Y105.176
G0 X0.000 F200
G1 X129.873 Y105.176 Z0.000 F1300

; --- COLOR CHANGE: CYAN ---
G0 Z8.000
G0 X17.000 Y0.000
G1 Z0.000 F800
G4 P500
G1 Z5.000 F800
; Smart Wipe -> Angle 82.4 deg
G0 X17.797 Y5.947
G0 Z5.000
G1 X18.992 Y14.867 F600
G0 F1300
G0 Z8.000
G0 X130.373 F200
G0 Y103.576 F200
G0 X36.634 Y109.247
G0 X36.134 F200
G1 X39.814 Y109.247 Z0.000 F1300

; --- COLOR CHANGE: BLACK ---
G0 Z8.000
G0 X142.000 Y0.000
G1 Z0.000 F800
G4 P500
G1 Z5.000 F800
; Smart Wipe -> Angle 161.2 deg
G0 X136.319 Y1.931
G0 Z5.000
G1 X127.798 Y4.828 F600
G0 F1300
G0 Z8.000
G0 X40.314 F200
G0 Y110.847 F200
G0 X23.151 Y52.260
G0 X22.651 F200
G1 X27.094 Y52.260 Z0.000 F1300
G0 Y50.660 F200
G0 X60.421 Y115.352
G1 X63.601 Y115.352 Z0.000 F1300
G0 X64.101 F200
G0 Y116.952 F200
G0 X32.691 Y92.965
G0 X32.191 F200
G1 X33.200 Y92.965 Z0.000 F1300
G0 Y91.365 F200
G0 X99.853 Y117.387
G1 X106.086 Y117.387 Z0.000 F1300
G0 X106.586 F200
G0 Y118.987 F200
G0 X1.908 Y80.753
G0 X1.408 F200
G1 X3.053 Y80.753 Z0.000 F1300
G0 X36.507 Y48.190
G1 X41.213 Y48.190 Z0.000 F1300

; --- COLOR CHANGE: YELLOW ---
G0 Z8.000
G0 X109.000 Y0.000
G1 Z0.000 F800
G4 P500
G1 Z5.000 F800
; Smart Wipe -> Angle 74.3 deg
G0 X110.629 Y5.775
G0 Z5.000
G1 X113.071 Y14.437 F600
G0 F1300
G0 Z8.000
G0 X41.713 F200
G0 Y46.590 F200
G0 X0.000 Y76.683
G0 X0.000 F200
G1 X129.873 Y76.683 Z0.000 F1300

; --- COLOR CHANGE: CYAN ---
G0 Z8.000
G0 X17.000 Y0.000
G1 Z0.000 F800
G4 P500
G1 Z5.000 F800
; Smart Wipe -> Angle 96.2 deg
G0 X16.355 Y5.965
G0 Z5.000
G1 X15.388 Y14.913 F600
G0 F1300
G0 Z8.000
G0 X130.373 F200
G0 Y78.283 F200
G0 X19.080 Y44.119
G0 X18.580 F200
G1 X19.971 Y44.119 Z0.000 F1300

; --- COLOR CHANGE: BLACK ---
G0 Z8.000
G0 X142.000 Y0.000
G1 Z0.000 F800
G4 P500
G1 Z5.000 F800
; Smart Wipe -> Angle 146.8 deg
G0 X136.981 Y3.288
G0 Z5.000
G1 X129.453 Y8.220 F600
G0 F1300
G0 Z8.000
G0 X20.471 F200
G0 Y42.519 F200
G0 X12.847 Y74.648
G0 X12.347 F200
G1 X21.370 Y74.648 Z0.000 F1300
G0 Y76.248 F200
G0 X123.258 Y62.436
G1 X123.513 Y62.436 Z0.000 F1300
G0 X124.013 F200
G0 X69.961 Y46.155
G0 X69.461 F200
G1 X70.342 Y46.155 Z0.000 F1300
G0 X70.842 F200
G0 X45.157 Y40.049
G0 X44.657 F200
G1 X46.429 Y40.049 Z0.000 F1300

; --- COLOR CHANGE: CYAN ---
G0 Z8.000
G0 X17.000 Y0.000
G1 Z0.000 F800
G4 P500
G1 Z5.000 F800
; Smart Wipe -> Angle 55.5 deg
G0 X20.402 Y4.943
G0 Z5.000
G1 X25.504 Y12.356 F600
G0 F1300
G0 Z8.000
G0 Y38.449 F200
G0 X122.368 Y131.634
G1 X122.368 Y131.634 Z0.000 F1300

; --- COLOR CHANGE: BLACK ---
G0 Z8.000
G0 X142.000 Y0.000
G1 Z0.000 F800
G4 P500
G1 Z5.000 F800
; Smart Wipe -> Angle 118.9 deg
G0 X139.103 Y5.254
G0 Z5.000
G1 X134.758 Y13.136 F600
G0 F1300
G0 Z8.000
G0 Y133.234 F200
G0 X127.329 Y46.155
G1 X127.965 Y46.155 Z0.000 F1300

; --- COLOR CHANGE: CYAN ---
G0 Z8.000
G0 X17.000 Y0.000
G1 Z0.000 F800
G4 P500
G1 Z5.000 F800
; Smart Wipe -> Angle 65.7 deg
G0 X19.470 Y5.468
G0 Z5.000
G1 X23.174 Y13.671 F600
G0 F1300
G0 Z8.000
G0 X128.465 F200
G0 Y44.555 F200
G0 X41.722 Y113.317
G1 X41.722 Y113.317 Z0.000 F1300
G0 X41.222 F200
G0 Y114.917 F200
G0 X70.215 Y80.753
G1 X72.123 Y80.753 Z0.000 F1300

; --- COLOR CHANGE: BLACK ---
G0 Z8.000
G0 X142.000 Y0.000
G1 Z0.000 F800
G4 P500
G1 Z5.000 F800
; Smart Wipe -> Angle 167.7 deg
G0 X136.138 Y1.279
G0 Z5.000
G1 X127.345 Y3.199 F600
G0 F1300
G0 Z8.000
G0 X72.623 F200
G0 X63.219 Y31.908
G0 X62.719 F200
G1 X67.544 Y31.908 Z0.000 F1300
G0 Y30.308 F200
G0 X71.233 Y78.718
G1 X71.869 Y78.718 Z0.000 F1300

; --- COLOR CHANGE: CYAN ---
G0 Z8.000
G0 X17.000 Y0.000
G1 Z0.000 F800
G4 P500
G1 Z5.000 F800
; Smart Wipe -> Angle 85.9 deg
G0 X17.424 Y5.985
G0 Z5.000
G1 X18.061 Y14.962 F600
G0 F1300
G0 Z8.000
G0 X72.369 F200
G0 X26.712 Y109.247
G0 X26.212 F200
G1 X27.221 Y109.247 Z0.000 F1300

; --- COLOR CHANGE: BLACK ---
G0 Z8.000
G0 X142.000 Y0.000
G1 Z0.000 F800
G4 P500
G1 Z5.000 F800
; Smart Wipe -> Angle 159.0 deg
G0 X136.399 Y2.151
G0 Z5.000
G1 X127.997 Y5.377 F600
G0 F1300
G0 Z8.000
G0 Y110.847 F200
G0 X41.213 Y38.014
G1 X41.849 Y38.014 Z0.000 F1300
G0 X42.349 F200
G0 Y36.414 F200
G0 X7.632 Y48.190
G0 X7.132 F200
G1 X7.759 Y48.190 Z0.000 F1300
G0 Y49.790 F200
G0 X106.468 Y33.943
G1 X108.249 Y33.943 Z0.000 F1300
G0 X108.749 F200
G0 Y32.343 F200
G0 X64.746 Y84.824
G0 X64.246 F200
G1 X65.382 Y84.824 Z0.000 F1300
G0 Y86.424 F200
G0 X120.078 Y44.119
G1 X120.078 Y44.119 Z0.000 F1300

; --- COLOR CHANGE: CYAN ---
G0 Z8.000
G0 X17.000 Y0.000
G1 Z0.000 F800
G4 P500
G1 Z5.000 F800
; Smart Wipe -> Angle 72.2 deg
G0 X18.831 Y5.714
G0 Z5.000
G1 X21.577 Y14.285 F600
G0 F1300
G0 Z8.000
G0 X120.578 F200
G0 Y42.519 F200
G0 X47.319 Y95.000
G1 X47.319 Y95.000 Z0.000 F1300

; --- COLOR CHANGE: YELLOW ---
G0 Z8.000
G0 X109.000 Y0.000
G1 Z0.000 F800
G4 P500
G1 Z5.000 F800
; Smart Wipe -> Angle 82.2 deg
G0 X109.818 Y5.944
G0 Z5.000
G1 X111.045 Y14.860 F600
G0 F1300
G0 Z8.000
G0 Y96.600 F200
G0 X0.000 Y64.472
G0 X0.000 F200
G1 X129.873 Y64.472 Z0.000 F1300

; --- COLOR CHANGE: CYAN ---
G0 Z8.000
G0 X17.000 Y0.000
G1 Z0.000 F800
G4 P500
G1 Z5.000 F800
; Smart Wipe -> Angle 83.5 deg
G0 X17.681 Y5.961
G0 Z5.000
G1 X18.701 Y14.903 F600
G0 F1300
G0 Z8.000
G0 X130.373 F200
G0 Y62.872 F200
G0 X0.000 Y76.683
G0 X0.000 F200
G1 X28.112 Y76.683 Z0.000 F1300

; --- COLOR CHANGE: BLACK ---
G0 Z8.000
G0 X142.000 Y0.000
G1 Z0.000 F800
G4 P500
G1 Z5.000 F800
; Smart Wipe -> Angle 154.5 deg
G0 X136.586 Y2.586
G0 Z5.000
G1 X128.465 Y6.465 F600
G0 F1300
G0 Z8.000
G0 X28.612 F200
G0 X10.303 Y90.930
G1 X10.303 Y90.930 Z0.000 F1300

; --- COLOR CHANGE: CYAN ---
G0 Z8.000
G0 X17.000 Y0.000
G1 Z0.000 F800
G4 P500
G1 Z5.000 F800
; Smart Wipe -> Angle 42.9 deg
G0 X21.398 Y4.081
G0 Z5.000
G1 X27.995 Y10.203 F600
G0 F1300
G0 Z8.000
G0 X9.803 F200
G0 Y92.530 F200
G0 X36.634 Y56.331
G1 X69.706 Y56.331 Z0.000 F1300

; --- COLOR CHANGE: BLACK ---
G0 Z8.000
G0 X142.000 Y0.000
G1 Z0.000 F800
G4 P500
G1 Z5.000 F800
; Smart Wipe -> Angle 92.9 deg
G0 X141.699 Y5.992
G0 Z5.000
G1 X141.247 Y14.981 F600
G0 F1300
G0 Z8.000
G0 Y54.731 F200
G0 X106.086 Y119.423
G1 X129.873 Y119.423 Z0.000 F1300
G0 X130.373 F200
G0 Y121.023 F200
G0 X6.233 Y78.718
G0 X5.733 F200
G1 X7.505 Y78.718 Z0.000 F1300
G0 X16.027 Y42.084
G1 X24.041 Y42.084 Z0.000 F1300

; --- COLOR CHANGE: MAGENTA ---
G0 Z8.000
G0 X63.000 Y0.000
G1 Z0.000 F800
G4 P500
G1 Z5.000 F800
; Smart Wipe -> Angle 73.5 deg
G0 X64.701 Y5.754
G0 Z5.000
G1 X67.252 Y14.385 F600
G0 F1300
G0 Z8.000
G0 X24.541 F200
G0 Y40.484 F200
G0 X0.000 Y133.669
G0 X0.000 F200
G1 X129.873 Y133.669 Z0.000 F1300

; --- COLOR CHANGE: BLACK ---
G0 Z8.000
G0 X142.000 Y0.000
G1 Z0.000 F800
G4 P500
G1 Z5.000 F800
; Smart Wipe -> Angle 172.9 deg
G0 X136.046 Y0.740
G0 Z5.000
G1 X127.115 Y1.850 F600
G0 F1300
G0 Z8.000
G0 X130.373 F200
G0 Y135.269 F200
G0 X27.476 Y38.014
G0 X26.976 F200
G1 X27.730 Y38.014 Z0.000 F1300
G0 Y36.414 F200
G0 X108.630 Y82.789
G1 X108.630 Y82.789 Z0.000 F1300
G0 X109.130 F200
G0 Y84.389 F200
G0 X46.429 Y42.084
G0 X45.929 F200
G1 X47.828 Y42.084 Z0.000 F1300
G0 Y40.484 F200
G0 X120.078 Y74.648
G1 X120.460 Y74.648 Z0.000 F1300
G0 X120.960 F200
G0 Y76.248 F200
G0 X78.356 Y60.401
G0 X77.856 F200
G1 X83.699 Y60.401 Z0.000 F1300
G0 Y58.801 F200
G0 X117.280 Y76.683
G1 X117.534 Y76.683 Z0.000 F1300
G0 X118.034 F200
G0 X71.742 Y111.282
G1 X71.742 Y111.282 Z0.000 F1300

; --- COLOR CHANGE: CYAN ---
G0 Z8.000
G0 X17.000 Y0.000
G1 Z0.000 F800
G4 P500
G1 Z5.000 F800
; Smart Wipe -> Angle 95.2 deg
G0 X16.453 Y5.975
G0 Z5.000
G1 X15.631 Y14.937 F600
G0 F1300
G0 Z8.000
G0 X15.264 Y113.317
G1 X15.264 Y113.317 Z0.000 F1300

; --- COLOR CHANGE: BLACK ---
G0 Z8.000
G0 X142.000 Y0.000
G1 Z0.000 F800
G4 P500
G1 Z5.000 F800
; Smart Wipe -> Angle 157.0 deg
G0 X136.478 Y2.346
G0 Z5.000
G1 X128.194 Y5.865 F600
G0 F1300
G0 Z8.000
G0 Y114.917 F200
G0 X6.233 Y80.753
G0 X5.733 F200
G1 X6.742 Y80.753 Z0.000 F1300
G0 X34.472 Y78.718
G1 X36.125 Y78.718 Z0.000 F1300

; --- COLOR CHANGE: YELLOW ---
G0 Z8.000
G0 X109.000 Y0.000
G1 Z0.000 F800
G4 P500
G1 Z5.000 F800
; Smart Wipe -> Angle 68.8 deg
G0 X111.170 Y5.594
G0 Z5.000
G1 X114.426 Y13.984 F600
G0 F1300
G0 Z8.000
G0 X36.625 F200
G0 X0.000 Y44.119
G0 X0.000 F200
G1 X129.873 Y44.119 Z0.000 F1300

; --- COLOR CHANGE: CYAN ---
G0 Z8.000
G0 X17.000 Y0.000
G1 Z0.000 F800
G4 P500
G1 Z5.000 F800
; Smart Wipe -> Angle 74.7 deg
G0 X18.584 Y5.787
G0 Z5.000
G1 X20.960 Y14.468 F600
G0 F1300
G0 Z8.000
G0 X130.373 F200
G0 Y42.519 F200
G0 X0.000 Y82.789
G0 X0.000 F200
G1 X51.644 Y82.789 Z0.000 F1300

; --- COLOR CHANGE: BLACK ---
G0 Z8.000
G0 X142.000 Y0.000
G1 Z0.000 F800
G4 P500
G1 Z5.000 F800
; Smart Wipe -> Angle 146.8 deg
G0 X136.977 Y3.282
G0 Z5.000
G1 X129.443 Y8.204 F600
G0 F1300
G0 Z8.000
G0 X52.144 F200
G0 Y84.389 F200
G0 X29.892 Y78.718
G0 X29.392 F200
G1 X30.910 Y78.718 Z0.000 F1300
G0 X107.485 Y76.683
G1 X107.613 Y76.683 Z0.000 F1300

; --- COLOR CHANGE: CYAN ---
G0 Z8.000
G0 X17.000 Y0.000
G1 Z0.000 F800
G4 P500
G1 Z5.000 F800
; Smart Wipe -> Angle 54.9 deg
G0 X20.450 Y4.909
G0 Z5.000
G1 X25.624 Y12.273 F600
G0 F1300
G0 Z8.000
G0 X108.113 F200
G0 Y75.083 F200
G0 X0.000 Y119.423
G0 X0.000 F200
G1 X129.873 Y119.423 Z0.000 F1300

; --- COLOR CHANGE: BLACK ---
G0 Z8.000
G0 X142.000 Y0.000
G1 Z0.000 F800
G4 P500
G1 Z5.000 F800
; Smart Wipe -> Angle 120.6 deg
G0 X138.949 Y5.166
G0 Z5.000
G1 X134.372 Y12.916 F600
G0 F1300
G0 Z8.000
G0 X130.373 F200
G0 Y121.023 F200
G0 X102.652 Y48.190
G0 X102.152 F200
G1 X104.178 Y48.190 Z0.000 F1300

; --- COLOR CHANGE: CYAN ---
G0 Z8.000
G0 X17.000 Y0.000
G1 Z0.000 F800
G4 P500
G1 Z5.000 F800
; Smart Wipe -> Angle 32.7 deg
G0 X22.050 Y3.240
G0 Z5.000
G1 X29.624 Y8.101 F600
G0 F1300
G0 Z8.000
G0 Y46.590 F200
G0 X111.683 Y78.718
G1 X111.810 Y78.718 Z0.000 F1300

; --- COLOR CHANGE: BLACK ---
G0 Z8.000
G0 X142.000 Y0.000
G1 Z0.000 F800
G4 P500
G1 Z5.000 F800
; Smart Wipe -> Angle 120.0 deg
G0 X139.003 Y5.198
G0 Z5.000
G1 X134.509 Y12.995 F600
G0 F1300
G0 Z8.000
G0 Y80.318 F200
G0 X113.082 Y46.155
G1 X114.990 Y46.155 Z0.000 F1300
G0 X115.490 F200
G0 Y44.555 F200
G0 X0.000 Y125.528
G0 X0.000 F200
G1 X129.873 Y125.528 Z0.000 F1300
G0 X130.373 F200
G0 Y127.128 F200
G0 X97.691 Y119.423
G0 X97.191 F200
G1 X104.941 Y119.423 Z0.000 F1300

; --- COLOR CHANGE: CYAN ---
G0 Z8.000
G0 X17.000 Y0.000
G1 Z0.000 F800
G4 P500
G1 Z5.000 F800
; Smart Wipe -> Angle 45.0 deg
G0 X21.245 Y4.240
G0 Z5.000
G1 X27.612 Y10.601 F600
G0 F1300
G0 Z8.000
G0 X119.315 Y84.824
G1 X119.569 Y84.824 Z0.000 F1300

; --- COLOR CHANGE: BLACK ---
G0 Z8.000
G0 X142.000 Y0.000
G1 Z0.000 F800
G4 P500
G1 Z5.000 F800
; Smart Wipe -> Angle 119.4 deg
G0 X139.057 Y5.229
G0 Z5.000
G1 X134.644 Y13.072 F600
G0 F1300
G0 Z8.000
G0 X121.732 Y44.119
G1 X121.732 Y44.119 Z0.000 F1300
G0 X122.232 F200
G0 X14.247 Y44.119
G0 X13.747 F200
G1 X14.628 Y44.119 Z0.000 F1300
G0 Y42.519 F200
G0 X39.178 Y97.035
G1 X39.560 Y97.035 Z0.000 F1300

; --- COLOR CHANGE: CYAN ---
G0 Z8.000
G0 X17.000 Y0.000
G1 Z0.000 F800
G4 P500
G1 Z5.000 F800
; Smart Wipe -> Angle 25.9 deg
G0 X22.396 Y2.623
G0 Z5.000
G1 X30.491 Y6.557 F600
G0 F1300
G0 Z8.000
G0 Y98.635 F200
G0 X120.969 Y31.908
G1 X125.802 Y31.908 Z0.000 F1300

; --- COLOR CHANGE: BLACK ---
G0 Z8.000
G0 X142.000 Y0.000
G1 Z0.000 F800
G4 P500
G1 Z5.000 F800
; Smart Wipe -> Angle 99.6 deg
G0 X140.994 Y5.915
G0 Z5.000
G1 X139.486 Y14.788 F600
G0 F1300
G0 Z8.000
G0 X126.302 F200
G0 Y30.308 F200
G0 X0.000 Y103.141
G0 X0.000 F200
G1 X129.873 Y103.141 Z0.000 F1300

; --- COLOR CHANGE: CYAN ---
G0 Z8.000
G0 X17.000 Y0.000
G1 Z0.000 F800
G4 P500
G1 Z5.000 F800
; Smart Wipe -> Angle 54.7 deg
G0 X20.464 Y4.899
G0 Z5.000
G1 X25.659 Y12.248 F600
G0 F1300
G0 Z8.000
G0 X130.373 F200
G0 Y104.741 F200
G0 X90.822 Y80.753
G0 X90.322 F200
G1 X100.616 Y80.753 Z0.000 F1300

; --- COLOR CHANGE: BLACK ---
G0 Z8.000
G0 X142.000 Y0.000
G1 Z0.000 F800
G4 P500
G1 Z5.000 F800
; Smart Wipe -> Angle 138.9 deg
G0 X137.482 Y3.948
G0 Z5.000
G1 X130.704 Y9.869 F600
G0 F1300
G0 Z8.000
G0 X101.116 F200
G0 X62.965 Y80.753
G1 X62.965 Y80.753 Z0.000 F1300
G0 X62.465 F200
G0 X123.513 Y50.225
G1 X129.873 Y50.225 Z0.000 F1300

; --- COLOR CHANGE: CYAN ---
G0 Z8.000
G0 X17.000 Y0.000
G1 Z0.000 F800
G4 P500
G1 Z5.000 F800
; Smart Wipe -> Angle 91.7 deg
G0 X16.818 Y5.997
G0 Z5.000
G1 X16.545 Y14.993 F600
G0 F1300
G0 Z8.000
G0 X130.373 F200
G0 Y48.625 F200
G0 X27.221 Y92.965
G0 X26.721 F200
G1 X27.857 Y92.965 Z0.000 F1300

; --- COLOR CHANGE: BLACK ---
G0 Z8.000
G0 X142.000 Y0.000
G1 Z0.000 F800
G4 P500
G1 Z5.000 F800
; Smart Wipe -> Angle 105.5 deg
G0 X140.400 Y5.783
G0 Z5.000
G1 X138.000 Y14.457 F600
G0 F1300
G0 Z8.000
G0 X107.994 Y121.458
G1 X129.873 Y121.458 Z0.000 F1300
G0 X130.373 F200
G0 Y123.058 F200
G0 X44.139 Y52.260
G0 X43.639 F200
G1 X44.393 Y52.260 Z0.000 F1300

; --- COLOR CHANGE: CYAN ---
G0 Z8.000
G0 X17.000 Y0.000
G1 Z0.000 F800
G4 P500
G1 Z5.000 F800
; Smart Wipe -> Angle 37.6 deg
G0 X21.752 Y3.664
G0 Z5.000
G1 X28.879 Y9.159 F600
G0 F1300
G0 Z8.000
G0 X44.893 F200
G0 Y50.660 F200
G0 X0.000 Y66.507
G0 X0.000 F200
G1 X129.873 Y66.507 Z0.000 F1300
G0 X130.373 F200
G0 X96.800 Y133.669
G0 X96.300 F200
G1 X96.928 Y133.669 Z0.000 F1300

; --- COLOR CHANGE: BLACK ---
G0 Z8.000
G0 X142.000 Y0.000
G1 Z0.000 F800
G4 P500
G1 Z5.000 F800
; Smart Wipe -> Angle 163.2 deg
G0 X136.256 Y1.734
G0 Z5.000
G1 X127.640 Y4.336 F600
G0 F1300
G0 Z8.000
G0 X97.428 F200
G0 Y135.269 F200
G0 X15.519 Y42.084
G1 X15.519 Y42.084 Z0.000 F1300

; --- COLOR CHANGE: CYAN ---
G0 Z8.000
G0 X17.000 Y0.000
G1 Z0.000 F800
G4 P500
G1 Z5.000 F800
; Smart Wipe -> Angle 95.8 deg
G0 X16.397 Y5.970
G0 Z5.000
G1 X15.493 Y14.924 F600
G0 F1300
G0 Z8.000
G0 Y40.484 F200
G0 X9.031 Y141.810
G0 X8.531 F200
G1 X28.493 Y141.810 Z0.000 F1300
G0 Y143.410 F200
G0 X116.008 Y76.683
G1 X117.916 Y76.683 Z0.000 F1300
G0 X118.416 F200
G0 Y75.083 F200
G0 X49.609 Y78.718
G0 X49.109 F200
G1 X90.059 Y78.718 Z0.000 F1300

; --- COLOR CHANGE: BLACK ---
G0 Z8.000
G0 X142.000 Y0.000
G1 Z0.000 F800
G4 P500
G1 Z5.000 F800
; Smart Wipe -> Angle 146.0 deg
G0 X137.025 Y3.354
G0 Z5.000
G1 X129.563 Y8.386 F600
G0 F1300
G0 Z8.000
G0 X90.559 F200
G0 Y80.318 F200
G0 X55.587 Y74.648
G0 X55.087 F200
G1 X55.969 Y74.648 Z0.000 F1300

; --- COLOR CHANGE: CYAN ---
G0 Z8.000
G0 X17.000 Y0.000
G1 Z0.000 F800
G4 P500
G1 Z5.000 F800
; Smart Wipe -> Angle 71.7 deg
G0 X18.886 Y5.696
G0 Z5.000
G1 X21.715 Y14.240 F600
G0 F1300
G0 Z8.000
G0 Y73.048 F200
G0 X59.785 Y80.753
G1 X61.438 Y80.753 Z0.000 F1300
G0 X127.329 Y82.789
G1 X127.456 Y82.789 Z0.000 F1300
G0 X127.956 F200
G0 Y84.389 F200
G0 X105.196 Y44.119
G1 X105.196 Y44.119 Z0.000 F1300

; --- COLOR CHANGE: BLACK ---
G0 Z8.000
G0 X142.000 Y0.000
G1 Z0.000 F800
G4 P500
G1 Z5.000 F800
; Smart Wipe -> Angle 150.9 deg
G0 X136.758 Y2.919
G0 Z5.000
G1 X128.894 Y7.296 F600
G0 F1300
G0 Z8.000
G0 Y42.519 F200
G0 X0.000 Y109.247
G0 X0.000 F200
G1 X5.597 Y109.247 Z0.000 F1300

; --- COLOR CHANGE: CYAN ---
G0 Z8.000
