; Generated by CMYK Hatching G-Code Generator V2.6 (Max Travel Distance)
G21 ; Millimeters

G90 ; Absolute positioning

G0 Z8.000

; --- COLOR CHANGE: CYAN ---
G0 Z8.000
G0 X17.000 Y0.000
G0 Z5.000
G1 Z0.000 F800
G4 P500 ; Dwell
G1 Z5.000 F800
; Smart Wipe -> Angle 75.0 deg
G0 X20.882 Y14.489
G0 Z5.000
G1 X13.118 Y-14.489 F600
G0 F1000
G0 Z8.000
G0 X0.000 F200
G0 Y0.000 F200
G0 Z2.000
G0 X10.035 Y149.524
G1 Z0.000 F800
G1 X41.943 Y30.444 F1000
G0 Z2.000
G0 Z2.000
G0 X128.037 Y149.599
G1 Z0.000 F800
G1 X129.978 Y142.355 F1000
G0 Z2.000
G0 Z2.000
G0 X84.556 Y149.595
G1 Z0.000 F800
G1 X116.585 Y30.062 F1000
G0 Z2.000
G0 Z2.000
G0 X105.209 Y149.791
G1 Z0.000 F800
G1 X129.959 Y57.424 F1000
G0 Z2.000
G0 Z2.000
G0 X72.116 Y149.659
G1 Z0.000 F800
G1 X104.145 Y30.126 F1000
G0 Z2.000
G0 Z2.000
G0 X125.862 Y149.987
G1 Z0.000 F800
G1 X129.987 Y134.593 F1000
G0 Z2.000

; --- COLOR CHANGE: CYAN ---
G0 Z8.000
G0 X17.000 Y0.000
G0 Z5.000
G1 Z0.000 F800
G4 P500 ; Dwell
G1 Z5.000 F800
; Smart Wipe -> Angle 75.0 deg
G0 X20.882 Y14.489
G0 Z5.000
G1 X13.118 Y-14.489 F600
G0 F1000
G0 Z8.000
G0 X0.000 F200
G0 Y0.000 F200
G0 Z2.000
G0 X96.875 Y149.984
G1 Z0.000 F800
G1 X128.904 Y30.451 F1000
G0 Z2.000
G0 Z2.000
G0 X82.382 Y149.983
G1 Z0.000 F800
G1 X114.411 Y30.450 F1000
G0 Z2.000
G0 Z2.000
G0 X61.729 Y149.787
G1 Z0.000 F800
G1 X93.758 Y30.254 F1000
G0 Z2.000
G0 Z2.000
G0 X45.182 Y149.721
G1 Z0.000 F800
G1 X77.211 Y30.188 F1000
G0 Z2.000

; --- COLOR CHANGE: CYAN ---
G0 Z8.000
G0 X17.000 Y0.000
G0 Z5.000
G1 Z0.000 F800
G4 P500 ; Dwell
G1 Z5.000 F800
; Smart Wipe -> Angle 75.0 deg
G0 X20.882 Y14.489
G0 Z5.000
G1 X13.118 Y-14.489 F600
G0 F1000
G0 Z8.000
G0 X0.000 F200
G0 Y0.000 F200
G0 Z2.000
G0 X51.342 Y149.916
G1 Z0.000 F800
G1 X83.370 Y30.383 F1000
G0 Z2.000
G0 Z2.000
G0 X101.103 Y149.661
G1 Z0.000 F800
G1 X129.977 Y41.900 F1000
G0 Z2.000
G0 Z2.000
G0 X113.543 Y149.598
G1 Z0.000 F800
G1 X129.922 Y88.473 F1000
G0 Z2.000
G0 Z2.000
G0 X10.091 Y102.952
G1 Z0.000 F800
G1 X29.624 Y30.055 F1000
G0 Z2.000
G0 Z2.000
G0 X41.076 Y149.592
G1 Z0.000 F800
G1 X73.105 Y30.058 F1000
G0 Z2.000

; --- COLOR CHANGE: CYAN ---
G0 Z8.000
G0 X17.000 Y0.000
G0 Z5.000
G1 Z0.000 F800
G4 P500 ; Dwell
G1 Z5.000 F800
; Smart Wipe -> Angle 75.0 deg
G0 X20.882 Y14.489
G0 Z5.000
G1 X13.118 Y-14.489 F600
G0 F1000
G0 Z8.000
G0 X0.000 F200
G0 Y0.000 F200
G0 Z2.000
G0 X67.888 Y149.982
G1 Z0.000 F800
G1 X99.917 Y30.449 F1000
G0 Z2.000
G0 Z2.000
G0 X12.089 Y149.589
G1 Z0.000 F800
G1 X44.117 Y30.056 F1000
G0 Z2.000
G0 Z2.000
G0 X80.329 Y149.918
G1 Z0.000 F800
G1 X112.357 Y30.385 F1000
G0 Z2.000
G0 Z2.000
G0 X109.316 Y149.921
G1 Z0.000 F800
G1 X129.940 Y72.949 F1000
G0 Z2.000

; --- COLOR CHANGE: CYAN ---
G0 Z8.000
G0 X17.000 Y0.000
G0 Z5.000
G1 Z0.000 F800
G4 P500 ; Dwell
G1 Z5.000 F800
; Smart Wipe -> Angle 75.0 deg
G0 X20.882 Y14.489
G0 Z5.000
G1 X13.118 Y-14.489 F600
G0 F1000
G0 Z8.000
G0 X0.000 F200
G0 Y0.000 F200
G0 Z2.000
G0 X92.769 Y149.855
G1 Z0.000 F800
G1 X124.798 Y30.321 F1000
G0 Z2.000
G0 Z2.000
G0 X123.809 Y149.922
G1 Z0.000 F800
G1 X129.997 Y126.830 F1000
G0 Z2.000
G0 Z2.000
G0 X10.100 Y95.190
G1 Z0.000 F800
G1 X27.449 Y30.442 F1000
G0 Z2.000
G0 Z2.000
G0 X14.142 Y149.654
G1 Z0.000 F800
G1 X46.171 Y30.121 F1000
G0 Z2.000
G0 Z2.000
G0 X59.676 Y149.723
G1 Z0.000 F800
G1 X91.704 Y30.189 F1000
G0 Z2.000
G0 Z2.000
G0 X10.044 Y41.308
G1 Z0.000 F800
G1 X12.956 Y30.441 F1000
G0 Z2.000

; --- COLOR CHANGE: CYAN ---
G0 Z8.000
G0 X17.000 Y0.000
G0 Z5.000
G1 Z0.000 F800
G4 P500 ; Dwell
G1 Z5.000 F800
; Smart Wipe -> Angle 75.0 deg
G0 X20.882 Y14.489
G0 Z5.000
G1 X13.118 Y-14.489 F600
G0 F1000
G0 Z8.000
G0 X0.000 F200
G0 Y0.000 F200
G0 Z2.000
G0 X32.742 Y149.785
G1 Z0.000 F800
G1 X64.771 Y30.252 F1000
G0 Z2.000
G0 Z2.000
G0 X78.275 Y149.853
G1 Z0.000 F800
G1 X110.304 Y30.320 F1000
G0 Z2.000
G0 Z2.000
G0 X70.063 Y149.594
G1 Z0.000 F800
G1 X102.092 Y30.061 F1000
G0 Z2.000
G0 Z2.000
G0 X119.703 Y149.792
G1 Z0.000 F800
G1 X129.894 Y111.759 F1000
G0 Z2.000

; --- COLOR CHANGE: CYAN ---
G0 Z8.000
G0 X17.000 Y0.000
G0 Z5.000
G1 Z0.000 F800
G4 P500 ; Dwell
G1 Z5.000 F800
; Smart Wipe -> Angle 75.0 deg
G0 X20.882 Y14.489
G0 Z5.000
G1 X13.118 Y-14.489 F600
G0 F1000
G0 Z8.000
G0 X0.000 F200
G0 Y0.000 F200
G0 Z2.000
G0 X20.301 Y149.849
G1 Z0.000 F800
G1 X52.330 Y30.315 F1000
G0 Z2.000
G0 Z2.000
G0 X38.901 Y149.979
G1 Z0.000 F800
G1 X70.930 Y30.446 F1000
G0 Z2.000
G0 Z2.000
G0 X10.082 Y110.714
G1 Z0.000 F800
G1 X31.677 Y30.119 F1000
G0 Z2.000
G0 Z2.000
G0 X121.756 Y149.857
G1 Z0.000 F800
G1 X129.885 Y119.521 F1000
G0 Z2.000
G0 Z2.000
G0 X10.063 Y126.238
G1 Z0.000 F800
G1 X35.783 Y30.249 F1000
G0 Z2.000

; --- COLOR CHANGE: CYAN ---
G0 Z8.000
G0 X17.000 Y0.000
G0 Z5.000
G1 Z0.000 F800
G4 P500 ; Dwell
G1 Z5.000 F800
; Smart Wipe -> Angle 75.0 deg
G0 X20.882 Y14.489
G0 Z5.000
G1 X13.118 Y-14.489 F600
G0 F1000
G0 Z8.000
G0 X0.000 F200
G0 Y0.000 F200
G0 Z2.000
G0 X117.650 Y149.728
G1 Z0.000 F800
G1 X129.903 Y103.997 F1000
G0 Z2.000
G0 Z2.000
G0 X36.848 Y149.915
G1 Z0.000 F800
G1 X68.877 Y30.381 F1000
G0 Z2.000
G0 Z2.000
G0 X24.408 Y149.978
G1 Z0.000 F800
G1 X56.437 Y30.445 F1000
G0 Z2.000
G0 Z2.000
G0 X10.053 Y33.546
G1 Z0.000 F800
G1 X10.903 Y30.376 F1000
G0 Z2.000
G0 Z2.000
G0 X10.016 Y64.594
G1 Z0.000 F800
G1 X19.237 Y30.183 F1000
G0 Z2.000
G0 Z2.000
G0 X43.129 Y149.656
G1 Z0.000 F800
G1 X75.158 Y30.123 F1000
G0 Z2.000

; --- COLOR CHANGE: CYAN ---
G0 Z8.000
G0 X17.000 Y0.000
G0 Z5.000
G1 Z0.000 F800
G4 P500 ; Dwell
G1 Z5.000 F800
; Smart Wipe -> Angle 75.0 deg
G0 X20.882 Y14.489
G0 Z5.000
G1 X13.118 Y-14.489 F600
G0 F1000
G0 Z8.000
G0 X0.000 F200
G0 Y0.000 F200
G0 Z2.000
G0 X10.073 Y118.476
G1 Z0.000 F800
G1 X33.730 Y30.184 F1000
G0 Z2.000
G0 Z2.000
G0 X10.026 Y56.832
G1 Z0.000 F800
G1 X17.184 Y30.118 F1000
G0 Z2.000
G0 Z2.000
G0 X57.622 Y149.658
G1 Z0.000 F800
G1 X89.651 Y30.124 F1000
G0 Z2.000
G0 Z2.000
G0 X65.835 Y149.917
G1 Z0.000 F800
G1 X97.864 Y30.384 F1000
G0 Z2.000
G0 Z2.000
G0 X86.609 Y149.660
G1 Z0.000 F800
G1 X118.638 Y30.127 F1000
G0 Z2.000

; --- COLOR CHANGE: CYAN ---
G0 Z8.000
G0 X17.000 Y0.000
G0 Z5.000
G1 Z0.000 F800
G4 P500 ; Dwell
G1 Z5.000 F800
; Smart Wipe -> Angle 75.0 deg
G0 X20.882 Y14.489
G0 Z5.000
G1 X13.118 Y-14.489 F600
G0 F1000
G0 Z8.000
G0 X0.000 F200
G0 Y0.000 F200
G0 Z2.000
G0 X34.795 Y149.850
G1 Z0.000 F800
G1 X66.824 Y30.316 F1000
G0 Z2.000
G0 Z2.000
G0 X10.119 Y79.665
G1 Z0.000 F800
G1 X23.343 Y30.313 F1000
G0 Z2.000
G0 Z2.000
G0 X107.263 Y149.856
G1 Z0.000 F800
G1 X129.950 Y65.187 F1000
G0 Z2.000
G0 Z2.000
G0 X10.045 Y141.762
G1 Z0.000 F800
G1 X39.890 Y30.379 F1000
G0 Z2.000

; --- COLOR CHANGE: CYAN ---
G0 Z8.000
G0 X17.000 Y0.000
G0 Z5.000
G1 Z0.000 F800
G4 P500 ; Dwell
G1 Z5.000 F800
; Smart Wipe -> Angle 75.0 deg
G0 X20.882 Y14.489
G0 Z5.000
G1 X13.118 Y-14.489 F600
G0 F1000
G0 Z8.000
G0 X0.000 F200
G0 Y0.000 F200
G0 Z2.000
G0 X49.288 Y149.851
G1 Z0.000 F800
G1 X81.317 Y30.318 F1000
G0 Z2.000
G0 Z2.000
G0 X76.222 Y149.789
G1 Z0.000 F800
G1 X108.251 Y30.255 F1000
G0 Z2.000
G0 Z2.000
G0 X115.597 Y149.663
G1 Z0.000 F800
G1 X129.912 Y96.235 F1000
G0 Z2.000
G0 Z2.000
G0 X30.689 Y149.720
G1 Z0.000 F800
G1 X62.717 Y30.187 F1000
G0 Z2.000

; --- COLOR CHANGE: CYAN ---
G0 Z8.000
G0 X17.000 Y0.000
G0 Z5.000
G1 Z0.000 F800
G4 P500 ; Dwell
G1 Z5.000 F800
; Smart Wipe -> Angle 75.0 deg
G0 X20.882 Y14.489
G0 Z5.000
G1 X13.118 Y-14.489 F600
G0 F1000
G0 Z8.000
G0 X0.000 F200
G0 Y0.000 F200
G0 Z2.000
G0 X63.782 Y149.852
G1 Z0.000 F800
G1 X95.811 Y30.319 F1000
G0 Z2.000
G0 Z2.000
G0 X28.635 Y149.655
G1 Z0.000 F800
G1 X60.664 Y30.122 F1000
G0 Z2.000
G0 Z2.000
G0 X74.169 Y149.724
G1 Z0.000 F800
G1 X106.198 Y30.190 F1000
G0 Z2.000
G0 Z2.000
G0 X10.054 Y134.000
G1 Z0.000 F800
G1 X37.837 Y30.314 F1000
G0 Z2.000

; --- COLOR CHANGE: CYAN ---
G0 Z8.000
G0 X17.000 Y0.000
G0 Z5.000
G1 Z0.000 F800
G4 P500 ; Dwell
G1 Z5.000 F800
; Smart Wipe -> Angle 75.0 deg
G0 X20.882 Y14.489
G0 Z5.000
G1 X13.118 Y-14.489 F600
G0 F1000
G0 Z8.000
G0 X0.000 F200
G0 Y0.000 F200
G0 Z2.000
G0 X103.156 Y149.726
G1 Z0.000 F800
G1 X129.968 Y49.662 F1000
G0 Z2.000
G0 Z2.000
G0 X16.195 Y149.719
G1 Z0.000 F800
G1 X48.224 Y30.185 F1000
G0 Z2.000
G0 Z2.000
G0 X90.716 Y149.790
G1 Z0.000 F800
G1 X122.745 Y30.257 F1000
G0 Z2.000
G0 Z2.000
G0 X94.822 Y149.920
G1 Z0.000 F800
G1 X126.851 Y30.386 F1000
G0 Z2.000

; --- COLOR CHANGE: CYAN ---
G0 Z8.000
G0 X17.000 Y0.000
G0 Z5.000
G1 Z0.000 F800
G4 P500 ; Dwell
G1 Z5.000 F800
; Smart Wipe -> Angle 75.0 deg
G0 X20.882 Y14.489
G0 Z5.000
G1 X13.118 Y-14.489 F600
G0 F1000
G0 Z8.000
G0 X0.000 F200
G0 Y0.000 F200
G0 Z2.000
G0 X111.369 Y149.986
G1 Z0.000 F800
G1 X129.931 Y80.711 F1000
G0 Z2.000
G0 Z2.000
G0 X47.235 Y149.786
G1 Z0.000 F800
G1 X79.264 Y30.253 F1000
G0 Z2.000
G0 Z2.000
G0 X26.582 Y149.590
G1 Z0.000 F800
G1 X58.611 Y30.057 F1000
G0 Z2.000
G0 Z2.000
G0 X10.007 Y72.356
G1 Z0.000 F800
G1 X21.290 Y30.248 F1000
G0 Z2.000
G0 Z2.000
G0 X99.050 Y149.597
G1 Z0.000 F800
G1 X129.987 Y34.138 F1000
G0 Z2.000

; --- COLOR CHANGE: CYAN ---
G0 Z8.000
G0 X17.000 Y0.000
G0 Z5.000
G1 Z0.000 F800
G4 P500 ; Dwell
G1 Z5.000 F800
; Smart Wipe -> Angle 75.0 deg
G0 X20.882 Y14.489
G0 Z5.000
G1 X13.118 Y-14.489 F600
G0 F1000
G0 Z8.000
G0 X0.000 F200
G0 Y0.000 F200
G0 Z2.000
G0 X10.035 Y49.070
G1 Z0.000 F800
G1 X15.130 Y30.053 F1000
G0 Z2.000
G0 Z2.000
G0 X22.354 Y149.913
G1 Z0.000 F800
G1 X54.383 Y30.380 F1000
G0 Z2.000
G0 Z2.000
G0 X18.248 Y149.784
G1 Z0.000 F800
G1 X50.277 Y30.250 F1000
G0 Z2.000
G0 Z2.000
G0 X55.569 Y149.593
G1 Z0.000 F800
G1 X87.598 Y30.059 F1000
G0 Z2.000

; --- COLOR CHANGE: CYAN ---
G0 Z8.000
G0 X17.000 Y0.000
G0 Z5.000
G1 Z0.000 F800
G4 P500 ; Dwell
G1 Z5.000 F800
; Smart Wipe -> Angle 75.0 deg
G0 X20.882 Y14.489
G0 Z5.000
G1 X13.118 Y-14.489 F600
G0 F1000
G0 Z8.000
G0 X0.000 F200
G0 Y0.000 F200
G0 Z2.000
G0 X88.663 Y149.725
G1 Z0.000 F800
G1 X120.691 Y30.192 F1000
G0 Z2.000
G0 Z2.000
G0 X53.395 Y149.981
G1 Z0.000 F800
G1 X85.424 Y30.447 F1000
G0 Z2.000
G0 Z2.000
G0 X10.110 Y87.428
G1 Z0.000 F800
G1 X25.396 Y30.378 F1000
G0 Z2.000
G0 Z10.000 ; Končni dvig
G0 X0.000 Y0.000 ; Vrnitev na izhodišče