; Generated by CMYK Pro (V0.6 - NaN Fix, Backlash, Limits)
G21 ; Millimeters
G90 ; Absolute positioning
G0 Z8.000

; --- COLOR CHANGE: CYAN ---
G0 Z8.000
G0 X17.000 Y0.000
G1 Z0.000 F800
G4 P1
G1 Z5.000 F800
; Smart Wipe -> Angle 60.2 deg
G0 X19.979 Y5.208
G0 Z5.000
G1 X24.449 Y13.020 F600
G0 F1300
G0 Z8.000
G0 X0.000 F200
G0 Y0.000 F200
G0 X9.286 Y143.845
G1 X129.873 Y143.845 Z0.000 F1300

; --- COLOR CHANGE: MAGENTA ---
G0 Z8.000
G0 X63.000 Y0.000
G1 Z0.000 F800
G4 P1
G1 Z5.000 F800
; Smart Wipe -> Angle 53.9 deg
G0 X66.538 Y4.846
G0 Z5.000
G1 X71.844 Y12.115 F600
G0 F1300
G0 Z8.000
G0 X130.373 F200
G0 X0.000 Y143.845
G0 X0.000 F200
G1 X129.873 Y143.845 Z0.000 F1300

; --- COLOR CHANGE: YELLOW ---
G0 Z8.000
G0 X109.000 Y0.000
G1 Z0.000 F800
G4 P1
G1 Z5.000 F800
; Smart Wipe -> Angle 78.7 deg
G0 X110.180 Y5.883
G0 Z5.000
G1 X111.949 Y14.707 F600
G0 F1300
G0 Z8.000
G0 X130.373 F200
G0 X0.000 Y143.845
G0 X0.000 F200
G1 X129.873 Y143.845 Z0.000 F1300

; --- COLOR CHANGE: BLACK ---
G0 Z8.000
G0 X142.000 Y0.000
G1 Z0.000 F800
G4 P1
G1 Z5.000 F800
; Smart Wipe -> Angle 97.9 deg
G0 X141.174 Y5.943
G0 Z5.000
G1 X139.936 Y14.857 F600
G0 F1300
G0 Z8.000
G0 X130.373 F200
G0 X0.000 Y143.845
G0 X0.000 F200
G1 X129.873 Y143.845 Z0.000 F1300

; --- COLOR CHANGE: CYAN ---
G0 Z8.000
G0 X17.000 Y0.000
G1 Z0.000 F800
G4 P1
G1 Z5.000 F800
; Smart Wipe -> Angle 78.9 deg
G0 X18.156 Y5.887
G0 Z5.000
G1 X19.891 Y14.719 F600
G0 F1300
G0 Z8.000
G0 X130.373 F200
G0 Y145.445 F200
G0 X9.031 Y141.810
G0 X8.531 F200
G1 X28.493 Y141.810 Z0.000 F1300
G0 X28.748 Y141.810
G1 X129.873 Y141.810 Z0.000 F1300

; --- COLOR CHANGE: MAGENTA ---
G0 Z8.000
G0 X63.000 Y0.000
G1 Z0.000 F800
G4 P1
G1 Z5.000 F800
; Smart Wipe -> Angle 63.2 deg
G0 X65.704 Y5.356
G0 Z5.000
G1 X69.760 Y13.390 F600
G0 F1300
G0 Z8.000
G0 X130.373 F200
G0 X0.000 Y141.810
G0 X0.000 F200
G1 X129.873 Y141.810 Z0.000 F1300

; --- COLOR CHANGE: YELLOW ---
G0 Z8.000
G0 X109.000 Y0.000
G1 Z0.000 F800
G4 P1
G1 Z5.000 F800
; Smart Wipe -> Angle 72.9 deg
G0 X110.767 Y5.734
G0 Z5.000
G1 X113.419 Y14.334 F600
G0 F1300
G0 Z8.000
G0 X130.373 F200
G0 X0.000 Y141.810
G0 X0.000 F200
G1 X129.873 Y141.810 Z0.000 F1300

; --- COLOR CHANGE: BLACK ---
G0 Z8.000
G0 X142.000 Y0.000
G1 Z0.000 F800
G4 P1
G1 Z5.000 F800
; Smart Wipe -> Angle 106.0 deg
G0 X140.344 Y5.767
G0 Z5.000
G1 X137.860 Y14.417 F600
G0 F1300
G0 Z8.000
G0 X130.373 F200
G0 X0.000 Y141.810
G0 X0.000 F200
G1 X129.873 Y141.810 Z0.000 F1300

; --- COLOR CHANGE: CYAN ---
G0 Z8.000
G0 X17.000 Y0.000
G1 Z0.000 F800
G4 P1
G1 Z5.000 F800
; Smart Wipe -> Angle 86.0 deg
G0 X17.413 Y5.986
G0 Z5.000
G1 X18.034 Y14.964 F600
G0 F1300
G0 Z8.000
G0 X130.373 F200
G0 X6.614 Y139.775
G0 X6.114 F200
G1 X26.331 Y139.775 Z0.000 F1300
G0 X26.712 Y139.775
G1 X27.094 Y139.775 Z0.000 F1300
G0 X40.068 Y139.775
G1 X41.086 Y139.775 Z0.000 F1300
G0 X42.994 Y139.775
G1 X129.873 Y139.775 Z0.000 F1300

; --- COLOR CHANGE: MAGENTA ---
G0 Z8.000
G0 X63.000 Y0.000
G1 Z0.000 F800
G4 P1
G1 Z5.000 F800
; Smart Wipe -> Angle 70.2 deg
G0 X65.037 Y5.644
G0 Z5.000
G1 X68.092 Y14.109 F600
G0 F1300
G0 Z8.000
G0 X130.373 F200
G0 X0.000 Y139.775
G0 X0.000 F200
G1 X129.873 Y139.775 Z0.000 F1300

; --- COLOR CHANGE: YELLOW ---
G0 Z8.000
G0 X109.000 Y0.000
G1 Z0.000 F800
G4 P1
G1 Z5.000 F800
; Smart Wipe -> Angle 75.2 deg
G0 X110.529 Y5.802
G0 Z5.000
G1 X112.823 Y14.505 F600
G0 F1300
G0 Z8.000
G0 X130.373 F200
G0 X0.000 Y139.775
G0 X0.000 F200
G1 X129.873 Y139.775 Z0.000 F1300

; --- COLOR CHANGE: BLACK ---
G0 Z8.000
G0 X142.000 Y0.000
G1 Z0.000 F800
G4 P1
G1 Z5.000 F800
; Smart Wipe -> Angle 95.5 deg
G0 X141.428 Y5.973
G0 Z5.000
G1 X140.569 Y14.932 F600
G0 F1300
G0 Z8.000
G0 X130.373 F200
G0 X0.000 Y139.775
G0 X0.000 F200
G1 X129.873 Y139.775 Z0.000 F1300

; --- COLOR CHANGE: CYAN ---
G0 Z8.000
G0 X17.000 Y0.000
G1 Z0.000 F800
G4 P1
G1 Z5.000 F800
; Smart Wipe -> Angle 94.0 deg
G0 X16.585 Y5.986
G0 Z5.000
G1 X15.963 Y14.964 F600
G0 F1300
G0 Z8.000
G0 X130.373 F200
G0 X4.706 Y137.740
G0 X4.206 F200
G1 X21.624 Y137.740 Z0.000 F1300
G0 X21.879 Y137.740
G1 X22.387 Y137.740 Z0.000 F1300
G0 X47.065 Y137.740
G1 X47.319 Y137.740 Z0.000 F1300
G0 X61.311 Y137.740
G1 X76.067 Y137.740 Z0.000 F1300
G0 X76.321 Y137.740
G1 X77.720 Y137.740 Z0.000 F1300
G0 X79.247 Y137.740
G1 X81.282 Y137.740 Z0.000 F1300
G0 X85.225 Y137.740
G1 X85.352 Y137.740 Z0.000 F1300
G0 X86.115 Y137.740
G1 X86.115 Y137.740 Z0.000 F1300
G0 X86.751 Y137.740
G1 X118.552 Y137.740 Z0.000 F1300
G0 X119.061 Y137.740
G1 X129.873 Y137.740 Z0.000 F1300

; --- COLOR CHANGE: MAGENTA ---
G0 Z8.000
G0 X63.000 Y0.000
G1 Z0.000 F800
G4 P1
G1 Z5.000 F800
; Smart Wipe -> Angle 62.6 deg
G0 X65.760 Y5.327
G0 Z5.000
G1 X69.901 Y13.318 F600
G0 F1300
G0 Z8.000
G0 X130.373 F200
G0 X0.000 Y137.740
G0 X0.000 F200
G1 X129.873 Y137.740 Z0.000 F1300

; --- COLOR CHANGE: YELLOW ---
G0 Z8.000
G0 X109.000 Y0.000
G1 Z0.000 F800
G4 P1
G1 Z5.000 F800
; Smart Wipe -> Angle 70.9 deg
G0 X110.967 Y5.668
G0 Z5.000
G1 X113.917 Y14.171 F600
G0 F1300
G0 Z8.000
G0 X130.373 F200
G0 X0.000 Y137.740
G0 X0.000 F200
G1 X129.873 Y137.740 Z0.000 F1300

; --- COLOR CHANGE: BLACK ---
G0 Z8.000
G0 X142.000 Y0.000
G1 Z0.000 F800
G4 P1
G1 Z5.000 F800
; Smart Wipe -> Angle 94.3 deg
G0 X141.551 Y5.983
G0 Z5.000
G1 X140.877 Y14.958 F600
G0 F1300
G0 Z8.000
G0 X130.373 F200
G0 X0.000 Y137.740
G0 X0.000 F200
G1 X129.873 Y137.740 Z0.000 F1300

; --- COLOR CHANGE: CYAN ---
G0 Z8.000
G0 X17.000 Y0.000
G1 Z0.000 F800
G4 P1
G1 Z5.000 F800
; Smart Wipe -> Angle 86.8 deg
G0 X17.337 Y5.991
G0 Z5.000
G1 X17.843 Y14.976 F600
G0 F1300
G0 Z8.000
G0 X130.373 F200
G0 X37.397 Y135.705
G1 X37.397 Y135.705 Z0.000 F1300
G0 X36.897 F200
G0 X42.613 Y135.705
G1 X42.740 Y135.705 Z0.000 F1300
G0 X54.061 Y135.705
G1 X54.188 Y135.705 Z0.000 F1300
G0 X56.986 Y135.705
G1 X56.986 Y135.705 Z0.000 F1300
G0 X62.710 Y135.705
G1 X63.092 Y135.705 Z0.000 F1300
G0 X65.382 Y135.705
G1 X66.145 Y135.705 Z0.000 F1300
G0 X67.544 Y135.705
G1 X67.544 Y135.705 Z0.000 F1300
G0 X71.487 Y135.705
G1 X72.123 Y135.705 Z0.000 F1300
G0 X83.826 Y135.705
G1 X83.953 Y135.705 Z0.000 F1300
G0 X95.528 Y135.705
G1 X95.656 Y135.705 Z0.000 F1300
G0 X100.108 Y135.705
G1 X100.235 Y135.705 Z0.000 F1300
G0 X118.425 Y135.705
G1 X118.425 Y135.705 Z0.000 F1300
G0 X121.223 Y135.705
G1 X121.223 Y135.705 Z0.000 F1300
G0 X125.675 Y135.705
G1 X126.057 Y135.705 Z0.000 F1300

; --- COLOR CHANGE: MAGENTA ---
G0 Z8.000
G0 X63.000 Y0.000
G1 Z0.000 F800
G4 P1
G1 Z5.000 F800
; Smart Wipe -> Angle 52.3 deg
G0 X66.667 Y4.749
G0 Z5.000
G1 X72.169 Y11.872 F600
G0 F1300
G0 Z8.000
G0 X126.557 F200
G0 X0.000 Y135.705
G0 X0.000 F200
G1 X129.873 Y135.705 Z0.000 F1300

; --- COLOR CHANGE: YELLOW ---
G0 Z8.000
G0 X109.000 Y0.000
G1 Z0.000 F800
G4 P1
G1 Z5.000 F800
; Smart Wipe -> Angle 77.1 deg
G0 X110.340 Y5.849
G0 Z5.000
G1 X112.349 Y14.621 F600
G0 F1300
G0 Z8.000
G0 X130.373 F200
G0 X0.000 Y135.705
G0 X0.000 F200
G1 X129.873 Y135.705 Z0.000 F1300

; --- COLOR CHANGE: BLACK ---
G0 Z8.000
G0 X142.000 Y0.000
G1 Z0.000 F800
G4 P1
G1 Z5.000 F800
; Smart Wipe -> Angle 97.4 deg
G0 X141.227 Y5.950
G0 Z5.000
G1 X140.067 Y14.875 F600
G0 F1300
G0 Z8.000
G0 X130.373 F200
G0 X0.000 Y135.705
G0 X0.000 F200
G1 X129.873 Y135.705 Z0.000 F1300

; --- COLOR CHANGE: CYAN ---
G0 Z8.000
G0 X17.000 Y0.000
G1 Z0.000 F800
G4 P1
G1 Z5.000 F800
; Smart Wipe -> Angle 94.6 deg
G0 X16.518 Y5.981
G0 Z5.000
G1 X15.796 Y14.952 F600
G0 F1300
G0 Z8.000
G0 X130.373 F200
G0 X30.147 Y133.669
G0 X29.647 F200
G1 X31.673 Y133.669 Z0.000 F1300
G0 X67.544 Y133.669
G1 X67.671 Y133.669 Z0.000 F1300
G0 X67.926 Y133.669
G1 X68.307 Y133.669 Z0.000 F1300
G0 X71.869 Y133.669
G1 X72.123 Y133.669 Z0.000 F1300
G0 X74.540 Y133.669
G1 X75.558 Y133.669 Z0.000 F1300
G0 X76.321 Y133.669
G1 X77.084 Y133.669 Z0.000 F1300
G0 X77.466 Y133.669
G1 X77.466 Y133.669 Z0.000 F1300
G0 X80.391 Y133.669
G1 X80.519 Y133.669 Z0.000 F1300
G0 X82.299 Y133.669
G1 X82.681 Y133.669 Z0.000 F1300
G0 X87.515 Y133.669
G1 X87.896 Y133.669 Z0.000 F1300
G0 X93.620 Y133.669
G1 X93.748 Y133.669 Z0.000 F1300
G0 X96.800 Y133.669
G1 X96.928 Y133.669 Z0.000 F1300
G0 X104.178 Y133.669
G1 X104.432 Y133.669 Z0.000 F1300
G0 X111.047 Y133.669
G1 X111.047 Y133.669 Z0.000 F1300
G0 X121.096 Y133.669
G1 X121.477 Y133.669 Z0.000 F1300
G0 X121.732 Y133.669
G1 X123.640 Y133.669 Z0.000 F1300
G0 X124.276 Y133.669
G1 X124.530 Y133.669 Z0.000 F1300
G0 X125.039 Y133.669
G1 X125.675 Y133.669 Z0.000 F1300
G0 X126.057 Y133.669
G1 X128.346 Y133.669 Z0.000 F1300
G0 X128.728 Y133.669
G1 X129.873 Y133.669 Z0.000 F1300

; --- COLOR CHANGE: MAGENTA ---
G0 Z8.000
G0 X63.000 Y0.000
G1 Z0.000 F800
G4 P1
G1 Z5.000 F800
; Smart Wipe -> Angle 73.0 deg
G0 X64.755 Y5.738
G0 Z5.000
G1 X67.387 Y14.344 F600
G0 F1300
G0 Z8.000
G0 X130.373 F200
G0 X0.000 Y133.669
G0 X0.000 F200
G1 X129.873 Y133.669 Z0.000 F1300

; --- COLOR CHANGE: YELLOW ---
G0 Z8.000
G0 X109.000 Y0.000
G1 Z0.000 F800
G4 P1
G1 Z5.000 F800
; Smart Wipe -> Angle 72.0 deg
G0 X110.854 Y5.706
G0 Z5.000
G1 X113.635 Y14.266 F600
G0 F1300
G0 Z8.000
G0 X130.373 F200
G0 X0.000 Y133.669
G0 X0.000 F200
G1 X129.873 Y133.669 Z0.000 F1300

; --- COLOR CHANGE: BLACK ---
G0 Z8.000
G0 X142.000 Y0.000
G1 Z0.000 F800
G4 P1
G1 Z5.000 F800
; Smart Wipe -> Angle 98.0 deg
G0 X141.169 Y5.942
G0 Z5.000
G1 X139.923 Y14.856 F600
G0 F1300
G0 Z8.000
G0 X130.373 F200
G0 X0.000 Y133.669
G0 X0.000 F200
G1 X129.873 Y133.669 Z0.000 F1300

; --- COLOR CHANGE: CYAN ---
G0 Z8.000
G0 X17.000 Y0.000
G1 Z0.000 F800
G4 P1
G1 Z5.000 F800
; Smart Wipe -> Angle 64.8 deg
G0 X19.554 Y5.429
G0 Z5.000
G1 X23.386 Y13.573 F600
G0 F1300
G0 Z8.000
G0 X130.373 F200
G0 X48.209 Y131.634
G1 X48.209 Y131.634 Z0.000 F1300
G0 X47.709 F200
G0 X49.354 Y131.634
G1 X49.609 Y131.634 Z0.000 F1300
G0 X70.088 Y131.634
G1 X71.106 Y131.634 Z0.000 F1300
G0 X71.360 Y131.634
G1 X71.869 Y131.634 Z0.000 F1300
G0 X72.505 Y131.634
G1 X83.444 Y131.634 Z0.000 F1300
G0 X83.953 Y131.634
G1 X92.094 Y131.634 Z0.000 F1300
G0 X92.476 Y131.634
G1 X92.857 Y131.634 Z0.000 F1300
G0 X93.748 Y131.634
G1 X93.875 Y131.634 Z0.000 F1300
G0 X94.129 Y131.634
G1 X94.129 Y131.634 Z0.000 F1300
G0 X94.765 Y131.634
G1 X95.910 Y131.634 Z0.000 F1300
G0 X96.546 Y131.634
G1 X98.200 Y131.634 Z0.000 F1300
G0 X98.581 Y131.634
G1 X98.963 Y131.634 Z0.000 F1300
G0 X110.665 Y131.634
G1 X110.920 Y131.634 Z0.000 F1300
G0 X112.828 Y131.634
G1 X112.828 Y131.634 Z0.000 F1300
G0 X114.863 Y131.634
G1 X114.990 Y131.634 Z0.000 F1300
G0 X116.898 Y131.634
G1 X116.898 Y131.634 Z0.000 F1300
G0 X118.043 Y131.634
G1 X118.170 Y131.634 Z0.000 F1300
G0 X118.425 Y131.634
G1 X122.114 Y131.634 Z0.000 F1300
G0 X122.368 Y131.634
G1 X122.368 Y131.634 Z0.000 F1300
G0 X123.386 Y131.634
G1 X123.640 Y131.634 Z0.000 F1300
G0 X123.894 Y131.634
G1 X126.566 Y131.634 Z0.000 F1300
G0 X126.947 Y131.634
G1 X127.456 Y131.634 Z0.000 F1300
G0 X127.965 Y131.634
G1 X129.237 Y131.634 Z0.000 F1300
G0 X129.746 Y131.634
G1 X129.873 Y131.634 Z0.000 F1300

; --- COLOR CHANGE: MAGENTA ---
G0 Z8.000
G0 X63.000 Y0.000
G1 Z0.000 F800
G4 P1
G1 Z5.000 F800
; Smart Wipe -> Angle 70.1 deg
G0 X65.045 Y5.641
G0 Z5.000
G1 X68.114 Y14.101 F600
G0 F1300
G0 Z8.000
G0 X130.373 F200
G0 X0.000 Y131.634
G0 X0.000 F200
G1 X129.873 Y131.634 Z0.000 F1300

; --- COLOR CHANGE: YELLOW ---
G0 Z8.000
G0 X109.000 Y0.000
G1 Z0.000 F800
G4 P1
G1 Z5.000 F800
; Smart Wipe -> Angle 82.6 deg
G0 X109.774 Y5.950
G0 Z5.000
G1 X110.934 Y14.875 F600
G0 F1300
G0 Z8.000
G0 X130.373 F200
G0 X0.000 Y131.634
G0 X0.000 F200
G1 X129.873 Y131.634 Z0.000 F1300

; --- COLOR CHANGE: BLACK ---
G0 Z8.000
G0 X142.000 Y0.000
G1 Z0.000 F800
G4 P1
G1 Z5.000 F800
; Smart Wipe -> Angle 96.7 deg
G0 X141.305 Y5.960
G0 Z5.000
G1 X140.261 Y14.899 F600
G0 F1300
G0 Z8.000
G0 X130.373 F200
G0 X0.000 Y131.634
G0 X0.000 F200
G1 X129.873 Y131.634 Z0.000 F1300

; --- COLOR CHANGE: CYAN ---
G0 Z8.000
G0 X17.000 Y0.000
G1 Z0.000 F800
G4 P1
G1 Z5.000 F800
; Smart Wipe -> Angle 81.7 deg
G0 X17.869 Y5.937
G0 Z5.000
G1 X19.172 Y14.842 F600
G0 F1300
G0 Z8.000
G0 X130.373 F200
G0 X47.955 Y129.599
G0 X47.455 F200
G1 X48.337 Y129.599 Z0.000 F1300
G0 X49.227 Y129.599
G1 X49.227 Y129.599 Z0.000 F1300
G0 X49.736 Y129.599
G1 X129.873 Y129.599 Z0.000 F1300

; --- COLOR CHANGE: MAGENTA ---
G0 Z8.000
G0 X63.000 Y0.000
G1 Z0.000 F800
G4 P1
G1 Z5.000 F800
; Smart Wipe -> Angle 57.7 deg
G0 X66.209 Y5.070
G0 Z5.000
G1 X71.022 Y12.675 F600
G0 F1300
G0 Z8.000
G0 X130.373 F200
G0 X0.000 Y129.599
G0 X0.000 F200
G1 X129.873 Y129.599 Z0.000 F1300

; --- COLOR CHANGE: YELLOW ---
G0 Z8.000
G0 X109.000 Y0.000
G1 Z0.000 F800
G4 P1
G1 Z5.000 F800
; Smart Wipe -> Angle 78.4 deg
G0 X110.202 Y5.878
G0 Z5.000
G1 X112.006 Y14.696 F600
G0 F1300
G0 Z8.000
G0 X130.373 F200
G0 X0.000 Y129.599
G0 X0.000 F200
G1 X129.873 Y129.599 Z0.000 F1300

; --- COLOR CHANGE: BLACK ---
G0 Z8.000
G0 X142.000 Y0.000
G1 Z0.000 F800
G4 P1
G1 Z5.000 F800
; Smart Wipe -> Angle 98.3 deg
G0 X141.134 Y5.937
G0 Z5.000
G1 X139.835 Y14.843 F600
G0 F1300
G0 Z8.000
G0 X130.373 F200
G0 X0.000 Y129.599
G0 X0.000 F200
G1 X129.873 Y129.599 Z0.000 F1300

; --- COLOR CHANGE: CYAN ---
G0 Z8.000
G0 X17.000 Y0.000
G1 Z0.000 F800
G4 P1
G1 Z5.000 F800
; Smart Wipe -> Angle 85.6 deg
G0 X17.464 Y5.982
G0 Z5.000
G1 X18.160 Y14.955 F600
G0 F1300
G0 Z8.000
G0 X130.373 F200
G0 X7.123 Y127.564
G1 X7.123 Y127.564 Z0.000 F1300
G0 X6.623 F200
G0 X26.458 Y127.564
G1 X129.873 Y127.564 Z0.000 F1300

; --- COLOR CHANGE: MAGENTA ---
G0 Z8.000
G0 X63.000 Y0.000
G1 Z0.000 F800
G4 P1
G1 Z5.000 F800
; Smart Wipe -> Angle 74.0 deg
G0 X64.655 Y5.767
G0 Z5.000
G1 X67.137 Y14.418 F600
G0 F1300
G0 Z8.000
G0 X130.373 F200
G0 X0.000 Y127.564
G0 X0.000 F200
G1 X129.873 Y127.564 Z0.000 F1300

; --- COLOR CHANGE: YELLOW ---
G0 Z8.000
G0 X109.000 Y0.000
G1 Z0.000 F800
G4 P1
G1 Z5.000 F800
; Smart Wipe -> Angle 91.6 deg
G0 X108.835 Y5.998
G0 Z5.000
G1 X108.588 Y14.994 F600
G0 F1300
G0 Z8.000
G0 X130.373 F200
G0 X0.000 Y127.564
G0 X0.000 F200
G1 X129.873 Y127.564 Z0.000 F1300

; --- COLOR CHANGE: BLACK ---
G0 Z8.000
G0 X142.000 Y0.000
G1 Z0.000 F800
G4 P1
G1 Z5.000 F800
; Smart Wipe -> Angle 126.4 deg
G0 X138.443 Y4.832
G0 Z5.000
G1 X133.106 Y12.079 F600
G0 F1300
G0 Z8.000
G0 X130.373 F200
G0 X0.000 Y127.564
G0 X0.000 F200
G1 X83.444 Y127.564 Z0.000 F1300
G0 X83.826 Y127.564
G1 X129.873 Y127.564 Z0.000 F1300

; --- COLOR CHANGE: CYAN ---
G0 Z8.000
G0 X17.000 Y0.000
G1 Z0.000 F800
G4 P1
G1 Z5.000 F800
; Smart Wipe -> Angle 71.2 deg
G0 X18.934 Y5.680
G0 Z5.000
G1 X21.835 Y14.200 F600
G0 F1300
G0 Z8.000
G0 X130.373 F200
G0 X21.497 Y125.528
G0 X20.997 F200
G1 X74.540 Y125.528 Z0.000 F1300
G0 X75.303 Y125.528
G1 X77.211 Y125.528 Z0.000 F1300
G0 X77.847 Y125.528
G1 X77.847 Y125.528 Z0.000 F1300
G0 X78.483 Y125.528
G1 X79.755 Y125.528 Z0.000 F1300
G0 X80.646 Y125.528
G1 X80.773 Y125.528 Z0.000 F1300
G0 X81.282 Y125.528
G1 X81.536 Y125.528 Z0.000 F1300
G0 X82.045 Y125.528
G1 X84.589 Y125.528 Z0.000 F1300
G0 X86.370 Y125.528
G1 X129.873 Y125.528 Z0.000 F1300

; --- COLOR CHANGE: MAGENTA ---
G0 Z8.000
G0 X63.000 Y0.000
G1 Z0.000 F800
G4 P1
G1 Z5.000 F800
; Smart Wipe -> Angle 53.2 deg
G0 X66.597 Y4.802
G0 Z5.000
G1 X71.992 Y12.006 F600
G0 F1300
G0 Z8.000
G0 X130.373 F200
G0 X0.000 Y125.528
G0 X0.000 F200
G1 X129.873 Y125.528 Z0.000 F1300

; --- COLOR CHANGE: YELLOW ---
G0 Z8.000
G0 X109.000 Y0.000
G1 Z0.000 F800
G4 P1
G1 Z5.000 F800
; Smart Wipe -> Angle 75.8 deg
G0 X110.476 Y5.816
G0 Z5.000
G1 X112.691 Y14.539 F600
G0 F1300
G0 Z8.000
G0 X130.373 F200
G0 X0.000 Y125.528
G0 X0.000 F200
G1 X129.873 Y125.528 Z0.000 F1300

; --- COLOR CHANGE: BLACK ---
G0 Z8.000
G0 X142.000 Y0.000
G1 Z0.000 F800
G4 P1
G1 Z5.000 F800
; Smart Wipe -> Angle 86.9 deg
G0 X142.323 Y5.991
G0 Z5.000
G1 X142.807 Y14.978 F600
G0 F1300
G0 Z8.000
G0 X130.373 F200
G0 X0.000 Y125.528
G0 X0.000 F200
G1 X129.873 Y125.528 Z0.000 F1300

; --- COLOR CHANGE: CYAN ---
G0 Z8.000
G0 X17.000 Y0.000
G1 Z0.000 F800
G4 P1
G1 Z5.000 F800
; Smart Wipe -> Angle 58.7 deg
G0 X20.121 Y5.124
G0 Z5.000
G1 X24.803 Y12.810 F600
G0 F1300
G0 Z8.000
G0 X130.373 F200
G0 X0.000 Y123.493
G0 X0.000 F200
