; Generated by CMYK Hatching G-Code Generator V2.6 (Max Travel Distance)
G21 ; Millimeters

G90 ; Absolute positioning

G0 Z8.000

; --- COLOR CHANGE: MAGENTA ---
G0 Z8.000
G0 X63.000 Y0.000
G0 Z5.000
G1 Z0.000 F800
G4 P500 ; Dwell
G1 Z5.000 F800
; Smart Wipe -> Angle 15.0 deg
G0 X77.489 Y3.882
G0 Z5.000
G1 X48.511 Y-3.882 F600
G0 F1000
G0 Z8.000
G0 X0.000 F200
G0 Y0.000 F200
G0 Z2.000
G0 X10.014 Y135.563
G1 Z0.000 F800
G1 X130.000 Y103.413 F1000
G0 Z2.000

; --- COLOR CHANGE: MAGENTA ---
G0 Z8.000
G0 X63.000 Y0.000
G0 Z5.000
G1 Z0.000 F800
G4 P500 ; Dwell
G1 Z5.000 F800
; Smart Wipe -> Angle 15.0 deg
G0 X77.489 Y3.882
G0 Z5.000
G1 X48.511 Y-3.882 F600
G0 F1000
G0 Z8.000
G0 X0.000 F200
G0 Y0.000 F200
G0 Z2.000
G0 X10.395 Y57.297
G1 Z0.000 F800
G1 X111.817 Y30.121 F1000
G0 Z2.000

; --- COLOR CHANGE: MAGENTA ---
G0 Z8.000
G0 X63.000 Y0.000
G0 Z5.000
G1 Z0.000 F800
G4 P500 ; Dwell
G1 Z5.000 F800
; Smart Wipe -> Angle 15.0 deg
G0 X77.489 Y3.882
G0 Z5.000
G1 X48.511 Y-3.882 F600
G0 F1000
G0 Z8.000
G0 X0.000 F200
G0 Y0.000 F200
G0 Z2.000
G0 X10.138 Y70.825
G1 Z0.000 F800
G1 X129.671 Y38.796 F1000
G0 Z2.000

; --- COLOR CHANGE: MAGENTA ---
G0 Z8.000
G0 X63.000 Y0.000
G0 Z5.000
G1 Z0.000 F800
G4 P500 ; Dwell
G1 Z5.000 F800
; Smart Wipe -> Angle 15.0 deg
G0 X77.489 Y3.882
G0 Z5.000
G1 X48.511 Y-3.882 F600
G0 F1000
G0 Z8.000
G0 X0.000 F200
G0 Y0.000 F200
G0 Z2.000
G0 X10.139 Y81.695
G1 Z0.000 F800
G1 X129.672 Y49.666 F1000
G0 Z2.000

; --- COLOR CHANGE: MAGENTA ---
G0 Z8.000
G0 X63.000 Y0.000
G0 Z5.000
G1 Z0.000 F800
G4 P500 ; Dwell
G1 Z5.000 F800
; Smart Wipe -> Angle 15.0 deg
G0 X77.489 Y3.882
G0 Z5.000
G1 X48.511 Y-3.882 F600
G0 F1000
G0 Z8.000
G0 X0.000 F200
G0 Y0.000 F200
G0 Z2.000
G0 X10.140 Y99.812
G1 Z0.000 F800
G1 X129.673 Y67.783 F1000
G0 Z2.000

; --- COLOR CHANGE: MAGENTA ---
G0 Z8.000
G0 X63.000 Y0.000
G0 Z5.000
G1 Z0.000 F800
G4 P500 ; Dwell
G1 Z5.000 F800
; Smart Wipe -> Angle 15.0 deg
G0 X77.489 Y3.882
G0 Z5.000
G1 X48.511 Y-3.882 F600
G0 F1000
G0 Z8.000
G0 X0.000 F200
G0 Y0.000 F200
G0 Z2.000
G0 X10.401 Y129.765
G1 Z0.000 F800
G1 X129.935 Y97.736 F1000
G0 Z2.000

; --- COLOR CHANGE: MAGENTA ---
G0 Z8.000
G0 X63.000 Y0.000
G0 Z5.000
G1 Z0.000 F800
G4 P500 ; Dwell
G1 Z5.000 F800
; Smart Wipe -> Angle 15.0 deg
G0 X77.489 Y3.882
G0 Z5.000
G1 X48.511 Y-3.882 F600
G0 F1000
G0 Z8.000
G0 X0.000 F200
G0 Y0.000 F200
G0 Z2.000
G0 X31.814 Y149.909
G1 Z0.000 F800
G1 X129.614 Y123.704 F1000
G0 Z2.000

; --- COLOR CHANGE: MAGENTA ---
G0 Z8.000
G0 X63.000 Y0.000
G0 Z5.000
G1 Z0.000 F800
G4 P500 ; Dwell
G1 Z5.000 F800
; Smart Wipe -> Angle 15.0 deg
G0 X77.489 Y3.882
G0 Z5.000
G1 X48.511 Y-3.882 F600
G0 F1000
G0 Z8.000
G0 X0.000 F200
G0 Y0.000 F200
G0 Z2.000
G0 X10.334 Y95.101
G1 Z0.000 F800
G1 X129.867 Y63.072 F1000
G0 Z2.000

; --- COLOR CHANGE: MAGENTA ---
G0 Z8.000
G0 X63.000 Y0.000
G0 Z5.000
G1 Z0.000 F800
G4 P500 ; Dwell
G1 Z5.000 F800
; Smart Wipe -> Angle 15.0 deg
G0 X77.489 Y3.882
G0 Z5.000
G1 X48.511 Y-3.882 F600
G0 F1000
G0 Z8.000
G0 X0.000 F200
G0 Y0.000 F200
G0 Z2.000
G0 X10.402 Y140.635
G1 Z0.000 F800
G1 X129.936 Y108.606 F1000
G0 Z2.000

; --- COLOR CHANGE: MAGENTA ---
G0 Z8.000
G0 X63.000 Y0.000
G0 Z5.000
G1 Z0.000 F800
G4 P500 ; Dwell
G1 Z5.000 F800
; Smart Wipe -> Angle 15.0 deg
G0 X77.489 Y3.882
G0 Z5.000
G1 X48.511 Y-3.882 F600
G0 F1000
G0 Z8.000
G0 X0.000 F200
G0 Y0.000 F200
G0 Z2.000
G0 X10.334 Y98.725
G1 Z0.000 F800
G1 X129.867 Y66.696 F1000
G0 Z2.000

; --- COLOR CHANGE: MAGENTA ---
G0 Z8.000
G0 X63.000 Y0.000
G0 Z5.000
G1 Z0.000 F800
G4 P500 ; Dwell
G1 Z5.000 F800
; Smart Wipe -> Angle 15.0 deg
G0 X77.489 Y3.882
G0 Z5.000
G1 X48.511 Y-3.882 F600
G0 F1000
G0 Z8.000
G0 X0.000 F200
G0 Y0.000 F200
G0 Z2.000
G0 X10.207 Y130.852
G1 Z0.000 F800
G1 X129.741 Y98.823 F1000
G0 Z2.000

; --- COLOR CHANGE: MAGENTA ---
G0 Z8.000
G0 X63.000 Y0.000
G0 Z5.000
G1 Z0.000 F800
G4 P500 ; Dwell
G1 Z5.000 F800
; Smart Wipe -> Angle 15.0 deg
G0 X77.489 Y3.882
G0 Z5.000
G1 X48.511 Y-3.882 F600
G0 F1000
G0 Z8.000
G0 X0.000 F200
G0 Y0.000 F200
G0 Z2.000
G0 X10.337 Y134.958
G1 Z0.000 F800
G1 X129.871 Y102.930 F1000
G0 Z2.000

; --- COLOR CHANGE: MAGENTA ---
G0 Z8.000
G0 X63.000 Y0.000
G0 Z5.000
G1 Z0.000 F800
G4 P500 ; Dwell
G1 Z5.000 F800
; Smart Wipe -> Angle 15.0 deg
G0 X77.489 Y3.882
G0 Z5.000
G1 X48.511 Y-3.882 F600
G0 F1000
G0 Z8.000
G0 X0.000 F200
G0 Y0.000 F200
G0 Z2.000
G0 X10.137 Y67.201
G1 Z0.000 F800
G1 X129.671 Y35.173 F1000
G0 Z2.000

; --- COLOR CHANGE: MAGENTA ---
G0 Z8.000
G0 X63.000 Y0.000
G0 Z5.000
G1 Z0.000 F800
G4 P500 ; Dwell
G1 Z5.000 F800
; Smart Wipe -> Angle 15.0 deg
G0 X77.489 Y3.882
G0 Z5.000
G1 X48.511 Y-3.882 F600
G0 F1000
G0 Z8.000
G0 X0.000 F200
G0 Y0.000 F200
G0 Z2.000
G0 X10.333 Y84.231
G1 Z0.000 F800
G1 X129.866 Y52.202 F1000
G0 Z2.000

; --- COLOR CHANGE: MAGENTA ---
G0 Z8.000
G0 X63.000 Y0.000
G0 Z5.000
G1 Z0.000 F800
G4 P500 ; Dwell
G1 Z5.000 F800
; Smart Wipe -> Angle 15.0 deg
G0 X77.489 Y3.882
G0 Z5.000
G1 X48.511 Y-3.882 F600
G0 F1000
G0 Z8.000
G0 X0.000 F200
G0 Y0.000 F200
G0 Z2.000
G0 X10.402 Y137.012
G1 Z0.000 F800
G1 X129.935 Y104.983 F1000
G0 Z2.000

; --- COLOR CHANGE: MAGENTA ---
G0 Z8.000
G0 X63.000 Y0.000
G0 Z5.000
G1 Z0.000 F800
G4 P500 ; Dwell
G1 Z5.000 F800
; Smart Wipe -> Angle 15.0 deg
G0 X77.489 Y3.882
G0 Z5.000
G1 X48.511 Y-3.882 F600
G0 F1000
G0 Z8.000
G0 X0.000 F200
G0 Y0.000 F200
G0 Z2.000
G0 X10.076 Y101.382
G1 Z0.000 F800
G1 X129.609 Y69.353 F1000
G0 Z2.000

; --- COLOR CHANGE: MAGENTA ---
G0 Z8.000
G0 X63.000 Y0.000
G0 Z5.000
G1 Z0.000 F800
G4 P500 ; Dwell
G1 Z5.000 F800
; Smart Wipe -> Angle 15.0 deg
G0 X77.489 Y3.882
G0 Z5.000
G1 X48.511 Y-3.882 F600
G0 F1000
G0 Z8.000
G0 X0.000 F200
G0 Y0.000 F200
G0 Z2.000
G0 X10.269 Y93.048
G1 Z0.000 F800
G1 X129.802 Y61.019 F1000
G0 Z2.000

; --- COLOR CHANGE: MAGENTA ---
G0 Z8.000
G0 X63.000 Y0.000
G0 Z5.000
G1 Z0.000 F800
G4 P500 ; Dwell
G1 Z5.000 F800
; Smart Wipe -> Angle 15.0 deg
G0 X77.489 Y3.882
G0 Z5.000
G1 X48.511 Y-3.882 F600
G0 F1000
G0 Z8.000
G0 X0.000 F200
G0 Y0.000 F200
G0 Z2.000
G0 X27.933 Y149.914
G1 Z0.000 F800
G1 X129.808 Y122.617 F1000
G0 Z2.000

; --- COLOR CHANGE: MAGENTA ---
G0 Z8.000
G0 X63.000 Y0.000
G0 Z5.000
G1 Z0.000 F800
G4 P500 ; Dwell
G1 Z5.000 F800
; Smart Wipe -> Angle 15.0 deg
G0 X77.489 Y3.882
G0 Z5.000
G1 X48.511 Y-3.882 F600
G0 F1000
G0 Z8.000
G0 X0.000 F200
G0 Y0.000 F200
G0 Z2.000
G0 X10.143 Y136.046
G1 Z0.000 F800
G1 X129.677 Y104.017 F1000
G0 Z2.000

; --- COLOR CHANGE: MAGENTA ---
G0 Z8.000
G0 X63.000 Y0.000
G0 Z5.000
G1 Z0.000 F800
G4 P500 ; Dwell
G1 Z5.000 F800
; Smart Wipe -> Angle 15.0 deg
G0 X77.489 Y3.882
G0 Z5.000
G1 X48.511 Y-3.882 F600
G0 F1000
G0 Z8.000
G0 X0.000 F200
G0 Y0.000 F200
G0 Z2.000
G0 X10.269 Y96.671
G1 Z0.000 F800
G1 X129.803 Y64.643 F1000
G0 Z2.000

; --- COLOR CHANGE: MAGENTA ---
G0 Z8.000
G0 X63.000 Y0.000
G0 Z5.000
G1 Z0.000 F800
G4 P500 ; Dwell
G1 Z5.000 F800
; Smart Wipe -> Angle 15.0 deg
G0 X77.489 Y3.882
G0 Z5.000
G1 X48.511 Y-3.882 F600
G0 F1000
G0 Z8.000
G0 X0.000 F200
G0 Y0.000 F200
G0 Z2.000
G0 X14.349 Y149.930
G1 Z0.000 F800
G1 X129.807 Y118.993 F1000
G0 Z2.000

; --- COLOR CHANGE: MAGENTA ---
G0 Z8.000
G0 X63.000 Y0.000
G0 Z5.000
G1 Z0.000 F800
G4 P500 ; Dwell
G1 Z5.000 F800
; Smart Wipe -> Angle 15.0 deg
G0 X77.489 Y3.882
G0 Z5.000
G1 X48.511 Y-3.882 F600
G0 F1000
G0 Z8.000
G0 X0.000 F200
G0 Y0.000 F200
G0 Z2.000
G0 X10.205 Y98.242
G1 Z0.000 F800
G1 X129.738 Y66.213 F1000
G0 Z2.000

; --- COLOR CHANGE: MAGENTA ---
G0 Z8.000
G0 X63.000 Y0.000
G0 Z5.000
G1 Z0.000 F800
G4 P500 ; Dwell
G1 Z5.000 F800
; Smart Wipe -> Angle 15.0 deg
G0 X77.489 Y3.882
G0 Z5.000
G1 X48.511 Y-3.882 F600
G0 F1000
G0 Z8.000
G0 X0.000 F200
G0 Y0.000 F200
G0 Z2.000
G0 X10.331 Y66.114
G1 Z0.000 F800
G1 X129.865 Y34.085 F1000
G0 Z2.000

; --- COLOR CHANGE: MAGENTA ---
G0 Z8.000
G0 X63.000 Y0.000
G0 Z5.000
G1 Z0.000 F800
G4 P500 ; Dwell
G1 Z5.000 F800
; Smart Wipe -> Angle 15.0 deg
G0 X77.489 Y3.882
G0 Z5.000
G1 X48.511 Y-3.882 F600
G0 F1000
G0 Z8.000
G0 X0.000 F200
G0 Y0.000 F200
G0 Z2.000
G0 X10.271 Y114.788
G1 Z0.000 F800
G1 X129.804 Y82.760 F1000
G0 Z2.000

; --- COLOR CHANGE: MAGENTA ---
G0 Z8.000
G0 X63.000 Y0.000
G0 Z5.000
G1 Z0.000 F800
G4 P500 ; Dwell
G1 Z5.000 F800
; Smart Wipe -> Angle 15.0 deg
G0 X77.489 Y3.882
G0 Z5.000
G1 X48.511 Y-3.882 F600
G0 F1000
G0 Z8.000
G0 X0.000 F200
G0 Y0.000 F200
G0 Z2.000
G0 X10.015 Y146.433
G1 Z0.000 F800
G1 X129.548 Y114.404 F1000
G0 Z2.000

; --- COLOR CHANGE: MAGENTA ---
G0 Z8.000
G0 X63.000 Y0.000
G0 Z5.000
G1 Z0.000 F800
G4 P500 ; Dwell
G1 Z5.000 F800
; Smart Wipe -> Angle 15.0 deg
G0 X77.489 Y3.882
G0 Z5.000
G1 X48.511 Y-3.882 F600
G0 F1000
G0 Z8.000
G0 X0.000 F200
G0 Y0.000 F200
G0 Z2.000
G0 X10.274 Y147.399
G1 Z0.000 F800
G1 X129.807 Y115.370 F1000
G0 Z2.000

; --- COLOR CHANGE: MAGENTA ---
G0 Z8.000
G0 X63.000 Y0.000
G0 Z5.000
G1 Z0.000 F800
G4 P500 ; Dwell
G1 Z5.000 F800
; Smart Wipe -> Angle 15.0 deg
G0 X77.489 Y3.882
G0 Z5.000
G1 X48.511 Y-3.882 F600
G0 F1000
G0 Z8.000
G0 X0.000 F200
G0 Y0.000 F200
G0 Z2.000
G0 X10.144 Y146.916
G1 Z0.000 F800
G1 X129.678 Y114.887 F1000
G0 Z2.000

; --- COLOR CHANGE: MAGENTA ---
G0 Z8.000
G0 X63.000 Y0.000
G0 Z5.000
G1 Z0.000 F800
G4 P500 ; Dwell
G1 Z5.000 F800
; Smart Wipe -> Angle 15.0 deg
G0 X77.489 Y3.882
G0 Z5.000
G1 X48.511 Y-3.882 F600
G0 F1000
G0 Z8.000
G0 X0.000 F200
G0 Y0.000 F200
G0 Z2.000
G0 X10.072 Y57.902
G1 Z0.000 F800
G1 X113.758 Y30.119 F1000
G0 Z2.000
G0 Z2.000
G0 X10.199 Y33.021
G1 Z0.000 F800
G1 X21.066 Y30.109 F1000
G0 Z2.000

; --- COLOR CHANGE: MAGENTA ---
G0 Z8.000
G0 X63.000 Y0.000
G0 Z5.000
G1 Z0.000 F800
G4 P500 ; Dwell
G1 Z5.000 F800
; Smart Wipe -> Angle 15.0 deg
G0 X77.489 Y3.882
G0 Z5.000
G1 X48.511 Y-3.882 F600
G0 F1000
G0 Z8.000
G0 X0.000 F200
G0 Y0.000 F200
G0 Z2.000
G0 X43.457 Y149.895
G1 Z0.000 F800
G1 X129.937 Y126.723 F1000
G0 Z2.000

; --- COLOR CHANGE: MAGENTA ---
G0 Z8.000
G0 X63.000 Y0.000
G0 Z5.000
G1 Z0.000 F800
G4 P500 ; Dwell
G1 Z5.000 F800
; Smart Wipe -> Angle 15.0 deg
G0 X77.489 Y3.882
G0 Z5.000
G1 X48.511 Y-3.882 F600
G0 F1000
G0 Z8.000
G0 X0.000 F200
G0 Y0.000 F200
G0 Z2.000
G0 X10.138 Y74.448
G1 Z0.000 F800
G1 X129.671 Y42.419 F1000
G0 Z2.000

; --- COLOR CHANGE: MAGENTA ---
G0 Z8.000
G0 X63.000 Y0.000
G0 Z5.000
G1 Z0.000 F800
G4 P500 ; Dwell
G1 Z5.000 F800
; Smart Wipe -> Angle 15.0 deg
G0 X77.489 Y3.882
G0 Z5.000
G1 X48.511 Y-3.882 F600
G0 F1000
G0 Z8.000
G0 X0.000 F200
G0 Y0.000 F200
G0 Z2.000
G0 X53.159 Y149.884
G1 Z0.000 F800
G1 X129.679 Y129.381 F1000
G0 Z2.000

; --- COLOR CHANGE: MAGENTA ---
G0 Z8.000
G0 X63.000 Y0.000
G0 Z5.000
G1 Z0.000 F800
G4 P500 ; Dwell
G1 Z5.000 F800
; Smart Wipe -> Angle 15.0 deg
G0 X77.489 Y3.882
G0 Z5.000
G1 X48.511 Y-3.882 F600
G0 F1000
G0 Z8.000
G0 X0.000 F200
G0 Y0.000 F200
G0 Z2.000
G0 X10.137 Y63.578
G1 Z0.000 F800
G1 X129.670 Y31.549 F1000
G0 Z2.000

; --- COLOR CHANGE: MAGENTA ---
G0 Z8.000
G0 X63.000 Y0.000
G0 Z5.000
G1 Z0.000 F800
G4 P500 ; Dwell
G1 Z5.000 F800
; Smart Wipe -> Angle 15.0 deg
G0 X77.489 Y3.882
G0 Z5.000
G1 X48.511 Y-3.882 F600
G0 F1000
G0 Z8.000
G0 X0.000 F200
G0 Y0.000 F200
G0 Z2.000
G0 X10.138 Y78.072
G1 Z0.000 F800
G1 X129.672 Y46.043 F1000
G0 Z2.000

; --- COLOR CHANGE: MAGENTA ---
G0 Z8.000
G0 X63.000 Y0.000
G0 Z5.000
G1 Z0.000 F800
G4 P500 ; Dwell
G1 Z5.000 F800
; Smart Wipe -> Angle 15.0 deg
G0 X77.489 Y3.882
G0 Z5.000
G1 X48.511 Y-3.882 F600
G0 F1000
G0 Z8.000
G0 X0.000 F200
G0 Y0.000 F200
G0 Z2.000
G0 X10.203 Y76.501
G1 Z0.000 F800
G1 X129.736 Y44.473 F1000
G0 Z2.000
G0 Z2.000
G0 X10.330 Y47.997
G1 Z0.000 F800
G1 X77.341 Y30.042 F1000
G0 Z2.000

; --- COLOR CHANGE: MAGENTA ---
G0 Z8.000
G0 X63.000 Y0.000
G0 Z5.000
G1 Z0.000 F800
G4 P500 ; Dwell
G1 Z5.000 F800
; Smart Wipe -> Angle 15.0 deg
G0 X77.489 Y3.882
G0 Z5.000
G1 X48.511 Y-3.882 F600
G0 F1000
G0 Z8.000
G0 X0.000 F200
G0 Y0.000 F200
G0 Z2.000
G0 X10.200 Y43.891
G1 Z0.000 F800
G1 X61.817 Y30.060 F1000
G0 Z2.000
G0 Z2.000
G0 X10.073 Y68.772
G1 Z0.000 F800
G1 X129.606 Y36.743 F1000
G0 Z2.000

; --- COLOR CHANGE: MAGENTA ---
G0 Z8.000
G0 X63.000 Y0.000
G0 Z5.000
G1 Z0.000 F800
G4 P500 ; Dwell
G1 Z5.000 F800
; Smart Wipe -> Angle 15.0 deg
G0 X77.489 Y3.882
G0 Z5.000
G1 X48.511 Y-3.882 F600
G0 F1000
G0 Z8.000
G0 X0.000 F200
G0 Y0.000 F200
G0 Z2.000
G0 X10.209 Y148.969
G1 Z0.000 F800
G1 X129.742 Y116.940 F1000
G0 Z2.000

; --- COLOR CHANGE: MAGENTA ---
G0 Z8.000
G0 X63.000 Y0.000
G0 Z5.000
G1 Z0.000 F800
G4 P500 ; Dwell
G1 Z5.000 F800
; Smart Wipe -> Angle 15.0 deg
G0 X77.489 Y3.882
G0 Z5.000
G1 X48.511 Y-3.882 F600
G0 F1000
G0 Z8.000
G0 X0.000 F200
G0 Y0.000 F200
G0 Z2.000
G0 X18.230 Y149.926
G1 Z0.000 F800
G1 X129.613 Y120.081 F1000
G0 Z2.000

; --- COLOR CHANGE: MAGENTA ---
G0 Z8.000
G0 X63.000 Y0.000
G0 Z5.000
G1 Z0.000 F800
G4 P500 ; Dwell
G1 Z5.000 F800
; Smart Wipe -> Angle 15.0 deg
G0 X77.489 Y3.882
G0 Z5.000
G1 X48.511 Y-3.882 F600
G0 F1000
G0 Z8.000
G0 X0.000 F200
G0 Y0.000 F200
G0 Z2.000
G0 X10.401 Y126.142
G1 Z0.000 F800
G1 X129.934 Y94.113 F1000
G0 Z2.000

; --- COLOR CHANGE: MAGENTA ---
G0 Z8.000
G0 X63.000 Y0.000
G0 Z5.000
G1 Z0.000 F800
G4 P500 ; Dwell
G1 Z5.000 F800
; Smart Wipe -> Angle 15.0 deg
G0 X77.489 Y3.882
G0 Z5.000
G1 X48.511 Y-3.882 F600
G0 F1000
G0 Z8.000
G0 X0.000 F200
G0 Y0.000 F200
G0 Z2.000
G0 X10.270 Y103.918
G1 Z0.000 F800
G1 X129.803 Y71.889 F1000
G0 Z2.000
G0 Z2.000
G0 X10.070 Y36.161
G1 Z0.000 F800
G1 X32.709 Y30.095 F1000
G0 Z2.000

; --- COLOR CHANGE: MAGENTA ---
G0 Z8.000
G0 X63.000 Y0.000
G0 Z5.000
G1 Z0.000 F800
G4 P500 ; Dwell
G1 Z5.000 F800
; Smart Wipe -> Angle 15.0 deg
G0 X77.489 Y3.882
G0 Z5.000
G1 X48.511 Y-3.882 F600
G0 F1000
G0 Z8.000
G0 X0.000 F200
G0 Y0.000 F200
G0 Z2.000
G0 X10.009 Y77.589
G1 Z0.000 F800
G1 X129.995 Y45.438 F1000
G0 Z2.000

; --- COLOR CHANGE: MAGENTA ---
G0 Z8.000
G0 X63.000 Y0.000
G0 Z5.000
G1 Z0.000 F800
G4 P500 ; Dwell
G1 Z5.000 F800
; Smart Wipe -> Angle 15.0 deg
G0 X77.489 Y3.882
G0 Z5.000
G1 X48.511 Y-3.882 F600
G0 F1000
G0 Z8.000
G0 X0.000 F200
G0 Y0.000 F200
G0 Z2.000
G0 X20.170 Y149.923
G1 Z0.000 F800
G1 X129.743 Y120.564 F1000
G0 Z2.000

; --- COLOR CHANGE: MAGENTA ---
G0 Z8.000
G0 X63.000 Y0.000
G0 Z5.000
G1 Z0.000 F800
G4 P500 ; Dwell
G1 Z5.000 F800
; Smart Wipe -> Angle 15.0 deg
G0 X77.489 Y3.882
G0 Z5.000
G1 X48.511 Y-3.882 F600
G0 F1000
G0 Z8.000
G0 X0.000 F200
G0 Y0.000 F200
G0 Z2.000
G0 X10.334 Y102.348
G1 Z0.000 F800
G1 X129.868 Y70.319 F1000
G0 Z2.000

; --- COLOR CHANGE: MAGENTA ---
G0 Z8.000
G0 X63.000 Y0.000
G0 Z5.000
G1 Z0.000 F800
G4 P500 ; Dwell
G1 Z5.000 F800
; Smart Wipe -> Angle 15.0 deg
G0 X77.489 Y3.882
G0 Z5.000
G1 X48.511 Y-3.882 F600
G0 F1000
G0 Z8.000
G0 X0.000 F200
G0 Y0.000 F200
G0 Z2.000
G0 X10.140 Y103.435
G1 Z0.000 F800
G1 X129.674 Y71.406 F1000
G0 Z2.000
G0 Z2.000
G0 X10.265 Y45.944
G1 Z0.000 F800
G1 X69.579 Y30.051 F1000
G0 Z2.000

; --- COLOR CHANGE: MAGENTA ---
G0 Z8.000
G0 X63.000 Y0.000
G0 Z5.000
G1 Z0.000 F800
G4 P500 ; Dwell
G1 Z5.000 F800
; Smart Wipe -> Angle 15.0 deg
G0 X77.489 Y3.882
G0 Z5.000
G1 X48.511 Y-3.882 F600
G0 F1000
G0 Z8.000
G0 X0.000 F200
G0 Y0.000 F200
G0 Z2.000
G0 X10.143 Y128.799
G1 Z0.000 F800
G1 X129.676 Y96.770 F1000
G0 Z2.000

; --- COLOR CHANGE: MAGENTA ---
G0 Z8.000
G0 X63.000 Y0.000
G0 Z5.000
G1 Z0.000 F800
G4 P500 ; Dwell
G1 Z5.000 F800
; Smart Wipe -> Angle 15.0 deg
G0 X77.489 Y3.882
G0 Z5.000
G1 X48.511 Y-3.882 F600
G0 F1000
G0 Z8.000
G0 X0.000 F200
G0 Y0.000 F200
G0 Z2.000
G0 X10.208 Y141.722
G1 Z0.000 F800
G1 X129.742 Y109.693 F1000
G0 Z2.000

; --- COLOR CHANGE: MAGENTA ---
G0 Z8.000
G0 X63.000 Y0.000
G0 Z5.000
G1 Z0.000 F800
G4 P500 ; Dwell
G1 Z5.000 F800
; Smart Wipe -> Angle 15.0 deg
G0 X77.489 Y3.882
G0 Z5.000
G1 X48.511 Y-3.882 F600
G0 F1000
G0 Z8.000
G0 X0.000 F200
G0 Y0.000 F200
G0 Z2.000
G0 X41.516 Y149.898
G1 Z0.000 F800
G1 X129.808 Y126.240 F1000
G0 Z2.000
G0 Z2.000
G0 X25.992 Y149.916
G1 Z0.000 F800
G1 X129.678 Y122.134 F1000
G0 Z2.000

; --- COLOR CHANGE: MAGENTA ---
G0 Z8.000
G0 X63.000 Y0.000
G0 Z5.000
G1 Z0.000 F800
G4 P500 ; Dwell
G1 Z5.000 F800
; Smart Wipe -> Angle 15.0 deg
G0 X77.489 Y3.882
G0 Z5.000
G1 X48.511 Y-3.882 F600
G0 F1000
