; Generated by CMYK Pro (V2.0 - Randomization/NaN Fix)
G21 ; Millimeters
G90 ; Absolute positioning
G0 Z8.000

; --- COLOR CHANGE: CYAN ---
G0 Z8.000
G0 X0.000 Y17.000
G1 Z0.000 F800
G1 Z5.000 F800
; Smart Wipe -> Angle 5.1 deg
G0 X5.977 Y17.531
G0 Z5.000
G1 X19.922 Y18.768 F600
G0 F1000
G0 Z8.000
G0 Y0.000 F200
G0 X0.000 Y30.489
G0 X0.000 F200
G1 X99.902 Y30.489 Z0.000 F1000

; --- COLOR CHANGE: MAGENTA ---
G0 Z8.000
G0 X63.000 Y0.000
G1 Z0.000 F800
G1 Z5.000 F800
; Smart Wipe -> Angle 150.4 deg
G0 X57.783 Y2.963
G0 Z5.000
G1 X45.610 Y9.878 F600
G0 F1000
G0 Z8.000
G0 X100.402 F200
G0 X0.000 Y30.489
G0 X0.000 F200
G1 X14.873 Y30.489 Z0.000 F1000
G0 X15.166 Y30.489
G1 X17.808 Y30.489 Z0.000 F1000
G0 X20.646 Y30.489
G1 X20.744 Y30.489 Z0.000 F1000
G0 X21.918 Y30.489
G1 X22.016 Y30.489 Z0.000 F1000
G0 X32.387 Y30.489
G1 X32.877 Y30.489 Z0.000 F1000
G0 X33.366 Y30.489
G1 X33.366 Y30.489 Z0.000 F1000
G0 X69.863 Y30.489
G1 X69.863 Y30.489 Z0.000 F1000
G0 X70.352 Y30.489
G1 X71.037 Y30.489 Z0.000 F1000
G0 X71.331 Y30.489
G1 X71.624 Y30.489 Z0.000 F1000
G0 X72.016 Y30.489
G1 X73.581 Y30.489 Z0.000 F1000
G0 X73.777 Y30.489
G1 X75.734 Y30.489 Z0.000 F1000
G0 X80.431 Y30.489
G1 X81.213 Y30.489 Z0.000 F1000
G0 X94.031 Y30.489
G1 X94.227 Y30.489 Z0.000 F1000
G0 X97.065 Y30.489
G1 X99.902 Y30.489 Z0.000 F1000

; --- COLOR CHANGE: YELLOW ---
G0 Z8.000
G0 X109.000 Y0.000
G1 Z0.000 F800
G1 Z5.000 F800
; Smart Wipe -> Angle 168.5 deg
G0 X103.121 Y1.199
G0 Z5.000
G1 X89.403 Y3.997 F600
G0 F1000
G0 Z8.000
G0 X100.402 F200
G0 X0.000 Y30.489
G0 X0.000 F200
G1 X37.182 Y30.489 Z0.000 F1000
G0 X38.063 Y30.489
G1 X50.489 Y30.489 Z0.000 F1000
G0 X50.881 Y30.489
G1 X53.718 Y30.489 Z0.000 F1000
G0 X56.164 Y30.489
G1 X56.849 Y30.489 Z0.000 F1000
G0 X59.100 Y30.489
G1 X59.589 Y30.489 Z0.000 F1000
G0 X61.155 Y30.489
G1 X61.155 Y30.489 Z0.000 F1000
G0 X61.448 Y30.489
G1 X61.937 Y30.489 Z0.000 F1000
G0 X64.090 Y30.489
G1 X64.090 Y30.489 Z0.000 F1000
G0 X64.384 Y30.489
G1 X88.063 Y30.489 Z0.000 F1000
G0 X88.356 Y30.489
G1 X90.998 Y30.489 Z0.000 F1000
G0 X91.292 Y30.489
G1 X94.912 Y30.489 Z0.000 F1000
G0 X95.205 Y30.489
G1 X99.902 Y30.489 Z0.000 F1000

; --- COLOR CHANGE: BLACK ---
G0 Z8.000
G0 X140.000 Y0.000
G1 Z0.000 F800
G1 Z5.000 F800
; Smart Wipe -> Angle 165.7 deg
G0 X136.186 Y1.481
G0 Z5.000
G1 X122.619 Y4.936 F600
G0 F1000
G0 Z8.000
G0 X100.402 F200
G0 X0.000 Y30.489
G0 X0.000 F200
G1 X64.188 Y30.489 Z0.000 F1000
G0 X65.460 Y30.489
G1 X68.982 Y30.489 Z0.000 F1000
G0 X69.374 Y30.489
G1 X75.734 Y30.489 Z0.000 F1000
G0 X76.223 Y30.489
G1 X79.159 Y30.489 Z0.000 F1000
G0 X79.354 Y30.489
G1 X90.117 Y30.489 Z0.000 F1000
G0 X90.313 Y30.489
G1 X90.998 Y30.489 Z0.000 F1000
G0 X91.487 Y30.489
G1 X96.477 Y30.489 Z0.000 F1000
G0 X97.065 Y30.489
G1 X99.902 Y30.489 Z0.000 F1000

; --- COLOR CHANGE: CYAN ---
G0 Z8.000
G0 X0.000 Y17.000
G1 Z0.000 F800
G1 Z5.000 F800
; Smart Wipe -> Angle 6.9 deg
G0 X5.956 Y17.723
G0 Z5.000
G1 X19.854 Y19.409 F600
G0 F1000
G0 Z8.000
G0 X100.402 F200
G0 X0.000 Y30.978
G0 X0.000 F200
G1 X99.902 Y30.978 Z0.000 F1000

; --- COLOR CHANGE: MAGENTA ---
G0 Z8.000
G0 X63.000 Y0.000
G1 Z0.000 F800
G1 Z5.000 F800
; Smart Wipe -> Angle 150.7 deg
G0 X57.768 Y2.938
G0 Z5.000
G1 X45.561 Y9.793 F600
G0 F1000
G0 Z8.000
G0 X100.402 F200
G0 X0.000 Y30.978
G0 X0.000 F200
G1 X18.297 Y30.978 Z0.000 F1000
G0 X20.059 Y30.978
G1 X20.548 Y30.978 Z0.000 F1000
G0 X20.744 Y30.978
G1 X21.037 Y30.978 Z0.000 F1000
G0 X21.624 Y30.978
G1 X21.624 Y30.978 Z0.000 F1000
G0 X23.092 Y30.978
G1 X23.288 Y30.978 Z0.000 F1000
G0 X23.777 Y30.978
G1 X23.973 Y30.978 Z0.000 F1000
G0 X32.290 Y30.978
G1 X33.757 Y30.978 Z0.000 F1000
G0 X41.292 Y30.978
G1 X41.389 Y30.978 Z0.000 F1000
G0 X41.585 Y30.978
G1 X41.585 Y30.978 Z0.000 F1000
G0 X51.663 Y30.978
G1 X51.663 Y30.978 Z0.000 F1000
G0 X70.548 Y30.978
G1 X70.646 Y30.978 Z0.000 F1000
G0 X71.233 Y30.978
G1 X71.331 Y30.978 Z0.000 F1000
G0 X72.407 Y30.978
G1 X74.951 Y30.978 Z0.000 F1000
G0 X75.440 Y30.978
G1 X75.636 Y30.978 Z0.000 F1000
G0 X79.256 Y30.978
G1 X79.354 Y30.978 Z0.000 F1000
G0 X79.941 Y30.978
G1 X82.387 Y30.978 Z0.000 F1000
G0 X94.129 Y30.978
G1 X94.227 Y30.978 Z0.000 F1000

; --- COLOR CHANGE: YELLOW ---
G0 Z8.000
G0 X109.000 Y0.000
G1 Z0.000 F800
G1 Z5.000 F800
; Smart Wipe -> Angle 156.0 deg
G0 X103.519 Y2.441
G0 Z5.000
G1 X90.730 Y8.138 F600
G0 F1000
G0 Z8.000
G0 X94.727 F200
G0 X0.000 Y30.978
G0 X0.000 F200
G1 X37.378 Y30.978 Z0.000 F1000
G0 X37.671 Y30.978
G1 X48.337 Y30.978 Z0.000 F1000
G0 X49.119 Y30.978
G1 X54.012 Y30.978 Z0.000 F1000
G0 X56.067 Y30.978
G1 X56.947 Y30.978 Z0.000 F1000
G0 X57.339 Y30.978
G1 X57.534 Y30.978 Z0.000 F1000
G0 X57.926 Y30.978
G1 X59.393 Y30.978 Z0.000 F1000
G0 X60.372 Y30.978
G1 X60.470 Y30.978 Z0.000 F1000
G0 X64.188 Y30.978
G1 X67.123 Y30.978 Z0.000 F1000
G0 X67.515 Y30.978
G1 X88.356 Y30.978 Z0.000 F1000
G0 X88.552 Y30.978
G1 X89.139 Y30.978 Z0.000 F1000
G0 X89.335 Y30.978
G1 X92.661 Y30.978 Z0.000 F1000
G0 X92.955 Y30.978
G1 X96.673 Y30.978 Z0.000 F1000
G0 X96.967 Y30.978
G1 X98.532 Y30.978 Z0.000 F1000
G0 X98.924 Y30.978
G1 X99.119 Y30.978 Z0.000 F1000
G0 X99.609 Y30.978
G1 X99.902 Y30.978 Z0.000 F1000

; --- COLOR CHANGE: BLACK ---
G0 Z8.000
G0 X140.000 Y0.000
G1 Z0.000 F800
G1 Z5.000 F800
; Smart Wipe -> Angle 154.3 deg
G0 X136.592 Y2.599
G0 Z5.000
G1 X123.974 Y8.664 F600
G0 F1000
G0 Z8.000
G0 X100.402 F200
G0 X0.000 Y30.978
G0 X0.000 F200
G1 X24.853 Y30.978 Z0.000 F1000
G0 X25.147 Y30.978
G1 X64.090 Y30.978 Z0.000 F1000
G0 X66.438 Y30.978
G1 X69.961 Y30.978 Z0.000 F1000
G0 X70.254 Y30.978
G1 X71.429 Y30.978 Z0.000 F1000
G0 X71.918 Y30.978
G1 X82.975 Y30.978 Z0.000 F1000
G0 X83.366 Y30.978
G1 X97.750 Y30.978 Z0.000 F1000
G0 X98.043 Y30.978
G1 X98.337 Y30.978 Z0.000 F1000
G0 X98.630 Y30.978
G1 X99.902 Y30.978 Z0.000 F1000

; --- COLOR CHANGE: CYAN ---
G0 Z8.000
G0 X0.000 Y17.000
G1 Z0.000 F800
G1 Z5.000 F800
; Smart Wipe -> Angle -2.9 deg
G0 X5.992 Y16.698
G0 Z5.000
G1 X19.975 Y15.992 F600
G0 F1000
G0 Z8.000
G0 X100.402 F200
G0 X0.000 Y31.468
G0 X0.000 F200
G1 X99.902 Y31.468 Z0.000 F1000

; --- COLOR CHANGE: MAGENTA ---
G0 Z8.000
G0 X63.000 Y0.000
G1 Z0.000 F800
G1 Z5.000 F800
; Smart Wipe -> Angle 152.4 deg
G0 X57.685 Y2.784
G0 Z5.000
G1 X45.284 Y9.281 F600
G0 F1000
G0 Z8.000
G0 X100.402 F200
G0 X0.000 Y31.468
G0 X0.000 F200
G1 X20.157 Y31.468 Z0.000 F1000
G0 X20.352 Y31.468
G1 X20.352 Y31.468 Z0.000 F1000
G0 X20.548 Y31.468
G1 X21.820 Y31.468 Z0.000 F1000
G0 X22.016 Y31.468
G1 X22.798 Y31.468 Z0.000 F1000
G0 X26.712 Y31.468
G1 X26.712 Y31.468 Z0.000 F1000
G0 X29.061 Y31.468
G1 X30.039 Y31.468 Z0.000 F1000
G0 X32.290 Y31.468
G1 X34.638 Y31.468 Z0.000 F1000
G0 X35.519 Y31.468
G1 X36.693 Y31.468 Z0.000 F1000
G0 X73.679 Y31.468
G1 X73.777 Y31.468 Z0.000 F1000
G0 X74.364 Y31.468
G1 X74.658 Y31.468 Z0.000 F1000
G0 X75.245 Y31.468
G1 X75.245 Y31.468 Z0.000 F1000
G0 X75.636 Y31.468
G1 X75.930 Y31.468 Z0.000 F1000
G0 X79.061 Y31.468
G1 X82.975 Y31.468 Z0.000 F1000
G0 X93.836 Y31.468
G1 X94.618 Y31.468 Z0.000 F1000

; --- COLOR CHANGE: YELLOW ---
G0 Z8.000
G0 X109.000 Y0.000
G1 Z0.000 F800
G1 Z5.000 F800
; Smart Wipe -> Angle 145.6 deg
G0 X104.047 Y3.386
G0 Z5.000
G1 X92.489 Y11.287 F600
G0 F1000
G0 Z8.000
G0 X95.118 F200
G0 X0.000 Y31.468
G0 X0.000 F200
G1 X47.847 Y31.468 Z0.000 F1000
G0 X48.043 Y31.468
G1 X48.924 Y31.468 Z0.000 F1000
G0 X49.119 Y31.468
G1 X49.119 Y31.468 Z0.000 F1000
G0 X49.315 Y31.468
G1 X49.413 Y31.468 Z0.000 F1000
G0 X49.706 Y31.468
G1 X54.599 Y31.468 Z0.000 F1000
G0 X55.871 Y31.468
G1 X59.393 Y31.468 Z0.000 F1000
G0 X60.470 Y31.468
G1 X60.568 Y31.468 Z0.000 F1000
G0 X61.937 Y31.468
G1 X62.035 Y31.468 Z0.000 F1000
G0 X62.427 Y31.468
G1 X62.427 Y31.468 Z0.000 F1000
G0 X64.090 Y31.468
G1 X66.438 Y31.468 Z0.000 F1000
G0 X67.613 Y31.468
G1 X88.356 Y31.468 Z0.000 F1000
G0 X88.552 Y31.468
G1 X89.041 Y31.468 Z0.000 F1000
G0 X89.237 Y31.468
G1 X91.292 Y31.468 Z0.000 F1000
G0 X91.487 Y31.468
G1 X92.759 Y31.468 Z0.000 F1000
G0 X93.053 Y31.468
G1 X96.771 Y31.468 Z0.000 F1000
G0 X97.162 Y31.468
G1 X97.260 Y31.468 Z0.000 F1000
G0 X97.554 Y31.468
G1 X97.554 Y31.468 Z0.000 F1000
G0 X97.750 Y31.468
G1 X97.750 Y31.468 Z0.000 F1000
G0 X97.945 Y31.468
G1 X98.434 Y31.468 Z0.000 F1000

; --- COLOR CHANGE: BLACK ---
G0 Z8.000
G0 X140.000 Y0.000
G1 Z0.000 F800
G1 Z5.000 F800
; Smart Wipe -> Angle 169.8 deg
G0 X136.094 Y1.060
G0 Z5.000
G1 X122.314 Y3.532 F600
G0 F1000
G0 Z8.000
G0 X98.934 F200
G0 X0.000 Y31.468
G0 X0.000 F200
G1 X48.434 Y31.468 Z0.000 F1000
G0 X48.630 Y31.468
G1 X51.957 Y31.468 Z0.000 F1000
G0 X52.250 Y31.468
G1 X53.523 Y31.468 Z0.000 F1000
G0 X53.718 Y31.468
G1 X62.133 Y31.468 Z0.000 F1000
G0 X62.524 Y31.468
G1 X63.894 Y31.468 Z0.000 F1000
G0 X64.384 Y31.468
G1 X64.384 Y31.468 Z0.000 F1000
G0 X64.971 Y31.468
G1 X66.438 Y31.468 Z0.000 F1000
G0 X66.830 Y31.468
G1 X71.331 Y31.468 Z0.000 F1000
G0 X71.624 Y31.468
G1 X83.072 Y31.468 Z0.000 F1000
G0 X83.464 Y31.468
G1 X84.638 Y31.468 Z0.000 F1000
G0 X84.932 Y31.468
G1 X91.781 Y31.468 Z0.000 F1000
G0 X92.074 Y31.468
G1 X93.640 Y31.468 Z0.000 F1000
G0 X93.836 Y31.468
G1 X94.521 Y31.468 Z0.000 F1000
G0 X95.205 Y31.468
G1 X96.967 Y31.468 Z0.000 F1000
G0 X97.162 Y31.468
G1 X98.630 Y31.468 Z0.000 F1000
G0 X99.217 Y31.468
G1 X99.902 Y31.468 Z0.000 F1000

; --- COLOR CHANGE: CYAN ---
G0 Z8.000
G0 X0.000 Y17.000
G1 Z0.000 F800
G1 Z5.000 F800
; Smart Wipe -> Angle 1.2 deg
G0 X5.999 Y17.120
G0 Z5.000
G1 X19.996 Y17.401 F600
G0 F1000
G0 Z8.000
G0 X100.402 F200
G0 X0.000 Y31.957
G0 X0.000 F200
G1 X99.902 Y31.957 Z0.000 F1000

; --- COLOR CHANGE: MAGENTA ---
G0 Z8.000
G0 X63.000 Y0.000
G1 Z0.000 F800
G1 Z5.000 F800
; Smart Wipe -> Angle 155.0 deg
G0 X57.561 Y2.532
G0 Z5.000
G1 X44.869 Y8.441 F600
G0 F1000
G0 Z8.000
G0 X100.402 F200
G0 X0.000 Y31.957
G0 X0.000 F200
G1 X19.863 Y31.957 Z0.000 F1000
G0 X20.352 Y31.957
G1 X20.352 Y31.957 Z0.000 F1000
G0 X22.505 Y31.957
G1 X22.505 Y31.957 Z0.000 F1000
G0 X22.701 Y31.957
G1 X22.798 Y31.957 Z0.000 F1000
G0 X23.386 Y31.957
G1 X23.777 Y31.957 Z0.000 F1000
G0 X24.168 Y31.957
G1 X25.440 Y31.957 Z0.000 F1000
G0 X25.636 Y31.957
G1 X25.930 Y31.957 Z0.000 F1000
G0 X26.517 Y31.957
G1 X27.104 Y31.957 Z0.000 F1000
G0 X28.669 Y31.957
G1 X37.671 Y31.957 Z0.000 F1000
G0 X75.636 Y31.957
G1 X75.930 Y31.957 Z0.000 F1000
G0 X79.159 Y31.957
G1 X82.779 Y31.957 Z0.000 F1000
G0 X85.812 Y31.957
G1 X85.812 Y31.957 Z0.000 F1000
G0 X86.106 Y31.957
G1 X86.791 Y31.957 Z0.000 F1000
G0 X93.640 Y31.957
G1 X93.836 Y31.957 Z0.000 F1000
G0 X94.227 Y31.957
G1 X94.227 Y31.957 Z0.000 F1000
G0 X94.618 Y31.957
G1 X94.716 Y31.957 Z0.000 F1000
G0 X98.141 Y31.957
G1 X98.434 Y31.957 Z0.000 F1000
G0 X98.630 Y31.957
G1 X99.315 Y31.957 Z0.000 F1000

; --- COLOR CHANGE: YELLOW ---
G0 Z8.000
G0 X109.000 Y0.000
G1 Z0.000 F800
G1 Z5.000 F800
; Smart Wipe -> Angle 161.7 deg
G0 X103.304 Y1.887
G0 Z5.000
G1 X90.015 Y6.290 F600
G0 F1000
G0 Z8.000
G0 X99.815 F200
G0 X0.000 Y31.957
G0 X0.000 F200
G1 X51.859 Y31.957 Z0.000 F1000
G0 X53.229 Y31.957
G1 X55.186 Y31.957 Z0.000 F1000
G0 X55.479 Y31.957
G1 X59.393 Y31.957 Z0.000 F1000
G0 X60.274 Y31.957
G1 X60.861 Y31.957 Z0.000 F1000
G0 X62.133 Y31.957
G1 X62.622 Y31.957 Z0.000 F1000
G0 X63.699 Y31.957
G1 X64.481 Y31.957 Z0.000 F1000
G0 X64.971 Y31.957
G1 X65.656 Y31.957 Z0.000 F1000
G0 X66.145 Y31.957
G1 X66.830 Y31.957 Z0.000 F1000
G0 X67.319 Y31.957
G1 X67.417 Y31.957 Z0.000 F1000
G0 X67.710 Y31.957
G1 X88.943 Y31.957 Z0.000 F1000
G0 X89.237 Y31.957
G1 X90.705 Y31.957 Z0.000 F1000
G0 X91.683 Y31.957
G1 X99.902 Y31.957 Z0.000 F1000

; --- COLOR CHANGE: BLACK ---
G0 Z8.000
G0 X140.000 Y0.000
G1 Z0.000 F800
G1 Z5.000 F800
; Smart Wipe -> Angle 157.5 deg
G0 X136.458 Y2.299
G0 Z5.000
G1 X123.527 Y7.664 F600
G0 F1000
G0 Z8.000
G0 X100.402 F200
G0 X0.000 Y31.957
G0 X0.000 F200
G1 X45.401 Y31.957 Z0.000 F1000
G0 X45.597 Y31.957
G1 X47.750 Y31.957 Z0.000 F1000
G0 X48.043 Y31.957
G1 X49.413 Y31.957 Z0.000 F1000
G0 X49.609 Y31.957
G1 X54.501 Y31.957 Z0.000 F1000
G0 X54.697 Y31.957
G1 X55.186 Y31.957 Z0.000 F1000
G0 X55.382 Y31.957
G1 X59.002 Y31.957 Z0.000 F1000
G0 X59.198 Y31.957
G1 X62.427 Y31.957 Z0.000 F1000
G0 X62.818 Y31.957
G1 X66.047 Y31.957 Z0.000 F1000
G0 X66.536 Y31.957
G1 X68.493 Y31.957 Z0.000 F1000
G0 X70.939 Y31.957
G1 X71.820 Y31.957 Z0.000 F1000
G0 X72.309 Y31.957
G1 X72.603 Y31.957 Z0.000 F1000
G0 X72.798 Y31.957
G1 X73.190 Y31.957 Z0.000 F1000
G0 X75.636 Y31.957
G1 X82.975 Y31.957 Z0.000 F1000
G0 X83.268 Y31.957
G1 X85.910 Y31.957 Z0.000 F1000
G0 X86.106 Y31.957
G1 X87.084 Y31.957 Z0.000 F1000
G0 X87.476 Y31.957
G1 X92.466 Y31.957 Z0.000 F1000
G0 X92.857 Y31.957
G1 X93.249 Y31.957 Z0.000 F1000
G0 X93.640 Y31.957
G1 X94.814 Y31.957 Z0.000 F1000
G0 X96.086 Y31.957
G1 X97.456 Y31.957 Z0.000 F1000
G0 X97.847 Y31.957
G1 X97.847 Y31.957 Z0.000 F1000
G0 X98.141 Y31.957
G1 X99.413 Y31.957 Z0.000 F1000

; --- COLOR CHANGE: CYAN ---
G0 Z8.000
G0 X0.000 Y17.000
G1 Z0.000 F800
G1 Z5.000 F800
; Smart Wipe -> Angle 10.1 deg
G0 X5.907 Y18.052
G0 Z5.000
G1 X19.690 Y20.508 F600
G0 F1000
G0 Z8.000
G0 X99.913 F200
G0 X0.000 Y32.446
G0 X0.000 F200
G1 X99.902 Y32.446 Z0.000 F1000

; --- COLOR CHANGE: MAGENTA ---
G0 Z8.000
G0 X63.000 Y0.000
G1 Z0.000 F800
G1 Z5.000 F800
; Smart Wipe -> Angle 149.6 deg
G0 X57.824 Y3.034
G0 Z5.000
G1 X45.746 Y10.114 F600
G0 F1000
G0 Z8.000
G0 X100.402 F200
G0 X0.000 Y32.446
G0 X0.000 F200
G1 X15.362 Y32.446 Z0.000 F1000
G0 X16.145 Y32.446
G1 X16.145 Y32.446 Z0.000 F1000
G0 X17.613 Y32.446
G1 X24.266 Y32.446 Z0.000 F1000
G0 X24.755 Y32.446
G1 X24.853 Y32.446 Z0.000 F1000
G0 X25.049 Y32.446
G1 X25.734 Y32.446 Z0.000 F1000
G0 X26.027 Y32.446
G1 X38.160 Y32.446 Z0.000 F1000
G0 X39.530 Y32.446
G1 X40.607 Y32.446 Z0.000 F1000
G0 X44.227 Y32.446
G1 X45.890 Y32.446 Z0.000 F1000
G0 X46.184 Y32.446
G1 X46.184 Y32.446 Z0.000 F1000
G0 X46.771 Y32.446
G1 X47.260 Y32.446 Z0.000 F1000
G0 X47.456 Y32.446
G1 X47.847 Y32.446 Z0.000 F1000
G0 X48.043 Y32.446
G1 X48.239 Y32.446 Z0.000 F1000
G0 X78.963 Y32.446
G1 X79.452 Y32.446 Z0.000 F1000
G0 X79.746 Y32.446
G1 X82.290 Y32.446 Z0.000 F1000
G0 X82.583 Y32.446
G1 X82.877 Y32.446 Z0.000 F1000
G0 X86.301 Y32.446
G1 X87.867 Y32.446 Z0.000 F1000
G0 X93.640 Y32.446
G1 X93.836 Y32.446 Z0.000 F1000
G0 X94.227 Y32.446
G1 X94.423 Y32.446 Z0.000 F1000
G0 X98.141 Y32.446
G1 X98.434 Y32.446 Z0.000 F1000
G0 X98.630 Y32.446
G1 X99.022 Y32.446 Z0.000 F1000
G0 X99.217 Y32.446
G1 X99.706 Y32.446 Z0.000 F1000
G0 X99.902 Y32.446
G1 X99.902 Y32.446 Z0.000 F1000

; --- COLOR CHANGE: YELLOW ---
G0 Z8.000
G0 X109.000 Y0.000
G1 Z0.000 F800
G1 Z5.000 F800
; Smart Wipe -> Angle 145.3 deg
G0 X104.067 Y3.416
G0 Z5.000
G1 X92.557 Y11.386 F600
G0 F1000
G0 Z8.000
G0 X100.402 F200
G0 X0.000 Y32.446
G0 X0.000 F200
G1 X51.468 Y32.446 Z0.000 F1000
G0 X52.446 Y32.446
G1 X59.491 Y32.446 Z0.000 F1000
G0 X59.785 Y32.446
G1 X61.252 Y32.446 Z0.000 F1000
G0 X61.742 Y32.446
G1 X61.937 Y32.446 Z0.000 F1000
G0 X62.231 Y32.446
G1 X64.579 Y32.446 Z0.000 F1000
G0 X64.873 Y32.446
G1 X65.362 Y32.446 Z0.000 F1000
G0 X67.221 Y32.446
G1 X67.319 Y32.446 Z0.000 F1000
G0 X67.710 Y32.446
G1 X90.900 Y32.446 Z0.000 F1000
G0 X91.389 Y32.446
G1 X92.368 Y32.446 Z0.000 F1000
G0 X92.857 Y32.446
G1 X93.053 Y32.446 Z0.000 F1000
G0 X93.444 Y32.446
G1 X96.575 Y32.446 Z0.000 F1000
G0 X97.260 Y32.446
G1 X99.902 Y32.446 Z0.000 F1000

; --- COLOR CHANGE: BLACK ---
G0 Z8.000
G0 X140.000 Y0.000
G1 Z0.000 F800
G1 Z5.000 F800
; Smart Wipe -> Angle 167.4 deg
G0 X136.145 Y1.311
G0 Z5.000
G1 X122.483 Y4.370 F600
G0 F1000
G0 Z8.000
G0 X100.402 F200
G0 X0.000 Y32.446
G0 X0.000 F200
G1 X43.738 Y32.446 Z0.000 F1000
G0 X44.325 Y32.446
G1 X46.380 Y32.446 Z0.000 F1000
G0 X46.771 Y32.446
G1 X47.847 Y32.446 Z0.000 F1000
G0 X48.043 Y32.446
G1 X49.315 Y32.446 Z0.000 F1000
G0 X50.098 Y32.446
G1 X50.587 Y32.446 Z0.000 F1000
G0 X51.174 Y32.446
G1 X61.937 Y32.446 Z0.000 F1000
G0 X62.231 Y32.446
G1 X68.395 Y32.446 Z0.000 F1000
G0 X68.689 Y32.446
G1 X69.569 Y32.446 Z0.000 F1000
G0 X70.352 Y32.446
G1 X71.624 Y32.446 Z0.000 F1000
G0 X71.918 Y32.446
G1 X72.701 Y32.446 Z0.000 F1000
G0 X72.994 Y32.446
