;LightBurn 1.6.04
;Custom GCode device profile, absolute coords
;Bounds: X11.06 Y60.8 to X140.94 Y125.2
G00 G17 G40 G21 G54
G90
G1 Z10 F1000
;Cut @ 1200 mm/min, 90% power

M8
G0 Z3.5F1000
G0 X68.427Y60.972Z3.5
G1 Z0F1000
;Layer Blue
G1 X27.982Y84.323Z0S900F1800
G0 Z3.5F1000
G0 Z3.5F1200
G1 Z0F1000
G1 Y84.991Z0F1800
G0 Z3.5F1000
G0 Z3.5
G1 Z0F1000
G1 X29.331Y87.327Z0F1800
G0 Z3.5F1000
G0 Z3.5
G1 Z0F1000
G1 X69.776Y63.976Z0F1800
G0 Z3.5F1000
G0 Z3.5
G1 Z0F1000
G1 X69.82Y63.949Z0F1800
G1 X69.912Y63.882Z0F1800
G1 X70.005Y63.803Z0F1800
G1 X70.095Y63.715Z0F1800
G1 X70.157Y63.646Z0F1800
G1 X70.213Y63.576Z0F1800
G1 X70.276Y63.485Z0F1800
G1 X70.3Y63.441Z0F1800
G1 X70.321Y63.4Z0F1800
G0 Z3.5F1000
G0 Z3.5
G1 Z0F1000
G1 X71.089Y63.844Z0F1800
G0 Z3.5F1000
G0 Z3.5
G1 Z0F1000
G1 X71.207Y64.117Z0F1800
G1 X71.249Y64.381Z0F1800
G0 Z3.5F1000
G0 Z3.5
G1 Z0F1000
G1 X71.239Y64.498Z0F1800
G1 X71.207Y64.598Z0F1800
G1 X71.157Y64.678Z0F1800
G1 X71.089Y64.734Z0F1800
G0 Z3.5F1000
G0 Z3.5
G1 Z0F1000
G1 X71.282Y64.845Z0F1800
G0 Z3.5F1000
G0 Z3.5
G1 Z0F1000
G1 Y62.621Z0F1800
G0 Z3.5F1000
G0 Z3.5
G1 Z0F1000
G1 X71.249Y62.602Z0F1800
G0 Z3.5F1000
G0 X71.089Y62.509Z3.5
G1 Z0F1000
G1 X71.249Y62.417Z0F1800
G0 Z3.5F1000
G0 Z3.5
G1 Z0F1000
G1 Y64.381Z0F1800
G0 Z3.5F1000
G0 X71.089Y64.734Z3.5
G1 Z0F1000
G1 X30.645Y88.085Z0F1800
G0 Z3.5F1000
G0 X30.294Y88.105Z3.5
G1 Z0F1000
G1 X29.524Y88.55Z0F1800
G0 Z3.5F1000
G0 Z3.5
G1 Z0F1000
G1 X17.963Y95.224Z0F1800
G0 Z3.5F1000
G0 Z3.5
G1 Z0F1000
G1 X17.804Y95.317Z0F1800
G0 Z3.5F1000
G0 Z3.5
G1 Z0F1000
G1 Y94.204Z0F1800
G0 Z3.5F1000
G0 Z3.5
G1 Z0F1000
G1 X17.963Y94.112Z0F1800
G0 Z3.5F1000
G0 Z3.5
G1 Z0F1000
G1 X29.524Y87.438Z0F1800
G0 Z3.5F1000
G0 Z3.5
G1 Z0F1000
G1 X29.331Y87.327Z0F1800
G0 Z3.5F1000
G0 Z3.5
G1 Z0F1000
G1 X17.771Y94.001Z0F1800
G0 Z3.5F1000
G0 Z3.5
G1 Z0F1000
G1 X17.636Y94.059Z0F1800
G1 X17.545Y94.055Z0F1800
G0 Z3.5F1000
G0 Z3.5
G1 Z0F1000
G1 X17.533Y94.046Z0F1800
G1 X17.524Y94.033Z0F1800
G0 Z3.5F1000
G0 Z3.5
G1 Z0F1000
G1 X16.27Y91.863Z0F1800
G0 Z3.5F1000
G0 Z3.5
G1 Z0F1000
G1 X16.264Y91.848Z0F1800
G1 Y91.833Z0F1800
G0 Z3.5F1000
G0 X16.263Z3.5
G1 Z0F1000
G1 X16.304Y91.753Z0F1800
G1 X16.422Y91.665Z0F1800
G0 Z3.5F1000
G0 Z3.5
G1 Z0F1000
G1 X27.982Y84.991Z0F1800
G0 Z3.5F1000
G0 Z3.5
G1 Z0F1000
G1 X68.427Y61.64Z0F1800
G0 Z3.5F1000
G0 Z3.5
G1 Z0F1000
G1 X68.473Y61.615Z0F1800
G1 X68.576Y61.568Z0F1800
G1 X68.691Y61.527Z0F1800
G1 X68.812Y61.494Z0F1800
G1 X68.904Y61.475Z0F1800
G1 X68.992Y61.461Z0F1800
G1 X69.049Y61.456Z0F1800
G1 X69.102Y61.453Z0F1800
G1 X69.152Z0F1800
G1 X69.198Z0F1800
G0 Z3.5F1000
G0 Y61.455Z3.5
G1 Z0F1000
G1 X70.321Y63.4Z0F1800
G0 Z3.5F1000
G0 X71.089Y63.844Z3.5
G1 Z0F1000
G1 Y62.509Z0F1800
G0 Z3.5F1000
G0 Z3.5
G1 Z0F1000
G1 X69.198Y61.417Z0F1800
G0 Z3.5F1000
G0 Z3.5
G1 Z0F1000
G1 X69.021Y61.179Z0F1800
G1 X68.812Y61.01Z0F1800
G0 Z3.5F1000
G0 Z3.5
G1 Z0F1000
G1 X68.706Y60.961Z0F1800
G1 X68.604Y60.938Z0F1800
G1 X68.51Y60.942Z0F1800
G1 X68.427Y60.972Z0F1800
G0 Z3.5F1000
G0 Z3.5
G1 Z0F1000
G1 Y61.64Z0F1800
G0 Z3.5F1000
G0 Z3.5
G1 Z0F1000
G1 X69.776Y63.976Z0F1800
G0 Z3.5F1000
G0 Z3.5
G1 Z0F1000
G1 X71.089Y64.734Z0F1800
G0 Z3.5F1000
G0 X71.282Y64.845Z3.5
G1 Z0F1000
G1 X71.12Y64.939Z0F1800
G0 Z3.5F1000
G0 Z3.5
G1 Z0F1000
G1 X71.822Y65.808Z0F1800
G0 Z3.5F1000
G0 Z3.5
G1 Z0F1000
G1 Y63.583Z0F1800
G0 Z3.5F1000
G0 Z3.5
G1 Z0F1000
G1 X71.282Y62.915Z0F1800
G0 Z3.5F1000
G0 X71.249Y62.417Z3.5
G1 Z0F1000
G1 X68.812Y61.01Z0F1800
G0 Z3.5F1000
G0 X69.198Y61.417Z3.5
G1 Z0F1000
G1 Y61.455Z0F1800
G0 Z3.5F1000
G0 X69.903Y65.641Z3.5
G1 Z0F1000
G1 X71.409Y66.047Z0F1800
G0 Z3.5F1000
G0 Z3.5
G1 Z0F1000
G1 X71.822Y65.808Z0F1800
G0 Z3.5F1000
G0 X70.281Y65.743Z3.5
G1 Z0F1000
G1 Y66.698Z0F1800
G0 Z3.5F1000
G0 Z3.5
G1 Z0F1000
G1 X69.579Y65.829Z0F1800
G0 Z3.5F1000
G0 Z3.5
G1 Z0F1000
G1 X69.903Y65.641Z0F1800
G0 Z3.5F1000
G0 X70.281Y66.698Z3.5
G1 Z0F1000
G1 X69.868Y66.936Z0F1800
G0 Z3.5F1000
G0 Z3.5
G1 Z0F1000
G1 X68.363Y66.531Z0F1800
G0 Z3.5F1000
G0 Z3.5
G1 Z0F1000
G1 X68.039Y66.718Z0F1800
G0 Z3.5F1000
G0 Z3.5
G1 Z0F1000
G1 X68.74Y67.587Z0F1800
G0 Z3.5F1000
G0 Z3.5
G1 Z0F1000
G1 Y66.633Z0F1800
G0 Z3.5F1000
G0 Y67.587Z3.5
G1 Z0F1000
G1 X68.327Y67.826Z0F1800
G0 Z3.5F1000
G0 Z3.5
G1 Z0F1000
G1 X66.822Y67.421Z0F1800
G0 Z3.5F1000
G0 Z3.5
G1 Z0F1000
G1 X66.498Y67.608Z0F1800
G0 Z3.5F1000
G0 Z3.5
G1 Z0F1000
G1 X67.2Y68.477Z0F1800
G0 Z3.5F1000
G0 Z3.5
G1 Z0F1000
G1 Y67.522Z0F1800
G0 Z3.5F1000
G0 Y68.477Z3.5
G1 Z0F1000
G1 X66.786Y68.715Z0F1800
G0 Z3.5F1000
G0 Z3.5
G1 Z0F1000
G1 X65.281Y68.31Z0F1800
G0 Z3.5F1000
G0 Z3.5
G1 Z0F1000
G1 X64.957Y68.497Z0F1800
G0 Z3.5F1000
G0 Z3.5
G1 Z0F1000
G1 X65.659Y69.366Z0F1800
G0 Z3.5F1000
G0 Z3.5
G1 Z0F1000
G1 Y68.412Z0F1800
G0 Z3.5F1000
G0 Y69.366Z3.5
G1 Z0F1000
G1 X65.246Y69.605Z0F1800
G0 Z3.5F1000
G0 Z3.5
G1 Z0F1000
G1 X63.74Y69.2Z0F1800
G0 Z3.5F1000
G0 Z3.5
G1 Z0F1000
G1 X63.416Y69.387Z0F1800
G0 Z3.5F1000
G0 Z3.5
G1 Z0F1000
G1 X64.118Y70.256Z0F1800
G0 Z3.5F1000
G0 Z3.5
G1 Z0F1000
G1 Y69.301Z0F1800
G0 Z3.5F1000
G0 Y70.256Z3.5
G1 Z0F1000
G1 X63.705Y70.494Z0F1800
G0 Z3.5F1000
G0 Z3.5
G1 Z0F1000
G1 X62.2Y70.089Z0F1800
G0 Z3.5F1000
G0 Z3.5
G1 Z0F1000
G1 X61.876Y70.276Z0F1800
G0 Z3.5F1000
G0 Z3.5
G1 Z0F1000
G1 X62.577Y71.145Z0F1800
G0 Z3.5F1000
G0 Z3.5
G1 Z0F1000
G1 Y70.191Z0F1800
G0 Z3.5F1000
G0 Y71.145Z3.5
G1 Z0F1000
G1 X62.164Y71.384Z0F1800
G0 Z3.5F1000
G0 Z3.5
G1 Z0F1000
G1 X60.659Y70.979Z0F1800
G0 Z3.5F1000
G0 Z3.5
G1 Z0F1000
G1 X60.335Y71.166Z0F1800
G0 Z3.5F1000
G0 Z3.5
G1 Z0F1000
G1 X61.037Y72.035Z0F1800
G0 Z3.5F1000
G0 Z3.5
G1 Z0F1000
G1 Y71.08Z0F1800
G0 Z3.5F1000
G0 Y72.035Z3.5
G1 Z0F1000
G1 X60.623Y72.274Z0F1800
G0 Z3.5F1000
G0 Z3.5
G1 Z0F1000
G1 X59.118Y71.868Z0F1800
G0 Z3.5F1000
G0 Z3.5
G1 Z0F1000
G1 X58.794Y72.055Z0F1800
G0 Z3.5F1000
G0 Z3.5
G1 Z0F1000
G1 X59.496Y72.924Z0F1800
G0 Z3.5F1000
G0 Z3.5
G1 Z0F1000
G1 Y71.97Z0F1800
G0 Z3.5F1000
G0 Y72.924Z3.5
G1 Z0F1000
G1 X59.083Y73.163Z0F1800
G0 Z3.5F1000
G0 Z3.5
G1 Z0F1000
G1 X57.577Y72.758Z0F1800
G0 Z3.5F1000
G0 Z3.5
G1 Z0F1000
G1 X57.253Y72.945Z0F1800
G0 Z3.5F1000
G0 Z3.5
G1 Z0F1000
G1 X57.955Y73.814Z0F1800
G0 Z3.5F1000
G0 Z3.5
G1 Z0F1000
G1 Y72.859Z0F1800
G0 Z3.5F1000
G0 Y73.814Z3.5
G1 Z0F1000
G1 X57.542Y74.053Z0F1800
G0 Z3.5F1000
G0 Z3.5
G1 Z0F1000
G1 X56.037Y73.647Z0F1800
G0 Z3.5F1000
G0 Z3.5
G1 Z0F1000
G1 X55.713Y73.834Z0F1800
G0 Z3.5F1000
G0 Z3.5
G1 Z0F1000
G1 X56.414Y74.703Z0F1800
G0 Z3.5F1000
G0 Z3.5
G1 Z0F1000
G1 Y73.749Z0F1800
G0 Z3.5F1000
G0 Y74.703Z3.5
G1 Z0F1000
G1 X56.001Y74.942Z0F1800
G0 Z3.5F1000
G0 Z3.5
G1 Z0F1000
G1 X54.496Y74.537Z0F1800
G0 Z3.5F1000
G0 Z3.5
G1 Z0F1000
G1 X54.172Y74.724Z0F1800
G0 Z3.5F1000
G0 Z3.5
G1 Z0F1000
G1 X54.874Y75.593Z0F1800
G0 Z3.5F1000
G0 Z3.5
G1 Z0F1000
G1 Y74.639Z0F1800
G0 Z3.5F1000
G0 Y75.593Z3.5
G1 Z0F1000
G1 X54.46Y75.832Z0F1800
G0 Z3.5F1000
G0 Z3.5
G1 Z0F1000
G1 X52.955Y75.426Z0F1800
G0 Z3.5F1000
G0 Z3.5
G1 Z0F1000
G1 X52.631Y75.614Z0F1800
G0 Z3.5F1000
G0 Z3.5
G1 Z0F1000
G1 X53.333Y76.483Z0F1800
G0 Z3.5F1000
G0 Z3.5
G1 Z0F1000
G1 Y75.528Z0F1800
G0 Z3.5F1000
G0 Y76.483Z3.5
G1 Z0F1000
G1 X52.92Y76.721Z0F1800
G0 Z3.5F1000
G0 Z3.5
G1 Z0F1000
G1 X51.414Y76.316Z0F1800
G0 Z3.5F1000
G0 Z3.5
G1 Z0F1000
G1 X51.09Y76.503Z0F1800
G0 Z3.5F1000
G0 Z3.5
G1 Z0F1000
G1 X51.792Y77.372Z0F1800
G0 Z3.5F1000
G0 Z3.5
G1 Z0F1000
G1 Y76.418Z0F1800
G0 Z3.5F1000
G0 Y77.372Z3.5
G1 Z0F1000
G1 X51.379Y77.611Z0F1800
G0 Z3.5F1000
G0 Z3.5
G1 Z0F1000
G1 X49.874Y77.206Z0F1800
G0 Z3.5F1000
G0 Z3.5
G1 Z0F1000
G1 X49.55Y77.393Z0F1800
G0 Z3.5F1000
G0 Z3.5
G1 Z0F1000
G1 X50.251Y78.262Z0F1800
G0 Z3.5F1000
G0 Z3.5
G1 Z0F1000
G1 Y77.307Z0F1800
G0 Z3.5F1000
G0 Y78.262Z3.5
G1 Z0F1000
G1 X49.838Y78.5Z0F1800
G0 Z3.5F1000
G0 Z3.5
G1 Z0F1000
G1 X48.333Y78.095Z0F1800
G0 Z3.5F1000
G0 Z3.5
G1 Z0F1000
G1 X48.009Y78.282Z0F1800
G0 Z3.5F1000
G0 Z3.5
G1 Z0F1000
G1 X48.711Y79.151Z0F1800
G0 Z3.5F1000
G0 Z3.5
G1 Z0F1000
G1 Y78.197Z0F1800
G0 Z3.5F1000
G0 Y79.151Z3.5
G1 Z0F1000
G1 X48.297Y79.39Z0F1800
G0 Z3.5F1000
G0 Z3.5
G1 Z0F1000
G1 X46.792Y78.985Z0F1800
G0 Z3.5F1000
G0 Z3.5
G1 Z0F1000
G1 X46.468Y79.172Z0F1800
G0 Z3.5F1000
G0 Z3.5
G1 Z0F1000
G1 X47.17Y80.041Z0F1800
G0 Z3.5F1000
G0 Z3.5
G1 Z0F1000
G1 Y79.086Z0F1800
G0 Z3.5F1000
G0 Y80.041Z3.5
G1 Z0F1000
G1 X46.757Y80.279Z0F1800
G0 Z3.5F1000
G0 Z3.5
G1 Z0F1000
G1 X45.252Y79.874Z0F1800
G0 Z3.5F1000
G0 Z3.5
G1 Z0F1000
G1 X44.927Y80.061Z0F1800
G0 Z3.5F1000
G0 Z3.5
G1 Z0F1000
G1 X45.629Y80.93Z0F1800
G0 Z3.5F1000
G0 Z3.5
G1 Z0F1000
G1 Y79.976Z0F1800
G0 Z3.5F1000
G0 Y80.93Z3.5
G1 Z0F1000
G1 X45.216Y81.169Z0F1800
G0 Z3.5F1000
G0 Z3.5
G1 Z0F1000
G1 X43.711Y80.764Z0F1800
G0 Z3.5F1000
G0 Z3.5
G1 Z0F1000
G1 X43.387Y80.951Z0F1800
G0 Z3.5F1000
G0 Z3.5
G1 Z0F1000
G1 X44.088Y81.82Z0F1800
G0 Z3.5F1000
G0 Z3.5
G1 Z0F1000
G1 Y80.865Z0F1800
G0 Z3.5F1000
G0 Y81.82Z3.5
G1 Z0F1000
G1 X43.675Y82.059Z0F1800
G0 Z3.5F1000
G0 Z3.5
G1 Z0F1000
G1 X42.17Y81.653Z0F1800
G0 Z3.5F1000
G0 Z3.5
G1 Z0F1000
G1 X41.846Y81.84Z0F1800
G0 Z3.5F1000
G0 Z3.5
G1 Z0F1000
G1 X42.548Y82.709Z0F1800
G0 Z3.5F1000
G0 Z3.5
G1 Z0F1000
G1 Y81.755Z0F1800
G0 Z3.5F1000
G0 Y82.709Z3.5
G1 Z0F1000
G1 X42.134Y82.948Z0F1800
G0 Z3.5F1000
G0 Z3.5
G1 Z0F1000
G1 X40.629Y82.543Z0F1800
G0 Z3.5F1000
G0 Z3.5
G1 Z0F1000
G1 X40.305Y82.73Z0F1800
G0 Z3.5F1000
G0 Z3.5
G1 Z0F1000
G1 X41.007Y83.599Z0F1800
G0 Z3.5F1000
G0 Z3.5
G1 Z0F1000
G1 Y82.645Z0F1800
G0 Z3.5F1000
G0 Y83.599Z3.5
G1 Z0F1000
G1 X40.594Y83.838Z0F1800
G0 Z3.5F1000
G0 Z3.5
G1 Z0F1000
G1 X39.089Y83.432Z0F1800
G0 Z3.5F1000
G0 Z3.5
G1 Z0F1000
G1 X38.764Y83.62Z0F1800
G0 Z3.5F1000
G0 Z3.5
G1 Z0F1000
G1 X39.466Y84.489Z0F1800
G0 Z3.5F1000
G0 Z3.5
G1 Z0F1000
G1 Y83.534Z0F1800
G0 Z3.5F1000
G0 Y84.489Z3.5
G1 Z0F1000
G1 X39.053Y84.727Z0F1800
G0 Z3.5F1000
G0 Z3.5
G1 Z0F1000
G1 X37.548Y84.322Z0F1800
G0 Z3.5F1000
G0 Z3.5
G1 Z0F1000
G1 X37.224Y84.509Z0F1800
G0 Z3.5F1000
G0 Z3.5
G1 Z0F1000
G1 X37.926Y85.378Z0F1800
G0 Z3.5F1000
G0 Z3.5
G1 Z0F1000
G1 Y84.424Z0F1800
G0 Z3.5F1000
G0 Y85.378Z3.5
G1 Z0F1000
G1 X37.512Y85.617Z0F1800
G0 Z3.5F1000
G0 Z3.5
G1 Z0F1000
G1 X36.007Y85.212Z0F1800
G0 Z3.5F1000
G0 Z3.5
G1 Z0F1000
G1 X35.683Y85.399Z0F1800
G0 Z3.5F1000
G0 Z3.5
G1 Z0F1000
G1 X36.385Y86.268Z0F1800
G0 Z3.5F1000
G0 Z3.5
G1 Z0F1000
G1 Y85.313Z0F1800
G0 Z3.5F1000
G0 Y86.268Z3.5
G1 Z0F1000
G1 X35.971Y86.506Z0F1800
G0 Z3.5F1000
G0 Z3.5
G1 Z0F1000
G1 X34.466Y86.101Z0F1800
G0 Z3.5F1000
G0 Z3.5
G1 Z0F1000
G1 X34.142Y86.288Z0F1800
G0 Z3.5F1000
G0 Z3.5
G1 Z0F1000
G1 X34.844Y87.157Z0F1800
G0 Z3.5F1000
G0 Z3.5
G1 Z0F1000
G1 Y86.203Z0F1800
G0 Z3.5F1000
G0 Y87.157Z3.5
G1 Z0F1000
G1 X34.431Y87.396Z0F1800
G0 Z3.5F1000
G0 Z3.5
G1 Z0F1000
G1 X32.926Y86.991Z0F1800
G0 Z3.5F1000
G0 Z3.5
G1 Z0F1000
G1 X32.601Y87.178Z0F1800
G0 Z3.5F1000
G0 Z3.5
G1 Z0F1000
G1 X33.303Y88.047Z0F1800
G0 Z3.5F1000
G0 Z3.5
G1 Z0F1000
G1 Y87.092Z0F1800
G0 Z3.5F1000
G0 Y87.211Z3.5
G1 Z0F1000
G1 X37.93Y89.882Z0F1800
G0 Z3.5F1000
G0 Z3.5
G1 Z0F1000
G1 X37.77Y89.974Z0F1800
G0 Z3.5F1000
G0 Z3.5
G1 Z0F1000
G1 X33.303Y87.395Z0F1800
G0 Z3.5F1000
G0 Y88.047Z3.5
G1 Z0F1000
G1 X32.89Y88.285Z0F1800
G0 Z3.5F1000
G0 Z3.5
G1 Z0F1000
G1 X31.385Y87.88Z0F1800
G0 Z3.5F1000
G0 Z3.5
G1 Z0F1000
G1 X31.223Y87.974Z0F1800
G0 Z3.5F1000
G0 Z3.5
G1 Z0F1000
G1 X31.03Y87.862Z0F1800
G0 Z3.5F1000
G0 X30.294Y88.105Z3.5
G1 Z0F1000
G1 Y86.993Z0F1800
G0 Z3.5F1000
G0 Z3.5
G1 Z0F1000
G1 X29.524Y87.438Z0F1800
G0 Z3.5F1000
G0 Z3.5
G1 Z0F1000
G1 X29.331Y87.327Z0F1800
G0 Z3.5F1000
G0 Z3.5
G1 Z0F1000
G1 X27.982Y84.991Z0F1800
G0 Z3.5F1000
G0 Z3.5
G1 Z0F1000
G1 Y84.323Z0F1800
G0 Z3.5F1000
G0 Z3.5
G1 Z0F1000
G1 X16.422Y90.997Z0F1800
G0 Z3.5F1000
G0 Z3.5
G1 Z0F1000
G1 X16.354Y91.054Z0F1800
G1 X16.304Y91.134Z0F1800
G1 X16.273Y91.234Z0F1800
G1 X16.263Y91.35Z0F1800
G0 Z3.5F1000
G0 Z3.5
G1 Z0F1000
G1 Y91.833Z0F1800
G0 Z3.5F1000
G0 X16.422Y91.665Z3.5
G1 Z0F1000
G1 Y90.997Z0F1800
G0 Z3.5F1000
G0 Y91.665Z3.5
G1 Z0F1000
G1 X17.771Y94.001Z0F1800
G0 Z3.5F1000
G0 Z3.5
G1 Z0F1000
G1 X17.963Y94.112Z0F1800
G0 Z3.5F1000
G0 Z3.5
G1 Z0F1000
G1 Y95.224Z0F1800
G0 Z3.5F1000
G0 Z3.5
G1 Z0F1000
G1 X24.668Y99.096Z0F1800
G0 Z3.5F1000
G0 Z3.5
G1 Z0F1000
G1 X24.586Y99.126Z0F1800
G1 X24.492Y99.13Z0F1800
G1 X24.389Y99.107Z0F1800
G1 X24.283Y99.057Z0F1800
G0 Z3.5F1000
G0 Z3.5
G1 Z0F1000
G1 X17.804Y95.317Z0F1800
G0 Z3.5F1000
G0 Y94.204Z3.5
G1 Z0F1000
G1 X17.545Y94.055Z0F1800
G0 Z3.5F1000
G0 X23.243Y95.158Z3.5
G1 Z0F1000
G1 X23.103Y95.256Z0F1800
G1 X23.003Y95.366Z0F1800
G1 X22.943Y95.482Z0F1800
G1 X22.923Y95.603Z0F1800
G1 X22.943Y95.723Z0F1800
G1 X23.003Y95.839Z0F1800
G1 X23.103Y95.949Z0F1800
G1 X23.243Y96.048Z0F1800
G1 X23.414Y96.128Z0F1800
G1 X23.603Y96.186Z0F1800
G1 X23.805Y96.22Z0F1800
G1 X24.013Y96.232Z0F1800
G1 X24.222Y96.22Z0F1800
G1 X24.423Y96.186Z0F1800
G1 X24.613Y96.128Z0F1800
G1 X24.784Y96.048Z0F1800
G0 Z3.5F1000
G0 Z3.5
G1 Z0F1000
G1 X24.924Y95.949Z0F1800
G1 X25.023Y95.839Z0F1800
G1 X25.083Y95.723Z0F1800
G1 X25.103Y95.603Z0F1800
G1 X25.083Y95.482Z0F1800
G1 X25.023Y95.366Z0F1800
G1 X24.924Y95.256Z0F1800
G1 X24.784Y95.158Z0F1800
G0 Z3.5F1000
G0 Z3.5
G1 Z0F1000
G1 X24.613Y95.077Z0F1800
G1 X24.423Y95.019Z0F1800
G1 X24.222Y94.985Z0F1800
G1 X24.013Y94.973Z0F1800
G1 X23.805Y94.985Z0F1800
G1 X23.603Y95.019Z0F1800
G1 X23.414Y95.077Z0F1800
G1 X23.243Y95.158Z0F1800
G0 Z3.5F1000
G0 X23.407Y95.08Z3.5
G1 Z0F1000
G1 X23.331Y95.182Z0F1800
G1 X23.305Y95.291Z0F1800
G0 Z3.5F1000
G0 Z3.5
G1 Z0F1000
G1 X23.336Y95.411Z0F1800
G1 X23.424Y95.518Z0F1800
G1 X23.562Y95.607Z0F1800
G1 X23.742Y95.669Z0F1800
G1 X23.946Y95.698Z0F1800
G1 X24.152Y95.692Z0F1800
G1 X24.345Y95.653Z0F1800
G1 X24.514Y95.58Z0F1800
G0 Z3.5F1000
G0 Z3.5
G1 Z0F1000
G1 X24.603Y95.518Z0F1800
G1 X24.668Y95.448Z0F1800
G1 X24.708Y95.371Z0F1800
G1 X24.722Y95.291Z0F1800
G0 Z3.5F1000
G0 Z3.5
G1 Z0F1000
G1 X24.696Y95.182Z0F1800
G1 X24.62Y95.08Z0F1800
G0 Z3.5F1000
G0 X24.668Y99.096Z3.5
G1 Z0F1000
G1 X36.229Y92.421Z0F1800
G0 Z3.5F1000
G0 Z3.5
G1 Z0F1000
G1 X36.296Y92.365Z0F1800
G1 X36.347Y92.285Z0F1800
G1 X36.378Y92.185Z0F1800
G1 X36.388Y92.068Z0F1800
G0 Z3.5F1000
G0 Z3.5
G1 Z0F1000
G1 X36.347Y91.804Z0F1800
G1 X36.229Y91.531Z0F1800
G0 Z3.5F1000
G0 Z3.5
G1 Z0F1000
G1 X30.294Y88.105Z0F1800
G0 Z3.5F1000
G0 X29.524Y88.55Z3.5
G1 Z0F1000
G1 Y87.438Z0F1800
G0 Z3.5F1000
G0 Y88.55Z3.5
G1 Z0F1000
G1 X36.229Y92.421Z0F1800
G0 Z3.5F1000
G0 X36.388Y92.068Z3.5
G1 Z0F1000
G1 Y90.956Z0F1800
G0 Z3.5F1000
G0 Z3.5
G1 Z0F1000
G1 X36.347Y90.691Z0F1800
G1 X36.229Y90.419Z0F1800
G0 Z3.5F1000
G0 Z3.5
G1 Z0F1000
G1 X36.647Y90.661Z0F1800
G0 Z3.5F1000
G0 Z3.5
G1 Z0F1000
G1 X36.663Y90.722Z0F1800
G1 X36.673Y90.786Z0F1800
G1 X36.678Y90.85Z0F1800
G1 Y90.916Z0F1800
G1 X36.673Y90.98Z0F1800
G1 X36.663Y91.044Z0F1800
G1 X36.647Y91.105Z0F1800
G1 X36.627Y91.164Z0F1800
G1 X36.602Y91.219Z0F1800
G1 X36.573Y91.27Z0F1800
G1 X36.54Y91.316Z0F1800
G1 X36.503Y91.357Z0F1800
G1 X36.463Y91.392Z0F1800
G1 X36.421Y91.42Z0F1800
G0 Z3.5F1000
G0 Z3.5
G1 Z0F1000
G1 X36.388Y91.439Z0F1800
G0 Z3.5F1000
G0 X36.421Y91.42Z3.5
G1 Z0F1000
G1 X37.77Y90.641Z0F1800
G0 Z3.5F1000
G0 Z3.5
G1 Z0F1000
G1 X37.838Y90.59Z0F1800
G1 X37.888Y90.525Z0F1800
G1 X37.919Y90.449Z0F1800
G1 X37.93Y90.365Z0F1800
G0 Z3.5F1000
G0 Z3.5
G1 Z0F1000
G1 X37.888Y90.185Z0F1800
G1 X37.77Y90.012Z0F1800
G0 Z3.5F1000
G0 Z3.5
G1 Z0F1000
G1 Y89.974Z0F1800
G0 Z3.5F1000
G0 Y90.012Z3.5
G1 Z0F1000
G1 X36.647Y90.661Z0F1800
G0 Z3.5F1000
G0 X36.229Y90.419Z3.5
G1 Z0F1000
G1 Y91.531Z0F1800
G0 Z3.5F1000
G0 X36.388Y91.401Z3.5
G1 Z0F1000
G1 X36.421Y91.42Z0F1800
G0 Z3.5F1000
G0 Z3.5
G1 Z0F1000
G1 X37.77Y90.641Z0F1800
G0 Z3.5F1000
G0 X37.93Y90.365Z3.5
G1 Z0F1000
G1 Y89.882Z0F1800
G0 Z3.5F1000
G0 X30.949Y91.598Z3.5
G1 Z0F1000
G1 X30.779Y91.517Z0F1800
G1 X30.589Y91.46Z0F1800
G1 X30.387Y91.425Z0F1800
G1 X30.179Y91.414Z0F1800
G1 X29.971Y91.425Z0F1800
G1 X29.769Y91.46Z0F1800
G1 X29.579Y91.517Z0F1800
G1 X29.408Y91.598Z0F1800
G0 Z3.5F1000
G0 Z3.5
G1 Z0F1000
G1 X29.268Y91.697Z0F1800
G1 X29.169Y91.806Z0F1800
G1 X29.109Y91.923Z0F1800
G1 X29.089Y92.043Z0F1800
G1 X29.109Y92.163Z0F1800
G1 X29.169Y92.28Z0F1800
G1 X29.268Y92.389Z0F1800
G1 X29.408Y92.488Z0F1800
G1 X29.579Y92.569Z0F1800
G1 X29.769Y92.626Z0F1800
G1 X29.971Y92.661Z0F1800
G1 X30.179Y92.672Z0F1800
G1 X30.387Y92.661Z0F1800
G1 X30.589Y92.626Z0F1800
G1 X30.779Y92.569Z0F1800
G1 X30.949Y92.488Z0F1800
G0 Z3.5F1000
G0 Z3.5
G1 Z0F1000
G1 X31.089Y92.389Z0F1800
G1 X31.189Y92.28Z0F1800
G1 X31.249Y92.163Z0F1800
G1 X31.269Y92.043Z0F1800
G1 X31.249Y91.923Z0F1800
G1 X31.189Y91.806Z0F1800
G1 X31.089Y91.697Z0F1800
G1 X30.949Y91.598Z0F1800
G0 Z3.5F1000
G0 X30.785Y91.52Z3.5
G1 Z0F1000
G1 X30.861Y91.622Z0F1800
G1 X30.887Y91.732Z0F1800
G0 Z3.5F1000
G0 Z3.5
G1 Z0F1000
G1 X30.874Y91.812Z0F1800
G1 X30.833Y91.888Z0F1800
G1 X30.768Y91.959Z0F1800
G1 X30.68Y92.021Z0F1800
G0 Z3.5F1000
G0 Z3.5
G1 Z0F1000
G1 X30.511Y92.093Z0F1800
G1 X30.317Y92.133Z0F1800
G1 X30.112Y92.139Z0F1800
G1 X29.908Y92.109Z0F1800
G1 X29.728Y92.047Z0F1800
G1 X29.59Y91.959Z0F1800
G1 X29.501Y91.852Z0F1800
G1 X29.47Y91.732Z0F1800
G0 Z3.5F1000
G0 Z3.5
G1 Z0F1000
G1 X29.496Y91.622Z0F1800
G1 X29.572Y91.52Z0F1800
G0 Z3.5F1000
G0 X37.32Y107.566Z3.5
G1 Z0F1000
G1 X53.669Z0F1800
G0 Z3.5F1000
G0 Z3.5
G1 Z0F1000
G1 Y109.474Z0F1800
G0 Z3.5F1000
G0 Z3.5
G1 Z0F1000
G1 Y109.746Z0F1800
G0 Z3.5F1000
G0 Z3.5
G1 Z0F1000
G1 X53.73Y109.75Z0F1800
G1 X53.79Y109.76Z0F1800
G1 X53.849Y109.777Z0F1800
G1 X53.905Y109.8Z0F1800
G1 X53.958Y109.83Z0F1800
G1 X54.008Y109.865Z0F1800
G1 X54.054Y109.906Z0F1800
G1 X54.095Y109.951Z0F1800
G1 X54.13Y110.001Z0F1800
G1 X54.16Y110.055Z0F1800
G1 X54.183Y110.111Z0F1800
G1 X54.2Y110.17Z0F1800
G1 X54.21Y110.23Z0F1800
G1 X54.213Y110.291Z0F1800
G0 Z3.5F1000
G0 Z3.5
G1 Z0F1000
G1 Y111.604Z0F1800
G0 Z3.5F1000
G0 Z3.5
G1 Z0F1000
G1 X54.443Z0F1800
G0 Z3.5F1000
G0 Z3.5
G1 Z0F1000
G1 X55.011Y113.165Z0F1800
G0 Z3.5F1000
G0 Z3.5
G1 Z0F1000
G1 X55.595Z0F1800
G0 Z3.5F1000
G0 Z3.5
G1 Z0F1000
G1 X56.163Y111.604Z0F1800
G0 Z3.5F1000
G0 Z3.5
G1 Z0F1000
G1 X56.622Z0F1800
G0 Z3.5F1000
G0 Z3.5
G1 Z0F1000
G1 X57.19Y113.165Z0F1800
G0 Z3.5F1000
G0 Z3.5
G1 Z0F1000
G1 X57.774Z0F1800
G0 Z3.5F1000
G0 Z3.5
G1 Z0F1000
G1 X58.342Y111.604Z0F1800
G0 Z3.5F1000
G0 Z3.5
G1 Z0F1000
G1 X58.801Z0F1800
G0 Z3.5F1000
G0 Z3.5
G1 Z0F1000
G1 X59.369Y113.165Z0F1800
G0 Z3.5F1000
G0 Z3.5
G1 Z0F1000
G1 X59.953Z0F1800
G0 Z3.5F1000
G0 Z3.5
G1 Z0F1000
G1 X60.521Y111.604Z0F1800
G0 Z3.5F1000
G0 Z3.5
G1 Z0F1000
G1 X60.979Z0F1800
G0 Z3.5F1000
G0 Z3.5
G1 Z0F1000
G1 X61.547Y113.165Z0F1800
G0 Z3.5F1000
G0 Z3.5
G1 Z0F1000
G1 X62.132Z0F1800
G0 Z3.5F1000
G0 Z3.5
G1 Z0F1000
G1 X62.7Y111.604Z0F1800
G0 Z3.5F1000
G0 Z3.5
G1 Z0F1000
G1 X63.158Z0F1800
G0 Z3.5F1000
G0 Z3.5
G1 Z0F1000
G1 X63.726Y113.165Z0F1800
G0 Z3.5F1000
G0 Z3.5
G1 Z0F1000
G1 X64.311Z0F1800
G0 Z3.5F1000
G0 Z3.5
G1 Z0F1000
G1 X64.879Y111.604Z0F1800
G0 Z3.5F1000
G0 Z3.5
G1 Z0F1000
G1 X65.337Z0F1800
G0 Z3.5F1000
G0 Z3.5
G1 Z0F1000
G1 X65.905Y113.165Z0F1800
G0 Z3.5F1000
G0 Z3.5
G1 Z0F1000
G1 X66.49Z0F1800
G0 Z3.5F1000
G0 Z3.5
G1 Z0F1000
G1 X67.058Y111.604Z0F1800
G0 Z3.5F1000
G0 Z3.5
G1 Z0F1000
G1 X67.516Z0F1800
G0 Z3.5F1000
G0 Z3.5
G1 Z0F1000
G1 X68.084Y113.165Z0F1800
G0 Z3.5F1000
G0 Z3.5
G1 Z0F1000
G1 X68.669Z0F1800
G0 Z3.5F1000
G0 Z3.5
G1 Z0F1000
G1 X69.237Y111.604Z0F1800
G0 Z3.5F1000
G0 Z3.5
G1 Z0F1000
G1 X69.695Z0F1800
G0 Z3.5F1000
G0 Z3.5
G1 Z0F1000
G1 X70.263Y113.165Z0F1800
G0 Z3.5F1000
G0 Z3.5
G1 Z0F1000
G1 X70.848Z0F1800
G0 Z3.5F1000
G0 Z3.5
G1 Z0F1000
G1 X71.416Y111.604Z0F1800
G0 Z3.5F1000
G0 Z3.5
G1 Z0F1000
G1 X71.874Z0F1800
G0 Z3.5F1000
G0 Z3.5
G1 Z0F1000
G1 X72.442Y113.165Z0F1800
G0 Z3.5F1000
G0 Z3.5
G1 Z0F1000
G1 X73.027Z0F1800
G0 Z3.5F1000
G0 Z3.5
G1 Z0F1000
G1 X73.595Y111.604Z0F1800
G0 Z3.5F1000
G0 Z3.5
G1 Z0F1000
G1 X74.053Z0F1800
G0 Z3.5F1000
G0 Z3.5
G1 Z0F1000
G1 X74.621Y113.165Z0F1800
G0 Z3.5F1000
G0 Z3.5
G1 Z0F1000
G1 X75.206Z0F1800
G0 Z3.5F1000
G0 Z3.5
G1 Z0F1000
G1 X75.774Y111.604Z0F1800
G0 Z3.5F1000
G0 Z3.5
G1 Z0F1000
G1 X76.232Z0F1800
G0 Z3.5F1000
G0 Z3.5
G1 Z0F1000
G1 X76.8Y113.165Z0F1800
G0 Z3.5F1000
G0 Z3.5
G1 Z0F1000
G1 X77.385Z0F1800
G0 Z3.5F1000
G0 Z3.5
G1 Z0F1000
G1 X77.953Y111.604Z0F1800
G0 Z3.5F1000
G0 Z3.5
G1 Z0F1000
G1 X78.411Z0F1800
G0 Z3.5F1000
G0 Z3.5
G1 Z0F1000
G1 X78.979Y113.165Z0F1800
G0 Z3.5F1000
G0 Z3.5
G1 Z0F1000
G1 X79.564Z0F1800
G0 Z3.5F1000
G0 Z3.5
G1 Z0F1000
G1 X80.132Y111.604Z0F1800
G0 Z3.5F1000
G0 Z3.5
G1 Z0F1000
G1 X80.59Z0F1800
G0 Z3.5F1000
G0 Z3.5
G1 Z0F1000
G1 X81.158Y113.165Z0F1800
G0 Z3.5F1000
G0 Z3.5
G1 Z0F1000
G1 X81.743Z0F1800
G0 Z3.5F1000
G0 Z3.5
G1 Z0F1000
G1 X82.311Y111.604Z0F1800
G0 Z3.5F1000
G0 Z3.5
G1 Z0F1000
G1 X82.769Z0F1800
G0 Z3.5F1000
G0 Z3.5
G1 Z0F1000
G1 X83.337Y113.165Z0F1800
G0 Z3.5F1000
G0 Z3.5
G1 Z0F1000
G1 X83.922Z0F1800
G0 Z3.5F1000
G0 Z3.5
G1 Z0F1000
G1 X84.49Y111.604Z0F1800
G0 Z3.5F1000
G0 Z3.5
G1 Z0F1000
G1 X84.948Z0F1800
G0 Z3.5F1000
G0 Z3.5
G1 Z0F1000
G1 X85.516Y113.165Z0F1800
G0 Z3.5F1000
G0 Z3.5
G1 Z0F1000
G1 X86.1Z0F1800
G0 Z3.5F1000
G0 Z3.5
G1 Z0F1000
G1 X86.668Y111.604Z0F1800
G0 Z3.5F1000
G0 Z3.5
G1 Z0F1000
G1 X87.127Z0F1800
G0 Z3.5F1000
G0 Z3.5
G1 Z0F1000
G1 X87.695Y113.165Z0F1800
G0 Z3.5F1000
G0 Z3.5
G1 Z0F1000
G1 X88.279Z0F1800
G0 Z3.5F1000
G0 Z3.5
G1 Z0F1000
G1 X88.847Y111.604Z0F1800
G0 Z3.5F1000
G0 Z3.5
G1 Z0F1000
G1 X89.306Z0F1800
G0 Z3.5F1000
G0 Z3.5
G1 Z0F1000
G1 X89.874Y113.165Z0F1800
G0 Z3.5F1000
G0 Z3.5
G1 Z0F1000
G1 X90.458Z0F1800
G0 Z3.5F1000
G0 Z3.5
G1 Z0F1000
G1 X91.026Y111.604Z0F1800
G0 Z3.5F1000
G0 Z3.5
G1 Z0F1000
G1 X91.485Z0F1800
G0 Z3.5F1000
G0 Z3.5
G1 Z0F1000
G1 X92.053Y113.165Z0F1800
G0 Z3.5F1000
G0 Z3.5
G1 Z0F1000
G1 X92.637Z0F1800
G0 Z3.5F1000
G0 Z3.5
G1 Z0F1000
G1 X93.205Y111.604Z0F1800
G0 Z3.5F1000
G0 Z3.5
G1 Z0F1000
G1 X93.664Z0F1800
G0 Z3.5F1000
G0 Z3.5
G1 Z0F1000
G1 X94.232Y113.165Z0F1800
G0 Z3.5F1000
G0 Z3.5
G1 Z0F1000
G1 X94.816Z0F1800
G0 Z3.5F1000
G0 Z3.5
G1 Z0F1000
G1 X95.384Y111.604Z0F1800
G0 Z3.5F1000
G0 Z3.5
G1 Z0F1000
G1 X95.843Z0F1800
G0 Z3.5F1000
G0 Z3.5
G1 Z0F1000
G1 X96.411Y113.165Z0F1800
G0 Z3.5F1000
G0 Z3.5
G1 Z0F1000
G1 X96.995Z0F1800
G0 Z3.5F1000
G0 Z3.5
G1 Z0F1000
G1 X97.563Y111.604Z0F1800
G0 Z3.5F1000
G0 Z3.5
G1 Z0F1000
G1 X98.022Z0F1800
G0 Z3.5F1000
G0 Z3.5
G1 Z0F1000
G1 X98.59Y113.165Z0F1800
G0 Z3.5F1000
G0 Z3.5
G1 Z0F1000
G1 X99.174Z0F1800
G0 Z3.5F1000
G0 Z3.5
G1 Z0F1000
G1 X99.742Y111.604Z0F1800
G0 Z3.5F1000
G0 Z3.5
G1 Z0F1000
G1 X100.201Z0F1800
G0 Z3.5F1000
G0 Z3.5
G1 Z0F1000
G1 X100.769Y113.165Z0F1800
G0 Z3.5F1000
G0 Z3.5
G1 Z0F1000
G1 X101.353Z0F1800
G0 Z3.5F1000
G0 Z3.5
G1 Z0F1000
G1 X101.921Y111.604Z0F1800
G0 Z3.5F1000
G0 Z3.5
G1 Z0F1000
G1 X102.379Z0F1800
G0 Z3.5F1000
G0 Z3.5
G1 Z0F1000
G1 X102.947Y113.165Z0F1800
G0 Z3.5F1000
G0 Z3.5
G1 Z0F1000
G1 X103.532Z0F1800
G0 Z3.5F1000
G0 Z3.5
G1 Z0F1000
G1 X104.1Y111.604Z0F1800
G0 Z3.5F1000
G0 Z3.5
G1 Z0F1000
G1 X104.558Z0F1800
G0 Z3.5F1000
G0 Z3.5
G1 Z0F1000
G1 X105.126Y113.165Z0F1800
G0 Z3.5F1000
G0 Z3.5
G1 Z0F1000
G1 X105.711Z0F1800
G0 Z3.5F1000
G0 Z3.5
G1 Z0F1000
G1 X106.279Y111.604Z0F1800
G0 Z3.5F1000
G0 Z3.5
G1 Z0F1000
G1 X106.737Z0F1800
G0 Z3.5F1000
G0 Z3.5
G1 Z0F1000
G1 X107.305Y113.165Z0F1800
G0 Z3.5F1000
G0 Z3.5
G1 Z0F1000
G1 X107.89Z0F1800
G0 Z3.5F1000
G0 Z3.5
G1 Z0F1000
G1 X108.458Y111.604Z0F1800
G0 Z3.5F1000
G0 Z3.5
G1 Z0F1000
G1 X108.916Z0F1800
G0 Z3.5F1000
G0 Z3.5
G1 Z0F1000
G1 X109.484Y113.165Z0F1800
G0 Z3.5F1000
G0 Z3.5
G1 Z0F1000
G1 X110.069Z0F1800
G0 Z3.5F1000
G0 Z3.5
G1 Z0F1000
G1 X110.637Y111.604Z0F1800
G0 Z3.5F1000
G0 Z3.5
G1 Z0F1000
G1 X110.866Z0F1800
G0 Z3.5F1000
G0 Z3.5
G1 Z0F1000
G1 Y111.331Z0F1800
G0 Z3.5F1000
G0 Z3.5
G1 Z0F1000
G1 X54.213Z0F1800
G0 Z3.5F1000
G0 Y111.604Z3.5
G1 Z0F1000
G1 Y118.683Z0F1800
G0 Z3.5F1000
G0 Z3.5
G1 Z0F1000
G1 X54.21Y118.744Z0F1800
G1 X54.2Y118.805Z0F1800
G1 X54.183Y118.863Z0F1800
G1 X54.16Y118.92Z0F1800
G1 X54.13Y118.973Z0F1800
G1 X54.095Y119.023Z0F1800
G1 X54.054Y119.069Z0F1800
G1 X54.008Y119.109Z0F1800
G1 X53.958Y119.145Z0F1800
G1 X53.905Y119.174Z0F1800
G1 X53.849Y119.198Z0F1800
G1 X53.79Y119.215Z0F1800
G1 X53.73Y119.225Z0F1800
G1 X53.669Y119.228Z0F1800
G0 Z3.5F1000
G0 Z3.5
G1 Z0F1000
G1 X37.32Z0F1800
G0 Z3.5F1000
G0 Z3.5
G1 Z0F1000
G1 X37.259Y119.225Z0F1800
G1 X37.199Y119.215Z0F1800
G1 X37.14Y119.198Z0F1800
G1 X37.083Y119.174Z0F1800
G1 X37.03Y119.145Z0F1800
G1 X36.98Y119.109Z0F1800
G1 X36.935Y119.069Z0F1800
G1 X36.894Y119.023Z0F1800
G1 X36.858Y118.973Z0F1800
G1 X36.829Y118.92Z0F1800
G1 X36.805Y118.863Z0F1800
G1 X36.789Y118.805Z0F1800
G1 X36.778Y118.744Z0F1800
G1 X36.775Y118.683Z0F1800
G0 Z3.5F1000
G0 Y119.275Z3.5
G1 Z0F1000
G1 X36.778Y119.3Z0F1800
G1 X36.789Y119.325Z0F1800
G1 X36.805Y119.35Z0F1800
G1 X36.829Y119.373Z0F1800
G1 X36.858Y119.395Z0F1800
G1 X36.894Y119.416Z0F1800
G1 X36.935Y119.435Z0F1800
G1 X36.98Y119.452Z0F1800
G1 X37.03Y119.466Z0F1800
G1 X37.083Y119.478Z0F1800
G1 X37.14Y119.488Z0F1800
G1 X37.199Y119.495Z0F1800
G1 X37.259Y119.499Z0F1800
G1 X37.32Z0F1800
G0 Z3.5F1000
G0 Y119.501Z3.5
G1 Z0F1000
G1 X53.669Z0F1800
G0 Z3.5F1000
G0 Z3.5
G1 Z0F1000
G1 Y121.408Z0F1800
G0 Z3.5F1000
G0 Z3.5
G1 Z0F1000
G1 X37.32Z0F1800
G0 Z3.5F1000
G0 Z3.5
G1 Z0F1000
G1 X37.259Y121.405Z0F1800
G1 X37.199Y121.395Z0F1800
G1 X37.14Y121.378Z0F1800
G1 X37.083Y121.354Z0F1800
G1 X37.03Y121.325Z0F1800
G1 X36.98Y121.289Z0F1800
G1 X36.935Y121.249Z0F1800
G1 X36.894Y121.203Z0F1800
G1 X36.858Y121.153Z0F1800
G1 X36.829Y121.1Z0F1800
G1 X36.805Y121.043Z0F1800
G1 X36.789Y120.984Z0F1800
G1 X36.778Y120.924Z0F1800
G1 X36.775Y120.863Z0F1800
G0 Z3.5F1000
G0 Z3.5
G1 Z0F1000
G1 Y108.111Z0F1800
G0 Z3.5F1000
G0 Z3.5
G1 Z0F1000
G1 X36.778Y108.05Z0F1800
G1 X36.789Y107.99Z0F1800
G1 X36.805Y107.931Z0F1800
G1 X36.829Y107.875Z0F1800
G1 X36.858Y107.821Z0F1800
G1 X36.894Y107.772Z0F1800
G1 X36.935Y107.726Z0F1800
G1 X36.98Y107.685Z0F1800
G1 X37.03Y107.65Z0F1800
G1 X37.083Y107.62Z0F1800
G1 X37.14Y107.597Z0F1800
G1 X37.199Y107.58Z0F1800
G1 X37.259Y107.57Z0F1800
G1 X37.32Y107.566Z0F1800
G0 Z3.5F1000
G0 Z3.5
G1 Z0F1000
G1 Y109.474Z0F1800
G0 Z3.5F1000
G0 Z3.5
G1 Z0F1000
G1 X53.669Z0F1800
G0 Z3.5F1000
G0 Z3.5
G1 Z0F1000
G1 X110.866Z0F1800
G0 Z3.5F1000
G0 Z3.5
G1 Z0F1000
G1 X110.927Z0F1800
G1 X110.987Y109.48Z0F1800
G1 X111.046Y109.486Z0F1800
G1 X111.102Y109.496Z0F1800
G1 X111.156Y109.508Z0F1800
G1 X111.206Y109.523Z0F1800
G1 X111.251Y109.54Z0F1800
G1 X111.292Y109.559Z0F1800
G1 X111.327Y109.579Z0F1800
G1 X111.357Y109.601Z0F1800
G1 X111.38Y109.625Z0F1800
G1 X111.397Y109.649Z0F1800
G1 X111.408Y109.674Z0F1800
G1 X111.411Y109.699Z0F1800
G0 Z3.5F1000
G0 X110.866Y109.474Z3.5
G1 Z0F1000
G1 Y111.331Z0F1800
G0 Z3.5F1000
G0 Z3.5
G1 Z0F1000
G1 X110.927Y111.328Z0F1800
G1 X110.987Y111.318Z0F1800
G1 X111.046Y111.301Z0F1800
G1 X111.103Y111.278Z0F1800
G1 X111.156Y111.248Z0F1800
G1 X111.206Y111.213Z0F1800
G1 X111.251Y111.172Z0F1800
G1 X111.292Y111.126Z0F1800
G1 X111.327Y111.076Z0F1800
G1 X111.357Y111.023Z0F1800
G1 X111.38Y110.967Z0F1800
G1 X111.397Y110.908Z0F1800
G1 X111.408Y110.848Z0F1800
G1 X111.411Y110.787Z0F1800
G0 Z3.5F1000
G0 Z3.5
G1 Z0F1000
G1 Y108.111Z0F1800
G0 Z3.5F1000
G0 Z3.5
G1 Z0F1000
G1 X111.408Y108.05Z0F1800
G1 X111.397Y107.99Z0F1800
G1 X111.38Y107.931Z0F1800
G1 X111.357Y107.875Z0F1800
G1 X111.327Y107.821Z0F1800
G1 X111.292Y107.772Z0F1800
G1 X111.251Y107.726Z0F1800
G1 X111.206Y107.685Z0F1800
G1 X111.156Y107.65Z0F1800
G1 X111.103Y107.62Z0F1800
G1 X111.046Y107.597Z0F1800
G1 X110.987Y107.58Z0F1800
G1 X110.927Y107.57Z0F1800
G1 X110.866Y107.566Z0F1800
G0 Z3.5F1000
G0 Z3.5
G1 Z0F1000
G1 X53.669Z0F1800
G0 Z3.5F1000
G0 Z3.5
G1 Z0F1000
G1 Y109.474Z0F1800
G0 Z3.5F1000
G0 Z3.5
G1 Z0F1000
G1 X53.73Z0F1800
G1 X53.79Y109.48Z0F1800
G1 X53.849Y109.486Z0F1800
G1 X53.905Y109.496Z0F1800
G1 X53.958Y109.508Z0F1800
G1 X54.008Y109.523Z0F1800
G1 X54.054Y109.54Z0F1800
G1 X54.095Y109.559Z0F1800
G1 X54.13Y109.579Z0F1800
G1 X54.16Y109.601Z0F1800
G1 X54.183Y109.625Z0F1800
G1 X54.2Y109.649Z0F1800
G1 X54.21Y109.674Z0F1800
G1 X54.213Y109.699Z0F1800
G0 Z3.5F1000
G0 X53.669Y109.746Z3.5
G1 Z0F1000
G1 X37.32Z0F1800
G0 Z3.5F1000
G0 Z3.5
G1 Z0F1000
G1 X37.259Y109.75Z0F1800
G1 X37.199Y109.76Z0F1800
G1 X37.14Y109.777Z0F1800
G1 X37.083Y109.8Z0F1800
G1 X37.03Y109.83Z0F1800
G1 X36.98Y109.865Z0F1800
G1 X36.935Y109.906Z0F1800
G1 X36.894Y109.951Z0F1800
G1 X36.858Y110.001Z0F1800
G1 X36.829Y110.055Z0F1800
G1 X36.805Y110.111Z0F1800
G1 X36.789Y110.17Z0F1800
G1 X36.778Y110.23Z0F1800
G1 X36.775Y110.291Z0F1800
G0 Z3.5F1000
G0 Y109.699Z3.5
G1 Z0F1000
G1 X36.778Y109.674Z0F1800
G1 X36.789Y109.649Z0F1800
G1 X36.805Y109.625Z0F1800
G1 X36.829Y109.601Z0F1800
G1 X36.858Y109.579Z0F1800
G1 X36.894Y109.559Z0F1800
G1 X36.935Y109.54Z0F1800
G1 X36.98Y109.523Z0F1800
G1 X37.03Y109.508Z0F1800
G1 X37.083Y109.496Z0F1800
G1 X37.14Y109.487Z0F1800
G1 X37.199Y109.479Z0F1800
G1 X37.259Y109.475Z0F1800
G1 X37.32Z0F1800
G0 Z3.5F1000
G0 Y109.474Z3.5
G1 Z0F1000
G1 Y109.746Z0F1800
G0 Z3.5F1000
G0 Z3.5
G1 Z0F1000
G1 Y119.228Z0F1800
G0 Z3.5F1000
G0 Z3.5
G1 Z0F1000
G1 Y119.501Z0F1800
G0 Z3.5F1000
G0 Z3.5
G1 Z0F1000
G1 Y121.408Z0F1800
G0 Z3.5F1000
G0 X41.035Y114.722Z3.5
G1 Z0F1000
G1 X41.135Y114.742Z0F1800
G1 X41.234Y114.722Z0F1800
G1 X41.315Y114.668Z0F1800
G1 X41.37Y114.587Z0F1800
G1 X41.39Y114.487Z0F1800
G1 X41.37Y114.388Z0F1800
G1 X41.315Y114.307Z0F1800
G1 X41.234Y114.252Z0F1800
G1 X41.135Y114.232Z0F1800
G1 X41.035Y114.252Z0F1800
G1 X40.954Y114.307Z0F1800
G1 X40.9Y114.388Z0F1800
G1 X40.88Y114.487Z0F1800
G1 X40.9Y114.587Z0F1800
G1 X40.954Y114.668Z0F1800
G1 X41.035Y114.722Z0F1800
G0 Z3.5F1000
G0 X40.547Y114.883Z3.5
G1 Z0F1000
G1 X40.634Y114.988Z0F1800
G1 X40.738Y115.075Z0F1800
G1 X40.859Y115.14Z0F1800
G1 X40.992Y115.181Z0F1800
G1 X41.135Y115.196Z0F1800
G1 X41.277Y115.181Z0F1800
G1 X41.41Y115.14Z0F1800
G1 X41.531Y115.075Z0F1800
G1 X41.636Y114.988Z0F1800
G1 X41.722Y114.883Z0F1800
G1 X41.787Y114.763Z0F1800
G1 X41.829Y114.63Z0F1800
G1 X41.843Y114.487Z0F1800
G1 X41.829Y114.344Z0F1800
G1 X41.787Y114.212Z0F1800
G1 X41.722Y114.091Z0F1800
G1 X41.636Y113.986Z0F1800
G1 X41.531Y113.9Z0F1800
G1 X41.41Y113.834Z0F1800
G1 X41.277Y113.793Z0F1800
G1 X41.135Y113.779Z0F1800
G1 X40.992Y113.793Z0F1800
G1 X40.859Y113.834Z0F1800
G1 X40.738Y113.9Z0F1800
G1 X40.634Y113.986Z0F1800
G1 X40.547Y114.091Z0F1800
G1 X40.482Y114.212Z0F1800
G1 X40.441Y114.344Z0F1800
G1 X40.426Y114.487Z0F1800
G1 X40.441Y114.63Z0F1800
G1 X40.482Y114.763Z0F1800
G1 X40.547Y114.883Z0F1800
G0 Z3.5F1000
G0 X40.13Y114.911Z3.5
G1 Z0F1000
G1 X40.231Y115.097Z0F1800
G1 X40.364Y115.258Z0F1800
G1 X40.525Y115.391Z0F1800
G1 X40.71Y115.492Z0F1800
G1 X40.915Y115.555Z0F1800
G1 X41.135Y115.577Z0F1800
G1 X41.354Y115.555Z0F1800
G1 X41.559Y115.492Z0F1800
G1 X41.744Y115.391Z0F1800
G1 X41.905Y115.258Z0F1800
G1 X42.038Y115.097Z0F1800
G1 X42.139Y114.911Z0F1800
G1 X42.202Y114.707Z0F1800
G1 X42.224Y114.487Z0F1800
G1 X42.202Y114.268Z0F1800
G1 X42.139Y114.063Z0F1800
G1 X42.038Y113.878Z0F1800
G1 X41.905Y113.717Z0F1800
G1 X41.744Y113.583Z0F1800
G1 X41.559Y113.483Z0F1800
G1 X41.354Y113.42Z0F1800
G1 X41.135Y113.397Z0F1800
G1 X40.915Y113.42Z0F1800
G1 X40.71Y113.483Z0F1800
G1 X40.525Y113.583Z0F1800
G1 X40.364Y113.717Z0F1800
G1 X40.231Y113.878Z0F1800
G1 X40.13Y114.063Z0F1800
G1 X40.067Y114.268Z0F1800
G1 X40.045Y114.487Z0F1800
G1 X40.067Y114.707Z0F1800
G1 X40.13Y114.911Z0F1800
G0 Z3.5F1000
G0 X30.759Y114.007Z3.5
G1 Z0F1000
G1 Y113.189Z0F1800
G0 Z3.5F1000
G0 Z3.5
G1 Z0F1000
G1 X22.516Z0F1800
G0 Z3.5F1000
G0 Z3.5
G1 Z0F1000
G1 Y115.914Z0F1800
G0 Z3.5F1000
G0 Z3.5
G1 Z0F1000
G1 X20.955Z0F1800
G0 Z3.5F1000
G0 Z3.5
G1 Z0F1000
G1 Y113.189Z0F1800
G0 Z3.5F1000
G0 Z3.5
G1 Z0F1000
G1 X20.683Z0F1800
G0 Z3.5F1000
G0 Z3.5
G1 Z0F1000
G1 Y115.914Z0F1800
G0 Z3.5F1000
G0 Z3.5
G1 Z0F1000
G1 X20.955Z0F1800
G0 Z3.5F1000
G0 X20.683Z3.5
G1 Z0F1000
G1 X18.825Z0F1800
G0 Z3.5F1000
G0 Z3.5
G1 Z0F1000
G1 X19.051Y115.369Z0F1800
G0 Z3.5F1000
G0 Z3.5
G1 Z0F1000
G1 X20.138Z0F1800
G0 Z3.5F1000
G0 Z3.5
G1 Z0F1000
G1 X20.683Y115.914Z0F1800
G0 Z3.5F1000
G0 X20.138Y115.369Z3.5
G1 Z0F1000
G1 Y113.734Z0F1800
G0 Z3.5F1000
G0 Z3.5
G1 Z0F1000
G1 X20.683Y113.189Z0F1800
G0 Z3.5F1000
G0 Z3.5
G1 Z0F1000
G1 X16.918Z0F1800
G0 Z3.5F1000
G0 Z3.5
G1 Z0F1000
G1 Y114.007Z0F1800
G0 Z3.5F1000
G0 Z3.5
G1 Z0F1000
G1 X18.825Y115.914Z0F1800
G0 Z3.5F1000
G0 X19.097Z3.5
G1 Z0F1000
G1 Y117.276Z0F1800
G0 Z3.5F1000
G0 Z3.5
G1 Z0F1000
G1 X19.642Y116.731Z0F1800
G0 Z3.5F1000
G0 Z3.5
G1 Z0F1000
G1 Y115.914Z0F1800
G0 Z3.5F1000
G0 X19.051Y115.369Z3.5
G1 Z0F1000
G1 X17.462Y113.781Z0F1800
G0 Z3.5F1000
G0 Z3.5
G1 Z0F1000
G1 X16.918Y114.007Z0F1800
G0 Z3.5F1000
G0 X17.462Y113.781Z3.5
G1 Z0F1000
G1 Y113.734Z0F1800
G0 Z3.5F1000
G0 Z3.5
G1 Z0F1000
G1 X16.918Y113.189Z0F1800
G0 Z3.5F1000
G0 X17.462Y113.734Z3.5
G1 Z0F1000
G1 X20.138Z0F1800
G0 Z3.5F1000
G0 X20.955Y113.189Z3.5
G1 Z0F1000
G1 X22.516Z0F1800
G0 Z3.5F1000
G0 Y113.734Z3.5
G1 Z0F1000
G1 X30.214Z0F1800
G0 Z3.5F1000
G0 Z3.5
G1 Z0F1000
G1 X30.759Y113.189Z0F1800
G0 Z3.5F1000
G0 X30.214Y113.734Z3.5
G1 Z0F1000
G1 Y113.781Z0F1800
G0 Z3.5F1000
G0 Z3.5
G1 Z0F1000
G1 X30.759Y114.007Z0F1800
G0 Z3.5F1000
G0 Z3.5
G1 Z0F1000
G1 X28.852Y115.914Z0F1800
G0 Z3.5F1000
G0 Z3.5
G1 Z0F1000
G1 X28.626Y115.369Z0F1800
G0 Z3.5F1000
G0 Z3.5
G1 Z0F1000
G1 X30.214Y113.781Z0F1800
G0 Z3.5F1000
G0 X28.58Y113.189Z3.5
G1 Z0F1000
G1 X14.104Z0F1800
G0 Z3.5F1000
G0 X13.723Y113.475Z3.5
G1 Z0F1000
G1 X11.364Y114.384Z0F1800
G1 Y113.106Z0F1800
G1 X11.061Z0F1800
G1 Y114.818Z0F1800
G1 X11.214Z0F1800
G1 X13.723Y113.851Z0F1800
G1 Y113.475Z0F1800
G0 Z3.5F1000
G0 X15.63Y113.189Z3.5
G1 Z0F1000
G1 X15.312Y111.282Z0F1800
G1 X15.948Z0F1800
G1 X15.63Y113.189Z0F1800
G0 Z3.5F1000
G0 X13.723Y115.519Z3.5
G1 Z0F1000
G1 X13.27Z0F1800
G1 Y115.895Z0F1800
G1 X13.723Z0F1800
G1 Y115.519Z0F1800
G0 Z3.5F1000
G0 X13.66Y116.571Z3.5
G1 Z0F1000
G1 X13.298Z0F1800
G1 X13.374Y116.734Z0F1800
G1 X13.428Y116.903Z0F1800
G1 X13.46Y117.079Z0F1800
G1 X13.471Y117.264Z0F1800
G1 X13.461Y117.411Z0F1800
G1 X13.431Y117.541Z0F1800
G1 X13.38Y117.655Z0F1800
G1 X13.309Y117.753Z0F1800
G1 X13.221Y117.832Z0F1800
G1 X13.118Y117.888Z0F1800
G1 X13.001Y117.922Z0F1800
G1 X12.869Y117.933Z0F1800
G1 X12.737Y117.922Z0F1800
G1 X12.62Y117.888Z0F1800
G1 X12.517Y117.832Z0F1800
G1 X12.428Y117.753Z0F1800
G1 X12.357Y117.655Z0F1800
G1 X12.307Y117.541Z0F1800
G1 X12.276Y117.411Z0F1800
G1 X12.266Y117.264Z0F1800
G1 X12.274Y117.12Z0F1800
G1 X12.298Y116.977Z0F1800
G1 X12.339Y116.832Z0F1800
G1 X12.398Y116.683Z0F1800
G1 X11.061Z0F1800
G1 Y118.097Z0F1800
G1 X11.364Z0F1800
G1 Y117.013Z0F1800
G1 X12.016Z0F1800
G1 X11.993Y117.092Z0F1800
G1 X11.976Y117.17Z0F1800
G1 X11.966Y117.248Z0F1800
G1 X11.963Y117.327Z0F1800
G1 X11.978Y117.538Z0F1800
G1 X12.024Y117.726Z0F1800
G1 X12.101Y117.891Z0F1800
G1 X12.207Y118.033Z0F1800
G1 X12.34Y118.147Z0F1800
G1 X12.495Y118.228Z0F1800
G1 X12.671Y118.277Z0F1800
G1 X12.869Y118.293Z0F1800
G1 X13.071Y118.276Z0F1800
G1 X13.25Y118.226Z0F1800
G1 X13.405Y118.143Z0F1800
G1 X13.536Y118.026Z0F1800
G1 X13.641Y117.878Z0F1800
G1 X13.715Y117.704Z0F1800
G1 X13.76Y117.501Z0F1800
G1 X13.775Y117.271Z0F1800
G1 X13.767Y117.102Z0F1800
G1 X13.746Y116.93Z0F1800
G1 X13.71Y116.753Z0F1800
G1 X13.66Y116.571Z0F1800
G0 Z3.5F1000
G0 X14.104Y117.276Z3.5
G1 Z0F1000
G1 X28.58Z0F1800
G0 Z3.5F1000
G0 Z3.5
G1 Z0F1000
G1 X19.097Z0F1800
G0 Z3.5F1000
G0 X19.642Y116.731Z3.5
G1 Z0F1000
G1 X28.035Z0F1800
G0 Z3.5F1000
G0 Z3.5
G1 Z0F1000
G1 X28.58Y117.276Z0F1800
G0 Z3.5F1000
G0 Z3.5
G1 Z0F1000
G1 Y115.914Z0F1800
G0 Z3.5F1000
G0 Z3.5
G1 Z0F1000
G1 X28.035Y115.369Z0F1800
G0 Z3.5F1000
G0 Z3.5
G1 Z0F1000
G1 X28.626Z0F1800
G0 Z3.5F1000
G0 X28.035Z3.5
G1 Z0F1000
G1 Y116.731Z0F1800
G0 Z3.5F1000
G0 X28.58Y115.914Z3.5
G1 Z0F1000
G1 X28.852Z0F1800
G0 Z3.5F1000
G0 X15.63Y117.276Z3.5
G1 Z0F1000
G1 X15.948Y119.184Z0F1800
G1 X15.312Z0F1800
G1 X15.63Y117.276Z0F1800
G0 Z3.5F1000
G0 Y121.091Z3.5
G1 Z0F1000
G1 Y109.375Z0F1800
G0 Z3.5F1000
G0 X49.619Y114.388Z3.5
G1 Z0F1000
G1 X49.599Y114.487Z0F1800
G1 X49.619Y114.587Z0F1800
G1 X49.674Y114.668Z0F1800
G1 X49.755Y114.722Z0F1800
G1 X49.854Y114.742Z0F1800
G1 X49.953Y114.722Z0F1800
G1 X50.034Y114.668Z0F1800
G1 X50.089Y114.587Z0F1800
G1 X50.109Y114.487Z0F1800
G1 X50.089Y114.388Z0F1800
G1 X50.034Y114.307Z0F1800
G1 X49.953Y114.252Z0F1800
G1 X49.854Y114.232Z0F1800
G1 X49.755Y114.252Z0F1800
G1 X49.674Y114.307Z0F1800
G1 X49.619Y114.388Z0F1800
G0 Z3.5F1000
G0 X49.16Y114.344Z3.5
G1 Z0F1000
G1 X49.145Y114.487Z0F1800
G1 X49.16Y114.63Z0F1800
G1 X49.201Y114.763Z0F1800
G1 X49.266Y114.883Z0F1800
G1 X49.353Y114.988Z0F1800
G1 X49.458Y115.075Z0F1800
G1 X49.578Y115.14Z0F1800
G1 X49.711Y115.181Z0F1800
G1 X49.854Y115.196Z0F1800
G1 X49.997Y115.181Z0F1800
G1 X50.13Y115.14Z0F1800
G1 X50.25Y115.075Z0F1800
G1 X50.355Y114.988Z0F1800
G1 X50.441Y114.883Z0F1800
G1 X50.507Y114.763Z0F1800
G1 X50.548Y114.63Z0F1800
G1 X50.562Y114.487Z0F1800
G1 X50.548Y114.344Z0F1800
G1 X50.507Y114.212Z0F1800
G1 X50.441Y114.091Z0F1800
G1 X50.355Y113.986Z0F1800
G1 X50.25Y113.9Z0F1800
G1 X50.13Y113.834Z0F1800
G1 X49.997Y113.793Z0F1800
G1 X49.854Y113.779Z0F1800
G1 X49.711Y113.793Z0F1800
G1 X49.578Y113.834Z0F1800
G1 X49.458Y113.9Z0F1800
G1 X49.353Y113.986Z0F1800
G1 X49.266Y114.091Z0F1800
G1 X49.201Y114.212Z0F1800
G1 X49.16Y114.344Z0F1800
G0 Z3.5F1000
G0 X48.786Y114.268Z3.5
G1 Z0F1000
G1 X48.764Y114.487Z0F1800
G1 X48.786Y114.707Z0F1800
G1 X48.85Y114.911Z0F1800
G1 X48.95Y115.097Z0F1800
G1 X49.083Y115.258Z0F1800
G1 X49.244Y115.391Z0F1800
G1 X49.43Y115.492Z0F1800
G1 X49.634Y115.555Z0F1800
G1 X49.854Y115.577Z0F1800
G1 X50.074Y115.555Z0F1800
G1 X50.278Y115.492Z0F1800
G1 X50.463Y115.391Z0F1800
G1 X50.625Y115.258Z0F1800
G1 X50.758Y115.097Z0F1800
G1 X50.858Y114.911Z0F1800
G1 X50.922Y114.707Z0F1800
G1 X50.944Y114.487Z0F1800
G1 X50.922Y114.268Z0F1800
G1 X50.858Y114.063Z0F1800
G1 X50.758Y113.878Z0F1800
G1 X50.625Y113.717Z0F1800
G1 X50.463Y113.583Z0F1800
G1 X50.278Y113.483Z0F1800
G1 X50.074Y113.42Z0F1800
G1 X49.854Y113.397Z0F1800
G1 X49.634Y113.42Z0F1800
G1 X49.43Y113.483Z0F1800
G1 X49.244Y113.583Z0F1800
G1 X49.083Y113.717Z0F1800
G1 X48.95Y113.878Z0F1800
G1 X48.85Y114.063Z0F1800
G1 X48.786Y114.268Z0F1800
G0 Z3.5F1000
G0 X53.669Y109.746Z3.5
G1 Z0F1000
G1 Y109.474Z0F1800
G0 Z3.5F1000
G0 Y109.746Z3.5
G1 Z0F1000
G1 Y119.228Z0F1800
G0 Z3.5F1000
G0 Z3.5
G1 Z0F1000
G1 Y119.501Z0F1800
G0 Z3.5F1000
G0 Z3.5
G1 Z0F1000
G1 X53.729Z0F1800
G1 X53.79Y119.495Z0F1800
G1 X53.848Y119.488Z0F1800
G1 X53.905Y119.478Z0F1800
G1 X53.958Y119.466Z0F1800
G1 X54.008Y119.452Z0F1800
G1 X54.054Y119.435Z0F1800
G1 X54.095Y119.416Z0F1800
G1 X54.13Y119.395Z0F1800
G1 X54.16Y119.373Z0F1800
G1 X54.183Y119.35Z0F1800
G1 X54.2Y119.325Z0F1800
G1 X54.21Y119.3Z0F1800
G1 X54.213Y119.275Z0F1800
G0 Z3.5F1000
G0 Y118.683Z3.5
G1 Z0F1000
G1 Y120.863Z0F1800
G0 Z3.5F1000
G0 Z3.5
G1 Z0F1000
G1 X54.21Y120.924Z0F1800
G1 X54.2Y120.984Z0F1800
G1 X54.183Y121.043Z0F1800
G1 X54.16Y121.1Z0F1800
G1 X54.13Y121.153Z0F1800
G1 X54.095Y121.203Z0F1800
G1 X54.054Y121.249Z0F1800
G1 X54.008Y121.289Z0F1800
G1 X53.958Y121.325Z0F1800
G1 X53.905Y121.354Z0F1800
G1 X53.849Y121.378Z0F1800
G1 X53.79Y121.395Z0F1800
G1 X53.73Y121.405Z0F1800
G1 X53.669Y121.408Z0F1800
G0 Z3.5F1000
G0 X53.597Y118.258Z3.5
G1 Z0F1000
G1 X52.929Y118.225Z0F1800
G1 X52.279Y118.125Z0F1800
G1 X51.653Y117.964Z0F1800
G1 X51.052Y117.744Z0F1800
G1 X50.48Y117.469Z0F1800
G1 X49.941Y117.142Z0F1800
G1 X49.437Y116.765Z0F1800
G1 X48.973Y116.343Z0F1800
G1 X48.551Y115.879Z0F1800
G1 X48.175Y115.375Z0F1800
G1 X47.847Y114.836Z0F1800
G1 X47.572Y114.264Z0F1800
G1 X47.352Y113.664Z0F1800
G1 X47.191Y113.037Z0F1800
G1 X47.091Y112.388Z0F1800
G1 X47.058Y111.719Z0F1800
G1 X47.091Y111.05Z0F1800
G1 X47.191Y110.401Z0F1800
G1 X47.352Y109.774Z0F1800
G1 X47.572Y109.173Z0F1800
G1 X47.847Y108.602Z0F1800
G1 X48.175Y108.063Z0F1800
G1 X48.551Y107.559Z0F1800
G1 X48.973Y107.095Z0F1800
G1 X49.437Y106.673Z0F1800
G1 X49.941Y106.296Z0F1800
G1 X50.48Y105.969Z0F1800
G1 X51.052Y105.693Z0F1800
G1 X51.653Y105.473Z0F1800
G1 X52.279Y105.312Z0F1800
G1 X52.929Y105.213Z0F1800
G1 X53.597Y105.179Z0F1800
G1 X54.266Y105.213Z0F1800
G1 X54.915Y105.312Z0F1800
G1 X55.542Y105.473Z0F1800
G1 X56.143Y105.693Z0F1800
G1 X56.714Y105.969Z0F1800
G1 X57.253Y106.296Z0F1800
G1 X57.757Y106.673Z0F1800
G1 X58.221Y107.095Z0F1800
G1 X58.643Y107.559Z0F1800
G1 X59.02Y108.063Z0F1800
G1 X59.347Y108.602Z0F1800
G1 X59.623Y109.173Z0F1800
G1 X59.843Y109.774Z0F1800
G1 X60.004Y110.401Z0F1800
G1 X60.103Y111.05Z0F1800
G1 X60.137Y111.719Z0F1800
G1 X60.103Y112.388Z0F1800
G1 X60.004Y113.037Z0F1800
G1 X59.843Y113.664Z0F1800
G1 X59.623Y114.264Z0F1800
G1 X59.347Y114.836Z0F1800
G1 X59.02Y115.375Z0F1800
G1 X58.643Y115.879Z0F1800
G1 X58.221Y116.343Z0F1800
G1 X57.757Y116.765Z0F1800
G1 X57.253Y117.142Z0F1800
G1 X56.714Y117.469Z0F1800
G1 X56.143Y117.744Z0F1800
G1 X55.542Y117.964Z0F1800
G1 X54.915Y118.125Z0F1800
G1 X54.266Y118.225Z0F1800
G1 X53.597Y118.258Z0F1800
G0 Z3.5F1000
G0 X62.742Y84.03Z3.5
G1 Z0F1000
G1 X62.623Y83.911Z0F1800
G1 X62.525Y83.786Z0F1800
G1 X62.452Y83.648Z0F1800
G1 X62.42Y83.506Z0F1800
G0 Z3.5F1000
G0 Z3.5
G1 Z0F1000
G1 Y83.486Z0F1800
G1 X62.425Y83.467Z0F1800
G0 Z3.5F1000
G0 Z3.5
G1 Z0F1000
G1 X62.548Y83.106Z0F1800
G0 Z3.5F1000
G0 Z3.5
G1 Z0F1000
G1 X61.834Y82.969Z0F1800
G0 Z3.5F1000
G0 Z3.5
G1 Z0F1000
G1 X61.557Y83.3Z0F1800
G0 Z3.5F1000
G0 Z3.5
G1 Z0F1000
G1 X61.489Y83.355Z0F1800
G1 X61.409Y83.404Z0F1800
G1 X61.313Y83.452Z0F1800
G1 X61.21Y83.495Z0F1800
G1 X60.971Y83.576Z0F1800
G1 X60.717Y83.64Z0F1800
G0 Z3.5F1000
G0 Z3.5
G1 Z0F1000
G1 X60.373Y83.502Z0F1800
G0 Z3.5F1000
G0 Z3.5
G1 Z0F1000
G1 X60.388Y83.342Z0F1800
G1 X60.437Y83.184Z0F1800
G1 X60.472Y83.114Z0F1800
G1 X60.516Y83.045Z0F1800
G1 X60.567Y82.984Z0F1800
G1 X60.633Y82.929Z0F1800
G0 Z3.5F1000
G0 Z3.5
G1 Z0F1000
G1 X61.074Y82.663Z0F1800
G0 Z3.5F1000
G0 Z3.5
G1 Z0F1000
G1 X60.603Y82.325Z0F1800
G0 Z3.5F1000
G0 Z3.5
G1 Z0F1000
G1 X60.06Y82.517Z0F1800
G0 Z3.5F1000
G0 Z3.5
G1 Z0F1000
G1 X59.951Y82.542Z0F1800
G1 X59.838Y82.558Z0F1800
G1 X59.712Y82.569Z0F1800
G1 X59.585Y82.573Z0F1800
G1 X59.308Y82.567Z0F1800
G1 X59.035Y82.541Z0F1800
G0 Z3.5F1000
G0 Z3.5
G1 Z0F1000
G1 X58.874Y82.317Z0F1800
G0 Z3.5F1000
G0 Z3.5
G1 Z0F1000
G1 X59.037Y82.188Z0F1800
G1 X59.225Y82.07Z0F1800
G1 X59.321Y82.022Z0F1800
G1 X59.422Y81.978Z0F1800
G1 X59.522Y81.943Z0F1800
G1 X59.63Y81.917Z0F1800
G0 Z3.5F1000
G0 Z3.5
G1 Z0F1000
G1 X60.249Y81.831Z0F1800
G0 Z3.5F1000
G0 Z3.5
G1 Z0F1000
G1 X60.169Y81.4Z0F1800
G0 Z3.5F1000
G0 Z3.5
G1 Z0F1000
G1 X59.533Y81.392Z0F1800
G0 Z3.5F1000
G0 Z3.5
G1 Z0F1000
G1 X59.418Y81.379Z0F1800
G1 X59.307Y81.357Z0F1800
G1 X59.192Y81.326Z0F1800
G1 X59.081Y81.291Z0F1800
G1 X58.854Y81.199Z0F1800
G1 X58.648Y81.092Z0F1800
G0 Z3.5F1000
G0 Z3.5
G1 Z0F1000
G1 X58.723Y80.853Z0F1800
G0 Z3.5F1000
G0 Z3.5
G1 Z0F1000
G1 X58.981Y80.795Z0F1800
G1 X59.249Y80.755Z0F1800
G1 X59.375Y80.744Z0F1800
G1 X59.501Y80.739Z0F1800
G1 X59.618Z0F1800
G1 X59.733Y80.752Z0F1800
G0 Z3.5F1000
G0 Z3.5
G1 Z0F1000
G1 X60.334Y80.874Z0F1800
G0 Z3.5F1000
G0 Z3.5
G1 Z0F1000
G1 X60.672Y80.485Z0F1800
G0 Z3.5F1000
G0 Z3.5
G1 Z0F1000
G1 X60.143Y80.28Z0F1800
G0 Z3.5F1000
G0 Z3.5
G1 Z0F1000
G1 X60.059Y80.233Z0F1800
G1 X59.987Y80.18Z0F1800
G1 X59.918Y80.119Z0F1800
G1 X59.858Y80.054Z0F1800
G1 X59.753Y79.906Z0F1800
G1 X59.68Y79.752Z0F1800
G0 Z3.5F1000
G0 Z3.5
G1 Z0F1000
G1 Y77.527Z0F1800
G0 Z3.5F1000
G0 Z3.5
G1 Z0F1000
G1 X59.966Y77.35Z0F1800
G0 Z3.5F1000
G0 Z3.5
G1 Z0F1000
G1 Y79.574Z0F1800
G0 Z3.5F1000
G0 Z3.5
G1 Z0F1000
G1 X59.68Y79.752Z0F1800
G0 Z3.5F1000
G0 X59.733Y79.87Z3.5
G1 Z0F1000
G1 Y80.752Z0F1800
G0 Z3.5F1000
G0 X60.334Y80.874Z3.5
G1 Z0F1000
G1 Y80.354Z0F1800
G0 Z3.5F1000
G0 X60.911Y79.805Z3.5
G1 Z0F1000
G1 Y77.58Z0F1800
G0 Z3.5F1000
G0 Z3.5
G1 Z0F1000
G1 X60.825Y77.534Z0F1800
G1 X60.728Y77.497Z0F1800
G1 X60.617Y77.461Z0F1800
G1 X60.501Y77.431Z0F1800
G1 X60.238Y77.381Z0F1800
G1 X59.966Y77.35Z0F1800
G0 Z3.5F1000
G0 X60.911Y77.58Z3.5
G1 Z0F1000
G1 X61.303Y77.87Z0F1800
G0 Z3.5F1000
G0 Z3.5
G1 Z0F1000
G1 X61.658Y77.748Z0F1800
G0 Z3.5F1000
G0 X61.303Y77.87Z3.5
G1 Z0F1000
G1 Y80.094Z0F1800
G0 Z3.5F1000
G0 Z3.5
G1 Z0F1000
G1 X60.911Y79.805Z0F1800
G0 Z3.5F1000
G0 Z3.5
G1 Z0F1000
G1 X60.825Y79.759Z0F1800
G1 X60.728Y79.721Z0F1800
G1 X60.617Y79.686Z0F1800
G1 X60.501Y79.656Z0F1800
G1 X60.238Y79.606Z0F1800
G1 X59.966Y79.574Z0F1800
G0 Z3.5F1000
G0 X61.303Y80.094Z3.5
G1 Z0F1000
G1 X61.95Y79.873Z0F1800
G0 Z3.5F1000
G0 Z3.5
G1 Z0F1000
G1 X61.698Y79.536Z0F1800
G0 Z3.5F1000
G0 Z3.5
G1 Z0F1000
G1 X61.666Y79.452Z0F1800
G1 X61.658Y79.367Z0F1800
G0 Z3.5F1000
G0 Z3.5
G1 Z0F1000
G1 X61.699Y79.153Z0F1800
G1 X61.803Y78.946Z0F1800
G0 Z3.5F1000
G0 Z3.5
G1 Z0F1000
G1 X62.21Y78.887Z0F1800
G0 Z3.5F1000
G0 Z3.5
G1 Z0F1000
G1 X62.409Y78.998Z0F1800
G1 X62.583Y79.122Z0F1800
G1 X62.652Y79.184Z0F1800
G1 X62.713Y79.248Z0F1800
G1 X62.759Y79.31Z0F1800
G1 X62.789Y79.375Z0F1800
G0 Z3.5F1000
G0 Z3.5
G1 Z0F1000
G1 X62.847Y79.741Z0F1800
G0 Z3.5F1000
G0 Z3.5
G1 Z0F1000
G1 X63.599Y79.757Z0F1800
G0 Z3.5F1000
G0 Z3.5
G1 Z0F1000
G1 X63.703Y79.395Z0F1800
G0 Z3.5F1000
G0 Z3.5
G1 Z0F1000
G1 X63.741Y79.331Z0F1800
G1 X63.795Y79.271Z0F1800
G1 X63.864Y79.209Z0F1800
G1 X63.941Y79.151Z0F1800
G1 X64.13Y79.034Z0F1800
G1 X64.343Y78.932Z0F1800
G0 Z3.5F1000
G0 Z3.5
G1 Z0F1000
G1 X64.741Y79.008Z0F1800
G0 Z3.5F1000
G0 Z3.5
G1 Z0F1000
G1 X64.81Y79.186Z0F1800
G1 X64.836Y79.367Z0F1800
G0 Z3.5F1000
G0 Z3.5
G1 Z0F1000
G1 X64.832Y79.432Z0F1800
G1 X64.819Y79.498Z0F1800
G1 X64.801Y79.55Z0F1800
G1 X64.771Y79.6Z0F1800
G0 Z3.5F1000
G0 Z3.5
G1 Z0F1000
G1 X64.477Y79.927Z0F1800
G0 Z3.5F1000
G0 Z3.5
G1 Z0F1000
G1 X65.094Y80.174Z0F1800
G0 Z3.5F1000
G0 Z3.5
G1 Z0F1000
G1 X65.522Y79.902Z0F1800
G0 Z3.5F1000
G0 Z3.5
G1 Z0F1000
G1 X65.614Y79.86Z0F1800
G1 X65.715Y79.826Z0F1800
G1 X65.83Y79.796Z0F1800
G1 X65.95Y79.771Z0F1800
G1 X66.219Y79.732Z0F1800
G1 X66.494Y79.712Z0F1800
G0 Z3.5F1000
G0 Z3.5
G1 Z0F1000
G1 X66.757Y79.901Z0F1800
G0 Z3.5F1000
G0 Z3.5
G1 Z0F1000
G1 X66.664Y80.052Z0F1800
G1 X66.541Y80.195Z0F1800
G1 X66.473Y80.257Z0F1800
G1 X66.396Y80.315Z0F1800
G1 X66.318Y80.365Z0F1800
G1 X66.228Y80.408Z0F1800
G0 Z3.5F1000
G0 Z3.5
G1 Z0F1000
G1 X65.675Y80.591Z0F1800
G0 Z3.5F1000
G0 Z3.5
G1 Z0F1000
G1 X65.962Y80.992Z0F1800
G0 Z3.5F1000
G0 Z3.5
G1 Z0F1000
G1 X66.577Y80.896Z0F1800
G0 Z3.5F1000
G0 Z3.5
G1 Z0F1000
G1 X66.693Y80.89Z0F1800
G1 X66.81Y80.893Z0F1800
G1 X66.936Y80.903Z0F1800
G1 X67.06Y80.92Z0F1800
G1 X67.322Y80.971Z0F1800
G1 X67.572Y81.04Z0F1800
G0 Z3.5F1000
G0 Z3.5
G1 Z0F1000
G1 X67.617Y81.281Z0F1800
G0 Z3.5F1000
G0 Z3.5
G1 Z0F1000
G1 X67.397Y81.379Z0F1800
G1 X67.16Y81.461Z0F1800
G1 X67.044Y81.492Z0F1800
G1 X66.925Y81.517Z0F1800
G1 X66.812Y81.535Z0F1800
G1 X66.696Y81.543Z0F1800
G0 Z3.5F1000
G0 Z3.5
G1 Z0F1000
G1 X66.06Y81.524Z0F1800
G0 Z3.5F1000
G0 Z3.5
G1 Z0F1000
G1 X65.926Y81.951Z0F1800
G0 Z3.5F1000
G0 Z3.5
G1 Z0F1000
G1 X66.533Y82.062Z0F1800
G0 Z3.5F1000
G0 Z3.5
G1 Z0F1000
G1 X66.637Y82.093Z0F1800
G1 X66.732Y82.132Z0F1800
G1 X66.828Y82.18Z0F1800
G1 X66.917Y82.232Z0F1800
G1 X67.09Y82.357Z0F1800
G1 X67.236Y82.494Z0F1800
G0 Z3.5F1000
G0 Z3.5
G1 Z0F1000
G1 X67.048Y82.71Z0F1800
G0 Z3.5F1000
G0 Z3.5
G1 Z0F1000
G1 X66.772Y82.724Z0F1800
G1 X66.495Y82.719Z0F1800
G1 X66.369Y82.709Z0F1800
G1 X66.245Y82.693Z0F1800
G1 X66.133Y82.673Z0F1800
G1 X66.028Y82.643Z0F1800
G0 Z3.5F1000
G0 Z3.5
G1 Z0F1000
G1 X65.511Y82.429Z0F1800
G0 Z3.5F1000
G0 Z3.5
G1 Z0F1000
G1 X64.998Y82.746Z0F1800
G0 Z3.5F1000
G0 Z3.5
G1 Z0F1000
G1 X65.405Y83.029Z0F1800
G0 Z3.5F1000
G0 Z3.5
G1 Z0F1000
G1 X65.452Y83.075Z0F1800
G1 X65.49Y83.124Z0F1800
G1 X65.527Y83.187Z0F1800
G1 X65.555Y83.252Z0F1800
G1 X65.588Y83.378Z0F1800
G1 X65.598Y83.506Z0F1800
G0 Z3.5F1000
G0 Z3.5
G1 Z0F1000
G1 Y83.559Z0F1800
G1 X65.592Y83.612Z0F1800
G0 Z3.5F1000
G0 Z3.5
G1 Z0F1000
G1 X65.231Y83.735Z0F1800
G0 Z3.5F1000
G0 Z3.5
G1 Z0F1000
G1 X64.985Y83.661Z0F1800
G1 X64.757Y83.57Z0F1800
G1 X64.661Y83.522Z0F1800
G1 X64.571Y83.47Z0F1800
G1 X64.497Y83.418Z0F1800
G1 X64.436Y83.36Z0F1800
G0 Z3.5F1000
G0 Z3.5
G1 Z0F1000
G1 X64.202Y83.019Z0F1800
G0 Z3.5F1000
G0 Z3.5
G1 Z0F1000
G1 X63.473Y83.126Z0F1800
G0 Z3.5F1000
G0 Z3.5
G1 Z0F1000
G1 X63.55Y83.491Z0F1800
G0 Z3.5F1000
G0 Z3.5
G1 Z0F1000
G1 Y83.506Z0F1800
G0 Z3.5F1000
G0 X63.551Z3.5
G1 Z0F1000
G1 X63.538Y83.581Z0F1800
G1 X63.508Y83.655Z0F1800
G1 X63.464Y83.731Z0F1800
G1 X63.409Y83.804Z0F1800
G1 X63.296Y83.925Z0F1800
G1 X63.162Y84.039Z0F1800
G0 Z3.5F1000
G0 Z3.5
G1 Z0F1000
G1 X62.742Y84.03Z0F1800
G0 Z3.5F1000
G0 X62.42Y83.506Z3.5
G1 Z0F1000
G1 Y83.082Z0F1800
G0 Z3.5F1000
G0 X62.425Z3.5
G1 Z0F1000
G1 Y83.467Z0F1800
G0 Z3.5F1000
G0 X63.55Y83.491Z3.5
G1 Z0F1000
G1 Y83.114Z0F1800
G0 Z3.5F1000
G0 X63.551Z3.5
G1 Z0F1000
G1 Y83.506Z0F1800
G0 Z3.5F1000
G0 X63.321Y82.278Z3.5
G1 Z0F1000
G1 X61.649Y81.377Z0F1800
G0 Z3.5F1000
G0 Z3.5
G1 Z0F1000
G1 X61.688Y81.231Z0F1800
G1 X61.77Y81.094Z0F1800
G1 X61.888Y80.969Z0F1800
G1 X62.04Y80.857Z0F1800
G1 X62.223Y80.761Z0F1800
G1 X62.431Y80.684Z0F1800
G1 X62.662Y80.628Z0F1800
G1 X62.912Y80.595Z0F1800
G0 Z3.5F1000
G0 Z3.5
G1 Z0F1000
G1 X64.584Y81.495Z0F1800
G0 Z3.5F1000
G0 Z3.5
G1 Z0F1000
G1 X64.544Y81.641Z0F1800
G1 X64.463Y81.778Z0F1800
G1 X64.345Y81.904Z0F1800
G1 X64.193Y82.016Z0F1800
G1 X64.01Y82.111Z0F1800
G1 X63.802Y82.188Z0F1800
G1 X63.571Y82.244Z0F1800
G1 X63.321Y82.278Z0F1800
G0 Z3.5F1000
G0 Z3.5
G1 Z0F1000
G1 Y80.815Z0F1800
G0 Z3.5F1000
G0 X63.599Y79.757Z3.5
G1 Z0F1000
G1 Y77.533Z0F1800
G0 Z3.5F1000
G0 Z3.5
G1 Z0F1000
G1 X62.847Y77.517Z0F1800
G0 Z3.5F1000
G0 Z3.5
G1 Z0F1000
G1 X62.789Y77.151Z0F1800
G0 Z3.5F1000
G0 Z3.5
G1 Z0F1000
G1 X62.759Y77.085Z0F1800
G1 X62.713Y77.023Z0F1800
G1 X62.652Y76.959Z0F1800
G1 X62.583Y76.897Z0F1800
G1 X62.409Y76.773Z0F1800
G1 X62.21Y76.662Z0F1800
G0 Z3.5F1000
G0 Z3.5
G1 Z0F1000
G1 X61.803Y76.722Z0F1800
G0 Z3.5F1000
G0 Z3.5
G1 Z0F1000
G1 X61.699Y76.928Z0F1800
G1 X61.658Y77.142Z0F1800
G0 Z3.5F1000
G0 Z3.5
G1 Z0F1000
G1 Y79.367Z0F1800
G0 Z3.5F1000
G0 X61.803Y78.946Z3.5
G1 Z0F1000
G1 Y76.722Z0F1800
G0 Z3.5F1000
G0 X62.21Y76.662Z3.5
G1 Z0F1000
G1 Y78.887Z0F1800
G0 Z3.5F1000
G0 X62.789Y79.375Z3.5
G1 Z0F1000
G1 Y77.151Z0F1800
G0 Z3.5F1000
G0 X62.847Y77.517Z3.5
G1 Z0F1000
G1 Y79.741Z0F1800
G0 Z3.5F1000
G0 X63.703Y79.395Z3.5
G1 Z0F1000
G1 Y77.17Z0F1800
G0 Z3.5F1000
G0 Z3.5
G1 Z0F1000
G1 X63.599Y77.533Z0F1800
G0 Z3.5F1000
G0 X63.703Y77.17Z3.5
G1 Z0F1000
G1 X63.741Y77.106Z0F1800
G1 X63.795Y77.046Z0F1800
G1 X63.864Y76.984Z0F1800
G1 X63.941Y76.926Z0F1800
G1 X64.13Y76.809Z0F1800
G1 X64.343Y76.707Z0F1800
G0 Z3.5F1000
G0 Z3.5
G1 Z0F1000
G1 X64.741Y76.784Z0F1800
G0 Z3.5F1000
G0 Z3.5
G1 Z0F1000
G1 X64.81Y76.961Z0F1800
G1 X64.836Y77.142Z0F1800
G0 Z3.5F1000
G0 Z3.5
G1 Z0F1000
G1 Y79.367Z0F1800
G0 Z3.5F1000
G0 X64.741Y79.008Z3.5
G1 Z0F1000
G1 Y76.784Z0F1800
G0 Z3.5F1000
G0 X64.343Y76.707Z3.5
G1 Z0F1000
G1 Y78.932Z0F1800
G0 Z3.5F1000
G0 X65.094Y77.95Z3.5
G1 Z0F1000
G1 X64.836Y77.846Z0F1800
G0 Z3.5F1000
G0 X65.094Y77.95Z3.5
G1 Z0F1000
G1 X65.522Y77.677Z0F1800
G0 Z3.5F1000
G0 Z3.5
G1 Z0F1000
G1 X65.614Y77.635Z0F1800
G1 X65.715Y77.602Z0F1800
G1 X65.83Y77.571Z0F1800
G1 X65.95Y77.546Z0F1800
G1 X66.219Y77.507Z0F1800
G1 X66.494Y77.487Z0F1800
G0 Z3.5F1000
G0 Z3.5
G1 Z0F1000
G1 X66.757Y77.676Z0F1800
G0 Z3.5F1000
G0 Z3.5
G1 Z0F1000
G1 Y79.901Z0F1800
G0 Z3.5F1000
G0 X66.494Y79.712Z3.5
G1 Z0F1000
G1 Y77.487Z0F1800
G0 Z3.5F1000
G0 X65.522Y77.677Z3.5
G1 Z0F1000
G1 Y79.902Z0F1800
G0 Z3.5F1000
G0 X65.094Y80.174Z3.5
G1 Z0F1000
G1 Y77.95Z0F1800
G0 Z3.5F1000
G0 X66.757Y78.666Z3.5
G1 Z0F1000
G1 X67.178Y78.715Z0F1800
G1 X67.572Y78.815Z0F1800
G0 Z3.5F1000
G0 Z3.5
G1 Z0F1000
G1 X67.617Y79.056Z0F1800
G0 Z3.5F1000
G0 Z3.5
G1 Z0F1000
G1 Y81.281Z0F1800
G0 Z3.5F1000
G0 X67.572Y81.04Z3.5
G1 Z0F1000
G1 Y78.815Z0F1800
G0 Z3.5F1000
G0 X66.577Y80.158Z3.5
G1 Z0F1000
G1 Y80.896Z0F1800
G0 Z3.5F1000
G0 X65.962Y80.992Z3.5
G1 Z0F1000
G1 Y80.496Z0F1800
G0 Z3.5F1000
G0 X66.533Y81.538Z3.5
G1 Z0F1000
G1 Y82.062Z0F1800
G0 Z3.5F1000
G0 X67.236Y82.494Z3.5
G1 Z0F1000
G1 Y81.437Z0F1800
G0 Z3.5F1000
G0 X65.598Y82.465Z3.5
G1 Z0F1000
G1 Y83.506Z0F1800
G0 Z3.5F1000
G0 X65.405Y83.029Z3.5
G1 Z0F1000
G1 Y82.494Z0F1800
G0 Z3.5F1000
G0 X60.633Y82.347Z3.5
G1 Z0F1000
G1 Y82.929Z0F1800
G0 Z3.5F1000
G0 X60.373Y82.407Z3.5
G1 Z0F1000
G1 Y83.502Z0F1800
G0 Z3.5F1000
G0 X58.874Y82.317Z3.5
G1 Z0F1000
G1 Y81.208Z0F1800
G0 Z3.5F1000
G0 X58.648Y81.092Z3.5
G1 Z0F1000
G1 Y78.867Z0F1800
G0 Z3.5F1000
G0 Z3.5
G1 Z0F1000
G1 X58.723Y78.629Z0F1800
G0 Z3.5F1000
G0 Z3.5
G1 Z0F1000
G1 X58.944Y78.577Z0F1800
G1 X59.173Y78.539Z0F1800
G1 X59.425Y78.516Z0F1800
G1 X59.68Y78.52Z0F1800
G0 Z3.5F1000
G0 X58.723Y78.629Z3.5
G1 Z0F1000
G1 Y80.853Z0F1800
G0 Z3.5F1000
G0 X59.63Y81.393Z3.5
G1 Z0F1000
G1 Y81.917Z0F1800
G0 Z3.5F1000
G0 X86.818Y81.95Z3.5
G1 Z0F1000
G1 X86.833Y81.155Z0F1800
G1 X86.879Y80.362Z0F1800
G1 X86.954Y79.572Z0F1800
G1 X87.059Y78.785Z0F1800
G1 X87.194Y78.003Z0F1800
G1 X87.358Y77.226Z0F1800
G1 X87.552Y76.456Z0F1800
G1 X87.775Y75.692Z0F1800
G0 Z3.5F1000
G0 Z3.5
G1 Z0F1000
G1 X87.916Y75.258Z0F1800
G1 X88.066Y74.828Z0F1800
G0 Z3.5F1000
G0 Z3.5
G1 Z0F1000
G1 X88.241Y74.361Z0F1800
G1 X88.427Y73.899Z0F1800
G1 X88.624Y73.441Z0F1800
G1 X88.832Y72.988Z0F1800
G1 X89.051Y72.54Z0F1800
G1 X89.28Y72.097Z0F1800
G1 X89.519Y71.66Z0F1800
G1 X89.769Y71.229Z0F1800
G1 X90.029Y70.804Z0F1800
G1 X90.3Y70.385Z0F1800
G1 X90.58Y69.972Z0F1800
G1 X90.869Y69.567Z0F1800
G1 X91.169Y69.168Z0F1800
G1 X91.478Y68.777Z0F1800
G0 Z3.5F1000
G0 Z3.5
G1 Z0F1000
G1 X107.998Z0F1800
G0 Z3.5F1000
G0 Z3.5
G1 Z0F1000
G1 X124.065Z0F1800
G0 Z3.5F1000
G0 Z3.5
G1 Z0F1000
G1 X124.374Y69.168Z0F1800
G1 X124.674Y69.567Z0F1800
G1 X124.963Y69.972Z0F1800
G1 X125.243Y70.385Z0F1800
G1 X125.514Y70.804Z0F1800
G1 X125.774Y71.229Z0F1800
G1 X126.024Y71.66Z0F1800
G1 X126.263Y72.097Z0F1800
G1 X126.492Y72.54Z0F1800
G1 X126.711Y72.988Z0F1800
G1 X126.919Y73.441Z0F1800
G1 X127.116Y73.899Z0F1800
G1 X127.302Y74.361Z0F1800
G1 X127.477Y74.828Z0F1800
G0 Z3.5F1000
G0 Z3.5
G1 Z0F1000
G1 X127.721Y75.543Z0F1800
G1 X127.939Y76.265Z0F1800
G1 X128.13Y76.995Z0F1800
G1 X128.295Y77.731Z0F1800
G1 X128.434Y78.472Z0F1800
G1 X128.546Y79.218Z0F1800
G1 X128.631Y79.968Z0F1800
G1 X128.689Y80.721Z0F1800
G0 Z3.5F1000
G0 Z3.5
G1 Z0F1000
G1 X109.727Z0F1800
G0 Z3.5F1000
G0 Y81.586Z3.5
G1 Z0F1000
G1 X110.454Z0F1800
G0 Z3.5F1000
G0 Z3.5
G1 Z0F1000
G1 X112.256Y86.536Z0F1800
G0 Z3.5F1000
G0 Z3.5
G1 Z0F1000
G1 X114.11Z0F1800
G0 Z3.5F1000
G0 Z3.5
G1 Z0F1000
G1 X115.912Y81.586Z0F1800
G0 Z3.5F1000
G0 Z3.5
G1 Z0F1000
G1 X117.366Z0F1800
G0 Z3.5F1000
G0 Z3.5
G1 Z0F1000
G1 X119.168Y86.536Z0F1800
G0 Z3.5F1000
G0 Z3.5
G1 Z0F1000
G1 X121.023Z0F1800
G0 Z3.5F1000
G0 Z3.5
G1 Z0F1000
G1 X122.824Y81.586Z0F1800
G0 Z3.5F1000
G0 Z3.5
G1 Z0F1000
G1 X124.279Z0F1800
G0 Z3.5F1000
G0 Z3.5
G1 Z0F1000
G1 X126.08Y86.536Z0F1800
G0 Z3.5F1000
G0 Z3.5
G1 Z0F1000
G1 X127.935Z0F1800
G0 Z3.5F1000
G0 Z3.5
G1 Z0F1000
G1 X128.506Y84.967Z0F1800
G0 Z3.5F1000
G0 Z3.5
G1 Z0F1000
G1 X128.633Y83.91Z0F1800
G1 X128.705Y82.849Z0F1800
G1 X128.724Y81.785Z0F1800
G1 X128.689Y80.721Z0F1800
G0 Z3.5F1000
G0 X127.477Y74.828Z3.5
G1 Z0F1000
G1 X107.998Z0F1800
G0 Z3.5F1000
G0 Z3.5
G1 Z0F1000
G1 Y75.692Z0F1800
G0 Z3.5F1000
G0 Z3.5
G1 Z0F1000
G1 X108.191Y75.703Z0F1800
G1 X108.383Y75.735Z0F1800
G1 X108.569Y75.789Z0F1800
G1 X108.748Y75.863Z0F1800
G1 X108.918Y75.957Z0F1800
G1 X109.076Y76.069Z0F1800
G1 X109.22Y76.199Z0F1800
G1 X109.349Y76.343Z0F1800
G1 X109.462Y76.501Z0F1800
G1 X109.555Y76.671Z0F1800
G1 X109.63Y76.85Z0F1800
G1 X109.683Y77.036Z0F1800
G1 X109.716Y77.227Z0F1800
G1 X109.727Y77.421Z0F1800
G0 Z3.5F1000
G0 Z3.5
G1 Z0F1000
G1 Y102.812Z0F1800
G0 Z3.5F1000
G0 Z3.5
G1 Z0F1000
G1 X108.863Y102.875Z0F1800
G1 X107.998Y102.902Z0F1800
G0 Z3.5F1000
G0 Z3.5
G1 Z0F1000
G1 X106.951Y102.888Z0F1800
G1 X105.911Y102.821Z0F1800
G1 X104.88Y102.703Z0F1800
G1 X103.859Y102.535Z0F1800
G1 X102.849Y102.317Z0F1800
G1 X101.854Y102.051Z0F1800
G1 X100.873Y101.736Z0F1800
G1 X99.91Y101.373Z0F1800
G1 X98.966Y100.964Z0F1800
G1 X98.043Y100.508Z0F1800
G1 X97.142Y100.007Z0F1800
G1 X96.265Y99.462Z0F1800
G1 X95.414Y98.872Z0F1800
G1 X94.591Y98.239Z0F1800
G1 X93.798Y97.564Z0F1800
G1 X93.036Y96.846Z0F1800
G1 X92.31Y96.092Z0F1800
G1 X91.626Y95.306Z0F1800
G1 X90.984Y94.49Z0F1800
G1 X90.386Y93.645Z0F1800
G1 X89.831Y92.775Z0F1800
G1 X89.32Y91.879Z0F1800
G1 X88.855Y90.961Z0F1800
G1 X88.435Y90.021Z0F1800
G1 X88.062Y89.062Z0F1800
G1 X87.736Y88.085Z0F1800
G1 X87.459Y87.092Z0F1800
G1 X87.23Y86.085Z0F1800
G1 X87.051Y85.066Z0F1800
G1 X86.922Y84.036Z0F1800
G1 X86.844Y82.997Z0F1800
G1 X86.818Y81.95Z0F1800
G0 Z3.5F1000
G0 X95.581Y89.987Z3.5
G1 Z0F1000
G1 X95.444Y90.062Z0F1800
G1 X95.324Y90.161Z0F1800
G1 X95.225Y90.281Z0F1800
G1 X95.151Y90.418Z0F1800
G1 X95.104Y90.57Z0F1800
G1 X95.087Y90.733Z0F1800
G1 X95.104Y90.896Z0F1800
G1 X95.151Y91.048Z0F1800
G1 X95.225Y91.185Z0F1800
G1 X95.324Y91.305Z0F1800
G1 X95.444Y91.404Z0F1800
G1 X95.581Y91.478Z0F1800
G1 X95.733Y91.525Z0F1800
G1 X95.896Y91.542Z0F1800
G1 X96.059Y91.525Z0F1800
G1 X96.211Y91.478Z0F1800
G1 X96.348Y91.404Z0F1800
G1 X96.468Y91.305Z0F1800
G1 X96.567Y91.185Z0F1800
G1 X96.641Y91.048Z0F1800
G1 X96.689Y90.896Z0F1800
G1 X96.705Y90.733Z0F1800
G1 X96.689Y90.57Z0F1800
G1 X96.641Y90.418Z0F1800
G1 X96.567Y90.281Z0F1800
G1 X96.468Y90.161Z0F1800
G1 X96.348Y90.062Z0F1800
G1 X96.211Y89.987Z0F1800
G1 X96.059Y89.94Z0F1800
G1 X95.896Y89.924Z0F1800
G1 X95.733Y89.94Z0F1800
G1 X95.581Y89.987Z0F1800
G0 Z3.5F1000
G0 X94.033Y89.476Z3.5
G1 Z0F1000
G1 X93.825Y89.858Z0F1800
G1 X93.694Y90.28Z0F1800
G1 X93.649Y90.733Z0F1800
G1 X93.694Y91.186Z0F1800
G1 X93.825Y91.608Z0F1800
G1 X94.033Y91.989Z0F1800
G1 X94.307Y92.322Z0F1800
G1 X94.64Y92.596Z0F1800
G1 X95.021Y92.804Z0F1800
G1 X95.443Y92.935Z0F1800
G1 X95.896Y92.98Z0F1800
G1 X96.349Y92.935Z0F1800
G1 X96.771Y92.804Z0F1800
G1 X97.153Y92.596Z0F1800
G1 X97.485Y92.322Z0F1800
G1 X97.76Y91.989Z0F1800
G1 X97.967Y91.608Z0F1800
G1 X98.098Y91.186Z0F1800
G1 X98.144Y90.733Z0F1800
G1 X98.098Y90.28Z0F1800
G1 X97.967Y89.858Z0F1800
G1 X97.76Y89.476Z0F1800
G1 X97.485Y89.144Z0F1800
G1 X97.153Y88.869Z0F1800
G1 X96.771Y88.662Z0F1800
G1 X96.349Y88.531Z0F1800
G1 X95.896Y88.485Z0F1800
G1 X95.443Y88.531Z0F1800
G1 X95.021Y88.662Z0F1800
G1 X94.64Y88.869Z0F1800
G1 X94.307Y89.144Z0F1800
G1 X94.033Y89.476Z0F1800
G0 Z3.5F1000
G0 X92.856Y89.085Z3.5
G1 Z0F1000
G1 X92.71Y89.387Z0F1800
G1 X92.594Y89.705Z0F1800
G1 X92.509Y90.036Z0F1800
G1 X92.456Y90.379Z0F1800
G1 X92.439Y90.733Z0F1800
G1 X92.456Y91.086Z0F1800
G1 X92.509Y91.43Z0F1800
G1 X92.594Y91.761Z0F1800
G1 X92.71Y92.079Z0F1800
G1 X92.856Y92.381Z0F1800
G1 X93.029Y92.666Z0F1800
G1 X93.228Y92.932Z0F1800
G1 X93.451Y93.178Z0F1800
G1 X93.697Y93.401Z0F1800
G1 X93.963Y93.6Z0F1800
G1 X94.248Y93.773Z0F1800
G1 X94.55Y93.919Z0F1800
G1 X94.868Y94.035Z0F1800
G1 X95.199Y94.12Z0F1800
G1 X95.543Y94.173Z0F1800
G1 X95.896Y94.19Z0F1800
G1 X96.25Y94.173Z0F1800
G1 X96.593Y94.12Z0F1800
G1 X96.924Y94.035Z0F1800
G1 X97.242Y93.919Z0F1800
G1 X97.544Y93.773Z0F1800
G1 X97.829Y93.6Z0F1800
G1 X98.096Y93.401Z0F1800
G1 X98.341Y93.178Z0F1800
G1 X98.564Y92.932Z0F1800
G1 X98.763Y92.666Z0F1800
G1 X98.936Y92.381Z0F1800
G1 X99.082Y92.079Z0F1800
G1 X99.198Y91.761Z0F1800
G1 X99.284Y91.43Z0F1800
G1 X99.336Y91.086Z0F1800
G1 X99.354Y90.733Z0F1800
G1 X99.336Y90.379Z0F1800
G1 X99.284Y90.036Z0F1800
G1 X99.198Y89.705Z0F1800
G1 X99.082Y89.387Z0F1800
G1 X98.936Y89.085Z0F1800
G1 X98.763Y88.8Z0F1800
G1 X98.564Y88.533Z0F1800
G1 X98.341Y88.288Z0F1800
G1 X98.096Y88.065Z0F1800
G1 X97.829Y87.866Z0F1800
G1 X97.544Y87.692Z0F1800
G1 X97.242Y87.547Z0F1800
G1 X96.924Y87.431Z0F1800
G1 X96.593Y87.345Z0F1800
G1 X96.25Y87.293Z0F1800
G1 X95.896Y87.275Z0F1800
G1 X95.543Y87.293Z0F1800
G1 X95.199Y87.345Z0F1800
G1 X94.868Y87.431Z0F1800
G1 X94.55Y87.547Z0F1800
G1 X94.248Y87.692Z0F1800
G1 X93.963Y87.866Z0F1800
G1 X93.697Y88.065Z0F1800
G1 X93.451Y88.288Z0F1800
G1 X93.228Y88.533Z0F1800
G1 X93.029Y88.8Z0F1800
G1 X92.856Y89.085Z0F1800
G0 Z3.5F1000
G0 X107.998Y75.692Z3.5
G1 Z0F1000
G1 Y74.828Z0F1800
G0 Z3.5F1000
G0 Z3.5
G1 Z0F1000
G1 Y68.777Z0F1800
G0 Z3.5F1000
G0 Z3.5
G1 Z0F1000
G1 Y74.828Z0F1800
G0 Z3.5F1000
G0 Y75.692Z3.5
G1 Z0F1000
G1 Y102.902Z0F1800
G0 Z3.5F1000
G0 X107.771Y103.101Z3.5
G1 Z0F1000
G1 X108.86Y103.074Z0F1800
G1 X109.934Y102.992Z0F1800
G1 X110.993Y102.858Z0F1800
G1 X112.034Y102.672Z0F1800
G1 X113.057Y102.435Z0F1800
G1 X114.061Y102.15Z0F1800
G1 X115.044Y101.818Z0F1800
G1 X116.004Y101.439Z0F1800
G1 X116.941Y101.016Z0F1800
G1 X117.853Y100.548Z0F1800
G1 X118.739Y100.039Z0F1800
G1 X119.597Y99.489Z0F1800
G1 X120.426Y98.899Z0F1800
G1 X121.225Y98.271Z0F1800
G1 X121.993Y97.607Z0F1800
G1 X122.727Y96.906Z0F1800
G1 X123.428Y96.172Z0F1800
G1 X124.093Y95.404Z0F1800
G1 X124.72Y94.605Z0F1800
G1 X125.31Y93.776Z0F1800
G1 X125.86Y92.918Z0F1800
G1 X126.37Y92.032Z0F1800
G1 X126.837Y91.12Z0F1800
G1 X127.26Y90.183Z0F1800
G1 X127.639Y89.223Z0F1800
G1 X127.971Y88.24Z0F1800
G1 X128.256Y87.236Z0F1800
G1 X128.493Y86.213Z0F1800
G1 X128.679Y85.172Z0F1800
G1 X128.813Y84.113Z0F1800
G1 X128.895Y83.039Z0F1800
G1 X128.922Y81.95Z0F1800
G1 X128.895Y80.862Z0F1800
G1 X128.813Y79.788Z0F1800
G1 X128.679Y78.729Z0F1800
G1 X128.493Y77.688Z0F1800
G1 X128.256Y76.665Z0F1800
G1 X127.971Y75.661Z0F1800
G1 X127.639Y74.678Z0F1800
G1 X127.26Y73.718Z0F1800
G1 X126.837Y72.781Z0F1800
G1 X126.37Y71.869Z0F1800
G1 X125.86Y70.983Z0F1800
G1 X125.31Y70.125Z0F1800
G1 X124.72Y69.296Z0F1800
G1 X124.093Y68.497Z0F1800
G1 X123.428Y67.729Z0F1800
G1 X122.727Y66.995Z0F1800
G1 X121.993Y66.294Z0F1800
G1 X121.225Y65.629Z0F1800
G1 X120.426Y65.002Z0F1800
G1 X119.597Y64.412Z0F1800
G1 X118.739Y63.862Z0F1800
G1 X117.853Y63.352Z0F1800
G1 X116.941Y62.885Z0F1800
G1 X116.004Y62.462Z0F1800
G1 X115.044Y62.083Z0F1800
G1 X114.061Y61.75Z0F1800
G1 X113.057Y61.465Z0F1800
G1 X112.034Y61.229Z0F1800
G1 X110.993Y61.043Z0F1800
G1 X109.934Y60.909Z0F1800
G1 X108.86Y60.827Z0F1800
G1 X107.771Y60.8Z0F1800
G1 X106.683Y60.827Z0F1800
G1 X105.609Y60.909Z0F1800
G1 X104.55Y61.043Z0F1800
G1 X103.509Y61.229Z0F1800
G1 X102.486Y61.465Z0F1800
G1 X101.482Y61.75Z0F1800
G1 X100.499Y62.083Z0F1800
G1 X99.539Y62.462Z0F1800
G1 X98.602Y62.885Z0F1800
G1 X97.69Y63.352Z0F1800
G1 X96.804Y63.862Z0F1800
G1 X95.946Y64.412Z0F1800
G1 X95.117Y65.002Z0F1800
G1 X94.318Y65.629Z0F1800
G1 X93.55Y66.294Z0F1800
G1 X92.816Y66.995Z0F1800
G1 X92.115Y67.729Z0F1800
G1 X91.45Y68.497Z0F1800
G1 X90.823Y69.296Z0F1800
G1 X90.233Y70.125Z0F1800
G1 X89.683Y70.983Z0F1800
G1 X89.173Y71.869Z0F1800
G1 X88.706Y72.781Z0F1800
G1 X88.283Y73.718Z0F1800
G1 X87.904Y74.678Z0F1800
G1 X87.572Y75.661Z0F1800
G1 X87.287Y76.665Z0F1800
G1 X87.05Y77.688Z0F1800
G1 X86.864Y78.729Z0F1800
G1 X86.73Y79.788Z0F1800
G1 X86.648Y80.862Z0F1800
G1 X86.621Y81.95Z0F1800
G1 X86.648Y83.039Z0F1800
G1 X86.73Y84.113Z0F1800
G1 X86.864Y85.172Z0F1800
G1 X87.05Y86.213Z0F1800
G1 X87.287Y87.236Z0F1800
G1 X87.572Y88.24Z0F1800
G1 X87.904Y89.223Z0F1800
G1 X88.283Y90.183Z0F1800
G1 X88.706Y91.12Z0F1800
G1 X89.173Y92.032Z0F1800
G1 X89.683Y92.918Z0F1800
G1 X90.233Y93.776Z0F1800
G1 X90.823Y94.605Z0F1800
G1 X91.45Y95.404Z0F1800
G1 X92.115Y96.172Z0F1800
G1 X92.816Y96.906Z0F1800
G1 X93.55Y97.607Z0F1800
G1 X94.318Y98.271Z0F1800
G1 X95.117Y98.899Z0F1800
G1 X95.946Y99.489Z0F1800
G1 X96.804Y100.039Z0F1800
G1 X97.69Y100.548Z0F1800
G1 X98.602Y101.016Z0F1800
G1 X99.539Y101.439Z0F1800
G1 X100.499Y101.818Z0F1800
G1 X101.482Y102.15Z0F1800
G1 X102.486Y102.435Z0F1800
G1 X103.509Y102.672Z0F1800
G1 X104.55Y102.858Z0F1800
G1 X105.609Y102.992Z0F1800
G1 X106.683Y103.074Z0F1800
G1 X107.771Y103.101Z0F1800
G0 Z3.5F1000
G0 X110.866Y107.566Z3.5
G1 Z0F1000
G1 Y109.474Z0F1800
G0 Z3.5F1000
G0 X130.269Y107.857Z3.5
G1 Z0F1000
G1 X130.284Y107.437Z0F1800
G0 Z3.5F1000
G0 Z3.5
G1 Z0F1000
G1 X130.525Y107.3Z0F1800
G1 X130.78Y107.193Z0F1800
G1 X130.902Y107.156Z0F1800
G1 X131.026Y107.129Z0F1800
G1 X131.142Y107.115Z0F1800
G1 X131.259Y107.118Z0F1800
G0 Z3.5F1000
G0 Z3.5
G1 Z0F1000
G1 X131.884Y107.24Z0F1800
G0 Z3.5F1000
G0 Z3.5
G1 Z0F1000
G1 X132.121Y106.526Z0F1800
G0 Z3.5F1000
G0 Z3.5
G1 Z0F1000
G1 X131.547Y106.25Z0F1800
G0 Z3.5F1000
G0 Z3.5
G1 Z0F1000
G1 X131.452Y106.182Z0F1800
G1 X131.367Y106.102Z0F1800
G1 X131.284Y106.006Z0F1800
G1 X131.208Y105.904Z0F1800
G1 X131.068Y105.665Z0F1800
G1 X130.956Y105.411Z0F1800
G0 Z3.5F1000
G0 Z3.5
G1 Z0F1000
G1 X131.196Y105.066Z0F1800
G0 Z3.5F1000
G0 Z3.5
G1 Z0F1000
G1 X131.472Y105.081Z0F1800
G1 X131.745Y105.129Z0F1800
G1 X131.867Y105.164Z0F1800
G1 X131.986Y105.208Z0F1800
G1 X132.092Y105.259Z0F1800
G1 X132.188Y105.325Z0F1800
G0 Z3.5F1000
G0 Z3.5
G1 Z0F1000
G1 X132.648Y105.765Z0F1800
G0 Z3.5F1000
G0 Z3.5
G1 Z0F1000
G1 X133.233Y105.293Z0F1800
G0 Z3.5F1000
G0 Z3.5
G1 Z0F1000
G1 X132.9Y104.75Z0F1800
G0 Z3.5F1000
G0 Z3.5
G1 Z0F1000
G1 X132.856Y104.642Z0F1800
G1 X132.829Y104.528Z0F1800
G1 X132.81Y104.402Z0F1800
G1 X132.802Y104.276Z0F1800
G1 X132.813Y103.999Z0F1800
G1 X132.857Y103.725Z0F1800
G0 Z3.5F1000
G0 Z3.5
G1 Z0F1000
G1 X133.244Y103.564Z0F1800
G0 Z3.5F1000
G0 Z3.5
G1 Z0F1000
G1 X133.469Y103.726Z0F1800
G1 X133.673Y103.914Z0F1800
G1 X133.757Y104.01Z0F1800
G1 X133.833Y104.111Z0F1800
G1 X133.894Y104.211Z0F1800
G1 X133.94Y104.318Z0F1800
G0 Z3.5F1000
G0 Z3.5
G1 Z0F1000
G1 X134.089Y104.938Z0F1800
G0 Z3.5F1000
G0 Z3.5
G1 Z0F1000
G1 X134.836Y104.857Z0F1800
G0 Z3.5F1000
G0 Z3.5
G1 Z0F1000
G1 X134.849Y104.22Z0F1800
G0 Z3.5F1000
G0 Z3.5
G1 Z0F1000
G1 X134.871Y104.105Z0F1800
G1 X134.909Y103.995Z0F1800
G1 X134.962Y103.879Z0F1800
G1 X135.023Y103.768Z0F1800
G1 X135.182Y103.541Z0F1800
G1 X135.367Y103.334Z0F1800
G0 Z3.5F1000
G0 Z3.5
G1 Z0F1000
G1 X135.78Y103.409Z0F1800
G0 Z3.5F1000
G0 Z3.5
G1 Z0F1000
G1 X135.881Y103.667Z0F1800
G1 X135.951Y103.935Z0F1800
G1 X135.97Y104.06Z0F1800
G1 X135.979Y104.187Z0F1800
G1 X135.976Y104.304Z0F1800
G1 X135.957Y104.419Z0F1800
G0 Z3.5F1000
G0 Z3.5
G1 Z0F1000
G1 X135.747Y105.02Z0F1800
G0 Z3.5F1000
G0 Z3.5
G1 Z0F1000
G1 X136.42Y105.357Z0F1800
G0 Z3.5F1000
G0 Z3.5
G1 Z0F1000
G1 X136.775Y104.828Z0F1800
G0 Z3.5F1000
G0 Z3.5
G1 Z0F1000
G1 X136.856Y104.743Z0F1800
G1 X136.947Y104.671Z0F1800
G1 X137.054Y104.602Z0F1800
G1 X137.166Y104.542Z0F1800
G1 X137.422Y104.436Z0F1800
G1 X137.69Y104.363Z0F1800
G0 Z3.5F1000
G0 Z3.5
G1 Z0F1000
G1 X137.997Y104.648Z0F1800
G0 Z3.5F1000
G0 Z3.5
G1 Z0F1000
G1 X137.943Y104.92Z0F1800
G1 X137.857Y105.183Z0F1800
G1 X137.805Y105.299Z0F1800
G1 X137.744Y105.411Z0F1800
G1 X137.678Y105.508Z0F1800
G1 X137.6Y105.594Z0F1800
G0 Z3.5F1000
G0 Z3.5
G1 Z0F1000
G1 X137.098Y105.987Z0F1800
G0 Z3.5F1000
G0 Z3.5
G1 Z0F1000
G1 X137.483Y106.633Z0F1800
G0 Z3.5F1000
G0 Z3.5
G1 Z0F1000
G1 X138.067Y106.38Z0F1800
G0 Z3.5F1000
G0 Z3.5
G1 Z0F1000
G1 X138.18Y106.353Z0F1800
G1 X138.297Y106.341Z0F1800
G1 X138.424Z0F1800
G1 X138.551Y106.351Z0F1800
G1 X138.823Y106.401Z0F1800
G1 X139.088Y106.483Z0F1800
G0 Z3.5F1000
G0 Z3.5
G1 Z0F1000
G1 X139.192Y106.89Z0F1800
G0 Z3.5F1000
G0 Z3.5
G1 Z0F1000
G1 X138.999Y107.089Z0F1800
G1 X138.784Y107.264Z0F1800
G1 X138.678Y107.334Z0F1800
G1 X138.567Y107.395Z0F1800
G1 X138.459Y107.441Z0F1800
G1 X138.346Y107.471Z0F1800
G0 Z3.5F1000
G0 Z3.5
G1 Z0F1000
G1 X137.712Y107.53Z0F1800
G0 Z3.5F1000
G0 Z3.5
G1 Z0F1000
G1 X137.686Y108.282Z0F1800
G0 Z3.5F1000
G0 Z3.5
G1 Z0F1000
G1 X138.314Y108.385Z0F1800
G0 Z3.5F1000
G0 Z3.5
G1 Z0F1000
G1 X138.425Y108.423Z0F1800
G1 X138.529Y108.476Z0F1800
G1 X138.636Y108.545Z0F1800
G1 X138.737Y108.622Z0F1800
G1 X138.939Y108.811Z0F1800
G1 X139.117Y109.023Z0F1800
G0 Z3.5F1000
G0 Z3.5
G1 Z0F1000
G1 X138.985Y109.422Z0F1800
G0 Z3.5F1000
G0 Z3.5
G1 Z0F1000
G1 X138.715Y109.485Z0F1800
G1 X138.44Y109.516Z0F1800
G1 X138.313Z0F1800
G1 X138.186Y109.508Z0F1800
G1 X138.071Y109.489Z0F1800
G1 X137.96Y109.454Z0F1800
G0 Z3.5F1000
G0 Z3.5
G1 Z0F1000
G1 X137.394Y109.16Z0F1800
G0 Z3.5F1000
G0 Z3.5
G1 Z0F1000
G1 X136.966Y109.778Z0F1800
G0 Z3.5F1000
G0 Z3.5
G1 Z0F1000
G1 X137.439Y110.205Z0F1800
G0 Z3.5F1000
G0 Z3.5
G1 Z0F1000
G1 X137.511Y110.297Z0F1800
G1 X137.57Y110.398Z0F1800
G1 X137.623Y110.513Z0F1800
G1 X137.666Y110.633Z0F1800
G1 X137.734Y110.901Z0F1800
G1 X137.769Y111.176Z0F1800
G0 Z3.5F1000
G0 Z3.5
G1 Z0F1000
G1 X137.442Y111.44Z0F1800
G0 Z3.5F1000
G0 Z3.5
G1 Z0F1000
G1 X137.181Y111.348Z0F1800
G1 X136.933Y111.225Z0F1800
G1 X136.825Y111.157Z0F1800
G1 X136.724Y111.081Z0F1800
G1 X136.637Y111.002Z0F1800
G1 X136.563Y110.912Z0F1800
G0 Z3.5F1000
G0 Z3.5
G1 Z0F1000
G1 X136.245Y110.36Z0F1800
G0 Z3.5F1000
G0 Z3.5
G1 Z0F1000
G1 X135.551Y110.648Z0F1800
G0 Z3.5F1000
G0 Z3.5
G1 Z0F1000
G1 X135.718Y111.263Z0F1800
G0 Z3.5F1000
G0 Z3.5
G1 Z0F1000
G1 X135.729Y111.379Z0F1800
G1 X135.724Y111.496Z0F1800
G1 X135.706Y111.622Z0F1800
G1 X135.678Y111.746Z0F1800
G1 X135.59Y112.008Z0F1800
G1 X135.471Y112.258Z0F1800
G0 Z3.5F1000
G0 Z3.5
G1 Z0F1000
G1 X135.053Y112.304Z0F1800
G0 Z3.5F1000
G0 Z3.5
G1 Z0F1000
G1 X134.884Y112.085Z0F1800
G1 X134.741Y111.847Z0F1800
G1 X134.687Y111.732Z0F1800
G1 X134.643Y111.613Z0F1800
G1 X134.613Y111.5Z0F1800
G1 X134.599Y111.384Z0F1800
G0 Z3.5F1000
G0 Z3.5
G1 Z0F1000
G1 X134.63Y110.748Z0F1800
G0 Z3.5F1000
G0 Z3.5
G1 Z0F1000
G1 X133.89Y110.615Z0F1800
G0 Z3.5F1000
G0 Z3.5
G1 Z0F1000
G1 X133.699Y111.222Z0F1800
G0 Z3.5F1000
G0 Z3.5
G1 Z0F1000
G1 X133.645Y111.326Z0F1800
G1 X133.578Y111.422Z0F1800
G1 X133.495Y111.518Z0F1800
G1 X133.404Y111.607Z0F1800
G1 X133.188Y111.78Z0F1800
G1 X132.952Y111.926Z0F1800
G0 Z3.5F1000
G0 Z3.5
G1 Z0F1000
G1 X132.577Y111.739Z0F1800
G0 Z3.5F1000
G0 Z3.5
G1 Z0F1000
G1 X132.552Y111.463Z0F1800
G1 X132.561Y111.186Z0F1800
G1 X132.578Y111.06Z0F1800
G1 X132.605Y110.936Z0F1800
G1 X132.641Y110.824Z0F1800
G1 X132.691Y110.719Z0F1800
G0 Z3.5F1000
G0 Z3.5
G1 Z0F1000
G1 X133.062Y110.201Z0F1800
G0 Z3.5F1000
G0 Z3.5
G1 Z0F1000
G1 X132.511Y109.689Z0F1800
G0 Z3.5F1000
G0 Z3.5
G1 Z0F1000
G1 X132.022Y110.097Z0F1800
G0 Z3.5F1000
G0 Z3.5
G1 Z0F1000
G1 X131.921Y110.155Z0F1800
G1 X131.812Y110.199Z0F1800
G1 X131.69Y110.235Z0F1800
G1 X131.566Y110.261Z0F1800
G1 X131.29Y110.29Z0F1800
G1 X131.013Y110.285Z0F1800
G0 Z3.5F1000
G0 Z3.5
G1 Z0F1000
G1 X130.799Y109.924Z0F1800
G0 Z3.5F1000
G0 Z3.5
G1 Z0F1000
G1 X130.927Y109.679Z0F1800
G1 X131.084Y109.451Z0F1800
G1 X131.167Y109.354Z0F1800
G1 X131.257Y109.264Z0F1800
G1 X131.347Y109.19Z0F1800
G1 X131.446Y109.129Z0F1800
G0 Z3.5F1000
G0 Z3.5
G1 Z0F1000
G1 X132.038Y108.893Z0F1800
G0 Z3.5F1000
G0 Z3.5
G1 Z0F1000
G1 X131.852Y108.165Z0F1800
G0 Z3.5F1000
G0 Z3.5
G1 Z0F1000
G1 X131.22Y108.243Z0F1800
G0 Z3.5F1000
G0 Z3.5
G1 Z0F1000
G1 X131.103Y108.238Z0F1800
G1 X130.988Y108.216Z0F1800
G1 X130.866Y108.18Z0F1800
G1 X130.747Y108.135Z0F1800
G1 X130.5Y108.01Z0F1800
G1 X130.269Y107.857Z0F1800
G0 Z3.5F1000
G0 X133.602Y108.69Z3.5
G1 Z0F1000
G1 X135.887Y108.77Z0F1800
G0 Z3.5F1000
G0 Z3.5
G1 Z0F1000
G1 X136.038Y108.562Z0F1800
G1 X136.149Y108.337Z0F1800
G1 X136.219Y108.1Z0F1800
G1 X136.248Y107.855Z0F1800
G1 X136.236Y107.609Z0F1800
G1 X136.183Y107.368Z0F1800
G1 X136.088Y107.135Z0F1800
G1 X135.952Y106.918Z0F1800
G0 Z3.5F1000
G0 Z3.5
G1 Z0F1000
G1 X133.667Y106.838Z0F1800
G0 Z3.5F1000
G0 Z3.5
G1 Z0F1000
G1 X133.516Y107.046Z0F1800
G1 X133.406Y107.271Z0F1800
G1 X133.336Y107.508Z0F1800
G1 X133.307Y107.753Z0F1800
G1 X133.319Y107.998Z0F1800
G1 X133.372Y108.24Z0F1800
G1 X133.466Y108.472Z0F1800
G1 X133.602Y108.69Z0F1800
G0 Z3.5F1000
G0 X133.699Y115.355Z3.5
G1 Z0F1000
G1 X132.952Z0F1800
G0 Z3.5F1000
G0 Z3.5
G1 Z0F1000
G1 X132.577Z0F1800
G0 Z3.5F1000
G0 Z3.5
G1 Z0F1000
G1 X132.551Z0F1800
G0 Z3.5F1000
G0 Z3.5
G1 Z0F1000
G1 X132.511Z0F1800
G0 Z3.5F1000
G0 Z3.5
G1 Z0F1000
G1 X132.022Z0F1800
G0 Z3.5F1000
G0 Z3.5
G1 Z0F1000
G1 X131.013Z0F1800
G0 Z3.5F1000
G0 Z3.5
G1 Z0F1000
G1 X130.799Z0F1800
G0 Z3.5F1000
G0 Z3.5
G1 Z0F1000
G1 X130.269Z0F1800
G0 Z3.5F1000
G0 Z3.5
G1 Z0F1000
G1 Y118.079Z0F1800
G0 Z3.5F1000
G0 Z3.5
G1 Z0F1000
G1 X130.799Z0F1800
G0 Z3.5F1000
G0 Z3.5
G1 Z0F1000
G1 X131.013Z0F1800
G0 Z3.5F1000
G0 Z3.5
G1 Z0F1000
G1 X132.022Z0F1800
G0 Z3.5F1000
G0 Z3.5
G1 Z0F1000
G1 X132.511Z0F1800
G0 Z3.5F1000
G0 Z3.5
G1 Z0F1000
G1 X132.551Z0F1800
G0 Z3.5F1000
G0 Z3.5
G1 Z0F1000
G1 X132.577Z0F1800
G0 Z3.5F1000
G0 Z3.5
G1 Z0F1000
G1 X132.952Z0F1800
G0 Z3.5F1000
G0 Z3.5
G1 Z0F1000
G1 X133.699Z0F1800
G0 Z3.5F1000
G0 Z3.5
G1 Z0F1000
G1 X133.89Z0F1800
G0 Z3.5F1000
G0 Z3.5
G1 Z0F1000
G1 X134.599Z0F1800
G0 Z3.5F1000
G0 Z3.5
G1 Z0F1000
G1 X135.053Z0F1800
G0 Z3.5F1000
G0 Z3.5
G1 Z0F1000
G1 X135.471Z0F1800
G0 Z3.5F1000
G0 Z3.5
G1 Z0F1000
G1 X135.729Z0F1800
G0 Z3.5F1000
G0 Z3.5
G1 Z0F1000
G1 X136.245Z0F1800
G0 Z3.5F1000
G0 Z3.5
G1 Z0F1000
G1 X136.563Z0F1800
G0 Z3.5F1000
G0 Z3.5
G1 Z0F1000
G1 X137.442Z0F1800
G0 Z3.5F1000
G0 Z3.5
G1 Z0F1000
G1 X137.769Z0F1800
G0 Z3.5F1000
G0 Z3.5
G1 Z0F1000
G1 X137.96Z0F1800
G0 Z3.5F1000
G0 Z3.5
G1 Z0F1000
G1 X138.985Z0F1800
G0 Z3.5F1000
G0 Z3.5
G1 Z0F1000
G1 X139.117Z0F1800
G0 Z3.5F1000
G0 Z3.5
G1 Z0F1000
G1 X139.192Z0F1800
G0 Z3.5F1000
G0 Z3.5
G1 Z0F1000
G1 Y115.355Z0F1800
G0 Z3.5F1000
G0 Z3.5
G1 Z0F1000
G1 X139.117Z0F1800
G0 Z3.5F1000
G0 Z3.5
G1 Z0F1000
G1 X138.985Z0F1800
G0 Z3.5F1000
G0 Z3.5
G1 Z0F1000
G1 X137.96Z0F1800
G0 Z3.5F1000
G0 Z3.5
G1 Z0F1000
G1 X137.769Z0F1800
G0 Z3.5F1000
G0 Z3.5
G1 Z0F1000
G1 X137.442Z0F1800
G0 Z3.5F1000
G0 Z3.5
G1 Z0F1000
G1 X136.563Z0F1800
G0 Z3.5F1000
G0 Z3.5
G1 Z0F1000
G1 X136.245Z0F1800
G0 Z3.5F1000
G0 Z3.5
G1 Z0F1000
G1 X135.729Z0F1800
G0 Z3.5F1000
G0 Z3.5
G1 Z0F1000
G1 X135.471Z0F1800
G0 Z3.5F1000
G0 Z3.5
G1 Z0F1000
G1 X135.053Z0F1800
G0 Z3.5F1000
G0 Z3.5
G1 Z0F1000
G1 X134.599Z0F1800
G0 Z3.5F1000
G0 Z3.5
G1 Z0F1000
G1 X133.89Z0F1800
G0 Z3.5F1000
G0 Z3.5
G1 Z0F1000
G1 X133.699Z0F1800
G0 Z3.5F1000
G0 Z3.5
G1 Z0F1000
G1 Y118.079Z0F1800
G0 Z3.5F1000
G0 X133.89Z3.5
G1 Z0F1000
G1 Y115.355Z0F1800
G0 Z3.5F1000
G0 X134.599Z3.5
G1 Z0F1000
G0 Z3.5F1000
G0 Z3.5
G1 Z0F1000
G1 Y118.079Z0F1800
G0 Z3.5F1000
G0 Z3.5
G1 Z0F1000
G0 Z3.5F1000
G0 X135.053Z3.5
G1 Z0F1000
G1 Y115.355Z0F1800
G0 Z3.5F1000
G0 X135.471Z3.5
G1 Z0F1000
G1 Y118.079Z0F1800
G0 Z3.5F1000
G0 X135.729Z3.5
G1 Z0F1000
G1 Y115.355Z0F1800
G0 Z3.5F1000
G0 X136.245Z3.5
G1 Z0F1000
G1 Y118.079Z0F1800
G0 Z3.5F1000
G0 X136.563Z3.5
G1 Z0F1000
G1 Y115.355Z0F1800
G0 Z3.5F1000
G0 X137.442Z3.5
G1 Z0F1000
G1 Y118.079Z0F1800
G0 Z3.5F1000
G0 X137.769Z3.5
G1 Z0F1000
G1 Y115.355Z0F1800
G0 Z3.5F1000
G0 X137.96Z3.5
G1 Z0F1000
G1 Y118.079Z0F1800
G0 Z3.5F1000
G0 X138.985Z3.5
G1 Z0F1000
G1 Y115.355Z0F1800
G0 Z3.5F1000
G0 X139.117Z3.5
G1 Z0F1000
G1 Y118.079Z0F1800
G0 Z3.5F1000
G0 X139.192Z3.5
G1 Z0F1000
G1 Y122.109Z0F1800
G0 Z3.5F1000
G0 X139.597Y122.491Z3.5
G1 Z0F1000
G1 X140.506Y124.849Z0F1800
G1 X139.228Z0F1800
G1 Y125.152Z0F1800
G1 X140.94Z0F1800
G1 Y124.999Z0F1800
G1 X139.973Y122.491Z0F1800
G1 X139.597Z0F1800
G0 Z3.5F1000
G0 X138.484Y122.774Z3.5
G1 Z0F1000
G1 X138.366Y122.655Z0F1800
G1 X138.216Y122.56Z0F1800
G1 X138.038Y122.493Z0F1800
G1 X137.831Y122.452Z0F1800
G1 X137.596Y122.439Z0F1800
G1 X137.425Y122.447Z0F1800
G1 X137.25Y122.472Z0F1800
G1 X137.07Y122.513Z0F1800
G1 X136.884Y122.571Z0F1800
G1 Y122.918Z0F1800
G1 X137.041Y122.842Z0F1800
G1 X137.213Y122.787Z0F1800
G1 X137.395Y122.753Z0F1800
G1 X137.585Y122.742Z0F1800
G1 X137.744Y122.75Z0F1800
G1 X137.883Y122.775Z0F1800
G1 X138.002Y122.817Z0F1800
G1 X138.101Y122.876Z0F1800
G1 X138.179Y122.95Z0F1800
G1 X138.234Y123.04Z0F1800
G1 X138.267Y123.144Z0F1800
G1 X138.279Y123.264Z0F1800
G1 X138.268Y123.376Z0F1800
G1 X138.237Y123.474Z0F1800
G1 X138.186Y123.56Z0F1800
G1 X138.114Y123.632Z0F1800
G1 X138.023Y123.69Z0F1800
G1 X137.916Y123.732Z0F1800
G1 X137.793Y123.757Z0F1800
G1 X137.654Y123.765Z0F1800
G1 X137.344Z0F1800
G1 Y124.061Z0F1800
G1 X137.669Z0F1800
G1 X137.903Y124.088Z0F1800
G1 X138.075Y124.167Z0F1800
G1 X138.137Y124.226Z0F1800
G1 X138.181Y124.297Z0F1800
G1 X138.207Y124.379Z0F1800
G1 X138.216Y124.473Z0F1800
G1 X138.207Y124.569Z0F1800
G1 X138.179Y124.654Z0F1800
G1 X138.134Y124.727Z0F1800
G1 X138.071Y124.788Z0F1800
G1 X137.894Y124.87Z0F1800
G1 X137.654Y124.897Z0F1800
G1 X137.501Y124.889Z0F1800
G1 X137.337Y124.865Z0F1800
G1 X137.159Y124.824Z0F1800
G1 X136.965Y124.766Z0F1800
G1 Y125.086Z0F1800
G1 X137.163Y125.136Z0F1800
G1 X137.349Y125.172Z0F1800
G1 X137.523Y125.193Z0F1800
G1 X137.686Y125.2Z0F1800
G1 X137.881Y125.189Z0F1800
G1 X138.054Y125.154Z0F1800
G1 X138.205Y125.096Z0F1800
G1 X138.336Y125.014Z0F1800
G1 X138.44Y124.913Z0F1800
G1 X138.515Y124.795Z0F1800
G1 X138.56Y124.661Z0F1800
G1 X138.575Y124.511Z0F1800
G1 X138.543Y124.307Z0F1800
G1 X138.448Y124.137Z0F1800
G1 X138.294Y124.008Z0F1800
G1 X138.087Y123.926Z0F1800
G1 X138.21Y123.891Z0F1800
G1 X138.318Y123.841Z0F1800
G1 X138.412Y123.776Z0F1800
G1 X138.492Y123.696Z0F1800
G1 X138.555Y123.603Z0F1800
G1 X138.6Y123.5Z0F1800
G1 X138.628Y123.387Z0F1800
G1 X138.637Y123.264Z0F1800
G1 X138.62Y123.078Z0F1800
G1 X138.569Y122.915Z0F1800
G1 X138.484Y122.774Z0F1800
G0 Z3.5F1000
G0 X136.212Y122.944Z3.5
G1 Z0F1000
G1 Y122.491Z0F1800
G1 X135.836Z0F1800
G1 Y122.944Z0F1800
G1 X136.212Z0F1800
G0 Z3.5F1000
G0 X134.819Y123.088Z3.5
G1 Z0F1000
G1 X134.846Y123.209Z0F1800
G1 X134.854Y123.345Z0F1800
G1 X134.846Y123.481Z0F1800
G1 X134.819Y123.603Z0F1800
G1 X134.775Y123.708Z0F1800
G1 X134.713Y123.799Z0F1800
G1 X134.635Y123.871Z0F1800
G1 X134.546Y123.923Z0F1800
G1 X134.443Y123.954Z0F1800
G1 X134.328Y123.965Z0F1800
G1 X134.213Y123.954Z0F1800
G1 X134.111Y123.923Z0F1800
G1 X134.021Y123.871Z0F1800
G1 X133.944Y123.799Z0F1800
G1 X133.882Y123.708Z0F1800
G1 X133.838Y123.603Z0F1800
G1 X133.811Y123.481Z0F1800
G1 X133.802Y123.345Z0F1800
G1 X133.811Y123.209Z0F1800
G1 X133.838Y123.088Z0F1800
G1 X133.882Y122.982Z0F1800
G1 X133.944Y122.891Z0F1800
G1 X134.021Y122.818Z0F1800
G1 X134.111Y122.766Z0F1800
G1 X134.213Y122.734Z0F1800
G1 X134.328Y122.724Z0F1800
G1 X134.443Y122.734Z0F1800
G1 X134.546Y122.766Z0F1800
G1 X134.635Y122.818Z0F1800
G1 X134.713Y122.891Z0F1800
G1 X134.775Y122.982Z0F1800
G1 X134.819Y123.088Z0F1800
G0 Z3.5F1000
G0 X135.155Y122.975Z3.5
G1 Z0F1000
G1 X135.08Y122.821Z0F1800
G1 X134.974Y122.687Z0F1800
G1 X134.842Y122.578Z0F1800
G1 X134.691Y122.501Z0F1800
G1 X134.52Y122.454Z0F1800
G1 X134.328Y122.439Z0F1800
G1 X134.111Y122.461Z0F1800
G1 X133.921Y122.527Z0F1800
G1 X133.758Y122.638Z0F1800
G1 X133.622Y122.793Z0F1800
G1 X133.515Y122.989Z0F1800
G1 X133.439Y123.226Z0F1800
G1 X133.393Y123.503Z0F1800
G1 X133.378Y123.819Z0F1800
G1 X133.397Y124.118Z0F1800
G1 X133.453Y124.386Z0F1800
G1 X133.546Y124.621Z0F1800
G1 X133.677Y124.825Z0F1800
G1 X133.84Y124.989Z0F1800
G1 X134.028Y125.107Z0F1800
G1 X134.242Y125.177Z0F1800
G1 X134.482Y125.2Z0F1800
G1 X134.618Y125.194Z0F1800
G1 X134.755Y125.174Z0F1800
G1 X134.897Y125.14Z0F1800
G1 X135.043Y125.094Z0F1800
G1 Y124.766Z0F1800
G1 X134.907Y124.822Z0F1800
G1 X134.77Y124.864Z0F1800
G1 X134.632Y124.889Z0F1800
G1 X134.496Y124.897Z0F1800
G1 X134.328Y124.882Z0F1800
G1 X134.182Y124.837Z0F1800
G1 X134.056Y124.762Z0F1800
G1 X133.951Y124.657Z0F1800
G1 X133.867Y124.521Z0F1800
G1 X133.803Y124.355Z0F1800
G1 X133.76Y124.157Z0F1800
G1 X133.737Y123.929Z0F1800
G1 X133.855Y124.066Z0F1800
G1 X134Y124.167Z0F1800
G1 X134.167Y124.229Z0F1800
G1 X134.35Y124.25Z0F1800
G1 X134.54Y124.235Z0F1800
G1 X134.709Y124.189Z0F1800
G1 X134.857Y124.113Z0F1800
G1 X134.984Y124.007Z0F1800
G1 X135.085Y123.874Z0F1800
G1 X135.158Y123.719Z0F1800
G1 X135.202Y123.543Z0F1800
G1 X135.216Y123.345Z0F1800
G1 X135.201Y123.15Z0F1800
G1 X135.155Y122.975Z0F1800
G0 Z3.5F1000
G0 X132.787Y122.793Z3.5
G1 Z0F1000
G1 Y122.491Z0F1800
G1 X131.253Z0F1800
G1 Y122.793Z0F1800
G1 X131.842Z0F1800
G1 Y124.824Z0F1800
G1 X131.202Y124.696Z0F1800
G1 Y125.024Z0F1800
G1 X131.838Y125.152Z0F1800
G1 X132.199Z0F1800
G1 Y122.793Z0F1800
G1 X132.787Z0F1800
G0 Z3.5F1000
G0 X130.269Y122.109Z3.5
G1 Z0F1000
G1 Y118.079Z0F1800
G0 Z3.5F1000
G0 X130.799Z3.5
G1 Z0F1000
G1 Y115.355Z0F1800
G0 Z3.5F1000
G0 X131.013Z3.5
G1 Z0F1000
G1 Y118.079Z0F1800
G0 Z3.5F1000
G0 X132.022Z3.5
G1 Z0F1000
G1 Y115.355Z0F1800
G0 Z3.5F1000
G0 X132.511Z3.5
G1 Z0F1000
G1 Y118.079Z0F1800
G0 Z3.5F1000
G0 X132.551Z3.5
G1 Z0F1000
G1 Y115.355Z0F1800
G0 Z3.5F1000
G0 X132.577Z3.5
G1 Z0F1000
G1 Y118.079Z0F1800
G0 Z3.5F1000
G0 X132.952Z3.5
G1 Z0F1000
G1 Y115.355Z0F1800
G0 Z3.5F1000
G0 X132.177Y120.265Z3.5
G1 Z0F1000
G1 Y120.901Z0F1800
G1 X130.27Y120.583Z0F1800
G1 X132.177Y120.265Z0F1800
G0 Z3.5F1000
G0 X130.269Y120.583Z3.5
G1 Z0F1000
G1 X139.192Z0F1800
G0 Z3.5F1000
G0 Z3.5
G1 Z0F1000
G1 X137.285Y120.901Z0F1800
G1 Y120.265Z0F1800
G1 X139.192Y120.583Z0F1800
M9
G1 Z10 F1000
G90
G1 Z10 F800
