
G0 Z10 F500;      ; Move to clearance level - Z motion limited to 500
; G0 X-10 Y-10 F1200; Homing
; G0 X-5 Y-5 F1200; go in
; G10 P0 L20 X0 Y0; set to zero
G1 F1200;           ; Set feed rate to 1000
;LightBurn 1.6.04
;Custom GCode device profile, absolute coords
;Bounds: X16.39 Y23.55 to X123.61 Y118.45
G00 G17 G40 G21 G54
G90
M3
G1 Z10 F500
;Cut @ 1200 mm/min, 90% power

M8

; Washing sequence (no color)
G1 Z10 F1000;        ; Raise brush to safe height
G0 X5 Y5 F1200;     ; Rapid move to brush cleaning position
G1 Z-1 F800;         ; Lower brush for cleaning - controlled movement
G1 X10 Y12 Z8 F1200;     ; Rapid move to brush cleaning position
G1 Z-1 F800;         ; Lower brush for cleaning - controlled movement
G1 X25 Y14 Z6 F800;     ; Move across cleaning area - controlled movement
G1 Z8 F800;         ; Maintain brush height - controlled movement
G0 X5 Y5 F1200;     ; Rapid move to brush cleaning position
G1 Z-1 F800;         ; Lower brush for cleaning - controlled movement
G1 X15 Y12 Z8 F1200;     ; Rapid move to brush cleaning position
G1 Z-1 F800;         ; Lower brush for cleaning - controlled movement
G1 X25 Y14 Z6 F800;     ; Move across cleaning area - controlled movement
G1 Z10 F800;         ; Maintain brush height - controlled movement
G1 F1200;           ; Set feed rate to 1000

; Color 1 picking sequence
G1 Z10 F500;         ; Raise brush to safe height
G0 X86 Y5 F1200;    ; Rapid move to color 1 position
G1 Z0 F500;         ; Lower into color - controlled movement
G1 X85.102Y7.295Z0S800F1200
G1 X85.026Y7.642Z0F1200
G1 X85Y8Z0F1200
G1 X85.026Y8.358Z0F1200
G1 X85.102Y8.705Z0F1200
G1 X85.225Y9.041Z0F1200
G1 X85.393Y9.362Z0F1200
G1 X85.603Y9.668Z0F1200
G1 X85.854Y9.957Z0F1200
G1 X86.142Y10.226Z0F1200
G1 X86.464Y10.475Z0F1200
G1 X86.82Y10.701Z0F1200
G1 X87.204Y10.902Z0F1200
G1 X87.617Y11.078Z0F1200
G1 X88.054Y11.225Z0F1200
G1 X88.513Y11.343Z0F1200
G1 X88.992Y11.429Z0F1200
G1 X89.489Y11.482Z0F1200
G1 X90Y11.5Z0F1200
G1 X90.511Y11.482Z0F1200
G1 X91.008Y11.429Z0F1200
G1 X91.487Y11.343Z0F1200
G1 X91.946Y11.225Z0F1200
G1 X92.383Y11.078Z0F1200
G1 X92.796Y10.902Z0F1200
G1 X93.18Y10.701Z0F1200
G1 X93.536Y10.475Z0F1200
G1 X93.858Y10.226Z0F1200
G1 X94.146Y9.957Z0F1200
G1 X94.397Y9.668Z0F1200
G1 X94.607Y9.362Z0F1200
G1 X94.775Y9.041Z0F1200
G1 X94.898Y8.705Z0F1200
G1 X94.974Y8.358Z0F1200
G1 X95Y8Z0F1200
G1 X94.974Y7.642Z0F1200
G1 X94.898Y7.295Z0F1200
G1 X94.775Y6.959Z0F1200
G1 X94.607Y6.638Z0F1200
G1 X94.397Y6.332Z0F1200
G1 X94.146Y6.043Z0F1200
G1 X93.858Y5.774Z0F1200
G1 X93.536Y5.525Z0F1200
G1 X93.18Y5.299Z0F1200
G1 X92.796Y5.098Z0F1200
G1 X92.383Y4.922Z0F1200
G1 X91.946Y4.775Z0F1200
G1 X91.487Y4.657Z0F1200
G1 X91.008Y4.571Z0F1200
G1 X90.511Y4.518Z0F1200
G1 X90Y4.5Z0F1200
G1 X89.489Y4.518Z0F1200
G1 X88.992Y4.571Z0F1200
G1 X88.513Y4.657Z0F1200
G1 X88.054Y4.775Z0F1200
G1 X87.617Y4.922Z0F1200
G1 X87.204Y5.098Z0F1200
G1 X86.82Y5.299Z0F1200
G1 X86.464Y5.525Z0F1200
G1 X86.142Y5.774Z0F1200
G1 X85.854Y6.043Z0F1200
G1 X85.603Y6.332Z0F1200
G1 X85.393Y6.638Z0F1200
G1 X85.225Y6.959Z0F1200
G1 Z7 F800;         ; Raise from color - controlled movement
G1 X79 Y8 Z1 F1200;     ; Movement in paint - controlled movement
G1 X69 Y12 Z8 F500;     ; Move in paint - controlled movement
G1 F1200;           ; Set feed rate to 1000
G0 Z5.8
G0 X57.538Y35.628Z2.8
G0 Z0
;Layer Blue
G1 X56.135Y32.356Z0S900F1200
G1 X54.596Y28.605Z0
G1 X54.464Y28.419Z0
G1 X54.278Y28.304Z0
G1 X54.06Y28.272Z0
G1 X53.836Y28.337Z0
G1 X49.237Y30.763Z0
G1 X48.999Y30.85Z0
G1 X48.73Y30.872Z0
G1 X48.464Y30.828Z0
G1 X48.235Y30.719Z0
G1 X37.793Y23.67Z0
G1 X37.569Y23.572Z0
G1 X37.323Y23.55Z0
G1 X37.083Y23.605Z0
G1 X36.88Y23.736Z0
G1 X27.291Y33.16Z0
G1 X27.155Y33.358Z0
G1 X27.094Y33.593Z0
G1 X27.111Y33.837Z0
G1 X27.21Y34.057Z0
G1 X34.502Y44.51Z0
G1 X34.614Y44.737Z0
G1 X34.667Y45Z0
G1 X34.66Y45.268Z0
G1 X34.586Y45.509Z0
G1 X30.577Y55.366Z0
G1 X30.463Y55.59Z0
G1 X30.283Y55.788Z0
G1 X30.059Y55.94Z0
G1 X29.817Y56.028Z0
G1 X16.974Y58.371Z0
G1 X16.748Y58.459Z0
G1 X16.56Y58.62Z0
G1 X16.432Y58.832Z0
G1 X16.385Y59.068Z0
G1 Y72.388Z0
G1 X16.43Y72.625Z0
G1 X16.554Y72.836Z0
G1 X16.738Y72.997Z0
G1 X16.963Y73.085Z0
G1 X30.137Y75.492Z0
G1 X30.381Y75.58Z0
G1 X30.61Y75.731Z0
G1 X30.797Y75.929Z0
G1 X30.919Y76.152Z0
G1 X34.956Y85.412Z0
G1 X35.034Y85.653Z0
G1 X35.049Y85.922Z0
G1 X35.002Y86.188Z0
G1 X34.895Y86.416Z0
G1 X27.224Y97.407Z0
G1 X27.124Y97.625Z0
G1 X27.106Y97.87Z0
G1 X27.165Y98.107Z0
G1 X27.302Y98.304Z0
G1 X36.885Y107.723Z0
G1 X37.088Y107.856Z0
G1 X37.328Y107.911Z0
G1 X37.575Y107.889Z0
G1 X37.799Y107.791Z0
G1 X49.177Y100.12Z0
G1 X49.41Y100.01Z0
G1 X49.681Y99.955Z0
G1 X49.956Y99.966Z0
G1 X50.201Y100.042Z0
G1 X59.321Y103.717Z0
G1 X59.547Y103.831Z0
G1 X59.748Y104.012Z0
G1 X59.901Y104.234Z0
G1 X59.988Y104.471Z0
G1 X62.538Y117.86Z0
G1 X62.624Y118.085Z0
G1 X62.782Y118.27Z0
G1 X62.99Y118.395Z0
G1 X63.226Y118.439Z0
G1 X63.214Y118.45Z0
G1 X76.77Z0
G1 X77.011Y118.406Z0
G1 X77.223Y118.281Z0
G1 X77.385Y118.096Z0
G1 X77.474Y117.871Z0
G1 X80.008Y104.482Z0
G1 X80.094Y104.244Z0
G1 X80.25Y104.022Z0
G1 X80.452Y103.841Z0
G1 X80.68Y103.727Z0
G1 X89.811Y100.052Z0
G1 X90.057Y99.975Z0
G1 X90.333Y99.965Z0
G1 X90.604Y100.02Z0
G1 X90.835Y100.129Z0
G1 X102.213Y107.8Z0
G1 X102.434Y107.899Z0
G1 X102.677Y107.921Z0
G1 X102.914Y107.866Z0
G1 X103.117Y107.734Z0
G1 X112.699Y98.315Z0
G1 X112.836Y98.118Z0
G1 X112.9Y97.881Z0
G1 X112.885Y97.637Z0
G1 X112.788Y97.419Z0
G1 X105.105Y86.427Z0
G1 X104.996Y86.199Z0
G1 X104.951Y85.934Z0
G1 X104.969Y85.664Z0
G1 X105.049Y85.424Z0
G1 X109.075Y76.164Z0
G1 X109.197Y75.94Z0
G1 X109.387Y75.743Z0
G1 X109.617Y75.593Z0
G1 X109.863Y75.505Z0
G1 X123.031Y73.098Z0
G1 X123.257Y73.01Z0
G1 X123.444Y72.849Z0
G1 X123.57Y72.638Z0
G1 X123.615Y72.403Z0
G1 X123.606Y59.082Z0
G1 X123.561Y58.846Z0
G1 X123.438Y58.635Z0
G1 X123.254Y58.474Z0
G1 X123.028Y58.386Z0
G1 X110.185Y56.043Z0
G1 X109.944Y55.956Z0
G1 X109.722Y55.803Z0
G1 X109.542Y55.604Z0
G1 X109.425Y55.379Z0
G1 X105.422Y45.522Z0
G1 X105.347Y45.281Z0
G1 X105.336Y45.012Z0
G1 X105.388Y44.749Z0
G1 X105.499Y44.525Z0
G1 X112.796Y34.071Z0
G1 X112.894Y33.851Z0
G1 X112.908Y33.608Z0
G1 X112.844Y33.372Z0
G1 X112.708Y33.175Z0
G1 X103.125Y23.751Z0
G1 X102.923Y23.617Z0
G1 X102.682Y23.551Z0
G1 X102.432Y23.563Z0
G1 X102.206Y23.661Z0
G1 X91.764Y30.709Z0
G1 X91.535Y30.819Z0
G1 X91.269Y30.863Z0
G1 X90.999Y30.841Z0
G1 X90.761Y30.753Z0
G1 X86.163Y28.328Z0
G1 X85.938Y28.262Z0
G1 X85.721Y28.295Z0
G1 X85.534Y28.408Z0
G1 X85.402Y28.596Z0
G1 X83.984Y31.76Z0
G1 X82.112Y35.982Z0
;Cut @ 1200 mm/min, 90% power

M8

; Washing sequence (no color)
G1 Z10 F1000;        ; Raise brush to safe height
G0 X5 Y5 F1200;     ; Rapid move to brush cleaning position
G1 Z-1 F800;         ; Lower brush for cleaning - controlled movement
G1 X10 Y12 Z8 F1200;     ; Rapid move to brush cleaning position
G1 Z-1 F800;         ; Lower brush for cleaning - controlled movement
G1 X25 Y14 Z6 F800;     ; Move across cleaning area - controlled movement
G1 Z8 F800;         ; Maintain brush height - controlled movement
G0 X5 Y5 F1200;     ; Rapid move to brush cleaning position
G1 Z-1 F800;         ; Lower brush for cleaning - controlled movement
G1 X15 Y12 Z8 F1200;     ; Rapid move to brush cleaning position
G1 Z-1 F800;         ; Lower brush for cleaning - controlled movement
G1 X25 Y14 Z6 F800;     ; Move across cleaning area - controlled movement
G1 Z10 F800;         ; Maintain brush height - controlled movement
G1 F1200;           ; Set feed rate to 1000

; Color 1 picking sequence
G1 Z10 F500;         ; Raise brush to safe height
G0 X41 Y5 F1200;    ; Rapid move to color 1 position
G1 Z0 F500;         ; Lower into color - controlled movement
G1 X40.102Y7.295Z0S800F1200
G1 X40.026Y7.642Z0F1200
G1 X40Y8Z0F1200
G1 X40.026Y8.358Z0F1200
G1 X40.102Y8.705Z0F1200
G1 X40.225Y9.041Z0F1200
G1 X40.393Y9.362Z0F1200
G1 X40.603Y9.668Z0F1200
G1 X40.854Y9.957Z0F1200
G1 X41.142Y10.226Z0F1200
G1 X41.464Y10.475Z0F1200
G1 X41.82Y10.701Z0F1200
G1 X42.204Y10.902Z0F1200
G1 X42.617Y11.078Z0F1200
G1 X43.054Y11.225Z0F1200
G1 X43.513Y11.343Z0F1200
G1 X43.992Y11.429Z0F1200
G1 X44.489Y11.482Z0F1200
G1 X45Y11.5Z0F1200
G1 X45.511Y11.482Z0F1200
G1 X46.008Y11.429Z0F1200
G1 X46.487Y11.343Z0F1200
G1 X46.946Y11.225Z0F1200
G1 X47.383Y11.078Z0F1200
G1 X47.796Y10.902Z0F1200
G1 X48.18Y10.701Z0F1200
G1 X48.536Y10.475Z0F1200
G1 X48.858Y10.226Z0F1200
G1 X49.146Y9.957Z0F1200
G1 X49.397Y9.668Z0F1200
G1 X49.607Y9.362Z0F1200
G1 X49.775Y9.041Z0F1200
G1 X49.898Y8.705Z0F1200
G1 X49.974Y8.358Z0F1200
G1 X50Y8Z0F1200
G1 X49.974Y7.642Z0F1200
G1 X49.898Y7.295Z0F1200
G1 X49.775Y6.959Z0F1200
G1 X49.607Y6.638Z0F1200
G1 X49.397Y6.332Z0F1200
G1 X49.146Y6.043Z0F1200
G1 X48.858Y5.774Z0F1200
G1 X48.536Y5.525Z0F1200
G1 X48.18Y5.299Z0F1200
G1 X47.796Y5.098Z0F1200
G1 X47.383Y4.922Z0F1200
G1 X46.946Y4.775Z0F1200
G1 X46.487Y4.657Z0F1200
G1 X46.008Y4.571Z0F1200
G1 X45.511Y4.518Z0F1200
G1 X45Y4.5Z0F1200
G1 X44.489Y4.518Z0F1200
G1 X43.992Y4.571Z0F1200
G1 X43.513Y4.657Z0F1200
G1 X43.054Y4.775Z0F1200
G1 X42.617Y4.922Z0F1200
G1 X42.204Y5.098Z0F1200
G1 X41.82Y5.299Z0F1200
G1 X41.464Y5.525Z0F1200
G1 X41.142Y5.774Z0F1200
G1 X40.854Y6.043Z0F1200
G1 X40.603Y6.332Z0F1200
G1 X40.393Y6.638Z0F1200
G1 X40.225Y6.959Z0F1200
G1 Z7 F800;         ; Raise from color - controlled movement
G1 X34 Y8 Z1 F1200;     ; Movement in paint - controlled movement
G1 X24 Y12 Z8 F500;     ; Move in paint - controlled movement
G1 F1200;           ; Set feed rate to 1000
G0 Z4.8
G0 X82.04Y36.719Z2.8
G0 Z0
;Layer Green
G1 X86.125Y40.342Z0
G1 X89.788Y44.269Z0
G1 X92.832Y48.873Z0
G1 X95.173Y54.074Z0
G1 X95.7Y55.782Z0
G1 X96.219Y57.85Z0
G1 X96.651Y59.941Z0
G1 X96.919Y61.718Z0
G1 X97.01Y65.886Z0
G1 X96.357Y69.698Z0
G1 X94.965Y73.139Z0
G1 X92.838Y76.195Z0
G1 X92.289Y76.787Z0
G1 X91.687Y77.387Z0
G1 X91.189Y77.841Z0
G1 X90.955Y78Z0
G1 X90.498Y77.457Z0
G1 X89.588Y76.326Z0
G1 X88.693Y75.197Z0
G1 X88.284Y74.654Z0
G1 X88.32Y74.577Z0
G1 X88.428Y74.431Z0
G1 X88.592Y74.234Z0
G1 X88.796Y74.007Z0
G1 X89.491Y73.149Z0
G1 X89.965Y72.3Z0
G1 X90.213Y71.474Z0
G1 X90.228Y70.682Z0
G1 X88.973Y68.738Z0
G1 X85.998Y67.447Z0
G1 X81.589Y66.879Z0
G1 X76.03Y67.107Z0
G1 X74.796Y67.239Z0
G1 X73.925Y66.322Z0
G1 X72.748Y65.097Z0
G1 X71.433Y63.744Z0
G1 X70.314Y62.605Z0
G1 X69.729Y62.025Z0
G1 X69.609Y61.97Z0
G1 X69.624Y62.28Z0
G1 X69.804Y63.183Z0
G1 X70.882Y68.006Z0
G1 X70.161Y68.181Z0
G1 X66.603Y62.078Z0
G1 X65.212Y59.698Z0
G1 X64.053Y57.727Z0
G1 X63.248Y56.37Z0
G1 X62.919Y55.833Z0
G1 X62.993Y56.325Z0
G1 X63.291Y57.77Z0
G1 X63.765Y59.946Z0
G1 X64.971Y65.323Z0
G1 X65.453Y67.534Z0
G1 X65.763Y69.03Z0
G1 X65.854Y69.581Z0
G1 X65.285Y69.788Z0
G1 X64.285Y70.201Z0
G1 X63.224Y70.663Z0
G1 X62.473Y71.017Z0
G1 X60.936Y71.865Z0
G1 X59.654Y72.674Z0
G1 X58.586Y73.472Z0
G1 X57.692Y74.285Z0
G1 X56.706Y75.475Z0
G1 X56.172Y76.594Z0
G1 X56.084Y77.664Z0
G1 X56.437Y78.704Z0
G1 X56.636Y79.021Z0
G1 X56.873Y79.287Z0
G1 X57.198Y79.554Z0
G1 X57.665Y79.871Z0
G1 X58.061Y80.114Z0
G1 X58.471Y80.345Z0
G1 X58.845Y80.537Z0
G1 X59.136Y80.663Z0
G1 X62.076Y81.364Z0
G1 X65.639Y81.616Z0
G1 X69.634Y81.42Z0
G1 X73.873Y80.774Z0
G1 X75.994Y80.335Z0
G1 X77.42Y82.084Z0
G1 X77.977Y82.772Z0
G1 X78.439Y83.357Z0
G1 X78.757Y83.777Z0
G1 X78.884Y83.97Z0
G1 X77.74Y84.343Z0
G1 X75Y84.936Z0
G1 X71.834Y85.513Z0
G1 X69.417Y85.844Z0
G1 X68.307Y85.921Z0
G1 X67.292Y85.976Z0
G1 X66.352Y86.009Z0
G1 X65.468Y86.016Z0
G1 X64.624Y85.994Z0
G1 X63.8Y85.95Z0
G1 X62.978Y85.884Z0
G1 X62.142Y85.786Z0
G1 X57.463Y84.693Z0
G1 X53.481Y82.692Z0
G1 X50.198Y79.784Z0
G1 X47.614Y75.971Z0
G1 X46.779Y74.164Z0
G1 X46.003Y72.093Z0
G1 X45.361Y69.979Z0
G1 X44.926Y68.042Z0
G1 X44.331Y61.92Z0
G1 X44.707Y56.126Z0
G1 X46.053Y50.672Z0
G1 X48.368Y45.567Z0
G1 X48.989Y44.558Z0
G1 X49.779Y43.39Z0
G1 X50.596Y42.265Z0
G1 X51.298Y41.385Z0
G1 X52.706Y39.91Z0
G1 X54.26Y38.55Z0
G1 X55.928Y37.317Z0
G1 X57.676Y36.222Z0
;Cut @ 1200 mm/min, 80% power

M8

; Washing sequence (no color)
G1 Z10 F1000;        ; Raise brush to safe height
G0 X5 Y5 F1200;     ; Rapid move to brush cleaning position
G1 Z-1 F800;         ; Lower brush for cleaning - controlled movement
G1 X10 Y12 Z8 F1200;     ; Rapid move to brush cleaning position
G1 Z-1 F800;         ; Lower brush for cleaning - controlled movement
G1 X25 Y14 Z6 F800;     ; Move across cleaning area - controlled movement
G1 Z8 F800;         ; Maintain brush height - controlled movement
G0 X5 Y5 F1200;     ; Rapid move to brush cleaning position
G1 Z-1 F800;         ; Lower brush for cleaning - controlled movement
G1 X15 Y12 Z8 F1200;     ; Rapid move to brush cleaning position
G1 Z-1 F800;         ; Lower brush for cleaning - controlled movement
G1 X25 Y14 Z6 F800;     ; Move across cleaning area - controlled movement
G1 Z10 F800;         ; Maintain brush height - controlled movement
G1 F1200;           ; Set feed rate to 1000

; Color 1 picking sequence
G1 Z10 F500;         ; Raise brush to safe height
G0 X131 Y5 F1200;    ; Rapid move to color 1 position
G1 Z0 F500;         ; Lower into color - controlled movement
G1 X130.102Y7.295Z0S800F1200
G1 X130.026Y7.642Z0F1200
G1 X130Y8Z0F1200
G1 X130.026Y8.358Z0F1200
G1 X130.102Y8.705Z0F1200
G1 X130.225Y9.041Z0F1200
G1 X130.393Y9.362Z0F1200
G1 X130.603Y9.668Z0F1200
G1 X130.854Y9.957Z0F1200
G1 X131.142Y10.226Z0F1200
G1 X131.464Y10.475Z0F1200
G1 X131.82Y10.701Z0F1200
G1 X132.204Y10.902Z0F1200
G1 X132.617Y11.078Z0F1200
G1 X133.054Y11.225Z0F1200
G1 X133.513Y11.343Z0F1200
G1 X133.992Y11.429Z0F1200
G1 X134.489Y11.482Z0F1200
G1 X135Y11.5Z0F1200
G1 X135.511Y11.482Z0F1200
G1 X136.008Y11.429Z0F1200
G1 X136.487Y11.343Z0F1200
G1 X136.946Y11.225Z0F1200
G1 X137.383Y11.078Z0F1200
G1 X137.796Y10.902Z0F1200
G1 X138.18Y10.701Z0F1200
G1 X138.536Y10.475Z0F1200
G1 X138.858Y10.226Z0F1200
G1 X139.146Y9.957Z0F1200
G1 X139.397Y9.668Z0F1200
G1 X139.607Y9.362Z0F1200
G1 X139.775Y9.041Z0F1200
G1 X139.898Y8.705Z0F1200
G1 X139.974Y8.358Z0F1200
G1 X140Y8Z0F1200
G1 X139.974Y7.642Z0F1200
G1 X139.898Y7.295Z0F1200
G1 X139.775Y6.959Z0F1200
G1 X139.607Y6.638Z0F1200
G1 X139.397Y6.332Z0F1200
G1 X139.146Y6.043Z0F1200
G1 X138.858Y5.774Z0F1200
G1 X138.536Y5.525Z0F1200
G1 X138.18Y5.299Z0F1200
G1 X137.796Y5.098Z0F1200
G1 X137.383Y4.922Z0F1200
G1 X136.946Y4.775Z0F1200
G1 X136.487Y4.657Z0F1200
G1 X136.008Y4.571Z0F1200
G1 X135.511Y4.518Z0F1200
G1 X135Y4.5Z0F1200
G1 X134.489Y4.518Z0F1200
G1 X133.992Y4.571Z0F1200
G1 X133.513Y4.657Z0F1200
G1 X133.054Y4.775Z0F1200
G1 X132.617Y4.922Z0F1200
G1 X132.204Y5.098Z0F1200
G1 X131.82Y5.299Z0F1200
G1 X131.464Y5.525Z0F1200
G1 X131.142Y5.774Z0F1200
G1 X130.854Y6.043Z0F1200
G1 X130.603Y6.332Z0F1200
G1 X130.393Y6.638Z0F1200
G1 X130.225Y6.959Z0F1200
G1 Z7 F800;         ; Raise from color - controlled movement
G1 X124 Y8 Z1 F1200;     ; Movement in paint - controlled movement
G1 X114 Y12 Z8 F500;     ; Move in paint - controlled movement
G1 F1200;           ; Set feed rate to 1000
G0 Z4.8
G0 X76.957Y72.343Z2.8
G0 Z0
;Layer Red
G1 X76.065Y73.007Z0S800
G1 X75.606Y73.67Z0
G1 X75.477Y73.972Z0
G1 X101.042Y98.986Z0
G1 Y98.971Z0
G1 X103.872Y96.695Z0
G1 X80.78Y72.193Z0
G1 X80.017Y72.116Z0
G1 X79.249Y72.061Z0
G1 X78.39Y72.039Z0
G1 X76.957Y72.343Z0
M9
M5
G1 Z10 F500
G90
G1 Z10 F500

; Return to 2,0 wash and park
G1 Z10 F1000;        ; Raise brush to safe height
G0 X5 Y5 F1200;     ; Rapid move to brush cleaning position
G1 Z-1 F800;         ; Lower brush for cleaning - controlled movement
G1 X10 Y12 Z8 F1200;     ; Rapid move to brush cleaning position
G1 Z-1 F800;         ; Lower brush for cleaning - controlled movement
G1 X25 Y14 Z6 F800;     ; Move across cleaning area - controlled movement
G0 X5 Y5 F1200;     ; Rapid move to brush cleaning position
G1 Z-1 F800;         ; Lower brush for cleaning - controlled movement
G1 X15 Y12 Z8 F1200;     ; Rapid move to brush cleaning position
G1 Z-1 F800;         ; Lower brush for cleaning - controlled movement
G1 X25 Y14 Z6 F800;     ; Move across cleaning area - controlled movement
G1 Z10 F800;         ; Maintain brush height - controlled movement
G0 X20 Y110 Z10 F500;; Move to parking position with Z at safe height
M2;                 ; End program
