;LightBurn 1.6.04
;Custom GCode device profile, absolute coords
;Bounds: X27.06 Y14.08 to X54.54 Y38.4
G00 G17 G40 G21 G54
G90
M3
G1 Z1F500
;Cut @ 15 mm/sec, 90% power

M8
G0 Z0.5F500
G0 X42.461Y26.542Z0.5F1000
G1 Z0F500
;Layer C00
G1 X42.232Y26.712Z0S900F800
G1 X42.115Y26.882Z0F800
G1 X42.081Y26.96Z0F800
G1 X48.633Y33.37Z0F800
G1 Y33.366Z0F800
G1 X49.358Y32.783Z0F800
G1 X43.441Y26.504Z0F800
G1 X43.245Y26.484Z0F800
G1 X43.048Y26.47Z0F800
G1 X42.828Y26.464Z0F800
G1 X42.461Y26.542Z0F800
G0 Z0.5F500
G0 X42.027Y25.243Z0.5F1000
G1 Z0F500
G1 X42.344Y25.209Z0F800
G1 X43.768Y25.151Z0F800
G1 X44.898Y25.297Z0F800
G1 X45.66Y25.627Z0F800
G1 X45.982Y26.125Z0F800
G1 X45.978Y26.328Z0F800
G1 X45.915Y26.54Z0F800
G1 X45.793Y26.758Z0F800
G1 X45.615Y26.978Z0F800
G1 X45.563Y27.036Z0F800
G1 X45.521Y27.086Z0F800
G1 X45.493Y27.124Z0F800
G1 X45.484Y27.143Z0F800
G1 X45.589Y27.282Z0F800
G1 X45.818Y27.572Z0F800
G1 X46.051Y27.862Z0F800
G1 X46.168Y28.001Z0F800
G1 X46.229Y27.96Z0F800
G1 X46.356Y27.844Z0F800
G1 X46.51Y27.69Z0F800
G1 X46.651Y27.538Z0F800
G1 X47.196Y26.755Z0F800
G1 X47.553Y25.873Z0F800
G1 X47.72Y24.896Z0F800
G1 X47.697Y23.828Z0F800
G1 X47.628Y23.373Z0F800
G1 X47.517Y22.837Z0F800
G1 X47.385Y22.307Z0F800
G1 X47.249Y21.869Z0F800
G1 X46.649Y20.537Z0F800
G1 X45.869Y19.357Z0F800
G1 X44.931Y18.35Z0F800
G1 X43.884Y17.422Z0F800
G1 X44.3Y16.453Z0F800
G1 X44.746Y15.37Z0F800
G1 X44.779Y15.321Z0F800
G1 X44.827Y15.292Z0F800
G1 X44.883Y15.284Z0F800
G1 X44.941Y15.301Z0F800
G1 X46.119Y15.922Z0F800
G1 X46.18Y15.945Z0F800
G1 X46.249Y15.951Z0F800
G1 X46.317Y15.939Z0F800
G1 X46.376Y15.911Z0F800
G1 X49.052Y14.105Z0F800
G1 X49.11Y14.08Z0F800
G1 X49.174Y14.077Z0F800
G1 X49.236Y14.094Z0F800
G1 X49.288Y14.128Z0F800
G1 X51.743Y16.543Z0F800
G1 X51.778Y16.594Z0F800
G1 X51.795Y16.654Z0F800
G1 X51.791Y16.716Z0F800
G1 X51.766Y16.773Z0F800
G1 X49.896Y19.452Z0F800
G1 X49.867Y19.509Z0F800
G1 X49.854Y19.577Z0F800
G1 X49.857Y19.645Z0F800
G1 X49.876Y19.707Z0F800
G1 X50.902Y22.233Z0F800
G1 X50.932Y22.291Z0F800
G1 X50.978Y22.342Z0F800
G1 X51.035Y22.381Z0F800
G1 X51.097Y22.403Z0F800
G1 X54.388Y23.004Z0F800
G1 X54.446Y23.026Z0F800
G1 X54.493Y23.068Z0F800
G1 X54.525Y23.122Z0F800
G1 X54.536Y23.182Z0F800
G1 Y26.596Z0F800
G1 X54.527Y26.656Z0F800
G1 X54.495Y26.71Z0F800
G1 X54.447Y26.751Z0F800
G1 X54.389Y26.774Z0F800
G1 X51.014Y27.391Z0F800
G1 X50.951Y27.413Z0F800
G1 X50.892Y27.452Z0F800
G1 X50.844Y27.502Z0F800
G1 X50.812Y27.56Z0F800
G1 X49.781Y29.933Z0F800
G1 X49.76Y29.994Z0F800
G1 X49.756Y30.063Z0F800
G1 X49.767Y30.131Z0F800
G1 X49.795Y30.19Z0F800
G1 X51.764Y33.007Z0F800
G1 X51.789Y33.063Z0F800
G1 X51.792Y33.125Z0F800
G1 X51.776Y33.186Z0F800
G1 X51.741Y33.236Z0F800
G1 X49.285Y35.65Z0F800
G1 X49.233Y35.684Z0F800
G1 X49.173Y35.698Z0F800
G1 X49.11Y35.692Z0F800
G1 X49.054Y35.667Z0F800
G1 X46.138Y33.701Z0F800
G1 X46.079Y33.673Z0F800
G1 X46.009Y33.659Z0F800
G1 X45.939Y33.662Z0F800
G1 X45.875Y33.681Z0F800
G1 X43.535Y34.623Z0F800
G1 X43.477Y34.652Z0F800
G1 X43.425Y34.699Z0F800
G1 X43.385Y34.756Z0F800
G1 X43.363Y34.817Z0F800
G1 X42.714Y38.248Z0F800
G1 X42.691Y38.305Z0F800
G1 X42.65Y38.353Z0F800
G1 X42.595Y38.385Z0F800
G1 X42.534Y38.396Z0F800
G1 X39.06Z0F800
G1 X39.063Y38.393Z0F800
G1 X39.002Y38.382Z0F800
G1 X38.949Y38.35Z0F800
G1 X38.908Y38.303Z0F800
G1 X38.886Y38.245Z0F800
G1 X38.233Y34.814Z0F800
G1 X38.211Y34.753Z0F800
G1 X38.171Y34.696Z0F800
G1 X38.12Y34.65Z0F800
G1 X38.062Y34.621Z0F800
G1 X35.725Y33.679Z0F800
G1 X35.662Y33.659Z0F800
G1 X35.592Z0F800
G1 X35.522Y33.671Z0F800
G1 X35.462Y33.699Z0F800
G1 X32.547Y35.665Z0F800
G1 X32.489Y35.69Z0F800
G1 X32.426Y35.696Z0F800
G1 X32.365Y35.681Z0F800
G1 X32.312Y35.647Z0F800
G1 X29.857Y33.234Z0F800
G1 X29.822Y33.183Z0F800
G1 X29.806Y33.122Z0F800
G1 X29.811Y33.06Z0F800
G1 X29.836Y33.004Z0F800
G1 X31.802Y30.187Z0F800
G1 X31.83Y30.128Z0F800
G1 X31.842Y30.06Z0F800
G1 X31.838Y29.991Z0F800
G1 X31.818Y29.93Z0F800
G1 X30.783Y27.557Z0F800
G1 X30.752Y27.499Z0F800
G1 X30.704Y27.449Z0F800
G1 X30.646Y27.41Z0F800
G1 X30.583Y27.388Z0F800
G1 X27.207Y26.771Z0F800
G1 X27.149Y26.748Z0F800
G1 X27.102Y26.707Z0F800
G1 X27.07Y26.653Z0F800
G1 X27.059Y26.592Z0F800
G1 Y23.179Z0F800
G1 X27.071Y23.118Z0F800
G1 X27.104Y23.064Z0F800
G1 X27.152Y23.023Z0F800
G1 X27.21Y23Z0F800
G1 X30.501Y22.4Z0F800
G1 X30.563Y22.377Z0F800
G1 X30.62Y22.338Z0F800
G1 X30.667Y22.287Z0F800
G1 X30.696Y22.23Z0F800
G1 X31.723Y19.704Z0F800
G1 X31.742Y19.642Z0F800
G1 Y19.574Z0F800
G1 X31.73Y19.506Z0F800
G1 X31.702Y19.448Z0F800
G1 X29.833Y16.769Z0F800
G1 X29.808Y16.713Z0F800
G1 X29.803Y16.65Z0F800
G1 X29.819Y16.59Z0F800
G1 X29.854Y16.539Z0F800
G1 X32.311Y14.124Z0F800
G1 X32.363Y14.091Z0F800
G1 X32.425Y14.077Z0F800
G1 X32.488Y14.082Z0F800
G1 X32.545Y14.107Z0F800
G1 X35.221Y15.914Z0F800
G1 X35.28Y15.942Z0F800
G1 X35.348Y15.953Z0F800
G1 X35.417Y15.947Z0F800
G1 X35.478Y15.925Z0F800
G1 X36.656Y15.303Z0F800
G1 X36.714Y15.287Z0F800
G1 X36.77Y15.295Z0F800
G1 X36.817Y15.324Z0F800
G1 X36.851Y15.372Z0F800
G1 X37.64Y17.295Z0F800
G1 X37.192Y17.575Z0F800
G1 X36.765Y17.891Z0F800
G1 X36.367Y18.24Z0F800
G1 X36.006Y18.618Z0F800
G1 X35.826Y18.843Z0F800
G1 X35.616Y19.132Z0F800
G1 X35.414Y19.431Z0F800
G1 X35.255Y19.689Z0F800
G1 X34.662Y20.998Z0F800
G1 X34.317Y22.395Z0F800
G1 X34.22Y23.88Z0F800
G1 X34.373Y25.449Z0F800
G1 X34.484Y25.945Z0F800
G1 X34.649Y26.487Z0F800
G1 X34.848Y27.018Z0F800
G1 X35.062Y27.481Z0F800
G1 X35.724Y28.458Z0F800
G1 X36.565Y29.203Z0F800
G1 X37.586Y29.716Z0F800
G1 X38.785Y29.996Z0F800
G1 X38.999Y30.021Z0F800
G1 X39.21Y30.038Z0F800
G1 X39.421Y30.049Z0F800
G1 X39.637Y30.055Z0F800
G1 X39.863Z0F800
G1 X40.104Y30.045Z0F800
G1 X40.365Y30.031Z0F800
G1 X40.649Y30.011Z0F800
G1 X41.269Y29.926Z0F800
G1 X42.08Y29.778Z0F800
G1 X42.782Y29.626Z0F800
G1 X43.075Y29.531Z0F800
G1 X43.043Y29.481Z0F800
G1 X42.961Y29.374Z0F800
G1 X42.843Y29.224Z0F800
G1 X42.334Y28.599Z0F800
G1 X41.791Y28.712Z0F800
G1 X40.705Y28.877Z0F800
G1 X39.681Y28.928Z0F800
G1 X38.768Y28.863Z0F800
G1 X38.014Y28.683Z0F800
G1 X37.94Y28.651Z0F800
G1 X37.844Y28.602Z0F800
G1 X37.739Y28.543Z0F800
G1 X37.637Y28.48Z0F800
G1 X37.518Y28.399Z0F800
G1 X37.434Y28.331Z0F800
G1 X37.374Y28.263Z0F800
G1 X37.323Y28.181Z0F800
G1 X37.232Y27.915Z0F800
G1 X37.255Y27.64Z0F800
G1 X37.392Y27.354Z0F800
G1 X37.644Y27.049Z0F800
G1 X37.873Y26.84Z0F800
G1 X38.147Y26.636Z0F800
G1 X38.476Y26.429Z0F800
G1 X38.869Y26.211Z0F800
G1 X39.062Y26.121Z0F800
G1 X39.334Y26.002Z0F800
G1 X39.59Y25.896Z0F800
G1 X39.736Y25.843Z0F800
G1 X39.713Y25.702Z0F800
G1 X39.633Y25.319Z0F800
G1 X39.51Y24.752Z0F800
G1 X39.201Y23.374Z0F800
G1 X39.079Y22.817Z0F800
G1 X39.003Y22.446Z0F800
G1 X38.984Y22.32Z0F800
G1 X39.068Y22.458Z0F800
G1 X39.274Y22.805Z0F800
G1 X39.928Y23.921Z0F800
G1 X40.84Y25.485Z0F800
G1 X41.024Y25.44Z0F800
G1 X40.748Y24.204Z0F800
G1 X40.702Y23.972Z0F800
G1 X40.698Y23.893Z0F800
G1 X40.729Y23.907Z0F800
G1 X40.879Y24.056Z0F800
G1 X41.166Y24.347Z0F800
G1 X41.503Y24.694Z0F800
G1 X41.804Y25.008Z0F800
G1 X42.027Y25.243Z0F800
M5
G1 Z1F500
M9
G90
M2
