;LightBurn 1.6.04
;Custom GCode device profile, absolute coords
;Bounds: X5.98 Y13.88 to X122.02 Y86.12
G00 G17 G40 G21 G54
G90
M3
G1 Z10 F500
;Cut @ 1200 mm/min, 90% power

M8
G0 Z2.8F500
G0 X23.309Y41.777Z2.8F1500
G1 Z0F500
;Layer Blue
G1 X42.691Y54.819Z0S900F1200
G1 X23.933Y72.223Z0F1200
G1 X23.309Y41.777Z0F1200
G0 Z2.8F500
G0 X46.181Y55.486Z2.8F1500
G1 Z0F500
G1 X46.168Y55.227Z0F1200
G1 X46.129Y54.975Z0F1200
G1 X46.067Y54.731Z0F1200
G1 X45.981Y54.498Z0F1200
G1 X45.747Y54.067Z0F1200
G1 X45.437Y53.691Z0F1200
G1 X45.062Y53.381Z0F1200
G1 X44.63Y53.147Z0F1200
G1 X44.397Y53.062Z0F1200
G1 X44.154Y52.999Z0F1200
G1 X43.902Y52.961Z0F1200
G1 X43.642Y52.948Z0F1200
G1 X43.383Y52.961Z0F1200
G1 X43.131Y52.999Z0F1200
G1 X42.887Y53.062Z0F1200
G1 X42.654Y53.147Z0F1200
G1 X42.223Y53.381Z0F1200
G1 X41.847Y53.691Z0F1200
G1 X41.537Y54.067Z0F1200
G1 X41.303Y54.498Z0F1200
G1 X41.218Y54.731Z0F1200
G1 X41.155Y54.975Z0F1200
G1 X41.117Y55.227Z0F1200
G1 X41.104Y55.486Z0F1200
G1 X41.117Y55.746Z0F1200
G1 X41.155Y55.998Z0F1200
G1 X41.218Y56.241Z0F1200
G1 X41.303Y56.474Z0F1200
G1 X41.537Y56.906Z0F1200
G1 X41.847Y57.281Z0F1200
G1 X42.223Y57.591Z0F1200
G1 X42.654Y57.825Z0F1200
G1 X42.887Y57.911Z0F1200
G1 X43.131Y57.973Z0F1200
G1 X43.383Y58.012Z0F1200
G1 X43.642Y58.025Z0F1200
G1 X43.902Y58.012Z0F1200
G1 X44.154Y57.973Z0F1200
G1 X44.397Y57.911Z0F1200
G1 X44.63Y57.825Z0F1200
G1 X45.062Y57.591Z0F1200
G1 X45.437Y57.281Z0F1200
G1 X45.747Y56.906Z0F1200
G1 X45.981Y56.474Z0F1200
G1 X46.067Y56.241Z0F1200
G1 X46.129Y55.998Z0F1200
G1 X46.168Y55.746Z0F1200
G1 X46.181Y55.486Z0F1200
G0 Z2.8F500
G0 X46.39Z2.8F1500
G1 Z0F500
G1 X54.444Z0F1200
G0 Z2.8F500
G0 Y63.137Z2.8F1500
G1 Z0F500
G1 Y47.836Z0F1200
G0 Z2.8F500
G0 X58.14Y47.675Z2.8F1500
G1 Z0F500
G1 Y63.298Z0F1200
G0 Z2.8F500
G0 X58.725Y55.486Z2.8F1500
G1 Z0F500
G1 X81.876Z0F1200
G0 Z2.8F500
G0 X81.408Y64.451Z2.8F1500
G1 Z0F500
G1 Y42.112Z0F1200
G1 X98.592Y55.859Z0F1200
G1 X81.408Y67.888Z0F1200
G1 Y64.451Z0F1200
G0 Z2.8F500
G0 X101.88Y55.486Z2.8F1500
G1 Z0F500
G1 X101.832Y55.006Z0F1200
G1 X101.693Y54.559Z0F1200
G1 X101.474Y54.155Z0F1200
G1 X101.183Y53.803Z0F1200
G1 X100.831Y53.512Z0F1200
G1 X100.426Y53.292Z0F1200
G1 X99.979Y53.154Z0F1200
G1 X99.499Y53.105Z0F1200
G1 X99.019Y53.154Z0F1200
G1 X98.572Y53.292Z0F1200
G1 X98.168Y53.512Z0F1200
G1 X97.816Y53.803Z0F1200
G1 X97.525Y54.155Z0F1200
G1 X97.305Y54.559Z0F1200
G1 X97.167Y55.006Z0F1200
G1 X97.118Y55.486Z0F1200
G1 X97.167Y55.966Z0F1200
G1 X97.305Y56.413Z0F1200
G1 X97.525Y56.818Z0F1200
G1 X97.816Y57.17Z0F1200
G1 X98.168Y57.461Z0F1200
G1 X98.572Y57.68Z0F1200
G1 X99.019Y57.819Z0F1200
G1 X99.499Y57.867Z0F1200
G1 X99.979Y57.819Z0F1200
G1 X100.426Y57.68Z0F1200
G1 X100.831Y57.461Z0F1200
G1 X101.183Y57.17Z0F1200
G1 X101.474Y56.818Z0F1200
G1 X101.693Y56.413Z0F1200
G1 X101.832Y55.966Z0F1200
G1 X101.88Y55.486Z0F1200
G0 Z2.8F500
G0 X67.901Y23.833Z2.8F1500
G1 Z0F500
G1 X67.867Y23.869Z0F1200
G1 X67.838Y23.975Z0F1200
G1 X67.814Y24.145Z0F1200
G1 X67.794Y24.374Z0F1200
G1 X67.778Y24.66Z0F1200
G1 X67.766Y24.995Z0F1200
G1 X67.758Y25.377Z0F1200
G1 X67.753Y25.801Z0F1200
G1 Y26.261Z0F1200
G1 Y26.753Z0F1200
G1 X67.756Y27.273Z0F1200
G1 X67.762Y27.816Z0F1200
G1 X67.781Y28.953Z0F1200
G1 X67.805Y30.127Z0F1200
G1 X67.835Y31.301Z0F1200
G1 X67.867Y32.437Z0F1200
G1 X67.899Y33.5Z0F1200
G1 X67.93Y34.453Z0F1200
G1 X68Y36.419Z0F1200
G1 X65.677Z0F1200
G1 Y45.712Z0F1200
G1 X70.323Z0F1200
G1 Y36.419Z0F1200
G1 X68Z0F1200
G0 Z2.8F500
G0 X67.646Y45.712Z2.8F1500
G1 Z0F500
G1 X68.03Y56.167Z0F1200
G0 Z2.8F500
G0 X59.995Y38.664Z2.8F1500
G1 Z0F500
G1 X76.005Y43.467Z0F1200
G0 Z2.8F500
G0 X72.199Y46.597Z2.8F1500
G1 Z0F500
G1 X76.945Y44.224Z0F1200
G1 X74.572Y39.477Z0F1200
G0 Z2.8F500
G0 X49.364Y55.413Z2.8F1500
G1 Z0F500
G1 X48.636Y76.587Z0F1200
G0 Z2.8F500
G0 X23.621Y57Z2.8F1500
G1 Z0F500
G1 X10.33Z0F1200
G1 X10Y24Z0F1200
G1 X117Z0F1200
G1 Y55Z0F1200
G1 X101.88Y55.486Z0F1200
G0 Z2.8F500
G0 X45Y80Z2.8F1500
G1 Z0F500
G1 X46Y77Z0F1200
G1 X48.019Y76.684Z0F1200
G1 X51Y77Z0F1200
G1 X52Y78Z0F1200
G1 X53Y81Z0F1200
;Cut @ 1200 mm/min, 80% power

M8
G0 Z2.8F500
G0 X15.5Y65.611Z2.8F1500
G1 Z0F500
;Layer Red
G1 X20.5Y72.557Z0S800F1200
G1 Y61.443Z0F1200
G0 Z2.8F500
G0 X42Y47Z2.8F1500
G1 Z0F500
G1 X42.198Y47.21Z0F1200
G1 X42.416Y47.459Z0F1200
G1 X42.648Y47.74Z0F1200
G1 X42.891Y48.047Z0F1200
G1 X43.389Y48.705Z0F1200
G1 X43.875Y49.375Z0F1200
G1 X44.103Y49.696Z0F1200
G1 X44.314Y49.998Z0F1200
G1 X44.672Y50.516Z0F1200
G1 X45Y51Z0F1200
G1 X49Z0F1200
G1 X50Y49Z0F1200
G1 X43Y41Z0F1200
G1 X49Y42Z0F1200
G0 Z2.8F500
G0 X73Y66Z2.8F1500
G1 Z0F500
G1 X77Y67Z0F1200
G1 X78Y65Z0F1200
G1 X77Y61Z0F1200
G1 X73Y62Z0F1200
G1 X77Y60Z0F1200
G1 Y58Z0F1200
G1 X72Y57Z0F1200
G1 X70Y59Z0F1200
G0 Z2.8F500
G0 X102.5Y67.257Z2.8F1500
G1 Z0F500
G1 Y60.257Z0F1200
G1 X109.5Z0F1200
G1 X106.5Y62.257Z0F1200
G1 Y69.257Z0F1200
G1 X106.747Y56.743Z0F1200
;Offset @ 1500 mm/min, 90% power

M8
G0 Z2.8F500
G0 X42.692Y64.409Z2.8F1500
G1 Z0F500
;Layer Green
G1 X43.167Y65.037Z0S900F1200
G1 X43.572Y65.496Z0F1200
G1 X43.433Y65.529Z0F1200
G1 X42.535Y65.868Z0F1200
G1 X41.724Y66.295Z0F1200
G1 X41.677Y66.327Z0F1200
G1 X42.297Y64.075Z0F1200
G1 X42.353Y63.877Z0F1200
G1 X42.692Y64.409Z0F1200
G0 Z2.8F500
G0 X43.695Y66.392Z2.8F1500
G1 Z0F500
G1 X42.905Y66.69Z0F1200
G1 X42.187Y67.068Z0F1200
G1 X41.541Y67.506Z0F1200
G1 X40.961Y67.991Z0F1200
G1 X40.446Y68.51Z0F1200
G1 X39.994Y69.047Z0F1200
G1 X41.43Y63.833Z0F1200
G1 X42.174Y61.163Z0F1200
G1 X42.18Y61.192Z0F1200
G1 X42.405Y61.931Z0F1200
G1 X42.695Y62.629Z0F1200
G1 X43.04Y63.283Z0F1200
G1 X43.431Y63.894Z0F1200
G1 X43.865Y64.467Z0F1200
G1 X44.336Y65.002Z0F1200
G1 X44.842Y65.501Z0F1200
G1 X45.377Y65.962Z0F1200
G1 X45.588Y66.122Z0F1200
G1 X45.445Y66.114Z0F1200
G1 X44.548Y66.192Z0F1200
G1 X43.695Y66.392Z0F1200
G0 Z2.8F500
G0 X43.104Y70.942Z2.8F1500
G1 Z0F500
G1 X42.829Y71.269Z0F1200
G1 X42.574Y71.624Z0F1200
G1 X42.34Y72.003Z0F1200
G1 X42.129Y72.402Z0F1200
G1 X41.942Y72.818Z0F1200
G1 X41.78Y73.247Z0F1200
G1 X41.644Y73.686Z0F1200
G1 X41.535Y74.13Z0F1200
G1 X41.456Y74.576Z0F1200
G1 X41.405Y75.021Z0F1200
G1 X41.386Y75.462Z0F1200
G1 X41.399Y75.894Z0F1200
G1 X41.446Y76.313Z0F1200
G1 X41.527Y76.717Z0F1200
G1 X41.644Y77.101Z0F1200
G1 X41.797Y77.462Z0F1200
G1 X41.989Y77.797Z0F1200
G1 X42.22Y78.102Z0F1200
G1 X42.491Y78.373Z0F1200
G1 X42.804Y78.606Z0F1200
G1 X43.16Y78.798Z0F1200
G1 X43.56Y78.946Z0F1200
G1 X45.439Y79.279Z0F1200
G1 X47.334Y79.567Z0F1200
G1 X48.286Y79.667Z0F1200
G1 X49.24Y79.724Z0F1200
G1 X50.197Z0F1200
G1 X51.155Y79.661Z0F1200
G1 X51.542Y79.615Z0F1200
G1 X51.906Y79.559Z0F1200
G1 X52.246Y79.491Z0F1200
G1 X52.564Y79.414Z0F1200
G1 X53.133Y79.229Z0F1200
G1 X53.616Y79.007Z0F1200
G1 X54.018Y78.752Z0F1200
G1 X54.34Y78.467Z0F1200
G1 X54.588Y78.153Z0F1200
G1 X54.765Y77.815Z0F1200
G1 X54.873Y77.455Z0F1200
G1 X54.917Y77.076Z0F1200
G1 X54.9Y76.681Z0F1200
G1 X54.826Y76.273Z0F1200
G1 X54.698Y75.856Z0F1200
G1 X54.52Y75.431Z0F1200
G1 X54.294Y75.002Z0F1200
G1 X54.026Y74.573Z0F1200
G1 X53.718Y74.145Z0F1200
G1 X53.373Y73.722Z0F1200
G1 X52.996Y73.307Z0F1200
G1 X52.589Y72.903Z0F1200
G1 X52.157Y72.512Z0F1200
G1 X51.703Y72.139Z0F1200
G1 X51.23Y71.784Z0F1200
G1 X50.742Y71.453Z0F1200
G1 X50.242Y71.147Z0F1200
G1 X49.734Y70.87Z0F1200
G1 X49.222Y70.625Z0F1200
G1 X48.708Y70.413Z0F1200
G1 X48.198Y70.239Z0F1200
G1 X47.693Y70.106Z0F1200
G1 X47.197Y70.017Z0F1200
G1 X46.715Y69.973Z0F1200
G1 X46.302Y69.827Z0F1200
G1 X45.897Y69.745Z0F1200
G1 X45.502Y69.723Z0F1200
G1 X45.117Y69.756Z0F1200
G1 X44.745Y69.843Z0F1200
G1 X44.386Y69.979Z0F1200
G1 X44.041Y70.161Z0F1200
G1 X43.711Y70.384Z0F1200
G1 X43.399Y70.646Z0F1200
G1 X43.104Y70.942Z0F1200
G0 Z2.8F500
G0 X40.928Y72.955Z2.8F1500
G1 Z0F500
G1 X40.776Y73.445Z0F1200
G1 X40.654Y73.943Z0F1200
G1 X40.564Y74.446Z0F1200
G1 X40.507Y74.952Z0F1200
G1 X40.486Y75.456Z0F1200
G1 X40.501Y75.957Z0F1200
G1 X40.556Y76.451Z0F1200
G1 X40.653Y76.937Z0F1200
G1 X40.796Y77.409Z0F1200
G1 X40.989Y77.864Z0F1200
G1 X41.237Y78.294Z0F1200
G1 X41.54Y78.694Z0F1200
G1 X41.901Y79.055Z0F1200
G1 X42.319Y79.367Z0F1200
G1 X42.789Y79.62Z0F1200
G1 X43.324Y79.818Z0F1200
G1 X45.293Y80.167Z0F1200
G1 X47.219Y80.46Z0F1200
G1 X48.212Y80.564Z0F1200
G1 X49.213Y80.624Z0F1200
G1 X50.226Z0F1200
G1 X51.238Y80.558Z0F1200
G1 X51.665Y80.507Z0F1200
G1 X52.063Y80.445Z0F1200
G1 X52.44Y80.37Z0F1200
G1 X52.81Y80.28Z0F1200
G1 X53.46Y80.068Z0F1200
G1 X54.047Y79.8Z0F1200
G1 X54.561Y79.474Z0F1200
G1 X54.997Y79.088Z0F1200
G1 X55.347Y78.645Z0F1200
G1 X55.602Y78.156Z0F1200
G1 X55.758Y77.638Z0F1200
G1 X55.819Y77.109Z0F1200
G1 X55.797Y76.581Z0F1200
G1 X55.702Y76.06Z0F1200
G1 X55.545Y75.549Z0F1200
G1 X55.334Y75.047Z0F1200
G1 X55.076Y74.554Z0F1200
G1 X54.773Y74.071Z0F1200
G1 X54.432Y73.597Z0F1200
G1 X54.055Y73.135Z0F1200
G1 X53.646Y72.685Z0F1200
G1 X53.209Y72.25Z0F1200
G1 X52.745Y71.83Z0F1200
G1 X52.259Y71.431Z0F1200
G1 X51.753Y71.051Z0F1200
G1 X51.229Y70.697Z0F1200
G1 X50.693Y70.368Z0F1200
G1 X50.145Y70.069Z0F1200
G1 X49.588Y69.802Z0F1200
G1 X49.025Y69.57Z0F1200
G1 X48.458Y69.377Z0F1200
G1 X47.888Y69.227Z0F1200
G1 X47.318Y69.124Z0F1200
G1 X46.909Y69.087Z0F1200
G1 X46.542Y68.958Z0F1200
G1 X46.013Y68.85Z0F1200
G1 X45.488Y68.82Z0F1200
G1 X44.975Y68.865Z0F1200
G1 X44.482Y68.98Z0F1200
G1 X44.016Y69.157Z0F1200
G1 X43.578Y69.388Z0F1200
G1 X43.169Y69.664Z0F1200
G1 X42.79Y69.982Z0F1200
G1 X42.44Y70.334Z0F1200
G1 X42.119Y70.716Z0F1200
G1 X41.825Y71.124Z0F1200
G1 X41.558Y71.556Z0F1200
G1 X41.32Y72.007Z0F1200
G1 X41.11Y72.475Z0F1200
G1 X40.928Y72.955Z0F1200
G0 Z2.8F500
G0 X55.289Y72.601Z2.8F1500
G1 Z0F500
G1 X55.358Y72.665Z0F1200
G1 X55.498Y72.74Z0F1200
G1 X55.72Y72.824Z0F1200
G1 X55.89Y72.729Z0F1200
G1 X55.984Y72.647Z0F1200
G1 X56.016Y72.58Z0F1200
G1 X55.995Y72.526Z0F1200
G1 X55.84Y72.458Z0F1200
G1 X55.609Y72.44Z0F1200
G1 X55.494Y72.449Z0F1200
G1 X55.393Y72.47Z0F1200
G1 X55.317Y72.503Z0F1200
G1 X55.279Y72.546Z0F1200
G1 X55.289Y72.601Z0F1200
G0 Z2.8F500
G0 X55.793Y73.815Z2.8F1500
G1 Z0F500
G1 X56.409Y73.469Z0F1200
G1 X56.719Y73.202Z0F1200
G1 X56.994Y72.61Z0F1200
G1 X56.698Y71.853Z0F1200
G1 X56.062Y71.572Z0F1200
G1 X55.607Y71.537Z0F1200
G1 X55.366Y71.557Z0F1200
G1 X55.119Y71.608Z0F1200
G1 X54.776Y71.757Z0F1200
G1 X54.313Y72.279Z0F1200
G1 X54.46Y73.059Z0F1200
G1 X54.831Y73.404Z0F1200
G1 X55.124Y73.561Z0F1200
G1 X55.793Y73.815Z0F1200
G0 Z2.8F500
G0 X56.929Y74.209Z2.8F1500
G1 Z0F500
G1 X57.454Y73.757Z0F1200
G1 X57.972Y72.64Z0F1200
G1 X57.401Y71.179Z0F1200
G1 X56.285Y70.686Z0F1200
G1 X55.606Y70.634Z0F1200
G1 X55.238Y70.664Z0F1200
G1 X54.845Y70.746Z0F1200
G1 X54.235Y71.011Z0F1200
G1 X53.766Y71.54Z0F1200
G1 X53.333Y71.148Z0F1200
G1 X52.814Y70.723Z0F1200
G1 X52.275Y70.318Z0F1200
G1 X51.718Y69.94Z0F1200
G1 X51.144Y69.588Z0F1200
G1 X50.555Y69.267Z0F1200
G1 X49.955Y68.979Z0F1200
G1 X49.342Y68.727Z0F1200
G1 X48.717Y68.515Z0F1200
G1 X48.083Y68.348Z0F1200
G1 X47.439Y68.231Z0F1200
G1 X47.101Y68.2Z0F1200
G1 X46.783Y68.088Z0F1200
G1 X46.128Y67.955Z0F1200
G1 X45.473Y67.918Z0F1200
G1 X44.833Y67.975Z0F1200
G1 X44.22Y68.118Z0F1200
G1 X43.646Y68.334Z0F1200
G1 X43.114Y68.614Z0F1200
G1 X42.626Y68.945Z0F1200
G1 X42.18Y69.318Z0F1200
G1 X41.775Y69.726Z0F1200
G1 X41.408Y70.162Z0F1200
G1 X41.075Y70.625Z0F1200
G1 X40.776Y71.109Z0F1200
G1 X40.511Y71.612Z0F1200
G1 X40.278Y72.13Z0F1200
G1 X40.077Y72.662Z0F1200
G1 X39.909Y73.205Z0F1200
G1 X39.773Y73.757Z0F1200
G1 X39.673Y74.317Z0F1200
G1 X39.61Y74.881Z0F1200
G1 X39.585Y75.451Z0F1200
G1 X39.603Y76.02Z0F1200
G1 X39.666Y76.589Z0F1200
G1 X39.779Y77.156Z0F1200
G1 X39.949Y77.716Z0F1200
G1 X40.182Y78.265Z0F1200
G1 X40.485Y78.792Z0F1200
G1 X40.86Y79.287Z0F1200
G1 X41.311Y79.738Z0F1200
G1 X41.834Y80.128Z0F1200
G1 X42.417Y80.442Z0F1200
G1 X43.087Y80.69Z0F1200
G1 X45.147Y81.055Z0F1200
G1 X47.104Y81.353Z0F1200
G1 X48.138Y81.461Z0F1200
G1 X49.186Y81.523Z0F1200
G1 X50.255Z0F1200
G1 X51.321Y81.454Z0F1200
G1 X51.787Y81.399Z0F1200
G1 X52.219Y81.332Z0F1200
G1 X52.635Y81.249Z0F1200
G1 X53.057Y81.146Z0F1200
G1 X53.788Y80.908Z0F1200
G1 X54.477Y80.593Z0F1200
G1 X55.104Y80.195Z0F1200
G1 X55.653Y79.709Z0F1200
G1 X56.106Y79.136Z0F1200
G1 X56.439Y78.496Z0F1200
G1 X56.643Y77.821Z0F1200
G1 X56.721Y77.143Z0F1200
G1 X56.693Y76.481Z0F1200
G1 X56.578Y75.847Z0F1200
G1 X56.393Y75.242Z0F1200
G1 X56.149Y74.663Z0F1200
G1 X56.143Y74.651Z0F1200
G1 X56.929Y74.209Z0F1200
G0 Z2.8F500
G0 X60.962Y64.033Z2.8F1500
G1 Z0F500
G1 X61.147Y63.835Z0F1200
G1 X61.3Y63.612Z0F1200
G1 X61.418Y63.364Z0F1200
G1 X61.498Y63.089Z0F1200
G1 X61.539Y62.786Z0F1200
G1 X61.536Y62.453Z0F1200
G1 X61.49Y62.09Z0F1200
G1 X61.396Y61.695Z0F1200
G1 X61.253Y61.267Z0F1200
G1 X61.059Y60.804Z0F1200
G1 X60.427Y60.257Z0F1200
G1 X59.764Y59.698Z0F1200
G1 X59.073Y59.137Z0F1200
G1 X58.354Y58.583Z0F1200
G1 X57.609Y58.044Z0F1200
G1 X56.841Y57.532Z0F1200
G1 X56.05Y57.055Z0F1200
G1 X55.238Y56.622Z0F1200
G1 X54.408Y56.243Z0F1200
G1 X53.561Y55.927Z0F1200
G1 X52.697Y55.684Z0F1200
G1 X51.82Y55.522Z0F1200
G1 X51.377Y55.475Z0F1200
G1 X50.931Y55.452Z0F1200
G1 X50.483Z0F1200
G1 X50.032Y55.482Z0F1200
G1 X49.579Y55.538Z0F1200
G1 X49.124Y55.623Z0F1200
G1 X48.667Y55.737Z0F1200
G1 X48.208Y55.882Z0F1200
G1 X47.671Y56.197Z0F1200
G1 X47.202Y56.528Z0F1200
G1 X46.796Y56.874Z0F1200
G1 X46.453Y57.232Z0F1200
G1 X46.169Y57.601Z0F1200
G1 X45.943Y57.978Z0F1200
G1 X45.773Y58.363Z0F1200
G1 X45.656Y58.752Z0F1200
G1 X45.59Y59.146Z0F1200
G1 X45.574Y59.54Z0F1200
G1 X45.604Y59.934Z0F1200
G1 X45.68Y60.326Z0F1200
G1 X45.798Y60.713Z0F1200
G1 X45.957Y61.096Z0F1200
G1 X46.154Y61.47Z0F1200
G1 X46.387Y61.834Z0F1200
G1 X46.655Y62.188Z0F1200
G1 X46.954Y62.528Z0F1200
G1 X47.284Y62.853Z0F1200
G1 X47.641Y63.161Z0F1200
G1 X48.023Y63.45Z0F1200
G1 X48.429Y63.719Z0F1200
G1 X48.856Y63.965Z0F1200
G1 X49.303Y64.188Z0F1200
G1 X49.766Y64.383Z0F1200
G1 X50.244Y64.551Z0F1200
G1 X50.735Y64.689Z0F1200
G1 X51.236Y64.796Z0F1200
G1 X51.746Y64.869Z0F1200
G1 X52.262Y64.907Z0F1200
G1 X52.782Z0F1200
G1 X53.304Y64.869Z0F1200
G1 X53.954Y64.893Z0F1200
G1 X55.433Y64.962Z0F1200
G1 X56.223Y64.988Z0F1200
G1 X57.022Y64.994Z0F1200
G1 X57.813Y64.969Z0F1200
G1 X58.574Y64.904Z0F1200
G1 X59.289Y64.788Z0F1200
G1 X59.622Y64.708Z0F1200
G1 X59.937Y64.611Z0F1200
G1 X60.231Y64.497Z0F1200
G1 X60.501Y64.363Z0F1200
G1 X60.746Y64.209Z0F1200
G1 X60.962Y64.033Z0F1200
G0 Z2.8F500
G0 X62.439Y62.842Z2.8F1500
G1 Z0F500
G1 X62.436Y62.393Z0F1200
G1 X62.376Y61.929Z0F1200
G1 X62.263Y61.449Z0F1200
G1 X62.097Y60.95Z0F1200
G1 X61.807Y60.261Z0F1200
G1 X61.011Y59.573Z0F1200
G1 X60.338Y59.005Z0F1200
G1 X59.631Y58.431Z0F1200
G1 X58.892Y57.861Z0F1200
G1 X58.122Y57.305Z0F1200
G1 X57.323Y56.772Z0F1200
G1 X56.495Y56.272Z0F1200
G1 X55.637Y55.814Z0F1200
G1 X54.752Y55.411Z0F1200
G1 X53.84Y55.07Z0F1200
G1 X52.901Y54.806Z0F1200
G1 X51.95Y54.631Z0F1200
G1 X51.448Y54.577Z0F1200
G1 X50.952Y54.552Z0F1200
G1 X50.453Z0F1200
G1 X49.948Y54.585Z0F1200
G1 X49.441Y54.648Z0F1200
G1 X48.932Y54.743Z0F1200
G1 X48.421Y54.871Z0F1200
G1 X47.839Y55.055Z0F1200
G1 X47.184Y55.44Z0F1200
G1 X46.649Y55.816Z0F1200
G1 X46.178Y56.218Z0F1200
G1 X45.77Y56.644Z0F1200
G1 X45.423Y57.094Z0F1200
G1 X45.143Y57.563Z0F1200
G1 X44.927Y58.05Z0F1200
G1 X44.777Y58.548Z0F1200
G1 X44.693Y59.052Z0F1200
G1 X44.672Y59.556Z0F1200
G1 X44.711Y60.054Z0F1200
G1 X44.805Y60.542Z0F1200
G1 X44.95Y61.018Z0F1200
G1 X45.141Y61.479Z0F1200
G1 X45.375Y61.923Z0F1200
G1 X45.648Y62.35Z0F1200
G1 X45.958Y62.758Z0F1200
G1 X46.299Y63.146Z0F1200
G1 X46.673Y63.515Z0F1200
G1 X47.075Y63.861Z0F1200
G1 X47.503Y64.185Z0F1200
G1 X47.956Y64.484Z0F1200
G1 X48.431Y64.759Z0F1200
G1 X48.927Y65.006Z0F1200
G1 X49.441Y65.223Z0F1200
G1 X49.973Y65.41Z0F1200
G1 X50.519Y65.564Z0F1200
G1 X51.079Y65.683Z0F1200
G1 X51.649Y65.765Z0F1200
G1 X52.228Y65.807Z0F1200
G1 X52.814Z0F1200
G1 X53.319Y65.771Z0F1200
G1 X53.921Y65.792Z0F1200
G1 X55.397Y65.862Z0F1200
G1 X56.206Y65.888Z0F1200
G1 X57.034Y65.894Z0F1200
G1 X57.865Y65.868Z0F1200
G1 X58.685Y65.798Z0F1200
G1 X59.466Y65.671Z0F1200
G1 X59.86Y65.576Z0F1200
G1 X60.232Y65.461Z0F1200
G1 X60.595Y65.321Z0F1200
G1 X60.941Y65.149Z0F1200
G1 X61.271Y64.942Z0F1200
G1 X61.577Y64.693Z0F1200
G1 X61.851Y64.4Z0F1200
G1 X62.083Y64.063Z0F1200
G1 X62.262Y63.684Z0F1200
G1 X62.381Y63.275Z0F1200
G1 X62.439Y62.842Z0F1200
G0 Z2.8F500
G0 X62.939Y60.633Z2.8F1500
G1 Z0F500
G1 X62.556Y59.719Z0F1200
G1 X61.596Y58.889Z0F1200
G1 X60.912Y58.312Z0F1200
G1 X60.189Y57.725Z0F1200
G1 X59.43Y57.14Z0F1200
G1 X58.636Y56.565Z0F1200
G1 X57.806Y56.012Z0F1200
G1 X56.939Y55.489Z0F1200
G1 X56.037Y55.007Z0F1200
G1 X55.097Y54.579Z0F1200
G1 X54.12Y54.214Z0F1200
G1 X53.105Y53.929Z0F1200
G1 X52.08Y53.739Z0F1200
G1 X51.52Y53.68Z0F1200
G1 X50.974Y53.651Z0F1200
G1 X50.422Y53.654Z0F1200
G1 X49.865Y53.689Z0F1200
G1 X49.303Y53.758Z0F1200
G1 X48.741Y53.863Z0F1200
G1 X48.176Y54.004Z0F1200
G1 X47.471Y54.228Z0F1200
G1 X46.695Y54.683Z0F1200
G1 X46.097Y55.105Z0F1200
G1 X45.56Y55.563Z0F1200
G1 X45.086Y56.056Z0F1200
G1 X44.678Y56.586Z0F1200
G1 X44.342Y57.149Z0F1200
G1 X44.082Y57.737Z0F1200
G1 X43.899Y58.344Z0F1200
G1 X43.796Y58.959Z0F1200
G1 X43.771Y59.572Z0F1200
G1 X43.818Y60.175Z0F1200
G1 X43.93Y60.759Z0F1200
G1 X44.102Y61.322Z0F1200
G1 X44.326Y61.862Z0F1200
G1 X44.597Y62.376Z0F1200
G1 X44.909Y62.864Z0F1200
G1 X45.26Y63.328Z0F1200
G1 X45.645Y63.765Z0F1200
G1 X46.063Y64.177Z0F1200
G1 X46.509Y64.562Z0F1200
G1 X46.983Y64.92Z0F1200
G1 X47.482Y65.25Z0F1200
G1 X48.005Y65.552Z0F1200
G1 X48.551Y65.824Z0F1200
G1 X49.117Y66.063Z0F1200
G1 X49.701Y66.269Z0F1200
G1 X50.304Y66.438Z0F1200
G1 X50.921Y66.569Z0F1200
G1 X51.552Y66.66Z0F1200
G1 X52.194Y66.707Z0F1200
G1 X52.847Z0F1200
G1 X53.335Y66.671Z0F1200
G1 X53.888Y66.692Z0F1200
G1 X55.361Y66.761Z0F1200
G1 X56.188Y66.788Z0F1200
G1 X57.045Y66.794Z0F1200
G1 X57.917Y66.766Z0F1200
G1 X58.795Y66.691Z0F1200
G1 X59.645Y66.554Z0F1200
G1 X60.098Y66.444Z0F1200
G1 X60.528Y66.313Z0F1200
G1 X60.958Y66.145Z0F1200
G1 X61.382Y65.935Z0F1200
G1 X61.796Y65.675Z0F1200
G1 X62.192Y65.353Z0F1200
G1 X62.555Y64.966Z0F1200
G1 X62.866Y64.513Z0F1200
G1 X63.106Y64.005Z0F1200
G1 X63.264Y63.462Z0F1200
G1 X63.339Y62.899Z0F1200
G1 X63.335Y62.332Z0F1200
G1 X63.263Y61.768Z0F1200
G1 X63.129Y61.202Z0F1200
G1 X62.939Y60.633Z0F1200
G0 Z2.8F500
G0 X37.912Y76.997Z2.8F1500
G1 Z0F500
G1 X38.032Y77.596Z0F1200
G1 X38.254Y78.331Z0F1200
G1 X38.567Y79.067Z0F1200
G1 X38.981Y79.788Z0F1200
G1 X39.5Y80.473Z0F1200
G1 X39.812Y80.785Z0F1200
G1 X39.446Y80.636Z0F1200
G1 X38.931Y80.399Z0F1200
G1 X38.429Y80.142Z0F1200
G1 X37.954Y79.873Z0F1200
G1 X37.471Y79.571Z0F1200
G1 X37.309Y79.46Z0F1200
G1 X37.485Y78.71Z0F1200
G1 X37.912Y76.997Z0F1200
G0 Z2.8F500
G0 X52.813Y68.508Z2.8F1500
G1 Z0F500
G1 X52.911Z0F1200
G1 X53.37Y68.474Z0F1200
G1 X53.799Y68.49Z0F1200
G1 X55.29Y68.56Z0F1200
G1 X56.152Y68.588Z0F1200
G1 X57.067Y68.594Z0F1200
G1 X57.184Y68.59Z0F1200
G1 X56.891Y68.96Z0F1200
G1 X56.883Y68.983Z0F1200
G1 X56.729Y68.915Z0F1200
G1 X55.603Y68.829Z0F1200
G1 X54.982Y68.879Z0F1200
G1 X54.297Y69.021Z0F1200
G1 X53.821Y69.228Z0F1200
G1 X53.321Y68.853Z0F1200
G1 X52.813Y68.508Z0F1200
G0 Z2.8F500
G0 X43.294Y55.433Z2.8F1500
G1 Z0F500
G1 X43.333Y55.222Z0F1200
G1 X43.398Y54.947Z0F1200
G1 X43.481Y54.666Z0F1200
G1 X43.58Y54.384Z0F1200
G1 X43.687Y54.125Z0F1200
G1 X43.81Y53.868Z0F1200
G1 X43.944Y53.623Z0F1200
G1 X44.082Y53.401Z0F1200
G1 X44.237Y53.181Z0F1200
G1 X44.397Y52.979Z0F1200
G1 X44.558Y52.8Z0F1200
G1 X44.727Y52.635Z0F1200
G1 X44.9Y52.486Z0F1200
G1 X45.082Y52.349Z0F1200
G1 X45.257Y52.235Z0F1200
G1 X45.44Y52.134Z0F1200
G1 X45.623Y52.049Z0F1200
G1 X45.819Y51.976Z0F1200
G1 X46.015Y51.918Z0F1200
G1 X46.229Y51.874Z0F1200
G1 X46.444Y51.845Z0F1200
G1 X46.674Y51.832Z0F1200
G1 X46.937Y51.837Z0F1200
G1 X47.212Y51.862Z0F1200
G1 X47.506Y51.911Z0F1200
G1 X47.83Y51.988Z0F1200
G1 X48.188Y52.099Z0F1200
G1 X48.262Y52.127Z0F1200
G1 X47.685Y52.271Z0F1200
G1 X46.733Y52.573Z0F1200
G1 X45.719Y53.169Z0F1200
G1 X44.992Y53.682Z0F1200
G1 X44.324Y54.251Z0F1200
G1 X43.72Y54.88Z0F1200
G1 X43.294Y55.433Z0F1200
G0 Z2.8F500
G0 X42.313Y56.386Z2.8F1500
G1 Z0F500
G1 X42.319Y56.062Z0F1200
G1 X42.345Y55.716Z0F1200
G1 X42.388Y55.383Z0F1200
G1 X42.452Y55.037Z0F1200
G1 X42.529Y54.713Z0F1200
G1 X42.625Y54.385Z0F1200
G1 X42.737Y54.069Z0F1200
G1 X42.867Y53.755Z0F1200
G1 X43.006Y53.462Z0F1200
G1 X43.166Y53.17Z0F1200
G1 X43.334Y52.899Z0F1200
G1 X43.515Y52.643Z0F1200
G1 X43.705Y52.404Z0F1200
G1 X43.91Y52.175Z0F1200
G1 X44.118Y51.972Z0F1200
G1 X44.341Y51.78Z0F1200
G1 X44.56Y51.615Z0F1200
G1 X44.796Y51.461Z0F1200
G1 X45.034Y51.33Z0F1200
G1 X45.275Y51.218Z0F1200
G1 X45.533Y51.122Z0F1200
G1 X45.799Y51.044Z0F1200
G1 X46.073Y50.986Z0F1200
G1 X46.358Y50.948Z0F1200
G1 X46.66Y50.932Z0F1200
G1 X46.989Y50.938Z0F1200
G1 X47.321Y50.968Z0F1200
G1 X47.686Y51.029Z0F1200
G1 X48.069Y51.12Z0F1200
G1 X48.479Y51.247Z0F1200
G1 X48.998Y51.445Z0F1200
G1 X53.172Y52.986Z0F1200
G1 X53.52Y53.11Z0F1200
G1 X53.309Y53.051Z0F1200
G1 X52.209Y52.848Z0F1200
G1 X51.59Y52.782Z0F1200
G1 X50.995Y52.751Z0F1200
G1 X50.393Y52.754Z0F1200
G1 X49.781Y52.792Z0F1200
G1 X49.166Y52.869Z0F1200
G1 X48.549Y52.983Z0F1200
G1 X47.93Y53.138Z0F1200
G1 X47.102Y53.4Z0F1200
G1 X46.208Y53.926Z0F1200
G1 X45.544Y54.393Z0F1200
G1 X44.942Y54.907Z0F1200
G1 X44.403Y55.468Z0F1200
G1 X43.933Y56.08Z0F1200
G1 X43.542Y56.734Z0F1200
G1 X43.236Y57.424Z0F1200
G1 X43.021Y58.14Z0F1200
G1 X42.9Y58.866Z0F1200
G1 X42.869Y59.588Z0F1200
G1 X42.924Y60.295Z0F1200
G1 X43.055Y60.976Z0F1200
G1 X43.253Y61.626Z0F1200
G1 X43.51Y62.246Z0F1200
G1 X43.818Y62.83Z0F1200
G1 X44.17Y63.379Z0F1200
G1 X44.563Y63.897Z0F1200
G1 X44.99Y64.383Z0F1200
G1 X45.452Y64.839Z0F1200
G1 X45.943Y65.262Z0F1200
G1 X46.462Y65.655Z0F1200
G1 X47.008Y66.016Z0F1200
G1 X47.579Y66.345Z0F1200
G1 X48.175Y66.642Z0F1200
G1 X48.792Y66.903Z0F1200
G1 X49.43Y67.127Z0F1200
G1 X50.088Y67.313Z0F1200
G1 X50.763Y67.456Z0F1200
G1 X51.455Y67.555Z0F1200
G1 X52.161Y67.606Z0F1200
G1 X52.879Z0F1200
G1 X53.355Y67.573Z0F1200
G1 X53.828Y67.59Z0F1200
G1 X55.325Y67.66Z0F1200
G1 X56.17Y67.688Z0F1200
G1 X57.056Y67.694Z0F1200
G1 X57.97Y67.665Z0F1200
G1 X58.905Y67.585Z0F1200
G1 X59.646Y67.465Z0F1200
G1 X59.597Y67.563Z0F1200
G1 X59.601Y67.874Z0F1200
G1 X59.014Y68.121Z0F1200
G1 X58.321Y68.605Z0F1200
G1 X57.694Y69.396Z0F1200
G1 X57.424Y70.206Z0F1200
G1 X56.507Y69.801Z0F1200
G1 X55.604Y69.732Z0F1200
G1 X55.11Y69.771Z0F1200
G1 X54.571Y69.883Z0F1200
G1 X53.694Y70.265Z0F1200
G1 X53.686Y70.273Z0F1200
G1 X53.371Y70.015Z0F1200
G1 X52.798Y69.585Z0F1200
G1 X52.206Y69.184Z0F1200
G1 X51.595Y68.809Z0F1200
G1 X50.965Y68.466Z0F1200
G1 X50.321Y68.157Z0F1200
G1 X49.658Y67.884Z0F1200
G1 X48.977Y67.652Z0F1200
G1 X48.278Y67.469Z0F1200
G1 X47.56Y67.338Z0F1200
G1 X47.295Y67.314Z0F1200
G1 X47.024Y67.219Z0F1200
G1 X46.244Y67.06Z0F1200
G1 X45.459Y67.016Z0F1200
G1 X44.69Y67.083Z0F1200
G1 X43.958Y67.254Z0F1200
G1 X43.275Y67.512Z0F1200
G1 X42.65Y67.841Z0F1200
G1 X42.083Y68.225Z0F1200
G1 X41.571Y68.655Z0F1200
G1 X41.11Y69.118Z0F1200
G1 X40.697Y69.609Z0F1200
G1 X40.326Y70.125Z0F1200
G1 X39.995Y70.662Z0F1200
G1 X39.701Y71.217Z0F1200
G1 X39.445Y71.787Z0F1200
G1 X39.225Y72.37Z0F1200
G1 X39.041Y72.964Z0F1200
G1 X38.892Y73.571Z0F1200
G1 X38.782Y74.187Z0F1200
G1 X38.712Y74.812Z0F1200
G1 X38.685Y75.445Z0F1200
G1 X38.704Y76.083Z0F1200
G1 X38.775Y76.728Z0F1200
G1 X38.905Y77.376Z0F1200
G1 X39.102Y78.023Z0F1200
G1 X39.375Y78.666Z0F1200
G1 X39.733Y79.29Z0F1200
G1 X40.18Y79.88Z0F1200
G1 X40.721Y80.421Z0F1200
G1 X41.35Y80.889Z0F1200
G1 X42.046Y81.264Z0F1200
G1 X42.851Y81.562Z0F1200
G1 X45.001Y81.943Z0F1200
G1 X46.99Y82.246Z0F1200
G1 X48.064Y82.358Z0F1200
G1 X49.158Y82.423Z0F1200
G1 X50.285Z0F1200
G1 X51.404Y82.351Z0F1200
G1 X51.91Y82.291Z0F1200
G1 X52.376Y82.218Z0F1200
G1 X52.829Y82.128Z0F1200
G1 X53.303Y82.012Z0F1200
G1 X54.115Y81.748Z0F1200
G1 X54.908Y81.386Z0F1200
G1 X55.646Y80.917Z0F1200
G1 X56.309Y80.33Z0F1200
G1 X56.693Y79.845Z0F1200
G1 X57.273Y81.133Z0F1200
G1 X57.174Y81.2Z0F1200
G1 X56.668Y81.504Z0F1200
G1 X56.142Y81.788Z0F1200
G1 X55.6Y82.05Z0F1200
G1 X55.02Y82.298Z0F1200
G1 X54.457Y82.512Z0F1200
G1 X53.846Y82.714Z0F1200
G1 X53.242Y82.887Z0F1200
G1 X52.625Y83.037Z0F1200
G1 X51.999Y83.163Z0F1200
G1 X51.354Y83.266Z0F1200
G1 X50.72Y83.342Z0F1200
G1 X50.077Y83.393Z0F1200
G1 X49.443Y83.418Z0F1200
G1 X48.787Z0F1200
G1 X48.159Y83.393Z0F1200
G1 X47.524Y83.34Z0F1200
G1 X46.902Y83.262Z0F1200
G1 X46.282Y83.158Z0F1200
G1 X45.688Y83.03Z0F1200
G1 X45.091Y82.873Z0F1200
G1 X44.156Y82.58Z0F1200
G1 X43.168Y82.512Z0F1200
G1 X42.556Y82.44Z0F1200
G1 X41.955Y82.342Z0F1200
G1 X41.364Y82.217Z0F1200
G1 X40.777Y82.064Z0F1200
G1 X40.203Y81.888Z0F1200
G1 X39.637Y81.686Z0F1200
G1 X39.083Y81.459Z0F1200
G1 X38.539Y81.21Z0F1200
G1 X38.014Y80.941Z0F1200
G1 X37.486Y80.642Z0F1200
G1 X36.982Y80.328Z0F1200
G1 X36.491Y79.991Z0F1200
G1 X36.294Y79.844Z0F1200
G1 X36.62Y78.461Z0F1200
G1 X37.353Y75.513Z0F1200
G1 X38.124Y72.536Z0F1200
G1 X38.924Y69.542Z0F1200
G1 X40.563Y63.591Z0F1200
G1 X42.34Y57.218Z0F1200
G1 X42.313Y56.386Z0F1200
G0 Z2.8F500
G0 X57.959Y74.51Z2.8F1500
G1 Z0F500
G1 X57.928Y75.205Z0F1200
G1 X58.294Y76.12Z0F1200
G1 X58.79Y76.902Z0F1200
G1 X58.342Y76.857Z0F1200
G1 X57.528Y78Z0F1200
G1 X57.624Y77.176Z0F1200
G1 X57.59Y76.381Z0F1200
G1 X57.454Y75.634Z0F1200
G1 X57.274Y75.048Z0F1200
G1 X57.448Y74.95Z0F1200
G1 X57.959Y74.51Z0F1200
G0 Z2.8F500
G0 X64.179Y65.695Z2.8F1500
G1 Z0F500
G1 X63.758Y65.442Z0F1200
G1 X63.372Y65.366Z0F1200
G1 X63.648Y64.962Z0F1200
G1 X63.95Y64.325Z0F1200
G1 X64.147Y63.648Z0F1200
G1 X64.24Y62.956Z0F1200
G1 X64.235Y62.271Z0F1200
G1 X64.15Y61.606Z0F1200
G1 X63.996Y60.956Z0F1200
G1 X63.795Y60.354Z0F1200
G1 X63.975Y60.569Z0F1200
G1 X64.463Y61.121Z0F1200
G1 X64.843Y61.6Z0F1200
G1 X64.936Y61.745Z0F1200
G1 X65.011Y61.89Z0F1200
G1 X65.062Y62.023Z0F1200
G1 X65.188Y62.547Z0F1200
G1 X65.384Y63.016Z0F1200
G1 X65.428Y63.154Z0F1200
G1 X65.458Y63.292Z0F1200
G1 X65.473Y63.417Z0F1200
G1 X65.477Y63.544Z0F1200
G1 X65.469Y63.673Z0F1200
G1 X65.449Y63.803Z0F1200
G1 X65.415Y63.948Z0F1200
G1 X65.365Y64.101Z0F1200
G1 X65.293Y64.273Z0F1200
G1 X65.208Y64.446Z0F1200
G1 X65.118Y64.601Z0F1200
G1 X64.817Y65.025Z0F1200
G1 X64.455Y65.437Z0F1200
G1 X64.179Y65.695Z0F1200
G0 Z2.8F500
G0 X62.846Y58.78Z2.8F1500
G1 Z0F500
G1 X62.181Y58.205Z0F1200
G1 X61.486Y57.618Z0F1200
G1 X60.748Y57.019Z0F1200
G1 X59.969Y56.418Z0F1200
G1 X59.149Y55.826Z0F1200
G1 X58.288Y55.252Z0F1200
G1 X57.384Y54.707Z0F1200
G1 X56.436Y54.2Z0F1200
G1 X55.925Y53.967Z0F1200
G1 X57.33Y54.468Z0F1200
G1 X58.249Y54.841Z0F1200
G1 X59.166Y55.248Z0F1200
G1 X60.037Y55.676Z0F1200
G1 X60.861Y56.13Z0F1200
G1 X61.631Y56.61Z0F1200
G1 X62.35Y57.124Z0F1200
G1 X62.579Y57.313Z0F1200
G1 X62.563Y57.542Z0F1200
G1 X62.708Y58.423Z0F1200
G1 X62.846Y58.78Z0F1200
G0 Z2.8F500
G0 X65.522Y65.587Z2.8F1500
G1 Z0F500
G1 X65.103Y66.063Z0F1200
G1 X64.614Y66.52Z0F1200
G1 X64.204Y66.844Z0F1200
G1 X64.104Y66.7Z0F1200
G1 X63.429Y66.295Z0F1200
G1 X62.798Y66.17Z0F1200
G1 X62.266Y66.205Z0F1200
G1 X61.79Y66.345Z0F1200
G1 X61.337Y66.595Z0F1200
G1 X60.878Y67.026Z0F1200
G1 X60.5Y67.772Z0F1200
G1 X60.51Y68.576Z0F1200
G1 X59.964Y68.697Z0F1200
G1 X59.451Y68.914Z0F1200
G1 X58.945Y69.268Z0F1200
G1 X58.498Y69.831Z0F1200
G1 X58.263Y70.535Z0F1200
G1 Y71.195Z0F1200
G1 X58.401Y71.714Z0F1200
G1 X58.582Y72.113Z0F1200
G1 X58.794Y72.463Z0F1200
G1 X59.188Y72.978Z0F1200
G1 X59.472Y73.296Z0F1200
G1 X58.893Y73.756Z0F1200
G1 X58.836Y75.051Z0F1200
G1 X59.099Y75.709Z0F1200
G1 X59.724Y76.695Z0F1200
G1 X60.663Y76.893Z0F1200
G1 X60.888Y76.93Z0F1200
G1 X61.123Y76.953Z0F1200
G1 X61.477Y76.959Z0F1200
G1 X61.871Y76.881Z0F1200
G1 X61.836Y76.944Z0F1200
G1 X61.559Y77.63Z0F1200
G1 X61.312Y78.139Z0F1200
G1 X61.144Y78.433Z0F1200
G1 X61.059Y78.377Z0F1200
G1 X60.818Y78.237Z0F1200
G1 X60.541Y78.098Z0F1200
G1 X60.118Y77.941Z0F1200
G1 X58.771Y77.805Z0F1200
G1 X57.54Y79.534Z0F1200
G1 X58.083Y80.741Z0F1200
G1 X58.285Y81.013Z0F1200
G1 X58.422Y81.173Z0F1200
G1 X58.562Y81.323Z0F1200
G1 X58.169Y81.617Z0F1200
G1 X57.653Y81.962Z0F1200
G1 X57.113Y82.287Z0F1200
G1 X56.554Y82.589Z0F1200
G1 X55.965Y82.873Z0F1200
G1 X55.371Y83.127Z0F1200
G1 X54.747Y83.364Z0F1200
G1 X54.117Y83.573Z0F1200
G1 X53.473Y83.757Z0F1200
G1 X52.819Y83.916Z0F1200
G1 X52.156Y84.049Z0F1200
G1 X51.48Y84.158Z0F1200
G1 X50.814Y84.237Z0F1200
G1 X50.134Y84.292Z0F1200
G1 X49.441Y84.319Z0F1200
G1 X48.774Z0F1200
G1 X48.107Y84.292Z0F1200
G1 X47.432Y84.235Z0F1200
G1 X46.767Y84.152Z0F1200
G1 X46.118Y84.043Z0F1200
G1 X45.473Y83.904Z0F1200
G1 X44.855Y83.742Z0F1200
G1 X43.988Y83.47Z0F1200
G1 X43.076Y83.407Z0F1200
G1 X42.431Y83.332Z0F1200
G1 X41.787Y83.227Z0F1200
G1 X41.16Y83.094Z0F1200
G1 X40.53Y82.93Z0F1200
G1 X39.919Y82.742Z0F1200
G1 X39.315Y82.526Z0F1200
G1 X38.728Y82.287Z0F1200
G1 X38.15Y82.022Z0F1200
G1 X37.579Y81.729Z0F1200
G1 X37.028Y81.417Z0F1200
G1 X36.486Y81.079Z0F1200
G1 X35.969Y80.725Z0F1200
G1 X35.462Y80.346Z0F1200
G1 X35.285Y80.202Z0F1200
G1 X35.739Y78.276Z0F1200
G1 X36.481Y75.288Z0F1200
G1 X37.254Y72.303Z0F1200
G1 X38.051Y69.322Z0F1200
G1 X39.696Y63.35Z0F1200
G1 X41.436Y57.11Z0F1200
G1 X41.412Y56.405Z0F1200
G1 X41.42Y56.01Z0F1200
G1 X41.45Y55.625Z0F1200
G1 X41.5Y55.238Z0F1200
G1 X41.569Y54.859Z0F1200
G1 X41.659Y54.481Z0F1200
G1 X41.768Y54.11Z0F1200
G1 X41.896Y53.749Z0F1200
G1 X42.043Y53.393Z0F1200
G1 X42.21Y53.042Z0F1200
G1 X42.386Y52.721Z0F1200
G1 X42.586Y52.398Z0F1200
G1 X42.79Y52.109Z0F1200
G1 X43.023Y51.815Z0F1200
G1 X43.258Y51.554Z0F1200
G1 X43.509Y51.308Z0F1200
G1 X43.773Y51.08Z0F1200
G1 X44.047Y50.875Z0F1200
G1 X44.325Y50.694Z0F1200
G1 X44.627Y50.527Z0F1200
G1 X44.933Y50.386Z0F1200
G1 X45.252Y50.266Z0F1200
G1 X45.578Y50.171Z0F1200
G1 X45.917Y50.099Z0F1200
G1 X46.272Y50.052Z0F1200
G1 X46.646Y50.031Z0F1200
G1 X47.035Y50.039Z0F1200
G1 X47.437Y50.075Z0F1200
G1 X47.863Y50.146Z0F1200
G1 X48.31Y50.252Z0F1200
G1 X48.771Y50.395Z0F1200
G1 X49.314Y50.602Z0F1200
G1 X53.479Y52.14Z0F1200
G1 X57.656Y53.629Z0F1200
G1 X58.594Y54.01Z0F1200
G1 X59.55Y54.434Z0F1200
G1 X60.45Y54.875Z0F1200
G1 X61.317Y55.354Z0F1200
G1 X62.13Y55.861Z0F1200
G1 X62.9Y56.411Z0F1200
G1 X63.509Y56.916Z0F1200
G1 X63.468Y57.5Z0F1200
G1 X63.581Y58.185Z0F1200
G1 X63.807Y58.77Z0F1200
G1 X64.084Y59.25Z0F1200
G1 X64.375Y59.645Z0F1200
G1 X64.657Y59.982Z0F1200
G1 X65.151Y60.54Z0F1200
G1 X65.578Y61.078Z0F1200
G1 X65.715Y61.292Z0F1200
G1 X65.834Y61.523Z0F1200
G1 X65.923Y61.757Z0F1200
G1 X66.046Y62.265Z0F1200
G1 X66.229Y62.703Z0F1200
G1 X66.298Y62.922Z0F1200
G1 X66.347Y63.146Z0F1200
G1 X66.372Y63.35Z0F1200
G1 X66.378Y63.56Z0F1200
G1 X66.365Y63.764Z0F1200
G1 X66.332Y63.98Z0F1200
G1 X66.281Y64.192Z0F1200
G1 X66.21Y64.41Z0F1200
G1 X66.115Y64.642Z0F1200
G1 X65.999Y64.877Z0F1200
G1 X65.879Y65.083Z0F1200
G1 X65.522Y65.587Z0F1200
G0 Z2.8F500
G0 X63.748Y67.762Z2.8F1500
G1 Z0F500
G1 X63.476Y67.373Z0F1200
G1 X63.1Y67.147Z0F1200
G1 X62.739Y67.076Z0F1200
G1 X62.424Y67.096Z0F1200
G1 X62.139Y67.18Z0F1200
G1 X61.871Y67.329Z0F1200
G1 X61.609Y67.574Z0F1200
G1 X61.402Y67.982Z0F1200
G1 X61.409Y68.51Z0F1200
G1 X61.649Y68.938Z0F1200
G1 X61.869Y69.121Z0F1200
G1 X61.789Y69.152Z0F1200
G1 X61.063Y69.375Z0F1200
G1 X60.238Y69.559Z0F1200
G1 X59.889Y69.706Z0F1200
G1 X59.568Y69.93Z0F1200
G1 X59.301Y70.266Z0F1200
G1 X59.164Y70.68Z0F1200
G1 Y71.078Z0F1200
G1 X59.252Y71.412Z0F1200
G1 X59.379Y71.693Z0F1200
G1 X59.538Y71.956Z0F1200
G1 X59.881Y72.403Z0F1200
G1 X60.291Y72.862Z0F1200
G1 X61.162Y73.777Z0F1200
G1 X60.904Y73.709Z0F1200
G1 X60.385Y73.72Z0F1200
G1 X59.774Y74.205Z0F1200
G1 X59.744Y74.897Z0F1200
G1 X59.904Y75.297Z0F1200
G1 X60.281Y75.893Z0F1200
G1 X60.828Y76.008Z0F1200
G1 X61.005Y76.037Z0F1200
G1 X61.176Y76.054Z0F1200
G1 X61.396Y76.058Z0F1200
G1 X61.91Y75.955Z0F1200
G1 X62.433Y75.332Z0F1200
G1 X62.689Y75.786Z0F1200
G1 X62.777Y75.992Z0F1200
G1 X62.843Y76.197Z0F1200
G1 X62.883Y76.387Z0F1200
G1 X62.898Y76.566Z0F1200
G1 X62.89Y76.729Z0F1200
G1 X62.858Y76.891Z0F1200
G1 X62.798Y77.057Z0F1200
G1 X62.653Y77.327Z0F1200
G1 X62.384Y77.991Z0F1200
G1 X62.106Y78.562Z0F1200
G1 X61.79Y79.117Z0F1200
G1 X61.448Y79.635Z0F1200
G1 X61.312Y79.815Z0F1200
G1 X61.159Y79.593Z0F1200
G1 X60.959Y79.408Z0F1200
G1 X60.774Y79.268Z0F1200
G1 X60.584Y79.142Z0F1200
G1 X60.39Y79.029Z0F1200
G1 X60.182Y78.925Z0F1200
G1 X59.913Y78.825Z0F1200
G1 X59.201Y78.753Z0F1200
G1 X58.573Y79.635Z0F1200
G1 X58.864Y80.283Z0F1200
G1 X58.99Y80.452Z0F1200
G1 X59.093Y80.573Z0F1200
G1 X59.212Y80.7Z0F1200
G1 X59.493Y80.98Z0F1200
G1 X59.864Y81.103Z0F1200
G1 X60.029Y81.149Z0F1200
G1 X60.12Y81.17Z0F1200
G1 X59.732Y81.53Z0F1200
G1 X59.222Y81.954Z0F1200
G1 X58.692Y82.35Z0F1200
G1 X58.138Y82.721Z0F1200
G1 X57.557Y83.07Z0F1200
G1 X56.962Y83.391Z0F1200
G1 X56.339Y83.691Z0F1200
G1 X55.699Y83.966Z0F1200
G1 X55.062Y84.208Z0F1200
G1 X54.378Y84.435Z0F1200
G1 X53.703Y84.627Z0F1200
G1 X53.014Y84.795Z0F1200
G1 X52.316Y84.935Z0F1200
G1 X51.605Y85.049Z0F1200
G1 X50.895Y85.134Z0F1200
G1 X50.192Y85.19Z0F1200
G1 X49.464Y85.219Z0F1200
G1 X48.762Z0F1200
G1 X48.042Y85.189Z0F1200
G1 X47.339Y85.131Z0F1200
G1 X46.643Y85.044Z0F1200
G1 X45.942Y84.926Z0F1200
G1 X45.273Y84.782Z0F1200
G1 X44.594Y84.604Z0F1200
G1 X43.82Y84.361Z0F1200
G1 X42.995Y84.304Z0F1200
G1 X42.306Y84.224Z0F1200
G1 X41.625Y84.112Z0F1200
G1 X40.949Y83.969Z0F1200
G1 X40.29Y83.798Z0F1200
G1 X39.636Y83.597Z0F1200
G1 X38.997Y83.368Z0F1200
G1 X38.364Y83.11Z0F1200
G1 X37.749Y82.828Z0F1200
G1 X37.155Y82.523Z0F1200
G1 X36.569Y82.191Z0F1200
G1 X35.998Y81.835Z0F1200
G1 X35.444Y81.457Z0F1200
G1 X34.908Y81.056Z0F1200
G1 X34.39Y80.634Z0F1200
G1 X34.281Y80.537Z0F1200
G1 X34.865Y78.059Z0F1200
G1 X35.612Y75.054Z0F1200
G1 X36.384Y72.07Z0F1200
G1 X37.186Y69.077Z0F1200
G1 X38.829Y63.108Z0F1200
G1 X40.532Y57.001Z0F1200
G1 X40.512Y56.407Z0F1200
G1 X40.521Y55.968Z0F1200
G1 X40.554Y55.533Z0F1200
G1 X40.61Y55.097Z0F1200
G1 X40.688Y54.674Z0F1200
G1 X40.789Y54.25Z0F1200
G1 X40.913Y53.83Z0F1200
G1 X41.056Y53.422Z0F1200
G1 X41.219Y53.029Z0F1200
G1 X41.407Y52.634Z0F1200
G1 X41.605Y52.271Z0F1200
G1 X41.833Y51.906Z0F1200
G1 X42.079Y51.557Z0F1200
G1 X42.33Y51.24Z0F1200
G1 X42.606Y50.933Z0F1200
G1 X42.899Y50.646Z0F1200
G1 X43.21Y50.378Z0F1200
G1 X43.527Y50.14Z0F1200
G1 X43.87Y49.917Z0F1200
G1 X44.218Y49.725Z0F1200
G1 X44.585Y49.555Z0F1200
G1 X44.966Y49.412Z0F1200
G1 X45.355Y49.298Z0F1200
G1 X45.771Y49.211Z0F1200
G1 X46.192Y49.155Z0F1200
G1 X46.626Y49.13Z0F1200
G1 X47.088Y49.139Z0F1200
G1 X47.553Y49.182Z0F1200
G1 X48.042Y49.263Z0F1200
G1 X48.542Y49.382Z0F1200
G1 X49.067Y49.544Z0F1200
G1 X49.63Y49.76Z0F1200
G1 X53.786Y51.294Z0F1200
G1 X57.963Y52.782Z0F1200
G1 X58.964Y53.189Z0F1200
G1 X59.925Y53.615Z0F1200
G1 X60.87Y54.08Z0F1200
G1 X61.767Y54.573Z0F1200
G1 X62.637Y55.117Z0F1200
G1 X63.45Y55.698Z0F1200
G1 X64.219Y56.334Z0F1200
G1 X64.509Y56.615Z0F1200
G1 X64.41Y56.939Z0F1200
G1 X64.373Y57.458Z0F1200
G1 X64.454Y57.947Z0F1200
G1 X64.621Y58.379Z0F1200
G1 X64.839Y58.756Z0F1200
G1 X65.084Y59.089Z0F1200
G1 X65.339Y59.395Z0F1200
G1 X65.844Y59.964Z0F1200
G1 X66.31Y60.552Z0F1200
G1 X66.499Y60.847Z0F1200
G1 X66.656Y61.153Z0F1200
G1 X66.785Y61.493Z0F1200
G1 X66.904Y61.984Z0F1200
G1 X67.075Y62.393Z0F1200
G1 X67.17Y62.696Z0F1200
G1 X67.234Y62.988Z0F1200
G1 X67.27Y63.284Z0F1200
G1 X67.278Y63.574Z0F1200
G1 X67.26Y63.866Z0F1200
G1 X67.218Y64.145Z0F1200
G1 X67.148Y64.437Z0F1200
G1 X67.054Y64.726Z0F1200
G1 X66.935Y65.015Z0F1200
G1 X66.795Y65.297Z0F1200
G1 X66.634Y65.575Z0F1200
G1 X66.231Y66.144Z0F1200
G1 X65.749Y66.691Z0F1200
G1 X65.2Y67.205Z0F1200
G1 X64.589Y67.687Z0F1200
G1 X63.921Y68.134Z0F1200
G1 X63.833Y68.184Z0F1200
G1 X63.748Y67.762Z0F1200
G0 Z2.8F500
G0 X59.631Y79.701Z2.8F1500
G1 Z0F500
G1 X59.605Y79.737Z0F1200
G1 X59.645Y79.825Z0F1200
G1 X59.694Y79.891Z0F1200
G1 X59.765Y79.974Z0F1200
G1 X59.858Y80.074Z0F1200
G1 X59.977Y80.192Z0F1200
G1 X60.128Y80.242Z0F1200
G1 X60.252Y80.277Z0F1200
G1 X60.35Y80.299Z0F1200
G1 X60.425Y80.31Z0F1200
G1 X60.51Y80.3Z0F1200
G1 X60.522Y80.256Z0F1200
G1 X60.474Y80.186Z0F1200
G1 X60.379Y80.098Z0F1200
G1 X60.253Y80.002Z0F1200
G1 X60.109Y79.907Z0F1200
G1 X59.961Y79.821Z0F1200
G1 X59.823Y79.751Z0F1200
G1 X59.708Y79.709Z0F1200
G1 X59.631Y79.701Z0F1200
G0 Z2.8F500
G0 X60.838Y75.09Z2.8F1500
G1 Z0F500
G1 X60.993Y75.123Z0F1200
G1 X61.123Y75.144Z0F1200
G1 X61.229Y75.155Z0F1200
G1 X61.314Z0F1200
G1 X61.424Y75.134Z0F1200
G1 X61.465Y75.085Z0F1200
G1 X61.448Y75.017Z0F1200
G1 X61.385Y74.937Z0F1200
G1 X61.288Y74.852Z0F1200
G1 X61.169Y74.769Z0F1200
G1 X61.04Y74.697Z0F1200
G1 X60.912Y74.642Z0F1200
G1 X60.797Y74.611Z0F1200
G1 X60.708Z0F1200
G1 X60.655Y74.655Z0F1200
G1 X60.651Y74.743Z0F1200
G1 X60.708Y74.886Z0F1200
G1 X60.838Y75.09Z0F1200
G0 Z2.8F500
G0 X62.845Y68.585Z2.8F1500
G1 Z0F500
G1 X62.909Y68.39Z0F1200
G1 X62.926Y68.238Z0F1200
G1 X62.903Y68.124Z0F1200
G1 X62.848Y68.046Z0F1200
G1 X62.771Y68Z0F1200
G1 X62.68Y67.981Z0F1200
G1 X62.583Y67.988Z0F1200
G1 X62.488Y68.016Z0F1200
G1 X62.405Y68.062Z0F1200
G1 X62.341Y68.122Z0F1200
G1 X62.305Y68.192Z0F1200
G1 Y68.27Z0F1200
G1 X62.352Y68.352Z0F1200
G1 X62.451Y68.434Z0F1200
G1 X62.613Y68.513Z0F1200
G1 X62.845Y68.585Z0F1200
G0 Z2.8F500
G0 X64.4Y68.896Z2.8F1500
G1 Z0F500
G1 X63.648Y69.324Z0F1200
G1 X62.872Y69.694Z0F1200
G1 X62.083Y70.003Z0F1200
G1 X61.292Y70.247Z0F1200
G1 X60.513Y70.419Z0F1200
G1 X60.326Y70.498Z0F1200
G1 X60.191Y70.592Z0F1200
G1 X60.105Y70.701Z0F1200
G1 X60.064Y70.824Z0F1200
G1 Y70.961Z0F1200
G1 X60.104Y71.11Z0F1200
G1 X60.177Y71.273Z0F1200
G1 X60.283Y71.447Z0F1200
G1 X60.575Y71.829Z0F1200
G1 X60.953Y72.251Z0F1200
G1 X61.856Y73.201Z0F1200
G1 X62.328Y73.718Z0F1200
G1 X62.777Y74.258Z0F1200
G1 X63.176Y74.816Z0F1200
G1 X63.498Y75.387Z0F1200
G1 X63.621Y75.676Z0F1200
G1 X63.714Y75.966Z0F1200
G1 X63.775Y76.258Z0F1200
G1 X63.8Y76.549Z0F1200
G1 X63.786Y76.841Z0F1200
G1 X63.728Y77.132Z0F1200
G1 X63.623Y77.422Z0F1200
G1 X63.469Y77.709Z0F1200
G1 X63.207Y78.358Z0F1200
G1 X62.903Y78.982Z0F1200
G1 X62.56Y79.583Z0F1200
G1 X62.18Y80.159Z0F1200
G1 X61.764Y80.709Z0F1200
G1 X61.314Y81.235Z0F1200
G1 X60.833Y81.736Z0F1200
G1 X60.32Y82.211Z0F1200
G1 X59.78Y82.661Z0F1200
G1 X59.213Y83.084Z0F1200
G1 X58.621Y83.48Z0F1200
G1 X58.006Y83.851Z0F1200
G1 X57.37Y84.194Z0F1200
G1 X56.714Y84.51Z0F1200
G1 X56.041Y84.799Z0F1200
G1 X55.352Y85.06Z0F1200
G1 X54.649Y85.293Z0F1200
G1 X53.934Y85.498Z0F1200
G1 X53.208Y85.674Z0F1200
G1 X52.474Y85.821Z0F1200
G1 X51.733Y85.94Z0F1200
G1 X50.987Y86.029Z0F1200
G1 X50.238Y86.089Z0F1200
G1 X49.487Y86.119Z0F1200
G1 X48.737Z0F1200
G1 X47.99Y86.088Z0F1200
G1 X47.246Y86.026Z0F1200
G1 X46.508Y85.934Z0F1200
G1 X45.778Y85.811Z0F1200
G1 X45.058Y85.656Z0F1200
G1 X44.349Y85.47Z0F1200
G1 X43.652Y85.251Z0F1200
G1 X42.912Y85.2Z0F1200
G1 X42.18Y85.115Z0F1200
G1 X41.458Y84.997Z0F1200
G1 X40.745Y84.846Z0F1200
G1 X40.042Y84.664Z0F1200
G1 X39.353Y84.451Z0F1200
G1 X38.675Y84.209Z0F1200
G1 X38.01Y83.938Z0F1200
G1 X37.36Y83.64Z0F1200
G1 X36.726Y83.314Z0F1200
G1 X36.106Y82.963Z0F1200
G1 X35.504Y82.588Z0F1200
G1 X34.92Y82.188Z0F1200
G1 X34.354Y81.765Z0F1200
G1 X33.808Y81.32Z0F1200
G1 X33.282Y80.854Z0F1200
G1 X33.992Y77.842Z0F1200
G1 X34.739Y74.836Z0F1200
G1 X35.515Y71.838Z0F1200
G1 X36.316Y68.844Z0F1200
G1 X37.962Y62.866Z0F1200
G1 X39.627Y56.893Z0F1200
G1 X39.611Y56.409Z0F1200
G1 X39.622Y55.925Z0F1200
G1 X39.658Y55.443Z0F1200
G1 X39.72Y54.963Z0F1200
G1 X39.807Y54.487Z0F1200
G1 X39.919Y54.018Z0F1200
G1 X40.055Y53.555Z0F1200
G1 X40.215Y53.102Z0F1200
G1 X40.398Y52.659Z0F1200
G1 X40.604Y52.228Z0F1200
G1 X40.832Y51.811Z0F1200
G1 X41.082Y51.409Z0F1200
G1 X41.353Y51.023Z0F1200
G1 X41.645Y50.656Z0F1200
G1 X41.958Y50.308Z0F1200
G1 X42.291Y49.982Z0F1200
G1 X42.643Y49.679Z0F1200
G1 X43.014Y49.399Z0F1200
G1 X43.404Y49.146Z0F1200
G1 X43.812Y48.921Z0F1200
G1 X44.237Y48.724Z0F1200
G1 X44.68Y48.558Z0F1200
G1 X45.139Y48.424Z0F1200
G1 X45.615Y48.324Z0F1200
G1 X46.106Y48.258Z0F1200
G1 X46.612Y48.23Z0F1200
G1 X47.134Y48.24Z0F1200
G1 X47.669Y48.289Z0F1200
G1 X48.219Y48.38Z0F1200
G1 X48.782Y48.514Z0F1200
G1 X49.358Y48.692Z0F1200
G1 X49.947Y48.917Z0F1200
G1 X54.093Y50.448Z0F1200
G1 X58.289Y51.943Z0F1200
G1 X59.31Y52.358Z0F1200
G1 X60.309Y52.801Z0F1200
G1 X61.283Y53.279Z0F1200
G1 X62.226Y53.799Z0F1200
G1 X63.133Y54.365Z0F1200
G1 X64Y54.985Z0F1200
G1 X64.822Y55.666Z0F1200
G1 X65.594Y56.411Z0F1200
G1 X65.402Y56.772Z0F1200
G1 X65.3Y57.105Z0F1200
G1 X65.278Y57.416Z0F1200
G1 X65.327Y57.709Z0F1200
G1 X65.435Y57.989Z0F1200
G1 X65.593Y58.263Z0F1200
G1 X65.792Y58.534Z0F1200
G1 X66.021Y58.808Z0F1200
G1 X66.532Y59.383Z0F1200
G1 X67.045Y60.031Z0F1200
G1 X67.277Y60.394Z0F1200
G1 X67.481Y60.79Z0F1200
G1 X67.646Y61.225Z0F1200
G1 X67.762Y61.702Z0F1200
G1 X67.921Y62.083Z0F1200
G1 X68.041Y62.463Z0F1200
G1 X68.123Y62.841Z0F1200
G1 X68.169Y63.217Z0F1200
G1 X68.179Y63.589Z0F1200
G1 X68.156Y63.958Z0F1200
G1 X68.101Y64.322Z0F1200
G1 X68.015Y64.681Z0F1200
G1 X67.9Y65.035Z0F1200
G1 X67.757Y65.383Z0F1200
G1 X67.587Y65.725Z0F1200
G1 X67.394Y66.06Z0F1200
G1 X66.936Y66.706Z0F1200
G1 X66.396Y67.317Z0F1200
G1 X65.786Y67.889Z0F1200
G1 X65.117Y68.417Z0F1200
G1 X64.4Y68.896Z0F1200
G0 Z2.8F500
G0 X17.1Y49.019Z2.8F1500
G1 Z0F500
G1 X16.554Y49.13Z0F1200
G1 X16.041Y49.293Z0F1200
G1 X15.561Y49.507Z0F1200
G1 X15.115Y49.766Z0F1200
G1 X14.705Y50.067Z0F1200
G1 X14.328Y50.406Z0F1200
G1 X13.987Y50.78Z0F1200
G1 X13.682Y51.185Z0F1200
G1 X13.414Y51.616Z0F1200
G1 X13.181Y52.07Z0F1200
G1 X12.986Y52.543Z0F1200
G1 X12.828Y53.033Z0F1200
G1 X12.708Y53.534Z0F1200
G1 X12.626Y54.042Z0F1200
G1 X12.583Y54.555Z0F1200
G1 X12.58Y55.069Z0F1200
G1 X12.616Y55.579Z0F1200
G1 X12.691Y56.082Z0F1200
G1 X12.808Y56.573Z0F1200
G1 X12.965Y57.051Z0F1200
G1 X13.164Y57.509Z0F1200
G1 X13.404Y57.945Z0F1200
G1 X13.687Y58.355Z0F1200
G1 X14.012Y58.736Z0F1200
G1 X14.379Y59.083Z0F1200
G1 X14.791Y59.392Z0F1200
G1 X15.247Y59.66Z0F1200
G1 X15.747Y59.883Z0F1200
G1 X16.291Y60.058Z0F1200
G1 X16.88Y60.179Z0F1200
G1 X17.136Y59.569Z0F1200
G1 X17.457Y58.911Z0F1200
G1 X17.824Y58.213Z0F1200
G1 X18.219Y57.481Z0F1200
G1 X18.623Y56.726Z0F1200
G1 X19.017Y55.953Z0F1200
G1 X19.382Y55.17Z0F1200
G1 X19.7Y54.385Z0F1200
G1 X19.952Y53.607Z0F1200
G1 X20.119Y52.842Z0F1200
G1 X20.165Y52.467Z0F1200
G1 X20.182Y52.099Z0F1200
G1 X20.169Y51.737Z0F1200
G1 X20.123Y51.384Z0F1200
G1 X20.042Y51.041Z0F1200
G1 X19.923Y50.707Z0F1200
G1 X19.765Y50.385Z0F1200
G1 X19.564Y50.074Z0F1200
G1 X19.318Y49.777Z0F1200
G1 X19.026Y49.494Z0F1200
G1 X18.684Y49.226Z0F1200
G1 X18.291Y48.974Z0F1200
G1 X17.679Y48.966Z0F1200
G1 X17.1Y49.019Z0F1200
G0 Z2.8F500
G0 X14.622Y49.011Z2.8F1500
G1 Z0F500
G1 X14.136Y49.368Z0F1200
G1 X13.693Y49.767Z0F1200
G1 X13.294Y50.204Z0F1200
G1 X12.939Y50.675Z0F1200
G1 X12.63Y51.172Z0F1200
G1 X12.363Y51.692Z0F1200
G1 X12.14Y52.233Z0F1200
G1 X11.961Y52.79Z0F1200
G1 X11.825Y53.357Z0F1200
G1 X11.732Y53.934Z0F1200
G1 X11.684Y54.514Z0F1200
G1 X11.679Y55.097Z0F1200
G1 X11.721Y55.678Z0F1200
G1 X11.807Y56.252Z0F1200
G1 X11.941Y56.818Z0F1200
G1 X12.124Y57.371Z0F1200
G1 X12.354Y57.906Z0F1200
G1 X12.637Y58.419Z0F1200
G1 X12.972Y58.905Z0F1200
G1 X13.359Y59.357Z0F1200
G1 X13.798Y59.772Z0F1200
G1 X14.291Y60.142Z0F1200
G1 X14.833Y60.461Z0F1200
G1 X15.425Y60.726Z0F1200
G1 X16.062Y60.929Z0F1200
G1 X17.424Y61.21Z0F1200
G1 X17.957Y59.941Z0F1200
G1 X18.266Y59.306Z0F1200
G1 X18.616Y58.641Z0F1200
G1 X19.012Y57.907Z0F1200
G1 X19.421Y57.142Z0F1200
G1 X19.826Y56.347Z0F1200
G1 X20.207Y55.529Z0F1200
G1 X20.546Y54.693Z0F1200
G1 X20.821Y53.842Z0F1200
G1 X21.007Y52.993Z0F1200
G1 X21.062Y52.543Z0F1200
G1 X21.083Y52.104Z0F1200
G1 X21.067Y51.663Z0F1200
G1 X21.01Y51.223Z0F1200
G1 X20.907Y50.786Z0F1200
G1 X20.754Y50.356Z0F1200
G1 X20.549Y49.94Z0F1200
G1 X20.291Y49.542Z0F1200
G1 X19.98Y49.166Z0F1200
G1 X19.618Y48.815Z0F1200
G1 X19.206Y48.491Z0F1200
G1 X18.56Y48.077Z0F1200
G1 X17.644Y48.065Z0F1200
G1 X16.969Y48.127Z0F1200
G1 X16.327Y48.257Z0F1200
G1 X15.72Y48.451Z0F1200
G1 X15.151Y48.704Z0F1200
G1 X14.622Y49.011Z0F1200
G0 Z2.8F500
G0 X12.197Y50.165Z2.8F1500
G1 Z0F500
G1 X11.846Y50.728Z0F1200
G1 X11.545Y51.315Z0F1200
G1 X11.294Y51.923Z0F1200
G1 X11.094Y52.546Z0F1200
G1 X10.941Y53.181Z0F1200
G1 X10.838Y53.825Z0F1200
G1 X10.784Y54.473Z0F1200
G1 X10.779Y55.125Z0F1200
G1 X10.825Y55.776Z0F1200
G1 X10.922Y56.423Z0F1200
G1 X11.074Y57.063Z0F1200
G1 X11.281Y57.691Z0F1200
G1 X11.545Y58.303Z0F1200
G1 X11.871Y58.893Z0F1200
G1 X12.258Y59.454Z0F1200
G1 X12.706Y59.979Z0F1200
G1 X13.217Y60.461Z0F1200
G1 X13.791Y60.892Z0F1200
G1 X14.421Y61.263Z0F1200
G1 X15.104Y61.567Z0F1200
G1 X15.833Y61.801Z0F1200
G1 X17.967Y62.241Z0F1200
G1 X18.774Y60.317Z0F1200
G1 X19.065Y59.721Z0F1200
G1 X19.408Y59.068Z0F1200
G1 X19.805Y58.333Z0F1200
G1 X20.219Y57.558Z0F1200
G1 X20.635Y56.742Z0F1200
G1 X21.033Y55.889Z0F1200
G1 X21.392Y55.001Z0F1200
G1 X21.691Y54.077Z0F1200
G1 X21.895Y53.145Z0F1200
G1 X21.959Y52.62Z0F1200
G1 X21.984Y52.109Z0F1200
G1 X21.965Y51.588Z0F1200
G1 X21.896Y51.061Z0F1200
G1 X21.771Y50.531Z0F1200
G1 X21.584Y50.005Z0F1200
G1 X21.333Y49.496Z0F1200
G1 X21.019Y49.008Z0F1200
G1 X20.642Y48.553Z0F1200
G1 X20.21Y48.136Z0F1200
G1 X19.727Y47.756Z0F1200
G1 X18.829Y47.18Z0F1200
G1 X17.608Y47.165Z0F1200
G1 X16.838Y47.235Z0F1200
G1 X16.1Y47.385Z0F1200
G1 X15.399Y47.608Z0F1200
G1 X14.741Y47.901Z0F1200
G1 X14.128Y48.257Z0F1200
G1 X13.567Y48.669Z0F1200
G1 X13.058Y49.128Z0F1200
G1 X12.601Y49.629Z0F1200
G1 X12.197Y50.165Z0F1200
G0 Z2.8F500
G0 X16.648Y75.549Z2.8F1500
G1 Z0F500
G1 X17.108Y74.352Z0F1200
G1 X17.405Y73.668Z0F1200
G1 X17.401Y73.686Z0F1200
G1 X17.158Y74.47Z0F1200
G1 X17.046Y74.768Z0F1200
G1 X16.923Y75.054Z0F1200
G1 X16.808Y75.286Z0F1200
G1 X16.69Y75.487Z0F1200
G1 X16.648Y75.549Z0F1200
G0 Z2.8F500
G0 X18.809Y67.222Z2.8F1500
G1 Z0F500
G1 X18.667Y66.516Z0F1200
G1 X18.363Y65.643Z0F1200
G1 X17.964Y64.842Z0F1200
G1 X17.493Y64.131Z0F1200
G1 X17.345Y63.951Z0F1200
G1 X19.054Y64.303Z0F1200
G1 X20.416Y61.057Z0F1200
G1 X20.667Y60.542Z0F1200
G1 X21.011Y59.889Z0F1200
G1 X20.537Y61.421Z0F1200
G1 X18.971Y66.711Z0F1200
G1 X18.809Y67.222Z0F1200
G0 Z2.8F500
G0 X9.721Y58.618Z2.8F1500
G1 Z0F500
G1 X9.639Y58.525Z0F1200
G1 X9.601Y58.472Z0F1200
G1 X9.585Y58.443Z0F1200
G1 Y58.428Z0F1200
G1 Y58.351Z0F1200
G1 X9.589Y58.309Z0F1200
G1 X9.597Y58.332Z0F1200
G1 X9.721Y58.618Z0F1200
G0 Z2.8F500
G0 X23.688Y50.879Z2.8F1500
G1 Z0F500
G1 X23.669Y50.737Z0F1200
G1 X23.5Y50.021Z0F1200
G1 X23.245Y49.304Z0F1200
G1 X22.902Y48.606Z0F1200
G1 X22.473Y47.942Z0F1200
G1 X21.965Y47.33Z0F1200
G1 X21.542Y46.919Z0F1200
G1 X21.824Y46.927Z0F1200
G1 X22.511Y46.991Z0F1200
G1 X23.138Y47.1Z0F1200
G1 X23.669Y47.243Z0F1200
G1 X24.179Y47.441Z0F1200
G1 X24.334Y47.519Z0F1200
G1 X24.488Y47.608Z0F1200
G1 X24.319Y48.381Z0F1200
G1 X23.688Y50.879Z0F1200
G0 Z2.8F500
G0 X22.783Y53.295Z2.8F1500
G1 Z0F500
G1 X22.857Y52.696Z0F1200
G1 X22.884Y52.114Z0F1200
G1 X22.863Y51.514Z0F1200
G1 X22.783Y50.899Z0F1200
G1 X22.636Y50.276Z0F1200
G1 X22.415Y49.655Z0F1200
G1 X22.118Y49.051Z0F1200
G1 X21.746Y48.476Z0F1200
G1 X21.304Y47.941Z0F1200
G1 X20.803Y47.457Z0F1200
G1 X20.249Y47.022Z0F1200
G1 X19.097Y46.284Z0F1200
G1 X17.848Y46.268Z0F1200
G1 X18.441Y46.188Z0F1200
G1 X19.332Y46.092Z0F1200
G1 X20.22Y46.029Z0F1200
G1 X21.069Y46.006Z0F1200
G1 X21.88Y46.028Z0F1200
G1 X22.637Y46.099Z0F1200
G1 X23.325Y46.218Z0F1200
G1 X23.951Y46.387Z0F1200
G1 X24.547Y46.619Z0F1200
G1 X24.754Y46.722Z0F1200
G1 X24.993Y46.861Z0F1200
G1 X25.214Y47.011Z0F1200
G1 X25.417Y47.169Z0F1200
G1 X25.491Y47.236Z0F1200
G1 X25.196Y48.586Z0F1200
G1 X24.538Y51.189Z0F1200
G1 X23.813Y53.782Z0F1200
G1 X23.036Y56.386Z0F1200
G1 X21.398Y61.682Z0F1200
G1 X19.836Y66.96Z0F1200
G1 X19.554Y67.852Z0F1200
G1 X19.298Y68.905Z0F1200
G1 X19.084Y69.958Z0F1200
G1 X18.891Y71.003Z0F1200
G1 X18.699Y72.027Z0F1200
G1 X18.494Y73.014Z0F1200
G1 X18.27Y73.921Z0F1200
G1 X18.011Y74.758Z0F1200
G1 X17.879Y75.109Z0F1200
G1 X17.741Y75.431Z0F1200
G1 X17.596Y75.721Z0F1200
G1 X17.453Y75.966Z0F1200
G1 X17.311Y76.173Z0F1200
G1 X17.175Y76.339Z0F1200
G1 X17.044Y76.472Z0F1200
G1 X16.917Y76.577Z0F1200
G1 X16.79Y76.66Z0F1200
G1 X16.659Y76.725Z0F1200
G1 X16.503Y76.782Z0F1200
G1 X16.306Y76.83Z0F1200
G1 X16.068Y76.86Z0F1200
G1 X15.758Y76.868Z0F1200
G1 X15.586Y76.857Z0F1200
G1 X15.575Y76.838Z0F1200
G1 X15.56Y76.805Z0F1200
G1 X15.547Y76.768Z0F1200
G1 X15.537Y76.718Z0F1200
G1 X15.526Y76.631Z0F1200
G1 X15.523Y76.527Z0F1200
G1 X15.529Y76.384Z0F1200
G1 X15.544Y76.249Z0F1200
G1 X15.639Y75.779Z0F1200
G1 X15.782Y75.293Z0F1200
G1 X16.276Y74.008Z0F1200
G1 X16.877Y72.624Z0F1200
G1 X17.194Y71.87Z0F1200
G1 X17.495Y71.075Z0F1200
G1 X17.758Y70.229Z0F1200
G1 X17.957Y69.296Z0F1200
G1 X18.014Y68.407Z0F1200
G1 X17.96Y67.566Z0F1200
G1 X17.796Y66.753Z0F1200
G1 X17.532Y65.993Z0F1200
G1 X17.183Y65.293Z0F1200
G1 X16.769Y64.667Z0F1200
G1 X16.312Y64.111Z0F1200
G1 X15.825Y63.62Z0F1200
G1 X15.322Y63.185Z0F1200
G1 X14.809Y62.794Z0F1200
G1 X14.293Y62.441Z0F1200
G1 X13.765Y62.11Z0F1200
G1 X12.771Y61.542Z0F1200
G1 X11.808Y61.023Z0F1200
G1 X10.912Y60.534Z0F1200
G1 X10.109Y60.055Z0F1200
G1 X9.794Y59.845Z0F1200
G1 X9.507Y59.633Z0F1200
G1 X9.274Y59.439Z0F1200
G1 X9.077Y59.25Z0F1200
G1 X8.938Y59.09Z0F1200
G1 X8.836Y58.949Z0F1200
G1 X8.771Y58.83Z0F1200
G1 X8.728Y58.726Z0F1200
G1 X8.7Y58.615Z0F1200
G1 X8.683Y58.479Z0F1200
G1 Y58.297Z0F1200
G1 X8.759Y57.706Z0F1200
G1 X8.739Y56.584Z0F1200
G1 X8.767Y55.681Z0F1200
G1 X8.841Y54.751Z0F1200
G1 X8.966Y53.804Z0F1200
G1 X9.144Y52.87Z0F1200
G1 X9.377Y51.957Z0F1200
G1 X9.661Y51.095Z0F1200
G1 X10.015Y50.252Z0F1200
G1 X10.19Y49.901Z0F1200
G1 X10.393Y49.537Z0F1200
G1 X10.605Y49.2Z0F1200
G1 X10.826Y48.886Z0F1200
G1 X11.063Y48.587Z0F1200
G1 X11.306Y48.317Z0F1200
G1 X11.557Y48.072Z0F1200
G1 X11.823Y47.845Z0F1200
G1 X12.103Y47.638Z0F1200
G1 X12.388Y47.458Z0F1200
G1 X12.697Y47.292Z0F1200
G1 X13.021Y47.15Z0F1200
G1 X13.373Y47.025Z0F1200
G1 X13.747Y46.923Z0F1200
G1 X14.147Y46.846Z0F1200
G1 X14.75Y46.774Z0F1200
G1 X15.424Y46.656Z0F1200
G1 X15.079Y46.766Z0F1200
G1 X14.331Y47.099Z0F1200
G1 X13.635Y47.503Z0F1200
G1 X12.998Y47.97Z0F1200
G1 X12.422Y48.489Z0F1200
G1 X11.908Y49.053Z0F1200
G1 X11.454Y49.655Z0F1200
G1 X11.062Y50.285Z0F1200
G1 X10.727Y50.938Z0F1200
G1 X10.449Y51.613Z0F1200
G1 X10.227Y52.303Z0F1200
G1 X10.059Y53.004Z0F1200
G1 X9.944Y53.716Z0F1200
G1 X9.884Y54.432Z0F1200
G1 X9.879Y55.154Z0F1200
G1 X9.93Y55.875Z0F1200
G1 X10.038Y56.594Z0F1200
G1 X10.207Y57.309Z0F1200
G1 X10.439Y58.012Z0F1200
G1 X10.736Y58.699Z0F1200
G1 X11.104Y59.367Z0F1200
G1 X11.543Y60.003Z0F1200
G1 X12.053Y60.6Z0F1200
G1 X12.636Y61.151Z0F1200
G1 X13.291Y61.642Z0F1200
G1 X14.008Y62.064Z0F1200
G1 X14.782Y62.41Z0F1200
G1 X15.604Y62.673Z0F1200
G1 X18.511Y63.272Z0F1200
G1 X19.595Y60.688Z0F1200
G1 X19.87Y60.125Z0F1200
G1 X20.214Y59.47Z0F1200
G1 X20.598Y58.759Z0F1200
G1 X21.017Y57.975Z0F1200
G1 X21.444Y57.136Z0F1200
G1 X21.858Y56.249Z0F1200
G1 X22.239Y55.309Z0F1200
G1 X22.561Y54.313Z0F1200
G1 X22.783Y53.295Z0F1200
G0 Z2.8F500
G0 X24.233Y45.531Z2.8F1500
G1 Z0F500
G1 X24.906Y45.793Z0F1200
G1 X25.19Y45.934Z0F1200
G1 X25.47Y46.097Z0F1200
G1 X25.74Y46.279Z0F1200
G1 X25.998Y46.481Z0F1200
G1 X26.241Y46.702Z0F1200
G1 X26.473Y46.944Z0F1200
G1 Y46.947Z0F1200
G1 X26.072Y48.791Z0F1200
G1 X25.406Y51.425Z0F1200
G1 X24.68Y54.024Z0F1200
G1 X23.891Y56.669Z0F1200
G1 X22.26Y61.943Z0F1200
G1 X20.699Y67.215Z0F1200
G1 X20.421Y68.095Z0F1200
G1 X20.177Y69.101Z0F1200
G1 X19.968Y70.13Z0F1200
G1 X19.775Y71.172Z0F1200
G1 X19.582Y72.204Z0F1200
G1 X19.374Y73.204Z0F1200
G1 X19.138Y74.16Z0F1200
G1 X18.86Y75.059Z0F1200
G1 X18.719Y75.434Z0F1200
G1 X18.557Y75.811Z0F1200
G1 X18.387Y76.15Z0F1200
G1 X18.214Y76.447Z0F1200
G1 X18.028Y76.717Z0F1200
G1 X17.847Y76.94Z0F1200
G1 X17.649Y77.14Z0F1200
G1 X17.452Y77.302Z0F1200
G1 X17.242Y77.439Z0F1200
G1 X17.014Y77.554Z0F1200
G1 X16.762Y77.646Z0F1200
G1 X16.47Y77.716Z0F1200
G1 X16.136Y77.759Z0F1200
G1 X15.746Y77.769Z0F1200
G1 X15.29Y77.74Z0F1200
G1 X15.167Y77.722Z0F1200
G1 X15.068Y77.635Z0F1200
G1 X14.939Y77.498Z0F1200
G1 X14.847Y77.375Z0F1200
G1 X14.776Y77.256Z0F1200
G1 X14.721Y77.136Z0F1200
G1 X14.678Y77.003Z0F1200
G1 X14.648Y76.867Z0F1200
G1 X14.628Y76.699Z0F1200
G1 X14.622Y76.523Z0F1200
G1 X14.632Y76.312Z0F1200
G1 X14.654Y76.113Z0F1200
G1 X14.764Y75.564Z0F1200
G1 X14.929Y75.004Z0F1200
G1 X15.441Y73.671Z0F1200
G1 X16.05Y72.271Z0F1200
G1 X16.358Y71.537Z0F1200
G1 X16.644Y70.781Z0F1200
G1 X16.886Y70.001Z0F1200
G1 X17.063Y69.173Z0F1200
G1 X17.112Y68.407Z0F1200
G1 X17.066Y67.684Z0F1200
G1 X16.926Y66.991Z0F1200
G1 X16.701Y66.343Z0F1200
G1 X16.402Y65.744Z0F1200
G1 X16.044Y65.202Z0F1200
G1 X15.643Y64.715Z0F1200
G1 X15.209Y64.278Z0F1200
G1 X14.754Y63.883Z0F1200
G1 X14.282Y63.524Z0F1200
G1 X13.8Y63.195Z0F1200
G1 X13.303Y62.883Z0F1200
G1 X12.334Y62.33Z0F1200
G1 X11.376Y61.813Z0F1200
G1 X10.461Y61.313Z0F1200
G1 X9.638Y60.822Z0F1200
G1 X9.274Y60.58Z0F1200
G1 X8.954Y60.343Z0F1200
G1 X8.667Y60.104Z0F1200
G1 X8.428Y59.874Z0F1200
G1 X8.231Y59.65Z0F1200
G1 X8.074Y59.43Z0F1200
G1 X7.958Y59.222Z0F1200
G1 X7.871Y59.006Z0F1200
G1 X7.814Y58.784Z0F1200
G1 X7.783Y58.53Z0F1200
G1 Y58.235Z0F1200
G1 X7.858Y57.657Z0F1200
G1 X7.839Y56.583Z0F1200
G1 X7.868Y55.632Z0F1200
G1 X7.946Y54.654Z0F1200
G1 X8.078Y53.655Z0F1200
G1 X8.265Y52.676Z0F1200
G1 X8.512Y51.708Z0F1200
G1 X8.819Y50.774Z0F1200
G1 X9.196Y49.877Z0F1200
G1 X9.396Y49.475Z0F1200
G1 X9.617Y49.081Z0F1200
G1 X9.851Y48.707Z0F1200
G1 X10.108Y48.342Z0F1200
G1 X10.375Y48.007Z0F1200
G1 X10.654Y47.696Z0F1200
G1 X10.949Y47.409Z0F1200
G1 X11.265Y47.138Z0F1200
G1 X11.593Y46.896Z0F1200
G1 X11.934Y46.68Z0F1200
G1 X12.304Y46.482Z0F1200
G1 X12.693Y46.311Z0F1200
G1 X13.104Y46.166Z0F1200
G1 X13.539Y46.047Z0F1200
G1 X14.011Y45.956Z0F1200
G1 X14.619Y45.883Z0F1200
G1 X15.553Y45.72Z0F1200
G1 X16.483Y45.563Z0F1200
G1 X17.396Y45.42Z0F1200
G1 X18.332Y45.294Z0F1200
G1 X19.253Y45.195Z0F1200
G1 X20.175Y45.13Z0F1200
G1 X21.07Y45.106Z0F1200
G1 X21.928Y45.129Z0F1200
G1 X22.757Y45.207Z0F1200
G1 X23.521Y45.339Z0F1200
G1 X24.233Y45.531Z0F1200
G0 Z2.8F500
G0 X26.868Y46.055Z2.8F1500
G1 Z0F500
G1 X27.149Y46.349Z0F1200
G1 X27.41Y46.666Z0F1200
G1 X27.446Y46.718Z0F1200
G1 X26.946Y49.007Z0F1200
G1 X26.276Y51.656Z0F1200
G1 X25.542Y54.281Z0F1200
G1 X24.756Y56.918Z0F1200
G1 X23.121Y62.204Z0F1200
G1 X21.558Y67.487Z0F1200
G1 X21.289Y68.337Z0F1200
G1 X21.056Y69.296Z0F1200
G1 X20.852Y70.301Z0F1200
G1 X20.661Y71.335Z0F1200
G1 X20.466Y72.37Z0F1200
G1 X20.249Y73.418Z0F1200
G1 X20.006Y74.398Z0F1200
G1 X19.713Y75.345Z0F1200
G1 X19.55Y75.78Z0F1200
G1 X19.373Y76.191Z0F1200
G1 X19.181Y76.577Z0F1200
G1 X18.974Y76.932Z0F1200
G1 X18.754Y77.252Z0F1200
G1 X18.511Y77.548Z0F1200
G1 X18.261Y77.801Z0F1200
G1 X17.984Y78.029Z0F1200
G1 X17.692Y78.221Z0F1200
G1 X17.371Y78.382Z0F1200
G1 X17.023Y78.508Z0F1200
G1 X16.634Y78.602Z0F1200
G1 X16.208Y78.657Z0F1200
G1 X15.723Y78.67Z0F1200
G1 X15.2Y78.636Z0F1200
G1 X14.801Y78.577Z0F1200
G1 X14.674Y78.485Z0F1200
G1 X14.439Y78.28Z0F1200
G1 X14.251Y78.08Z0F1200
G1 X14.098Y77.877Z0F1200
G1 X13.978Y77.675Z0F1200
G1 X13.881Y77.461Z0F1200
G1 X13.809Y77.241Z0F1200
G1 X13.759Y77.015Z0F1200
G1 X13.73Y76.773Z0F1200
G1 X13.721Y76.514Z0F1200
G1 X13.733Y76.25Z0F1200
G1 X13.765Y75.966Z0F1200
G1 X13.889Y75.351Z0F1200
G1 X14.076Y74.715Z0F1200
G1 X14.609Y73.328Z0F1200
G1 X15.222Y71.917Z0F1200
G1 X15.521Y71.203Z0F1200
G1 X15.792Y70.488Z0F1200
G1 X16.015Y69.773Z0F1200
G1 X16.169Y69.049Z0F1200
G1 X16.21Y68.406Z0F1200
G1 X16.171Y67.802Z0F1200
G1 X16.056Y67.229Z0F1200
G1 X15.87Y66.693Z0F1200
G1 X15.621Y66.195Z0F1200
G1 X15.319Y65.738Z0F1200
G1 X14.975Y65.319Z0F1200
G1 X14.595Y64.936Z0F1200
G1 X14.187Y64.583Z0F1200
G1 X13.755Y64.254Z0F1200
G1 X13.307Y63.948Z0F1200
G1 X12.84Y63.655Z0F1200
G1 X11.898Y63.116Z0F1200
G1 X10.94Y62.601Z0F1200
G1 X10.022Y62.099Z0F1200
G1 X9.145Y61.575Z0F1200
G1 X8.76Y61.318Z0F1200
G1 X8.399Y61.053Z0F1200
G1 X8.07Y60.779Z0F1200
G1 X7.773Y60.493Z0F1200
G1 X7.523Y60.208Z0F1200
G1 X7.314Y59.915Z0F1200
G1 X7.144Y59.609Z0F1200
G1 X7.015Y59.29Z0F1200
G1 X6.927Y58.951Z0F1200
G1 X6.882Y58.584Z0F1200
G1 X6.885Y58.177Z0F1200
G1 X6.957Y57.608Z0F1200
G1 X6.938Y56.569Z0F1200
G1 X6.969Y55.582Z0F1200
G1 X7.05Y54.559Z0F1200
G1 X7.188Y53.523Z0F1200
G1 X7.387Y52.477Z0F1200
G1 X7.649Y51.45Z0F1200
G1 X7.974Y50.465Z0F1200
G1 X8.378Y49.501Z0F1200
G1 X8.599Y49.058Z0F1200
G1 X8.845Y48.618Z0F1200
G1 X9.107Y48.2Z0F1200
G1 X9.383Y47.808Z0F1200
G1 X9.687Y47.426Z0F1200
G1 X10.007Y47.07Z0F1200
G1 X10.344Y46.741Z0F1200
G1 X10.7Y46.437Z0F1200
G1 X11.084Y46.153Z0F1200
G1 X11.485Y45.899Z0F1200
G1 X11.905Y45.674Z0F1200
G1 X12.356Y45.476Z0F1200
G1 X12.835Y45.306Z0F1200
G1 X13.341Y45.168Z0F1200
G1 X13.867Y45.067Z0F1200
G1 X14.488Y44.992Z0F1200
G1 X15.408Y44.832Z0F1200
G1 X16.322Y44.677Z0F1200
G1 X17.26Y44.531Z0F1200
G1 X18.223Y44.401Z0F1200
G1 X19.177Y44.299Z0F1200
G1 X20.131Y44.231Z0F1200
G1 X21.07Y44.206Z0F1200
G1 X21.992Y44.231Z0F1200
G1 X22.87Y44.313Z0F1200
G1 X23.714Y44.459Z0F1200
G1 X24.515Y44.675Z0F1200
G1 X25.274Y44.971Z0F1200
G1 X25.61Y45.138Z0F1200
G1 X25.95Y45.335Z0F1200
G1 X26.275Y45.555Z0F1200
G1 X26.578Y45.792Z0F1200
G1 X26.868Y46.055Z0F1200
G0 Z2.8F500
G0 X28.41Y46.522Z2.8F1500
G1 Z0F500
G1 X27.823Y49.212Z0F1200
G1 X27.147Y51.882Z0F1200
G1 X26.405Y54.539Z0F1200
G1 X25.616Y57.184Z0F1200
G1 X23.982Y62.464Z0F1200
G1 X22.416Y67.758Z0F1200
G1 X22.156Y68.579Z0F1200
G1 X21.934Y69.492Z0F1200
G1 X21.735Y70.473Z0F1200
G1 X21.545Y71.5Z0F1200
G1 X21.348Y72.553Z0F1200
G1 X21.128Y73.608Z0F1200
G1 X20.873Y74.644Z0F1200
G1 X20.565Y75.638Z0F1200
G1 X20.387Y76.113Z0F1200
G1 X20.19Y76.568Z0F1200
G1 X19.974Y77.003Z0F1200
G1 X19.735Y77.413Z0F1200
G1 X19.472Y77.796Z0F1200
G1 X19.183Y78.149Z0F1200
G1 X18.866Y78.47Z0F1200
G1 X18.519Y78.755Z0F1200
G1 X18.141Y79.002Z0F1200
G1 X17.729Y79.209Z0F1200
G1 X17.282Y79.372Z0F1200
G1 X16.798Y79.488Z0F1200
G1 X16.275Y79.556Z0F1200
G1 X15.71Y79.571Z0F1200
G1 X15.104Y79.532Z0F1200
G1 X14.452Y79.435Z0F1200
G1 X14.111Y79.188Z0F1200
G1 X13.815Y78.93Z0F1200
G1 X13.562Y78.661Z0F1200
G1 X13.35Y78.38Z0F1200
G1 X13.178Y78.089Z0F1200
G1 X13.042Y77.79Z0F1200
G1 X12.94Y77.481Z0F1200
G1 X12.871Y77.165Z0F1200
G1 X12.832Y76.841Z0F1200
G1 X12.821Y76.51Z0F1200
G1 X12.836Y76.173Z0F1200
G1 X12.875Y75.832Z0F1200
G1 X13.014Y75.135Z0F1200
G1 X13.223Y74.425Z0F1200
G1 X13.775Y72.988Z0F1200
G1 X14.395Y71.563Z0F1200
G1 X14.686Y70.87Z0F1200
G1 X14.941Y70.195Z0F1200
G1 X15.143Y69.545Z0F1200
G1 X15.275Y68.926Z0F1200
G1 X15.309Y68.406Z0F1200
G1 X15.277Y67.92Z0F1200
G1 X15.186Y67.467Z0F1200
G1 X15.039Y67.043Z0F1200
G1 X14.84Y66.646Z0F1200
G1 X14.594Y66.273Z0F1200
G1 X14.306Y65.923Z0F1200
G1 X13.979Y65.594Z0F1200
G1 X13.619Y65.281Z0F1200
G1 X13.229Y64.984Z0F1200
G1 X12.813Y64.701Z0F1200
G1 X12.377Y64.427Z0F1200
G1 X11.461Y63.903Z0F1200
G1 X10.514Y63.393Z0F1200
G1 X9.571Y62.878Z0F1200
G1 X8.669Y62.34Z0F1200
G1 X8.244Y62.056Z0F1200
G1 X7.841Y61.759Z0F1200
G1 X7.467Y61.447Z0F1200
G1 X7.124Y61.117Z0F1200
G1 X6.817Y60.768Z0F1200
G1 X6.551Y60.395Z0F1200
G1 X6.331Y59.998Z0F1200
G1 X6.159Y59.574Z0F1200
G1 X6.042Y59.121Z0F1200
G1 X5.982Y58.635Z0F1200
G1 X5.985Y58.115Z0F1200
G1 X6.056Y57.56Z0F1200
G1 X6.038Y56.569Z0F1200
G1 X6.07Y55.532Z0F1200
G1 X6.155Y54.463Z0F1200
G1 X6.299Y53.375Z0F1200
G1 X6.507Y52.283Z0F1200
G1 X6.783Y51.202Z0F1200
G1 X7.132Y50.145Z0F1200
G1 X7.559Y49.126Z0F1200
G1 X7.803Y48.637Z0F1200
G1 X8.068Y48.162Z0F1200
G1 X8.356Y47.704Z0F1200
G1 X8.666Y47.265Z0F1200
G1 X8.999Y46.846Z0F1200
G1 X9.355Y46.449Z0F1200
G1 X9.736Y46.077Z0F1200
G1 X10.142Y45.73Z0F1200
G1 X10.573Y45.411Z0F1200
G1 X11.031Y45.122Z0F1200
G1 X11.515Y44.863Z0F1200
G1 X12.026Y44.638Z0F1200
G1 X12.565Y44.447Z0F1200
G1 X13.133Y44.292Z0F1200
G1 X13.73Y44.177Z0F1200
G1 X14.357Y44.102Z0F1200
G1 X15.253Y43.945Z0F1200
G1 X16.184Y43.788Z0F1200
G1 X17.14Y43.639Z0F1200
G1 X18.114Y43.507Z0F1200
G1 X19.1Y43.402Z0F1200
G1 X20.087Y43.332Z0F1200
G1 X21.07Y43.305Z0F1200
G1 X22.04Y43.332Z0F1200
G1 X22.99Y43.42Z0F1200
G1 X23.911Y43.58Z0F1200
G1 X24.796Y43.818Z0F1200
G1 X25.638Y44.146Z0F1200
G1 X26.04Y44.346Z0F1200
G1 X26.428Y44.571Z0F1200
G1 X26.801Y44.824Z0F1200
G1 X27.158Y45.104Z0F1200
G1 X27.499Y45.412Z0F1200
G1 X27.822Y45.75Z0F1200
G1 X28.126Y46.121Z0F1200
G1 X28.41Y46.522Z0F1200
G0 Z2.8F500
G0 X118.325Y66.574Z2.8F1500
G1 Z0F500
G1 X118.257Y66.89Z0F1200
G1 X118.033Y67.724Z0F1200
G1 X117.933Y68.029Z0F1200
G1 X118.02Y67.478Z0F1200
G1 X118.164Y66.871Z0F1200
G1 X118.219Y66.703Z0F1200
G1 X118.282Y66.548Z0F1200
G1 X118.341Y66.43Z0F1200
G1 X118.352Y66.412Z0F1200
G1 X118.325Y66.574Z0F1200
G0 Z2.8F500
G0 X117.867Y70.825Z2.8F1500
G1 Z0F500
G1 X117.477Y71.808Z0F1200
G1 X117.109Y72.757Z0F1200
G1 X116.933Y73.239Z0F1200
G1 X116.771Y73.712Z0F1200
G1 X116.623Y74.183Z0F1200
G1 X116.52Y74.562Z0F1200
G1 X116.381Y75.034Z0F1200
G1 X116.241Y75.417Z0F1200
G1 X116.068Y75.81Z0F1200
G1 X115.876Y76.182Z0F1200
G1 X115.657Y76.552Z0F1200
G1 X115.413Y76.913Z0F1200
G1 X115.148Y77.261Z0F1200
G1 X114.856Y77.605Z0F1200
G1 X114.548Y77.93Z0F1200
G1 X114.206Y78.256Z0F1200
G1 X113.856Y78.557Z0F1200
G1 X113.479Y78.852Z0F1200
G1 X113.085Y79.13Z0F1200
G1 X112.668Y79.397Z0F1200
G1 X112.24Y79.646Z0F1200
G1 X111.787Y79.882Z0F1200
G1 X111.338Y80.093Z0F1200
G1 X110.855Y80.294Z0F1200
G1 X110.371Y80.474Z0F1200
G1 X109.88Y80.632Z0F1200
G1 X109.376Y80.772Z0F1200
G1 X108.87Y80.891Z0F1200
G1 X108.348Y80.991Z0F1200
G1 X107.841Y81.067Z0F1200
G1 X107.305Y81.124Z0F1200
G1 X106.787Y81.157Z0F1200
G1 X106.27Y81.168Z0F1200
G1 X105.758Y81.157Z0F1200
G1 X105.227Y81.122Z0F1200
G1 X104.731Y81.066Z0F1200
G1 X104.293Y80.997Z0F1200
G1 X104.102Y79.754Z0F1200
G1 X104.723Y79.974Z0F1200
G1 X105.417Y80.162Z0F1200
G1 X106.127Y80.3Z0F1200
G1 X106.85Y80.385Z0F1200
G1 X107.581Y80.414Z0F1200
G1 X108.322Y80.386Z0F1200
G1 X109.066Y80.294Z0F1200
G1 X109.808Y80.138Z0F1200
G1 X110.545Y79.911Z0F1200
G1 X111.271Y79.609Z0F1200
G1 X111.974Y79.228Z0F1200
G1 X112.647Y78.767Z0F1200
G1 X113.278Y78.224Z0F1200
G1 X113.858Y77.603Z0F1200
G1 X114.375Y76.905Z0F1200
G1 X114.632Y76.463Z0F1200
G1 X114.866Y76.184Z0F1200
G1 X115.266Y75.601Z0F1200
G1 X115.602Y75.004Z0F1200
G1 X115.878Y74.403Z0F1200
G1 X116.104Y73.804Z0F1200
G1 X116.287Y73.21Z0F1200
G1 X116.432Y72.627Z0F1200
G1 X116.557Y72.008Z0F1200
G1 X116.823Y69.953Z0F1200
G1 X117.018Y68.058Z0F1200
G1 X117.137Y67.296Z0F1200
G1 X117.296Y66.628Z0F1200
G1 X117.373Y66.395Z0F1200
G1 X117.461Y66.177Z0F1200
G1 X117.553Y65.993Z0F1200
G1 X117.646Y65.843Z0F1200
G1 X117.745Y65.712Z0F1200
G1 X117.847Y65.604Z0F1200
G1 X117.967Y65.501Z0F1200
G1 X118.116Y65.399Z0F1200
G1 X118.309Y65.295Z0F1200
G1 X118.562Y65.19Z0F1200
G1 X118.843Y65.103Z0F1200
G1 X119.014Y65.15Z0F1200
G1 X119.162Y65.209Z0F1200
G1 X119.231Y65.249Z0F1200
G1 X119.248Y65.261Z0F1200
G1 Y65.265Z0F1200
G1 X119.268Y65.316Z0F1200
G1 X119.291Y65.42Z0F1200
G1 X119.311Y65.586Z0F1200
G1 X119.316Y65.799Z0F1200
G1 X119.303Y66.07Z0F1200
G1 X119.269Y66.385Z0F1200
G1 X119.208Y66.746Z0F1200
G1 X119.133Y67.1Z0F1200
G1 X118.896Y67.984Z0F1200
G1 X118.597Y68.895Z0F1200
G1 X118.248Y69.849Z0F1200
G1 X117.867Y70.825Z0F1200
G0 Z2.8F500
G0 X115.528Y78.204Z2.8F1500
G1 Z0F500
G1 X115.177Y78.575Z0F1200
G1 X114.818Y78.916Z0F1200
G1 X114.425Y79.255Z0F1200
G1 X114.016Y79.575Z0F1200
G1 X113.589Y79.876Z0F1200
G1 X113.138Y80.165Z0F1200
G1 X112.667Y80.438Z0F1200
G1 X112.193Y80.686Z0F1200
G1 X111.697Y80.918Z0F1200
G1 X111.185Y81.132Z0F1200
G1 X110.669Y81.323Z0F1200
G1 X110.142Y81.494Z0F1200
G1 X109.604Y81.643Z0F1200
G1 X109.057Y81.771Z0F1200
G1 X108.495Y81.879Z0F1200
G1 X107.953Y81.96Z0F1200
G1 X107.388Y82.02Z0F1200
G1 X106.831Y82.056Z0F1200
G1 X106.258Y82.068Z0F1200
G1 X105.711Y82.056Z0F1200
G1 X105.164Y82.02Z0F1200
G1 X104.605Y81.958Z0F1200
G1 X104.054Y81.87Z0F1200
G1 X103.499Y81.755Z0F1200
G1 X102.945Y78.157Z0F1200
G1 X103.212Y78.329Z0F1200
G1 X103.783Y78.635Z0F1200
G1 X104.376Y78.897Z0F1200
G1 X104.991Y79.114Z0F1200
G1 X105.621Y79.285Z0F1200
G1 X106.265Y79.41Z0F1200
G1 X106.92Y79.487Z0F1200
G1 X107.582Y79.513Z0F1200
G1 X108.25Y79.488Z0F1200
G1 X108.918Y79.406Z0F1200
G1 X109.583Y79.266Z0F1200
G1 X110.239Y79.063Z0F1200
G1 X110.882Y78.795Z0F1200
G1 X111.504Y78.459Z0F1200
G1 X112.098Y78.052Z0F1200
G1 X112.654Y77.574Z0F1200
G1 X113.165Y77.026Z0F1200
G1 X113.622Y76.409Z0F1200
G1 X113.893Y75.944Z0F1200
G1 X114.148Y75.639Z0F1200
G1 X114.501Y75.125Z0F1200
G1 X114.799Y74.595Z0F1200
G1 X115.047Y74.056Z0F1200
G1 X115.252Y73.513Z0F1200
G1 X115.419Y72.969Z0F1200
G1 X115.554Y72.428Z0F1200
G1 X115.669Y71.861Z0F1200
G1 X115.929Y69.849Z0F1200
G1 X116.126Y67.938Z0F1200
G1 X116.253Y67.125Z0F1200
G1 X116.43Y66.38Z0F1200
G1 X116.524Y66.093Z0F1200
G1 X116.64Y65.806Z0F1200
G1 X116.768Y65.552Z0F1200
G1 X116.903Y65.333Z0F1200
G1 X117.057Y65.13Z0F1200
G1 X117.227Y64.95Z0F1200
G1 X117.417Y64.788Z0F1200
G1 X117.649Y64.628Z0F1200
G1 X117.927Y64.479Z0F1200
G1 X118.251Y64.345Z0F1200
G1 X118.647Y64.222Z0F1200
G1 X118.831Y64.181Z0F1200
G1 X118.977Y64.206Z0F1200
G1 X119.303Y64.296Z0F1200
G1 X119.55Y64.396Z0F1200
G1 X119.729Y64.496Z0F1200
G1 X119.856Y64.593Z0F1200
G1 X119.943Y64.684Z0F1200
G1 X120.016Y64.787Z0F1200
G1 X120.078Y64.908Z0F1200
G1 X120.133Y65.065Z0F1200
G1 X120.18Y65.274Z0F1200
G1 X120.209Y65.518Z0F1200
G1 X120.217Y65.811Z0F1200
G1 X120.201Y66.142Z0F1200
G1 X120.161Y66.506Z0F1200
G1 X120.094Y66.908Z0F1200
G1 X120.007Y67.316Z0F1200
G1 X119.757Y68.244Z0F1200
G1 X119.45Y69.184Z0F1200
G1 X119.087Y70.172Z0F1200
G1 X118.703Y71.157Z0F1200
G1 X118.315Y72.136Z0F1200
G1 X117.951Y73.075Z0F1200
G1 X117.781Y73.54Z0F1200
G1 X117.626Y73.992Z0F1200
G1 X117.487Y74.436Z0F1200
G1 X117.382Y74.819Z0F1200
G1 X117.24Y75.305Z0F1200
G1 X117.074Y75.758Z0F1200
G1 X116.881Y76.197Z0F1200
G1 X116.662Y76.622Z0F1200
G1 X116.419Y77.031Z0F1200
G1 X116.146Y77.438Z0F1200
G1 X115.851Y77.824Z0F1200
G1 X115.528Y78.204Z0F1200
G0 Z2.8F500
G0 X84.319Y62.506Z2.8F1500
G1 Z0F500
G1 X84.413Y62.145Z0F1200
G1 X84.622Y61.504Z0F1200
G1 X84.628Y61.488Z0F1200
G1 X84.806Y61.574Z0F1200
G1 X84.582Y61.94Z0F1200
G1 X84.319Y62.506Z0F1200
G0 Z2.8F500
G0 X83.07Y64.127Z2.8F1500
G1 Z0F500
G1 X83.184Y63.467Z0F1200
G1 X83.349Y62.664Z0F1200
G1 X83.548Y61.892Z0F1200
G1 X83.778Y61.19Z0F1200
G1 X84.065Y60.498Z0F1200
G1 X84.207Y60.214Z0F1200
G1 X84.212Y60.205Z0F1200
G1 X84.587Y60.469Z0F1200
G1 X86.152Y61.224Z0F1200
G1 X85.807Y61.661Z0F1200
G1 X85.376Y62.366Z0F1200
G1 X85.037Y63.097Z0F1200
G1 X84.781Y63.846Z0F1200
G1 X84.667Y64.338Z0F1200
G1 X83.07Y64.127Z0F1200
G0 Z2.8F500
G0 X82.145Y64.201Z2.8F1500
G1 Z0F500
G1 X82.301Y63.29Z0F1200
G1 X82.474Y62.452Z0F1200
G1 X82.682Y61.646Z0F1200
G1 X82.937Y60.869Z0F1200
G1 X83.245Y60.126Z0F1200
G1 X83.412Y59.792Z0F1200
G1 X83.601Y59.454Z0F1200
G1 X83.812Y59.117Z0F1200
G1 X84.041Y58.792Z0F1200
G1 X84.129Y58.682Z0F1200
G1 X84.138Y58.763Z0F1200
G1 X84.65Y59.413Z0F1200
G1 X85.045Y59.69Z0F1200
G1 X86.286Y60.289Z0F1200
G1 X87.385Y59.424Z0F1200
G1 X87.65Y59.114Z0F1200
G1 X87.691Y59.252Z0F1200
G1 X87.737Y59.479Z0F1200
G1 X87.762Y59.712Z0F1200
G1 Y59.938Z0F1200
G1 X87.743Y60.17Z0F1200
G1 X87.699Y60.4Z0F1200
G1 X87.63Y60.628Z0F1200
G1 X87.532Y60.86Z0F1200
G1 X87.402Y61.095Z0F1200
G1 X87.24Y61.329Z0F1200
G1 X86.953Y61.664Z0F1200
G1 X86.546Y62.177Z0F1200
G1 X86.171Y62.791Z0F1200
G1 X85.874Y63.433Z0F1200
G1 X85.647Y64.095Z0F1200
G1 X85.49Y64.769Z0F1200
G1 X85.393Y65.45Z0F1200
G1 X85.354Y66.135Z0F1200
G1 Y66.191Z0F1200
G1 X85.068Y65.299Z0F1200
G1 X83.072Y65.035Z0F1200
G1 X82.235Y65.814Z0F1200
G1 X82.003Y66.194Z0F1200
G1 X81.877Y66.478Z0F1200
G1 X81.786Y66.746Z0F1200
G1 X81.714Y67.017Z0F1200
G1 X82.145Y64.201Z0F1200
G0 Z2.8F500
G0 X99.25Y71.63Z2.8F1500
G1 Z0F500
G1 X99.186Y71.886Z0F1200
G1 X99.082Y72.733Z0F1200
G1 X99.087Y73.574Z0F1200
G1 X99.149Y74.023Z0F1200
G1 X98.795Y74.074Z0F1200
G1 X97.187Y75.125Z0F1200
G1 X96.981Y76.564Z0F1200
G1 X96.31Y76.51Z0F1200
G1 X94.793Y76.36Z0F1200
G1 X94.071Y76.278Z0F1200
G1 X94.354Y76.227Z0F1200
G1 X95.203Y75.955Z0F1200
G1 X96.023Y75.572Z0F1200
G1 X96.806Y75.089Z0F1200
G1 X97.854Y74.279Z0F1200
G1 X98.65Y72.948Z0F1200
G1 X99.144Y71.91Z0F1200
G1 X99.25Y71.63Z0F1200
G0 Z2.8F500
G0 X89.843Y75.717Z2.8F1500
G1 Z0F500
G1 X88.286Y75.47Z0F1200
G1 X86.754Y75.201Z0F1200
G1 X86.84Y74.87Z0F1200
G1 X86.583Y73.359Z0F1200
G1 X85.222Y72.053Z0F1200
G1 X83.617Y71.905Z0F1200
G1 X82.582Y72.228Z0F1200
G1 X82.373Y72.367Z0F1200
G1 X82.05Y71.631Z0F1200
G1 X81.466Y71.396Z0F1200
G1 X81.478Y71.371Z0F1200
G1 X81.796Y70.496Z0F1200
G1 X85.017Y71.251Z0F1200
G1 X85.31Y70.524Z0F1200
G1 X85.583Y71.15Z0F1200
G1 X85.92Y71.807Z0F1200
G1 X86.299Y72.44Z0F1200
G1 X86.719Y73.049Z0F1200
G1 X87.183Y73.628Z0F1200
G1 X87.691Y74.175Z0F1200
G1 X88.248Y74.683Z0F1200
G1 X88.853Y75.146Z0F1200
G1 X89.51Y75.555Z0F1200
G1 X89.843Y75.717Z0F1200
G0 Z2.8F500
G0 X99.784Y70.085Z2.8F1500
G1 Z0F500
G1 X99.863Y69.831Z0F1200
G1 X100.336Y67.894Z0F1200
G1 X100.732Y66.021Z0F1200
G1 X100.92Y65.185Z0F1200
G1 X101.12Y64.407Z0F1200
G1 X101.342Y63.679Z0F1200
G1 X101.587Y63.029Z0F1200
G1 X101.86Y62.452Z0F1200
G1 X102.121Y62.017Z0F1200
G1 X102.183Y62.041Z0F1200
G1 X102.286Y62.095Z0F1200
G1 X102.339Y62.132Z0F1200
G1 X102.354Y62.146Z0F1200
G1 X102.361Y62.154Z0F1200
G1 X102.367Y62.165Z0F1200
G1 X102.383Y62.202Z0F1200
G1 X102.405Y62.277Z0F1200
G1 X102.428Y62.401Z0F1200
G1 X102.442Y62.566Z0F1200
G1 Y62.794Z0F1200
G1 X102.426Y63.048Z0F1200
G1 X102.391Y63.319Z0F1200
G1 X102.243Y64.039Z0F1200
G1 X102.021Y64.811Z0F1200
G1 X101.731Y65.644Z0F1200
G1 X101.399Y66.484Z0F1200
G1 X101.035Y67.338Z0F1200
G1 X100.666Y68.166Z0F1200
G1 X100.304Y68.973Z0F1200
G1 X100.025Y69.615Z0F1200
G1 X99.784Y70.085Z0F1200
G0 Z2.8F500
G0 X97.856Y72.522Z2.8F1500
G1 Z0F500
G1 X98.315Y71.556Z0F1200
G1 X98.688Y70.58Z0F1200
G1 X98.996Y69.59Z0F1200
G1 X99.459Y67.694Z0F1200
G1 X99.846Y65.86Z0F1200
G1 X100.047Y64.969Z0F1200
G1 X100.254Y64.16Z0F1200
G1 X100.49Y63.388Z0F1200
G1 X100.758Y62.675Z0F1200
G1 X101.061Y62.036Z0F1200
G1 X101.428Y61.423Z0F1200
G1 X101.611Y61.17Z0F1200
G1 X101.759Y60.99Z0F1200
G1 X101.936Y61.021Z0F1200
G1 X102.281Y61.114Z0F1200
G1 X102.554Y61.219Z0F1200
G1 X102.76Y61.327Z0F1200
G1 X102.905Y61.43Z0F1200
G1 X103.016Y61.532Z0F1200
G1 X103.099Y61.635Z0F1200
G1 X103.169Y61.753Z0F1200
G1 X103.231Y61.896Z0F1200
G1 X103.281Y62.065Z0F1200
G1 X103.321Y62.281Z0F1200
G1 X103.342Y62.534Z0F1200
G1 Y62.816Z0F1200
G1 X103.322Y63.136Z0F1200
G1 X103.279Y63.466Z0F1200
G1 X103.117Y64.255Z0F1200
G1 X102.877Y65.092Z0F1200
G1 X102.58Y65.943Z0F1200
G1 X102.232Y66.824Z0F1200
G1 X101.861Y67.694Z0F1200
G1 X101.487Y68.534Z0F1200
G1 X101.127Y69.336Z0F1200
G1 X100.837Y70.006Z0F1200
G1 X100.537Y70.589Z0F1200
G1 X100.259Y71.317Z0F1200
G1 X100.073Y72.052Z0F1200
G1 X99.982Y72.786Z0F1200
G1 X99.986Y73.51Z0F1200
G1 X100.083Y74.213Z0F1200
G1 X100.263Y74.871Z0F1200
G1 X99.894Y74.825Z0F1200
G1 X99.121Y74.937Z0F1200
G1 X98.02Y75.656Z0F1200
G1 X97.814Y77.094Z0F1200
G1 X98.065Y77.556Z0F1200
G1 X96.255Y77.409Z0F1200
G1 X94.698Y77.255Z0F1200
G1 X93.084Y77.071Z0F1200
G1 X91.465Y76.862Z0F1200
G1 X89.795Y76.621Z0F1200
G1 X88.112Y76.353Z0F1200
G1 X86.492Y76.069Z0F1200
G1 X85.539Y75.886Z0F1200
G1 X85.745Y75.502Z0F1200
G1 X85.921Y74.83Z0F1200
G1 X85.745Y73.803Z0F1200
G1 X84.826Y72.92Z0F1200
G1 X83.713Y72.818Z0F1200
G1 X82.973Y73.049Z0F1200
G1 X82.187Y73.57Z0F1200
G1 X81.525Y75.127Z0F1200
G1 X82.486Y76.367Z0F1200
G1 X82.633Y76.431Z0F1200
G1 X82.534Y76.46Z0F1200
G1 X82.307Y76.508Z0F1200
G1 X82.073Y76.536Z0F1200
G1 X81.851Y76.544Z0F1200
G1 X81.642Y76.534Z0F1200
G1 X81.433Y76.507Z0F1200
G1 X81.228Y76.462Z0F1200
G1 X81.032Y76.403Z0F1200
G1 X80.85Y76.331Z0F1200
G1 X80.661Y76.238Z0F1200
G1 X80.49Y76.137Z0F1200
G1 X80.326Y76.021Z0F1200
G1 X80.171Y75.893Z0F1200
G1 X80.104Y75.828Z0F1200
G1 X80.964Y75.357Z0F1200
G1 X81.471Y74.937Z0F1200
G1 X82.014Y73.79Z0F1200
G1 X81.374Y72.33Z0F1200
G1 X80.311Y71.902Z0F1200
G1 X80.244Y71.898Z0F1200
G1 X80.645Y71.028Z0F1200
G1 X81.015Y70.01Z0F1200
G1 X81.31Y68.979Z0F1200
G1 X81.696Y67.106Z0F1200
G1 X81.652Y67.331Z0F1200
G1 X81.608Y67.657Z0F1200
G1 X81.467Y69.495Z0F1200
G1 X84.471Y70.199Z0F1200
G1 X85.181Y68.44Z0F1200
G1 X85.297Y68.121Z0F1200
G1 X85.39Y67.823Z0F1200
G1 X85.447Y67.592Z0F1200
G1 X85.541Y68.174Z0F1200
G1 X85.694Y68.841Z0F1200
G1 X85.889Y69.497Z0F1200
G1 X86.124Y70.138Z0F1200
G1 X86.396Y70.764Z0F1200
G1 X86.708Y71.37Z0F1200
G1 X87.056Y71.954Z0F1200
G1 X87.441Y72.512Z0F1200
G1 X87.865Y73.04Z0F1200
G1 X88.325Y73.535Z0F1200
G1 X88.826Y73.992Z0F1200
G1 X89.365Y74.404Z0F1200
G1 X89.946Y74.767Z0F1200
G1 X90.569Y75.069Z0F1200
G1 X91.23Y75.303Z0F1200
G1 X91.927Y75.456Z0F1200
G1 X92.651Y75.52Z0F1200
G1 X93.391Y75.487Z0F1200
G1 X94.136Y75.352Z0F1200
G1 X94.874Y75.115Z0F1200
G1 X95.595Y74.779Z0F1200
G1 X96.293Y74.349Z0F1200
G1 X97.169Y73.671Z0F1200
G1 X97.856Y72.522Z0F1200
G0 Z2.8F500
G0 X100.648Y77.526Z2.8F1500
G1 Z0F500
G1 X100.55Y77.529Z0F1200
G1 X100.469Y77.573Z0F1200
G1 X100.411Y77.653Z0F1200
G1 X100.382Y77.762Z0F1200
G1 X100.39Y77.895Z0F1200
G1 X100.441Y78.045Z0F1200
G1 X100.542Y78.207Z0F1200
G1 X100.699Y78.375Z0F1200
G1 X100.919Y78.543Z0F1200
G1 X101.208Y78.705Z0F1200
G1 X101.152Y78.337Z0F1200
G1 X101.071Y78.045Z0F1200
G1 X100.974Y77.824Z0F1200
G1 X100.867Y77.668Z0F1200
G1 X100.756Y77.571Z0F1200
G1 X100.648Y77.526Z0F1200
G0 Z2.8F500
G0 X99.892Y76.935Z2.8F1500
G1 Z0F500
G1 X100.017Y76.864Z0F1200
G1 X100.093Y76.804Z0F1200
G1 X100.127Y76.753Z0F1200
G1 Y76.712Z0F1200
G1 X100.047Y76.658Z0F1200
G1 X99.911Y76.641Z0F1200
G1 X99.772Y76.661Z0F1200
G1 X99.687Y76.717Z0F1200
G1 X99.681Y76.758Z0F1200
G1 X99.708Y76.809Z0F1200
G1 X99.776Y76.867Z0F1200
G1 X99.892Y76.935Z0F1200
G0 Z2.8F500
G0 X102.033Y78.148Z2.8F1500
G1 Z0F500
G1 X101.921Y77.742Z0F1200
G1 X101.764Y77.384Z0F1200
G1 X101.544Y77.065Z0F1200
G1 X101.237Y76.795Z0F1200
G1 X101.026Y76.709Z0F1200
G1 X101.021Y76.231Z0F1200
G1 X100.374Y75.792Z0F1200
G1 X99.903Y75.733Z0F1200
G1 X99.447Y75.799Z0F1200
G1 X98.853Y76.187Z0F1200
G1 X98.748Y76.926Z0F1200
G1 X98.997Y77.384Z0F1200
G1 X99.253Y77.604Z0F1200
G1 X99.479Y77.736Z0F1200
G1 X99.499Y78.069Z0F1200
G1 X99.623Y78.433Z0F1200
G1 X99.824Y78.756Z0F1200
G1 X100.092Y79.044Z0F1200
G1 X100.424Y79.297Z0F1200
G1 X102.378Y80.392Z0F1200
G1 X102.033Y78.148Z0F1200
G0 Z2.8F500
G0 X84.071Y74.69Z2.8F1500
G1 Z0F500
G1 X84.034Y74.655Z0F1200
G1 X83.906Y74.643Z0F1200
G1 X83.754Y74.69Z0F1200
G1 X83.632Y74.771Z0F1200
G1 X83.595Y74.86Z0F1200
G1 X83.625Y74.899Z0F1200
G1 X83.697Y74.93Z0F1200
G1 X83.818Y74.951Z0F1200
G1 X83.994Y74.957Z0F1200
G1 X84.058Y74.838Z0F1200
G1 X84.081Y74.75Z0F1200
G1 X84.071Y74.69Z0F1200
G0 Z2.8F500
G0 X83.81Y73.73Z2.8F1500
G1 Z0F500
G1 X83.364Y73.87Z0F1200
G1 X82.91Y74.171Z0F1200
G1 X82.56Y74.994Z0F1200
G1 X83.055Y75.633Z0F1200
G1 X83.439Y75.799Z0F1200
G1 X83.726Y75.848Z0F1200
G1 X84.521Y75.876Z0F1200
G1 X84.901Y75.17Z0F1200
G1 X85.001Y74.79Z0F1200
G1 X84.908Y74.247Z0F1200
G1 X84.43Y73.788Z0F1200
G1 X83.81Y73.73Z0F1200
G0 Z2.8F500
G0 X83.38Y68.094Z2.8F1500
G1 Z0F500
G1 X83.5Y67.797Z0F1200
G1 X83.591Y67.546Z0F1200
G1 X83.655Y67.339Z0F1200
G1 X83.695Y67.177Z0F1200
G1 X83.715Y67.056Z0F1200
G1 Y66.975Z0F1200
G1 X83.703Y66.934Z0F1200
G1 X83.677Y66.931Z0F1200
G1 X83.642Y66.963Z0F1200
G1 X83.601Y67.031Z0F1200
G1 X83.556Y67.133Z0F1200
G1 X83.51Y67.267Z0F1200
G1 X83.467Y67.431Z0F1200
G1 X83.429Y67.625Z0F1200
G1 X83.399Y67.846Z0F1200
G1 X83.38Y68.094Z0F1200
G0 Z2.8F500
G0 X83.925Y69.146Z2.8F1500
G1 Z0F500
G1 X84.341Y68.119Z0F1200
G1 X84.444Y67.833Z0F1200
G1 X84.522Y67.581Z0F1200
G1 X84.578Y67.356Z0F1200
G1 X84.614Y67.136Z0F1200
G1 X84.619Y66.842Z0F1200
G1 X84.386Y66.116Z0F1200
G1 X83.375Y65.983Z0F1200
G1 X82.938Y66.389Z0F1200
G1 X82.802Y66.613Z0F1200
G1 X82.716Y66.806Z0F1200
G1 X82.648Y67.006Z0F1200
G1 X82.589Y67.229Z0F1200
G1 X82.541Y67.478Z0F1200
G1 X82.503Y67.752Z0F1200
G1 X82.423Y68.794Z0F1200
G1 X83.925Y69.146Z0F1200
G0 Z2.8F500
G0 X100.808Y80.544Z2.8F1500
G1 Z0F500
G1 X102.913Y81.722Z0F1200
G1 X102.574Y81.746Z0F1200
G1 X102.333Y81.729Z0F1200
G1 X102.138Y81.687Z0F1200
G1 X101.948Y81.616Z0F1200
G1 X101.763Y81.516Z0F1200
G1 X101.564Y81.376Z0F1200
G1 X101.353Y81.192Z0F1200
G1 X101.16Y80.996Z0F1200
G1 X100.808Y80.544Z0F1200
G0 Z2.8F500
G0 X98.031Y78.456Z2.8F1500
G1 Z0F500
G1 X96.155Y78.304Z0F1200
G1 X94.604Y78.15Z0F1200
G1 X92.995Y77.967Z0F1200
G1 X91.325Y77.751Z0F1200
G1 X89.657Y77.511Z0F1200
G1 X87.984Y77.244Z0F1200
G1 X86.315Y76.952Z0F1200
G1 X84.37Y76.577Z0F1200
G1 X83.713Y76.96Z0F1200
G1 X83.394Y77.115Z0F1200
G1 X83.075Y77.239Z0F1200
G1 X82.758Y77.333Z0F1200
G1 X82.448Y77.397Z0F1200
G1 X82.145Y77.434Z0F1200
G1 X81.847Y77.445Z0F1200
G1 X81.558Y77.431Z0F1200
G1 X81.279Y77.395Z0F1200
G1 X81.007Y77.336Z0F1200
G1 X80.733Y77.252Z0F1200
G1 X80.482Y77.153Z0F1200
G1 X80.237Y77.033Z0F1200
G1 X80Y76.892Z0F1200
G1 X79.776Y76.735Z0F1200
G1 X79.569Y76.563Z0F1200
G1 X79.373Y76.373Z0F1200
G1 X79.197Y76.175Z0F1200
G1 X79.037Y75.961Z0F1200
G1 X78.888Y75.729Z0F1200
G1 X78.767Y75.5Z0F1200
G1 X78.659Y75.249Z0F1200
G1 X78.573Y74.994Z0F1200
G1 X78.511Y74.739Z0F1200
G1 X78.469Y74.474Z0F1200
G1 X78.45Y74.2Z0F1200
G1 X78.455Y73.924Z0F1200
G1 X78.484Y73.646Z0F1200
G1 X78.527Y73.426Z0F1200
G1 X78.709Y74.269Z0F1200
G1 X79.075Y74.581Z0F1200
G1 X79.325Y74.704Z0F1200
G1 X79.912Y74.907Z0F1200
G1 X80.456Y74.609Z0F1200
G1 X80.742Y74.372Z0F1200
G1 X81.024Y73.775Z0F1200
G1 X80.697Y73.027Z0F1200
G1 X80.111Y72.792Z0F1200
G1 X79.711Y72.768Z0F1200
G1 X79.272Y72.831Z0F1200
G1 X78.559Y73.294Z0F1200
G1 X78.623Y73.069Z0F1200
G1 X78.736Y72.777Z0F1200
G1 X78.882Y72.476Z0F1200
G1 X79.378Y71.626Z0F1200
G1 X79.812Y70.686Z0F1200
G1 X80.158Y69.732Z0F1200
G1 X80.435Y68.765Z0F1200
G1 X80.828Y66.862Z0F1200
G1 X81.258Y64.049Z0F1200
G1 X81.416Y63.125Z0F1200
G1 X81.596Y62.252Z0F1200
G1 X81.818Y61.392Z0F1200
G1 X82.089Y60.563Z0F1200
G1 X82.427Y59.752Z0F1200
G1 X82.615Y59.374Z0F1200
G1 X82.832Y58.987Z0F1200
G1 X83.061Y58.621Z0F1200
G1 X83.321Y58.253Z0F1200
G1 X83.649Y57.838Z0F1200
G1 X83.961Y57.509Z0F1200
G1 X84.278Y57.232Z0F1200
G1 X84.583Y57.018Z0F1200
G1 X84.876Y56.856Z0F1200
G1 X85.171Y56.737Z0F1200
G1 X85.444Y56.664Z0F1200
G1 X85.715Y56.625Z0F1200
G1 X85.979Y56.621Z0F1200
G1 X86.176Y56.642Z0F1200
G1 X85.882Y56.624Z0F1200
G1 X85.424Y56.729Z0F1200
G1 X84.868Y57.248Z0F1200
G1 X84.947Y57.985Z0F1200
G1 X84.961Y58.002Z0F1200
G1 X85.004Y58.409Z0F1200
G1 X85.275Y58.752Z0F1200
G1 X85.502Y58.912Z0F1200
G1 X86.171Y59.234Z0F1200
G1 X86.758Y58.772Z0F1200
G1 X86.965Y58.53Z0F1200
G1 X87.133Y58.064Z0F1200
G1 X87.041Y57.737Z0F1200
G1 X87.073Y57.649Z0F1200
G1 X86.897Y56.979Z0F1200
G1 X86.368Y56.678Z0F1200
G1 X86.498Y56.708Z0F1200
G1 X86.745Y56.795Z0F1200
G1 X86.993Y56.915Z0F1200
G1 X87.23Y57.062Z0F1200
G1 X87.456Y57.233Z0F1200
G1 X87.674Y57.435Z0F1200
G1 X87.874Y57.657Z0F1200
G1 X88.054Y57.898Z0F1200
G1 X88.219Y58.163Z0F1200
G1 X88.358Y58.44Z0F1200
G1 X88.477Y58.735Z0F1200
G1 X88.565Y59.032Z0F1200
G1 X88.627Y59.343Z0F1200
G1 X88.661Y59.66Z0F1200
G1 X88.664Y59.975Z0F1200
G1 X88.635Y60.296Z0F1200
G1 X88.574Y60.616Z0F1200
G1 X88.477Y60.936Z0F1200
G1 X88.342Y61.256Z0F1200
G1 X88.171Y61.565Z0F1200
G1 X87.952Y61.881Z0F1200
G1 X87.647Y62.236Z0F1200
G1 X87.286Y62.693Z0F1200
G1 X86.966Y63.216Z0F1200
G1 X86.71Y63.769Z0F1200
G1 X86.514Y64.343Z0F1200
G1 X86.375Y64.935Z0F1200
G1 X86.29Y65.539Z0F1200
G1 X86.255Y66.151Z0F1200
G1 X86.268Y66.768Z0F1200
G1 X86.325Y67.386Z0F1200
G1 X86.424Y68.001Z0F1200
G1 X86.565Y68.612Z0F1200
G1 X86.743Y69.214Z0F1200
G1 X86.959Y69.803Z0F1200
G1 X87.21Y70.378Z0F1200
G1 X87.495Y70.934Z0F1200
G1 X87.814Y71.466Z0F1200
G1 X88.164Y71.974Z0F1200
G1 X88.546Y72.451Z0F1200
G1 X88.959Y72.895Z0F1200
G1 X89.403Y73.301Z0F1200
G1 X89.877Y73.664Z0F1200
G1 X90.382Y73.978Z0F1200
G1 X90.916Y74.238Z0F1200
G1 X91.478Y74.436Z0F1200
G1 X92.064Y74.565Z0F1200
G1 X92.671Y74.618Z0F1200
G1 X93.291Y74.59Z0F1200
G1 X93.917Y74.477Z0F1200
G1 X94.545Y74.275Z0F1200
G1 X95.167Y73.985Z0F1200
G1 X95.78Y73.607Z0F1200
G1 X96.484Y73.063Z0F1200
G1 X97.062Y72.097Z0F1200
G1 X97.487Y71.202Z0F1200
G1 X97.837Y70.286Z0F1200
G1 X98.128Y69.35Z0F1200
G1 X98.581Y67.495Z0F1200
G1 X98.971Y65.649Z0F1200
G1 X99.172Y64.757Z0F1200
G1 X99.387Y63.919Z0F1200
G1 X99.637Y63.099Z0F1200
G1 X99.928Y62.327Z0F1200
G1 X100.269Y61.604Z0F1200
G1 X100.676Y60.926Z0F1200
G1 X100.888Y60.634Z0F1200
G1 X101.141Y60.326Z0F1200
G1 X101.402Y60.046Z0F1200
G1 X101.416Y60.033Z0F1200
G1 X101.623Y60.053Z0F1200
G1 X102.127Y60.141Z0F1200
G1 X102.564Y60.258Z0F1200
G1 X102.925Y60.397Z0F1200
G1 X103.229Y60.557Z0F1200
G1 X103.474Y60.729Z0F1200
G1 X103.674Y60.916Z0F1200
G1 X103.84Y61.121Z0F1200
G1 X103.972Y61.341Z0F1200
G1 X104.078Y61.585Z0F1200
G1 X104.16Y61.862Z0F1200
G1 X104.214Y62.162Z0F1200
G1 X104.242Y62.49Z0F1200
G1 Y62.846Z0F1200
G1 X104.218Y63.225Z0F1200
G1 X104.167Y63.618Z0F1200
G1 X103.992Y64.468Z0F1200
G1 X103.736Y65.36Z0F1200
G1 X103.42Y66.268Z0F1200
G1 X103.063Y67.171Z0F1200
G1 X102.688Y68.048Z0F1200
G1 X102.308Y68.902Z0F1200
G1 X101.951Y69.699Z0F1200
G1 X101.652Y70.388Z0F1200
G1 X101.36Y70.957Z0F1200
G1 X101.118Y71.589Z0F1200
G1 X100.959Y72.218Z0F1200
G1 X100.882Y72.838Z0F1200
G1 X100.886Y73.445Z0F1200
G1 X100.967Y74.033Z0F1200
G1 X101.12Y74.594Z0F1200
G1 X101.339Y75.125Z0F1200
G1 X101.617Y75.622Z0F1200
G1 X101.946Y76.082Z0F1200
G1 X102.321Y76.506Z0F1200
G1 X102.737Y76.893Z0F1200
G1 X103.188Y77.242Z0F1200
G1 X103.67Y77.553Z0F1200
G1 X104.178Y77.826Z0F1200
G1 X104.708Y78.06Z0F1200
G1 X105.259Y78.254Z0F1200
G1 X105.825Y78.408Z0F1200
G1 X106.403Y78.521Z0F1200
G1 X106.991Y78.589Z0F1200
G1 X107.583Y78.613Z0F1200
G1 X108.178Y78.59Z0F1200
G1 X108.771Y78.517Z0F1200
G1 X109.356Y78.394Z0F1200
G1 X109.933Y78.216Z0F1200
G1 X110.494Y77.982Z0F1200
G1 X111.034Y77.69Z0F1200
G1 X111.548Y77.337Z0F1200
G1 X112.03Y76.924Z0F1200
G1 X112.472Y76.449Z0F1200
G1 X112.87Y75.913Z0F1200
G1 X113.154Y75.425Z0F1200
G1 X113.431Y75.095Z0F1200
G1 X113.736Y74.649Z0F1200
G1 X113.997Y74.185Z0F1200
G1 X114.217Y73.708Z0F1200
G1 X114.4Y73.222Z0F1200
G1 X114.552Y72.728Z0F1200
G1 X114.675Y72.23Z0F1200
G1 X114.78Y71.713Z0F1200
G1 X115.035Y69.745Z0F1200
G1 X115.232Y67.829Z0F1200
G1 X115.369Y66.952Z0F1200
G1 X115.563Y66.139Z0F1200
G1 X115.681Y65.777Z0F1200
G1 X115.819Y65.435Z0F1200
G1 X115.98Y65.114Z0F1200
G1 X116.161Y64.821Z0F1200
G1 X116.366Y64.551Z0F1200
G1 X116.604Y64.299Z0F1200
G1 X116.872Y64.07Z0F1200
G1 X117.181Y63.858Z0F1200
G1 X117.536Y63.667Z0F1200
G1 X117.948Y63.496Z0F1200
G1 X118.417Y63.351Z0F1200
G1 X118.809Y63.264Z0F1200
G1 X119.167Y63.325Z0F1200
G1 X119.593Y63.443Z0F1200
G1 X119.945Y63.584Z0F1200
G1 X120.226Y63.743Z0F1200
G1 X120.453Y63.917Z0F1200
G1 X120.64Y64.11Z0F1200
G1 X120.787Y64.317Z0F1200
G1 X120.908Y64.554Z0F1200
G1 X121Y64.819Z0F1200
G1 X121.068Y65.12Z0F1200
G1 X121.108Y65.458Z0F1200
G1 X121.118Y65.816Z0F1200
G1 X121.099Y66.213Z0F1200
G1 X121.052Y66.636Z0F1200
G1 X120.98Y67.068Z0F1200
G1 X120.882Y67.528Z0F1200
G1 X120.622Y68.495Z0F1200
G1 X120.295Y69.494Z0F1200
G1 X119.932Y70.484Z0F1200
G1 X119.54Y71.489Z0F1200
G1 X119.153Y72.464Z0F1200
G1 X118.793Y73.392Z0F1200
G1 X118.629Y73.84Z0F1200
G1 X118.481Y74.272Z0F1200
G1 X118.351Y74.688Z0F1200
G1 X118.252Y75.051Z0F1200
G1 X118.093Y75.594Z0F1200
G1 X117.911Y76.09Z0F1200
G1 X117.694Y76.583Z0F1200
G1 X117.447Y77.062Z0F1200
G1 X117.181Y77.511Z0F1200
G1 X116.877Y77.961Z0F1200
G1 X116.549Y78.393Z0F1200
G1 X116.196Y78.808Z0F1200
G1 X115.825Y79.2Z0F1200
G1 X115.417Y79.589Z0F1200
G1 X114.999Y79.949Z0F1200
G1 X114.552Y80.297Z0F1200
G1 X114.087Y80.625Z0F1200
G1 X113.609Y80.933Z0F1200
G1 X113.102Y81.227Z0F1200
G1 X112.594Y81.492Z0F1200
G1 X112.066Y81.739Z0F1200
G1 X111.518Y81.968Z0F1200
G1 X110.96Y82.175Z0F1200
G1 X110.396Y82.357Z0F1200
G1 X109.819Y82.518Z0F1200
G1 X109.244Y82.652Z0F1200
G1 X108.656Y82.765Z0F1200
G1 X108.063Y82.854Z0F1200
G1 X107.459Y82.917Z0F1200
G1 X106.874Y82.956Z0F1200
G1 X106.269Y82.968Z0F1200
G1 X105.666Y82.955Z0F1200
G1 X105.08Y82.916Z0F1200
G1 X104.479Y82.849Z0F1200
G1 X103.898Y82.756Z0F1200
G1 X103.172Y82.606Z0F1200
G1 X102.573Y82.648Z0F1200
G1 X102.208Y82.623Z0F1200
G1 X101.878Y82.551Z0F1200
G1 X101.577Y82.438Z0F1200
G1 X101.288Y82.282Z0F1200
G1 X101.01Y82.086Z0F1200
G1 X100.733Y81.847Z0F1200
G1 X100.482Y81.591Z0F1200
G1 X99.376Y80.167Z0F1200
G1 X98.031Y78.456Z0F1200
G0 Z2.8F500
G0 X80.02Y73.726Z2.8F1500
G1 Z0F500
G1 X79.911Y73.682Z0F1200
G1 X79.749Y73.672Z0F1200
G1 X79.596Y73.694Z0F1200
G1 X79.517Y73.745Z0F1200
G1 X79.525Y73.781Z0F1200
G1 X79.574Y73.823Z0F1200
G1 X79.673Y73.872Z0F1200
G1 X79.83Y73.926Z0F1200
G1 X79.948Y73.861Z0F1200
G1 X80.014Y73.807Z0F1200
G1 X80.036Y73.761Z0F1200
G1 X80.02Y73.726Z0F1200
G0 Z2.8F500
G0 X85.868Y58.023Z2.8F1500
G1 Z0F500
G1 X85.872Y58.055Z0F1200
G1 X85.901Y58.092Z0F1200
G1 X85.96Y58.134Z0F1200
G1 X86.056Y58.18Z0F1200
G1 X86.131Y58.12Z0F1200
G1 X86.174Y58.07Z0F1200
G1 X86.188Y58.03Z0F1200
G1 X86.18Y57.999Z0F1200
G1 X86.113Y57.961Z0F1200
G1 X86.014Y57.955Z0F1200
G1 X85.918Y57.976Z0F1200
G1 X85.868Y58.023Z0F1200
G0 Z2.8F500
G0 X85.904Y57.709Z2.8F1500
G1 Z0F500
G1 X85.999Y57.756Z0F1200
G1 X86.074Y57.696Z0F1200
G1 X86.117Y57.646Z0F1200
G1 X86.131Y57.606Z0F1200
G1 X86.123Y57.574Z0F1200
G1 X86.057Y57.537Z0F1200
G1 X85.957Y57.53Z0F1200
G1 X85.861Y57.552Z0F1200
G1 X85.811Y57.599Z0F1200
G1 X85.814Y57.631Z0F1200
G1 X85.844Y57.668Z0F1200
G1 X85.904Y57.709Z0F1200
G0 Z2.8F500
G0 X89.564Y60.012Z2.8F1500
G1 Z0F500
G1 X89.528Y60.422Z0F1200
G1 X89.449Y60.832Z0F1200
G1 X89.325Y61.241Z0F1200
G1 X89.154Y61.646Z0F1200
G1 X88.935Y62.044Z0F1200
G1 X88.665Y62.432Z0F1200
G1 X88.342Y62.809Z0F1200
G1 X88.025Y63.208Z0F1200
G1 X87.761Y63.642Z0F1200
G1 X87.546Y64.104Z0F1200
G1 X87.38Y64.592Z0F1200
G1 X87.261Y65.101Z0F1200
G1 X87.186Y65.627Z0F1200
G1 X87.155Y66.167Z0F1200
G1 X87.167Y66.717Z0F1200
G1 X87.218Y67.272Z0F1200
G1 X87.308Y67.829Z0F1200
G1 X87.436Y68.383Z0F1200
G1 X87.598Y68.931Z0F1200
G1 X87.795Y69.468Z0F1200
G1 X88.023Y69.992Z0F1200
G1 X88.283Y70.497Z0F1200
G1 X88.571Y70.979Z0F1200
G1 X88.887Y71.437Z0F1200
G1 X89.228Y71.863Z0F1200
G1 X89.593Y72.255Z0F1200
G1 X89.981Y72.61Z0F1200
G1 X90.39Y72.922Z0F1200
G1 X90.818Y73.189Z0F1200
G1 X91.264Y73.406Z0F1200
G1 X91.725Y73.568Z0F1200
G1 X92.201Y73.673Z0F1200
G1 X92.69Y73.716Z0F1200
G1 X93.189Y73.694Z0F1200
G1 X93.699Y73.602Z0F1200
G1 X94.216Y73.436Z0F1200
G1 X94.74Y73.191Z0F1200
G1 X95.268Y72.866Z0F1200
G1 X95.799Y72.455Z0F1200
G1 X96.268Y71.672Z0F1200
G1 X96.659Y70.848Z0F1200
G1 X96.986Y69.991Z0F1200
G1 X97.26Y69.109Z0F1200
G1 X97.704Y67.295Z0F1200
G1 X98.09Y65.463Z0F1200
G1 X98.294Y64.559Z0F1200
G1 X98.521Y63.671Z0F1200
G1 X98.785Y62.808Z0F1200
G1 X99.099Y61.975Z0F1200
G1 X99.474Y61.181Z0F1200
G1 X99.923Y60.432Z0F1200
G1 X100.18Y60.077Z0F1200
G1 X100.46Y59.736Z0F1200
G1 X100.765Y59.41Z0F1200
G1 X101.097Y59.1Z0F1200
G1 X101.743Y59.16Z0F1200
G1 X102.324Y59.261Z0F1200
G1 X102.841Y59.401Z0F1200
G1 X103.298Y59.577Z0F1200
G1 X103.698Y59.787Z0F1200
G1 X104.043Y60.029Z0F1200
G1 X104.335Y60.302Z0F1200
G1 X104.578Y60.602Z0F1200
G1 X104.774Y60.929Z0F1200
G1 X104.926Y61.279Z0F1200
G1 X105.036Y61.651Z0F1200
G1 X105.107Y62.042Z0F1200
G1 X105.142Y62.452Z0F1200
G1 Y62.876Z0F1200
G1 X105.114Y63.314Z0F1200
G1 X105.056Y63.763Z0F1200
G1 X104.866Y64.687Z0F1200
G1 X104.595Y65.631Z0F1200
G1 X104.265Y66.578Z0F1200
G1 X103.896Y67.511Z0F1200
G1 X103.511Y68.414Z0F1200
G1 X103.129Y69.27Z0F1200
G1 X102.774Y70.062Z0F1200
G1 X102.466Y70.773Z0F1200
G1 X102.183Y71.324Z0F1200
G1 X101.978Y71.861Z0F1200
G1 X101.845Y72.384Z0F1200
G1 X101.783Y72.891Z0F1200
G1 X101.786Y73.381Z0F1200
G1 X101.851Y73.852Z0F1200
G1 X101.974Y74.303Z0F1200
G1 X102.151Y74.732Z0F1200
G1 X102.378Y75.139Z0F1200
G1 X102.651Y75.521Z0F1200
G1 X102.966Y75.877Z0F1200
G1 X103.32Y76.206Z0F1200
G1 X103.708Y76.507Z0F1200
G1 X104.127Y76.777Z0F1200
G1 X104.573Y77.016Z0F1200
G1 X105.041Y77.223Z0F1200
G1 X105.527Y77.395Z0F1200
G1 X106.029Y77.531Z0F1200
G1 X106.542Y77.63Z0F1200
G1 X107.061Y77.691Z0F1200
G1 X107.583Y77.712Z0F1200
G1 X108.105Y77.692Z0F1200
G1 X108.623Y77.628Z0F1200
G1 X109.131Y77.521Z0F1200
G1 X109.626Y77.369Z0F1200
G1 X110.106Y77.169Z0F1200
G1 X110.564Y76.921Z0F1200
G1 X110.999Y76.623Z0F1200
G1 X111.405Y76.274Z0F1200
G1 X111.779Y75.873Z0F1200
G1 X112.117Y75.417Z0F1200
G1 X112.415Y74.906Z0F1200
G1 X112.713Y74.55Z0F1200
G1 X112.972Y74.173Z0F1200
G1 X113.195Y73.776Z0F1200
G1 X113.386Y73.361Z0F1200
G1 X113.548Y72.931Z0F1200
G1 X113.684Y72.487Z0F1200
G1 X113.797Y72.032Z0F1200
G1 X113.892Y71.566Z0F1200
G1 X114.141Y69.641Z0F1200
G1 X114.34Y67.709Z0F1200
G1 X114.485Y66.778Z0F1200
G1 X114.696Y65.892Z0F1200
G1 X114.834Y65.47Z0F1200
G1 X114.999Y65.064Z0F1200
G1 X115.192Y64.677Z0F1200
G1 X115.418Y64.311Z0F1200
G1 X115.68Y63.967Z0F1200
G1 X115.981Y63.647Z0F1200
G1 X116.324Y63.354Z0F1200
G1 X116.712Y63.088Z0F1200
G1 X117.15Y62.854Z0F1200
G1 X117.639Y62.65Z0F1200
G1 X118.184Y62.48Z0F1200
G1 X118.787Y62.347Z0F1200
G1 X119.368Y62.447Z0F1200
G1 X119.882Y62.589Z0F1200
G1 X120.333Y62.771Z0F1200
G1 X120.723Y62.99Z0F1200
G1 X121.055Y63.245Z0F1200
G1 X121.333Y63.532Z0F1200
G1 X121.559Y63.851Z0F1200
G1 X121.736Y64.198Z0F1200
G1 X121.868Y64.572Z0F1200
G1 X121.957Y64.969Z0F1200
G1 X122.006Y65.389Z0F1200
G1 X122.018Y65.828Z0F1200
G1 X121.996Y66.285Z0F1200
G1 X121.944Y66.757Z0F1200
G1 X121.863Y67.242Z0F1200
G1 X121.758Y67.737Z0F1200
G1 X121.485Y68.752Z0F1200
G1 X121.147Y69.783Z0F1200
G1 X120.77Y70.812Z0F1200
G1 X120.376Y71.821Z0F1200
G1 X119.991Y72.793Z0F1200
G1 X119.636Y73.709Z0F1200
G1 X119.478Y74.141Z0F1200
G1 X119.336Y74.553Z0F1200
G1 X119.215Y74.941Z0F1200
G1 X119.116Y75.305Z0F1200
G1 X118.948Y75.876Z0F1200
G1 X118.744Y76.431Z0F1200
G1 X118.507Y76.97Z0F1200
G1 X118.238Y77.493Z0F1200
G1 X117.938Y77.998Z0F1200
G1 X117.609Y78.486Z0F1200
G1 X117.252Y78.956Z0F1200
G1 X116.868Y79.407Z0F1200
G1 X116.458Y79.84Z0F1200
G1 X116.024Y80.253Z0F1200
G1 X115.567Y80.646Z0F1200
G1 X115.089Y81.02Z0F1200
G1 X114.591Y81.372Z0F1200
G1 X114.075Y81.703Z0F1200
G1 X113.541Y82.012Z0F1200
G1 X112.991Y82.3Z0F1200
G1 X112.426Y82.564Z0F1200
G1 X111.848Y82.806Z0F1200
G1 X111.258Y83.024Z0F1200
G1 X110.657Y83.219Z0F1200
G1 X110.047Y83.388Z0F1200
G1 X109.429Y83.533Z0F1200
G1 X108.805Y83.653Z0F1200
G1 X108.175Y83.747Z0F1200
G1 X107.542Y83.814Z0F1200
G1 X106.905Y83.855Z0F1200
G1 X106.268Y83.869Z0F1200
G1 X105.631Y83.854Z0F1200
G1 X104.996Y83.813Z0F1200
G1 X104.363Y83.742Z0F1200
G1 X103.734Y83.642Z0F1200
G1 X103.111Y83.513Z0F1200
G1 X102.574Y83.551Z0F1200
G1 X102.08Y83.517Z0F1200
G1 X101.624Y83.417Z0F1200
G1 X101.204Y83.259Z0F1200
G1 X100.815Y83.05Z0F1200
G1 X100.454Y82.796Z0F1200
G1 X100.118Y82.504Z0F1200
G1 X99.801Y82.182Z0F1200
G1 X98.667Y80.722Z0F1200
G1 X97.566Y79.321Z0F1200
G1 X96.078Y79.2Z0F1200
G1 X94.509Y79.045Z0F1200
G1 X92.88Y78.859Z0F1200
G1 X91.209Y78.644Z0F1200
G1 X89.519Y78.4Z0F1200
G1 X87.829Y78.131Z0F1200
G1 X86.16Y77.838Z0F1200
G1 X84.532Y77.525Z0F1200
G1 X84.142Y77.752Z0F1200
G1 X83.752Y77.941Z0F1200
G1 X83.364Y78.092Z0F1200
G1 X82.978Y78.207Z0F1200
G1 X82.595Y78.286Z0F1200
G1 X82.216Y78.332Z0F1200
G1 X81.844Y78.346Z0F1200
G1 X81.479Y78.329Z0F1200
G1 X81.123Y78.282Z0F1200
G1 X80.776Y78.207Z0F1200
G1 X80.44Y78.104Z0F1200
G1 X80.117Y77.977Z0F1200
G1 X79.807Y77.824Z0F1200
G1 X79.511Y77.648Z0F1200
G1 X79.231Y77.452Z0F1200
G1 X78.968Y77.234Z0F1200
G1 X78.724Y76.997Z0F1200
G1 X78.499Y76.743Z0F1200
G1 X78.294Y76.472Z0F1200
G1 X78.112Y76.186Z0F1200
G1 X77.953Y75.886Z0F1200
G1 X77.818Y75.573Z0F1200
G1 X77.709Y75.25Z0F1200
G1 X77.627Y74.916Z0F1200
G1 X77.574Y74.574Z0F1200
G1 X77.549Y74.225Z0F1200
G1 X77.555Y73.87Z0F1200
G1 X77.593Y73.51Z0F1200
G1 X77.665Y73.147Z0F1200
G1 X77.77Y72.782Z0F1200
G1 X77.911Y72.417Z0F1200
G1 X78.088Y72.051Z0F1200
G1 X78.579Y71.209Z0F1200
G1 X78.979Y70.343Z0F1200
G1 X79.302Y69.455Z0F1200
G1 X79.561Y68.55Z0F1200
G1 X79.941Y66.703Z0F1200
G1 X80.371Y63.897Z0F1200
G1 X80.53Y62.967Z0F1200
G1 X80.72Y62.047Z0F1200
G1 X80.954Y61.139Z0F1200
G1 X81.245Y60.249Z0F1200
G1 X81.607Y59.378Z0F1200
G1 X81.82Y58.952Z0F1200
G1 X82.055Y58.532Z0F1200
G1 X82.314Y58.119Z0F1200
G1 X82.6Y57.713Z0F1200
G1 X82.965Y57.252Z0F1200
G1 X83.34Y56.856Z0F1200
G1 X83.72Y56.524Z0F1200
G1 X84.105Y56.253Z0F1200
G1 X84.492Y56.041Z0F1200
G1 X84.879Y55.884Z0F1200
G1 X85.265Y55.78Z0F1200
G1 X85.646Y55.726Z0F1200
G1 X86.021Y55.72Z0F1200
G1 X86.389Y55.76Z0F1200
G1 X86.747Y55.842Z0F1200
G1 X87.093Y55.964Z0F1200
G1 X87.424Y56.124Z0F1200
G1 X87.74Y56.318Z0F1200
G1 X88.037Y56.545Z0F1200
G1 X88.314Y56.801Z0F1200
G1 X88.569Y57.084Z0F1200
G1 X88.8Y57.392Z0F1200
G1 X89.004Y57.722Z0F1200
G1 X89.18Y58.071Z0F1200
G1 X89.326Y58.436Z0F1200
G1 X89.439Y58.816Z0F1200
G1 X89.518Y59.207Z0F1200
G1 X89.561Y59.606Z0F1200
G1 X89.564Y60.012Z0F1200
G0 Z2.8F500
G0 X97.643Y44.834Z2.8F1500
G1 Z0F500
G1 X97.726Y45.336Z0F1200
G1 X97.875Y45.82Z0F1200
G1 X98.079Y46.283Z0F1200
G1 X98.333Y46.725Z0F1200
G1 X98.633Y47.144Z0F1200
G1 X98.973Y47.541Z0F1200
G1 X99.35Y47.915Z0F1200
G1 X99.759Y48.267Z0F1200
G1 X99.857Y48.339Z0F1200
G1 X99.809Y48.335Z0F1200
G1 X99.38Y48.238Z0F1200
G1 X99.013Y48.097Z0F1200
G1 X98.705Y47.921Z0F1200
G1 X98.437Y47.709Z0F1200
G1 X98.213Y47.467Z0F1200
G1 X98.019Y47.184Z0F1200
G1 X97.86Y46.87Z0F1200
G1 X97.731Y46.513Z0F1200
G1 X97.641Y46.134Z0F1200
G1 X97.584Y45.716Z0F1200
G1 X97.566Y45.289Z0F1200
G1 X97.584Y44.834Z0F1200
G1 X97.632Y44.43Z0F1200
G1 X97.643Y44.834Z0F1200
G0 Z2.8F500
G0 X98.225Y42.533Z2.8F1500
G1 Z0F500
G1 X98.401Y42.196Z0F1200
G1 X98.642Y41.813Z0F1200
G1 X98.892Y41.481Z0F1200
G1 X99.17Y41.174Z0F1200
G1 X99.456Y40.917Z0F1200
G1 X99.75Y40.707Z0F1200
G1 X100.049Y40.544Z0F1200
G1 X100.356Y40.429Z0F1200
G1 X100.665Y40.363Z0F1200
G1 X100.866Y40.353Z0F1200
G1 X100.297Y40.654Z0F1200
G1 X99.704Y41.032Z0F1200
G1 X99.185Y41.434Z0F1200
G1 X98.737Y41.862Z0F1200
G1 X98.361Y42.316Z0F1200
G1 X98.225Y42.533Z0F1200
G0 Z2.8F500
G0 X109.859Y41.879Z2.8F1500
G1 Z0F500
G1 X110.09Y41.846Z0F1200
G1 X110.562Y41.74Z0F1200
G1 X111.014Y41.612Z0F1200
G1 X111.453Y41.458Z0F1200
G1 X111.879Y41.277Z0F1200
G1 X112.289Y41.066Z0F1200
G1 X112.681Y40.825Z0F1200
G1 X113.051Y40.551Z0F1200
G1 X113.396Y40.243Z0F1200
G1 X113.493Y40.139Z0F1200
G1 X113.424Y40.231Z0F1200
G1 X113.153Y40.537Z0F1200
G1 X112.872Y40.805Z0F1200
G1 X112.581Y41.035Z0F1200
G1 X112.277Y41.234Z0F1200
G1 X111.961Y41.404Z0F1200
G1 X111.634Y41.545Z0F1200
G1 X111.297Y41.659Z0F1200
G1 X110.938Y41.751Z0F1200
G1 X110.577Y41.817Z0F1200
G1 X109.859Y41.879Z0F1200
G0 Z2.8F500
G0 X106.035Y42.315Z2.8F1500
G1 Z0F500
G1 X105.071Y42.078Z0F1200
G1 X104.114Y41.824Z0F1200
G1 X103.171Y41.567Z0F1200
G1 X102.25Y41.324Z0F1200
G1 X101.358Y41.11Z0F1200
G1 X100.75Y41.432Z0F1200
G1 X100.223Y41.769Z0F1200
G1 X99.772Y42.117Z0F1200
G1 X99.396Y42.477Z0F1200
G1 X99.092Y42.845Z0F1200
G1 X98.856Y43.22Z0F1200
G1 X98.686Y43.599Z0F1200
G1 X98.578Y43.982Z0F1200
G1 X98.531Y44.366Z0F1200
G1 X98.541Y44.749Z0F1200
G1 X98.604Y45.129Z0F1200
G1 X98.719Y45.505Z0F1200
G1 X98.882Y45.875Z0F1200
G1 X99.091Y46.237Z0F1200
G1 X99.342Y46.588Z0F1200
G1 X99.633Y46.928Z0F1200
G1 X99.961Y47.254Z0F1200
G1 X100.322Y47.564Z0F1200
G1 X100.714Y47.857Z0F1200
G1 X101.135Y48.13Z0F1200
G1 X101.581Y48.382Z0F1200
G1 X102.048Y48.611Z0F1200
G1 X102.536Y48.815Z0F1200
G1 X103.039Y48.993Z0F1200
G1 X103.557Y49.141Z0F1200
G1 X104.084Y49.259Z0F1200
G1 X104.62Y49.345Z0F1200
G1 X105.161Y49.396Z0F1200
G1 X105.703Y49.411Z0F1200
G1 X106.245Y49.388Z0F1200
G1 X106.782Y49.325Z0F1200
G1 X107.313Y49.22Z0F1200
G1 X107.792Y49.283Z0F1200
G1 X108.207Y49.353Z0F1200
G1 X108.563Y49.428Z0F1200
G1 X108.863Y49.509Z0F1200
G1 X109.108Y49.593Z0F1200
G1 X109.302Y49.681Z0F1200
G1 X109.447Y49.771Z0F1200
G1 X109.545Y49.862Z0F1200
G1 X109.6Y49.955Z0F1200
G1 X109.614Y50.046Z0F1200
G1 X109.589Y50.137Z0F1200
G1 X109.529Y50.225Z0F1200
G1 X109.435Y50.311Z0F1200
G1 X109.311Y50.392Z0F1200
G1 X109.159Y50.469Z0F1200
G1 X108.982Y50.54Z0F1200
G1 X108.563Y50.663Z0F1200
G1 X108.074Y50.752Z0F1200
G1 X107.537Y50.802Z0F1200
G1 X106.973Z0F1200
G1 X106.403Y50.753Z0F1200
G1 X105.848Y50.641Z0F1200
G1 X105.329Y50.461Z0F1200
G1 X104.867Y50.206Z0F1200
G1 X103.742Y49.895Z0F1200
G1 X102.591Y49.676Z0F1200
G1 X101.432Y49.492Z0F1200
G1 X100.278Y49.283Z0F1200
G1 X99.667Y49.226Z0F1200
G1 X99.117Y49.101Z0F1200
G1 X98.628Y48.913Z0F1200
G1 X98.198Y48.668Z0F1200
G1 X97.825Y48.372Z0F1200
G1 X97.507Y48.029Z0F1200
G1 X97.243Y47.645Z0F1200
G1 X97.031Y47.224Z0F1200
G1 X96.869Y46.773Z0F1200
G1 X96.754Y46.297Z0F1200
G1 X96.688Y45.8Z0F1200
G1 X96.665Y45.289Z0F1200
G1 X96.686Y44.769Z0F1200
G1 X96.748Y44.244Z0F1200
G1 X96.85Y43.721Z0F1200
G1 X96.99Y43.204Z0F1200
G1 X97.167Y42.699Z0F1200
G1 X97.377Y42.211Z0F1200
G1 X97.621Y41.746Z0F1200
G1 X97.896Y41.308Z0F1200
G1 X98.2Y40.903Z0F1200
G1 X98.532Y40.537Z0F1200
G1 X98.89Y40.215Z0F1200
G1 X99.272Y39.941Z0F1200
G1 X99.677Y39.722Z0F1200
G1 X100.102Y39.563Z0F1200
G1 X100.546Y39.468Z0F1200
G1 X101.008Y39.443Z0F1200
G1 X101.485Y39.495Z0F1200
G1 X101.977Y39.626Z0F1200
G1 X102.48Y39.845Z0F1200
G1 X102.994Y40.154Z0F1200
G1 X103.762Y40.446Z0F1200
G1 X104.588Y40.693Z0F1200
G1 X105.457Y40.891Z0F1200
G1 X106.354Y41.034Z0F1200
G1 X107.264Y41.118Z0F1200
G1 X108.173Y41.137Z0F1200
G1 X109.065Y41.086Z0F1200
G1 X109.927Y40.96Z0F1200
G1 X110.341Y40.867Z0F1200
G1 X110.742Y40.753Z0F1200
G1 X111.128Y40.618Z0F1200
G1 X111.497Y40.461Z0F1200
G1 X111.847Y40.282Z0F1200
G1 X112.176Y40.079Z0F1200
G1 X112.483Y39.852Z0F1200
G1 X112.766Y39.6Z0F1200
G1 X113.022Y39.323Z0F1200
G1 X113.25Y39.02Z0F1200
G1 X113.448Y38.691Z0F1200
G1 X113.615Y38.334Z0F1200
G1 X113.748Y37.95Z0F1200
G1 X113.845Y37.537Z0F1200
G1 X113.905Y37.095Z0F1200
G1 X113.926Y36.623Z0F1200
G1 X113.906Y36.139Z0F1200
G1 X113.847Y35.673Z0F1200
G1 X113.749Y35.226Z0F1200
G1 X113.616Y34.797Z0F1200
G1 X113.448Y34.387Z0F1200
G1 X113.248Y33.996Z0F1200
G1 X113.017Y33.624Z0F1200
G1 X112.756Y33.27Z0F1200
G1 X112.467Y32.935Z0F1200
G1 X112.153Y32.618Z0F1200
G1 X111.814Y32.321Z0F1200
G1 X111.453Y32.042Z0F1200
G1 X111.071Y31.783Z0F1200
G1 X110.67Y31.542Z0F1200
G1 X110.251Y31.321Z0F1200
G1 X109.816Y31.118Z0F1200
G1 X108.906Y30.77Z0F1200
G1 X107.953Y30.499Z0F1200
G1 X106.97Y30.305Z0F1200
G1 X105.97Y30.188Z0F1200
G1 X104.968Y30.149Z0F1200
G1 X103.976Y30.188Z0F1200
G1 X103.009Y30.305Z0F1200
G1 X102.079Y30.501Z0F1200
G1 X101.624Y30.604Z0F1200
G1 X101.238Y30.68Z0F1200
G1 X100.919Y30.729Z0F1200
G1 X100.665Y30.754Z0F1200
G1 X100.471Y30.757Z0F1200
G1 X100.333Y30.739Z0F1200
G1 X100.251Y30.703Z0F1200
G1 X100.219Y30.649Z0F1200
G1 X100.234Y30.581Z0F1200
G1 X100.294Y30.5Z0F1200
G1 X100.396Y30.408Z0F1200
G1 X100.535Y30.306Z0F1200
G1 X100.708Y30.197Z0F1200
G1 X100.914Y30.083Z0F1200
G1 X101.147Y29.964Z0F1200
G1 X101.405Y29.844Z0F1200
G1 X101.984Y29.606Z0F1200
G1 X102.625Y29.384Z0F1200
G1 X103.301Y29.192Z0F1200
G1 X103.987Y29.045Z0F1200
G1 X104.656Y28.959Z0F1200
G1 X105.284Y28.949Z0F1200
G1 X105.574Y28.976Z0F1200
G1 X105.844Y29.028Z0F1200
G1 X106.091Y29.106Z0F1200
G1 X106.311Y29.213Z0F1200
G1 X106.84Y29.2Z0F1200
G1 X107.367Y29.221Z0F1200
G1 X107.889Y29.274Z0F1200
G1 X108.405Y29.359Z0F1200
G1 X108.914Y29.474Z0F1200
G1 X109.413Y29.617Z0F1200
G1 X109.903Y29.788Z0F1200
G1 X110.381Y29.985Z0F1200
G1 X110.847Y30.208Z0F1200
G1 X111.299Y30.454Z0F1200
G1 X111.735Y30.723Z0F1200
G1 X112.155Y31.013Z0F1200
G1 X112.556Y31.324Z0F1200
G1 X112.938Y31.653Z0F1200
G1 X113.3Y32Z0F1200
G1 X113.639Y32.364Z0F1200
G1 X113.955Y32.744Z0F1200
G1 X114.247Y33.137Z0F1200
G1 X114.512Y33.543Z0F1200
G1 X114.75Y33.961Z0F1200
G1 X114.958Y34.389Z0F1200
G1 X115.138Y34.826Z0F1200
G1 X115.285Y35.271Z0F1200
G1 X115.4Y35.723Z0F1200
G1 X115.481Y36.181Z0F1200
G1 X115.526Y36.643Z0F1200
G1 X115.535Y37.107Z0F1200
G1 X115.505Y37.574Z0F1200
G1 X115.437Y38.041Z0F1200
G1 X115.327Y38.508Z0F1200
G1 X115.175Y38.973Z0F1200
G1 X114.979Y39.434Z0F1200
G1 X114.713Y39.937Z0F1200
G1 X114.428Y40.391Z0F1200
G1 X114.123Y40.799Z0F1200
G1 X113.801Y41.163Z0F1200
G1 X113.462Y41.485Z0F1200
G1 X113.107Y41.766Z0F1200
G1 X112.738Y42.008Z0F1200
G1 X112.354Y42.214Z0F1200
G1 X111.958Y42.386Z0F1200
G1 X111.549Y42.524Z0F1200
G1 X111.129Y42.631Z0F1200
G1 X110.699Y42.709Z0F1200
G1 X109.812Y42.787Z0F1200
G1 X108.894Y42.771Z0F1200
G1 X107.954Y42.677Z0F1200
G1 X106.999Y42.52Z0F1200
G1 X106.035Y42.315Z0F1200
G0 Z2.8F500
G0 X84.306Y35.329Z2.8F1500
G1 Z0F500
G1 X84.326Y35.534Z0F1200
G1 X84.302Y35.298Z0F1200
G1 X84.306Y35.329Z0F1200
G0 Z2.8F500
G0 X80.019Y24.893Z2.8F1500
G1 Z0F500
G1 X79.754Y24.352Z0F1200
G1 Y24.27Z0F1200
G1 X79.789Y24.129Z0F1200
G1 X79.834Y24.041Z0F1200
G1 X79.896Y23.971Z0F1200
G1 X80.004Y23.894Z0F1200
G1 X80.18Y23.815Z0F1200
G1 X80.428Y23.748Z0F1200
G1 X80.631Y23.717Z0F1200
G1 X80.447Y23.92Z0F1200
G1 X80.236Y24.252Z0F1200
G1 X80.087Y24.606Z0F1200
G1 X80.019Y24.893Z0F1200
G0 Z2.8F500
G0 X80.531Y27.984Z2.8F1500
G1 Z0F500
G1 X78.849Y24.55Z0F1200
G1 X78.858Y24.156Z0F1200
G1 X78.938Y23.817Z0F1200
G1 X79.083Y23.532Z0F1200
G1 X79.29Y23.297Z0F1200
G1 X79.555Y23.109Z0F1200
G1 X79.874Y22.966Z0F1200
G1 X80.242Y22.865Z0F1200
G1 X80.656Y22.804Z0F1200
G1 X81.112Y22.78Z0F1200
G1 X81.604Y22.79Z0F1200
G1 X82.131Y22.831Z0F1200
G1 X82.686Y22.901Z0F1200
G1 X83.266Y22.998Z0F1200
G1 X83.868Y23.118Z0F1200
G1 X84.486Y23.258Z0F1200
G1 X85.117Y23.417Z0F1200
G1 X86.4Y23.779Z0F1200
G1 X87.686Y24.183Z0F1200
G1 X88.94Y24.605Z0F1200
G1 X90.13Y25.025Z0F1200
G1 X91.225Y25.423Z0F1200
G1 X92.189Y25.776Z0F1200
G1 X92.613Y25.93Z0F1200
G1 X92.992Y26.064Z0F1200
G1 X93.322Y26.176Z0F1200
G1 X93.599Y26.264Z0F1200
G1 X93.523Y26.399Z0F1200
G1 X93.4Y26.508Z0F1200
G1 X93.23Y26.591Z0F1200
G1 X93.018Y26.65Z0F1200
G1 X92.766Y26.686Z0F1200
G1 X92.477Y26.701Z0F1200
G1 X92.154Y26.696Z0F1200
G1 X91.801Y26.672Z0F1200
G1 X91.42Y26.631Z0F1200
G1 X91.014Y26.574Z0F1200
G1 X90.586Y26.502Z0F1200
G1 X90.139Y26.417Z0F1200
G1 X89.201Y26.211Z0F1200
G1 X88.222Y25.968Z0F1200
G1 X87.228Y25.698Z0F1200
G1 X86.24Y25.412Z0F1200
G1 X85.285Y25.12Z0F1200
G1 X84.384Y24.833Z0F1200
G1 X83.962Y24.695Z0F1200
G1 X83.189Y24.436Z0F1200
G1 X82.53Y24.208Z0F1200
G1 X82.01Y24.023Z0F1200
G1 X81.809Y23.949Z0F1200
G1 X81.549Y24.106Z0F1200
G1 X81.336Y24.28Z0F1200
G1 X81.166Y24.468Z0F1200
G1 X81.036Y24.671Z0F1200
G1 X80.946Y24.887Z0F1200
G1 X80.891Y25.116Z0F1200
G1 X80.871Y25.356Z0F1200
G1 X80.881Y25.607Z0F1200
G1 X80.921Y25.868Z0F1200
G1 X80.987Y26.139Z0F1200
G1 X81.078Y26.417Z0F1200
G1 X81.191Y26.703Z0F1200
G1 X81.473Y27.292Z0F1200
G1 X81.813Y27.901Z0F1200
G1 X82.597Y29.146Z0F1200
G1 X83.389Y30.38Z0F1200
G1 X83.74Y30.977Z0F1200
G1 X84.037Y31.549Z0F1200
G1 X84.158Y31.824Z0F1200
G1 X84.259Y32.091Z0F1200
