
G0 Z10 F500;      ; Move to clearance level - Z motion limited to 500
; G0 X-10 Y-10 F1200; Homing
; G0 X-5 Y-5 F1200; go in
; G10 P0 L20 X0 Y0; set to zero
G1 F1200;           ; Set feed rate to 1000
;LightBurn 1.6.04
;Custom GCode device profile, absolute coords
;Bounds: X4.44 Y13.48 to X121.7 Y79.61
G00 G17 G40 G21 G54
G90
M3
G1 Z10 F500
;Cut @ 1200 mm/min, 90% power

M8

; Washing sequence (no color)
G1 Z10 F1000;        ; Raise brush to safe height
G0 X2 Y0 F1200;     ; Rapid move to brush cleaning position
G1 Z0 F500;         ; Lower brush for cleaning - controlled movement
G1 Z10 F500;         ; Raise brush slightly - controlled movement
G1 Z0 F500;         ; Lower brush for cleaning - controlled movement
G1 Z2 F500;         ; Raise brush slightly - controlled movement
G1 X22 Y0 Z8 F500;     ; Move across cleaning area - controlled movement
G1 Z10 F500;         ; Maintain brush height - controlled movement
G1 X2 Y0 Z8 F1000;     ; Move across cleaning area - controlled movement
G1 Z10 F500;         ; Maintain brush height - controlled movement
G0 X2 Y0 F1200;     ; Rapid move to brush cleaning position
G1 Z0 F500;         ; Lower brush for cleaning - controlled movement
G1 Z10 F500;         ; Raise brush slightly - controlled movement
G1 Z0 F500;         ; Lower brush for cleaning - controlled movement
G1 Z2 F500;         ; Raise brush slightly - controlled movement
G1 X22 Y0 Z8 F500;     ; Move across cleaning area - controlled movement
G1 Z10 F500;         ; Maintain brush height - controlled movement
G1 X2 Y0 Z8 F1000;     ; Move across cleaning area - controlled movement
G1 Z10 F500;         ; Maintain brush height - controlled movement
G1 F1200;           ; Set feed rate to 1000

; Color 1 picking sequence
G1 Z10 F500;         ; Raise brush to safe height
;G0 X2 Y0 F1000;     ; Rapid move to brush cleaning position
;G1 Z0 F500;         ; Lower brush for cleaning - controlled movement
;G1 Z2 F500;         ; Raise brush slightly - controlled movement
;G1 X22 Y0 Z8 F800;     ; Move across cleaning area - controlled movement
;G1 Z8 F500;         ; Maintain brush height - controlled movement
G0 X85 Y0 F1200;    ; Rapid move to color 1 position
G1 Z0 F500;         ; Lower into color - controlled movement
G1 X79 Y1 F500;     ; Small movement in paint - controlled movement
G1 Z7 F500;         ; Raise from color - controlled movement
G1 X82 Y1 F500;     ; Movement in paint - controlled movement
G1 Z1 F500;         ; Lower slightly - controlled movement
G1 X71 Y10 Z10 F500;     ; Move in paint - controlled movement
;G1 Z8 F500;         ; Raise brush - controlled movement
G1 F1200;           ; Set feed rate to 1000
G0 Z1.2F500
G0 X6.781Y13.482Z1.2F1500
G1 Z0F500
;Layer Blue
G1 X6.948Y13.923Z0S900F1200
G0 Z1.2F500
G0 X8.462Y13.482Z1.2F1500
G1 Z0F500
G1 X8.794Y13.923Z0F1200
G0 Z1.2F500
G0 X9.289Y13.729Z1.2F1500
G1 Z0F500
G1 X9.73Y13.676Z0F1200
G0 Z1.2F500
G0 X9.859Y13.923Z1.2F1500
G1 Z0F500
G1 X10.041Y13.482Z0F1200
G0 Z1.2F500
G0 X10.758Z1.2F1500
G1 Z0F500
G1 X10.905Y13.923Z0F1200
G0 Z1.2F500
G0 X11.052Y14.021Z1.2F1500
G1 Z0F500
G1 X10.612Y14.265Z0F1200
G0 Z1.2F500
G0 X11.052Y14.164Z1.2F1500
G1 Z0F500
G1 X11.493Y14.123Z0F1200
G0 Z1.2F500
G0 Y13.974Z1.2F1500
G1 Z0F500
G1 X11.934Y14.312Z0F1200
G0 Z1.2F500
G0 Y14.412Z1.2F1500
G1 Z0F500
G1 X11.493Y14.756Z0F1200
G0 Z1.2F500
G0 X11.902Y14.805Z1.2F1500
G1 Z0F500
G1 X11.526Y15.245Z0F1200
G0 Z1.2F500
G0 X11.934Y15.627Z1.2F1500
G1 Z0F500
G1 X12.375Y15.304Z0F1200
G0 Z1.2F500
G0 X12.557Y15.245Z1.2F1500
G1 Z0F500
G1 X12.633Y15.686Z0F1200
G0 Z1.2F500
G0 X12.375Y15.791Z1.2F1500
G1 Z0F500
G1 X11.934Y16.023Z0F1200
G0 Z1.2F500
G0 X12.131Y16.127Z1.2F1500
G1 Z0F500
G1 X12.178Y16.568Z0F1200
G0 Z1.2F500
G0 X12.375Y16.768Z1.2F1500
G1 Z0F500
G1 X11.934Y16.809Z0F1200
G0 Z1.2F500
G0 Y17.009Z1.2F1500
G1 Z0F500
G1 X12.375Y17.45Z0F1200
G0 Z1.2F500
G0 X11.934Y17.291Z1.2F1500
G1 Z0F500
G1 X11.493Y17.167Z0F1200
G0 Z1.2F500
G0 X11.052Y16.862Z1.2F1500
G1 Z0F500
G1 X10.612Y16.715Z0F1200
G0 Z1.2F500
G0 X11.49Y16.568Z1.2F1500
G1 Z0F500
G1 X11.055Y16.127Z0F1200
G0 Z1.2F500
G0 X10.957Y15.686Z1.2F1500
G1 Z0F500
G1 X10.707Y15.245Z0F1200
G0 Z1.2F500
G0 X9.887Z1.2F1500
G1 Z0F500
G1 X10.013Y14.805Z0F1200
G0 Z1.2F500
G0 X10.028Z1.2F1500
G1 Z0F500
G1 X9.872Y14.364Z0F1200
G0 Z1.2F500
G0 X8.958Z1.2F1500
G1 Z0F500
G1 X9.179Y14.805Z0F1200
G0 Z1.2F500
G0 X9.073Z1.2F1500
G1 Z0F500
G1 X9.064Y15.245Z0F1200
G0 Z1.2F500
G0 X9.289Y15.464Z1.2F1500
G1 Z0F500
G1 X9.73Y15.467Z0F1200
G0 Z1.2F500
G0 X9.396Y15.686Z1.2F1500
G1 Z0F500
G1 X9.623Y16.127Z0F1200
G0 Z1.2F500
G0 X9.07Z1.2F1500
G1 Z0F500
G1 X9.067Y15.686Z0F1200
G0 Z1.2F500
G0 X8.407Y15.879Z1.2F1500
G1 Z0F500
G1 X7.967Y15.935Z0F1200
G0 Z1.2F500
G0 X7.085Y15.704Z1.2F1500
G1 Z0F500
G1 X6.644Y16.109Z0F1200
G0 Z1.2F500
G0 X8.205Y16.568Z1.2F1500
G1 Z0F500
G1 X8.169Y17.009Z0F1200
G0 Z1.2F500
G0 X8.356Z1.2F1500
G1 Z0F500
G1 X8.018Y17.45Z0F1200
G0 Z1.2F500
G0 X7.967Y17.483Z1.2F1500
G1 Z0F500
G1 X8.407Y17.857Z0F1200
G0 Z1.2F500
G0 X8.128Y17.89Z1.2F1500
G1 Z0F500
G1 X8.246Y18.331Z0F1200
G0 Z1.2F500
G0 X8.465Z1.2F1500
G1 Z0F500
G1 X8.791Y17.89Z0F1200
G0 Z1.2F500
G0 X9.289Y17.836Z1.2F1500
G1 Z0F500
G1 X8.848Y17.504Z0F1200
G0 Z1.2F500
G0 X8.891Y17.45Z1.2F1500
G1 Z0F500
G1 X9.246Y17.009Z0F1200
G0 Z1.2F500
G0 X9.289Y17.097Z1.2F1500
G1 Z0F500
G1 X9.73Y17.361Z0F1200
G0 Z1.2F500
G0 X9.689Y17.45Z1.2F1500
G1 Z0F500
G1 X9.33Y17.89Z0F1200
G0 Z1.2F500
G0 X9.73Y17.956Z1.2F1500
G1 Z0F500
G1 X9.289Y18.265Z0F1200
G0 Z1.2F500
G0 X9.73Y17.973Z1.2F1500
G1 Z0F500
G1 X10.171Y18.249Z0F1200
G0 Z1.2F500
G0 X10.728Y18.331Z1.2F1500
G1 Z0F500
G1 X10.936Y17.89Z0F1200
G0 Z1.2F500
G0 X10.612Y17.795Z1.2F1500
G1 Z0F500
G1 X10.171Y17.545Z0F1200
G0 Z1.2F500
G0 X9.627Y17.009Z1.2F1500
G1 Z0F500
G1 X9.392Y16.568Z0F1200
G0 Z1.2F500
G0 X9.176Z1.2F1500
G1 Z0F500
G1 X8.961Y17.009Z0F1200
G0 Z1.2F500
G0 X8.751Z1.2F1500
G1 Z0F500
G1 X8.504Y16.568Z0F1200
G0 Z1.2F500
G0 X7.526Y17.558Z1.2F1500
G1 Z0F500
G1 X7.085Y17.782Z0F1200
G0 Z1.2F500
G0 Y17.591Z1.2F1500
G1 Z0F500
G1 X6.644Y17.749Z0F1200
G0 Z1.2F500
G0 X6.203Y17.999Z1.2F1500
G1 Z0F500
G1 X6.644Y18.222Z0F1200
G0 Z1.2F500
G0 Y18.593Z1.2F1500
G1 Z0F500
G1 X6.203Y18.51Z0F1200
G0 Z1.2F500
G0 X6.102Y18.772Z1.2F1500
G1 Z0F500
G1 X5.864Y18.331Z0F1200
G0 Z1.2F500
G0 X6.337Y19.213Z1.2F1500
G1 Z0F500
G1 X6.51Y19.654Z0F1200
G0 Z1.2F500
G0 X7.085Y19.707Z1.2F1500
G1 Z0F500
G1 X6.644Y20.042Z0F1200
G0 Z1.2F500
G0 X6.947Y20.976Z1.2F1500
G1 Z0F500
G1 X6.782Y21.417Z0F1200
G0 Z1.2F500
G0 X5.322Y21.817Z1.2F1500
G1 Z0F500
G1 X4.881Y21.458Z0F1200
G0 Z1.2F500
G0 X6.203Y22.478Z1.2F1500
G1 Z0F500
G1 X6.644Y22.56Z0F1200
G0 Z1.2F500
G0 X6.177Y22.739Z1.2F1500
G1 Z0F500
G1 X5.789Y23.18Z0F1200
G0 Z1.2F500
G0 X5.73Z1.2F1500
G1 Z0F500
G1 X5.354Y23.621Z0F1200
G0 Z1.2F500
G0 X6.678Y23.18Z1.2F1500
G1 Z0F500
G1 X7.051Y23.621Z0F1200
G0 Z1.2F500
G0 X7.967Y24.106Z1.2F1500
G1 Z0F500
G1 X8.407Y24.459Z0F1200
G0 Z1.2F500
G0 Y24.375Z1.2F1500
G1 Z0F500
G1 X8.848Y24.19Z0F1200
G0 Z1.2F500
G0 X9.047Y24.503Z1.2F1500
G1 Z0F500
G1 X9.091Y24.944Z0F1200
G0 Z1.2F500
G0 X9.73Y25.086Z1.2F1500
G1 Z0F500
G1 X10.171Y25.242Z0F1200
G0 Z1.2F500
G0 Y25.586Z1.2F1500
G1 Z0F500
G1 X10.612Y25.624Z0F1200
G0 Z1.2F500
G0 X10.781Y25.384Z1.2F1500
G1 Z0F500
G1 X10.883Y25.825Z0F1200
G0 Z1.2F500
G0 X11.352Y26.266Z1.2F1500
G1 Z0F500
G1 X11.193Y26.707Z0F1200
G0 Z1.2F500
G0 X11.493Y26.648Z1.2F1500
G1 Z0F500
G1 X11.934Y26.325Z0F1200
G0 Z1.2F500
G0 X12.423Y26.707Z1.2F1500
G1 Z0F500
G1 X12.767Y26.266Z0F1200
G0 Z1.2F500
G0 X12.816Y26.294Z1.2F1500
G1 Z0F500
G1 X13.257Y26.679Z0F1200
G0 Z1.2F500
G0 X13.12Y25.825Z1.2F1500
G1 Z0F500
G1 X12.952Y25.384Z0F1200
G0 Z1.2F500
G0 X12.816Y25.724Z1.2F1500
G1 Z0F500
G1 X12.375Y25.486Z0F1200
G0 Z1.2F500
G0 X12.157Y25.384Z1.2F1500
G1 Z0F500
G1 X12.152Y24.944Z0F1200
G0 Z1.2F500
G0 X11.674Z1.2F1500
G1 Z0F500
G1 X11.753Y25.384Z0F1200
G0 Z1.2F500
G0 X11.027Y24.944Z1.2F1500
G1 Z0F500
G1 X10.637Y24.503Z0F1200
G0 Z1.2F500
G0 X10.612Y24.432Z1.2F1500
G1 Z0F500
G1 X11.052Y24.132Z0F1200
G0 Z1.2F500
G0 X10.512Y24.062Z1.2F1500
G1 Z0F500
G1 X10.271Y24.503Z0F1200
G0 Z1.2F500
G0 X10.612Y24.588Z1.2F1500
G1 Z0F500
G1 X10.171Y24.858Z0F1200
G0 Z1.2F500
G0 X9.871Y24.062Z1.2F1500
G1 Z0F500
G1 X10.03Y23.621Z0F1200
G0 Z1.2F500
G0 X9.73Y23.602Z1.2F1500
G1 Z0F500
G1 X10.171Y23.199Z0F1200
G0 Z1.2F500
G0 X10.419Y23.18Z1.2F1500
G1 Z0F500
G1 X10.363Y23.621Z0F1200
G0 Z1.2F500
G0 X10.612Y23.722Z1.2F1500
G1 Z0F500
G1 X10.171Y23.961Z0F1200
G0 Z1.2F500
G0 X10.797Y23.621Z1.2F1500
G1 Z0F500
G1 X10.867Y23.18Z0F1200
G0 Z1.2F500
G0 X11.603Z1.2F1500
G1 Z0F500
G1 X11.824Y23.621Z0F1200
G0 Z1.2F500
G0 X12.409Y24.062Z1.2F1500
G1 Z0F500
G1 X12.782Y23.621Z0F1200
G0 Z1.2F500
G0 X13.361Z1.2F1500
G1 Z0F500
G1 X13.593Y23.18Z0F1200
G0 Z1.2F500
G0 X13.921Z1.2F1500
G1 Z0F500
G1 X13.915Y22.739Z0F1200
G0 Z1.2F500
G0 X13.697Y22.792Z1.2F1500
G1 Z0F500
G1 X13.257Y23.127Z0F1200
G0 Z1.2F500
G0 X12.584Y23.18Z1.2F1500
G1 Z0F500
G1 X12.607Y22.739Z0F1200
G0 Z1.2F500
G0 X11.493Y22.64Z1.2F1500
G1 Z0F500
G1 X11.052Y22.399Z0F1200
G0 Z1.2F500
G0 X11.493Y22.208Z1.2F1500
G1 Z0F500
G1 X11.934Y21.949Z0F1200
G0 Z1.2F500
G0 X11.921Y21.417Z1.2F1500
G1 Z0F500
G1 X11.506Y20.976Z0F1200
G0 Z1.2F500
G0 X11.493Y21.042Z1.2F1500
G1 Z0F500
G1 X11.052Y21.351Z0F1200
G0 Z1.2F500
G0 X11.934Y21.042Z1.2F1500
G1 Z0F500
G1 X12.375Y21.351Z0F1200
G0 Z1.2F500
G0 X12.816Y21.573Z1.2F1500
G1 Z0F500
G1 X13.257Y21.702Z0F1200
G0 Z1.2F500
G0 X14.138Y21.583Z1.2F1500
G1 Z0F500
G1 X14.579Y21.692Z0F1200
G0 Z1.2F500
G0 Y21.618Z1.2F1500
G1 Z0F500
G1 X15.02Y21.656Z0F1200
G0 Z1.2F500
G0 X14.579Y21.236Z1.2F1500
G1 Z0F500
G1 X14.138Y21.157Z0F1200
G0 Z1.2F500
G0 X13.697Y20.82Z1.2F1500
G1 Z0F500
G1 X13.257Y20.691Z0F1200
G0 Z1.2F500
G0 X13.794Y20.535Z1.2F1500
G1 Z0F500
G1 X14.041Y20.094Z0F1200
G0 Z1.2F500
G0 X14.138Y19.843Z1.2F1500
G1 Z0F500
G1 X14.579Y19.905Z0F1200
G0 Z1.2F500
G0 Y20.017Z1.2F1500
G1 Z0F500
G1 X15.02Y19.732Z0F1200
G0 Z1.2F500
G0 Y19.441Z1.2F1500
G1 Z0F500
G1 X14.579Y19.426Z0F1200
G0 Z1.2F500
G0 X14.413Y19.213Z1.2F1500
G1 Z0F500
G1 X14.304Y18.772Z0F1200
G0 Z1.2F500
G0 X13.697Z1.2F1500
G1 Z0F500
G1 X14.138Y19.213Z0F1200
G0 Z1.2F500
G0 X14.579Y19.157Z1.2F1500
G1 Z0F500
G1 X15.02Y18.828Z0F1200
G0 Z1.2F500
G0 X15.314Y18.772Z1.2F1500
G1 Z0F500
G1 X15.167Y19.213Z0F1200
G0 Z1.2F500
G0 X15.02Y19.358Z1.2F1500
G1 Z0F500
G1 X15.461Y19.508Z0F1200
G0 Z1.2F500
G0 X15.904Y19.654Z1.2F1500
G1 Z0F500
G1 X16.339Y20.094Z0F1200
G0 Z1.2F500
G0 X16.373Z1.2F1500
G1 Z0F500
G1 X16.752Y19.654Z0F1200
G0 Z1.2F500
G0 X16.924Z1.2F1500
G1 Z0F500
G1 X17.083Y19.213Z0F1200
G0 Z1.2F500
G0 X16.783Y19.438Z1.2F1500
G1 Z0F500
G1 X16.342Y19.429Z0F1200
G0 Z1.2F500
G0 Y19.642Z1.2F1500
G1 Z0F500
G1 X15.901Y19.225Z0F1200
G0 Z1.2F500
G0 Y18.998Z1.2F1500
G1 Z0F500
G1 X16.342Y18.987Z0F1200
G0 Z1.2F500
G0 Y19.023Z1.2F1500
G1 Z0F500
G1 X16.783Y18.962Z0F1200
G0 Z1.2F500
G0 Y18.613Z1.2F1500
G1 Z0F500
G1 X16.342Y18.49Z0F1200
G0 Z1.2F500
G0 X16.272Y18.772Z1.2F1500
G1 Z0F500
G1 X15.972Y18.331Z0F1200
G0 Z1.2F500
G0 X15.901Y18.037Z1.2F1500
G1 Z0F500
G1 X15.461Y18.184Z0F1200
G0 Z1.2F500
G0 Y18.259Z1.2F1500
G1 Z0F500
G1 X15.02Y17.962Z0F1200
G0 Z1.2F500
G0 Y17.667Z1.2F1500
G1 Z0F500
G1 X14.579Y17.673Z0F1200
G0 Z1.2F500
G0 Y17.407Z1.2F1500
G1 Z0F500
G1 X15.02Y17.051Z0F1200
G0 Z1.2F500
G0 X15.19Y17.009Z1.2F1500
G1 Z0F500
G1 X15.29Y16.568Z0F1200
G0 Z1.2F500
G0 X15.184Z1.2F1500
G1 Z0F500
G1 X15.296Y16.127Z0F1200
G0 Z1.2F500
G0 X15.309Z1.2F1500
G1 Z0F500
G1 X15.171Y15.686Z0F1200
G0 Z1.2F500
G0 X15.02Y15.505Z1.2F1500
G1 Z0F500
G1 X14.579Y15.426Z0F1200
G0 Z1.2F500
G0 X14.297Y15.245Z1.2F1500
G1 Z0F500
G1 X14.42Y15.686Z0F1200
G0 Z1.2F500
G0 X14.273Z1.2F1500
G1 Z0F500
G1 X14.444Y16.127Z0F1200
G0 Z1.2F500
G0 X14.652Z1.2F1500
G1 Z0F500
G1 X14.946Y16.568Z0F1200
G0 Z1.2F500
G0 X15.461Y16.317Z1.2F1500
G1 Z0F500
G1 X15.901Y16.378Z0F1200
G0 Z1.2F500
G0 X16.122Y16.568Z1.2F1500
G1 Z0F500
G1 Y16.127Z0F1200
G0 Z1.2F500
G0 X16Z1.2F1500
G1 Z0F500
G1 X16.244Y15.686Z0F1200
G0 Z1.2F500
G0 X16.342Y15.717Z1.2F1500
G1 Z0F500
G1 X16.783Y16.096Z0F1200
G0 Z1.2F500
G0 Y16.111Z1.2F1500
G1 Z0F500
G1 X17.224Y15.702Z0F1200
G0 Z1.2F500
G0 Y15.707Z1.2F1500
G1 Z0F500
G1 X17.665Y16.106Z0F1200
G0 Z1.2F500
G0 X17.868Y16.127Z1.2F1500
G1 Z0F500
G1 X17.903Y16.568Z0F1200
G0 Z1.2F500
G0 X18.106Y16.562Z1.2F1500
G1 Z0F500
G1 X18.546Y16.133Z0F1200
G0 Z1.2F500
G0 Y15.854Z1.2F1500
G1 Z0F500
G1 X18.106Y15.96Z0F1200
G0 Z1.2F500
G0 Y15.951Z1.2F1500
G1 Z0F500
G1 X17.665Y15.863Z0F1200
G0 Z1.2F500
G0 Y15.594Z1.2F1500
G1 Z0F500
G1 X17.224Y15.338Z0F1200
G0 Z1.2F500
G0 X17.218Y15.245Z1.2F1500
G1 Z0F500
G1 X16.789Y15.686Z0F1200
G0 Z1.2F500
G0 X16.538Z1.2F1500
G1 Z0F500
G1 X16.588Y15.245Z0F1200
G0 Z1.2F500
G0 X16.275Z1.2F1500
G1 Z0F500
G1 X15.969Y14.805Z0F1200
G0 Z1.2F500
G0 X16.062Z1.2F1500
G1 Z0F500
G1 X16.182Y14.364Z0F1200
G0 Z1.2F500
G0 X16.342Y14.47Z1.2F1500
G1 Z0F500
G1 X16.783Y14.699Z0F1200
G0 Z1.2F500
G0 X16.88Y14.805Z1.2F1500
G1 Z0F500
G1 X17.127Y15.245Z0F1200
G0 Z1.2F500
G0 X17.647Z1.2F1500
G1 Z0F500
G1 X17.242Y14.805Z0F1200
G0 Z1.2F500
G0 X17.333Z1.2F1500
G1 Z0F500
G1 X17.556Y14.364Z0F1200
G0 Z1.2F500
G0 X17.69Z1.2F1500
G1 Z0F500
G1 X18.081Y13.923Z0F1200
G0 Z1.2F500
G0 X17.691Z1.2F1500
G1 Z0F500
G1 X18.079Y13.482Z0F1200
G0 Z1.2F500
G0 X18.119Z1.2F1500
G1 Z0F500
G1 X18.533Y13.923Z0F1200
G0 Z1.2F500
G0 X18.546Y13.968Z1.2F1500
G1 Z0F500
G1 X18.106Y14.318Z0F1200
G0 Z1.2F500
G0 X17.997Y14.364Z1.2F1500
G1 Z0F500
G1 X17.774Y14.805Z0F1200
G0 Z1.2F500
G0 X18.106Y14.706Z1.2F1500
G1 Z0F500
G1 X18.546Y14.462Z0F1200
G0 Z1.2F500
G0 X18.696Y14.364Z1.2F1500
G1 Z0F500
G1 X18.837Y14.805Z0F1200
G0 Z1.2F500
G0 X18.546Y14.922Z1.2F1500
G1 Z0F500
G1 X18.987Y15.128Z0F1200
G0 Z1.2F500
G0 Y15.148Z1.2F1500
G1 Z0F500
G1 X19.428Y14.902Z0F1200
G0 Z1.2F500
G0 Y14.749Z1.2F1500
G1 Z0F500
G1 X18.987Y14.42Z0F1200
G0 Z1.2F500
G0 Y14.28Z1.2F1500
G1 Z0F500
G1 X18.546Y14.007Z0F1200
G0 Z1.2F500
G0 Y13.795Z1.2F1500
G1 Z0F500
G1 X18.987Y13.61Z0F1200
G0 Z1.2F500
G0 X19.365Y13.482Z1.2F1500
G1 Z0F500
G1 X19.05Y13.923Z0F1200
G0 Z1.2F500
G0 X19.137Z1.2F1500
G1 Z0F500
G1 X19.278Y14.364Z0F1200
G0 Z1.2F500
G0 X19.428Y14.365Z1.2F1500
G1 Z0F500
G1 X19.869Y14.803Z0F1200
G0 Z1.2F500
G0 Y14.832Z1.2F1500
G1 Z0F500
G1 X19.428Y15.217Z0F1200
G0 Z1.2F500
G0 X19.387Y15.245Z1.2F1500
G1 Z0F500
G1 X19.028Y15.686Z0F1200
G0 Z1.2F500
G0 X18.987Y15.911Z1.2F1500
G1 Z0F500
G1 X19.428Y15.902Z0F1200
G0 Z1.2F500
G0 Y16.058Z1.2F1500
G1 Z0F500
G1 X19.869Y15.755Z0F1200
G0 Z1.2F500
G0 Y15.826Z1.2F1500
G1 Z0F500
G1 X20.31Y15.987Z0F1200
G0 Z1.2F500
G0 Y15.886Z1.2F1500
G1 Z0F500
G1 X20.751Y15.927Z0F1200
G0 Z1.2F500
G0 Y16.051Z1.2F1500
G1 Z0F500
G1 X21.191Y15.763Z0F1200
G0 Z1.2F500
G0 Y15.67Z1.2F1500
G1 Z0F500
G1 X20.751Y15.262Z0F1200
G0 Z1.2F500
G0 Y15.35Z1.2F1500
G1 Z0F500
G1 X20.31Y15.582Z0F1200
G0 Z1.2F500
G0 Y15.461Z1.2F1500
G1 Z0F500
G1 X19.869Y15.47Z0F1200

; Color 1 picking sequence
G1 Z10 F500;         ; Raise brush to safe height
;G0 X2 Y0 F1000;     ; Rapid move to brush cleaning position
;G1 Z0 F500;         ; Lower brush for cleaning - controlled movement
;G1 Z2 F500;         ; Raise brush slightly - controlled movement
;G1 X22 Y0 Z8 F800;     ; Move across cleaning area - controlled movement
;G1 Z8 F500;         ; Maintain brush height - controlled movement
G0 X85 Y0 F1200;    ; Rapid move to color 1 position
G1 Z0 F500;         ; Lower into color - controlled movement
G1 X79 Y1 F500;     ; Small movement in paint - controlled movement
G1 Z7 F500;         ; Raise from color - controlled movement
G1 X82 Y1 F500;     ; Movement in paint - controlled movement
G1 Z1 F500;         ; Lower slightly - controlled movement
G1 X71 Y10 Z10 F500;     ; Move in paint - controlled movement
;G1 Z8 F500;         ; Raise brush - controlled movement
G1 F1200;           ; Set feed rate to 1000

; Return to drawing position
G0 X19.869 Y15.470 F1200;  ; Return to position with raised Z
G1 Z0 F500;                       ; Lower Z to drawing position
G0 Z1.2F500
G0 X19.906Y15.245Z1.2F1500
G1 Z0F500
G1 X20.273Y14.805Z0F1200
G0 Z1.2F500
G0 X20.31Y14.652Z1.2F1500
G1 Z0F500
G1 X20.751Y14.517Z0F1200
G0 Z1.2F500
G0 Y14.711Z1.2F1500
G1 Z0F500
G1 X21.191Y14.458Z0F1200
G0 Z1.2F500
G0 X21.255Y14.364Z1.2F1500
G1 Z0F500
G1 X21.569Y14.805Z0F1200
G0 Z1.2F500
G0 X21.3Z1.2F1500
G1 Z0F500
G1 X21.523Y15.245Z0F1200
G0 Z1.2F500
G0 X21.632Y15.204Z1.2F1500
G1 Z0F500
G1 X22.073Y14.846Z0F1200
G0 Z1.2F500
G0 X22.514Y14.896Z1.2F1500
G1 Z0F500
G1 X22.073Y15.154Z0F1200
G0 Z1.2F500
G0 X21.923Y15.245Z1.2F1500
G1 Z0F500
G1 X21.782Y15.686Z0F1200
G0 Z1.2F500
G0 X21.532Z1.2F1500
G1 Z0F500
G1 X21.291Y16.127Z0F1200
G0 Z1.2F500
G0 X21.091Z1.2F1500
G1 Z0F500
G1 X20.851Y16.568Z0F1200
G0 Z1.2F500
G0 X20.751Y16.597Z1.2F1500
G1 Z0F500
G1 X21.191Y16.979Z0F1200
G0 Z1.2F500
G0 X21.479Y17.009Z1.2F1500
G1 Z0F500
G1 X21.344Y16.568Z0F1200
G0 Z1.2F500
G0 X21.278Z1.2F1500
G1 Z0F500
G1 X21.546Y16.127Z0F1200
G0 Z1.2F500
G0 X21.632Y16.396Z1.2F1500
G1 Z0F500
G1 X22.073Y16.299Z0F1200
G0 Z1.2F500
G0 Y16.225Z1.2F1500
G1 Z0F500
G1 X22.514Y16.469Z0F1200
G0 Z1.2F500
G0 Y16.511Z1.2F1500
G1 Z0F500
G1 X22.955Y16.184Z0F1200
G0 Z1.2F500
G0 X22.983Y16.127Z1.2F1500
G1 Z0F500
G1 X23.368Y15.686Z0F1200
G0 Z1.2F500
G0 X23.205Z1.2F1500
G1 Z0F500
G1 X23.146Y15.245Z0F1200
G0 Z1.2F500
G0 X23.396Y15.129Z1.2F1500
G1 Z0F500
G1 X23.836Y14.921Z0F1200
G0 Z1.2F500
G0 Y15.168Z1.2F1500
G1 Z0F500
G1 X24.277Y14.882Z0F1200
G0 Z1.2F500
G0 Y14.791Z1.2F1500
G1 Z0F500
G1 X23.836Y14.377Z0F1200
G0 Z1.2F500
G0 X23.775Y14.364Z1.2F1500
G1 Z0F500
G1 X23.457Y14.805Z0F1200
G0 Z1.2F500
G0 X23.396Y14.697Z1.2F1500
G1 Z0F500
G1 X22.955Y14.471Z0F1200
G0 Z1.2F500
G0 X22.947Y14.364Z1.2F1500
G1 Z0F500
G1 X22.521Y14.805Z0F1200
G0 Z1.2F500
G0 X22.752Z1.2F1500
G1 Z0F500
G1 X22.717Y15.245Z0F1200
G0 Z1.2F500
G0 X22.514Y15.379Z1.2F1500
G1 Z0F500
G1 X22.955Y15.552Z0F1200
G0 Z1.2F500
G0 X22.514Y15.741Z1.2F1500
G1 Z0F500
G1 X22.955Y16.073Z0F1200
G0 Z1.2F500
G0 X23.055Y16.127Z1.2F1500
G1 Z0F500
G1 X23.296Y16.568Z0F1200
G0 Z1.2F500
G0 X23.396Y16.646Z1.2F1500
G1 Z0F500
G1 X22.955Y16.931Z0F1200
G0 Z1.2F500
G0 Y17.01Z1.2F1500
G1 Z0F500
G1 X23.396Y17.448Z0F1200
G0 Z1.2F500
G0 X23.761Y17.45Z1.2F1500
G1 Z0F500
G1 X23.47Y17.009Z0F1200
G0 Z1.2F500
G0 X24.11Z1.2F1500
G1 Z0F500
G1 X24.004Y16.568Z0F1200
G0 Z1.2F500
G0 X24.277Y16.675Z1.2F1500
G1 Z0F500
G1 X24.718Y16.901Z0F1200
G0 Z1.2F500
G0 X24.721Y17.009Z1.2F1500
G1 Z0F500
G1 X25.156Y16.568Z0F1200
G0 Z1.2F500
G0 X25.159Y16.59Z1.2F1500
G1 Z0F500
G1 X25.6Y16.987Z0F1200
G0 Z1.2F500
G0 Y17.22Z1.2F1500
G1 Z0F500
G1 X25.159Y17.238Z0F1200
G0 Z1.2F500
G0 Y17.288Z1.2F1500
G1 Z0F500
G1 X24.718Y17.17Z0F1200
G0 Z1.2F500
G0 Y17.194Z1.2F1500
G1 Z0F500
G1 X24.277Y17.264Z0F1200
G0 Z1.2F500
G0 Y17.054Z1.2F1500
G1 Z0F500
G1 X23.836Y17.404Z0F1200
G0 Z1.2F500
G0 X23.923Y17.45Z1.2F1500
G1 Z0F500
G1 X24.191Y17.89Z0F1200
G0 Z1.2F500
G0 X24.277Y17.696Z1.2F1500
G1 Z0F500
G1 X24.718Y17.643Z0F1200
G0 Z1.2F500
G0 Y17.78Z1.2F1500
G1 Z0F500
G1 X25.159Y17.56Z0F1200
G0 Z1.2F500
G0 Y17.829Z1.2F1500
G1 Z0F500
G1 X25.6Y17.511Z0F1200
G0 Z1.2F500
G0 Y17.564Z1.2F1500
G1 Z0F500
G1 X26.041Y17.776Z0F1200
G0 Z1.2F500
G0 X26.226Y17.89Z1.2F1500
G1 Z0F500
G1 X26.296Y17.45Z0F1200
G0 Z1.2F500
G0 X26.633Z1.2F1500
G1 Z0F500
G1 X26.771Y17.89Z0F1200
G0 Z1.2F500
G0 X26.974Z1.2F1500
G1 Z0F500
G1 X27.312Y17.45Z0F1200
G0 Z1.2F500
G0 X27.363Y17.507Z1.2F1500
G1 Z0F500
G1 X27.804Y17.833Z0F1200
G0 Z1.2F500
G0 X27.724Y17.89Z1.2F1500
G1 Z0F500
G1 X27.442Y18.331Z0F1200
G0 Z1.2F500
G0 X27.275Z1.2F1500
G1 Z0F500
G1 X27.01Y18.772Z0F1200
G0 Z1.2F500
G0 X27.244Z1.2F1500
G1 Z0F500
G1 X27.041Y19.213Z0F1200
G0 Z1.2F500
G0 X27.363Y19.142Z1.2F1500
G1 Z0F500
G1 X27.804Y18.843Z0F1200
G0 Z1.2F500
G0 X28.173Y18.772Z1.2F1500
G1 Z0F500
G1 X27.876Y18.331Z0F1200
G0 Z1.2F500
G0 X27.794Z1.2F1500
G1 Z0F500
G1 X27.373Y18.772Z0F1200
G0 Z1.2F500
G0 X26.922Y18.622Z1.2F1500
G1 Z0F500
G1 X26.481Y18.481Z0F1200
G0 Z1.2F500
G0 Y18.541Z1.2F1500
G1 Z0F500
G1 X26.041Y18.562Z0F1200
G0 Z1.2F500
G0 X25.941Y18.331Z1.2F1500
G1 Z0F500
G1 X25.7Y17.89Z0F1200
G0 Z1.2F500
G0 X25.91Y18.331Z1.2F1500
G1 Z0F500
G1 X25.73Y18.772Z0F1200
G0 Z1.2F500
G0 X25.785Z1.2F1500
G1 Z0F500
G1 X25.855Y19.213Z0F1200
G0 Z1.2F500
G0 X26.041Y19.251Z1.2F1500
G1 Z0F500
G1 X26.481Y19.615Z0F1200
G0 Z1.2F500
G0 Y19.757Z1.2F1500
G1 Z0F500
G1 X26.041Y19.992Z0F1200
G0 Z1.2F500
G0 X25.945Y20.094Z1.2F1500
G1 Z0F500
G1 X25.695Y20.535Z0F1200
G0 Z1.2F500
G0 X26.041Y20.654Z1.2F1500
G1 Z0F500
G1 X25.6Y20.857Z0F1200
G0 Z1.2F500
G0 X25.262Y20.976Z1.2F1500
G1 Z0F500
G1 X25.497Y21.417Z0F1200
G0 Z1.2F500
G0 X25.6Y21.654Z1.2F1500
G1 Z0F500
G1 X25.159Y21.621Z0F1200
G0 Z1.2F500
G0 X25.241Y21.858Z1.2F1500
G1 Z0F500
G1 X25.517Y22.299Z0F1200
G0 Z1.2F500
G0 X25.6Y22.559Z1.2F1500
G1 Z0F500
G1 X25.159Y22.479Z0F1200
G0 Z1.2F500
G0 X24.718Y22.278Z1.2F1500
G1 Z0F500
G1 X25.159Y21.878Z0F1200
G0 Z1.2F500
G0 X25.6Y21.936Z1.2F1500
G1 Z0F500
G1 X26.041Y22.221Z0F1200
G0 Z1.2F500
G0 X26.121Y22.299Z1.2F1500
G1 Z0F500
G1 X26.401Y22.739Z0F1200
G0 Z1.2F500
G0 X26.5Z1.2F1500
G1 Z0F500
G1 X26.903Y22.299Z0F1200
G0 Z1.2F500
G0 X26.922Y22.287Z1.2F1500
G1 Z0F500
G1 X27.363Y21.87Z0F1200
G0 Z1.2F500
G0 Y21.612Z1.2F1500
G1 Z0F500
G1 X26.922Y21.662Z0F1200
G0 Z1.2F500
G0 X26.672Y21.858Z1.2F1500
G1 Z0F500
G1 X26.731Y21.417Z0F1200
G0 Z1.2F500
G0 X26.452Z1.2F1500
G1 Z0F500
G1 X26.07Y21.858Z0F1200
G0 Z1.2F500
G0 X26.922Y22.325Z1.2F1500
G1 Z0F500
G1 X27.363Y22.713Z0F1200
G0 Z1.2F500
G0 X27.513Y22.739Z1.2F1500
G1 Z0F500
G1 X27.654Y22.299Z0F1200
G0 Z1.2F500
G0 X28.221Z1.2F1500
G1 Z0F500
G1 X27.827Y21.858Z0F1200
G0 Z1.2F500
G0 X28.133Y21.417Z1.2F1500
G1 Z0F500
G1 X27.915Y20.976Z0F1200
G0 Z1.2F500
G0 X27.782Z1.2F1500
G1 Z0F500
G1 X27.385Y21.417Z0F1200
G0 Z1.2F500
G0 X27.168Z1.2F1500
G1 Z0F500
G1 X27.118Y20.976Z0F1200
G0 Z1.2F500
G0 X26.922Y20.92Z1.2F1500
G1 Z0F500
G1 X27.363Y20.591Z0F1200
G0 Z1.2F500
G0 X27.695Y20.535Z1.2F1500
G1 Z0F500
G1 X27.472Y20.094Z0F1200
G0 Z1.2F500
G0 X27.363Y20.028Z1.2F1500
G1 Z0F500
G1 X26.922Y19.72Z0F1200
G0 Z1.2F500
G0 X26.744Y19.654Z1.2F1500
G1 Z0F500
G1 X26.659Y19.213Z0F1200
G0 Z1.2F500
G0 X26.481Y18.997Z1.2F1500
G1 Z0F500
G1 X26.041Y18.988Z0F1200
G0 Z1.2F500
G0 X25.6Y18.788Z1.2F1500
G1 Z0F500
G1 X25.159Y19.197Z0F1200
G0 Z1.2F500
G0 X25.263Y19.213Z1.2F1500
G1 Z0F500
G1 X25.495Y19.654Z0F1200
G0 Z1.2F500
G0 X25.6Y19.789Z1.2F1500
G1 Z0F500
G1 X25.159Y19.959Z0F1200
G0 Z1.2F500
G0 X25.6Y19.892Z1.2F1500
G1 Z0F500
G1 X26.041Y19.856Z0F1200
G0 Z1.2F500
G0 X25.6Y20.268Z1.2F1500
G1 Z0F500
G1 X25.159Y20.362Z0F1200
G0 Z1.2F500
G0 X24.58Y20.094Z1.2F1500
G1 Z0F500
G1 X24.415Y20.535Z0F1200
G0 Z1.2F500
G0 X24.277Y20.757Z1.2F1500
G1 Z0F500
G1 X24.718Y20.754Z0F1200
G0 Z1.2F500
G0 X24.088Y20.976Z1.2F1500
G1 Z0F500
G1 X24.026Y21.417Z0F1200
G0 Z1.2F500
G0 X23.836Y21.457Z1.2F1500
G1 Z0F500
G1 X24.277Y21.818Z0F1200
G0 Z1.2F500
G0 Y21.887Z1.2F1500
G1 Z0F500
G1 X23.836Y22.269Z0F1200
G0 Z1.2F500
G0 Y22.29Z1.2F1500
G1 Z0F500
G1 X23.396Y21.867Z0F1200
G0 Z1.2F500
G0 X23.181Y21.858Z1.2F1500
G1 Z0F500
G1 X23.169Y21.417Z0F1200
G0 Z1.2F500
G0 X22.997Z1.2F1500
G1 Z0F500
G1 X23.353Y20.976Z0F1200
G0 Z1.2F500
G0 X23.582Z1.2F1500
G1 Z0F500
G1 X23.65Y20.535Z0F1200
G0 Z1.2F500
G0 X23.606Z1.2F1500
G1 Z0F500
G1 X23.626Y20.094Z0F1200
G0 Z1.2F500
G0 X23.491Z1.2F1500
G1 Z0F500
G1 X23.741Y19.654Z0F1200
G0 Z1.2F500
G0 X23.836Y19.699Z1.2F1500
G1 Z0F500
G1 X24.277Y20.049Z0F1200
G0 Z1.2F500
G0 X24.135Y20.094Z1.2F1500
G1 Z0F500
G1 X23.979Y20.535Z0F1200
G0 Z1.2F500
G0 X23.396Y20.765Z1.2F1500
G1 Z0F500
G1 X22.955Y20.747Z0F1200
G0 Z1.2F500
G0 Y20.662Z1.2F1500
G1 Z0F500
G1 X22.514Y20.85Z0F1200
G0 Z1.2F500
G0 X22.593Y20.976Z1.2F1500
G1 Z0F500
G1 X22.875Y21.417Z0F1200
G0 Z1.2F500
G0 X22.518Z1.2F1500
G1 Z0F500
G1 X22.95Y21.858Z0F1200
G0 Z1.2F500
G0 X22.724Z1.2F1500
G1 Z0F500
G1 X22.745Y22.299Z0F1200
G0 Z1.2F500
G0 X22.955Y22.319Z1.2F1500
G1 Z0F500
G1 X23.396Y22.719Z0F1200
G0 Z1.2F500
G0 X23.822Y22.739Z1.2F1500
G1 Z0F500
G1 X23.41Y22.299Z0F1200
G0 Z1.2F500
G0 X23.396Y22.108Z1.2F1500
G1 Z0F500
G1 X22.955Y22.049Z0F1200
G0 Z1.2F500
G0 X22.514Y22.269Z1.2F1500
G1 Z0F500
G1 X22.073Y21.887Z0F1200
G0 Z1.2F500
G0 Y21.939Z1.2F1500
G1 Z0F500
G1 X21.632Y22.218Z0F1200
G0 Z1.2F500
G0 X21.618Y22.299Z1.2F1500
G1 Z0F500
G1 X21.206Y21.858Z0F1200
G0 Z1.2F500
G0 X21.25Z1.2F1500
G1 Z0F500
G1 X21.573Y21.417Z0F1200
G0 Z1.2F500
G0 X21.632Y21.188Z1.2F1500
G1 Z0F500
G1 X22.073Y21.205Z0F1200
G0 Z1.2F500
G0 Y21.13Z1.2F1500
G1 Z0F500
G1 X22.514Y21.263Z0F1200
G0 Z1.2F500
G0 Y21.487Z1.2F1500
G1 Z0F500
G1 X22.073Y21.787Z0F1200
G0 Z1.2F500
G0 X21.669Y21.858Z1.2F1500
G1 Z0F500
G1 X22.036Y21.417Z0F1200
G0 Z1.2F500
G0 X21.881Y20.976Z1.2F1500
G1 Z0F500
G1 X21.825Y20.535Z0F1200
G0 Z1.2F500
G0 X21.632Y20.493Z1.2F1500
G1 Z0F500
G1 X21.191Y20.137Z0F1200
G0 Z1.2F500
G0 Y20.117Z1.2F1500
G1 Z0F500
G1 X20.751Y20.513Z0F1200
G0 Z1.2F500
G0 X20.665Y20.535Z1.2F1500
G1 Z0F500
G1 X20.395Y20.976Z0F1200
G0 Z1.2F500
G0 X20.31Y21.182Z1.2F1500
G1 Z0F500
G1 X20.751Y21.211Z0F1200
G0 Z1.2F500
G0 Y21.117Z1.2F1500
G1 Z0F500
G1 X21.191Y21.276Z0F1200
G0 Z1.2F500
G0 Y21.461Z1.2F1500
G1 Z0F500
G1 X20.751Y21.814Z0F1200
G0 Z1.2F500
G0 X20.466Y21.858Z1.2F1500
G1 Z0F500
G1 X20.595Y21.417Z0F1200
G0 Z1.2F500
G0 X20.294Z1.2F1500
G1 Z0F500
G1 X19.885Y20.976Z0F1200
G0 Z1.2F500
G0 X19.869Y21.053Z1.2F1500
G1 Z0F500
G1 X19.428Y21.341Z0F1200
G0 Z1.2F500
G0 Y21.317Z1.2F1500
G1 Z0F500
G1 X18.987Y21.076Z0F1200
G0 Z1.2F500
G0 Y21.033Z1.2F1500
G1 Z0F500
G1 X18.546Y21.36Z0F1200
G0 Z1.2F500
G0 X18.708Y20.976Z1.2F1500
G1 Z0F500
G1 X18.826Y20.535Z0F1200
G0 Z1.2F500
G0 X18.546Y20.531Z1.2F1500
G1 Z0F500
G1 X18.106Y20.099Z0F1200
G0 Z1.2F500
G0 Y19.823Z1.2F1500
G1 Z0F500
G1 X18.546Y19.925Z0F1200
G0 Z1.2F500
G0 X18.64Y19.654Z1.2F1500
G1 Z0F500
G1 X18.893Y19.213Z0F1200
G0 Z1.2F500
G0 X18.976Z1.2F1500
G1 Z0F500
G1 X18.558Y18.772Z0F1200
G0 Z1.2F500
G0 X18.546Y18.629Z1.2F1500
G1 Z0F500
G1 X18.987Y18.474Z0F1200
G0 Z1.2F500
G0 X19.067Y18.331Z1.2F1500
G1 Z0F500
G1 X19.349Y17.89Z0F1200
G0 Z1.2F500
G0 X19.045Z1.2F1500
G1 Z0F500
G1 X19.371Y17.45Z0F1200
G0 Z1.2F500
G0 X19.428Y17.276Z1.2F1500
G1 Z0F500
G1 X18.987Y17.182Z0F1200
G0 Z1.2F500
G0 X18.965Y17.009Z1.2F1500
G1 Z0F500
G1 X18.568Y17.45Z0F1200
G0 Z1.2F500
G0 X18.588Z1.2F1500
G1 Z0F500
G1 X18.946Y17.89Z0F1200
G0 Z1.2F500
G0 X18.67Z1.2F1500
G1 Z0F500
G1 X18.864Y18.331Z0F1200
G0 Z1.2F500
G0 X19.093Z1.2F1500
G1 Z0F500
G1 X19.322Y18.772Z0F1200
G0 Z1.2F500
G0 X19.239Z1.2F1500
G1 Z0F500
G1 X19.177Y19.213Z0F1200
G0 Z1.2F500
G0 X19.428Y19.338Z1.2F1500
G1 Z0F500
G1 X18.987Y19.529Z0F1200
G0 Z1.2F500
G0 X18.546Y19.61Z1.2F1500
G1 Z0F500
G1 X18.106Y19.257Z0F1200
G0 Z1.2F500
G0 X17.86Y19.213Z1.2F1500
G1 Z0F500
G1 X17.91Y19.654Z0F1200
G0 Z1.2F500
G0 X17.685Y19.213Z1.2F1500
G1 Z0F500
G1 X18.085Y18.772Z0F1200
G0 Z1.2F500
G0 X17.913Z1.2F1500
G1 Z0F500
G1 X17.857Y18.331Z0F1200
G0 Z1.2F500
G0 X17.665Y18.341Z1.2F1500
G1 Z0F500
G1 X17.224Y18.762Z0F1200
G0 Z1.2F500
G0 X17.071Y18.331Z1.2F1500
G1 Z0F500
G1 X16.936Y17.89Z0F1200
G0 Z1.2F500
G0 X16.84Z1.2F1500
G1 Z0F500
G1 X17.167Y17.45Z0F1200
G0 Z1.2F500
G0 X17.046Z1.2F1500
G1 Z0F500
G1 X16.961Y17.009Z0F1200
G0 Z1.2F500
G0 X17.324Z1.2F1500
G1 Z0F500
G1 X17.565Y16.568Z0F1200
G0 Z1.2F500
G0 X17.665Y16.531Z1.2F1500
G1 Z0F500
G1 X17.224Y16.164Z0F1200
G0 Z1.2F500
G0 Y16.327Z1.2F1500
G1 Z0F500
G1 X16.783Y16.368Z0F1200
G0 Z1.2F500
G0 Y16.508Z1.2F1500
G1 Z0F500
G1 X16.342Y16.187Z0F1200
G0 Z1.2F500
G0 X16.038Y15.686Z1.2F1500
G1 Z0F500
G1 X16.206Y15.245Z0F1200
G0 Z1.2F500
G0 X16.342Y15.078Z1.2F1500
G1 Z0F500
G1 X16.783Y14.972Z0F1200
G0 Z1.2F500
G0 X17.099Y14.805Z1.2F1500
G1 Z0F500
G1 X16.908Y14.364Z0F1200
G0 Z1.2F500
G0 X17.224Y14.259Z1.2F1500
G1 Z0F500
G1 X16.783Y14.027Z0F1200
G0 Z1.2F500
G0 Y14.045Z1.2F1500
G1 Z0F500
G1 X16.342Y14.242Z0F1200
G0 Z1.2F500
G0 Y13.93Z1.2F1500
G1 Z0F500
G1 X15.901Y14.356Z0F1200
G0 Z1.2F500
G0 X15.703Y14.364Z1.2F1500
G1 Z0F500
G1 X15.659Y14.805Z0F1200
G0 Z1.2F500
G0 X15.461Y14.969Z1.2F1500
G1 Z0F500
G1 X15.901Y15.081Z0F1200
G0 Z1.2F500
G0 X15.452Y15.245Z1.2F1500
G1 Z0F500
G1 X15.029Y14.805Z0F1200
G0 Z1.2F500
G0 X15.315Z1.2F1500
G1 Z0F500
G1 X15.165Y14.364Z0F1200
G0 Z1.2F500
G0 X15.02Y14.258Z1.2F1500
G1 Z0F500
G1 X14.579Y14.029Z0F1200
G0 Z1.2F500
G0 X14.519Y13.923Z1.2F1500
G1 Z0F500
G1 X14.198Y13.482Z0F1200
G0 Z1.2F500
G0 X14.006Z1.2F1500
G1 Z0F500
G1 X13.83Y13.923Z0F1200
G0 Z1.2F500
G0 X13.853Z1.2F1500
G1 Z0F500
G1 X13.982Y14.364Z0F1200

; Color 1 picking sequence
G1 Z10 F500;         ; Raise brush to safe height
;G0 X2 Y0 F1000;     ; Rapid move to brush cleaning position
;G1 Z0 F500;         ; Lower brush for cleaning - controlled movement
;G1 Z2 F500;         ; Raise brush slightly - controlled movement
;G1 X22 Y0 Z8 F800;     ; Move across cleaning area - controlled movement
;G1 Z8 F500;         ; Maintain brush height - controlled movement
G0 X85 Y0 F1200;    ; Rapid move to color 1 position
G1 Z0 F500;         ; Lower into color - controlled movement
G1 X79 Y1 F500;     ; Small movement in paint - controlled movement
G1 Z7 F500;         ; Raise from color - controlled movement
G1 X82 Y1 F500;     ; Movement in paint - controlled movement
G1 Z1 F500;         ; Lower slightly - controlled movement
G1 X71 Y10 Z10 F500;     ; Move in paint - controlled movement
;G1 Z8 F500;         ; Raise brush - controlled movement
G1 F1200;           ; Set feed rate to 1000

; Return to drawing position
G0 X13.982 Y14.364 F1200;  ; Return to position with raised Z
G1 Z0 F500;                       ; Lower Z to drawing position
G0 Z1.2F500
G0 X13.881Z1.2F1500
G1 Z0F500
G1 X13.954Y14.805Z0F1200
G0 Z1.2F500
G0 X14.185Z1.2F1500
G1 Z0F500
G1 X14.532Y14.364Z0F1200
G0 Z1.2F500
G0 X14.461Z1.2F1500
G1 Z0F500
G1 X14.256Y13.923Z0F1200
G0 Z1.2F500
G0 X13.646Z1.2F1500
G1 Z0F500
G1 X13.308Y13.482Z0F1200
G0 Z1.2F500
G0 X13.024Z1.2F1500
G1 Z0F500
G1 X13.048Y13.923Z0F1200
G0 Z1.2F500
G0 X12.989Z1.2F1500
G1 Z0F500
G1 X13.083Y14.364Z0F1200
G0 Z1.2F500
G0 X13.358Z1.2F1500
G1 Z0F500
G1 X13.596Y13.923Z0F1200
G0 Z1.2F500
G0 X13.257Y14.511Z1.2F1500
G1 Z0F500
G1 X12.816Y14.658Z0F1200
G0 Z1.2F500
G0 X13.043Y14.805Z1.2F1500
G1 Z0F500
G1 X13.029Y15.245Z0F1200
G0 Z1.2F500
G0 X13.071Z1.2F1500
G1 Z0F500
G1 X13.001Y15.686Z0F1200
G0 Z1.2F500
G0 X13.257Y15.638Z1.2F1500
G1 Z0F500
G1 X13.697Y15.294Z0F1200
G0 Z1.2F500
G0 Y15.334Z1.2F1500
G1 Z0F500
G1 X14.138Y15.598Z0F1200
G0 Z1.2F500
G0 X14.691Y14.805Z1.2F1500
G1 Z0F500
G1 X14.908Y14.364Z0F1200
G0 Z1.2F500
G0 X15.406Z1.2F1500
G1 Z0F500
G1 X15.074Y13.923Z0F1200
G0 Z1.2F500
G0 X14.979Z1.2F1500
G1 Z0F500
G1 X14.62Y13.482Z0F1200
G0 Z1.2F500
G0 X15.02Y13.811Z1.2F1500
G1 Z0F500
G1 X15.461Y13.594Z0F1200
G0 Z1.2F500
G0 X15.809Y13.482Z1.2F1500
G1 Z0F500
G1 X15.553Y13.923Z0F1200
G0 Z1.2F500
G0 X15.916Z1.2F1500
G1 Z0F500
G1 X16.328Y13.482Z0F1200
G0 Z1.2F500
G0 X16.447Z1.2F1500
G1 Z0F500
G1 X16.679Y13.923Z0F1200
G0 Z1.2F500
G0 X16.783Y13.617Z1.2F1500
G1 Z0F500
G1 X17.224Y13.788Z0F1200
G0 Z1.2F500
G0 Y13.639Z1.2F1500
G1 Z0F500
G1 X17.665Y13.766Z0F1200
G0 Z1.2F500
G0 Y14.076Z1.2F1500
G1 Z0F500
G1 X17.224Y14.211Z0F1200
G0 Z1.2F500
G0 X15.901Y14.065Z1.2F1500
G1 Z0F500
G1 X15.461Y14.221Z0F1200
G0 Z1.2F500
G0 X13.697Y14.577Z1.2F1500
G1 Z0F500
G1 X13.257Y14.591Z0F1200
G0 Z1.2F500
G0 X12.816Y14.418Z1.2F1500
G1 Z0F500
G1 X12.375Y14.75Z0F1200
G0 Z1.2F500
G0 Y14.897Z1.2F1500
G1 Z0F500
G1 X12.816Y15.153Z0F1200
G0 Z1.2F500
G0 Y15.876Z1.2F1500
G1 Z0F500
G1 X12.375Y15.937Z0F1200
G0 Z1.2F500
G0 X13.257Y16.675Z1.2F1500
G1 Z0F500
G1 X12.816Y16.901Z0F1200
G0 Z1.2F500
G0 X13.308Y17.009Z1.2F1500
G1 Z0F500
G1 X13.646Y16.568Z0F1200
G0 Z1.2F500
G0 X13.697Y16.608Z1.2F1500
G1 Z0F500
G1 X14.138Y16.969Z0F1200
G0 Z1.2F500
G0 X13.304Y17.45Z1.2F1500
G1 Z0F500
G1 X13.65Y17.89Z0F1200
G0 Z1.2F500
G0 X13.02Y18.331Z1.2F1500
G1 Z0F500
G1 X13.052Y18.772Z0F1200
G0 Z1.2F500
G0 X12.35Z1.2F1500
G1 Z0F500
G1 X11.959Y19.213Z0F1200
G0 Z1.2F500
G0 X11.775Z1.2F1500
G1 Z0F500
G1 X11.652Y19.654Z0F1200
G0 Z1.2F500
G0 X11.493Y19.708Z1.2F1500
G1 Z0F500
G1 X11.052Y20.04Z0F1200
G0 Z1.2F500
G0 X10.904Y20.094Z1.2F1500
G1 Z0F500
G1 X10.76Y20.535Z0F1200
G0 Z1.2F500
G0 X11.052Y20.265Z1.2F1500
G1 Z0F500
G1 X11.493Y20.365Z0F1200
G0 Z1.2F500
G0 Y20.646Z1.2F1500
G1 Z0F500
G1 X11.934Y20.866Z0F1200
G0 Z1.2F500
G0 X12.069Y20.976Z1.2F1500
G1 Z0F500
G1 X12.24Y20.535Z0F1200
G0 Z1.2F500
G0 X11.958Y19.654Z1.2F1500
G1 Z0F500
G1 X12.351Y19.213Z0F1200
G0 Z1.2F500
G0 X12.375Y19.518Z1.2F1500
G1 Z0F500
G1 X12.816Y19.348Z0F1200
G0 Z1.2F500
G0 X11.408Y19.213Z1.2F1500
G1 Z0F500
G1 X11.138Y18.772Z0F1200
G0 Z1.2F500
G0 X10.801Z1.2F1500
G1 Z0F500
G1 X10.863Y19.213Z0F1200
G0 Z1.2F500
G0 X10.309Z1.2F1500
G1 Z0F500
G1 X10.473Y19.654Z0F1200
G0 Z1.2F500
G0 X10.612Y18.726Z1.2F1500
G1 Z0F500
G1 X11.052Y18.377Z0F1200
G0 Z1.2F500
G0 X11.627Y18.331Z1.2F1500
G1 Z0F500
G1 X11.8Y17.89Z0F1200
G0 Z1.2F500
G0 X11.934Y17.724Z1.2F1500
G1 Z0F500
G1 X11.493Y17.616Z0F1200
G0 Z1.2F500
G0 X12.347Y17.89Z1.2F1500
G1 Z0F500
G1 X11.962Y18.331Z0F1200
G0 Z1.2F500
G0 X9.028Y18.772Z1.2F1500
G1 Z0F500
G1 X9.11Y19.213Z0F1200
G0 Z1.2F500
G0 X9.289Y20.565Z1.2F1500
G1 Z0F500
G1 X8.848Y20.947Z0F1200
G0 Z1.2F500
G0 Y20.96Z1.2F1500
G1 Z0F500
G1 X8.407Y20.551Z0F1200
G0 Z1.2F500
G0 X9.289Y21.294Z1.2F1500
G1 Z0F500
G1 X9.73Y21.1Z0F1200
G0 Z1.2F500
G0 X8.848Y21.629Z1.2F1500
G1 Z0F500
G1 X8.407Y21.646Z0F1200
G0 Z1.2F500
G0 X8.901Y21.858Z1.2F1500
G1 Z0F500
G1 X9.236Y22.299Z0F1200
G0 Z1.2F500
G0 X8.043Y22.739Z1.2F1500
G1 Z0F500
G1 X8.331Y23.18Z0F1200
G0 Z1.2F500
G0 X7.085Y24.538Z1.2F1500
G1 Z0F500
G1 X6.644Y24.908Z0F1200
G0 Z1.2F500
G0 X7.085Y25.002Z1.2F1500
G1 Z0F500
G1 X6.644Y25.326Z0F1200
G0 Z1.2F500
G0 X7.085Y26.04Z1.2F1500
G1 Z0F500
G1 X7.526Y26.052Z0F1200
G0 Z1.2F500
G0 X8.087Y25.825Z1.2F1500
G1 Z0F500
G1 X8.287Y25.384Z0F1200
G0 Z1.2F500
G0 X8.31Y26.266Z1.2F1500
G1 Z0F500
G1 X8.064Y26.707Z0F1200
G0 Z1.2F500
G0 X7.413Z1.2F1500
G1 Z0F500
G1 X7.198Y27.148Z0F1200
G0 Z1.2F500
G0 X6.644Y27.472Z1.2F1500
G1 Z0F500
G1 X6.203Y27.264Z0F1200
G0 Z1.2F500
G0 Y27.301Z1.2F1500
G1 Z0F500
G1 X5.762Y27.436Z0F1200
G0 Z1.2F500
G0 Y27.524Z1.2F1500
G1 Z0F500
G1 X5.322Y27.212Z0F1200
G0 Z1.2F500
G0 X6.203Y27.615Z1.2F1500
G1 Z0F500
G1 X6.644Y28.003Z0F1200
G0 Z1.2F500
G0 X7.085Y28.16Z1.2F1500
G1 Z0F500
G1 X6.644Y28.339Z0F1200
G0 Z1.2F500
G0 X6.118Y28.029Z1.2F1500
G1 Z0F500
G1 X5.848Y28.47Z0F1200
G0 Z1.2F500
G0 X6.203Y29.043Z1.2F1500
G1 Z0F500
G1 X5.762Y29.22Z0F1200
G0 Z1.2F500
G0 X6.399Y29.352Z1.2F1500
G1 Z0F500
G1 X6.449Y29.793Z0F1200
G0 Z1.2F500
G0 X7.526Y30.682Z1.2F1500
G1 Z0F500
G1 X7.967Y31.108Z0F1200
G0 Z1.2F500
G0 X8.407Y31.033Z1.2F1500
G1 Z0F500
G1 X7.967Y30.757Z0F1200
G0 Z1.2F500
G0 X8.772Y31.115Z1.2F1500
G1 Z0F500
G1 X8.484Y31.556Z0F1200
G0 Z1.2F500
G0 X8.848Y31.937Z1.2F1500
G1 Z0F500
G1 X9.289Y31.616Z0F1200
G0 Z1.2F500
G0 X9.504Y31.997Z1.2F1500
G1 Z0F500
G1 X9.515Y32.438Z0F1200
G0 Z1.2F500
G0 X9.289Y32.389Z1.2F1500
G1 Z0F500
G1 X8.848Y32.045Z0F1200
G0 Z1.2F500
G0 X8.745Y31.997Z1.2F1500
G1 Z0F500
G1 X8.51Y32.438Z0F1200
G0 Z1.2F500
G0 X8.848Y33.43Z1.2F1500
G1 Z0F500
G1 X9.289Y33.65Z0F1200
G0 Z1.2F500
G0 X10.121Y33.76Z1.2F1500
G1 Z0F500
G1 X9.78Y34.201Z0F1200
G0 Z1.2F500
G0 X9.833Y35.083Z1.2F1500
G1 Z0F500
G1 X10.068Y35.523Z0F1200
G0 Z1.2F500
G0 X10.313Z1.2F1500
G1 Z0F500
G1 X10.469Y35.964Z0F1200
G0 Z1.2F500
G0 X10.553Y36.405Z1.2F1500
G1 Z0F500
G1 X10.23Y36.846Z0F1200
G0 Z1.2F500
G0 X10.413Z1.2F1500
G1 Z0F500
G1 X10.369Y37.287Z0F1200
G0 Z1.2F500
G0 X9.614Z1.2F1500
G1 Z0F500
G1 X9.405Y36.846Z0F1200
G0 Z1.2F500
G0 X9.596Z1.2F1500
G1 Z0F500
G1 X9.423Y36.405Z0F1200
G0 Z1.2F500
G0 X9.289Y36.039Z1.2F1500
G1 Z0F500
G1 X8.848Y36.33Z0F1200
G0 Z1.2F500
G0 X8.66Y36.405Z1.2F1500
G1 Z0F500
G1 X8.596Y35.964Z0F1200
G0 Z1.2F500
G0 X8.848Y35.886Z1.2F1500
G1 Z0F500
G1 X8.407Y35.601Z0F1200
G0 Z1.2F500
G0 X8.848Y35.432Z1.2F1500
G1 Z0F500
G1 X9.289Y35.174Z0F1200
G0 Z1.2F500
G0 X8.407Y34.679Z1.2F1500
G1 Z0F500
G1 X7.967Y35.046Z0F1200
G0 Z1.2F500
G0 X8.166Y34.642Z1.2F1500
G1 Z0F500
G1 X8.208Y34.201Z0F1200
G0 Z1.2F500
G0 X7.526Y33.604Z1.2F1500
G1 Z0F500
G1 X7.085Y33.475Z0F1200
G0 Z1.2F500
G0 X5.618Y33.319Z1.2F1500
G1 Z0F500
G1 X5.466Y32.878Z0F1200
G0 Z1.2F500
G0 X4.58Y31.997Z1.2F1500
G1 Z0F500
G1 X4.741Y31.556Z0F1200
G0 Z1.2F500
G0 X4.487Z1.2F1500
G1 Z0F500
G1 X4.834Y31.115Z0F1200
G0 Z1.2F500
G0 X4.44Y28.768Z1.2F1500
G1 Z0F500
G1 X4.881Y28.613Z0F1200
G0 Z1.2F500
G0 X7.676Y28.47Z1.2F1500
G1 Z0F500
G1 X7.817Y28.911Z0F1200
G0 Z1.2F500
G0 X7.967Y28.824Z1.2F1500
G1 Z0F500
G1 X8.407Y28.557Z0F1200
G0 Z1.2F500
G0 X8.488Y28.47Z1.2F1500
G1 Z0F500
G1 X8.767Y28.911Z0F1200
G0 Z1.2F500
G0 Z1.2F1500
G1 Z0F500
G1 X8.488Y29.352Z0F1200
G0 Z1.2F500
G0 X7.993Y28.47Z1.2F1500
G1 Z0F500
G1 X8.381Y28.029Z0F1200
G0 Z1.2F500
G0 X8.591Y27.589Z1.2F1500
G1 Z0F500
G1 X8.665Y27.148Z0F1200
G0 Z1.2F500
G0 X8.848Y27.104Z1.2F1500
G1 Z0F500
G1 X9.289Y26.751Z0F1200
G0 Z1.2F500
G0 X9.448Y26.707Z1.2F1500
G1 Z0F500
G1 X9.571Y26.266Z0F1200
G0 Z1.2F500
G0 X10.155Z1.2F1500
G1 Z0F500
G1 X9.746Y25.825Z0F1200
G0 Z1.2F500
G0 X10.612Y27.264Z1.2F1500
G1 Z0F500
G1 X11.052Y27.472Z0F1200
G0 Z1.2F500
G0 Y27.446Z1.2F1500
G1 Z0F500
G1 X11.493Y27.29Z0F1200
G0 Z1.2F500
G0 X12.375Y27.615Z1.2F1500
G1 Z0F500
G1 X11.934Y28.003Z0F1200
G0 Z1.2F500
G0 X11.052Y28.576Z1.2F1500
G1 Z0F500
G1 X10.612Y28.805Z0F1200
G0 Z1.2F500
G0 Y30Z1.2F1500
G1 Z0F500
G1 X10.171Y30.026Z0F1200
G0 Z1.2F500
G0 X10.612Y30.239Z1.2F1500
G1 Z0F500
G1 X10.171Y30.668Z0F1200
G0 Z1.2F500
G0 X10.006Y30.674Z1.2F1500
G1 Z0F500
G1 X9.894Y31.115Z0F1200
G0 Z1.2F500
G0 X9.23Y30.674Z1.2F1500
G1 Z0F500
G1 X8.907Y31.115Z0F1200
G0 Z1.2F500
G0 X10.612Y30.698Z1.2F1500
G1 Z0F500
G1 X11.052Y31.092Z0F1200
G0 Z1.2F500
G0 X10.612Y30.513Z1.2F1500
G1 Z0F500
G1 X11.052Y30.395Z0F1200
G0 Z1.2F500
G0 X11.493Y30.078Z1.2F1500
G1 Z0F500
G1 X11.934Y29.948Z0F1200
G0 Z1.2F500
G0 X13.257Y30.705Z1.2F1500
G1 Z0F500
G1 X13.697Y31.084Z0F1200
G0 Z1.2F500
G0 Y31.149Z1.2F1500
G1 Z0F500
G1 X13.257Y31.522Z0F1200
G0 Z1.2F500
G0 X14.642Y31.997Z1.2F1500
G1 Z0F500
G1 X14.957Y31.556Z0F1200
G0 Z1.2F500
G0 X15.02Y31.028Z1.2F1500
G1 Z0F500
G1 X14.579Y30.761Z0F1200
G0 Z1.2F500
G0 X15.461Y30.924Z1.2F1500
G1 Z0F500
G1 X15.901Y30.865Z0F1200
G0 Z1.2F500
G0 X16.038Y30.674Z1.2F1500
G1 Z0F500
G1 X16.206Y31.115Z0F1200
G0 Z1.2F500
G0 X16.608Z1.2F1500
G1 Z0F500
G1 X16.517Y31.556Z0F1200
G0 Z1.2F500
G0 X16.836Z1.2F1500
G1 Z0F500
G1 X17.171Y31.115Z0F1200
G0 Z1.2F500
G0 X17.224Y31.02Z1.2F1500
G1 Z0F500
G1 X17.665Y30.77Z0F1200
G0 Z1.2F500
G0 Y30.561Z1.2F1500
G1 Z0F500
G1 X17.224Y30.347Z0F1200
G0 Z1.2F500
G0 Y30.137Z1.2F1500
G1 Z0F500
G1 X17.665Y29.89Z0F1200
G0 Z1.2F500
G0 X16.783Y29.549Z1.2F1500
G1 Z0F500
G1 X16.342Y29.596Z0F1200
G0 Z1.2F500
G0 X16.169Y29.793Z1.2F1500
G1 Z0F500
G1 X16.075Y29.352Z0F1200
G0 Z1.2F500
G0 X15.901Y29.345Z1.2F1500
G1 Z0F500
G1 X16.342Y28.918Z0F1200
G0 Z1.2F500
G0 Y29.012Z1.2F1500
G1 Z0F500
G1 X16.783Y29.25Z0F1200
G0 Z1.2F500
G0 X17.334Y28.911Z1.2F1500
G1 Z0F500
G1 X17.555Y28.47Z0F1200
G0 Z1.2F500
G0 X17.665Y28.463Z1.2F1500
G1 Z0F500
G1 X17.224Y28.037Z0F1200
G0 Z1.2F500
G0 Y28.297Z1.2F1500
G1 Z0F500
G1 X16.783Y28.203Z0F1200
G0 Z1.2F500
G0 Y28.131Z1.2F1500
G1 Z0F500
G1 X16.342Y28.369Z0F1200
G0 Z1.2F500
G0 X16.341Y28.47Z1.2F1500
G1 Z0F500
G1 X15.903Y28.911Z0F1200
G0 Z1.2F500
G0 X15.461Y29.017Z1.2F1500
G1 Z0F500
G1 X15.901Y29.246Z0F1200
G0 Z1.2F500
G0 X15.265Y29.352Z1.2F1500
G1 Z0F500
G1 X15.215Y28.911Z0F1200
G0 Z1.2F500
G0 X15.461Y28.384Z1.2F1500
G1 Z0F500
G1 X15.02Y28.116Z0F1200
G0 Z1.2F500
G0 Y28.195Z1.2F1500
G1 Z0F500
G1 X14.579Y28.304Z0F1200
G0 Z1.2F500
G0 Y28.381Z1.2F1500
G1 Z0F500
G1 X14.138Y28.119Z0F1200
G0 Z1.2F500
G0 Y28.558Z1.2F1500
G1 Z0F500
G1 X13.697Y28.823Z0F1200
G0 Z1.2F500
G0 X13.19Y28.47Z1.2F1500
G1 Z0F500
G1 X12.882Y28.911Z0F1200
G0 Z1.2F500
G0 X13.7Y29.352Z1.2F1500
G1 Z0F500
G1 X14.135Y29.793Z0F1200
G0 Z1.2F500
G0 X14.616Y29.352Z1.2F1500
G1 Z0F500
G1 X14.983Y29.793Z0F1200
G0 Z1.2F500
G0 X15.662Y30.234Z1.2F1500
G1 Z0F500
G1 X15.7Y30.674Z0F1200
G0 Z1.2F500
G0 X16.342Y30.805Z1.2F1500
G1 Z0F500
G1 X16.783Y30.984Z0F1200
G0 Z1.2F500
G0 Y30.654Z1.2F1500
G1 Z0F500
G1 X16.342Y30.254Z0F1200
G0 Z1.2F500
G0 X15.461Y31.143Z1.2F1500
G1 Z0F500
G1 X15.901Y31.528Z0F1200
G0 Z1.2F500
G0 X16.342Y32.012Z1.2F1500
G1 Z0F500
G1 X15.901Y32.423Z0F1200
G0 Z1.2F500
G0 X16.093Y32.438Z1.2F1500
G1 Z0F500
G1 X16.151Y32.878Z0F1200
G0 Z1.2F500
G0 X16.342Y32.792Z1.2F1500
G1 Z0F500
G1 X16.783Y32.524Z0F1200
G0 Z1.2F500
G0 Y32.424Z1.2F1500
G1 Z0F500
G1 X17.224Y32.01Z0F1200
G0 Z1.2F500
G0 X16.783Y31.895Z1.2F1500
G1 Z0F500
G1 X17.224Y31.657Z0F1200
G0 Z1.2F500
G0 X18.106Y31.215Z1.2F1500
G1 Z0F500
G1 X18.546Y31.456Z0F1200
G0 Z1.2F500
G0 Y31.422Z1.2F1500
G1 Z0F500
G1 X18.987Y31.249Z0F1200
G0 Z1.2F500
G0 X19.428Y31.001Z1.2F1500
G1 Z0F500
G1 X19.869Y30.789Z0F1200
G0 Z1.2F500
G0 X20.305Y30.674Z1.2F1500
G1 Z0F500
G1 X19.873Y31.115Z0F1200
G0 Z1.2F500
G0 X20.211Z1.2F1500
G1 Z0F500
G1 X19.967Y31.556Z0F1200
G0 Z1.2F500
G0 X20.366Y31.115Z1.2F1500
G1 Z0F500
G1 X20.695Y30.674Z0F1200
G0 Z1.2F500
G0 X20.953Z1.2F1500
G1 Z0F500
G1 X20.989Y31.115Z0F1200
G0 Z1.2F500
G0 X21.294Y31.556Z1.2F1500
G1 Z0F500
G1 X21.529Y31.997Z0F1200
G0 Z1.2F500
G0 X21.191Y31.627Z1.2F1500
G1 Z0F500
G1 X20.751Y31.926Z0F1200
G0 Z1.2F500
G0 X20.31Y32.198Z1.2F1500
G1 Z0F500
G1 X19.869Y32.236Z0F1200
G0 Z1.2F500
G0 Y32.909Z1.2F1500
G1 Z0F500
G1 X19.428Y33.288Z0F1200

; Color 1 picking sequence
G1 Z10 F500;         ; Raise brush to safe height
;G0 X2 Y0 F1000;     ; Rapid move to brush cleaning position
;G1 Z0 F500;         ; Lower brush for cleaning - controlled movement
;G1 Z2 F500;         ; Raise brush slightly - controlled movement
;G1 X22 Y0 Z8 F800;     ; Move across cleaning area - controlled movement
;G1 Z8 F500;         ; Maintain brush height - controlled movement
G0 X85 Y0 F1200;    ; Rapid move to color 1 position
G1 Z0 F500;         ; Lower into color - controlled movement
G1 X79 Y1 F500;     ; Small movement in paint - controlled movement
G1 Z7 F500;         ; Raise from color - controlled movement
G1 X82 Y1 F500;     ; Movement in paint - controlled movement
G1 Z1 F500;         ; Lower slightly - controlled movement
G1 X71 Y10 Z10 F500;     ; Move in paint - controlled movement
;G1 Z8 F500;         ; Raise brush - controlled movement
G1 F1200;           ; Set feed rate to 1000

; Return to drawing position
G0 X19.428 Y33.288 F1200;  ; Return to position with raised Z
G1 Z0 F500;                       ; Lower Z to drawing position
G0 Z1.2F500
G0 Y33.387Z1.2F1500
G1 Z0F500
G1 X18.987Y33.693Z0F1200
G0 Z1.2F500
G0 X18.546Y33.616Z1.2F1500
G1 Z0F500
G1 X18.106Y33.463Z0F1200
G0 Z1.2F500
G0 Y33.278Z1.2F1500
G1 Z0F500
G1 X17.665Y32.92Z0F1200
G0 Z1.2F500
G0 X18.106Y32.818Z1.2F1500
G1 Z0F500
G1 X17.665Y32.498Z0F1200
G0 Z1.2F500
G0 X18.611Y32.438Z1.2F1500
G1 Z0F500
G1 X18.923Y32.878Z0F1200
G0 Z1.2F500
G0 X18.546Y33.006Z1.2F1500
G1 Z0F500
G1 X18.987Y33.191Z0F1200
G0 Z1.2F500
G0 X17.13Y33.76Z1.2F1500
G1 Z0F500
G1 X16.877Y33.319Z0F1200
G0 Z1.2F500
G0 X16.416Z1.2F1500
G1 Z0F500
G1 X16.71Y32.878Z0F1200
G0 Z1.2F500
G0 X15.461Y33.994Z1.2F1500
G1 Z0F500
G1 X15.02Y33.967Z0F1200
G0 Z1.2F500
G0 X14.579Y33.961Z1.2F1500
G1 Z0F500
G1 X14.138Y34Z0F1200
G0 Z1.2F500
G0 X13.95Y33.76Z1.2F1500
G1 Z0F500
G1 X13.885Y33.319Z0F1200
G0 Z1.2F500
G0 X12.979Z1.2F1500
G1 Z0F500
G1 X13.093Y32.878Z0F1200
G0 Z1.2F500
G0 X12.3Z1.2F1500
G1 Z0F500
G1 X12.009Y32.438Z0F1200
G0 Z1.2F500
G0 X11.493Y32.108Z1.2F1500
G1 Z0F500
G1 X11.052Y32.326Z0F1200
G0 Z1.2F500
G0 Y32.136Z1.2F1500
G1 Z0F500
G1 X10.612Y32.298Z0F1200
G0 Z1.2F500
G0 Y32.557Z1.2F1500
G1 Z0F500
G1 X11.052Y32.759Z0F1200
G0 Z1.2F500
G0 X12.375Y33.388Z1.2F1500
G1 Z0F500
G1 X12.816Y33.691Z0F1200
G0 Z1.2F500
G0 Y33.835Z1.2F1500
G1 Z0F500
G1 X13.257Y34.126Z0F1200
G0 Z1.2F500
G0 X14.138Y34.501Z1.2F1500
G1 Z0F500
G1 X14.579Y34.342Z0F1200
G0 Z1.2F500
G0 X14.61Y35.083Z1.2F1500
G1 Z0F500
G1 X14.989Y35.523Z0F1200
G0 Z1.2F500
G0 X14.657Z1.2F1500
G1 Z0F500
G1 X14.942Y35.964Z0F1200
G0 Z1.2F500
G0 X13.932Z1.2F1500
G1 Z0F500
G1 X13.903Y36.405Z0F1200
G0 Z1.2F500
G0 X13.697Y36.944Z1.2F1500
G1 Z0F500
G1 X14.138Y37.188Z0F1200
G0 Z1.2F500
G0 X14.654Y37.287Z1.2F1500
G1 Z0F500
G1 X14.945Y37.728Z0F1200
G0 Z1.2F500
G0 X14.535Z1.2F1500
G1 Z0F500
G1 X14.182Y38.168Z0F1200
G0 Z1.2F500
G0 X14.579Y38.42Z1.2F1500
G1 Z0F500
G1 X15.02Y38.358Z0F1200
G0 Z1.2F500
G0 X15.534Y38.609Z1.2F1500
G1 Z0F500
G1 X15.828Y38.168Z0F1200
G0 Z1.2F500
G0 X16.342Y38.118Z1.2F1500
G1 Z0F500
G1 X16.783Y37.778Z0F1200
G0 Z1.2F500
G0 X16.216Y37.728Z1.2F1500
G1 Z0F500
G1 X16.028Y37.287Z0F1200
G0 Z1.2F500
G0 X15.822Z1.2F1500
G1 Z0F500
G1 X15.54Y36.846Z0F1200
G0 Z1.2F500
G0 X15.901Y36.421Z1.2F1500
G1 Z0F500
G1 X16.342Y36.83Z0F1200
G0 Z1.2F500
G0 X16.783Y36.915Z1.2F1500
G1 Z0F500
G1 X16.342Y37.218Z0F1200
G0 Z1.2F500
G0 X16.783Y37.068Z1.2F1500
G1 Z0F500
G1 X17.224Y37.065Z0F1200
G0 Z1.2F500
G0 X17.665Y36.839Z1.2F1500
G1 Z0F500
G1 X17.224Y36.412Z0F1200
G0 Z1.2F500
G0 X18.787Y36.405Z1.2F1500
G1 Z0F500
G1 X18.746Y35.964Z0F1200
G0 Z1.2F500
G0 X19.628Y36.405Z1.2F1500
G1 Z0F500
G1 X19.669Y36.846Z0F1200
G0 Z1.2F500
G0 X19.904Z1.2F1500
G1 Z0F500
G1 X20.274Y37.287Z0F1200
G0 Z1.2F500
G0 X20.089Y36.846Z1.2F1500
G1 Z0F500
G1 Y36.405Z0F1200
G0 Z1.2F500
G0 X20.157Y35.523Z1.2F1500
G1 Z0F500
G1 X20.022Y35.083Z0F1200
G0 Z1.2F500
G0 X19.375Z1.2F1500
G1 Z0F500
G1 X19.04Y34.642Z0F1200
G0 Z1.2F500
G0 X18.106Y34.92Z1.2F1500
G1 Z0F500
G1 X17.665Y34.805Z0F1200
G0 Z1.2F500
G0 X16.749Y35.083Z1.2F1500
G1 Z0F500
G1 X16.376Y34.642Z0F1200
G0 Z1.2F500
G0 X14.1Y35.083Z1.2F1500
G1 Z0F500
G1 X13.736Y35.523Z0F1200
G0 Z1.2F500
G0 X13.517Z1.2F1500
G1 Z0F500
G1 X13.437Y35.083Z0F1200
G0 Z1.2F500
G0 X12.375Y34.671Z1.2F1500
G1 Z0F500
G1 X11.934Y35.053Z0F1200
G0 Z1.2F500
G0 X11.493Y35.393Z1.2F1500
G1 Z0F500
G1 X11.052Y35.213Z0F1200
G0 Z1.2F500
G0 X11.533Y36.846Z1.2F1500
G1 Z0F500
G1 X11.894Y37.287Z0F1200
G0 Z1.2F500
G0 X11.934Y37.353Z1.2F1500
G1 Z0F500
G1 X12.375Y37.661Z0F1200
G0 Z1.2F500
G0 Y37.515Z1.2F1500
G1 Z0F500
G1 X12.816Y37.5Z0F1200
G0 Z1.2F500
G0 Y37.426Z1.2F1500
G1 Z0F500
G1 X13.257Y37.588Z0F1200
G0 Z1.2F500
G0 X12.816Y37.08Z1.2F1500
G1 Z0F500
G1 X12.375Y37.053Z0F1200
G0 Z1.2F500
G0 X13.033Y36.846Z1.2F1500
G1 Z0F500
G1 X13.039Y36.405Z0F1200
G0 Z1.2F500
G0 X11.934Y37.456Z1.2F1500
G1 Z0F500
G1 X11.493Y37.559Z0F1200
G0 Z1.2F500
G0 X11.592Y37.728Z1.2F1500
G1 Z0F500
G1 X11.836Y38.168Z0F1200
G0 Z1.2F500
G0 X11.85Y38.609Z1.2F1500
G1 Z0F500
G1 X11.577Y39.05Z0F1200
G0 Z1.2F500
G0 X11.052Y39.074Z1.2F1500
G1 Z0F500
G1 X10.612Y39.467Z0F1200
G0 Z1.2F500
G0 Y39.683Z1.2F1500
G1 Z0F500
G1 X10.171Y39.739Z0F1200
G0 Z1.2F500
G0 Y39.677Z1.2F1500
G1 Z0F500
G1 X9.73Y39.745Z0F1200
G0 Z1.2F500
G0 X9.454Y39.932Z1.2F1500
G1 Z0F500
G1 X9.565Y39.491Z0F1200
G0 Z1.2F500
G0 X10.005Y39.05Z1.2F1500
G1 Z0F500
G1 X9.896Y38.609Z0F1200
G0 Z1.2F500
G0 X9.974Y38.168Z1.2F1500
G1 Z0F500
G1 X9.927Y37.728Z0F1200
G0 Z1.2F500
G0 X8.407Y36.963Z1.2F1500
G1 Z0F500
G1 X7.967Y37.169Z0F1200
G0 Z1.2F500
G0 X7.526Y37.306Z1.2F1500
G1 Z0F500
G1 X7.085Y37.708Z0F1200
G0 Z1.2F500
G0 X7.252Y37.728Z1.2F1500
G1 Z0F500
G1 X7.358Y38.168Z0F1200
G0 Z1.2F500
G0 X7.752Z1.2F1500
G1 Z0F500
G1 X7.74Y38.609Z0F1200
G0 Z1.2F500
G0 X7.858Z1.2F1500
G1 Z0F500
G1 X7.634Y39.05Z0F1200
G0 Z1.2F500
G0 X7.391Z1.2F1500
G1 Z0F500
G1 X7.22Y38.609Z0F1200
G0 Z1.2F500
G0 X6.89Z1.2F1500
G1 Z0F500
G1 X6.84Y39.05Z0F1200
G0 Z1.2F500
G0 X6.203Y38.885Z1.2F1500
G1 Z0F500
G1 X5.762Y38.774Z0F1200
G0 Z1.2F500
G0 X6.033Y39.05Z1.2F1500
G1 Z0F500
G1 X5.933Y39.491Z0F1200
G0 Z1.2F500
G0 X5.034Z1.2F1500
G1 Z0F500
G1 X5.169Y39.932Z0F1200
G0 Z1.2F500
G0 X5.322Y40.39Z1.2F1500
G1 Z0F500
G1 X5.762Y40.796Z0F1200
G0 Z1.2F500
G0 X6.203Y40.343Z1.2F1500
G1 Z0F500
G1 X6.644Y39.961Z0F1200
G0 Z1.2F500
G0 X7.526Y40.083Z1.2F1500
G1 Z0F500
G1 X7.967Y40.221Z0F1200
G0 Z1.2F500
G0 Y40.502Z1.2F1500
G1 Z0F500
G1 X8.407Y40.684Z0F1200
G0 Z1.2F500
G0 X7.967Y41.351Z1.2F1500
G1 Z0F500
G1 X7.526Y41.598Z0F1200
G0 Z1.2F500
G0 X7.48Y41.695Z1.2F1500
G1 Z0F500
G1 X7.13Y41.254Z0F1200
G0 Z1.2F500
G0 X7.526Y41.714Z1.2F1500
G1 Z0F500
G1 X7.085Y42.117Z0F1200
G0 Z1.2F500
G0 X6.794Y42.136Z1.2F1500
G1 Z0F500
G1 X6.935Y42.577Z0F1200
G0 Z1.2F500
G0 X7.749Z1.2F1500
G1 Z0F500
G1 X7.743Y43.017Z0F1200
G0 Z1.2F500
G0 X8.488Y42.577Z1.2F1500
G1 Z0F500
G1 X8.767Y43.017Z0F1200
G0 Z1.2F500
G0 X9.73Y43.53Z1.2F1500
G1 Z0F500
G1 X9.289Y43.827Z0F1200
G0 Z1.2F500
G0 Y43.983Z1.2F1500
G1 Z0F500
G1 X8.848Y44.256Z0F1200
G0 Z1.2F500
G0 Y44.327Z1.2F1500
G1 Z0F500
G1 X8.407Y43.912Z0F1200
G0 Z1.2F500
G0 X8.228Y44.34Z1.2F1500
G1 Z0F500
G1 X8.146Y44.781Z0F1200
G0 Z1.2F500
G0 X7.689Z1.2F1500
G1 Z0F500
G1 X7.803Y45.222Z0F1200
G0 Z1.2F500
G0 X6.762Z1.2F1500
G1 Z0F500
G1 X6.967Y44.781Z0F1200
G0 Z1.2F500
G0 X6.759Y44.34Z1.2F1500
G1 Z0F500
G1 X6.97Y43.899Z0F1200
G0 Z1.2F500
G0 X5.604Y43.458Z1.2F1500
G1 Z0F500
G1 X5.48Y43.017Z0F1200
G0 Z1.2F500
G0 X5.447Y42.577Z1.2F1500
G1 Z0F500
G1 X5.638Y42.136Z0F1200
G0 Z1.2F500
G0 X4.881Y42.23Z1.2F1500
G1 Z0F500
G1 X4.44Y42.483Z0F1200
G0 Z1.2F500
G0 X7.526Y41.905Z1.2F1500
G1 Z0F500
G1 X7.967Y41.926Z0F1200
G0 Z1.2F500
G0 X9.335Y41.695Z1.2F1500
G1 Z0F500
G1 X9.684Y41.254Z0F1200
G0 Z1.2F500
G0 X10.171Y40.639Z1.2F1500
G1 Z0F500
G1 X10.612Y40.547Z0F1200
G0 Z1.2F500
G0 Y40.37Z1.2F1500
G1 Z0F500
G1 X11.052Y39.935Z0F1200
G0 Z1.2F500
G0 X11.493Y39.791Z1.2F1500
G1 Z0F500
G1 X11.934Y39.632Z0F1200
G0 Z1.2F500
G0 X12.816Y39.406Z1.2F1500
G1 Z0F500
G1 X13.257Y39.135Z0F1200
G0 Z1.2F500
G0 Y39.163Z1.2F1500
G1 Z0F500
G1 X13.697Y39.378Z0F1200
G0 Z1.2F500
G0 X14.138Y39.478Z1.2F1500
G1 Z0F500
G1 X13.697Y39.063Z0F1200
G0 Z1.2F500
G0 X14.138Y38.899Z1.2F1500
G1 Z0F500
G1 X14.579Y38.761Z0F1200
G0 Z1.2F500
G0 X15.02Y38.956Z1.2F1500
G1 Z0F500
G1 X15.461Y38.703Z0F1200
G0 Z1.2F500
G0 Y38.875Z1.2F1500
G1 Z0F500
G1 X15.901Y38.784Z0F1200
G0 Z1.2F500
G0 Y38.868Z1.2F1500
G1 Z0F500
G1 X16.342Y38.791Z0F1200
G0 Z1.2F500
G0 X15.901Y39.382Z1.2F1500
G1 Z0F500
G1 X15.461Y39.159Z0F1200
G0 Z1.2F500
G0 X15.283Y39.05Z1.2F1500
G1 Z0F500
G1 X15.198Y39.491Z0F1200
G0 Z1.2F500
G0 X15.696Z1.2F1500
G1 Z0F500
G1 X15.666Y39.932Z0F1200
G0 Z1.2F500
G0 X15.901Y39.895Z1.2F1500
G1 Z0F500
G1 X16.342Y39.528Z0F1200
G0 Z1.2F500
G0 X17.224Y39.73Z1.2F1500
G1 Z0F500
G1 X17.665Y39.692Z0F1200
G0 Z1.2F500
G0 X18.546Y39.495Z1.2F1500
G1 Z0F500
G1 X18.987Y39.927Z0F1200
G0 Z1.2F500
G0 X18.242Y40.373Z1.2F1500
G1 Z0F500
G1 X18.41Y40.813Z0F1200
G0 Z1.2F500
G0 X17.665Y40.934Z1.2F1500
G1 Z0F500
G1 X17.224Y41.134Z0F1200
G0 Z1.2F500
G0 X16.286Y41.695Z1.2F1500
G1 Z0F500
G1 X15.957Y41.254Z0F1200
G0 Z1.2F500
G0 X15.901Y41.882Z1.2F1500
G1 Z0F500
G1 X16.342Y41.949Z0F1200
G0 Z1.2F500
G0 X15.797Y42.136Z1.2F1500
G1 Z0F500
G1 X15.565Y42.577Z0F1200
G0 Z1.2F500
G0 X15.02Y42.136Z1.2F1500
G1 Z0F500
G1 X14.579Y41.695Z0F1200
G0 Z1.2F500
G0 X14.187Z1.2F1500
G1 Z0F500
G1 X14.531Y42.136Z0F1200
G0 Z1.2F500
G0 X14.138Y43.038Z1.2F1500
G1 Z0F500
G1 X13.697Y43.438Z0F1200
G0 Z1.2F500
G0 X13.855Y43.458Z1.2F1500
G1 Z0F500
G1 X13.981Y43.899Z0F1200
G0 Z1.2F500
G0 X15.603Y45.222Z1.2F1500
G1 Z0F500
G1 X15.759Y45.662Z0F1200
G0 Z1.2F500
G0 X17.224Y46.598Z1.2F1500
G1 Z0F500
G1 X17.665Y46.931Z0F1200
G0 Z1.2F500
G0 Y47.145Z1.2F1500
G1 Z0F500
G1 X18.106Y47.266Z0F1200
G0 Z1.2F500
G0 X18.705Y46.985Z1.2F1500
G1 Z0F500
G1 X18.829Y47.426Z0F1200
G0 Z1.2F500
G0 X19.265Y46.985Z1.2F1500
G1 Z0F500
G1 X19.15Y46.544Z0F1200
G0 Z1.2F500
G0 X19.428Y46.261Z1.2F1500
G1 Z0F500
G1 X19.869Y46.387Z0F1200
G0 Z1.2F500
G0 X19.857Y46.544Z1.2F1500
G1 Z0F500
G1 X19.44Y46.985Z0F1200
G0 Z1.2F500
G0 X19.869Y45.899Z1.2F1500
G1 Z0F500
G1 X20.31Y45.867Z0F1200
G0 Z1.2F500
G0 Y45.781Z1.2F1500
G1 Z0F500
G1 X20.751Y45.984Z0F1200
G0 Z1.2F500
G0 X20.928Y46.103Z1.2F1500
G1 Z0F500
G1 X21.014Y45.662Z0F1200
G0 Z1.2F500
G0 X21.213Y45.222Z1.2F1500
G1 Z0F500
G1 X21.61Y44.781Z0F1200
G0 Z1.2F500
G0 X21.859Z1.2F1500
G1 Z0F500
G1 X21.847Y45.222Z0F1200
G0 Z1.2F500
G0 X22.101Y44.781Z1.2F1500
G1 Z0F500
G1 X22.486Y44.34Z0F1200
G0 Z1.2F500
G0 X22.884Z1.2F1500
G1 Z0F500
G1 X22.584Y44.781Z0F1200
G0 Z1.2F500
G0 X23.836Y44.662Z1.2F1500
G1 Z0F500
G1 X24.277Y44.459Z0F1200
G0 Z1.2F500
G0 Y44.095Z1.2F1500
G1 Z0F500
G1 X23.836Y44.145Z0F1200
G0 Z1.2F500
G0 X24.603Y43.899Z1.2F1500
G1 Z0F500
G1 X24.392Y43.458Z0F1200
G0 Z1.2F500
G0 X24.797Z1.2F1500
G1 Z0F500
G1 X25.08Y43.017Z0F1200
G0 Z1.2F500
G0 X25.159Y43.278Z1.2F1500
G1 Z0F500
G1 X25.6Y43.198Z0F1200
G0 Z1.2F500
G0 X25.704Y43.458Z1.2F1500
G1 Z0F500
G1 X25.936Y43.017Z0F1200
G0 Z1.2F500
G0 X26.041Y42.975Z1.2F1500
G1 Z0F500
G1 X25.6Y42.619Z0F1200
G0 Z1.2F500
G0 X25.644Y42.577Z1.2F1500
G1 Z0F500
G1 X25.996Y42.136Z0F1200
G0 Z1.2F500
G0 X26.29Z1.2F1500
G1 Z0F500
G1 X26.232Y42.577Z0F1200
G0 Z1.2F500
G0 X26.406Y42.136Z1.2F1500
G1 Z0F500
G1 X26.115Y41.695Z0F1200
G0 Z1.2F500
G0 X26.481Y41.545Z1.2F1500
G1 Z0F500
G1 X26.922Y41.404Z0F1200
G0 Z1.2F500
G0 Y41.838Z1.2F1500
G1 Z0F500
G1 X27.363Y41.993Z0F1200
G0 Z1.2F500
G0 X27.804Y41.729Z1.2F1500
G1 Z0F500
G1 X28.245Y42.102Z0F1200
G0 Z1.2F500
G0 X28.685Y42.121Z1.2F1500
G1 Z0F500
G1 X28.245Y41.71Z0F1200
G0 Z1.2F500
G0 X28.685Y41.641Z1.2F1500
G1 Z0F500
G1 X28.245Y41.309Z0F1200
G0 Z1.2F500
G0 Y41.185Z1.2F1500
G1 Z0F500
G1 X27.804Y40.882Z0F1200
G0 Z1.2F500
G0 Y40.675Z1.2F1500
G1 Z0F500
G1 X27.363Y40.511Z0F1200
G0 Z1.2F500
G0 Y40.245Z1.2F1500
G1 Z0F500
G1 X26.922Y40.06Z0F1200
G0 Z1.2F500
G0 Y39.867Z1.2F1500
G1 Z0F500
G1 X27.363Y39.556Z0F1200
G0 Z1.2F500
G0 X28.115Y39.491Z1.2F1500
G1 Z0F500
G1 X27.933Y39.05Z0F1200
G0 Z1.2F500
G0 X28.296Z1.2F1500
G1 Z0F500
G1 X28.634Y38.609Z0F1200
G0 Z1.2F500
G0 X30.008Y39.082Z1.2F1500
G1 Z0F500
G1 X30.449Y39.459Z0F1200
G0 Z1.2F500
G0 X30.491Y39.491Z1.2F1500
G1 Z0F500
G1 X30.847Y39.932Z0F1200
G0 Z1.2F500
G0 X30.821Y40.373Z1.2F1500
G1 Z0F500
G1 X30.518Y40.813Z0F1200
G0 Z1.2F500
G0 X30.008Y40.606Z1.2F1500
G1 Z0F500
G1 X29.567Y40.58Z0F1200
G0 Z1.2F500
G0 X29.958Y41.695Z1.2F1500
G1 Z0F500
G1 X29.617Y42.136Z0F1200
G0 Z1.2F500
G0 X30.093Z1.2F1500
G1 Z0F500
G1 X30.364Y42.577Z0F1200
G0 Z1.2F500
G0 X30.008Y42.581Z1.2F1500
G1 Z0F500
G1 X30.449Y43.013Z0F1200
G0 Z1.2F500
G0 X30.505Y43.017Z1.2F1500
G1 Z0F500
G1 X30.834Y43.458Z0F1200
G0 Z1.2F500
G0 X31.433Y43.017Z1.2F1500
G1 Z0F500
G1 X31.668Y42.577Z0F1200
G0 Z1.2F500
G0 X31.771Y42.538Z1.2F1500
G1 Z0F500
G1 X31.33Y42.174Z0F1200
G0 Z1.2F500
G0 Y42.428Z1.2F1500
G1 Z0F500
G1 X30.89Y42.284Z0F1200
G0 Z1.2F500
G0 X30.79Y42.136Z1.2F1500
G1 Z0F500
G1 X30.549Y41.695Z0F1200

; Color 1 picking sequence
G1 Z10 F500;         ; Raise brush to safe height
;G0 X2 Y0 F1000;     ; Rapid move to brush cleaning position
;G1 Z0 F500;         ; Lower brush for cleaning - controlled movement
;G1 Z2 F500;         ; Raise brush slightly - controlled movement
;G1 X22 Y0 Z8 F800;     ; Move across cleaning area - controlled movement
;G1 Z8 F500;         ; Maintain brush height - controlled movement
G0 X85 Y0 F1200;    ; Rapid move to color 1 position
G1 Z0 F500;         ; Lower into color - controlled movement
G1 X79 Y1 F500;     ; Small movement in paint - controlled movement
G1 Z7 F500;         ; Raise from color - controlled movement
G1 X82 Y1 F500;     ; Movement in paint - controlled movement
G1 Z1 F500;         ; Lower slightly - controlled movement
G1 X71 Y10 Z10 F500;     ; Move in paint - controlled movement
;G1 Z8 F500;         ; Raise brush - controlled movement
G1 F1200;           ; Set feed rate to 1000

; Return to drawing position
G0 X30.549 Y41.695 F1200;  ; Return to position with raised Z
G1 Z0 F500;                       ; Lower Z to drawing position
G0 Z1.2F500
G0 X30.92Z1.2F1500
G1 Z0F500
G1 X31.3Y41.254Z0F1200
G0 Z1.2F500
G0 X31.344Z1.2F1500
G1 Z0F500
G1 X31.758Y41.695Z0F1200
G0 Z1.2F500
G0 X31.87Z1.2F1500
G1 Z0F500
G1 X32.114Y42.136Z0F1200
G0 Z1.2F500
G0 X32.212Y42.44Z1.2F1500
G1 Z0F500
G1 X32.653Y42.272Z0F1200
G0 Z1.2F500
G0 Y42.419Z1.2F1500
G1 Z0F500
G1 X33.094Y42.293Z0F1200
G0 Z1.2F500
G0 X33.341Y42.136Z1.2F1500
G1 Z0F500
G1 X33.288Y42.577Z0F1200
G0 Z1.2F500
G0 X33.53Z1.2F1500
G1 Z0F500
G1 X33.098Y43.017Z0F1200
G0 Z1.2F500
G0 X32.653Y42.998Z1.2F1500
G1 Z0F500
G1 X32.212Y42.596Z0F1200
G0 Z1.2F500
G0 X30.747Y42.577Z1.2F1500
G1 Z0F500
G1 X30.591Y42.136Z0F1200
G0 Z1.2F500
G0 X31.771Y41.552Z1.2F1500
G1 Z0F500
G1 X32.212Y41.397Z0F1200
G0 Z1.2F500
G0 X33.014Y41.254Z1.2F1500
G1 Z0F500
G1 X32.732Y40.813Z0F1200
G0 Z1.2F500
G0 X32.653Y40.198Z1.2F1500
G1 Z0F500
G1 X32.212Y40.107Z0F1200
G0 Z1.2F500
G0 X33.042Y39.932Z1.2F1500
G1 Z0F500
G1 X32.704Y39.491Z0F1200
G0 Z1.2F500
G0 X32.212Y38.974Z1.2F1500
G1 Z0F500
G1 X32.653Y38.686Z0F1200
G0 Z1.2F500
G0 X33.094Y38.924Z1.2F1500
G1 Z0F500
G1 X33.535Y38.736Z0F1200
G0 Z1.2F500
G0 X33.975Y38.88Z1.2F1500
G1 Z0F500
G1 X34.416Y38.78Z0F1200
G0 Z1.2F500
G0 Y39.018Z1.2F1500
G1 Z0F500
G1 X34.857Y38.642Z0F1200
G0 Z1.2F500
G0 X35.298Y38.699Z1.2F1500
G1 Z0F500
G1 X34.857Y38.96Z0F1200
G0 Z1.2F500
G0 X34.742Y39.05Z1.2F1500
G1 Z0F500
G1 X34.531Y39.491Z0F1200
G0 Z1.2F500
G0 X34.416Y39.517Z1.2F1500
G1 Z0F500
G1 X34.857Y39.905Z0F1200
G0 Z1.2F500
G0 X35.214Y39.932Z1.2F1500
G1 Z0F500
G1 X34.941Y39.491Z0F1200
G0 Z1.2F500
G0 X35.435Z1.2F1500
G1 Z0F500
G1 X35.602Y39.932Z0F1200
G0 Z1.2F500
G0 X35.739Y40.521Z1.2F1500
G1 Z0F500
G1 X35.298Y40.665Z0F1200
G0 Z1.2F500
G0 X35.465Y40.813Z1.2F1500
G1 Z0F500
G1 X35.571Y41.254Z0F1200
G0 Z1.2F500
G0 X35.739Y41.116Z1.2F1500
G1 Z0F500
G1 X36.18Y40.951Z0F1200
G0 Z1.2F500
G0 X36.504Y40.813Z1.2F1500
G1 Z0F500
G1 X36.296Y40.373Z0F1200
G0 Z1.2F500
G0 X36.62Y40.308Z1.2F1500
G1 Z0F500
G1 X37.061Y39.996Z0F1200
G0 Z1.2F500
G0 X37.502Y39.955Z1.2F1500
G1 Z0F500
G1 X37.061Y40.349Z0F1200
G0 Z1.2F500
G0 X37.502Y40.494Z1.2F1500
G1 Z0F500
G1 X37.943Y40.691Z0F1200
G0 Z1.2F500
G0 X37.061Y41.253Z1.2F1500
G1 Z0F500
G1 X36.62Y40.815Z0F1200
G0 Z1.2F500
G0 Y41.751Z1.2F1500
G1 Z0F500
G1 X37.061Y42.08Z0F1200
G0 Z1.2F500
G0 X37.42Y42.136Z1.2F1500
G1 Z0F500
G1 X37.143Y42.577Z0F1200
G0 Z1.2F500
G0 X37.02Z1.2F1500
G1 Z0F500
G1 X36.662Y42.136Z0F1200
G0 Z1.2F500
G0 X36.62Y42.093Z1.2F1500
G1 Z0F500
G1 X36.18Y41.738Z0F1200
G0 Z1.2F500
G0 X35.678Y41.695Z1.2F1500
G1 Z0F500
G1 X35.358Y42.136Z0F1200
G0 Z1.2F500
G0 X35.003Z1.2F1500
G1 Z0F500
G1 X35.152Y42.577Z0F1200
G0 Z1.2F500
G0 X35.003Z1.2F1500
G1 Z0F500
G1 X35.152Y43.017Z0F1200
G0 Z1.2F500
G0 X34.963Z1.2F1500
G1 Z0F500
G1 X35.192Y43.458Z0F1200
G0 Z1.2F500
G0 X34.857Y43.089Z1.2F1500
G1 Z0F500
G1 X34.416Y43.386Z0F1200
G0 Z1.2F500
G0 X34.218Y43.017Z1.2F1500
G1 Z0F500
G1 X34.174Y42.577Z0F1200
G0 Z1.2F500
G0 X33.968Z1.2F1500
G1 Z0F500
G1 X33.542Y42.136Z0F1200
G0 Z1.2F500
G0 X33.535Y42.033Z1.2F1500
G1 Z0F500
G1 X33.094Y41.798Z0F1200
G0 Z1.2F500
G0 X34.084Y42.136Z1.2F1500
G1 Z0F500
G1 X34.307Y41.695Z0F1200
G0 Z1.2F500
G0 X34.14Y41.254Z1.2F1500
G1 Z0F500
G1 X34.252Y40.813Z0F1200
G0 Z1.2F500
G0 X34.075Z1.2F1500
G1 Z0F500
G1 X34.316Y40.373Z0F1200
G0 Z1.2F500
G0 X33.975Y40.298Z1.2F1500
G1 Z0F500
G1 X34.416Y40.007Z0F1200
G0 Z1.2F500
G0 Y39.757Z1.2F1500
G1 Z0F500
G1 X33.975Y39.666Z0F1200
G0 Z1.2F500
G0 X33.981Y39.491Z1.2F1500
G1 Z0F500
G1 X34.41Y39.05Z0F1200
G0 Z1.2F500
G0 X33.682Z1.2F1500
G1 Z0F500
G1 X33.828Y39.491Z0F1200
G0 Z1.2F500
G0 X33.975Y38.489Z1.2F1500
G1 Z0F500
G1 X33.535Y38.289Z0F1200
G0 Z1.2F500
G0 Y38.116Z1.2F1500
G1 Z0F500
G1 X33.094Y37.78Z0F1200
G0 Z1.2F500
G0 X33.535Y37.607Z1.2F1500
G1 Z0F500
G1 X33.094Y37.407Z0F1200
G0 Z1.2F500
G0 Y37.147Z1.2F1500
G1 Z0F500
G1 X32.653Y36.986Z0F1200
G0 Z1.2F500
G0 X33.094Y36.759Z1.2F1500
G1 Z0F500
G1 X32.653Y36.492Z0F1200
G0 Z1.2F500
G0 X33.094Y36.702Z1.2F1500
G1 Z0F500
G1 X33.535Y36.549Z0F1200
G0 Z1.2F500
G0 X33.975Y36.699Z1.2F1500
G1 Z0F500
G1 X34.416Y36.552Z0F1200
G0 Z1.2F500
G0 Y36.487Z1.2F1500
G1 Z0F500
G1 X34.857Y36.764Z0F1200
G0 Z1.2F500
G0 X35.076Y36.846Z1.2F1500
G1 Z0F500
G1 X35.079Y37.287Z0F1200
G0 Z1.2F500
G0 X35.133Z1.2F1500
G1 Z0F500
G1 X35.022Y37.728Z0F1200
G0 Z1.2F500
G0 X35.298Y37.738Z1.2F1500
G1 Z0F500
G1 X35.739Y38.158Z0F1200
G0 Z1.2F500
G0 X35.298Y37.955Z1.2F1500
G1 Z0F500
G1 X34.857Y37.941Z0F1200
G0 Z1.2F500
G0 X34.654Y38.168Z1.2F1500
G1 Z0F500
G1 X34.619Y37.728Z0F1200
G0 Z1.2F500
G0 X34.416Y38.117Z1.2F1500
G1 Z0F500
G1 X33.975Y37.779Z0F1200
G0 Z1.2F500
G0 Y37.816Z1.2F1500
G1 Z0F500
G1 X33.535Y38.08Z0F1200
G0 Z1.2F500
G0 X33.975Y38.345Z1.2F1500
G1 Z0F500
G1 X34.416Y38.433Z0F1200
G0 Z1.2F500
G0 Y38.502Z1.2F1500
G1 Z0F500
G1 X34.857Y38.276Z0F1200
G0 Z1.2F500
G0 X35.739Y38.652Z1.2F1500
G1 Z0F500
G1 X36.18Y39.007Z0F1200
G0 Z1.2F500
G0 Y38.733Z1.2F1500
G1 Z0F500
G1 X36.62Y38.927Z0F1200
G0 Z1.2F500
G0 X37.058Y39.05Z1.2F1500
G1 Z0F500
G1 X36.623Y38.609Z0F1200
G0 Z1.2F500
G0 X36.238Z1.2F1500
G1 Z0F500
G1 X36.562Y38.168Z0F1200
G0 Z1.2F500
G0 X36.62Y38.326Z1.2F1500
G1 Z0F500
G1 X37.061Y38.452Z0F1200
G0 Z1.2F500
G0 X37.502Y37.632Z1.2F1500
G1 Z0F500
G1 X37.943Y37.382Z0F1200
G0 Z1.2F500
G0 X38.384Y37.647Z1.2F1500
G1 Z0F500
G1 X38.824Y37.368Z0F1200
G0 Z1.2F500
G0 Y37.254Z1.2F1500
G1 Z0F500
G1 X38.384Y36.878Z0F1200
G0 Z1.2F500
G0 X38.391Y36.846Z1.2F1500
G1 Z0F500
G1 X38.817Y36.405Z0F1200
G0 Z1.2F500
G0 X38.824Y36.43Z1.2F1500
G1 Z0F500
G1 X39.265Y36.821Z0F1200
G0 Z1.2F500
G0 Y36.562Z1.2F1500
G1 Z0F500
G1 X39.706Y36.689Z0F1200
G0 Z1.2F500
G0 X39.555Y36.405Z1.2F1500
G1 Z0F500
G1 X39.417Y35.964Z0F1200
G0 Z1.2F500
G0 X39.265Y35.894Z1.2F1500
G1 Z0F500
G1 X39.706Y35.594Z0F1200
G0 Z1.2F500
G0 X39.684Y35.523Z1.2F1500
G1 Z0F500
G1 X39.287Y35.083Z0F1200
G0 Z1.2F500
G0 X39.265Y34.896Z1.2F1500
G1 Z0F500
G1 X38.824Y34.828Z0F1200
G0 Z1.2F500
G0 X38.769Y34.642Z1.2F1500
G1 Z0F500
G1 X38.44Y35.083Z0F1200
G0 Z1.2F500
G0 X38.384Y35.228Z1.2F1500
G1 Z0F500
G1 X37.943Y35.378Z0F1200
G0 Z1.2F500
G0 X37.608Y35.523Z1.2F1500
G1 Z0F500
G1 X37.837Y35.964Z0F1200
G0 Z1.2F500
G0 X37.943Y35.953Z1.2F1500
G1 Z0F500
G1 X38.384Y35.535Z0F1200
G0 Z1.2F500
G0 X38.45Y35.523Z1.2F1500
G1 Z0F500
G1 X38.758Y35.083Z0F1200
G0 Z1.2F500
G0 X38.895Z1.2F1500
G1 Z0F500
G1 X39.195Y35.523Z0F1200
G0 Z1.2F500
G0 X39.101Z1.2F1500
G1 Z0F500
G1 X38.989Y35.964Z0F1200
G0 Z1.2F500
G0 X38.824Y36.005Z1.2F1500
G1 Z0F500
G1 X38.384Y36.364Z0F1200
G0 Z1.2F500
G0 X37.943Y36.38Z1.2F1500
G1 Z0F500
G1 X38.384Y35.989Z0F1200
G0 Z1.2F500
G0 X38.658Y35.964Z1.2F1500
G1 Z0F500
G1 X38.55Y35.523Z0F1200
G0 Z1.2F500
G0 X38.384Y34.865Z1.2F1500
G1 Z0F500
G1 X37.943Y34.859Z0F1200
G0 Z1.2F500
G0 X37.875Y34.642Z1.2F1500
G1 Z0F500
G1 X37.57Y35.083Z0F1200
G0 Z1.2F500
G0 X37.769Y34.642Z1.2F1500
G1 Z0F500
G1 X37.675Y34.201Z0F1200
G0 Z1.2F500
G0 X37.943Y34.177Z1.2F1500
G1 Z0F500
G1 X37.502Y33.784Z0F1200
G0 Z1.2F500
G0 Y33.901Z1.2F1500
G1 Z0F500
G1 X37.061Y34.06Z0F1200
G0 Z1.2F500
G0 Y34.307Z1.2F1500
G1 Z0F500
G1 X37.502Y34.536Z0F1200
G0 Z1.2F500
G0 X37.027Y34.642Z1.2F1500
G1 Z0F500
G1 X36.654Y34.201Z0F1200
G0 Z1.2F500
G0 X36.563Y33.76Z1.2F1500
G1 Z0F500
G1 X36.237Y33.319Z0F1200
G0 Z1.2F500
G0 X36.62Y33.324Z1.2F1500
G1 Z0F500
G1 X37.061Y33.756Z0F1200
G0 Z1.2F500
G0 Y33.663Z1.2F1500
G1 Z0F500
G1 X37.502Y33.416Z0F1200
G0 Z1.2F500
G0 Y33.261Z1.2F1500
G1 Z0F500
G1 X37.943Y32.937Z0F1200
G0 Z1.2F500
G0 X37.652Y32.878Z1.2F1500
G1 Z0F500
G1 X37.793Y32.438Z0F1200
G0 Z1.2F500
G0 X37.943Y32.379Z1.2F1500
G1 Z0F500
G1 X37.502Y32.056Z0F1200
G0 Z1.2F500
G0 X37.343Y31.997Z1.2F1500
G1 Z0F500
G1 X37.22Y31.556Z0F1200
G0 Z1.2F500
G0 X37.024Z1.2F1500
G1 Z0F500
G1 X36.657Y31.115Z0F1200
G0 Z1.2F500
G0 X36.62Y31.106Z1.2F1500
G1 Z0F500
G1 X36.18Y30.683Z0F1200
G0 Z1.2F500
G0 Y30.497Z1.2F1500
G1 Z0F500
G1 X35.739Y30.411Z0F1200
G0 Z1.2F500
G0 X36.015Y30.234Z1.2F1500
G1 Z0F500
G1 X35.903Y29.793Z0F1200
G0 Z1.2F500
G0 X36.013Z1.2F1500
G1 Z0F500
G1 X35.905Y29.352Z0F1200
G0 Z1.2F500
G0 X36.146Z1.2F1500
G1 Z0F500
G1 X35.772Y28.911Z0F1200
G0 Z1.2F500
G0 X35.692Z1.2F1500
G1 Z0F500
G1 X35.345Y29.352Z0F1200
G0 Z1.2F500
G0 X35.298Y29.397Z1.2F1500
G1 Z0F500
G1 X35.739Y29.747Z0F1200
G0 Z1.2F500
G0 X36.18Y29.603Z1.2F1500
G1 Z0F500
G1 X36.62Y29.541Z0F1200
G0 Z1.2F500
G0 Y29.499Z1.2F1500
G1 Z0F500
G1 X37.061Y29.646Z0F1200
G0 Z1.2F500
G0 Y29.64Z1.2F1500
G1 Z0F500
G1 X37.502Y29.505Z0F1200
G0 Z1.2F500
G0 X37.787Y29.352Z1.2F1500
G1 Z0F500
G1 X37.658Y29.793Z0F1200
G0 Z1.2F500
G0 X37.765Z1.2F1500
G1 Z0F500
G1 X37.68Y30.234Z0F1200
G0 Z1.2F500
G0 X37.398Z1.2F1500
G1 Z0F500
G1 X37.166Y29.793Z0F1200
G0 Z1.2F500
G0 X36.62Y29.857Z1.2F1500
G1 Z0F500
G1 X37.061Y30.169Z0F1200
G0 Z1.2F500
G0 X37.189Y30.234Z1.2F1500
G1 Z0F500
G1 X37.374Y30.674Z0F1200
G0 Z1.2F500
G0 X37.502Y30.855Z1.2F1500
G1 Z0F500
G1 X37.061Y30.934Z0F1200
G0 Z1.2F500
G0 Y31.017Z1.2F1500
G1 Z0F500
G1 X36.62Y30.773Z0F1200
G0 Z1.2F500
G0 Y30.561Z1.2F1500
G1 Z0F500
G1 X36.18Y30.347Z0F1200
G0 Z1.2F500
G0 X36.202Y30.234Z1.2F1500
G1 Z0F500
G1 X36.598Y29.793Z0F1200
G0 Z1.2F500
G0 X36.757Y30.234Z1.2F1500
G1 Z0F500
G1 X36.925Y30.674Z0F1200
G0 Z1.2F500
G0 X37.502Y30.425Z1.2F1500
G1 Z0F500
G1 X37.943Y30.483Z0F1200
G0 Z1.2F500
G0 Y30.341Z1.2F1500
G1 Z0F500
G1 X38.384Y30.567Z0F1200
G0 Z1.2F500
G0 X38.271Y30.674Z1.2F1500
G1 Z0F500
G1 X38.056Y31.115Z0F1200
G0 Z1.2F500
G0 X38.25Z1.2F1500
G1 Z0F500
G1 X38.077Y31.556Z0F1200
G0 Z1.2F500
G0 X38.062Z1.2F1500
G1 Z0F500
G1 X38.265Y31.997Z0F1200
G0 Z1.2F500
G0 X38.384Y31.934Z1.2F1500
G1 Z0F500
G1 X38.824Y31.619Z0F1200
G0 Z1.2F500
G0 Y31.556Z1.2F1500
G1 Z0F500
G1 X39.265Y31.115Z0F1200
G0 Z1.2F500
G0 X39.359Z1.2F1500
G1 Z0F500
G1 X39.612Y31.556Z0F1200
G0 Z1.2F500
G0 X39.265Y31.706Z1.2F1500
G1 Z0F500
G1 X38.824Y31.847Z0F1200
G0 Z1.2F500
G0 X38.899Y31.997Z1.2F1500
G1 Z0F500
G1 X39.19Y32.438Z0F1200
G0 Z1.2F500
G0 X39.265Y32.592Z1.2F1500
G1 Z0F500
G1 X39.706Y32.724Z0F1200
G0 Z1.2F500
G0 Y32.476Z1.2F1500
G1 Z0F500
G1 X40.147Y32.84Z0F1200
G0 Z1.2F500
G0 X40.094Y32.878Z1.2F1500
G1 Z0F500
G1 X39.759Y33.319Z0F1200
G0 Z1.2F500
G0 X39.706Y33.259Z1.2F1500
G1 Z0F500
G1 X39.265Y32.939Z0F1200
G0 Z1.2F500
G0 Y32.855Z1.2F1500
G1 Z0F500
G1 X38.824Y32.461Z0F1200
G0 Z1.2F500
G0 Y32.242Z1.2F1500
G1 Z0F500
G1 X38.384Y32.192Z0F1200
G0 Z1.2F500
G0 Y32.166Z1.2F1500
G1 Z0F500
G1 X37.943Y32.269Z0F1200
G0 Z1.2F500
G0 Y32.529Z1.2F1500
G1 Z0F500
G1 X38.384Y32.787Z0F1200
G0 Z1.2F500
G0 X38.328Y32.878Z1.2F1500
G1 Z0F500
G1 X37.999Y33.319Z0F1200
G0 Z1.2F500
G0 X37.69Z1.2F1500
G1 Z0F500
G1 X37.755Y33.76Z0F1200
G0 Z1.2F500
G0 X38.007Z1.2F1500
G1 Z0F500
G1 X38.319Y33.319Z0F1200
G0 Z1.2F500
G0 X38.384Y33.315Z1.2F1500
G1 Z0F500
G1 X38.824Y32.883Z0F1200
G0 Z1.2F500
G0 Y32.933Z1.2F1500
G1 Z0F500
G1 X39.265Y33.265Z0F1200
G0 Z1.2F500
G0 X39.08Y33.319Z1.2F1500
G1 Z0F500
G1 X39.01Y33.76Z0F1200
G0 Z1.2F500
G0 X39.177Z1.2F1500
G1 Z0F500
G1 X38.913Y34.201Z0F1200
G0 Z1.2F500
G0 X38.824Y34.154Z1.2F1500
G1 Z0F500
G1 X38.384Y33.807Z0F1200
G0 Z1.2F500
G0 X38.409Y33.76Z1.2F1500
G1 Z0F500
G1 X38.8Y33.319Z0F1200
G0 Z1.2F500
G0 X39.265Y33.629Z1.2F1500
G1 Z0F500
G1 X39.706Y33.45Z0F1200
G0 Z1.2F500
G0 X39.924Y33.319Z1.2F1500
G1 Z0F500
G1 X39.93Y33.76Z0F1200
G0 Z1.2F500
G0 X40.147Y33.782Z1.2F1500
G1 Z0F500
G1 X40.588Y34.179Z0F1200
G0 Z1.2F500
G0 X40.688Y34.201Z1.2F1500
G1 Z0F500
G1 X40.929Y34.642Z0F1200
G0 Z1.2F500
G0 X41.029Y34.405Z1.2F1500
G1 Z0F500
G1 X41.469Y34.438Z0F1200
G0 Z1.2F500
G0 X40.147Y34.117Z1.2F1500
G1 Z0F500
G1 X39.706Y33.844Z0F1200
G0 Z1.2F500
G0 X39.63Y33.76Z1.2F1500
G1 Z0F500
G1 X39.342Y34.201Z0F1200
G0 Z1.2F500
G0 X39.408Z1.2F1500
G1 Z0F500
G1 X39.564Y34.642Z0F1200
G0 Z1.2F500
G0 X39.265Y34.717Z1.2F1500
G1 Z0F500
G1 X39.706Y35.008Z0F1200
G0 Z1.2F500
G0 X39.043Y34.642Z1.2F1500
G1 Z0F500
G1 X39.046Y34.201Z0F1200
G0 Z1.2F500
G0 X38.747Z1.2F1500
G1 Z0F500
G1 X38.462Y34.642Z0F1200
G0 Z1.2F500
G0 X38.384Y34.564Z1.2F1500
G1 Z0F500
G1 X37.943Y34.279Z0F1200
G0 Z1.2F500
G0 X38.256Y34.201Z1.2F1500
G1 Z0F500
G1 X38.071Y33.76Z0F1200
G0 Z1.2F500
G0 X37.255Y33.319Z1.2F1500
G1 Z0F500
G1 X37.308Y32.878Z0F1200
G0 Z1.2F500
G0 X37.321Z1.2F1500
G1 Z0F500
G1 X37.242Y32.438Z0F1200
G0 Z1.2F500
G0 X37.423Z1.2F1500
G1 Z0F500
G1 X37.141Y31.997Z0F1200
G0 Z1.2F500
G0 X37.051Z1.2F1500
G1 Z0F500
G1 X36.631Y32.438Z0F1200

; Color 1 picking sequence
G1 Z10 F500;         ; Raise brush to safe height
;G0 X2 Y0 F1000;     ; Rapid move to brush cleaning position
;G1 Z0 F500;         ; Lower brush for cleaning - controlled movement
;G1 Z2 F500;         ; Raise brush slightly - controlled movement
;G1 X22 Y0 Z8 F800;     ; Move across cleaning area - controlled movement
;G1 Z8 F500;         ; Maintain brush height - controlled movement
G0 X85 Y0 F1200;    ; Rapid move to color 1 position
G1 Z0 F500;         ; Lower into color - controlled movement
G1 X79 Y1 F500;     ; Small movement in paint - controlled movement
G1 Z7 F500;         ; Raise from color - controlled movement
G1 X82 Y1 F500;     ; Movement in paint - controlled movement
G1 Z1 F500;         ; Lower slightly - controlled movement
G1 X71 Y10 Z10 F500;     ; Move in paint - controlled movement
;G1 Z8 F500;         ; Raise brush - controlled movement
G1 F1200;           ; Set feed rate to 1000

; Return to drawing position
G0 X36.631 Y32.438 F1200;  ; Return to position with raised Z
G1 Z0 F500;                       ; Lower Z to drawing position
G0 Z1.2F500
G0 X36.41Z1.2F1500
G1 Z0F500
G1 X36.39Y31.997Z0F1200
G0 Z1.2F500
G0 X36.224Z1.2F1500
G1 Z0F500
G1 X36.576Y31.556Z0F1200
G0 Z1.2F500
G0 X36.902Z1.2F1500
G1 Z0F500
G1 X36.779Y31.997Z0F1200
G0 Z1.2F500
G0 X36.237Y31.556Z1.2F1500
G1 Z0F500
G1 X36.563Y31.115Z0F1200
G0 Z1.2F500
G0 X37.061Y31.215Z1.2F1500
G1 Z0F500
G1 X37.502Y31.456Z0F1200
G0 Z1.2F500
G0 X37.559Y31.556Z1.2F1500
G1 Z0F500
G1 X37.886Y31.997Z0F1200
G0 Z1.2F500
G0 X37.943Y31.437Z1.2F1500
G1 Z0F500
G1 X37.502Y31.234Z0F1200
G0 Z1.2F500
G0 Y31.109Z1.2F1500
G1 Z0F500
G1 X37.943Y30.68Z0F1200
G0 Z1.2F500
G0 X38.06Y30.234Z1.2F1500
G1 Z0F500
G1 X38.266Y29.793Z0F1200
G0 Z1.2F500
G0 X38.203Z1.2F1500
G1 Z0F500
G1 X38.124Y29.352Z0F1200
G0 Z1.2F500
G0 X38.323Z1.2F1500
G1 Z0F500
G1 X38.003Y28.911Z0F1200
G0 Z1.2F500
G0 X37.943Y28.838Z1.2F1500
G1 Z0F500
G1 X38.384Y28.544Z0F1200
G0 Z1.2F500
G0 X38.595Y28.47Z1.2F1500
G1 Z0F500
G1 X38.613Y28.029Z0F1200
G0 Z1.2F500
G0 X38.384Y27.985Z1.2F1500
G1 Z0F500
G1 X38.824Y27.633Z0F1200
G0 Z1.2F500
G0 X38.898Y27.589Z1.2F1500
G1 Z0F500
G1 X39.192Y28.029Z0F1200
G0 Z1.2F500
G0 X39.18Z1.2F1500
G1 Z0F500
G1 X38.91Y28.47Z0F1200
G0 Z1.2F500
G0 X38.639Z1.2F1500
G1 Z0F500
G1 X38.569Y28.911Z0F1200
G0 Z1.2F500
G0 X38.384Y28.937Z1.2F1500
G1 Z0F500
G1 X38.824Y29.325Z0F1200
G0 Z1.2F500
G0 Y29.181Z1.2F1500
G1 Z0F500
G1 X39.265Y29.081Z0F1200
G0 Z1.2F500
G0 Y29.152Z1.2F1500
G1 Z0F500
G1 X39.706Y29.111Z0F1200
G0 Z1.2F500
G0 Y29.148Z1.2F1500
G1 Z0F500
G1 X40.147Y29.115Z0F1200
G0 Z1.2F500
G0 Y28.97Z1.2F1500
G1 Z0F500
G1 X40.588Y29.293Z0F1200
G0 Z1.2F500
G0 X40.849Y29.352Z1.2F1500
G1 Z0F500
G1 X40.767Y28.911Z0F1200
G0 Z1.2F500
G0 X40.874Z1.2F1500
G1 Z0F500
G1 X40.742Y28.47Z0F1200
G0 Z1.2F500
G0 X40.588Y28.461Z1.2F1500
G1 Z0F500
G1 X40.147Y28.038Z0F1200
G0 Z1.2F500
G0 X40.103Y28.029Z1.2F1500
G1 Z0F500
G1 X39.75Y27.589Z0F1200
G0 Z1.2F500
G0 X39.265Y27.63Z1.2F1500
G1 Z0F500
G1 X39.706Y27.988Z0F1200
G0 Z1.2F500
G0 Y28.076Z1.2F1500
G1 Z0F500
G1 X40.147Y28.423Z0F1200
G0 Z1.2F500
G0 X40.526Y28.47Z1.2F1500
G1 Z0F500
G1 X40.209Y28.911Z0F1200
G0 Z1.2F500
G0 X39.706Y28.836Z1.2F1500
G1 Z0F500
G1 X39.265Y28.545Z0F1200
G0 Z1.2F500
G0 X39.209Y28.47Z1.2F1500
G1 Z0F500
G1 X38.88Y28.911Z0F1200
G0 Z1.2F500
G0 X38.824Y29.513Z1.2F1500
G1 Z0F500
G1 X39.265Y29.631Z0F1200
G0 Z1.2F500
G0 Y29.724Z1.2F1500
G1 Z0F500
G1 X39.706Y29.421Z0F1200
G0 Z1.2F500
G0 X39.952Y29.352Z1.2F1500
G1 Z0F500
G1 X39.902Y29.793Z0F1200
G0 Z1.2F500
G0 X39.552Z1.2F1500
G1 Z0F500
G1 X39.42Y30.234Z0F1200
G0 Z1.2F500
G0 X39.493Z1.2F1500
G1 Z0F500
G1 X39.478Y30.674Z0F1200
G0 Z1.2F500
G0 X39.327Z1.2F1500
G1 Z0F500
G1 X39.644Y31.115Z0F1200
G0 Z1.2F500
G0 X39.706Y31.265Z1.2F1500
G1 Z0F500
G1 X40.147Y31.406Z0F1200
G0 Z1.2F500
G0 Y31.622Z1.2F1500
G1 Z0F500
G1 X39.706Y31.931Z0F1200
G0 Z1.2F500
G0 X39.766Y31.997Z1.2F1500
G1 Z0F500
G1 X40.087Y32.438Z0F1200
G0 Z1.2F500
G0 X40.147Y32.441Z1.2F1500
G1 Z0F500
G1 X40.588Y32.876Z0F1200
G0 Z1.2F500
G0 X40.434Y32.438Z1.2F1500
G1 Z0F500
G1 X40.301Y31.997Z0F1200
G0 Z1.2F500
G0 X40.588Y31.901Z1.2F1500
G1 Z0F500
G1 X41.029Y31.652Z0F1200
G0 Z1.2F500
G0 X41.462Y31.556Z1.2F1500
G1 Z0F500
G1 X41.036Y31.997Z0F1200
G0 Z1.2F500
G0 X41.14Z1.2F1500
G1 Z0F500
G1 X41.358Y32.438Z0F1200
G0 Z1.2F500
G0 X41.112Z1.2F1500
G1 Z0F500
G1 X41.386Y32.878Z0F1200
G0 Z1.2F500
G0 X41.469Y32.873Z1.2F1500
G1 Z0F500
G1 X41.91Y32.444Z0F1200
G0 Z1.2F500
G0 X41.965Y31.556Z1.2F1500
G1 Z0F500
G1 X42.297Y31.115Z0F1200
G0 Z1.2F500
G0 X42.351Y31.045Z1.2F1500
G1 Z0F500
G1 X41.91Y30.745Z0F1200
G0 Z1.2F500
G0 X41.887Y30.674Z1.2F1500
G1 Z0F500
G1 X41.493Y31.115Z0F1200
G0 Z1.2F500
G0 X41.469Y30.865Z1.2F1500
G1 Z0F500
G1 X41.029Y30.924Z0F1200
G0 Z1.2F500
G0 Y31.112Z1.2F1500
G1 Z0F500
G1 X40.588Y30.677Z0F1200
G0 Z1.2F500
G0 X40.586Y30.674Z1.2F1500
G1 Z0F500
G1 X40.148Y30.234Z0F1200
G0 Z1.2F500
G0 X40.384Z1.2F1500
G1 Z0F500
G1 X40.351Y29.793Z0F1200
G0 Z1.2F500
G0 X40.147Y29.97Z1.2F1500
G1 Z0F500
G1 X39.706Y30.056Z0F1200
G0 Z1.2F500
G0 X39.783Y30.234Z1.2F1500
G1 Z0F500
G1 X40.071Y30.674Z0F1200
G0 Z1.2F500
G0 X40.147Y30.908Z1.2F1500
G1 Z0F500
G1 X40.588Y30.882Z0F1200
G0 Z1.2F500
G0 X40.147Y31.145Z1.2F1500
G1 Z0F500
G1 X40.588Y31.527Z0F1200
G0 Z1.2F500
G0 Y31.375Z1.2F1500
G1 Z0F500
G1 X41.029Y31.296Z0F1200
G0 Z1.2F500
G0 Y31.281Z1.2F1500
G1 Z0F500
G1 X41.469Y31.39Z0F1200
G0 Z1.2F500
G0 X41.324Y30.674Z1.2F1500
G1 Z0F500
G1 X41.174Y30.234Z0F1200
G0 Z1.2F500
G0 X41.029Y29.918Z1.2F1500
G1 Z0F500
G1 X40.588Y30.109Z0F1200
G0 Z1.2F500
G0 X41.029Y29.635Z1.2F1500
G1 Z0F500
G1 X40.588Y29.509Z0F1200
G0 Z1.2F500
G0 X41.155Y29.352Z1.2F1500
G1 Z0F500
G1 X41.343Y29.793Z0F1200
G0 Z1.2F500
G0 X41.483Z1.2F1500
G1 Z0F500
G1 X41.897Y30.234Z0F1200
G0 Z1.2F500
G0 X41.91Y30.407Z1.2F1500
G1 Z0F500
G1 X41.469Y30.501Z0F1200
G0 Z1.2F500
G0 X41.91Y29.935Z1.2F1500
G1 Z0F500
G1 X42.351Y30.091Z0F1200
G0 Z1.2F500
G0 X42.419Y30.234Z1.2F1500
G1 Z0F500
G1 X42.724Y30.674Z0F1200
G0 Z1.2F500
G0 X42.792Y29.771Z1.2F1500
G1 Z0F500
G1 X42.351Y29.374Z0F1200
G0 Z1.2F500
G0 Y29.577Z1.2F1500
G1 Z0F500
G1 X41.91Y29.568Z0F1200
G0 Z1.2F500
G0 Y29.45Z1.2F1500
G1 Z0F500
G1 X41.469Y29.694Z0F1200
G0 Z1.2F500
G0 X41.91Y29.34Z1.2F1500
G1 Z0F500
G1 X42.351Y28.923Z0F1200
G0 Z1.2F500
G0 X42.435Y28.911Z1.2F1500
G1 Z0F500
G1 X42.708Y29.352Z0F1200
G0 Z1.2F500
G0 X43.233Y29.571Z1.2F1500
G1 Z0F500
G1 X43.674Y29.574Z0F1200
G0 Z1.2F500
G0 X44.492Y29.352Z1.2F1500
G1 Z0F500
G1 X44.178Y28.911Z0F1200
G0 Z1.2F500
G0 X44.114Y28.89Z1.2F1500
G1 Z0F500
G1 X44.555Y28.491Z0F1200
G0 Z1.2F500
G0 Y28.348Z1.2F1500
G1 Z0F500
G1 X44.114Y28.151Z0F1200
G0 Z1.2F500
G0 X44.132Y28.029Z1.2F1500
G1 Z0F500
G1 X44.538Y27.589Z0F1200
G0 Z1.2F500
G0 X44.996Y27.702Z1.2F1500
G1 Z0F500
G1 X45.437Y27.916Z0F1200
G0 Z1.2F500
G0 X45.286Y28.029Z1.2F1500
G1 Z0F500
G1 X45.147Y28.47Z0F1200
G0 Z1.2F500
G0 X45.716Z1.2F1500
G1 Z0F500
G1 X45.599Y28.911Z0F1200
G0 Z1.2F500
G0 X45.866Y29.352Z1.2F1500
G1 Z0F500
G1 X45.449Y29.793Z0F1200
G0 Z1.2F500
G0 X45.252Z1.2F1500
G1 Z0F500
G1 X45.181Y30.234Z0F1200
G0 Z1.2F500
G0 X45.64Y30.674Z1.2F1500
G1 Z0F500
G1 X45.675Y31.115Z0F1200
G0 Z1.2F500
G0 X45.653Z1.2F1500
G1 Z0F500
G1 X45.662Y31.556Z0F1200
G0 Z1.2F500
G0 X45.953Z1.2F1500
G1 Z0F500
G1 X46.244Y31.115Z0F1200
G0 Z1.2F500
G0 X45.878Y30.968Z1.2F1500
G1 Z0F500
G1 X46.319Y30.821Z0F1200
G0 Z1.2F500
G0 X46.371Y30.674Z1.2F1500
G1 Z0F500
G1 X46.706Y31.115Z0F1200
G0 Z1.2F500
G0 X46.319Y31.634Z1.2F1500
G1 Z0F500
G1 X45.878Y31.919Z0F1200
G0 Z1.2F500
G0 X46.319Y31.812Z1.2F1500
G1 Z0F500
G1 X46.759Y31.741Z0F1200
G0 Z1.2F500
G0 X46.689Y31.997Z1.2F1500
G1 Z0F500
G1 X46.389Y32.438Z0F1200
G0 Z1.2F500
G0 X46.319Y32.686Z1.2F1500
G1 Z0F500
G1 X46.759Y32.63Z0F1200
G0 Z1.2F500
G0 X46.319Y32.771Z1.2F1500
G1 Z0F500
G1 X45.878Y32.545Z0F1200
G0 Z1.2F500
G0 X45.521Y32.878Z1.2F1500
G1 Z0F500
G1 X45.794Y33.319Z0F1200
G0 Z1.2F500
G0 X45.437Y33.315Z1.2F1500
G1 Z0F500
G1 X44.996Y32.883Z0F1200
G0 Z1.2F500
G0 X44.887Y32.878Z1.2F1500
G1 Z0F500
G1 X44.664Y32.438Z0F1200
G0 Z1.2F500
G0 X45.03Z1.2F1500
G1 Z0F500
G1 X45.403Y32.878Z0F1200
G0 Z1.2F500
G0 X45.878Y33.803Z1.2F1500
G1 Z0F500
G1 X46.319Y34.158Z0F1200
G0 Z1.2F500
G0 X46.338Y34.201Z1.2F1500
G1 Z0F500
G1 X46.74Y34.642Z0F1200
G0 Z1.2F500
G0 X46.689Z1.2F1500
G1 Z0F500
G1 X46.389Y35.083Z0F1200
G0 Z1.2F500
G0 X46.48Z1.2F1500
G1 Z0F500
G1 X46.598Y35.523Z0F1200
G0 Z1.2F500
G0 X47.2Y35.543Z1.2F1500
G1 Z0F500
G1 X46.759Y35.945Z0F1200
G0 Z1.2F500
G0 X47.528Y35.523Z1.2F1500
G1 Z0F500
G1 X47.313Y35.083Z0F1200
G0 Z1.2F500
G0 X48.964Y34.928Z1.2F1500
G1 Z0F500
G1 X49.404Y34.796Z0F1200
G0 Z1.2F500
G0 Y34.698Z1.2F1500
G1 Z0F500
G1 X49.845Y35.027Z0F1200
G0 Z1.2F500
G0 Y34.808Z1.2F1500
G1 Z0F500
G1 X50.286Y34.917Z0F1200
G0 Z1.2F500
G0 Y34.752Z1.2F1500
G1 Z0F500
G1 X50.727Y34.972Z0F1200
G0 Z1.2F500
G0 Y34.617Z1.2F1500
G1 Z0F500
G1 X51.168Y34.226Z0F1200
G0 Z1.2F500
G0 X51.007Y34.201Z1.2F1500
G1 Z0F500
G1 X50.887Y33.76Z0F1200
G0 Z1.2F500
G0 X51.168Y33.581Z1.2F1500
G1 Z0F500
G1 X50.727Y33.499Z0F1200
G0 Z1.2F500
G0 X51.26Y33.319Z1.2F1500
G1 Z0F500
G1 X51.516Y32.878Z0F1200
G0 Z1.2F500
G0 X51.608Y32.921Z1.2F1500
G1 Z0F500
G1 X52.049Y33.277Z0F1200
G0 Z1.2F500
G0 Y33.381Z1.2F1500
G1 Z0F500
G1 X52.49Y33.698Z0F1200
G0 Z1.2F500
G0 X52.512Y33.76Z1.2F1500
G1 Z0F500
G1 X52.909Y33.319Z0F1200
G0 Z1.2F500
G0 X52.931Y33.252Z1.2F1500
G1 Z0F500
G1 X52.49Y32.946Z0F1200
G0 Z1.2F500
G0 X52.881Y32.878Z1.2F1500
G1 Z0F500
G1 X52.54Y32.438Z0F1200
G0 Z1.2F500
G0 X52.931Y32.394Z1.2F1500
G1 Z0F500
G1 X52.49Y32.041Z0F1200
G0 Z1.2F500
G0 X52.816Y31.997Z1.2F1500
G1 Z0F500
G1 X52.605Y31.556Z0F1200
G0 Z1.2F500
G0 X52.615Z1.2F1500
G1 Z0F500
G1 X52.806Y31.115Z0F1200
G0 Z1.2F500
G0 X52.762Z1.2F1500
G1 Z0F500
G1 X52.659Y30.674Z0F1200
G0 Z1.2F500
G0 X52.49Y30.695Z1.2F1500
G1 Z0F500
G1 X52.049Y31.095Z0F1200
G0 Z1.2F500
G0 X52.046Y31.115Z1.2F1500
G1 Z0F500
G1 X51.611Y30.674Z0F1200
G0 Z1.2F500
G0 X51.306Z1.2F1500
G1 Z0F500
G1 X51.47Y31.115Z0F1200
G0 Z1.2F500
G0 X51.608Y31.162Z1.2F1500
G1 Z0F500
G1 X51.168Y31.509Z0F1200
G0 Z1.2F500
G0 Y31.829Z1.2F1500
G1 Z0F500
G1 X50.727Y31.724Z0F1200
G0 Z1.2F500
G0 X51.171Y31.997Z1.2F1500
G1 Z0F500
G1 X51.606Y32.438Z0F1200
G0 Z1.2F500
G0 X51.168Y32.526Z1.2F1500
G1 Z0F500
G1 X51.608Y32.79Z0F1200
G0 Z1.2F500
G0 X51.168Y32.532Z1.2F1500
G1 Z0F500
G1 X50.727Y32.784Z0F1200
G0 Z1.2F500
G0 Y32.705Z1.2F1500
G1 Z0F500
G1 X50.286Y32.611Z0F1200
G0 Z1.2F500
G0 X50.28Y32.878Z1.2F1500
G1 Z0F500
G1 X49.851Y32.438Z0F1200
G0 Z1.2F500
G0 X49.845Y32.607Z1.2F1500
G1 Z0F500
G1 X49.404Y32.709Z0F1200
G0 Z1.2F500
G0 X49.058Y32.438Z1.2F1500
G1 Z0F500
G1 X49.31Y31.997Z0F1200
G0 Z1.2F500
G0 X49.388Y31.556Z1.2F1500
G1 Z0F500
G1 X48.98Y31.115Z0F1200
G0 Z1.2F500
G0 X48.543Z1.2F1500
G1 Z0F500
G1 X48.943Y31.556Z0F1200
G0 Z1.2F500
G0 X48.49Y31.997Z1.2F1500
G1 Z0F500
G1 X48.114Y31.556Z0F1200
G0 Z1.2F500
G0 X47.641Y31.903Z1.2F1500
G1 Z0F500
G1 X47.2Y31.65Z0F1200
G0 Z1.2F500
G0 X48.082Y32.151Z1.2F1500
G1 Z0F500
G1 X48.523Y32.283Z0F1200
G0 Z1.2F500
G0 X48.674Y32.438Z1.2F1500
G1 Z0F500
G1 X48.812Y32.878Z0F1200
G0 Z1.2F500
G0 X50.052Z1.2F1500
G1 Z0F500
G1 X50.079Y33.319Z0F1200
G0 Z1.2F500
G0 X51.312Z1.2F1500
G1 Z0F500
G1 X51.464Y33.76Z0F1200
G0 Z1.2F500
G0 X51.337Z1.2F1500
G1 Z0F500
G1 X51.439Y34.201Z0F1200
G0 Z1.2F500
G0 X51.608Y34.271Z1.2F1500
G1 Z0F500
G1 X51.168Y34.571Z0F1200
G0 Z1.2F500
G0 X51.608Y34.543Z1.2F1500
G1 Z0F500
G1 X52.049Y34.299Z0F1200
G0 Z1.2F500
G0 Y34.17Z1.2F1500
G1 Z0F500
G1 X51.608Y33.791Z0F1200
G0 Z1.2F500
G0 X51.855Y33.76Z1.2F1500
G1 Z0F500
G1 X51.802Y33.319Z0F1200
G0 Z1.2F500
G0 X52.49Y33.813Z1.2F1500
G1 Z0F500
G1 X52.049Y34.148Z0F1200
G0 Z1.2F500
G0 X52.49Y34.263Z1.2F1500
G1 Z0F500
G1 X52.049Y34.58Z0F1200
G0 Z1.2F500
G0 X52.808Y34.642Z1.2F1500
G1 Z0F500
G1 X52.614Y34.201Z0F1200
G0 Z1.2F500
G0 X52.49Y34.016Z1.2F1500
G1 Z0F500
G1 X52.931Y33.945Z0F1200
G0 Z1.2F500
G0 X53.098Y33.76Z1.2F1500
G1 Z0F500
G1 X53.204Y34.201Z0F1200
G0 Z1.2F500
G0 X53.367Z1.2F1500
G1 Z0F500
G1 X52.935Y34.642Z0F1200
G0 Z1.2F500
G0 X52.809Z1.2F1500
G1 Z0F500
G1 X52.612Y35.083Z0F1200
G0 Z1.2F500
G0 X52.931Y35.068Z1.2F1500
G1 Z0F500
G1 X53.372Y34.656Z0F1200
G0 Z1.2F500
G0 Y34.612Z1.2F1500
G1 Z0F500
G1 X53.813Y34.23Z0F1200
G0 Z1.2F500
G0 Y34.07Z1.2F1500
G1 Z0F500
G1 X53.372Y33.891Z0F1200
G0 Z1.2F500
G0 X53.495Y33.76Z1.2F1500
G1 Z0F500
G1 X53.689Y33.319Z0F1200
G0 Z1.2F500
G0 X53.385Z1.2F1500
G1 Z0F500
G1 X53.799Y32.878Z0F1200
G0 Z1.2F500
G0 X53.93Z1.2F1500
G1 Z0F500
G1 X54.136Y33.319Z0F1200
G0 Z1.2F500
G0 X54.131Z1.2F1500
G1 Z0F500
G1 X53.935Y33.76Z0F1200
G0 Z1.2F500
G0 X54.308Z1.2F1500
G1 Z0F500
G1 X54.64Y34.201Z0F1200
G0 Z1.2F500
G0 X54.694Y34.13Z1.2F1500
G1 Z0F500
G1 X55.135Y33.831Z0F1200
G0 Z1.2F500
G0 X55.382Y33.76Z1.2F1500
G1 Z0F500
G1 X55.329Y34.201Z0F1200
G0 Z1.2F500
G0 X55.452Z1.2F1500
G1 Z0F500
G1 X55.259Y34.642Z0F1200
G0 Z1.2F500
G0 X55.266Z1.2F1500
G1 Z0F500
G1 X55.445Y35.083Z0F1200
G0 Z1.2F500
G0 X55.576Y35.171Z1.2F1500
G1 Z0F500
G1 X55.135Y35.435Z0F1200
G0 Z1.2F500
G0 X55.059Y35.523Z1.2F1500
G1 Z0F500
G1 X54.771Y35.083Z0F1200
G0 Z1.2F500
G0 X54.496Z1.2F1500
G1 Z0F500
G1 X54.452Y35.523Z0F1200
G0 Z1.2F500
G0 X54.49Z1.2F1500
G1 Z0F500
G1 X54.458Y35.964Z0F1200

; Color 1 picking sequence
G1 Z10 F500;         ; Raise brush to safe height
;G0 X2 Y0 F1000;     ; Rapid move to brush cleaning position
;G1 Z0 F500;         ; Lower brush for cleaning - controlled movement
;G1 Z2 F500;         ; Raise brush slightly - controlled movement
;G1 X22 Y0 Z8 F800;     ; Move across cleaning area - controlled movement
;G1 Z8 F500;         ; Maintain brush height - controlled movement
G0 X85 Y0 F1200;    ; Rapid move to color 1 position
G1 Z0 F500;         ; Lower into color - controlled movement
G1 X79 Y1 F500;     ; Small movement in paint - controlled movement
G1 Z7 F500;         ; Raise from color - controlled movement
G1 X82 Y1 F500;     ; Movement in paint - controlled movement
G1 Z1 F500;         ; Lower slightly - controlled movement
G1 X71 Y10 Z10 F500;     ; Move in paint - controlled movement
;G1 Z8 F500;         ; Raise brush - controlled movement
G1 F1200;           ; Set feed rate to 1000

; Return to drawing position
G0 X54.458 Y35.964 F1200;  ; Return to position with raised Z
G1 Z0 F500;                       ; Lower Z to drawing position
G0 Z1.2F500
G0 X55.131Z1.2F1500
G1 Z0F500
G1 X54.699Y35.523Z0F1200
G0 Z1.2F500
G0 X54.462Y35.083Z1.2F1500
G1 Z0F500
G1 X54.486Y34.642Z0F1200
G0 Z1.2F500
G0 X54.694Y34.546Z1.2F1500
G1 Z0F500
G1 X55.135Y34.296Z0F1200
G0 Z1.2F500
G0 X54.694Y34.323Z1.2F1500
G1 Z0F500
G1 X54.253Y34.52Z0F1200
G0 Z1.2F500
G0 X53.986Y34.642Z1.2F1500
G1 Z0F500
G1 X54.08Y34.201Z0F1200
G0 Z1.2F500
G0 X53.813Y34.023Z1.2F1500
G1 Z0F500
G1 X54.253Y33.938Z0F1200
G0 Z1.2F500
G0 Y33.546Z1.2F1500
G1 Z0F500
G1 X54.694Y33.534Z0F1200
G0 Z1.2F500
G0 Y33.622Z1.2F1500
G1 Z0F500
G1 X55.135Y33.457Z0F1200
G0 Z1.2F500
G0 X55.16Y33.319Z1.2F1500
G1 Z0F500
G1 X55.551Y33.76Z0F1200
G0 Z1.2F500
G0 X55.945Z1.2F1500
G1 Z0F500
G1 X55.648Y34.201Z0F1200
G0 Z1.2F500
G0 X56.017Y34.257Z1.2F1500
G1 Z0F500
G1 X55.576Y34.586Z0F1200
G0 Z1.2F500
G0 X56.221Y34.642Z1.2F1500
G1 Z0F500
G1 X56.253Y35.083Z0F1200
G0 Z1.2F500
G0 X56.017Y35.313Z1.2F1500
G1 Z0F500
G1 X55.576Y35.293Z0F1200
G0 Z1.2F500
G0 X55.552Y35.523Z1.2F1500
G1 Z0F500
G1 X55.159Y35.964Z0F1200
G0 Z1.2F500
G0 X55.576Y35.923Z1.2F1500
G1 Z0F500
G1 X56.017Y35.565Z0F1200
G0 Z1.2F500
G0 X56.853Y35.083Z1.2F1500
G1 Z0F500
G1 X56.503Y34.642Z0F1200
G0 Z1.2F500
G0 X56.458Y34.587Z1.2F1500
G1 Z0F500
G1 X56.898Y34.255Z0F1200
G0 Z1.2F500
G0 X57.145Y34.201Z1.2F1500
G1 Z0F500
G1 X57.092Y33.76Z0F1200
G0 Z1.2F500
G0 X56.898Y33.828Z1.2F1500
G1 Z0F500
G1 X56.458Y34.133Z0F1200
G0 Z1.2F500
G0 X56.171Y34.201Z1.2F1500
G1 Z0F500
G1 X56.303Y34.642Z0F1200
G0 Z1.2F500
G0 X56.898Y34.507Z1.2F1500
G1 Z0F500
G1 X57.339Y34.336Z0F1200
G0 Z1.2F500
G0 X57.78Y34.095Z1.2F1500
G1 Z0F500
G1 X57.339Y33.866Z0F1200
G0 Z1.2F500
G0 X57.78Y33.978Z1.2F1500
G1 Z0F500
G1 X58.221Y33.983Z0F1200
G0 Z1.2F500
G0 X58.278Y33.76Z1.2F1500
G1 Z0F500
G1 X58.604Y34.201Z0F1200
G0 Z1.2F500
G0 X58.873Z1.2F1500
G1 Z0F500
G1 X58.891Y34.642Z0F1200
G0 Z1.2F500
G0 X59.367Z1.2F1500
G1 Z0F500
G1 X59.279Y35.083Z0F1200
G0 Z1.2F500
G0 X60.05Z1.2F1500
G1 Z0F500
G1 X60.359Y35.523Z0F1200
G0 Z1.2F500
G0 X60.474Z1.2F1500
G1 Z0F500
G1 X60.817Y35.083Z0F1200
G0 Z1.2F500
G0 X60.879Z1.2F1500
G1 Z0F500
G1 X61.293Y34.642Z0F1200
G0 Z1.2F500
G0 X61.354Z1.2F1500
G1 Z0F500
G1 X61.7Y35.083Z0F1200
G0 Z1.2F500
G0 X61.748Y35.169Z1.2F1500
G1 Z0F500
G1 X61.307Y35.437Z0F1200
G0 Z1.2F500
G0 X60.876Y35.523Z1.2F1500
G1 Z0F500
G1 X61.296Y35.083Z0F1200
G0 Z1.2F500
G0 X61.748Y35.227Z1.2F1500
G1 Z0F500
G1 X62.188Y35.379Z0F1200
G0 Z1.2F500
G0 Y35.573Z1.2F1500
G1 Z0F500
G1 X62.629Y35.914Z0F1200
G0 Z1.2F500
G0 X62.434Y35.964Z1.2F1500
G1 Z0F500
G1 X62.384Y36.405Z0F1200
G0 Z1.2F500
G0 X62.188Y36.411Z1.2F1500
G1 Z0F500
G1 X61.748Y36.84Z0F1200
G0 Z1.2F500
G0 X61.725Y36.846Z1.2F1500
G1 Z0F500
G1 X61.329Y36.405Z0F1200
G0 Z1.2F500
G0 X61.307Y36.335Z1.2F1500
G1 Z0F500
G1 X61.748Y36.035Z0F1200
G0 Z1.2F500
G0 Y36.094Z1.2F1500
G1 Z0F500
G1 X62.188Y36.276Z0F1200
G0 Z1.2F500
G0 Y36.517Z1.2F1500
G1 Z0F500
G1 X62.629Y36.734Z0F1200
G0 Z1.2F500
G0 Y36.743Z1.2F1500
G1 Z0F500
G1 X63.07Y36.508Z0F1200
G0 Z1.2F500
G0 Y36.615Z1.2F1500
G1 Z0F500
G1 X63.511Y36.636Z0F1200
G0 Z1.2F500
G0 X63.477Y36.405Z1.2F1500
G1 Z0F500
G1 X63.104Y35.964Z0F1200
G0 Z1.2F500
G0 X63.07Y35.957Z1.2F1500
G1 Z0F500
G1 X62.629Y35.531Z0F1200
G0 Z1.2F500
G0 X62.582Y35.523Z1.2F1500
G1 Z0F500
G1 X62.235Y35.083Z0F1200
G0 Z1.2F500
G0 X62.135Z1.2F1500
G1 Z0F500
G1 X61.8Y34.642Z0F1200
G0 Z1.2F500
G0 X62.188Y34.543Z1.2F1500
G1 Z0F500
G1 X61.748Y34.299Z0F1200
G0 Z1.2F500
G0 Z1.2F1500
G1 Z0F500
G1 X61.307Y34.543Z0F1200
G0 Z1.2F500
G0 X60.866Y34.617Z1.2F1500
G1 Z0F500
G1 X61.307Y34.226Z0F1200
G0 Z1.2F500
G0 X61.223Y34.201Z1.2F1500
G1 Z0F500
G1 X60.95Y33.76Z0F1200
G0 Z1.2F500
G0 X60.866Y33.801Z1.2F1500
G1 Z0F500
G1 X60.425Y34.16Z0F1200
G0 Z1.2F500
G0 X59.984Y34.271Z1.2F1500
G1 Z0F500
G1 X60.425Y34.571Z0F1200
G0 Z1.2F500
G0 X59.799Y34.642Z1.2F1500
G1 Z0F500
G1 X59.729Y34.201Z0F1200
G0 Z1.2F500
G0 X60.064Y33.76Z1.2F1500
G1 Z0F500
G1 X60.346Y33.319Z0F1200
G0 Z1.2F500
G0 X60.425Y33.243Z1.2F1500
G1 Z0F500
G1 X60.866Y32.955Z0F1200
G0 Z1.2F500
G0 Y32.774Z1.2F1500
G1 Z0F500
G1 X61.307Y32.542Z0F1200
G0 Z1.2F500
G0 Y32.636Z1.2F1500
G1 Z0F500
G1 X61.748Y32.68Z0F1200
G0 Z1.2F500
G0 X61.847Y32.878Z1.2F1500
G1 Z0F500
G1 X62.088Y32.438Z0F1200
G0 Z1.2F500
G0 X62.066Z1.2F1500
G1 Z0F500
G1 X61.869Y31.997Z0F1200
G0 Z1.2F500
G0 X61.987Z1.2F1500
G1 Z0F500
G1 X61.949Y31.556Z0F1200
G0 Z1.2F500
G0 Z1.2F1500
G1 Z0F500
G1 X61.987Y31.115Z0F1200
G0 Z1.2F500
G0 X61.761Z1.2F1500
G1 Z0F500
G1 X62.175Y30.674Z0F1200
G0 Z1.2F500
G0 X62.063Z1.2F1500
G1 Z0F500
G1 X61.872Y30.234Z0F1200
G0 Z1.2F500
G0 X61.922Z1.2F1500
G1 Z0F500
G1 X62.013Y29.793Z0F1200
G0 Z1.2F500
G0 X62.206Z1.2F1500
G1 Z0F500
G1 X62.612Y30.234Z0F1200
G0 Z1.2F500
G0 X62.974Z1.2F1500
G1 Z0F500
G1 X62.725Y29.793Z0F1200
G0 Z1.2F500
G0 X63.07Y29.765Z1.2F1500
G1 Z0F500
G1 X62.629Y29.38Z0F1200
G0 Z1.2F500
G0 X62.604Y29.352Z1.2F1500
G1 Z0F500
G1 X62.213Y28.911Z0F1200
G0 Z1.2F500
G0 X62.188Y29.048Z1.2F1500
G1 Z0F500
G1 X61.748Y29.215Z0F1200
G0 Z1.2F500
G0 Y29.368Z1.2F1500
G1 Z0F500
G1 X61.307Y29.777Z0F1200
G0 Z1.2F500
G0 X61.283Y29.793Z1.2F1500
G1 Z0F500
G1 X60.889Y29.352Z0F1200
G0 Z1.2F500
G0 X60.744Z1.2F1500
G1 Z0F500
G1 X60.547Y28.911Z0F1200
G0 Z1.2F500
G0 X60.866Y28.817Z1.2F1500
G1 Z0F500
G1 X60.425Y28.564Z0F1200
G0 Z1.2F500
G0 Y28.648Z1.2F1500
G1 Z0F500
G1 X59.984Y28.733Z0F1200
G0 Z1.2F500
G0 Y28.701Z1.2F1500
G1 Z0F500
G1 X59.543Y28.68Z0F1200
G0 Z1.2F500
G0 X59.515Y28.47Z1.2F1500
G1 Z0F500
G1 X59.13Y28.029Z0F1200
G0 Z1.2F500
G0 X59.103Y28.088Z1.2F1500
G1 Z0F500
G1 X58.662Y28.411Z0F1200
G0 Z1.2F500
G0 X58.554Y28.47Z1.2F1500
G1 Z0F500
G1 X58.328Y28.911Z0F1200
G0 Z1.2F500
G0 X58.662Y29.027Z1.2F1500
G1 Z0F500
G1 X58.221Y29.236Z0F1200
G0 Z1.2F500
G0 Y29.264Z1.2F1500
G1 Z0F500
G1 X57.78Y28.999Z0F1200
G0 Z1.2F500
G0 Y28.94Z1.2F1500
G1 Z0F500
G1 X57.339Y29.322Z0F1200
G0 Z1.2F500
G0 X57.282Y29.352Z1.2F1500
G1 Z0F500
G1 X56.956Y28.911Z0F1200
G0 Z1.2F500
G0 X56.684Z1.2F1500
G1 Z0F500
G1 X56.672Y28.47Z0F1200
G0 Z1.2F500
G0 X56.954Z1.2F1500
G1 Z0F500
G1 X57.283Y28.911Z0F1200
G0 Z1.2F500
G0 X57.779Z1.2F1500
G1 Z0F500
G1 X57.341Y28.47Z0F1200
G0 Z1.2F500
G0 X57.339Y28.385Z1.2F1500
G1 Z0F500
G1 X57.78Y28.115Z0F1200
G0 Z1.2F500
G0 Y27.99Z1.2F1500
G1 Z0F500
G1 X58.221Y27.628Z0F1200
G0 Z1.2F500
G0 Y27.636Z1.2F1500
G1 Z0F500
G1 X58.662Y27.982Z0F1200
G0 Z1.2F500
G0 X58.43Y28.029Z1.2F1500
G1 Z0F500
G1 X58.453Y28.47Z0F1200
G0 Z1.2F500
G0 X58.221Y28.539Z1.2F1500
G1 Z0F500
G1 X57.78Y28.842Z0F1200
G0 Z1.2F500
G0 X58.064Y28.47Z1.2F1500
G1 Z0F500
G1 X57.937Y28.029Z0F1200
G0 Z1.2F500
G0 X57.78Y27.646Z1.2F1500
G1 Z0F500
G1 X57.339Y27.972Z0F1200
G0 Z1.2F500
G0 X57.114Y28.029Z1.2F1500
G1 Z0F500
G1 X57.123Y28.47Z0F1200
G0 Z1.2F500
G0 X56.898Y27.935Z1.2F1500
G1 Z0F500
G1 X57.339Y27.683Z0F1200
G0 Z1.2F500
G0 X57.039Y27.589Z1.2F1500
G1 Z0F500
G1 X57.198Y27.148Z0F1200
G0 Z1.2F500
G0 X57.339Y27.149Z1.2F1500
G1 Z0F500
G1 X57.78Y27.587Z0F1200
G0 Z1.2F500
G0 Y27.292Z1.2F1500
G1 Z0F500
G1 X58.221Y27.445Z0F1200
G0 Z1.2F500
G0 X58.559Y27.589Z1.2F1500
G1 Z0F500
G1 X58.324Y27.148Z0F1200
G0 Z1.2F500
G0 X58.413Z1.2F1500
G1 Z0F500
G1 X58.469Y26.707Z0F1200
G0 Z1.2F500
G0 X58.221Y26.701Z1.2F1500
G1 Z0F500
G1 X58.662Y26.272Z0F1200
G0 Z1.2F500
G0 X58.903Y26.266Z1.2F1500
G1 Z0F500
G1 X58.862Y26.707Z0F1200
G0 Z1.2F500
G0 X58.879Z1.2F1500
G1 Z0F500
G1 X58.885Y27.148Z0F1200
G0 Z1.2F500
G0 X58.82Z1.2F1500
G1 Z0F500
G1 X58.944Y27.589Z0F1200
G0 Z1.2F500
G0 X58.766Z1.2F1500
G1 Z0F500
G1 X58.998Y28.029Z0F1200
G0 Z1.2F500
G0 X59.385Z1.2F1500
G1 Z0F500
G1 X59.261Y27.589Z0F1200
G0 Z1.2F500
G0 X59.543Y27.402Z1.2F1500
G1 Z0F500
G1 X59.103Y27.334Z0F1200
G0 Z1.2F500
G0 X59.543Y27.143Z1.2F1500
G1 Z0F500
G1 X59.103Y26.711Z0F1200
G0 Z1.2F500
G0 X59.249Y26.707Z1.2F1500
G1 Z0F500
G1 X59.396Y26.266Z0F1200
G0 Z1.2F500
G0 X59.543Y26.129Z1.2F1500
G1 Z0F500
G1 X59.103Y25.962Z0F1200
G0 Z1.2F500
G0 X59.216Y25.825Z1.2F1500
G1 Z0F500
G1 X59.43Y25.384Z0F1200
G0 Z1.2F500
G0 X59.241Z1.2F1500
G1 Z0F500
G1 X59.405Y24.944Z0F1200
G0 Z1.2F500
G0 X59.543Y24.823Z1.2F1500
G1 Z0F500
G1 X59.984Y24.623Z0F1200
G0 Z1.2F500
G0 Y24.728Z1.2F1500
G1 Z0F500
G1 X60.425Y24.719Z0F1200
G0 Z1.2F500
G0 Y24.516Z1.2F1500
G1 Z0F500
G1 X60.866Y24.93Z0F1200
G0 Z1.2F500
G0 Y25.045Z1.2F1500
G1 Z0F500
G1 X61.307Y25.283Z0F1200
G0 Z1.2F500
G0 Y25.286Z1.2F1500
G1 Z0F500
G1 X61.748Y25.042Z0F1200
G0 Z1.2F500
G0 Y24.879Z1.2F1500
G1 Z0F500
G1 X62.188Y24.567Z0F1200
G0 Z1.2F500
G0 X62.055Y24.503Z1.2F1500
G1 Z0F500
G1 X61.881Y24.062Z0F1200
G0 Z1.2F500
G0 X61.748Y24.087Z1.2F1500
G1 Z0F500
G1 X61.307Y24.478Z0F1200
G0 Z1.2F500
G0 X60.953Y24.503Z1.2F1500
G1 Z0F500
G1 X61.22Y24.062Z0F1200
G0 Z1.2F500
G0 X61.308Z1.2F1500
G1 Z0F500
G1 X61.746Y23.621Z0F1200
G0 Z1.2F500
G0 X61.748Y23.665Z1.2F1500
G1 Z0F500
G1 X62.188Y24.018Z0F1200
G0 Z1.2F500
G0 Y24.163Z1.2F1500
G1 Z0F500
G1 X62.629Y24.401Z0F1200
G0 Z1.2F500
G0 Y24.365Z1.2F1500
G1 Z0F500
G1 X63.07Y24.2Z0F1200
G0 Z1.2F500
G0 Y24.24Z1.2F1500
G1 Z0F500
G1 X63.511Y24.325Z0F1200
G0 Z1.2F500
G0 X63.589Y24.062Z1.2F1500
G1 Z0F500
G1 X63.874Y24.503Z0F1200
G0 Z1.2F500
G0 X63.974Z1.2F1500
G1 Z0F500
G1 X64.37Y24.944Z0F1200
G0 Z1.2F500
G0 X64.392Y25.161Z1.2F1500
G1 Z0F500
G1 X63.952Y25.167Z0F1200
G0 Z1.2F500
G0 X63.946Y25.384Z1.2F1500
G1 Z0F500
G1 X63.517Y25.825Z0F1200
G0 Z1.2F500
G0 X63.324Z1.2F1500
G1 Z0F500
G1 X63.257Y26.266Z0F1200
G0 Z1.2F500
G0 X63.273Z1.2F1500
G1 Z0F500
G1 X63.308Y26.707Z0F1200
G0 Z1.2F500
G0 X63.07Y26.802Z1.2F1500
G1 Z0F500
G1 X63.511Y27.052Z0F1200
G0 Z1.2F500
G0 X63.534Y27.148Z1.2F1500
G1 Z0F500
G1 X63.928Y27.589Z0F1200
G0 Z1.2F500
G0 X63.821Z1.2F1500
G1 Z0F500
G1 X63.642Y28.029Z0F1200
G0 Z1.2F500
G0 X63.662Z1.2F1500
G1 Z0F500
G1 X63.8Y28.47Z0F1200
G0 Z1.2F500
G0 X63.944Z1.2F1500
G1 Z0F500
G1 X63.518Y28.911Z0F1200
G0 Z1.2F500
G0 X63.503Z1.2F1500
G1 Z0F500
G1 X63.077Y28.47Z0F1200
G0 Z1.2F500
G0 X62.835Z1.2F1500
G1 Z0F500
G1 X62.864Y28.911Z0F1200
G0 Z1.2F500
G0 X62.713Z1.2F1500
G1 Z0F500
G1 X62.986Y29.352Z0F1200
G0 Z1.2F500
G0 X63.07Y29.39Z1.2F1500
G1 Z0F500
G1 X63.511Y29.754Z0F1200
G0 Z1.2F500
G0 Y29.801Z1.2F1500
G1 Z0F500
G1 X63.07Y30.225Z0F1200
G0 Z1.2F500
G0 Y30.414Z1.2F1500
G1 Z0F500
G1 X63.511Y30.494Z0F1200
G0 Z1.2F500
G0 Y30.366Z1.2F1500
G1 Z0F500
G1 X63.952Y30.542Z0F1200
G0 Z1.2F500
G0 X63.985Y30.674Z1.2F1500
G1 Z0F500
G1 X64.359Y30.234Z0F1200
G0 Z1.2F500
G0 X64.497Z1.2F1500
G1 Z0F500
G1 X64.729Y29.793Z0F1200
G0 Z1.2F500
G0 X65.063Z1.2F1500
G1 Z0F500
G1 X65.045Y30.234Z0F1200
G0 Z1.2F500
G0 X64.833Y30.3Z1.2F1500
G1 Z0F500
G1 X65.274Y30.608Z0F1200
G0 Z1.2F500
G0 X65.533Y30.674Z1.2F1500
G1 Z0F500
G1 X65.456Y30.234Z0F1200
G0 Z1.2F500
G0 X65.274Y30.144Z1.2F1500
G1 Z0F500
G1 X65.715Y29.882Z0F1200
G0 Z1.2F500
G0 Y29.631Z1.2F1500
G1 Z0F500
G1 X65.274Y29.513Z0F1200
G0 Z1.2F500
G0 Y29.697Z1.2F1500
G1 Z0F500
G1 X64.833Y29.447Z0F1200
G0 Z1.2F500
G0 Y29.327Z1.2F1500
G1 Z0F500
G1 X65.274Y28.936Z0F1200
G0 Z1.2F500
G0 Y28.907Z1.2F1500
G1 Z0F500
G1 X65.715Y28.475Z0F1200
G0 Z1.2F500
G0 Y28.351Z1.2F1500
G1 Z0F500
G1 X65.274Y28.148Z0F1200
G0 Z1.2F500
G0 Y28.001Z1.2F1500
G1 Z0F500
G1 X65.715Y27.616Z0F1200
G0 Z1.2F500
G0 Y27.702Z1.2F1500
G1 Z0F500
G1 X66.156Y27.916Z0F1200
G0 Z1.2F500
G0 X66.195Y28.029Z1.2F1500
G1 Z0F500
G1 X66.557Y27.589Z0F1200
G0 Z1.2F500
G0 X66.6Z1.2F1500
G1 Z0F500
G1 X67.035Y28.029Z0F1200
G0 Z1.2F500
G0 X67.203Z1.2F1500
G1 Z0F500
G1 X67.312Y28.47Z0F1200
G0 Z1.2F500
G0 X67.478Y28.504Z1.2F1500
G1 Z0F500
G1 X67.037Y28.877Z0F1200
G0 Z1.2F500
G0 X67.07Y28.911Z1.2F1500
G1 Z0F500
G1 X67.446Y29.352Z0F1200
G0 Z1.2F500
G0 X67.478Y29.408Z1.2F1500
G1 Z0F500
G1 X67.037Y29.737Z0F1200
G0 Z1.2F500
G0 Y29.84Z1.2F1500
G1 Z0F500
G1 X67.478Y30.186Z0F1200
G0 Z1.2F500
G0 X67.919Y30.138Z1.2F1500
G1 Z0F500
G1 X67.478Y29.888Z0F1200
G0 Z1.2F500
G0 X67.76Y29.793Z1.2F1500
G1 Z0F500
G1 X67.637Y29.352Z0F1200
G0 Z1.2F500
G0 X67.809Z1.2F1500
G1 Z0F500
G1 X67.588Y28.911Z0F1200
G0 Z1.2F500
G0 X67.624Z1.2F1500
G1 Z0F500
G1 X67.774Y28.47Z0F1200
G0 Z1.2F500
G0 X67.919Y28.724Z1.2F1500
G1 Z0F500
G1 X68.36Y28.657Z0F1200
G0 Z1.2F500
G0 X68.38Y28.47Z1.2F1500
G1 Z0F500
G1 X68.78Y28.911Z0F1200

; Color 1 picking sequence
G1 Z10 F500;         ; Raise brush to safe height
;G0 X2 Y0 F1000;     ; Rapid move to brush cleaning position
;G1 Z0 F500;         ; Lower brush for cleaning - controlled movement
;G1 Z2 F500;         ; Raise brush slightly - controlled movement
;G1 X22 Y0 Z8 F800;     ; Move across cleaning area - controlled movement
;G1 Z8 F500;         ; Maintain brush height - controlled movement
G0 X85 Y0 F1200;    ; Rapid move to color 1 position
G1 Z0 F500;         ; Lower into color - controlled movement
G1 X79 Y1 F500;     ; Small movement in paint - controlled movement
G1 Z7 F500;         ; Raise from color - controlled movement
G1 X82 Y1 F500;     ; Movement in paint - controlled movement
G1 Z1 F500;         ; Lower slightly - controlled movement
G1 X71 Y10 Z10 F500;     ; Move in paint - controlled movement
;G1 Z8 F500;         ; Raise brush - controlled movement
G1 F1200;           ; Set feed rate to 1000

; Return to drawing position
G0 X68.780 Y28.911 F1200;  ; Return to position with raised Z
G1 Z0 F500;                       ; Lower Z to drawing position
G0 Z1.2F500
G0 X68.801Y29.151Z1.2F1500
G1 Z0F500
G1 X69.242Y29.112Z0F1200
G0 Z1.2F500
G0 X69.369Y28.911Z1.2F1500
G1 Z0F500
G1 X69.555Y28.47Z0F1200
G0 Z1.2F500
G0 X69.682Y28.467Z1.2F1500
G1 Z0F500
G1 X70.123Y28.032Z0F1200
G0 Z1.2F500
G0 X70.383Y28.029Z1.2F1500
G1 Z0F500
G1 X70.304Y28.47Z0F1200
G0 Z1.2F500
G0 X70.123Y28.651Z1.2F1500
G1 Z0F500
G1 X69.682Y28.73Z0F1200
G0 Z1.2F500
G0 X69.666Y28.911Z1.2F1500
G1 Z0F500
G1 X69.258Y29.352Z0F1200
G0 Z1.2F500
G0 X69.265Z1.2F1500
G1 Z0F500
G1 X69.659Y29.793Z0F1200
G0 Z1.2F500
G0 X69.242Y29.847Z1.2F1500
G1 Z0F500
G1 X68.801Y30.179Z0F1200
G0 Z1.2F500
G0 Y30.07Z1.2F1500
G1 Z0F500
G1 X68.36Y29.956Z0F1200
G0 Z1.2F500
G0 Y29.976Z1.2F1500
G1 Z0F500
G1 X67.919Y30.05Z0F1200
G0 Z1.2F500
G0 X68.156Y30.234Z1.2F1500
G1 Z0F500
G1 X68.123Y30.674Z0F1200
G0 Z1.2F500
G0 X68.103Z1.2F1500
G1 Z0F500
G1 X68.176Y31.115Z0F1200
G0 Z1.2F500
G0 X68.073Z1.2F1500
G1 Z0F500
G1 X68.206Y31.556Z0F1200
G0 Z1.2F500
G0 X68.613Z1.2F1500
G1 Z0F500
G1 X68.548Y31.997Z0F1200
G0 Z1.2F500
G0 X69.09Z1.2F1500
G1 Z0F500
G1 X68.952Y31.556Z0F1200
G0 Z1.2F500
G0 X68.801Y31.425Z1.2F1500
G1 Z0F500
G1 X68.36Y31.246Z0F1200
G0 Z1.2F500
G0 Y31.102Z1.2F1500
G1 Z0F500
G1 X68.801Y30.688Z0F1200
G0 Z1.2F500
G0 X68.946Y30.674Z1.2F1500
G1 Z0F500
G1 X69.096Y31.115Z0F1200
G0 Z1.2F500
G0 X69.242Y31.146Z1.2F1500
G1 Z0F500
G1 X69.682Y31.525Z0F1200
G0 Z1.2F500
G0 Y31.496Z1.2F1500
G1 Z0F500
G1 X70.123Y31.175Z0F1200
G0 Z1.2F500
G0 Y31.089Z1.2F1500
G1 Z0F500
G1 X70.564Y30.701Z0F1200
G0 Z1.2F500
G0 X70.523Y31.115Z1.2F1500
G1 Z0F500
G1 X70.164Y31.556Z0F1200
G0 Z1.2F500
G0 X70.599Z1.2F1500
G1 Z0F500
G1 X70.97Y31.115Z0F1200
G0 Z1.2F500
G0 X71.446Y31.045Z1.2F1500
G1 Z0F500
G1 X71.887Y30.745Z0F1200
G0 Z1.2F500
G0 X71.95Y30.674Z1.2F1500
G1 Z0F500
G1 X72.264Y31.115Z0F1200
G0 Z1.2F500
G0 X72.324Z1.2F1500
G1 Z0F500
G1 X71.889Y31.556Z0F1200
G0 Z1.2F500
G0 X71.887Y31.69Z1.2F1500
G1 Z0F500
G1 X72.327Y31.863Z0F1200
G0 Z1.2F500
G0 Y31.569Z1.2F1500
G1 Z0F500
G1 X72.768Y31.984Z0F1200
G0 Z1.2F500
G0 X73.053Y31.997Z1.2F1500
G1 Z0F500
G1 X72.924Y31.556Z0F1200
G0 Z1.2F500
G0 X73.083Z1.2F1500
G1 Z0F500
G1 X72.895Y31.115Z0F1200
G0 Z1.2F500
G0 X72.818Z1.2F1500
G1 Z0F500
G1 X73.159Y30.674Z0F1200
G0 Z1.2F500
G0 X73.472Z1.2F1500
G1 Z0F500
G1 X73.387Y30.234Z0F1200
G0 Z1.2F500
G0 X73.133Z1.2F1500
G1 Z0F500
G1 X72.845Y29.793Z0F1200
G0 Z1.2F500
G0 X73.209Y29.824Z1.2F1500
G1 Z0F500
G1 X73.65Y30.203Z0F1200
G0 Z1.2F500
G0 Y30.025Z1.2F1500
G1 Z0F500
G1 X74.091Y30.001Z0F1200
G0 Z1.2F500
G0 Y30.432Z1.2F1500
G1 Z0F500
G1 X73.65Y30.476Z0F1200
G0 Z1.2F500
G0 X74.091Y30.485Z1.2F1500
G1 Z0F500
G1 X74.532Y30.423Z0F1200
G0 Z1.2F500
G0 X75.055Y30.674Z1.2F1500
G1 Z0F500
G1 X75.331Y31.115Z0F1200
G0 Z1.2F500
G0 X75.689Z1.2F1500
G1 Z0F500
G1 X75.578Y30.674Z0F1200
G0 Z1.2F500
G0 X75.62Z1.2F1500
G1 Z0F500
G1 X75.647Y30.234Z0F1200
G0 Z1.2F500
G0 X75.854Y30.322Z1.2F1500
G1 Z0F500
G1 X76.295Y30.586Z0F1200
G0 Z1.2F500
G0 Y30.538Z1.2F1500
G1 Z0F500
G1 X76.736Y30.37Z0F1200
G0 Z1.2F500
G0 Y30.225Z1.2F1500
G1 Z0F500
G1 X77.176Y29.801Z0F1200
G0 Z1.2F500
G0 X77.331Y29.793Z1.2F1500
G1 Z0F500
G1 X77.463Y29.352Z0F1200
G0 Z1.2F500
G0 X77.157Z1.2F1500
G1 Z0F500
G1 X76.755Y28.911Z0F1200
G0 Z1.2F500
G0 X77.243Z1.2F1500
G1 Z0F500
G1 X77.551Y28.47Z0F1200
G0 Z1.2F500
G0 X77.617Y28.234Z1.2F1500
G1 Z0F500
G1 X78.058Y28.266Z0F1200
G0 Z1.2F500
G0 X78.251Y28.47Z1.2F1500
G1 Z0F500
G1 X78.306Y28.029Z0F1200
G0 Z1.2F500
G0 X78.499Y28.159Z1.2F1500
G1 Z0F500
G1 X78.94Y28.341Z0F1200
G0 Z1.2F500
G0 X79.131Y28.47Z1.2F1500
G1 Z0F500
G1 X79.19Y28.029Z0F1200
G0 Z1.2F500
G0 X78.75Z1.2F1500
G1 Z0F500
G1 X78.689Y27.589Z0F1200
G0 Z1.2F500
G0 X78.499Y27.467Z1.2F1500
G1 Z0F500
G1 X78.94Y27.27Z0F1200
G0 Z1.2F500
G0 X78.947Y27.148Z1.2F1500
G1 Z0F500
G1 X79.373Y26.707Z0F1200
G0 Z1.2F500
G0 X79.381Y26.509Z1.2F1500
G1 Z0F500
G1 X78.94Y26.464Z0F1200
G0 Z1.2F500
G0 Y26.398Z1.2F1500
G1 Z0F500
G1 X78.499Y26.575Z0F1200
G0 Z1.2F500
G0 X78.511Y26.707Z1.2F1500
G1 Z0F500
G1 X78.928Y27.148Z0F1200
G0 Z1.2F500
G0 X79.381Y27.079Z1.2F1500
G1 Z0F500
G1 X79.821Y26.776Z0F1200
G0 Z1.2F500
G0 X79.87Y26.707Z1.2F1500
G1 Z0F500
G1 X80.214Y26.266Z0F1200
G0 Z1.2F500
G0 X79.821Y26.176Z1.2F1500
G1 Z0F500
G1 X80.262Y25.915Z0F1200
G0 Z1.2F500
G0 Y25.653Z1.2F1500
G1 Z0F500
G1 X79.821Y25.556Z0F1200
G0 Z1.2F500
G0 Y25.852Z1.2F1500
G1 Z0F500
G1 X79.381Y26.24Z0F1200
G0 Z1.2F500
G0 X78.94Y26.204Z1.2F1500
G1 Z0F500
G1 X78.499Y25.887Z0F1200
G0 Z1.2F500
G0 X78.678Y25.825Z1.2F1500
G1 Z0F500
G1 X78.761Y25.384Z0F1200
G0 Z1.2F500
G0 X78.546Z1.2F1500
G1 Z0F500
G1 X78.893Y24.944Z0F1200
G0 Z1.2F500
G0 X79.024Z1.2F1500
G1 Z0F500
G1 X79.297Y25.384Z0F1200
G0 Z1.2F500
G0 X79.381Y25.424Z1.2F1500
G1 Z0F500
G1 X78.94Y25.786Z0F1200
G0 Z1.2F500
G0 X78.437Y26.266Z1.2F1500
G1 Z0F500
G1 X78.12Y26.707Z0F1200
G0 Z1.2F500
G0 X78.057Z1.2F1500
G1 Z0F500
G1 X77.619Y26.266Z0F1200
G0 Z1.2F500
G0 X77.31Z1.2F1500
G1 Z0F500
G1 X77.484Y26.707Z0F1200
G0 Z1.2F500
G0 X77.406Z1.2F1500
G1 Z0F500
G1 X77.388Y27.148Z0F1200
G0 Z1.2F500
G0 X77.617Y27.095Z1.2F1500
G1 Z0F500
G1 X78.058Y26.76Z0F1200
G0 Z1.2F500
G0 X78.312Y26.707Z1.2F1500
G1 Z0F500
G1 X78.245Y27.148Z0F1200
G0 Z1.2F500
G0 X77.582Y27.589Z1.2F1500
G1 Z0F500
G1 X77.212Y28.029Z0F1200
G0 Z1.2F500
G0 X77.176Y27.919Z1.2F1500
G1 Z0F500
G1 X76.736Y27.699Z0F1200
G0 Z1.2F500
G0 X76.44Y27.589Z1.2F1500
G1 Z0F500
G1 X76.59Y28.029Z0F1200
G0 Z1.2F500
G0 X76.295Y28.095Z1.2F1500
G1 Z0F500
G1 X76.736Y28.404Z0F1200
G0 Z1.2F500
G0 X76.295Y29.024Z1.2F1500
G1 Z0F500
G1 X75.854Y29.239Z0F1200
G0 Z1.2F500
G0 Y29.824Z1.2F1500
G1 Z0F500
G1 X76.295Y30.203Z0F1200
G0 Z1.2F500
G0 X76.589Y30.674Z1.2F1500
G1 Z0F500
G1 X76.442Y31.115Z0F1200
G0 Z1.2F500
G0 X76.196Z1.2F1500
G1 Z0F500
G1 X75.952Y30.674Z0F1200
G0 Z1.2F500
G0 X76.017Y31.115Z1.2F1500
G1 Z0F500
G1 X76.132Y31.556Z0F1200
G0 Z1.2F500
G0 X76.536Z1.2F1500
G1 Z0F500
G1 X76.495Y31.997Z0F1200
G0 Z1.2F500
G0 X76.736Y31.491Z1.2F1500
G1 Z0F500
G1 X77.176Y31.18Z0F1200
G0 Z1.2F500
G0 X77.412Y31.115Z1.2F1500
G1 Z0F500
G1 X77.382Y30.674Z0F1200
G0 Z1.2F500
G0 X77.772Z1.2F1500
G1 Z0F500
G1 X77.904Y31.115Z0F1200
G0 Z1.2F500
G0 X77.617Y31.14Z1.2F1500
G1 Z0F500
G1 X77.176Y31.531Z0F1200
G0 Z1.2F500
G0 X78.182Y31.556Z1.2F1500
G1 Z0F500
G1 X78.376Y31.115Z0F1200
G0 Z1.2F500
G0 X78.02Y30.674Z1.2F1500
G1 Z0F500
G1 X77.655Y30.234Z0F1200
G0 Z1.2F500
