;LightBurn 1.6.04
;Custom GCode device profile, absolute coords
;Bounds: X4.44 Y45 to X127.56 Y51
G00 G17 G40 G21 G54
G90
M3
G1 Z1F500
;Cut @ 15 mm/sec, 90% power

M8
G0 Z0.5F500
G0 X4.445Y45.896Z0.5F1000
G1 Z0F500
;Layer C00
G1 X4.666Y48.093Z0S900F800
G1 X4.839Y49.663Z0F800
G1 X4.991Y50.279Z0F800
G1 X5.122Y50.32Z0F800
G1 X5.427Y50.099Z0F800
G1 X5.952Y49.034Z0F800
G1 X6.499Y47.989Z0F800
G1 X6.976Y47.007Z0F800
G1 X7.28Y47.443Z0F800
G1 X8.083Y48.944Z0F800
G1 X8.802Y50.341Z0F800
G1 X8.954Y50.23Z0F800
G1 X9.113Y49.601Z0F800
G1 X9.265Y48.536Z0F800
G1 X9.438Y47.401Z0F800
G1 X9.611Y45.787Z0F800
G0 Z0.5F500
G0 X13.27Y45.722Z0.5F1000
G1 Z0F500
G1 X13.187Y48.335Z0F800
G1 X13.097Y48.66Z0F800
G1 X12.62Y48.75Z0F800
G1 X12.226Z0F800
G1 X11.7Y48.508Z0F800
G1 X11.001Y48.031Z0F800
G1 X10.573Y47.381Z0F800
G1 X10.241Y46.703Z0F800
G1 X10.33Y46.026Z0F800
G1 X10.656Y45.809Z0F800
G1 X11.264Y45.744Z0F800
G1 X11.7Y45.896Z0F800
G1 X12.156Y46.157Z0F800
G1 X12.793Y46.744Z0F800
G1 X13.187Y47.616Z0F800
G0 Z0.5F500
G0 X14.051Y48.944Z0.5F1000
G1 Z0F500
G1 X13.968Y45.809Z0F800
G1 X14.183Y47.574Z0F800
G1 X14.708Y48.252Z0F800
G1 X15.379Y48.639Z0F800
G1 X15.926Y48.861Z0F800
G1 X16.168Y48.882Z0F800
G1 X16.887Y48.812Z0F800
G1 X16.97Y48.75Z0F800
G0 Z0.5F500
G0 X20.484Y48.577Z0.5F1000
G1 Z0F500
G1 X20.262Y48.771Z0F800
G1 X19.612Y48.84Z0F800
G1 X18.914Y48.577Z0F800
G1 X18.326Y48.141Z0F800
G1 X17.689Y47.312Z0F800
G1 X17.496Y46.44Z0F800
G1 X17.911Y45.939Z0F800
G1 X18.761Y45.678Z0F800
G1 X19.674Y45.722Z0F800
G1 X20.324Y45.874Z0F800
G1 X21.023Y46.245Z0F800
G0 Z0.5F500
G0 X24.426Y50.099Z0.5F1000
G1 Z0F500
G1 X24.993Y50.23Z0F800
G1 X25.56Y50.299Z0F800
G1 X26.321Y50.251Z0F800
G1 X27.061Y50.057Z0F800
G1 X27.822Y49.642Z0F800
G1 X28.285Y49.096Z0F800
G1 X28.347Y48.536Z0F800
G1 X28.216Y48.031Z0F800
G1 X27.801Y47.422Z0F800
G1 X27.282Y46.897Z0F800
G1 X26.625Y46.44Z0F800
G1 X25.823Y46.026Z0F800
G1 X25.055Y45.787Z0F800
G1 X24.426Y45.7Z0F800
G1 X24.405Y50.362Z0F800
G0 Z0.5F500
G0 X29.219Y48.882Z0.5F1000
G1 Z0F500
G1 X29.046Y47.879Z0F800
G1 X28.984Y46.724Z0F800
G1 X29.247Y46.049Z0F800
G1 X29.786Y45.765Z0F800
G1 X30.706Y45.831Z0F800
G1 X31.225Y46.157Z0F800
G1 X31.508Y46.289Z0F800
G1 X31.792Y46.682Z0F800
G1 X31.992Y47.097Z0F800
G1 X31.833Y48.964Z0F800
G1 X32.055Y45.787Z0F800
G0 Z0.5F500
G0 X32.905Y45.722Z0.5F1000
G1 Z0F500
G1 X33.12Y45.7Z0F800
G1 X33.624Y45.896Z0F800
G1 X34.496Y46.136Z0F800
G1 X35.174Y46.661Z0F800
G1 X35.236Y46.986Z0F800
G1 X35.015Y47.18Z0F800
G1 X34.669Y47.312Z0F800
G1 X34.233Y47.332Z0F800
G1 X33.555Y47.201Z0F800
G1 X32.926Z0F800
G1 X32.642Y47.422Z0F800
G1 Y47.92Z0F800
G1 X32.926Y48.377Z0F800
G1 X33.604Y48.729Z0F800
G1 X34.344Y48.882Z0F800
G1 X34.994Z0F800
G1 X35.215Y48.66Z0F800
G0 Z0.5F500
G0 X38.438Z0.5F1000
G1 Z0F500
G1 X38.217Y48.882Z0F800
G1 X37.567Z0F800
G1 X36.827Y48.729Z0F800
G1 X36.149Y48.377Z0F800
G1 X35.865Y47.92Z0F800
G1 Y47.422Z0F800
G1 X36.149Y47.201Z0F800
G1 X36.778Z0F800
G1 X37.456Y47.332Z0F800
G1 X37.892Y47.312Z0F800
G1 X38.238Y47.18Z0F800
G1 X38.459Y46.986Z0F800
G1 X38.397Y46.661Z0F800
G1 X37.719Y46.136Z0F800
G1 X36.848Y45.896Z0F800
G1 X36.343Y45.7Z0F800
G1 X36.128Y45.722Z0F800
G0 Z0.5F500
G0 X39.157Y47.747Z0.5F1000
G1 Z0F500
G1 X40.029Y47.768Z0F800
G1 X41.032Y47.789Z0F800
G1 X41.682Y47.899Z0F800
G1 X41.793Y48.141Z0F800
G1 X41.703Y48.377Z0F800
G1 X41.135Y48.882Z0F800
G1 X40.416Z0F800
G1 X39.766Y48.639Z0F800
G1 X39.31Y48.224Z0F800
G1 X38.978Y47.381Z0F800
G1 X38.871Y46.876Z0F800
G1 X38.85Y46.53Z0F800
G1 X39.22Y46.049Z0F800
G1 X39.828Y45.744Z0F800
G1 X40.527Y45.787Z0F800
G1 X41.267Y45.961Z0F800
G1 X41.793Y46.223Z0F800
G1 X41.986Y46.461Z0F800
G0 Z0.5F500
G0 X43.487Y45.874Z0.5F1000
G1 Z0F500
G1 X43.356Y46.005Z0F800
G1 X43.293Y48.792Z0F800
G0 Z0.5F500
G0 X43.245Y50.099Z0.5F1000
G1 Z0F500
G1 X43.121Z0F800
G0 Z0.5F500
G0 X44.773Y50.472Z0.5F1000
G1 Z0F500
G1 X44.836Y47.422Z0F800
G1 X44.884Y45.983Z0F800
G0 Z0.5F500
G0 X46.281Z0.5F1000
G1 Z0F500
G1 X46.233Y47.422Z0F800
G1 X46.171Y50.472Z0F800
G0 Z0.5F500
G0 X47.374Y47.747Z0.5F1000
G1 Z0F500
G1 X48.246Y47.768Z0F800
G1 X49.248Y47.789Z0F800
G1 X49.899Y47.899Z0F800
G1 X50.009Y48.141Z0F800
G1 X49.919Y48.377Z0F800
G1 X49.352Y48.882Z0F800
G1 X48.633Z0F800
G1 X47.983Y48.639Z0F800
G1 X47.526Y48.224Z0F800
G1 X47.194Y47.381Z0F800
G1 X47.088Y46.876Z0F800
G1 X47.066Y46.53Z0F800
G1 X47.436Y46.049Z0F800
G1 X48.045Y45.744Z0F800
G1 X48.743Y45.787Z0F800
G1 X49.484Y45.961Z0F800
G1 X50.009Y46.223Z0F800
G1 X50.203Y46.461Z0F800
G0 Z0.5F500
G0 X50.984Y48.944Z0.5F1000
G1 Z0F500
G1 X50.901Y45.809Z0F800
G1 X51.116Y47.574Z0F800
G1 X51.641Y48.252Z0F800
G1 X52.312Y48.639Z0F800
G1 X52.859Y48.861Z0F800
G1 X53.101Y48.882Z0F800
G1 X53.82Y48.812Z0F800
G1 X53.903Y48.75Z0F800
G0 Z0.5F500
G0 X59.659Y50.007Z0.5F1000
G1 Z0F500
G1 X58.941Y45.994Z0F800
G0 Z0.5F500
G0 X59.059Z0.5F1000
G1 Z0F500
G1 X59.781Y50.211Z0F800
G0 Z0.5F500
G0 Z0.5F1000
G1 Z0F500
G1 X57.984Y47.198Z0F800
G1 X59.898Z0F800
G0 Z0.5F500
G0 X60.618Y46.396Z0.5F1000
G1 Z0F500
G1 X60.498Y46.195Z0F800
G1 X60.618Y45.994Z0F800
G1 X60.738Y46.195Z0F800
G1 X60.618Y46.396Z0F800
G0 Z0.5F500
G0 X62.409Y45.994Z0.5F1000
G1 Z0F500
G1 X63.009Y49.409Z0F800
G0 Z0.5F500
G0 X63.13Y49.606Z0.5F1000
G1 Z0F500
G1 X62.652Y49.205Z0F800
G1 X62.291Y49.001Z0F800
G0 Z0.5F500
G0 Z0.5F1000
G1 Z0F500
G1 X62.53Y49.205Z0F800
G1 X62.887Y49.606Z0F800
G1 X63.248Y50.211Z0F800
G0 Z0.5F500
G0 Z0.5F1000
G1 Z0F500
G1 X62.53Y45.994Z0F800
G0 Z0.5F500
G0 X64.923Z0.5F1000
G1 Z0F500
G1 X65.523Y49.409Z0F800
G0 Z0.5F500
G0 X65.645Y49.606Z0.5F1000
G1 Z0F500
G1 X65.166Y49.205Z0F800
G1 X64.805Y49.001Z0F800
G0 Z0.5F500
G0 Z0.5F1000
G1 Z0F500
G1 X65.045Y49.205Z0F800
G1 X65.402Y49.606Z0F800
G1 X65.762Y50.211Z0F800
G0 Z0.5F500
G0 Z0.5F1000
G1 Z0F500
G1 X65.045Y45.994Z0F800
G0 Z0.5F500
G0 X66.841Y46.195Z0.5F1000
G1 Z0F500
G1 X66.961Y45.994Z0F800
G1 X67.08Y46.195Z0F800
G1 X66.961Y46.396Z0F800
G1 X66.841Y46.195Z0F800
G0 Z0.5F500
G0 X68.752Y45.994Z0.5F1000
G1 Z0F500
G1 X69.352Y49.409Z0F800
G0 Z0.5F500
G0 X69.473Y49.606Z0.5F1000
G1 Z0F500
G1 X68.995Y49.205Z0F800
G1 X68.634Y49.001Z0F800
G0 Z0.5F500
G0 Z0.5F1000
G1 Z0F500
G1 X68.873Y49.205Z0F800
G1 X69.23Y49.606Z0F800
G1 X69.591Y50.211Z0F800
G0 Z0.5F500
G0 Z0.5F1000
G1 Z0F500
G1 X68.873Y45.994Z0F800
G0 Z0.5F500
G0 X71.509Z0.5F1000
G1 Z0F500
G1 X71.744Y46.195Z0F800
G1 X71.988Y46.596Z0F800
G1 X72.223Y47.198Z0F800
G1 X72.345Y47.803Z0F800
G1 X72.466Y48.606Z0F800
G1 Y49.606Z0F800
G1 X72.345Y50.007Z0F800
G0 Z0.5F500
G0 X71.744Y50.211Z0.5F1000
G1 Z0F500
G1 X71.509Y50.007Z0F800
G1 X71.266Y49.606Z0F800
G1 X71.148Y49.205Z0F800
G1 Y48.402Z0F800
G1 X71.266Y48.001Z0F800
G0 Z0.5F500
G0 X72.466Y48.804Z0.5F1000
G1 Z0F500
G1 X72.345Y48.402Z0F800
G1 X72.105Y48.001Z0F800
G1 X71.866Y47.803Z0F800
G1 X71.509Z0F800
G1 X71.266Y48.001Z0F800
G1 X71.148Y48.198Z0F800
G1 X71.03Y48.606Z0F800
G1 Y49.205Z0F800
G1 X71.148Y49.606Z0F800
G1 X71.387Y50.007Z0F800
G1 X71.744Y50.211Z0F800
G1 X72.105Z0F800
G1 X72.345Y50.007Z0F800
G1 X72.466Y49.804Z0F800
G1 X72.584Y49.409Z0F800
G1 Y48.606Z0F800
G1 X72.466Y47.803Z0F800
G1 X72.345Y47.198Z0F800
G1 X72.105Y46.596Z0F800
G1 X71.866Y46.195Z0F800
G1 X71.509Y45.994Z0F800
G1 X71.148Z0F800
G1 X70.909Y46.195Z0F800
G1 X70.789Y46.596Z0F800
G1 Y46.797Z0F800
G1 X70.909Y47.001Z0F800
G1 X71.03Y46.797Z0F800
G1 X70.909Y46.596Z0F800
G0 Z0.5F500
G0 X73.662Y45.994Z0.5F1000
G1 Z0F500
G1 X73.78Y46.797Z0F800
G1 X73.902Y47.198Z0F800
G1 X74.141Y47.803Z0F800
G1 X74.859Y49.001Z0F800
G0 Z0.5F500
G0 X74.737Y49.606Z0.5F1000
G1 Z0F500
G1 X74.141Y50.211Z0F800
G1 X73.902Z0F800
G1 X73.545Y49.606Z0F800
G0 Z0.5F500
G0 X73.662Y49.804Z0.5F1000
G1 Z0F500
G1 X73.902Y50.007Z0F800
G1 X74.141Z0F800
G1 X74.737Y49.606Z0F800
G1 X74.98Z0F800
G1 X75.098Y49.804Z0F800
G1 X75.216Y50.211Z0F800
G0 Z0.5F500
G0 Z0.5F1000
G1 Z0F500
G1 X75.098Y49.606Z0F800
G1 X74.859Y49.001Z0F800
G1 X74.259Y47.803Z0F800
G1 X74.023Y47.198Z0F800
G1 X73.902Y46.797Z0F800
G1 X73.78Y45.994Z0F800
G0 Z0.5F500
G0 X76.655Z0.5F1000
G1 Z0F500
G1 X76.895Y46.195Z0F800
G1 X77.134Y46.596Z0F800
G1 X77.252Y47.198Z0F800
G1 Y47.803Z0F800
G1 X77.134Y48.198Z0F800
G1 X77.016Y48.402Z0F800
G1 X76.773Y48.606Z0F800
G0 Z0.5F500
G0 X75.937Y48.198Z0.5F1000
G1 Z0F500
G1 X76.538Y50.211Z0F800
G0 Z0.5F500
G0 Z0.5F1000
G1 Z0F500
G1 X77.73Z0F800
G0 Z0.5F500
G0 Z0.5F1000
G1 Z0F500
G1 X77.134Y50.007Z0F800
G1 X76.538Z0F800
G0 Z0.5F500
G0 X75.937Y48.198Z0.5F1000
G1 Z0F500
G1 X76.059Y48.402Z0F800
G1 X76.416Y48.606Z0F800
G1 X76.773Z0F800
G1 X77.134Y48.402Z0F800
G1 X77.252Y48.198Z0F800
G1 X77.373Y47.803Z0F800
G1 Y47.198Z0F800
G1 X77.252Y46.596Z0F800
G1 X77.016Y46.195Z0F800
G1 X76.655Y45.994Z0F800
G1 X76.294Z0F800
G1 X75.937Y46.195Z0F800
G1 X75.818Y46.396Z0F800
G1 X75.698Y46.797Z0F800
G1 Y47.001Z0F800
G1 X75.818Y47.198Z0F800
G1 X75.937Y47.001Z0F800
G1 X75.818Y46.797Z0F800
G0 Z0.5F500
G0 X73.423Y49.001Z0.5F1000
G1 Z0F500
G1 X73.662Y50.211Z0F800
G0 Z0.5F500
G0 X83.067Y47.023Z0.5F1000
G1 Z0F500
G1 X83.415Y46.735Z0F800
G1 X83.748Y46.57Z0F800
G1 X84.16Y46.488Z0F800
G1 X84.631Y46.468Z0F800
G1 X85.147Y46.674Z0F800
G1 X85.494Y46.984Z0F800
G1 X85.618Y47.395Z0F800
G1 X85.598Y47.761Z0F800
G1 X85.376Y48.134Z0F800
G1 X84.899Y48.441Z0F800
G1 X84.056Y48.814Z0F800
G1 X83.585Y49.121Z0F800
G1 X83.337Y49.454Z0F800
G1 X83.317Y49.866Z0F800
G1 X83.48Y50.298Z0F800
G1 X83.951Y50.585Z0F800
G1 X84.409Y50.651Z0F800
G1 X84.84Y50.605Z0F800
G1 X85.167Y50.441Z0F800
G1 X85.474Y50.213Z0F800
G0 Z0.5F500
G0 X88.729Y49.167Z0.5F1000
G1 Z0F500
G1 X88.625Y49.291Z0F800
G1 X88.376Y49.409Z0F800
G1 X88.01Y49.474Z0F800
G1 X87.579Y49.409Z0F800
G1 X87.187Y49.186Z0F800
G1 X86.853Y48.794Z0F800
G1 X86.691Y48.297Z0F800
G1 Y47.761Z0F800
G1 X86.794Y47.252Z0F800
G1 X87.062Y46.818Z0F800
G1 X87.533Y46.509Z0F800
G1 X87.991Y46.447Z0F800
G1 X88.481Y46.55Z0F800
G1 X88.814Y46.797Z0F800
G0 Z0.5F500
G0 X90.023Y46.468Z0.5F1000
G1 Z0F500
G1 Y50.997Z0F800
G1 Y48.709Z0F800
G1 X90.331Y49.043Z0F800
G1 X90.599Y49.291Z0F800
G1 X90.991Y49.454Z0F800
G1 X91.383Y49.494Z0F800
G1 X91.834Y49.245Z0F800
G1 X91.997Y48.958Z0F800
G1 X92.082Y48.487Z0F800
G1 Y46.447Z0F800
G0 Z0.5F500
G0 X93.56Y47.147Z0.5F1000
G1 Z0F500
G1 X93.808Y46.818Z0F800
G1 X94.095Y46.591Z0F800
G1 X94.409Y46.468Z0F800
G1 X94.697Y46.447Z0F800
G1 X94.716Z0F800
G1 X95.128Y46.55Z0F800
G1 X95.52Y46.818Z0F800
G1 X95.762Y47.232Z0F800
G1 X95.867Y47.683Z0F800
G1 X95.886Y48.114Z0F800
G1 X95.828Y48.507Z0F800
G1 X95.684Y48.853Z0F800
G1 X95.475Y49.121Z0F800
G1 X95.187Y49.369Z0F800
G1 X94.88Y49.474Z0F800
G1 X94.592Y49.494Z0F800
G1 X94.259Y49.435Z0F800
G1 X93.952Y49.245Z0F800
G1 X93.684Y48.938Z0F800
G1 X93.54Y48.65Z0F800
G1 X93.418Y48.219Z0F800
G1 Y47.886Z0F800
G1 X93.459Y47.5Z0F800
G1 X93.56Y47.147Z0F800
G0 Z0.5F500
G0 X97.311Y46.427Z0.5F1000
G1 Z0F500
G1 Y49.474Z0F800
G1 Y48.735Z0F800
G1 X97.599Y49.023Z0F800
G1 X97.867Y49.265Z0F800
G1 X98.076Y49.389Z0F800
G1 X98.383Y49.474Z0F800
G1 X98.586Y49.494Z0F800
G1 X98.9Y49.409Z0F800
G1 X99.083Y49.291Z0F800
G1 X99.227Y49.082Z0F800
G1 X99.351Y48.794Z0F800
G1 Y46.427Z0F800
G0 Z0.5F500
G0 X100.712Y48.056Z0.5F1000
G1 Z0F500
G1 X102.978Z0F800
G1 Y48.422Z0F800
G1 X102.874Y48.899Z0F800
G1 X102.567Y49.265Z0F800
G1 X102.253Y49.474Z0F800
G1 X101.822Y49.494Z0F800
G1 X101.39Y49.369Z0F800
G1 X101.018Y49.062Z0F800
G1 X100.874Y48.755Z0F800
G1 X100.712Y48.363Z0F800
G1 X100.67Y47.951Z0F800
G1 X100.773Y47.454Z0F800
G1 X100.959Y47.003Z0F800
G1 X101.331Y46.632Z0F800
G1 X101.678Y46.468Z0F800
G1 X102.109Y46.427Z0F800
G1 X102.482Y46.529Z0F800
G1 X102.835Y46.715Z0F800
G0 Z0.5F500
G0 X104.541Y46.591Z0.5F1000
G1 Z0F500
G1 X104.233Y46.303Z0F800
G1 X104.027Y45.953Z0F800
G1 X103.985Y45.585Z0F800
G1 X104.273Y45.271Z0F800
G1 X104.75Y45.068Z0F800
G1 X105.305Y45.003Z0F800
G1 X105.796Y45.127Z0F800
G1 X106.292Y45.461Z0F800
G1 X106.475Y45.768Z0F800
G1 X106.456Y46.118Z0F800
G1 X106.273Y46.447Z0F800
G1 X105.815Y46.57Z0F800
G1 X104.56Z0F800
G1 X104.292Y46.755Z0F800
G1 X104.168Y47.042Z0F800
G1 X104.233Y47.31Z0F800
G1 X104.58Y47.703Z0F800
G1 X104.809Y47.559Z0F800
G1 X105.162Y47.5Z0F800
G1 X105.593Y47.644Z0F800
G1 X105.9Y47.931Z0F800
G1 X106.044Y48.278Z0F800
G1 Y48.69Z0F800
G1 X105.881Y49.062Z0F800
G1 X105.756Y49.226Z0F800
G1 X105.469Y49.409Z0F800
G1 X106.456Z0F800
G1 X105.469Z0F800
G1 X105.162Y49.474Z0F800
G1 X104.685Y49.435Z0F800
G1 X104.358Y49.167Z0F800
G1 X104.168Y48.794Z0F800
G1 X104.149Y48.382Z0F800
G1 X104.233Y48.056Z0F800
G1 X104.397Y47.846Z0F800
G1 X104.58Y47.683Z0F800
G0 Z0.5F500
G0 X107.913Z0.5F1000
G1 Z0F500
G1 X107.73Y47.846Z0F800
G1 X107.567Y48.056Z0F800
G1 X107.482Y48.382Z0F800
G1 X107.502Y48.794Z0F800
G1 X107.691Y49.167Z0F800
G1 X108.018Y49.435Z0F800
G1 X108.495Y49.474Z0F800
G1 X108.802Y49.409Z0F800
G1 X109.789Z0F800
G1 X108.802Z0F800
G1 X109.09Y49.226Z0F800
G1 X109.214Y49.062Z0F800
G1 X109.378Y48.69Z0F800
G1 Y48.278Z0F800
G1 X109.234Y47.931Z0F800
G1 X108.927Y47.644Z0F800
G1 X108.495Y47.5Z0F800
G1 X108.142Y47.559Z0F800
G1 X107.913Y47.703Z0F800
G1 X107.567Y47.31Z0F800
G1 X107.502Y47.042Z0F800
G1 X107.626Y46.755Z0F800
G1 X107.894Y46.57Z0F800
G1 X109.149Z0F800
G1 X109.606Y46.447Z0F800
G1 X109.789Y46.118Z0F800
G1 X109.809Y45.768Z0F800
G1 X109.626Y45.461Z0F800
G1 X109.129Y45.127Z0F800
G1 X108.639Y45.003Z0F800
G1 X108.083Y45.068Z0F800
G1 X107.606Y45.271Z0F800
G1 X107.319Y45.585Z0F800
G1 X107.36Y45.953Z0F800
G1 X107.567Y46.303Z0F800
G1 X107.874Y46.591Z0F800
G0 Z0.5F500
G0 X110.529Y46.838Z0.5F1000
G1 Z0F500
G1 X110.901Y46.591Z0F800
G1 X111.312Y46.468Z0F800
G1 X111.639Y46.427Z0F800
G1 X112.051Y46.57Z0F800
G1 X112.358Y46.818Z0F800
G1 X112.463Y47.186Z0F800
G1 X112.384Y47.559Z0F800
G1 X112.012Y47.866Z0F800
G1 X111.495Y48.075Z0F800
G1 X111.025Y48.278Z0F800
G1 X110.757Y48.546Z0F800
G1 X110.694Y48.853Z0F800
G1 X110.796Y49.147Z0F800
G1 X111.129Y49.435Z0F800
G1 X111.535Y49.494Z0F800
G1 X111.953Y49.409Z0F800
G1 X112.299Y49.206Z0F800
G0 Z0.5F500
G0 X113.803Y50.317Z0.5F1000
G1 Z0F500
G1 Y49.389Z0F800
G1 X114.79Z0F800
G1 X113.203Z0F800
G1 X113.803Z0F800
G1 Y47.271Z0F800
G1 X113.842Y46.818Z0F800
G1 X114.071Y46.55Z0F800
G1 X114.332Y46.468Z0F800
G1 X114.626Z0F800
G1 X114.849Y46.57Z0F800
G0 Z0.5F500
G0 X115.921Y46.447Z0.5F1000
G1 Z0F500
G1 Y49.474Z0F800
G1 Y48.546Z0F800
G1 X116.11Y48.918Z0F800
G1 X116.398Y49.291Z0F800
G1 X116.705Y49.435Z0F800
G1 X116.993Y49.474Z0F800
G1 X117.176Y49.454Z0F800
G0 Z0.5F500
G0 X117.938Y46.797Z0.5F1000
G1 Z0F500
G1 Y46.468Z0F800
G1 X118.267Z0F800
G1 Y46.797Z0F800
G1 X117.938Z0F800
G0 Z0.5F500
G0 X121.79Y46.984Z0.5F1000
G1 Z0F500
G1 X122.016Y46.776Z0F800
G1 X122.385Y46.57Z0F800
G1 X122.758Y46.468Z0F800
G1 X123.15Z0F800
G1 X123.516Y46.57Z0F800
G1 X123.81Y46.755Z0F800
G1 X124.013Y47.042Z0F800
G1 X124.078Y47.291Z0F800
G1 X124.098Y47.598Z0F800
G1 X124.032Y47.886Z0F800
G1 X123.869Y48.134Z0F800
G1 X123.516Y48.402Z0F800
G1 X123.189Y48.526Z0F800
G1 X122.862Y48.565Z0F800
G1 X122.548Z0F800
G1 X122.797Z0F800
G1 X123.13Y48.631Z0F800
G1 X123.516Y48.833Z0F800
G1 X123.869Y49.101Z0F800
G1 X123.973Y49.454Z0F800
G1 X123.908Y49.847Z0F800
G1 X123.764Y50.173Z0F800
G1 X123.457Y50.422Z0F800
G1 X123.084Y50.526Z0F800
G1 X122.738Z0F800
G1 X122.307Y50.337Z0F800
G1 X121.975Y50.088Z0F800
G0 Z0.5F500
G0 X127.555Y47.761Z0.5F1000
G1 Z0F500
G1 X124.962Z0F800
G1 X126.876Y50.441Z0F800
G1 Y46.427Z0F800
G0 Z0.5F500
G0 X96.043Y50.585Z0.5F1000
G1 Z0F500
G1 Y50.912Z0F800
G1 X95.717Z0F800
G1 Y50.585Z0F800
G1 X96.043Z0F800
G0 Z0.5F500
G0 X94.377Z0.5F1000
G1 Z0F500
G1 Y50.912Z0F800
G1 X94.043Z0F800
G1 Y50.585Z0F800
G1 X94.377Z0F800
M5
G1 Z1F500
M9
G90
M2
