
G0 Z10 F500;      ; Move to clearance level - Z motion limited to 500
; G0 X-10 Y-10 F1200; Homing
; G0 X-5 Y-5 F1200; go in
; G10 P0 L20 X0 Y0; set to zero
G1 F1200;           ; Set feed rate to 1000
;LightBurn 1.6.04
;Custom GCode device profile, absolute coords
;Bounds: X21.25 Y23.34 to X91.15 Y92.14
G00 G17 G40 G21 G54
G90
M3
G1 Z10 F500
;Cut @ 1200 mm/min, 90% power

M8

; Washing sequence (no color)
G1 Z10 F1000;        ; Raise brush to safe height
G0 X5 Y5 F1200;     ; Rapid move to brush cleaning position
G1 Z-1 F800;         ; Lower brush for cleaning - controlled movement
G1 X10 Y12 Z8 F1200;     ; Rapid move to brush cleaning position
G1 Z-1 F800;         ; Lower brush for cleaning - controlled movement
G1 X25 Y14 Z6 F800;     ; Move across cleaning area - controlled movement
G1 Z8 F800;         ; Maintain brush height - controlled movement
G0 X5 Y5 F1200;     ; Rapid move to brush cleaning position
G1 Z-1 F800;         ; Lower brush for cleaning - controlled movement
G1 X15 Y12 Z8 F1200;     ; Rapid move to brush cleaning position
G1 Z-1 F800;         ; Lower brush for cleaning - controlled movement
G1 X25 Y14 Z6 F800;     ; Move across cleaning area - controlled movement
G1 Z10 F800;         ; Maintain brush height - controlled movement
G1 F1200;           ; Set feed rate to 1000

; Color picking sequence
G1 Z10 F1000;         ; Raise brush to safe height
G0 X86 Y5 F1200;    ; Rapid move to color 1 position
G1 Z0 F1000;         ; Lower into color - controlled movement
G1 X85.102Y7.295Z0S800F1200
G1 X85.026Y7.642Z0F1200
G1 X85Y8Z0F1200
G1 X85.026Y8.358Z0F1200
G1 X85.102Y8.705Z0F1200
G1 X85.225Y9.041Z0F1200
G1 X85.393Y9.362Z0F1200
G1 X85.603Y9.668Z0F1200
G1 X85.854Y9.957Z0F1200
G1 X86.142Y10.226Z0F1200
G1 X86.464Y10.475Z0F1200
G1 X86.82Y10.701Z0F1200
G1 X87.204Y10.902Z0F1200
G1 X87.617Y11.078Z0F1200
G1 X88.054Y11.225Z0F1200
G1 X88.513Y11.343Z0F1200
G1 X88.992Y11.429Z0F1200
G1 X89.489Y11.482Z0F1200
G1 X90Y11.5Z0F1200
G1 X90.511Y11.482Z0F1200
G1 X91.008Y11.429Z0F1200
G1 X91.487Y11.343Z0F1200
G1 X91.946Y11.225Z0F1200
G1 X92.383Y11.078Z0F1200
G1 X92.796Y10.902Z0F1200
G1 X93.18Y10.701Z0F1200
G1 X93.536Y10.475Z0F1200
G1 X93.858Y10.226Z0F1200
G1 X94.146Y9.957Z0F1200
G1 X94.397Y9.668Z0F1200
G1 X94.607Y9.362Z0F1200
G1 X94.775Y9.041Z0F1200
G1 X94.898Y8.705Z0F1200
G1 X94.974Y8.358Z0F1200
G1 X95Y8Z0F1200
G1 X94.974Y7.642Z0F1200
G1 X94.898Y7.295Z0F1200
G1 X94.775Y6.959Z0F1200
G1 X94.607Y6.638Z0F1200
G1 X94.397Y6.332Z0F1200
G1 X94.146Y6.043Z0F1200
G1 X93.858Y5.774Z0F1200
G1 X93.536Y5.525Z0F1200
G1 X93.18Y5.299Z0F1200
G1 X92.796Y5.098Z0F1200
G1 X92.383Y4.922Z0F1200
G1 X91.946Y4.775Z0F1200
G1 X91.487Y4.657Z0F1200
G1 X91.008Y4.571Z0F1200
G1 X90.511Y4.518Z0F1200
G1 X90Y4.5Z0F1200
G1 X89.489Y4.518Z0F1200
G1 X88.992Y4.571Z0F1200
G1 X88.513Y4.657Z0F1200
G1 X88.054Y4.775Z0F1200
G1 X87.617Y4.922Z0F1200
G1 X87.204Y5.098Z0F1200
G1 X86.82Y5.299Z0F1200
G1 X86.464Y5.525Z0F1200
G1 X86.142Y5.774Z0F1200
G1 X85.854Y6.043Z0F1200
G1 X85.603Y6.332Z0F1200
G1 X85.393Y6.638Z0F1200
G1 X85.225Y6.959Z0F1200
G1 Z7 F800;         ; Raise from color - controlled movement
G1 X79 Y8 Z1 F1200;     ; Movement in paint - controlled movement
G1 X69 Y18 Z8 F500;     ; Move in paint - controlled movement
G1 F1200;           ; Set feed rate to 1000
G0 Z4.8F800
G0 X28.834Y24.637Z4.8F1500
G1 Z0F800
;Layer Blue
G1 X28.7Y24.714Z0S900F1200
G1 X28.542Y24.811Z0F1200
G1 X28.38Y24.935Z0F1200
G1 X28.184Y25.119Z0F1200
G1 X27.972Y25.343Z0F1200
G1 X27.759Y25.586Z0F1200
G1 X27.564Y25.827Z0F1200
G1 X27.404Y26.047Z0F1200
G1 X27.295Y26.225Z0F1200
G1 X27.255Y26.341Z0F1200
G1 X27.271Y26.405Z0F1200
G1 X27.318Y26.426Z0F1200
G1 X27.399Y26.402Z0F1200
G1 X27.512Y26.333Z0F1200
G1 X27.658Y26.219Z0F1200
G1 X27.839Y26.06Z0F1200
G1 X28.053Y25.855Z0F1200
G1 X28.303Y25.604Z0F1200
G1 X28.49Y25.409Z0F1200
G1 X28.654Y25.234Z0F1200
G1 X28.796Y25.078Z0F1200
G1 X28.915Y24.941Z0F1200
G1 X29.01Y24.823Z0F1200
G1 X29.083Y24.724Z0F1200
G1 X29.132Y24.645Z0F1200
G1 X29.159Y24.586Z0F1200
G1 X29.162Y24.545Z0F1200
G1 X29.143Y24.525Z0F1200
G1 X29.1Z0F1200
G1 X29.035Y24.542Z0F1200
G1 X28.946Y24.58Z0F1200
G1 X28.834Y24.637Z0F1200
G0 Z4.8F800
G0 X29.587Y24.644Z4.8F1500
G1 Z0F800
G1 X28.816Y25.483Z0F1200
G1 X28.032Y26.42Z0F1200
G1 X27.241Y27.425Z0F1200
G1 X26.232Y29.435Z0F1200
G1 X25.809Y30.274Z0F1200
G1 X25.401Y31.072Z0F1200
G1 X25.217Y31.427Z0F1200
G1 X24.92Y31.994Z0F1200
G1 X24.529Y32.725Z0F1200
G1 X24.222Y33.328Z0F1200
G1 X23.911Y33.963Z0F1200
G1 X23.607Y34.604Z0F1200
G1 X23.325Y35.224Z0F1200
G1 X23.076Y35.794Z0F1200
G1 X22.968Y36.053Z0F1200
G1 X22.873Y36.289Z0F1200
G1 X22.793Y36.499Z0F1200
G1 X22.729Y36.681Z0F1200
G1 X22.662Y36.876Z0F1200
G1 X22.603Y37.044Z0F1200
G1 X22.55Y37.183Z0F1200
G1 X22.504Y37.295Z0F1200
G1 X22.466Y37.379Z0F1200
G1 X22.436Y37.436Z0F1200
G1 X22.412Y37.464Z0F1200
G1 X22.397Z0F1200
G1 X22.389Y37.44Z0F1200
G1 Y37.388Z0F1200
G1 X22.398Y37.308Z0F1200
G1 X22.415Y37.202Z0F1200
G1 X22.44Y37.068Z0F1200
G1 X22.473Y36.909Z0F1200
G1 X22.515Y36.723Z0F1200
G1 X22.795Y35.571Z0F1200
G1 X22.617Y35.115Z0F1200
G1 X22.503Y35.184Z0F1200
G1 X22.45Y35.25Z0F1200
G1 X22.384Y35.392Z0F1200
G1 X22.302Y35.614Z0F1200
G1 X22.205Y35.918Z0F1200
G1 X22.092Y36.307Z0F1200
G1 X21.962Y36.784Z0F1200
G1 X21.814Y37.352Z0F1200
G1 X21.646Y38.014Z0F1200
G1 X21.345Y39.22Z0F1200
G1 X21.293Y42.028Z0F1200
G1 X21.286Y42.497Z0F1200
G1 X21.282Y42.927Z0F1200
G1 Y43.316Z0F1200
G1 Y43.662Z0F1200
G1 X21.286Y43.964Z0F1200
G1 X21.293Y44.221Z0F1200
G1 X21.303Y44.43Z0F1200
G1 X21.314Y44.592Z0F1200
G1 X21.328Y44.703Z0F1200
G1 X21.344Y44.762Z0F1200
G1 X21.362Y44.769Z0F1200
G1 X21.381Y44.721Z0F1200
G1 X21.402Y44.617Z0F1200
G1 X21.425Y44.455Z0F1200
G1 X21.448Y44.235Z0F1200
G1 X21.473Y43.953Z0F1200
G1 X21.542Y43.239Z0F1200
G1 X21.632Y42.569Z0F1200
G1 X21.749Y41.915Z0F1200
G1 X21.9Y41.248Z0F1200
G1 X22.094Y40.539Z0F1200
G1 X22.337Y39.76Z0F1200
G1 X22.479Y39.336Z0F1200
G1 X22.637Y38.884Z0F1200
G1 X22.81Y38.399Z0F1200
G1 X23Y37.88Z0F1200
G1 X23.299Y37.099Z0F1200
G1 X23.634Y36.284Z0F1200
G1 X24Y35.44Z0F1200
G1 X24.393Y34.576Z0F1200
G1 X25.244Y32.819Z0F1200
G1 X26.152Y31.075Z0F1200
G1 X26.618Y30.228Z0F1200
G1 X27.085Y29.407Z0F1200
G1 X27.55Y28.621Z0F1200
G1 X28.008Y27.877Z0F1200
G1 X28.455Y27.183Z0F1200
G1 X28.888Y26.548Z0F1200
G1 X29.301Y25.978Z0F1200
G1 X29.691Y25.481Z0F1200
G1 X29.952Y25.172Z0F1200
G1 X30.214Y24.874Z0F1200
G1 X30.446Y24.622Z0F1200
G1 X30.743Y24.323Z0F1200
G1 X30.845Y24.199Z0F1200
G1 X30.914Y24.091Z0F1200
G1 X30.939Y24.013Z0F1200
G1 Y23.873Z0F1200
G1 X30.35Z0F1200
G1 X29.587Y24.644Z0F1200
G0 Z4.8F800
G0 X26.066Y27.209Z4.8F1500
G1 Z0F800
G1 X25.431Y28.122Z0F1200
G1 X24.796Y29.034Z0F1200
G1 X24.408Y30.508Z0F1200
G1 X24.249Y31.102Z0F1200
G1 X24.103Y31.628Z0F1200
G1 X23.986Y32.03Z0F1200
G1 X23.943Y32.166Z0F1200
G1 X23.915Y32.25Z0F1200
G1 X23.81Y32.518Z0F1200
G1 X24.01Y32.25Z0F1200
G1 X24.143Y32.056Z0F1200
G1 X24.3Y31.8Z0F1200
G1 X24.473Y31.499Z0F1200
G1 X24.653Y31.169Z0F1200
G1 X24.83Y30.828Z0F1200
G1 X24.996Y30.492Z0F1200
G1 X25.142Y30.179Z0F1200
G1 X25.259Y29.905Z0F1200
G1 X25.385Y29.599Z0F1200
G1 X25.552Y29.211Z0F1200
G1 X25.738Y28.793Z0F1200
G1 X25.921Y28.392Z0F1200
G1 X26.344Y27.482Z0F1200
G1 X26.066Y27.209Z0F1200
G0 Z4.8F800
G0 X28.116Y30.977Z4.8F1500
G1 Z0F800
G1 X27.893Y31.218Z0F1200
G1 X27.833Y31.299Z0F1200
G1 X27.747Y31.436Z0F1200
G1 X27.638Y31.623Z0F1200
G1 X27.512Y31.851Z0F1200
G1 X27.222Y32.404Z0F1200
G1 X26.908Y33.035Z0F1200
G1 X26.146Y34.611Z0F1200
G1 X26.234Y35.062Z0F1200
G1 X26.674Y35.145Z0F1200
G1 X27.223Y34.033Z0F1200
G1 X27.46Y33.545Z0F1200
G1 X27.7Y33.04Z0F1200
G1 X27.914Y32.578Z0F1200
G1 X28.076Y32.217Z0F1200
G1 X28.38Y31.513Z0F1200
G1 X28.573Z0F1200
G1 X28.692Y31.531Z0F1200
G1 X28.865Y31.588Z0F1200
G1 X29.103Y31.69Z0F1200
G1 X29.415Y31.843Z0F1200
G1 X29.603Y31.939Z0F1200
G1 X29.813Y32.05Z0F1200
G1 X30.306Y32.318Z0F1200
G1 X30.906Y32.651Z0F1200
G1 X31.621Y33.055Z0F1200
G1 X32.394Y33.486Z0F1200
G1 X33.237Y33.942Z0F1200
G1 X33.653Y34.163Z0F1200
G1 X34.048Y34.369Z0F1200
G1 X34.41Y34.555Z0F1200
G1 X34.726Y34.713Z0F1200
G1 X36.124Y35.402Z0F1200
G1 Y35.277Z0F1200
G1 X36.092Y35.216Z0F1200
G1 X35.986Y35.117Z0F1200
G1 X35.901Y35.05Z0F1200
G1 X35.793Y34.971Z0F1200
G1 X35.659Y34.877Z0F1200
G1 X35.499Y34.768Z0F1200
G1 X35.09Y34.499Z0F1200
G1 X34.553Y34.155Z0F1200
G1 X33.875Y33.727Z0F1200
G1 X33.042Y33.206Z0F1200
G1 X32.78Y33.048Z0F1200
G1 X32.486Y32.879Z0F1200
G1 X32.165Y32.701Z0F1200
G1 X31.824Y32.518Z0F1200
G1 X31.106Y32.147Z0F1200
G1 X30.381Y31.79Z0F1200
G1 X30.031Y31.624Z0F1200
G1 X29.698Y31.47Z0F1200
G1 X29.388Y31.332Z0F1200
G1 X29.107Y31.213Z0F1200
G1 X28.862Y31.114Z0F1200
G1 X28.659Y31.04Z0F1200
G1 X28.503Y30.994Z0F1200
G1 X28.402Y30.977Z0F1200
G1 X28.116Z0F1200
G0 Z4.8F800
G0 X26.329Y35.539Z4.8F1500
G1 Z0F800
G1 X26.041Y35.491Z0F1200
G1 X25.806Y35.464Z0F1200
G1 X25.63Y35.458Z0F1200
G1 X25.519Y35.476Z0F1200
G1 X25.481Y35.519Z0F1200
G1 X25.525Y35.595Z0F1200
G1 X25.653Y35.683Z0F1200
G1 X25.863Y35.782Z0F1200
G1 X26.149Y35.892Z0F1200
G1 X26.508Y36.009Z0F1200
G1 X26.935Y36.134Z0F1200
G1 X27.426Y36.265Z0F1200
G1 X27.976Y36.399Z0F1200
G1 X28.952Y36.646Z0F1200
G1 X29.915Y36.929Z0F1200
G1 X30.908Y37.261Z0F1200
G1 X31.972Y37.655Z0F1200
G1 X32.311Y37.777Z0F1200
G1 X32.738Y37.919Z0F1200
G1 X33.197Y38.061Z0F1200
G1 X33.634Y38.188Z0F1200
G1 X34.623Y38.462Z0F1200
G1 Y38.352Z0F1200
G1 X34.602Y38.322Z0F1200
G1 X34.54Y38.28Z0F1200
G1 X34.442Y38.227Z0F1200
G1 X34.313Y38.165Z0F1200
G1 X33.976Y38.024Z0F1200
G1 X33.566Y37.871Z0F1200
G1 X33.037Y37.681Z0F1200
G1 X32.38Y37.437Z0F1200
G1 X31.678Y37.171Z0F1200
G1 X31.015Y36.915Z0F1200
G1 X30.156Y36.599Z0F1200
G1 X29.238Y36.297Z0F1200
G1 X28.314Y36.022Z0F1200
G1 X27.437Y35.786Z0F1200
G1 X27.033Y35.688Z0F1200
G1 X26.662Y35.605Z0F1200
G1 X26.329Y35.539Z0F1200
G0 Z4.8F800
G0 X22.774Y40.398Z4.8F1500
G1 Z0F800
G1 X22.826Y40.42Z0F1200
G1 X22.91Y40.487Z0F1200
G1 X23.139Y40.711Z0F1200
G1 X23.252Y40.807Z0F1200
G1 X23.345Y40.872Z0F1200
G1 X23.405Y40.896Z0F1200
G1 X23.526Y40.902Z0F1200
G1 X23.703Y40.922Z0F1200
G1 X23.927Y40.953Z0F1200
G1 X24.192Y40.993Z0F1200
G1 X24.814Y41.099Z0F1200
G1 X25.512Y41.227Z0F1200
G1 X26.226Y41.367Z0F1200
G1 X26.899Y41.508Z0F1200
G1 X27.202Y41.575Z0F1200
G1 X27.472Y41.639Z0F1200
G1 X27.703Y41.696Z0F1200
G1 X27.887Y41.748Z0F1200
G1 X28.444Y41.91Z0F1200
G1 X29.037Y42.074Z0F1200
G1 X29.66Y42.239Z0F1200
G1 X30.304Y42.402Z0F1200
G1 X31.623Y42.719Z0F1200
G1 X32.928Y43.01Z0F1200
G1 X33.556Y43.142Z0F1200
G1 X34.155Y43.262Z0F1200
G1 X34.719Y43.368Z0F1200
G1 X35.239Y43.46Z0F1200
G1 X35.706Y43.534Z0F1200
G1 X36.113Y43.59Z0F1200
G1 X36.452Y43.626Z0F1200
G1 X36.714Y43.639Z0F1200
G1 X37.236Y43.643Z0F1200
G1 X37.158Y44.783Z0F1200
G1 X37.08Y45.961Z0F1200
G1 X37.002Y47.195Z0F1200
G1 X36.924Y48.468Z0F1200
G1 X36.608Y48.875Z0F1200
G1 X36.48Y49.054Z0F1200
G1 X36.364Y49.24Z0F1200
G1 X36.274Y49.411Z0F1200
G1 X36.221Y49.545Z0F1200
G1 X36.208Y49.574Z0F1200
G1 X36.198Y49.554Z0F1200
G1 X36.191Y49.49Z0F1200
G1 X36.187Y49.384Z0F1200
G1 Y49.241Z0F1200
G1 X36.19Y49.064Z0F1200
G1 X36.196Y48.857Z0F1200
G1 X36.263Y47.441Z0F1200
G1 X32.599Y47.522Z0F1200
G1 X31.394Y47.547Z0F1200
G1 X30.357Y47.566Z0F1200
G1 X29.49Y47.579Z0F1200
G1 X28.597Y47.582Z0F1200
G1 X28.232Y47.88Z0F1200
G1 X24.457Y47.785Z0F1200
G1 X22.206Y47.421Z0F1200
G1 Y47.001Z0F1200
G1 X22.214Y46.894Z0F1200
G1 X22.237Y46.749Z0F1200
G1 X22.274Y46.573Z0F1200
G1 X22.323Y46.372Z0F1200
G1 X22.451Y45.921Z0F1200
G1 X22.606Y45.447Z0F1200
G1 X23.006Y44.313Z0F1200
G1 X23.16Y43.199Z0F1200
G1 X23.225Y42.75Z0F1200
G1 X23.291Y42.351Z0F1200
G1 X23.322Y42.185Z0F1200
G1 X23.35Y42.047Z0F1200
G1 X23.374Y41.943Z0F1200
G1 X23.393Y41.88Z0F1200
G1 X23.472Y41.675Z0F1200
G1 X23.76Y41.747Z0F1200
G1 X23.969Y41.801Z0F1200
G1 X24.324Y41.897Z0F1200
G1 X25.276Y42.159Z0F1200
G1 X25.57Y42.239Z0F1200
G1 X25.908Y42.326Z0F1200
G1 X26.284Y42.419Z0F1200
G1 X26.691Y42.517Z0F1200
G1 X27.575Y42.721Z0F1200
G1 X28.509Y42.929Z0F1200
G1 X29.444Y43.129Z0F1200
G1 X30.331Y43.31Z0F1200
G1 X30.74Y43.39Z0F1200
G1 X31.118Y43.461Z0F1200
G1 X31.46Y43.522Z0F1200
G1 X32.673Y43.722Z0F1200
G1 X33.101Y43.796Z0F1200
G1 X33.436Y43.856Z0F1200
G1 X33.59Y43.88Z0F1200
G1 X33.776Y43.903Z0F1200
G1 X33.988Y43.924Z0F1200
G1 X34.217Y43.942Z0F1200
G1 X34.703Y43.968Z0F1200
G1 X35.176Y43.978Z0F1200
G1 X36.261Z0F1200
G1 Y43.868Z0F1200
G1 X36.241Y43.843Z0F1200
G1 X36.183Y43.813Z0F1200
G1 X36.091Y43.78Z0F1200
G1 X35.97Y43.744Z0F1200
G1 X35.656Y43.671Z0F1200
G1 X35.272Y43.601Z0F1200
G1 X35.037Y43.563Z0F1200
G1 X34.415Y43.457Z0F1200
G1 X33.275Y43.256Z0F1200
G1 X31.776Y42.984Z0F1200
G1 X30.795Y42.812Z0F1200
G1 X30.33Y42.735Z0F1200
G1 X29.689Y42.637Z0F1200
G1 X29.23Y42.555Z0F1200
G1 X28.968Y42.501Z0F1200
G1 X28.657Y42.434Z0F1200
G1 X27.818Y42.245Z0F1200
G1 X26.626Y41.989Z0F1200
G1 X25.413Y41.75Z0F1200
G1 X24.901Y41.648Z0F1200
G1 X24.416Y41.537Z0F1200
G1 X24.201Y41.483Z0F1200
G1 X24.013Y41.431Z0F1200
G1 X23.859Y41.384Z0F1200
G1 X23.745Y41.343Z0F1200
G1 X23.561Y41.274Z0F1200
G1 X23.382Y41.216Z0F1200
G1 X23.23Y41.178Z0F1200
G1 X23.126Y41.163Z0F1200
G1 X22.945Z0F1200
G1 X22.767Y42.336Z0F1200
G1 X22.557Y43.499Z0F1200
G1 X22.301Y44.648Z0F1200
G1 X22.012Y45.788Z0F1200
G1 X21.965Y45.566Z0F1200
G1 Y45.477Z0F1200
G1 X21.977Y45.306Z0F1200
G1 X22.003Y45.064Z0F1200
G1 X22.041Y44.764Z0F1200
G1 X22.143Y44.032Z0F1200
G1 X22.268Y43.202Z0F1200
G1 X22.401Y42.368Z0F1200
G1 X22.53Y41.622Z0F1200
G1 X22.587Y41.31Z0F1200
G1 X22.638Y41.055Z0F1200
G1 X22.68Y40.868Z0F1200
G1 X22.712Y40.761Z0F1200
G1 X22.761Y40.58Z0F1200
G1 Y40.426Z0F1200
G1 X22.774Y40.398Z0F1200
G0 Z4.8F800
G0 X22.206Y47.569Z4.8F1500
G1 Z0F800
G1 X22.444Y47.659Z0F1200
G1 X22.585Y47.703Z0F1200
G1 X22.793Y47.759Z0F1200
G1 X23.04Y47.818Z0F1200
G1 X23.297Y47.874Z0F1200
G1 X23.444Y47.902Z0F1200
G1 X23.627Y47.933Z0F1200
G1 X23.839Y47.965Z0F1200
G1 X24.072Y47.997Z0F1200
G1 X24.573Y48.061Z0F1200
G1 X25.071Y48.116Z0F1200
G1 X26.231Y48.232Z0F1200
G1 X25.249Y48.25Z0F1200
G1 X24.649Y48.244Z0F1200
G1 X24.065Y48.197Z0F1200
G1 X23.745Y48.153Z0F1200
G1 X23.389Y48.094Z0F1200
G1 X22.982Y48.018Z0F1200
G1 X22.513Y47.924Z0F1200
G1 X22.394Y47.888Z0F1200
G1 X22.296Y47.836Z0F1200
G1 X22.23Y47.776Z0F1200
G1 X22.206Y47.714Z0F1200
G1 Y47.569Z0F1200
G0 Z4.8F800
G0 X38.002Y47.13Z4.8F1500
G1 Z0F800
G1 X38.037Y46.12Z0F1200
G1 X38.062Y45.054Z0F1200
G1 X38.07Y44.541Z0F1200
G1 X38.075Y44.061Z0F1200
G1 Y43.631Z0F1200
G1 Y43.266Z0F1200
G1 X38.054Y41.683Z0F1200
G1 X37.893Y41.492Z0F1200
G1 X37.82Y41.423Z0F1200
G1 X37.743Y41.378Z0F1200
G1 X37.67Y41.361Z0F1200
G1 X37.61Y41.374Z0F1200
G1 X37.489Y41.447Z0F1200
G1 Y41.03Z0F1200
G1 X37.687Z0F1200
G1 X37.93Y41.076Z0F1200
G1 X38.236Y41.186Z0F1200
G1 X38.586Y41.343Z0F1200
G1 X39.002Y42.748Z0F1200
G1 X39.381Y42.891Z0F1200
G1 X39.256Y43.267Z0F1200
G1 X39.207Y43.432Z0F1200
G1 X39.151Y43.647Z0F1200
G1 X39.091Y43.907Z0F1200
G1 X39.026Y44.204Z0F1200
G1 X38.892Y44.876Z0F1200
G1 X38.759Y45.604Z0F1200
G1 X38.637Y46.33Z0F1200
G1 X38.537Y46.992Z0F1200
G1 X38.498Y47.28Z0F1200
G1 X38.469Y47.531Z0F1200
G1 X38.451Y47.736Z0F1200
G1 X38.444Y47.888Z0F1200
G1 X38.398Y48.534Z0F1200
G1 X38.289Y49.158Z0F1200
G1 X38.133Y49.764Z0F1200
G1 X37.91Y49.41Z0F1200
G1 X38.002Y47.13Z0F1200

; Color picking sequence
G1 Z10 F1000;         ; Raise brush to safe height
G0 X86 Y5 F1200;    ; Rapid move to color 1 position
G1 Z0 F1000;         ; Lower into color - controlled movement
G1 X85.102Y7.295Z0S800F1200
G1 X85.026Y7.642Z0F1200
G1 X85Y8Z0F1200
G1 X85.026Y8.358Z0F1200
G1 X85.102Y8.705Z0F1200
G1 X85.225Y9.041Z0F1200
G1 X85.393Y9.362Z0F1200
G1 X85.603Y9.668Z0F1200
G1 X85.854Y9.957Z0F1200
G1 X86.142Y10.226Z0F1200
G1 X86.464Y10.475Z0F1200
G1 X86.82Y10.701Z0F1200
G1 X87.204Y10.902Z0F1200
G1 X87.617Y11.078Z0F1200
G1 X88.054Y11.225Z0F1200
G1 X88.513Y11.343Z0F1200
G1 X88.992Y11.429Z0F1200
G1 X89.489Y11.482Z0F1200
G1 X90Y11.5Z0F1200
G1 X90.511Y11.482Z0F1200
G1 X91.008Y11.429Z0F1200
G1 X91.487Y11.343Z0F1200
G1 X91.946Y11.225Z0F1200
G1 X92.383Y11.078Z0F1200
G1 X92.796Y10.902Z0F1200
G1 X93.18Y10.701Z0F1200
G1 X93.536Y10.475Z0F1200
G1 X93.858Y10.226Z0F1200
G1 X94.146Y9.957Z0F1200
G1 X94.397Y9.668Z0F1200
G1 X94.607Y9.362Z0F1200
G1 X94.775Y9.041Z0F1200
G1 X94.898Y8.705Z0F1200
G1 X94.974Y8.358Z0F1200
G1 X95Y8Z0F1200
G1 X94.974Y7.642Z0F1200
G1 X94.898Y7.295Z0F1200
G1 X94.775Y6.959Z0F1200
G1 X94.607Y6.638Z0F1200
G1 X94.397Y6.332Z0F1200
G1 X94.146Y6.043Z0F1200
G1 X93.858Y5.774Z0F1200
G1 X93.536Y5.525Z0F1200
G1 X93.18Y5.299Z0F1200
G1 X92.796Y5.098Z0F1200
G1 X92.383Y4.922Z0F1200
G1 X91.946Y4.775Z0F1200
G1 X91.487Y4.657Z0F1200
G1 X91.008Y4.571Z0F1200
G1 X90.511Y4.518Z0F1200
G1 X90Y4.5Z0F1200
G1 X89.489Y4.518Z0F1200
G1 X88.992Y4.571Z0F1200
G1 X88.513Y4.657Z0F1200
G1 X88.054Y4.775Z0F1200
G1 X87.617Y4.922Z0F1200
G1 X87.204Y5.098Z0F1200
G1 X86.82Y5.299Z0F1200
G1 X86.464Y5.525Z0F1200
G1 X86.142Y5.774Z0F1200
G1 X85.854Y6.043Z0F1200
G1 X85.603Y6.332Z0F1200
G1 X85.393Y6.638Z0F1200
G1 X85.225Y6.959Z0F1200
G1 Z7 F800;         ; Raise from color - controlled movement
G1 X79 Y8 Z1 F1200;     ; Movement in paint - controlled movement
G1 X69 Y18 Z8 F500;     ; Move in paint - controlled movement
G1 F1200;           ; Set feed rate to 1000
G0 Z4.8F800
G0 X39.399Y47.364Z4.8F1500
G1 Z0F800
G1 X39.735Y45.467Z0F1200
G1 X39.828Y44.959Z0F1200
G1 X39.868Y44.756Z0F1200
G1 X39.905Y44.585Z0F1200
G1 X39.938Y44.443Z0F1200
G1 X39.969Y44.33Z0F1200
G1 X39.999Y44.244Z0F1200
G1 X40.056Y44.145Z0F1200
G1 X40.113Y44.132Z0F1200
G1 X40.177Y44.192Z0F1200
G1 X40.253Y44.313Z0F1200
G1 X40.357Y44.464Z0F1200
G1 X40.528Y44.678Z0F1200
G1 X40.743Y44.927Z0F1200
G1 X41.114Y45.33Z0F1200
G1 X41.281Y45.516Z0F1200
G1 X41.474Y45.734Z0F1200
G1 X41.684Y45.976Z0F1200
G1 X42.134Y46.502Z0F1200
G1 X42.578Y47.033Z0F1200
G1 X42.935Y47.464Z0F1200
G1 X43.256Y47.847Z0F1200
G1 X43.544Y48.184Z0F1200
G1 X43.8Y48.477Z0F1200
G1 X44.027Y48.727Z0F1200
G1 X44.228Y48.937Z0F1200
G1 X44.404Y49.108Z0F1200
G1 X44.558Y49.243Z0F1200
G1 X44.692Y49.342Z0F1200
G1 X44.808Y49.409Z0F1200
G1 X44.909Y49.444Z0F1200
G1 X44.997Y49.45Z0F1200
G1 X45.142Y49.38Z0F1200
G1 X45.262Y49.215Z0F1200
G1 X45.332Y49.076Z0F1200
G1 X45.373Y48.958Z0F1200
G1 X45.384Y48.851Z0F1200
G1 X45.359Y48.746Z0F1200
G1 X45.296Y48.635Z0F1200
G1 X45.19Y48.508Z0F1200
G1 X45.038Y48.357Z0F1200
G1 X44.257Y47.636Z0F1200
G1 X43.731Y47.09Z0F1200
G1 X43.585Y46.927Z0F1200
G1 X43.428Y46.747Z0F1200
G1 X43.255Y46.546Z0F1200
G1 X42.855Y46.069Z0F1200
G1 X41.43Y44.347Z0F1200
G1 X40.833Y43.637Z0F1200
G1 X40.57Y43.329Z0F1200
G1 X40.344Y43.066Z0F1200
G1 X40.161Y42.857Z0F1200
G1 X40.03Y42.712Z0F1200
G1 X39.536Y42.183Z0F1200
G1 Y41.669Z0F1200
G1 X39.911Y41.912Z0F1200
G1 X40.325Y42.156Z0F1200
G1 X40.784Y42.391Z0F1200
G1 X40.998Y42.49Z0F1200
G1 X41.184Y42.568Z0F1200
G1 X41.331Y42.619Z0F1200
G1 X41.425Y42.638Z0F1200
G1 X41.482Y42.667Z0F1200
G1 X41.543Y42.746Z0F1200
G1 X41.6Y42.863Z0F1200
G1 X41.677Y43.096Z0F1200
G1 X41.726Y43.211Z0F1200
G1 X41.791Y43.346Z0F1200
G1 X41.87Y43.497Z0F1200
G1 X42.061Y43.826Z0F1200
G1 X42.276Y44.16Z0F1200
G1 X42.484Y44.475Z0F1200
G1 X42.654Y44.751Z0F1200
G1 X42.719Y44.865Z0F1200
G1 X42.768Y44.958Z0F1200
G1 X42.8Y45.026Z0F1200
G1 X42.811Y45.066Z0F1200
G1 X42.827Y45.112Z0F1200
G1 X42.871Y45.15Z0F1200
G1 X42.936Y45.175Z0F1200
G1 X43.015Y45.185Z0F1200
G1 X43.22Z0F1200
G1 Y44.843Z0F1200
G1 X43.205Y44.668Z0F1200
G1 X43.162Y44.482Z0F1200
G1 X43.089Y44.286Z0F1200
G1 X42.989Y44.079Z0F1200
G1 X42.86Y43.864Z0F1200
G1 X42.704Y43.639Z0F1200
G1 X42.521Y43.407Z0F1200
G1 X42.311Y43.168Z0F1200
G1 X41.826Y42.641Z0F1200
G1 X42.421Y42.96Z0F1200
G1 X42.991Y43.231Z0F1200
G1 X43.527Y43.438Z0F1200
G1 X44.039Y43.597Z0F1200
G1 X43.936Y43.955Z0F1200
G1 X43.888Y44.186Z0F1200
G1 X43.858Y44.466Z0F1200
G1 X43.845Y44.781Z0F1200
G1 X43.848Y45.116Z0F1200
G1 X43.868Y45.458Z0F1200
G1 X43.904Y45.79Z0F1200
G1 X43.955Y46.1Z0F1200
G1 X44.021Y46.371Z0F1200
G1 X44.193Y46.955Z0F1200
G1 X45.81Y48.454Z0F1200
G1 X45.98Y49.34Z0F1200
G1 X46.353Z0F1200
G1 X46.517Y48.701Z0F1200
G1 X46.359Y48.183Z0F1200
G1 X46.324Y48.055Z0F1200
G1 X46.287Y47.891Z0F1200
G1 X46.248Y47.698Z0F1200
G1 X46.208Y47.482Z0F1200
G1 X46.133Y47.008Z0F1200
G1 X46.069Y46.525Z0F1200
G1 X46.014Y46.062Z0F1200
G1 X45.94Y45.463Z0F1200
G1 X45.904Y45.195Z0F1200
G1 X45.856Y44.883Z0F1200
G1 X45.83Y44.695Z0F1200
G1 X45.813Y44.54Z0F1200
G1 X45.267Y44.68Z0F1200
G1 Y45.301Z0F1200
G1 X45.328Y45.954Z0F1200
G1 X45.468Y46.653Z0F1200
G1 X45.514Y46.839Z0F1200
G1 X45.544Y46.993Z0F1200
G1 X45.558Y47.117Z0F1200
G1 Y47.21Z0F1200
G1 X45.545Y47.273Z0F1200
G1 X45.519Y47.308Z0F1200
G1 X45.481Y47.314Z0F1200
G1 X45.433Y47.293Z0F1200
G1 X45.375Y47.244Z0F1200
G1 X45.309Y47.169Z0F1200
G1 X45.235Y47.069Z0F1200
G1 X45.154Y46.943Z0F1200
G1 X44.977Y46.619Z0F1200
G1 X44.786Y46.202Z0F1200
G1 X44.585Y45.729Z0F1200
G1 Y43.84Z0F1200
G1 X45.985Y44.537Z0F1200
G1 X46.441Y44.419Z0F1200
G1 X46.323Y46.023Z0F1200
G1 X46.7Y45.901Z0F1200
G1 X46.738Y45.576Z0F1200
G1 X46.784Y45.259Z0F1200
G1 X46.842Y44.952Z0F1200
G1 X46.909Y44.653Z0F1200
G1 X47.418Y44.408Z0F1200
G1 X47.7Y44.269Z0F1200
G1 X47.937Y44.144Z0F1200
G1 X48.131Y44.031Z0F1200
G1 X48.285Y43.929Z0F1200
G1 X48.401Y43.836Z0F1200
G1 X48.481Y43.751Z0F1200
G1 X48.527Y43.672Z0F1200
G1 X48.542Y43.596Z0F1200
G1 Y43.413Z0F1200
G1 X48.914Y43.505Z0F1200
G1 X49.038Y43.523Z0F1200
G1 X49.251Y43.539Z0F1200
G1 X49.54Y43.553Z0F1200
G1 X49.893Y43.565Z0F1200
G1 X50.3Y43.574Z0F1200
G1 X50.749Y43.58Z0F1200
G1 X51.228Y43.583Z0F1200
G1 X51.726Z0F1200
G1 X54.166Y43.568Z0F1200
G1 X54.527Y43.386Z0F1200
G1 X54.729Y43.303Z0F1200
G1 X55.014Y43.211Z0F1200
G1 X55.343Y43.121Z0F1200
G1 X56.615Y42.831Z0F1200
G1 X57.464Y42.591Z0F1200
G1 X57.852Y42.462Z0F1200
G1 X58.216Y42.327Z0F1200
G1 X58.553Y42.188Z0F1200
G1 X58.862Y42.045Z0F1200
G1 X59.143Y41.898Z0F1200
G1 X59.395Y41.748Z0F1200
G1 X59.615Y41.596Z0F1200
G1 X59.804Y41.441Z0F1200
G1 X59.959Y41.286Z0F1200
G1 X60.081Y41.129Z0F1200
G1 X60.167Y40.972Z0F1200
G1 X60.217Y40.816Z0F1200
G1 X60.294Y40.426Z0F1200
G1 X59.86Y39.89Z0F1200
G1 X59.557Y40.286Z0F1200
G1 X59.202Y40.712Z0F1200
G1 X58.776Y41.179Z0F1200
G1 X58.299Y41.675Z0F1200
G1 X56.862Y42.081Z0F1200
G1 X55.451Y42.449Z0F1200
G1 X54.074Y42.764Z0F1200
G1 X52.721Y43.041Z0F1200
G1 X48.771Y42.909Z0F1200
G1 X48.554Y42.724Z0F1200
G1 X48.281Y42.566Z0F1200
G1 X47.93Y42.444Z0F1200
G1 X47.81Y42.405Z0F1200
G1 X47.625Y42.329Z0F1200
G1 X47.383Y42.221Z0F1200
G1 X47.094Y42.085Z0F1200
G1 X46.413Y41.748Z0F1200
G1 X45.657Y41.354Z0F1200
G1 X45.278Y41.154Z0F1200
G1 X44.918Y40.968Z0F1200
G1 X44.584Y40.799Z0F1200
G1 X44.284Y40.651Z0F1200
G1 X44.029Y40.53Z0F1200
G1 X43.825Y40.438Z0F1200
G1 X43.681Y40.379Z0F1200
G1 X43.605Y40.359Z0F1200
G1 X43.496Y40.334Z0F1200
G1 X43.335Y40.267Z0F1200
G1 X43.144Y40.168Z0F1200
G1 X42.825Y39.972Z0F1200
G1 X42.667Y39.879Z0F1200
G1 X42.477Y39.772Z0F1200
G1 X42.261Y39.653Z0F1200
G1 X41.783Y39.4Z0F1200
G1 X41.285Y39.148Z0F1200
G1 X40.784Y38.885Z0F1200
G1 X40.296Y38.603Z0F1200
G1 X40.074Y38.465Z0F1200
G1 X39.876Y38.336Z0F1200
G1 X39.709Y38.218Z0F1200
G1 X39.58Y38.117Z0F1200
G1 X39.048Y37.725Z0F1200
G1 X38.501Y37.406Z0F1200
G1 X37.944Y37.14Z0F1200
G1 X37.539Y37.339Z0F1200
G1 X37.26Y37.499Z0F1200
G1 X37.011Y37.69Z0F1200
G1 X36.792Y37.909Z0F1200
G1 X36.608Y38.151Z0F1200
G1 X36.46Y38.412Z0F1200
G1 X36.351Y38.689Z0F1200
G1 X36.284Y38.978Z0F1200
G1 X36.261Y39.275Z0F1200
G1 Y39.647Z0F1200
G1 X36.804Y40.13Z0F1200
G1 X38.139Y40.256Z0F1200
G1 X39.084Y39.95Z0F1200
G1 X39.448Y39.281Z0F1200
G1 X39.15Y38.989Z0F1200
G1 X39.002Y39.079Z0F1200
G1 X38.897Y39.197Z0F1200
G1 X38.853Y39.357Z0F1200
G1 Y39.545Z0F1200
G1 X37.725Y39.843Z0F1200
G1 X37.07Y39.682Z0F1200
G1 X36.758Y39.008Z0F1200
G1 X37.015Y38.29Z0F1200
G1 X37.477Y37.984Z0F1200
G1 X37.672Y37.854Z0F1200
G1 X37.825Y37.764Z0F1200
G1 X37.966Y37.725Z0F1200
G1 X38.123Y37.744Z0F1200
G1 X38.216Y37.778Z0F1200
G1 X38.324Y37.829Z0F1200
G1 X38.45Y37.899Z0F1200
G1 X38.597Y37.988Z0F1200
G1 X38.77Y38.099Z0F1200
G1 X39.474Y38.564Z0F1200
G1 X39.781Y38.76Z0F1200
G1 X40.14Y38.979Z0F1200
G1 X40.538Y39.212Z0F1200
G1 X40.963Y39.453Z0F1200
G1 X41.84Y39.929Z0F1200
G1 X42.665Y40.348Z0F1200
G1 X43.464Y40.747Z0F1200
G1 X44.273Y41.169Z0F1200
G1 X44.651Y41.373Z0F1200
G1 X44.996Y41.564Z0F1200
G1 X45.296Y41.736Z0F1200
G1 X45.988Y42.151Z0F1200
G1 X46.453Y42.417Z0F1200
G1 X46.674Y42.538Z0F1200
G1 X46.879Y42.647Z0F1200
G1 X47.06Y42.739Z0F1200
G1 X47.211Y42.812Z0F1200
G1 X47.859Y43.107Z0F1200
G1 X47.791Y43.488Z0F1200
G1 X46.563Y44.131Z0F1200
G1 X46.154Y43.929Z0F1200
G1 X46.017Y43.864Z0F1200
G1 X45.836Y43.784Z0F1200
G1 X45.615Y43.688Z0F1200
G1 X45.358Y43.58Z0F1200
G1 X44.752Y43.331Z0F1200
G1 X44.05Y43.049Z0F1200
G1 X42.48Y42.435Z0F1200
G1 X40.9Y41.84Z0F1200
G1 X39.937Y41.452Z0F1200
G1 X38.676Y40.873Z0F1200
G1 X38.239Y40.698Z0F1200
G1 X37.803Y40.545Z0F1200
G1 X37.421Y40.433Z0F1200
G1 X36.602Y40.229Z0F1200
G1 X35.783Y39.305Z0F1200
G1 X35.026Y38.98Z0F1200
G1 X34.689Y38.84Z0F1200
G1 X34.333Y38.701Z0F1200
G1 X33.999Y38.577Z0F1200
G1 X33.574Y38.434Z0F1200
G1 X33.031Y38.245Z0F1200
G1 X31.813Y37.812Z0F1200
G1 X30.869Y37.47Z0F1200
G1 X28.547Y36.625Z0F1200
G1 X27.457Y36.423Z0F1200
G1 X27.013Y36.336Z0F1200
G1 X26.608Y36.246Z0F1200
G1 X26.248Y36.156Z0F1200
G1 X25.94Y36.067Z0F1200
G1 X25.689Y35.982Z0F1200
G1 X25.501Y35.902Z0F1200
G1 X25.385Y35.83Z0F1200
G1 X25.344Y35.767Z0F1200
G1 Y35.663Z0F1200
G1 X24.621Y35.841Z0F1200
G1 X25.297Y34.616Z0F1200
G1 X25.63Y34.004Z0F1200
G1 X26.231Y32.891Z0F1200
G1 X26.95Y31.552Z0F1200
G1 X27.083Y31.311Z0F1200
G1 X27.199Y31.106Z0F1200
G1 X27.303Y30.935Z0F1200
G1 X27.395Y30.795Z0F1200
G1 X27.48Y30.684Z0F1200
G1 X27.558Y30.601Z0F1200
G1 X27.706Y30.504Z0F1200
G1 X27.859Y30.488Z0F1200
G1 X28.037Y30.534Z0F1200
G1 X28.257Y30.624Z0F1200
G1 X28.969Y30.93Z0F1200
G1 X29.649Y31.23Z0F1200
G1 X30.298Y31.524Z0F1200
G1 X30.918Y31.811Z0F1200
G1 X31.509Y32.094Z0F1200
G1 X32.073Y32.372Z0F1200
G1 X32.61Y32.645Z0F1200
G1 X33.702Y33.222Z0F1200
G1 X34.23Y33.495Z0F1200
G1 X34.709Y33.735Z0F1200
G1 X35.14Y33.943Z0F1200
G1 X35.524Y34.118Z0F1200
G1 X35.862Y34.262Z0F1200
G1 X36.157Y34.376Z0F1200
G1 X36.409Y34.459Z0F1200
G1 X36.761Y34.564Z0F1200
G1 X37.222Y34.311Z0F1200
G1 X37.146Y34.191Z0F1200
G1 X37.13Y34.123Z0F1200
G1 X37.142Y34.028Z0F1200
G1 X37.179Y33.918Z0F1200
G1 X37.239Y33.805Z0F1200
G1 X37.408Y33.54Z0F1200
G1 X37.031Y32.848Z0F1200
G1 X37.934Y31.933Z0F1200
G1 X37.856Y31.731Z0F1200
G1 X37.8Y31.657Z0F1200
G1 X37.671Y31.525Z0F1200
G1 X37.477Y31.341Z0F1200
G1 X37.227Y31.112Z0F1200
G1 X36.928Y30.847Z0F1200
G1 X36.589Y30.553Z0F1200
G1 X36.219Y30.238Z0F1200
G1 X35.825Y29.908Z0F1200
G1 X33.9Y28.306Z0F1200
G1 X32.924Y27.489Z0F1200
G1 X32.167Y26.85Z0F1200
G1 X31.605Y26.369Z0F1200
G1 X31.389Y26.18Z0F1200
G1 X31.214Y26.024Z0F1200
G1 X31.075Y25.897Z0F1200
G1 X30.97Y25.796Z0F1200
G1 X30.897Y25.72Z0F1200
G1 X30.851Y25.665Z0F1200
G1 X30.83Y25.629Z0F1200
G1 X30.793Y25.55Z0F1200
G1 X30.745Y25.505Z0F1200
G1 X30.681Y25.499Z0F1200
G1 X30.597Y25.532Z0F1200
G1 X30.488Y25.608Z0F1200
G1 X30.35Y25.729Z0F1200
G1 X30.178Y25.898Z0F1200
G1 X29.967Y26.118Z0F1200
G1 X29.715Y26.395Z0F1200
G1 X29.451Y26.704Z0F1200
G1 X29.177Y27.042Z0F1200
G1 X28.893Y27.407Z0F1200
G1 X28.308Y28.204Z0F1200
G1 X27.71Y29.074Z0F1200
G1 X27.115Y29.993Z0F1200
G1 X26.537Y30.94Z0F1200
G1 X25.992Y31.893Z0F1200
G1 X25.494Y32.828Z0F1200
G1 X24.804Y34.179Z0F1200
G1 X23.994Y36.498Z0F1200
G1 X23.658Y37.452Z0F1200
G1 X23.342Y38.335Z0F1200
G1 X23.203Y38.718Z0F1200
G1 X22.984Y39.31Z0F1200
G1 X22.913Y39.492Z0F1200
G1 X22.826Y39.746Z0F1200
G1 X22.728Y40.097Z0F1200
G1 X22.622Y40.53Z0F1200
G1 X22.509Y41.031Z0F1200
G1 X22.393Y41.587Z0F1200
G1 X22.276Y42.184Z0F1200
G1 X22.159Y42.807Z0F1200
G1 X22.046Y43.443Z0F1200
G1 X21.939Y44.078Z0F1200
G1 X21.841Y44.697Z0F1200
G1 X21.753Y45.287Z0F1200
G1 X21.678Y45.834Z0F1200
G1 X21.62Y46.323Z0F1200
G1 X21.579Y46.742Z0F1200
G1 X21.566Y46.92Z0F1200
G1 X21.558Y47.075Z0F1200
G1 Y47.205Z0F1200
G1 X21.561Y47.309Z0F1200
G1 X21.598Y47.757Z0F1200
G1 X22.1Y48.118Z0F1200
G1 X22.058Y52.792Z0F1200
G1 X22.033Y54.957Z0F1200
G1 X22.024Y55.505Z0F1200
G1 X22.034Y56.094Z0F1200
G1 X22.082Y56.706Z0F1200
G1 X22.117Y56.993Z0F1200
G1 X22.158Y57.254Z0F1200
G1 X22.204Y57.476Z0F1200
G1 X22.254Y57.65Z0F1200
G1 X22.287Y57.781Z0F1200
G1 X22.326Y57.989Z0F1200
G1 X22.364Y58.245Z0F1200
G1 X22.399Y58.521Z0F1200
G1 X22.507Y59.318Z0F1200
G1 X22.643Y60.07Z0F1200
G1 X22.714Y60.395Z0F1200
G1 X22.784Y60.667Z0F1200
G1 X22.849Y60.874Z0F1200
G1 X22.907Y61.001Z0F1200
G1 X23.037Y61.202Z0F1200
G1 X22.961Y60.666Z0F1200
G1 X22.943Y60.517Z0F1200
G1 X22.921Y60.299Z0F1200
G1 X22.868Y59.697Z0F1200
G1 X22.81Y58.942Z0F1200
G1 X22.753Y58.119Z0F1200
G1 X22.692Y57.292Z0F1200
G1 X22.624Y56.528Z0F1200
G1 X22.589Y56.196Z0F1200
G1 X22.556Y55.911Z0F1200
G1 X22.525Y55.684Z0F1200
G1 X22.498Y55.526Z0F1200
G1 X22.374Y54.943Z0F1200
G1 X22.841Y54.751Z0F1200
G1 X22.972Y54.703Z0F1200
G1 X23.165Y54.639Z0F1200
G1 X23.411Y54.564Z0F1200
G1 X23.701Y54.478Z0F1200
G1 X24.374Y54.288Z0F1200
G1 X25.111Y54.091Z0F1200
G1 X25.723Y53.929Z0F1200
G1 X26.371Y53.753Z0F1200
G1 X27.048Y53.565Z0F1200
G1 X27.748Y53.365Z0F1200
G1 X29.192Y52.943Z0F1200
G1 X30.654Y52.502Z0F1200
G1 X32.084Y52.056Z0F1200
G1 X33.433Y51.621Z0F1200
G1 X34.061Y51.412Z0F1200
G1 X34.651Y51.212Z0F1200
G1 X35.195Y51.023Z0F1200
G1 X35.867Y50.78Z0F1200
G1 X35.812Y52.892Z0F1200
G1 X35.62Y53.428Z0F1200
G1 X35.583Y53.554Z0F1200
G1 X35.552Y53.708Z0F1200
G1 X35.526Y53.888Z0F1200
G1 X35.506Y54.093Z0F1200
G1 X35.482Y54.569Z0F1200
G1 X35.478Y55.12Z0F1200
G1 X35.492Y55.732Z0F1200
G1 X35.523Y56.39Z0F1200
G1 X35.569Y57.078Z0F1200
G1 X35.63Y57.782Z0F1200
G1 X35.703Y58.486Z0F1200
G1 X35.788Y59.177Z0F1200
G1 X35.882Y59.838Z0F1200
G1 X35.985Y60.455Z0F1200
G1 X36.095Y61.013Z0F1200
G1 X36.211Y61.497Z0F1200
G1 X36.27Y61.707Z0F1200
G1 X36.331Y61.893Z0F1200
G1 X36.392Y62.052Z0F1200
G1 X36.453Y62.184Z0F1200
G1 X36.614Y62.451Z0F1200
G1 X36.816Y62.725Z0F1200
G1 X37.055Y63.003Z0F1200
G1 X37.325Y63.281Z0F1200
G1 X37.94Y63.825Z0F1200
G1 X38.623Y64.329Z0F1200
G1 X39.334Y64.768Z0F1200
G1 X40.033Y65.115Z0F1200
G1 X40.365Y65.245Z0F1200
G1 X40.681Y65.342Z0F1200
G1 X40.973Y65.403Z0F1200
G1 X41.238Y65.424Z0F1200
G1 X41.709Z0F1200
G1 X41.856Y65.156Z0F1200
G1 X41.909Y65.051Z0F1200
G1 X41.947Y64.963Z0F1200
G1 X41.966Y64.902Z0F1200
G1 X41.963Y64.877Z0F1200
G1 X41.815Y64.851Z0F1200
G1 X41.514Y64.803Z0F1200
G1 X41.056Y64.718Z0F1200
G1 X40.628Y64.604Z0F1200
G1 X40.221Y64.455Z0F1200
G1 X39.822Y64.264Z0F1200
G1 X39.421Y64.027Z0F1200
G1 X39.005Y63.736Z0F1200
G1 X38.563Y63.386Z0F1200
G1 X38.083Y62.97Z0F1200
G1 X37.335Y62.299Z0F1200
G1 X36.996Y61.642Z0F1200
G1 X36.844Y61.306Z0F1200
G1 X36.679Y60.876Z0F1200
G1 X36.523Y60.407Z0F1200
G1 X36.393Y59.954Z0F1200
G1 X36.129Y58.923Z0F1200
G1 X36.126Y58.171Z0F1200
G1 X36.165Y57.431Z0F1200
G1 X36.262Y56.708Z0F1200
G1 X36.399Y55.997Z0F1200
G1 X35.954Y54.441Z0F1200
G1 X36.03Y54.202Z0F1200
G1 X36.076Y54.065Z0F1200
G1 X36.23Y53.636Z0F1200
G1 X36.531Y52.83Z0F1200
G1 X36.772Y49.186Z0F1200
G1 X37.037Y48.926Z0F1200
G1 X37.061Y49.702Z0F1200
G1 X37.094Y50.324Z0F1200
G1 X37.166Y50.898Z0F1200
G1 X37.222Y51.208Z0F1200
G1 X37.296Y51.552Z0F1200
G1 X37.39Y51.948Z0F1200
G1 X37.507Y52.411Z0F1200
G1 X37.606Y52.829Z0F1200
G1 X37.687Y53.234Z0F1200
G1 X37.718Y53.417Z0F1200
G1 X37.742Y53.579Z0F1200
G1 X37.757Y53.714Z0F1200
G1 X37.762Y53.818Z0F1200
G1 Y54.232Z0F1200
G1 X38.308Y53.354Z0F1200
G1 X38.318Y52.453Z0F1200
G1 X38.328Y52.117Z0F1200
G1 X38.347Y51.868Z0F1200
G1 X38.359Y51.784Z0F1200
G1 X38.372Y51.73Z0F1200
G1 X38.386Y51.71Z0F1200
G1 X38.401Y51.727Z0F1200
G1 X38.472Y51.903Z0F1200
G1 X38.969Y51.461Z0F1200
G1 X38.893Y51.004Z0F1200
G1 X38.869Y50.821Z0F1200
G1 X38.862Y50.686Z0F1200
G1 X38.874Y50.601Z0F1200
G1 X38.902Y50.565Z0F1200
G1 X38.948Y50.578Z0F1200
G1 X39.009Y50.64Z0F1200
G1 X39.086Y50.753Z0F1200
G1 X39.177Y50.915Z0F1200
G1 X39.208Y50.963Z0F1200
G1 X39.258Y51.031Z0F1200
G1 X39.328Y51.117Z0F1200
G1 X39.416Y51.221Z0F1200
G1 X39.639Y51.475Z0F1200
G1 X39.921Y51.782Z0F1200
G1 X40.25Y52.134Z0F1200
G1 X40.619Y52.519Z0F1200
G1 X41.017Y52.928Z0F1200
G1 X41.436Y53.351Z0F1200
G1 X43.5Y55.418Z0F1200
G1 X43.793Y55.13Z0F1200
G1 X43.705Y54.858Z0F1200
G1 X43.658Y54.758Z0F1200
G1 X43.572Y54.624Z0F1200
G1 X43.452Y54.461Z0F1200
G1 X43.301Y54.273Z0F1200
G1 X42.927Y53.84Z0F1200
G1 X42.483Y53.361Z0F1200
G1 X42.003Y52.872Z0F1200
G1 X41.521Y52.408Z0F1200
G1 X41.29Y52.196Z0F1200
G1 X41.071Y52.004Z0F1200
G1 X40.869Y51.836Z0F1200
G1 X40.688Y51.697Z0F1200
G1 X39.861Y51.094Z0F1200
G1 X39.396Y49.139Z0F1200
G1 X39.399Y47.364Z0F1200

; Color picking sequence
G1 Z10 F1000;         ; Raise brush to safe height
G0 X86 Y5 F1200;    ; Rapid move to color 1 position
G1 Z0 F1000;         ; Lower into color - controlled movement
G1 X85.102Y7.295Z0S800F1200
G1 X85.026Y7.642Z0F1200
G1 X85Y8Z0F1200
G1 X85.026Y8.358Z0F1200
G1 X85.102Y8.705Z0F1200
G1 X85.225Y9.041Z0F1200
G1 X85.393Y9.362Z0F1200
G1 X85.603Y9.668Z0F1200
G1 X85.854Y9.957Z0F1200
G1 X86.142Y10.226Z0F1200
G1 X86.464Y10.475Z0F1200
G1 X86.82Y10.701Z0F1200
G1 X87.204Y10.902Z0F1200
G1 X87.617Y11.078Z0F1200
G1 X88.054Y11.225Z0F1200
G1 X88.513Y11.343Z0F1200
G1 X88.992Y11.429Z0F1200
G1 X89.489Y11.482Z0F1200
G1 X90Y11.5Z0F1200
G1 X90.511Y11.482Z0F1200
G1 X91.008Y11.429Z0F1200
G1 X91.487Y11.343Z0F1200
G1 X91.946Y11.225Z0F1200
G1 X92.383Y11.078Z0F1200
G1 X92.796Y10.902Z0F1200
G1 X93.18Y10.701Z0F1200
G1 X93.536Y10.475Z0F1200
G1 X93.858Y10.226Z0F1200
G1 X94.146Y9.957Z0F1200
G1 X94.397Y9.668Z0F1200
G1 X94.607Y9.362Z0F1200
G1 X94.775Y9.041Z0F1200
G1 X94.898Y8.705Z0F1200
G1 X94.974Y8.358Z0F1200
G1 X95Y8Z0F1200
G1 X94.974Y7.642Z0F1200
G1 X94.898Y7.295Z0F1200
G1 X94.775Y6.959Z0F1200
G1 X94.607Y6.638Z0F1200
G1 X94.397Y6.332Z0F1200
G1 X94.146Y6.043Z0F1200
G1 X93.858Y5.774Z0F1200
G1 X93.536Y5.525Z0F1200
G1 X93.18Y5.299Z0F1200
G1 X92.796Y5.098Z0F1200
G1 X92.383Y4.922Z0F1200
G1 X91.946Y4.775Z0F1200
G1 X91.487Y4.657Z0F1200
G1 X91.008Y4.571Z0F1200
G1 X90.511Y4.518Z0F1200
G1 X90Y4.5Z0F1200
G1 X89.489Y4.518Z0F1200
G1 X88.992Y4.571Z0F1200
G1 X88.513Y4.657Z0F1200
G1 X88.054Y4.775Z0F1200
G1 X87.617Y4.922Z0F1200
G1 X87.204Y5.098Z0F1200
G1 X86.82Y5.299Z0F1200
G1 X86.464Y5.525Z0F1200
G1 X86.142Y5.774Z0F1200
G1 X85.854Y6.043Z0F1200
G1 X85.603Y6.332Z0F1200
G1 X85.393Y6.638Z0F1200
G1 X85.225Y6.959Z0F1200
G1 Z7 F800;         ; Raise from color - controlled movement
G1 X79 Y8 Z1 F1200;     ; Movement in paint - controlled movement
G1 X69 Y18 Z8 F500;     ; Move in paint - controlled movement
G1 F1200;           ; Set feed rate to 1000
G0 Z4.8F800
G0 X44.893Y50.665Z4.8F1500
G1 Z0F800
G1 X45.093Y50.74Z0F1200
G1 X45.33Y50.817Z0F1200
G1 X45.621Y50.896Z0F1200
G1 X45.761Y50.938Z0F1200
G1 X45.86Y50.985Z0F1200
G1 X45.918Y51.034Z0F1200
G1 X45.935Y51.084Z0F1200
G1 X45.911Y51.135Z0F1200
G1 X45.847Y51.184Z0F1200
G1 X45.742Y51.231Z0F1200
G1 X45.596Y51.274Z0F1200
G1 X45.434Y51.333Z0F1200
G1 X45.253Y51.428Z0F1200
G1 X45.075Y51.547Z0F1200
G1 X44.923Y51.676Z0F1200
G1 X44.602Y51.991Z0F1200
G1 X44.525Y51.794Z0F1200
G1 X44.458Y51.536Z0F1200
G1 X44.461Y51.291Z0F1200
G1 X44.532Y51.071Z0F1200
G1 X44.67Y50.883Z0F1200
G1 X44.893Y50.665Z0F1200
G0 Z4.8F800
G0 X44.248Y50.22Z4.8F1500
G1 Z0F800
G1 X43.669Y51.065Z0F1200
G1 X43.858Y51.978Z0F1200
G1 X43.937Y52.373Z0F1200
G1 X44.015Y52.771Z0F1200
G1 X44.082Y53.127Z0F1200
G1 X44.129Y53.394Z0F1200
G1 X44.174Y53.62Z0F1200
G1 X44.222Y53.774Z0F1200
G1 X44.272Y53.857Z0F1200
G1 X44.323Y53.871Z0F1200
G1 X44.375Y53.815Z0F1200
G1 X44.424Y53.689Z0F1200
G1 X44.472Y53.496Z0F1200
G1 X44.515Y53.234Z0F1200
G1 X44.608Y52.57Z0F1200
G1 X44.767Y52.445Z0F1200
G1 X44.866Y52.388Z0F1200
G1 X45.019Y52.327Z0F1200
G1 X45.205Y52.269Z0F1200
G1 X45.403Y52.221Z0F1200
G1 X45.951Y52.062Z0F1200
G1 X46.461Y51.815Z0F1200
G1 X46.707Y51.656Z0F1200
G1 X46.948Y51.473Z0F1200
G1 X47.186Y51.264Z0F1200
G1 X47.424Y51.029Z0F1200
G1 X48.011Y50.412Z0F1200
G1 X48.951Z0F1200
G1 Y50.295Z0F1200
G1 X48.92Y50.239Z0F1200
G1 X48.836Y50.187Z0F1200
G1 X48.711Y50.141Z0F1200
G1 X48.557Y50.104Z0F1200
G1 X48.215Y50.066Z0F1200
G1 X47.91Y50.092Z0F1200
G1 X47.647Y50.16Z0F1200
G1 X47.242Y49.996Z0F1200
G1 X46.856Y49.877Z0F1200
G1 X46.444Y49.822Z0F1200
G1 X46.015Y49.831Z0F1200
G1 X45.574Y49.904Z0F1200
G1 X44.248Y50.22Z0F1200
G0 Z4.8F800
G0 X48.522Y48.919Z4.8F1500
G1 Z0F800
G1 X48.552Y48.938Z0F1200
G1 X48.663Y48.884Z0F1200
G1 X48.8Y48.754Z0F1200
G1 X48.956Y48.57Z0F1200
G1 X48.549Y45.721Z0F1200
G1 X48.622Y45.285Z0F1200
G1 X48.693Y44.889Z0F1200
G1 X48.758Y44.548Z0F1200
G1 X48.82Y44.246Z0F1200
G1 X48.705Z0F1200
G1 X48.635Y44.272Z0F1200
G1 X48.531Y44.343Z0F1200
G1 X48.407Y44.447Z0F1200
G1 X48.276Y44.574Z0F1200
G1 X47.963Y44.902Z0F1200
G1 X48.03Y46.082Z0F1200
G1 X48.12Y47.053Z0F1200
G1 X48.26Y47.977Z0F1200
G1 X48.337Y48.362Z0F1200
G1 X48.415Y48.666Z0F1200
G1 X48.452Y48.781Z0F1200
G1 X48.488Y48.866Z0F1200
G1 X48.522Y48.919Z0F1200
G0 Z4.8F800
G0 X49.999Y48.556Z4.8F1500
G1 Z0F800
G1 X50.071Y48.721Z0F1200
G1 X50.212Y48.981Z0F1200
G1 X50.477Y48.516Z0F1200
G1 X50.004Y45.873Z0F1200
G1 X50.209Y45.294Z0F1200
G1 X50.296Y45.051Z0F1200
G1 X50.383Y44.817Z0F1200
G1 X50.46Y44.618Z0F1200
G1 X50.516Y44.481Z0F1200
G1 X50.618Y44.246Z0F1200
G1 X50.411Z0F1200
G1 X50.302Y44.279Z0F1200
G1 X50.161Y44.368Z0F1200
G1 X50.004Y44.499Z0F1200
G1 X49.85Y44.659Z0F1200
G1 X49.497Y45.071Z0F1200
G1 Y46.821Z0F1200
G1 X49.714Y47.642Z0F1200
G1 X49.809Y47.981Z0F1200
G1 X49.908Y48.297Z0F1200
G1 X49.999Y48.556Z0F1200
G0 Z4.8F800
G0 X52.431Y48.179Z4.8F1500
G1 Z0F800
G1 X52.567Y48.221Z0F1200
G1 X52.715Z0F1200
G1 X52.878Y48.155Z0F1200
G1 X53.053Y48.046Z0F1200
G1 X52.774Y45.623Z0F1200
G1 X53.073Y44.779Z0F1200
G1 X52.995Y44.58Z0F1200
G1 X52.948Y44.482Z0F1200
G1 X52.898Y44.421Z0F1200
G1 X52.84Y44.397Z0F1200
G1 X52.774Y44.412Z0F1200
G1 X52.697Y44.467Z0F1200
G1 X52.606Y44.562Z0F1200
G1 X52.501Y44.699Z0F1200
G1 X52.377Y44.879Z0F1200
G1 X52.05Y45.374Z0F1200
G1 X52.431Y48.179Z0F1200
G0 Z4.8F800
G0 X54.664Y46.127Z4.8F1500
G1 Z0F800
G1 X54.758Y45.977Z0F1200
G1 X54.779Y45.929Z0F1200
G1 X54.8Y45.851Z0F1200
G1 X54.823Y45.746Z0F1200
G1 X54.845Y45.619Z0F1200
G1 X54.888Y45.314Z0F1200
G1 X54.923Y44.97Z0F1200
G1 X54.993Y44.112Z0F1200
G1 X54.792Z0F1200
G1 X54.624Y44.139Z0F1200
G1 X54.501Y44.202Z0F1200
G1 X54.482Y44.237Z0F1200
G1 X54.465Y44.303Z0F1200
G1 X54.45Y44.396Z0F1200
G1 X54.436Y44.512Z0F1200
G1 X54.417Y44.798Z0F1200
G1 X54.41Y45.132Z0F1200
G1 Y45.973Z0F1200
G1 X54.664Y46.127Z0F1200
G0 Z4.8F800
G0 X56.074Y46.25Z4.8F1500
G1 Z0F800
G1 X56.047Y46.386Z0F1200
G1 X56.058Y46.471Z0F1200
G1 X56.091Y46.512Z0F1200
G1 X56.148Y46.509Z0F1200
G1 X56.232Y46.46Z0F1200
G1 X56.344Y46.362Z0F1200
G1 X56.485Y46.216Z0F1200
G1 X56.659Y46.02Z0F1200
G1 X56.866Y45.771Z0F1200
G1 X57.135Y45.444Z0F1200
G1 X57.667Y44.803Z0F1200
G1 X57.866Y44.57Z0F1200
G1 X58.251Y44.12Z0F1200
G1 X58.165Y43.982Z0F1200
G1 X58.096Y43.901Z0F1200
G1 X58.015Y43.858Z0F1200
G1 X57.921Z0F1200
G1 X57.811Y43.895Z0F1200
G1 X57.684Y43.976Z0F1200
G1 X57.538Y44.101Z0F1200
G1 X57.37Y44.269Z0F1200
G1 X57.179Y44.482Z0F1200
G1 X56.776Y45.004Z0F1200
G1 X56.412Y45.565Z0F1200
G1 X56.264Y45.827Z0F1200
G1 X56.149Y46.059Z0F1200
G1 X56.074Y46.25Z0F1200
G0 Z4.8F800
G0 X57.81Y46.693Z4.8F1500
G1 Z0F800
G1 X57.698Y46.93Z0F1200
G1 X57.603Y47.141Z0F1200
G1 X57.528Y47.322Z0F1200
G1 X57.476Y47.468Z0F1200
G1 X57.449Y47.576Z0F1200
G1 Y47.641Z0F1200
G1 X57.501Y47.795Z0F1200
G1 X57.865Y47.409Z0F1200
G1 X57.94Y47.32Z0F1200
G1 X58.045Y47.181Z0F1200
G1 X58.174Y46.999Z0F1200
G1 X58.326Y46.78Z0F1200
G1 X58.678Y46.255Z0F1200
G1 X59.07Y45.654Z0F1200
G1 X59.47Y45.025Z0F1200
G1 X59.847Y44.418Z0F1200
G1 X60.017Y44.137Z0F1200
G1 X60.17Y43.88Z0F1200
G1 X60.301Y43.652Z0F1200
G1 X60.407Y43.46Z0F1200
G1 X60.577Y43.143Z0F1200
G1 X60.174Y42.748Z0F1200
G1 X59.425Y43.866Z0F1200
G1 X58.736Y44.975Z0F1200
G1 X58.081Y46.16Z0F1200
G1 X57.939Y46.435Z0F1200
G1 X57.81Y46.693Z0F1200
G0 Z4.8F800
G0 X59.267Y47.47Z4.8F1500
G1 Z0F800
G1 X58.703Y48.132Z0F1200
G1 X57.379Y49.656Z0F1200
G1 X54.959Y53.314Z0F1200
G1 X54.285Y53.742Z0F1200
G1 X53.944Y53.945Z0F1200
G1 X53.511Y54.179Z0F1200
G1 X53.044Y54.415Z0F1200
G1 X52.597Y54.625Z0F1200
G1 X51.583Y55.079Z0F1200
G1 X51.492Y55.312Z0F1200
G1 X51.461Y55.413Z0F1200
G1 X51.451Y55.499Z0F1200
G1 X51.459Y55.568Z0F1200
G1 X51.482Y55.615Z0F1200
G1 X51.517Y55.638Z0F1200
G1 X51.562Y55.632Z0F1200
G1 X51.613Y55.595Z0F1200
G1 X51.669Y55.524Z0F1200
G1 X51.773Y55.407Z0F1200
G1 X51.868Y55.371Z0F1200
G1 X51.948Z0F1200
G1 X52.101Y55.36Z0F1200
G1 X52.304Y55.335Z0F1200
G1 X52.535Y55.3Z0F1200
G1 X53.113Y55.205Z0F1200
G1 X53.456Y54.853Z0F1200
G1 X53.892Y54.425Z0F1200
G1 X54.286Y54.07Z0F1200
G1 X54.447Y53.938Z0F1200
G1 X54.572Y53.846Z0F1200
G1 X54.653Y53.801Z0F1200
G1 X54.682Y53.81Z0F1200
G1 X54.664Y53.849Z0F1200
G1 X54.612Y53.921Z0F1200
G1 X54.53Y54.024Z0F1200
G1 X54.422Y54.152Z0F1200
G1 X54.14Y54.467Z0F1200
G1 X53.558Y55.087Z0F1200
G1 X53.356Y55.31Z0F1200
G1 X53.188Y55.504Z0F1200
G1 X53.055Y55.668Z0F1200
G1 X52.957Y55.802Z0F1200
G1 X52.893Y55.906Z0F1200
G1 X52.864Y55.981Z0F1200
G1 X52.868Y56.025Z0F1200
G1 X52.907Y56.038Z0F1200
G1 X52.98Y56.021Z0F1200
G1 X53.086Y55.973Z0F1200
G1 X53.226Y55.895Z0F1200
G1 X53.399Y55.785Z0F1200
G1 X53.606Y55.643Z0F1200
G1 X53.846Y55.471Z0F1200
G1 X54.119Y55.266Z0F1200
G1 X55.125Y54.5Z0F1200
G1 X56.507Y52.409Z0F1200
G1 X57.106Y51.514Z0F1200
G1 X57.715Y50.622Z0F1200
G1 X58.002Y50.209Z0F1200
G1 X58.264Y49.836Z0F1200
G1 X58.493Y49.515Z0F1200
G1 X58.68Y49.26Z0F1200
G1 X59.447Y48.223Z0F1200
G1 X60.181Y47.217Z0F1200
G1 X61.537Y45.341Z0F1200
G1 X61.788Y44.986Z0F1200
G1 X61.994Y44.68Z0F1200
G1 X62.073Y44.556Z0F1200
G1 X62.133Y44.456Z0F1200
G1 X62.171Y44.385Z0F1200
G1 X62.185Y44.347Z0F1200
G1 X62.17Y44.284Z0F1200
G1 X62.125Y44.25Z0F1200
G1 X62.057Y44.243Z0F1200
G1 X61.969Y44.261Z0F1200
G1 X61.763Y44.365Z0F1200
G1 X61.553Y44.548Z0F1200
G1 X61.485Y44.627Z0F1200
G1 X61.398Y44.734Z0F1200
G1 X61.293Y44.867Z0F1200
G1 X61.176Y45.019Z0F1200
G1 X60.919Y45.363Z0F1200
G1 X60.654Y45.728Z0F1200
G1 X60.501Y45.936Z0F1200
G1 X60.307Y46.19Z0F1200
G1 X60.078Y46.48Z0F1200
G1 X59.823Y46.797Z0F1200
G1 X59.267Y47.47Z0F1200
G0 Z4.8F800
G0 X62.716Y48.443Z4.8F1500
G1 Z0F800
G1 X62.576Y48.645Z0F1200
G1 X62.49Y48.799Z0F1200
G1 X62.46Y48.901Z0F1200
G1 Y49.085Z0F1200
G1 X63.04Y48.679Z0F1200
G1 X63.512Y48.338Z0F1200
G1 X63.903Y48.015Z0F1200
G1 X64.101Y47.832Z0F1200
G1 X64.318Y47.618Z0F1200
G1 X64.569Y47.36Z0F1200
G1 X64.865Y47.049Z0F1200
G1 X65.564Y46.309Z0F1200
G1 X65.775Y45.579Z0F1200
G1 X65.982Y44.732Z0F1200
G1 X66.148Y43.809Z0F1200
G1 X66.208Y43.369Z0F1200
G1 X66.248Y42.971Z0F1200
G1 X66.266Y42.635Z0F1200
G1 X66.259Y42.38Z0F1200
G1 X66.213Y41.921Z0F1200
G1 X66.042Y41.866Z0F1200
G1 X65.922Y41.851Z0F1200
G1 X65.872Y41.891Z0F1200
G1 X65.861Y42.164Z0F1200
G1 X65.828Y42.466Z0F1200
G1 X65.775Y42.791Z0F1200
G1 X65.705Y43.134Z0F1200
G1 X65.518Y43.854Z0F1200
G1 X65.28Y44.588Z0F1200
G1 X65.006Y45.295Z0F1200
G1 X64.709Y45.936Z0F1200
G1 X64.557Y46.219Z0F1200
G1 X64.404Y46.471Z0F1200
G1 X64.253Y46.686Z0F1200
G1 X64.106Y46.86Z0F1200
G1 X63.746Y47.24Z0F1200
G1 X63.424Y47.593Z0F1200
G1 X63.143Y47.913Z0F1200
G1 X62.906Y48.198Z0F1200
G1 X62.716Y48.443Z0F1200
G0 Z4.8F800
G0 X64.795Y49.024Z4.8F1500
G1 Z0F800
G1 X64.35Y49.528Z0F1200
G1 X63.535Y50.399Z0F1200
G1 X63.261Y50.711Z0F1200
G1 X63.051Y50.973Z0F1200
G1 X62.903Y51.185Z0F1200
G1 X62.815Y51.346Z0F1200
G1 X62.783Y51.457Z0F1200
G1 X62.806Y51.519Z0F1200
G1 X62.88Y51.531Z0F1200
G1 X63.003Y51.495Z0F1200
G1 X63.173Y51.41Z0F1200
G1 X63.386Y51.276Z0F1200
G1 X63.642Y51.095Z0F1200
G1 X63.936Y50.866Z0F1200
G1 X64.266Y50.589Z0F1200
G1 X64.63Y50.266Z0F1200
G1 X65.025Y49.895Z0F1200
G1 X66.02Y48.939Z0F1200
G1 X66.763Y47.353Z0F1200
G1 X66.911Y47.032Z0F1200
G1 X67.009Y46.807Z0F1200
G1 X67.061Y46.66Z0F1200
G1 X67.072Y46.576Z0F1200
G1 X67.046Y46.536Z0F1200
G1 X66.989Y46.525Z0F1200
G1 X66.709Z0F1200
G1 X66.24Y47.095Z0F1200
G1 X65.799Y47.671Z0F1200
G1 X65.297Y48.4Z0F1200
G1 X65.16Y48.581Z0F1200
G1 X64.99Y48.791Z0F1200
G1 X64.795Y49.024Z0F1200
G0 Z4.8F800
G0 X66.787Y50.044Z4.8F1500
G1 Z0F800
G1 X66.647Y50.232Z0F1200
G1 X66.483Y50.447Z0F1200
G1 X66.302Y50.681Z0F1200
G1 X66.108Y50.926Z0F1200
G1 X65.708Y51.42Z0F1200
G1 X65.041Y52.22Z0F1200
G1 X64.797Y52.531Z0F1200
G1 X64.601Y52.804Z0F1200
G1 X64.45Y53.042Z0F1200
G1 X64.345Y53.247Z0F1200
G1 X64.282Y53.421Z0F1200
G1 X64.263Y53.565Z0F1200
G1 X64.284Y53.683Z0F1200
G1 X64.343Y53.83Z0F1200
G1 X66.759Y51.41Z0F1200
G1 X67.461Y50.038Z0F1200
G1 X67.602Y49.751Z0F1200
G1 X67.697Y49.539Z0F1200
G1 X67.749Y49.39Z0F1200
G1 X67.762Y49.293Z0F1200
G1 X67.737Y49.237Z0F1200
G1 X67.679Y49.212Z0F1200
G1 X67.59Y49.206Z0F1200
G1 X67.397Z0F1200
G1 X66.787Y50.044Z0F1200
G0 Z4.8F800
G0 X68.947Y50.67Z4.8F1500
G1 Z0F800
G1 X68.666Y51.221Z0F1200
G1 X68.46Y51.63Z0F1200
G1 X68.384Y51.788Z0F1200
G1 X68.323Y51.919Z0F1200
G1 X68.278Y52.025Z0F1200
G1 X68.248Y52.108Z0F1200
G1 X68.227Y52.218Z0F1200
G1 X68.255Y52.271Z0F1200
G1 X68.325Y52.286Z0F1200
G1 X68.669Y52.282Z0F1200
G1 X69.099Y51.648Z0F1200
G1 X69.623Y50.829Z0F1200
G1 X70.07Y50.022Z0F1200
G1 X70.465Y49.177Z0F1200
G1 X70.835Y48.243Z0F1200
G1 X71.312Y46.945Z0F1200
G1 X70.951Y46.651Z0F1200
G1 X70.601Y47.239Z0F1200
G1 X70.273Y47.854Z0F1200
G1 X69.976Y48.509Z0F1200
G1 X69.906Y48.676Z0F1200
G1 X69.811Y48.89Z0F1200
G1 X69.694Y49.143Z0F1200
G1 X69.561Y49.425Z0F1200
G1 X69.262Y50.042Z0F1200
G1 X68.947Y50.67Z0F1200
G0 Z4.8F800
G0 X70.15Y51.387Z4.8F1500
G1 Z0F800
G1 X70.041Y51.474Z0F1200
G1 X70.026Y51.533Z0F1200
G1 X70.012Y51.657Z0F1200
G1 X70.001Y51.837Z0F1200
G1 X69.993Y52.066Z0F1200
G1 X69.987Y52.336Z0F1200
G1 X69.984Y52.639Z0F1200
G1 Y52.969Z0F1200
G1 X69.987Y53.317Z0F1200
G1 X70.011Y55.036Z0F1200
G1 X69.42Y57.352Z0F1200
G1 Y58.722Z0F1200
G1 X69.556Z0F1200
G1 X69.653Y58.706Z0F1200
G1 X69.693Y58.667Z0F1200
G1 X69.698Y58.591Z0F1200
G1 X69.713Y58.481Z0F1200
G1 X69.737Y58.341Z0F1200
G1 X69.769Y58.177Z0F1200
G1 X69.852Y57.788Z0F1200
G1 X69.955Y57.346Z0F1200
G1 X70.07Y56.885Z0F1200
G1 X70.189Y56.436Z0F1200
G1 X70.304Y56.032Z0F1200
G1 X70.407Y55.707Z0F1200
G1 X70.73Y54.768Z0F1200
G1 X70.806Y52.837Z0F1200
G1 X70.492Y51.35Z0F1200
G1 X70.305Z0F1200
G1 X70.15Y51.387Z0F1200
G0 Z4.8F800
G0 X71.017Y51.447Z4.8F1500
G1 Z0F800
G1 X71.047Y51.741Z0F1200
G1 X71.057Y51.972Z0F1200
G1 Y52.423Z0F1200
G1 X71.181Z0F1200
G1 X71.246Y52.374Z0F1200
G1 X71.331Y52.242Z0F1200
G1 X71.425Y52.046Z0F1200
G1 X71.518Y51.807Z0F1200
G1 X71.731Y51.192Z0F1200
G1 X71.392Y50.534Z0F1200
G1 X71.273Y50.306Z0F1200
G1 X71.178Y50.133Z0F1200
G1 X71.102Y50.01Z0F1200
G1 X71.041Y49.934Z0F1200
G1 X70.991Y49.898Z0F1200
G1 X70.948Z0F1200
G1 X70.906Y49.934Z0F1200
G1 X70.861Y49.996Z0F1200
G1 X70.843Y50.098Z0F1200
G1 X70.848Y50.287Z0F1200
G1 X70.875Y50.536Z0F1200
G1 X70.974Y51.127Z0F1200
G1 X71.017Y51.447Z0F1200
G0 Z4.8F800
G0 X73.497Y51.35Z4.8F1500
G1 Z0F800
G1 X73.641Z0F1200
G1 X73.721Y51.314Z0F1200
G1 X73.832Y51.213Z0F1200
G1 X73.961Y51.064Z0F1200
G1 X74.092Y50.883Z0F1200
G1 X74.4Y50.415Z0F1200
G1 X74.776Y50.412Z0F1200
G1 X74.688Y49.982Z0F1200
G1 X74.557Y49.539Z0F1200
G1 X74.364Y49.077Z0F1200
G1 X74.128Y48.602Z0F1200
G1 X73.422Y48.522Z0F1200
G1 X73.257Y48.717Z0F1200
G1 X73.092Y48.913Z0F1200
G1 X73.375Y50.003Z0F1200
G1 X73.479Y50.437Z0F1200
G1 X73.552Y50.811Z0F1200
G1 X73.574Y50.964Z0F1200
G1 X73.587Y51.086Z0F1200
G1 Y51.174Z0F1200
G1 X73.578Y51.222Z0F1200
G1 X73.497Y51.35Z0F1200
G0 Z4.8F800
G0 X72.067Y49.781Z4.8F1500
G1 Z0F800
G1 X72.1Y49.762Z0F1200
G1 X72.128Y49.717Z0F1200
G1 X72.151Y49.647Z0F1200
G1 X72.167Y49.551Z0F1200
G1 X72.177Y49.428Z0F1200
G1 Y49.278Z0F1200
G1 X72.17Y49.101Z0F1200
G1 X72.137Y48.603Z0F1200
G1 X71.709Y48.201Z0F1200
G1 X71.773Y48.907Z0F1200
G1 X71.819Y49.255Z0F1200
G1 X71.884Y49.518Z0F1200
G1 X71.958Y49.693Z0F1200
G1 X72.032Y49.776Z0F1200
G1 X72.067Y49.781Z0F1200
G0 Z4.8F800
G0 X76.512Y49.352Z4.8F1500
G1 Z0F800
G1 X76.549Y48.707Z0F1200
G1 X76.623Y47.548Z0F1200
G1 X76.357Y45.654Z0F1200
G1 X75.683Y44.783Z0F1200
G1 X75.823Z0F1200
G1 X75.896Y44.81Z0F1200
G1 X75.991Y44.885Z0F1200
G1 X76.095Y44.996Z0F1200
G1 X76.196Y45.132Z0F1200
G1 X76.345Y45.309Z0F1200
G1 X76.576Y45.535Z0F1200
G1 X76.86Y45.779Z0F1200
G1 X77.164Y46.014Z0F1200
G1 X77.898Y46.547Z0F1200
G1 X78.289Y46.4Z0F1200
G1 X77.995Y45.625Z0F1200
G1 X77.839Y45.258Z0F1200
G1 X77.632Y44.835Z0F1200
G1 X77.401Y44.405Z0F1200
G1 X77.172Y44.023Z0F1200
G1 X76.699Y43.201Z0F1200
G1 X76.306Y42.384Z0F1200
G1 X75.97Y41.571Z0F1200
G1 Y41.133Z0F1200
G1 X75.988Y40.904Z0F1200
G1 X76.032Y40.607Z0F1200
G1 X76.096Y40.278Z0F1200
G1 X76.174Y39.957Z0F1200
G1 X76.233Y39.731Z0F1200
G1 X76.28Y39.53Z0F1200
G1 X76.315Y39.354Z0F1200
G1 X76.339Y39.204Z0F1200
G1 X76.351Y39.08Z0F1200
G1 Y38.981Z0F1200
G1 X76.344Y38.91Z0F1200
G1 X76.324Y38.865Z0F1200
G1 X76.294Y38.848Z0F1200
G1 X76.255Y38.859Z0F1200
G1 X76.206Y38.897Z0F1200
G1 X76.147Y38.964Z0F1200
G1 X76.08Y39.059Z0F1200
G1 X76.004Y39.184Z0F1200
G1 X75.92Y39.338Z0F1200
G1 X75.827Y39.522Z0F1200
G1 X75.518Y40.158Z0F1200
G1 X75.527Y41.767Z0F1200
G1 X75.966Y42.711Z0F1200
G1 X76.076Y42.94Z0F1200
G1 X76.079Y42.984Z0F1200
G1 X76.04Y43.015Z0F1200
G1 X75.968Y43.032Z0F1200
G1 X75.872Y43.035Z0F1200
G1 X75.648Y43.003Z0F1200
G1 X75.442Y42.92Z0F1200
G1 X75.256Y42.804Z0F1200
G1 X75.021Y39.488Z0F1200
G1 X75.265Y38.617Z0F1200
G1 X75.013Z0F1200
G1 X74.899Y38.633Z0F1200
G1 X74.775Y38.676Z0F1200
G1 X74.655Y38.741Z0F1200
G1 X74.555Y38.82Z0F1200
G1 X74.348Y39.022Z0F1200
G1 X74.238Y39.657Z0F1200
G1 X74.216Y39.812Z0F1200
G1 X74.196Y40.007Z0F1200
G1 X74.178Y40.236Z0F1200
G1 X74.162Y40.49Z0F1200
G1 X74.141Y41.042Z0F1200
G1 X74.136Y41.6Z0F1200
G1 X74.144Y42.908Z0F1200
G1 X74.442Y43.275Z0F1200
G1 X74.715Y43.646Z0F1200
G1 X74.954Y44.021Z0F1200
G1 X75.168Y44.399Z0F1200
G1 X74.895Y44.255Z0F1200
G1 X74.64Y44.154Z0F1200
G1 X74.409Y44.112Z0F1200
G1 X74.196Z0F1200
G1 Y44.496Z0F1200
G1 X74.467Y44.581Z0F1200
G1 X74.629Y44.655Z0F1200
G1 X74.811Y44.776Z0F1200
G1 X75.003Y44.936Z0F1200
G1 X75.196Y45.125Z0F1200
G1 X75.381Y45.332Z0F1200
G1 X75.549Y45.549Z0F1200
G1 X75.69Y45.765Z0F1200
G1 X75.795Y45.971Z0F1200
G1 X75.99Y46.431Z0F1200
G1 X75.514Y53.428Z0F1200
G1 X73.923Y55.949Z0F1200
G1 Y56.745Z0F1200
G1 X74.141Y56.567Z0F1200
G1 X74.204Y56.502Z0F1200
G1 X74.302Y56.386Z0F1200
G1 X74.428Y56.226Z0F1200
G1 X74.578Y56.026Z0F1200
G1 X74.932Y55.539Z0F1200
G1 X75.324Y54.976Z0F1200
G1 X76.29Y53.562Z0F1200
G1 X76.443Y50.604Z0F1200
G1 X76.512Y49.352Z0F1200

; Color picking sequence
G1 Z10 F1000;         ; Raise brush to safe height
G0 X86 Y5 F1200;    ; Rapid move to color 1 position
G1 Z0 F1000;         ; Lower into color - controlled movement
G1 X85.102Y7.295Z0S800F1200
G1 X85.026Y7.642Z0F1200
G1 X85Y8Z0F1200
G1 X85.026Y8.358Z0F1200
G1 X85.102Y8.705Z0F1200
G1 X85.225Y9.041Z0F1200
G1 X85.393Y9.362Z0F1200
G1 X85.603Y9.668Z0F1200
G1 X85.854Y9.957Z0F1200
G1 X86.142Y10.226Z0F1200
G1 X86.464Y10.475Z0F1200
G1 X86.82Y10.701Z0F1200
G1 X87.204Y10.902Z0F1200
G1 X87.617Y11.078Z0F1200
G1 X88.054Y11.225Z0F1200
G1 X88.513Y11.343Z0F1200
G1 X88.992Y11.429Z0F1200
G1 X89.489Y11.482Z0F1200
G1 X90Y11.5Z0F1200
G1 X90.511Y11.482Z0F1200
G1 X91.008Y11.429Z0F1200
G1 X91.487Y11.343Z0F1200
G1 X91.946Y11.225Z0F1200
G1 X92.383Y11.078Z0F1200
G1 X92.796Y10.902Z0F1200
G1 X93.18Y10.701Z0F1200
G1 X93.536Y10.475Z0F1200
G1 X93.858Y10.226Z0F1200
G1 X94.146Y9.957Z0F1200
G1 X94.397Y9.668Z0F1200
G1 X94.607Y9.362Z0F1200
G1 X94.775Y9.041Z0F1200
G1 X94.898Y8.705Z0F1200
G1 X94.974Y8.358Z0F1200
G1 X95Y8Z0F1200
G1 X94.974Y7.642Z0F1200
G1 X94.898Y7.295Z0F1200
G1 X94.775Y6.959Z0F1200
G1 X94.607Y6.638Z0F1200
G1 X94.397Y6.332Z0F1200
G1 X94.146Y6.043Z0F1200
G1 X93.858Y5.774Z0F1200
G1 X93.536Y5.525Z0F1200
G1 X93.18Y5.299Z0F1200
G1 X92.796Y5.098Z0F1200
G1 X92.383Y4.922Z0F1200
G1 X91.946Y4.775Z0F1200
G1 X91.487Y4.657Z0F1200
G1 X91.008Y4.571Z0F1200
G1 X90.511Y4.518Z0F1200
G1 X90Y4.5Z0F1200
G1 X89.489Y4.518Z0F1200
G1 X88.992Y4.571Z0F1200
G1 X88.513Y4.657Z0F1200
G1 X88.054Y4.775Z0F1200
G1 X87.617Y4.922Z0F1200
G1 X87.204Y5.098Z0F1200
G1 X86.82Y5.299Z0F1200
G1 X86.464Y5.525Z0F1200
G1 X86.142Y5.774Z0F1200
G1 X85.854Y6.043Z0F1200
G1 X85.603Y6.332Z0F1200
G1 X85.393Y6.638Z0F1200
G1 X85.225Y6.959Z0F1200
G1 Z7 F800;         ; Raise from color - controlled movement
G1 X79 Y8 Z1 F1200;     ; Movement in paint - controlled movement
G1 X69 Y18 Z8 F500;     ; Move in paint - controlled movement
G1 F1200;           ; Set feed rate to 1000
G0 Z4.8F800
G0 X78.289Y51.456Z4.8F1500
G1 Z0F800
G1 X78.528Y51.556Z0F1200
G1 X78.807Y51.645Z0F1200
G1 X79.142Y51.72Z0F1200
G1 X79.307Y51.753Z0F1200
G1 X79.419Y51.801Z0F1200
G1 X79.474Y51.876Z0F1200
G1 X79.468Y51.994Z0F1200
G1 X79.397Y52.169Z0F1200
G1 X79.258Y52.417Z0F1200
G1 X79.162Y52.573Z0F1200
G1 X79.047Y52.752Z0F1200
G1 X78.913Y52.956Z0F1200
G1 X78.619Y53.398Z0F1200
G1 X78.492Y53.584Z0F1200
G1 X78.376Y53.747Z0F1200
G1 X78.274Y53.888Z0F1200
G1 X78.184Y54.004Z0F1200
G1 X78.107Y54.098Z0F1200
G1 X78.044Y54.168Z0F1200
G1 X77.993Y54.214Z0F1200
G1 X77.956Y54.236Z0F1200
G1 X77.933Z0F1200
G1 X77.923Y54.21Z0F1200
G1 X77.927Y54.16Z0F1200
G1 X77.945Y54.087Z0F1200
G1 X77.977Y53.989Z0F1200
G1 X78.023Y53.867Z0F1200
G1 X78.083Y53.721Z0F1200
G1 X78.289Y53.235Z0F1200
G1 Y51.456Z0F1200
G0 Z4.8F800
G0 X76.652Y54.433Z4.8F1500
G1 Z0F800
G1 X76.234Z0F1200
G1 X76.153Y54.668Z0F1200
G1 X76.096Y54.817Z0F1200
G1 X75.999Y55.05Z0F1200
G1 X75.876Y55.335Z0F1200
G1 X75.741Y55.64Z0F1200
G1 X75.41Y56.377Z0F1200
G1 X74.147Y57.64Z0F1200
G1 X74.463Y58.32Z0F1200
G1 X74.748Z0F1200
G1 X75.027Y58.279Z0F1200
G1 X75.298Y58.181Z0F1200
G1 X75.563Y58.042Z0F1200
G1 X76.652Y55.914Z0F1200
G1 Y54.433Z0F1200
G0 Z4.8F800
G0 X71.745Y55.741Z4.8F1500
G1 Z0F800
G1 X71.589Y55.556Z0F1200
G1 X71.511Y55.474Z0F1200
G1 X71.437Y55.417Z0F1200
G1 X71.37Y55.386Z0F1200
G1 X71.311Y55.38Z0F1200
G1 X71.262Y55.4Z0F1200
G1 X71.225Y55.444Z0F1200
G1 X71.201Y55.513Z0F1200
G1 X71.192Y55.606Z0F1200
G1 X71.179Y55.708Z0F1200
G1 X71.144Y55.844Z0F1200
G1 X71.089Y56.011Z0F1200
G1 X71.015Y56.205Z0F1200
G1 X70.82Y56.658Z0F1200
G1 X70.574Y57.173Z0F1200
G1 X70.291Y57.719Z0F1200
G1 X69.987Y58.267Z0F1200
G1 X69.678Y58.785Z0F1200
G1 X69.378Y59.244Z0F1200
G1 X69.076Y59.686Z0F1200
G1 X68.828Y60.06Z0F1200
G1 X68.733Y60.21Z0F1200
G1 X68.66Y60.327Z0F1200
G1 X68.614Y60.409Z0F1200
G1 X68.598Y60.448Z0F1200
G1 X68.587Y60.523Z0F1200
G1 X68.559Y60.665Z0F1200
G1 X68.518Y60.853Z0F1200
G1 X68.344Y61.604Z0F1200
G1 X68.753Y61.135Z0F1200
G1 X69.028Y60.809Z0F1200
G1 X69.326Y60.436Z0F1200
G1 X69.637Y60.031Z0F1200
G1 X69.95Y59.607Z0F1200
G1 X70.256Y59.179Z0F1200
G1 X70.543Y58.762Z0F1200
G1 X70.802Y58.369Z0F1200
G1 X71.021Y58.016Z0F1200
G1 X71.519Y57.181Z0F1200
G1 X71.492Y56.824Z0F1200
G1 X71.514Y56.466Z0F1200
G1 X71.605Y56.104Z0F1200
G1 X71.745Y55.741Z0F1200
G0 Z4.8F800
G0 X72.866Y57.754Z4.8F1500
G1 Z0F800
G1 X72.782Y57.888Z0F1200
G1 X72.755Y57.964Z0F1200
G1 X72.742Y58.074Z0F1200
G1 Y58.213Z0F1200
G1 X72.758Y58.376Z0F1200
G1 X72.818Y58.752Z0F1200
G1 X72.912Y59.156Z0F1200
G1 X73.027Y59.546Z0F1200
G1 X73.152Y59.879Z0F1200
G1 X73.214Y60.01Z0F1200
G1 X73.276Y60.11Z0F1200
G1 X73.334Y60.174Z0F1200
G1 X73.387Y60.197Z0F1200
G1 X73.54Z0F1200
G1 X73.35Y58.521Z0F1200
G1 X72.866Y57.754Z0F1200
G0 Z4.8F800
G0 X75.579Y59.273Z4.8F1500
G1 Z0F800
G1 X74.59Y59.957Z0F1200
G1 X74.673Y60.529Z0F1200
G1 X75.101Y60.609Z0F1200
G1 X76.788Y59.007Z0F1200
G1 Y58.798Z0F1200
G1 X76.78Y58.696Z0F1200
G1 X76.75Y58.633Z0F1200
G1 X76.688Y58.612Z0F1200
G1 X76.585Y58.638Z0F1200
G1 X76.432Y58.713Z0F1200
G1 X76.219Y58.842Z0F1200
G1 X75.938Y59.027Z0F1200
G1 X75.579Y59.273Z0F1200
G0 Z4.8F800
G0 X75.142Y61.805Z4.8F1500
G1 Z0F800
G1 X75.015Z0F1200
G1 Y62.294Z0F1200
G1 Y62.783Z0F1200
G1 X74.545Y64.137Z0F1200
G1 X74.351Y64.711Z0F1200
G1 X74.168Y65.271Z0F1200
G1 X74.088Y65.526Z0F1200
G1 X74.018Y65.753Z0F1200
G1 X73.962Y65.946Z0F1200
G1 X73.921Y66.094Z0F1200
G1 X73.836Y66.367Z0F1200
G1 X73.718Y66.662Z0F1200
G1 X73.583Y66.944Z0F1200
G1 X73.448Y67.179Z0F1200
G1 X73.241Y67.512Z0F1200
G1 X73.01Y67.917Z0F1200
G1 X72.772Y68.363Z0F1200
G1 X72.54Y68.817Z0F1200
G1 X72.333Y69.248Z0F1200
G1 X72.165Y69.623Z0F1200
G1 X72.1Y69.78Z0F1200
G1 X72.052Y69.911Z0F1200
G1 X72.021Y70.012Z0F1200
G1 X71.983Y70.243Z0F1200
G1 X71.905Y70.443Z0F1200
G1 X71.772Y70.683Z0F1200
G1 X71.584Y70.965Z0F1200
G1 X71.338Y71.292Z0F1200
G1 X71.033Y71.665Z0F1200
G1 X70.667Y72.088Z0F1200
G1 X69.752Y73.103Z0F1200
G1 X69.287Y73.639Z0F1200
G1 X69.078Y73.886Z0F1200
G1 X68.894Y74.109Z0F1200
G1 X68.741Y74.3Z0F1200
G1 X68.627Y74.451Z0F1200
G1 X68.175Y75.075Z0F1200
G1 X68.35Z0F1200
G1 X68.408Y75.051Z0F1200
G1 X68.508Y74.982Z0F1200
G1 X68.642Y74.874Z0F1200
G1 X68.807Y74.73Z0F1200
G1 X69.206Y74.357Z0F1200
G1 X69.661Y73.902Z0F1200
G1 X70.739Y72.792Z0F1200
G1 X70.961Y72.568Z0F1200
G1 X71.156Y72.374Z0F1200
G1 X71.349Y72.186Z0F1200
G1 X72.465Y71.121Z0F1200
G1 X72.713Y70.585Z0F1200
G1 X72.81Y70.347Z0F1200
G1 X72.89Y70.096Z0F1200
G1 X72.944Y69.861Z0F1200
G1 X72.965Y69.673Z0F1200
G1 X72.968Y69.297Z0F1200
G1 X73.514Y68.408Z0F1200
G1 X73.725Y68.053Z0F1200
G1 X73.899Y67.744Z0F1200
G1 X73.966Y67.617Z0F1200
G1 X74.016Y67.514Z0F1200
G1 X74.048Y67.439Z0F1200
G1 X74.081Y67.32Z0F1200
G1 X74.14Y67.199Z0F1200
G1 X74.228Y67.052Z0F1200
G1 X74.336Y66.894Z0F1200
G1 X74.612Y66.513Z0F1200
G1 X74.221Y66.161Z0F1200
G1 X74.467Y65.759Z0F1200
G1 X74.747Y65.22Z0F1200
G1 X74.986Y64.599Z0F1200
G1 X75.178Y63.943Z0F1200
G1 X75.315Y63.3Z0F1200
G1 X75.359Y62.998Z0F1200
G1 X75.387Y62.717Z0F1200
G1 X75.397Y62.463Z0F1200
G1 X75.388Y62.242Z0F1200
G1 X75.359Y62.06Z0F1200
G1 X75.309Y61.922Z0F1200
G1 X75.237Y61.835Z0F1200
G1 X75.142Y61.805Z0F1200
G0 Z4.8F800
G0 X69.857Y61.397Z4.8F1500
G1 Z0F800
G1 X69.69Y61.199Z0F1200
G1 X69.552Y61.071Z0F1200
G1 X69.42Y61.009Z0F1200
G1 X69.322Y61.016Z0F1200
G1 X69.283Y61.102Z0F1200
G1 X69.266Y61.142Z0F1200
G1 X69.217Y61.22Z0F1200
G1 X69.14Y61.329Z0F1200
G1 X69.038Y61.467Z0F1200
G1 X68.773Y61.807Z0F1200
G1 X68.449Y62.204Z0F1200
G1 X68.271Y62.419Z0F1200
G1 X68.113Y62.613Z0F1200
G1 X67.975Y62.789Z0F1200
G1 X67.855Y62.951Z0F1200
G1 X67.661Y63.247Z0F1200
G1 X67.52Y63.531Z0F1200
G1 X67.42Y63.833Z0F1200
G1 X67.348Y64.184Z0F1200
G1 X67.318Y64.387Z0F1200
G1 X67.291Y64.614Z0F1200
G1 X67.265Y64.868Z0F1200
G1 X67.237Y65.153Z0F1200
G1 X67.184Y65.683Z0F1200
G1 X67.126Y66.183Z0F1200
G1 X67.097Y66.403Z0F1200
G1 X67.07Y66.595Z0F1200
G1 X67.046Y66.752Z0F1200
G1 X67.024Y66.865Z0F1200
G1 X66.929Y67.301Z0F1200
G1 X67.151Z0F1200
G1 X67.237Y67.292Z0F1200
G1 X67.308Y67.267Z0F1200
G1 X67.355Y67.23Z0F1200
G1 X67.398Y67.115Z0F1200
G1 X67.467Y67.009Z0F1200
G1 X67.568Y66.883Z0F1200
G1 X67.692Y66.749Z0F1200
G1 X68.063Y66.338Z0F1200
G1 X68.447Y65.846Z0F1200
G1 X68.82Y65.317Z0F1200
G1 X69.155Y64.791Z0F1200
G1 X69.301Y64.542Z0F1200
G1 X69.428Y64.309Z0F1200
G1 X69.534Y64.098Z0F1200
G1 X69.614Y63.914Z0F1200
G1 X69.667Y63.761Z0F1200
G1 X69.688Y63.646Z0F1200
G1 X69.675Y63.573Z0F1200
G1 X69.624Y63.548Z0F1200
G1 X69.419Z0F1200
G1 X68.784Y64.352Z0F1200
G1 X68.53Y64.664Z0F1200
G1 X68.308Y64.92Z0F1200
G1 X68.216Y65.018Z0F1200
G1 X68.142Y65.093Z0F1200
G1 X68.088Y65.14Z0F1200
G1 X68.056Y65.156Z0F1200
G1 X67.964Z0F1200
G1 X68.068Y64.41Z0F1200
G1 X68.122Y64.101Z0F1200
G1 X68.194Y63.811Z0F1200
G1 X68.273Y63.573Z0F1200
G1 X68.352Y63.42Z0F1200
G1 X69.857Y61.397Z0F1200
G0 Z4.8F800
G0 X64.78Y61.488Z4.8F1500
G1 Z0F800
G1 X64.748Y61.43Z0F1200
G1 X64.658Y61.359Z0F1200
G1 X64.522Y61.28Z0F1200
G1 X64.351Y61.198Z0F1200
G1 X63.95Y61.043Z0F1200
G1 X63.546Y60.937Z0F1200
G1 X63.072Y60.849Z0F1200
G1 X62.664Y61.013Z0F1200
G1 X62.488Y61.075Z0F1200
G1 X62.311Y61.121Z0F1200
G1 X62.154Y61.148Z0F1200
G1 X62.036Y61.151Z0F1200
G1 X61.817Y61.125Z0F1200
G1 X60.676Y61.82Z0F1200
G1 X60.219Y62.104Z0F1200
G1 X59.816Y62.364Z0F1200
G1 X59.65Y62.476Z0F1200
G1 X59.513Y62.571Z0F1200
G1 X59.411Y62.646Z0F1200
G1 X59.351Y62.696Z0F1200
G1 X59.256Y62.78Z0F1200
G1 X59.171Y62.836Z0F1200
G1 X59.096Y62.865Z0F1200
G1 X59.032Z0F1200
G1 X58.981Y62.841Z0F1200
G1 X58.944Y62.788Z0F1200
G1 X58.921Y62.709Z0F1200
G1 X58.913Y62.604Z0F1200
G1 Y62.329Z0F1200
G1 X58.578Y62Z0F1200
G1 X58.429Y61.861Z0F1200
G1 X58.305Y61.763Z0F1200
G1 X58.202Y61.708Z0F1200
G1 X58.113Y61.694Z0F1200
G1 X58.036Y61.724Z0F1200
G1 X57.964Y61.798Z0F1200
G1 X57.894Y61.915Z0F1200
G1 X57.745Y62.239Z0F1200
G1 X57.667Y62.382Z0F1200
G1 X57.595Y62.491Z0F1200
G1 X57.538Y62.549Z0F1200
G1 X57.428Y62.616Z0F1200
G1 X57.48Y61.47Z0F1200
G1 X57.07Z0F1200
G1 X56.866Y61.903Z0F1200
G1 X56.773Y62.088Z0F1200
G1 X56.692Y62.218Z0F1200
G1 X56.623Y62.293Z0F1200
G1 X56.564Y62.313Z0F1200
G1 X56.511Y62.278Z0F1200
G1 X56.465Y62.187Z0F1200
G1 X56.423Y62.041Z0F1200
G1 X56.384Y61.839Z0F1200
G1 X56.347Y61.631Z0F1200
G1 X56.308Y61.436Z0F1200
G1 X56.273Y61.275Z0F1200
G1 X56.246Y61.171Z0F1200
G1 X56.194Y61.006Z0F1200
G1 X55.813Y61.149Z0F1200
G1 X55.652Y61.679Z0F1200
G1 X55.582Y61.899Z0F1200
G1 X55.518Y62.054Z0F1200
G1 X55.449Y62.141Z0F1200
G1 X55.361Y62.156Z0F1200
G1 X55.243Y62.098Z0F1200
G1 X55.083Y61.964Z0F1200
G1 X54.983Y61.868Z0F1200
G1 X54.868Y61.752Z0F1200
G1 X54.736Y61.616Z0F1200
G1 X53.871Y60.71Z0F1200
G1 X52.512Y60.203Z0F1200
G1 X52.433Y60.328Z0F1200
G1 X52.354Y60.453Z0F1200
G1 X52.738Y60.648Z0F1200
G1 X52.938Y60.777Z0F1200
G1 X53.198Y60.984Z0F1200
G1 X53.484Y61.241Z0F1200
G1 X53.764Y61.518Z0F1200
G1 X54.211Y61.956Z0F1200
G1 X54.664Y62.34Z0F1200
G1 X55.121Y62.668Z0F1200
G1 X55.581Y62.939Z0F1200
G1 X56.041Y63.152Z0F1200
G1 X56.501Y63.307Z0F1200
G1 X56.958Y63.402Z0F1200
G1 X57.412Y63.438Z0F1200
G1 X58.026Y63.445Z0F1200
G1 X57.753Y63.554Z0F1200
G1 X57.679Y63.576Z0F1200
G1 X57.573Y63.597Z0F1200
G1 X57.441Y63.617Z0F1200
G1 X57.287Y63.634Z0F1200
G1 X56.932Y63.66Z0F1200
G1 X56.55Y63.673Z0F1200
G1 X55.62Y63.682Z0F1200
G1 X55.322Y63.527Z0F1200
G1 X55.052Y63.335Z0F1200
G1 X54.823Y63.091Z0F1200
G1 X54.704Y62.939Z0F1200
G1 X54.53Y62.732Z0F1200
G1 X54.324Y62.497Z0F1200
G1 X54.109Y62.262Z0F1200
G1 X53.596Y61.714Z0F1200
G1 X52.198Y61.27Z0F1200
G1 X51.93Y61.434Z0F1200
G1 X52.329Y61.854Z0F1200
G1 X52.7Y62.279Z0F1200
G1 X53.032Y62.709Z0F1200
G1 X53.335Y63.144Z0F1200
G1 X54.111Y63.613Z0F1200
G1 X54.45Y63.813Z0F1200
G1 X54.798Y64.008Z0F1200
G1 X55.115Y64.178Z0F1200
G1 X55.36Y64.298Z0F1200
G1 X55.832Y64.514Z0F1200
G1 X56.861Y64.354Z0F1200
G1 X57.888Y64.144Z0F1200
G1 X58.913Y63.864Z0F1200
G1 X59.936Y63.533Z0F1200
G1 X60.635Y63.082Z0F1200
G1 X60.947Y62.857Z0F1200
G1 X61.282Y62.579Z0F1200
G1 X61.598Y62.283Z0F1200
G1 X61.855Y62.004Z0F1200
G1 X62.377Y61.379Z0F1200
G1 X63.579Y61.472Z0F1200
G1 X64.045Y61.503Z0F1200
G1 X64.427Y61.516Z0F1200
G1 X64.574Z0F1200
G1 X64.685Y61.511Z0F1200
G1 X64.756Y61.502Z0F1200
G1 X64.78Y61.488Z0F1200
G0 Z4.8F800
G0 X63.821Y60.157Z4.8F1500
G1 Z0F800
G1 X64.235Y60.041Z0F1200
G1 X64.625Y59.901Z0F1200
G1 X64.954Y59.745Z0F1200
G1 X65.185Y59.584Z0F1200
G1 X65.385Y59.393Z0F1200
G1 X65.048Y59.405Z0F1200
G1 X64.963Y59.413Z0F1200
G1 X64.848Y59.431Z0F1200
G1 X64.709Y59.459Z0F1200
G1 X64.55Y59.494Z0F1200
G1 X64.196Y59.584Z0F1200
G1 X63.825Y59.691Z0F1200
G1 X63.467Y59.801Z0F1200
G1 X62.813Y59.997Z0F1200
G1 X62.58Y60.061Z0F1200
G1 X62.665Y60.196Z0F1200
G1 X62.717Y60.24Z0F1200
G1 X62.805Y60.267Z0F1200
G1 X62.924Y60.28Z0F1200
G1 X63.069Z0F1200
G1 X63.42Y60.239Z0F1200
G1 X63.821Y60.157Z0F1200
G0 Z4.8F800
G0 X61.874Y58.881Z4.8F1500
G1 Z0F800
G1 X63.262Y58.19Z0F1200
G1 X63.782Y57.564Z0F1200
G1 X64.004Y57.3Z0F1200
G1 X64.223Y57.046Z0F1200
G1 X64.414Y56.83Z0F1200
G1 X64.552Y56.68Z0F1200
G1 X64.801Y56.423Z0F1200
G1 X64.727Y56.232Z0F1200
G1 X64.681Y56.158Z0F1200
G1 X64.611Y56.098Z0F1200
G1 X64.528Y56.057Z0F1200
G1 X64.439Y56.042Z0F1200
G1 X64.225Z0F1200
G1 X63.085Y57.097Z0F1200
G1 X61.944Y58.152Z0F1200
G1 X60.618Y58.399Z0F1200
G1 X59.254Y57.796Z0F1200
G1 X56.388Y57.763Z0F1200
G1 X55.928Y57.903Z0F1200
G1 X55.502Y58.063Z0F1200
G1 X55.149Y58.254Z0F1200
G1 X55.012Y58.353Z0F1200
G1 X54.908Y58.45Z0F1200
G1 X54.842Y58.542Z0F1200
G1 X54.819Y58.625Z0F1200
G1 Y58.789Z0F1200
G1 X60.072Y58.749Z0F1200
G1 X60.939Y59.102Z0F1200
G1 X61.071Y58.765Z0F1200
G1 X61.874Y58.881Z0F1200
G0 Z4.8F800
G0 X59.544Y60.432Z4.8F1500
G1 Z0F800
G1 X58.773Y60.126Z0F1200
G1 X57.997Y59.879Z0F1200
G1 X57.637Y59.786Z0F1200
G1 X57.312Y59.717Z0F1200
G1 X57.033Y59.676Z0F1200
G1 X56.813Y59.667Z0F1200
G1 X56.714Y59.692Z0F1200
G1 X56.556Y59.758Z0F1200
G1 X56.361Y59.853Z0F1200
G1 X56.151Y59.968Z0F1200
G1 X55.92Y60.107Z0F1200
G1 X55.766Y60.216Z0F1200
G1 X55.695Y60.3Z0F1200
G1 X55.712Y60.363Z0F1200
G1 X55.822Y60.41Z0F1200
G1 X56.03Y60.447Z0F1200
G1 X56.173Y60.462Z0F1200
G1 X56.342Y60.476Z0F1200
G1 X56.539Y60.49Z0F1200
G1 X57.213Y60.531Z0F1200
G1 X57.565Y60.558Z0F1200
G1 X57.855Y60.595Z0F1200
G1 X58.116Y60.651Z0F1200
G1 X58.385Y60.735Z0F1200
G1 X58.697Y60.856Z0F1200
G1 X58.879Y60.934Z0F1200
G1 X59.321Y61.128Z0F1200
G1 X60.195Y61.518Z0F1200
G1 X60.441Y61.389Z0F1200
G1 X60.536Y61.326Z0F1200
G1 X60.613Y61.25Z0F1200
G1 X60.665Y61.17Z0F1200
G1 X60.683Y61.097Z0F1200
G1 X60.68Y60.934Z0F1200
G1 X59.544Y60.432Z0F1200
G0 Z4.8F800
G0 X63.357Y63.266Z4.8F1500
G1 Z0F800
G1 X63.255Y63.328Z0F1200
G1 X63.133Y63.411Z0F1200
G1 X62.989Y63.515Z0F1200
G1 X62.818Y63.643Z0F1200
G1 X62.39Y63.974Z0F1200
G1 X61.825Y64.416Z0F1200
G1 X61.502Y64.668Z0F1200
G1 X61.21Y64.894Z0F1200
G1 X60.945Y65.095Z0F1200
G1 X60.703Y65.274Z0F1200
G1 X60.274Y65.571Z0F1200
G1 X59.895Y65.801Z0F1200
G1 X59.537Y65.982Z0F1200
G1 X59.172Y66.128Z0F1200
G1 X58.769Y66.256Z0F1200
G1 X58.3Y66.382Z0F1200
G1 X57.343Y66.626Z0F1200
G1 X55.454Y66.631Z0F1200
G1 X54.557Y66.289Z0F1200
G1 X54.187Y66.146Z0F1200
G1 X53.843Y66.011Z0F1200
G1 X53.563Y65.897Z0F1200
G1 X53.386Y65.822Z0F1200
G1 X53.24Y65.776Z0F1200
G1 X53.045Y65.743Z0F1200
G1 X52.826Y65.726Z0F1200
G1 X52.609Z0F1200
G1 X52.104Y65.76Z0F1200
G1 X51.823Y66.363Z0F1200
G1 X51.956Z0F1200
G1 X51.996Y66.373Z0F1200
G1 X52.061Y66.401Z0F1200
G1 X52.146Y66.445Z0F1200
G1 X52.248Y66.503Z0F1200
G1 X52.49Y66.654Z0F1200
G1 X52.762Y66.838Z0F1200
G1 X53.436Y67.313Z0F1200
G1 X55.16Y67.596Z0F1200
G1 X56.502Y67.514Z0F1200
G1 X57.042Y67.472Z0F1200
G1 X57.521Y67.419Z0F1200
G1 X57.721Y67.39Z0F1200
G1 X57.887Y67.361Z0F1200
G1 X58.011Y67.332Z0F1200
G1 X58.244Y67.25Z0F1200
G1 X58.494Y67.194Z0F1200
G1 X58.802Y67.144Z0F1200
G1 X59.133Y67.107Z0F1200
G1 X59.936Y67.036Z0F1200
G1 X61.892Y66.092Z0F1200
G1 X62.538Y65.429Z0F1200
G1 X62.819Y65.119Z0F1200
G1 X63.104Y64.765Z0F1200
G1 X63.361Y64.41Z0F1200
G1 X63.556Y64.1Z0F1200
G1 X63.927Y63.434Z0F1200
G1 X63.78Y63.29Z0F1200
G1 X63.7Y63.219Z0F1200
G1 X63.618Y63.182Z0F1200
G1 X63.511Y63.194Z0F1200
G1 X63.357Y63.266Z0F1200

; Color picking sequence
G1 Z10 F1000;         ; Raise brush to safe height
G0 X86 Y5 F1200;    ; Rapid move to color 1 position
G1 Z0 F1000;         ; Lower into color - controlled movement
G1 X85.102Y7.295Z0S800F1200
G1 X85.026Y7.642Z0F1200
G1 X85Y8Z0F1200
G1 X85.026Y8.358Z0F1200
G1 X85.102Y8.705Z0F1200
G1 X85.225Y9.041Z0F1200
G1 X85.393Y9.362Z0F1200
G1 X85.603Y9.668Z0F1200
G1 X85.854Y9.957Z0F1200
G1 X86.142Y10.226Z0F1200
G1 X86.464Y10.475Z0F1200
G1 X86.82Y10.701Z0F1200
G1 X87.204Y10.902Z0F1200
G1 X87.617Y11.078Z0F1200
G1 X88.054Y11.225Z0F1200
G1 X88.513Y11.343Z0F1200
G1 X88.992Y11.429Z0F1200
G1 X89.489Y11.482Z0F1200
G1 X90Y11.5Z0F1200
G1 X90.511Y11.482Z0F1200
G1 X91.008Y11.429Z0F1200
G1 X91.487Y11.343Z0F1200
G1 X91.946Y11.225Z0F1200
G1 X92.383Y11.078Z0F1200
G1 X92.796Y10.902Z0F1200
G1 X93.18Y10.701Z0F1200
G1 X93.536Y10.475Z0F1200
G1 X93.858Y10.226Z0F1200
G1 X94.146Y9.957Z0F1200
G1 X94.397Y9.668Z0F1200
G1 X94.607Y9.362Z0F1200
G1 X94.775Y9.041Z0F1200
G1 X94.898Y8.705Z0F1200
G1 X94.974Y8.358Z0F1200
G1 X95Y8Z0F1200
G1 X94.974Y7.642Z0F1200
G1 X94.898Y7.295Z0F1200
G1 X94.775Y6.959Z0F1200
G1 X94.607Y6.638Z0F1200
G1 X94.397Y6.332Z0F1200
G1 X94.146Y6.043Z0F1200
G1 X93.858Y5.774Z0F1200
G1 X93.536Y5.525Z0F1200
G1 X93.18Y5.299Z0F1200
G1 X92.796Y5.098Z0F1200
G1 X92.383Y4.922Z0F1200
G1 X91.946Y4.775Z0F1200
G1 X91.487Y4.657Z0F1200
G1 X91.008Y4.571Z0F1200
G1 X90.511Y4.518Z0F1200
G1 X90Y4.5Z0F1200
G1 X89.489Y4.518Z0F1200
G1 X88.992Y4.571Z0F1200
G1 X88.513Y4.657Z0F1200
G1 X88.054Y4.775Z0F1200
G1 X87.617Y4.922Z0F1200
G1 X87.204Y5.098Z0F1200
G1 X86.82Y5.299Z0F1200
G1 X86.464Y5.525Z0F1200
G1 X86.142Y5.774Z0F1200
G1 X85.854Y6.043Z0F1200
G1 X85.603Y6.332Z0F1200
G1 X85.393Y6.638Z0F1200
G1 X85.225Y6.959Z0F1200
G1 Z7 F800;         ; Raise from color - controlled movement
G1 X79 Y8 Z1 F1200;     ; Movement in paint - controlled movement
G1 X69 Y18 Z8 F500;     ; Move in paint - controlled movement
G1 F1200;           ; Set feed rate to 1000
G0 Z4.8F800
G0 X64.443Y68.574Z4.8F1500
G1 Z0F800
G1 X64.39Y68.582Z0F1200
G1 X64.316Y68.607Z0F1200
G1 X64.22Y68.65Z0F1200
G1 X64.102Y68.712Z0F1200
G1 X63.962Y68.794Z0F1200
G1 X63.765Y68.918Z0F1200
G1 X63.542Y69.073Z0F1200
G1 X63.273Y69.274Z0F1200
G1 X62.94Y69.535Z0F1200
G1 X62.527Y69.87Z0F1200
G1 X62.014Y70.294Z0F1200
G1 X61.384Y70.822Z0F1200
G1 X60.618Y71.467Z0F1200
G1 X59.827Y72.114Z0F1200
G1 X59.074Y72.686Z0F1200
G1 X58.35Y73.189Z0F1200
G1 X57.645Y73.627Z0F1200
G1 X56.948Y74.008Z0F1200
G1 X56.25Y74.336Z0F1200
G1 X55.541Y74.618Z0F1200
G1 X54.811Y74.859Z0F1200
G1 X53.645Y75.209Z0F1200
G1 X51.445Z0F1200
G1 X49.165Y74.651Z0F1200
G1 X45.62Y72.776Z0F1200
G1 X43.723Y72.356Z0F1200
G1 X40.696Y70.942Z0F1200
G1 X39.903Y70.261Z0F1200
G1 X39.615Y70.017Z0F1200
G1 X39.384Y69.833Z0F1200
G1 X39.202Y69.704Z0F1200
G1 X39.062Y69.628Z0F1200
G1 X38.956Y69.602Z0F1200
G1 X38.876Y69.622Z0F1200
G1 X38.814Y69.685Z0F1200
G1 X38.763Y69.788Z0F1200
G1 X38.682Y69.996Z0F1200
G1 X38.938Y70.225Z0F1200
G1 X39.569Y70.752Z0F1200
G1 X40.226Y71.22Z0F1200
G1 X40.577Y71.441Z0F1200
G1 X40.951Y71.659Z0F1200
G1 X41.353Y71.875Z0F1200
G1 X41.787Y72.095Z0F1200
G1 X43.152Y72.764Z0F1200
G1 X44.039Y72.991Z0F1200
G1 X44.732Y73.165Z0F1200
G1 X44.994Y73.229Z0F1200
G1 X45.153Y73.265Z0F1200
G1 X45.216Y73.285Z0F1200
G1 X45.312Y73.323Z0F1200
G1 X45.436Y73.377Z0F1200
G1 X45.586Y73.447Z0F1200
G1 X45.948Y73.623Z0F1200
G1 X46.371Y73.839Z0F1200
G1 X47.291Y74.331Z0F1200
G1 X48.133Y74.811Z0F1200
G1 X48.449Y74.977Z0F1200
G1 X48.858Y75.157Z0F1200
G1 X49.306Y75.33Z0F1200
G1 X49.741Y75.474Z0F1200
G1 X50.735Y75.77Z0F1200
G1 X51.126Y75.623Z0F1200
G1 X51.303Y75.904Z0F1200
G1 X52.754Y75.862Z0F1200
G1 X53.349Y75.836Z0F1200
G1 X53.899Y75.796Z0F1200
G1 X54.137Y75.773Z0F1200
G1 X54.341Y75.748Z0F1200
G1 X54.502Y75.722Z0F1200
G1 X54.614Y75.696Z0F1200
G1 X55.199Y75.505Z0F1200
G1 X55.761Y75.299Z0F1200
G1 X56.299Y75.076Z0F1200
G1 X56.813Y74.838Z0F1200
G1 X57.305Y74.583Z0F1200
G1 X57.773Y74.313Z0F1200
G1 X58.218Y74.026Z0F1200
G1 X58.64Y73.723Z0F1200
G1 X58.868Y73.57Z0F1200
G1 X59.137Y73.42Z0F1200
G1 X59.413Y73.29Z0F1200
G1 X59.663Y73.197Z0F1200
G1 X60.078Y73.061Z0F1200
G1 X60.515Y72.895Z0F1200
G1 X60.968Y72.705Z0F1200
G1 X61.43Y72.494Z0F1200
G1 X62.352Y72.028Z0F1200
G1 X63.229Y71.528Z0F1200
G1 X63.633Y71.276Z0F1200
G1 X64.005Y71.028Z0F1200
G1 X64.339Y70.788Z0F1200
G1 X64.627Y70.56Z0F1200
G1 X64.863Y70.349Z0F1200
G1 X65.04Y70.158Z0F1200
G1 X65.151Y69.992Z0F1200
G1 X65.19Y69.854Z0F1200
G1 X65.172Y69.77Z0F1200
G1 X65.115Y69.729Z0F1200
G1 X65.015Y69.733Z0F1200
G1 X64.866Y69.785Z0F1200
G1 X64.664Y69.886Z0F1200
G1 X64.403Y70.04Z0F1200
G1 X64.08Y70.247Z0F1200
G1 X63.689Y70.51Z0F1200
G1 X62.697Y71.166Z0F1200
G1 X61.753Y71.753Z0F1200
G1 X61.335Y71.997Z0F1200
G1 X60.974Y72.198Z0F1200
G1 X60.82Y72.279Z0F1200
G1 X60.685Y72.346Z0F1200
G1 X60.572Y72.397Z0F1200
G1 X60.482Y72.431Z0F1200
G1 X60.209Y72.522Z0F1200
G1 X60.605Y72.223Z0F1200
G1 X61.553Y71.481Z0F1200
G1 X62.442Y70.734Z0F1200
G1 X62.849Y70.374Z0F1200
G1 X63.225Y70.031Z0F1200
G1 X63.562Y69.71Z0F1200
G1 X63.857Y69.418Z0F1200
G1 X64.102Y69.159Z0F1200
G1 X64.292Y68.941Z0F1200
G1 X64.422Y68.768Z0F1200
G1 X64.485Y68.646Z0F1200
G1 X64.49Y68.607Z0F1200
G1 X64.476Y68.583Z0F1200
G1 X64.443Y68.574Z0F1200
G0 Z4.8F800
G0 X56.378Y70.853Z4.8F1500
G1 Z0F800
G1 X56.11Y70.904Z0F1200
G1 X56.036Y70.915Z0F1200
G1 X55.927Y70.928Z0F1200
G1 X55.627Y70.958Z0F1200
G1 X55.251Y70.988Z0F1200
G1 X54.841Y71.015Z0F1200
G1 X53.84Y71.076Z0F1200
G1 X51.476Y70.772Z0F1200
G1 X49.601Y70.148Z0F1200
G1 X49.222Y70.025Z0F1200
G1 X48.937Y69.94Z0F1200
G1 X48.73Y69.887Z0F1200
G1 X48.585Y69.864Z0F1200
G1 X48.485Z0F1200
G1 X48.416Y69.892Z0F1200
G1 X48.36Y69.936Z0F1200
G1 X48.27Y70.025Z0F1200
G1 X48.713Y70.294Z0F1200
G1 X49.286Y70.613Z0F1200
G1 X49.881Y70.889Z0F1200
G1 X50.5Y71.122Z0F1200
G1 X51.143Y71.311Z0F1200
G1 X51.813Y71.458Z0F1200
G1 X52.512Y71.563Z0F1200
G1 X53.24Y71.627Z0F1200
G1 X54Y71.649Z0F1200
G1 X55.433Y71.653Z0F1200
G1 X56.471Y71.296Z0F1200
G1 X56.378Y70.853Z0F1200
G0 Z4.8F800
G0 X56.968Y72.484Z4.8F1500
G1 Z0F800
G1 X56.86Y72.505Z0F1200
G1 X56.559Y72.571Z0F1200
G1 X55.983Y72.706Z0F1200
G1 X55.582Y72.806Z0F1200
G1 X54.64Y73.044Z0F1200
G1 X51.066Y72.992Z0F1200
G1 X49.609Y72.496Z0F1200
G1 X49.008Y72.282Z0F1200
G1 X48.447Y72.066Z0F1200
G1 X48.202Y71.965Z0F1200
G1 X47.99Y71.873Z0F1200
G1 X47.82Y71.793Z0F1200
G1 X47.506Y71.623Z0F1200
G1 X47.316Y71.536Z0F1200
G1 X47.151Y71.478Z0F1200
G1 X47.033Y71.456Z0F1200
G1 X46.914Y71.429Z0F1200
G1 X46.745Y71.354Z0F1200
G1 X46.55Y71.244Z0F1200
G1 X45.815Y70.752Z0F1200
G1 X45.291Y70.477Z0F1200
G1 X44.759Y70.278Z0F1200
G1 X44.199Y70.144Z0F1200
G1 X43.487Y70.017Z0F1200
G1 X43.414Y70.133Z0F1200
G1 X43.38Y70.209Z0F1200
G1 Y70.279Z0F1200
G1 X43.417Y70.347Z0F1200
G1 X43.494Y70.413Z0F1200
G1 X43.615Y70.482Z0F1200
G1 X43.783Y70.554Z0F1200
G1 X44.002Y70.632Z0F1200
G1 X44.273Y70.718Z0F1200
G1 X44.857Y70.922Z0F1200
G1 X45.457Y71.195Z0F1200
G1 X45.79Y71.371Z0F1200
G1 X46.159Y71.581Z0F1200
G1 X46.574Y71.829Z0F1200
G1 X47.047Y72.121Z0F1200
G1 X47.803Y72.595Z0F1200
G1 X49.806Y73.238Z0F1200
G1 X50.318Y73.406Z0F1200
G1 X50.711Y73.536Z0F1200
G1 X50.93Y73.612Z0F1200
G1 X51.004Y73.634Z0F1200
G1 X51.11Y73.658Z0F1200
G1 X51.243Y73.683Z0F1200
G1 X51.398Y73.708Z0F1200
G1 X51.754Y73.756Z0F1200
G1 X52.139Y73.796Z0F1200
G1 X53.074Y73.879Z0F1200
G1 X54.185Y73.729Z0F1200
G1 X54.844Y73.625Z0F1200
G1 X55.454Y73.498Z0F1200
G1 X56.002Y73.354Z0F1200
G1 X56.478Y73.196Z0F1200
G1 X56.869Y73.03Z0F1200
G1 X57.162Y72.859Z0F1200
G1 X57.269Y72.773Z0F1200
G1 X57.347Y72.688Z0F1200
G1 X57.395Y72.604Z0F1200
G1 X57.412Y72.522Z0F1200
G1 Y72.401Z0F1200
G1 X56.968Y72.484Z0F1200
G0 Z4.8F800
G0 X55.16Y69.369Z4.8F1500
G1 Z0F800
G1 X55.011Y69.278Z0F1200
G1 X54.953Y69.254Z0F1200
G1 X54.846Y69.221Z0F1200
G1 X54.696Y69.179Z0F1200
G1 X54.508Y69.132Z0F1200
G1 X54.046Y69.023Z0F1200
G1 X53.51Y68.907Z0F1200
G1 X52.899Y68.768Z0F1200
G1 X52.234Y68.598Z0F1200
G1 X51.907Y68.508Z0F1200
G1 X51.597Y68.418Z0F1200
G1 X51.313Y68.331Z0F1200
G1 X50.629Y68.109Z0F1200
G1 X50.245Y68.002Z0F1200
G1 X50.086Y67.965Z0F1200
G1 X49.956Y67.94Z0F1200
G1 X49.861Y67.929Z0F1200
G1 X49.804Y67.934Z0F1200
G1 X49.712Y67.987Z0F1200
G1 X49.686Y68.057Z0F1200
G1 X49.72Y68.141Z0F1200
G1 X49.809Y68.237Z0F1200
G1 X49.949Y68.344Z0F1200
G1 X50.135Y68.458Z0F1200
G1 X50.361Y68.578Z0F1200
G1 X50.623Y68.701Z0F1200
G1 X51.233Y68.948Z0F1200
G1 X51.927Y69.182Z0F1200
G1 X52.664Y69.386Z0F1200
G1 X53.404Y69.541Z0F1200
G1 X54.105Y69.66Z0F1200
G1 X55.16Y69.369Z0F1200
G0 Z4.8F800
G0 X47.711Y67.09Z4.8F1500
G1 Z0F800
G1 X47.887Y66.796Z0F1200
G1 X48.02Y66.534Z0F1200
G1 X48.305Y65.893Z0F1200
G1 X49.042Y65.063Z0F1200
G1 X49.35Y64.734Z0F1200
G1 X49.642Y64.452Z0F1200
G1 X49.772Y64.338Z0F1200
G1 X49.885Y64.247Z0F1200
G1 X49.979Y64.183Z0F1200
G1 X50.048Y64.149Z0F1200
G1 X50.152Y64.107Z0F1200
G1 X50.237Y64.054Z0F1200
G1 X50.295Y63.996Z0F1200
G1 X50.316Y63.941Z0F1200
G1 Y63.816Z0F1200
G1 X49.308Z0F1200
G1 X48.592Y64.542Z0F1200
G1 X47.875Y65.268Z0F1200
G1 X47.524Y65.949Z0F1200
G1 X47.173Y66.703Z0F1200
G1 X46.857Y67.495Z0F1200
G1 X46.735Y67.841Z0F1200
G1 X46.651Y68.119Z0F1200
G1 X46.626Y68.226Z0F1200
G1 X46.614Y68.305Z0F1200
G1 Y68.356Z0F1200
G1 X46.632Y68.373Z0F1200
G1 X46.677Y68.359Z0F1200
G1 X46.737Y68.32Z0F1200
G1 X46.809Y68.258Z0F1200
G1 X46.892Y68.175Z0F1200
G1 X47.083Y67.959Z0F1200
G1 X47.294Y67.692Z0F1200
G1 X47.508Y67.395Z0F1200
G1 X47.711Y67.09Z0F1200
G0 Z4.8F800
G0 X45.539Y66.95Z4.8F1500
G1 Z0F800
G1 X45.55Y66.522Z0F1200
G1 X45.528Y66.045Z0F1200
G1 X45.472Y65.537Z0F1200
G1 X45.38Y65.014Z0F1200
G1 X45.219Y64.252Z0F1200
G1 X45.433Y63.799Z0F1200
G1 X45.591Y63.4Z0F1200
G1 X45.71Y62.947Z0F1200
G1 X45.79Y62.439Z0F1200
G1 X45.832Y61.874Z0F1200
G1 X45.836Y61.252Z0F1200
G1 X45.801Y60.57Z0F1200
G1 X45.729Y59.828Z0F1200
G1 X45.618Y59.023Z0F1200
G1 X45.531Y58.424Z0F1200
G1 X45.452Y57.807Z0F1200
G1 X45.418Y57.515Z0F1200
G1 X45.39Y57.245Z0F1200
G1 X45.368Y57.008Z0F1200
G1 X45.353Y56.812Z0F1200
G1 X45.268Y55.958Z0F1200
G1 X45.136Y55.08Z0F1200
G1 X44.969Y54.185Z0F1200
G1 X44.574Y54.036Z0F1200
G1 X44.491Y54.249Z0F1200
G1 X44.477Y54.323Z0F1200
G1 X44.47Y54.45Z0F1200
G1 Y54.625Z0F1200
G1 X44.477Y54.839Z0F1200
G1 X44.507Y55.36Z0F1200
G1 X44.56Y55.956Z0F1200
G1 X44.625Y56.631Z0F1200
G1 X44.691Y57.364Z0F1200
G1 X44.75Y58.067Z0F1200
G1 X44.794Y58.651Z0F1200
G1 X44.841Y59.173Z0F1200
G1 X44.907Y59.706Z0F1200
G1 X44.944Y59.956Z0F1200
G1 X44.984Y60.186Z0F1200
G1 X45.023Y60.387Z0F1200
G1 X45.062Y60.552Z0F1200
G1 X45.247Y61.251Z0F1200
G1 X44.972Y63.213Z0F1200
G1 X44.414Y64.189Z0F1200
G1 X44.705Y65.644Z0F1200
G1 X44.818Y66.239Z0F1200
G1 X44.91Y66.78Z0F1200
G1 X44.945Y67.013Z0F1200
G1 X44.972Y67.21Z0F1200
G1 X44.989Y67.365Z0F1200
G1 X44.995Y67.468Z0F1200
G1 Y67.837Z0F1200
G1 X45.184Z0F1200
G1 X45.254Y67.821Z0F1200
G1 X45.317Y67.773Z0F1200
G1 X45.373Y67.696Z0F1200
G1 X45.421Y67.593Z0F1200
G1 X45.496Y67.313Z0F1200
G1 X45.539Y66.95Z0F1200
G0 Z4.8F800
G0 X43.757Y66.853Z4.8F1500
G1 Z0F800
G1 X43.618Y65.801Z0F1200
G1 X43.834Y64.641Z0F1200
G1 X43.935Y64.155Z0F1200
G1 X44.049Y63.69Z0F1200
G1 X44.107Y63.482Z0F1200
G1 X44.163Y63.299Z0F1200
G1 X44.215Y63.148Z0F1200
G1 X44.261Y63.034Z0F1200
G1 X44.339Y62.858Z0F1200
G1 X44.396Y62.708Z0F1200
G1 X44.427Y62.601Z0F1200
G1 Y62.551Z0F1200
G1 X44.313Y62.498Z0F1200
G1 X44.115Y62.44Z0F1200
G1 X43.852Y62.383Z0F1200
G1 X43.546Y62.328Z0F1200
G1 X42.884Y62.242Z0F1200
G1 X42.292Y62.207Z0F1200
G1 X41.484Z0F1200
G1 X40.612Y61.819Z0F1200
G1 X40.252Y61.645Z0F1200
G1 X39.916Y61.458Z0F1200
G1 X39.769Y61.367Z0F1200
G1 X39.642Y61.28Z0F1200
G1 X39.54Y61.202Z0F1200
G1 X39.468Y61.135Z0F1200
G1 X39.173Y60.874Z0F1200
G1 X38.846Y60.662Z0F1200
G1 X38.497Y60.485Z0F1200
G1 X37.485Y58.367Z0F1200
G1 X37.284Y56.801Z0F1200
G1 X36.969Y56.698Z0F1200
G1 X36.811Y57.167Z0F1200
G1 X36.654Y57.636Z0F1200
G1 X36.8Y58.414Z0F1200
G1 X36.883Y58.769Z0F1200
G1 X37.001Y59.16Z0F1200
G1 X37.139Y59.54Z0F1200
G1 X37.28Y59.862Z0F1200
G1 X37.614Y60.532Z0F1200
G1 X38.938Y61.931Z0F1200
G1 X39.131Y62.13Z0F1200
G1 X39.309Y62.309Z0F1200
G1 X39.474Y62.468Z0F1200
G1 X39.778Y62.737Z0F1200
G1 X40.064Y62.952Z0F1200
G1 X40.354Y63.127Z0F1200
G1 X40.67Y63.278Z0F1200
G1 X41.033Y63.419Z0F1200
G1 X41.466Y63.565Z0F1200
G1 X42.264Y63.822Z0F1200
G1 X43.394Y63.256Z0F1200
G1 X43.29Y63.971Z0F1200
G1 X43.268Y64.14Z0F1200
G1 X43.246Y64.344Z0F1200
G1 X43.224Y64.577Z0F1200
G1 X43.202Y64.831Z0F1200
G1 X43.164Y65.368Z0F1200
G1 X43.137Y65.893Z0F1200
G1 X43.088Y67.1Z0F1200
G1 X43.238Y67.831Z0F1200
G1 X43.313Y68.149Z0F1200
G1 X43.406Y68.477Z0F1200
G1 X43.507Y68.774Z0F1200
G1 X43.602Y69.003Z0F1200
G1 X43.816Y69.445Z0F1200
G1 X44.064Z0F1200
G1 X44.163Y69.442Z0F1200
G1 X44.234Y69.424Z0F1200
G1 X44.278Y69.385Z0F1200
G1 X44.295Y69.316Z0F1200
G1 X44.286Y69.207Z0F1200
G1 X44.251Y69.051Z0F1200
G1 X44.19Y68.839Z0F1200
G1 X44.104Y68.562Z0F1200
G1 X44.013Y68.223Z0F1200
G1 X43.917Y67.788Z0F1200
G1 X43.828Y67.313Z0F1200
G1 X43.757Y66.853Z0F1200

; Color picking sequence
G1 Z10 F1000;         ; Raise brush to safe height
G0 X86 Y5 F1200;    ; Rapid move to color 1 position
G1 Z0 F1000;         ; Lower into color - controlled movement
G1 X85.102Y7.295Z0S800F1200
G1 X85.026Y7.642Z0F1200
G1 X85Y8Z0F1200
G1 X85.026Y8.358Z0F1200
G1 X85.102Y8.705Z0F1200
G1 X85.225Y9.041Z0F1200
G1 X85.393Y9.362Z0F1200
G1 X85.603Y9.668Z0F1200
G1 X85.854Y9.957Z0F1200
G1 X86.142Y10.226Z0F1200
G1 X86.464Y10.475Z0F1200
G1 X86.82Y10.701Z0F1200
G1 X87.204Y10.902Z0F1200
G1 X87.617Y11.078Z0F1200
G1 X88.054Y11.225Z0F1200
G1 X88.513Y11.343Z0F1200
G1 X88.992Y11.429Z0F1200
G1 X89.489Y11.482Z0F1200
G1 X90Y11.5Z0F1200
G1 X90.511Y11.482Z0F1200
G1 X91.008Y11.429Z0F1200
G1 X91.487Y11.343Z0F1200
G1 X91.946Y11.225Z0F1200
G1 X92.383Y11.078Z0F1200
G1 X92.796Y10.902Z0F1200
G1 X93.18Y10.701Z0F1200
G1 X93.536Y10.475Z0F1200
G1 X93.858Y10.226Z0F1200
G1 X94.146Y9.957Z0F1200
G1 X94.397Y9.668Z0F1200
G1 X94.607Y9.362Z0F1200
G1 X94.775Y9.041Z0F1200
G1 X94.898Y8.705Z0F1200
G1 X94.974Y8.358Z0F1200
G1 X95Y8Z0F1200
G1 X94.974Y7.642Z0F1200
G1 X94.898Y7.295Z0F1200
G1 X94.775Y6.959Z0F1200
G1 X94.607Y6.638Z0F1200
G1 X94.397Y6.332Z0F1200
G1 X94.146Y6.043Z0F1200
G1 X93.858Y5.774Z0F1200
G1 X93.536Y5.525Z0F1200
G1 X93.18Y5.299Z0F1200
G1 X92.796Y5.098Z0F1200
G1 X92.383Y4.922Z0F1200
G1 X91.946Y4.775Z0F1200
G1 X91.487Y4.657Z0F1200
G1 X91.008Y4.571Z0F1200
G1 X90.511Y4.518Z0F1200
G1 X90Y4.5Z0F1200
G1 X89.489Y4.518Z0F1200
G1 X88.992Y4.571Z0F1200
G1 X88.513Y4.657Z0F1200
G1 X88.054Y4.775Z0F1200
G1 X87.617Y4.922Z0F1200
G1 X87.204Y5.098Z0F1200
G1 X86.82Y5.299Z0F1200
G1 X86.464Y5.525Z0F1200
G1 X86.142Y5.774Z0F1200
G1 X85.854Y6.043Z0F1200
G1 X85.603Y6.332Z0F1200
G1 X85.393Y6.638Z0F1200
G1 X85.225Y6.959Z0F1200
G1 Z7 F800;         ; Raise from color - controlled movement
G1 X79 Y8 Z1 F1200;     ; Movement in paint - controlled movement
G1 X69 Y18 Z8 F500;     ; Move in paint - controlled movement
G1 F1200;           ; Set feed rate to 1000
G0 Z4.8F800
G0 X41.651Y67.513Z4.8F1500
G1 Z0F800
G1 X41.211Y67.424Z0F1200
G1 X40.879Y67.316Z0F1200
G1 X40.503Y67.125Z0F1200
G1 X40.103Y66.867Z0F1200
G1 X39.697Y66.556Z0F1200
G1 X39.305Y66.21Z0F1200
G1 X38.945Y65.842Z0F1200
G1 X38.636Y65.47Z0F1200
G1 X38.397Y65.108Z0F1200
G1 X38.141Y64.655Z0F1200
G1 X37.938Y64.302Z0F1200
G1 X37.776Y64.083Z0F1200
G1 X37.571Y63.883Z0F1200
G1 X37.366Y63.738Z0F1200
G1 X37.201Y63.682Z0F1200
G1 X37.102Z0F1200
G1 X37.241Y64.179Z0F1200
G1 X37.308Y64.379Z0F1200
G1 X37.401Y64.593Z0F1200
G1 X37.517Y64.82Z0F1200
G1 X37.654Y65.056Z0F1200
G1 X37.985Y65.549Z0F1200
G1 X38.376Y66.053Z0F1200
G1 X38.814Y66.549Z0F1200
G1 X39.281Y67.016Z0F1200
G1 X39.761Y67.437Z0F1200
G1 X40.239Y67.791Z0F1200
G1 X40.738Y68.124Z0F1200
G1 X41.651Y68.038Z0F1200
G1 Y67.513Z0F1200
G0 Z4.8F800
G0 X39.187Y67.724Z4.8F1500
G1 Z0F800
G1 X38.542Y67.004Z0F1200
G1 X37.805Y66.186Z0F1200
G1 X37.721Y66.319Z0F1200
G1 X37.637Y66.452Z0F1200
G1 X38.022Y67.245Z0F1200
G1 X38.215Y67.608Z0F1200
G1 X38.436Y67.96Z0F1200
G1 X38.683Y68.301Z0F1200
G1 X38.955Y68.627Z0F1200
G1 X39.249Y68.937Z0F1200
G1 X39.563Y69.228Z0F1200
G1 X39.895Y69.498Z0F1200
G1 X40.244Y69.745Z0F1200
G1 X40.969Y70.222Z0F1200
G1 X42.128Y70.387Z0F1200
G1 Y70.254Z0F1200
G1 X42.109Y70.215Z0F1200
G1 X42.053Y70.154Z0F1200
G1 X41.965Y70.074Z0F1200
G1 X41.849Y69.979Z0F1200
G1 X41.546Y69.755Z0F1200
G1 X41.176Y69.505Z0F1200
G1 X40.224Y68.889Z0F1200
G1 X39.187Y67.724Z0F1200
G0 Z4.8F800
G0 X37.515Y67.931Z4.8F1500
G1 Z0F800
G1 X37.163Y66.935Z0F1200
G1 X36.807Y65.966Z0F1200
G1 Y63.179Z0F1200
G1 X36.401Y62.848Z0F1200
G1 X36.297Y63.097Z0F1200
G1 X36.276Y63.179Z0F1200
G1 X36.257Y63.316Z0F1200
G1 X36.241Y63.5Z0F1200
G1 X36.227Y63.726Z0F1200
G1 X36.208Y64.27Z0F1200
G1 X36.204Y64.888Z0F1200
G1 X36.216Y66.429Z0F1200
G1 X36.784Y67.736Z0F1200
G1 X37.005Y68.255Z0F1200
G1 X37.186Y68.703Z0F1200
G1 X37.255Y68.885Z0F1200
G1 X37.308Y69.032Z0F1200
G1 X37.341Y69.137Z0F1200
G1 X37.366Y69.265Z0F1200
G1 X37.404Y69.379Z0F1200
G1 X37.463Y69.531Z0F1200
G1 X37.542Y69.716Z0F1200
G1 X37.745Y70.16Z0F1200
G1 X37.992Y70.666Z0F1200
G1 X38.258Y71.189Z0F1200
G1 X38.523Y71.686Z0F1200
G1 X38.648Y71.91Z0F1200
G1 X38.764Y72.11Z0F1200
G1 X38.868Y72.281Z0F1200
G1 X38.958Y72.418Z0F1200
G1 X39.331Y72.998Z0F1200
G1 X39.662Y73.578Z0F1200
G1 X39.827Y73.872Z0F1200
G1 X40.038Y74.211Z0F1200
G1 X40.284Y74.578Z0F1200
G1 X40.553Y74.958Z0F1200
G1 X40.832Y75.333Z0F1200
G1 X41.11Y75.687Z0F1200
G1 X41.376Y76.005Z0F1200
G1 X41.616Y76.269Z0F1200
G1 X42.057Y76.725Z0F1200
G1 X42.741Y77.038Z0F1200
G1 X43.025Y77.16Z0F1200
G1 X43.294Y77.259Z0F1200
G1 X43.517Y77.327Z0F1200
G1 X43.664Y77.352Z0F1200
G1 X43.902Z0F1200
G1 Y76.999Z0F1200
G1 X42.214Y76.349Z0F1200
G1 X41.771Y75.745Z0F1200
G1 X41.587Y75.488Z0F1200
G1 X41.358Y75.155Z0F1200
G1 X41.091Y74.757Z0F1200
G1 X40.792Y74.303Z0F1200
G1 X40.467Y73.803Z0F1200
G1 X40.122Y73.268Z0F1200
G1 X39.765Y72.706Z0F1200
G1 X39.401Y72.126Z0F1200
G1 X39.116Y71.662Z0F1200
G1 X38.867Y71.237Z0F1200
G1 X38.649Y70.841Z0F1200
G1 X38.457Y70.465Z0F1200
G1 X38.134Y69.733Z0F1200
G1 X37.86Y68.964Z0F1200
G1 X37.515Y67.931Z0F1200
G0 Z4.8F800
G0 X35.838Y69.248Z4.8F1500
G1 Z0F800
G1 X35.854Y69.294Z0F1200
G1 X35.837Y69.344Z0F1200
G1 X35.802Y69.413Z0F1200
G1 X35.75Y69.501Z0F1200
G1 X35.679Y69.609Z0F1200
G1 X35.604Y69.708Z0F1200
G1 X35.491Y69.846Z0F1200
G1 X35.346Y70.015Z0F1200
G1 X35.174Y70.21Z0F1200
G1 X34.772Y70.653Z0F1200
G1 X34.331Y71.127Z0F1200
G1 X33.895Y71.585Z0F1200
G1 X33.511Y71.978Z0F1200
G1 X33.351Y72.136Z0F1200
G1 X33.221Y72.259Z0F1200
G1 X33.127Y72.343Z0F1200
G1 X33.073Y72.38Z0F1200
G1 X33.041Z0F1200
G1 Y72.344Z0F1200
G1 X33.071Y72.276Z0F1200
G1 X33.127Y72.18Z0F1200
G1 X33.207Y72.059Z0F1200
G1 X33.307Y71.916Z0F1200
G1 X33.427Y71.754Z0F1200
G1 X33.562Y71.578Z0F1200
G1 X34.206Y70.793Z0F1200
G1 X34.89Y70.045Z0F1200
G1 X35.181Y69.756Z0F1200
G1 X35.425Y69.53Z0F1200
G1 X35.619Y69.369Z0F1200
G1 X35.758Y69.274Z0F1200
G1 X35.838Y69.248Z0F1200
G0 Z4.8F800
G0 X25.628Y73.533Z4.8F1500
G1 Z0F800
G1 X25.821Y73.969Z0F1200
G1 X26.072Y74.444Z0F1200
G1 X26.406Y74.974Z0F1200
G1 X26.566Y75.215Z0F1200
G1 X26.711Y75.449Z0F1200
G1 X26.824Y75.649Z0F1200
G1 X26.891Y75.79Z0F1200
G1 X26.982Y76.035Z0F1200
G1 X26.811Y75.987Z0F1200
G1 X26.766Y75.956Z0F1200
G1 X26.704Y75.886Z0F1200
G1 X26.629Y75.784Z0F1200
G1 X26.543Y75.654Z0F1200
G1 X26.349Y75.33Z0F1200
G1 X26.143Y74.954Z0F1200
G1 X25.947Y74.566Z0F1200
G1 X25.781Y74.207Z0F1200
G1 X25.716Y74.051Z0F1200
G1 X25.666Y73.917Z0F1200
G1 X25.635Y73.809Z0F1200
G1 X25.625Y73.734Z0F1200
G1 X25.628Y73.533Z0F1200
G0 Z4.8F800
G0 X28.21Y77.869Z4.8F1500
G1 Z0F800
G1 X28.672Y78.464Z0F1200
G1 X28.859Y78.718Z0F1200
G1 X29.026Y78.969Z0F1200
G1 X29.155Y79.188Z0F1200
G1 X29.227Y79.346Z0F1200
G1 X29.267Y79.485Z0F1200
G1 X29.278Y79.574Z0F1200
G1 X29.261Y79.612Z0F1200
G1 X29.213Y79.598Z0F1200
G1 X29.133Y79.531Z0F1200
G1 X29.021Y79.412Z0F1200
G1 X28.875Y79.238Z0F1200
G1 X28.694Y79.01Z0F1200
G1 X28.21Y78.387Z0F1200
G1 Y77.869Z0F1200
G0 Z4.8F800
G0 X28.871Y77.599Z4.8F1500
G1 Z0F800
G1 X28.451Y76.978Z0F1200
G1 X28.08Y76.408Z0F1200
G1 X27.926Y76.163Z0F1200
G1 X27.799Y75.954Z0F1200
G1 X27.705Y75.79Z0F1200
G1 X27.648Y75.678Z0F1200
G1 X27.601Y75.581Z0F1200
G1 X27.535Y75.459Z0F1200
G1 X27.453Y75.316Z0F1200
G1 X27.357Y75.158Z0F1200
G1 X27.14Y74.816Z0F1200
G1 X26.908Y74.472Z0F1200
G1 X26.387Y73.688Z0F1200
G1 X25.92Y72.898Z0F1200
G1 X25.491Y72.074Z0F1200
G1 X25.084Y71.188Z0F1200
G1 X24.894Y70.755Z0F1200
G1 X24.609Y70.118Z0F1200
G1 X24.451Y69.775Z0F1200
G1 X24.281Y69.417Z0F1200
G1 X24.175Y69.189Z0F1200
G1 X24.085Y68.989Z0F1200
G1 X24.022Y68.842Z0F1200
G1 X23.897Y68.582Z0F1200
G1 X23.713Y68.251Z0F1200
G1 X23.49Y67.88Z0F1200
G1 X23.249Y67.502Z0F1200
G1 X23.011Y67.148Z0F1200
G1 X22.797Y66.85Z0F1200
G1 X22.705Y66.732Z0F1200
G1 X22.628Y66.64Z0F1200
G1 X22.566Y66.579Z0F1200
G1 X22.523Y66.551Z0F1200
G1 X21.942Y66.374Z0F1200
G1 X22.376Y65.357Z0F1200
G1 X22.298Y63.95Z0F1200
G1 X22.251Y63.329Z0F1200
G1 X22.18Y62.68Z0F1200
G1 X22.139Y62.369Z0F1200
G1 X22.096Y62.08Z0F1200
G1 X22.052Y61.821Z0F1200
G1 X21.812Y60.646Z0F1200
G1 X21.637Y59.661Z0F1200
G1 X21.479Y58.655Z0F1200
G1 X21.309Y49.005Z0F1200
G1 X21.28Y55.071Z0F1200
G1 X21.251Y61.138Z0F1200
G1 X21.449Y62.376Z0F1200
G1 X21.49Y62.656Z0F1200
G1 X21.532Y62.977Z0F1200
G1 X21.572Y63.327Z0F1200
G1 X21.611Y63.696Z0F1200
G1 X21.678Y64.443Z0F1200
G1 X21.723Y65.129Z0F1200
G1 X21.798Y66.644Z0F1200
G1 X22.059Y66.918Z0F1200
G1 X22.124Y67.001Z0F1200
G1 X22.208Y67.132Z0F1200
G1 X22.31Y67.305Z0F1200
G1 X22.423Y67.512Z0F1200
G1 X22.675Y68.004Z0F1200
G1 X22.935Y68.554Z0F1200
G1 X23.55Y69.914Z0F1200
G1 X23.416Y70.585Z0F1200
G1 X23.975Y73.096Z0F1200
G1 X24.516Y73.673Z0F1200
G1 X24.645Y73.818Z0F1200
G1 X24.796Y74.003Z0F1200
G1 X24.967Y74.223Z0F1200
G1 X25.155Y74.473Z0F1200
G1 X25.566Y75.045Z0F1200
G1 X26.004Y75.681Z0F1200
G1 X26.445Y76.344Z0F1200
G1 X26.861Y76.995Z0F1200
G1 X27.052Y77.305Z0F1200
G1 X27.228Y77.598Z0F1200
G1 X27.385Y77.869Z0F1200
G1 X27.52Y78.113Z0F1200
G1 X27.745Y78.498Z0F1200
G1 X28.028Y78.935Z0F1200
G1 X28.334Y79.37Z0F1200
G1 X28.627Y79.749Z0F1200
G1 X28.911Y80.102Z0F1200
G1 X29.165Y80.433Z0F1200
G1 X29.389Y80.74Z0F1200
G1 X29.583Y81.024Z0F1200
G1 X29.746Y81.284Z0F1200
G1 X29.878Y81.518Z0F1200
G1 X29.978Y81.728Z0F1200
G1 X30.047Y81.911Z0F1200
G1 X30.117Y82.088Z0F1200
G1 X30.233Y82.325Z0F1200
G1 X30.378Y82.589Z0F1200
G1 X30.537Y82.85Z0F1200
G1 X30.925Y83.454Z0F1200
G1 X32.713Y84.854Z0F1200
G1 Y84.236Z0F1200
G1 X32.406Y83.962Z0F1200
G1 X32.241Y83.826Z0F1200
G1 X32.019Y83.659Z0F1200
G1 X31.768Y83.483Z0F1200
G1 X31.519Y83.317Z0F1200
G1 X30.939Y82.947Z0F1200
G1 Y82.324Z0F1200
G1 X32.117Y83.223Z0F1200
G1 X32.623Y83.616Z0F1200
G1 X33.132Y84.022Z0F1200
G1 X33.369Y84.214Z0F1200
G1 X33.584Y84.392Z0F1200
G1 X33.77Y84.549Z0F1200
G1 X33.92Y84.679Z0F1200
G1 X34.546Y85.236Z0F1200
G1 X33.805Y85.096Z0F1200
G1 Y85.193Z0F1200
G1 X33.838Y85.34Z0F1200
G1 X33.934Y85.525Z0F1200
G1 X34.085Y85.743Z0F1200
G1 X34.283Y85.987Z0F1200
G1 X34.79Y86.525Z0F1200
G1 X35.394Y87.085Z0F1200
G1 X36.033Y87.614Z0F1200
G1 X36.646Y88.059Z0F1200
G1 X36.924Y88.232Z0F1200
G1 X37.173Y88.365Z0F1200
G1 X37.385Y88.449Z0F1200
G1 X37.552Y88.478Z0F1200
G1 X37.762Z0F1200
G1 Y87.831Z0F1200
G1 X37.011Y87.253Z0F1200
G1 X37.694Y87.603Z0F1200
G1 X38.339Y87.971Z0F1200
G1 X38.982Y88.393Z0F1200
G1 X39.257Y88.591Z0F1200
G1 X39.475Y88.765Z0F1200
G1 X39.558Y88.838Z0F1200
G1 X39.62Y88.901Z0F1200
G1 X39.659Y88.951Z0F1200
G1 X39.672Y88.986Z0F1200
G1 Y89.089Z0F1200
G1 X38.512Y88.984Z0F1200
G1 X38.853Y89.346Z0F1200
G1 X39.215Y89.658Z0F1200
G1 X39.604Y89.9Z0F1200
G1 X40.053Y90.133Z0F1200
G1 X40.559Y90.423Z0F1200
G1 X40.817Y90.561Z0F1200
G1 X41.037Y90.646Z0F1200
G1 X41.21Y90.681Z0F1200
G1 X41.329Y90.669Z0F1200
G1 X41.385Y90.614Z0F1200
G1 X41.371Y90.517Z0F1200
G1 X41.278Y90.383Z0F1200
G1 X41.098Y90.215Z0F1200
G1 X40.904Y90.012Z0F1200
G1 X40.736Y89.768Z0F1200
G1 X40.587Y89.494Z0F1200
G1 X40.914Y89.702Z0F1200
G1 X41.019Y89.764Z0F1200
G1 X41.191Y89.86Z0F1200
G1 X41.702Y90.137Z0F1200
G1 X42.374Y90.493Z0F1200
G1 X43.135Y90.89Z0F1200
G1 X45.029Y91.869Z0F1200
G1 X47.518Y91.945Z0F1200
G1 X46.29Y91.757Z0F1200
G1 X44.857Y91.069Z0F1200
G1 X44.311Y90.802Z0F1200
G1 X43.821Y90.555Z0F1200
G1 X43.362Y90.311Z0F1200
G1 X42.904Y90.055Z0F1200
G1 X42.423Y89.77Z0F1200
G1 X41.889Y89.442Z0F1200
G1 X41.277Y89.055Z0F1200
G1 X40.559Y88.593Z0F1200
G1 X39.175Y87.708Z0F1200
G1 X37.762Y86.822Z0F1200
G1 X37.442Y86.617Z0F1200
G1 X37.082Y86.375Z0F1200
G1 X36.693Y86.106Z0F1200
G1 X36.289Y85.817Z0F1200
G1 X35.482Y85.217Z0F1200
G1 X34.76Y84.648Z0F1200
G1 X34.077Y84.095Z0F1200
G1 X33.38Y83.541Z0F1200
G1 X33.05Y83.284Z0F1200
G1 X32.748Y83.051Z0F1200
G1 X32.483Y82.849Z0F1200
G1 X32.265Y82.687Z0F1200
G1 X31.339Y82.013Z0F1200
G1 X30.53Y80.857Z0F1200
G1 X30.525Y80.101Z0F1200
G1 X30.22Y79.61Z0F1200
G1 X30.138Y79.48Z0F1200
G1 X30.02Y79.299Z0F1200
G1 X29.698Y78.816Z0F1200
G1 X29.3Y78.228Z0F1200
G1 X28.871Y77.599Z0F1200

; Color picking sequence
G1 Z10 F1000;         ; Raise brush to safe height
G0 X86 Y5 F1200;    ; Rapid move to color 1 position
G1 Z0 F1000;         ; Lower into color - controlled movement
G1 X85.102Y7.295Z0S800F1200
G1 X85.026Y7.642Z0F1200
G1 X85Y8Z0F1200
G1 X85.026Y8.358Z0F1200
G1 X85.102Y8.705Z0F1200
G1 X85.225Y9.041Z0F1200
G1 X85.393Y9.362Z0F1200
G1 X85.603Y9.668Z0F1200
G1 X85.854Y9.957Z0F1200
G1 X86.142Y10.226Z0F1200
G1 X86.464Y10.475Z0F1200
G1 X86.82Y10.701Z0F1200
G1 X87.204Y10.902Z0F1200
G1 X87.617Y11.078Z0F1200
G1 X88.054Y11.225Z0F1200
G1 X88.513Y11.343Z0F1200
G1 X88.992Y11.429Z0F1200
G1 X89.489Y11.482Z0F1200
G1 X90Y11.5Z0F1200
G1 X90.511Y11.482Z0F1200
G1 X91.008Y11.429Z0F1200
G1 X91.487Y11.343Z0F1200
G1 X91.946Y11.225Z0F1200
G1 X92.383Y11.078Z0F1200
G1 X92.796Y10.902Z0F1200
G1 X93.18Y10.701Z0F1200
G1 X93.536Y10.475Z0F1200
G1 X93.858Y10.226Z0F1200
G1 X94.146Y9.957Z0F1200
G1 X94.397Y9.668Z0F1200
G1 X94.607Y9.362Z0F1200
G1 X94.775Y9.041Z0F1200
G1 X94.898Y8.705Z0F1200
G1 X94.974Y8.358Z0F1200
G1 X95Y8Z0F1200
G1 X94.974Y7.642Z0F1200
G1 X94.898Y7.295Z0F1200
G1 X94.775Y6.959Z0F1200
G1 X94.607Y6.638Z0F1200
G1 X94.397Y6.332Z0F1200
G1 X94.146Y6.043Z0F1200
G1 X93.858Y5.774Z0F1200
G1 X93.536Y5.525Z0F1200
G1 X93.18Y5.299Z0F1200
G1 X92.796Y5.098Z0F1200
G1 X92.383Y4.922Z0F1200
G1 X91.946Y4.775Z0F1200
G1 X91.487Y4.657Z0F1200
G1 X91.008Y4.571Z0F1200
G1 X90.511Y4.518Z0F1200
G1 X90Y4.5Z0F1200
G1 X89.489Y4.518Z0F1200
G1 X88.992Y4.571Z0F1200
G1 X88.513Y4.657Z0F1200
G1 X88.054Y4.775Z0F1200
G1 X87.617Y4.922Z0F1200
G1 X87.204Y5.098Z0F1200
G1 X86.82Y5.299Z0F1200
G1 X86.464Y5.525Z0F1200
G1 X86.142Y5.774Z0F1200
G1 X85.854Y6.043Z0F1200
G1 X85.603Y6.332Z0F1200
G1 X85.393Y6.638Z0F1200
G1 X85.225Y6.959Z0F1200
G1 Z7 F800;         ; Raise from color - controlled movement
G1 X79 Y8 Z1 F1200;     ; Movement in paint - controlled movement
G1 X69 Y18 Z8 F500;     ; Move in paint - controlled movement
G1 F1200;           ; Set feed rate to 1000
G0 Z4.8F800
G0 X40.051Y77.243Z4.8F1500
G1 Z0F800
G1 X40.173Y77.363Z0F1200
G1 X40.362Y77.5Z0F1200
G1 X40.607Y77.611Z0F1200
G1 X40.878Y77.694Z0F1200
G1 X41.144Y77.743Z0F1200
G1 X41.376Y77.756Z0F1200
G1 X41.544Y77.729Z0F1200
G1 X41.595Y77.698Z0F1200
G1 X41.618Y77.657Z0F1200
G1 X41.611Y77.603Z0F1200
G1 X41.568Y77.537Z0F1200
G1 X41.411Y77.386Z0F1200
G1 X41.218Y77.253Z0F1200
G1 X41.003Y77.143Z0F1200
G1 X40.783Y77.06Z0F1200
G1 X40.572Y77.009Z0F1200
G1 X40.385Y76.996Z0F1200
G1 X40.236Y77.023Z0F1200
G1 X40.142Y77.097Z0F1200
G1 X40.051Y77.243Z0F1200
G0 Z4.8F800
G0 X41.351Y78.206Z4.8F1500
G1 Z0F800
G1 X41.217Y78.314Z0F1200
G1 X41.173Y78.434Z0F1200
G1 Y78.56Z0F1200
G1 X41.728Z0F1200
G1 X41.959Y78.551Z0F1200
G1 X42.168Y78.525Z0F1200
G1 X42.353Y78.484Z0F1200
G1 X42.51Y78.428Z0F1200
G1 X42.638Y78.359Z0F1200
G1 X42.732Y78.279Z0F1200
G1 X42.791Y78.187Z0F1200
G1 X42.811Y78.086Z0F1200
G1 Y77.89Z0F1200
G1 X42.572Y77.903Z0F1200
G1 X42.28Y77.942Z0F1200
G1 X41.912Y78.016Z0F1200
G1 X41.734Y78.061Z0F1200
G1 X41.581Y78.108Z0F1200
G1 X41.454Y78.156Z0F1200
G1 X41.351Y78.206Z0F1200
G0 Z4.8F800
G0 X46.804Y79.851Z4.8F1500
G1 Z0F800
G1 X46.99Y80.102Z0F1200
G1 X47.122Y80.316Z0F1200
G1 X47.177Y80.477Z0F1200
G1 Y80.6Z0F1200
G1 X47.665Y80.51Z0F1200
G1 X47.869Y80.47Z0F1200
G1 X48.066Y80.425Z0F1200
G1 X48.233Y80.383Z0F1200
G1 X48.347Y80.347Z0F1200
G1 X48.542Y80.273Z0F1200
G1 Y80.673Z0F1200
G1 X47.02Y80.628Z0F1200
G1 X46.954Y80.733Z0F1200
G1 X46.878Y80.807Z0F1200
G1 X46.787Y80.838Z0F1200
G1 X46.686Z0F1200
G1 X46.804Y79.851Z0F1200
G0 Z4.8F800
G0 X48.951Y79.9Z4.8F1500
G1 Z0F800
G1 X49.122Y79.904Z0F1200
G1 X49.219Y79.933Z0F1200
G1 X49.356Y80.006Z0F1200
G1 X49.516Y80.113Z0F1200
G1 X49.681Y80.244Z0F1200
G1 X50.069Y80.579Z0F1200
G1 X49.999Y80.757Z0F1200
G1 X49.949Y80.832Z0F1200
G1 X49.866Y80.905Z0F1200
G1 X49.759Y80.966Z0F1200
G1 X49.642Y81.009Z0F1200
G1 X49.355Y81.083Z0F1200
G1 X49.153Y80.699Z0F1200
G1 X49.075Y80.534Z0F1200
G1 X49.011Y80.367Z0F1200
G1 X48.967Y80.219Z0F1200
G1 X48.951Y80.108Z0F1200
G1 Y79.9Z0F1200
G0 Z4.8F800
G0 X52.122Y79.129Z4.8F1500
G1 Z0F800
G1 X52.154Y79.18Z0F1200
G1 X52.226Y79.261Z0F1200
G1 X52.333Y79.366Z0F1200
G1 X52.469Y79.494Z0F1200
G1 X52.816Y79.796Z0F1200
G1 X53.228Y80.135Z0F1200
G1 X54.281Y80.972Z0F1200
G1 X54.675Z0F1200
G1 X54.865Y80.967Z0F1200
G1 X55.032Y80.949Z0F1200
G1 X55.174Y80.92Z0F1200
G1 X55.29Y80.881Z0F1200
G1 X55.382Y80.83Z0F1200
G1 X55.448Y80.768Z0F1200
G1 X55.488Y80.695Z0F1200
G1 X55.501Y80.612Z0F1200
G1 Y80.415Z0F1200
G1 X55.095Y80.503Z0F1200
G1 X54.726Y80.539Z0F1200
G1 X54.409Y80.503Z0F1200
G1 X54.129Y80.416Z0F1200
G1 X53.658Y79.431Z0F1200
G1 X53.089Y79.296Z0F1200
G1 X52.86Y79.236Z0F1200
G1 X52.657Y79.171Z0F1200
G1 X52.503Y79.111Z0F1200
G1 X52.419Y79.061Z0F1200
G1 X52.295Y78.979Z0F1200
G1 X52.187Y78.967Z0F1200
G1 X52.12Y79.019Z0F1200
G1 Y79.129Z0F1200
G0 Z4.8F800
G0 X56.159Y79.23Z4.8F1500
G1 Z0F800
G1 X56.513Y79.642Z0F1200
G1 X56.656Y79.828Z0F1200
G1 X56.786Y80.029Z0F1200
G1 X56.889Y80.221Z0F1200
G1 X56.949Y80.38Z0F1200
G1 X56.992Y80.506Z0F1200
G1 X57.048Y80.609Z0F1200
G1 X57.111Y80.679Z0F1200
G1 X57.171Y80.704Z0F1200
G1 X57.311Z0F1200
G1 X57.157Y79.574Z0F1200
G1 X56.917Y79.402Z0F1200
G1 X56.672Y79.281Z0F1200
G1 X56.418Y79.23Z0F1200
G1 X56.159Z0F1200
G0 Z4.8F800
G0 X46.573Y65.118Z4.8F1500
G1 Z0F800
G1 X46.615Y65.085Z0F1200
G1 X46.672Y65.025Z0F1200
G1 X46.743Y64.941Z0F1200
G1 X46.916Y64.712Z0F1200
G1 X47.114Y64.42Z0F1200
G1 X47.613Y63.654Z0F1200
G1 X47.362Y63.407Z0F1200
G1 X47.154Y63.645Z0F1200
G1 X47.053Y63.786Z0F1200
G1 X46.942Y63.982Z0F1200
G1 X46.829Y64.212Z0F1200
G1 X46.724Y64.455Z0F1200
G1 X46.634Y64.688Z0F1200
G1 X46.57Y64.891Z0F1200
G1 X46.539Y65.042Z0F1200
G1 X46.55Y65.12Z0F1200
G1 X46.573Z0F1200
G0 Z4.8F800
G0 X42.965Y61.142Z4.8F1500
G1 Z0F800
G1 X43.156Y61.05Z0F1200
G1 X43.334Y60.932Z0F1200
G1 X43.503Y60.786Z0F1200
G1 X43.815Y60.45Z0F1200
G1 X43.956Y60.318Z0F1200
G1 X44.073Y60.23Z0F1200
G1 X44.152Y60.197Z0F1200
G1 X44.253Y60.145Z0F1200
G1 X44.348Y60.013Z0F1200
G1 X44.42Y59.836Z0F1200
G1 X44.448Y59.65Z0F1200
G1 X44.433Y59.584Z0F1200
G1 X44.386Y59.546Z0F1200
G1 X44.306Y59.537Z0F1200
G1 X44.188Y59.555Z0F1200
G1 X44.032Y59.604Z0F1200
G1 X43.834Y59.682Z0F1200
G1 X43.592Y59.791Z0F1200
G1 X43.303Y59.931Z0F1200
G1 X42.499Y60.331Z0F1200
G1 X41.194Z0F1200
G1 X40.782Y59.99Z0F1200
G1 X40.614Y59.834Z0F1200
G1 X40.463Y59.662Z0F1200
G1 X40.344Y59.495Z0F1200
G1 X40.275Y59.353Z0F1200
G1 X40.215Y59.189Z0F1200
G1 X40.119Y58.96Z0F1200
G1 X40.002Y58.697Z0F1200
G1 X39.876Y58.43Z0F1200
G1 X39.632Y57.837Z0F1200
G1 X39.475Y57.291Z0F1200
G1 X39.381Y56.779Z0F1200
G1 X38.852Y55.897Z0F1200
G1 X38.631Y55.541Z0F1200
G1 X38.419Y55.226Z0F1200
G1 X38.325Y55.094Z0F1200
G1 X38.242Y54.984Z0F1200
G1 X38.174Y54.902Z0F1200
G1 X38.123Y54.852Z0F1200
G1 X37.923Y54.688Z0F1200
G1 X37.855Y54.796Z0F1200
G1 X37.848Y54.833Z0F1200
G1 X37.853Y54.896Z0F1200
G1 X37.871Y54.982Z0F1200
G1 X37.9Y55.089Z0F1200
G1 X37.986Y55.346Z0F1200
G1 X38.103Y55.64Z0F1200
G1 X38.243Y56.011Z0F1200
G1 X38.392Y56.475Z0F1200
G1 X38.532Y56.973Z0F1200
G1 X38.644Y57.447Z0F1200
G1 X38.805Y58.088Z0F1200
G1 X39.006Y58.683Z0F1200
G1 X39.245Y59.229Z0F1200
G1 X39.521Y59.721Z0F1200
G1 X39.83Y60.157Z0F1200
G1 X40.17Y60.532Z0F1200
G1 X40.54Y60.843Z0F1200
G1 X40.936Y61.086Z0F1200
G1 X41.327Y61.285Z0F1200
G1 X41.966Y61.288Z0F1200
G1 X42.26Y61.281Z0F1200
G1 X42.521Y61.256Z0F1200
G1 X42.754Y61.21Z0F1200
G1 X42.965Y61.142Z0F1200
G0 Z4.8F800
G0 X42.372Y60.063Z4.8F1500
G1 Z0F800
G1 X42.455Y59.851Z0F1200
G1 X42.513Y59.587Z0F1200
G1 X42.538Y59.251Z0F1200
G1 Y58.863Z0F1200
G1 X41.858Y58.425Z0F1200
G1 X41.446Y58.58Z0F1200
G1 Y59.14Z0F1200
G1 X41.182Y58.98Z0F1200
G1 X41.344Y58.186Z0F1200
G1 X40.805Z0F1200
G1 X40.559Y58.723Z0F1200
G1 X40.313Y59.259Z0F1200
G1 X40.541Y59.506Z0F1200
G1 X40.656Y59.604Z0F1200
G1 X40.816Y59.702Z0F1200
G1 X41.01Y59.795Z0F1200
G1 X41.226Y59.881Z0F1200
G1 X41.683Y60.012Z0F1200
G1 X42.096Y60.063Z0F1200
G1 X42.372Z0F1200
G0 Z4.8F800
G0 X43.637Y58.821Z4.8F1500
G1 Z0F800
G1 X43.781Y58.856Z0F1200
G1 X44.029Z0F1200
G1 X44.17Y58.597Z0F1200
G1 X44.237Y58.471Z0F1200
G1 X44.279Y58.373Z0F1200
G1 X44.296Y58.3Z0F1200
G1 X44.286Y58.25Z0F1200
G1 X44.247Y58.219Z0F1200
G1 X44.177Y58.204Z0F1200
G1 X44.074Y58.201Z0F1200
G1 X43.936Y58.209Z0F1200
G1 X43.621Y58.19Z0F1200
G1 X43.303Y58.087Z0F1200
G1 X42.972Y57.893Z0F1200
G1 X42.615Y57.603Z0F1200
G1 X42.379Y57.433Z0F1200
G1 X42.076Y57.28Z0F1200
G1 X41.734Y57.151Z0F1200
G1 X41.376Y57.051Z0F1200
G1 X41.029Y56.988Z0F1200
G1 X40.719Y56.965Z0F1200
G1 X40.585Y56.972Z0F1200
G1 X40.47Y56.991Z0F1200
G1 X40.377Y57.023Z0F1200
G1 X40.309Y57.069Z0F1200
G1 X40.245Y57.182Z0F1200
G1 X40.218Y57.329Z0F1200
G1 Y57.499Z0F1200
G1 X41.128Y57.354Z0F1200
G1 X41.731Y57.656Z0F1200
G1 X42.332Y58.001Z0F1200
G1 X42.933Y58.407Z0F1200
G1 X43.185Y58.581Z0F1200
G1 X43.429Y58.724Z0F1200
G1 X43.637Y58.821Z0F1200
G0 Z4.8F800
G0 X43.084Y56.578Z4.8F1500
G1 Z0F800
G1 X43.081Y56.343Z0F1200
G1 X43.062Y56.217Z0F1200
G1 X43.01Y56.084Z0F1200
G1 X42.924Y55.944Z0F1200
G1 X42.805Y55.797Z0F1200
G1 X42.651Y55.643Z0F1200
G1 X42.464Y55.481Z0F1200
G1 X42.243Y55.313Z0F1200
G1 X41.989Y55.137Z0F1200
G1 X41.366Y54.742Z0F1200
G1 X40.716Y54.355Z0F1200
G1 X40.417Y54.184Z0F1200
G1 X40.155Y54.041Z0F1200
G1 X39.943Y53.933Z0F1200
G1 X39.796Y53.868Z0F1200
G1 X39.579Y53.788Z0F1200
G1 X39.392Y53.901Z0F1200
G1 X39.205Y54.015Z0F1200
G1 X39.462Y54.293Z0F1200
G1 X39.621Y54.439Z0F1200
G1 X39.866Y54.631Z0F1200
G1 X40.164Y54.843Z0F1200
G1 X40.48Y55.052Z0F1200
G1 X41.246Y55.545Z0F1200
G1 X42.019Y56.055Z0F1200
G1 X42.333Y56.258Z0F1200
G1 X42.611Y56.424Z0F1200
G1 X42.727Y56.488Z0F1200
G1 X42.824Y56.537Z0F1200
G1 X42.896Y56.567Z0F1200
G1 X42.941Y56.578Z0F1200
G1 X43.084Z0F1200
G0 Z4.8F800
G0 X49.736Y52.714Z4.8F1500
G1 Z0F800
G1 X50.056Y52.902Z0F1200
G1 X50.521Y53.142Z0F1200
G1 X52.908Y53.26Z0F1200
G1 X53.307Y53.097Z0F1200
G1 X53.501Y52.992Z0F1200
G1 X53.736Y52.826Z0F1200
G1 X53.982Y52.622Z0F1200
G1 X54.208Y52.402Z0F1200
G1 X54.711Y51.868Z0F1200
G1 X54.533Y50.704Z0F1200
G1 X54.324Y50.625Z0F1200
G1 X54.042Y50.56Z0F1200
G1 X53.736Y50.568Z0F1200
G1 X53.403Y50.649Z0F1200
G1 X53.045Y50.803Z0F1200
G1 X52.567Y51.048Z0F1200
G1 X51.749Y51.146Z0F1200
G1 X51.423Y51.188Z0F1200
G1 X51.14Y51.233Z0F1200
G1 X51.025Y51.254Z0F1200
G1 X50.932Y51.273Z0F1200
G1 X50.865Y51.291Z0F1200
G1 X50.827Y51.305Z0F1200
