G90 ; Absolute positioning
G21 ; Millimeters
;LightBurn 1.6.04
;Custom GCode device profile, absolute coords
;Bounds: X23.37 Y39.2 to X108.24 Y70.7
G00 G17 G40 G21 G54
G90
M3
G1 Z10 F1500
;Scan @ 1500 mm/min, 90% power

M8
G0 Z3.5 F1500
G0 X31.947 Y39.197 Z3.500
G1 Z0 F1500
;Layer Blue
G91
G1 Z5 F500
G1 X2.5 Z0 S0 F1500
G1 Z-5 F500
G1 X4.07 Z0 S900 F1500
G1 Z5 F500
G1 X2.5 Z0 S0 F1500
G1 X1.992 Y0.9 Z0 F1500
; --- FIX X Backlash (relative): -1.600mm ---
G0 X-1.600 F800
G1 X-2.5 Z0 F1500
G1 Z-5 F500
G1 X-8.054 Z0 S900 F1500
G1 Z5 F500
G1 X-2.5 Z0 S0 F1500
G1 X-1.22 Y0.9 Z0 F1500
; --- FIX X Backlash (relative): 1.600mm ---
G0 X1.600 F800
G1 X2.5 Z0 F1500
G1 Z-5 F500
G1 X10.493 Z0 S900 F1500
G1 Z5 F500
G1 X2.5 Z0 S0 F1500
G1 X0.93 Y0.9 Z0 F1500
; --- FIX X Backlash (relative): -1.600mm ---
G0 X-1.600 F800
G1 X-2.5 Z0 F1500
G1 Z-5 F500
G1 X-12.352 Z0 S900 F1500
G1 Z5 F500
G1 X-2.5 Z0 S0 F1500
G1 X-0.757 Y0.9 Z0 F1500
; --- FIX X Backlash (relative): 1.600mm ---
G0 X1.600 F800
G1 X2.5 Z0 F1500
G1 Z-5 F500
G1 X13.865 Z0 S900 F1500
G1 Z5 F500
G1 X2.5 Z0 S0 F1500
G1 X0.638 Y0.9 Z0 F1500
; --- FIX X Backlash (relative): -1.600mm ---
G0 X-1.600 F800
G1 X-2.5 Z0 F1500
G1 Z-5 F500
G1 X-15.14 Z0 S900 F1500
G1 Z5 F500
G1 X-2.5 Z0 S0 F1500
G1 X-0.542 Y0.9 Z0 F1500
; --- FIX X Backlash (relative): 1.600mm ---
G0 X1.600 F800
G1 X2.5 Z0 F1500
G1 Z-5 F500
G1 X16.224 Z0 S900 F1500
G1 Z5 F500
G1 X2.5 Z0 S0 F1500
G1 X0.468 Y0.9 Z0 F1500
; --- FIX X Backlash (relative): -1.600mm ---
G0 X-1.600 F800
G1 X-2.5 Z0 F1500
G1 Z-5 F500
G1 X-17.16 Z0 S900 F1500
G1 Z5 F500
G1 X-2.5 Z0 S0 F1500
G1 X-0.404 Y0.9 Z0 F1500
; --- FIX X Backlash (relative): 1.600mm ---
G0 X1.600 F800
G1 X2.5 Z0 F1500
G1 Z-5 F500
G1 X17.968 Z0 S900 F1500
G1 Z5 F500
G1 X2.5 Z0 S0 F1500
G1 X0.353 Y0.9 Z0 F1500
; --- FIX X Backlash (relative): -1.600mm ---
G0 X-1.600 F800
G1 X-2.5 Z0 F1500
G1 Z-5 F500
G1 X-18.674 Z0 S900 F1500
G1 Z5 F500
G1 X-2.5 Z0 S0 F1500
G1 X-0.297 Y0.9 Z0 F1500
; --- FIX X Backlash (relative): 1.600mm ---
G0 X1.600 F800
G1 X2.5 Z0 F1500
G1 Z-5 F500
G1 X19.267 Z0 S900 F1500
G1 Z5 F500
G1 X2.5 Z0 S0 F1500
G1 X0.254 Y0.9 Z0 F1500
; --- FIX X Backlash (relative): -1.600mm ---
G0 X-1.600 F800
G1 X-2.5 Z0 F1500
G1 Z-5 F500
G1 X-19.775 Z0 S900 F1500
G1 Z5 F500
G1 X-2.5 Z0 S0 F1500
G1 X-0.213 Y0.9 Z0 F1500
; --- FIX X Backlash (relative): 1.600mm ---
G0 X1.600 F800
G1 X2.5 Z0 F1500
G1 Z-5 F500
G1 X20.202 Z0 S900 F1500
G1 Z5 F500
G1 X2.5 Z0 S0 F1500
G1 X0.176 Y0.9 Z0 F1500
; --- FIX X Backlash (relative): -1.600mm ---
G0 X-1.600 F800
G1 X-2.5 Z0 F1500
G1 Z-5 F500
G1 X-20.554 Z0 S900 F1500
G1 Z5 F500
G1 X-2.5 Z0 S0 F1500
G1 X-0.136 Y0.9 Z0 F1500
; --- FIX X Backlash (relative): 1.600mm ---
G0 X1.600 F800
G1 X2.5 Z0 F1500
G1 Z-5 F500
G1 X20.826 Z0 S900 F1500
G1 Z5 F500
G1 X2.5 Z0 S0 F1500
G1 X0.099 Y0.9 Z0 F1500
; --- FIX X Backlash (relative): -1.600mm ---
G0 X-1.600 F800
G1 X-2.5 Z0 F1500
G1 Z-5 F500
G1 X-21.025 Z0 S900 F1500
G1 Z5 F500
G1 X-2.5 Z0 S0 F1500
G1 X-0.066 Y0.9 Z0 F1500
; --- FIX X Backlash (relative): 1.600mm ---
G0 X1.600 F800
G1 X2.5 Z0 F1500
G1 Z-5 F500
G1 X21.157 Z0 S900 F1500
G1 Z5 F500
G1 X2.5 Z0 S0 F1500
G1 X0.033 Y0.9 Z0 F1500
; --- FIX X Backlash (relative): -1.600mm ---
G0 X-1.600 F800
G1 X-2.5 Z0 F1500
G1 Z-5 F500
G1 X-21.222 Z0 S900 F1500
G1 Z5 F500
G1 X-2.5 Z0 S0 F1500
G1 Y0.9 Z0 F1500
; --- FIX X Backlash (relative): 1.600mm ---
G0 X1.600 F800
G1 X2.5 Z0 F1500
G1 Z-5 F500
G1 X21.222 Z0 S900 F1500
G1 Z5 F500
G1 X2.5 Z0 S0 F1500
G1 X-0.033 Y0.9 Z0 F1500
; --- FIX X Backlash (relative): -1.600mm ---
G0 X-1.600 F800
G1 X-2.5 Z0 F1500
G1 Z-5 F500
G1 X-21.157 Z0 S900 F1500
G1 Z5 F500
G1 X-2.5 Z0 S0 F1500
; --- FIX X Backlash (relative): 1.600mm ---
G0 X1.600 F800
G1 X0.066 Y0.9 Z0 F1500
G1 X2.5 Z0 F1500
G1 Z-5 F500
G1 X21.025 Z0 S900 F1500
G1 Z5 F500
G1 X2.5 Z0 S0 F1500
; --- FIX X Backlash (relative): -1.600mm ---
G0 X-1.600 F800
G1 X-0.099 Y0.9 Z0 F1500
G1 X-2.5 Z0 F1500
G1 Z-5 F500
G1 X-20.826 Z0 S900 F1500
G1 Z5 F500
G1 X-2.5 Z0 S0 F1500
; --- FIX X Backlash (relative): 1.600mm ---
G0 X1.600 F800
G1 X0.136 Y0.9 Z0 F1500
G1 X2.5 Z0 F1500
G1 Z-5 F500
G1 X20.554 Z0 S900 F1500
G1 Z5 F500
G1 X2.5 Z0 S0 F1500
; --- FIX X Backlash (relative): -1.600mm ---
G0 X-1.600 F800
G1 X-0.176 Y0.9 Z0 F1500
G1 X-2.5 Z0 F1500
G1 Z-5 F500
G1 X-20.202 Z0 S900 F1500
G1 Z5 F500
G1 X-2.5 Z0 S0 F1500
; --- FIX X Backlash (relative): 1.600mm ---
G0 X1.600 F800
G1 X0.213 Y0.9 Z0 F1500
G1 X2.5 Z0 F1500
G1 Z-5 F500
G1 X19.775 Z0 S900 F1500
G1 Z5 F500
G1 X2.5 Z0 S0 F1500
; --- FIX X Backlash (relative): -1.600mm ---
G0 X-1.600 F800
G1 X-0.254 Y0.9 Z0 F1500
G1 X-2.5 Z0 F1500
G1 Z-5 F500
G1 X-19.267 Z0 S900 F1500
G1 Z5 F500
G1 X-2.5 Z0 S0 F1500
; --- FIX X Backlash (relative): 1.600mm ---
G0 X1.600 F800
G1 X0.297 Y0.9 Z0 F1500
G1 X2.5 Z0 F1500
G1 Z-5 F500
G1 X18.674 Z0 S900 F1500
G1 Z5 F500
G1 X2.5 Z0 S0 F1500
; --- FIX X Backlash (relative): -1.600mm ---
G0 X-1.600 F800
G1 X-0.353 Y0.9 Z0 F1500
G1 X-2.5 Z0 F1500
G1 Z-5 F500
G1 X-17.968 Z0 S900 F1500
G1 Z5 F500
G1 X-2.5 Z0 S0 F1500
; --- FIX X Backlash (relative): 1.600mm ---
G0 X1.600 F800
G1 X0.404 Y0.9 Z0 F1500
G1 X2.5 Z0 F1500
G1 Z-5 F500
G1 X17.16 Z0 S900 F1500
G1 Z5 F500
G1 X2.5 Z0 S0 F1500
; --- FIX X Backlash (relative): -1.600mm ---
G0 X-1.600 F800
G1 X-0.468 Y0.9 Z0 F1500
G1 X-2.5 Z0 F1500
G1 Z-5 F500
G1 X-16.224 Z0 S900 F1500
G1 Z5 F500
G1 X-2.5 Z0 S0 F1500
; --- FIX X Backlash (relative): 1.600mm ---
G0 X1.600 F800
G1 X0.542 Y0.9 Z0 F1500
G1 X2.5 Z0 F1500
G1 Z-5 F500
G1 X15.14 Z0 S900 F1500
G1 Z5 F500
G1 X2.5 Z0 S0 F1500
; --- FIX X Backlash (relative): -1.600mm ---
G0 X-1.600 F800
G1 X-0.638 Y0.9 Z0 F1500
G1 X-2.5 Z0 F1500
G1 Z-5 F500
G1 X-13.865 Z0 S900 F1500
G1 Z5 F500
G1 X-2.5 Z0 S0 F1500
; --- FIX X Backlash (relative): 1.600mm ---
G0 X1.600 F800
G1 X0.757 Y0.9 Z0 F1500
G1 X2.5 Z0 F1500
G1 Z-5 F500
G1 X12.352 Z0 S900 F1500
G1 Z5 F500
G1 X2.5 Z0 S0 F1500
; --- FIX X Backlash (relative): -1.600mm ---
G0 X-1.600 F800
G1 X-0.93 Y0.9 Z0 F1500
G1 X-2.5 Z0 F1500
G1 Z-5 F500
G1 X-10.493 Z0 S900 F1500
G1 Z5 F500
G1 X-2.5 Z0 S0 F1500
; --- FIX X Backlash (relative): 1.600mm ---
G0 X1.600 F800
G1 X1.22 Y0.9 Z0 F1500
G1 X2.5 Z0 F1500
G1 Z-5 F500
G1 X8.054 Z0 S900 F1500
G1 Z5 F500
G1 X2.5 Z0 S0 F1500
; --- FIX X Backlash (relative): -1.600mm ---
G0 X-1.600 F800
G1 X-1.992 Y0.9 Z0 F1500
G1 X-2.5 Z0 F1500
G1 Z-5 F500
G1 X-4.07 Z0 S900 F1500
G1 Z5 F500
G1 X-2.5 Z0 S0 F1500
G90
;Offset @ 1500 mm/min, 90% power

M8
G0 Z3.5 F1500
; --- FIX X Backlash: 1.600mm ---
G0 X31.947 Y70.697 F800
; --- FIX Y Backlash: -1.600mm ---
G0 X31.947 Y69.097 F800
G0 X67.740 Y49.662 Z3.500
G1 Z0 F1500
;Layer Green
G1 X67.769 Y49.684 Z0.000 F1500
G1 X67.776 Y49.690 Z0.000 F1500
G1 X67.784 Y49.698 Z0.000 F1500
G1 X67.807 Y49.730 Z0.000 F1500
G1 X67.807 Y49.733 Z0.000 F1500
G1 X67.807 Y49.752 Z0.000 F1500
G1 X67.784 Y49.785 Z0.000 F1500
G1 X67.777 Y49.793 Z0.000 F1500
G1 X67.770 Y49.799 Z0.000 F1500
G1 X67.739 Y49.822 Z0.000 F1500
G1 X67.736 Y49.822 Z0.000 F1500
G1 X67.727 Y49.822 Z0.000 F1500
G1 X67.718 Y49.822 Z0.000 F1500
G1 X67.714 Y49.822 Z0.000 F1500
G1 X67.684 Y49.799 Z0.000 F1500
G1 X67.676 Y49.793 Z0.000 F1500
G1 X67.669 Y49.785 Z0.000 F1500
G1 X67.646 Y49.754 Z0.000 F1500
G1 X67.646 Y49.735 Z0.000 F1500
G1 X67.646 Y49.730 Z0.000 F1500
G1 X67.670 Y49.698 Z0.000 F1500
G1 X67.678 Y49.690 Z0.000 F1500
G1 X67.685 Y49.684 Z0.000 F1500
G1 X67.714 Y49.662 Z0.000 F1500
G1 X67.727 Y49.662 Z0.000 F1500
G1 X67.740 Y49.662 Z0.000 F1500
G0 Z3.5 F1500
G0 X68.706 Y49.681 Z3.500
G1 Z0 F1500
; --- FIX Y Backlash: 1.600mm ---
G0 X68.706 Y51.281 F800
G1 X68.706 Y51.342 Z0.000 F1500
G1 X68.706 Y51.402 Z0.000 F1500
G1 X68.702 Y51.453 Z0.000 F1500
G1 X68.696 Y51.502 Z0.000 F1500
G1 X68.687 Y51.554 Z0.000 F1500
G1 X68.677 Y51.597 Z0.000 F1500
G1 X68.666 Y51.636 Z0.000 F1500
G1 X68.651 Y51.678 Z0.000 F1500
G1 X68.635 Y51.721 Z0.000 F1500
G1 X68.611 Y51.772 Z0.000 F1500
G1 X68.596 Y51.803 Z0.000 F1500
; --- FIX X Backlash: -1.600mm ---
G0 X66.996 Y51.803 F800
G1 X66.881 Y51.956 Z0.000 F1500
G1 X66.815 Y52.030 Z0.000 F1500
G1 X66.741 Y52.097 Z0.000 F1500
G1 X66.589 Y52.210 Z0.000 F1500
G1 X66.550 Y52.230 Z0.000 F1500
G1 X66.511 Y52.248 Z0.000 F1500
G1 X66.463 Y52.267 Z0.000 F1500
G1 X66.421 Y52.281 Z0.000 F1500
G1 X66.382 Y52.292 Z0.000 F1500
G1 X66.339 Y52.302 Z0.000 F1500
G1 X66.287 Y52.311 Z0.000 F1500
G1 X66.238 Y52.317 Z0.000 F1500
G1 X66.189 Y52.321 Z0.000 F1500
G1 X66.127 Y52.321 Z0.000 F1500
G1 X66.066 Y52.321 Z0.000 F1500
G1 X66.013 Y52.317 Z0.000 F1500
G1 X65.968 Y52.312 Z0.000 F1500
G1 X65.915 Y52.302 Z0.000 F1500
G1 X65.872 Y52.292 Z0.000 F1500
G1 X65.834 Y52.281 Z0.000 F1500
G1 X65.793 Y52.267 Z0.000 F1500
G1 X65.739 Y52.246 Z0.000 F1500
G1 X65.706 Y52.231 Z0.000 F1500
G1 X65.667 Y52.211 Z0.000 F1500
G1 X65.662 Y52.208 Z0.000 F1500
; --- FIX Y Backlash: -1.600mm ---
G0 X65.662 Y50.608 F800
G1 X65.513 Y50.497 Z0.000 F1500
G1 X65.439 Y50.430 Z0.000 F1500
G1 X65.372 Y50.356 Z0.000 F1500
G1 X65.262 Y50.209 Z0.000 F1500
G1 X65.257 Y50.201 Z0.000 F1500
G1 X65.238 Y50.163 Z0.000 F1500
G1 X65.219 Y50.121 Z0.000 F1500
G1 X65.205 Y50.085 Z0.000 F1500
G1 X65.187 Y50.032 Z0.000 F1500
G1 X65.176 Y49.995 Z0.000 F1500
G1 X65.167 Y49.954 Z0.000 F1500
G1 X65.158 Y49.905 Z0.000 F1500
G1 X65.152 Y49.858 Z0.000 F1500
G1 X65.148 Y49.796 Z0.000 F1500
G1 X65.148 Y49.742 Z0.000 F1500
G1 X65.148 Y49.685 Z0.000 F1500
G1 X65.152 Y49.622 Z0.000 F1500
G1 X65.158 Y49.579 Z0.000 F1500
G1 X65.166 Y49.535 Z0.000 F1500
G1 X65.177 Y49.488 Z0.000 F1500
G1 X65.187 Y49.453 Z0.000 F1500
G1 X65.204 Y49.402 Z0.000 F1500
G1 X65.223 Y49.355 Z0.000 F1500
G1 X65.236 Y49.325 Z0.000 F1500
G1 X65.261 Y49.276 Z0.000 F1500
; --- FIX X Backlash: 1.600mm ---
G0 X66.861 Y49.276 F800
G1 X66.972 Y49.128 Z0.000 F1500
G1 X67.037 Y49.057 Z0.000 F1500
G1 X67.113 Y48.988 Z0.000 F1500
G1 X67.262 Y48.876 Z0.000 F1500
G1 X67.267 Y48.873 Z0.000 F1500
G1 X67.308 Y48.853 Z0.000 F1500
G1 X67.345 Y48.836 Z0.000 F1500
G1 X67.387 Y48.819 Z0.000 F1500
G1 X67.438 Y48.802 Z0.000 F1500
G1 X67.474 Y48.792 Z0.000 F1500
G1 X67.515 Y48.782 Z0.000 F1500
G1 X67.567 Y48.773 Z0.000 F1500
G1 X67.606 Y48.768 Z0.000 F1500
G1 X67.666 Y48.763 Z0.000 F1500
G1 X67.727 Y48.763 Z0.000 F1500
G1 X67.789 Y48.763 Z0.000 F1500
G1 X67.844 Y48.768 Z0.000 F1500
G1 X67.890 Y48.774 Z0.000 F1500
G1 X67.939 Y48.782 Z0.000 F1500
G1 X67.979 Y48.792 Z0.000 F1500
G1 X68.017 Y48.802 Z0.000 F1500
G1 X68.069 Y48.820 Z0.000 F1500
G1 X68.105 Y48.834 Z0.000 F1500
G1 X68.149 Y48.854 Z0.000 F1500
G1 X68.189 Y48.875 Z0.000 F1500
; --- FIX Y Backlash: 1.600mm ---
G0 X68.189 Y50.475 F800
G1 X68.341 Y50.588 Z0.000 F1500
G1 X68.417 Y50.657 Z0.000 F1500
G1 X68.481 Y50.728 Z0.000 F1500
G1 X68.593 Y50.877 Z0.000 F1500
G1 X68.596 Y50.882 Z0.000 F1500
G1 X68.616 Y50.921 Z0.000 F1500
G1 X68.631 Y50.955 Z0.000 F1500
G1 X68.652 Y51.008 Z0.000 F1500
G1 X68.665 Y51.044 Z0.000 F1500
G1 X68.676 Y51.085 Z0.000 F1500
G1 X68.688 Y51.135 Z0.000 F1500
G1 X68.696 Y51.180 Z0.000 F1500
G1 X68.702 Y51.228 Z0.000 F1500
G1 X68.706 Y51.281 Z0.000 F1500
G0 Z3.5 F1500
G0 X68.915 Y52.791 Z3.500
G1 Z0 F1500
; --- FIX X Backlash: -1.600mm ---
G0 X67.315 Y52.791 F800
G1 X67.087 Y52.961 Z0.000 F1500
G1 X67.014 Y53.003 Z0.000 F1500
G1 X66.945 Y53.039 Z0.000 F1500
G1 X66.854 Y53.080 Z0.000 F1500
G1 X66.774 Y53.112 Z0.000 F1500
G1 X66.692 Y53.140 Z0.000 F1500
G1 X66.603 Y53.165 Z0.000 F1500
G1 X66.516 Y53.185 Z0.000 F1500
G1 X66.423 Y53.201 Z0.000 F1500
G1 X66.332 Y53.213 Z0.000 F1500
G1 X66.232 Y53.221 Z0.000 F1500
G1 X66.127 Y53.221 Z0.000 F1500
G1 X66.023 Y53.221 Z0.000 F1500
G1 X65.929 Y53.213 Z0.000 F1500
G1 X65.823 Y53.200 Z0.000 F1500
G1 X65.738 Y53.185 Z0.000 F1500
G1 X65.651 Y53.165 Z0.000 F1500
G1 X65.569 Y53.142 Z0.000 F1500
G1 X65.480 Y53.111 Z0.000 F1500
G1 X65.393 Y53.077 Z0.000 F1500
G1 X65.315 Y53.042 Z0.000 F1500
G1 X65.230 Y52.998 Z0.000 F1500
G1 X65.168 Y52.962 Z0.000 F1500
; --- FIX Y Backlash: -1.600mm ---
G0 X65.168 Y51.362 F800
G1 X64.939 Y51.191 Z0.000 F1500
G1 X64.802 Y51.067 Z0.000 F1500
G1 X64.678 Y50.930 Z0.000 F1500
G1 X64.507 Y50.702 Z0.000 F1500
G1 X64.468 Y50.633 Z0.000 F1500
G1 X64.429 Y50.557 Z0.000 F1500
G1 X64.388 Y50.468 Z0.000 F1500
G1 X64.357 Y50.389 Z0.000 F1500
G1 X64.329 Y50.307 Z0.000 F1500
G1 X64.304 Y50.218 Z0.000 F1500
G1 X64.284 Y50.131 Z0.000 F1500
G1 X64.268 Y50.041 Z0.000 F1500
G1 X64.256 Y49.951 Z0.000 F1500
G1 X64.248 Y49.841 Z0.000 F1500
G1 X64.248 Y49.742 Z0.000 F1500
G1 X64.248 Y49.644 Z0.000 F1500
G1 X64.256 Y49.541 Z0.000 F1500
G1 X64.269 Y49.442 Z0.000 F1500
G1 X64.285 Y49.351 Z0.000 F1500
G1 X64.305 Y49.262 Z0.000 F1500
G1 X64.326 Y49.188 Z0.000 F1500
G1 X64.359 Y49.092 Z0.000 F1500
G1 X64.392 Y49.008 Z0.000 F1500
G1 X64.427 Y48.931 Z0.000 F1500
G1 X64.467 Y48.853 Z0.000 F1500
G1 X64.508 Y48.780 Z0.000 F1500
; --- FIX X Backlash: 1.600mm ---
G0 X66.108 Y48.780 F800
G1 X66.278 Y48.554 Z0.000 F1500
G1 X66.400 Y48.420 Z0.000 F1500
G1 X66.538 Y48.294 Z0.000 F1500
G1 X66.767 Y48.123 Z0.000 F1500
G1 X66.831 Y48.086 Z0.000 F1500
G1 X66.924 Y48.038 Z0.000 F1500
G1 X66.991 Y48.007 Z0.000 F1500
G1 X67.077 Y47.974 Z0.000 F1500
G1 X67.173 Y47.942 Z0.000 F1500
G1 X67.250 Y47.920 Z0.000 F1500
G1 X67.338 Y47.899 Z0.000 F1500
G1 X67.420 Y47.884 Z0.000 F1500
G1 X67.523 Y47.872 Z0.000 F1500
G1 X67.623 Y47.864 Z0.000 F1500
G1 X67.727 Y47.861 Z0.000 F1500
G1 X67.832 Y47.864 Z0.000 F1500
G1 X67.938 Y47.872 Z0.000 F1500
G1 X68.026 Y47.883 Z0.000 F1500
G1 X68.116 Y47.899 Z0.000 F1500
G1 X68.203 Y47.920 Z0.000 F1500
G1 X68.292 Y47.944 Z0.000 F1500
G1 X68.374 Y47.972 Z0.000 F1500
G1 X68.454 Y48.004 Z0.000 F1500
G1 X68.536 Y48.041 Z0.000 F1500
G1 X68.614 Y48.081 Z0.000 F1500
G1 X68.688 Y48.123 Z0.000 F1500
; --- FIX Y Backlash: 1.600mm ---
G0 X68.688 Y49.723 F800
G1 X68.916 Y49.894 Z0.000 F1500
G1 X69.054 Y50.020 Z0.000 F1500
G1 X69.176 Y50.154 Z0.000 F1500
G1 X69.347 Y50.383 Z0.000 F1500
G1 X69.383 Y50.446 Z0.000 F1500
G1 X69.427 Y50.530 Z0.000 F1500
G1 X69.462 Y50.608 Z0.000 F1500
G1 X69.496 Y50.695 Z0.000 F1500
G1 X69.526 Y50.785 Z0.000 F1500
G1 X69.548 Y50.862 Z0.000 F1500
G1 X69.569 Y50.951 Z0.000 F1500
G1 X69.585 Y51.044 Z0.000 F1500
G1 X69.598 Y51.144 Z0.000 F1500
G1 X69.605 Y51.238 Z0.000 F1500
G1 X69.608 Y51.342 Z0.000 F1500
G1 X69.605 Y51.447 Z0.000 F1500
G1 X69.598 Y51.547 Z0.000 F1500
G1 X69.586 Y51.639 Z0.000 F1500
G1 X69.570 Y51.731 Z0.000 F1500
G1 X69.549 Y51.818 Z0.000 F1500
G1 X69.524 Y51.907 Z0.000 F1500
G1 X69.497 Y51.989 Z0.000 F1500
G1 X69.465 Y52.068 Z0.000 F1500
G1 X69.425 Y52.158 Z0.000 F1500
G1 X69.387 Y52.232 Z0.000 F1500
G1 X69.346 Y52.302 Z0.000 F1500
; --- FIX X Backlash: -1.600mm ---
G0 X67.746 Y52.302 F800
G1 X67.576 Y52.530 Z0.000 F1500
G1 X67.452 Y52.667 Z0.000 F1500
G1 X67.315 Y52.791 Z0.000 F1500
G0 Z3.5 F1500
G0 X65.980 Y54.120 Z3.500
G1 Z0 F1500
G1 X65.833 Y54.109 Z0.000 F1500
G1 X65.697 Y54.091 Z0.000 F1500
G1 X65.551 Y54.065 Z0.000 F1500
G1 X65.430 Y54.038 Z0.000 F1500
G1 X65.296 Y54.000 Z0.000 F1500
G1 X65.172 Y53.958 Z0.000 F1500
; --- FIX Y Backlash: -1.600mm ---
G0 X65.172 Y52.358 F800
G1 X65.042 Y52.306 Z0.000 F1500
G1 X64.924 Y52.253 Z0.000 F1500
G1 X64.801 Y52.190 Z0.000 F1500
G1 X64.694 Y52.128 Z0.000 F1500
G1 X64.659 Y52.106 Z0.000 F1500
G1 X64.364 Y51.885 Z0.000 F1500
G1 X64.165 Y51.704 Z0.000 F1500
G1 X63.983 Y51.504 Z0.000 F1500
G1 X63.763 Y51.210 Z0.000 F1500
G1 X63.745 Y51.181 Z0.000 F1500
G1 X63.676 Y51.062 Z0.000 F1500
G1 X63.616 Y50.944 Z0.000 F1500
G1 X63.563 Y50.828 Z0.000 F1500
G1 X63.511 Y50.696 Z0.000 F1500
G1 X63.470 Y50.575 Z0.000 F1500
G1 X63.431 Y50.436 Z0.000 F1500
G1 X63.403 Y50.317 Z0.000 F1500
G1 X63.379 Y50.178 Z0.000 F1500
G1 X63.360 Y50.033 Z0.000 F1500
G1 X63.349 Y49.885 Z0.000 F1500
G1 X63.345 Y49.742 Z0.000 F1500
G1 X63.349 Y49.600 Z0.000 F1500
G1 X63.360 Y49.448 Z0.000 F1500
G1 X63.379 Y49.304 Z0.000 F1500
G1 X63.402 Y49.174 Z0.000 F1500
G1 X63.432 Y49.045 Z0.000 F1500
G1 X63.469 Y48.914 Z0.000 F1500
G1 X63.514 Y48.782 Z0.000 F1500
G1 X63.563 Y48.657 Z0.000 F1500
; --- FIX X Backlash: 1.600mm ---
G0 X65.163 Y48.657 F800
G1 X65.214 Y48.544 Z0.000 F1500
G1 X65.277 Y48.421 Z0.000 F1500
G1 X65.346 Y48.301 Z0.000 F1500
G1 X65.363 Y48.275 Z0.000 F1500
G1 X65.583 Y47.980 Z0.000 F1500
G1 X65.763 Y47.782 Z0.000 F1500
G1 X65.966 Y47.597 Z0.000 F1500
G1 X66.257 Y47.379 Z0.000 F1500
G1 X66.291 Y47.358 Z0.000 F1500
G1 X66.401 Y47.295 Z0.000 F1500
G1 X66.528 Y47.230 Z0.000 F1500
G1 X66.645 Y47.177 Z0.000 F1500
G1 X66.767 Y47.129 Z0.000 F1500
G1 X66.898 Y47.084 Z0.000 F1500
G1 X67.033 Y47.046 Z0.000 F1500
G1 X67.151 Y47.019 Z0.000 F1500
G1 X67.292 Y46.993 Z0.000 F1500
G1 X67.430 Y46.976 Z0.000 F1500
G1 X67.580 Y46.964 Z0.000 F1500
G1 X67.727 Y46.961 Z0.000 F1500
G1 X67.874 Y46.964 Z0.000 F1500
G1 X68.021 Y46.976 Z0.000 F1500
G1 X68.163 Y46.994 Z0.000 F1500
G1 X68.302 Y47.019 Z0.000 F1500
G1 X68.420 Y47.046 Z0.000 F1500
G1 X68.560 Y47.086 Z0.000 F1500
G1 X68.681 Y47.127 Z0.000 F1500
; --- FIX Y Backlash: 1.600mm ---
G0 X68.681 Y48.727 F800
G1 X68.811 Y48.778 Z0.000 F1500
G1 X68.927 Y48.831 Z0.000 F1500
G1 X69.052 Y48.894 Z0.000 F1500
G1 X69.162 Y48.957 Z0.000 F1500
G1 X69.196 Y48.979 Z0.000 F1500
G1 X69.487 Y49.197 Z0.000 F1500
G1 X69.691 Y49.382 Z0.000 F1500
G1 X69.870 Y49.580 Z0.000 F1500
G1 X70.091 Y49.875 Z0.000 F1500
G1 X70.113 Y49.909 Z0.000 F1500
G1 X70.175 Y50.017 Z0.000 F1500
G1 X70.238 Y50.140 Z0.000 F1500
G1 X70.291 Y50.257 Z0.000 F1500
G1 X70.342 Y50.387 Z0.000 F1500
G1 X70.384 Y50.511 Z0.000 F1500
G1 X70.421 Y50.642 Z0.000 F1500
G1 X70.452 Y50.774 Z0.000 F1500
G1 X70.476 Y50.909 Z0.000 F1500
G1 X70.494 Y51.048 Z0.000 F1500
G1 X70.505 Y51.195 Z0.000 F1500
G1 X70.508 Y51.342 Z0.000 F1500
G1 X70.505 Y51.489 Z0.000 F1500
G1 X70.494 Y51.634 Z0.000 F1500
G1 X70.476 Y51.774 Z0.000 F1500
G1 X70.450 Y51.917 Z0.000 F1500
G1 X70.422 Y52.039 Z0.000 F1500
G1 X70.385 Y52.171 Z0.000 F1500
G1 X70.342 Y52.297 Z0.000 F1500
; --- FIX X Backlash: -1.600mm ---
G0 X68.742 Y52.297 F800
G1 X68.691 Y52.428 Z0.000 F1500
G1 X68.636 Y52.549 Z0.000 F1500
G1 X68.576 Y52.666 Z0.000 F1500
G1 X68.514 Y52.774 Z0.000 F1500
G1 X68.491 Y52.810 Z0.000 F1500
G1 X68.270 Y53.104 Z0.000 F1500
G1 X68.089 Y53.304 Z0.000 F1500
G1 X67.889 Y53.485 Z0.000 F1500
G1 X67.594 Y53.706 Z0.000 F1500
G1 X67.559 Y53.729 Z0.000 F1500
G1 X67.452 Y53.791 Z0.000 F1500
G1 X67.332 Y53.852 Z0.000 F1500
G1 X67.213 Y53.905 Z0.000 F1500
G1 X67.082 Y53.958 Z0.000 F1500
G1 X66.956 Y54.000 Z0.000 F1500
G1 X66.824 Y54.038 Z0.000 F1500
G1 X66.702 Y54.065 Z0.000 F1500
G1 X66.559 Y54.091 Z0.000 F1500
G1 X66.419 Y54.109 Z0.000 F1500
G1 X66.274 Y54.120 Z0.000 F1500
G1 X66.127 Y54.124 Z0.000 F1500
G1 X65.980 Y54.120 Z0.000 F1500
G0 Z3.5 F1500
G0 X63.791 Y54.180 Z3.500
G1 Z0 F1500
; --- FIX Y Backlash: -1.600mm ---
G0 X63.791 Y52.580 F800
G1 X63.528 Y52.341 Z0.000 F1500
G1 X63.289 Y52.078 Z0.000 F1500
G1 X63.022 Y51.722 Z0.000 F1500
G1 X62.972 Y51.643 Z0.000 F1500
G1 X62.887 Y51.495 Z0.000 F1500
G1 X62.805 Y51.335 Z0.000 F1500
G1 X62.732 Y51.174 Z0.000 F1500
G1 X62.667 Y51.008 Z0.000 F1500
G1 X62.610 Y50.840 Z0.000 F1500
G1 X62.559 Y50.662 Z0.000 F1500
G1 X62.520 Y50.490 Z0.000 F1500
G1 X62.488 Y50.315 Z0.000 F1500
G1 X62.464 Y50.120 Z0.000 F1500
G1 X62.450 Y49.939 Z0.000 F1500
G1 X62.445 Y49.742 Z0.000 F1500
G1 X62.450 Y49.546 Z0.000 F1500
G1 X62.464 Y49.356 Z0.000 F1500
G1 X62.487 Y49.175 Z0.000 F1500
G1 X62.521 Y48.990 Z0.000 F1500
G1 X62.560 Y48.819 Z0.000 F1500
; --- FIX X Backlash: 1.600mm ---
G0 X64.160 Y48.819 F800
G1 X64.211 Y48.641 Z0.000 F1500
G1 X64.269 Y48.470 Z0.000 F1500
G1 X64.335 Y48.303 Z0.000 F1500
G1 X64.401 Y48.157 Z0.000 F1500
G1 X64.489 Y47.984 Z0.000 F1500
G1 X64.572 Y47.841 Z0.000 F1500
G1 X64.622 Y47.762 Z0.000 F1500
G1 X64.889 Y47.406 Z0.000 F1500
G1 X65.126 Y47.145 Z0.000 F1500
G1 X65.395 Y46.901 Z0.000 F1500
G1 X65.743 Y46.640 Z0.000 F1500
G1 X65.822 Y46.589 Z0.000 F1500
G1 X65.977 Y46.501 Z0.000 F1500
G1 X66.137 Y46.419 Z0.000 F1500
G1 X66.291 Y46.349 Z0.000 F1500
G1 X66.457 Y46.284 Z0.000 F1500
G1 X66.633 Y46.224 Z0.000 F1500
G1 X66.807 Y46.174 Z0.000 F1500
G1 X66.977 Y46.135 Z0.000 F1500
G1 X67.155 Y46.103 Z0.000 F1500
G1 X67.337 Y46.080 Z0.000 F1500
G1 X67.527 Y46.066 Z0.000 F1500
G1 X67.727 Y46.061 Z0.000 F1500
G1 X67.927 Y46.066 Z0.000 F1500
G1 X68.114 Y46.080 Z0.000 F1500
G1 X68.300 Y46.104 Z0.000 F1500
G1 X68.477 Y46.135 Z0.000 F1500
G1 X68.646 Y46.174 Z0.000 F1500
; --- FIX Y Backlash: 1.600mm ---
G0 X68.646 Y47.774 F800
G1 X68.825 Y47.825 Z0.000 F1500
G1 X68.995 Y47.882 Z0.000 F1500
G1 X69.162 Y47.949 Z0.000 F1500
G1 X69.319 Y48.020 Z0.000 F1500
G1 X69.471 Y48.097 Z0.000 F1500
G1 X69.633 Y48.190 Z0.000 F1500
G1 X69.710 Y48.240 Z0.000 F1500
G1 X70.059 Y48.501 Z0.000 F1500
G1 X70.328 Y48.745 Z0.000 F1500
G1 X70.564 Y49.006 Z0.000 F1500
G1 X70.832 Y49.362 Z0.000 F1500
G1 X70.882 Y49.441 Z0.000 F1500
G1 X70.967 Y49.588 Z0.000 F1500
G1 X71.046 Y49.743 Z0.000 F1500
G1 X71.119 Y49.903 Z0.000 F1500
G1 X71.189 Y50.083 Z0.000 F1500
G1 X71.244 Y50.244 Z0.000 F1500
G1 X71.292 Y50.412 Z0.000 F1500
G1 X71.333 Y50.590 Z0.000 F1500
G1 X71.366 Y50.773 Z0.000 F1500
G1 X71.390 Y50.962 Z0.000 F1500
G1 X71.403 Y51.138 Z0.000 F1500
G1 X71.409 Y51.342 Z0.000 F1500
G1 X71.403 Y51.542 Z0.000 F1500
G1 X71.389 Y51.729 Z0.000 F1500
G1 X71.367 Y51.903 Z0.000 F1500
G1 X71.334 Y52.090 Z0.000 F1500
G1 X71.293 Y52.268 Z0.000 F1500
G1 X71.246 Y52.436 Z0.000 F1500
; --- FIX X Backlash: -1.600mm ---
G0 X69.646 Y52.436 F800
G1 X69.588 Y52.607 Z0.000 F1500
G1 X69.522 Y52.774 Z0.000 F1500
G1 X69.445 Y52.943 Z0.000 F1500
G1 X69.372 Y53.087 Z0.000 F1500
G1 X69.282 Y53.243 Z0.000 F1500
G1 X69.232 Y53.322 Z0.000 F1500
G1 X68.964 Y53.678 Z0.000 F1500
G1 X68.726 Y53.941 Z0.000 F1500
G1 X68.463 Y54.180 Z0.000 F1500
G1 X68.107 Y54.447 Z0.000 F1500
G1 X68.027 Y54.497 Z0.000 F1500
G1 X67.873 Y54.586 Z0.000 F1500
G1 X67.722 Y54.664 Z0.000 F1500
G1 X67.565 Y54.734 Z0.000 F1500
G1 X67.392 Y54.803 Z0.000 F1500
G1 X67.220 Y54.861 Z0.000 F1500
G1 X67.053 Y54.908 Z0.000 F1500
G1 X66.877 Y54.949 Z0.000 F1500
G1 X66.693 Y54.981 Z0.000 F1500
G1 X66.514 Y55.004 Z0.000 F1500
G1 X66.327 Y55.019 Z0.000 F1500
G1 X66.127 Y55.024 Z0.000 F1500
G1 X65.927 Y55.019 Z0.000 F1500
G1 X65.747 Y55.005 Z0.000 F1500
G1 X65.552 Y54.980 Z0.000 F1500
G1 X65.377 Y54.949 Z0.000 F1500
G1 X65.200 Y54.908 Z0.000 F1500
G1 X65.028 Y54.859 Z0.000 F1500
; --- FIX Y Backlash: -1.600mm ---
G0 X65.028 Y53.259 F800
G1 X64.868 Y53.205 Z0.000 F1500
G1 X64.688 Y53.134 Z0.000 F1500
G1 X64.534 Y53.065 Z0.000 F1500
G1 X64.377 Y52.984 Z0.000 F1500
G1 X64.228 Y52.899 Z0.000 F1500
G1 X64.147 Y52.847 Z0.000 F1500
G1 X63.791 Y52.580 Z0.000 F1500
G0 Z3.5 F1500
G0 X61.750 Y51.105 Z3.500
G1 Z0 F1500
G1 X61.687 Y50.885 Z0.000 F1500
G1 X61.639 Y50.679 Z0.000 F1500
G1 X61.597 Y50.443 Z0.000 F1500
G1 X61.569 Y50.218 Z0.000 F1500
G1 X61.551 Y49.983 Z0.000 F1500
G1 X61.545 Y49.742 Z0.000 F1500
G1 X61.551 Y49.502 Z0.000 F1500
G1 X61.568 Y49.274 Z0.000 F1500
G1 X61.599 Y49.028 Z0.000 F1500
G1 X61.637 Y48.815 Z0.000 F1500
; --- FIX X Backlash: 1.600mm ---
G0 X63.237 Y48.815 F800
G1 X63.288 Y48.595 Z0.000 F1500
G1 X63.352 Y48.371 Z0.000 F1500
G1 X63.420 Y48.171 Z0.000 F1500
G1 X63.502 Y47.960 Z0.000 F1500
G1 X63.594 Y47.757 Z0.000 F1500
G1 X63.693 Y47.565 Z0.000 F1500
G1 X63.810 Y47.361 Z0.000 F1500
G1 X63.881 Y47.250 Z0.000 F1500
G1 X64.192 Y46.835 Z0.000 F1500
G1 X64.491 Y46.505 Z0.000 F1500
G1 X64.814 Y46.212 Z0.000 F1500
G1 X65.234 Y45.898 Z0.000 F1500
G1 X65.358 Y45.818 Z0.000 F1500
G1 X65.541 Y45.713 Z0.000 F1500
G1 X65.750 Y45.606 Z0.000 F1500
G1 X65.943 Y45.518 Z0.000 F1500
G1 X66.155 Y45.435 Z0.000 F1500
G1 X66.356 Y45.367 Z0.000 F1500
G1 X66.583 Y45.302 Z0.000 F1500
G1 X66.790 Y45.254 Z0.000 F1500
G1 X67.018 Y45.214 Z0.000 F1500
G1 X67.255 Y45.184 Z0.000 F1500
G1 X67.485 Y45.167 Z0.000 F1500
G1 X67.727 Y45.160 Z0.000 F1500
G1 X67.969 Y45.167 Z0.000 F1500
G1 X68.206 Y45.185 Z0.000 F1500
G1 X68.428 Y45.213 Z0.000 F1500
G1 X68.664 Y45.254 Z0.000 F1500
G1 X68.870 Y45.302 Z0.000 F1500
; --- FIX Y Backlash: 1.600mm ---
G0 X68.870 Y46.902 F800
G1 X69.089 Y46.965 Z0.000 F1500
G1 X69.311 Y47.040 Z0.000 F1500
G1 X69.506 Y47.116 Z0.000 F1500
G1 X69.710 Y47.209 Z0.000 F1500
G1 X69.910 Y47.311 Z0.000 F1500
G1 X70.093 Y47.417 Z0.000 F1500
G1 X70.220 Y47.498 Z0.000 F1500
G1 X70.639 Y47.812 Z0.000 F1500
G1 X70.962 Y48.105 Z0.000 F1500
G1 X71.262 Y48.435 Z0.000 F1500
G1 X71.572 Y48.850 Z0.000 F1500
G1 X71.649 Y48.969 Z0.000 F1500
G1 X71.756 Y49.156 Z0.000 F1500
G1 X71.860 Y49.358 Z0.000 F1500
G1 X71.951 Y49.560 Z0.000 F1500
G1 X72.032 Y49.767 Z0.000 F1500
G1 X72.104 Y49.979 Z0.000 F1500
G1 X72.165 Y50.191 Z0.000 F1500
G1 X72.216 Y50.415 Z0.000 F1500
G1 X72.255 Y50.635 Z0.000 F1500
G1 X72.285 Y50.868 Z0.000 F1500
G1 X72.303 Y51.100 Z0.000 F1500
G1 X72.309 Y51.342 Z0.000 F1500
G1 X72.303 Y51.584 Z0.000 F1500
G1 X72.285 Y51.815 Z0.000 F1500
G1 X72.256 Y52.044 Z0.000 F1500
G1 X72.214 Y52.279 Z0.000 F1500
G1 X72.166 Y52.489 Z0.000 F1500
; --- FIX X Backlash: -1.600mm ---
G0 X70.566 Y52.489 F800
G1 X70.504 Y52.709 Z0.000 F1500
G1 X70.432 Y52.918 Z0.000 F1500
G1 X70.354 Y53.119 Z0.000 F1500
G1 X70.258 Y53.329 Z0.000 F1500
G1 X70.156 Y53.528 Z0.000 F1500
G1 X70.050 Y53.712 Z0.000 F1500
G1 X69.972 Y53.834 Z0.000 F1500
G1 X69.662 Y54.250 Z0.000 F1500
G1 X69.363 Y54.578 Z0.000 F1500
G1 X69.034 Y54.877 Z0.000 F1500
G1 X68.619 Y55.188 Z0.000 F1500
G1 X68.497 Y55.266 Z0.000 F1500
G1 X68.310 Y55.374 Z0.000 F1500
G1 X68.116 Y55.473 Z0.000 F1500
G1 X67.904 Y55.568 Z0.000 F1500
G1 X67.703 Y55.647 Z0.000 F1500
G1 X67.494 Y55.719 Z0.000 F1500
G1 X67.274 Y55.781 Z0.000 F1500
G1 X67.064 Y55.830 Z0.000 F1500
G1 X66.829 Y55.872 Z0.000 F1500
G1 X66.600 Y55.900 Z0.000 F1500
G1 X66.369 Y55.918 Z0.000 F1500
G1 X66.127 Y55.924 Z0.000 F1500
G1 X65.885 Y55.918 Z0.000 F1500
G1 X65.653 Y55.900 Z0.000 F1500
G1 X65.425 Y55.872 Z0.000 F1500
G1 X65.190 Y55.830 Z0.000 F1500
G1 X64.980 Y55.781 Z0.000 F1500
; --- FIX Y Backlash: -1.600mm ---
G0 X64.980 Y54.181 F800
G1 X64.764 Y54.120 Z0.000 F1500
G1 X64.551 Y54.047 Z0.000 F1500
G1 X64.345 Y53.966 Z0.000 F1500
G1 X64.143 Y53.875 Z0.000 F1500
G1 X63.941 Y53.772 Z0.000 F1500
G1 X63.754 Y53.664 Z0.000 F1500
G1 X63.634 Y53.588 Z0.000 F1500
G1 X63.219 Y53.277 Z0.000 F1500
G1 X62.891 Y52.978 Z0.000 F1500
G1 X62.592 Y52.650 Z0.000 F1500
G1 X62.281 Y52.234 Z0.000 F1500
G1 X62.209 Y52.121 Z0.000 F1500
G1 X62.093 Y51.919 Z0.000 F1500
G1 X61.995 Y51.730 Z0.000 F1500
G1 X61.900 Y51.519 Z0.000 F1500
G1 X61.824 Y51.326 Z0.000 F1500
G1 X61.750 Y51.105 Z0.000 F1500
G0 Z3.5 F1500
G0 X60.756 Y48.629 Z3.500
G1 Z0 F1500
; --- FIX X Backlash: 1.600mm ---
G0 X62.356 Y48.629 F800
G1 X62.417 Y48.367 Z0.000 F1500
G1 X62.491 Y48.109 Z0.000 F1500
G1 X62.575 Y47.860 Z0.000 F1500
G1 X62.675 Y47.606 Z0.000 F1500
G1 X62.781 Y47.370 Z0.000 F1500
G1 X62.903 Y47.133 Z0.000 F1500
G1 X63.038 Y46.899 Z0.000 F1500
G1 X63.143 Y46.734 Z0.000 F1500
G1 X63.498 Y46.260 Z0.000 F1500
G1 X63.852 Y45.870 Z0.000 F1500
G1 X64.243 Y45.515 Z0.000 F1500
G1 X64.720 Y45.158 Z0.000 F1500
G1 X64.887 Y45.051 Z0.000 F1500
G1 X65.119 Y44.918 Z0.000 F1500
G1 X65.357 Y44.796 Z0.000 F1500
G1 X65.589 Y44.691 Z0.000 F1500
G1 X65.845 Y44.590 Z0.000 F1500
G1 X66.094 Y44.506 Z0.000 F1500
G1 X66.357 Y44.431 Z0.000 F1500
G1 X66.613 Y44.372 Z0.000 F1500
G1 X66.881 Y44.324 Z0.000 F1500
G1 X67.162 Y44.289 Z0.000 F1500
G1 X67.433 Y44.268 Z0.000 F1500
G1 X67.727 Y44.260 Z0.000 F1500
G1 X68.021 Y44.268 Z0.000 F1500
G1 X68.291 Y44.288 Z0.000 F1500
G1 X68.573 Y44.324 Z0.000 F1500
G1 X68.840 Y44.372 Z0.000 F1500
; --- FIX Y Backlash: 1.600mm ---
G0 X68.840 Y45.972 F800
G1 X69.097 Y46.031 Z0.000 F1500
G1 X69.361 Y46.106 Z0.000 F1500
G1 X69.616 Y46.192 Z0.000 F1500
G1 X69.856 Y46.287 Z0.000 F1500
G1 X70.098 Y46.396 Z0.000 F1500
G1 X70.335 Y46.518 Z0.000 F1500
G1 X70.564 Y46.650 Z0.000 F1500
G1 X70.733 Y46.758 Z0.000 F1500
G1 X71.211 Y47.115 Z0.000 F1500
G1 X71.602 Y47.470 Z0.000 F1500
G1 X71.956 Y47.860 Z0.000 F1500
G1 X72.311 Y48.334 Z0.000 F1500
G1 X72.417 Y48.500 Z0.000 F1500
G1 X72.552 Y48.734 Z0.000 F1500
G1 X72.671 Y48.968 Z0.000 F1500
G1 X72.779 Y49.206 Z0.000 F1500
G1 X72.880 Y49.462 Z0.000 F1500
G1 X72.962 Y49.706 Z0.000 F1500
G1 X73.037 Y49.969 Z0.000 F1500
G1 X73.097 Y50.229 Z0.000 F1500
G1 X73.146 Y50.500 Z0.000 F1500
G1 X73.181 Y50.782 Z0.000 F1500
G1 X73.202 Y51.048 Z0.000 F1500
G1 X73.209 Y51.342 Z0.000 F1500
G1 X73.202 Y51.637 Z0.000 F1500
G1 X73.181 Y51.901 Z0.000 F1500
G1 X73.145 Y52.189 Z0.000 F1500
G1 X73.097 Y52.455 Z0.000 F1500
; --- FIX X Backlash: -1.600mm ---
G0 X71.497 Y52.455 F800
G1 X71.439 Y52.710 Z0.000 F1500
G1 X71.362 Y52.979 Z0.000 F1500
G1 X71.277 Y53.229 Z0.000 F1500
G1 X71.182 Y53.470 Z0.000 F1500
G1 X71.070 Y53.720 Z0.000 F1500
G1 X70.952 Y53.950 Z0.000 F1500
G1 X70.818 Y54.182 Z0.000 F1500
G1 X70.711 Y54.350 Z0.000 F1500
G1 X70.356 Y54.824 Z0.000 F1500
G1 X70.000 Y55.215 Z0.000 F1500
G1 X69.608 Y55.571 Z0.000 F1500
G1 X69.135 Y55.926 Z0.000 F1500
G1 X68.966 Y56.034 Z0.000 F1500
G1 X68.735 Y56.167 Z0.000 F1500
G1 X68.503 Y56.286 Z0.000 F1500
G1 X68.255 Y56.397 Z0.000 F1500
G1 X68.014 Y56.493 Z0.000 F1500
G1 X67.764 Y56.577 Z0.000 F1500
G1 X67.495 Y56.654 Z0.000 F1500
G1 X67.240 Y56.712 Z0.000 F1500
G1 X66.974 Y56.760 Z0.000 F1500
G1 X66.686 Y56.796 Z0.000 F1500
G1 X66.421 Y56.817 Z0.000 F1500
G1 X66.127 Y56.824 Z0.000 F1500
G1 X65.833 Y56.817 Z0.000 F1500
G1 X65.567 Y56.796 Z0.000 F1500
G1 X65.281 Y56.760 Z0.000 F1500
G1 X65.013 Y56.712 Z0.000 F1500
; --- FIX Y Backlash: -1.600mm ---
G0 X65.013 Y55.112 F800
G1 X64.759 Y55.054 Z0.000 F1500
G1 X64.490 Y54.978 Z0.000 F1500
G1 X64.247 Y54.895 Z0.000 F1500
G1 X63.990 Y54.794 Z0.000 F1500
G1 X63.753 Y54.686 Z0.000 F1500
G1 X63.519 Y54.567 Z0.000 F1500
G1 X63.285 Y54.433 Z0.000 F1500
G1 X63.119 Y54.326 Z0.000 F1500
G1 X62.645 Y53.971 Z0.000 F1500
G1 X62.254 Y53.615 Z0.000 F1500
G1 X61.898 Y53.224 Z0.000 F1500
G1 X61.543 Y52.750 Z0.000 F1500
G1 X61.434 Y52.579 Z0.000 F1500
G1 X61.305 Y52.356 Z0.000 F1500
G1 X61.183 Y52.117 Z0.000 F1500
G1 X61.071 Y51.870 Z0.000 F1500
G1 X60.977 Y51.631 Z0.000 F1500
G1 X60.891 Y51.376 Z0.000 F1500
G1 X60.816 Y51.112 Z0.000 F1500
G1 X60.756 Y50.855 Z0.000 F1500
G1 X60.709 Y50.588 Z0.000 F1500
G1 X60.673 Y50.311 Z0.000 F1500
G1 X60.652 Y50.027 Z0.000 F1500
G1 X60.645 Y49.742 Z0.000 F1500
G1 X60.652 Y49.457 Z0.000 F1500
G1 X60.674 Y49.172 Z0.000 F1500
G1 X60.708 Y48.900 Z0.000 F1500
G1 X60.756 Y48.629 Z0.000 F1500
G0 Z3.5 F1500
; --- FIX X Backlash: 1.600mm ---
G0 X62.356 Y48.629 F800
G0 X62.805 Y45.684 Z3.500
G1 Z0 F1500
G1 X63.213 Y45.235 Z0.000 F1500
G1 X63.673 Y44.817 Z0.000 F1500
G1 X64.203 Y44.421 Z0.000 F1500
G1 X64.419 Y44.282 Z0.000 F1500
G1 X64.695 Y44.124 Z0.000 F1500
G1 X64.962 Y43.987 Z0.000 F1500
G1 X65.242 Y43.860 Z0.000 F1500
G1 X65.535 Y43.745 Z0.000 F1500
G1 X65.826 Y43.647 Z0.000 F1500
G1 X66.124 Y43.562 Z0.000 F1500
G1 X66.435 Y43.490 Z0.000 F1500
G1 X66.755 Y43.432 Z0.000 F1500
G1 X67.059 Y43.394 Z0.000 F1500
G1 X67.399 Y43.368 Z0.000 F1500
G1 X67.727 Y43.360 Z0.000 F1500
G1 X68.055 Y43.368 Z0.000 F1500
G1 X68.394 Y43.394 Z0.000 F1500
G1 X68.700 Y43.433 Z0.000 F1500
; --- FIX Y Backlash: 1.600mm ---
G0 X68.700 Y45.033 F800
G1 X69.019 Y45.090 Z0.000 F1500
G1 X69.330 Y45.162 Z0.000 F1500
G1 X69.626 Y45.246 Z0.000 F1500
G1 X69.920 Y45.345 Z0.000 F1500
G1 X70.212 Y45.460 Z0.000 F1500
G1 X70.493 Y45.587 Z0.000 F1500
G1 X70.769 Y45.729 Z0.000 F1500
G1 X71.024 Y45.875 Z0.000 F1500
G1 X71.251 Y46.021 Z0.000 F1500
G1 X71.780 Y46.417 Z0.000 F1500
G1 X72.241 Y46.835 Z0.000 F1500
G1 X72.648 Y47.284 Z0.000 F1500
G1 X73.051 Y47.822 Z0.000 F1500
G1 X73.188 Y48.035 Z0.000 F1500
G1 X73.346 Y48.310 Z0.000 F1500
G1 X73.482 Y48.577 Z0.000 F1500
G1 X73.608 Y48.854 Z0.000 F1500
G1 X73.723 Y49.146 Z0.000 F1500
G1 X73.826 Y49.449 Z0.000 F1500
G1 X73.908 Y49.739 Z0.000 F1500
G1 X73.980 Y50.054 Z0.000 F1500
G1 X74.036 Y50.365 Z0.000 F1500
G1 X74.076 Y50.677 Z0.000 F1500
G1 X74.101 Y51.015 Z0.000 F1500
G1 X74.109 Y51.342 Z0.000 F1500
G1 X74.101 Y51.670 Z0.000 F1500
G1 X74.076 Y52.006 Z0.000 F1500
G1 X74.037 Y52.313 Z0.000 F1500
; --- FIX X Backlash: -1.600mm ---
G0 X72.437 Y52.313 F800
G1 X72.379 Y52.634 Z0.000 F1500
G1 X72.306 Y52.949 Z0.000 F1500
G1 X72.225 Y53.235 Z0.000 F1500
G1 X72.124 Y53.536 Z0.000 F1500
G1 X72.009 Y53.826 Z0.000 F1500
G1 X71.879 Y54.114 Z0.000 F1500
G1 X71.741 Y54.383 Z0.000 F1500
G1 X71.594 Y54.639 Z0.000 F1500
G1 X71.451 Y54.862 Z0.000 F1500
G1 X71.048 Y55.400 Z0.000 F1500
G1 X70.637 Y55.853 Z0.000 F1500
G1 X70.185 Y56.264 Z0.000 F1500
G1 X69.647 Y56.666 Z0.000 F1500
G1 X69.424 Y56.809 Z0.000 F1500
G1 X69.169 Y56.956 Z0.000 F1500
G1 X68.893 Y57.097 Z0.000 F1500
G1 X68.615 Y57.223 Z0.000 F1500
G1 X68.322 Y57.338 Z0.000 F1500
G1 X68.020 Y57.440 Z0.000 F1500
G1 X67.734 Y57.521 Z0.000 F1500
G1 X67.419 Y57.594 Z0.000 F1500
G1 X67.098 Y57.652 Z0.000 F1500
G1 X66.791 Y57.691 Z0.000 F1500
G1 X66.455 Y57.716 Z0.000 F1500
G1 X66.127 Y57.725 Z0.000 F1500
G1 X65.799 Y57.716 Z0.000 F1500
G1 X65.462 Y57.691 Z0.000 F1500
G1 X65.157 Y57.652 Z0.000 F1500
; --- FIX Y Backlash: -1.600mm ---
G0 X65.157 Y56.052 F800
G1 X64.835 Y55.994 Z0.000 F1500
G1 X64.520 Y55.921 Z0.000 F1500
G1 X64.234 Y55.841 Z0.000 F1500
G1 X63.930 Y55.738 Z0.000 F1500
G1 X63.639 Y55.623 Z0.000 F1500
G1 X63.361 Y55.498 Z0.000 F1500
G1 X63.095 Y55.361 Z0.000 F1500
G1 X62.819 Y55.203 Z0.000 F1500
G1 X62.607 Y55.066 Z0.000 F1500
G1 X62.068 Y54.664 Z0.000 F1500
G1 X61.616 Y54.253 Z0.000 F1500
G1 X61.205 Y53.800 Z0.000 F1500
G1 X60.803 Y53.262 Z0.000 F1500
G1 X60.663 Y53.045 Z0.000 F1500
G1 X60.513 Y52.784 Z0.000 F1500
G1 X60.371 Y52.507 Z0.000 F1500
G1 X60.244 Y52.226 Z0.000 F1500
G1 X60.130 Y51.936 Z0.000 F1500
G1 X60.030 Y51.641 Z0.000 F1500
G1 X59.946 Y51.345 Z0.000 F1500
G1 X59.875 Y51.034 Z0.000 F1500
G1 X59.817 Y50.715 Z0.000 F1500
G1 X59.778 Y50.403 Z0.000 F1500
G1 X59.753 Y50.071 Z0.000 F1500
G1 X59.744 Y49.742 Z0.000 F1500
G1 X59.753 Y49.413 Z0.000 F1500
G1 X59.778 Y49.080 Z0.000 F1500
G1 X59.818 Y48.763 Z0.000 F1500
; --- FIX X Backlash: 1.600mm ---
G0 X61.418 Y48.763 F800
G1 X61.474 Y48.454 Z0.000 F1500
G1 X61.545 Y48.143 Z0.000 F1500
G1 X61.631 Y47.841 Z0.000 F1500
G1 X61.730 Y47.549 Z0.000 F1500
G1 X61.846 Y47.254 Z0.000 F1500
G1 X61.968 Y46.983 Z0.000 F1500
G1 X62.115 Y46.697 Z0.000 F1500
G1 X62.262 Y46.441 Z0.000 F1500
G1 X62.403 Y46.222 Z0.000 F1500
G1 X62.805 Y45.684 Z0.000 F1500
G0 Z3.5 F1500
G0 X64.575 Y43.174 Z3.500
G1 Z0 F1500
G1 X64.892 Y43.030 Z0.000 F1500
G1 X65.225 Y42.900 Z0.000 F1500
G1 X65.563 Y42.785 Z0.000 F1500
G1 X65.897 Y42.690 Z0.000 F1500
G1 X66.258 Y42.607 Z0.000 F1500
G1 X66.608 Y42.544 Z0.000 F1500
G1 X66.976 Y42.498 Z0.000 F1500
G1 X67.357 Y42.469 Z0.000 F1500
G1 X67.727 Y42.460 Z0.000 F1500
G1 X68.097 Y42.469 Z0.000 F1500
G1 X68.477 Y42.498 Z0.000 F1500
G1 X68.846 Y42.545 Z0.000 F1500
; --- FIX Y Backlash: 1.600mm ---
G0 X68.846 Y44.145 F800
G1 X69.196 Y44.207 Z0.000 F1500
G1 X69.556 Y44.290 Z0.000 F1500
G1 X69.888 Y44.384 Z0.000 F1500
G1 X70.233 Y44.501 Z0.000 F1500
G1 X70.559 Y44.629 Z0.000 F1500
G1 X70.884 Y44.777 Z0.000 F1500
G1 X71.194 Y44.935 Z0.000 F1500
G1 X71.500 Y45.112 Z0.000 F1500
G1 X71.762 Y45.279 Z0.000 F1500
G1 X72.357 Y45.725 Z0.000 F1500
G1 X72.873 Y46.193 Z0.000 F1500
G1 X73.345 Y46.712 Z0.000 F1500
G1 X73.794 Y47.313 Z0.000 F1500
G1 X73.953 Y47.561 Z0.000 F1500
G1 X74.133 Y47.873 Z0.000 F1500
G1 X74.293 Y48.186 Z0.000 F1500
G1 X74.438 Y48.508 Z0.000 F1500
G1 X74.570 Y48.842 Z0.000 F1500
G1 X74.683 Y49.176 Z0.000 F1500
G1 X74.780 Y49.516 Z0.000 F1500
G1 X74.861 Y49.870 Z0.000 F1500
G1 X74.925 Y50.229 Z0.000 F1500
G1 X74.972 Y50.591 Z0.000 F1500
G1 X75.000 Y50.973 Z0.000 F1500
G1 X75.010 Y51.342 Z0.000 F1500
G1 X75.000 Y51.712 Z0.000 F1500
G1 X74.972 Y52.093 Z0.000 F1500
G1 X74.925 Y52.458 Z0.000 F1500
; --- FIX X Backlash: -1.600mm ---
G0 X73.325 Y52.458 F800
G1 X73.262 Y52.811 Z0.000 F1500
G1 X73.179 Y53.170 Z0.000 F1500
G1 X73.084 Y53.506 Z0.000 F1500
G1 X72.968 Y53.848 Z0.000 F1500
G1 X72.838 Y54.177 Z0.000 F1500
G1 X72.694 Y54.496 Z0.000 F1500
G1 X72.532 Y54.813 Z0.000 F1500
G1 X72.355 Y55.121 Z0.000 F1500
G1 X72.194 Y55.371 Z0.000 F1500
G1 X71.745 Y55.972 Z0.000 F1500
G1 X71.275 Y56.490 Z0.000 F1500
G1 X70.756 Y56.960 Z0.000 F1500
G1 X70.155 Y57.410 Z0.000 F1500
G1 X69.905 Y57.570 Z0.000 F1500
G1 X69.594 Y57.750 Z0.000 F1500
G1 X69.288 Y57.906 Z0.000 F1500
G1 X68.958 Y58.055 Z0.000 F1500
G1 X68.632 Y58.184 Z0.000 F1500
G1 X68.291 Y58.299 Z0.000 F1500
G1 X67.955 Y58.395 Z0.000 F1500
G1 X67.596 Y58.477 Z0.000 F1500
G1 X67.242 Y58.541 Z0.000 F1500
G1 X66.878 Y58.587 Z0.000 F1500
G1 X66.497 Y58.616 Z0.000 F1500
G1 X66.127 Y58.625 Z0.000 F1500
G1 X65.757 Y58.616 Z0.000 F1500
G1 X65.376 Y58.587 Z0.000 F1500
G1 X65.011 Y58.541 Z0.000 F1500
; --- FIX Y Backlash: -1.600mm ---
G0 X65.011 Y56.941 F800
G1 X64.658 Y56.877 Z0.000 F1500
G1 X64.299 Y56.795 Z0.000 F1500
G1 X63.961 Y56.698 Z0.000 F1500
G1 X63.627 Y56.585 Z0.000 F1500
G1 X63.293 Y56.454 Z0.000 F1500
G1 X62.971 Y56.308 Z0.000 F1500
G1 X62.658 Y56.148 Z0.000 F1500
G1 X62.346 Y55.968 Z0.000 F1500
G1 X62.098 Y55.810 Z0.000 F1500
G1 X61.497 Y55.360 Z0.000 F1500
G1 X60.979 Y54.890 Z0.000 F1500
G1 X60.508 Y54.372 Z0.000 F1500
G1 X60.059 Y53.771 Z0.000 F1500
G1 X59.900 Y53.523 Z0.000 F1500
G1 X59.719 Y53.208 Z0.000 F1500
G1 X59.560 Y52.898 Z0.000 F1500
G1 X59.415 Y52.577 Z0.000 F1500
G1 X59.286 Y52.249 Z0.000 F1500
G1 X59.169 Y51.903 Z0.000 F1500
G1 X59.075 Y51.571 Z0.000 F1500
G1 X58.992 Y51.211 Z0.000 F1500
G1 X58.929 Y50.861 Z0.000 F1500
G1 X58.881 Y50.485 Z0.000 F1500
G1 X58.853 Y50.116 Z0.000 F1500
G1 X58.844 Y49.742 Z0.000 F1500
G1 X58.853 Y49.369 Z0.000 F1500
G1 X58.881 Y48.998 Z0.000 F1500
G1 X58.929 Y48.626 Z0.000 F1500
; --- FIX X Backlash: 1.600mm ---
G0 X60.529 Y48.626 F800
G1 X60.592 Y48.270 Z0.000 F1500
G1 X60.674 Y47.915 Z0.000 F1500
G1 X60.770 Y47.578 Z0.000 F1500
G1 X60.884 Y47.240 Z0.000 F1500
G1 X61.015 Y46.908 Z0.000 F1500
G1 X61.162 Y46.584 Z0.000 F1500
G1 X61.318 Y46.278 Z0.000 F1500
G1 X61.501 Y45.959 Z0.000 F1500
G1 X61.659 Y45.713 Z0.000 F1500
G1 X62.108 Y45.112 Z0.000 F1500
G1 X62.581 Y44.593 Z0.000 F1500
G1 X63.096 Y44.125 Z0.000 F1500
G1 X63.692 Y43.679 Z0.000 F1500
G1 X63.950 Y43.513 Z0.000 F1500
G1 X64.258 Y43.337 Z0.000 F1500
G1 X64.575 Y43.174 Z0.000 F1500
G0 Z3.5 F1500
G0 X67.305 Y41.570 Z3.500
G1 Z0 F1500
G1 X67.727 Y41.560 Z0.000 F1500
G1 X68.149 Y41.570 Z0.000 F1500
G1 X68.570 Y41.602 Z0.000 F1500
; --- FIX Y Backlash: 1.600mm ---
G0 X68.570 Y43.202 F800
G1 X68.974 Y43.253 Z0.000 F1500
G1 X69.382 Y43.326 Z0.000 F1500
G1 X69.771 Y43.416 Z0.000 F1500
G1 X70.162 Y43.527 Z0.000 F1500
G1 X70.547 Y43.657 Z0.000 F1500
G1 X70.910 Y43.800 Z0.000 F1500
G1 X71.271 Y43.964 Z0.000 F1500
G1 X71.631 Y44.148 Z0.000 F1500
G1 X71.968 Y44.342 Z0.000 F1500
G1 X72.271 Y44.536 Z0.000 F1500
G1 X72.929 Y45.028 Z0.000 F1500
G1 X73.512 Y45.558 Z0.000 F1500
G1 X74.040 Y46.138 Z0.000 F1500
G1 X74.533 Y46.798 Z0.000 F1500
G1 X74.726 Y47.100 Z0.000 F1500
G1 X74.924 Y47.444 Z0.000 F1500
G1 X75.104 Y47.795 Z0.000 F1500
G1 X75.268 Y48.157 Z0.000 F1500
G1 X75.413 Y48.525 Z0.000 F1500
G1 X75.543 Y48.911 Z0.000 F1500
G1 X75.652 Y49.295 Z0.000 F1500
G1 X75.744 Y49.692 Z0.000 F1500
G1 X75.816 Y50.093 Z0.000 F1500
G1 X75.867 Y50.496 Z0.000 F1500
G1 X75.899 Y50.920 Z0.000 F1500
G1 X75.910 Y51.342 Z0.000 F1500
G1 X75.899 Y51.765 Z0.000 F1500
G1 X75.867 Y52.187 Z0.000 F1500
; --- FIX X Backlash: -1.600mm ---
G0 X74.267 Y52.187 F800
G1 X74.216 Y52.584 Z0.000 F1500
G1 X74.143 Y52.998 Z0.000 F1500
G1 X74.052 Y53.391 Z0.000 F1500
G1 X73.942 Y53.779 Z0.000 F1500
G1 X73.815 Y54.155 Z0.000 F1500
G1 X73.669 Y54.524 Z0.000 F1500
G1 X73.504 Y54.890 Z0.000 F1500
G1 X73.321 Y55.246 Z0.000 F1500
G1 X73.130 Y55.578 Z0.000 F1500
G1 X72.933 Y55.886 Z0.000 F1500
G1 X72.440 Y56.546 Z0.000 F1500
G1 X71.912 Y57.127 Z0.000 F1500
G1 X71.331 Y57.655 Z0.000 F1500
G1 X70.671 Y58.148 Z0.000 F1500
G1 X70.363 Y58.346 Z0.000 F1500
G1 X70.031 Y58.537 Z0.000 F1500
G1 X69.674 Y58.719 Z0.000 F1500
G1 X69.310 Y58.884 Z0.000 F1500
G1 X68.940 Y59.030 Z0.000 F1500
G1 X68.564 Y59.157 Z0.000 F1500
G1 X68.176 Y59.267 Z0.000 F1500
G1 X67.782 Y59.358 Z0.000 F1500
G1 X67.369 Y59.432 Z0.000 F1500
G1 X66.972 Y59.482 Z0.000 F1500
G1 X66.549 Y59.515 Z0.000 F1500
G1 X66.127 Y59.525 Z0.000 F1500
G1 X65.705 Y59.515 Z0.000 F1500
G1 X65.281 Y59.482 Z0.000 F1500
G1 X64.885 Y59.432 Z0.000 F1500
; --- FIX Y Backlash: -1.600mm ---
G0 X64.885 Y57.832 F800
G1 X64.471 Y57.758 Z0.000 F1500
G1 X64.078 Y57.667 Z0.000 F1500
G1 X63.696 Y57.559 Z0.000 F1500
G1 X63.310 Y57.428 Z0.000 F1500
G1 X62.942 Y57.283 Z0.000 F1500
G1 X62.580 Y57.120 Z0.000 F1500
G1 X62.229 Y56.940 Z0.000 F1500
G1 X61.884 Y56.741 Z0.000 F1500
G1 X61.583 Y56.548 Z0.000 F1500
G1 X60.923 Y56.055 Z0.000 F1500
G1 X60.342 Y55.527 Z0.000 F1500
G1 X59.814 Y54.946 Z0.000 F1500
G1 X59.321 Y54.286 Z0.000 F1500
G1 X59.129 Y53.988 Z0.000 F1500
G1 X58.928 Y53.637 Z0.000 F1500
G1 X58.749 Y53.289 Z0.000 F1500
G1 X58.585 Y52.924 Z0.000 F1500
G1 X58.442 Y52.562 Z0.000 F1500
G1 X58.312 Y52.177 Z0.000 F1500
G1 X58.200 Y51.786 Z0.000 F1500
G1 X58.111 Y51.398 Z0.000 F1500
G1 X58.038 Y50.989 Z0.000 F1500
G1 X57.986 Y50.578 Z0.000 F1500
G1 X57.955 Y50.170 Z0.000 F1500
G1 X57.944 Y49.742 Z0.000 F1500
G1 X57.955 Y49.315 Z0.000 F1500
G1 X57.986 Y48.905 Z0.000 F1500
; --- FIX X Backlash: 1.600mm ---
G0 X59.586 Y48.905 F800
G1 X59.639 Y48.488 Z0.000 F1500
G1 X59.709 Y48.092 Z0.000 F1500
G1 X59.800 Y47.700 Z0.000 F1500
G1 X59.914 Y47.301 Z0.000 F1500
G1 X60.039 Y46.930 Z0.000 F1500
G1 X60.186 Y46.557 Z0.000 F1500
G1 X60.349 Y46.197 Z0.000 F1500
G1 X60.531 Y45.841 Z0.000 F1500
G1 X60.727 Y45.501 Z0.000 F1500
G1 X60.921 Y45.198 Z0.000 F1500
G1 X61.414 Y44.538 Z0.000 F1500
G1 X61.941 Y43.958 Z0.000 F1500
G1 X62.525 Y43.428 Z0.000 F1500
G1 X63.182 Y42.936 Z0.000 F1500
G1 X63.479 Y42.746 Z0.000 F1500
G1 X63.829 Y42.545 Z0.000 F1500
G1 X64.183 Y42.364 Z0.000 F1500
G1 X64.542 Y42.201 Z0.000 F1500
G1 X64.915 Y42.054 Z0.000 F1500
G1 X65.286 Y41.929 Z0.000 F1500
G1 X65.683 Y41.816 Z0.000 F1500
G1 X66.071 Y41.726 Z0.000 F1500
G1 X66.481 Y41.653 Z0.000 F1500
G1 X66.883 Y41.602 Z0.000 F1500
G1 X67.305 Y41.570 Z0.000 F1500
G0 Z3.5 F1500
G0 X70.436 Y41.069 Z3.500
G1 Z0 F1500
; --- FIX Y Backlash: 1.600mm ---
G0 X70.436 Y42.669 F800
G1 X70.852 Y42.810 Z0.000 F1500
G1 X71.257 Y42.970 Z0.000 F1500
G1 X71.663 Y43.153 Z0.000 F1500
G1 X72.057 Y43.354 Z0.000 F1500
G1 X72.439 Y43.575 Z0.000 F1500
G1 X72.781 Y43.794 Z0.000 F1500
G1 X73.503 Y44.334 Z0.000 F1500
G1 X74.149 Y44.921 Z0.000 F1500
G1 X74.739 Y45.570 Z0.000 F1500
G1 X75.268 Y46.277 Z0.000 F1500
G1 X75.499 Y46.638 Z0.000 F1500
G1 X75.716 Y47.016 Z0.000 F1500
G1 X75.916 Y47.405 Z0.000 F1500
G1 X76.095 Y47.803 Z0.000 F1500
G1 X76.260 Y48.221 Z0.000 F1500
G1 X76.400 Y48.635 Z0.000 F1500
G1 X76.525 Y49.075 Z0.000 F1500
G1 X76.625 Y49.510 Z0.000 F1500
G1 X76.706 Y49.956 Z0.000 F1500
G1 X76.763 Y50.410 Z0.000 F1500
G1 X76.799 Y50.877 Z0.000 F1500
G1 X76.811 Y51.342 Z0.000 F1500
G1 X76.799 Y51.808 Z0.000 F1500
G1 X76.763 Y52.273 Z0.000 F1500
; --- FIX X Backlash: -1.600mm ---
G0 X75.163 Y52.273 F800
G1 X75.105 Y52.729 Z0.000 F1500
G1 X75.026 Y53.172 Z0.000 F1500
G1 X74.925 Y53.611 Z0.000 F1500
G1 X74.799 Y54.052 Z0.000 F1500
G1 X74.659 Y54.466 Z0.000 F1500
G1 X74.500 Y54.872 Z0.000 F1500
G1 X74.313 Y55.284 Z0.000 F1500
G1 X74.117 Y55.667 Z0.000 F1500
G1 X73.899 Y56.047 Z0.000 F1500
G1 X73.668 Y56.407 Z0.000 F1500
G1 X73.139 Y57.114 Z0.000 F1500
G1 X72.548 Y57.764 Z0.000 F1500
G1 X71.899 Y58.354 Z0.000 F1500
G1 X71.192 Y58.883 Z0.000 F1500
G1 X70.832 Y59.114 Z0.000 F1500
G1 X70.457 Y59.330 Z0.000 F1500
G1 X70.060 Y59.533 Z0.000 F1500
G1 X69.661 Y59.713 Z0.000 F1500
G1 X69.251 Y59.875 Z0.000 F1500
G1 X68.837 Y60.015 Z0.000 F1500
G1 X68.396 Y60.140 Z0.000 F1500
G1 X67.957 Y60.241 Z0.000 F1500
G1 X67.514 Y60.320 Z0.000 F1500
G1 X67.058 Y60.378 Z0.000 F1500
G1 X66.592 Y60.414 Z0.000 F1500
G1 X66.127 Y60.426 Z0.000 F1500
G1 X65.662 Y60.414 Z0.000 F1500
G1 X65.195 Y60.378 Z0.000 F1500
; --- FIX Y Backlash: -1.600mm ---
G0 X65.195 Y58.778 F800
G1 X64.741 Y58.721 Z0.000 F1500
G1 X64.296 Y58.641 Z0.000 F1500
G1 X63.858 Y58.540 Z0.000 F1500
G1 X63.420 Y58.416 Z0.000 F1500
G1 X63.005 Y58.275 Z0.000 F1500
G1 X62.588 Y58.110 Z0.000 F1500
G1 X62.190 Y57.931 Z0.000 F1500
G1 X61.800 Y57.732 Z0.000 F1500
G1 X61.422 Y57.514 Z0.000 F1500
G1 X61.062 Y57.283 Z0.000 F1500
G1 X60.355 Y56.754 Z0.000 F1500
G1 X59.705 Y56.164 Z0.000 F1500
G1 X59.115 Y55.514 Z0.000 F1500
G1 X58.586 Y54.807 Z0.000 F1500
G1 X58.352 Y54.442 Z0.000 F1500
G1 X58.142 Y54.078 Z0.000 F1500
G1 X57.938 Y53.679 Z0.000 F1500
G1 X57.754 Y53.272 Z0.000 F1500
G1 X57.594 Y52.867 Z0.000 F1500
G1 X57.454 Y52.451 Z0.000 F1500
G1 X57.329 Y52.012 Z0.000 F1500
G1 X57.228 Y51.572 Z0.000 F1500
G1 X57.148 Y51.125 Z0.000 F1500
G1 X57.091 Y50.680 Z0.000 F1500
G1 X57.055 Y50.205 Z0.000 F1500
G1 X57.043 Y49.742 Z0.000 F1500
G1 X57.055 Y49.280 Z0.000 F1500
G1 X57.091 Y48.804 Z0.000 F1500
; --- FIX X Backlash: 1.600mm ---
G0 X58.691 Y48.804 F800
G1 X58.748 Y48.359 Z0.000 F1500
G1 X58.828 Y47.910 Z0.000 F1500
G1 X58.929 Y47.474 Z0.000 F1500
G1 X59.053 Y47.036 Z0.000 F1500
G1 X59.194 Y46.620 Z0.000 F1500
G1 X59.358 Y46.203 Z0.000 F1500
G1 X59.536 Y45.810 Z0.000 F1500
G1 X59.741 Y45.410 Z0.000 F1500
G1 X59.954 Y45.038 Z0.000 F1500
G1 X60.186 Y44.677 Z0.000 F1500
G1 X60.715 Y43.970 Z0.000 F1500
G1 X61.305 Y43.321 Z0.000 F1500
G1 X61.950 Y42.734 Z0.000 F1500
G1 X62.673 Y42.194 Z0.000 F1500
G1 X63.015 Y41.975 Z0.000 F1500
G1 X63.400 Y41.753 Z0.000 F1500
G1 X63.788 Y41.555 Z0.000 F1500
G1 X64.191 Y41.372 Z0.000 F1500
G1 X64.605 Y41.209 Z0.000 F1500
G1 X65.021 Y41.068 Z0.000 F1500
G1 X65.457 Y40.944 Z0.000 F1500
G1 X65.896 Y40.843 Z0.000 F1500
G1 X66.344 Y40.763 Z0.000 F1500
G1 X66.791 Y40.707 Z0.000 F1500
G1 X67.262 Y40.671 Z0.000 F1500
G1 X67.727 Y40.659 Z0.000 F1500
G1 X68.192 Y40.671 Z0.000 F1500
G1 X68.664 Y40.707 Z0.000 F1500
; --- FIX Y Backlash: 1.600mm ---
G0 X68.664 Y42.307 F800
G1 X69.110 Y42.363 Z0.000 F1500
G1 X69.557 Y42.443 Z0.000 F1500
G1 X69.997 Y42.544 Z0.000 F1500
G1 X70.436 Y42.669 Z0.000 F1500
G0 Z3.5 F1500
G0 X74.079 Y43.640 Z3.500
G1 Z0 F1500
G1 X74.784 Y44.281 Z0.000 F1500
G1 X75.431 Y44.993 Z0.000 F1500
G1 X76.014 Y45.772 Z0.000 F1500
G1 X76.262 Y46.160 Z0.000 F1500
G1 X76.506 Y46.583 Z0.000 F1500
G1 X76.727 Y47.014 Z0.000 F1500
G1 X76.928 Y47.460 Z0.000 F1500
G1 X77.103 Y47.904 Z0.000 F1500
G1 X77.264 Y48.379 Z0.000 F1500
G1 X77.396 Y48.845 Z0.000 F1500
G1 X77.508 Y49.333 Z0.000 F1500
G1 X77.596 Y49.820 Z0.000 F1500
G1 X77.659 Y50.315 Z0.000 F1500
G1 X77.697 Y50.825 Z0.000 F1500
G1 X77.710 Y51.342 Z0.000 F1500
G1 X77.697 Y51.859 Z0.000 F1500
G1 X77.659 Y52.369 Z0.000 F1500
; --- FIX X Backlash: -1.600mm ---
G0 X76.059 Y52.369 F800
G1 X75.997 Y52.855 Z0.000 F1500
G1 X75.907 Y53.359 Z0.000 F1500
G1 X75.796 Y53.841 Z0.000 F1500
G1 X75.663 Y54.308 Z0.000 F1500
G1 X75.505 Y54.774 Z0.000 F1500
G1 X75.325 Y55.231 Z0.000 F1500
G1 X75.128 Y55.667 Z0.000 F1500
G1 X74.902 Y56.109 Z0.000 F1500
G1 X74.667 Y56.517 Z0.000 F1500
G1 X74.414 Y56.912 Z0.000 F1500
G1 X73.831 Y57.691 Z0.000 F1500
G1 X73.186 Y58.401 Z0.000 F1500
G1 X72.476 Y59.046 Z0.000 F1500
G1 X71.696 Y59.629 Z0.000 F1500
G1 X71.301 Y59.882 Z0.000 F1500
G1 X70.890 Y60.119 Z0.000 F1500
G1 X70.459 Y60.340 Z0.000 F1500
G1 X70.012 Y60.542 Z0.000 F1500
G1 X69.559 Y60.720 Z0.000 F1500
G1 X69.093 Y60.878 Z0.000 F1500
G1 X68.626 Y61.011 Z0.000 F1500
G1 X68.144 Y61.122 Z0.000 F1500
G1 X67.640 Y61.212 Z0.000 F1500
G1 X67.154 Y61.274 Z0.000 F1500
G1 X66.644 Y61.313 Z0.000 F1500
G1 X66.127 Y61.326 Z0.000 F1500
G1 X65.610 Y61.313 Z0.000 F1500
G1 X65.100 Y61.274 Z0.000 F1500
; --- FIX Y Backlash: -1.600mm ---
G0 X65.100 Y59.674 F800
G1 X64.614 Y59.612 Z0.000 F1500
G1 X64.110 Y59.522 Z0.000 F1500
G1 X63.628 Y59.411 Z0.000 F1500
G1 X63.164 Y59.279 Z0.000 F1500
G1 X62.689 Y59.118 Z0.000 F1500
G1 X62.245 Y58.943 Z0.000 F1500
G1 X61.799 Y58.742 Z0.000 F1500
G1 X61.368 Y58.521 Z0.000 F1500
G1 X60.944 Y58.277 Z0.000 F1500
G1 X60.557 Y58.029 Z0.000 F1500
G1 X59.778 Y57.446 Z0.000 F1500
G1 X59.068 Y56.801 Z0.000 F1500
G1 X58.422 Y56.091 Z0.000 F1500
G1 X57.840 Y55.312 Z0.000 F1500
G1 X57.588 Y54.920 Z0.000 F1500
G1 X57.348 Y54.502 Z0.000 F1500
G1 X57.127 Y54.070 Z0.000 F1500
G1 X56.929 Y53.631 Z0.000 F1500
G1 X56.748 Y53.171 Z0.000 F1500
G1 X56.593 Y52.713 Z0.000 F1500
G1 X56.458 Y52.238 Z0.000 F1500
G1 X56.347 Y51.759 Z0.000 F1500
G1 X56.258 Y51.262 Z0.000 F1500
G1 X56.195 Y50.763 Z0.000 F1500
G1 X56.156 Y50.258 Z0.000 F1500
G1 X56.143 Y49.742 Z0.000 F1500
G1 X56.156 Y49.226 Z0.000 F1500
G1 X56.195 Y48.722 Z0.000 F1500
; --- FIX X Backlash: 1.600mm ---
G0 X57.795 Y48.722 F800
G1 X57.859 Y48.213 Z0.000 F1500
G1 X57.945 Y47.733 Z0.000 F1500
G1 X58.057 Y47.248 Z0.000 F1500
G1 X58.193 Y46.771 Z0.000 F1500
G1 X58.349 Y46.310 Z0.000 F1500
G1 X58.526 Y45.860 Z0.000 F1500
G1 X58.729 Y45.411 Z0.000 F1500
G1 X58.947 Y44.986 Z0.000 F1500
G1 X59.191 Y44.561 Z0.000 F1500
G1 X59.440 Y44.172 Z0.000 F1500
G1 X60.022 Y43.393 Z0.000 F1500
G1 X60.670 Y42.681 Z0.000 F1500
G1 X61.375 Y42.040 Z0.000 F1500
G1 X62.156 Y41.457 Z0.000 F1500
G1 X62.547 Y41.206 Z0.000 F1500
G1 X62.968 Y40.963 Z0.000 F1500
G1 X63.404 Y40.740 Z0.000 F1500
G1 X63.840 Y40.543 Z0.000 F1500
G1 X64.295 Y40.364 Z0.000 F1500
G1 X64.755 Y40.208 Z0.000 F1500
G1 X65.230 Y40.073 Z0.000 F1500
G1 X65.710 Y39.962 Z0.000 F1500
G1 X66.207 Y39.874 Z0.000 F1500
G1 X66.707 Y39.810 Z0.000 F1500
G1 X67.210 Y39.772 Z0.000 F1500
G1 X67.727 Y39.759 Z0.000 F1500
G1 X68.244 Y39.772 Z0.000 F1500
G1 X68.747 Y39.810 Z0.000 F1500
; --- FIX Y Backlash: 1.600mm ---
G0 X68.747 Y41.410 F800
G1 X69.247 Y41.474 Z0.000 F1500
G1 X69.744 Y41.562 Z0.000 F1500
G1 X70.223 Y41.673 Z0.000 F1500
G1 X70.698 Y41.808 Z0.000 F1500
G1 X71.156 Y41.963 Z0.000 F1500
G1 X71.616 Y42.144 Z0.000 F1500
G1 X72.054 Y42.342 Z0.000 F1500
G1 X72.490 Y42.565 Z0.000 F1500
G1 X72.899 Y42.801 Z0.000 F1500
G1 X73.298 Y43.057 Z0.000 F1500
G1 X74.079 Y43.640 Z0.000 F1500
G0 Z3.5 F1500
G0 X77.035 Y45.698 Z3.500
G1 Z0 F1500
G1 X77.297 Y46.154 Z0.000 F1500
G1 X77.538 Y46.624 Z0.000 F1500
G1 X77.755 Y47.105 Z0.000 F1500
G1 X77.950 Y47.600 Z0.000 F1500
G1 X78.122 Y48.105 Z0.000 F1500
G1 X78.268 Y48.622 Z0.000 F1500
G1 X78.390 Y49.149 Z0.000 F1500
G1 X78.485 Y49.685 Z0.000 F1500
G1 X78.555 Y50.229 Z0.000 F1500
G1 X78.597 Y50.782 Z0.000 F1500
G1 X78.611 Y51.342 Z0.000 F1500
G1 X78.597 Y51.902 Z0.000 F1500
G1 X78.555 Y52.455 Z0.000 F1500
; --- FIX X Backlash: -1.600mm ---
G0 X76.955 Y52.455 F800
G1 X76.885 Y53.000 Z0.000 F1500
G1 X76.790 Y53.536 Z0.000 F1500
G1 X76.668 Y54.062 Z0.000 F1500
G1 X76.522 Y54.579 Z0.000 F1500
G1 X76.350 Y55.084 Z0.000 F1500
G1 X76.155 Y55.579 Z0.000 F1500
G1 X75.938 Y56.061 Z0.000 F1500
G1 X75.697 Y56.530 Z0.000 F1500
G1 X75.435 Y56.986 Z0.000 F1500
G1 X75.152 Y57.427 Z0.000 F1500
G1 X74.525 Y58.265 Z0.000 F1500
G1 X73.823 Y59.038 Z0.000 F1500
G1 X73.050 Y59.741 Z0.000 F1500
G1 X72.212 Y60.367 Z0.000 F1500
G1 X71.771 Y60.650 Z0.000 F1500
G1 X71.315 Y60.913 Z0.000 F1500
G1 X70.845 Y61.153 Z0.000 F1500
G1 X70.363 Y61.371 Z0.000 F1500
G1 X69.869 Y61.565 Z0.000 F1500
G1 X69.363 Y61.737 Z0.000 F1500
G1 X68.847 Y61.883 Z0.000 F1500
G1 X68.320 Y62.005 Z0.000 F1500
G1 X67.784 Y62.101 Z0.000 F1500
G1 X67.240 Y62.170 Z0.000 F1500
G1 X66.687 Y62.212 Z0.000 F1500
G1 X66.127 Y62.226 Z0.000 F1500
G1 X65.567 Y62.212 Z0.000 F1500
G1 X65.014 Y62.170 Z0.000 F1500
; --- FIX Y Backlash: -1.600mm ---
G0 X65.014 Y60.570 F800
G1 X64.469 Y60.501 Z0.000 F1500
G1 X63.933 Y60.405 Z0.000 F1500
G1 X63.407 Y60.283 Z0.000 F1500
G1 X62.890 Y60.137 Z0.000 F1500
G1 X62.385 Y59.965 Z0.000 F1500
G1 X61.890 Y59.771 Z0.000 F1500
G1 X61.408 Y59.553 Z0.000 F1500
G1 X60.939 Y59.313 Z0.000 F1500
G1 X60.483 Y59.050 Z0.000 F1500
G1 X60.042 Y58.767 Z0.000 F1500
G1 X59.204 Y58.141 Z0.000 F1500
G1 X58.431 Y57.438 Z0.000 F1500
G1 X57.728 Y56.665 Z0.000 F1500
G1 X57.102 Y55.827 Z0.000 F1500
G1 X56.818 Y55.386 Z0.000 F1500
G1 X56.557 Y54.930 Z0.000 F1500
G1 X56.316 Y54.461 Z0.000 F1500
G1 X56.098 Y53.979 Z0.000 F1500
G1 X55.903 Y53.484 Z0.000 F1500
G1 X55.733 Y52.979 Z0.000 F1500
G1 X55.586 Y52.462 Z0.000 F1500
G1 X55.464 Y51.936 Z0.000 F1500
G1 X55.368 Y51.400 Z0.000 F1500
G1 X55.299 Y50.855 Z0.000 F1500
G1 X55.257 Y50.302 Z0.000 F1500
G1 X55.243 Y49.742 Z0.000 F1500
G1 X55.257 Y49.182 Z0.000 F1500
G1 X55.299 Y48.629 Z0.000 F1500
; --- FIX X Backlash: 1.600mm ---
G0 X56.899 Y48.629 F800
G1 X56.968 Y48.085 Z0.000 F1500
G1 X57.064 Y47.549 Z0.000 F1500
G1 X57.186 Y47.022 Z0.000 F1500
G1 X57.333 Y46.505 Z0.000 F1500
G1 X57.503 Y46.000 Z0.000 F1500
G1 X57.698 Y45.505 Z0.000 F1500
G1 X57.916 Y45.024 Z0.000 F1500
G1 X58.157 Y44.554 Z0.000 F1500
G1 X58.418 Y44.098 Z0.000 F1500
G1 X58.702 Y43.657 Z0.000 F1500
G1 X59.328 Y42.819 Z0.000 F1500
G1 X60.031 Y42.046 Z0.000 F1500
G1 X60.804 Y41.344 Z0.000 F1500
G1 X61.642 Y40.717 Z0.000 F1500
G1 X62.083 Y40.434 Z0.000 F1500
G1 X62.539 Y40.172 Z0.000 F1500
G1 X63.008 Y39.932 Z0.000 F1500
G1 X63.490 Y39.713 Z0.000 F1500
G1 X63.985 Y39.519 Z0.000 F1500
G1 X64.490 Y39.348 Z0.000 F1500
G1 X65.007 Y39.201 Z0.000 F1500
G1 X65.533 Y39.079 Z0.000 F1500
G1 X66.069 Y38.983 Z0.000 F1500
G1 X66.614 Y38.915 Z0.000 F1500
G1 X67.167 Y38.873 Z0.000 F1500
G1 X67.727 Y38.858 Z0.000 F1500
G1 X68.287 Y38.873 Z0.000 F1500
G1 X68.840 Y38.915 Z0.000 F1500
; --- FIX Y Backlash: 1.600mm ---
G0 X68.840 Y40.515 F800
G1 X69.384 Y40.583 Z0.000 F1500
G1 X69.920 Y40.679 Z0.000 F1500
G1 X70.447 Y40.801 Z0.000 F1500
G1 X70.963 Y40.948 Z0.000 F1500
G1 X71.469 Y41.119 Z0.000 F1500
G1 X71.963 Y41.313 Z0.000 F1500
G1 X72.445 Y41.532 Z0.000 F1500
G1 X72.915 Y41.772 Z0.000 F1500
G1 X73.371 Y42.034 Z0.000 F1500
G1 X73.812 Y42.317 Z0.000 F1500
G1 X74.650 Y42.944 Z0.000 F1500
G1 X75.423 Y43.646 Z0.000 F1500
G1 X76.125 Y44.419 Z0.000 F1500
G1 X76.752 Y45.257 Z0.000 F1500
G1 X77.035 Y45.698 Z0.000 F1500
;Cut @ 1500 mm/min, 80% power

M8
G0 Z3.5 F1500
G0 X88.680 Y50.442 Z3.500
G1 Z0 F1500
;Layer Red
; --- FIX X Backlash: -1.600mm ---
G0 X87.080 Y50.442 F800
G1 X86.727 Y50.850 Z0.000 F1500
G1 X86.393 Y51.275 Z0.000 F1500
G1 X86.080 Y51.716 Z0.000 F1500
G1 X85.787 Y52.172 Z0.000 F1500
G1 X85.517 Y52.642 Z0.000 F1500
G1 X85.268 Y53.127 Z0.000 F1500
G1 X85.043 Y53.625 Z0.000 F1500
G1 X84.842 Y54.135 Z0.000 F1500
G1 X84.665 Y54.658 Z0.000 F1500
G1 X84.514 Y55.191 Z0.000 F1500
G1 X84.388 Y55.735 Z0.000 F1500
G1 X84.289 Y56.288 Z0.000 F1500
G1 X84.218 Y56.851 Z0.000 F1500
G1 X84.175 Y57.422 Z0.000 F1500
G1 X84.160 Y58.000 Z0.000 F1500
G1 X84.175 Y58.578 Z0.000 F1500
G1 X84.218 Y59.149 Z0.000 F1500
; --- FIX X Backlash: 1.600mm ---
G0 X85.818 Y59.149 F800
G1 X85.889 Y59.712 Z0.000 F1500
G1 X85.988 Y60.265 Z0.000 F1500
G1 X86.114 Y60.809 Z0.000 F1500
G1 X86.265 Y61.342 Z0.000 F1500
G1 X86.442 Y61.865 Z0.000 F1500
G1 X86.643 Y62.375 Z0.000 F1500
G1 X86.868 Y62.873 Z0.000 F1500
G1 X87.117 Y63.358 Z0.000 F1500
G1 X87.387 Y63.828 Z0.000 F1500
G1 X87.680 Y64.284 Z0.000 F1500
G1 X87.993 Y64.725 Z0.000 F1500
G1 X88.327 Y65.150 Z0.000 F1500
G1 X88.680 Y65.558 Z0.000 F1500
G1 X89.052 Y65.948 Z0.000 F1500
G1 X89.442 Y66.320 Z0.000 F1500
G1 X89.850 Y66.673 Z0.000 F1500
G1 X90.275 Y67.007 Z0.000 F1500
G1 X90.716 Y67.320 Z0.000 F1500
G1 X91.172 Y67.613 Z0.000 F1500
G1 X91.642 Y67.883 Z0.000 F1500
G1 X92.127 Y68.132 Z0.000 F1500
G1 X92.625 Y68.357 Z0.000 F1500
G1 X93.135 Y68.558 Z0.000 F1500
G1 X93.658 Y68.735 Z0.000 F1500
G1 X94.191 Y68.886 Z0.000 F1500
G1 X94.735 Y69.012 Z0.000 F1500
G1 X95.288 Y69.111 Z0.000 F1500
G1 X95.851 Y69.182 Z0.000 F1500
G1 X96.422 Y69.225 Z0.000 F1500
G1 X97.000 Y69.240 Z0.000 F1500
G1 X97.578 Y69.225 Z0.000 F1500
G1 X98.149 Y69.182 Z0.000 F1500
; --- FIX Y Backlash: -1.600mm ---
G0 X98.149 Y67.582 F800
G1 X98.712 Y67.511 Z0.000 F1500
G1 X99.265 Y67.412 Z0.000 F1500
G1 X99.809 Y67.286 Z0.000 F1500
G1 X100.342 Y67.135 Z0.000 F1500
G1 X100.865 Y66.958 Z0.000 F1500
G1 X101.375 Y66.757 Z0.000 F1500
G1 X101.873 Y66.532 Z0.000 F1500
G1 X102.358 Y66.283 Z0.000 F1500
G1 X102.828 Y66.013 Z0.000 F1500
G1 X103.284 Y65.720 Z0.000 F1500
G1 X103.725 Y65.407 Z0.000 F1500
G1 X104.150 Y65.073 Z0.000 F1500
G1 X104.558 Y64.720 Z0.000 F1500
G1 X104.948 Y64.348 Z0.000 F1500
G1 X105.320 Y63.958 Z0.000 F1500
G1 X105.673 Y63.550 Z0.000 F1500
G1 X106.007 Y63.125 Z0.000 F1500
G1 X106.320 Y62.684 Z0.000 F1500
G1 X106.613 Y62.228 Z0.000 F1500
G1 X106.883 Y61.758 Z0.000 F1500
G1 X107.132 Y61.273 Z0.000 F1500
G1 X107.357 Y60.775 Z0.000 F1500
G1 X107.558 Y60.265 Z0.000 F1500
G1 X107.735 Y59.742 Z0.000 F1500
G1 X107.886 Y59.209 Z0.000 F1500
G1 X108.012 Y58.665 Z0.000 F1500
G1 X108.111 Y58.112 Z0.000 F1500
G1 X108.182 Y57.549 Z0.000 F1500
G1 X108.225 Y56.978 Z0.000 F1500
G1 X108.240 Y56.400 Z0.000 F1500
G1 X108.225 Y55.822 Z0.000 F1500
G1 X108.182 Y55.251 Z0.000 F1500
; --- FIX X Backlash: -1.600mm ---
G0 X106.582 Y55.251 F800
G1 X106.511 Y54.688 Z0.000 F1500
G1 X106.412 Y54.135 Z0.000 F1500
G1 X106.286 Y53.591 Z0.000 F1500
G1 X106.135 Y53.058 Z0.000 F1500
G1 X105.958 Y52.535 Z0.000 F1500
G1 X105.757 Y52.025 Z0.000 F1500
G1 X105.532 Y51.527 Z0.000 F1500
G1 X105.283 Y51.042 Z0.000 F1500
G1 X105.013 Y50.572 Z0.000 F1500
G1 X104.720 Y50.116 Z0.000 F1500
G1 X104.407 Y49.675 Z0.000 F1500
G1 X104.073 Y49.250 Z0.000 F1500
G1 X103.720 Y48.842 Z0.000 F1500
G1 X103.348 Y48.452 Z0.000 F1500
G1 X102.958 Y48.080 Z0.000 F1500
G1 X102.550 Y47.727 Z0.000 F1500
G1 X102.125 Y47.393 Z0.000 F1500
G1 X101.684 Y47.080 Z0.000 F1500
G1 X101.228 Y46.787 Z0.000 F1500
G1 X100.758 Y46.517 Z0.000 F1500
G1 X100.273 Y46.268 Z0.000 F1500
G1 X99.775 Y46.043 Z0.000 F1500
G1 X99.265 Y45.842 Z0.000 F1500
G1 X98.742 Y45.665 Z0.000 F1500
G1 X98.209 Y45.514 Z0.000 F1500
G1 X97.665 Y45.388 Z0.000 F1500
G1 X97.112 Y45.289 Z0.000 F1500
G1 X96.549 Y45.218 Z0.000 F1500
G1 X95.978 Y45.175 Z0.000 F1500
G1 X95.400 Y45.160 Z0.000 F1500
G1 X94.822 Y45.175 Z0.000 F1500
G1 X94.251 Y45.218 Z0.000 F1500
; --- FIX Y Backlash: 1.600mm ---
G0 X94.251 Y46.818 F800
G1 X93.688 Y46.889 Z0.000 F1500
G1 X93.135 Y46.988 Z0.000 F1500
G1 X92.591 Y47.114 Z0.000 F1500
G1 X92.058 Y47.265 Z0.000 F1500
G1 X91.535 Y47.442 Z0.000 F1500
G1 X91.025 Y47.643 Z0.000 F1500
G1 X90.527 Y47.868 Z0.000 F1500
G1 X90.042 Y48.117 Z0.000 F1500
G1 X89.572 Y48.387 Z0.000 F1500
G1 X89.116 Y48.680 Z0.000 F1500
G1 X88.675 Y48.993 Z0.000 F1500
G1 X88.250 Y49.327 Z0.000 F1500
G1 X87.842 Y49.680 Z0.000 F1500
G1 X87.452 Y50.052 Z0.000 F1500
G1 X87.080 Y50.442 Z0.000 F1500
M9
M5
G1 Z10 F1500
G90
G1 Z10 F1500


M2 ; End of G-code