G90 ; Absolute positioning
G21 ; Millimeters

G0 Z10 F500;      ; Move to clearance level - Z motion limited to 500
; G0 X-10 Y-10 F1200; Homing
; G0 X-5 Y-5 F1200; go in
; G10 P0 L20 X0 Y0; set to zero
G1 F1200;           ; Set feed rate to 1000
;LightBurn 1.6.04
;Custom GCode device profile, absolute coords
;Bounds: X12 Y46.94 to X73.99 Y115.99
G00 G17 G40 G21 G54
G90
M4
;Cut @ 1500 mm/min, 90% power

M8

; Washing sequence (no color)
G1 Z10 F1000;        ; Raise brush to safe height
G0 X5.000 Y5.000
G1 Z-1 F800;         ; Lower brush for cleaning - controlled movement
G1 X10.000 Y12.000 Z8.000 F1200
G1 Z-1 F800;         ; Lower brush for cleaning - controlled movement
G1 X25.000 Y14.000 Z6.000 F800
G1 Z8 F800;         ; Maintain brush height - controlled movement
; --- FIX X Backlash: -0.700mm ---
G0 X24.300 Y14.000 F200
; --- FIX Y Backlash: -0.800mm ---
G0 X24.300 Y13.200 F200
G0 X4.300 Y4.200
G1 Z-1 F800;         ; Lower brush for cleaning - controlled movement
; --- FIX X Backlash: 0.700mm ---
G0 X5.000 Y4.200 F200
; --- FIX Y Backlash: 0.800mm ---
G0 X5.000 Y5.000 F200
G1 X15.000 Y12.000 Z8.000 F1200
G1 Z-1 F800;         ; Lower brush for cleaning - controlled movement
G1 X25.000 Y14.000 Z6.000 F800
G1 Z10 F800;         ; Maintain brush height - controlled movement
G1 F1200;           ; Set feed rate to 1000

; Color picking sequence
G1 Z10 F1000;         ; Raise brush to safe height
; --- FIX Y Backlash: -0.800mm ---
G0 X25.000 Y13.200 F200
G0 X86.000 Y4.200
G1 Z0 F1000;         ; Lower into color - controlled movement
; --- FIX X Backlash: -0.700mm ---
G0 X85.300 Y4.200 F200
; --- FIX Y Backlash: 0.800mm ---
G0 X85.300 Y5.000 F200
G1 X84.402 Y7.295 Z0.000 F1200
G1 X84.326 Y7.642 Z0.000 F1200
G1 X84.300 Y8.000 Z0.000 F1200
G1 X84.326 Y8.358 Z0.000 F1200
; --- FIX X Backlash: 0.700mm ---
G0 X85.026 Y8.358 F200
G1 X85.102 Y8.705 Z0.000 F1200
G1 X85.225 Y9.041 Z0.000 F1200
G1 X85.393 Y9.362 Z0.000 F1200
G1 X85.603 Y9.668 Z0.000 F1200
G1 X85.854 Y9.957 Z0.000 F1200
G1 X86.142 Y10.226 Z0.000 F1200
G1 X86.464 Y10.475 Z0.000 F1200
G1 X86.820 Y10.701 Z0.000 F1200
G1 X87.204 Y10.902 Z0.000 F1200
G1 X87.617 Y11.078 Z0.000 F1200
G1 X88.054 Y11.225 Z0.000 F1200
G1 X88.513 Y11.343 Z0.000 F1200
G1 X88.992 Y11.429 Z0.000 F1200
G1 X89.489 Y11.482 Z0.000 F1200
G1 X90.000 Y11.500 Z0.000 F1200
G1 X90.511 Y11.482 Z0.000 F1200
; --- FIX Y Backlash: -0.800mm ---
G0 X90.511 Y10.682 F200
G1 X91.008 Y10.629 Z0.000 F1200
G1 X91.487 Y10.543 Z0.000 F1200
G1 X91.946 Y10.425 Z0.000 F1200
G1 X92.383 Y10.278 Z0.000 F1200
G1 X92.796 Y10.102 Z0.000 F1200
G1 X93.180 Y9.901 Z0.000 F1200
G1 X93.536 Y9.675 Z0.000 F1200
G1 X93.858 Y9.426 Z0.000 F1200
G1 X94.146 Y9.157 Z0.000 F1200
G1 X94.397 Y8.868 Z0.000 F1200
G1 X94.607 Y8.562 Z0.000 F1200
G1 X94.775 Y8.241 Z0.000 F1200
G1 X94.898 Y7.905 Z0.000 F1200
G1 X94.974 Y7.558 Z0.000 F1200
G1 X95.000 Y7.200 Z0.000 F1200
G1 X94.974 Y6.842 Z0.000 F1200
; --- FIX X Backlash: -0.700mm ---
G0 X94.274 Y6.842 F200
G1 X94.198 Y6.495 Z0.000 F1200
G1 X94.075 Y6.159 Z0.000 F1200
G1 X93.907 Y5.838 Z0.000 F1200
G1 X93.697 Y5.532 Z0.000 F1200
G1 X93.446 Y5.243 Z0.000 F1200
G1 X93.158 Y4.974 Z0.000 F1200
G1 X92.836 Y4.725 Z0.000 F1200
G1 X92.480 Y4.499 Z0.000 F1200
G1 X92.096 Y4.298 Z0.000 F1200
G1 X91.683 Y4.122 Z0.000 F1200
G1 X91.246 Y3.975 Z0.000 F1200
G1 X90.787 Y3.857 Z0.000 F1200
G1 X90.308 Y3.771 Z0.000 F1200
G1 X89.811 Y3.718 Z0.000 F1200
G1 X89.300 Y3.700 Z0.000 F1200
G1 X88.789 Y3.718 Z0.000 F1200
; --- FIX Y Backlash: 0.800mm ---
G0 X88.789 Y4.518 F200
G1 X88.292 Y4.571 Z0.000 F1200
G1 X87.813 Y4.657 Z0.000 F1200
G1 X87.354 Y4.775 Z0.000 F1200
G1 X86.917 Y4.922 Z0.000 F1200
G1 X86.504 Y5.098 Z0.000 F1200
G1 X86.120 Y5.299 Z0.000 F1200
G1 X85.764 Y5.525 Z0.000 F1200
G1 X85.442 Y5.774 Z0.000 F1200
G1 X85.154 Y6.043 Z0.000 F1200
G1 X84.903 Y6.332 Z0.000 F1200
G1 X84.693 Y6.638 Z0.000 F1200
G1 X84.525 Y6.959 Z0.000 F1200
G1 Z7 F800;         ; Raise from color - controlled movement
G1 X78.300 Y8.000 Z1.000 F1200
G1 X68.300 Y18.000 Z8.000 F500
G1 F1200;           ; Set feed rate to 1000
G0 Z3.5 F1000
G0 X28.550 Y46.938 Z3.500
G1 Z0 F1000
;Layer C2
G1 X22.300 Y53.000 Z0.000 F1000
; --- FIX X Backlash: 0.700mm ---
G0 X23.000 Y53.000 F200
G1 X29.250 Y59.062 Z0.000 F1000
G1 X41.750 Y59.062 Z0.000 F1000
; --- FIX Y Backlash: -0.800mm ---
G0 X41.750 Y58.262 F200
G1 X48.000 Y52.200 Z0.000 F1000
; --- FIX X Backlash: -0.700mm ---
G0 X47.300 Y52.200 F200
G1 X41.050 Y46.138 Z0.000 F1000
G1 X28.550 Y46.138 Z0.000 F1000
;Cut @ 1500 mm/min, 80% power

M8

; Washing sequence (no color)
G1 Z10 F1000;        ; Raise brush to safe height
G0 X4.300 Y4.200
G1 Z-1 F800;         ; Lower brush for cleaning - controlled movement
; --- FIX X Backlash: 0.700mm ---
G0 X5.000 Y4.200 F200
; --- FIX Y Backlash: 0.800mm ---
G0 X5.000 Y5.000 F200
G1 X10.000 Y12.000 Z8.000 F1200
G1 Z-1 F800;         ; Lower brush for cleaning - controlled movement
G1 X25.000 Y14.000 Z6.000 F800
G1 Z8 F800;         ; Maintain brush height - controlled movement
; --- FIX X Backlash: -0.700mm ---
G0 X24.300 Y14.000 F200
; --- FIX Y Backlash: -0.800mm ---
G0 X24.300 Y13.200 F200
G0 X4.300 Y4.200
G1 Z-1 F800;         ; Lower brush for cleaning - controlled movement
; --- FIX X Backlash: 0.700mm ---
G0 X5.000 Y4.200 F200
; --- FIX Y Backlash: 0.800mm ---
G0 X5.000 Y5.000 F200
G1 X15.000 Y12.000 Z8.000 F1200
G1 Z-1 F800;         ; Lower brush for cleaning - controlled movement
G1 X25.000 Y14.000 Z6.000 F800
G1 Z10 F800;         ; Maintain brush height - controlled movement
G1 F1200;           ; Set feed rate to 1000

; Color picking sequence
G1 Z10 F1000;         ; Raise brush to safe height
; --- FIX Y Backlash: -0.800mm ---
G0 X25.000 Y13.200 F200
G0 X41.000 Y4.200
G1 Z0 F1000;         ; Lower into color - controlled movement
; --- FIX X Backlash: -0.700mm ---
G0 X40.300 Y4.200 F200
; --- FIX Y Backlash: 0.800mm ---
G0 X40.300 Y5.000 F200
G1 X39.402 Y7.295 Z0.000 F1200
G1 X39.326 Y7.642 Z0.000 F1200
G1 X39.300 Y8.000 Z0.000 F1200
G1 X39.326 Y8.358 Z0.000 F1200
; --- FIX X Backlash: 0.700mm ---
G0 X40.026 Y8.358 F200
G1 X40.102 Y8.705 Z0.000 F1200
G1 X40.225 Y9.041 Z0.000 F1200
G1 X40.393 Y9.362 Z0.000 F1200
G1 X40.603 Y9.668 Z0.000 F1200
G1 X40.854 Y9.957 Z0.000 F1200
G1 X41.142 Y10.226 Z0.000 F1200
G1 X41.464 Y10.475 Z0.000 F1200
G1 X41.820 Y10.701 Z0.000 F1200
G1 X42.204 Y10.902 Z0.000 F1200
G1 X42.617 Y11.078 Z0.000 F1200
G1 X43.054 Y11.225 Z0.000 F1200
G1 X43.513 Y11.343 Z0.000 F1200
G1 X43.992 Y11.429 Z0.000 F1200
G1 X44.489 Y11.482 Z0.000 F1200
G1 X45.000 Y11.500 Z0.000 F1200
G1 X45.511 Y11.482 Z0.000 F1200
; --- FIX Y Backlash: -0.800mm ---
G0 X45.511 Y10.682 F200
G1 X46.008 Y10.629 Z0.000 F1200
G1 X46.487 Y10.543 Z0.000 F1200
G1 X46.946 Y10.425 Z0.000 F1200
G1 X47.383 Y10.278 Z0.000 F1200
G1 X47.796 Y10.102 Z0.000 F1200
G1 X48.180 Y9.901 Z0.000 F1200
G1 X48.536 Y9.675 Z0.000 F1200
G1 X48.858 Y9.426 Z0.000 F1200
G1 X49.146 Y9.157 Z0.000 F1200
G1 X49.397 Y8.868 Z0.000 F1200
G1 X49.607 Y8.562 Z0.000 F1200
G1 X49.775 Y8.241 Z0.000 F1200
G1 X49.898 Y7.905 Z0.000 F1200
G1 X49.974 Y7.558 Z0.000 F1200
G1 X50.000 Y7.200 Z0.000 F1200
G1 X49.974 Y6.842 Z0.000 F1200
; --- FIX X Backlash: -0.700mm ---
G0 X49.274 Y6.842 F200
G1 X49.198 Y6.495 Z0.000 F1200
G1 X49.075 Y6.159 Z0.000 F1200
G1 X48.907 Y5.838 Z0.000 F1200
G1 X48.697 Y5.532 Z0.000 F1200
G1 X48.446 Y5.243 Z0.000 F1200
G1 X48.158 Y4.974 Z0.000 F1200
G1 X47.836 Y4.725 Z0.000 F1200
G1 X47.480 Y4.499 Z0.000 F1200
G1 X47.096 Y4.298 Z0.000 F1200
G1 X46.683 Y4.122 Z0.000 F1200
G1 X46.246 Y3.975 Z0.000 F1200
G1 X45.787 Y3.857 Z0.000 F1200
G1 X45.308 Y3.771 Z0.000 F1200
G1 X44.811 Y3.718 Z0.000 F1200
G1 X44.300 Y3.700 Z0.000 F1200
G1 X43.789 Y3.718 Z0.000 F1200
; --- FIX Y Backlash: 0.800mm ---
G0 X43.789 Y4.518 F200
G1 X43.292 Y4.571 Z0.000 F1200
G1 X42.813 Y4.657 Z0.000 F1200
G1 X42.354 Y4.775 Z0.000 F1200
G1 X41.917 Y4.922 Z0.000 F1200
G1 X41.504 Y5.098 Z0.000 F1200
G1 X41.120 Y5.299 Z0.000 F1200
G1 X40.764 Y5.525 Z0.000 F1200
G1 X40.442 Y5.774 Z0.000 F1200
G1 X40.154 Y6.043 Z0.000 F1200
G1 X39.903 Y6.332 Z0.000 F1200
G1 X39.693 Y6.638 Z0.000 F1200
G1 X39.525 Y6.959 Z0.000 F1200
G1 Z7 F800;         ; Raise from color - controlled movement
G1 X33.300 Y8.000 Z1.000 F1200
G1 X23.300 Y18.000 Z8.000 F500
G1 F1200;           ; Set feed rate to 1000
G0 Z3.5 F1000
; --- FIX X Backlash: 0.700mm ---
G0 X24.000 Y18.000 F200
G0 X50.745 Y76.051 Z3.500
G1 Z0 F1000
;Layer C1
; --- FIX X Backlash: -0.700mm ---
G0 X50.045 Y76.051 F200
G1 X33.497 Y85.009 Z0.000 F1000
G1 X33.474 Y99.179 Z0.000 F1000
G0 Z3.5 F1000
G0 X33.428 Y99.176 Z3.500
G1 Z0 F1000
; --- FIX X Backlash: 0.700mm ---
G0 X34.128 Y99.176 F200
G1 X48.769 Y106.767 Z0.000 F1000
; --- FIX Y Backlash: -0.800mm ---
G0 X48.769 Y105.967 F200
G1 X63.434 Y100.033 Z0.000 F1000
; --- FIX X Backlash: -0.700mm ---
G0 X62.734 Y100.033 F200
G1 X50.304 Y90.657 Z0.000 F1000
; --- FIX Y Backlash: 0.800mm ---
G0 X50.304 Y91.457 F200
G1 X33.428 Y99.176 Z0.000 F1000
G0 Z3.5 F1000
; --- FIX X Backlash: 0.700mm ---
G0 X34.128 Y99.176 F200
; --- FIX Y Backlash: -0.800mm ---
G0 X34.128 Y98.376 F200
G0 X50.905 Y90.816 Z3.500
G1 Z0 F1000
G1 X50.905 Y75.260 Z0.000 F1000
; --- FIX Y Backlash: 0.800mm ---
G0 X50.905 Y76.060 F200
G1 X63.363 Y86.726 Z0.000 F1000
G1 X63.383 Y100.777 Z0.000 F1000
G0 Z3.5 F1000
G0 X70.970 Y102.910 Z3.500
G1 Z0 F1000
; --- FIX X Backlash: -0.700mm ---
G0 X70.270 Y102.910 F200
G1 X69.669 Y103.956 Z0.000 F1000
G1 X69.019 Y104.970 Z0.000 F1000
G1 X68.322 Y105.950 Z0.000 F1000
G1 X67.580 Y106.893 Z0.000 F1000
G1 X66.795 Y107.800 Z0.000 F1000
G1 X65.968 Y108.668 Z0.000 F1000
G1 X65.100 Y109.495 Z0.000 F1000
G1 X64.193 Y110.280 Z0.000 F1000
G1 X63.250 Y111.022 Z0.000 F1000
G1 X62.270 Y111.719 Z0.000 F1000
G1 X61.256 Y112.369 Z0.000 F1000
G1 X60.210 Y112.970 Z0.000 F1000
G1 X59.132 Y113.522 Z0.000 F1000
G1 X58.026 Y114.023 Z0.000 F1000
G1 X56.891 Y114.470 Z0.000 F1000
G1 X55.730 Y114.863 Z0.000 F1000
G1 X54.544 Y115.199 Z0.000 F1000
G1 X53.336 Y115.478 Z0.000 F1000
G1 X52.105 Y115.698 Z0.000 F1000
G1 X50.855 Y115.857 Z0.000 F1000
G1 X49.586 Y115.954 Z0.000 F1000
G1 X48.300 Y115.986 Z0.000 F1000
G1 X47.014 Y115.954 Z0.000 F1000
; --- FIX Y Backlash: -0.800mm ---
G0 X47.014 Y115.154 F200
G1 X45.745 Y115.057 Z0.000 F1000
G1 X44.495 Y114.898 Z0.000 F1000
G1 X43.264 Y114.678 Z0.000 F1000
G1 X42.056 Y114.399 Z0.000 F1000
G1 X40.870 Y114.063 Z0.000 F1000
G1 X39.709 Y113.670 Z0.000 F1000
G1 X38.574 Y113.223 Z0.000 F1000
G1 X37.468 Y112.722 Z0.000 F1000
G1 X36.390 Y112.170 Z0.000 F1000
G1 X35.344 Y111.569 Z0.000 F1000
G1 X34.330 Y110.919 Z0.000 F1000
G1 X33.350 Y110.222 Z0.000 F1000
G1 X32.407 Y109.480 Z0.000 F1000
G1 X31.500 Y108.695 Z0.000 F1000
G1 X30.632 Y107.868 Z0.000 F1000
G1 X29.805 Y107.000 Z0.000 F1000
G1 X29.020 Y106.093 Z0.000 F1000
G1 X28.278 Y105.150 Z0.000 F1000
G1 X27.581 Y104.170 Z0.000 F1000
G1 X26.931 Y103.156 Z0.000 F1000
G1 X26.330 Y102.110 Z0.000 F1000
G1 X25.778 Y101.032 Z0.000 F1000
G1 X25.277 Y99.926 Z0.000 F1000
G1 X24.830 Y98.791 Z0.000 F1000
G1 X24.437 Y97.630 Z0.000 F1000
G1 X24.101 Y96.444 Z0.000 F1000
G1 X23.822 Y95.236 Z0.000 F1000
G1 X23.602 Y94.005 Z0.000 F1000
G1 X23.443 Y92.755 Z0.000 F1000
G1 X23.346 Y91.486 Z0.000 F1000
G1 X23.314 Y90.200 Z0.000 F1000
G1 X23.346 Y88.914 Z0.000 F1000
; --- FIX X Backlash: 0.700mm ---
G0 X24.046 Y88.914 F200
G1 X24.143 Y87.645 Z0.000 F1000
G1 X24.302 Y86.395 Z0.000 F1000
G1 X24.522 Y85.164 Z0.000 F1000
G1 X24.801 Y83.956 Z0.000 F1000
G1 X25.137 Y82.770 Z0.000 F1000
G1 X25.530 Y81.609 Z0.000 F1000
G1 X25.977 Y80.474 Z0.000 F1000
G1 X26.478 Y79.368 Z0.000 F1000
G1 X27.030 Y78.290 Z0.000 F1000
G1 X27.631 Y77.244 Z0.000 F1000
G1 X28.281 Y76.230 Z0.000 F1000
G1 X28.978 Y75.250 Z0.000 F1000
G1 X29.720 Y74.307 Z0.000 F1000
G1 X30.505 Y73.400 Z0.000 F1000
G1 X31.332 Y72.532 Z0.000 F1000
G1 X32.200 Y71.705 Z0.000 F1000
G1 X33.107 Y70.920 Z0.000 F1000
G1 X34.050 Y70.178 Z0.000 F1000
G1 X35.030 Y69.481 Z0.000 F1000
G1 X36.044 Y68.831 Z0.000 F1000
G1 X37.090 Y68.230 Z0.000 F1000
G1 X38.168 Y67.678 Z0.000 F1000
G1 X39.274 Y67.177 Z0.000 F1000
G1 X40.409 Y66.730 Z0.000 F1000
G1 X41.570 Y66.337 Z0.000 F1000
G1 X42.756 Y66.001 Z0.000 F1000
G1 X43.964 Y65.722 Z0.000 F1000
G1 X45.195 Y65.502 Z0.000 F1000
G1 X46.445 Y65.343 Z0.000 F1000
G1 X47.714 Y65.246 Z0.000 F1000
G1 X49.000 Y65.214 Z0.000 F1000
G1 X50.286 Y65.246 Z0.000 F1000
; --- FIX Y Backlash: 0.800mm ---
G0 X50.286 Y66.046 F200
G1 X51.555 Y66.143 Z0.000 F1000
G1 X52.805 Y66.302 Z0.000 F1000
G1 X54.036 Y66.522 Z0.000 F1000
G1 X55.244 Y66.801 Z0.000 F1000
G1 X56.430 Y67.137 Z0.000 F1000
G1 X57.591 Y67.530 Z0.000 F1000
G1 X58.726 Y67.977 Z0.000 F1000
G1 X59.832 Y68.478 Z0.000 F1000
G1 X60.910 Y69.030 Z0.000 F1000
G1 X61.956 Y69.631 Z0.000 F1000
G1 X62.970 Y70.281 Z0.000 F1000
G1 X63.950 Y70.978 Z0.000 F1000
G1 X64.893 Y71.720 Z0.000 F1000
G1 X65.800 Y72.505 Z0.000 F1000
G1 X66.668 Y73.332 Z0.000 F1000
G1 X67.495 Y74.200 Z0.000 F1000
G1 X68.280 Y75.107 Z0.000 F1000
G1 X69.022 Y76.050 Z0.000 F1000
G1 X69.719 Y77.030 Z0.000 F1000
G1 X70.369 Y78.044 Z0.000 F1000
G1 X70.970 Y79.090 Z0.000 F1000
G1 X71.522 Y80.168 Z0.000 F1000
G1 X72.023 Y81.274 Z0.000 F1000
G1 X72.470 Y82.409 Z0.000 F1000
G1 X72.863 Y83.570 Z0.000 F1000
G1 X73.199 Y84.756 Z0.000 F1000
G1 X73.478 Y85.964 Z0.000 F1000
G1 X73.698 Y87.195 Z0.000 F1000
G1 X73.857 Y88.445 Z0.000 F1000
G1 X73.954 Y89.714 Z0.000 F1000
G1 X73.986 Y91.000 Z0.000 F1000
G1 X73.954 Y92.286 Z0.000 F1000
; --- FIX X Backlash: -0.700mm ---
G0 X73.254 Y92.286 F200
G1 X73.157 Y93.555 Z0.000 F1000
G1 X72.998 Y94.805 Z0.000 F1000
G1 X72.778 Y96.036 Z0.000 F1000
G1 X72.499 Y97.244 Z0.000 F1000
G1 X72.163 Y98.430 Z0.000 F1000
G1 X71.770 Y99.591 Z0.000 F1000
G1 X71.323 Y100.726 Z0.000 F1000
G1 X70.822 Y101.832 Z0.000 F1000
G1 X70.270 Y102.910 Z0.000 F1000
;Cut @ 1500 mm/min, 90% power

M8

; Washing sequence (no color)
G1 Z10 F1000;        ; Raise brush to safe height
; --- FIX Y Backlash: -0.800mm ---
G0 X70.270 Y102.110 F200
G0 X4.300 Y4.200
G1 Z-1 F800;         ; Lower brush for cleaning - controlled movement
; --- FIX X Backlash: 0.700mm ---
G0 X5.000 Y4.200 F200
; --- FIX Y Backlash: 0.800mm ---
G0 X5.000 Y5.000 F200
G1 X10.000 Y12.000 Z8.000 F1200
G1 Z-1 F800;         ; Lower brush for cleaning - controlled movement
G1 X25.000 Y14.000 Z6.000 F800
G1 Z8 F800;         ; Maintain brush height - controlled movement
; --- FIX X Backlash: -0.700mm ---
G0 X24.300 Y14.000 F200
; --- FIX Y Backlash: -0.800mm ---
G0 X24.300 Y13.200 F200
G0 X4.300 Y4.200
G1 Z-1 F800;         ; Lower brush for cleaning - controlled movement
; --- FIX X Backlash: 0.700mm ---
G0 X5.000 Y4.200 F200
; --- FIX Y Backlash: 0.800mm ---
G0 X5.000 Y5.000 F200
G1 X15.000 Y12.000 Z8.000 F1200
G1 Z-1 F800;         ; Lower brush for cleaning - controlled movement
G1 X25.000 Y14.000 Z6.000 F800
G1 Z10 F800;         ; Maintain brush height - controlled movement
G1 F1200;           ; Set feed rate to 1000

; Color picking sequence
G1 Z10 F1000;         ; Raise brush to safe height
; --- FIX Y Backlash: -0.800mm ---
G0 X25.000 Y13.200 F200
G0 X131.000 Y4.200
G1 Z0 F1000;         ; Lower into color - controlled movement
; --- FIX X Backlash: -0.700mm ---
G0 X130.300 Y4.200 F200
; --- FIX Y Backlash: 0.800mm ---
G0 X130.300 Y5.000 F200
G1 X129.402 Y7.295 Z0.000 F1200
G1 X129.326 Y7.642 Z0.000 F1200
G1 X129.300 Y8.000 Z0.000 F1200
G1 X129.326 Y8.358 Z0.000 F1200
; --- FIX X Backlash: 0.700mm ---
G0 X130.026 Y8.358 F200
G1 X130.102 Y8.705 Z0.000 F1200
G1 X130.225 Y9.041 Z0.000 F1200
G1 X130.393 Y9.362 Z0.000 F1200
G1 X130.603 Y9.668 Z0.000 F1200
G1 X130.854 Y9.957 Z0.000 F1200
G1 X131.142 Y10.226 Z0.000 F1200
G1 X131.464 Y10.475 Z0.000 F1200
G1 X131.820 Y10.701 Z0.000 F1200
G1 X132.204 Y10.902 Z0.000 F1200
G1 X132.617 Y11.078 Z0.000 F1200
G1 X133.054 Y11.225 Z0.000 F1200
G1 X133.513 Y11.343 Z0.000 F1200
G1 X133.992 Y11.429 Z0.000 F1200
G1 X134.489 Y11.482 Z0.000 F1200
G1 X135.000 Y11.500 Z0.000 F1200
G1 X135.511 Y11.482 Z0.000 F1200
; --- FIX Y Backlash: -0.800mm ---
G0 X135.511 Y10.682 F200
G1 X136.008 Y10.629 Z0.000 F1200
G1 X136.487 Y10.543 Z0.000 F1200
G1 X136.946 Y10.425 Z0.000 F1200
G1 X137.383 Y10.278 Z0.000 F1200
G1 X137.796 Y10.102 Z0.000 F1200
G1 X138.180 Y9.901 Z0.000 F1200
G1 X138.536 Y9.675 Z0.000 F1200
G1 X138.858 Y9.426 Z0.000 F1200
G1 X139.146 Y9.157 Z0.000 F1200
G1 X139.397 Y8.868 Z0.000 F1200
G1 X139.607 Y8.562 Z0.000 F1200
G1 X139.775 Y8.241 Z0.000 F1200
G1 X139.898 Y7.905 Z0.000 F1200
G1 X139.974 Y7.558 Z0.000 F1200
G1 X140.000 Y7.200 Z0.000 F1200
G1 X139.974 Y6.842 Z0.000 F1200
; --- FIX X Backlash: -0.700mm ---
G0 X139.274 Y6.842 F200
G1 X139.198 Y6.495 Z0.000 F1200
G1 X139.075 Y6.159 Z0.000 F1200
G1 X138.907 Y5.838 Z0.000 F1200
G1 X138.697 Y5.532 Z0.000 F1200
G1 X138.446 Y5.243 Z0.000 F1200
G1 X138.158 Y4.974 Z0.000 F1200
G1 X137.836 Y4.725 Z0.000 F1200
G1 X137.480 Y4.499 Z0.000 F1200
G1 X137.096 Y4.298 Z0.000 F1200
G1 X136.683 Y4.122 Z0.000 F1200
G1 X136.246 Y3.975 Z0.000 F1200
G1 X135.787 Y3.857 Z0.000 F1200
G1 X135.308 Y3.771 Z0.000 F1200
G1 X134.811 Y3.718 Z0.000 F1200
G1 X134.300 Y3.700 Z0.000 F1200
G1 X133.789 Y3.718 Z0.000 F1200
; --- FIX Y Backlash: 0.800mm ---
G0 X133.789 Y4.518 F200
G1 X133.292 Y4.571 Z0.000 F1200
G1 X132.813 Y4.657 Z0.000 F1200
G1 X132.354 Y4.775 Z0.000 F1200
G1 X131.917 Y4.922 Z0.000 F1200
G1 X131.504 Y5.098 Z0.000 F1200
G1 X131.120 Y5.299 Z0.000 F1200
G1 X130.764 Y5.525 Z0.000 F1200
G1 X130.442 Y5.774 Z0.000 F1200
G1 X130.154 Y6.043 Z0.000 F1200
G1 X129.903 Y6.332 Z0.000 F1200
G1 X129.693 Y6.638 Z0.000 F1200
G1 X129.525 Y6.959 Z0.000 F1200
G1 Z7 F800;         ; Raise from color - controlled movement
G1 X123.300 Y8.000 Z1.000 F1200
G1 X113.300 Y18.000 Z8.000 F500
G1 F1200;           ; Set feed rate to 1000
G0 Z3.5 F1000
G0 X20.300 Y82.321 Z3.500
G1 Z0 F1000
;Layer C3
; --- FIX X Backlash: 0.700mm ---
G0 X21.000 Y82.321 F200
; --- FIX Y Backlash: -0.800mm ---
G0 X21.000 Y81.521 F200
G1 X24.000 Y64.200 Z0.000 F1000
; --- FIX X Backlash: -0.700mm ---
G0 X23.300 Y64.200 F200
G1 X20.300 Y46.879 Z0.000 F1000
G1 X14.300 Y46.879 Z0.000 F1000
; --- FIX Y Backlash: 0.800mm ---
G0 X14.300 Y47.679 F200
G1 X11.300 Y65.000 Z0.000 F1000
; --- FIX X Backlash: 0.700mm ---
G0 X12.000 Y65.000 F200
G1 X15.000 Y82.321 Z0.000 F1000
G1 X21.000 Y82.321 Z0.000 F1000
M9

G90
G1 Z10 F800

; Return to 2,0 wash and park
G1 Z10 F1000;        ; Raise brush to safe height
; --- FIX X Backlash: -0.700mm ---
G0 X20.300 Y82.321 F200
; --- FIX Y Backlash: -0.800mm ---
G0 X20.300 Y81.521 F200
G0 X4.300 Y4.200
G1 Z-1 F800;         ; Lower brush for cleaning - controlled movement
; --- FIX X Backlash: 0.700mm ---
G0 X5.000 Y4.200 F200
; --- FIX Y Backlash: 0.800mm ---
G0 X5.000 Y5.000 F200
G1 X10.000 Y12.000 Z8.000 F1200
G1 Z-1 F800;         ; Lower brush for cleaning - controlled movement
G1 X25.000 Y14.000 Z6.000 F800
; --- FIX X Backlash: -0.700mm ---
G0 X24.300 Y14.000 F200
; --- FIX Y Backlash: -0.800mm ---
G0 X24.300 Y13.200 F200
G0 X4.300 Y4.200
G1 Z-1 F800;         ; Lower brush for cleaning - controlled movement
; --- FIX X Backlash: 0.700mm ---
G0 X5.000 Y4.200 F200
; --- FIX Y Backlash: 0.800mm ---
G0 X5.000 Y5.000 F200
G1 X15.000 Y12.000 Z8.000 F1200
G1 Z-1 F800;         ; Lower brush for cleaning - controlled movement
G1 X25.000 Y14.000 Z6.000 F800
G1 Z10 F800;         ; Maintain brush height - controlled movement
; --- FIX X Backlash: -0.700mm ---
G0 X24.300 Y14.000 F200
G0 X19.300 Y130.000 Z10.000
M2;                 ; End program

M2 ; End of G-code