G90 ; Absolute positioning
G21 ; Millimeters
;LightBurn 1.6.04
;Custom GCode device profile, absolute coords
;Bounds: X33.49 Y28.67 to X110.51 Y117.33
G00 G17 G40 G21 G54
G90
M4
;Cut @ 1500 mm/min, 90% power

M8
G0 Z3.5 F1000
G0 X60.175 Y46.020 Z3.500
G1 Z0 F1000
;Layer Blue
; --- FIX X Backlash: -0.500mm ---
G0 X59.675 Y46.020 F200
G1 X59.575 Y46.079 Z0.000 F1000
G1 X59.451 Y46.177 Z0.000 F1000
G1 X59.301 Y46.315 Z0.000 F1000
G1 X59.120 Y46.495 Z0.000 F1000
G1 X58.665 Y46.942 Z0.000 F1000
G1 X58.245 Y47.302 Z0.000 F1000
G1 X58.017 Y47.474 Z0.000 F1000
G1 X57.762 Y47.652 Z0.000 F1000
G1 X57.466 Y47.847 Z0.000 F1000
G1 X57.118 Y48.069 Z0.000 F1000
G1 X56.345 Y48.495 Z0.000 F1000
G1 X55.478 Y48.887 Z0.000 F1000
G1 X55.063 Y49.047 Z0.000 F1000
G1 X54.689 Y49.173 Z0.000 F1000
G1 X54.378 Y49.254 Z0.000 F1000
G1 X54.149 Y49.284 Z0.000 F1000
G1 X54.046 Y49.290 Z0.000 F1000
G1 X53.970 Y49.309 Z0.000 F1000
G1 X53.922 Y49.343 Z0.000 F1000
G1 X53.901 Y49.394 Z0.000 F1000
G1 X53.907 Y49.463 Z0.000 F1000
G1 X53.940 Y49.552 Z0.000 F1000
; --- FIX X Backlash: 0.500mm ---
G0 X54.440 Y49.552 F200
G1 X54.499 Y49.662 Z0.000 F1000
G1 X54.701 Y49.975 Z0.000 F1000
G1 X54.861 Y50.241 Z0.000 F1000
G1 X55.057 Y50.575 Z0.000 F1000
G1 X55.278 Y50.962 Z0.000 F1000
G1 X55.760 Y51.825 Z0.000 F1000
G1 X56.404 Y53.016 Z0.000 F1000
G1 X56.622 Y53.411 Z0.000 F1000
G1 X56.716 Y53.571 Z0.000 F1000
G1 X56.767 Y53.650 Z0.000 F1000
G1 X56.870 Y53.833 Z0.000 F1000
G1 X57.118 Y54.295 Z0.000 F1000
G1 X57.516 Y55.063 Z0.000 F1000
G1 X57.772 Y55.544 Z0.000 F1000
G1 X57.883 Y55.746 Z0.000 F1000
G1 X57.941 Y55.846 Z0.000 F1000
G1 X57.987 Y55.936 Z0.000 F1000
G1 X58.135 Y56.232 Z0.000 F1000
G1 X58.346 Y56.663 Z0.000 F1000
G1 X58.608 Y57.204 Z0.000 F1000
G1 X59.239 Y58.521 Z0.000 F1000
G1 X59.935 Y59.990 Z0.000 F1000
G1 X60.033 Y60.184 Z0.000 F1000
G1 X60.124 Y60.336 Z0.000 F1000
G1 X60.198 Y60.432 Z0.000 F1000
G1 X60.244 Y60.457 Z0.000 F1000
; --- FIX Y Backlash: -1.600mm ---
G0 X60.244 Y58.857 F200
G1 X66.215 Y55.234 Z0.000 F1000
G1 X66.557 Y55.017 Z0.000 F1000
G1 X66.837 Y54.822 Z0.000 F1000
G1 X66.945 Y54.739 Z0.000 F1000
G1 X67.026 Y54.670 Z0.000 F1000
G1 X67.077 Y54.616 Z0.000 F1000
G1 X67.094 Y54.582 Z0.000 F1000
G1 X67.081 Y54.540 Z0.000 F1000
G1 X67.042 Y54.465 Z0.000 F1000
; --- FIX X Backlash: -0.500mm ---
G0 X66.542 Y54.465 F200
G1 X66.481 Y54.361 Z0.000 F1000
G1 X66.401 Y54.233 Z0.000 F1000
G1 X66.193 Y53.919 Z0.000 F1000
G1 X65.939 Y53.557 Z0.000 F1000
G1 X65.286 Y52.639 Z0.000 F1000
G1 X64.633 Y51.705 Z0.000 F1000
G1 X63.793 Y50.491 Z0.000 F1000
G1 X63.622 Y50.237 Z0.000 F1000
G1 X63.274 Y49.716 Z0.000 F1000
G1 X62.357 Y48.326 Z0.000 F1000
G1 X61.342 Y46.774 Z0.000 F1000
G1 X60.727 Y45.827 Z0.000 F1000
G1 X60.242 Y45.074 Z0.000 F1000
G1 X60.005 Y44.701 Z0.000 F1000
G1 X59.924 Y44.569 Z0.000 F1000
G1 X59.870 Y44.461 Z0.000 F1000
G1 X59.819 Y44.413 Z0.000 F1000
G1 X59.755 Y44.399 Z0.000 F1000
G1 X59.675 Y44.420 Z0.000 F1000
G0 Z3.5 F1000
; --- FIX X Backlash: 0.500mm ---
G0 X60.175 Y44.420 F200
; --- FIX Y Backlash: 1.600mm ---
G0 X60.175 Y46.020 F200
G0 X68.514 Y57.532 Z3.500
G1 Z0 F1000
; --- FIX X Backlash: -0.500mm ---
G0 X68.014 Y57.532 F200
G1 X67.846 Y57.596 Z0.000 F1000
G1 X67.605 Y57.714 Z0.000 F1000
G1 X67.453 Y57.796 Z0.000 F1000
G1 X67.277 Y57.894 Z0.000 F1000
G1 X67.076 Y58.009 Z0.000 F1000
G1 X66.848 Y58.143 Z0.000 F1000
G1 X66.304 Y58.469 Z0.000 F1000
G1 X65.630 Y58.881 Z0.000 F1000
G1 X64.696 Y59.452 Z0.000 F1000
G1 X63.780 Y60.008 Z0.000 F1000
G1 X62.912 Y60.531 Z0.000 F1000
G1 X62.124 Y61.003 Z0.000 F1000
G1 X61.444 Y61.406 Z0.000 F1000
G1 X60.903 Y61.723 Z0.000 F1000
G1 X60.533 Y61.934 Z0.000 F1000
G1 X60.420 Y61.995 Z0.000 F1000
G1 X60.361 Y62.023 Z0.000 F1000
G1 X60.344 Y62.065 Z0.000 F1000
G1 X60.348 Y62.168 Z0.000 F1000
G1 X60.374 Y62.326 Z0.000 F1000
G1 X60.419 Y62.533 Z0.000 F1000
; --- FIX X Backlash: 0.500mm ---
G0 X60.919 Y62.533 F200
G1 X60.981 Y62.785 Z0.000 F1000
G1 X61.059 Y63.075 Z0.000 F1000
G1 X61.151 Y63.398 Z0.000 F1000
G1 X61.256 Y63.750 Z0.000 F1000
G1 X61.767 Y65.324 Z0.000 F1000
G1 X62.345 Y66.905 Z0.000 F1000
G1 X62.830 Y68.077 Z0.000 F1000
G1 X63.359 Y69.229 Z0.000 F1000
G1 X63.952 Y70.394 Z0.000 F1000
G1 X64.628 Y71.606 Z0.000 F1000
G1 X65.003 Y72.240 Z0.000 F1000
G1 X65.407 Y72.898 Z0.000 F1000
G1 X65.841 Y73.584 Z0.000 F1000
G1 X66.308 Y74.303 Z0.000 F1000
G1 X66.810 Y75.058 Z0.000 F1000
G1 X67.350 Y75.854 Z0.000 F1000
G1 X67.930 Y76.694 Z0.000 F1000
G1 X68.552 Y77.584 Z0.000 F1000
G1 X69.869 Y79.457 Z0.000 F1000
G1 X71.440 Y81.702 Z0.000 F1000
G1 X72.662 Y83.433 Z0.000 F1000
G1 X73.458 Y84.554 Z0.000 F1000
G1 X74.189 Y85.578 Z0.000 F1000
G1 X74.812 Y86.445 Z0.000 F1000
G1 X75.283 Y87.093 Z0.000 F1000
G1 X75.448 Y87.317 Z0.000 F1000
G1 X75.601 Y87.519 Z0.000 F1000
G1 X76.848 Y89.252 Z0.000 F1000
G1 X81.597 Y95.879 Z0.000 F1000
G1 X85.111 Y100.794 Z0.000 F1000
G1 X85.835 Y101.811 Z0.000 F1000
G1 X87.081 Y103.592 Z0.000 F1000
G1 X88.762 Y105.979 Z0.000 F1000
G1 X89.570 Y107.135 Z0.000 F1000
G1 X90.036 Y107.804 Z0.000 F1000
G1 X91.015 Y109.217 Z0.000 F1000
G1 X92.113 Y110.794 Z0.000 F1000
G1 X92.640 Y111.555 Z0.000 F1000
G1 X93.295 Y112.505 Z0.000 F1000
G1 X93.569 Y112.896 Z0.000 F1000
G1 X93.683 Y113.055 Z0.000 F1000
G1 X93.741 Y113.131 Z0.000 F1000
G1 X93.855 Y113.290 Z0.000 F1000
G1 X94.128 Y113.682 Z0.000 F1000
G1 X95.358 Y115.480 Z0.000 F1000
G1 X95.737 Y116.030 Z0.000 F1000
G1 X96.041 Y116.464 Z0.000 F1000
G1 X96.274 Y116.793 Z0.000 F1000
G1 X96.444 Y117.024 Z0.000 F1000
G1 X96.557 Y117.167 Z0.000 F1000
G1 X96.619 Y117.230 Z0.000 F1000
G1 X96.789 Y117.306 Z0.000 F1000
G1 X96.983 Y117.328 Z0.000 F1000
G1 X97.188 Y117.301 Z0.000 F1000
; --- FIX Y Backlash: -1.600mm ---
G0 X97.188 Y115.701 F200
G1 X97.389 Y115.633 Z0.000 F1000
G1 X97.570 Y115.529 Z0.000 F1000
G1 X97.717 Y115.397 Z0.000 F1000
G1 X97.817 Y115.244 Z0.000 F1000
G1 X97.853 Y115.074 Z0.000 F1000
G1 X97.845 Y115.011 Z0.000 F1000
G1 X97.819 Y114.911 Z0.000 F1000
G1 X97.777 Y114.775 Z0.000 F1000
; --- FIX X Backlash: -0.500mm ---
G0 X97.277 Y114.775 F200
G1 X97.219 Y114.603 Z0.000 F1000
G1 X97.143 Y114.395 Z0.000 F1000
G1 X97.051 Y114.151 Z0.000 F1000
G1 X96.943 Y113.871 Z0.000 F1000
G1 X96.818 Y113.556 Z0.000 F1000
G1 X96.677 Y113.206 Z0.000 F1000
G1 X96.347 Y112.401 Z0.000 F1000
G1 X95.951 Y111.457 Z0.000 F1000
G1 X95.493 Y110.376 Z0.000 F1000
G1 X93.286 Y105.219 Z0.000 F1000
G1 X92.920 Y104.373 Z0.000 F1000
G1 X92.759 Y104.009 Z0.000 F1000
G1 X92.628 Y103.723 Z0.000 F1000
G1 X92.507 Y103.449 Z0.000 F1000
G1 X92.367 Y103.126 Z0.000 F1000
G1 X92.078 Y102.445 Z0.000 F1000
G1 X91.929 Y102.098 Z0.000 F1000
G1 X91.794 Y101.790 Z0.000 F1000
G1 X91.631 Y101.430 Z0.000 F1000
G1 X91.094 Y100.216 Z0.000 F1000
G1 X88.102 Y93.391 Z0.000 F1000
G1 X85.511 Y87.468 Z0.000 F1000
G1 X84.979 Y86.259 Z0.000 F1000
G1 X82.635 Y80.911 Z0.000 F1000
G1 X82.297 Y80.145 Z0.000 F1000
G1 X81.788 Y79.006 Z0.000 F1000
G1 X79.797 Y74.512 Z0.000 F1000
G1 X79.392 Y73.609 Z0.000 F1000
G1 X78.999 Y72.740 Z0.000 F1000
G1 X78.616 Y71.903 Z0.000 F1000
G1 X78.243 Y71.098 Z0.000 F1000
G1 X77.879 Y70.324 Z0.000 F1000
G1 X77.524 Y69.580 Z0.000 F1000
G1 X77.176 Y68.863 Z0.000 F1000
G1 X76.835 Y68.173 Z0.000 F1000
G1 X76.501 Y67.510 Z0.000 F1000
G1 X76.172 Y66.871 Z0.000 F1000
G1 X75.849 Y66.256 Z0.000 F1000
G1 X75.214 Y65.091 Z0.000 F1000
G1 X74.591 Y64.008 Z0.000 F1000
G1 X73.975 Y62.995 Z0.000 F1000
G1 X73.360 Y62.045 Z0.000 F1000
G1 X72.740 Y61.148 Z0.000 F1000
G1 X72.111 Y60.295 Z0.000 F1000
G1 X71.466 Y59.476 Z0.000 F1000
G1 X70.801 Y58.682 Z0.000 F1000
G1 X70.109 Y57.905 Z0.000 F1000
G1 X69.386 Y57.134 Z0.000 F1000
G1 X68.974 Y56.710 Z0.000 F1000
G1 X68.612 Y56.342 Z0.000 F1000
G1 X68.339 Y56.072 Z0.000 F1000
G1 X68.248 Y55.986 Z0.000 F1000
G1 X68.194 Y55.938 Z0.000 F1000
G1 X68.126 Y55.916 Z0.000 F1000
G1 X68.014 Y55.932 Z0.000 F1000
G0 Z3.5 F1000
; --- FIX X Backlash: 0.500mm ---
G0 X68.514 Y55.932 F200
; --- FIX Y Backlash: 1.600mm ---
G0 X68.514 Y57.532 F200
G0 X73.352 Y59.467 Z3.500
G1 Z0 F1000
; --- FIX X Backlash: -0.500mm ---
G0 X72.852 Y59.467 F200
G1 X72.701 Y59.665 Z0.000 F1000
G1 X72.611 Y59.825 Z0.000 F1000
G1 X72.579 Y59.951 Z0.000 F1000
G1 X72.603 Y60.047 Z0.000 F1000
; --- FIX X Backlash: 0.500mm ---
G0 X73.103 Y60.047 F200
G1 X73.177 Y60.119 Z0.000 F1000
G1 X73.282 Y60.209 Z0.000 F1000
G1 X73.434 Y60.375 Z0.000 F1000
G1 X73.626 Y60.608 Z0.000 F1000
G1 X73.853 Y60.899 Z0.000 F1000
G1 X74.108 Y61.239 Z0.000 F1000
G1 X74.385 Y61.620 Z0.000 F1000
G1 X74.679 Y62.034 Z0.000 F1000
G1 X74.984 Y62.470 Z0.000 F1000
G1 X75.600 Y63.379 Z0.000 F1000
G1 X76.186 Y64.277 Z0.000 F1000
G1 X76.452 Y64.701 Z0.000 F1000
G1 X76.693 Y65.095 Z0.000 F1000
G1 X76.902 Y65.452 Z0.000 F1000
G1 X77.074 Y65.763 Z0.000 F1000
G1 X77.873 Y67.272 Z0.000 F1000
G1 X78.437 Y68.348 Z0.000 F1000
G1 X78.869 Y69.184 Z0.000 F1000
G1 X79.464 Y70.356 Z0.000 F1000
G1 X79.615 Y70.646 Z0.000 F1000
G1 X79.731 Y70.854 Z0.000 F1000
G1 X79.818 Y70.987 Z0.000 F1000
G1 X79.882 Y71.056 Z0.000 F1000
G1 X79.929 Y71.069 Z0.000 F1000
G1 X79.968 Y71.033 Z0.000 F1000
; --- FIX Y Backlash: -1.600mm ---
G0 X79.968 Y69.433 F200
G1 X80.003 Y69.359 Z0.000 F1000
G1 X80.082 Y69.160 Z0.000 F1000
G1 X81.142 Y66.561 Z0.000 F1000
G1 X81.490 Y65.699 Z0.000 F1000
G1 X81.742 Y65.053 Z0.000 F1000
G1 X81.990 Y64.397 Z0.000 F1000
G1 X82.167 Y63.911 Z0.000 F1000
G1 X82.365 Y63.346 Z0.000 F1000
G1 X82.570 Y62.745 Z0.000 F1000
G1 X82.768 Y62.150 Z0.000 F1000
G1 X82.946 Y61.602 Z0.000 F1000
G1 X83.090 Y61.142 Z0.000 F1000
G1 X83.145 Y60.959 Z0.000 F1000
G1 X83.186 Y60.814 Z0.000 F1000
G1 X83.212 Y60.712 Z0.000 F1000
G1 X83.220 Y60.658 Z0.000 F1000
G1 X83.207 Y60.640 Z0.000 F1000
G1 X83.168 Y60.606 Z0.000 F1000
; --- FIX X Backlash: -0.500mm ---
G0 X82.668 Y60.606 F200
G1 X82.605 Y60.558 Z0.000 F1000
G1 X82.520 Y60.496 Z0.000 F1000
G1 X82.285 Y60.337 Z0.000 F1000
G1 X81.975 Y60.134 Z0.000 F1000
G1 X81.599 Y59.894 Z0.000 F1000
G1 X81.168 Y59.624 Z0.000 F1000
G1 X80.693 Y59.331 Z0.000 F1000
G1 X78.018 Y57.709 Z0.000 F1000
G1 X77.066 Y57.130 Z0.000 F1000
G1 X76.368 Y56.703 Z0.000 F1000
G1 X75.861 Y56.397 Z0.000 F1000
G1 X75.426 Y56.146 Z0.000 F1000
G1 X75.251 Y56.049 Z0.000 F1000
G1 X75.111 Y55.975 Z0.000 F1000
G1 X75.013 Y55.928 Z0.000 F1000
G1 X74.962 Y55.911 Z0.000 F1000
G1 X74.914 Y55.932 Z0.000 F1000
; --- FIX Y Backlash: 1.600mm ---
G0 X74.914 Y57.532 F200
G1 X74.824 Y57.595 Z0.000 F1000
G1 X74.699 Y57.694 Z0.000 F1000
G1 X74.542 Y57.825 Z0.000 F1000
G1 X74.156 Y58.167 Z0.000 F1000
G1 X73.707 Y58.586 Z0.000 F1000
G1 X73.352 Y58.932 Z0.000 F1000
G1 X73.068 Y59.224 Z0.000 F1000
G1 X72.852 Y59.467 Z0.000 F1000
G0 Z3.5 F1000
; --- FIX X Backlash: 0.500mm ---
G0 X73.352 Y59.467 F200
; --- FIX Y Backlash: -1.600mm ---
G0 X73.352 Y57.867 F200
G0 X77.288 Y54.979 Z3.500
G1 Z0 F1000
; --- FIX Y Backlash: 1.600mm ---
G0 X77.288 Y56.579 F200
G1 X77.589 Y56.764 Z0.000 F1000
G1 X77.932 Y56.968 Z0.000 F1000
G1 X78.293 Y57.186 Z0.000 F1000
G1 X78.629 Y57.394 Z0.000 F1000
G1 X79.169 Y57.736 Z0.000 F1000
G1 X79.481 Y57.932 Z0.000 F1000
G1 X80.195 Y58.371 Z0.000 F1000
G1 X80.975 Y58.845 Z0.000 F1000
G1 X81.762 Y59.315 Z0.000 F1000
G1 X82.492 Y59.746 Z0.000 F1000
G1 X83.103 Y60.100 Z0.000 F1000
G1 X83.346 Y60.237 Z0.000 F1000
G1 X83.535 Y60.341 Z0.000 F1000
G1 X83.664 Y60.408 Z0.000 F1000
G1 X83.725 Y60.432 Z0.000 F1000
G1 X83.764 Y60.414 Z0.000 F1000
; --- FIX Y Backlash: -1.600mm ---
G0 X83.764 Y58.814 F200
G1 X83.817 Y58.759 Z0.000 F1000
G1 X83.883 Y58.669 Z0.000 F1000
G1 X83.960 Y58.548 Z0.000 F1000
G1 X84.138 Y58.225 Z0.000 F1000
G1 X84.335 Y57.819 Z0.000 F1000
G1 X85.263 Y55.842 Z0.000 F1000
G1 X86.213 Y53.947 Z0.000 F1000
G1 X86.718 Y52.986 Z0.000 F1000
G1 X87.256 Y51.995 Z0.000 F1000
G1 X87.836 Y50.954 Z0.000 F1000
G1 X88.678 Y49.475 Z0.000 F1000
G1 X89.060 Y48.800 Z0.000 F1000
G1 X89.353 Y48.270 Z0.000 F1000
G1 X89.456 Y48.080 Z0.000 F1000
G1 X89.522 Y47.950 Z0.000 F1000
G1 X89.549 Y47.889 Z0.000 F1000
G1 X89.539 Y47.861 Z0.000 F1000
G1 X89.498 Y47.827 Z0.000 F1000
; --- FIX X Backlash: -0.500mm ---
G0 X88.998 Y47.827 F200
G1 X88.930 Y47.788 Z0.000 F1000
G1 X88.839 Y47.745 Z0.000 F1000
G1 X88.595 Y47.654 Z0.000 F1000
G1 X88.294 Y47.564 Z0.000 F1000
G1 X87.752 Y47.397 Z0.000 F1000
G1 X87.199 Y47.181 Z0.000 F1000
G1 X86.639 Y46.918 Z0.000 F1000
G1 X86.079 Y46.614 Z0.000 F1000
G1 X85.525 Y46.270 Z0.000 F1000
G1 X84.984 Y45.891 Z0.000 F1000
G1 X84.460 Y45.481 Z0.000 F1000
G1 X83.960 Y45.041 Z0.000 F1000
G1 X83.729 Y44.829 Z0.000 F1000
G1 X83.526 Y44.646 Z0.000 F1000
G1 X83.372 Y44.512 Z0.000 F1000
G1 X83.291 Y44.448 Z0.000 F1000
G1 X83.235 Y44.461 Z0.000 F1000
; --- FIX Y Backlash: 1.600mm ---
G0 X83.235 Y46.061 F200
G1 X83.150 Y46.138 Z0.000 F1000
G1 X83.049 Y46.267 Z0.000 F1000
G1 X82.942 Y46.435 Z0.000 F1000
G1 X82.879 Y46.543 Z0.000 F1000
G1 X82.796 Y46.678 Z0.000 F1000
G1 X82.587 Y47.011 Z0.000 F1000
G1 X82.342 Y47.389 Z0.000 F1000
G1 X82.090 Y47.770 Z0.000 F1000
G1 X81.560 Y48.565 Z0.000 F1000
G1 X79.970 Y50.963 Z0.000 F1000
G1 X78.827 Y52.644 Z0.000 F1000
G1 X78.291 Y53.417 Z0.000 F1000
G1 X77.796 Y54.120 Z0.000 F1000
G1 X77.568 Y54.439 Z0.000 F1000
G1 X77.355 Y54.734 Z0.000 F1000
G1 X77.160 Y55.001 Z0.000 F1000
G1 X76.723 Y55.590 Z0.000 F1000
G1 X76.511 Y55.891 Z0.000 F1000
G1 X76.429 Y56.013 Z0.000 F1000
G1 X76.367 Y56.111 Z0.000 F1000
G1 X76.328 Y56.180 Z0.000 F1000
G1 X76.315 Y56.216 Z0.000 F1000
G1 X76.330 Y56.244 Z0.000 F1000
G1 X76.376 Y56.288 Z0.000 F1000
; --- FIX X Backlash: 0.500mm ---
G0 X76.876 Y56.288 F200
G1 X76.947 Y56.345 Z0.000 F1000
G1 X77.042 Y56.415 Z0.000 F1000
G1 X77.288 Y56.579 Z0.000 F1000
G0 Z3.5 F1000
; --- FIX X Backlash: -0.500mm ---
G0 X76.788 Y56.579 F200
G0 X64.023 Y74.488 Z3.500
G1 Z0 F1000
G1 X63.993 Y74.525 Z0.000 F1000
G1 X63.932 Y74.633 Z0.000 F1000
G1 X63.845 Y74.803 Z0.000 F1000
G1 X63.734 Y75.028 Z0.000 F1000
G1 X63.603 Y75.301 Z0.000 F1000
G1 X63.456 Y75.614 Z0.000 F1000
G1 X63.296 Y75.959 Z0.000 F1000
G1 X63.128 Y76.329 Z0.000 F1000
G1 X62.795 Y77.070 Z0.000 F1000
G1 X62.205 Y78.390 Z0.000 F1000
G1 X62.001 Y78.858 Z0.000 F1000
G1 X61.343 Y80.330 Z0.000 F1000
G1 X61.127 Y80.830 Z0.000 F1000
G1 X61.053 Y81.013 Z0.000 F1000
G1 X61.018 Y81.120 Z0.000 F1000
G1 X60.951 Y81.281 Z0.000 F1000
G1 X60.852 Y81.506 Z0.000 F1000
G1 X60.575 Y82.112 Z0.000 F1000
G1 X60.171 Y83.011 Z0.000 F1000
G1 X57.948 Y88.054 Z0.000 F1000
G1 X56.724 Y90.816 Z0.000 F1000
G1 X55.876 Y92.740 Z0.000 F1000
G1 X55.317 Y94.012 Z0.000 F1000
G1 X54.410 Y96.091 Z0.000 F1000
G1 X54.261 Y96.429 Z0.000 F1000
G1 X54.067 Y96.860 Z0.000 F1000
G1 X53.715 Y97.650 Z0.000 F1000
G1 X53.283 Y98.631 Z0.000 F1000
G1 X52.775 Y99.792 Z0.000 F1000
G1 X52.164 Y101.196 Z0.000 F1000
G1 X51.676 Y102.311 Z0.000 F1000
G1 X51.152 Y103.501 Z0.000 F1000
G1 X50.969 Y103.929 Z0.000 F1000
G1 X50.906 Y104.087 Z0.000 F1000
G1 X50.891 Y104.139 Z0.000 F1000
G1 X50.843 Y104.259 Z0.000 F1000
G1 X50.702 Y104.581 Z0.000 F1000
G1 X50.453 Y105.128 Z0.000 F1000
G1 X50.351 Y105.364 Z0.000 F1000
G1 X50.282 Y105.536 Z0.000 F1000
G1 X50.232 Y105.700 Z0.000 F1000
G1 X50.166 Y105.865 Z0.000 F1000
G1 X50.068 Y106.089 Z0.000 F1000
G1 X49.948 Y106.350 Z0.000 F1000
G1 X49.785 Y106.714 Z0.000 F1000
G1 X49.495 Y107.381 Z0.000 F1000
G1 X49.093 Y108.312 Z0.000 F1000
G1 X48.596 Y109.470 Z0.000 F1000
G1 X47.383 Y112.312 Z0.000 F1000
G1 X45.987 Y115.603 Z0.000 F1000
G1 X45.834 Y116.003 Z0.000 F1000
G1 X45.737 Y116.349 Z0.000 F1000
G1 X45.695 Y116.642 Z0.000 F1000
G1 X45.708 Y116.882 Z0.000 F1000
; --- FIX X Backlash: 0.500mm ---
G0 X46.208 Y116.882 F200
G1 X46.277 Y117.068 Z0.000 F1000
G1 X46.402 Y117.202 Z0.000 F1000
G1 X46.582 Y117.282 Z0.000 F1000
G1 X46.818 Y117.310 Z0.000 F1000
G1 X47.014 Y117.297 Z0.000 F1000
; --- FIX Y Backlash: -1.600mm ---
G0 X47.014 Y115.697 F200
G1 X47.208 Y115.622 Z0.000 F1000
G1 X47.317 Y115.545 Z0.000 F1000
G1 X47.441 Y115.434 Z0.000 F1000
G1 X47.585 Y115.281 Z0.000 F1000
G1 X47.754 Y115.082 Z0.000 F1000
G1 X47.954 Y114.829 Z0.000 F1000
G1 X48.189 Y114.517 Z0.000 F1000
G1 X48.465 Y114.138 Z0.000 F1000
G1 X48.787 Y113.687 Z0.000 F1000
G1 X49.161 Y113.157 Z0.000 F1000
G1 X49.590 Y112.542 Z0.000 F1000
G1 X52.139 Y108.867 Z0.000 F1000
G1 X52.887 Y107.792 Z0.000 F1000
G1 X53.898 Y106.358 Z0.000 F1000
G1 X54.661 Y105.273 Z0.000 F1000
G1 X55.288 Y104.375 Z0.000 F1000
G1 X56.388 Y102.788 Z0.000 F1000
G1 X57.105 Y101.763 Z0.000 F1000
G1 X57.889 Y100.647 Z0.000 F1000
G1 X61.495 Y95.551 Z0.000 F1000
G1 X62.570 Y94.023 Z0.000 F1000
G1 X63.012 Y93.399 Z0.000 F1000
G1 X64.092 Y91.882 Z0.000 F1000
G1 X66.757 Y88.147 Z0.000 F1000
G1 X68.624 Y85.517 Z0.000 F1000
G1 X68.905 Y85.123 Z0.000 F1000
G1 X69.569 Y84.210 Z0.000 F1000
G1 X69.948 Y83.685 Z0.000 F1000
G1 X70.249 Y83.261 Z0.000 F1000
G1 X70.478 Y82.928 Z0.000 F1000
G1 X70.644 Y82.675 Z0.000 F1000
G1 X70.754 Y82.492 Z0.000 F1000
G1 X70.813 Y82.368 Z0.000 F1000
G1 X70.831 Y82.293 Z0.000 F1000
G1 X70.815 Y82.215 Z0.000 F1000
; --- FIX X Backlash: -0.500mm ---
G0 X70.315 Y82.215 F200
G1 X70.256 Y82.089 Z0.000 F1000
G1 X70.206 Y82.001 Z0.000 F1000
G1 X70.138 Y81.890 Z0.000 F1000
G1 X70.052 Y81.754 Z0.000 F1000
G1 X69.943 Y81.590 Z0.000 F1000
G1 X69.811 Y81.395 Z0.000 F1000
G1 X69.467 Y80.895 Z0.000 F1000
G1 X69.002 Y80.229 Z0.000 F1000
G1 X67.684 Y78.358 Z0.000 F1000
G1 X67.027 Y77.421 Z0.000 F1000
G1 X66.440 Y76.575 Z0.000 F1000
G1 X65.924 Y75.822 Z0.000 F1000
G1 X65.478 Y75.163 Z0.000 F1000
G1 X65.105 Y74.598 Z0.000 F1000
G1 X64.946 Y74.352 Z0.000 F1000
G1 X64.804 Y74.130 Z0.000 F1000
G1 X64.681 Y73.932 Z0.000 F1000
G1 X64.577 Y73.758 Z0.000 F1000
G1 X64.329 Y73.329 Z0.000 F1000
G1 X64.187 Y73.100 Z0.000 F1000
G1 X64.128 Y73.012 Z0.000 F1000
G1 X64.079 Y72.945 Z0.000 F1000
G1 X64.044 Y72.903 Z0.000 F1000
G1 X64.023 Y72.888 Z0.000 F1000
;Offset @ 1500 mm/min, 90% power

M8
G0 Z3.5 F1000
G0 X52.044 Y37.856 Z3.500
G1 Z0 F1000
;Layer Green
; --- FIX X Backlash: 0.500mm ---
G0 X52.544 Y37.856 F200
; --- FIX Y Backlash: 1.600mm ---
G0 X52.544 Y39.456 F200
G1 X53.002 Y40.084 Z0.000 F1000
G1 X53.428 Y40.706 Z0.000 F1000
G1 X54.239 Y42.012 Z0.000 F1000
G1 X54.951 Y43.330 Z0.000 F1000
G1 X55.153 Y43.759 Z0.000 F1000
; --- FIX X Backlash: -0.500mm ---
G0 X54.653 Y43.759 F200
; --- FIX Y Backlash: -1.600mm ---
G0 X54.653 Y42.159 F200
G1 X54.121 Y41.403 Z0.000 F1000
G1 X53.565 Y40.586 Z0.000 F1000
G1 X53.052 Y39.801 Z0.000 F1000
G1 X52.833 Y39.454 Z0.000 F1000
G1 X52.615 Y39.099 Z0.000 F1000
G1 X52.412 Y38.756 Z0.000 F1000
G1 X52.246 Y38.466 Z0.000 F1000
G1 X51.923 Y37.873 Z0.000 F1000
G1 X51.636 Y37.326 Z0.000 F1000
; --- FIX X Backlash: 0.500mm ---
G0 X52.136 Y37.326 F200
; --- FIX Y Backlash: 1.600mm ---
G0 X52.136 Y38.926 F200
G1 X52.544 Y39.456 Z0.000 F1000
G0 Z3.5 F1000
G0 X55.758 Y42.931 Z3.500
G1 Z0 F1000
G1 X56.175 Y43.817 Z0.000 F1000
G1 X56.557 Y44.722 Z0.000 F1000
G1 X56.722 Y45.150 Z0.000 F1000
G1 X56.813 Y45.407 Z0.000 F1000
; --- FIX X Backlash: -0.500mm ---
G0 X56.313 Y45.407 F200
G1 X56.083 Y45.584 Z0.000 F1000
G1 X55.806 Y45.777 Z0.000 F1000
G1 X55.529 Y45.953 Z0.000 F1000
G1 X55.296 Y46.084 Z0.000 F1000
; --- FIX Y Backlash: -1.600mm ---
G0 X55.296 Y44.484 F200
G1 X55.208 Y44.379 Z0.000 F1000
G1 X54.984 Y44.104 Z0.000 F1000
G1 X54.743 Y43.794 Z0.000 F1000
G1 X54.494 Y43.466 Z0.000 F1000
G1 X53.938 Y42.708 Z0.000 F1000
G1 X53.376 Y41.909 Z0.000 F1000
G1 X52.821 Y41.092 Z0.000 F1000
G1 X52.299 Y40.293 Z0.000 F1000
G1 X52.061 Y39.916 Z0.000 F1000
G1 X51.838 Y39.554 Z0.000 F1000
G1 X51.638 Y39.216 Z0.000 F1000
G1 X51.469 Y38.921 Z0.000 F1000
G1 X51.125 Y38.289 Z0.000 F1000
G1 X50.778 Y37.629 Z0.000 F1000
G1 X50.427 Y36.939 Z0.000 F1000
G1 X50.078 Y36.230 Z0.000 F1000
G1 X49.404 Y34.796 Z0.000 F1000
G1 X48.785 Y33.386 Z0.000 F1000
G1 X48.503 Y32.724 Z0.000 F1000
G1 X48.332 Y32.329 Z0.000 F1000
; --- FIX X Backlash: 0.500mm ---
G0 X48.832 Y32.329 F200
; --- FIX Y Backlash: 1.600mm ---
G0 X48.832 Y33.929 F200
G1 X48.914 Y34.019 Z0.000 F1000
G1 X49.065 Y34.179 Z0.000 F1000
G1 X49.433 Y34.556 Z0.000 F1000
G1 X49.953 Y35.085 Z0.000 F1000
G1 X50.366 Y35.510 Z0.000 F1000
G1 X50.700 Y35.858 Z0.000 F1000
G1 X50.986 Y36.166 Z0.000 F1000
G1 X51.262 Y36.472 Z0.000 F1000
G1 X51.528 Y36.778 Z0.000 F1000
G1 X51.842 Y37.147 Z0.000 F1000
G1 X52.213 Y37.591 Z0.000 F1000
G1 X52.758 Y38.259 Z0.000 F1000
G1 X53.260 Y38.910 Z0.000 F1000
G1 X53.742 Y39.572 Z0.000 F1000
G1 X54.184 Y40.216 Z0.000 F1000
G1 X55.013 Y41.552 Z0.000 F1000
G1 X55.758 Y42.931 Z0.000 F1000
G0 Z3.5 F1000
; --- FIX X Backlash: -0.500mm ---
G0 X55.258 Y42.931 F200
; --- FIX Y Backlash: -1.600mm ---
G0 X55.258 Y41.331 F200
G0 X47.274 Y30.186 Z3.500
G1 Z0 F1000
G1 X46.613 Y30.129 Z0.000 F1000
G1 X46.619 Y29.958 Z0.000 F1000
G1 X46.630 Y29.738 Z0.000 F1000
G1 X46.644 Y29.587 Z0.000 F1000
G1 X46.652 Y29.519 Z0.000 F1000
; --- FIX X Backlash: 0.500mm ---
G0 X47.152 Y29.519 F200
; --- FIX Y Backlash: 1.600mm ---
G0 X47.152 Y31.119 F200
G1 X47.770 Y31.368 Z0.000 F1000
G1 X47.914 Y31.431 Z0.000 F1000
; --- FIX X Backlash: -0.500mm ---
G0 X47.414 Y31.431 F200
G1 X47.274 Y31.786 Z0.000 F1000
G0 Z3.5 F1000
G0 X46.249 Y33.885 Z3.500
G1 Z0 F1000
G1 X46.280 Y34.269 Z0.000 F1000
; --- FIX X Backlash: 0.500mm ---
G0 X46.780 Y34.269 F200
G1 X46.836 Y34.739 Z0.000 F1000
G1 X47.001 Y35.792 Z0.000 F1000
G1 X47.210 Y36.800 Z0.000 F1000
G1 X47.542 Y38.029 Z0.000 F1000
G1 X47.915 Y39.207 Z0.000 F1000
G1 X48.334 Y40.344 Z0.000 F1000
G1 X48.805 Y41.449 Z0.000 F1000
G1 X49.327 Y42.525 Z0.000 F1000
G1 X49.904 Y43.578 Z0.000 F1000
G1 X50.538 Y44.614 Z0.000 F1000
G1 X51.229 Y45.637 Z0.000 F1000
G1 X51.834 Y46.464 Z0.000 F1000
G1 X52.222 Y46.970 Z0.000 F1000
; --- FIX X Backlash: -0.500mm ---
G0 X51.722 Y46.970 F200
G1 X51.473 Y46.945 Z0.000 F1000
G1 X51.212 Y46.901 Z0.000 F1000
; --- FIX Y Backlash: -1.600mm ---
G0 X51.212 Y45.301 F200
G1 X50.976 Y45.234 Z0.000 F1000
G1 X50.726 Y45.128 Z0.000 F1000
G1 X50.447 Y44.970 Z0.000 F1000
G1 X50.145 Y44.761 Z0.000 F1000
G1 X49.807 Y44.486 Z0.000 F1000
G1 X49.433 Y44.141 Z0.000 F1000
G1 X49.028 Y43.728 Z0.000 F1000
G1 X48.598 Y43.255 Z0.000 F1000
G1 X48.485 Y43.112 Z0.000 F1000
G1 X48.321 Y42.879 Z0.000 F1000
G1 X48.132 Y42.590 Z0.000 F1000
G1 X47.921 Y42.252 Z0.000 F1000
G1 X47.499 Y41.524 Z0.000 F1000
G1 X47.132 Y40.826 Z0.000 F1000
G1 X46.912 Y40.342 Z0.000 F1000
G1 X46.710 Y39.832 Z0.000 F1000
G1 X46.524 Y39.277 Z0.000 F1000
G1 X46.358 Y38.696 Z0.000 F1000
G1 X46.203 Y38.048 Z0.000 F1000
G1 X46.061 Y37.342 Z0.000 F1000
G1 X45.927 Y36.557 Z0.000 F1000
G1 X45.807 Y35.726 Z0.000 F1000
G1 X45.787 Y35.535 Z0.000 F1000
G1 X45.769 Y35.263 Z0.000 F1000
G1 X45.751 Y34.923 Z0.000 F1000
G1 X45.736 Y34.524 Z0.000 F1000
G1 X45.712 Y33.592 Z0.000 F1000
G1 X45.697 Y32.577 Z0.000 F1000
G1 X45.693 Y31.573 Z0.000 F1000
G1 X45.700 Y30.653 Z0.000 F1000
G1 X45.708 Y30.249 Z0.000 F1000
G1 X45.719 Y29.930 Z0.000 F1000
G1 X45.733 Y29.664 Z0.000 F1000
G1 X45.749 Y29.493 Z0.000 F1000
; --- FIX X Backlash: 0.500mm ---
G0 X46.249 Y29.493 F200
G1 X46.405 Y28.274 Z0.000 F1000
; --- FIX Y Backlash: 1.600mm ---
G0 X46.405 Y29.874 F200
G1 X47.112 Y30.133 Z0.000 F1000
G1 X48.134 Y30.544 Z0.000 F1000
G1 X49.167 Y30.994 Z0.000 F1000
G1 X50.200 Y31.475 Z0.000 F1000
G1 X51.189 Y31.967 Z0.000 F1000
G1 X52.136 Y32.471 Z0.000 F1000
G1 X52.560 Y32.710 Z0.000 F1000
G1 X52.980 Y32.957 Z0.000 F1000
G1 X53.355 Y33.187 Z0.000 F1000
G1 X53.718 Y33.421 Z0.000 F1000
G1 X54.386 Y33.885 Z0.000 F1000
G1 X55.032 Y34.372 Z0.000 F1000
G1 X55.621 Y34.854 Z0.000 F1000
G1 X56.170 Y35.347 Z0.000 F1000
G1 X56.688 Y35.856 Z0.000 F1000
G1 X57.145 Y36.352 Z0.000 F1000
G1 X57.573 Y36.868 Z0.000 F1000
G1 X57.948 Y37.375 Z0.000 F1000
G1 X58.279 Y37.880 Z0.000 F1000
G1 X58.571 Y38.396 Z0.000 F1000
G1 X58.813 Y38.900 Z0.000 F1000
G1 X59.010 Y39.398 Z0.000 F1000
G1 X59.164 Y39.896 Z0.000 F1000
G1 X59.273 Y40.384 Z0.000 F1000
G1 X59.339 Y40.874 Z0.000 F1000
G1 X59.361 Y41.357 Z0.000 F1000
G1 X59.350 Y41.723 Z0.000 F1000
G1 X59.316 Y42.053 Z0.000 F1000
; --- FIX X Backlash: -0.500mm ---
G0 X58.816 Y42.053 F200
G1 X58.761 Y42.337 Z0.000 F1000
G1 X58.733 Y42.437 Z0.000 F1000
; --- FIX Y Backlash: -1.600mm ---
G0 X58.733 Y40.837 F200
G1 X58.686 Y40.726 Z0.000 F1000
G1 X58.339 Y39.998 Z0.000 F1000
G1 X57.952 Y39.257 Z0.000 F1000
G1 X57.533 Y38.517 Z0.000 F1000
G1 X57.090 Y37.794 Z0.000 F1000
G1 X56.631 Y37.103 Z0.000 F1000
G1 X56.164 Y36.458 Z0.000 F1000
G1 X55.493 Y35.620 Z0.000 F1000
G1 X54.782 Y34.816 Z0.000 F1000
G1 X54.039 Y34.051 Z0.000 F1000
G1 X53.265 Y33.327 Z0.000 F1000
G1 X52.466 Y32.651 Z0.000 F1000
G1 X51.645 Y32.024 Z0.000 F1000
G1 X50.805 Y31.450 Z0.000 F1000
G1 X49.962 Y30.941 Z0.000 F1000
G1 X49.762 Y30.829 Z0.000 F1000
G1 X49.592 Y30.736 Z0.000 F1000
G1 X49.437 Y30.655 Z0.000 F1000
G1 X49.292 Y30.586 Z0.000 F1000
G1 X49.132 Y30.520 Z0.000 F1000
G1 X48.865 Y30.447 Z0.000 F1000
; --- FIX Y Backlash: 1.600mm ---
G0 X48.865 Y32.047 F200
G1 X48.114 Y32.111 Z0.000 F1000
G1 X47.817 Y32.870 Z0.000 F1000
; --- FIX Y Backlash: -1.600mm ---
G0 X47.817 Y31.270 F200
G1 X47.738 Y31.129 Z0.000 F1000
G1 X46.508 Y31.024 Z0.000 F1000
; --- FIX Y Backlash: 1.600mm ---
G0 X46.508 Y32.624 F200
G1 X46.257 Y33.472 Z0.000 F1000
G1 X46.244 Y33.699 Z0.000 F1000
G1 X46.249 Y33.885 Z0.000 F1000
G0 Z3.5 F1000
G0 X45.864 Y41.739 Z3.500
G1 Z0 F1000
; --- FIX Y Backlash: -1.600mm ---
G0 X45.864 Y40.139 F200
G1 X45.667 Y39.552 Z0.000 F1000
G1 X45.487 Y38.924 Z0.000 F1000
G1 X45.325 Y38.247 Z0.000 F1000
G1 X45.176 Y37.510 Z0.000 F1000
G1 X45.040 Y36.708 Z0.000 F1000
G1 X44.913 Y35.830 Z0.000 F1000
G1 X44.891 Y35.615 Z0.000 F1000
G1 X44.871 Y35.325 Z0.000 F1000
G1 X44.853 Y34.968 Z0.000 F1000
G1 X44.837 Y34.558 Z0.000 F1000
G1 X44.812 Y33.616 Z0.000 F1000
G1 X44.797 Y32.589 Z0.000 F1000
G1 X44.793 Y31.566 Z0.000 F1000
G1 X44.800 Y30.634 Z0.000 F1000
G1 X44.809 Y30.231 Z0.000 F1000
G1 X44.820 Y29.883 Z0.000 F1000
G1 X44.835 Y29.603 Z0.000 F1000
G1 X44.853 Y29.400 Z0.000 F1000
; --- FIX X Backlash: 0.500mm ---
G0 X45.353 Y29.400 F200
G1 X45.532 Y28.007 Z0.000 F1000
G1 X45.581 Y27.644 Z0.000 F1000
G1 X45.624 Y27.347 Z0.000 F1000
G1 X45.658 Y27.146 Z0.000 F1000
G1 X45.669 Y27.091 Z0.000 F1000
G1 X45.676 Y27.072 Z0.000 F1000
G1 X45.744 Y27.092 Z0.000 F1000
; --- FIX Y Backlash: 1.600mm ---
G0 X45.744 Y28.692 F200
G1 X45.910 Y28.748 Z0.000 F1000
G1 X46.439 Y28.928 Z0.000 F1000
G1 X47.437 Y29.293 Z0.000 F1000
G1 X48.477 Y29.712 Z0.000 F1000
G1 X49.535 Y30.173 Z0.000 F1000
G1 X50.585 Y30.662 Z0.000 F1000
G1 X51.604 Y31.168 Z0.000 F1000
G1 X52.565 Y31.680 Z0.000 F1000
G1 X53.016 Y31.934 Z0.000 F1000
G1 X53.443 Y32.185 Z0.000 F1000
G1 X53.844 Y32.431 Z0.000 F1000
G1 X54.214 Y32.670 Z0.000 F1000
G1 X54.919 Y33.160 Z0.000 F1000
G1 X55.584 Y33.661 Z0.000 F1000
G1 X56.208 Y34.172 Z0.000 F1000
G1 X56.790 Y34.694 Z0.000 F1000
G1 X57.330 Y35.225 Z0.000 F1000
G1 X57.826 Y35.764 Z0.000 F1000
G1 X58.279 Y36.309 Z0.000 F1000
G1 X58.688 Y36.860 Z0.000 F1000
G1 X59.050 Y37.416 Z0.000 F1000
G1 X59.367 Y37.975 Z0.000 F1000
G1 X59.638 Y38.537 Z0.000 F1000
G1 X59.860 Y39.101 Z0.000 F1000
G1 X60.035 Y39.665 Z0.000 F1000
G1 X60.160 Y40.228 Z0.000 F1000
G1 X60.236 Y40.790 Z0.000 F1000
G1 X60.262 Y41.349 Z0.000 F1000
G1 X60.249 Y41.788 Z0.000 F1000
G1 X60.208 Y42.183 Z0.000 F1000
; --- FIX X Backlash: -0.500mm ---
G0 X59.708 Y42.183 F200
G1 X59.637 Y42.549 Z0.000 F1000
G1 X59.535 Y42.902 Z0.000 F1000
G1 X59.324 Y43.433 Z0.000 F1000
G1 X59.048 Y44.020 Z0.000 F1000
G1 X58.913 Y44.282 Z0.000 F1000
G1 X58.792 Y44.496 Z0.000 F1000
G1 X58.699 Y44.639 Z0.000 F1000
G1 X58.641 Y44.691 Z0.000 F1000
G1 X58.629 Y44.677 Z0.000 F1000
G1 X58.608 Y44.635 Z0.000 F1000
; --- FIX Y Backlash: -1.600mm ---
G0 X58.608 Y43.035 F200
G1 X58.580 Y42.968 Z0.000 F1000
G1 X58.546 Y42.879 Z0.000 F1000
G1 X58.463 Y42.650 Z0.000 F1000
G1 X58.369 Y42.371 Z0.000 F1000
G1 X58.146 Y41.758 Z0.000 F1000
G1 X57.865 Y41.096 Z0.000 F1000
G1 X57.534 Y40.400 Z0.000 F1000
G1 X57.162 Y39.687 Z0.000 F1000
G1 X56.758 Y38.974 Z0.000 F1000
G1 X56.332 Y38.278 Z0.000 F1000
G1 X55.892 Y37.616 Z0.000 F1000
G1 X55.448 Y37.004 Z0.000 F1000
G1 X54.804 Y36.199 Z0.000 F1000
G1 X54.122 Y35.428 Z0.000 F1000
G1 X53.408 Y34.693 Z0.000 F1000
G1 X52.667 Y34.000 Z0.000 F1000
G1 X51.901 Y33.353 Z0.000 F1000
G1 X51.117 Y32.754 Z0.000 F1000
G1 X50.318 Y32.208 Z0.000 F1000
G1 X49.509 Y31.719 Z0.000 F1000
G1 X49.326 Y31.616 Z0.000 F1000
G1 X49.168 Y31.530 Z0.000 F1000
G1 X49.034 Y31.460 Z0.000 F1000
G1 X48.925 Y31.408 Z0.000 F1000
G1 X48.841 Y31.373 Z0.000 F1000
G1 X48.782 Y31.357 Z0.000 F1000
G1 X48.748 Y31.360 Z0.000 F1000
G1 X48.739 Y31.382 Z0.000 F1000
G1 X48.755 Y31.424 Z0.000 F1000
; --- FIX Y Backlash: 1.600mm ---
G0 X48.755 Y33.024 F200
G1 X48.797 Y33.087 Z0.000 F1000
; --- FIX X Backlash: 0.500mm ---
G0 X49.297 Y33.087 F200
G1 X49.363 Y33.171 Z0.000 F1000
G1 X49.455 Y33.277 Z0.000 F1000
G1 X49.572 Y33.405 Z0.000 F1000
G1 X49.715 Y33.555 Z0.000 F1000
G1 X50.076 Y33.927 Z0.000 F1000
G1 X50.597 Y34.458 Z0.000 F1000
G1 X51.016 Y34.887 Z0.000 F1000
G1 X51.359 Y35.246 Z0.000 F1000
G1 X51.655 Y35.563 Z0.000 F1000
G1 X51.931 Y35.870 Z0.000 F1000
G1 X52.213 Y36.195 Z0.000 F1000
G1 X52.531 Y36.569 Z0.000 F1000
G1 X52.911 Y37.022 Z0.000 F1000
G1 X53.462 Y37.699 Z0.000 F1000
G1 X53.982 Y38.373 Z0.000 F1000
G1 X54.474 Y39.048 Z0.000 F1000
G1 X54.939 Y39.727 Z0.000 F1000
G1 X55.793 Y41.103 Z0.000 F1000
G1 X56.561 Y42.522 Z0.000 F1000
G1 X56.996 Y43.448 Z0.000 F1000
G1 X57.396 Y44.398 Z0.000 F1000
G1 X57.562 Y44.826 Z0.000 F1000
G1 X57.691 Y45.191 Z0.000 F1000
G1 X57.739 Y45.343 Z0.000 F1000
G1 X57.775 Y45.471 Z0.000 F1000
G1 X57.797 Y45.572 Z0.000 F1000
G1 X57.805 Y45.643 Z0.000 F1000
G1 X57.792 Y45.691 Z0.000 F1000
G1 X57.751 Y45.753 Z0.000 F1000
; --- FIX X Backlash: -0.500mm ---
G0 X57.251 Y45.753 F200
G1 X57.188 Y45.827 Z0.000 F1000
G1 X57.104 Y45.912 Z0.000 F1000
G1 X56.885 Y46.103 Z0.000 F1000
G1 X56.612 Y46.313 Z0.000 F1000
G1 X56.307 Y46.525 Z0.000 F1000
G1 X55.991 Y46.726 Z0.000 F1000
G1 X55.683 Y46.900 Z0.000 F1000
G1 X55.404 Y47.032 Z0.000 F1000
G1 X55.198 Y47.108 Z0.000 F1000
G1 X55.056 Y47.108 Z0.000 F1000
G1 X54.991 Y47.077 Z0.000 F1000
; --- FIX Y Backlash: -1.600mm ---
G0 X54.991 Y45.477 F200
G1 X54.921 Y45.419 Z0.000 F1000
G1 X54.838 Y45.332 Z0.000 F1000
G1 X54.736 Y45.216 Z0.000 F1000
G1 X54.520 Y44.961 Z0.000 F1000
G1 X54.285 Y44.670 Z0.000 F1000
G1 X54.033 Y44.347 Z0.000 F1000
G1 X53.769 Y43.999 Z0.000 F1000
G1 X53.212 Y43.240 Z0.000 F1000
G1 X52.640 Y42.428 Z0.000 F1000
G1 X52.076 Y41.598 Z0.000 F1000
G1 X51.545 Y40.785 Z0.000 F1000
G1 X51.300 Y40.397 Z0.000 F1000
G1 X51.072 Y40.025 Z0.000 F1000
G1 X50.864 Y39.676 Z0.000 F1000
G1 X50.680 Y39.354 Z0.000 F1000
G1 X50.334 Y38.720 Z0.000 F1000
G1 X49.981 Y38.048 Z0.000 F1000
G1 X49.625 Y37.347 Z0.000 F1000
G1 X49.271 Y36.628 Z0.000 F1000
G1 X48.584 Y35.169 Z0.000 F1000
G1 X47.961 Y33.747 Z0.000 F1000
G1 X47.677 Y33.079 Z0.000 F1000
G1 X47.436 Y32.525 Z0.000 F1000
G1 X47.264 Y32.140 Z0.000 F1000
G1 X47.211 Y32.030 Z0.000 F1000
G1 X47.186 Y31.985 Z0.000 F1000
G1 X47.163 Y31.985 Z0.000 F1000
G1 X47.149 Y32.027 Z0.000 F1000
; --- FIX Y Backlash: 1.600mm ---
G0 X47.149 Y33.627 F200
G1 X47.145 Y33.714 Z0.000 F1000
G1 X47.145 Y33.837 Z0.000 F1000
G1 X47.175 Y34.179 Z0.000 F1000
; --- FIX X Backlash: 0.500mm ---
G0 X47.675 Y34.179 F200
G1 X47.728 Y34.616 Z0.000 F1000
G1 X47.887 Y35.630 Z0.000 F1000
G1 X48.086 Y36.591 Z0.000 F1000
G1 X48.406 Y37.776 Z0.000 F1000
G1 X48.767 Y38.915 Z0.000 F1000
G1 X49.171 Y40.012 Z0.000 F1000
G1 X49.624 Y41.076 Z0.000 F1000
G1 X50.126 Y42.112 Z0.000 F1000
G1 X50.683 Y43.126 Z0.000 F1000
G1 X51.294 Y44.127 Z0.000 F1000
G1 X51.966 Y45.119 Z0.000 F1000
G1 X52.555 Y45.925 Z0.000 F1000
G1 X53.151 Y46.703 Z0.000 F1000
G1 X53.414 Y47.033 Z0.000 F1000
G1 X53.633 Y47.298 Z0.000 F1000
G1 X53.722 Y47.400 Z0.000 F1000
G1 X53.793 Y47.479 Z0.000 F1000
G1 X53.847 Y47.532 Z0.000 F1000
G1 X53.880 Y47.557 Z0.000 F1000
G1 X53.937 Y47.626 Z0.000 F1000
G1 X53.960 Y47.744 Z0.000 F1000
G1 X53.942 Y47.777 Z0.000 F1000
; --- FIX X Backlash: -0.500mm ---
G0 X53.442 Y47.777 F200
G1 X53.389 Y47.807 Z0.000 F1000
G1 X53.305 Y47.833 Z0.000 F1000
G1 X53.194 Y47.854 Z0.000 F1000
G1 X52.903 Y47.885 Z0.000 F1000
G1 X52.546 Y47.899 Z0.000 F1000
G1 X52.149 Y47.896 Z0.000 F1000
G1 X51.743 Y47.876 Z0.000 F1000
G1 X51.355 Y47.837 Z0.000 F1000
; --- FIX Y Backlash: -1.600mm ---
G0 X51.355 Y46.237 F200
G1 X51.014 Y46.181 Z0.000 F1000
G1 X50.674 Y46.084 Z0.000 F1000
G1 X50.328 Y45.937 Z0.000 F1000
G1 X49.972 Y45.736 Z0.000 F1000
G1 X49.602 Y45.480 Z0.000 F1000
G1 X49.214 Y45.164 Z0.000 F1000
G1 X48.806 Y44.788 Z0.000 F1000
G1 X48.374 Y44.347 Z0.000 F1000
G1 X47.913 Y43.839 Z0.000 F1000
G1 X47.763 Y43.650 Z0.000 F1000
G1 X47.580 Y43.390 Z0.000 F1000
G1 X47.374 Y43.075 Z0.000 F1000
G1 X47.153 Y42.720 Z0.000 F1000
G1 X46.709 Y41.955 Z0.000 F1000
G1 X46.324 Y41.223 Z0.000 F1000
G1 X46.083 Y40.693 Z0.000 F1000
G1 X45.864 Y40.139 Z0.000 F1000
G0 Z3.5 F1000
; --- FIX X Backlash: 0.500mm ---
G0 X46.364 Y40.139 F200
G0 X91.838 Y37.380 Z3.500
G1 Z0 F1000
; --- FIX X Backlash: -0.500mm ---
G0 X91.338 Y37.380 F200
; --- FIX Y Backlash: 1.600mm ---
G0 X91.338 Y38.980 F200
G1 X90.633 Y40.247 Z0.000 F1000
G1 X89.902 Y41.455 Z0.000 F1000
G1 X89.131 Y42.628 Z0.000 F1000
G1 X88.296 Y43.804 Z0.000 F1000
G1 X88.208 Y43.919 Z0.000 F1000
; --- FIX X Backlash: 0.500mm ---
G0 X88.708 Y43.919 F200
; --- FIX Y Backlash: -1.600mm ---
G0 X88.708 Y42.319 F200
G1 X88.801 Y42.124 Z0.000 F1000
G1 X89.049 Y41.626 Z0.000 F1000
G1 X89.591 Y40.614 Z0.000 F1000
G1 X90.184 Y39.621 Z0.000 F1000
G1 X90.828 Y38.650 Z0.000 F1000
G1 X91.539 Y37.676 Z0.000 F1000
G1 X91.952 Y37.158 Z0.000 F1000
; --- FIX X Backlash: -0.500mm ---
G0 X91.452 Y37.158 F200
; --- FIX Y Backlash: 1.600mm ---
G0 X91.452 Y38.758 F200
G1 X91.338 Y38.980 Z0.000 F1000
G0 Z3.5 F1000
G0 X89.871 Y43.141 Z3.500
G1 Z0 F1000
G1 X89.029 Y44.326 Z0.000 F1000
G1 X88.108 Y45.534 Z0.000 F1000
G1 X87.683 Y46.075 Z0.000 F1000
G1 X87.609 Y46.036 Z0.000 F1000
; --- FIX Y Backlash: -1.600mm ---
G0 X87.609 Y44.436 F200
G1 X87.225 Y44.204 Z0.000 F1000
G1 X86.845 Y43.950 Z0.000 F1000
G1 X86.603 Y43.769 Z0.000 F1000
; --- FIX X Backlash: 0.500mm ---
G0 X87.103 Y43.769 F200
G1 X87.174 Y43.571 Z0.000 F1000
G1 X87.322 Y43.202 Z0.000 F1000
G1 X87.521 Y42.742 Z0.000 F1000
G1 X87.742 Y42.255 Z0.000 F1000
G1 X87.982 Y41.750 Z0.000 F1000
G1 X88.248 Y41.215 Z0.000 F1000
G1 X88.816 Y40.155 Z0.000 F1000
G1 X89.417 Y39.149 Z0.000 F1000
G1 X90.095 Y38.128 Z0.000 F1000
G1 X90.825 Y37.128 Z0.000 F1000
G1 X91.635 Y36.111 Z0.000 F1000
G1 X92.542 Y35.061 Z0.000 F1000
G1 X93.028 Y34.525 Z0.000 F1000
G1 X93.528 Y33.992 Z0.000 F1000
G1 X94.073 Y33.428 Z0.000 F1000
G1 X94.638 Y32.858 Z0.000 F1000
G1 X94.954 Y32.535 Z0.000 F1000
G1 X95.216 Y32.244 Z0.000 F1000
G1 X95.220 Y32.240 Z0.000 F1000
; --- FIX Y Backlash: 1.600mm ---
G0 X95.220 Y33.840 F200
G1 X95.189 Y33.905 Z0.000 F1000
; --- FIX X Backlash: -0.500mm ---
G0 X94.689 Y33.905 F200
G1 X94.523 Y34.280 Z0.000 F1000
G1 X94.192 Y35.051 Z0.000 F1000
G1 X93.506 Y36.611 Z0.000 F1000
G1 X92.834 Y38.033 Z0.000 F1000
G1 X92.130 Y39.409 Z0.000 F1000
G1 X91.417 Y40.690 Z0.000 F1000
G1 X90.666 Y41.931 Z0.000 F1000
G1 X89.871 Y43.141 Z0.000 F1000
G0 Z3.5 F1000
; --- FIX X Backlash: 0.500mm ---
G0 X90.371 Y43.141 F200
; --- FIX Y Backlash: -1.600mm ---
G0 X90.371 Y41.541 F200
G0 X96.160 Y29.783 Z3.500
G1 Z0 F1000
G1 X96.593 Y29.600 Z0.000 F1000
G1 X96.780 Y29.524 Z0.000 F1000
; --- FIX Y Backlash: 1.600mm ---
G0 X96.780 Y31.124 F200
G1 X96.788 Y31.266 Z0.000 F1000
G1 X96.792 Y31.368 Z0.000 F1000
; --- FIX X Backlash: -0.500mm ---
G0 X96.292 Y31.368 F200
G1 X96.147 Y31.458 Z0.000 F1000
; --- FIX Y Backlash: -1.600mm ---
G0 X96.147 Y29.858 F200
G1 X95.660 Y29.783 Z0.000 F1000
G0 Z3.5 F1000
G0 X93.737 Y29.635 Z3.500
G1 Z0 F1000
; --- FIX X Backlash: 0.500mm ---
G0 X94.237 Y29.635 F200
G1 X95.261 Y29.186 Z0.000 F1000
G1 X96.243 Y28.771 Z0.000 F1000
G1 X96.685 Y28.591 Z0.000 F1000
G1 X97.110 Y28.423 Z0.000 F1000
G1 X97.468 Y28.289 Z0.000 F1000
G1 X97.598 Y28.243 Z0.000 F1000
; --- FIX Y Backlash: 1.600mm ---
G0 X97.598 Y29.843 F200
G1 X97.618 Y30.081 Z0.000 F1000
G1 X97.643 Y30.421 Z0.000 F1000
G1 X97.688 Y31.231 Z0.000 F1000
G1 X97.722 Y32.138 Z0.000 F1000
G1 X97.745 Y33.123 Z0.000 F1000
G1 X97.752 Y34.116 Z0.000 F1000
G1 X97.752 Y34.667 Z0.000 F1000
G1 X97.745 Y35.180 Z0.000 F1000
G1 X97.737 Y35.653 Z0.000 F1000
G1 X97.725 Y36.103 Z0.000 F1000
G1 X97.689 Y36.875 Z0.000 F1000
; --- FIX X Backlash: -0.500mm ---
G0 X97.189 Y36.875 F200
G1 X97.134 Y37.584 Z0.000 F1000
G1 X97.058 Y38.232 Z0.000 F1000
G1 X96.963 Y38.817 Z0.000 F1000
G1 X96.837 Y39.434 Z0.000 F1000
G1 X96.683 Y40.066 Z0.000 F1000
G1 X96.528 Y40.614 Z0.000 F1000
G1 X96.347 Y41.159 Z0.000 F1000
G1 X96.148 Y41.680 Z0.000 F1000
G1 X95.920 Y42.210 Z0.000 F1000
G1 X95.674 Y42.723 Z0.000 F1000
G1 X95.412 Y43.218 Z0.000 F1000
G1 X95.135 Y43.689 Z0.000 F1000
G1 X94.839 Y44.149 Z0.000 F1000
G1 X94.534 Y44.580 Z0.000 F1000
G1 X94.222 Y44.979 Z0.000 F1000
G1 X93.900 Y45.352 Z0.000 F1000
G1 X93.582 Y45.684 Z0.000 F1000
G1 X93.256 Y45.985 Z0.000 F1000
G1 X92.934 Y46.246 Z0.000 F1000
G1 X92.626 Y46.459 Z0.000 F1000
G1 X92.309 Y46.641 Z0.000 F1000
G1 X92.086 Y46.752 Z0.000 F1000
G1 X91.935 Y46.822 Z0.000 F1000
G1 X91.811 Y46.869 Z0.000 F1000
G1 X91.696 Y46.901 Z0.000 F1000
G1 X91.575 Y46.923 Z0.000 F1000
G1 X91.383 Y46.943 Z0.000 F1000
G1 X91.265 Y46.951 Z0.000 F1000
; --- FIX X Backlash: 0.500mm ---
G0 X91.765 Y46.951 F200
; --- FIX Y Backlash: -1.600mm ---
G0 X91.765 Y45.351 F200
G1 X91.914 Y45.156 Z0.000 F1000
G1 X92.301 Y44.637 Z0.000 F1000
G1 X92.689 Y44.105 Z0.000 F1000
G1 X93.056 Y43.591 Z0.000 F1000
G1 X93.226 Y43.348 Z0.000 F1000
G1 X93.382 Y43.121 Z0.000 F1000
G1 X93.524 Y42.911 Z0.000 F1000
G1 X93.650 Y42.717 Z0.000 F1000
G1 X94.062 Y42.044 Z0.000 F1000
G1 X94.463 Y41.326 Z0.000 F1000
G1 X94.849 Y40.575 Z0.000 F1000
G1 X95.217 Y39.798 Z0.000 F1000
G1 X95.565 Y38.999 Z0.000 F1000
G1 X95.890 Y38.185 Z0.000 F1000
G1 X96.189 Y37.361 Z0.000 F1000
G1 X96.460 Y36.533 Z0.000 F1000
G1 X96.610 Y36.005 Z0.000 F1000
G1 X96.755 Y35.423 Z0.000 F1000
G1 X96.890 Y34.817 Z0.000 F1000
G1 X97.011 Y34.214 Z0.000 F1000
G1 X97.112 Y33.639 Z0.000 F1000
G1 X97.187 Y33.123 Z0.000 F1000
G1 X97.214 Y32.885 Z0.000 F1000
G1 X97.233 Y32.668 Z0.000 F1000
G1 X97.241 Y32.463 Z0.000 F1000
G1 X97.235 Y32.257 Z0.000 F1000
; --- FIX X Backlash: -0.500mm ---
G0 X96.735 Y32.257 F200
G1 X96.682 Y31.901 Z0.000 F1000
G1 X96.054 Y30.975 Z0.000 F1000
; --- FIX Y Backlash: 1.600mm ---
G0 X96.054 Y32.575 F200
G1 X95.107 Y33.164 Z0.000 F1000
; --- FIX X Backlash: 0.500mm ---
G0 X95.607 Y33.164 F200
; --- FIX Y Backlash: -1.600mm ---
G0 X95.607 Y31.564 F200
G1 X95.720 Y30.625 Z0.000 F1000
; --- FIX X Backlash: -0.500mm ---
G0 X95.220 Y30.625 F200
G1 X94.140 Y30.458 Z0.000 F1000
; --- FIX Y Backlash: 1.600mm ---
G0 X94.140 Y32.058 F200
G1 X93.840 Y32.137 Z0.000 F1000
G1 X93.668 Y32.205 Z0.000 F1000
G1 X93.502 Y32.282 Z0.000 F1000
G1 X93.160 Y32.461 Z0.000 F1000
G1 X92.755 Y32.692 Z0.000 F1000
G1 X91.884 Y33.235 Z0.000 F1000
G1 X91.064 Y33.805 Z0.000 F1000
G1 X90.820 Y33.994 Z0.000 F1000
G1 X90.568 Y34.199 Z0.000 F1000
G1 X90.306 Y34.421 Z0.000 F1000
G1 X90.032 Y34.660 Z0.000 F1000
G1 X89.483 Y35.158 Z0.000 F1000
G1 X88.951 Y35.663 Z0.000 F1000
G1 X88.700 Y35.909 Z0.000 F1000
G1 X88.467 Y36.143 Z0.000 F1000
G1 X88.256 Y36.363 Z0.000 F1000
G1 X88.068 Y36.566 Z0.000 F1000
G1 X87.906 Y36.754 Z0.000 F1000
G1 X87.762 Y36.937 Z0.000 F1000
G1 X87.656 Y37.106 Z0.000 F1000
G1 X87.622 Y37.133 Z0.000 F1000
G1 X87.499 Y37.247 Z0.000 F1000
G1 X87.270 Y37.483 Z0.000 F1000
G1 X87.025 Y37.767 Z0.000 F1000
G1 X86.543 Y38.387 Z0.000 F1000
G1 X86.079 Y39.043 Z0.000 F1000
G1 X85.634 Y39.728 Z0.000 F1000
G1 X85.215 Y40.436 Z0.000 F1000
G1 X84.822 Y41.160 Z0.000 F1000
G1 X84.462 Y41.892 Z0.000 F1000
G1 X84.237 Y42.401 Z0.000 F1000
; --- FIX Y Backlash: -1.600mm ---
G0 X84.237 Y40.801 F200
G1 X84.229 Y40.723 Z0.000 F1000
G1 X84.217 Y40.491 Z0.000 F1000
G1 X84.211 Y40.177 Z0.000 F1000
G1 X84.211 Y39.787 Z0.000 F1000
G1 X84.211 Y39.415 Z0.000 F1000
G1 X84.219 Y39.102 Z0.000 F1000
G1 X84.231 Y38.860 Z0.000 F1000
G1 X84.249 Y38.675 Z0.000 F1000
; --- FIX X Backlash: 0.500mm ---
G0 X84.749 Y38.675 F200
G1 X84.810 Y38.343 Z0.000 F1000
G1 X84.916 Y37.987 Z0.000 F1000
G1 X85.158 Y37.354 Z0.000 F1000
G1 X85.447 Y36.743 Z0.000 F1000
G1 X85.792 Y36.141 Z0.000 F1000
G1 X86.192 Y35.547 Z0.000 F1000
G1 X86.666 Y34.943 Z0.000 F1000
G1 X87.207 Y34.335 Z0.000 F1000
G1 X87.823 Y33.714 Z0.000 F1000
G1 X88.534 Y33.063 Z0.000 F1000
G1 X88.890 Y32.758 Z0.000 F1000
G1 X89.230 Y32.496 Z0.000 F1000
G1 X89.413 Y32.368 Z0.000 F1000
G1 X89.666 Y32.196 Z0.000 F1000
G1 X89.958 Y32.004 Z0.000 F1000
G1 X90.777 Y31.474 Z0.000 F1000
G1 X91.318 Y31.119 Z0.000 F1000
G1 X91.543 Y30.967 Z0.000 F1000
G1 X91.589 Y30.934 Z0.000 F1000
G1 X91.679 Y30.872 Z0.000 F1000
G1 X91.858 Y30.770 Z0.000 F1000
G1 X92.127 Y30.629 Z0.000 F1000
G1 X92.449 Y30.467 Z0.000 F1000
G1 X92.842 Y30.277 Z0.000 F1000
G1 X93.279 Y30.072 Z0.000 F1000
G1 X93.754 Y29.853 Z0.000 F1000
G1 X94.237 Y29.635 Z0.000 F1000
G0 Z3.5 F1000
G0 X98.458 Y27.785 Z3.500
G1 Z0 F1000
; --- FIX Y Backlash: 1.600mm ---
G0 X98.458 Y29.385 F200
G1 X98.487 Y29.675 Z0.000 F1000
G1 X98.515 Y30.005 Z0.000 F1000
G1 X98.542 Y30.372 Z0.000 F1000
G1 X98.587 Y31.197 Z0.000 F1000
G1 X98.622 Y32.118 Z0.000 F1000
G1 X98.645 Y33.103 Z0.000 F1000
G1 X98.652 Y34.119 Z0.000 F1000
G1 X98.652 Y34.677 Z0.000 F1000
G1 X98.645 Y35.195 Z0.000 F1000
G1 X98.637 Y35.678 Z0.000 F1000
G1 X98.625 Y36.127 Z0.000 F1000
G1 X98.587 Y36.944 Z0.000 F1000
; --- FIX X Backlash: -0.500mm ---
G0 X98.087 Y36.944 F200
G1 X98.030 Y37.675 Z0.000 F1000
G1 X97.951 Y38.346 Z0.000 F1000
G1 X97.847 Y38.988 Z0.000 F1000
G1 X97.716 Y39.628 Z0.000 F1000
G1 X97.553 Y40.296 Z0.000 F1000
G1 X97.389 Y40.878 Z0.000 F1000
G1 X97.197 Y41.455 Z0.000 F1000
G1 X96.980 Y42.024 Z0.000 F1000
G1 X96.740 Y42.582 Z0.000 F1000
G1 X96.479 Y43.127 Z0.000 F1000
G1 X96.198 Y43.656 Z0.000 F1000
G1 X95.899 Y44.165 Z0.000 F1000
G1 X95.585 Y44.653 Z0.000 F1000
G1 X95.257 Y45.116 Z0.000 F1000
G1 X94.918 Y45.551 Z0.000 F1000
G1 X94.568 Y45.957 Z0.000 F1000
G1 X94.210 Y46.329 Z0.000 F1000
G1 X93.845 Y46.666 Z0.000 F1000
G1 X93.477 Y46.965 Z0.000 F1000
G1 X93.105 Y47.222 Z0.000 F1000
G1 X92.733 Y47.435 Z0.000 F1000
G1 X92.487 Y47.558 Z0.000 F1000
G1 X92.279 Y47.654 Z0.000 F1000
G1 X92.090 Y47.726 Z0.000 F1000
G1 X91.902 Y47.778 Z0.000 F1000
G1 X91.698 Y47.815 Z0.000 F1000
G1 X91.459 Y47.841 Z0.000 F1000
G1 X91.167 Y47.859 Z0.000 F1000
G1 X90.803 Y47.875 Z0.000 F1000
G1 X90.346 Y47.885 Z0.000 F1000
G1 X89.958 Y47.879 Z0.000 F1000
G1 X89.803 Y47.871 Z0.000 F1000
G1 X89.680 Y47.859 Z0.000 F1000
G1 X89.595 Y47.845 Z0.000 F1000
G1 X89.553 Y47.827 Z0.000 F1000
; --- FIX Y Backlash: -1.600mm ---
G0 X89.553 Y46.227 F200
G1 X89.542 Y46.162 Z0.000 F1000
G1 X89.582 Y46.053 Z0.000 F1000
; --- FIX X Backlash: 0.500mm ---
G0 X90.082 Y46.053 F200
G1 X90.167 Y45.915 Z0.000 F1000
G1 X90.289 Y45.761 Z0.000 F1000
G1 X90.399 Y45.633 Z0.000 F1000
G1 X90.529 Y45.474 Z0.000 F1000
G1 X90.676 Y45.289 Z0.000 F1000
G1 X90.838 Y45.082 Z0.000 F1000
G1 X91.195 Y44.614 Z0.000 F1000
G1 X91.577 Y44.103 Z0.000 F1000
G1 X91.959 Y43.578 Z0.000 F1000
G1 X92.321 Y43.072 Z0.000 F1000
G1 X92.487 Y42.835 Z0.000 F1000
G1 X92.638 Y42.615 Z0.000 F1000
G1 X92.773 Y42.414 Z0.000 F1000
G1 X92.889 Y42.237 Z0.000 F1000
G1 X93.285 Y41.589 Z0.000 F1000
G1 X93.670 Y40.900 Z0.000 F1000
G1 X94.042 Y40.177 Z0.000 F1000
G1 X94.398 Y39.425 Z0.000 F1000
G1 X94.734 Y38.652 Z0.000 F1000
G1 X95.049 Y37.864 Z0.000 F1000
G1 X95.338 Y37.067 Z0.000 F1000
G1 X95.599 Y36.269 Z0.000 F1000
G1 X95.741 Y35.773 Z0.000 F1000
G1 X95.879 Y35.216 Z0.000 F1000
G1 X96.010 Y34.631 Z0.000 F1000
G1 X96.126 Y34.048 Z0.000 F1000
G1 X96.223 Y33.496 Z0.000 F1000
G1 X96.294 Y33.007 Z0.000 F1000
G1 X96.318 Y32.796 Z0.000 F1000
G1 X96.334 Y32.610 Z0.000 F1000
G1 X96.341 Y32.457 Z0.000 F1000
G1 X96.337 Y32.338 Z0.000 F1000
G1 X96.322 Y32.237 Z0.000 F1000
G1 X96.294 Y32.196 Z0.000 F1000
G1 X96.248 Y32.225 Z0.000 F1000
; --- FIX X Backlash: -0.500mm ---
G0 X95.748 Y32.225 F200
; --- FIX Y Backlash: 1.600mm ---
G0 X95.748 Y33.825 F200
G1 X95.676 Y33.935 Z0.000 F1000
G1 X95.629 Y34.024 Z0.000 F1000
G1 X95.574 Y34.138 Z0.000 F1000
G1 X95.509 Y34.278 Z0.000 F1000
G1 X95.348 Y34.640 Z0.000 F1000
G1 X95.016 Y35.413 Z0.000 F1000
G1 X94.329 Y36.977 Z0.000 F1000
G1 X93.636 Y38.443 Z0.000 F1000
G1 X92.927 Y39.827 Z0.000 F1000
G1 X92.193 Y41.145 Z0.000 F1000
G1 X91.426 Y42.414 Z0.000 F1000
G1 X90.614 Y43.648 Z0.000 F1000
G1 X89.750 Y44.865 Z0.000 F1000
G1 X88.824 Y46.080 Z0.000 F1000
G1 X87.993 Y47.136 Z0.000 F1000
G1 X87.940 Y47.155 Z0.000 F1000
G1 X87.846 Y47.140 Z0.000 F1000
G1 X87.715 Y47.096 Z0.000 F1000
; --- FIX Y Backlash: -1.600mm ---
G0 X87.715 Y45.496 F200
G1 X87.555 Y45.425 Z0.000 F1000
G1 X87.170 Y45.222 Z0.000 F1000
G1 X86.742 Y44.963 Z0.000 F1000
G1 X86.320 Y44.682 Z0.000 F1000
G1 X85.957 Y44.410 Z0.000 F1000
G1 X85.813 Y44.287 Z0.000 F1000
G1 X85.702 Y44.178 Z0.000 F1000
G1 X85.631 Y44.088 Z0.000 F1000
G1 X85.606 Y44.020 Z0.000 F1000
G1 X85.613 Y43.947 Z0.000 F1000
G1 X85.633 Y43.850 Z0.000 F1000
G1 X85.666 Y43.731 Z0.000 F1000
G1 X85.710 Y43.590 Z0.000 F1000
; --- FIX X Backlash: 0.500mm ---
G0 X86.210 Y43.590 F200
G1 X86.333 Y43.251 Z0.000 F1000
G1 X86.496 Y42.845 Z0.000 F1000
G1 X86.694 Y42.385 Z0.000 F1000
G1 X86.922 Y41.883 Z0.000 F1000
G1 X87.176 Y41.350 Z0.000 F1000
G1 X87.450 Y40.798 Z0.000 F1000
G1 X88.028 Y39.720 Z0.000 F1000
G1 X88.659 Y38.665 Z0.000 F1000
G1 X89.350 Y37.622 Z0.000 F1000
G1 X90.109 Y36.582 Z0.000 F1000
G1 X90.946 Y35.532 Z0.000 F1000
G1 X91.867 Y34.464 Z0.000 F1000
G1 X92.362 Y33.920 Z0.000 F1000
G1 X92.881 Y33.366 Z0.000 F1000
G1 X93.425 Y32.803 Z0.000 F1000
G1 X93.996 Y32.228 Z0.000 F1000
G1 X94.297 Y31.919 Z0.000 F1000
G1 X94.535 Y31.656 Z0.000 F1000
G1 X94.622 Y31.550 Z0.000 F1000
G1 X94.684 Y31.467 Z0.000 F1000
G1 X94.719 Y31.410 Z0.000 F1000
G1 X94.722 Y31.381 Z0.000 F1000
G1 X94.688 Y31.376 Z0.000 F1000
; --- FIX X Backlash: -0.500mm ---
G0 X94.188 Y31.376 F200
G1 X94.121 Y31.394 Z0.000 F1000
G1 X94.024 Y31.432 Z0.000 F1000
; --- FIX Y Backlash: 1.600mm ---
G0 X94.024 Y33.032 F200
G1 X93.901 Y33.089 Z0.000 F1000
G1 X93.592 Y33.251 Z0.000 F1000
G1 X93.217 Y33.465 Z0.000 F1000
G1 X92.379 Y33.987 Z0.000 F1000
G1 X91.597 Y34.530 Z0.000 F1000
G1 X91.380 Y34.698 Z0.000 F1000
G1 X91.144 Y34.891 Z0.000 F1000
G1 X90.892 Y35.104 Z0.000 F1000
G1 X90.630 Y35.333 Z0.000 F1000
G1 X90.095 Y35.818 Z0.000 F1000
G1 X89.576 Y36.310 Z0.000 F1000
G1 X89.334 Y36.547 Z0.000 F1000
G1 X89.111 Y36.771 Z0.000 F1000
G1 X88.912 Y36.979 Z0.000 F1000
G1 X88.740 Y37.166 Z0.000 F1000
G1 X88.601 Y37.327 Z0.000 F1000
G1 X88.499 Y37.456 Z0.000 F1000
G1 X88.439 Y37.551 Z0.000 F1000
G1 X88.427 Y37.605 Z0.000 F1000
G1 X88.439 Y37.658 Z0.000 F1000
G1 X88.431 Y37.698 Z0.000 F1000
G1 X88.405 Y37.721 Z0.000 F1000
G1 X88.363 Y37.721 Z0.000 F1000
G1 X88.329 Y37.730 Z0.000 F1000
G1 X88.276 Y37.763 Z0.000 F1000
G1 X88.208 Y37.817 Z0.000 F1000
G1 X88.126 Y37.892 Z0.000 F1000
G1 X87.935 Y38.090 Z0.000 F1000
G1 X87.722 Y38.337 Z0.000 F1000
G1 X87.266 Y38.923 Z0.000 F1000
G1 X86.824 Y39.548 Z0.000 F1000
G1 X86.399 Y40.203 Z0.000 F1000
G1 X85.998 Y40.880 Z0.000 F1000
G1 X85.622 Y41.573 Z0.000 F1000
G1 X85.278 Y42.272 Z0.000 F1000
G1 X84.969 Y42.972 Z0.000 F1000
G1 X84.701 Y43.663 Z0.000 F1000
G1 X84.358 Y44.611 Z0.000 F1000
; --- FIX Y Backlash: -1.600mm ---
G0 X84.358 Y43.011 F200
G1 X84.124 Y42.683 Z0.000 F1000
G1 X84.010 Y42.506 Z0.000 F1000
G1 X83.874 Y42.269 Z0.000 F1000
G1 X83.731 Y42.002 Z0.000 F1000
G1 X83.600 Y41.735 Z0.000 F1000
G1 X83.442 Y41.362 Z0.000 F1000
G1 X83.354 Y41.005 Z0.000 F1000
G1 X83.331 Y40.789 Z0.000 F1000
G1 X83.317 Y40.525 Z0.000 F1000
G1 X83.311 Y40.194 Z0.000 F1000
G1 X83.311 Y39.781 Z0.000 F1000
G1 X83.311 Y39.395 Z0.000 F1000
G1 X83.319 Y39.070 Z0.000 F1000
G1 X83.333 Y38.794 Z0.000 F1000
G1 X83.356 Y38.554 Z0.000 F1000
; --- FIX X Backlash: 0.500mm ---
G0 X83.856 Y38.554 F200
G1 X83.934 Y38.131 Z0.000 F1000
G1 X84.063 Y37.698 Z0.000 F1000
G1 X84.329 Y37.001 Z0.000 F1000
G1 X84.649 Y36.325 Z0.000 F1000
G1 X85.026 Y35.665 Z0.000 F1000
G1 X85.466 Y35.015 Z0.000 F1000
G1 X85.972 Y34.369 Z0.000 F1000
G1 X86.549 Y33.720 Z0.000 F1000
G1 X87.202 Y33.063 Z0.000 F1000
G1 X87.934 Y32.391 Z0.000 F1000
G1 X88.321 Y32.060 Z0.000 F1000
G1 X88.693 Y31.774 Z0.000 F1000
G1 X88.908 Y31.622 Z0.000 F1000
G1 X89.162 Y31.451 Z0.000 F1000
G1 X89.468 Y31.249 Z0.000 F1000
G1 X90.286 Y30.720 Z0.000 F1000
G1 X90.819 Y30.369 Z0.000 F1000
G1 X91.027 Y30.229 Z0.000 F1000
G1 X91.072 Y30.197 Z0.000 F1000
G1 X91.206 Y30.106 Z0.000 F1000
G1 X91.421 Y29.983 Z0.000 F1000
G1 X91.708 Y29.832 Z0.000 F1000
G1 X92.058 Y29.657 Z0.000 F1000
G1 X92.459 Y29.463 Z0.000 F1000
G1 X92.902 Y29.254 Z0.000 F1000
G1 X93.377 Y29.035 Z0.000 F1000
G1 X93.875 Y28.811 Z0.000 F1000
G1 X94.899 Y28.361 Z0.000 F1000
G1 X95.893 Y27.942 Z0.000 F1000
G1 X96.355 Y27.754 Z0.000 F1000
G1 X96.780 Y27.586 Z0.000 F1000
G1 X97.158 Y27.444 Z0.000 F1000
G1 X97.479 Y27.331 Z0.000 F1000
G1 X97.775 Y27.234 Z0.000 F1000
G1 X98.128 Y27.123 Z0.000 F1000
G1 X98.266 Y27.083 Z0.000 F1000
G1 X98.294 Y27.077 Z0.000 F1000
G1 X98.328 Y27.106 Z0.000 F1000
; --- FIX Y Backlash: 1.600mm ---
G0 X98.328 Y28.706 F200
G1 X98.361 Y28.795 Z0.000 F1000
G1 X98.395 Y28.941 Z0.000 F1000
G1 X98.426 Y29.139 Z0.000 F1000
G1 X98.458 Y29.385 Z0.000 F1000
;Cut @ 1500 mm/min, 80% power

M8
G0 Z3.5 F1000
; --- FIX X Backlash: -0.500mm ---
G0 X97.958 Y29.385 F200
G0 X75.755 Y38.800 Z3.500
G1 Z0 F1000
;Layer Red
G1 X75.723 Y38.791 Z0.000 F1000
G1 X75.655 Y38.783 Z0.000 F1000
G1 X75.553 Y38.774 Z0.000 F1000
G1 X75.419 Y38.767 Z0.000 F1000
G1 X75.064 Y38.752 Z0.000 F1000
G1 X74.605 Y38.739 Z0.000 F1000
G1 X74.057 Y38.728 Z0.000 F1000
G1 X73.434 Y38.720 Z0.000 F1000
G1 X72.753 Y38.715 Z0.000 F1000
G1 X71.536 Y38.715 Z0.000 F1000
G1 X70.676 Y38.715 Z0.000 F1000
G1 X69.972 Y38.722 Z0.000 F1000
G1 X69.411 Y38.733 Z0.000 F1000
G1 X69.181 Y38.740 Z0.000 F1000
G1 X68.982 Y38.748 Z0.000 F1000
G1 X68.812 Y38.758 Z0.000 F1000
G1 X68.671 Y38.769 Z0.000 F1000
G1 X68.556 Y38.781 Z0.000 F1000
G1 X68.398 Y38.810 Z0.000 F1000
G1 X68.328 Y38.844 Z0.000 F1000
G1 X68.300 Y38.901 Z0.000 F1000
G1 X68.262 Y39.010 Z0.000 F1000
G1 X68.217 Y39.166 Z0.000 F1000
G1 X68.166 Y39.362 Z0.000 F1000
G1 X68.052 Y39.849 Z0.000 F1000
G1 X67.933 Y40.420 Z0.000 F1000
G1 X67.807 Y41.051 Z0.000 F1000
G1 X67.610 Y42.015 Z0.000 F1000
G1 X67.367 Y43.161 Z0.000 F1000
G1 X67.288 Y43.558 Z0.000 F1000
G1 X67.223 Y43.914 Z0.000 F1000
G1 X67.179 Y44.182 Z0.000 F1000
G1 X67.156 Y44.365 Z0.000 F1000
G1 X67.132 Y44.499 Z0.000 F1000
G1 X67.083 Y44.597 Z0.000 F1000
G1 X66.984 Y44.670 Z0.000 F1000
G1 X66.812 Y44.730 Z0.000 F1000
G1 X66.541 Y44.788 Z0.000 F1000
G1 X66.362 Y44.820 Z0.000 F1000
G1 X65.363 Y44.987 Z0.000 F1000
G1 X65.167 Y45.016 Z0.000 F1000
G1 X65.014 Y45.032 Z0.000 F1000
G1 X64.897 Y45.035 Z0.000 F1000
G1 X64.742 Y45.003 Z0.000 F1000
; --- FIX Y Backlash: -1.600mm ---
G0 X64.742 Y43.403 F200
G1 X64.638 Y43.316 Z0.000 F1000
G1 X64.592 Y43.258 Z0.000 F1000
G1 X64.521 Y43.159 Z0.000 F1000
G1 X64.310 Y42.857 Z0.000 F1000
G1 X64.027 Y42.440 Z0.000 F1000
G1 X63.693 Y41.942 Z0.000 F1000
G1 X62.956 Y40.826 Z0.000 F1000
G1 X62.060 Y39.441 Z0.000 F1000
G1 X61.878 Y39.174 Z0.000 F1000
G1 X61.805 Y39.072 Z0.000 F1000
G1 X61.747 Y38.994 Z0.000 F1000
G1 X61.705 Y38.945 Z0.000 F1000
G1 X61.684 Y38.927 Z0.000 F1000
G1 X61.673 Y38.955 Z0.000 F1000
; --- FIX Y Backlash: 1.600mm ---
G0 X61.673 Y40.555 F200
G1 X61.663 Y40.635 Z0.000 F1000
G1 X61.653 Y40.760 Z0.000 F1000
G1 X61.645 Y40.927 Z0.000 F1000
G1 X61.633 Y41.360 Z0.000 F1000
G1 X61.624 Y42.301 Z0.000 F1000
G1 X61.616 Y42.640 Z0.000 F1000
G1 X61.601 Y42.921 Z0.000 F1000
G1 X61.575 Y43.163 Z0.000 F1000
G1 X61.484 Y43.598 Z0.000 F1000
G1 X61.325 Y44.084 Z0.000 F1000
G1 X61.026 Y44.918 Z0.000 F1000
; --- FIX X Backlash: 0.500mm ---
G0 X61.526 Y44.918 F200
G1 X63.925 Y48.504 Z0.000 F1000
G1 X64.649 Y49.577 Z0.000 F1000
G1 X65.088 Y50.220 Z0.000 F1000
G1 X65.314 Y50.550 Z0.000 F1000
G1 X65.479 Y50.784 Z0.000 F1000
G1 X65.573 Y50.912 Z0.000 F1000
G1 X65.590 Y50.932 Z0.000 F1000
G1 X65.673 Y50.932 Z0.000 F1000
G1 X65.844 Y50.907 Z0.000 F1000
; --- FIX Y Backlash: -1.600mm ---
G0 X65.844 Y49.307 F200
G1 X66.079 Y49.256 Z0.000 F1000
G1 X66.352 Y49.185 Z0.000 F1000
G1 X66.907 Y49.049 Z0.000 F1000
G1 X67.517 Y48.931 Z0.000 F1000
G1 X68.175 Y48.831 Z0.000 F1000
G1 X68.872 Y48.749 Z0.000 F1000
G1 X70.353 Y48.640 Z0.000 F1000
G1 X71.897 Y48.603 Z0.000 F1000
G1 X73.441 Y48.638 Z0.000 F1000
; --- FIX Y Backlash: 1.600mm ---
G0 X73.441 Y50.238 F200
G1 X74.920 Y50.346 Z0.000 F1000
G1 X75.616 Y50.427 Z0.000 F1000
G1 X76.271 Y50.526 Z0.000 F1000
G1 X76.879 Y50.644 Z0.000 F1000
G1 X77.432 Y50.779 Z0.000 F1000
G1 X77.748 Y50.866 Z0.000 F1000
G1 X77.993 Y50.927 Z0.000 F1000
G1 X78.177 Y50.965 Z0.000 F1000
G1 X78.312 Y50.977 Z0.000 F1000
G1 X78.408 Y50.965 Z0.000 F1000
G1 X78.477 Y50.929 Z0.000 F1000
; --- FIX Y Backlash: -1.600mm ---
G0 X78.477 Y49.329 F200
G1 X78.530 Y49.268 Z0.000 F1000
G1 X78.624 Y49.105 Z0.000 F1000
G1 X78.716 Y48.961 Z0.000 F1000
G1 X79.013 Y48.512 Z0.000 F1000
G1 X79.426 Y47.899 Z0.000 F1000
G1 X79.912 Y47.191 Z0.000 F1000
G1 X81.545 Y44.820 Z0.000 F1000
G1 X81.695 Y44.585 Z0.000 F1000
G1 X81.806 Y44.380 Z0.000 F1000
G1 X81.866 Y44.228 Z0.000 F1000
G1 X81.866 Y44.149 Z0.000 F1000
G1 X81.825 Y44.129 Z0.000 F1000
; --- FIX X Backlash: -0.500mm ---
G0 X81.325 Y44.129 F200
G1 X81.237 Y44.097 Z0.000 F1000
G1 X81.107 Y44.055 Z0.000 F1000
G1 X80.939 Y44.005 Z0.000 F1000
G1 X80.508 Y43.884 Z0.000 F1000
G1 X79.981 Y43.743 Z0.000 F1000
G1 X78.788 Y43.441 Z0.000 F1000
G1 X77.658 Y43.177 Z0.000 F1000
G1 X77.026 Y43.038 Z0.000 F1000
G1 X76.215 Y38.934 Z0.000 F1000
G1 X76.147 Y38.601 Z0.000 F1000
G1 X76.078 Y38.287 Z0.000 F1000
G1 X76.010 Y37.999 Z0.000 F1000
G1 X75.946 Y37.744 Z0.000 F1000
G1 X75.886 Y37.530 Z0.000 F1000
G1 X75.833 Y37.363 Z0.000 F1000
G1 X75.789 Y37.251 Z0.000 F1000
G1 X75.755 Y37.200 Z0.000 F1000
G0 Z3.5 F1000
; --- FIX X Backlash: 0.500mm ---
G0 X76.255 Y37.200 F200
; --- FIX Y Backlash: 1.600mm ---
G0 X76.255 Y38.800 F200
G0 X90.790 Y50.792 Z3.500
G1 Z0 F1000
; --- FIX X Backlash: -0.500mm ---
G0 X90.290 Y50.792 F200
G1 X88.971 Y53.386 Z0.000 F1000
G1 X88.557 Y54.194 Z0.000 F1000
G1 X88.219 Y54.844 Z0.000 F1000
G1 X87.999 Y55.257 Z0.000 F1000
G1 X87.901 Y55.433 Z0.000 F1000
G1 X87.881 Y55.507 Z0.000 F1000
G1 X87.892 Y55.585 Z0.000 F1000
; --- FIX X Backlash: 0.500mm ---
G0 X88.392 Y55.585 F200
G1 X88.443 Y55.677 Z0.000 F1000
G1 X88.542 Y55.795 Z0.000 F1000
G1 X88.696 Y55.950 Z0.000 F1000
G1 X88.914 Y56.152 Z0.000 F1000
G1 X89.203 Y56.413 Z0.000 F1000
G1 X90.418 Y57.547 Z0.000 F1000
G1 X91.538 Y58.682 Z0.000 F1000
G1 X92.567 Y59.823 Z0.000 F1000
G1 X93.508 Y60.975 Z0.000 F1000
G1 X94.366 Y62.142 Z0.000 F1000
G1 X95.142 Y63.329 Z0.000 F1000
G1 X95.842 Y64.541 Z0.000 F1000
G1 X96.470 Y65.783 Z0.000 F1000
G1 X96.720 Y66.348 Z0.000 F1000
G1 X96.982 Y66.995 Z0.000 F1000
G1 X97.247 Y67.699 Z0.000 F1000
G1 X97.507 Y68.437 Z0.000 F1000
G1 X97.752 Y69.184 Z0.000 F1000
G1 X97.976 Y69.914 Z0.000 F1000
G1 X98.169 Y70.605 Z0.000 F1000
G1 X98.323 Y71.230 Z0.000 F1000
G1 X98.604 Y72.678 Z0.000 F1000
G1 X98.806 Y74.172 Z0.000 F1000
G1 X98.930 Y75.693 Z0.000 F1000
G1 X98.975 Y77.225 Z0.000 F1000
G1 X98.942 Y78.747 Z0.000 F1000
; --- FIX X Backlash: -0.500mm ---
G0 X98.442 Y78.747 F200
G1 X98.330 Y80.244 Z0.000 F1000
G1 X98.244 Y80.976 Z0.000 F1000
G1 X98.139 Y81.695 Z0.000 F1000
G1 X98.014 Y82.399 Z0.000 F1000
G1 X97.869 Y83.084 Z0.000 F1000
G1 X97.763 Y83.521 Z0.000 F1000
G1 X97.631 Y84.021 Z0.000 F1000
G1 X97.481 Y84.556 Z0.000 F1000
G1 X97.322 Y85.100 Z0.000 F1000
G1 X97.162 Y85.625 Z0.000 F1000
G1 X97.008 Y86.105 Z0.000 F1000
G1 X96.936 Y86.320 Z0.000 F1000
G1 X96.868 Y86.513 Z0.000 F1000
G1 X96.807 Y86.682 Z0.000 F1000
G1 X96.752 Y86.822 Z0.000 F1000
G1 X96.421 Y87.623 Z0.000 F1000
G1 X96.360 Y87.763 Z0.000 F1000
G1 X96.280 Y87.939 Z0.000 F1000
G1 X96.182 Y88.145 Z0.000 F1000
G1 X96.071 Y88.376 Z0.000 F1000
G1 X95.816 Y88.891 Z0.000 F1000
G1 X95.538 Y89.440 Z0.000 F1000
G1 X95.259 Y89.979 Z0.000 F1000
G1 X95.002 Y90.465 Z0.000 F1000
G1 X94.888 Y90.675 Z0.000 F1000
G1 X94.788 Y90.855 Z0.000 F1000
G1 X94.705 Y90.999 Z0.000 F1000
G1 X94.641 Y91.103 Z0.000 F1000
G1 X94.554 Y91.234 Z0.000 F1000
G1 X94.324 Y91.574 Z0.000 F1000
G1 X93.886 Y92.209 Z0.000 F1000
G1 X93.571 Y92.661 Z0.000 F1000
G1 X93.268 Y93.090 Z0.000 F1000
G1 X92.898 Y93.608 Z0.000 F1000
G1 X92.745 Y93.814 Z0.000 F1000
G1 X92.707 Y93.860 Z0.000 F1000
G1 X92.628 Y93.952 Z0.000 F1000
G1 X92.490 Y94.114 Z0.000 F1000
G1 X92.120 Y94.560 Z0.000 F1000
G1 X91.639 Y95.125 Z0.000 F1000
G1 X91.159 Y95.665 Z0.000 F1000
G1 X90.967 Y95.877 Z0.000 F1000
G1 X90.799 Y96.070 Z0.000 F1000
G1 X90.674 Y96.221 Z0.000 F1000
G1 X90.609 Y96.310 Z0.000 F1000
G1 X90.606 Y96.383 Z0.000 F1000
G1 X90.639 Y96.525 Z0.000 F1000
; --- FIX X Backlash: 0.500mm ---
G0 X91.139 Y96.525 F200
G1 X91.210 Y96.737 Z0.000 F1000
G1 X91.319 Y97.022 Z0.000 F1000
G1 X91.468 Y97.382 Z0.000 F1000
G1 X91.657 Y97.819 Z0.000 F1000
G1 X91.887 Y98.336 Z0.000 F1000
G1 X92.247 Y99.130 Z0.000 F1000
G1 X92.493 Y99.699 Z0.000 F1000
G1 X92.806 Y100.434 Z0.000 F1000
G1 X92.974 Y100.816 Z0.000 F1000
G1 X93.125 Y101.147 Z0.000 F1000
G1 X93.257 Y101.424 Z0.000 F1000
G1 X93.370 Y101.643 Z0.000 F1000
G1 X93.463 Y101.802 Z0.000 F1000
G1 X93.533 Y101.900 Z0.000 F1000
G1 X93.579 Y101.933 Z0.000 F1000
G1 X93.610 Y101.921 Z0.000 F1000
G1 X93.663 Y101.887 Z0.000 F1000
; --- FIX Y Backlash: -1.600mm ---
G0 X93.663 Y100.287 F200
G1 X93.736 Y100.232 Z0.000 F1000
G1 X93.826 Y100.159 Z0.000 F1000
G1 X94.043 Y99.971 Z0.000 F1000
G1 X94.292 Y99.741 Z0.000 F1000
G1 X95.364 Y98.725 Z0.000 F1000
; --- FIX Y Backlash: 1.600mm ---
G0 X95.364 Y100.325 F200
G1 X96.858 Y101.020 Z0.000 F1000
G1 X97.714 Y101.414 Z0.000 F1000
G1 X97.987 Y101.536 Z0.000 F1000
G1 X99.192 Y102.082 Z0.000 F1000
G1 X99.440 Y102.189 Z0.000 F1000
G1 X99.666 Y102.282 Z0.000 F1000
G1 X99.872 Y102.361 Z0.000 F1000
G1 X100.228 Y102.476 Z0.000 F1000
G1 X100.516 Y102.536 Z0.000 F1000
G1 X100.744 Y102.542 Z0.000 F1000
G1 X100.923 Y102.495 Z0.000 F1000
; --- FIX Y Backlash: -1.600mm ---
G0 X100.923 Y100.895 F200
G1 X101.061 Y100.797 Z0.000 F1000
G1 X101.167 Y100.648 Z0.000 F1000
G1 X101.210 Y100.579 Z0.000 F1000
G1 X101.294 Y100.452 Z0.000 F1000
G1 X101.572 Y100.051 Z0.000 F1000
G1 X101.970 Y99.486 Z0.000 F1000
G1 X102.456 Y98.802 Z0.000 F1000
G1 X103.572 Y97.248 Z0.000 F1000
G1 X104.674 Y95.733 Z0.000 F1000
G1 X104.928 Y95.371 Z0.000 F1000
G1 X105.137 Y95.045 Z0.000 F1000
G1 X105.217 Y94.906 Z0.000 F1000
G1 X105.277 Y94.790 Z0.000 F1000
G1 X105.315 Y94.700 Z0.000 F1000
G1 X105.329 Y94.642 Z0.000 F1000
G1 X105.315 Y94.587 Z0.000 F1000
G1 X105.276 Y94.508 Z0.000 F1000
; --- FIX X Backlash: -0.500mm ---
G0 X104.776 Y94.508 F200
G1 X104.714 Y94.409 Z0.000 F1000
G1 X104.633 Y94.292 Z0.000 F1000
G1 X104.420 Y94.025 Z0.000 F1000
G1 X104.161 Y93.735 Z0.000 F1000
G1 X103.035 Y92.543 Z0.000 F1000
G1 X102.207 Y91.664 Z0.000 F1000
G1 X101.891 Y91.324 Z0.000 F1000
G1 X101.634 Y91.043 Z0.000 F1000
G1 X101.429 Y90.812 Z0.000 F1000
G1 X101.272 Y90.626 Z0.000 F1000
G1 X101.157 Y90.479 Z0.000 F1000
G1 X101.078 Y90.362 Z0.000 F1000
G1 X101.030 Y90.270 Z0.000 F1000
G1 X101.007 Y90.196 Z0.000 F1000
G1 X101.017 Y90.074 Z0.000 F1000
; --- FIX X Backlash: 0.500mm ---
G0 X101.517 Y90.074 F200
G1 X101.595 Y89.856 Z0.000 F1000
G1 X101.639 Y89.739 Z0.000 F1000
G1 X101.758 Y89.435 Z0.000 F1000
G1 X101.906 Y89.072 Z0.000 F1000
G1 X102.439 Y87.801 Z0.000 F1000
G1 X102.927 Y86.588 Z0.000 F1000
G1 X103.060 Y86.287 Z0.000 F1000
G1 X103.119 Y86.162 Z0.000 F1000
G1 X103.171 Y86.059 Z0.000 F1000
G1 X103.214 Y85.984 Z0.000 F1000
G1 X103.245 Y85.938 Z0.000 F1000
G1 X103.312 Y85.902 Z0.000 F1000
G1 X103.447 Y85.870 Z0.000 F1000
G1 X103.658 Y85.842 Z0.000 F1000
G1 X103.953 Y85.816 Z0.000 F1000
G1 X104.340 Y85.794 Z0.000 F1000
G1 X104.827 Y85.773 Z0.000 F1000
G1 X105.420 Y85.753 Z0.000 F1000
G1 X106.939 Y85.713 Z0.000 F1000
G1 X107.580 Y85.693 Z0.000 F1000
G1 X108.074 Y85.672 Z0.000 F1000
G1 X108.272 Y85.660 Z0.000 F1000
G1 X108.441 Y85.648 Z0.000 F1000
G1 X108.703 Y85.618 Z0.000 F1000
G1 X108.882 Y85.583 Z0.000 F1000
G1 X108.997 Y85.539 Z0.000 F1000
G1 X109.070 Y85.485 Z0.000 F1000
G1 X109.113 Y85.427 Z0.000 F1000
G1 X109.158 Y85.338 Z0.000 F1000
G1 X109.205 Y85.221 Z0.000 F1000
G1 X109.252 Y85.077 Z0.000 F1000
G1 X109.345 Y84.724 Z0.000 F1000
G1 X109.432 Y84.301 Z0.000 F1000
G1 X109.578 Y83.497 Z0.000 F1000
G1 X109.753 Y82.552 Z0.000 F1000
G1 X109.984 Y81.335 Z0.000 F1000
G1 X110.294 Y79.717 Z0.000 F1000
G1 X110.396 Y79.141 Z0.000 F1000
G1 X110.470 Y78.644 Z0.000 F1000
G1 X110.495 Y78.441 Z0.000 F1000
G1 X110.509 Y78.278 Z0.000 F1000
G1 X110.513 Y78.161 Z0.000 F1000
G1 X110.505 Y78.097 Z0.000 F1000
G1 X110.479 Y78.031 Z0.000 F1000
G1 X110.443 Y77.976 Z0.000 F1000
; --- FIX X Backlash: -0.500mm ---
G0 X109.943 Y77.976 F200
G1 X109.876 Y77.923 Z0.000 F1000
G1 X109.759 Y77.862 Z0.000 F1000
G1 X109.568 Y77.784 Z0.000 F1000
G1 X109.285 Y77.679 Z0.000 F1000
G1 X107.632 Y77.099 Z0.000 F1000
G1 X106.941 Y76.851 Z0.000 F1000
G1 X106.297 Y76.616 Z0.000 F1000
G1 X105.721 Y76.401 Z0.000 F1000
G1 X105.232 Y76.213 Z0.000 F1000
G1 X104.848 Y76.060 Z0.000 F1000
G1 X104.703 Y75.999 Z0.000 F1000
G1 X104.591 Y75.950 Z0.000 F1000
G1 X104.515 Y75.912 Z0.000 F1000
G1 X104.477 Y75.888 Z0.000 F1000
G1 X104.458 Y75.831 Z0.000 F1000
G1 X104.437 Y75.701 Z0.000 F1000
G1 X104.413 Y75.505 Z0.000 F1000
G1 X104.388 Y75.252 Z0.000 F1000
G1 X104.363 Y74.950 Z0.000 F1000
G1 X104.338 Y74.609 Z0.000 F1000
G1 X104.314 Y74.235 Z0.000 F1000
G1 X104.249 Y73.045 Z0.000 F1000
G1 X104.189 Y72.040 Z0.000 F1000
G1 X104.159 Y71.606 Z0.000 F1000
G1 X104.148 Y71.488 Z0.000 F1000
G1 X104.136 Y71.267 Z0.000 F1000
; --- FIX X Backlash: 0.500mm ---
G0 X104.636 Y71.267 F200
G1 X104.689 Y71.119 Z0.000 F1000
G1 X104.752 Y71.055 Z0.000 F1000
G1 X104.847 Y70.990 Z0.000 F1000
G1 X104.980 Y70.915 Z0.000 F1000
G1 X105.154 Y70.825 Z0.000 F1000
G1 X106.526 Y70.102 Z0.000 F1000
G1 X107.923 Y69.330 Z0.000 F1000
G1 X108.239 Y69.150 Z0.000 F1000
G1 X108.531 Y68.981 Z0.000 F1000
G1 X108.795 Y68.826 Z0.000 F1000
G1 X109.026 Y68.687 Z0.000 F1000
G1 X109.219 Y68.568 Z0.000 F1000
G1 X109.369 Y68.471 Z0.000 F1000
G1 X109.470 Y68.399 Z0.000 F1000
G1 X109.519 Y68.355 Z0.000 F1000
G1 X109.564 Y68.263 Z0.000 F1000
G1 X109.589 Y68.144 Z0.000 F1000
G1 X109.593 Y67.996 Z0.000 F1000
G1 X109.575 Y67.813 Z0.000 F1000
G1 X109.536 Y67.594 Z0.000 F1000
; --- FIX X Backlash: -0.500mm ---
G0 X109.036 Y67.594 F200
G1 X108.975 Y67.334 Z0.000 F1000
G1 X108.891 Y67.030 Z0.000 F1000
G1 X108.783 Y66.679 Z0.000 F1000
G1 X108.606 Y66.114 Z0.000 F1000
G1 X107.773 Y63.438 Z0.000 F1000
G1 X107.616 Y62.938 Z0.000 F1000
G1 X107.470 Y62.488 Z0.000 F1000
G1 X107.335 Y62.093 Z0.000 F1000
G1 X107.215 Y61.756 Z0.000 F1000
G1 X107.108 Y61.481 Z0.000 F1000
G1 X107.018 Y61.270 Z0.000 F1000
G1 X106.946 Y61.128 Z0.000 F1000
G1 X106.892 Y61.059 Z0.000 F1000
G1 X106.820 Y61.010 Z0.000 F1000
G1 X106.731 Y60.978 Z0.000 F1000
G1 X106.668 Y60.968 Z0.000 F1000
G1 X106.585 Y60.964 Z0.000 F1000
G1 X106.477 Y60.964 Z0.000 F1000
G1 X106.340 Y60.971 Z0.000 F1000
G1 X106.168 Y60.983 Z0.000 F1000
G1 X105.957 Y61.001 Z0.000 F1000
G1 X105.701 Y61.026 Z0.000 F1000
; --- FIX Y Backlash: 1.600mm ---
G0 X105.701 Y62.626 F200
G1 X105.035 Y62.696 Z0.000 F1000
G1 X102.319 Y62.996 Z0.000 F1000
G1 X102.016 Y63.025 Z0.000 F1000
G1 X101.761 Y63.044 Z0.000 F1000
G1 X101.549 Y63.050 Z0.000 F1000
G1 X101.374 Y63.043 Z0.000 F1000
G1 X101.231 Y63.022 Z0.000 F1000
; --- FIX Y Backlash: -1.600mm ---
G0 X101.231 Y61.422 F200
G1 X101.017 Y61.331 Z0.000 F1000
G1 X100.863 Y61.167 Z0.000 F1000
G1 X100.724 Y60.919 Z0.000 F1000
G1 X100.554 Y60.579 Z0.000 F1000
G1 X100.053 Y59.655 Z0.000 F1000
G1 X99.477 Y58.672 Z0.000 F1000
G1 X99.233 Y58.265 Z0.000 F1000
G1 X99.033 Y57.915 Z0.000 F1000
G1 X98.956 Y57.772 Z0.000 F1000
G1 X98.898 Y57.658 Z0.000 F1000
G1 X98.861 Y57.577 Z0.000 F1000
G1 X98.848 Y57.533 Z0.000 F1000
G1 X98.856 Y57.510 Z0.000 F1000
G1 X98.880 Y57.463 Z0.000 F1000
; --- FIX X Backlash: 0.500mm ---
G0 X99.380 Y57.463 F200
G1 X99.470 Y57.306 Z0.000 F1000
G1 X99.614 Y57.071 Z0.000 F1000
G1 X99.803 Y56.770 Z0.000 F1000
G1 X100.033 Y56.411 Z0.000 F1000
G1 X100.295 Y56.006 Z0.000 F1000
G1 X100.586 Y55.563 Z0.000 F1000
G1 X101.218 Y54.606 Z0.000 F1000
G1 X101.512 Y54.149 Z0.000 F1000
G1 X101.776 Y53.730 Z0.000 F1000
G1 X102.003 Y53.359 Z0.000 F1000
G1 X102.189 Y53.043 Z0.000 F1000
G1 X102.328 Y52.792 Z0.000 F1000
G1 X102.415 Y52.614 Z0.000 F1000
G1 X102.445 Y52.517 Z0.000 F1000
G1 X102.425 Y52.435 Z0.000 F1000
; --- FIX X Backlash: -0.500mm ---
G0 X101.925 Y52.435 F200
G1 X101.864 Y52.320 Z0.000 F1000
G1 X101.759 Y52.168 Z0.000 F1000
G1 X101.610 Y51.979 Z0.000 F1000
G1 X101.415 Y51.750 Z0.000 F1000
G1 X101.171 Y51.479 Z0.000 F1000
G1 X100.878 Y51.164 Z0.000 F1000
G1 X100.533 Y50.803 Z0.000 F1000
G1 X100.037 Y50.289 Z0.000 F1000
G1 X99.168 Y49.393 Z0.000 F1000
G1 X98.453 Y48.662 Z0.000 F1000
G1 X97.879 Y48.084 Z0.000 F1000
G1 X97.641 Y47.849 Z0.000 F1000
G1 X97.433 Y47.647 Z0.000 F1000
G1 X97.255 Y47.478 Z0.000 F1000
G1 X97.104 Y47.338 Z0.000 F1000
G1 X96.978 Y47.228 Z0.000 F1000
G1 X96.877 Y47.144 Z0.000 F1000
G1 X96.798 Y47.087 Z0.000 F1000
G1 X96.740 Y47.054 Z0.000 F1000
G1 X96.701 Y47.043 Z0.000 F1000
G1 X96.673 Y47.051 Z0.000 F1000
G1 X96.620 Y47.076 Z0.000 F1000
G1 X96.545 Y47.116 Z0.000 F1000
; --- FIX Y Backlash: 1.600mm ---
G0 X96.545 Y48.716 F200
G1 X96.449 Y48.770 Z0.000 F1000
G1 X96.199 Y48.919 Z0.000 F1000
G1 X95.879 Y49.116 Z0.000 F1000
G1 X95.502 Y49.355 Z0.000 F1000
G1 X95.077 Y49.629 Z0.000 F1000
G1 X94.615 Y49.931 Z0.000 F1000
G1 X94.126 Y50.255 Z0.000 F1000
G1 X91.710 Y51.867 Z0.000 F1000
; --- FIX Y Backlash: -1.600mm ---
G0 X91.710 Y50.267 F200
G1 X90.290 Y49.192 Z0.000 F1000
G0 Z3.5 F1000
; --- FIX Y Backlash: 1.600mm ---
G0 X90.290 Y50.792 F200
G0 X55.160 Y55.551 Z3.500
G1 Z0 F1000
; --- FIX Y Backlash: -1.600mm ---
G0 X55.160 Y53.951 F200
G1 X55.132 Y53.886 Z0.000 F1000
G1 X55.089 Y53.794 Z0.000 F1000
G1 X55.032 Y53.679 Z0.000 F1000
G1 X54.883 Y53.392 Z0.000 F1000
G1 X54.591 Y52.857 Z0.000 F1000
G1 X54.307 Y52.329 Z0.000 F1000
G1 X53.796 Y51.366 Z0.000 F1000
G1 X53.019 Y49.883 Z0.000 F1000
G1 X52.800 Y49.469 Z0.000 F1000
G1 X52.670 Y49.229 Z0.000 F1000
G1 X52.647 Y49.190 Z0.000 F1000
G1 X52.628 Y49.190 Z0.000 F1000
G1 X52.589 Y49.212 Z0.000 F1000
G1 X52.531 Y49.249 Z0.000 F1000
; --- FIX Y Backlash: 1.600mm ---
G0 X52.531 Y50.849 F200
G1 X52.456 Y50.901 Z0.000 F1000
G1 X52.270 Y51.043 Z0.000 F1000
G1 X52.048 Y51.225 Z0.000 F1000
G1 X51.819 Y51.416 Z0.000 F1000
G1 X51.611 Y51.585 Z0.000 F1000
G1 X51.447 Y51.713 Z0.000 F1000
G1 X51.350 Y51.781 Z0.000 F1000
G1 X51.297 Y51.775 Z0.000 F1000
G1 X51.190 Y51.731 Z0.000 F1000
; --- FIX Y Backlash: -1.600mm ---
G0 X51.190 Y50.131 F200
G1 X51.035 Y50.052 Z0.000 F1000
G1 X50.836 Y49.942 Z0.000 F1000
G1 X50.601 Y49.805 Z0.000 F1000
G1 X50.334 Y49.645 Z0.000 F1000
G1 X50.042 Y49.465 Z0.000 F1000
G1 X49.731 Y49.269 Z0.000 F1000
G1 X49.072 Y48.844 Z0.000 F1000
G1 X48.403 Y48.398 Z0.000 F1000
G1 X47.772 Y47.961 Z0.000 F1000
G1 X46.962 Y47.373 Z0.000 F1000
G1 X46.742 Y47.237 Z0.000 F1000
G1 X46.554 Y47.153 Z0.000 F1000
G1 X46.385 Y47.122 Z0.000 F1000
G1 X46.225 Y47.142 Z0.000 F1000
; --- FIX Y Backlash: 1.600mm ---
G0 X46.225 Y48.742 F200
G1 X46.063 Y48.813 Z0.000 F1000
G1 X45.887 Y48.936 Z0.000 F1000
G1 X45.688 Y49.109 Z0.000 F1000
G1 X45.628 Y49.165 Z0.000 F1000
G1 X45.449 Y49.340 Z0.000 F1000
G1 X45.055 Y49.735 Z0.000 F1000
G1 X44.724 Y50.072 Z0.000 F1000
G1 X43.944 Y50.871 Z0.000 F1000
G1 X43.079 Y51.766 Z0.000 F1000
G1 X42.468 Y52.405 Z0.000 F1000
G1 X41.985 Y52.917 Z0.000 F1000
G1 X41.787 Y53.131 Z0.000 F1000
G1 X41.616 Y53.318 Z0.000 F1000
G1 X41.471 Y53.482 Z0.000 F1000
G1 X41.349 Y53.624 Z0.000 F1000
G1 X41.169 Y53.851 Z0.000 F1000
G1 X41.065 Y54.015 Z0.000 F1000
G1 X41.021 Y54.132 Z0.000 F1000
G1 X41.026 Y54.217 Z0.000 F1000
G1 X41.056 Y54.287 Z0.000 F1000
; --- FIX X Backlash: 0.500mm ---
G0 X41.556 Y54.287 F200
G1 X41.613 Y54.396 Z0.000 F1000
G1 X41.693 Y54.539 Z0.000 F1000
G1 X41.794 Y54.711 Z0.000 F1000
G1 X42.043 Y55.116 Z0.000 F1000
G1 X42.334 Y55.567 Z0.000 F1000
G1 X42.619 Y56.003 Z0.000 F1000
G1 X42.942 Y56.505 Z0.000 F1000
G1 X43.053 Y56.685 Z0.000 F1000
G1 X43.084 Y56.745 Z0.000 F1000
G1 X43.204 Y56.934 Z0.000 F1000
G1 X43.556 Y57.464 Z0.000 F1000
G1 X43.866 Y57.923 Z0.000 F1000
G1 X44.664 Y59.098 Z0.000 F1000
; --- FIX X Backlash: -0.500mm ---
G0 X44.164 Y59.098 F200
G1 X43.713 Y59.787 Z0.000 F1000
G1 X43.608 Y59.952 Z0.000 F1000
G1 X43.483 Y60.156 Z0.000 F1000
G1 X43.342 Y60.392 Z0.000 F1000
G1 X43.190 Y60.652 Z0.000 F1000
G1 X42.873 Y61.211 Z0.000 F1000
G1 X42.383 Y62.104 Z0.000 F1000
G1 X42.225 Y62.383 Z0.000 F1000
G1 X42.091 Y62.607 Z0.000 F1000
G1 X41.976 Y62.781 Z0.000 F1000
G1 X41.879 Y62.909 Z0.000 F1000
G1 X41.796 Y62.994 Z0.000 F1000
G1 X41.724 Y63.043 Z0.000 F1000
G1 X41.660 Y63.058 Z0.000 F1000
G1 X41.564 Y63.053 Z0.000 F1000
G1 X41.095 Y63.014 Z0.000 F1000
; --- FIX Y Backlash: -1.600mm ---
G0 X41.095 Y61.414 F200
G1 X40.335 Y61.342 Z0.000 F1000
G1 X38.283 Y61.137 Z0.000 F1000
G1 X37.768 Y61.090 Z0.000 F1000
G1 X37.310 Y61.052 Z0.000 F1000
G1 X36.915 Y61.024 Z0.000 F1000
G1 X36.588 Y61.006 Z0.000 F1000
G1 X36.336 Y60.999 Z0.000 F1000
G1 X36.166 Y61.003 Z0.000 F1000
G1 X36.082 Y61.019 Z0.000 F1000
; --- FIX Y Backlash: 1.600mm ---
G0 X36.082 Y62.619 F200
G1 X36.014 Y62.692 Z0.000 F1000
G1 X35.928 Y62.848 Z0.000 F1000
G1 X35.878 Y62.960 Z0.000 F1000
G1 X35.822 Y63.096 Z0.000 F1000
G1 X35.761 Y63.256 Z0.000 F1000
G1 X35.693 Y63.443 Z0.000 F1000
G1 X35.619 Y63.657 Z0.000 F1000
G1 X35.538 Y63.899 Z0.000 F1000
G1 X35.449 Y64.170 Z0.000 F1000
G1 X35.250 Y64.803 Z0.000 F1000
G1 X35.016 Y65.565 Z0.000 F1000
G1 X34.734 Y66.499 Z0.000 F1000
G1 X34.509 Y67.230 Z0.000 F1000
G1 X34.386 Y67.617 Z0.000 F1000
G1 X34.214 Y68.154 Z0.000 F1000
G1 X34.103 Y68.519 Z0.000 F1000
G1 X34.010 Y68.851 Z0.000 F1000
G1 X33.935 Y69.143 Z0.000 F1000
G1 X33.880 Y69.392 Z0.000 F1000
G1 X33.846 Y69.593 Z0.000 F1000
G1 X33.834 Y69.741 Z0.000 F1000
G1 X33.845 Y69.830 Z0.000 F1000
G1 X33.880 Y69.887 Z0.000 F1000
; --- FIX X Backlash: 0.500mm ---
G0 X34.380 Y69.887 F200
G1 X34.446 Y69.958 Z0.000 F1000
G1 X34.543 Y70.042 Z0.000 F1000
G1 X34.670 Y70.138 Z0.000 F1000
G1 X34.826 Y70.248 Z0.000 F1000
G1 X35.012 Y70.369 Z0.000 F1000
G1 X35.226 Y70.502 Z0.000 F1000
G1 X35.468 Y70.647 Z0.000 F1000
G1 X35.738 Y70.804 Z0.000 F1000
G1 X36.035 Y70.971 Z0.000 F1000
G1 X36.359 Y71.150 Z0.000 F1000
G1 X36.708 Y71.338 Z0.000 F1000
G1 X37.083 Y71.537 Z0.000 F1000
G1 X37.484 Y71.746 Z0.000 F1000
G1 X37.909 Y71.965 Z0.000 F1000
G1 X39.361 Y72.698 Z0.000 F1000
; --- FIX X Backlash: -0.500mm ---
G0 X38.861 Y72.698 F200
G1 X38.730 Y74.914 Z0.000 F1000
G1 X38.685 Y75.639 Z0.000 F1000
G1 X38.645 Y76.232 Z0.000 F1000
G1 X38.610 Y76.700 Z0.000 F1000
G1 X38.580 Y77.054 Z0.000 F1000
G1 X38.554 Y77.301 Z0.000 F1000
G1 X38.530 Y77.450 Z0.000 F1000
G1 X38.509 Y77.510 Z0.000 F1000
G1 X38.463 Y77.536 Z0.000 F1000
G1 X38.360 Y77.582 Z0.000 F1000
G1 X38.206 Y77.645 Z0.000 F1000
G1 X38.007 Y77.723 Z0.000 F1000
G1 X37.500 Y77.917 Z0.000 F1000
G1 X36.888 Y78.146 Z0.000 F1000
G1 X36.220 Y78.390 Z0.000 F1000
G1 X35.546 Y78.632 Z0.000 F1000
G1 X34.915 Y78.853 Z0.000 F1000
G1 X34.376 Y79.036 Z0.000 F1000
G1 X33.917 Y79.198 Z0.000 F1000
G1 X33.520 Y79.358 Z0.000 F1000
G1 X33.358 Y79.431 Z0.000 F1000
G1 X33.228 Y79.496 Z0.000 F1000
G1 X33.134 Y79.552 Z0.000 F1000
G1 X33.082 Y79.596 Z0.000 F1000
G1 X33.031 Y79.683 Z0.000 F1000
G1 X32.999 Y79.802 Z0.000 F1000
G1 X32.987 Y79.968 Z0.000 F1000
G1 X32.997 Y80.196 Z0.000 F1000
G1 X33.030 Y80.501 Z0.000 F1000
; --- FIX X Backlash: 0.500mm ---
G0 X33.530 Y80.501 F200
G1 X33.587 Y80.895 Z0.000 F1000
G1 X33.669 Y81.396 Z0.000 F1000
G1 X34.315 Y85.060 Z0.000 F1000
G1 X34.396 Y85.508 Z0.000 F1000
G1 X34.472 Y85.900 Z0.000 F1000
G1 X34.542 Y86.235 Z0.000 F1000
G1 X34.608 Y86.515 Z0.000 F1000
G1 X34.669 Y86.740 Z0.000 F1000
G1 X34.725 Y86.913 Z0.000 F1000
G1 X34.777 Y87.033 Z0.000 F1000
G1 X34.825 Y87.103 Z0.000 F1000
G1 X34.896 Y87.153 Z0.000 F1000
G1 X35.008 Y87.195 Z0.000 F1000
G1 X35.176 Y87.229 Z0.000 F1000
G1 X35.416 Y87.257 Z0.000 F1000
G1 X35.567 Y87.270 Z0.000 F1000
G1 X35.743 Y87.281 Z0.000 F1000
G1 X35.944 Y87.292 Z0.000 F1000
G1 X36.432 Y87.312 Z0.000 F1000
G1 X37.047 Y87.332 Z0.000 F1000
G1 X37.899 Y87.355 Z0.000 F1000
G1 X39.596 Y87.396 Z0.000 F1000
G1 X40.118 Y87.406 Z0.000 F1000
G1 X40.404 Y87.410 Z0.000 F1000
G1 X40.518 Y87.418 Z0.000 F1000
G1 X40.606 Y87.442 Z0.000 F1000
G1 X40.675 Y87.486 Z0.000 F1000
G1 X40.735 Y87.560 Z0.000 F1000
G1 X40.793 Y87.669 Z0.000 F1000
G1 X40.856 Y87.821 Z0.000 F1000
G1 X41.032 Y88.287 Z0.000 F1000
G1 X41.136 Y88.551 Z0.000 F1000
G1 X41.230 Y88.785 Z0.000 F1000
G1 X41.772 Y90.053 Z0.000 F1000
G1 X42.550 Y91.895 Z0.000 F1000
; --- FIX X Backlash: -0.500mm ---
G0 X42.050 Y91.895 F200
G1 X40.733 Y93.306 Z0.000 F1000
G1 X39.638 Y94.476 Z0.000 F1000
G1 X39.175 Y94.967 Z0.000 F1000
G1 X38.852 Y95.307 Z0.000 F1000
G1 X38.628 Y95.555 Z0.000 F1000
G1 X38.435 Y95.794 Z0.000 F1000
G1 X38.295 Y95.997 Z0.000 F1000
G1 X38.227 Y96.136 Z0.000 F1000
G1 X38.207 Y96.239 Z0.000 F1000
G1 X38.217 Y96.352 Z0.000 F1000
G1 X38.241 Y96.425 Z0.000 F1000
G1 X38.282 Y96.515 Z0.000 F1000
; --- FIX X Backlash: 0.500mm ---
G0 X38.782 Y96.515 F200
G1 X38.842 Y96.627 Z0.000 F1000
G1 X38.926 Y96.765 Z0.000 F1000
G1 X39.035 Y96.936 Z0.000 F1000
G1 X39.172 Y97.143 Z0.000 F1000
G1 X39.342 Y97.392 Z0.000 F1000
G1 X39.546 Y97.687 Z0.000 F1000
G1 X40.071 Y98.436 Z0.000 F1000
G1 X42.049 Y101.244 Z0.000 F1000
G1 X42.493 Y101.880 Z0.000 F1000
G1 X42.722 Y102.211 Z0.000 F1000
G1 X42.849 Y102.381 Z0.000 F1000
G1 X42.981 Y102.500 Z0.000 F1000
G1 X43.132 Y102.566 Z0.000 F1000
G1 X43.319 Y102.580 Z0.000 F1000
G1 X43.556 Y102.540 Z0.000 F1000
; --- FIX Y Backlash: -1.600mm ---
G0 X43.556 Y100.940 F200
G1 X43.859 Y100.846 Z0.000 F1000
G1 X44.040 Y100.778 Z0.000 F1000
G1 X44.243 Y100.695 Z0.000 F1000
G1 X44.470 Y100.599 Z0.000 F1000
G1 X44.723 Y100.488 Z0.000 F1000
G1 X45.292 Y100.235 Z0.000 F1000
G1 X46.261 Y99.798 Z0.000 F1000
G1 X47.009 Y99.456 Z0.000 F1000
G1 X48.625 Y98.713 Z0.000 F1000
; --- FIX Y Backlash: 1.600mm ---
G0 X48.625 Y100.313 F200
G1 X49.023 Y100.658 Z0.000 F1000
G1 X49.445 Y101.038 Z0.000 F1000
G1 X50.091 Y101.649 Z0.000 F1000
G1 X50.261 Y101.797 Z0.000 F1000
G1 X50.391 Y101.896 Z0.000 F1000
G1 X50.462 Y101.933 Z0.000 F1000
G1 X50.504 Y101.910 Z0.000 F1000
; --- FIX Y Backlash: -1.600mm ---
G0 X50.504 Y100.310 F200
G1 X50.556 Y100.247 Z0.000 F1000
G1 X50.609 Y100.154 Z0.000 F1000
G1 X50.659 Y100.040 Z0.000 F1000
G1 X50.721 Y99.883 Z0.000 F1000
G1 X50.810 Y99.675 Z0.000 F1000
G1 X50.914 Y99.442 Z0.000 F1000
G1 X51.274 Y98.663 Z0.000 F1000
G1 X51.927 Y97.239 Z0.000 F1000
G1 X52.145 Y96.756 Z0.000 F1000
G1 X52.525 Y95.901 Z0.000 F1000
G1 X52.699 Y95.513 Z0.000 F1000
G1 X52.767 Y95.358 Z0.000 F1000
G1 X52.821 Y95.223 Z0.000 F1000
G1 X52.884 Y94.999 Z0.000 F1000
G1 X52.880 Y94.808 Z0.000 F1000
; --- FIX X Backlash: -0.500mm ---
G0 X52.380 Y94.808 F200
G1 X52.302 Y94.618 Z0.000 F1000
G1 X52.145 Y94.398 Z0.000 F1000
G1 X52.034 Y94.267 Z0.000 F1000
G1 X51.900 Y94.116 Z0.000 F1000
G1 X51.562 Y93.740 Z0.000 F1000
G1 X50.816 Y92.877 Z0.000 F1000
G1 X50.115 Y92.011 Z0.000 F1000
G1 X49.457 Y91.138 Z0.000 F1000
G1 X48.844 Y90.258 Z0.000 F1000
G1 X48.273 Y89.369 Z0.000 F1000
G1 X47.744 Y88.469 Z0.000 F1000
G1 X47.256 Y87.557 Z0.000 F1000
G1 X46.808 Y86.630 Z0.000 F1000
G1 X46.400 Y85.688 Z0.000 F1000
G1 X46.031 Y84.729 Z0.000 F1000
G1 X45.700 Y83.751 Z0.000 F1000
G1 X45.406 Y82.752 Z0.000 F1000
G1 X45.149 Y81.731 Z0.000 F1000
G1 X44.928 Y80.686 Z0.000 F1000
G1 X44.741 Y79.615 Z0.000 F1000
G1 X44.590 Y78.518 Z0.000 F1000
G1 X44.557 Y78.191 Z0.000 F1000
G1 X44.531 Y77.816 Z0.000 F1000
G1 X44.512 Y77.400 Z0.000 F1000
G1 X44.500 Y76.948 Z0.000 F1000
G1 X44.496 Y75.968 Z0.000 F1000
G1 X44.515 Y74.930 Z0.000 F1000
G1 X44.558 Y73.888 Z0.000 F1000
; --- FIX X Backlash: 0.500mm ---
G0 X45.058 Y73.888 F200
G1 X45.122 Y72.897 Z0.000 F1000
G1 X45.161 Y72.438 Z0.000 F1000
G1 X45.205 Y72.011 Z0.000 F1000
G1 X45.253 Y71.625 Z0.000 F1000
G1 X45.306 Y71.285 Z0.000 F1000
G1 X45.463 Y70.451 Z0.000 F1000
G1 X45.639 Y69.633 Z0.000 F1000
G1 X45.836 Y68.832 Z0.000 F1000
G1 X46.053 Y68.047 Z0.000 F1000
G1 X46.290 Y67.275 Z0.000 F1000
G1 X46.550 Y66.517 Z0.000 F1000
G1 X46.831 Y65.772 Z0.000 F1000
G1 X47.134 Y65.037 Z0.000 F1000
G1 X47.808 Y63.599 Z0.000 F1000
G1 X48.576 Y62.194 Z0.000 F1000
G1 X48.997 Y61.502 Z0.000 F1000
G1 X49.442 Y60.816 Z0.000 F1000
G1 X49.912 Y60.133 Z0.000 F1000
G1 X50.408 Y59.455 Z0.000 F1000
G1 X50.600 Y59.208 Z0.000 F1000
G1 X50.831 Y58.927 Z0.000 F1000
G1 X51.096 Y58.615 Z0.000 F1000
G1 X51.390 Y58.280 Z0.000 F1000
G1 X52.042 Y57.561 Z0.000 F1000
G1 X52.742 Y56.814 Z0.000 F1000
G1 X53.448 Y56.086 Z0.000 F1000
G1 X54.115 Y55.423 Z0.000 F1000
G1 X54.421 Y55.129 Z0.000 F1000
G1 X54.701 Y54.869 Z0.000 F1000
G1 X54.950 Y54.647 Z0.000 F1000
G1 X55.359 Y54.306 Z0.000 F1000
G1 X55.520 Y54.161 Z0.000 F1000
G1 X55.629 Y54.048 Z0.000 F1000
G1 X55.669 Y53.985 Z0.000 F1000
G1 X55.660 Y53.951 Z0.000 F1000
G0 Z3.5 F1000
; --- FIX Y Backlash: 1.600mm ---
G0 X55.660 Y55.551 F200
G0 X60.493 Y101.506 Z3.500
G1 Z0 F1000
G1 X60.463 Y101.526 Z0.000 F1000
; --- FIX X Backlash: -0.500mm ---
G0 X59.963 Y101.526 F200
G1 X59.909 Y101.584 Z0.000 F1000
G1 X59.833 Y101.675 Z0.000 F1000
G1 X59.739 Y101.796 Z0.000 F1000
G1 X59.509 Y102.110 Z0.000 F1000
G1 X59.243 Y102.494 Z0.000 F1000
G1 X58.968 Y102.899 Z0.000 F1000
G1 X58.602 Y103.430 Z0.000 F1000
G1 X58.432 Y103.675 Z0.000 F1000
G1 X58.311 Y103.845 Z0.000 F1000
G1 X58.027 Y104.255 Z0.000 F1000
G1 X57.590 Y104.890 Z0.000 F1000
G1 X56.139 Y107.015 Z0.000 F1000
G1 X55.167 Y108.427 Z0.000 F1000
G1 X54.611 Y109.230 Z0.000 F1000
G1 X54.199 Y109.822 Z0.000 F1000
G1 X54.022 Y110.080 Z0.000 F1000
G1 X53.863 Y110.315 Z0.000 F1000
G1 X53.726 Y110.522 Z0.000 F1000
G1 X53.615 Y110.694 Z0.000 F1000
G1 X53.534 Y110.826 Z0.000 F1000
G1 X53.485 Y110.912 Z0.000 F1000
G1 X53.474 Y110.947 Z0.000 F1000
; --- FIX X Backlash: 0.500mm ---
G0 X53.974 Y110.947 F200
G1 X54.061 Y111.006 Z0.000 F1000
G1 X54.219 Y111.096 Z0.000 F1000
G1 X54.437 Y111.213 Z0.000 F1000
G1 X54.706 Y111.351 Z0.000 F1000
G1 X55.354 Y111.673 Z0.000 F1000
G1 X56.082 Y112.023 Z0.000 F1000
G1 X56.807 Y112.363 Z0.000 F1000
G1 X57.448 Y112.654 Z0.000 F1000
G1 X57.711 Y112.769 Z0.000 F1000
G1 X57.924 Y112.857 Z0.000 F1000
G1 X58.074 Y112.913 Z0.000 F1000
G1 X58.152 Y112.933 Z0.000 F1000
G1 X58.312 Y112.902 Z0.000 F1000
; --- FIX Y Backlash: -1.600mm ---
G0 X58.312 Y111.302 F200
G1 X58.480 Y111.195 Z0.000 F1000
G1 X58.575 Y111.106 Z0.000 F1000
G1 X58.682 Y110.990 Z0.000 F1000
G1 X58.803 Y110.844 Z0.000 F1000
G1 X59.430 Y110.037 Z0.000 F1000
G1 X59.892 Y109.464 Z0.000 F1000
G1 X60.109 Y109.198 Z0.000 F1000
G1 X60.373 Y108.867 Z0.000 F1000
G1 X60.650 Y108.515 Z0.000 F1000
G1 X61.140 Y107.881 Z0.000 F1000
G1 X61.441 Y107.502 Z0.000 F1000
G1 X61.576 Y107.339 Z0.000 F1000
G1 X61.758 Y107.133 Z0.000 F1000
G1 X61.909 Y106.934 Z0.000 F1000
G1 X62.001 Y106.821 Z0.000 F1000
G1 X62.090 Y106.770 Z0.000 F1000
G1 X62.203 Y106.775 Z0.000 F1000
; --- FIX Y Backlash: 1.600mm ---
G0 X62.203 Y108.375 F200
G1 X62.365 Y108.429 Z0.000 F1000
G1 X62.493 Y108.475 Z0.000 F1000
G1 X62.655 Y108.528 Z0.000 F1000
G1 X62.846 Y108.585 Z0.000 F1000
G1 X63.062 Y108.646 Z0.000 F1000
G1 X63.550 Y108.775 Z0.000 F1000
G1 X64.079 Y108.905 Z0.000 F1000
G1 X64.614 Y109.028 Z0.000 F1000
G1 X65.116 Y109.134 Z0.000 F1000
G1 X65.343 Y109.178 Z0.000 F1000
G1 X65.548 Y109.214 Z0.000 F1000
G1 X65.726 Y109.242 Z0.000 F1000
G1 X66.205 Y109.304 Z0.000 F1000
G1 X66.438 Y109.360 Z0.000 F1000
G1 X66.589 Y109.431 Z0.000 F1000
G1 X66.674 Y109.525 Z0.000 F1000
G1 X66.706 Y109.618 Z0.000 F1000
G1 X66.756 Y109.808 Z0.000 F1000
G1 X66.822 Y110.085 Z0.000 F1000
G1 X66.901 Y110.436 Z0.000 F1000
G1 X66.991 Y110.850 Z0.000 F1000
G1 X67.090 Y111.316 Z0.000 F1000
G1 X67.194 Y111.821 Z0.000 F1000
G1 X67.417 Y112.925 Z0.000 F1000
G1 X67.526 Y113.442 Z0.000 F1000
G1 X67.628 Y113.900 Z0.000 F1000
G1 X67.720 Y114.292 Z0.000 F1000
G1 X67.802 Y114.613 Z0.000 F1000
G1 X67.871 Y114.855 Z0.000 F1000
G1 X67.927 Y115.014 Z0.000 F1000
G1 X67.968 Y115.082 Z0.000 F1000
G1 X68.002 Y115.091 Z0.000 F1000
G1 X68.075 Y115.100 Z0.000 F1000
G1 X68.185 Y115.109 Z0.000 F1000
G1 X68.329 Y115.117 Z0.000 F1000
G1 X68.711 Y115.133 Z0.000 F1000
G1 X69.205 Y115.146 Z0.000 F1000
G1 X69.796 Y115.158 Z0.000 F1000
G1 X70.466 Y115.166 Z0.000 F1000
G1 X71.200 Y115.172 Z0.000 F1000
G1 X71.980 Y115.172 Z0.000 F1000
G1 X75.849 Y115.176 Z0.000 F1000
; --- FIX Y Backlash: -1.600mm ---
G0 X75.849 Y113.576 F200
G1 X76.005 Y113.335 Z0.000 F1000
G1 X76.040 Y113.268 Z0.000 F1000
G1 X76.080 Y113.166 Z0.000 F1000
G1 X76.123 Y113.037 Z0.000 F1000
G1 X76.168 Y112.883 Z0.000 F1000
G1 X76.259 Y112.526 Z0.000 F1000
G1 X76.341 Y112.134 Z0.000 F1000
G1 X76.500 Y111.305 Z0.000 F1000
G1 X76.715 Y110.205 Z0.000 F1000
G1 X77.202 Y107.761 Z0.000 F1000
G1 X78.156 Y107.628 Z0.000 F1000
G1 X78.376 Y107.594 Z0.000 F1000
G1 X78.636 Y107.547 Z0.000 F1000
G1 X78.926 Y107.491 Z0.000 F1000
G1 X79.237 Y107.427 Z0.000 F1000
G1 X79.882 Y107.283 Z0.000 F1000
G1 X80.494 Y107.132 Z0.000 F1000
G1 X81.878 Y106.768 Z0.000 F1000
; --- FIX Y Backlash: 1.600mm ---
G0 X81.878 Y108.368 F200
G1 X82.236 Y108.826 Z0.000 F1000
G1 X83.009 Y109.801 Z0.000 F1000
G1 X83.672 Y110.644 Z0.000 F1000
G1 X84.290 Y111.445 Z0.000 F1000
G1 X84.625 Y111.882 Z0.000 F1000
G1 X84.896 Y112.226 Z0.000 F1000
G1 X85.112 Y112.487 Z0.000 F1000
G1 X85.285 Y112.676 Z0.000 F1000
G1 X85.426 Y112.805 Z0.000 F1000
G1 X85.545 Y112.883 Z0.000 F1000
G1 X85.652 Y112.922 Z0.000 F1000
G1 X85.759 Y112.933 Z0.000 F1000
G1 X85.857 Y112.911 Z0.000 F1000
; --- FIX Y Backlash: -1.600mm ---
G0 X85.857 Y111.311 F200
G1 X86.028 Y111.250 Z0.000 F1000
G1 X86.261 Y111.155 Z0.000 F1000
G1 X86.545 Y111.031 Z0.000 F1000
G1 X87.221 Y110.718 Z0.000 F1000
G1 X87.971 Y110.354 Z0.000 F1000
G1 X88.346 Y110.167 Z0.000 F1000
G1 X88.706 Y109.983 Z0.000 F1000
G1 X89.041 Y109.809 Z0.000 F1000
G1 X89.339 Y109.649 Z0.000 F1000
G1 X89.590 Y109.508 Z0.000 F1000
G1 X89.783 Y109.393 Z0.000 F1000
G1 X89.907 Y109.309 Z0.000 F1000
G1 X89.950 Y109.260 Z0.000 F1000
G1 X89.907 Y109.140 Z0.000 F1000
; --- FIX X Backlash: -0.500mm ---
G0 X89.407 Y109.140 F200
G1 X89.304 Y108.992 Z0.000 F1000
G1 X89.256 Y108.932 Z0.000 F1000
G1 X89.062 Y108.668 Z0.000 F1000
G1 X88.589 Y108.007 Z0.000 F1000
G1 X88.203 Y107.461 Z0.000 F1000
G1 X87.802 Y106.889 Z0.000 F1000
G1 X87.247 Y106.091 Z0.000 F1000
G1 X86.959 Y105.671 Z0.000 F1000
G1 X86.707 Y105.296 Z0.000 F1000
G1 X86.519 Y105.021 Z0.000 F1000
G1 X85.718 Y103.869 Z0.000 F1000
G1 X85.142 Y103.029 Z0.000 F1000
G1 X84.393 Y101.928 Z0.000 F1000
G1 X83.476 Y100.574 Z0.000 F1000
G1 X83.293 Y100.314 Z0.000 F1000
G1 X83.126 Y100.102 Z0.000 F1000
G1 X83.055 Y100.020 Z0.000 F1000
G1 X82.995 Y99.959 Z0.000 F1000
G1 X82.949 Y99.920 Z0.000 F1000
G1 X82.918 Y99.906 Z0.000 F1000
G1 X82.881 Y99.913 Z0.000 F1000
G1 X82.817 Y99.932 Z0.000 F1000
G1 X82.730 Y99.963 Z0.000 F1000
G1 X82.622 Y100.003 Z0.000 F1000
; --- FIX Y Backlash: 1.600mm ---
G0 X82.622 Y101.603 F200
G1 X82.360 Y101.708 Z0.000 F1000
G1 X82.059 Y101.836 Z0.000 F1000
G1 X81.277 Y102.153 Z0.000 F1000
G1 X80.397 Y102.461 Z0.000 F1000
G1 X79.449 Y102.755 Z0.000 F1000
G1 X78.460 Y103.026 Z0.000 F1000
G1 X77.459 Y103.268 Z0.000 F1000
G1 X76.474 Y103.472 Z0.000 F1000
G1 X75.534 Y103.633 Z0.000 F1000
G1 X74.667 Y103.741 Z0.000 F1000
G1 X73.982 Y103.794 Z0.000 F1000
G1 X73.200 Y103.829 Z0.000 F1000
G1 X72.352 Y103.848 Z0.000 F1000
G1 X71.471 Y103.848 Z0.000 F1000
G1 X70.587 Y103.835 Z0.000 F1000
G1 X69.732 Y103.804 Z0.000 F1000
G1 X68.937 Y103.756 Z0.000 F1000
; --- FIX Y Backlash: -1.600mm ---
G0 X68.937 Y102.156 F200
G1 X68.235 Y102.093 Z0.000 F1000
G1 X67.240 Y101.965 Z0.000 F1000
G1 X66.230 Y101.797 Z0.000 F1000
G1 X65.220 Y101.594 Z0.000 F1000
G1 X64.224 Y101.359 Z0.000 F1000
G1 X63.258 Y101.096 Z0.000 F1000
G1 X62.338 Y100.810 Z0.000 F1000
G1 X61.478 Y100.503 Z0.000 F1000
G1 X60.693 Y100.180 Z0.000 F1000
G1 X60.447 Y100.074 Z0.000 F1000
G1 X60.233 Y99.987 Z0.000 F1000
G1 X60.074 Y99.928 Z0.000 F1000
G1 X59.993 Y99.906 Z0.000 F1000
M9

G90
G1 Z10 F800

M2 ; End of G-code