G90 ; Absolute positioning
G21 ; Millimeters

G0 Z10 F500;      ; Move to clearance level - Z motion limited to 500
; G0 X-10 Y-10 F1200; Homing
; G0 X-5 Y-5 F1200; go in
; G10 P0 L20 X0 Y0; set to zero
G1 F1200;           ; Set feed rate to 1000
;LightBurn 1.6.04
;Custom GCode device profile, absolute coords
;Bounds: X38.84 Y77.17 to X103.96 Y136.37
G00 G17 G40 G21 G54
G90
M4
;Cut @ 1500 mm/min, 90% power

M8

; Washing sequence (no color)
G1 Z10 F1000;        ; Raise brush to safe height
G0 X5.000 Y5.000
G1 Z-1 F800;         ; Lower brush for cleaning - controlled movement
G1 X10.000 Y12.000 Z8.000 F1200
G1 Z-1 F800;         ; Lower brush for cleaning - controlled movement
G1 X25.000 Y14.000 Z6.000 F800
G1 Z8 F800;         ; Maintain brush height - controlled movement
; --- FIX X Backlash: -0.700mm ---
G0 X24.300 Y14.000 F1000
; --- FIX Y Backlash: -0.900mm ---
G0 X24.300 Y13.100 F1000
G0 X4.300 Y4.100
G1 Z-1 F800;         ; Lower brush for cleaning - controlled movement
; --- FIX X Backlash: 0.700mm ---
G0 X5.000 Y4.100 F1000
; --- FIX Y Backlash: 0.900mm ---
G0 X5.000 Y5.000 F1000
G1 X15.000 Y12.000 Z8.000 F1200
G1 Z-1 F800;         ; Lower brush for cleaning - controlled movement
G1 X25.000 Y14.000 Z6.000 F800
G1 Z10 F800;         ; Maintain brush height - controlled movement
G1 F1200;           ; Set feed rate to 1000

; Color picking sequence
G1 Z10 F1000;         ; Raise brush to safe height
; --- FIX Y Backlash: -0.900mm ---
G0 X25.000 Y13.100 F1000
G0 X41.000 Y4.100
G1 Z0 F1000;         ; Lower into color - controlled movement
; --- FIX X Backlash: -0.700mm ---
G0 X40.300 Y4.100 F1000
; --- FIX Y Backlash: 0.900mm ---
G0 X40.300 Y5.000 F1000
G1 X39.402 Y7.295 Z0.000 F1200
G1 X39.326 Y7.642 Z0.000 F1200
G1 X39.300 Y8.000 Z0.000 F1200
G1 X39.326 Y8.358 Z0.000 F1200
; --- FIX X Backlash: 0.700mm ---
G0 X40.026 Y8.358 F1000
G1 X40.102 Y8.705 Z0.000 F1200
G1 X40.225 Y9.041 Z0.000 F1200
G1 X40.393 Y9.362 Z0.000 F1200
G1 X40.603 Y9.668 Z0.000 F1200
G1 X40.854 Y9.957 Z0.000 F1200
G1 X41.142 Y10.226 Z0.000 F1200
G1 X41.464 Y10.475 Z0.000 F1200
G1 X41.820 Y10.701 Z0.000 F1200
G1 X42.204 Y10.902 Z0.000 F1200
G1 X42.617 Y11.078 Z0.000 F1200
G1 X43.054 Y11.225 Z0.000 F1200
G1 X43.513 Y11.343 Z0.000 F1200
G1 X43.992 Y11.429 Z0.000 F1200
G1 X44.489 Y11.482 Z0.000 F1200
G1 X45.000 Y11.500 Z0.000 F1200
G1 X45.511 Y11.482 Z0.000 F1200
; --- FIX Y Backlash: -0.900mm ---
G0 X45.511 Y10.582 F1000
G1 X46.008 Y10.529 Z0.000 F1200
G1 X46.487 Y10.443 Z0.000 F1200
G1 X46.946 Y10.325 Z0.000 F1200
G1 X47.383 Y10.178 Z0.000 F1200
G1 X47.796 Y10.002 Z0.000 F1200
G1 X48.180 Y9.801 Z0.000 F1200
G1 X48.536 Y9.575 Z0.000 F1200
G1 X48.858 Y9.326 Z0.000 F1200
G1 X49.146 Y9.057 Z0.000 F1200
G1 X49.397 Y8.768 Z0.000 F1200
G1 X49.607 Y8.462 Z0.000 F1200
G1 X49.775 Y8.141 Z0.000 F1200
G1 X49.898 Y7.805 Z0.000 F1200
G1 X49.974 Y7.458 Z0.000 F1200
G1 X50.000 Y7.100 Z0.000 F1200
G1 X49.974 Y6.742 Z0.000 F1200
; --- FIX X Backlash: -0.700mm ---
G0 X49.274 Y6.742 F1000
G1 X49.198 Y6.395 Z0.000 F1200
G1 X49.075 Y6.059 Z0.000 F1200
G1 X48.907 Y5.738 Z0.000 F1200
G1 X48.697 Y5.432 Z0.000 F1200
G1 X48.446 Y5.143 Z0.000 F1200
G1 X48.158 Y4.874 Z0.000 F1200
G1 X47.836 Y4.625 Z0.000 F1200
G1 X47.480 Y4.399 Z0.000 F1200
G1 X47.096 Y4.198 Z0.000 F1200
G1 X46.683 Y4.022 Z0.000 F1200
G1 X46.246 Y3.875 Z0.000 F1200
G1 X45.787 Y3.757 Z0.000 F1200
G1 X45.308 Y3.671 Z0.000 F1200
G1 X44.811 Y3.618 Z0.000 F1200
G1 X44.300 Y3.600 Z0.000 F1200
G1 X43.789 Y3.618 Z0.000 F1200
; --- FIX Y Backlash: 0.900mm ---
G0 X43.789 Y4.518 F1000
G1 X43.292 Y4.571 Z0.000 F1200
G1 X42.813 Y4.657 Z0.000 F1200
G1 X42.354 Y4.775 Z0.000 F1200
G1 X41.917 Y4.922 Z0.000 F1200
G1 X41.504 Y5.098 Z0.000 F1200
G1 X41.120 Y5.299 Z0.000 F1200
G1 X40.764 Y5.525 Z0.000 F1200
G1 X40.442 Y5.774 Z0.000 F1200
G1 X40.154 Y6.043 Z0.000 F1200
G1 X39.903 Y6.332 Z0.000 F1200
G1 X39.693 Y6.638 Z0.000 F1200
G1 X39.525 Y6.959 Z0.000 F1200
G1 Z7 F800;         ; Raise from color - controlled movement
G1 X33.300 Y8.000 Z1.000 F1200
G1 X23.300 Y18.000 Z8.000 F500
G1 F1200;           ; Set feed rate to 1000
G0 Z3.5 F1000
; --- FIX X Backlash: 0.700mm ---
G0 X24.000 Y18.000 F1000
G0 X68.438 Y103.809 Z3.500
G1 Z0 F1000
;Layer C1
G1 X68.739 Y103.763 Z0.000 F1000
; --- FIX Y Backlash: -0.900mm ---
G0 X68.739 Y102.863 F1000
G1 X68.979 Y102.771 Z0.000 F1000
G1 X69.161 Y102.638 Z0.000 F1000
G1 X69.289 Y102.471 Z0.000 F1000
G1 X69.369 Y102.275 Z0.000 F1000
G1 X69.403 Y102.057 Z0.000 F1000
G1 X69.398 Y101.822 Z0.000 F1000
G1 X69.357 Y101.577 Z0.000 F1000
; --- FIX X Backlash: -0.700mm ---
G0 X68.657 Y101.577 F1000
G1 X68.484 Y101.078 Z0.000 F1000
G1 X68.219 Y100.609 Z0.000 F1000
G1 X68.063 Y100.400 Z0.000 F1000
G1 X67.898 Y100.216 Z0.000 F1000
G1 X67.727 Y100.064 Z0.000 F1000
G1 X67.555 Y99.949 Z0.000 F1000
G1 X67.089 Y99.735 Z0.000 F1000
G1 X66.622 Y99.603 Z0.000 F1000
G1 X66.157 Y99.547 Z0.000 F1000
G1 X65.697 Y99.562 Z0.000 F1000
; --- FIX Y Backlash: 0.900mm ---
G0 X65.697 Y100.462 F1000
G1 X65.246 Y100.543 Z0.000 F1000
G1 X64.807 Y100.683 Z0.000 F1000
G1 X64.383 Y100.878 Z0.000 F1000
G1 X63.979 Y101.122 Z0.000 F1000
G1 X63.596 Y101.409 Z0.000 F1000
G1 X63.239 Y101.734 Z0.000 F1000
G1 X62.910 Y102.092 Z0.000 F1000
G1 X62.614 Y102.476 Z0.000 F1000
G1 X62.353 Y102.882 Z0.000 F1000
G1 X62.131 Y103.305 Z0.000 F1000
G1 X61.952 Y103.737 Z0.000 F1000
G1 X61.817 Y104.175 Z0.000 F1000
G1 X61.732 Y104.566 Z0.000 F1000
G1 X61.673 Y104.954 Z0.000 F1000
G1 X61.640 Y105.338 Z0.000 F1000
G1 X61.631 Y105.718 Z0.000 F1000
; --- FIX X Backlash: 0.700mm ---
G0 X62.331 Y105.718 F1000
G1 X62.384 Y106.464 Z0.000 F1000
G1 X62.527 Y107.188 Z0.000 F1000
G1 X62.754 Y107.885 Z0.000 F1000
G1 X63.057 Y108.552 Z0.000 F1000
G1 X63.432 Y109.186 Z0.000 F1000
G1 X63.872 Y109.781 Z0.000 F1000
G1 X64.370 Y110.333 Z0.000 F1000
G1 X64.921 Y110.840 Z0.000 F1000
G1 X65.519 Y111.297 Z0.000 F1000
G1 X66.156 Y111.699 Z0.000 F1000
G1 X66.828 Y112.044 Z0.000 F1000
G1 X67.528 Y112.327 Z0.000 F1000
G1 X68.250 Y112.543 Z0.000 F1000
G1 X68.987 Y112.690 Z0.000 F1000
G1 X69.530 Y112.754 Z0.000 F1000
G1 X70.067 Y112.785 Z0.000 F1000
G1 X70.597 Y112.785 Z0.000 F1000
G1 X71.120 Y112.753 Z0.000 F1000
; --- FIX Y Backlash: -0.900mm ---
G0 X71.120 Y111.853 F1000
G1 X71.636 Y111.792 Z0.000 F1000
G1 X72.143 Y111.701 Z0.000 F1000
G1 X72.641 Y111.582 Z0.000 F1000
G1 X73.130 Y111.436 Z0.000 F1000
G1 X73.608 Y111.264 Z0.000 F1000
G1 X74.075 Y111.066 Z0.000 F1000
G1 X74.531 Y110.844 Z0.000 F1000
G1 X74.974 Y110.598 Z0.000 F1000
G1 X75.405 Y110.330 Z0.000 F1000
G1 X75.822 Y110.040 Z0.000 F1000
G1 X76.225 Y109.729 Z0.000 F1000
G1 X76.613 Y109.399 Z0.000 F1000
G1 X77.342 Y108.682 Z0.000 F1000
G1 X78.004 Y107.897 Z0.000 F1000
G1 X78.593 Y107.052 Z0.000 F1000
G1 X79.106 Y106.153 Z0.000 F1000
G1 X79.536 Y105.209 Z0.000 F1000
G1 X79.878 Y104.227 Z0.000 F1000
G1 X80.015 Y103.723 Z0.000 F1000
G1 X80.127 Y103.213 Z0.000 F1000
G1 X80.216 Y102.697 Z0.000 F1000
G1 X80.279 Y102.177 Z0.000 F1000
G1 X80.326 Y101.483 Z0.000 F1000
G1 X80.333 Y100.798 Z0.000 F1000
G1 X80.301 Y100.122 Z0.000 F1000
; --- FIX X Backlash: -0.700mm ---
G0 X79.601 Y100.122 F1000
G1 X79.531 Y99.456 Z0.000 F1000
G1 X79.425 Y98.801 Z0.000 F1000
G1 X79.284 Y98.157 Z0.000 F1000
G1 X79.108 Y97.525 Z0.000 F1000
G1 X78.899 Y96.907 Z0.000 F1000
G1 X78.658 Y96.303 Z0.000 F1000
G1 X78.386 Y95.713 Z0.000 F1000
G1 X78.085 Y95.139 Z0.000 F1000
G1 X77.754 Y94.581 Z0.000 F1000
G1 X77.396 Y94.040 Z0.000 F1000
G1 X77.011 Y93.517 Z0.000 F1000
G1 X76.601 Y93.013 Z0.000 F1000
G1 X76.167 Y92.529 Z0.000 F1000
G1 X75.709 Y92.065 Z0.000 F1000
G1 X75.229 Y91.622 Z0.000 F1000
G1 X74.729 Y91.202 Z0.000 F1000
G1 X74.208 Y90.804 Z0.000 F1000
G1 X73.669 Y90.430 Z0.000 F1000
G1 X73.112 Y90.080 Z0.000 F1000
G1 X72.539 Y89.756 Z0.000 F1000
G1 X71.951 Y89.457 Z0.000 F1000
G1 X71.348 Y89.186 Z0.000 F1000
G1 X70.732 Y88.942 Z0.000 F1000
G1 X70.104 Y88.727 Z0.000 F1000
G1 X69.465 Y88.541 Z0.000 F1000
G1 X68.816 Y88.386 Z0.000 F1000
G1 X68.159 Y88.261 Z0.000 F1000
G1 X67.494 Y88.168 Z0.000 F1000
G1 X66.822 Y88.108 Z0.000 F1000
G1 X65.979 Y88.077 Z0.000 F1000
G1 X65.146 Y88.093 Z0.000 F1000
; --- FIX Y Backlash: 0.900mm ---
G0 X65.146 Y88.993 F1000
G1 X64.325 Y89.055 Z0.000 F1000
G1 X63.516 Y89.161 Z0.000 F1000
G1 X62.721 Y89.311 Z0.000 F1000
G1 X61.940 Y89.502 Z0.000 F1000
G1 X61.175 Y89.734 Z0.000 F1000
G1 X60.426 Y90.006 Z0.000 F1000
G1 X59.695 Y90.315 Z0.000 F1000
G1 X58.983 Y90.661 Z0.000 F1000
G1 X58.289 Y91.043 Z0.000 F1000
G1 X57.617 Y91.458 Z0.000 F1000
G1 X56.966 Y91.907 Z0.000 F1000
G1 X56.337 Y92.386 Z0.000 F1000
G1 X55.731 Y92.896 Z0.000 F1000
G1 X55.150 Y93.435 Z0.000 F1000
G1 X54.595 Y94.001 Z0.000 F1000
G1 X54.066 Y94.594 Z0.000 F1000
G1 X53.564 Y95.211 Z0.000 F1000
G1 X53.090 Y95.852 Z0.000 F1000
G1 X52.646 Y96.515 Z0.000 F1000
G1 X52.232 Y97.199 Z0.000 F1000
G1 X51.850 Y97.903 Z0.000 F1000
G1 X51.499 Y98.626 Z0.000 F1000
G1 X51.182 Y99.365 Z0.000 F1000
G1 X50.899 Y100.120 Z0.000 F1000
G1 X50.652 Y100.889 Z0.000 F1000
G1 X50.440 Y101.672 Z0.000 F1000
G1 X50.266 Y102.466 Z0.000 F1000
G1 X50.130 Y103.271 Z0.000 F1000
G1 X50.033 Y104.086 Z0.000 F1000
G1 X49.977 Y104.908 Z0.000 F1000
G1 X49.960 Y105.901 Z0.000 F1000
G1 X49.999 Y106.882 Z0.000 F1000
; --- FIX X Backlash: 0.700mm ---
G0 X50.699 Y106.882 F1000
G1 X50.790 Y107.849 Z0.000 F1000
G1 X50.933 Y108.800 Z0.000 F1000
G1 X51.126 Y109.736 Z0.000 F1000
G1 X51.367 Y110.653 Z0.000 F1000
G1 X51.655 Y111.552 Z0.000 F1000
G1 X51.989 Y112.431 Z0.000 F1000
G1 X52.367 Y113.288 Z0.000 F1000
G1 X52.787 Y114.124 Z0.000 F1000
G1 X53.248 Y114.936 Z0.000 F1000
G1 X53.749 Y115.724 Z0.000 F1000
G1 X54.287 Y116.486 Z0.000 F1000
G1 X54.862 Y117.221 Z0.000 F1000
G1 X55.472 Y117.928 Z0.000 F1000
G1 X56.115 Y118.605 Z0.000 F1000
G1 X56.790 Y119.253 Z0.000 F1000
G1 X57.496 Y119.869 Z0.000 F1000
G1 X58.230 Y120.452 Z0.000 F1000
G1 X58.992 Y121.001 Z0.000 F1000
G1 X59.780 Y121.516 Z0.000 F1000
G1 X60.592 Y121.994 Z0.000 F1000
G1 X61.427 Y122.435 Z0.000 F1000
G1 X62.283 Y122.837 Z0.000 F1000
G1 X63.159 Y123.200 Z0.000 F1000
G1 X64.053 Y123.522 Z0.000 F1000
G1 X64.964 Y123.802 Z0.000 F1000
G1 X65.891 Y124.038 Z0.000 F1000
G1 X66.831 Y124.231 Z0.000 F1000
G1 X67.784 Y124.378 Z0.000 F1000
G1 X68.747 Y124.478 Z0.000 F1000
G1 X69.720 Y124.531 Z0.000 F1000
G1 X70.864 Y124.531 Z0.000 F1000
; --- FIX Y Backlash: -0.900mm ---
G0 X70.864 Y123.631 F1000
G1 X71.992 Y123.572 Z0.000 F1000
G1 X73.104 Y123.452 Z0.000 F1000
G1 X74.199 Y123.273 Z0.000 F1000
G1 X75.274 Y123.037 Z0.000 F1000
G1 X76.328 Y122.746 Z0.000 F1000
G1 X77.361 Y122.402 Z0.000 F1000
G1 X78.370 Y122.006 Z0.000 F1000
G1 X79.354 Y121.560 Z0.000 F1000
G1 X80.313 Y121.066 Z0.000 F1000
G1 X81.244 Y120.525 Z0.000 F1000
G1 X82.147 Y119.939 Z0.000 F1000
G1 X83.020 Y119.310 Z0.000 F1000
G1 X83.861 Y118.640 Z0.000 F1000
G1 X84.670 Y117.930 Z0.000 F1000
G1 X85.445 Y117.182 Z0.000 F1000
G1 X86.184 Y116.398 Z0.000 F1000
G1 X86.887 Y115.580 Z0.000 F1000
G1 X87.551 Y114.728 Z0.000 F1000
G1 X88.176 Y113.845 Z0.000 F1000
G1 X88.761 Y112.933 Z0.000 F1000
G1 X89.303 Y111.993 Z0.000 F1000
G1 X89.803 Y111.027 Z0.000 F1000
G1 X90.257 Y110.037 Z0.000 F1000
G1 X90.665 Y109.024 Z0.000 F1000
G1 X91.026 Y107.990 Z0.000 F1000
G1 X91.338 Y106.937 Z0.000 F1000
G1 X91.600 Y105.866 Z0.000 F1000
G1 X91.810 Y104.780 Z0.000 F1000
G1 X91.968 Y103.680 Z0.000 F1000
G1 X92.072 Y102.567 Z0.000 F1000
G1 X92.120 Y101.444 Z0.000 F1000
G1 X92.107 Y100.150 Z0.000 F1000
; --- FIX X Backlash: -0.700mm ---
G0 X91.407 Y100.150 F1000
G1 X91.326 Y98.873 Z0.000 F1000
G1 X91.176 Y97.616 Z0.000 F1000
G1 X90.961 Y96.379 Z0.000 F1000
G1 X90.683 Y95.164 Z0.000 F1000
G1 X90.342 Y93.973 Z0.000 F1000
G1 X89.942 Y92.806 Z0.000 F1000
G1 X89.484 Y91.667 Z0.000 F1000
G1 X88.970 Y90.555 Z0.000 F1000
G1 X88.402 Y89.473 Z0.000 F1000
G1 X87.781 Y88.423 Z0.000 F1000
G1 X87.111 Y87.405 Z0.000 F1000
G1 X86.392 Y86.422 Z0.000 F1000
G1 X85.626 Y85.474 Z0.000 F1000
G1 X84.816 Y84.563 Z0.000 F1000
G1 X83.964 Y83.691 Z0.000 F1000
G1 X83.070 Y82.860 Z0.000 F1000
G1 X82.138 Y82.071 Z0.000 F1000
G1 X81.169 Y81.325 Z0.000 F1000
G1 X80.165 Y80.623 Z0.000 F1000
G1 X79.128 Y79.969 Z0.000 F1000
G1 X78.060 Y79.362 Z0.000 F1000
G1 X76.963 Y78.805 Z0.000 F1000
G1 X75.839 Y78.298 Z0.000 F1000
G1 X74.689 Y77.844 Z0.000 F1000
G1 X73.515 Y77.445 Z0.000 F1000
G1 X72.320 Y77.101 Z0.000 F1000
G1 X71.106 Y76.814 Z0.000 F1000
G1 X69.874 Y76.585 Z0.000 F1000
G1 X68.626 Y76.417 Z0.000 F1000
G1 X67.364 Y76.310 Z0.000 F1000
G1 X66.090 Y76.267 Z0.000 F1000
G1 X64.646 Y76.293 Z0.000 F1000
; --- FIX Y Backlash: 0.900mm ---
G0 X64.646 Y77.193 F1000
G1 X63.221 Y77.296 Z0.000 F1000
G1 X61.818 Y77.474 Z0.000 F1000
G1 X60.439 Y77.725 Z0.000 F1000
G1 X59.084 Y78.046 Z0.000 F1000
G1 X57.755 Y78.436 Z0.000 F1000
G1 X56.455 Y78.892 Z0.000 F1000
G1 X55.185 Y79.412 Z0.000 F1000
G1 X53.947 Y79.995 Z0.000 F1000
G1 X52.742 Y80.637 Z0.000 F1000
G1 X51.572 Y81.337 Z0.000 F1000
G1 X50.439 Y82.093 Z0.000 F1000
G1 X49.344 Y82.902 Z0.000 F1000
G1 X48.290 Y83.763 Z0.000 F1000
G1 X47.278 Y84.673 Z0.000 F1000
G1 X46.309 Y85.630 Z0.000 F1000
G1 X45.386 Y86.633 Z0.000 F1000
G1 X44.509 Y87.678 Z0.000 F1000
G1 X43.682 Y88.765 Z0.000 F1000
G1 X42.905 Y89.890 Z0.000 F1000
G1 X42.180 Y91.051 Z0.000 F1000
G1 X41.509 Y92.248 Z0.000 F1000
G1 X40.893 Y93.476 Z0.000 F1000
G1 X40.335 Y94.735 Z0.000 F1000
G1 X39.836 Y96.022 Z0.000 F1000
G1 X39.397 Y97.335 Z0.000 F1000
G1 X39.021 Y98.672 Z0.000 F1000
G1 X38.709 Y100.030 Z0.000 F1000
G1 X38.462 Y101.409 Z0.000 F1000
G1 X38.284 Y102.804 Z0.000 F1000
G1 X38.174 Y104.216 Z0.000 F1000
G1 X38.136 Y105.640 Z0.000 F1000
G1 X38.176 Y107.234 Z0.000 F1000
; --- FIX X Backlash: 0.700mm ---
G0 X38.876 Y107.234 F1000
G1 X39.000 Y108.807 Z0.000 F1000
G1 X39.207 Y110.355 Z0.000 F1000
G1 X39.493 Y111.878 Z0.000 F1000
G1 X39.857 Y113.373 Z0.000 F1000
G1 X40.296 Y114.838 Z0.000 F1000
G1 X40.808 Y116.272 Z0.000 F1000
G1 X41.390 Y117.672 Z0.000 F1000
G1 X42.041 Y119.038 Z0.000 F1000
G1 X42.757 Y120.366 Z0.000 F1000
G1 X43.537 Y121.655 Z0.000 F1000
G1 X44.377 Y122.903 Z0.000 F1000
G1 X45.277 Y124.109 Z0.000 F1000
G1 X46.233 Y125.270 Z0.000 F1000
G1 X47.244 Y126.384 Z0.000 F1000
G1 X48.306 Y127.450 Z0.000 F1000
G1 X49.418 Y128.465 Z0.000 F1000
G1 X50.577 Y129.428 Z0.000 F1000
G1 X51.780 Y130.337 Z0.000 F1000
G1 X53.027 Y131.190 Z0.000 F1000
G1 X54.313 Y131.986 Z0.000 F1000
G1 X55.637 Y132.721 Z0.000 F1000
G1 X56.997 Y133.395 Z0.000 F1000
G1 X58.390 Y134.005 Z0.000 F1000
G1 X59.815 Y134.550 Z0.000 F1000
G1 X61.267 Y135.027 Z0.000 F1000
G1 X62.746 Y135.435 Z0.000 F1000
G1 X64.249 Y135.772 Z0.000 F1000
G1 X65.773 Y136.036 Z0.000 F1000
G1 X67.317 Y136.225 Z0.000 F1000
G1 X68.877 Y136.338 Z0.000 F1000
G1 X70.452 Y136.372 Z0.000 F1000
; --- FIX Y Backlash: -0.900mm ---
G0 X70.452 Y135.472 F1000
G1 X72.197 Y135.418 Z0.000 F1000
G1 X73.917 Y135.272 Z0.000 F1000
G1 X75.611 Y135.037 Z0.000 F1000
G1 X77.276 Y134.715 Z0.000 F1000
G1 X78.911 Y134.308 Z0.000 F1000
G1 X80.513 Y133.820 Z0.000 F1000
G1 X82.081 Y133.252 Z0.000 F1000
G1 X83.612 Y132.608 Z0.000 F1000
G1 X85.104 Y131.890 Z0.000 F1000
G1 X86.556 Y131.099 Z0.000 F1000
G1 X87.964 Y130.240 Z0.000 F1000
G1 X89.328 Y129.314 Z0.000 F1000
G1 X90.644 Y128.324 Z0.000 F1000
G1 X91.912 Y127.273 Z0.000 F1000
G1 X93.128 Y126.162 Z0.000 F1000
G1 X94.291 Y124.995 Z0.000 F1000
G1 X95.398 Y123.774 Z0.000 F1000
G1 X96.448 Y122.502 Z0.000 F1000
G1 X97.439 Y121.180 Z0.000 F1000
G1 X98.368 Y119.813 Z0.000 F1000
G1 X99.233 Y118.401 Z0.000 F1000
G1 X100.033 Y116.949 Z0.000 F1000
G1 X100.765 Y115.458 Z0.000 F1000
G1 X101.427 Y113.930 Z0.000 F1000
G1 X102.017 Y112.369 Z0.000 F1000
G1 X102.534 Y110.777 Z0.000 F1000
G1 X102.974 Y109.156 Z0.000 F1000
G1 X103.336 Y107.509 Z0.000 F1000
G1 X103.617 Y105.839 Z0.000 F1000
G1 X103.817 Y104.147 Z0.000 F1000
G1 X103.932 Y102.437 Z0.000 F1000
G1 X103.961 Y100.712 Z0.000 F1000
M9

G90
G1 Z10 F800

; Return to 2,0 wash and park
G1 Z10 F1000;        ; Raise brush to safe height
; --- FIX X Backlash: -0.700mm ---
G0 X103.261 Y100.712 F1000
G0 X4.300 Y4.100
G1 Z-1 F800;         ; Lower brush for cleaning - controlled movement
; --- FIX X Backlash: 0.700mm ---
G0 X5.000 Y4.100 F1000
; --- FIX Y Backlash: 0.900mm ---
G0 X5.000 Y5.000 F1000
G1 X10.000 Y12.000 Z8.000 F1200
G1 Z-1 F800;         ; Lower brush for cleaning - controlled movement
G1 X25.000 Y14.000 Z6.000 F800
; --- FIX X Backlash: -0.700mm ---
G0 X24.300 Y14.000 F1000
; --- FIX Y Backlash: -0.900mm ---
G0 X24.300 Y13.100 F1000
G0 X4.300 Y4.100
G1 Z-1 F800;         ; Lower brush for cleaning - controlled movement
; --- FIX X Backlash: 0.700mm ---
G0 X5.000 Y4.100 F1000
; --- FIX Y Backlash: 0.900mm ---
G0 X5.000 Y5.000 F1000
G1 X15.000 Y12.000 Z8.000 F1200
G1 Z-1 F800;         ; Lower brush for cleaning - controlled movement
G1 X25.000 Y14.000 Z6.000 F800
G1 Z10 F800;         ; Maintain brush height - controlled movement
; --- FIX X Backlash: -0.700mm ---
G0 X24.300 Y14.000 F1000
G0 X19.300 Y130.000 Z10.000
M2;                 ; End program

M2 ; End of G-code