;LightBurn 1.6.04
;Custom GCode device profile, absolute coords
;Bounds: X26.92 Y27.83 to X123.08 Y62.17
G00 G17 G40 G21 G54
G90
M3
G1 Z10 F500
;Scan @ 1555 mm/min, 80% power

M8
G0 Z3.5 F500
G0 X65.575 Y40.619 Z3.5 
G1 Z0 F500
;Layer C1
G91
G1 X0.648 Z0 S0 F800
G1 X3.202 Z0 S800 F800
G1 X0.648 Z0 S0 F800
G1 X0.523 Y0.9 Z0 F800
G1 X-0.648 Z0 F800
G1 X-4.078 Z0 S800 F800
G1 X-0.648 Z0 S0 F800
G1 X0.124 Y0.9 Z0 F800
G1 X0.648 Z0 F800
G1 X4.27 Z0 S800 F800
G1 X0.648 Z0 S0 F800
G1 X0.148 Y0.9 Z0 F800
G1 X-0.648 Z0 F800
G1 X-4.272 Z0 S800 F800
G1 X-0.648 Z0 S0 F800
G1 X0.271 Y0.9 Z0 F800
G1 X0.648 Z0 F800
G1 X3.971 Z0 S800 F800
G1 X0.648 Z0 S0 F800
G1 X-0.327 Y0.9 Z0 F800
G1 X-0.648 Z0 F800
G1 X-3.088 Z0 S800 F800
G1 X-0.648 Z0 S0 F800
G1 X-7.577 Y5.4 Z0 F800
G1 X0.648 Z0 F800
G1 X2.474 Z0 S800 F800
G1 X0.648 Z0 S0 F800
G1 X0.487 Y0.9 Z0 F800
G1 X-0.648 Z0 F800
G1 X-3.307 Z0 S800 F800
G1 X-0.648 Z0 S0 F800
G1 X0.115 Y0.9 Z0 F800
G1 X0.648 Z0 F800
G1 X3.119 Z0 S800 F800
G1 X0.648 Z0 S0 F800
G90
;Cut @ 1432 mm/min, 80% power

M8
G0 Z3.5 F500
G0 X79.343 Y51.751 Z3.5 F1555
G1 Z0 F500
;Layer C3
G1 Y50.763 Z0 S800 F800
G1 X79.534 Y49.512 Z0 F800
G1 X79.807 Y48.284 Z0 F800
G1 X80.162 Y47.082 Z0 F800
G1 X80.596 Y45.908 Z0 F800
G1 X81.106 Y44.765 Z0 F800
G1 X81.69 Y43.658 Z0 F800
G1 X82.346 Y42.587 Z0 F800
G1 X83.071 Y41.557 Z0 F800
G1 X84.124 Y39.773 Z0 F800
G1 X85.109 Y37.927 Z0 F800
G1 X85.521 Y36.974 Z0 F800
G1 X85.851 Y35.997 Z0 F800
G1 X85.977 Y35.498 Z0 F800
G1 X86.075 Y34.993 Z0 F800
G1 X86.141 Y34.48 Z0 F800
G1 X86.173 Y33.959 Z0 F800
G1 X86.2 Y33.257 Z0 F800
G1 X86.283 Y32.531 Z0 F800
G1 X86.346 Y32.185 Z0 F800
G1 X86.423 Y31.863 Z0 F800
G1 X86.515 Y31.576 Z0 F800
G1 X86.622 Y31.335 Z0 F800
G1 X86.744 Y31.15 Z0 F800
G1 X86.881 Y31.03 Z0 F800
G1 X87.033 Y30.986 Z0 F800
G1 X87.201 Y31.029 Z0 F800
G1 X87.291 Y31.086 Z0 F800
G1 X87.384 Y31.168 Z0 F800
G1 X87.481 Y31.277 Z0 F800
G1 X87.583 Y31.414 Z0 F800
G1 X87.688 Y31.58 Z0 F800
G1 X87.797 Y31.777 Z0 F800
G1 X87.91 Y32.006 Z0 F800
G1 X88.027 Y32.268 Z0 F800
G1 X88.37 Y33.113 Z0 F800
G1 X88.65 Y33.981 Z0 F800
G1 X88.867 Y34.867 Z0 F800
G1 X89.021 Y35.766 Z0 F800
G1 X89.112 Y36.675 Z0 F800
G1 X89.142 Y37.589 Z0 F800
G1 X89.111 Y38.504 Z0 F800
G1 X89.018 Y39.415 Z0 F800
G1 X88.865 Y40.317 Z0 F800
G1 X88.651 Y41.207 Z0 F800
G1 X88.378 Y42.081 Z0 F800
G1 X88.045 Y42.932 Z0 F800
G1 X87.652 Y43.758 Z0 F800
G1 X87.201 Y44.554 Z0 F800
G1 X86.692 Y45.316 Z0 F800
G1 X86.124 Y46.038 Z0 F800
G1 X85.687 Y46.655 Z0 F800
G1 X85.271 Y47.285 Z0 F800
G1 X84.879 Y47.929 Z0 F800
G1 X84.51 Y48.584 Z0 F800
G1 X84.168 Y49.252 Z0 F800
G1 X83.853 Y49.932 Z0 F800
G1 X83.567 Y50.623 Z0 F800
G1 X83.311 Y51.324 Z0 F800
G1 X83.087 Y52.036 Z0 F800
G1 X82.895 Y52.758 Z0 F800
G1 X82.738 Y53.489 Z0 F800
G1 X82.617 Y54.229 Z0 F800
G1 X82.533 Y54.978 Z0 F800
G1 X82.487 Y55.734 Z0 F800
G1 X82.482 Y56.498 Z0 F800
G1 X82.518 Y57.269 Z0 F800
G1 X82.458 Y58.027 Z0 F800
G1 X82.103 Y58.061 Z0 F800
G1 X81.699 Y57.766 Z0 F800
G1 X81.332 Y57.432 Z0 F800
G1 X81.002 Y57.063 Z0 F800
G1 X80.706 Y56.663 Z0 F800
G1 X80.443 Y56.235 Z0 F800
G1 X80.213 Y55.784 Z0 F800
G1 X80.012 Y55.312 Z0 F800
G1 X79.841 Y54.823 Z0 F800
G1 X79.697 Y54.322 Z0 F800
G1 X79.58 Y53.811 Z0 F800
G1 X79.487 Y53.295 Z0 F800
G1 X79.417 Y52.778 Z0 F800
G1 X79.343 Y51.751 Z0 F800
G0 Z3.5 F500
G0 X87.556 Y52.9 Z3.5 F1432
G1 Z0 F500
G1 X88.408 Y51.193 Z0 F800
G1 X88.768 Y50.316 Z0 F800
G1 X89.057 Y49.415 Z0 F800
G1 X89.169 Y48.954 Z0 F800
G1 X89.256 Y48.485 Z0 F800
G1 X89.315 Y48.007 Z0 F800
G1 X89.344 Y47.519 Z0 F800
G1 X89.546 Y47.448 Z0 F800
G1 X89.739 Y47.409 Z0 F800
G1 X89.924 Y47.399 Z0 F800
G1 X90.101 Y47.417 Z0 F800
G1 X90.431 Y47.531 Z0 F800
G1 X90.726 Y47.739 Z0 F800
G1 X90.986 Y48.027 Z0 F800
G1 X91.21 Y48.383 Z0 F800
G1 X91.397 Y48.796 Z0 F800
G1 X91.546 Y49.252 Z0 F800
G1 X91.656 Y49.738 Z0 F800
G1 X91.726 Y50.243 Z0 F800
G1 X91.756 Y50.754 Z0 F800
G1 X91.743 Y51.258 Z0 F800
G1 X91.687 Y51.743 Z0 F800
G1 X91.587 Y52.196 Z0 F800
G1 X91.442 Y52.605 Z0 F800
G1 X91.252 Y52.958 Z0 F800
G1 X90.239 Y55.208 Z0 F800
G1 X89.195 Y57.439 Z0 F800
G1 X88.703 Y58.561 Z0 F800
G1 X88.252 Y59.693 Z0 F800
G1 X87.858 Y60.841 Z0 F800
G1 X87.538 Y62.011 Z0 F800
G1 X87.382 Y62.117 Z0 F800
G1 X86.991 Y62.172 Z0 F800
G1 X86.6 Y61.824 Z0 F800
G1 X86.266 Y61.434 Z0 F800
G1 X85.987 Y61.008 Z0 F800
G1 X85.763 Y60.552 Z0 F800
G1 X85.59 Y60.071 Z0 F800
G1 X85.468 Y59.569 Z0 F800
G1 X85.395 Y59.052 Z0 F800
G1 X85.369 Y58.526 Z0 F800
G1 X85.388 Y57.995 Z0 F800
G1 X85.452 Y57.464 Z0 F800
G1 X85.557 Y56.94 Z0 F800
G1 X85.703 Y56.426 Z0 F800
G1 X85.888 Y55.929 Z0 F800
G1 X86.11 Y55.453 Z0 F800
G1 X86.368 Y55.003 Z0 F800
G1 X86.66 Y54.586 Z0 F800
G1 X87.556 Y52.9 Z0 F800
G0 Z3.5 F500
G0 X78.765 Y42.74 Z3.5 
G1 Z0 F500
G1 X78.449 Y42.773 Z0 F800
G1 X78.024 Y42.411 Z0 F800
G1 X77.671 Y42.006 Z0 F800
G1 X77.385 Y41.564 Z0 F800
G1 X77.164 Y41.091 Z0 F800
G1 X77.004 Y40.591 Z0 F800
G1 X76.902 Y40.071 Z0 F800
G1 X76.855 Y39.535 Z0 F800
G1 X76.86 Y38.99 Z0 F800
G1 X76.914 Y38.44 Z0 F800
G1 X77.013 Y37.891 Z0 F800
G1 X77.155 Y37.348 Z0 F800
G1 X77.336 Y36.817 Z0 F800
G1 X77.554 Y36.304 Z0 F800
G1 X77.804 Y35.813 Z0 F800
G1 X78.084 Y35.35 Z0 F800
G1 X78.391 Y34.921 Z0 F800
G1 X78.715 Y34.53 Z0 F800
G1 X79.01 Y34.114 Z0 F800
G1 X79.281 Y33.677 Z0 F800
G1 X79.53 Y33.221 Z0 F800
G1 X79.974 Y32.274 Z0 F800
G1 X80.366 Y31.304 Z0 F800
G1 X80.731 Y30.343 Z0 F800
G1 X81.094 Y29.422 Z0 F800
G1 X81.281 Y28.987 Z0 F800
G1 X81.477 Y28.573 Z0 F800
G1 X81.685 Y28.185 Z0 F800
G1 X81.907 Y27.828 Z0 F800
G1 X82.187 Y28.024 Z0 F800
G1 X82.439 Y28.232 Z0 F800
G1 X82.663 Y28.451 Z0 F800
G1 X82.862 Y28.68 Z0 F800
G1 X83.183 Y29.165 Z0 F800
G1 X83.41 Y29.683 Z0 F800
G1 X83.552 Y30.229 Z0 F800
G1 X83.616 Y30.796 Z0 F800
G1 X83.611 Y31.38 Z0 F800
G1 X83.543 Y31.976 Z0 F800
G1 X83.421 Y32.577 Z0 F800
G1 X83.253 Y33.179 Z0 F800
G1 X83.046 Y33.776 Z0 F800
G1 X82.809 Y34.364 Z0 F800
G1 X82.55 Y34.936 Z0 F800
G1 X82.276 Y35.487 Z0 F800
G1 X81.994 Y36.013 Z0 F800
G1 X81.714 Y36.507 Z0 F800
G1 X81.246 Y37.237 Z0 F800
G1 X80.82 Y37.994 Z0 F800
G1 X80.429 Y38.773 Z0 F800
G1 X80.067 Y39.566 Z0 F800
G1 X79.401 Y41.166 Z0 F800
G1 X78.765 Y42.74 Z0 F800
;Cut @ 6000 mm/min, 80% power

M8
G0 Z3.5 F500
G0 X93.821 Y40.636 Z3.5 
G1 Z0 F500
;Layer C18
G1 X93.571 Y39.445 Z0 F800
G1 X93.511 Y38.903 Z0 F800
G1 X93.518 Y38.416 Z0 F800
G1 X93.552 Y38.198 Z0 F800
G1 X93.61 Y37.999 Z0 F800
G1 X93.693 Y37.821 Z0 F800
G1 X93.803 Y37.666 Z0 F800
G1 X93.944 Y37.536 Z0 F800
G1 X94.116 Y37.432 Z0 F800
G1 X94.322 Y37.356 Z0 F800
G1 X94.565 Y37.31 Z0 F800
G1 X94.847 Y37.296 Z0 F800
G1 X95.169 Y37.316 Z0 F800
G1 X95.534 Y37.371 Z0 F800
G1 X95.944 Y37.463 Z0 F800
G1 X96.33 Y37.702 Z0 F800
G1 X96.648 Y38.009 Z0 F800
G1 X96.904 Y38.378 Z0 F800
G1 X97.108 Y38.8 Z0 F800
G1 X97.266 Y39.269 Z0 F800
G1 X97.386 Y39.776 Z0 F800
G1 X97.475 Y40.313 Z0 F800
G1 X97.541 Y40.874 Z0 F800
G1 X97.633 Y42.034 Z0 F800
G1 X97.722 Y43.195 Z0 F800
G1 X97.784 Y43.757 Z0 F800
G1 X97.867 Y44.296 Z0 F800
G1 X97.98 Y44.805 Z0 F800
G1 X98.129 Y45.276 Z0 F800
G1 X98.195 Y45.444 Z0 F800
G1 X98.263 Y45.577 Z0 F800
G1 X98.331 Y45.675 Z0 F800
G1 X98.401 Y45.742 Z0 F800
G1 X98.472 Y45.778 Z0 F800
G1 X98.544 Y45.786 Z0 F800
G1 X98.618 Y45.768 Z0 F800
G1 X98.692 Y45.725 Z0 F800
G1 X98.844 Y45.572 Z0 F800
G1 X98.999 Y45.343 Z0 F800
G1 X99.158 Y45.053 Z0 F800
G1 X99.319 Y44.717 Z0 F800
G1 X99.983 Y43.201 Z0 F800
G1 X100.151 Y42.854 Z0 F800
G1 X100.32 Y42.549 Z0 F800
G1 X100.488 Y42.301 Z0 F800
G1 X100.656 Y42.125 Z0 F800
G1 X101.242 Y40.921 Z0 F800
G1 X101.839 Y39.753 Z0 F800
G1 X102.438 Y38.604 Z0 F800
G1 X103.036 Y37.454 Z0 F800
G1 X103.41 Y37.343 Z0 F800
G1 X103.755 Y37.265 Z0 F800
G1 X104.074 Y37.219 Z0 F800
G1 X104.367 Y37.204 Z0 F800
G1 X104.635 Y37.217 Z0 F800
G1 X104.88 Y37.258 Z0 F800
G1 X105.103 Y37.324 Z0 F800
G1 X105.304 Y37.415 Z0 F800
G1 X105.486 Y37.53 Z0 F800
G1 X105.649 Y37.666 Z0 F800
G1 X105.795 Y37.822 Z0 F800
G1 X105.924 Y37.997 Z0 F800
G1 X106.139 Y38.398 Z0 F800
G1 X106.304 Y38.857 Z0 F800
G1 X106.648 Y41.042 Z0 F800
G1 X106.951 Y43.236 Z0 F800
G1 X107.727 Y47.584 Z0 F800
G1 X108.486 Y51.892 Z0 F800
G1 X108.088 Y52.153 Z0 F800
G1 X107.687 Y52.341 Z0 F800
G1 X107.288 Y52.459 Z0 F800
G1 X106.896 Y52.511 Z0 F800
G1 X106.516 Y52.501 Z0 F800
G1 X106.152 Y52.429 Z0 F800
G1 X105.808 Y52.301 Z0 F800
G1 X105.489 Y52.119 Z0 F800
G1 X105.201 Y51.886 Z0 F800
G1 X104.946 Y51.605 Z0 F800
G1 X104.731 Y51.278 Z0 F800
G1 X104.559 Y50.911 Z0 F800
G1 X104.435 Y50.504 Z0 F800
G1 X104.364 Y50.062 Z0 F800
G1 X104.351 Y49.587 Z0 F800
G1 X104.4 Y49.082 Z0 F800
G1 X104.349 Y48.714 Z0 F800
G1 X104.296 Y48.26 Z0 F800
G1 X104.177 Y47.184 Z0 F800
G1 X104.107 Y46.609 Z0 F800
G1 X104.028 Y46.039 Z0 F800
G1 X103.938 Y45.498 Z0 F800
G1 X103.835 Y45.008 Z0 F800
G1 X103.718 Y44.591 Z0 F800
G1 X103.585 Y44.271 Z0 F800
G1 X103.511 Y44.155 Z0 F800
G1 X103.434 Y44.071 Z0 F800
G1 X103.351 Y44.023 Z0 F800
G1 X103.263 Y44.014 Z0 F800
G1 X103.17 Y44.045 Z0 F800
G1 X103.071 Y44.121 Z0 F800
G1 X102.967 Y44.244 Z0 F800
G1 X102.856 Y44.417 Z0 F800
G1 X102.739 Y44.643 Z0 F800
G1 X102.616 Y44.924 Z0 F800
G1 X102.487 Y45.264 Z0 F800
G1 X102.35 Y45.665 Z0 F800
G1 X101.456 Y47.255 Z0 F800
G1 X100.618 Y48.919 Z0 F800
G1 X99.796 Y50.571 Z0 F800
G1 X98.951 Y52.13 Z0 F800
G1 X98.609 Y52.278 Z0 F800
G1 X98.225 Y52.36 Z0 F800
G1 X97.81 Y52.39 Z0 F800
G1 X97.377 Y52.383 Z0 F800
G1 X96.505 Y52.322 Z0 F800
G1 X95.702 Y52.297 Z0 F800
G1 X95.426 Y50.207 Z0 F800
G1 X95.116 Y48.13 Z0 F800
G1 X94.765 Y46.072 Z0 F800
G1 X94.365 Y44.034 Z0 F800
G1 X94.398 Y43.57 Z0 F800
G1 X94.358 Y43.046 Z0 F800
G1 X94.263 Y42.476 Z0 F800
G1 X94.13 Y41.875 Z0 F800
G1 X93.821 Y40.636 Z0 F800
G0 Z3.5 F500
G0 X109.11 Y41.836 Z3.5 F6000
G1 Z0 F500
G1 X109.206 Y41.393 Z0 F800
G1 X109.335 Y40.96 Z0 F800
G1 X109.496 Y40.539 Z0 F800
G1 X109.688 Y40.134 Z0 F800
G1 X109.91 Y39.746 Z0 F800
G1 X110.16 Y39.379 Z0 F800
G1 X110.438 Y39.034 Z0 F800
G1 X110.743 Y38.716 Z0 F800
G1 X111.073 Y38.426 Z0 F800
G1 X111.427 Y38.167 Z0 F800
G1 X111.804 Y37.943 Z0 F800
G1 X112.203 Y37.754 Z0 F800
G1 X112.622 Y37.605 Z0 F800
G1 X113.061 Y37.498 Z0 F800
G1 X113.519 Y37.435 Z0 F800
G1 X113.939 Y37.324 Z0 F800
G1 X114.361 Y37.244 Z0 F800
G1 X114.784 Y37.196 Z0 F800
G1 X115.207 Y37.178 Z0 F800
G1 X115.628 Y37.188 Z0 F800
G1 X116.047 Y37.226 Z0 F800
G1 X116.462 Y37.29 Z0 F800
G1 X116.872 Y37.379 Z0 F800
G1 X117.671 Y37.627 Z0 F800
G1 X118.436 Y37.961 Z0 F800
G1 X119.157 Y38.37 Z0 F800
G1 X119.825 Y38.844 Z0 F800
G1 X120.24 Y39.222 Z0 F800
G1 X120.649 Y39.626 Z0 F800
G1 X121.037 Y40.055 Z0 F800
G1 X121.389 Y40.508 Z0 F800
G1 X121.689 Y40.985 Z0 F800
G1 X121.922 Y41.484 Z0 F800
G1 X122.074 Y42.005 Z0 F800
G1 X122.128 Y42.548 Z0 F800
G1 X121.585 Y42.731 Z0 F800
G1 X121.096 Y42.832 Z0 F800
G1 X120.655 Y42.857 Z0 F800
G1 X120.256 Y42.817 Z0 F800
G1 X119.89 Y42.72 Z0 F800
G1 X119.553 Y42.574 Z0 F800
G1 X119.238 Y42.389 Z0 F800
G1 X118.937 Y42.174 Z0 F800
G1 X117.751 Y41.182 Z0 F800
G1 X117.426 Y40.945 Z0 F800
G1 X117.077 Y40.731 Z0 F800
G1 X116.696 Y40.548 Z0 F800
G1 X115.783 Y40.236 Z0 F800
G1 X115.308 Y40.165 Z0 F800
G1 X114.858 Y40.183 Z0 F800
G1 X114.434 Y40.283 Z0 F800
G1 X114.041 Y40.456 Z0 F800
G1 X113.682 Y40.694 Z0 F800
G1 X113.36 Y40.988 Z0 F800
G1 X113.078 Y41.331 Z0 F800
G1 X112.841 Y41.714 Z0 F800
G1 X112.65 Y42.13 Z0 F800
G1 X112.51 Y42.569 Z0 F800
G1 X112.423 Y43.024 Z0 F800
G1 X112.394 Y43.487 Z0 F800
G1 X112.425 Y43.949 Z0 F800
G1 X112.52 Y44.403 Z0 F800
G1 X112.681 Y44.839 Z0 F800
G1 X112.741 Y45.3 Z0 F800
G1 X112.843 Y45.759 Z0 F800
G1 X112.986 Y46.213 Z0 F800
G1 X113.168 Y46.656 Z0 F800
G1 X113.386 Y47.084 Z0 F800
G1 X113.639 Y47.493 Z0 F800
G1 X113.923 Y47.878 Z0 F800
G1 X114.239 Y48.234 Z0 F800
G1 X114.582 Y48.558 Z0 F800
G1 X114.951 Y48.845 Z0 F800
G1 X115.344 Y49.089 Z0 F800
G1 X115.759 Y49.288 Z0 F800
G1 X116.194 Y49.435 Z0 F800
G1 X116.647 Y49.528 Z0 F800
G1 X117.115 Y49.56 Z0 F800
G1 X117.597 Y49.529 Z0 F800
G1 X118.001 Y49.447 Z0 F800
G1 X118.346 Y49.3 Z0 F800
G1 X118.64 Y49.099 Z0 F800
G1 X118.895 Y48.856 Z0 F800
G1 X119.322 Y48.293 Z0 F800
G1 X119.706 Y47.704 Z0 F800
G1 X119.905 Y47.43 Z0 F800
G1 X120.122 Y47.184 Z0 F800
G1 X120.367 Y46.98 Z0 F800
G1 X120.65 Y46.828 Z0 F800
G1 X120.98 Y46.741 Z0 F800
G1 X121.366 Y46.73 Z0 F800
G1 X121.584 Y46.756 Z0 F800
G1 X121.82 Y46.807 Z0 F800
G1 X122.074 Y46.882 Z0 F800
G1 X122.349 Y46.984 Z0 F800
G1 X122.651 Y47.18 Z0 F800
G1 X122.868 Y47.431 Z0 F800
G1 X123.007 Y47.728 Z0 F800
G1 X123.075 Y48.063 Z0 F800
G1 Y48.427 Z0 F800
G1 X123.017 Y48.812 Z0 F800
G1 X122.903 Y49.21 Z0 F800
G1 X122.74 Y49.612 Z0 F800
G1 X122.534 Y50.009 Z0 F800
G1 X122.291 Y50.395 Z0 F800
G1 X122.017 Y50.759 Z0 F800
G1 X121.717 Y51.094 Z0 F800
G1 X121.397 Y51.392 Z0 F800
G1 X121.063 Y51.643 Z0 F800
G1 X120.721 Y51.84 Z0 F800
G1 X120.377 Y51.974 Z0 F800
G1 X119.589 Y52.275 Z0 F800
G1 X118.769 Y52.487 Z0 F800
G1 X118.349 Y52.557 Z0 F800
G1 X117.924 Y52.601 Z0 F800
G1 X117.493 Y52.618 Z0 F800
G1 X117.058 Y52.607 Z0 F800
G1 X116.566 Y52.574 Z0 F800
G1 X116.074 Y52.51 Z0 F800
G1 X115.585 Y52.417 Z0 F800
G1 X115.101 Y52.293 Z0 F800
G1 X114.623 Y52.141 Z0 F800
G1 X114.155 Y51.96 Z0 F800
G1 X113.699 Y51.75 Z0 F800
G1 X113.257 Y51.514 Z0 F800
G1 X112.83 Y51.25 Z0 F800
G1 X112.422 Y50.96 Z0 F800
G1 X112.034 Y50.645 Z0 F800
G1 X111.669 Y50.304 Z0 F800
G1 X111.329 Y49.938 Z0 F800
G1 X111.016 Y49.549 Z0 F800
G1 X110.732 Y49.135 Z0 F800
G1 X110.48 Y48.699 Z0 F800
G1 X110.078 Y47.991 Z0 F800
G1 X109.736 Y47.237 Z0 F800
G1 X109.454 Y46.448 Z0 F800
G1 X109.237 Y45.633 Z0 F800
G1 X109.085 Y44.8 Z0 F800
G1 X109.002 Y43.958 Z0 F800
G1 X108.989 Y43.117 Z0 F800
G1 X109.049 Y42.286 Z0 F800
G1 X109.11 Y41.836 Z0 F800
G0 Z3.5 F500
G0 X61.655 Y46.327 Z3.5 
G1 Z0 F500
G1 X61.737 Y46.783 Z0 F800
G1 X61.77 Y47.202 Z0 F800
G1 X61.74 Y47.574 Z0 F800
G1 X61.698 Y47.739 Z0 F800
G1 X61.635 Y47.889 Z0 F800
G1 X61.55 Y48.022 Z0 F800
G1 X61.442 Y48.137 Z0 F800
G1 X61.308 Y48.233 Z0 F800
G1 X61.147 Y48.309 Z0 F800
G1 X60.958 Y48.363 Z0 F800
G1 X60.738 Y48.395 Z0 F800
G1 X59.572 Y48.406 Z0 F800
G1 X58.989 Y48.394 Z0 F800
G1 X58.413 Y48.348 Z0 F800
G1 X57.486 Y42.853 Z0 F800
G1 X56.583 Y37.336 Z0 F800
G1 X56.936 Y37.196 Z0 F800
G1 X57.266 Y37.086 Z0 F800
G1 X57.575 Y37.005 Z0 F800
G1 X57.863 Y36.951 Z0 F800
G1 X58.131 Y36.925 Z0 F800
G1 X58.38 Z0 F800
G1 X58.611 Y36.948 Z0 F800
G1 X58.825 Y36.995 Z0 F800
G1 X59.203 Y37.154 Z0 F800
G1 X59.52 Y37.392 Z0 F800
G1 X59.785 Y37.701 Z0 F800
G1 X60.002 Y38.07 Z0 F800
G1 X60.178 Y38.49 Z0 F800
G1 X60.32 Y38.952 Z0 F800
G1 X60.435 Y39.447 Z0 F800
G1 X60.528 Y39.965 Z0 F800
G1 X60.677 Y41.034 Z0 F800
G1 X60.818 Y42.084 Z0 F800
G1 X60.765 Y42.453 Z0 F800
G1 X60.778 Y42.869 Z0 F800
G1 X60.845 Y43.324 Z0 F800
G1 X60.953 Y43.808 Z0 F800
G1 X61.241 Y44.824 Z0 F800
G1 X61.536 Y45.841 Z0 F800
G1 X61.655 Y46.327 Z0 F800
;Cut @ 6000 mm/min, 80% power

M8
G0 Z3.5 F500
G0 X63.516 Y45.823 Z3.5 
G1 Z0 F500
;Layer C28
G1 X63.252 Y45.342 Z0 F800
G1 X63.021 Y44.839 Z0 F800
G1 X62.824 Y44.318 Z0 F800
G1 X62.661 Y43.784 Z0 F800
G1 X62.529 Y43.239 Z0 F800
G1 X62.429 Y42.687 Z0 F800
G1 X62.36 Y42.132 Z0 F800
G1 X62.322 Y41.577 Z0 F800
G1 X62.312 Y41.026 Z0 F800
G1 X62.332 Y40.483 Z0 F800
G1 X62.402 Y40.13 Z0 F800
G1 X62.504 Y39.778 Z0 F800
G1 X62.637 Y39.431 Z0 F800
G1 X62.797 Y39.093 Z0 F800
G1 X62.984 Y38.767 Z0 F800
G1 X63.195 Y38.458 Z0 F800
G1 X63.429 Y38.17 Z0 F800
G1 X63.684 Y37.907 Z0 F800
G1 X63.958 Y37.673 Z0 F800
G1 X64.249 Y37.471 Z0 F800
G1 X64.555 Y37.307 Z0 F800
G1 X64.874 Y37.183 Z0 F800
G1 X65.205 Y37.105 Z0 F800
G1 X65.546 Y37.075 Z0 F800
G1 X65.895 Y37.099 Z0 F800
G1 X66.25 Y37.18 Z0 F800
G1 X66.522 Y37.08 Z0 F800
G1 X66.809 Y37.071 Z0 F800
G1 X67.104 Y37.139 Z0 F800
G1 X67.404 Y37.269 Z0 F800
G1 X67.995 Y37.656 Z0 F800
G1 X68.544 Y38.114 Z0 F800
G1 X68.789 Y38.331 Z0 F800
G1 X69.009 Y38.522 Z0 F800
G1 X69.198 Y38.672 Z0 F800
G1 X69.352 Y38.764 Z0 F800
G1 X69.466 Y38.786 Z0 F800
G1 X69.533 Y38.721 Z0 F800
G1 X69.549 Y38.652 Z0 F800
G1 Y38.555 Z0 F800
G1 X69.539 Y38.43 Z0 F800
G1 X69.513 Y38.274 Z0 F800
G1 X69.516 Y38.071 Z0 F800
G1 X69.545 Y37.887 Z0 F800
G1 X69.598 Y37.721 Z0 F800
G1 X69.674 Y37.573 Z0 F800
G1 X69.885 Y37.33 Z0 F800
G1 X70.162 Y37.155 Z0 F800
G1 X70.491 Y37.045 Z0 F800
G1 X70.857 Y36.999 Z0 F800
G1 X71.244 Y37.013 Z0 F800
G1 X71.638 Y37.086 Z0 F800
G1 X72.022 Y37.214 Z0 F800
G1 X72.383 Y37.396 Z0 F800
G1 X72.705 Y37.629 Z0 F800
G1 X72.973 Y37.91 Z0 F800
G1 X73.171 Y38.236 Z0 F800
G1 X73.285 Y38.606 Z0 F800
G1 X73.306 Y38.807 Z0 F800
G1 X73.3 Y39.017 Z0 F800
G1 X73.266 Y39.237 Z0 F800
G1 X73.201 Y39.467 Z0 F800
G1 X73.516 Y41.791 Z0 F800
G1 X73.929 Y44.1 Z0 F800
G1 X74.139 Y45.251 Z0 F800
G1 X74.335 Y46.402 Z0 F800
G1 X74.503 Y47.554 Z0 F800
G1 X74.63 Y48.709 Z0 F800
G1 X74.794 Y49.229 Z0 F800
G1 X74.932 Y49.715 Z0 F800
G1 X75.039 Y50.167 Z0 F800
G1 X75.112 Y50.583 Z0 F800
G1 X75.147 Y50.961 Z0 F800
G1 X75.14 Y51.301 Z0 F800
G1 X75.086 Y51.601 Z0 F800
G1 X74.983 Y51.86 Z0 F800
G1 X74.825 Y52.076 Z0 F800
G1 X74.61 Y52.249 Z0 F800
G1 X74.333 Y52.377 Z0 F800
G1 X73.989 Y52.459 Z0 F800
G1 X73.576 Y52.493 Z0 F800
G1 X73.089 Y52.478 Z0 F800
G1 X72.525 Y52.414 Z0 F800
G1 X71.878 Y52.297 Z0 F800
G1 X71.761 Y52.03 Z0 F800
G1 X71.664 Y51.7 Z0 F800
G1 X71.582 Y51.32 Z0 F800
G1 X71.514 Y50.901 Z0 F800
G1 X71.403 Y49.99 Z0 F800
G1 X71.307 Y49.057 Z0 F800
G1 X71.257 Y48.61 Z0 F800
G1 X71.201 Y48.192 Z0 F800
G1 X71.136 Y47.812 Z0 F800
G1 X71.059 Y47.484 Z0 F800
G1 X70.967 Y47.218 Z0 F800
G1 X70.857 Y47.024 Z0 F800
G1 X70.726 Y46.916 Z0 F800
G1 X70.571 Y46.902 Z0 F800
G1 X70.409 Y47.224 Z0 F800
G1 X70.212 Y47.512 Z0 F800
G1 X69.986 Y47.767 Z0 F800
G1 X69.732 Y47.987 Z0 F800
G1 X69.454 Y48.174 Z0 F800
G1 X69.156 Y48.328 Z0 F800
G1 X68.842 Y48.449 Z0 F800
G1 X68.515 Y48.537 Z0 F800
G1 X68.179 Y48.591 Z0 F800
G1 X67.837 Y48.613 Z0 F800
G1 X67.493 Y48.602 Z0 F800
G1 X67.151 Y48.559 Z0 F800
G1 X66.813 Y48.483 Z0 F800
G1 X66.484 Y48.375 Z0 F800
G1 X66.167 Y48.235 Z0 F800
G1 X65.38 Y47.785 Z0 F800
G1 X64.933 Y47.464 Z0 F800
G1 X64.524 Y47.104 Z0 F800
G1 X64.152 Y46.708 Z0 F800
G1 X63.816 Y46.28 Z0 F800
G1 X63.516 Y45.823 Z0 F800
;Cut @ 6000 mm/min, 80% power

M8
G0 Z3.5 F500
G0 X56.241 Y46.378 Z3.5 
G1 Z0 F500
;Layer C14
G1 X56.286 Y46.768 Z0 F800
G1 X56.295 Y47.136 Z0 F800
G1 X56.265 Y47.475 Z0 F800
G1 X56.192 Y47.782 Z0 F800
G1 X56.07 Y48.049 Z0 F800
G1 X55.897 Y48.273 Z0 F800
G1 X55.667 Y48.447 Z0 F800
G1 X55.377 Y48.568 Z0 F800
G1 X55.022 Y48.628 Z0 F800
G1 X54.599 Y48.624 Z0 F800
G1 X54.36 Y48.596 Z0 F800
G1 X54.102 Y48.55 Z0 F800
G1 X53.825 Y48.485 Z0 F800
G1 X53.528 Y48.4 Z0 F800
G1 X53.248 Y48.169 Z0 F800
G1 X53.019 Y47.885 Z0 F800
G1 X52.835 Y47.553 Z0 F800
G1 X52.689 Y47.18 Z0 F800
G1 X52.576 Y46.773 Z0 F800
G1 X52.49 Y46.336 Z0 F800
G1 X52.425 Y45.876 Z0 F800
G1 X52.375 Y45.399 Z0 F800
G1 X52.293 Y44.418 Z0 F800
G1 X52.199 Y43.443 Z0 F800
G1 X52.132 Y42.972 Z0 F800
G1 X52.043 Y42.52 Z0 F800
G1 X51.927 Y42.094 Z0 F800
G1 X51.777 Y41.7 Z0 F800
G1 X51.753 Y41.485 Z0 F800
G1 X51.706 Y41.285 Z0 F800
G1 X51.638 Y41.098 Z0 F800
G1 X51.549 Y40.925 Z0 F800
G1 X51.32 Y40.621 Z0 F800
G1 X51.033 Y40.374 Z0 F800
G1 X50.701 Y40.184 Z0 F800
G1 X50.339 Y40.052 Z0 F800
G1 X49.96 Y39.979 Z0 F800
G1 X49.579 Y39.965 Z0 F800
G1 X49.21 Y40.011 Z0 F800
G1 X48.867 Y40.119 Z0 F800
G1 X48.563 Y40.287 Z0 F800
G1 X48.313 Y40.518 Z0 F800
G1 X48.213 Y40.657 Z0 F800
G1 X48.131 Y40.812 Z0 F800
G1 X48.069 Y40.982 Z0 F800
G1 X48.03 Y41.169 Z0 F800
G1 X48.015 Y41.371 Z0 F800
G1 X48.025 Y41.59 Z0 F800
G1 X48.063 Y41.825 Z0 F800
G1 X48.13 Y42.076 Z0 F800
G1 X48.108 Y42.548 Z0 F800
G1 X48.156 Y43.075 Z0 F800
G1 X48.256 Y43.641 Z0 F800
G1 X48.391 Y44.234 Z0 F800
G1 X48.696 Y45.445 Z0 F800
G1 X48.936 Y46.596 Z0 F800
G1 X48.989 Y47.115 Z0 F800
G1 X48.973 Y47.577 Z0 F800
G1 X48.935 Y47.783 Z0 F800
G1 X48.873 Y47.97 Z0 F800
G1 X48.786 Y48.136 Z0 F800
G1 X48.671 Y48.279 Z0 F800
G1 X48.526 Y48.397 Z0 F800
G1 X48.35 Y48.49 Z0 F800
G1 X48.139 Y48.555 Z0 F800
G1 X47.892 Y48.59 Z0 F800
G1 X47.607 Y48.594 Z0 F800
G1 X47.281 Y48.564 Z0 F800
G1 X46.913 Y48.5 Z0 F800
G1 X46.5 Y48.4 Z0 F800
G1 X45.798 Y48.373 Z0 F800
G1 X45.741 Y48.348 Z0 F800
G1 X45.564 Y47.163 Z0 F800
G1 X45.323 Y45.972 Z0 F800
G1 X45.056 Y44.777 Z0 F800
G1 X44.802 Y43.58 Z0 F800
G1 X44.6 Y42.382 Z0 F800
G1 X44.491 Y41.183 Z0 F800
G1 X44.483 Y40.585 Z0 F800
G1 X44.512 Y39.987 Z0 F800
G1 X44.585 Y39.389 Z0 F800
G1 X44.704 Y38.793 Z0 F800
G1 X44.93 Y38.404 Z0 F800
G1 X45.198 Y38.072 Z0 F800
G1 X45.503 Y37.794 Z0 F800
G1 X45.841 Y37.569 Z0 F800
G1 X46.205 Y37.394 Z0 F800
G1 X46.591 Y37.267 Z0 F800
G1 X46.993 Y37.186 Z0 F800
G1 X47.407 Y37.148 Z0 F800
G1 X47.826 Y37.151 Z0 F800
G1 X48.246 Y37.193 Z0 F800
G1 X48.662 Y37.272 Z0 F800
G1 X49.068 Y37.385 Z0 F800
G1 X49.46 Y37.531 Z0 F800
G1 X49.831 Y37.706 Z0 F800
G1 X50.177 Y37.909 Z0 F800
G1 X50.492 Y38.138 Z0 F800
G1 X50.656 Y38.405 Z0 F800
G1 X50.797 Y38.624 Z0 F800
G1 X50.918 Y38.798 Z0 F800
G1 X51.021 Y38.929 Z0 F800
G1 X51.106 Y39.02 Z0 F800
G1 X51.176 Y39.075 Z0 F800
G1 X51.233 Y39.095 Z0 F800
G1 X51.278 Y39.085 Z0 F800
G1 X51.339 Y38.984 Z0 F800
G1 X51.373 Y38.795 Z0 F800
G1 X51.393 Y38.541 Z0 F800
G1 X51.414 Y38.245 Z0 F800
G1 X51.449 Y37.931 Z0 F800
G1 X51.512 Y37.623 Z0 F800
G1 X51.616 Y37.344 Z0 F800
G1 X51.774 Y37.116 Z0 F800
G1 X51.879 Y37.03 Z0 F800
G1 X52.001 Y36.965 Z0 F800
G1 X52.145 Y36.925 Z0 F800
G1 X52.311 Y36.913 Z0 F800
G1 X52.5 Y36.931 Z0 F800
G1 X52.715 Y36.983 Z0 F800
G1 X52.958 Y37.071 Z0 F800
G1 X53.23 Y37.199 Z0 F800
G1 X53.483 Y37.256 Z0 F800
G1 X53.713 Y37.337 Z0 F800
G1 X53.921 Y37.439 Z0 F800
G1 X54.109 Y37.563 Z0 F800
G1 X54.427 Y37.868 Z0 F800
G1 X54.677 Y38.242 Z0 F800
G1 X54.868 Y38.677 Z0 F800
G1 X55.01 Y39.162 Z0 F800
G1 X55.112 Y39.688 Z0 F800
G1 X55.183 Y40.245 Z0 F800
G1 X55.273 Y41.416 Z0 F800
G1 X55.354 Y42.598 Z0 F800
G1 X55.416 Y43.17 Z0 F800
G1 X55.503 Y43.716 Z0 F800
G1 X55.627 Y44.226 Z0 F800
G1 X55.795 Y44.692 Z0 F800
G1 X56.063 Y45.549 Z0 F800
G1 X56.241 Y46.378 Z0 F800
;Offset @ 1500 mm/min, 80% power

M8
G0 Z3.5 F500
G0 X40.029 Y38.294 Z3.5 
G1 Z0 F500
;Layer C3
G1 X40.484 Y38.332 Z0 F800
G1 X40.969 Y38.37 Z0 F800
G1 X41.081 Y38.374 Z0 F800
G1 X41.39 Y40.514 Z0 F800
G1 X41.862 Y43.438 Z0 F800
G1 X42.352 Y46.357 Z0 F800
G1 X42.845 Y49.402 Z0 F800
G1 X43.12 Y49.964 Z0 F800
G1 X43.243 Y50.316 Z0 F800
G1 X43.304 Y50.609 Z0 F800
G1 X43.314 Y50.84 Z0 F800
G1 X43.29 Y51.013 Z0 F800
G1 X43.248 Y51.133 Z0 F800
G1 X43.193 Y51.22 Z0 F800
G1 X43.129 Y51.284 Z0 F800
G1 X43.042 Y51.338 Z0 F800
G1 X42.916 Y51.384 Z0 F800
G1 X42.747 Y51.411 Z0 F800
G1 X42.533 Y51.408 Z0 F800
G1 X42.274 Y51.365 Z0 F800
G1 X41.981 Y51.274 Z0 F800
G1 X41.659 Y51.128 Z0 F800
G1 X41.636 Y51.114 Z0 F800
G1 X41.19 Y48.099 Z0 F800
G1 X40.632 Y44.665 Z0 F800
G1 X40.065 Y41.234 Z0 F800
G1 X39.602 Y38.276 Z0 F800
G1 X39.631 Z0 F800
G1 X40.029 Y38.294 Z0 F800
G0 Z3.5 F500
G0 X41.859 Y37.461 Z3.5 F1500
G1 Z0 F500
G1 X42.279 Y40.377 Z0 F800
G1 X42.75 Y43.292 Z0 F800
G1 X43.239 Y46.208 Z0 F800
G1 X43.712 Y49.126 Z0 F800
G1 X43.952 Y49.617 Z0 F800
G1 X44.112 Y50.075 Z0 F800
G1 X44.199 Y50.497 Z0 F800
G1 X44.216 Y50.881 Z0 F800
G1 X44.169 Y51.226 Z0 F800
G1 X44.063 Y51.527 Z0 F800
G1 X43.902 Y51.784 Z0 F800
G1 X43.692 Y51.993 Z0 F800
G1 X43.437 Y52.152 Z0 F800
G1 X43.142 Y52.259 Z0 F800
G1 X42.812 Y52.312 Z0 F800
G1 X42.452 Y52.307 Z0 F800
G1 X42.066 Y52.243 Z0 F800
G1 X41.661 Y52.117 Z0 F800
G1 X41.24 Y51.926 Z0 F800
G1 X40.809 Y51.669 Z0 F800
G1 X40.301 Y48.237 Z0 F800
G1 X39.744 Y44.81 Z0 F800
G1 X39.177 Y41.381 Z0 F800
G1 X38.639 Y37.943 Z0 F800
G1 X38.602 Y37.593 Z0 F800
G1 X38.729 Y37.513 Z0 F800
G1 X38.876 Y37.454 Z0 F800
G1 X39.044 Y37.413 Z0 F800
G1 X39.229 Y37.388 Z0 F800
G1 X39.64 Y37.375 Z0 F800
G1 X40.089 Y37.396 Z0 F800
G1 X40.556 Y37.435 Z0 F800
G1 X41.02 Y37.471 Z0 F800
G1 X41.461 Y37.486 Z0 F800
G1 X41.859 Y37.461 Z0 F800
;Cut @ 1200 mm/min, 80% power

M8
G0 Z3.5 F500
G0 X36.882 Y43.595 Z3.5 
G1 Z0 F500
;Layer Blue
G1 X36.659 Y43.52 Z0 F800
G1 X36.15 Y43.448 Z0 F800
G1 X35.584 Y43.444 Z0 F800
G1 X34.998 Y43.469 Z0 F800
G1 X34.426 Y43.482 Z0 F800
G1 X34.061 Y43.585 Z0 F800
G1 X33.72 Y43.657 Z0 F800
G1 X33.403 Y43.7 Z0 F800
G1 X33.108 Y43.715 Z0 F800
G1 X32.834 Y43.703 Z0 F800
G1 X32.581 Y43.666 Z0 F800
G1 X32.348 Y43.606 Z0 F800
G1 X32.134 Y43.522 Z0 F800
G1 X31.937 Y43.416 Z0 F800
G1 X31.757 Y43.291 Z0 F800
G1 X31.594 Y43.146 Z0 F800
G1 X31.445 Y42.983 Z0 F800
G1 X31.191 Y42.609 Z0 F800
G1 X30.986 Y42.177 Z0 F800
G1 X30.825 Y41.699 Z0 F800
G1 X30.699 Y41.184 Z0 F800
G1 X30.602 Y40.642 Z0 F800
G1 X30.526 Y40.083 Z0 F800
G1 X30.411 Y38.953 Z0 F800
G1 X30.295 Y37.873 Z0 F800
G1 X30.232 Y37.696 Z0 F800
G1 X30.132 Y37.56 Z0 F800
G1 X29.999 Y37.46 Z0 F800
G1 X29.838 Y37.392 Z0 F800
G1 X29.446 Y37.332 Z0 F800
G1 X28.989 Y37.344 Z0 F800
G1 X28.008 Y37.441 Z0 F800
G1 X27.55 Y37.455 Z0 F800
G1 X27.156 Y37.397 Z0 F800
G1 X27.025 Y37.365 Z0 F800
G1 X26.952 Y37.387 Z0 F800
G1 X26.924 Y37.449 Z0 F800
G1 X26.927 Y37.54 Z0 F800
G1 X26.975 Y37.76 Z0 F800
G1 X26.988 Y37.947 Z0 F800
G1 X28.095 Y44.962 Z0 F800
G1 X28.673 Y48.456 Z0 F800
G1 X29.302 Y51.914 Z0 F800
G1 X30.524 Y52.055 Z0 F800
G1 X31.757 Y52.144 Z0 F800
G1 X32.999 Y52.19 Z0 F800
G1 X34.245 Y52.198 Z0 F800
G1 X36.737 Y52.129 Z0 F800
G1 X39.205 Y51.995 Z0 F800
G1 X39.263 Y51.512 Z0 F800
G1 X39.27 Y51.091 Z0 F800
G1 X39.228 Y50.727 Z0 F800
G1 X39.141 Y50.417 Z0 F800
G1 X39.012 Y50.156 Z0 F800
G1 X38.844 Y49.941 Z0 F800
G1 X38.64 Y49.768 Z0 F800
G1 X38.405 Y49.633 Z0 F800
G1 X38.141 Y49.532 Z0 F800
G1 X37.852 Y49.461 Z0 F800
G1 X37.54 Y49.415 Z0 F800
G1 X37.21 Y49.392 Z0 F800
G1 X36.507 Z0 F800
G1 X35.769 Y49.437 Z0 F800
G1 X35.024 Y49.489 Z0 F800
G1 X34.297 Y49.517 Z0 F800
G1 X33.949 Y49.513 Z0 F800
G1 X33.616 Y49.491 Z0 F800
G1 X33.301 Y49.447 Z0 F800
G1 X33.007 Y49.377 Z0 F800
G1 X32.737 Y49.278 Z0 F800
G1 X32.496 Y49.146 Z0 F800
G1 X32.287 Y48.975 Z0 F800
G1 X32.112 Y48.764 Z0 F800
G1 X31.975 Y48.507 Z0 F800
G1 X31.879 Y48.2 Z0 F800
G1 X31.828 Y47.84 Z0 F800
G1 Y47.423 Z0 F800
G1 X31.777 Y47.155 Z0 F800
G1 X31.766 Y46.922 Z0 F800
G1 X31.79 Y46.719 Z0 F800
G1 X31.848 Y46.546 Z0 F800
G1 X31.937 Y46.4 Z0 F800
G1 X32.054 Y46.28 Z0 F800
G1 X32.197 Y46.183 Z0 F800
G1 X32.364 Y46.107 Z0 F800
G1 X32.761 Y46.01 Z0 F800
G1 X33.225 Y45.973 Z0 F800
G1 X33.737 Y45.98 Z0 F800
G1 X34.279 Y46.014 Z0 F800
G1 X34.833 Y46.06 Z0 F800
G1 X35.379 Y46.099 Z0 F800
G1 X35.899 Y46.117 Z0 F800
G1 X36.375 Y46.097 Z0 F800
G1 X36.589 Y46.068 Z0 F800
G1 X36.786 Y46.023 Z0 F800
G1 X36.962 Y45.96 Z0 F800
G1 X37.116 Y45.877 Z0 F800
G1 X37.244 Y45.773 Z0 F800
G1 X37.345 Y45.644 Z0 F800
G1 X37.415 Y45.49 Z0 F800
G1 X37.454 Y45.307 Z0 F800
G1 X37.508 Y44.9 Z0 F800
G1 Y44.555 Z0 F800
G1 X37.464 Y44.268 Z0 F800
G1 X37.374 Y44.034 Z0 F800
G1 X37.244 Y43.847 Z0 F800
G1 X37.079 Y43.702 Z0 F800
G1 X36.882 Y43.595 Z0 F800
M9
M5
G1 Z10 F500
G90
G1 Z10 F800
