G90
G21
; FluidPainter Generated
G0 Z16 F1500
G0 X39.000 Y78.000 Z1.6
G1 X39.000 Y78.000 Z0 F600
G1 X40.000 Y78.000 Z0 F600
G0 Z1.6
G0 X58.000 Y78.000 Z1.6
G1 X58.000 Y78.000 Z0 F600
G1 X59.000 Y78.000 Z0 F600
G1 X60.000 Y78.000 Z0 F600
G1 X61.000 Y78.000 Z0 F600
G1 X62.000 Y78.000 Z0 F600
G0 Z1.6
G0 X79.000 Y78.000 Z1.6
G1 X79.000 Y78.000 Z0 F600
G1 X80.000 Y78.000 Z0 F600
G1 X81.000 Y78.000 Z0 F600
G1 X82.000 Y78.000 Z0 F600
G1 X83.000 Y78.000 Z0 F600
G0 Z1.6
G0 X102.000 Y78.000 Z1.6
G1 X102.000 Y78.000 Z0 F600
G0 Z1.6
G0 X154.000 Y78.000 Z1.6
G1 X154.000 Y78.000 Z0 F600
G1 X155.000 Y78.000 Z0 F600
G1 X156.000 Y78.000 Z0 F600
G1 X157.000 Y78.000 Z0 F600
G0 Z1.6
G0 X175.000 Y78.000 Z1.6
G1 X175.000 Y78.000 Z0 F600
G1 X176.000 Y78.000 Z0 F600
G1 X177.000 Y78.000 Z0 F600
G1 X178.000 Y78.000 Z0 F600
G0 Z1.6
G0 X228.000 Y78.000 Z1.6
G1 X228.000 Y78.000 Z0 F600
G1 X229.000 Y78.000 Z0 F600
G1 X230.000 Y78.000 Z0 F600
G0 Z1.6
G0 X248.000 Y78.000 Z1.6
G1 X248.000 Y78.000 Z0 F600
G1 X249.000 Y78.000 Z0 F600
G1 X250.000 Y78.000 Z0 F600
G1 X251.000 Y78.000 Z0 F600
G1 X252.000 Y78.000 Z0 F600
G0 Z1.6
G0 X269.000 Y78.000 Z1.6
G1 X269.000 Y78.000 Z0 F600
G1 X270.000 Y78.000 Z0 F600
G1 X271.000 Y78.000 Z0 F600
G1 X272.000 Y78.000 Z0 F600
G0 Z1.6
G0 X26.000 Y81.780 Z1.6
G1 X26.000 Y81.780 Z0 F600
G1 X27.000 Y81.780 Z0 F600
G1 X28.000 Y81.780 Z0 F600
G1 X29.000 Y81.780 Z0 F600
G1 X30.000 Y81.780 Z0 F600
G1 X31.000 Y81.780 Z0 F600
G0 Z1.6
G0 X47.000 Y81.780 Z1.6
G1 X47.000 Y81.780 Z0 F600
G1 X48.000 Y81.780 Z0 F600
G1 X49.000 Y81.780 Z0 F600
G1 X50.000 Y81.780 Z0 F600
G1 X51.000 Y81.780 Z0 F600
G1 X52.000 Y81.780 Z0 F600
G0 Z1.6
G0 X101.000 Y81.780 Z1.6
G1 X101.000 Y81.780 Z0 F600
G1 X102.000 Y81.780 Z0 F600
G1 X103.000 Y81.780 Z0 F600
G1 X104.000 Y81.780 Z0 F600
G0 Z1.6
G0 X122.000 Y81.780 Z1.6
G1 X122.000 Y81.780 Z0 F600
G1 X123.000 Y81.780 Z0 F600
G1 X124.000 Y81.780 Z0 F600
G1 X125.000 Y81.780 Z0 F600
G0 Z1.6
G0 X144.000 Y81.780 Z1.6
G1 X144.000 Y81.780 Z0 F600
G0 Z1.6
G0 X176.000 Y81.780 Z1.6
G1 X176.000 Y81.780 Z0 F600
G0 Z1.6
G0 X195.000 Y81.780 Z1.6
G1 X195.000 Y81.780 Z0 F600
G1 X196.000 Y81.780 Z0 F600
G1 X197.000 Y81.780 Z0 F600
G1 X198.000 Y81.780 Z0 F600
G1 X199.000 Y81.780 Z0 F600
G0 Z1.6
G0 X217.000 Y81.780 Z1.6
G1 X217.000 Y81.780 Z0 F600
G1 X218.000 Y81.780 Z0 F600
G1 X219.000 Y81.780 Z0 F600
G0 Z1.6
G0 X270.000 Y81.780 Z1.6
G1 X270.000 Y81.780 Z0 F600
G1 X271.000 Y81.780 Z0 F600
G1 X272.000 Y81.780 Z0 F600
G0 Z1.6
G0 X289.000 Y81.780 Z1.6
G1 X289.000 Y81.780 Z0 F600
G1 X290.000 Y81.780 Z0 F600
G1 X291.000 Y81.780 Z0 F600
G1 X292.000 Y81.780 Z0 F600
G1 X293.000 Y81.780 Z0 F600
G1 X294.000 Y81.780 Z0 F600
G0 Z1.6
G0 X16.000 Y85.560 Z1.6
G1 X16.000 Y85.560 Z0 F600
G1 X17.000 Y85.560 Z0 F600
G1 X18.000 Y85.560 Z0 F600
G1 X19.000 Y85.560 Z0 F600
G1 X20.000 Y85.560 Z0 F600
G0 Z1.6
G0 X39.000 Y85.560 Z1.6
G1 X39.000 Y85.560 Z0 F600
G0 Z1.6
G0 X69.000 Y85.560 Z1.6
G1 X69.000 Y85.560 Z0 F600
G1 X70.000 Y85.560 Z0 F600
G1 X71.000 Y85.560 Z0 F600
G1 X72.000 Y85.560 Z0 F600
G0 Z1.6
G0 X89.000 Y85.560 Z1.6
G1 X89.000 Y85.560 Z0 F600
G1 X90.000 Y85.560 Z0 F600
G1 X91.000 Y85.560 Z0 F600
G1 X92.000 Y85.560 Z0 F600
G1 X93.000 Y85.560 Z0 F600
G0 Z1.6
G0 X112.000 Y85.560 Z1.6
G1 X112.000 Y85.560 Z0 F600
G1 X113.000 Y85.560 Z0 F600
G0 Z1.6
G0 X144.000 Y85.560 Z1.6
G1 X144.000 Y85.560 Z0 F600
G0 Z1.6
G0 X163.000 Y85.560 Z1.6
G1 X163.000 Y85.560 Z0 F600
G1 X164.000 Y85.560 Z0 F600
G1 X165.000 Y85.560 Z0 F600
G1 X166.000 Y85.560 Z0 F600
G1 X167.000 Y85.560 Z0 F600
G0 Z1.6
G0 X183.000 Y85.560 Z1.6
G1 X183.000 Y85.560 Z0 F600
G1 X184.000 Y85.560 Z0 F600
G1 X185.000 Y85.560 Z0 F600
G1 X186.000 Y85.560 Z0 F600
G1 X187.000 Y85.560 Z0 F600
G1 X188.000 Y85.560 Z0 F600
G1 X189.000 Y85.560 Z0 F600
G0 Z1.6
G0 X238.000 Y85.560 Z1.6
G1 X238.000 Y85.560 Z0 F600
G1 X239.000 Y85.560 Z0 F600
G1 X240.000 Y85.560 Z0 F600
G0 Z1.6
G0 X258.000 Y85.560 Z1.6
G1 X258.000 Y85.560 Z0 F600
G1 X259.000 Y85.560 Z0 F600
G1 X260.000 Y85.560 Z0 F600
G1 X261.000 Y85.560 Z0 F600
G1 X262.000 Y85.560 Z0 F600
G0 Z1.6
G0 X279.000 Y85.560 Z1.6
G1 X279.000 Y85.560 Z0 F600
G1 X280.000 Y85.560 Z0 F600
G1 X281.000 Y85.560 Z0 F600
G1 X282.000 Y85.560 Z0 F600
G0 Z1.6
G0 X18.000 Y89.340 Z1.6
G1 X18.000 Y89.340 Z0 F600
G0 Z1.6
G0 X37.000 Y89.340 Z1.6
G1 X37.000 Y89.340 Z0 F600
G1 X38.000 Y89.340 Z0 F600
G1 X39.000 Y89.340 Z0 F600
G1 X40.000 Y89.340 Z0 F600
G0 Z1.6
G0 X57.000 Y89.340 Z1.6
G1 X57.000 Y89.340 Z0 F600
G1 X58.000 Y89.340 Z0 F600
G1 X59.000 Y89.340 Z0 F600
G1 X60.000 Y89.340 Z0 F600
G1 X61.000 Y89.340 Z0 F600
G1 X62.000 Y89.340 Z0 F600
G0 Z1.6
G0 X79.000 Y89.340 Z1.6
G1 X79.000 Y89.340 Z0 F600
G1 X80.000 Y89.340 Z0 F600
G1 X81.000 Y89.340 Z0 F600
G1 X82.000 Y89.340 Z0 F600
G0 Z1.6
G0 X132.000 Y89.340 Z1.6
G1 X132.000 Y89.340 Z0 F600
G1 X133.000 Y89.340 Z0 F600
G1 X134.000 Y89.340 Z0 F600
G0 Z1.6
G0 X150.000 Y89.340 Z1.6
G1 X150.000 Y89.340 Z0 F600
G1 X151.000 Y89.340 Z0 F600
G1 X152.000 Y89.340 Z0 F600
; Dip needed
G0 X91 Y25 Z16
G1 Z3.2 F600
G4 P300
G0 X153.000 Y89.340 Z1.6 F1500
G1 X153.000 Y89.340 Z0 F600
G1 X154.000 Y89.340 Z0 F600
G1 X155.000 Y89.340 Z0 F600
G1 X156.000 Y89.340 Z0 F600
G1 X157.000 Y89.340 Z0 F600
G1 X158.000 Y89.340 Z0 F600
G0 Z1.6
G0 X175.000 Y89.340 Z1.6
G1 X175.000 Y89.340 Z0 F600
G1 X176.000 Y89.340 Z0 F600
G0 Z1.6
G0 X185.000 Y89.340 Z1.6
G1 X185.000 Y89.340 Z0 F600
G1 X186.000 Y89.340 Z0 F600
G1 X187.000 Y89.340 Z0 F600
G0 Z1.6
G0 X195.000 Y89.340 Z1.6
G1 X195.000 Y89.340 Z0 F600
G1 X196.000 Y89.340 Z0 F600
G1 X197.000 Y89.340 Z0 F600
G1 X198.000 Y89.340 Z0 F600
G0 Z1.6
G0 X207.000 Y89.340 Z1.6
G1 X207.000 Y89.340 Z0 F600
G0 Z1.6
G0 X226.000 Y89.340 Z1.6
G1 X226.000 Y89.340 Z0 F600
G1 X227.000 Y89.340 Z0 F600
G1 X228.000 Y89.340 Z0 F600
G1 X229.000 Y89.340 Z0 F600
G1 X230.000 Y89.340 Z0 F600
G0 Z1.6
G0 X248.000 Y89.340 Z1.6
G1 X248.000 Y89.340 Z0 F600
G1 X249.000 Y89.340 Z0 F600
G1 X250.000 Y89.340 Z0 F600
G0 Z1.6
G0 X26.000 Y93.120 Z1.6
G1 X26.000 Y93.120 Z0 F600
G1 X27.000 Y93.120 Z0 F600
G1 X28.000 Y93.120 Z0 F600
G1 X29.000 Y93.120 Z0 F600
G1 X30.000 Y93.120 Z0 F600
G0 Z1.6
G0 X48.000 Y93.120 Z1.6
G1 X48.000 Y93.120 Z0 F600
G1 X49.000 Y93.120 Z0 F600
G1 X50.000 Y93.120 Z0 F600
G0 Z1.6
G0 X79.000 Y93.120 Z1.6
G1 X79.000 Y93.120 Z0 F600
G1 X80.000 Y93.120 Z0 F600
G1 X81.000 Y93.120 Z0 F600
G1 X82.000 Y93.120 Z0 F600
G0 Z1.6
G0 X100.000 Y93.120 Z1.6
G1 X100.000 Y93.120 Z0 F600
G1 X101.000 Y93.120 Z0 F600
G1 X102.000 Y93.120 Z0 F600
G1 X103.000 Y93.120 Z0 F600
G0 Z1.6
G0 X121.000 Y93.120 Z1.6
G1 X121.000 Y93.120 Z0 F600
G1 X122.000 Y93.120 Z0 F600
G1 X123.000 Y93.120 Z0 F600
G0 Z1.6
G0 X139.000 Y93.120 Z1.6
G1 X139.000 Y93.120 Z0 F600
G1 X140.000 Y93.120 Z0 F600
G1 X141.000 Y93.120 Z0 F600
G1 X142.000 Y93.120 Z0 F600
G1 X143.000 Y93.120 Z0 F600
G1 X144.000 Y93.120 Z0 F600
G1 X145.000 Y93.120 Z0 F600
G1 X146.000 Y93.120 Z0 F600
G1 X147.000 Y93.120 Z0 F600
G1 X148.000 Y93.120 Z0 F600
G0 Z1.6
G0 X151.000 Y93.120 Z1.6
G1 X151.000 Y93.120 Z0 F600
G1 X152.000 Y93.120 Z0 F600
G1 X153.000 Y93.120 Z0 F600
G1 X154.000 Y93.120 Z0 F600
G1 X155.000 Y93.120 Z0 F600
G1 X156.000 Y93.120 Z0 F600
G1 X157.000 Y93.120 Z0 F600
G0 Z1.6
G0 X174.000 Y93.120 Z1.6
G1 X174.000 Y93.120 Z0 F600
G1 X175.000 Y93.120 Z0 F600
G1 X176.000 Y93.120 Z0 F600
G1 X177.000 Y93.120 Z0 F600
G0 Z1.6
G0 X193.000 Y93.120 Z1.6
G1 X193.000 Y93.120 Z0 F600
G1 X194.000 Y93.120 Z0 F600
G1 X195.000 Y93.120 Z0 F600
G1 X196.000 Y93.120 Z0 F600
G1 X197.000 Y93.120 Z0 F600
G1 X198.000 Y93.120 Z0 F600
G1 X199.000 Y93.120 Z0 F600
G1 X200.000 Y93.120 Z0 F600
G0 Z1.6
G0 X216.000 Y93.120 Z1.6
G1 X216.000 Y93.120 Z0 F600
G1 X217.000 Y93.120 Z0 F600
G1 X218.000 Y93.120 Z0 F600
G0 Z1.6
G0 X268.000 Y93.120 Z1.6
G1 X268.000 Y93.120 Z0 F600
G1 X269.000 Y93.120 Z0 F600
G1 X270.000 Y93.120 Z0 F600
G1 X271.000 Y93.120 Z0 F600
G1 X272.000 Y93.120 Z0 F600
G0 Z1.6
G0 X289.000 Y93.120 Z1.6
G1 X289.000 Y93.120 Z0 F600
G1 X290.000 Y93.120 Z0 F600
G1 X291.000 Y93.120 Z0 F600
G1 X292.000 Y93.120 Z0 F600
G1 X293.000 Y93.120 Z0 F600
G0 Z1.6
G0 X16.000 Y96.900 Z1.6
G1 X16.000 Y96.900 Z0 F600
G1 X17.000 Y96.900 Z0 F600
G1 X18.000 Y96.900 Z0 F600
G0 Z1.6
G0 X47.000 Y96.900 Z1.6
G1 X47.000 Y96.900 Z0 F600
G1 X48.000 Y96.900 Z0 F600
G1 X49.000 Y96.900 Z0 F600
G1 X50.000 Y96.900 Z0 F600
G0 Z1.6
G0 X68.000 Y96.900 Z1.6
G1 X68.000 Y96.900 Z0 F600
G1 X69.000 Y96.900 Z0 F600
G1 X70.000 Y96.900 Z0 F600
G1 X71.000 Y96.900 Z0 F600
G1 X72.000 Y96.900 Z0 F600
G0 Z1.6
G0 X89.000 Y96.900 Z1.6
G1 X89.000 Y96.900 Z0 F600
G1 X90.000 Y96.900 Z0 F600
G1 X91.000 Y96.900 Z0 F600
G1 X92.000 Y96.900 Z0 F600
G0 Z1.6
G0 X132.000 Y96.900 Z1.6
G1 X132.000 Y96.900 Z0 F600
G1 X133.000 Y96.900 Z0 F600
G0 Z1.6
G0 X138.000 Y96.900 Z1.6
G1 X138.000 Y96.900 Z0 F600
G1 X139.000 Y96.900 Z0 F600
G1 X140.000 Y96.900 Z0 F600
G1 X141.000 Y96.900 Z0 F600
G1 X142.000 Y96.900 Z0 F600
G1 X143.000 Y96.900 Z0 F600
G1 X144.000 Y96.900 Z0 F600
G1 X145.000 Y96.900 Z0 F600
G1 X146.000 Y96.900 Z0 F600
G1 X147.000 Y96.900 Z0 F600
G1 X148.000 Y96.900 Z0 F600
G0 Z1.6
G0 X161.000 Y96.900 Z1.6
G1 X161.000 Y96.900 Z0 F600
G1 X162.000 Y96.900 Z0 F600
G1 X163.000 Y96.900 Z0 F600
G1 X164.000 Y96.900 Z0 F600
G1 X165.000 Y96.900 Z0 F600
G1 X166.000 Y96.900 Z0 F600
G1 X167.000 Y96.900 Z0 F600
G1 X168.000 Y96.900 Z0 F600
G0 Z1.6
G0 X182.000 Y96.900 Z1.6
G1 X182.000 Y96.900 Z0 F600
G1 X183.000 Y96.900 Z0 F600
G1 X184.000 Y96.900 Z0 F600
G1 X185.000 Y96.900 Z0 F600
G1 X186.000 Y96.900 Z0 F600
G1 X187.000 Y96.900 Z0 F600
G1 X188.000 Y96.900 Z0 F600
G1 X189.000 Y96.900 Z0 F600
G0 Z1.6
G0 X195.000 Y96.900 Z1.6
G1 X195.000 Y96.900 Z0 F600
G1 X196.000 Y96.900 Z0 F600
G1 X197.000 Y96.900 Z0 F600
G0 Z1.6
G0 X202.000 Y96.900 Z1.6
G1 X202.000 Y96.900 Z0 F600
G1 X203.000 Y96.900 Z0 F600
G1 X204.000 Y96.900 Z0 F600
G1 X205.000 Y96.900 Z0 F600
G1 X206.000 Y96.900 Z0 F600
G1 X207.000 Y96.900 Z0 F600
G1 X208.000 Y96.900 Z0 F600
G1 X209.000 Y96.900 Z0 F600
G1 X210.000 Y96.900 Z0 F600
G0 Z1.6
G0 X236.000 Y96.900 Z1.6
G1 X236.000 Y96.900 Z0 F600
G1 X237.000 Y96.900 Z0 F600
G1 X238.000 Y96.900 Z0 F600
G1 X239.000 Y96.900 Z0 F600
G1 X240.000 Y96.900 Z0 F600
G0 Z1.6
G0 X257.000 Y96.900 Z1.6
G1 X257.000 Y96.900 Z0 F600
G1 X258.000 Y96.900 Z0 F600
G1 X259.000 Y96.900 Z0 F600
G1 X260.000 Y96.900 Z0 F600
G1 X261.000 Y96.900 Z0 F600
G0 Z1.6
G0 X280.000 Y96.900 Z1.6
G1 X280.000 Y96.900 Z0 F600
G0 Z1.6
G0 X16.000 Y100.680 Z1.6
G1 X16.000 Y100.680 Z0 F600
G1 X17.000 Y100.680 Z0 F600
G1 X18.000 Y100.680 Z0 F600
G0 Z1.6
G0 X36.000 Y100.680 Z1.6
G1 X36.000 Y100.680 Z0 F600
G1 X37.000 Y100.680 Z0 F600
G1 X38.000 Y100.680 Z0 F600
G1 X39.000 Y100.680 Z0 F600
G1 X40.000 Y100.680 Z0 F600
G0 Z1.6
G0 X57.000 Y100.680 Z1.6
G1 X57.000 Y100.680 Z0 F600
G1 X58.000 Y100.680 Z0 F600
G1 X59.000 Y100.680 Z0 F600
G1 X60.000 Y100.680 Z0 F600
G1 X61.000 Y100.680 Z0 F600
G0 Z1.6
G0 X110.000 Y100.680 Z1.6
G1 X110.000 Y100.680 Z0 F600
G1 X111.000 Y100.680 Z0 F600
G1 X112.000 Y100.680 Z0 F600
G1 X113.000 Y100.680 Z0 F600
G0 Z1.6
G0 X128.000 Y100.680 Z1.6
G1 X128.000 Y100.680 Z0 F600
G1 X129.000 Y100.680 Z0 F600
G1 X130.000 Y100.680 Z0 F600
G1 X131.000 Y100.680 Z0 F600
G1 X132.000 Y100.680 Z0 F600
G1 X133.000 Y100.680 Z0 F600
G1 X134.000 Y100.680 Z0 F600
G1 X135.000 Y100.680 Z0 F600
G1 X136.000 Y100.680 Z0 F600
G0 Z1.6
G0 X143.000 Y100.680 Z1.6
G1 X143.000 Y100.680 Z0 F600
G1 X144.000 Y100.680 Z0 F600
G0 Z1.6
G0 X151.000 Y100.680 Z1.6
G1 X151.000 Y100.680 Z0 F600
G1 X152.000 Y100.680 Z0 F600
G1 X153.000 Y100.680 Z0 F600
G1 X154.000 Y100.680 Z0 F600
G1 X155.000 Y100.680 Z0 F600
G1 X156.000 Y100.680 Z0 F600
G0 Z1.6
G0 X173.000 Y100.680 Z1.6
G1 X173.000 Y100.680 Z0 F600
G1 X174.000 Y100.680 Z0 F600
G1 X175.000 Y100.680 Z0 F600
G0 Z1.6
G0 X182.000 Y100.680 Z1.6
G1 X182.000 Y100.680 Z0 F600
G1 X183.000 Y100.680 Z0 F600
G1 X184.000 Y100.680 Z0 F600
G1 X185.000 Y100.680 Z0 F600
G1 X186.000 Y100.680 Z0 F600
G1 X187.000 Y100.680 Z0 F600
G1 X188.000 Y100.680 Z0 F600
G0 Z1.6
G0 X201.000 Y100.680 Z1.6
G1 X201.000 Y100.680 Z0 F600
G1 X202.000 Y100.680 Z0 F600
G1 X203.000 Y100.680 Z0 F600
G1 X204.000 Y100.680 Z0 F600
G1 X205.000 Y100.680 Z0 F600
G1 X206.000 Y100.680 Z0 F600
G1 X207.000 Y100.680 Z0 F600
G1 X208.000 Y100.680 Z0 F600
G1 X209.000 Y100.680 Z0 F600
G1 X210.000 Y100.680 Z0 F600
G1 X211.000 Y100.680 Z0 F600
G0 Z1.6
G0 X226.000 Y100.680 Z1.6
G1 X226.000 Y100.680 Z0 F600
G1 X227.000 Y100.680 Z0 F600
G1 X228.000 Y100.680 Z0 F600
G0 Z1.6
G0 X247.000 Y100.680 Z1.6
G1 X247.000 Y100.680 Z0 F600
G1 X248.000 Y100.680 Z0 F600
G1 X249.000 Y100.680 Z0 F600
G0 Z1.6
G0 X279.000 Y100.680 Z1.6
G1 X279.000 Y100.680 Z0 F600
G1 X280.000 Y100.680 Z0 F600
G1 X281.000 Y100.680 Z0 F600
G0 Z1.6
G0 X25.000 Y104.460 Z1.6
G1 X25.000 Y104.460 Z0 F600
G1 X26.000 Y104.460 Z0 F600
G1 X27.000 Y104.460 Z0 F600
G1 X28.000 Y104.460 Z0 F600
G1 X29.000 Y104.460 Z0 F600
G0 Z1.6
G0 X78.000 Y104.460 Z1.6
G1 X78.000 Y104.460 Z0 F600
G1 X79.000 Y104.460 Z0 F600
G1 X80.000 Y104.460 Z0 F600
G1 X81.000 Y104.460 Z0 F600
G0 Z1.6
G0 X99.000 Y104.460 Z1.6
G1 X99.000 Y104.460 Z0 F600
G1 X100.000 Y104.460 Z0 F600
G1 X101.000 Y104.460 Z0 F600
G1 X102.000 Y104.460 Z0 F600
G0 Z1.6
G0 X118.000 Y104.460 Z1.6
G1 X118.000 Y104.460 Z0 F600
G1 X119.000 Y104.460 Z0 F600
G1 X120.000 Y104.460 Z0 F600
G1 X121.000 Y104.460 Z0 F600
G1 X122.000 Y104.460 Z0 F600
G1 X123.000 Y104.460 Z0 F600
G1 X124.000 Y104.460 Z0 F600
G1 X125.000 Y104.460 Z0 F600
G0 Z1.6
G0 X131.000 Y104.460 Z1.6
G1 X131.000 Y104.460 Z0 F600
G1 X132.000 Y104.460 Z0 F600
G1 X133.000 Y104.460 Z0 F600
G1 X134.000 Y104.460 Z0 F600
G0 Z1.6
G0 X141.000 Y104.460 Z1.6
G1 X141.000 Y104.460 Z0 F600
G1 X142.000 Y104.460 Z0 F600
G1 X143.000 Y104.460 Z0 F600
G1 X144.000 Y104.460 Z0 F600
G0 Z1.6
G0 X151.000 Y104.460 Z1.6
G1 X151.000 Y104.460 Z0 F600
G1 X152.000 Y104.460 Z0 F600
G1 X153.000 Y104.460 Z0 F600
; Dip needed
G0 X91 Y25 Z16
G1 Z3.2 F600
G4 P300
G0 X154.000 Y104.460 Z1.6 F1500
G1 X154.000 Y104.460 Z0 F600
G1 X155.000 Y104.460 Z0 F600
G1 X156.000 Y104.460 Z0 F600
G0 Z1.6
G0 X172.000 Y104.460 Z1.6
G1 X172.000 Y104.460 Z0 F600
G1 X173.000 Y104.460 Z0 F600
G1 X174.000 Y104.460 Z0 F600
G1 X175.000 Y104.460 Z0 F600
G1 X176.000 Y104.460 Z0 F600
G1 X177.000 Y104.460 Z0 F600
G0 Z1.6
G0 X192.000 Y104.460 Z1.6
G1 X192.000 Y104.460 Z0 F600
G1 X193.000 Y104.460 Z0 F600
G1 X194.000 Y104.460 Z0 F600
G1 X195.000 Y104.460 Z0 F600
G1 X196.000 Y104.460 Z0 F600
G1 X197.000 Y104.460 Z0 F600
G1 X198.000 Y104.460 Z0 F600
G1 X199.000 Y104.460 Z0 F600
G0 Z1.6
G0 X203.000 Y104.460 Z1.6
G1 X203.000 Y104.460 Z0 F600
G1 X204.000 Y104.460 Z0 F600
G1 X205.000 Y104.460 Z0 F600
G1 X206.000 Y104.460 Z0 F600
G1 X207.000 Y104.460 Z0 F600
G1 X208.000 Y104.460 Z0 F600
G1 X209.000 Y104.460 Z0 F600
G1 X210.000 Y104.460 Z0 F600
G0 Z1.6
G0 X212.000 Y104.460 Z1.6
G1 X212.000 Y104.460 Z0 F600
G1 X213.000 Y104.460 Z0 F600
G1 X214.000 Y104.460 Z0 F600
G1 X215.000 Y104.460 Z0 F600
G1 X216.000 Y104.460 Z0 F600
G1 X217.000 Y104.460 Z0 F600
G1 X218.000 Y104.460 Z0 F600
G1 X219.000 Y104.460 Z0 F600
G1 X220.000 Y104.460 Z0 F600
G1 X221.000 Y104.460 Z0 F600
G0 Z1.6
G0 X247.000 Y104.460 Z1.6
G1 X247.000 Y104.460 Z0 F600
G1 X248.000 Y104.460 Z0 F600
G1 X249.000 Y104.460 Z0 F600
G0 Z1.6
G0 X267.000 Y104.460 Z1.6
G1 X267.000 Y104.460 Z0 F600
G1 X268.000 Y104.460 Z0 F600
G1 X269.000 Y104.460 Z0 F600
G1 X270.000 Y104.460 Z0 F600
G1 X271.000 Y104.460 Z0 F600
G0 Z1.6
G0 X288.000 Y104.460 Z1.6
G1 X288.000 Y104.460 Z0 F600
G1 X289.000 Y104.460 Z0 F600
G1 X290.000 Y104.460 Z0 F600
G1 X291.000 Y104.460 Z0 F600
G0 Z1.6
G0 X26.000 Y108.240 Z1.6
G1 X26.000 Y108.240 Z0 F600
G1 X27.000 Y108.240 Z0 F600
G1 X28.000 Y108.240 Z0 F600
G0 Z1.6
G0 X46.000 Y108.240 Z1.6
G1 X46.000 Y108.240 Z0 F600
G1 X47.000 Y108.240 Z0 F600
G1 X48.000 Y108.240 Z0 F600
G1 X49.000 Y108.240 Z0 F600
G1 X50.000 Y108.240 Z0 F600
G0 Z1.6
G0 X67.000 Y108.240 Z1.6
G1 X67.000 Y108.240 Z0 F600
G1 X68.000 Y108.240 Z0 F600
G1 X69.000 Y108.240 Z0 F600
G1 X70.000 Y108.240 Z0 F600
G1 X71.000 Y108.240 Z0 F600
G0 Z1.6
G0 X89.000 Y108.240 Z1.6
G1 X89.000 Y108.240 Z0 F600
G1 X90.000 Y108.240 Z0 F600
G0 Z1.6
G0 X109.000 Y108.240 Z1.6
G1 X109.000 Y108.240 Z0 F600
G1 X110.000 Y108.240 Z0 F600
G1 X111.000 Y108.240 Z0 F600
G1 X112.000 Y108.240 Z0 F600
G0 Z1.6
G0 X118.000 Y108.240 Z1.6
G1 X118.000 Y108.240 Z0 F600
G1 X119.000 Y108.240 Z0 F600
G1 X120.000 Y108.240 Z0 F600
G1 X121.000 Y108.240 Z0 F600
G1 X122.000 Y108.240 Z0 F600
G1 X123.000 Y108.240 Z0 F600
G1 X124.000 Y108.240 Z0 F600
G1 X125.000 Y108.240 Z0 F600
G0 Z1.6
G0 X139.000 Y108.240 Z1.6
G1 X139.000 Y108.240 Z0 F600
G1 X140.000 Y108.240 Z0 F600
G1 X141.000 Y108.240 Z0 F600
G1 X142.000 Y108.240 Z0 F600
G1 X143.000 Y108.240 Z0 F600
G1 X144.000 Y108.240 Z0 F600
G1 X145.000 Y108.240 Z0 F600
G1 X146.000 Y108.240 Z0 F600
G0 Z1.6
G0 X161.000 Y108.240 Z1.6
G1 X161.000 Y108.240 Z0 F600
G1 X162.000 Y108.240 Z0 F600
G1 X163.000 Y108.240 Z0 F600
G1 X164.000 Y108.240 Z0 F600
G1 X165.000 Y108.240 Z0 F600
G1 X166.000 Y108.240 Z0 F600
G0 Z1.6
G0 X182.000 Y108.240 Z1.6
G1 X182.000 Y108.240 Z0 F600
G1 X183.000 Y108.240 Z0 F600
G1 X184.000 Y108.240 Z0 F600
G1 X185.000 Y108.240 Z0 F600
G1 X186.000 Y108.240 Z0 F600
G0 Z1.6
G0 X193.000 Y108.240 Z1.6
G1 X193.000 Y108.240 Z0 F600
G1 X194.000 Y108.240 Z0 F600
G1 X195.000 Y108.240 Z0 F600
G1 X196.000 Y108.240 Z0 F600
G1 X197.000 Y108.240 Z0 F600
G1 X198.000 Y108.240 Z0 F600
G0 Z1.6
G0 X204.000 Y108.240 Z1.6
G1 X204.000 Y108.240 Z0 F600
G1 X205.000 Y108.240 Z0 F600
G1 X206.000 Y108.240 Z0 F600
G1 X207.000 Y108.240 Z0 F600
G0 Z1.6
G0 X211.000 Y108.240 Z1.6
G1 X211.000 Y108.240 Z0 F600
G1 X212.000 Y108.240 Z0 F600
G1 X213.000 Y108.240 Z0 F600
G1 X214.000 Y108.240 Z0 F600
G1 X215.000 Y108.240 Z0 F600
G1 X216.000 Y108.240 Z0 F600
G1 X217.000 Y108.240 Z0 F600
G1 X218.000 Y108.240 Z0 F600
G1 X219.000 Y108.240 Z0 F600
G1 X220.000 Y108.240 Z0 F600
G1 X221.000 Y108.240 Z0 F600
G0 Z1.6
G0 X235.000 Y108.240 Z1.6
G1 X235.000 Y108.240 Z0 F600
G1 X236.000 Y108.240 Z0 F600
G1 X237.000 Y108.240 Z0 F600
G1 X238.000 Y108.240 Z0 F600
G1 X239.000 Y108.240 Z0 F600
G0 Z1.6
G0 X257.000 Y108.240 Z1.6
G1 X257.000 Y108.240 Z0 F600
G1 X258.000 Y108.240 Z0 F600
G1 X259.000 Y108.240 Z0 F600
G0 Z1.6
G0 X289.000 Y108.240 Z1.6
G1 X289.000 Y108.240 Z0 F600
G1 X290.000 Y108.240 Z0 F600
G1 X291.000 Y108.240 Z0 F600
G0 Z1.6
G0 X16.000 Y112.020 Z1.6
G1 X16.000 Y112.020 Z0 F600
G1 X17.000 Y112.020 Z0 F600
G1 X18.000 Y112.020 Z0 F600
G0 Z1.6
G0 X35.000 Y112.020 Z1.6
G1 X35.000 Y112.020 Z0 F600
G1 X36.000 Y112.020 Z0 F600
G1 X37.000 Y112.020 Z0 F600
G1 X38.000 Y112.020 Z0 F600
G1 X39.000 Y112.020 Z0 F600
G0 Z1.6
G0 X57.000 Y112.020 Z1.6
G1 X57.000 Y112.020 Z0 F600
G1 X58.000 Y112.020 Z0 F600
G1 X59.000 Y112.020 Z0 F600
G0 Z1.6
G0 X89.000 Y112.020 Z1.6
G1 X89.000 Y112.020 Z0 F600
G1 X90.000 Y112.020 Z0 F600
G0 Z1.6
G0 X107.000 Y112.020 Z1.6
G1 X107.000 Y112.020 Z0 F600
G1 X108.000 Y112.020 Z0 F600
G1 X109.000 Y112.020 Z0 F600
G1 X110.000 Y112.020 Z0 F600
G1 X111.000 Y112.020 Z0 F600
G1 X112.000 Y112.020 Z0 F600
G1 X113.000 Y112.020 Z0 F600
G1 X114.000 Y112.020 Z0 F600
G0 Z1.6
G0 X128.000 Y112.020 Z1.6
G1 X128.000 Y112.020 Z0 F600
G1 X129.000 Y112.020 Z0 F600
G1 X130.000 Y112.020 Z0 F600
G1 X131.000 Y112.020 Z0 F600
G1 X132.000 Y112.020 Z0 F600
G1 X133.000 Y112.020 Z0 F600
G1 X134.000 Y112.020 Z0 F600
G1 X135.000 Y112.020 Z0 F600
G0 Z1.6
G0 X150.000 Y112.020 Z1.6
G1 X150.000 Y112.020 Z0 F600
G1 X151.000 Y112.020 Z0 F600
G1 X152.000 Y112.020 Z0 F600
G1 X153.000 Y112.020 Z0 F600
G1 X154.000 Y112.020 Z0 F600
G1 X155.000 Y112.020 Z0 F600
G0 Z1.6
G0 X163.000 Y112.020 Z1.6
G1 X163.000 Y112.020 Z0 F600
G1 X164.000 Y112.020 Z0 F600
G0 Z1.6
G0 X173.000 Y112.020 Z1.6
G1 X173.000 Y112.020 Z0 F600
G1 X174.000 Y112.020 Z0 F600
G0 Z1.6
G0 X182.000 Y112.020 Z1.6
G1 X182.000 Y112.020 Z0 F600
G1 X183.000 Y112.020 Z0 F600
G1 X184.000 Y112.020 Z0 F600
G1 X185.000 Y112.020 Z0 F600
G1 X186.000 Y112.020 Z0 F600
G1 X187.000 Y112.020 Z0 F600
G0 Z1.6
G0 X201.000 Y112.020 Z1.6
G1 X201.000 Y112.020 Z0 F600
G1 X202.000 Y112.020 Z0 F600
G1 X203.000 Y112.020 Z0 F600
G1 X204.000 Y112.020 Z0 F600
G1 X205.000 Y112.020 Z0 F600
G1 X206.000 Y112.020 Z0 F600
G1 X207.000 Y112.020 Z0 F600
G1 X208.000 Y112.020 Z0 F600
G1 X209.000 Y112.020 Z0 F600
G1 X210.000 Y112.020 Z0 F600
G0 Z1.6
G0 X225.000 Y112.020 Z1.6
G1 X225.000 Y112.020 Z0 F600
G1 X226.000 Y112.020 Z0 F600
G1 X227.000 Y112.020 Z0 F600
G1 X228.000 Y112.020 Z0 F600
G0 Z1.6
G0 X277.000 Y112.020 Z1.6
G1 X277.000 Y112.020 Z0 F600
G1 X278.000 Y112.020 Z0 F600
G1 X279.000 Y112.020 Z0 F600
G1 X280.000 Y112.020 Z0 F600
G1 X281.000 Y112.020 Z0 F600
G0 Z1.6
G0 X25.000 Y115.800 Z1.6
G1 X25.000 Y115.800 Z0 F600
G1 X26.000 Y115.800 Z0 F600
G1 X27.000 Y115.800 Z0 F600
G1 X28.000 Y115.800 Z0 F600
G0 Z1.6
G0 X57.000 Y115.800 Z1.6
G1 X57.000 Y115.800 Z0 F600
G1 X58.000 Y115.800 Z0 F600
G1 X59.000 Y115.800 Z0 F600
G0 Z1.6
G0 X77.000 Y115.800 Z1.6
G1 X77.000 Y115.800 Z0 F600
G1 X78.000 Y115.800 Z0 F600
G1 X79.000 Y115.800 Z0 F600
G1 X80.000 Y115.800 Z0 F600
G1 X81.000 Y115.800 Z0 F600
G0 Z1.6
G0 X98.000 Y115.800 Z1.6
G1 X98.000 Y115.800 Z0 F600
G1 X99.000 Y115.800 Z0 F600
G1 X100.000 Y115.800 Z0 F600
G1 X101.000 Y115.800 Z0 F600
G0 Z1.6
G0 X119.000 Y115.800 Z1.6
G1 X119.000 Y115.800 Z0 F600
G1 X120.000 Y115.800 Z0 F600
G1 X121.000 Y115.800 Z0 F600
G1 X122.000 Y115.800 Z0 F600
G1 X123.000 Y115.800 Z0 F600
G0 Z1.6
G0 X129.000 Y115.800 Z1.6
G1 X129.000 Y115.800 Z0 F600
G1 X130.000 Y115.800 Z0 F600
G1 X131.000 Y115.800 Z0 F600
G1 X132.000 Y115.800 Z0 F600
G1 X133.000 Y115.800 Z0 F600
G1 X134.000 Y115.800 Z0 F600
G0 Z1.6
G0 X150.000 Y115.800 Z1.6
G1 X150.000 Y115.800 Z0 F600
G1 X151.000 Y115.800 Z0 F600
G1 X152.000 Y115.800 Z0 F600
G1 X153.000 Y115.800 Z0 F600
G1 X154.000 Y115.800 Z0 F600
G1 X155.000 Y115.800 Z0 F600
G0 Z1.6
G0 X170.000 Y115.800 Z1.6
G1 X170.000 Y115.800 Z0 F600
G1 X171.000 Y115.800 Z0 F600
G1 X172.000 Y115.800 Z0 F600
G1 X173.000 Y115.800 Z0 F600
G1 X174.000 Y115.800 Z0 F600
G1 X175.000 Y115.800 Z0 F600
G1 X176.000 Y115.800 Z0 F600
G1 X177.000 Y115.800 Z0 F600
G0 Z1.6
G0 X191.000 Y115.800 Z1.6
G1 X191.000 Y115.800 Z0 F600
G1 X192.000 Y115.800 Z0 F600
G1 X193.000 Y115.800 Z0 F600
G1 X194.000 Y115.800 Z0 F600
; Dip needed
G0 X91 Y25 Z16
G1 Z3.2 F600
G4 P300
G0 X195.000 Y115.800 Z1.6 F1500
G1 X195.000 Y115.800 Z0 F600
G1 X196.000 Y115.800 Z0 F600
G1 X197.000 Y115.800 Z0 F600
G1 X198.000 Y115.800 Z0 F600
G0 Z1.6
G0 X204.000 Y115.800 Z1.6
G1 X204.000 Y115.800 Z0 F600
G1 X205.000 Y115.800 Z0 F600
G1 X206.000 Y115.800 Z0 F600
G1 X207.000 Y115.800 Z0 F600
G0 Z1.6
G0 X212.000 Y115.800 Z1.6
G1 X212.000 Y115.800 Z0 F600
G1 X213.000 Y115.800 Z0 F600
G1 X214.000 Y115.800 Z0 F600
G1 X215.000 Y115.800 Z0 F600
G1 X216.000 Y115.800 Z0 F600
G1 X217.000 Y115.800 Z0 F600
G1 X218.000 Y115.800 Z0 F600
G0 Z1.6
G0 X246.000 Y115.800 Z1.6
G1 X246.000 Y115.800 Z0 F600
G1 X247.000 Y115.800 Z0 F600
G1 X248.000 Y115.800 Z0 F600
G1 X249.000 Y115.800 Z0 F600
G0 Z1.6
G0 X266.000 Y115.800 Z1.6
G1 X266.000 Y115.800 Z0 F600
G1 X267.000 Y115.800 Z0 F600
G1 X268.000 Y115.800 Z0 F600
G1 X269.000 Y115.800 Z0 F600
G1 X270.000 Y115.800 Z0 F600
G0 Z1.6
G0 X289.000 Y115.800 Z1.6
G1 X289.000 Y115.800 Z0 F600
G1 X290.000 Y115.800 Z0 F600
G0 Z1.6
G0 X24.000 Y119.580 Z1.6
G1 X24.000 Y119.580 Z0 F600
G1 X25.000 Y119.580 Z0 F600
G1 X26.000 Y119.580 Z0 F600
G1 X27.000 Y119.580 Z0 F600
G1 X28.000 Y119.580 Z0 F600
G0 Z1.6
G0 X45.000 Y119.580 Z1.6
G1 X45.000 Y119.580 Z0 F600
G1 X46.000 Y119.580 Z0 F600
G1 X47.000 Y119.580 Z0 F600
G1 X48.000 Y119.580 Z0 F600
G1 X49.000 Y119.580 Z0 F600
G0 Z1.6
G0 X66.000 Y119.580 Z1.6
G1 X66.000 Y119.580 Z0 F600
G1 X67.000 Y119.580 Z0 F600
G1 X68.000 Y119.580 Z0 F600
G1 X69.000 Y119.580 Z0 F600
G1 X70.000 Y119.580 Z0 F600
G0 Z1.6
G0 X118.000 Y119.580 Z1.6
G1 X118.000 Y119.580 Z0 F600
G1 X119.000 Y119.580 Z0 F600
G1 X120.000 Y119.580 Z0 F600
G1 X121.000 Y119.580 Z0 F600
G1 X122.000 Y119.580 Z0 F600
G1 X123.000 Y119.580 Z0 F600
G0 Z1.6
G0 X138.000 Y119.580 Z1.6
G1 X138.000 Y119.580 Z0 F600
G1 X139.000 Y119.580 Z0 F600
G1 X140.000 Y119.580 Z0 F600
G1 X141.000 Y119.580 Z0 F600
G1 X142.000 Y119.580 Z0 F600
G1 X143.000 Y119.580 Z0 F600
G1 X144.000 Y119.580 Z0 F600
G1 X145.000 Y119.580 Z0 F600
G0 Z1.6
G0 X159.000 Y119.580 Z1.6
G1 X159.000 Y119.580 Z0 F600
G1 X160.000 Y119.580 Z0 F600
G1 X161.000 Y119.580 Z0 F600
G1 X162.000 Y119.580 Z0 F600
G1 X163.000 Y119.580 Z0 F600
G1 X164.000 Y119.580 Z0 F600
G1 X165.000 Y119.580 Z0 F600
G1 X166.000 Y119.580 Z0 F600
G0 Z1.6
G0 X172.000 Y119.580 Z1.6
G1 X172.000 Y119.580 Z0 F600
G1 X173.000 Y119.580 Z0 F600
G1 X174.000 Y119.580 Z0 F600
G1 X175.000 Y119.580 Z0 F600
G0 Z1.6
G0 X182.000 Y119.580 Z1.6
G1 X182.000 Y119.580 Z0 F600
G1 X183.000 Y119.580 Z0 F600
G1 X184.000 Y119.580 Z0 F600
G1 X185.000 Y119.580 Z0 F600
G0 Z1.6
G0 X191.000 Y119.580 Z1.6
G1 X191.000 Y119.580 Z0 F600
G1 X192.000 Y119.580 Z0 F600
G1 X193.000 Y119.580 Z0 F600
G1 X194.000 Y119.580 Z0 F600
G1 X195.000 Y119.580 Z0 F600
G1 X196.000 Y119.580 Z0 F600
G1 X197.000 Y119.580 Z0 F600
G1 X198.000 Y119.580 Z0 F600
G0 Z1.6
G0 X204.000 Y119.580 Z1.6
G1 X204.000 Y119.580 Z0 F600
G0 Z1.6
G0 X211.000 Y119.580 Z1.6
G1 X211.000 Y119.580 Z0 F600
G1 X212.000 Y119.580 Z0 F600
G1 X213.000 Y119.580 Z0 F600
G1 X214.000 Y119.580 Z0 F600
G1 X215.000 Y119.580 Z0 F600
G1 X216.000 Y119.580 Z0 F600
G1 X217.000 Y119.580 Z0 F600
G1 X218.000 Y119.580 Z0 F600
G1 X219.000 Y119.580 Z0 F600
G1 X220.000 Y119.580 Z0 F600
G0 Z1.6
G0 X235.000 Y119.580 Z1.6
G1 X235.000 Y119.580 Z0 F600
G1 X236.000 Y119.580 Z0 F600
G1 X237.000 Y119.580 Z0 F600
G1 X238.000 Y119.580 Z0 F600
G0 Z1.6
G0 X288.000 Y119.580 Z1.6
G1 X288.000 Y119.580 Z0 F600
G1 X289.000 Y119.580 Z0 F600
G1 X290.000 Y119.580 Z0 F600
G1 X291.000 Y119.580 Z0 F600
G0 Z1.6
G0 X16.000 Y123.360 Z1.6
G1 X16.000 Y123.360 Z0 F600
G1 X17.000 Y123.360 Z0 F600
G1 X18.000 Y123.360 Z0 F600
G0 Z1.6
G0 X34.000 Y123.360 Z1.6
G1 X34.000 Y123.360 Z0 F600
G1 X35.000 Y123.360 Z0 F600
G1 X36.000 Y123.360 Z0 F600
G1 X37.000 Y123.360 Z0 F600
G1 X38.000 Y123.360 Z0 F600
G0 Z1.6
G0 X57.000 Y123.360 Z1.6
G1 X57.000 Y123.360 Z0 F600
G0 Z1.6
G0 X87.000 Y123.360 Z1.6
G1 X87.000 Y123.360 Z0 F600
G1 X88.000 Y123.360 Z0 F600
G1 X89.000 Y123.360 Z0 F600
G1 X90.000 Y123.360 Z0 F600
G0 Z1.6
G0 X107.000 Y123.360 Z1.6
G1 X107.000 Y123.360 Z0 F600
G1 X108.000 Y123.360 Z0 F600
G1 X109.000 Y123.360 Z0 F600
G1 X110.000 Y123.360 Z0 F600
G1 X111.000 Y123.360 Z0 F600
G1 X112.000 Y123.360 Z0 F600
G0 Z1.6
G0 X127.000 Y123.360 Z1.6
G1 X127.000 Y123.360 Z0 F600
G1 X128.000 Y123.360 Z0 F600
G1 X129.000 Y123.360 Z0 F600
G1 X130.000 Y123.360 Z0 F600
G1 X131.000 Y123.360 Z0 F600
G1 X132.000 Y123.360 Z0 F600
G1 X133.000 Y123.360 Z0 F600
G1 X134.000 Y123.360 Z0 F600
G1 X135.000 Y123.360 Z0 F600
G0 Z1.6
G0 X149.000 Y123.360 Z1.6
G1 X149.000 Y123.360 Z0 F600
G1 X150.000 Y123.360 Z0 F600
G1 X151.000 Y123.360 Z0 F600
G1 X152.000 Y123.360 Z0 F600
G1 X153.000 Y123.360 Z0 F600
G1 X154.000 Y123.360 Z0 F600
G0 Z1.6
G0 X160.000 Y123.360 Z1.6
G1 X160.000 Y123.360 Z0 F600
G1 X161.000 Y123.360 Z0 F600
G1 X162.000 Y123.360 Z0 F600
G1 X163.000 Y123.360 Z0 F600
G1 X164.000 Y123.360 Z0 F600
G1 X165.000 Y123.360 Z0 F600
G0 Z1.6
G0 X172.000 Y123.360 Z1.6
G1 X172.000 Y123.360 Z0 F600
G1 X173.000 Y123.360 Z0 F600
G1 X174.000 Y123.360 Z0 F600
G0 Z1.6
G0 X180.000 Y123.360 Z1.6
G1 X180.000 Y123.360 Z0 F600
G1 X181.000 Y123.360 Z0 F600
G1 X182.000 Y123.360 Z0 F600
G1 X183.000 Y123.360 Z0 F600
G1 X184.000 Y123.360 Z0 F600
G1 X185.000 Y123.360 Z0 F600
G1 X186.000 Y123.360 Z0 F600
G1 X187.000 Y123.360 Z0 F600
G0 Z1.6
G0 X200.000 Y123.360 Z1.6
G1 X200.000 Y123.360 Z0 F600
G1 X201.000 Y123.360 Z0 F600
G1 X202.000 Y123.360 Z0 F600
G1 X203.000 Y123.360 Z0 F600
G1 X204.000 Y123.360 Z0 F600
G1 X205.000 Y123.360 Z0 F600
G1 X206.000 Y123.360 Z0 F600
G1 X207.000 Y123.360 Z0 F600
G1 X208.000 Y123.360 Z0 F600
G1 X209.000 Y123.360 Z0 F600
G0 Z1.6
G0 X222.000 Y123.360 Z1.6
G1 X222.000 Y123.360 Z0 F600
G1 X223.000 Y123.360 Z0 F600
G1 X224.000 Y123.360 Z0 F600
G1 X225.000 Y123.360 Z0 F600
G1 X226.000 Y123.360 Z0 F600
G1 X227.000 Y123.360 Z0 F600
G1 X228.000 Y123.360 Z0 F600
G1 X229.000 Y123.360 Z0 F600
G0 Z1.6
G0 X256.000 Y123.360 Z1.6
G1 X256.000 Y123.360 Z0 F600
G1 X257.000 Y123.360 Z0 F600
G1 X258.000 Y123.360 Z0 F600
G0 Z1.6
G0 X276.000 Y123.360 Z1.6
G1 X276.000 Y123.360 Z0 F600
G1 X277.000 Y123.360 Z0 F600
G1 X278.000 Y123.360 Z0 F600
G1 X279.000 Y123.360 Z0 F600
G1 X280.000 Y123.360 Z0 F600
G0 Z1.6
G0 X25.000 Y127.140 Z1.6
G1 X25.000 Y127.140 Z0 F600
G0 Z1.6
G0 X36.000 Y127.140 Z1.6
G1 X36.000 Y127.140 Z0 F600
G0 Z1.6
G0 X55.000 Y127.140 Z1.6
G1 X55.000 Y127.140 Z0 F600
G1 X56.000 Y127.140 Z0 F600
G1 X57.000 Y127.140 Z0 F600
G1 X58.000 Y127.140 Z0 F600
G1 X59.000 Y127.140 Z0 F600
G0 Z1.6
G0 X76.000 Y127.140 Z1.6
G1 X76.000 Y127.140 Z0 F600
G1 X77.000 Y127.140 Z0 F600
G1 X78.000 Y127.140 Z0 F600
G1 X79.000 Y127.140 Z0 F600
G1 X80.000 Y127.140 Z0 F600
G0 Z1.6
G0 X95.000 Y127.140 Z1.6
G1 X95.000 Y127.140 Z0 F600
G1 X96.000 Y127.140 Z0 F600
G1 X97.000 Y127.140 Z0 F600
G1 X98.000 Y127.140 Z0 F600
G1 X99.000 Y127.140 Z0 F600
G1 X100.000 Y127.140 Z0 F600
G1 X101.000 Y127.140 Z0 F600
G1 X102.000 Y127.140 Z0 F600
G1 X103.000 Y127.140 Z0 F600
G0 Z1.6
G0 X116.000 Y127.140 Z1.6
G1 X116.000 Y127.140 Z0 F600
G1 X117.000 Y127.140 Z0 F600
G1 X118.000 Y127.140 Z0 F600
G1 X119.000 Y127.140 Z0 F600
G1 X120.000 Y127.140 Z0 F600
G1 X121.000 Y127.140 Z0 F600
G1 X122.000 Y127.140 Z0 F600
G1 X123.000 Y127.140 Z0 F600
G0 Z1.6
G0 X127.000 Y127.140 Z1.6
G1 X127.000 Y127.140 Z0 F600
G1 X128.000 Y127.140 Z0 F600
G1 X129.000 Y127.140 Z0 F600
G1 X130.000 Y127.140 Z0 F600
G1 X131.000 Y127.140 Z0 F600
G1 X132.000 Y127.140 Z0 F600
G1 X133.000 Y127.140 Z0 F600
G1 X134.000 Y127.140 Z0 F600
G0 Z1.6
G0 X148.000 Y127.140 Z1.6
G1 X148.000 Y127.140 Z0 F600
G1 X149.000 Y127.140 Z0 F600
G1 X150.000 Y127.140 Z0 F600
G1 X151.000 Y127.140 Z0 F600
G1 X152.000 Y127.140 Z0 F600
G1 X153.000 Y127.140 Z0 F600
G1 X154.000 Y127.140 Z0 F600
G1 X155.000 Y127.140 Z0 F600
G0 Z1.6
G0 X169.000 Y127.140 Z1.6
G1 X169.000 Y127.140 Z0 F600
G1 X170.000 Y127.140 Z0 F600
G1 X171.000 Y127.140 Z0 F600
G1 X172.000 Y127.140 Z0 F600
G1 X173.000 Y127.140 Z0 F600
G1 X174.000 Y127.140 Z0 F600
G1 X175.000 Y127.140 Z0 F600
G1 X176.000 Y127.140 Z0 F600
G1 X177.000 Y127.140 Z0 F600
G0 Z1.6
G0 X190.000 Y127.140 Z1.6
G1 X190.000 Y127.140 Z0 F600
; Dip needed
G0 X91 Y25 Z16
G1 Z3.2 F600
G4 P300
G0 X191.000 Y127.140 Z1.6 F1500
G1 X191.000 Y127.140 Z0 F600
G1 X192.000 Y127.140 Z0 F600
G1 X193.000 Y127.140 Z0 F600
G1 X194.000 Y127.140 Z0 F600
G1 X195.000 Y127.140 Z0 F600
G1 X196.000 Y127.140 Z0 F600
G1 X197.000 Y127.140 Z0 F600
G0 Z1.6
G0 X201.000 Y127.140 Z1.6
G1 X201.000 Y127.140 Z0 F600
G1 X202.000 Y127.140 Z0 F600
G1 X203.000 Y127.140 Z0 F600
G1 X204.000 Y127.140 Z0 F600
G1 X205.000 Y127.140 Z0 F600
G1 X206.000 Y127.140 Z0 F600
G1 X207.000 Y127.140 Z0 F600
G1 X208.000 Y127.140 Z0 F600
G0 Z1.6
G0 X212.000 Y127.140 Z1.6
G1 X212.000 Y127.140 Z0 F600
G1 X213.000 Y127.140 Z0 F600
G1 X214.000 Y127.140 Z0 F600
G1 X215.000 Y127.140 Z0 F600
G1 X216.000 Y127.140 Z0 F600
G1 X217.000 Y127.140 Z0 F600
G0 Z1.6
G0 X222.000 Y127.140 Z1.6
G1 X222.000 Y127.140 Z0 F600
G1 X223.000 Y127.140 Z0 F600
G1 X224.000 Y127.140 Z0 F600
G1 X225.000 Y127.140 Z0 F600
G1 X226.000 Y127.140 Z0 F600
G1 X227.000 Y127.140 Z0 F600
G1 X228.000 Y127.140 Z0 F600
G1 X229.000 Y127.140 Z0 F600
G0 Z1.6
G0 X245.000 Y127.140 Z1.6
G1 X245.000 Y127.140 Z0 F600
G1 X246.000 Y127.140 Z0 F600
G1 X247.000 Y127.140 Z0 F600
G1 X248.000 Y127.140 Z0 F600
G0 Z1.6
G0 X266.000 Y127.140 Z1.6
G1 X266.000 Y127.140 Z0 F600
G1 X267.000 Y127.140 Z0 F600
G1 X268.000 Y127.140 Z0 F600
G1 X269.000 Y127.140 Z0 F600
G0 Z1.6
G0 X23.000 Y130.920 Z1.6
G1 X23.000 Y130.920 Z0 F600
G1 X24.000 Y130.920 Z0 F600
G1 X25.000 Y130.920 Z0 F600
G1 X26.000 Y130.920 Z0 F600
G1 X27.000 Y130.920 Z0 F600
G0 Z1.6
G0 X44.000 Y130.920 Z1.6
G1 X44.000 Y130.920 Z0 F600
G1 X45.000 Y130.920 Z0 F600
G1 X46.000 Y130.920 Z0 F600
G1 X47.000 Y130.920 Z0 F600
G1 X48.000 Y130.920 Z0 F600
G0 Z1.6
G0 X66.000 Y130.920 Z1.6
G1 X66.000 Y130.920 Z0 F600
G1 X67.000 Y130.920 Z0 F600
G1 X68.000 Y130.920 Z0 F600
G0 Z1.6
G0 X95.000 Y130.920 Z1.6
G1 X95.000 Y130.920 Z0 F600
G1 X96.000 Y130.920 Z0 F600
G1 X97.000 Y130.920 Z0 F600
G1 X98.000 Y130.920 Z0 F600
G1 X99.000 Y130.920 Z0 F600
G1 X100.000 Y130.920 Z0 F600
G1 X101.000 Y130.920 Z0 F600
G1 X102.000 Y130.920 Z0 F600
G1 X103.000 Y130.920 Z0 F600
G0 Z1.6
G0 X115.000 Y130.920 Z1.6
G1 X115.000 Y130.920 Z0 F600
G1 X116.000 Y130.920 Z0 F600
G1 X117.000 Y130.920 Z0 F600
G1 X118.000 Y130.920 Z0 F600
G1 X119.000 Y130.920 Z0 F600
G1 X120.000 Y130.920 Z0 F600
G1 X121.000 Y130.920 Z0 F600
G1 X122.000 Y130.920 Z0 F600
G1 X123.000 Y130.920 Z0 F600
G1 X124.000 Y130.920 Z0 F600
G0 Z1.6
G0 X137.000 Y130.920 Z1.6
G1 X137.000 Y130.920 Z0 F600
G1 X138.000 Y130.920 Z0 F600
G1 X139.000 Y130.920 Z0 F600
G1 X140.000 Y130.920 Z0 F600
G1 X141.000 Y130.920 Z0 F600
G1 X142.000 Y130.920 Z0 F600
G1 X143.000 Y130.920 Z0 F600
G1 X144.000 Y130.920 Z0 F600
G0 Z1.6
G0 X152.000 Y130.920 Z1.6
G1 X152.000 Y130.920 Z0 F600
G0 Z1.6
G0 X159.000 Y130.920 Z1.6
G1 X159.000 Y130.920 Z0 F600
G1 X160.000 Y130.920 Z0 F600
G1 X161.000 Y130.920 Z0 F600
G1 X162.000 Y130.920 Z0 F600
G1 X163.000 Y130.920 Z0 F600
G1 X164.000 Y130.920 Z0 F600
G0 Z1.6
G0 X169.000 Y130.920 Z1.6
G1 X169.000 Y130.920 Z0 F600
G1 X170.000 Y130.920 Z0 F600
G1 X171.000 Y130.920 Z0 F600
G1 X172.000 Y130.920 Z0 F600
G1 X173.000 Y130.920 Z0 F600
G1 X174.000 Y130.920 Z0 F600
G1 X175.000 Y130.920 Z0 F600
G1 X176.000 Y130.920 Z0 F600
G0 Z1.6
G0 X182.000 Y130.920 Z1.6
G1 X182.000 Y130.920 Z0 F600
G1 X183.000 Y130.920 Z0 F600
G0 Z1.6
G0 X190.000 Y130.920 Z1.6
G1 X190.000 Y130.920 Z0 F600
G1 X191.000 Y130.920 Z0 F600
G1 X192.000 Y130.920 Z0 F600
G1 X193.000 Y130.920 Z0 F600
G1 X194.000 Y130.920 Z0 F600
G1 X195.000 Y130.920 Z0 F600
G1 X196.000 Y130.920 Z0 F600
G1 X197.000 Y130.920 Z0 F600
G0 Z1.6
G0 X210.000 Y130.920 Z1.6
G1 X210.000 Y130.920 Z0 F600
G1 X211.000 Y130.920 Z0 F600
G1 X212.000 Y130.920 Z0 F600
G1 X213.000 Y130.920 Z0 F600
G1 X214.000 Y130.920 Z0 F600
G1 X215.000 Y130.920 Z0 F600
G1 X216.000 Y130.920 Z0 F600
G1 X217.000 Y130.920 Z0 F600
G1 X218.000 Y130.920 Z0 F600
G1 X219.000 Y130.920 Z0 F600
G0 Z1.6
G0 X234.000 Y130.920 Z1.6
G1 X234.000 Y130.920 Z0 F600
G1 X235.000 Y130.920 Z0 F600
G1 X236.000 Y130.920 Z0 F600
G1 X237.000 Y130.920 Z0 F600
G0 Z1.6
G0 X267.000 Y130.920 Z1.6
G1 X267.000 Y130.920 Z0 F600
G1 X268.000 Y130.920 Z0 F600
G0 Z1.6
G0 X287.000 Y130.920 Z1.6
G1 X287.000 Y130.920 Z0 F600
G1 X288.000 Y130.920 Z0 F600
G1 X289.000 Y130.920 Z0 F600
G1 X290.000 Y130.920 Z0 F600
G0 Z1.6
G0 X16.000 Y134.700 Z1.6
G1 X16.000 Y134.700 Z0 F600
G1 X17.000 Y134.700 Z0 F600
G0 Z1.6
G0 X33.000 Y134.700 Z1.6
G1 X33.000 Y134.700 Z0 F600
G1 X34.000 Y134.700 Z0 F600
G1 X35.000 Y134.700 Z0 F600
G1 X36.000 Y134.700 Z0 F600
G1 X37.000 Y134.700 Z0 F600
G0 Z1.6
G0 X66.000 Y134.700 Z1.6
G1 X66.000 Y134.700 Z0 F600
G1 X67.000 Y134.700 Z0 F600
G1 X68.000 Y134.700 Z0 F600
G0 Z1.6
G0 X86.000 Y134.700 Z1.6
G1 X86.000 Y134.700 Z0 F600
G1 X87.000 Y134.700 Z0 F600
G1 X88.000 Y134.700 Z0 F600
G1 X89.000 Y134.700 Z0 F600
G1 X90.000 Y134.700 Z0 F600
G0 Z1.6
G0 X106.000 Y134.700 Z1.6
G1 X106.000 Y134.700 Z0 F600
G1 X107.000 Y134.700 Z0 F600
G1 X108.000 Y134.700 Z0 F600
G1 X109.000 Y134.700 Z0 F600
G1 X110.000 Y134.700 Z0 F600
G1 X111.000 Y134.700 Z0 F600
G1 X112.000 Y134.700 Z0 F600
G0 Z1.6
G0 X118.000 Y134.700 Z1.6
G1 X118.000 Y134.700 Z0 F600
G1 X119.000 Y134.700 Z0 F600
G1 X120.000 Y134.700 Z0 F600
G1 X121.000 Y134.700 Z0 F600
G1 X122.000 Y134.700 Z0 F600
G0 Z1.6
G0 X126.000 Y134.700 Z1.6
G1 X126.000 Y134.700 Z0 F600
G1 X127.000 Y134.700 Z0 F600
G1 X128.000 Y134.700 Z0 F600
G1 X129.000 Y134.700 Z0 F600
G1 X130.000 Y134.700 Z0 F600
G1 X131.000 Y134.700 Z0 F600
G1 X132.000 Y134.700 Z0 F600
G1 X133.000 Y134.700 Z0 F600
G1 X134.000 Y134.700 Z0 F600
G0 Z1.6
G0 X138.000 Y134.700 Z1.6
G1 X138.000 Y134.700 Z0 F600
G1 X139.000 Y134.700 Z0 F600
G1 X140.000 Y134.700 Z0 F600
G1 X141.000 Y134.700 Z0 F600
G1 X142.000 Y134.700 Z0 F600
G1 X143.000 Y134.700 Z0 F600
G0 Z1.6
G0 X150.000 Y134.700 Z1.6
G1 X150.000 Y134.700 Z0 F600
G1 X151.000 Y134.700 Z0 F600
G1 X152.000 Y134.700 Z0 F600
G0 Z1.6
G0 X159.000 Y134.700 Z1.6
G1 X159.000 Y134.700 Z0 F600
G1 X160.000 Y134.700 Z0 F600
G1 X161.000 Y134.700 Z0 F600
G1 X162.000 Y134.700 Z0 F600
G1 X163.000 Y134.700 Z0 F600
G1 X164.000 Y134.700 Z0 F600
G1 X165.000 Y134.700 Z0 F600
G0 Z1.6
G0 X179.000 Y134.700 Z1.6
G1 X179.000 Y134.700 Z0 F600
G1 X180.000 Y134.700 Z0 F600
G1 X181.000 Y134.700 Z0 F600
G1 X182.000 Y134.700 Z0 F600
G1 X183.000 Y134.700 Z0 F600
G1 X184.000 Y134.700 Z0 F600
G1 X185.000 Y134.700 Z0 F600
G1 X186.000 Y134.700 Z0 F600
G0 Z1.6
G0 X200.000 Y134.700 Z1.6
G1 X200.000 Y134.700 Z0 F600
; Dip needed
G0 X91 Y25 Z16
G1 Z3.2 F600
G4 P300
G0 X201.000 Y134.700 Z1.6 F1500
G1 X201.000 Y134.700 Z0 F600
G1 X202.000 Y134.700 Z0 F600
G1 X203.000 Y134.700 Z0 F600
G1 X204.000 Y134.700 Z0 F600
G1 X205.000 Y134.700 Z0 F600
G1 X206.000 Y134.700 Z0 F600
G1 X207.000 Y134.700 Z0 F600
G0 Z1.6
G0 X212.000 Y134.700 Z1.6
G1 X212.000 Y134.700 Z0 F600
G1 X213.000 Y134.700 Z0 F600
G1 X214.000 Y134.700 Z0 F600
G1 X215.000 Y134.700 Z0 F600
G1 X216.000 Y134.700 Z0 F600
G1 X217.000 Y134.700 Z0 F600
G0 Z1.6
G0 X221.000 Y134.700 Z1.6
G1 X221.000 Y134.700 Z0 F600
G1 X222.000 Y134.700 Z0 F600
G1 X223.000 Y134.700 Z0 F600
G1 X224.000 Y134.700 Z0 F600
G1 X225.000 Y134.700 Z0 F600
G1 X226.000 Y134.700 Z0 F600
G1 X227.000 Y134.700 Z0 F600
G1 X228.000 Y134.700 Z0 F600
G0 Z1.6
G0 X235.000 Y134.700 Z1.6
G1 X235.000 Y134.700 Z0 F600
G0 Z1.6
G0 X255.000 Y134.700 Z1.6
G1 X255.000 Y134.700 Z0 F600
G1 X256.000 Y134.700 Z0 F600
G1 X257.000 Y134.700 Z0 F600
G1 X258.000 Y134.700 Z0 F600
G0 Z1.6
G0 X275.000 Y134.700 Z1.6
G1 X275.000 Y134.700 Z0 F600
G1 X276.000 Y134.700 Z0 F600
G1 X277.000 Y134.700 Z0 F600
G1 X278.000 Y134.700 Z0 F600
G1 X279.000 Y134.700 Z0 F600
G0 Z1.6
G0 X33.000 Y138.480 Z1.6
G1 X33.000 Y138.480 Z0 F600
G1 X34.000 Y138.480 Z0 F600
G1 X35.000 Y138.480 Z0 F600
G1 X36.000 Y138.480 Z0 F600
G1 X37.000 Y138.480 Z0 F600
G0 Z1.6
G0 X54.000 Y138.480 Z1.6
G1 X54.000 Y138.480 Z0 F600
G1 X55.000 Y138.480 Z0 F600
G1 X56.000 Y138.480 Z0 F600
G1 X57.000 Y138.480 Z0 F600
G1 X58.000 Y138.480 Z0 F600
G0 Z1.6
G0 X75.000 Y138.480 Z1.6
G1 X75.000 Y138.480 Z0 F600
G1 X76.000 Y138.480 Z0 F600
G1 X77.000 Y138.480 Z0 F600
G1 X78.000 Y138.480 Z0 F600
G1 X79.000 Y138.480 Z0 F600
G0 Z1.6
G0 X94.000 Y138.480 Z1.6
G1 X94.000 Y138.480 Z0 F600
G1 X95.000 Y138.480 Z0 F600
G1 X96.000 Y138.480 Z0 F600
G1 X97.000 Y138.480 Z0 F600
G1 X98.000 Y138.480 Z0 F600
G1 X99.000 Y138.480 Z0 F600
G1 X100.000 Y138.480 Z0 F600
G1 X101.000 Y138.480 Z0 F600
G1 X102.000 Y138.480 Z0 F600
G0 Z1.6
G0 X107.000 Y138.480 Z1.6
G1 X107.000 Y138.480 Z0 F600
G1 X108.000 Y138.480 Z0 F600
G1 X109.000 Y138.480 Z0 F600
G1 X110.000 Y138.480 Z0 F600
G1 X111.000 Y138.480 Z0 F600
G0 Z1.6
G0 X116.000 Y138.480 Z1.6
G1 X116.000 Y138.480 Z0 F600
G1 X117.000 Y138.480 Z0 F600
G1 X118.000 Y138.480 Z0 F600
G1 X119.000 Y138.480 Z0 F600
G1 X120.000 Y138.480 Z0 F600
G1 X121.000 Y138.480 Z0 F600
G1 X122.000 Y138.480 Z0 F600
G0 Z1.6
G0 X126.000 Y138.480 Z1.6
G1 X126.000 Y138.480 Z0 F600
G1 X127.000 Y138.480 Z0 F600
G1 X128.000 Y138.480 Z0 F600
G1 X129.000 Y138.480 Z0 F600
G1 X130.000 Y138.480 Z0 F600
G1 X131.000 Y138.480 Z0 F600
G1 X132.000 Y138.480 Z0 F600
G1 X133.000 Y138.480 Z0 F600
G1 X134.000 Y138.480 Z0 F600
G0 Z1.6
G0 X147.000 Y138.480 Z1.6
G1 X147.000 Y138.480 Z0 F600
G1 X148.000 Y138.480 Z0 F600
G1 X149.000 Y138.480 Z0 F600
G1 X150.000 Y138.480 Z0 F600
G1 X151.000 Y138.480 Z0 F600
G1 X152.000 Y138.480 Z0 F600
G1 X153.000 Y138.480 Z0 F600
G1 X154.000 Y138.480 Z0 F600
G1 X155.000 Y138.480 Z0 F600
G0 Z1.6
G0 X169.000 Y138.480 Z1.6
G1 X169.000 Y138.480 Z0 F600
G1 X170.000 Y138.480 Z0 F600
G1 X171.000 Y138.480 Z0 F600
G1 X172.000 Y138.480 Z0 F600
G1 X173.000 Y138.480 Z0 F600
G1 X174.000 Y138.480 Z0 F600
G1 X175.000 Y138.480 Z0 F600
G0 Z1.6
G0 X182.000 Y138.480 Z1.6
G1 X182.000 Y138.480 Z0 F600
G1 X183.000 Y138.480 Z0 F600
G0 Z1.6
G0 X191.000 Y138.480 Z1.6
G1 X191.000 Y138.480 Z0 F600
G1 X192.000 Y138.480 Z0 F600
G1 X193.000 Y138.480 Z0 F600
G1 X194.000 Y138.480 Z0 F600
G0 Z1.6
G0 X201.000 Y138.480 Z1.6
G1 X201.000 Y138.480 Z0 F600
G1 X202.000 Y138.480 Z0 F600
G1 X203.000 Y138.480 Z0 F600
G1 X204.000 Y138.480 Z0 F600
G1 X205.000 Y138.480 Z0 F600
G1 X206.000 Y138.480 Z0 F600
G1 X207.000 Y138.480 Z0 F600
G0 Z1.6
G0 X220.000 Y138.480 Z1.6
G1 X220.000 Y138.480 Z0 F600
G1 X221.000 Y138.480 Z0 F600
G1 X222.000 Y138.480 Z0 F600
G1 X223.000 Y138.480 Z0 F600
G1 X224.000 Y138.480 Z0 F600
G1 X225.000 Y138.480 Z0 F600
G1 X226.000 Y138.480 Z0 F600
G1 X227.000 Y138.480 Z0 F600
G1 X228.000 Y138.480 Z0 F600
G1 X229.000 Y138.480 Z0 F600
G0 Z1.6
G0 X244.000 Y138.480 Z1.6
G1 X244.000 Y138.480 Z0 F600
G1 X245.000 Y138.480 Z0 F600
G1 X246.000 Y138.480 Z0 F600
G1 X247.000 Y138.480 Z0 F600
G0 Z1.6
G0 X266.000 Y138.480 Z1.6
G1 X266.000 Y138.480 Z0 F600
G1 X267.000 Y138.480 Z0 F600
G0 Z1.6
G0 X22.000 Y142.260 Z1.6
G1 X22.000 Y142.260 Z0 F600
G1 X23.000 Y142.260 Z0 F600
G1 X24.000 Y142.260 Z0 F600
G1 X25.000 Y142.260 Z0 F600
G1 X26.000 Y142.260 Z0 F600
G1 X27.000 Y142.260 Z0 F600
G0 Z1.6
G0 X43.000 Y142.260 Z1.6
G1 X43.000 Y142.260 Z0 F600
G1 X44.000 Y142.260 Z0 F600
G1 X45.000 Y142.260 Z0 F600
G1 X46.000 Y142.260 Z0 F600
G1 X47.000 Y142.260 Z0 F600
G0 Z1.6
G0 X93.000 Y142.260 Z1.6
G1 X93.000 Y142.260 Z0 F600
G1 X94.000 Y142.260 Z0 F600
G1 X95.000 Y142.260 Z0 F600
G1 X96.000 Y142.260 Z0 F600
G1 X97.000 Y142.260 Z0 F600
G1 X98.000 Y142.260 Z0 F600
G1 X99.000 Y142.260 Z0 F600
G1 X100.000 Y142.260 Z0 F600
G1 X101.000 Y142.260 Z0 F600
G1 X102.000 Y142.260 Z0 F600
G0 Z1.6
G0 X114.000 Y142.260 Z1.6
G1 X114.000 Y142.260 Z0 F600
G1 X115.000 Y142.260 Z0 F600
G1 X116.000 Y142.260 Z0 F600
G1 X117.000 Y142.260 Z0 F600
G1 X118.000 Y142.260 Z0 F600
G1 X119.000 Y142.260 Z0 F600
G1 X120.000 Y142.260 Z0 F600
G1 X121.000 Y142.260 Z0 F600
G1 X122.000 Y142.260 Z0 F600
G1 X123.000 Y142.260 Z0 F600
G1 X124.000 Y142.260 Z0 F600
G0 Z1.6
G0 X129.000 Y142.260 Z1.6
G1 X129.000 Y142.260 Z0 F600
G1 X130.000 Y142.260 Z0 F600
G0 Z1.6
G0 X136.000 Y142.260 Z1.6
G1 X136.000 Y142.260 Z0 F600
G1 X137.000 Y142.260 Z0 F600
G1 X138.000 Y142.260 Z0 F600
G1 X139.000 Y142.260 Z0 F600
G1 X140.000 Y142.260 Z0 F600
G1 X141.000 Y142.260 Z0 F600
G1 X142.000 Y142.260 Z0 F600
G1 X143.000 Y142.260 Z0 F600
G1 X144.000 Y142.260 Z0 F600
G0 Z1.6
G0 X149.000 Y142.260 Z1.6
G1 X149.000 Y142.260 Z0 F600
G1 X150.000 Y142.260 Z0 F600
G1 X151.000 Y142.260 Z0 F600
G1 X152.000 Y142.260 Z0 F600
G1 X153.000 Y142.260 Z0 F600
G0 Z1.6
G0 X158.000 Y142.260 Z1.6
G1 X158.000 Y142.260 Z0 F600
G1 X159.000 Y142.260 Z0 F600
G1 X160.000 Y142.260 Z0 F600
G1 X161.000 Y142.260 Z0 F600
G1 X162.000 Y142.260 Z0 F600
G1 X163.000 Y142.260 Z0 F600
G1 X164.000 Y142.260 Z0 F600
G0 Z1.6
G0 X169.000 Y142.260 Z1.6
G1 X169.000 Y142.260 Z0 F600
G1 X170.000 Y142.260 Z0 F600
G1 X171.000 Y142.260 Z0 F600
G1 X172.000 Y142.260 Z0 F600
G1 X173.000 Y142.260 Z0 F600
G1 X174.000 Y142.260 Z0 F600
G0 Z1.6
G0 X181.000 Y142.260 Z1.6
G1 X181.000 Y142.260 Z0 F600
G1 X182.000 Y142.260 Z0 F600
G1 X183.000 Y142.260 Z0 F600
G0 Z1.6
G0 X190.000 Y142.260 Z1.6
G1 X190.000 Y142.260 Z0 F600
G1 X191.000 Y142.260 Z0 F600
G1 X192.000 Y142.260 Z0 F600
G1 X193.000 Y142.260 Z0 F600
G1 X194.000 Y142.260 Z0 F600
G1 X195.000 Y142.260 Z0 F600
G1 X196.000 Y142.260 Z0 F600
G0 Z1.6
G0 X210.000 Y142.260 Z1.6
G1 X210.000 Y142.260 Z0 F600
G1 X211.000 Y142.260 Z0 F600
G1 X212.000 Y142.260 Z0 F600
G1 X213.000 Y142.260 Z0 F600
G1 X214.000 Y142.260 Z0 F600
G1 X215.000 Y142.260 Z0 F600
G1 X216.000 Y142.260 Z0 F600
G1 X217.000 Y142.260 Z0 F600
G0 Z1.6
G0 X222.000 Y142.260 Z1.6
G1 X222.000 Y142.260 Z0 F600
G1 X223.000 Y142.260 Z0 F600
G1 X224.000 Y142.260 Z0 F600
G1 X225.000 Y142.260 Z0 F600
G1 X226.000 Y142.260 Z0 F600
G1 X227.000 Y142.260 Z0 F600
G0 Z1.6
G0 X231.000 Y142.260 Z1.6
G1 X231.000 Y142.260 Z0 F600
G1 X232.000 Y142.260 Z0 F600
G1 X233.000 Y142.260 Z0 F600
G1 X234.000 Y142.260 Z0 F600
G1 X235.000 Y142.260 Z0 F600
G1 X236.000 Y142.260 Z0 F600
G1 X237.000 Y142.260 Z0 F600
G1 X238.000 Y142.260 Z0 F600
G0 Z1.6
G0 X265.000 Y142.260 Z1.6
G1 X265.000 Y142.260 Z0 F600
G1 X266.000 Y142.260 Z0 F600
G1 X267.000 Y142.260 Z0 F600
G1 X268.000 Y142.260 Z0 F600
G0 Z1.6
G0 X285.000 Y142.260 Z1.6
G1 X285.000 Y142.260 Z0 F600
G1 X286.000 Y142.260 Z0 F600
G1 X287.000 Y142.260 Z0 F600
G1 X288.000 Y142.260 Z0 F600
G1 X289.000 Y142.260 Z0 F600
G0 Z1.6
G0 X64.000 Y146.040 Z1.6
G1 X64.000 Y146.040 Z0 F600
G1 X65.000 Y146.040 Z0 F600
G1 X66.000 Y146.040 Z0 F600
G1 X67.000 Y146.040 Z0 F600
G1 X68.000 Y146.040 Z0 F600
G0 Z1.6
G0 X83.000 Y146.040 Z1.6
G1 X83.000 Y146.040 Z0 F600
G1 X84.000 Y146.040 Z0 F600
G1 X85.000 Y146.040 Z0 F600
G1 X86.000 Y146.040 Z0 F600
G1 X87.000 Y146.040 Z0 F600
G1 X88.000 Y146.040 Z0 F600
G1 X89.000 Y146.040 Z0 F600
G1 X90.000 Y146.040 Z0 F600
G1 X91.000 Y146.040 Z0 F600
G0 Z1.6
G0 X97.000 Y146.040 Z1.6
G1 X97.000 Y146.040 Z0 F600
G1 X98.000 Y146.040 Z0 F600
G1 X99.000 Y146.040 Z0 F600
G0 Z1.6
G0 X104.000 Y146.040 Z1.6
G1 X104.000 Y146.040 Z0 F600
G1 X105.000 Y146.040 Z0 F600
; Dip needed
G0 X91 Y25 Z16
G1 Z3.2 F600
G4 P300
G0 X106.000 Y146.040 Z1.6 F1500
G1 X106.000 Y146.040 Z0 F600
G1 X107.000 Y146.040 Z0 F600
G1 X108.000 Y146.040 Z0 F600
G1 X109.000 Y146.040 Z0 F600
G1 X110.000 Y146.040 Z0 F600
G1 X111.000 Y146.040 Z0 F600
G1 X112.000 Y146.040 Z0 F600
G0 Z1.6
G0 X116.000 Y146.040 Z1.6
G1 X116.000 Y146.040 Z0 F600
G1 X117.000 Y146.040 Z0 F600
G1 X118.000 Y146.040 Z0 F600
G1 X119.000 Y146.040 Z0 F600
G1 X120.000 Y146.040 Z0 F600
G1 X121.000 Y146.040 Z0 F600
G1 X122.000 Y146.040 Z0 F600
G1 X123.000 Y146.040 Z0 F600
G0 Z1.6
G0 X125.000 Y146.040 Z1.6
G1 X125.000 Y146.040 Z0 F600
G1 X126.000 Y146.040 Z0 F600
G1 X127.000 Y146.040 Z0 F600
G1 X128.000 Y146.040 Z0 F600
G1 X129.000 Y146.040 Z0 F600
G1 X130.000 Y146.040 Z0 F600
G1 X131.000 Y146.040 Z0 F600
G1 X132.000 Y146.040 Z0 F600
G1 X133.000 Y146.040 Z0 F600
G0 Z1.6
G0 X136.000 Y146.040 Z1.6
G1 X136.000 Y146.040 Z0 F600
G1 X137.000 Y146.040 Z0 F600
G1 X138.000 Y146.040 Z0 F600
G1 X139.000 Y146.040 Z0 F600
G1 X140.000 Y146.040 Z0 F600
G1 X141.000 Y146.040 Z0 F600
G1 X142.000 Y146.040 Z0 F600
G1 X143.000 Y146.040 Z0 F600
G1 X144.000 Y146.040 Z0 F600
G0 Z1.6
G0 X147.000 Y146.040 Z1.6
G1 X147.000 Y146.040 Z0 F600
G1 X148.000 Y146.040 Z0 F600
G1 X149.000 Y146.040 Z0 F600
G1 X150.000 Y146.040 Z0 F600
G1 X151.000 Y146.040 Z0 F600
G1 X152.000 Y146.040 Z0 F600
G1 X153.000 Y146.040 Z0 F600
G0 Z1.6
G0 X156.000 Y146.040 Z1.6
G1 X156.000 Y146.040 Z0 F600
G1 X157.000 Y146.040 Z0 F600
G1 X158.000 Y146.040 Z0 F600
G1 X159.000 Y146.040 Z0 F600
G1 X160.000 Y146.040 Z0 F600
G1 X161.000 Y146.040 Z0 F600
G1 X162.000 Y146.040 Z0 F600
G1 X163.000 Y146.040 Z0 F600
G1 X164.000 Y146.040 Z0 F600
G1 X165.000 Y146.040 Z0 F600
G0 Z1.6
G0 X177.000 Y146.040 Z1.6
G1 X177.000 Y146.040 Z0 F600
G1 X178.000 Y146.040 Z0 F600
G1 X179.000 Y146.040 Z0 F600
G1 X180.000 Y146.040 Z0 F600
G1 X181.000 Y146.040 Z0 F600
G1 X182.000 Y146.040 Z0 F600
G1 X183.000 Y146.040 Z0 F600
G1 X184.000 Y146.040 Z0 F600
G1 X185.000 Y146.040 Z0 F600
G1 X186.000 Y146.040 Z0 F600
G0 Z1.6
G0 X199.000 Y146.040 Z1.6
G1 X199.000 Y146.040 Z0 F600
G1 X200.000 Y146.040 Z0 F600
G1 X201.000 Y146.040 Z0 F600
G1 X202.000 Y146.040 Z0 F600
G1 X203.000 Y146.040 Z0 F600
G1 X204.000 Y146.040 Z0 F600
G1 X205.000 Y146.040 Z0 F600
G1 X206.000 Y146.040 Z0 F600
G1 X207.000 Y146.040 Z0 F600
G0 Z1.6
G0 X211.000 Y146.040 Z1.6
G1 X211.000 Y146.040 Z0 F600
G1 X212.000 Y146.040 Z0 F600
G1 X213.000 Y146.040 Z0 F600
G1 X214.000 Y146.040 Z0 F600
G1 X215.000 Y146.040 Z0 F600
G1 X216.000 Y146.040 Z0 F600
G1 X217.000 Y146.040 Z0 F600
G0 Z1.6
G0 X221.000 Y146.040 Z1.6
G1 X221.000 Y146.040 Z0 F600
G1 X222.000 Y146.040 Z0 F600
G1 X223.000 Y146.040 Z0 F600
G1 X224.000 Y146.040 Z0 F600
G1 X225.000 Y146.040 Z0 F600
G1 X226.000 Y146.040 Z0 F600
G0 Z1.6
G0 X230.000 Y146.040 Z1.6
G1 X230.000 Y146.040 Z0 F600
G1 X231.000 Y146.040 Z0 F600
G1 X232.000 Y146.040 Z0 F600
G1 X233.000 Y146.040 Z0 F600
G1 X234.000 Y146.040 Z0 F600
G1 X235.000 Y146.040 Z0 F600
G1 X236.000 Y146.040 Z0 F600
G1 X237.000 Y146.040 Z0 F600
G1 X238.000 Y146.040 Z0 F600
G1 X239.000 Y146.040 Z0 F600
G0 Z1.6
G0 X254.000 Y146.040 Z1.6
G1 X254.000 Y146.040 Z0 F600
G1 X255.000 Y146.040 Z0 F600
G1 X256.000 Y146.040 Z0 F600
G1 X257.000 Y146.040 Z0 F600
G0 Z1.6
G0 X275.000 Y146.040 Z1.6
G1 X275.000 Y146.040 Z0 F600
G1 X276.000 Y146.040 Z0 F600
G1 X277.000 Y146.040 Z0 F600
G1 X278.000 Y146.040 Z0 F600
G0 Z1.6
G0 X22.000 Y149.820 Z1.6
G1 X22.000 Y149.820 Z0 F600
G1 X23.000 Y149.820 Z0 F600
G1 X24.000 Y149.820 Z0 F600
G1 X25.000 Y149.820 Z0 F600
G0 Z1.6
G0 X32.000 Y149.820 Z1.6
G1 X32.000 Y149.820 Z0 F600
G1 X33.000 Y149.820 Z0 F600
G1 X34.000 Y149.820 Z0 F600
G1 X35.000 Y149.820 Z0 F600
G1 X36.000 Y149.820 Z0 F600
G0 Z1.6
G0 X53.000 Y149.820 Z1.6
G1 X53.000 Y149.820 Z0 F600
G1 X54.000 Y149.820 Z0 F600
G1 X55.000 Y149.820 Z0 F600
G1 X56.000 Y149.820 Z0 F600
G1 X57.000 Y149.820 Z0 F600
G0 Z1.6
G0 X75.000 Y149.820 Z1.6
G1 X75.000 Y149.820 Z0 F600
G1 X76.000 Y149.820 Z0 F600
G1 X77.000 Y149.820 Z0 F600
G1 X78.000 Y149.820 Z0 F600
G0 Z1.6
G0 X86.000 Y149.820 Z1.6
G1 X86.000 Y149.820 Z0 F600
G1 X87.000 Y149.820 Z0 F600
G1 X88.000 Y149.820 Z0 F600
G1 X89.000 Y149.820 Z0 F600
G0 Z1.6
G0 X93.000 Y149.820 Z1.6
G1 X93.000 Y149.820 Z0 F600
G1 X94.000 Y149.820 Z0 F600
G1 X95.000 Y149.820 Z0 F600
G1 X96.000 Y149.820 Z0 F600
G1 X97.000 Y149.820 Z0 F600
G1 X98.000 Y149.820 Z0 F600
G1 X99.000 Y149.820 Z0 F600
G1 X100.000 Y149.820 Z0 F600
G1 X101.000 Y149.820 Z0 F600
G1 X102.000 Y149.820 Z0 F600
G0 Z1.6
G0 X104.000 Y149.820 Z1.6
G1 X104.000 Y149.820 Z0 F600
G1 X105.000 Y149.820 Z0 F600
G1 X106.000 Y149.820 Z0 F600
G1 X107.000 Y149.820 Z0 F600
G1 X108.000 Y149.820 Z0 F600
G1 X109.000 Y149.820 Z0 F600
G1 X110.000 Y149.820 Z0 F600
G1 X111.000 Y149.820 Z0 F600
G1 X112.000 Y149.820 Z0 F600
G1 X113.000 Y149.820 Z0 F600
G1 X114.000 Y149.820 Z0 F600
G1 X115.000 Y149.820 Z0 F600
G1 X116.000 Y149.820 Z0 F600
G1 X117.000 Y149.820 Z0 F600
G1 X118.000 Y149.820 Z0 F600
G1 X119.000 Y149.820 Z0 F600
G1 X120.000 Y149.820 Z0 F600
G1 X121.000 Y149.820 Z0 F600
G1 X122.000 Y149.820 Z0 F600
G1 X123.000 Y149.820 Z0 F600
G1 X124.000 Y149.820 Z0 F600
G1 X125.000 Y149.820 Z0 F600
G1 X126.000 Y149.820 Z0 F600
G1 X127.000 Y149.820 Z0 F600
G1 X128.000 Y149.820 Z0 F600
G1 X129.000 Y149.820 Z0 F600
G1 X130.000 Y149.820 Z0 F600
G1 X131.000 Y149.820 Z0 F600
G1 X132.000 Y149.820 Z0 F600
G1 X133.000 Y149.820 Z0 F600
G1 X134.000 Y149.820 Z0 F600
G0 Z1.6
G0 X137.000 Y149.820 Z1.6
G1 X137.000 Y149.820 Z0 F600
G1 X138.000 Y149.820 Z0 F600
G1 X139.000 Y149.820 Z0 F600
G1 X140.000 Y149.820 Z0 F600
; Dip needed
G0 X91 Y25 Z16
G1 Z3.2 F600
G4 P300
G0 X141.000 Y149.820 Z1.6 F1500
G1 X141.000 Y149.820 Z0 F600
G0 Z1.6
G0 X145.000 Y149.820 Z1.6
G1 X145.000 Y149.820 Z0 F600
G1 X146.000 Y149.820 Z0 F600
G1 X147.000 Y149.820 Z0 F600
G1 X148.000 Y149.820 Z0 F600
G1 X149.000 Y149.820 Z0 F600
G1 X150.000 Y149.820 Z0 F600
G1 X151.000 Y149.820 Z0 F600
G1 X152.000 Y149.820 Z0 F600
G1 X153.000 Y149.820 Z0 F600
G1 X154.000 Y149.820 Z0 F600
G1 X155.000 Y149.820 Z0 F600
G0 Z1.6
G0 X159.000 Y149.820 Z1.6
G1 X159.000 Y149.820 Z0 F600
G1 X160.000 Y149.820 Z0 F600
G1 X161.000 Y149.820 Z0 F600
G1 X162.000 Y149.820 Z0 F600
G0 Z1.6
G0 X166.000 Y149.820 Z1.6
G1 X166.000 Y149.820 Z0 F600
G1 X167.000 Y149.820 Z0 F600
G1 X168.000 Y149.820 Z0 F600
G1 X169.000 Y149.820 Z0 F600
G1 X170.000 Y149.820 Z0 F600
G1 X171.000 Y149.820 Z0 F600
G1 X172.000 Y149.820 Z0 F600
G1 X173.000 Y149.820 Z0 F600
G1 X174.000 Y149.820 Z0 F600
G1 X175.000 Y149.820 Z0 F600
G1 X176.000 Y149.820 Z0 F600
G0 Z1.6
G0 X178.000 Y149.820 Z1.6
G1 X178.000 Y149.820 Z0 F600
G1 X179.000 Y149.820 Z0 F600
G1 X180.000 Y149.820 Z0 F600
G1 X181.000 Y149.820 Z0 F600
G1 X182.000 Y149.820 Z0 F600
G1 X183.000 Y149.820 Z0 F600
G1 X184.000 Y149.820 Z0 F600
G1 X185.000 Y149.820 Z0 F600
G0 Z1.6
G0 X189.000 Y149.820 Z1.6
G1 X189.000 Y149.820 Z0 F600
G1 X190.000 Y149.820 Z0 F600
G1 X191.000 Y149.820 Z0 F600
G1 X192.000 Y149.820 Z0 F600
G1 X193.000 Y149.820 Z0 F600
G1 X194.000 Y149.820 Z0 F600
G1 X195.000 Y149.820 Z0 F600
G0 Z1.6
G0 X199.000 Y149.820 Z1.6
G1 X199.000 Y149.820 Z0 F600
G1 X200.000 Y149.820 Z0 F600
G1 X201.000 Y149.820 Z0 F600
G1 X202.000 Y149.820 Z0 F600
G1 X203.000 Y149.820 Z0 F600
G1 X204.000 Y149.820 Z0 F600
G1 X205.000 Y149.820 Z0 F600
G1 X206.000 Y149.820 Z0 F600
G1 X207.000 Y149.820 Z0 F600
G0 Z1.6
G0 X219.000 Y149.820 Z1.6
G1 X219.000 Y149.820 Z0 F600
G1 X220.000 Y149.820 Z0 F600
G1 X221.000 Y149.820 Z0 F600
G1 X222.000 Y149.820 Z0 F600
G1 X223.000 Y149.820 Z0 F600
G1 X224.000 Y149.820 Z0 F600
G1 X225.000 Y149.820 Z0 F600
G1 X226.000 Y149.820 Z0 F600
G1 X227.000 Y149.820 Z0 F600
G1 X228.000 Y149.820 Z0 F600
G0 Z1.6
G0 X243.000 Y149.820 Z1.6
G1 X243.000 Y149.820 Z0 F600
G1 X244.000 Y149.820 Z0 F600
G1 X245.000 Y149.820 Z0 F600
G1 X246.000 Y149.820 Z0 F600
G0 Z1.6
G0 X295.000 Y149.820 Z1.6
G1 X295.000 Y149.820 Z0 F600
G0 X19.000 Y153.600 Z1.6
G1 X19.000 Y153.600 Z0 F600
G1 X20.000 Y153.600 Z0 F600
G1 X21.000 Y153.600 Z0 F600
G1 X22.000 Y153.600 Z0 F600
G1 X23.000 Y153.600 Z0 F600
G1 X24.000 Y153.600 Z0 F600
G1 X25.000 Y153.600 Z0 F600
G1 X26.000 Y153.600 Z0 F600
G1 X27.000 Y153.600 Z0 F600
G1 X28.000 Y153.600 Z0 F600
G0 Z1.6
G0 X43.000 Y153.600 Z1.6
G1 X43.000 Y153.600 Z0 F600
G1 X44.000 Y153.600 Z0 F600
G1 X45.000 Y153.600 Z0 F600
G1 X46.000 Y153.600 Z0 F600
G0 Z1.6
G0 X75.000 Y153.600 Z1.6
G1 X75.000 Y153.600 Z0 F600
G1 X76.000 Y153.600 Z0 F600
G1 X77.000 Y153.600 Z0 F600
G0 Z1.6
G0 X85.000 Y153.600 Z1.6
G1 X85.000 Y153.600 Z0 F600
G1 X86.000 Y153.600 Z0 F600
G1 X87.000 Y153.600 Z0 F600
G1 X88.000 Y153.600 Z0 F600
G0 Z1.6
G0 X92.000 Y153.600 Z1.6
G1 X92.000 Y153.600 Z0 F600
G1 X93.000 Y153.600 Z0 F600
G1 X94.000 Y153.600 Z0 F600
G1 X95.000 Y153.600 Z0 F600
G1 X96.000 Y153.600 Z0 F600
G1 X97.000 Y153.600 Z0 F600
G1 X98.000 Y153.600 Z0 F600
G1 X99.000 Y153.600 Z0 F600
G1 X100.000 Y153.600 Z0 F600
G1 X101.000 Y153.600 Z0 F600
G1 X102.000 Y153.600 Z0 F600
G0 Z1.6
G0 X112.000 Y153.600 Z1.6
G1 X112.000 Y153.600 Z0 F600
G1 X113.000 Y153.600 Z0 F600
G1 X114.000 Y153.600 Z0 F600
G1 X115.000 Y153.600 Z0 F600
G1 X116.000 Y153.600 Z0 F600
G1 X117.000 Y153.600 Z0 F600
G1 X118.000 Y153.600 Z0 F600
G1 X119.000 Y153.600 Z0 F600
G1 X120.000 Y153.600 Z0 F600
G1 X121.000 Y153.600 Z0 F600
G1 X122.000 Y153.600 Z0 F600
G1 X123.000 Y153.600 Z0 F600
G1 X124.000 Y153.600 Z0 F600
G1 X125.000 Y153.600 Z0 F600
G1 X126.000 Y153.600 Z0 F600
G1 X127.000 Y153.600 Z0 F600
G1 X128.000 Y153.600 Z0 F600
G1 X129.000 Y153.600 Z0 F600
G1 X130.000 Y153.600 Z0 F600
G1 X131.000 Y153.600 Z0 F600
G1 X132.000 Y153.600 Z0 F600
G1 X133.000 Y153.600 Z0 F600
G1 X134.000 Y153.600 Z0 F600
G1 X135.000 Y153.600 Z0 F600
G1 X136.000 Y153.600 Z0 F600
G1 X137.000 Y153.600 Z0 F600
G1 X138.000 Y153.600 Z0 F600
G1 X139.000 Y153.600 Z0 F600
G1 X140.000 Y153.600 Z0 F600
G1 X141.000 Y153.600 Z0 F600
G1 X142.000 Y153.600 Z0 F600
G1 X143.000 Y153.600 Z0 F600
G1 X144.000 Y153.600 Z0 F600
G1 X145.000 Y153.600 Z0 F600
G1 X146.000 Y153.600 Z0 F600
G1 X147.000 Y153.600 Z0 F600
G1 X148.000 Y153.600 Z0 F600
G1 X149.000 Y153.600 Z0 F600
G1 X150.000 Y153.600 Z0 F600
G1 X151.000 Y153.600 Z0 F600
G1 X152.000 Y153.600 Z0 F600
G1 X153.000 Y153.600 Z0 F600
G1 X154.000 Y153.600 Z0 F600
G1 X155.000 Y153.600 Z0 F600
G1 X156.000 Y153.600 Z0 F600
G1 X157.000 Y153.600 Z0 F600
G1 X158.000 Y153.600 Z0 F600
G1 X159.000 Y153.600 Z0 F600
G1 X160.000 Y153.600 Z0 F600
G1 X161.000 Y153.600 Z0 F600
G1 X162.000 Y153.600 Z0 F600
G1 X163.000 Y153.600 Z0 F600
G1 X164.000 Y153.600 Z0 F600
G1 X165.000 Y153.600 Z0 F600
G1 X166.000 Y153.600 Z0 F600
G1 X167.000 Y153.600 Z0 F600
G1 X168.000 Y153.600 Z0 F600
G1 X169.000 Y153.600 Z0 F600
G1 X170.000 Y153.600 Z0 F600
G1 X171.000 Y153.600 Z0 F600
G1 X172.000 Y153.600 Z0 F600
G1 X173.000 Y153.600 Z0 F600
G1 X174.000 Y153.600 Z0 F600
G1 X175.000 Y153.600 Z0 F600
G1 X176.000 Y153.600 Z0 F600
G0 Z1.6
G0 X180.000 Y153.600 Z1.6
G1 X180.000 Y153.600 Z0 F600
G1 X181.000 Y153.600 Z0 F600
G1 X182.000 Y153.600 Z0 F600
G0 Z1.6
G0 X187.000 Y153.600 Z1.6
G1 X187.000 Y153.600 Z0 F600
G1 X188.000 Y153.600 Z0 F600
G1 X189.000 Y153.600 Z0 F600
G1 X190.000 Y153.600 Z0 F600
G1 X191.000 Y153.600 Z0 F600
G1 X192.000 Y153.600 Z0 F600
G1 X193.000 Y153.600 Z0 F600
G1 X194.000 Y153.600 Z0 F600
G1 X195.000 Y153.600 Z0 F600
G1 X196.000 Y153.600 Z0 F600
G0 Z1.6
G0 X208.000 Y153.600 Z1.6
G1 X208.000 Y153.600 Z0 F600
G1 X209.000 Y153.600 Z0 F600
G1 X210.000 Y153.600 Z0 F600
G1 X211.000 Y153.600 Z0 F600
G1 X212.000 Y153.600 Z0 F600
G1 X213.000 Y153.600 Z0 F600
G1 X214.000 Y153.600 Z0 F600
G1 X215.000 Y153.600 Z0 F600
G1 X216.000 Y153.600 Z0 F600
G1 X217.000 Y153.600 Z0 F600
G0 Z1.6
G0 X221.000 Y153.600 Z1.6
G1 X221.000 Y153.600 Z0 F600
G1 X222.000 Y153.600 Z0 F600
G1 X223.000 Y153.600 Z0 F600
G1 X224.000 Y153.600 Z0 F600
G1 X225.000 Y153.600 Z0 F600
G1 X226.000 Y153.600 Z0 F600
G0 Z1.6
G0 X230.000 Y153.600 Z1.6
G1 X230.000 Y153.600 Z0 F600
G1 X231.000 Y153.600 Z0 F600
G1 X232.000 Y153.600 Z0 F600
G1 X233.000 Y153.600 Z0 F600
G1 X234.000 Y153.600 Z0 F600
G1 X235.000 Y153.600 Z0 F600
G1 X236.000 Y153.600 Z0 F600
G1 X237.000 Y153.600 Z0 F600
G1 X238.000 Y153.600 Z0 F600
G0 Z1.6
G0 X244.000 Y153.600 Z1.6
G1 X244.000 Y153.600 Z0 F600
G1 X245.000 Y153.600 Z0 F600
G0 Z1.6
G0 X264.000 Y153.600 Z1.6
G1 X264.000 Y153.600 Z0 F600
G1 X265.000 Y153.600 Z0 F600
G1 X266.000 Y153.600 Z0 F600
G1 X267.000 Y153.600 Z0 F600
G0 Z1.6
G0 X285.000 Y153.600 Z1.6
G1 X285.000 Y153.600 Z0 F600
G1 X286.000 Y153.600 Z0 F600
G1 X287.000 Y153.600 Z0 F600
G1 X288.000 Y153.600 Z0 F600
G0 Z1.6
G0 X21.000 Y157.380 Z1.6
G1 X21.000 Y157.380 Z0 F600
G1 X22.000 Y157.380 Z0 F600
G1 X23.000 Y157.380 Z0 F600
G1 X24.000 Y157.380 Z0 F600
G1 X25.000 Y157.380 Z0 F600
G1 X26.000 Y157.380 Z0 F600
G0 Z1.6
G0 X43.000 Y157.380 Z1.6
G1 X43.000 Y157.380 Z0 F600
G1 X44.000 Y157.380 Z0 F600
G1 X45.000 Y157.380 Z0 F600
G1 X46.000 Y157.380 Z0 F600
G0 Z1.6
G0 X64.000 Y157.380 Z1.6
G1 X64.000 Y157.380 Z0 F600
; Dip needed
G0 X91 Y25 Z16
G1 Z3.2 F600
G4 P300
G0 X65.000 Y157.380 Z1.6 F1500
G1 X65.000 Y157.380 Z0 F600
G1 X66.000 Y157.380 Z0 F600
G1 X67.000 Y157.380 Z0 F600
G0 Z1.6
G0 X81.000 Y157.380 Z1.6
G1 X81.000 Y157.380 Z0 F600
G1 X82.000 Y157.380 Z0 F600
G1 X83.000 Y157.380 Z0 F600
G1 X84.000 Y157.380 Z0 F600
G1 X85.000 Y157.380 Z0 F600
G1 X86.000 Y157.380 Z0 F600
G1 X87.000 Y157.380 Z0 F600
G1 X88.000 Y157.380 Z0 F600
G1 X89.000 Y157.380 Z0 F600
G1 X90.000 Y157.380 Z0 F600
G1 X91.000 Y157.380 Z0 F600
G0 Z1.6
G0 X93.000 Y157.380 Z1.6
G1 X93.000 Y157.380 Z0 F600
G1 X94.000 Y157.380 Z0 F600
G1 X95.000 Y157.380 Z0 F600
G1 X96.000 Y157.380 Z0 F600
G1 X97.000 Y157.380 Z0 F600
G1 X98.000 Y157.380 Z0 F600
G1 X99.000 Y157.380 Z0 F600
G1 X100.000 Y157.380 Z0 F600
G1 X101.000 Y157.380 Z0 F600
G1 X102.000 Y157.380 Z0 F600
G1 X103.000 Y157.380 Z0 F600
G1 X104.000 Y157.380 Z0 F600
G1 X105.000 Y157.380 Z0 F600
G1 X106.000 Y157.380 Z0 F600
G1 X107.000 Y157.380 Z0 F600
G1 X108.000 Y157.380 Z0 F600
G1 X109.000 Y157.380 Z0 F600
G1 X110.000 Y157.380 Z0 F600
G1 X111.000 Y157.380 Z0 F600
G1 X112.000 Y157.380 Z0 F600
G1 X113.000 Y157.380 Z0 F600
G1 X114.000 Y157.380 Z0 F600
G1 X115.000 Y157.380 Z0 F600
G1 X116.000 Y157.380 Z0 F600
G1 X117.000 Y157.380 Z0 F600
G1 X118.000 Y157.380 Z0 F600
G1 X119.000 Y157.380 Z0 F600
G1 X120.000 Y157.380 Z0 F600
G1 X121.000 Y157.380 Z0 F600
G1 X122.000 Y157.380 Z0 F600
G1 X123.000 Y157.380 Z0 F600
G1 X124.000 Y157.380 Z0 F600
G1 X125.000 Y157.380 Z0 F600
G1 X126.000 Y157.380 Z0 F600
G1 X127.000 Y157.380 Z0 F600
G1 X128.000 Y157.380 Z0 F600
G1 X129.000 Y157.380 Z0 F600
G1 X130.000 Y157.380 Z0 F600
G1 X131.000 Y157.380 Z0 F600
G1 X132.000 Y157.380 Z0 F600
G1 X133.000 Y157.380 Z0 F600
G1 X134.000 Y157.380 Z0 F600
G1 X135.000 Y157.380 Z0 F600
G1 X136.000 Y157.380 Z0 F600
G1 X137.000 Y157.380 Z0 F600
G1 X138.000 Y157.380 Z0 F600
G1 X139.000 Y157.380 Z0 F600
G1 X140.000 Y157.380 Z0 F600
G1 X141.000 Y157.380 Z0 F600
G1 X142.000 Y157.380 Z0 F600
G1 X143.000 Y157.380 Z0 F600
G1 X144.000 Y157.380 Z0 F600
G1 X145.000 Y157.380 Z0 F600
G1 X146.000 Y157.380 Z0 F600
G1 X147.000 Y157.380 Z0 F600
G1 X148.000 Y157.380 Z0 F600
G1 X149.000 Y157.380 Z0 F600
G1 X150.000 Y157.380 Z0 F600
G1 X151.000 Y157.380 Z0 F600
G0 Z1.6
G0 X153.000 Y157.380 Z1.6
G1 X153.000 Y157.380 Z0 F600
G1 X154.000 Y157.380 Z0 F600
G1 X155.000 Y157.380 Z0 F600
G1 X156.000 Y157.380 Z0 F600
G1 X157.000 Y157.380 Z0 F600
G1 X158.000 Y157.380 Z0 F600
G1 X159.000 Y157.380 Z0 F600
G1 X160.000 Y157.380 Z0 F600
G1 X161.000 Y157.380 Z0 F600
G1 X162.000 Y157.380 Z0 F600
G1 X163.000 Y157.380 Z0 F600
G1 X164.000 Y157.380 Z0 F600
G1 X165.000 Y157.380 Z0 F600
G1 X166.000 Y157.380 Z0 F600
G1 X167.000 Y157.380 Z0 F600
G1 X168.000 Y157.380 Z0 F600
G1 X169.000 Y157.380 Z0 F600
G1 X170.000 Y157.380 Z0 F600
G1 X171.000 Y157.380 Z0 F600
G1 X172.000 Y157.380 Z0 F600
G1 X173.000 Y157.380 Z0 F600
G1 X174.000 Y157.380 Z0 F600
G0 Z1.6
G0 X176.000 Y157.380 Z1.6
G1 X176.000 Y157.380 Z0 F600
G1 X177.000 Y157.380 Z0 F600
G1 X178.000 Y157.380 Z0 F600
G1 X179.000 Y157.380 Z0 F600
G1 X180.000 Y157.380 Z0 F600
G1 X181.000 Y157.380 Z0 F600
G1 X182.000 Y157.380 Z0 F600
G1 X183.000 Y157.380 Z0 F600
G1 X184.000 Y157.380 Z0 F600
G1 X185.000 Y157.380 Z0 F600
G1 X186.000 Y157.380 Z0 F600
G0 Z1.6
G0 X189.000 Y157.380 Z1.6
G1 X189.000 Y157.380 Z0 F600
G1 X190.000 Y157.380 Z0 F600
G1 X191.000 Y157.380 Z0 F600
G1 X192.000 Y157.380 Z0 F600
G1 X193.000 Y157.380 Z0 F600
G1 X194.000 Y157.380 Z0 F600
G1 X195.000 Y157.380 Z0 F600
G0 Z1.6
G0 X198.000 Y157.380 Z1.6
G1 X198.000 Y157.380 Z0 F600
G1 X199.000 Y157.380 Z0 F600
G1 X200.000 Y157.380 Z0 F600
G1 X201.000 Y157.380 Z0 F600
G1 X202.000 Y157.380 Z0 F600
G1 X203.000 Y157.380 Z0 F600
G1 X204.000 Y157.380 Z0 F600
G1 X205.000 Y157.380 Z0 F600
G1 X206.000 Y157.380 Z0 F600
G0 Z1.6
G0 X209.000 Y157.380 Z1.6
G1 X209.000 Y157.380 Z0 F600
G1 X210.000 Y157.380 Z0 F600
G1 X211.000 Y157.380 Z0 F600
G1 X212.000 Y157.380 Z0 F600
G1 X213.000 Y157.380 Z0 F600
G1 X214.000 Y157.380 Z0 F600
G1 X215.000 Y157.380 Z0 F600
G1 X216.000 Y157.380 Z0 F600
G1 X217.000 Y157.380 Z0 F600
G0 Z1.6
G0 X221.000 Y157.380 Z1.6
G1 X221.000 Y157.380 Z0 F600
G1 X222.000 Y157.380 Z0 F600
G1 X223.000 Y157.380 Z0 F600
G1 X224.000 Y157.380 Z0 F600
G1 X225.000 Y157.380 Z0 F600
G0 Z1.6
G0 X229.000 Y157.380 Z1.6
G1 X229.000 Y157.380 Z0 F600
G1 X230.000 Y157.380 Z0 F600
G1 X231.000 Y157.380 Z0 F600
G1 X232.000 Y157.380 Z0 F600
G1 X233.000 Y157.380 Z0 F600
G1 X234.000 Y157.380 Z0 F600
G1 X235.000 Y157.380 Z0 F600
G1 X236.000 Y157.380 Z0 F600
G1 X237.000 Y157.380 Z0 F600
G1 X238.000 Y157.380 Z0 F600
G1 X239.000 Y157.380 Z0 F600
G0 Z1.6
G0 X253.000 Y157.380 Z1.6
G1 X253.000 Y157.380 Z0 F600
G1 X254.000 Y157.380 Z0 F600
G1 X255.000 Y157.380 Z0 F600
G1 X256.000 Y157.380 Z0 F600
G1 X257.000 Y157.380 Z0 F600
G0 Z1.6
G0 X275.000 Y157.380 Z1.6
G1 X275.000 Y157.380 Z0 F600
G1 X276.000 Y157.380 Z0 F600
G1 X277.000 Y157.380 Z0 F600
G0 Z1.6
G0 X31.000 Y161.160 Z1.6
G1 X31.000 Y161.160 Z0 F600
G1 X32.000 Y161.160 Z0 F600
G1 X33.000 Y161.160 Z0 F600
; Dip needed
G0 X91 Y25 Z16
G1 Z3.2 F600
G4 P300
G0 X34.000 Y161.160 Z1.6 F1500
G1 X34.000 Y161.160 Z0 F600
G1 X35.000 Y161.160 Z0 F600
G1 X36.000 Y161.160 Z0 F600
G0 Z1.6
G0 X53.000 Y161.160 Z1.6
G1 X53.000 Y161.160 Z0 F600
G1 X54.000 Y161.160 Z0 F600
G1 X55.000 Y161.160 Z0 F600
G1 X56.000 Y161.160 Z0 F600
G0 Z1.6
G0 X75.000 Y161.160 Z1.6
G1 X75.000 Y161.160 Z0 F600
G1 X76.000 Y161.160 Z0 F600
G0 Z1.6
G0 X82.000 Y161.160 Z1.6
G1 X82.000 Y161.160 Z0 F600
G1 X83.000 Y161.160 Z0 F600
G1 X84.000 Y161.160 Z0 F600
G1 X85.000 Y161.160 Z0 F600
G1 X86.000 Y161.160 Z0 F600
G1 X87.000 Y161.160 Z0 F600
G1 X88.000 Y161.160 Z0 F600
G1 X89.000 Y161.160 Z0 F600
G1 X90.000 Y161.160 Z0 F600
G1 X91.000 Y161.160 Z0 F600
G1 X92.000 Y161.160 Z0 F600
G1 X93.000 Y161.160 Z0 F600
G1 X94.000 Y161.160 Z0 F600
G1 X95.000 Y161.160 Z0 F600
G1 X96.000 Y161.160 Z0 F600
G1 X97.000 Y161.160 Z0 F600
G1 X98.000 Y161.160 Z0 F600
G1 X99.000 Y161.160 Z0 F600
G1 X100.000 Y161.160 Z0 F600
G1 X101.000 Y161.160 Z0 F600
G1 X102.000 Y161.160 Z0 F600
G1 X103.000 Y161.160 Z0 F600
G1 X104.000 Y161.160 Z0 F600
G1 X105.000 Y161.160 Z0 F600
G1 X106.000 Y161.160 Z0 F600
G1 X107.000 Y161.160 Z0 F600
G1 X108.000 Y161.160 Z0 F600
G1 X109.000 Y161.160 Z0 F600
G1 X110.000 Y161.160 Z0 F600
G1 X111.000 Y161.160 Z0 F600
G1 X112.000 Y161.160 Z0 F600
G0 Z1.6
G0 X115.000 Y161.160 Z1.6
G1 X115.000 Y161.160 Z0 F600
G1 X116.000 Y161.160 Z0 F600
G1 X117.000 Y161.160 Z0 F600
G1 X118.000 Y161.160 Z0 F600
G1 X119.000 Y161.160 Z0 F600
G1 X120.000 Y161.160 Z0 F600
G0 Z1.6
G0 X122.000 Y161.160 Z1.6
G1 X122.000 Y161.160 Z0 F600
G1 X123.000 Y161.160 Z0 F600
G1 X124.000 Y161.160 Z0 F600
G1 X125.000 Y161.160 Z0 F600
G1 X126.000 Y161.160 Z0 F600
G1 X127.000 Y161.160 Z0 F600
G1 X128.000 Y161.160 Z0 F600
G1 X129.000 Y161.160 Z0 F600
G1 X130.000 Y161.160 Z0 F600
G1 X131.000 Y161.160 Z0 F600
G1 X132.000 Y161.160 Z0 F600
G1 X133.000 Y161.160 Z0 F600
G1 X134.000 Y161.160 Z0 F600
G1 X135.000 Y161.160 Z0 F600
G1 X136.000 Y161.160 Z0 F600
G1 X137.000 Y161.160 Z0 F600
G1 X138.000 Y161.160 Z0 F600
G1 X139.000 Y161.160 Z0 F600
G1 X140.000 Y161.160 Z0 F600
G1 X141.000 Y161.160 Z0 F600
G1 X142.000 Y161.160 Z0 F600
G1 X143.000 Y161.160 Z0 F600
G1 X144.000 Y161.160 Z0 F600
G1 X145.000 Y161.160 Z0 F600
G1 X146.000 Y161.160 Z0 F600
G1 X147.000 Y161.160 Z0 F600
G1 X148.000 Y161.160 Z0 F600
G1 X149.000 Y161.160 Z0 F600
G1 X150.000 Y161.160 Z0 F600
G1 X151.000 Y161.160 Z0 F600
G1 X152.000 Y161.160 Z0 F600
G1 X153.000 Y161.160 Z0 F600
G1 X154.000 Y161.160 Z0 F600
G1 X155.000 Y161.160 Z0 F600
G1 X156.000 Y161.160 Z0 F600
G1 X157.000 Y161.160 Z0 F600
G1 X158.000 Y161.160 Z0 F600
G1 X159.000 Y161.160 Z0 F600
G1 X160.000 Y161.160 Z0 F600
G1 X161.000 Y161.160 Z0 F600
G1 X162.000 Y161.160 Z0 F600
G1 X163.000 Y161.160 Z0 F600
G1 X164.000 Y161.160 Z0 F600
G1 X165.000 Y161.160 Z0 F600
G1 X166.000 Y161.160 Z0 F600
G1 X167.000 Y161.160 Z0 F600
G1 X168.000 Y161.160 Z0 F600
G1 X169.000 Y161.160 Z0 F600
G1 X170.000 Y161.160 Z0 F600
G1 X171.000 Y161.160 Z0 F600
G1 X172.000 Y161.160 Z0 F600
G1 X173.000 Y161.160 Z0 F600
G1 X174.000 Y161.160 Z0 F600
G1 X175.000 Y161.160 Z0 F600
G1 X176.000 Y161.160 Z0 F600
G1 X177.000 Y161.160 Z0 F600
G1 X178.000 Y161.160 Z0 F600
G1 X179.000 Y161.160 Z0 F600
G1 X180.000 Y161.160 Z0 F600
G1 X181.000 Y161.160 Z0 F600
G1 X182.000 Y161.160 Z0 F600
G1 X183.000 Y161.160 Z0 F600
G1 X184.000 Y161.160 Z0 F600
G1 X185.000 Y161.160 Z0 F600
G1 X186.000 Y161.160 Z0 F600
G0 Z1.6
G0 X189.000 Y161.160 Z1.6
G1 X189.000 Y161.160 Z0 F600
G1 X190.000 Y161.160 Z0 F600
G1 X191.000 Y161.160 Z0 F600
G1 X192.000 Y161.160 Z0 F600
G1 X193.000 Y161.160 Z0 F600
G0 Z1.6
G0 X197.000 Y161.160 Z1.6
G1 X197.000 Y161.160 Z0 F600
G1 X198.000 Y161.160 Z0 F600
G1 X199.000 Y161.160 Z0 F600
G1 X200.000 Y161.160 Z0 F600
G1 X201.000 Y161.160 Z0 F600
G1 X202.000 Y161.160 Z0 F600
G1 X203.000 Y161.160 Z0 F600
G1 X204.000 Y161.160 Z0 F600
G1 X205.000 Y161.160 Z0 F600
G1 X206.000 Y161.160 Z0 F600
G1 X207.000 Y161.160 Z0 F600
G0 Z1.6
G0 X211.000 Y161.160 Z1.6
G1 X211.000 Y161.160 Z0 F600
G1 X212.000 Y161.160 Z0 F600
G1 X213.000 Y161.160 Z0 F600
G1 X214.000 Y161.160 Z0 F600
G0 Z1.6
G0 X218.000 Y161.160 Z1.6
G1 X218.000 Y161.160 Z0 F600
G1 X219.000 Y161.160 Z0 F600
G1 X220.000 Y161.160 Z0 F600
G1 X221.000 Y161.160 Z0 F600
G1 X222.000 Y161.160 Z0 F600
G1 X223.000 Y161.160 Z0 F600
G1 X224.000 Y161.160 Z0 F600
G1 X225.000 Y161.160 Z0 F600
G1 X226.000 Y161.160 Z0 F600
G1 X227.000 Y161.160 Z0 F600
G1 X228.000 Y161.160 Z0 F600
G0 Z1.6
G0 X232.000 Y161.160 Z1.6
G1 X232.000 Y161.160 Z0 F600
G1 X233.000 Y161.160 Z0 F600
G1 X234.000 Y161.160 Z0 F600
G1 X235.000 Y161.160 Z0 F600
G1 X236.000 Y161.160 Z0 F600
G0 Z1.6
G0 X242.000 Y161.160 Z1.6
G1 X242.000 Y161.160 Z0 F600
; Dip needed
G0 X91 Y25 Z16
G1 Z3.2 F600
G4 P300
G0 X243.000 Y161.160 Z1.6 F1500
G1 X243.000 Y161.160 Z0 F600
G1 X244.000 Y161.160 Z0 F600
G1 X245.000 Y161.160 Z0 F600
G0 Z1.6
G0 X274.000 Y161.160 Z1.6
G1 X274.000 Y161.160 Z0 F600
G1 X275.000 Y161.160 Z0 F600
G1 X276.000 Y161.160 Z0 F600
G1 X277.000 Y161.160 Z0 F600
G0 Z1.6
G0 X294.000 Y161.160 Z1.6
G1 X294.000 Y161.160 Z0 F600
G1 X295.000 Y161.160 Z0 F600
G0 X21.000 Y164.940 Z1.6
G1 X21.000 Y164.940 Z0 F600
G1 X22.000 Y164.940 Z0 F600
G1 X23.000 Y164.940 Z0 F600
G1 X24.000 Y164.940 Z0 F600
G1 X25.000 Y164.940 Z0 F600
G0 Z1.6
G0 X54.000 Y164.940 Z1.6
G1 X54.000 Y164.940 Z0 F600
G1 X55.000 Y164.940 Z0 F600
G0 Z1.6
G0 X74.000 Y164.940 Z1.6
G1 X74.000 Y164.940 Z0 F600
G1 X75.000 Y164.940 Z0 F600
G1 X76.000 Y164.940 Z0 F600
G1 X77.000 Y164.940 Z0 F600
G0 Z1.6
G0 X91.000 Y164.940 Z1.6
G1 X91.000 Y164.940 Z0 F600
G1 X92.000 Y164.940 Z0 F600
G1 X93.000 Y164.940 Z0 F600
G1 X94.000 Y164.940 Z0 F600
G1 X95.000 Y164.940 Z0 F600
G1 X96.000 Y164.940 Z0 F600
G1 X97.000 Y164.940 Z0 F600
G1 X98.000 Y164.940 Z0 F600
G1 X99.000 Y164.940 Z0 F600
G1 X100.000 Y164.940 Z0 F600
G1 X101.000 Y164.940 Z0 F600
G1 X102.000 Y164.940 Z0 F600
G0 Z1.6
G0 X105.000 Y164.940 Z1.6
G1 X105.000 Y164.940 Z0 F600
G1 X106.000 Y164.940 Z0 F600
G1 X107.000 Y164.940 Z0 F600
G1 X108.000 Y164.940 Z0 F600
G1 X109.000 Y164.940 Z0 F600
G1 X110.000 Y164.940 Z0 F600
G1 X111.000 Y164.940 Z0 F600
G1 X112.000 Y164.940 Z0 F600
G1 X113.000 Y164.940 Z0 F600
G1 X114.000 Y164.940 Z0 F600
G1 X115.000 Y164.940 Z0 F600
G1 X116.000 Y164.940 Z0 F600
G1 X117.000 Y164.940 Z0 F600
G1 X118.000 Y164.940 Z0 F600
G1 X119.000 Y164.940 Z0 F600
G1 X120.000 Y164.940 Z0 F600
G1 X121.000 Y164.940 Z0 F600
G1 X122.000 Y164.940 Z0 F600
G1 X123.000 Y164.940 Z0 F600
G1 X124.000 Y164.940 Z0 F600
G1 X125.000 Y164.940 Z0 F600
G1 X126.000 Y164.940 Z0 F600
G1 X127.000 Y164.940 Z0 F600
G1 X128.000 Y164.940 Z0 F600
G1 X129.000 Y164.940 Z0 F600
G1 X130.000 Y164.940 Z0 F600
G1 X131.000 Y164.940 Z0 F600
G1 X132.000 Y164.940 Z0 F600
G1 X133.000 Y164.940 Z0 F600
G1 X134.000 Y164.940 Z0 F600
G1 X135.000 Y164.940 Z0 F600
G1 X136.000 Y164.940 Z0 F600
G1 X137.000 Y164.940 Z0 F600
G1 X138.000 Y164.940 Z0 F600
G1 X139.000 Y164.940 Z0 F600
G1 X140.000 Y164.940 Z0 F600
G1 X141.000 Y164.940 Z0 F600
G1 X142.000 Y164.940 Z0 F600
G1 X143.000 Y164.940 Z0 F600
G1 X144.000 Y164.940 Z0 F600
G1 X145.000 Y164.940 Z0 F600
G1 X146.000 Y164.940 Z0 F600
G1 X147.000 Y164.940 Z0 F600
G1 X148.000 Y164.940 Z0 F600
G1 X149.000 Y164.940 Z0 F600
G1 X150.000 Y164.940 Z0 F600
G1 X151.000 Y164.940 Z0 F600
G1 X152.000 Y164.940 Z0 F600
G1 X153.000 Y164.940 Z0 F600
G1 X154.000 Y164.940 Z0 F600
G1 X155.000 Y164.940 Z0 F600
G1 X156.000 Y164.940 Z0 F600
G1 X157.000 Y164.940 Z0 F600
G1 X158.000 Y164.940 Z0 F600
G1 X159.000 Y164.940 Z0 F600
G1 X160.000 Y164.940 Z0 F600
G1 X161.000 Y164.940 Z0 F600
G1 X162.000 Y164.940 Z0 F600
G1 X163.000 Y164.940 Z0 F600
G1 X164.000 Y164.940 Z0 F600
G1 X165.000 Y164.940 Z0 F600
G1 X166.000 Y164.940 Z0 F600
G1 X167.000 Y164.940 Z0 F600
G1 X168.000 Y164.940 Z0 F600
G1 X169.000 Y164.940 Z0 F600
G1 X170.000 Y164.940 Z0 F600
G1 X171.000 Y164.940 Z0 F600
G1 X172.000 Y164.940 Z0 F600
G1 X173.000 Y164.940 Z0 F600
G1 X174.000 Y164.940 Z0 F600
G1 X175.000 Y164.940 Z0 F600
G1 X176.000 Y164.940 Z0 F600
G1 X177.000 Y164.940 Z0 F600
G1 X178.000 Y164.940 Z0 F600
G1 X179.000 Y164.940 Z0 F600
G1 X180.000 Y164.940 Z0 F600
G1 X181.000 Y164.940 Z0 F600
G1 X182.000 Y164.940 Z0 F600
G1 X183.000 Y164.940 Z0 F600
G0 Z1.6
G0 X186.000 Y164.940 Z1.6
G1 X186.000 Y164.940 Z0 F600
G1 X187.000 Y164.940 Z0 F600
G1 X188.000 Y164.940 Z0 F600
G1 X189.000 Y164.940 Z0 F600
G1 X190.000 Y164.940 Z0 F600
G1 X191.000 Y164.940 Z0 F600
G1 X192.000 Y164.940 Z0 F600
G1 X193.000 Y164.940 Z0 F600
G1 X194.000 Y164.940 Z0 F600
G1 X195.000 Y164.940 Z0 F600
G1 X196.000 Y164.940 Z0 F600
G0 Z1.6
G0 X199.000 Y164.940 Z1.6
G1 X199.000 Y164.940 Z0 F600
G1 X200.000 Y164.940 Z0 F600
G1 X201.000 Y164.940 Z0 F600
G1 X202.000 Y164.940 Z0 F600
G1 X203.000 Y164.940 Z0 F600
G1 X204.000 Y164.940 Z0 F600
G1 X205.000 Y164.940 Z0 F600
G1 X206.000 Y164.940 Z0 F600
G1 X207.000 Y164.940 Z0 F600
G1 X208.000 Y164.940 Z0 F600
G1 X209.000 Y164.940 Z0 F600
G1 X210.000 Y164.940 Z0 F600
G1 X211.000 Y164.940 Z0 F600
G1 X212.000 Y164.940 Z0 F600
G1 X213.000 Y164.940 Z0 F600
G1 X214.000 Y164.940 Z0 F600
G1 X215.000 Y164.940 Z0 F600
G1 X216.000 Y164.940 Z0 F600
G1 X217.000 Y164.940 Z0 F600
G1 X218.000 Y164.940 Z0 F600
G1 X219.000 Y164.940 Z0 F600
G1 X220.000 Y164.940 Z0 F600
G1 X221.000 Y164.940 Z0 F600
G1 X222.000 Y164.940 Z0 F600
G1 X223.000 Y164.940 Z0 F600
G1 X224.000 Y164.940 Z0 F600
G1 X225.000 Y164.940 Z0 F600
G1 X226.000 Y164.940 Z0 F600
G1 X227.000 Y164.940 Z0 F600
G0 Z1.6
G0 X230.000 Y164.940 Z1.6
G1 X230.000 Y164.940 Z0 F600
G1 X231.000 Y164.940 Z0 F600
G1 X232.000 Y164.940 Z0 F600
G1 X233.000 Y164.940 Z0 F600
G1 X234.000 Y164.940 Z0 F600
G1 X235.000 Y164.940 Z0 F600
G1 X236.000 Y164.940 Z0 F600
G0 Z1.6
G0 X242.000 Y164.940 Z1.6
G1 X242.000 Y164.940 Z0 F600
G1 X243.000 Y164.940 Z0 F600
G1 X244.000 Y164.940 Z0 F600
G1 X245.000 Y164.940 Z0 F600
G1 X246.000 Y164.940 Z0 F600
G0 Z1.6
G0 X263.000 Y164.940 Z1.6
G1 X263.000 Y164.940 Z0 F600
G1 X264.000 Y164.940 Z0 F600
G1 X265.000 Y164.940 Z0 F600
G1 X266.000 Y164.940 Z0 F600
G1 X267.000 Y164.940 Z0 F600
G0 Z1.6
G0 X284.000 Y164.940 Z1.6
G1 X284.000 Y164.940 Z0 F600
G1 X285.000 Y164.940 Z0 F600
G1 X286.000 Y164.940 Z0 F600
G1 X287.000 Y164.940 Z0 F600
G0 Z1.6
G0 X22.000 Y168.720 Z1.6
G1 X22.000 Y168.720 Z0 F600
G1 X23.000 Y168.720 Z0 F600
G0 Z1.6
G0 X42.000 Y168.720 Z1.6
G1 X42.000 Y168.720 Z0 F600
G1 X43.000 Y168.720 Z0 F600
G1 X44.000 Y168.720 Z0 F600
G1 X45.000 Y168.720 Z0 F600
G1 X46.000 Y168.720 Z0 F600
G0 Z1.6
G0 X62.000 Y168.720 Z1.6
G1 X62.000 Y168.720 Z0 F600
G1 X63.000 Y168.720 Z0 F600
G1 X64.000 Y168.720 Z0 F600
G1 X65.000 Y168.720 Z0 F600
G1 X66.000 Y168.720 Z0 F600
G1 X67.000 Y168.720 Z0 F600
G0 Z1.6
G0 X81.000 Y168.720 Z1.6
G1 X81.000 Y168.720 Z0 F600
G1 X82.000 Y168.720 Z0 F600
G1 X83.000 Y168.720 Z0 F600
G1 X84.000 Y168.720 Z0 F600
G1 X85.000 Y168.720 Z0 F600
G1 X86.000 Y168.720 Z0 F600
G1 X87.000 Y168.720 Z0 F600
G1 X88.000 Y168.720 Z0 F600
G1 X89.000 Y168.720 Z0 F600
G1 X90.000 Y168.720 Z0 F600
G0 Z1.6
G0 X92.000 Y168.720 Z1.6
G1 X92.000 Y168.720 Z0 F600
G1 X93.000 Y168.720 Z0 F600
G1 X94.000 Y168.720 Z0 F600
G1 X95.000 Y168.720 Z0 F600
G1 X96.000 Y168.720 Z0 F600
G1 X97.000 Y168.720 Z0 F600
G1 X98.000 Y168.720 Z0 F600
G1 X99.000 Y168.720 Z0 F600
G1 X100.000 Y168.720 Z0 F600
G1 X101.000 Y168.720 Z0 F600
G1 X102.000 Y168.720 Z0 F600
G1 X103.000 Y168.720 Z0 F600
G1 X104.000 Y168.720 Z0 F600
G1 X105.000 Y168.720 Z0 F600
G1 X106.000 Y168.720 Z0 F600
G1 X107.000 Y168.720 Z0 F600
G1 X108.000 Y168.720 Z0 F600
G1 X109.000 Y168.720 Z0 F600
G1 X110.000 Y168.720 Z0 F600
G1 X111.000 Y168.720 Z0 F600
G1 X112.000 Y168.720 Z0 F600
G1 X113.000 Y168.720 Z0 F600
G1 X114.000 Y168.720 Z0 F600
G1 X115.000 Y168.720 Z0 F600
G1 X116.000 Y168.720 Z0 F600
G1 X117.000 Y168.720 Z0 F600
G1 X118.000 Y168.720 Z0 F600
G1 X119.000 Y168.720 Z0 F600
G1 X120.000 Y168.720 Z0 F600
G1 X121.000 Y168.720 Z0 F600
G1 X122.000 Y168.720 Z0 F600
G1 X123.000 Y168.720 Z0 F600
G1 X124.000 Y168.720 Z0 F600
G1 X125.000 Y168.720 Z0 F600
G1 X126.000 Y168.720 Z0 F600
G1 X127.000 Y168.720 Z0 F600
G1 X128.000 Y168.720 Z0 F600
G1 X129.000 Y168.720 Z0 F600
G1 X130.000 Y168.720 Z0 F600
G1 X131.000 Y168.720 Z0 F600
G1 X132.000 Y168.720 Z0 F600
G1 X133.000 Y168.720 Z0 F600
G1 X134.000 Y168.720 Z0 F600
G1 X135.000 Y168.720 Z0 F600
G1 X136.000 Y168.720 Z0 F600
G1 X137.000 Y168.720 Z0 F600
G1 X138.000 Y168.720 Z0 F600
; Dip needed
G0 X91 Y25 Z16
G1 Z3.2 F600
G4 P300
G0 X139.000 Y168.720 Z1.6 F1500
G1 X139.000 Y168.720 Z0 F600
G1 X140.000 Y168.720 Z0 F600
G1 X141.000 Y168.720 Z0 F600
G1 X142.000 Y168.720 Z0 F600
G1 X143.000 Y168.720 Z0 F600
G1 X144.000 Y168.720 Z0 F600
G0 Z1.6
G0 X146.000 Y168.720 Z1.6
G1 X146.000 Y168.720 Z0 F600
G1 X147.000 Y168.720 Z0 F600
G1 X148.000 Y168.720 Z0 F600
G1 X149.000 Y168.720 Z0 F600
G1 X150.000 Y168.720 Z0 F600
G1 X151.000 Y168.720 Z0 F600
G1 X152.000 Y168.720 Z0 F600
G1 X153.000 Y168.720 Z0 F600
G1 X154.000 Y168.720 Z0 F600
G1 X155.000 Y168.720 Z0 F600
G1 X156.000 Y168.720 Z0 F600
G1 X157.000 Y168.720 Z0 F600
G1 X158.000 Y168.720 Z0 F600
G1 X159.000 Y168.720 Z0 F600
G1 X160.000 Y168.720 Z0 F600
G1 X161.000 Y168.720 Z0 F600
G1 X162.000 Y168.720 Z0 F600
G1 X163.000 Y168.720 Z0 F600
G1 X164.000 Y168.720 Z0 F600
G1 X165.000 Y168.720 Z0 F600
G1 X166.000 Y168.720 Z0 F600
G1 X167.000 Y168.720 Z0 F600
G1 X168.000 Y168.720 Z0 F600
G1 X169.000 Y168.720 Z0 F600
G1 X170.000 Y168.720 Z0 F600
G1 X171.000 Y168.720 Z0 F600
G1 X172.000 Y168.720 Z0 F600
G1 X173.000 Y168.720 Z0 F600
G1 X174.000 Y168.720 Z0 F600
G1 X175.000 Y168.720 Z0 F600
G1 X176.000 Y168.720 Z0 F600
G1 X177.000 Y168.720 Z0 F600
G1 X178.000 Y168.720 Z0 F600
G1 X179.000 Y168.720 Z0 F600
G1 X180.000 Y168.720 Z0 F600
G1 X181.000 Y168.720 Z0 F600
G1 X182.000 Y168.720 Z0 F600
G1 X183.000 Y168.720 Z0 F600
G1 X184.000 Y168.720 Z0 F600
G1 X185.000 Y168.720 Z0 F600
G1 X186.000 Y168.720 Z0 F600
G1 X187.000 Y168.720 Z0 F600
G1 X188.000 Y168.720 Z0 F600
G1 X189.000 Y168.720 Z0 F600
G1 X190.000 Y168.720 Z0 F600
G1 X191.000 Y168.720 Z0 F600
G1 X192.000 Y168.720 Z0 F600
G1 X193.000 Y168.720 Z0 F600
G1 X194.000 Y168.720 Z0 F600
G1 X195.000 Y168.720 Z0 F600
G1 X196.000 Y168.720 Z0 F600
G1 X197.000 Y168.720 Z0 F600
G1 X198.000 Y168.720 Z0 F600
G1 X199.000 Y168.720 Z0 F600
G1 X200.000 Y168.720 Z0 F600
G1 X201.000 Y168.720 Z0 F600
G1 X202.000 Y168.720 Z0 F600
G1 X203.000 Y168.720 Z0 F600
G1 X204.000 Y168.720 Z0 F600
G1 X205.000 Y168.720 Z0 F600
G1 X206.000 Y168.720 Z0 F600
G1 X207.000 Y168.720 Z0 F600
G1 X208.000 Y168.720 Z0 F600
G1 X209.000 Y168.720 Z0 F600
G1 X210.000 Y168.720 Z0 F600
G1 X211.000 Y168.720 Z0 F600
G1 X212.000 Y168.720 Z0 F600
G1 X213.000 Y168.720 Z0 F600
G1 X214.000 Y168.720 Z0 F600
G1 X215.000 Y168.720 Z0 F600
G1 X216.000 Y168.720 Z0 F600
G1 X217.000 Y168.720 Z0 F600
G1 X218.000 Y168.720 Z0 F600
G1 X219.000 Y168.720 Z0 F600
G1 X220.000 Y168.720 Z0 F600
G1 X221.000 Y168.720 Z0 F600
G1 X222.000 Y168.720 Z0 F600
G1 X223.000 Y168.720 Z0 F600
G1 X224.000 Y168.720 Z0 F600
G1 X225.000 Y168.720 Z0 F600
G1 X226.000 Y168.720 Z0 F600
G0 Z1.6
G0 X228.000 Y168.720 Z1.6
G1 X228.000 Y168.720 Z0 F600
G1 X229.000 Y168.720 Z0 F600
G1 X230.000 Y168.720 Z0 F600
G1 X231.000 Y168.720 Z0 F600
G1 X232.000 Y168.720 Z0 F600
G1 X233.000 Y168.720 Z0 F600
G1 X234.000 Y168.720 Z0 F600
G1 X235.000 Y168.720 Z0 F600
G1 X236.000 Y168.720 Z0 F600
G1 X237.000 Y168.720 Z0 F600
G1 X238.000 Y168.720 Z0 F600
G0 Z1.6
G0 X252.000 Y168.720 Z1.6
G1 X252.000 Y168.720 Z0 F600
G1 X253.000 Y168.720 Z0 F600
G1 X254.000 Y168.720 Z0 F600
G1 X255.000 Y168.720 Z0 F600
G1 X256.000 Y168.720 Z0 F600
G0 Z1.6
G0 X286.000 Y168.720 Z1.6
G1 X286.000 Y168.720 Z0 F600
G0 Z1.6
G0 X30.000 Y172.500 Z1.6
G1 X30.000 Y172.500 Z0 F600
G1 X31.000 Y172.500 Z0 F600
G1 X32.000 Y172.500 Z0 F600
G1 X33.000 Y172.500 Z0 F600
G1 X34.000 Y172.500 Z0 F600
G1 X35.000 Y172.500 Z0 F600
G0 Z1.6
G0 X52.000 Y172.500 Z1.6
G1 X52.000 Y172.500 Z0 F600
G1 X53.000 Y172.500 Z0 F600
G1 X54.000 Y172.500 Z0 F600
G1 X55.000 Y172.500 Z0 F600
G0 Z1.6
G0 X81.000 Y172.500 Z1.6
G1 X81.000 Y172.500 Z0 F600
G1 X82.000 Y172.500 Z0 F600
G1 X83.000 Y172.500 Z0 F600
G1 X84.000 Y172.500 Z0 F600
G1 X85.000 Y172.500 Z0 F600
G1 X86.000 Y172.500 Z0 F600
G1 X87.000 Y172.500 Z0 F600
G1 X88.000 Y172.500 Z0 F600
G1 X89.000 Y172.500 Z0 F600
G0 Z1.6
G0 X94.000 Y172.500 Z1.6
G1 X94.000 Y172.500 Z0 F600
G1 X95.000 Y172.500 Z0 F600
G1 X96.000 Y172.500 Z0 F600
G1 X97.000 Y172.500 Z0 F600
G0 Z1.6
G0 X101.000 Y172.500 Z1.6
G1 X101.000 Y172.500 Z0 F600
G1 X102.000 Y172.500 Z0 F600
G1 X103.000 Y172.500 Z0 F600
G1 X104.000 Y172.500 Z0 F600
G1 X105.000 Y172.500 Z0 F600
G1 X106.000 Y172.500 Z0 F600
G1 X107.000 Y172.500 Z0 F600
G1 X108.000 Y172.500 Z0 F600
G1 X109.000 Y172.500 Z0 F600
G1 X110.000 Y172.500 Z0 F600
G1 X111.000 Y172.500 Z0 F600
G1 X112.000 Y172.500 Z0 F600
G0 Z1.6
G0 X117.000 Y172.500 Z1.6
G1 X117.000 Y172.500 Z0 F600
G0 Z1.6
G0 X121.000 Y172.500 Z1.6
G1 X121.000 Y172.500 Z0 F600
G1 X122.000 Y172.500 Z0 F600
G1 X123.000 Y172.500 Z0 F600
G1 X124.000 Y172.500 Z0 F600
G1 X125.000 Y172.500 Z0 F600
G1 X126.000 Y172.500 Z0 F600
G1 X127.000 Y172.500 Z0 F600
G1 X128.000 Y172.500 Z0 F600
G1 X129.000 Y172.500 Z0 F600
G1 X130.000 Y172.500 Z0 F600
G1 X131.000 Y172.500 Z0 F600
G1 X132.000 Y172.500 Z0 F600
G1 X133.000 Y172.500 Z0 F600
G1 X134.000 Y172.500 Z0 F600
G1 X135.000 Y172.500 Z0 F600
G1 X136.000 Y172.500 Z0 F600
G1 X137.000 Y172.500 Z0 F600
G1 X138.000 Y172.500 Z0 F600
G1 X139.000 Y172.500 Z0 F600
G1 X140.000 Y172.500 Z0 F600
G1 X141.000 Y172.500 Z0 F600
G1 X142.000 Y172.500 Z0 F600
G1 X143.000 Y172.500 Z0 F600
G1 X144.000 Y172.500 Z0 F600
G1 X145.000 Y172.500 Z0 F600
G1 X146.000 Y172.500 Z0 F600
G1 X147.000 Y172.500 Z0 F600
G1 X148.000 Y172.500 Z0 F600
G1 X149.000 Y172.500 Z0 F600
G1 X150.000 Y172.500 Z0 F600
G1 X151.000 Y172.500 Z0 F600
G1 X152.000 Y172.500 Z0 F600
G1 X153.000 Y172.500 Z0 F600
G1 X154.000 Y172.500 Z0 F600
G1 X155.000 Y172.500 Z0 F600
G1 X156.000 Y172.500 Z0 F600
G1 X157.000 Y172.500 Z0 F600
G1 X158.000 Y172.500 Z0 F600
G1 X159.000 Y172.500 Z0 F600
G1 X160.000 Y172.500 Z0 F600
G1 X161.000 Y172.500 Z0 F600
G1 X162.000 Y172.500 Z0 F600
G1 X163.000 Y172.500 Z0 F600
G1 X164.000 Y172.500 Z0 F600
G1 X165.000 Y172.500 Z0 F600
G1 X166.000 Y172.500 Z0 F600
G1 X167.000 Y172.500 Z0 F600
G1 X168.000 Y172.500 Z0 F600
G1 X169.000 Y172.500 Z0 F600
G1 X170.000 Y172.500 Z0 F600
; Dip needed
G0 X91 Y25 Z16
G1 Z3.2 F600
G4 P300
G0 X171.000 Y172.500 Z1.6 F1500
G1 X171.000 Y172.500 Z0 F600
G1 X172.000 Y172.500 Z0 F600
G1 X173.000 Y172.500 Z0 F600
G1 X174.000 Y172.500 Z0 F600
G1 X175.000 Y172.500 Z0 F600
G1 X176.000 Y172.500 Z0 F600
G1 X177.000 Y172.500 Z0 F600
G1 X178.000 Y172.500 Z0 F600
G1 X179.000 Y172.500 Z0 F600
G1 X180.000 Y172.500 Z0 F600
G1 X181.000 Y172.500 Z0 F600
G1 X182.000 Y172.500 Z0 F600
G1 X183.000 Y172.500 Z0 F600
G1 X184.000 Y172.500 Z0 F600
G1 X185.000 Y172.500 Z0 F600
G1 X186.000 Y172.500 Z0 F600
G1 X187.000 Y172.500 Z0 F600
G1 X188.000 Y172.500 Z0 F600
G1 X189.000 Y172.500 Z0 F600
G1 X190.000 Y172.500 Z0 F600
G1 X191.000 Y172.500 Z0 F600
G1 X192.000 Y172.500 Z0 F600
G1 X193.000 Y172.500 Z0 F600
G1 X194.000 Y172.500 Z0 F600
G1 X195.000 Y172.500 Z0 F600
G1 X196.000 Y172.500 Z0 F600
G1 X197.000 Y172.500 Z0 F600
G1 X198.000 Y172.500 Z0 F600
G1 X199.000 Y172.500 Z0 F600
G1 X200.000 Y172.500 Z0 F600
G1 X201.000 Y172.500 Z0 F600
G1 X202.000 Y172.500 Z0 F600
G1 X203.000 Y172.500 Z0 F600
G1 X204.000 Y172.500 Z0 F600
G1 X205.000 Y172.500 Z0 F600
G1 X206.000 Y172.500 Z0 F600
G1 X207.000 Y172.500 Z0 F600
G1 X208.000 Y172.500 Z0 F600
G1 X209.000 Y172.500 Z0 F600
G1 X210.000 Y172.500 Z0 F600
G1 X211.000 Y172.500 Z0 F600
G1 X212.000 Y172.500 Z0 F600
G1 X213.000 Y172.500 Z0 F600
G1 X214.000 Y172.500 Z0 F600
G1 X215.000 Y172.500 Z0 F600
G1 X216.000 Y172.500 Z0 F600
G1 X217.000 Y172.500 Z0 F600
G1 X218.000 Y172.500 Z0 F600
G1 X219.000 Y172.500 Z0 F600
G1 X220.000 Y172.500 Z0 F600
G1 X221.000 Y172.500 Z0 F600
G1 X222.000 Y172.500 Z0 F600
G1 X223.000 Y172.500 Z0 F600
G1 X224.000 Y172.500 Z0 F600
G1 X225.000 Y172.500 Z0 F600
G1 X226.000 Y172.500 Z0 F600
G1 X227.000 Y172.500 Z0 F600
G1 X228.000 Y172.500 Z0 F600
G1 X229.000 Y172.500 Z0 F600
G1 X230.000 Y172.500 Z0 F600
G1 X231.000 Y172.500 Z0 F600
G1 X232.000 Y172.500 Z0 F600
G1 X233.000 Y172.500 Z0 F600
G1 X234.000 Y172.500 Z0 F600
G1 X235.000 Y172.500 Z0 F600
G1 X236.000 Y172.500 Z0 F600
G0 Z1.6
G0 X254.000 Y172.500 Z1.6
G1 X254.000 Y172.500 Z0 F600
G0 Z1.6
G0 X273.000 Y172.500 Z1.6
G1 X273.000 Y172.500 Z0 F600
G1 X274.000 Y172.500 Z0 F600
G1 X275.000 Y172.500 Z0 F600
G1 X276.000 Y172.500 Z0 F600
G1 X277.000 Y172.500 Z0 F600
G0 Z1.6
G0 X294.000 Y172.500 Z1.6
G1 X294.000 Y172.500 Z0 F600
G1 X295.000 Y172.500 Z0 F600
G0 X20.000 Y176.280 Z1.6
G1 X20.000 Y176.280 Z0 F600
G1 X21.000 Y176.280 Z0 F600
G1 X22.000 Y176.280 Z0 F600
G1 X23.000 Y176.280 Z0 F600
G0 Z1.6
G0 X52.000 Y176.280 Z1.6
G1 X52.000 Y176.280 Z0 F600
G1 X53.000 Y176.280 Z0 F600
G1 X54.000 Y176.280 Z0 F600
G1 X55.000 Y176.280 Z0 F600
G0 Z1.6
G0 X72.000 Y176.280 Z1.6
G1 X72.000 Y176.280 Z0 F600
G1 X73.000 Y176.280 Z0 F600
G1 X74.000 Y176.280 Z0 F600
G1 X75.000 Y176.280 Z0 F600
G1 X76.000 Y176.280 Z0 F600
G1 X77.000 Y176.280 Z0 F600
G0 Z1.6
G0 X91.000 Y176.280 Z1.6
G1 X91.000 Y176.280 Z0 F600
G1 X92.000 Y176.280 Z0 F600
G1 X93.000 Y176.280 Z0 F600
G1 X94.000 Y176.280 Z0 F600
G1 X95.000 Y176.280 Z0 F600
G1 X96.000 Y176.280 Z0 F600
G1 X97.000 Y176.280 Z0 F600
G1 X98.000 Y176.280 Z0 F600
G1 X99.000 Y176.280 Z0 F600
G1 X100.000 Y176.280 Z0 F600
G0 Z1.6
G0 X103.000 Y176.280 Z1.6
G1 X103.000 Y176.280 Z0 F600
G1 X104.000 Y176.280 Z0 F600
G1 X105.000 Y176.280 Z0 F600
G1 X106.000 Y176.280 Z0 F600
G1 X107.000 Y176.280 Z0 F600
G1 X108.000 Y176.280 Z0 F600
G1 X109.000 Y176.280 Z0 F600
G1 X110.000 Y176.280 Z0 F600
G1 X111.000 Y176.280 Z0 F600
G1 X112.000 Y176.280 Z0 F600
G1 X113.000 Y176.280 Z0 F600
G1 X114.000 Y176.280 Z0 F600
G1 X115.000 Y176.280 Z0 F600
G1 X116.000 Y176.280 Z0 F600
G1 X117.000 Y176.280 Z0 F600
G1 X118.000 Y176.280 Z0 F600
G1 X119.000 Y176.280 Z0 F600
G1 X120.000 Y176.280 Z0 F600
G1 X121.000 Y176.280 Z0 F600
G1 X122.000 Y176.280 Z0 F600
G1 X123.000 Y176.280 Z0 F600
G1 X124.000 Y176.280 Z0 F600
G1 X125.000 Y176.280 Z0 F600
G1 X126.000 Y176.280 Z0 F600
G1 X127.000 Y176.280 Z0 F600
G1 X128.000 Y176.280 Z0 F600
G1 X129.000 Y176.280 Z0 F600
G1 X130.000 Y176.280 Z0 F600
G1 X131.000 Y176.280 Z0 F600
G1 X132.000 Y176.280 Z0 F600
G1 X133.000 Y176.280 Z0 F600
G1 X134.000 Y176.280 Z0 F600
G1 X135.000 Y176.280 Z0 F600
G1 X136.000 Y176.280 Z0 F600
G1 X137.000 Y176.280 Z0 F600
G1 X138.000 Y176.280 Z0 F600
G1 X139.000 Y176.280 Z0 F600
G1 X140.000 Y176.280 Z0 F600
G1 X141.000 Y176.280 Z0 F600
G1 X142.000 Y176.280 Z0 F600
G1 X143.000 Y176.280 Z0 F600
G1 X144.000 Y176.280 Z0 F600
G1 X145.000 Y176.280 Z0 F600
G1 X146.000 Y176.280 Z0 F600
G1 X147.000 Y176.280 Z0 F600
G1 X148.000 Y176.280 Z0 F600
G1 X149.000 Y176.280 Z0 F600
G1 X150.000 Y176.280 Z0 F600
G1 X151.000 Y176.280 Z0 F600
G1 X152.000 Y176.280 Z0 F600
G1 X153.000 Y176.280 Z0 F600
G1 X154.000 Y176.280 Z0 F600
G1 X155.000 Y176.280 Z0 F600
G1 X156.000 Y176.280 Z0 F600
G1 X157.000 Y176.280 Z0 F600
G1 X158.000 Y176.280 Z0 F600
G1 X159.000 Y176.280 Z0 F600
G1 X160.000 Y176.280 Z0 F600
G1 X161.000 Y176.280 Z0 F600
G1 X162.000 Y176.280 Z0 F600
G1 X163.000 Y176.280 Z0 F600
G1 X164.000 Y176.280 Z0 F600
G1 X165.000 Y176.280 Z0 F600
G1 X166.000 Y176.280 Z0 F600
G1 X167.000 Y176.280 Z0 F600
G1 X168.000 Y176.280 Z0 F600
G1 X169.000 Y176.280 Z0 F600
G1 X170.000 Y176.280 Z0 F600
G1 X171.000 Y176.280 Z0 F600
G1 X172.000 Y176.280 Z0 F600
; Dip needed
G0 X91 Y25 Z16
G1 Z3.2 F600
G4 P300
G0 X173.000 Y176.280 Z1.6 F1500
G1 X173.000 Y176.280 Z0 F600
G1 X174.000 Y176.280 Z0 F600
G1 X175.000 Y176.280 Z0 F600
G1 X176.000 Y176.280 Z0 F600
G1 X177.000 Y176.280 Z0 F600
G1 X178.000 Y176.280 Z0 F600
G1 X179.000 Y176.280 Z0 F600
G1 X180.000 Y176.280 Z0 F600
G1 X181.000 Y176.280 Z0 F600
G1 X182.000 Y176.280 Z0 F600
G1 X183.000 Y176.280 Z0 F600
G1 X184.000 Y176.280 Z0 F600
G1 X185.000 Y176.280 Z0 F600
G1 X186.000 Y176.280 Z0 F600
G1 X187.000 Y176.280 Z0 F600
G1 X188.000 Y176.280 Z0 F600
G1 X189.000 Y176.280 Z0 F600
G1 X190.000 Y176.280 Z0 F600
G1 X191.000 Y176.280 Z0 F600
G1 X192.000 Y176.280 Z0 F600
G1 X193.000 Y176.280 Z0 F600
G1 X194.000 Y176.280 Z0 F600
G1 X195.000 Y176.280 Z0 F600
G1 X196.000 Y176.280 Z0 F600
G1 X197.000 Y176.280 Z0 F600
G1 X198.000 Y176.280 Z0 F600
G1 X199.000 Y176.280 Z0 F600
G1 X200.000 Y176.280 Z0 F600
G1 X201.000 Y176.280 Z0 F600
G1 X202.000 Y176.280 Z0 F600
G1 X203.000 Y176.280 Z0 F600
G1 X204.000 Y176.280 Z0 F600
G1 X205.000 Y176.280 Z0 F600
G1 X206.000 Y176.280 Z0 F600
G1 X207.000 Y176.280 Z0 F600
G1 X208.000 Y176.280 Z0 F600
G1 X209.000 Y176.280 Z0 F600
G1 X210.000 Y176.280 Z0 F600
G1 X211.000 Y176.280 Z0 F600
G1 X212.000 Y176.280 Z0 F600
G1 X213.000 Y176.280 Z0 F600
G1 X214.000 Y176.280 Z0 F600
G1 X215.000 Y176.280 Z0 F600
G1 X216.000 Y176.280 Z0 F600
G1 X217.000 Y176.280 Z0 F600
G1 X218.000 Y176.280 Z0 F600
G1 X219.000 Y176.280 Z0 F600
G1 X220.000 Y176.280 Z0 F600
G1 X221.000 Y176.280 Z0 F600
G1 X222.000 Y176.280 Z0 F600
G1 X223.000 Y176.280 Z0 F600
G1 X224.000 Y176.280 Z0 F600
G1 X225.000 Y176.280 Z0 F600
G1 X226.000 Y176.280 Z0 F600
G1 X227.000 Y176.280 Z0 F600
G1 X228.000 Y176.280 Z0 F600
G1 X229.000 Y176.280 Z0 F600
G1 X230.000 Y176.280 Z0 F600
G1 X231.000 Y176.280 Z0 F600
G1 X232.000 Y176.280 Z0 F600
G1 X233.000 Y176.280 Z0 F600
G1 X234.000 Y176.280 Z0 F600
G1 X235.000 Y176.280 Z0 F600
G1 X236.000 Y176.280 Z0 F600
G0 Z1.6
G0 X241.000 Y176.280 Z1.6
G1 X241.000 Y176.280 Z0 F600
G1 X242.000 Y176.280 Z0 F600
G1 X243.000 Y176.280 Z0 F600
G1 X244.000 Y176.280 Z0 F600
G1 X245.000 Y176.280 Z0 F600
G0 Z1.6
G0 X262.000 Y176.280 Z1.6
G1 X262.000 Y176.280 Z0 F600
G1 X263.000 Y176.280 Z0 F600
G1 X264.000 Y176.280 Z0 F600
G1 X265.000 Y176.280 Z0 F600
G1 X266.000 Y176.280 Z0 F600
G0 Z1.6
G0 X284.000 Y176.280 Z1.6
G1 X284.000 Y176.280 Z0 F600
G1 X285.000 Y176.280 Z0 F600
G1 X286.000 Y176.280 Z0 F600
G0 Z1.6
G0 X20.000 Y180.060 Z1.6
G1 X20.000 Y180.060 Z0 F600
G1 X21.000 Y180.060 Z0 F600
G1 X22.000 Y180.060 Z0 F600
G1 X23.000 Y180.060 Z0 F600
G0 Z1.6
G0 X40.000 Y180.060 Z1.6
G1 X40.000 Y180.060 Z0 F600
G1 X41.000 Y180.060 Z0 F600
G1 X42.000 Y180.060 Z0 F600
G1 X43.000 Y180.060 Z0 F600
G1 X44.000 Y180.060 Z0 F600
G1 X45.000 Y180.060 Z0 F600
G0 Z1.6
G0 X62.000 Y180.060 Z1.6
G1 X62.000 Y180.060 Z0 F600
G1 X63.000 Y180.060 Z0 F600
G1 X64.000 Y180.060 Z0 F600
G1 X65.000 Y180.060 Z0 F600
G1 X66.000 Y180.060 Z0 F600
G0 Z1.6
G0 X82.000 Y180.060 Z1.6
G1 X82.000 Y180.060 Z0 F600
G1 X83.000 Y180.060 Z0 F600
G1 X84.000 Y180.060 Z0 F600
G1 X85.000 Y180.060 Z0 F600
G1 X86.000 Y180.060 Z0 F600
G1 X87.000 Y180.060 Z0 F600
G0 Z1.6
G0 X92.000 Y180.060 Z1.6
G1 X92.000 Y180.060 Z0 F600
G1 X93.000 Y180.060 Z0 F600
G1 X94.000 Y180.060 Z0 F600
G1 X95.000 Y180.060 Z0 F600
G1 X96.000 Y180.060 Z0 F600
G1 X97.000 Y180.060 Z0 F600
G1 X98.000 Y180.060 Z0 F600
G1 X99.000 Y180.060 Z0 F600
G0 Z1.6
G0 X103.000 Y180.060 Z1.6
G1 X103.000 Y180.060 Z0 F600
G1 X104.000 Y180.060 Z0 F600
G1 X105.000 Y180.060 Z0 F600
G1 X106.000 Y180.060 Z0 F600
G1 X107.000 Y180.060 Z0 F600
G1 X108.000 Y180.060 Z0 F600
G0 Z1.6
G0 X111.000 Y180.060 Z1.6
G1 X111.000 Y180.060 Z0 F600
G1 X112.000 Y180.060 Z0 F600
G1 X113.000 Y180.060 Z0 F600
G1 X114.000 Y180.060 Z0 F600
G1 X115.000 Y180.060 Z0 F600
G1 X116.000 Y180.060 Z0 F600
G1 X117.000 Y180.060 Z0 F600
G1 X118.000 Y180.060 Z0 F600
G1 X119.000 Y180.060 Z0 F600
G1 X120.000 Y180.060 Z0 F600
G1 X121.000 Y180.060 Z0 F600
G1 X122.000 Y180.060 Z0 F600
G0 Z1.6
G0 X124.000 Y180.060 Z1.6
G1 X124.000 Y180.060 Z0 F600
G1 X125.000 Y180.060 Z0 F600
G1 X126.000 Y180.060 Z0 F600
G1 X127.000 Y180.060 Z0 F600
G1 X128.000 Y180.060 Z0 F600
G1 X129.000 Y180.060 Z0 F600
G0 Z1.6
G0 X131.000 Y180.060 Z1.6
G1 X131.000 Y180.060 Z0 F600
G1 X132.000 Y180.060 Z0 F600
G1 X133.000 Y180.060 Z0 F600
G1 X134.000 Y180.060 Z0 F600
G1 X135.000 Y180.060 Z0 F600
G1 X136.000 Y180.060 Z0 F600
G1 X137.000 Y180.060 Z0 F600
G1 X138.000 Y180.060 Z0 F600
G1 X139.000 Y180.060 Z0 F600
G1 X140.000 Y180.060 Z0 F600
G1 X141.000 Y180.060 Z0 F600
G1 X142.000 Y180.060 Z0 F600
G1 X143.000 Y180.060 Z0 F600
G1 X144.000 Y180.060 Z0 F600
G1 X145.000 Y180.060 Z0 F600
G1 X146.000 Y180.060 Z0 F600
G1 X147.000 Y180.060 Z0 F600
G1 X148.000 Y180.060 Z0 F600
G1 X149.000 Y180.060 Z0 F600
G1 X150.000 Y180.060 Z0 F600
G1 X151.000 Y180.060 Z0 F600
G1 X152.000 Y180.060 Z0 F600
G1 X153.000 Y180.060 Z0 F600
G1 X154.000 Y180.060 Z0 F600
G1 X155.000 Y180.060 Z0 F600
G1 X156.000 Y180.060 Z0 F600
G1 X157.000 Y180.060 Z0 F600
G1 X158.000 Y180.060 Z0 F600
G1 X159.000 Y180.060 Z0 F600
G1 X160.000 Y180.060 Z0 F600
G1 X161.000 Y180.060 Z0 F600
G1 X162.000 Y180.060 Z0 F600
G1 X163.000 Y180.060 Z0 F600
G1 X164.000 Y180.060 Z0 F600
G1 X165.000 Y180.060 Z0 F600
G1 X166.000 Y180.060 Z0 F600
G1 X167.000 Y180.060 Z0 F600
G1 X168.000 Y180.060 Z0 F600
G1 X169.000 Y180.060 Z0 F600
G1 X170.000 Y180.060 Z0 F600
G1 X171.000 Y180.060 Z0 F600
G1 X172.000 Y180.060 Z0 F600
G1 X173.000 Y180.060 Z0 F600
G1 X174.000 Y180.060 Z0 F600
G1 X175.000 Y180.060 Z0 F600
G1 X176.000 Y180.060 Z0 F600
G1 X177.000 Y180.060 Z0 F600
G1 X178.000 Y180.060 Z0 F600
; Dip needed
G0 X91 Y25 Z16
G1 Z3.2 F600
G4 P300
G0 X179.000 Y180.060 Z1.6 F1500
G1 X179.000 Y180.060 Z0 F600
G1 X180.000 Y180.060 Z0 F600
G1 X181.000 Y180.060 Z0 F600
G1 X182.000 Y180.060 Z0 F600
G1 X183.000 Y180.060 Z0 F600
G1 X184.000 Y180.060 Z0 F600
G1 X185.000 Y180.060 Z0 F600
G1 X186.000 Y180.060 Z0 F600
G1 X187.000 Y180.060 Z0 F600
G1 X188.000 Y180.060 Z0 F600
G1 X189.000 Y180.060 Z0 F600
G1 X190.000 Y180.060 Z0 F600
G1 X191.000 Y180.060 Z0 F600
G1 X192.000 Y180.060 Z0 F600
G1 X193.000 Y180.060 Z0 F600
G1 X194.000 Y180.060 Z0 F600
G1 X195.000 Y180.060 Z0 F600
G1 X196.000 Y180.060 Z0 F600
G1 X197.000 Y180.060 Z0 F600
G1 X198.000 Y180.060 Z0 F600
G1 X199.000 Y180.060 Z0 F600
G1 X200.000 Y180.060 Z0 F600
G1 X201.000 Y180.060 Z0 F600
G1 X202.000 Y180.060 Z0 F600
G1 X203.000 Y180.060 Z0 F600
G1 X204.000 Y180.060 Z0 F600
G1 X205.000 Y180.060 Z0 F600
G1 X206.000 Y180.060 Z0 F600
G1 X207.000 Y180.060 Z0 F600
G1 X208.000 Y180.060 Z0 F600
G1 X209.000 Y180.060 Z0 F600
G1 X210.000 Y180.060 Z0 F600
G1 X211.000 Y180.060 Z0 F600
G1 X212.000 Y180.060 Z0 F600
G1 X213.000 Y180.060 Z0 F600
G1 X214.000 Y180.060 Z0 F600
G1 X215.000 Y180.060 Z0 F600
G1 X216.000 Y180.060 Z0 F600
G1 X217.000 Y180.060 Z0 F600
G1 X218.000 Y180.060 Z0 F600
G1 X219.000 Y180.060 Z0 F600
G1 X220.000 Y180.060 Z0 F600
G1 X221.000 Y180.060 Z0 F600
G1 X222.000 Y180.060 Z0 F600
G1 X223.000 Y180.060 Z0 F600
G1 X224.000 Y180.060 Z0 F600
G1 X225.000 Y180.060 Z0 F600
G1 X226.000 Y180.060 Z0 F600
G1 X227.000 Y180.060 Z0 F600
G1 X228.000 Y180.060 Z0 F600
G1 X229.000 Y180.060 Z0 F600
G1 X230.000 Y180.060 Z0 F600
G1 X231.000 Y180.060 Z0 F600
G1 X232.000 Y180.060 Z0 F600
G1 X233.000 Y180.060 Z0 F600
G1 X234.000 Y180.060 Z0 F600
G1 X235.000 Y180.060 Z0 F600
G1 X236.000 Y180.060 Z0 F600
G1 X237.000 Y180.060 Z0 F600
G1 X238.000 Y180.060 Z0 F600
G0 Z1.6
G0 X252.000 Y180.060 Z1.6
G1 X252.000 Y180.060 Z0 F600
G1 X253.000 Y180.060 Z0 F600
G1 X254.000 Y180.060 Z0 F600
G0 Z1.6
G0 X284.000 Y180.060 Z1.6
G1 X284.000 Y180.060 Z0 F600
G1 X285.000 Y180.060 Z0 F600
G1 X286.000 Y180.060 Z0 F600
G0 Z1.6
G0 X30.000 Y183.840 Z1.6
G1 X30.000 Y183.840 Z0 F600
G1 X31.000 Y183.840 Z0 F600
G1 X32.000 Y183.840 Z0 F600
G1 X33.000 Y183.840 Z0 F600
G1 X34.000 Y183.840 Z0 F600
G0 Z1.6
G0 X63.000 Y183.840 Z1.6
G1 X63.000 Y183.840 Z0 F600
G1 X64.000 Y183.840 Z0 F600
G0 Z1.6
G0 X81.000 Y183.840 Z1.6
G1 X81.000 Y183.840 Z0 F600
G1 X82.000 Y183.840 Z0 F600
G1 X83.000 Y183.840 Z0 F600
G1 X84.000 Y183.840 Z0 F600
G1 X85.000 Y183.840 Z0 F600
G1 X86.000 Y183.840 Z0 F600
G1 X87.000 Y183.840 Z0 F600
G1 X88.000 Y183.840 Z0 F600
G0 Z1.6
G0 X92.000 Y183.840 Z1.6
G1 X92.000 Y183.840 Z0 F600
G1 X93.000 Y183.840 Z0 F600
G1 X94.000 Y183.840 Z0 F600
G1 X95.000 Y183.840 Z0 F600
G1 X96.000 Y183.840 Z0 F600
G1 X97.000 Y183.840 Z0 F600
G0 Z1.6
G0 X101.000 Y183.840 Z1.6
G1 X101.000 Y183.840 Z0 F600
G1 X102.000 Y183.840 Z0 F600
G1 X103.000 Y183.840 Z0 F600
G1 X104.000 Y183.840 Z0 F600
G1 X105.000 Y183.840 Z0 F600
G1 X106.000 Y183.840 Z0 F600
G1 X107.000 Y183.840 Z0 F600
G1 X108.000 Y183.840 Z0 F600
G1 X109.000 Y183.840 Z0 F600
G1 X110.000 Y183.840 Z0 F600
G0 Z1.6
G0 X114.000 Y183.840 Z1.6
G1 X114.000 Y183.840 Z0 F600
G1 X115.000 Y183.840 Z0 F600
G1 X116.000 Y183.840 Z0 F600
G1 X117.000 Y183.840 Z0 F600
G1 X118.000 Y183.840 Z0 F600
G1 X119.000 Y183.840 Z0 F600
G0 Z1.6
G0 X121.000 Y183.840 Z1.6
G1 X121.000 Y183.840 Z0 F600
G1 X122.000 Y183.840 Z0 F600
G1 X123.000 Y183.840 Z0 F600
G1 X124.000 Y183.840 Z0 F600
G1 X125.000 Y183.840 Z0 F600
G1 X126.000 Y183.840 Z0 F600
G1 X127.000 Y183.840 Z0 F600
G1 X128.000 Y183.840 Z0 F600
G1 X129.000 Y183.840 Z0 F600
G1 X130.000 Y183.840 Z0 F600
G1 X131.000 Y183.840 Z0 F600
G1 X132.000 Y183.840 Z0 F600
G1 X133.000 Y183.840 Z0 F600
G1 X134.000 Y183.840 Z0 F600
G1 X135.000 Y183.840 Z0 F600
G1 X136.000 Y183.840 Z0 F600
G1 X137.000 Y183.840 Z0 F600
G1 X138.000 Y183.840 Z0 F600
G1 X139.000 Y183.840 Z0 F600
G1 X140.000 Y183.840 Z0 F600
G1 X141.000 Y183.840 Z0 F600
G1 X142.000 Y183.840 Z0 F600
G1 X143.000 Y183.840 Z0 F600
G1 X144.000 Y183.840 Z0 F600
G1 X145.000 Y183.840 Z0 F600
G1 X146.000 Y183.840 Z0 F600
G1 X147.000 Y183.840 Z0 F600
G1 X148.000 Y183.840 Z0 F600
G1 X149.000 Y183.840 Z0 F600
G1 X150.000 Y183.840 Z0 F600
G1 X151.000 Y183.840 Z0 F600
G1 X152.000 Y183.840 Z0 F600
G1 X153.000 Y183.840 Z0 F600
G1 X154.000 Y183.840 Z0 F600
G1 X155.000 Y183.840 Z0 F600
G1 X156.000 Y183.840 Z0 F600
G1 X157.000 Y183.840 Z0 F600
G1 X158.000 Y183.840 Z0 F600
G1 X159.000 Y183.840 Z0 F600
G1 X160.000 Y183.840 Z0 F600
; Dip needed
G0 X91 Y25 Z16
G1 Z3.2 F600
G4 P300
G0 X161.000 Y183.840 Z1.6 F1500
G1 X161.000 Y183.840 Z0 F600
G1 X162.000 Y183.840 Z0 F600
G1 X163.000 Y183.840 Z0 F600
G1 X164.000 Y183.840 Z0 F600
G1 X165.000 Y183.840 Z0 F600
G1 X166.000 Y183.840 Z0 F600
G1 X167.000 Y183.840 Z0 F600
G1 X168.000 Y183.840 Z0 F600
G1 X169.000 Y183.840 Z0 F600
G1 X170.000 Y183.840 Z0 F600
G1 X171.000 Y183.840 Z0 F600
G1 X172.000 Y183.840 Z0 F600
G1 X173.000 Y183.840 Z0 F600
G1 X174.000 Y183.840 Z0 F600
G1 X175.000 Y183.840 Z0 F600
G1 X176.000 Y183.840 Z0 F600
G1 X177.000 Y183.840 Z0 F600
G1 X178.000 Y183.840 Z0 F600
G1 X179.000 Y183.840 Z0 F600
G1 X180.000 Y183.840 Z0 F600
G1 X181.000 Y183.840 Z0 F600
G1 X182.000 Y183.840 Z0 F600
G1 X183.000 Y183.840 Z0 F600
G1 X184.000 Y183.840 Z0 F600
G1 X185.000 Y183.840 Z0 F600
G0 Z1.6
G0 X187.000 Y183.840 Z1.6
G1 X187.000 Y183.840 Z0 F600
G1 X188.000 Y183.840 Z0 F600
G1 X189.000 Y183.840 Z0 F600
G1 X190.000 Y183.840 Z0 F600
G1 X191.000 Y183.840 Z0 F600
G1 X192.000 Y183.840 Z0 F600
G1 X193.000 Y183.840 Z0 F600
G1 X194.000 Y183.840 Z0 F600
G1 X195.000 Y183.840 Z0 F600
G1 X196.000 Y183.840 Z0 F600
G1 X197.000 Y183.840 Z0 F600
G1 X198.000 Y183.840 Z0 F600
G1 X199.000 Y183.840 Z0 F600
G1 X200.000 Y183.840 Z0 F600
G1 X201.000 Y183.840 Z0 F600
G1 X202.000 Y183.840 Z0 F600
G1 X203.000 Y183.840 Z0 F600
G1 X204.000 Y183.840 Z0 F600
G1 X205.000 Y183.840 Z0 F600
G1 X206.000 Y183.840 Z0 F600
G1 X207.000 Y183.840 Z0 F600
G1 X208.000 Y183.840 Z0 F600
G1 X209.000 Y183.840 Z0 F600
G1 X210.000 Y183.840 Z0 F600
G1 X211.000 Y183.840 Z0 F600
G1 X212.000 Y183.840 Z0 F600
G1 X213.000 Y183.840 Z0 F600
G1 X214.000 Y183.840 Z0 F600
G1 X215.000 Y183.840 Z0 F600
G1 X216.000 Y183.840 Z0 F600
G1 X217.000 Y183.840 Z0 F600
G1 X218.000 Y183.840 Z0 F600
G1 X219.000 Y183.840 Z0 F600
G1 X220.000 Y183.840 Z0 F600
G1 X221.000 Y183.840 Z0 F600
G1 X222.000 Y183.840 Z0 F600
G1 X223.000 Y183.840 Z0 F600
G1 X224.000 Y183.840 Z0 F600
G1 X225.000 Y183.840 Z0 F600
G1 X226.000 Y183.840 Z0 F600
G1 X227.000 Y183.840 Z0 F600
G1 X228.000 Y183.840 Z0 F600
G1 X229.000 Y183.840 Z0 F600
G1 X230.000 Y183.840 Z0 F600
G1 X231.000 Y183.840 Z0 F600
G1 X232.000 Y183.840 Z0 F600
G1 X233.000 Y183.840 Z0 F600
G1 X234.000 Y183.840 Z0 F600
G1 X235.000 Y183.840 Z0 F600
G1 X236.000 Y183.840 Z0 F600
G1 X237.000 Y183.840 Z0 F600
G1 X238.000 Y183.840 Z0 F600
G1 X239.000 Y183.840 Z0 F600
G1 X240.000 Y183.840 Z0 F600
G1 X241.000 Y183.840 Z0 F600
G1 X242.000 Y183.840 Z0 F600
G1 X243.000 Y183.840 Z0 F600
G1 X244.000 Y183.840 Z0 F600
G1 X245.000 Y183.840 Z0 F600
G1 X246.000 Y183.840 Z0 F600
G0 Z1.6
G0 X251.000 Y183.840 Z1.6
G1 X251.000 Y183.840 Z0 F600
G1 X252.000 Y183.840 Z0 F600
G1 X253.000 Y183.840 Z0 F600
G1 X254.000 Y183.840 Z0 F600
G1 X255.000 Y183.840 Z0 F600
G0 Z1.6
G0 X272.000 Y183.840 Z1.6
G1 X272.000 Y183.840 Z0 F600
G1 X273.000 Y183.840 Z0 F600
G1 X274.000 Y183.840 Z0 F600
G1 X275.000 Y183.840 Z0 F600
G1 X276.000 Y183.840 Z0 F600
G0 Z1.6
G0 X293.000 Y183.840 Z1.6
G1 X293.000 Y183.840 Z0 F600
G1 X294.000 Y183.840 Z0 F600
G1 X295.000 Y183.840 Z0 F600
G0 X20.000 Y187.620 Z1.6
G1 X20.000 Y187.620 Z0 F600
G1 X21.000 Y187.620 Z0 F600
G1 X22.000 Y187.620 Z0 F600
G0 Z1.6
G0 X31.000 Y187.620 Z1.6
G1 X31.000 Y187.620 Z0 F600
G1 X32.000 Y187.620 Z0 F600
G1 X33.000 Y187.620 Z0 F600
G0 Z1.6
G0 X51.000 Y187.620 Z1.6
G1 X51.000 Y187.620 Z0 F600
G1 X52.000 Y187.620 Z0 F600
G1 X53.000 Y187.620 Z0 F600
G1 X54.000 Y187.620 Z0 F600
