;LightBurn 1.6.04
;Custom GCode device profile, absolute coords
;Bounds: X8.81 Y34.65 to X139.19 Y135.35
G00 G17 G40 G21 G54
G90
M3
G1 Z10 F1000
;Cut @ 1500 mm/min, 90% power

M8
G0 Z3.5 F1000
G0 X17.146 Y34.646 Z3.5 
G1 Z0 F1000
;Layer C1
G1 Y135.355 Z0 S900 F1600
G0 Z3.5 F1000
G0 X26.576 Z3.5 F1500
G1 Z0 F1000
G1 Y34.646 Z0 F1600
G0 Z3.5 F1000
G0 X36.006 Z3.5 
G1 Z0 F1000
G1 Y135.355 Z0 F1600
G0 Z3.5 F1000
G0 X45.436 Z3.5 
G1 Z0 F1000
G1 Y34.646 Z0 F1600
G0 Z3.5 F1000
G0 X54.866 Z3.5 
G1 Z0 F1000
G1 Y135.355 Z0 F1600
G0 Z3.5 F1000
G0 X64.296 Z3.5 
G1 Z0 F1000
G1 Y34.646 Z0 F1600
G0 Z3.5 F1000
G0 X73.726 Z3.5 
G1 Z0 F1000
G1 Y135.355 Z0 F1600
G0 Z3.5 F1000
G0 X83.156 Z3.5 
G1 Z0 F1000
G1 Y34.646 Z0 F1600
G0 Z3.5 F1000
G0 X92.586 Z3.5 
G1 Z0 F1000
G1 Y135.355 Z0 F1600
G0 Z3.5 F1000
G0 X102.016 Z3.5 
G1 Z0 F1000
G1 Y34.646 Z0 F1600
G0 Z3.5 F1000
G0 X111.446 Z3.5 
G1 Z0 F1000
G1 Y135.355 Z0 F1600
G0 Z3.5 F1000
G0 X120.876 Z3.5 
G1 Z0 F1000
G1 Y34.646 Z0 F1600
G0 Z3.5 F1000
G0 X130.306 Z3.5 
G1 Z0 F1000
G1 Y135.355 Z0 F1600
G0 Z3.5 F1000
G0 X139.186 Y132.334 Z3.5 
G1 Z0 F1000
G1 X8.814 Z0 F1600
G0 Z3.5 F1000
G0 Y122.904 Z3.5 
G1 Z0 F1000
G1 X139.186 Z0 F1600
G0 Z3.5 F1000
G0 Y113.473 Z3.5 
G1 Z0 F1000
G1 X8.814 Z0 F1600
G0 Z3.5 F1000
G0 Y104.043 Z3.5 
G1 Z0 F1000
G1 X139.186 Z0 F1600
G0 Z3.5 F1000
G0 Y94.613 Z3.5 
G1 Z0 F1000
G1 X8.814 Z0 F1600
G0 Z3.5 F1000
G0 Y85.183 Z3.5 
G1 Z0 F1000
G1 X139.186 Z0 F1600
G0 Z3.5 F1000
G0 Y75.753 Z3.5 
G1 Z0 F1000
G1 X8.814 Z0 F1600
G0 Z3.5 F1000
G0 Y66.323 Z3.5 
G1 Z0 F1000
G1 X139.186 Z0 F1600
G0 Z3.5 F1000
G0 Y56.893 Z3.5 
G1 Z0 F1000
G1 X8.814 Z0 F1600
G0 Z3.5 F1000
G0 Y47.463 Z3.5 
G1 Z0 F1000
G1 X139.186 Z0 F1600
G0 Z3.5 F1000
G0 Y38.033 Z3.5 
G1 Z0 F1000
G1 X8.814 Z0 F1600
M9
M5
G1 Z10 F1000
G90
G1 Z10 F800
