;LightBurn 1.6.04
;Custom GCode device profile, absolute coords
;Bounds: X20.94 Y67.16 to X93.06 Y76.84
G00 G17 G40 G21 G54
G90
G1 Z10 F1000
;Cut @ 1500 mm/min, 90% power

M8
G0 Z2.8F1000
G0 X23.404Y68.333Z2.8
G1 Z0F1000
;Layer C00
G1 X23.569Y68.585Z0S900F1800
G1 X23.702Y68.803Z0F1800
G1 X23.812Y68.995Z0F1800
G1 X23.908Y69.166Z0F1800
G1 X24.089Y69.473Z0F1800
G1 X24.317Y69.778Z0F1800
G1 X24.669Y70.484Z0F1800
G1 X24.784Y70.729Z0F1800
G1 X24.879Y70.957Z0F1800
G1 X25.006Y71.186Z0F1800
G1 X25.179Y71.452Z0F1800
G1 X25.34Y71.723Z0F1800
G1 X25.427Y71.965Z0F1800
G1 X25.545Y72.213Z0F1800
G1 X25.64Y72.393Z0F1800
G1 X25.719Y72.528Z0F1800
G1 X25.788Y72.642Z0F1800
G1 X25.856Y72.758Z0F1800
G1 X25.927Y72.897Z0F1800
G1 X26.01Y73.083Z0F1800
G1 X26.112Y73.339Z0F1800
G1 X26.262Y73.563Z0F1800
G1 X26.4Y73.83Z0F1800
G1 X26.513Y74.104Z0F1800
G1 X26.591Y74.348Z0F1800
G1 X26.832Y74.892Z0F1800
G1 X27.054Y75.438Z0F1800
G0 Z2.8F1000
G0 X21.64Y73.342Z2.8F1500
G1 Z0F1000
G1 X21.645Y73.539Z0F1800
G1 X21.659Y73.732Z0F1800
G1 X21.701Y73.92Z0F1800
G1 X21.787Y74.1Z0F1800
G1 X21.992Y74.366Z0F1800
G1 X22.213Y74.614Z0F1800
G1 X22.465Y74.85Z0F1800
G1 X22.765Y75.078Z0F1800
G1 X23.087Y75.21Z0F1800
G1 X23.377Y75.387Z0F1800
G1 X23.523Y75.471Z0F1800
G1 X23.678Y75.541Z0F1800
G1 X23.847Y75.587Z0F1800
G1 X24.036Y75.602Z0F1800
G1 X24.481Y75.745Z0F1800
G1 X24.944Y75.831Z0F1800
G1 X25.418Y75.874Z0F1800
G1 X25.898Y75.887Z0F1800
G1 X26.606Y75.838Z0F1800
G1 X27.313Y75.776Z0F1800
G1 X27.74Y75.767Z0F1800
G1 X28.162Y75.728Z0F1800
G1 X28.58Y75.668Z0F1800
G1 X28.996Y75.597Z0F1800
G1 X29.739Y75.379Z0F1800
G1 X30.527Y75.12Z0F1800
G1 X30.835Y74.979Z0F1800
G1 X31.105Y74.831Z0F1800
G1 X31.694Y74.476Z0F1800
G1 X31.975Y74.278Z0F1800
G1 X32.227Y74.003Z0F1800
G1 X32.335Y73.836Z0F1800
G1 X32.427Y73.649Z0F1800
G1 X32.5Y73.443Z0F1800
G1 X32.552Y73.217Z0F1800
G1 X32.579Y72.95Z0F1800
G1 X32.535Y72.636Z0F1800
G1 X32.48Y72.474Z0F1800
G1 X32.4Y72.315Z0F1800
G1 X32.293Y72.164Z0F1800
G1 X32.156Y72.027Z0F1800
G1 X31.879Y71.767Z0F1800
G1 X31.552Y71.468Z0F1800
G1 X31.211Y71.18Z0F1800
G1 X30.892Y70.956Z0F1800
G1 X30.576Y70.713Z0F1800
G1 X30.218Y70.478Z0F1800
G1 X29.511Y70.049Z0F1800
G1 X29.3Y69.924Z0F1800
G1 X29.109Y69.839Z0F1800
G1 X28.987Y69.786Z0F1800
G1 X28.829Y69.714Z0F1800
G1 X28.621Y69.613Z0F1800
G1 X28.351Y69.472Z0F1800
G1 X28.151Y69.339Z0F1800
G1 X27.917Y69.2Z0F1800
G1 X27.658Y69.057Z0F1800
G1 X27.381Y68.911Z0F1800
G1 X26.806Y68.616Z0F1800
G1 X26.254Y68.331Z0F1800
G1 X25.499Y68.028Z0F1800
G1 X24.752Y67.731Z0F1800
G1 X23.77Y67.476Z0F1800
G1 X22.815Y67.224Z0F1800
G1 X22.713Y67.177Z0F1800
G1 X22.56Y67.16Z0F1800
G1 X22.377Y67.164Z0F1800
G1 X22.18Y67.181Z0F1800
G1 X21.821Y67.219Z0F1800
G1 X21.697Y67.223Z0F1800
G1 X21.539Y67.179Z0F1800
G1 X21.394Y67.209Z0F1800
G1 X21.23Y67.284Z0F1800
G1 X21.08Y67.39Z0F1800
G1 X20.974Y67.515Z0F1800
G1 X20.944Y67.646Z0F1800
G1 X20.968Y67.71Z0F1800
G1 X21.022Y67.771Z0F1800
G1 X21.112Y67.827Z0F1800
G1 X21.24Y67.876Z0F1800
G1 X21.302Y67.917Z0F1800
G1 X21.358Y67.96Z0F1800
G0 Z2.8F1000
G0 X38.029Y74.749Z2.8
G1 Z0F1000
G1 Y74.806Z0F1800
G1 X38.023Y74.863Z0F1800
G1 X38Y74.915Z0F1800
G1 X37.958Y74.956Z0F1800
G1 X37.899Y75.023Z0F1800
G1 X37.861Y75.101Z0F1800
G1 X37.786Y75.156Z0F1800
G0 Z2.8F1000
G0 X39.813Y74.876Z2.8
G1 Z0F1000
G1 X39.871Y74.797Z0F1800
G1 X39.891Y74.705Z0F1800
G1 X39.879Y74.652Z0F1800
G1 X39.832Y74.62Z0F1800
G1 X39.762Y74.601Z0F1800
G1 X39.696Y74.576Z0F1800
G1 X39.576Y74.507Z0F1800
G1 X39.522Y74.467Z0F1800
G1 X39.476Y74.417Z0F1800
G1 X39.447Y74.372Z0F1800
G1 X39.42Y74.326Z0F1800
G1 X39.36Y74.242Z0F1800
G0 Z2.8F1000
G0 X32.91Y71.609Z2.8
G1 Z0F1000
G1 X32.356Y71.522Z0F1800
G1 X31.789Y71.357Z0F1800
G1 X31.528Y71.238Z0F1800
G1 X31.297Y71.092Z0F1800
G1 X31.107Y70.917Z0F1800
G1 X30.97Y70.709Z0F1800
G1 X30.843Y70.499Z0F1800
G1 X30.719Y70.252Z0F1800
G1 X30.615Y69.982Z0F1800
G1 X30.547Y69.704Z0F1800
G1 X30.528Y69.433Z0F1800
G1 X30.576Y69.182Z0F1800
G1 X30.629Y69.069Z0F1800
G1 X30.705Y68.967Z0F1800
G1 X30.804Y68.878Z0F1800
G1 X30.93Y68.803Z0F1800
G1 X31.203Y68.813Z0F1800
G1 X31.466Y68.866Z0F1800
G1 X31.717Y68.957Z0F1800
G1 X31.954Y69.082Z0F1800
G1 X32.175Y69.234Z0F1800
G1 X32.378Y69.408Z0F1800
G1 X32.56Y69.601Z0F1800
G1 X32.721Y69.806Z0F1800
G1 X33.184Y70.592Z0F1800
G1 X33.596Y71.398Z0F1800
G1 X33.759Y71.763Z0F1800
G1 X33.951Y72.135Z0F1800
G1 X33.991Y72.19Z0F1800
G1 X34.025Y72.22Z0F1800
G1 X34.051Z0F1800
G1 X34.068Y72.182Z0F1800
G1 X34.073Y72.105Z0F1800
G1 X34.066Y71.981Z0F1800
G1 X34.045Y71.807Z0F1800
G1 X34.007Y71.576Z0F1800
G1 X33.841Y71.141Z0F1800
G1 X33.6Y70.641Z0F1800
G1 X33.511Y70.395Z0F1800
G1 X33.473Y70.165Z0F1800
G1 X33.481Y70.06Z0F1800
G1 X33.51Y69.964Z0F1800
G1 X33.565Y69.877Z0F1800
G1 X33.647Y69.801Z0F1800
G1 X33.73Y69.715Z0F1800
G1 X33.821Y69.661Z0F1800
G1 X33.917Y69.636Z0F1800
G1 X34.017Z0F1800
G1 X34.223Y69.707Z0F1800
G1 X34.425Y69.85Z0F1800
G1 X34.61Y70.045Z0F1800
G1 X34.765Y70.269Z0F1800
G1 X34.875Y70.502Z0F1800
G1 X34.93Y70.721Z0F1800
G1 X35.131Y71.161Z0F1800
G1 X35.432Y71.613Z0F1800
G1 X35.568Y71.779Z0F1800
G1 X35.669Y71.872Z0F1800
G1 X35.7Y71.882Z0F1800
G1 X35.714Y71.865Z0F1800
G1 X35.71Y71.816Z0F1800
G1 X35.683Y71.733Z0F1800
G1 X35.511Y71.281Z0F1800
G1 X35.463Y71.122Z0F1800
G1 X35.447Y70.995Z0F1800
G1 X35.38Y70.823Z0F1800
G1 X35.331Y70.607Z0F1800
G1 X35.308Y70.373Z0F1800
G1 X35.321Y70.15Z0F1800
G1 X35.382Y69.962Z0F1800
G1 X35.499Y69.836Z0F1800
G1 X35.583Y69.805Z0F1800
G1 X35.684Y69.8Z0F1800
G1 X35.805Y69.823Z0F1800
G1 X35.947Y69.879Z0F1800
G1 X36.19Y70.233Z0F1800
G1 X36.392Y70.622Z0F1800
G1 X36.547Y71.003Z0F1800
G1 X36.647Y71.33Z0F1800
G1 X36.807Y71.655Z0F1800
G1 X37.043Y71.942Z0F1800
G1 X37.142Y72.016Z0F1800
G1 X37.204Z0F1800
G1 X37.214Y71.981Z0F1800
G1 X37.208Y71.919Z0F1800
G1 X37.184Y71.828Z0F1800
G1 X36.939Y71.173Z0F1800
G1 X36.798Y70.658Z0F1800
G1 X36.761Y70.426Z0F1800
G1 X36.755Y70.221Z0F1800
G1 X36.782Y70.052Z0F1800
G1 X36.849Y69.925Z0F1800
G1 X36.997Y70.012Z0F1800
G1 X37.144Y70.191Z0F1800
G1 X37.289Y70.433Z0F1800
G1 X37.432Y70.707Z0F1800
G1 X37.575Y70.986Z0F1800
G1 X37.716Y71.239Z0F1800
G1 X37.857Y71.438Z0F1800
G1 X37.996Y71.554Z0F1800
G1 X38.118Y71.635Z0F1800
G1 X38.248Y71.728Z0F1800
G1 X38.298Y71.749Z0F1800
G1 X38.329Y71.738Z0F1800
G1 X38.334Y71.684Z0F1800
G1 X38.305Y71.574Z0F1800
G1 X38.077Y70.919Z0F1800
G1 X37.988Y70.638Z0F1800
G1 X37.928Y70.39Z0F1800
G1 X37.905Y70.176Z0F1800
G1 X37.928Y69.996Z0F1800
G1 X38.006Y69.853Z0F1800
G1 X38.149Y69.746Z0F1800
G1 X38.344Y69.757Z0F1800
G1 X38.539Y69.866Z0F1800
G1 X38.73Y70.046Z0F1800
G1 X38.915Y70.274Z0F1800
G1 X39.089Y70.525Z0F1800
G1 X39.396Y70.997Z0F1800
G1 X39.523Y71.169Z0F1800
G1 X39.751Y71.515Z0F1800
G1 X39.918Y71.827Z0F1800
G1 X39.974Y71.913Z0F1800
G1 X40.007Y71.921Z0F1800
G1 X40.015Y71.889Z0F1800
G1 Y71.829Z0F1800
G1 X40.012Y71.737Z0F1800
G1 X40.001Y71.612Z0F1800
G1 X39.909Y71.163Z0F1800
G1 X39.811Y70.742Z0F1800
G1 X39.796Y70.54Z0F1800
G1 X39.824Y70.343Z0F1800
G1 X39.909Y70.152Z0F1800
G1 X40.067Y69.965Z0F1800
G1 X40.175Y69.942Z0F1800
G1 X40.264Y69.946Z0F1800
G1 X40.336Y69.975Z0F1800
G1 X40.395Y70.026Z0F1800
G1 X40.481Y70.178Z0F1800
G1 X40.541Y70.376Z0F1800
G1 X40.596Y70.595Z0F1800
G1 X40.664Y70.807Z0F1800
G1 X40.766Y70.988Z0F1800
G1 X40.922Y71.111Z0F1800
G1 X40.992Y71.18Z0F1800
G1 X41.052Y71.226Z0F1800
G1 X41.106Y71.246Z0F1800
G1 X41.157Y71.234Z0F1800
G1 X41.206Y71.185Z0F1800
G1 X41.258Y71.094Z0F1800
G1 X41.315Y70.958Z0F1800
G1 X41.38Y70.77Z0F1800
G1 X41.438Y70.629Z0F1800
G1 X41.503Y70.527Z0F1800
G1 X41.576Y70.461Z0F1800
G1 X41.655Y70.428Z0F1800
G1 X41.827Y70.443Z0F1800
G1 X42.009Y70.546Z0F1800
G1 X42.368Y70.902Z0F1800
G1 X42.66Y71.27Z0F1800
G1 X42.837Y71.538Z0F1800
G1 X43.053Y71.999Z0F1800
G1 X43.115Y72.113Z0F1800
G1 X43.175Y72.184Z0F1800
G1 X43.233Y72.199Z0F1800
G1 X43.361Y71.991Z0F1800
G1 X43.451Y71.834Z0F1800
G1 X43.511Y71.68Z0F1800
G1 X43.61Y71.512Z0F1800
G1 X43.736Y71.353Z0F1800
G1 X43.879Y71.223Z0F1800
G1 X44.029Y71.145Z0F1800
G1 X44.175Y71.141Z0F1800
G1 X44.244Y71.173Z0F1800
G1 X44.307Y71.232Z0F1800
G1 X44.365Y71.321Z0F1800
G1 X44.415Y71.441Z0F1800
G1 X44.484Y71.913Z0F1800
G1 X44.51Y72.431Z0F1800
G1 X44.555Y72.949Z0F1800
G1 X44.68Y73.42Z0F1800
G1 X44.737Y73.778Z0F1800
G1 X44.75Y74.122Z0F1800
G1 X44.731Y74.473Z0F1800
G1 X44.694Y74.852Z0F1800
G1 X44.633Y75.222Z0F1800
G1 X44.544Y75.568Z0F1800
G1 X44.461Y75.907Z0F1800
G1 X44.42Y76.255Z0F1800
G1 X44.331Y76.447Z0F1800
G1 X44.303Y76.588Z0F1800
G1 X44.337Y76.626Z0F1800
G1 X44.415Y76.634Z0F1800
G1 X44.548Y76.608Z0F1800
G1 X44.744Y76.54Z0F1800
G1 X45.22Y76.416Z0F1800
G1 X45.67Y76.216Z0F1800
G1 X45.874Y76.09Z0F1800
G1 X46.059Y75.947Z0F1800
G1 X46.221Y75.789Z0F1800
G1 X46.355Y75.616Z0F1800
G1 X46.557Y75.255Z0F1800
G1 X46.72Y74.888Z0F1800
G1 X46.86Y74.516Z0F1800
G1 X46.993Y74.139Z0F1800
G1 X47.078Y73.863Z0F1800
G1 X47.102Y73.627Z0F1800
G1 X47.074Y73.383Z0F1800
G1 X47.001Y73.08Z0F1800
G1 X46.923Y72.687Z0F1800
G1 X46.875Y72.371Z0F1800
G1 X46.837Y72.216Z0F1800
G1 X46.775Y72.049Z0F1800
G1 X46.679Y71.859Z0F1800
G1 X46.539Y71.635Z0F1800
G1 X46.251Y71.318Z0F1800
G1 X45.97Y71.012Z0F1800
G1 X45.818Y70.872Z0F1800
G1 X45.653Y70.746Z0F1800
G1 X45.468Y70.636Z0F1800
G1 X45.259Y70.546Z0F1800
G1 X44.851Y70.336Z0F1800
G1 X44.438Y70.151Z0F1800
G1 X44.027Y69.963Z0F1800
G1 X43.624Y69.746Z0F1800
G1 X43.58Y69.694Z0F1800
G1 X43.566Y69.652Z0F1800
G1 X43.578Y69.619Z0F1800
G1 X43.613Y69.594Z0F1800
G1 X43.74Y69.565Z0F1800
G1 X43.92Y69.555Z0F1800
G1 X44.127Z0F1800
G1 X44.334Y69.562Z0F1800
G1 X44.516Z0F1800
G1 X44.645Y69.551Z0F1800
G1 X45.721Y69.509Z0F1800
G1 X46.254Y69.459Z0F1800
G1 X46.771Y69.355Z0F1800
G1 X47.088Y69.282Z0F1800
G1 X47.397Y69.191Z0F1800
G1 X47.695Y69.079Z0F1800
G1 X47.978Y68.943Z0F1800
G1 X48.084Y68.876Z0F1800
G1 X48.212Y68.779Z0F1800
G1 X48.373Y68.647Z0F1800
G1 X48.579Y68.476Z0F1800
G0 Z2.8F1000
G0 X60.915Y67.958Z2.8
G1 Z0F1000
G1 X61.156Y68.362Z0F1800
G1 X61.442Y68.763Z0F1800
G1 X61.756Y69.162Z0F1800
G1 X62.084Y69.562Z0F1800
G1 X62.409Y69.964Z0F1800
G1 X62.718Y70.369Z0F1800
G1 X62.994Y70.779Z0F1800
G1 X63.222Y71.195Z0F1800
G1 X63.741Y71.89Z0F1800
G1 X64.262Y72.63Z0F1800
G1 X64.539Y72.989Z0F1800
G1 X64.834Y73.327Z0F1800
G1 X65.155Y73.633Z0F1800
G1 X65.507Y73.896Z0F1800
G1 X65.791Y74.25Z0F1800
G1 X66.088Y74.562Z0F1800
G1 X66.232Y74.693Z0F1800
G1 X66.366Y74.803Z0F1800
G1 X66.486Y74.886Z0F1800
G1 X66.59Y74.94Z0F1800
G1 X66.672Y74.96Z0F1800
G1 X66.729Y74.943Z0F1800
G1 X66.756Y74.885Z0F1800
G1 X66.749Y74.782Z0F1800
G1 X66.705Y74.63Z0F1800
G1 X66.619Y74.425Z0F1800
G1 X66.488Y74.163Z0F1800
G1 X66.306Y73.841Z0F1800
G1 X66.053Y73.407Z0F1800
G1 X65.812Y73.031Z0F1800
G1 X65.58Y72.698Z0F1800
G1 X65.359Y72.393Z0F1800
G1 X64.945Y71.807Z0F1800
G1 X64.563Y71.155Z0F1800
G1 X64.39Y70.973Z0F1800
G1 X64.258Y70.806Z0F1800
G1 X64.166Y70.656Z0F1800
G1 X64.111Y70.524Z0F1800
G1 X64.091Y70.41Z0F1800
G1 X64.105Y70.315Z0F1800
G1 X64.151Y70.241Z0F1800
G1 X64.226Y70.188Z0F1800
G1 X64.33Y70.158Z0F1800
G1 X64.459Y70.151Z0F1800
G1 X64.612Y70.169Z0F1800
G1 X64.788Y70.212Z0F1800
G1 X64.983Y70.281Z0F1800
G1 X65.197Y70.378Z0F1800
G1 X65.427Y70.503Z0F1800
G1 X65.671Y70.657Z0F1800
G1 X66.032Y71.052Z0F1800
G1 X66.421Y71.498Z0F1800
G1 X66.501Y71.577Z0F1800
G1 X66.569Y71.633Z0F1800
G1 X66.621Y71.66Z0F1800
G1 X66.655Y71.653Z0F1800
G1 X66.668Y71.607Z0F1800
G1 X66.656Y71.516Z0F1800
G1 X66.618Y71.375Z0F1800
G1 X66.55Y71.178Z0F1800
G1 X66.425Y70.912Z0F1800
G1 X66.343Y70.565Z0F1800
G1 X66.31Y70.192Z0F1800
G1 X66.33Y69.847Z0F1800
G1 X66.362Y69.704Z0F1800
G1 X66.409Y69.588Z0F1800
G1 X66.472Y69.506Z0F1800
G1 X66.552Y69.467Z0F1800
G1 X66.649Y69.476Z0F1800
G1 X66.764Y69.541Z0F1800
G1 X66.898Y69.668Z0F1800
G1 X67.052Y69.864Z0F1800
G1 X67.433Y70.551Z0F1800
G0 Z2.8F1000
G0 X68.829Y69.26Z2.8
G1 Z0F1000
G1 X68.579Y68.988Z0F1800
G1 X68.404Y68.775Z0F1800
G1 X68.298Y68.617Z0F1800
G1 X68.254Y68.511Z0F1800
G1 X68.266Y68.451Z0F1800
G1 X68.327Y68.434Z0F1800
G1 X68.43Y68.455Z0F1800
G1 X68.57Y68.512Z0F1800
G1 X68.739Y68.598Z0F1800
G1 X68.931Y68.712Z0F1800
G1 X69.14Y68.847Z0F1800
G1 X69.36Y69.001Z0F1800
G1 X69.802Y69.347Z0F1800
G1 X70.207Y69.717Z0F1800
G1 X70.722Y70.21Z0F1800
G1 X71.178Y70.667Z0F1800
G1 X71.393Y70.905Z0F1800
G1 X71.604Y71.164Z0F1800
G1 X71.816Y71.452Z0F1800
G1 X72.031Y71.78Z0F1800
G1 X72.489Y72.269Z0F1800
G1 X72.951Y72.838Z0F1800
G1 X73.483Y73.527Z0F1800
G1 X73.796Y73.93Z0F1800
G1 X74.152Y74.377Z0F1800
G1 X74.459Y74.666Z0F1800
G1 X74.86Y74.977Z0F1800
G1 X75.326Y75.303Z0F1800
G1 X75.825Y75.635Z0F1800
G1 X76.328Y75.964Z0F1800
G1 X76.804Y76.28Z0F1800
G1 X77.222Y76.575Z0F1800
G1 X77.552Y76.84Z0F1800
G1 X77.543Y76.675Z0F1800
G1 X77.488Y76.497Z0F1800
G1 X77.396Y76.308Z0F1800
G1 X77.27Y76.109Z0F1800
G1 X76.942Y75.69Z0F1800
G1 X76.549Y75.256Z0F1800
G1 X76.136Y74.824Z0F1800
G1 X75.748Y74.408Z0F1800
G1 X75.577Y74.21Z0F1800
G1 X75.429Y74.023Z0F1800
G1 X75.31Y73.848Z0F1800
G1 X75.225Y73.686Z0F1800
G1 X74.57Y72.839Z0F1800
G1 X73.879Y72.076Z0F1800
G1 X73.56Y71.69Z0F1800
G1 X73.282Y71.283Z0F1800
G1 X73.06Y70.839Z0F1800
G1 X72.91Y70.345Z0F1800
G1 X73.034Y70.202Z0F1800
G1 X73.17Y70.096Z0F1800
G1 X73.317Y70.024Z0F1800
G1 X73.474Y69.983Z0F1800
G1 X73.812Z0F1800
G1 X74.171Y70.065Z0F1800
G1 X74.905Y70.38Z0F1800
G1 X75.579Y70.719Z0F1800
G1 X75.785Y70.832Z0F1800
G1 X76.028Y71.008Z0F1800
G1 X76.284Y71.219Z0F1800
G1 X76.532Y71.439Z0F1800
G1 X76.749Y71.643Z0F1800
G1 X76.911Y71.804Z0F1800
G1 X76.997Y71.896Z0F1800
G1 X77.004Y71.907Z0F1800
G1 X76.983Y71.891Z0F1800
G1 X76.916Y71.691Z0F1800
G1 X76.866Y71.513Z0F1800
G1 X76.831Y71.355Z0F1800
G1 X76.812Y71.216Z0F1800
G1 Y70.994Z0F1800
G1 X76.868Y70.84Z0F1800
G1 X76.965Y70.747Z0F1800
G1 X77.099Y70.708Z0F1800
G1 X77.266Y70.715Z0F1800
G1 X77.457Y70.761Z0F1800
G1 X77.888Y70.946Z0F1800
G1 X78.343Y71.204Z0F1800
G1 X78.771Y71.479Z0F1800
G1 X79.121Y71.715Z0F1800
G1 X79.218Y71.678Z0F1800
G1 X79.249Y71.612Z0F1800
G1 X79.225Y71.523Z0F1800
G1 X79.155Y71.414Z0F1800
G1 X78.92Y71.153Z0F1800
G1 X78.627Y70.863Z0F1800
G1 X78.485Y70.716Z0F1800
G1 X78.359Y70.575Z0F1800
G1 X78.259Y70.442Z0F1800
G1 X78.197Y70.323Z0F1800
G1 X78.182Y70.22Z0F1800
G1 X78.225Y70.139Z0F1800
G1 X78.336Y70.083Z0F1800
G1 X78.525Y70.056Z0F1800
G1 X78.737Y70.074Z0F1800
G1 X78.888Y70.048Z0F1800
G1 X78.926Y70Z0F1800
G1 X78.93Y69.918Z0F1800
G1 X78.895Y69.794Z0F1800
G1 X78.814Y69.621Z0F1800
G1 X78.639Y69.399Z0F1800
G1 X78.475Y69.13Z0F1800
G1 X78.348Y68.86Z0F1800
G1 X78.286Y68.631Z0F1800
G1 Y68.545Z0F1800
G1 X78.314Y68.486Z0F1800
G1 X78.371Y68.458Z0F1800
G1 X78.46Y68.468Z0F1800
G1 X78.586Y68.521Z0F1800
G1 X78.75Y68.622Z0F1800
G1 X78.958Y68.776Z0F1800
G1 X79.211Y68.989Z0F1800
G1 X79.558Y69.212Z0F1800
G1 X79.843Y69.45Z0F1800
G1 X80.092Y69.703Z0F1800
G1 X80.587Y70.264Z0F1800
G1 X80.888Y70.575Z0F1800
G1 X81.258Y70.907Z0F1800
G1 X81.726Y71.263Z0F1800
G1 X82.331Y71.982Z0F1800
G1 X82.928Y72.653Z0F1800
G1 X83.512Y73.269Z0F1800
G1 X84.08Y73.827Z0F1800
G1 X84.63Y74.322Z0F1800
G1 X85.157Y74.749Z0F1800
G1 X85.659Y75.104Z0F1800
G1 X86.133Y75.383Z0F1800
G1 X86.432Y75.563Z0F1800
G1 X86.709Y75.698Z0F1800
G1 X86.965Y75.796Z0F1800
G1 X87.199Y75.868Z0F1800
G1 X87.6Y75.966Z0F1800
G1 X87.909Y76.069Z0F1800
G1 X88.017Y76.093Z0F1800
G1 X88.098Y76.067Z0F1800
G1 X88.155Y75.996Z0F1800
G1 X88.19Y75.887Z0F1800
G1 X88.205Y75.745Z0F1800
G1 X88.202Y75.577Z0F1800
G1 X88.183Y75.388Z0F1800
G1 X88.15Y75.183Z0F1800
G1 X88.053Y74.753Z0F1800
G1 X87.928Y74.331Z0F1800
G1 X87.859Y74.139Z0F1800
G1 X87.79Y73.967Z0F1800
G1 X87.723Y73.82Z0F1800
G1 X87.659Y73.705Z0F1800
G1 X87.231Y72.967Z0F1800
G1 X86.833Y72.213Z0F1800
G1 X86.657Y71.828Z0F1800
G1 X86.502Y71.438Z0F1800
G1 X86.374Y71.042Z0F1800
G1 X86.277Y70.638Z0F1800
G1 X86.346Y70.524Z0F1800
G1 X86.454Y70.476Z0F1800
G1 X86.597Y70.485Z0F1800
G1 X86.77Y70.544Z0F1800
G1 X86.968Y70.646Z0F1800
G1 X87.186Y70.782Z0F1800
G1 X87.421Y70.944Z0F1800
G1 X87.666Y71.125Z0F1800
G1 X88.17Y71.512Z0F1800
G1 X88.662Y71.88Z0F1800
G1 X88.891Y72.037Z0F1800
G1 X89.102Y72.166Z0F1800
G1 X89.291Y72.259Z0F1800
G1 X89.454Y72.309Z0F1800
G1 X89.505Y72.489Z0F1800
G1 X89.599Y72.682Z0F1800
G1 X89.716Y72.862Z0F1800
G1 X89.834Y73.003Z0F1800
G1 X89.935Y73.079Z0F1800
G1 X89.998Y73.065Z0F1800
G1 X90.01Y73.016Z0F1800
G1 X90.004Y72.935Z0F1800
G1 X89.979Y72.818Z0F1800
G1 X89.933Y72.663Z0F1800
G1 X89.547Y72.076Z0F1800
G1 X89.125Y71.544Z0F1800
G1 X88.986Y71.289Z0F1800
G1 X88.94Y71.038Z0F1800
G1 X88.964Y70.913Z0F1800
G1 X89.024Y70.787Z0F1800
G1 X89.124Y70.66Z0F1800
G1 X89.27Y70.532Z0F1800
G1 X89.405Y70.358Z0F1800
G1 X89.528Y70.176Z0F1800
G0 Z2.8F1000
G0 X93.056Y74.566Z2.8
G1 Z0F1000
G1 X92.582Y74.547Z0F1800
G1 X92.155Y74.532Z0F1800
G1 X91.765Y74.521Z0F1800
G1 X90.704Y74.497Z0F1800
G1 X89.981Y74.475Z0F1800
G1 X89.582Y74.459Z0F1800
G1 X89.144Y74.436Z0F1800
G1 X88.655Y74.407Z0F1800
G1 X88.106Y74.37Z0F1800
G1 X87.485Y74.324Z0F1800
G1 X86.781Y74.267Z0F1800
G1 X85.985Y74.197Z0F1800
G1 X85.084Y74.115Z0F1800
G1 X83.916Y74.107Z0F1800
G1 X82.726Y74.052Z0F1800
G1 X81.536Y73.968Z0F1800
G1 X80.368Y73.873Z0F1800
G1 X80.265Y73.793Z0F1800
G1 X80.197Y73.726Z0F1800
G1 X80.159Y73.67Z0F1800
G1 X80.15Y73.626Z0F1800
G1 X80.199Y73.563Z0F1800
G1 X80.318Y73.526Z0F1800
G1 X80.652Y73.491Z0F1800
G1 X80.928Y73.436Z0F1800
M9
G1 Z10 F1000
G90
G1 Z10 F800
