;LightBurn 1.6.04
;Custom GCode device profile, absolute coords
;Bounds: X121.59 Y102.02 to X142.41 Y125.98
G00 G17 G40 G21 G54
G90
G1 Z10 F1000
;Cut @ 1500 mm/min, 90% power

M8
G0 Z2.8F1000
G0 X128.802Y106.706Z2.8
G1 Z0F1000
;Layer Blue
G1 X128.742Y106.748Z0S900F1800
G1 X128.652Y106.834Z0F1800
G1 X128.416Y107.053Z0F1800
G1 X128.111Y107.26Z0F1800
G1 X127.902Y107.375Z0F1800
G1 X127.668Y107.481Z0F1800
G1 X127.454Y107.558Z0F1800
G1 X127.308Y107.588Z0F1800
G1 X127.26Y107.595Z0F1800
G1 X127.241Y107.618Z0F1800
G1 X127.252Y107.661Z0F1800
G1 X127.366Y107.847Z0F1800
G1 X127.478Y108.042Z0F1800
G1 X127.609Y108.275Z0F1800
G1 X127.824Y108.673Z0F1800
G1 X127.893Y108.789Z0F1800
G1 X127.976Y108.943Z0F1800
G1 X128.132Y109.243Z0F1800
G1 X128.191Y109.349Z0F1800
G1 X128.251Y109.467Z0F1800
G1 X128.379Y109.73Z0F1800
G1 X128.737Y110.483Z0F1800
G1 X128.789Y110.576Z0F1800
G1 X128.821Y110.609Z0F1800
G1 X130.435Y109.629Z0F1800
G1 X130.528Y109.571Z0F1800
G1 X130.603Y109.518Z0F1800
G1 X130.654Y109.477Z0F1800
G1 X130.673Y109.453Z0F1800
G1 X130.659Y109.422Z0F1800
G1 X130.621Y109.359Z0F1800
G1 X130.564Y109.274Z0F1800
G1 X130.319Y108.928Z0F1800
G1 X129.933Y108.372Z0F1800
G1 X129.699Y108.023Z0F1800
G1 X129.343Y107.481Z0F1800
G1 X129.015Y106.976Z0F1800
G1 X128.909Y106.81Z0F1800
G1 X128.866Y106.739Z0F1800
G1 X128.841Y106.704Z0F1800
G1 X128.802Z0F1800
G0 Z2.8F1000
G0 X131.057Y109.818Z2.8F1500
G1 Z0F1000
G1 X130.946Y109.867Z0F1800
G1 X130.857Y109.916Z0F1800
G1 X130.742Y109.983Z0F1800
G1 X130.412Y110.183Z0F1800
G1 X129.912Y110.488Z0F1800
G1 X129.28Y110.866Z0F1800
G1 X129.034Y111.008Z0F1800
G1 X128.988Y111.032Z0F1800
G1 X128.984Y111.071Z0F1800
G1 X129.003Y111.17Z0F1800
G1 X129.041Y111.317Z0F1800
G1 X129.094Y111.499Z0F1800
G1 X129.233Y111.925Z0F1800
G1 X129.389Y112.352Z0F1800
G1 X129.663Y112.98Z0F1800
G1 X130.006Y113.623Z0F1800
G1 X130.217Y113.972Z0F1800
G1 X130.46Y114.352Z0F1800
G1 X130.742Y114.771Z0F1800
G1 X131.067Y115.239Z0F1800
G1 X131.957Y116.507Z0F1800
G1 X132.591Y117.401Z0F1800
G1 X132.887Y117.81Z0F1800
G1 X132.962Y117.91Z0F1800
G1 X134.339Y119.83Z0F1800
G1 X135.756Y121.812Z0F1800
G1 X136.678Y123.126Z0F1800
G1 X137.809Y124.755Z0F1800
G1 X137.929Y124.923Z0F1800
G1 X138.314Y125.485Z0F1800
G1 X138.499Y125.751Z0F1800
G1 X138.608Y125.902Z0F1800
G1 X138.638Y125.94Z0F1800
G1 X138.655Y125.958Z0F1800
G1 X138.753Y125.984Z0F1800
G1 X138.863Y125.958Z0F1800
G1 X138.952Y125.895Z0F1800
G1 X138.989Y125.807Z0F1800
G1 X138.979Y125.763Z0F1800
G1 X138.952Y125.68Z0F1800
G1 X138.907Y125.558Z0F1800
G1 X138.844Y125.397Z0F1800
G1 X138.763Y125.198Z0F1800
G1 X138.55Y124.688Z0F1800
G1 X137.889Y123.143Z0F1800
G1 X137.765Y122.858Z0F1800
G1 X137.678Y122.665Z0F1800
G1 X137.522Y122.299Z0F1800
G1 X137.246Y121.677Z0F1800
G1 X135.715Y118.181Z0F1800
G1 X134.894Y116.31Z0F1800
G1 X134.133Y114.597Z0F1800
G1 X133.923Y114.136Z0F1800
G1 X133.724Y113.709Z0F1800
G1 X133.534Y113.314Z0F1800
G1 X133.175Y112.609Z0F1800
G1 X132.835Y112.002Z0F1800
G1 X132.502Y111.471Z0F1800
G1 X132.164Y110.998Z0F1800
G1 X131.81Y110.562Z0F1800
G1 X131.428Y110.143Z0F1800
G1 X131.316Y110.028Z0F1800
G1 X131.145Y109.856Z0F1800
G1 X131.105Y109.82Z0F1800
G1 X131.057Z0F1800
G0 Z2.8F1000
G0 X132.423Y110.276Z2.8
G1 Z0F1000
G1 X132.324Y110.395Z0F1800
G1 X132.291Y110.472Z0F1800
G1 X132.317Y110.518Z0F1800
G1 X132.387Y110.587Z0F1800
G1 X132.5Y110.728Z0F1800
G1 X132.644Y110.923Z0F1800
G1 X132.806Y111.153Z0F1800
G1 X132.972Y111.399Z0F1800
G1 X133.131Y111.642Z0F1800
G1 X133.268Y111.863Z0F1800
G1 X133.371Y112.043Z0F1800
G1 X133.669Y112.608Z0F1800
G1 X133.856Y112.968Z0F1800
G1 X134.058Y113.364Z0F1800
G1 X134.113Y113.456Z0F1800
G1 X134.143Y113.478Z0F1800
G1 X134.163Y113.448Z0F1800
G1 X134.522Y112.564Z0F1800
G1 X134.633Y112.284Z0F1800
G1 X134.7Y112.107Z0F1800
G1 X134.801Y111.823Z0F1800
G1 X134.91Y111.499Z0F1800
G1 X134.997Y111.227Z0F1800
G1 X135.023Y111.138Z0F1800
G1 X135.033Y111.096Z0F1800
G1 X135.019Y111.082Z0F1800
G1 X134.978Y111.052Z0F1800
G1 X134.831Y110.954Z0F1800
G1 X134.613Y110.816Z0F1800
G1 X133.178Y109.944Z0F1800
G1 X133.061Y109.876Z0F1800
G1 X132.976Y109.83Z0F1800
G1 X132.935Y109.813Z0F1800
G1 X132.898Y109.835Z0F1800
G1 X132.822Y109.897Z0F1800
G1 X132.717Y109.99Z0F1800
G1 X132.596Y110.103Z0F1800
G1 X132.423Y110.276Z0F1800
G0 Z2.8F1000
G0 X133.51Y109.61Z2.8
G1 Z0F1000
G1 X133.7Y109.725Z0F1800
G1 X134.215Y110.045Z0F1800
G1 X134.638Y110.3Z0F1800
G1 X135.001Y110.512Z0F1800
G1 X135.118Y110.578Z0F1800
G1 X135.169Y110.602Z0F1800
G1 X135.194Y110.582Z0F1800
G1 X135.233Y110.525Z0F1800
G1 X135.281Y110.438Z0F1800
G1 X135.334Y110.328Z0F1800
G1 X135.585Y109.794Z0F1800
G1 X135.842Y109.282Z0F1800
G1 X136.124Y108.754Z0F1800
G1 X136.562Y107.977Z0F1800
G1 X136.718Y107.695Z0F1800
G1 X136.744Y107.644Z0F1800
G1 X136.687Y107.605Z0F1800
G1 X136.539Y107.556Z0F1800
G1 X136.243Y107.452Z0F1800
G1 X135.941Y107.299Z0F1800
G1 X135.644Y107.104Z0F1800
G1 X135.368Y106.874Z0F1800
G1 X135.25Y106.767Z0F1800
G1 X135.187Y106.713Z0F1800
G1 X135.149Y106.738Z0F1800
G1 X135.093Y106.818Z0F1800
G1 X134.996Y106.974Z0F1800
G1 X134.862Y107.179Z0F1800
G1 X134.289Y108.042Z0F1800
G1 X133.98Y108.497Z0F1800
G1 X133.701Y108.896Z0F1800
G1 X133.582Y109.062Z0F1800
G1 X133.411Y109.293Z0F1800
G1 X133.354Y109.375Z0F1800
G1 X133.315Y109.434Z0F1800
G1 X133.301Y109.462Z0F1800
G1 X133.362Y109.516Z0F1800
G1 X133.51Y109.61Z0F1800
G0 Z2.8F1000
G0 X129.978Y114.402Z2.8
G1 Z0F1000
G1 X129.953Y114.441Z0F1800
G1 X129.9Y114.548Z0F1800
G1 X129.824Y114.707Z0F1800
G1 X129.736Y114.9Z0F1800
G1 X129.506Y115.412Z0F1800
G1 X129.253Y115.982Z0F1800
G1 X129.183Y116.146Z0F1800
G1 X129.147Y116.239Z0F1800
G1 X128.993Y116.58Z0F1800
G1 X127.889Y119.078Z0F1800
G1 X127.404Y120.185Z0F1800
G1 X127.241Y120.551Z0F1800
G1 X126.498Y122.246Z0F1800
G1 X126.438Y122.387Z0F1800
G1 X126.404Y122.476Z0F1800
G1 X126.281Y122.75Z0F1800
G1 X126.232Y122.885Z0F1800
G1 X126.05Y123.295Z0F1800
G1 X125.807Y123.86Z0F1800
G1 X125.102Y125.518Z0F1800
G1 X125.034Y125.719Z0F1800
G1 X125.026Y125.863Z0F1800
G1 X125.079Y125.95Z0F1800
G1 X125.191Y125.979Z0F1800
G1 X125.244Y125.976Z0F1800
G1 X125.297Y125.955Z0F1800
G1 X125.36Y125.904Z0F1800
G1 X125.444Y125.809Z0F1800
G1 X125.562Y125.657Z0F1800
G1 X125.724Y125.432Z0F1800
G1 X125.941Y125.123Z0F1800
G1 X126.78Y123.914Z0F1800
G1 X127.312Y123.158Z0F1800
G1 X127.972Y122.209Z0F1800
G1 X129.5Y120.045Z0F1800
G1 X131.216Y117.636Z0F1800
G1 X131.444Y117.321Z0F1800
G1 X131.588Y117.117Z0F1800
G1 X131.662Y116.999Z0F1800
G1 X131.683Y116.945Z0F1800
G1 X131.679Y116.924Z0F1800
G1 X131.663Y116.89Z0F1800
G1 X131.631Y116.836Z0F1800
G1 X131.578Y116.755Z0F1800
G1 X131.5Y116.64Z0F1800
G1 X130.876Y115.751Z0F1800
G1 X130.559Y115.294Z0F1800
G1 X130.318Y114.938Z0F1800
G1 X130.227Y114.798Z0F1800
G1 X130.156Y114.684Z0F1800
G1 X130.022Y114.46Z0F1800
G1 X129.978Y114.402Z0F1800
;Offset @ 1500 mm/min, 90% power

M8
G0 Z2.8F1000
G0 X125.089Y102.085Z2.8
G1 Z0F1000
;Layer Green
G1 X125.64Y102.297Z0F1800
G1 X126.21Y102.554Z0F1800
G1 X126.745Y102.829Z0F1800
G1 X127.191Y103.097Z0F1800
G1 X127.561Y103.365Z0F1800
G1 X127.887Y103.644Z0F1800
G1 X128.167Y103.933Z0F1800
G1 X128.4Y104.229Z0F1800
G1 X128.584Y104.531Z0F1800
G1 X128.717Y104.835Z0F1800
G1 X128.798Y105.14Z0F1800
G1 X128.826Y105.443Z0F1800
G1 X128.811Y105.668Z0F1800
G1 X128.765Y105.863Z0F1800
G1 X128.707Y106.007Z0F1800
G1 X128.633Y106.166Z0F1800
G1 X128.564Y106.294Z0F1800
G1 X128.523Y106.347Z0F1800
G1 X128.497Y106.29Z0F1800
G1 X128.449Y106.152Z0F1800
G1 X128.313Y105.807Z0F1800
G1 X128.123Y105.426Z0F1800
G1 X127.898Y105.045Z0F1800
G1 X127.66Y104.701Z0F1800
G1 X127.301Y104.275Z0F1800
G1 X126.908Y103.889Z0F1800
G1 X126.489Y103.552Z0F1800
G1 X126.054Y103.272Z0F1800
G1 X125.961Y103.221Z0F1800
G1 X125.896Y103.188Z0F1800
G1 X125.857Y103.174Z0F1800
G1 X125.846Y103.181Z0F1800
G1 X125.861Y103.209Z0F1800
G1 X125.904Y103.261Z0F1800
G1 X125.974Y103.336Z0F1800
G1 X126.499Y103.879Z0F1800
G1 X126.838Y104.273Z0F1800
G1 X127.128Y104.639Z0F1800
G1 X127.387Y105.004Z0F1800
G1 X127.618Y105.376Z0F1800
G1 X127.825Y105.76Z0F1800
G1 X127.943Y106.011Z0F1800
G1 X128.051Y106.268Z0F1800
G1 X128.096Y106.383Z0F1800
G1 X128.131Y106.482Z0F1800
G1 X128.153Y106.558Z0F1800
G1 X128.162Y106.604Z0F1800
G1 X128.107Y106.677Z0F1800
G1 X127.974Y106.785Z0F1800
G1 X127.806Y106.897Z0F1800
G1 X127.647Y106.979Z0F1800
G1 X127.592Y107Z0F1800
G1 X127.553Z0F1800
G1 X127.517Y106.976Z0F1800
G1 X127.467Y106.921Z0F1800
G1 X126.9Y106.167Z0F1800
G1 X126.371Y105.336Z0F1800
G1 X125.989Y104.599Z0F1800
G1 X125.635Y103.82Z0F1800
G1 X125.493Y103.49Z0F1800
G1 X125.447Y103.386Z0F1800
G1 X125.426Y103.344Z0F1800
G1 X125.416Y103.355Z0F1800
G1 Y103.413Z0F1800
G1 X125.423Y103.505Z0F1800
G1 X125.437Y103.623Z0F1800
G1 X125.48Y103.897Z0F1800
G1 X125.534Y104.157Z0F1800
G1 X125.718Y104.785Z0F1800
G1 X125.95Y105.369Z0F1800
G1 X126.236Y105.924Z0F1800
G1 X126.583Y106.462Z0F1800
G1 X126.742Y106.68Z0F1800
G1 X126.903Y106.891Z0F1800
G1 X127.034Y107.051Z0F1800
G1 X127.077Y107.101Z0F1800
G1 X127.101Y107.122Z0F1800
G1 X127.116Y107.14Z0F1800
G1 X127.122Y107.172Z0F1800
G1 X127.103Y107.189Z0F1800
G1 X127.05Y107.202Z0F1800
G1 X126.972Y107.21Z0F1800
G1 X126.875Y107.214Z0F1800
G1 X126.658Y107.208Z0F1800
G1 X126.461Y107.182Z0F1800
G1 X126.275Y107.116Z0F1800
G1 X126.079Y106.992Z0F1800
G1 X125.864Y106.805Z0F1800
G1 X125.622Y106.549Z0F1800
G1 X125.532Y106.428Z0F1800
G1 X125.417Y106.247Z0F1800
G1 X125.297Y106.04Z0F1800
G1 X125.193Y105.841Z0F1800
G1 X125.068Y105.549Z0F1800
G1 X124.967Y105.22Z0F1800
G1 X124.882Y104.838Z0F1800
G1 X124.812Y104.383Z0F1800
G1 X124.78Y103.508Z0F1800
G1 X124.795Y102.646Z0F1800
G1 X124.843Y102.269Z0F1800
G1 X124.869Y102.09Z0F1800
G1 X124.877Y102.036Z0F1800
G1 X124.883Y102.016Z0F1800
G1 X125.089Y102.085Z0F1800
G0 Z2.8F1000
G0 X139.126Y102.049Z2.8
G1 Z0F1000
G1 X139.144Y102.142Z0F1800
G1 X139.16Y102.287Z0F1800
G1 X139.175Y102.476Z0F1800
G1 X139.196Y102.947Z0F1800
G1 X139.205Y103.488Z0F1800
G1 Y103.779Z0F1800
G1 X139.197Y104.032Z0F1800
G1 X139.187Y104.252Z0F1800
G1 X139.172Y104.45Z0F1800
G1 X139.122Y104.805Z0F1800
G1 X139.042Y105.158Z0F1800
G1 X138.946Y105.472Z0F1800
G1 X138.823Y105.776Z0F1800
G1 X138.676Y106.067Z0F1800
G1 X138.511Y106.336Z0F1800
G1 X138.33Y106.579Z0F1800
G1 X138.139Y106.79Z0F1800
G1 X137.94Y106.961Z0F1800
G1 X137.739Y107.088Z0F1800
G1 X137.617Y107.147Z0F1800
G1 X137.515Y107.181Z0F1800
G1 X137.395Y107.198Z0F1800
G1 X137.218Y107.208Z0F1800
G1 X137.094Z0F1800
G1 X136.989Z0F1800
G1 X136.914Y107.203Z0F1800
G1 X136.88Y107.194Z0F1800
G1 X136.888Y107.147Z0F1800
G1 X136.944Y107.068Z0F1800
G1 X137.292Y106.62Z0F1800
G1 X137.646Y106.116Z0F1800
G1 X137.857Y105.754Z0F1800
G1 X138.055Y105.355Z0F1800
G1 X138.23Y104.934Z0F1800
G1 X138.379Y104.502Z0F1800
G1 X138.455Y104.218Z0F1800
G1 X138.522Y103.902Z0F1800
G1 X138.548Y103.753Z0F1800
G1 X138.567Y103.621Z0F1800
G1 X138.578Y103.513Z0F1800
G1 Y103.439Z0F1800
G1 X138.567Y103.401Z0F1800
G1 X138.535Y103.439Z0F1800
G1 X138.507Y103.494Z0F1800
G1 X138.42Y103.69Z0F1800
G1 X138.357Y103.838Z0F1800
G1 X137.983Y104.658Z0F1800
G1 X137.594Y105.388Z0F1800
G1 X137.167Y106.065Z0F1800
G1 X136.683Y106.722Z0F1800
G1 X136.458Y107.008Z0F1800
G1 X136.418Z0F1800
G1 X136.339Y106.978Z0F1800
G1 X136.235Y106.923Z0F1800
G1 X136.12Y106.853Z0F1800
G1 X136.006Y106.777Z0F1800
G1 X135.908Y106.703Z0F1800
G1 X135.839Y106.641Z0F1800
G1 X135.813Y106.598Z0F1800
G1 X135.841Y106.481Z0F1800
G1 X135.918Y106.28Z0F1800
G1 X136.034Y106.02Z0F1800
G1 X136.176Y105.727Z0F1800
G1 X136.503Y105.15Z0F1800
G1 X136.895Y104.587Z0F1800
G1 X137.121Y104.303Z0F1800
G1 X137.37Y104.015Z0F1800
G1 X137.645Y103.718Z0F1800
G1 X138.027Y103.326Z0F1800
G1 X138.091Y103.255Z0F1800
G1 X138.132Y103.204Z0F1800
G1 X138.142Y103.181Z0F1800
G1 X138.115Y103.184Z0F1800
G1 X138.055Y103.21Z0F1800
G1 X137.972Y103.254Z0F1800
G1 X137.87Y103.312Z0F1800
G1 X137.644Y103.453Z0F1800
G1 X137.433Y103.6Z0F1800
G1 X137.171Y103.816Z0F1800
G1 X136.886Y104.081Z0F1800
G1 X136.76Y104.206Z0F1800
G1 X136.66Y104.313Z0F1800
G1 X136.595Y104.391Z0F1800
G1 X136.575Y104.431Z0F1800
G1 Y104.456Z0F1800
G1 X136.558Y104.462Z0F1800
G1 X136.494Y104.509Z0F1800
G1 X136.385Y104.629Z0F1800
G1 X136.142Y104.956Z0F1800
G1 X135.918Y105.316Z0F1800
G1 X135.724Y105.693Z0F1800
G1 X135.568Y106.069Z0F1800
G1 X135.475Y106.325Z0F1800
G1 X135.412Y106.236Z0F1800
G1 X135.344Y106.125Z0F1800
G1 X135.271Y105.98Z0F1800
G1 X135.228Y105.879Z0F1800
G1 X135.204Y105.783Z0F1800
G1 X135.194Y105.653Z0F1800
G1 Y105.452Z0F1800
G1 Y105.26Z0F1800
G1 X135.205Y105.12Z0F1800
G1 X135.226Y105.006Z0F1800
G1 X135.26Y104.889Z0F1800
G1 X135.419Y104.518Z0F1800
G1 X135.64Y104.164Z0F1800
G1 X135.933Y103.813Z0F1800
G1 X136.307Y103.454Z0F1800
G1 X136.412Y103.365Z0F1800
G1 X136.512Y103.287Z0F1800
G1 X136.639Y103.2Z0F1800
G1 X137.12Y102.885Z0F1800
G1 X137.155Y102.861Z0F1800
G1 X137.25Y102.803Z0F1800
G1 X137.422Y102.715Z0F1800
G1 X137.65Y102.606Z0F1800
G1 X137.913Y102.486Z0F1800
G1 X138.19Y102.365Z0F1800
G1 X138.458Y102.251Z0F1800
G1 X138.698Y102.155Z0F1800
G1 X138.888Y102.086Z0F1800
G1 X139.036Y102.038Z0F1800
G1 X139.108Y102.017Z0F1800
G1 X139.126Y102.049Z0F1800
;Cut @ 1500 mm/min, 80% power

M8
G0 Z2.8F1000
G0 X133.149Y104.754Z2.8
G1 Z0F1000
;Layer Red
G1 X133.122Y104.749Z0S800F1800
G1 X133.059Y104.745Z0F1800
G1 X132.839Y104.738Z0F1800
G1 X132.522Y104.732Z0F1800
G1 X132.142Z0F1800
G1 X131.676Z0F1800
G1 X131.372Y104.738Z0F1800
G1 X131.273Y104.743Z0F1800
G1 X131.203Y104.749Z0F1800
G1 X131.161Y104.757Z0F1800
G1 X131.141Y104.766Z0F1800
G1 X131.124Y104.811Z0F1800
G1 X131.098Y104.906Z0F1800
G1 X131.067Y105.038Z0F1800
G1 X130.965Y105.539Z0F1800
G1 X130.86Y106.04Z0F1800
G1 X130.831Y106.209Z0F1800
G1 X130.818Y106.295Z0F1800
G1 X130.778Y106.341Z0F1800
G1 X130.732Y106.357Z0F1800
G1 X130.659Y106.373Z0F1800
G1 X130.287Y106.435Z0F1800
G1 X130.214Y106.44Z0F1800
G1 X130.172Y106.431Z0F1800
G1 X130.144Y106.407Z0F1800
G1 X130.112Y106.365Z0F1800
G1 X129.979Y106.171Z0F1800
G1 X129.689Y105.734Z0F1800
G1 X129.504Y105.448Z0F1800
G1 X129.398Y105.288Z0F1800
G1 X129.362Y105.239Z0F1800
G1 X129.345Y105.221Z0F1800
G1 X129.34Y105.25Z0F1800
G1 X129.335Y105.329Z0F1800
G1 X129.331Y105.446Z0F1800
G1 X129.327Y105.792Z0F1800
G1 X129.316Y105.934Z0F1800
G1 X129.291Y106.051Z0F1800
G1 X129.248Y106.183Z0F1800
G1 X129.167Y106.408Z0F1800
G1 X129.707Y107.215Z0F1800
G1 X130.094Y107.788Z0F1800
G1 X130.216Y107.966Z0F1800
G1 X130.266Y108.034Z0F1800
G1 X130.335Y108.027Z0F1800
G1 X130.472Y107.994Z0F1800
G1 X130.787Y107.926Z0F1800
G1 X131.153Y107.876Z0F1800
G1 X131.554Y107.847Z0F1800
G1 X131.971Y107.837Z0F1800
G1 X132.389Y107.846Z0F1800
G1 X132.789Y107.876Z0F1800
G1 X133.154Y107.924Z0F1800
G1 X133.468Y107.993Z0F1800
G1 X133.619Y108.033Z0F1800
G1 X133.706Y108.046Z0F1800
G1 X133.75Y108.033Z0F1800
G1 X133.778Y107.994Z0F1800
G1 X133.815Y107.934Z0F1800
G1 X133.895Y107.812Z0F1800
G1 X134.138Y107.455Z0F1800
G1 X134.58Y106.814Z0F1800
G1 X134.65Y106.695Z0F1800
G1 X134.666Y106.633Z0F1800
G1 X134.632Y106.619Z0F1800
G1 X134.551Y106.594Z0F1800
G1 X134.292Y106.523Z0F1800
G1 X133.97Y106.441Z0F1800
G1 X133.664Y106.37Z0F1800
G1 X133.493Y106.332Z0F1800
G1 X133.274Y105.223Z0F1800
G1 X133.237Y105.048Z0F1800
G1 X133.201Y104.901Z0F1800
G1 X133.171Y104.798Z0F1800
G1 X133.149Y104.754Z0F1800
G0 Z2.8F1000
G0 X137.079Y107.996Z2.8
G1 Z0F1000
G1 X136.783Y108.579Z0F1800
G1 X136.561Y109.01Z0F1800
G1 X136.445Y109.229Z0F1800
G1 X136.428Y109.271Z0F1800
G1 X136.444Y109.317Z0F1800
G1 X136.513Y109.391Z0F1800
G1 X136.65Y109.516Z0F1800
G1 X137.281Y110.129Z0F1800
G1 X137.814Y110.749Z0F1800
G1 X138.256Y111.386Z0F1800
G1 X138.615Y112.049Z0F1800
G1 X138.895Y112.766Z0F1800
G1 X139.116Y113.521Z0F1800
G1 X139.246Y114.317Z0F1800
G1 X139.292Y115.142Z0F1800
G1 X139.253Y115.958Z0F1800
G1 X139.128Y116.726Z0F1800
G1 X138.98Y117.271Z0F1800
G1 X138.826Y117.737Z0F1800
G1 X138.737Y117.953Z0F1800
G1 X138.498Y118.445Z0F1800
G1 X138.255Y118.894Z0F1800
G1 X138.133Y119.075Z0F1800
G1 X137.966Y119.315Z0F1800
G1 X137.813Y119.531Z0F1800
G1 X137.732Y119.64Z0F1800
G1 X137.444Y119.981Z0F1800
G1 X137.217Y120.237Z0F1800
G1 X137.165Y120.302Z0F1800
G1 X137.173Y120.36Z0F1800
G1 X137.222Y120.494Z0F1800
G1 X137.313Y120.71Z0F1800
G1 X137.504Y121.136Z0F1800
G1 X137.669Y121.52Z0F1800
G1 X137.746Y121.684Z0F1800
G1 X137.802Y121.787Z0F1800
G1 X137.833Y121.822Z0F1800
G1 X137.9Y121.775Z0F1800
G1 X138.026Y121.662Z0F1800
G1 X138.316Y121.387Z0F1800
G1 X138.829Y121.626Z0F1800
G1 X139.417Y121.891Z0F1800
G1 X139.534Y121.938Z0F1800
G1 X139.631Y121.969Z0F1800
G1 X139.708Y121.985Z0F1800
G1 X139.818Y121.974Z0F1800
G1 X139.884Y121.907Z0F1800
G1 X139.919Y121.854Z0F1800
G1 X140.101Y121.593Z0F1800
G1 X140.535Y120.988Z0F1800
G1 X140.833Y120.579Z0F1800
G1 X140.901Y120.481Z0F1800
G1 X140.958Y120.392Z0F1800
G1 X140.996Y120.323Z0F1800
G1 X141.01Y120.283Z0F1800
G1 X140.957Y120.189Z0F1800
G1 X140.829Y120.038Z0F1800
G1 X140.403Y119.588Z0F1800
G1 X140.146Y119.31Z0F1800
G1 X140.048Y119.198Z0F1800
G1 X139.976Y119.081Z0F1800
G1 X139.992Y119.013Z0F1800
G1 X140.044Y118.876Z0F1800
G1 X140.228Y118.434Z0F1800
G1 X140.323Y118.199Z0F1800
G1 X140.396Y118.025Z0F1800
G1 X140.446Y117.93Z0F1800
G1 X140.501Y117.912Z0F1800
G1 X140.638Y117.897Z0F1800
G1 X140.742Y117.891Z0F1800
G1 X141.034Y117.88Z0F1800
G1 X141.445Y117.87Z0F1800
G1 X141.752Y117.858Z0F1800
G1 X141.851Y117.852Z0F1800
G1 X141.97Y117.834Z0F1800
G1 X142.021Y117.808Z0F1800
G1 X142.07Y117.698Z0F1800
G1 X142.119Y117.488Z0F1800
G1 X142.206Y117.015Z0F1800
G1 X142.352Y116.248Z0F1800
G1 X142.38Y116.093Z0F1800
G1 X142.4Y115.958Z0F1800
G1 X142.41Y115.86Z0F1800
G1 Y115.81Z0F1800
G1 X142.392Y115.778Z0F1800
G1 X142.342Y115.747Z0F1800
G1 X142.291Y115.726Z0F1800
G1 X141.58Y115.474Z0F1800
G1 X141.251Y115.352Z0F1800
G1 X141.015Y115.26Z0F1800
G1 X140.945Y115.23Z0F1800
G1 X140.915Y115.213Z0F1800
G1 X140.904Y115.163Z0F1800
G1 X140.89Y115.041Z0F1800
G1 X140.877Y114.867Z0F1800
G1 X140.853Y114.445Z0F1800
G1 X140.822Y113.964Z0F1800
G1 X140.837Y113.924Z0F1800
G1 X140.879Y113.889Z0F1800
G1 X141.333Y113.649Z0F1800
G1 X141.711Y113.44Z0F1800
G1 X141.875Y113.346Z0F1800
G1 X142.009Y113.267Z0F1800
G1 X142.102Y113.208Z0F1800
G1 X142.142Y113.177Z0F1800
G1 X142.161Y113.12Z0F1800
G1 X142.158Y113.03Z0F1800
G1 X142.13Y112.901Z0F1800
G1 X142.079Y112.724Z0F1800
G1 X141.806Y111.847Z0F1800
G1 X141.724Y111.591Z0F1800
G1 X141.655Y111.393Z0F1800
G1 X141.602Y111.261Z0F1800
G1 X141.567Y111.204Z0F1800
G1 X141.524Y111.182Z0F1800
G1 X141.418Z0F1800
G1 X141.315Y111.189Z0F1800
G1 X141.163Y111.204Z0F1800
G1 X140.249Y111.303Z0F1800
G1 X140.123Y111.31Z0F1800
G1 X140.037Y111.302Z0F1800
G1 X139.937Y111.233Z0F1800
G1 X139.854Y111.075Z0F1800
G1 X139.718Y110.825Z0F1800
G1 X139.497Y110.449Z0F1800
G1 X139.443Y110.354Z0F1800
G1 X139.406Y110.285Z0F1800
G1 X139.393Y110.251Z0F1800
G1 X139.401Y110.232Z0F1800
G1 X139.464Y110.126Z0F1800
G1 X139.649Y109.838Z0F1800
G1 X139.978Y109.336Z0F1800
G1 X140.11Y109.123Z0F1800
G1 X140.198Y108.969Z0F1800
G1 X140.23Y108.895Z0F1800
G1 X140.208Y108.842Z0F1800
G1 X140.139Y108.75Z0F1800
G1 X140.021Y108.614Z0F1800
G1 X139.848Y108.432Z0F1800
G1 X139.591Y108.166Z0F1800
G1 X139.204Y107.77Z0F1800
G1 X139.066Y107.633Z0F1800
G1 X138.962Y107.533Z0F1800
G1 X138.887Y107.465Z0F1800
G1 X138.838Y107.427Z0F1800
G1 X138.812Y107.415Z0F1800
G1 X138.79Y107.424Z0F1800
G1 X138.744Y107.449Z0F1800
G1 X138.59Y107.543Z0F1800
G1 X138.373Y107.682Z0F1800
G1 X138.116Y107.851Z0F1800
G1 X137.463Y108.287Z0F1800
G1 X137.079Y107.996Z0F1800
G0 Z2.8F1000
G0 X127.584Y109.292Z2.8
G1 Z0F1000
G1 X127.574Y109.265Z0F1800
G1 X127.547Y109.209Z0F1800
G1 X127.507Y109.132Z0F1800
G1 X127.307Y108.761Z0F1800
G1 X126.971Y108.122Z0F1800
G1 X126.902Y107.996Z0F1800
G1 X126.851Y108.025Z0F1800
G1 X126.74Y108.113Z0F1800
G1 X126.622Y108.21Z0F1800
G1 X126.552Y108.264Z0F1800
G1 X126.508Y108.25Z0F1800
G1 X126.413Y108.199Z0F1800
G1 X126.277Y108.119Z0F1800
G1 X126.114Y108.017Z0F1800
G1 X125.755Y107.781Z0F1800
G1 X125.436Y107.555Z0F1800
G1 X125.306Y107.468Z0F1800
G1 X125.209Y107.436Z0F1800
G1 X125.122Y107.461Z0F1800
G1 X125.021Y107.541Z0F1800
G1 X124.925Y107.635Z0F1800
G1 X124.76Y107.801Z0F1800
G1 X124.316Y108.259Z0F1800
G1 X124.02Y108.571Z0F1800
G1 X123.92Y108.679Z0F1800
G1 X123.848Y108.762Z0F1800
G1 X123.771Y108.867Z0F1800
G1 X123.76Y108.922Z0F1800
G1 X123.784Y108.971Z0F1800
G1 X123.833Y109.055Z0F1800
G1 X123.9Y109.165Z0F1800
G1 X124.162Y109.57Z0F1800
G1 X124.194Y109.626Z0F1800
G1 X124.309Y109.8Z0F1800
G1 X124.609Y110.242Z0F1800
G1 X124.487Y110.428Z0F1800
G1 X124.346Y110.662Z0F1800
G1 X124.085Y111.13Z0F1800
G1 X124.017Y111.237Z0F1800
G1 X123.969Y111.295Z0F1800
G1 X123.932Y111.312Z0F1800
G1 X123.854Y111.307Z0F1800
G1 X122.88Y111.213Z0F1800
G1 X122.649Y111.195Z0F1800
G1 X122.493Y111.188Z0F1800
G1 X122.424Y111.193Z0F1800
G1 X122.406Y111.213Z0F1800
G1 X122.382Y111.255Z0F1800
G1 X122.354Y111.322Z0F1800
G1 X122.319Y111.416Z0F1800
G1 X122.277Y111.539Z0F1800
G1 X122.168Y111.882Z0F1800
G1 X122.018Y112.378Z0F1800
G1 X121.889Y112.789Z0F1800
G1 X121.844Y112.957Z0F1800
G1 X121.819Y113.079Z0F1800
G1 Y113.143Z0F1800
G1 X121.846Y113.178Z0F1800
G1 X121.907Y113.226Z0F1800
G1 X121.999Y113.289Z0F1800
G1 X122.123Y113.364Z0F1800
G1 X122.276Y113.452Z0F1800
G1 X122.458Y113.551Z0F1800
G1 X122.668Y113.661Z0F1800
G1 X123.175Y113.918Z0F1800
G1 X123.127Y114.713Z0F1800
G1 X123.107Y115Z0F1800
G1 X123.092Y115.163Z0F1800
G1 X123.086Y115.203Z0F1800
G1 X123.08Y115.219Z0F1800
G1 X123.04Y115.239Z0F1800
G1 X122.944Y115.277Z0F1800
G1 X122.642Y115.391Z0F1800
G1 X122.279Y115.523Z0F1800
G1 X121.839Y115.676Z0F1800
G1 X121.731Y115.719Z0F1800
G1 X121.652Y115.756Z0F1800
G1 X121.613Y115.783Z0F1800
G1 X121.59Y115.839Z0F1800
G1 Y115.946Z0F1800
G1 X121.599Y116.028Z0F1800
G1 X121.614Y116.135Z0F1800
G1 X121.665Y116.438Z0F1800
G1 X121.811Y117.26Z0F1800
G1 X121.853Y117.487Z0F1800
G1 X121.89Y117.654Z0F1800
G1 X121.922Y117.761Z0F1800
G1 X121.949Y117.813Z0F1800
G1 X121.998Y117.838Z0F1800
G1 X122.109Y117.854Z0F1800
G1 X122.197Y117.861Z0F1800
G1 X122.313Y117.867Z0F1800
G1 X122.647Y117.877Z0F1800
G1 X123.141Y117.89Z0F1800
G1 X123.417Y117.895Z0F1800
G1 X123.488Y117.898Z0F1800
G1 X123.531Y117.916Z0F1800
G1 X123.562Y117.966Z0F1800
G1 X123.655Y118.204Z0F1800
G1 X124.037Y119.108Z0F1800
G1 X123.681Y119.49Z0F1800
G1 X123.173Y120.031Z0F1800
G1 X123.06Y120.162Z0F1800
G1 X123.004Y120.255Z0F1800
G1 X123.001Y120.313Z0F1800
G1 X123.057Y120.425Z0F1800
G1 X123.124Y120.527Z0F1800
G1 X123.225Y120.674Z0F1800
G1 X123.902Y121.636Z0F1800
G1 X124.084Y121.897Z0F1800
G1 X124.154Y121.975Z0F1800
G1 X124.245Y121.997Z0F1800
G1 X124.309Y121.986Z0F1800
G1 X124.391Y121.961Z0F1800
G1 X124.495Y121.92Z0F1800
G1 X124.625Y121.864Z0F1800
G1 X124.948Y121.719Z0F1800
G1 X125.68Y121.384Z0F1800
G1 X125.787Y121.477Z0F1800
G1 X125.901Y121.58Z0F1800
G1 X126.024Y121.696Z0F1800
G1 X126.122Y121.785Z0F1800
G1 X126.176Y121.822Z0F1800
G1 X126.202Y121.799Z0F1800
G1 X126.23Y121.743Z0F1800
G1 X126.271Y121.644Z0F1800
G1 X126.486Y121.175Z0F1800
G1 X126.672Y120.763Z0F1800
G1 X126.814Y120.441Z0F1800
G1 X126.83Y120.328Z0F1800
G1 X126.809Y120.277Z0F1800
G1 X126.766Y120.218Z0F1800
G1 X126.7Y120.141Z0F1800
G1 X126.609Y120.04Z0F1800
G1 X126.218Y119.572Z0F1800
G1 X125.874Y119.098Z0F1800
G1 X125.577Y118.615Z0F1800
G1 X125.324Y118.118Z0F1800
G1 X125.114Y117.604Z0F1800
G1 X124.945Y117.069Z0F1800
G1 X124.815Y116.51Z0F1800
G1 X124.724Y115.924Z0F1800
G1 X124.708Y115.735Z0F1800
G1 X124.7Y115.5Z0F1800
G1 Y115.235Z0F1800
G1 X124.704Y114.954Z0F1800
G1 X124.715Y114.673Z0F1800
G1 X124.733Y114.405Z0F1800
G1 X124.755Y114.165Z0F1800
G1 X124.782Y113.969Z0F1800
G1 X124.873Y113.522Z0F1800
G1 X124.984Y113.093Z0F1800
G1 X125.119Y112.68Z0F1800
G1 X125.277Y112.28Z0F1800
G1 X125.459Y111.891Z0F1800
G1 X125.667Y111.511Z0F1800
G1 X125.901Y111.138Z0F1800
G1 X126.162Y110.771Z0F1800
G1 X126.793Y110.057Z0F1800
G1 X127.447Y109.423Z0F1800
G1 X127.544Y109.339Z0F1800
G1 X127.584Y109.292Z0F1800
G0 Z2.8F1000
G0 X128.888Y121.707Z2.8
G1 Z0F1000
G1 X128.865Y121.728Z0F1800
G1 X128.82Y121.785Z0F1800
G1 X128.757Y121.87Z0F1800
G1 X128.685Y121.974Z0F1800
G1 X128.542Y122.183Z0F1800
G1 X128.401Y122.385Z0F1800
G1 X127.669Y123.454Z0F1800
G1 X127.274Y124.025Z0F1800
G1 X127.194Y124.144Z0F1800
G1 X127.142Y124.226Z0F1800
G1 X127.126Y124.259Z0F1800
G1 X127.696Y124.55Z0F1800
G1 X128.255Y124.796Z0F1800
G1 X128.299Y124.788Z0F1800
G1 X128.344Y124.758Z0F1800
G1 X128.399Y124.703Z0F1800
G1 X128.469Y124.615Z0F1800
G1 X128.601Y124.446Z0F1800
G1 X128.856Y124.129Z0F1800
G1 X129.12Y123.79Z0F1800
G1 X129.23Y123.66Z0F1800
G1 X129.271Y123.607Z0F1800
G1 X129.32Y123.562Z0F1800
G1 X129.394Y123.578Z0F1800
G1 X129.858Y123.707Z0F1800
G1 X130.343Y123.803Z0F1800
G1 X130.496Y123.83Z0F1800
G1 X130.559Y123.875Z0F1800
G1 X130.581Y123.951Z0F1800
G1 X130.621Y124.121Z0F1800
G1 X130.672Y124.359Z0F1800
G1 X130.79Y124.933Z0F1800
G1 X130.842Y125.163Z0F1800
G1 X130.883Y125.316Z0F1800
G1 X130.909Y125.377Z0F1800
G1 X130.938Y125.382Z0F1800
G1 X131.007Y125.386Z0F1800
G1 X131.244Y125.394Z0F1800
G1 X131.584Y125.4Z0F1800
G1 X131.994Z0F1800
G1 X133.04Z0F1800
G1 X133.082Y125.337Z0F1800
G1 X133.126Y125.215Z0F1800
G1 X133.173Y125.012Z0F1800
G1 X133.234Y124.693Z0F1800
G1 X133.406Y123.83Z0F1800
G1 X133.664Y123.794Z0F1800
G1 X133.956Y123.74Z0F1800
G1 X134.296Y123.66Z0F1800
G1 X134.67Y123.562Z0F1800
G1 X135.155Y124.177Z0F1800
G1 X135.486Y124.605Z0F1800
G1 X135.544Y124.675Z0F1800
G1 X135.591Y124.727Z0F1800
G1 X135.661Y124.782Z0F1800
G1 X135.719Y124.796Z0F1800
G1 X136.317Y124.531Z0F1800
G1 X136.852Y124.236Z0F1800
G1 X136.84Y124.203Z0F1800
G1 X136.812Y124.163Z0F1800
G1 X136.777Y124.117Z0F1800
G1 X136.619Y123.897Z0F1800
G1 X136.303Y123.446Z0F1800
G1 X135.687Y122.551Z0F1800
G1 X135.237Y121.887Z0F1800
G1 X135.142Y121.76Z0F1800
G1 X135.086Y121.707Z0F1800
G1 X135.006Y121.733Z0F1800
G1 X134.854Y121.796Z0F1800
G1 X134.405Y121.965Z0F1800
G1 X133.881Y122.118Z0F1800
G1 X133.344Y122.238Z0F1800
G1 X132.855Y122.311Z0F1800
G1 X131.991Y122.34Z0F1800
G1 X131.117Y122.298Z0F1800
G1 X130.574Y122.218Z0F1800
G1 X130.032Y122.099Z0F1800
G1 X129.522Y121.951Z0F1800
G1 X129.077Y121.781Z0F1800
G1 X128.953Y121.728Z0F1800
G1 X128.888Y121.707Z0F1800
M9
G1 Z10 F1000
G90
G1 Z10 F800
