;LightBurn 1.6.04
;Custom GCode device profile, absolute coords
;Bounds: X44.29 Y36.65 to X105.71 Y107.35
G00 G17 G40 G21 G54
G90
M4
;Cut @ 800 mm/min, 90% power

M8
G0 Z3.5F1000
G0 X65.57Y50.485Z3.5
G1 Z0F1000
;Layer Blue
G1 X65.49Y50.532Z0S900F1000
G1 X65.392Y50.61Z0F1000
G1 X65.272Y50.72Z0F1000
G1 X65.127Y50.864Z0F1000
G1 X64.765Y51.22Z0F1000
G1 X64.43Y51.507Z0F1000
G1 X64.248Y51.644Z0F1000
G1 X64.045Y51.786Z0F1000
G1 X63.809Y51.942Z0F1000
G1 X63.531Y52.119Z0F1000
G1 X62.914Y52.459Z0F1000
G1 X62.224Y52.771Z0F1000
G1 X61.893Y52.899Z0F1000
G1 X61.595Y52.999Z0F1000
G1 X61.346Y53.064Z0F1000
G1 X61.164Y53.088Z0F1000
G1 X61.021Y53.108Z0F1000
G1 X60.966Y53.176Z0F1000
G1 X60.971Y53.231Z0F1000
G1 X60.997Y53.301Z0F1000
G1 X61.044Y53.389Z0F1000
G1 X61.205Y53.639Z0F1000
G1 X61.333Y53.851Z0F1000
G1 X61.489Y54.118Z0F1000
G1 X61.665Y54.426Z0F1000
G1 X62.05Y55.114Z0F1000
G1 X62.563Y56.064Z0F1000
G1 X62.685Y56.287Z0F1000
G1 X62.779Y56.453Z0F1000
G1 X62.852Y56.569Z0F1000
G1 X62.935Y56.715Z0F1000
G1 X63.132Y57.084Z0F1000
G1 X63.45Y57.696Z0F1000
G1 X63.593Y57.967Z0F1000
G1 X63.704Y58.172Z0F1000
G1 X63.767Y58.282Z0F1000
G1 X63.826Y58.392Z0F1000
G1 X63.944Y58.629Z0F1000
G1 X64.321Y59.404Z0F1000
G1 X64.824Y60.454Z0F1000
G1 X65.379Y61.625Z0F1000
G1 X65.457Y61.78Z0F1000
G1 X65.53Y61.902Z0F1000
G1 X65.589Y61.978Z0F1000
G1 X65.626Y61.997Z0F1000
G1 X70.387Y59.108Z0F1000
G1 X70.66Y58.935Z0F1000
G1 X70.883Y58.78Z0F1000
G1 X70.969Y58.714Z0F1000
G1 X71.033Y58.658Z0F1000
G1 X71.074Y58.616Z0F1000
G1 X71.088Y58.589Z0F1000
G1 X71.077Y58.555Z0F1000
G1 X71.046Y58.495Z0F1000
G1 X70.998Y58.412Z0F1000
G1 X70.934Y58.31Z0F1000
G1 X70.768Y58.06Z0F1000
G1 X70.565Y57.771Z0F1000
G1 X70.044Y57.039Z0F1000
G1 X69.524Y56.295Z0F1000
G1 X68.791Y55.233Z0F1000
G1 X68.44Y54.708Z0F1000
G1 X67.709Y53.6Z0F1000
G1 X66.9Y52.362Z0F1000
G1 X66.409Y51.607Z0F1000
G1 X66.022Y51.006Z0F1000
G1 X65.795Y50.646Z0F1000
G1 X65.758Y50.582Z0F1000
G1 X65.725Y50.518Z0F1000
G1 X65.685Y50.479Z0F1000
G1 X65.634Y50.468Z0F1000
G1 X65.57Y50.485Z0F1000
G0 Z3.5F1000
G0 X72.22Y59.665Z3.5F800
G1 Z0F1000
G1 X72.086Y59.716Z0F1000
G1 X71.894Y59.81Z0F1000
G1 X71.632Y59.954Z0F1000
G1 X71.291Y60.152Z0F1000
G1 X70.857Y60.413Z0F1000
G1 X70.319Y60.741Z0F1000
G1 X69.574Y61.196Z0F1000
G1 X68.844Y61.639Z0F1000
G1 X68.152Y62.057Z0F1000
G1 X67.523Y62.433Z0F1000
G1 X66.981Y62.755Z0F1000
G1 X66.55Y63.007Z0F1000
G1 X66.254Y63.176Z0F1000
G1 X66.164Y63.224Z0F1000
G1 X66.117Y63.246Z0F1000
G1 X66.103Y63.28Z0F1000
G1 X66.107Y63.362Z0F1000
G1 X66.128Y63.488Z0F1000
G1 X66.163Y63.653Z0F1000
G1 X66.213Y63.854Z0F1000
G1 X66.275Y64.085Z0F1000
G1 X66.349Y64.343Z0F1000
G1 X66.432Y64.623Z0F1000
G1 X66.84Y65.878Z0F1000
G1 X67.301Y67.139Z0F1000
G1 X67.687Y68.074Z0F1000
G1 X68.109Y68.993Z0F1000
G1 X68.582Y69.922Z0F1000
G1 X69.121Y70.888Z0F1000
G1 X69.421Y71.394Z0F1000
G1 X69.742Y71.919Z0F1000
G1 X70.088Y72.466Z0F1000
G1 X70.461Y73.039Z0F1000
G1 X70.861Y73.641Z0F1000
G1 X71.292Y74.276Z0F1000
G1 X71.754Y74.946Z0F1000
G1 X72.251Y75.656Z0F1000
G1 X73.301Y77.149Z0F1000
G1 X74.24Y78.493Z0F1000
G1 X74.875Y79.396Z0F1000
G1 X75.528Y80.319Z0F1000
G1 X76.463Y81.635Z0F1000
G1 X77.007Y82.395Z0F1000
G1 X77.448Y83.005Z0F1000
G1 X77.75Y83.417Z0F1000
G1 X77.872Y83.578Z0F1000
G1 X78.866Y84.96Z0F1000
G1 X82.653Y90.245Z0F1000
G1 X85.456Y94.164Z0F1000
G1 X86.033Y94.975Z0F1000
G1 X87.026Y96.395Z0F1000
G1 X88.367Y98.299Z0F1000
G1 X89.011Y99.22Z0F1000
G1 X89.383Y99.754Z0F1000
G1 X90.163Y100.881Z0F1000
G1 X91.039Y102.139Z0F1000
G1 X91.589Y102.933Z0F1000
G1 X91.981Y103.503Z0F1000
G1 X92.252Y103.889Z0F1000
G1 X92.376Y104.056Z0F1000
G1 X92.646Y104.441Z0F1000
G1 X93.786Y106.107Z0F1000
G1 X94.057Y106.498Z0F1000
G1 X94.357Y106.922Z0F1000
G1 X94.493Y107.106Z0F1000
G1 X94.583Y107.22Z0F1000
G1 X94.632Y107.271Z0F1000
G1 X94.768Y107.332Z0F1000
G1 X94.923Y107.349Z0F1000
G1 X95.086Y107.328Z0F1000
G1 X95.246Y107.273Z0F1000
G1 X95.391Y107.191Z0F1000
G1 X95.508Y107.085Z0F1000
G1 X95.587Y106.963Z0F1000
G1 X95.616Y106.828Z0F1000
G1 X95.61Y106.777Z0F1000
G1 X95.59Y106.698Z0F1000
G1 X95.556Y106.589Z0F1000
G1 X95.509Y106.452Z0F1000
G1 X95.449Y106.286Z0F1000
G1 X95.376Y106.091Z0F1000
G1 X95.289Y105.868Z0F1000
G1 X95.078Y105.338Z0F1000
G1 X94.814Y104.696Z0F1000
G1 X94.499Y103.943Z0F1000
G1 X94.133Y103.081Z0F1000
G1 X92.373Y98.968Z0F1000
G1 X92.081Y98.294Z0F1000
G1 X91.953Y98.004Z0F1000
G1 X91.848Y97.776Z0F1000
G1 X91.64Y97.3Z0F1000
G1 X91.41Y96.756Z0F1000
G1 X91.183Y96.235Z0F1000
G1 X90.879Y95.555Z0F1000
G1 X90.478Y94.644Z0F1000
G1 X88.617Y90.398Z0F1000
G1 X86.496Y85.55Z0F1000
G1 X83.88Y79.585Z0F1000
G1 X83.481Y78.685Z0F1000
G1 X83.333Y78.356Z0F1000
G1 X81.616Y74.482Z0F1000
G1 X81.294Y73.761Z0F1000
G1 X80.98Y73.068Z0F1000
G1 X80.675Y72.401Z0F1000
G1 X80.087Y71.142Z0F1000
G1 X79.526Y69.977Z0F1000
G1 X78.988Y68.898Z0F1000
G1 X78.468Y67.898Z0F1000
G1 X77.962Y66.969Z0F1000
G1 X77.465Y66.105Z0F1000
G1 X76.974Y65.298Z0F1000
G1 X76.483Y64.54Z0F1000
G1 X75.989Y63.825Z0F1000
G1 X75.487Y63.144Z0F1000
G1 X74.442Y61.858Z0F1000
G1 X73.314Y60.624Z0F1000
G1 X72.986Y60.285Z0F1000
G1 X72.697Y59.992Z0F1000
G1 X72.577Y59.873Z0F1000
G1 X72.406Y59.708Z0F1000
G1 X72.363Y59.67Z0F1000
G1 X72.309Y59.652Z0F1000
G1 X72.22Y59.665Z0F1000
G0 Z3.5F1000
G0 X76.078Y61.208Z3.5
G1 Z0F1000
G1 X75.958Y61.366Z0F1000
G1 X75.886Y61.494Z0F1000
G1 X75.861Y61.594Z0F1000
G1 X75.879Y61.671Z0F1000
G1 X75.939Y61.728Z0F1000
G1 X76.023Y61.8Z0F1000
G1 X76.144Y61.932Z0F1000
G1 X76.297Y62.118Z0F1000
G1 X76.477Y62.35Z0F1000
G1 X76.681Y62.621Z0F1000
G1 X76.902Y62.925Z0F1000
G1 X77.137Y63.255Z0F1000
G1 X77.379Y63.603Z0F1000
G1 X77.871Y64.328Z0F1000
G1 X78.338Y65.044Z0F1000
G1 X78.55Y65.382Z0F1000
G1 X78.743Y65.696Z0F1000
G1 X78.909Y65.981Z0F1000
G1 X79.046Y66.229Z0F1000
G1 X79.393Y66.884Z0F1000
G1 X80.133Y68.29Z0F1000
G1 X80.478Y68.957Z0F1000
G1 X80.952Y69.892Z0F1000
G1 X81.073Y70.123Z0F1000
G1 X81.165Y70.288Z0F1000
G1 X81.234Y70.395Z0F1000
G1 X81.285Y70.45Z0F1000
G1 X81.323Y70.46Z0F1000
G1 X81.354Y70.432Z0F1000
G1 X81.382Y70.373Z0F1000
G1 X81.445Y70.214Z0F1000
G1 X82.29Y68.142Z0F1000
G1 X82.568Y67.454Z0F1000
G1 X82.769Y66.939Z0F1000
G1 X82.967Y66.415Z0F1000
G1 X83.108Y66.028Z0F1000
G1 X83.265Y65.577Z0F1000
G1 X83.429Y65.098Z0F1000
G1 X83.587Y64.623Z0F1000
G1 X83.729Y64.186Z0F1000
G1 X83.844Y63.82Z0F1000
G1 X83.92Y63.558Z0F1000
G1 X83.941Y63.477Z0F1000
G1 X83.948Y63.434Z0F1000
G1 X83.906Y63.392Z0F1000
G1 X83.788Y63.305Z0F1000
G1 X83.6Y63.178Z0F1000
G1 X83.353Y63.016Z0F1000
G1 X83.053Y62.825Z0F1000
G1 X82.71Y62.61Z0F1000
G1 X82.331Y62.376Z0F1000
G1 X80.197Y61.082Z0F1000
G1 X78.882Y60.28Z0F1000
G1 X78.477Y60.036Z0F1000
G1 X78.131Y59.836Z0F1000
G1 X77.991Y59.758Z0F1000
G1 X77.88Y59.7Z0F1000
G1 X77.802Y59.662Z0F1000
G1 X77.761Y59.649Z0F1000
G1 X77.722Y59.665Z0F1000
G1 X77.651Y59.715Z0F1000
G1 X77.551Y59.794Z0F1000
G1 X77.426Y59.899Z0F1000
G1 X77.118Y60.172Z0F1000
G1 X76.76Y60.506Z0F1000
G1 X76.477Y60.781Z0F1000
G1 X76.25Y61.014Z0F1000
G1 X76.078Y61.208Z0F1000
G0 Z3.5F1000
G0 X79.217Y58.905Z3.5
G1 Z0F1000
G1 X79.457Y59.052Z0F1000
G1 X80.018Y59.39Z0F1000
G1 X80.5Y59.69Z0F1000
G1 X80.717Y59.828Z0F1000
G1 X80.966Y59.984Z0F1000
G1 X81.535Y60.334Z0F1000
G1 X82.157Y60.712Z0F1000
G1 X82.784Y61.087Z0F1000
G1 X83.084Y61.264Z0F1000
G1 X83.625Y61.581Z0F1000
G1 X84.048Y61.822Z0F1000
G1 X84.199Y61.905Z0F1000
G1 X84.302Y61.958Z0F1000
G1 X84.35Y61.978Z0F1000
G1 X84.381Y61.964Z0F1000
G1 X84.424Y61.919Z0F1000
G1 X84.476Y61.848Z0F1000
G1 X84.538Y61.751Z0F1000
G1 X84.68Y61.494Z0F1000
G1 X84.836Y61.17Z0F1000
G1 X85.576Y59.594Z0F1000
G1 X86.334Y58.082Z0F1000
G1 X86.737Y57.316Z0F1000
G1 X87.166Y56.525Z0F1000
G1 X87.628Y55.695Z0F1000
G1 X88.459Y54.235Z0F1000
G1 X88.732Y53.749Z0F1000
G1 X88.92Y53.403Z0F1000
G1 X88.973Y53.3Z0F1000
G1 X88.995Y53.251Z0F1000
G1 X88.954Y53.202Z0F1000
G1 X88.827Y53.136Z0F1000
G1 X88.633Y53.064Z0F1000
G1 X88.392Y52.992Z0F1000
G1 X87.96Y52.859Z0F1000
G1 X87.519Y52.686Z0F1000
G1 X87.072Y52.477Z0F1000
G1 X86.626Y52.234Z0F1000
G1 X86.184Y51.96Z0F1000
G1 X85.752Y51.658Z0F1000
G1 X85.335Y51.331Z0F1000
G1 X84.936Y50.981Z0F1000
G1 X84.752Y50.811Z0F1000
G1 X84.59Y50.665Z0F1000
G1 X84.468Y50.559Z0F1000
G1 X84.403Y50.507Z0F1000
G1 X84.358Y50.517Z0F1000
G1 X84.29Y50.579Z0F1000
G1 X84.21Y50.682Z0F1000
G1 X84.125Y50.816Z0F1000
G1 X84.008Y51.01Z0F1000
G1 X83.841Y51.275Z0F1000
G1 X83.646Y51.577Z0F1000
G1 X81.755Y54.426Z0F1000
G1 X80.843Y55.767Z0F1000
G1 X80.416Y56.384Z0F1000
G1 X80.021Y56.944Z0F1000
G1 X79.839Y57.199Z0F1000
G1 X79.513Y57.647Z0F1000
G1 X79.165Y58.117Z0F1000
G1 X78.996Y58.357Z0F1000
G1 X78.931Y58.454Z0F1000
G1 X78.881Y58.532Z0F1000
G1 X78.85Y58.587Z0F1000
G1 X78.839Y58.616Z0F1000
G1 X78.888Y58.673Z0F1000
G1 X79.021Y58.774Z0F1000
G1 X79.217Y58.905Z0F1000
G0 Z3.5F1000
G0 X69.037Y73.186Z3.5
G1 Z0F1000
G1 X69.014Y73.216Z0F1000
G1 X68.965Y73.302Z0F1000
G1 X68.895Y73.438Z0F1000
G1 X68.807Y73.618Z0F1000
G1 X68.702Y73.835Z0F1000
G1 X68.585Y74.085Z0F1000
G1 X68.324Y74.655Z0F1000
G1 X68.058Y75.245Z0F1000
G1 X67.588Y76.298Z0F1000
G1 X67.425Y76.671Z0F1000
G1 X66.9Y77.846Z0F1000
G1 X66.728Y78.244Z0F1000
G1 X66.669Y78.39Z0F1000
G1 X66.642Y78.475Z0F1000
G1 X66.588Y78.603Z0F1000
G1 X66.509Y78.783Z0F1000
G1 X66.288Y79.266Z0F1000
G1 X65.966Y79.983Z0F1000
G1 X64.193Y84.005Z0F1000
G1 X63.217Y86.207Z0F1000
G1 X62.095Y88.756Z0F1000
G1 X61.615Y89.859Z0F1000
G1 X61.253Y90.684Z0F1000
G1 X61.098Y91.027Z0F1000
G1 X60.817Y91.657Z0F1000
G1 X60.473Y92.439Z0F1000
G1 X59.192Y95.374Z0F1000
G1 X58.773Y96.323Z0F1000
G1 X58.627Y96.665Z0F1000
G1 X58.577Y96.79Z0F1000
G1 X58.551Y96.87Z0F1000
G1 X58.496Y97.001Z0F1000
G1 X58.414Y97.184Z0F1000
G1 X58.216Y97.62Z0F1000
G1 X58.135Y97.808Z0F1000
G1 X58.08Y97.946Z0F1000
G1 X58.04Y98.077Z0F1000
G1 X57.988Y98.208Z0F1000
G1 X57.909Y98.387Z0F1000
G1 X57.814Y98.595Z0F1000
G1 X57.684Y98.885Z0F1000
G1 X57.452Y99.417Z0F1000
G1 X56.735Y101.083Z0F1000
G1 X55.768Y103.349Z0F1000
G1 X54.655Y105.973Z0F1000
G1 X54.533Y106.292Z0F1000
G1 X54.455Y106.568Z0F1000
G1 X54.422Y106.802Z0F1000
G1 X54.433Y106.993Z0F1000
G1 X54.488Y107.142Z0F1000
G1 X54.587Y107.248Z0F1000
G1 X54.731Y107.313Z0F1000
G1 X54.919Y107.335Z0F1000
G1 X55.075Y107.324Z0F1000
G1 X55.229Y107.264Z0F1000
G1 X55.316Y107.203Z0F1000
G1 X55.415Y107.114Z0F1000
G1 X55.53Y106.993Z0F1000
G1 X55.665Y106.834Z0F1000
G1 X55.825Y106.632Z0F1000
G1 X56.012Y106.383Z0F1000
G1 X56.232Y106.081Z0F1000
G1 X56.489Y105.721Z0F1000
G1 X56.787Y105.299Z0F1000
G1 X57.52Y104.245Z0F1000
G1 X58.89Y102.269Z0F1000
G1 X59.759Y101.021Z0F1000
G1 X60.882Y99.427Z0F1000
G1 X61.438Y98.634Z0F1000
G1 X61.88Y97.999Z0F1000
G1 X62.292Y97.403Z0F1000
G1 X62.828Y96.632Z0F1000
G1 X63.747Y95.323Z0F1000
G1 X65.302Y93.127Z0F1000
G1 X66.806Y91Z0F1000
G1 X67.547Y89.946Z0F1000
G1 X68.374Y88.783Z0F1000
G1 X70.126Y86.327Z0F1000
G1 X71.513Y84.378Z0F1000
G1 X72.047Y83.624Z0F1000
G1 X72.622Y82.819Z0F1000
G1 X73.221Y81.995Z0F1000
G1 X73.603Y81.458Z0F1000
G1 X73.787Y81.193Z0F1000
G1 X73.919Y80.992Z0F1000
G1 X74.006Y80.846Z0F1000
G1 X74.054Y80.747Z0F1000
G1 X74.068Y80.686Z0F1000
G1 X74.055Y80.624Z0F1000
G1 X74.008Y80.524Z0F1000
G1 X73.968Y80.453Z0F1000
G1 X73.914Y80.365Z0F1000
G1 X73.845Y80.257Z0F1000
G1 X73.653Y79.97Z0F1000
G1 X73.379Y79.572Z0F1000
G1 X73.008Y79.041Z0F1000
G1 X71.688Y77.166Z0F1000
G1 X71.192Y76.455Z0F1000
G1 X70.752Y75.817Z0F1000
G1 X70.369Y75.254Z0F1000
G1 X70.042Y74.766Z0F1000
G1 X69.773Y74.354Z0F1000
G1 X69.562Y74.019Z0F1000
G1 X69.41Y73.761Z0F1000
G1 X69.281Y73.538Z0F1000
G1 X69.168Y73.356Z0F1000
G1 X69.083Y73.232Z0F1000
G1 X69.037Y73.186Z0F1000
;Cut @ 800 mm/min, 90% power

M8
G0 Z3.5F1000
G0 X60.402Y51.948Z3.5
G1 Z0F1000
;Layer Green
G1 X60.558Y51.91Z0F1000
G1 X60.615Y51.86Z0F1000
G1 X60.596Y51.766Z0F1000
G1 X60.551Y51.711Z0F1000
G1 X60.524Y51.691Z0F1000
G1 X60.481Y51.649Z0F1000
G1 X60.424Y51.586Z0F1000
G1 X60.353Y51.504Z0F1000
G1 X60.179Y51.293Z0F1000
G1 X59.969Y51.03Z0F1000
G1 X59.494Y50.41Z0F1000
G1 X59.024Y49.766Z0F1000
G1 X58.489Y48.975Z0F1000
G1 X58.001Y48.178Z0F1000
G1 X57.557Y47.368Z0F1000
G1 X57.156Y46.542Z0F1000
G1 X56.796Y45.694Z0F1000
G1 X56.473Y44.819Z0F1000
G1 X56.185Y43.911Z0F1000
G1 X55.93Y42.966Z0F1000
G1 X55.771Y42.199Z0F1000
G1 X55.644Y41.391Z0F1000
G1 X55.602Y41.042Z0F1000
G1 X55.58Y40.77Z0F1000
G1 Y40.671Z0F1000
G1 Y40.603Z0F1000
G1 X55.592Y40.567Z0F1000
G1 X55.61Z0F1000
G1 X55.631Y40.605Z0F1000
G1 X55.673Y40.693Z0F1000
G1 X55.81Y40.999Z0F1000
G1 X56.002Y41.441Z0F1000
G1 X56.229Y41.974Z0F1000
G1 X56.726Y43.107Z0F1000
G1 X57.273Y44.271Z0F1000
G1 X57.84Y45.404Z0F1000
G1 X58.397Y46.445Z0F1000
G1 X58.71Y46.98Z0F1000
G1 X59.087Y47.586Z0F1000
G1 X59.511Y48.234Z0F1000
G1 X59.96Y48.896Z0F1000
G1 X60.417Y49.544Z0F1000
G1 X60.86Y50.149Z0F1000
G1 X61.071Y50.427Z0F1000
G1 X61.272Y50.684Z0F1000
G1 X61.459Y50.916Z0F1000
G1 X61.632Y51.12Z0F1000
G1 X61.779Y51.281Z0F1000
G1 X61.887Y51.354Z0F1000
G1 X62Z0F1000
G1 X62.164Y51.292Z0F1000
G1 X62.632Y51.048Z0F1000
G1 X63.128Y50.718Z0F1000
G1 X63.345Y50.551Z0F1000
G1 X63.521Y50.399Z0F1000
G1 X63.638Y50.272Z0F1000
G1 X63.68Y50.184Z0F1000
G1 X63.656Y50.047Z0F1000
G1 X63.589Y49.824Z0F1000
G1 X63.486Y49.532Z0F1000
G1 X63.355Y49.192Z0F1000
G1 X63.035Y48.434Z0F1000
G1 X62.688Y47.696Z0F1000
G1 X62.076Y46.564Z0F1000
G1 X61.395Y45.466Z0F1000
G1 X60.632Y44.387Z0F1000
G1 X59.778Y43.31Z0F1000
G1 X59.475Y42.949Z0F1000
G1 X59.221Y42.65Z0F1000
G1 X58.996Y42.391Z0F1000
G1 X58.776Y42.146Z0F1000
G1 X58.54Y41.893Z0F1000
G1 X58.108Y41.444Z0F1000
G1 X57.363Y40.684Z0F1000
G1 X57.115Y40.425Z0F1000
G1 X57.022Y40.323Z0F1000
G1 X56.948Y40.239Z0F1000
G1 X56.895Y40.172Z0F1000
G1 X56.862Y40.122Z0F1000
G1 X56.85Y40.088Z0F1000
G1 X56.884Y40.068Z0F1000
G1 X56.998Y40.108Z0F1000
G1 X57.191Y40.206Z0F1000
G1 X57.464Y40.356Z0F1000
G1 X58.109Y40.746Z0F1000
G1 X58.746Y41.182Z0F1000
G1 X59.371Y41.659Z0F1000
G1 X59.981Y42.176Z0F1000
G1 X60.573Y42.728Z0F1000
G1 X61.142Y43.314Z0F1000
G1 X61.685Y43.929Z0F1000
G1 X62.2Y44.571Z0F1000
G1 X62.553Y45.059Z0F1000
G1 X62.904Y45.587Z0F1000
G1 X63.244Y46.142Z0F1000
G1 X63.566Y46.711Z0F1000
G1 X63.863Y47.279Z0F1000
G1 X64.127Y47.834Z0F1000
G1 X64.351Y48.363Z0F1000
G1 X64.529Y48.851Z0F1000
G1 X64.604Y49.074Z0F1000
G1 X64.67Y49.257Z0F1000
G1 X64.719Y49.38Z0F1000
G1 X64.746Y49.426Z0F1000
G1 X64.792Y49.384Z0F1000
G1 X64.867Y49.269Z0F1000
G1 X64.962Y49.099Z0F1000
G1 X65.07Y48.89Z0F1000
G1 X65.29Y48.422Z0F1000
G1 X65.459Y47.999Z0F1000
G1 X65.54Y47.717Z0F1000
G1 X65.596Y47.425Z0F1000
G1 X65.629Y47.11Z0F1000
G1 X65.639Y46.76Z0F1000
G1 X65.619Y46.314Z0F1000
G1 X65.558Y45.866Z0F1000
G1 X65.458Y45.417Z0F1000
G1 X65.319Y44.967Z0F1000
G1 X65.142Y44.518Z0F1000
G1 X64.926Y44.07Z0F1000
G1 X64.673Y43.624Z0F1000
G1 X64.384Y43.18Z0F1000
G1 X64.058Y42.741Z0F1000
G1 X63.697Y42.306Z0F1000
G1 X63.301Y41.877Z0F1000
G1 X62.871Y41.453Z0F1000
G1 X62.407Y41.037Z0F1000
G1 X61.909Y40.629Z0F1000
G1 X61.379Y40.229Z0F1000
G1 X60.817Y39.84Z0F1000
G1 X60.202Y39.452Z0F1000
G1 X59.501Y39.05Z0F1000
G1 X58.735Y38.642Z0F1000
G1 X57.923Y38.238Z0F1000
G1 X57.085Y37.848Z0F1000
G1 X56.242Y37.481Z0F1000
G1 X55.412Y37.147Z0F1000
G1 X54.617Y36.855Z0F1000
G1 X54.387Y36.776Z0F1000
G1 X54.062Y36.667Z0F1000
G1 X54.008Y36.651Z0F1000
G1 X54.003Y36.666Z0F1000
G1 X53.981Y36.779Z0F1000
G1 X53.932Y37.107Z0F1000
G1 X53.893Y37.396Z0F1000
G1 X53.75Y38.508Z0F1000
G1 X53.736Y38.669Z0F1000
G1 X53.724Y38.892Z0F1000
G1 X53.715Y39.17Z0F1000
G1 X53.709Y39.492Z0F1000
G1 X53.703Y40.235Z0F1000
G1 X53.706Y41.051Z0F1000
G1 X53.718Y41.87Z0F1000
G1 X53.738Y42.62Z0F1000
G1 X53.75Y42.948Z0F1000
G1 X53.765Y43.232Z0F1000
G1 X53.781Y43.464Z0F1000
G1 X53.798Y43.634Z0F1000
G1 X53.899Y44.335Z0F1000
G1 X54.008Y44.975Z0F1000
G1 X54.127Y45.562Z0F1000
G1 X54.256Y46.103Z0F1000
G1 X54.399Y46.603Z0F1000
G1 X54.557Y47.071Z0F1000
G1 X54.731Y47.513Z0F1000
G1 X54.924Y47.935Z0F1000
G1 X55.23Y48.519Z0F1000
G1 X55.585Y49.129Z0F1000
G1 X55.76Y49.412Z0F1000
G1 X55.925Y49.664Z0F1000
G1 X56.071Y49.871Z0F1000
G1 X56.19Y50.022Z0F1000
G1 X56.558Y50.427Z0F1000
G1 X56.903Y50.778Z0F1000
G1 X57.228Y51.078Z0F1000
G1 X57.537Y51.33Z0F1000
G1 X57.832Y51.534Z0F1000
G1 X58.116Y51.694Z0F1000
G1 X58.392Y51.812Z0F1000
G1 X58.663Y51.889Z0F1000
G1 X59.245Y51.965Z0F1000
G1 X59.885Y51.984Z0F1000
G1 X60.17Y51.972Z0F1000
G1 X60.402Y51.948Z0F1000
G0 Z3.5F1000
G0 X84.523Y48.046Z3.5
G1 Z0F1000
G1 X84.649Y48.344Z0F1000
G1 X84.867Y48.77Z0F1000
G1 X85.067Y49.1Z0F1000
G1 X85.253Y49.362Z0F1000
G1 X85.527Y48.605Z0F1000
G1 X85.741Y48.054Z0F1000
G1 X85.987Y47.496Z0F1000
G1 X86.262Y46.938Z0F1000
G1 X86.561Y46.386Z0F1000
G1 X86.882Y45.846Z0F1000
G1 X87.22Y45.324Z0F1000
G1 X87.573Y44.826Z0F1000
G1 X87.936Y44.358Z0F1000
G1 X88.106Y44.162Z0F1000
G1 X88.259Y44.003Z0F1000
G1 X88.378Y43.9Z0F1000
G1 X88.448Y43.868Z0F1000
G1 X88.481Z0F1000
G1 X88.501Y43.849Z0F1000
G1 X88.508Y43.817Z0F1000
G1 X88.498Y43.775Z0F1000
G1 X88.508Y43.731Z0F1000
G1 X88.556Y43.656Z0F1000
G1 X88.637Y43.552Z0F1000
G1 X88.748Y43.424Z0F1000
G1 X89.044Y43.11Z0F1000
G1 X89.414Y42.742Z0F1000
G1 X89.828Y42.349Z0F1000
G1 X90.255Y41.962Z0F1000
G1 X90.665Y41.61Z0F1000
G1 X91.026Y41.323Z0F1000
G1 X91.65Y40.89Z0F1000
G1 X92.318Y40.473Z0F1000
G1 X92.617Y40.303Z0F1000
G1 X92.864Y40.173Z0F1000
G1 X92.962Y40.128Z0F1000
G1 X93.039Y40.097Z0F1000
G1 X93.092Y40.083Z0F1000
G1 X93.12Y40.087Z0F1000
G1 X93.117Y40.11Z0F1000
G1 X93.089Y40.156Z0F1000
G1 X93.04Y40.222Z0F1000
G1 X92.97Y40.306Z0F1000
G1 X92.781Y40.516Z0F1000
G1 X91.651Y41.67Z0F1000
G1 X90.843Y42.546Z0F1000
G1 X90.108Y43.398Z0F1000
G1 X89.441Y44.234Z0F1000
G1 X88.836Y45.064Z0F1000
G1 X88.284Y45.895Z0F1000
G1 X87.782Y46.737Z0F1000
G1 X87.32Y47.597Z0F1000
G1 X87.102Y48.037Z0F1000
G1 X86.9Y48.462Z0F1000
G1 X86.718Y48.862Z0F1000
G1 X86.56Y49.229Z0F1000
G1 X86.43Y49.553Z0F1000
G1 X86.332Y49.823Z0F1000
G1 X86.27Y50.031Z0F1000
G1 X86.249Y50.166Z0F1000
G1 X86.269Y50.22Z0F1000
G1 X86.325Y50.292Z0F1000
G1 X86.414Y50.379Z0F1000
G1 X86.529Y50.477Z0F1000
G1 X86.818Y50.694Z0F1000
G1 X87.154Y50.918Z0F1000
G1 X87.496Y51.124Z0F1000
G1 X87.803Y51.286Z0F1000
G1 X87.931Y51.343Z0F1000
G1 X88.035Y51.378Z0F1000
G1 X88.11Y51.39Z0F1000
G1 X88.152Y51.375Z0F1000
G1 X88.815Y50.533Z0F1000
G1 X89.554Y49.564Z0F1000
G1 X90.243Y48.593Z0F1000
G1 X90.89Y47.609Z0F1000
G1 X91.502Y46.598Z0F1000
G1 X92.087Y45.546Z0F1000
G1 X92.652Y44.443Z0F1000
G1 X93.205Y43.273Z0F1000
G1 X93.753Y42.026Z0F1000
G1 X93.939Y41.59Z0F1000
G1 X94.086Y41.254Z0F1000
G1 X94.197Y41.01Z0F1000
G1 X94.279Y40.848Z0F1000
G1 X94.336Y40.76Z0F1000
G1 X94.374Y40.737Z0F1000
G1 X94.396Y40.77Z0F1000
G1 X94.408Y40.85Z0F1000
G1 Y40.945Z0F1000
G1 X94.405Y41.068Z0F1000
G1 X94.393Y41.215Z0F1000
G1 X94.373Y41.384Z0F1000
G1 X94.317Y41.774Z0F1000
G1 X94.24Y42.214Z0F1000
G1 X94.043Y43.145Z0F1000
G1 X93.819Y43.985Z0F1000
G1 X93.38Y45.257Z0F1000
G1 X92.861Y46.502Z0F1000
G1 X92.577Y47.101Z0F1000
G1 X92.281Y47.678Z0F1000
G1 X91.973Y48.228Z0F1000
G1 X91.658Y48.744Z0F1000
G1 X91.458Y49.045Z0F1000
G1 X91.205Y49.41Z0F1000
G1 X90.917Y49.814Z0F1000
G1 X90.611Y50.232Z0F1000
G1 X90.307Y50.64Z0F1000
G1 X90.023Y51.012Z0F1000
G1 X89.776Y51.326Z0F1000
G1 X89.672Y51.452Z0F1000
G1 X89.585Y51.554Z0F1000
G1 X89.487Y51.677Z0F1000
G1 X89.419Y51.788Z0F1000
G1 X89.387Y51.874Z0F1000
G1 X89.396Y51.926Z0F1000
G1 X89.43Y51.94Z0F1000
G1 X89.498Y51.952Z0F1000
G1 X89.596Y51.961Z0F1000
G1 X89.719Y51.968Z0F1000
G1 X90.029Y51.972Z0F1000
G1 X90.393Y51.964Z0F1000
G1 X90.683Y51.952Z0F1000
G1 X90.916Y51.937Z0F1000
G1 X91.107Y51.916Z0F1000
G1 X91.27Y51.887Z0F1000
G1 X91.57Y51.788Z0F1000
G1 X91.932Y51.613Z0F1000
G1 X92.229Y51.443Z0F1000
G1 X92.525Y51.238Z0F1000
G1 X92.819Y51Z0F1000
G1 X93.11Y50.732Z0F1000
G1 X93.395Y50.435Z0F1000
G1 X93.674Y50.111Z0F1000
G1 X93.945Y49.764Z0F1000
G1 X94.207Y49.395Z0F1000
G1 X94.695Y48.599Z0F1000
G1 X95.127Y47.744Z0F1000
G1 X95.492Y46.845Z0F1000
G1 X95.776Y45.92Z0F1000
G1 X96.011Y44.877Z0F1000
G1 X96.156Y43.83Z0F1000
G1 X96.202Y43.248Z0F1000
G1 X96.232Y42.596Z0F1000
G1 X96.241Y42.237Z0F1000
G1 X96.248Y41.853Z0F1000
G1 X96.252Y41.439Z0F1000
G1 Y40.994Z0F1000
G1 X96.248Y40.184Z0F1000
G1 X96.23Y39.399Z0F1000
G1 X96.202Y38.664Z0F1000
G1 X96.165Y38.006Z0F1000
G1 X96.144Y37.714Z0F1000
G1 X96.122Y37.451Z0F1000
G1 X96.098Y37.219Z0F1000
G1 X96.074Y37.023Z0F1000
G1 X96.048Y36.866Z0F1000
G1 X96.022Y36.749Z0F1000
G1 X95.995Y36.678Z0F1000
G1 X95.968Y36.655Z0F1000
G1 X95.9Y36.672Z0F1000
G1 X95.755Y36.716Z0F1000
G1 X95.554Y36.78Z0F1000
G1 X95.318Y36.857Z0F1000
G1 X95.062Y36.947Z0F1000
G1 X94.76Y37.061Z0F1000
G1 X94.422Y37.194Z0F1000
G1 X94.053Y37.344Z0F1000
G1 X93.26Y37.679Z0F1000
G1 X92.444Y38.037Z0F1000
G1 X92.047Y38.217Z0F1000
G1 X91.668Y38.391Z0F1000
G1 X91.315Y38.557Z0F1000
G1 X90.995Y38.712Z0F1000
G1 X90.717Y38.851Z0F1000
G1 X90.487Y38.972Z0F1000
G1 X90.315Y39.07Z0F1000
G1 X90.209Y39.143Z0F1000
G1 X90.173Y39.168Z0F1000
G1 X90.007Y39.28Z0F1000
G1 X89.582Y39.56Z0F1000
G1 X88.93Y39.982Z0F1000
G1 X88.686Y40.143Z0F1000
G1 X88.483Y40.279Z0F1000
G1 X88.312Y40.401Z0F1000
G1 X88.015Y40.629Z0F1000
G1 X87.707Y40.893Z0F1000
G1 X87.123Y41.428Z0F1000
G1 X86.602Y41.952Z0F1000
G1 X86.142Y42.469Z0F1000
G1 X85.738Y42.985Z0F1000
G1 X85.388Y43.504Z0F1000
G1 X85.087Y44.03Z0F1000
G1 X84.832Y44.569Z0F1000
G1 X84.62Y45.125Z0F1000
G1 X84.516Y45.47Z0F1000
G1 X84.455Y45.807Z0F1000
G1 X84.437Y45.999Z0F1000
G1 X84.425Y46.218Z0F1000
G1 X84.419Y46.477Z0F1000
G1 Y46.785Z0F1000
G1 Y47.115Z0F1000
G1 X84.424Y47.379Z0F1000
G1 X84.435Y47.589Z0F1000
G1 X84.453Y47.762Z0F1000
G1 X84.523Y48.046Z0F1000
;Cut @ 800 mm/min, 80% power

M8
G0 Z3.5F1000
G0 X82.765Y50.227Z3.5
G1 Z0F1000
;Layer Red
G1 X82.661Y50.194Z0S800F1000
G1 X82.527Y50.154Z0F1000
G1 X82.183Y50.057Z0F1000
G1 X81.763Y49.945Z0F1000
G1 X80.812Y49.704Z0F1000
G1 X79.911Y49.493Z0F1000
G1 X79.407Y49.383Z0F1000
G1 X78.76Y46.11Z0F1000
G1 X78.651Y45.594Z0F1000
G1 X78.545Y45.161Z0F1000
G1 X78.497Y44.991Z0F1000
G1 X78.455Y44.857Z0F1000
G1 X78.42Y44.768Z0F1000
G1 X78.393Y44.727Z0F1000
G1 X78.367Y44.72Z0F1000
G1 X78.313Y44.714Z0F1000
G1 X78.125Y44.701Z0F1000
G1 X77.842Y44.689Z0F1000
G1 X77.476Y44.679Z0F1000
G1 X77.039Y44.67Z0F1000
G1 X76.542Y44.664Z0F1000
G1 X75.999Y44.66Z0F1000
G1 X75.422Z0F1000
G1 X74.67Z0F1000
G1 X74.047Z0F1000
G1 X73.544Y44.669Z0F1000
G1 X73.151Y44.68Z0F1000
G1 X72.857Y44.694Z0F1000
G1 X72.652Y44.712Z0F1000
G1 X72.527Y44.735Z0F1000
G1 X72.47Y44.763Z0F1000
G1 X72.448Y44.808Z0F1000
G1 X72.418Y44.895Z0F1000
G1 X72.382Y45.019Z0F1000
G1 X72.341Y45.176Z0F1000
G1 X72.251Y45.564Z0F1000
G1 X72.156Y46.019Z0F1000
G1 X72.055Y46.523Z0F1000
G1 X71.898Y47.292Z0F1000
G1 X71.704Y48.205Z0F1000
G1 X71.641Y48.522Z0F1000
G1 X71.589Y48.806Z0F1000
G1 X71.554Y49.019Z0F1000
G1 X71.536Y49.165Z0F1000
G1 X71.517Y49.272Z0F1000
G1 X71.478Y49.35Z0F1000
G1 X71.399Y49.408Z0F1000
G1 X71.261Y49.456Z0F1000
G1 X71.046Y49.502Z0F1000
G1 X70.903Y49.528Z0F1000
G1 X70.106Y49.662Z0F1000
G1 X69.949Y49.684Z0F1000
G1 X69.828Y49.697Z0F1000
G1 X69.735Y49.7Z0F1000
G1 X69.611Y49.674Z0F1000
G1 X69.528Y49.605Z0F1000
G1 X69.491Y49.558Z0F1000
G1 X69.359Y49.372Z0F1000
G1 X69.041Y48.906Z0F1000
G1 X68.774Y48.509Z0F1000
G1 X68.187Y47.619Z0F1000
G1 X67.472Y46.515Z0F1000
G1 X67.327Y46.302Z0F1000
G1 X67.269Y46.22Z0F1000
G1 X67.222Y46.158Z0F1000
G1 X67.189Y46.119Z0F1000
G1 X67.172Y46.105Z0F1000
G1 X67.164Y46.127Z0F1000
G1 X67.155Y46.19Z0F1000
G1 X67.148Y46.291Z0F1000
G1 X67.141Y46.423Z0F1000
G1 X67.131Y46.769Z0F1000
G1 X67.125Y47.519Z0F1000
G1 X67.118Y47.789Z0F1000
G1 X67.106Y48.014Z0F1000
G1 X67.085Y48.206Z0F1000
G1 X67.013Y48.553Z0F1000
G1 X66.886Y48.941Z0F1000
G1 X66.647Y49.607Z0F1000
G1 X68.56Y52.466Z0F1000
G1 X69.138Y53.321Z0F1000
G1 X69.584Y53.975Z0F1000
G1 X69.8Y54.284Z0F1000
G1 X69.875Y54.386Z0F1000
G1 X69.889Y54.402Z0F1000
G1 X69.954Z0F1000
G1 X70.091Y54.382Z0F1000
G1 X70.278Y54.341Z0F1000
G1 X70.496Y54.285Z0F1000
G1 X70.939Y54.176Z0F1000
G1 X71.425Y54.082Z0F1000
G1 X71.95Y54.003Z0F1000
G1 X72.505Y53.937Z0F1000
G1 X73.687Y53.85Z0F1000
G1 X74.918Y53.821Z0F1000
G1 X76.149Y53.849Z0F1000
G1 X77.328Y53.935Z0F1000
G1 X77.883Y53.999Z0F1000
G1 X78.406Y54.079Z0F1000
G1 X78.891Y54.172Z0F1000
G1 X79.331Y54.28Z0F1000
G1 X79.584Y54.349Z0F1000
G1 X79.779Y54.398Z0F1000
G1 X79.926Y54.428Z0F1000
G1 X80.033Y54.438Z0F1000
G1 X80.165Y54.4Z0F1000
G1 X80.246Y54.283Z0F1000
G1 X80.283Y54.221Z0F1000
G1 X80.356Y54.106Z0F1000
G1 X80.593Y53.748Z0F1000
G1 X80.922Y53.26Z0F1000
G1 X81.309Y52.694Z0F1000
G1 X82.611Y50.804Z0F1000
G1 X82.731Y50.617Z0F1000
G1 X82.819Y50.453Z0F1000
G1 X82.867Y50.332Z0F1000
G1 Y50.269Z0F1000
G1 X82.835Y50.253Z0F1000
G1 X82.765Y50.227Z0F1000
G0 Z3.5F1000
G0 X89.984Y54.29Z3.5
G1 Z0F1000
G1 X88.932Y56.359Z0F1000
G1 X88.602Y57.003Z0F1000
G1 X88.333Y57.521Z0F1000
G1 X88.157Y57.851Z0F1000
G1 X88.079Y57.991Z0F1000
G1 X88.063Y58.05Z0F1000
G1 X88.072Y58.112Z0F1000
G1 X88.112Y58.186Z0F1000
G1 X88.191Y58.28Z0F1000
G1 X88.314Y58.404Z0F1000
G1 X88.488Y58.565Z0F1000
G1 X88.718Y58.773Z0F1000
G1 X89.687Y59.677Z0F1000
G1 X90.581Y60.583Z0F1000
G1 X91.401Y61.492Z0F1000
G1 X92.152Y62.411Z0F1000
G1 X92.835Y63.341Z0F1000
G1 X93.455Y64.288Z0F1000
G1 X94.013Y65.255Z0F1000
G1 X94.513Y66.245Z0F1000
G1 X94.713Y66.695Z0F1000
G1 X94.922Y67.211Z0F1000
G1 X95.133Y67.773Z0F1000
G1 X95.34Y68.361Z0F1000
G1 X95.536Y68.957Z0F1000
G1 X95.714Y69.539Z0F1000
G1 X95.868Y70.09Z0F1000
G1 X95.991Y70.588Z0F1000
G1 X96.215Y71.743Z0F1000
G1 X96.376Y72.934Z0F1000
G1 X96.475Y74.148Z0F1000
G1 X96.511Y75.369Z0F1000
G1 X96.485Y76.583Z0F1000
G1 X96.395Y77.776Z0F1000
G1 X96.243Y78.934Z0F1000
G1 X96.028Y80.041Z0F1000
G1 X95.943Y80.39Z0F1000
G1 X95.838Y80.789Z0F1000
G1 X95.718Y81.216Z0F1000
G1 X95.592Y81.649Z0F1000
G1 X95.464Y82.068Z0F1000
G1 X95.341Y82.451Z0F1000
G1 X95.23Y82.776Z0F1000
G1 X95.137Y83.022Z0F1000
G1 X94.873Y83.661Z0F1000
G1 X94.825Y83.773Z0F1000
G1 X94.761Y83.913Z0F1000
G1 X94.594Y84.262Z0F1000
G1 X94.391Y84.672Z0F1000
G1 X94.169Y85.11Z0F1000
G1 X93.947Y85.54Z0F1000
G1 X93.741Y85.928Z0F1000
G1 X93.571Y86.238Z0F1000
G1 X93.505Y86.353Z0F1000
G1 X93.453Y86.436Z0F1000
G1 X93.3Y86.667Z0F1000
G1 X93.092Y86.971Z0F1000
G1 X92.852Y87.318Z0F1000
G1 X92.359Y88.02Z0F1000
G1 X92.063Y88.434Z0F1000
G1 X91.942Y88.598Z0F1000
G1 X91.911Y88.635Z0F1000
G1 X91.739Y88.837Z0F1000
G1 X91.443Y89.193Z0F1000
G1 X91.06Y89.643Z0F1000
G1 X90.677Y90.074Z0F1000
G1 X90.524Y90.243Z0F1000
G1 X90.39Y90.397Z0F1000
G1 X90.29Y90.518Z0F1000
G1 X90.239Y90.589Z0F1000
G1 X90.236Y90.647Z0F1000
G1 X90.262Y90.76Z0F1000
G1 X90.319Y90.929Z0F1000
G1 X90.406Y91.156Z0F1000
G1 X90.524Y91.444Z0F1000
G1 X90.675Y91.792Z0F1000
G1 X90.859Y92.204Z0F1000
G1 X91.146Y92.837Z0F1000
G1 X91.342Y93.291Z0F1000
G1 X91.591Y93.877Z0F1000
G1 X91.725Y94.182Z0F1000
G1 X91.846Y94.446Z0F1000
G1 X91.952Y94.666Z0F1000
G1 X92.042Y94.841Z0F1000
G1 X92.115Y94.968Z0F1000
G1 X92.171Y95.046Z0F1000
G1 X92.208Y95.073Z0F1000
G1 X92.275Y95.035Z0F1000
G1 X92.405Y94.934Z0F1000
G1 X92.578Y94.784Z0F1000
G1 X92.777Y94.601Z0F1000
G1 X93.631Y93.79Z0F1000
G1 X94.475Y94.183Z0F1000
G1 X95.408Y94.614Z0F1000
G1 X95.942Y94.855Z0F1000
G1 X96.468Y95.094Z0F1000
G1 X96.882Y95.277Z0F1000
G1 X97.227Y95.414Z0F1000
G1 X97.51Y95.505Z0F1000
G1 X97.74Y95.553Z0F1000
G1 X97.922Y95.558Z0F1000
G1 X98.064Y95.521Z0F1000
G1 X98.174Y95.442Z0F1000
G1 X98.259Y95.324Z0F1000
G1 X98.293Y95.268Z0F1000
G1 X98.36Y95.168Z0F1000
G1 X98.582Y94.847Z0F1000
G1 X98.899Y94.397Z0F1000
G1 X99.287Y93.852Z0F1000
G1 X100.177Y92.612Z0F1000
G1 X101.056Y91.405Z0F1000
G1 X101.259Y91.116Z0F1000
G1 X101.425Y90.856Z0F1000
G1 X101.488Y90.745Z0F1000
G1 X101.537Y90.652Z0F1000
G1 X101.567Y90.58Z0F1000
G1 X101.578Y90.534Z0F1000
G1 X101.536Y90.427Z0F1000
G1 X101.421Y90.255Z0F1000
G1 X101.252Y90.042Z0F1000
G1 X101.046Y89.811Z0F1000
G1 X99.789Y88.481Z0F1000
G1 X99.235Y87.888Z0F1000
G1 X99.03Y87.664Z0F1000
G1 X98.867Y87.48Z0F1000
G1 X98.741Y87.332Z0F1000
G1 X98.649Y87.214Z0F1000
G1 X98.587Y87.121Z0F1000
G1 X98.548Y87.048Z0F1000
G1 X98.53Y86.989Z0F1000
G1 X98.538Y86.892Z0F1000
G1 X98.635Y86.624Z0F1000
G1 X98.731Y86.382Z0F1000
G1 X98.849Y86.093Z0F1000
G1 X99.273Y85.079Z0F1000
G1 X99.663Y84.112Z0F1000
G1 X99.769Y83.871Z0F1000
G1 X99.857Y83.69Z0F1000
G1 X99.916Y83.594Z0F1000
G1 X99.969Y83.565Z0F1000
G1 X100.077Y83.539Z0F1000
G1 X100.245Y83.517Z0F1000
G1 X100.481Y83.496Z0F1000
G1 X100.79Y83.478Z0F1000
G1 X101.178Y83.461Z0F1000
G1 X101.651Y83.446Z0F1000
G1 X103.133Y83.406Z0F1000
G1 X103.584Y83.39Z0F1000
G1 X103.925Y83.372Z0F1000
G1 X104.06Y83.362Z0F1000
G1 X104.269Y83.338Z0F1000
G1 X104.411Y83.31Z0F1000
G1 X104.503Y83.275Z0F1000
G1 X104.561Y83.232Z0F1000
G1 X104.631Y83.115Z0F1000
G1 X104.706Y82.907Z0F1000
G1 X104.781Y82.625Z0F1000
G1 X104.85Y82.288Z0F1000
G1 X104.966Y81.647Z0F1000
G1 X105.106Y80.893Z0F1000
G1 X105.29Y79.923Z0F1000
G1 X105.537Y78.632Z0F1000
G1 X105.619Y78.173Z0F1000
G1 X105.678Y77.777Z0F1000
G1 X105.697Y77.615Z0F1000
G1 X105.709Y77.485Z0F1000
G1 X105.712Y77.391Z0F1000
G1 X105.706Y77.34Z0F1000
G1 X105.656Y77.244Z0F1000
G1 X105.509Y77.153Z0F1000
G1 X105.357Y77.091Z0F1000
G1 X105.131Y77.007Z0F1000
G1 X103.813Y76.544Z0F1000
G1 X103.262Y76.347Z0F1000
G1 X102.749Y76.159Z0F1000
G1 X102.289Y75.988Z0F1000
G1 X101.899Y75.838Z0F1000
G1 X101.594Y75.716Z0F1000
G1 X101.477Y75.668Z0F1000
G1 X101.388Y75.628Z0F1000
G1 X101.327Y75.598Z0F1000
G1 X101.298Y75.579Z0F1000
G1 X101.282Y75.534Z0F1000
G1 X101.265Y75.43Z0F1000
G1 X101.246Y75.273Z0F1000
G1 X101.226Y75.072Z0F1000
G1 X101.206Y74.831Z0F1000
G1 X101.186Y74.559Z0F1000
G1 X101.167Y74.261Z0F1000
G1 X101.116Y73.312Z0F1000
G1 X101.083Y72.747Z0F1000
G1 X101.055Y72.313Z0F1000
G1 X101.035Y72.07Z0F1000
G1 X101.025Y71.894Z0F1000
G1 X101.067Y71.776Z0F1000
G1 X101.118Y71.725Z0F1000
G1 X101.194Y71.673Z0F1000
G1 X101.3Y71.613Z0F1000
G1 X101.439Y71.541Z0F1000
G1 X102.533Y70.965Z0F1000
G1 X103.646Y70.349Z0F1000
G1 X103.898Y70.206Z0F1000
G1 X104.342Y69.947Z0F1000
G1 X104.526Y69.837Z0F1000
G1 X104.68Y69.742Z0F1000
G1 X104.8Y69.665Z0F1000
G1 X104.881Y69.607Z0F1000
G1 X104.919Y69.572Z0F1000
G1 X104.955Y69.499Z0F1000
G1 X104.975Y69.404Z0F1000
G1 X104.978Y69.285Z0F1000
G1 X104.964Y69.14Z0F1000
G1 X104.933Y68.965Z0F1000
G1 X104.884Y68.757Z0F1000
G1 X104.817Y68.515Z0F1000
G1 X104.731Y68.235Z0F1000
G1 X104.59Y67.785Z0F1000
G1 X103.926Y65.65Z0F1000
G1 X103.801Y65.252Z0F1000
G1 X103.684Y64.893Z0F1000
G1 X103.577Y64.579Z0F1000
G1 X103.48Y64.31Z0F1000
G1 X103.396Y64.09Z0F1000
G1 X103.324Y63.922Z0F1000
G1 X103.266Y63.809Z0F1000
G1 X103.223Y63.754Z0F1000
G1 X103.166Y63.715Z0F1000
G1 X103.095Y63.689Z0F1000
G1 X102.978Y63.678Z0F1000
G1 X102.783Y63.683Z0F1000
G1 X102.646Y63.693Z0F1000
G1 X102.273Y63.727Z0F1000
G1 X101.742Y63.783Z0F1000
G1 X99.576Y64.022Z0F1000
G1 X99.335Y64.046Z0F1000
G1 X99.131Y64.06Z0F1000
G1 X98.962Y64.066Z0F1000
G1 X98.823Y64.06Z0F1000
G1 X98.709Y64.043Z0F1000
G1 X98.538Y63.971Z0F1000
G1 X98.415Y63.84Z0F1000
G1 X98.304Y63.642Z0F1000
G1 X98.169Y63.371Z0F1000
G1 X97.769Y62.634Z0F1000
G1 X97.31Y61.85Z0F1000
G1 X97.115Y61.526Z0F1000
G1 X96.956Y61.246Z0F1000
G1 X96.895Y61.133Z0F1000
G1 X96.848Y61.042Z0F1000
G1 X96.819Y60.977Z0F1000
G1 X96.809Y60.942Z0F1000
G1 X96.834Y60.886Z0F1000
G1 X96.906Y60.761Z0F1000
G1 X97.02Y60.574Z0F1000
G1 X97.171Y60.333Z0F1000
G1 X97.354Y60.047Z0F1000
G1 X97.564Y59.724Z0F1000
G1 X98.299Y58.608Z0F1000
G1 X98.534Y58.243Z0F1000
G1 X98.745Y57.91Z0F1000
G1 X98.926Y57.613Z0F1000
G1 X99.074Y57.362Z0F1000
G1 X99.185Y57.161Z0F1000
G1 X99.254Y57.019Z0F1000
G1 X99.278Y56.942Z0F1000
G1 X99.262Y56.876Z0F1000
G1 X99.213Y56.784Z0F1000
G1 X99.13Y56.664Z0F1000
G1 X99.011Y56.513Z0F1000
G1 X98.855Y56.33Z0F1000
G1 X98.661Y56.114Z0F1000
G1 X98.427Y55.863Z0F1000
G1 X98.153Y55.575Z0F1000
G1 X97.394Y54.791Z0F1000
G1 X96.764Y54.143Z0F1000
G1 X96.251Y53.623Z0F1000
G1 X95.846Y53.219Z0F1000
G1 X95.68Y53.059Z0F1000
G1 X95.538Y52.923Z0F1000
G1 X95.417Y52.812Z0F1000
G1 X95.317Y52.724Z0F1000
G1 X95.237Y52.658Z0F1000
G1 X95.174Y52.612Z0F1000
G1 X95.128Y52.585Z0F1000
G1 X95.097Y52.577Z0F1000
G1 X95.032Y52.603Z0F1000
G1 X94.895Y52.678Z0F1000
G1 X94.696Y52.797Z0F1000
G1 X94.441Y52.954Z0F1000
G1 X94.14Y53.145Z0F1000
G1 X93.801Y53.363Z0F1000
G1 X93.433Y53.604Z0F1000
G1 X93.043Y53.862Z0F1000
G1 X91.117Y55.148Z0F1000
G1 X89.984Y54.29Z0F1000
G0 Z3.5F1000
G0 X61.97Y58.085Z3.5
G1 Z0F1000
G1 X61.948Y58.034Z0F1000
G1 X61.868Y57.868Z0F1000
G1 X61.749Y57.64Z0F1000
G1 X61.516Y57.213Z0F1000
G1 X61.289Y56.792Z0F1000
G1 X60.882Y56.024Z0F1000
G1 X60.167Y54.661Z0F1000
G1 X60.026Y54.396Z0F1000
G1 X59.966Y54.289Z0F1000
G1 X59.919Y54.306Z0F1000
G1 X59.814Y54.377Z0F1000
G1 X59.665Y54.491Z0F1000
G1 X59.305Y54.788Z0F1000
G1 X59.139Y54.923Z0F1000
G1 X59.009Y55.025Z0F1000
G1 X58.932Y55.079Z0F1000
G1 X58.889Y55.074Z0F1000
G1 X58.804Y55.039Z0F1000
G1 X58.68Y54.976Z0F1000
G1 X58.522Y54.889Z0F1000
G1 X58.334Y54.779Z0F1000
G1 X58.122Y54.652Z0F1000
G1 X57.889Y54.508Z0F1000
G1 X57.64Y54.352Z0F1000
G1 X57.115Y54.013Z0F1000
G1 X56.582Y53.657Z0F1000
G1 X56.078Y53.309Z0F1000
G1 X55.433Y52.84Z0F1000
G1 X55.257Y52.731Z0F1000
G1 X55.107Y52.665Z0F1000
G1 X54.972Y52.639Z0F1000
G1 X54.844Y52.655Z0F1000
G1 X54.715Y52.712Z0F1000
G1 X54.575Y52.81Z0F1000
G1 X54.416Y52.948Z0F1000
G1 X54.305Y53.055Z0F1000
G1 X54.134Y53.224Z0F1000
G1 X53.647Y53.716Z0F1000
G1 X53.025Y54.353Z0F1000
G1 X52.336Y55.067Z0F1000
G1 X51.849Y55.577Z0F1000
G1 X51.463Y55.985Z0F1000
G1 X51.169Y56.305Z0F1000
G1 X51.053Y56.436Z0F1000
G1 X50.956Y56.549Z0F1000
G1 X50.813Y56.73Z0F1000
G1 X50.73Y56.86Z0F1000
G1 X50.695Y56.953Z0F1000
G1 X50.698Y57.022Z0F1000
G1 X50.722Y57.077Z0F1000
G1 X50.768Y57.165Z0F1000
G1 X50.832Y57.279Z0F1000
G1 X50.912Y57.415Z0F1000
G1 X51.111Y57.738Z0F1000
G1 X51.343Y58.098Z0F1000
G1 X51.57Y58.446Z0F1000
G1 X51.828Y58.847Z0F1000
G1 X51.916Y58.99Z0F1000
G1 X51.941Y59.038Z0F1000
G1 X52.037Y59.189Z0F1000
G1 X52.317Y59.611Z0F1000
G1 X53.201Y60.914Z0F1000
G1 X52.841Y61.463Z0F1000
G1 X52.758Y61.595Z0F1000
G1 X52.658Y61.758Z0F1000
G1 X52.546Y61.946Z0F1000
G1 X52.425Y62.154Z0F1000
G1 X52.171Y62.599Z0F1000
G1 X51.781Y63.311Z0F1000
G1 X51.655Y63.534Z0F1000
G1 X51.548Y63.712Z0F1000
G1 X51.456Y63.851Z0F1000
G1 X51.379Y63.953Z0F1000
G1 X51.313Y64.021Z0F1000
G1 X51.255Y64.06Z0F1000
G1 X51.204Y64.072Z0F1000
G1 X51.128Y64.068Z0F1000
G1 X50.754Y64.036Z0F1000
G1 X50.147Y63.979Z0F1000
G1 X48.511Y63.816Z0F1000
G1 X48.101Y63.778Z0F1000
G1 X47.735Y63.748Z0F1000
G1 X47.42Y63.726Z0F1000
G1 X47.16Y63.712Z0F1000
G1 X46.959Y63.706Z0F1000
G1 X46.823Y63.709Z0F1000
G1 X46.757Y63.721Z0F1000
G1 X46.702Y63.78Z0F1000
G1 X46.633Y63.904Z0F1000
G1 X46.549Y64.102Z0F1000
G1 X46.446Y64.379Z0F1000
G1 X46.322Y64.742Z0F1000
G1 X46.175Y65.198Z0F1000
G1 X46.092Y65.463Z0F1000
G1 X45.906Y66.071Z0F1000
G1 X45.681Y66.816Z0F1000
G1 X45.449Y67.565Z0F1000
G1 X45.266Y68.135Z0F1000
G1 X45.178Y68.427Z0F1000
G1 X45.104Y68.691Z0F1000
G1 X45.044Y68.924Z0F1000
G1 X45Y69.123Z0F1000
G1 X44.973Y69.283Z0F1000
G1 X44.963Y69.401Z0F1000
G1 X44.972Y69.472Z0F1000
G1 X45Y69.518Z0F1000
G1 X45.053Y69.574Z0F1000
G1 X45.13Y69.641Z0F1000
G1 X45.231Y69.718Z0F1000
G1 X45.504Y69.902Z0F1000
G1 X45.868Y70.124Z0F1000
G1 X46.32Y70.382Z0F1000
G1 X46.857Y70.675Z0F1000
G1 X47.475Y71Z0F1000
G1 X48.172Y71.356Z0F1000
G1 X48.973Y71.759Z0F1000
G1 X48.849Y73.829Z0F1000
G1 X48.8Y74.577Z0F1000
G1 X48.772Y74.951Z0F1000
G1 X48.748Y75.233Z0F1000
G1 X48.727Y75.429Z0F1000
G1 X48.709Y75.549Z0F1000
G1 X48.692Y75.597Z0F1000
G1 X48.655Y75.617Z0F1000
G1 X48.572Y75.654Z0F1000
G1 X48.291Y75.767Z0F1000
G1 X47.887Y75.921Z0F1000
G1 X47.399Y76.103Z0F1000
G1 X46.866Y76.298Z0F1000
G1 X46.329Y76.491Z0F1000
G1 X45.825Y76.668Z0F1000
G1 X45.396Y76.814Z0F1000
G1 X45.03Y76.943Z0F1000
G1 X44.713Y77.07Z0F1000
G1 X44.584Y77.128Z0F1000
G1 X44.48Y77.181Z0F1000
G1 X44.405Y77.225Z0F1000
G1 X44.364Y77.26Z0F1000
G1 X44.323Y77.329Z0F1000
G1 X44.297Y77.424Z0F1000
G1 X44.288Y77.557Z0F1000
G1 X44.296Y77.739Z0F1000
G1 X44.322Y77.981Z0F1000
G1 X44.368Y78.296Z0F1000
G1 X44.433Y78.695Z0F1000
G1 X44.948Y81.617Z0F1000
G1 X45.013Y81.975Z0F1000
G1 X45.073Y82.287Z0F1000
G1 X45.13Y82.554Z0F1000
G1 X45.182Y82.777Z0F1000
G1 X45.23Y82.957Z0F1000
G1 X45.275Y83.095Z0F1000
G1 X45.316Y83.191Z0F1000
G1 X45.355Y83.246Z0F1000
G1 X45.412Y83.286Z0F1000
G1 X45.501Y83.319Z0F1000
G1 X45.635Y83.347Z0F1000
G1 X45.826Y83.369Z0F1000
G1 X46.087Y83.388Z0F1000
G1 X46.43Y83.405Z0F1000
G1 X46.869Y83.421Z0F1000
G1 X47.414Y83.437Z0F1000
G1 X48.872Y83.474Z0F1000
G1 X49.397Y83.485Z0F1000
G1 X49.686Y83.49Z0F1000
G1 X49.895Y83.498Z0F1000
G1 X50.02Y83.552Z0F1000
G1 X50.068Y83.611Z0F1000
G1 X50.114Y83.698Z0F1000
G1 X50.164Y83.819Z0F1000
G1 X50.305Y84.19Z0F1000
G1 X50.388Y84.401Z0F1000
G1 X50.463Y84.588Z0F1000
G1 X50.895Y85.599Z0F1000
G1 X51.515Y87.068Z0F1000
G1 X50.465Y88.193Z0F1000
G1 X49.592Y89.126Z0F1000
G1 X48.965Y89.789Z0F1000
G1 X48.786Y89.986Z0F1000
G1 X48.633Y90.177Z0F1000
G1 X48.521Y90.339Z0F1000
G1 X48.467Y90.45Z0F1000
G1 X48.45Y90.532Z0F1000
G1 X48.459Y90.622Z0F1000
G1 X48.51Y90.752Z0F1000
G1 X48.625Y90.952Z0F1000
G1 X48.712Y91.088Z0F1000
G1 X48.822Y91.253Z0F1000
G1 X49.12Y91.687Z0F1000
G1 X49.539Y92.284Z0F1000
G1 X50.641Y93.848Z0F1000
G1 X51.47Y95.03Z0F1000
G1 X51.652Y95.294Z0F1000
G1 X51.754Y95.43Z0F1000
G1 X51.859Y95.524Z0F1000
G1 X51.98Y95.578Z0F1000
G1 X52.128Y95.589Z0F1000
G1 X52.318Y95.557Z0F1000
G1 X52.559Y95.481Z0F1000
G1 X52.865Y95.361Z0F1000
G1 X53.248Y95.196Z0F1000
G1 X53.702Y94.994Z0F1000
G1 X54.202Y94.769Z0F1000
G1 X54.763Y94.514Z0F1000
G1 X56.36Y93.78Z0F1000
G1 X56.677Y94.056Z0F1000
G1 X57.014Y94.359Z0F1000
G1 X57.529Y94.846Z0F1000
G1 X57.665Y94.964Z0F1000
G1 X57.768Y95.043Z0F1000
G1 X57.825Y95.073Z0F1000
G1 X57.899Y95.004Z0F1000
G1 X57.982Y94.838Z0F1000
G1 X58.102Y94.548Z0F1000
G1 X58.269Y94.178Z0F1000
G1 X58.737Y93.164Z0F1000
G1 X59.214Y92.113Z0F1000
G1 X59.609Y91.229Z0F1000
G1 X59.706Y90.998Z0F1000
G1 X59.756Y90.819Z0F1000
G1 X59.753Y90.666Z0F1000
G1 X59.691Y90.515Z0F1000
G1 X59.565Y90.34Z0F1000
G1 X59.477Y90.235Z0F1000
G1 X59.1Y89.815Z0F1000
G1 X58.505Y89.127Z0F1000
G1 X57.946Y88.436Z0F1000
G1 X57.422Y87.74Z0F1000
G1 X56.933Y87.038Z0F1000
G1 X56.478Y86.329Z0F1000
G1 X56.056Y85.611Z0F1000
G1 X55.666Y84.884Z0F1000
G1 X55.309Y84.145Z0F1000
G1 X54.984Y83.394Z0F1000
G1 X54.69Y82.629Z0F1000
G1 X54.426Y81.849Z0F1000
G1 X54.191Y81.053Z0F1000
G1 X53.986Y80.238Z0F1000
G1 X53.81Y79.405Z0F1000
G1 X53.661Y78.551Z0F1000
G1 X53.54Y77.676Z0F1000
G1 X53.514Y77.416Z0F1000
G1 X53.494Y77.117Z0F1000
G1 X53.479Y76.784Z0F1000
G1 X53.469Y76.424Z0F1000
G1 X53.466Y75.643Z0F1000
G1 X53.481Y74.815Z0F1000
G1 X53.515Y73.984Z0F1000
G1 X53.566Y73.194Z0F1000
G1 X53.597Y72.828Z0F1000
G1 X53.632Y72.488Z0F1000
G1 X53.671Y72.179Z0F1000
G1 X53.713Y71.908Z0F1000
G1 X53.979Y70.591Z0F1000
G1 X54.308Y69.326Z0F1000
G1 X54.705Y68.106Z0F1000
G1 X55.17Y66.926Z0F1000
G1 X55.708Y65.779Z0F1000
G1 X56.321Y64.659Z0F1000
G1 X57.011Y63.559Z0F1000
G1 X57.781Y62.474Z0F1000
G1 X57.934Y62.278Z0F1000
G1 X58.119Y62.053Z0F1000
G1 X58.33Y61.805Z0F1000
G1 X58.565Y61.538Z0F1000
G1 X59.084Y60.964Z0F1000
G1 X59.643Y60.369Z0F1000
G1 X60.206Y59.788Z0F1000
G1 X60.738Y59.259Z0F1000
G1 X60.982Y59.025Z0F1000
G1 X61.205Y58.817Z0F1000
G1 X61.404Y58.64Z0F1000
G1 X61.73Y58.369Z0F1000
G1 X61.858Y58.252Z0F1000
G1 X61.945Y58.163Z0F1000
G1 X61.977Y58.112Z0F1000
G1 X61.97Y58.085Z0F1000
G0 Z3.5F1000
G0 X65.824Y94.732Z3.5
G1 Z0F1000
G1 X65.8Y94.748Z0F1000
G1 X65.756Y94.794Z0F1000
G1 X65.696Y94.867Z0F1000
G1 X65.621Y94.963Z0F1000
G1 X65.438Y95.214Z0F1000
G1 X65.225Y95.52Z0F1000
G1 X65.006Y95.842Z0F1000
G1 X64.715Y96.267Z0F1000
G1 X64.482Y96.597Z0F1000
G1 X64.256Y96.924Z0F1000
G1 X63.908Y97.431Z0F1000
G1 X62.75Y99.125Z0F1000
G1 X61.975Y100.251Z0F1000
G1 X61.062Y101.569Z0F1000
G1 X60.827Y101.921Z0F1000
G1 X60.738Y102.059Z0F1000
G1 X60.673Y102.164Z0F1000
G1 X60.634Y102.233Z0F1000
G1 X60.625Y102.261Z0F1000
G1 X60.695Y102.308Z0F1000
G1 X60.821Y102.38Z0F1000
G1 X60.995Y102.472Z0F1000
G1 X61.209Y102.583Z0F1000
G1 X61.726Y102.839Z0F1000
G1 X62.306Y103.119Z0F1000
G1 X62.884Y103.39Z0F1000
G1 X63.395Y103.622Z0F1000
G1 X63.606Y103.713Z0F1000
G1 X63.775Y103.784Z0F1000
G1 X63.895Y103.829Z0F1000
G1 X63.957Y103.844Z0F1000
G1 X64.085Y103.82Z0F1000
G1 X64.219Y103.734Z0F1000
G1 X64.295Y103.663Z0F1000
G1 X64.379Y103.571Z0F1000
G1 X64.476Y103.454Z0F1000
G1 X64.976Y102.811Z0F1000
G1 X65.728Y101.878Z0F1000
G1 X66.34Y101.092Z0F1000
G1 X66.508Y100.879Z0F1000
G1 X66.641Y100.715Z0F1000
G1 X66.832Y100.495Z0F1000
G1 X66.953Y100.336Z0F1000
G1 X67.026Y100.246Z0F1000
G1 X67.098Y100.206Z0F1000
G1 X67.188Y100.209Z0F1000
G1 X67.548Y100.332Z0F1000
G1 X67.873Y100.426Z0F1000
G1 X68.261Y100.529Z0F1000
G1 X68.684Y100.632Z0F1000
G1 X69.11Y100.73Z0F1000
G1 X69.511Y100.815Z0F1000
G1 X69.855Y100.879Z0F1000
G1 X70.114Y100.916Z0F1000
G1 X70.378Y100.951Z0F1000
G1 X70.565Y100.995Z0F1000
G1 X70.685Y101.052Z0F1000
G1 X70.753Y101.127Z0F1000
G1 X70.778Y101.201Z0F1000
G1 X70.818Y101.353Z0F1000
G1 X70.871Y101.573Z0F1000
G1 X70.934Y101.853Z0F1000
G1 X71.006Y102.183Z0F1000
G1 X71.084Y102.555Z0F1000
G1 X71.167Y102.958Z0F1000
G1 X71.345Y103.838Z0F1000
G1 X71.432Y104.25Z0F1000
G1 X71.513Y104.615Z0F1000
G1 X71.587Y104.928Z0F1000
G1 X71.652Y105.184Z0F1000
G1 X71.708Y105.377Z0F1000
G1 X71.752Y105.504Z0F1000
G1 X71.784Y105.558Z0F1000
G1 X71.812Y105.565Z0F1000
G1 X71.87Y105.572Z0F1000
G1 X71.958Y105.579Z0F1000
G1 X72.072Y105.586Z0F1000
G1 X72.377Y105.598Z0F1000
G1 X72.771Y105.609Z0F1000
G1 X73.242Y105.618Z0F1000
G1 X73.777Y105.625Z0F1000
G1 X74.362Y105.63Z0F1000
G1 X74.984Z0F1000
G1 X78.069Y105.633Z0F1000
G1 X78.194Y105.441Z0F1000
G1 X78.254Y105.306Z0F1000
G1 X78.324Y105.081Z0F1000
G1 X78.396Y104.796Z0F1000
G1 X78.462Y104.483Z0F1000
G1 X78.588Y103.822Z0F1000
G1 X78.76Y102.945Z0F1000
G1 X79.148Y100.996Z0F1000
G1 X79.909Y100.89Z0F1000
G1 X80.085Y100.862Z0F1000
G1 X80.292Y100.826Z0F1000
G1 X80.523Y100.781Z0F1000
G1 X80.771Y100.73Z0F1000
G1 X81.285Y100.615Z0F1000
G1 X81.774Y100.494Z0F1000
G1 X82.877Y100.204Z0F1000
G1 X83.163Y100.569Z0F1000
G1 X83.779Y101.346Z0F1000
G1 X84.307Y102.019Z0F1000
G1 X85.068Y103.006Z0F1000
G1 X85.284Y103.28Z0F1000
G1 X85.456Y103.489Z0F1000
G1 X85.594Y103.64Z0F1000
G1 X85.707Y103.742Z0F1000
G1 X85.801Y103.805Z0F1000
G1 X85.887Y103.836Z0F1000
G1 X85.972Y103.844Z0F1000
G1 X86.05Y103.827Z0F1000
G1 X86.187Y103.778Z0F1000
G1 X86.372Y103.702Z0F1000
G1 X86.598Y103.603Z0F1000
G1 X87.138Y103.354Z0F1000
G1 X87.736Y103.064Z0F1000
G1 X88.322Y102.768Z0F1000
G1 X88.827Y102.501Z0F1000
G1 X89.027Y102.389Z0F1000
G1 X89.181Y102.298Z0F1000
G1 X89.28Y102.23Z0F1000
G1 X89.314Y102.191Z0F1000
G1 X89.28Y102.096Z0F1000
G1 X89.197Y101.978Z0F1000
G1 X89.159Y101.93Z0F1000
G1 X89.005Y101.719Z0F1000
G1 X88.627Y101.192Z0F1000
G1 X88Y100.301Z0F1000
G1 X87.557Y99.664Z0F1000
G1 X87.328Y99.329Z0F1000
G1 X86.977Y98.811Z0F1000
G1 X86.338Y97.892Z0F1000
G1 X85.879Y97.222Z0F1000
G1 X85.282Y96.344Z0F1000
G1 X84.55Y95.264Z0F1000
G1 X84.404Y95.058Z0F1000
G1 X84.271Y94.888Z0F1000
G1 X84.167Y94.774Z0F1000
G1 X84.105Y94.732Z0F1000
G1 X84.025Y94.753Z0F1000
G1 X83.869Y94.809Z0F1000
G1 X83.66Y94.893Z0F1000
G1 X83.42Y94.995Z0F1000
G1 X82.797Y95.248Z0F1000
G1 X82.095Y95.494Z0F1000
G1 X81.339Y95.728Z0F1000
G1 X80.55Y95.944Z0F1000
G1 X79.752Y96.137Z0F1000
G1 X78.967Y96.3Z0F1000
G1 X78.217Y96.428Z0F1000
G1 X77.526Y96.514Z0F1000
G1 X76.979Y96.556Z0F1000
G1 X76.356Y96.585Z0F1000
G1 X75.68Y96.599Z0F1000
G1 X74.977Z0F1000
G1 X74.272Y96.589Z0F1000
G1 X73.59Y96.564Z0F1000
G1 X72.956Y96.527Z0F1000
G1 X72.396Y96.476Z0F1000
G1 X71.603Y96.374Z0F1000
G1 X70.798Y96.24Z0F1000
G1 X69.992Y96.078Z0F1000
G1 X69.198Y95.891Z0F1000
G1 X68.428Y95.681Z0F1000
G1 X67.694Y95.453Z0F1000
G1 X67.008Y95.208Z0F1000
G1 X66.382Y94.951Z0F1000
G1 X66.186Y94.866Z0F1000
G1 X66.015Y94.796Z0F1000
G1 X65.888Y94.749Z0F1000
G1 X65.824Y94.732Z0F1000
M9

G90
G1 Z10 F800
