;LightBurn 1.6.04
;Custom GCode device profile, absolute coords
;Bounds: X8.44 Y56.82 to X175.56 Y87.18
G00 G17 G40 G21 G54
G90
M3
;Cut @ 1200 mm/min, 90% power

M8
G0 Z1.5F500
G0 X8.675Y61.781Z1.5F1200
G1 Z0F500
;Layer C00
G1 X8.816Y62.182Z0S900F1200
G1 X8.927Y62.591Z0F1200
G1 X9.081Y63.68Z0F1200
G1 X9.188Y64.747Z0F1200
G1 X9.251Y65.814Z0F1200
G1 X9.271Y66.901Z0F1200
G1 X9.26Y67.186Z0F1200
G1 X9.242Y67.746Z0F1200
G1 X9.237Y68.041Z0F1200
G1 Y68.299Z0F1200
G1 X9.242Y68.403Z0F1200
G1 X9.249Y68.485Z0F1200
G1 X9.258Y68.54Z0F1200
G1 X9.271Y68.563Z0F1200
G1 X9.53Y68.624Z0F1200
G1 X9.802Y68.61Z0F1200
G1 X10.078Y68.573Z0F1200
G1 X10.351Y68.563Z0F1200
G1 X10.533Y68.619Z0F1200
G1 X10.714Y68.666Z0F1200
G1 X10.961Y68.648Z0F1200
G1 X11.254Y68.6Z0F1200
G1 X11.544Y68.534Z0F1200
G1 X11.782Y68.461Z0F1200
G1 X12.022Y68.33Z0F1200
G1 X12.193Y68.157Z0F1200
G1 X12.327Y67.945Z0F1200
G1 X12.455Y67.699Z0F1200
G1 X12.687Y67.196Z0F1200
G1 X12.854Y66.705Z0F1200
G1 X12.959Y66.222Z0F1200
G1 X13.007Y65.741Z0F1200
G1 X13.002Y65.255Z0F1200
G1 X12.948Y64.76Z0F1200
G1 X12.848Y64.25Z0F1200
G1 X12.708Y63.718Z0F1200
G1 X12.424Y63.319Z0F1200
G1 X12.132Y62.965Z0F1200
G1 X11.949Y62.874Z0F1200
G1 X11.681Y62.751Z0F1200
G1 X11.356Y62.608Z0F1200
G1 X11.002Y62.456Z0F1200
G1 X10.645Y62.309Z0F1200
G1 X10.315Y62.179Z0F1200
G1 X10.038Y62.078Z0F1200
G1 X9.841Y62.018Z0F1200
G1 X9.642Y61.979Z0F1200
G1 X9.497Y61.963Z0F1200
G1 X9.385Y61.96Z0F1200
G1 X9.288Z0F1200
G1 X9.187Y61.952Z0F1200
G1 X9.064Y61.927Z0F1200
G1 X8.9Y61.874Z0F1200
G1 X8.675Y61.781Z0F1200
G0 Z1.5F500
G0 X15.071Y64.262Z1.5F1200
G1 Z0F500
G1 X14.758Y64.317Z0F1200
G1 X14.393Y64.351Z0F1200
G1 X14.212Y64.343Z0F1200
G1 X14.04Y64.309Z0F1200
G1 X13.887Y64.242Z0F1200
G1 X13.76Y64.137Z0F1200
G1 X13.644Y63.969Z0F1200
G1 X13.569Y63.786Z0F1200
G1 X13.53Y63.591Z0F1200
G1 X13.518Y63.387Z0F1200
G1 X13.515Y63.183Z0F1200
G1 X13.51Y63.015Z0F1200
G1 Y62.873Z0F1200
G1 X13.515Y62.746Z0F1200
G1 X13.536Y62.622Z0F1200
G1 X13.575Y62.492Z0F1200
G1 X13.639Y62.344Z0F1200
G1 X13.732Y62.167Z0F1200
G1 X13.816Y62.021Z0F1200
G1 X13.868Y61.943Z0F1200
G1 X13.899Y61.915Z0F1200
G1 X13.917Y61.921Z0F1200
G1 X13.958Y61.97Z0F1200
G1 X14.068Y61.961Z0F1200
G1 X14.159Y61.907Z0F1200
G1 X14.176Y61.873Z0F1200
G1 X14.15Y61.854Z0F1200
G1 X14.109Y61.84Z0F1200
G1 X14.081Y61.827Z0F1200
G1 X14.097Y61.807Z0F1200
G1 X14.13Y61.793Z0F1200
G1 X14.185Y61.774Z0F1200
G1 X14.265Y61.75Z0F1200
G1 X14.374Y61.72Z0F1200
G1 X14.604Y61.69Z0F1200
G1 X14.831Y61.716Z0F1200
G1 X15.048Y61.794Z0F1200
G1 X15.246Y61.92Z0F1200
G1 X15.418Y62.088Z0F1200
G1 X15.555Y62.293Z0F1200
G1 X15.65Y62.531Z0F1200
G1 X15.693Y62.797Z0F1200
G1 X15.64Y63.025Z0F1200
G1 X15.504Y63.272Z0F1200
G1 X15.354Y63.491Z0F1200
G1 X15.26Y63.637Z0F1200
G1 X15.215Y63.8Z0F1200
G1 X15.193Y63.978Z0F1200
G1 X15.157Y64.141Z0F1200
G1 X15.071Y64.262Z0F1200
G1 X14.917Y64.317Z0F1200
G1 X14.745Y64.304Z0F1200
G1 X14.566Y64.274Z0F1200
G1 X14.393Z0F1200
G1 X14.346Y64.342Z0F1200
G1 X14.302Y64.421Z0F1200
G1 X14.111Y64.43Z0F1200
G1 X13.918Y64.421Z0F1200
G0 Z1.5F500
G0 X16.458Y62.357Z1.5F1200
G1 Z0F500
G1 X16.551Y62.802Z0F1200
G1 X16.63Y63.249Z0F1200
G1 X16.649Y63.691Z0F1200
G1 X16.671Y64.148Z0F1200
G1 X16.716Y64.347Z0F1200
G1 X16.803Y64.506Z0F1200
G1 X16.944Y64.613Z0F1200
G1 X17.153Y64.651Z0F1200
G1 X17.307Y64.632Z0F1200
G1 X17.49Y64.579Z0F1200
G1 X17.667Y64.5Z0F1200
G1 X17.802Y64.404Z0F1200
G1 X18.105Y64.101Z0F1200
G1 X18.355Y63.809Z0F1200
G1 X18.455Y63.653Z0F1200
G1 X18.537Y63.483Z0F1200
G1 X18.6Y63.293Z0F1200
G1 X18.64Y63.078Z0F1200
G1 X18.627Y62.85Z0F1200
G1 X18.568Y62.637Z0F1200
G1 X18.541Y62.549Z0F1200
G1 X18.524Y62.48Z0F1200
G1 Y62.434Z0F1200
G1 X18.553Y62.418Z0F1200
G0 Z1.5F500
G0 X21.138Y64.034Z1.5F1200
G1 Z0F500
G1 X20.766Y64.261Z0F1200
G1 X20.358Y64.438Z0F1200
G1 X20.161Y64.46Z0F1200
G1 X19.981Y64.413Z0F1200
G1 X19.899Y64.357Z0F1200
G1 X19.824Y64.278Z0F1200
G1 X19.758Y64.171Z0F1200
G1 X19.701Y64.035Z0F1200
G1 X19.639Y63.746Z0F1200
G1 X19.653Y63.471Z0F1200
G1 X19.728Y63.214Z0F1200
G1 X19.852Y62.975Z0F1200
G1 X20.013Y62.758Z0F1200
G1 X20.196Y62.564Z0F1200
G1 X20.39Y62.396Z0F1200
G1 X20.581Y62.256Z0F1200
G1 X20.75Y62.159Z0F1200
G1 X20.9Y62.11Z0F1200
G1 X21.025Z0F1200
G1 X21.121Y62.16Z0F1200
G1 X21.184Y62.26Z0F1200
G1 X21.207Y62.411Z0F1200
G1 X21.187Y62.615Z0F1200
G1 X21.119Y62.872Z0F1200
G1 X21.051Y63.017Z0F1200
G1 X20.973Y63.13Z0F1200
G1 X20.899Y63.243Z0F1200
G1 X20.845Y63.387Z0F1200
G1 Y63.456Z0F1200
G1 X20.858Y63.536Z0F1200
G1 X20.881Y63.592Z0F1200
G1 X20.908Y63.589Z0F1200
G1 X21.014Y63.379Z0F1200
G1 X21.099Y63.157Z0F1200
G1 X21.22Y62.751Z0F1200
G1 X21.33Y62.404Z0F1200
G1 X21.453Y62.052Z0F1200
G1 X21.515Y61.895Z0F1200
G1 X21.574Y61.762Z0F1200
G1 X21.63Y61.661Z0F1200
G1 X21.679Y61.601Z0F1200
G1 X21.721Y61.591Z0F1200
G1 X21.753Y61.638Z0F1200
G1 X21.774Y61.752Z0F1200
G1 X21.781Y61.94Z0F1200
G0 Z1.5F500
G0 X23.833Y67.794Z1.5F1200
G1 Z0F500
G1 X23.891Y67.012Z0F1200
G1 X23.931Y66.22Z0F1200
G1 X23.943Y65.426Z0F1200
G1 X23.914Y64.639Z0F1200
G1 X23.884Y64.257Z0F1200
G1 X23.86Y63.909Z0F1200
G1 X23.863Y63.56Z0F1200
G1 X23.914Y63.178Z0F1200
G1 X23.936Y63.112Z0F1200
G1 X24.098Y62.702Z0F1200
G1 X24.153Y62.55Z0F1200
G1 X24.193Y62.418Z0F1200
G1 X24.209Y62.323Z0F1200
G1 X24.192Y62.28Z0F1200
G1 X23.458Y62.112Z0F1200
G1 X22.721Y61.963Z0F1200
G0 Z1.5F500
G0 X26.845Y63.616Z1.5F1200
G1 Z0F500
G1 X26.795Y63.708Z0F1200
G1 X26.705Y63.769Z0F1200
G1 X26.582Y63.803Z0F1200
G1 X26.434Y63.813Z0F1200
G1 X26.084Y63.767Z0F1200
G1 X25.712Y63.65Z0F1200
G1 X25.371Y63.483Z0F1200
G1 X25.116Y63.283Z0F1200
G1 X25.037Y63.178Z0F1200
G1 X25.001Y63.071Z0F1200
G1 X25.012Y62.967Z0F1200
G1 X25.08Y62.866Z0F1200
G1 X25.322Y62.67Z0F1200
G1 X25.653Y62.476Z0F1200
G1 X26.043Y62.301Z0F1200
G1 X26.465Y62.163Z0F1200
G1 X26.891Y62.08Z0F1200
G1 X27.293Y62.071Z0F1200
G1 X27.477Y62.099Z0F1200
G1 X27.644Y62.152Z0F1200
G1 X27.791Y62.233Z0F1200
G1 X27.914Y62.343Z0F1200
G1 X28.069Y62.571Z0F1200
G1 X28.204Y62.867Z0F1200
G1 X28.319Y63.214Z0F1200
G1 X28.417Y63.59Z0F1200
G1 X28.497Y63.976Z0F1200
G1 X28.561Y64.353Z0F1200
G1 X28.609Y64.701Z0F1200
G1 X28.643Y65.001Z0F1200
G1 X28.649Y65.199Z0F1200
G1 X28.635Y65.441Z0F1200
G1 X28.605Y65.712Z0F1200
G1 X28.56Y65.996Z0F1200
G1 X28.505Y66.276Z0F1200
G1 X28.441Y66.536Z0F1200
G1 X28.372Y66.761Z0F1200
G1 X28.3Y66.934Z0F1200
G1 X28.198Y67.053Z0F1200
G1 X28.092Y67.168Z0F1200
G1 X27.936Y67.508Z0F1200
G1 X27.783Y67.807Z0F1200
G1 X27.76Y67.748Z0F1200
G1 Y67.679Z0F1200
G1 X27.783Y67.538Z0F1200
G1 X27.852Y67.25Z0F1200
G1 X27.911Y66.96Z0F1200
G1 X27.926Y66.481Z0F1200
G1 X27.896Y65.519Z0F1200
G1 X27.911Y65.04Z0F1200
G1 X27.971Y64.754Z0F1200
G1 X28.038Y64.469Z0F1200
G1 X28.031Y64.272Z0F1200
G1 X28.038Y64.08Z0F1200
G1 X28.157Y63.864Z0F1200
G1 X28.286Y63.654Z0F1200
G1 X28.316Y63.547Z0F1200
G1 X28.34Y63.396Z0F1200
G1 X28.365Y63.218Z0F1200
G1 X28.395Y63.033Z0F1200
G1 X28.433Y62.857Z0F1200
G1 X28.484Y62.71Z0F1200
G1 X28.553Y62.608Z0F1200
G1 X28.644Y62.57Z0F1200
G0 Z1.5F500
G0 X32.163Y64.795Z1.5F1200
G1 Z0F500
G1 X32.301Y65.143Z0F1200
G1 X32.509Y65.443Z0F1200
G1 X32.766Y65.712Z0F1200
G1 X33.052Y65.962Z0F1200
G1 X33.347Y66.209Z0F1200
G1 X33.631Y66.466Z0F1200
G1 X33.882Y66.747Z0F1200
G1 X34.081Y67.068Z0F1200
G1 X34.137Y67.208Z0F1200
G1 X34.164Y67.332Z0F1200
G1 X34.172Y67.452Z0F1200
G1 Y67.582Z0F1200
G1 Y67.657Z0F1200
G1 Y67.682Z0F1200
G1 X34.234Y67.326Z0F1200
G1 X34.271Y67.092Z0F1200
G1 X34.289Y66.958Z0F1200
G1 Y66.901Z0F1200
G1 X34.261Y66.935Z0F1200
G1 X34.217Y67.019Z0F1200
G1 X34.198Y67.025Z0F1200
G1 X34.188Y66.978Z0F1200
G1 Y66.856Z0F1200
G1 X34.207Y66.638Z0F1200
G1 X34.244Y66.302Z0F1200
G1 X34.306Y65.825Z0F1200
G1 X34.395Y65.187Z0F1200
G1 X34.517Y64.365Z0F1200
G1 X34.583Y64.046Z0F1200
G1 X34.673Y63.735Z0F1200
G1 X34.771Y63.426Z0F1200
G1 X34.863Y63.114Z0F1200
G1 X34.928Y62.949Z0F1200
G1 X35.004Y62.774Z0F1200
G1 X35.043Y62.614Z0F1200
G1 X34.991Y62.491Z0F1200
G1 X34.745Y62.315Z0F1200
G1 X34.483Y62.177Z0F1200
G1 X34.208Y62.075Z0F1200
G1 X33.923Y62.005Z0F1200
G1 X33.341Y61.943Z0F1200
G1 X32.765Y61.959Z0F1200
G1 X32.477Y61.98Z0F1200
G1 X32.126Y62.002Z0F1200
G1 X32.022Y62.016Z0F1200
G1 X31.939Y62.041Z0F1200
G1 X31.857Y62.084Z0F1200
G1 X31.754Y62.149Z0F1200
G1 X31.612Y62.245Z0F1200
G0 Z1.5F500
G0 X35.927Y62.326Z1.5F1200
G1 Z0F500
G1 X35.967Y62.015Z0F1200
G1 X36.029Y61.768Z0F1200
G1 X36.11Y61.579Z0F1200
G1 X36.204Y61.445Z0F1200
G1 X36.309Y61.359Z0F1200
G1 X36.418Y61.319Z0F1200
G1 X36.529Z0F1200
G1 X36.637Y61.351Z0F1200
G1 X36.738Y61.414Z0F1200
G1 X36.827Y61.502Z0F1200
G1 X36.9Y61.611Z0F1200
G1 X36.953Y61.735Z0F1200
G1 X36.981Y61.87Z0F1200
G1 Y62.011Z0F1200
G1 X36.948Y62.153Z0F1200
G1 X36.877Y62.291Z0F1200
G1 X36.72Y62.432Z0F1200
G1 X36.519Y62.552Z0F1200
G1 X36.424Y62.616Z0F1200
G1 X36.345Y62.689Z0F1200
G1 X36.291Y62.777Z0F1200
G1 X36.271Y62.882Z0F1200
G0 Z1.5F500
G0 X40.476Y67.558Z1.5F1200
G1 Z0F500
G1 X40.582Y66.28Z0F1200
G1 X40.614Y64.987Z0F1200
G1 X40.607Y63.689Z0F1200
G1 X40.597Y62.395Z0F1200
G0 Z1.5F500
G0 X37.568Y67.409Z1.5F1200
G1 Z0F500
G1 X37.943Y67.497Z0F1200
G1 X38.319Y67.541Z0F1200
G1 X38.697Y67.548Z0F1200
G1 X39.075Y67.529Z0F1200
G1 X40.584Y67.362Z0F1200
G1 X40.975Y67.342Z0F1200
G1 X41.374Y67.331Z0F1200
G1 X41.772Y67.31Z0F1200
G1 X42.161Y67.259Z0F1200
G1 X42.421Y67.192Z0F1200
G1 X42.677Y67.156Z0F1200
G0 Z1.5F500
G0 X42.851Y62.113Z1.5F1200
G1 Z0F500
G1 X42.786Y62.899Z0F1200
G1 X42.724Y63.686Z0F1200
G1 Y63.82Z0F1200
G1 X42.751Y63.928Z0F1200
G1 X42.797Y64.015Z0F1200
G1 X42.86Y64.081Z0F1200
G1 X43.032Y64.163Z0F1200
G1 X43.244Y64.194Z0F1200
G1 X43.709Y64.182Z0F1200
G1 X44.087Y64.204Z0F1200
G1 X44.151Y64.232Z0F1200
G1 X44.234Y64.278Z0F1200
G1 X44.264Y64.302Z0F1200
G1 X44.277Y64.322Z0F1200
G1 X44.264Y64.336Z0F1200
G1 X44.218Y64.342Z0F1200
G0 Z1.5F500
G0 Z1.5F1200
G1 Z0F500
G1 X44.616Y64.249Z0F1200
G1 X45.022Y64.174Z0F1200
G1 X45.221Y64.126Z0F1200
G1 X45.412Y64.062Z0F1200
G1 X45.594Y63.975Z0F1200
G1 X45.763Y63.859Z0F1200
G1 X45.826Y63.783Z0F1200
G1 X45.86Y63.69Z0F1200
G1 X45.873Y63.583Z0F1200
G1 Y63.466Z0F1200
G1 X45.853Y63.22Z0F1200
G1 Y62.986Z0F1200
G1 X45.912Y62.698Z0F1200
G1 X45.997Y62.455Z0F1200
G1 X46.11Y62.252Z0F1200
G1 X46.251Y62.081Z0F1200
G1 X46.418Y61.937Z0F1200
G1 X46.611Y61.814Z0F1200
G1 X46.829Y61.705Z0F1200
G1 X47.073Y61.605Z0F1200
G1 X47.215Y61.573Z0F1200
G1 X47.323Y61.596Z0F1200
G1 X47.4Y61.666Z0F1200
G1 X47.451Y61.776Z0F1200
G1 X47.478Y61.92Z0F1200
G1 X47.484Y62.09Z0F1200
G1 X47.474Y62.279Z0F1200
G1 X47.45Y62.479Z0F1200
G1 X47.376Y62.888Z0F1200
G1 X47.287Y63.259Z0F1200
G1 X47.177Y63.66Z0F1200
G1 X47.163Y63.824Z0F1200
G1 X47.169Y64.018Z0F1200
G1 X47.179Y64.1Z0F1200
G1 X47.194Y64.156Z0F1200
G1 X47.214Y64.175Z0F1200
G1 X47.238Y64.148Z0F1200
G1 X47.462Y63.593Z0F1200
G1 X47.771Y62.677Z0F1200
G1 X47.877Y62.392Z0F1200
G1 X47.99Y62.133Z0F1200
G1 X48.111Y61.912Z0F1200
G0 Z1.5F500
G0 X49.732Y63.02Z1.5F1200
G1 Z0F500
G1 X49.68Y63.033Z0F1200
G1 X49.661Y63.029Z0F1200
G1 X49.669Y63.009Z0F1200
G1 X49.701Y62.976Z0F1200
G1 X49.818Y62.875Z0F1200
G1 X49.977Y62.742Z0F1200
G1 X50.143Y62.592Z0F1200
G1 X50.281Y62.438Z0F1200
G1 X50.328Y62.365Z0F1200
G1 X50.356Y62.297Z0F1200
G1 X50.359Y62.236Z0F1200
G1 X50.333Y62.183Z0F1200
G1 X50.313Z0F1200
G1 X50.285Y62.219Z0F1200
G1 X50.253Y62.285Z0F1200
G1 X50.217Y62.38Z0F1200
G1 X50.142Y62.639Z0F1200
G1 X50.074Y62.966Z0F1200
G1 Y63.114Z0F1200
G1 X50.113Y63.26Z0F1200
G1 X50.187Y63.403Z0F1200
G1 X50.284Y63.537Z0F1200
G1 X50.517Y63.768Z0F1200
G1 X50.743Y63.927Z0F1200
G1 X50.919Y63.978Z0F1200
G1 X51.092Y63.944Z0F1200
G1 X51.259Y63.844Z0F1200
G1 X51.416Y63.697Z0F1200
G1 X51.687Y63.337Z0F1200
G1 X51.878Y63.014Z0F1200
G1 X51.996Y62.9Z0F1200
G1 X52.109Y62.783Z0F1200
G1 X52.136Y62.651Z0F1200
G1 X52.133Y62.477Z0F1200
G1 X52.118Y62.302Z0F1200
G1 X52.109Y62.165Z0F1200
G1 X52.112Y62.189Z0F1200
G1 X52.109Y62.258Z0F1200
G1 X52.039Y62.519Z0F1200
G1 X51.995Y62.701Z0F1200
G1 X51.962Y62.892Z0F1200
G1 X51.954Y63.074Z0F1200
G1 X51.981Y63.227Z0F1200
G1 X52.057Y63.333Z0F1200
G1 X52.195Y63.372Z0F1200
G1 X52.405Y63.388Z0F1200
G1 X52.572Y63.422Z0F1200
G1 X52.705Y63.453Z0F1200
G1 X52.813Y63.463Z0F1200
G1 X52.903Y63.43Z0F1200
G1 X52.985Y63.335Z0F1200
G1 X53.025Y63.258Z0F1200
G1 X53.067Y63.157Z0F1200
G1 X53.111Y63.031Z0F1200
G1 X53.158Y62.877Z0F1200
G1 X53.204Y62.715Z0F1200
G1 X53.238Y62.591Z0F1200
G1 X53.26Y62.495Z0F1200
G1 X53.274Y62.415Z0F1200
G1 X53.284Y62.261Z0F1200
G1 Y62.041Z0F1200
G0 Z1.5F500
G0 Z1.5F1200
G1 Z0F500
G1 X53.694Y61.999Z0F1200
G1 X54.107Y61.971Z0F1200
G1 X54.513Y61.914Z0F1200
G1 X54.9Y61.78Z0F1200
G1 X54.925Y61.737Z0F1200
G1 X54.957Y61.639Z0F1200
G1 X54.994Y61.503Z0F1200
G1 X55.146Y60.89Z0F1200
G1 X55.173Y60.801Z0F1200
G1 X55.224Y60.693Z0F1200
G1 X55.288Y60.571Z0F1200
G1 X55.324Y60.477Z0F1200
G1 X55.294Y60.456Z0F1200
G1 X55.245Y60.512Z0F1200
G1 X55.211Y60.59Z0F1200
G1 X54.923Y61.11Z0F1200
G1 X54.655Y61.643Z0F1200
G1 X54.434Y62.218Z0F1200
G1 X54.272Y62.817Z0F1200
G1 X54.256Y63.11Z0F1200
G1 X54.272Y63.407Z0F1200
G1 X54.286Y63.645Z0F1200
G1 X54.329Y63.81Z0F1200
G1 X54.399Y63.911Z0F1200
G1 X54.497Y63.958Z0F1200
G1 X54.623Y63.962Z0F1200
G1 X54.775Y63.934Z0F1200
G1 X54.953Y63.882Z0F1200
G1 X55.322Y63.766Z0F1200
G1 X55.518Y63.694Z0F1200
G1 X55.726Y63.599Z0F1200
G1 X55.925Y63.478Z0F1200
G1 X56.092Y63.329Z0F1200
G1 X56.207Y63.15Z0F1200
G1 X56.238Y63.047Z0F1200
G1 X56.247Y62.937Z0F1200
G1 X56.234Y62.817Z0F1200
G1 X56.193Y62.687Z0F1200
G1 X55.914Y62.572Z0F1200
G1 X55.591Y62.449Z0F1200
G1 X55.469Y62.459Z0F1200
G1 X55.315Y62.54Z0F1200
G1 X55.143Y62.671Z0F1200
G1 X54.968Y62.829Z0F1200
G1 X54.805Y62.99Z0F1200
G1 X54.574Y63.231Z0F1200
G1 X54.534Y63.266Z0F1200
G1 X54.206Y62.982Z0F1200
G1 X53.895Y62.674Z0F1200
G1 X53.591Y62.355Z0F1200
G1 X53.284Y62.041Z0F1200
G0 Z1.5F500
G0 X62.943Y65.034Z1.5F1200
G1 Z0F500
G1 X63.086Y65.206Z0F1200
G1 X63.227Y65.381Z0F1200
G1 X63.693Y65.966Z0F1200
G1 X64.15Y66.562Z0F1200
G1 X64.325Y66.847Z0F1200
G1 X64.488Y67.164Z0F1200
G1 X64.66Y67.468Z0F1200
G1 X64.859Y67.714Z0F1200
G1 X64.871Y67.709Z0F1200
G1 X64.848Y67.649Z0F1200
G1 X64.81Y67.567Z0F1200
G1 X64.781Y67.496Z0F1200
G1 X64.725Y67.154Z0F1200
G1 X64.703Y66.797Z0F1200
G1 X64.667Y66.453Z0F1200
G1 X64.609Y65.828Z0F1200
G1 X64.568Y65.328Z0F1200
G1 X64.535Y64.815Z0F1200
G1 X64.516Y64.331Z0F1200
G1 X64.513Y64.115Z0F1200
G1 X64.517Y63.922Z0F1200
G1 X64.528Y63.76Z0F1200
G1 X64.547Y63.632Z0F1200
G1 X64.633Y63.259Z0F1200
G1 X64.68Y62.892Z0F1200
G0 Z1.5F500
G0 X66.144Y67.623Z1.5F1200
G1 Z0F500
G1 X66.079Y67.046Z0F1200
G1 X66.01Y66.47Z0F1200
G1 X65.908Y65.73Z0F1200
G1 X65.799Y64.992Z0F1200
G1 X65.72Y64.606Z0F1200
G1 X65.665Y64.216Z0F1200
G1 X65.687Y64.153Z0F1200
G1 X65.753Y64.107Z0F1200
G1 X65.856Y64.076Z0F1200
G1 X65.991Y64.06Z0F1200
G1 X66.329Y64.063Z0F1200
G1 X66.717Y64.104Z0F1200
G1 X67.106Y64.173Z0F1200
G1 X67.445Y64.256Z0F1200
G1 X67.581Y64.299Z0F1200
G1 X67.685Y64.342Z0F1200
G1 X67.753Y64.383Z0F1200
G1 X67.776Y64.42Z0F1200
G0 Z1.5F500
G0 X67.552Y66.588Z1.5F1200
G1 Z0F500
G1 X67.284Y66.158Z0F1200
G1 X67.089Y65.72Z0F1200
G1 X66.957Y65.271Z0F1200
G1 X66.879Y64.81Z0F1200
G1 X66.846Y64.334Z0F1200
G1 Y63.842Z0F1200
G1 X66.877Y63.329Z0F1200
G1 X66.923Y62.796Z0F1200
G1 X66.979Y62.298Z0F1200
G1 X66.973Y62.243Z0F1200
G1 X66.979Y62.198Z0F1200
G1 X67.026Z0F1200
G1 X67.074Z0F1200
G1 X67.108Y62.144Z0F1200
G1 X67.075Y62.123Z0F1200
G1 X67.055Y62.12Z0F1200
G1 X67.128Y62.123Z0F1200
G0 Z1.5F500
G0 X68.621Y62.62Z1.5F1200
G1 Z0F500
G1 X68.6Y62.873Z0F1200
G1 Y63.029Z0F1200
G1 X68.614Y63.101Z0F1200
G1 X68.644Z0F1200
G1 X68.687Y63.038Z0F1200
G1 X68.739Y62.928Z0F1200
G1 X68.799Y62.782Z0F1200
G1 X68.863Y62.612Z0F1200
G1 X68.994Y62.249Z0F1200
G1 X69.113Y61.938Z0F1200
G1 X69.162Y61.832Z0F1200
G1 X69.2Y61.776Z0F1200
G1 X69.224Y61.781Z0F1200
G1 X69.233Y61.861Z0F1200
G0 Z1.5F500
G0 X71.76Y66.96Z1.5F1200
G1 Z0F500
G1 X71.443Y66.74Z0F1200
G1 X71.118Y66.533Z0F1200
G1 X70.809Y66.299Z0F1200
G1 X70.541Y65.995Z0F1200
G1 X70.48Y65.892Z0F1200
G1 X70.41Y65.753Z0F1200
G1 X70.334Y65.584Z0F1200
G1 X70.255Y65.388Z0F1200
G1 X70.093Y64.933Z0F1200
G1 X69.942Y64.424Z0F1200
G1 X69.819Y63.897Z0F1200
G1 X69.74Y63.386Z0F1200
G1 X69.724Y63.147Z0F1200
G1 Y62.926Z0F1200
G1 X69.745Y62.727Z0F1200
G1 X69.788Y62.553Z0F1200
G1 X69.93Y62.25Z0F1200
G1 X70.117Y61.988Z0F1200
G1 X70.328Y61.752Z0F1200
G1 X70.543Y61.527Z0F1200
G1 X70.61Y61.468Z0F1200
G1 X70.685Y61.426Z0F1200
G1 X70.764Y61.409Z0F1200
G1 X70.839Y61.427Z0F1200
G1 X70.913Y61.481Z0F1200
G1 X71.011Y61.577Z0F1200
G1 X71.117Y61.705Z0F1200
G1 X71.216Y61.853Z0F1200
G1 X71.291Y62.013Z0F1200
G1 X71.328Y62.173Z0F1200
G1 X71.31Y62.323Z0F1200
G1 X71.222Y62.452Z0F1200
G1 X71.14Y62.494Z0F1200
G1 X71.048Y62.5Z0F1200
G1 X70.954Z0F1200
G1 X70.866Y62.528Z0F1200
G1 X70.74Y62.626Z0F1200
G1 X70.629Y62.73Z0F1200
G1 X70.511Y62.814Z0F1200
G1 X70.366Y62.848Z0F1200
G0 Z1.5F500
G0 X73.381Y62.352Z1.5F1200
G1 Z0F500
G1 X73.322Y62.272Z0F1200
G1 X73.316Y62.182Z0F1200
G1 X73.351Y62.091Z0F1200
G1 X73.415Y62.008Z0F1200
G1 X73.494Y61.942Z0F1200
G1 X73.576Y61.901Z0F1200
G1 X73.647Y61.894Z0F1200
G1 X73.695Y61.93Z0F1200
G1 X73.745Y62.111Z0F1200
G1 X73.755Y62.345Z0F1200
G1 X73.743Y62.456Z0F1200
G1 X73.72Y62.548Z0F1200
G1 X73.685Y62.611Z0F1200
G1 X73.637Y62.634Z0F1200
G0 Z1.5F500
G0 X74.043Y65.641Z1.5F1200
G1 Z0F500
G1 X74.109Y65.654Z0F1200
G1 X74.197Y65.69Z0F1200
G1 X74.303Y65.745Z0F1200
G1 X74.424Y65.815Z0F1200
G1 X74.698Y65.991Z0F1200
G1 X74.99Y66.19Z0F1200
G1 X75.273Y66.387Z0F1200
G1 X75.521Y66.555Z0F1200
G1 X75.623Y66.62Z0F1200
G1 X75.706Y66.667Z0F1200
G1 X75.766Y66.694Z0F1200
G1 X75.801Y66.697Z0F1200
G1 X75.82Y66.656Z0F1200
G1 X75.826Y66.564Z0F1200
G1 X75.819Y66.428Z0F1200
G1 X75.801Y66.254Z0F1200
G1 X75.739Y65.82Z0F1200
G1 X75.653Y65.315Z0F1200
G1 X75.557Y64.792Z0F1200
G1 X75.386Y63.906Z0F1200
G1 X75.339Y63.648Z0F1200
G1 X75.31Y63.466Z0F1200
G1 X75.284Y63.195Z0F1200
G1 Y63.067Z0F1200
G1 X75.302Y62.968Z0F1200
G1 X75.342Y62.914Z0F1200
G1 X75.409Y62.922Z0F1200
G0 Z1.5F500
G0 X77.674Y66.078Z1.5F1200
G1 Z0F500
G1 X77.546Y66.117Z0F1200
G1 X77.418Y66.163Z0F1200
G1 X77.29Y66.196Z0F1200
G1 X77.161Z0F1200
G1 X77.133Y66.175Z0F1200
G1 X77.083Y66.119Z0F1200
G1 X77.021Y66.038Z0F1200
G1 X76.953Y65.944Z0F1200
G1 X76.833Y65.75Z0F1200
G1 X76.786Y65.616Z0F1200
G1 X76.822Y65.505Z0F1200
G1 X76.898Y65.369Z0F1200
G1 X77.001Y65.221Z0F1200
G1 X77.121Y65.071Z0F1200
G1 X77.245Y64.932Z0F1200
G1 X77.361Y64.813Z0F1200
G1 X77.457Y64.727Z0F1200
G1 X77.522Y64.686Z0F1200
G1 X77.632Y64.668Z0F1200
G1 X77.744Y64.685Z0F1200
G1 X77.854Y64.729Z0F1200
G1 X77.956Y64.792Z0F1200
G1 X78.075Y64.92Z0F1200
G1 X78.111Y65.055Z0F1200
G1 X78.108Y65.202Z0F1200
G1 X78.112Y65.364Z0F1200
G1 X78.168Y65.728Z0F1200
G1 X78.173Y65.78Z0F1200
G1 X78.168Y65.8Z0F1200
G1 X78.069Y65.569Z0F1200
G1 X78.022Y65.292Z0F1200
G1 X78.019Y64.985Z0F1200
G1 X78.049Y64.663Z0F1200
G1 X78.103Y64.341Z0F1200
G1 X78.173Y64.035Z0F1200
G1 X78.248Y63.761Z0F1200
G1 X78.32Y63.533Z0F1200
G1 X78.47Y63.317Z0F1200
G1 X78.542Y63.154Z0F1200
G1 X78.528Y62.996Z0F1200
G1 X78.473Y62.943Z0F1200
G1 X78.399Y62.935Z0F1200
G1 X78.311Y62.96Z0F1200
G1 X78.216Y63.007Z0F1200
G1 X78.029Y63.119Z0F1200
G1 X77.889Y63.178Z0F1200
G1 X77.718Y63.171Z0F1200
G1 X77.553Y63.167Z0F1200
G1 X77.396Y63.19Z0F1200
G1 X77.248Y63.263Z0F1200
G0 Z1.5F500
G0 X80.358Y66.247Z1.5F1200
G1 Z0F500
G1 X80.318Y66.167Z0F1200
G1 X80.262Y66.042Z0F1200
G1 X80.194Y65.879Z0F1200
G1 X80.116Y65.685Z0F1200
G1 X79.951Y65.233Z0F1200
G1 X79.796Y64.743Z0F1200
G1 X79.732Y64.501Z0F1200
G1 X79.683Y64.271Z0F1200
G1 X79.651Y64.059Z0F1200
G1 X79.641Y63.874Z0F1200
G1 X79.657Y63.721Z0F1200
G1 X79.703Y63.608Z0F1200
G1 X79.782Y63.543Z0F1200
G1 X79.898Y63.531Z0F1200
G1 X80.181Y63.614Z0F1200
G1 X80.506Y63.756Z0F1200
G1 X80.665Y63.828Z0F1200
G1 X80.812Y63.89Z0F1200
G1 X80.938Y63.933Z0F1200
G1 X81.036Y63.949Z0F1200
G0 Z1.5F500
G0 Z1.5F1200
G1 Z0F500
G1 X80.887Y63.579Z0F1200
G1 X80.778Y63.202Z0F1200
G1 X80.725Y62.809Z0F1200
G1 X80.746Y62.392Z0F1200
G1 X80.767Y62.384Z0F1200
G1 X80.798Y62.392Z0F1200
G1 Y62.295Z0F1200
G1 X80.795Y62.309Z0F1200
G1 X80.791Y62.422Z0F1200
G1 Y62.585Z0F1200
G1 X80.798Y62.721Z0F1200
G1 X80.91Y63.337Z0F1200
G1 X81.036Y63.949Z0F1200
G0 Z1.5F500
G0 X83.678Y67.164Z1.5F1200
G1 Z0F500
G1 X83.401Y66.597Z0F1200
G1 X83.141Y66.016Z0F1200
G1 X83.029Y65.7Z0F1200
G1 X82.921Y65.332Z0F1200
G1 X82.829Y64.93Z0F1200
G1 X82.763Y64.509Z0F1200
G1 X82.736Y64.089Z0F1200
G1 X82.758Y63.687Z0F1200
G1 X82.84Y63.319Z0F1200
G1 X82.993Y63.004Z0F1200
G1 X83.07Y62.918Z0F1200
G1 X83.159Y62.854Z0F1200
G1 X83.349Y62.746Z0F1200
G1 X83.485Y62.673Z0F1200
G1 X83.658Y62.601Z0F1200
G1 X83.826Y62.547Z0F1200
G1 X83.95Y62.533Z0F1200
G1 X84.04Y62.584Z0F1200
G1 X84.117Y62.697Z0F1200
G1 X84.179Y62.855Z0F1200
G1 X84.226Y63.04Z0F1200
G1 X84.257Y63.235Z0F1200
G1 X84.27Y63.42Z0F1200
G1 X84.266Y63.579Z0F1200
G1 X84.244Y63.694Z0F1200
G1 X84.192Y63.736Z0F1200
G1 X84.132Y63.77Z0F1200
G1 X84.108Y63.852Z0F1200
G1 X84.077Y63.922Z0F1200
G1 X83.604Y64.03Z0F1200
G1 X83.158Y64.074Z0F1200
G1 X83.046Y63.985Z0F1200
G1 X82.972Y63.915Z0F1200
G1 X82.895Y63.87Z0F1200
G1 X82.774Y63.854Z0F1200
G0 Z1.5F500
G0 X90.002Y68.203Z1.5F1200
G1 Z0F500
G1 X90.158Y67.399Z0F1200
G1 X90.233Y66.579Z0F1200
G1 X90.257Y65.752Z0F1200
G1 Y64.679Z0F1200
G1 X90.251Y63.956Z0F1200
G1 Y63.805Z0F1200
G1 X90.262Y63.665Z0F1200
G1 X90.28Y63.492Z0F1200
G1 X90.355Y62.871Z0F1200
G1 X90.397Y62.587Z0F1200
G1 X90.45Y62.37Z0F1200
G1 X90.517Y62.224Z0F1200
G1 X90.603Y62.155Z0F1200
G1 X90.712Y62.166Z0F1200
G1 X90.848Y62.264Z0F1200
G1 X90.927Y62.347Z0F1200
G1 X91.014Y62.453Z0F1200
G1 X91.111Y62.582Z0F1200
G1 X91.216Y62.737Z0F1200
G1 X91.505Y63.222Z0F1200
G1 X91.768Y63.729Z0F1200
G1 X91.939Y64.081Z0F1200
G1 X92.111Y64.472Z0F1200
G1 X92.255Y64.878Z0F1200
G1 X92.345Y65.275Z0F1200
G1 X92.34Y65.392Z0F1200
G1 X92.317Y65.514Z0F1200
G1 X92.307Y65.626Z0F1200
G1 X92.345Y65.714Z0F1200
G1 X92.41Y65.744Z0F1200
G1 X92.456Y65.698Z0F1200
G1 X92.485Y65.593Z0F1200
G1 X92.502Y65.447Z0F1200
G1 X92.516Y65.099Z0F1200
G1 X92.532Y64.797Z0F1200
G1 X92.662Y63.534Z0F1200
G1 X92.821Y62.277Z0F1200
G1 X92.852Y62.198Z0F1200
G1 X92.915Y62.097Z0F1200
G1 X92.994Y62.026Z0F1200
G1 X93.072Y62.037Z0F1200
G1 X93.279Y62.259Z0F1200
G1 X93.458Y62.489Z0F1200
G1 X93.61Y62.726Z0F1200
G1 X93.739Y62.969Z0F1200
G1 X93.936Y63.476Z0F1200
G1 X94.065Y64.006Z0F1200
G1 X94.2Y65.122Z0F1200
G1 X94.294Y66.293Z0F1200
G1 X94.39Y66.765Z0F1200
G1 X94.387Y67.102Z0F1200
G1 X94.39Y67.439Z0F1200
G1 X94.474Y67.826Z0F1200
G1 X94.528Y68.225Z0F1200
G0 Z1.5F500
G0 Z1.5F1200
G1 Z0F500
G1 X94.827Y67.883Z0F1200
G1 X95.147Y67.554Z0F1200
G1 X95.296Y67.382Z0F1200
G1 X95.426Y67.199Z0F1200
G1 X95.529Y67Z0F1200
G1 X95.599Y66.779Z0F1200
G1 X95.638Y66.495Z0F1200
G1 Y66.209Z0F1200
G1 X95.611Y65.92Z0F1200
G1 X95.562Y65.63Z0F1200
G1 X95.439Y65.048Z0F1200
G1 X95.337Y64.468Z0F1200
G1 X95.241Y63.679Z0F1200
G1 X95.188Y63.231Z0F1200
G1 X95.143Y62.786Z0F1200
G1 Y62.729Z0F1200
G1 Y62.709Z0F1200
G1 X95.154Y62.733Z0F1200
G1 X95.172Y62.807Z0F1200
G1 X95.198Y62.939Z0F1200
G1 X95.233Y63.136Z0F1200
G1 X95.337Y63.756Z0F1200
G1 X95.384Y64.124Z0F1200
G1 X95.455Y64.5Z0F1200
G1 X95.517Y64.662Z0F1200
G1 X95.607Y64.792Z0F1200
G1 X95.73Y64.878Z0F1200
G1 X95.896Y64.91Z0F1200
G1 X96.013Y64.925Z0F1200
G1 X96.125Y64.91Z0F1200
G1 X96.215Y64.837Z0F1200
G1 X96.292Y64.743Z0F1200
G1 X96.36Y64.635Z0F1200
G1 X96.422Y64.526Z0F1200
G1 X96.569Y64.211Z0F1200
G1 X96.64Y63.932Z0F1200
G1 X96.654Y63.68Z0F1200
G1 X96.633Y63.446Z0F1200
G1 X96.563Y63.001Z0F1200
G1 X96.588Y62.53Z0F1200
G1 X96.622Y62.654Z0F1200
G1 X96.652Y62.839Z0F1200
G0 Z1.5F500
G0 X98.244Y65.443Z1.5F1200
G1 Z0F500
G1 X98.107Y64.823Z0F1200
G1 X98.089Y64.727Z0F1200
G1 Y64.68Z0F1200
G1 X98.092Y64.608Z0F1200
G1 Y64.441Z0F1200
G1 X98.083Y64.299Z0F1200
G1 X98.07Y64.107Z0F1200
G1 X98.049Y63.855Z0F1200
G1 X98.02Y63.534Z0F1200
G1 X97.986Y63.231Z0F1200
G1 X97.998Y62.944Z0F1200
G1 X98.049Y62.824Z0F1200
G1 X98.144Y62.729Z0F1200
G1 X98.294Y62.666Z0F1200
G1 X98.509Y62.643Z0F1200
G1 X98.64Y62.679Z0F1200
G1 X98.758Y62.769Z0F1200
G1 X98.871Y62.879Z0F1200
G1 X98.986Y62.979Z0F1200
G0 Z1.5F500
G0 X98.952Y68.662Z1.5F1200
G1 Z0F500
G1 X98.869Y68.334Z0F1200
G0 Z1.5F500
G0 X101.089Y68.08Z1.5F1200
G1 Z0F500
G1 X101.006Y67.284Z0F1200
G1 X100.895Y66.495Z0F1200
G1 X100.76Y65.995Z0F1200
G1 X100.59Y65.498Z0F1200
G1 X100.434Y64.995Z0F1200
G1 X100.344Y64.476Z0F1200
G1 X100.326Y64.08Z0F1200
G1 X100.33Y63.6Z0F1200
G1 X100.343Y63.358Z0F1200
G1 X100.364Y63.129Z0F1200
G1 X100.396Y62.925Z0F1200
G1 X100.44Y62.758Z0F1200
G1 X100.494Y62.603Z0F1200
G1 X100.54Y62.486Z0F1200
G1 X100.577Y62.404Z0F1200
G1 X100.607Y62.352Z0F1200
G1 X100.651Y62.321Z0F1200
G1 X100.681Y62.357Z0F1200
G1 X100.706Y62.426Z0F1200
G1 X100.734Y62.493Z0F1200
G1 X100.774Y62.523Z0F1200
G1 X100.836Y62.481Z0F1200
G1 X100.859Y62.425Z0F1200
G1 X100.835Y62.403Z0F1200
G1 X100.83Z0F1200
G1 X100.905Z0F1200
G0 Z1.5F500
G0 X98.244Y65.443Z1.5F1200
G1 Z0F500
G1 X99.295Y65.633Z0F1200
G1 X100.344Y65.833Z0F1200
G1 X100.578Y65.885Z0F1200
G1 X100.724Y65.92Z0F1200
G1 X100.804Y65.935Z0F1200
G1 X100.843Y65.925Z0F1200
G1 X100.866Y65.887Z0F1200
G1 X100.896Y65.816Z0F1200
G1 X100.958Y65.708Z0F1200
G1 X101.076Y65.559Z0F1200
G1 X101.212Y65.454Z0F1200
G1 X101.36Y65.367Z0F1200
G1 X101.59Y65.065Z0F1200
G0 Z1.5F500
G0 X102.818Y63.685Z1.5F1200
G1 Z0F500
G1 X103.312Y63.708Z0F1200
G1 X103.795Y63.743Z0F1200
G1 X104.028Y63.792Z0F1200
G1 X104.253Y63.875Z0F1200
G1 X104.468Y64.004Z0F1200
G1 X104.671Y64.189Z0F1200
G1 X104.733Y64.294Z0F1200
G1 X104.737Y64.397Z0F1200
G1 X104.698Y64.495Z0F1200
G1 X104.628Y64.585Z0F1200
G1 X104.448Y64.723Z0F1200
G1 X104.303Y64.782Z0F1200
G1 X103.946Y64.809Z0F1200
G1 X103.598Y64.804Z0F1200
G1 X103.27Y64.756Z0F1200
G1 X102.975Y64.652Z0F1200
G1 X102.724Y64.479Z0F1200
G1 X102.53Y64.224Z0F1200
G1 X102.458Y64.062Z0F1200
G1 X102.404Y63.875Z0F1200
G1 X102.371Y63.661Z0F1200
G1 X102.36Y63.419Z0F1200
G1 X102.372Y63.283Z0F1200
G1 X102.405Y63.117Z0F1200
G1 X102.457Y62.934Z0F1200
G1 X102.525Y62.746Z0F1200
G1 X102.607Y62.566Z0F1200
G1 X102.698Y62.405Z0F1200
G1 X102.798Y62.278Z0F1200
G1 X102.903Y62.195Z0F1200
G1 X103.08Y62.15Z0F1200
G1 X103.259Y62.114Z0F1200
G1 X103.375Y62.029Z0F1200
G1 X103.493Y61.951Z0F1200
G1 X103.848Y61.887Z0F1200
G1 X104.206Y61.837Z0F1200
G1 X104.52Y61.783Z0F1200
G1 X104.793Z0F1200
G1 X104.919Y61.819Z0F1200
G1 X105.043Y61.881Z0F1200
G1 X105.167Y61.975Z0F1200
G1 X105.293Y62.106Z0F1200
G0 Z1.5F500
G0 X106.416Y67.553Z1.5F1200
G1 Z0F500
G1 X106.56Y66.979Z0F1200
G1 X106.672Y66.398Z0F1200
G1 X106.717Y65.464Z0F1200
G1 X106.74Y64.527Z0F1200
G1 X106.79Y64.035Z0F1200
G1 X106.837Y63.542Z0F1200
G1 X106.843Y63.056Z0F1200
G1 X106.837Y62.569Z0F1200
G1 Y62.382Z0F1200
G1 X106.83Y62.621Z0F1200
G1 X106.8Y63.23Z0F1200
G1 X106.789Y63.565Z0F1200
G1 Y63.899Z0F1200
G1 X106.81Y64.213Z0F1200
G1 X106.856Y64.49Z0F1200
G1 X106.933Y64.713Z0F1200
G1 X107.065Y64.822Z0F1200
G1 X107.281Y64.895Z0F1200
G1 X107.502Y64.924Z0F1200
G1 X107.648Y64.9Z0F1200
G1 X107.93Y64.664Z0F1200
G1 X108.131Y64.389Z0F1200
G1 X108.262Y64.083Z0F1200
G1 X108.339Y63.751Z0F1200
G1 X108.383Y63.033Z0F1200
G1 X108.374Y62.286Z0F1200
G0 Z1.5F500
G0 X111.415Y64.186Z1.5F1200
G1 Z0F500
G1 X111.17Y64.264Z0F1200
G1 X110.926Y64.356Z0F1200
G1 X110.681Y64.42Z0F1200
G1 X110.436Y64.411Z0F1200
G1 X110.266Y64.346Z0F1200
G1 X110.133Y64.246Z0F1200
G1 X110.033Y64.113Z0F1200
G1 X109.963Y63.955Z0F1200
G1 X109.921Y63.775Z0F1200
G1 X109.904Y63.577Z0F1200
G1 X109.909Y63.367Z0F1200
G1 X109.933Y63.15Z0F1200
G1 X110.028Y62.711Z0F1200
G1 X110.165Y62.298Z0F1200
G1 X110.242Y62.113Z0F1200
G1 X110.322Y61.949Z0F1200
G1 X110.4Y61.809Z0F1200
G1 X110.476Y61.7Z0F1200
G1 X110.736Y61.461Z0F1200
G1 X111.053Y61.3Z0F1200
G1 X111.389Y61.214Z0F1200
G1 X111.706Y61.197Z0F1200
G1 X111.958Y61.254Z0F1200
G1 X112.14Y61.382Z0F1200
G1 X112.262Y61.565Z0F1200
G1 X112.336Y61.79Z0F1200
G1 X112.387Y62.308Z0F1200
G1 X112.383Y62.821Z0F1200
G1 X112.397Y62.975Z0F1200
G1 X112.383Y63.121Z0F1200
G1 X112.249Y63.336Z0F1200
G1 X112.098Y63.539Z0F1200
G1 X111.999Y63.701Z0F1200
G1 X111.92Y63.815Z0F1200
G1 X111.853Y63.895Z0F1200
G1 X111.79Y63.951Z0F1200
G1 X111.415Y64.186Z0F1200
G0 Z1.5F500
G0 X114.069Y63.708Z1.5F1200
G1 Z0F500
G1 X114.062Y63.408Z0F1200
G1 X114.049Y63.107Z0F1200
G1 Y62.807Z0F1200
G1 X114.069Y62.51Z0F1200
G1 X114.108Y62.363Z0F1200
G1 X114.18Y62.227Z0F1200
G1 X114.276Y62.113Z0F1200
G1 X114.389Y62.033Z0F1200
G1 X114.511Y61.996Z0F1200
G1 X114.635Y62.016Z0F1200
G1 X114.753Y62.102Z0F1200
G1 X114.857Y62.267Z0F1200
G1 X114.941Y62.629Z0F1200
G1 X115.021Y62.993Z0F1200
G1 X115.062Y63.084Z0F1200
G1 X115.09Y63.136Z0F1200
G1 X115.107Y63.156Z0F1200
G1 X115.115Y63.152Z0F1200
G1 Y63.09Z0F1200
G1 X115.095Y62.932Z0F1200
G1 X115.107Z0F1200
G1 X115.126Y62.977Z0F1200
G1 X115.155Y63.057Z0F1200
G1 X115.254Y63.348Z0F1200
G1 X115.303Y63.582Z0F1200
G1 X115.35Y63.817Z0F1200
G1 X115.374Y63.88Z0F1200
G1 X115.41Y63.942Z0F1200
G1 X115.452Y63.983Z0F1200
G1 X115.495Y63.979Z0F1200
G1 X115.596Y63.828Z0F1200
G1 X115.632Y63.622Z0F1200
G1 X115.636Y63.394Z0F1200
G1 X115.643Y63.175Z0F1200
G1 X115.692Y62.563Z0F1200
G1 X115.776Y61.4Z0F1200
G1 X115.833Y60.853Z0F1200
G1 X115.853Y60.731Z0F1200
G1 X115.869Y60.643Z0F1200
G1 X115.883Y60.585Z0F1200
G1 X115.895Y60.552Z0F1200
G1 X115.913Y60.544Z0F1200
G1 X115.923Y60.586Z0F1200
G1 X115.928Y60.642Z0F1200
G1 Y60.678Z0F1200
G1 Y60.552Z0F1200
G0 Z1.5F500
G0 X119.089Y63.814Z1.5F1200
G1 Z0F500
G1 X118.943Y63.915Z0F1200
G1 X118.799Y64.028Z0F1200
G1 X118.651Y64.118Z0F1200
G1 X118.493Y64.154Z0F1200
G1 X118.39Y64.139Z0F1200
G1 X118.304Y64.101Z0F1200
G1 X118.234Y64.041Z0F1200
G1 X118.179Y63.964Z0F1200
G1 X118.11Y63.769Z0F1200
G1 X118.086Y63.538Z0F1200
G1 X118.097Y63.295Z0F1200
G1 X118.133Y63.065Z0F1200
G1 X118.185Y62.871Z0F1200
G1 X118.242Y62.737Z0F1200
G1 X118.436Y62.445Z0F1200
G1 X118.649Y62.172Z0F1200
G1 X118.869Y61.904Z0F1200
G1 X119.083Y61.631Z0F1200
G1 X119.376Y61.204Z0F1200
G1 X119.676Y60.785Z0F1200
G1 X119.771Z0F1200
G1 X119.804Y60.759Z0F1200
G1 X119.762Y60.682Z0F1200
G1 X119.71Y60.655Z0F1200
G1 X119.646Y60.662Z0F1200
G1 X119.579Y60.679Z0F1200
G1 X119.514Y60.682Z0F1200
G1 X119.055Y60.563Z0F1200
G1 X118.673Y60.472Z0F1200
G1 X118.488Y60.461Z0F1200
G1 X118.294Y60.486Z0F1200
G1 X118.082Y60.557Z0F1200
G1 X117.844Y60.683Z0F1200
G1 X117.764Y60.72Z0F1200
G1 X117.68Y60.755Z0F1200
G1 X117.613Y60.799Z0F1200
G1 X117.586Y60.866Z0F1200
G0 Z1.5F500
G0 X122.287Y62.161Z1.5F1200
G1 Z0F500
G1 X122.524Y62.246Z0F1200
G1 X122.719Y62.312Z0F1200
G1 X122.88Y62.374Z0F1200
G1 X123.015Y62.448Z0F1200
G1 X123.135Y62.551Z0F1200
G1 X123.247Y62.7Z0F1200
G1 X123.361Y62.91Z0F1200
G1 X123.485Y63.197Z0F1200
G1 X123.541Y63.433Z0F1200
G1 X123.514Y63.624Z0F1200
G1 X123.422Y63.774Z0F1200
G1 X123.284Y63.888Z0F1200
G1 X122.938Y64.027Z0F1200
G1 X122.622Y64.075Z0F1200
G1 X122.431Y64.09Z0F1200
G1 X122.24Y64.102Z0F1200
G1 X122.05Z0F1200
G1 X121.862Y64.075Z0F1200
G1 X121.714Y64.007Z0F1200
G1 X121.586Y63.884Z0F1200
G1 X121.48Y63.718Z0F1200
G1 X121.393Y63.525Z0F1200
G1 X121.279Y63.109Z0F1200
G1 X121.241Y62.75Z0F1200
G1 X121.244Y62.571Z0F1200
G1 X121.256Y62.392Z0F1200
G1 X121.285Y62.217Z0F1200
G1 X121.338Y62.053Z0F1200
G1 X121.393Y61.949Z0F1200
G1 X121.491Y61.795Z0F1200
G1 X121.619Y61.608Z0F1200
G1 X121.767Y61.408Z0F1200
G1 X121.924Y61.213Z0F1200
G1 X122.08Y61.04Z0F1200
G1 X122.222Y60.908Z0F1200
G1 X122.341Y60.836Z0F1200
G1 X122.508Y60.799Z0F1200
G1 X122.733Y60.783Z0F1200
G1 X122.991Y60.795Z0F1200
G1 X123.257Y60.84Z0F1200
G1 X123.508Y60.923Z0F1200
G1 X123.717Y61.051Z0F1200
G1 X123.799Y61.133Z0F1200
G1 X123.861Y61.229Z0F1200
G1 X123.901Y61.338Z0F1200
G1 X123.915Y61.463Z0F1200
G0 Z1.5F500
G0 X128.829Y65.192Z1.5F1200
G1 Z0F500
G1 X129.399Y65.456Z0F1200
G1 X129.972Y65.711Z0F1200
G1 X130.538Y65.984Z0F1200
G1 X131.087Y66.298Z0F1200
G1 X131.617Y66.67Z0F1200
G1 X132.126Y67.081Z0F1200
G1 X133.124Y67.941Z0F1200
G1 X133.131Y67.997Z0F1200
G1 X133.124Y68.022Z0F1200
G1 Y65.17Z0F1200
G1 X133.133Y64.592Z0F1200
G1 X133.124Y64.015Z0F1200
G1 X133.088Y63.652Z0F1200
G1 X133.041Y63.287Z0F1200
G1 X133.012Y62.905Z0F1200
G1 X133.028Y62.494Z0F1200
G1 X133.045Y62.304Z0F1200
G1 X133.05Y62.163Z0F1200
G1 Y62.066Z0F1200
G1 X133.053Y62.002Z0F1200
G1 X133.088Y61.95Z0F1200
G1 X133.208Y61.947Z0F1200
G0 Z1.5F500
G0 X140.77Y60.855Z1.5F1200
G1 Z0F500
G1 X141.244Y61.572Z0F1200
G1 X141.696Y62.267Z0F1200
G1 X141.887Y62.623Z0F1200
G1 X142.04Y62.992Z0F1200
G1 X142.145Y63.381Z0F1200
G1 X142.191Y63.797Z0F1200
G1 X142.461Y64.909Z0F1200
G1 X142.704Y65.965Z0F1200
G1 X142.931Y66.99Z0F1200
G1 X143.152Y68.008Z0F1200
G1 X143.138Y68.265Z0F1200
G1 X143.149Y68.579Z0F1200
G1 X143.172Y68.921Z0F1200
G1 X143.19Y69.261Z0F1200
G1 Y69.569Z0F1200
G1 X143.154Y69.817Z0F1200
G1 X143.119Y69.908Z0F1200
G1 X143.07Y69.973Z0F1200
G1 X143.004Y70.008Z0F1200
G1 X142.921Z0F1200
G1 X142.874Y68.823Z0F1200
G1 X142.909Y67.637Z0F1200
G1 X142.965Y67.047Z0F1200
G1 X143.05Y66.459Z0F1200
G1 X143.166Y65.873Z0F1200
G1 X143.317Y65.291Z0F1200
G1 X143.605Y64.446Z0F1200
G1 X143.894Y63.59Z0F1200
G1 X144.002Y63.158Z0F1200
G1 X144.066Y62.724Z0F1200
G1 X144.071Y62.288Z0F1200
G1 X144.002Y61.849Z0F1200
G1 X143.903Y61.618Z0F1200
G1 X143.765Y61.438Z0F1200
G1 X143.594Y61.306Z0F1200
G1 X143.398Y61.218Z0F1200
G1 X143.184Y61.173Z0F1200
G1 X142.958Y61.165Z0F1200
G1 X142.727Y61.193Z0F1200
G1 X142.498Y61.253Z0F1200
G1 X142.278Y61.342Z0F1200
G1 X142.073Y61.457Z0F1200
G1 X141.89Y61.594Z0F1200
G1 X141.737Y61.751Z0F1200
G1 X141.62Y61.925Z0F1200
G1 X141.545Y62.111Z0F1200
G1 X141.521Y62.308Z0F1200
G1 X141.552Y62.511Z0F1200
G1 X141.525Y62.718Z0F1200
G1 X141.518Y62.981Z0F1200
G1 X141.526Y63.275Z0F1200
G1 X141.543Y63.572Z0F1200
G1 X141.594Y64.204Z0F1200
G1 Y64.236Z0F1200
G1 X141.591Z0F1200
G1 X141.588Y63.872Z0F1200
G1 X141.602Y63.492Z0F1200
G1 X141.642Y63.106Z0F1200
G1 X141.717Y62.721Z0F1200
G1 X141.835Y62.343Z0F1200
G1 X142.005Y61.98Z0F1200
G1 X142.236Y61.638Z0F1200
G1 X142.535Y61.326Z0F1200
G1 X142.831Y61.163Z0F1200
G1 X143.121Y61.068Z0F1200
G1 X143.404Y61.036Z0F1200
G1 X143.677Y61.061Z0F1200
G1 X143.938Y61.135Z0F1200
G1 X144.185Y61.254Z0F1200
G1 X144.417Y61.41Z0F1200
G1 X144.631Y61.598Z0F1200
G1 X144.826Y61.811Z0F1200
G1 X145Y62.043Z0F1200
G1 X145.149Y62.288Z0F1200
G1 X145.274Y62.54Z0F1200
G1 X145.371Y62.792Z0F1200
G1 X145.439Y63.038Z0F1200
G1 X145.476Y63.272Z0F1200
G1 X145.48Y63.488Z0F1200
G1 X145.47Y63.715Z0F1200
G1 X145.438Y64.009Z0F1200
G1 X145.382Y64.32Z0F1200
G1 X145.303Y64.597Z0F1200
G1 X145.255Y64.708Z0F1200
G1 X145.2Y64.791Z0F1200
G1 X145.14Y64.842Z0F1200
G1 X145.074Y64.853Z0F1200
G1 X145.002Y64.818Z0F1200
G1 X144.924Y64.731Z0F1200
G1 X144.839Y64.586Z0F1200
G1 X144.749Y64.377Z0F1200
G1 X144.62Y63.653Z0F1200
G1 X144.566Y63.241Z0F1200
G1 X144.553Y62.831Z0F1200
G1 X144.571Y62.634Z0F1200
G1 X144.608Y62.448Z0F1200
G1 X144.669Y62.274Z0F1200
G1 X144.757Y62.117Z0F1200
G1 X144.874Y61.98Z0F1200
G1 X145.024Y61.866Z0F1200
G1 X145.211Y61.777Z0F1200
G1 X145.438Y61.718Z0F1200
G1 X145.877Y62.366Z0F1200
G1 X146.296Y63.051Z0F1200
G1 X146.486Y63.394Z0F1200
G1 X146.657Y63.73Z0F1200
G1 X146.803Y64.054Z0F1200
G1 X146.921Y64.362Z0F1200
G1 X146.764Y64.145Z0F1200
G1 X146.654Y63.871Z0F1200
G1 X146.59Y63.553Z0F1200
G1 X146.569Y63.208Z0F1200
G1 X146.59Y62.852Z0F1200
G1 X146.652Y62.5Z0F1200
G1 X146.752Y62.168Z0F1200
G1 X146.89Y61.873Z0F1200
G1 X147.091Y61.821Z0F1200
G1 X147.265Y61.829Z0F1200
G1 X147.412Y61.89Z0F1200
G1 X147.537Y61.995Z0F1200
G1 X147.641Y62.136Z0F1200
G1 X147.728Y62.306Z0F1200
G1 X147.799Y62.497Z0F1200
G1 X147.859Y62.702Z0F1200
G1 X147.952Y63.118Z0F1200
G1 X148.029Y63.494Z0F1200
G1 X148.068Y63.646Z0F1200
G1 X148.112Y63.765Z0F1200
G1 X148.162Y63.842Z0F1200
G1 X148.222Y63.87Z0F1200
G1 X148.237Y63.573Z0F1200
G1 X148.188Y63.207Z0F1200
G1 X148.116Y62.807Z0F1200
G1 X148.063Y62.411Z0F1200
G1 X148.056Y62.225Z0F1200
G1 X148.07Y62.054Z0F1200
G1 X148.108Y61.902Z0F1200
G1 X148.178Y61.772Z0F1200
G1 X148.283Y61.671Z0F1200
G1 X148.429Y61.602Z0F1200
G1 X148.621Y61.57Z0F1200
G1 X148.865Y61.58Z0F1200
G1 X148.992Y61.708Z0F1200
G1 X149.106Y61.871Z0F1200
G1 X149.207Y62.06Z0F1200
G1 X149.297Y62.271Z0F1200
G1 X149.447Y62.734Z0F1200
G1 X149.562Y63.213Z0F1200
G1 X149.647Y63.66Z0F1200
G1 X149.735Y64.17Z0F1200
G1 X149.757Y64.274Z0F1200
G1 X149.776Y64.335Z0F1200
G1 X149.794Y64.347Z0F1200
G1 X149.743Y63.541Z0F1200
G1 X149.639Y62.706Z0F1200
G1 X149.635Y62.297Z0F1200
G1 X149.699Y61.906Z0F1200
G1 X149.764Y61.72Z0F1200
G1 X149.857Y61.54Z0F1200
G1 X149.98Y61.37Z0F1200
G1 X150.137Y61.209Z0F1200
G1 X150.359Y61.131Z0F1200
G1 X150.544Y61.111Z0F1200
G1 X150.693Y61.141Z0F1200
G1 X150.811Y61.215Z0F1200
G1 X150.9Y61.328Z0F1200
G1 X150.962Y61.473Z0F1200
G1 X151.002Y61.644Z0F1200
G1 X151.022Y61.834Z0F1200
G1 X151.013Y62.25Z0F1200
G1 X150.961Y62.671Z0F1200
G1 X150.887Y63.049Z0F1200
G1 X150.817Y63.332Z0F1200
G1 X150.723Y63.587Z0F1200
G1 X150.619Y63.762Z0F1200
G1 X150.509Y63.866Z0F1200
G1 X150.395Y63.906Z0F1200
G1 X150.281Y63.889Z0F1200
G1 X150.169Y63.823Z0F1200
G1 X150.062Y63.715Z0F1200
G1 X149.964Y63.573Z0F1200
G1 X149.804Y63.215Z0F1200
G1 X149.711Y62.81Z0F1200
G1 X149.698Y62.607Z0F1200
G1 X149.71Y62.416Z0F1200
G1 X149.751Y62.242Z0F1200
G1 X149.824Y62.093Z0F1200
G1 X149.855Y61.839Z0F1200
G1 X149.924Y61.642Z0F1200
G1 X150.026Y61.497Z0F1200
G1 X150.156Y61.401Z0F1200
G1 X150.308Y61.351Z0F1200
G1 X150.478Y61.342Z0F1200
G1 X150.659Y61.372Z0F1200
G1 X150.846Y61.436Z0F1200
G1 X151.035Y61.531Z0F1200
G1 X151.218Y61.654Z0F1200
G1 X151.392Y61.801Z0F1200
G1 X151.551Y61.968Z0F1200
G1 X151.688Y62.152Z0F1200
G1 X151.8Y62.35Z0F1200
G1 X151.88Y62.557Z0F1200
G1 X151.923Y62.77Z0F1200
G1 X152.105Y63.438Z0F1200
G1 X152.162Y63.745Z0F1200
G1 X152.175Y64.065Z0F1200
G1 X152.317Y64.473Z0F1200
G1 X152.431Y64.899Z0F1200
G1 X152.524Y65.338Z0F1200
G1 X152.602Y65.786Z0F1200
G1 X152.741Y66.684Z0F1200
G1 X152.902Y67.549Z0F1200
G1 X153.002Y67.863Z0F1200
G1 X153.035Y68.135Z0F1200
G1 X153.014Y68.346Z0F1200
G1 X152.953Y68.475Z0F1200
G1 X152.911Y68.502Z0F1200
G1 X152.863Z0F1200
G1 X152.812Y68.468Z0F1200
G1 X152.759Y68.402Z0F1200
G1 X152.705Y68.3Z0F1200
G1 X152.652Y68.159Z0F1200
G1 X152.602Y67.976Z0F1200
G1 X152.557Y67.75Z0F1200
G1 X152.455Y67.46Z0F1200
G1 X152.384Y67.169Z0F1200
G1 X152.339Y66.876Z0F1200
G1 X152.317Y66.582Z0F1200
G1 X152.323Y65.99Z0F1200
G1 X152.37Y65.396Z0F1200
G1 X152.424Y64.801Z0F1200
G1 X152.455Y64.207Z0F1200
G1 X152.429Y63.615Z0F1200
G1 X152.314Y63.027Z0F1200
G1 X152.217Y62.836Z0F1200
G1 X152.166Y62.644Z0F1200
G1 X152.157Y62.455Z0F1200
G1 X152.184Y62.275Z0F1200
G1 X152.242Y62.106Z0F1200
G1 X152.328Y61.954Z0F1200
G1 X152.435Y61.823Z0F1200
G1 X152.56Y61.717Z0F1200
G1 X152.697Y61.64Z0F1200
G1 X152.842Y61.596Z0F1200
G1 X152.99Y61.591Z0F1200
G1 X153.136Y61.627Z0F1200
G1 X153.275Y61.71Z0F1200
G1 X153.403Y61.844Z0F1200
G1 X153.514Y62.033Z0F1200
G1 X153.604Y62.281Z0F1200
G1 X153.763Y62.789Z0F1200
G1 X153.969Y63.373Z0F1200
G1 X154.028Y63.651Z0F1200
G1 X154.024Y63.898Z0F1200
G1 X153.991Y64.004Z0F1200
G1 X153.934Y64.096Z0F1200
G1 X153.848Y64.172Z0F1200
G1 X153.732Y64.23Z0F1200
G1 X153.584Y63.888Z0F1200
G1 X153.472Y63.523Z0F1200
G1 X153.398Y63.143Z0F1200
G1 X153.366Y62.754Z0F1200
G1 X153.377Y62.365Z0F1200
G1 X153.434Y61.982Z0F1200
G1 X153.54Y61.613Z0F1200
G1 X153.697Y61.265Z0F1200
G1 X153.903Y61.363Z0F1200
G1 X154.086Y61.485Z0F1200
G1 X154.247Y61.629Z0F1200
G1 X154.389Y61.793Z0F1200
G1 X154.618Y62.169Z0F1200
G1 X154.786Y62.592Z0F1200
G1 X154.905Y63.043Z0F1200
G1 X154.987Y63.501Z0F1200
G1 X155.043Y63.946Z0F1200
G1 X155.086Y64.357Z0F1200
G1 X155.089Y64.459Z0F1200
G1 X155.099Y65.568Z0F1200
G1 X155.115Y66.137Z0F1200
G1 X155.145Y66.679Z0F1200
G1 X155.195Y67.128Z0F1200
G1 X155.23Y67.296Z0F1200
G1 X155.271Y67.417Z0F1200
G1 X155.32Y67.481Z0F1200
G1 X155.378Z0F1200
G1 X155.388Y67.227Z0F1200
G1 X155.417Y66.945Z0F1200
G1 X155.462Y66.639Z0F1200
G1 X155.524Y66.313Z0F1200
G1 X155.689Y65.621Z0F1200
G1 X155.904Y64.904Z0F1200
G1 X156.159Y64.2Z0F1200
G1 X156.443Y63.543Z0F1200
G1 X156.594Y63.244Z0F1200
G1 X156.748Y62.97Z0F1200
G1 X156.906Y62.725Z0F1200
G1 X157.064Y62.516Z0F1200
G1 X157.228Y62.372Z0F1200
G1 X157.348Y62.237Z0F1200
G1 X157.427Y62.112Z0F1200
G1 X157.469Y61.999Z0F1200
G1 X157.477Y61.898Z0F1200
G1 X157.452Y61.809Z0F1200
G1 X157.399Y61.734Z0F1200
G1 X157.32Y61.673Z0F1200
G1 X157.096Y61.597Z0F1200
G1 X156.803Y61.589Z0F1200
G1 X156.464Y61.655Z0F1200
G1 X156.103Y61.802Z0F1200
G1 X155.813Y61.813Z0F1200
G1 X155.537Y61.852Z0F1200
G1 X155.279Y61.914Z0F1200
G1 X155.044Y61.995Z0F1200
G1 X154.837Y62.089Z0F1200
G1 X154.662Y62.192Z0F1200
G1 X154.523Y62.3Z0F1200
G1 X154.425Y62.407Z0F1200
G1 X154.372Y62.509Z0F1200
G1 X154.369Y62.601Z0F1200
G1 X154.42Y62.679Z0F1200
G1 X154.53Y62.738Z0F1200
G1 X154.704Y62.772Z0F1200
G1 X154.945Y62.779Z0F1200
G1 X155.258Y62.752Z0F1200
G1 X155.647Y62.687Z0F1200
G1 X155.936Y62.769Z0F1200
G1 X156.194Y62.886Z0F1200
G1 X156.422Y63.034Z0F1200
G1 X156.623Y63.209Z0F1200
G1 X156.799Y63.407Z0F1200
G1 X156.953Y63.626Z0F1200
G1 X157.087Y63.862Z0F1200
G1 X157.203Y64.11Z0F1200
G1 X157.39Y64.632Z0F1200
G1 X157.534Y65.162Z0F1200
G1 X157.651Y65.674Z0F1200
G1 X157.762Y66.137Z0F1200
G1 X157.945Y66.535Z0F1200
G1 X158.089Y66.927Z0F1200
G1 X158.202Y67.316Z0F1200
G1 X158.293Y67.706Z0F1200
G1 X158.445Y68.504Z0F1200
G1 X158.616Y69.347Z0F1200
G1 X158.886Y69.825Z0F1200
G1 X158.951Y69.948Z0F1200
G1 X158.988Y70.04Z0F1200
G1 X159.009Y70.135Z0F1200
G1 X159.042Y70.358Z0F1200
G1 X159.083Y70.611Z0F1200
G1 X159.115Y70.782Z0F1200
G1 X159.112Y70.545Z0F1200
G1 Y70.341Z0F1200
G1 Y70.167Z0F1200
G1 X159.118Y70.017Z0F1200
G1 X159.135Y69.544Z0F1200
G1 Y69.312Z0F1200
G1 X159.118Y69.025Z0F1200
G1 X159.103Y68.847Z0F1200
G1 X159.082Y68.641Z0F1200
G1 X159.054Y68.399Z0F1200
G1 X159.019Y68.117Z0F1200
G1 X158.909Y67.653Z0F1200
G1 X158.873Y67.175Z0F1200
G1 X158.886Y66.686Z0F1200
G1 X158.961Y65.7Z0F1200
G1 X158.972Y65.212Z0F1200
G1 X158.932Y64.734Z0F1200
G1 X158.814Y64.272Z0F1200
G1 X158.69Y63.552Z0F1200
G1 X158.541Y62.824Z0F1200
G1 X158.501Y62.462Z0F1200
G1 X158.508Y62.102Z0F1200
G1 X158.579Y61.746Z0F1200
G1 X158.733Y61.395Z0F1200
G1 X159.064Y62.918Z0F1200
G1 X159.167Y63.293Z0F1200
G1 X159.297Y63.663Z0F1200
G1 X159.462Y64.025Z0F1200
G1 X159.671Y64.378Z0F1200
G1 X159.764Y64.605Z0F1200
G1 X159.831Y64.761Z0F1200
G1 X159.876Y64.851Z0F1200
G1 X159.899Y64.884Z0F1200
G1 X159.905Y64.866Z0F1200
G1 X159.893Y64.805Z0F1200
G1 X159.868Y64.707Z0F1200
G1 X159.831Y64.581Z0F1200
G1 X159.729Y64.268Z0F1200
G1 X159.606Y63.925Z0F1200
G1 X159.48Y63.607Z0F1200
G1 X159.367Y63.373Z0F1200
G1 X159.246Y63.194Z0F1200
G1 X159.157Y63.012Z0F1200
G1 X159.099Y62.832Z0F1200
G1 X159.07Y62.656Z0F1200
G1 Y62.491Z0F1200
G1 X159.093Y62.339Z0F1200
G1 X159.141Y62.205Z0F1200
G1 X159.211Y62.092Z0F1200
G1 X159.302Y62.005Z0F1200
G1 X159.412Y61.949Z0F1200
G1 X159.539Y61.926Z0F1200
G1 X159.681Y61.941Z0F1200
G1 X159.838Y61.998Z0F1200
G1 X160.006Y62.102Z0F1200
G1 X160.184Y62.255Z0F1200
G1 X160.372Y62.463Z0F1200
G1 X160.608Y62.656Z0F1200
G1 X160.843Y62.929Z0F1200
G1 X161.065Y63.248Z0F1200
G1 X161.257Y63.582Z0F1200
G1 X161.409Y63.896Z0F1200
G1 X161.504Y64.159Z0F1200
G1 X161.526Y64.261Z0F1200
G1 X161.53Y64.338Z0F1200
G1 X161.512Y64.385Z0F1200
G1 X161.472Y64.399Z0F1200
G1 X161.285Y64.019Z0F1200
G1 X161.034Y63.64Z0F1200
G1 X160.757Y63.259Z0F1200
G1 X160.492Y62.875Z0F1200
G1 X160.276Y62.487Z0F1200
G1 X160.147Y62.093Z0F1200
G1 X160.128Y61.894Z0F1200
G1 X160.144Y61.692Z0F1200
G1 X160.201Y61.488Z0F1200
G1 X160.304Y61.281Z0F1200
G1 X160.539Y61.355Z0F1200
G1 X160.755Y61.45Z0F1200
G1 X160.952Y61.564Z0F1200
G1 X161.131Y61.695Z0F1200
G1 X161.439Y62.001Z0F1200
G1 X161.686Y62.354Z0F1200
G1 X161.88Y62.738Z0F1200
G1 X162.027Y63.139Z0F1200
G1 X162.137Y63.542Z0F1200
G1 X162.215Y63.931Z0F1200
G1 X162.276Y64.128Z0F1200
G1 X162.352Y64.321Z0F1200
G1 X162.43Y64.488Z0F1200
G1 X162.499Y64.608Z0F1200
G1 X162.546Y64.661Z0F1200
G1 X162.558Y64.624Z0F1200
G1 X162.547Y64.565Z0F1200
G1 X162.523Y64.476Z0F1200
G1 X162.483Y64.354Z0F1200
G1 X162.428Y64.196Z0F1200
G1 X162.343Y63.86Z0F1200
G1 X162.196Y63.489Z0F1200
G1 X162.024Y63.098Z0F1200
G1 X161.864Y62.706Z0F1200
G1 X161.754Y62.33Z0F1200
G1 X161.731Y61.988Z0F1200
G1 X161.763Y61.835Z0F1200
G1 X161.832Y61.697Z0F1200
G1 X161.941Y61.576Z0F1200
G1 X162.094Y61.475Z0F1200
G1 X162.356Y61.564Z0F1200
G1 X162.577Y61.678Z0F1200
G1 X162.763Y61.813Z0F1200
G1 X162.917Y61.967Z0F1200
G1 X163.146Y62.322Z0F1200
G1 X163.299Y62.72Z0F1200
G1 X163.408Y63.141Z0F1200
G1 X163.506Y63.563Z0F1200
G1 X163.627Y63.965Z0F1200
G1 X163.804Y64.327Z0F1200
G1 X163.931Y64.49Z0F1200
G1 X164.055Y64.645Z0F1200
G1 X164.166Y64.774Z0F1200
G1 X164.255Y64.86Z0F1200
G1 X164.311Y64.888Z0F1200
G1 X164.325Y64.84Z0F1200
G1 X164.314Y64.782Z0F1200
G1 X164.288Y64.699Z0F1200
G1 X164.246Y64.589Z0F1200
G1 X164.188Y64.45Z0F1200
G1 X164.115Y64.122Z0F1200
G1 X163.981Y63.747Z0F1200
G1 X163.821Y63.346Z0F1200
G1 X163.671Y62.94Z0F1200
G1 X163.569Y62.552Z0F1200
G1 X163.551Y62.203Z0F1200
G1 X163.584Y62.051Z0F1200
G1 X163.652Y61.916Z0F1200
G1 X163.759Y61.801Z0F1200
G1 X163.91Y61.711Z0F1200
G1 X164.303Y61.903Z0F1200
G1 X164.65Y62.131Z0F1200
G1 X164.957Y62.389Z0F1200
G1 X165.227Y62.673Z0F1200
G1 X165.679Y63.299Z0F1200
G1 X166.044Y63.971Z0F1200
G1 X166.122Y64.158Z0F1200
G1 X166.161Y64.333Z0F1200
G1 X166.17Y64.481Z0F1200
G1 X166.153Y64.583Z0F1200
G1 X166.116Y64.621Z0F1200
G1 X166.066Y64.58Z0F1200
G1 X166.038Y64.523Z0F1200
G1 X166.009Y64.44Z0F1200
G1 X165.98Y64.328Z0F1200
G1 X165.951Y64.184Z0F1200
G1 X165.848Y63.902Z0F1200
G1 X165.723Y63.57Z0F1200
G1 X165.598Y63.21Z0F1200
G1 X165.494Y62.846Z0F1200
G1 X165.431Y62.503Z0F1200
G1 Y62.203Z0F1200
G1 X165.459Y62.076Z0F1200
G1 X165.511Y61.97Z0F1200
G1 X165.59Y61.885Z0F1200
G1 X165.697Y61.827Z0F1200
G1 X166.081Y62.055Z0F1200
G1 X166.431Y62.344Z0F1200
G1 X166.743Y62.678Z0F1200
G1 X167.012Y63.038Z0F1200
G1 X167.234Y63.408Z0F1200
G1 X167.404Y63.77Z0F1200
G1 X167.518Y64.106Z0F1200
G1 X167.572Y64.399Z0F1200
G1 X167.405Y63.686Z0F1200
G1 X167.173Y62.941Z0F1200
G1 X167.085Y62.575Z0F1200
G1 X167.043Y62.221Z0F1200
G1 X167.068Y61.889Z0F1200
G1 X167.181Y61.584Z0F1200
G1 X167.632Y61.822Z0F1200
G1 X168.035Y62.119Z0F1200
G1 X168.379Y62.465Z0F1200
G1 X168.65Y62.849Z0F1200
G1 X168.837Y63.261Z0F1200
G1 X168.925Y63.69Z0F1200
G1 X168.928Y63.908Z0F1200
G1 X168.903Y64.126Z0F1200
G1 X168.846Y64.344Z0F1200
G1 X168.757Y64.559Z0F1200
G1 X168.634Y63.817Z0F1200
G1 X168.423Y63.089Z0F1200
G1 X168.315Y62.726Z0F1200
G1 X168.22Y62.361Z0F1200
G1 X168.151Y61.991Z0F1200
G1 X168.12Y61.616Z0F1200
G1 X168.188Y61.504Z0F1200
G1 X168.27Y61.437Z0F1200
G1 X168.365Y61.411Z0F1200
G1 X168.469Y61.421Z0F1200
G1 X168.701Y61.53Z0F1200
G1 X168.95Y61.725Z0F1200
G1 X169.202Y61.969Z0F1200
G1 X169.654Y62.447Z0F1200
G1 X169.823Y62.605Z0F1200
G1 X169.981Y62.803Z0F1200
G1 X170.119Y63.083Z0F1200
G1 X170.232Y63.409Z0F1200
G1 X170.311Y63.745Z0F1200
G1 X170.348Y64.054Z0F1200
G1 X170.336Y64.3Z0F1200
G1 X170.309Y64.387Z0F1200
G1 X170.267Y64.446Z0F1200
G1 X170.209Y64.47Z0F1200
G1 X170.133Y64.456Z0F1200
G1 X169.915Y63.783Z0F1200
G1 X169.802Y63.393Z0F1200
G1 X169.717Y63Z0F1200
G1 X169.68Y62.633Z0F1200
G1 X169.717Y62.317Z0F1200
G1 X169.769Y62.187Z0F1200
G1 X169.847Y62.079Z0F1200
G1 X169.955Y61.997Z0F1200
G1 X170.095Y61.945Z0F1200
G1 X170.466Y62.194Z0F1200
G1 X170.829Y62.497Z0F1200
G1 X171.165Y62.84Z0F1200
G1 X171.449Y63.211Z0F1200
G1 X171.661Y63.597Z0F1200
G1 X171.779Y63.984Z0F1200
G1 X171.796Y64.175Z0F1200
G1 X171.781Y64.36Z0F1200
G1 X171.732Y64.54Z0F1200
G1 X171.645Y64.711Z0F1200
G1 X171.502Y64.393Z0F1200
G1 X171.409Y64.004Z0F1200
G1 X171.372Y63.579Z0F1200
G1 X171.402Y63.152Z0F1200
G1 X171.444Y62.949Z0F1200
G1 X171.505Y62.758Z0F1200
G1 X171.587Y62.585Z0F1200
G1 X171.69Y62.433Z0F1200
G1 X171.816Y62.307Z0F1200
G1 X171.966Y62.211Z0F1200
G1 X172.14Y62.15Z0F1200
G1 X172.34Y62.127Z0F1200
G1 X172.464Y62.229Z0F1200
G1 X172.565Y62.358Z0F1200
G1 X172.647Y62.51Z0F1200
G1 X172.711Y62.68Z0F1200
G1 X172.798Y63.055Z0F1200
G1 X172.847Y63.445Z0F1200
G1 X172.879Y63.811Z0F1200
G1 X172.915Y64.115Z0F1200
G1 X172.94Y64.232Z0F1200
G1 X172.974Y64.318Z0F1200
G1 X173.019Y64.37Z0F1200
G1 X173.077Y64.383Z0F1200
G1 X173.113Y63.478Z0F1200
G1 X173.107Y62.574Z0F1200
G1 X173.135Y62.127Z0F1200
G1 X173.212Y61.687Z0F1200
G1 X173.355Y61.254Z0F1200
G1 X173.584Y60.831Z0F1200
G1 X173.714Y60.868Z0F1200
G1 X173.822Y60.941Z0F1200
G1 X173.909Y61.046Z0F1200
G1 X173.978Y61.179Z0F1200
G1 X174.069Y61.513Z0F1200
G1 X174.11Y61.908Z0F1200
G1 X174.118Y62.332Z0F1200
G1 X174.109Y62.75Z0F1200
G1 X174.099Y63.13Z0F1200
G1 X174.104Y63.437Z0F1200
G1 X174.161Y64.114Z0F1200
G1 X174.203Y64.74Z0F1200
G1 X174.227Y65.331Z0F1200
G1 X174.232Y65.901Z0F1200
G1 X174.214Y66.465Z0F1200
G1 X174.171Y67.039Z0F1200
G1 X174.102Y67.636Z0F1200
G1 X174.003Y68.273Z0F1200
G1 X174.106Y68.985Z0F1200
G1 X174.177Y69.633Z0F1200
G1 X174.217Y70.211Z0F1200
G1 X174.232Y70.714Z0F1200
G1 X174.223Y71.137Z0F1200
G1 X174.194Y71.476Z0F1200
G1 X174.148Y71.724Z0F1200
G1 X174.088Y71.877Z0F1200
G1 X174.054Y71.916Z0F1200
G1 X174.017Y71.929Z0F1200
G1 X173.979Y71.916Z0F1200
G1 X173.939Y71.876Z0F1200
G1 X173.897Y71.809Z0F1200
G1 X173.856Y71.713Z0F1200
G1 X173.813Y71.588Z0F1200
G1 X173.771Y71.434Z0F1200
G1 X173.729Y71.249Z0F1200
G1 X173.688Y71.034Z0F1200
G1 X173.649Y70.788Z0F1200
G1 X173.61Y70.509Z0F1200
G1 X173.574Y70.197Z0F1200
G1 X173.54Y69.852Z0F1200
G1 X173.509Y69.474Z0F1200
G1 X173.481Y69.06Z0F1200
G1 X173.222Y68.421Z0F1200
G1 X173.041Y67.75Z0F1200
G1 X172.917Y67.056Z0F1200
G1 X172.828Y66.35Z0F1200
G1 X172.752Y65.64Z0F1200
G1 X172.669Y64.938Z0F1200
G1 X172.556Y64.253Z0F1200
G1 X172.392Y63.595Z0F1200
G1 X172.33Y62.973Z0F1200
G1 X172.223Y62.384Z0F1200
G1 X172.071Y61.823Z0F1200
G1 X171.875Y61.281Z0F1200
G1 X171.638Y60.752Z0F1200
G1 X171.36Y60.228Z0F1200
G1 X171.041Y59.703Z0F1200
G1 X170.685Y59.169Z0F1200
G1 X170.133Y58.499Z0F1200
G1 X169.558Y57.896Z0F1200
G1 X169.001Y57.343Z0F1200
G1 X168.5Y56.82Z0F1200
G0 Z1.5F500
G0 X8.443Y79.277Z1.5F1200
G1 Z0F500
G1 X9.264Y85.52Z0F1200
G1 X9.496Z0F1200
G1 X10.252Y80.076Z0F1200
G1 X12.467Y85.49Z0F1200
G1 X12.605Z0F1200
G1 X11.806Y79.307Z0F1200
G0 Z1.5F500
G0 X14.189Y83.303Z1.5F1200
G1 Z0F500
G1 X14.712Y83.674Z0F1200
G1 X15.148Y83.83Z0F1200
G1 X15.584Y83.889Z0F1200
G1 X15.881Y83.732Z0F1200
G1 X16.107Y83.4Z0F1200
G1 X16.201Y82.902Z0F1200
G1 X16.136Y82.228Z0F1200
G1 X15.86Y80.168Z0F1200
G1 X15.765Y79.339Z0F1200
G1 X15.86Y80.168Z0F1200
G1 X15.518Y79.892Z0F1200
G1 X15.148Y79.584Z0F1200
G1 X14.763Y79.369Z0F1200
G1 X14.349Y79.277Z0F1200
G1 X14.007Y79.43Z0F1200
G1 X13.775Y79.677Z0F1200
G1 X13.615Y80.076Z0F1200
G1 X13.688Y80.666Z0F1200
G1 X13.935Y81.125Z0F1200
G1 X14.349Y81.525Z0F1200
G1 X14.741Y81.711Z0F1200
G1 X15.191Y81.896Z0F1200
G1 X15.605Y81.984Z0F1200
G1 X15.881Y82.014Z0F1200
G1 X16.085Z0F1200
G0 Z1.5F500
G0 X17.53Y79.307Z1.5F1200
G1 Z0F500
G1 X18.126Y83.83Z0F1200
G1 X17.944Y82.443Z0F1200
G1 X18.22Y83Z0F1200
G1 X18.605Y83.557Z0F1200
G1 X18.969Y83.771Z0F1200
G1 X19.317Y83.83Z0F1200
G1 X19.521Y83.801Z0F1200
G0 Z1.5F500
G0 X22.128Y79.83Z1.5F1200
G1 Z0F500
G1 X21.693Y79.461Z0F1200
G1 X21.148Y79.307Z0F1200
G1 X20.661Y79.4Z0F1200
G1 X20.203Y79.861Z0F1200
G1 X19.978Y80.51Z0F1200
G1 X19.957Y81.271Z0F1200
G1 X20.073Y82.072Z0F1200
G1 X20.342Y82.814Z0F1200
G1 X20.777Y83.4Z0F1200
G1 X21.257Y83.732Z0F1200
G1 X21.765Y83.83Z0F1200
G1 X22.15Y83.732Z0F1200
G1 X22.426Y83.557Z0F1200
G1 X22.492Y83.371Z0F1200
G0 Z1.5F500
G0 X26.218Y79.43Z1.5F1200
G1 Z0F500
G1 X27.024Y85.432Z0F1200
G1 X28.303Z0F1200
G1 X28.804Y85.246Z0F1200
G1 X29.124Y84.963Z0F1200
G1 X29.378Y84.602Z0F1200
G1 X29.581Y83.889Z0F1200
G1 X29.61Y83.088Z0F1200
G1 X29.443Y81.955Z0F1200
G1 X29.262Y81.213Z0F1200
G1 X29.015Y80.695Z0F1200
G1 X28.623Y80.046Z0F1200
G1 X28.027Y79.646Z0F1200
G1 X27.547Y79.461Z0F1200
G1 X27.184Y79.43Z0F1200
G1 X26.218Z0F1200
G0 Z1.5F500
G0 X33.475Y83.771Z1.5F1200
G1 Z0F500
G1 X32.879Y79.307Z0F1200
G1 X33.039Y80.48Z0F1200
G1 X32.719Y80.076Z0F1200
G1 X32.378Y79.677Z0F1200
G1 X31.92Y79.369Z0F1200
G1 X31.528Y79.277Z0F1200
G1 X31.143Y79.43Z0F1200
G1 X30.889Y79.738Z0F1200
G1 X30.802Y80.138Z0F1200
G1 X30.867Y80.91Z0F1200
G1 X31.23Y83.771Z0F1200
G0 Z1.5F500
G0 X34.387Y79.892Z1.5F1200
G1 Z0F500
G1 X34.753Y79.522Z0F1200
G1 X35.168Y79.339Z0F1200
G1 X35.531Y79.277Z0F1200
G1 X36.01Y79.492Z0F1200
G1 X36.424Y79.861Z0F1200
G1 X36.584Y80.412Z0F1200
G1 X36.562Y80.969Z0F1200
G1 X36.221Y81.428Z0F1200
G1 X35.691Y81.74Z0F1200
G1 X35.211Y82.043Z0F1200
G1 X34.957Y82.443Z0F1200
G1 Y82.902Z0F1200
G1 X35.146Y83.342Z0F1200
G1 X35.553Y83.771Z0F1200
G1 X36.032Y83.859Z0F1200
G1 X36.468Y83.732Z0F1200
G1 X36.816Y83.43Z0F1200
G0 Z1.5F500
G0 X37.496Y79.892Z1.5F1200
G1 Z0F500
G1 X37.863Y79.522Z0F1200
G1 X38.277Y79.339Z0F1200
G1 X38.64Y79.277Z0F1200
G1 X39.119Y79.492Z0F1200
G1 X39.533Y79.861Z0F1200
G1 X39.693Y80.412Z0F1200
G1 X39.671Y80.969Z0F1200
G1 X39.33Y81.428Z0F1200
G1 X38.8Y81.74Z0F1200
G1 X38.32Y82.043Z0F1200
G1 X38.066Y82.443Z0F1200
G1 Y82.902Z0F1200
G1 X38.255Y83.342Z0F1200
G1 X38.662Y83.771Z0F1200
G1 X39.141Y83.859Z0F1200
G1 X39.577Y83.732Z0F1200
G1 X39.925Y83.43Z0F1200
G0 Z1.5F500
G0 X40.993Y81.711Z1.5F1200
G1 Z0F500
G1 X43.514Z0F1200
G1 X43.579Y82.258Z0F1200
G1 X43.558Y82.971Z0F1200
G1 X43.303Y83.518Z0F1200
G1 X42.984Y83.83Z0F1200
G1 X42.504Y83.859Z0F1200
G1 X42.003Y83.674Z0F1200
G1 X41.545Y83.215Z0F1200
G1 X41.291Y82.756Z0F1200
G1 X41.044Y82.17Z0F1200
G1 X40.928Y81.555Z0F1200
G1 Y80.812Z0F1200
G1 X41.044Y80.138Z0F1200
G1 X41.386Y79.584Z0F1200
G1 X41.749Y79.339Z0F1200
G1 X42.228Y79.277Z0F1200
G1 X42.642Y79.43Z0F1200
G1 X43.1Y79.708Z0F1200
G0 Z1.5F500
G0 X44.611Y79.277Z1.5F1200
G1 Z0F500
G1 X45.206Y83.801Z0F1200
G0 Z1.5F500
G0 X45.25Y85.676Z1.5F1200
G1 Z0F500
G1 X45.185Y85.188Z0F1200
G1 X45.548Z0F1200
G1 X45.621Y85.676Z0F1200
G1 X45.25Z0F1200
G0 Z1.5F500
G0 X47.357Y86.106Z1.5F1200
G1 Z0F500
G1 X46.536Y79.738Z0F1200
G1 Y79.522Z0F1200
G1 X46.579Y79.4Z0F1200
G1 X46.695Y79.307Z0F1200
G1 X46.826Z0F1200
G0 Z1.5F500
G0 X49.281Y86.106Z1.5F1200
G1 Z0F500
G1 X48.461Y79.738Z0F1200
G1 Y79.522Z0F1200
G1 X48.504Y79.4Z0F1200
G1 X48.62Y79.307Z0F1200
G1 X48.751Z0F1200
G0 Z1.5F500
G0 X50.335Y81.711Z1.5F1200
G1 Z0F500
G1 X52.856Z0F1200
G1 X52.921Y82.258Z0F1200
G1 X52.899Y82.971Z0F1200
G1 X52.645Y83.518Z0F1200
G1 X52.325Y83.83Z0F1200
G1 X51.846Y83.859Z0F1200
G1 X51.345Y83.674Z0F1200
G1 X50.887Y83.215Z0F1200
G1 X50.633Y82.756Z0F1200
G1 X50.386Y82.17Z0F1200
G1 X50.27Y81.555Z0F1200
G1 Y80.812Z0F1200
G1 X50.386Y80.138Z0F1200
G1 X50.727Y79.584Z0F1200
G1 X51.09Y79.339Z0F1200
G1 X51.57Y79.277Z0F1200
G1 X51.984Y79.43Z0F1200
G1 X52.441Y79.708Z0F1200
G0 Z1.5F500
G0 X53.974Y79.307Z1.5F1200
G1 Z0F500
G1 X54.57Y83.83Z0F1200
G1 X54.388Y82.443Z0F1200
G1 X54.664Y83Z0F1200
G1 X55.049Y83.557Z0F1200
G1 X55.412Y83.771Z0F1200
G1 X55.761Y83.83Z0F1200
G1 X55.965Y83.801Z0F1200
G0 Z1.5F500
G0 X64.873Y79.483Z1.5F1200
G1 Z0F500
G1 X65.492Y85.459Z0F1200
G1 X63.421Y81.469Z0F1200
G1 X65.656Z0F1200
G0 Z1.5F500
G0 X66.398Y80.033Z1.5F1200
G1 Z0F500
G1 X66.365Y79.544Z0F1200
G1 X66.629Z0F1200
G1 X66.68Y80.033Z0F1200
G1 X66.398Z0F1200
G0 Z1.5F500
G0 X69.269Y85.147Z1.5F1200
G1 Z0F500
G1 X68.689Y85.118Z0F1200
G1 X69.325Y85.517Z0F1200
G1 X68.723Y79.635Z0F1200
G1 X67.834Z0F1200
G1 X69.59Z0F1200
G0 Z1.5F500
G0 X72.105Y85.147Z1.5F1200
G1 Z0F500
G1 X71.526Y85.118Z0F1200
G1 X72.162Y85.517Z0F1200
G1 X71.56Y79.635Z0F1200
G1 X70.67Z0F1200
G1 X72.426Z0F1200
G0 Z1.5F500
G0 X73.473Y80.033Z1.5F1200
G1 Z0F500
G1 X73.439Y79.544Z0F1200
G1 X73.704Z0F1200
G1 X73.755Y80.033Z0F1200
G1 X73.473Z0F1200
G0 Z1.5F500
G0 X76.344Y85.147Z1.5F1200
G1 Z0F500
G1 X75.764Y85.118Z0F1200
G1 X76.4Y85.517Z0F1200
G1 X75.798Y79.635Z0F1200
G1 X74.908Z0F1200
G1 X76.664Z0F1200
G0 Z1.5F500
G0 X77.661Y80.064Z1.5F1200
G1 Z0F500
G1 X77.835Y79.727Z0F1200
G1 X78.116Y79.544Z0F1200
G1 X78.454Y79.483Z0F1200
G1 X78.848Y79.788Z0F1200
G1 X79.236Y80.37Z0F1200
G1 X79.518Y81.255Z0F1200
G1 X79.715Y82.335Z0F1200
G1 X79.822Y83.347Z0F1200
G1 X79.805Y84.291Z0F1200
G1 X79.659Y85.03Z0F1200
G1 X79.377Y85.459Z0F1200
G1 X78.989Y85.585Z0F1200
G1 X78.561Y85.332Z0F1200
G1 X78.28Y84.904Z0F1200
G1 X78.066Y84.359Z0F1200
G1 X77.959Y83.805Z0F1200
G1 X77.925Y83.192Z0F1200
G1 X78.049Y82.549Z0F1200
G1 X78.37Y82.15Z0F1200
G1 X78.775Y82.053Z0F1200
G1 X79.287Y82.394Z0F1200
G1 X79.608Y82.851Z0F1200
G1 X79.822Y83.25Z0F1200
G0 Z1.5F500
G0 X81.189Y79.513Z1.5F1200
G1 Z0F500
G1 X81.437Y81.139Z0F1200
G1 X81.685Y82.306Z0F1200
G1 X82Y83.318Z0F1200
G1 X82.304Y84.106Z0F1200
G1 X82.642Y84.846Z0F1200
G1 X82.979Y85.488Z0F1200
G1 X80.936Z0F1200
G0 Z1.5F500
G0 X83.19Y80.278Z1.5F1200
G1 Z0F500
G1 X83.368Y79.942Z0F1200
G1 X83.598Y79.697Z0F1200
G1 X83.863Y79.513Z0F1200
G1 X84.127Y79.483Z0F1200
G1 X84.538Y79.666Z0F1200
G1 X84.876Y80.064Z0F1200
G1 X85.157Y80.642Z0F1200
G1 X85.315Y81.323Z0F1200
G1 X85.354Y82.121Z0F1200
G1 X85.214Y82.734Z0F1200
G1 X84.859Y83.133Z0F1200
G1 X84.448Y83.192Z0F1200
G1 X84.127Y83.065Z0F1200
G1 X83.812Y82.793Z0F1200
G1 X83.773Y82.88Z0F1200
G1 X84.167Y85.459Z0F1200
G1 X85.619Z0F1200
G0 Z1.5F500
G0 X89.801Y80.983Z1.5F1200
G1 Z0F500
G1 X90.122Y80.601Z0F1200
G1 X90.417Y80.382Z0F1200
G1 X90.819Y80.272Z0F1200
G1 X91.301Y80.245Z0F1200
G1 X91.87Y80.519Z0F1200
G1 X92.271Y80.931Z0F1200
G1 X92.479Y81.479Z0F1200
G1 X92.526Y81.966Z0F1200
G1 X92.378Y82.461Z0F1200
G1 X91.937Y82.87Z0F1200
G1 X91.153Y83.366Z0F1200
G1 X90.712Y83.774Z0F1200
G1 X90.497Y84.218Z0F1200
G1 X90.584Y84.765Z0F1200
G1 X90.839Y85.339Z0F1200
G1 X91.341Y85.722Z0F1200
G1 X91.829Y85.809Z0F1200
G1 X92.271Y85.748Z0F1200
G1 X92.566Y85.531Z0F1200
G1 X92.84Y85.226Z0F1200
G0 Z1.5F500
G0 X95.645Y80.683Z1.5F1200
G1 Z0F500
G1 X95.244Y80.354Z0F1200
G1 X94.742Y80.217Z0F1200
G1 X94.293Y80.3Z0F1200
G1 X93.871Y80.71Z0F1200
G1 X93.664Y81.288Z0F1200
G1 X93.644Y81.966Z0F1200
G1 X93.751Y82.679Z0F1200
G1 X93.998Y83.34Z0F1200
G1 X94.4Y83.861Z0F1200
G1 X94.842Y84.157Z0F1200
G1 X95.311Y84.244Z0F1200
G1 X95.665Y84.157Z0F1200
G1 X95.92Y84Z0F1200
G1 X95.98Y83.835Z0F1200
G0 Z1.5F500
G0 X96.823Y80.245Z1.5F1200
G1 Z0F500
G1 X97.667Y86.27Z0F1200
G1 X97.245Y83.227Z0F1200
G1 X97.6Y83.67Z0F1200
G1 X97.921Y84Z0F1200
G1 X98.363Y84.218Z0F1200
G1 X98.765Y84.27Z0F1200
G1 X99.187Y83.94Z0F1200
G1 X99.314Y83.557Z0F1200
G1 X99.287Y82.931Z0F1200
G1 X98.932Y80.217Z0F1200
G0 Z1.5F500
G0 X101.61Z1.5F1200
G1 Z0F500
G1 X101.63Z0F1200
G1 X102.072Y80.354Z0F1200
G1 X102.514Y80.71Z0F1200
G1 X102.828Y81.262Z0F1200
G1 X103.043Y81.862Z0F1200
G1 X103.123Y82.435Z0F1200
G1 Y82.957Z0F1200
G1 X103.063Y83.418Z0F1200
G1 X102.915Y83.774Z0F1200
G1 X102.641Y84.105Z0F1200
G1 X102.346Y84.244Z0F1200
G1 X102.072Y84.27Z0F1200
G1 X101.71Y84.192Z0F1200
G1 X101.356Y83.94Z0F1200
G1 X101.034Y83.531Z0F1200
G1 X100.827Y83.148Z0F1200
G1 X100.619Y82.575Z0F1200
G1 X100.572Y82.131Z0F1200
G1 X100.532Y81.618Z0F1200
G1 X100.572Y81.149Z0F1200
G1 X100.766Y80.71Z0F1200
G1 X101.014Y80.409Z0F1200
G1 X101.309Y80.245Z0F1200
G1 X101.61Y80.217Z0F1200
G0 Z1.5F500
G0 X101.463Y86.157Z1.5F1200
G1 Z0F500
G1 X101.422Y85.722Z0F1200
G1 X101.737Z0F1200
G1 X101.804Y86.157Z0F1200
G1 X101.463Z0F1200
G0 Z1.5F500
G0 X103.096Z1.5F1200
G1 Z0F500
G1 X103.056Y85.722Z0F1200
G1 X103.371Z0F1200
G1 X103.437Y86.157Z0F1200
G1 X103.096Z0F1200
G0 Z1.5F500
G0 X104.288Y80.19Z1.5F1200
G1 Z0F500
G1 X104.837Y84.244Z0F1200
G1 X104.709Y83.261Z0F1200
G1 X105.044Y83.644Z0F1200
G1 X105.365Y83.966Z0F1200
G1 X105.593Y84.131Z0F1200
G1 X105.934Y84.244Z0F1200
G1 X106.142Y84.27Z0F1200
G1 X106.457Y84.157Z0F1200
G1 X106.604Y84Z0F1200
G1 X106.731Y83.722Z0F1200
G1 X106.798Y83.34Z0F1200
G1 X106.356Y80.19Z0F1200
G0 Z1.5F500
G0 X108.063Y82.357Z1.5F1200
G1 Z0F500
G1 X110.386Z0F1200
G1 X110.446Y82.844Z0F1200
G1 X110.426Y83.479Z0F1200
G1 X110.192Y83.966Z0F1200
G1 X109.898Y84.244Z0F1200
G1 X109.456Y84.27Z0F1200
G1 X108.994Y84.105Z0F1200
G1 X108.572Y83.696Z0F1200
G1 X108.338Y83.287Z0F1200
G1 X108.11Y82.766Z0F1200
G1 X108.003Y82.218Z0F1200
G1 Y81.557Z0F1200
G1 X108.11Y80.957Z0F1200
G1 X108.425Y80.464Z0F1200
G1 X108.759Y80.245Z0F1200
G1 X109.201Y80.19Z0F1200
G1 X109.583Y80.327Z0F1200
G1 X110.005Y80.574Z0F1200
G0 Z1.5F500
G0 X111.712Y80.409Z1.5F1200
G1 Z0F500
G1 X111.33Y80.026Z0F1200
G1 X111.08Y79.56Z0F1200
G1 X110.975Y79.071Z0F1200
G1 X111.183Y78.653Z0F1200
G1 X111.652Y78.384Z0F1200
G1 X112.2Y78.297Z0F1200
G1 X112.743Y78.462Z0F1200
G1 X113.292Y78.905Z0F1200
G1 X113.546Y79.314Z0F1200
G1 X113.586Y79.779Z0F1200
G1 X113.466Y80.217Z0F1200
G1 X113.017Y80.382Z0F1200
G1 X111.732Z0F1200
G1 X111.504Y80.628Z0F1200
G1 X111.417Y81.01Z0F1200
G1 X111.524Y81.366Z0F1200
G1 X111.966Y81.888Z0F1200
G1 X112.174Y81.696Z0F1200
G1 X112.515Y81.618Z0F1200
G1 X112.977Y81.809Z0F1200
G1 X113.338Y82.192Z0F1200
G1 X113.566Y82.653Z0F1200
G1 X113.633Y83.201Z0F1200
G1 X113.546Y83.696Z0F1200
G1 X113.439Y83.913Z0F1200
G1 X113.191Y84.157Z0F1200
G1 X114.202Z0F1200
G1 X113.171Z0F1200
G1 X112.87Y84.244Z0F1200
G1 X112.388Y84.192Z0F1200
G1 X112.006Y83.835Z0F1200
G1 X111.732Y83.34Z0F1200
G1 X111.631Y82.792Z0F1200
G1 X111.672Y82.357Z0F1200
G1 X111.799Y82.079Z0F1200
G1 X111.946Y81.862Z0F1200
G0 Z1.5F500
G0 X115.126Y80.409Z1.5F1200
G1 Z0F500
G1 X114.744Y80.026Z0F1200
G1 X114.494Y79.56Z0F1200
G1 X114.389Y79.071Z0F1200
G1 X114.597Y78.653Z0F1200
G1 X115.066Y78.384Z0F1200
G1 X115.615Y78.297Z0F1200
G1 X116.157Y78.462Z0F1200
G1 X116.706Y78.905Z0F1200
G1 X116.96Y79.314Z0F1200
G1 X117Y79.779Z0F1200
G1 X116.88Y80.217Z0F1200
G1 X116.431Y80.382Z0F1200
G1 X115.146Z0F1200
G1 X114.918Y80.628Z0F1200
G1 X114.831Y81.01Z0F1200
G1 X114.938Y81.366Z0F1200
G1 X115.38Y81.888Z0F1200
G1 X115.588Y81.696Z0F1200
G1 X115.929Y81.618Z0F1200
G1 X116.391Y81.809Z0F1200
G1 X116.753Y82.192Z0F1200
G1 X116.98Y82.653Z0F1200
G1 X117.047Y83.201Z0F1200
G1 X116.96Y83.696Z0F1200
G1 X116.853Y83.913Z0F1200
G1 X116.605Y84.157Z0F1200
G1 X117.616Z0F1200
G1 X116.585Z0F1200
G1 X116.284Y84.244Z0F1200
G1 X115.802Y84.192Z0F1200
G1 X115.42Y83.835Z0F1200
G1 X115.146Y83.34Z0F1200
G1 X115.046Y82.792Z0F1200
G1 X115.086Y82.357Z0F1200
G1 X115.213Y82.079Z0F1200
G1 X115.36Y81.862Z0F1200
G0 Z1.5F500
G0 X117.908Y80.738Z1.5F1200
G1 Z0F500
G1 X118.245Y80.409Z0F1200
G1 X118.627Y80.245Z0F1200
G1 X118.962Y80.19Z0F1200
G1 X119.404Y80.382Z0F1200
G1 X119.785Y80.71Z0F1200
G1 X119.932Y81.201Z0F1200
G1 X119.912Y81.696Z0F1200
G1 X119.598Y82.105Z0F1200
G1 X119.109Y82.383Z0F1200
G1 X118.667Y82.653Z0F1200
G1 X118.433Y83.009Z0F1200
G1 Y83.418Z0F1200
G1 X118.607Y83.809Z0F1200
G1 X118.982Y84.192Z0F1200
G1 X119.424Y84.27Z0F1200
G1 X119.825Y84.157Z0F1200
G1 X120.147Y83.887Z0F1200
G0 Z1.5F500
G0 X122.269Y80.382Z1.5F1200
G1 Z0F500
G1 X122.021Y80.245Z0F1200
G1 X121.72Z0F1200
G1 X121.445Y80.354Z0F1200
G1 X121.278Y80.71Z0F1200
G1 X121.325Y81.314Z0F1200
G1 X121.72Y84.131Z0F1200
G1 X121.09Z0F1200
G1 X122.711Z0F1200
G1 X121.72Z0F1200
G1 X121.894Y85.365Z0F1200
G0 Z1.5F500
G0 X123.347Y80.217Z1.5F1200
G1 Z0F500
G1 X123.895Y84.244Z0F1200
G1 X123.728Y83.009Z0F1200
G1 X123.982Y83.505Z0F1200
G1 X124.337Y84Z0F1200
G1 X124.672Y84.192Z0F1200
G1 X124.993Y84.244Z0F1200
G1 X125.181Y84.218Z0F1200
G0 Z1.5F500
G0 X125.475Y80.683Z1.5F1200
G1 Z0F500
G1 X125.435Y80.245Z0F1200
G1 X125.75Z0F1200
G1 X125.81Y80.683Z0F1200
G1 X125.475Z0F1200
G0 Z1.5F500
G0 X130.202Y85.061Z1.5F1200
G1 Z0F500
G1 X130.603Y85.391Z0F1200
G1 X131.065Y85.644Z0F1200
G1 X131.42Z0F1200
G1 X131.781Y85.505Z0F1200
G1 X132.056Y85.174Z0F1200
G1 X132.163Y84.739Z0F1200
G1 X132.143Y84.218Z0F1200
G1 X131.969Y83.748Z0F1200
G1 X131.574Y83.392Z0F1200
G1 X131.125Y83.122Z0F1200
G1 X130.791Y83.035Z0F1200
G1 X130.516Z0F1200
G1 X130.831Z0F1200
G1 X131.145Y82.983Z0F1200
G1 X131.487Y82.818Z0F1200
G1 X131.781Y82.461Z0F1200
G1 X131.909Y82.131Z0F1200
G1 X131.929Y81.749Z0F1200
G1 X131.842Y81.34Z0F1200
G1 X131.741Y81.01Z0F1200
G1 X131.487Y80.628Z0F1200
G1 X131.145Y80.382Z0F1200
G1 X130.75Y80.245Z0F1200
G1 X130.369Z0F1200
G1 X129.987Y80.382Z0F1200
G1 X129.653Y80.656Z0F1200
G1 X129.441Y80.931Z0F1200
G0 Z1.5F500
G0 X134.566Y80.19Z1.5F1200
G1 Z0F500
G1 X135.303Y85.531Z0F1200
G1 X132.839Y81.966Z0F1200
G1 X135.497Z0F1200
G0 Z1.5F500
G0 X143.212Y78.45Z1.5F1200
G1 Z0F500
G1 X143.45Y78.847Z0F1200
G1 X143.73Y79.241Z0F1200
G1 X144.039Y79.633Z0F1200
G1 X144.361Y80.026Z0F1200
G1 X144.681Y80.421Z0F1200
G1 X144.985Y80.819Z0F1200
G1 X145.256Y81.222Z0F1200
G1 X145.48Y81.631Z0F1200
G1 X145.99Y82.314Z0F1200
G1 X146.502Y83.041Z0F1200
G1 X146.774Y83.395Z0F1200
G1 X147.065Y83.727Z0F1200
G1 X147.38Y84.028Z0F1200
G1 X147.725Y84.286Z0F1200
G1 X148.005Y84.634Z0F1200
G1 X148.297Y84.941Z0F1200
G1 X148.438Y85.07Z0F1200
G1 X148.57Y85.177Z0F1200
G1 X148.688Y85.259Z0F1200
G1 X148.79Y85.312Z0F1200
G1 X148.871Y85.332Z0F1200
G1 X148.927Y85.315Z0F1200
G1 X148.953Y85.258Z0F1200
G1 X148.947Y85.157Z0F1200
G1 X148.904Y85.007Z0F1200
G1 X148.819Y84.805Z0F1200
G1 X148.69Y84.548Z0F1200
G1 X148.511Y84.231Z0F1200
G1 X148.263Y83.805Z0F1200
G1 X148.025Y83.436Z0F1200
G1 X147.798Y83.108Z0F1200
G1 X147.581Y82.809Z0F1200
G1 X147.173Y82.233Z0F1200
G1 X146.798Y81.592Z0F1200
G1 X146.628Y81.413Z0F1200
G1 X146.498Y81.249Z0F1200
G1 X146.407Y81.102Z0F1200
G1 X146.353Y80.971Z0F1200
G1 X146.334Y80.859Z0F1200
G1 X146.348Y80.766Z0F1200
G1 X146.393Y80.693Z0F1200
G1 X146.467Y80.642Z0F1200
G1 X146.569Y80.612Z0F1200
G1 X146.696Y80.605Z0F1200
G1 X146.846Y80.623Z0F1200
G1 X147.019Y80.665Z0F1200
G1 X147.211Y80.733Z0F1200
G1 X147.421Y80.828Z0F1200
G1 X147.647Y80.951Z0F1200
G1 X147.887Y81.103Z0F1200
G1 X148.242Y81.491Z0F1200
G1 X148.624Y81.929Z0F1200
G1 X148.703Y82.007Z0F1200
G1 X148.769Y82.062Z0F1200
G1 X148.821Y82.088Z0F1200
G1 X148.854Y82.082Z0F1200
G1 X148.866Y82.036Z0F1200
G1 X148.855Y81.946Z0F1200
G1 X148.818Y81.808Z0F1200
G1 X148.751Y81.615Z0F1200
G1 X148.628Y81.353Z0F1200
G1 X148.548Y81.012Z0F1200
G1 X148.515Y80.645Z0F1200
G1 X148.535Y80.307Z0F1200
G1 X148.566Y80.165Z0F1200
G1 X148.612Y80.051Z0F1200
G1 X148.674Y79.971Z0F1200
G1 X148.753Y79.933Z0F1200
G1 X148.848Y79.942Z0F1200
G1 X148.962Y80.005Z0F1200
G1 X149.093Y80.13Z0F1200
G1 X149.244Y80.323Z0F1200
G1 X149.619Y80.998Z0F1200
G0 Z1.5F500
G0 X150.991Y79.729Z1.5F1200
G1 Z0F500
G1 X150.746Y79.462Z0F1200
G1 X150.574Y79.253Z0F1200
G1 X150.469Y79.098Z0F1200
G1 X150.426Y78.993Z0F1200
G1 X150.437Y78.934Z0F1200
G1 X150.497Y78.917Z0F1200
G1 X150.599Y78.938Z0F1200
G1 X150.736Y78.994Z0F1200
G1 X150.902Y79.079Z0F1200
G1 X151.092Y79.19Z0F1200
G1 X151.297Y79.323Z0F1200
G1 X151.512Y79.475Z0F1200
G1 X151.947Y79.815Z0F1200
G1 X152.345Y80.178Z0F1200
G1 X152.852Y80.663Z0F1200
G1 X153.299Y81.112Z0F1200
G1 X153.511Y81.346Z0F1200
G1 X153.718Y81.601Z0F1200
G1 X153.926Y81.884Z0F1200
G1 X154.138Y82.206Z0F1200
G1 X154.589Y82.686Z0F1200
G1 X155.042Y83.246Z0F1200
G1 X155.565Y83.924Z0F1200
G1 X155.873Y84.319Z0F1200
G1 X156.223Y84.759Z0F1200
G1 X156.524Y85.042Z0F1200
G1 X156.919Y85.349Z0F1200
G1 X157.376Y85.669Z0F1200
G1 X157.867Y85.995Z0F1200
G1 X158.361Y86.318Z0F1200
G1 X158.829Y86.629Z0F1200
G1 X159.24Y86.919Z0F1200
G1 X159.565Y87.18Z0F1200
G1 X159.555Y87.018Z0F1200
G1 X159.502Y86.843Z0F1200
G1 X159.411Y86.656Z0F1200
G1 X159.287Y86.461Z0F1200
G1 X158.965Y86.049Z0F1200
G1 X158.579Y85.623Z0F1200
G1 X158.173Y85.198Z0F1200
G1 X157.791Y84.789Z0F1200
G1 X157.623Y84.595Z0F1200
G1 X157.478Y84.411Z0F1200
G1 X157.361Y84.238Z0F1200
G1 X157.277Y84.079Z0F1200
G1 X156.634Y83.247Z0F1200
G1 X155.954Y82.497Z0F1200
G1 X155.641Y82.118Z0F1200
G1 X155.367Y81.718Z0F1200
G1 X155.149Y81.282Z0F1200
G1 X155.002Y80.796Z0F1200
G1 X155.124Y80.655Z0F1200
G1 X155.257Y80.551Z0F1200
G1 X155.402Y80.48Z0F1200
G1 X155.557Y80.44Z0F1200
G1 X155.889Z0F1200
G1 X156.242Y80.52Z0F1200
G1 X156.963Y80.83Z0F1200
G1 X157.625Y81.164Z0F1200
G1 X157.828Y81.275Z0F1200
G1 X158.066Y81.447Z0F1200
G1 X158.319Y81.654Z0F1200
G1 X158.562Y81.871Z0F1200
G1 X158.775Y82.072Z0F1200
G1 X158.935Y82.23Z0F1200
G1 X159.019Y82.32Z0F1200
G1 X159.026Y82.331Z0F1200
G1 X159.005Y82.315Z0F1200
G1 X158.939Y82.119Z0F1200
G1 X158.89Y81.943Z0F1200
G1 X158.856Y81.788Z0F1200
G1 X158.837Y81.652Z0F1200
G1 X158.84Y81.434Z0F1200
G1 X158.892Y81.282Z0F1200
G1 X158.987Y81.191Z0F1200
G1 X159.12Y81.152Z0F1200
G1 X159.283Y81.159Z0F1200
G1 X159.471Y81.205Z0F1200
G1 X159.895Y81.386Z0F1200
G1 X160.342Y81.64Z0F1200
G1 X160.763Y81.91Z0F1200
G1 X161.106Y82.143Z0F1200
G1 X161.202Y82.106Z0F1200
G1 X161.233Y82.041Z0F1200
G1 X161.208Y81.954Z0F1200
G1 X161.14Y81.847Z0F1200
G1 X160.909Y81.59Z0F1200
G1 X160.621Y81.304Z0F1200
G1 X160.481Y81.161Z0F1200
G1 X160.357Y81.022Z0F1200
G1 X160.26Y80.891Z0F1200
G1 X160.199Y80.774Z0F1200
G1 X160.184Y80.673Z0F1200
G1 X160.226Y80.593Z0F1200
G1 X160.335Y80.538Z0F1200
G1 X160.521Y80.512Z0F1200
G1 X160.729Y80.529Z0F1200
G1 X160.878Y80.504Z0F1200
G1 X160.915Y80.457Z0F1200
G1 X160.919Y80.376Z0F1200
G1 X160.885Y80.254Z0F1200
G1 X160.805Y80.084Z0F1200
G1 X160.633Y79.866Z0F1200
G1 X160.471Y79.602Z0F1200
G1 X160.347Y79.336Z0F1200
G1 X160.286Y79.111Z0F1200
G1 Y79.026Z0F1200
G1 X160.314Y78.968Z0F1200
G1 X160.37Y78.941Z0F1200
G1 X160.457Y78.951Z0F1200
G1 X160.58Y79.003Z0F1200
G1 X160.742Y79.102Z0F1200
G1 X160.946Y79.253Z0F1200
G1 X161.195Y79.463Z0F1200
G1 X161.536Y79.682Z0F1200
G1 X161.816Y79.916Z0F1200
G1 X162.061Y80.165Z0F1200
G1 X162.548Y80.716Z0F1200
G1 X162.843Y81.022Z0F1200
G1 X163.207Y81.348Z0F1200
G1 X163.667Y81.698Z0F1200
G1 X164.262Y82.405Z0F1200
G1 X164.848Y83.064Z0F1200
G1 X165.422Y83.669Z0F1200
G1 X165.981Y84.218Z0F1200
G1 X166.521Y84.704Z0F1200
G1 X167.04Y85.124Z0F1200
G1 X167.533Y85.473Z0F1200
G1 X167.998Y85.747Z0F1200
G1 X168.292Y85.925Z0F1200
G1 X168.565Y86.057Z0F1200
G1 X168.816Y86.154Z0F1200
G1 X169.046Y86.224Z0F1200
G1 X169.44Y86.321Z0F1200
G1 X169.744Y86.422Z0F1200
G1 X169.85Y86.445Z0F1200
G1 X169.93Y86.419Z0F1200
G1 X169.986Y86.35Z0F1200
G1 X170.02Y86.243Z0F1200
G1 X170.035Y86.104Z0F1200
G1 X170.032Y85.938Z0F1200
G1 X170.013Y85.752Z0F1200
G1 X169.981Y85.551Z0F1200
G1 X169.886Y85.128Z0F1200
G1 X169.762Y84.714Z0F1200
G1 X169.695Y84.525Z0F1200
G1 X169.628Y84.355Z0F1200
G1 X169.561Y84.211Z0F1200
G1 X169.498Y84.098Z0F1200
G1 X169.078Y83.372Z0F1200
G1 X168.687Y82.631Z0F1200
G1 X168.513Y82.254Z0F1200
G1 X168.361Y81.87Z0F1200
G1 X168.235Y81.48Z0F1200
G1 X168.14Y81.083Z0F1200
G1 X168.208Y80.972Z0F1200
G1 X168.314Y80.924Z0F1200
G1 X168.455Y80.933Z0F1200
G1 X168.625Y80.992Z0F1200
G1 X168.819Y81.091Z0F1200
G1 X169.034Y81.225Z0F1200
G1 X169.264Y81.384Z0F1200
G1 X169.505Y81.562Z0F1200
G1 X170.001Y81.943Z0F1200
G1 X170.484Y82.304Z0F1200
G1 X170.709Y82.459Z0F1200
G1 X170.917Y82.586Z0F1200
G1 X171.103Y82.677Z0F1200
G1 X171.262Y82.726Z0F1200
G1 X171.313Y82.903Z0F1200
G1 X171.406Y83.093Z0F1200
G1 X171.52Y83.27Z0F1200
G1 X171.636Y83.408Z0F1200
G1 X171.735Y83.483Z0F1200
G1 X171.798Y83.469Z0F1200
G1 X171.809Y83.421Z0F1200
G1 X171.803Y83.341Z0F1200
G1 X171.779Y83.227Z0F1200
G1 X171.733Y83.074Z0F1200
G1 X171.354Y82.497Z0F1200
G1 X170.939Y81.974Z0F1200
G1 X170.802Y81.724Z0F1200
G1 X170.758Y81.477Z0F1200
G1 X170.781Y81.354Z0F1200
G1 X170.84Y81.23Z0F1200
G1 X170.938Y81.105Z0F1200
G1 X171.081Y80.979Z0F1200
G1 X171.215Y80.808Z0F1200
G1 X171.335Y80.63Z0F1200
G0 Z1.5F500
G0 X174.803Y84.944Z1.5F1200
G1 Z0F500
G1 X174.337Y84.925Z0F1200
G1 X173.918Y84.911Z0F1200
G1 X173.534Y84.9Z0F1200
G1 X172.492Y84.877Z0F1200
G1 X171.781Y84.855Z0F1200
G1 X171.388Y84.839Z0F1200
G1 X170.958Y84.817Z0F1200
G1 X170.477Y84.788Z0F1200
G1 X169.938Y84.752Z0F1200
G1 X169.327Y84.706Z0F1200
G1 X168.636Y84.65Z0F1200
G1 X167.853Y84.582Z0F1200
G1 X166.967Y84.501Z0F1200
G1 X165.82Y84.493Z0F1200
G1 X164.65Y84.439Z0F1200
G1 X163.48Y84.357Z0F1200
G1 X162.333Y84.263Z0F1200
G1 X162.231Y84.184Z0F1200
G1 X162.164Y84.118Z0F1200
G1 X162.127Y84.064Z0F1200
G1 X162.118Y84.02Z0F1200
G1 X162.166Y83.958Z0F1200
G1 X162.283Y83.922Z0F1200
G1 X162.611Y83.887Z0F1200
G1 X162.883Y83.834Z0F1200
G0 Z1.5F500
G0 X9.11Y69.848Z1.5F1200
G1 Z0F500
G1 X10.024Z0F1200
G1 X10.529Y70.079Z0F1200
G1 X11.11Y70.606Z0F1200
G1 X14.559Y76.678Z0F1200
G1 X12.7Z0F1200
G1 X11.55Y76.249Z0F1200
G1 X10.873Y75.516Z0F1200
G1 X10.637Y74.825Z0F1200
G1 X10.562Y73.998Z0F1200
G0 Z1.5F500
G0 X14.699Y76.709Z1.5F1200
G1 Z0F500
G1 X14.559Y72.721Z0F1200
G1 X12.388Z0F1200
G1 X14.559Z0F1200
G1 X14.591Y71.099Z0F1200
G1 X14.731Y70.277Z0F1200
G1 X15.064Y69.881Z0F1200
G1 X15.333Y69.815Z0F1200
G1 X16.053Y70.177Z0F1200
G0 Z1.5F500
G0 X19.878Y77.63Z1.5F1200
G1 Z0F500
G1 X19.373Y77.724Z0F1200
G1 X18.589Y77.431Z0F1200
G1 X17.915Y76.636Z0F1200
G1 X17.677Y75.652Z0F1200
G1 X16.933Y70.869Z0F1200
G1 X16.832Y69.782Z0F1200
G1 X17.644Y70.474Z0F1200
G1 X18.696Y71.696Z0F1200
G1 X19.233Y72.418Z0F1200
G0 Z1.5F500
G0 X21.941Y77.693Z1.5F1200
G1 Z0F500
G1 X21.028Y77.599Z0F1200
G1 X20.181Y76.908Z0F1200
G1 X19.775Y76.008Z0F1200
G1 X19.267Y71.696Z0F1200
G1 X19.132Y70.738Z0F1200
G1 X19.064Y70.211Z0F1200
G1 X19.2Y69.782Z0F1200
G1 X19.877Y69.881Z0F1200
G1 X20.963Y70.606Z0F1200
G1 X21.501Y71.759Z0F1200
G1 X21.737Y72.784Z0F1200
G1 X21.769Y73.674Z0F1200
G1 X21.705Y74.396Z0F1200
G1 X20.791Y73.506Z0F1200
G1 X19.843Y72.188Z0F1200
G1 X19.166Y70.771Z0F1200
G0 Z1.5F500
G0 X23.361Y71.989Z1.5F1200
G1 Z0F500
G1 X24.107Y72.449Z0F1200
G1 X25.025Y73.339Z0F1200
G1 X25.358Y73.799Z0F1200
G1 X25.455Y74.302Z0F1200
G1 X25.262Y74.501Z0F1200
G1 X24.821Y74.532Z0F1200
G1 X24.107Y74.072Z0F1200
G1 X23.564Y73.308Z0F1200
G1 X23.26Y72.188Z0F1200
G1 X23.124Y71.298Z0F1200
G1 X23.294Y70.574Z0F1200
G1 X23.666Y70.046Z0F1200
G1 X24.004Y69.716Z0F1200
G1 X25.154Y70.869Z0F1200
G1 X25.896Y71.696Z0F1200
G1 X26.411Y72.418Z0F1200
G0 Z1.5F500
G0 X25.902Y73.799Z1.5F1200
G1 Z0F500
G1 X26.511Y74.302Z0F1200
G1 X26.85Y74.532Z0F1200
G1 X26.511Y72.753Z0F1200
G1 X26.241Y71.131Z0F1200
G1 X26.206Y70.343Z0F1200
G1 Y70.013Z0F1200
G1 X26.511Y71.068Z0F1200
G1 X26.985Y72.094Z0F1200
G1 X27.391Y73.14Z0F1200
G1 X27.894Y73.967Z0F1200
G1 X28.174Y74.302Z0F1200
G1 X28.539Y74.459Z0F1200
G1 X28.98Y74.427Z0F1200
G0 Z1.5F500
G0 X29.22Y75.024Z1.5F1200
G1 Z0F500
G1 X29.186Y74.396Z0F1200
G1 X28.408Y74.333Z0F1200
G1 X29.186Y74.427Z0F1200
G1 X30.613Y74.459Z0F1200
G1 X29.186Y74.427Z0F1200
G1 X28.983Y72.617Z0F1200
G1 X28.78Y71.403Z0F1200
G1 X28.577Y70.672Z0F1200
G1 X28.339Y69.782Z0F1200
G1 X29.118Y70.408Z0F1200
G1 X30.097Y71.466Z0F1200
G1 X30.806Y72.418Z0F1200
G0 Z1.5F500
G0 X38.769Y70.376Z1.5F1200
G1 Z0F500
G1 X38.124Y70.013Z0F1200
G1 X36.835Y70.079Z0F1200
G1 X36.534Y69.881Z0F1200
G1 X36.91Y70.31Z0F1200
G1 X37.447Y71.036Z0F1200
G1 X38.328Y75.976Z0F1200
G1 X38.565Y76.678Z0F1200
G0 Z1.5F500
G0 X35.417Y73.475Z1.5F1200
G1 Z0F500
G1 X35.485Y74.427Z0F1200
G1 X35.992Y75.516Z0F1200
G1 X36.706Y76.207Z0F1200
G1 X37.555Y76.573Z0F1200
G1 X38.468Y76.678Z0F1200
G1 X39.242Y76.709Z0F1200
G1 X40.295Y76.542Z0F1200
G1 X40.897Y76.144Z0F1200
G1 X41.24Y75.39Z0F1200
G1 X41.133Y74.689Z0F1200
G1 X40.66Y74.072Z0F1200
G1 X40.091Y73.674Z0F1200
G1 X39.586Y73.569Z0F1200
G1 X38.909Z0F1200
G1 X39.886Y71.926Z0F1200
G1 X41.208Y69.98Z0F1200
G1 X42.186Y68.793Z0F1200
G0 Z1.5F500
G0 X42.868Y69.782Z1.5F1200
G1 Z0F500
G1 X43.004Z0F1200
G1 X43.615Y70.079Z0F1200
G1 X44.185Y70.706Z0F1200
G1 X44.701Y71.633Z0F1200
G1 X44.969Y72.585Z0F1200
G1 X44.905Y73.506Z0F1200
G1 X44.593Y73.998Z0F1200
G1 X44.357Y74.459Z0F1200
G1 X43.342Y73.998Z0F1200
G1 X42.7Y73.182Z0F1200
G1 X42.26Y72.251Z0F1200
G1 X42.192Y71.434Z0F1200
G1 X42.327Y70.606Z0F1200
G1 X42.53Y70.211Z0F1200
G1 X42.868Y69.782Z0F1200
G0 Z1.5F500
G0 X43.075Y77.17Z1.5F1200
G1 Z0F500
G1 X42.703Y76.803Z0F1200
G1 X43.109Y76.374Z0F1200
G1 X43.486Y76.699Z0F1200
G1 X43.075Y77.17Z0F1200
G0 Z1.5F500
G0 X45.861Y77.054Z1.5F1200
G1 Z0F500
G1 X45.485Y76.699Z0F1200
G1 X45.893Y76.269Z0F1200
G1 X46.269Y76.594Z0F1200
G1 X45.861Y77.054Z0F1200
G0 Z1.5F500
G0 X48.483Y74.302Z1.5F1200
G1 Z0F500
G1 X47.849Y74.595Z0F1200
G1 X47.301Y74.501Z0F1200
G1 X46.764Y74.103Z0F1200
G1 X46.558Y73.611Z0F1200
G1 X46.764Y72.983Z0F1200
G1 X47.269Y72.387Z0F1200
G1 X47.709Y71.79Z0F1200
G1 X47.978Y71.204Z0F1200
G1 X47.946Y70.672Z0F1200
G1 X47.537Y70.177Z0F1200
G1 X46.968Y69.848Z0F1200
G1 X46.491Y69.716Z0F1200
G1 X45.881Y69.98Z0F1200
G0 Z1.5F500
G0 X49.401Y75.024Z1.5F1200
G1 Z0F500
G1 X49.366Y74.396Z0F1200
G1 X48.588Y74.333Z0F1200
G1 X49.366Y74.427Z0F1200
G1 X50.793Y74.459Z0F1200
G1 X49.366Y74.427Z0F1200
G1 X49.163Y72.617Z0F1200
G1 X48.96Y71.403Z0F1200
G1 X48.757Y70.672Z0F1200
G1 X48.519Y69.782Z0F1200
G1 X49.298Y70.408Z0F1200
G1 X50.277Y71.466Z0F1200
G1 X50.987Y72.418Z0F1200
G0 Z1.5F500
G0 X50.69Y73.768Z1.5F1200
G1 Z0F500
G1 X51.232Y74.27Z0F1200
G1 X51.502Y74.396Z0F1200
G1 X51.028Y71.633Z0F1200
G1 X50.824Y70.672Z0F1200
G1 Y69.881Z0F1200
G1 X51.637Y70.574Z0F1200
G1 X52.276Y71.267Z0F1200
G1 X53.189Y72.418Z0F1200
G0 Z1.5F500
G0 X51.772Y76.406Z1.5F1200
G1 Z0F500
G1 Y75.851Z0F1200
G1 X51.671Y75.746Z0F1200
G0 Z1.5F500
G0 X63.011Y69.564Z1.5F1200
G1 Z0F500
G1 X63.485Y71.512Z0F1200
G1 X64.108Y73.181Z0F1200
G1 X64.606Y74.272Z0F1200
G1 X64.872Y74.92Z0F1200
G1 X63.692Y74.891Z0F1200
G1 X62.513Y75.038Z0F1200
G0 Z1.5F500
G0 X67.43Y71.574Z1.5F1200
G1 Z0F500
G1 X67.139Y71.234Z0F1200
G1 X67.455Y70.831Z0F1200
G1 X67.746Y71.14Z0F1200
G1 X67.43Y71.574Z0F1200
G0 Z1.5F500
G0 X71.35Y70.831Z1.5F1200
G1 Z0F500
G1 X70.619Y71.172Z0F1200
G1 X70.387Y71.512Z0F1200
G1 X70.304Y72.129Z0F1200
G1 X70.669Y73.063Z0F1200
G1 X72.114Y74.488Z0F1200
G1 X72.613Y75.284Z0F1200
G1 X72.712Y76.002Z0F1200
G1 X72.297Y76.405Z0F1200
G1 X71.591Y76.306Z0F1200
G1 X71.068Y75.943Z0F1200
G1 X70.802Y75.353Z0F1200
G1 X71.093Y74.517Z0F1200
G1 X72.164Y73.436Z0F1200
G1 X72.663Y72.748Z0F1200
G1 X72.762Y72.011Z0F1200
G1 X72.422Y71.264Z0F1200
G1 X71.957Y70.924Z0F1200
G1 X71.35Y70.831Z0F1200
G0 Z1.5F500
G0 X75.694Y71.574Z1.5F1200
G1 Z0F500
G1 X75.404Y71.234Z0F1200
G1 X75.719Y70.831Z0F1200
G1 X76.01Y71.14Z0F1200
G1 X75.694Y71.574Z0F1200
G0 Z1.5F500
G0 X79.091Y73.338Z1.5F1200
G1 Z0F500
G1 X79.615Y73.682Z0F1200
G1 X80.221Y73.77Z0F1200
G1 X80.719Y73.525Z0F1200
G1 X80.927Y73.033Z0F1200
G1 X80.977Y72.286Z0F1200
G1 X80.794Y71.638Z0F1200
G1 X80.346Y70.954Z0F1200
G1 X79.698Y70.707Z0F1200
G1 X78.992Y70.924Z0F1200
G1 X78.626Y71.388Z0F1200
G1 X78.41Y72.286Z0F1200
G1 X78.518Y73.367Z0F1200
G1 X78.884Y74.449Z0F1200
G1 X79.457Y75.382Z0F1200
G1 X80.196Y75.972Z0F1200
G1 X80.927Y76.218Z0F1200
G1 X81.55Y76.159Z0F1200
G0 Z1.5F500
G0 X84.042Y69.564Z1.5F1200
G1 Z0F500
G1 X84.515Y71.512Z0F1200
G1 X85.138Y73.181Z0F1200
G1 X85.636Y74.272Z0F1200
G1 X85.902Y74.92Z0F1200
G1 X84.723Y74.891Z0F1200
G1 X83.543Y75.038Z0F1200
G0 Z1.5F500
G0 X90.149Y72.643Z1.5F1200
G1 Z0F500
G1 X90.314Y73.774Z0F1200
G1 X90.667Y74.707Z0F1200
G1 X91.34Y75.401Z0F1200
G1 X92.159Y75.768Z0F1200
G1 X93.03Y75.838Z0F1200
G1 X93.788Y75.739Z0F1200
G1 X94.495Y75.362Z0F1200
G1 X94.685Y74.647Z0F1200
G1 X94.573Y74.112Z0F1200
G1 X94.254Y73.487Z0F1200
G1 X93.788Y73.12Z0F1200
G1 X93.357Y72.991Z0F1200
G1 X93.193Y73.02Z0F1200
G1 X93.866Y72.901Z0F1200
G1 X94.444Y72.524Z0F1200
G1 X94.711Y71.929Z0F1200
G1 X94.659Y71.086Z0F1200
G1 X94.331Y70.401Z0F1200
G1 X93.737Y69.835Z0F1200
G1 X93.055Y69.522Z0F1200
G1 X91.288Y69.491Z0F1200
G1 X91.046Y69.366Z0F1200
G1 X91.478Y69.928Z0F1200
G1 X91.805Y70.649Z0F1200
G1 X92.59Y75.739Z0F1200
G0 Z1.5F500
G0 X95.063Y73.179Z1.5F1200
G1 Z0F500
G1 X95.632Y73.645Z0F1200
G1 X95.795Y73.774Z0F1200
G1 X95.551Y72.524Z0F1200
G1 X95.442Y71.334Z0F1200
G1 X95.361Y70.62Z0F1200
G1 Y69.366Z0F1200
G1 X95.823Y69.866Z0F1200
G1 X96.444Y70.808Z0F1200
G1 X96.858Y71.681Z0F1200
G1 X97.289Y72.673Z0F1200
G1 X97.668Y73.675Z0F1200
G1 X97.401Y72.425Z0F1200
G1 X97.177Y71.145Z0F1200
G1 X97.047Y70.085Z0F1200
G1 X96.987Y69.334Z0F1200
G1 X97.642Y69.959Z0F1200
G1 X98.263Y70.838Z0F1200
G1 X98.892Y71.77Z0F1200
G0 Z1.5F500
G0 X98.839Y73.12Z1.5F1200
G1 Z0F500
G1 X99.355Y73.616Z0F1200
G1 X99.599Y73.804Z0F1200
G1 X99.464Y73.05Z0F1200
G1 X99.301Y71.741Z0F1200
G1 X99.138Y70.838Z0F1200
G1 X99.03Y69.991Z0F1200
G1 X98.975Y69.46Z0F1200
G1 X99.003Y69.303Z0F1200
G1 X98.975Y69.959Z0F1200
G1 X99.546Y70.868Z0F1200
G1 X99.979Y71.83Z0F1200
G1 X100.47Y72.643Z0F1200
G1 X100.988Y73.338Z0F1200
G1 X101.255Y73.705Z0F1200
G1 X101.393Z0F1200
G1 X101.47Y73.05Z0F1200
G1 X101.255Y71.83Z0F1200
G1 X101.065Y70.897Z0F1200
G1 X100.901Y70.178Z0F1200
G1 X100.763Y69.272Z0F1200
G1 X101.255Y69.741Z0F1200
G1 X101.962Y70.58Z0F1200
G1 X102.341Y71.205Z0F1200
G1 X102.721Y71.77Z0F1200
G0 Z1.5F500
G0 X106.825Y76.711Z1.5F1200
G1 Z0F500
G1 X106.169Z0F1200
G1 X105.575Y76.304Z0F1200
G1 X105.221Y75.62Z0F1200
G1 X105.031Y74.677Z0F1200
G1 X104.893Y73.526Z0F1200
G1 X104.816Y72.901Z0F1200
G1 X104.402Y71.989Z0F1200
G1 X103.833Y70.838Z0F1200
G1 X103.291Y69.959Z0F1200
G1 X102.721Y69.366Z0F1200
G1 X102.612Y70.52Z0F1200
G1 X102.748Y71.899Z0F1200
G1 X103.074Y72.772Z0F1200
G1 X103.346Y73.209Z0F1200
G1 X103.755Y73.457Z0F1200
G1 X104.186Y73.586Z0F1200
G1 X104.618Y73.526Z0F1200
G1 X104.816Y73.268Z0F1200
G1 X104.704Y72.118Z0F1200
G1 X104.592Y70.739Z0F1200
G1 X104.35Y69.303Z0F1200
G1 X104.971Y69.866Z0F1200
G1 X105.704Y70.897Z0F1200
G1 X106.282Y71.77Z0F1200
G0 Z1.5F500
G0 X106.283Y71.364Z1.5F1200
G1 Z0F500
G1 X106.881Y71.8Z0F1200
G1 X107.618Y72.643Z0F1200
G1 X107.885Y73.08Z0F1200
G1 X107.963Y73.556Z0F1200
G1 X107.808Y73.745Z0F1200
G1 X107.454Y73.774Z0F1200
G1 X106.881Y73.338Z0F1200
G1 X106.445Y72.614Z0F1200
G1 X106.201Y71.552Z0F1200
G1 X106.093Y70.709Z0F1200
G1 X106.229Y70.022Z0F1200
G1 X106.527Y69.522Z0F1200
G1 X106.799Y69.209Z0F1200
G1 X107.721Y70.302Z0F1200
G1 X108.316Y71.086Z0F1200
G1 X108.73Y71.77Z0F1200
G0 Z1.5F500
G0 X111.006Y73.556Z1.5F1200
G1 Z0F500
G1 X110.498Y73.834Z0F1200
G1 X110.058Y73.745Z0F1200
G1 X109.627Y73.368Z0F1200
G1 X109.462Y72.901Z0F1200
G1 X109.627Y72.306Z0F1200
G1 X110.032Y71.741Z0F1200
G1 X110.386Y71.175Z0F1200
G1 X110.601Y70.62Z0F1200
G1 X110.575Y70.116Z0F1200
G1 X110.248Y69.646Z0F1200
G1 X109.791Y69.334Z0F1200
G1 X109.408Y69.209Z0F1200
G1 X108.919Y69.46Z0F1200
G0 Z1.5F500
G0 X111.118Y73.179Z1.5F1200
G1 Z0F500
G1 X111.796Y73.745Z0F1200
G1 X111.091Y68.428Z0F1200
G1 X110.874Y67.644Z0F1200
G1 X110.058Y66.989Z0F1200
G1 X111.579Y67.931Z0F1200
G0 Z1.5F500
G0 X111.498Y70.897Z1.5F1200
G1 Z0F500
G1 X111.579Y70.957Z0F1200
G1 X111.824Y71.929Z0F1200
G1 X112.395Y72.832Z0F1200
G1 X112.912Y73.457Z0F1200
G1 X113.205Y73.705Z0F1200
G1 X113.343Y72.832Z0F1200
G1 X113.317Y71.929Z0F1200
G1 X113.127Y70.957Z0F1200
G1 X112.86Y70.116Z0F1200
G1 X112.533Y69.584Z0F1200
G1 X112.095Y69.397Z0F1200
G1 X111.743Y69.46Z0F1200
G1 X111.525Y69.646Z0F1200
G1 X111.307Y70.053Z0F1200
G0 Z1.5F500
G0 X116.171Y76.711Z1.5F1200
G1 Z0F500
G1 X115.766Y76.8Z0F1200
G1 X115.136Y76.522Z0F1200
G1 X114.596Y75.768Z0F1200
G1 X114.405Y74.836Z0F1200
G1 X113.808Y70.302Z0F1200
G1 X113.727Y69.272Z0F1200
G1 X114.379Y69.928Z0F1200
G1 X115.223Y71.086Z0F1200
G1 X115.654Y71.77Z0F1200
G0 Z1.5F500
G0 X117.99Y73.457Z1.5F1200
G1 Z0F500
G1 X117.042Y73.526Z0F1200
G1 X116.36Y73.179Z0F1200
G1 X115.871Y72.177Z0F1200
G1 X115.681Y70.897Z0F1200
G1 Y69.896Z0F1200
G1 X115.762Y69.397Z0F1200
G1 X116.279Y69.991Z0F1200
G1 X117.016Y71.175Z0F1200
G1 X117.473Y72.058Z0F1200
G1 X117.827Y72.901Z0F1200
G1 X117.99Y73.338Z0F1200
G1 X117.611Y71.394Z0F1200
G1 X117.421Y70.431Z0F1200
G1 X117.361Y69.896Z0F1200
G1 X117.309Y69.366Z0F1200
G1 X117.852Y69.772Z0F1200
G1 X118.801Y71.086Z0F1200
G1 X119.215Y71.741Z0F1200
G0 Z1.5F500
G0 X119.46Y74.241Z1.5F1200
G1 Z0F500
G1 X119.432Y73.645Z0F1200
G1 X118.808Y73.586Z0F1200
G1 X119.432Y73.675Z0F1200
G1 X120.577Y73.705Z0F1200
G1 X119.432Y73.675Z0F1200
G1 X119.269Y71.959Z0F1200
G1 X119.106Y70.808Z0F1200
G1 X118.943Y70.116Z0F1200
G1 X118.753Y69.272Z0F1200
G1 X119.378Y69.866Z0F1200
G1 X120.163Y70.868Z0F1200
G1 X120.732Y71.77Z0F1200
G0 Z1.5F500
G0 X121.553Y73.12Z1.5F1200
G1 Z0F500
G1 X122.12Y73.556Z0F1200
G1 X122.474Y73.616Z0F1200
G1 X123.181Y73.526Z0F1200
G1 X123.672Z0F1200
G1 X121.118Y69.303Z0F1200
G1 X121.663Y69.553Z0F1200
G1 X122.37Y69.491Z0F1200
G1 X123.396Y69.272Z0F1200
G1 X123.75Y69.584Z0F1200
G0 Z1.5F500
G0 X128.432Y73.179Z1.5F1200
G1 Z0F500
G1 X129.13Y73.586Z0F1200
G1 X129.923Y73.645Z0F1200
G1 X130.277Y73.268Z0F1200
G1 X130.44Y72.643Z0F1200
G1 X130.251Y72.018Z0F1200
G1 X129.811Y71.522Z0F1200
G1 X129.294Y71.116Z0F1200
G1 X129.871Y71.056Z0F1200
G1 X130.277Y70.709Z0F1200
G1 X130.44Y70.147Z0F1200
G1 X130.38Y69.522Z0F1200
G1 X130.113Y68.991Z0F1200
G1 X129.621Y68.491Z0F1200
G1 X128.94Y68.397Z0F1200
G1 X128.238Y68.522Z0F1200
G1 X127.694Y68.772Z0F1200
G0 Z1.5F500
G0 X142.393Y71.073Z1.5F1200
G1 Z0F500
G1 X142.708Y71.816Z0F1200
G1 X143.099Y72.502Z0F1200
G1 X143.54Y73.149Z0F1200
G1 X144.473Y74.406Z0F1200
G1 X144.915Y75.054Z0F1200
G1 X145.307Y75.739Z0F1200
G1 X145.624Y76.481Z0F1200
G1 Y76.491Z0F1200
G1 X145.612Y76.461Z0F1200
G1 X145.594Y76.394Z0F1200
G1 X145.324Y75.295Z0F1200
G1 X145.227Y74.917Z0F1200
G1 X145.133Y74.58Z0F1200
G1 X145.049Y74.32Z0F1200
G1 X145Y74.092Z0F1200
G1 X144.927Y73.841Z0F1200
G1 X144.835Y73.572Z0F1200
G1 X144.519Y72.708Z0F1200
G1 X144.347Y72.133Z0F1200
G1 X144.293Y71.859Z0F1200
G1 X144.271Y71.603Z0F1200
G1 X144.287Y71.367Z0F1200
G1 X144.348Y71.158Z0F1200
G1 X144.461Y70.979Z0F1200
G1 X144.633Y70.837Z0F1200
G1 X144.872Y70.735Z0F1200
G1 X145.184Y70.678Z0F1200
G1 X145.372Y70.689Z0F1200
G1 X145.557Y70.733Z0F1200
G1 X145.728Y70.822Z0F1200
G1 X145.873Y70.963Z0F1200
G0 Z1.5F500
G0 X141.936Y73.62Z1.5F1200
G1 Z0F500
G1 X142.971Y73.867Z0F1200
G1 X143.992Y74.207Z0F1200
G1 X144.505Y74.352Z0F1200
G1 X145.022Y74.448Z0F1200
G1 X145.547Y74.471Z0F1200
G1 X146.082Y74.398Z0F1200
G0 Z1.5F500
G0 X148.056Y71.404Z1.5F1200
G1 Z0F500
G1 X147.951Y71.434Z0F1200
G1 X147.832Z0F1200
G1 X147.706Y71.403Z0F1200
G1 X147.577Y71.352Z0F1200
G1 X147.329Y71.198Z0F1200
G1 X147.127Y71.007Z0F1200
G1 X147.055Y70.909Z0F1200
G1 X147.01Y70.816Z0F1200
G1 X146.996Y70.731Z0F1200
G1 X147.017Y70.659Z0F1200
G1 X147.08Y70.605Z0F1200
G1 X147.188Y70.573Z0F1200
G1 X147.346Y70.568Z0F1200
G1 X147.559Y70.595Z0F1200
G0 Z1.5F500
G0 X150.889Y71.166Z1.5F1200
G1 Z0F500
G1 X151.063Y70.972Z0F1200
G1 X151.241Y70.848Z0F1200
G1 X151.422Y70.786Z0F1200
G1 X151.604Y70.781Z0F1200
G1 X151.788Y70.825Z0F1200
G1 X151.971Y70.911Z0F1200
G1 X152.153Y71.034Z0F1200
G1 X152.334Y71.186Z0F1200
G1 X152.685Y71.552Z0F1200
G1 X153.016Y71.957Z0F1200
G1 X153.321Y72.345Z0F1200
G1 X153.59Y72.666Z0F1200
G1 X153.932Y73.214Z0F1200
G1 X154.231Y73.788Z0F1200
G1 X154.494Y74.384Z0F1200
G1 X154.724Y74.999Z0F1200
G1 X155.105Y76.265Z0F1200
G1 X155.41Y77.555Z0F1200
G1 X155.557Y77.53Z0F1200
G1 X155.696Y77.462Z0F1200
G1 X155.828Y77.354Z0F1200
G1 X155.951Y77.212Z0F1200
G1 X156.171Y76.844Z0F1200
G1 X156.349Y76.394Z0F1200
G1 X156.482Y75.902Z0F1200
G1 X156.564Y75.403Z0F1200
G1 X156.592Y74.937Z0F1200
G1 X156.559Y74.539Z0F1200
G1 X156.522Y74.333Z0F1200
G1 X156.441Y74.119Z0F1200
G1 X156.323Y73.902Z0F1200
G1 X156.175Y73.688Z0F1200
G1 X155.81Y73.291Z0F1200
G1 X155.399Y72.973Z0F1200
G1 X155.192Y72.857Z0F1200
G1 X154.992Y72.779Z0F1200
G1 X154.806Y72.742Z0F1200
G1 X154.64Y72.753Z0F1200
G1 X154.501Y72.818Z0F1200
G1 X154.395Y72.942Z0F1200
G1 X154.328Y73.131Z0F1200
G1 X154.306Y73.39Z0F1200
G1 X154.45Y73.589Z0F1200
G1 X154.622Y73.746Z0F1200
G1 X154.817Y73.863Z0F1200
G1 X155.032Y73.943Z0F1200
G1 X155.261Y73.987Z0F1200
G1 X155.502Y73.998Z0F1200
G1 X155.748Y73.978Z0F1200
G1 X155.997Y73.929Z0F1200
G1 X156.243Y73.853Z0F1200
G1 X156.481Y73.753Z0F1200
G1 X156.709Y73.629Z0F1200
G1 X156.921Y73.485Z0F1200
G1 X157.112Y73.323Z0F1200
G1 X157.279Y73.144Z0F1200
G1 X157.418Y72.951Z0F1200
G1 X157.522Y72.746Z0F1200
G1 X157.58Y72.507Z0F1200
G1 X157.593Y72.267Z0F1200
G1 X157.566Y72.028Z0F1200
G1 X157.506Y71.793Z0F1200
G1 X157.305Y71.34Z0F1200
G1 X157.03Y70.926Z0F1200
G1 X156.724Y70.568Z0F1200
G1 X156.427Y70.285Z0F1200
G1 X156.295Y70.176Z0F1200
G1 X156.181Y70.092Z0F1200
G1 X156.09Y70.036Z0F1200
G1 X156.027Y70.008Z0F1200
G1 X156.297Y70.048Z0F1200
G1 X156.55Y70.118Z0F1200
G1 X156.79Y70.217Z0F1200
G1 X157.018Y70.341Z0F1200
G1 X157.441Y70.65Z0F1200
G1 X157.834Y71.021Z0F1200
G1 X158.58Y71.844Z0F1200
G1 X159.357Y72.604Z0F1200
G1 X159.484Y72.703Z0F1200
G1 X159.581Y72.822Z0F1200
G1 X159.651Y72.956Z0F1200
G1 X159.694Y73.1Z0F1200
G1 X159.712Y73.391Z0F1200
G1 X159.652Y73.649Z0F1200
G1 X159.597Y73.751Z0F1200
G1 X159.528Y73.828Z0F1200
G1 X159.448Y73.873Z0F1200
G1 X159.358Y73.882Z0F1200
G1 X159.26Y73.847Z0F1200
G1 X159.156Y73.764Z0F1200
G1 X159.049Y73.626Z0F1200
G1 X158.806Y73.183Z0F1200
G1 X158.701Y72.916Z0F1200
G1 X158.623Y72.634Z0F1200
G1 X158.572Y72.338Z0F1200
G1 X158.549Y72.036Z0F1200
G1 X158.552Y71.73Z0F1200
G1 X158.581Y71.426Z0F1200
G1 X158.637Y71.128Z0F1200
G1 X158.718Y70.84Z0F1200
G1 X158.824Y70.567Z0F1200
G1 X158.956Y70.314Z0F1200
G1 X159.112Y70.085Z0F1200
G1 X159.292Y69.885Z0F1200
G1 X159.497Y69.719Z0F1200
G1 X159.725Y69.59Z0F1200
G1 X159.976Y69.503Z0F1200
G1 X160.215Y69.497Z0F1200
G1 X160.441Y69.53Z0F1200
G1 X160.654Y69.601Z0F1200
G1 X160.852Y69.705Z0F1200
G1 X161.034Y69.84Z0F1200
G1 X161.202Y70.001Z0F1200
G1 X161.353Y70.186Z0F1200
G1 X161.487Y70.392Z0F1200
G1 X161.701Y70.85Z0F1200
G1 X161.841Y71.349Z0F1200
G1 X161.901Y71.863Z0F1200
G1 X161.875Y72.366Z0F1200
G1 X161.845Y72.58Z0F1200
G1 X161.786Y72.738Z0F1200
G1 X161.704Y72.846Z0F1200
G1 X161.607Y72.91Z0F1200
G1 X161.5Y72.936Z0F1200
G1 X161.39Y72.93Z0F1200
G1 X161.284Y72.898Z0F1200
G1 X161.188Y72.845Z0F1200
G1 X161.109Y72.777Z0F1200
G1 X161.052Y72.702Z0F1200
G1 X161.025Y72.623Z0F1200
G1 X161.035Y72.548Z0F1200
G1 X161.086Y72.482Z0F1200
G1 X161.187Y72.431Z0F1200
G1 X161.343Y72.402Z0F1200
G1 X161.561Y72.399Z0F1200
G1 X163.273Y72.123Z0F1200
G1 X164.994Y71.892Z0F1200
G1 X165.851Y71.762Z0F1200
G1 X166.704Y71.605Z0F1200
G1 X167.549Y71.409Z0F1200
G1 X168.384Y71.163Z0F1200
G1 X168.564Y71.134Z0F1200
G1 X168.727Y71.157Z0F1200
G1 X168.872Y71.225Z0F1200
G1 X168.999Y71.331Z0F1200
G1 X169.196Y71.622Z0F1200
G1 X169.312Y71.969Z0F1200
G1 X169.338Y72.145Z0F1200
G1 X169.342Y72.312Z0F1200
G1 X169.324Y72.463Z0F1200
G1 X169.282Y72.59Z0F1200
G1 X169.217Y72.685Z0F1200
G1 X169.126Y72.74Z0F1200
G1 X169.011Y72.748Z0F1200
G1 X168.87Y72.702Z0F1200
G1 X168.687Y72.286Z0F1200
G1 X168.467Y71.819Z0F1200
G1 X168.231Y71.324Z0F1200
G1 X168Y70.825Z0F1200
G1 X167.793Y70.346Z0F1200
G1 X167.632Y69.909Z0F1200
G1 X167.574Y69.715Z0F1200
G1 X167.536Y69.54Z0F1200
G1 X167.519Y69.388Z0F1200
G1 X167.526Y69.261Z0F1200
G1 X168.031Y69.812Z0F1200
G1 X168.489Y70.408Z0F1200
G1 X168.911Y71.039Z0F1200
G1 X169.307Y71.696Z0F1200
G1 X170.06Y73.045Z0F1200
G1 X170.832Y74.373Z0F1200
G1 X171.103Y74.879Z0F1200
G1 X171.352Y75.406Z0F1200
G1 X171.573Y75.952Z0F1200
G1 X171.758Y76.513Z0F1200
G1 X171.903Y77.087Z0F1200
G1 X172.001Y77.671Z0F1200
G1 X172.045Y78.262Z0F1200
G1 X172.029Y78.857Z0F1200
G1 X171.909Y78.57Z0F1200
G1 X171.821Y78.23Z0F1200
G1 X171.757Y77.849Z0F1200
G1 X171.713Y77.441Z0F1200
G1 X171.654Y76.597Z0F1200
G1 X171.594Y75.807Z0F1200
G1 X171.537Y74.854Z0F1200
G1 X171.412Y73.915Z0F1200
G1 X171.238Y72.986Z0F1200
G1 X171.031Y72.064Z0F1200
G1 X170.586Y70.226Z0F1200
G1 X170.211Y68.371Z0F1200
G1 X170.689Y68.627Z0F1200
G1 X171.148Y68.919Z0F1200
G1 X171.593Y69.238Z0F1200
G1 X172.03Y69.575Z0F1200
G1 X172.891Y70.27Z0F1200
G1 X173.77Y70.93Z0F1200
G0 Z1.5F500
G0 X164.038Y75.573Z1.5F1200
G1 Z0F500
G1 X164.248Y75.625Z0F1200
G1 X164.369Y75.653Z0F1200
G1 X164.415Y75.66Z0F1200
G1 X164.398Y75.649Z0F1200
G1 X164.098Y75.534Z0F1200
G1 X163.958Y75.479Z0F1200
G1 X163.82Y75.419Z0F1200
G1 X163.696Y75.359Z0F1200
G1 X163.6Y75.3Z0F1200
G1 X163.545Y75.246Z0F1200
G1 X163.542Y75.199Z0F1200
G1 X163.606Y75.163Z0F1200
G1 X163.75Y75.139Z0F1200
G1 X163.985Y75.132Z0F1200
G1 X166.075Y75.205Z0F1200
G1 X168.166Y75.326Z0F1200
G1 X170.252Y75.519Z0F1200
G1 X172.325Y75.808Z0F1200
G1 X173.105Y76.163Z0F1200
G1 X173.882Y76.527Z0F1200
G0 Z1.5F500
G0 X159.063Y77.208Z1.5F1200
G1 Z0F500
G1 X159.102Y76.814Z0F1200
G1 X159.256Y76.041Z0F1200
G1 X159.291Y75.647Z0F1200
G0 Z1.5F500
G0 X160.724Y77.312Z1.5F1200
G1 Z0F500
G1 X160.769Y76.674Z0F1200
G1 X160.804Y76.035Z0F1200
G1 X160.847Y75.397Z0F1200
G1 X160.917Y74.762Z0F1200
G0 Z1.5F500
G0 X175.543Y78.829Z1.5F1200
G1 Z0F500
G1 X175.557Y78.438Z0F1200
G1 X175.477Y78.075Z0F1200
G1 X175.335Y77.731Z0F1200
G1 X175.163Y77.397Z0F1200
G1 X174.994Y77.063Z0F1200
G1 X174.86Y76.721Z0F1200
G1 X174.817Y76.543Z0F1200
G1 X174.794Y76.36Z0F1200
G1 Y76.171Z0F1200
G1 X174.826Y75.973Z0F1200
M5
M9
G90
G1 Z3 F300
M2
