;LightBurn 1.6.04
;Custom GCode device profile, absolute coords
;Bounds: X8.41 Y57.19 to X177.12 Y87.55
G00 G17 G40 G21 G54
G90
M3
;Cut @ 1200 mm/min, 90% power

M8
G0 Z1.5F500
G0 X8.647Y62.148Z1.5F1200
G1 Z0F500
;Layer C00
G1 X8.788Y62.549Z0S900F1200
G1 X8.899Y62.958Z0F1200
G1 X9.053Y64.047Z0F1200
G1 X9.16Y65.114Z0F1200
G1 X9.223Y66.181Z0F1200
G1 X9.243Y67.268Z0F1200
G1 X9.232Y67.553Z0F1200
G1 X9.214Y68.113Z0F1200
G1 X9.209Y68.408Z0F1200
G1 Y68.666Z0F1200
G1 X9.214Y68.77Z0F1200
G1 X9.221Y68.852Z0F1200
G1 X9.23Y68.907Z0F1200
G1 X9.243Y68.93Z0F1200
G1 X9.502Y68.991Z0F1200
G1 X9.774Y68.977Z0F1200
G1 X10.05Y68.94Z0F1200
G1 X10.323Y68.93Z0F1200
G1 X10.505Y68.986Z0F1200
G1 X10.686Y69.033Z0F1200
G1 X10.933Y69.015Z0F1200
G1 X11.226Y68.967Z0F1200
G1 X11.516Y68.901Z0F1200
G1 X11.754Y68.828Z0F1200
G1 X11.994Y68.697Z0F1200
G1 X12.165Y68.524Z0F1200
G1 X12.299Y68.312Z0F1200
G1 X12.427Y68.066Z0F1200
G1 X12.659Y67.563Z0F1200
G1 X12.826Y67.072Z0F1200
G1 X12.931Y66.589Z0F1200
G1 X12.979Y66.108Z0F1200
G1 X12.974Y65.622Z0F1200
G1 X12.92Y65.127Z0F1200
G1 X12.821Y64.617Z0F1200
G1 X12.681Y64.085Z0F1200
G1 X12.396Y63.686Z0F1200
G1 X12.104Y63.332Z0F1200
G1 X11.921Y63.241Z0F1200
G1 X11.653Y63.118Z0F1200
G1 X11.328Y62.975Z0F1200
G1 X10.974Y62.823Z0F1200
G1 X10.617Y62.676Z0F1200
G1 X10.287Y62.546Z0F1200
G1 X10.01Y62.445Z0F1200
G1 X9.813Y62.385Z0F1200
G1 X9.614Y62.346Z0F1200
G1 X9.469Y62.33Z0F1200
G1 X9.357Y62.327Z0F1200
G1 X9.26Z0F1200
G1 X9.159Y62.319Z0F1200
G1 X9.036Y62.294Z0F1200
G1 X8.872Y62.241Z0F1200
G1 X8.647Y62.148Z0F1200
G0 Z1.5F500
G0 X15.043Y64.629Z1.5F1200
G1 Z0F500
G1 X14.73Y64.684Z0F1200
G1 X14.365Y64.718Z0F1200
G1 X14.184Y64.71Z0F1200
G1 X14.012Y64.676Z0F1200
G1 X13.859Y64.609Z0F1200
G1 X13.732Y64.504Z0F1200
G1 X13.616Y64.336Z0F1200
G1 X13.541Y64.153Z0F1200
G1 X13.502Y63.958Z0F1200
G1 X13.49Y63.754Z0F1200
G1 X13.487Y63.55Z0F1200
G1 X13.482Y63.382Z0F1200
G1 Y63.24Z0F1200
G1 X13.487Y63.113Z0F1200
G1 X13.508Y62.989Z0F1200
G1 X13.547Y62.859Z0F1200
G1 X13.611Y62.711Z0F1200
G1 X13.704Y62.534Z0F1200
G1 X13.788Y62.388Z0F1200
G1 X13.84Y62.31Z0F1200
G1 X13.871Y62.282Z0F1200
G1 X13.889Y62.288Z0F1200
G1 X13.93Y62.337Z0F1200
G1 X14.04Y62.328Z0F1200
G1 X14.131Y62.274Z0F1200
G1 X14.149Y62.24Z0F1200
G1 X14.122Y62.221Z0F1200
G1 X14.081Y62.207Z0F1200
G1 X14.053Y62.194Z0F1200
G1 X14.069Y62.174Z0F1200
G1 X14.102Y62.16Z0F1200
G1 X14.157Y62.141Z0F1200
G1 X14.237Y62.117Z0F1200
G1 X14.346Y62.087Z0F1200
G1 X14.576Y62.057Z0F1200
G1 X14.803Y62.083Z0F1200
G1 X15.02Y62.161Z0F1200
G1 X15.218Y62.287Z0F1200
G1 X15.39Y62.455Z0F1200
G1 X15.527Y62.66Z0F1200
G1 X15.622Y62.898Z0F1200
G1 X15.666Y63.164Z0F1200
G1 X15.612Y63.392Z0F1200
G1 X15.476Y63.639Z0F1200
G1 X15.326Y63.858Z0F1200
G1 X15.232Y64.004Z0F1200
G1 X15.188Y64.167Z0F1200
G1 X15.165Y64.345Z0F1200
G1 X15.129Y64.508Z0F1200
G1 X15.043Y64.629Z0F1200
G1 X14.889Y64.684Z0F1200
G1 X14.717Y64.671Z0F1200
G1 X14.538Y64.641Z0F1200
G1 X14.365Z0F1200
G1 X14.318Y64.709Z0F1200
G1 X14.274Y64.788Z0F1200
G1 X14.083Y64.796Z0F1200
G1 X13.89Y64.788Z0F1200
G0 Z1.5F500
G0 X16.43Y62.724Z1.5F1200
G1 Z0F500
G1 X16.523Y63.169Z0F1200
G1 X16.602Y63.616Z0F1200
G1 X16.621Y64.058Z0F1200
G1 X16.643Y64.515Z0F1200
G1 X16.688Y64.714Z0F1200
G1 X16.775Y64.873Z0F1200
G1 X16.916Y64.98Z0F1200
G1 X17.125Y65.018Z0F1200
G1 X17.279Y64.999Z0F1200
G1 X17.462Y64.946Z0F1200
G1 X17.639Y64.867Z0F1200
G1 X17.774Y64.771Z0F1200
G1 X18.077Y64.468Z0F1200
G1 X18.327Y64.176Z0F1200
G1 X18.427Y64.02Z0F1200
G1 X18.509Y63.85Z0F1200
G1 X18.572Y63.66Z0F1200
G1 X18.612Y63.445Z0F1200
G1 X18.599Y63.217Z0F1200
G1 X18.54Y63.004Z0F1200
G1 X18.513Y62.916Z0F1200
G1 X18.496Y62.847Z0F1200
G1 Y62.801Z0F1200
G1 X18.525Y62.785Z0F1200
G0 Z1.5F500
G0 X21.11Y64.401Z1.5F1200
G1 Z0F500
G1 X20.738Y64.628Z0F1200
G1 X20.33Y64.805Z0F1200
G1 X20.133Y64.827Z0F1200
G1 X19.953Y64.78Z0F1200
G1 X19.871Y64.724Z0F1200
G1 X19.796Y64.644Z0F1200
G1 X19.73Y64.538Z0F1200
G1 X19.673Y64.402Z0F1200
G1 X19.612Y64.113Z0F1200
G1 X19.625Y63.838Z0F1200
G1 X19.7Y63.58Z0F1200
G1 X19.824Y63.342Z0F1200
G1 X19.985Y63.125Z0F1200
G1 X20.168Y62.931Z0F1200
G1 X20.362Y62.763Z0F1200
G1 X20.553Y62.623Z0F1200
G1 X20.722Y62.526Z0F1200
G1 X20.872Y62.477Z0F1200
G1 X20.997Z0F1200
G1 X21.093Y62.527Z0F1200
G1 X21.156Y62.627Z0F1200
G1 X21.179Y62.778Z0F1200
G1 X21.159Y62.982Z0F1200
G1 X21.091Y63.239Z0F1200
G1 X21.023Y63.384Z0F1200
G1 X20.945Y63.497Z0F1200
G1 X20.871Y63.61Z0F1200
G1 X20.817Y63.754Z0F1200
G1 Y63.823Z0F1200
G1 X20.83Y63.903Z0F1200
G1 X20.853Y63.959Z0F1200
G1 X20.88Y63.956Z0F1200
G1 X20.986Y63.746Z0F1200
G1 X21.071Y63.523Z0F1200
G1 X21.192Y63.118Z0F1200
G1 X21.302Y62.771Z0F1200
G1 X21.425Y62.419Z0F1200
G1 X21.487Y62.262Z0F1200
G1 X21.546Y62.129Z0F1200
G1 X21.602Y62.028Z0F1200
G1 X21.651Y61.968Z0F1200
G1 X21.693Y61.958Z0F1200
G1 X21.725Y62.005Z0F1200
G1 X21.746Y62.119Z0F1200
G1 X21.753Y62.307Z0F1200
G0 Z1.5F500
G0 X23.805Y68.161Z1.5F1200
G1 Z0F500
G1 X23.863Y67.379Z0F1200
G1 X23.903Y66.587Z0F1200
G1 X23.915Y65.793Z0F1200
G1 X23.886Y65.006Z0F1200
G1 X23.856Y64.624Z0F1200
G1 X23.832Y64.276Z0F1200
G1 X23.835Y63.927Z0F1200
G1 X23.886Y63.545Z0F1200
G1 X23.908Y63.479Z0F1200
G1 X24.07Y63.069Z0F1200
G1 X24.125Y62.917Z0F1200
G1 X24.165Y62.785Z0F1200
G1 X24.181Y62.69Z0F1200
G1 X24.164Y62.647Z0F1200
G1 X23.43Y62.479Z0F1200
G1 X22.694Y62.33Z0F1200
G0 Z1.5F500
G0 X26.817Y63.983Z1.5F1200
G1 Z0F500
G1 X26.767Y64.075Z0F1200
G1 X26.677Y64.136Z0F1200
G1 X26.554Y64.17Z0F1200
G1 X26.406Y64.18Z0F1200
G1 X26.056Y64.134Z0F1200
G1 X25.684Y64.017Z0F1200
G1 X25.343Y63.85Z0F1200
G1 X25.088Y63.65Z0F1200
G1 X25.009Y63.545Z0F1200
G1 X24.973Y63.438Z0F1200
G1 X24.984Y63.334Z0F1200
G1 X25.052Y63.233Z0F1200
G1 X25.294Y63.037Z0F1200
G1 X25.625Y62.843Z0F1200
G1 X26.015Y62.668Z0F1200
G1 X26.437Y62.53Z0F1200
G1 X26.863Y62.447Z0F1200
G1 X27.265Y62.438Z0F1200
G1 X27.449Y62.466Z0F1200
G1 X27.616Y62.519Z0F1200
G1 X27.763Y62.6Z0F1200
G1 X27.886Y62.71Z0F1200
G1 X28.041Y62.938Z0F1200
G1 X28.176Y63.234Z0F1200
G1 X28.291Y63.581Z0F1200
G1 X28.389Y63.957Z0F1200
G1 X28.469Y64.343Z0F1200
G1 X28.533Y64.72Z0F1200
G1 X28.581Y65.068Z0F1200
G1 X28.615Y65.368Z0F1200
G1 X28.621Y65.566Z0F1200
G1 X28.607Y65.808Z0F1200
G1 X28.577Y66.079Z0F1200
G1 X28.532Y66.363Z0F1200
G1 X28.477Y66.643Z0F1200
G1 X28.413Y66.903Z0F1200
G1 X28.344Y67.128Z0F1200
G1 X28.272Y67.301Z0F1200
G1 X28.17Y67.42Z0F1200
G1 X28.064Y67.535Z0F1200
G1 X27.908Y67.875Z0F1200
G1 X27.755Y68.174Z0F1200
G1 X27.732Y68.115Z0F1200
G1 Y68.046Z0F1200
G1 X27.755Y67.905Z0F1200
G1 X27.824Y67.617Z0F1200
G1 X27.883Y67.327Z0F1200
G1 X27.898Y66.848Z0F1200
G1 X27.868Y65.886Z0F1200
G1 X27.883Y65.407Z0F1200
G1 X27.943Y65.121Z0F1200
G1 X28.01Y64.836Z0F1200
G1 X28.003Y64.639Z0F1200
G1 X28.01Y64.447Z0F1200
G1 X28.129Y64.231Z0F1200
G1 X28.258Y64.021Z0F1200
G1 X28.288Y63.914Z0F1200
G1 X28.312Y63.763Z0F1200
G1 X28.337Y63.585Z0F1200
G1 X28.367Y63.4Z0F1200
G1 X28.405Y63.224Z0F1200
G1 X28.456Y63.077Z0F1200
G1 X28.525Y62.975Z0F1200
G1 X28.616Y62.937Z0F1200
G0 Z1.5F500
G0 X32.135Y65.162Z1.5F1200
G1 Z0F500
G1 X32.273Y65.51Z0F1200
G1 X32.481Y65.81Z0F1200
G1 X32.738Y66.079Z0F1200
G1 X33.024Y66.329Z0F1200
G1 X33.319Y66.576Z0F1200
G1 X33.603Y66.833Z0F1200
G1 X33.854Y67.114Z0F1200
G1 X34.053Y67.435Z0F1200
G1 X34.109Y67.575Z0F1200
G1 X34.136Y67.699Z0F1200
G1 X34.144Y67.819Z0F1200
G1 Y67.949Z0F1200
G1 Y68.024Z0F1200
G1 Y68.049Z0F1200
G1 X34.206Y67.693Z0F1200
G1 X34.243Y67.459Z0F1200
G1 X34.261Y67.325Z0F1200
G1 Y67.268Z0F1200
G1 X34.234Y67.302Z0F1200
G1 X34.189Y67.386Z0F1200
G1 X34.17Y67.392Z0F1200
G1 X34.16Y67.345Z0F1200
G1 Y67.223Z0F1200
G1 X34.179Y67.005Z0F1200
G1 X34.216Y66.669Z0F1200
G1 X34.278Y66.192Z0F1200
G1 X34.368Y65.554Z0F1200
G1 X34.489Y64.732Z0F1200
G1 X34.555Y64.413Z0F1200
G1 X34.645Y64.102Z0F1200
G1 X34.743Y63.793Z0F1200
G1 X34.835Y63.481Z0F1200
G1 X34.9Y63.316Z0F1200
G1 X34.976Y63.141Z0F1200
G1 X35.015Y62.981Z0F1200
G1 X34.963Y62.858Z0F1200
G1 X34.717Y62.682Z0F1200
G1 X34.455Y62.544Z0F1200
G1 X34.18Y62.442Z0F1200
G1 X33.895Y62.372Z0F1200
G1 X33.313Y62.31Z0F1200
G1 X32.737Y62.326Z0F1200
G1 X32.449Y62.347Z0F1200
G1 X32.098Y62.369Z0F1200
G1 X31.994Y62.383Z0F1200
G1 X31.911Y62.408Z0F1200
G1 X31.829Y62.45Z0F1200
G1 X31.726Y62.516Z0F1200
G1 X31.584Y62.612Z0F1200
G0 Z1.5F500
G0 X35.899Y62.693Z1.5F1200
G1 Z0F500
G1 X35.939Y62.382Z0F1200
G1 X36.001Y62.135Z0F1200
G1 X36.082Y61.946Z0F1200
G1 X36.176Y61.812Z0F1200
G1 X36.281Y61.726Z0F1200
G1 X36.39Y61.686Z0F1200
G1 X36.501Z0F1200
G1 X36.609Y61.718Z0F1200
G1 X36.71Y61.781Z0F1200
G1 X36.799Y61.869Z0F1200
G1 X36.872Y61.978Z0F1200
G1 X36.925Y62.102Z0F1200
G1 X36.953Y62.237Z0F1200
G1 Y62.378Z0F1200
G1 X36.92Y62.52Z0F1200
G1 X36.849Y62.658Z0F1200
G1 X36.692Y62.799Z0F1200
G1 X36.491Y62.919Z0F1200
G1 X36.396Y62.983Z0F1200
G1 X36.317Y63.056Z0F1200
G1 X36.263Y63.144Z0F1200
G1 X36.243Y63.249Z0F1200
G0 Z1.5F500
G0 X40.448Y67.925Z1.5F1200
G1 Z0F500
G1 X40.554Y66.647Z0F1200
G1 X40.586Y65.354Z0F1200
G1 X40.579Y64.056Z0F1200
G1 X40.569Y62.762Z0F1200
G0 Z1.5F500
G0 X37.541Y67.776Z1.5F1200
G1 Z0F500
G1 X37.915Y67.864Z0F1200
G1 X38.291Y67.908Z0F1200
G1 X38.669Y67.915Z0F1200
G1 X39.047Y67.896Z0F1200
G1 X40.556Y67.729Z0F1200
G1 X40.947Y67.709Z0F1200
G1 X41.346Y67.698Z0F1200
G1 X41.744Y67.677Z0F1200
G1 X42.134Y67.626Z0F1200
G1 X42.393Y67.559Z0F1200
G1 X42.649Y67.523Z0F1200
G0 Z1.5F500
G0 X42.823Y62.48Z1.5F1200
G1 Z0F500
G1 X42.758Y63.266Z0F1200
G1 X42.696Y64.053Z0F1200
G1 Y64.187Z0F1200
G1 X42.723Y64.295Z0F1200
G1 X42.769Y64.382Z0F1200
G1 X42.833Y64.448Z0F1200
G1 X43.004Y64.53Z0F1200
G1 X43.216Y64.561Z0F1200
G1 X43.681Y64.549Z0F1200
G1 X44.059Y64.571Z0F1200
G1 X44.123Y64.599Z0F1200
G1 X44.206Y64.645Z0F1200
G1 X44.236Y64.669Z0F1200
G1 X44.249Y64.689Z0F1200
G1 X44.236Y64.703Z0F1200
G1 X44.19Y64.709Z0F1200
G0 Z1.5F500
G0 Z1.5F1200
G1 Z0F500
G1 X44.588Y64.616Z0F1200
G1 X44.994Y64.541Z0F1200
G1 X45.193Y64.493Z0F1200
G1 X45.384Y64.429Z0F1200
G1 X45.566Y64.342Z0F1200
G1 X45.735Y64.226Z0F1200
G1 X45.798Y64.15Z0F1200
G1 X45.832Y64.057Z0F1200
G1 X45.845Y63.95Z0F1200
G1 Y63.833Z0F1200
G1 X45.825Y63.587Z0F1200
G1 Y63.353Z0F1200
G1 X45.884Y63.065Z0F1200
G1 X45.969Y62.822Z0F1200
G1 X46.082Y62.619Z0F1200
G1 X46.223Y62.448Z0F1200
G1 X46.39Y62.304Z0F1200
G1 X46.583Y62.181Z0F1200
G1 X46.801Y62.072Z0F1200
G1 X47.045Y61.972Z0F1200
G1 X47.187Y61.94Z0F1200
G1 X47.295Y61.963Z0F1200
G1 X47.372Y62.033Z0F1200
G1 X47.423Y62.143Z0F1200
G1 X47.45Y62.287Z0F1200
G1 X47.456Y62.457Z0F1200
G1 X47.446Y62.646Z0F1200
G1 X47.422Y62.846Z0F1200
G1 X47.348Y63.255Z0F1200
G1 X47.259Y63.626Z0F1200
G1 X47.149Y64.027Z0F1200
G1 X47.135Y64.191Z0F1200
G1 X47.141Y64.385Z0F1200
G1 X47.151Y64.467Z0F1200
G1 X47.167Y64.523Z0F1200
G1 X47.186Y64.542Z0F1200
G1 X47.21Y64.515Z0F1200
G1 X47.434Y63.96Z0F1200
G1 X47.743Y63.044Z0F1200
G1 X47.849Y62.759Z0F1200
G1 X47.962Y62.5Z0F1200
G1 X48.083Y62.279Z0F1200
G0 Z1.5F500
G0 X49.704Y63.387Z1.5F1200
G1 Z0F500
G1 X49.652Y63.4Z0F1200
G1 X49.633Y63.396Z0F1200
G1 X49.641Y63.376Z0F1200
G1 X49.673Y63.343Z0F1200
G1 X49.79Y63.242Z0F1200
G1 X49.949Y63.109Z0F1200
G1 X50.115Y62.959Z0F1200
G1 X50.253Y62.805Z0F1200
G1 X50.3Y62.732Z0F1200
G1 X50.328Y62.664Z0F1200
G1 X50.331Y62.603Z0F1200
G1 X50.305Y62.55Z0F1200
G1 X50.285Z0F1200
G1 X50.258Y62.586Z0F1200
G1 X50.225Y62.652Z0F1200
G1 X50.189Y62.747Z0F1200
G1 X50.114Y63.006Z0F1200
G1 X50.046Y63.333Z0F1200
G1 Y63.481Z0F1200
G1 X50.086Y63.627Z0F1200
G1 X50.159Y63.77Z0F1200
G1 X50.256Y63.904Z0F1200
G1 X50.489Y64.135Z0F1200
G1 X50.715Y64.294Z0F1200
G1 X50.891Y64.345Z0F1200
G1 X51.064Y64.311Z0F1200
G1 X51.231Y64.211Z0F1200
G1 X51.388Y64.064Z0F1200
G1 X51.659Y63.704Z0F1200
G1 X51.85Y63.381Z0F1200
G1 X51.968Y63.267Z0F1200
G1 X52.081Y63.15Z0F1200
G1 X52.108Y63.018Z0F1200
G1 X52.105Y62.844Z0F1200
G1 X52.09Y62.669Z0F1200
G1 X52.081Y62.532Z0F1200
G1 X52.084Y62.556Z0F1200
G1 X52.081Y62.625Z0F1200
G1 X52.011Y62.886Z0F1200
G1 X51.967Y63.068Z0F1200
G1 X51.935Y63.259Z0F1200
G1 X51.926Y63.441Z0F1200
G1 X51.953Y63.594Z0F1200
G1 X52.029Y63.7Z0F1200
G1 X52.167Y63.739Z0F1200
G1 X52.377Y63.755Z0F1200
G1 X52.544Y63.789Z0F1200
G1 X52.677Y63.82Z0F1200
G1 X52.785Y63.83Z0F1200
G1 X52.875Y63.797Z0F1200
G1 X52.957Y63.702Z0F1200
G1 X52.997Y63.625Z0F1200
G1 X53.039Y63.524Z0F1200
G1 X53.083Y63.398Z0F1200
G1 X53.13Y63.244Z0F1200
G1 X53.176Y63.082Z0F1200
G1 X53.21Y62.958Z0F1200
G1 X53.233Y62.862Z0F1200
G1 X53.246Y62.783Z0F1200
G1 X53.256Y62.628Z0F1200
G1 Y62.408Z0F1200
G0 Z1.5F500
G0 Z1.5F1200
G1 Z0F500
G1 X53.666Y62.366Z0F1200
G1 X54.079Y62.338Z0F1200
G1 X54.485Y62.281Z0F1200
G1 X54.872Y62.147Z0F1200
G1 X54.897Y62.104Z0F1200
G1 X54.929Y62.006Z0F1200
G1 X54.966Y61.87Z0F1200
G1 X55.118Y61.257Z0F1200
G1 X55.145Y61.168Z0F1200
G1 X55.196Y61.06Z0F1200
G1 X55.26Y60.938Z0F1200
G1 X55.296Y60.844Z0F1200
G1 X55.266Y60.823Z0F1200
G1 X55.217Y60.879Z0F1200
G1 X55.183Y60.957Z0F1200
G1 X54.895Y61.477Z0F1200
G1 X54.627Y62.01Z0F1200
G1 X54.406Y62.585Z0F1200
G1 X54.244Y63.184Z0F1200
G1 X54.228Y63.477Z0F1200
G1 X54.244Y63.774Z0F1200
G1 X54.258Y64.012Z0F1200
G1 X54.301Y64.177Z0F1200
G1 X54.371Y64.278Z0F1200
G1 X54.469Y64.325Z0F1200
G1 X54.595Y64.329Z0F1200
G1 X54.747Y64.301Z0F1200
G1 X54.925Y64.249Z0F1200
G1 X55.294Y64.133Z0F1200
G1 X55.49Y64.061Z0F1200
G1 X55.698Y63.966Z0F1200
G1 X55.897Y63.845Z0F1200
G1 X56.064Y63.696Z0F1200
G1 X56.179Y63.517Z0F1200
G1 X56.21Y63.414Z0F1200
G1 X56.22Y63.304Z0F1200
G1 X56.206Y63.184Z0F1200
G1 X56.166Y63.054Z0F1200
G1 X55.886Y62.939Z0F1200
G1 X55.563Y62.816Z0F1200
G1 X55.441Y62.826Z0F1200
G1 X55.287Y62.907Z0F1200
G1 X55.115Y63.038Z0F1200
G1 X54.94Y63.196Z0F1200
G1 X54.777Y63.357Z0F1200
G1 X54.546Y63.598Z0F1200
G1 X54.506Y63.633Z0F1200
G1 X54.178Y63.349Z0F1200
G1 X53.867Y63.041Z0F1200
G1 X53.563Y62.722Z0F1200
G1 X53.256Y62.408Z0F1200
G0 Z1.5F500
G0 X64.938Y64.654Z1.5F1200
G1 Z0F500
G1 X65.08Y64.827Z0F1200
G1 X65.222Y65.001Z0F1200
G1 X65.687Y65.586Z0F1200
G1 X66.145Y66.183Z0F1200
G1 X66.319Y66.468Z0F1200
G1 X66.482Y66.784Z0F1200
G1 X66.654Y67.088Z0F1200
G1 X66.853Y67.334Z0F1200
G1 X66.865Y67.329Z0F1200
G1 X66.842Y67.269Z0F1200
G1 X66.805Y67.187Z0F1200
G1 X66.775Y67.116Z0F1200
G1 X66.719Y66.774Z0F1200
G1 X66.697Y66.418Z0F1200
G1 X66.662Y66.074Z0F1200
G1 X66.603Y65.448Z0F1200
G1 X66.563Y64.949Z0F1200
G1 X66.529Y64.435Z0F1200
G1 X66.51Y63.951Z0F1200
G1 Y63.735Z0F1200
G1 Y63.543Z0F1200
G1 X66.523Y63.38Z0F1200
G1 X66.542Y63.253Z0F1200
G1 X66.628Y62.88Z0F1200
G1 X66.675Y62.512Z0F1200
G0 Z1.5F500
G0 X68.138Y67.243Z1.5F1200
G1 Z0F500
G1 X68.074Y66.666Z0F1200
G1 X68.005Y66.09Z0F1200
G1 X67.903Y65.35Z0F1200
G1 X67.793Y64.612Z0F1200
G1 X67.714Y64.226Z0F1200
G1 X67.66Y63.837Z0F1200
G1 X67.682Y63.773Z0F1200
G1 X67.747Y63.727Z0F1200
G1 X67.851Y63.697Z0F1200
G1 X67.985Y63.68Z0F1200
G1 X68.323Y63.683Z0F1200
G1 X68.711Y63.725Z0F1200
G1 X69.1Y63.793Z0F1200
G1 X69.439Y63.876Z0F1200
G1 X69.575Y63.92Z0F1200
G1 X69.68Y63.962Z0F1200
G1 X69.747Y64.003Z0F1200
G1 X69.771Y64.04Z0F1200
G0 Z1.5F500
G0 X69.546Y66.208Z1.5F1200
G1 Z0F500
G1 X69.279Y65.778Z0F1200
G1 X69.083Y65.34Z0F1200
G1 X68.951Y64.892Z0F1200
G1 X68.873Y64.431Z0F1200
G1 X68.84Y63.955Z0F1200
G1 X68.843Y63.462Z0F1200
G1 X68.872Y62.95Z0F1200
G1 X68.918Y62.416Z0F1200
G1 X68.973Y61.918Z0F1200
G1 X68.967Y61.863Z0F1200
G1 X68.973Y61.819Z0F1200
G1 X69.02Z0F1200
G1 X69.068Z0F1200
G1 X69.103Y61.765Z0F1200
G1 X69.07Y61.743Z0F1200
G1 X69.049Z0F1200
G1 X69.122Z0F1200
G0 Z1.5F500
G0 X70.615Y62.24Z1.5F1200
G1 Z0F500
G1 X70.594Y62.493Z0F1200
G1 Y62.65Z0F1200
G1 X70.608Y62.721Z0F1200
G1 X70.639Z0F1200
G1 X70.681Y62.658Z0F1200
G1 X70.734Y62.548Z0F1200
G1 X70.793Y62.402Z0F1200
G1 X70.857Y62.232Z0F1200
G1 X70.989Y61.869Z0F1200
G1 X71.108Y61.558Z0F1200
G1 X71.156Y61.452Z0F1200
G1 X71.194Y61.396Z0F1200
G1 X71.219Y61.402Z0F1200
G1 X71.227Y61.481Z0F1200
G0 Z1.5F500
G0 X73.754Y66.58Z1.5F1200
G1 Z0F500
G1 X73.438Y66.36Z0F1200
G1 X73.113Y66.153Z0F1200
G1 X72.804Y65.919Z0F1200
G1 X72.536Y65.615Z0F1200
G1 X72.474Y65.512Z0F1200
G1 X72.404Y65.373Z0F1200
G1 X72.329Y65.204Z0F1200
G1 X72.249Y65.008Z0F1200
G1 X72.088Y64.553Z0F1200
G1 X71.936Y64.045Z0F1200
G1 X71.813Y63.517Z0F1200
G1 X71.735Y63.006Z0F1200
G1 X71.718Y62.768Z0F1200
G1 Y62.546Z0F1200
G1 X71.74Y62.347Z0F1200
G1 X71.782Y62.173Z0F1200
G1 X71.924Y61.87Z0F1200
G1 X72.111Y61.608Z0F1200
G1 X72.323Y61.372Z0F1200
G1 X72.537Y61.148Z0F1200
G1 X72.604Y61.089Z0F1200
G1 X72.68Y61.046Z0F1200
G1 X72.759Y61.029Z0F1200
G1 X72.834Y61.047Z0F1200
G1 X72.908Y61.101Z0F1200
G1 X73.006Y61.197Z0F1200
G1 X73.112Y61.325Z0F1200
G1 X73.21Y61.474Z0F1200
G1 X73.285Y61.633Z0F1200
G1 X73.322Y61.793Z0F1200
G1 X73.304Y61.943Z0F1200
G1 X73.217Y62.073Z0F1200
G1 X73.135Y62.114Z0F1200
G1 X73.043Y62.121Z0F1200
G1 X72.949Z0F1200
G1 X72.861Y62.149Z0F1200
G1 X72.735Y62.246Z0F1200
G1 X72.623Y62.351Z0F1200
G1 X72.505Y62.434Z0F1200
G1 X72.361Y62.468Z0F1200
G0 Z1.5F500
G0 X75.376Y61.973Z1.5F1200
G1 Z0F500
G1 X75.316Y61.892Z0F1200
G1 X75.31Y61.802Z0F1200
G1 X75.346Y61.711Z0F1200
G1 X75.409Y61.628Z0F1200
G1 X75.488Y61.562Z0F1200
G1 X75.57Y61.521Z0F1200
G1 X75.641Y61.514Z0F1200
G1 X75.69Y61.55Z0F1200
G1 X75.739Y61.732Z0F1200
G1 X75.749Y61.966Z0F1200
G1 X75.738Y62.076Z0F1200
G1 X75.715Y62.168Z0F1200
G1 X75.679Y62.231Z0F1200
G1 X75.631Y62.254Z0F1200
G0 Z1.5F500
G0 X76.038Y65.261Z1.5F1200
G1 Z0F500
G1 X76.104Y65.274Z0F1200
G1 X76.192Y65.31Z0F1200
G1 X76.298Y65.365Z0F1200
G1 X76.419Y65.436Z0F1200
G1 X76.692Y65.611Z0F1200
G1 X76.984Y65.811Z0F1200
G1 X77.268Y66.007Z0F1200
G1 X77.516Y66.175Z0F1200
G1 X77.618Y66.24Z0F1200
G1 X77.701Y66.287Z0F1200
G1 X77.761Y66.314Z0F1200
G1 X77.795Y66.317Z0F1200
G1 X77.815Y66.276Z0F1200
G1 X77.82Y66.184Z0F1200
G1 X77.813Y66.048Z0F1200
G1 X77.795Y65.874Z0F1200
G1 X77.733Y65.44Z0F1200
G1 X77.648Y64.935Z0F1200
G1 X77.552Y64.413Z0F1200
G1 X77.381Y63.526Z0F1200
G1 X77.333Y63.268Z0F1200
G1 X77.304Y63.086Z0F1200
G1 X77.278Y62.815Z0F1200
G1 Y62.688Z0F1200
G1 X77.297Y62.589Z0F1200
G1 X77.336Y62.534Z0F1200
G1 X77.403Y62.542Z0F1200
G0 Z1.5F500
G0 X79.668Y65.698Z1.5F1200
G1 Z0F500
G1 X79.54Y65.737Z0F1200
G1 X79.412Y65.783Z0F1200
G1 X79.284Y65.816Z0F1200
G1 X79.155Z0F1200
G1 X79.127Y65.795Z0F1200
G1 X79.078Y65.739Z0F1200
G1 X79.015Y65.659Z0F1200
G1 X78.948Y65.564Z0F1200
G1 X78.827Y65.37Z0F1200
G1 X78.78Y65.237Z0F1200
G1 X78.816Y65.125Z0F1200
G1 X78.892Y64.99Z0F1200
G1 X78.996Y64.841Z0F1200
G1 X79.115Y64.692Z0F1200
G1 X79.239Y64.552Z0F1200
G1 X79.355Y64.433Z0F1200
G1 X79.452Y64.348Z0F1200
G1 X79.517Y64.306Z0F1200
G1 X79.626Y64.288Z0F1200
G1 X79.738Y64.306Z0F1200
G1 X79.848Y64.349Z0F1200
G1 X79.951Y64.412Z0F1200
G1 X80.069Y64.54Z0F1200
G1 X80.105Y64.675Z0F1200
G1 Y64.822Z0F1200
G1 Y64.984Z0F1200
G1 X80.162Y65.349Z0F1200
G1 X80.168Y65.4Z0F1200
G1 X80.162Y65.42Z0F1200
G1 X80.063Y65.189Z0F1200
G1 X80.017Y64.912Z0F1200
G1 X80.013Y64.605Z0F1200
G1 X80.043Y64.283Z0F1200
G1 X80.098Y63.961Z0F1200
G1 X80.167Y63.655Z0F1200
G1 X80.243Y63.381Z0F1200
G1 X80.314Y63.154Z0F1200
G1 X80.465Y62.937Z0F1200
G1 X80.537Y62.774Z0F1200
G1 X80.523Y62.616Z0F1200
G1 X80.468Y62.563Z0F1200
G1 X80.393Y62.555Z0F1200
G1 X80.305Y62.58Z0F1200
G1 X80.21Y62.627Z0F1200
G1 X80.024Y62.739Z0F1200
G1 X79.884Y62.798Z0F1200
G1 X79.713Y62.791Z0F1200
G1 X79.548Y62.788Z0F1200
G1 X79.391Y62.811Z0F1200
G1 X79.242Y62.884Z0F1200
G0 Z1.5F500
G0 X82.353Y65.867Z1.5F1200
G1 Z0F500
G1 X82.313Y65.787Z0F1200
G1 X82.257Y65.662Z0F1200
G1 X82.188Y65.499Z0F1200
G1 X82.111Y65.305Z0F1200
G1 X81.945Y64.853Z0F1200
G1 X81.79Y64.363Z0F1200
G1 X81.727Y64.121Z0F1200
G1 X81.677Y63.891Z0F1200
G1 X81.646Y63.68Z0F1200
G1 X81.636Y63.494Z0F1200
G1 X81.652Y63.341Z0F1200
G1 X81.697Y63.229Z0F1200
G1 X81.776Y63.163Z0F1200
G1 X81.892Y63.151Z0F1200
G1 X82.176Y63.235Z0F1200
G1 X82.501Y63.376Z0F1200
G1 X82.66Y63.448Z0F1200
G1 X82.806Y63.51Z0F1200
G1 X82.932Y63.553Z0F1200
G1 X83.03Y63.569Z0F1200
G0 Z1.5F500
G0 Z1.5F1200
G1 Z0F500
G1 X82.882Y63.199Z0F1200
G1 X82.772Y62.822Z0F1200
G1 X82.719Y62.43Z0F1200
G1 X82.74Y62.013Z0F1200
G1 X82.761Y62.004Z0F1200
G1 X82.792Y62.013Z0F1200
G1 Y61.915Z0F1200
G1 Y61.929Z0F1200
G1 X82.785Y62.042Z0F1200
G1 Y62.205Z0F1200
G1 X82.792Y62.341Z0F1200
G1 X82.905Y62.957Z0F1200
G1 X83.03Y63.569Z0F1200
G0 Z1.5F500
G0 X85.672Y66.784Z1.5F1200
G1 Z0F500
G1 X85.396Y66.217Z0F1200
G1 X85.135Y65.636Z0F1200
G1 X85.023Y65.321Z0F1200
G1 X84.915Y64.953Z0F1200
G1 X84.823Y64.55Z0F1200
G1 X84.758Y64.13Z0F1200
G1 X84.73Y63.71Z0F1200
G1 X84.752Y63.307Z0F1200
G1 X84.834Y62.94Z0F1200
G1 X84.987Y62.625Z0F1200
G1 X85.064Y62.538Z0F1200
G1 X85.154Y62.474Z0F1200
G1 X85.343Y62.366Z0F1200
G1 X85.479Y62.294Z0F1200
G1 X85.652Y62.221Z0F1200
G1 X85.821Y62.167Z0F1200
G1 X85.944Y62.153Z0F1200
G1 X86.035Y62.204Z0F1200
G1 X86.112Y62.318Z0F1200
G1 X86.174Y62.476Z0F1200
G1 X86.22Y62.661Z0F1200
G1 X86.251Y62.855Z0F1200
G1 X86.265Y63.04Z0F1200
G1 X86.261Y63.2Z0F1200
G1 X86.238Y63.315Z0F1200
G1 X86.187Y63.357Z0F1200
G1 X86.127Y63.391Z0F1200
G1 X86.102Y63.472Z0F1200
G1 X86.071Y63.543Z0F1200
G1 X85.599Y63.65Z0F1200
G1 X85.152Y63.694Z0F1200
G1 X85.04Y63.605Z0F1200
G1 X84.966Y63.536Z0F1200
G1 X84.889Y63.49Z0F1200
G1 X84.769Y63.474Z0F1200
G0 Z1.5F500
G0 X91.561Y68.57Z1.5F1200
G1 Z0F500
G1 X91.717Y67.766Z0F1200
G1 X91.793Y66.946Z0F1200
G1 X91.817Y66.119Z0F1200
G1 Y65.046Z0F1200
G1 X91.811Y64.323Z0F1200
G1 Y64.172Z0F1200
G1 X91.821Y64.032Z0F1200
G1 X91.839Y63.859Z0F1200
G1 X91.915Y63.238Z0F1200
G1 X91.957Y62.954Z0F1200
G1 X92.009Y62.737Z0F1200
G1 X92.077Y62.591Z0F1200
G1 X92.163Y62.522Z0F1200
G1 X92.271Y62.533Z0F1200
G1 X92.407Y62.631Z0F1200
G1 X92.486Y62.714Z0F1200
G1 X92.574Y62.819Z0F1200
G1 X92.67Y62.949Z0F1200
G1 X92.776Y63.104Z0F1200
G1 X93.065Y63.589Z0F1200
G1 X93.327Y64.096Z0F1200
G1 X93.499Y64.448Z0F1200
G1 X93.67Y64.839Z0F1200
G1 X93.814Y65.245Z0F1200
G1 X93.904Y65.642Z0F1200
G1 X93.899Y65.759Z0F1200
G1 X93.876Y65.881Z0F1200
G1 X93.867Y65.993Z0F1200
G1 X93.904Y66.081Z0F1200
G1 X93.97Y66.111Z0F1200
G1 X94.015Y66.065Z0F1200
G1 X94.044Y65.96Z0F1200
G1 X94.061Y65.814Z0F1200
G1 X94.076Y65.466Z0F1200
G1 X94.091Y65.164Z0F1200
G1 X94.221Y63.901Z0F1200
G1 X94.381Y62.644Z0F1200
G1 X94.411Y62.565Z0F1200
G1 X94.475Y62.464Z0F1200
G1 X94.554Y62.393Z0F1200
G1 X94.631Y62.404Z0F1200
G1 X94.839Y62.626Z0F1200
G1 X95.017Y62.856Z0F1200
G1 X95.17Y63.093Z0F1200
G1 X95.299Y63.336Z0F1200
G1 X95.495Y63.843Z0F1200
G1 X95.625Y64.373Z0F1200
G1 X95.759Y65.489Z0F1200
G1 X95.853Y66.66Z0F1200
G1 X95.95Y67.132Z0F1200
G1 X95.947Y67.469Z0F1200
G1 X95.95Y67.806Z0F1200
G1 X96.033Y68.193Z0F1200
G1 X96.088Y68.592Z0F1200
G0 Z1.5F500
G0 Z1.5F1200
G1 Z0F500
G1 X96.387Y68.25Z0F1200
G1 X96.707Y67.921Z0F1200
G1 X96.855Y67.749Z0F1200
G1 X96.985Y67.566Z0F1200
G1 X97.089Y67.367Z0F1200
G1 X97.159Y67.146Z0F1200
G1 X97.198Y66.862Z0F1200
G1 Y66.576Z0F1200
G1 X97.171Y66.287Z0F1200
G1 X97.122Y65.997Z0F1200
G1 X96.998Y65.415Z0F1200
G1 X96.897Y64.835Z0F1200
G1 X96.8Y64.046Z0F1200
G1 X96.747Y63.598Z0F1200
G1 X96.703Y63.153Z0F1200
G1 Y63.096Z0F1200
G1 Y63.076Z0F1200
G1 X96.714Y63.1Z0F1200
G1 X96.731Y63.174Z0F1200
G1 X96.757Y63.306Z0F1200
G1 X96.793Y63.503Z0F1200
G1 X96.897Y64.123Z0F1200
G1 X96.944Y64.491Z0F1200
G1 X97.015Y64.867Z0F1200
G1 X97.077Y65.029Z0F1200
G1 X97.166Y65.159Z0F1200
G1 X97.29Y65.245Z0F1200
G1 X97.455Y65.277Z0F1200
G1 X97.573Y65.292Z0F1200
G1 X97.685Y65.277Z0F1200
G1 X97.775Y65.204Z0F1200
G1 X97.852Y65.11Z0F1200
G1 X97.919Y65.002Z0F1200
G1 X97.982Y64.893Z0F1200
G1 X98.128Y64.578Z0F1200
G1 X98.199Y64.299Z0F1200
G1 X98.214Y64.047Z0F1200
G1 X98.193Y63.813Z0F1200
G1 X98.122Y63.368Z0F1200
G1 X98.147Y62.897Z0F1200
G1 X98.181Y63.021Z0F1200
G1 X98.212Y63.206Z0F1200
G0 Z1.5F500
G0 X99.804Y65.81Z1.5F1200
G1 Z0F500
G1 X99.667Y65.19Z0F1200
G1 X99.649Y65.094Z0F1200
G1 Y65.047Z0F1200
G1 X99.652Y64.975Z0F1200
G1 Y64.808Z0F1200
G1 X99.643Y64.666Z0F1200
G1 X99.63Y64.474Z0F1200
G1 X99.609Y64.222Z0F1200
G1 X99.579Y63.901Z0F1200
G1 X99.545Y63.598Z0F1200
G1 X99.558Y63.311Z0F1200
G1 X99.608Y63.191Z0F1200
G1 X99.703Y63.096Z0F1200
G1 X99.853Y63.033Z0F1200
G1 X100.069Y63.01Z0F1200
G1 X100.199Y63.046Z0F1200
G1 X100.317Y63.136Z0F1200
G1 X100.43Y63.246Z0F1200
G1 X100.546Y63.346Z0F1200
G0 Z1.5F500
G0 X100.512Y69.029Z1.5F1200
G1 Z0F500
G1 X100.428Y68.701Z0F1200
G0 Z1.5F500
G0 X102.649Y68.447Z1.5F1200
G1 Z0F500
G1 X102.566Y67.651Z0F1200
G1 X102.454Y66.862Z0F1200
G1 X102.32Y66.362Z0F1200
G1 X102.15Y65.865Z0F1200
G1 X101.994Y65.362Z0F1200
G1 X101.903Y64.843Z0F1200
G1 X101.885Y64.447Z0F1200
G1 X101.889Y63.967Z0F1200
G1 X101.902Y63.725Z0F1200
G1 X101.924Y63.496Z0F1200
G1 X101.956Y63.292Z0F1200
G1 X101.999Y63.125Z0F1200
G1 X102.054Y62.97Z0F1200
G1 X102.099Y62.853Z0F1200
G1 X102.136Y62.771Z0F1200
G1 X102.167Y62.719Z0F1200
G1 X102.211Y62.688Z0F1200
G1 X102.241Y62.724Z0F1200
G1 X102.265Y62.793Z0F1200
G1 X102.293Y62.86Z0F1200
G1 X102.334Y62.89Z0F1200
G1 X102.396Y62.848Z0F1200
G1 X102.418Y62.792Z0F1200
G1 X102.395Y62.77Z0F1200
G1 X102.389Z0F1200
G1 X102.465Z0F1200
G0 Z1.5F500
G0 X99.804Y65.81Z1.5F1200
G1 Z0F500
G1 X100.854Y66Z0F1200
G1 X101.904Y66.2Z0F1200
G1 X102.138Y66.252Z0F1200
G1 X102.283Y66.287Z0F1200
G1 X102.363Y66.302Z0F1200
G1 X102.403Y66.292Z0F1200
G1 X102.426Y66.254Z0F1200
G1 X102.456Y66.183Z0F1200
G1 X102.518Y66.075Z0F1200
G1 X102.635Y65.926Z0F1200
G1 X102.772Y65.821Z0F1200
G1 X102.919Y65.734Z0F1200
G1 X103.15Y65.432Z0F1200
G0 Z1.5F500
G0 X104.377Y64.052Z1.5F1200
G1 Z0F500
G1 X104.871Y64.075Z0F1200
G1 X105.354Y64.11Z0F1200
G1 X105.587Y64.159Z0F1200
G1 X105.812Y64.242Z0F1200
G1 X106.027Y64.371Z0F1200
G1 X106.231Y64.556Z0F1200
G1 X106.292Y64.661Z0F1200
G1 X106.297Y64.764Z0F1200
G1 X106.258Y64.862Z0F1200
G1 X106.187Y64.952Z0F1200
G1 X106.007Y65.09Z0F1200
G1 X105.863Y65.149Z0F1200
G1 X105.506Y65.176Z0F1200
G1 X105.158Y65.171Z0F1200
G1 X104.83Y65.123Z0F1200
G1 X104.534Y65.019Z0F1200
G1 X104.283Y64.846Z0F1200
G1 X104.089Y64.591Z0F1200
G1 X104.017Y64.429Z0F1200
G1 X103.964Y64.242Z0F1200
G1 X103.931Y64.028Z0F1200
G1 X103.919Y63.786Z0F1200
G1 X103.931Y63.65Z0F1200
G1 X103.964Y63.484Z0F1200
G1 X104.017Y63.301Z0F1200
G1 X104.085Y63.113Z0F1200
G1 X104.166Y62.933Z0F1200
G1 X104.258Y62.772Z0F1200
G1 X104.358Y62.645Z0F1200
G1 X104.462Y62.562Z0F1200
G1 X104.639Y62.517Z0F1200
G1 X104.819Y62.481Z0F1200
G1 X104.935Y62.396Z0F1200
G1 X105.053Y62.318Z0F1200
G1 X105.408Y62.254Z0F1200
G1 X105.765Y62.204Z0F1200
G1 X106.08Y62.15Z0F1200
G1 X106.352Z0F1200
G1 X106.479Y62.186Z0F1200
G1 X106.603Y62.248Z0F1200
G1 X106.727Y62.342Z0F1200
G1 X106.853Y62.473Z0F1200
G0 Z1.5F500
G0 X107.975Y67.92Z1.5F1200
G1 Z0F500
G1 X108.119Y67.346Z0F1200
G1 X108.231Y66.765Z0F1200
G1 X108.277Y65.831Z0F1200
G1 X108.3Y64.894Z0F1200
G1 X108.349Y64.402Z0F1200
G1 X108.396Y63.909Z0F1200
G1 X108.402Y63.423Z0F1200
G1 X108.396Y62.936Z0F1200
G1 Y62.749Z0F1200
G1 X108.39Y62.988Z0F1200
G1 X108.36Y63.597Z0F1200
G1 X108.349Y63.932Z0F1200
G1 Y64.266Z0F1200
G1 X108.37Y64.58Z0F1200
G1 X108.415Y64.857Z0F1200
G1 X108.493Y65.08Z0F1200
G1 X108.624Y65.189Z0F1200
G1 X108.841Y65.262Z0F1200
G1 X109.062Y65.291Z0F1200
G1 X109.207Y65.267Z0F1200
G1 X109.49Y65.031Z0F1200
G1 X109.69Y64.756Z0F1200
G1 X109.822Y64.45Z0F1200
G1 X109.899Y64.118Z0F1200
G1 X109.943Y63.4Z0F1200
G1 X109.933Y62.653Z0F1200
G0 Z1.5F500
G0 X112.975Y64.553Z1.5F1200
G1 Z0F500
G1 X112.73Y64.631Z0F1200
G1 X112.485Y64.723Z0F1200
G1 X112.24Y64.787Z0F1200
G1 X111.996Y64.778Z0F1200
G1 X111.826Y64.713Z0F1200
G1 X111.692Y64.613Z0F1200
G1 X111.592Y64.48Z0F1200
G1 X111.523Y64.322Z0F1200
G1 X111.481Y64.142Z0F1200
G1 X111.464Y63.944Z0F1200
G1 X111.469Y63.734Z0F1200
G1 X111.493Y63.517Z0F1200
G1 X111.587Y63.078Z0F1200
G1 X111.724Y62.665Z0F1200
G1 X111.802Y62.48Z0F1200
G1 X111.881Y62.316Z0F1200
G1 X111.96Y62.176Z0F1200
G1 X112.035Y62.067Z0F1200
G1 X112.295Y61.828Z0F1200
G1 X112.613Y61.667Z0F1200
G1 X112.949Y61.581Z0F1200
G1 X113.265Y61.564Z0F1200
G1 X113.518Y61.621Z0F1200
G1 X113.699Y61.749Z0F1200
G1 X113.821Y61.932Z0F1200
G1 X113.896Y62.157Z0F1200
G1 X113.946Y62.675Z0F1200
G1 X113.943Y63.188Z0F1200
G1 X113.956Y63.342Z0F1200
G1 X113.943Y63.488Z0F1200
G1 X113.809Y63.703Z0F1200
G1 X113.658Y63.906Z0F1200
G1 X113.558Y64.068Z0F1200
G1 X113.479Y64.182Z0F1200
G1 X113.412Y64.262Z0F1200
G1 X113.349Y64.318Z0F1200
G1 X112.975Y64.553Z0F1200
G0 Z1.5F500
G0 X115.629Y64.075Z1.5F1200
G1 Z0F500
G1 X115.621Y63.775Z0F1200
G1 X115.609Y63.474Z0F1200
G1 X115.606Y63.174Z0F1200
G1 X115.629Y62.877Z0F1200
G1 X115.668Y62.73Z0F1200
G1 X115.739Y62.594Z0F1200
G1 X115.835Y62.48Z0F1200
G1 X115.948Y62.4Z0F1200
G1 X116.071Y62.363Z0F1200
G1 X116.195Y62.383Z0F1200
G1 X116.312Y62.469Z0F1200
G1 X116.416Y62.634Z0F1200
G1 X116.501Y62.996Z0F1200
G1 X116.581Y63.36Z0F1200
G1 X116.621Y63.451Z0F1200
G1 X116.649Y63.503Z0F1200
G1 X116.666Y63.523Z0F1200
G1 X116.675Y63.519Z0F1200
G1 Y63.457Z0F1200
G1 X116.655Y63.299Z0F1200
G1 X116.667Z0F1200
G1 X116.685Y63.344Z0F1200
G1 X116.715Y63.424Z0F1200
G1 X116.813Y63.715Z0F1200
G1 X116.863Y63.949Z0F1200
G1 X116.91Y64.184Z0F1200
G1 X116.934Y64.247Z0F1200
G1 X116.97Y64.309Z0F1200
G1 X117.012Y64.35Z0F1200
G1 X117.055Y64.346Z0F1200
G1 X117.156Y64.195Z0F1200
G1 X117.191Y63.989Z0F1200
G1 X117.196Y63.761Z0F1200
G1 X117.203Y63.542Z0F1200
G1 X117.252Y62.93Z0F1200
G1 X117.335Y61.767Z0F1200
G1 X117.393Y61.22Z0F1200
G1 X117.412Y61.098Z0F1200
G1 X117.429Y61.01Z0F1200
G1 X117.443Y60.952Z0F1200
G1 X117.455Y60.919Z0F1200
G1 X117.472Y60.911Z0F1200
G1 X117.483Y60.953Z0F1200
G1 X117.488Y61.009Z0F1200
G1 Y61.045Z0F1200
G1 Y60.919Z0F1200
G0 Z1.5F500
G0 X120.648Y64.181Z1.5F1200
G1 Z0F500
G1 X120.503Y64.282Z0F1200
G1 X120.359Y64.395Z0F1200
G1 X120.211Y64.485Z0F1200
G1 X120.053Y64.521Z0F1200
G1 X119.949Y64.506Z0F1200
G1 X119.863Y64.468Z0F1200
G1 X119.793Y64.408Z0F1200
G1 X119.739Y64.331Z0F1200
G1 X119.669Y64.136Z0F1200
G1 X119.645Y63.905Z0F1200
G1 X119.657Y63.662Z0F1200
G1 X119.693Y63.432Z0F1200
G1 X119.745Y63.238Z0F1200
G1 X119.802Y63.104Z0F1200
G1 X119.995Y62.812Z0F1200
G1 X120.209Y62.539Z0F1200
G1 X120.429Y62.271Z0F1200
G1 X120.643Y61.997Z0F1200
G1 X120.935Y61.571Z0F1200
G1 X121.235Y61.152Z0F1200
G1 X121.33Z0F1200
G1 X121.363Y61.126Z0F1200
G1 X121.322Y61.049Z0F1200
G1 X121.27Y61.022Z0F1200
G1 X121.206Y61.029Z0F1200
G1 X121.138Y61.046Z0F1200
G1 X121.073Y61.049Z0F1200
G1 X120.615Y60.929Z0F1200
G1 X120.233Y60.839Z0F1200
G1 X120.047Y60.828Z0F1200
G1 X119.853Y60.853Z0F1200
G1 X119.642Y60.924Z0F1200
G1 X119.403Y61.05Z0F1200
G1 X119.323Y61.087Z0F1200
G1 X119.239Y61.122Z0F1200
G1 X119.172Y61.166Z0F1200
G1 X119.145Y61.232Z0F1200
G0 Z1.5F500
G0 X123.846Y62.528Z1.5F1200
G1 Z0F500
G1 X124.084Y62.613Z0F1200
G1 X124.279Y62.679Z0F1200
G1 X124.439Y62.741Z0F1200
G1 X124.575Y62.815Z0F1200
G1 X124.694Y62.918Z0F1200
G1 X124.806Y63.067Z0F1200
G1 X124.92Y63.277Z0F1200
G1 X125.044Y63.564Z0F1200
G1 X125.1Y63.8Z0F1200
G1 X125.074Y63.991Z0F1200
G1 X124.982Y64.141Z0F1200
G1 X124.843Y64.255Z0F1200
G1 X124.498Y64.394Z0F1200
G1 X124.181Y64.442Z0F1200
G1 X123.991Y64.457Z0F1200
G1 X123.8Y64.469Z0F1200
G1 X123.609Z0F1200
G1 X123.421Y64.442Z0F1200
G1 X123.273Y64.374Z0F1200
G1 X123.146Y64.251Z0F1200
G1 X123.039Y64.085Z0F1200
G1 X122.952Y63.892Z0F1200
G1 X122.838Y63.476Z0F1200
G1 X122.801Y63.117Z0F1200
G1 Y62.938Z0F1200
G1 X122.816Y62.759Z0F1200
G1 X122.845Y62.584Z0F1200
G1 X122.897Y62.42Z0F1200
G1 X122.953Y62.316Z0F1200
G1 X123.05Y62.162Z0F1200
G1 X123.178Y61.975Z0F1200
G1 X123.327Y61.775Z0F1200
G1 X123.484Y61.58Z0F1200
G1 X123.639Y61.407Z0F1200
G1 X123.782Y61.275Z0F1200
G1 X123.9Y61.203Z0F1200
G1 X124.067Y61.166Z0F1200
G1 X124.292Y61.15Z0F1200
G1 X124.55Y61.162Z0F1200
G1 X124.817Y61.207Z0F1200
G1 X125.067Y61.29Z0F1200
G1 X125.277Y61.418Z0F1200
G1 X125.359Y61.5Z0F1200
G1 X125.421Y61.596Z0F1200
G1 X125.46Y61.705Z0F1200
G1 X125.474Y61.83Z0F1200
G0 Z1.5F500
G0 X130.389Y65.559Z1.5F1200
G1 Z0F500
G1 X130.958Y65.823Z0F1200
G1 X131.531Y66.078Z0F1200
G1 X132.098Y66.351Z0F1200
G1 X132.647Y66.665Z0F1200
G1 X133.176Y67.037Z0F1200
G1 X133.686Y67.448Z0F1200
G1 X134.684Y68.308Z0F1200
G1 X134.691Y68.364Z0F1200
G1 X134.684Y68.389Z0F1200
G1 Y65.537Z0F1200
G1 X134.693Y64.959Z0F1200
G1 X134.684Y64.382Z0F1200
G1 X134.647Y64.019Z0F1200
G1 X134.601Y63.654Z0F1200
G1 X134.571Y63.272Z0F1200
G1 X134.587Y62.861Z0F1200
G1 X134.604Y62.671Z0F1200
G1 X134.609Y62.53Z0F1200
G1 Y62.432Z0F1200
G1 X134.612Y62.369Z0F1200
G1 X134.647Y62.317Z0F1200
G1 X134.767Y62.314Z0F1200
G0 Z1.5F500
G0 X142.33Y61.222Z1.5F1200
G1 Z0F500
G1 X142.803Y61.939Z0F1200
G1 X143.255Y62.634Z0F1200
G1 X143.446Y62.99Z0F1200
G1 X143.599Y63.359Z0F1200
G1 X143.704Y63.748Z0F1200
G1 X143.75Y64.164Z0F1200
G1 X144.021Y65.276Z0F1200
G1 X144.264Y66.332Z0F1200
G1 X144.49Y67.357Z0F1200
G1 X144.712Y68.375Z0F1200
G1 X144.697Y68.632Z0F1200
G1 X144.709Y68.946Z0F1200
G1 X144.731Y69.287Z0F1200
G1 X144.749Y69.628Z0F1200
G1 Y69.936Z0F1200
G1 X144.713Y70.184Z0F1200
G1 X144.678Y70.275Z0F1200
G1 X144.629Y70.34Z0F1200
G1 X144.564Y70.375Z0F1200
G1 X144.481Z0F1200
G1 X144.433Y69.19Z0F1200
G1 X144.469Y68.004Z0F1200
G1 X144.525Y67.414Z0F1200
G1 X144.61Y66.826Z0F1200
G1 X144.726Y66.24Z0F1200
G1 X144.876Y65.658Z0F1200
G1 X145.165Y64.813Z0F1200
G1 X145.453Y63.957Z0F1200
G1 X145.561Y63.525Z0F1200
G1 X145.625Y63.091Z0F1200
G1 X145.63Y62.655Z0F1200
G1 X145.562Y62.216Z0F1200
G1 X145.462Y61.985Z0F1200
G1 X145.324Y61.805Z0F1200
G1 X145.154Y61.673Z0F1200
G1 X144.958Y61.585Z0F1200
G1 X144.744Y61.54Z0F1200
G1 X144.517Y61.532Z0F1200
G1 X144.286Y61.56Z0F1200
G1 X144.057Y61.62Z0F1200
G1 X143.837Y61.709Z0F1200
G1 X143.632Y61.824Z0F1200
G1 X143.45Y61.961Z0F1200
G1 X143.297Y62.118Z0F1200
G1 X143.179Y62.292Z0F1200
G1 X143.105Y62.478Z0F1200
G1 X143.08Y62.675Z0F1200
G1 X143.112Y62.878Z0F1200
G1 X143.084Y63.085Z0F1200
G1 X143.077Y63.348Z0F1200
G1 X143.086Y63.642Z0F1200
G1 X143.103Y63.939Z0F1200
G1 X143.153Y64.571Z0F1200
G1 Y64.603Z0F1200
G1 X143.15Z0F1200
G1 X143.147Y64.239Z0F1200
G1 X143.162Y63.859Z0F1200
G1 X143.202Y63.473Z0F1200
G1 X143.277Y63.088Z0F1200
G1 X143.395Y62.71Z0F1200
G1 X143.565Y62.347Z0F1200
G1 X143.795Y62.005Z0F1200
G1 X144.094Y61.693Z0F1200
G1 X144.391Y61.53Z0F1200
G1 X144.681Y61.435Z0F1200
G1 X144.964Y61.403Z0F1200
G1 X145.236Y61.428Z0F1200
G1 X145.497Y61.502Z0F1200
G1 X145.745Y61.621Z0F1200
G1 X145.977Y61.777Z0F1200
G1 X146.191Y61.965Z0F1200
G1 X146.386Y62.178Z0F1200
G1 X146.559Y62.41Z0F1200
G1 X146.709Y62.655Z0F1200
G1 X146.834Y62.907Z0F1200
G1 X146.931Y63.159Z0F1200
G1 X146.999Y63.405Z0F1200
G1 X147.036Y63.639Z0F1200
G1 X147.039Y63.855Z0F1200
G1 X147.03Y64.082Z0F1200
G1 X146.997Y64.376Z0F1200
G1 X146.942Y64.687Z0F1200
G1 X146.862Y64.964Z0F1200
G1 X146.814Y65.075Z0F1200
G1 X146.76Y65.158Z0F1200
G1 X146.7Y65.209Z0F1200
G1 X146.633Y65.22Z0F1200
G1 X146.561Y65.185Z0F1200
G1 X146.483Y65.098Z0F1200
G1 X146.399Y64.953Z0F1200
G1 X146.309Y64.743Z0F1200
G1 X146.18Y64.02Z0F1200
G1 X146.126Y63.608Z0F1200
G1 X146.113Y63.198Z0F1200
G1 X146.13Y63.001Z0F1200
G1 X146.168Y62.815Z0F1200
G1 X146.229Y62.641Z0F1200
G1 X146.316Y62.484Z0F1200
G1 X146.433Y62.347Z0F1200
G1 X146.584Y62.233Z0F1200
G1 X146.771Y62.144Z0F1200
G1 X146.997Y62.085Z0F1200
G1 X147.437Y62.733Z0F1200
G1 X147.856Y63.418Z0F1200
G1 X148.046Y63.761Z0F1200
G1 X148.217Y64.097Z0F1200
G1 X148.363Y64.421Z0F1200
G1 X148.48Y64.729Z0F1200
G1 X148.323Y64.512Z0F1200
G1 X148.214Y64.238Z0F1200
G1 X148.149Y63.92Z0F1200
G1 X148.129Y63.575Z0F1200
G1 X148.15Y63.219Z0F1200
G1 X148.212Y62.867Z0F1200
G1 X148.312Y62.535Z0F1200
G1 X148.449Y62.24Z0F1200
G1 X148.651Y62.188Z0F1200
G1 X148.824Y62.196Z0F1200
G1 X148.972Y62.257Z0F1200
G1 X149.096Y62.361Z0F1200
G1 X149.201Y62.503Z0F1200
G1 X149.287Y62.673Z0F1200
G1 X149.359Y62.864Z0F1200
G1 X149.418Y63.069Z0F1200
G1 X149.512Y63.485Z0F1200
G1 X149.589Y63.861Z0F1200
G1 X149.628Y64.013Z0F1200
G1 X149.672Y64.132Z0F1200
G1 X149.722Y64.209Z0F1200
G1 X149.782Y64.237Z0F1200
G1 X149.797Y63.94Z0F1200
G1 X149.748Y63.574Z0F1200
G1 X149.676Y63.174Z0F1200
G1 X149.622Y62.778Z0F1200
G1 X149.616Y62.592Z0F1200
G1 X149.629Y62.421Z0F1200
G1 X149.668Y62.268Z0F1200
G1 X149.737Y62.139Z0F1200
G1 X149.843Y62.038Z0F1200
G1 X149.989Y61.969Z0F1200
G1 X150.181Y61.937Z0F1200
G1 X150.425Y61.946Z0F1200
G1 X150.551Y62.075Z0F1200
G1 X150.665Y62.238Z0F1200
G1 X150.767Y62.427Z0F1200
G1 X150.857Y62.638Z0F1200
G1 X151.007Y63.101Z0F1200
G1 X151.121Y63.58Z0F1200
G1 X151.206Y64.027Z0F1200
G1 X151.294Y64.537Z0F1200
G1 X151.316Y64.641Z0F1200
G1 X151.336Y64.702Z0F1200
G1 X151.353Y64.714Z0F1200
G1 X151.303Y63.908Z0F1200
G1 X151.199Y63.073Z0F1200
G1 X151.195Y62.664Z0F1200
G1 X151.258Y62.273Z0F1200
G1 X151.324Y62.086Z0F1200
G1 X151.417Y61.907Z0F1200
G1 X151.54Y61.737Z0F1200
G1 X151.697Y61.576Z0F1200
G1 X151.919Y61.498Z0F1200
G1 X152.103Y61.478Z0F1200
G1 X152.253Y61.508Z0F1200
G1 X152.37Y61.582Z0F1200
G1 X152.459Y61.695Z0F1200
G1 X152.522Y61.84Z0F1200
G1 X152.562Y62.011Z0F1200
G1 X152.581Y62.201Z0F1200
G1 X152.573Y62.617Z0F1200
G1 X152.52Y63.038Z0F1200
G1 X152.447Y63.416Z0F1200
G1 X152.377Y63.699Z0F1200
G1 X152.282Y63.954Z0F1200
G1 X152.178Y64.129Z0F1200
G1 X152.068Y64.233Z0F1200
G1 X151.955Y64.273Z0F1200
G1 X151.84Y64.256Z0F1200
G1 X151.728Y64.19Z0F1200
G1 X151.622Y64.082Z0F1200
G1 X151.523Y63.94Z0F1200
G1 X151.363Y63.582Z0F1200
G1 X151.271Y63.177Z0F1200
G1 X151.257Y62.974Z0F1200
G1 X151.27Y62.783Z0F1200
G1 X151.311Y62.609Z0F1200
G1 X151.384Y62.46Z0F1200
G1 X151.414Y62.206Z0F1200
G1 X151.483Y62.009Z0F1200
G1 X151.585Y61.864Z0F1200
G1 X151.715Y61.768Z0F1200
G1 X151.868Y61.718Z0F1200
G1 X152.037Y61.709Z0F1200
G1 X152.219Y61.739Z0F1200
G1 X152.406Y61.803Z0F1200
G1 X152.594Y61.898Z0F1200
G1 X152.778Y62.021Z0F1200
G1 X152.952Y62.168Z0F1200
G1 X153.11Y62.335Z0F1200
G1 X153.248Y62.519Z0F1200
G1 X153.36Y62.717Z0F1200
G1 X153.44Y62.924Z0F1200
G1 X153.483Y63.137Z0F1200
G1 X153.664Y63.805Z0F1200
G1 X153.722Y64.112Z0F1200
G1 X153.735Y64.432Z0F1200
G1 X153.877Y64.84Z0F1200
G1 X153.991Y65.266Z0F1200
G1 X154.083Y65.705Z0F1200
G1 X154.161Y66.153Z0F1200
G1 X154.3Y67.051Z0F1200
G1 X154.462Y67.916Z0F1200
G1 X154.562Y68.23Z0F1200
G1 X154.595Y68.502Z0F1200
G1 X154.574Y68.713Z0F1200
G1 X154.512Y68.842Z0F1200
G1 X154.47Y68.869Z0F1200
G1 X154.423Z0F1200
G1 X154.372Y68.835Z0F1200
G1 X154.318Y68.769Z0F1200
G1 X154.264Y68.667Z0F1200
G1 X154.212Y68.526Z0F1200
G1 X154.162Y68.343Z0F1200
G1 X154.116Y68.117Z0F1200
G1 X154.015Y67.827Z0F1200
G1 X153.944Y67.536Z0F1200
G1 X153.899Y67.243Z0F1200
G1 X153.877Y66.949Z0F1200
G1 X153.883Y66.357Z0F1200
G1 X153.929Y65.763Z0F1200
G1 X153.984Y65.168Z0F1200
G1 X154.014Y64.574Z0F1200
G1 X153.988Y63.982Z0F1200
G1 X153.873Y63.394Z0F1200
G1 X153.776Y63.203Z0F1200
G1 X153.726Y63.011Z0F1200
G1 X153.716Y62.822Z0F1200
G1 X153.743Y62.642Z0F1200
G1 X153.802Y62.473Z0F1200
G1 X153.887Y62.321Z0F1200
G1 X153.995Y62.19Z0F1200
G1 X154.12Y62.084Z0F1200
G1 X154.257Y62.007Z0F1200
G1 X154.402Y61.963Z0F1200
G1 X154.549Y61.958Z0F1200
G1 X154.695Y61.994Z0F1200
G1 X154.834Y62.077Z0F1200
G1 X154.962Y62.211Z0F1200
G1 X155.074Y62.4Z0F1200
G1 X155.164Y62.648Z0F1200
G1 X155.323Y63.156Z0F1200
G1 X155.529Y63.74Z0F1200
G1 X155.587Y64.018Z0F1200
G1 X155.584Y64.265Z0F1200
G1 X155.551Y64.371Z0F1200
G1 X155.493Y64.463Z0F1200
G1 X155.408Y64.539Z0F1200
G1 X155.292Y64.597Z0F1200
G1 X155.144Y64.255Z0F1200
G1 X155.032Y63.89Z0F1200
G1 X154.958Y63.51Z0F1200
G1 X154.925Y63.121Z0F1200
G1 X154.936Y62.732Z0F1200
G1 X154.994Y62.349Z0F1200
G1 X155.099Y61.98Z0F1200
G1 X155.257Y61.632Z0F1200
G1 X155.462Y61.73Z0F1200
G1 X155.645Y61.852Z0F1200
G1 X155.807Y61.996Z0F1200
G1 X155.948Y62.16Z0F1200
G1 X156.178Y62.536Z0F1200
G1 X156.346Y62.959Z0F1200
G1 X156.465Y63.41Z0F1200
G1 X156.546Y63.868Z0F1200
G1 X156.603Y64.313Z0F1200
G1 X156.646Y64.724Z0F1200
G1 Y64.826Z0F1200
G1 X156.659Y65.935Z0F1200
G1 X156.674Y66.504Z0F1200
G1 X156.704Y67.046Z0F1200
G1 X156.755Y67.495Z0F1200
G1 X156.789Y67.663Z0F1200
G1 X156.831Y67.784Z0F1200
G1 X156.88Y67.848Z0F1200
G1 X156.938Z0F1200
G1 X156.948Y67.594Z0F1200
G1 X156.976Y67.312Z0F1200
G1 X157.022Y67.005Z0F1200
G1 X157.083Y66.68Z0F1200
G1 X157.249Y65.988Z0F1200
G1 X157.464Y65.271Z0F1200
G1 X157.718Y64.567Z0F1200
G1 X158.003Y63.91Z0F1200
G1 X158.153Y63.611Z0F1200
G1 X158.308Y63.337Z0F1200
G1 X158.465Y63.092Z0F1200
G1 X158.624Y62.883Z0F1200
G1 X158.787Y62.738Z0F1200
G1 X158.907Y62.604Z0F1200
G1 X158.987Y62.479Z0F1200
G1 X159.029Y62.366Z0F1200
G1 X159.036Y62.265Z0F1200
G1 X159.012Y62.176Z0F1200
G1 X158.959Y62.101Z0F1200
G1 X158.88Y62.04Z0F1200
G1 X158.655Y61.964Z0F1200
G1 X158.362Y61.956Z0F1200
G1 X158.024Y62.022Z0F1200
G1 X157.663Y62.169Z0F1200
G1 X157.372Y62.18Z0F1200
G1 X157.096Y62.219Z0F1200
G1 X156.839Y62.281Z0F1200
G1 X156.604Y62.362Z0F1200
G1 X156.397Y62.456Z0F1200
G1 X156.221Y62.559Z0F1200
G1 X156.083Y62.667Z0F1200
G1 X155.984Y62.774Z0F1200
G1 X155.932Y62.876Z0F1200
G1 X155.929Y62.968Z0F1200
G1 X155.98Y63.046Z0F1200
G1 X156.09Y63.105Z0F1200
G1 X156.263Y63.139Z0F1200
G1 X156.504Y63.146Z0F1200
G1 X156.817Y63.119Z0F1200
G1 X157.207Y63.054Z0F1200
G1 X157.496Y63.136Z0F1200
G1 X157.753Y63.253Z0F1200
G1 X157.981Y63.401Z0F1200
G1 X158.182Y63.576Z0F1200
G1 X158.359Y63.774Z0F1200
G1 X158.513Y63.993Z0F1200
G1 X158.647Y64.229Z0F1200
G1 X158.763Y64.477Z0F1200
G1 X158.95Y64.999Z0F1200
G1 X159.093Y65.529Z0F1200
G1 X159.211Y66.041Z0F1200
G1 X159.321Y66.504Z0F1200
G1 X159.505Y66.902Z0F1200
G1 X159.649Y67.294Z0F1200
G1 X159.762Y67.683Z0F1200
G1 X159.853Y68.073Z0F1200
G1 X160.005Y68.871Z0F1200
G1 X160.176Y69.714Z0F1200
G1 X160.445Y70.192Z0F1200
G1 X160.511Y70.315Z0F1200
G1 X160.548Y70.407Z0F1200
G1 X160.569Y70.502Z0F1200
G1 X160.602Y70.725Z0F1200
G1 X160.643Y70.978Z0F1200
G1 X160.674Y71.149Z0F1200
G1 X160.671Y70.912Z0F1200
G1 Y70.708Z0F1200
G1 X160.674Y70.534Z0F1200
G1 X160.678Y70.384Z0F1200
G1 X160.695Y69.911Z0F1200
G1 Y69.679Z0F1200
G1 X160.678Y69.392Z0F1200
G1 X160.663Y69.214Z0F1200
G1 X160.642Y69.008Z0F1200
G1 X160.614Y68.766Z0F1200
G1 X160.579Y68.484Z0F1200
G1 X160.468Y68.02Z0F1200
G1 X160.432Y67.542Z0F1200
G1 X160.446Y67.053Z0F1200
G1 X160.521Y66.067Z0F1200
G1 X160.532Y65.579Z0F1200
G1 X160.491Y65.101Z0F1200
G1 X160.374Y64.639Z0F1200
G1 X160.25Y63.919Z0F1200
G1 X160.1Y63.191Z0F1200
G1 X160.06Y62.829Z0F1200
G1 X160.067Y62.469Z0F1200
G1 X160.139Y62.113Z0F1200
G1 X160.293Y61.762Z0F1200
G1 X160.623Y63.285Z0F1200
G1 X160.727Y63.66Z0F1200
G1 X160.857Y64.03Z0F1200
G1 X161.022Y64.392Z0F1200
G1 X161.231Y64.745Z0F1200
G1 X161.323Y64.972Z0F1200
G1 X161.391Y65.128Z0F1200
G1 X161.435Y65.218Z0F1200
G1 X161.459Y65.251Z0F1200
G1 X161.464Y65.233Z0F1200
G1 X161.453Y65.172Z0F1200
G1 X161.428Y65.074Z0F1200
G1 X161.39Y64.948Z0F1200
G1 X161.289Y64.635Z0F1200
G1 X161.166Y64.292Z0F1200
G1 X161.039Y63.974Z0F1200
G1 X160.927Y63.74Z0F1200
G1 X160.805Y63.561Z0F1200
G1 X160.717Y63.379Z0F1200
G1 X160.659Y63.199Z0F1200
G1 X160.63Y63.023Z0F1200
G1 Y62.858Z0F1200
G1 X160.652Y62.706Z0F1200
G1 X160.7Y62.572Z0F1200
G1 X160.771Y62.459Z0F1200
G1 X160.862Y62.372Z0F1200
G1 X160.971Y62.316Z0F1200
G1 X161.098Y62.293Z0F1200
G1 X161.241Y62.308Z0F1200
G1 X161.397Y62.365Z0F1200
G1 X161.565Y62.469Z0F1200
G1 X161.744Y62.622Z0F1200
G1 X161.931Y62.83Z0F1200
G1 X162.167Y63.023Z0F1200
G1 X162.403Y63.296Z0F1200
G1 X162.624Y63.615Z0F1200
G1 X162.817Y63.949Z0F1200
G1 X162.968Y64.263Z0F1200
G1 X163.063Y64.526Z0F1200
G1 X163.086Y64.628Z0F1200
G1 X163.089Y64.705Z0F1200
G1 X163.072Y64.752Z0F1200
G1 X163.032Y64.766Z0F1200
G1 X162.845Y64.386Z0F1200
G1 X162.594Y64.007Z0F1200
G1 X162.317Y63.626Z0F1200
G1 X162.051Y63.242Z0F1200
G1 X161.835Y62.854Z0F1200
G1 X161.707Y62.46Z0F1200
G1 X161.687Y62.261Z0F1200
G1 X161.704Y62.059Z0F1200
G1 X161.761Y61.855Z0F1200
G1 X161.863Y61.648Z0F1200
G1 X162.099Y61.722Z0F1200
G1 X162.315Y61.817Z0F1200
G1 X162.512Y61.931Z0F1200
G1 X162.691Y62.062Z0F1200
G1 X162.998Y62.368Z0F1200
G1 X163.245Y62.721Z0F1200
G1 X163.439Y63.105Z0F1200
G1 X163.587Y63.506Z0F1200
G1 X163.696Y63.909Z0F1200
G1 X163.775Y64.298Z0F1200
G1 X163.835Y64.495Z0F1200
G1 X163.911Y64.688Z0F1200
G1 X163.99Y64.855Z0F1200
G1 X164.058Y64.975Z0F1200
G1 X164.105Y65.028Z0F1200
G1 X164.117Y64.991Z0F1200
G1 X164.106Y64.932Z0F1200
G1 X164.082Y64.843Z0F1200
G1 X164.043Y64.721Z0F1200
G1 X163.987Y64.563Z0F1200
G1 X163.902Y64.227Z0F1200
G1 X163.755Y63.856Z0F1200
G1 X163.583Y63.465Z0F1200
G1 X163.423Y63.073Z0F1200
G1 X163.313Y62.697Z0F1200
G1 X163.29Y62.355Z0F1200
G1 X163.323Y62.202Z0F1200
G1 X163.391Y62.064Z0F1200
G1 X163.5Y61.943Z0F1200
G1 X163.654Y61.842Z0F1200
G1 X163.915Y61.931Z0F1200
G1 X164.137Y62.045Z0F1200
G1 X164.322Y62.18Z0F1200
G1 X164.476Y62.334Z0F1200
G1 X164.706Y62.689Z0F1200
G1 X164.858Y63.087Z0F1200
G1 X164.967Y63.508Z0F1200
G1 X165.065Y63.93Z0F1200
G1 X165.186Y64.332Z0F1200
G1 X165.363Y64.694Z0F1200
G1 X165.49Y64.857Z0F1200
G1 X165.615Y65.012Z0F1200
G1 X165.726Y65.141Z0F1200
G1 X165.814Y65.227Z0F1200
G1 X165.871Y65.255Z0F1200
G1 X165.885Y65.207Z0F1200
G1 X165.873Y65.149Z0F1200
G1 X165.847Y65.066Z0F1200
G1 X165.806Y64.956Z0F1200
G1 X165.748Y64.817Z0F1200
G1 X165.675Y64.489Z0F1200
G1 X165.54Y64.114Z0F1200
G1 X165.38Y63.713Z0F1200
G1 X165.231Y63.307Z0F1200
G1 X165.129Y62.919Z0F1200
G1 X165.11Y62.57Z0F1200
G1 X165.144Y62.418Z0F1200
G1 X165.212Y62.283Z0F1200
G1 X165.319Y62.168Z0F1200
G1 X165.469Y62.078Z0F1200
G1 X165.862Y62.27Z0F1200
G1 X166.21Y62.498Z0F1200
G1 X166.516Y62.756Z0F1200
G1 X166.787Y63.04Z0F1200
G1 X167.239Y63.666Z0F1200
G1 X167.604Y64.339Z0F1200
G1 X167.681Y64.525Z0F1200
G1 X167.721Y64.7Z0F1200
G1 X167.729Y64.848Z0F1200
G1 X167.712Y64.95Z0F1200
G1 X167.676Y64.989Z0F1200
G1 X167.626Y64.947Z0F1200
G1 X167.598Y64.89Z0F1200
G1 X167.569Y64.807Z0F1200
G1 X167.539Y64.695Z0F1200
G1 X167.51Y64.551Z0F1200
G1 X167.407Y64.269Z0F1200
G1 X167.283Y63.937Z0F1200
G1 X167.158Y63.577Z0F1200
G1 X167.053Y63.213Z0F1200
G1 X166.99Y62.87Z0F1200
G1 Y62.57Z0F1200
G1 X167.018Y62.443Z0F1200
G1 X167.071Y62.337Z0F1200
G1 X167.149Y62.252Z0F1200
G1 X167.256Y62.194Z0F1200
G1 X167.64Y62.422Z0F1200
G1 X167.99Y62.711Z0F1200
G1 X168.302Y63.045Z0F1200
G1 X168.571Y63.405Z0F1200
G1 X168.793Y63.775Z0F1200
G1 X168.964Y64.137Z0F1200
G1 X169.078Y64.473Z0F1200
G1 X169.132Y64.766Z0F1200
G1 X168.965Y64.054Z0F1200
G1 X168.733Y63.308Z0F1200
G1 X168.645Y62.942Z0F1200
G1 X168.603Y62.588Z0F1200
G1 X168.628Y62.256Z0F1200
G1 X168.741Y61.951Z0F1200
G1 X169.191Y62.189Z0F1200
G1 X169.595Y62.486Z0F1200
G1 X169.938Y62.832Z0F1200
G1 X170.21Y63.216Z0F1200
G1 X170.396Y63.628Z0F1200
G1 X170.485Y64.057Z0F1200
G1 X170.488Y64.275Z0F1200
G1 X170.462Y64.493Z0F1200
G1 X170.406Y64.711Z0F1200
G1 X170.317Y64.926Z0F1200
G1 X170.194Y64.184Z0F1200
G1 X169.983Y63.456Z0F1200
G1 X169.874Y63.093Z0F1200
G1 X169.779Y62.728Z0F1200
G1 X169.71Y62.358Z0F1200
G1 X169.679Y61.983Z0F1200
G1 X169.748Y61.871Z0F1200
G1 X169.83Y61.804Z0F1200
G1 X169.924Y61.778Z0F1200
G1 X170.029Y61.788Z0F1200
G1 X170.26Y61.897Z0F1200
G1 X170.51Y62.092Z0F1200
G1 X170.762Y62.336Z0F1200
G1 X171.214Y62.814Z0F1200
G1 X171.383Y62.973Z0F1200
G1 X171.54Y63.17Z0F1200
G1 X171.679Y63.45Z0F1200
G1 X171.792Y63.776Z0F1200
G1 X171.87Y64.112Z0F1200
G1 X171.907Y64.421Z0F1200
G1 X171.895Y64.667Z0F1200
G1 X171.869Y64.754Z0F1200
G1 X171.826Y64.813Z0F1200
G1 X171.768Y64.837Z0F1200
G1 X171.693Y64.823Z0F1200
G1 X171.475Y64.15Z0F1200
G1 X171.362Y63.76Z0F1200
G1 X171.276Y63.368Z0F1200
G1 X171.24Y63Z0F1200
G1 X171.276Y62.684Z0F1200
G1 X171.328Y62.554Z0F1200
G1 X171.407Y62.446Z0F1200
G1 X171.515Y62.364Z0F1200
G1 X171.654Y62.312Z0F1200
G1 X172.025Y62.561Z0F1200
G1 X172.389Y62.864Z0F1200
G1 X172.724Y63.207Z0F1200
G1 X173.009Y63.578Z0F1200
G1 X173.221Y63.964Z0F1200
G1 X173.339Y64.351Z0F1200
G1 X173.356Y64.542Z0F1200
G1 X173.341Y64.727Z0F1200
G1 X173.291Y64.907Z0F1200
G1 X173.205Y65.078Z0F1200
G1 X173.062Y64.76Z0F1200
G1 X172.968Y64.371Z0F1200
G1 X172.932Y63.946Z0F1200
G1 X172.961Y63.519Z0F1200
G1 X173.003Y63.316Z0F1200
G1 X173.065Y63.125Z0F1200
G1 X173.147Y62.952Z0F1200
G1 X173.25Y62.8Z0F1200
G1 X173.376Y62.674Z0F1200
G1 X173.526Y62.578Z0F1200
G1 X173.7Y62.517Z0F1200
G1 X173.9Y62.494Z0F1200
G1 X174.023Y62.596Z0F1200
G1 X174.125Y62.725Z0F1200
G1 X174.206Y62.877Z0F1200
G1 X174.271Y63.047Z0F1200
G1 X174.358Y63.422Z0F1200
G1 X174.407Y63.812Z0F1200
G1 X174.439Y64.178Z0F1200
G1 X174.474Y64.482Z0F1200
G1 X174.499Y64.599Z0F1200
G1 X174.533Y64.685Z0F1200
G1 X174.578Y64.738Z0F1200
G1 X174.637Y64.75Z0F1200
G1 X174.673Y63.845Z0F1200
G1 X174.666Y62.941Z0F1200
G1 X174.695Y62.494Z0F1200
G1 X174.771Y62.054Z0F1200
G1 X174.914Y61.621Z0F1200
G1 X175.143Y61.198Z0F1200
G1 X175.274Y61.235Z0F1200
G1 X175.381Y61.308Z0F1200
G1 X175.469Y61.413Z0F1200
G1 X175.538Y61.546Z0F1200
G1 X175.629Y61.88Z0F1200
G1 X175.67Y62.275Z0F1200
G1 X175.678Y62.699Z0F1200
G1 X175.669Y63.117Z0F1200
G1 X175.659Y63.497Z0F1200
G1 X175.663Y63.804Z0F1200
G1 X175.721Y64.481Z0F1200
G1 X175.763Y65.107Z0F1200
G1 X175.787Y65.698Z0F1200
G1 X175.791Y66.268Z0F1200
G1 X175.774Y66.833Z0F1200
G1 X175.731Y67.406Z0F1200
G1 X175.661Y68.003Z0F1200
G1 X175.563Y68.64Z0F1200
G1 X175.666Y69.352Z0F1200
G1 X175.736Y70Z0F1200
G1 X175.777Y70.578Z0F1200
G1 X175.792Y71.081Z0F1200
G1 X175.783Y71.504Z0F1200
G1 X175.754Y71.843Z0F1200
G1 X175.708Y72.091Z0F1200
G1 X175.648Y72.244Z0F1200
G1 X175.613Y72.283Z0F1200
G1 X175.577Y72.296Z0F1200
G1 X175.538Y72.283Z0F1200
G1 X175.498Y72.243Z0F1200
G1 X175.457Y72.176Z0F1200
G1 X175.415Y72.08Z0F1200
G1 X175.373Y71.955Z0F1200
G1 X175.331Y71.801Z0F1200
G1 X175.289Y71.616Z0F1200
G1 X175.248Y71.401Z0F1200
G1 X175.208Y71.155Z0F1200
G1 X175.17Y70.876Z0F1200
G1 X175.134Y70.564Z0F1200
G1 X175.1Y70.22Z0F1200
G1 X175.069Y69.841Z0F1200
G1 X175.041Y69.427Z0F1200
G1 X174.782Y68.788Z0F1200
G1 X174.6Y68.117Z0F1200
G1 X174.476Y67.423Z0F1200
G1 X174.387Y66.717Z0F1200
G1 X174.312Y66.007Z0F1200
G1 X174.228Y65.305Z0F1200
G1 X174.116Y64.62Z0F1200
G1 X173.951Y63.962Z0F1200
G1 X173.89Y63.34Z0F1200
G1 X173.782Y62.752Z0F1200
G1 X173.63Y62.19Z0F1200
G1 X173.435Y61.648Z0F1200
G1 X173.197Y61.119Z0F1200
G1 X172.919Y60.596Z0F1200
G1 X172.601Y60.07Z0F1200
G1 X172.244Y59.536Z0F1200
G1 X171.692Y58.866Z0F1200
G1 X171.118Y58.263Z0F1200
G1 X170.561Y57.71Z0F1200
G1 X170.06Y57.187Z0F1200
G0 Z1.5F500
G0 X8.415Y79.644Z1.5F1200
G1 Z0F500
G1 X9.236Y85.887Z0F1200
G1 X9.468Z0F1200
G1 X10.224Y80.443Z0F1200
G1 X12.439Y85.857Z0F1200
G1 X12.577Z0F1200
G1 X11.778Y79.674Z0F1200
G0 Z1.5F500
G0 X14.161Y83.67Z1.5F1200
G1 Z0F500
G1 X14.684Y84.041Z0F1200
G1 X15.12Y84.197Z0F1200
G1 X15.556Y84.256Z0F1200
G1 X15.853Y84.099Z0F1200
G1 X16.079Y83.767Z0F1200
G1 X16.173Y83.269Z0F1200
G1 X16.108Y82.595Z0F1200
G1 X15.832Y80.535Z0F1200
G1 X15.737Y79.706Z0F1200
G1 X15.832Y80.535Z0F1200
G1 X15.49Y80.259Z0F1200
G1 X15.12Y79.951Z0F1200
G1 X14.735Y79.736Z0F1200
G1 X14.321Y79.644Z0F1200
G1 X13.979Y79.797Z0F1200
G1 X13.747Y80.044Z0F1200
G1 X13.587Y80.443Z0F1200
G1 X13.66Y81.033Z0F1200
G1 X13.907Y81.492Z0F1200
G1 X14.321Y81.892Z0F1200
G1 X14.713Y82.078Z0F1200
G1 X15.163Y82.263Z0F1200
G1 X15.577Y82.351Z0F1200
G1 X15.853Y82.381Z0F1200
G1 X16.057Z0F1200
G0 Z1.5F500
G0 X17.502Y79.674Z1.5F1200
G1 Z0F500
G1 X18.098Y84.197Z0F1200
G1 X17.916Y82.81Z0F1200
G1 X18.192Y83.367Z0F1200
G1 X18.577Y83.924Z0F1200
G1 X18.941Y84.138Z0F1200
G1 X19.289Y84.197Z0F1200
G1 X19.493Y84.168Z0F1200
G0 Z1.5F500
G0 X22.101Y80.197Z1.5F1200
G1 Z0F500
G1 X21.665Y79.828Z0F1200
G1 X21.12Y79.674Z0F1200
G1 X20.633Y79.767Z0F1200
G1 X20.176Y80.228Z0F1200
G1 X19.95Y80.877Z0F1200
G1 X19.929Y81.638Z0F1200
G1 X20.045Y82.439Z0F1200
G1 X20.314Y83.181Z0F1200
G1 X20.749Y83.767Z0F1200
G1 X21.229Y84.099Z0F1200
G1 X21.737Y84.197Z0F1200
G1 X22.122Y84.099Z0F1200
G1 X22.398Y83.924Z0F1200
G1 X22.464Y83.738Z0F1200
G0 Z1.5F500
G0 X26.19Y79.797Z1.5F1200
G1 Z0F500
G1 X26.996Y85.799Z0F1200
G1 X28.275Z0F1200
G1 X28.776Y85.613Z0F1200
G1 X29.096Y85.33Z0F1200
G1 X29.35Y84.969Z0F1200
G1 X29.553Y84.256Z0F1200
G1 X29.583Y83.455Z0F1200
G1 X29.415Y82.322Z0F1200
G1 X29.234Y81.58Z0F1200
G1 X28.987Y81.062Z0F1200
G1 X28.595Y80.413Z0F1200
G1 X27.999Y80.013Z0F1200
G1 X27.52Y79.828Z0F1200
G1 X27.156Y79.797Z0F1200
G1 X26.19Z0F1200
G0 Z1.5F500
G0 X33.447Y84.138Z1.5F1200
G1 Z0F500
G1 X32.851Y79.674Z0F1200
G1 X33.011Y80.847Z0F1200
G1 X32.692Y80.443Z0F1200
G1 X32.35Y80.044Z0F1200
G1 X31.892Y79.736Z0F1200
G1 X31.5Y79.644Z0F1200
G1 X31.115Y79.797Z0F1200
G1 X30.861Y80.105Z0F1200
G1 X30.774Y80.505Z0F1200
G1 X30.839Y81.277Z0F1200
G1 X31.202Y84.138Z0F1200
G0 Z1.5F500
G0 X34.359Y80.259Z1.5F1200
G1 Z0F500
G1 X34.726Y79.889Z0F1200
G1 X35.14Y79.706Z0F1200
G1 X35.503Y79.644Z0F1200
G1 X35.982Y79.859Z0F1200
G1 X36.396Y80.228Z0F1200
G1 X36.556Y80.779Z0F1200
G1 X36.534Y81.336Z0F1200
G1 X36.193Y81.795Z0F1200
G1 X35.663Y82.107Z0F1200
G1 X35.183Y82.41Z0F1200
G1 X34.929Y82.81Z0F1200
G1 Y83.269Z0F1200
G1 X35.118Y83.709Z0F1200
G1 X35.525Y84.138Z0F1200
G1 X36.004Y84.226Z0F1200
G1 X36.44Y84.099Z0F1200
G1 X36.789Y83.797Z0F1200
G0 Z1.5F500
G0 X37.468Y80.259Z1.5F1200
G1 Z0F500
G1 X37.835Y79.889Z0F1200
G1 X38.249Y79.706Z0F1200
G1 X38.612Y79.644Z0F1200
G1 X39.091Y79.859Z0F1200
G1 X39.505Y80.228Z0F1200
G1 X39.665Y80.779Z0F1200
G1 X39.643Y81.336Z0F1200
G1 X39.302Y81.795Z0F1200
G1 X38.772Y82.107Z0F1200
G1 X38.292Y82.41Z0F1200
G1 X38.038Y82.81Z0F1200
G1 Y83.269Z0F1200
G1 X38.227Y83.709Z0F1200
G1 X38.634Y84.138Z0F1200
G1 X39.113Y84.226Z0F1200
G1 X39.549Y84.099Z0F1200
G1 X39.898Y83.797Z0F1200
G0 Z1.5F500
G0 X40.965Y82.078Z1.5F1200
G1 Z0F500
G1 X43.486Z0F1200
G1 X43.551Y82.625Z0F1200
G1 X43.53Y83.338Z0F1200
G1 X43.275Y83.885Z0F1200
G1 X42.956Y84.197Z0F1200
G1 X42.476Y84.226Z0F1200
G1 X41.975Y84.041Z0F1200
G1 X41.517Y83.582Z0F1200
G1 X41.263Y83.123Z0F1200
G1 X41.016Y82.537Z0F1200
G1 X40.9Y81.922Z0F1200
G1 Y81.179Z0F1200
G1 X41.016Y80.505Z0F1200
G1 X41.358Y79.951Z0F1200
G1 X41.721Y79.706Z0F1200
G1 X42.2Y79.644Z0F1200
G1 X42.614Y79.797Z0F1200
G1 X43.072Y80.075Z0F1200
G0 Z1.5F500
G0 X44.583Y79.644Z1.5F1200
G1 Z0F500
G1 X45.179Y84.168Z0F1200
G0 Z1.5F500
G0 X45.222Y86.043Z1.5F1200
G1 Z0F500
G1 X45.157Y85.555Z0F1200
G1 X45.52Z0F1200
G1 X45.593Y86.043Z0F1200
G1 X45.222Z0F1200
G0 Z1.5F500
G0 X47.329Y86.473Z1.5F1200
G1 Z0F500
G1 X46.508Y80.105Z0F1200
G1 Y79.889Z0F1200
G1 X46.551Y79.767Z0F1200
G1 X46.668Y79.674Z0F1200
G1 X46.798Z0F1200
G0 Z1.5F500
G0 X49.254Y86.473Z1.5F1200
G1 Z0F500
G1 X48.433Y80.105Z0F1200
G1 Y79.889Z0F1200
G1 X48.476Y79.767Z0F1200
G1 X48.592Y79.674Z0F1200
G1 X48.723Z0F1200
G0 Z1.5F500
G0 X50.307Y82.078Z1.5F1200
G1 Z0F500
G1 X52.828Z0F1200
G1 X52.893Y82.625Z0F1200
G1 X52.871Y83.338Z0F1200
G1 X52.617Y83.885Z0F1200
G1 X52.297Y84.197Z0F1200
G1 X51.818Y84.226Z0F1200
G1 X51.317Y84.041Z0F1200
G1 X50.859Y83.582Z0F1200
G1 X50.605Y83.123Z0F1200
G1 X50.358Y82.537Z0F1200
G1 X50.242Y81.922Z0F1200
G1 Y81.179Z0F1200
G1 X50.358Y80.505Z0F1200
G1 X50.699Y79.951Z0F1200
G1 X51.062Y79.706Z0F1200
G1 X51.542Y79.644Z0F1200
G1 X51.956Y79.797Z0F1200
G1 X52.414Y80.075Z0F1200
G0 Z1.5F500
G0 X53.946Y79.674Z1.5F1200
G1 Z0F500
G1 X54.542Y84.197Z0F1200
G1 X54.36Y82.81Z0F1200
G1 X54.636Y83.367Z0F1200
G1 X55.021Y83.924Z0F1200
G1 X55.385Y84.138Z0F1200
G1 X55.733Y84.197Z0F1200
G1 X55.937Y84.168Z0F1200
G0 Z1.5F500
G0 X66.433Y79.85Z1.5F1200
G1 Z0F500
G1 X67.052Y85.826Z0F1200
G1 X64.981Y81.836Z0F1200
G1 X67.215Z0F1200
G0 Z1.5F500
G0 X67.958Y80.4Z1.5F1200
G1 Z0F500
G1 X67.924Y79.911Z0F1200
G1 X68.189Z0F1200
G1 X68.239Y80.4Z0F1200
G1 X67.958Z0F1200
G0 Z1.5F500
G0 X70.828Y85.514Z1.5F1200
G1 Z0F500
G1 X70.249Y85.485Z0F1200
G1 X70.885Y85.884Z0F1200
G1 X70.282Y80.002Z0F1200
G1 X69.393Z0F1200
G1 X71.149Z0F1200
G0 Z1.5F500
G0 X73.665Y85.514Z1.5F1200
G1 Z0F500
G1 X73.085Y85.485Z0F1200
G1 X73.721Y85.884Z0F1200
G1 X73.119Y80.002Z0F1200
G1 X72.23Z0F1200
G1 X73.986Z0F1200
G0 Z1.5F500
G0 X75.033Y80.4Z1.5F1200
G1 Z0F500
G1 X74.999Y79.911Z0F1200
G1 X75.263Z0F1200
G1 X75.314Y80.4Z0F1200
G1 X75.033Z0F1200
G0 Z1.5F500
G0 X77.903Y85.514Z1.5F1200
G1 Z0F500
G1 X77.323Y85.485Z0F1200
G1 X77.959Y85.884Z0F1200
G1 X77.357Y80.002Z0F1200
G1 X76.468Z0F1200
G1 X78.224Z0F1200
G0 Z1.5F500
G0 X79.22Y80.431Z1.5F1200
G1 Z0F500
G1 X79.395Y80.094Z0F1200
G1 X79.676Y79.911Z0F1200
G1 X80.014Y79.85Z0F1200
G1 X80.408Y80.155Z0F1200
G1 X80.796Y80.737Z0F1200
G1 X81.077Y81.622Z0F1200
G1 X81.274Y82.702Z0F1200
G1 X81.381Y83.714Z0F1200
G1 X81.364Y84.658Z0F1200
G1 X81.218Y85.397Z0F1200
G1 X80.937Y85.826Z0F1200
G1 X80.548Y85.952Z0F1200
G1 X80.121Y85.699Z0F1200
G1 X79.839Y85.271Z0F1200
G1 X79.625Y84.726Z0F1200
G1 X79.518Y84.172Z0F1200
G1 X79.485Y83.559Z0F1200
G1 X79.608Y82.916Z0F1200
G1 X79.929Y82.517Z0F1200
G1 X80.334Y82.42Z0F1200
G1 X80.847Y82.761Z0F1200
G1 X81.167Y83.218Z0F1200
G1 X81.381Y83.617Z0F1200
G0 Z1.5F500
G0 X82.749Y79.88Z1.5F1200
G1 Z0F500
G1 X82.997Y81.506Z0F1200
G1 X83.244Y82.673Z0F1200
G1 X83.56Y83.685Z0F1200
G1 X83.863Y84.473Z0F1200
G1 X84.201Y85.213Z0F1200
G1 X84.539Y85.855Z0F1200
G1 X82.496Z0F1200
G0 Z1.5F500
G0 X84.75Y80.645Z1.5F1200
G1 Z0F500
G1 X84.927Y80.309Z0F1200
G1 X85.158Y80.064Z0F1200
G1 X85.422Y79.88Z0F1200
G1 X85.687Y79.85Z0F1200
G1 X86.098Y80.033Z0F1200
G1 X86.436Y80.431Z0F1200
G1 X86.717Y81.009Z0F1200
G1 X86.875Y81.69Z0F1200
G1 X86.914Y82.488Z0F1200
G1 X86.773Y83.101Z0F1200
G1 X86.419Y83.5Z0F1200
G1 X86.008Y83.559Z0F1200
G1 X85.687Y83.432Z0F1200
G1 X85.372Y83.16Z0F1200
G1 X85.332Y83.247Z0F1200
G1 X85.726Y85.826Z0F1200
G1 X87.178Z0F1200
G0 Z1.5F500
G0 X91.361Y81.35Z1.5F1200
G1 Z0F500
G1 X91.682Y80.968Z0F1200
G1 X91.977Y80.749Z0F1200
G1 X92.378Y80.639Z0F1200
G1 X92.86Y80.612Z0F1200
G1 X93.429Y80.886Z0F1200
G1 X93.831Y81.298Z0F1200
G1 X94.038Y81.846Z0F1200
G1 X94.085Y82.333Z0F1200
G1 X93.938Y82.828Z0F1200
G1 X93.496Y83.237Z0F1200
G1 X92.713Y83.733Z0F1200
G1 X92.271Y84.141Z0F1200
G1 X92.057Y84.585Z0F1200
G1 X92.144Y85.132Z0F1200
G1 X92.398Y85.706Z0F1200
G1 X92.9Y86.089Z0F1200
G1 X93.389Y86.176Z0F1200
G1 X93.831Y86.115Z0F1200
G1 X94.125Y85.898Z0F1200
G1 X94.4Y85.593Z0F1200
G0 Z1.5F500
G0 X97.205Y81.05Z1.5F1200
G1 Z0F500
G1 X96.803Y80.721Z0F1200
G1 X96.301Y80.584Z0F1200
G1 X95.853Y80.667Z0F1200
G1 X95.431Y81.077Z0F1200
G1 X95.223Y81.655Z0F1200
G1 X95.203Y82.333Z0F1200
G1 X95.31Y83.046Z0F1200
G1 X95.558Y83.707Z0F1200
G1 X95.96Y84.228Z0F1200
G1 X96.402Y84.524Z0F1200
G1 X96.87Y84.611Z0F1200
G1 X97.225Y84.524Z0F1200
G1 X97.479Y84.367Z0F1200
G1 X97.54Y84.202Z0F1200
G0 Z1.5F500
G0 X98.383Y80.612Z1.5F1200
G1 Z0F500
G1 X99.227Y86.637Z0F1200
G1 X98.805Y83.594Z0F1200
G1 X99.16Y84.037Z0F1200
G1 X99.481Y84.367Z0F1200
G1 X99.923Y84.585Z0F1200
G1 X100.324Y84.637Z0F1200
G1 X100.746Y84.307Z0F1200
G1 X100.873Y83.924Z0F1200
G1 X100.847Y83.298Z0F1200
G1 X100.492Y80.584Z0F1200
G0 Z1.5F500
G0 X103.169Z1.5F1200
G1 Z0F500
G1 X103.19Z0F1200
G1 X103.631Y80.721Z0F1200
G1 X104.073Y81.077Z0F1200
G1 X104.388Y81.629Z0F1200
G1 X104.602Y82.229Z0F1200
G1 X104.682Y82.802Z0F1200
G1 Y83.324Z0F1200
G1 X104.622Y83.785Z0F1200
G1 X104.475Y84.141Z0F1200
G1 X104.2Y84.472Z0F1200
G1 X103.906Y84.611Z0F1200
G1 X103.631Y84.637Z0F1200
G1 X103.27Y84.559Z0F1200
G1 X102.915Y84.307Z0F1200
G1 X102.594Y83.898Z0F1200
G1 X102.386Y83.515Z0F1200
G1 X102.179Y82.941Z0F1200
G1 X102.132Y82.498Z0F1200
G1 X102.092Y81.985Z0F1200
G1 X102.132Y81.516Z0F1200
G1 X102.326Y81.077Z0F1200
G1 X102.574Y80.776Z0F1200
G1 X102.868Y80.612Z0F1200
G1 X103.169Y80.584Z0F1200
G0 Z1.5F500
G0 X103.022Y86.524Z1.5F1200
G1 Z0F500
G1 X102.982Y86.089Z0F1200
G1 X103.297Z0F1200
G1 X103.364Y86.524Z0F1200
G1 X103.022Z0F1200
G0 Z1.5F500
G0 X104.656Z1.5F1200
G1 Z0F500
G1 X104.615Y86.089Z0F1200
G1 X104.93Z0F1200
G1 X104.997Y86.524Z0F1200
G1 X104.656Z0F1200
G0 Z1.5F500
G0 X105.847Y80.557Z1.5F1200
G1 Z0F500
G1 X106.396Y84.611Z0F1200
G1 X106.269Y83.628Z0F1200
G1 X106.604Y84.011Z0F1200
G1 X106.925Y84.333Z0F1200
G1 X107.153Y84.498Z0F1200
G1 X107.494Y84.611Z0F1200
G1 X107.702Y84.637Z0F1200
G1 X108.016Y84.524Z0F1200
G1 X108.163Y84.367Z0F1200
G1 X108.291Y84.089Z0F1200
G1 X108.358Y83.707Z0F1200
G1 X107.916Y80.557Z0F1200
G0 Z1.5F500
G0 X109.623Y82.724Z1.5F1200
G1 Z0F500
G1 X111.946Z0F1200
G1 X112.006Y83.211Z0F1200
G1 X111.986Y83.846Z0F1200
G1 X111.752Y84.333Z0F1200
G1 X111.457Y84.611Z0F1200
G1 X111.015Y84.637Z0F1200
G1 X110.553Y84.472Z0F1200
G1 X110.132Y84.063Z0F1200
G1 X109.897Y83.654Z0F1200
G1 X109.67Y83.133Z0F1200
G1 X109.563Y82.585Z0F1200
G1 Y81.924Z0F1200
G1 X109.67Y81.324Z0F1200
G1 X109.984Y80.83Z0F1200
G1 X110.319Y80.612Z0F1200
G1 X110.761Y80.557Z0F1200
G1 X111.142Y80.694Z0F1200
G1 X111.564Y80.941Z0F1200
G0 Z1.5F500
G0 X113.271Y80.776Z1.5F1200
G1 Z0F500
G1 X112.89Y80.393Z0F1200
G1 X112.639Y79.927Z0F1200
G1 X112.534Y79.438Z0F1200
G1 X112.742Y79.02Z0F1200
G1 X113.211Y78.751Z0F1200
G1 X113.76Y78.664Z0F1200
G1 X114.302Y78.829Z0F1200
G1 X114.851Y79.272Z0F1200
G1 X115.106Y79.681Z0F1200
G1 X115.146Y80.146Z0F1200
G1 X115.025Y80.584Z0F1200
G1 X114.577Y80.749Z0F1200
G1 X113.291Z0F1200
G1 X113.064Y80.995Z0F1200
G1 X112.977Y81.377Z0F1200
G1 X113.084Y81.733Z0F1200
G1 X113.526Y82.255Z0F1200
G1 X113.733Y82.063Z0F1200
G1 X114.075Y81.985Z0F1200
G1 X114.537Y82.176Z0F1200
G1 X114.898Y82.559Z0F1200
G1 X115.126Y83.02Z0F1200
G1 X115.193Y83.567Z0F1200
G1 X115.106Y84.063Z0F1200
G1 X114.998Y84.28Z0F1200
G1 X114.751Y84.524Z0F1200
G1 X115.762Z0F1200
G1 X114.731Z0F1200
G1 X114.429Y84.611Z0F1200
G1 X113.947Y84.559Z0F1200
G1 X113.566Y84.202Z0F1200
G1 X113.291Y83.707Z0F1200
G1 X113.191Y83.159Z0F1200
G1 X113.231Y82.724Z0F1200
G1 X113.358Y82.446Z0F1200
G1 X113.506Y82.229Z0F1200
G0 Z1.5F500
G0 X116.685Y80.776Z1.5F1200
G1 Z0F500
G1 X116.304Y80.393Z0F1200
G1 X116.053Y79.927Z0F1200
G1 X115.948Y79.438Z0F1200
G1 X116.157Y79.02Z0F1200
G1 X116.625Y78.751Z0F1200
G1 X117.174Y78.664Z0F1200
G1 X117.716Y78.829Z0F1200
G1 X118.265Y79.272Z0F1200
G1 X118.52Y79.681Z0F1200
G1 X118.56Y80.146Z0F1200
G1 X118.439Y80.584Z0F1200
G1 X117.991Y80.749Z0F1200
G1 X116.705Z0F1200
G1 X116.478Y80.995Z0F1200
G1 X116.391Y81.377Z0F1200
G1 X116.498Y81.733Z0F1200
G1 X116.94Y82.255Z0F1200
G1 X117.147Y82.063Z0F1200
G1 X117.489Y81.985Z0F1200
G1 X117.951Y82.176Z0F1200
G1 X118.312Y82.559Z0F1200
G1 X118.54Y83.02Z0F1200
G1 X118.607Y83.567Z0F1200
G1 X118.52Y84.063Z0F1200
G1 X118.413Y84.28Z0F1200
G1 X118.165Y84.524Z0F1200
G1 X119.176Z0F1200
G1 X118.145Z0F1200
G1 X117.844Y84.611Z0F1200
G1 X117.362Y84.559Z0F1200
G1 X116.98Y84.202Z0F1200
G1 X116.705Y83.707Z0F1200
G1 X116.605Y83.159Z0F1200
G1 X116.645Y82.724Z0F1200
G1 X116.772Y82.446Z0F1200
G1 X116.92Y82.229Z0F1200
G0 Z1.5F500
G0 X119.468Y81.105Z1.5F1200
G1 Z0F500
G1 X119.805Y80.776Z0F1200
G1 X120.187Y80.612Z0F1200
G1 X120.521Y80.557Z0F1200
G1 X120.963Y80.749Z0F1200
G1 X121.345Y81.077Z0F1200
G1 X121.492Y81.568Z0F1200
G1 X121.472Y82.063Z0F1200
G1 X121.157Y82.472Z0F1200
G1 X120.669Y82.75Z0F1200
G1 X120.227Y83.02Z0F1200
G1 X119.992Y83.376Z0F1200
G1 Y83.785Z0F1200
G1 X120.166Y84.176Z0F1200
G1 X120.541Y84.559Z0F1200
G1 X120.983Y84.637Z0F1200
G1 X121.385Y84.524Z0F1200
G1 X121.706Y84.254Z0F1200
G0 Z1.5F500
G0 X123.828Y80.749Z1.5F1200
G1 Z0F500
G1 X123.581Y80.612Z0F1200
G1 X123.279Z0F1200
G1 X123.005Y80.721Z0F1200
G1 X122.837Y81.077Z0F1200
G1 X122.884Y81.681Z0F1200
G1 X123.279Y84.498Z0F1200
G1 X122.65Z0F1200
G1 X124.27Z0F1200
G1 X123.279Z0F1200
G1 X123.453Y85.732Z0F1200
G0 Z1.5F500
G0 X124.906Y80.584Z1.5F1200
G1 Z0F500
G1 X125.455Y84.611Z0F1200
G1 X125.288Y83.376Z0F1200
G1 X125.542Y83.872Z0F1200
G1 X125.897Y84.367Z0F1200
G1 X126.232Y84.559Z0F1200
G1 X126.553Y84.611Z0F1200
G1 X126.74Y84.585Z0F1200
G0 Z1.5F500
G0 X127.035Y81.05Z1.5F1200
G1 Z0F500
G1 X126.995Y80.612Z0F1200
G1 X127.309Z0F1200
G1 X127.369Y81.05Z0F1200
G1 X127.035Z0F1200
G0 Z1.5F500
G0 X131.761Y85.428Z1.5F1200
G1 Z0F500
G1 X132.163Y85.758Z0F1200
G1 X132.625Y86.011Z0F1200
G1 X132.979Z0F1200
G1 X133.341Y85.872Z0F1200
G1 X133.615Y85.541Z0F1200
G1 X133.723Y85.106Z0F1200
G1 X133.702Y84.585Z0F1200
G1 X133.528Y84.115Z0F1200
G1 X133.133Y83.759Z0F1200
G1 X132.685Y83.489Z0F1200
G1 X132.35Y83.402Z0F1200
G1 X132.076Z0F1200
G1 X132.39Z0F1200
G1 X132.705Y83.35Z0F1200
G1 X133.046Y83.185Z0F1200
G1 X133.341Y82.828Z0F1200
G1 X133.468Y82.498Z0F1200
G1 X133.488Y82.116Z0F1200
G1 X133.401Y81.707Z0F1200
G1 X133.301Y81.377Z0F1200
G1 X133.046Y80.995Z0F1200
G1 X132.705Y80.749Z0F1200
G1 X132.31Y80.612Z0F1200
G1 X131.928Z0F1200
G1 X131.547Y80.749Z0F1200
G1 X131.212Y81.023Z0F1200
G1 X131.001Y81.298Z0F1200
G0 Z1.5F500
G0 X136.126Y80.557Z1.5F1200
G1 Z0F500
G1 X136.862Y85.898Z0F1200
G1 X134.399Y82.333Z0F1200
G1 X137.056Z0F1200
G0 Z1.5F500
G0 X144.772Y78.817Z1.5F1200
G1 Z0F500
G1 X145.009Y79.214Z0F1200
G1 X145.29Y79.608Z0F1200
G1 X145.599Y80Z0F1200
G1 X145.921Y80.393Z0F1200
G1 X146.241Y80.788Z0F1200
G1 X146.544Y81.186Z0F1200
G1 X146.815Y81.589Z0F1200
G1 X147.039Y81.998Z0F1200
G1 X147.55Y82.681Z0F1200
G1 X148.062Y83.408Z0F1200
G1 X148.334Y83.762Z0F1200
G1 X148.624Y84.094Z0F1200
G1 X148.939Y84.395Z0F1200
G1 X149.285Y84.653Z0F1200
G1 X149.565Y85.001Z0F1200
G1 X149.857Y85.308Z0F1200
G1 X149.997Y85.437Z0F1200
G1 X150.129Y85.544Z0F1200
G1 X150.248Y85.626Z0F1200
G1 X150.35Y85.679Z0F1200
G1 X150.43Y85.699Z0F1200
G1 X150.486Y85.682Z0F1200
G1 X150.513Y85.625Z0F1200
G1 X150.507Y85.524Z0F1200
G1 X150.463Y85.374Z0F1200
G1 X150.379Y85.172Z0F1200
G1 X150.249Y84.915Z0F1200
G1 X150.071Y84.598Z0F1200
G1 X149.822Y84.172Z0F1200
G1 X149.585Y83.803Z0F1200
G1 X149.358Y83.475Z0F1200
G1 X149.14Y83.175Z0F1200
G1 X148.733Y82.6Z0F1200
G1 X148.358Y81.959Z0F1200
G1 X148.188Y81.78Z0F1200
G1 X148.058Y81.616Z0F1200
G1 X147.967Y81.468Z0F1200
G1 X147.913Y81.338Z0F1200
G1 X147.894Y81.226Z0F1200
G1 X147.907Y81.133Z0F1200
G1 X147.952Y81.06Z0F1200
G1 X148.027Y81.009Z0F1200
G1 X148.128Y80.979Z0F1200
G1 X148.255Y80.972Z0F1200
G1 X148.406Y80.99Z0F1200
G1 X148.578Y81.032Z0F1200
G1 X148.77Y81.1Z0F1200
G1 X148.98Y81.195Z0F1200
G1 X149.206Y81.318Z0F1200
G1 X149.447Y81.47Z0F1200
G1 X149.801Y81.858Z0F1200
G1 X150.184Y82.296Z0F1200
G1 X150.262Y82.374Z0F1200
G1 X150.329Y82.429Z0F1200
G1 X150.38Y82.455Z0F1200
G1 X150.414Y82.449Z0F1200
G1 X150.426Y82.403Z0F1200
G1 X150.415Y82.313Z0F1200
G1 X150.377Y82.175Z0F1200
G1 X150.31Y81.982Z0F1200
G1 X150.188Y81.72Z0F1200
G1 X150.107Y81.379Z0F1200
G1 X150.075Y81.012Z0F1200
G1 X150.094Y80.674Z0F1200
G1 X150.126Y80.532Z0F1200
G1 X150.172Y80.418Z0F1200
G1 X150.234Y80.338Z0F1200
G1 X150.312Y80.3Z0F1200
G1 X150.408Y80.309Z0F1200
G1 X150.521Y80.372Z0F1200
G1 X150.653Y80.497Z0F1200
G1 X150.803Y80.69Z0F1200
G1 X151.178Y81.365Z0F1200
G0 Z1.5F500
G0 X152.551Y80.096Z1.5F1200
G1 Z0F500
G1 X152.305Y79.829Z0F1200
G1 X152.133Y79.62Z0F1200
G1 X152.029Y79.465Z0F1200
G1 X151.985Y79.36Z0F1200
G1 X151.997Y79.301Z0F1200
G1 X152.057Y79.284Z0F1200
G1 X152.158Y79.305Z0F1200
G1 X152.296Y79.361Z0F1200
G1 X152.462Y79.446Z0F1200
G1 X152.651Y79.557Z0F1200
G1 X152.857Y79.69Z0F1200
G1 X153.072Y79.842Z0F1200
G1 X153.507Y80.182Z0F1200
G1 X153.905Y80.545Z0F1200
G1 X154.411Y81.03Z0F1200
G1 X154.859Y81.479Z0F1200
G1 X155.07Y81.713Z0F1200
G1 X155.278Y81.968Z0F1200
G1 X155.486Y82.251Z0F1200
G1 X155.698Y82.573Z0F1200
G1 X156.148Y83.053Z0F1200
G1 X156.602Y83.613Z0F1200
G1 X157.125Y84.291Z0F1200
G1 X157.433Y84.686Z0F1200
G1 X157.782Y85.126Z0F1200
G1 X158.084Y85.409Z0F1200
G1 X158.478Y85.716Z0F1200
G1 X158.936Y86.036Z0F1200
G1 X159.427Y86.362Z0F1200
G1 X159.921Y86.685Z0F1200
G1 X160.389Y86.996Z0F1200
G1 X160.8Y87.286Z0F1200
G1 X161.124Y87.547Z0F1200
G1 X161.115Y87.385Z0F1200
G1 X161.062Y87.21Z0F1200
G1 X160.97Y87.023Z0F1200
G1 X160.847Y86.828Z0F1200
G1 X160.524Y86.416Z0F1200
G1 X160.138Y85.99Z0F1200
G1 X159.732Y85.565Z0F1200
G1 X159.351Y85.156Z0F1200
G1 X159.183Y84.962Z0F1200
G1 X159.037Y84.778Z0F1200
G1 X158.92Y84.605Z0F1200
G1 X158.836Y84.446Z0F1200
G1 X158.193Y83.614Z0F1200
G1 X157.514Y82.864Z0F1200
G1 X157.2Y82.485Z0F1200
G1 X156.927Y82.085Z0F1200
G1 X156.709Y81.649Z0F1200
G1 X156.562Y81.163Z0F1200
G1 X156.683Y81.022Z0F1200
G1 X156.817Y80.918Z0F1200
G1 X156.962Y80.847Z0F1200
G1 X157.116Y80.807Z0F1200
G1 X157.448Z0F1200
G1 X157.801Y80.887Z0F1200
G1 X158.522Y81.197Z0F1200
G1 X159.185Y81.531Z0F1200
G1 X159.387Y81.642Z0F1200
G1 X159.626Y81.814Z0F1200
G1 X159.878Y82.021Z0F1200
G1 X160.122Y82.238Z0F1200
G1 X160.334Y82.439Z0F1200
G1 X160.494Y82.597Z0F1200
G1 X160.578Y82.687Z0F1200
G1 X160.585Y82.698Z0F1200
G1 X160.565Y82.682Z0F1200
G1 X160.499Y82.486Z0F1200
G1 X160.45Y82.31Z0F1200
G1 X160.416Y82.155Z0F1200
G1 X160.396Y82.019Z0F1200
G1 X160.399Y81.801Z0F1200
G1 X160.451Y81.649Z0F1200
G1 X160.547Y81.558Z0F1200
G1 X160.679Y81.519Z0F1200
G1 X160.843Y81.526Z0F1200
G1 X161.03Y81.572Z0F1200
G1 X161.455Y81.753Z0F1200
G1 X161.902Y82.007Z0F1200
G1 X162.322Y82.277Z0F1200
G1 X162.666Y82.51Z0F1200
G1 X162.761Y82.473Z0F1200
G1 X162.792Y82.408Z0F1200
G1 X162.768Y82.321Z0F1200
G1 X162.699Y82.214Z0F1200
G1 X162.468Y81.957Z0F1200
G1 X162.181Y81.671Z0F1200
G1 X162.041Y81.528Z0F1200
G1 X161.917Y81.389Z0F1200
G1 X161.819Y81.258Z0F1200
G1 X161.758Y81.141Z0F1200
G1 X161.744Y81.04Z0F1200
G1 X161.786Y80.96Z0F1200
G1 X161.895Y80.905Z0F1200
G1 X162.08Y80.879Z0F1200
G1 X162.289Y80.896Z0F1200
G1 X162.438Y80.871Z0F1200
G1 X162.475Y80.824Z0F1200
G1 X162.479Y80.743Z0F1200
G1 X162.444Y80.621Z0F1200
G1 X162.365Y80.451Z0F1200
G1 X162.192Y80.232Z0F1200
G1 X162.031Y79.969Z0F1200
G1 X161.907Y79.703Z0F1200
G1 X161.845Y79.478Z0F1200
G1 Y79.393Z0F1200
G1 X161.873Y79.335Z0F1200
G1 X161.929Y79.308Z0F1200
G1 X162.017Y79.318Z0F1200
G1 X162.14Y79.37Z0F1200
G1 X162.302Y79.469Z0F1200
G1 X162.506Y79.62Z0F1200
G1 X162.754Y79.83Z0F1200
G1 X163.096Y80.049Z0F1200
G1 X163.376Y80.283Z0F1200
G1 X163.62Y80.532Z0F1200
G1 X164.107Y81.083Z0F1200
G1 X164.402Y81.389Z0F1200
G1 X164.767Y81.715Z0F1200
G1 X165.227Y82.065Z0F1200
G1 X165.822Y82.772Z0F1200
G1 X166.408Y83.431Z0F1200
G1 X166.982Y84.036Z0F1200
G1 X167.54Y84.585Z0F1200
G1 X168.081Y85.071Z0F1200
G1 X168.599Y85.491Z0F1200
G1 X169.093Y85.84Z0F1200
G1 X169.558Y86.114Z0F1200
G1 X169.852Y86.292Z0F1200
G1 X170.124Y86.424Z0F1200
G1 X170.376Y86.521Z0F1200
G1 X170.606Y86.591Z0F1200
G1 X171Y86.688Z0F1200
G1 X171.304Y86.789Z0F1200
G1 X171.41Y86.812Z0F1200
G1 X171.49Y86.786Z0F1200
G1 X171.546Y86.717Z0F1200
G1 X171.58Y86.61Z0F1200
G1 X171.594Y86.471Z0F1200
G1 X171.591Y86.305Z0F1200
G1 X171.573Y86.119Z0F1200
G1 X171.541Y85.918Z0F1200
G1 X171.446Y85.495Z0F1200
G1 X171.322Y85.081Z0F1200
G1 X171.255Y84.892Z0F1200
G1 X171.187Y84.722Z0F1200
G1 X171.121Y84.578Z0F1200
G1 X171.058Y84.465Z0F1200
G1 X170.638Y83.739Z0F1200
G1 X170.246Y82.998Z0F1200
G1 X170.073Y82.621Z0F1200
G1 X169.921Y82.237Z0F1200
G1 X169.795Y81.847Z0F1200
G1 X169.7Y81.45Z0F1200
G1 X169.767Y81.339Z0F1200
G1 X169.874Y81.291Z0F1200
G1 X170.014Y81.3Z0F1200
G1 X170.184Y81.359Z0F1200
G1 X170.379Y81.458Z0F1200
G1 X170.593Y81.592Z0F1200
G1 X170.824Y81.751Z0F1200
G1 X171.065Y81.929Z0F1200
G1 X171.56Y82.31Z0F1200
G1 X172.043Y82.671Z0F1200
G1 X172.268Y82.826Z0F1200
G1 X172.476Y82.953Z0F1200
G1 X172.662Y83.044Z0F1200
G1 X172.822Y83.093Z0F1200
G1 X172.873Y83.27Z0F1200
G1 X172.965Y83.46Z0F1200
G1 X173.079Y83.637Z0F1200
G1 X173.196Y83.775Z0F1200
G1 X173.295Y83.85Z0F1200
G1 X173.357Y83.836Z0F1200
G1 X173.368Y83.788Z0F1200
G1 X173.363Y83.708Z0F1200
G1 X173.339Y83.594Z0F1200
G1 X173.293Y83.441Z0F1200
G1 X172.914Y82.864Z0F1200
G1 X172.499Y82.341Z0F1200
G1 X172.362Y82.091Z0F1200
G1 X172.317Y81.844Z0F1200
G1 X172.34Y81.721Z0F1200
G1 X172.399Y81.597Z0F1200
G1 X172.498Y81.472Z0F1200
G1 X172.641Y81.346Z0F1200
G1 X172.774Y81.175Z0F1200
G1 X172.895Y80.997Z0F1200
G0 Z1.5F500
G0 X176.362Y85.311Z1.5F1200
G1 Z0F500
G1 X175.897Y85.292Z0F1200
G1 X175.477Y85.278Z0F1200
G1 X175.094Y85.267Z0F1200
G1 X174.051Y85.244Z0F1200
G1 X173.34Y85.222Z0F1200
G1 X172.948Y85.206Z0F1200
G1 X172.517Y85.184Z0F1200
G1 X172.037Y85.155Z0F1200
G1 X171.497Y85.119Z0F1200
G1 X170.887Y85.073Z0F1200
G1 X170.195Y85.017Z0F1200
G1 X169.412Y84.949Z0F1200
G1 X168.527Y84.868Z0F1200
G1 X167.379Y84.86Z0F1200
G1 X166.21Y84.806Z0F1200
G1 X165.04Y84.724Z0F1200
G1 X163.892Y84.63Z0F1200
G1 X163.791Y84.551Z0F1200
G1 X163.723Y84.485Z0F1200
G1 X163.687Y84.431Z0F1200
G1 X163.677Y84.387Z0F1200
G1 X163.726Y84.325Z0F1200
G1 X163.843Y84.289Z0F1200
G1 X164.171Y84.254Z0F1200
G1 X164.443Y84.201Z0F1200
G0 Z1.5F500
G0 X9.082Y70.215Z1.5F1200
G1 Z0F500
G1 X9.996Z0F1200
G1 X10.501Y70.446Z0F1200
G1 X11.082Y70.973Z0F1200
G1 X14.531Y77.045Z0F1200
G1 X12.672Z0F1200
G1 X11.522Y76.616Z0F1200
G1 X10.845Y75.883Z0F1200
G1 X10.609Y75.192Z0F1200
G1 X10.534Y74.365Z0F1200
G0 Z1.5F500
G0 X14.671Y77.076Z1.5F1200
G1 Z0F500
G1 X14.531Y73.088Z0F1200
G1 X12.36Z0F1200
G1 X14.531Z0F1200
G1 X14.563Y71.466Z0F1200
G1 X14.703Y70.644Z0F1200
G1 X15.036Y70.248Z0F1200
G1 X15.305Y70.182Z0F1200
G1 X16.025Y70.544Z0F1200
G0 Z1.5F500
G0 X19.85Y77.997Z1.5F1200
G1 Z0F500
G1 X19.345Y78.091Z0F1200
G1 X18.561Y77.798Z0F1200
G1 X17.887Y77.003Z0F1200
G1 X17.649Y76.019Z0F1200
G1 X16.905Y71.236Z0F1200
G1 X16.804Y70.149Z0F1200
G1 X17.616Y70.841Z0F1200
G1 X18.668Y72.063Z0F1200
G1 X19.205Y72.785Z0F1200
G0 Z1.5F500
G0 X21.913Y78.06Z1.5F1200
G1 Z0F500
G1 X21Y77.966Z0F1200
G1 X20.153Y77.275Z0F1200
G1 X19.747Y76.375Z0F1200
G1 X19.239Y72.063Z0F1200
G1 X19.104Y71.105Z0F1200
G1 X19.036Y70.578Z0F1200
G1 X19.172Y70.149Z0F1200
G1 X19.849Y70.248Z0F1200
G1 X20.935Y70.973Z0F1200
G1 X21.473Y72.126Z0F1200
G1 X21.709Y73.151Z0F1200
G1 X21.741Y74.041Z0F1200
G1 X21.677Y74.763Z0F1200
G1 X20.764Y73.873Z0F1200
G1 X19.815Y72.555Z0F1200
G1 X19.138Y71.138Z0F1200
G0 Z1.5F500
G0 X23.333Y72.356Z1.5F1200
G1 Z0F500
G1 X24.079Y72.816Z0F1200
G1 X24.997Y73.706Z0F1200
G1 X25.33Y74.166Z0F1200
G1 X25.427Y74.669Z0F1200
G1 X25.234Y74.868Z0F1200
G1 X24.793Y74.899Z0F1200
G1 X24.079Y74.439Z0F1200
G1 X23.536Y73.675Z0F1200
G1 X23.232Y72.555Z0F1200
G1 X23.096Y71.665Z0F1200
G1 X23.266Y70.941Z0F1200
G1 X23.638Y70.413Z0F1200
G1 X23.976Y70.083Z0F1200
G1 X25.126Y71.236Z0F1200
G1 X25.868Y72.063Z0F1200
G1 X26.383Y72.785Z0F1200
G0 Z1.5F500
G0 X25.874Y74.166Z1.5F1200
G1 Z0F500
G1 X26.483Y74.669Z0F1200
G1 X26.822Y74.899Z0F1200
G1 X26.483Y73.12Z0F1200
G1 X26.213Y71.498Z0F1200
G1 X26.178Y70.71Z0F1200
G1 Y70.38Z0F1200
G1 X26.483Y71.435Z0F1200
G1 X26.957Y72.461Z0F1200
G1 X27.363Y73.507Z0F1200
G1 X27.866Y74.334Z0F1200
G1 X28.146Y74.669Z0F1200
G1 X28.511Y74.826Z0F1200
G1 X28.952Y74.794Z0F1200
G0 Z1.5F500
G0 X29.192Y75.391Z1.5F1200
G1 Z0F500
G1 X29.158Y74.763Z0F1200
G1 X28.38Y74.7Z0F1200
G1 X29.158Y74.794Z0F1200
G1 X30.585Y74.826Z0F1200
G1 X29.158Y74.794Z0F1200
G1 X28.955Y72.984Z0F1200
G1 X28.752Y71.77Z0F1200
G1 X28.549Y71.039Z0F1200
G1 X28.311Y70.149Z0F1200
G1 X29.09Y70.775Z0F1200
G1 X30.069Y71.833Z0F1200
G1 X30.778Y72.785Z0F1200
G0 Z1.5F500
G0 X38.741Y70.743Z1.5F1200
G1 Z0F500
G1 X38.096Y70.38Z0F1200
G1 X36.807Y70.446Z0F1200
G1 X36.506Y70.248Z0F1200
G1 X36.882Y70.677Z0F1200
G1 X37.419Y71.403Z0F1200
G1 X38.3Y76.343Z0F1200
G1 X38.537Y77.045Z0F1200
G0 Z1.5F500
G0 X35.389Y73.842Z1.5F1200
G1 Z0F500
G1 X35.457Y74.794Z0F1200
G1 X35.964Y75.883Z0F1200
G1 X36.678Y76.574Z0F1200
G1 X37.527Y76.94Z0F1200
G1 X38.44Y77.045Z0F1200
G1 X39.214Y77.076Z0F1200
G1 X40.267Y76.909Z0F1200
G1 X40.869Y76.511Z0F1200
G1 X41.212Y75.757Z0F1200
G1 X41.105Y75.056Z0F1200
G1 X40.632Y74.439Z0F1200
G1 X40.063Y74.041Z0F1200
G1 X39.558Y73.936Z0F1200
G1 X38.881Z0F1200
G1 X39.859Y72.293Z0F1200
G1 X41.18Y70.347Z0F1200
G1 X42.158Y69.16Z0F1200
G0 Z1.5F500
G0 X42.84Y70.149Z1.5F1200
G1 Z0F500
G1 X42.976Z0F1200
G1 X43.587Y70.446Z0F1200
G1 X44.157Y71.073Z0F1200
G1 X44.673Y72Z0F1200
G1 X44.941Y72.952Z0F1200
G1 X44.877Y73.873Z0F1200
G1 X44.565Y74.365Z0F1200
G1 X44.329Y74.826Z0F1200
G1 X43.314Y74.365Z0F1200
G1 X42.672Y73.549Z0F1200
G1 X42.232Y72.618Z0F1200
G1 X42.164Y71.801Z0F1200
G1 X42.299Y70.973Z0F1200
G1 X42.502Y70.578Z0F1200
G1 X42.84Y70.149Z0F1200
G0 Z1.5F500
G0 X43.047Y77.537Z1.5F1200
G1 Z0F500
G1 X42.675Y77.17Z0F1200
G1 X43.081Y76.741Z0F1200
G1 X43.458Y77.066Z0F1200
G1 X43.047Y77.537Z0F1200
G0 Z1.5F500
G0 X45.833Y77.421Z1.5F1200
G1 Z0F500
G1 X45.457Y77.066Z0F1200
G1 X45.865Y76.636Z0F1200
G1 X46.241Y76.961Z0F1200
G1 X45.833Y77.421Z0F1200
G0 Z1.5F500
G0 X48.455Y74.669Z1.5F1200
G1 Z0F500
G1 X47.821Y74.962Z0F1200
G1 X47.273Y74.868Z0F1200
G1 X46.736Y74.47Z0F1200
G1 X46.531Y73.978Z0F1200
G1 X46.736Y73.35Z0F1200
G1 X47.241Y72.754Z0F1200
G1 X47.681Y72.157Z0F1200
G1 X47.95Y71.571Z0F1200
G1 X47.918Y71.039Z0F1200
G1 X47.509Y70.544Z0F1200
G1 X46.94Y70.215Z0F1200
G1 X46.463Y70.083Z0F1200
G1 X45.854Y70.347Z0F1200
G0 Z1.5F500
G0 X49.373Y75.391Z1.5F1200
G1 Z0F500
G1 X49.338Y74.763Z0F1200
G1 X48.56Y74.7Z0F1200
G1 X49.338Y74.794Z0F1200
G1 X50.765Y74.826Z0F1200
G1 X49.338Y74.794Z0F1200
G1 X49.135Y72.984Z0F1200
G1 X48.932Y71.77Z0F1200
G1 X48.729Y71.039Z0F1200
G1 X48.491Y70.149Z0F1200
G1 X49.271Y70.775Z0F1200
G1 X50.249Y71.833Z0F1200
G1 X50.959Y72.785Z0F1200
G0 Z1.5F500
G0 X50.662Y74.135Z1.5F1200
G1 Z0F500
G1 X51.204Y74.637Z0F1200
G1 X51.474Y74.763Z0F1200
G1 X51Y72Z0F1200
G1 X50.796Y71.039Z0F1200
G1 Y70.248Z0F1200
G1 X51.609Y70.941Z0F1200
G1 X52.248Y71.634Z0F1200
G1 X53.161Y72.785Z0F1200
G0 Z1.5F500
G0 X51.744Y76.773Z1.5F1200
G1 Z0F500
G1 Y76.218Z0F1200
G1 X51.643Y76.113Z0F1200
G0 Z1.5F500
G0 X64.571Y69.931Z1.5F1200
G1 Z0F500
G1 X65.044Y71.879Z0F1200
G1 X65.667Y73.548Z0F1200
G1 X66.166Y74.639Z0F1200
G1 X66.431Y75.287Z0F1200
G1 X65.252Y75.258Z0F1200
G1 X64.072Y75.405Z0F1200
G0 Z1.5F500
G0 X68.99Y71.941Z1.5F1200
G1 Z0F500
G1 X68.699Y71.601Z0F1200
G1 X69.014Y71.198Z0F1200
G1 X69.305Y71.507Z0F1200
G1 X68.99Y71.941Z0F1200
G0 Z1.5F500
G0 X72.91Y71.198Z1.5F1200
G1 Z0F500
G1 X72.179Y71.539Z0F1200
G1 X71.946Y71.879Z0F1200
G1 X71.863Y72.496Z0F1200
G1 X72.229Y73.43Z0F1200
G1 X73.674Y74.855Z0F1200
G1 X74.172Y75.651Z0F1200
G1 X74.272Y76.369Z0F1200
G1 X73.857Y76.772Z0F1200
G1 X73.151Y76.673Z0F1200
G1 X72.627Y76.31Z0F1200
G1 X72.362Y75.72Z0F1200
G1 X72.652Y74.884Z0F1200
G1 X73.724Y73.803Z0F1200
G1 X74.222Y73.115Z0F1200
G1 X74.322Y72.378Z0F1200
G1 X73.981Y71.631Z0F1200
G1 X73.516Y71.291Z0F1200
G1 X72.91Y71.198Z0F1200
G0 Z1.5F500
G0 X77.254Y71.941Z1.5F1200
G1 Z0F500
G1 X76.963Y71.601Z0F1200
G1 X77.279Y71.198Z0F1200
G1 X77.569Y71.507Z0F1200
G1 X77.254Y71.941Z0F1200
G0 Z1.5F500
G0 X80.651Y73.705Z1.5F1200
G1 Z0F500
G1 X81.174Y74.049Z0F1200
G1 X81.781Y74.137Z0F1200
G1 X82.279Y73.892Z0F1200
G1 X82.487Y73.4Z0F1200
G1 X82.536Y72.653Z0F1200
G1 X82.354Y72.005Z0F1200
G1 X81.905Y71.321Z0F1200
G1 X81.257Y71.074Z0F1200
G1 X80.551Y71.291Z0F1200
G1 X80.186Y71.755Z0F1200
G1 X79.97Y72.653Z0F1200
G1 X80.078Y73.734Z0F1200
G1 X80.443Y74.816Z0F1200
G1 X81.016Y75.749Z0F1200
G1 X81.756Y76.339Z0F1200
G1 X82.487Y76.585Z0F1200
G1 X83.109Y76.526Z0F1200
G0 Z1.5F500
G0 X85.601Y69.931Z1.5F1200
G1 Z0F500
G1 X86.075Y71.879Z0F1200
G1 X86.698Y73.548Z0F1200
G1 X87.196Y74.639Z0F1200
G1 X87.462Y75.287Z0F1200
G1 X86.282Y75.258Z0F1200
G1 X85.103Y75.405Z0F1200
G0 Z1.5F500
G0 X91.708Y73.01Z1.5F1200
G1 Z0F500
G1 X91.873Y74.141Z0F1200
G1 X92.227Y75.074Z0F1200
G1 X92.899Y75.768Z0F1200
G1 X93.718Y76.135Z0F1200
G1 X94.589Y76.205Z0F1200
G1 X95.348Y76.106Z0F1200
G1 X96.055Y75.729Z0F1200
G1 X96.244Y75.014Z0F1200
G1 X96.132Y74.479Z0F1200
G1 X95.813Y73.854Z0F1200
G1 X95.348Y73.487Z0F1200
G1 X94.917Y73.358Z0F1200
G1 X94.753Y73.387Z0F1200
G1 X95.425Y73.268Z0F1200
G1 X96.003Y72.891Z0F1200
G1 X96.27Y72.296Z0F1200
G1 X96.219Y71.453Z0F1200
G1 X95.891Y70.768Z0F1200
G1 X95.296Y70.202Z0F1200
G1 X94.615Y69.889Z0F1200
G1 X92.847Y69.858Z0F1200
G1 X92.606Y69.733Z0F1200
G1 X93.037Y70.295Z0F1200
G1 X93.365Y71.016Z0F1200
G1 X94.149Y76.106Z0F1200
G0 Z1.5F500
G0 X96.622Y73.546Z1.5F1200
G1 Z0F500
G1 X97.192Y74.012Z0F1200
G1 X97.355Y74.141Z0F1200
G1 X97.111Y72.891Z0F1200
G1 X97.002Y71.701Z0F1200
G1 X96.92Y70.987Z0F1200
G1 Y69.733Z0F1200
G1 X97.383Y70.233Z0F1200
G1 X98.003Y71.175Z0F1200
G1 X98.417Y72.048Z0F1200
G1 X98.848Y73.04Z0F1200
G1 X99.228Y74.042Z0F1200
G1 X98.96Y72.792Z0F1200
G1 X98.736Y71.512Z0F1200
G1 X98.607Y70.452Z0F1200
G1 X98.547Y69.701Z0F1200
G1 X99.202Y70.326Z0F1200
G1 X99.823Y71.205Z0F1200
G1 X100.452Y72.137Z0F1200
G0 Z1.5F500
G0 X100.399Y73.487Z1.5F1200
G1 Z0F500
G1 X100.915Y73.983Z0F1200
G1 X101.159Y74.171Z0F1200
G1 X101.024Y73.417Z0F1200
G1 X100.861Y72.108Z0F1200
G1 X100.698Y71.205Z0F1200
G1 X100.589Y70.358Z0F1200
G1 X100.535Y69.827Z0F1200
G1 X100.562Y69.67Z0F1200
G1 X100.535Y70.326Z0F1200
G1 X101.106Y71.235Z0F1200
G1 X101.538Y72.197Z0F1200
G1 X102.03Y73.01Z0F1200
G1 X102.547Y73.705Z0F1200
G1 X102.814Y74.072Z0F1200
G1 X102.952Z0F1200
G1 X103.03Y73.417Z0F1200
G1 X102.814Y72.197Z0F1200
G1 X102.625Y71.264Z0F1200
G1 X102.461Y70.545Z0F1200
G1 X102.323Y69.639Z0F1200
G1 X102.814Y70.108Z0F1200
G1 X103.521Y70.947Z0F1200
G1 X103.901Y71.572Z0F1200
G1 X104.28Y72.137Z0F1200
G0 Z1.5F500
G0 X108.384Y77.078Z1.5F1200
G1 Z0F500
G1 X107.729Z0F1200
G1 X107.134Y76.671Z0F1200
G1 X106.781Y75.987Z0F1200
G1 X106.591Y75.044Z0F1200
G1 X106.453Y73.893Z0F1200
G1 X106.375Y73.268Z0F1200
G1 X105.962Y72.356Z0F1200
G1 X105.392Y71.205Z0F1200
G1 X104.85Y70.326Z0F1200
G1 X104.28Y69.733Z0F1200
G1 X104.172Y70.887Z0F1200
G1 X104.307Y72.266Z0F1200
G1 X104.634Y73.139Z0F1200
G1 X104.905Y73.576Z0F1200
G1 X105.315Y73.824Z0F1200
G1 X105.746Y73.953Z0F1200
G1 X106.177Y73.893Z0F1200
G1 X106.375Y73.635Z0F1200
G1 X106.263Y72.485Z0F1200
G1 X106.151Y71.106Z0F1200
G1 X105.91Y69.67Z0F1200
G1 X106.531Y70.233Z0F1200
G1 X107.263Y71.264Z0F1200
G1 X107.841Y72.137Z0F1200
G0 Z1.5F500
G0 X107.842Y71.731Z1.5F1200
G1 Z0F500
G1 X108.44Y72.167Z0F1200
G1 X109.178Y73.01Z0F1200
G1 X109.445Y73.447Z0F1200
G1 X109.522Y73.923Z0F1200
G1 X109.367Y74.112Z0F1200
G1 X109.014Y74.141Z0F1200
G1 X108.44Y73.705Z0F1200
G1 X108.005Y72.981Z0F1200
G1 X107.761Y71.919Z0F1200
G1 X107.652Y71.076Z0F1200
G1 X107.788Y70.389Z0F1200
G1 X108.087Y69.889Z0F1200
G1 X108.358Y69.576Z0F1200
G1 X109.281Y70.669Z0F1200
G1 X109.876Y71.453Z0F1200
G1 X110.29Y72.137Z0F1200
G0 Z1.5F500
G0 X112.566Y73.923Z1.5F1200
G1 Z0F500
G1 X112.057Y74.201Z0F1200
G1 X111.618Y74.112Z0F1200
G1 X111.186Y73.735Z0F1200
G1 X111.022Y73.268Z0F1200
G1 X111.186Y72.673Z0F1200
G1 X111.592Y72.108Z0F1200
G1 X111.945Y71.542Z0F1200
G1 X112.161Y70.987Z0F1200
G1 X112.135Y70.483Z0F1200
G1 X111.807Y70.013Z0F1200
G1 X111.35Y69.701Z0F1200
G1 X110.967Y69.576Z0F1200
G1 X110.479Y69.827Z0F1200
G0 Z1.5F500
G0 X112.677Y73.546Z1.5F1200
G1 Z0F500
G1 X113.356Y74.112Z0F1200
G1 X112.65Y68.795Z0F1200
G1 X112.433Y68.011Z0F1200
G1 X111.618Y67.356Z0F1200
G1 X113.139Y68.298Z0F1200
G0 Z1.5F500
G0 X113.057Y71.264Z1.5F1200
G1 Z0F500
G1 X113.139Y71.324Z0F1200
G1 X113.383Y72.296Z0F1200
G1 X113.954Y73.199Z0F1200
G1 X114.471Y73.824Z0F1200
G1 X114.765Y74.072Z0F1200
G1 X114.903Y73.199Z0F1200
G1 X114.877Y72.296Z0F1200
G1 X114.687Y71.324Z0F1200
G1 X114.42Y70.483Z0F1200
G1 X114.092Y69.951Z0F1200
G1 X113.655Y69.764Z0F1200
G1 X113.302Y69.827Z0F1200
G1 X113.085Y70.013Z0F1200
G1 X112.867Y70.42Z0F1200
G0 Z1.5F500
G0 X117.731Y77.078Z1.5F1200
G1 Z0F500
G1 X117.325Y77.167Z0F1200
G1 X116.696Y76.889Z0F1200
G1 X116.155Y76.135Z0F1200
G1 X115.965Y75.203Z0F1200
G1 X115.367Y70.669Z0F1200
G1 X115.286Y69.639Z0F1200
G1 X115.938Y70.295Z0F1200
G1 X116.782Y71.453Z0F1200
G1 X117.213Y72.137Z0F1200
G0 Z1.5F500
G0 X119.55Y73.824Z1.5F1200
G1 Z0F500
G1 X118.602Y73.893Z0F1200
G1 X117.92Y73.546Z0F1200
G1 X117.431Y72.544Z0F1200
G1 X117.241Y71.264Z0F1200
G1 Y70.263Z0F1200
G1 X117.322Y69.764Z0F1200
G1 X117.838Y70.358Z0F1200
G1 X118.576Y71.542Z0F1200
G1 X119.033Y72.425Z0F1200
G1 X119.386Y73.268Z0F1200
G1 X119.55Y73.705Z0F1200
G1 X119.171Y71.76Z0F1200
G1 X118.981Y70.798Z0F1200
G1 X118.921Y70.263Z0F1200
G1 X118.869Y69.733Z0F1200
G1 X119.412Y70.139Z0F1200
G1 X120.36Y71.453Z0F1200
G1 X120.774Y72.108Z0F1200
G0 Z1.5F500
G0 X121.019Y74.608Z1.5F1200
G1 Z0F500
G1 X120.991Y74.012Z0F1200
G1 X120.367Y73.953Z0F1200
G1 X120.991Y74.042Z0F1200
G1 X122.136Y74.072Z0F1200
G1 X120.991Y74.042Z0F1200
G1 X120.829Y72.326Z0F1200
G1 X120.666Y71.175Z0F1200
G1 X120.503Y70.483Z0F1200
G1 X120.312Y69.639Z0F1200
G1 X120.937Y70.233Z0F1200
G1 X121.723Y71.235Z0F1200
G1 X122.292Y72.137Z0F1200
G0 Z1.5F500
G0 X123.113Y73.487Z1.5F1200
G1 Z0F500
G1 X123.68Y73.923Z0F1200
G1 X124.033Y73.983Z0F1200
G1 X124.74Y73.893Z0F1200
G1 X125.232Z0F1200
G1 X122.678Y69.67Z0F1200
G1 X123.223Y69.92Z0F1200
G1 X123.93Y69.858Z0F1200
G1 X124.956Y69.639Z0F1200
G1 X125.309Y69.951Z0F1200
G0 Z1.5F500
G0 X129.991Y73.546Z1.5F1200
G1 Z0F500
G1 X130.689Y73.953Z0F1200
G1 X131.483Y74.012Z0F1200
G1 X131.836Y73.635Z0F1200
G1 X132Y73.01Z0F1200
G1 X131.81Y72.385Z0F1200
G1 X131.371Y71.889Z0F1200
G1 X130.853Y71.483Z0F1200
G1 X131.431Y71.423Z0F1200
G1 X131.836Y71.076Z0F1200
G1 X132Y70.514Z0F1200
G1 X131.94Y69.889Z0F1200
G1 X131.672Y69.358Z0F1200
G1 X131.181Y68.858Z0F1200
G1 X130.5Y68.764Z0F1200
G1 X129.797Y68.889Z0F1200
G1 X129.254Y69.139Z0F1200
G0 Z1.5F500
G0 X143.953Y71.44Z1.5F1200
G1 Z0F500
G1 X144.268Y72.183Z0F1200
G1 X144.658Y72.869Z0F1200
G1 X145.1Y73.516Z0F1200
G1 X146.033Y74.773Z0F1200
G1 X146.475Y75.421Z0F1200
G1 X146.867Y76.106Z0F1200
G1 X147.184Y76.848Z0F1200
G1 Y76.858Z0F1200
G1 X147.171Y76.828Z0F1200
G1 X147.153Y76.761Z0F1200
G1 X146.884Y75.662Z0F1200
G1 X146.786Y75.284Z0F1200
G1 X146.692Y74.947Z0F1200
G1 X146.608Y74.687Z0F1200
G1 X146.56Y74.459Z0F1200
G1 X146.486Y74.208Z0F1200
G1 X146.394Y73.939Z0F1200
G1 X146.079Y73.075Z0F1200
G1 X145.906Y72.5Z0F1200
G1 X145.853Y72.226Z0F1200
G1 X145.83Y71.97Z0F1200
G1 X145.846Y71.734Z0F1200
G1 X145.907Y71.525Z0F1200
G1 X146.02Y71.346Z0F1200
G1 X146.193Y71.204Z0F1200
G1 X146.432Y71.102Z0F1200
G1 X146.744Y71.045Z0F1200
G1 X146.932Y71.056Z0F1200
G1 X147.117Y71.1Z0F1200
G1 X147.287Y71.189Z0F1200
G1 X147.433Y71.33Z0F1200
G0 Z1.5F500
G0 X143.496Y73.987Z1.5F1200
G1 Z0F500
G1 X144.531Y74.234Z0F1200
G1 X145.552Y74.574Z0F1200
G1 X146.064Y74.719Z0F1200
G1 X146.582Y74.815Z0F1200
G1 X147.106Y74.838Z0F1200
G1 X147.641Y74.765Z0F1200
G0 Z1.5F500
G0 X149.616Y71.771Z1.5F1200
G1 Z0F500
G1 X149.51Y71.801Z0F1200
G1 X149.392Z0F1200
G1 X149.265Y71.77Z0F1200
G1 X149.136Y71.719Z0F1200
G1 X148.888Y71.565Z0F1200
G1 X148.686Y71.374Z0F1200
G1 X148.615Y71.276Z0F1200
G1 X148.57Y71.183Z0F1200
G1 X148.555Y71.098Z0F1200
G1 X148.577Y71.026Z0F1200
G1 X148.639Y70.972Z0F1200
G1 X148.747Y70.94Z0F1200
G1 X148.905Y70.935Z0F1200
G1 X149.119Y70.962Z0F1200
G0 Z1.5F500
G0 X152.449Y71.533Z1.5F1200
G1 Z0F500
G1 X152.623Y71.339Z0F1200
G1 X152.801Y71.215Z0F1200
G1 X152.981Y71.153Z0F1200
G1 X153.164Y71.148Z0F1200
G1 X153.347Y71.192Z0F1200
G1 X153.531Y71.278Z0F1200
G1 X153.713Y71.401Z0F1200
G1 X153.893Y71.553Z0F1200
G1 X154.244Y71.919Z0F1200
G1 X154.576Y72.324Z0F1200
G1 X154.88Y72.713Z0F1200
G1 X155.15Y73.033Z0F1200
G1 X155.491Y73.581Z0F1200
G1 X155.791Y74.155Z0F1200
G1 X156.053Y74.751Z0F1200
G1 X156.283Y75.366Z0F1200
G1 X156.664Y76.632Z0F1200
G1 X156.97Y77.922Z0F1200
G1 X157.116Y77.897Z0F1200
G1 X157.256Y77.829Z0F1200
G1 X157.388Y77.721Z0F1200
G1 X157.511Y77.579Z0F1200
G1 X157.73Y77.211Z0F1200
G1 X157.908Y76.761Z0F1200
G1 X158.041Y76.269Z0F1200
G1 X158.124Y75.77Z0F1200
G1 X158.151Y75.304Z0F1200
G1 X158.119Y74.906Z0F1200
G1 X158.082Y74.7Z0F1200
G1 X158.001Y74.486Z0F1200
G1 X157.883Y74.269Z0F1200
G1 X157.734Y74.055Z0F1200
G1 X157.37Y73.658Z0F1200
G1 X156.958Y73.34Z0F1200
G1 X156.751Y73.224Z0F1200
G1 X156.551Y73.146Z0F1200
G1 X156.365Y73.109Z0F1200
G1 X156.2Y73.12Z0F1200
G1 X156.06Y73.185Z0F1200
G1 X155.954Y73.309Z0F1200
G1 X155.887Y73.498Z0F1200
G1 X155.866Y73.757Z0F1200
G1 X156.009Y73.956Z0F1200
G1 X156.181Y74.113Z0F1200
G1 X156.376Y74.23Z0F1200
G1 X156.591Y74.31Z0F1200
G1 X156.821Y74.354Z0F1200
G1 X157.061Y74.365Z0F1200
G1 X157.308Y74.345Z0F1200
G1 X157.556Y74.296Z0F1200
G1 X157.802Y74.22Z0F1200
G1 X158.041Y74.12Z0F1200
G1 X158.268Y73.996Z0F1200
G1 X158.48Y73.852Z0F1200
G1 X158.672Y73.69Z0F1200
G1 X158.839Y73.511Z0F1200
G1 X158.977Y73.318Z0F1200
G1 X159.082Y73.113Z0F1200
G1 X159.139Y72.874Z0F1200
G1 X159.152Y72.634Z0F1200
G1 X159.126Y72.395Z0F1200
G1 X159.066Y72.16Z0F1200
G1 X158.865Y71.707Z0F1200
G1 X158.59Y71.293Z0F1200
G1 X158.283Y70.935Z0F1200
G1 X157.986Y70.652Z0F1200
G1 X157.854Y70.543Z0F1200
G1 X157.74Y70.459Z0F1200
G1 X157.649Y70.403Z0F1200
G1 X157.587Y70.375Z0F1200
G1 X157.856Y70.415Z0F1200
G1 X158.11Y70.485Z0F1200
G1 X158.35Y70.584Z0F1200
G1 X158.577Y70.708Z0F1200
G1 X159.001Y71.017Z0F1200
G1 X159.394Y71.388Z0F1200
G1 X160.14Y72.211Z0F1200
G1 X160.917Y72.971Z0F1200
G1 X161.044Y73.07Z0F1200
G1 X161.141Y73.189Z0F1200
G1 X161.21Y73.323Z0F1200
G1 X161.254Y73.467Z0F1200
G1 X161.272Y73.758Z0F1200
G1 X161.211Y74.016Z0F1200
G1 X161.156Y74.118Z0F1200
G1 X161.088Y74.195Z0F1200
G1 X161.007Y74.24Z0F1200
G1 X160.917Y74.249Z0F1200
G1 X160.819Y74.214Z0F1200
G1 X160.716Y74.131Z0F1200
G1 X160.608Y73.993Z0F1200
G1 X160.366Y73.55Z0F1200
G1 X160.26Y73.283Z0F1200
G1 X160.182Y73.001Z0F1200
G1 X160.132Y72.705Z0F1200
G1 X160.108Y72.403Z0F1200
G1 X160.111Y72.097Z0F1200
G1 X160.141Y71.793Z0F1200
G1 X160.196Y71.495Z0F1200
G1 X160.277Y71.207Z0F1200
G1 X160.384Y70.934Z0F1200
G1 X160.515Y70.681Z0F1200
G1 X160.671Y70.452Z0F1200
G1 X160.852Y70.252Z0F1200
G1 X161.056Y70.086Z0F1200
G1 X161.284Y69.956Z0F1200
G1 X161.536Y69.87Z0F1200
G1 X161.775Y69.864Z0F1200
G1 X162.001Y69.897Z0F1200
G1 X162.213Y69.968Z0F1200
G1 X162.411Y70.072Z0F1200
G1 X162.594Y70.207Z0F1200
G1 X162.761Y70.368Z0F1200
G1 X162.912Y70.553Z0F1200
G1 X163.046Y70.759Z0F1200
G1 X163.261Y71.217Z0F1200
G1 X163.401Y71.716Z0F1200
G1 X163.46Y72.23Z0F1200
G1 X163.435Y72.733Z0F1200
G1 X163.404Y72.947Z0F1200
G1 X163.345Y73.105Z0F1200
G1 X163.264Y73.213Z0F1200
G1 X163.166Y73.277Z0F1200
G1 X163.059Y73.303Z0F1200
G1 X162.95Y73.297Z0F1200
G1 X162.844Y73.265Z0F1200
G1 X162.748Y73.212Z0F1200
G1 X162.668Y73.144Z0F1200
G1 X162.612Y73.069Z0F1200
G1 X162.585Y72.99Z0F1200
G1 X162.594Y72.915Z0F1200
G1 X162.646Y72.849Z0F1200
G1 X162.746Y72.798Z0F1200
G1 X162.903Y72.769Z0F1200
G1 X163.121Y72.766Z0F1200
G1 X164.833Y72.49Z0F1200
G1 X166.553Y72.259Z0F1200
G1 X167.411Y72.129Z0F1200
G1 X168.263Y71.972Z0F1200
G1 X169.108Y71.776Z0F1200
G1 X169.944Y71.53Z0F1200
G1 X170.124Y71.501Z0F1200
G1 X170.287Y71.524Z0F1200
G1 X170.432Y71.592Z0F1200
G1 X170.559Y71.698Z0F1200
G1 X170.756Y71.989Z0F1200
G1 X170.872Y72.336Z0F1200
G1 X170.898Y72.512Z0F1200
G1 X170.902Y72.679Z0F1200
G1 X170.883Y72.83Z0F1200
G1 X170.842Y72.957Z0F1200
G1 X170.776Y73.052Z0F1200
G1 X170.686Y73.107Z0F1200
G1 X170.571Y73.115Z0F1200
G1 X170.43Y73.069Z0F1200
G1 X170.246Y72.653Z0F1200
G1 X170.026Y72.186Z0F1200
G1 X169.791Y71.691Z0F1200
G1 X169.559Y71.192Z0F1200
G1 X169.353Y70.713Z0F1200
G1 X169.191Y70.276Z0F1200
G1 X169.134Y70.082Z0F1200
G1 X169.095Y69.907Z0F1200
G1 X169.078Y69.755Z0F1200
G1 X169.085Y69.628Z0F1200
G1 X169.59Y70.179Z0F1200
G1 X170.049Y70.775Z0F1200
G1 X170.471Y71.406Z0F1200
G1 X170.866Y72.063Z0F1200
G1 X171.62Y73.412Z0F1200
G1 X172.392Y74.74Z0F1200
G1 X172.663Y75.246Z0F1200
G1 X172.912Y75.773Z0F1200
G1 X173.132Y76.319Z0F1200
G1 X173.318Y76.88Z0F1200
G1 X173.463Y77.454Z0F1200
G1 X173.56Y78.038Z0F1200
G1 X173.604Y78.629Z0F1200
G1 X173.588Y79.224Z0F1200
G1 X173.469Y78.937Z0F1200
G1 X173.38Y78.597Z0F1200
G1 X173.317Y78.216Z0F1200
G1 X173.272Y77.808Z0F1200
G1 X173.214Y76.964Z0F1200
G1 X173.154Y76.174Z0F1200
G1 X173.096Y75.221Z0F1200
G1 X172.972Y74.282Z0F1200
G1 X172.798Y73.353Z0F1200
G1 X172.591Y72.431Z0F1200
G1 X172.145Y70.593Z0F1200
G1 X171.77Y68.738Z0F1200
G1 X172.248Y68.994Z0F1200
G1 X172.708Y69.285Z0F1200
G1 X173.153Y69.605Z0F1200
G1 X173.589Y69.942Z0F1200
G1 X174.451Y70.637Z0F1200
G1 X175.329Y71.297Z0F1200
G0 Z1.5F500
G0 X165.597Y75.94Z1.5F1200
G1 Z0F500
G1 X165.807Y75.992Z0F1200
G1 X165.929Y76.02Z0F1200
G1 X165.975Y76.027Z0F1200
G1 X165.957Y76.016Z0F1200
G1 X165.657Y75.901Z0F1200
G1 X165.518Y75.846Z0F1200
G1 X165.379Y75.786Z0F1200
G1 X165.256Y75.726Z0F1200
G1 X165.16Y75.667Z0F1200
G1 X165.104Y75.613Z0F1200
G1 Y75.566Z0F1200
G1 X165.166Y75.53Z0F1200
G1 X165.309Y75.506Z0F1200
G1 X165.544Y75.499Z0F1200
G1 X167.635Y75.572Z0F1200
G1 X169.726Y75.693Z0F1200
G1 X171.811Y75.886Z0F1200
G1 X173.885Y76.175Z0F1200
G1 X174.665Y76.53Z0F1200
G1 X175.442Y76.894Z0F1200
G0 Z1.5F500
G0 X160.622Y77.575Z1.5F1200
G1 Z0F500
G1 X160.661Y77.181Z0F1200
G1 X160.815Y76.408Z0F1200
G1 X160.851Y76.014Z0F1200
G0 Z1.5F500
G0 X162.283Y77.679Z1.5F1200
G1 Z0F500
G1 X162.329Y77.041Z0F1200
G1 X162.363Y76.402Z0F1200
G1 X162.406Y75.764Z0F1200
G1 X162.476Y75.129Z0F1200
G0 Z1.5F500
G0 X177.102Y79.196Z1.5F1200
G1 Z0F500
G1 X177.117Y78.805Z0F1200
G1 X177.037Y78.442Z0F1200
G1 X176.895Y78.098Z0F1200
G1 X176.723Y77.764Z0F1200
G1 X176.554Y77.43Z0F1200
G1 X176.42Y77.088Z0F1200
G1 X176.376Y76.91Z0F1200
G1 X176.353Y76.727Z0F1200
G1 Y76.538Z0F1200
G1 X176.386Y76.34Z0F1200
M5
M9
G90
G1 Z3 F300
M2
