;LightBurn 1.6.04
;Custom GCode device profile, absolute coords
;Bounds: X35.33 Y12.3 to X96.67 Y57.7
G00 G17 G40 G21 G54
G90
M3
G1 Z10 F500
;Cut @ 444 mm/min, 80% power

M8
G0 Z3.5 F500
G0 X60.238 Y29.206 Z3.5 
G1 Z0 F500
;Layer C3 Pass 1 of 2
G1 X60.95 Y29.95 Z0 S800 F800
G1 X60.497 Y30.695 Z0 F800
G1 X60.756 Y33.09 Z0 F800
G1 X61.048 Y33.349 Z0 F800
G1 X60.886 Y37.395 Z0 F800
G1 X60.335 Y37.525 Z0 F800
G1 X60.465 Y33.899 Z0 F800
G1 X60.432 Y32.864 Z0 F800
G1 X60.594 Y32.022 Z0 F800
G1 X60.497 Y30.986 Z0 F800
G1 X59.882 Y30.015 Z0 F800
G1 X60.238 Y29.206 Z0 F800
;Layer C3 Pass 2 of 2
G1 X60.95 Y29.95 Z0 F800
G1 X60.497 Y30.695 Z0 F800
G1 X60.756 Y33.09 Z0 F800
G1 X61.048 Y33.349 Z0 F800
G1 X60.886 Y37.395 Z0 F800
G1 X60.335 Y37.525 Z0 F800
G1 X60.465 Y33.899 Z0 F800
G1 X60.432 Y32.864 Z0 F800
G1 X60.594 Y32.022 Z0 F800
G1 X60.497 Y30.986 Z0 F800
G1 X59.882 Y30.015 Z0 F800
G1 X60.238 Y29.206 Z0 F800
G0 Z3.5 F500
G0 X63.734 Y29.983 Z3.5 F444
G1 Z0 F500
;Layer C3 Pass 1 of 2
G1 X64.608 Y30.015 Z0 F800
G1 X64.641 Y30.274 Z0 F800
G1 X63.864 Y30.533 Z0 F800
G1 X63.216 Y32.864 Z0 F800
G1 X63.443 Y37.654 Z0 F800
G1 X63.087 Y39.37 Z0 F800
G1 X63.022 Y40.309 Z0 F800
G1 X60.692 Z0 F800
G1 X60.789 Y42.736 Z0 F800
G1 X60.692 Y47.397 Z0 F800
G1 X60.271 Y47.559 Z0 F800
G1 Y42.704 Z0 F800
G1 X60.562 Y42.574 Z0 F800
G1 X60.724 Y40.244 Z0 F800
G1 X63.022 Y40.114 Z0 F800
G1 X63.184 Y38.172 Z0 F800
G1 X62.893 Y37.687 Z0 F800
G1 X62.925 Y32.799 Z0 F800
G1 X63.249 Y31.796 Z0 F800
G1 X63.734 Y29.983 Z0 F800
;Layer C3 Pass 2 of 2
G1 X64.608 Y30.015 Z0 F800
G1 X64.641 Y30.274 Z0 F800
G1 X63.864 Y30.533 Z0 F800
G1 X63.216 Y32.864 Z0 F800
G1 X63.443 Y37.654 Z0 F800
G1 X63.087 Y39.37 Z0 F800
G1 X63.022 Y40.309 Z0 F800
G1 X60.692 Z0 F800
G1 X60.789 Y42.736 Z0 F800
G1 X60.692 Y47.397 Z0 F800
G1 X60.271 Y47.559 Z0 F800
G1 Y42.704 Z0 F800
G1 X60.562 Y42.574 Z0 F800
G1 X60.724 Y40.244 Z0 F800
G1 X63.022 Y40.114 Z0 F800
G1 X63.184 Y38.172 Z0 F800
G1 X62.893 Y37.687 Z0 F800
G1 X62.925 Y32.799 Z0 F800
G1 X63.249 Y31.796 Z0 F800
G1 X63.734 Y29.983 Z0 F800
G0 Z3.5 F500
G0 X66.162 Y32.669 Z3.5 
G1 Z0 F500
;Layer C3 Pass 1 of 2
G1 X65.903 Y33.835 Z0 F800
G1 X66.097 Y36.165 Z0 F800
G1 X65.968 Y37.59 Z0 F800
G1 X65.45 Y37.816 Z0 F800
G1 X65.612 Y32.993 Z0 F800
G1 X66.162 Y32.669 Z0 F800
;Layer C3 Pass 2 of 2
G1 X65.903 Y33.835 Z0 F800
G1 X66.097 Y36.165 Z0 F800
G1 X65.968 Y37.59 Z0 F800
G1 X65.45 Y37.816 Z0 F800
G1 X65.612 Y32.993 Z0 F800
G1 X66.162 Y32.669 Z0 F800
G0 Z3.5 F500
G0 X68.104 Y32.702 Z3.5 
G1 Z0 F500
;Layer C3 Pass 1 of 2
G1 X68.622 Y32.864 Z0 F800
G1 X68.557 Y35.162 Z0 F800
G1 X68.59 Y37.751 Z0 F800
G1 X68.136 Y37.654 Z0 F800
G1 X68.363 Y34.094 Z0 F800
G1 X68.104 Y32.702 Z0 F800
;Layer C3 Pass 2 of 2
G1 X68.622 Y32.864 Z0 F800
G1 X68.557 Y35.162 Z0 F800
G1 X68.59 Y37.751 Z0 F800
G1 X68.136 Y37.654 Z0 F800
G1 X68.363 Y34.094 Z0 F800
G1 X68.104 Y32.702 Z0 F800
G0 Z3.5 F500
G0 X70.693 Y33.414 Z3.5 
G1 Z0 F500
;Layer C3 Pass 1 of 2
G1 X71.244 Y32.928 Z0 F800
G1 X71.223 Y33.382 Z0 F800
G1 X71.203 Y33.72 Z0 F800
G1 X71.191 Y33.852 Z0 F800
G1 X71.173 Y33.976 Z0 F800
G1 X71.158 Y34.171 Z0 F800
G1 X71.134 Y34.644 Z0 F800
G1 X71.118 Y35.016 Z0 F800
G1 X71.082 Y36.003 Z0 F800
G1 X71.244 Y37.136 Z0 F800
G1 X71.341 Y37.881 Z0 F800
G1 X70.661 Y37.622 Z0 F800
G1 X70.629 Y34.935 Z0 F800
G1 X70.693 Y33.414 Z0 F800
;Layer C3 Pass 2 of 2
G1 X71.244 Y32.928 Z0 F800
G1 X71.223 Y33.382 Z0 F800
G1 X71.203 Y33.72 Z0 F800
G1 X71.191 Y33.852 Z0 F800
G1 X71.173 Y33.976 Z0 F800
G1 X71.158 Y34.171 Z0 F800
G1 X71.134 Y34.644 Z0 F800
G1 X71.118 Y35.016 Z0 F800
G1 X71.082 Y36.003 Z0 F800
G1 X71.244 Y37.136 Z0 F800
G1 X71.341 Y37.881 Z0 F800
G1 X70.661 Y37.622 Z0 F800
G1 X70.629 Y34.935 Z0 F800
G1 X70.693 Y33.414 Z0 F800
G0 Z3.5 F500
G0 X58.167 Y32.831 Z3.5 
G1 Z0 F500
;Layer C3 Pass 1 of 2
G1 X58.296 Y37.525 Z0 F800
G1 X58.07 Y37.816 Z0 F800
G1 X57.843 Y47.268 Z0 F800
G1 X57.649 Y47.462 Z0 F800
G1 X57.681 Y42.639 Z0 F800
G1 X58.102 Y42.574 Z0 F800
G1 X58.134 Y47.592 Z0 F800
G1 X57.908 Y46.718 Z0 F800
G1 X57.875 Y37.719 Z0 F800
G1 X57.616 Y37.59 Z0 F800
G1 Y32.799 Z0 F800
G1 X58.167 Y32.831 Z0 F800
;Layer C3 Pass 2 of 2
G1 X58.296 Y37.525 Z0 F800
G1 X58.07 Y37.816 Z0 F800
G1 X57.843 Y47.268 Z0 F800
G1 X57.649 Y47.462 Z0 F800
G1 X57.681 Y42.639 Z0 F800
G1 X58.102 Y42.574 Z0 F800
G1 X58.134 Y47.592 Z0 F800
G1 X57.908 Y46.718 Z0 F800
G1 X57.875 Y37.719 Z0 F800
G1 X57.616 Y37.59 Z0 F800
G1 Y32.799 Z0 F800
G1 X58.167 Y32.831 Z0 F800
G0 Z3.5 F500
G0 X62.86 Y42.801 Z3.5 
G1 Z0 F500
;Layer C3 Pass 1 of 2
G1 X63.281 Z0 F800
G1 X63.378 Y44.419 Z0 F800
G1 X63.313 Y47.689 Z0 F800
G1 X63.119 Y48.142 Z0 F800
G1 Y50.472 Z0 F800
G1 X62.634 Y50.602 Z0 F800
G1 X62.957 Y49.663 Z0 F800
G1 X63.184 Y47.656 Z0 F800
G1 X62.86 Y47.527 Z0 F800
G1 Y42.801 Z0 F800
;Layer C3 Pass 2 of 2
G1 X63.281 Z0 F800
G1 X63.378 Y44.419 Z0 F800
G1 X63.313 Y47.689 Z0 F800
G1 X63.119 Y48.142 Z0 F800
G1 Y50.472 Z0 F800
G1 X62.634 Y50.602 Z0 F800
G1 X62.957 Y49.663 Z0 F800
G1 X63.184 Y47.656 Z0 F800
G1 X62.86 Y47.527 Z0 F800
G1 Y42.801 Z0 F800
G0 Z3.5 F500
G0 X65.579 Y42.898 Z3.5 
G1 Z0 F500
;Layer C3 Pass 1 of 2
G1 X66.032 Y42.866 Z0 F800
G1 X65.741 Y46.232 Z0 F800
G1 X65.903 Y47.948 Z0 F800
G1 X66.194 Y48.692 Z0 F800
G1 X67.877 Y49.922 Z0 F800
G1 X68.039 Y50.602 Z0 F800
G1 X67.586 Y50.764 Z0 F800
G1 X66.647 Y49.469 Z0 F800
G1 X65.709 Y47.915 Z0 F800
G1 X65.45 Y47.851 Z0 F800
G1 X65.579 Y42.898 Z0 F800
;Layer C3 Pass 2 of 2
G1 X66.032 Y42.866 Z0 F800
G1 X65.741 Y46.232 Z0 F800
G1 X65.903 Y47.948 Z0 F800
G1 X66.194 Y48.692 Z0 F800
G1 X67.877 Y49.922 Z0 F800
G1 X68.039 Y50.602 Z0 F800
G1 X67.586 Y50.764 Z0 F800
G1 X66.647 Y49.469 Z0 F800
G1 X65.709 Y47.915 Z0 F800
G1 X65.45 Y47.851 Z0 F800
G1 X65.579 Y42.898 Z0 F800
G0 Z3.5 F500
G0 X68.039 Y42.736 Z3.5 
G1 Z0 F500
;Layer C3 Pass 1 of 2
G1 X68.492 Y42.833 Z0 F800
G1 X68.525 Y46.653 Z0 F800
G1 X68.557 Y47.624 Z0 F800
G1 X67.975 Y47.592 Z0 F800
G1 X68.039 Y42.736 Z0 F800
;Layer C3 Pass 2 of 2
G1 X68.492 Y42.833 Z0 F800
G1 X68.525 Y46.653 Z0 F800
G1 X68.557 Y47.624 Z0 F800
G1 X67.975 Y47.592 Z0 F800
G1 X68.039 Y42.736 Z0 F800
G0 Z3.5 F500
G0 X70.693 Y42.769 Z3.5 
G1 Z0 F500
;Layer C3 Pass 1 of 2
G1 X71.082 Y42.736 Z0 F800
G1 X70.952 Y47.43 Z0 F800
G1 X70.629 Z0 F800
G1 X70.693 Y42.769 Z0 F800
;Layer C3 Pass 2 of 2
G1 X71.082 Y42.736 Z0 F800
G1 X70.952 Y47.43 Z0 F800
G1 X70.629 Z0 F800
G1 X70.693 Y42.769 Z0 F800
G0 Z3.5 F500
G0 X73.251 Y42.704 Z3.5 
G1 Z0 F500
;Layer C3 Pass 1 of 2
G1 X73.704 Y42.833 Z0 F800
G1 X73.769 Y44.614 Z0 F800
G1 X73.607 Y46.394 Z0 F800
G1 X73.769 Y47.171 Z0 F800
G1 X73.186 Y47.365 Z0 F800
G1 X73.251 Y42.704 Z0 F800
;Layer C3 Pass 2 of 2
G1 X73.704 Y42.833 Z0 F800
G1 X73.769 Y44.614 Z0 F800
G1 X73.607 Y46.394 Z0 F800
G1 X73.769 Y47.171 Z0 F800
G1 X73.186 Y47.365 Z0 F800
G1 X73.251 Y42.704 Z0 F800
;Offset @ 555 mm/min, 90% power

M8
G0 Z3.5 F500
G0 X77.044 Y37.703 Z3.5 
G1 Z0 F500
;Layer C1
G1 X77.362 Y37.721 Z0 S900 F800
G1 X76.858 Y42.355 Z0 F800
G1 X76.294 Y47.059 Z0 F800
G1 X76.244 Y47.064 Z0 F800
G1 X76.263 Y46.589 Z0 F800
G1 X76.471 Y41.818 Z0 F800
G1 X76.66 Y37.689 Z0 F800
G1 X77.044 Y37.703 Z0 F800
G0 Z3.5 F500
G0 X78.067 Y37.155 Z3.5 F555
G1 Z0 F500
G1 X77.494 Y42.432 Z0 F800
G1 X76.861 Y47.702 Z0 F800
G1 X76.465 Y47.686 Z0 F800
G1 X76.009 Y47.728 Z0 F800
G1 X75.811 Y47.72 Z0 F800
G1 X75.661 Y47.666 Z0 F800
G1 X75.611 Y47.615 Z0 F800
G1 X75.581 Y47.544 Z0 F800
G1 X75.574 Y47.453 Z0 F800
G1 X75.592 Y47.336 Z0 F800
G1 X75.623 Y46.563 Z0 F800
G1 X75.832 Y41.789 Z0 F800
G1 X76.051 Y37.015 Z0 F800
G1 X76.558 Y37.045 Z0 F800
G1 X77.08 Y37.063 Z0 F800
G1 X77.591 Y37.092 Z0 F800
G1 X78.067 Y37.155 Z0 F800
G0 Z3.5 F500
G0 X86.623 Y31.704 Z3.5 
G1 Z0 F500
G1 X85.899 Y31.653 Z0 F800
G1 X85.871 Z0 F800
G1 X85.984 Y31.545 Z0 F800
G1 X86.002 Y31.526 Z0 F800
G1 X86.623 Y31.704 Z0 F800
G0 Z3.5 F500
G0 X89.374 Y32.537 Z3.5 
G1 Z0 F500
G1 X85.857 Y32.292 Z0 F800
G1 X84.092 Y32.182 Z0 F800
G1 X84.545 Y31.923 Z0 F800
G1 X85.113 Y31.486 Z0 F800
G1 X85.532 Y31.092 Z0 F800
G1 X85.803 Y30.804 Z0 F800
G1 X88.009 Y31.435 Z0 F800
G1 X89.644 Y31.883 Z0 F800
G1 X89.595 Y31.96 Z0 F800
G1 X89.374 Y32.537 Z0 F800
G0 Z3.5 F500
G0 X89.764 Y33.206 Z3.5 
G1 Z0 F500
G1 X85.815 Y32.931 Z0 F800
G1 X82.607 Y32.73 Z0 F800
G1 X82.575 Y32.096 Z0 F800
G1 X82.903 Y32.124 Z0 F800
G1 X84.189 Y31.389 Z0 F800
G1 X84.697 Y30.998 Z0 F800
G1 X85.079 Y30.639 Z0 F800
G1 X85.367 Y30.333 Z0 F800
G1 X85.593 Y30.078 Z0 F800
G1 X88.182 Y30.818 Z0 F800
G1 X90.679 Y31.503 Z0 F800
G1 X90.581 Y31.605 Z0 F800
G1 X90.169 Y32.25 Z0 F800
G1 X89.894 Y32.965 Z0 F800
G1 X89.851 Y33.22 Z0 F800
G1 X89.764 Y33.206 Z0 F800
G0 Z3.5 F500
G0 X82.759 Y31.469 Z3.5 
G1 Z0 F500
G1 X83.834 Y30.855 Z0 F800
G1 X84.282 Y30.51 Z0 F800
G1 X84.626 Y30.187 Z0 F800
G1 X84.894 Y29.902 Z0 F800
G1 X85.224 Y29.528 Z0 F800
G1 X85.397 Y29.356 Z0 F800
G1 X88.354 Y30.202 Z0 F800
G1 X91.942 Y31.187 Z0 F800
G1 X91.996 Y31.242 Z0 F800
G1 X91.582 Y31.491 Z0 F800
G1 X91.085 Y32.004 Z0 F800
G1 X90.744 Y32.54 Z0 F800
G1 X90.514 Y33.136 Z0 F800
G1 X90.458 Y33.464 Z0 F800
G1 X90.352 Y33.949 Z0 F800
G1 X89.691 Y33.842 Z0 F800
G1 X85.773 Y33.569 Z0 F800
G1 X81.962 Y33.331 Z0 F800
G1 X81.721 Y33.317 Z0 F800
G1 X81.97 Y32.783 Z0 F800
G1 X81.908 Y31.585 Z0 F800
G1 X81.832 Y31.389 Z0 F800
G1 X82.759 Y31.469 Z0 F800
G0 Z3.5 F500
G0 X91.591 Y32.402 Z3.5 
G1 Z0 F500
G1 X91.318 Y32.83 Z0 F800
G1 X91.134 Y33.307 Z0 F800
G1 X91.085 Y33.588 Z0 F800
G1 X90.875 Y34.551 Z0 F800
G1 X90.809 Y34.905 Z0 F800
G1 X90.177 Y34.569 Z0 F800
G1 X89.617 Y34.479 Z0 F800
G1 X85.73 Y34.208 Z0 F800
G1 X81.924 Y33.97 Z0 F800
G1 X80.552 Y33.89 Z0 F800
G1 X80.861 Y33.648 Z0 F800
G1 X81.322 Y32.657 Z0 F800
G1 X81.274 Y31.721 Z0 F800
G1 X81.021 Y31.067 Z0 F800
G1 X80.735 Y30.651 Z0 F800
G1 X82.616 Y30.814 Z0 F800
G1 X83.479 Y30.321 Z0 F800
G1 X83.867 Y30.022 Z0 F800
G1 X84.174 Y29.733 Z0 F800
G1 X84.421 Y29.471 Z0 F800
G1 X84.76 Y29.087 Z0 F800
G1 X85.099 Y28.751 Z0 F800
G1 X85.215 Y28.639 Z0 F800
G1 X88.527 Y29.585 Z0 F800
G1 X92.335 Y30.631 Z0 F800
G1 X92.419 Y30.759 Z0 F800
G1 X92.863 Y31.213 Z0 F800
G1 X93.281 Y31.435 Z0 F800
G1 X92.647 Y31.597 Z0 F800
G1 X91.983 Y31.996 Z0 F800
G1 X91.591 Y32.402 Z0 F800
G0 Z3.5 F500
G0 X89.544 Y35.115 Z3.5 
G1 Z0 F500
G1 X85.688 Y34.846 Z0 F800
G1 X81.885 Y34.608 Z0 F800
G1 X78.084 Y34.388 Z0 F800
G1 X74.302 Y34.174 Z0 F800
G1 Y33.905 Z0 F800
G1 X74.555 Z0 F800
G1 X76.097 Y33.912 Z0 F800
G1 X77.667 Y33.896 Z0 F800
G1 X79.627 Y33.8 Z0 F800
G1 X80.346 Y33.239 Z0 F800
G1 X80.675 Y32.531 Z0 F800
G1 X80.64 Y31.856 Z0 F800
G1 X80.451 Y31.367 Z0 F800
G1 X80.125 Y30.893 Z0 F800
G1 X79.881 Y30.589 Z0 F800
G1 X79.351 Y29.912 Z0 F800
G1 X79.364 Z0 F800
G1 X80.701 Y30.006 Z0 F800
G1 X82.472 Y30.16 Z0 F800
G1 X83.123 Y29.787 Z0 F800
G1 X83.452 Y29.534 Z0 F800
G1 X83.721 Y29.281 Z0 F800
G1 X83.948 Y29.04 Z0 F800
G1 X84.299 Y28.643 Z0 F800
G1 X84.648 Y28.296 Z0 F800
G1 X84.9 Y28.053 Z0 F800
G1 X85.028 Y27.919 Z0 F800
G1 X88.7 Y28.969 Z0 F800
G1 X92.738 Y30.078 Z0 F800
G1 Y30.081 Z0 F800
G1 X92.92 Y30.356 Z0 F800
G1 X93.251 Y30.695 Z0 F800
G1 X93.673 Y30.918 Z0 F800
G1 X94.422 Y31.152 Z0 F800
G1 X95 Y31.235 Z0 F800
G1 X95.009 Y31.399 Z0 F800
G1 X95.077 Y31.825 Z0 F800
G1 X95.198 Y32.25 Z0 F800
G1 X95.355 Y32.617 Z0 F800
G1 X95.078 Y32.386 Z0 F800
G1 X94.556 Y32.148 Z0 F800
G1 X94.021 Y32.04 Z0 F800
G1 X93.47 Y32.047 Z0 F800
G1 X92.896 Y32.194 Z0 F800
G1 X92.385 Y32.501 Z0 F800
G1 X92.096 Y32.801 Z0 F800
G1 X91.892 Y33.12 Z0 F800
G1 X91.754 Y33.478 Z0 F800
G1 X91.713 Y33.715 Z0 F800
G1 X91.503 Y34.678 Z0 F800
G1 X91.32 Y35.649 Z0 F800
G1 X91.221 Y36.051 Z0 F800
G1 X91.118 Y36.359 Z0 F800
G1 X91.091 Y36.248 Z0 F800
G1 X90.828 Y35.8 Z0 F800
G1 X90.458 Y35.443 Z0 F800
G1 X89.97 Y35.184 Z0 F800
G1 X89.544 Y35.115 Z0 F800
G0 Z3.5 F500
G0 X54.204 Y52.392 Z3.5 
G1 Z0 F500
G1 X54.411 Y53.854 Z0 F800
G1 X55.078 Y54.732 Z0 F800
G1 X53.929 Y54.692 Z0 F800
G1 X53.971 Y53.484 Z0 F800
G1 X53.982 Y52.63 Z0 F800
G1 X54.055 Y52.572 Z0 F800
G1 X54.204 Y52.392 Z0 F800
G0 Z3.5 F500
G0 X54.698 Y51.377 Z3.5 
G1 Z0 F500
G1 X54.828 Y52.232 Z0 F800
G1 X55.021 Y53.599 Z0 F800
G1 X55.653 Y54.432 Z0 F800
G1 X56.35 Y54.862 Z0 F800
G1 X56.977 Y55.025 Z0 F800
G1 X57.449 Y55.057 Z0 F800
G1 X57.858 Y55.041 Z0 F800
G1 X58.171 Y55.058 Z0 F800
G1 X69.723 Y55.203 Z0 F800
G1 X81.843 Y55.322 Z0 F800
G1 X82.75 Y55.056 Z0 F800
G1 X82.817 Y55.009 Z0 F800
G1 X82.633 Y55.554 Z0 F800
G1 X82.593 Y55.58 Z0 F800
G1 X82.475 Y55.628 Z0 F800
G1 X82.265 Y55.683 Z0 F800
G1 X81.993 Y55.723 Z0 F800
G1 X81.659 Y55.748 Z0 F800
G1 X81.293 Y55.755 Z0 F800
G1 X79.612 Y55.78 Z0 F800
G1 X77.967 Z0 F800
G1 X71.628 Y55.729 Z0 F800
G1 X65.278 Y55.646 Z0 F800
G1 X58.971 Y55.507 Z0 F800
G1 X53.281 Y55.31 Z0 F800
G1 Y55.199 Z0 F800
G1 X53.29 Y54.641 Z0 F800
G1 X53.331 Y53.469 Z0 F800
G1 X53.346 Y52.318 Z0 F800
G1 X53.604 Y52.113 Z0 F800
G1 X53.939 Y51.707 Z0 F800
G1 X54.17 Y51.258 Z0 F800
G1 X54.671 Y51.234 Z0 F800
G1 X54.698 Y51.377 Z0 F800
G0 Z3.5 F500
G0 X55.631 Y53.345 Z3.5 
G1 Z0 F500
G1 X56.091 Y53.95 Z0 F800
G1 X56.604 Y54.267 Z0 F800
G1 X57.08 Y54.391 Z0 F800
G1 X57.458 Y54.416 Z0 F800
G1 X57.857 Y54.399 Z0 F800
G1 X58.193 Y54.418 Z0 F800
G1 X69.73 Y54.563 Z0 F800
G1 X81.754 Y54.681 Z0 F800
G1 X82.468 Y54.472 Z0 F800
G1 X82.96 Y54.123 Z0 F800
G1 X83.342 Y53.548 Z0 F800
G1 X83.375 Y53.256 Z0 F800
G1 X83.378 Z0 F800
G1 X83.868 Y53.252 Z0 F800
G1 X83.828 Y53.489 Z0 F800
G1 X83.661 Y54.319 Z0 F800
G1 X83.457 Y55.116 Z0 F800
G1 X83.211 Y55.841 Z0 F800
G1 X83.182 Y55.898 Z0 F800
G1 X83.143 Y55.957 Z0 F800
G1 X83.1 Y56.006 Z0 F800
G1 X83.069 Y56.034 Z0 F800
G1 X82.893 Y56.148 Z0 F800
G1 X82.677 Y56.237 Z0 F800
G1 X82.395 Y56.31 Z0 F800
G1 X82.057 Y56.361 Z0 F800
G1 X81.701 Y56.387 Z0 F800
G1 X81.293 Y56.396 Z0 F800
G1 X79.622 Y56.42 Z0 F800
G1 X77.962 Z0 F800
G1 X71.62 Y56.37 Z0 F800
G1 X65.281 Y56.286 Z0 F800
G1 X58.938 Y56.146 Z0 F800
G1 X52.656 Y55.929 Z0 F800
G1 X52.646 Y55.737 Z0 F800
G1 X52.64 Y55.206 Z0 F800
G1 X52.649 Y54.652 Z0 F800
G1 X52.691 Y53.454 Z0 F800
G1 X52.707 Y52.277 Z0 F800
G1 X52.722 Y51.959 Z0 F800
G1 X52.838 Y51.904 Z0 F800
G1 X53.153 Y51.654 Z0 F800
G1 X53.402 Y51.352 Z0 F800
G1 X53.62 Y50.931 Z0 F800
G1 X53.718 Y50.659 Z0 F800
G1 X54.031 Y50.624 Z0 F800
G1 X54.734 Y50.591 Z0 F800
G1 X55.198 Y50.584 Z0 F800
G1 X55.329 Y51.269 Z0 F800
G1 X55.458 Y52.124 Z0 F800
G1 X55.631 Y53.345 Z0 F800
G0 Z3.5 F500
G0 X56.529 Y53.468 Z3.5 
G1 Z0 F500
G1 X56.859 Y53.672 Z0 F800
G1 X57.183 Y53.756 Z0 F800
G1 X57.466 Y53.775 Z0 F800
G1 X57.866 Y53.759 Z0 F800
G1 X58.214 Y53.778 Z0 F800
G1 X69.737 Y53.923 Z0 F800
G1 X81.666 Y54.04 Z0 F800
G1 X82.185 Y53.888 Z0 F800
G1 X82.493 Y53.669 Z0 F800
G1 X82.723 Y53.324 Z0 F800
G1 X82.772 Y52.878 Z0 F800
G1 X82.642 Y52.504 Z0 F800
G1 X82.363 Y52.028 Z0 F800
G1 X82.053 Y51.564 Z0 F800
G1 X81.802 Y51.307 Z0 F800
G1 X81.476 Y51.097 Z0 F800
G1 X81.068 Y50.983 Z0 F800
G1 X80.745 Y50.998 Z0 F800
G1 X79.147 Y50.931 Z0 F800
G1 X77.52 Y50.908 Z0 F800
G1 X75.901 Z0 F800
G1 X74.785 Y50.905 Z0 F800
G1 X74.645 Y50.355 Z0 F800
G1 X74.592 Y50.125 Z0 F800
G1 X75.802 Y50.141 Z0 F800
G1 X77.815 Y50.184 Z0 F800
G1 X79.838 Y50.262 Z0 F800
G1 X81.706 Y50.381 Z0 F800
G1 X81.82 Y50.44 Z0 F800
G1 X81.979 Y50.563 Z0 F800
G1 X82.129 Y50.721 Z0 F800
G1 X82.262 Y50.905 Z0 F800
G1 X82.516 Y51.394 Z0 F800
G1 X82.729 Y51.968 Z0 F800
G1 X82.855 Y52.241 Z0 F800
G1 X83.143 Y52.497 Z0 F800
G1 X83.483 Y52.616 Z0 F800
G1 X83.821 Y52.612 Z0 F800
G1 X84.142 Y52.501 Z0 F800
G1 X84.422 Y52.271 Z0 F800
G1 X84.604 Y51.929 Z0 F800
G1 X84.625 Y51.639 Z0 F800
G1 X84.64 Y51.18 Z0 F800
G1 X84.632 Y50.697 Z0 F800
G1 X84.589 Y50.196 Z0 F800
G1 X84.493 Y49.687 Z0 F800
G1 X84.327 Y49.182 Z0 F800
G1 X84.078 Y48.711 Z0 F800
G1 X83.898 Y48.471 Z0 F800
G1 X83.698 Y48.259 Z0 F800
G1 X83.469 Y48.066 Z0 F800
G1 X83.194 Y47.887 Z0 F800
G1 X83.012 Y47.812 Z0 F800
G1 X83.425 Y47.577 Z0 F800
G1 X83.458 Y47.545 Z0 F800
G1 X83.496 Y47.888 Z0 F800
G1 X83.698 Y48.222 Z0 F800
G1 X84.013 Y48.461 Z0 F800
G1 X84.379 Y48.537 Z0 F800
G1 X84.684 Y48.502 Z0 F800
G1 X85.056 Y48.229 Z0 F800
G1 X85.287 Y47.991 Z0 F800
G1 X85.471 Y47.744 Z0 F800
G1 X85.621 Y47.502 Z0 F800
G1 X85.861 Y47.078 Z0 F800
G1 X86.117 Y46.696 Z0 F800
G1 X87.057 Y45.215 Z0 F800
G1 X86.669 Y46.025 Z0 F800
G1 X86.005 Y47.515 Z0 F800
G1 X85.373 Y49.051 Z0 F800
G1 X85.114 Y49.98 Z0 F800
G1 X84.916 Y50.898 Z0 F800
G1 X84.754 Y51.811 Z0 F800
G1 X84.608 Y52.714 Z0 F800
G1 X84.46 Y53.587 Z0 F800
G1 X84.286 Y54.456 Z0 F800
G1 X84.07 Y55.299 Z0 F800
G1 X83.801 Y56.093 Z0 F800
G1 X83.733 Y56.228 Z0 F800
G1 X83.65 Y56.35 Z0 F800
G1 X83.556 Y56.457 Z0 F800
G1 X83.462 Y56.542 Z0 F800
G1 X83.189 Y56.718 Z0 F800
G1 X82.882 Y56.845 Z0 F800
G1 X82.52 Y56.939 Z0 F800
G1 X82.132 Y56.997 Z0 F800
G1 X81.723 Y57.027 Z0 F800
G1 X81.312 Y57.036 Z0 F800
G1 X79.63 Y57.06 Z0 F800
G1 X77.957 Z0 F800
G1 X71.611 Y57.009 Z0 F800
G1 X65.261 Y56.926 Z0 F800
G1 X58.926 Y56.787 Z0 F800
G1 X52.606 Y56.567 Z0 F800
G1 X52.305 Y56.534 Z0 F800
G1 X52.061 Y56.538 Z0 F800
G1 X52.037 Y56.318 Z0 F800
G1 X52.007 Y55.768 Z0 F800
G1 X52 Y55.21 Z0 F800
G1 X52.01 Y54.619 Z0 F800
G1 X52.051 Y53.438 Z0 F800
G1 X52.067 Y52.25 Z0 F800
G1 X52.087 Y51.829 Z0 F800
G1 X52.078 Y51.508 Z0 F800
G1 X52.248 Y51.475 Z0 F800
G1 X52.499 Y51.356 Z0 F800
G1 X52.702 Y51.195 Z0 F800
G1 X52.865 Y50.998 Z0 F800
G1 X53.032 Y50.674 Z0 F800
G1 X53.214 Y50.169 Z0 F800
G1 X53.27 Y50.065 Z0 F800
G1 X53.279 Z0 F800
G1 X53.985 Y49.985 Z0 F800
G1 X54.695 Y49.952 Z0 F800
G1 X55.448 Y49.941 Z0 F800
G1 X55.701 Y49.938 Z0 F800
G1 X55.797 Y50.309 Z0 F800
G1 X55.96 Y51.159 Z0 F800
G1 X56.092 Y52.034 Z0 F800
G1 X56.242 Y53.09 Z0 F800
G1 X56.529 Y53.468 Z0 F800
G0 Z3.5 F500
G0 X81.467 Y39.813 Z3.5 
G1 Z0 F500
G1 X81.559 Y38.95 Z0 F800
G1 X81.642 Z0 F800
G1 X81.943 Y38.965 Z0 F800
G1 X81.703 Y39.372 Z0 F800
G1 X81.467 Y39.813 Z0 F800
G0 Z3.5 F500
G0 X80.532 Y42.544 Z3.5 
G1 Z0 F500
G1 X80.985 Y38.299 Z0 F800
G1 X81.665 Y38.312 Z0 F800
G1 X82.625 Y38.355 Z0 F800
G1 X83.065 Y38.364 Z0 F800
G1 X82.807 Y38.762 Z0 F800
G1 X82.261 Y39.686 Z0 F800
G1 X81.753 Y40.637 Z0 F800
G1 X81.289 Y41.615 Z0 F800
G1 X80.874 Y42.62 Z0 F800
G1 X80.513 Y43.649 Z0 F800
G1 X80.361 Y44.179 Z0 F800
G1 X80.532 Y42.544 Z0 F800
G0 Z3.5 F500
G0 X80.779 Y37.655 Z3.5 
G1 Z0 F500
G1 X81.687 Y37.672 Z0 F800
G1 X82.646 Y37.716 Z0 F800
G1 X83.604 Y37.733 Z0 F800
G1 X84.731 Y37.764 Z0 F800
G1 X84.506 Y37.771 Z0 F800
G1 X84.135 Y37.951 Z0 F800
G1 X83.929 Y38.207 Z0 F800
G1 X83.351 Y39.099 Z0 F800
G1 X82.819 Y40 Z0 F800
G1 X82.325 Y40.925 Z0 F800
G1 X81.874 Y41.875 Z0 F800
G1 X81.472 Y42.848 Z0 F800
G1 X81.123 Y43.843 Z0 F800
G1 X80.833 Y44.859 Z0 F800
G1 X80.595 Y45.951 Z0 F800
G1 X80.606 Y46.307 Z0 F800
G1 X80.763 Y46.686 Z0 F800
G1 X81.1 Y46.987 Z0 F800
G1 X81.5 Y47.08 Z0 F800
G1 X81.859 Y47.062 Z0 F800
G1 X81.913 Y47.015 Z0 F800
G1 Y47.027 Z0 F800
G1 X82.055 Y47.401 Z0 F800
G1 X82.201 Y47.528 Z0 F800
G1 X82.028 Y47.479 Z0 F800
G1 X81.451 Y47.372 Z0 F800
G1 X80.879 Y47.305 Z0 F800
G1 X79.809 Y47.226 Z0 F800
G1 X79.403 Y47.183 Z0 F800
G1 X79.896 Y42.476 Z0 F800
G1 X80.407 Y37.68 Z0 F800
G1 X80.779 Y37.655 Z0 F800
G0 Z3.5 F500
G0 X89.553 Y38.514 Z3.5 
G1 Z0 F500
G1 X89.899 Y38.51 Z0 F800
G1 X89.722 Y38.821 Z0 F800
G1 X89.59 Y38.776 Z0 F800
G1 X89.553 Y38.514 Z0 F800
G0 Z3.5 F500
G0 X89.47 Y35.751 Z3.5 
G1 Z0 F500
G1 X85.646 Y35.485 Z0 F800
G1 X81.847 Y35.248 Z0 F800
G1 X78.047 Y35.026 Z0 F800
G1 X74.006 Y34.798 Z0 F800
G1 X73.658 Y35.075 Z0 F800
G1 X73.661 Y34.889 Z0 F800
G1 X73.664 Y33.757 Z0 F800
G1 Y33.267 Z0 F800
G1 X74.557 Y33.264 Z0 F800
G1 X76.095 Y33.272 Z0 F800
G1 X77.647 Y33.256 Z0 F800
G1 X79.394 Y33.17 Z0 F800
G1 X79.831 Y32.829 Z0 F800
G1 X80.028 Y32.406 Z0 F800
G1 X80.006 Y31.992 Z0 F800
G1 X79.881 Y31.668 Z0 F800
G1 X79.611 Y31.274 Z0 F800
G1 X79.387 Y30.995 Z0 F800
G1 X78.818 Y30.27 Z0 F800
G1 X78.229 Y29.563 Z0 F800
G1 X77.938 Y29.189 Z0 F800
G1 X78.03 Y29.194 Z0 F800
G1 X79.394 Y29.273 Z0 F800
G1 X80.767 Y29.369 Z0 F800
G1 X82.328 Y29.504 Z0 F800
G1 X82.767 Y29.253 Z0 F800
G1 X83.036 Y29.046 Z0 F800
G1 X83.269 Y28.828 Z0 F800
G1 X83.475 Y28.608 Z0 F800
G1 X83.829 Y28.208 Z0 F800
G1 X84.192 Y27.848 Z0 F800
G1 X84.447 Y27.602 Z0 F800
G1 X84.682 Y27.355 Z0 F800
G1 X84.854 Y27.204 Z0 F800
G1 X88.872 Y28.353 Z0 F800
G1 X93.167 Y29.532 Z0 F800
G1 X93.21 Y29.606 Z0 F800
G1 X93.289 Y29.751 Z0 F800
G1 X93.421 Y29.953 Z0 F800
G1 X93.64 Y30.176 Z0 F800
G1 X93.92 Y30.325 Z0 F800
G1 X94.564 Y30.526 Z0 F800
G1 X95.19 Y30.616 Z0 F800
G1 X95.646 Y30.66 Z0 F800
G1 X95.629 Y30.98 Z0 F800
G1 X95.646 Y31.333 Z0 F800
G1 X95.703 Y31.686 Z0 F800
G1 X95.802 Y32.036 Z0 F800
G1 X95.949 Y32.376 Z0 F800
G1 X96.022 Y32.499 Z0 F800
G1 X96.01 Y32.747 Z0 F800
G1 X95.949 Y33.17 Z0 F800
G1 X95.874 Y33.556 Z0 F800
G1 X95.509 Y33.517 Z0 F800
G1 X95.372 Y33.48 Z0 F800
G1 X95.267 Y33.433 Z0 F800
G1 X95.192 Y33.376 Z0 F800
G1 X95.039 Y33.186 Z0 F800
G1 X94.735 Y32.933 Z0 F800
G1 X94.357 Y32.761 Z0 F800
G1 X93.961 Y32.681 Z0 F800
G1 X93.554 Y32.686 Z0 F800
G1 X93.146 Y32.791 Z0 F800
G1 X92.787 Y33.006 Z0 F800
G1 X92.601 Y33.199 Z0 F800
G1 X92.466 Y33.41 Z0 F800
G1 X92.374 Y33.648 Z0 F800
G1 X92.343 Y33.829 Z0 F800
G1 X92.13 Y34.806 Z0 F800
G1 X91.947 Y35.782 Z0 F800
G1 X91.836 Y36.229 Z0 F800
G1 X91.699 Y36.639 Z0 F800
G1 X91.522 Y37.015 Z0 F800
G1 X91.259 Y37.416 Z0 F800
G1 X89.965 Y39.688 Z0 F800
G1 X89.778 Y39.518 Z0 F800
G1 X89.445 Y39.403 Z0 F800
G1 X89.124 Y39.399 Z0 F800
G1 X88.816 Y39.485 Z0 F800
G1 X88.529 Y39.671 Z0 F800
G1 X88.394 Y39.85 Z0 F800
G1 X88.334 Y39.915 Z0 F800
G1 X88.824 Y39.246 Z0 F800
G1 X88.956 Y38.859 Z0 F800
G1 X88.894 Y38.427 Z0 F800
G1 X88.653 Y38.093 Z0 F800
G1 X88.338 Y37.909 Z0 F800
G1 X88.224 Y37.886 Z0 F800
G1 X89.865 Y37.871 Z0 F800
G1 X90.288 Y37.606 Z0 F800
G1 X90.523 Y37.243 Z0 F800
G1 X90.577 Y36.842 Z0 F800
G1 X90.491 Y36.49 Z0 F800
G1 X90.32 Y36.2 Z0 F800
G1 X90.079 Y35.966 Z0 F800
G1 X89.764 Y35.799 Z0 F800
G1 X89.47 Y35.751 Z0 F800
G0 Z3.5 F500
G0 X84.913 Y37.769 Z3.5 
G1 Z0 F500
G1 X85.108 Y37.774 Z0 F800
G1 X86.627 Y37.84 Z0 F800
G1 X87.745 Y37.874 Z0 F800
G1 X87.661 Y37.884 Z0 F800
G1 X87.327 Y38.052 Z0 F800
G1 X87.166 Y38.237 Z0 F800
G1 X86.362 Y39.032 Z0 F800
G1 X85.587 Y39.91 Z0 F800
G1 X84.871 Y40.833 Z0 F800
G1 X84.806 Y40.928 Z0 F800
G1 X84.92 Y40.675 Z0 F800
G1 X85.616 Y39.151 Z0 F800
G1 X85.732 Y38.851 Z0 F800
G1 X85.694 Y38.432 Z0 F800
G1 X85.501 Y38.099 Z0 F800
G1 X85.222 Y37.875 Z0 F800
G1 X84.913 Y37.769 Z0 F800
G0 Z3.5 F500
G0 X43.509 Y38.007 Z3.5 
G1 Z0 F500
G1 X43.478 Y38.13 Z0 F800
G1 X43.462 Y38.493 Z0 F800
G1 X43.428 Y38.443 Z0 F800
G1 X43.288 Y38.202 Z0 F800
G1 X43.223 Y38.05 Z0 F800
G1 X43.509 Y38.007 Z0 F800
G0 Z3.5 F500
G0 X89.208 Y40.04 Z3.5 
G1 Z0 F500
G1 X89.083 Y40.075 Z0 F800
G1 X88.972 Y40.147 Z0 F800
G1 X88.889 Y40.256 Z0 F800
G1 X88.153 Y41.067 Z0 F800
G1 X87.457 Y41.914 Z0 F800
G1 X86.801 Y42.792 Z0 F800
G1 X86.184 Y43.699 Z0 F800
G1 X85.606 Y44.631 Z0 F800
G1 X85.066 Y45.586 Z0 F800
G1 X84.565 Y46.561 Z0 F800
G1 X84.102 Y47.551 Z0 F800
G1 X84.116 Y47.676 Z0 F800
G1 X84.183 Y47.786 Z0 F800
G1 X84.285 Y47.864 Z0 F800
G1 X84.408 Y47.889 Z0 F800
G1 X84.442 Y47.885 Z0 F800
G1 X84.634 Y47.745 Z0 F800
G1 X84.798 Y47.575 Z0 F800
G1 X84.941 Y47.383 Z0 F800
G1 X85.07 Y47.175 Z0 F800
G1 X85.313 Y46.746 Z0 F800
G1 X85.581 Y46.347 Z0 F800
G1 X86.538 Y44.838 Z0 F800
G1 X87.531 Y43.358 Z0 F800
G1 X88.542 Y41.89 Z0 F800
G1 X89.553 Y40.418 Z0 F800
G1 X89.569 Y40.268 Z0 F800
G1 X89.528 Y40.156 Z0 F800
G1 X89.445 Y40.08 Z0 F800
G1 X89.333 Y40.042 Z0 F800
G1 X89.208 Z0 F800
G0 Z3.5 F500
G0 X86.08 Y40.318 Z3.5 
G1 Z0 F500
G1 X85.388 Y41.21 Z0 F800
G1 X84.749 Y42.143 Z0 F800
G1 X84.162 Y43.111 Z0 F800
G1 X83.627 Y44.109 Z0 F800
G1 X83.143 Y45.13 Z0 F800
G1 X82.708 Y46.171 Z0 F800
G1 X82.62 Y46.45 Z0 F800
G1 X82.548 Y46.761 Z0 F800
G1 X82.551 Y46.904 Z0 F800
G1 X82.597 Y47.024 Z0 F800
G1 X82.698 Y47.112 Z0 F800
G1 X82.868 Y47.157 Z0 F800
G1 X83.039 Y47.06 Z0 F800
G1 X83.178 Y46.926 Z0 F800
G1 X83.293 Y46.765 Z0 F800
G1 X83.39 Y46.585 Z0 F800
G1 X83.564 Y46.207 Z0 F800
G1 X83.76 Y45.86 Z0 F800
G1 X84.241 Y44.946 Z0 F800
G1 X84.753 Y44.051 Z0 F800
G1 X85.292 Y43.171 Z0 F800
G1 X85.855 Y42.307 Z0 F800
G1 X87.032 Y40.612 Z0 F800
G1 X88.25 Y38.947 Z0 F800
G1 X88.3 Y38.798 Z0 F800
G1 X88.283 Y38.673 Z0 F800
G1 X88.213 Y38.578 Z0 F800
G1 X88.107 Y38.516 Z0 F800
G1 X87.981 Y38.49 Z0 F800
G1 X87.849 Y38.506 Z0 F800
G1 X87.727 Y38.567 Z0 F800
G1 X87.631 Y38.678 Z0 F800
G1 X86.828 Y39.472 Z0 F800
G1 X86.08 Y40.318 Z0 F800
G0 Z3.5 F500
G0 X82.988 Y43.438 Z3.5 
G1 Z0 F500
G1 X83.654 Y41.921 Z0 F800
G1 X84.338 Y40.409 Z0 F800
G1 X85.026 Y38.902 Z0 F800
G1 X85.082 Y38.76 Z0 F800
G1 X85.07 Y38.631 Z0 F800
G1 X85.007 Y38.523 Z0 F800
G1 X84.909 Y38.444 Z0 F800
G1 X84.789 Y38.403 Z0 F800
G1 X84.662 Y38.407 Z0 F800
G1 X84.543 Y38.464 Z0 F800
G1 X84.448 Y38.583 Z0 F800
G1 X83.896 Y39.436 Z0 F800
G1 X83.377 Y40.313 Z0 F800
G1 X82.896 Y41.213 Z0 F800
G1 X82.459 Y42.134 Z0 F800
G1 X82.07 Y43.076 Z0 F800
G1 X81.733 Y44.037 Z0 F800
G1 X81.454 Y45.015 Z0 F800
G1 X81.237 Y46.009 Z0 F800
G1 X81.242 Y46.17 Z0 F800
G1 X81.298 Y46.306 Z0 F800
G1 X81.404 Y46.4 Z0 F800
G1 X81.558 Y46.436 Z0 F800
G1 X81.606 Z0 F800
G1 X81.76 Y46.3 Z0 F800
G1 X81.88 Y46.137 Z0 F800
G1 X81.974 Y45.953 Z0 F800
G1 X82.05 Y45.755 Z0 F800
G1 X82.186 Y45.345 Z0 F800
G1 X82.354 Y44.963 Z0 F800
G1 X82.988 Y43.438 Z0 F800
G0 Z3.5 F500
G0 X85.136 Y37.135 Z3.5 
G1 Z0 F500
G1 X86.651 Y37.2 Z0 F800
G1 X88.166 Y37.247 Z0 F800
G1 X89.678 Y37.232 Z0 F800
G1 X89.828 Y37.139 Z0 F800
G1 X89.908 Y37.016 Z0 F800
G1 X89.926 Y36.876 Z0 F800
G1 X89.892 Y36.733 Z0 F800
G1 X89.813 Y36.599 Z0 F800
G1 X89.699 Y36.489 Z0 F800
G1 X89.557 Y36.414 Z0 F800
G1 X89.397 Y36.388 Z0 F800
G1 X85.604 Y36.124 Z0 F800
G1 X81.808 Y35.886 Z0 F800
G1 X78.011 Y35.666 Z0 F800
G1 X74.213 Y35.451 Z0 F800
G1 X74.042 Y35.588 Z0 F800
G1 X73.939 Y35.757 Z0 F800
G1 X73.892 Y35.951 Z0 F800
G1 X73.883 Y36.163 Z0 F800
G1 X73.914 Y36.604 Z0 F800
G1 X73.897 Y37.255 Z0 F800
G1 X73.901 Y37.507 Z0 F800
G1 X73.882 Y37.613 Z0 F800
G1 X73.834 Y37.691 Z0 F800
G1 X73.747 Y37.73 Z0 F800
G1 X73.612 Y37.719 Z0 F800
G1 X73.434 Y37.738 Z0 F800
G1 X73.273 Y37.741 Z0 F800
G1 X73.135 Y37.722 Z0 F800
G1 X73.024 Y37.677 Z0 F800
G1 X72.946 Y37.601 Z0 F800
G1 X72.906 Y37.488 Z0 F800
G1 X72.91 Y37.335 Z0 F800
G1 X72.963 Y37.137 Z0 F800
G1 X73.004 Y36.01 Z0 F800
G1 X73.021 Y34.883 Z0 F800
G1 Y33.756 Z0 F800
G1 Y32.628 Z0 F800
G1 X74.558 Y32.624 Z0 F800
G1 X76.094 Y32.632 Z0 F800
G1 X77.628 Y32.616 Z0 F800
G1 X79.16 Y32.541 Z0 F800
G1 X79.315 Y32.419 Z0 F800
G1 X79.38 Y32.28 Z0 F800
G1 X79.373 Y32.127 Z0 F800
G1 X79.311 Y31.969 Z0 F800
G1 X79.097 Y31.656 Z0 F800
G1 X78.883 Y31.39 Z0 F800
G1 X78.32 Y30.672 Z0 F800
G1 X77.734 Y29.968 Z0 F800
G1 X77.174 Y29.249 Z0 F800
G1 X76.689 Y28.481 Z0 F800
G1 X78.064 Y28.555 Z0 F800
G1 X79.438 Y28.635 Z0 F800
G1 X80.812 Y28.73 Z0 F800
G1 X82.184 Y28.85 Z0 F800
G1 X82.412 Y28.719 Z0 F800
G1 X82.621 Y28.558 Z0 F800
G1 X82.816 Y28.375 Z0 F800
G1 X83.002 Y28.177 Z0 F800
G1 X83.365 Y27.767 Z0 F800
G1 X83.748 Y27.387 Z0 F800
G1 X83.993 Y27.15 Z0 F800
G1 X84.235 Y26.897 Z0 F800
G1 X84.49 Y26.671 Z0 F800
G1 X84.776 Y26.516 Z0 F800
G1 X89.045 Y27.737 Z0 F800
G1 X93.481 Y28.954 Z0 F800
G1 X93.598 Y29.039 Z0 F800
G1 X93.688 Y29.154 Z0 F800
G1 X93.764 Y29.286 Z0 F800
G1 X93.838 Y29.422 Z0 F800
G1 X93.922 Y29.55 Z0 F800
G1 X94.028 Y29.658 Z0 F800
G1 X94.167 Y29.732 Z0 F800
G1 X94.706 Y29.899 Z0 F800
G1 X95.267 Y29.98 Z0 F800
G1 X95.834 Y30.035 Z0 F800
G1 X96.393 Y30.126 Z0 F800
G1 X96.326 Y30.409 Z0 F800
G1 X96.285 Y30.694 Z0 F800
G1 X96.27 Y30.981 Z0 F800
G1 X96.284 Y31.266 Z0 F800
G1 X96.329 Y31.547 Z0 F800
G1 X96.407 Y31.821 Z0 F800
G1 X96.52 Y32.085 Z0 F800
G1 X96.67 Y32.336 Z0 F800
G1 X96.648 Y32.808 Z0 F800
G1 X96.579 Y33.284 Z0 F800
G1 X96.485 Y33.761 Z0 F800
G1 X96.388 Y34.234 Z0 F800
G1 X95.891 Y34.202 Z0 F800
G1 X95.391 Y34.147 Z0 F800
G1 X95.156 Y34.085 Z0 F800
G1 X94.938 Y33.986 Z0 F800
G1 X94.744 Y33.84 Z0 F800
G1 X94.58 Y33.637 Z0 F800
G1 X94.392 Y33.48 Z0 F800
G1 X94.159 Y33.374 Z0 F800
G1 X93.901 Y33.322 Z0 F800
G1 X93.639 Y33.325 Z0 F800
G1 X93.395 Y33.388 Z0 F800
G1 X93.188 Y33.512 Z0 F800
G1 X93.105 Y33.598 Z0 F800
G1 X93.04 Y33.7 Z0 F800
G1 X92.994 Y33.819 Z0 F800
G1 X92.971 Y33.956 Z0 F800
G1 X92.757 Y34.933 Z0 F800
G1 X92.571 Y35.923 Z0 F800
G1 X92.452 Y36.408 Z0 F800
G1 X92.294 Y36.878 Z0 F800
G1 X92.083 Y37.328 Z0 F800
G1 X91.805 Y37.75 Z0 F800
G1 X90.207 Y40.555 Z0 F800
G1 X88.674 Y43.397 Z0 F800
G1 X87.946 Y44.838 Z0 F800
G1 X87.25 Y46.294 Z0 F800
G1 X86.593 Y47.767 Z0 F800
G1 X85.979 Y49.26 Z0 F800
G1 X85.735 Y50.134 Z0 F800
G1 X85.544 Y51.022 Z0 F800
G1 X85.385 Y51.918 Z0 F800
G1 X85.24 Y52.816 Z0 F800
G1 X85.088 Y53.713 Z0 F800
G1 X84.909 Y54.603 Z0 F800
G1 X84.684 Y55.481 Z0 F800
G1 X84.393 Y56.342 Z0 F800
G1 X84.285 Y56.553 Z0 F800
G1 X84.158 Y56.741 Z0 F800
G1 X84.013 Y56.907 Z0 F800
G1 X83.852 Y57.052 Z0 F800
G1 X83.489 Y57.287 Z0 F800
G1 X83.084 Y57.454 Z0 F800
G1 X82.65 Y57.566 Z0 F800
G1 X82.203 Y57.633 Z0 F800
G1 X81.755 Y57.666 Z0 F800
G1 X81.321 Y57.675 Z0 F800
G1 X79.64 Y57.7 Z0 F800
G1 X77.952 Z0 F800
G1 X71.603 Y57.649 Z0 F800
G1 X65.253 Y57.566 Z0 F800
G1 X58.904 Y57.426 Z0 F800
G1 X52.56 Y57.206 Z0 F800
G1 X52.274 Y57.175 Z0 F800
G1 X51.959 Y57.179 Z0 F800
G1 X51.808 Y57.168 Z0 F800
G1 X51.67 Y57.134 Z0 F800
G1 X51.553 Y57.067 Z0 F800
G1 X51.464 Y56.955 Z0 F800
G1 X51.398 Y56.373 Z0 F800
G1 X51.367 Y55.787 Z0 F800
G1 X51.36 Y55.199 Z0 F800
G1 X51.37 Y54.608 Z0 F800
G1 X51.411 Y53.423 Z0 F800
G1 X51.427 Y52.242 Z0 F800
G1 X51.447 Y51.823 Z0 F800
G1 X51.434 Y51.409 Z0 F800
G1 X51.396 Y51.211 Z0 F800
G1 X51.328 Y51.023 Z0 F800
G1 X51.22 Y50.848 Z0 F800
G1 X51.066 Y50.69 Z0 F800
G1 X49.002 Y47.729 Z0 F800
G1 X46.957 Y44.752 Z0 F800
G1 X42.888 Y38.787 Z0 F800
G1 X42.715 Y38.491 Z0 F800
G1 X42.577 Y38.167 Z0 F800
G1 X42.491 Y37.834 Z0 F800
G1 X42.476 Y37.515 Z0 F800
G1 X43.678 Y37.335 Z0 F800
G1 X44.269 Y37.254 Z0 F800
G1 X44.783 Y37.196 Z0 F800
G1 X44.528 Y37.396 Z0 F800
G1 X44.33 Y37.642 Z0 F800
G1 X44.191 Y37.922 Z0 F800
G1 X44.114 Y38.224 Z0 F800
G1 X44.101 Y38.534 Z0 F800
G1 X44.155 Y38.84 Z0 F800
G1 X44.278 Y39.129 Z0 F800
G1 X44.473 Y39.388 Z0 F800
G1 X44.659 Y39.581 Z0 F800
G1 X44.893 Y39.735 Z0 F800
G1 X45.137 Y39.843 Z0 F800
G1 X45.353 Y39.897 Z0 F800
G1 X45.177 Y39.972 Z0 F800
G1 X45.043 Y40.082 Z0 F800
G1 X44.949 Y40.22 Z0 F800
G1 X44.895 Y40.378 Z0 F800
G1 X44.879 Y40.547 Z0 F800
G1 X44.902 Y40.72 Z0 F800
G1 X44.963 Y40.886 Z0 F800
G1 X46.172 Y42.789 Z0 F800
G1 X47.328 Y44.51 Z0 F800
G1 X48.503 Y46.218 Z0 F800
G1 X49.88 Y48.227 Z0 F800
G1 X50.128 Y48.531 Z0 F800
G1 X50.27 Y48.641 Z0 F800
G1 X50.425 Y48.698 Z0 F800
G1 X50.593 Y48.686 Z0 F800
G1 X50.775 Y48.586 Z0 F800
G1 X50.991 Y48.407 Z0 F800
G1 X51.191 Y48.208 Z0 F800
G1 X51.37 Y47.991 Z0 F800
G1 X51.522 Y47.757 Z0 F800
G1 X51.643 Y47.507 Z0 F800
G1 X51.726 Y47.244 Z0 F800
G1 X51.767 Y46.968 Z0 F800
G1 X51.76 Y46.68 Z0 F800
G1 X51.783 Y45.743 Z0 F800
G1 Y44.805 Z0 F800
G1 X51.991 Y44.765 Z0 F800
G1 X52.155 Y44.774 Z0 F800
G1 X52.278 Y44.828 Z0 F800
G1 X52.367 Y44.92 Z0 F800
G1 X52.425 Y45.045 Z0 F800
G1 X52.457 Y45.197 Z0 F800
G1 X52.468 Y45.37 Z0 F800
G1 X52.463 Y45.559 Z0 F800
G1 X52.482 Y46.325 Z0 F800
G1 X52.418 Y47.106 Z0 F800
G1 X52.334 Y47.485 Z0 F800
G1 X52.202 Y47.849 Z0 F800
G1 X52.015 Y48.188 Z0 F800
G1 X51.764 Y48.499 Z0 F800
G1 X51.514 Y48.779 Z0 F800
G1 X51.213 Y49.027 Z0 F800
G1 X51.073 Y49.153 Z0 F800
G1 X50.955 Y49.29 Z0 F800
G1 X50.87 Y49.441 Z0 F800
G1 X50.829 Y49.614 Z0 F800
G1 X51.048 Y49.969 Z0 F800
G1 X51.285 Y50.333 Z0 F800
G1 X51.417 Y50.502 Z0 F800
G1 X51.564 Y50.656 Z0 F800
G1 X51.728 Y50.787 Z0 F800
G1 X51.911 Y50.889 Z0 F800
G1 X52.046 Y50.862 Z0 F800
G1 X52.159 Y50.809 Z0 F800
G1 X52.251 Y50.735 Z0 F800
G1 X52.328 Y50.643 Z0 F800
G1 X52.444 Y50.418 Z0 F800
G1 X52.627 Y49.91 Z0 F800
G1 X52.748 Y49.683 Z0 F800
G1 X52.827 Y49.589 Z0 F800
G1 X52.924 Y49.514 Z0 F800
G1 X53.041 Y49.459 Z0 F800
G1 X53.182 Y49.43 Z0 F800
G1 X53.932 Y49.347 Z0 F800
G1 X54.685 Y49.312 Z0 F800
G1 X55.439 Y49.301 Z0 F800
G1 X56.194 Y49.293 Z0 F800
G1 X56.422 Y50.169 Z0 F800
G1 X56.591 Y51.054 Z0 F800
G1 X56.726 Y51.944 Z0 F800
G1 X56.852 Y52.835 Z0 F800
G1 X56.966 Y52.986 Z0 F800
G1 X57.113 Y53.077 Z0 F800
G1 X57.286 Y53.122 Z0 F800
G1 X57.475 Y53.134 Z0 F800
G1 X57.87 Y53.118 Z0 F800
G1 X58.236 Y53.138 Z0 F800
G1 X69.744 Y53.283 Z0 F800
G1 X81.577 Y53.399 Z0 F800
G1 X81.902 Y53.304 Z0 F800
G1 X82.026 Y53.216 Z0 F800
G1 X82.104 Y53.099 Z0 F800
G1 X82.12 Y52.952 Z0 F800
G1 X82.058 Y52.773 Z0 F800
G1 X81.82 Y52.368 Z0 F800
G1 X81.554 Y51.969 Z0 F800
G1 X81.395 Y51.806 Z0 F800
G1 X81.21 Y51.688 Z0 F800
G1 X80.995 Y51.627 Z0 F800
G1 X80.742 Y51.639 Z0 F800
G1 X79.129 Y51.57 Z0 F800
G1 X77.515 Y51.548 Z0 F800
G1 X75.9 Z0 F800
G1 X74.286 Y51.544 Z0 F800
G1 X74.024 Y50.512 Z0 F800
G1 X73.785 Y49.475 Z0 F800
G1 X75.81 Y49.5 Z0 F800
G1 X77.839 Y49.544 Z0 F800
G1 X79.866 Y49.622 Z0 F800
G1 X81.88 Y49.751 Z0 F800
G1 X82.164 Y49.897 Z0 F800
G1 X82.41 Y50.086 Z0 F800
G1 X82.624 Y50.313 Z0 F800
G1 X82.808 Y50.567 Z0 F800
G1 X83.102 Y51.133 Z0 F800
G1 X83.321 Y51.722 Z0 F800
G1 X83.38 Y51.852 Z0 F800
G1 X83.474 Y51.935 Z0 F800
G1 X83.588 Y51.975 Z0 F800
G1 X83.709 Z0 F800
G1 X83.824 Y51.934 Z0 F800
G1 X83.917 Y51.857 Z0 F800
G1 X83.976 Y51.747 Z0 F800
G1 X83.986 Y51.605 Z0 F800
G1 X84 Y51.175 Z0 F800
G1 X83.993 Y50.73 Z0 F800
G1 X83.954 Y50.283 Z0 F800
G1 X83.872 Y49.847 Z0 F800
G1 X83.736 Y49.433 Z0 F800
G1 X83.536 Y49.055 Z0 F800
G1 X83.407 Y48.883 Z0 F800
G1 X83.258 Y48.725 Z0 F800
G1 X83.087 Y48.582 Z0 F800
G1 X82.893 Y48.455 Z0 F800
G1 X82.397 Y48.248 Z0 F800
G1 X81.883 Y48.103 Z0 F800
G1 X81.355 Y48.005 Z0 F800
G1 X80.818 Y47.942 Z0 F800
G1 X79.743 Y47.862 Z0 F800
G1 X78.7 Y47.753 Z0 F800
G1 X79.26 Y42.409 Z0 F800
G1 X79.828 Y37.076 Z0 F800
G1 X80.761 Y37.015 Z0 F800
G1 X81.71 Y37.033 Z0 F800
G1 X82.667 Y37.076 Z0 F800
G1 X83.621 Y37.094 Z0 F800
G1 X85.136 Y37.135 Z0 F800
G0 Z3.5 F500
G0 X69.977 Y27.245 Z3.5 
G1 Z0 F500
G1 X69.966 Z0 F800
G1 X68.998 Y27.238 Z0 F800
G1 X69.022 Y26.229 Z0 F800
G1 X69.025 Y25.944 Z0 F800
G1 X69.977 Y27.245 Z0 F800
G0 Z3.5 F500
G0 X69.98 Y27.885 Z3.5 
G1 Z0 F500
G1 X68.342 Y27.874 Z0 F800
G1 X68.382 Y26.217 Z0 F800
G1 X68.402 Y24.58 Z0 F800
G1 X68.415 Y24.063 Z0 F800
G1 X69.023 Y24.857 Z0 F800
G1 X70.729 Y27.188 Z0 F800
G1 X71.229 Y27.886 Z0 F800
G1 X69.98 Z0 F800
G0 Z3.5 F500
G0 X67.701 Y27.9 Z3.5 
G1 Z0 F500
G1 X67.742 Y26.206 Z0 F800
G1 X67.763 Y24.565 Z0 F800
G1 X67.8 Y22.951 Z0 F800
G1 X67.837 Y22.294 Z0 F800
G1 X67.866 Z0 F800
G1 X69.544 Y24.485 Z0 F800
G1 X71.248 Y26.815 Z0 F800
G1 X72.478 Y28.527 Z0 F800
G1 X69.977 Z0 F800
G1 X67.689 Y28.509 Z0 F800
G1 X67.68 Y28.243 Z0 F800
G1 X67.701 Y27.9 Z0 F800
G0 Z3.5 F500
G0 X68.161 Y21.669 Z3.5 
G1 Z0 F500
G1 X68.211 Y21.683 Z0 F800
G1 X68.248 Y21.74 Z0 F800
G1 X70.054 Y24.098 Z0 F800
G1 X71.768 Y26.441 Z0 F800
G1 X73.48 Y28.826 Z0 F800
G1 X73.729 Y29.168 Z0 F800
G1 X69.972 Y29.165 Z0 F800
G1 X67.014 Y29.145 Z0 F800
G1 X67.043 Y28.964 Z0 F800
G1 X67.053 Y28.635 Z0 F800
G1 X67.039 Y28.235 Z0 F800
G1 X67.061 Y27.873 Z0 F800
G1 X67.102 Y26.194 Z0 F800
G1 X67.123 Y24.55 Z0 F800
G1 X67.161 Y22.915 Z0 F800
G1 X67.23 Y21.692 Z0 F800
G1 X67.5 Y21.654 Z0 F800
G1 X67.947 Z0 F800
G1 X68.161 Y21.669 Z0 F800
G0 Z3.5 F500
G0 X68.772 Y21.372 Z3.5 
G1 Z0 F500
G1 X70.569 Y23.718 Z0 F800
G1 X72.288 Y26.068 Z0 F800
G1 X74 Y28.451 Z0 F800
G1 X74.984 Y29.809 Z0 F800
G1 X69.968 Y29.805 Z0 F800
G1 X66.058 Y29.778 Z0 F800
G1 X66.239 Y29.521 Z0 F800
G1 X66.357 Y29.201 Z0 F800
G1 X66.405 Y28.903 Z0 F800
G1 X66.413 Y28.636 Z0 F800
G1 X66.398 Y28.225 Z0 F800
G1 X66.422 Y27.846 Z0 F800
G1 X66.462 Y26.182 Z0 F800
G1 X66.483 Y24.528 Z0 F800
G1 X66.521 Y22.908 Z0 F800
G1 X66.609 Y21.343 Z0 F800
G1 X66.619 Y21.313 Z0 F800
G1 X66.642 Y21.268 Z0 F800
G1 X66.666 Y21.235 Z0 F800
G1 X66.683 Y21.217 Z0 F800
G1 X66.804 Y21.14 Z0 F800
G1 X66.954 Y21.084 Z0 F800
G1 X67.453 Y21.015 Z0 F800
G1 X67.971 Z0 F800
G1 X68.271 Y21.035 Z0 F800
G1 X68.507 Y21.101 Z0 F800
G1 X68.569 Y21.133 Z0 F800
G1 X68.631 Y21.178 Z0 F800
G1 X68.681 Y21.23 Z0 F800
G1 X68.772 Y21.372 Z0 F800
G0 Z3.5 F500
G0 X71.077 Y23.329 Z3.5 
G1 Z0 F500
G1 X72.808 Y25.695 Z0 F800
G1 X74.519 Y28.077 Z0 F800
G1 X76.24 Y30.45 Z0 F800
G1 X69.963 Y30.445 Z0 F800
G1 X63.687 Y30.402 Z0 F800
G1 X63.505 Y30.445 Z0 F800
G1 X63.37 Y30.426 Z0 F800
G1 X63.276 Y30.355 Z0 F800
G1 X63.218 Y30.241 Z0 F800
G1 X63.189 Y30.091 Z0 F800
G1 X63.184 Y29.915 Z0 F800
G1 X63.196 Y29.72 Z0 F800
G1 X63.22 Y29.516 Z0 F800
G1 X63.806 Y29.504 Z0 F800
G1 X64.399 Y29.525 Z0 F800
G1 X64.695 Z0 F800
G1 X64.987 Y29.508 Z0 F800
G1 X65.273 Y29.463 Z0 F800
G1 X65.553 Y29.383 Z0 F800
G1 X65.668 Y29.22 Z0 F800
G1 X65.735 Y29.039 Z0 F800
G1 X65.766 Y28.843 Z0 F800
G1 X65.772 Y28.637 Z0 F800
G1 X65.758 Y28.218 Z0 F800
G1 X65.782 Y27.818 Z0 F800
G1 X65.822 Y26.17 Z0 F800
G1 X65.843 Y24.52 Z0 F800
G1 X65.882 Y22.872 Z0 F800
G1 X65.975 Y21.228 Z0 F800
G1 X66.024 Y21.071 Z0 F800
G1 X66.092 Y20.935 Z0 F800
G1 X66.178 Y20.817 Z0 F800
G1 X66.279 Y20.717 Z0 F800
G1 X66.519 Y20.563 Z0 F800
G1 X66.797 Y20.46 Z0 F800
G1 X67.409 Y20.375 Z0 F800
G1 X67.994 Z0 F800
G1 X68.378 Y20.401 Z0 F800
G1 X68.741 Y20.501 Z0 F800
G1 X68.906 Y20.586 Z0 F800
G1 X69.056 Y20.696 Z0 F800
G1 X69.188 Y20.834 Z0 F800
G1 X69.296 Y21.004 Z0 F800
G1 X71.077 Y23.329 Z0 F800
G0 Z3.5 F500
G0 X75.3 Y23.294 Z3.5 
G1 Z0 F500
G1 X75.746 Y23.571 Z0 F800
G1 X76.091 Y23.751 Z0 F800
G1 X75.952 Y24.035 Z0 F800
G1 X75.825 Y24.23 Z0 F800
G1 X75.679 Y24.676 Z0 F800
G1 X75.654 Y25.14 Z0 F800
G1 X75.605 Y25.067 Z0 F800
G1 X75.311 Y24.668 Z0 F800
G1 X74.922 Y24.107 Z0 F800
G1 X74.521 Y23.544 Z0 F800
G1 X74.498 Y23.508 Z0 F800
G1 X74.654 Y23.418 Z0 F800
G1 X75.018 Y23.157 Z0 F800
G1 X75.058 Y23.117 Z0 F800
G1 X75.3 Y23.294 Z0 F800
G0 Z3.5 F500
G0 X76.509 Y24.353 Z3.5 
G1 Z0 F500
G1 X76.407 Y24.509 Z0 F800
G1 X76.313 Y24.795 Z0 F800
G1 X76.297 Y25.09 Z0 F800
G1 X76.358 Y25.379 Z0 F800
G1 X76.496 Y25.645 Z0 F800
G1 X76.703 Y25.867 Z0 F800
G1 X76.969 Y26.026 Z0 F800
G1 X77.17 Y26.082 Z0 F800
G1 X78.062 Y26.383 Z0 F800
G1 X78.483 Y26.515 Z0 F800
G1 X77.038 Y26.412 Z0 F800
G1 X75.715 Y26.292 Z0 F800
G1 X75.587 Y26.163 Z0 F800
G1 X75.346 Y25.834 Z0 F800
G1 X75.081 Y25.435 Z0 F800
G1 X74.799 Y25.053 Z0 F800
G1 X74.399 Y24.475 Z0 F800
G1 X73.992 Y23.905 Z0 F800
G1 X73.629 Y23.348 Z0 F800
G1 X73.586 Y23.265 Z0 F800
G1 X74.023 Y23.042 Z0 F800
G1 X74.308 Y22.879 Z0 F800
G1 X74.601 Y22.668 Z0 F800
G1 X74.879 Y22.388 Z0 F800
G1 X74.977 Y22.23 Z0 F800
G1 X75.275 Y22.483 Z0 F800
G1 X75.659 Y22.763 Z0 F800
G1 X76.063 Y23.015 Z0 F800
G1 X76.486 Y23.235 Z0 F800
G1 X76.927 Y23.423 Z0 F800
G1 X77.354 Y23.565 Z0 F800
G1 X77.244 Y23.601 Z0 F800
G1 X76.922 Y23.788 Z0 F800
G1 X76.642 Y24.082 Z0 F800
G1 X76.509 Y24.353 Z0 F800
G0 Z3.5 F500
G0 X72.145 Y21.133 Z3.5 
G1 Z0 F500
G1 X72.111 Y21.086 Z0 F800
G1 X71.816 Y20.662 Z0 F800
G1 X71.598 Y20.304 Z0 F800
G1 X71.688 Y20.246 Z0 F800
G1 X72.264 Y19.909 Z0 F800
G1 X72.869 Y19.56 Z0 F800
G1 X73.081 Y19.426 Z0 F800
G1 X73.085 Y19.439 Z0 F800
G1 X73.261 Y19.882 Z0 F800
G1 X73.468 Y20.31 Z0 F800
G1 X73.555 Y20.46 Z0 F800
G1 X73.514 Y20.474 Z0 F800
G1 X72.995 Y20.688 Z0 F800
G1 X72.519 Y20.942 Z0 F800
G1 X72.145 Y21.133 Z0 F800
G0 Z3.5 F500
G0 X71.592 Y21.46 Z3.5 
G1 Z0 F500
G1 X71.278 Y21.009 Z0 F800
G1 X70.996 Y20.546 Z0 F800
G1 X70.778 Y20.074 Z0 F800
G1 X71.352 Y19.701 Z0 F800
G1 X71.943 Y19.355 Z0 F800
G1 X72.538 Y19.012 Z0 F800
G1 X73.118 Y18.646 Z0 F800
G1 X73.2 Y18.583 Z0 F800
G1 X73.277 Y18.544 Z0 F800
G1 X73.346 Y18.53 Z0 F800
G1 X73.408 Y18.54 Z0 F800
G1 X73.461 Y18.573 Z0 F800
G1 X73.504 Y18.63 Z0 F800
G1 X73.537 Y18.71 Z0 F800
G1 X73.558 Y18.813 Z0 F800
G1 X73.688 Y19.224 Z0 F800
G1 X73.847 Y19.624 Z0 F800
G1 X74.035 Y20.011 Z0 F800
G1 X74.249 Y20.384 Z0 F800
G1 X74.488 Y20.742 Z0 F800
G1 X74.751 Y21.083 Z0 F800
G1 X75.037 Y21.403 Z0 F800
G1 X75.344 Y21.703 Z0 F800
G1 X75.671 Y21.98 Z0 F800
G1 X76.017 Y22.232 Z0 F800
G1 X76.38 Y22.458 Z0 F800
G1 X76.76 Y22.656 Z0 F800
G1 X77.154 Y22.824 Z0 F800
G1 X77.561 Y22.96 Z0 F800
G1 X77.98 Y23.063 Z0 F800
G1 X78.41 Y23.13 Z0 F800
G1 X78.786 Y23.172 Z0 F800
G1 X79.168 Y23.186 Z0 F800
G1 X79.914 Z0 F800
G1 X79.825 Y23.381 Z0 F800
G1 X79.709 Y23.555 Z0 F800
G1 X79.569 Y23.706 Z0 F800
G1 X79.407 Y23.832 Z0 F800
G1 X79.228 Y23.931 Z0 F800
G1 X79.033 Y24.001 Z0 F800
G1 X78.828 Y24.042 Z0 F800
G1 X78.168 Y24.067 Z0 F800
G1 X77.713 Y24.122 Z0 F800
G1 X77.505 Y24.188 Z0 F800
G1 X77.322 Y24.295 Z0 F800
G1 X77.173 Y24.452 Z0 F800
G1 X77.067 Y24.668 Z0 F800
G1 X76.989 Y24.788 Z0 F800
G1 X76.948 Y24.914 Z0 F800
G1 X76.941 Y25.041 Z0 F800
G1 X76.966 Y25.162 Z0 F800
G1 X77.023 Y25.272 Z0 F800
G1 X77.109 Y25.364 Z0 F800
G1 X77.223 Y25.432 Z0 F800
G1 X77.362 Y25.471 Z0 F800
G1 X78.26 Y25.774 Z0 F800
G1 X79.167 Y26.059 Z0 F800
G1 X80.078 Y26.321 Z0 F800
G1 X80.989 Y26.559 Z0 F800
G1 X81.199 Y26.453 Z0 F800
G1 X81.388 Y26.293 Z0 F800
G1 X81.567 Y26.103 Z0 F800
G1 X81.744 Y25.905 Z0 F800
G1 X81.93 Y25.725 Z0 F800
G1 X82.133 Y25.585 Z0 F800
G1 X82.364 Y25.51 Z0 F800
G1 X82.631 Y25.523 Z0 F800
G1 X82.841 Y25.575 Z0 F800
G1 X83.079 Y25.628 Z0 F800
G1 X83.289 Y25.698 Z0 F800
G1 X83.421 Y25.801 Z0 F800
G1 X83.018 Y26.236 Z0 F800
G1 X82.608 Y26.673 Z0 F800
G1 X82.175 Y27.081 Z0 F800
G1 X81.701 Y27.427 Z0 F800
G1 X81.677 Z0 F800
G1 X80.116 Y27.275 Z0 F800
G1 X78.551 Y27.161 Z0 F800
G1 X76.986 Y27.049 Z0 F800
G1 X75.425 Y26.908 Z0 F800
G1 X75.101 Y26.581 Z0 F800
G1 X74.821 Y26.2 Z0 F800
G1 X74.557 Y25.802 Z0 F800
G1 X74.277 Y25.424 Z0 F800
G1 X73.875 Y24.843 Z0 F800
G1 X73.462 Y24.263 Z0 F800
G1 X73.075 Y23.67 Z0 F800
G1 X72.754 Y23.047 Z0 F800
G1 X73.212 Y22.738 Z0 F800
G1 X73.719 Y22.479 Z0 F800
G1 X73.962 Y22.34 Z0 F800
G1 X74.184 Y22.18 Z0 F800
G1 X74.374 Y21.988 Z0 F800
G1 X74.521 Y21.753 Z0 F800
G1 X74.546 Y21.581 Z0 F800
G1 X74.521 Y21.418 Z0 F800
G1 X74.454 Y21.273 Z0 F800
G1 X74.351 Y21.152 Z0 F800
G1 X74.22 Y21.064 Z0 F800
G1 X74.069 Y21.017 Z0 F800
G1 X73.906 Z0 F800
G1 X73.738 Y21.074 Z0 F800
G1 X73.269 Y21.267 Z0 F800
G1 X72.81 Y21.512 Z0 F800
G1 X72.358 Y21.743 Z0 F800
G1 X71.908 Y21.898 Z0 F800
G1 X71.592 Y21.46 Z0 F800
G0 Z3.5 F500
G0 X79.495 Y17.009 Z3.5 
G1 Z0 F500
G1 X79.514 Y17.021 Z0 F800
G1 X79.509 Y17.167 Z0 F800
G1 X79.496 Y17.204 Z0 F800
G1 X79.442 Z0 F800
G1 X79.42 Y17.199 Z0 F800
G1 X79.397 Y17.186 Z0 F800
G1 X79.375 Y17.165 Z0 F800
G1 X79.363 Y17.146 Z0 F800
G1 X79.359 Y17.131 Z0 F800
G1 Y17.12 Z0 F800
G1 X79.386 Y17.026 Z0 F800
G1 X79.395 Y16.998 Z0 F800
G1 X79.445 Z0 F800
G1 X79.495 Y17.009 Z0 F800
G0 Z3.5 F500
G0 X80.146 Y17.291 Z3.5 
G1 Z0 F500
G1 X80.042 Y17.572 Z0 F800
G1 X79.956 Y17.688 Z0 F800
G1 X79.847 Y17.778 Z0 F800
G1 X79.717 Y17.833 Z0 F800
G1 X79.567 Y17.843 Z0 F800
G1 X79.364 Y17.846 Z0 F800
G1 X79.176 Y17.796 Z0 F800
G1 X79.01 Y17.702 Z0 F800
G1 X78.874 Y17.571 Z0 F800
G1 X78.775 Y17.411 Z0 F800
G1 X78.721 Y17.231 Z0 F800
G1 X78.717 Y17.038 Z0 F800
G1 X78.773 Y16.841 Z0 F800
G1 X78.813 Y16.71 Z0 F800
G1 X78.874 Y16.601 Z0 F800
G1 X78.955 Y16.511 Z0 F800
G1 X79.051 Y16.441 Z0 F800
G1 X79.276 Y16.36 Z0 F800
G1 X79.521 Y16.354 Z0 F800
G1 X79.76 Y16.418 Z0 F800
G1 X79.963 Y16.55 Z0 F800
G1 X80.043 Y16.641 Z0 F800
G1 X80.104 Y16.747 Z0 F800
G1 X80.142 Y16.868 Z0 F800
G1 X80.154 Y17.003 Z0 F800
G1 X80.146 Y17.291 Z0 F800
G0 Z3.5 F500
G0 X80.232 Y20.299 Z3.5 
G1 Z0 F500
G1 X80.545 Y20.206 Z0 F800
G1 X80.845 Y20.079 Z0 F800
G1 X81.129 Y19.921 Z0 F800
G1 X81.397 Y19.735 Z0 F800
G1 X81.647 Y19.524 Z0 F800
G1 X81.875 Y19.289 Z0 F800
G1 X82.082 Y19.033 Z0 F800
G1 X82.263 Y18.76 Z0 F800
G1 X82.418 Y18.47 Z0 F800
G1 X82.545 Y18.168 Z0 F800
G1 X82.641 Y17.854 Z0 F800
G1 X82.704 Y17.533 Z0 F800
G1 X82.733 Y17.206 Z0 F800
G1 X82.726 Y16.876 Z0 F800
G1 X82.674 Y16.421 Z0 F800
G1 X82.546 Y15.988 Z0 F800
G1 X82.351 Y15.58 Z0 F800
G1 X82.097 Y15.2 Z0 F800
G1 X81.796 Y14.853 Z0 F800
G1 X81.457 Y14.543 Z0 F800
G1 X81.088 Y14.273 Z0 F800
G1 X80.7 Y14.048 Z0 F800
G1 X80.413 Y13.961 Z0 F800
G1 X80.12 Y13.9 Z0 F800
G1 X79.822 Y13.863 Z0 F800
G1 X79.522 Y13.852 Z0 F800
G1 X78.925 Y13.902 Z0 F800
G1 X78.346 Y14.049 Z0 F800
G1 X78.068 Y14.157 Z0 F800
G1 X77.802 Y14.289 Z0 F800
G1 X77.549 Y14.443 Z0 F800
G1 X77.311 Y14.62 Z0 F800
G1 X77.09 Y14.819 Z0 F800
G1 X76.89 Y15.04 Z0 F800
G1 X76.71 Y15.282 Z0 F800
G1 X76.556 Y15.546 Z0 F800
G1 X76.38 Y15.927 Z0 F800
G1 X76.264 Y16.328 Z0 F800
G1 X76.204 Y16.743 Z0 F800
G1 X76.197 Y17.165 Z0 F800
G1 X76.24 Y17.586 Z0 F800
G1 X76.327 Y18 Z0 F800
G1 X76.457 Y18.401 Z0 F800
G1 X76.624 Y18.781 Z0 F800
G1 X76.873 Y19.145 Z0 F800
G1 X77.171 Y19.465 Z0 F800
G1 X77.511 Y19.74 Z0 F800
G1 X77.885 Y19.969 Z0 F800
G1 X78.287 Y20.148 Z0 F800
G1 X78.707 Y20.277 Z0 F800
G1 X79.14 Y20.354 Z0 F800
G1 X79.577 Y20.376 Z0 F800
G1 X79.909 Y20.357 Z0 F800
G1 X80.232 Y20.299 Z0 F800
G0 Z3.5 F500
G0 X82.084 Y19.992 Z3.5 
G1 Z0 F500
G1 X82.355 Y19.714 Z0 F800
G1 X82.599 Y19.412 Z0 F800
G1 X82.813 Y19.089 Z0 F800
G1 X82.997 Y18.746 Z0 F800
G1 X83.147 Y18.385 Z0 F800
G1 X83.262 Y18.01 Z0 F800
G1 X83.338 Y17.624 Z0 F800
G1 X83.374 Y17.228 Z0 F800
G1 X83.365 Y16.833 Z0 F800
G1 X83.304 Y16.293 Z0 F800
G1 X83.145 Y15.758 Z0 F800
G1 X82.908 Y15.262 Z0 F800
G1 X82.607 Y14.812 Z0 F800
G1 X82.255 Y14.406 Z0 F800
G1 X81.862 Y14.047 Z0 F800
G1 X81.438 Y13.737 Z0 F800
G1 X80.957 Y13.458 Z0 F800
G1 X80.572 Y13.341 Z0 F800
G1 X80.225 Y13.268 Z0 F800
G1 X79.873 Y13.225 Z0 F800
G1 X79.507 Y13.211 Z0 F800
G1 X78.819 Y13.269 Z0 F800
G1 X78.15 Y13.438 Z0 F800
G1 X77.81 Y13.571 Z0 F800
G1 X77.493 Y13.727 Z0 F800
G1 X77.191 Y13.912 Z0 F800
G1 X76.904 Y14.124 Z0 F800
G1 X76.638 Y14.365 Z0 F800
G1 X76.394 Y14.633 Z0 F800
G1 X76.176 Y14.929 Z0 F800
G1 X75.988 Y15.249 Z0 F800
G1 X75.779 Y15.702 Z0 F800
G1 X75.637 Y16.192 Z0 F800
G1 X75.565 Y16.692 Z0 F800
G1 X75.557 Y17.191 Z0 F800
G1 X75.606 Y17.685 Z0 F800
G1 X75.708 Y18.165 Z0 F800
G1 X75.857 Y18.629 Z0 F800
G1 X76.063 Y19.094 Z0 F800
G1 X76.372 Y19.546 Z0 F800
G1 X76.733 Y19.934 Z0 F800
G1 X77.141 Y20.264 Z0 F800
G1 X77.586 Y20.536 Z0 F800
G1 X78.061 Y20.749 Z0 F800
G1 X78.557 Y20.901 Z0 F800
G1 X79.067 Y20.991 Z0 F800
G1 X79.58 Y21.018 Z0 F800
G1 X79.984 Y20.994 Z0 F800
G1 X80.381 Y20.923 Z0 F800
G1 X80.762 Y20.809 Z0 F800
G1 X81.125 Y20.655 Z0 F800
G1 X81.467 Y20.466 Z0 F800
G1 X81.788 Y20.244 Z0 F800
G1 X82.084 Y19.992 Z0 F800
G0 Z3.5 F500
G0 X83.037 Y19.287 Z3.5 
G1 Z0 F500
G1 X82.743 Y19.708 Z0 F800
G1 X82.398 Y20.09 Z0 F800
G1 X82.007 Y20.429 Z0 F800
G1 X81.576 Y20.718 Z0 F800
G1 X81.116 Y20.95 Z0 F800
G1 X80.615 Y21.125 Z0 F800
G1 X80.322 Y21.206 Z0 F800
G1 X80.041 Y21.259 Z0 F800
G1 X79.74 Y21.291 Z0 F800
G1 X79.453 Y21.296 Z0 F800
G1 X78.886 Y21.266 Z0 F800
G1 X78.354 Y21.16 Z0 F800
G1 X77.841 Y20.982 Z0 F800
G1 X77.35 Y20.736 Z0 F800
G1 X76.895 Y20.429 Z0 F800
G1 X76.479 Y20.063 Z0 F800
G1 X76.118 Y19.651 Z0 F800
G1 X75.805 Y19.182 Z0 F800
G1 X75.588 Y18.8 Z0 F800
G1 X75.438 Y18.422 Z0 F800
G1 X75.335 Y18.026 Z0 F800
G1 X75.277 Y17.611 Z0 F800
G1 X75.26 Y17.175 Z0 F800
G1 X75.282 Y16.738 Z0 F800
G1 X75.339 Y16.293 Z0 F800
G1 X75.421 Y15.882 Z0 F800
G1 X75.565 Y15.482 Z0 F800
G1 X75.762 Y15.083 Z0 F800
G1 X76.002 Y14.708 Z0 F800
G1 X76.282 Y14.358 Z0 F800
G1 X76.601 Y14.031 Z0 F800
G1 X76.945 Y13.741 Z0 F800
G1 X77.321 Y13.481 Z0 F800
G1 X77.684 Y13.28 Z0 F800
G1 X78.192 Y13.112 Z0 F800
G1 X78.742 Y12.996 Z0 F800
G1 X79.3 Y12.941 Z0 F800
G1 X79.867 Y12.951 Z0 F800
G1 X80.413 Y13.028 Z0 F800
G1 X80.942 Y13.175 Z0 F800
G1 X81.436 Y13.393 Z0 F800
G1 X81.906 Y13.694 Z0 F800
G1 X82.165 Y13.896 Z0 F800
G1 X82.402 Y14.116 Z0 F800
G1 X82.623 Y14.356 Z0 F800
G1 X82.825 Y14.614 Z0 F800
G1 X83.007 Y14.889 Z0 F800
G1 X83.167 Y15.175 Z0 F800
G1 X83.304 Y15.468 Z0 F800
G1 X83.422 Y15.781 Z0 F800
G1 X83.515 Y16.098 Z0 F800
G1 X83.582 Y16.415 Z0 F800
G1 X83.625 Y16.737 Z0 F800
G1 X83.643 Y17.066 Z0 F800
G1 X83.634 Y17.386 Z0 F800
G1 X83.6 Y17.708 Z0 F800
G1 X83.538 Y18.021 Z0 F800
G1 X83.444 Y18.347 Z0 F800
G1 X83.269 Y18.84 Z0 F800
G1 X83.037 Y19.287 Z0 F800
G0 Z3.5 F500
G0 X82.396 Y20.939 Z3.5 
G1 Z0 F500
G1 X81.899 Y21.272 Z0 F800
G1 X81.367 Y21.54 Z0 F800
G1 X80.804 Y21.737 Z0 F800
G1 X80.47 Y21.829 Z0 F800
G1 X80.129 Y21.894 Z0 F800
G1 X79.785 Y21.93 Z0 F800
G1 X79.438 Y21.937 Z0 F800
G1 X78.805 Y21.903 Z0 F800
G1 X78.187 Y21.78 Z0 F800
G1 X77.591 Y21.574 Z0 F800
G1 X77.027 Y21.291 Z0 F800
G1 X76.503 Y20.937 Z0 F800
G1 X76.027 Y20.518 Z0 F800
G1 X75.609 Y20.041 Z0 F800
G1 X75.256 Y19.512 Z0 F800
G1 X75.01 Y19.079 Z0 F800
G1 X74.828 Y18.623 Z0 F800
G1 X74.706 Y18.151 Z0 F800
G1 X74.638 Y17.667 Z0 F800
G1 X74.619 Y17.175 Z0 F800
G1 X74.644 Y16.682 Z0 F800
G1 X74.707 Y16.192 Z0 F800
G1 X74.803 Y15.71 Z0 F800
G1 X74.976 Y15.229 Z0 F800
G1 X75.204 Y14.769 Z0 F800
G1 X75.481 Y14.336 Z0 F800
G1 X75.803 Y13.933 Z0 F800
G1 X76.163 Y13.563 Z0 F800
G1 X76.558 Y13.23 Z0 F800
G1 X76.98 Y12.938 Z0 F800
G1 X77.427 Y12.69 Z0 F800
G1 X78.023 Y12.494 Z0 F800
G1 X78.644 Y12.363 Z0 F800
G1 X79.278 Y12.3 Z0 F800
G1 X79.916 Y12.311 Z0 F800
G1 X80.545 Y12.4 Z0 F800
G1 X81.156 Y12.57 Z0 F800
G1 X81.738 Y12.827 Z0 F800
G1 X82.279 Y13.174 Z0 F800
G1 X82.578 Y13.407 Z0 F800
G1 X82.856 Y13.664 Z0 F800
G1 X83.111 Y13.942 Z0 F800
G1 X83.344 Y14.239 Z0 F800
G1 X83.553 Y14.553 Z0 F800
G1 X83.737 Y14.882 Z0 F800
G1 X83.896 Y15.224 Z0 F800
G1 X84.029 Y15.577 Z0 F800
G1 X84.135 Y15.938 Z0 F800
G1 X84.213 Y16.307 Z0 F800
G1 X84.263 Y16.679 Z0 F800
G1 X84.283 Y17.055 Z0 F800
G1 X84.273 Y17.43 Z0 F800
G1 X84.233 Y17.804 Z0 F800
G1 X84.16 Y18.174 Z0 F800
G1 X84.055 Y18.539 Z0 F800
G1 X83.857 Y19.095 Z0 F800
G1 X83.585 Y19.62 Z0 F800
G1 X83.246 Y20.106 Z0 F800
G1 X82.847 Y20.549 Z0 F800
G1 X82.396 Y20.939 Z0 F800
G0 Z3.5 F500
G0 X58.001 Y25.912 Z3.5 
G1 Z0 F500
G1 X57.95 Z0 F800
G1 Y25.885 Z0 F800
G1 X57.929 Y25.089 Z0 F800
G1 X58.338 Y25.067 Z0 F800
G1 X58.001 Y25.912 Z0 F800
G0 Z3.5 F500
G0 X57.335 Y26.554 Z3.5 
G1 Z0 F500
G1 X57.31 Y25.926 Z0 F800
G1 X57.284 Y24.878 Z0 F800
G1 Y24.483 Z0 F800
G1 X58.833 Y24.4 Z0 F800
G1 X60.446 Y24.352 Z0 F800
G1 X60.443 Y24.58 Z0 F800
G1 X58.982 Y25.18 Z0 F800
G1 X58.435 Y26.551 Z0 F800
G1 X57.335 Y26.554 Z0 F800
G0 Z3.5 F500
G0 X56.671 Y25.958 Z3.5 
G1 Z0 F500
G1 X56.645 Y24.898 Z0 F800
G1 X56.639 Y23.879 Z0 F800
G1 X56.761 Y23.87 Z0 F800
G1 X58.8 Y23.76 Z0 F800
G1 X60.889 Y23.698 Z0 F800
G1 X61.096 Z0 F800
G1 X61.082 Y24.645 Z0 F800
G1 X61.071 Y25.013 Z0 F800
G1 X59.476 Y25.669 Z0 F800
G1 X58.869 Y27.19 Z0 F800
G1 X56.72 Y27.195 Z0 F800
G1 X56.671 Y25.958 Z0 F800
G0 Z3.5 F500
G0 X56.719 Y23.231 Z3.5 
G1 Z0 F500
G1 X58.766 Y23.121 Z0 F800
G1 X60.865 Y23.059 Z0 F800
G1 X61.745 Y23.053 Z0 F800
G1 Y23.106 Z0 F800
G1 X61.722 Y24.642 Z0 F800
G1 X61.697 Y25.498 Z0 F800
G1 X61.433 Y25.557 Z0 F800
G1 X59.97 Y26.158 Z0 F800
G1 X59.404 Y27.575 Z0 F800
G1 X59.351 Y27.794 Z0 F800
G1 X59.165 Y27.812 Z0 F800
G1 X59.047 Y27.83 Z0 F800
G1 X56.426 Y27.836 Z0 F800
G1 X56.104 Z0 F800
G1 X56.03 Y25.937 Z0 F800
G1 X56.004 Y24.918 Z0 F800
G1 X55.999 Y23.883 Z0 F800
G1 X56.012 Y23.286 Z0 F800
G1 X56.719 Y23.231 Z0 F800
G0 Z3.5 F500
G0 X60.842 Y22.418 Z3.5 
G1 Z0 F500
G1 X62.387 Y22.408 Z0 F800
G1 Y23.085 Z0 F800
G1 X62.362 Y24.66 Z0 F800
G1 X62.322 Y26.034 Z0 F800
G1 X62.172 Y26.048 Z0 F800
G1 X61.625 Y26.169 Z0 F800
G1 X60.464 Y26.647 Z0 F800
G1 X60.016 Y27.77 Z0 F800
G1 X59.897 Y28.258 Z0 F800
G1 X59.88 Y28.392 Z0 F800
G1 X59.624 Y28.41 Z0 F800
G1 X59.243 Y28.447 Z0 F800
G1 X59.094 Y28.47 Z0 F800
G1 X56.429 Y28.476 Z0 F800
G1 X55.488 Y28.481 Z0 F800
G1 X55.477 Y28.155 Z0 F800
G1 X55.391 Y25.981 Z0 F800
G1 X55.364 Y24.913 Z0 F800
G1 X55.358 Y23.872 Z0 F800
G1 X55.381 Y22.854 Z0 F800
G1 X55.391 Y22.692 Z0 F800
G1 X56.655 Y22.594 Z0 F800
G1 X58.775 Y22.48 Z0 F800
G1 X60.842 Y22.418 Z0 F800
G0 Z3.5 F500
G0 X63.029 Y21.766 Z3.5 
G1 Z0 F500
G1 X63.025 Y23.095 Z0 F800
G1 X63.002 Y24.679 Z0 F800
G1 X62.956 Y26.257 Z0 F800
G1 X62.938 Y26.639 Z0 F800
G1 X62.683 Y26.642 Z0 F800
G1 X62.272 Y26.681 Z0 F800
G1 X61.818 Y26.782 Z0 F800
G1 X60.958 Y27.136 Z0 F800
G1 X60.627 Y27.965 Z0 F800
G1 X60.527 Y28.375 Z0 F800
G1 X60.479 Y28.751 Z0 F800
G1 X60.464 Y28.999 Z0 F800
G1 X60.055 Y29.021 Z0 F800
G1 X59.677 Y29.048 Z0 F800
G1 X59.321 Y29.083 Z0 F800
G1 X59.142 Y29.109 Z0 F800
G1 X56.431 Y29.116 Z0 F800
G1 X54.87 Y29.125 Z0 F800
G1 X54.837 Y28.179 Z0 F800
G1 X54.751 Y26.006 Z0 F800
G1 X54.724 Y24.914 Z0 F800
G1 X54.718 Y23.886 Z0 F800
G1 X54.742 Y22.817 Z0 F800
G1 X54.784 Y22.098 Z0 F800
G1 X56.631 Y21.954 Z0 F800
G1 X58.743 Y21.841 Z0 F800
G1 X60.839 Y21.778 Z0 F800
G1 X62.928 Y21.764 Z0 F800
G1 X63.029 Z0 F800
G0 Z3.5 F500
G0 X63.669 Y21.532 Z3.5 
G1 Z0 F500
G1 X63.665 Y23.104 Z0 F800
G1 X63.641 Y24.707 Z0 F800
G1 X63.596 Y26.287 Z0 F800
G1 X63.548 Y27.293 Z0 F800
G1 X63.04 Y27.278 Z0 F800
G1 X62.717 Y27.282 Z0 F800
G1 X62.373 Y27.314 Z0 F800
G1 X62.011 Y27.395 Z0 F800
G1 X61.452 Y27.625 Z0 F800
G1 X61.238 Y28.161 Z0 F800
G1 X61.157 Y28.492 Z0 F800
G1 X61.116 Y28.811 Z0 F800
G1 X61.099 Y29.114 Z0 F800
G1 X61.091 Y29.605 Z0 F800
G1 X60.095 Y29.66 Z0 F800
G1 X59.731 Y29.686 Z0 F800
G1 X59.399 Y29.718 Z0 F800
G1 X59.193 Y29.749 Z0 F800
G1 X56.434 Y29.756 Z0 F800
G1 X54.251 Y29.768 Z0 F800
G1 X54.198 Y28.202 Z0 F800
G1 X54.111 Y26.013 Z0 F800
G1 X54.084 Y24.942 Z0 F800
G1 X54.079 Y23.854 Z0 F800
G1 X54.102 Y22.808 Z0 F800
G1 X54.164 Y21.728 Z0 F800
G1 X54.172 Y21.623 Z0 F800
G1 X54.184 Y21.581 Z0 F800
G1 X54.201 Y21.549 Z0 F800
G1 X54.223 Y21.524 Z0 F800
G1 X54.25 Y21.503 Z0 F800
G1 X54.28 Y21.489 Z0 F800
G1 X54.314 Y21.481 Z0 F800
G1 X54.455 Z0 F800
G1 X56.588 Y21.315 Z0 F800
G1 X58.71 Y21.202 Z0 F800
G1 X60.818 Y21.139 Z0 F800
G1 X62.933 Y21.125 Z0 F800
G1 X63.127 Z0 F800
G1 X63.28 Y21.151 Z0 F800
G1 X63.425 Y21.196 Z0 F800
G1 X63.54 Y21.252 Z0 F800
G1 X63.613 Y21.31 Z0 F800
G1 X63.646 Y21.354 Z0 F800
G1 X63.662 Y21.394 Z0 F800
G1 X63.669 Y21.532 Z0 F800
G0 Z3.5 F500
G0 X64.281 Y24.716 Z3.5 
G1 Z0 F500
G1 X64.235 Y26.317 Z0 F800
G1 X64.16 Y27.909 Z0 F800
G1 X63.604 Y27.936 Z0 F800
G1 X63.034 Y27.918 Z0 F800
G1 X62.75 Y27.921 Z0 F800
G1 X62.473 Y27.948 Z0 F800
G1 X62.204 Y28.008 Z0 F800
G1 X61.946 Y28.114 Z0 F800
G1 X61.849 Y28.356 Z0 F800
G1 X61.788 Y28.609 Z0 F800
G1 X61.754 Y28.871 Z0 F800
G1 X61.738 Y29.137 Z0 F800
G1 X61.73 Y29.675 Z0 F800
G1 X61.695 Y30.201 Z0 F800
G1 X61.491 Y30.222 Z0 F800
G1 X61.208 Y30.24 Z0 F800
G1 X60.135 Y30.299 Z0 F800
G1 X59.785 Y30.324 Z0 F800
G1 X59.478 Y30.354 Z0 F800
G1 X59.24 Y30.389 Z0 F800
G1 X56.436 Y30.396 Z0 F800
G1 X53.632 Y30.411 Z0 F800
G1 X53.558 Y28.226 Z0 F800
G1 X53.472 Y26.038 Z0 F800
G1 X53.444 Y24.946 Z0 F800
G1 X53.438 Y23.857 Z0 F800
G1 X53.463 Y22.771 Z0 F800
G1 X53.525 Y21.691 Z0 F800
G1 X53.539 Y21.507 Z0 F800
G1 X53.588 Y21.337 Z0 F800
G1 X53.67 Y21.185 Z0 F800
G1 X53.781 Y21.056 Z0 F800
G1 X53.917 Y20.952 Z0 F800
G1 X54.072 Y20.88 Z0 F800
G1 X54.245 Y20.841 Z0 F800
G1 X54.43 Z0 F800
G1 X56.544 Y20.677 Z0 F800
G1 X58.677 Y20.563 Z0 F800
G1 X60.813 Y20.499 Z0 F800
G1 X62.938 Y20.484 Z0 F800
G1 X63.178 Y20.488 Z0 F800
G1 X63.424 Y20.526 Z0 F800
G1 X63.663 Y20.599 Z0 F800
G1 X63.882 Y20.708 Z0 F800
G1 X64.07 Y20.854 Z0 F800
G1 X64.211 Y21.038 Z0 F800
G1 X64.296 Y21.26 Z0 F800
G1 X64.309 Y21.52 Z0 F800
G1 X64.305 Y23.113 Z0 F800
G1 X64.281 Y24.716 Z0 F800
G0 Z3.5 F500
G0 X56.691 Y34.029 Z3.5 
G1 Z0 F500
G1 X56.428 Z0 F800
G1 X56.359 Y34.021 Z0 F800
G1 X56.693 Z0 F800
G1 Y34.029 Z0 F800
G0 Z3.5 F500
G0 X56.714 Y34.669 Z3.5 
G1 Z0 F500
G1 X56.39 Z0 F800
G1 X56.104 Y34.639 Z0 F800
G1 X55.395 Y34.593 Z0 F800
G1 X54.699 Y34.558 Z0 F800
G1 X54.022 Y34.512 Z0 F800
G1 X53.837 Y34.49 Z0 F800
G1 X53.809 Y34.28 Z0 F800
G1 X53.74 Y34.018 Z0 F800
G1 X53.603 Y33.735 Z0 F800
G1 X53.357 Y33.469 Z0 F800
G1 X53.009 Y33.287 Z0 F800
G1 X52.687 Y33.24 Z0 F800
G1 X52.398 Y33.275 Z0 F800
G1 X52.136 Y33.375 Z0 F800
G1 X51.985 Y33.479 Z0 F800
G1 X51.97 Y33.046 Z0 F800
G1 X52.135 Y33.12 Z0 F800
G1 X52.454 Y33.198 Z0 F800
G1 X52.802 Y33.251 Z0 F800
G1 X53.188 Y33.292 Z0 F800
G1 X53.61 Y33.323 Z0 F800
G1 X54.056 Y33.347 Z0 F800
G1 X54.517 Y33.362 Z0 F800
G1 X55.427 Y33.379 Z0 F800
G1 X56.243 Y33.382 Z0 F800
G1 X57.121 Y33.378 Z0 F800
G1 X57.259 Y33.402 Z0 F800
G1 X57.296 Y33.421 Z0 F800
G1 X57.313 Y33.438 Z0 F800
G1 X57.339 Y33.496 Z0 F800
G1 X57.364 Y33.615 Z0 F800
G1 X57.37 Y33.79 Z0 F800
G1 X57.35 Y34.001 Z0 F800
G1 X57.303 Y34.237 Z0 F800
G1 X57.239 Y34.462 Z0 F800
G1 X57.158 Y34.686 Z0 F800
G1 X57.137 Y34.731 Z0 F800
G1 X56.941 Y34.688 Z0 F800
G1 X56.714 Y34.669 Z0 F800
G0 Z3.5 F500
G0 X54.085 Y39.49 Z3.5 
G1 Z0 F500
G1 X54.433 Y39.5 Z0 F800
G1 X54.744 Z0 F800
G1 X54.806 Y39.51 Z0 F800
G1 X54.843 Y40.269 Z0 F800
G1 X54.86 Y41.474 Z0 F800
G1 X54.838 Y42.68 Z0 F800
G1 X54.798 Y43.593 Z0 F800
G1 X54.728 Y43.596 Z0 F800
G1 X54.483 Z0 F800
G1 X54.105 Y43.566 Z0 F800
G1 X54.084 Y43.273 Z0 F800
G1 X54.088 Y42.677 Z0 F800
G1 Y42.03 Z0 F800
G1 X54.018 Y41.145 Z0 F800
G1 X53.719 Y40.868 Z0 F800
G1 X53.905 Y40.65 Z0 F800
G1 X54.029 Y40.343 Z0 F800
G1 X54.077 Y40.06 Z0 F800
G1 X54.081 Y39.66 Z0 F800
G1 X54.085 Y39.49 Z0 F800
G0 Z3.5 F500
G0 X51.267 Y23.773 Z3.5 
G1 Z0 F500
G1 X50.946 Y23.611 Z0 F800
G1 X50.646 Y23.561 Z0 F800
G1 X50.26 Y23.585 Z0 F800
G1 X49.968 Y23.623 Z0 F800
G1 X49.077 Y23.73 Z0 F800
G1 X48.167 Y23.857 Z0 F800
G1 X47.606 Y23.933 Z0 F800
G1 X47.781 Y23.693 Z0 F800
G1 X48.094 Y23.364 Z0 F800
G1 X48.443 Y23.083 Z0 F800
G1 X48.823 Y22.859 Z0 F800
G1 X49.227 Y22.698 Z0 F800
G1 X49.7 Y22.594 Z0 F800
G1 X50.831 Y22.361 Z0 F800
G1 X51.233 Y22.287 Z0 F800
G1 X51.267 Y23.773 Z0 F800
G0 Z3.5 F500
G0 X50.975 Y24.532 Z3.5 
G1 Z0 F500
G1 X50.935 Y24.38 Z0 F800
G1 X50.855 Y24.281 Z0 F800
G1 X50.745 Y24.226 Z0 F800
G1 X50.614 Y24.204 Z0 F800
G1 X50.322 Y24.223 Z0 F800
G1 X50.051 Y24.258 Z0 F800
G1 X49.159 Y24.365 Z0 F800
G1 X48.256 Y24.491 Z0 F800
G1 X47.365 Y24.61 Z0 F800
G1 X46.512 Y24.695 Z0 F800
G1 X46.71 Y24.193 Z0 F800
G1 X46.97 Y23.719 Z0 F800
G1 X47.289 Y23.282 Z0 F800
G1 X47.66 Y22.891 Z0 F800
G1 X48.078 Y22.555 Z0 F800
G1 X48.54 Y22.283 Z0 F800
G1 X49.039 Y22.084 Z0 F800
G1 X49.571 Y21.967 Z0 F800
G1 X50.711 Y21.732 Z0 F800
G1 X51.855 Y21.521 Z0 F800
G1 X51.981 Y26.941 Z0 F800
G1 X52.129 Y32.362 Z0 F800
G1 X52.188 Y32.443 Z0 F800
G1 X52.343 Y32.512 Z0 F800
G1 X52.579 Y32.569 Z0 F800
G1 X52.885 Y32.617 Z0 F800
G1 X53.246 Y32.655 Z0 F800
G1 X53.65 Y32.685 Z0 F800
G1 X54.083 Y32.707 Z0 F800
G1 X54.534 Y32.723 Z0 F800
G1 X55.434 Y32.739 Z0 F800
G1 X56.243 Y32.742 Z0 F800
G1 X57.174 Y32.737 Z0 F800
G1 X57.467 Y32.789 Z0 F800
G1 X57.69 Y32.905 Z0 F800
G1 X57.849 Y33.076 Z0 F800
G1 X57.95 Y33.291 Z0 F800
G1 X58.002 Y33.539 Z0 F800
G1 X58.011 Y33.811 Z0 F800
G1 X57.983 Y34.096 Z0 F800
G1 X57.926 Y34.383 Z0 F800
G1 X57.847 Y34.662 Z0 F800
G1 X57.753 Y34.923 Z0 F800
G1 X57.649 Y35.155 Z0 F800
G1 X57.544 Y35.348 Z0 F800
G1 X57.445 Y35.491 Z0 F800
G1 X57.357 Y35.574 Z0 F800
G1 X57.289 Y35.587 Z0 F800
G1 X57.247 Y35.519 Z0 F800
G1 X57.129 Y35.418 Z0 F800
G1 X56.994 Y35.355 Z0 F800
G1 X56.845 Y35.322 Z0 F800
G1 X56.687 Y35.309 Z0 F800
G1 X56.36 Z0 F800
G1 X56.051 Y35.277 Z0 F800
G1 X55.357 Y35.232 Z0 F800
G1 X54.656 Y35.197 Z0 F800
G1 X53.962 Y35.15 Z0 F800
G1 X53.286 Y35.07 Z0 F800
G1 X53.226 Y34.75 Z0 F800
G1 X53.18 Y34.404 Z0 F800
G1 X53.137 Y34.242 Z0 F800
G1 X53.068 Y34.1 Z0 F800
G1 X52.962 Y33.984 Z0 F800
G1 X52.81 Y33.905 Z0 F800
G1 X52.679 Y33.886 Z0 F800
G1 X52.553 Y33.901 Z0 F800
G1 X52.436 Y33.945 Z0 F800
G1 X52.334 Y34.016 Z0 F800
G1 X52.254 Y34.107 Z0 F800
G1 X52.2 Y34.218 Z0 F800
G1 X52.177 Y34.342 Z0 F800
G1 X52.192 Y34.477 Z0 F800
G1 X52.227 Y37.117 Z0 F800
G1 X52.303 Y39.755 Z0 F800
G1 X52.417 Y40.018 Z0 F800
G1 X52.593 Y40.262 Z0 F800
G1 X52.701 Y40.362 Z0 F800
G1 X52.822 Y40.441 Z0 F800
G1 X52.955 Y40.493 Z0 F800
G1 X53.097 Y40.511 Z0 F800
G1 X53.25 Y40.431 Z0 F800
G1 X53.351 Y40.313 Z0 F800
G1 X53.41 Y40.168 Z0 F800
G1 X53.437 Y40.004 Z0 F800
G1 X53.441 Y39.652 Z0 F800
G1 X53.449 Y39.327 Z0 F800
G1 X53.53 Y39.116 Z0 F800
G1 X53.684 Y38.945 Z0 F800
G1 X53.78 Y38.884 Z0 F800
G1 X53.886 Y38.846 Z0 F800
G1 X53.997 Y38.833 Z0 F800
G1 X54.111 Y38.85 Z0 F800
G1 X54.444 Y38.859 Z0 F800
G1 X54.788 Y38.862 Z0 F800
G1 X55.121 Y38.907 Z0 F800
G1 X55.423 Y39.043 Z0 F800
G1 X55.483 Y40.26 Z0 F800
G1 X55.5 Y41.476 Z0 F800
G1 X55.479 Y42.691 Z0 F800
G1 X55.424 Y43.902 Z0 F800
G1 X55.38 Y44.041 Z0 F800
G1 X55.294 Y44.136 Z0 F800
G1 X55.177 Y44.194 Z0 F800
G1 X55.038 Y44.225 Z0 F800
G1 X54.734 Y44.236 Z0 F800
G1 X54.462 Z0 F800
G1 X53.908 Y44.194 Z0 F800
G1 X53.771 Y44.164 Z0 F800
G1 X53.65 Y44.112 Z0 F800
G1 X53.553 Y44.03 Z0 F800
G1 X53.487 Y43.911 Z0 F800
G1 X53.444 Y43.295 Z0 F800
G1 X53.448 Y42.674 Z0 F800
G1 Y42.055 Z0 F800
G1 X53.4 Y41.445 Z0 F800
G1 X53.216 Y41.274 Z0 F800
G1 X52.986 Y41.134 Z0 F800
G1 X52.861 Y41.087 Z0 F800
G1 X52.734 Y41.063 Z0 F800
G1 X52.607 Z0 F800
G1 X52.484 Y41.1 Z0 F800
G1 X52.391 Y41.245 Z0 F800
G1 X52.341 Y41.402 Z0 F800
G1 X52.322 Y41.571 Z0 F800
G1 X52.325 Y41.747 Z0 F800
G1 X52.357 Y42.106 Z0 F800
G1 Y42.455 Z0 F800
G1 X52.366 Y42.731 Z0 F800
G1 X52.373 Y43.005 Z0 F800
G1 X52.347 Y43.113 Z0 F800
G1 X52.286 Y43.186 Z0 F800
G1 X52.177 Y43.212 Z0 F800
G1 X52.01 Y43.182 Z0 F800
G1 X51.882 Y43.207 Z0 F800
G1 X51.792 Y43.19 Z0 F800
G1 X51.734 Y43.141 Z0 F800
G1 X51.7 Y43.065 Z0 F800
G1 X51.678 Y42.867 Z0 F800
G1 X51.492 Y38.13 Z0 F800
G1 X51.349 Y33.597 Z0 F800
G1 X51.192 Y29.062 Z0 F800
G1 X50.975 Y24.532 Z0 F800
G0 Z3.5 F500
G0 X40.161 Y22.266 Z3.5 
G1 Z0 F500
G1 X40.201 Y22.278 Z0 F800
G1 X40.243 Y22.304 Z0 F800
G1 X40.271 Y22.333 Z0 F800
G1 X40.281 Y22.351 Z0 F800
G1 X40.259 Y22.392 Z0 F800
G1 X40.211 Y22.44 Z0 F800
G1 X40.138 Y22.433 Z0 F800
G1 X40.063 Y22.436 Z0 F800
G1 X40.06 Y22.43 Z0 F800
G1 X40.041 Y22.373 Z0 F800
G1 Y22.307 Z0 F800
G1 X40.044 Y22.288 Z0 F800
G1 X40.131 Y22.264 Z0 F800
G1 X40.161 Z0 F800
G0 Z3.5 F500
G0 X40.931 Y22.331 Z3.5 
G1 Z0 F500
G1 X40.903 Y22.546 Z0 F800
G1 X40.778 Y22.777 Z0 F800
G1 X40.596 Y22.961 Z0 F800
G1 X40.489 Y23.026 Z0 F800
G1 X40.372 Y23.069 Z0 F800
G1 X40.248 Y23.086 Z0 F800
G1 X40.118 Y23.074 Z0 F800
G1 X39.975 Y23.079 Z0 F800
G1 X39.846 Y23.054 Z0 F800
G1 X39.732 Y23.003 Z0 F800
G1 X39.634 Y22.93 Z0 F800
G1 X39.485 Y22.73 Z0 F800
G1 X39.404 Y22.486 Z0 F800
G1 X39.396 Y22.229 Z0 F800
G1 X39.464 Y21.987 Z0 F800
G1 X39.528 Y21.882 Z0 F800
G1 X39.614 Y21.793 Z0 F800
G1 X39.72 Y21.724 Z0 F800
G1 X39.849 Y21.677 Z0 F800
G1 X40.059 Y21.621 Z0 F800
G1 X40.27 Y21.629 Z0 F800
G1 X40.47 Y21.692 Z0 F800
G1 X40.647 Y21.802 Z0 F800
G1 X40.791 Y21.95 Z0 F800
G1 X40.89 Y22.129 Z0 F800
G1 X40.931 Y22.331 Z0 F800
G0 Z3.5 F500
G0 X41.248 Y24.253 Z3.5 
G1 Z0 F500
G1 X41.46 Y24.088 Z0 F800
G1 X41.655 Y23.902 Z0 F800
G1 X41.832 Y23.698 Z0 F800
G1 X41.987 Y23.478 Z0 F800
G1 X42.121 Y23.245 Z0 F800
G1 X42.231 Y23.001 Z0 F800
G1 X42.316 Y22.75 Z0 F800
G1 X42.516 Y22.772 Z0 F800
G1 X42.714 Y22.752 Z0 F800
G1 X42.901 Y22.694 Z0 F800
G1 X43.069 Y22.599 Z0 F800
G1 X43.208 Y22.471 Z0 F800
G1 X43.309 Y22.313 Z0 F800
G1 X43.363 Y22.127 Z0 F800
G1 Y21.917 Z0 F800
G1 X43.317 Y21.623 Z0 F800
G1 X43.245 Y21.337 Z0 F800
G1 X43.145 Y21.061 Z0 F800
G1 X43.019 Y20.795 Z0 F800
G1 X42.869 Y20.543 Z0 F800
G1 X42.696 Y20.306 Z0 F800
G1 X42.503 Y20.084 Z0 F800
G1 X42.292 Y19.879 Z0 F800
G1 X42.063 Y19.694 Z0 F800
G1 X41.819 Y19.53 Z0 F800
G1 X41.562 Y19.388 Z0 F800
G1 X41.293 Y19.271 Z0 F800
G1 X41.014 Y19.178 Z0 F800
G1 X40.727 Y19.113 Z0 F800
G1 X40.434 Y19.076 Z0 F800
G1 X40.136 Y19.07 Z0 F800
G1 X39.805 Y19.082 Z0 F800
G1 X39.48 Y19.131 Z0 F800
G1 X39.165 Y19.215 Z0 F800
G1 X38.86 Y19.331 Z0 F800
G1 X38.568 Y19.477 Z0 F800
G1 X38.292 Y19.65 Z0 F800
G1 X38.033 Y19.85 Z0 F800
G1 X37.794 Y20.073 Z0 F800
G1 X37.578 Y20.317 Z0 F800
G1 X37.386 Y20.581 Z0 F800
G1 X37.221 Y20.861 Z0 F800
G1 X37.084 Y21.157 Z0 F800
G1 X36.979 Y21.465 Z0 F800
G1 X36.908 Y21.783 Z0 F800
G1 X36.872 Y22.11 Z0 F800
G1 X36.875 Y22.443 Z0 F800
G1 X36.927 Y22.84 Z0 F800
G1 X37.021 Y23.234 Z0 F800
G1 X37.158 Y23.619 Z0 F800
G1 X37.334 Y23.987 Z0 F800
G1 X37.55 Y24.332 Z0 F800
G1 X37.805 Y24.646 Z0 F800
G1 X38.096 Y24.923 Z0 F800
G1 X38.424 Y25.156 Z0 F800
G1 X38.83 Y25.331 Z0 F800
G1 X39.248 Y25.48 Z0 F800
G1 X39.677 Y25.59 Z0 F800
G1 X40.115 Y25.644 Z0 F800
G1 X40.327 Y25.598 Z0 F800
G1 X40.51 Y25.501 Z0 F800
G1 X40.665 Y25.364 Z0 F800
G1 X40.791 Y25.196 Z0 F800
G1 X40.89 Y25.005 Z0 F800
G1 X40.96 Y24.802 Z0 F800
G1 X41.003 Y24.595 Z0 F800
G1 X41.02 Y24.394 Z0 F800
G1 X41.248 Y24.253 Z0 F800
G0 Z3.5 F500
G0 X42.757 Y23.392 Z3.5 
G1 Z0 F500
G1 X42.843 Y23.383 Z0 F800
G1 X43.157 Y23.284 Z0 F800
G1 X43.448 Y23.12 Z0 F800
G1 X43.703 Y22.885 Z0 F800
G1 X43.897 Y22.58 Z0 F800
G1 X44.003 Y22.215 Z0 F800
G1 X44 Y21.867 Z0 F800
G1 X43.946 Y21.497 Z0 F800
G1 X43.857 Y21.148 Z0 F800
G1 X43.736 Y20.813 Z0 F800
G1 X43.584 Y20.494 Z0 F800
G1 X43.404 Y20.191 Z0 F800
G1 X43.198 Y19.907 Z0 F800
G1 X42.968 Y19.643 Z0 F800
G1 X42.716 Y19.399 Z0 F800
G1 X42.444 Y19.179 Z0 F800
G1 X42.153 Y18.984 Z0 F800
G1 X41.846 Y18.814 Z0 F800
G1 X41.523 Y18.672 Z0 F800
G1 X41.186 Y18.561 Z0 F800
G1 X40.838 Y18.481 Z0 F800
G1 X40.48 Y18.437 Z0 F800
G1 X40.131 Y18.43 Z0 F800
G1 X39.745 Y18.444 Z0 F800
G1 X39.35 Y18.504 Z0 F800
G1 X38.969 Y18.604 Z0 F800
G1 X38.603 Y18.744 Z0 F800
G1 X38.253 Y18.918 Z0 F800
G1 X37.924 Y19.125 Z0 F800
G1 X37.618 Y19.362 Z0 F800
G1 X37.335 Y19.625 Z0 F800
G1 X37.079 Y19.916 Z0 F800
G1 X36.85 Y20.229 Z0 F800
G1 X36.653 Y20.564 Z0 F800
G1 X36.489 Y20.919 Z0 F800
G1 X36.363 Y21.291 Z0 F800
G1 X36.275 Y21.678 Z0 F800
G1 X36.232 Y22.079 Z0 F800
G1 X36.235 Y22.488 Z0 F800
G1 X36.296 Y22.957 Z0 F800
G1 X36.407 Y23.416 Z0 F800
G1 X36.566 Y23.865 Z0 F800
G1 X36.773 Y24.296 Z0 F800
G1 X37.028 Y24.704 Z0 F800
G1 X37.333 Y25.081 Z0 F800
G1 X37.688 Y25.419 Z0 F800
G1 X38.109 Y25.717 Z0 F800
G1 X38.595 Y25.926 Z0 F800
G1 X39.061 Y26.093 Z0 F800
G1 X39.558 Y26.22 Z0 F800
G1 X40.145 Y26.292 Z0 F800
G1 X40.548 Y26.205 Z0 F800
G1 X40.876 Y26.032 Z0 F800
G1 X41.138 Y25.8 Z0 F800
G1 X41.335 Y25.538 Z0 F800
G1 X41.479 Y25.259 Z0 F800
G1 X41.579 Y24.973 Z0 F800
G1 X41.62 Y24.774 Z0 F800
G1 X41.878 Y24.574 Z0 F800
G1 X42.119 Y24.344 Z0 F800
G1 X42.336 Y24.093 Z0 F800
G1 X42.527 Y23.823 Z0 F800
G1 X42.692 Y23.537 Z0 F800
G1 X42.757 Y23.392 Z0 F800
G0 Z3.5 F500
G0 X44.345 Y23.068 Z3.5 
G1 Z0 F500
G1 X44.261 Y23.378 Z0 F800
G1 X43.993 Y24.126 Z0 F800
G1 X43.666 Y24.84 Z0 F800
G1 X43.274 Y25.512 Z0 F800
G1 X43.064 Y25.814 Z0 F800
G1 X42.842 Y26.096 Z0 F800
G1 X42.602 Y26.366 Z0 F800
G1 X42.348 Y26.614 Z0 F800
G1 X42.08 Y26.842 Z0 F800
G1 X41.799 Y27.046 Z0 F800
G1 X41.505 Y27.228 Z0 F800
G1 X41.238 Y27.364 Z0 F800
G1 X40.87 Y27.484 Z0 F800
G1 X40.463 Y27.573 Z0 F800
G1 X40.042 Y27.624 Z0 F800
G1 X39.829 Y27.63 Z0 F800
G1 X39.902 Y27.193 Z0 F800
G1 X39.812 Y26.896 Z0 F800
G1 X40.175 Y26.941 Z0 F800
G1 X40.769 Y26.811 Z0 F800
G1 X41.243 Y26.563 Z0 F800
G1 X41.61 Y26.236 Z0 F800
G1 X41.878 Y25.879 Z0 F800
G1 X42.068 Y25.513 Z0 F800
G1 X42.197 Y25.145 Z0 F800
G1 Y25.135 Z0 F800
G1 X42.296 Y25.059 Z0 F800
G1 X42.583 Y24.786 Z0 F800
G1 X42.84 Y24.488 Z0 F800
G1 X43.067 Y24.168 Z0 F800
G1 X43.197 Y23.942 Z0 F800
G1 X43.413 Y23.875 Z0 F800
G1 X43.827 Y23.641 Z0 F800
G1 X44.198 Y23.3 Z0 F800
G1 X44.345 Y23.068 Z0 F800
G0 Z3.5 F500
G0 X44.957 Y22.168 Z3.5 
G1 Z0 F500
G1 X45.222 Y22.239 Z0 F800
G1 X45.163 Y22.445 Z0 F800
G1 X45.095 Y22.75 Z0 F800
G1 X44.87 Y23.575 Z0 F800
G1 X44.585 Y24.37 Z0 F800
G1 X44.235 Y25.133 Z0 F800
G1 X43.813 Y25.858 Z0 F800
G1 X43.583 Y26.189 Z0 F800
G1 X43.332 Y26.508 Z0 F800
G1 X43.064 Y26.808 Z0 F800
G1 X42.779 Y27.087 Z0 F800
G1 X42.478 Y27.343 Z0 F800
G1 X42.155 Y27.579 Z0 F800
G1 X41.817 Y27.786 Z0 F800
G1 X41.481 Y27.958 Z0 F800
G1 X41.039 Y28.103 Z0 F800
G1 X40.571 Y28.205 Z0 F800
G1 X40.093 Y28.263 Z0 F800
G1 X39.598 Y28.277 Z0 F800
G1 X39.393 Y28.268 Z0 F800
G1 X39.197 Y28.234 Z0 F800
G1 X39.004 Y28.177 Z0 F800
G1 X38.825 Y28.098 Z0 F800
G1 X38.804 Y28.084 Z0 F800
G1 X38.943 Y27.983 Z0 F800
G1 X39.173 Y27.67 Z0 F800
G1 X39.246 Y27.235 Z0 F800
G1 X39.088 Y26.713 Z0 F800
G1 X38.368 Y26.195 Z0 F800
G1 X37.815 Y25.828 Z0 F800
G1 X37.569 Y25.652 Z0 F800
G1 X37.34 Y25.47 Z0 F800
G1 X37.144 Y25.287 Z0 F800
G1 X36.963 Y25.08 Z0 F800
G1 X36.621 Y24.617 Z0 F800
G1 X36.356 Y24.128 Z0 F800
G1 X36.159 Y23.606 Z0 F800
G1 X36.029 Y23.054 Z0 F800
G1 X35.97 Y22.495 Z0 F800
G1 X35.981 Y21.935 Z0 F800
G1 X36.063 Y21.377 Z0 F800
G1 X36.217 Y20.84 Z0 F800
G1 X36.332 Y20.58 Z0 F800
G1 X36.483 Y20.298 Z0 F800
G1 X36.648 Y20.035 Z0 F800
G1 X36.838 Y19.777 Z0 F800
G1 X37.041 Y19.538 Z0 F800
G1 X37.263 Y19.311 Z0 F800
G1 X37.498 Y19.102 Z0 F800
G1 X37.751 Y18.907 Z0 F800
G1 X38.005 Y18.74 Z0 F800
G1 X38.286 Y18.583 Z0 F800
G1 X38.562 Y18.456 Z0 F800
G1 X38.852 Y18.35 Z0 F800
G1 X39.146 Y18.268 Z0 F800
G1 X39.45 Y18.21 Z0 F800
G1 X39.748 Y18.18 Z0 F800
G1 X40.081 Y18.177 Z0 F800
G1 X40.443 Y18.18 Z0 F800
G1 X40.776 Y18.214 Z0 F800
G1 X41.113 Y18.278 Z0 F800
G1 X41.44 Y18.37 Z0 F800
G1 X41.759 Y18.489 Z0 F800
G1 X42.073 Y18.636 Z0 F800
G1 X42.37 Y18.804 Z0 F800
G1 X42.655 Y18.997 Z0 F800
G1 X42.928 Y19.215 Z0 F800
G1 X43.173 Y19.445 Z0 F800
G1 X43.407 Y19.702 Z0 F800
G1 X43.618 Y19.975 Z0 F800
G1 X43.8 Y20.258 Z0 F800
G1 X43.958 Y20.556 Z0 F800
G1 X44.09 Y20.868 Z0 F800
G1 X44.189 Y21.181 Z0 F800
G1 X44.24 Y21.443 Z0 F800
G1 X44.417 Y21.771 Z0 F800
G1 X44.67 Y22.012 Z0 F800
G1 X44.957 Y22.168 Z0 F800
G0 Z3.5 F500
G0 X45.784 Y22.602 Z3.5 
G1 Z0 F500
G1 X45.715 Y22.91 Z0 F800
G1 X45.482 Y23.765 Z0 F800
G1 X45.179 Y24.61 Z0 F800
G1 X44.804 Y25.429 Z0 F800
G1 X44.353 Y26.204 Z0 F800
G1 X44.098 Y26.57 Z0 F800
G1 X43.822 Y26.92 Z0 F800
G1 X43.527 Y27.251 Z0 F800
G1 X43.21 Y27.561 Z0 F800
G1 X42.873 Y27.848 Z0 F800
G1 X42.513 Y28.109 Z0 F800
G1 X42.132 Y28.344 Z0 F800
G1 X41.729 Y28.55 Z0 F800
G1 X41.208 Y28.721 Z0 F800
G1 X40.677 Y28.837 Z0 F800
G1 X40.139 Y28.901 Z0 F800
G1 X39.594 Y28.917 Z0 F800
G1 X39.324 Y28.905 Z0 F800
G1 X39.051 Y28.858 Z0 F800
G1 X38.782 Y28.779 Z0 F800
G1 X38.526 Y28.666 Z0 F800
G1 X38.291 Y28.519 Z0 F800
G1 X38.085 Y28.341 Z0 F800
G1 X37.917 Y28.13 Z0 F800
G1 X37.795 Y27.889 Z0 F800
G1 X38.063 Y27.754 Z0 F800
G1 X38.364 Y27.613 Z0 F800
G1 X38.486 Y27.524 Z0 F800
G1 X38.567 Y27.414 Z0 F800
G1 X38.59 Y27.277 Z0 F800
G1 X38.538 Y27.105 Z0 F800
G1 X38.004 Y26.721 Z0 F800
G1 X37.452 Y26.354 Z0 F800
G1 X37.183 Y26.163 Z0 F800
G1 X36.924 Y25.957 Z0 F800
G1 X36.683 Y25.732 Z0 F800
G1 X36.463 Y25.48 Z0 F800
G1 X36.079 Y24.961 Z0 F800
G1 X35.773 Y24.395 Z0 F800
G1 X35.545 Y23.792 Z0 F800
G1 X35.397 Y23.164 Z0 F800
G1 X35.33 Y22.522 Z0 F800
G1 X35.342 Y21.878 Z0 F800
G1 X35.437 Y21.242 Z0 F800
G1 X35.612 Y20.625 Z0 F800
G1 X35.758 Y20.297 Z0 F800
G1 X35.928 Y19.979 Z0 F800
G1 X36.12 Y19.673 Z0 F800
G1 X36.334 Y19.382 Z0 F800
G1 X36.568 Y19.106 Z0 F800
G1 X36.821 Y18.848 Z0 F800
G1 X37.091 Y18.607 Z0 F800
G1 X37.377 Y18.387 Z0 F800
G1 X37.678 Y18.189 Z0 F800
G1 X37.992 Y18.014 Z0 F800
G1 X38.318 Y17.864 Z0 F800
G1 X38.655 Y17.74 Z0 F800
G1 X39.001 Y17.644 Z0 F800
G1 X39.355 Y17.576 Z0 F800
G1 X39.716 Y17.54 Z0 F800
G1 X40.082 Y17.537 Z0 F800
G1 X40.478 Y17.541 Z0 F800
G1 X40.871 Y17.581 Z0 F800
G1 X41.258 Y17.654 Z0 F800
G1 X41.638 Y17.761 Z0 F800
G1 X42.007 Y17.898 Z0 F800
G1 X42.365 Y18.066 Z0 F800
G1 X42.708 Y18.261 Z0 F800
G1 X43.036 Y18.482 Z0 F800
G1 X43.345 Y18.729 Z0 F800
G1 X43.633 Y18.999 Z0 F800
G1 X43.898 Y19.291 Z0 F800
G1 X44.139 Y19.603 Z0 F800
G1 X44.353 Y19.934 Z0 F800
G1 X44.538 Y20.282 Z0 F800
G1 X44.691 Y20.646 Z0 F800
G1 X44.811 Y21.024 Z0 F800
G1 X44.85 Y21.226 Z0 F800
G1 X44.933 Y21.378 Z0 F800
G1 X45.05 Y21.491 Z0 F800
G1 X45.196 Y21.57 Z0 F800
G1 X45.538 Y21.661 Z0 F800
G1 X45.897 Y21.715 Z0 F800
G1 X45.93 Y21.838 Z0 F800
G1 Y21.976 Z0 F800
G1 X45.912 Y22.125 Z0 F800
G1 X45.875 Y22.281 Z0 F800
G1 X45.784 Y22.602 Z0 F800
G0 Z3.5 F500
G0 X41.833 Y30.782 Z3.5 
G1 Z0 F500
G1 X41.56 Y31.148 Z0 F800
G1 X41.43 Y31.094 Z0 F800
G1 X41.061 Y30.871 Z0 F800
G1 X41.572 Y30.742 Z0 F800
G1 X41.979 Y30.594 Z0 F800
G1 X41.833 Y30.782 Z0 F800
G0 Z3.5 F500
G0 X44.046 Y29.463 Z3.5 
G1 Z0 F500
G1 X44.443 Y29.154 Z0 F800
G1 X45.04 Y28.577 Z0 F800
G1 X45.553 Y27.958 Z0 F800
G1 X45.813 Y27.633 Z0 F800
G1 X46.07 Y27.286 Z0 F800
G1 X46.315 Y26.903 Z0 F800
G1 X46.351 Y26.832 Z0 F800
G1 X47.056 Y26.763 Z0 F800
G1 X46.904 Y26.933 Z0 F800
G1 X45.74 Y28.367 Z0 F800
G1 X45.183 Y29.115 Z0 F800
G1 X44.651 Y29.878 Z0 F800
G1 X44.519 Y30.082 Z0 F800
G1 X44.284 Y29.635 Z0 F800
G1 X44.046 Y29.463 Z0 F800
G0 Z3.5 F500
G0 X43.424 Y29.136 Z3.5 
G1 Z0 F500
G1 X44.023 Y28.67 Z0 F800
G1 X44.569 Y28.142 Z0 F800
G1 X45.056 Y27.554 Z0 F800
G1 X45.305 Y27.243 Z0 F800
G1 X45.543 Y26.922 Z0 F800
G1 X45.758 Y26.586 Z0 F800
G1 X45.938 Y26.229 Z0 F800
G1 X47.285 Y26.097 Z0 F800
G1 X48.602 Y25.99 Z0 F800
G1 X47.392 Y27.348 Z0 F800
G1 X46.246 Y28.76 Z0 F800
G1 X45.702 Y29.489 Z0 F800
G1 X45.182 Y30.235 Z0 F800
G1 X44.688 Y30.998 Z0 F800
G1 X44.223 Y31.779 Z0 F800
G1 X43.931 Y31.803 Z0 F800
G1 X43.582 Y31.874 Z0 F800
G1 X43.423 Y31.898 Z0 F800
G1 X43.294 Z0 F800
G1 X43.21 Y31.864 Z0 F800
G1 X43.187 Y31.782 Z0 F800
G1 X43.36 Y31.393 Z0 F800
G1 X43.563 Y31.015 Z0 F800
G1 X43.749 Y30.631 Z0 F800
G1 X43.873 Y30.228 Z0 F800
G1 X43.788 Y30.066 Z0 F800
G1 X43.674 Y29.984 Z0 F800
G1 X43.541 Y29.968 Z0 F800
G1 X43.398 Y30.006 Z0 F800
G1 X43.123 Y30.188 Z0 F800
G1 X42.92 Y30.422 Z0 F800
G1 X42.343 Y31.169 Z0 F800
G1 X41.778 Y31.925 Z0 F800
G1 X41.7 Y31.897 Z0 F800
G1 X41.141 Y31.667 Z0 F800
G1 X40.623 Y31.354 Z0 F800
G1 X40.394 Y31.161 Z0 F800
G1 X40.192 Y30.943 Z0 F800
G1 X40.023 Y30.697 Z0 F800
G1 X39.893 Y30.422 Z0 F800
G1 X40.646 Y30.315 Z0 F800
G1 X41.384 Y30.129 Z0 F800
G1 X42.097 Y29.869 Z0 F800
G1 X42.78 Y29.537 Z0 F800
G1 X43.424 Y29.136 Z0 F800
G0 Z3.5 F500
G0 X42.394 Y33.229 Z3.5 
G1 Z0 F500
G1 X42.361 Y33.359 Z0 F800
G1 Y33.499 Z0 F800
G1 X42.376 Y33.634 Z0 F800
G1 X42.483 Y34.338 Z0 F800
G1 X42.566 Y35.039 Z0 F800
G1 X42.621 Y36.179 Z0 F800
G1 X42.645 Y36.277 Z0 F800
G1 X42.695 Y36.365 Z0 F800
G1 X42.436 Y36.397 Z0 F800
G1 X42.173 Y36.424 Z0 F800
G1 X42.287 Y36.275 Z0 F800
G1 X42.371 Y36.107 Z0 F800
G1 X42.434 Y35.928 Z0 F800
G1 X42.482 Y35.746 Z0 F800
G1 X42.506 Y35.48 Z0 F800
G1 X42.493 Y35.213 Z0 F800
G1 X42.427 Y34.682 Z0 F800
G1 X42.39 Y34.426 Z0 F800
G1 X42.339 Y34.171 Z0 F800
G1 X42.26 Y33.926 Z0 F800
G1 X42.137 Y33.699 Z0 F800
G1 X42.043 Y33.563 Z0 F800
G1 X41.939 Y33.434 Z0 F800
G1 X41.818 Y33.325 Z0 F800
G1 X41.672 Y33.25 Z0 F800
G1 X42.074 Y33.18 Z0 F800
G1 X42.477 Y33.12 Z0 F800
G1 X42.394 Y33.229 Z0 F800
G0 Z3.5 F500
G0 X44.233 Y33.642 Z3.5 
G1 Z0 F500
G1 X44.361 Y33.664 Z0 F800
G1 X44.408 Y33.723 Z0 F800
G1 X44.504 Y33.9 Z0 F800
G1 X44.578 Y34.11 Z0 F800
G1 X44.627 Y34.344 Z0 F800
G1 X44.651 Y34.598 Z0 F800
G1 Y34.867 Z0 F800
G1 X44.63 Y35.122 Z0 F800
G1 X44.604 Y35.297 Z0 F800
G1 X44.571 Y35.356 Z0 F800
G1 X44.523 Y35.401 Z0 F800
G1 X44.43 Y35.448 Z0 F800
G1 X44.277 Y35.491 Z0 F800
G1 X44.053 Y35.518 Z0 F800
G1 X44.059 Y35.439 Z0 F800
G1 Y34.981 Z0 F800
G1 X44.017 Y34.526 Z0 F800
G1 X43.939 Y34.076 Z0 F800
G1 X43.826 Y33.644 Z0 F800
G1 X43.881 Y33.639 Z0 F800
G1 X44.071 Y33.633 Z0 F800
G1 X44.233 Y33.642 Z0 F800
G0 Z3.5 F500
G0 X45.091 Z3.5 
G1 Z0 F500
G1 X45.196 Y33.938 Z0 F800
G1 X45.261 Y34.249 Z0 F800
G1 X45.291 Y34.568 Z0 F800
G1 Y34.888 Z0 F800
G1 X45.266 Y35.203 Z0 F800
G1 X45.219 Y35.505 Z0 F800
G1 X45.083 Y35.754 Z0 F800
G1 X44.894 Y35.93 Z0 F800
G1 X44.663 Y36.047 Z0 F800
G1 X44.404 Y36.12 Z0 F800
G1 X43.845 Y36.188 Z0 F800
G1 X43.313 Y36.247 Z0 F800
G1 X43.386 Y35.818 Z0 F800
G1 X43.419 Y35.415 Z0 F800
G1 Y35.011 Z0 F800
G1 X43.382 Y34.609 Z0 F800
G1 X43.313 Y34.212 Z0 F800
G1 X43.21 Y33.822 Z0 F800
G1 X43.075 Y33.441 Z0 F800
G1 X42.907 Y33.072 Z0 F800
G1 X43.372 Y33.043 Z0 F800
G1 X43.844 Y33 Z0 F800
G1 X44.078 Y32.992 Z0 F800
G1 X44.307 Y33.004 Z0 F800
G1 X44.53 Y33.044 Z0 F800
G1 X44.744 Y33.119 Z0 F800
G1 X44.942 Y33.367 Z0 F800
G1 X45.091 Y33.642 Z0 F800
G0 Z3.5 F500
G0 X47.843 Y32.343 Z3.5 
G1 Z0 F500
G1 X47.831 Y32.317 Z0 F800
G1 X47.841 Y32.298 Z0 F800
G1 Y32.343 Z0 F800
G0 Z3.5 F500
G0 X47.652 Y33.913 Z3.5 
G1 Z0 F500
G1 X47.513 Y33.354 Z0 F800
G1 X47.333 Y32.772 Z0 F800
G1 X47.118 Y32.287 Z0 F800
G1 X47.123 Y32.276 Z0 F800
G1 X47.451 Y31.678 Z0 F800
G1 X47.82 Y31.078 Z0 F800
G1 X48.21 Y30.495 Z0 F800
G1 X48.409 Y30.224 Z0 F800
G1 X48.514 Y33.227 Z0 F800
G1 X48.683 Y38.336 Z0 F800
G1 X48.202 Z0 F800
G1 X48.16 Y37.857 Z0 F800
G1 X47.964 Y37.273 Z0 F800
G1 X47.646 Y36.792 Z0 F800
G1 X47.394 Y36.514 Z0 F800
G1 X47.402 Y36.495 Z0 F800
G1 X47.57 Y36.024 Z0 F800
G1 X47.692 Y35.52 Z0 F800
G1 X47.754 Y34.986 Z0 F800
G1 X47.741 Y34.428 Z0 F800
G1 X47.652 Y33.913 Z0 F800
G0 Z3.5 F500
G0 X46.898 Y31.355 Z3.5 
G1 Z0 F500
G1 X47.281 Y30.732 Z0 F800
G1 X47.686 Y30.128 Z0 F800
G1 X48.572 Y28.913 Z0 F800
G1 X48.984 Y28.375 Z0 F800
G1 X49.154 Y33.206 Z0 F800
G1 X49.345 Y38.993 Z0 F800
G1 X49.102 Y38.975 Z0 F800
G1 X48.128 Z0 F800
G1 X47.467 Y39.009 Z0 F800
G1 X47.518 Y38.843 Z0 F800
G1 X47.567 Y38.424 Z0 F800
G1 X47.529 Y37.988 Z0 F800
G1 X47.383 Y37.555 Z0 F800
G1 X47.14 Y37.185 Z0 F800
G1 X46.871 Y36.89 Z0 F800
G1 X46.604 Y36.689 Z0 F800
G1 X46.629 Y36.645 Z0 F800
G1 X46.809 Y36.253 Z0 F800
G1 X46.956 Y35.841 Z0 F800
G1 X47.061 Y35.408 Z0 F800
G1 X47.113 Y34.956 Z0 F800
G1 X47.103 Y34.49 Z0 F800
G1 X47.025 Y34.044 Z0 F800
G1 X46.896 Y33.527 Z0 F800
G1 X46.732 Y32.997 Z0 F800
G1 X46.493 Y32.457 Z0 F800
G1 X46.395 Y32.316 Z0 F800
G1 X46.549 Y31.993 Z0 F800
G1 X46.898 Y31.355 Z0 F800
G0 Z3.5 F500
G0 X48.055 Y28.536 Z3.5 
G1 Z0 F500
G1 X48.973 Y27.335 Z0 F800
G1 X49.252 Y26.994 Z0 F800
G1 X49.4 Y26.831 Z0 F800
G1 X49.565 Y26.686 Z0 F800
G1 X49.793 Y33.185 Z0 F800
G1 X50.008 Y39.683 Z0 F800
G1 X49.079 Y39.615 Z0 F800
G1 X48.145 Z0 F800
G1 X47.213 Y39.663 Z0 F800
G1 X46.292 Y39.723 Z0 F800
G1 X46.495 Y39.516 Z0 F800
G1 X46.667 Y39.272 Z0 F800
G1 X46.801 Y39 Z0 F800
G1 X46.889 Y38.711 Z0 F800
G1 X46.924 Y38.415 Z0 F800
G1 X46.898 Y38.12 Z0 F800
G1 X46.803 Y37.838 Z0 F800
G1 X46.633 Y37.579 Z0 F800
G1 X46.438 Y37.365 Z0 F800
G1 X46.206 Y37.19 Z0 F800
G1 X45.947 Y37.063 Z0 F800
G1 X45.67 Y36.994 Z0 F800
G1 X45.874 Y36.682 Z0 F800
G1 X46.058 Y36.354 Z0 F800
G1 X46.216 Y36.012 Z0 F800
G1 X46.342 Y35.658 Z0 F800
G1 X46.429 Y35.295 Z0 F800
G1 X46.472 Y34.926 Z0 F800
G1 X46.464 Y34.552 Z0 F800
G1 X46.399 Y34.177 Z0 F800
G1 X46.28 Y33.699 Z0 F800
G1 X46.132 Y33.222 Z0 F800
G1 X45.933 Y32.772 Z0 F800
G1 X45.658 Y32.376 Z0 F800
G1 X45.982 Y31.695 Z0 F800
G1 X46.345 Y31.034 Z0 F800
G1 X46.74 Y30.391 Z0 F800
G1 X47.162 Y29.761 Z0 F800
G1 X48.055 Y28.536 Z0 F800
G0 Z3.5 F500
G0 X61.501 Y49.979 Z3.5 
G1 Z0 F500
G1 X62.7 Y49.9 Z0 F800
G1 X62.816 Y50.043 Z0 F800
G1 X63.224 Y50.156 Z0 F800
G1 X63.523 Y50.129 Z0 F800
G1 X63.714 Y50.077 Z0 F800
G1 X63.773 Y50.261 Z0 F800
G1 X63.888 Y50.76 Z0 F800
G1 X63.575 Y50.764 Z0 F800
G1 X62.539 Y50.761 Z0 F800
G1 X59.145 Y50.747 Z0 F800
G1 X59.056 Y50.233 Z0 F800
G1 X58.999 Y49.992 Z0 F800
G1 X59.244 Y49.987 Z0 F800
G1 X60.363 Y49.992 Z0 F800
G1 X61.501 Y49.979 Z0 F800
G0 Z3.5 F500
G0 X64.323 Y49.881 Z3.5 
G1 Z0 F500
G1 X64.391 Y50.09 Z0 F800
G1 X64.538 Y50.73 Z0 F800
G1 X64.629 Y51.389 Z0 F800
G1 X63.582 Y51.404 Z0 F800
G1 X62.536 Y51.401 Z0 F800
G1 X58.59 Y51.385 Z0 F800
G1 X58.517 Y50.872 Z0 F800
G1 X58.429 Y50.361 Z0 F800
G1 X58.31 Y49.857 Z0 F800
G1 X58.142 Y49.368 Z0 F800
G1 X59.247 Y49.347 Z0 F800
G1 X60.361 Y49.352 Z0 F800
G1 X61.477 Y49.339 Z0 F800
G1 X62.587 Y49.267 Z0 F800
G1 X62.818 Y49.12 Z0 F800
G1 X62.98 Y49.023 Z0 F800
G1 X63.036 Y49.014 Z0 F800
G1 X63.072 Y49.043 Z0 F800
G1 X63.091 Y49.12 Z0 F800
G1 Y49.251 Z0 F800
G1 X63.117 Y49.4 Z0 F800
G1 X63.183 Y49.48 Z0 F800
G1 X63.283 Y49.508 Z0 F800
G1 X63.408 Y49.497 Z0 F800
G1 X63.703 Y49.416 Z0 F800
G1 X64.003 Y49.352 Z0 F800
G1 X64.093 Y49.39 Z0 F800
G1 X64.162 Y49.457 Z0 F800
G1 X64.216 Y49.547 Z0 F800
G1 X64.258 Y49.652 Z0 F800
G1 X64.323 Y49.881 Z0 F800
G0 Z3.5 F500
G0 X67.122 Y50.022 Z3.5 
G1 Z0 F500
G1 X69.54 Y50.062 Z0 F800
G1 X71.328 Y50.095 Z0 F800
G1 X71.484 Y50.618 Z0 F800
G1 X71.533 Y50.808 Z0 F800
G1 X67.255 Z0 F800
G1 X67.218 Y50.624 Z0 F800
G1 X67.058 Y50.066 Z0 F800
G1 X67.022 Y49.966 Z0 F800
G1 X67.122 Y50.022 Z0 F800
G0 Z3.5 F500
G0 X72.358 Y51.448 Z3.5 
G1 Z0 F500
G1 X66.729 Z0 F800
G1 X66.703 Y51.297 Z0 F800
G1 X66.596 Y50.776 Z0 F800
G1 X66.449 Y50.264 Z0 F800
G1 X66.267 Y49.764 Z0 F800
G1 X66.052 Y49.282 Z0 F800
G1 X66.154 Y49.191 Z0 F800
G1 X66.212 Y49.085 Z0 F800
G1 X66.233 Y48.968 Z0 F800
G1 X66.223 Y48.844 Z0 F800
G1 X66.135 Y48.6 Z0 F800
G1 X65.996 Y48.389 Z0 F800
G1 X66.31 Y48.654 Z0 F800
G1 X66.618 Y48.932 Z0 F800
G1 X66.938 Y49.187 Z0 F800
G1 X67.293 Y49.385 Z0 F800
G1 X69.55 Y49.421 Z0 F800
G1 X71.808 Y49.464 Z0 F800
G1 X72.104 Y50.459 Z0 F800
G1 X72.358 Y51.448 Z0 F800
M9
M5
G1 Z10 F500
G90
G1 Z10 F800
