;LightBurn 1.6.04
;Custom GCode device profile, absolute coords
;Bounds: X33.61 Y14.24 to X103.78 Y59.26
G00 G17 G40 G21 G54
G90
M3
G1 Z10 F500
;Cut @ 444 mm/min, 80% power

M8
G0 Z3.5 F500
G0 X58.226 Y30.889 Z3.5 
G1 Z0 F500
;Layer C3 Pass 1 of 2
G1 X58.938 Y31.634 Z0 S800 F800
G1 X58.485 Y32.378 Z0 F800
G1 X58.743 Y34.773 Z0 F800
G1 X59.035 Y35.032 Z0 F800
G1 X58.873 Y39.079 Z0 F800
G1 X58.323 Y39.208 Z0 F800
G1 X58.452 Y35.583 Z0 F800
G1 X58.42 Y34.547 Z0 F800
G1 X58.582 Y33.705 Z0 F800
G1 X58.485 Y32.669 Z0 F800
G1 X57.87 Y31.698 Z0 F800
G1 X58.226 Y30.889 Z0 F800
;Layer C3 Pass 2 of 2
G1 X58.938 Y31.634 Z0 F800
G1 X58.485 Y32.378 Z0 F800
G1 X58.743 Y34.773 Z0 F800
G1 X59.035 Y35.032 Z0 F800
G1 X58.873 Y39.079 Z0 F800
G1 X58.323 Y39.208 Z0 F800
G1 X58.452 Y35.583 Z0 F800
G1 X58.42 Y34.547 Z0 F800
G1 X58.582 Y33.705 Z0 F800
G1 X58.485 Y32.669 Z0 F800
G1 X57.87 Y31.698 Z0 F800
G1 X58.226 Y30.889 Z0 F800
G0 Z3.5 F500
G0 X61.721 Y31.666 Z3.5 F444
G1 Z0 F500
;Layer C3 Pass 1 of 2
G1 X62.595 Y31.698 Z0 F800
G1 X62.628 Y31.957 Z0 F800
G1 X61.851 Y32.216 Z0 F800
G1 X61.204 Y34.547 Z0 F800
G1 X61.43 Y39.338 Z0 F800
G1 X61.074 Y41.053 Z0 F800
G1 X61.009 Y41.992 Z0 F800
G1 X58.679 Z0 F800
G1 X58.776 Y44.419 Z0 F800
G1 X58.679 Y49.081 Z0 F800
G1 X58.258 Y49.242 Z0 F800
G1 Y44.387 Z0 F800
G1 X58.549 Y44.258 Z0 F800
G1 X58.711 Y41.927 Z0 F800
G1 X61.009 Y41.798 Z0 F800
G1 X61.171 Y39.855 Z0 F800
G1 X60.88 Y39.37 Z0 F800
G1 X60.912 Y34.482 Z0 F800
G1 X61.236 Y33.479 Z0 F800
G1 X61.721 Y31.666 Z0 F800
;Layer C3 Pass 2 of 2
G1 X62.595 Y31.698 Z0 F800
G1 X62.628 Y31.957 Z0 F800
G1 X61.851 Y32.216 Z0 F800
G1 X61.204 Y34.547 Z0 F800
G1 X61.43 Y39.338 Z0 F800
G1 X61.074 Y41.053 Z0 F800
G1 X61.009 Y41.992 Z0 F800
G1 X58.679 Z0 F800
G1 X58.776 Y44.419 Z0 F800
G1 X58.679 Y49.081 Z0 F800
G1 X58.258 Y49.242 Z0 F800
G1 Y44.387 Z0 F800
G1 X58.549 Y44.258 Z0 F800
G1 X58.711 Y41.927 Z0 F800
G1 X61.009 Y41.798 Z0 F800
G1 X61.171 Y39.855 Z0 F800
G1 X60.88 Y39.37 Z0 F800
G1 X60.912 Y34.482 Z0 F800
G1 X61.236 Y33.479 Z0 F800
G1 X61.721 Y31.666 Z0 F800
G0 Z3.5 F500
G0 X64.149 Y34.353 Z3.5 
G1 Z0 F500
;Layer C3 Pass 1 of 2
G1 X63.89 Y35.518 Z0 F800
G1 X64.084 Y37.848 Z0 F800
G1 X63.955 Y39.273 Z0 F800
G1 X63.437 Y39.499 Z0 F800
G1 X63.599 Y34.676 Z0 F800
G1 X64.149 Y34.353 Z0 F800
;Layer C3 Pass 2 of 2
G1 X63.89 Y35.518 Z0 F800
G1 X64.084 Y37.848 Z0 F800
G1 X63.955 Y39.273 Z0 F800
G1 X63.437 Y39.499 Z0 F800
G1 X63.599 Y34.676 Z0 F800
G1 X64.149 Y34.353 Z0 F800
G0 Z3.5 F500
G0 X66.091 Y34.385 Z3.5 
G1 Z0 F500
;Layer C3 Pass 1 of 2
G1 X66.609 Y34.547 Z0 F800
G1 X66.544 Y36.845 Z0 F800
G1 X66.577 Y39.435 Z0 F800
G1 X66.124 Y39.337 Z0 F800
G1 X66.35 Y35.777 Z0 F800
G1 X66.091 Y34.385 Z0 F800
;Layer C3 Pass 2 of 2
G1 X66.609 Y34.547 Z0 F800
G1 X66.544 Y36.845 Z0 F800
G1 X66.577 Y39.435 Z0 F800
G1 X66.124 Y39.337 Z0 F800
G1 X66.35 Y35.777 Z0 F800
G1 X66.091 Y34.385 Z0 F800
G0 Z3.5 F500
G0 X68.681 Y35.097 Z3.5 
G1 Z0 F500
;Layer C3 Pass 1 of 2
G1 X69.231 Y34.612 Z0 F800
G1 X69.211 Y35.065 Z0 F800
G1 X69.19 Y35.404 Z0 F800
G1 X69.178 Y35.535 Z0 F800
G1 X69.16 Y35.66 Z0 F800
G1 X69.145 Y35.854 Z0 F800
G1 X69.121 Y36.327 Z0 F800
G1 X69.106 Y36.699 Z0 F800
G1 X69.069 Y37.687 Z0 F800
G1 X69.231 Y38.82 Z0 F800
G1 X69.328 Y39.564 Z0 F800
G1 X68.648 Y39.305 Z0 F800
G1 X68.616 Y36.618 Z0 F800
G1 X68.681 Y35.097 Z0 F800
;Layer C3 Pass 2 of 2
G1 X69.231 Y34.612 Z0 F800
G1 X69.211 Y35.065 Z0 F800
G1 X69.19 Y35.404 Z0 F800
G1 X69.178 Y35.535 Z0 F800
G1 X69.16 Y35.66 Z0 F800
G1 X69.145 Y35.854 Z0 F800
G1 X69.121 Y36.327 Z0 F800
G1 X69.106 Y36.699 Z0 F800
G1 X69.069 Y37.687 Z0 F800
G1 X69.231 Y38.82 Z0 F800
G1 X69.328 Y39.564 Z0 F800
G1 X68.648 Y39.305 Z0 F800
G1 X68.616 Y36.618 Z0 F800
G1 X68.681 Y35.097 Z0 F800
G0 Z3.5 F500
G0 X56.154 Y34.515 Z3.5 
G1 Z0 F500
;Layer C3 Pass 1 of 2
G1 X56.283 Y39.208 Z0 F800
G1 X56.057 Y39.499 Z0 F800
G1 X55.83 Y48.951 Z0 F800
G1 X55.636 Y49.145 Z0 F800
G1 X55.668 Y44.322 Z0 F800
G1 X56.089 Y44.258 Z0 F800
G1 X56.122 Y49.275 Z0 F800
G1 X55.895 Y48.401 Z0 F800
G1 X55.863 Y39.402 Z0 F800
G1 X55.604 Y39.273 Z0 F800
G1 Y34.482 Z0 F800
G1 X56.154 Y34.515 Z0 F800
;Layer C3 Pass 2 of 2
G1 X56.283 Y39.208 Z0 F800
G1 X56.057 Y39.499 Z0 F800
G1 X55.83 Y48.951 Z0 F800
G1 X55.636 Y49.145 Z0 F800
G1 X55.668 Y44.322 Z0 F800
G1 X56.089 Y44.258 Z0 F800
G1 X56.122 Y49.275 Z0 F800
G1 X55.895 Y48.401 Z0 F800
G1 X55.863 Y39.402 Z0 F800
G1 X55.604 Y39.273 Z0 F800
G1 Y34.482 Z0 F800
G1 X56.154 Y34.515 Z0 F800
G0 Z3.5 F500
G0 X60.847 Y44.484 Z3.5 
G1 Z0 F500
;Layer C3 Pass 1 of 2
G1 X61.268 Z0 F800
G1 X61.365 Y46.103 Z0 F800
G1 X61.301 Y49.372 Z0 F800
G1 X61.106 Y49.825 Z0 F800
G1 Y52.156 Z0 F800
G1 X60.621 Y52.285 Z0 F800
G1 X60.945 Y51.346 Z0 F800
G1 X61.171 Y49.34 Z0 F800
G1 X60.847 Y49.21 Z0 F800
G1 Y44.484 Z0 F800
;Layer C3 Pass 2 of 2
G1 X61.268 Z0 F800
G1 X61.365 Y46.103 Z0 F800
G1 X61.301 Y49.372 Z0 F800
G1 X61.106 Y49.825 Z0 F800
G1 Y52.156 Z0 F800
G1 X60.621 Y52.285 Z0 F800
G1 X60.945 Y51.346 Z0 F800
G1 X61.171 Y49.34 Z0 F800
G1 X60.847 Y49.21 Z0 F800
G1 Y44.484 Z0 F800
G0 Z3.5 F500
G0 X63.566 Y44.581 Z3.5 
G1 Z0 F500
;Layer C3 Pass 1 of 2
G1 X64.02 Y44.549 Z0 F800
G1 X63.728 Y47.915 Z0 F800
G1 X63.89 Y49.631 Z0 F800
G1 X64.182 Y50.375 Z0 F800
G1 X65.865 Y51.605 Z0 F800
G1 X66.027 Y52.285 Z0 F800
G1 X65.573 Y52.447 Z0 F800
G1 X64.635 Y51.152 Z0 F800
G1 X63.696 Y49.598 Z0 F800
G1 X63.437 Y49.534 Z0 F800
G1 X63.566 Y44.581 Z0 F800
;Layer C3 Pass 2 of 2
G1 X64.02 Y44.549 Z0 F800
G1 X63.728 Y47.915 Z0 F800
G1 X63.89 Y49.631 Z0 F800
G1 X64.182 Y50.375 Z0 F800
G1 X65.865 Y51.605 Z0 F800
G1 X66.027 Y52.285 Z0 F800
G1 X65.573 Y52.447 Z0 F800
G1 X64.635 Y51.152 Z0 F800
G1 X63.696 Y49.598 Z0 F800
G1 X63.437 Y49.534 Z0 F800
G1 X63.566 Y44.581 Z0 F800
G0 Z3.5 F500
G0 X66.027 Y44.419 Z3.5 
G1 Z0 F500
;Layer C3 Pass 1 of 2
G1 X66.48 Y44.516 Z0 F800
G1 X66.512 Y48.336 Z0 F800
G1 X66.544 Y49.307 Z0 F800
G1 X65.962 Y49.275 Z0 F800
G1 X66.027 Y44.419 Z0 F800
;Layer C3 Pass 2 of 2
G1 X66.48 Y44.516 Z0 F800
G1 X66.512 Y48.336 Z0 F800
G1 X66.544 Y49.307 Z0 F800
G1 X65.962 Y49.275 Z0 F800
G1 X66.027 Y44.419 Z0 F800
G0 Z3.5 F500
G0 X68.681 Y44.452 Z3.5 
G1 Z0 F500
;Layer C3 Pass 1 of 2
G1 X69.069 Y44.419 Z0 F800
G1 X68.94 Y49.113 Z0 F800
G1 X68.616 Z0 F800
G1 X68.681 Y44.452 Z0 F800
;Layer C3 Pass 2 of 2
G1 X69.069 Y44.419 Z0 F800
G1 X68.94 Y49.113 Z0 F800
G1 X68.616 Z0 F800
G1 X68.681 Y44.452 Z0 F800
G0 Z3.5 F500
G0 X71.238 Y44.387 Z3.5 
G1 Z0 F500
;Layer C3 Pass 1 of 2
G1 X71.691 Y44.517 Z0 F800
G1 X71.756 Y46.297 Z0 F800
G1 X71.594 Y48.077 Z0 F800
G1 X71.756 Y48.854 Z0 F800
G1 X71.173 Y49.048 Z0 F800
G1 X71.238 Y44.387 Z0 F800
;Layer C3 Pass 2 of 2
G1 X71.691 Y44.517 Z0 F800
G1 X71.756 Y46.297 Z0 F800
G1 X71.594 Y48.077 Z0 F800
G1 X71.756 Y48.854 Z0 F800
G1 X71.173 Y49.048 Z0 F800
G1 X71.238 Y44.387 Z0 F800
;Cut @ 444 mm/min, 90% power

M8
G0 Z3.5 F500
G0 X91.645 Y45.238 Z3.5 
G1 Z0 F500
;Layer C2 Pass 1 of 3
G1 X95 Y46.95 Z0 S900 F800
G1 X96.675 Y43.899 Z0 F800
G1 X93.864 Y49.417 Z0 F800
G1 X94.103 Y48.573 Z0 F800
G1 X90.838 Y46.961 Z0 F800
G1 X91.407 Y47.382 Z0 F800
G1 X91.242 Y47.814 Z0 F800
G1 X91.045 Y48.464 Z0 F800
G1 X90.709 Y48.961 Z0 F800
G1 X90.354 Y49.701 Z0 F800
G1 X90.172 Y50.135 Z0 F800
G1 X89.87 Y50.349 Z0 F800
G1 X89.488 Y50.593 Z0 F800
G1 X89.223 Y50.616 Z0 F800
G1 X89.037 Y50.61 Z0 F800
G1 X88.677 Y50.273 Z0 F800
G1 X88.584 Y49.704 Z0 F800
G1 X88.653 Y49.318 Z0 F800
G1 X88.879 Y49.063 Z0 F800
G1 X89.143 Y48.758 Z0 F800
G1 X89.443 Y48.569 Z0 F800
G1 X89.768 Y48.376 Z0 F800
G1 X90.083 Y48.249 Z0 F800
G1 X90.413 Y48.146 Z0 F800
G1 X90.713 Y48.156 Z0 F800
G1 X90.933 Y48.197 Z0 F800
G1 X91.078 Y48.302 Z0 F800
G1 X91.247 Y48.437 Z0 F800
G1 X91.675 Y48.962 Z0 F800
G1 Y49.398 Z0 F800
G1 X91.417 Y50.048 Z0 F800
G1 X91.523 Y49.752 Z0 F800
G1 X91.934 Y49.432 Z0 F800
G1 X92.399 Y49.2 Z0 F800
G1 X92.771 Y49.228 Z0 F800
G1 X93.19 Y49.685 Z0 F800
G1 X93.268 Y50.214 Z0 F800
G1 X93.134 Y50.685 Z0 F800
G1 X92.85 Y51.192 Z0 F800
G1 X92.294 Y51.702 Z0 F800
G1 X91.742 Y51.732 Z0 F800
G1 X91.368 Y51.55 Z0 F800
G1 X91.187 Y51.155 Z0 F800
;Layer C2 Pass 2 of 3
G1 X91.368 Y51.55 Z0 F800
G1 X91.742 Y51.732 Z0 F800
G1 X92.294 Y51.702 Z0 F800
G1 X92.85 Y51.192 Z0 F800
G1 X93.134 Y50.685 Z0 F800
G1 X93.268 Y50.214 Z0 F800
G1 X93.19 Y49.685 Z0 F800
G1 X92.771 Y49.228 Z0 F800
G1 X92.399 Y49.2 Z0 F800
G1 X91.934 Y49.432 Z0 F800
G1 X91.523 Y49.752 Z0 F800
G1 X91.417 Y50.048 Z0 F800
G1 X91.673 Y49.398 Z0 F800
G1 Y48.962 Z0 F800
G1 X91.247 Y48.437 Z0 F800
G1 X91.078 Y48.302 Z0 F800
G1 X90.933 Y48.197 Z0 F800
G1 X90.713 Y48.156 Z0 F800
G1 X90.413 Y48.146 Z0 F800
G1 X90.083 Y48.249 Z0 F800
G1 X89.768 Y48.376 Z0 F800
G1 X89.443 Y48.569 Z0 F800
G1 X89.143 Y48.758 Z0 F800
G1 X88.879 Y49.063 Z0 F800
G1 X88.653 Y49.318 Z0 F800
G1 X88.584 Y49.704 Z0 F800
G1 X88.677 Y50.273 Z0 F800
G1 X89.037 Y50.61 Z0 F800
G1 X89.223 Y50.616 Z0 F800
G1 X89.488 Y50.593 Z0 F800
G1 X89.87 Y50.349 Z0 F800
G1 X90.172 Y50.135 Z0 F800
G1 X90.354 Y49.701 Z0 F800
G1 X90.709 Y48.961 Z0 F800
G1 X91.045 Y48.464 Z0 F800
G1 X91.242 Y47.814 Z0 F800
G1 X91.407 Y47.382 Z0 F800
G1 X90.838 Y46.961 Z0 F800
G1 X94.103 Y48.573 Z0 F800
G1 X93.864 Y49.417 Z0 F800
G1 X96.675 Y43.899 Z0 F800
G1 X95 Y46.95 Z0 F800
G1 X91.645 Y45.238 Z0 F800
;Layer C2 Pass 3 of 3
G1 X95 Y46.95 Z0 F800
G1 X96.675 Y43.899 Z0 F800
G1 X93.864 Y49.417 Z0 F800
G1 X94.103 Y48.573 Z0 F800
G1 X90.838 Y46.961 Z0 F800
G1 X91.407 Y47.382 Z0 F800
G1 X91.242 Y47.814 Z0 F800
G1 X91.045 Y48.464 Z0 F800
G1 X90.709 Y48.961 Z0 F800
G1 X90.354 Y49.701 Z0 F800
G1 X90.172 Y50.135 Z0 F800
G1 X89.87 Y50.349 Z0 F800
G1 X89.488 Y50.593 Z0 F800
G1 X89.223 Y50.616 Z0 F800
G1 X89.037 Y50.61 Z0 F800
G1 X88.677 Y50.273 Z0 F800
G1 X88.584 Y49.704 Z0 F800
G1 X88.653 Y49.318 Z0 F800
G1 X88.879 Y49.063 Z0 F800
G1 X89.143 Y48.758 Z0 F800
G1 X89.443 Y48.569 Z0 F800
G1 X89.768 Y48.376 Z0 F800
G1 X90.083 Y48.249 Z0 F800
G1 X90.413 Y48.146 Z0 F800
G1 X90.713 Y48.156 Z0 F800
G1 X90.933 Y48.197 Z0 F800
G1 X91.078 Y48.302 Z0 F800
G1 X91.247 Y48.437 Z0 F800
G1 X91.675 Y48.962 Z0 F800
G1 Y49.398 Z0 F800
G1 X91.417 Y50.048 Z0 F800
G1 X91.523 Y49.752 Z0 F800
G1 X91.934 Y49.432 Z0 F800
G1 X92.399 Y49.2 Z0 F800
G1 X92.771 Y49.228 Z0 F800
G1 X93.19 Y49.685 Z0 F800
G1 X93.268 Y50.214 Z0 F800
G1 X93.134 Y50.685 Z0 F800
G1 X92.85 Y51.192 Z0 F800
G1 X92.294 Y51.702 Z0 F800
G1 X91.742 Y51.732 Z0 F800
G1 X91.368 Y51.55 Z0 F800
G1 X91.187 Y51.155 Z0 F800
G0 Z3.5 F500
G0 X92.108 Y52.752 Z3.5 
G1 Z0 F500
;Layer C2 Pass 1 of 3
G1 X88.932 Y59.259 Z0 F800
G1 X92.108 Y52.752 Z0 F800
;Layer C2 Pass 2 of 3
G1 X88.932 Y59.259 Z0 F800
G1 X92.108 Y52.752 Z0 F800
;Layer C2 Pass 3 of 3
G1 X88.932 Y59.259 Z0 F800
G1 X92.108 Y52.752 Z0 F800
G0 Z3.5 F500
G0 X91.305 Y53.405 Z3.5 
G1 Z0 F500
;Layer C2 Pass 1 of 3
G1 X88.405 Y51.907 Z0 F800
;Layer C2 Pass 2 of 3
G1 X91.305 Y53.405 Z0 F800
;Layer C2 Pass 3 of 3
G1 X88.405 Y51.907 Z0 F800
G0 Z3.5 F500
G0 X91.663 Y54.042 Z3.5 
G1 Z0 F500
;Layer C2 Pass 1 of 3
G1 X91.836 Y53.993 Z0 F800
G1 X92.188 Y54.263 Z0 F800
G1 X92.476 Y54.635 Z0 F800
G1 X92.812 Y55.301 Z0 F800
G1 X92.803 Y55.943 Z0 F800
G1 X92.402 Y56.406 Z0 F800
G1 X91.936 Y56.699 Z0 F800
G1 X91.167 Z0 F800
G1 X90.642 Y56.477 Z0 F800
G1 X90.186 Y56.007 Z0 F800
G1 X89.703 Y56.361 Z0 F800
G1 X89.289 Y56.98 Z0 F800
G1 X88.873 Y57.129 Z0 F800
G1 X88.575 Y56.946 Z0 F800
G1 X88.449 Y56.578 Z0 F800
G1 X88.507 Y56.331 Z0 F800
G1 X88.582 Y56.03 Z0 F800
G1 X88.703 Y55.809 Z0 F800
G1 X88.804 Y55.642 Z0 F800
G1 X88.789 Y54.875 Z0 F800
G1 X88.724 Y54.447 Z0 F800
G1 X88.298 Y54.076 Z0 F800
G1 X87.761 Y54.147 Z0 F800
G1 X87.18 Y54.608 Z0 F800
G1 X86.697 Y55.159 Z0 F800
G1 X86.393 Y55.832 Z0 F800
G1 X86.244 Y56.322 Z0 F800
G1 X86.223 Y56.684 Z0 F800
G1 X86.432 Y57.101 Z0 F800
G1 X86.608 Y57.266 Z0 F800
G1 X86.937 Y57.231 Z0 F800
G1 X87.266 Y56.94 Z0 F800
;Layer C2 Pass 2 of 3
G1 X86.937 Y57.231 Z0 F800
G1 X86.608 Y57.266 Z0 F800
G1 X86.432 Y57.101 Z0 F800
G1 X86.223 Y56.684 Z0 F800
G1 X86.244 Y56.322 Z0 F800
G1 X86.393 Y55.832 Z0 F800
G1 X86.697 Y55.159 Z0 F800
G1 X87.18 Y54.608 Z0 F800
G1 X87.761 Y54.147 Z0 F800
G1 X88.298 Y54.076 Z0 F800
G1 X88.724 Y54.447 Z0 F800
G1 X88.789 Y54.875 Z0 F800
G1 X88.804 Y55.642 Z0 F800
G1 X88.703 Y55.809 Z0 F800
G1 X88.582 Y56.03 Z0 F800
G1 X88.507 Y56.331 Z0 F800
G1 X88.449 Y56.578 Z0 F800
G1 X88.575 Y56.946 Z0 F800
G1 X88.873 Y57.129 Z0 F800
G1 X89.289 Y56.98 Z0 F800
G1 X89.703 Y56.361 Z0 F800
G1 X90.186 Y56.007 Z0 F800
G1 X90.642 Y56.477 Z0 F800
G1 X91.167 Y56.698 Z0 F800
G1 X91.936 Z0 F800
G1 X92.402 Y56.406 Z0 F800
G1 X92.803 Y55.943 Z0 F800
G1 X92.812 Y55.301 Z0 F800
G1 X92.476 Y54.635 Z0 F800
G1 X92.188 Y54.263 Z0 F800
G1 X91.836 Y53.993 Z0 F800
G1 X91.663 Y54.042 Z0 F800
;Layer C2 Pass 3 of 3
G1 X91.836 Y53.993 Z0 F800
G1 X92.188 Y54.263 Z0 F800
G1 X92.476 Y54.635 Z0 F800
G1 X92.812 Y55.301 Z0 F800
G1 X92.803 Y55.943 Z0 F800
G1 X92.402 Y56.406 Z0 F800
G1 X91.936 Y56.699 Z0 F800
G1 X91.167 Z0 F800
G1 X90.642 Y56.477 Z0 F800
G1 X90.186 Y56.007 Z0 F800
G1 X89.703 Y56.361 Z0 F800
G1 X89.289 Y56.98 Z0 F800
G1 X88.873 Y57.129 Z0 F800
G1 X88.575 Y56.946 Z0 F800
G1 X88.449 Y56.578 Z0 F800
G1 X88.507 Y56.331 Z0 F800
G1 X88.582 Y56.03 Z0 F800
G1 X88.703 Y55.809 Z0 F800
G1 X88.804 Y55.642 Z0 F800
G1 X88.789 Y54.875 Z0 F800
G1 X88.724 Y54.447 Z0 F800
G1 X88.298 Y54.076 Z0 F800
G1 X87.761 Y54.147 Z0 F800
G1 X87.18 Y54.608 Z0 F800
G1 X86.697 Y55.159 Z0 F800
G1 X86.393 Y55.832 Z0 F800
G1 X86.244 Y56.322 Z0 F800
G1 X86.223 Y56.684 Z0 F800
G1 X86.432 Y57.101 Z0 F800
G1 X86.608 Y57.266 Z0 F800
G1 X86.937 Y57.231 Z0 F800
G1 X87.266 Y56.94 Z0 F800
G0 Z3.5 F500
G0 X97.316 Y42.471 Z3.5 
G1 Z0 F500
;Layer C2 Pass 1 of 3
G1 X98.521 Y40.072 Z0 F800
;Layer C2 Pass 2 of 3
G1 X97.316 Y42.471 Z0 F800
;Layer C2 Pass 3 of 3
G1 X98.521 Y40.072 Z0 F800
G0 Z3.5 F500
G0 X99.616 Y42.151 Z3.5 
G1 Z0 F500
;Layer C2 Pass 1 of 3
G1 X99.651 Y42.223 Z0 F800
G1 X99.573 Y42.857 Z0 F800
G1 X99.172 Y43.124 Z0 F800
G1 X98.424 Y43.291 Z0 F800
G1 X97.871 Y43.245 Z0 F800
G1 X97.609 Y42.621 Z0 F800
G1 X97.459 Z0 F800
G1 X97.237 Y42.653 Z0 F800
G1 X96.99 Y42.795 Z0 F800
G1 X96.786 Y42.926 Z0 F800
G1 X96.519 Y43.197 Z0 F800
G1 X96.282 Y43.446 Z0 F800
G1 X95.913 Y43.747 Z0 F800
G1 X95.482 Y44.056 Z0 F800
G1 X95.287 Y43.987 Z0 F800
G1 X95.155 Y43.911 Z0 F800
G1 X95.211 Y43.305 Z0 F800
G1 X95.385 Y42.547 Z0 F800
G1 X95.614 Y41.952 Z0 F800
G1 X95.513 Y41.643 Z0 F800
G1 X95.379 Y41.274 Z0 F800
G1 X95.166 Y41.099 Z0 F800
G1 X94.92 Y40.967 Z0 F800
G1 X94.583 Y41.02 Z0 F800
G1 X94.312 Y41.09 Z0 F800
G1 X94.067 Y41.253 Z0 F800
G1 X93.769 Y41.444 Z0 F800
G1 X93.531 Y41.741 Z0 F800
G1 X93.348 Y42.012 Z0 F800
G1 X92.952 Y42.706 Z0 F800
G1 X92.835 Y43.371 Z0 F800
G1 X93.24 Y43.848 Z0 F800
G1 X93.7 Y43.641 Z0 F800
G1 X94.095 Y43.264 Z0 F800
G1 X94.254 Y42.722 Z0 F800
G1 X94.219 Y41.94 Z0 F800
G1 X93.934 Y41.208 Z0 F800
G1 X93.428 Y40.292 Z0 F800
;Layer C2 Pass 2 of 3
G1 X93.934 Y41.208 Z0 F800
G1 X94.219 Y41.94 Z0 F800
G1 X94.254 Y42.722 Z0 F800
G1 X94.095 Y43.264 Z0 F800
G1 X93.7 Y43.641 Z0 F800
G1 X93.24 Y43.848 Z0 F800
G1 X92.835 Y43.371 Z0 F800
G1 X92.952 Y42.706 Z0 F800
G1 X93.348 Y42.012 Z0 F800
G1 X93.531 Y41.741 Z0 F800
G1 X93.769 Y41.444 Z0 F800
G1 X94.067 Y41.253 Z0 F800
G1 X94.312 Y41.09 Z0 F800
G1 X94.583 Y41.02 Z0 F800
G1 X94.92 Y40.967 Z0 F800
G1 X95.166 Y41.099 Z0 F800
G1 X95.379 Y41.274 Z0 F800
G1 X95.513 Y41.643 Z0 F800
G1 X95.614 Y41.952 Z0 F800
G1 X95.385 Y42.547 Z0 F800
G1 X95.211 Y43.305 Z0 F800
G1 X95.155 Y43.911 Z0 F800
G1 X95.287 Y43.987 Z0 F800
G1 X95.482 Y44.056 Z0 F800
G1 X95.913 Y43.747 Z0 F800
G1 X96.282 Y43.446 Z0 F800
G1 X96.519 Y43.197 Z0 F800
G1 X96.786 Y42.926 Z0 F800
G1 X96.99 Y42.795 Z0 F800
G1 X97.237 Y42.653 Z0 F800
G1 X97.459 Y42.619 Z0 F800
G1 X97.609 Z0 F800
G1 X97.871 Y43.245 Z0 F800
G1 X98.424 Y43.291 Z0 F800
G1 X99.172 Y43.124 Z0 F800
G1 X99.573 Y42.857 Z0 F800
G1 X99.651 Y42.223 Z0 F800
G1 X99.616 Y42.151 Z0 F800
;Layer C2 Pass 3 of 3
G1 X99.651 Y42.223 Z0 F800
G1 X99.573 Y42.857 Z0 F800
G1 X99.172 Y43.124 Z0 F800
G1 X98.424 Y43.291 Z0 F800
G1 X97.871 Y43.245 Z0 F800
G1 X97.609 Y42.621 Z0 F800
G1 X97.459 Z0 F800
G1 X97.237 Y42.653 Z0 F800
G1 X96.99 Y42.795 Z0 F800
G1 X96.786 Y42.926 Z0 F800
G1 X96.519 Y43.197 Z0 F800
G1 X96.282 Y43.446 Z0 F800
G1 X95.913 Y43.747 Z0 F800
G1 X95.482 Y44.056 Z0 F800
G1 X95.287 Y43.987 Z0 F800
G1 X95.155 Y43.911 Z0 F800
G1 X95.211 Y43.305 Z0 F800
G1 X95.385 Y42.547 Z0 F800
G1 X95.614 Y41.952 Z0 F800
G1 X95.513 Y41.643 Z0 F800
G1 X95.379 Y41.274 Z0 F800
G1 X95.166 Y41.099 Z0 F800
G1 X94.92 Y40.967 Z0 F800
G1 X94.583 Y41.02 Z0 F800
G1 X94.312 Y41.09 Z0 F800
G1 X94.067 Y41.253 Z0 F800
G1 X93.769 Y41.444 Z0 F800
G1 X93.531 Y41.741 Z0 F800
G1 X93.348 Y42.012 Z0 F800
G1 X92.952 Y42.706 Z0 F800
G1 X92.835 Y43.371 Z0 F800
G1 X93.24 Y43.848 Z0 F800
G1 X93.7 Y43.641 Z0 F800
G1 X94.095 Y43.264 Z0 F800
G1 X94.254 Y42.722 Z0 F800
G1 X94.219 Y41.94 Z0 F800
G1 X93.934 Y41.208 Z0 F800
G1 X93.428 Y40.292 Z0 F800
G0 Z3.5 F500
G0 X97.862 Y37.287 Z3.5 
G1 Z0 F500
;Layer C2 Pass 1 of 3
G1 X98.41 Y37.359 Z0 F800
G1 X99.095 Y37.825 Z0 F800
G1 X99.241 Y38.147 Z0 F800
G1 X99.235 Y38.747 Z0 F800
G1 X98.658 Y39.302 Z0 F800
G1 X97.897 Y39.624 Z0 F800
G1 X97.368 Y39.566 Z0 F800
G1 X96.789 Y39.455 Z0 F800
G1 X96.213 Y39.043 Z0 F800
G1 X95.629 Y38.505 Z0 F800
G1 X95.538 Y37.816 Z0 F800
G1 X96.082 Y37.145 Z0 F800
G1 X96.508 Y36.807 Z0 F800
G1 X97.153 Y36.577 Z0 F800
G1 X97.747 Y36.609 Z0 F800
G1 X98.259 Y36.473 Z0 F800
G1 X99.146 Y36.715 Z0 F800
G1 X99.6 Y36.852 Z0 F800
G1 X96.705 Y35.387 Z0 F800
;Layer C2 Pass 2 of 3
G1 X99.6 Y36.852 Z0 F800
G1 X99.146 Y36.715 Z0 F800
G1 X98.259 Y36.473 Z0 F800
G1 X97.747 Y36.609 Z0 F800
G1 X97.153 Y36.577 Z0 F800
G1 X96.508 Y36.807 Z0 F800
G1 X96.082 Y37.145 Z0 F800
G1 X95.538 Y37.816 Z0 F800
G1 X95.629 Y38.505 Z0 F800
G1 X96.213 Y39.043 Z0 F800
G1 X96.789 Y39.455 Z0 F800
G1 X97.368 Y39.566 Z0 F800
G1 X97.897 Y39.624 Z0 F800
G1 X98.658 Y39.302 Z0 F800
G1 X99.235 Y38.747 Z0 F800
G1 X99.241 Y38.147 Z0 F800
G1 X99.095 Y37.825 Z0 F800
G1 X98.41 Y37.359 Z0 F800
G1 X97.862 Y37.287 Z0 F800
;Layer C2 Pass 3 of 3
G1 X98.41 Y37.359 Z0 F800
G1 X99.095 Y37.825 Z0 F800
G1 X99.241 Y38.147 Z0 F800
G1 X99.235 Y38.747 Z0 F800
G1 X98.658 Y39.302 Z0 F800
G1 X97.897 Y39.624 Z0 F800
G1 X97.368 Y39.566 Z0 F800
G1 X96.789 Y39.455 Z0 F800
G1 X96.213 Y39.043 Z0 F800
G1 X95.629 Y38.505 Z0 F800
G1 X95.538 Y37.816 Z0 F800
G1 X96.082 Y37.145 Z0 F800
G1 X96.508 Y36.807 Z0 F800
G1 X97.153 Y36.577 Z0 F800
G1 X97.747 Y36.609 Z0 F800
G1 X98.259 Y36.473 Z0 F800
G1 X99.146 Y36.715 Z0 F800
G1 X99.6 Y36.852 Z0 F800
G1 X96.705 Y35.387 Z0 F800
G0 Z3.5 F500
G0 X97.474 Y33.576 Z3.5 
G1 Z0 F500
;Layer C2 Pass 1 of 3
G1 X100.942 Y35.298 Z0 F800
G1 X99.789 Y37.571 Z0 F800
;Layer C2 Pass 2 of 3
G1 X100.942 Y35.298 Z0 F800
G1 X97.474 Y33.576 Z0 F800
;Layer C2 Pass 3 of 3
G1 X100.942 Y35.298 Z0 F800
G1 X99.789 Y37.571 Z0 F800
G0 Z3.5 F500
G0 X101.162 Y34.825 Z3.5 
G1 Z0 F500
;Layer C2 Pass 1 of 3
G1 X103.777 Y29.632 Z0 F800
;Layer C2 Pass 2 of 3
G1 X101.162 Y34.825 Z0 F800
;Layer C2 Pass 3 of 3
G1 X103.777 Y29.632 Z0 F800
G0 Z3.5 F500
G0 X103.197 Y30.276 Z3.5 
G1 Z0 F500
;Layer C2 Pass 1 of 3
G1 X100.08 Y28.741 Z0 F800
;Layer C2 Pass 2 of 3
G1 X103.197 Y30.276 Z0 F800
;Layer C2 Pass 3 of 3
G1 X100.08 Y28.741 Z0 F800
G0 Z3.5 F500
G0 X101.032 Y29.45 Z3.5 
G1 Z0 F500
;Layer C2 Pass 1 of 3
G1 X100.726 Y29.493 Z0 F800
G1 X100.37 Y29.562 Z0 F800
G1 X99.759 Y29.884 Z0 F800
G1 X99.59 Y30.216 Z0 F800
G1 X99.382 Y30.599 Z0 F800
G1 X99.253 Y30.935 Z0 F800
G1 X99.162 Y31.22 Z0 F800
G1 X99.395 Y31.976 Z0 F800
G1 X99.801 Y32.309 Z0 F800
G1 X100.321 Y32.216 Z0 F800
G1 X100.525 Y31.838 Z0 F800
G1 X100.714 Y31.631 Z0 F800
G1 X100.858 Y31.463 Z0 F800
G1 X100.954 Y31.334 Z0 F800
G1 X101.08 Y31.245 Z0 F800
G1 X101.29 Y31.165 Z0 F800
G1 X101.396 Y31.132 Z0 F800
G1 X101.574 Y31.083 Z0 F800
G1 X102.071 Y31.272 Z0 F800
G1 X102.297 Y32.257 Z0 F800
;Layer C2 Pass 2 of 3
G1 X102.071 Y31.272 Z0 F800
G1 X101.574 Y31.083 Z0 F800
G1 X101.396 Y31.132 Z0 F800
G1 X101.29 Y31.165 Z0 F800
G1 X101.08 Y31.245 Z0 F800
G1 X100.954 Y31.334 Z0 F800
G1 X100.858 Y31.463 Z0 F800
G1 X100.714 Y31.631 Z0 F800
G1 X100.525 Y31.838 Z0 F800
G1 X100.321 Y32.216 Z0 F800
G1 X99.801 Y32.309 Z0 F800
G1 X99.395 Y31.976 Z0 F800
G1 X99.162 Y31.22 Z0 F800
G1 X99.253 Y30.935 Z0 F800
G1 X99.382 Y30.599 Z0 F800
G1 X99.59 Y30.216 Z0 F800
G1 X99.759 Y29.884 Z0 F800
G1 X100.37 Y29.562 Z0 F800
G1 X100.726 Y29.493 Z0 F800
G1 X101.032 Y29.45 Z0 F800
;Layer C2 Pass 3 of 3
G1 X100.726 Y29.493 Z0 F800
G1 X100.37 Y29.562 Z0 F800
G1 X99.759 Y29.884 Z0 F800
G1 X99.59 Y30.216 Z0 F800
G1 X99.382 Y30.599 Z0 F800
G1 X99.253 Y30.935 Z0 F800
G1 X99.162 Y31.22 Z0 F800
G1 X99.395 Y31.976 Z0 F800
G1 X99.801 Y32.309 Z0 F800
G1 X100.321 Y32.216 Z0 F800
G1 X100.525 Y31.838 Z0 F800
G1 X100.714 Y31.631 Z0 F800
G1 X100.858 Y31.463 Z0 F800
G1 X100.954 Y31.334 Z0 F800
G1 X101.08 Y31.245 Z0 F800
G1 X101.29 Y31.165 Z0 F800
G1 X101.396 Y31.132 Z0 F800
G1 X101.574 Y31.083 Z0 F800
G1 X102.071 Y31.272 Z0 F800
G1 X102.297 Y32.257 Z0 F800
;Offset @ 555 mm/min, 90% power

M8
G0 Z3.5 F500
G0 X85.892 Y33.583 Z3.5 
G1 Z0 F500
;Layer C1
G1 X86.163 Y33.657 Z0 F800
G1 X83.845 Y33.495 Z0 F800
G1 X83.44 Y33.47 Z0 F800
G1 X83.81 Y33.13 Z0 F800
G1 X83.916 Y33.018 Z0 F800
G1 X85.892 Y33.583 Z0 F800
G0 Z3.5 F500
G0 X87.393 Y34.324 Z3.5 F555
G1 Z0 F500
G1 X83.806 Y34.074 Z0 F800
G1 X81.686 Y33.941 Z0 F800
G1 X82.419 Y33.527 Z0 F800
G1 X82.974 Y33.111 Z0 F800
G1 X83.402 Y32.717 Z0 F800
G1 X83.728 Y32.373 Z0 F800
G1 X83.736 Y32.363 Z0 F800
G1 X86.048 Y33.024 Z0 F800
G1 X87.589 Y33.447 Z0 F800
G1 X87.393 Y34.324 Z0 F800
G0 Z3.5 F500
G0 X87.848 Y34.937 Z3.5 
G1 Z0 F500
G1 X83.768 Y34.653 Z0 F800
G1 X80.464 Y34.446 Z0 F800
G1 X80.508 Y33.754 Z0 F800
G1 X80.496 Y33.668 Z0 F800
G1 X80.688 Y33.661 Z0 F800
G1 X81.418 Y33.427 Z0 F800
G1 X82.101 Y33.041 Z0 F800
G1 X82.603 Y32.665 Z0 F800
G1 X82.995 Y32.303 Z0 F800
G1 X83.298 Y31.983 Z0 F800
G1 X83.542 Y31.704 Z0 F800
G1 X86.205 Y32.465 Z0 F800
G1 X88.275 Y33.034 Z0 F800
G1 X87.938 Y34.545 Z0 F800
G1 X87.899 Y34.645 Z0 F800
G1 X87.848 Y34.937 Z0 F800
G0 Z3.5 F500
G0 X88.308 Y35.551 Z3.5 
G1 Z0 F500
G1 X83.729 Y35.231 Z0 F800
G1 X79.919 Y34.993 Z0 F800
G1 X79.709 Y34.981 Z0 F800
G1 X79.884 Y34.434 Z0 F800
G1 X79.925 Y33.777 Z0 F800
G1 X79.846 Y33.228 Z0 F800
G1 X79.8 Y33.081 Z0 F800
G1 X80.056 Y33.104 Z0 F800
G1 X80.587 Y33.084 Z0 F800
G1 X81.184 Y32.893 Z0 F800
G1 X81.783 Y32.554 Z0 F800
G1 X82.231 Y32.218 Z0 F800
G1 X82.587 Y31.89 Z0 F800
G1 X82.869 Y31.593 Z0 F800
G1 X83.212 Y31.199 Z0 F800
G1 X83.36 Y31.049 Z0 F800
G1 X86.361 Y31.907 Z0 F800
G1 X89.888 Y32.875 Z0 F800
G1 X89.917 Y32.904 Z0 F800
G1 X89.908 Y32.908 Z0 F800
G1 X89.754 Y33.019 Z0 F800
G1 X88.91 Y32.854 Z0 F800
G1 X88.494 Y34.716 Z0 F800
G1 X88.461 Y34.801 Z0 F800
G1 X88.408 Y35.102 Z0 F800
G1 X88.308 Y35.551 Z0 F800
G0 Z3.5 F500
G0 X88.766 Y36.164 Z3.5 
G1 Z0 F500
G1 X83.691 Y35.81 Z0 F800
G1 X79.884 Y35.572 Z0 F800
G1 X78.678 Y35.502 Z0 F800
G1 X78.834 Y35.346 Z0 F800
G1 X79.134 Y34.875 Z0 F800
G1 X79.309 Y34.325 Z0 F800
G1 X79.343 Y33.8 Z0 F800
G1 X79.279 Y33.357 Z0 F800
G1 X79.166 Y33.002 Z0 F800
G1 X79.03 Y32.708 Z0 F800
G1 X78.853 Y32.417 Z0 F800
G1 X80.071 Y32.522 Z0 F800
G1 X80.486 Y32.508 Z0 F800
G1 X80.95 Y32.359 Z0 F800
G1 X81.465 Y32.068 Z0 F800
G1 X81.859 Y31.772 Z0 F800
G1 X82.18 Y31.477 Z0 F800
G1 X82.44 Y31.202 Z0 F800
G1 X82.788 Y30.804 Z0 F800
G1 X83.083 Y30.504 Z0 F800
G1 X83.197 Y30.399 Z0 F800
G1 X86.518 Y31.348 Z0 F800
G1 X90.248 Y32.372 Z0 F800
G1 X90.332 Y32.499 Z0 F800
G1 X90.784 Y32.947 Z0 F800
G1 X91.03 Y33.08 Z0 F800
G1 X90.974 Y33.091 Z0 F800
G1 X90.595 Y33.214 Z0 F800
G1 X90.209 Y33.406 Z0 F800
G1 X89.889 Y33.636 Z0 F800
G1 X89.353 Y33.531 Z0 F800
G1 X89.051 Y34.883 Z0 F800
G1 X89.022 Y34.958 Z0 F800
G1 X88.976 Y35.222 Z0 F800
G1 X88.766 Y36.164 Z0 F800
G0 Z3.5 F500
G0 X88.582 Y36.732 Z3.5 
G1 Z0 F500
G1 X83.653 Y36.389 Z0 F800
G1 X79.849 Y36.151 Z0 F800
G1 X76.047 Y35.931 Z0 F800
G1 X72.391 Y35.724 Z0 F800
G1 Y35.72 Z0 F800
G1 X72.695 Z0 F800
G1 X74.18 Y35.726 Z0 F800
G1 X75.69 Y35.706 Z0 F800
G1 X77.268 Y35.626 Z0 F800
G1 X77.51 Y35.583 Z0 F800
G1 X77.78 Y35.473 Z0 F800
G1 X78.103 Y35.258 Z0 F800
G1 X78.379 Y34.981 Z0 F800
G1 X78.604 Y34.627 Z0 F800
G1 X78.735 Y34.217 Z0 F800
G1 X78.76 Y33.824 Z0 F800
G1 X78.712 Y33.487 Z0 F800
G1 X78.625 Y33.212 Z0 F800
G1 X78.518 Y32.982 Z0 F800
G1 X78.338 Y32.687 Z0 F800
G1 X78.162 Y32.451 Z0 F800
G1 X78.027 Y32.288 Z0 F800
G1 X77.957 Y32.201 Z0 F800
G1 X77.61 Y31.747 Z0 F800
G1 X78.782 Y31.829 Z0 F800
G1 X80.085 Y31.941 Z0 F800
G1 X80.385 Y31.931 Z0 F800
G1 X80.716 Y31.825 Z0 F800
G1 X81.147 Y31.582 Z0 F800
G1 X81.488 Y31.325 Z0 F800
G1 X81.772 Y31.064 Z0 F800
G1 X82.011 Y30.812 Z0 F800
G1 X82.367 Y30.404 Z0 F800
G1 X82.671 Y30.096 Z0 F800
G1 X82.927 Y29.859 Z0 F800
G1 X83.037 Y29.75 Z0 F800
G1 X86.674 Y30.79 Z0 F800
G1 X90.609 Y31.87 Z0 F800
G1 X90.782 Y32.128 Z0 F800
G1 X91.132 Y32.477 Z0 F800
G1 X91.576 Y32.715 Z0 F800
G1 X92.277 Y32.946 Z0 F800
G1 X92.865 Y33.049 Z0 F800
G1 X92.868 Y33.179 Z0 F800
G1 X92.935 Y33.576 Z0 F800
G1 X93.028 Y33.913 Z0 F800
G1 X92.557 Y33.695 Z0 F800
G1 X91.985 Y33.582 Z0 F800
G1 X91.443 Y33.592 Z0 F800
G1 X91.118 Y33.654 Z0 F800
G1 X90.814 Y33.752 Z0 F800
G1 X90.509 Y33.904 Z0 F800
G1 X90.212 Y34.119 Z0 F800
G1 X90.075 Y34.263 Z0 F800
G1 X89.796 Y34.208 Z0 F800
G1 X89.607 Y35.056 Z0 F800
G1 X89.583 Y35.116 Z0 F800
G1 X89.546 Y35.328 Z0 F800
G1 X89.323 Y36.327 Z0 F800
G1 X89.139 Y37.296 Z0 F800
G1 X89.049 Y37.667 Z0 F800
G1 X88.892 Y37.396 Z0 F800
G1 X88.566 Y37.079 Z0 F800
G1 X88.582 Y36.732 Z0 F800
G0 Z3.5 F500
G0 X86.831 Y30.231 Z3.5 
G1 Z0 F500
G1 X90.995 Y31.375 Z0 F800
G1 X91.078 Y31.528 Z0 F800
G1 X91.232 Y31.757 Z0 F800
G1 X91.481 Y32.005 Z0 F800
G1 X91.806 Y32.18 Z0 F800
G1 X92.419 Y32.382 Z0 F800
G1 X93.002 Y32.484 Z0 F800
G1 X93.43 Y32.53 Z0 F800
G1 X93.447 Y33.123 Z0 F800
G1 X93.501 Y33.45 Z0 F800
G1 X93.588 Y33.763 Z0 F800
G1 X93.712 Y34.07 Z0 F800
G1 X93.781 Y34.195 Z0 F800
G1 X93.771 Y34.387 Z0 F800
G1 X93.724 Y34.738 Z0 F800
G1 X93.671 Y35.022 Z0 F800
G1 X93.501 Y35.002 Z0 F800
G1 X93.385 Y34.973 Z0 F800
G1 X93.32 Y34.945 Z0 F800
G1 X93.286 Y34.919 Z0 F800
G1 X93.206 Y34.818 Z0 F800
G1 X93.154 Y34.748 Z0 F800
G1 X92.799 Y34.446 Z0 F800
G1 X92.376 Y34.25 Z0 F800
G1 X91.934 Y34.163 Z0 F800
G1 X91.503 Y34.171 Z0 F800
G1 X91.262 Y34.217 Z0 F800
G1 X91.035 Y34.291 Z0 F800
G1 X90.81 Y34.403 Z0 F800
G1 X90.595 Y34.557 Z0 F800
G1 X90.404 Y34.76 Z0 F800
G1 X90.314 Y34.901 Z0 F800
G1 X90.239 Y34.886 Z0 F800
G1 X90.165 Y35.221 Z0 F800
G1 X90.145 Y35.272 Z0 F800
G1 X90.114 Y35.448 Z0 F800
G1 X89.892 Y36.445 Z0 F800
G1 X89.706 Y37.419 Z0 F800
G1 X89.602 Y37.846 Z0 F800
G1 X89.471 Y38.243 Z0 F800
G1 X89.307 Y38.6 Z0 F800
G1 X89.055 Y38.982 Z0 F800
G1 X87.867 Y41.066 Z0 F800
G1 X87.822 Y41.034 Z0 F800
G1 X87.625 Y40.944 Z0 F800
G1 X87.409 Y40.889 Z0 F800
G1 X87.053 Y40.882 Z0 F800
G1 X86.995 Y40.899 Z0 F800
G1 X87.037 Y40.802 Z0 F800
G1 X87.088 Y40.554 Z0 F800
G1 X87.084 Y40.293 Z0 F800
G1 X87.016 Y40.033 Z0 F800
G1 X86.888 Y39.807 Z0 F800
G1 X86.838 Y39.751 Z0 F800
G1 X87.687 Y39.743 Z0 F800
G1 X87.81 Y39.726 Z0 F800
G1 X87.945 Y39.686 Z0 F800
G1 X88.17 Y39.57 Z0 F800
G1 X88.37 Y39.412 Z0 F800
G1 X88.535 Y39.212 Z0 F800
G1 X88.652 Y38.978 Z0 F800
G1 X88.71 Y38.735 Z0 F800
G1 X88.718 Y38.502 Z0 F800
G1 X88.684 Y38.286 Z0 F800
G1 X88.615 Y38.075 Z0 F800
G1 X88.43 Y37.756 Z0 F800
G1 X88.145 Y37.479 Z0 F800
G1 X87.971 Y37.389 Z0 F800
G1 X87.977 Y37.272 Z0 F800
G1 X83.615 Y36.968 Z0 F800
G1 X79.814 Y36.73 Z0 F800
G1 X76.014 Y36.51 Z0 F800
G1 X72.175 Y36.293 Z0 F800
G1 X71.981 Y36.31 Z0 F800
G1 X71.809 Y36.376 Z0 F800
G1 Y35.625 Z0 F800
G1 Y35.14 Z0 F800
G1 X72.697 Z0 F800
G1 X74.177 Y35.146 Z0 F800
G1 X75.672 Y35.126 Z0 F800
G1 X77.201 Y35.048 Z0 F800
G1 X77.349 Y35.022 Z0 F800
G1 X77.508 Y34.958 Z0 F800
G1 X77.733 Y34.808 Z0 F800
G1 X77.924 Y34.617 Z0 F800
G1 X78.074 Y34.379 Z0 F800
G1 X78.161 Y34.109 Z0 F800
G1 X78.177 Y33.847 Z0 F800
G1 X78.145 Y33.617 Z0 F800
G1 X78.083 Y33.423 Z0 F800
G1 X78.005 Y33.255 Z0 F800
G1 X77.857 Y33.013 Z0 F800
G1 X77.706 Y32.81 Z0 F800
G1 X77.58 Y32.657 Z0 F800
G1 X77.496 Y32.553 Z0 F800
G1 X77.019 Y31.928 Z0 F800
G1 X76.523 Y31.31 Z0 F800
G1 X76.352 Y31.092 Z0 F800
G1 X76.367 Z0 F800
G1 X77.607 Y31.165 Z0 F800
G1 X78.838 Y31.251 Z0 F800
G1 X80.101 Y31.361 Z0 F800
G1 X80.285 Y31.354 Z0 F800
G1 X80.483 Y31.291 Z0 F800
G1 X80.829 Y31.095 Z0 F800
G1 X81.117 Y30.879 Z0 F800
G1 X81.365 Y30.65 Z0 F800
G1 X81.582 Y30.421 Z0 F800
G1 X81.938 Y30.013 Z0 F800
G1 X82.275 Y29.671 Z0 F800
G1 X82.525 Y29.44 Z0 F800
G1 X82.756 Y29.21 Z0 F800
G1 X82.876 Y29.101 Z0 F800
G1 X86.831 Y30.231 Z0 F800
G0 Z3.5 F500
G0 X53.021 Y56.395 Z3.5 
G1 Z0 F500
G1 X51.905 Y56.356 Z0 F800
G1 Y56.31 Z0 F800
G1 X51.943 Y55.144 Z0 F800
G1 X51.952 Y54.311 Z0 F800
G1 X51.998 Y54.275 Z0 F800
G1 X52.148 Y54.099 Z0 F800
G1 X52.274 Y54.974 Z0 F800
G1 X52.35 Y55.308 Z0 F800
G1 X52.523 Y55.715 Z0 F800
G1 X52.819 Y56.177 Z0 F800
G1 X53.021 Y56.395 Z0 F800
G0 Z3.5 F500
G0 X53.933 Y56.411 Z3.5 
G1 Z0 F500
G1 X54.347 Y56.622 Z0 F800
G1 X54.918 Y56.775 Z0 F800
G1 X55.386 Y56.807 Z0 F800
G1 X55.695 Y56.801 Z0 F800
G1 X55.885 Y56.792 Z0 F800
G1 X55.922 Z0 F800
G1 X55.967 Y56.8 Z0 F800
G1 X56.128 Y56.809 Z0 F800
G1 X67.678 Y56.954 Z0 F800
G1 X79.105 Y57.066 Z0 F800
G1 X79.318 Y57.087 Z0 F800
G1 X79.639 Y57.071 Z0 F800
G1 X80.562 Y57.08 Z0 F800
G1 X80.525 Y57.187 Z0 F800
G1 X80.522 Z0 F800
G1 X80.412 Y57.234 Z0 F800
G1 X80.208 Y57.287 Z0 F800
G1 X79.942 Y57.326 Z0 F800
G1 X79.62 Y57.35 Z0 F800
G1 X79.235 Y57.358 Z0 F800
G1 X77.596 Y57.382 Z0 F800
G1 X75.909 Z0 F800
G1 X69.583 Y57.333 Z0 F800
G1 X63.25 Y57.25 Z0 F800
G1 X56.905 Y57.11 Z0 F800
G1 X51.323 Y56.916 Z0 F800
G1 Y56.306 Z0 F800
G1 X51.363 Y55.131 Z0 F800
G1 X51.375 Y54.025 Z0 F800
G1 X51.595 Y53.854 Z0 F800
G1 X51.943 Y53.445 Z0 F800
G1 X52.173 Y53.008 Z0 F800
G1 X52.558 Y52.988 Z0 F800
G1 X52.59 Y53.158 Z0 F800
G1 X52.715 Y53.97 Z0 F800
G1 X52.845 Y54.868 Z0 F800
G1 X52.904 Y55.128 Z0 F800
G1 X53.038 Y55.444 Z0 F800
G1 X53.279 Y55.82 Z0 F800
G1 X53.584 Y56.147 Z0 F800
G1 X53.933 Y56.411 Z0 F800
G0 Z3.5 F500
G0 X56.894 Y57.69 Z3.5 
G1 Z0 F500
G1 X50.75 Y57.477 Z0 F800
G1 X50.741 Y57.371 Z0 F800
G1 X50.746 Y56.264 Z0 F800
G1 X50.783 Y55.118 Z0 F800
G1 X50.796 Y53.95 Z0 F800
G1 X50.809 Y53.716 Z0 F800
G1 X50.859 Y53.692 Z0 F800
G1 X51.191 Y53.433 Z0 F800
G1 X51.459 Y53.118 Z0 F800
G1 X51.701 Y52.659 Z0 F800
G1 X51.772 Y52.458 Z0 F800
G1 X51.958 Y52.438 Z0 F800
G1 X52.585 Y52.405 Z0 F800
G1 X53.036 Y52.397 Z0 F800
G1 X53.162 Y53.061 Z0 F800
G1 X53.289 Y53.882 Z0 F800
G1 X53.415 Y54.762 Z0 F800
G1 X53.458 Y54.949 Z0 F800
G1 X53.553 Y55.172 Z0 F800
G1 X53.739 Y55.463 Z0 F800
G1 X53.974 Y55.715 Z0 F800
G1 X54.242 Y55.917 Z0 F800
G1 X54.556 Y56.078 Z0 F800
G1 X55.014 Y56.2 Z0 F800
G1 X55.4 Y56.226 Z0 F800
G1 X55.678 Y56.221 Z0 F800
G1 X55.887 Y56.212 Z0 F800
G1 X55.958 Z0 F800
G1 X55.982 Z0 F800
G1 X56.032 Y56.222 Z0 F800
G1 X56.148 Y56.229 Z0 F800
G1 X67.685 Y56.375 Z0 F800
G1 X79.133 Y56.486 Z0 F800
G1 X79.332 Y56.506 Z0 F800
G1 X79.627 Y56.491 Z0 F800
G1 X80.313 Y56.498 Z0 F800
G1 X80.321 Y56.319 Z0 F800
G1 X80.5 Y56.246 Z0 F800
G1 X80.75 Y56.093 Z0 F800
G1 X80.988 Y55.895 Z0 F800
G1 X81.216 Y55.62 Z0 F800
G1 X81.396 Y55.266 Z0 F800
G1 X81.445 Y55.057 Z0 F800
G1 X81.662 Y55.061 Z0 F800
G1 X81.65 Y55.13 Z0 F800
G1 X81.484 Y55.961 Z0 F800
G1 X81.284 Y56.751 Z0 F800
G1 X81.054 Y57.435 Z0 F800
G1 X80.983 Y57.555 Z0 F800
G1 X80.91 Y57.63 Z0 F800
G1 X80.792 Y57.706 Z0 F800
G1 X80.595 Y57.786 Z0 F800
G1 X80.326 Y57.855 Z0 F800
G1 X80 Y57.904 Z0 F800
G1 X79.647 Y57.93 Z0 F800
G1 X79.248 Y57.938 Z0 F800
G1 X77.596 Y57.962 Z0 F800
G1 X75.917 Z0 F800
G1 X69.569 Y57.912 Z0 F800
G1 X63.238 Y57.83 Z0 F800
G1 X56.894 Y57.69 Z0 F800
G0 Z3.5 F500
G0 X50.161 Y57.39 Z3.5 
G1 Z0 F500
G1 X50.166 Y56.262 Z0 F800
G1 X50.204 Y55.105 Z0 F800
G1 X50.217 Y53.921 Z0 F800
G1 X50.238 Y53.506 Z0 F800
G1 X50.232 Y53.339 Z0 F800
G1 X50.267 Y53.332 Z0 F800
G1 X50.552 Y53.196 Z0 F800
G1 X50.788 Y53.012 Z0 F800
G1 X50.976 Y52.791 Z0 F800
G1 X51.169 Y52.425 Z0 F800
G1 X51.277 Y52.122 Z0 F800
G1 X51.35 Y51.922 Z0 F800
G1 X51.903 Y51.86 Z0 F800
G1 X52.559 Y51.826 Z0 F800
G1 X53.254 Y51.813 Z0 F800
G1 X53.495 Z0 F800
G1 X53.582 Y52.165 Z0 F800
G1 X53.734 Y52.964 Z0 F800
G1 X53.861 Y53.787 Z0 F800
G1 X53.986 Y54.656 Z0 F800
G1 X54.012 Y54.77 Z0 F800
G1 X54.068 Y54.9 Z0 F800
G1 X54.2 Y55.106 Z0 F800
G1 X54.364 Y55.283 Z0 F800
G1 X54.551 Y55.424 Z0 F800
G1 X54.765 Y55.533 Z0 F800
G1 X55.109 Y55.625 Z0 F800
G1 X55.415 Y55.646 Z0 F800
G1 X55.66 Y55.641 Z0 F800
G1 X55.854 Y55.633 Z0 F800
G1 X55.985 Z0 F800
G1 X56.06 Y55.639 Z0 F800
G1 X56.097 Y55.645 Z0 F800
G1 X56.168 Y55.649 Z0 F800
G1 X67.691 Y55.794 Z0 F800
G1 X79.167 Y55.906 Z0 F800
G1 X79.347 Y55.924 Z0 F800
G1 X79.619 Y55.911 Z0 F800
G1 X79.759 Z0 F800
G1 Y55.884 Z0 F800
G1 X79.945 Y55.845 Z0 F800
G1 X80.238 Y55.726 Z0 F800
G1 X80.412 Y55.62 Z0 F800
G1 X80.575 Y55.483 Z0 F800
G1 X80.729 Y55.3 Z0 F800
G1 X80.847 Y55.065 Z0 F800
G1 X80.91 Y54.799 Z0 F800
G1 X80.906 Y54.532 Z0 F800
G1 X80.849 Y54.281 Z0 F800
G1 X80.8 Y54.17 Z0 F800
G1 X80.814 Y54.165 Z0 F800
G1 X80.995 Y54.325 Z0 F800
G1 X81.39 Y54.476 Z0 F800
G1 X81.778 Y54.482 Z0 F800
G1 X82 Y54.425 Z0 F800
G1 X82.187 Y54.342 Z0 F800
G1 X82.361 Y54.224 Z0 F800
G1 X82.396 Y54.188 Z0 F800
G1 X82.37 Y54.351 Z0 F800
G1 X82.223 Y55.225 Z0 F800
G1 X82.05 Y56.092 Z0 F800
G1 X81.841 Y56.913 Z0 F800
G1 X81.585 Y57.676 Z0 F800
G1 X81.447 Y57.911 Z0 F800
G1 X81.28 Y58.082 Z0 F800
G1 X81.058 Y58.224 Z0 F800
G1 X80.778 Y58.338 Z0 F800
G1 X80.444 Y58.424 Z0 F800
G1 X80.069 Y58.48 Z0 F800
G1 X79.673 Y58.509 Z0 F800
G1 X79.26 Y58.518 Z0 F800
G1 X77.587 Y58.542 Z0 F800
G1 X75.913 Z0 F800
G1 X69.568 Y58.492 Z0 F800
G1 X63.225 Y58.409 Z0 F800
G1 X56.88 Y58.27 Z0 F800
G1 X50.608 Y58.052 Z0 F800
G1 X50.478 Y58.024 Z0 F800
G1 X50.233 Y58.013 Z0 F800
G1 X50.21 Z0 F800
G1 X50.161 Y57.39 Z0 F800
G0 Z3.5 F500
G0 X79.581 Y40.715 Z3.5 
G1 Z0 F500
G1 X79.708 Z0 F800
G1 X79.767 Y40.72 Z0 F800
G1 X79.594 Y41.013 Z0 F800
G1 X79.539 Y41.116 Z0 F800
G1 X79.581 Y40.715 Z0 F800
G0 Z3.5 F500
G0 X79.716 Y40.137 Z3.5 
G1 Z0 F500
G1 X80.63 Y40.172 Z0 F800
G1 X80.774 Z0 F800
G1 X80.649 Y40.368 Z0 F800
G1 X80.1 Y41.297 Z0 F800
G1 X79.589 Y42.254 Z0 F800
G1 X79.122 Y43.238 Z0 F800
G1 X78.704 Y44.249 Z0 F800
G1 X78.587 Y44.583 Z0 F800
G1 X78.625 Y44.219 Z0 F800
G1 X79.061 Y40.125 Z0 F800
G1 X79.716 Y40.137 Z0 F800
G0 Z3.5 F500
G0 X81.142 Y40.673 Z3.5 
G1 Z0 F500
G1 X80.605 Y41.582 Z0 F800
G1 X80.107 Y42.515 Z0 F800
G1 X79.652 Y43.473 Z0 F800
G1 X79.246 Y44.456 Z0 F800
G1 X78.894 Y45.461 Z0 F800
G1 X78.6 Y46.488 Z0 F800
G1 X78.364 Y47.572 Z0 F800
G1 X78.354 Y47.798 Z0 F800
G1 X78.379 Y48.019 Z0 F800
G1 X78.447 Y48.242 Z0 F800
G1 X78.568 Y48.463 Z0 F800
G1 X78.747 Y48.664 Z0 F800
G1 X78.925 Y48.785 Z0 F800
G1 X77.959 Y48.707 Z0 F800
G1 X77.574 Y48.673 Z0 F800
G1 X78.048 Y44.16 Z0 F800
G1 X78.538 Y39.557 Z0 F800
G1 X78.881 Y39.542 Z0 F800
G1 X79.746 Y39.558 Z0 F800
G1 X80.645 Y39.593 Z0 F800
G1 X81.567 Y39.605 Z0 F800
G1 X81.83 Y39.612 Z0 F800
G1 X81.142 Y40.673 Z0 F800
G0 Z3.5 F500
G0 X73.982 Y52.018 Z3.5 
G1 Z0 F500
G1 X75.913 Y52.061 Z0 F800
G1 X77.828 Y52.136 Z0 F800
G1 X79.6 Y52.25 Z0 F800
G1 X79.679 Y52.292 Z0 F800
G1 X79.814 Y52.4 Z0 F800
G1 X79.942 Y52.54 Z0 F800
G1 X80.064 Y52.71 Z0 F800
G1 X80.297 Y53.159 Z0 F800
G1 X80.435 Y53.528 Z0 F800
G1 X80.155 Y53.111 Z0 F800
G1 X79.868 Y52.83 Z0 F800
G1 X79.518 Y52.614 Z0 F800
G1 X79.289 Y52.529 Z0 F800
G1 Y52.506 Z0 F800
G1 X79.154 Y52.5 Z0 F800
G1 X79.051 Y52.479 Z0 F800
G1 X78.8 Y52.466 Z0 F800
G1 X78.674 Y52.48 Z0 F800
G1 X77.159 Y52.415 Z0 F800
G1 X75.577 Y52.39 Z0 F800
G1 X72.895 Z0 F800
G1 X72.812 Y52.056 Z0 F800
G1 X72.8 Y52.001 Z0 F800
G1 X73.982 Y52.018 Z0 F800
G0 Z3.5 F500
G0 X82.764 Y52.148 Z3.5 
G1 Z0 F500
G1 X82.737 Y51.848 Z0 F800
G1 X82.638 Y51.316 Z0 F800
G1 X82.46 Y50.781 Z0 F800
G1 X82.252 Y50.393 Z0 F800
G1 X82.417 Y50.405 Z0 F800
G1 X82.593 Y50.366 Z0 F800
G1 X82.786 Y50.312 Z0 F800
G1 X83.14 Y50.054 Z0 F800
G1 X83.391 Y49.794 Z0 F800
G1 X83.588 Y49.529 Z0 F800
G1 X83.66 Y49.414 Z0 F800
G1 X83.147 Y50.662 Z0 F800
G1 X82.881 Y51.61 Z0 F800
G1 X82.764 Y52.148 Z0 F800
G0 Z3.5 F500
G0 X83.606 Y41.222 Z3.5 
G1 Z0 F500
G1 X83.769 Y40.868 Z0 F800
G1 X83.803 Y40.798 Z0 F800
G1 X83.806 Y40.786 Z0 F800
G1 X83.973 Y40.421 Z0 F800
G1 X83.871 Y40.369 Z0 F800
G1 Y40.299 Z0 F800
G1 X83.824 Y40.051 Z0 F800
G1 X83.725 Y39.832 Z0 F800
G1 X83.608 Y39.669 Z0 F800
G1 X84.575 Y39.711 Z0 F800
G1 X85.035 Y39.725 Z0 F800
G1 X85.021 Y39.742 Z0 F800
G1 X84.177 Y40.576 Z0 F800
G1 X83.606 Y41.222 Z0 F800
G0 Z3.5 F500
G0 X82.799 Y47.143 Z3.5 
G1 Z0 F500
G1 X82.293 Y48.126 Z0 F800
G1 X81.826 Y49.125 Z0 F800
G1 X81.813 Y49.16 Z0 F800
G1 X81.806 Y49.195 Z0 F800
G1 Y49.321 Z0 F800
G1 X81.832 Y49.437 Z0 F800
G1 X81.881 Y49.542 Z0 F800
G1 X81.949 Y49.633 Z0 F800
G1 X82.033 Y49.711 Z0 F800
G1 X82.134 Y49.772 Z0 F800
G1 X82.249 Y49.811 Z0 F800
G1 X82.376 Y49.82 Z0 F800
G1 X82.451 Y49.804 Z0 F800
G1 X82.528 Y49.782 Z0 F800
G1 X82.758 Y49.614 Z0 F800
G1 X82.948 Y49.417 Z0 F800
G1 X83.108 Y49.203 Z0 F800
G1 X83.246 Y48.981 Z0 F800
G1 X83.49 Y48.551 Z0 F800
G1 X83.733 Y48.185 Z0 F800
G1 X83.744 Y48.171 Z0 F800
G1 X84.707 Y46.654 Z0 F800
G1 X85.697 Y45.179 Z0 F800
G1 X86.707 Y43.712 Z0 F800
G1 X87.72 Y42.238 Z0 F800
G1 X87.739 Y42.204 Z0 F800
G1 X87.753 Y42.166 Z0 F800
G1 X87.777 Y42.04 Z0 F800
G1 Y41.915 Z0 F800
G1 X87.748 Y41.795 Z0 F800
G1 X87.694 Y41.689 Z0 F800
G1 X87.618 Y41.602 Z0 F800
G1 X87.529 Y41.538 Z0 F800
G1 X87.432 Y41.493 Z0 F800
G1 X87.331 Y41.468 Z0 F800
G1 X87.127 Y41.464 Z0 F800
G1 X86.928 Y41.52 Z0 F800
G1 X86.752 Y41.638 Z0 F800
G1 X86.618 Y41.82 Z0 F800
G1 X86.662 Y41.757 Z0 F800
G1 X85.917 Y42.578 Z0 F800
G1 X85.213 Y43.434 Z0 F800
G1 X84.55 Y44.321 Z0 F800
G1 X83.927 Y45.237 Z0 F800
G1 X83.343 Y46.179 Z0 F800
G1 X82.799 Y47.143 Z0 F800
G0 Z3.5 F500
G0 X81.464 Y48.577 Z3.5 
G1 Z0 F500
G1 X81.574 Y48.375 Z0 F800
G1 X81.753 Y47.992 Z0 F800
G1 X81.921 Y47.689 Z0 F800
G1 X81.933 Y47.671 Z0 F800
G1 X82.42 Y46.746 Z0 F800
G1 X82.928 Y45.857 Z0 F800
G1 X83.463 Y44.984 Z0 F800
G1 X84.022 Y44.125 Z0 F800
G1 X85.194 Y42.437 Z0 F800
G1 X86.41 Y40.776 Z0 F800
G1 X86.428 Y40.749 Z0 F800
G1 X86.481 Y40.626 Z0 F800
G1 X86.507 Y40.499 Z0 F800
G1 Y40.372 Z0 F800
G1 X86.474 Y40.253 Z0 F800
G1 X86.416 Y40.149 Z0 F800
G1 X86.339 Y40.065 Z0 F800
G1 X86.25 Y40.001 Z0 F800
G1 X86.152 Y39.955 Z0 F800
G1 X85.942 Y39.914 Z0 F800
G1 X85.725 Y39.943 Z0 F800
G1 X85.524 Y40.046 Z0 F800
G1 X85.367 Y40.229 Z0 F800
G1 X85.415 Y40.167 Z0 F800
G1 X84.599 Y40.975 Z0 F800
G1 X83.841 Y41.833 Z0 F800
G1 X83.139 Y42.737 Z0 F800
G1 X82.491 Y43.682 Z0 F800
G1 X81.897 Y44.662 Z0 F800
G1 X81.356 Y45.671 Z0 F800
G1 X80.867 Y46.705 Z0 F800
G1 X80.428 Y47.756 Z0 F800
G1 X80.332 Y48.044 Z0 F800
G1 X80.283 Y48.221 Z0 F800
G1 X80.251 Y48.414 Z0 F800
G1 X80.247 Y48.517 Z0 F800
G1 X80.256 Y48.625 Z0 F800
G1 X80.286 Y48.735 Z0 F800
G1 X80.342 Y48.843 Z0 F800
G1 X80.427 Y48.938 Z0 F800
G1 X80.536 Y49.011 Z0 F800
G1 X80.662 Y49.062 Z0 F800
G1 X80.799 Y49.087 Z0 F800
G1 X80.859 Z0 F800
G1 X80.918 Y49.07 Z0 F800
G1 X81.146 Y48.941 Z0 F800
G1 X81.325 Y48.771 Z0 F800
G1 X81.464 Y48.577 Z0 F800
G0 Z3.5 F500
G0 X82.525 Y42.192 Z3.5 
G1 Z0 F500
G1 X83.214 Y40.685 Z0 F800
G1 X83.197 Y40.715 Z0 F800
G1 X83.256 Y40.597 Z0 F800
G1 X83.287 Y40.472 Z0 F800
G1 X83.291 Y40.347 Z0 F800
G1 X83.268 Y40.229 Z0 F800
G1 X83.22 Y40.123 Z0 F800
G1 X83.155 Y40.033 Z0 F800
G1 X83.076 Y39.958 Z0 F800
G1 X82.987 Y39.898 Z0 F800
G1 X82.889 Y39.855 Z0 F800
G1 X82.784 Y39.829 Z0 F800
G1 X82.673 Y39.821 Z0 F800
G1 X82.56 Y39.836 Z0 F800
G1 X82.448 Y39.877 Z0 F800
G1 X82.343 Y39.943 Z0 F800
G1 X82.251 Y40.033 Z0 F800
G1 X82.179 Y40.144 Z0 F800
G1 X82.193 Y40.118 Z0 F800
G1 X81.635 Y40.979 Z0 F800
G1 X81.111 Y41.866 Z0 F800
G1 X80.625 Y42.776 Z0 F800
G1 X80.182 Y43.708 Z0 F800
G1 X79.788 Y44.663 Z0 F800
G1 X79.447 Y45.637 Z0 F800
G1 X79.163 Y46.63 Z0 F800
G1 X78.941 Y47.648 Z0 F800
G1 X78.935 Y47.778 Z0 F800
G1 X78.949 Y47.899 Z0 F800
G1 X78.985 Y48.017 Z0 F800
G1 X79.045 Y48.127 Z0 F800
G1 X79.132 Y48.224 Z0 F800
G1 X79.244 Y48.3 Z0 F800
G1 X79.373 Y48.35 Z0 F800
G1 X79.513 Y48.368 Z0 F800
G1 X79.604 Y48.35 Z0 F800
G1 X79.705 Y48.322 Z0 F800
G1 X79.903 Y48.15 Z0 F800
G1 X80.052 Y47.95 Z0 F800
G1 X80.162 Y47.734 Z0 F800
G1 X80.247 Y47.516 Z0 F800
G1 X80.383 Y47.105 Z0 F800
G1 X80.528 Y46.771 Z0 F800
G1 X80.537 Y46.753 Z0 F800
G1 X81.178 Y45.215 Z0 F800
G1 X81.842 Y43.702 Z0 F800
G1 X82.525 Y42.192 Z0 F800
G0 Z3.5 F500
G0 X84.597 Y39.131 Z3.5 
G1 Z0 F500
G1 X86.118 Y39.178 Z0 F800
G1 X87.645 Y39.164 Z0 F800
G1 X87.687 Y39.158 Z0 F800
G1 X87.728 Y39.146 Z0 F800
G1 X87.854 Y39.081 Z0 F800
G1 X87.961 Y38.995 Z0 F800
G1 X88.046 Y38.893 Z0 F800
G1 X88.104 Y38.778 Z0 F800
G1 X88.132 Y38.657 Z0 F800
G1 X88.136 Y38.538 Z0 F800
G1 X88.118 Y38.422 Z0 F800
G1 X88.083 Y38.313 Z0 F800
G1 X87.968 Y38.116 Z0 F800
G1 X87.803 Y37.955 Z0 F800
G1 X87.594 Y37.847 Z0 F800
G1 X87.348 Y37.811 Z0 F800
G1 X87.372 Z0 F800
G1 X83.577 Y37.546 Z0 F800
G1 X79.779 Y37.309 Z0 F800
G1 X75.981 Y37.089 Z0 F800
G1 X72.184 Y36.875 Z0 F800
G1 X72.113 Y36.881 Z0 F800
G1 X72.046 Y36.906 Z0 F800
G1 X71.916 Y36.995 Z0 F800
G1 X71.807 Y37.1 Z0 F800
G1 X71.721 Y37.216 Z0 F800
G1 X71.659 Y37.341 Z0 F800
G1 X71.596 Y37.596 Z0 F800
G1 X71.585 Y37.845 Z0 F800
G1 X71.596 Y38.082 Z0 F800
G1 X71.613 Y38.303 Z0 F800
G1 X71.622 Y38.496 Z0 F800
G1 X71.61 Y38.651 Z0 F800
G1 X71.593 Y38.941 Z0 F800
G1 X71.604 Y39.148 Z0 F800
G1 X71.568 Y39.144 Z0 F800
G1 X71.532 Z0 F800
G1 X71.374 Y39.158 Z0 F800
G1 X71.244 Z0 F800
G1 X71.155 Y39.148 Z0 F800
G1 X71.115 Y39.139 Z0 F800
G1 Y39.142 Z0 F800
G1 X71.118 Y39.052 Z0 F800
G1 X71.168 Y38.864 Z0 F800
G1 X71.173 Y38.827 Z0 F800
G1 X71.212 Y37.757 Z0 F800
G1 X71.228 Y36.69 Z0 F800
G1 X71.231 Y35.624 Z0 F800
G1 Y34.56 Z0 F800
G1 X72.699 Z0 F800
G1 X74.174 Y34.565 Z0 F800
G1 X75.653 Y34.546 Z0 F800
G1 X77.135 Y34.471 Z0 F800
G1 X77.187 Y34.462 Z0 F800
G1 X77.235 Y34.442 Z0 F800
G1 X77.363 Y34.357 Z0 F800
G1 X77.468 Y34.252 Z0 F800
G1 X77.544 Y34.132 Z0 F800
G1 X77.586 Y34 Z0 F800
G1 X77.595 Y33.87 Z0 F800
G1 X77.577 Y33.747 Z0 F800
G1 X77.541 Y33.633 Z0 F800
G1 X77.493 Y33.529 Z0 F800
G1 X77.376 Y33.338 Z0 F800
G1 X77.25 Y33.168 Z0 F800
G1 X77.132 Y33.026 Z0 F800
G1 X77.044 Y32.917 Z0 F800
G1 X76.562 Y32.285 Z0 F800
G1 X76.071 Y31.673 Z0 F800
G1 X75.595 Y31.066 Z0 F800
G1 X75.158 Y30.447 Z0 F800
G1 X76.4 Y30.514 Z0 F800
G1 X77.641 Y30.586 Z0 F800
G1 X78.879 Y30.672 Z0 F800
G1 X80.115 Y30.78 Z0 F800
G1 X80.184 Y30.777 Z0 F800
G1 X80.249 Y30.756 Z0 F800
G1 X80.511 Y30.608 Z0 F800
G1 X80.745 Y30.433 Z0 F800
G1 X80.957 Y30.237 Z0 F800
G1 X81.152 Y30.031 Z0 F800
G1 X81.513 Y29.618 Z0 F800
G1 X81.868 Y29.258 Z0 F800
G1 X82.124 Y29.022 Z0 F800
G1 X82.354 Y28.793 Z0 F800
G1 X82.566 Y28.599 Z0 F800
G1 X82.769 Y28.467 Z0 F800
G1 X86.987 Y29.673 Z0 F800
G1 X91.216 Y30.833 Z0 F800
G1 X91.258 Y30.841 Z0 F800
G1 X91.326 Y30.857 Z0 F800
G1 X91.374 Y30.895 Z0 F800
G1 X91.43 Y30.97 Z0 F800
G1 X91.497 Y31.083 Z0 F800
G1 X91.575 Y31.228 Z0 F800
G1 X91.682 Y31.387 Z0 F800
G1 X91.831 Y31.535 Z0 F800
G1 X92.036 Y31.645 Z0 F800
G1 X92.561 Y31.818 Z0 F800
G1 X93.083 Y31.91 Z0 F800
G1 X93.592 Y31.964 Z0 F800
G1 X94.078 Y32.025 Z0 F800
G1 X94.011 Y32.545 Z0 F800
G1 X94.025 Y33.066 Z0 F800
G1 X94.068 Y33.324 Z0 F800
G1 X94.139 Y33.576 Z0 F800
G1 X94.238 Y33.822 Z0 F800
G1 X94.368 Y34.061 Z0 F800
G1 X94.349 Y34.439 Z0 F800
G1 X94.296 Y34.831 Z0 F800
G1 X94.223 Y35.231 Z0 F800
G1 X94.14 Y35.639 Z0 F800
G1 X93.751 Y35.616 Z0 F800
G1 X93.396 Y35.574 Z0 F800
G1 X93.196 Y35.524 Z0 F800
G1 X93.024 Y35.448 Z0 F800
G1 X92.877 Y35.337 Z0 F800
G1 X92.751 Y35.179 Z0 F800
G1 X92.727 Y35.146 Z0 F800
G1 X92.483 Y34.939 Z0 F800
G1 X92.195 Y34.806 Z0 F800
G1 X91.882 Y34.744 Z0 F800
G1 X91.563 Y34.75 Z0 F800
G1 X91.407 Y34.78 Z0 F800
G1 X91.255 Y34.829 Z0 F800
G1 X91.111 Y34.901 Z0 F800
G1 X90.979 Y34.996 Z0 F800
G1 X90.863 Y35.118 Z0 F800
G1 X90.771 Y35.263 Z0 F800
G1 X90.706 Y35.43 Z0 F800
G1 X90.674 Y35.613 Z0 F800
G1 X90.682 Y35.564 Z0 F800
G1 X90.459 Y36.562 Z0 F800
G1 X90.273 Y37.54 Z0 F800
G1 X90.159 Y38.009 Z0 F800
G1 X90.011 Y38.457 Z0 F800
G1 X89.816 Y38.88 Z0 F800
G1 X89.55 Y39.286 Z0 F800
G1 X87.941 Y42.108 Z0 F800
G1 X86.405 Y44.958 Z0 F800
G1 X85.674 Y46.402 Z0 F800
G1 X84.976 Y47.864 Z0 F800
G1 X84.315 Y49.344 Z0 F800
G1 X83.696 Y50.852 Z0 F800
G1 X83.444 Y51.75 Z0 F800
G1 X83.249 Y52.648 Z0 F800
G1 X83.088 Y53.549 Z0 F800
G1 X82.942 Y54.447 Z0 F800
G1 X82.792 Y55.338 Z0 F800
G1 X82.616 Y56.217 Z0 F800
G1 X82.397 Y57.079 Z0 F800
G1 X82.115 Y57.918 Z0 F800
G1 X81.911 Y58.266 Z0 F800
G1 X81.646 Y58.536 Z0 F800
G1 X81.327 Y58.74 Z0 F800
G1 X80.961 Y58.89 Z0 F800
G1 X80.557 Y58.994 Z0 F800
G1 X80.132 Y59.057 Z0 F800
G1 X79.7 Y59.089 Z0 F800
G1 X79.273 Y59.098 Z0 F800
G1 X77.595 Y59.123 Z0 F800
G1 X75.908 Z0 F800
G1 X69.56 Y59.072 Z0 F800
G1 X63.212 Y58.989 Z0 F800
G1 X56.867 Y58.85 Z0 F800
G1 X50.539 Y58.63 Z0 F800
G1 X50.404 Y58.602 Z0 F800
G1 X50.228 Y58.593 Z0 F800
G1 X49.92 Y58.602 Z0 F800
G1 X49.8 Y58.593 Z0 F800
G1 X49.716 Y58.574 Z0 F800
G1 X49.687 Y58.555 Z0 F800
G1 X49.669 Y58.534 Z0 F800
G1 X49.581 Y57.409 Z0 F800
G1 X49.585 Y56.26 Z0 F800
G1 X49.624 Y55.093 Z0 F800
G1 X49.637 Y53.915 Z0 F800
G1 X49.658 Y53.501 Z0 F800
G1 X49.643 Y53.055 Z0 F800
G1 X49.621 Y52.987 Z0 F800
G1 X49.574 Y52.89 Z0 F800
G1 X49.508 Y52.774 Z0 F800
G1 X49.434 Y52.65 Z0 F800
G1 X49.286 Y52.41 Z0 F800
G1 X49.193 Y52.245 Z0 F800
G1 X49.474 Y52.527 Z0 F800
G1 X49.765 Y52.798 Z0 F800
G1 X49.826 Y52.816 Z0 F800
G1 X49.889 Y52.819 Z0 F800
G1 X50.08 Y52.778 Z0 F800
G1 X50.246 Y52.699 Z0 F800
G1 X50.385 Y52.591 Z0 F800
G1 X50.493 Y52.464 Z0 F800
G1 X50.636 Y52.191 Z0 F800
G1 X50.732 Y51.922 Z0 F800
G1 X50.819 Y51.685 Z0 F800
G1 X50.911 Y51.507 Z0 F800
G1 X50.959 Y51.447 Z0 F800
G1 X51.01 Y51.404 Z0 F800
G1 X51.075 Y51.375 Z0 F800
G1 X51.169 Y51.359 Z0 F800
G1 X51.857 Y51.282 Z0 F800
G1 X52.547 Y51.246 Z0 F800
G1 X53.244 Y51.233 Z0 F800
G1 X53.948 Y51.227 Z0 F800
G1 X54.149 Y52.041 Z0 F800
G1 X54.306 Y52.868 Z0 F800
G1 X54.435 Y53.705 Z0 F800
G1 X54.557 Y54.549 Z0 F800
G1 X54.566 Y54.59 Z0 F800
G1 X54.583 Y54.629 Z0 F800
G1 X54.66 Y54.75 Z0 F800
G1 X54.754 Y54.851 Z0 F800
G1 X54.86 Y54.931 Z0 F800
G1 X54.974 Y54.989 Z0 F800
G1 X55.204 Y55.05 Z0 F800
G1 X55.429 Y55.065 Z0 F800
G1 X55.643 Y55.062 Z0 F800
G1 X55.839 Y55.053 Z0 F800
G1 X56.008 Z0 F800
G1 X56.136 Y55.063 Z0 F800
G1 X56.162 Y55.068 Z0 F800
G1 X56.188 Z0 F800
G1 X67.698 Y55.214 Z0 F800
G1 X79.198 Y55.327 Z0 F800
G1 X79.361 Y55.343 Z0 F800
G1 X79.566 Y55.333 Z0 F800
G1 X79.774 Y55.289 Z0 F800
G1 X79.976 Y55.207 Z0 F800
G1 X80.073 Y55.147 Z0 F800
G1 X80.163 Y55.072 Z0 F800
G1 X80.241 Y54.979 Z0 F800
G1 X80.298 Y54.865 Z0 F800
G1 X80.329 Y54.736 Z0 F800
G1 Y54.601 Z0 F800
G1 X80.295 Y54.463 Z0 F800
G1 X80.233 Y54.321 Z0 F800
G1 X79.999 Y53.918 Z0 F800
G1 X79.706 Y53.483 Z0 F800
G1 X79.508 Y53.289 Z0 F800
G1 X79.263 Y53.138 Z0 F800
G1 X79.125 Y53.087 Z0 F800
G1 X78.976 Y53.056 Z0 F800
G1 X78.817 Y53.047 Z0 F800
G1 X78.693 Y53.061 Z0 F800
G1 X77.142 Y52.994 Z0 F800
G1 X75.572 Y52.97 Z0 F800
G1 X72.442 Y52.967 Z0 F800
G1 X72.248 Y52.188 Z0 F800
G1 X72.066 Y51.412 Z0 F800
G1 X73.995 Y51.438 Z0 F800
G1 X75.926 Y51.481 Z0 F800
G1 X77.851 Y51.557 Z0 F800
G1 X79.764 Y51.679 Z0 F800
G1 X80.001 Y51.807 Z0 F800
G1 X80.21 Y51.974 Z0 F800
G1 X80.396 Y52.176 Z0 F800
G1 X80.559 Y52.405 Z0 F800
G1 X80.827 Y52.922 Z0 F800
G1 X81.036 Y53.479 Z0 F800
G1 X81.03 Y53.461 Z0 F800
G1 X81.133 Y53.673 Z0 F800
G1 X81.3 Y53.82 Z0 F800
G1 X81.501 Y53.897 Z0 F800
G1 X81.709 Y53.901 Z0 F800
G1 X81.809 Y53.875 Z0 F800
G1 X81.903 Y53.833 Z0 F800
G1 X81.991 Y53.774 Z0 F800
G1 X82.068 Y53.697 Z0 F800
G1 X82.131 Y53.604 Z0 F800
G1 X82.174 Y53.495 Z0 F800
G1 X82.197 Y53.377 Z0 F800
G1 Y53.253 Z0 F800
G1 Y53.294 Z0 F800
G1 X82.21 Y52.854 Z0 F800
G1 X82.203 Y52.395 Z0 F800
G1 X82.162 Y51.927 Z0 F800
G1 X82.075 Y51.462 Z0 F800
G1 X81.925 Y51.011 Z0 F800
G1 X81.7 Y50.589 Z0 F800
G1 X81.555 Y50.396 Z0 F800
G1 X81.387 Y50.217 Z0 F800
G1 X81.194 Y50.055 Z0 F800
G1 X80.969 Y49.908 Z0 F800
G1 X80.468 Y49.694 Z0 F800
G1 X79.962 Y49.542 Z0 F800
G1 X79.448 Y49.437 Z0 F800
G1 X78.933 Y49.367 Z0 F800
G1 X77.912 Y49.285 Z0 F800
G1 X76.936 Y49.2 Z0 F800
G1 X77.471 Y44.098 Z0 F800
G1 X78.014 Y39 Z0 F800
G1 X78.873 Y38.961 Z0 F800
G1 X79.757 Y38.978 Z0 F800
G1 X80.66 Y39.013 Z0 F800
G1 X81.575 Y39.025 Z0 F800
G1 X83.082 Y39.066 Z0 F800
G1 X84.597 Y39.131 Z0 F800
G0 Z3.5 F500
G0 X74.991 Y39.513 Z3.5 
G1 Z0 F500
G1 X75.171 Y39.529 Z0 F800
G1 X74.681 Y44.035 Z0 F800
G1 X74.45 Y45.968 Z0 F800
G1 X74.554 Y43.596 Z0 F800
G1 X74.741 Y39.5 Z0 F800
G1 X74.991 Y39.513 Z0 F800
G0 Z3.5 F500
G0 X75.812 Y39.002 Z3.5 
G1 Z0 F500
G1 X75.258 Y44.098 Z0 F800
G1 X74.648 Y49.186 Z0 F800
G1 X74.526 Y49.176 Z0 F800
G1 X74.404 Z0 F800
G1 X74.169 Y49.198 Z0 F800
G1 X73.957 Y49.215 Z0 F800
G1 X73.798 Y49.207 Z0 F800
G1 X73.724 Y49.187 Z0 F800
G1 Y49.178 Z0 F800
G1 X73.72 Y49.138 Z0 F800
G1 X73.738 Y49.021 Z0 F800
G1 X73.769 Y48.248 Z0 F800
G1 X73.974 Y43.569 Z0 F800
G1 X74.188 Y38.891 Z0 F800
G1 X75.029 Y38.935 Z0 F800
G1 X75.812 Y39.002 Z0 F800
G0 Z3.5 F500
G0 X68.071 Y28.988 Z3.5 
G1 Z0 F500
G1 X67.714 Z0 F800
G1 X66.882 Y28.982 Z0 F800
G1 X66.909 Y27.913 Z0 F800
G1 X66.916 Y27.412 Z0 F800
G1 X68.071 Y28.988 Z0 F800
G0 Z3.5 F500
G0 X69.205 Y29.57 Z3.5 
G1 Z0 F500
G1 X67.71 Z0 F800
G1 X66.287 Y29.559 Z0 F800
G1 X66.329 Y27.902 Z0 F800
G1 X66.35 Y26.268 Z0 F800
G1 X66.363 Y25.712 Z0 F800
G1 X66.933 Y26.456 Z0 F800
G1 X68.562 Y28.677 Z0 F800
G1 X69.205 Y29.57 Z0 F800
G0 Z3.5 F500
G0 X70.337 Y30.151 Z3.5 
G1 Z0 F500
G1 X67.698 Y30.147 Z0 F800
G1 X65.695 Y30.135 Z0 F800
G1 X65.688 Y29.905 Z0 F800
G1 X65.698 Y29.703 Z0 F800
G1 X65.704 Y29.661 Z0 F800
G1 X65.749 Y27.891 Z0 F800
G1 X65.771 Y26.254 Z0 F800
G1 X65.808 Y24.64 Z0 F800
G1 X65.839 Y24.075 Z0 F800
G1 X67.386 Y26.093 Z0 F800
G1 X69.033 Y28.338 Z0 F800
G1 X70.337 Y30.151 Z0 F800
G0 Z3.5 F500
G0 X71.472 Y30.732 Z3.5 
G1 Z0 F500
G1 X67.703 Y30.728 Z0 F800
G1 X65.1 Y30.711 Z0 F800
G1 X65.108 Y30.656 Z0 F800
G1 X65.12 Y30.314 Z0 F800
G1 X65.107 Y29.897 Z0 F800
G1 X65.121 Y29.652 Z0 F800
G1 X65.125 Y29.615 Z0 F800
G1 X65.169 Y27.879 Z0 F800
G1 X65.19 Y26.241 Z0 F800
G1 X65.228 Y24.624 Z0 F800
G1 X65.293 Y23.454 Z0 F800
G1 X65.438 Y23.441 Z0 F800
G1 X65.671 Y23.437 Z0 F800
G1 X65.894 Y23.44 Z0 F800
G1 X66.096 Y23.453 Z0 F800
G1 X66.107 Y23.472 Z0 F800
G1 X67.846 Y25.739 Z0 F800
G1 X69.503 Y27.999 Z0 F800
G1 X71.15 Y30.289 Z0 F800
G1 X71.472 Y30.732 Z0 F800
G0 Z3.5 F500
G0 X72.608 Y31.314 Z3.5 
G1 Z0 F500
G1 X67.7 Y31.308 Z0 F800
G1 X64.339 Y31.286 Z0 F800
G1 X64.344 Y31.279 Z0 F800
G1 X64.476 Y30.927 Z0 F800
G1 X64.53 Y30.599 Z0 F800
G1 X64.54 Y30.313 Z0 F800
G1 X64.527 Y29.896 Z0 F800
G1 X64.542 Y29.596 Z0 F800
G1 X64.546 Y29.569 Z0 F800
G1 X64.589 Y27.869 Z0 F800
G1 X64.611 Y26.228 Z0 F800
G1 X64.649 Y24.591 Z0 F800
G1 X64.733 Y23.077 Z0 F800
G1 X64.753 Y23.027 Z0 F800
G1 X64.772 Y23.005 Z0 F800
G1 X64.83 Y22.969 Z0 F800
G1 X64.966 Y22.921 Z0 F800
G1 X65.167 Y22.882 Z0 F800
G1 X65.399 Y22.862 Z0 F800
G1 X65.669 Y22.857 Z0 F800
G1 X65.918 Y22.861 Z0 F800
G1 X66.202 Y22.879 Z0 F800
G1 X66.394 Y22.93 Z0 F800
G1 X66.432 Y22.949 Z0 F800
G1 X66.47 Y22.977 Z0 F800
G1 X66.5 Y23.009 Z0 F800
G1 X66.583 Y23.139 Z0 F800
G1 X68.321 Y25.406 Z0 F800
G1 X69.975 Y27.661 Z0 F800
G1 X71.621 Y29.949 Z0 F800
G1 X72.608 Y31.314 Z0 F800
G0 Z3.5 F500
G0 X73.745 Y31.896 Z3.5 
G1 Z0 F500
G1 X67.696 Y31.888 Z0 F800
G1 X61.644 Y31.849 Z0 F800
G1 X61.603 Y31.853 Z0 F800
G1 X61.448 Y31.892 Z0 F800
G1 X61.413 Z0 F800
G1 X61.409 Y31.888 Z0 F800
G1 X61.394 Y31.849 Z0 F800
G1 X61.386 Y31.675 Z0 F800
G1 X61.401 Y31.426 Z0 F800
G1 X61.921 Y31.434 Z0 F800
G1 X62.466 Y31.448 Z0 F800
G1 X62.745 Y31.44 Z0 F800
G1 X63.025 Y31.413 Z0 F800
G1 X63.307 Y31.361 Z0 F800
G1 X63.589 Y31.276 Z0 F800
G1 X63.637 Y31.252 Z0 F800
G1 X63.677 Y31.217 Z0 F800
G1 X63.827 Y31.005 Z0 F800
G1 X63.913 Y30.776 Z0 F800
G1 X63.952 Y30.542 Z0 F800
G1 X63.959 Y30.313 Z0 F800
G1 X63.946 Y29.889 Z0 F800
G1 X63.965 Y29.541 Z0 F800
G1 Y29.522 Z0 F800
G1 X64.009 Y27.857 Z0 F800
G1 X64.031 Y26.214 Z0 F800
G1 X64.069 Y24.577 Z0 F800
G1 X64.16 Y22.95 Z0 F800
G1 X64.25 Y22.724 Z0 F800
G1 X64.39 Y22.559 Z0 F800
G1 X64.579 Y22.442 Z0 F800
G1 X64.813 Y22.36 Z0 F800
G1 X65.085 Y22.308 Z0 F800
G1 X65.375 Y22.283 Z0 F800
G1 X65.667 Y22.277 Z0 F800
G1 X65.943 Y22.281 Z0 F800
G1 X66.293 Y22.303 Z0 F800
G1 X66.599 Y22.384 Z0 F800
G1 X66.735 Y22.452 Z0 F800
G1 X66.856 Y22.541 Z0 F800
G1 X66.961 Y22.652 Z0 F800
G1 X67.059 Y22.806 Z0 F800
G1 X68.781 Y25.053 Z0 F800
G1 X70.445 Y27.322 Z0 F800
G1 X72.091 Y29.61 Z0 F800
G1 X73.745 Y31.896 Z0 F800
G0 Z3.5 F500
G0 X80.496 Y27.605 Z3.5 
G1 Z0 F500
G1 X80.464 Y27.597 Z0 F800
G1 X80.561 Y27.622 Z0 F800
G1 X80.654 Y27.642 Z0 F800
G1 X80.377 Y27.937 Z0 F800
G1 X80.098 Y28.212 Z0 F800
G1 X79.815 Y28.462 Z0 F800
G1 X79.526 Y28.678 Z0 F800
G1 X78.995 Y28.634 Z0 F800
G1 X79.034 Z0 F800
G1 X79.072 Y28.631 Z0 F800
G1 X79.392 Y28.479 Z0 F800
G1 X79.639 Y28.277 Z0 F800
G1 X79.836 Y28.061 Z0 F800
G1 X80.004 Y27.866 Z0 F800
G1 X80.155 Y27.72 Z0 F800
G1 X80.28 Y27.631 Z0 F800
G1 X80.377 Y27.596 Z0 F800
G1 X80.496 Y27.605 Z0 F800
G0 Z3.5 F500
G0 X73.41 Y25.4 Z3.5 
G1 Z0 F500
G1 X73.678 Y25.551 Z0 F800
G1 X73.645 Y25.61 Z0 F800
G1 X73.478 Y25.923 Z0 F800
G1 X73.436 Y26.068 Z0 F800
G1 X73.189 Y25.702 Z0 F800
G1 X72.885 Y25.261 Z0 F800
G1 X73.038 Y25.151 Z0 F800
G1 X73.41 Y25.4 Z0 F800
G0 Z3.5 F500
G0 X74.153 Y25.889 Z3.5 
G1 Z0 F500
G1 X74.018 Y26.142 Z0 F800
G1 X73.924 Y26.47 Z0 F800
G1 X73.906 Y26.82 Z0 F800
G1 X73.98 Y27.178 Z0 F800
G1 X74.167 Y27.529 Z0 F800
G1 X74.295 Y27.664 Z0 F800
G1 X73.857 Y27.626 Z0 F800
G1 X73.79 Y27.551 Z0 F800
G1 X73.569 Y27.245 Z0 F800
G1 X73.312 Y26.875 Z0 F800
G1 X73.045 Y26.525 Z0 F800
G1 X72.71 Y26.029 Z0 F800
G1 X72.362 Y25.524 Z0 F800
G1 X72.066 Y25.077 Z0 F800
G1 X72.154 Y25.028 Z0 F800
G1 X72.457 Y24.855 Z0 F800
G1 X72.792 Y24.612 Z0 F800
G1 X73.002 Y24.398 Z0 F800
G1 X73.273 Y24.611 Z0 F800
G1 X73.713 Y24.906 Z0 F800
G1 X74.177 Y25.166 Z0 F800
G1 X74.545 Y25.334 Z0 F800
G1 X74.36 Y25.521 Z0 F800
G1 X74.153 Y25.889 Z0 F800
G0 Z3.5 F500
G0 X73.099 Y27.583 Z3.5 
G1 Z0 F500
G1 X72.843 Y27.216 Z0 F800
G1 X72.573 Y26.863 Z0 F800
G1 X72.231 Y26.356 Z0 F800
G1 X71.885 Y25.854 Z0 F800
G1 X71.56 Y25.361 Z0 F800
G1 X71.272 Y24.869 Z0 F800
G1 X71.548 Y24.702 Z0 F800
G1 X71.869 Y24.523 Z0 F800
G1 X72.142 Y24.367 Z0 F800
G1 X72.412 Y24.171 Z0 F800
G1 X72.656 Y23.922 Z0 F800
G1 X72.854 Y23.606 Z0 F800
G1 X72.865 Y23.579 Z0 F800
G1 X72.874 Y23.551 Z0 F800
G1 Y23.515 Z0 F800
G1 X73.233 Y23.842 Z0 F800
G1 X73.615 Y24.142 Z0 F800
G1 X74.017 Y24.411 Z0 F800
G1 X74.439 Y24.648 Z0 F800
G1 X74.881 Y24.85 Z0 F800
G1 X75.339 Y25.014 Z0 F800
G1 X75.815 Y25.137 Z0 F800
G1 X76.306 Y25.217 Z0 F800
G1 X76.586 Y25.237 Z0 F800
G1 X76.861 Z0 F800
G1 X76.727 Y25.286 Z0 F800
G1 X76.585 Y25.312 Z0 F800
G1 X76.106 Y25.327 Z0 F800
G1 X75.849 Y25.348 Z0 F800
G1 X75.576 Y25.395 Z0 F800
G1 X75.309 Y25.488 Z0 F800
G1 X75.051 Y25.647 Z0 F800
G1 X74.827 Y25.874 Z0 F800
G1 X74.662 Y26.167 Z0 F800
G1 X74.559 Y26.361 Z0 F800
G1 X74.5 Y26.566 Z0 F800
G1 X74.489 Y26.775 Z0 F800
G1 X74.531 Y26.979 Z0 F800
G1 X74.642 Y27.187 Z0 F800
G1 X74.807 Y27.361 Z0 F800
G1 X75.017 Y27.489 Z0 F800
G1 X75.26 Y27.559 Z0 F800
G1 X75.181 Y27.54 Z0 F800
G1 X76.067 Y27.839 Z0 F800
G1 X76.963 Y28.119 Z0 F800
G1 X77.863 Y28.378 Z0 F800
G1 X78.764 Y28.615 Z0 F800
G1 X76.158 Y28.406 Z0 F800
G1 X73.579 Y28.185 Z0 F800
G1 X73.337 Y27.915 Z0 F800
G1 X73.099 Y27.583 Z0 F800
G0 Z3.5 F500
G0 X70.948 Y21.793 Z3.5 
G1 Z0 F500
G1 X71.023 Y21.949 Z0 F800
G1 X70.846 Y22.018 Z0 F800
G1 X70.426 Y22.216 Z0 F800
G1 X70.21 Y22.326 Z0 F800
G1 X70.104 Y22.169 Z0 F800
G1 X70.067 Y22.104 Z0 F800
G1 X70.513 Y21.834 Z0 F800
G1 X70.874 Y21.612 Z0 F800
G1 X70.948 Y21.793 Z0 F800
G0 Z3.5 F500
G0 X71.075 Y22.551 Z3.5 
G1 Z0 F500
G1 X70.682 Y22.737 Z0 F800
G1 X70.328 Y22.917 Z0 F800
G1 X70.011 Y23.063 Z0 F800
G1 X69.611 Y22.475 Z0 F800
G1 X69.283 Y21.901 Z0 F800
G1 X70.21 Y21.339 Z0 F800
G1 X71.177 Y20.746 Z0 F800
G1 X71.315 Y21.157 Z0 F800
G1 X71.478 Y21.558 Z0 F800
G1 X71.667 Y21.947 Z0 F800
G1 X71.883 Y22.321 Z0 F800
G1 X71.696 Y22.331 Z0 F800
G1 X71.513 Y22.381 Z0 F800
G1 X71.075 Y22.551 Z0 F800
G0 Z3.5 F500
G0 X77.477 Y18.632 Z3.5 
G1 Z0 F500
G1 X77.526 Y18.664 Z0 F800
G1 X77.53 Y18.699 Z0 F800
G1 X77.525 Y18.856 Z0 F800
G1 X77.494 Y18.941 Z0 F800
G1 X77.39 Z0 F800
G1 X77.354 Y18.933 Z0 F800
G1 X77.317 Y18.911 Z0 F800
G1 X77.285 Y18.88 Z0 F800
G1 X77.265 Y18.848 Z0 F800
G1 X77.255 Y18.817 Z0 F800
G1 Y18.79 Z0 F800
G1 X77.284 Y18.687 Z0 F800
G1 X77.302 Y18.629 Z0 F800
G1 X77.343 Y18.614 Z0 F800
G1 X77.407 Z0 F800
G1 X77.477 Y18.632 Z0 F800
G0 Z3.5 F500
G0 X78.11 Y18.681 Z3.5 
G1 Z0 F500
G1 X78.102 Y18.968 Z0 F800
G1 X77.998 Y19.249 Z0 F800
G1 X77.912 Y19.366 Z0 F800
G1 X77.803 Y19.456 Z0 F800
G1 X77.673 Y19.51 Z0 F800
G1 X77.523 Y19.521 Z0 F800
G1 X77.32 Z0 F800
G1 X77.132 Y19.474 Z0 F800
G1 X76.966 Y19.379 Z0 F800
G1 X76.83 Y19.248 Z0 F800
G1 X76.731 Y19.088 Z0 F800
G1 X76.677 Y18.908 Z0 F800
G1 X76.673 Y18.715 Z0 F800
G1 X76.729 Y18.519 Z0 F800
G1 X76.769 Y18.388 Z0 F800
G1 X76.83 Y18.278 Z0 F800
G1 X76.911 Y18.188 Z0 F800
G1 X77.007 Y18.119 Z0 F800
G1 X77.232 Y18.037 Z0 F800
G1 X77.478 Y18.031 Z0 F800
G1 X77.716 Y18.095 Z0 F800
G1 X77.919 Y18.227 Z0 F800
G1 X77.999 Y18.317 Z0 F800
G1 X78.06 Y18.424 Z0 F800
G1 X78.098 Y18.545 Z0 F800
G1 X78.11 Y18.681 Z0 F800
G0 Z3.5 F500
G0 X78.589 Y22.135 Z3.5 
G1 Z0 F500
G1 X78.915 Y22 Z0 F800
G1 X79.224 Y21.831 Z0 F800
G1 X79.514 Y21.631 Z0 F800
G1 X79.783 Y21.404 Z0 F800
G1 X80.03 Y21.151 Z0 F800
G1 X80.252 Y20.876 Z0 F800
G1 X80.447 Y20.582 Z0 F800
G1 X80.614 Y20.27 Z0 F800
G1 X80.75 Y19.942 Z0 F800
G1 X80.853 Y19.604 Z0 F800
G1 X80.921 Y19.255 Z0 F800
G1 X80.953 Y18.9 Z0 F800
G1 X80.945 Y18.541 Z0 F800
G1 X80.889 Y18.041 Z0 F800
G1 X80.75 Y17.568 Z0 F800
G1 X80.539 Y17.126 Z0 F800
G1 X80.268 Y16.717 Z0 F800
G1 X79.945 Y16.346 Z0 F800
G1 X79.583 Y16.015 Z0 F800
G1 X79.189 Y15.728 Z0 F800
G1 X78.777 Y15.489 Z0 F800
G1 X78.745 Y15.476 Z0 F800
G1 X78.435 Y15.382 Z0 F800
G1 X78.119 Y15.315 Z0 F800
G1 X77.799 Y15.275 Z0 F800
G1 X77.476 Y15.263 Z0 F800
G1 X77.154 Y15.276 Z0 F800
G1 X76.834 Y15.316 Z0 F800
G1 X76.52 Y15.382 Z0 F800
G1 X76.212 Y15.473 Z0 F800
G1 X75.914 Y15.59 Z0 F800
G1 X75.626 Y15.732 Z0 F800
G1 X75.354 Y15.899 Z0 F800
G1 X75.097 Y16.091 Z0 F800
G1 X74.859 Y16.307 Z0 F800
G1 X74.642 Y16.546 Z0 F800
G1 X74.448 Y16.81 Z0 F800
G1 X74.279 Y17.097 Z0 F800
G1 X74.086 Y17.515 Z0 F800
G1 X73.959 Y17.951 Z0 F800
G1 X73.894 Y18.398 Z0 F800
G1 X73.886 Y18.852 Z0 F800
G1 X73.932 Y19.303 Z0 F800
G1 X74.026 Y19.746 Z0 F800
G1 X74.165 Y20.173 Z0 F800
G1 X74.347 Y20.584 Z0 F800
G1 X74.622 Y20.987 Z0 F800
G1 X74.944 Y21.335 Z0 F800
G1 X75.311 Y21.634 Z0 F800
G1 X75.714 Y21.88 Z0 F800
G1 X76.146 Y22.074 Z0 F800
G1 X76.598 Y22.212 Z0 F800
G1 X77.063 Y22.294 Z0 F800
G1 X77.534 Y22.319 Z0 F800
G1 X77.897 Y22.297 Z0 F800
G1 X78.25 Y22.236 Z0 F800
G1 X78.589 Y22.135 Z0 F800
G0 Z3.5 F500
G0 X80.992 Y21.618 Z3.5 
G1 Z0 F500
G1 X80.615 Y22.035 Z0 F800
G1 X80.189 Y22.405 Z0 F800
G1 X79.721 Y22.72 Z0 F800
G1 X79.219 Y22.973 Z0 F800
G1 X78.685 Y23.16 Z0 F800
G1 X78.366 Y23.248 Z0 F800
G1 X78.046 Y23.308 Z0 F800
G1 X77.724 Y23.342 Z0 F800
G1 X77.389 Y23.349 Z0 F800
G1 X76.795 Y23.316 Z0 F800
G1 X76.212 Y23.2 Z0 F800
G1 X75.65 Y23.005 Z0 F800
G1 X75.117 Y22.737 Z0 F800
G1 X74.621 Y22.402 Z0 F800
G1 X74.171 Y22.007 Z0 F800
G1 X73.775 Y21.556 Z0 F800
G1 X73.437 Y21.049 Z0 F800
G1 X73.205 Y20.642 Z0 F800
G1 X73.037 Y20.218 Z0 F800
G1 X72.923 Y19.776 Z0 F800
G1 X72.859 Y19.321 Z0 F800
G1 X72.841 Y18.857 Z0 F800
G1 X72.864 Y18.389 Z0 F800
G1 X72.924 Y17.92 Z0 F800
G1 X73.015 Y17.458 Z0 F800
G1 X73.178 Y17.007 Z0 F800
G1 X73.393 Y16.576 Z0 F800
G1 X73.654 Y16.168 Z0 F800
G1 X73.958 Y15.788 Z0 F800
G1 X74.298 Y15.438 Z0 F800
G1 X74.67 Y15.123 Z0 F800
G1 X75.069 Y14.846 Z0 F800
G1 X75.49 Y14.611 Z0 F800
G1 X76.057 Y14.426 Z0 F800
G1 X76.647 Y14.302 Z0 F800
G1 X77.249 Y14.244 Z0 F800
G1 X77.853 Y14.255 Z0 F800
G1 X78.448 Y14.338 Z0 F800
G1 X79.023 Y14.499 Z0 F800
G1 X79.569 Y14.738 Z0 F800
G1 X80.075 Y15.062 Z0 F800
G1 X80.362 Y15.286 Z0 F800
G1 X80.624 Y15.528 Z0 F800
G1 X80.864 Y15.791 Z0 F800
G1 X81.083 Y16.072 Z0 F800
G1 X81.281 Y16.369 Z0 F800
G1 X81.455 Y16.681 Z0 F800
G1 X81.605 Y17.004 Z0 F800
G1 X81.73 Y17.338 Z0 F800
G1 X81.831 Y17.68 Z0 F800
G1 X81.905 Y18.028 Z0 F800
G1 X81.953 Y18.38 Z0 F800
G1 X81.972 Y18.734 Z0 F800
G1 X81.964 Y19.088 Z0 F800
G1 X81.926 Y19.441 Z0 F800
G1 X81.858 Y19.789 Z0 F800
G1 X81.758 Y20.138 Z0 F800
G1 X81.57 Y20.666 Z0 F800
G1 X81.313 Y21.159 Z0 F800
G1 X80.992 Y21.618 Z0 F800
G0 Z3.5 F500
G0 X56.718 Y26.679 Z3.5 
G1 Z0 F500
G1 X56.03 Y27.653 Z0 F800
G1 X56.023 Y27.669 Z0 F800
G1 X55.829 Z0 F800
G1 X55.819 Y27.418 Z0 F800
G1 X55.803 Y26.69 Z0 F800
G1 X56.772 Y26.639 Z0 F800
G1 X56.718 Y26.679 Z0 F800
G0 Z3.5 F500
G0 X55.239 Y27.422 Z3.5 
G1 Z0 F500
G1 X55.218 Y26.458 Z0 F800
G1 Y26.141 Z0 F800
G1 X56.793 Y26.057 Z0 F800
G1 X58.419 Y26.008 Z0 F800
G1 Y26.123 Z0 F800
G1 X58.413 Y26.274 Z0 F800
G1 X58.018 Y26.437 Z0 F800
G1 X57.138 Y27.089 Z0 F800
G1 X56.54 Y27.937 Z0 F800
G1 X56.408 Y28.248 Z0 F800
G1 X55.27 Z0 F800
G1 X55.239 Y27.422 Z0 F800
G0 Z3.5 F500
G0 X54.699 Y25.588 Z3.5 
G1 Z0 F500
G1 X56.766 Y25.478 Z0 F800
G1 X58.84 Y25.415 Z0 F800
G1 X59.009 Z0 F800
G1 X58.997 Y26.14 Z0 F800
G1 X58.981 Y26.667 Z0 F800
G1 X58.306 Y26.946 Z0 F800
G1 X57.558 Y27.5 Z0 F800
G1 X57.049 Y28.22 Z0 F800
G1 X56.792 Y28.827 Z0 F800
G1 X54.712 Y28.832 Z0 F800
G1 X54.66 Y27.456 Z0 F800
G1 X54.638 Y26.448 Z0 F800
G1 X54.635 Y25.593 Z0 F800
G1 X54.699 Y25.588 Z0 F800
G0 Z3.5 F500
G0 X56.758 Y24.897 Z3.5 
G1 Z0 F500
G1 X58.819 Y24.835 Z0 F800
G1 X59.598 Y24.83 Z0 F800
G1 X59.576 Y26.189 Z0 F800
G1 X59.549 Y27.096 Z0 F800
G1 X59.357 Y27.14 Z0 F800
G1 X58.593 Y27.455 Z0 F800
G1 X57.978 Y27.911 Z0 F800
G1 X57.559 Y28.504 Z0 F800
G1 X57.303 Y29.107 Z0 F800
G1 X57.224 Y29.377 Z0 F800
G1 X57.109 Y29.389 Z0 F800
G1 X56.992 Y29.407 Z0 F800
G1 X54.546 Y29.413 Z0 F800
G1 X54.153 Z0 F800
G1 X54.08 Y27.46 Z0 F800
G1 X54.058 Y26.462 Z0 F800
G1 X54.055 Y25.485 Z0 F800
G1 X54.065 Y25.056 Z0 F800
G1 X54.664 Y25.009 Z0 F800
G1 X56.758 Y24.897 Z0 F800
G0 Z3.5 F500
G0 X60.18 Y24.681 Z3.5 
G1 Z0 F500
G1 X60.157 Y26.174 Z0 F800
G1 X60.116 Y27.565 Z0 F800
G1 X60.102 Z0 F800
G1 X59.532 Y27.695 Z0 F800
G1 X58.881 Y27.963 Z0 F800
G1 X58.398 Y28.321 Z0 F800
G1 X58.069 Y28.788 Z0 F800
G1 X57.85 Y29.303 Z0 F800
G1 X57.724 Y29.734 Z0 F800
G1 X57.689 Y29.918 Z0 F800
G1 X57.574 Y29.926 Z0 F800
G1 X57.181 Y29.964 Z0 F800
G1 X57.038 Y29.986 Z0 F800
G1 X54.548 Y29.993 Z0 F800
G1 X53.594 Y29.998 Z0 F800
G1 X53.579 Y29.574 Z0 F800
G1 X53.5 Y27.495 Z0 F800
G1 X53.478 Y26.476 Z0 F800
G1 X53.475 Y25.449 Z0 F800
G1 X53.498 Y24.519 Z0 F800
G1 X54.648 Y24.429 Z0 F800
G1 X56.71 Y24.318 Z0 F800
G1 X58.819 Y24.255 Z0 F800
G1 X60.182 Y24.246 Z0 F800
G1 Y24.681 Z0 F800
G0 Z3.5 F500
G0 X60.193 Y28.141 Z3.5 
G1 Z0 F500
G1 X59.708 Y28.25 Z0 F800
G1 X59.168 Y28.472 Z0 F800
G1 X58.818 Y28.731 Z0 F800
G1 X58.578 Y29.072 Z0 F800
G1 X58.397 Y29.499 Z0 F800
G1 X58.288 Y29.87 Z0 F800
G1 X58.222 Y30.222 Z0 F800
G1 X58.196 Y30.467 Z0 F800
G1 X58 Y30.478 Z0 F800
G1 X57.623 Y30.504 Z0 F800
G1 X57.253 Y30.54 Z0 F800
G1 X57.083 Y30.566 Z0 F800
G1 X54.551 Y30.572 Z0 F800
G1 X53.035 Y30.581 Z0 F800
G1 X53 Y29.595 Z0 F800
G1 X52.92 Y27.494 Z0 F800
G1 X52.898 Y26.49 Z0 F800
G1 X52.895 Y25.454 Z0 F800
G1 X52.919 Y24.474 Z0 F800
G1 X52.948 Y23.979 Z0 F800
G1 X54.613 Y23.85 Z0 F800
G1 X56.683 Y23.739 Z0 F800
G1 X58.797 Y23.676 Z0 F800
G1 X60.764 Y23.663 Z0 F800
G1 X60.76 Y24.704 Z0 F800
G1 X60.737 Y26.191 Z0 F800
G1 X60.691 Y27.709 Z0 F800
G1 X60.674 Y28.099 Z0 F800
G1 X60.63 Z0 F800
G1 X60.193 Y28.141 Z0 F800
G0 Z3.5 F500
G0 X52.42 Y29.617 Z3.5 
G1 Z0 F500
G1 X52.341 Y27.525 Z0 F800
G1 X52.318 Y26.481 Z0 F800
G1 X52.315 Y25.453 Z0 F800
G1 X52.339 Y24.455 Z0 F800
G1 X52.398 Y23.438 Z0 F800
G1 X52.452 Z0 F800
G1 X54.558 Y23.272 Z0 F800
G1 X56.676 Y23.159 Z0 F800
G1 X58.78 Y23.096 Z0 F800
G1 X60.897 Y23.082 Z0 F800
G1 X61.055 Z0 F800
G1 X61.173 Y23.104 Z0 F800
G1 X61.281 Y23.136 Z0 F800
G1 X61.345 Y23.167 Z0 F800
G1 X61.34 Y24.699 Z0 F800
G1 X61.316 Y26.216 Z0 F800
G1 X61.272 Y27.717 Z0 F800
G1 X61.229 Y28.677 Z0 F800
G1 X60.994 Z0 F800
G1 X60.66 Z0 F800
G1 X60.285 Y28.715 Z0 F800
G1 X59.883 Y28.805 Z0 F800
G1 X59.456 Y28.981 Z0 F800
G1 X59.239 Y29.142 Z0 F800
G1 X59.088 Y29.355 Z0 F800
G1 X58.944 Y29.694 Z0 F800
G1 X58.853 Y30.005 Z0 F800
G1 X58.796 Y30.307 Z0 F800
G1 X58.765 Y30.597 Z0 F800
G1 X58.751 Y31.017 Z0 F800
G1 X58.675 Y31.021 Z0 F800
G1 X58.036 Y31.057 Z0 F800
G1 X57.67 Y31.082 Z0 F800
G1 X57.326 Y31.116 Z0 F800
G1 X57.129 Y31.146 Z0 F800
G1 X54.553 Y31.152 Z0 F800
G1 X52.476 Y31.164 Z0 F800
G1 X52.42 Y29.617 Z0 F800
G0 Z3.5 F500
G0 X51.738 Y26.494 Z3.5 
G1 Z0 F500
G1 X51.735 Y25.454 Z0 F800
G1 X51.76 Y24.421 Z0 F800
G1 X51.82 Y23.395 Z0 F800
G1 Y23.358 Z0 F800
G1 X51.855 Y23.141 Z0 F800
G1 X51.964 Y22.976 Z0 F800
G1 X52.133 Y22.876 Z0 F800
G1 X52.35 Y22.856 Z0 F800
G1 X52.383 Z0 F800
G1 X52.417 Z0 F800
G1 X54.523 Y22.693 Z0 F800
G1 X56.648 Y22.58 Z0 F800
G1 X58.776 Y22.516 Z0 F800
G1 X60.903 Y22.501 Z0 F800
G1 X61.105 Y22.505 Z0 F800
G1 X61.303 Y22.537 Z0 F800
G1 X61.494 Y22.594 Z0 F800
G1 X61.659 Y22.675 Z0 F800
G1 X61.787 Y22.769 Z0 F800
G1 X61.875 Y22.874 Z0 F800
G1 X61.922 Y23.002 Z0 F800
G1 X61.927 Y23.165 Z0 F800
G1 Y23.181 Z0 F800
G1 X61.92 Y24.708 Z0 F800
G1 X61.896 Y26.226 Z0 F800
G1 X61.851 Y27.743 Z0 F800
G1 X61.784 Y29.251 Z0 F800
G1 X61.407 Y29.258 Z0 F800
G1 X60.995 Z0 F800
G1 X60.69 Z0 F800
G1 X60.376 Y29.289 Z0 F800
G1 X60.059 Y29.36 Z0 F800
G1 X59.744 Y29.49 Z0 F800
G1 X59.659 Y29.553 Z0 F800
G1 X59.598 Y29.639 Z0 F800
G1 X59.491 Y29.89 Z0 F800
G1 X59.417 Y30.141 Z0 F800
G1 X59.371 Y30.391 Z0 F800
G1 X59.344 Y30.637 Z0 F800
G1 X59.329 Y31.115 Z0 F800
G1 X59.323 Y31.56 Z0 F800
G1 X59.14 Y31.573 Z0 F800
G1 X58.707 Y31.601 Z0 F800
G1 X58.072 Y31.636 Z0 F800
G1 X57.719 Y31.66 Z0 F800
G1 X57.398 Y31.691 Z0 F800
G1 X57.173 Y31.726 Z0 F800
G1 X54.555 Y31.732 Z0 F800
G1 X51.916 Y31.747 Z0 F800
G1 X51.84 Y29.638 Z0 F800
G1 X51.761 Y27.538 Z0 F800
G1 X51.738 Y26.494 Z0 F800
G0 Z3.5 F500
G0 X44.453 Y28.833 Z3.5 
G1 Z0 F500
G1 X43.409 Y30.135 Z0 F800
G1 X42.907 Y30.812 Z0 F800
G1 X42.502 Y31.392 Z0 F800
G1 X42.37 Y31.2 Z0 F800
G1 X42.302 Y31.137 Z0 F800
G1 X42.594 Y30.904 Z0 F800
G1 X43.166 Y30.344 Z0 F800
G1 X43.662 Y29.743 Z0 F800
G1 X43.898 Y29.445 Z0 F800
G1 X44.133 Y29.124 Z0 F800
G1 X44.36 Y28.775 Z0 F800
G1 X44.405 Y28.691 Z0 F800
G1 X44.591 Y28.674 Z0 F800
G1 X44.453 Y28.833 Z0 F800
G0 Z3.5 F500
G0 X42.007 Y31.696 Z3.5 
G1 Z0 F500
G1 X41.929 Y31.582 Z0 F800
G1 X41.831 Y31.491 Z0 F800
G1 X41.716 Y31.429 Z0 F800
G1 X41.595 Y31.4 Z0 F800
G1 X41.476 Z0 F800
G1 X41.364 Y31.419 Z0 F800
G1 X41.26 Y31.455 Z0 F800
G1 X41.073 Y31.553 Z0 F800
G1 X40.911 Y31.677 Z0 F800
G1 X40.775 Y31.819 Z0 F800
G1 X40.667 Y31.969 Z0 F800
G1 X40.141 Y32.641 Z0 F800
G1 X39.654 Y33.299 Z0 F800
G1 X39.229 Y33.119 Z0 F800
G1 X38.837 Y32.891 Z0 F800
G1 X38.499 Y32.611 Z0 F800
G1 X38.232 Y32.275 Z0 F800
G1 X38.96 Y32.138 Z0 F800
G1 X39.67 Y31.933 Z0 F800
G1 X40.357 Y31.661 Z0 F800
G1 X41.013 Y31.325 Z0 F800
G1 X41.633 Y30.927 Z0 F800
G1 X42.21 Y30.469 Z0 F800
G1 X42.738 Y29.952 Z0 F800
G1 X43.211 Y29.378 Z0 F800
G1 X43.437 Y29.093 Z0 F800
G1 X43.656 Y28.794 Z0 F800
G1 X43.861 Y28.479 Z0 F800
G1 X44.043 Y28.142 Z0 F800
G1 X45.017 Y28.053 Z0 F800
G1 X45.978 Y27.967 Z0 F800
G1 X44.897 Y29.206 Z0 F800
G1 X43.868 Y30.489 Z0 F800
G1 X43.378 Y31.15 Z0 F800
G1 X42.907 Y31.826 Z0 F800
G1 X42.458 Y32.517 Z0 F800
G1 X42.032 Y33.224 Z0 F800
G1 X41.938 Y33.228 Z0 F800
G1 X41.842 Y33.237 Z0 F800
G1 X41.494 Y33.307 Z0 F800
G1 X41.819 Y32.681 Z0 F800
G1 X41.967 Y32.333 Z0 F800
G1 X42.072 Y31.95 Z0 F800
G1 X42.076 Y31.888 Z0 F800
G1 X42.064 Y31.828 Z0 F800
G1 X42.007 Y31.696 Z0 F800
G0 Z3.5 F500
G0 X40.35 Y34.906 Z3.5 
G1 Z0 F500
G1 X40.317 Y35.037 Z0 F800
G1 Y35.176 Z0 F800
G1 X40.333 Y35.312 Z0 F800
G1 X40.439 Y36.016 Z0 F800
G1 X40.522 Y36.716 Z0 F800
G1 X40.577 Y37.856 Z0 F800
G1 X40.601 Y37.954 Z0 F800
G1 X40.651 Y38.042 Z0 F800
G1 X40.392 Y38.075 Z0 F800
G1 X40.129 Y38.102 Z0 F800
G1 X40.243 Y37.952 Z0 F800
G1 X40.327 Y37.784 Z0 F800
G1 X40.39 Y37.605 Z0 F800
G1 X40.438 Y37.423 Z0 F800
G1 X40.462 Y37.157 Z0 F800
G1 X40.449 Y36.891 Z0 F800
G1 X40.383 Y36.359 Z0 F800
G1 X40.346 Y36.103 Z0 F800
G1 X40.295 Y35.849 Z0 F800
G1 X40.216 Y35.604 Z0 F800
G1 X40.093 Y35.375 Z0 F800
G1 X40 Y35.241 Z0 F800
G1 X39.896 Y35.111 Z0 F800
G1 X39.774 Y35.002 Z0 F800
G1 X39.628 Y34.927 Z0 F800
G1 X40.03 Y34.857 Z0 F800
G1 X40.433 Y34.797 Z0 F800
G1 X40.35 Y34.906 Z0 F800
G0 Z3.5 F500
G0 X42.194 Y35.259 Z3.5 
G1 Z0 F500
G1 X42.339 Y35.285 Z0 F800
G1 X42.352 Y35.289 Z0 F800
G1 X42.413 Y35.365 Z0 F800
G1 X42.516 Y35.555 Z0 F800
G1 X42.591 Y35.77 Z0 F800
G1 X42.642 Y36.013 Z0 F800
G1 X42.667 Y36.274 Z0 F800
G1 Y36.543 Z0 F800
G1 X42.645 Y36.813 Z0 F800
G1 X42.618 Y36.993 Z0 F800
G1 X42.575 Y37.07 Z0 F800
G1 X42.514 Y37.127 Z0 F800
G1 X42.408 Y37.181 Z0 F800
G1 X42.244 Y37.227 Z0 F800
G1 X41.943 Y37.264 Z0 F800
G1 X41.955 Y37.115 Z0 F800
G1 Y36.661 Z0 F800
G1 X41.914 Y36.211 Z0 F800
G1 X41.836 Y35.766 Z0 F800
G1 X41.721 Y35.328 Z0 F800
G1 X41.7 Y35.269 Z0 F800
G1 X41.839 Y35.256 Z0 F800
G1 X42.027 Y35.25 Z0 F800
G1 X42.194 Y35.259 Z0 F800
G0 Z3.5 F500
G0 X43.047 Y35.319 Z3.5 
G1 Z0 F500
G1 X43.152 Y35.615 Z0 F800
G1 X43.217 Y35.926 Z0 F800
G1 X43.247 Y36.245 Z0 F800
G1 Y36.565 Z0 F800
G1 X43.222 Y36.88 Z0 F800
G1 X43.175 Y37.182 Z0 F800
G1 X43.039 Y37.431 Z0 F800
G1 X42.85 Y37.607 Z0 F800
G1 X42.619 Y37.725 Z0 F800
G1 X42.36 Y37.797 Z0 F800
G1 X41.801 Y37.865 Z0 F800
G1 X41.269 Y37.924 Z0 F800
G1 X41.342 Y37.495 Z0 F800
G1 X41.375 Y37.092 Z0 F800
G1 Y36.688 Z0 F800
G1 X41.338 Y36.287 Z0 F800
G1 X41.269 Y35.89 Z0 F800
G1 X41.167 Y35.499 Z0 F800
G1 X41.031 Y35.118 Z0 F800
G1 X40.863 Y34.749 Z0 F800
G1 X41.328 Y34.72 Z0 F800
G1 X41.8 Y34.677 Z0 F800
G1 X42.034 Y34.669 Z0 F800
G1 X42.263 Y34.682 Z0 F800
G1 X42.486 Y34.721 Z0 F800
G1 X42.7 Y34.796 Z0 F800
G1 X42.898 Y35.044 Z0 F800
G1 X43.047 Y35.319 Z0 F800
G0 Z3.5 F500
G0 X46.342 Y35.086 Z3.5 
G1 Z0 F500
G1 X46.5 Y39.891 Z0 F800
G1 X46.278 Z0 F800
G1 X46.243 Y39.508 Z0 F800
G1 X46.042 Y38.903 Z0 F800
G1 X45.709 Y38.389 Z0 F800
G1 X45.497 Y38.153 Z0 F800
G1 X45.569 Y37.977 Z0 F800
G1 X45.708 Y37.529 Z0 F800
G1 X45.803 Y37.055 Z0 F800
G1 X45.846 Y36.555 Z0 F800
G1 X45.824 Y36.036 Z0 F800
G1 X45.736 Y35.546 Z0 F800
G1 X45.604 Y35.035 Z0 F800
G1 X45.433 Y34.5 Z0 F800
G1 X45.216 Y33.998 Z0 F800
G1 X45.247 Y33.935 Z0 F800
G1 X45.567 Y33.358 Z0 F800
G1 X45.923 Y32.784 Z0 F800
G1 X46.244 Y32.306 Z0 F800
G1 X46.342 Y35.086 Z0 F800
G0 Z3.5 F500
G0 X46.24 Y40.469 Z3.5 
G1 Z0 F500
G1 X45.672 Y40.487 Z0 F800
G1 X45.716 Y40.104 Z0 F800
G1 X45.672 Y39.628 Z0 F800
G1 X45.515 Y39.156 Z0 F800
G1 X45.247 Y38.744 Z0 F800
G1 X45.022 Y38.494 Z0 F800
G1 X44.792 Y38.31 Z0 F800
G1 X44.868 Y38.157 Z0 F800
G1 X45.022 Y37.78 Z0 F800
G1 X45.145 Y37.385 Z0 F800
G1 X45.229 Y36.972 Z0 F800
G1 X45.265 Y36.542 Z0 F800
G1 X45.246 Y36.101 Z0 F800
G1 X45.168 Y35.669 Z0 F800
G1 X45.047 Y35.196 Z0 F800
G1 X44.889 Y34.704 Z0 F800
G1 X44.67 Y34.198 Z0 F800
G1 X44.56 Y34.02 Z0 F800
G1 X44.727 Y33.676 Z0 F800
G1 X45.07 Y33.06 Z0 F800
G1 X45.44 Y32.462 Z0 F800
G1 X45.837 Y31.872 Z0 F800
G1 X46.69 Y30.7 Z0 F800
G1 X46.765 Y30.603 Z0 F800
G1 X46.922 Y35.067 Z0 F800
G1 X47.1 Y40.48 Z0 F800
G1 X46.992 Y40.474 Z0 F800
G1 X46.24 Y40.469 Z0 F800
G0 Z3.5 F500
G0 X45.094 Y40.441 Z3.5 
G1 Z0 F500
G1 X45.133 Y40.097 Z0 F800
G1 X45.101 Y39.748 Z0 F800
G1 X44.988 Y39.41 Z0 F800
G1 X44.786 Y39.098 Z0 F800
G1 X44.623 Y38.917 Z0 F800
G1 X44.434 Y38.767 Z0 F800
G1 X44.225 Y38.642 Z0 F800
G1 X44 Y38.542 Z0 F800
G1 X44.18 Y38.236 Z0 F800
G1 X44.34 Y37.917 Z0 F800
G1 X44.476 Y37.584 Z0 F800
G1 X44.582 Y37.242 Z0 F800
G1 X44.653 Y36.89 Z0 F800
G1 X44.684 Y36.53 Z0 F800
G1 X44.668 Y36.165 Z0 F800
G1 X44.602 Y35.793 Z0 F800
G1 X44.489 Y35.356 Z0 F800
G1 X44.346 Y34.908 Z0 F800
G1 X44.155 Y34.467 Z0 F800
G1 X43.899 Y34.053 Z0 F800
G1 X44.215 Y33.403 Z0 F800
G1 X44.568 Y32.769 Z0 F800
G1 X44.952 Y32.149 Z0 F800
G1 X45.361 Y31.54 Z0 F800
G1 X46.229 Y30.348 Z0 F800
G1 X47.126 Y29.173 Z0 F800
G1 X47.288 Y28.994 Z0 F800
G1 X47.501 Y35.048 Z0 F800
G1 X47.701 Y41.098 Z0 F800
G1 X46.973 Y41.054 Z0 F800
G1 X46.248 Y41.049 Z0 F800
G1 X45.528 Y41.072 Z0 F800
G1 X44.815 Y41.113 Z0 F800
G1 X44.983 Y40.791 Z0 F800
G1 X45.094 Y40.441 Z0 F800
G0 Z3.5 F500
G0 X41.935 Y39.464 Z3.5 
G1 Z0 F500
G1 X41.854 Y39.718 Z0 F800
G1 X41.812 Y39.98 Z0 F800
G1 Y40.246 Z0 F800
G1 X41.851 Y40.508 Z0 F800
G1 X41.934 Y40.762 Z0 F800
G1 X42.062 Y41.003 Z0 F800
G1 X42.236 Y41.224 Z0 F800
G1 X42.354 Y41.363 Z0 F800
G1 X42.485 Y41.481 Z0 F800
G1 X42.627 Y41.58 Z0 F800
G1 X42.777 Y41.663 Z0 F800
G1 X42.754 Y41.777 Z0 F800
G1 X42.778 Y41.935 Z0 F800
G1 X42.813 Y42.096 Z0 F800
G1 X42.819 Y42.221 Z0 F800
G1 X42.8 Y42.396 Z0 F800
G1 X42.834 Y42.509 Z0 F800
G1 X42.918 Y42.613 Z0 F800
G1 X43.048 Y42.762 Z0 F800
G1 X48.792 Y51.071 Z0 F800
G1 X48.78 Y51.089 Z0 F800
G1 X48.713 Y51.079 Z0 F800
G1 X48.609 Y51.049 Z0 F800
G1 X48.486 Y51.007 Z0 F800
G1 X48.249 Y50.919 Z0 F800
G1 X48.14 Y50.876 Z0 F800
G1 X48.039 Y50.849 Z0 F800
G1 X47.914 Y50.768 Z0 F800
G1 X47.765 Y50.636 Z0 F800
G1 X47.594 Y50.459 Z0 F800
G1 X47.404 Y50.238 Z0 F800
G1 X47.195 Y49.978 Z0 F800
G1 X46.971 Y49.681 Z0 F800
G1 X46.731 Y49.352 Z0 F800
G1 X46.215 Y48.606 Z0 F800
G1 X45.662 Y47.77 Z0 F800
G1 X45.083 Y46.869 Z0 F800
G1 X44.495 Y45.931 Z0 F800
G1 X43.909 Y44.982 Z0 F800
G1 X43.34 Y44.05 Z0 F800
G1 X42.083 Y41.971 Z0 F800
G1 X41.683 Y41.31 Z0 F800
G1 X41.36 Y40.788 Z0 F800
G1 X41.233 Y40.587 Z0 F800
G1 X41.131 Y40.431 Z0 F800
G1 X41.055 Y40.323 Z0 F800
G1 X40.93 Y40.106 Z0 F800
G1 X40.831 Y39.874 Z0 F800
G1 X40.759 Y39.637 Z0 F800
G1 X40.718 Y39.409 Z0 F800
G1 X41.391 Y39.313 Z0 F800
G1 X42.055 Y39.225 Z0 F800
G1 X41.935 Y39.464 Z0 F800
G0 Z3.5 F500
G0 X52.354 Y41.301 Z3.5 
G1 Z0 F500
G1 X52.645 Y41.308 Z0 F800
G1 X52.679 Y42.045 Z0 F800
G1 X52.694 Y43.189 Z0 F800
G1 X52.674 Y44.354 Z0 F800
G1 X52.639 Y45.152 Z0 F800
G1 X52.441 Z0 F800
G1 X52.176 Y45.132 Z0 F800
G1 X52.164 Y44.937 Z0 F800
G1 X52.167 Y44.343 Z0 F800
G1 Y43.696 Z0 F800
G1 X52.106 Y42.987 Z0 F800
G1 X52.051 Y42.8 Z0 F800
G1 X51.938 Y42.626 Z0 F800
G1 X51.846 Y42.542 Z0 F800
G1 X51.973 Y42.364 Z0 F800
G1 X52.102 Y42.051 Z0 F800
G1 X52.151 Y41.75 Z0 F800
G1 X52.159 Y41.292 Z0 F800
G1 X52.354 Y41.301 Z0 F800
G0 Z3.5 F500
G0 X55.018 Y36.276 Z3.5 
G1 Z0 F500
G1 X54.906 Y36.249 Z0 F800
G1 X54.681 Y36.227 Z0 F800
G1 X54.343 Y36.223 Z0 F800
G1 X54.14 Y36.206 Z0 F800
G1 X54.12 Y36.201 Z0 F800
G1 X53.392 Y36.151 Z0 F800
G1 X52.722 Y36.115 Z0 F800
G1 X52.087 Y36.073 Z0 F800
G1 X51.9 Y36.053 Z0 F800
G1 X51.881 Y35.927 Z0 F800
G1 X51.809 Y35.655 Z0 F800
G1 X51.668 Y35.369 Z0 F800
G1 X51.536 Y35.199 Z0 F800
G1 X51.44 Y35.112 Z0 F800
G1 X51.559 Y35.121 Z0 F800
G1 X52.007 Y35.144 Z0 F800
G1 X52.47 Y35.16 Z0 F800
G1 X53.382 Y35.177 Z0 F800
G1 X54.203 Y35.18 Z0 F800
G1 X55.077 Y35.175 Z0 F800
G1 X55.175 Y35.19 Z0 F800
G1 X55.18 Y35.201 Z0 F800
G1 X55.2 Y35.303 Z0 F800
G1 X55.205 Y35.46 Z0 F800
G1 X55.186 Y35.663 Z0 F800
G1 X55.144 Y35.881 Z0 F800
G1 X55.08 Y36.105 Z0 F800
G1 X55.018 Y36.276 Z0 F800
G0 Z3.5 F500
G0 X50.106 Y34.924 Z3.5 
G1 Z0 F500
G1 X50.054 Y34.946 Z0 F800
G1 Y34.909 Z0 F800
G1 X50.074 Y34.917 Z0 F800
G1 X50.106 Y34.924 Z0 F800
G0 Z3.5 F500
G0 X49.099 Y25.256 Z3.5 
G1 Z0 F500
G1 X48.938 Y25.173 Z0 F800
G1 X48.612 Y25.12 Z0 F800
G1 X48.195 Y25.143 Z0 F800
G1 X47.914 Y25.181 Z0 F800
G1 X46.283 Y25.385 Z0 F800
G1 X45.872 Y25.435 Z0 F800
G1 X45.954 Y25.331 Z0 F800
G1 X46.241 Y25.049 Z0 F800
G1 X46.558 Y24.808 Z0 F800
G1 X46.894 Y24.618 Z0 F800
G1 X47.25 Y24.48 Z0 F800
G1 X47.674 Y24.39 Z0 F800
G1 X48.707 Y24.179 Z0 F800
G1 X49.072 Y24.111 Z0 F800
G1 X49.099 Y25.256 Z0 F800
G0 Z3.5 F500
G0 X49.089 Y26.078 Z3.5 
G1 Z0 F500
G1 X49.049 Y25.976 Z0 F800
G1 X48.993 Y25.888 Z0 F800
G1 X48.922 Y25.817 Z0 F800
G1 X48.754 Y25.731 Z0 F800
G1 X48.58 Y25.702 Z0 F800
G1 X48.25 Y25.72 Z0 F800
G1 X47.993 Y25.756 Z0 F800
G1 X46.355 Y25.96 Z0 F800
G1 X44.768 Y26.154 Z0 F800
G1 X44.973 Y25.722 Z0 F800
G1 X45.226 Y25.315 Z0 F800
G1 X45.523 Y24.942 Z0 F800
G1 X45.861 Y24.609 Z0 F800
G1 X46.236 Y24.324 Z0 F800
G1 X46.645 Y24.093 Z0 F800
G1 X47.084 Y23.923 Z0 F800
G1 X47.558 Y23.822 Z0 F800
G1 X48.6 Y23.609 Z0 F800
G1 X49.636 Y23.415 Z0 F800
G1 X49.76 Y28.735 Z0 F800
G1 X49.906 Y34.054 Z0 F800
G1 X49.955 Y34.185 Z0 F800
G1 X50.043 Y34.269 Z0 F800
G1 X50.138 Y34.321 Z0 F800
G1 X50.244 Y34.361 Z0 F800
G1 X50.502 Y34.424 Z0 F800
G1 X50.818 Y34.473 Z0 F800
G1 X51.187 Y34.511 Z0 F800
G1 X51.595 Y34.542 Z0 F800
G1 X52.032 Y34.564 Z0 F800
G1 X52.485 Y34.58 Z0 F800
G1 X53.389 Y34.597 Z0 F800
G1 X54.202 Y34.6 Z0 F800
G1 X55.122 Y34.594 Z0 F800
G1 X55.368 Y34.633 Z0 F800
G1 X55.542 Y34.719 Z0 F800
G1 X55.658 Y34.85 Z0 F800
G1 X55.735 Y35.023 Z0 F800
G1 X55.778 Y35.236 Z0 F800
G1 X55.786 Y35.481 Z0 F800
G1 X55.761 Y35.746 Z0 F800
G1 X55.708 Y36.018 Z0 F800
G1 X55.632 Y36.284 Z0 F800
G1 X55.542 Y36.533 Z0 F800
G1 X55.444 Y36.753 Z0 F800
G1 X55.347 Y36.931 Z0 F800
G1 X55.304 Y36.995 Z0 F800
G1 X55.269 Y37.033 Z0 F800
G1 X55.124 Y36.93 Z0 F800
G1 X54.968 Y36.861 Z0 F800
G1 X54.808 Y36.822 Z0 F800
G1 X54.649 Y36.807 Z0 F800
G1 X54.318 Y36.803 Z0 F800
G1 X54.049 Y36.78 Z0 F800
G1 X54.036 Y36.777 Z0 F800
G1 X53.356 Y36.73 Z0 F800
G1 X52.689 Y36.694 Z0 F800
G1 X52.032 Y36.65 Z0 F800
G1 X51.396 Y36.581 Z0 F800
G1 X51.313 Y36.047 Z0 F800
G1 X51.263 Y35.859 Z0 F800
G1 X51.174 Y35.678 Z0 F800
G1 X51.108 Y35.594 Z0 F800
G1 X51.027 Y35.52 Z0 F800
G1 X50.932 Y35.458 Z0 F800
G1 X50.822 Y35.411 Z0 F800
G1 X50.637 Y35.384 Z0 F800
G1 X50.465 Y35.406 Z0 F800
G1 X50.307 Y35.469 Z0 F800
G1 X50.169 Y35.566 Z0 F800
G1 X50.06 Y35.694 Z0 F800
G1 X49.985 Y35.846 Z0 F800
G1 X49.955 Y36.016 Z0 F800
G1 X49.974 Y36.198 Z0 F800
G1 X49.969 Y36.156 Z0 F800
G1 X50.003 Y38.797 Z0 F800
G1 X50.079 Y41.439 Z0 F800
G1 X50.082 Y41.463 Z0 F800
G1 X50.087 Y41.486 Z0 F800
G1 X50.143 Y41.635 Z0 F800
G1 X50.216 Y41.784 Z0 F800
G1 X50.308 Y41.927 Z0 F800
G1 X50.417 Y42.062 Z0 F800
G1 X50.547 Y42.181 Z0 F800
G1 X50.697 Y42.279 Z0 F800
G1 X50.866 Y42.344 Z0 F800
G1 X51.053 Y42.369 Z0 F800
G1 X51.082 Y42.366 Z0 F800
G1 X51.109 Y42.36 Z0 F800
G1 X51.222 Y42.312 Z0 F800
G1 X51.319 Y42.247 Z0 F800
G1 X51.399 Y42.169 Z0 F800
G1 X51.462 Y42.082 Z0 F800
G1 X51.54 Y41.892 Z0 F800
G1 X51.572 Y41.697 Z0 F800
G1 X51.583 Y41.032 Z0 F800
G1 X51.64 Y40.887 Z0 F800
G1 X51.75 Y40.765 Z0 F800
G1 X51.882 Y40.698 Z0 F800
G1 X52.018 Z0 F800
G1 X52.051 Y40.706 Z0 F800
G1 X52.374 Y40.722 Z0 F800
G1 X52.682 Y40.729 Z0 F800
G1 X52.962 Y40.757 Z0 F800
G1 X53.203 Y40.836 Z0 F800
G1 X53.259 Y42.018 Z0 F800
G1 X53.274 Y43.199 Z0 F800
G1 X53.253 Y44.38 Z0 F800
G1 X53.202 Y45.558 Z0 F800
G1 X53.182 Y45.628 Z0 F800
G1 X53.144 Y45.667 Z0 F800
G1 X53.075 Y45.701 Z0 F800
G1 X52.969 Y45.724 Z0 F800
G1 X52.702 Y45.732 Z0 F800
G1 X52.417 Z0 F800
G1 X51.891 Y45.693 Z0 F800
G1 X51.78 Y45.669 Z0 F800
G1 X51.699 Y45.635 Z0 F800
G1 X51.652 Y45.595 Z0 F800
G1 X51.621 Y45.54 Z0 F800
G1 X51.583 Y44.949 Z0 F800
G1 X51.587 Y44.341 Z0 F800
G1 Y43.721 Z0 F800
G1 X51.534 Y43.095 Z0 F800
G1 X51.519 Y43.046 Z0 F800
G1 X51.491 Y43.002 Z0 F800
G1 X51.282 Y42.809 Z0 F800
G1 X51.017 Y42.647 Z0 F800
G1 X50.866 Y42.591 Z0 F800
G1 X50.704 Y42.561 Z0 F800
G1 X50.536 Y42.565 Z0 F800
G1 X50.368 Y42.612 Z0 F800
G1 X50.333 Y42.633 Z0 F800
G1 X50.304 Y42.661 Z0 F800
G1 X50.186 Y42.844 Z0 F800
G1 X50.123 Y43.04 Z0 F800
G1 X50.099 Y43.24 Z0 F800
G1 X50.102 Y43.435 Z0 F800
G1 X50.132 Y43.798 Z0 F800
G1 Y44.114 Z0 F800
G1 X50.14 Y44.429 Z0 F800
G1 X50.15 Y44.664 Z0 F800
G1 X50.142 Y44.71 Z0 F800
G1 X50.128 Z0 F800
G1 X50.02 Y44.688 Z0 F800
G1 X49.965 Y44.68 Z0 F800
G1 X49.911 Y44.688 Z0 F800
G1 X49.832 Y44.704 Z0 F800
G1 Y44.694 Z0 F800
G1 X49.817 Y44.543 Z0 F800
G1 X49.806 Y44.317 Z0 F800
G1 Y44.326 Z0 F800
G1 X49.628 Y39.802 Z0 F800
G1 X49.484 Y35.269 Z0 F800
G1 X49.328 Y30.732 Z0 F800
G1 X49.11 Y26.199 Z0 F800
G1 X49.089 Y26.078 Z0 F800
G0 Z3.5 F500
G0 X38.126 Y23.883 Z3.5 
G1 Z0 F500
G1 X38.183 Y23.901 Z0 F800
G1 X38.236 Y23.934 Z0 F800
G1 X38.276 Y23.975 Z0 F800
G1 X38.295 Y24.01 Z0 F800
G1 X38.299 Y24.029 Z0 F800
G1 Y24.042 Z0 F800
G1 X38.264 Y24.105 Z0 F800
G1 X38.191 Y24.179 Z0 F800
G1 X38.091 Y24.17 Z0 F800
G1 X37.99 Y24.174 Z0 F800
G1 X37.961 Y24.136 Z0 F800
G1 X37.937 Y24.061 Z0 F800
G1 X37.934 Y23.978 Z0 F800
G1 X37.951 Y23.918 Z0 F800
G1 X37.979 Y23.908 Z0 F800
G1 X38.08 Y23.881 Z0 F800
G1 X38.126 Z0 F800
G0 Z3.5 F500
G0 X38.846 Y23.807 Z3.5 
G1 Z0 F500
G1 X38.887 Y24.008 Z0 F800
G1 X38.859 Y24.223 Z0 F800
G1 X38.734 Y24.455 Z0 F800
G1 X38.552 Y24.639 Z0 F800
G1 X38.445 Y24.704 Z0 F800
G1 X38.328 Y24.747 Z0 F800
G1 X38.204 Y24.763 Z0 F800
G1 X38.074 Y24.751 Z0 F800
G1 X37.931 Y24.756 Z0 F800
G1 X37.802 Y24.731 Z0 F800
G1 X37.688 Y24.681 Z0 F800
G1 X37.59 Y24.607 Z0 F800
G1 X37.441 Y24.408 Z0 F800
G1 X37.36 Y24.164 Z0 F800
G1 X37.352 Y23.906 Z0 F800
G1 X37.42 Y23.665 Z0 F800
G1 X37.484 Y23.56 Z0 F800
G1 X37.57 Y23.47 Z0 F800
G1 X37.676 Y23.4 Z0 F800
G1 X37.805 Y23.354 Z0 F800
G1 X38.015 Y23.298 Z0 F800
G1 X38.226 Y23.306 Z0 F800
G1 X38.426 Y23.369 Z0 F800
G1 X38.604 Y23.479 Z0 F800
G1 X38.747 Y23.627 Z0 F800
G1 X38.846 Y23.807 Z0 F800
G0 Z3.5 F500
G0 X39.989 Y25.579 Z3.5 
G1 Z0 F500
G1 X40.258 Y25.179 Z0 F800
G1 X40.463 Y24.741 Z0 F800
G1 X40.663 Y24.731 Z0 F800
G1 X40.857 Y24.697 Z0 F800
G1 X41.042 Y24.632 Z0 F800
G1 X41.211 Y24.534 Z0 F800
G1 X41.405 Y24.352 Z0 F800
G1 X41.549 Y24.12 Z0 F800
G1 X41.629 Y23.85 Z0 F800
G1 Y23.554 Z0 F800
G1 X41.582 Y23.229 Z0 F800
G1 X41.501 Y22.913 Z0 F800
G1 X41.392 Y22.608 Z0 F800
G1 X41.254 Y22.317 Z0 F800
G1 X41.09 Y22.041 Z0 F800
G1 X40.902 Y21.78 Z0 F800
G1 X40.691 Y21.537 Z0 F800
G1 X40.46 Y21.314 Z0 F800
G1 X40.21 Y21.112 Z0 F800
G1 X39.944 Y20.933 Z0 F800
G1 X39.662 Y20.778 Z0 F800
G1 X39.367 Y20.649 Z0 F800
G1 X39.061 Y20.548 Z0 F800
G1 X38.745 Y20.477 Z0 F800
G1 X38.42 Y20.437 Z0 F800
G1 X38.091 Y20.429 Z0 F800
G1 X37.725 Y20.444 Z0 F800
G1 X37.366 Y20.498 Z0 F800
G1 X37.018 Y20.589 Z0 F800
G1 X36.682 Y20.716 Z0 F800
G1 X36.361 Y20.875 Z0 F800
G1 X36.058 Y21.065 Z0 F800
G1 X35.775 Y21.283 Z0 F800
G1 X35.514 Y21.527 Z0 F800
G1 X35.277 Y21.795 Z0 F800
G1 X35.068 Y22.085 Z0 F800
G1 X34.888 Y22.393 Z0 F800
G1 X34.74 Y22.718 Z0 F800
G1 X34.626 Y23.058 Z0 F800
G1 X34.549 Y23.41 Z0 F800
G1 X34.51 Y23.772 Z0 F800
G1 X34.514 Y24.142 Z0 F800
G1 X34.57 Y24.576 Z0 F800
G1 X34.671 Y25.003 Z0 F800
G1 X34.819 Y25.421 Z0 F800
G1 X35.011 Y25.822 Z0 F800
G1 X35.247 Y26.197 Z0 F800
G1 X35.527 Y26.542 Z0 F800
G1 X35.85 Y26.847 Z0 F800
G1 X36.216 Y27.105 Z0 F800
G1 X36.248 Y27.123 Z0 F800
G1 X36.668 Y27.304 Z0 F800
G1 X37.11 Y27.462 Z0 F800
G1 X37.572 Y27.58 Z0 F800
G1 X38.055 Y27.639 Z0 F800
G1 X38.096 Z0 F800
G1 X38.389 Y27.573 Z0 F800
G1 X38.643 Y27.44 Z0 F800
G1 X38.853 Y27.257 Z0 F800
G1 X39.018 Y27.042 Z0 F800
G1 X39.12 Y26.846 Z0 F800
G1 X39.194 Y26.642 Z0 F800
G1 X39.244 Y26.435 Z0 F800
G1 X39.271 Y26.228 Z0 F800
G1 X39.659 Y25.932 Z0 F800
G1 X39.989 Y25.579 Z0 F800
G0 Z3.5 F500
G0 X41.844 Y25.508 Z3.5 
G1 Z0 F500
G1 X41.768 Y25.722 Z0 F800
G1 X41.45 Y26.414 Z0 F800
G1 X41.069 Y27.07 Z0 F800
G1 X40.867 Y27.36 Z0 F800
G1 X40.65 Y27.638 Z0 F800
G1 X40.421 Y27.895 Z0 F800
G1 X40.174 Y28.138 Z0 F800
G1 X39.916 Y28.359 Z0 F800
G1 X39.65 Y28.554 Z0 F800
G1 X39.371 Y28.727 Z0 F800
G1 X39.114 Y28.859 Z0 F800
G1 X38.77 Y28.971 Z0 F800
G1 X38.384 Y29.056 Z0 F800
G1 X38.014 Y29.1 Z0 F800
G1 X38.023 Y28.856 Z0 F800
G1 X38.013 Y28.8 Z0 F800
G1 X38.237 Y28.795 Z0 F800
G1 X38.792 Y28.672 Z0 F800
G1 X39.302 Y28.404 Z0 F800
G1 X39.703 Y28.055 Z0 F800
G1 X40 Y27.667 Z0 F800
G1 X40.184 Y27.315 Z0 F800
G1 X40.307 Y26.976 Z0 F800
G1 X40.331 Y26.878 Z0 F800
G1 X40.44 Y26.795 Z0 F800
G1 X40.9 Y26.304 Z0 F800
G1 X41.246 Y25.79 Z0 F800
G1 X41.527 Y25.691 Z0 F800
G1 X41.844 Y25.508 Z0 F800
G0 Z3.5 F500
G0 X42.583 Y25.167 Z3.5 
G1 Z0 F500
G1 X42.305 Y25.94 Z0 F800
G1 X41.965 Y26.683 Z0 F800
G1 X41.557 Y27.384 Z0 F800
G1 X41.335 Y27.704 Z0 F800
G1 X41.098 Y28.007 Z0 F800
G1 X40.841 Y28.296 Z0 F800
G1 X40.566 Y28.565 Z0 F800
G1 X40.278 Y28.812 Z0 F800
G1 X39.979 Y29.032 Z0 F800
G1 X39.655 Y29.232 Z0 F800
G1 X39.335 Y29.396 Z0 F800
G1 X38.922 Y29.531 Z0 F800
G1 X38.478 Y29.629 Z0 F800
G1 X38.027 Y29.683 Z0 F800
G1 X37.567 Y29.696 Z0 F800
G1 X37.284 Y29.669 Z0 F800
G1 X37.234 Y29.653 Z0 F800
G1 X37.352 Y29.45 Z0 F800
G1 X37.431 Y29.175 Z0 F800
G1 X37.441 Y28.896 Z0 F800
G1 X37.396 Y28.631 Z0 F800
G1 X37.3 Y28.379 Z0 F800
G1 X37.196 Y28.218 Z0 F800
G1 X37.071 Y28.092 Z0 F800
G1 X36.983 Y28.028 Z0 F800
G1 X37.465 Y28.151 Z0 F800
G1 X38.026 Y28.22 Z0 F800
G1 X38.167 Y28.217 Z0 F800
G1 X38.59 Y28.123 Z0 F800
G1 X38.972 Y27.922 Z0 F800
G1 X39.278 Y27.656 Z0 F800
G1 X39.508 Y27.354 Z0 F800
G1 X39.652 Y27.081 Z0 F800
G1 X39.751 Y26.809 Z0 F800
G1 X39.814 Y26.543 Z0 F800
G1 X40.05 Y26.363 Z0 F800
G1 X40.444 Y25.941 Z0 F800
G1 X40.765 Y25.465 Z0 F800
G1 X40.848 Y25.288 Z0 F800
G1 X41.005 Y25.26 Z0 F800
G1 X41.285 Y25.162 Z0 F800
G1 X41.561 Y25.002 Z0 F800
G1 X41.858 Y24.722 Z0 F800
G1 X42.083 Y24.359 Z0 F800
G1 X42.208 Y23.935 Z0 F800
G1 Y23.625 Z0 F800
G1 X42.466 Y23.883 Z0 F800
G1 X42.799 Y24.078 Z0 F800
G1 X42.86 Y24.095 Z0 F800
G1 X42.802 Y24.359 Z0 F800
G1 X42.583 Y25.167 Z0 F800
G0 Z3.5 F500
G0 X42.047 Y27.695 Z3.5 
G1 Z0 F500
G1 X41.804 Y28.046 Z0 F800
G1 X41.542 Y28.381 Z0 F800
G1 X41.26 Y28.697 Z0 F800
G1 X40.959 Y28.993 Z0 F800
G1 X40.64 Y29.266 Z0 F800
G1 X40.3 Y29.515 Z0 F800
G1 X39.941 Y29.738 Z0 F800
G1 X39.562 Y29.933 Z0 F800
G1 X39.074 Y30.092 Z0 F800
G1 X38.576 Y30.201 Z0 F800
G1 X38.069 Y30.262 Z0 F800
G1 X37.544 Y30.276 Z0 F800
G1 X37.169 Y30.241 Z0 F800
G1 X36.801 Y30.125 Z0 F800
G1 X36.471 Y29.939 Z0 F800
G1 X36.209 Y29.694 Z0 F800
G1 X36.338 Y29.64 Z0 F800
G1 X36.481 Y29.564 Z0 F800
G1 X36.573 Y29.505 Z0 F800
G1 X36.664 Y29.431 Z0 F800
G1 X36.746 Y29.338 Z0 F800
G1 X36.814 Y29.221 Z0 F800
G1 X36.854 Y29.083 Z0 F800
G1 X36.859 Y28.935 Z0 F800
G1 X36.833 Y28.785 Z0 F800
G1 X36.779 Y28.641 Z0 F800
G1 X36.742 Y28.583 Z0 F800
G1 X36.693 Y28.534 Z0 F800
G1 X36.139 Y28.132 Z0 F800
G1 X35.592 Y27.766 Z0 F800
G1 X35.09 Y27.391 Z0 F800
G1 X34.666 Y26.956 Z0 F800
G1 X34.305 Y26.468 Z0 F800
G1 X34.021 Y25.94 Z0 F800
G1 X33.809 Y25.377 Z0 F800
G1 X33.671 Y24.79 Z0 F800
G1 X33.606 Y24.189 Z0 F800
G1 X33.617 Y23.586 Z0 F800
G1 X33.704 Y22.992 Z0 F800
G1 X33.866 Y22.417 Z0 F800
G1 X34.161 Y21.814 Z0 F800
G1 X34.542 Y21.257 Z0 F800
G1 X34.998 Y20.758 Z0 F800
G1 X35.518 Y20.328 Z0 F800
G1 X35.798 Y20.143 Z0 F800
G1 X36.091 Y19.979 Z0 F800
G1 X36.395 Y19.838 Z0 F800
G1 X36.708 Y19.722 Z0 F800
G1 X37.029 Y19.632 Z0 F800
G1 X37.356 Y19.569 Z0 F800
G1 X37.689 Y19.536 Z0 F800
G1 X38.038 Y19.532 Z0 F800
G1 X38.416 Y19.536 Z0 F800
G1 X38.781 Y19.573 Z0 F800
G1 X39.141 Y19.643 Z0 F800
G1 X39.494 Y19.743 Z0 F800
G1 X39.839 Y19.873 Z0 F800
G1 X40.173 Y20.03 Z0 F800
G1 X40.494 Y20.212 Z0 F800
G1 X40.8 Y20.42 Z0 F800
G1 X41.089 Y20.651 Z0 F800
G1 X41.359 Y20.903 Z0 F800
G1 X41.607 Y21.175 Z0 F800
G1 X41.833 Y21.466 Z0 F800
G1 X42.033 Y21.773 Z0 F800
G1 X42.206 Y22.097 Z0 F800
G1 X42.349 Y22.434 Z0 F800
G1 X42.46 Y22.784 Z0 F800
G1 X42.45 Y22.722 Z0 F800
G1 X42.513 Y23.005 Z0 F800
G1 X42.645 Y23.24 Z0 F800
G1 X42.825 Y23.42 Z0 F800
G1 X43.029 Y23.541 Z0 F800
G1 X43.296 Y23.617 Z0 F800
G1 X43.548 Y23.651 Z0 F800
G1 Y23.743 Z0 F800
G1 X43.523 Y23.877 Z0 F800
G1 X43.433 Y24.191 Z0 F800
G1 X43.355 Y24.545 Z0 F800
G1 X43.361 Y24.515 Z0 F800
G1 X43.135 Y25.344 Z0 F800
G1 X42.842 Y26.161 Z0 F800
G1 X42.48 Y26.95 Z0 F800
G1 X42.047 Y27.695 Z0 F800
G0 Z3.5 F500
G0 X50.09 Y46.711 Z3.5 
G1 Z0 F500
G1 X50.111 Y46.737 Z0 F800
G1 X50.136 Y46.801 Z0 F800
G1 X50.157 Y46.909 Z0 F800
G1 X50.168 Y47.051 Z0 F800
G1 Y47.249 Z0 F800
G1 X50.241 Y47.965 Z0 F800
G1 X50.309 Y48.635 Z0 F800
G1 X50.3 Y48.951 Z0 F800
G1 X50.241 Y49.251 Z0 F800
G1 X50.116 Y49.536 Z0 F800
G1 X49.91 Y49.804 Z0 F800
G1 X49.819 Y49.971 Z0 F800
G1 X49.73 Y50.139 Z0 F800
G1 X49.32 Y50.6 Z0 F800
G1 X48.82 Y51.084 Z0 F800
G1 X48.811 Y51.115 Z0 F800
G1 X48.826 Y51.169 Z0 F800
G1 X48.863 Y51.242 Z0 F800
G1 X48.919 Y51.332 Z0 F800
G1 X49.074 Y51.553 Z0 F800
G1 X49.466 Y52.089 Z0 F800
G1 X49.651 Y52.363 Z0 F800
G1 X49.796 Y52.614 Z0 F800
G1 X49.875 Y52.821 Z0 F800
G1 X49.866 Y52.885 Z0 F800
G1 X49.802 Y52.866 Z0 F800
G1 X49.7 Y52.785 Z0 F800
G1 X49.575 Y52.665 Z0 F800
G1 X49.443 Y52.527 Z0 F800
G1 X49.32 Y52.391 Z0 F800
G1 X49.164 Y52.216 Z0 F800
G1 X48.387 Y51.39 Z0 F800
G1 X48.256 Y51.222 Z0 F800
G1 X48.166 Y51.056 Z0 F800
G1 X48.082 Y50.884 Z0 F800
G1 X47.972 Y50.699 Z0 F800
G1 X48.054 Y50.729 Z0 F800
G1 X48.151 Y50.722 Z0 F800
G1 X48.255 Y50.706 Z0 F800
G1 X48.361 Z0 F800
G1 X48.51 Y50.69 Z0 F800
G1 X48.674 Y50.62 Z0 F800
G1 X48.836 Y50.52 Z0 F800
G1 X48.977 Y50.415 Z0 F800
G1 X49.206 Y50.223 Z0 F800
G1 X49.414 Y50.011 Z0 F800
G1 X49.596 Y49.778 Z0 F800
G1 X49.749 Y49.527 Z0 F800
G1 X49.866 Y49.256 Z0 F800
G1 X49.945 Y48.966 Z0 F800
G1 X49.981 Y48.657 Z0 F800
G1 X49.969 Y48.33 Z0 F800
G1 X49.922 Y47.982 Z0 F800
G1 X49.967 Y47.339 Z0 F800
G1 X49.991 Y46.706 Z0 F800
G1 X50.054 Y46.699 Z0 F800
G1 X50.09 Y46.711 Z0 F800
G0 Z3.5 F500
G0 X60.807 Y51.667 Z3.5 
G1 Z0 F500
G1 X61.186 Y51.772 Z0 F800
G1 X61.468 Y51.747 Z0 F800
G1 X61.711 Y51.68 Z0 F800
G1 X61.724 Y51.728 Z0 F800
G1 X61.786 Y51.917 Z0 F800
G1 X61.919 Y52.496 Z0 F800
G1 X61.531 Y52.501 Z0 F800
G1 X60.494 Z0 F800
G1 X57.049 Y52.484 Z0 F800
G1 X57.046 Y52.459 Z0 F800
G1 X56.953 Y51.922 Z0 F800
G1 X56.88 Y51.611 Z0 F800
G1 X57.211 Y51.604 Z0 F800
G1 X58.319 Y51.609 Z0 F800
G1 X59.455 Y51.596 Z0 F800
G1 X60.683 Y51.516 Z0 F800
G1 X60.807 Y51.667 Z0 F800
G0 Z3.5 F500
G0 X61.538 Y53.082 Z3.5 
G1 Z0 F500
G1 X60.492 Y53.079 Z0 F800
G1 X56.546 Y53.062 Z0 F800
G1 X56.473 Y52.549 Z0 F800
G1 X56.385 Y52.039 Z0 F800
G1 X56.266 Y51.535 Z0 F800
G1 X56.098 Y51.045 Z0 F800
G1 X57.203 Y51.024 Z0 F800
G1 X58.317 Y51.029 Z0 F800
G1 X59.433 Y51.017 Z0 F800
G1 X60.543 Y50.944 Z0 F800
G1 X60.774 Y50.797 Z0 F800
G1 X60.937 Y50.7 Z0 F800
G1 X60.992 Y50.691 Z0 F800
G1 X61.028 Y50.721 Z0 F800
G1 X61.047 Y50.797 Z0 F800
G1 Y50.929 Z0 F800
G1 X61.073 Y51.077 Z0 F800
G1 X61.139 Y51.158 Z0 F800
G1 X61.239 Y51.186 Z0 F800
G1 X61.364 Y51.174 Z0 F800
G1 X61.659 Y51.093 Z0 F800
G1 X61.959 Y51.029 Z0 F800
G1 X62.049 Y51.067 Z0 F800
G1 X62.118 Y51.134 Z0 F800
G1 X62.172 Y51.224 Z0 F800
G1 X62.214 Y51.329 Z0 F800
G1 X62.279 Y51.559 Z0 F800
G1 X62.347 Y51.767 Z0 F800
G1 X62.494 Y52.407 Z0 F800
G1 X62.585 Y53.066 Z0 F800
G1 X61.538 Y53.082 Z0 F800
G0 Z3.5 F500
G0 X65.094 Y51.64 Z3.5 
G1 Z0 F500
G1 X67.496 Y51.679 Z0 F800
G1 X69.33 Y51.713 Z0 F800
G1 X69.499 Y52.28 Z0 F800
G1 X69.566 Y52.545 Z0 F800
G1 X65.163 Z0 F800
G1 X65.115 Y52.315 Z0 F800
G1 X64.957 Y51.762 Z0 F800
G1 X64.867 Y51.513 Z0 F800
G1 X65.094 Y51.64 Z0 F800
G0 Z3.5 F500
G0 X70.314 Y53.125 Z3.5 
G1 Z0 F500
G1 X64.685 Z0 F800
G1 X64.659 Y52.975 Z0 F800
G1 X64.552 Y52.454 Z0 F800
G1 X64.405 Y51.941 Z0 F800
G1 X64.223 Y51.441 Z0 F800
G1 X64.008 Y50.959 Z0 F800
G1 X64.11 Y50.868 Z0 F800
G1 X64.168 Y50.762 Z0 F800
G1 X64.189 Y50.645 Z0 F800
G1 X64.179 Y50.521 Z0 F800
G1 X64.091 Y50.277 Z0 F800
G1 X63.952 Y50.066 Z0 F800
G1 X64.266 Y50.331 Z0 F800
G1 X64.574 Y50.609 Z0 F800
G1 X64.895 Y50.864 Z0 F800
G1 X65.249 Y51.062 Z0 F800
G1 X67.506 Y51.099 Z0 F800
G1 X69.764 Y51.141 Z0 F800
G1 X70.061 Y52.136 Z0 F800
G1 X70.314 Y53.125 Z0 F800
M9
M5
G1 Z10 F500
G90
G1 Z10 F800
