;LightBurn 1.6.04
;Custom GCode device profile, absolute coords
;Bounds: X4.34 Y4.05 to X47.66 Y47.95
G00 G17 G40 G21 G54
G90
M3
G1 Z10 F500
;Cut @ 444 mm/min, 80% power

M8
G0 Z3.5 F500
G0 X15.878 Y11.391 Z3.5 
G1 Z0 F500
;Layer C3 Pass 1 of 2
G1 X15.813 Z0 S800 F800
G1 X15.231 Y11.65 Z0 F800
G1 X16.266 Y12.557 Z0 F800
G1 X16.434 Y12.147 Z0 F800
G1 X16.534 Y11.893 Z0 F800
G1 X16.636 Y11.621 Z0 F800
G1 X16.731 Y11.355 Z0 F800
G1 X16.805 Y11.119 Z0 F800
G1 X16.849 Y10.938 Z0 F800
G1 X16.829 Y10.799 Z0 F800
G1 X16.735 Y10.673 Z0 F800
G1 X16.591 Y10.563 Z0 F800
G1 X16.42 Y10.469 Z0 F800
G1 X16.247 Y10.393 Z0 F800
G1 X16.094 Y10.337 Z0 F800
G1 X15.943 Y10.291 Z0 F800
G1 X15.89 Y10.303 Z0 F800
G1 X15.749 Y10.339 Z0 F800
G1 X15.547 Y10.4 Z0 F800
G1 X15.312 Y10.485 Z0 F800
G1 X15.07 Y10.594 Z0 F800
G1 X14.85 Y10.728 Z0 F800
G1 X14.679 Y10.885 Z0 F800
G1 X14.583 Y11.068 Z0 F800
G1 X14.513 Y11.286 Z0 F800
G1 X14.407 Y11.539 Z0 F800
G1 X14.281 Y11.807 Z0 F800
G1 X14.146 Y12.071 Z0 F800
G1 X14.018 Y12.31 Z0 F800
G1 X13.91 Y12.506 Z0 F800
G1 X13.806 Y12.686 Z0 F800
G1 X14.065 Y12.767 Z0 F800
G1 X14.339 Y12.85 Z0 F800
G1 X14.664 Y12.945 Z0 F800
G1 X15.008 Y13.04 Z0 F800
G1 X15.336 Y13.123 Z0 F800
G1 X15.616 Y13.182 Z0 F800
G1 X15.813 Y13.204 Z0 F800
G1 X17.367 Z0 F800
G1 X17.495 Y13.238 Z0 F800
G1 X17.592 Y13.331 Z0 F800
G1 X17.661 Y13.47 Z0 F800
G1 X17.707 Y13.641 Z0 F800
G1 X17.749 Y14.023 Z0 F800
G1 X17.755 Y14.369 Z0 F800
G1 X17.789 Y14.561 Z0 F800
G1 X17.877 Y14.826 Z0 F800
G1 X18.001 Y15.134 Z0 F800
G1 X18.144 Y15.454 Z0 F800
G1 X18.287 Y15.755 Z0 F800
G1 X18.461 Y16.107 Z0 F800
G1 X18.532 Y16.247 Z0 F800
G1 X18.662 Y16.318 Z0 F800
G1 X18.805 Y16.393 Z0 F800
G1 X18.985 Y16.481 Z0 F800
G1 X19.406 Y16.656 Z0 F800
G1 X19.827 Y16.765 Z0 F800
G1 X20.031 Y16.814 Z0 F800
G1 X20.248 Y16.903 Z0 F800
G1 X20.464 Y17.018 Z0 F800
G1 X20.669 Y17.145 Z0 F800
G1 X20.849 Y17.268 Z0 F800
G1 X20.992 Y17.374 Z0 F800
G1 X21.122 Y17.477 Z0 F800
G1 X21.64 Y18.642 Z0 F800
G1 X22.158 Y19.419 Z0 F800
G1 X21.963 Y24.468 Z0 F800
;Layer C3 Pass 2 of 2
G1 X22.158 Y19.419 Z0 F800
G1 X21.64 Y18.642 Z0 F800
G1 X21.122 Y17.477 Z0 F800
G1 X20.992 Y17.374 Z0 F800
G1 X20.849 Y17.268 Z0 F800
G1 X20.669 Y17.145 Z0 F800
G1 X20.464 Y17.018 Z0 F800
G1 X20.248 Y16.903 Z0 F800
G1 X20.031 Y16.814 Z0 F800
G1 X19.827 Y16.765 Z0 F800
G1 X19.406 Y16.656 Z0 F800
G1 X18.985 Y16.481 Z0 F800
G1 X18.805 Y16.393 Z0 F800
G1 X18.662 Y16.318 Z0 F800
G1 X18.532 Y16.247 Z0 F800
G1 X18.461 Y16.107 Z0 F800
G1 X18.287 Y15.755 Z0 F800
G1 X18.144 Y15.454 Z0 F800
G1 X18.001 Y15.134 Z0 F800
G1 X17.877 Y14.826 Z0 F800
G1 X17.789 Y14.561 Z0 F800
G1 X17.755 Y14.369 Z0 F800
G1 X17.749 Y14.023 Z0 F800
G1 X17.707 Y13.641 Z0 F800
G1 X17.661 Y13.47 Z0 F800
G1 X17.592 Y13.331 Z0 F800
G1 X17.495 Y13.238 Z0 F800
G1 X17.367 Y13.204 Z0 F800
G1 X15.813 Z0 F800
G1 X15.616 Y13.182 Z0 F800
G1 X15.336 Y13.123 Z0 F800
G1 X15.008 Y13.04 Z0 F800
G1 X14.664 Y12.945 Z0 F800
G1 X14.339 Y12.85 Z0 F800
G1 X14.065 Y12.767 Z0 F800
G1 X13.806 Y12.686 Z0 F800
G1 X13.91 Y12.506 Z0 F800
G1 X14.018 Y12.31 Z0 F800
G1 X14.146 Y12.071 Z0 F800
G1 X14.281 Y11.807 Z0 F800
G1 X14.407 Y11.539 Z0 F800
G1 X14.513 Y11.286 Z0 F800
G1 X14.583 Y11.068 Z0 F800
G1 X14.679 Y10.885 Z0 F800
G1 X14.85 Y10.728 Z0 F800
G1 X15.07 Y10.594 Z0 F800
G1 X15.312 Y10.485 Z0 F800
G1 X15.547 Y10.4 Z0 F800
G1 X15.749 Y10.339 Z0 F800
G1 X15.89 Y10.303 Z0 F800
G1 X15.943 Y10.291 Z0 F800
G1 X16.094 Y10.337 Z0 F800
G1 X16.247 Y10.393 Z0 F800
G1 X16.42 Y10.469 Z0 F800
G1 X16.591 Y10.563 Z0 F800
G1 X16.735 Y10.673 Z0 F800
G1 X16.829 Y10.799 Z0 F800
G1 X16.849 Y10.938 Z0 F800
G1 X16.805 Y11.119 Z0 F800
G1 X16.731 Y11.355 Z0 F800
G1 X16.636 Y11.621 Z0 F800
G1 X16.534 Y11.893 Z0 F800
G1 X16.434 Y12.147 Z0 F800
G1 X16.266 Y12.557 Z0 F800
G1 X15.231 Y11.65 Z0 F800
G1 X15.813 Y11.391 Z0 F800
G1 X15.878 Z0 F800
G0 Z3.5 F500
G0 X27.531 Y24.048 Z3.5 F444
G1 Z0 F500
;Layer C3 Pass 1 of 2
G1 X27.466 Y20.034 Z0 F800
;Layer C3 Pass 2 of 2
G1 X27.531 Y24.048 Z0 F800
G0 Z3.5 F500
G0 X30.023 Y20.034 Z3.5 
G1 Z0 F500
;Layer C3 Pass 1 of 2
G1 X29.797 Y24.145 Z0 F800
;Layer C3 Pass 2 of 2
G1 X30.023 Y20.034 Z0 F800
G0 Z3.5 F500
G0 X32.386 Y23.95 Z3.5 
G1 Z0 F500
;Layer C3 Pass 1 of 2
G1 X32.322 Y19.678 Z0 F800
;Layer C3 Pass 2 of 2
G1 X32.386 Y23.95 Z0 F800
G0 Z3.5 F500
G0 X33.726 Y13.02 Z3.5 
G1 Z0 F500
;Layer C3 Pass 1 of 2
G1 X34.686 Y12.871 Z0 F800
G1 X34.643 Y13.556 Z0 F800
G1 X34.221 Y14.513 Z0 F800
G1 X33.721 Y14.045 Z0 F800
G1 X32.706 Y12.406 Z0 F800
G1 X35.179 Y11.515 Z0 F800
G1 X35.594 Y13.021 Z0 F800
G1 X35.115 Y14.494 Z0 F800
G1 X34.231 Y15.936 Z0 F800
G1 X32.857 Y14.434 Z0 F800
G1 X31.689 Y12.728 Z0 F800
;Layer C3 Pass 2 of 2
G1 X32.857 Y14.434 Z0 F800
G1 X34.231 Y15.936 Z0 F800
G1 X35.115 Y14.494 Z0 F800
G1 X35.594 Y13.021 Z0 F800
G1 X35.179 Y11.515 Z0 F800
G1 X32.706 Y12.406 Z0 F800
G1 X33.721 Y14.045 Z0 F800
G1 X34.221 Y14.513 Z0 F800
G1 X34.643 Y13.556 Z0 F800
G1 X34.686 Y12.871 Z0 F800
G1 X33.726 Y13.02 Z0 F800
G0 Z3.5 F500
G0 X27.078 Y11.521 Z3.5 
G1 Z0 F500
;Layer C3 Pass 1 of 2
G1 X26.99 Y11.496 Z0 F800
G1 X26.89 Y11.464 Z0 F800
G1 X26.762 Y11.42 Z0 F800
G1 X26.45 Y11.289 Z0 F800
G1 X26.107 Y11.1 Z0 F800
G1 X25.933 Y11.012 Z0 F800
G1 X25.757 Y10.962 Z0 F800
G1 X25.583 Y10.941 Z0 F800
G1 X25.419 Z0 F800
G1 X25.27 Y10.957 Z0 F800
G1 X25.142 Y10.977 Z0 F800
G1 X25.041 Y10.995 Z0 F800
G1 X24.974 Y11.003 Z0 F800
G1 X24.44 Y10.922 Z0 F800
G1 X24.003 Y10.841 Z0 F800
G1 X23.55 Y11.521 Z0 F800
G1 X24.557 Y11.658 Z0 F800
G1 X24.939 Y11.714 Z0 F800
G1 X25.284 Y11.767 Z0 F800
G1 X25.548 Y11.812 Z0 F800
G1 X25.635 Y11.83 Z0 F800
G1 X25.686 Y11.844 Z0 F800
G1 X25.79 Y11.884 Z0 F800
G1 X25.968 Y11.948 Z0 F800
G1 X26.197 Y12.026 Z0 F800
G1 X26.459 Y12.111 Z0 F800
G1 X26.731 Y12.193 Z0 F800
G1 X26.992 Y12.263 Z0 F800
G1 X27.223 Y12.312 Z0 F800
G1 X27.401 Y12.33 Z0 F800
G1 X27.544 Y12.292 Z0 F800
G1 X27.677 Y12.19 Z0 F800
G1 X27.797 Y12.041 Z0 F800
G1 X27.903 Y11.865 Z0 F800
G1 X27.991 Y11.677 Z0 F800
G1 X28.057 Y11.497 Z0 F800
G1 X28.099 Y11.342 Z0 F800
G1 X28.114 Y11.229 Z0 F800
G1 X28.058 Y11.012 Z0 F800
G1 X27.936 Y10.756 Z0 F800
G1 X27.87 Y10.639 Z0 F800
G1 X27.758 Y10.453 Z0 F800
G1 X26.807 Y10.274 Z0 F800
G1 X26.441 Y10.209 Z0 F800
G1 X26.105 Y10.152 Z0 F800
G1 X25.84 Y10.112 Z0 F800
G1 X25.746 Y10.1 Z0 F800
G1 X25.686 Y10.096 Z0 F800
G1 X25.459 Y10.13 Z0 F800
G1 X25.156 Y10.218 Z0 F800
G1 X24.835 Y10.342 Z0 F800
G1 X24.553 Y10.485 Z0 F800
G1 X24.391 Y10.563 Z0 F800
G1 X24.164 Y10.649 Z0 F800
G1 X23.894 Y10.738 Z0 F800
G1 X23.602 Y10.825 Z0 F800
G1 X23.312 Y10.906 Z0 F800
G1 X23.046 Y10.977 Z0 F800
G1 X22.827 Y11.032 Z0 F800
G1 X22.676 Y11.068 Z0 F800
G1 X22.438 Y11.173 Z0 F800
G1 X22.186 Y11.355 Z0 F800
G1 X21.952 Y11.555 Z0 F800
G1 X21.769 Y11.715 Z0 F800
G1 X21.72 Y11.788 Z0 F800
G1 X21.713 Y11.879 Z0 F800
G1 X21.735 Y11.981 Z0 F800
G1 X21.777 Y12.083 Z0 F800
G1 X21.829 Y12.178 Z0 F800
G1 X21.878 Y12.257 Z0 F800
G1 X21.931 Y12.33 Z0 F800
G1 X22.574 Y12.225 Z0 F800
G1 X23.119 Y12.139 Z0 F800
G1 X23.582 Y12.071 Z0 F800
G1 X23.93 Y12.075 Z0 F800
G1 X24.233 Y12.152 Z0 F800
G1 X24.47 Y12.253 Z0 F800
G1 X24.618 Y12.33 Z0 F800
G1 X24.652 Y12.396 Z0 F800
G1 X24.662 Y12.529 Z0 F800
G1 X24.654 Y12.707 Z0 F800
G1 X24.634 Y12.904 Z0 F800
G1 X24.608 Y13.099 Z0 F800
G1 X24.581 Y13.268 Z0 F800
G1 X24.553 Y13.43 Z0 F800
G1 X24.535 Y13.629 Z0 F800
G1 X24.514 Y13.84 Z0 F800
G1 X24.484 Y14.094 Z0 F800
G1 X24.447 Y14.366 Z0 F800
G1 X24.403 Y14.632 Z0 F800
G1 X24.352 Y14.868 Z0 F800
G1 X24.294 Y15.049 Z0 F800
G1 X24.221 Y15.39 Z0 F800
G1 X24.217 Y15.761 Z0 F800
G1 X24.229 Y15.926 Z0 F800
G1 X24.244 Y16.059 Z0 F800
G1 X24.262 Y16.182 Z0 F800
G1 X25.168 Y16.538 Z0 F800
G1 X25.649 Y16.291 Z0 F800
G1 X26.056 Y16.087 Z0 F800
G1 X26.398 Y15.923 Z0 F800
G1 X26.546 Y15.89 Z0 F800
G1 X26.715 Y15.905 Z0 F800
G1 X26.892 Y15.954 Z0 F800
G1 X27.066 Y16.024 Z0 F800
G1 X27.222 Y16.101 Z0 F800
G1 X27.349 Y16.173 Z0 F800
G1 X27.466 Y16.247 Z0 F800
G1 X26.992 Y16.325 Z0 F800
G1 X26.706 Y16.376 Z0 F800
G1 X26.407 Y16.433 Z0 F800
G1 X26.128 Y16.492 Z0 F800
G1 X25.899 Y16.55 Z0 F800
G1 X25.751 Y16.603 Z0 F800
G1 X25.635 Y16.627 Z0 F800
G1 X25.487 Y16.612 Z0 F800
G1 X25.312 Y16.567 Z0 F800
G1 X24.704 Y16.375 Z0 F800
G1 X24.294 Y16.311 Z0 F800
G1 X24.133 Y16.331 Z0 F800
G1 X24.03 Y16.388 Z0 F800
G1 X23.974 Y16.473 Z0 F800
G1 X23.954 Y16.582 Z0 F800
G1 X23.975 Y16.844 Z0 F800
G1 X24.003 Y17.121 Z0 F800
G1 X24.024 Y17.269 Z0 F800
G1 X24.08 Y17.441 Z0 F800
G1 X24.161 Y17.627 Z0 F800
G1 X24.258 Y17.816 Z0 F800
G1 X24.358 Y18 Z0 F800
G1 X24.532 Y18.309 Z0 F800
G1 X24.585 Y18.415 Z0 F800
G1 X24.62 Y18.527 Z0 F800
G1 X24.652 Y18.681 Z0 F800
G1 X24.681 Y18.863 Z0 F800
G1 X24.707 Y19.059 Z0 F800
G1 X24.766 Y19.577 Z0 F800
G1 X24.78 Y19.678 Z0 F800
G1 X24.812 Y20.058 Z0 F800
G1 X24.844 Y20.39 Z0 F800
G1 X24.85 Y20.535 Z0 F800
G1 X24.82 Y20.754 Z0 F800
G1 X24.753 Y21.009 Z0 F800
G1 X24.65 Y21.264 Z0 F800
G1 X24.597 Y21.406 Z0 F800
G1 X24.557 Y21.583 Z0 F800
G1 X24.529 Y21.783 Z0 F800
G1 X24.512 Y21.996 Z0 F800
G1 X24.504 Y22.415 Z0 F800
G1 X24.521 Y22.753 Z0 F800
G1 X24.602 Y23.538 Z0 F800
G1 X24.682 Y24.274 Z0 F800
G1 X24.687 Y24.417 Z0 F800
G1 X24.68 Y24.619 Z0 F800
G1 X24.664 Y24.863 Z0 F800
G1 X24.642 Y25.136 Z0 F800
G1 X24.591 Y25.708 Z0 F800
G1 X24.553 Y26.216 Z0 F800
G1 X24.484 Y26.629 Z0 F800
G1 X24.363 Y26.969 Z0 F800
G1 X24.301 Y27.1 Z0 F800
G1 X24.248 Y27.199 Z0 F800
G1 X24.197 Y27.284 Z0 F800
G1 X23.323 Z0 F800
G1 X22.74 Y27.204 Z0 F800
G1 X22.061 Y27.123 Z0 F800
G1 X21.925 Y27.188 Z0 F800
G1 X21.753 Y27.333 Z0 F800
G1 X21.672 Y27.41 Z0 F800
G1 X21.543 Y27.543 Z0 F800
G1 X21.769 Y28.32 Z0 F800
G1 X21.996 Y29.356 Z0 F800
;Layer C3 Pass 2 of 2
G1 X21.769 Y28.32 Z0 F800
G1 X21.543 Y27.543 Z0 F800
G1 X21.672 Y27.41 Z0 F800
G1 X21.753 Y27.333 Z0 F800
G1 X21.925 Y27.188 Z0 F800
G1 X22.061 Y27.123 Z0 F800
G1 X22.74 Y27.204 Z0 F800
G1 X23.323 Y27.284 Z0 F800
G1 X24.197 Z0 F800
G1 X24.248 Y27.199 Z0 F800
G1 X24.301 Y27.1 Z0 F800
G1 X24.363 Y26.969 Z0 F800
G1 X24.484 Y26.629 Z0 F800
G1 X24.553 Y26.216 Z0 F800
G1 X24.591 Y25.708 Z0 F800
G1 X24.642 Y25.136 Z0 F800
G1 X24.664 Y24.863 Z0 F800
G1 X24.68 Y24.619 Z0 F800
G1 X24.687 Y24.417 Z0 F800
G1 X24.682 Y24.274 Z0 F800
G1 X24.602 Y23.538 Z0 F800
G1 X24.521 Y22.753 Z0 F800
G1 X24.504 Y22.415 Z0 F800
G1 X24.512 Y21.996 Z0 F800
G1 X24.529 Y21.783 Z0 F800
G1 X24.557 Y21.583 Z0 F800
G1 X24.597 Y21.406 Z0 F800
G1 X24.65 Y21.264 Z0 F800
G1 X24.753 Y21.009 Z0 F800
G1 X24.82 Y20.754 Z0 F800
G1 X24.85 Y20.535 Z0 F800
G1 X24.844 Y20.39 Z0 F800
G1 X24.812 Y20.058 Z0 F800
G1 X24.78 Y19.678 Z0 F800
G1 X24.766 Y19.577 Z0 F800
G1 X24.707 Y19.059 Z0 F800
G1 X24.681 Y18.863 Z0 F800
G1 X24.652 Y18.681 Z0 F800
G1 X24.62 Y18.527 Z0 F800
G1 X24.585 Y18.415 Z0 F800
G1 X24.532 Y18.309 Z0 F800
G1 X24.358 Y18 Z0 F800
G1 X24.258 Y17.816 Z0 F800
G1 X24.161 Y17.627 Z0 F800
G1 X24.08 Y17.441 Z0 F800
G1 X24.024 Y17.269 Z0 F800
G1 X24.003 Y17.121 Z0 F800
G1 X23.975 Y16.844 Z0 F800
G1 X23.954 Y16.582 Z0 F800
G1 X23.974 Y16.473 Z0 F800
G1 X24.03 Y16.388 Z0 F800
G1 X24.133 Y16.331 Z0 F800
G1 X24.294 Y16.311 Z0 F800
G1 X24.704 Y16.375 Z0 F800
G1 X25.312 Y16.567 Z0 F800
G1 X25.487 Y16.612 Z0 F800
G1 X25.635 Y16.627 Z0 F800
G1 X25.751 Y16.603 Z0 F800
G1 X25.899 Y16.55 Z0 F800
G1 X26.128 Y16.492 Z0 F800
G1 X26.407 Y16.433 Z0 F800
G1 X26.706 Y16.376 Z0 F800
G1 X26.992 Y16.325 Z0 F800
G1 X27.466 Y16.247 Z0 F800
G1 X27.349 Y16.173 Z0 F800
G1 X27.222 Y16.101 Z0 F800
G1 X27.066 Y16.024 Z0 F800
G1 X26.892 Y15.954 Z0 F800
G1 X26.715 Y15.905 Z0 F800
G1 X26.546 Y15.89 Z0 F800
G1 X26.398 Y15.923 Z0 F800
G1 X26.056 Y16.087 Z0 F800
G1 X25.649 Y16.291 Z0 F800
G1 X25.168 Y16.538 Z0 F800
G1 X24.262 Y16.182 Z0 F800
G1 X24.244 Y16.059 Z0 F800
G1 X24.229 Y15.926 Z0 F800
G1 X24.217 Y15.761 Z0 F800
G1 X24.221 Y15.39 Z0 F800
G1 X24.294 Y15.049 Z0 F800
G1 X24.352 Y14.868 Z0 F800
G1 X24.403 Y14.632 Z0 F800
G1 X24.447 Y14.366 Z0 F800
G1 X24.484 Y14.094 Z0 F800
G1 X24.514 Y13.84 Z0 F800
G1 X24.535 Y13.629 Z0 F800
G1 X24.553 Y13.43 Z0 F800
G1 X24.581 Y13.268 Z0 F800
G1 X24.608 Y13.099 Z0 F800
G1 X24.634 Y12.904 Z0 F800
G1 X24.654 Y12.707 Z0 F800
G1 X24.662 Y12.529 Z0 F800
G1 X24.652 Y12.396 Z0 F800
G1 X24.618 Y12.33 Z0 F800
G1 X24.47 Y12.253 Z0 F800
G1 X24.233 Y12.152 Z0 F800
G1 X23.93 Y12.075 Z0 F800
G1 X23.582 Y12.071 Z0 F800
G1 X23.119 Y12.139 Z0 F800
G1 X22.574 Y12.225 Z0 F800
G1 X21.931 Y12.33 Z0 F800
G1 X21.878 Y12.257 Z0 F800
G1 X21.829 Y12.178 Z0 F800
G1 X21.777 Y12.083 Z0 F800
G1 X21.735 Y11.981 Z0 F800
G1 X21.713 Y11.879 Z0 F800
G1 X21.72 Y11.788 Z0 F800
G1 X21.769 Y11.715 Z0 F800
G1 X21.952 Y11.555 Z0 F800
G1 X22.186 Y11.355 Z0 F800
G1 X22.438 Y11.173 Z0 F800
G1 X22.676 Y11.068 Z0 F800
G1 X22.827 Y11.032 Z0 F800
G1 X23.046 Y10.977 Z0 F800
G1 X23.312 Y10.906 Z0 F800
G1 X23.602 Y10.825 Z0 F800
G1 X23.894 Y10.738 Z0 F800
G1 X24.164 Y10.649 Z0 F800
G1 X24.391 Y10.563 Z0 F800
G1 X24.553 Y10.485 Z0 F800
G1 X24.835 Y10.342 Z0 F800
G1 X25.156 Y10.218 Z0 F800
G1 X25.459 Y10.13 Z0 F800
G1 X25.686 Y10.096 Z0 F800
G1 X25.746 Y10.1 Z0 F800
G1 X25.84 Y10.112 Z0 F800
G1 X26.105 Y10.152 Z0 F800
G1 X26.441 Y10.209 Z0 F800
G1 X26.807 Y10.274 Z0 F800
G1 X27.758 Y10.453 Z0 F800
G1 X27.87 Y10.639 Z0 F800
G1 X27.936 Y10.756 Z0 F800
G1 X28.058 Y11.012 Z0 F800
G1 X28.114 Y11.229 Z0 F800
G1 X28.099 Y11.342 Z0 F800
G1 X28.057 Y11.497 Z0 F800
G1 X27.991 Y11.677 Z0 F800
G1 X27.903 Y11.865 Z0 F800
G1 X27.797 Y12.041 Z0 F800
G1 X27.677 Y12.19 Z0 F800
G1 X27.544 Y12.292 Z0 F800
G1 X27.401 Y12.33 Z0 F800
G1 X27.223 Y12.312 Z0 F800
G1 X26.992 Y12.263 Z0 F800
G1 X26.731 Y12.193 Z0 F800
G1 X26.459 Y12.111 Z0 F800
G1 X26.197 Y12.026 Z0 F800
G1 X25.968 Y11.948 Z0 F800
G1 X25.79 Y11.884 Z0 F800
G1 X25.686 Y11.844 Z0 F800
G1 X25.635 Y11.83 Z0 F800
G1 X25.548 Y11.812 Z0 F800
G1 X25.284 Y11.767 Z0 F800
G1 X24.939 Y11.714 Z0 F800
G1 X24.557 Y11.658 Z0 F800
G1 X23.55 Y11.521 Z0 F800
G1 X24.003 Y10.841 Z0 F800
G1 X24.44 Y10.922 Z0 F800
G1 X24.974 Y11.003 Z0 F800
G1 X25.041 Y10.995 Z0 F800
G1 X25.142 Y10.977 Z0 F800
G1 X25.27 Y10.957 Z0 F800
G1 X25.419 Y10.942 Z0 F800
G1 X25.583 Z0 F800
G1 X25.757 Y10.962 Z0 F800
G1 X25.933 Y11.012 Z0 F800
G1 X26.107 Y11.1 Z0 F800
G1 X26.45 Y11.289 Z0 F800
G1 X26.762 Y11.42 Z0 F800
G1 X26.89 Y11.464 Z0 F800
G1 X26.99 Y11.496 Z0 F800
G1 X27.078 Y11.521 Z0 F800
G0 Z3.5 F500
G0 X22.002 Y29.186 Z3.5 
G1 Z0 F500
;Layer C3 Pass 1 of 2
G1 X21.865 Y34.313 Z0 F800
;Layer C3 Pass 2 of 2
G1 X22.002 Y29.186 Z0 F800
G0 Z3.5 F500
G0 X21.956 Y34.176 Z3.5 
G1 Z0 F500
;Layer C3 Pass 1 of 2
G1 X21.911 Y31.429 Z0 F800
G1 X22.185 Y29.918 Z0 F800
G1 X21.865 Y28.225 Z0 F800
;Layer C3 Pass 2 of 2
G1 X22.185 Y29.918 Z0 F800
G1 X21.911 Y31.429 Z0 F800
G1 X21.956 Y34.176 Z0 F800
G0 Z3.5 F500
G0 X24.52 Y29.918 Z3.5 
G1 Z0 F500
;Layer C3 Pass 1 of 2
G1 X24.611 Y32.573 Z0 F800
G1 X24.52 Y34.725 Z0 F800
G1 X24.515 Y34.956 Z0 F800
G1 X24.503 Y35.196 Z0 F800
G1 X24.48 Y35.475 Z0 F800
G1 X24.442 Y35.76 Z0 F800
G1 X24.385 Y36.019 Z0 F800
G1 X24.305 Y36.219 Z0 F800
G1 X24.199 Y36.327 Z0 F800
G1 X24.046 Y36.396 Z0 F800
G1 X23.843 Y36.492 Z0 F800
G1 X23.37 Y36.722 Z0 F800
G1 X22.78 Y37.014 Z0 F800
G1 X20.995 Y36.785 Z0 F800
G1 X19.53 Y37.197 Z0 F800
G1 X18.844 Y37.975 Z0 F800
G1 X18.798 Y39.12 Z0 F800
G1 X20.585 Y39.707 Z0 F800
G1 X18.798 Y39.989 Z0 F800
G1 X19.329 Y41.27 Z0 F800
G1 X18.02 Y39.669 Z0 F800
G1 X17.623 Y41.426 Z0 F800
G1 X17.425 Y39.532 Z0 F800
G1 X16.327 Y40.61 Z0 F800
G1 X17.791 Y39.028 Z0 F800
G1 X16.072 Y38.295 Z0 F800
G1 X18.157 Y38.708 Z0 F800
G1 X18.065 Y37.197 Z0 F800
G1 X18.981 Y36.922 Z0 F800
;Layer C3 Pass 2 of 2
G1 X18.065 Y37.197 Z0 F800
G1 X18.157 Y38.708 Z0 F800
G1 X16.072 Y38.295 Z0 F800
G1 X17.791 Y39.028 Z0 F800
G1 X16.327 Y40.61 Z0 F800
G1 X17.425 Y39.532 Z0 F800
G1 X17.623 Y41.426 Z0 F800
G1 X18.02 Y39.669 Z0 F800
G1 X19.329 Y41.27 Z0 F800
G1 X18.798 Y39.989 Z0 F800
G1 X20.585 Y39.707 Z0 F800
G1 X18.798 Y39.12 Z0 F800
G1 X18.844 Y37.975 Z0 F800
G1 X19.53 Y37.197 Z0 F800
G1 X20.995 Y36.785 Z0 F800
G1 X22.78 Y37.014 Z0 F800
G1 X23.37 Y36.722 Z0 F800
G1 X23.843 Y36.492 Z0 F800
G1 X24.046 Y36.396 Z0 F800
G1 X24.199 Y36.327 Z0 F800
G1 X24.305 Y36.219 Z0 F800
G1 X24.385 Y36.019 Z0 F800
G1 X24.442 Y35.76 Z0 F800
G1 X24.48 Y35.475 Z0 F800
G1 X24.503 Y35.196 Z0 F800
G1 X24.515 Y34.956 Z0 F800
G1 X24.52 Y34.725 Z0 F800
G1 X24.611 Y32.573 Z0 F800
G1 X24.52 Y29.918 Z0 F800
G0 Z3.5 F500
G0 X12.285 Y37.416 Z3.5 
G1 Z0 F500
;Layer C3 Pass 1 of 2
G1 X12.373 Y37.591 Z0 F800
G1 X12.467 Y37.766 Z0 F800
G1 X12.58 Y37.961 Z0 F800
G1 X12.701 Y38.148 Z0 F800
G1 X12.82 Y38.296 Z0 F800
G1 X12.926 Y38.378 Z0 F800
G1 X13.008 Y38.365 Z0 F800
G1 X13.154 Y38.208 Z0 F800
G1 X13.292 Y38.053 Z0 F800
G1 X13.407 Y37.913 Z0 F800
G1 X13.483 Y37.804 Z0 F800
G1 X13.503 Y37.668 Z0 F800
G1 X13.477 Y37.451 Z0 F800
G1 X13.417 Y37.183 Z0 F800
G1 X13.337 Y36.894 Z0 F800
G1 X13.251 Y36.616 Z0 F800
G1 X13.141 Y36.287 Z0 F800
G1 X13.094 Y36.154 Z0 F800
G1 X12.888 Y36.228 Z0 F800
G1 X12.671 Y36.311 Z0 F800
G1 X12.415 Y36.413 Z0 F800
G1 X12.146 Y36.527 Z0 F800
G1 X11.893 Y36.645 Z0 F800
G1 X11.682 Y36.761 Z0 F800
G1 X11.541 Y36.866 Z0 F800
G1 X11.472 Y36.991 Z0 F800
G1 X11.453 Y37.164 Z0 F800
G1 X11.473 Y37.37 Z0 F800
G1 X11.52 Y37.598 Z0 F800
G1 X11.767 Y38.452 Z0 F800
G1 X11.814 Y38.584 Z0 F800
G1 X11.878 Y38.674 Z0 F800
G1 X11.952 Y38.734 Z0 F800
G1 X12.026 Y38.775 Z0 F800
G1 X12.095 Y38.811 Z0 F800
G1 X12.15 Y38.852 Z0 F800
G1 X12.183 Y38.912 Z0 F800
G1 X12.188 Y39.002 Z0 F800
G1 X12.163 Y39.148 Z0 F800
G1 X12.114 Y39.358 Z0 F800
G1 X12.046 Y39.617 Z0 F800
G1 X11.961 Y39.908 Z0 F800
G1 X11.76 Y40.532 Z0 F800
G1 X11.541 Y41.106 Z0 F800
G1 X11.427 Y41.345 Z0 F800
G1 X11.309 Y41.552 Z0 F800
G1 X11.189 Y41.731 Z0 F800
G1 X11.071 Y41.883 Z0 F800
G1 X10.858 Y42.117 Z0 F800
G1 X10.699 Y42.271 Z0 F800
G1 X10.254 Y42.85 Z0 F800
G1 X9.76 Y43.501 Z0 F800
G1 X9.609 Y43.744 Z0 F800
G1 X9.497 Y44.056 Z0 F800
G1 X9.428 Y44.398 Z0 F800
G1 X9.404 Y44.731 Z0 F800
G1 X9.438 Y45.093 Z0 F800
G1 X9.505 Y45.512 Z0 F800
G1 X9.554 Y45.938 Z0 F800
G1 X9.534 Y46.317 Z0 F800
G1 X9.488 Y46.756 Z0 F800
G1 X9.481 Y47.28 Z0 F800
G1 X9.486 Y47.521 Z0 F800
G1 X9.501 Y47.904 Z0 F800
;Layer C3 Pass 2 of 2
G1 X9.486 Y47.521 Z0 F800
G1 X9.481 Y47.28 Z0 F800
G1 X9.488 Y46.756 Z0 F800
G1 X9.534 Y46.317 Z0 F800
G1 X9.554 Y45.938 Z0 F800
G1 X9.505 Y45.512 Z0 F800
G1 X9.438 Y45.093 Z0 F800
G1 X9.404 Y44.731 Z0 F800
G1 X9.428 Y44.398 Z0 F800
G1 X9.497 Y44.056 Z0 F800
G1 X9.609 Y43.744 Z0 F800
G1 X9.76 Y43.501 Z0 F800
G1 X10.254 Y42.85 Z0 F800
G1 X10.699 Y42.271 Z0 F800
G1 X10.858 Y42.117 Z0 F800
G1 X11.071 Y41.883 Z0 F800
G1 X11.189 Y41.731 Z0 F800
G1 X11.309 Y41.552 Z0 F800
G1 X11.427 Y41.345 Z0 F800
G1 X11.541 Y41.106 Z0 F800
G1 X11.76 Y40.532 Z0 F800
G1 X11.961 Y39.908 Z0 F800
G1 X12.046 Y39.617 Z0 F800
G1 X12.114 Y39.358 Z0 F800
G1 X12.163 Y39.148 Z0 F800
G1 X12.188 Y39.002 Z0 F800
G1 X12.183 Y38.912 Z0 F800
G1 X12.15 Y38.852 Z0 F800
G1 X12.095 Y38.811 Z0 F800
G1 X12.026 Y38.775 Z0 F800
G1 X11.952 Y38.734 Z0 F800
G1 X11.878 Y38.674 Z0 F800
G1 X11.814 Y38.584 Z0 F800
G1 X11.767 Y38.452 Z0 F800
G1 X11.52 Y37.598 Z0 F800
G1 X11.473 Y37.37 Z0 F800
G1 X11.453 Y37.164 Z0 F800
G1 X11.472 Y36.991 Z0 F800
G1 X11.541 Y36.866 Z0 F800
G1 X11.682 Y36.761 Z0 F800
G1 X11.893 Y36.645 Z0 F800
G1 X12.146 Y36.527 Z0 F800
G1 X12.415 Y36.413 Z0 F800
G1 X12.671 Y36.311 Z0 F800
G1 X12.888 Y36.228 Z0 F800
G1 X13.094 Y36.154 Z0 F800
G1 X13.141 Y36.287 Z0 F800
G1 X13.251 Y36.616 Z0 F800
G1 X13.337 Y36.894 Z0 F800
G1 X13.417 Y37.183 Z0 F800
G1 X13.477 Y37.451 Z0 F800
G1 X13.503 Y37.668 Z0 F800
G1 X13.483 Y37.804 Z0 F800
G1 X13.407 Y37.913 Z0 F800
G1 X13.292 Y38.053 Z0 F800
G1 X13.154 Y38.208 Z0 F800
G1 X13.008 Y38.365 Z0 F800
G1 X12.926 Y38.378 Z0 F800
G1 X12.82 Y38.296 Z0 F800
G1 X12.701 Y38.148 Z0 F800
G1 X12.58 Y37.961 Z0 F800
G1 X12.467 Y37.766 Z0 F800
G1 X12.373 Y37.591 Z0 F800
G1 X12.285 Y37.416 Z0 F800
G0 Z3.5 F500
G0 X7.397 Y47.871 Z3.5 
G1 Z0 F500
;Layer C3 Pass 1 of 2
G1 X7.353 Y46.848 Z0 F800
G1 X7.339 Y46.45 Z0 F800
G1 X7.329 Y46.082 Z0 F800
G1 X7.326 Y45.786 Z0 F800
G1 Y45.679 Z0 F800
G1 X7.333 Y45.605 Z0 F800
G1 X7.396 Y45.056 Z0 F800
G1 X7.422 Y44.812 Z0 F800
G1 X7.46 Y44.322 Z0 F800
G1 Y43.922 Z0 F800
G1 X7.443 Y43.723 Z0 F800
G1 X7.413 Y43.461 Z0 F800
G1 X7.337 Y42.858 Z0 F800
G1 X7.235 Y42.109 Z0 F800
G1 X7.192 Y41.931 Z0 F800
G1 X7.15 Y41.748 Z0 F800
G1 X7.106 Y41.535 Z0 F800
G1 X7.068 Y41.319 Z0 F800
G1 X7.044 Y41.126 Z0 F800
G1 Y40.982 Z0 F800
G1 X7.074 Y40.912 Z0 F800
G1 X7.235 Y40.878 Z0 F800
G1 X7.49 Y40.859 Z0 F800
G1 X7.788 Y40.834 Z0 F800
G1 X8.077 Y40.782 Z0 F800
G1 X8.399 Y40.662 Z0 F800
G1 X8.761 Y40.475 Z0 F800
G1 X8.923 Y40.37 Z0 F800
G1 X9.056 Y40.263 Z0 F800
G1 X9.145 Y40.162 Z0 F800
G1 X9.178 Y40.07 Z0 F800
G1 X9.188 Y39.963 Z0 F800
G1 X9.215 Y39.819 Z0 F800
G1 X9.249 Y39.65 Z0 F800
G1 X9.283 Y39.467 Z0 F800
G1 X9.307 Y39.283 Z0 F800
G1 X9.314 Y39.11 Z0 F800
G1 X9.295 Y38.958 Z0 F800
G1 X9.242 Y38.84 Z0 F800
G1 X9.138 Y38.745 Z0 F800
G1 X8.981 Y38.656 Z0 F800
G1 X8.792 Y38.576 Z0 F800
G1 X8.587 Y38.508 Z0 F800
G1 X8.385 Y38.456 Z0 F800
G1 X8.205 Y38.421 Z0 F800
G1 X8.063 Y38.408 Z0 F800
G1 X7.98 Y38.419 Z0 F800
G1 X7.62 Y38.634 Z0 F800
G1 X7.235 Y38.873 Z0 F800
G1 X7.146 Y38.942 Z0 F800
G1 X7.01 Y39.065 Z0 F800
G1 X6.847 Y39.222 Z0 F800
G1 X6.673 Y39.395 Z0 F800
G1 X6.366 Y39.706 Z0 F800
G1 X6.232 Y39.844 Z0 F800
G1 X6.371 Y39.889 Z0 F800
G1 X6.685 Y39.985 Z0 F800
G1 X6.861 Y40.035 Z0 F800
G1 X7.024 Y40.076 Z0 F800
G1 X7.155 Y40.101 Z0 F800
G1 X7.235 Z0 F800
G1 X7.305 Y40.071 Z0 F800
G1 X7.406 Y40.008 Z0 F800
G1 X7.528 Y39.924 Z0 F800
G1 X7.656 Y39.831 Z0 F800
G1 X7.882 Y39.661 Z0 F800
G1 X7.98 Y39.585 Z0 F800
G1 X8.271 Y39.293 Z0 F800
;Layer C3 Pass 2 of 2
G1 X7.98 Y39.585 Z0 F800
G1 X7.882 Y39.661 Z0 F800
G1 X7.656 Y39.831 Z0 F800
G1 X7.528 Y39.924 Z0 F800
G1 X7.406 Y40.008 Z0 F800
G1 X7.305 Y40.071 Z0 F800
G1 X7.235 Y40.103 Z0 F800
G1 X7.155 Z0 F800
G1 X7.024 Y40.076 Z0 F800
G1 X6.861 Y40.035 Z0 F800
G1 X6.685 Y39.985 Z0 F800
G1 X6.371 Y39.889 Z0 F800
G1 X6.232 Y39.844 Z0 F800
G1 X6.366 Y39.706 Z0 F800
G1 X6.673 Y39.395 Z0 F800
G1 X6.847 Y39.222 Z0 F800
G1 X7.01 Y39.065 Z0 F800
G1 X7.146 Y38.942 Z0 F800
G1 X7.235 Y38.873 Z0 F800
G1 X7.62 Y38.634 Z0 F800
G1 X7.98 Y38.419 Z0 F800
G1 X8.063 Y38.408 Z0 F800
G1 X8.205 Y38.421 Z0 F800
G1 X8.385 Y38.456 Z0 F800
G1 X8.587 Y38.508 Z0 F800
G1 X8.792 Y38.576 Z0 F800
G1 X8.981 Y38.656 Z0 F800
G1 X9.138 Y38.745 Z0 F800
G1 X9.242 Y38.84 Z0 F800
G1 X9.295 Y38.958 Z0 F800
G1 X9.314 Y39.11 Z0 F800
G1 X9.307 Y39.283 Z0 F800
G1 X9.283 Y39.467 Z0 F800
G1 X9.249 Y39.65 Z0 F800
G1 X9.215 Y39.819 Z0 F800
G1 X9.188 Y39.963 Z0 F800
G1 X9.178 Y40.07 Z0 F800
G1 X9.145 Y40.162 Z0 F800
G1 X9.056 Y40.263 Z0 F800
G1 X8.923 Y40.37 Z0 F800
G1 X8.761 Y40.475 Z0 F800
G1 X8.399 Y40.662 Z0 F800
G1 X8.077 Y40.782 Z0 F800
G1 X7.788 Y40.834 Z0 F800
G1 X7.49 Y40.859 Z0 F800
G1 X7.235 Y40.878 Z0 F800
G1 X7.074 Y40.912 Z0 F800
G1 X7.043 Y40.982 Z0 F800
G1 Y41.126 Z0 F800
G1 X7.068 Y41.319 Z0 F800
G1 X7.106 Y41.535 Z0 F800
G1 X7.15 Y41.748 Z0 F800
G1 X7.192 Y41.931 Z0 F800
G1 X7.235 Y42.109 Z0 F800
G1 X7.337 Y42.858 Z0 F800
G1 X7.413 Y43.461 Z0 F800
G1 X7.443 Y43.723 Z0 F800
G1 X7.462 Y43.922 Z0 F800
G1 Y44.322 Z0 F800
G1 X7.422 Y44.812 Z0 F800
G1 X7.396 Y45.056 Z0 F800
G1 X7.333 Y45.605 Z0 F800
G1 X7.328 Y45.679 Z0 F800
G1 Y45.786 Z0 F800
G1 Y46.082 Z0 F800
G1 X7.339 Y46.45 Z0 F800
G1 X7.353 Y46.848 Z0 F800
G1 X7.397 Y47.871 Z0 F800
G0 Z3.5 F500
G0 X13.463 Y30.126 Z3.5 
G1 Z0 F500
;Layer C3 Pass 1 of 2
G1 X13.062 Y27.061 Z0 F800
G1 X12.818 Y27.446 Z0 F800
G1 X12.827 Y30.989 Z0 F800
G1 X12.35 Y31.222 Z0 F800
G1 X12.275 Y29.582 Z0 F800
G1 X12.252 Y27.858 Z0 F800
G1 X11.84 Y26.577 Z0 F800
G1 X11.519 Y30.285 Z0 F800
G1 X11.657 Y33.077 Z0 F800
G1 X12.435 Y33.123 Z0 F800
G1 X13.076 Y32.161 Z0 F800
G1 X14.266 Y30.697 Z0 F800
G1 X15.914 Y30.239 Z0 F800
G1 X17.928 Y30.376 Z0 F800
G1 X19.118 Y29.552 Z0 F800
G1 Y34.267 Z0 F800
G1 X19.805 Y34.038 Z0 F800
G1 X19.439 Y30.468 Z0 F800
G1 X19.713 Y28.911 Z0 F800
G1 X19.393 Y27.813 Z0 F800
G1 X19.347 Y27.63 Z0 F800
G1 X19.622 Y26.531 Z0 F800
G1 X19.484 Y25.02 Z0 F800
G1 Y19.71 Z0 F800
;Layer C3 Pass 2 of 2
G1 Y25.02 Z0 F800
G1 X19.622 Y26.531 Z0 F800
G1 X19.347 Y27.63 Z0 F800
G1 X19.393 Y27.813 Z0 F800
G1 X19.713 Y28.911 Z0 F800
G1 X19.439 Y30.468 Z0 F800
G1 X19.805 Y34.038 Z0 F800
G1 X19.118 Y34.267 Z0 F800
G1 Y29.552 Z0 F800
G1 X17.928 Y30.376 Z0 F800
G1 X15.914 Y30.239 Z0 F800
G1 X14.266 Y30.697 Z0 F800
G1 X13.076 Y32.161 Z0 F800
G1 X12.435 Y33.123 Z0 F800
G1 X11.657 Y33.077 Z0 F800
G1 X11.519 Y30.285 Z0 F800
G1 X11.84 Y26.577 Z0 F800
G1 X12.252 Y27.858 Z0 F800
G1 X12.275 Y29.582 Z0 F800
G1 X12.35 Y31.222 Z0 F800
G1 X12.827 Y30.989 Z0 F800
G1 X12.818 Y27.446 Z0 F800
G1 X13.062 Y27.061 Z0 F800
G1 X13.463 Y30.126 Z0 F800
G0 Z3.5 F500
G0 X27.221 Y29.69 Z3.5 
G1 Z0 F500
;Layer C3 Pass 1 of 2
G1 X27.358 Y32.894 Z0 F800
G1 X27.083 Y34.771 Z0 F800
G1 X27.495 Y36.007 Z0 F800
G1 X27.707 Y36.63 Z0 F800
G1 X27.837 Y37.03 Z0 F800
G1 X28.024 Y37.667 Z0 F800
G1 X28.36 Y38.753 Z0 F800
G1 X28.471 Y39.128 Z0 F800
G1 X28.56 Y39.455 Z0 F800
G1 X28.592 Y39.59 Z0 F800
G1 X28.615 Y39.701 Z0 F800
G1 X28.625 Y39.784 Z0 F800
G1 X28.622 Y39.834 Z0 F800
G1 X28.136 Y41.363 Z0 F800
G1 X26.671 Y41.5 Z0 F800
G1 X26.541 Y41.39 Z0 F800
G1 X26.225 Y41.115 Z0 F800
G1 X25.966 Y40.88 Z0 F800
G1 X25.708 Y40.632 Z0 F800
G1 X25.482 Y40.395 Z0 F800
G1 X25.392 Y40.289 Z0 F800
G1 X25.322 Y40.194 Z0 F800
G1 X25.277 Y40.115 Z0 F800
G1 X25.262 Y40.053 Z0 F800
G1 Y39.957 Z0 F800
G1 X25.265 Y39.793 Z0 F800
G1 X25.275 Y39.583 Z0 F800
G1 X25.298 Y39.352 Z0 F800
G1 X25.337 Y39.124 Z0 F800
G1 X25.398 Y38.923 Z0 F800
G1 X25.484 Y38.772 Z0 F800
G1 X25.6 Y38.697 Z0 F800
G1 X26.219 Y38.567 Z0 F800
G1 X26.722 Y38.458 Z0 F800
G1 X26.934 Y38.408 Z0 F800
G1 X27.091 Y38.365 Z0 F800
G1 X27.17 Y38.334 Z0 F800
G1 X27.206 Y38.347 Z0 F800
G1 X27.235 Y38.435 Z0 F800
G1 X27.258 Y38.587 Z0 F800
G1 X27.276 Y38.791 Z0 F800
G1 X27.298 Y39.304 Z0 F800
G1 X27.307 Y39.876 Z0 F800
G1 X27.297 Y39.973 Z0 F800
G1 X27.268 Y40.049 Z0 F800
G1 X27.221 Y40.106 Z0 F800
G1 X27.161 Y40.146 Z0 F800
G1 X27.01 Y40.182 Z0 F800
G1 X26.836 Y40.174 Z0 F800
G1 X26.662 Y40.139 Z0 F800
G1 X26.511 Y40.093 Z0 F800
G1 X26.403 Y40.054 Z0 F800
G1 X26.362 Y40.037 Z0 F800
;Layer C3 Pass 2 of 2
G1 X26.403 Y40.054 Z0 F800
G1 X26.511 Y40.093 Z0 F800
G1 X26.662 Y40.139 Z0 F800
G1 X26.836 Y40.174 Z0 F800
G1 X27.01 Y40.182 Z0 F800
G1 X27.161 Y40.146 Z0 F800
G1 X27.221 Y40.106 Z0 F800
G1 X27.268 Y40.049 Z0 F800
G1 X27.297 Y39.973 Z0 F800
G1 X27.307 Y39.876 Z0 F800
G1 X27.298 Y39.304 Z0 F800
G1 X27.276 Y38.791 Z0 F800
G1 X27.258 Y38.587 Z0 F800
G1 X27.235 Y38.435 Z0 F800
G1 X27.206 Y38.347 Z0 F800
G1 X27.17 Y38.334 Z0 F800
G1 X27.091 Y38.365 Z0 F800
G1 X26.934 Y38.408 Z0 F800
G1 X26.722 Y38.458 Z0 F800
G1 X26.219 Y38.567 Z0 F800
G1 X25.6 Y38.697 Z0 F800
G1 X25.484 Y38.772 Z0 F800
G1 X25.398 Y38.923 Z0 F800
G1 X25.337 Y39.124 Z0 F800
G1 X25.298 Y39.352 Z0 F800
G1 X25.275 Y39.583 Z0 F800
G1 X25.265 Y39.793 Z0 F800
G1 X25.262 Y39.957 Z0 F800
G1 Y40.053 Z0 F800
G1 X25.277 Y40.115 Z0 F800
G1 X25.322 Y40.194 Z0 F800
G1 X25.392 Y40.289 Z0 F800
G1 X25.482 Y40.395 Z0 F800
G1 X25.708 Y40.632 Z0 F800
G1 X25.966 Y40.88 Z0 F800
G1 X26.225 Y41.115 Z0 F800
G1 X26.541 Y41.39 Z0 F800
G1 X26.671 Y41.5 Z0 F800
G1 X28.136 Y41.363 Z0 F800
G1 X28.622 Y39.834 Z0 F800
G1 X28.625 Y39.784 Z0 F800
G1 X28.615 Y39.701 Z0 F800
G1 X28.592 Y39.59 Z0 F800
G1 X28.56 Y39.455 Z0 F800
G1 X28.471 Y39.128 Z0 F800
G1 X28.36 Y38.753 Z0 F800
G1 X28.024 Y37.667 Z0 F800
G1 X27.837 Y37.03 Z0 F800
G1 X27.707 Y36.63 Z0 F800
G1 X27.495 Y36.007 Z0 F800
G1 X27.083 Y34.771 Z0 F800
G1 X27.358 Y32.894 Z0 F800
G1 X27.221 Y29.69 Z0 F800
G0 Z3.5 F500
G0 X29.967 Y35.045 Z3.5 
G1 Z0 F500
;Layer C3 Pass 1 of 2
G1 X29.784 Y34.405 Z0 F800
G1 X29.555 Y30.513 Z0 F800
;Layer C3 Pass 2 of 2
G1 X29.784 Y34.405 Z0 F800
G1 X29.967 Y35.045 Z0 F800
G0 Z3.5 F500
G0 X32.394 Y30.605 Z3.5 
G1 Z0 F500
;Layer C3 Pass 1 of 2
G1 X32.165 Y33.26 Z0 F800
G1 X32.302 Y34.862 Z0 F800
;Layer C3 Pass 2 of 2
G1 X32.165 Y33.26 Z0 F800
G1 X32.394 Y30.605 Z0 F800
G0 Z3.5 F500
G0 X34.682 Y35.045 Z3.5 
G1 Z0 F500
;Layer C3 Pass 1 of 2
G1 X34.741 Y34.705 Z0 F800
G1 X34.877 Y33.935 Z0 F800
G1 X34.955 Y33.508 Z0 F800
G1 X35.03 Y33.114 Z0 F800
G1 X35.094 Y32.802 Z0 F800
G1 X35.12 Y32.692 Z0 F800
G1 X35.14 Y32.619 Z0 F800
G1 X35.156 Y32.55 Z0 F800
G1 X35.168 Y32.448 Z0 F800
G1 X35.178 Y32.319 Z0 F800
G1 X35.186 Y32.167 Z0 F800
G1 X35.195 Y31.818 Z0 F800
G1 Y31.44 Z0 F800
G1 Y31.076 Z0 F800
G1 X35.186 Y30.468 Z0 F800
;Layer C3 Pass 2 of 2
G1 X35.196 Y31.076 Z0 F800
G1 Y31.44 Z0 F800
G1 Y31.818 Z0 F800
G1 X35.186 Y32.167 Z0 F800
G1 X35.178 Y32.319 Z0 F800
G1 X35.168 Y32.448 Z0 F800
G1 X35.156 Y32.55 Z0 F800
G1 X35.14 Y32.619 Z0 F800
G1 X35.12 Y32.692 Z0 F800
G1 X35.094 Y32.802 Z0 F800
G1 X35.03 Y33.114 Z0 F800
G1 X34.955 Y33.508 Z0 F800
G1 X34.877 Y33.935 Z0 F800
G1 X34.741 Y34.705 Z0 F800
G1 X34.682 Y35.045 Z0 F800
G0 Z3.5 F500
G0 X37.63 Y41.009 Z3.5 
G1 Z0 F500
;Layer C3 Pass 1 of 2
G1 X37.902 Y40.672 Z0 F800
G1 X38.152 Y40.277 Z0 F800
G1 X38.255 Y40.096 Z0 F800
G1 X38.336 Y39.948 Z0 F800
G1 X38.407 Y39.811 Z0 F800
G1 X38.277 Y38.743 Z0 F800
G1 X38.147 Y38.671 Z0 F800
G1 X38.021 Y38.595 Z0 F800
G1 X37.889 Y38.504 Z0 F800
G1 X37.775 Y38.41 Z0 F800
G1 X37.704 Y38.32 Z0 F800
G1 X37.701 Y38.244 Z0 F800
G1 X37.792 Y38.193 Z0 F800
G1 X37.969 Y38.166 Z0 F800
G1 X38.194 Y38.157 Z0 F800
G1 X38.444 Y38.16 Z0 F800
G1 X38.698 Y38.173 Z0 F800
G1 X38.934 Y38.189 Z0 F800
G1 X39.13 Y38.207 Z0 F800
G1 X39.313 Y38.225 Z0 F800
G1 X39.532 Y38.451 Z0 F800
G1 X39.661 Y38.589 Z0 F800
G1 X39.794 Y38.737 Z0 F800
G1 X39.914 Y38.881 Z0 F800
G1 X40.007 Y39.006 Z0 F800
G1 X40.058 Y39.099 Z0 F800
G1 X40.113 Y39.26 Z0 F800
G1 X40.187 Y39.435 Z0 F800
G1 X40.285 Y39.604 Z0 F800
G1 X40.414 Y39.747 Z0 F800
G1 X40.521 Y39.786 Z0 F800
G1 X40.683 Y39.79 Z0 F800
G1 X40.878 Y39.766 Z0 F800
G1 X41.085 Y39.726 Z0 F800
G1 X41.284 Y39.679 Z0 F800
G1 X41.452 Y39.633 Z0 F800
G1 X41.611 Y39.585 Z0 F800
G1 X41.662 Y39.615 Z0 F800
G1 X41.745 Y39.702 Z0 F800
G1 X41.768 Y39.766 Z0 F800
G1 X41.762 Y39.844 Z0 F800
G1 X41.714 Y39.935 Z0 F800
G1 X41.611 Y40.038 Z0 F800
G1 X41.325 Y40.291 Z0 F800
G1 X41.041 Y40.584 Z0 F800
G1 X40.92 Y40.731 Z0 F800
G1 X40.824 Y40.871 Z0 F800
G1 X40.76 Y40.998 Z0 F800
G1 X40.738 Y41.106 Z0 F800
G1 X40.711 Y41.342 Z0 F800
G1 X40.624 Y41.608 Z0 F800
G1 X40.554 Y41.728 Z0 F800
G1 X40.464 Y41.825 Z0 F800
G1 X40.353 Y41.891 Z0 F800
G1 X40.22 Y41.915 Z0 F800
G1 X39.853 Y41.875 Z0 F800
G1 X39.427 Y41.786 Z0 F800
G1 X39.232 Y41.738 Z0 F800
G1 X39.073 Y41.697 Z0 F800
G1 X38.925 Y41.656 Z0 F800
G1 X38.277 Y41.138 Z0 F800
G1 X38.345 Y41.075 Z0 F800
G1 X38.504 Y40.92 Z0 F800
G1 X38.687 Y40.729 Z0 F800
G1 X38.828 Y40.556 Z0 F800
G1 X38.876 Y40.451 Z0 F800
G1 X38.923 Y40.297 Z0 F800
G1 X38.967 Y40.112 Z0 F800
G1 X39.006 Y39.916 Z0 F800
G1 X39.039 Y39.73 Z0 F800
G1 X39.064 Y39.573 Z0 F800
G1 X39.087 Y39.423 Z0 F800
G1 X39.637 Y40.167 Z0 F800
G1 X39.831 Y41.041 Z0 F800
G1 X39.184 Y41.106 Z0 F800
G1 X39.119 Y41.009 Z0 F800
;Layer C3 Pass 2 of 2
G1 X39.184 Y41.106 Z0 F800
G1 X39.831 Y41.041 Z0 F800
G1 X39.637 Y40.167 Z0 F800
G1 X39.087 Y39.423 Z0 F800
G1 X39.064 Y39.573 Z0 F800
G1 X39.039 Y39.73 Z0 F800
G1 X39.006 Y39.916 Z0 F800
G1 X38.967 Y40.112 Z0 F800
G1 X38.923 Y40.297 Z0 F800
G1 X38.876 Y40.451 Z0 F800
G1 X38.828 Y40.556 Z0 F800
G1 X38.687 Y40.729 Z0 F800
G1 X38.504 Y40.92 Z0 F800
G1 X38.345 Y41.075 Z0 F800
G1 X38.277 Y41.138 Z0 F800
G1 X38.925 Y41.656 Z0 F800
G1 X39.073 Y41.697 Z0 F800
G1 X39.232 Y41.738 Z0 F800
G1 X39.427 Y41.786 Z0 F800
G1 X39.853 Y41.875 Z0 F800
G1 X40.22 Y41.915 Z0 F800
G1 X40.353 Y41.891 Z0 F800
G1 X40.464 Y41.825 Z0 F800
G1 X40.554 Y41.728 Z0 F800
G1 X40.624 Y41.608 Z0 F800
G1 X40.711 Y41.342 Z0 F800
G1 X40.738 Y41.106 Z0 F800
G1 X40.76 Y40.998 Z0 F800
G1 X40.824 Y40.871 Z0 F800
G1 X40.92 Y40.731 Z0 F800
G1 X41.041 Y40.584 Z0 F800
G1 X41.325 Y40.291 Z0 F800
G1 X41.611 Y40.038 Z0 F800
G1 X41.714 Y39.935 Z0 F800
G1 X41.762 Y39.844 Z0 F800
G1 X41.768 Y39.766 Z0 F800
G1 X41.745 Y39.702 Z0 F800
G1 X41.662 Y39.615 Z0 F800
G1 X41.611 Y39.585 Z0 F800
G1 X41.452 Y39.633 Z0 F800
G1 X41.284 Y39.679 Z0 F800
G1 X41.085 Y39.726 Z0 F800
G1 X40.878 Y39.766 Z0 F800
G1 X40.683 Y39.79 Z0 F800
G1 X40.521 Y39.786 Z0 F800
G1 X40.414 Y39.747 Z0 F800
G1 X40.285 Y39.604 Z0 F800
G1 X40.187 Y39.435 Z0 F800
G1 X40.113 Y39.26 Z0 F800
G1 X40.058 Y39.099 Z0 F800
G1 X40.007 Y39.006 Z0 F800
G1 X39.914 Y38.881 Z0 F800
G1 X39.794 Y38.737 Z0 F800
G1 X39.661 Y38.589 Z0 F800
G1 X39.532 Y38.451 Z0 F800
G1 X39.313 Y38.225 Z0 F800
G1 X39.13 Y38.207 Z0 F800
G1 X38.934 Y38.189 Z0 F800
G1 X38.698 Y38.173 Z0 F800
G1 X38.444 Y38.16 Z0 F800
G1 X38.194 Y38.157 Z0 F800
G1 X37.969 Y38.166 Z0 F800
G1 X37.792 Y38.193 Z0 F800
G1 X37.701 Y38.244 Z0 F800
G1 X37.704 Y38.32 Z0 F800
G1 X37.775 Y38.41 Z0 F800
G1 X37.889 Y38.504 Z0 F800
G1 X38.021 Y38.595 Z0 F800
G1 X38.147 Y38.671 Z0 F800
G1 X38.277 Y38.743 Z0 F800
G1 X38.407 Y39.811 Z0 F800
G1 X38.336 Y39.948 Z0 F800
G1 X38.255 Y40.096 Z0 F800
G1 X38.152 Y40.277 Z0 F800
G1 X37.902 Y40.672 Z0 F800
G1 X37.63 Y41.009 Z0 F800
;Offset @ 555 mm/min, 90% power

M8
G0 Z3.5 F500
G0 X22.224 Y42.136 Z3.5 
G1 Z0 F500
;Layer C1 Pass 1 of 2
G1 X22.167 Y42.162 Z0 S900 F800
G1 X22.043 Y42.145 Z0 F800
G1 X22.124 Y42.131 Z0 F800
G1 X22.209 Y42.106 Z0 F800
G1 X22.298 Y42.084 Z0 F800
G1 X22.224 Y42.136 Z0 F800
;Layer C1 Pass 2 of 2
G1 X22.167 Y42.162 Z0 F800
G1 X22.043 Y42.145 Z0 F800
G1 X22.124 Y42.131 Z0 F800
G1 X22.209 Y42.106 Z0 F800
G1 X22.298 Y42.084 Z0 F800
G1 X22.224 Y42.136 Z0 F800
G0 Z3.5 F500
G0 X18.329 Y44.657 Z3.5 F555
G1 Z0 F500
;Layer C1 Pass 1 of 2
G1 X18.271 Y44.664 Z0 F800
G1 X18.186 Y44.667 Z0 F800
G1 X18.115 Y44.676 Z0 F800
G1 X18.214 Y44.653 Z0 F800
G1 X18.32 Y44.639 Z0 F800
G1 X18.329 Y44.657 Z0 F800
;Layer C1 Pass 2 of 2
G1 X18.271 Y44.664 Z0 F800
G1 X18.186 Y44.667 Z0 F800
G1 X18.115 Y44.676 Z0 F800
G1 X18.214 Y44.653 Z0 F800
G1 X18.32 Y44.639 Z0 F800
G1 X18.329 Y44.657 Z0 F800
G0 Z3.5 F500
G0 X35.779 Y24.217 Z3.5 
G1 Z0 F500
;Layer C1 Pass 1 of 2
G1 X35.677 Z0 F800
G1 X35.635 Y24.212 Z0 F800
G1 X35.639 Y24.209 Z0 F800
G1 X35.671 Y24.206 Z0 F800
G1 X35.761 Z0 F800
G1 X35.779 Y24.217 Z0 F800
;Layer C1 Pass 2 of 2
G1 X35.677 Z0 F800
G1 X35.635 Y24.212 Z0 F800
G1 X35.639 Y24.209 Z0 F800
G1 X35.671 Y24.206 Z0 F800
G1 X35.761 Z0 F800
G1 X35.779 Y24.217 Z0 F800
G0 Z3.5 F500
G0 X38.021 Y20.494 Z3.5 
G1 Z0 F500
;Layer C1 Pass 1 of 2
G1 X38.004 Y20.508 Z0 F800
G1 X37.984 Y20.521 Z0 F800
G1 X38.032 Y20.441 Z0 F800
G1 X38.072 Y20.355 Z0 F800
G1 X38.021 Y20.494 Z0 F800
;Layer C1 Pass 2 of 2
G1 X38.004 Y20.508 Z0 F800
G1 X37.984 Y20.521 Z0 F800
G1 X38.032 Y20.441 Z0 F800
G1 X38.072 Y20.355 Z0 F800
G1 X38.021 Y20.494 Z0 F800
G0 Z3.5 F500
G0 X42.608 Y26.353 Z3.5 
G1 Z0 F500
;Layer C1 Pass 1 of 2
G1 X42.378 Y26.017 Z0 F800
G1 X42.504 Y25.499 Z0 F800
G1 X42.607 Y24.798 Z0 F800
G1 Y26.353 Z0 F800
G0 Z3.5 F500
G0 X42.57 Y27.183 Z3.5 
G1 Z0 F500
G1 X41.883 Y26.178 Z0 F800
G1 X41.836 Y26.13 Z0 F800
G1 X42.013 Y25.403 Z0 F800
G1 X42.126 Y24.631 Z0 F800
G1 X42.174 Y23.78 Z0 F800
G1 X42.13 Y23.147 Z0 F800
G1 X42.715 Y22.146 Z0 F800
G1 X43.029 Y21.135 Z0 F800
G1 X43.111 Y20.425 Z0 F800
G1 X43.107 Y23.734 Z0 F800
G1 Y28.294 Z0 F800
G1 X43.078 Y28.201 Z0 F800
G1 X42.57 Y27.183 Z0 F800
G0 Z3.5 F500
G0 X8.874 Y19.966 Z3.5 
G1 Z0 F500
G1 X8.847 Y19.981 Z0 F800
G1 Y19.948 Z0 F800
G1 X8.874 Y19.966 Z0 F800
G0 Z3.5 F500
G0 X9.575 Y20.145 Z3.5 
G1 Z0 F500
G1 X8.938 Y20.504 Z0 F800
G1 X8.465 Y20.758 Z0 F800
G1 X8.384 Y20.819 Z0 F800
G1 X8.349 Y20.808 Z0 F800
G1 X8.346 Y18.838 Z0 F800
G1 X8.908 Y19.375 Z0 F800
G1 X9.555 Y19.841 Z0 F800
G1 X9.888 Y20.024 Z0 F800
G1 X9.575 Y20.145 Z0 F800
G0 Z3.5 F500
G0 X7.849 Y21.172 Z3.5 
G1 Z0 F500
G1 X7.843 Y17.351 Z0 F800
G1 X7.968 Y17.57 Z0 F800
G1 X8.329 Y18.02 Z0 F800
G1 X8.651 Y18.438 Z0 F800
G1 X9.229 Y18.99 Z0 F800
G1 X9.822 Y19.417 Z0 F800
G1 X10.461 Y19.77 Z0 F800
G1 X10.671 Y19.85 Z0 F800
G1 X10.675 Y19.855 Z0 F800
G1 X11.046 Y20.167 Z0 F800
G1 X10.652 Y20.266 Z0 F800
G1 X9.789 Y20.599 Z0 F800
G1 X9.185 Y20.939 Z0 F800
G1 X8.736 Y21.18 Z0 F800
G1 X8.479 Y21.375 Z0 F800
G1 X7.849 Y21.172 Z0 F800
G0 Z3.5 F500
G0 X42.589 Y16.521 Z3.5 
G1 Z0 F500
G1 X42.623 Y16.471 Z0 F800
G1 X43.035 Y15.686 Z0 F800
G1 X43.116 Y15.439 Z0 F800
G1 X43.111 Y19.827 Z0 F800
G1 X43.094 Y19.423 Z0 F800
G1 X43.009 Y19.035 Z0 F800
G1 X42.973 Y18.669 Z0 F800
G1 X42.858 Y17.858 Z0 F800
G1 X42.713 Y17.079 Z0 F800
G1 X42.589 Y16.521 Z0 F800
G0 Z3.5 F500
G0 X42.379 Y8.86 Z3.5 
G1 Z0 F500
G1 X42.339 Y8.552 Z0 F800
G1 X43.119 Z0 F800
G1 Y10.868 Z0 F800
G1 X42.766 Y9.802 Z0 F800
G1 X42.408 Y8.928 Z0 F800
G1 X42.379 Y8.86 Z0 F800
G0 Z3.5 F500
G0 X41.643 Y8.053 Z3.5 
G1 Z0 F500
G1 X43.62 Z0 F800
G1 Y14.205 Z0 F800
G1 X43.607 Y23.735 Z0 F800
G1 Y30.072 Z0 F800
G1 X43.033 Y29.886 Z0 F800
G1 X42.941 Y29.865 Z0 F800
G1 X42.875 Y29.19 Z0 F800
G1 X42.614 Y28.392 Z0 F800
G1 X42.138 Y27.437 Z0 F800
G1 X41.493 Y26.494 Z0 F800
G1 X41.268 Y26.258 Z0 F800
G1 X41.347 Y26.029 Z0 F800
G1 X41.522 Y25.308 Z0 F800
G1 X41.629 Y24.581 Z0 F800
G1 X41.673 Y23.783 Z0 F800
G1 X41.627 Y23.123 Z0 F800
G1 X41.596 Y22.994 Z0 F800
G1 X41.704 Y22.884 Z0 F800
G1 X42.255 Y21.943 Z0 F800
G1 X42.538 Y21.032 Z0 F800
G1 X42.628 Y20.239 Z0 F800
G1 X42.596 Y19.488 Z0 F800
G1 X42.513 Y19.11 Z0 F800
G1 X42.477 Y18.729 Z0 F800
G1 X42.364 Y17.939 Z0 F800
G1 X42.223 Y17.178 Z0 F800
G1 X42.056 Y16.425 Z0 F800
G1 X42.191 Y16.218 Z0 F800
G1 X42.573 Y15.491 Z0 F800
G1 X42.877 Y14.563 Z0 F800
G1 X42.994 Y13.847 Z0 F800
G1 X43.022 Y13.155 Z0 F800
G1 X42.951 Y12.406 Z0 F800
G1 X42.853 Y12.01 Z0 F800
G1 X42.657 Y11.065 Z0 F800
G1 X42.296 Y9.976 Z0 F800
G1 X41.947 Y9.121 Z0 F800
G1 X41.893 Y8.994 Z0 F800
G1 X41.84 Y8.591 Z0 F800
G1 X41.643 Y8.053 Z0 F800
G0 Z3.5 F500
G0 X40.836 Y7.553 Z3.5 
G1 Z0 F500
G1 X44.12 Z0 F800
G1 Y14.205 Z0 F800
G1 X44.107 Y23.735 Z0 F800
G1 Y30.815 Z0 F800
G1 X43.543 Y30.576 Z0 F800
G1 X42.9 Y30.368 Z0 F800
G1 X42.454 Y30.265 Z0 F800
G1 X42.467 Y30.153 Z0 F800
G1 X42.383 Y29.293 Z0 F800
G1 X42.15 Y28.582 Z0 F800
G1 X41.706 Y27.691 Z0 F800
G1 X41.103 Y26.81 Z0 F800
G1 X40.696 Y26.383 Z0 F800
G1 X40.866 Y25.889 Z0 F800
G1 X41.031 Y25.212 Z0 F800
G1 X41.131 Y24.53 Z0 F800
G1 X41.172 Y23.787 Z0 F800
G1 X41.131 Y23.199 Z0 F800
G1 X41.045 Y22.841 Z0 F800
G1 X41.304 Y22.578 Z0 F800
G1 X41.794 Y21.74 Z0 F800
G1 X42.046 Y20.928 Z0 F800
G1 X42.127 Y20.221 Z0 F800
G1 X42.099 Y19.553 Z0 F800
G1 X42.019 Y19.189 Z0 F800
G1 X41.98 Y18.788 Z0 F800
G1 X41.871 Y18.02 Z0 F800
G1 X41.733 Y17.278 Z0 F800
G1 X41.538 Y16.398 Z0 F800
G1 X41.516 Y16.337 Z0 F800
G1 X41.759 Y15.964 Z0 F800
G1 X42.111 Y15.295 Z0 F800
G1 X42.39 Y14.445 Z0 F800
G1 X42.496 Y13.796 Z0 F800
G1 X42.521 Y13.169 Z0 F800
G1 X42.457 Y12.49 Z0 F800
G1 X42.364 Y12.117 Z0 F800
G1 X42.173 Y11.195 Z0 F800
G1 X41.827 Y10.149 Z0 F800
G1 X41.486 Y9.313 Z0 F800
G1 X41.406 Y9.125 Z0 F800
G1 X41.351 Y8.711 Z0 F800
G1 X41.048 Y7.881 Z0 F800
G1 X40.836 Y7.553 Z0 F800
G0 Z3.5 F500
G0 X39.782 Y7.053 Z3.5 
G1 Z0 F500
G1 X44.62 Z0 F800
G1 Y14.206 Z0 F800
G1 X44.607 Y23.735 Z0 F800
G1 X44.61 Y31.652 Z0 F800
G1 X44.543 Y31.607 Z0 F800
G1 X43.962 Y31.295 Z0 F800
G1 X43.369 Y31.045 Z0 F800
G1 X42.767 Y30.851 Z0 F800
G1 X42.158 Y30.71 Z0 F800
G1 X41.903 Y30.674 Z0 F800
G1 X41.964 Y30.148 Z0 F800
G1 X41.891 Y29.396 Z0 F800
G1 X41.687 Y28.772 Z0 F800
G1 X41.274 Y27.945 Z0 F800
G1 X40.713 Y27.125 Z0 F800
G1 X40.203 Y26.591 Z0 F800
G1 X40.106 Y26.515 Z0 F800
G1 X40.173 Y26.368 Z0 F800
G1 X40.386 Y25.748 Z0 F800
G1 X40.539 Y25.117 Z0 F800
G1 X40.633 Y24.479 Z0 F800
G1 X40.671 Y23.79 Z0 F800
G1 X40.636 Y23.276 Z0 F800
G1 X40.512 Y22.759 Z0 F800
G1 X40.487 Y22.696 Z0 F800
G1 X40.904 Y22.272 Z0 F800
G1 X41.334 Y21.537 Z0 F800
G1 X41.555 Y20.825 Z0 F800
G1 X41.626 Y20.204 Z0 F800
G1 X41.601 Y19.618 Z0 F800
G1 X41.524 Y19.268 Z0 F800
G1 X41.483 Y18.847 Z0 F800
G1 X41.377 Y18.101 Z0 F800
G1 X41.243 Y17.378 Z0 F800
G1 X41.056 Y16.538 Z0 F800
G1 X40.97 Y16.298 Z0 F800
G1 X41.039 Y16.15 Z0 F800
G1 X41.087 Y16.08 Z0 F800
G1 X41.328 Y15.711 Z0 F800
G1 X41.649 Y15.099 Z0 F800
G1 X41.903 Y14.326 Z0 F800
G1 X41.998 Y13.746 Z0 F800
G1 X42.021 Y13.183 Z0 F800
G1 X41.962 Y12.575 Z0 F800
G1 X41.878 Y12.234 Z0 F800
G1 X41.689 Y11.325 Z0 F800
G1 X41.358 Y10.322 Z0 F800
G1 X41.024 Y9.506 Z0 F800
G1 X40.919 Y9.26 Z0 F800
G1 X40.863 Y8.832 Z0 F800
G1 X40.597 Y8.106 Z0 F800
G1 X40.161 Y7.43 Z0 F800
G1 X39.782 Y7.053 Z0 F800
G0 Z3.5 F500
G0 X38.68 Y6.896 Z3.5 
G1 Z0 F500
G1 X37.996 Y6.677 Z0 F800
G1 X37.39 Y6.636 Z0 F800
G1 X36.374 Y6.719 Z0 F800
G1 X35.578 Y6.813 Z0 F800
G1 X34.991 Y6.871 Z0 F800
G1 X34.497 Y6.88 Z0 F800
G1 X33.565 Y6.869 Z0 F800
G1 X32.794 Y6.855 Z0 F800
G1 X32.244 Y6.816 Z0 F800
G1 X31.938 Y6.62 Z0 F800
G1 X31.775 Y6.554 Z0 F800
G1 X37.193 Z0 F800
G1 X45.12 Y6.551 Z0 F800
G1 Y14.206 Z0 F800
G1 X45.107 Y23.735 Z0 F800
G1 X45.11 Y32.635 Z0 F800
G1 X44.805 Y32.383 Z0 F800
G1 X44.286 Y32.037 Z0 F800
G1 X43.747 Y31.747 Z0 F800
G1 X43.194 Y31.514 Z0 F800
G1 X42.634 Y31.333 Z0 F800
G1 X42.066 Y31.202 Z0 F800
G1 X41.497 Y31.12 Z0 F800
G1 X41.275 Y31.106 Z0 F800
G1 X41.386 Y30.789 Z0 F800
G1 X41.461 Y30.144 Z0 F800
G1 X41.398 Y29.5 Z0 F800
G1 X41.223 Y28.962 Z0 F800
G1 X40.842 Y28.199 Z0 F800
G1 X40.324 Y27.441 Z0 F800
G1 X39.866 Y26.962 Z0 F800
G1 X39.488 Y26.665 Z0 F800
G1 X39.708 Y26.183 Z0 F800
G1 X39.905 Y25.607 Z0 F800
G1 X40.048 Y25.021 Z0 F800
G1 X40.135 Y24.429 Z0 F800
G1 X40.17 Y23.793 Z0 F800
G1 X40.14 Y23.352 Z0 F800
G1 X40.033 Y22.909 Z0 F800
G1 X39.893 Y22.549 Z0 F800
G1 X39.989 Y22.488 Z0 F800
G1 X40.504 Y21.965 Z0 F800
G1 X40.874 Y21.334 Z0 F800
G1 X41.063 Y20.721 Z0 F800
G1 X41.125 Y20.186 Z0 F800
G1 X41.103 Y19.682 Z0 F800
G1 X41.029 Y19.345 Z0 F800
G1 X40.987 Y18.906 Z0 F800
G1 X40.884 Y18.182 Z0 F800
G1 X40.753 Y17.478 Z0 F800
G1 X40.575 Y16.677 Z0 F800
G1 X40.43 Y16.274 Z0 F800
G1 X40.571 Y15.971 Z0 F800
G1 X40.583 Y15.931 Z0 F800
G1 X40.671 Y15.802 Z0 F800
G1 X40.896 Y15.458 Z0 F800
G1 X41.187 Y14.904 Z0 F800
G1 X41.416 Y14.207 Z0 F800
G1 X41.499 Y13.695 Z0 F800
G1 X41.52 Y13.196 Z0 F800
G1 X41.468 Y12.659 Z0 F800
G1 X41.39 Y12.341 Z0 F800
G1 X41.206 Y11.454 Z0 F800
G1 X40.889 Y10.496 Z0 F800
G1 X40.563 Y9.699 Z0 F800
G1 X40.432 Y9.393 Z0 F800
G1 X40.374 Y8.951 Z0 F800
G1 X40.147 Y8.33 Z0 F800
G1 X39.77 Y7.746 Z0 F800
G1 X39.286 Y7.265 Z0 F800
G1 X38.68 Y6.896 Z0 F800
G0 Z3.5 F500
G0 X37.193 Y6.054 Z3.5 
G1 Z0 F500
G1 X45.62 Y6.051 Z0 F800
G1 Y14.207 Z0 F800
G1 X45.607 Y23.735 Z0 F800
G1 X45.61 Y33.269 Z0 F800
G1 X45.613 Y33.914 Z0 F800
G1 X45.116 Y33.318 Z0 F800
G1 X44.95 Y33.151 Z0 F800
G1 X44.506 Y32.785 Z0 F800
G1 X44.028 Y32.466 Z0 F800
G1 X43.531 Y32.199 Z0 F800
G1 X43.02 Y31.983 Z0 F800
G1 X42.5 Y31.815 Z0 F800
G1 X41.974 Y31.694 Z0 F800
G1 X41.445 Y31.618 Z0 F800
G1 X40.812 Y31.578 Z0 F800
G1 X40.608 Y31.604 Z0 F800
G1 X40.621 Y31.5 Z0 F800
G1 X40.648 Y31.362 Z0 F800
G1 X40.677 Y31.262 Z0 F800
G1 X40.77 Y31.038 Z0 F800
G1 X40.896 Y30.676 Z0 F800
G1 X40.958 Y30.139 Z0 F800
G1 X40.906 Y29.603 Z0 F800
G1 X40.759 Y29.153 Z0 F800
G1 X40.41 Y28.453 Z0 F800
G1 X39.934 Y27.757 Z0 F800
G1 X39.529 Y27.333 Z0 F800
G1 X39.063 Y26.966 Z0 F800
G1 X38.821 Y26.834 Z0 F800
G1 X39.006 Y26.517 Z0 F800
G1 X39.243 Y25.998 Z0 F800
G1 X39.425 Y25.467 Z0 F800
G1 X39.557 Y24.925 Z0 F800
G1 X39.637 Y24.379 Z0 F800
G1 X39.669 Y23.797 Z0 F800
G1 X39.644 Y23.428 Z0 F800
G1 X39.555 Y23.059 Z0 F800
G1 X39.3 Y22.404 Z0 F800
G1 X39.27 Y22.351 Z0 F800
G1 X39.673 Y22.097 Z0 F800
G1 X40.104 Y21.659 Z0 F800
G1 X40.413 Y21.131 Z0 F800
G1 X40.572 Y20.618 Z0 F800
G1 X40.624 Y20.168 Z0 F800
G1 X40.605 Y19.747 Z0 F800
G1 X40.534 Y19.422 Z0 F800
G1 X40.49 Y18.966 Z0 F800
G1 X40.39 Y18.263 Z0 F800
G1 X40.263 Y17.578 Z0 F800
G1 X40.094 Y16.817 Z0 F800
G1 X39.939 Y16.387 Z0 F800
G1 X39.87 Y16.278 Z0 F800
G1 X39.896 Y16.237 Z0 F800
G1 X40.103 Y15.792 Z0 F800
G1 X40.126 Y15.713 Z0 F800
G1 X40.255 Y15.524 Z0 F800
G1 X40.464 Y15.204 Z0 F800
G1 X40.725 Y14.708 Z0 F800
G1 X40.928 Y14.088 Z0 F800
G1 X41 Y13.645 Z0 F800
G1 X41.019 Y13.21 Z0 F800
G1 X40.974 Y12.743 Z0 F800
G1 X40.901 Y12.45 Z0 F800
G1 X40.722 Y11.584 Z0 F800
G1 X40.419 Y10.669 Z0 F800
G1 X40.102 Y9.891 Z0 F800
G1 X39.939 Y9.511 Z0 F800
G1 Y9.463 Z0 F800
G1 X39.886 Y9.071 Z0 F800
G1 X39.696 Y8.554 Z0 F800
G1 X39.379 Y8.063 Z0 F800
G1 X38.975 Y7.661 Z0 F800
G1 X38.471 Y7.354 Z0 F800
G1 X37.901 Y7.172 Z0 F800
G1 X37.394 Y7.138 Z0 F800
G1 X36.423 Y7.217 Z0 F800
G1 X35.636 Y7.31 Z0 F800
G1 X35.018 Y7.37 Z0 F800
G1 X34.499 Y7.38 Z0 F800
G1 X33.56 Y7.369 Z0 F800
G1 X32.769 Y7.354 Z0 F800
G1 X32.092 Y7.308 Z0 F800
G1 X32.08 Y7.305 Z0 F800
G1 X31.707 Y7.066 Z0 F800
G1 X31.233 Y6.874 Z0 F800
G1 X30.719 Y6.786 Z0 F800
G1 X30.364 Y6.794 Z0 F800
G1 X30.268 Y6.734 Z0 F800
G1 X30.161 Y6.481 Z0 F800
G1 X29.834 Y6.054 Z0 F800
G1 X37.193 Z0 F800
G0 Z3.5 F500
G0 X46.12 Y5.551 Z3.5 
G1 Z0 F500
G1 Y14.208 Z0 F800
G1 X46.107 Y23.736 Z0 F800
G1 X46.11 Y33.268 Z0 F800
G1 X46.119 Y35.431 Z0 F800
G1 X46.057 Y35.332 Z0 F800
G1 X45.434 Y34.479 Z0 F800
G1 X44.747 Y33.655 Z0 F800
G1 X44.613 Y33.522 Z0 F800
G1 X44.208 Y33.187 Z0 F800
G1 X43.771 Y32.895 Z0 F800
G1 X43.315 Y32.65 Z0 F800
G1 X42.846 Y32.453 Z0 F800
G1 X42.367 Y32.298 Z0 F800
G1 X41.882 Y32.186 Z0 F800
G1 X41.394 Y32.116 Z0 F800
G1 X40.828 Y32.08 Z0 F800
G1 X40.332 Y32.142 Z0 F800
G1 X40.086 Y32.25 Z0 F800
G1 X40.083 Y32.142 Z0 F800
G1 X40.103 Y31.609 Z0 F800
G1 X40.126 Y31.422 Z0 F800
G1 X40.161 Y31.246 Z0 F800
G1 X40.204 Y31.099 Z0 F800
G1 X40.302 Y30.859 Z0 F800
G1 X40.406 Y30.564 Z0 F800
G1 X40.456 Y30.134 Z0 F800
G1 X40.414 Y29.706 Z0 F800
G1 X40.295 Y29.343 Z0 F800
G1 X39.978 Y28.707 Z0 F800
G1 X39.544 Y28.073 Z0 F800
G1 X39.192 Y27.704 Z0 F800
G1 X38.786 Y27.385 Z0 F800
G1 X38.298 Y27.117 Z0 F800
G1 X38.077 Y27.043 Z0 F800
G1 X38.295 Y26.744 Z0 F800
G1 X38.562 Y26.287 Z0 F800
G1 X38.777 Y25.813 Z0 F800
G1 X38.944 Y25.326 Z0 F800
G1 X39.065 Y24.83 Z0 F800
G1 X39.139 Y24.329 Z0 F800
G1 X39.168 Y23.8 Z0 F800
G1 X39.148 Y23.504 Z0 F800
G1 X39.077 Y23.209 Z0 F800
G1 X38.848 Y22.621 Z0 F800
G1 X38.602 Y22.191 Z0 F800
G1 X38.646 Y22.154 Z0 F800
G1 X38.756 Y22.029 Z0 F800
G1 X38.989 Y21.938 Z0 F800
G1 X39.357 Y21.705 Z0 F800
G1 X39.704 Y21.353 Z0 F800
G1 X39.952 Y20.928 Z0 F800
G1 X40.081 Y20.514 Z0 F800
G1 X40.123 Y20.15 Z0 F800
G1 X40.108 Y19.812 Z0 F800
G1 X40.04 Y19.503 Z0 F800
G1 X39.994 Y19.025 Z0 F800
G1 X39.896 Y18.343 Z0 F800
G1 X39.773 Y17.678 Z0 F800
G1 X39.613 Y16.957 Z0 F800
G1 X39.488 Y16.609 Z0 F800
G1 X39.277 Y16.278 Z0 F800
G1 X39.456 Y15.997 Z0 F800
G1 X39.634 Y15.613 Z0 F800
G1 X39.668 Y15.5 Z0 F800
G1 X39.696 Y15.457 Z0 F800
G1 X39.839 Y15.247 Z0 F800
G1 X40.033 Y14.95 Z0 F800
G1 X40.263 Y14.512 Z0 F800
G1 X40.441 Y13.969 Z0 F800
G1 X40.502 Y13.594 Z0 F800
G1 X40.518 Y13.223 Z0 F800
G1 X40.479 Y12.828 Z0 F800
G1 X40.413 Y12.557 Z0 F800
G1 X40.238 Y11.713 Z0 F800
G1 X39.95 Y10.842 Z0 F800
G1 X39.64 Y10.084 Z0 F800
G1 X39.443 Y9.622 Z0 F800
G1 X39.438 Y9.506 Z0 F800
G1 X39.397 Y9.191 Z0 F800
G1 X39.246 Y8.778 Z0 F800
G1 X38.988 Y8.379 Z0 F800
G1 X38.665 Y8.057 Z0 F800
G1 X38.262 Y7.812 Z0 F800
G1 X37.807 Y7.667 Z0 F800
G1 X37.397 Y7.639 Z0 F800
G1 X36.473 Y7.714 Z0 F800
G1 X35.694 Y7.806 Z0 F800
G1 X35.046 Y7.87 Z0 F800
G1 X34.5 Y7.88 Z0 F800
G1 X33.554 Y7.869 Z0 F800
G1 X32.754 Y7.854 Z0 F800
G1 X32.027 Y7.804 Z0 F800
G1 X31.855 Y7.774 Z0 F800
G1 X31.777 Y7.706 Z0 F800
G1 X31.476 Y7.512 Z0 F800
G1 X31.095 Y7.358 Z0 F800
G1 X30.682 Y7.287 Z0 F800
G1 X30.307 Y7.295 Z0 F800
G1 X30.243 Y7.308 Z0 F800
G1 X29.978 Y7.143 Z0 F800
G1 X29.873 Y7.083 Z0 F800
G1 X29.725 Y6.734 Z0 F800
G1 X29.419 Y6.334 Z0 F800
G1 X29.049 Y6.045 Z0 F800
G1 X28.508 Y5.776 Z0 F800
G1 X27.992 Y5.612 Z0 F800
G1 X27.653 Y5.554 Z0 F800
G1 X37.193 Z0 F800
G1 X46.12 Y5.551 Z0 F800
G0 Z3.5 F500
G0 X8.768 Y7.596 Z3.5 
G1 Z0 F500
G1 X8.583 Y8.069 Z0 F800
G1 X8.442 Y8.343 Z0 F800
G1 X8.207 Y8.975 Z0 F800
G1 X8.17 Y9.128 Z0 F800
G1 X7.964 Y9.657 Z0 F800
G1 X7.864 Y9.897 Z0 F800
G1 X7.894 Y7.599 Z0 F800
G1 X8.768 Y7.596 Z0 F800
G0 Z3.5 F500
G0 X9.5 Y7.093 Z3.5 
G1 Z0 F500
G1 X9.039 Y8.276 Z0 F800
G1 X8.9 Y8.545 Z0 F800
G1 X8.686 Y9.12 Z0 F800
G1 X8.649 Y9.277 Z0 F800
G1 X8.432 Y9.834 Z0 F800
G1 X8.06 Y10.728 Z0 F800
G1 X7.838 Y11.371 Z0 F800
G1 X7.649 Y12.101 Z0 F800
G1 X7.524 Y12.932 Z0 F800
G1 X7.491 Y14.332 Z0 F800
G1 X7.582 Y15.28 Z0 F800
G1 X7.748 Y15.959 Z0 F800
G1 X8.005 Y16.622 Z0 F800
G1 X8.383 Y17.289 Z0 F800
G1 X8.718 Y17.705 Z0 F800
G1 X9.024 Y18.103 Z0 F800
G1 X9.549 Y18.604 Z0 F800
G1 X10.09 Y18.994 Z0 F800
G1 X10.671 Y19.315 Z0 F800
G1 X10.979 Y19.432 Z0 F800
G1 X11.037 Y19.505 Z0 F800
G1 X11.566 Y19.95 Z0 F800
G1 X12.1 Y20.267 Z0 F800
G1 X12.519 Y20.436 Z0 F800
G1 X12.271 Y20.449 Z0 F800
G1 X11.557 Y20.554 Z0 F800
G1 X10.803 Y20.743 Z0 F800
G1 X10.002 Y21.052 Z0 F800
G1 X9.422 Y21.379 Z0 F800
G1 X9.007 Y21.603 Z0 F800
G1 X8.573 Y21.931 Z0 F800
G1 X8.015 Y21.75 Z0 F800
G1 X7.396 Y23.356 Z0 F800
G1 X7.348 Y23.443 Z0 F800
G1 Y21.22 Z0 F800
G1 X7.341 Y15.917 Z0 F800
G1 X7.355 Y10.608 Z0 F800
G1 X7.4 Y7.101 Z0 F800
G1 X9.5 Y7.093 Z0 F800
G0 Z3.5 F500
G0 X10.03 Y7.109 Z3.5 
G1 Z0 F500
G1 X9.495 Y8.482 Z0 F800
G1 X9.359 Y8.748 Z0 F800
G1 X9.166 Y9.265 Z0 F800
G1 X9.128 Y9.425 Z0 F800
G1 X8.896 Y10.019 Z0 F800
G1 X8.528 Y10.905 Z0 F800
G1 X8.317 Y11.515 Z0 F800
G1 X8.14 Y12.202 Z0 F800
G1 X8.023 Y12.975 Z0 F800
G1 X7.992 Y14.313 Z0 F800
G1 X8.077 Y15.196 Z0 F800
G1 X8.226 Y15.809 Z0 F800
G1 X8.458 Y16.407 Z0 F800
G1 X8.798 Y17.007 Z0 F800
G1 X9.118 Y17.405 Z0 F800
G1 X9.397 Y17.768 Z0 F800
G1 X9.869 Y18.219 Z0 F800
G1 X10.358 Y18.571 Z0 F800
G1 X10.882 Y18.86 Z0 F800
G1 X11.287 Y19.014 Z0 F800
G1 X11.398 Y19.156 Z0 F800
G1 X11.856 Y19.541 Z0 F800
G1 X12.322 Y19.817 Z0 F800
G1 X12.819 Y20.018 Z0 F800
G1 X13.312 Y20.132 Z0 F800
G1 X13.56 Y20.157 Z0 F800
G1 X13.509 Y20.291 Z0 F800
G1 X13.403 Y20.89 Z0 F800
G1 X13.313 Y20.893 Z0 F800
G1 X12.322 Y20.947 Z0 F800
G1 X11.654 Y21.045 Z0 F800
G1 X10.955 Y21.221 Z0 F800
G1 X10.216 Y21.505 Z0 F800
G1 X9.646 Y21.827 Z0 F800
G1 X9.278 Y22.024 Z0 F800
G1 X8.768 Y22.41 Z0 F800
G1 X8.687 Y22.493 Z0 F800
G1 X8.311 Y22.372 Z0 F800
G1 X7.85 Y23.569 Z0 F800
G1 X7.722 Y23.799 Z0 F800
G1 X7.518 Y24.285 Z0 F800
G1 X7.374 Y24.774 Z0 F800
G1 X7.362 Y24.836 Z0 F800
G1 X7.138 Y25.42 Z0 F800
G1 X6.975 Y25.942 Z0 F800
G1 X6.891 Y25.933 Z0 F800
G1 X6.845 Y26.245 Z0 F800
G1 X6.849 Y21.22 Z0 F800
G1 X6.841 Y15.915 Z0 F800
G1 X6.855 Y10.632 Z0 F800
G1 X6.907 Y6.61 Z0 F800
G1 X7.182 Y6.602 Z0 F800
G1 X10.577 Y6.589 Z0 F800
G1 X10.501 Y6.889 Z0 F800
G1 X10.47 Y7.157 Z0 F800
G1 X10.409 Y7.224 Z0 F800
G1 X10.03 Y7.109 Z0 F800
G0 Z3.5 F500
G0 X7.165 Y6.102 Z3.5 
G1 Z0 F500
G1 X11.179 Y6.087 Z0 F800
G1 X11.122 Y6.492 Z0 F800
G1 X11.114 Y6.508 Z0 F800
G1 X10.994 Y6.979 Z0 F800
G1 X10.948 Y7.376 Z0 F800
G1 X10.944 Y7.381 Z0 F800
G1 X10.643 Y7.708 Z0 F800
G1 X10.571 Y7.796 Z0 F800
G1 X10.328 Y7.722 Z0 F800
G1 X9.953 Y8.686 Z0 F800
G1 X9.817 Y8.95 Z0 F800
G1 X9.645 Y9.41 Z0 F800
G1 X9.607 Y9.573 Z0 F800
G1 X9.352 Y10.228 Z0 F800
G1 X8.995 Y11.083 Z0 F800
G1 X8.796 Y11.659 Z0 F800
G1 X8.63 Y12.302 Z0 F800
G1 X8.522 Y13.018 Z0 F800
G1 X8.492 Y14.295 Z0 F800
G1 X8.571 Y15.112 Z0 F800
G1 X8.704 Y15.659 Z0 F800
G1 X8.911 Y16.192 Z0 F800
G1 X9.213 Y16.725 Z0 F800
G1 X9.504 Y17.087 Z0 F800
G1 X9.77 Y17.433 Z0 F800
G1 X10.189 Y17.833 Z0 F800
G1 X10.626 Y18.147 Z0 F800
G1 X11.093 Y18.406 Z0 F800
G1 X11.594 Y18.596 Z0 F800
G1 X11.759 Y18.807 Z0 F800
G1 X12.147 Y19.132 Z0 F800
G1 X12.544 Y19.368 Z0 F800
G1 X12.97 Y19.539 Z0 F800
G1 X13.394 Y19.638 Z0 F800
G1 X13.947 Y19.694 Z0 F800
G1 X14.12 Y19.687 Z0 F800
G1 X14.129 Y19.747 Z0 F800
G1 X14.132 Y19.921 Z0 F800
G1 X14.113 Y20.064 Z0 F800
G1 X14.05 Y20.275 Z0 F800
G1 X13.993 Y20.425 Z0 F800
G1 X13.889 Y21.013 Z0 F800
G1 X13.896 Y21.376 Z0 F800
G1 X13.334 Y21.392 Z0 F800
G1 X12.372 Y21.445 Z0 F800
G1 X11.752 Y21.536 Z0 F800
G1 X11.105 Y21.698 Z0 F800
G1 X10.43 Y21.959 Z0 F800
G1 X9.905 Y22.255 Z0 F800
G1 X9.548 Y22.446 Z0 F800
G1 X9.099 Y22.787 Z0 F800
G1 X8.828 Y23.063 Z0 F800
G1 X8.608 Y22.993 Z0 F800
G1 X8.304 Y23.781 Z0 F800
G1 X8.172 Y24.018 Z0 F800
G1 X7.99 Y24.453 Z0 F800
G1 X7.86 Y24.891 Z0 F800
G1 X7.845 Y24.974 Z0 F800
G1 X7.61 Y25.584 Z0 F800
G1 X7.328 Y26.488 Z0 F800
G1 X7.316 Z0 F800
G1 X7.298 Y26.609 Z0 F800
G1 X7.197 Y27.037 Z0 F800
G1 X7.101 Y27.571 Z0 F800
G1 X7.037 Y28.128 Z0 F800
G1 X7.019 Y28.52 Z0 F800
G1 X6.96 Y28.922 Z0 F800
G1 X6.82 Y29.47 Z0 F800
G1 X6.624 Y30.256 Z0 F800
G1 X6.466 Y31.29 Z0 F800
G1 X6.489 Y31.826 Z0 F800
G1 X6.617 Y32.288 Z0 F800
G1 X6.808 Y32.732 Z0 F800
G1 X6.839 Y32.802 Z0 F800
G1 X6.851 Y33.275 Z0 F800
G1 X6.87 Y33.795 Z0 F800
G1 Y33.861 Z0 F800
G1 X6.8 Y33.935 Z0 F800
G1 X6.349 Y34.101 Z0 F800
G1 Y31.732 Z0 F800
G1 X6.345 Y26.54 Z0 F800
G1 X6.349 Y21.22 Z0 F800
G1 X6.341 Y15.914 Z0 F800
G1 X6.355 Y10.626 Z0 F800
G1 X6.413 Y6.123 Z0 F800
G1 X6.473 Z0 F800
G1 X7.165 Y6.102 Z0 F800
G0 Z3.5 F500
G0 X11.848 Y6.11 Z3.5 
G1 Z0 F500
G1 X11.785 Y6.248 Z0 F800
G1 X11.661 Z0 F800
G1 X11.606 Y6.635 Z0 F800
G1 X11.587 Y6.676 Z0 F800
G1 X11.487 Y7.07 Z0 F800
G1 X11.443 Y7.45 Z0 F800
G1 X11.447 Y7.567 Z0 F800
G1 X11.325 Y7.706 Z0 F800
G1 X11.021 Y8.035 Z0 F800
G1 X10.749 Y8.373 Z0 F800
G1 X10.625 Y8.335 Z0 F800
G1 X10.408 Y8.894 Z0 F800
G1 X10.275 Y9.152 Z0 F800
G1 X10.125 Y9.556 Z0 F800
G1 X10.085 Y9.722 Z0 F800
G1 X9.829 Y10.382 Z0 F800
G1 X9.463 Y11.261 Z0 F800
G1 X9.276 Y11.804 Z0 F800
G1 X9.121 Y12.402 Z0 F800
G1 X9.021 Y13.061 Z0 F800
G1 X8.993 Y14.277 Z0 F800
G1 X9.065 Y15.029 Z0 F800
G1 X9.182 Y15.508 Z0 F800
G1 X9.364 Y15.977 Z0 F800
G1 X9.628 Y16.443 Z0 F800
G1 X9.894 Y16.773 Z0 F800
G1 X10.143 Y17.097 Z0 F800
G1 X10.51 Y17.448 Z0 F800
G1 X10.894 Y17.725 Z0 F800
G1 X11.304 Y17.951 Z0 F800
G1 X11.902 Y18.178 Z0 F800
G1 X12.121 Y18.457 Z0 F800
G1 X12.437 Y18.723 Z0 F800
G1 X12.767 Y18.918 Z0 F800
G1 X13.121 Y19.061 Z0 F800
G1 X13.476 Y19.144 Z0 F800
G1 X13.962 Y19.192 Z0 F800
G1 X14.398 Y19.174 Z0 F800
G1 X14.541 Y19.155 Z0 F800
G1 X14.562 Y19.379 Z0 F800
G1 X14.592 Y19.466 Z0 F800
G1 X14.628 Y19.706 Z0 F800
G1 X14.632 Y19.952 Z0 F800
G1 X14.603 Y20.171 Z0 F800
G1 X14.524 Y20.434 Z0 F800
G1 X14.477 Y20.559 Z0 F800
G1 X14.39 Y21.052 Z0 F800
G1 X14.399 Y21.544 Z0 F800
G1 X14.469 Y21.884 Z0 F800
G1 X14.25 Y21.866 Z0 F800
G1 X13.355 Y21.892 Z0 F800
G1 X12.422 Y21.943 Z0 F800
G1 X11.849 Y22.027 Z0 F800
G1 X11.257 Y22.176 Z0 F800
G1 X10.644 Y22.412 Z0 F800
G1 X10.16 Y22.685 Z0 F800
G1 X9.819 Y22.869 Z0 F800
G1 X9.43 Y23.163 Z0 F800
G1 X9.101 Y23.499 Z0 F800
G1 X8.994 Y23.643 Z0 F800
G1 X8.904 Y23.614 Z0 F800
G1 X8.757 Y23.996 Z0 F800
G1 X8.622 Y24.238 Z0 F800
G1 X8.461 Y24.621 Z0 F800
G1 X8.347 Y25.008 Z0 F800
G1 X8.328 Y25.111 Z0 F800
G1 X8.083 Y25.749 Z0 F800
G1 X7.805 Y26.639 Z0 F800
G1 X7.687 Y27.139 Z0 F800
G1 X7.595 Y27.644 Z0 F800
G1 X7.535 Y28.168 Z0 F800
G1 X7.517 Y28.568 Z0 F800
G1 X7.451 Y29.02 Z0 F800
G1 X7.305 Y29.592 Z0 F800
G1 X7.114 Y30.354 Z0 F800
G1 X6.967 Y31.317 Z0 F800
G1 X6.986 Y31.748 Z0 F800
G1 X7.089 Y32.121 Z0 F800
G1 X7.267 Y32.532 Z0 F800
G1 X7.336 Y32.69 Z0 F800
G1 X7.351 Y33.259 Z0 F800
G1 X7.37 Y33.787 Z0 F800
G1 X7.374 Y34.06 Z0 F800
G1 X7.08 Y34.366 Z0 F800
G1 X6.992 Y34.397 Z0 F800
G1 X6.324 Y34.643 Z0 F800
G1 X5.848 Y34.859 Z0 F800
G1 X5.851 Y31.732 Z0 F800
G1 X5.845 Y26.54 Z0 F800
G1 X5.849 Y21.22 Z0 F800
G1 X5.841 Y15.913 Z0 F800
G1 X5.855 Y10.62 Z0 F800
G1 X5.919 Y5.624 Z0 F800
G1 X6.465 Z0 F800
G1 X7.165 Y5.602 Z0 F800
G1 X12.27 Y5.583 Z0 F800
G1 X12.202 Y5.646 Z0 F800
G1 X11.848 Y6.11 Z0 F800
G0 Z3.5 F500
G0 X10.923 Y8.948 Z3.5 
G1 Z0 F500
G1 X10.864 Y9.1 Z0 F800
G1 X10.733 Y9.355 Z0 F800
G1 X10.604 Y9.701 Z0 F800
G1 X10.563 Y9.873 Z0 F800
G1 X10.29 Y10.575 Z0 F800
G1 X9.931 Y11.438 Z0 F800
G1 X9.755 Y11.948 Z0 F800
G1 X9.611 Y12.502 Z0 F800
G1 X9.521 Y13.104 Z0 F800
G1 X9.494 Y14.259 Z0 F800
G1 X9.559 Y14.945 Z0 F800
G1 X9.66 Y15.358 Z0 F800
G1 X9.817 Y15.762 Z0 F800
G1 X10.043 Y16.162 Z0 F800
G1 X10.283 Y16.46 Z0 F800
G1 X10.516 Y16.762 Z0 F800
G1 X10.83 Y17.063 Z0 F800
G1 X11.162 Y17.301 Z0 F800
G1 X11.515 Y17.496 Z0 F800
G1 X12.126 Y17.729 Z0 F800
G1 X12.207 Y17.75 Z0 F800
G1 X12.22 Y17.774 Z0 F800
G1 X12.482 Y18.107 Z0 F800
G1 X12.728 Y18.314 Z0 F800
G1 X12.989 Y18.469 Z0 F800
G1 X13.271 Y18.583 Z0 F800
G1 X13.558 Y18.649 Z0 F800
G1 X13.977 Y18.691 Z0 F800
G1 X14.354 Y18.676 Z0 F800
G1 X14.647 Y18.636 Z0 F800
G1 X14.843 Y18.604 Z0 F800
G1 X14.902 Y18.596 Z0 F800
G1 X14.97 Y18.632 Z0 F800
G1 X15.031 Y19.032 Z0 F800
G1 X15.054 Y19.272 Z0 F800
G1 X15.079 Y19.345 Z0 F800
G1 X15.127 Y19.666 Z0 F800
G1 X15.133 Y19.983 Z0 F800
G1 X15.094 Y20.275 Z0 F800
G1 X14.998 Y20.594 Z0 F800
G1 X14.961 Y20.692 Z0 F800
G1 X14.891 Y21.091 Z0 F800
G1 X14.898 Y21.489 Z0 F800
G1 X14.976 Y21.867 Z0 F800
G1 X15.126 Y22.233 Z0 F800
G1 X15.253 Y22.411 Z0 F800
G1 X15.02 Y22.59 Z0 F800
G1 X14.937 Y22.536 Z0 F800
G1 X14.577 Y22.395 Z0 F800
G1 X14.236 Y22.367 Z0 F800
G1 X13.376 Y22.392 Z0 F800
G1 X12.472 Y22.441 Z0 F800
G1 X11.947 Y22.519 Z0 F800
G1 X11.408 Y22.653 Z0 F800
G1 X10.858 Y22.866 Z0 F800
G1 X10.397 Y23.125 Z0 F800
G1 X10.09 Y23.291 Z0 F800
G1 X9.761 Y23.54 Z0 F800
G1 X9.482 Y23.824 Z0 F800
G1 X9.253 Y24.134 Z0 F800
G1 X9.072 Y24.457 Z0 F800
G1 X8.933 Y24.789 Z0 F800
G1 X8.834 Y25.125 Z0 F800
G1 X8.811 Y25.249 Z0 F800
G1 X8.555 Y25.913 Z0 F800
G1 X8.288 Y26.771 Z0 F800
G1 X8.176 Y27.241 Z0 F800
G1 X8.09 Y27.717 Z0 F800
G1 X8.034 Y28.208 Z0 F800
G1 X8.015 Y28.619 Z0 F800
G1 X7.943 Y29.112 Z0 F800
G1 X7.79 Y29.714 Z0 F800
G1 X7.605 Y30.453 Z0 F800
G1 X7.469 Y31.345 Z0 F800
G1 X7.483 Y31.669 Z0 F800
G1 X7.562 Y31.955 Z0 F800
G1 X7.725 Y32.332 Z0 F800
G1 X7.818 Y32.544 Z0 F800
G1 X7.836 Y32.596 Z0 F800
G1 Y32.62 Z0 F800
G1 X7.851 Y33.244 Z0 F800
G1 X7.871 Y33.801 Z0 F800
G1 X7.877 Y34.273 Z0 F800
G1 X7.82 Y34.317 Z0 F800
G1 X7.47 Y34.682 Z0 F800
G1 X7.411 Y34.779 Z0 F800
G1 X7.162 Y34.867 Z0 F800
G1 X6.514 Y35.106 Z0 F800
G1 X5.81 Y35.425 Z0 F800
G1 X5.347 Y35.71 Z0 F800
G1 X5.351 Y31.732 Z0 F800
G1 X5.345 Y26.54 Z0 F800
G1 X5.349 Y21.22 Z0 F800
G1 X5.341 Y15.911 Z0 F800
G1 X5.355 Y10.613 Z0 F800
G1 X5.423 Y5.314 Z0 F800
G1 X5.439 Y5.13 Z0 F800
G1 X5.8 Y5.124 Z0 F800
G1 X6.458 Z0 F800
G1 X7.147 Y5.102 Z0 F800
G1 X13.784 Y5.077 Z0 F800
G1 X13.437 Y5.272 Z0 F800
G1 X13.261 Y5.41 Z0 F800
G1 X13.087 Y5.537 Z0 F800
G1 X12.856 Y5.72 Z0 F800
G1 X12.574 Y5.983 Z0 F800
G1 X12.279 Y6.369 Z0 F800
G1 X12.106 Y6.746 Z0 F800
G1 X12.096 Z0 F800
G1 X12.092 Y6.776 Z0 F800
G1 X12.061 Y6.844 Z0 F800
G1 X11.979 Y7.161 Z0 F800
G1 X11.944 Y7.471 Z0 F800
G1 X11.952 Y7.729 Z0 F800
G1 X11.872 Y7.84 Z0 F800
G1 X11.68 Y8.059 Z0 F800
G1 X11.399 Y8.362 Z0 F800
G1 X11.071 Y8.769 Z0 F800
G1 X10.95 Y8.957 Z0 F800
G1 X10.923 Y8.948 Z0 F800
G0 Z3.5 F500
G0 X31.479 Y45.422 Z3.5 
G1 Z0 F500
G1 X31.517 Y45.386 Z0 F800
G1 X32.166 Y44.891 Z0 F800
G1 X32.358 Y45.155 Z0 F800
G1 X32.606 Y45.422 Z0 F800
G1 X31.479 Z0 F800
G0 Z3.5 F500
G0 X30.867 Y45.307 Z3.5 
G1 Z0 F500
G1 X30.936 Y45.253 Z0 F800
G1 X31.19 Y45.007 Z0 F800
G1 X31.687 Y44.628 Z0 F800
G1 X31.609 Y44.525 Z0 F800
G1 X31.839 Y44.2 Z0 F800
G1 X31.896 Y44.098 Z0 F800
G1 X32.163 Y43.785 Z0 F800
G1 X32.189 Y43.912 Z0 F800
G1 X32.426 Y44.398 Z0 F800
G1 X32.745 Y44.837 Z0 F800
G1 X33.064 Y45.182 Z0 F800
G1 X33.4 Y45.47 Z0 F800
G1 X33.768 Y45.728 Z0 F800
G1 X34.136 Y45.922 Z0 F800
G1 X30.003 Z0 F800
G1 X30.358 Y45.703 Z0 F800
G1 X30.457 Y45.626 Z0 F800
G1 X30.542 Y45.689 Z0 F800
G1 X30.867 Y45.307 Z0 F800
G0 Z3.5 F500
G0 X24.61 Y45.922 Z3.5 
G1 Z0 F500
G1 X22.245 Z0 F800
G1 X22.235 Y45.883 Z0 F800
G1 X22.224 Y45.861 Z0 F800
G1 X22.49 Y45.674 Z0 F800
G1 X22.96 Y45.162 Z0 F800
G1 X23.271 Y44.687 Z0 F800
G1 X23.351 Y44.531 Z0 F800
G1 X23.621 Y44.964 Z0 F800
G1 X24.097 Y45.505 Z0 F800
G1 X24.61 Y45.922 Z0 F800
G0 Z3.5 F500
G0 X25.512 Y45.87 Z3.5 
G1 Z0 F500
G1 X26.111 Y46.08 Z0 F800
G1 X26.361 Y46.131 Z0 F800
G1 X26.987 Y46.178 Z0 F800
G1 X27.65 Y46.214 Z0 F800
G1 X28.169 Y46.177 Z0 F800
G1 X28.229 Y46.164 Z0 F800
G1 X28.358 Y46.353 Z0 F800
G1 X29.125 Y45.878 Z0 F800
G1 X29.364 Y45.771 Z0 F800
G1 X29.652 Y45.552 Z0 F800
G1 X30.072 Y45.292 Z0 F800
G1 X30.448 Y44.999 Z0 F800
G1 X30.463 Y45.01 Z0 F800
G1 X30.521 Y44.943 Z0 F800
G1 X30.607 Y44.875 Z0 F800
G1 X30.863 Y44.627 Z0 F800
G1 X30.988 Y44.532 Z0 F800
G1 X30.971 Y44.51 Z0 F800
G1 X31.169 Y44.28 Z0 F800
G1 X31.416 Y43.933 Z0 F800
G1 X31.483 Y43.813 Z0 F800
G1 X31.811 Y43.427 Z0 F800
G1 X32.314 Y42.83 Z0 F800
G1 X32.554 Y42.503 Z0 F800
G1 X32.576 Y43.318 Z0 F800
G1 X32.667 Y43.748 Z0 F800
G1 X32.856 Y44.14 Z0 F800
G1 X33.132 Y44.519 Z0 F800
G1 X33.412 Y44.821 Z0 F800
G1 X33.707 Y45.075 Z0 F800
G1 X34.029 Y45.3 Z0 F800
G1 X34.581 Y45.592 Z0 F800
G1 X35.106 Y45.79 Z0 F800
G1 X35.548 Y45.924 Z0 F800
G1 X35.908 Y46.025 Z0 F800
G1 X36.159 Y46.101 Z0 F800
G1 X36.367 Y46.183 Z0 F800
G1 X36.913 Y46.422 Z0 F800
G1 X21.859 Z0 F800
G1 X21.763 Y46.055 Z0 F800
G1 X21.708 Y45.939 Z0 F800
G1 X21.684 Y45.82 Z0 F800
G1 X21.615 Y45.679 Z0 F800
G1 X22.158 Y45.296 Z0 F800
G1 X22.564 Y44.854 Z0 F800
G1 X22.838 Y44.436 Z0 F800
G1 X23.01 Y44.099 Z0 F800
G1 X23.119 Y43.867 Z0 F800
G1 X23.198 Y43.703 Z0 F800
G1 X23.225 Y43.654 Z0 F800
G1 X23.379 Y43.5 Z0 F800
G1 X23.418 Y43.426 Z0 F800
G1 X23.442 Y43.533 Z0 F800
G1 X23.687 Y44.124 Z0 F800
G1 X24.023 Y44.665 Z0 F800
G1 X24.445 Y45.144 Z0 F800
G1 X24.943 Y45.549 Z0 F800
G1 X25.512 Y45.87 Z0 F800
G0 Z3.5 F500
G0 X14.09 Y45.917 Z3.5 
G1 Z0 F500
G1 X13.423 Z0 F800
G1 X13.433 Y45.808 Z0 F800
G1 X13.475 Y45.754 Z0 F800
G1 X13.623 Y45.589 Z0 F800
G1 X14.018 Y45.176 Z0 F800
G1 X14.161 Y45.308 Z0 F800
G1 X14.094 Y45.795 Z0 F800
G1 X14.09 Y45.917 Z0 F800
G0 Z3.5 F500
G0 X14.586 Y46.416 Z3.5 
G1 Z0 F500
G1 X13.075 Y46.42 Z0 F800
G1 X12.909 Y46.413 Z0 F800
G1 X12.917 Y45.971 Z0 F800
G1 X12.947 Y45.625 Z0 F800
G1 X12.971 Y45.586 Z0 F800
G1 X13.089 Y45.436 Z0 F800
G1 X13.268 Y45.237 Z0 F800
G1 X13.745 Y44.738 Z0 F800
G1 X13.963 Y44.491 Z0 F800
G1 X14.177 Y44.642 Z0 F800
G1 X14.369 Y44.819 Z0 F800
G1 X14.404 Y44.788 Z0 F800
G1 X14.727 Y44.968 Z0 F800
G1 X14.776 Y44.99 Z0 F800
G1 X14.658 Y45.368 Z0 F800
G1 X14.593 Y45.839 Z0 F800
G1 X14.576 Y46.286 Z0 F800
G1 X14.586 Y46.416 Z0 F800
G0 Z3.5 F500
G0 X15.149 Y46.914 Z3.5 
G1 Z0 F500
G1 X13.073 Y46.92 Z0 F800
G1 X12.602 Y46.9 Z0 F800
G1 X12.436 Y46.903 Z0 F800
G1 X12.421 Y46.785 Z0 F800
G1 X12.407 Y46.535 Z0 F800
G1 X12.418 Y45.942 Z0 F800
G1 X12.458 Y45.471 Z0 F800
G1 X12.474 Y45.435 Z0 F800
G1 X12.563 Y45.295 Z0 F800
G1 X12.703 Y45.118 Z0 F800
G1 X12.89 Y44.909 Z0 F800
G1 X13.376 Y44.399 Z0 F800
G1 X13.919 Y43.785 Z0 F800
G1 X14.204 Y44.048 Z0 F800
G1 X14.574 Y44.31 Z0 F800
G1 X14.948 Y44.52 Z0 F800
G1 X15.523 Y44.768 Z0 F800
G1 X15.422 Y44.878 Z0 F800
G1 X15.245 Y45.167 Z0 F800
G1 X15.147 Y45.478 Z0 F800
G1 X15.092 Y45.882 Z0 F800
G1 X15.077 Y46.275 Z0 F800
G1 X15.111 Y46.696 Z0 F800
G1 X15.159 Y46.914 Z0 F800
G1 X15.149 Z0 F800
G0 Z3.5 F500
G0 X11.922 Y46.82 Z3.5 
G1 Z0 F500
G1 X11.907 Y46.546 Z0 F800
G1 X11.919 Y45.912 Z0 F800
G1 X11.967 Y45.344 Z0 F800
G1 X12.033 Y45.199 Z0 F800
G1 X12.157 Y45.003 Z0 F800
G1 X12.321 Y44.795 Z0 F800
G1 X12.529 Y44.562 Z0 F800
G1 X13.008 Y44.062 Z0 F800
G1 X13.534 Y43.466 Z0 F800
G1 X13.573 Y43.407 Z0 F800
G1 X13.65 Y43.311 Z0 F800
G1 X13.743 Y43.23 Z0 F800
G1 X13.851 Y43.165 Z0 F800
G1 X13.951 Y43.127 Z0 F800
G1 X14.001 Y43.118 Z0 F800
G1 X14.032 Y43.146 Z0 F800
G1 X14.214 Y43.376 Z0 F800
G1 X14.52 Y43.659 Z0 F800
G1 X14.841 Y43.886 Z0 F800
G1 X15.17 Y44.07 Z0 F800
G1 X15.771 Y44.33 Z0 F800
G1 X16.31 Y44.538 Z0 F800
G1 X16.455 Y44.584 Z0 F800
G1 X16.511 Y44.591 Z0 F800
G1 X16.287 Y44.737 Z0 F800
G1 X16.052 Y44.931 Z0 F800
G1 X15.823 Y45.18 Z0 F800
G1 X15.704 Y45.375 Z0 F800
G1 X15.637 Y45.587 Z0 F800
G1 X15.591 Y45.925 Z0 F800
G1 X15.578 Y46.265 Z0 F800
G1 X15.606 Y46.622 Z0 F800
G1 X15.689 Y46.998 Z0 F800
G1 X15.851 Y47.383 Z0 F800
G1 X15.869 Y47.409 Z0 F800
G1 X15.153 Y47.414 Z0 F800
G1 X13.063 Y47.42 Z0 F800
G1 X12.595 Y47.401 Z0 F800
G1 X12.121 Y47.408 Z0 F800
G1 X12.022 Y47.399 Z0 F800
G1 X12.019 Z0 F800
G1 X12.007 Y47.359 Z0 F800
G1 X11.957 Y47.105 Z0 F800
G1 X11.922 Y46.82 Z0 F800
G0 Z3.5 F500
G0 X19.638 Y6.063 Z3.5 
G1 Z0 F500
G1 X22.696 Y6.059 Z0 F800
G1 X22.594 Y6.087 Z0 F800
G1 X22.152 Y6.281 Z0 F800
G1 X21.741 Y6.521 Z0 F800
G1 X21.469 Y6.731 Z0 F800
G1 X21.005 Y6.57 Z0 F800
G1 X20.382 Y6.494 Z0 F800
G1 X20.007 Y6.502 Z0 F800
G1 X19.959 Y6.481 Z0 F800
G1 X19.719 Y6.162 Z0 F800
G1 X19.638 Y6.063 Z0 F800
G0 Z3.5 F500
G0 X18.407 Y5.563 Z3.5 
G1 Z0 F500
G1 X26.291 Y5.555 Z0 F800
G1 X26.221 Y5.561 Z0 F800
G1 X25.443 Y5.706 Z0 F800
G1 X24.917 Y5.919 Z0 F800
G1 X24.514 Y6.272 Z0 F800
G1 X23.938 Y6.312 Z0 F800
G1 X23.383 Y6.387 Z0 F800
G1 X22.762 Y6.56 Z0 F800
G1 X22.379 Y6.728 Z0 F800
G1 X22.021 Y6.937 Z0 F800
G1 X21.677 Y7.203 Z0 F800
G1 X21.563 Y7.317 Z0 F800
G1 X21.458 Y7.257 Z0 F800
G1 X20.892 Y7.06 Z0 F800
G1 X20.357 Y6.995 Z0 F800
G1 X19.968 Y7.003 Z0 F800
G1 X19.916 Y7.008 Z0 F800
G1 X19.739 Y6.931 Z0 F800
G1 X19.656 Y6.902 Z0 F800
G1 X19.603 Y6.839 Z0 F800
G1 X19.324 Y6.47 Z0 F800
G1 X19.098 Y6.188 Z0 F800
G1 X18.793 Y5.871 Z0 F800
G1 X18.407 Y5.563 Z0 F800
G0 Z3.5 F500
G0 X17.154 Y5.065 Z3.5 
G1 Z0 F500
G1 X27.172 Y5.054 Z0 F800
G1 X37.192 Z0 F800
G1 X46.621 Y5.051 Z0 F800
G1 X46.618 Y14.208 Z0 F800
G1 X46.607 Y23.736 Z0 F800
G1 X46.61 Y33.267 Z0 F800
G1 X46.627 Y37.273 Z0 F800
G1 X46.192 Y36.478 Z0 F800
G1 X45.643 Y35.614 Z0 F800
G1 X45.04 Y34.787 Z0 F800
G1 X44.377 Y33.993 Z0 F800
G1 X44.276 Y33.892 Z0 F800
G1 X43.909 Y33.588 Z0 F800
G1 X43.513 Y33.324 Z0 F800
G1 X43.099 Y33.102 Z0 F800
G1 X42.671 Y32.921 Z0 F800
G1 X42.234 Y32.78 Z0 F800
G1 X41.79 Y32.678 Z0 F800
G1 X41.343 Y32.613 Z0 F800
G1 X40.843 Y32.582 Z0 F800
G1 X40.466 Y32.629 Z0 F800
G1 X40.121 Y32.781 Z0 F800
G1 X39.837 Y32.972 Z0 F800
G1 X39.784 Y33.012 Z0 F800
G1 X39.695 Y32.947 Z0 F800
G1 X39.619 Y32.877 Z0 F800
G1 X39.604 Y32.858 Z0 F800
G1 Y32.85 Z0 F800
G1 Y32.832 Z0 F800
G1 X39.583 Y32.142 Z0 F800
G1 X39.604 Y31.57 Z0 F800
G1 X39.632 Y31.343 Z0 F800
G1 X39.676 Y31.123 Z0 F800
G1 X39.731 Y30.935 Z0 F800
G1 X39.835 Y30.682 Z0 F800
G1 X39.916 Y30.451 Z0 F800
G1 X39.953 Y30.13 Z0 F800
G1 X39.921 Y29.809 Z0 F800
G1 X39.832 Y29.533 Z0 F800
G1 X39.546 Y28.961 Z0 F800
G1 X39.154 Y28.389 Z0 F800
G1 X38.855 Y28.075 Z0 F800
G1 X38.509 Y27.803 Z0 F800
G1 X38.097 Y27.577 Z0 F800
G1 X37.733 Y27.456 Z0 F800
G1 X37.222 Y27.261 Z0 F800
G1 X37.231 Y27.254 Z0 F800
G1 X37.591 Y26.86 Z0 F800
G1 X37.876 Y26.47 Z0 F800
G1 X38.117 Y26.057 Z0 F800
G1 X38.313 Y25.627 Z0 F800
G1 X38.464 Y25.186 Z0 F800
G1 X38.574 Y24.734 Z0 F800
G1 X38.641 Y24.278 Z0 F800
G1 X38.667 Y23.804 Z0 F800
G1 X38.652 Y23.581 Z0 F800
G1 X38.599 Y23.358 Z0 F800
G1 X38.396 Y22.837 Z0 F800
G1 X38.106 Y22.332 Z0 F800
G1 X37.918 Y22.089 Z0 F800
G1 X37.97 Y22.062 Z0 F800
G1 X38.298 Y21.793 Z0 F800
G1 X38.468 Y21.599 Z0 F800
G1 X38.506 Y21.59 Z0 F800
G1 X38.762 Y21.489 Z0 F800
G1 X39.042 Y21.313 Z0 F800
G1 X39.304 Y21.047 Z0 F800
G1 X39.492 Y20.725 Z0 F800
G1 X39.589 Y20.411 Z0 F800
G1 X39.621 Y20.133 Z0 F800
G1 X39.61 Y19.877 Z0 F800
G1 X39.557 Y19.635 Z0 F800
G1 X39.548 Y19.609 Z0 F800
G1 X39.497 Y19.084 Z0 F800
G1 X39.403 Y18.424 Z0 F800
G1 X39.283 Y17.777 Z0 F800
G1 X39.132 Y17.096 Z0 F800
G1 X39.036 Y16.831 Z0 F800
G1 X38.86 Y16.555 Z0 F800
G1 X38.629 Y16.324 Z0 F800
G1 X38.609 Y16.311 Z0 F800
G1 X38.645 Y16.276 Z0 F800
G1 X38.727 Y16.174 Z0 F800
G1 X38.761 Y16.188 Z0 F800
G1 X38.837 Y16.036 Z0 F800
G1 X38.841 Y16.031 Z0 F800
G1 X39.017 Y15.755 Z0 F800
G1 X39.166 Y15.435 Z0 F800
G1 X39.208 Y15.298 Z0 F800
G1 X39.22 Y15.273 Z0 F800
G1 X39.283 Y15.175 Z0 F800
G1 X39.423 Y14.97 Z0 F800
G1 X39.601 Y14.697 Z0 F800
G1 X39.801 Y14.316 Z0 F800
G1 X39.954 Y13.851 Z0 F800
G1 X40.004 Y13.543 Z0 F800
G1 X40.017 Y13.237 Z0 F800
G1 X39.985 Y12.912 Z0 F800
G1 X39.928 Y12.678 Z0 F800
G1 X39.754 Y11.843 Z0 F800
G1 X39.48 Y11.016 Z0 F800
G1 X39.179 Y10.277 Z0 F800
G1 X38.947 Y9.734 Z0 F800
G1 X38.94 Y9.548 Z0 F800
G1 X38.909 Y9.312 Z0 F800
G1 X38.796 Y9.003 Z0 F800
G1 X38.598 Y8.696 Z0 F800
G1 X38.354 Y8.454 Z0 F800
G1 X38.053 Y8.27 Z0 F800
G1 X37.713 Y8.161 Z0 F800
G1 X37.4 Y8.14 Z0 F800
G1 X36.522 Y8.212 Z0 F800
G1 X35.749 Y8.303 Z0 F800
G1 X35.08 Y8.369 Z0 F800
G1 X34.501 Y8.379 Z0 F800
G1 X33.556 Y8.369 Z0 F800
G1 X32.72 Y8.354 Z0 F800
G1 X31.971 Y8.301 Z0 F800
G1 X31.63 Y8.243 Z0 F800
G1 X31.474 Y8.105 Z0 F800
G1 X31.245 Y7.958 Z0 F800
G1 X30.957 Y7.841 Z0 F800
G1 X30.645 Y7.788 Z0 F800
G1 X30.36 Y7.794 Z0 F800
G1 X30.147 Y7.834 Z0 F800
G1 X30.128 Y7.825 Z0 F800
G1 X29.722 Y7.573 Z0 F800
G1 X29.448 Y7.417 Z0 F800
G1 X29.437 Y7.335 Z0 F800
G1 X29.289 Y6.988 Z0 F800
G1 X29.061 Y6.688 Z0 F800
G1 X28.781 Y6.47 Z0 F800
G1 X28.32 Y6.241 Z0 F800
G1 X27.873 Y6.099 Z0 F800
G1 X27.438 Y6.024 Z0 F800
G1 X27.005 Y6.001 Z0 F800
G1 X26.286 Y6.057 Z0 F800
G1 X25.584 Y6.188 Z0 F800
G1 X25.183 Y6.351 Z0 F800
G1 X24.849 Y6.644 Z0 F800
G1 X24.768 Y6.754 Z0 F800
G1 X24.719 Y6.76 Z0 F800
G1 X23.989 Y6.81 Z0 F800
G1 X23.484 Y6.877 Z0 F800
G1 X22.93 Y7.032 Z0 F800
G1 X22.606 Y7.174 Z0 F800
G1 X22.301 Y7.352 Z0 F800
G1 X22.008 Y7.579 Z0 F800
G1 X21.807 Y7.78 Z0 F800
G1 X21.759 Y7.824 Z0 F800
G1 X21.722 Y7.836 Z0 F800
G1 X21.658 Y7.847 Z0 F800
G1 X21.583 Z0 F800
G1 X21.502 Y7.835 Z0 F800
G1 X21.448 Y7.819 Z0 F800
G1 X21.351 Y7.771 Z0 F800
G1 X21.251 Y7.714 Z0 F800
G1 X20.777 Y7.55 Z0 F800
G1 X20.333 Y7.495 Z0 F800
G1 X19.994 Y7.503 Z0 F800
G1 X19.83 Y7.516 Z0 F800
G1 X19.821 Y7.511 Z0 F800
G1 X19.557 Y7.397 Z0 F800
G1 X19.359 Y7.329 Z0 F800
G1 X19.341 Y7.303 Z0 F800
G1 X19.208 Y7.147 Z0 F800
G1 X18.93 Y6.777 Z0 F800
G1 X18.722 Y6.519 Z0 F800
G1 X18.455 Y6.241 Z0 F800
G1 X18.109 Y5.966 Z0 F800
G1 X17.686 Y5.728 Z0 F800
G1 X17.348 Y5.616 Z0 F800
G1 X17.032 Y5.46 Z0 F800
G1 X16.606 Y5.303 Z0 F800
G1 X16.189 Y5.191 Z0 F800
G1 X15.778 Y5.112 Z0 F800
G1 X15.408 Y5.071 Z0 F800
G1 X17.154 Y5.065 Z0 F800
G0 Z3.5 F500
G0 X27.171 Y4.554 Z3.5 
G1 Z0 F500
G1 X37.192 Z0 F800
G1 X47.054 Y4.551 Z0 F800
G1 X47.112 Y4.592 Z0 F800
G1 X47.125 Y4.604 Z0 F800
G1 X47.121 Y4.663 Z0 F800
G1 X47.118 Y14.209 Z0 F800
G1 X47.107 Y23.736 Z0 F800
G1 X47.11 Y33.265 Z0 F800
G1 X47.147 Y42.147 Z0 F800
G1 X46.322 Y37.854 Z0 F800
G1 X46.293 Y37.735 Z0 F800
G1 X46.24 Y37.608 Z0 F800
G1 X45.761 Y36.732 Z0 F800
G1 X45.23 Y35.896 Z0 F800
G1 X44.646 Y35.095 Z0 F800
G1 X44.008 Y34.331 Z0 F800
G1 X43.94 Y34.263 Z0 F800
G1 X43.61 Y33.99 Z0 F800
G1 X43.255 Y33.753 Z0 F800
G1 X42.883 Y33.554 Z0 F800
G1 X42.497 Y33.391 Z0 F800
G1 X42.101 Y33.263 Z0 F800
G1 X41.698 Y33.17 Z0 F800
G1 X41.291 Y33.111 Z0 F800
G1 X40.859 Y33.084 Z0 F800
G1 X40.6 Y33.116 Z0 F800
G1 X40.363 Y33.22 Z0 F800
G1 X40.127 Y33.379 Z0 F800
G1 X39.827 Y33.606 Z0 F800
G1 X39.819 Y33.611 Z0 F800
G1 X39.722 Y33.563 Z0 F800
G1 X39.536 Y33.451 Z0 F800
G1 X39.376 Y33.333 Z0 F800
G1 X39.253 Y33.22 Z0 F800
G1 X39.171 Y33.12 Z0 F800
G1 X39.128 Y33.041 Z0 F800
G1 X39.109 Y32.976 Z0 F800
G1 X39.104 Y32.854 Z0 F800
G1 Y32.831 Z0 F800
G1 X39.082 Y32.135 Z0 F800
G1 X39.105 Y31.532 Z0 F800
G1 X39.138 Y31.264 Z0 F800
G1 X39.188 Y31.01 Z0 F800
G1 X39.26 Y30.765 Z0 F800
G1 X39.367 Y30.504 Z0 F800
G1 X39.425 Y30.338 Z0 F800
G1 X39.45 Y30.125 Z0 F800
G1 X39.429 Y29.913 Z0 F800
G1 X39.368 Y29.724 Z0 F800
G1 X39.114 Y29.215 Z0 F800
G1 X38.765 Y28.705 Z0 F800
G1 X38.518 Y28.446 Z0 F800
G1 X38.232 Y28.222 Z0 F800
G1 X37.896 Y28.037 Z0 F800
G1 X37.569 Y27.928 Z0 F800
G1 X37.066 Y27.736 Z0 F800
G1 X36.537 Y27.605 Z0 F800
G1 X36.027 Y27.528 Z0 F800
G1 X35.588 Y27.488 Z0 F800
G1 X34.962 Y27.331 Z0 F800
G1 X34.286 Y27.232 Z0 F800
G1 X33.638 Y27.184 Z0 F800
G1 X33.082 Y27.161 Z0 F800
G1 X32.782 Y27.075 Z0 F800
G1 X32.347 Y26.936 Z0 F800
G1 X32.066 Y26.869 Z0 F800
G1 X31.757 Y26.825 Z0 F800
G1 X31.418 Y26.817 Z0 F800
G1 X31.187 Y26.844 Z0 F800
G1 X30.629 Y26.847 Z0 F800
G1 X30.223 Y26.862 Z0 F800
G1 X30.614 Y26.676 Z0 F800
G1 X31.008 Y26.562 Z0 F800
G1 X31.171 Y26.543 Z0 F800
G1 X31.332 Z0 F800
G1 X31.481 Y26.569 Z0 F800
G1 X31.685 Y26.637 Z0 F800
G1 X32.16 Y26.8 Z0 F800
G1 X32.72 Y26.885 Z0 F800
G1 X33.269 Y26.88 Z0 F800
G1 X33.65 Y26.824 Z0 F800
G1 X34.231 Z0 F800
G1 X34.819 Y26.858 Z0 F800
G1 X35.369 Y26.942 Z0 F800
G1 X35.931 Y27.101 Z0 F800
G1 X36.152 Y27.147 Z0 F800
G1 X36.426 Y27.127 Z0 F800
G1 X36.687 Y27.033 Z0 F800
G1 X36.896 Y26.88 Z0 F800
G1 X37.204 Y26.542 Z0 F800
G1 X37.458 Y26.195 Z0 F800
G1 X37.672 Y25.827 Z0 F800
G1 X37.847 Y25.442 Z0 F800
G1 X37.984 Y25.045 Z0 F800
G1 X38.083 Y24.639 Z0 F800
G1 X38.143 Y24.228 Z0 F800
G1 X38.167 Y23.807 Z0 F800
G1 X38.156 Y23.657 Z0 F800
G1 X38.12 Y23.508 Z0 F800
G1 X37.943 Y23.053 Z0 F800
G1 X37.689 Y22.611 Z0 F800
G1 X37.515 Y22.385 Z0 F800
G1 X37.317 Y22.18 Z0 F800
G1 X37.088 Y21.993 Z0 F800
G1 X36.987 Y21.931 Z0 F800
G1 X37.081 Y21.908 Z0 F800
G1 X37.41 Y21.796 Z0 F800
G1 X37.69 Y21.644 Z0 F800
G1 X37.949 Y21.433 Z0 F800
G1 X38.172 Y21.178 Z0 F800
G1 X38.191 Y21.148 Z0 F800
G1 X38.198 Z0 F800
G1 X38.358 Y21.111 Z0 F800
G1 X38.535 Y21.042 Z0 F800
G1 X38.726 Y20.921 Z0 F800
G1 X38.903 Y20.74 Z0 F800
G1 X39.031 Y20.522 Z0 F800
G1 X39.098 Y20.308 Z0 F800
G1 X39.12 Y20.115 Z0 F800
G1 X39.112 Y19.941 Z0 F800
G1 X39.075 Y19.773 Z0 F800
G1 X39.056 Y19.718 Z0 F800
G1 X39 Y19.144 Z0 F800
G1 X38.91 Y18.505 Z0 F800
G1 X38.793 Y17.877 Z0 F800
G1 X38.65 Y17.236 Z0 F800
G1 X38.584 Y17.052 Z0 F800
G1 X38.468 Y16.87 Z0 F800
G1 X38.315 Y16.716 Z0 F800
G1 X38.141 Y16.606 Z0 F800
G1 X37.831 Y16.477 Z0 F800
G1 X37.722 Y16.445 Z0 F800
G1 X37.969 Y16.239 Z0 F800
G1 X38.273 Y15.94 Z0 F800
G1 X38.434 Y15.74 Z0 F800
G1 X38.577 Y15.515 Z0 F800
G1 X38.698 Y15.255 Z0 F800
G1 X38.742 Y15.11 Z0 F800
G1 X38.781 Y15.031 Z0 F800
G1 X38.877 Y14.882 Z0 F800
G1 X39.007 Y14.692 Z0 F800
G1 X39.169 Y14.443 Z0 F800
G1 X39.339 Y14.121 Z0 F800
G1 X39.467 Y13.731 Z0 F800
G1 X39.506 Y13.493 Z0 F800
G1 X39.516 Y13.25 Z0 F800
G1 X39.491 Y12.996 Z0 F800
G1 X39.439 Y12.784 Z0 F800
G1 X39.271 Y11.973 Z0 F800
G1 X39.011 Y11.189 Z0 F800
G1 X38.717 Y10.469 Z0 F800
G1 X38.449 Y9.84 Z0 F800
G1 Y9.788 Z0 F800
G1 X38.441 Y9.59 Z0 F800
G1 X38.42 Y9.431 Z0 F800
G1 X38.345 Y9.227 Z0 F800
G1 X38.207 Y9.012 Z0 F800
G1 X38.043 Y8.85 Z0 F800
G1 X37.843 Y8.728 Z0 F800
G1 X37.619 Y8.656 Z0 F800
G1 X37.404 Y8.642 Z0 F800
G1 X36.572 Y8.709 Z0 F800
G1 X35.807 Y8.8 Z0 F800
G1 X35.107 Y8.869 Z0 F800
G1 X34.474 Y8.88 Z0 F800
G1 X34.47 Z0 F800
G1 X33.546 Y8.869 Z0 F800
G1 X32.705 Y8.854 Z0 F800
G1 X31.906 Y8.798 Z0 F800
G1 X31.372 Y8.707 Z0 F800
G1 X31.293 Y8.614 Z0 F800
G1 X31.171 Y8.505 Z0 F800
G1 X31.015 Y8.404 Z0 F800
G1 X30.819 Y8.325 Z0 F800
G1 X30.608 Y8.289 Z0 F800
G1 X30.413 Y8.293 Z0 F800
G1 X30.24 Y8.326 Z0 F800
G1 X30.14 Y8.361 Z0 F800
G1 X30.097 Y8.354 Z0 F800
G1 X30.016 Y8.327 Z0 F800
G1 X29.886 Y8.263 Z0 F800
G1 X29.467 Y8.003 Z0 F800
G1 X28.987 Y7.73 Z0 F800
G1 X28.98 Y7.667 Z0 F800
G1 X28.951 Y7.471 Z0 F800
G1 X28.854 Y7.241 Z0 F800
G1 X28.702 Y7.043 Z0 F800
G1 X28.514 Y6.896 Z0 F800
G1 X28.132 Y6.706 Z0 F800
G1 X27.755 Y6.586 Z0 F800
G1 X27.381 Y6.522 Z0 F800
G1 X27.011 Y6.502 Z0 F800
G1 X26.352 Y6.553 Z0 F800
G1 X25.726 Y6.67 Z0 F800
G1 X25.449 Y6.783 Z0 F800
G1 X25.22 Y6.983 Z0 F800
G1 X25.084 Y7.168 Z0 F800
G1 X25.055 Y7.221 Z0 F800
G1 X25.032 Y7.227 Z0 F800
G1 X24.77 Y7.257 Z0 F800
G1 X24.039 Y7.308 Z0 F800
G1 X23.584 Y7.369 Z0 F800
G1 X23.099 Y7.504 Z0 F800
G1 X22.834 Y7.62 Z0 F800
G1 X22.581 Y7.768 Z0 F800
G1 X22.339 Y7.954 Z0 F800
G1 X22.148 Y8.147 Z0 F800
G1 X22.052 Y8.233 Z0 F800
G1 X21.96 Y8.285 Z0 F800
G1 X21.841 Y8.324 Z0 F800
G1 X21.698 Y8.346 Z0 F800
G1 X21.548 Z0 F800
G1 X21.398 Y8.326 Z0 F800
G1 X21.261 Y8.285 Z0 F800
G1 X21.114 Y8.211 Z0 F800
G1 X21.044 Y8.172 Z0 F800
G1 X20.664 Y8.04 Z0 F800
G1 X20.308 Y7.996 Z0 F800
G1 X20.02 Y8.002 Z0 F800
G1 X19.812 Y8.019 Z0 F800
G1 X19.709 Y8.024 Z0 F800
G1 X19.697 Y8.015 Z0 F800
G1 X19.599 Y7.96 Z0 F800
G1 X19.375 Y7.863 Z0 F800
G1 X19.185 Y7.797 Z0 F800
G1 X19.055 Y7.757 Z0 F800
G1 X18.948 Y7.614 Z0 F800
G1 X18.821 Y7.463 Z0 F800
G1 X18.536 Y7.084 Z0 F800
G1 X18.346 Y6.85 Z0 F800
G1 X18.118 Y6.611 Z0 F800
G1 X17.83 Y6.382 Z0 F800
G1 X17.483 Y6.188 Z0 F800
G1 X17.156 Y6.079 Z0 F800
G1 X16.834 Y5.921 Z0 F800
G1 X16.454 Y5.78 Z0 F800
G1 X16.077 Y5.678 Z0 F800
G1 X15.703 Y5.607 Z0 F800
G1 X15.01 Y5.531 Z0 F800
G1 X14.319 Y5.491 Z0 F800
G1 X13.993 Y5.533 Z0 F800
G1 X13.714 Y5.69 Z0 F800
G1 X13.563 Y5.808 Z0 F800
G1 X13.391 Y5.935 Z0 F800
G1 X13.183 Y6.099 Z0 F800
G1 X12.946 Y6.32 Z0 F800
G1 X12.71 Y6.629 Z0 F800
G1 X12.534 Y7.012 Z0 F800
G1 X12.473 Y7.251 Z0 F800
G1 X12.445 Y7.492 Z0 F800
G1 X12.453 Y7.745 Z0 F800
G1 X12.458 Y7.77 Z0 F800
G1 X12.445 Y7.855 Z0 F800
G1 X12.391 Y7.976 Z0 F800
G1 X12.263 Y8.153 Z0 F800
G1 X12.06 Y8.384 Z0 F800
G1 X11.778 Y8.689 Z0 F800
G1 X11.477 Y9.063 Z0 F800
G1 X11.324 Y9.298 Z0 F800
G1 X11.191 Y9.557 Z0 F800
G1 X11.083 Y9.846 Z0 F800
G1 X11.043 Y10.019 Z0 F800
G1 X10.752 Y10.767 Z0 F800
G1 X10.398 Y11.616 Z0 F800
G1 X10.234 Y12.093 Z0 F800
G1 X10.102 Y12.602 Z0 F800
G1 X10.02 Y13.147 Z0 F800
G1 X9.994 Y14.241 Z0 F800
G1 X10.054 Y14.861 Z0 F800
G1 X10.138 Y15.208 Z0 F800
G1 X10.27 Y15.547 Z0 F800
G1 X10.458 Y15.88 Z0 F800
G1 X10.686 Y16.163 Z0 F800
G1 X10.889 Y16.427 Z0 F800
G1 X11.15 Y16.677 Z0 F800
G1 X11.429 Y16.878 Z0 F800
G1 X11.725 Y17.041 Z0 F800
G1 X12.277 Y17.251 Z0 F800
G1 X12.542 Y17.318 Z0 F800
G1 X12.64 Y17.499 Z0 F800
G1 X12.843 Y17.758 Z0 F800
G1 X13.018 Y17.905 Z0 F800
G1 X13.211 Y18.02 Z0 F800
G1 X13.422 Y18.104 Z0 F800
G1 X13.64 Y18.155 Z0 F800
G1 X13.992 Y18.19 Z0 F800
G1 X14.311 Y18.177 Z0 F800
G1 X14.573 Y18.142 Z0 F800
G1 X14.777 Y18.108 Z0 F800
G1 X14.914 Y18.09 Z0 F800
G1 X14.988 Y18.087 Z0 F800
G1 X15.006 Y18.09 Z0 F800
G1 X15.029 Y18.098 Z0 F800
G1 X15.358 Y18.27 Z0 F800
G1 X15.587 Y18.428 Z0 F800
G1 X15.545 Y18.55 Z0 F800
G1 X15.527 Y18.739 Z0 F800
G1 X15.494 Y18.747 Z0 F800
G1 X15.527 Y18.965 Z0 F800
G1 X15.546 Y19.167 Z0 F800
G1 X15.567 Y19.227 Z0 F800
G1 X15.627 Y19.622 Z0 F800
G1 X15.633 Y20.011 Z0 F800
G1 X15.584 Y20.379 Z0 F800
G1 X15.47 Y20.759 Z0 F800
G1 X15.445 Y20.826 Z0 F800
G1 X15.391 Y21.13 Z0 F800
G1 X15.397 Y21.433 Z0 F800
G1 X15.456 Y21.72 Z0 F800
G1 X15.566 Y21.99 Z0 F800
G1 X15.815 Y22.338 Z0 F800
G1 X15.938 Y22.457 Z0 F800
G1 X15.932 Y22.464 Z0 F800
G1 X15.572 Y22.797 Z0 F800
G1 X15.17 Y23.105 Z0 F800
G1 X15.024 Y23.201 Z0 F800
G1 X14.954 Y23.143 Z0 F800
G1 X14.707 Y22.983 Z0 F800
G1 X14.462 Y22.887 Z0 F800
G1 X14.222 Y22.867 Z0 F800
G1 X13.397 Y22.891 Z0 F800
G1 X12.522 Y22.939 Z0 F800
G1 X12.044 Y23.009 Z0 F800
G1 X11.56 Y23.131 Z0 F800
G1 X11.072 Y23.319 Z0 F800
G1 X10.634 Y23.566 Z0 F800
G1 X10.361 Y23.713 Z0 F800
G1 X10.092 Y23.916 Z0 F800
G1 X9.863 Y24.149 Z0 F800
G1 X9.674 Y24.405 Z0 F800
G1 X9.522 Y24.676 Z0 F800
G1 X9.405 Y24.956 Z0 F800
G1 X9.321 Y25.242 Z0 F800
G1 X9.294 Y25.384 Z0 F800
G1 X9.027 Y26.077 Z0 F800
G1 X8.77 Y26.904 Z0 F800
G1 X8.666 Y27.343 Z0 F800
G1 X8.585 Y27.79 Z0 F800
G1 X8.533 Y28.249 Z0 F800
G1 X8.514 Y28.664 Z0 F800
G1 X8.433 Y29.215 Z0 F800
G1 X8.274 Y29.836 Z0 F800
G1 X8.096 Y30.552 Z0 F800
G1 X7.971 Y31.372 Z0 F800
G1 X7.98 Y31.591 Z0 F800
G1 X8.035 Y31.788 Z0 F800
G1 X8.183 Y32.132 Z0 F800
G1 X8.286 Y32.365 Z0 F800
G1 X8.331 Y32.499 Z0 F800
G1 X8.338 Y32.584 Z0 F800
G1 X8.335 Y32.63 Z0 F800
G1 X8.35 Y33.229 Z0 F800
G1 X8.37 Y33.772 Z0 F800
G1 X8.378 Y34.286 Z0 F800
G1 X8.367 Y34.531 Z0 F800
G1 X8.153 Y34.692 Z0 F800
G1 X7.869 Y34.988 Z0 F800
G1 X7.747 Y35.19 Z0 F800
G1 X7.333 Y35.337 Z0 F800
G1 X6.704 Y35.569 Z0 F800
G1 X6.045 Y35.868 Z0 F800
G1 X5.392 Y36.271 Z0 F800
G1 X5.294 Y36.351 Z0 F800
G1 X5.202 Y36.448 Z0 F800
G1 X4.879 Y36.926 Z0 F800
G1 X4.847 Y37 Z0 F800
G1 Y36.923 Z0 F800
G1 X4.851 Y31.732 Z0 F800
G1 X4.845 Y26.539 Z0 F800
G1 X4.849 Y21.221 Z0 F800
G1 X4.841 Y15.91 Z0 F800
G1 X4.855 Y10.606 Z0 F800
G1 X4.923 Y5.291 Z0 F800
G1 X4.957 Y4.911 Z0 F800
G1 X4.96 Y4.655 Z0 F800
G1 X5.179 Y4.635 Z0 F800
G1 X5.791 Y4.624 Z0 F800
G1 X6.449 Z0 F800
G1 X7.146 Y4.602 Z0 F800
G1 X17.152 Y4.565 Z0 F800
G1 X27.171 Y4.554 Z0 F800
G0 Z3.5 F500
G0 X46.11 Y46.037 Z3.5 
G1 Z0 F500
G1 X46.098 Y46.422 Z0 F800
G1 X45.305 Z0 F800
G1 X45.701 Y46.277 Z0 F800
G1 X46.11 Y46.037 Z0 F800
G0 Z3.5 F500
G0 X46.632 Y45.294 Z3.5 
G1 Z0 F500
G1 X46.597 Y46.478 Z0 F800
G1 X46.557 Y46.922 Z0 F800
G1 X21.396 Z0 F800
G1 X21.384 Y46.585 Z0 F800
G1 X21.291 Y46.228 Z0 F800
G1 X21.23 Y46.1 Z0 F800
G1 X21.207 Y45.982 Z0 F800
G1 X20.986 Y45.533 Z0 F800
G1 X20.892 Y45.41 Z0 F800
G1 X21.336 Y45.263 Z0 F800
G1 X21.826 Y44.918 Z0 F800
G1 X22.168 Y44.546 Z0 F800
G1 X22.405 Y44.184 Z0 F800
G1 X22.562 Y43.878 Z0 F800
G1 X22.674 Y43.639 Z0 F800
G1 X22.755 Y43.471 Z0 F800
G1 X22.806 Y43.377 Z0 F800
G1 X22.832 Y43.34 Z0 F800
G1 X22.972 Y43.2 Z0 F800
G1 X23.1 Y42.958 Z0 F800
G1 X23.116 Y42.935 Z0 F800
G1 X23.347 Y42.702 Z0 F800
G1 X23.373 Y42.713 Z0 F800
G1 X23.498 Y42.753 Z0 F800
G1 X23.646 Y42.833 Z0 F800
G1 X23.81 Y42.897 Z0 F800
G1 X23.92 Y43.38 Z0 F800
G1 X24.133 Y43.895 Z0 F800
G1 X24.426 Y44.365 Z0 F800
G1 X24.792 Y44.782 Z0 F800
G1 X25.226 Y45.134 Z0 F800
G1 X25.719 Y45.413 Z0 F800
G1 X26.244 Y45.597 Z0 F800
G1 X26.43 Y45.635 Z0 F800
G1 X27.019 Y45.679 Z0 F800
G1 X27.646 Y45.713 Z0 F800
G1 X28.096 Y45.681 Z0 F800
G1 X28.451 Y45.601 Z0 F800
G1 X28.502 Y45.676 Z0 F800
G1 X28.891 Y45.435 Z0 F800
G1 X29.107 Y45.338 Z0 F800
G1 X29.367 Y45.14 Z0 F800
G1 X29.786 Y44.88 Z0 F800
G1 X30.279 Y44.497 Z0 F800
G1 X30.54 Y44.245 Z0 F800
G1 X30.775 Y43.972 Z0 F800
G1 X30.992 Y43.666 Z0 F800
G1 X31.07 Y43.526 Z0 F800
G1 X31.429 Y43.104 Z0 F800
G1 X31.921 Y42.52 Z0 F800
G1 X32.185 Y42.162 Z0 F800
G1 X32.435 Y41.766 Z0 F800
G1 X32.66 Y41.323 Z0 F800
G1 X32.857 Y40.8 Z0 F800
G1 X32.917 Y40.458 Z0 F800
G1 X32.914 Y40.422 Z0 F800
G1 X33.063 Y40.334 Z0 F800
G1 X33.157 Y40.261 Z0 F800
G1 X33.099 Y41.036 Z0 F800
G1 X33.043 Y42.094 Z0 F800
G1 X33.075 Y43.26 Z0 F800
G1 X33.143 Y43.585 Z0 F800
G1 X33.287 Y43.882 Z0 F800
G1 X33.519 Y44.201 Z0 F800
G1 X33.759 Y44.46 Z0 F800
G1 X34.014 Y44.679 Z0 F800
G1 X34.29 Y44.873 Z0 F800
G1 X34.787 Y45.135 Z0 F800
G1 X35.267 Y45.316 Z0 F800
G1 X35.688 Y45.444 Z0 F800
G1 X36.035 Y45.541 Z0 F800
G1 X36.328 Y45.63 Z0 F800
G1 X36.559 Y45.721 Z0 F800
G1 X37.132 Y45.972 Z0 F800
G1 X37.815 Y46.211 Z0 F800
G1 X38.224 Y46.31 Z0 F800
G1 X38.455 Y46.344 Z0 F800
G1 X38.461 Y46.428 Z0 F800
G1 X39.063 Y46.391 Z0 F800
G1 X39.099 Z0 F800
G1 X39.454 Y46.367 Z0 F800
G1 X40.421 Y46.307 Z0 F800
G1 X41.352 Y46.222 Z0 F800
G1 X42.231 Y46.158 Z0 F800
G1 X43.739 Y46.154 Z0 F800
G1 X44.501 Y46.107 Z0 F800
G1 X44.987 Y46.007 Z0 F800
G1 X45.486 Y45.823 Z0 F800
G1 X45.981 Y45.532 Z0 F800
G1 X46.591 Y44.983 Z0 F800
G1 X46.633 Y44.94 Z0 F800
G1 Y45.294 Z0 F800
G0 Z3.5 F500
G0 X46.857 Y47.422 Z3.5 
G1 Z0 F500
G1 X20.744 Z0 F800
G1 X20.771 Y47.377 Z0 F800
G1 X20.85 Y47.172 Z0 F800
G1 X20.896 Y46.927 Z0 F800
G1 X20.887 Y46.658 Z0 F800
G1 X20.819 Y46.4 Z0 F800
G1 X20.752 Y46.258 Z0 F800
G1 X20.729 Y46.144 Z0 F800
G1 X20.559 Y45.798 Z0 F800
G1 X20.359 Y45.536 Z0 F800
G1 X20.177 Y45.35 Z0 F800
G1 X20.036 Y45.215 Z0 F800
G1 X19.941 Y45.121 Z0 F800
G1 X19.879 Y45.056 Z0 F800
G1 X19.869 Y45.042 Z0 F800
G1 X19.844 Y45 Z0 F800
G1 X19.818 Y44.964 Z0 F800
G1 X19.75 Y44.843 Z0 F800
G1 X19.665 Y44.713 Z0 F800
G1 X19.701 Y44.72 Z0 F800
G1 X20.471 Y44.904 Z0 F800
G1 X20.785 Y44.918 Z0 F800
G1 X21.109 Y44.812 Z0 F800
G1 X21.495 Y44.541 Z0 F800
G1 X21.772 Y44.238 Z0 F800
G1 X21.972 Y43.933 Z0 F800
G1 X22.112 Y43.658 Z0 F800
G1 X22.219 Y43.432 Z0 F800
G1 X22.308 Y43.248 Z0 F800
G1 X22.38 Y43.113 Z0 F800
G1 X22.449 Y43.016 Z0 F800
G1 X22.565 Y42.9 Z0 F800
G1 X22.67 Y42.7 Z0 F800
G1 X22.711 Y42.643 Z0 F800
G1 X22.704 Y42.637 Z0 F800
G1 X22.732 Y42.583 Z0 F800
G1 X22.75 Y42.52 Z0 F800
G1 X22.846 Y42.497 Z0 F800
G1 X23.145 Y42.194 Z0 F800
G1 X23.208 Y42.093 Z0 F800
G1 X23.309 Y42.142 Z0 F800
G1 X23.548 Y42.245 Z0 F800
G1 X23.697 Y42.292 Z0 F800
G1 X23.857 Y42.379 Z0 F800
G1 X24.136 Y42.488 Z0 F800
G1 X24.279 Y42.533 Z0 F800
G1 X24.291 Y42.76 Z0 F800
G1 X24.398 Y43.228 Z0 F800
G1 X24.58 Y43.666 Z0 F800
G1 X24.829 Y44.066 Z0 F800
G1 X25.141 Y44.421 Z0 F800
G1 X25.508 Y44.72 Z0 F800
G1 X25.926 Y44.956 Z0 F800
G1 X26.378 Y45.114 Z0 F800
G1 X26.5 Y45.139 Z0 F800
G1 X27.051 Y45.18 Z0 F800
G1 X27.642 Y45.212 Z0 F800
G1 X28.022 Y45.185 Z0 F800
G1 X28.432 Y45.092 Z0 F800
G1 X28.644 Y44.998 Z0 F800
G1 X28.656 Y44.992 Z0 F800
G1 X28.85 Y44.906 Z0 F800
G1 X29.083 Y44.729 Z0 F800
G1 X29.5 Y44.47 Z0 F800
G1 X29.951 Y44.119 Z0 F800
G1 X30.175 Y43.901 Z0 F800
G1 X30.381 Y43.663 Z0 F800
G1 X30.568 Y43.398 Z0 F800
G1 X30.656 Y43.241 Z0 F800
G1 X31.048 Y42.781 Z0 F800
G1 X31.528 Y42.21 Z0 F800
G1 X31.771 Y41.879 Z0 F800
G1 X32 Y41.519 Z0 F800
G1 X32.202 Y41.121 Z0 F800
G1 X32.373 Y40.667 Z0 F800
G1 X32.413 Y40.435 Z0 F800
G1 X32.393 Y40.186 Z0 F800
G1 X32.376 Y40.138 Z0 F800
G1 X32.523 Y40.073 Z0 F800
G1 X32.782 Y39.919 Z0 F800
G1 X33.023 Y39.733 Z0 F800
G1 X33.243 Y39.515 Z0 F800
G1 X33.433 Y39.266 Z0 F800
G1 X33.547 Y39.064 Z0 F800
G1 X33.698 Y39.31 Z0 F800
G1 X33.671 Y40.088 Z0 F800
G1 X33.598 Y41.068 Z0 F800
G1 X33.543 Y42.101 Z0 F800
G1 X33.573 Y43.201 Z0 F800
G1 X33.62 Y43.422 Z0 F800
G1 X33.717 Y43.624 Z0 F800
G1 X33.906 Y43.883 Z0 F800
G1 X34.106 Y44.1 Z0 F800
G1 X34.321 Y44.284 Z0 F800
G1 X34.551 Y44.445 Z0 F800
G1 X34.993 Y44.678 Z0 F800
G1 X35.428 Y44.843 Z0 F800
G1 X35.828 Y44.964 Z0 F800
G1 X36.192 Y45.066 Z0 F800
G1 X36.488 Y45.156 Z0 F800
G1 X36.75 Y45.259 Z0 F800
G1 X37.315 Y45.507 Z0 F800
G1 X37.956 Y45.731 Z0 F800
G1 X38.319 Y45.818 Z0 F800
G1 X38.695 Y45.875 Z0 F800
G1 X38.923 Y45.885 Z0 F800
G1 Y45.899 Z0 F800
G1 X39.058 Y45.891 Z0 F800
G1 X39.091 Z0 F800
G1 X39.38 Y45.871 Z0 F800
G1 X40.383 Y45.809 Z0 F800
G1 X41.324 Y45.723 Z0 F800
G1 X42.208 Y45.658 Z0 F800
G1 X43.723 Y45.654 Z0 F800
G1 X44.435 Y45.61 Z0 F800
G1 X44.85 Y45.524 Z0 F800
G1 X45.271 Y45.369 Z0 F800
G1 X45.685 Y45.126 Z0 F800
G1 X46.246 Y44.621 Z0 F800
G1 X46.481 Y44.383 Z0 F800
G1 X46.711 Y44.105 Z0 F800
G1 X46.923 Y43.777 Z0 F800
G1 X47.1 Y43.379 Z0 F800
G1 X47.146 Y43.18 Z0 F800
G1 X47.137 Y44.055 Z0 F800
G1 X47.132 Y45.293 Z0 F800
G1 X47.096 Y46.512 Z0 F800
G1 X47.013 Y47.438 Z0 F800
G1 X46.95 Y47.428 Z0 F800
G1 X46.857 Y47.422 Z0 F800
G0 Z3.5 F500
G0 X5.511 Y45.342 Z3.5 
G1 Z0 F500
G1 X5.534 Y46.057 Z0 F800
G1 X5.568 Y46.724 Z0 F800
G1 X5.58 Y47.315 Z0 F800
G1 X5.574 Y47.403 Z0 F800
G1 X5.39 Y47.399 Z0 F800
G1 X5.216 Y47.416 Z0 F800
G1 X5.111 Z0 F800
G1 X5.024 Y47.398 Z0 F800
G1 X4.956 Y47.374 Z0 F800
G1 X4.93 Y47.358 Z0 F800
G1 Y47.355 Z0 F800
G1 Y47.293 Z0 F800
G1 X4.876 Y43.15 Z0 F800
G1 X5.011 Y43.318 Z0 F800
G1 X5.169 Y43.472 Z0 F800
G1 X5.285 Y43.604 Z0 F800
G1 X5.344 Y43.717 Z0 F800
G1 X5.392 Y43.874 Z0 F800
G1 X5.428 Y44.097 Z0 F800
G1 X5.464 Y44.719 Z0 F800
G1 X5.511 Y45.342 Z0 F800
G0 Z3.5 F500
G0 X34.769 Y23.673 Z3.5 
G1 Z0 F500
G1 X34.756 Y23.027 Z0 F800
G1 X34.748 Y21.942 Z0 F800
G1 X34.764 Y20.868 Z0 F800
G1 X34.794 Y20.283 Z0 F800
G1 X34.926 Y20.289 Z0 F800
G1 X35.086 Y20.301 Z0 F800
G1 X35.124 Y20.586 Z0 F800
G1 X35.233 Y20.893 Z0 F800
G1 X35.346 Y21.149 Z0 F800
G1 X35.443 Y21.39 Z0 F800
G1 X35.498 Y21.559 Z0 F800
G1 X35.611 Y21.813 Z0 F800
G1 X35.697 Y21.883 Z0 F800
G1 X35.603 Y21.928 Z0 F800
G1 X35.345 Y22.171 Z0 F800
G1 X35.192 Y22.442 Z0 F800
G1 X35.123 Y22.684 Z0 F800
G1 X35.104 Y22.883 Z0 F800
G1 X35.107 Y23.03 Z0 F800
G1 X35.12 Y23.231 Z0 F800
G1 X35.132 Y23.354 Z0 F800
G1 Y23.375 Z0 F800
G1 X35.085 Y23.612 Z0 F800
G1 Y23.686 Z0 F800
G1 X35.034 Y23.683 Z0 F800
G1 X34.769 Y23.673 Z0 F800
G0 Z3.5 F500
G0 X34.278 Y24.146 Z3.5 
G1 Z0 F500
G1 X34.256 Y23.037 Z0 F800
G1 X34.248 Y21.934 Z0 F800
G1 X34.265 Y20.842 Z0 F800
G1 X34.321 Y19.764 Z0 F800
G1 X34.957 Y19.79 Z0 F800
G1 X35.572 Y19.836 Z0 F800
G1 X35.579 Y20.026 Z0 F800
G1 X35.582 Y20.233 Z0 F800
G1 X35.613 Y20.468 Z0 F800
G1 X35.698 Y20.708 Z0 F800
G1 X35.808 Y20.958 Z0 F800
G1 X35.914 Y21.22 Z0 F800
G1 X35.965 Y21.379 Z0 F800
G1 X36.02 Y21.501 Z0 F800
G1 X36.104 Y21.57 Z0 F800
G1 X36.246 Y21.573 Z0 F800
G1 X36.684 Y21.491 Z0 F800
G1 X36.94 Y21.428 Z0 F800
G1 X37.208 Y21.336 Z0 F800
G1 X37.411 Y21.227 Z0 F800
G1 X37.6 Y21.072 Z0 F800
G1 X37.77 Y20.878 Z0 F800
G1 X37.914 Y20.651 Z0 F800
G1 X38.008 Y20.658 Z0 F800
G1 X38.126 Y20.651 Z0 F800
G1 X38.21 Y20.632 Z0 F800
G1 X38.308 Y20.593 Z0 F800
G1 X38.41 Y20.529 Z0 F800
G1 X38.503 Y20.434 Z0 F800
G1 X38.571 Y20.319 Z0 F800
G1 X38.606 Y20.204 Z0 F800
G1 X38.619 Y20.097 Z0 F800
G1 X38.615 Y20.006 Z0 F800
G1 X38.594 Y19.911 Z0 F800
G1 X38.564 Y19.827 Z0 F800
G1 X38.504 Y19.203 Z0 F800
G1 X38.416 Y18.586 Z0 F800
G1 X38.303 Y17.977 Z0 F800
G1 X38.169 Y17.375 Z0 F800
G1 X38.133 Y17.274 Z0 F800
G1 X38.076 Y17.184 Z0 F800
G1 X38 Y17.109 Z0 F800
G1 X37.91 Y17.051 Z0 F800
G1 X37.664 Y16.949 Z0 F800
G1 X37.436 Y16.883 Z0 F800
G1 X37.233 Y16.834 Z0 F800
G1 X37.064 Y16.787 Z0 F800
G1 X36.96 Y16.743 Z0 F800
G1 X36.908 Y16.709 Z0 F800
G1 X36.954 Y16.551 Z0 F800
G1 X37.044 Y16.404 Z0 F800
G1 X37.183 Y16.253 Z0 F800
G1 X37.376 Y16.083 Z0 F800
G1 X37.633 Y15.868 Z0 F800
G1 X37.902 Y15.604 Z0 F800
G1 X38.026 Y15.449 Z0 F800
G1 X38.138 Y15.274 Z0 F800
G1 X38.229 Y15.077 Z0 F800
G1 X38.296 Y14.856 Z0 F800
G1 X38.277 Y14.922 Z0 F800
G1 X38.348 Y14.78 Z0 F800
G1 X38.457 Y14.611 Z0 F800
G1 X38.591 Y14.415 Z0 F800
G1 X38.738 Y14.19 Z0 F800
G1 X38.877 Y13.925 Z0 F800
G1 X38.979 Y13.613 Z0 F800
G1 X39.007 Y13.442 Z0 F800
G1 X39.015 Y13.264 Z0 F800
G1 X38.997 Y13.081 Z0 F800
G1 X38.951 Y12.893 Z0 F800
G1 X38.787 Y12.103 Z0 F800
G1 X38.542 Y11.362 Z0 F800
G1 X38.256 Y10.662 Z0 F800
G1 X37.97 Y9.993 Z0 F800
G1 X37.949 Y9.949 Z0 F800
G1 X37.923 Y9.909 Z0 F800
G1 X37.954 Y9.956 Z0 F800
G1 X37.96 Y9.962 Z0 F800
G1 X37.954 Y9.933 Z0 F800
G1 X37.949 Y9.875 Z0 F800
G1 Y9.798 Z0 F800
G1 X37.942 Y9.633 Z0 F800
G1 X37.932 Y9.551 Z0 F800
G1 X37.895 Y9.451 Z0 F800
G1 X37.816 Y9.329 Z0 F800
G1 X37.733 Y9.246 Z0 F800
G1 X37.634 Y9.186 Z0 F800
G1 X37.524 Y9.151 Z0 F800
G1 X37.408 Y9.143 Z0 F800
G1 X36.622 Y9.207 Z0 F800
G1 X35.865 Y9.296 Z0 F800
G1 X35.135 Y9.368 Z0 F800
G1 X34.427 Y9.381 Z0 F800
G1 X34.416 Z0 F800
G1 X33.537 Y9.369 Z0 F800
G1 X32.68 Y9.353 Z0 F800
G1 X31.851 Y9.295 Z0 F800
G1 X31.058 Y9.16 Z0 F800
G1 X31.032 Y9.1 Z0 F800
G1 X30.982 Y9.02 Z0 F800
G1 X30.935 Y8.963 Z0 F800
G1 X30.868 Y8.904 Z0 F800
G1 X30.784 Y8.85 Z0 F800
G1 X30.681 Y8.809 Z0 F800
G1 X30.571 Y8.79 Z0 F800
G1 X30.465 Z0 F800
G1 X30.37 Y8.81 Z0 F800
G1 X30.291 Y8.838 Z0 F800
G1 X30.263 Y8.855 Z0 F800
G1 X30.125 Y8.864 Z0 F800
G1 X29.98 Y8.843 Z0 F800
G1 X29.823 Y8.789 Z0 F800
G1 X29.644 Y8.701 Z0 F800
G1 X29.211 Y8.433 Z0 F800
G1 X28.705 Y8.145 Z0 F800
G1 X28.671 Y8.129 Z0 F800
G1 X28.591 Y8.083 Z0 F800
G1 X28.542 Y8.014 Z0 F800
G1 X28.502 Y7.895 Z0 F800
G1 X28.484 Y7.731 Z0 F800
G1 X28.466 Y7.607 Z0 F800
G1 X28.418 Y7.495 Z0 F800
G1 X28.344 Y7.397 Z0 F800
G1 X28.246 Y7.321 Z0 F800
G1 X27.944 Y7.171 Z0 F800
G1 X27.636 Y7.073 Z0 F800
G1 X27.326 Y7.02 Z0 F800
G1 X27.017 Y7.003 Z0 F800
G1 X26.417 Y7.05 Z0 F800
G1 X25.867 Y7.153 Z0 F800
G1 X25.715 Y7.214 Z0 F800
G1 X25.591 Y7.323 Z0 F800
G1 X25.505 Y7.44 Z0 F800
G1 X25.452 Y7.534 Z0 F800
G1 X25.4 Y7.651 Z0 F800
G1 X25.12 Y7.72 Z0 F800
G1 X24.812 Y7.756 Z0 F800
G1 X24.089 Y7.805 Z0 F800
G1 X23.686 Y7.859 Z0 F800
G1 X23.267 Y7.976 Z0 F800
G1 X23.061 Y8.066 Z0 F800
G1 X22.861 Y8.183 Z0 F800
G1 X22.671 Y8.33 Z0 F800
G1 X22.494 Y8.508 Z0 F800
G1 X22.344 Y8.643 Z0 F800
G1 X22.163 Y8.744 Z0 F800
G1 X21.958 Y8.812 Z0 F800
G1 X21.739 Y8.846 Z0 F800
G1 X21.513 Z0 F800
G1 X21.29 Y8.815 Z0 F800
G1 X21.077 Y8.751 Z0 F800
G1 X20.882 Y8.655 Z0 F800
G1 X20.837 Y8.629 Z0 F800
G1 X20.55 Y8.529 Z0 F800
G1 X20.283 Y8.497 Z0 F800
G1 X20.045 Y8.502 Z0 F800
G1 X19.847 Y8.518 Z0 F800
G1 X19.7 Y8.525 Z0 F800
G1 X19.598 Y8.521 Z0 F800
G1 X19.527 Y8.503 Z0 F800
G1 X19.47 Y8.469 Z0 F800
G1 X19.425 Y8.436 Z0 F800
G1 X19.376 Y8.409 Z0 F800
G1 X19.194 Y8.33 Z0 F800
G1 X19.029 Y8.272 Z0 F800
G1 X18.889 Y8.229 Z0 F800
G1 X18.779 Y8.192 Z0 F800
G1 X18.682 Y8.153 Z0 F800
G1 X18.628 Y8.021 Z0 F800
G1 X18.556 Y7.924 Z0 F800
G1 X18.429 Y7.774 Z0 F800
G1 X18.141 Y7.392 Z0 F800
G1 X17.97 Y7.18 Z0 F800
G1 X17.78 Y6.981 Z0 F800
G1 X17.55 Y6.798 Z0 F800
G1 X17.28 Y6.647 Z0 F800
G1 X16.968 Y6.543 Z0 F800
G1 X16.637 Y6.381 Z0 F800
G1 X16.302 Y6.257 Z0 F800
G1 X15.965 Y6.166 Z0 F800
G1 X15.629 Y6.102 Z0 F800
G1 X14.968 Y6.029 Z0 F800
G1 X14.337 Y5.993 Z0 F800
G1 X14.154 Y6.017 Z0 F800
G1 X13.992 Y6.108 Z0 F800
G1 X13.859 Y6.21 Z0 F800
G1 X13.694 Y6.332 Z0 F800
G1 X13.509 Y6.479 Z0 F800
G1 X13.318 Y6.657 Z0 F800
G1 X13.141 Y6.888 Z0 F800
G1 X13.007 Y7.18 Z0 F800
G1 X12.965 Y7.342 Z0 F800
G1 X12.946 Y7.513 Z0 F800
G1 X12.951 Y7.689 Z0 F800
G1 X12.964 Y7.756 Z0 F800
G1 X12.931 Y7.995 Z0 F800
G1 X12.824 Y8.229 Z0 F800
G1 X12.654 Y8.465 Z0 F800
G1 X12.427 Y8.723 Z0 F800
G1 X12.157 Y9.016 Z0 F800
G1 X11.882 Y9.356 Z0 F800
G1 X11.758 Y9.549 Z0 F800
G1 X11.649 Y9.76 Z0 F800
G1 X11.563 Y9.991 Z0 F800
G1 X11.503 Y10.245 Z0 F800
G1 X11.519 Y10.174 Z0 F800
G1 X11.213 Y10.959 Z0 F800
G1 X10.866 Y11.794 Z0 F800
G1 X10.713 Y12.237 Z0 F800
G1 X10.592 Y12.702 Z0 F800
G1 X10.519 Y13.19 Z0 F800
G1 X10.495 Y14.223 Z0 F800
G1 X10.548 Y14.778 Z0 F800
G1 X10.616 Y15.058 Z0 F800
G1 X10.723 Y15.333 Z0 F800
G1 X10.874 Y15.598 Z0 F800
G1 X11.076 Y15.85 Z0 F800
G1 X11.262 Y16.092 Z0 F800
G1 X11.471 Y16.292 Z0 F800
G1 X11.697 Y16.455 Z0 F800
G1 X11.936 Y16.586 Z0 F800
G1 X12.428 Y16.773 Z0 F800
G1 X12.886 Y16.889 Z0 F800
G1 X12.89 Y16.904 Z0 F800
G1 X12.972 Y17.063 Z0 F800
G1 X13.059 Y17.223 Z0 F800
G1 X13.205 Y17.409 Z0 F800
G1 X13.308 Y17.496 Z0 F800
G1 X13.433 Y17.57 Z0 F800
G1 X13.573 Y17.626 Z0 F800
G1 X13.722 Y17.661 Z0 F800
G1 X14.007 Y17.689 Z0 F800
G1 X14.267 Y17.679 Z0 F800
G1 X14.499 Y17.647 Z0 F800
G1 X14.701 Y17.614 Z0 F800
G1 X14.873 Y17.591 Z0 F800
G1 X15.012 Y17.586 Z0 F800
G1 X15.128 Y17.602 Z0 F800
G1 X15.234 Y17.641 Z0 F800
G1 X15.617 Y17.841 Z0 F800
G1 X15.941 Y18.065 Z0 F800
G1 X16.039 Y18.162 Z0 F800
G1 X16.099 Y18.251 Z0 F800
G1 X16.13 Y18.337 Z0 F800
G1 X16.14 Y18.426 Z0 F800
G1 X16.128 Y18.438 Z0 F800
G1 X16.089 Y18.504 Z0 F800
G1 X16.038 Y18.656 Z0 F800
G1 X16.019 Y18.852 Z0 F800
G1 X16.038 Y19.06 Z0 F800
G1 X16.103 Y19.249 Z0 F800
G1 X16.056 Y19.12 Z0 F800
G1 X16.126 Y19.582 Z0 F800
G1 X16.134 Y20.039 Z0 F800
G1 X16.075 Y20.486 Z0 F800
G1 X15.945 Y20.918 Z0 F800
G1 X15.929 Y20.959 Z0 F800
G1 X15.892 Y21.169 Z0 F800
G1 X15.896 Y21.377 Z0 F800
G1 X15.937 Y21.574 Z0 F800
G1 X16.007 Y21.747 Z0 F800
G1 X16.195 Y22.01 Z0 F800
G1 X16.39 Y22.198 Z0 F800
G1 X16.528 Y22.321 Z0 F800
G1 X16.628 Y22.418 Z0 F800
G1 X16.292 Y22.813 Z0 F800
G1 X15.896 Y23.178 Z0 F800
G1 X15.456 Y23.516 Z0 F800
G1 X14.982 Y23.829 Z0 F800
G1 X14.976 Y23.826 Z0 F800
G1 X14.96 Y23.815 Z0 F800
G1 X14.885 Y23.749 Z0 F800
G1 X14.788 Y23.655 Z0 F800
G1 X14.657 Y23.546 Z0 F800
G1 X14.478 Y23.43 Z0 F800
G1 X14.348 Y23.379 Z0 F800
G1 X14.208 Y23.368 Z0 F800
G1 X13.418 Y23.391 Z0 F800
G1 X12.573 Y23.437 Z0 F800
G1 X12.142 Y23.5 Z0 F800
G1 X11.711 Y23.608 Z0 F800
G1 X11.286 Y23.772 Z0 F800
G1 X10.871 Y24.006 Z0 F800
G1 X10.632 Y24.135 Z0 F800
G1 X10.423 Y24.292 Z0 F800
G1 X10.245 Y24.475 Z0 F800
G1 X10.095 Y24.677 Z0 F800
G1 X9.973 Y24.896 Z0 F800
G1 X9.877 Y25.124 Z0 F800
G1 X9.808 Y25.359 Z0 F800
G1 X9.777 Y25.522 Z0 F800
G1 X9.5 Y26.242 Z0 F800
G1 X9.252 Y27.036 Z0 F800
G1 X9.155 Y27.445 Z0 F800
G1 X9.08 Y27.863 Z0 F800
G1 X9.031 Y28.289 Z0 F800
G1 X9.012 Y28.711 Z0 F800
G1 X8.924 Y29.313 Z0 F800
G1 X8.759 Y29.959 Z0 F800
G1 X8.586 Y30.65 Z0 F800
G1 X8.472 Y31.399 Z0 F800
G1 X8.477 Y31.512 Z0 F800
G1 X8.507 Y31.622 Z0 F800
G1 X8.642 Y31.933 Z0 F800
G1 X8.753 Y32.186 Z0 F800
G1 X8.825 Y32.397 Z0 F800
G1 X8.839 Y32.584 Z0 F800
G1 X8.835 Y32.641 Z0 F800
G1 X8.85 Y33.213 Z0 F800
G1 X8.87 Y33.765 Z0 F800
G1 X8.878 Y34.293 Z0 F800
G1 X8.855 Y34.795 Z0 F800
G1 X8.69 Y34.913 Z0 F800
G1 X8.486 Y35.067 Z0 F800
G1 X8.268 Y35.294 Z0 F800
G1 X8.082 Y35.602 Z0 F800
G1 X7.502 Y35.808 Z0 F800
G1 X6.894 Y36.032 Z0 F800
G1 X6.28 Y36.31 Z0 F800
G1 X5.683 Y36.678 Z0 F800
G1 X5.636 Y36.717 Z0 F800
G1 X5.593 Y36.762 Z0 F800
G1 X5.318 Y37.169 Z0 F800
G1 X5.128 Y37.596 Z0 F800
G1 X5.006 Y38.033 Z0 F800
G1 X4.936 Y38.473 Z0 F800
G1 X4.887 Y39.326 Z0 F800
G1 X4.849 Y40.088 Z0 F800
G1 Y40.116 Z0 F800
G1 X4.838 Y40.461 Z0 F800
G1 X4.822 Y40.813 Z0 F800
G1 X4.814 Y41.19 Z0 F800
G1 X4.83 Y41.584 Z0 F800
G1 X4.89 Y41.994 Z0 F800
G1 X5.02 Y42.405 Z0 F800
G1 X5.116 Y42.605 Z0 F800
G1 X5.235 Y42.798 Z0 F800
G1 X5.382 Y42.981 Z0 F800
G1 X5.556 Y43.151 Z0 F800
G1 X5.542 Y43.139 Z0 F800
G1 X5.699 Y43.319 Z0 F800
G1 X5.809 Y43.526 Z0 F800
G1 X5.88 Y43.764 Z0 F800
G1 X5.925 Y44.04 Z0 F800
G1 X5.963 Y44.686 Z0 F800
G1 X6.017 Y45.407 Z0 F800
G1 X6.011 Y45.344 Z0 F800
G1 X6.033 Y46.036 Z0 F800
G1 X6.067 Y46.698 Z0 F800
G1 X6.08 Y47.329 Z0 F800
G1 X6.039 Y47.926 Z0 F800
G1 X6.021 Y47.931 Z0 F800
G1 X5.939 Z0 F800
G1 X5.791 Y47.92 Z0 F800
G1 X5.614 Y47.904 Z0 F800
G1 X5.408 Y47.899 Z0 F800
G1 X5.173 Y47.922 Z0 F800
G1 X5.216 Y47.916 Z0 F800
G1 X5.06 Y47.913 Z0 F800
G1 X4.897 Y47.883 Z0 F800
G1 X4.744 Y47.829 Z0 F800
G1 X4.615 Y47.754 Z0 F800
G1 X4.519 Y47.672 Z0 F800
G1 X4.457 Y47.586 Z0 F800
G1 X4.426 Y47.485 Z0 F800
G1 Y47.359 Z0 F800
G1 X4.431 Y47.326 Z0 F800
G1 Y47.293 Z0 F800
G1 X4.363 Y42.109 Z0 F800
G1 X4.346 Y36.922 Z0 F800
G1 X4.351 Y31.732 Z0 F800
G1 X4.345 Y26.539 Z0 F800
G1 X4.349 Y21.221 Z0 F800
G1 X4.341 Y15.909 Z0 F800
G1 X4.355 Y10.6 Z0 F800
G1 X4.423 Y5.295 Z0 F800
G1 X4.414 Y5.377 Z0 F800
G1 X4.458 Y4.885 Z0 F800
G1 X4.462 Y4.48 Z0 F800
G1 X4.498 Y4.294 Z0 F800
G1 X4.554 Y4.189 Z0 F800
G1 X5.151 Y4.135 Z0 F800
G1 X5.781 Y4.124 Z0 F800
G1 X6.441 Z0 F800
G1 X7.13 Y4.102 Z0 F800
G1 X17.15 Y4.065 Z0 F800
G1 X27.171 Y4.054 Z0 F800
G1 X37.192 Z0 F800
G1 X47.214 Y4.051 Z0 F800
G1 X47.425 Y4.201 Z0 F800
G1 X47.578 Y4.334 Z0 F800
G1 X47.63 Y4.395 Z0 F800
G1 X47.656 Y4.436 Z0 F800
G1 X47.659 Y4.479 Z0 F800
G1 X47.626 Y4.613 Z0 F800
G1 X47.621 Y4.684 Z0 F800
G1 X47.618 Y14.209 Z0 F800
G1 X47.607 Y23.736 Z0 F800
G1 X47.61 Y33.264 Z0 F800
G1 X47.65 Y42.795 Z0 F800
G1 X47.637 Y44.059 Z0 F800
G1 X47.632 Y45.308 Z0 F800
G1 X47.596 Y46.539 Z0 F800
G1 X47.488 Y47.746 Z0 F800
G1 X47.426 Y47.847 Z0 F800
G1 X47.328 Y47.912 Z0 F800
G1 X47.156 Y47.949 Z0 F800
G1 X46.947 Y47.934 Z0 F800
G1 X46.896 Y47.925 Z0 F800
G1 X46.843 Y47.922 Z0 F800
G1 X19.535 Z0 F800
G1 X19.582 Y47.865 Z0 F800
G1 X19.619 Y47.829 Z0 F800
G1 X19.686 Y47.794 Z0 F800
G1 X19.748 Y47.75 Z0 F800
G1 X19.933 Y47.608 Z0 F800
G1 X20.059 Y47.497 Z0 F800
G1 X20.191 Y47.354 Z0 F800
G1 X20.257 Y47.266 Z0 F800
G1 X20.318 Y47.16 Z0 F800
G1 X20.367 Y47.035 Z0 F800
G1 X20.394 Y46.889 Z0 F800
G1 X20.389 Y46.73 Z0 F800
G1 X20.348 Y46.572 Z0 F800
G1 X20.277 Y46.425 Z0 F800
G1 X20.274 Y46.421 Z0 F800
G1 X20.251 Y46.306 Z0 F800
G1 X20.131 Y46.062 Z0 F800
G1 X19.98 Y45.863 Z0 F800
G1 X19.826 Y45.706 Z0 F800
G1 X19.69 Y45.576 Z0 F800
G1 X19.579 Y45.467 Z0 F800
G1 X19.497 Y45.379 Z0 F800
G1 X19.451 Y45.317 Z0 F800
G1 X19.426 Y45.275 Z0 F800
G1 X19.398 Y45.237 Z0 F800
G1 X19.322 Y45.104 Z0 F800
G1 X19.243 Y44.982 Z0 F800
G1 X19.128 Y44.838 Z0 F800
G1 X19.05 Y44.76 Z0 F800
G1 X18.951 Y44.684 Z0 F800
G1 X18.83 Y44.619 Z0 F800
G1 X18.689 Y44.575 Z0 F800
G1 X18.54 Y44.585 Z0 F800
G1 X18.392 Y44.627 Z0 F800
G1 X18.33 Y44.583 Z0 F800
G1 X18.252 Y44.541 Z0 F800
G1 X18.148 Y44.504 Z0 F800
G1 X18.015 Y44.486 Z0 F800
G1 X17.871 Y44.5 Z0 F800
G1 X17.738 Y44.547 Z0 F800
G1 X17.622 Y44.613 Z0 F800
G1 X17.609 Y44.624 Z0 F800
G1 X17.331 Y44.755 Z0 F800
G1 X16.969 Y44.914 Z0 F800
G1 X16.776 Y45.016 Z0 F800
G1 X16.583 Y45.141 Z0 F800
G1 X16.397 Y45.294 Z0 F800
G1 X16.224 Y45.482 Z0 F800
G1 X16.162 Y45.584 Z0 F800
G1 X16.126 Y45.697 Z0 F800
G1 X16.089 Y45.969 Z0 F800
G1 X16.079 Y46.254 Z0 F800
G1 X16.102 Y46.548 Z0 F800
G1 X16.167 Y46.846 Z0 F800
G1 X16.292 Y47.141 Z0 F800
G1 X16.483 Y47.416 Z0 F800
G1 X16.741 Y47.649 Z0 F800
G1 X17.066 Y47.816 Z0 F800
G1 X17.021 Y47.799 Z0 F800
G1 X17.214 Y47.898 Z0 F800
G1 X15.157 Y47.914 Z0 F800
G1 X13.08 Y47.92 Z0 F800
G1 X13.146 Y47.924 Z0 F800
G1 X12.588 Y47.901 Z0 F800
G1 X12.107 Y47.908 Z0 F800
G1 X11.943 Y47.895 Z0 F800
G1 X11.812 Y47.865 Z0 F800
G1 X11.702 Y47.822 Z0 F800
G1 X11.607 Y47.768 Z0 F800
G1 X11.522 Y47.481 Z0 F800
G1 X11.462 Y47.181 Z0 F800
G1 X11.424 Y46.871 Z0 F800
G1 X11.407 Y46.551 Z0 F800
G1 X11.419 Y45.891 Z0 F800
G1 X11.476 Y45.215 Z0 F800
G1 X11.591 Y44.96 Z0 F800
G1 X11.748 Y44.714 Z0 F800
G1 X11.939 Y44.472 Z0 F800
G1 X12.156 Y44.229 Z0 F800
G1 X12.64 Y43.723 Z0 F800
G1 X13.136 Y43.16 Z0 F800
G1 X13.167 Y43.113 Z0 F800
G1 X13.289 Y42.962 Z0 F800
G1 X13.449 Y42.824 Z0 F800
G1 X13.63 Y42.714 Z0 F800
G1 X13.818 Y42.643 Z0 F800
G1 X13.989 Y42.613 Z0 F800
G1 X14.136 Y42.625 Z0 F800
G1 X14.267 Y42.683 Z0 F800
G1 X14.388 Y42.795 Z0 F800
