;LightBurn 1.6.04
;Custom GCode device profile, absolute coords
;Bounds: X33.32 Y13.98 to X103.78 Y59.38
G00 G17 G40 G21 G54
G90
M3
G1 Z10 F500
;Cut @ 444 mm/min, 80% power

M8
G0 Z3.5 F500
G0 X58.226 Y30.889 Z3.5 
G1 Z0 F500
;Layer C3 Pass 1 of 2
G1 X58.938 Y31.634 Z0 S800 F800
G1 X58.485 Y32.378 Z0 F800
G1 X58.743 Y34.773 Z0 F800
G1 X59.035 Y35.032 Z0 F800
G1 X58.873 Y39.079 Z0 F800
G1 X58.323 Y39.208 Z0 F800
G1 X58.452 Y35.583 Z0 F800
G1 X58.42 Y34.547 Z0 F800
G1 X58.582 Y33.705 Z0 F800
G1 X58.485 Y32.669 Z0 F800
G1 X57.87 Y31.698 Z0 F800
G1 X58.226 Y30.889 Z0 F800
;Layer C3 Pass 2 of 2
G1 X58.938 Y31.634 Z0 F800
G1 X58.485 Y32.378 Z0 F800
G1 X58.743 Y34.773 Z0 F800
G1 X59.035 Y35.032 Z0 F800
G1 X58.873 Y39.079 Z0 F800
G1 X58.323 Y39.208 Z0 F800
G1 X58.452 Y35.583 Z0 F800
G1 X58.42 Y34.547 Z0 F800
G1 X58.582 Y33.705 Z0 F800
G1 X58.485 Y32.669 Z0 F800
G1 X57.87 Y31.698 Z0 F800
G1 X58.226 Y30.889 Z0 F800
G0 Z3.5 F500
G0 X61.721 Y31.666 Z3.5 F444
G1 Z0 F500
;Layer C3 Pass 1 of 2
G1 X62.595 Y31.698 Z0 F800
G1 X62.628 Y31.957 Z0 F800
G1 X61.851 Y32.216 Z0 F800
G1 X61.204 Y34.547 Z0 F800
G1 X61.43 Y39.338 Z0 F800
G1 X61.074 Y41.053 Z0 F800
G1 X61.009 Y41.992 Z0 F800
G1 X58.679 Z0 F800
G1 X58.776 Y44.419 Z0 F800
G1 X58.679 Y49.081 Z0 F800
G1 X58.258 Y49.242 Z0 F800
G1 Y44.387 Z0 F800
G1 X58.549 Y44.258 Z0 F800
G1 X58.711 Y41.927 Z0 F800
G1 X61.009 Y41.798 Z0 F800
G1 X61.171 Y39.855 Z0 F800
G1 X60.88 Y39.37 Z0 F800
G1 X60.912 Y34.482 Z0 F800
G1 X61.236 Y33.479 Z0 F800
G1 X61.721 Y31.666 Z0 F800
;Layer C3 Pass 2 of 2
G1 X62.595 Y31.698 Z0 F800
G1 X62.628 Y31.957 Z0 F800
G1 X61.851 Y32.216 Z0 F800
G1 X61.204 Y34.547 Z0 F800
G1 X61.43 Y39.338 Z0 F800
G1 X61.074 Y41.053 Z0 F800
G1 X61.009 Y41.992 Z0 F800
G1 X58.679 Z0 F800
G1 X58.776 Y44.419 Z0 F800
G1 X58.679 Y49.081 Z0 F800
G1 X58.258 Y49.242 Z0 F800
G1 Y44.387 Z0 F800
G1 X58.549 Y44.258 Z0 F800
G1 X58.711 Y41.927 Z0 F800
G1 X61.009 Y41.798 Z0 F800
G1 X61.171 Y39.855 Z0 F800
G1 X60.88 Y39.37 Z0 F800
G1 X60.912 Y34.482 Z0 F800
G1 X61.236 Y33.479 Z0 F800
G1 X61.721 Y31.666 Z0 F800
G0 Z3.5 F500
G0 X64.149 Y34.353 Z3.5 
G1 Z0 F500
;Layer C3 Pass 1 of 2
G1 X63.89 Y35.518 Z0 F800
G1 X64.084 Y37.848 Z0 F800
G1 X63.955 Y39.273 Z0 F800
G1 X63.437 Y39.499 Z0 F800
G1 X63.599 Y34.676 Z0 F800
G1 X64.149 Y34.353 Z0 F800
;Layer C3 Pass 2 of 2
G1 X63.89 Y35.518 Z0 F800
G1 X64.084 Y37.848 Z0 F800
G1 X63.955 Y39.273 Z0 F800
G1 X63.437 Y39.499 Z0 F800
G1 X63.599 Y34.676 Z0 F800
G1 X64.149 Y34.353 Z0 F800
G0 Z3.5 F500
G0 X66.091 Y34.385 Z3.5 
G1 Z0 F500
;Layer C3 Pass 1 of 2
G1 X66.609 Y34.547 Z0 F800
G1 X66.544 Y36.845 Z0 F800
G1 X66.577 Y39.435 Z0 F800
G1 X66.124 Y39.337 Z0 F800
G1 X66.35 Y35.777 Z0 F800
G1 X66.091 Y34.385 Z0 F800
;Layer C3 Pass 2 of 2
G1 X66.609 Y34.547 Z0 F800
G1 X66.544 Y36.845 Z0 F800
G1 X66.577 Y39.435 Z0 F800
G1 X66.124 Y39.337 Z0 F800
G1 X66.35 Y35.777 Z0 F800
G1 X66.091 Y34.385 Z0 F800
G0 Z3.5 F500
G0 X68.681 Y35.097 Z3.5 
G1 Z0 F500
;Layer C3 Pass 1 of 2
G1 X69.231 Y34.612 Z0 F800
G1 X69.211 Y35.065 Z0 F800
G1 X69.19 Y35.404 Z0 F800
G1 X69.178 Y35.535 Z0 F800
G1 X69.16 Y35.66 Z0 F800
G1 X69.145 Y35.854 Z0 F800
G1 X69.121 Y36.327 Z0 F800
G1 X69.106 Y36.699 Z0 F800
G1 X69.069 Y37.687 Z0 F800
G1 X69.231 Y38.82 Z0 F800
G1 X69.328 Y39.564 Z0 F800
G1 X68.648 Y39.305 Z0 F800
G1 X68.616 Y36.618 Z0 F800
G1 X68.681 Y35.097 Z0 F800
;Layer C3 Pass 2 of 2
G1 X69.231 Y34.612 Z0 F800
G1 X69.211 Y35.065 Z0 F800
G1 X69.19 Y35.404 Z0 F800
G1 X69.178 Y35.535 Z0 F800
G1 X69.16 Y35.66 Z0 F800
G1 X69.145 Y35.854 Z0 F800
G1 X69.121 Y36.327 Z0 F800
G1 X69.106 Y36.699 Z0 F800
G1 X69.069 Y37.687 Z0 F800
G1 X69.231 Y38.82 Z0 F800
G1 X69.328 Y39.564 Z0 F800
G1 X68.648 Y39.305 Z0 F800
G1 X68.616 Y36.618 Z0 F800
G1 X68.681 Y35.097 Z0 F800
G0 Z3.5 F500
G0 X56.154 Y34.515 Z3.5 
G1 Z0 F500
;Layer C3 Pass 1 of 2
G1 X56.283 Y39.208 Z0 F800
G1 X56.057 Y39.499 Z0 F800
G1 X55.83 Y48.951 Z0 F800
G1 X55.636 Y49.145 Z0 F800
G1 X55.668 Y44.322 Z0 F800
G1 X56.089 Y44.258 Z0 F800
G1 X56.122 Y49.275 Z0 F800
G1 X55.895 Y48.401 Z0 F800
G1 X55.863 Y39.402 Z0 F800
G1 X55.604 Y39.273 Z0 F800
G1 Y34.482 Z0 F800
G1 X56.154 Y34.515 Z0 F800
;Layer C3 Pass 2 of 2
G1 X56.283 Y39.208 Z0 F800
G1 X56.057 Y39.499 Z0 F800
G1 X55.83 Y48.951 Z0 F800
G1 X55.636 Y49.145 Z0 F800
G1 X55.668 Y44.322 Z0 F800
G1 X56.089 Y44.258 Z0 F800
G1 X56.122 Y49.275 Z0 F800
G1 X55.895 Y48.401 Z0 F800
G1 X55.863 Y39.402 Z0 F800
G1 X55.604 Y39.273 Z0 F800
G1 Y34.482 Z0 F800
G1 X56.154 Y34.515 Z0 F800
G0 Z3.5 F500
G0 X60.847 Y44.484 Z3.5 
G1 Z0 F500
;Layer C3 Pass 1 of 2
G1 X61.268 Z0 F800
G1 X61.365 Y46.103 Z0 F800
G1 X61.301 Y49.372 Z0 F800
G1 X61.106 Y49.825 Z0 F800
G1 Y52.156 Z0 F800
G1 X60.621 Y52.285 Z0 F800
G1 X60.945 Y51.346 Z0 F800
G1 X61.171 Y49.34 Z0 F800
G1 X60.847 Y49.21 Z0 F800
G1 Y44.484 Z0 F800
;Layer C3 Pass 2 of 2
G1 X61.268 Z0 F800
G1 X61.365 Y46.103 Z0 F800
G1 X61.301 Y49.372 Z0 F800
G1 X61.106 Y49.825 Z0 F800
G1 Y52.156 Z0 F800
G1 X60.621 Y52.285 Z0 F800
G1 X60.945 Y51.346 Z0 F800
G1 X61.171 Y49.34 Z0 F800
G1 X60.847 Y49.21 Z0 F800
G1 Y44.484 Z0 F800
G0 Z3.5 F500
G0 X63.566 Y44.581 Z3.5 
G1 Z0 F500
;Layer C3 Pass 1 of 2
G1 X64.02 Y44.549 Z0 F800
G1 X63.728 Y47.915 Z0 F800
G1 X63.89 Y49.631 Z0 F800
G1 X64.182 Y50.375 Z0 F800
G1 X65.865 Y51.605 Z0 F800
G1 X66.027 Y52.285 Z0 F800
G1 X65.573 Y52.447 Z0 F800
G1 X64.635 Y51.152 Z0 F800
G1 X63.696 Y49.598 Z0 F800
G1 X63.437 Y49.534 Z0 F800
G1 X63.566 Y44.581 Z0 F800
;Layer C3 Pass 2 of 2
G1 X64.02 Y44.549 Z0 F800
G1 X63.728 Y47.915 Z0 F800
G1 X63.89 Y49.631 Z0 F800
G1 X64.182 Y50.375 Z0 F800
G1 X65.865 Y51.605 Z0 F800
G1 X66.027 Y52.285 Z0 F800
G1 X65.573 Y52.447 Z0 F800
G1 X64.635 Y51.152 Z0 F800
G1 X63.696 Y49.598 Z0 F800
G1 X63.437 Y49.534 Z0 F800
G1 X63.566 Y44.581 Z0 F800
G0 Z3.5 F500
G0 X66.027 Y44.419 Z3.5 
G1 Z0 F500
;Layer C3 Pass 1 of 2
G1 X66.48 Y44.516 Z0 F800
G1 X66.512 Y48.336 Z0 F800
G1 X66.544 Y49.307 Z0 F800
G1 X65.962 Y49.275 Z0 F800
G1 X66.027 Y44.419 Z0 F800
;Layer C3 Pass 2 of 2
G1 X66.48 Y44.516 Z0 F800
G1 X66.512 Y48.336 Z0 F800
G1 X66.544 Y49.307 Z0 F800
G1 X65.962 Y49.275 Z0 F800
G1 X66.027 Y44.419 Z0 F800
G0 Z3.5 F500
G0 X68.681 Y44.452 Z3.5 
G1 Z0 F500
;Layer C3 Pass 1 of 2
G1 X69.069 Y44.419 Z0 F800
G1 X68.94 Y49.113 Z0 F800
G1 X68.616 Z0 F800
G1 X68.681 Y44.452 Z0 F800
;Layer C3 Pass 2 of 2
G1 X69.069 Y44.419 Z0 F800
G1 X68.94 Y49.113 Z0 F800
G1 X68.616 Z0 F800
G1 X68.681 Y44.452 Z0 F800
G0 Z3.5 F500
G0 X71.238 Y44.387 Z3.5 
G1 Z0 F500
;Layer C3 Pass 1 of 2
G1 X71.691 Y44.517 Z0 F800
G1 X71.756 Y46.297 Z0 F800
G1 X71.594 Y48.077 Z0 F800
G1 X71.756 Y48.854 Z0 F800
G1 X71.173 Y49.048 Z0 F800
G1 X71.238 Y44.387 Z0 F800
;Layer C3 Pass 2 of 2
G1 X71.691 Y44.517 Z0 F800
G1 X71.756 Y46.297 Z0 F800
G1 X71.594 Y48.077 Z0 F800
G1 X71.756 Y48.854 Z0 F800
G1 X71.173 Y49.048 Z0 F800
G1 X71.238 Y44.387 Z0 F800
;Cut @ 444 mm/min, 90% power

M8
G0 Z3.5 F500
G0 X91.645 Y45.238 Z3.5 
G1 Z0 F500
;Layer C2
G1 X95 Y46.95 Z0 S900 F800
G1 X96.675 Y43.899 Z0 F800
G1 X93.864 Y49.417 Z0 F800
G1 X94.103 Y48.573 Z0 F800
G1 X90.838 Y46.961 Z0 F800
G1 X91.407 Y47.382 Z0 F800
G1 X91.242 Y47.814 Z0 F800
G1 X91.045 Y48.464 Z0 F800
G1 X90.709 Y48.961 Z0 F800
G1 X90.354 Y49.701 Z0 F800
G1 X90.172 Y50.135 Z0 F800
G1 X89.87 Y50.349 Z0 F800
G1 X89.488 Y50.593 Z0 F800
G1 X89.223 Y50.616 Z0 F800
G1 X89.037 Y50.61 Z0 F800
G1 X88.677 Y50.273 Z0 F800
G1 X88.584 Y49.704 Z0 F800
G1 X88.653 Y49.318 Z0 F800
G1 X88.879 Y49.063 Z0 F800
G1 X89.143 Y48.758 Z0 F800
G1 X89.443 Y48.569 Z0 F800
G1 X89.768 Y48.376 Z0 F800
G1 X90.083 Y48.249 Z0 F800
G1 X90.413 Y48.146 Z0 F800
G1 X90.713 Y48.156 Z0 F800
G1 X90.933 Y48.197 Z0 F800
G1 X91.078 Y48.302 Z0 F800
G1 X91.247 Y48.437 Z0 F800
G1 X91.675 Y48.962 Z0 F800
G1 Y49.398 Z0 F800
G1 X91.417 Y50.048 Z0 F800
G1 X91.523 Y49.752 Z0 F800
G1 X91.934 Y49.432 Z0 F800
G1 X92.399 Y49.2 Z0 F800
G1 X92.771 Y49.228 Z0 F800
G1 X93.19 Y49.685 Z0 F800
G1 X93.268 Y50.214 Z0 F800
G1 X93.134 Y50.685 Z0 F800
G1 X92.85 Y51.192 Z0 F800
G1 X92.294 Y51.702 Z0 F800
G1 X91.742 Y51.732 Z0 F800
G1 X91.368 Y51.55 Z0 F800
G1 X91.187 Y51.155 Z0 F800
G0 Z3.5 F500
G0 X92.108 Y52.752 Z3.5 
G1 Z0 F500
G1 X88.932 Y59.259 Z0 F800
G1 X92.108 Y52.752 Z0 F800
G0 Z3.5 F500
G0 X91.305 Y53.405 Z3.5 
G1 Z0 F500
G1 X88.405 Y51.907 Z0 F800
G0 Z3.5 F500
G0 X91.663 Y54.042 Z3.5 
G1 Z0 F500
G1 X91.836 Y53.993 Z0 F800
G1 X92.188 Y54.263 Z0 F800
G1 X92.476 Y54.635 Z0 F800
G1 X92.812 Y55.301 Z0 F800
G1 X92.803 Y55.943 Z0 F800
G1 X92.402 Y56.406 Z0 F800
G1 X91.936 Y56.699 Z0 F800
G1 X91.167 Z0 F800
G1 X90.642 Y56.477 Z0 F800
G1 X90.186 Y56.007 Z0 F800
G1 X89.703 Y56.361 Z0 F800
G1 X89.289 Y56.98 Z0 F800
G1 X88.873 Y57.129 Z0 F800
G1 X88.575 Y56.946 Z0 F800
G1 X88.449 Y56.578 Z0 F800
G1 X88.507 Y56.331 Z0 F800
G1 X88.582 Y56.03 Z0 F800
G1 X88.703 Y55.809 Z0 F800
G1 X88.804 Y55.642 Z0 F800
G1 X88.789 Y54.875 Z0 F800
G1 X88.724 Y54.447 Z0 F800
G1 X88.298 Y54.076 Z0 F800
G1 X87.761 Y54.147 Z0 F800
G1 X87.18 Y54.608 Z0 F800
G1 X86.697 Y55.159 Z0 F800
G1 X86.393 Y55.832 Z0 F800
G1 X86.244 Y56.322 Z0 F800
G1 X86.223 Y56.684 Z0 F800
G1 X86.432 Y57.101 Z0 F800
G1 X86.608 Y57.266 Z0 F800
G1 X86.937 Y57.231 Z0 F800
G1 X87.266 Y56.94 Z0 F800
G0 Z3.5 F500
G0 X97.316 Y42.471 Z3.5 
G1 Z0 F500
G1 X98.521 Y40.072 Z0 F800
G0 Z3.5 F500
G0 X99.616 Y42.151 Z3.5 
G1 Z0 F500
G1 X99.651 Y42.223 Z0 F800
G1 X99.573 Y42.857 Z0 F800
G1 X99.172 Y43.124 Z0 F800
G1 X98.424 Y43.291 Z0 F800
G1 X97.871 Y43.245 Z0 F800
G1 X97.609 Y42.621 Z0 F800
G1 X97.459 Z0 F800
G1 X97.237 Y42.653 Z0 F800
G1 X96.99 Y42.795 Z0 F800
G1 X96.786 Y42.926 Z0 F800
G1 X96.519 Y43.197 Z0 F800
G1 X96.282 Y43.446 Z0 F800
G1 X95.913 Y43.747 Z0 F800
G1 X95.482 Y44.056 Z0 F800
G1 X95.287 Y43.987 Z0 F800
G1 X95.155 Y43.911 Z0 F800
G1 X95.211 Y43.305 Z0 F800
G1 X95.385 Y42.547 Z0 F800
G1 X95.614 Y41.952 Z0 F800
G1 X95.513 Y41.643 Z0 F800
G1 X95.379 Y41.274 Z0 F800
G1 X95.166 Y41.099 Z0 F800
G1 X94.92 Y40.967 Z0 F800
G1 X94.583 Y41.02 Z0 F800
G1 X94.312 Y41.09 Z0 F800
G1 X94.067 Y41.253 Z0 F800
G1 X93.769 Y41.444 Z0 F800
G1 X93.531 Y41.741 Z0 F800
G1 X93.348 Y42.012 Z0 F800
G1 X92.952 Y42.706 Z0 F800
G1 X92.835 Y43.371 Z0 F800
G1 X93.24 Y43.848 Z0 F800
G1 X93.7 Y43.641 Z0 F800
G1 X94.095 Y43.264 Z0 F800
G1 X94.254 Y42.722 Z0 F800
G1 X94.219 Y41.94 Z0 F800
G1 X93.934 Y41.208 Z0 F800
G1 X93.428 Y40.292 Z0 F800
G0 Z3.5 F500
G0 X97.862 Y37.287 Z3.5 
G1 Z0 F500
G1 X98.41 Y37.359 Z0 F800
G1 X99.095 Y37.825 Z0 F800
G1 X99.241 Y38.147 Z0 F800
G1 X99.235 Y38.747 Z0 F800
G1 X98.658 Y39.302 Z0 F800
G1 X97.897 Y39.624 Z0 F800
G1 X97.368 Y39.566 Z0 F800
G1 X96.789 Y39.455 Z0 F800
G1 X96.213 Y39.043 Z0 F800
G1 X95.629 Y38.505 Z0 F800
G1 X95.538 Y37.816 Z0 F800
G1 X96.082 Y37.145 Z0 F800
G1 X96.508 Y36.807 Z0 F800
G1 X97.153 Y36.577 Z0 F800
G1 X97.747 Y36.609 Z0 F800
G1 X98.259 Y36.473 Z0 F800
G1 X99.146 Y36.715 Z0 F800
G1 X99.6 Y36.852 Z0 F800
G1 X96.705 Y35.387 Z0 F800
G0 Z3.5 F500
G0 X97.474 Y33.576 Z3.5 
G1 Z0 F500
G1 X100.942 Y35.298 Z0 F800
G1 X99.789 Y37.571 Z0 F800
G0 Z3.5 F500
G0 X101.162 Y34.825 Z3.5 
G1 Z0 F500
G1 X103.777 Y29.632 Z0 F800
G0 Z3.5 F500
G0 X103.197 Y30.276 Z3.5 
G1 Z0 F500
G1 X100.08 Y28.741 Z0 F800
G0 Z3.5 F500
G0 X101.032 Y29.45 Z3.5 
G1 Z0 F500
G1 X100.726 Y29.493 Z0 F800
G1 X100.37 Y29.562 Z0 F800
G1 X99.759 Y29.884 Z0 F800
G1 X99.59 Y30.216 Z0 F800
G1 X99.382 Y30.599 Z0 F800
G1 X99.253 Y30.935 Z0 F800
G1 X99.162 Y31.22 Z0 F800
G1 X99.395 Y31.976 Z0 F800
G1 X99.801 Y32.309 Z0 F800
G1 X100.321 Y32.216 Z0 F800
G1 X100.525 Y31.838 Z0 F800
G1 X100.714 Y31.631 Z0 F800
G1 X100.858 Y31.463 Z0 F800
G1 X100.954 Y31.334 Z0 F800
G1 X101.08 Y31.245 Z0 F800
G1 X101.29 Y31.165 Z0 F800
G1 X101.396 Y31.132 Z0 F800
G1 X101.574 Y31.083 Z0 F800
G1 X102.071 Y31.272 Z0 F800
G1 X102.297 Y32.257 Z0 F800
;Offset @ 555 mm/min, 90% power

M8
G0 Z3.5 F500
G0 X84.61 Y33.387 Z3.5 
G1 Z0 F500
;Layer C1
G1 X83.887 Y33.336 Z0 F800
G1 X83.859 Z0 F800
G1 X83.974 Y33.227 Z0 F800
G1 X83.99 Y33.209 Z0 F800
G1 X84.61 Y33.387 Z0 F800
G0 Z3.5 F500
G0 X87.361 Y34.22 Z3.5 F555
G1 Z0 F500
G1 X83.845 Y33.975 Z0 F800
G1 X82.08 Y33.865 Z0 F800
G1 X82.53 Y33.607 Z0 F800
G1 X83.098 Y33.172 Z0 F800
G1 X83.521 Y32.774 Z0 F800
G1 X83.79 Y32.487 Z0 F800
G1 X85.996 Y33.118 Z0 F800
G1 X87.631 Y33.566 Z0 F800
G1 X87.581 Y33.645 Z0 F800
G1 X87.361 Y34.22 Z0 F800
G0 Z3.5 F500
G0 X87.751 Y34.889 Z3.5 
G1 Z0 F500
G1 X83.802 Y34.614 Z0 F800
G1 X80.595 Y34.413 Z0 F800
G1 X80.563 Y33.779 Z0 F800
G1 X80.891 Y33.807 Z0 F800
G1 X82.175 Y33.073 Z0 F800
G1 X82.683 Y32.683 Z0 F800
G1 X83.068 Y32.322 Z0 F800
G1 X83.355 Y32.015 Z0 F800
G1 X83.58 Y31.761 Z0 F800
G1 X86.169 Y32.501 Z0 F800
G1 X88.667 Y33.187 Z0 F800
G1 X88.568 Y33.289 Z0 F800
G1 X88.156 Y33.935 Z0 F800
G1 X87.881 Y34.65 Z0 F800
G1 X87.838 Y34.903 Z0 F800
G1 X87.751 Y34.889 Z0 F800
G0 Z3.5 F500
G0 X80.747 Y33.152 Z3.5 
G1 Z0 F500
G1 X81.82 Y32.539 Z0 F800
G1 X82.268 Y32.195 Z0 F800
G1 X82.615 Y31.869 Z0 F800
G1 X82.882 Y31.584 Z0 F800
G1 X83.211 Y31.211 Z0 F800
G1 X83.385 Y31.04 Z0 F800
G1 X86.342 Y31.885 Z0 F800
G1 X89.93 Y32.87 Z0 F800
G1 X89.983 Y32.925 Z0 F800
G1 X89.569 Y33.174 Z0 F800
G1 X89.073 Y33.687 Z0 F800
G1 X88.73 Y34.225 Z0 F800
G1 X88.501 Y34.821 Z0 F800
G1 X88.444 Y35.151 Z0 F800
G1 X88.339 Y35.632 Z0 F800
G1 X87.678 Y35.525 Z0 F800
G1 X83.76 Y35.252 Z0 F800
G1 X79.95 Y35.014 Z0 F800
G1 X79.708 Y35 Z0 F800
G1 X79.957 Y34.464 Z0 F800
G1 X79.896 Y33.269 Z0 F800
G1 X79.819 Y33.072 Z0 F800
G1 X80.747 Y33.152 Z0 F800
G0 Z3.5 F500
G0 X89.578 Y34.085 Z3.5 
G1 Z0 F500
G1 X89.304 Y34.514 Z0 F800
G1 X89.121 Y34.991 Z0 F800
G1 X89.074 Y35.266 Z0 F800
G1 X88.863 Y36.234 Z0 F800
G1 X88.796 Y36.588 Z0 F800
G1 X88.165 Y36.252 Z0 F800
G1 X87.604 Y36.162 Z0 F800
G1 X83.718 Y35.891 Z0 F800
G1 X79.911 Y35.653 Z0 F800
G1 X78.54 Y35.573 Z0 F800
G1 X78.849 Y35.333 Z0 F800
G1 X79.31 Y34.339 Z0 F800
G1 X79.262 Y33.404 Z0 F800
G1 X79.008 Y32.75 Z0 F800
G1 X78.723 Y32.334 Z0 F800
G1 X80.603 Y32.498 Z0 F800
G1 X81.464 Y32.005 Z0 F800
G1 X81.853 Y31.707 Z0 F800
G1 X82.162 Y31.417 Z0 F800
G1 X82.409 Y31.153 Z0 F800
G1 X82.748 Y30.77 Z0 F800
G1 X83.086 Y30.434 Z0 F800
G1 X83.203 Y30.322 Z0 F800
G1 X86.514 Y31.269 Z0 F800
G1 X90.323 Y32.314 Z0 F800
G1 X90.407 Y32.442 Z0 F800
G1 X90.851 Y32.896 Z0 F800
G1 X91.268 Y33.118 Z0 F800
G1 X90.634 Y33.28 Z0 F800
G1 X89.971 Y33.679 Z0 F800
G1 X89.578 Y34.085 Z0 F800
G0 Z3.5 F500
G0 X87.531 Y36.798 Z3.5 
G1 Z0 F500
G1 X83.676 Y36.529 Z0 F800
G1 X79.873 Y36.292 Z0 F800
G1 X76.071 Y36.071 Z0 F800
G1 X72.29 Y35.858 Z0 F800
G1 Y35.588 Z0 F800
G1 X72.542 Z0 F800
G1 X74.084 Y35.596 Z0 F800
G1 X75.654 Y35.579 Z0 F800
G1 X77.613 Y35.483 Z0 F800
G1 X78.333 Y34.923 Z0 F800
G1 X78.662 Y34.214 Z0 F800
G1 X78.627 Y33.54 Z0 F800
G1 X78.438 Y33.05 Z0 F800
G1 X78.112 Y32.576 Z0 F800
G1 X77.869 Y32.272 Z0 F800
G1 X77.338 Y31.595 Z0 F800
G1 X77.351 Z0 F800
G1 X78.688 Y31.689 Z0 F800
G1 X80.459 Y31.842 Z0 F800
G1 X81.109 Y31.471 Z0 F800
G1 X81.438 Y31.218 Z0 F800
G1 X81.709 Y30.964 Z0 F800
G1 X81.936 Y30.722 Z0 F800
G1 X82.287 Y30.326 Z0 F800
G1 X82.636 Y29.979 Z0 F800
G1 X82.888 Y29.737 Z0 F800
G1 X83.016 Y29.603 Z0 F800
G1 X86.687 Y30.652 Z0 F800
G1 X90.726 Y31.761 Z0 F800
G1 Y31.764 Z0 F800
G1 X90.908 Y32.039 Z0 F800
G1 X91.239 Y32.378 Z0 F800
G1 X91.66 Y32.602 Z0 F800
G1 X92.409 Y32.835 Z0 F800
G1 X92.988 Y32.918 Z0 F800
G1 X92.996 Y33.083 Z0 F800
G1 X93.064 Y33.508 Z0 F800
G1 X93.186 Y33.934 Z0 F800
G1 X93.343 Y34.3 Z0 F800
G1 X93.065 Y34.069 Z0 F800
G1 X92.543 Y33.832 Z0 F800
G1 X92.008 Y33.723 Z0 F800
G1 X91.457 Y33.73 Z0 F800
G1 X90.884 Y33.877 Z0 F800
G1 X90.372 Y34.184 Z0 F800
G1 X90.083 Y34.484 Z0 F800
G1 X89.878 Y34.804 Z0 F800
G1 X89.741 Y35.162 Z0 F800
G1 X89.702 Y35.391 Z0 F800
G1 X89.49 Y36.361 Z0 F800
G1 X89.308 Y37.332 Z0 F800
G1 X89.208 Y37.734 Z0 F800
G1 X89.105 Y38.042 Z0 F800
G1 X89.078 Y37.93 Z0 F800
G1 X88.815 Y37.484 Z0 F800
G1 X88.447 Y37.126 Z0 F800
G1 X87.958 Y36.867 Z0 F800
G1 X87.531 Y36.798 Z0 F800
G0 Z3.5 F500
G0 X52.191 Y54.074 Z3.5 
G1 Z0 F500
G1 X52.398 Y55.537 Z0 F800
G1 X53.065 Y56.415 Z0 F800
G1 X51.916 Y56.375 Z0 F800
G1 X51.958 Y55.168 Z0 F800
G1 X51.969 Y54.313 Z0 F800
G1 X52.044 Y54.252 Z0 F800
G1 X52.191 Y54.074 Z0 F800
G0 Z3.5 F500
G0 X52.686 Y53.061 Z3.5 
G1 Z0 F500
G1 X52.815 Y53.915 Z0 F800
G1 X53.008 Y55.282 Z0 F800
G1 X53.641 Y56.115 Z0 F800
G1 X54.337 Y56.545 Z0 F800
G1 X54.964 Y56.708 Z0 F800
G1 X55.437 Y56.74 Z0 F800
G1 X55.846 Y56.724 Z0 F800
G1 X56.159 Y56.741 Z0 F800
G1 X67.71 Y56.886 Z0 F800
G1 X79.831 Y57.005 Z0 F800
G1 X80.738 Y56.739 Z0 F800
G1 X80.804 Y56.692 Z0 F800
G1 X80.62 Y57.237 Z0 F800
G1 X80.581 Y57.262 Z0 F800
G1 X80.46 Y57.312 Z0 F800
G1 X80.253 Y57.366 Z0 F800
G1 X79.98 Y57.406 Z0 F800
G1 X79.646 Y57.431 Z0 F800
G1 X79.28 Y57.438 Z0 F800
G1 X77.6 Y57.463 Z0 F800
G1 X75.955 Z0 F800
G1 X69.615 Y57.413 Z0 F800
G1 X63.266 Y57.329 Z0 F800
G1 X56.958 Y57.19 Z0 F800
G1 X51.268 Y56.993 Z0 F800
G1 Y56.882 Z0 F800
G1 X51.277 Y56.326 Z0 F800
G1 X51.318 Y55.153 Z0 F800
G1 X51.333 Y54.002 Z0 F800
G1 X51.593 Y53.794 Z0 F800
G1 X51.926 Y53.391 Z0 F800
G1 X52.159 Y52.941 Z0 F800
G1 X52.658 Y52.917 Z0 F800
G1 X52.686 Y53.061 Z0 F800
G0 Z3.5 F500
G0 X53.619 Y55.028 Z3.5 
G1 Z0 F500
G1 X54.078 Y55.633 Z0 F800
G1 X54.591 Y55.95 Z0 F800
G1 X55.067 Y56.074 Z0 F800
G1 X55.445 Y56.099 Z0 F800
G1 X55.845 Y56.083 Z0 F800
G1 X56.18 Y56.101 Z0 F800
G1 X67.717 Y56.246 Z0 F800
G1 X79.742 Y56.364 Z0 F800
G1 X80.455 Y56.155 Z0 F800
G1 X80.948 Y55.806 Z0 F800
G1 X81.33 Y55.231 Z0 F800
G1 X81.362 Y54.939 Z0 F800
G1 X81.365 Z0 F800
G1 X81.855 Y54.935 Z0 F800
G1 X81.815 Y55.172 Z0 F800
G1 X81.648 Y56.002 Z0 F800
G1 X81.444 Y56.799 Z0 F800
G1 X81.198 Y57.525 Z0 F800
G1 X81.168 Y57.584 Z0 F800
G1 X81.13 Y57.64 Z0 F800
G1 X81.088 Y57.688 Z0 F800
G1 X81.057 Y57.717 Z0 F800
G1 X80.88 Y57.831 Z0 F800
G1 X80.662 Y57.921 Z0 F800
G1 X80.385 Y57.993 Z0 F800
G1 X80.044 Y58.044 Z0 F800
G1 X79.688 Y58.07 Z0 F800
G1 X79.281 Y58.079 Z0 F800
G1 X77.609 Y58.103 Z0 F800
G1 X75.95 Z0 F800
G1 X69.606 Y58.053 Z0 F800
G1 X63.269 Y57.969 Z0 F800
G1 X56.925 Y57.83 Z0 F800
G1 X50.644 Y57.612 Z0 F800
G1 X50.633 Y57.42 Z0 F800
G1 X50.627 Y56.889 Z0 F800
G1 X50.637 Y56.335 Z0 F800
G1 X50.678 Y55.138 Z0 F800
G1 X50.694 Y53.96 Z0 F800
G1 X50.709 Y53.643 Z0 F800
G1 X50.825 Y53.588 Z0 F800
G1 X51.142 Y53.335 Z0 F800
G1 X51.389 Y53.036 Z0 F800
G1 X51.606 Y52.615 Z0 F800
G1 X51.705 Y52.342 Z0 F800
G1 X52.02 Y52.307 Z0 F800
G1 X52.722 Y52.274 Z0 F800
G1 X53.185 Y52.268 Z0 F800
G1 X53.316 Y52.952 Z0 F800
G1 X53.446 Y53.807 Z0 F800
G1 X53.619 Y55.028 Z0 F800
G0 Z3.5 F500
G0 X54.516 Y55.151 Z3.5 
G1 Z0 F500
G1 X54.846 Y55.355 Z0 F800
G1 X55.17 Y55.439 Z0 F800
G1 X55.454 Y55.458 Z0 F800
G1 X55.854 Y55.442 Z0 F800
G1 X56.202 Y55.461 Z0 F800
G1 X67.724 Y55.606 Z0 F800
G1 X79.653 Y55.723 Z0 F800
G1 X80.172 Y55.571 Z0 F800
G1 X80.48 Y55.353 Z0 F800
G1 X80.71 Y55.007 Z0 F800
G1 X80.759 Y54.562 Z0 F800
G1 X80.629 Y54.187 Z0 F800
G1 X80.35 Y53.711 Z0 F800
G1 X80.04 Y53.247 Z0 F800
G1 X79.789 Y52.99 Z0 F800
G1 X79.463 Y52.781 Z0 F800
G1 X79.056 Y52.666 Z0 F800
G1 X78.732 Y52.681 Z0 F800
G1 X77.135 Y52.614 Z0 F800
G1 X75.507 Y52.591 Z0 F800
G1 X73.889 Z0 F800
G1 X72.772 Y52.588 Z0 F800
G1 X72.632 Y52.038 Z0 F800
G1 X72.579 Y51.809 Z0 F800
G1 X73.79 Y51.824 Z0 F800
G1 X75.802 Y51.867 Z0 F800
G1 X77.826 Y51.945 Z0 F800
G1 X79.693 Y52.065 Z0 F800
G1 X79.807 Y52.123 Z0 F800
G1 X79.967 Y52.246 Z0 F800
G1 X80.117 Y52.404 Z0 F800
G1 X80.249 Y52.588 Z0 F800
G1 X80.503 Y53.077 Z0 F800
G1 X80.717 Y53.651 Z0 F800
G1 X80.842 Y53.924 Z0 F800
G1 X81.13 Y54.18 Z0 F800
G1 X81.471 Y54.299 Z0 F800
G1 X81.808 Y54.295 Z0 F800
G1 X82.128 Y54.185 Z0 F800
G1 X82.409 Y53.955 Z0 F800
G1 X82.591 Y53.612 Z0 F800
G1 X82.613 Y53.322 Z0 F800
G1 X82.627 Y52.863 Z0 F800
G1 X82.62 Y52.38 Z0 F800
G1 X82.576 Y51.879 Z0 F800
G1 X82.48 Y51.371 Z0 F800
G1 X82.314 Y50.865 Z0 F800
G1 X82.065 Y50.394 Z0 F800
G1 X81.885 Y50.154 Z0 F800
G1 X81.685 Y49.942 Z0 F800
G1 X81.456 Y49.75 Z0 F800
G1 X81.181 Y49.571 Z0 F800
G1 X80.999 Y49.495 Z0 F800
G1 X81.412 Y49.26 Z0 F800
G1 X81.445 Y49.229 Z0 F800
G1 X81.483 Y49.57 Z0 F800
G1 X81.686 Y49.906 Z0 F800
G1 X82 Y50.144 Z0 F800
G1 X82.37 Y50.221 Z0 F800
G1 X82.674 Y50.182 Z0 F800
G1 X83.043 Y49.913 Z0 F800
G1 X83.274 Y49.673 Z0 F800
G1 X83.458 Y49.427 Z0 F800
G1 X83.608 Y49.185 Z0 F800
G1 X83.847 Y48.764 Z0 F800
G1 X84.104 Y48.38 Z0 F800
G1 X85.044 Y46.898 Z0 F800
G1 X84.657 Y47.708 Z0 F800
G1 X83.992 Y49.198 Z0 F800
G1 X83.36 Y50.734 Z0 F800
G1 X83.101 Y51.664 Z0 F800
G1 X82.903 Y52.582 Z0 F800
G1 X82.742 Y53.494 Z0 F800
G1 X82.595 Y54.397 Z0 F800
G1 X82.448 Y55.271 Z0 F800
G1 X82.273 Y56.139 Z0 F800
G1 X82.057 Y56.982 Z0 F800
G1 X81.788 Y57.778 Z0 F800
G1 X81.721 Y57.91 Z0 F800
G1 X81.637 Y58.033 Z0 F800
G1 X81.544 Y58.14 Z0 F800
G1 X81.45 Y58.225 Z0 F800
G1 X81.177 Y58.401 Z0 F800
G1 X80.866 Y58.53 Z0 F800
G1 X80.51 Y58.622 Z0 F800
G1 X80.12 Y58.68 Z0 F800
G1 X79.71 Y58.71 Z0 F800
G1 X79.299 Y58.719 Z0 F800
G1 X77.618 Y58.743 Z0 F800
G1 X75.944 Z0 F800
G1 X69.598 Y58.692 Z0 F800
G1 X63.249 Y58.609 Z0 F800
G1 X56.914 Y58.47 Z0 F800
G1 X50.593 Y58.25 Z0 F800
G1 X50.292 Y58.217 Z0 F800
G1 X50.048 Y58.221 Z0 F800
G1 X50.024 Y58.001 Z0 F800
G1 X49.994 Y57.451 Z0 F800
G1 X49.987 Y56.894 Z0 F800
G1 X49.998 Y56.303 Z0 F800
G1 X50.038 Y55.122 Z0 F800
G1 X50.054 Y53.933 Z0 F800
G1 X50.075 Y53.512 Z0 F800
G1 X50.065 Y53.191 Z0 F800
G1 X50.234 Y53.158 Z0 F800
G1 X50.486 Y53.041 Z0 F800
G1 X50.69 Y52.877 Z0 F800
G1 X50.852 Y52.681 Z0 F800
G1 X51.019 Y52.358 Z0 F800
G1 X51.202 Y51.853 Z0 F800
G1 X51.257 Y51.749 Z0 F800
G1 X51.266 Z0 F800
G1 X51.974 Y51.668 Z0 F800
G1 X52.682 Y51.635 Z0 F800
G1 X53.436 Y51.624 Z0 F800
G1 X53.688 Z0 F800
G1 X53.784 Y51.992 Z0 F800
G1 X53.947 Y52.842 Z0 F800
G1 X54.08 Y53.717 Z0 F800
G1 X54.229 Y54.773 Z0 F800
G1 X54.516 Y55.151 Z0 F800
G0 Z3.5 F500
G0 X79.455 Y41.497 Z3.5 
G1 Z0 F500
G1 X79.546 Y40.633 Z0 F800
G1 X79.627 Z0 F800
G1 X79.93 Y40.648 Z0 F800
G1 X79.69 Y41.055 Z0 F800
G1 X79.455 Y41.497 Z0 F800
G0 Z3.5 F500
G0 X78.52 Y44.228 Z3.5 
G1 Z0 F500
G1 X78.973 Y39.982 Z0 F800
G1 X79.651 Y39.995 Z0 F800
G1 X80.613 Y40.039 Z0 F800
G1 X81.052 Y40.047 Z0 F800
G1 X80.794 Y40.445 Z0 F800
G1 X80.248 Y41.369 Z0 F800
G1 X79.74 Y42.32 Z0 F800
G1 X79.276 Y43.298 Z0 F800
G1 X78.861 Y44.303 Z0 F800
G1 X78.5 Y45.332 Z0 F800
G1 X78.349 Y45.862 Z0 F800
G1 X78.52 Y44.228 Z0 F800
G0 Z3.5 F500
G0 X78.767 Y39.338 Z3.5 
G1 Z0 F500
G1 X79.674 Y39.355 Z0 F800
G1 X80.633 Y39.399 Z0 F800
G1 X81.597 Y39.417 Z0 F800
G1 X82.717 Y39.447 Z0 F800
G1 X82.493 Y39.455 Z0 F800
G1 X82.122 Y39.634 Z0 F800
G1 X81.916 Y39.89 Z0 F800
G1 X81.338 Y40.782 Z0 F800
G1 X80.806 Y41.683 Z0 F800
G1 X80.312 Y42.608 Z0 F800
G1 X79.861 Y43.558 Z0 F800
G1 X79.459 Y44.531 Z0 F800
G1 X79.11 Y45.526 Z0 F800
G1 X78.82 Y46.542 Z0 F800
G1 X78.582 Y47.634 Z0 F800
G1 X78.594 Y47.99 Z0 F800
G1 X78.75 Y48.368 Z0 F800
G1 X79.086 Y48.67 Z0 F800
G1 X79.491 Y48.764 Z0 F800
G1 X79.85 Y48.743 Z0 F800
G1 X79.901 Y48.698 Z0 F800
G1 Y48.71 Z0 F800
G1 X80.042 Y49.084 Z0 F800
G1 X80.188 Y49.211 Z0 F800
G1 X80.015 Y49.162 Z0 F800
G1 X79.438 Y49.055 Z0 F800
G1 X78.867 Y48.988 Z0 F800
G1 X77.796 Y48.909 Z0 F800
G1 X77.391 Y48.866 Z0 F800
G1 X77.884 Y44.159 Z0 F800
G1 X78.395 Y39.363 Z0 F800
G1 X78.767 Y39.338 Z0 F800
G0 Z3.5 F500
G0 X87.54 Y40.197 Z3.5 
G1 Z0 F500
G1 X87.886 Y40.193 Z0 F800
G1 X87.708 Y40.504 Z0 F800
G1 X87.577 Y40.459 Z0 F800
G1 X87.54 Y40.197 Z0 F800
G0 Z3.5 F500
G0 X87.458 Y37.435 Z3.5 
G1 Z0 F500
G1 X83.633 Y37.168 Z0 F800
G1 X79.834 Y36.931 Z0 F800
G1 X76.035 Y36.709 Z0 F800
G1 X71.993 Y36.482 Z0 F800
G1 X71.645 Y36.759 Z0 F800
G1 X71.648 Y36.572 Z0 F800
G1 X71.651 Y35.44 Z0 F800
G1 Y34.95 Z0 F800
G1 X72.544 Y34.947 Z0 F800
G1 X74.083 Y34.956 Z0 F800
G1 X75.635 Y34.939 Z0 F800
G1 X77.38 Y34.854 Z0 F800
G1 X77.818 Y34.513 Z0 F800
G1 X78.015 Y34.088 Z0 F800
G1 X77.994 Y33.675 Z0 F800
G1 X77.868 Y33.351 Z0 F800
G1 X77.598 Y32.958 Z0 F800
G1 X77.374 Y32.678 Z0 F800
G1 X76.805 Y31.953 Z0 F800
G1 X76.217 Y31.247 Z0 F800
G1 X75.925 Y30.872 Z0 F800
G1 X76.018 Y30.877 Z0 F800
G1 X77.381 Y30.956 Z0 F800
G1 X78.754 Y31.052 Z0 F800
G1 X80.315 Y31.188 Z0 F800
G1 X80.754 Y30.937 Z0 F800
G1 X81.023 Y30.73 Z0 F800
G1 X81.256 Y30.511 Z0 F800
G1 X81.462 Y30.292 Z0 F800
G1 X81.816 Y29.891 Z0 F800
G1 X82.179 Y29.531 Z0 F800
G1 X82.434 Y29.286 Z0 F800
G1 X82.667 Y29.041 Z0 F800
G1 X82.841 Y28.887 Z0 F800
G1 X86.859 Y30.036 Z0 F800
G1 X91.154 Y31.215 Z0 F800
G1 X91.197 Y31.289 Z0 F800
G1 X91.276 Y31.434 Z0 F800
G1 X91.409 Y31.636 Z0 F800
G1 X91.627 Y31.859 Z0 F800
G1 X91.907 Y32.008 Z0 F800
G1 X92.551 Y32.208 Z0 F800
G1 X93.177 Y32.299 Z0 F800
G1 X93.632 Y32.344 Z0 F800
G1 X93.616 Y32.664 Z0 F800
G1 X93.633 Y33.016 Z0 F800
G1 X93.69 Y33.369 Z0 F800
G1 X93.79 Y33.719 Z0 F800
G1 X93.936 Y34.06 Z0 F800
G1 X94.009 Y34.182 Z0 F800
G1 X93.998 Y34.43 Z0 F800
G1 X93.937 Y34.854 Z0 F800
G1 X93.861 Y35.239 Z0 F800
G1 X93.494 Y35.199 Z0 F800
G1 X93.36 Y35.164 Z0 F800
G1 X93.255 Y35.116 Z0 F800
G1 X93.18 Y35.06 Z0 F800
G1 X93.026 Y34.869 Z0 F800
G1 X92.722 Y34.616 Z0 F800
G1 X92.345 Y34.444 Z0 F800
G1 X91.948 Y34.364 Z0 F800
G1 X91.542 Y34.369 Z0 F800
G1 X91.133 Y34.474 Z0 F800
G1 X90.774 Y34.689 Z0 F800
G1 X90.588 Y34.882 Z0 F800
G1 X90.453 Y35.094 Z0 F800
G1 X90.361 Y35.333 Z0 F800
G1 X90.33 Y35.513 Z0 F800
G1 X90.117 Y36.489 Z0 F800
G1 X89.934 Y37.465 Z0 F800
G1 X89.824 Y37.913 Z0 F800
G1 X89.686 Y38.322 Z0 F800
G1 X89.51 Y38.698 Z0 F800
G1 X89.246 Y39.099 Z0 F800
G1 X87.952 Y41.371 Z0 F800
G1 X87.765 Y41.201 Z0 F800
G1 X87.432 Y41.086 Z0 F800
G1 X87.111 Y41.082 Z0 F800
G1 X86.803 Y41.168 Z0 F800
G1 X86.517 Y41.355 Z0 F800
G1 X86.382 Y41.531 Z0 F800
G1 X86.322 Y41.598 Z0 F800
G1 X86.811 Y40.929 Z0 F800
G1 X86.943 Y40.542 Z0 F800
G1 X86.881 Y40.109 Z0 F800
G1 X86.64 Y39.777 Z0 F800
G1 X86.327 Y39.593 Z0 F800
G1 X86.21 Y39.569 Z0 F800
G1 X87.851 Y39.554 Z0 F800
G1 X88.275 Y39.29 Z0 F800
G1 X88.511 Y38.926 Z0 F800
G1 X88.564 Y38.524 Z0 F800
G1 X88.479 Y38.173 Z0 F800
G1 X88.308 Y37.883 Z0 F800
G1 X88.066 Y37.649 Z0 F800
G1 X87.751 Y37.482 Z0 F800
G1 X87.458 Y37.435 Z0 F800
G0 Z3.5 F500
G0 X82.902 Y39.453 Z3.5 
G1 Z0 F500
G1 X83.096 Y39.458 Z0 F800
G1 X84.615 Y39.523 Z0 F800
G1 X85.732 Y39.557 Z0 F800
G1 X85.648 Y39.567 Z0 F800
G1 X85.314 Y39.735 Z0 F800
G1 X85.153 Y39.92 Z0 F800
G1 X84.35 Y40.715 Z0 F800
G1 X83.574 Y41.593 Z0 F800
G1 X82.858 Y42.516 Z0 F800
G1 X82.793 Y42.611 Z0 F800
G1 X82.907 Y42.358 Z0 F800
G1 X83.604 Y40.834 Z0 F800
G1 X83.72 Y40.534 Z0 F800
G1 X83.682 Y40.115 Z0 F800
G1 X83.488 Y39.781 Z0 F800
G1 X83.208 Y39.558 Z0 F800
G1 X82.902 Y39.453 Z0 F800
G0 Z3.5 F500
G0 X41.496 Y39.691 Z3.5 
G1 Z0 F500
G1 X41.465 Y39.813 Z0 F800
G1 X41.449 Y40.176 Z0 F800
G1 X41.416 Y40.126 Z0 F800
G1 X41.275 Y39.885 Z0 F800
G1 X41.21 Y39.733 Z0 F800
G1 X41.496 Y39.691 Z0 F800
G0 Z3.5 F500
G0 X87.195 Y41.723 Z3.5 
G1 Z0 F500
G1 X87.07 Y41.758 Z0 F800
G1 X86.959 Y41.831 Z0 F800
G1 X86.876 Y41.939 Z0 F800
G1 X86.141 Y42.75 Z0 F800
G1 X85.444 Y43.597 Z0 F800
G1 X84.788 Y44.475 Z0 F800
G1 X84.171 Y45.382 Z0 F800
G1 X83.593 Y46.314 Z0 F800
G1 X83.054 Y47.27 Z0 F800
G1 X82.553 Y48.244 Z0 F800
G1 X82.089 Y49.234 Z0 F800
G1 X82.104 Y49.359 Z0 F800
G1 X82.17 Y49.47 Z0 F800
G1 X82.272 Y49.547 Z0 F800
G1 X82.396 Y49.573 Z0 F800
G1 X82.43 Y49.568 Z0 F800
G1 X82.621 Y49.429 Z0 F800
G1 X82.785 Y49.258 Z0 F800
G1 X82.929 Y49.066 Z0 F800
G1 X83.058 Y48.858 Z0 F800
G1 X83.301 Y48.429 Z0 F800
G1 X83.568 Y48.03 Z0 F800
G1 X84.525 Y46.521 Z0 F800
G1 X85.518 Y45.041 Z0 F800
G1 X87.541 Y42.101 Z0 F800
G1 X87.557 Y41.952 Z0 F800
G1 X87.516 Y41.839 Z0 F800
G1 X87.432 Y41.763 Z0 F800
G1 X87.321 Y41.725 Z0 F800
G1 X87.195 Z0 F800
G0 Z3.5 F500
G0 X84.067 Y42.001 Z3.5 
G1 Z0 F500
G1 X83.375 Y42.894 Z0 F800
G1 X82.736 Y43.826 Z0 F800
G1 X82.149 Y44.794 Z0 F800
G1 X81.615 Y45.792 Z0 F800
G1 X81.13 Y46.814 Z0 F800
G1 X80.696 Y47.854 Z0 F800
G1 X80.607 Y48.133 Z0 F800
G1 X80.536 Y48.444 Z0 F800
G1 X80.539 Y48.587 Z0 F800
G1 X80.584 Y48.707 Z0 F800
G1 X80.685 Y48.795 Z0 F800
G1 X80.855 Y48.84 Z0 F800
G1 X81.026 Y48.743 Z0 F800
G1 X81.166 Y48.609 Z0 F800
G1 X81.28 Y48.448 Z0 F800
G1 X81.377 Y48.269 Z0 F800
G1 X81.552 Y47.89 Z0 F800
G1 X81.748 Y47.544 Z0 F800
G1 X82.229 Y46.629 Z0 F800
G1 X82.74 Y45.734 Z0 F800
G1 X83.28 Y44.855 Z0 F800
G1 X83.842 Y43.99 Z0 F800
G1 X85.019 Y42.295 Z0 F800
G1 X86.237 Y40.63 Z0 F800
G1 X86.288 Y40.481 Z0 F800
G1 X86.27 Y40.356 Z0 F800
G1 X86.201 Y40.261 Z0 F800
G1 X86.095 Y40.199 Z0 F800
G1 X85.968 Y40.173 Z0 F800
G1 X85.836 Y40.189 Z0 F800
G1 X85.714 Y40.25 Z0 F800
G1 X85.618 Y40.361 Z0 F800
G1 X84.815 Y41.155 Z0 F800
G1 X84.067 Y42.001 Z0 F800
G0 Z3.5 F500
G0 X80.976 Y45.122 Z3.5 
G1 Z0 F500
G1 X81.642 Y43.604 Z0 F800
G1 X82.325 Y42.092 Z0 F800
G1 X83.014 Y40.585 Z0 F800
G1 X83.069 Y40.443 Z0 F800
G1 X83.057 Y40.314 Z0 F800
G1 X82.995 Y40.206 Z0 F800
G1 X82.896 Y40.127 Z0 F800
G1 X82.775 Y40.086 Z0 F800
G1 X82.649 Y40.09 Z0 F800
G1 X82.531 Y40.147 Z0 F800
G1 X82.436 Y40.266 Z0 F800
G1 X81.883 Y41.119 Z0 F800
G1 X81.364 Y41.996 Z0 F800
G1 X80.884 Y42.896 Z0 F800
G1 X80.446 Y43.817 Z0 F800
G1 X80.057 Y44.759 Z0 F800
G1 X79.72 Y45.72 Z0 F800
G1 X79.441 Y46.698 Z0 F800
G1 X79.224 Y47.692 Z0 F800
G1 X79.229 Y47.853 Z0 F800
G1 X79.286 Y47.989 Z0 F800
G1 X79.391 Y48.084 Z0 F800
G1 X79.545 Y48.12 Z0 F800
G1 X79.594 Y48.117 Z0 F800
G1 X79.748 Y47.983 Z0 F800
G1 X79.867 Y47.82 Z0 F800
G1 X79.961 Y47.636 Z0 F800
G1 X80.038 Y47.438 Z0 F800
G1 X80.173 Y47.028 Z0 F800
G1 X80.341 Y46.646 Z0 F800
G1 X80.976 Y45.122 Z0 F800
G0 Z3.5 F500
G0 X83.123 Y38.818 Z3.5 
G1 Z0 F500
G1 X84.638 Y38.883 Z0 F800
G1 X86.153 Y38.93 Z0 F800
G1 X87.666 Y38.916 Z0 F800
G1 X87.815 Y38.822 Z0 F800
G1 X87.895 Y38.699 Z0 F800
G1 X87.914 Y38.559 Z0 F800
G1 X87.879 Y38.416 Z0 F800
G1 X87.8 Y38.283 Z0 F800
G1 X87.686 Y38.172 Z0 F800
G1 X87.544 Y38.097 Z0 F800
G1 X87.384 Y38.071 Z0 F800
G1 X83.591 Y37.807 Z0 F800
G1 X79.795 Y37.569 Z0 F800
G1 X75.998 Y37.349 Z0 F800
G1 X72.201 Y37.135 Z0 F800
G1 X72.029 Y37.271 Z0 F800
G1 X71.927 Y37.44 Z0 F800
G1 X71.879 Y37.635 Z0 F800
G1 X71.87 Y37.846 Z0 F800
G1 X71.901 Y38.288 Z0 F800
G1 X71.884 Y38.938 Z0 F800
G1 X71.889 Y39.191 Z0 F800
G1 X71.869 Y39.296 Z0 F800
G1 X71.821 Y39.375 Z0 F800
G1 X71.734 Y39.413 Z0 F800
G1 X71.599 Y39.402 Z0 F800
G1 X71.421 Y39.421 Z0 F800
G1 X71.261 Y39.424 Z0 F800
G1 X71.122 Y39.405 Z0 F800
G1 X71.011 Y39.36 Z0 F800
G1 X70.933 Y39.284 Z0 F800
G1 X70.893 Y39.172 Z0 F800
G1 X70.897 Y39.019 Z0 F800
G1 X70.951 Y38.82 Z0 F800
G1 X70.991 Y37.694 Z0 F800
G1 X71.008 Y36.566 Z0 F800
G1 X71.011 Y35.439 Z0 F800
G1 Y34.312 Z0 F800
G1 X72.545 Y34.307 Z0 F800
G1 X74.081 Y34.315 Z0 F800
G1 X75.616 Y34.299 Z0 F800
G1 X77.147 Y34.224 Z0 F800
G1 X77.303 Y34.103 Z0 F800
G1 X77.368 Y33.963 Z0 F800
G1 X77.36 Y33.811 Z0 F800
G1 X77.298 Y33.652 Z0 F800
G1 X77.084 Y33.339 Z0 F800
G1 X76.87 Y33.073 Z0 F800
G1 X76.308 Y32.355 Z0 F800
G1 X75.721 Y31.651 Z0 F800
G1 X75.161 Y30.932 Z0 F800
G1 X74.676 Y30.165 Z0 F800
G1 X76.052 Y30.238 Z0 F800
G1 X77.426 Y30.318 Z0 F800
G1 X78.798 Y30.414 Z0 F800
G1 X80.171 Y30.533 Z0 F800
G1 X80.399 Y30.402 Z0 F800
G1 X80.608 Y30.242 Z0 F800
G1 X80.803 Y30.059 Z0 F800
G1 X80.989 Y29.86 Z0 F800
G1 X81.352 Y29.45 Z0 F800
G1 X81.735 Y29.07 Z0 F800
G1 X81.98 Y28.834 Z0 F800
G1 X82.222 Y28.58 Z0 F800
G1 X82.478 Y28.354 Z0 F800
G1 X82.763 Y28.199 Z0 F800
G1 X87.032 Y29.42 Z0 F800
G1 X91.468 Y30.637 Z0 F800
G1 X91.585 Y30.722 Z0 F800
G1 X91.675 Y30.837 Z0 F800
G1 X91.751 Y30.969 Z0 F800
G1 X91.826 Y31.105 Z0 F800
G1 X91.91 Y31.233 Z0 F800
G1 X92.015 Y31.341 Z0 F800
G1 X92.155 Y31.415 Z0 F800
G1 X92.693 Y31.583 Z0 F800
G1 X93.254 Y31.664 Z0 F800
G1 X93.821 Y31.719 Z0 F800
G1 X94.38 Y31.81 Z0 F800
G1 X94.313 Y32.092 Z0 F800
G1 X94.271 Y32.377 Z0 F800
G1 X94.257 Y32.664 Z0 F800
G1 X94.271 Y32.949 Z0 F800
G1 X94.316 Y33.23 Z0 F800
G1 X94.394 Y33.504 Z0 F800
G1 X94.507 Y33.768 Z0 F800
G1 X94.658 Y34.02 Z0 F800
G1 X94.635 Y34.491 Z0 F800
G1 X94.566 Y34.967 Z0 F800
G1 X94.473 Y35.444 Z0 F800
G1 X94.375 Y35.917 Z0 F800
G1 X93.878 Y35.885 Z0 F800
G1 X93.378 Y35.831 Z0 F800
G1 X93.143 Y35.769 Z0 F800
G1 X92.925 Y35.669 Z0 F800
G1 X92.731 Y35.523 Z0 F800
G1 X92.567 Y35.32 Z0 F800
G1 X92.379 Y35.163 Z0 F800
G1 X92.146 Y35.057 Z0 F800
G1 X91.888 Y35.005 Z0 F800
G1 X91.626 Y35.008 Z0 F800
G1 X91.382 Y35.071 Z0 F800
G1 X91.176 Y35.195 Z0 F800
G1 X91.093 Y35.281 Z0 F800
G1 X91.027 Y35.383 Z0 F800
G1 X90.981 Y35.503 Z0 F800
G1 X90.958 Y35.639 Z0 F800
G1 X90.745 Y36.616 Z0 F800
G1 X90.559 Y37.606 Z0 F800
G1 X90.439 Y38.091 Z0 F800
G1 X90.281 Y38.561 Z0 F800
G1 X90.07 Y39.011 Z0 F800
G1 X89.792 Y39.434 Z0 F800
G1 X88.194 Y42.238 Z0 F800
G1 X86.662 Y45.081 Z0 F800
G1 X85.934 Y46.521 Z0 F800
G1 X85.238 Y47.977 Z0 F800
G1 X84.581 Y49.45 Z0 F800
G1 X83.967 Y50.943 Z0 F800
G1 X83.723 Y51.818 Z0 F800
G1 X83.531 Y52.705 Z0 F800
G1 X83.373 Y53.601 Z0 F800
G1 X83.227 Y54.5 Z0 F800
G1 X83.075 Y55.396 Z0 F800
G1 X82.896 Y56.286 Z0 F800
G1 X82.671 Y57.164 Z0 F800
G1 X82.38 Y58.025 Z0 F800
G1 X82.272 Y58.236 Z0 F800
G1 X82.145 Y58.424 Z0 F800
G1 X82 Y58.59 Z0 F800
G1 X81.839 Y58.735 Z0 F800
G1 X81.477 Y58.97 Z0 F800
G1 X81.071 Y59.138 Z0 F800
G1 X80.638 Y59.25 Z0 F800
G1 X80.19 Y59.316 Z0 F800
G1 X79.742 Y59.349 Z0 F800
G1 X79.308 Y59.358 Z0 F800
G1 X77.627 Y59.383 Z0 F800
G1 X75.939 Z0 F800
G1 X69.59 Y59.333 Z0 F800
G1 X63.24 Y59.249 Z0 F800
G1 X56.892 Y59.109 Z0 F800
G1 X50.547 Y58.889 Z0 F800
G1 X50.262 Y58.858 Z0 F800
G1 X49.946 Y58.862 Z0 F800
G1 X49.795 Y58.852 Z0 F800
G1 X49.657 Y58.817 Z0 F800
G1 X49.54 Y58.75 Z0 F800
G1 X49.451 Y58.638 Z0 F800
G1 X49.386 Y58.056 Z0 F800
G1 X49.354 Y57.47 Z0 F800
G1 X49.347 Y56.882 Z0 F800
G1 X49.357 Y56.291 Z0 F800
G1 X49.398 Y55.107 Z0 F800
G1 X49.414 Y53.925 Z0 F800
G1 X49.434 Y53.506 Z0 F800
G1 X49.421 Y53.092 Z0 F800
G1 X49.384 Y52.894 Z0 F800
G1 X49.315 Y52.706 Z0 F800
G1 X49.208 Y52.531 Z0 F800
G1 X49.054 Y52.373 Z0 F800
G1 X46.99 Y49.413 Z0 F800
G1 X44.944 Y46.436 Z0 F800
G1 X40.875 Y40.47 Z0 F800
G1 X40.702 Y40.174 Z0 F800
G1 X40.564 Y39.85 Z0 F800
G1 X40.479 Y39.517 Z0 F800
G1 X40.463 Y39.198 Z0 F800
G1 X41.666 Y39.019 Z0 F800
G1 X42.256 Y38.938 Z0 F800
G1 X42.77 Y38.88 Z0 F800
G1 X42.515 Y39.079 Z0 F800
G1 X42.317 Y39.325 Z0 F800
G1 X42.179 Y39.605 Z0 F800
G1 X42.102 Y39.907 Z0 F800
G1 X42.088 Y40.217 Z0 F800
G1 X42.143 Y40.523 Z0 F800
G1 X42.266 Y40.812 Z0 F800
G1 X42.46 Y41.071 Z0 F800
G1 X42.646 Y41.264 Z0 F800
G1 X42.88 Y41.418 Z0 F800
G1 X43.125 Y41.526 Z0 F800
G1 X43.34 Y41.581 Z0 F800
G1 X43.165 Y41.655 Z0 F800
G1 X43.03 Y41.765 Z0 F800
G1 X42.936 Y41.903 Z0 F800
G1 X42.882 Y42.062 Z0 F800
G1 X42.867 Y42.23 Z0 F800
G1 X42.89 Y42.403 Z0 F800
G1 X42.951 Y42.57 Z0 F800
G1 X44.16 Y44.472 Z0 F800
G1 X45.315 Y46.193 Z0 F800
G1 X46.491 Y47.901 Z0 F800
G1 X47.867 Y49.91 Z0 F800
G1 X48.115 Y50.214 Z0 F800
G1 X48.257 Y50.324 Z0 F800
G1 X48.413 Y50.381 Z0 F800
G1 X48.581 Y50.37 Z0 F800
G1 X48.763 Y50.27 Z0 F800
G1 X48.979 Y50.09 Z0 F800
G1 X49.179 Y49.891 Z0 F800
G1 X49.357 Y49.674 Z0 F800
G1 X49.509 Y49.44 Z0 F800
G1 X49.63 Y49.19 Z0 F800
G1 X49.713 Y48.927 Z0 F800
G1 X49.754 Y48.651 Z0 F800
G1 X49.748 Y48.363 Z0 F800
G1 X49.77 Y47.426 Z0 F800
G1 Y46.489 Z0 F800
G1 X49.979 Y46.448 Z0 F800
G1 X50.142 Y46.457 Z0 F800
G1 X50.266 Y46.511 Z0 F800
G1 X50.354 Y46.603 Z0 F800
G1 X50.412 Y46.728 Z0 F800
G1 X50.444 Y46.88 Z0 F800
G1 X50.456 Y47.053 Z0 F800
G1 X50.451 Y47.242 Z0 F800
G1 X50.469 Y48.008 Z0 F800
G1 X50.406 Y48.79 Z0 F800
G1 X50.321 Y49.168 Z0 F800
G1 X50.189 Y49.532 Z0 F800
G1 X50.002 Y49.872 Z0 F800
G1 X49.751 Y50.182 Z0 F800
G1 X49.501 Y50.462 Z0 F800
G1 X49.201 Y50.71 Z0 F800
G1 X49.06 Y50.837 Z0 F800
G1 X48.942 Y50.973 Z0 F800
G1 X48.857 Y51.125 Z0 F800
G1 X48.816 Y51.297 Z0 F800
G1 X49.035 Y51.652 Z0 F800
G1 X49.272 Y52.016 Z0 F800
G1 X49.405 Y52.186 Z0 F800
G1 X49.551 Y52.339 Z0 F800
G1 X49.715 Y52.47 Z0 F800
G1 X49.898 Y52.572 Z0 F800
G1 X50.034 Y52.545 Z0 F800
G1 X50.146 Y52.493 Z0 F800
G1 X50.239 Y52.418 Z0 F800
G1 X50.315 Y52.326 Z0 F800
G1 X50.431 Y52.102 Z0 F800
G1 X50.615 Y51.593 Z0 F800
G1 X50.735 Y51.366 Z0 F800
G1 X50.814 Y51.272 Z0 F800
G1 X50.911 Y51.197 Z0 F800
G1 X51.028 Y51.143 Z0 F800
G1 X51.169 Y51.113 Z0 F800
G1 X51.919 Y51.03 Z0 F800
G1 X52.672 Y50.995 Z0 F800
G1 X53.426 Y50.984 Z0 F800
G1 X54.181 Y50.976 Z0 F800
G1 X54.409 Y51.853 Z0 F800
G1 X54.579 Y52.737 Z0 F800
G1 X54.713 Y53.627 Z0 F800
G1 X54.839 Y54.519 Z0 F800
G1 X54.954 Y54.669 Z0 F800
G1 X55.101 Y54.76 Z0 F800
G1 X55.273 Y54.805 Z0 F800
G1 X55.462 Y54.817 Z0 F800
G1 X55.857 Y54.801 Z0 F800
G1 X56.223 Y54.821 Z0 F800
G1 X67.731 Y54.966 Z0 F800
G1 X79.564 Y55.082 Z0 F800
G1 X79.89 Y54.987 Z0 F800
G1 X80.014 Y54.899 Z0 F800
G1 X80.091 Y54.782 Z0 F800
G1 X80.107 Y54.635 Z0 F800
G1 X80.045 Y54.457 Z0 F800
G1 X79.808 Y54.051 Z0 F800
G1 X79.541 Y53.652 Z0 F800
G1 X79.382 Y53.489 Z0 F800
G1 X79.198 Y53.371 Z0 F800
G1 X78.982 Y53.31 Z0 F800
G1 X78.729 Y53.322 Z0 F800
G1 X77.117 Y53.253 Z0 F800
G1 X75.502 Y53.231 Z0 F800
G1 X73.888 Z0 F800
G1 X72.273 Y53.228 Z0 F800
G1 X72.012 Y52.195 Z0 F800
G1 X71.772 Y51.158 Z0 F800
G1 X73.797 Y51.184 Z0 F800
G1 X75.827 Y51.227 Z0 F800
G1 X77.853 Y51.306 Z0 F800
G1 X79.868 Y51.435 Z0 F800
G1 X80.151 Y51.58 Z0 F800
G1 X80.397 Y51.77 Z0 F800
G1 X80.611 Y51.996 Z0 F800
G1 X80.795 Y52.25 Z0 F800
G1 X81.089 Y52.816 Z0 F800
G1 X81.308 Y53.405 Z0 F800
G1 X81.368 Y53.535 Z0 F800
G1 X81.461 Y53.618 Z0 F800
G1 X81.576 Y53.658 Z0 F800
G1 X81.697 Z0 F800
G1 X81.811 Y53.617 Z0 F800
G1 X81.904 Y53.541 Z0 F800
G1 X81.963 Y53.43 Z0 F800
G1 X81.974 Y53.288 Z0 F800
G1 X81.987 Y52.858 Z0 F800
G1 X81.98 Y52.413 Z0 F800
G1 X81.941 Y51.966 Z0 F800
G1 X81.859 Y51.53 Z0 F800
G1 X81.724 Y51.116 Z0 F800
G1 X81.523 Y50.738 Z0 F800
G1 X81.394 Y50.566 Z0 F800
G1 X81.245 Y50.408 Z0 F800
G1 X81.074 Y50.265 Z0 F800
G1 X80.88 Y50.139 Z0 F800
G1 X80.385 Y49.931 Z0 F800
G1 X79.87 Y49.786 Z0 F800
G1 X79.342 Y49.688 Z0 F800
G1 X78.806 Y49.625 Z0 F800
G1 X77.73 Y49.545 Z0 F800
G1 X76.687 Y49.436 Z0 F800
G1 X77.247 Y44.092 Z0 F800
G1 X77.815 Y38.759 Z0 F800
G1 X78.749 Y38.698 Z0 F800
G1 X79.698 Y38.716 Z0 F800
G1 X80.654 Y38.76 Z0 F800
G1 X81.608 Y38.777 Z0 F800
G1 X83.123 Y38.818 Z0 F800
G0 Z3.5 F500
G0 X75.031 Y39.386 Z3.5 
G1 Z0 F500
G1 X75.349 Y39.404 Z0 F800
G1 X74.846 Y44.039 Z0 F800
G1 X74.281 Y48.742 Z0 F800
G1 X74.231 Y48.747 Z0 F800
G1 X74.25 Y48.272 Z0 F800
G1 X74.458 Y43.501 Z0 F800
G1 X74.647 Y39.372 Z0 F800
G1 X75.031 Y39.386 Z0 F800
G0 Z3.5 F500
G0 X76.054 Y38.838 Z3.5 
G1 Z0 F500
G1 X75.481 Y44.115 Z0 F800
G1 X74.849 Y49.385 Z0 F800
G1 X74.453 Y49.369 Z0 F800
G1 X73.996 Y49.412 Z0 F800
G1 X73.798 Y49.403 Z0 F800
G1 X73.648 Y49.349 Z0 F800
G1 X73.598 Y49.298 Z0 F800
G1 X73.568 Y49.228 Z0 F800
G1 X73.561 Y49.136 Z0 F800
G1 X73.579 Y49.019 Z0 F800
G1 X73.61 Y48.247 Z0 F800
G1 X73.819 Y43.472 Z0 F800
G1 X74.038 Y38.698 Z0 F800
G1 X74.545 Y38.729 Z0 F800
G1 X75.067 Y38.747 Z0 F800
G1 X75.579 Y38.775 Z0 F800
G1 X76.054 Y38.838 Z0 F800
G0 Z3.5 F500
G0 X67.964 Y28.928 Z3.5 
G1 Z0 F500
G1 X67.954 Z0 F800
G1 X66.985 Y28.921 Z0 F800
G1 X67.009 Y27.912 Z0 F800
G1 X67.013 Y27.627 Z0 F800
G1 X67.964 Y28.928 Z0 F800
G0 Z3.5 F500
G0 X67.968 Y29.568 Z3.5 
G1 Z0 F500
G1 X66.329 Y29.557 Z0 F800
G1 X66.369 Y27.9 Z0 F800
G1 X66.39 Y26.263 Z0 F800
G1 X66.402 Y25.746 Z0 F800
G1 X67.011 Y26.541 Z0 F800
G1 X68.716 Y28.872 Z0 F800
G1 X69.217 Y29.569 Z0 F800
G1 X67.968 Z0 F800
G0 Z3.5 F500
G0 X65.688 Y29.583 Z3.5 
G1 Z0 F500
G1 X65.729 Y27.889 Z0 F800
G1 X65.75 Y26.248 Z0 F800
G1 X65.788 Y24.634 Z0 F800
G1 X65.825 Y23.977 Z0 F800
G1 X65.854 Z0 F800
G1 X67.531 Y26.168 Z0 F800
G1 X69.235 Y28.498 Z0 F800
G1 X70.465 Y30.21 Z0 F800
G1 X67.964 Z0 F800
G1 X65.676 Y30.192 Z0 F800
G1 X65.667 Y29.926 Z0 F800
G1 X65.688 Y29.583 Z0 F800
G0 Z3.5 F500
G0 X66.148 Y23.352 Z3.5 
G1 Z0 F500
G1 X66.198 Y23.366 Z0 F800
G1 X66.235 Y23.423 Z0 F800
G1 X68.042 Y25.781 Z0 F800
G1 X69.755 Y28.125 Z0 F800
G1 X71.468 Y30.509 Z0 F800
G1 X71.716 Y30.852 Z0 F800
G1 X67.959 Y30.848 Z0 F800
G1 X65.001 Y30.828 Z0 F800
G1 X65.03 Y30.647 Z0 F800
G1 X65.041 Y30.318 Z0 F800
G1 X65.026 Y29.918 Z0 F800
G1 X65.048 Y29.556 Z0 F800
G1 X65.089 Y27.877 Z0 F800
G1 X65.11 Y26.233 Z0 F800
G1 X65.148 Y24.598 Z0 F800
G1 X65.218 Y23.375 Z0 F800
G1 X65.489 Y23.337 Z0 F800
G1 X65.934 Z0 F800
G1 X66.148 Y23.352 Z0 F800
G0 Z3.5 F500
G0 X66.76 Y23.055 Z3.5 
G1 Z0 F500
G1 X68.556 Y25.401 Z0 F800
G1 X70.275 Y27.751 Z0 F800
G1 X71.987 Y30.134 Z0 F800
G1 X72.972 Y31.492 Z0 F800
G1 X67.955 Y31.488 Z0 F800
G1 X64.045 Y31.461 Z0 F800
G1 X64.227 Y31.204 Z0 F800
G1 X64.344 Y30.884 Z0 F800
G1 X64.392 Y30.586 Z0 F800
G1 X64.4 Y30.319 Z0 F800
G1 X64.386 Y29.908 Z0 F800
G1 X64.409 Y29.529 Z0 F800
G1 X64.45 Y27.865 Z0 F800
G1 X64.471 Y26.211 Z0 F800
G1 X64.508 Y24.591 Z0 F800
G1 X64.597 Y23.026 Z0 F800
G1 X64.606 Y22.997 Z0 F800
G1 X64.629 Y22.951 Z0 F800
G1 X64.654 Y22.917 Z0 F800
G1 X64.668 Y22.902 Z0 F800
G1 X64.793 Y22.822 Z0 F800
G1 X64.939 Y22.769 Z0 F800
G1 X65.441 Y22.698 Z0 F800
G1 X65.958 Z0 F800
G1 X66.258 Y22.718 Z0 F800
G1 X66.495 Y22.784 Z0 F800
G1 X66.557 Y22.816 Z0 F800
G1 X66.618 Y22.861 Z0 F800
G1 X66.668 Y22.914 Z0 F800
G1 X66.76 Y23.055 Z0 F800
G0 Z3.5 F500
G0 X69.064 Y25.012 Z3.5 
G1 Z0 F500
G1 X70.795 Y27.378 Z0 F800
G1 X72.506 Y29.76 Z0 F800
G1 X74.227 Y32.133 Z0 F800
G1 X67.951 Y32.128 Z0 F800
G1 X61.674 Y32.085 Z0 F800
G1 X61.492 Y32.128 Z0 F800
G1 X61.357 Y32.109 Z0 F800
G1 X61.264 Y32.039 Z0 F800
G1 X61.206 Y31.924 Z0 F800
G1 X61.177 Y31.775 Z0 F800
G1 X61.171 Y31.598 Z0 F800
G1 X61.184 Y31.403 Z0 F800
G1 X61.208 Y31.199 Z0 F800
G1 X61.793 Y31.188 Z0 F800
G1 X62.387 Y31.208 Z0 F800
G1 X62.682 Z0 F800
G1 X62.974 Y31.191 Z0 F800
G1 X63.261 Y31.146 Z0 F800
G1 X63.541 Y31.066 Z0 F800
G1 X63.655 Y30.903 Z0 F800
G1 X63.722 Y30.722 Z0 F800
G1 X63.753 Y30.526 Z0 F800
G1 X63.76 Y30.32 Z0 F800
G1 X63.745 Y29.901 Z0 F800
G1 X63.77 Y29.501 Z0 F800
G1 X63.81 Y27.853 Z0 F800
G1 X63.831 Y26.203 Z0 F800
G1 X63.869 Y24.555 Z0 F800
G1 X63.962 Y22.911 Z0 F800
G1 X64.011 Y22.754 Z0 F800
G1 X64.08 Y22.618 Z0 F800
G1 X64.165 Y22.5 Z0 F800
G1 X64.266 Y22.4 Z0 F800
G1 X64.506 Y22.246 Z0 F800
G1 X64.784 Y22.144 Z0 F800
G1 X65.396 Y22.058 Z0 F800
G1 X65.981 Z0 F800
G1 X66.365 Y22.084 Z0 F800
G1 X66.729 Y22.185 Z0 F800
G1 X66.894 Y22.269 Z0 F800
G1 X67.043 Y22.379 Z0 F800
G1 X67.175 Y22.518 Z0 F800
G1 X67.284 Y22.687 Z0 F800
G1 X69.064 Y25.012 Z0 F800
G0 Z3.5 F500
G0 X73.289 Y24.978 Z3.5 
G1 Z0 F500
G1 X73.733 Y25.254 Z0 F800
G1 X74.078 Y25.434 Z0 F800
G1 X73.939 Y25.718 Z0 F800
G1 X73.813 Y25.914 Z0 F800
G1 X73.666 Y26.359 Z0 F800
G1 X73.641 Y26.823 Z0 F800
G1 X73.592 Y26.75 Z0 F800
G1 X73.306 Y26.363 Z0 F800
G1 X72.91 Y25.791 Z0 F800
G1 X72.509 Y25.228 Z0 F800
G1 X72.485 Y25.191 Z0 F800
G1 X72.643 Y25.101 Z0 F800
G1 X73.005 Y24.84 Z0 F800
G1 X73.045 Y24.8 Z0 F800
G1 X73.289 Y24.978 Z0 F800
G0 Z3.5 F500
G0 X74.629 Y25.765 Z3.5 
G1 Z0 F500
G1 X74.496 Y26.036 Z0 F800
G1 X74.395 Y26.192 Z0 F800
G1 X74.301 Y26.478 Z0 F800
G1 X74.285 Y26.773 Z0 F800
G1 X74.345 Y27.063 Z0 F800
G1 X74.483 Y27.328 Z0 F800
G1 X74.69 Y27.549 Z0 F800
G1 X74.957 Y27.71 Z0 F800
G1 X75.163 Y27.766 Z0 F800
G1 X76.049 Y28.066 Z0 F800
G1 X76.469 Y28.198 Z0 F800
G1 X75.025 Y28.095 Z0 F800
G1 X73.703 Y27.975 Z0 F800
G1 X73.575 Y27.846 Z0 F800
G1 X73.333 Y27.517 Z0 F800
G1 X73.068 Y27.118 Z0 F800
G1 X72.788 Y26.739 Z0 F800
G1 X72.386 Y26.158 Z0 F800
G1 X71.979 Y25.588 Z0 F800
G1 X71.617 Y25.031 Z0 F800
G1 X71.574 Y24.949 Z0 F800
G1 X72.011 Y24.725 Z0 F800
G1 X72.296 Y24.562 Z0 F800
G1 X72.588 Y24.352 Z0 F800
G1 X72.866 Y24.071 Z0 F800
G1 X72.964 Y23.914 Z0 F800
G1 X73.263 Y24.167 Z0 F800
G1 X73.646 Y24.446 Z0 F800
G1 X74.05 Y24.698 Z0 F800
G1 X74.473 Y24.918 Z0 F800
G1 X74.914 Y25.106 Z0 F800
G1 X75.341 Y25.249 Z0 F800
G1 X75.231 Y25.284 Z0 F800
G1 X74.909 Y25.471 Z0 F800
G1 X74.629 Y25.765 Z0 F800
G0 Z3.5 F500
G0 X70.132 Y22.816 Z3.5 
G1 Z0 F500
G1 X70.105 Y22.779 Z0 F800
G1 X69.8 Y22.339 Z0 F800
G1 X69.585 Y21.987 Z0 F800
G1 X69.675 Y21.929 Z0 F800
G1 X70.251 Y21.592 Z0 F800
G1 X70.856 Y21.243 Z0 F800
G1 X71.068 Y21.109 Z0 F800
G1 X71.072 Y21.122 Z0 F800
G1 X71.249 Y21.565 Z0 F800
G1 X71.456 Y21.993 Z0 F800
G1 X71.542 Y22.144 Z0 F800
G1 X71.501 Y22.157 Z0 F800
G1 X70.982 Y22.371 Z0 F800
G1 X70.506 Y22.625 Z0 F800
G1 X70.132 Y22.816 Z0 F800
G0 Z3.5 F500
G0 X69.579 Y23.144 Z3.5 
G1 Z0 F500
G1 X69.265 Y22.692 Z0 F800
G1 X68.983 Y22.229 Z0 F800
G1 X68.766 Y21.757 Z0 F800
G1 X69.339 Y21.384 Z0 F800
G1 X69.931 Y21.038 Z0 F800
G1 X70.525 Y20.695 Z0 F800
G1 X71.105 Y20.329 Z0 F800
G1 X71.188 Y20.266 Z0 F800
G1 X71.264 Y20.227 Z0 F800
G1 X71.333 Y20.213 Z0 F800
G1 X71.395 Y20.223 Z0 F800
G1 X71.448 Y20.256 Z0 F800
G1 X71.491 Y20.313 Z0 F800
G1 X71.524 Y20.394 Z0 F800
G1 X71.545 Y20.497 Z0 F800
G1 X71.675 Y20.907 Z0 F800
G1 X71.834 Y21.307 Z0 F800
G1 X72.022 Y21.694 Z0 F800
G1 X72.236 Y22.068 Z0 F800
G1 X72.475 Y22.425 Z0 F800
G1 X72.738 Y22.766 Z0 F800
G1 X73.024 Y23.086 Z0 F800
G1 X73.332 Y23.386 Z0 F800
G1 X73.659 Y23.664 Z0 F800
G1 X74.004 Y23.916 Z0 F800
G1 X74.368 Y24.142 Z0 F800
G1 X74.747 Y24.339 Z0 F800
G1 X75.141 Y24.507 Z0 F800
G1 X75.548 Y24.643 Z0 F800
G1 X75.967 Y24.746 Z0 F800
G1 X76.397 Y24.813 Z0 F800
G1 X76.773 Y24.855 Z0 F800
G1 X77.155 Y24.869 Z0 F800
G1 X77.901 Z0 F800
G1 X77.813 Y25.064 Z0 F800
G1 X77.696 Y25.238 Z0 F800
G1 X77.556 Y25.389 Z0 F800
G1 X77.395 Y25.515 Z0 F800
G1 X77.215 Y25.614 Z0 F800
G1 X77.021 Y25.685 Z0 F800
G1 X76.815 Y25.725 Z0 F800
G1 X76.155 Y25.75 Z0 F800
G1 X75.701 Y25.805 Z0 F800
G1 X75.493 Y25.872 Z0 F800
G1 X75.31 Y25.978 Z0 F800
G1 X75.16 Y26.135 Z0 F800
G1 X75.054 Y26.351 Z0 F800
G1 X74.977 Y26.471 Z0 F800
G1 X74.935 Y26.597 Z0 F800
G1 X74.928 Y26.724 Z0 F800
G1 X74.954 Y26.845 Z0 F800
G1 X75.011 Y26.955 Z0 F800
G1 X75.097 Y27.047 Z0 F800
G1 X75.21 Y27.116 Z0 F800
G1 X75.35 Y27.154 Z0 F800
G1 X76.248 Y27.458 Z0 F800
G1 X77.154 Y27.742 Z0 F800
G1 X78.065 Y28.004 Z0 F800
G1 X78.977 Y28.242 Z0 F800
G1 X79.186 Y28.136 Z0 F800
G1 X79.375 Y27.976 Z0 F800
G1 X79.554 Y27.786 Z0 F800
G1 X79.731 Y27.588 Z0 F800
G1 X79.917 Y27.408 Z0 F800
G1 X80.121 Y27.269 Z0 F800
G1 X80.351 Y27.193 Z0 F800
G1 X80.618 Y27.207 Z0 F800
G1 X80.829 Y27.258 Z0 F800
G1 X81.066 Y27.311 Z0 F800
G1 X81.276 Y27.381 Z0 F800
G1 X81.408 Y27.484 Z0 F800
G1 X81.005 Y27.919 Z0 F800
G1 X80.595 Y28.356 Z0 F800
G1 X80.162 Y28.764 Z0 F800
G1 X79.688 Y29.11 Z0 F800
G1 X79.664 Z0 F800
G1 X78.103 Y28.959 Z0 F800
G1 X76.538 Y28.844 Z0 F800
G1 X74.973 Y28.732 Z0 F800
G1 X73.413 Y28.591 Z0 F800
G1 X73.088 Y28.264 Z0 F800
G1 X72.809 Y27.883 Z0 F800
G1 X72.544 Y27.485 Z0 F800
G1 X72.264 Y27.107 Z0 F800
G1 X71.862 Y26.526 Z0 F800
G1 X71.449 Y25.946 Z0 F800
G1 X71.063 Y25.353 Z0 F800
G1 X70.741 Y24.731 Z0 F800
G1 X71.2 Y24.421 Z0 F800
G1 X71.706 Y24.162 Z0 F800
G1 X71.949 Y24.023 Z0 F800
G1 X72.171 Y23.863 Z0 F800
G1 X72.361 Y23.671 Z0 F800
G1 X72.508 Y23.436 Z0 F800
G1 X72.534 Y23.264 Z0 F800
G1 X72.509 Y23.102 Z0 F800
G1 X72.441 Y22.956 Z0 F800
G1 X72.338 Y22.835 Z0 F800
G1 X72.207 Y22.748 Z0 F800
G1 X72.056 Y22.7 Z0 F800
G1 X71.893 Z0 F800
G1 X71.725 Y22.757 Z0 F800
G1 X71.256 Y22.95 Z0 F800
G1 X70.797 Y23.195 Z0 F800
G1 X70.345 Y23.426 Z0 F800
G1 X69.895 Y23.581 Z0 F800
G1 X69.579 Y23.144 Z0 F800
G0 Z3.5 F500
G0 X77.482 Y18.692 Z3.5 
G1 Z0 F500
G1 X77.501 Y18.704 Z0 F800
G1 X77.497 Y18.851 Z0 F800
G1 X77.483 Y18.887 Z0 F800
G1 X77.429 Z0 F800
G1 X77.407 Y18.882 Z0 F800
G1 X77.385 Y18.869 Z0 F800
G1 X77.363 Y18.848 Z0 F800
G1 X77.351 Y18.829 Z0 F800
G1 X77.347 Y18.814 Z0 F800
G1 Y18.803 Z0 F800
G1 X77.373 Y18.709 Z0 F800
G1 X77.382 Y18.681 Z0 F800
G1 X77.433 Z0 F800
G1 X77.482 Y18.692 Z0 F800
G0 Z3.5 F500
G0 X78.133 Y18.974 Z3.5 
G1 Z0 F500
G1 X78.029 Y19.255 Z0 F800
G1 X77.942 Y19.372 Z0 F800
G1 X77.834 Y19.461 Z0 F800
G1 X77.705 Y19.516 Z0 F800
G1 X77.554 Y19.526 Z0 F800
G1 X77.351 Y19.529 Z0 F800
G1 X77.163 Y19.479 Z0 F800
G1 X76.997 Y19.385 Z0 F800
G1 X76.861 Y19.254 Z0 F800
G1 X76.763 Y19.094 Z0 F800
G1 X76.708 Y18.914 Z0 F800
G1 X76.705 Y18.721 Z0 F800
G1 X76.76 Y18.524 Z0 F800
G1 X76.8 Y18.394 Z0 F800
G1 X76.861 Y18.284 Z0 F800
G1 X76.942 Y18.194 Z0 F800
G1 X77.039 Y18.125 Z0 F800
G1 X77.264 Y18.043 Z0 F800
G1 X77.509 Y18.037 Z0 F800
G1 X77.747 Y18.101 Z0 F800
G1 X77.951 Y18.233 Z0 F800
G1 X78.03 Y18.324 Z0 F800
G1 X78.091 Y18.43 Z0 F800
G1 X78.129 Y18.551 Z0 F800
G1 X78.142 Y18.687 Z0 F800
G1 X78.133 Y18.974 Z0 F800
G0 Z3.5 F500
G0 X78.22 Y21.982 Z3.5 
G1 Z0 F500
G1 X78.532 Y21.889 Z0 F800
G1 X78.832 Y21.762 Z0 F800
G1 X79.117 Y21.604 Z0 F800
G1 X79.385 Y21.418 Z0 F800
G1 X79.634 Y21.207 Z0 F800
G1 X79.863 Y20.972 Z0 F800
G1 X80.069 Y20.717 Z0 F800
G1 X80.25 Y20.443 Z0 F800
G1 X80.405 Y20.153 Z0 F800
G1 X80.532 Y19.851 Z0 F800
G1 X80.628 Y19.538 Z0 F800
G1 X80.691 Y19.216 Z0 F800
G1 X80.721 Y18.889 Z0 F800
G1 X80.713 Y18.559 Z0 F800
G1 X80.662 Y18.104 Z0 F800
G1 X80.533 Y17.671 Z0 F800
G1 X80.338 Y17.263 Z0 F800
G1 X80.084 Y16.883 Z0 F800
G1 X79.783 Y16.536 Z0 F800
G1 X79.444 Y16.226 Z0 F800
G1 X79.075 Y15.957 Z0 F800
G1 X78.688 Y15.731 Z0 F800
G1 X78.4 Y15.645 Z0 F800
G1 X78.107 Y15.583 Z0 F800
G1 X77.809 Y15.546 Z0 F800
G1 X77.509 Y15.535 Z0 F800
G1 X76.912 Y15.585 Z0 F800
G1 X76.333 Y15.732 Z0 F800
G1 X76.056 Y15.84 Z0 F800
G1 X75.789 Y15.972 Z0 F800
G1 X75.536 Y16.126 Z0 F800
G1 X75.298 Y16.303 Z0 F800
G1 X75.078 Y16.502 Z0 F800
G1 X74.877 Y16.723 Z0 F800
G1 X74.698 Y16.965 Z0 F800
G1 X74.543 Y17.229 Z0 F800
G1 X74.367 Y17.61 Z0 F800
G1 X74.251 Y18.011 Z0 F800
G1 X74.191 Y18.426 Z0 F800
G1 X74.185 Y18.848 Z0 F800
G1 X74.227 Y19.269 Z0 F800
G1 X74.314 Y19.684 Z0 F800
G1 X74.444 Y20.084 Z0 F800
G1 X74.611 Y20.464 Z0 F800
G1 X74.86 Y20.828 Z0 F800
G1 X75.159 Y21.148 Z0 F800
G1 X75.499 Y21.423 Z0 F800
G1 X75.873 Y21.652 Z0 F800
G1 X76.274 Y21.832 Z0 F800
G1 X76.694 Y21.96 Z0 F800
G1 X77.127 Y22.037 Z0 F800
G1 X77.564 Y22.06 Z0 F800
G1 X77.896 Y22.04 Z0 F800
G1 X78.22 Y21.982 Z0 F800
G0 Z3.5 F500
G0 X80.071 Y21.675 Z3.5 
G1 Z0 F500
G1 X80.342 Y21.397 Z0 F800
G1 X80.586 Y21.095 Z0 F800
G1 X80.801 Y20.771 Z0 F800
G1 X80.984 Y20.428 Z0 F800
G1 X81.134 Y20.069 Z0 F800
G1 X81.25 Y19.694 Z0 F800
G1 X81.326 Y19.307 Z0 F800
G1 X81.361 Y18.911 Z0 F800
G1 X81.353 Y18.516 Z0 F800
G1 X81.291 Y17.977 Z0 F800
G1 X81.132 Y17.441 Z0 F800
G1 X80.896 Y16.945 Z0 F800
G1 X80.594 Y16.494 Z0 F800
G1 X80.242 Y16.089 Z0 F800
G1 X79.85 Y15.73 Z0 F800
G1 X79.426 Y15.42 Z0 F800
G1 X78.944 Y15.141 Z0 F800
G1 X78.559 Y15.024 Z0 F800
G1 X78.212 Y14.951 Z0 F800
G1 X77.86 Y14.908 Z0 F800
G1 X77.494 Y14.894 Z0 F800
G1 X76.806 Y14.952 Z0 F800
G1 X76.137 Y15.121 Z0 F800
G1 X75.797 Y15.254 Z0 F800
G1 X75.48 Y15.41 Z0 F800
G1 X75.178 Y15.595 Z0 F800
G1 X74.892 Y15.808 Z0 F800
G1 X74.625 Y16.048 Z0 F800
G1 X74.381 Y16.316 Z0 F800
G1 X74.163 Y16.612 Z0 F800
G1 X73.975 Y16.932 Z0 F800
G1 X73.766 Y17.385 Z0 F800
G1 X73.624 Y17.875 Z0 F800
G1 X73.552 Y18.375 Z0 F800
G1 X73.544 Y18.875 Z0 F800
G1 X73.594 Y19.368 Z0 F800
G1 X73.695 Y19.848 Z0 F800
G1 X73.845 Y20.313 Z0 F800
G1 X74.05 Y20.777 Z0 F800
G1 X74.359 Y21.229 Z0 F800
G1 X74.721 Y21.618 Z0 F800
G1 X75.129 Y21.947 Z0 F800
G1 X75.574 Y22.219 Z0 F800
G1 X76.048 Y22.432 Z0 F800
G1 X76.544 Y22.584 Z0 F800
G1 X77.054 Y22.674 Z0 F800
G1 X77.567 Y22.701 Z0 F800
G1 X77.972 Y22.677 Z0 F800
G1 X78.368 Y22.606 Z0 F800
G1 X78.749 Y22.492 Z0 F800
G1 X79.112 Y22.338 Z0 F800
G1 X79.455 Y22.148 Z0 F800
G1 X79.775 Y21.927 Z0 F800
G1 X80.071 Y21.675 Z0 F800
G0 Z3.5 F500
G0 X81.024 Y20.97 Z3.5 
G1 Z0 F500
G1 X80.73 Y21.391 Z0 F800
G1 X80.386 Y21.773 Z0 F800
G1 X79.994 Y22.112 Z0 F800
G1 X79.563 Y22.401 Z0 F800
G1 X79.103 Y22.633 Z0 F800
G1 X78.602 Y22.808 Z0 F800
G1 X78.31 Y22.889 Z0 F800
G1 X78.028 Y22.942 Z0 F800
G1 X77.727 Y22.974 Z0 F800
G1 X77.44 Y22.979 Z0 F800
G1 X76.874 Y22.949 Z0 F800
G1 X76.342 Y22.843 Z0 F800
G1 X75.828 Y22.666 Z0 F800
G1 X75.337 Y22.419 Z0 F800
G1 X74.882 Y22.112 Z0 F800
G1 X74.467 Y21.747 Z0 F800
G1 X74.105 Y21.334 Z0 F800
G1 X73.792 Y20.865 Z0 F800
G1 X73.574 Y20.481 Z0 F800
G1 X73.425 Y20.108 Z0 F800
G1 X73.322 Y19.709 Z0 F800
G1 X73.264 Y19.294 Z0 F800
G1 X73.247 Y18.858 Z0 F800
G1 X73.27 Y18.421 Z0 F800
G1 X73.326 Y17.977 Z0 F800
G1 X73.408 Y17.565 Z0 F800
G1 X73.552 Y17.166 Z0 F800
G1 X73.75 Y16.767 Z0 F800
G1 X73.99 Y16.392 Z0 F800
G1 X74.27 Y16.041 Z0 F800
G1 X74.588 Y15.714 Z0 F800
G1 X74.934 Y15.422 Z0 F800
G1 X75.304 Y15.167 Z0 F800
G1 X75.673 Y14.962 Z0 F800
G1 X76.179 Y14.795 Z0 F800
G1 X76.729 Y14.679 Z0 F800
G1 X77.288 Y14.624 Z0 F800
G1 X77.854 Y14.634 Z0 F800
G1 X78.4 Y14.71 Z0 F800
G1 X78.929 Y14.858 Z0 F800
G1 X79.423 Y15.076 Z0 F800
G1 X79.893 Y15.377 Z0 F800
G1 X80.152 Y15.58 Z0 F800
G1 X80.389 Y15.799 Z0 F800
G1 X80.61 Y16.04 Z0 F800
G1 X80.812 Y16.297 Z0 F800
G1 X80.995 Y16.572 Z0 F800
G1 X81.155 Y16.858 Z0 F800
G1 X81.292 Y17.151 Z0 F800
G1 X81.409 Y17.464 Z0 F800
G1 X81.502 Y17.781 Z0 F800
G1 X81.569 Y18.098 Z0 F800
G1 X81.613 Y18.42 Z0 F800
G1 X81.63 Y18.749 Z0 F800
G1 X81.622 Y19.069 Z0 F800
G1 X81.587 Y19.391 Z0 F800
G1 X81.525 Y19.704 Z0 F800
G1 X81.432 Y20.03 Z0 F800
G1 X81.256 Y20.523 Z0 F800
G1 X81.024 Y20.97 Z0 F800
G0 Z3.5 F500
G0 X80.383 Y22.623 Z3.5 
G1 Z0 F500
G1 X79.887 Y22.955 Z0 F800
G1 X79.354 Y23.223 Z0 F800
G1 X78.792 Y23.42 Z0 F800
G1 X78.457 Y23.512 Z0 F800
G1 X78.117 Y23.577 Z0 F800
G1 X77.772 Y23.613 Z0 F800
G1 X77.425 Y23.62 Z0 F800
G1 X76.792 Y23.586 Z0 F800
G1 X76.174 Y23.463 Z0 F800
G1 X75.579 Y23.257 Z0 F800
G1 X75.014 Y22.974 Z0 F800
G1 X74.49 Y22.62 Z0 F800
G1 X74.015 Y22.201 Z0 F800
G1 X73.596 Y21.724 Z0 F800
G1 X73.243 Y21.195 Z0 F800
G1 X72.997 Y20.762 Z0 F800
G1 X72.815 Y20.307 Z0 F800
G1 X72.693 Y19.834 Z0 F800
G1 X72.625 Y19.35 Z0 F800
G1 X72.606 Y18.858 Z0 F800
G1 X72.631 Y18.365 Z0 F800
G1 X72.694 Y17.875 Z0 F800
G1 X72.79 Y17.394 Z0 F800
G1 X72.963 Y16.912 Z0 F800
G1 X73.191 Y16.452 Z0 F800
G1 X73.468 Y16.019 Z0 F800
G1 X73.79 Y15.616 Z0 F800
G1 X74.15 Y15.246 Z0 F800
G1 X74.545 Y14.913 Z0 F800
G1 X74.968 Y14.622 Z0 F800
G1 X75.414 Y14.374 Z0 F800
G1 X76.01 Y14.177 Z0 F800
G1 X76.631 Y14.046 Z0 F800
G1 X77.266 Y13.983 Z0 F800
G1 X77.903 Y13.995 Z0 F800
G1 X78.533 Y14.083 Z0 F800
G1 X79.144 Y14.253 Z0 F800
G1 X79.725 Y14.51 Z0 F800
G1 X80.267 Y14.857 Z0 F800
G1 X80.565 Y15.09 Z0 F800
G1 X80.843 Y15.347 Z0 F800
G1 X81.099 Y15.625 Z0 F800
G1 X81.332 Y15.922 Z0 F800
G1 X81.54 Y16.236 Z0 F800
G1 X81.725 Y16.565 Z0 F800
G1 X81.884 Y16.907 Z0 F800
G1 X82.017 Y17.26 Z0 F800
G1 X82.123 Y17.622 Z0 F800
G1 X82.201 Y17.99 Z0 F800
G1 X82.25 Y18.362 Z0 F800
G1 X82.271 Y18.738 Z0 F800
G1 X82.261 Y19.113 Z0 F800
G1 X82.22 Y19.487 Z0 F800
G1 X82.147 Y19.857 Z0 F800
G1 X82.042 Y20.222 Z0 F800
G1 X81.845 Y20.778 Z0 F800
G1 X81.572 Y21.303 Z0 F800
G1 X81.233 Y21.79 Z0 F800
G1 X80.834 Y22.232 Z0 F800
G1 X80.383 Y22.623 Z0 F800
G0 Z3.5 F500
G0 X55.989 Y27.595 Z3.5 
G1 Z0 F500
G1 X55.938 Z0 F800
G1 Y27.568 Z0 F800
G1 X55.917 Y26.772 Z0 F800
G1 X56.328 Y26.75 Z0 F800
G1 X55.989 Y27.595 Z0 F800
G0 Z3.5 F500
G0 X55.322 Y28.237 Z3.5 
G1 Z0 F500
G1 X55.297 Y27.609 Z0 F800
G1 X55.271 Y26.562 Z0 F800
G1 Y26.166 Z0 F800
G1 X56.816 Y26.083 Z0 F800
G1 X58.434 Y26.035 Z0 F800
G1 X58.43 Y26.263 Z0 F800
G1 X56.973 Y26.862 Z0 F800
G1 X56.422 Y28.234 Z0 F800
G1 X55.322 Y28.237 Z0 F800
G0 Z3.5 F500
G0 X54.658 Y27.641 Z3.5 
G1 Z0 F500
G1 X54.632 Y26.581 Z0 F800
G1 X54.626 Y25.563 Z0 F800
G1 X54.753 Y25.552 Z0 F800
G1 X56.784 Y25.444 Z0 F800
G1 X58.877 Y25.381 Z0 F800
G1 X59.083 Z0 F800
G1 X59.069 Y26.328 Z0 F800
G1 X59.059 Y26.696 Z0 F800
G1 X57.466 Y27.351 Z0 F800
G1 X56.856 Y28.873 Z0 F800
G1 X54.707 Y28.878 Z0 F800
G1 X54.658 Y27.641 Z0 F800
G0 Z3.5 F500
G0 X54.709 Y24.914 Z3.5 
G1 Z0 F500
G1 X56.772 Y24.804 Z0 F800
G1 X58.833 Y24.742 Z0 F800
G1 X59.732 Y24.736 Z0 F800
G1 Y24.79 Z0 F800
G1 X59.709 Y26.325 Z0 F800
G1 X59.685 Y27.181 Z0 F800
G1 X59.42 Y27.24 Z0 F800
G1 X57.96 Y27.84 Z0 F800
G1 X57.391 Y29.258 Z0 F800
G1 X57.338 Y29.477 Z0 F800
G1 X57.152 Y29.495 Z0 F800
G1 X57.035 Y29.513 Z0 F800
G1 X54.413 Y29.519 Z0 F800
G1 X54.092 Z0 F800
G1 X54.017 Y27.62 Z0 F800
G1 X53.992 Y26.601 Z0 F800
G1 X53.986 Y25.566 Z0 F800
G1 X54 Y24.969 Z0 F800
G1 X54.709 Y24.914 Z0 F800
G0 Z3.5 F500
G0 X58.83 Y24.102 Z3.5 
G1 Z0 F500
G1 X60.374 Y24.091 Z0 F800
G1 Y24.768 Z0 F800
G1 X60.349 Y26.343 Z0 F800
G1 X60.31 Y27.717 Z0 F800
G1 X60.16 Y27.731 Z0 F800
G1 X59.613 Y27.853 Z0 F800
G1 X58.453 Y28.329 Z0 F800
G1 X58.002 Y29.453 Z0 F800
G1 X57.884 Y29.943 Z0 F800
G1 X57.867 Y30.075 Z0 F800
G1 X57.611 Y30.093 Z0 F800
G1 X57.23 Y30.13 Z0 F800
G1 X57.081 Y30.153 Z0 F800
G1 X54.416 Y30.159 Z0 F800
G1 X53.476 Y30.164 Z0 F800
G1 X53.464 Y29.838 Z0 F800
G1 X53.378 Y27.665 Z0 F800
G1 X53.352 Y26.596 Z0 F800
G1 X53.346 Y25.555 Z0 F800
G1 X53.369 Y24.538 Z0 F800
G1 X53.378 Y24.376 Z0 F800
G1 X54.646 Y24.277 Z0 F800
G1 X56.761 Y24.164 Z0 F800
G1 X58.83 Y24.102 Z0 F800
G0 Z3.5 F500
G0 X61.016 Y23.449 Z3.5 
G1 Z0 F500
G1 X61.012 Y24.778 Z0 F800
G1 X60.989 Y26.362 Z0 F800
G1 X60.943 Y27.94 Z0 F800
G1 X60.925 Y28.322 Z0 F800
G1 X60.67 Y28.325 Z0 F800
G1 X60.26 Y28.364 Z0 F800
G1 X59.806 Y28.465 Z0 F800
G1 X58.946 Y28.818 Z0 F800
G1 X58.613 Y29.648 Z0 F800
G1 X58.514 Y30.06 Z0 F800
G1 X58.466 Y30.435 Z0 F800
G1 X58.452 Y30.682 Z0 F800
G1 X58.042 Y30.705 Z0 F800
G1 X57.665 Y30.731 Z0 F800
G1 X57.309 Y30.766 Z0 F800
G1 X57.129 Y30.792 Z0 F800
G1 X54.418 Y30.799 Z0 F800
G1 X52.857 Y30.808 Z0 F800
G1 X52.825 Y29.862 Z0 F800
G1 X52.738 Y27.689 Z0 F800
G1 X52.711 Y26.597 Z0 F800
G1 X52.706 Y25.569 Z0 F800
G1 X52.729 Y24.5 Z0 F800
G1 X52.771 Y23.781 Z0 F800
G1 X54.6 Y23.638 Z0 F800
G1 X56.729 Y23.524 Z0 F800
G1 X58.827 Y23.461 Z0 F800
G1 X60.915 Y23.447 Z0 F800
G1 X61.016 Z0 F800
G0 Z3.5 F500
G0 X61.656 Y23.215 Z3.5 
G1 Z0 F500
G1 X61.652 Y24.787 Z0 F800
G1 X61.628 Y26.39 Z0 F800
G1 X61.583 Y27.97 Z0 F800
G1 X61.536 Y28.977 Z0 F800
G1 X61.027 Y28.961 Z0 F800
G1 X60.704 Y28.965 Z0 F800
G1 X60.36 Y28.998 Z0 F800
G1 X59.998 Y29.078 Z0 F800
G1 X59.44 Y29.308 Z0 F800
G1 X59.225 Y29.844 Z0 F800
G1 X59.145 Y30.176 Z0 F800
G1 X59.104 Y30.494 Z0 F800
G1 X59.086 Y30.797 Z0 F800
G1 X59.079 Y31.289 Z0 F800
G1 X58.083 Y31.343 Z0 F800
G1 X57.718 Y31.369 Z0 F800
G1 X57.387 Y31.401 Z0 F800
G1 X57.181 Y31.432 Z0 F800
G1 X54.421 Y31.439 Z0 F800
G1 X52.238 Y31.451 Z0 F800
G1 X52.185 Y29.885 Z0 F800
G1 X52.099 Y27.696 Z0 F800
G1 X52.072 Y26.625 Z0 F800
G1 X52.066 Y25.537 Z0 F800
G1 X52.089 Y24.491 Z0 F800
G1 X52.151 Y23.412 Z0 F800
G1 X52.159 Y23.306 Z0 F800
G1 X52.17 Y23.265 Z0 F800
G1 X52.188 Y23.232 Z0 F800
G1 X52.21 Y23.207 Z0 F800
G1 X52.236 Y23.187 Z0 F800
G1 X52.269 Y23.172 Z0 F800
G1 X52.301 Y23.165 Z0 F800
G1 X52.441 Z0 F800
G1 X54.576 Y22.999 Z0 F800
G1 X56.697 Y22.885 Z0 F800
G1 X58.805 Y22.822 Z0 F800
G1 X60.92 Y22.808 Z0 F800
G1 X61.114 Y22.811 Z0 F800
G1 X61.267 Y22.834 Z0 F800
G1 X61.413 Y22.879 Z0 F800
G1 X61.525 Y22.935 Z0 F800
G1 X61.6 Y22.993 Z0 F800
G1 X61.634 Y23.038 Z0 F800
G1 X61.649 Y23.077 Z0 F800
G1 X61.656 Y23.215 Z0 F800
G0 Z3.5 F500
G0 X62.269 Y26.399 Z3.5 
G1 Z0 F500
G1 X62.222 Y28 Z0 F800
G1 X62.147 Y29.592 Z0 F800
G1 X61.591 Y29.619 Z0 F800
G1 X61.021 Y29.602 Z0 F800
G1 X60.738 Z0 F800
G1 X60.46 Y29.631 Z0 F800
G1 X60.191 Y29.691 Z0 F800
G1 X59.933 Y29.797 Z0 F800
G1 X59.836 Y30.039 Z0 F800
G1 X59.775 Y30.292 Z0 F800
G1 X59.741 Y30.554 Z0 F800
G1 X59.726 Y30.82 Z0 F800
G1 X59.718 Y31.359 Z0 F800
G1 X59.683 Y31.885 Z0 F800
G1 X59.478 Y31.905 Z0 F800
G1 X59.195 Y31.923 Z0 F800
G1 X58.123 Y31.982 Z0 F800
G1 X57.772 Y32.007 Z0 F800
G1 X57.465 Y32.037 Z0 F800
G1 X57.228 Y32.072 Z0 F800
G1 X54.423 Y32.079 Z0 F800
G1 X51.62 Y32.094 Z0 F800
G1 X51.545 Y29.909 Z0 F800
G1 X51.459 Y27.721 Z0 F800
G1 X51.432 Y26.629 Z0 F800
G1 X51.426 Y25.54 Z0 F800
G1 X51.45 Y24.455 Z0 F800
G1 X51.512 Y23.375 Z0 F800
G1 X51.525 Y23.19 Z0 F800
G1 X51.576 Y23.02 Z0 F800
G1 X51.658 Y22.868 Z0 F800
G1 X51.769 Y22.739 Z0 F800
G1 X51.904 Y22.636 Z0 F800
G1 X52.06 Y22.563 Z0 F800
G1 X52.232 Y22.524 Z0 F800
G1 X52.417 Z0 F800
G1 X54.532 Y22.36 Z0 F800
G1 X56.665 Y22.246 Z0 F800
G1 X58.801 Y22.182 Z0 F800
G1 X60.925 Y22.167 Z0 F800
G1 X61.165 Y22.171 Z0 F800
G1 X61.411 Y22.209 Z0 F800
G1 X61.65 Y22.282 Z0 F800
G1 X61.87 Y22.392 Z0 F800
G1 X62.057 Y22.538 Z0 F800
G1 X62.199 Y22.721 Z0 F800
G1 X62.283 Y22.943 Z0 F800
G1 X62.296 Y23.203 Z0 F800
G1 X62.292 Y24.796 Z0 F800
G1 X62.269 Y26.399 Z0 F800
G0 Z3.5 F500
G0 X54.679 Y35.712 Z3.5 
G1 Z0 F500
G1 X54.415 Z0 F800
G1 X54.347 Y35.705 Z0 F800
G1 X54.681 Z0 F800
G1 Y35.712 Z0 F800
G0 Z3.5 F500
G0 X54.702 Y36.353 Z3.5 
G1 Z0 F500
G1 X54.377 Z0 F800
G1 X54.09 Y36.322 Z0 F800
G1 X53.381 Y36.276 Z0 F800
G1 X52.687 Y36.242 Z0 F800
G1 X52.009 Y36.195 Z0 F800
G1 X51.824 Y36.173 Z0 F800
G1 X51.796 Y35.962 Z0 F800
G1 X51.727 Y35.702 Z0 F800
G1 X51.59 Y35.419 Z0 F800
G1 X51.345 Y35.152 Z0 F800
G1 X50.997 Y34.97 Z0 F800
G1 X50.674 Y34.923 Z0 F800
G1 X50.386 Y34.958 Z0 F800
G1 X50.123 Y35.058 Z0 F800
G1 X49.972 Y35.162 Z0 F800
G1 X49.958 Y34.73 Z0 F800
G1 X50.122 Y34.803 Z0 F800
G1 X50.442 Y34.881 Z0 F800
G1 X50.79 Y34.935 Z0 F800
G1 X51.176 Y34.976 Z0 F800
G1 X51.597 Y35.006 Z0 F800
G1 X52.043 Y35.03 Z0 F800
G1 X52.504 Y35.045 Z0 F800
G1 X53.414 Y35.063 Z0 F800
G1 X54.23 Z0 F800
G1 X55.107 Z0 F800
G1 X55.247 Y35.085 Z0 F800
G1 X55.283 Y35.104 Z0 F800
G1 X55.3 Y35.123 Z0 F800
G1 X55.327 Y35.179 Z0 F800
G1 X55.352 Y35.298 Z0 F800
G1 X55.357 Y35.473 Z0 F800
G1 X55.337 Y35.684 Z0 F800
G1 X55.29 Y35.92 Z0 F800
G1 X55.226 Y36.146 Z0 F800
G1 X55.146 Y36.367 Z0 F800
G1 X55.125 Y36.415 Z0 F800
G1 X54.928 Y36.371 Z0 F800
G1 X54.702 Y36.353 Z0 F800
G0 Z3.5 F500
G0 X52.072 Y41.173 Z3.5 
G1 Z0 F500
G1 X52.42 Y41.183 Z0 F800
G1 X52.731 Z0 F800
G1 X52.793 Y41.193 Z0 F800
G1 X52.831 Y41.952 Z0 F800
G1 X52.847 Y43.157 Z0 F800
G1 X52.826 Y44.363 Z0 F800
G1 X52.785 Y45.276 Z0 F800
G1 X52.715 Y45.279 Z0 F800
G1 X52.47 Z0 F800
G1 X52.092 Y45.25 Z0 F800
G1 X52.072 Y44.957 Z0 F800
G1 X52.075 Y44.36 Z0 F800
G1 Y43.714 Z0 F800
G1 X52.005 Y42.828 Z0 F800
G1 X51.706 Y42.551 Z0 F800
G1 X51.893 Y42.333 Z0 F800
G1 X52.017 Y42.026 Z0 F800
G1 X52.064 Y41.744 Z0 F800
G1 X52.068 Y41.343 Z0 F800
G1 X52.072 Y41.173 Z0 F800
G0 Z3.5 F500
G0 X49.254 Y25.456 Z3.5 
G1 Z0 F500
G1 X48.932 Y25.293 Z0 F800
G1 X48.633 Y25.245 Z0 F800
G1 X48.248 Y25.269 Z0 F800
G1 X47.956 Y25.306 Z0 F800
G1 X47.064 Y25.414 Z0 F800
G1 X46.154 Y25.541 Z0 F800
G1 X45.594 Y25.616 Z0 F800
G1 X45.768 Y25.376 Z0 F800
G1 X46.081 Y25.047 Z0 F800
G1 X46.431 Y24.766 Z0 F800
G1 X46.811 Y24.542 Z0 F800
G1 X47.214 Y24.381 Z0 F800
G1 X47.687 Y24.277 Z0 F800
G1 X48.818 Y24.044 Z0 F800
G1 X49.22 Y23.97 Z0 F800
G1 X49.254 Y25.456 Z0 F800
G0 Z3.5 F500
G0 X48.962 Y26.215 Z3.5 
G1 Z0 F500
G1 X48.922 Y26.063 Z0 F800
G1 X48.842 Y25.964 Z0 F800
G1 X48.732 Y25.909 Z0 F800
G1 X48.601 Y25.888 Z0 F800
G1 X48.309 Y25.906 Z0 F800
G1 X48.038 Y25.941 Z0 F800
G1 X47.146 Y26.048 Z0 F800
G1 X46.243 Y26.175 Z0 F800
G1 X45.352 Y26.293 Z0 F800
G1 X44.5 Y26.378 Z0 F800
G1 X44.697 Y25.876 Z0 F800
G1 X44.958 Y25.402 Z0 F800
G1 X45.276 Y24.965 Z0 F800
G1 X45.647 Y24.574 Z0 F800
G1 X46.065 Y24.238 Z0 F800
G1 X46.527 Y23.966 Z0 F800
G1 X47.026 Y23.767 Z0 F800
G1 X47.558 Y23.65 Z0 F800
G1 X48.698 Y23.416 Z0 F800
G1 X49.842 Y23.204 Z0 F800
G1 X49.968 Y28.625 Z0 F800
G1 X50.117 Y34.045 Z0 F800
G1 X50.176 Y34.126 Z0 F800
G1 X50.33 Y34.195 Z0 F800
G1 X50.566 Y34.253 Z0 F800
G1 X50.872 Y34.3 Z0 F800
G1 X51.233 Y34.338 Z0 F800
G1 X51.637 Y34.368 Z0 F800
G1 X52.071 Y34.39 Z0 F800
G1 X52.521 Y34.406 Z0 F800
G1 X53.421 Y34.422 Z0 F800
G1 X54.23 Y34.425 Z0 F800
G1 X55.161 Y34.42 Z0 F800
G1 X55.455 Y34.472 Z0 F800
G1 X55.677 Y34.588 Z0 F800
G1 X55.836 Y34.759 Z0 F800
G1 X55.938 Y34.974 Z0 F800
G1 X55.989 Y35.223 Z0 F800
G1 X55.998 Y35.494 Z0 F800
G1 X55.971 Y35.779 Z0 F800
G1 X55.914 Y36.066 Z0 F800
G1 X55.834 Y36.345 Z0 F800
G1 X55.74 Y36.606 Z0 F800
G1 X55.637 Y36.838 Z0 F800
G1 X55.532 Y37.031 Z0 F800
G1 X55.432 Y37.174 Z0 F800
G1 X55.345 Y37.257 Z0 F800
G1 X55.276 Y37.271 Z0 F800
G1 X55.234 Y37.202 Z0 F800
G1 X55.117 Y37.101 Z0 F800
G1 X54.981 Y37.039 Z0 F800
G1 X54.832 Y37.005 Z0 F800
G1 X54.674 Y36.992 Z0 F800
G1 X54.348 Z0 F800
G1 X54.039 Y36.96 Z0 F800
G1 X53.345 Y36.916 Z0 F800
G1 X52.644 Y36.88 Z0 F800
G1 X51.949 Y36.833 Z0 F800
G1 X51.273 Y36.753 Z0 F800
G1 X51.213 Y36.433 Z0 F800
G1 X51.167 Y36.087 Z0 F800
G1 X51.125 Y35.926 Z0 F800
G1 X51.055 Y35.783 Z0 F800
G1 X50.949 Y35.667 Z0 F800
G1 X50.797 Y35.588 Z0 F800
G1 X50.666 Y35.569 Z0 F800
G1 X50.54 Y35.584 Z0 F800
G1 X50.423 Y35.628 Z0 F800
G1 X50.322 Y35.699 Z0 F800
G1 X50.241 Y35.791 Z0 F800
G1 X50.187 Y35.901 Z0 F800
G1 X50.165 Y36.025 Z0 F800
G1 X50.18 Y36.16 Z0 F800
G1 X50.214 Y38.8 Z0 F800
G1 X50.29 Y41.438 Z0 F800
G1 X50.404 Y41.701 Z0 F800
G1 X50.58 Y41.945 Z0 F800
G1 X50.688 Y42.045 Z0 F800
G1 X50.809 Y42.125 Z0 F800
G1 X50.942 Y42.176 Z0 F800
G1 X51.084 Y42.195 Z0 F800
G1 X51.238 Y42.114 Z0 F800
G1 X51.338 Y41.997 Z0 F800
G1 X51.397 Y41.852 Z0 F800
G1 X51.424 Y41.688 Z0 F800
G1 X51.428 Y41.335 Z0 F800
G1 X51.436 Y41.011 Z0 F800
G1 X51.517 Y40.799 Z0 F800
G1 X51.671 Y40.628 Z0 F800
G1 X51.768 Y40.567 Z0 F800
G1 X51.873 Y40.529 Z0 F800
G1 X51.984 Y40.516 Z0 F800
G1 X52.099 Y40.533 Z0 F800
G1 X52.431 Y40.542 Z0 F800
G1 X52.775 Y40.545 Z0 F800
G1 X53.108 Y40.59 Z0 F800
G1 X53.411 Y40.727 Z0 F800
G1 X53.471 Y41.943 Z0 F800
G1 X53.487 Y43.159 Z0 F800
G1 X53.466 Y44.374 Z0 F800
G1 X53.412 Y45.585 Z0 F800
G1 X53.367 Y45.724 Z0 F800
G1 X53.281 Y45.819 Z0 F800
G1 X53.164 Y45.877 Z0 F800
G1 X53.025 Y45.908 Z0 F800
G1 X52.721 Y45.919 Z0 F800
G1 X52.449 Z0 F800
G1 X51.896 Y45.877 Z0 F800
G1 X51.759 Y45.847 Z0 F800
G1 X51.638 Y45.795 Z0 F800
G1 X51.541 Y45.713 Z0 F800
G1 X51.475 Y45.594 Z0 F800
G1 X51.432 Y44.978 Z0 F800
G1 X51.435 Y44.357 Z0 F800
G1 Y43.739 Z0 F800
G1 X51.387 Y43.128 Z0 F800
G1 X51.203 Y42.958 Z0 F800
G1 X50.973 Y42.817 Z0 F800
G1 X50.849 Y42.77 Z0 F800
G1 X50.721 Y42.746 Z0 F800
G1 X50.594 Y42.749 Z0 F800
G1 X50.471 Y42.783 Z0 F800
G1 X50.378 Y42.928 Z0 F800
G1 X50.328 Y43.086 Z0 F800
G1 X50.31 Y43.254 Z0 F800
G1 Y43.43 Z0 F800
G1 X50.344 Y43.79 Z0 F800
G1 Y44.138 Z0 F800
G1 X50.353 Y44.415 Z0 F800
G1 X50.36 Y44.688 Z0 F800
G1 X50.334 Y44.796 Z0 F800
G1 X50.273 Y44.869 Z0 F800
G1 X50.165 Y44.896 Z0 F800
G1 X49.998 Y44.865 Z0 F800
G1 X49.869 Y44.89 Z0 F800
G1 X49.78 Y44.874 Z0 F800
G1 X49.721 Y44.824 Z0 F800
G1 X49.688 Y44.749 Z0 F800
G1 X49.666 Y44.551 Z0 F800
G1 X49.479 Y39.813 Z0 F800
G1 X49.336 Y35.28 Z0 F800
G1 X49.18 Y30.746 Z0 F800
G1 X48.962 Y26.215 Z0 F800
G0 Z3.5 F500
G0 X38.148 Y23.949 Z3.5 
G1 Z0 F500
G1 X38.189 Y23.962 Z0 F800
G1 X38.23 Y23.987 Z0 F800
G1 X38.259 Y24.017 Z0 F800
G1 X38.269 Y24.034 Z0 F800
G1 X38.246 Y24.075 Z0 F800
G1 X38.199 Y24.123 Z0 F800
G1 X38.125 Y24.116 Z0 F800
G1 X38.051 Y24.119 Z0 F800
G1 X38.047 Y24.113 Z0 F800
G1 X38.028 Y24.056 Z0 F800
G1 Y23.99 Z0 F800
G1 X38.031 Y23.97 Z0 F800
G1 X38.116 Y23.948 Z0 F800
G1 X38.148 Z0 F800
G0 Z3.5 F500
G0 X38.918 Y24.014 Z3.5 
G1 Z0 F500
G1 X38.89 Y24.229 Z0 F800
G1 X38.765 Y24.46 Z0 F800
G1 X38.583 Y24.645 Z0 F800
G1 X38.476 Y24.71 Z0 F800
G1 X38.359 Y24.752 Z0 F800
G1 X38.235 Y24.77 Z0 F800
G1 X38.105 Y24.757 Z0 F800
G1 X37.962 Y24.762 Z0 F800
G1 X37.833 Y24.738 Z0 F800
G1 X37.72 Y24.687 Z0 F800
G1 X37.621 Y24.613 Z0 F800
G1 X37.472 Y24.414 Z0 F800
G1 X37.391 Y24.169 Z0 F800
G1 X37.383 Y23.912 Z0 F800
G1 X37.451 Y23.67 Z0 F800
G1 X37.516 Y23.566 Z0 F800
G1 X37.601 Y23.477 Z0 F800
G1 X37.708 Y23.407 Z0 F800
G1 X37.836 Y23.36 Z0 F800
G1 X38.046 Y23.305 Z0 F800
G1 X38.257 Y23.313 Z0 F800
G1 X38.457 Y23.375 Z0 F800
G1 X38.635 Y23.485 Z0 F800
G1 X38.778 Y23.633 Z0 F800
G1 X38.877 Y23.813 Z0 F800
G1 X38.918 Y24.014 Z0 F800
G0 Z3.5 F500
G0 X39.235 Y25.936 Z3.5 
G1 Z0 F500
G1 X39.447 Y25.771 Z0 F800
G1 X39.643 Y25.585 Z0 F800
G1 X39.819 Y25.381 Z0 F800
G1 X39.975 Y25.161 Z0 F800
G1 X40.108 Y24.928 Z0 F800
G1 X40.218 Y24.685 Z0 F800
G1 X40.303 Y24.434 Z0 F800
G1 X40.503 Y24.456 Z0 F800
G1 X40.701 Y24.436 Z0 F800
G1 X40.889 Y24.377 Z0 F800
G1 X41.056 Y24.282 Z0 F800
G1 X41.195 Y24.154 Z0 F800
G1 X41.296 Y23.996 Z0 F800
G1 X41.35 Y23.811 Z0 F800
G1 Y23.6 Z0 F800
G1 X41.305 Y23.306 Z0 F800
G1 X41.232 Y23.02 Z0 F800
G1 X41.132 Y22.744 Z0 F800
G1 X41.006 Y22.479 Z0 F800
G1 X40.855 Y22.227 Z0 F800
G1 X40.684 Y21.989 Z0 F800
G1 X40.491 Y21.767 Z0 F800
G1 X40.279 Y21.563 Z0 F800
G1 X40.05 Y21.378 Z0 F800
G1 X39.807 Y21.213 Z0 F800
G1 X39.549 Y21.072 Z0 F800
G1 X39.28 Y20.954 Z0 F800
G1 X39.001 Y20.861 Z0 F800
G1 X38.714 Y20.796 Z0 F800
G1 X38.421 Y20.759 Z0 F800
G1 X38.123 Y20.753 Z0 F800
G1 X37.792 Y20.766 Z0 F800
G1 X37.468 Y20.814 Z0 F800
G1 X37.152 Y20.898 Z0 F800
G1 X36.847 Y21.014 Z0 F800
G1 X36.555 Y21.16 Z0 F800
G1 X36.279 Y21.333 Z0 F800
G1 X36.021 Y21.533 Z0 F800
G1 X35.782 Y21.756 Z0 F800
G1 X35.565 Y22 Z0 F800
G1 X35.373 Y22.264 Z0 F800
G1 X35.208 Y22.544 Z0 F800
G1 X35.072 Y22.84 Z0 F800
G1 X34.967 Y23.148 Z0 F800
G1 X34.895 Y23.467 Z0 F800
G1 X34.859 Y23.793 Z0 F800
G1 X34.862 Y24.126 Z0 F800
G1 X34.914 Y24.523 Z0 F800
G1 X35.009 Y24.917 Z0 F800
G1 X35.145 Y25.302 Z0 F800
G1 X35.322 Y25.67 Z0 F800
G1 X35.538 Y26.015 Z0 F800
G1 X35.792 Y26.329 Z0 F800
G1 X36.083 Y26.606 Z0 F800
G1 X36.412 Y26.839 Z0 F800
G1 X36.817 Y27.014 Z0 F800
G1 X37.235 Y27.164 Z0 F800
G1 X37.664 Y27.273 Z0 F800
G1 X38.102 Y27.327 Z0 F800
G1 X38.314 Y27.281 Z0 F800
G1 X38.497 Y27.185 Z0 F800
G1 X38.652 Y27.048 Z0 F800
G1 X38.778 Y26.879 Z0 F800
G1 X38.877 Y26.688 Z0 F800
G1 X38.948 Y26.485 Z0 F800
G1 X38.991 Y26.278 Z0 F800
G1 X39.007 Y26.077 Z0 F800
G1 X39.235 Y25.936 Z0 F800
G0 Z3.5 F500
G0 X40.745 Y25.075 Z3.5 
G1 Z0 F500
G1 X40.83 Y25.066 Z0 F800
G1 X41.145 Y24.967 Z0 F800
G1 X41.435 Y24.803 Z0 F800
G1 X41.69 Y24.568 Z0 F800
G1 X41.885 Y24.263 Z0 F800
G1 X41.991 Y23.898 Z0 F800
G1 X41.987 Y23.55 Z0 F800
G1 X41.933 Y23.181 Z0 F800
G1 X41.844 Y22.832 Z0 F800
G1 X41.723 Y22.497 Z0 F800
G1 X41.571 Y22.176 Z0 F800
G1 X41.391 Y21.875 Z0 F800
G1 X41.186 Y21.59 Z0 F800
G1 X40.955 Y21.326 Z0 F800
G1 X40.703 Y21.083 Z0 F800
G1 X40.432 Y20.863 Z0 F800
G1 X40.141 Y20.667 Z0 F800
G1 X39.833 Y20.497 Z0 F800
G1 X39.51 Y20.355 Z0 F800
G1 X39.173 Y20.244 Z0 F800
G1 X38.825 Y20.165 Z0 F800
G1 X38.467 Y20.12 Z0 F800
G1 X38.118 Y20.113 Z0 F800
G1 X37.732 Y20.127 Z0 F800
G1 X37.338 Y20.187 Z0 F800
G1 X36.956 Y20.288 Z0 F800
G1 X36.59 Y20.427 Z0 F800
G1 X36.241 Y20.601 Z0 F800
G1 X35.912 Y20.808 Z0 F800
G1 X35.605 Y21.045 Z0 F800
G1 X35.323 Y21.309 Z0 F800
G1 X35.065 Y21.599 Z0 F800
G1 X34.837 Y21.913 Z0 F800
G1 X34.64 Y22.247 Z0 F800
G1 X34.477 Y22.602 Z0 F800
G1 X34.35 Y22.974 Z0 F800
G1 X34.263 Y23.361 Z0 F800
G1 X34.219 Y23.761 Z0 F800
G1 X34.223 Y24.171 Z0 F800
G1 X34.284 Y24.64 Z0 F800
G1 X34.395 Y25.099 Z0 F800
G1 X34.553 Y25.548 Z0 F800
G1 X34.76 Y25.979 Z0 F800
G1 X35.016 Y26.387 Z0 F800
G1 X35.321 Y26.764 Z0 F800
G1 X35.676 Y27.102 Z0 F800
G1 X36.097 Y27.4 Z0 F800
G1 X36.582 Y27.609 Z0 F800
G1 X37.048 Y27.776 Z0 F800
G1 X37.545 Y27.903 Z0 F800
G1 X38.132 Y27.976 Z0 F800
G1 X38.535 Y27.888 Z0 F800
G1 X38.863 Y27.715 Z0 F800
G1 X39.125 Y27.484 Z0 F800
G1 X39.322 Y27.221 Z0 F800
G1 X39.466 Y26.942 Z0 F800
G1 X39.566 Y26.656 Z0 F800
G1 X39.607 Y26.457 Z0 F800
G1 X39.865 Y26.257 Z0 F800
G1 X40.106 Y26.028 Z0 F800
G1 X40.323 Y25.776 Z0 F800
G1 X40.515 Y25.506 Z0 F800
G1 X40.679 Y25.22 Z0 F800
G1 X40.745 Y25.075 Z0 F800
G0 Z3.5 F500
G0 X42.333 Y24.751 Z3.5 
G1 Z0 F500
G1 X42.248 Y25.062 Z0 F800
G1 X41.98 Y25.809 Z0 F800
G1 X41.653 Y26.523 Z0 F800
G1 X41.262 Y27.195 Z0 F800
G1 X41.051 Y27.497 Z0 F800
G1 X40.829 Y27.779 Z0 F800
G1 X40.589 Y28.049 Z0 F800
G1 X40.335 Y28.297 Z0 F800
G1 X40.067 Y28.525 Z0 F800
G1 X39.787 Y28.729 Z0 F800
G1 X39.492 Y28.911 Z0 F800
G1 X39.225 Y29.047 Z0 F800
G1 X38.857 Y29.167 Z0 F800
G1 X38.451 Y29.256 Z0 F800
G1 X38.027 Y29.308 Z0 F800
G1 X37.816 Y29.313 Z0 F800
G1 X37.889 Y28.876 Z0 F800
G1 X37.799 Y28.58 Z0 F800
G1 X38.162 Y28.625 Z0 F800
G1 X38.756 Y28.494 Z0 F800
G1 X39.229 Y28.246 Z0 F800
G1 X39.597 Y27.921 Z0 F800
G1 X39.866 Y27.562 Z0 F800
G1 X40.056 Y27.195 Z0 F800
G1 X40.184 Y26.828 Z0 F800
G1 Y26.818 Z0 F800
G1 X40.283 Y26.743 Z0 F800
G1 X40.57 Y26.47 Z0 F800
G1 X40.828 Y26.171 Z0 F800
G1 X41.055 Y25.851 Z0 F800
G1 X41.184 Y25.626 Z0 F800
G1 X41.402 Y25.557 Z0 F800
G1 X41.814 Y25.324 Z0 F800
G1 X42.186 Y24.983 Z0 F800
G1 X42.333 Y24.751 Z0 F800
G0 Z3.5 F500
G0 X42.944 Y23.852 Z3.5 
G1 Z0 F500
G1 X43.209 Y23.922 Z0 F800
G1 X43.15 Y24.128 Z0 F800
G1 X43.082 Y24.434 Z0 F800
G1 X42.858 Y25.257 Z0 F800
G1 X42.573 Y26.052 Z0 F800
G1 X42.223 Y26.816 Z0 F800
G1 X41.801 Y27.542 Z0 F800
G1 X41.57 Y27.873 Z0 F800
G1 X41.319 Y28.191 Z0 F800
G1 X41.051 Y28.491 Z0 F800
G1 X40.766 Y28.771 Z0 F800
G1 X40.465 Y29.026 Z0 F800
G1 X40.142 Y29.262 Z0 F800
G1 X39.805 Y29.469 Z0 F800
G1 X39.468 Y29.641 Z0 F800
G1 X39.026 Y29.786 Z0 F800
G1 X38.559 Y29.888 Z0 F800
G1 X38.079 Y29.946 Z0 F800
G1 X37.586 Y29.96 Z0 F800
G1 X37.382 Y29.951 Z0 F800
G1 X37.181 Y29.917 Z0 F800
G1 X36.994 Y29.861 Z0 F800
G1 X36.812 Y29.781 Z0 F800
G1 X36.791 Y29.768 Z0 F800
G1 X36.931 Y29.666 Z0 F800
G1 X37.16 Y29.353 Z0 F800
G1 X37.233 Y28.918 Z0 F800
G1 X37.075 Y28.396 Z0 F800
G1 X36.355 Y27.878 Z0 F800
G1 X35.803 Y27.511 Z0 F800
G1 X35.556 Y27.335 Z0 F800
G1 X35.327 Y27.153 Z0 F800
G1 X35.131 Y26.97 Z0 F800
G1 X34.95 Y26.762 Z0 F800
G1 X34.608 Y26.301 Z0 F800
G1 X34.344 Y25.811 Z0 F800
G1 X34.146 Y25.29 Z0 F800
G1 X34.017 Y24.737 Z0 F800
G1 X33.958 Y24.178 Z0 F800
G1 X33.968 Y23.618 Z0 F800
G1 X34.051 Y23.058 Z0 F800
G1 X34.202 Y22.529 Z0 F800
G1 X34.32 Y22.262 Z0 F800
G1 X34.472 Y21.977 Z0 F800
G1 X34.635 Y21.719 Z0 F800
G1 X34.821 Y21.466 Z0 F800
G1 X35.032 Y21.217 Z0 F800
G1 X35.25 Y20.994 Z0 F800
G1 X35.483 Y20.786 Z0 F800
G1 X35.739 Y20.59 Z0 F800
G1 X35.994 Y20.422 Z0 F800
G1 X36.271 Y20.268 Z0 F800
G1 X36.549 Y20.139 Z0 F800
G1 X36.839 Y20.033 Z0 F800
G1 X37.135 Y19.95 Z0 F800
G1 X37.435 Y19.894 Z0 F800
G1 X37.736 Y19.863 Z0 F800
G1 X38.069 Y19.86 Z0 F800
G1 X38.431 Y19.863 Z0 F800
G1 X38.764 Y19.897 Z0 F800
G1 X39.101 Y19.961 Z0 F800
G1 X39.427 Y20.053 Z0 F800
G1 X39.746 Y20.172 Z0 F800
G1 X40.055 Y20.316 Z0 F800
G1 X40.362 Y20.491 Z0 F800
G1 X40.642 Y20.681 Z0 F800
G1 X40.916 Y20.899 Z0 F800
G1 X41.161 Y21.129 Z0 F800
G1 X41.396 Y21.388 Z0 F800
G1 X41.604 Y21.657 Z0 F800
G1 X41.787 Y21.939 Z0 F800
G1 X41.947 Y22.241 Z0 F800
G1 X42.077 Y22.551 Z0 F800
G1 X42.177 Y22.864 Z0 F800
G1 X42.228 Y23.126 Z0 F800
G1 X42.405 Y23.455 Z0 F800
G1 X42.657 Y23.695 Z0 F800
G1 X42.944 Y23.852 Z0 F800
G0 Z3.5 F500
G0 X43.771 Y24.285 Z3.5 
G1 Z0 F500
G1 X43.702 Y24.593 Z0 F800
G1 X43.469 Y25.449 Z0 F800
G1 X43.167 Y26.293 Z0 F800
G1 X42.791 Y27.112 Z0 F800
G1 X42.34 Y27.887 Z0 F800
G1 X42.085 Y28.253 Z0 F800
G1 X41.81 Y28.603 Z0 F800
G1 X41.514 Y28.934 Z0 F800
G1 X41.198 Y29.244 Z0 F800
G1 X40.86 Y29.531 Z0 F800
G1 X40.5 Y29.792 Z0 F800
G1 X40.12 Y30.027 Z0 F800
G1 X39.716 Y30.233 Z0 F800
G1 X39.195 Y30.404 Z0 F800
G1 X38.665 Y30.52 Z0 F800
G1 X38.126 Y30.585 Z0 F800
G1 X37.582 Y30.6 Z0 F800
G1 X37.312 Y30.588 Z0 F800
G1 X37.038 Y30.542 Z0 F800
G1 X36.769 Y30.462 Z0 F800
G1 X36.513 Y30.349 Z0 F800
G1 X36.278 Y30.203 Z0 F800
G1 X36.072 Y30.024 Z0 F800
G1 X35.904 Y29.813 Z0 F800
G1 X35.783 Y29.572 Z0 F800
G1 X36.05 Y29.437 Z0 F800
G1 X36.352 Y29.296 Z0 F800
G1 X36.474 Y29.207 Z0 F800
G1 X36.554 Y29.097 Z0 F800
G1 X36.577 Y28.96 Z0 F800
G1 X36.525 Y28.789 Z0 F800
G1 X35.991 Y28.404 Z0 F800
G1 X35.439 Y28.038 Z0 F800
G1 X35.17 Y27.846 Z0 F800
G1 X34.912 Y27.641 Z0 F800
G1 X34.67 Y27.415 Z0 F800
G1 X34.451 Y27.164 Z0 F800
G1 X34.066 Y26.645 Z0 F800
G1 X33.76 Y26.078 Z0 F800
G1 X33.533 Y25.475 Z0 F800
G1 X33.385 Y24.847 Z0 F800
G1 X33.317 Y24.206 Z0 F800
G1 X33.33 Y23.561 Z0 F800
G1 X33.424 Y22.925 Z0 F800
G1 X33.6 Y22.309 Z0 F800
G1 X33.745 Y21.98 Z0 F800
G1 X33.915 Y21.662 Z0 F800
G1 X34.107 Y21.356 Z0 F800
G1 X34.321 Y21.065 Z0 F800
G1 X34.555 Y20.79 Z0 F800
G1 X34.808 Y20.531 Z0 F800
G1 X35.078 Y20.291 Z0 F800
G1 X35.364 Y20.071 Z0 F800
G1 X35.665 Y19.873 Z0 F800
G1 X35.979 Y19.697 Z0 F800
G1 X36.306 Y19.547 Z0 F800
G1 X36.643 Y19.423 Z0 F800
G1 X36.988 Y19.327 Z0 F800
G1 X37.342 Y19.26 Z0 F800
G1 X37.703 Y19.224 Z0 F800
G1 X38.069 Y19.22 Z0 F800
G1 X38.465 Y19.224 Z0 F800
G1 X38.858 Y19.264 Z0 F800
G1 X39.245 Y19.337 Z0 F800
G1 X39.625 Y19.444 Z0 F800
G1 X39.995 Y19.582 Z0 F800
G1 X40.352 Y19.749 Z0 F800
G1 X40.696 Y19.944 Z0 F800
G1 X41.023 Y20.166 Z0 F800
G1 X41.332 Y20.413 Z0 F800
G1 X41.62 Y20.683 Z0 F800
G1 X41.886 Y20.974 Z0 F800
G1 X42.126 Y21.287 Z0 F800
G1 X42.34 Y21.617 Z0 F800
G1 X42.525 Y21.965 Z0 F800
G1 X42.678 Y22.33 Z0 F800
G1 X42.798 Y22.708 Z0 F800
G1 X42.837 Y22.909 Z0 F800
G1 X42.92 Y23.062 Z0 F800
G1 X43.038 Y23.174 Z0 F800
G1 X43.183 Y23.253 Z0 F800
G1 X43.525 Y23.344 Z0 F800
G1 X43.885 Y23.398 Z0 F800
G1 X43.917 Y23.521 Z0 F800
G1 Y23.659 Z0 F800
G1 X43.899 Y23.808 Z0 F800
G1 X43.862 Y23.964 Z0 F800
G1 X43.771 Y24.285 Z0 F800
G0 Z3.5 F500
G0 X39.821 Y32.465 Z3.5 
G1 Z0 F500
G1 X39.547 Y32.831 Z0 F800
G1 X39.417 Y32.777 Z0 F800
G1 X39.048 Y32.554 Z0 F800
G1 X39.56 Y32.425 Z0 F800
G1 X39.967 Y32.276 Z0 F800
G1 X39.821 Y32.465 Z0 F800
G0 Z3.5 F500
G0 X42.033 Y31.146 Z3.5 
G1 Z0 F500
G1 X42.431 Y30.837 Z0 F800
G1 X43.027 Y30.26 Z0 F800
G1 X43.54 Y29.641 Z0 F800
G1 X43.8 Y29.316 Z0 F800
G1 X44.057 Y28.969 Z0 F800
G1 X44.302 Y28.586 Z0 F800
G1 X44.338 Y28.515 Z0 F800
G1 X45.043 Y28.446 Z0 F800
G1 X44.892 Y28.616 Z0 F800
G1 X43.728 Y30.05 Z0 F800
G1 X43.17 Y30.798 Z0 F800
G1 X42.638 Y31.562 Z0 F800
G1 X42.506 Y31.765 Z0 F800
G1 X42.271 Y31.318 Z0 F800
G1 X42.033 Y31.146 Z0 F800
G0 Z3.5 F500
G0 X41.412 Y30.819 Z3.5 
G1 Z0 F500
G1 X42.01 Y30.353 Z0 F800
G1 X42.557 Y29.825 Z0 F800
G1 X43.043 Y29.237 Z0 F800
G1 X43.292 Y28.926 Z0 F800
G1 X43.53 Y28.605 Z0 F800
G1 X43.746 Y28.269 Z0 F800
G1 X43.925 Y27.913 Z0 F800
G1 X45.272 Y27.78 Z0 F800
G1 X46.589 Y27.673 Z0 F800
G1 X45.379 Y29.031 Z0 F800
G1 X44.233 Y30.443 Z0 F800
G1 X43.689 Y31.172 Z0 F800
G1 X43.169 Y31.918 Z0 F800
G1 X42.676 Y32.681 Z0 F800
G1 X42.21 Y33.463 Z0 F800
G1 X41.918 Y33.486 Z0 F800
G1 X41.569 Y33.557 Z0 F800
G1 X41.41 Y33.581 Z0 F800
G1 X41.281 Z0 F800
G1 X41.198 Y33.547 Z0 F800
G1 X41.174 Y33.465 Z0 F800
G1 X41.347 Y33.076 Z0 F800
G1 X41.55 Y32.698 Z0 F800
G1 X41.736 Y32.314 Z0 F800
G1 X41.86 Y31.911 Z0 F800
G1 X41.775 Y31.749 Z0 F800
G1 X41.661 Y31.667 Z0 F800
G1 X41.528 Y31.651 Z0 F800
G1 X41.386 Y31.689 Z0 F800
G1 X41.11 Y31.871 Z0 F800
G1 X40.908 Y32.105 Z0 F800
G1 X40.331 Y32.852 Z0 F800
G1 X39.765 Y33.608 Z0 F800
G1 X39.688 Y33.581 Z0 F800
G1 X39.128 Y33.351 Z0 F800
G1 X38.61 Y33.037 Z0 F800
G1 X38.381 Y32.844 Z0 F800
G1 X38.179 Y32.626 Z0 F800
G1 X38.01 Y32.38 Z0 F800
G1 X37.88 Y32.105 Z0 F800
G1 X38.634 Y31.998 Z0 F800
G1 X39.371 Y31.813 Z0 F800
G1 X40.084 Y31.552 Z0 F800
G1 X40.767 Y31.22 Z0 F800
G1 X41.412 Y30.819 Z0 F800
G0 Z3.5 F500
G0 X40.381 Y34.912 Z3.5 
G1 Z0 F500
G1 X40.348 Y35.042 Z0 F800
G1 Y35.182 Z0 F800
G1 X40.364 Y35.318 Z0 F800
G1 X40.471 Y36.021 Z0 F800
G1 X40.553 Y36.722 Z0 F800
G1 X40.607 Y37.862 Z0 F800
G1 X40.632 Y37.96 Z0 F800
G1 X40.682 Y38.048 Z0 F800
G1 X40.423 Y38.081 Z0 F800
G1 X40.16 Y38.107 Z0 F800
G1 X40.274 Y37.958 Z0 F800
G1 X40.358 Y37.79 Z0 F800
G1 X40.421 Y37.611 Z0 F800
G1 X40.469 Y37.429 Z0 F800
G1 X40.493 Y37.163 Z0 F800
G1 X40.48 Y36.896 Z0 F800
G1 X40.414 Y36.365 Z0 F800
G1 X40.377 Y36.109 Z0 F800
G1 X40.326 Y35.854 Z0 F800
G1 X40.247 Y35.609 Z0 F800
G1 X40.124 Y35.382 Z0 F800
G1 X40.031 Y35.247 Z0 F800
G1 X39.927 Y35.117 Z0 F800
G1 X39.805 Y35.008 Z0 F800
G1 X39.659 Y34.933 Z0 F800
G1 X40.061 Y34.863 Z0 F800
G1 X40.464 Y34.803 Z0 F800
G1 X40.381 Y34.912 Z0 F800
G0 Z3.5 F500
G0 X42.22 Y35.325 Z3.5 
G1 Z0 F500
G1 X42.348 Y35.347 Z0 F800
G1 X42.395 Y35.406 Z0 F800
G1 X42.491 Y35.583 Z0 F800
G1 X42.565 Y35.793 Z0 F800
G1 X42.614 Y36.027 Z0 F800
G1 X42.638 Y36.281 Z0 F800
G1 Y36.55 Z0 F800
G1 X42.618 Y36.805 Z0 F800
G1 X42.591 Y36.98 Z0 F800
G1 X42.559 Y37.038 Z0 F800
G1 X42.51 Y37.084 Z0 F800
G1 X42.416 Y37.131 Z0 F800
G1 X42.265 Y37.174 Z0 F800
G1 X42.04 Y37.201 Z0 F800
G1 X42.046 Y37.123 Z0 F800
G1 Y36.665 Z0 F800
G1 X42.004 Y36.209 Z0 F800
G1 X41.926 Y35.759 Z0 F800
G1 X41.813 Y35.327 Z0 F800
G1 X41.869 Y35.322 Z0 F800
G1 X42.058 Y35.316 Z0 F800
G1 X42.22 Y35.325 Z0 F800
G0 Z3.5 F500
G0 X43.079 Z3.5 
G1 Z0 F500
G1 X43.183 Y35.621 Z0 F800
G1 X43.248 Y35.932 Z0 F800
G1 X43.278 Y36.251 Z0 F800
G1 Y36.571 Z0 F800
G1 X43.253 Y36.886 Z0 F800
G1 X43.207 Y37.188 Z0 F800
G1 X43.07 Y37.438 Z0 F800
G1 X42.88 Y37.613 Z0 F800
G1 X42.65 Y37.73 Z0 F800
G1 X42.391 Y37.803 Z0 F800
G1 X41.833 Y37.871 Z0 F800
G1 X41.3 Y37.93 Z0 F800
G1 X41.373 Y37.501 Z0 F800
G1 X41.406 Y37.098 Z0 F800
G1 Y36.694 Z0 F800
G1 X41.369 Y36.292 Z0 F800
G1 X41.3 Y35.896 Z0 F800
G1 X41.198 Y35.505 Z0 F800
G1 X41.063 Y35.125 Z0 F800
G1 X40.895 Y34.755 Z0 F800
G1 X41.359 Y34.726 Z0 F800
G1 X41.832 Y34.683 Z0 F800
G1 X42.065 Y34.675 Z0 F800
G1 X42.294 Y34.688 Z0 F800
G1 X42.517 Y34.727 Z0 F800
G1 X42.731 Y34.802 Z0 F800
G1 X42.93 Y35.05 Z0 F800
G1 X43.079 Y35.325 Z0 F800
G0 Z3.5 F500
G0 X45.83 Y34.027 Z3.5 
G1 Z0 F500
G1 X45.818 Y34 Z0 F800
G1 X45.828 Y33.981 Z0 F800
G1 Y34.027 Z0 F800
G0 Z3.5 F500
G0 X45.64 Y35.596 Z3.5 
G1 Z0 F500
G1 X45.5 Y35.038 Z0 F800
G1 X45.32 Y34.455 Z0 F800
G1 X45.105 Y33.97 Z0 F800
G1 X45.109 Y33.962 Z0 F800
G1 X45.438 Y33.361 Z0 F800
G1 X45.808 Y32.761 Z0 F800
G1 X46.198 Y32.178 Z0 F800
G1 X46.396 Y31.907 Z0 F800
G1 X46.501 Y34.91 Z0 F800
G1 X46.67 Y40.02 Z0 F800
G1 X46.189 Z0 F800
G1 X46.147 Y39.54 Z0 F800
G1 X45.951 Y38.957 Z0 F800
G1 X45.634 Y38.475 Z0 F800
G1 X45.381 Y38.197 Z0 F800
G1 X45.39 Y38.178 Z0 F800
G1 X45.558 Y37.707 Z0 F800
G1 X45.679 Y37.202 Z0 F800
G1 X45.741 Y36.669 Z0 F800
G1 X45.729 Y36.112 Z0 F800
G1 X45.64 Y35.596 Z0 F800
G0 Z3.5 F500
G0 X44.886 Y33.039 Z3.5 
G1 Z0 F500
G1 X45.269 Y32.416 Z0 F800
G1 X45.673 Y31.812 Z0 F800
G1 X46.56 Y30.596 Z0 F800
G1 X46.971 Y30.058 Z0 F800
G1 X47.141 Y34.889 Z0 F800
G1 X47.332 Y40.676 Z0 F800
G1 X47.089 Y40.658 Z0 F800
G1 X46.116 Y40.661 Z0 F800
G1 X45.455 Y40.692 Z0 F800
G1 X45.505 Y40.525 Z0 F800
G1 X45.554 Y40.107 Z0 F800
G1 X45.516 Y39.671 Z0 F800
G1 X45.371 Y39.239 Z0 F800
G1 X45.127 Y38.869 Z0 F800
G1 X44.858 Y38.573 Z0 F800
G1 X44.591 Y38.372 Z0 F800
G1 X44.616 Y38.328 Z0 F800
G1 X44.796 Y37.937 Z0 F800
G1 X44.943 Y37.524 Z0 F800
G1 X45.048 Y37.09 Z0 F800
G1 X45.1 Y36.639 Z0 F800
G1 X45.09 Y36.174 Z0 F800
G1 X45.013 Y35.728 Z0 F800
G1 X44.884 Y35.21 Z0 F800
G1 X44.719 Y34.68 Z0 F800
G1 X44.48 Y34.141 Z0 F800
G1 X44.382 Y34 Z0 F800
G1 X44.54 Y33.669 Z0 F800
G1 X44.886 Y33.039 Z0 F800
G0 Z3.5 F500
G0 X46.042 Y30.219 Z3.5 
G1 Z0 F500
G1 X46.96 Y29.018 Z0 F800
G1 X47.239 Y28.677 Z0 F800
G1 X47.388 Y28.514 Z0 F800
G1 X47.552 Y28.369 Z0 F800
G1 X47.781 Y34.868 Z0 F800
G1 X47.995 Y41.366 Z0 F800
G1 X47.066 Y41.298 Z0 F800
G1 X46.132 Y41.301 Z0 F800
G1 X45.2 Y41.346 Z0 F800
G1 X44.279 Y41.406 Z0 F800
G1 X44.482 Y41.2 Z0 F800
G1 X44.654 Y40.956 Z0 F800
G1 X44.789 Y40.684 Z0 F800
G1 X44.876 Y40.395 Z0 F800
G1 X44.911 Y40.098 Z0 F800
G1 X44.885 Y39.803 Z0 F800
G1 X44.791 Y39.521 Z0 F800
G1 X44.62 Y39.262 Z0 F800
G1 X44.425 Y39.048 Z0 F800
G1 X44.193 Y38.874 Z0 F800
G1 X43.934 Y38.747 Z0 F800
G1 X43.657 Y38.677 Z0 F800
G1 X43.861 Y38.365 Z0 F800
G1 X44.045 Y38.037 Z0 F800
G1 X44.203 Y37.695 Z0 F800
G1 X44.329 Y37.341 Z0 F800
G1 X44.417 Y36.979 Z0 F800
G1 X44.459 Y36.609 Z0 F800
G1 X44.451 Y36.235 Z0 F800
G1 X44.386 Y35.86 Z0 F800
G1 X44.267 Y35.382 Z0 F800
G1 X44.119 Y34.905 Z0 F800
G1 X43.92 Y34.456 Z0 F800
G1 X43.645 Y34.06 Z0 F800
G1 X43.969 Y33.378 Z0 F800
G1 X44.332 Y32.717 Z0 F800
G1 X44.728 Y32.074 Z0 F800
G1 X45.149 Y31.444 Z0 F800
G1 X46.042 Y30.219 Z0 F800
G0 Z3.5 F500
G0 X59.488 Y51.662 Z3.5 
G1 Z0 F500
G1 X60.688 Y51.583 Z0 F800
G1 X60.805 Y51.726 Z0 F800
G1 X61.211 Y51.839 Z0 F800
G1 X61.51 Y51.813 Z0 F800
G1 X61.701 Y51.76 Z0 F800
G1 X61.761 Y51.944 Z0 F800
G1 X61.875 Y52.443 Z0 F800
G1 X61.562 Y52.447 Z0 F800
G1 X60.526 Y52.444 Z0 F800
G1 X57.132 Y52.43 Z0 F800
G1 X57.043 Y51.916 Z0 F800
G1 X56.986 Y51.675 Z0 F800
G1 X57.231 Y51.67 Z0 F800
G1 X58.351 Y51.675 Z0 F800
G1 X59.488 Y51.662 Z0 F800
G0 Z3.5 F500
G0 X62.311 Y51.564 Z3.5 
G1 Z0 F500
G1 X62.378 Y51.773 Z0 F800
G1 X62.525 Y52.413 Z0 F800
G1 X62.616 Y53.072 Z0 F800
G1 X61.569 Y53.087 Z0 F800
G1 X60.523 Y53.084 Z0 F800
G1 X56.578 Y53.068 Z0 F800
G1 X56.504 Y52.556 Z0 F800
G1 X56.416 Y52.044 Z0 F800
G1 X56.297 Y51.541 Z0 F800
G1 X56.129 Y51.051 Z0 F800
G1 X57.234 Y51.03 Z0 F800
G1 X58.348 Y51.035 Z0 F800
G1 X59.464 Y51.022 Z0 F800
G1 X60.574 Y50.95 Z0 F800
G1 X60.806 Y50.804 Z0 F800
G1 X60.968 Y50.706 Z0 F800
G1 X61.022 Y50.697 Z0 F800
G1 X61.06 Y50.727 Z0 F800
G1 X61.079 Y50.803 Z0 F800
G1 Y50.935 Z0 F800
G1 X61.104 Y51.083 Z0 F800
G1 X61.17 Y51.164 Z0 F800
G1 X61.271 Y51.191 Z0 F800
G1 X61.396 Y51.18 Z0 F800
G1 X61.69 Y51.099 Z0 F800
G1 X61.991 Y51.035 Z0 F800
G1 X62.08 Y51.073 Z0 F800
G1 X62.149 Y51.14 Z0 F800
G1 X62.203 Y51.23 Z0 F800
G1 X62.245 Y51.335 Z0 F800
G1 X62.311 Y51.564 Z0 F800
G0 Z3.5 F500
G0 X65.109 Y51.705 Z3.5 
G1 Z0 F500
G1 X67.527 Y51.745 Z0 F800
G1 X69.315 Y51.778 Z0 F800
G1 X69.472 Y52.302 Z0 F800
G1 X69.521 Y52.491 Z0 F800
G1 X65.243 Z0 F800
G1 X65.205 Y52.307 Z0 F800
G1 X65.045 Y51.749 Z0 F800
G1 X65.009 Y51.649 Z0 F800
G1 X65.109 Y51.705 Z0 F800
G0 Z3.5 F500
G0 X70.346 Y53.131 Z3.5 
G1 Z0 F500
G1 X64.716 Z0 F800
G1 X64.69 Y52.98 Z0 F800
G1 X64.583 Y52.459 Z0 F800
G1 X64.437 Y51.947 Z0 F800
G1 X64.254 Y51.447 Z0 F800
G1 X64.039 Y50.965 Z0 F800
G1 X64.141 Y50.875 Z0 F800
G1 X64.2 Y50.768 Z0 F800
G1 X64.221 Y50.651 Z0 F800
G1 X64.21 Y50.528 Z0 F800
G1 X64.122 Y50.283 Z0 F800
G1 X63.983 Y50.072 Z0 F800
G1 X64.297 Y50.337 Z0 F800
G1 X64.605 Y50.615 Z0 F800
G1 X64.926 Y50.871 Z0 F800
G1 X65.28 Y51.068 Z0 F800
G1 X67.538 Y51.104 Z0 F800
G1 X69.795 Y51.147 Z0 F800
G1 X70.092 Y52.143 Z0 F800
G1 X70.346 Y53.131 Z0 F800
M9
M5
G1 Z10 F500
G90
G1 Z10 F800
