G90
G21
; === MULTI-COLOR PAINTER GCODE ===
; Generated layers: 1
; Backlash compensation: OFF
; Working area clamping: ON  X[0–150] Y[0–150]
; Tutti Frutti mode: OFF


; ═══════════════════════════════
; LAYER 2: Color 2 — Teal
; Infill: lines
; ═══════════════════════════════


; --- CIKEL NAMAKANJA ---
G0 Z2.000 F3000
M400
M204 P600 T600
G1 F1300
G0 X61.520 Y4.471 Z8.000
G1 Z1.000 F3000
G1 X61.520 Y4.471 F2500
G1 X61.520 Y6.221 F2500
G1 X58.020 Y4.471 F2500
G1 X61.520 Y0.000 F2500
G0 Z3.000 F3000
G0 X41.142 Y9.005
G0 Z8.000 F3000
G0 X0.000 Y29.750 Z2.000
M400
M204 P600 T600
G1 F1300
G0 X0.000 Y29.750 Z2.000
M400
M204 P200 T200
G1 F600
G1 Z0.000 F2500
G1 X0.000 Y29.750
G1 X0.000 Y29.500
G1 X0.250 Y29.250
G1 X0.500 Y29.000
G1 X0.750 Y29.000
G0 Z2.000 F3000
M400
M204 P600 T600
G1 F1300
G0 X1.750 Y29.000 Z2.000
M400
M204 P200 T200
G1 F600
G1 Z0.000 F2500
G1 X1.500 Y29.000
G1 X1.250 Y29.250
G1 X1.250 Y29.500
G1 X1.000 Y29.750
G1 X0.750 Y29.750
G1 X0.750 Y30.000
G1 X0.500 Y30.250
G1 X0.250 Y30.250
G1 X0.000 Y30.500
G1 X0.000 Y30.750
G1 X0.000 Y31.000
G0 Z2.000 F3000
M400
M204 P600 T600
G1 F1300
G0 X0.000 Y32.000 Z2.000
M400
M204 P200 T200
G1 F600
G1 Z0.000 F2500
G1 X0.000 Y31.750
G1 X0.000 Y31.500
G1 X0.250 Y31.500
G1 X0.500 Y31.250
G1 X0.750 Y31.000
G1 X0.750 Y31.000
G1 X1.000 Y30.750
G1 X1.250 Y30.500
G1 X1.250 Y30.250
G1 X1.500 Y30.250
G1 X1.750 Y30.000
G1 X1.750 Y29.750
G1 X2.000 Y29.750
G1 X2.250 Y29.500
G1 X2.500 Y29.250
G1 X2.500 Y29.000
G1 X2.750 Y29.000
G0 Z2.000 F3000
M400
M204 P600 T600
G1 F1300
G0 X3.750 Y29.000 Z2.000
M400
M204 P200 T200
G1 F600
G1 Z0.000 F2500
G1 X3.750 Y29.000
G1 X3.500 Y29.250
G1 X3.250 Y29.500
G1 X3.000 Y29.750
G1 X3.000 Y29.750
G1 X2.750 Y30.000
G1 X2.500 Y30.250
G1 X2.500 Y30.250
G1 X2.250 Y30.500
G1 X2.000 Y30.750
G1 X1.750 Y31.000
G1 X1.750 Y31.000
G1 X1.500 Y31.250
G1 X1.250 Y31.500
G1 X1.250 Y31.500
G1 X1.000 Y31.750
G1 X0.750 Y32.000
G1 X0.750 Y32.000
G1 X0.500 Y32.250
G1 X0.250 Y32.500
G1 X0.000 Y32.750
G1 X0.000 Y32.750
G1 X0.000 Y33.000
G0 Z2.000 F3000
M400
M204 P600 T600
G1 F1300
G0 X0.000 Y34.000 Z2.000
M400
M204 P200 T200
G1 F600
G1 Z0.000 F2500
G1 X0.000 Y34.000
G1 X0.000 Y33.750
G1 X0.250 Y33.500
G1 X0.500 Y33.250
G1 X0.750 Y33.250
G1 X0.750 Y33.000
G1 X1.000 Y32.750
G1 X1.250 Y32.750
G1 X1.250 Y32.500
G1 X1.500 Y32.250
G1 X1.750 Y32.000
G1 X1.750 Y32.000
G1 X2.000 Y31.750
G1 X2.250 Y31.500
G1 X2.500 Y31.500
G1 X2.500 Y31.250
G1 X2.750 Y31.000
G1 X3.000 Y31.000
G1 X3.000 Y30.750
G1 X3.250 Y30.500
G1 X3.500 Y30.250
G1 X3.750 Y30.250
G1 X3.750 Y30.000
G1 X4.000 Y29.750
G1 X4.250 Y29.750
G1 X4.250 Y29.500
G1 X4.500 Y29.250
G1 X4.750 Y29.000
G1 X4.750 Y29.000
G0 Z2.000 F3000
M400
M204 P600 T600
G1 F1300
G0 X6.000 Y29.000 Z2.000
M400
M204 P200 T200
G1 F600
G1 Z0.000 F2500
G1 X5.750 Y29.000
G1 X5.500 Y29.250
G1 X5.500 Y29.500
G1 X5.250 Y29.750
G1 X5.000 Y29.750
G1 X4.750 Y30.000
G1 X4.750 Y30.250
G1 X4.500 Y30.250
G1 X4.250 Y30.500
G1 X4.250 Y30.750
G1 X4.000 Y31.000
G1 X3.750 Y31.000
G1 X3.750 Y31.250
G1 X3.500 Y31.500
G1 X3.250 Y31.500
G1 X3.000 Y31.750
G1 X3.000 Y32.000
G1 X2.750 Y32.000
G1 X2.500 Y32.250
G1 X2.500 Y32.500
G1 X2.250 Y32.750
G1 X2.000 Y32.750
G1 X1.750 Y33.000
G1 X1.750 Y33.250
G1 X1.500 Y33.250
G1 X1.250 Y33.500
G1 X1.250 Y33.750
G1 X1.000 Y34.000
G1 X0.750 Y34.000
G1 X0.750 Y34.250
G1 X0.500 Y34.500
G1 X0.250 Y34.500
G1 X0.000 Y34.750
G1 X0.000 Y35.000
G1 X0.000 Y35.000
G0 Z2.000 F3000
M400
M204 P600 T600
G1 F1300
G0 X0.000 Y36.250 Z2.000
M400
M204 P200 T200
G1 F600
G1 Z0.000 F2500
G1 X0.000 Y36.000
G1 X0.000 Y35.750
G1 X0.250 Y35.750
G1 X0.500 Y35.500
G1 X0.750 Y35.250
G1 X0.750 Y35.000
G1 X1.000 Y35.000
G1 X1.250 Y34.750
G1 X1.250 Y34.500
G1 X1.500 Y34.500
G1 X1.750 Y34.250
G1 X1.750 Y34.000
G1 X2.000 Y34.000
G1 X2.250 Y33.750
G1 X2.500 Y33.500
G1 X2.500 Y33.250
G1 X2.750 Y33.250
G1 X3.000 Y33.000
G1 X3.000 Y32.750
G1 X3.250 Y32.750
G1 X3.500 Y32.500
G1 X3.750 Y32.250
G1 X3.750 Y32.000
G1 X4.000 Y32.000
G1 X4.250 Y31.750
G1 X4.250 Y31.500
G1 X4.500 Y31.500
G1 X4.750 Y31.250
G1 X4.750 Y31.000
G1 X5.000 Y31.000
G1 X5.250 Y30.750
G1 X5.500 Y30.500
G1 X5.500 Y30.250
G1 X5.750 Y30.250
G1 X6.000 Y30.000
G1 X6.000 Y29.750
G1 X6.250 Y29.750
G1 X6.500 Y29.500
G1 X6.750 Y29.250
G1 X6.750 Y29.000
G1 X7.000 Y29.000
G0 Z2.000 F3000
M400
M204 P600 T600
G1 F1300
G0 X8.000 Y29.000 Z2.000
M400
M204 P200 T200
G1 F600
G1 Z0.000 F2500
G1 X8.000 Y29.000
G1 X7.750 Y29.250
G1 X7.500 Y29.500
G1 X7.250 Y29.750
G1 X7.250 Y29.750
G1 X7.000 Y30.000
G1 X6.750 Y30.250
G1 X6.750 Y30.250
G1 X6.500 Y30.500
G1 X6.250 Y30.750
G1 X6.000 Y31.000
G1 X6.000 Y31.000
G1 X5.750 Y31.250
G1 X5.500 Y31.500
G1 X5.500 Y31.500
G1 X5.250 Y31.750
G1 X5.000 Y32.000
G1 X4.750 Y32.000
G1 X4.750 Y32.250
G1 X4.500 Y32.500
G1 X4.250 Y32.750
G1 X4.250 Y32.750
G1 X4.000 Y33.000
G1 X3.750 Y33.250
G1 X3.750 Y33.250
G1 X3.500 Y33.500
G1 X3.250 Y33.750
G1 X3.000 Y34.000
G1 X3.000 Y34.000
G1 X2.750 Y34.250
G1 X2.500 Y34.500
G1 X2.500 Y34.500
G1 X2.250 Y34.750
G1 X2.000 Y35.000
G1 X1.750 Y35.000
G1 X1.750 Y35.250
G1 X1.500 Y35.500
G1 X1.250 Y35.750
G1 X1.250 Y35.750
G1 X1.000 Y36.000
G1 X0.750 Y36.250
G1 X0.750 Y36.250
G1 X0.500 Y36.500
G1 X0.250 Y36.750
G1 X0.000 Y37.000
G1 X0.000 Y37.000
G1 X0.000 Y37.250
G0 Z2.000 F3000
M400
M204 P600 T600
G1 F1300
G0 X0.000 Y38.250 Z2.000
M400
M204 P200 T200
G1 F600
G1 Z0.000 F2500
G1 X0.000 Y38.250
G1 X0.000 Y38.000
G1 X0.250 Y37.750
G1 X0.500 Y37.500
G1 X0.750 Y37.500
G1 X0.750 Y37.250
G1 X1.000 Y37.000
G1 X1.250 Y37.000
G1 X1.250 Y36.750
G1 X1.500 Y36.500
G1 X1.750 Y36.250
G1 X1.750 Y36.250
G1 X2.000 Y36.000
G1 X2.250 Y35.750
G1 X2.500 Y35.750
G1 X2.500 Y35.500
G1 X2.750 Y35.250
G1 X3.000 Y35.000
G1 X3.000 Y35.000
G1 X3.250 Y34.750
G1 X3.500 Y34.500
G1 X3.750 Y34.500
G1 X3.750 Y34.250
G1 X4.000 Y34.000
G1 X4.250 Y34.000
G1 X4.250 Y33.750
G1 X4.500 Y33.500
G1 X4.750 Y33.250
G1 X4.750 Y33.250
G1 X5.000 Y33.000
G1 X5.250 Y32.750
G1 X5.500 Y32.750
G1 X5.500 Y32.500
G1 X5.750 Y32.250
G1 X6.000 Y32.000
G1 X6.000 Y32.000
G1 X6.250 Y31.750
G1 X6.500 Y31.500
G1 X6.750 Y31.500
G1 X6.750 Y31.250
G1 X7.000 Y31.000
G1 X7.250 Y31.000
G1 X7.250 Y30.750
G1 X7.500 Y30.500
G1 X7.750 Y30.250
G1 X8.000 Y30.250
G1 X8.000 Y30.000
G1 X8.250 Y29.750
G1 X8.500 Y29.750
G1 X8.500 Y29.500
G1 X8.750 Y29.250
G1 X9.000 Y29.000
G1 X9.000 Y29.000
G0 Z2.000 F3000
M400
M204 P600 T600
G1 F1300
G0 X10.250 Y29.000 Z2.000
M400
M204 P200 T200
G1 F600
G1 Z0.000 F2500
G1 X10.000 Y29.000
G1 X9.750 Y29.250
G1 X9.750 Y29.500
G1 X9.500 Y29.750
G1 X9.250 Y29.750
G1 X9.000 Y30.000
G1 X9.000 Y30.250
G1 X8.750 Y30.250
G1 X8.500 Y30.500
G1 X8.500 Y30.750
G1 X8.250 Y31.000
G1 X8.000 Y31.000
G1 X8.000 Y31.250
G1 X7.750 Y31.500
G1 X7.500 Y31.500
G1 X7.250 Y31.750
G1 X7.250 Y32.000
G1 X7.000 Y32.000
G1 X6.750 Y32.250
G1 X6.750 Y32.500
G1 X6.500 Y32.750
G1 X6.250 Y32.750
G1 X6.000 Y33.000
G1 X6.000 Y33.250
G1 X5.750 Y33.250
G1 X5.500 Y33.500
G1 X5.500 Y33.750
G1 X5.250 Y34.000
G1 X5.000 Y34.000
G1 X4.750 Y34.250
G1 X4.750 Y34.500
G1 X4.500 Y34.500
G1 X4.250 Y34.750
G1 X4.250 Y35.000
G1 X4.000 Y35.000
G1 X3.750 Y35.250
G1 X3.750 Y35.500
G1 X3.500 Y35.750
G1 X3.250 Y35.750
G1 X3.000 Y36.000
G1 X3.000 Y36.250
G1 X2.750 Y36.250
G1 X2.500 Y36.500
G1 X2.500 Y36.750
G1 X2.250 Y37.000
G1 X2.000 Y37.000
G1 X1.750 Y37.250
G1 X1.750 Y37.500
G1 X1.500 Y37.500
G1 X1.250 Y37.750
G1 X1.250 Y38.000
G1 X1.000 Y38.250
G1 X0.750 Y38.250
G0 Z2.000 F3000

; --- CIKEL NAMAKANJA ---
G0 Z2.000 F3000
M400
M204 P600 T600
G1 F1300
G0 X61.199 Y0.000 Z8.000
G1 Z1.000 F3000
G1 X61.199 Y0.000 F2500
G1 X61.199 Y1.750 F2500
G1 X57.699 Y0.000 F2500
G1 X61.199 Y0.000 F2500
G0 Z3.000 F3000
G0 X42.315 Y11.028
G0 Z8.000 F3000
G0 X0.750 Y38.500 Z2.000
M400
M204 P200 T200
G1 F600
G1 Z0.000 F2500
G1 X0.750 Y38.500
G1 X0.500 Y38.750
G1 X0.250 Y38.750
G1 X0.000 Y39.000
G1 X0.000 Y39.250
G1 X0.000 Y39.250
G0 Z2.000 F3000
M400
M204 P600 T600
G1 F1300
G0 X0.000 Y40.500 Z2.000
M400
M204 P200 T200
G1 F600
G1 Z0.000 F2500
G1 X0.000 Y40.250
G1 X0.000 Y40.000
G1 X0.250 Y40.000
G1 X0.500 Y39.750
G1 X0.750 Y39.500
G1 X0.750 Y39.250
G1 X1.000 Y39.250
G1 X1.250 Y39.000
G1 X1.250 Y38.750
G1 X1.500 Y38.750
G1 X1.750 Y38.500
G1 X1.750 Y38.250
G1 X2.000 Y38.250
G1 X2.250 Y38.000
G1 X2.500 Y37.750
G1 X2.500 Y37.500
G1 X2.750 Y37.500
G1 X3.000 Y37.250
G1 X3.000 Y37.000
G1 X3.250 Y37.000
G1 X3.500 Y36.750
G1 X3.750 Y36.500
G1 X3.750 Y36.250
G1 X4.000 Y36.250
G1 X4.250 Y36.000
G1 X4.250 Y35.750
G1 X4.500 Y35.750
G1 X4.750 Y35.500
G1 X4.750 Y35.250
G1 X5.000 Y35.000
G1 X5.250 Y35.000
G1 X5.500 Y34.750
G1 X5.500 Y34.500
G1 X5.750 Y34.500
G1 X6.000 Y34.250
G1 X6.000 Y34.000
G1 X6.250 Y34.000
G1 X6.500 Y33.750
G1 X6.750 Y33.500
G1 X6.750 Y33.250
G1 X7.000 Y33.250
G1 X7.250 Y33.000
G1 X7.250 Y32.750
G1 X7.500 Y32.750
G1 X7.750 Y32.500
G1 X8.000 Y32.250
G1 X8.000 Y32.000
G1 X8.250 Y32.000
G1 X8.500 Y31.750
G1 X8.500 Y31.500
G1 X8.750 Y31.500
G1 X9.000 Y31.250
G1 X9.000 Y31.000
G1 X9.250 Y31.000
G1 X9.500 Y30.750
G1 X9.750 Y30.500
G1 X9.750 Y30.250
G1 X10.000 Y30.250
G1 X10.250 Y30.000
G1 X10.250 Y29.750
G1 X10.500 Y29.750
G1 X10.750 Y29.500
G1 X11.000 Y29.250
G1 X11.000 Y29.000
G1 X11.250 Y29.000
G0 Z2.000 F3000
M400
M204 P600 T600
G1 F1300
G0 X12.250 Y29.000 Z2.000
M400
M204 P200 T200
G1 F600
G1 Z0.000 F2500
G1 X12.000 Y29.000
G1 X12.000 Y29.250
G1 X11.750 Y29.500
G1 X11.500 Y29.750
G1 X11.500 Y29.750
G1 X11.250 Y30.000
G1 X11.000 Y30.250
G1 X11.000 Y30.250
G1 X10.750 Y30.500
G1 X10.500 Y30.750
G1 X10.250 Y31.000
G1 X10.250 Y31.000
G1 X10.000 Y31.250
G1 X9.750 Y31.500
G1 X9.750 Y31.500
G1 X9.500 Y31.750
G1 X9.250 Y32.000
G1 X9.000 Y32.000
G1 X9.000 Y32.250
G1 X8.750 Y32.500
G1 X8.500 Y32.750
G1 X8.500 Y32.750
G1 X8.250 Y33.000
G1 X8.000 Y33.250
G1 X8.000 Y33.250
G1 X7.750 Y33.500
G1 X7.500 Y33.750
G1 X7.250 Y34.000
G1 X7.250 Y34.000
G1 X7.000 Y34.250
G1 X6.750 Y34.500
G1 X6.750 Y34.500
G1 X6.500 Y34.750
G1 X6.250 Y35.000
G1 X6.000 Y35.000
G1 X6.000 Y35.250
G1 X5.750 Y35.500
G1 X5.500 Y35.750
G1 X5.500 Y35.750
G1 X5.250 Y36.000
G1 X5.000 Y36.250
G1 X4.750 Y36.250
G1 X4.750 Y36.500
G1 X4.500 Y36.750
G1 X4.250 Y37.000
G1 X4.250 Y37.000
G1 X4.000 Y37.250
G1 X3.750 Y37.500
G1 X3.750 Y37.500
G1 X3.500 Y37.750
G1 X3.250 Y38.000
G1 X3.000 Y38.250
G1 X3.000 Y38.250
G1 X2.750 Y38.500
G1 X2.500 Y38.750
G1 X2.500 Y38.750
G1 X2.250 Y39.000
G1 X2.000 Y39.250
G1 X1.750 Y39.250
G1 X1.750 Y39.500
G1 X1.500 Y39.750
G1 X1.250 Y40.000
G1 X1.250 Y40.000
G1 X1.000 Y40.250
G1 X0.750 Y40.500
G1 X0.750 Y40.500
G1 X0.500 Y40.750
G1 X0.250 Y41.000
G1 X0.000 Y41.250
G1 X0.000 Y41.250
G1 X0.000 Y41.500
G0 Z2.000 F3000
M400
M204 P600 T600
G1 F1300
G0 X0.000 Y42.500 Z2.000
M400
M204 P200 T200
G1 F600
G1 Z0.000 F2500
G1 X0.000 Y42.250
G1 X0.000 Y42.250
G1 X0.250 Y42.000
G1 X0.500 Y41.750
G1 X0.750 Y41.750
G1 X0.750 Y41.500
G1 X1.000 Y41.250
G1 X1.250 Y41.250
G1 X1.250 Y41.000
G1 X1.500 Y40.750
G1 X1.750 Y40.500
G1 X1.750 Y40.500
G1 X2.000 Y40.250
G1 X2.250 Y40.000
G1 X2.500 Y40.000
G1 X2.500 Y39.750
G1 X2.750 Y39.500
G1 X3.000 Y39.250
G1 X3.000 Y39.250
G1 X3.250 Y39.000
G1 X3.500 Y38.750
G1 X3.750 Y38.750
G1 X3.750 Y38.500
G1 X4.000 Y38.250
G1 X4.250 Y38.250
G1 X4.250 Y38.000
G1 X4.500 Y37.750
G1 X4.750 Y37.500
G1 X4.750 Y37.500
G1 X5.000 Y37.250
G1 X5.250 Y37.000
G1 X5.500 Y37.000
G1 X5.500 Y36.750
G1 X5.750 Y36.500
G1 X6.000 Y36.250
G1 X6.000 Y36.250
G1 X6.250 Y36.000
G1 X6.500 Y35.750
G1 X6.750 Y35.750
G1 X6.750 Y35.500
G1 X7.000 Y35.250
G1 X7.250 Y35.000
G1 X7.250 Y35.000
G1 X7.500 Y34.750
G1 X7.750 Y34.500
G1 X8.000 Y34.500
G1 X8.000 Y34.250
G1 X8.250 Y34.000
G1 X8.500 Y34.000
G1 X8.500 Y33.750
G1 X8.750 Y33.500
G1 X9.000 Y33.250
G1 X9.000 Y33.250
G1 X9.250 Y33.000
G1 X9.500 Y32.750
G1 X9.750 Y32.750
G1 X9.750 Y32.500
G1 X10.000 Y32.250
G1 X10.250 Y32.000
G1 X10.250 Y32.000
G1 X10.500 Y31.750
G1 X10.750 Y31.500
G1 X11.000 Y31.500
G1 X11.000 Y31.250
G1 X11.250 Y31.000
G1 X11.500 Y31.000
G1 X11.500 Y30.750
G1 X11.750 Y30.500
G1 X12.000 Y30.250
G1 X12.000 Y30.250
G1 X12.250 Y30.000
G1 X12.500 Y29.750
G1 X12.750 Y29.750
G1 X12.750 Y29.500
G1 X13.000 Y29.250
G1 X13.250 Y29.000
G1 X13.250 Y29.000
G0 Z2.000 F3000
M400
M204 P600 T600
G1 F1300
G0 X14.500 Y29.000 Z2.000
M400
M204 P200 T200
G1 F600
G1 Z0.000 F2500
G1 X14.250 Y29.000
G1 X14.000 Y29.250
G1 X14.000 Y29.500
G1 X13.750 Y29.750
G1 X13.500 Y29.750
G1 X13.250 Y30.000
G1 X13.250 Y30.250
G1 X13.000 Y30.250
G1 X12.750 Y30.500
G1 X12.750 Y30.750
G1 X12.500 Y31.000
G1 X12.250 Y31.000
G1 X12.000 Y31.250
G1 X12.000 Y31.500
G1 X11.750 Y31.500
G1 X11.500 Y31.750
G1 X11.500 Y32.000
G1 X11.250 Y32.000
G1 X11.000 Y32.250
G1 X11.000 Y32.500
G1 X10.750 Y32.750
G1 X10.500 Y32.750
G1 X10.250 Y33.000
G1 X10.250 Y33.250
G1 X10.000 Y33.250
G1 X9.750 Y33.500
G1 X9.750 Y33.750
G1 X9.500 Y34.000
G1 X9.250 Y34.000
G1 X9.000 Y34.250
G1 X9.000 Y34.500
G1 X8.750 Y34.500
G1 X8.500 Y34.750
G1 X8.500 Y35.000
G1 X8.250 Y35.000
G1 X8.000 Y35.250
G1 X8.000 Y35.500
G1 X7.750 Y35.750
G1 X7.500 Y35.750
G1 X7.250 Y36.000
G1 X7.250 Y36.250
G1 X7.000 Y36.250
G1 X6.750 Y36.500
G1 X6.750 Y36.750
G1 X6.500 Y37.000
G1 X6.250 Y37.000
G1 X6.000 Y37.250
G1 X6.000 Y37.500
G1 X5.750 Y37.500
G1 X5.500 Y37.750
G1 X5.500 Y38.000
G1 X5.250 Y38.250
G1 X5.000 Y38.250
G1 X4.750 Y38.500
G1 X4.750 Y38.750
G1 X4.500 Y38.750
G1 X4.250 Y39.000
G1 X4.250 Y39.250
G1 X4.000 Y39.250
G1 X3.750 Y39.500
G1 X3.750 Y39.750
G1 X3.500 Y40.000
G1 X3.250 Y40.000
G1 X3.000 Y40.250
G1 X3.000 Y40.500
G1 X2.750 Y40.500
G1 X2.500 Y40.750
G1 X2.500 Y41.000
G1 X2.250 Y41.250
G1 X2.000 Y41.250
G1 X1.750 Y41.500
G1 X1.750 Y41.750
G1 X1.500 Y41.750
G1 X1.250 Y42.000
G1 X1.250 Y42.250
G1 X1.000 Y42.250
G1 X0.750 Y42.500
G1 X0.750 Y42.750
G1 X0.500 Y43.000
G1 X0.250 Y43.000
G1 X0.000 Y43.250
G1 X0.000 Y43.500
G1 X0.000 Y43.500
G0 Z2.000 F3000
M400
M204 P600 T600
G1 F1300
G0 X0.000 Y44.750 Z2.000
M400
M204 P200 T200
G1 F600
G1 Z0.000 F2500
G1 X0.000 Y44.500
G1 X0.000 Y44.250
G1 X0.250 Y44.250
G1 X0.500 Y44.000
G1 X0.750 Y43.750
G1 X0.750 Y43.500
G1 X1.000 Y43.500
G0 Z2.000 F3000

; --- CIKEL NAMAKANJA ---
G0 Z2.000 F3000
M400
M204 P600 T600
G1 F1300
G0 X61.596 Y2.798 Z8.000
G1 Z1.000 F3000
G1 X61.596 Y2.798 F2500
G1 X61.596 Y4.548 F2500
G1 X58.096 Y2.798 F2500
G1 X61.596 Y0.000 F2500
G0 Z3.000 F3000
G0 X42.992 Y11.989
G0 Z8.000 F3000
G0 X1.250 Y43.250 Z2.000
M400
M204 P200 T200
G1 F600
G1 Z0.000 F2500
G1 X1.250 Y43.250
G1 X1.250 Y43.000
G1 X1.500 Y43.000
G1 X1.750 Y42.750
G1 X1.750 Y42.500
G1 X2.000 Y42.250
G1 X2.250 Y42.250
G1 X2.500 Y42.000
G1 X2.500 Y41.750
G1 X2.750 Y41.750
G1 X3.000 Y41.500
G1 X3.000 Y41.250
G1 X3.250 Y41.250
G1 X3.500 Y41.000
G1 X3.750 Y40.750
G1 X3.750 Y40.500
G1 X4.000 Y40.500
G1 X4.250 Y40.250
G1 X4.250 Y40.000
G1 X4.500 Y40.000
G1 X4.750 Y39.750
G1 X4.750 Y39.500
G1 X5.000 Y39.250
G1 X5.250 Y39.250
G1 X5.500 Y39.000
G1 X5.500 Y38.750
G1 X5.750 Y38.750
G1 X6.000 Y38.500
G1 X6.000 Y38.250
G1 X6.250 Y38.250
G1 X6.500 Y38.000
G1 X6.750 Y37.750
G1 X6.750 Y37.500
G1 X7.000 Y37.500
G1 X7.250 Y37.250
G1 X7.250 Y37.000
G1 X7.500 Y37.000
G1 X7.750 Y36.750
G1 X8.000 Y36.500
G1 X8.000 Y36.250
G1 X8.250 Y36.250
G1 X8.500 Y36.000
G1 X8.500 Y35.750
G1 X8.750 Y35.750
G1 X9.000 Y35.500
G1 X9.000 Y35.250
G1 X9.250 Y35.000
G1 X9.500 Y35.000
G1 X9.750 Y34.750
G1 X9.750 Y34.500
G1 X10.000 Y34.500
G1 X10.250 Y34.250
G1 X10.250 Y34.000
G1 X10.500 Y34.000
G1 X10.750 Y33.750
G1 X11.000 Y33.500
G1 X11.000 Y33.250
G1 X11.250 Y33.250
G1 X11.500 Y33.000
G1 X11.500 Y32.750
G1 X11.750 Y32.750
G1 X12.000 Y32.500
G1 X12.000 Y32.250
G1 X12.250 Y32.000
G1 X12.500 Y32.000
G1 X12.750 Y31.750
G1 X12.750 Y31.500
G1 X13.000 Y31.500
G1 X13.250 Y31.250
G1 X13.250 Y31.000
G1 X13.500 Y31.000
G1 X13.750 Y30.750
G1 X14.000 Y30.500
G1 X14.000 Y30.250
G1 X14.250 Y30.250
G1 X14.500 Y30.000
G1 X14.500 Y29.750
G1 X14.750 Y29.750
G1 X15.000 Y29.500
G1 X15.000 Y29.250
G1 X15.250 Y29.000
G1 X15.500 Y29.000
G0 Z2.000 F3000
M400
M204 P600 T600
G1 F1300
G0 X16.500 Y29.000 Z2.000
M400
M204 P200 T200
G1 F600
G1 Z0.000 F2500
G1 X16.250 Y29.000
G1 X16.250 Y29.250
G1 X16.000 Y29.500
G1 X15.750 Y29.750
G1 X15.750 Y29.750
G1 X15.500 Y30.000
G1 X15.250 Y30.250
G1 X15.000 Y30.250
G1 X15.000 Y30.500
G1 X14.750 Y30.750
G1 X14.500 Y31.000
G1 X14.500 Y31.000
G1 X14.250 Y31.250
G1 X14.000 Y31.500
G1 X14.000 Y31.500
G1 X13.750 Y31.750
G1 X13.500 Y32.000
G1 X13.250 Y32.000
G1 X13.250 Y32.250
G1 X13.000 Y32.500
G1 X12.750 Y32.750
G1 X12.750 Y32.750
G1 X12.500 Y33.000
G1 X12.250 Y33.250
G1 X12.000 Y33.250
G1 X12.000 Y33.500
G1 X11.750 Y33.750
G1 X11.500 Y34.000
G1 X11.500 Y34.000
G1 X11.250 Y34.250
G1 X11.000 Y34.500
G1 X11.000 Y34.500
G1 X10.750 Y34.750
G1 X10.500 Y35.000
G1 X10.250 Y35.000
G1 X10.250 Y35.250
G1 X10.000 Y35.500
G1 X9.750 Y35.750
G1 X9.750 Y35.750
G1 X9.500 Y36.000
G1 X9.250 Y36.250
G1 X9.000 Y36.250
G1 X9.000 Y36.500
G1 X8.750 Y36.750
G1 X8.500 Y37.000
G1 X8.500 Y37.000
G1 X8.250 Y37.250
G1 X8.000 Y37.500
G1 X8.000 Y37.500
G1 X7.750 Y37.750
G1 X7.500 Y38.000
G1 X7.250 Y38.250
G1 X7.250 Y38.250
G1 X7.000 Y38.500
G1 X6.750 Y38.750
G1 X6.750 Y38.750
G1 X6.500 Y39.000
G1 X6.250 Y39.250
G1 X6.000 Y39.250
G1 X6.000 Y39.500
G1 X5.750 Y39.750
G1 X5.500 Y40.000
G1 X5.500 Y40.000
G1 X5.250 Y40.250
G1 X5.000 Y40.500
G1 X4.750 Y40.500
G1 X4.750 Y40.750
G1 X4.500 Y41.000
G1 X4.250 Y41.250
G1 X4.250 Y41.250
G1 X4.000 Y41.500
G1 X3.750 Y41.750
G1 X3.750 Y41.750
G1 X3.500 Y42.000
G1 X3.250 Y42.250
G1 X3.000 Y42.250
G1 X3.000 Y42.500
G1 X2.750 Y42.750
G1 X2.500 Y43.000
G1 X2.500 Y43.000
G1 X2.250 Y43.250
G1 X2.000 Y43.500
G1 X1.750 Y43.500
G1 X1.750 Y43.750
G1 X1.500 Y44.000
G1 X1.250 Y44.250
G1 X1.250 Y44.250
G1 X1.000 Y44.500
G1 X0.750 Y44.750
G1 X0.750 Y44.750
G1 X0.500 Y45.000
G1 X0.250 Y45.250
G1 X0.000 Y45.250
G1 X0.000 Y45.500
G1 X0.000 Y45.750
G0 Z2.000 F3000
M400
M204 P600 T600
G1 F1300
G0 X0.000 Y46.750 Z2.000
M400
M204 P200 T200
G1 F600
G1 Z0.000 F2500
G1 X0.000 Y46.500
G1 X0.000 Y46.500
G1 X0.250 Y46.250
G1 X0.500 Y46.000
G1 X0.750 Y46.000
G1 X0.750 Y45.750
G1 X1.000 Y45.500
G1 X1.250 Y45.250
G1 X1.250 Y45.250
G1 X1.500 Y45.000
G1 X1.750 Y44.750
G1 X1.750 Y44.750
G1 X2.000 Y44.500
G1 X2.250 Y44.250
G1 X2.500 Y44.250
G1 X2.500 Y44.000
G1 X2.750 Y43.750
G1 X3.000 Y43.500
G1 X3.000 Y43.500
G1 X3.250 Y43.250
G1 X3.500 Y43.000
G1 X3.750 Y43.000
G1 X3.750 Y42.750
G1 X4.000 Y42.500
G1 X4.250 Y42.250
G1 X4.250 Y42.250
G1 X4.500 Y42.000
G1 X4.750 Y41.750
G1 X4.750 Y41.750
G1 X5.000 Y41.500
G1 X5.250 Y41.250
G1 X5.500 Y41.250
G1 X5.500 Y41.000
G1 X5.750 Y40.750
G1 X6.000 Y40.500
G1 X6.000 Y40.500
G1 X6.250 Y40.250
G1 X6.500 Y40.000
G1 X6.750 Y40.000
G1 X6.750 Y39.750
G1 X7.000 Y39.500
G1 X7.250 Y39.250
G1 X7.250 Y39.250
G1 X7.500 Y39.000
G1 X7.750 Y38.750
G1 X8.000 Y38.750
G1 X8.000 Y38.500
G1 X8.250 Y38.250
G1 X8.500 Y38.250
G1 X8.500 Y38.000
G1 X8.750 Y37.750
G1 X9.000 Y37.500
G1 X9.000 Y37.500
G1 X9.250 Y37.250
G1 X9.500 Y37.000
G1 X9.750 Y37.000
G1 X9.750 Y36.750
G1 X10.000 Y36.500
G1 X10.250 Y36.250
G1 X10.250 Y36.250
G1 X10.500 Y36.000
G1 X10.750 Y35.750
G1 X11.000 Y35.750
G1 X11.000 Y35.500
G1 X11.250 Y35.250
G1 X11.500 Y35.000
G1 X11.500 Y35.000
G1 X11.750 Y34.750
G1 X12.000 Y34.500
G1 X12.000 Y34.500
G1 X12.250 Y34.250
G1 X12.500 Y34.000
G1 X12.750 Y34.000
G1 X12.750 Y33.750
G1 X13.000 Y33.500
G1 X13.250 Y33.250
G1 X13.250 Y33.250
G1 X13.500 Y33.000
G1 X13.750 Y32.750
G1 X14.000 Y32.750
G1 X14.000 Y32.500
G1 X14.250 Y32.250
G1 X14.500 Y32.000
G1 X14.500 Y32.000
G1 X14.750 Y31.750
G1 X15.000 Y31.500
G1 X15.000 Y31.500
G1 X15.250 Y31.250
G1 X15.500 Y31.000
G1 X15.750 Y31.000
G1 X15.750 Y30.750
G1 X16.000 Y30.500
G1 X16.250 Y30.250
G1 X16.250 Y30.250
G1 X16.500 Y30.000
G1 X16.750 Y29.750
G1 X17.000 Y29.750
G1 X17.000 Y29.500
G1 X17.250 Y29.250
G1 X17.500 Y29.000
G1 X17.500 Y29.000
G0 Z2.000 F3000
M400
M204 P600 T600
G1 F1300
G0 X18.750 Y29.000 Z2.000
M400
M204 P200 T200
G1 F600
G1 Z0.000 F2500
G1 X18.500 Y29.000
G1 X18.250 Y29.250
G1 X18.250 Y29.500
G1 X18.000 Y29.750
G1 X17.750 Y29.750
G1 X17.500 Y30.000
G1 X17.500 Y30.250
G1 X17.250 Y30.250
G1 X17.000 Y30.500
G1 X17.000 Y30.750
G1 X16.750 Y31.000
G1 X16.500 Y31.000
G1 X16.250 Y31.250
G1 X16.250 Y31.500
G1 X16.000 Y31.500
G1 X15.750 Y31.750
G1 X15.750 Y32.000
G1 X15.500 Y32.000
G1 X15.250 Y32.250
G1 X15.000 Y32.500
G1 X15.000 Y32.750
G1 X14.750 Y32.750
G1 X14.500 Y33.000
G1 X14.500 Y33.250
G1 X14.250 Y33.250
G1 X14.000 Y33.500
G1 X14.000 Y33.750
G1 X13.750 Y34.000
G1 X13.500 Y34.000
G1 X13.250 Y34.250
G1 X13.250 Y34.500
G1 X13.000 Y34.500
G1 X12.750 Y34.750
G1 X12.750 Y35.000
G1 X12.500 Y35.000
G1 X12.250 Y35.250
G1 X12.000 Y35.500
G1 X12.000 Y35.750
G1 X11.750 Y35.750
G1 X11.500 Y36.000
G1 X11.500 Y36.250
G1 X11.250 Y36.250
G1 X11.000 Y36.500
G1 X11.000 Y36.750
G1 X10.750 Y37.000
G1 X10.500 Y37.000
G1 X10.250 Y37.250
G1 X10.250 Y37.500
G1 X10.000 Y37.500
G1 X9.750 Y37.750
G1 X9.750 Y38.000
G1 X9.500 Y38.250
G1 X9.250 Y38.250
G0 Z2.000 F3000

; --- CIKEL NAMAKANJA ---
G0 Z2.000 F3000
M400
M204 P600 T600
G1 F1300
G0 X55.709 Y4.823 Z8.000
G1 Z1.000 F3000
G1 X55.709 Y4.823 F2500
G1 X55.709 Y6.573 F2500
G1 X52.209 Y4.823 F2500
G1 X55.709 Y0.000 F2500
G0 Z3.000 F3000
G0 X43.153 Y12.202
G0 Z8.000 F3000
G0 X9.000 Y38.500 Z2.000
M400
M204 P200 T200
G1 F600
G1 Z0.000 F2500
G1 X9.000 Y38.500
G1 X9.000 Y38.750
G1 X8.750 Y38.750
G1 X8.500 Y39.000
G1 X8.500 Y39.250
G1 X8.250 Y39.250
G1 X8.000 Y39.500
G1 X8.000 Y39.750
G1 X7.750 Y40.000
G1 X7.500 Y40.000
G1 X7.250 Y40.250
G1 X7.250 Y40.500
G1 X7.000 Y40.500
G1 X6.750 Y40.750
G1 X6.750 Y41.000
G1 X6.500 Y41.250
G1 X6.250 Y41.250
G1 X6.000 Y41.500
G1 X6.000 Y41.750
G1 X5.750 Y41.750
G1 X5.500 Y42.000
G1 X5.500 Y42.250
G1 X5.250 Y42.250
G1 X5.000 Y42.500
G1 X4.750 Y42.750
G1 X4.750 Y43.000
G1 X4.500 Y43.000
G1 X4.250 Y43.250
G1 X4.250 Y43.500
G1 X4.000 Y43.500
G1 X3.750 Y43.750
G1 X3.750 Y44.000
G1 X3.500 Y44.250
G1 X3.250 Y44.250
G1 X3.000 Y44.500
G1 X3.000 Y44.750
G1 X2.750 Y44.750
G1 X2.500 Y45.000
G1 X2.500 Y45.250
G1 X2.250 Y45.250
G1 X2.000 Y45.500
G1 X1.750 Y45.750
G1 X1.750 Y46.000
G1 X1.500 Y46.000
G1 X1.250 Y46.250
G1 X1.250 Y46.500
G1 X1.000 Y46.500
G1 X0.750 Y46.750
G1 X0.750 Y47.000
G1 X0.500 Y47.250
G1 X0.250 Y47.250
G1 X0.000 Y47.500
G1 X0.000 Y47.750
G1 X0.000 Y47.750
G0 Z2.000 F3000
M400
M204 P600 T600
G1 F1300
G0 X0.000 Y49.000 Z2.000
M400
M204 P200 T200
G1 F600
G1 Z0.000 F2500
G1 X0.000 Y48.750
G1 X0.000 Y48.500
G1 X0.250 Y48.500
G1 X0.500 Y48.250
G1 X0.750 Y48.000
G1 X0.750 Y47.750
G1 X1.000 Y47.750
G1 X1.250 Y47.500
G1 X1.250 Y47.250
G1 X1.500 Y47.250
G1 X1.750 Y47.000
G1 X1.750 Y46.750
G1 X2.000 Y46.500
G1 X2.250 Y46.500
G1 X2.500 Y46.250
G1 X2.500 Y46.000
G1 X2.750 Y46.000
G1 X3.000 Y45.750
G1 X3.000 Y45.500
G1 X3.250 Y45.250
G1 X3.500 Y45.250
G1 X3.750 Y45.000
G1 X3.750 Y44.750
G1 X4.000 Y44.750
G1 X4.250 Y44.500
G1 X4.250 Y44.250
G1 X4.500 Y44.250
G1 X4.750 Y44.000
G1 X4.750 Y43.750
G1 X5.000 Y43.500
G1 X5.250 Y43.500
G1 X5.500 Y43.250
G1 X5.500 Y43.000
G1 X5.750 Y43.000
G1 X6.000 Y42.750
G1 X6.000 Y42.500
G1 X6.250 Y42.250
G1 X6.500 Y42.250
G1 X6.750 Y42.000
G1 X6.750 Y41.750
G1 X7.000 Y41.750
G1 X7.250 Y41.500
G1 X7.250 Y41.250
G1 X7.500 Y41.250
G1 X7.750 Y41.000
G1 X8.000 Y40.750
G1 X8.000 Y40.500
G1 X8.250 Y40.500
G1 X8.500 Y40.250
G1 X8.500 Y40.000
G1 X8.750 Y40.000
G1 X9.000 Y39.750
G1 X9.000 Y39.500
G1 X9.250 Y39.250
G1 X9.500 Y39.250
G1 X9.750 Y39.000
G1 X9.750 Y38.750
G1 X10.000 Y38.750
G1 X10.250 Y38.500
G1 X10.250 Y38.250
G1 X10.500 Y38.250
G1 X10.750 Y38.000
G1 X11.000 Y37.750
G1 X11.000 Y37.500
G1 X11.250 Y37.500
G1 X11.500 Y37.250
G1 X11.500 Y37.000
G1 X11.750 Y37.000
G1 X12.000 Y36.750
G1 X12.000 Y36.500
G1 X12.250 Y36.250
G1 X12.500 Y36.250
G1 X12.750 Y36.000
G1 X12.750 Y35.750
G1 X13.000 Y35.750
G1 X13.250 Y35.500
G1 X13.250 Y35.250
G1 X13.500 Y35.000
G1 X13.750 Y35.000
G1 X14.000 Y34.750
G1 X14.000 Y34.500
G1 X14.250 Y34.500
G1 X14.500 Y34.250
G1 X14.500 Y34.000
G1 X14.750 Y34.000
G1 X15.000 Y33.750
G1 X15.000 Y33.500
G1 X15.250 Y33.250
G1 X15.500 Y33.250
G1 X15.750 Y33.000
G1 X15.750 Y32.750
G1 X16.000 Y32.750
G1 X16.250 Y32.500
G1 X16.250 Y32.250
G1 X16.500 Y32.000
G1 X16.750 Y32.000
G1 X17.000 Y31.750
G1 X17.000 Y31.500
G1 X17.250 Y31.500
G1 X17.500 Y31.250
G1 X17.500 Y31.000
G1 X17.750 Y31.000
G1 X18.000 Y30.750
G1 X18.250 Y30.500
G1 X18.250 Y30.250
G1 X18.500 Y30.250
G1 X18.750 Y30.000
G1 X18.750 Y29.750
G1 X19.000 Y29.750
G1 X19.250 Y29.500
G1 X19.250 Y29.250
G1 X19.500 Y29.000
G1 X19.750 Y29.000
G0 Z2.000 F3000
M400
M204 P600 T600
G1 F1300
G0 X20.750 Y29.000 Z2.000
M400
M204 P200 T200
G1 F600
G1 Z0.000 F2500
G1 X20.500 Y29.000
G1 X20.500 Y29.250
G1 X20.250 Y29.500
G1 X20.000 Y29.750
G1 X20.000 Y29.750
G1 X19.750 Y30.000
G1 X19.500 Y30.250
G1 X19.250 Y30.250
G1 X19.250 Y30.500
G1 X19.000 Y30.750
G1 X18.750 Y31.000
G1 X18.750 Y31.000
G1 X18.500 Y31.250
G1 X18.250 Y31.500
G1 X18.250 Y31.500
G1 X18.000 Y31.750
G1 X17.750 Y32.000
G1 X17.500 Y32.000
G1 X17.500 Y32.250
G1 X17.250 Y32.500
G1 X17.000 Y32.750
G1 X17.000 Y32.750
G1 X16.750 Y33.000
G1 X16.500 Y33.250
G1 X16.250 Y33.250
G1 X16.250 Y33.500
G1 X16.000 Y33.750
G1 X15.750 Y34.000
G1 X15.750 Y34.000
G1 X15.500 Y34.250
G1 X15.250 Y34.500
G1 X15.000 Y34.500
G1 X15.000 Y34.750
G1 X14.750 Y35.000
G1 X14.500 Y35.000
G1 X14.500 Y35.250
G1 X14.250 Y35.500
G1 X14.000 Y35.750
G1 X14.000 Y35.750
G1 X13.750 Y36.000
G1 X13.500 Y36.250
G1 X13.250 Y36.250
G1 X13.250 Y36.500
G1 X13.000 Y36.750
G1 X12.750 Y37.000
G1 X12.750 Y37.000
G1 X12.500 Y37.250
G1 X12.250 Y37.500
G1 X12.000 Y37.500
G1 X12.000 Y37.750
G1 X11.750 Y38.000
G1 X11.500 Y38.250
G1 X11.500 Y38.250
G1 X11.250 Y38.500
G1 X11.000 Y38.750
G1 X11.000 Y38.750
G1 X10.750 Y39.000
G1 X10.500 Y39.250
G1 X10.250 Y39.250
G1 X10.250 Y39.500
G1 X10.000 Y39.750
G1 X9.750 Y40.000
G1 X9.750 Y40.000
G1 X9.500 Y40.250
G1 X9.250 Y40.500
G1 X9.000 Y40.500
G1 X9.000 Y40.750
G1 X8.750 Y41.000
G1 X8.500 Y41.250
G1 X8.500 Y41.250
G1 X8.250 Y41.500
G1 X8.000 Y41.750
G1 X8.000 Y41.750
G1 X7.750 Y42.000
G1 X7.500 Y42.250
G1 X7.250 Y42.250
G1 X7.250 Y42.500
G1 X7.000 Y42.750
G1 X6.750 Y43.000
G1 X6.750 Y43.000
G1 X6.500 Y43.250
G1 X6.250 Y43.500
G1 X6.000 Y43.500
G1 X6.000 Y43.750
G1 X5.750 Y44.000
G1 X5.500 Y44.250
G1 X5.500 Y44.250
G1 X5.250 Y44.500
G1 X5.000 Y44.750
G1 X4.750 Y44.750
G1 X4.750 Y45.000
G1 X4.500 Y45.250
G1 X4.250 Y45.250
G1 X4.250 Y45.500
G1 X4.000 Y45.750
G1 X3.750 Y46.000
G1 X3.750 Y46.000
G1 X3.500 Y46.250
G1 X3.250 Y46.500
G1 X3.000 Y46.500
G1 X3.000 Y46.750
G1 X2.750 Y47.000
G1 X2.500 Y47.250
G1 X2.500 Y47.250
G1 X2.250 Y47.500
G1 X2.000 Y47.750
G1 X1.750 Y47.750
G1 X1.750 Y48.000
G1 X1.500 Y48.250
G1 X1.250 Y48.500
G1 X1.250 Y48.500
G1 X1.000 Y48.750
G1 X0.750 Y49.000
G1 X0.750 Y49.000
G1 X0.500 Y49.250
G1 X0.250 Y49.500
G1 X0.000 Y49.500
G1 X0.000 Y49.750
G1 X0.000 Y50.000
G0 Z2.000 F3000
M400
M204 P600 T600
G1 F1300
G0 X0.000 Y51.000 Z2.000
M400
M204 P200 T200
G1 F600
G1 Z0.000 F2500
G1 X0.000 Y50.750
G1 X0.000 Y50.750
G1 X0.250 Y50.500
G1 X0.500 Y50.250
G1 X0.750 Y50.250
G1 X0.750 Y50.000
G1 X1.000 Y49.750
G1 X1.250 Y49.500
G1 X1.250 Y49.500
G1 X1.500 Y49.250
G0 Z2.000 F3000

; --- CIKEL NAMAKANJA ---
G0 Z2.000 F3000
M400
M204 P600 T600
G1 F1300
G0 X65.967 Y0.000 Z8.000
G1 Z1.000 F3000
G1 X65.967 Y0.000 F2500
G1 X65.967 Y1.750 F2500
G1 X62.467 Y0.000 F2500
G1 X65.967 Y0.000 F2500
G0 Z3.000 F3000
G0 X43.806 Y13.005
G0 Z8.000 F3000
G0 X1.750 Y49.000 Z2.000
M400
M204 P200 T200
G1 F600
G1 Z0.000 F2500
G1 X1.750 Y49.000
G1 X1.750 Y49.000
G1 X2.000 Y48.750
G1 X2.250 Y48.500
G1 X2.500 Y48.500
G1 X2.500 Y48.250
G1 X2.750 Y48.000
G1 X3.000 Y47.750
G1 X3.000 Y47.750
G1 X3.250 Y47.500
G1 X3.500 Y47.250
G1 X3.750 Y47.250
G1 X3.750 Y47.000
G1 X4.000 Y46.750
G1 X4.250 Y46.500
G1 X4.250 Y46.500
G1 X4.500 Y46.250
G1 X4.750 Y46.000
G1 X4.750 Y46.000
G1 X5.000 Y45.750
G1 X5.250 Y45.500
G1 X5.500 Y45.250
G1 X5.500 Y45.250
G1 X5.750 Y45.000
G1 X6.000 Y44.750
G1 X6.000 Y44.750
G1 X6.250 Y44.500
G1 X6.500 Y44.250
G1 X6.750 Y44.250
G1 X6.750 Y44.000
G1 X7.000 Y43.750
G1 X7.250 Y43.500
G1 X7.250 Y43.500
G1 X7.500 Y43.250
G1 X7.750 Y43.000
G1 X8.000 Y43.000
G1 X8.000 Y42.750
G1 X8.250 Y42.500
G1 X8.500 Y42.250
G1 X8.500 Y42.250
G1 X8.750 Y42.000
G1 X9.000 Y41.750
G1 X9.000 Y41.750
G1 X9.250 Y41.500
G1 X9.500 Y41.250
G1 X9.750 Y41.250
G1 X9.750 Y41.000
G1 X10.000 Y40.750
G1 X10.250 Y40.500
G1 X10.250 Y40.500
G1 X10.500 Y40.250
G1 X10.750 Y40.000
G1 X11.000 Y40.000
G1 X11.000 Y39.750
G1 X11.250 Y39.500
G1 X11.500 Y39.250
G1 X11.500 Y39.250
G1 X11.750 Y39.000
G1 X12.000 Y38.750
G1 X12.000 Y38.750
G1 X12.250 Y38.500
G1 X12.500 Y38.250
G1 X12.750 Y38.250
G1 X12.750 Y38.000
G1 X13.000 Y37.750
G1 X13.250 Y37.500
G1 X13.250 Y37.500
G1 X13.500 Y37.250
G1 X13.750 Y37.000
G1 X14.000 Y37.000
G1 X14.000 Y36.750
G1 X14.250 Y36.500
G1 X14.500 Y36.250
G1 X14.500 Y36.250
G1 X14.750 Y36.000
G1 X15.000 Y35.750
G1 X15.000 Y35.750
G1 X15.250 Y35.500
G1 X15.500 Y35.250
G1 X15.750 Y35.000
G1 X15.750 Y35.000
G1 X16.000 Y34.750
G1 X16.250 Y34.500
G1 X16.250 Y34.500
G1 X16.500 Y34.250
G1 X16.750 Y34.000
G1 X17.000 Y34.000
G1 X17.000 Y33.750
G1 X17.250 Y33.500
G1 X17.500 Y33.250
G1 X17.500 Y33.250
G1 X17.750 Y33.000
G1 X18.000 Y32.750
G1 X18.250 Y32.750
G1 X18.250 Y32.500
G1 X18.500 Y32.250
G1 X18.750 Y32.000
G1 X18.750 Y32.000
G1 X19.000 Y31.750
G1 X19.250 Y31.500
G1 X19.250 Y31.500
G1 X19.500 Y31.250
G1 X19.750 Y31.000
G1 X20.000 Y31.000
G1 X20.000 Y30.750
G1 X20.250 Y30.500
G1 X20.500 Y30.250
G1 X20.500 Y30.250
G1 X20.750 Y30.000
G1 X21.000 Y29.750
G1 X21.250 Y29.750
G1 X21.250 Y29.500
G1 X21.500 Y29.250
G1 X21.750 Y29.000
G1 X21.750 Y29.000
G0 Z2.000 F3000
M400
M204 P600 T600
G1 F1300
G0 X23.000 Y29.000 Z2.000
M400
M204 P200 T200
G1 F600
G1 Z0.000 F2500
G1 X22.750 Y29.000
G1 X22.500 Y29.250
G1 X22.250 Y29.500
G1 X22.250 Y29.750
G1 X22.000 Y29.750
G1 X21.750 Y30.000
G1 X21.750 Y30.250
G1 X21.500 Y30.250
G1 X21.250 Y30.500
G1 X21.250 Y30.750
G1 X21.000 Y31.000
G1 X20.750 Y31.000
G1 X20.500 Y31.250
G1 X20.500 Y31.500
G1 X20.250 Y31.500
G1 X20.000 Y31.750
G1 X20.000 Y32.000
G1 X19.750 Y32.000
G1 X19.500 Y32.250
G1 X19.250 Y32.500
G1 X19.250 Y32.750
G1 X19.000 Y32.750
G1 X18.750 Y33.000
G1 X18.750 Y33.250
G1 X18.500 Y33.250
G1 X18.250 Y33.500
G1 X18.250 Y33.750
G1 X18.000 Y34.000
G1 X17.750 Y34.000
G1 X17.500 Y34.250
G1 X17.500 Y34.500
G1 X17.250 Y34.500
G1 X17.000 Y34.750
G1 X17.000 Y35.000
G1 X16.750 Y35.000
G1 X16.500 Y35.250
G1 X16.250 Y35.500
G1 X16.250 Y35.750
G1 X16.000 Y35.750
G1 X15.750 Y36.000
G1 X15.750 Y36.250
G1 X15.500 Y36.250
G1 X15.250 Y36.500
G1 X15.000 Y36.750
G1 X15.000 Y37.000
G1 X14.750 Y37.000
G1 X14.500 Y37.250
G1 X14.500 Y37.500
G1 X14.250 Y37.500
G1 X14.000 Y37.750
G1 X14.000 Y38.000
G1 X13.750 Y38.250
G1 X13.500 Y38.250
G1 X13.250 Y38.500
G1 X13.250 Y38.750
G1 X13.000 Y38.750
G1 X12.750 Y39.000
G1 X12.750 Y39.250
G1 X12.500 Y39.250
G1 X12.250 Y39.500
G1 X12.000 Y39.750
G1 X12.000 Y40.000
G1 X11.750 Y40.000
G1 X11.500 Y40.250
G1 X11.500 Y40.500
G1 X11.250 Y40.500
G1 X11.000 Y40.750
G1 X11.000 Y41.000
G1 X10.750 Y41.250
G1 X10.500 Y41.250
G1 X10.250 Y41.500
G1 X10.250 Y41.750
G1 X10.000 Y41.750
G1 X9.750 Y42.000
G1 X9.750 Y42.250
G1 X9.500 Y42.250
G1 X9.250 Y42.500
G1 X9.000 Y42.750
G1 X9.000 Y43.000
G1 X8.750 Y43.000
G1 X8.500 Y43.250
G1 X8.500 Y43.500
G1 X8.250 Y43.500
G1 X8.000 Y43.750
G1 X8.000 Y44.000
G1 X7.750 Y44.250
G1 X7.500 Y44.250
G1 X7.250 Y44.500
G1 X7.250 Y44.750
G1 X7.000 Y44.750
G1 X6.750 Y45.000
G1 X6.750 Y45.250
G1 X6.500 Y45.250
G1 X6.250 Y45.500
G1 X6.000 Y45.750
G1 X6.000 Y46.000
G1 X5.750 Y46.000
G1 X5.500 Y46.250
G1 X5.500 Y46.500
G1 X5.250 Y46.500
G1 X5.000 Y46.750
G1 X4.750 Y47.000
G1 X4.750 Y47.250
G1 X4.500 Y47.250
G1 X4.250 Y47.500
G1 X4.250 Y47.750
G1 X4.000 Y47.750
G1 X3.750 Y48.000
G1 X3.750 Y48.250
G1 X3.500 Y48.500
G1 X3.250 Y48.500
G1 X3.000 Y48.750
G1 X3.000 Y49.000
G1 X2.750 Y49.000
G1 X2.500 Y49.250
G1 X2.500 Y49.500
G1 X2.250 Y49.500
G1 X2.000 Y49.750
G1 X1.750 Y50.000
G1 X1.750 Y50.250
G1 X1.500 Y50.250
G1 X1.250 Y50.500
G1 X1.250 Y50.750
G1 X1.000 Y50.750
G1 X0.750 Y51.000
G1 X0.750 Y51.250
G1 X0.500 Y51.500
G1 X0.250 Y51.500
G1 X0.000 Y51.750
G1 X0.000 Y52.000
G1 X0.000 Y52.000
G0 Z2.000 F3000
M400
M204 P600 T600
G1 F1300
G0 X0.000 Y53.250 Z2.000
M400
M204 P200 T200
G1 F600
G1 Z0.000 F2500
G1 X0.000 Y53.000
G1 X0.000 Y52.750
G1 X0.250 Y52.500
G1 X0.500 Y52.500
G1 X0.750 Y52.250
G1 X0.750 Y52.000
G1 X1.000 Y52.000
G1 X1.250 Y51.750
G1 X1.250 Y51.500
G1 X1.500 Y51.500
G1 X1.750 Y51.250
G1 X1.750 Y51.000
G1 X2.000 Y50.750
G1 X2.250 Y50.750
G1 X2.500 Y50.500
G1 X2.500 Y50.250
G1 X2.750 Y50.250
G1 X3.000 Y50.000
G1 X3.000 Y49.750
G1 X3.250 Y49.500
G1 X3.500 Y49.500
G1 X3.750 Y49.250
G1 X3.750 Y49.000
G1 X4.000 Y49.000
G1 X4.250 Y48.750
G1 X4.250 Y48.500
G1 X4.500 Y48.500
G1 X4.750 Y48.250
G1 X4.750 Y48.000
G1 X5.000 Y47.750
G1 X5.250 Y47.750
G1 X5.500 Y47.500
G1 X5.500 Y47.250
G1 X5.750 Y47.250
G1 X6.000 Y47.000
G1 X6.000 Y46.750
G1 X6.250 Y46.500
G1 X6.500 Y46.500
G1 X6.750 Y46.250
G1 X6.750 Y46.000
G1 X7.000 Y46.000
G1 X7.250 Y45.750
G1 X7.250 Y45.500
G1 X7.500 Y45.250
G1 X7.750 Y45.250
G1 X8.000 Y45.000
G1 X8.000 Y44.750
G1 X8.250 Y44.750
G1 X8.500 Y44.500
G1 X8.500 Y44.250
G1 X8.750 Y44.250
G1 X9.000 Y44.000
G1 X9.000 Y43.750
G1 X9.250 Y43.500
G0 Z2.000 F3000

; --- CIKEL NAMAKANJA ---
G0 Z2.000 F3000
M400
M204 P600 T600
G1 F1300
G0 X54.051 Y0.030 Z8.000
G1 Z1.000 F3000
G1 X54.051 Y0.030 F2500
G1 X54.051 Y1.780 F2500
G1 X50.551 Y0.030 F2500
G1 X54.051 Y0.000 F2500
G0 Z3.000 F3000
G0 X43.977 Y13.202
G0 Z8.000 F3000
G0 X9.500 Y43.500 Z2.000
M400
M204 P200 T200
G1 F600
G1 Z0.000 F2500
G1 X9.500 Y43.500
G1 X9.750 Y43.250
G1 X9.750 Y43.000
G1 X10.000 Y43.000
G1 X10.250 Y42.750
G1 X10.250 Y42.500
G1 X10.500 Y42.250
G1 X10.750 Y42.250
G1 X11.000 Y42.000
G1 X11.000 Y41.750
G1 X11.250 Y41.750
G1 X11.500 Y41.500
G1 X11.500 Y41.250
G1 X11.750 Y41.250
G1 X12.000 Y41.000
G1 X12.000 Y40.750
G1 X12.250 Y40.500
G1 X12.500 Y40.500
G1 X12.750 Y40.250
G1 X12.750 Y40.000
G1 X13.000 Y40.000
G1 X13.250 Y39.750
G1 X13.250 Y39.500
G1 X13.500 Y39.250
G1 X13.750 Y39.250
G1 X14.000 Y39.000
G1 X14.000 Y38.750
G1 X14.250 Y38.750
G1 X14.500 Y38.500
G1 X14.500 Y38.250
G1 X14.750 Y38.250
G1 X15.000 Y38.000
G1 X15.000 Y37.750
G1 X15.250 Y37.500
G1 X15.500 Y37.500
G1 X15.750 Y37.250
G1 X15.750 Y37.000
G1 X16.000 Y37.000
G1 X16.250 Y36.750
G1 X16.250 Y36.500
G1 X16.500 Y36.250
G1 X16.750 Y36.250
G1 X17.000 Y36.000
G1 X17.000 Y35.750
G1 X17.250 Y35.750
G1 X17.500 Y35.500
G1 X17.500 Y35.250
G1 X17.750 Y35.000
G1 X18.000 Y35.000
G1 X18.250 Y34.750
G1 X18.250 Y34.500
G1 X18.500 Y34.500
G1 X18.750 Y34.250
G1 X18.750 Y34.000
G1 X19.000 Y34.000
G1 X19.250 Y33.750
G1 X19.250 Y33.500
G1 X19.500 Y33.250
G1 X19.750 Y33.250
G1 X20.000 Y33.000
G1 X20.000 Y32.750
G1 X20.250 Y32.750
G1 X20.500 Y32.500
G1 X20.500 Y32.250
G1 X20.750 Y32.000
G1 X21.000 Y32.000
G1 X21.250 Y31.750
G1 X21.250 Y31.500
G1 X21.500 Y31.500
G1 X21.750 Y31.250
G1 X21.750 Y31.000
G1 X22.000 Y31.000
G1 X22.250 Y30.750
G1 X22.250 Y30.500
G1 X22.500 Y30.250
G1 X22.750 Y30.250
G1 X23.000 Y30.000
G1 X23.000 Y29.750
G1 X23.250 Y29.750
G1 X23.500 Y29.500
G1 X23.500 Y29.250
G1 X23.750 Y29.000
G1 X24.000 Y29.000
G0 Z2.000 F3000
M400
M204 P600 T600
G1 F1300
G0 X25.000 Y29.000 Z2.000
M400
M204 P200 T200
G1 F600
G1 Z0.000 F2500
G1 X24.750 Y29.000
G1 X24.750 Y29.250
G1 X24.500 Y29.500
G1 X24.250 Y29.750
G1 X24.250 Y29.750
G1 X24.000 Y30.000
G1 X23.750 Y30.250
G1 X23.500 Y30.250
G1 X23.500 Y30.500
G1 X23.250 Y30.750
G1 X23.000 Y31.000
G1 X23.000 Y31.000
G1 X22.750 Y31.250
G1 X22.500 Y31.500
G1 X22.250 Y31.500
G1 X22.250 Y31.750
G1 X22.000 Y32.000
G1 X21.750 Y32.000
G1 X21.750 Y32.250
G1 X21.500 Y32.500
G1 X21.250 Y32.750
G1 X21.250 Y32.750
G1 X21.000 Y33.000
G1 X20.750 Y33.250
G1 X20.500 Y33.250
G1 X20.500 Y33.500
G1 X20.250 Y33.750
G1 X20.000 Y34.000
G1 X20.000 Y34.000
G1 X19.750 Y34.250
G1 X19.500 Y34.500
G1 X19.250 Y34.500
G1 X19.250 Y34.750
G1 X19.000 Y35.000
G1 X18.750 Y35.000
G1 X18.750 Y35.250
G1 X18.500 Y35.500
G1 X18.250 Y35.750
G1 X18.250 Y35.750
G1 X18.000 Y36.000
G1 X17.750 Y36.250
G1 X17.500 Y36.250
G1 X17.500 Y36.500
G1 X17.250 Y36.750
G1 X17.000 Y37.000
G1 X17.000 Y37.000
G1 X16.750 Y37.250
G1 X16.500 Y37.500
G1 X16.250 Y37.500
G1 X16.250 Y37.750
G1 X16.000 Y38.000
G1 X15.750 Y38.250
G1 X15.750 Y38.250
G1 X15.500 Y38.500
G1 X15.250 Y38.750
G1 X15.000 Y38.750
G1 X15.000 Y39.000
G1 X14.750 Y39.250
G1 X14.500 Y39.250
G1 X14.500 Y39.500
G1 X14.250 Y39.750
G1 X14.000 Y40.000
G1 X14.000 Y40.000
G1 X13.750 Y40.250
G1 X13.500 Y40.500
G1 X13.250 Y40.500
G1 X13.250 Y40.750
G1 X13.000 Y41.000
G1 X12.750 Y41.250
G1 X12.750 Y41.250
G1 X12.500 Y41.500
G1 X12.250 Y41.750
G1 X12.000 Y41.750
G1 X12.000 Y42.000
G1 X11.750 Y42.250
G1 X11.500 Y42.250
G1 X11.500 Y42.500
G1 X11.250 Y42.750
G1 X11.000 Y43.000
G1 X11.000 Y43.000
G1 X10.750 Y43.250
G1 X10.500 Y43.500
G1 X10.250 Y43.500
G1 X10.250 Y43.750
G1 X10.000 Y44.000
G1 X9.750 Y44.250
G1 X9.750 Y44.250
G1 X9.500 Y44.500
G1 X9.250 Y44.750
G1 X9.000 Y44.750
G1 X9.000 Y45.000
G1 X8.750 Y45.250
G1 X8.500 Y45.250
G1 X8.500 Y45.500
G1 X8.250 Y45.750
G1 X8.000 Y46.000
G1 X8.000 Y46.000
G1 X7.750 Y46.250
G1 X7.500 Y46.500
G1 X7.250 Y46.500
G1 X7.250 Y46.750
G1 X7.000 Y47.000
G1 X6.750 Y47.250
G1 X6.750 Y47.250
G1 X6.500 Y47.500
G1 X6.250 Y47.750
G1 X6.000 Y47.750
G1 X6.000 Y48.000
G1 X5.750 Y48.250
G1 X5.500 Y48.500
G1 X5.500 Y48.500
G1 X5.250 Y48.750
G1 X5.000 Y49.000
G1 X4.750 Y49.000
G1 X4.750 Y49.250
G1 X4.500 Y49.500
G1 X4.250 Y49.500
G1 X4.250 Y49.750
G1 X4.000 Y50.000
G1 X3.750 Y50.250
G1 X3.750 Y50.250
G1 X3.500 Y50.500
G1 X3.250 Y50.750
G1 X3.000 Y50.750
G1 X3.000 Y51.000
G1 X2.750 Y51.250
G1 X2.500 Y51.500
G1 X2.500 Y51.500
G1 X2.250 Y51.750
G1 X2.000 Y52.000
G1 X1.750 Y52.000
G1 X1.750 Y52.250
G1 X1.500 Y52.500
G1 X1.250 Y52.500
G1 X1.250 Y52.750
G1 X1.000 Y53.000
G1 X0.750 Y53.250
G1 X0.750 Y53.250
G1 X0.500 Y53.500
G1 X0.250 Y53.750
G1 X0.000 Y53.750
G1 X0.000 Y54.000
G1 X0.000 Y54.250
G0 Z2.000 F3000
M400
M204 P600 T600
G1 F1300
G0 X0.000 Y55.250 Z2.000
M400
M204 P200 T200
G1 F600
G1 Z0.000 F2500
G1 X0.000 Y55.000
G1 X0.000 Y55.000
G1 X0.250 Y54.750
G1 X0.500 Y54.500
G1 X0.750 Y54.500
G1 X0.750 Y54.250
G1 X1.000 Y54.000
G1 X1.250 Y53.750
G1 X1.250 Y53.750
G1 X1.500 Y53.500
G1 X1.750 Y53.250
G1 X1.750 Y53.250
G1 X2.000 Y53.000
G1 X2.250 Y52.750
G1 X2.500 Y52.500
G1 X2.500 Y52.500
G1 X2.750 Y52.250
G1 X3.000 Y52.000
G1 X3.000 Y52.000
G1 X3.250 Y51.750
G1 X3.500 Y51.500
G1 X3.750 Y51.500
G1 X3.750 Y51.250
G1 X4.000 Y51.000
G1 X4.250 Y50.750
G1 X4.250 Y50.750
G1 X4.500 Y50.500
G1 X4.750 Y50.250
G1 X4.750 Y50.250
G1 X5.000 Y50.000
G1 X5.250 Y49.750
G1 X5.500 Y49.500
G1 X5.500 Y49.500
G1 X5.750 Y49.250
G1 X6.000 Y49.000
G1 X6.000 Y49.000
G1 X6.250 Y48.750
G1 X6.500 Y48.500
G1 X6.750 Y48.500
G1 X6.750 Y48.250
G1 X7.000 Y48.000
G1 X7.250 Y47.750
G1 X7.250 Y47.750
G1 X7.500 Y47.500
G1 X7.750 Y47.250
G1 X8.000 Y47.250
G1 X8.000 Y47.000
G1 X8.250 Y46.750
G1 X8.500 Y46.500
G1 X8.500 Y46.500
G1 X8.750 Y46.250
G1 X9.000 Y46.000
G1 X9.000 Y46.000
G1 X9.250 Y45.750
G1 X9.500 Y45.500
G1 X9.750 Y45.250
G1 X9.750 Y45.250
G1 X10.000 Y45.000
G1 X10.250 Y44.750
G1 X10.250 Y44.750
G1 X10.500 Y44.500
G1 X10.750 Y44.250
G1 X11.000 Y44.250
G1 X11.000 Y44.000
G1 X11.250 Y43.750
G1 X11.500 Y43.500
G1 X11.500 Y43.500
G1 X11.750 Y43.250
G1 X12.000 Y43.000
G1 X12.000 Y43.000
G1 X12.250 Y42.750
G1 X12.500 Y42.500
G1 X12.750 Y42.250
G1 X12.750 Y42.250
G1 X13.000 Y42.000
G1 X13.250 Y41.750
G1 X13.250 Y41.750
G1 X13.500 Y41.500
G1 X13.750 Y41.250
G1 X14.000 Y41.250
G1 X14.000 Y41.000
G1 X14.250 Y40.750
G1 X14.500 Y40.500
G1 X14.500 Y40.500
G1 X14.750 Y40.250
G1 X15.000 Y40.000
G1 X15.000 Y40.000
G1 X15.250 Y39.750
G1 X15.500 Y39.500
G0 Z2.000 F3000

; --- CIKEL NAMAKANJA ---
G0 Z2.000 F3000
M400
M204 P600 T600
G1 F1300
G0 X53.422 Y0.000 Z8.000
G1 Z1.000 F3000
G1 X53.422 Y0.000 F2500
G1 X53.422 Y1.750 F2500
G1 X49.922 Y0.000 F2500
G1 X53.422 Y0.000 F2500
G0 Z3.000 F3000
G0 X44.190 Y13.441
G0 Z8.000 F3000
G0 X15.750 Y39.250 Z2.000
M400
M204 P200 T200
G1 F600
G1 Z0.000 F2500
G1 X15.750 Y39.250
G1 X15.750 Y39.250
G1 X16.000 Y39.000
G1 X16.250 Y38.750
G1 X16.250 Y38.750
G1 X16.500 Y38.500
G1 X16.750 Y38.250
G1 X17.000 Y38.250
G1 X17.000 Y38.000
G1 X17.250 Y37.750
G1 X17.500 Y37.500
G1 X17.500 Y37.500
G1 X17.750 Y37.250
G1 X18.000 Y37.000
G1 X18.250 Y37.000
G1 X18.250 Y36.750
G1 X18.500 Y36.500
G1 X18.750 Y36.250
G1 X18.750 Y36.250
G1 X19.000 Y36.000
G1 X19.250 Y35.750
G1 X19.250 Y35.750
G1 X19.500 Y35.500
G1 X19.750 Y35.250
G1 X20.000 Y35.000
G1 X20.000 Y35.000
G1 X20.250 Y34.750
G1 X20.500 Y34.500
G1 X20.500 Y34.500
G1 X20.750 Y34.250
G1 X21.000 Y34.000
G1 X21.250 Y34.000
G1 X21.250 Y33.750
G1 X21.500 Y33.500
G1 X21.750 Y33.250
G1 X21.750 Y33.250
G1 X22.000 Y33.000
G1 X22.250 Y32.750
G1 X22.250 Y32.750
G1 X22.500 Y32.500
G1 X22.750 Y32.250
G1 X23.000 Y32.000
G1 X23.000 Y32.000
G1 X23.250 Y31.750
G1 X23.500 Y31.500
G1 X23.500 Y31.500
G1 X23.750 Y31.250
G1 X24.000 Y31.000
G1 X24.250 Y31.000
G1 X24.250 Y30.750
G1 X24.500 Y30.500
G1 X24.750 Y30.250
G1 X24.750 Y30.250
G1 X25.000 Y30.000
G1 X25.250 Y29.750
G1 X25.500 Y29.750
G1 X25.500 Y29.500
G1 X25.750 Y29.250
G1 X26.000 Y29.000
G1 X26.000 Y29.000
G0 Z2.000 F3000
M400
M204 P600 T600
G1 F1300
G0 X27.250 Y29.000 Z2.000
M400
M204 P200 T200
G1 F600
G1 Z0.000 F2500
G1 X27.000 Y29.000
G1 X26.750 Y29.250
G1 X26.500 Y29.500
G1 X26.500 Y29.750
G1 X26.250 Y29.750
G1 X26.000 Y30.000
G1 X26.000 Y30.250
G1 X25.750 Y30.250
G1 X25.500 Y30.500
G1 X25.500 Y30.750
G1 X25.250 Y31.000
G1 X25.000 Y31.000
G1 X24.750 Y31.250
G1 X24.750 Y31.500
G1 X24.500 Y31.500
G1 X24.250 Y31.750
G1 X24.250 Y32.000
G1 X24.000 Y32.000
G1 X23.750 Y32.250
G1 X23.500 Y32.500
G1 X23.500 Y32.750
G1 X23.250 Y32.750
G1 X23.000 Y33.000
G1 X23.000 Y33.250
G1 X22.750 Y33.250
G1 X22.500 Y33.500
G1 X22.250 Y33.750
G1 X22.250 Y34.000
G1 X22.000 Y34.000
G1 X21.750 Y34.250
G1 X21.750 Y34.500
G1 X21.500 Y34.500
G1 X21.250 Y34.750
G1 X21.250 Y35.000
G1 X21.000 Y35.000
G1 X20.750 Y35.250
G1 X20.500 Y35.500
G1 X20.500 Y35.750
G1 X20.250 Y35.750
G1 X20.000 Y36.000
G1 X20.000 Y36.250
G1 X19.750 Y36.250
G1 X19.500 Y36.500
G1 X19.250 Y36.750
G1 X19.250 Y37.000
G1 X19.000 Y37.000
G1 X18.750 Y37.250
G1 X18.750 Y37.500
G1 X18.500 Y37.500
G1 X18.250 Y37.750
G1 X18.250 Y38.000
G1 X18.000 Y38.250
G1 X17.750 Y38.250
G1 X17.500 Y38.500
G1 X17.500 Y38.750
G1 X17.250 Y38.750
G1 X17.000 Y39.000
G1 X17.000 Y39.250
G1 X16.750 Y39.250
G1 X16.500 Y39.500
G1 X16.250 Y39.750
G1 X16.250 Y40.000
G1 X16.000 Y40.000
G1 X15.750 Y40.250
G1 X15.750 Y40.500
G1 X15.500 Y40.500
G1 X15.250 Y40.750
G1 X15.000 Y41.000
G1 X15.000 Y41.250
G1 X14.750 Y41.250
G1 X14.500 Y41.500
G1 X14.500 Y41.750
G1 X14.250 Y41.750
G1 X14.000 Y42.000
G1 X14.000 Y42.250
G1 X13.750 Y42.250
G1 X13.500 Y42.500
G1 X13.250 Y42.750
G1 X13.250 Y43.000
G1 X13.000 Y43.000
G1 X12.750 Y43.250
G1 X12.750 Y43.500
G1 X12.500 Y43.500
G1 X12.250 Y43.750
G1 X12.000 Y44.000
G1 X12.000 Y44.250
G1 X11.750 Y44.250
G1 X11.500 Y44.500
G1 X11.500 Y44.750
G1 X11.250 Y44.750
G1 X11.000 Y45.000
G1 X11.000 Y45.250
G1 X10.750 Y45.250
G1 X10.500 Y45.500
G1 X10.250 Y45.750
G1 X10.250 Y46.000
G1 X10.000 Y46.000
G1 X9.750 Y46.250
G1 X9.750 Y46.500
G1 X9.500 Y46.500
G1 X9.250 Y46.750
G1 X9.000 Y47.000
G1 X9.000 Y47.250
G1 X8.750 Y47.250
G1 X8.500 Y47.500
G1 X8.500 Y47.750
G1 X8.250 Y47.750
G1 X8.000 Y48.000
G1 X8.000 Y48.250
G1 X7.750 Y48.500
G1 X7.500 Y48.500
G1 X7.250 Y48.750
G1 X7.250 Y49.000
G1 X7.000 Y49.000
G1 X6.750 Y49.250
G1 X6.750 Y49.500
G1 X6.500 Y49.500
G1 X6.250 Y49.750
G1 X6.000 Y50.000
G1 X6.000 Y50.250
G1 X5.750 Y50.250
G1 X5.500 Y50.500
G1 X5.500 Y50.750
G1 X5.250 Y50.750
G1 X5.000 Y51.000
G1 X4.750 Y51.250
G1 X4.750 Y51.500
G1 X4.500 Y51.500
G1 X4.250 Y51.750
G1 X4.250 Y52.000
G1 X4.000 Y52.000
G1 X3.750 Y52.250
G1 X3.750 Y52.500
G1 X3.500 Y52.500
G1 X3.250 Y52.750
G1 X3.000 Y53.000
G1 X3.000 Y53.250
G1 X2.750 Y53.250
G1 X2.500 Y53.500
G1 X2.500 Y53.750
G1 X2.250 Y53.750
G1 X2.000 Y54.000
G1 X1.750 Y54.250
G1 X1.750 Y54.500
G1 X1.500 Y54.500
G1 X1.250 Y54.750
G1 X1.250 Y55.000
G1 X1.000 Y55.000
G1 X0.750 Y55.250
G1 X0.750 Y55.500
G1 X0.500 Y55.750
G1 X0.250 Y55.750
G1 X0.000 Y56.000
G1 X0.000 Y56.250
G1 X0.000 Y56.250
G0 Z2.000 F3000
M400
M204 P600 T600
G1 F1300
G0 X0.000 Y57.500 Z2.000
M400
M204 P200 T200
G1 F600
G1 Z0.000 F2500
G1 X0.000 Y57.250
G1 X0.000 Y57.000
G1 X0.250 Y56.750
G1 X0.500 Y56.750
G1 X0.750 Y56.500
G1 X0.750 Y56.250
G1 X1.000 Y56.250
G1 X1.250 Y56.000
G1 X1.250 Y55.750
G1 X1.500 Y55.750
G1 X1.750 Y55.500
G1 X1.750 Y55.250
G1 X2.000 Y55.000
G1 X2.250 Y55.000
G1 X2.500 Y54.750
G1 X2.500 Y54.500
G1 X2.750 Y54.500
G1 X3.000 Y54.250
G1 X3.000 Y54.000
G1 X3.250 Y53.750
G1 X3.500 Y53.750
G1 X3.750 Y53.500
G1 X3.750 Y53.250
G1 X4.000 Y53.250
G1 X4.250 Y53.000
G1 X4.250 Y52.750
G1 X4.500 Y52.500
G1 X4.750 Y52.500
G1 X4.750 Y52.250
G1 X5.000 Y52.000
G1 X5.250 Y52.000
G1 X5.500 Y51.750
G1 X5.500 Y51.500
G1 X5.750 Y51.500
G1 X6.000 Y51.250
G1 X6.000 Y51.000
G1 X6.250 Y50.750
G1 X6.500 Y50.750
G1 X6.750 Y50.500
G1 X6.750 Y50.250
G1 X7.000 Y50.250
G1 X7.250 Y50.000
G1 X7.250 Y49.750
G1 X7.500 Y49.500
G1 X7.750 Y49.500
G1 X8.000 Y49.250
G1 X8.000 Y49.000
G1 X8.250 Y49.000
G1 X8.500 Y48.750
G1 X8.500 Y48.500
G1 X8.750 Y48.500
G1 X9.000 Y48.250
G1 X9.000 Y48.000
G1 X9.250 Y47.750
G1 X9.500 Y47.750
G1 X9.750 Y47.500
G1 X9.750 Y47.250
G1 X10.000 Y47.250
G1 X10.250 Y47.000
G1 X10.250 Y46.750
G1 X10.500 Y46.500
G1 X10.750 Y46.500
G1 X11.000 Y46.250
G1 X11.000 Y46.000
G1 X11.250 Y46.000
G1 X11.500 Y45.750
G1 X11.500 Y45.500
G1 X11.750 Y45.250
G1 X12.000 Y45.250
G1 X12.000 Y45.000
G1 X12.250 Y44.750
G1 X12.500 Y44.750
G1 X12.750 Y44.500
G1 X12.750 Y44.250
G1 X13.000 Y44.250
G1 X13.250 Y44.000
G1 X13.250 Y43.750
G1 X13.500 Y43.500
G1 X13.750 Y43.500
G1 X14.000 Y43.250
G1 X14.000 Y43.000
G1 X14.250 Y43.000
G1 X14.500 Y42.750
G1 X14.500 Y42.500
G1 X14.750 Y42.250
G1 X15.000 Y42.250
G1 X15.000 Y42.000
G1 X15.250 Y41.750
G1 X15.500 Y41.750
G1 X15.750 Y41.500
G1 X15.750 Y41.250
G1 X16.000 Y41.250
G1 X16.250 Y41.000
G1 X16.250 Y40.750
G1 X16.500 Y40.500
G1 X16.750 Y40.500
G1 X17.000 Y40.250
G1 X17.000 Y40.000
G1 X17.250 Y40.000
G1 X17.500 Y39.750
G1 X17.500 Y39.500
G1 X17.750 Y39.250
G1 X18.000 Y39.250
G1 X18.250 Y39.000
G1 X18.250 Y38.750
G1 X18.500 Y38.750
G1 X18.750 Y38.500
G1 X18.750 Y38.250
G1 X19.000 Y38.250
G1 X19.250 Y38.000
G1 X19.250 Y37.750
G0 Z2.000 F3000

; --- CIKEL NAMAKANJA ---
G0 Z2.000 F3000
M400
M204 P600 T600
G1 F1300
G0 X52.133 Y0.000 Z8.000
G1 Z1.000 F3000
G1 X52.133 Y0.000 F2500
G1 X52.133 Y1.750 F2500
G1 X48.633 Y0.000 F2500
G1 X52.133 Y0.000 F2500
G0 Z3.000 F3000
G0 X44.495 Y13.770
G0 Z8.000 F3000
G0 X19.500 Y37.500 Z2.000
M400
M204 P200 T200
G1 F600
G1 Z0.000 F2500
G1 X19.500 Y37.500
G1 X19.750 Y37.500
G1 X20.000 Y37.250
G1 X20.000 Y37.000
G1 X20.250 Y37.000
G1 X20.500 Y36.750
G1 X20.500 Y36.500
G1 X20.750 Y36.250
G1 X21.000 Y36.250
G1 X21.250 Y36.000
G1 X21.250 Y35.750
G1 X21.500 Y35.750
G1 X21.750 Y35.500
G1 X21.750 Y35.250
G1 X22.000 Y35.000
G1 X22.250 Y35.000
G1 X22.250 Y34.750
G1 X22.500 Y34.500
G1 X22.750 Y34.500
G1 X23.000 Y34.250
G1 X23.000 Y34.000
G1 X23.250 Y34.000
G1 X23.500 Y33.750
G1 X23.500 Y33.500
G1 X23.750 Y33.250
G1 X24.000 Y33.250
G1 X24.250 Y33.000
G1 X24.250 Y32.750
G1 X24.500 Y32.750
G1 X24.750 Y32.500
G1 X24.750 Y32.250
G1 X25.000 Y32.000
G1 X25.250 Y32.000
G1 X25.500 Y31.750
G1 X25.500 Y31.500
G1 X25.750 Y31.500
G1 X26.000 Y31.250
G1 X26.000 Y31.000
G1 X26.250 Y31.000
G1 X26.500 Y30.750
G1 X26.500 Y30.500
G1 X26.750 Y30.250
G1 X27.000 Y30.250
G1 X27.250 Y30.000
G1 X27.250 Y29.750
G1 X27.500 Y29.750
G1 X27.750 Y29.500
G1 X27.750 Y29.250
G1 X28.000 Y29.000
G1 X28.250 Y29.000
G0 Z2.000 F3000
M400
M204 P600 T600
G1 F1300
G0 X29.250 Y29.000 Z2.000
M400
M204 P200 T200
G1 F600
G1 Z0.000 F2500
G1 X29.000 Y29.000
G1 X29.000 Y29.250
G1 X28.750 Y29.500
G1 X28.500 Y29.750
G1 X28.500 Y29.750
G1 X28.250 Y30.000
G1 X28.000 Y30.250
G1 X27.750 Y30.250
G1 X27.750 Y30.500
G1 X27.500 Y30.750
G1 X27.250 Y31.000
G1 X27.250 Y31.000
G1 X27.000 Y31.250
G1 X26.750 Y31.500
G1 X26.500 Y31.500
G1 X26.500 Y31.750
G1 X26.250 Y32.000
G1 X26.000 Y32.000
G1 X26.000 Y32.250
G1 X25.750 Y32.500
G1 X25.500 Y32.750
G1 X25.500 Y32.750
G1 X25.250 Y33.000
G1 X25.000 Y33.250
G1 X24.750 Y33.250
G1 X24.750 Y33.500
G1 X24.500 Y33.750
G1 X24.250 Y34.000
G1 X24.250 Y34.000
G1 X24.000 Y34.250
G1 X23.750 Y34.500
G1 X23.500 Y34.500
G1 X23.500 Y34.750
G1 X23.250 Y35.000
G1 X23.000 Y35.000
G1 X23.000 Y35.250
G1 X22.750 Y35.500
G1 X22.500 Y35.750
G1 X22.250 Y35.750
G1 X22.250 Y36.000
G1 X22.000 Y36.250
G1 X21.750 Y36.250
G1 X21.750 Y36.500
G1 X21.500 Y36.750
G1 X21.250 Y37.000
G1 X21.250 Y37.000
G1 X21.000 Y37.250
G1 X20.750 Y37.500
G1 X20.500 Y37.500
G1 X20.500 Y37.750
G1 X20.250 Y38.000
G1 X20.000 Y38.250
G1 X20.000 Y38.250
G1 X19.750 Y38.500
G1 X19.500 Y38.750
G1 X19.250 Y38.750
G1 X19.250 Y39.000
G1 X19.000 Y39.250
G1 X18.750 Y39.250
G1 X18.750 Y39.500
G1 X18.500 Y39.750
G1 X18.250 Y40.000
G1 X18.250 Y40.000
G1 X18.000 Y40.250
G1 X17.750 Y40.500
G1 X17.500 Y40.500
G1 X17.500 Y40.750
G1 X17.250 Y41.000
G1 X17.000 Y41.250
G1 X17.000 Y41.250
G1 X16.750 Y41.500
G1 X16.500 Y41.750
G1 X16.250 Y41.750
G1 X16.250 Y42.000
G1 X16.000 Y42.250
G1 X15.750 Y42.250
G1 X15.750 Y42.500
G1 X15.500 Y42.750
G1 X15.250 Y43.000
G1 X15.000 Y43.000
G1 X15.000 Y43.250
G1 X14.750 Y43.500
G1 X14.500 Y43.500
G1 X14.500 Y43.750
G1 X14.250 Y44.000
G1 X14.000 Y44.250
G1 X14.000 Y44.250
G1 X13.750 Y44.500
G1 X13.500 Y44.750
G1 X13.250 Y44.750
G1 X13.250 Y45.000
G1 X13.000 Y45.250
G1 X12.750 Y45.250
G1 X12.750 Y45.500
G1 X12.500 Y45.750
G1 X12.250 Y46.000
G1 X12.000 Y46.000
G1 X12.000 Y46.250
G1 X11.750 Y46.500
G1 X11.500 Y46.500
G1 X11.500 Y46.750
G1 X11.250 Y47.000
G1 X11.000 Y47.250
G1 X11.000 Y47.250
G1 X10.750 Y47.500
G1 X10.500 Y47.750
G1 X10.250 Y47.750
G1 X10.250 Y48.000
G1 X10.000 Y48.250
G1 X9.750 Y48.500
G1 X9.750 Y48.500
G1 X9.500 Y48.750
G1 X9.250 Y49.000
G1 X9.000 Y49.000
G1 X9.000 Y49.250
G1 X8.750 Y49.500
G1 X8.500 Y49.500
G1 X8.500 Y49.750
G1 X8.250 Y50.000
G1 X8.000 Y50.250
G1 X8.000 Y50.250
G1 X7.750 Y50.500
G1 X7.500 Y50.750
G1 X7.250 Y50.750
G1 X7.250 Y51.000
G1 X7.000 Y51.250
G1 X6.750 Y51.500
G1 X6.750 Y51.500
G1 X6.500 Y51.750
G1 X6.250 Y52.000
G1 X6.000 Y52.000
G1 X6.000 Y52.250
G1 X5.750 Y52.500
G1 X5.500 Y52.500
G1 X5.500 Y52.750
G1 X5.250 Y53.000
G1 X5.000 Y53.250
G1 X4.750 Y53.250
G1 X4.750 Y53.500
G1 X4.500 Y53.750
G1 X4.250 Y53.750
G1 X4.250 Y54.000
G1 X4.000 Y54.250
G1 X3.750 Y54.500
G1 X3.750 Y54.500
G1 X3.500 Y54.750
G1 X3.250 Y55.000
G1 X3.000 Y55.000
G1 X3.000 Y55.250
G1 X2.750 Y55.500
G1 X2.500 Y55.750
G1 X2.500 Y55.750
G1 X2.250 Y56.000
G1 X2.000 Y56.250
G1 X1.750 Y56.250
G1 X1.750 Y56.500
G1 X1.500 Y56.750
G1 X1.250 Y56.750
G1 X1.250 Y57.000
G1 X1.000 Y57.250
G1 X0.750 Y57.500
G1 X0.750 Y57.500
G1 X0.500 Y57.750
G1 X0.250 Y58.000
G1 X0.000 Y58.000
G1 X0.000 Y58.250
G1 X0.000 Y58.500
G0 Z2.000 F3000
M400
M204 P600 T600
G1 F1300
G0 X0.000 Y59.500 Z2.000
M400
M204 P200 T200
G1 F600
G1 Z0.000 F2500
G1 X0.000 Y59.250
G1 X0.000 Y59.250
G1 X0.250 Y59.000
G1 X0.500 Y58.750
G1 X0.750 Y58.750
G1 X0.750 Y58.500
G1 X1.000 Y58.250
G1 X1.250 Y58.000
G1 X1.250 Y58.000
G1 X1.500 Y57.750
G1 X1.750 Y57.500
G1 X1.750 Y57.500
G1 X2.000 Y57.250
G1 X2.250 Y57.000
G1 X2.500 Y56.750
G1 X2.500 Y56.750
G1 X2.750 Y56.500
G1 X3.000 Y56.250
G1 X3.000 Y56.250
G1 X3.250 Y56.000
G1 X3.500 Y55.750
G1 X3.750 Y55.750
G1 X3.750 Y55.500
G1 X4.000 Y55.250
G1 X4.250 Y55.000
G1 X4.250 Y55.000
G1 X4.500 Y54.750
G1 X4.750 Y54.500
G1 X4.750 Y54.500
G1 X5.000 Y54.250
G1 X5.250 Y54.000
G1 X5.500 Y53.750
G1 X5.500 Y53.750
G1 X5.750 Y53.500
G1 X6.000 Y53.250
G1 X6.000 Y53.250
G1 X6.250 Y53.000
G1 X6.500 Y52.750
G1 X6.750 Y52.500
G1 X6.750 Y52.500
G1 X7.000 Y52.250
G1 X7.250 Y52.000
G1 X7.250 Y52.000
G1 X7.500 Y51.750
G1 X7.750 Y51.500
G1 X8.000 Y51.500
G1 X8.000 Y51.250
G1 X8.250 Y51.000
G1 X8.500 Y50.750
G1 X8.500 Y50.750
G1 X8.750 Y50.500
G1 X9.000 Y50.250
G1 X9.000 Y50.250
G1 X9.250 Y50.000
G1 X9.500 Y49.750
G1 X9.750 Y49.500
G1 X9.750 Y49.500
G1 X10.000 Y49.250
G1 X10.250 Y49.000
G1 X10.250 Y49.000
G1 X10.500 Y48.750
G1 X10.750 Y48.500
G1 X11.000 Y48.500
G1 X11.000 Y48.250
G1 X11.250 Y48.000
G1 X11.500 Y47.750
G1 X11.500 Y47.750
G1 X11.750 Y47.500
G1 X12.000 Y47.250
G1 X12.000 Y47.250
G1 X12.250 Y47.000
G1 X12.500 Y46.750
G1 X12.750 Y46.500
G1 X12.750 Y46.500
G1 X13.000 Y46.250
G1 X13.250 Y46.000
G1 X13.250 Y46.000
G1 X13.500 Y45.750
G1 X13.750 Y45.500
G1 X14.000 Y45.250
G1 X14.000 Y45.250
G1 X14.250 Y45.000
G1 X14.500 Y44.750
G1 X14.500 Y44.750
G1 X14.750 Y44.500
G1 X15.000 Y44.250
G1 X15.000 Y44.250
G1 X15.250 Y44.000
G1 X15.500 Y43.750
G1 X15.750 Y43.500
G1 X15.750 Y43.500
G1 X16.000 Y43.250
G1 X16.250 Y43.000
G1 X16.250 Y43.000
G1 X16.500 Y42.750
G1 X16.750 Y42.500
G1 X17.000 Y42.250
G1 X17.000 Y42.250
G1 X17.250 Y42.000
G1 X17.500 Y41.750
G1 X17.500 Y41.750
G1 X17.750 Y41.500
G1 X18.000 Y41.250
G1 X18.250 Y41.250
G1 X18.250 Y41.000
G1 X18.500 Y40.750
G1 X18.750 Y40.500
G1 X18.750 Y40.500
G1 X19.000 Y40.250
G1 X19.250 Y40.000
G1 X19.250 Y40.000
G1 X19.500 Y39.750
G1 X19.750 Y39.500
G1 X20.000 Y39.250
G1 X20.000 Y39.250
G1 X20.250 Y39.000
G1 X20.500 Y38.750
G1 X20.500 Y38.750
G1 X20.750 Y38.500
G1 X21.000 Y38.250
G1 X21.250 Y38.250
G1 X21.250 Y38.000
G1 X21.500 Y37.750
G1 X21.750 Y37.500
G1 X21.750 Y37.500
G1 X22.000 Y37.250
G1 X22.250 Y37.000
G1 X22.250 Y37.000
G1 X22.500 Y36.750
G0 Z2.000 F3000

; --- CIKEL NAMAKANJA ---
G0 Z2.000 F3000
M400
M204 P600 T600
G1 F1300
G0 X65.071 Y4.289 Z8.000
G1 Z1.000 F3000
G1 X65.071 Y4.289 F2500
G1 X65.071 Y6.039 F2500
G1 X61.571 Y4.289 F2500
G1 X65.071 Y0.000 F2500
G0 Z3.000 F3000
G0 X44.907 Y14.191
G0 Z8.000 F3000
G0 X22.750 Y36.500 Z2.000
M400
M204 P200 T200
G1 F600
G1 Z0.000 F2500
G1 X22.750 Y36.500
G1 X23.000 Y36.250
G1 X23.000 Y36.250
G1 X23.250 Y36.000
G1 X23.500 Y35.750
G1 X23.500 Y35.750
G1 X23.750 Y35.500
G1 X24.000 Y35.250
G1 X24.250 Y35.000
G1 X24.250 Y35.000
G1 X24.500 Y34.750
G1 X24.750 Y34.500
G1 X24.750 Y34.500
G1 X25.000 Y34.250
G1 X25.250 Y34.000
G1 X25.500 Y34.000
G1 X25.500 Y33.750
G1 X25.750 Y33.500
G1 X26.000 Y33.250
G1 X26.000 Y33.250
G1 X26.250 Y33.000
G1 X26.500 Y32.750
G1 X26.500 Y32.750
G1 X26.750 Y32.500
G1 X27.000 Y32.250
G1 X27.250 Y32.000
G1 X27.250 Y32.000
G1 X27.500 Y31.750
G1 X27.750 Y31.500
G1 X27.750 Y31.500
G1 X28.000 Y31.250
G1 X28.250 Y31.000
G1 X28.500 Y31.000
G1 X28.500 Y30.750
G1 X28.750 Y30.500
G1 X29.000 Y30.250
G1 X29.000 Y30.250
G1 X29.250 Y30.000
G1 X29.500 Y29.750
G1 X29.500 Y29.750
G1 X29.750 Y29.500
G1 X30.000 Y29.250
G1 X30.250 Y29.000
G1 X30.250 Y29.000
G0 Z2.000 F3000
M400
M204 P600 T600
G1 F1300
G0 X31.500 Y29.000 Z2.000
M400
M204 P200 T200
G1 F600
G1 Z0.000 F2500
G1 X31.250 Y29.000
G1 X31.000 Y29.250
G1 X30.750 Y29.500
G1 X30.750 Y29.750
G1 X30.500 Y29.750
G1 X30.250 Y30.000
G1 X30.250 Y30.250
G1 X30.000 Y30.250
G1 X29.750 Y30.500
G1 X29.500 Y30.750
G1 X29.500 Y31.000
G1 X29.250 Y31.000
G1 X29.000 Y31.250
G1 X29.000 Y31.500
G1 X28.750 Y31.500
G1 X28.500 Y31.750
G1 X28.500 Y32.000
G1 X28.250 Y32.000
G1 X28.000 Y32.250
G1 X27.750 Y32.500
G1 X27.750 Y32.750
G1 X27.500 Y32.750
G1 X27.250 Y33.000
G1 X27.250 Y33.250
G1 X27.000 Y33.250
G1 X26.750 Y33.500
G1 X26.500 Y33.750
G1 X26.500 Y34.000
G1 X26.250 Y34.000
G1 X26.000 Y34.250
G1 X26.000 Y34.500
G1 X25.750 Y34.500
G1 X25.500 Y34.750
G1 X25.500 Y35.000
G1 X25.250 Y35.000
G1 X25.000 Y35.250
G1 X24.750 Y35.500
G1 X24.750 Y35.750
G1 X24.500 Y35.750
G1 X24.250 Y36.000
G1 X24.250 Y36.250
G1 X24.000 Y36.250
G1 X23.750 Y36.500
G1 X23.500 Y36.750
G1 X23.500 Y37.000
G1 X23.250 Y37.000
G1 X23.000 Y37.250
G1 X23.000 Y37.500
G1 X22.750 Y37.500
G1 X22.500 Y37.750
G1 X22.250 Y38.000
G1 X22.250 Y38.250
G1 X22.000 Y38.250
G1 X21.750 Y38.500
G1 X21.750 Y38.750
G1 X21.500 Y38.750
G1 X21.250 Y39.000
G1 X21.250 Y39.250
G1 X21.000 Y39.250
G1 X20.750 Y39.500
G1 X20.500 Y39.750
G1 X20.500 Y40.000
G1 X20.250 Y40.000
G1 X20.000 Y40.250
G1 X20.000 Y40.500
G1 X19.750 Y40.500
G1 X19.500 Y40.750
G1 X19.250 Y41.000
G1 X19.250 Y41.250
G1 X19.000 Y41.250
G1 X18.750 Y41.500
G1 X18.750 Y41.750
G1 X18.500 Y41.750
G1 X18.250 Y42.000
G1 X18.250 Y42.250
G1 X18.000 Y42.250
G1 X17.750 Y42.500
G1 X17.500 Y42.750
G1 X17.500 Y43.000
G1 X17.250 Y43.000
G1 X17.000 Y43.250
G1 X17.000 Y43.500
G1 X16.750 Y43.500
G1 X16.500 Y43.750
G1 X16.250 Y44.000
G1 X16.250 Y44.250
G1 X16.000 Y44.250
G1 X15.750 Y44.500
G1 X15.750 Y44.750
G1 X15.500 Y44.750
G1 X15.250 Y45.000
G1 X15.000 Y45.250
G1 X15.000 Y45.250
G1 X14.750 Y45.500
G1 X14.500 Y45.750
G1 X14.500 Y46.000
G1 X14.250 Y46.000
G1 X14.000 Y46.250
G1 X14.000 Y46.500
G1 X13.750 Y46.500
G1 X13.500 Y46.750
G1 X13.250 Y47.000
G1 X13.250 Y47.250
G1 X13.000 Y47.250
G1 X12.750 Y47.500
G1 X12.750 Y47.750
G1 X12.500 Y47.750
G1 X12.250 Y48.000
G1 X12.000 Y48.250
G1 X12.000 Y48.500
G1 X11.750 Y48.500
G1 X11.500 Y48.750
G1 X11.500 Y49.000
G1 X11.250 Y49.000
G1 X11.000 Y49.250
G1 X11.000 Y49.500
G1 X10.750 Y49.500
G1 X10.500 Y49.750
G1 X10.250 Y50.000
G1 X10.250 Y50.250
G1 X10.000 Y50.250
G1 X9.750 Y50.500
G1 X9.750 Y50.750
G1 X9.500 Y50.750
G1 X9.250 Y51.000
G1 X9.000 Y51.250
G1 X9.000 Y51.500
G1 X8.750 Y51.500
G1 X8.500 Y51.750
G1 X8.500 Y52.000
G1 X8.250 Y52.000
G1 X8.000 Y52.250
G1 X8.000 Y52.500
G1 X7.750 Y52.500
G1 X7.500 Y52.750
G1 X7.250 Y53.000
G1 X7.250 Y53.250
G1 X7.000 Y53.250
G1 X6.750 Y53.500
G1 X6.750 Y53.750
G1 X6.500 Y53.750
G1 X6.250 Y54.000
G1 X6.000 Y54.250
G1 X6.000 Y54.500
G1 X5.750 Y54.500
G1 X5.500 Y54.750
G1 X5.500 Y55.000
G1 X5.250 Y55.000
G1 X5.000 Y55.250
G1 X4.750 Y55.500
G1 X4.750 Y55.750
G1 X4.500 Y55.750
G1 X4.250 Y56.000
G1 X4.250 Y56.250
G1 X4.000 Y56.250
G1 X3.750 Y56.500
G1 X3.750 Y56.750
G1 X3.500 Y56.750
G1 X3.250 Y57.000
G1 X3.000 Y57.250
G1 X3.000 Y57.500
G1 X2.750 Y57.500
G1 X2.500 Y57.750
G1 X2.500 Y58.000
G1 X2.250 Y58.000
G1 X2.000 Y58.250
G1 X1.750 Y58.500
G1 X1.750 Y58.750
G1 X1.500 Y58.750
G1 X1.250 Y59.000
G1 X1.250 Y59.250
G1 X1.000 Y59.250
G1 X0.750 Y59.500
G1 X0.750 Y59.750
G1 X0.500 Y59.750
G1 X0.250 Y60.000
G1 X0.000 Y60.250
G1 X0.000 Y60.500
G1 X0.000 Y60.500
G0 Z2.000 F3000
M400
M204 P600 T600
G1 F1300
G0 X0.000 Y61.750 Z2.000
M400
M204 P200 T200
G1 F600
G1 Z0.000 F2500
G1 X0.000 Y61.500
G1 X0.000 Y61.250
G1 X0.250 Y61.000
G1 X0.500 Y61.000
G1 X0.750 Y60.750
G1 X0.750 Y60.500
G1 X1.000 Y60.500
G1 X1.250 Y60.250
G1 X1.250 Y60.000
G1 X1.500 Y59.750
G1 X1.750 Y59.750
G1 X1.750 Y59.500
G1 X2.000 Y59.250
G1 X2.250 Y59.250
G1 X2.500 Y59.000
G1 X2.500 Y58.750
G1 X2.750 Y58.750
G1 X3.000 Y58.500
G1 X3.000 Y58.250
G1 X3.250 Y58.000
G1 X3.500 Y58.000
G1 X3.750 Y57.750
G1 X3.750 Y57.500
G1 X4.000 Y57.500
G1 X4.250 Y57.250
G1 X4.250 Y57.000
G1 X4.500 Y56.750
G1 X4.750 Y56.750
G1 X4.750 Y56.500
G1 X5.000 Y56.250
G1 X5.250 Y56.250
G1 X5.500 Y56.000
G1 X5.500 Y55.750
G1 X5.750 Y55.750
G1 X6.000 Y55.500
G1 X6.000 Y55.250
G1 X6.250 Y55.000
G1 X6.500 Y55.000
G1 X6.750 Y54.750
G1 X6.750 Y54.500
G1 X7.000 Y54.500
G1 X7.250 Y54.250
G1 X7.250 Y54.000
G1 X7.500 Y53.750
G1 X7.750 Y53.750
G1 X8.000 Y53.500
G1 X8.000 Y53.250
G1 X8.250 Y53.250
G1 X8.500 Y53.000
G1 X8.500 Y52.750
G1 X8.750 Y52.500
G1 X9.000 Y52.500
G1 X9.000 Y52.250
G1 X9.250 Y52.000
G1 X9.500 Y52.000
G1 X9.750 Y51.750
G1 X9.750 Y51.500
G1 X10.000 Y51.500
G1 X10.250 Y51.250
G1 X10.250 Y51.000
G1 X10.500 Y50.750
G1 X10.750 Y50.750
G1 X11.000 Y50.500
G1 X11.000 Y50.250
G1 X11.250 Y50.250
G1 X11.500 Y50.000
G1 X11.500 Y49.750
G1 X11.750 Y49.500
G1 X12.000 Y49.500
G1 X12.000 Y49.250
G1 X12.250 Y49.000
G1 X12.500 Y49.000
G1 X12.750 Y48.750
G0 Z2.000 F3000

; --- CIKEL NAMAKANJA ---
G0 Z2.000 F3000
M400
M204 P600 T600
G1 F1300
G0 X58.396 Y1.126 Z8.000
G1 Z1.000 F3000
G1 X58.396 Y1.126 F2500
G1 X58.396 Y2.876 F2500
G1 X54.896 Y1.126 F2500
G1 X58.396 Y0.000 F2500
G0 Z3.000 F3000
G0 X45.198 Y14.474
G0 Z8.000 F3000
G0 X12.750 Y48.500 Z2.000
M400
M204 P200 T200
G1 F600
G1 Z0.000 F2500
G1 X12.750 Y48.500
G1 X13.000 Y48.500
G1 X13.250 Y48.250
G1 X13.250 Y48.000
G1 X13.500 Y47.750
G1 X13.750 Y47.750
G1 X14.000 Y47.500
G1 X14.000 Y47.250
G1 X14.250 Y47.250
G1 X14.500 Y47.000
G1 X14.500 Y46.750
G1 X14.750 Y46.500
G1 X15.000 Y46.500
G1 X15.000 Y46.250
G1 X15.250 Y46.000
G1 X15.500 Y46.000
G1 X15.750 Y45.750
G1 X15.750 Y45.500
G1 X16.000 Y45.250
G1 X16.250 Y45.250
G1 X16.250 Y45.000
G1 X16.500 Y44.750
G1 X16.750 Y44.750
G1 X17.000 Y44.500
G1 X17.000 Y44.250
G1 X17.250 Y44.250
G1 X17.500 Y44.000
G1 X17.500 Y43.750
G1 X17.750 Y43.500
G1 X18.000 Y43.500
G1 X18.250 Y43.250
G1 X18.250 Y43.000
G1 X18.500 Y43.000
G1 X18.750 Y42.750
G1 X18.750 Y42.500
G1 X19.000 Y42.250
G1 X19.250 Y42.250
G1 X19.250 Y42.000
G1 X19.500 Y41.750
G1 X19.750 Y41.750
G1 X20.000 Y41.500
G1 X20.000 Y41.250
G1 X20.250 Y41.250
G1 X20.500 Y41.000
G1 X20.500 Y40.750
G1 X20.750 Y40.500
G1 X21.000 Y40.500
G1 X21.250 Y40.250
G1 X21.250 Y40.000
G1 X21.500 Y40.000
G1 X21.750 Y39.750
G1 X21.750 Y39.500
G1 X22.000 Y39.250
G1 X22.250 Y39.250
G1 X22.250 Y39.000
G1 X22.500 Y38.750
G1 X22.750 Y38.750
G1 X23.000 Y38.500
G1 X23.000 Y38.250
G1 X23.250 Y38.250
G1 X23.500 Y38.000
G1 X23.500 Y37.750
G1 X23.750 Y37.500
G1 X24.000 Y37.500
G1 X24.250 Y37.250
G1 X24.250 Y37.000
G1 X24.500 Y37.000
G1 X24.750 Y36.750
G1 X24.750 Y36.500
G1 X25.000 Y36.250
G1 X25.250 Y36.250
G1 X25.500 Y36.000
G1 X25.500 Y35.750
G1 X25.750 Y35.750
G1 X26.000 Y35.500
G1 X26.000 Y35.250
G1 X26.250 Y35.000
G1 X26.500 Y35.000
G1 X26.500 Y34.750
G1 X26.750 Y34.500
G1 X27.000 Y34.500
G1 X27.250 Y34.250
G1 X27.250 Y34.000
G1 X27.500 Y34.000
G1 X27.750 Y33.750
G1 X27.750 Y33.500
G1 X28.000 Y33.250
G1 X28.250 Y33.250
G1 X28.500 Y33.000
G1 X28.500 Y32.750
G1 X28.750 Y32.750
G1 X29.000 Y32.500
G1 X29.000 Y32.250
G1 X29.250 Y32.000
G1 X29.500 Y32.000
G1 X29.500 Y31.750
G1 X29.750 Y31.500
G1 X30.000 Y31.500
G1 X30.250 Y31.250
G1 X30.250 Y31.000
G1 X30.500 Y31.000
G1 X30.750 Y30.750
G1 X30.750 Y30.500
G1 X31.000 Y30.250
G1 X31.250 Y30.250
G1 X31.500 Y30.000
G1 X31.500 Y29.750
G1 X31.750 Y29.750
G1 X32.000 Y29.500
G1 X32.000 Y29.250
G1 X32.250 Y29.000
G1 X32.500 Y29.000
G0 Z2.000 F3000
M400
M204 P600 T600
G1 F1300
G0 X33.500 Y29.000 Z2.000
M400
M204 P200 T200
G1 F600
G1 Z0.000 F2500
G1 X33.250 Y29.000
G1 X33.250 Y29.250
G1 X33.000 Y29.500
G1 X32.750 Y29.750
G1 X32.750 Y29.750
G1 X32.500 Y30.000
G1 X32.250 Y30.250
G1 X32.000 Y30.250
G1 X32.000 Y30.500
G1 X31.750 Y30.750
G1 X31.500 Y31.000
G1 X31.500 Y31.000
G1 X31.250 Y31.250
G1 X31.000 Y31.500
G1 X30.750 Y31.500
G1 X30.750 Y31.750
G1 X30.500 Y32.000
G1 X30.250 Y32.000
G1 X30.250 Y32.250
G1 X30.000 Y32.500
G1 X29.750 Y32.750
G1 X29.500 Y32.750
G1 X29.500 Y33.000
G1 X29.250 Y33.250
G1 X29.000 Y33.250
G1 X29.000 Y33.500
G1 X28.750 Y33.750
G1 X28.500 Y34.000
G1 X28.500 Y34.000
G1 X28.250 Y34.250
G1 X28.000 Y34.500
G1 X27.750 Y34.500
G1 X27.750 Y34.750
G1 X27.500 Y35.000
G1 X27.250 Y35.000
G1 X27.250 Y35.250
G1 X27.000 Y35.500
G1 X26.750 Y35.750
G1 X26.500 Y35.750
G1 X26.500 Y36.000
G1 X26.250 Y36.250
G1 X26.000 Y36.250
G1 X26.000 Y36.500
G1 X25.750 Y36.750
G1 X25.500 Y37.000
G1 X25.500 Y37.000
G1 X25.250 Y37.250
G1 X25.000 Y37.500
G1 X24.750 Y37.500
G1 X24.750 Y37.750
G1 X24.500 Y38.000
G1 X24.250 Y38.250
G1 X24.250 Y38.250
G1 X24.000 Y38.500
G1 X23.750 Y38.750
G1 X23.500 Y38.750
G1 X23.500 Y39.000
G1 X23.250 Y39.250
G1 X23.000 Y39.250
G1 X23.000 Y39.500
G1 X22.750 Y39.750
G1 X22.500 Y40.000
G1 X22.250 Y40.000
G1 X22.250 Y40.250
G1 X22.000 Y40.500
G1 X21.750 Y40.500
G1 X21.750 Y40.750
G1 X21.500 Y41.000
G1 X21.250 Y41.250
G1 X21.250 Y41.250
G1 X21.000 Y41.500
G1 X20.750 Y41.750
G1 X20.500 Y41.750
G1 X20.500 Y42.000
G1 X20.250 Y42.250
G1 X20.000 Y42.250
G1 X20.000 Y42.500
G1 X19.750 Y42.750
G1 X19.500 Y43.000
G1 X19.250 Y43.000
G1 X19.250 Y43.250
G1 X19.000 Y43.500
G1 X18.750 Y43.500
G1 X18.750 Y43.750
G1 X18.500 Y44.000
G1 X18.250 Y44.250
G1 X18.250 Y44.250
G1 X18.000 Y44.500
G1 X17.750 Y44.750
G1 X17.500 Y44.750
G1 X17.500 Y45.000
G1 X17.250 Y45.250
G1 X17.000 Y45.250
G1 X17.000 Y45.500
G1 X16.750 Y45.750
G1 X16.500 Y46.000
G1 X16.250 Y46.000
G1 X16.250 Y46.250
G1 X16.000 Y46.500
G1 X15.750 Y46.500
G1 X15.750 Y46.750
G1 X15.500 Y47.000
G1 X15.250 Y47.250
G1 X15.000 Y47.250
G1 X15.000 Y47.500
G1 X14.750 Y47.750
G1 X14.500 Y47.750
G1 X14.500 Y48.000
G1 X14.250 Y48.250
G1 X14.000 Y48.500
G1 X14.000 Y48.500
G1 X13.750 Y48.750
G1 X13.500 Y49.000
G1 X13.250 Y49.000
G1 X13.250 Y49.250
G1 X13.000 Y49.500
G1 X12.750 Y49.500
G1 X12.750 Y49.750
G1 X12.500 Y50.000
G1 X12.250 Y50.250
G1 X12.000 Y50.250
G1 X12.000 Y50.500
G1 X11.750 Y50.750
G1 X11.500 Y50.750
G1 X11.500 Y51.000
G1 X11.250 Y51.250
G1 X11.000 Y51.500
G1 X11.000 Y51.500
G1 X10.750 Y51.750
G1 X10.500 Y52.000
G1 X10.250 Y52.000
G1 X10.250 Y52.250
G1 X10.000 Y52.500
G1 X9.750 Y52.500
G1 X9.750 Y52.750
G1 X9.500 Y53.000
G1 X9.250 Y53.250
G1 X9.000 Y53.250
G1 X9.000 Y53.500
G1 X8.750 Y53.750
G1 X8.500 Y53.750
G1 X8.500 Y54.000
G1 X8.250 Y54.250
G1 X8.000 Y54.500
G1 X8.000 Y54.500
G1 X7.750 Y54.750
G1 X7.500 Y55.000
G1 X7.250 Y55.000
G1 X7.250 Y55.250
G1 X7.000 Y55.500
G1 X6.750 Y55.750
G1 X6.750 Y55.750
G1 X6.500 Y56.000
G1 X6.250 Y56.250
G1 X6.000 Y56.250
G1 X6.000 Y56.500
G1 X5.750 Y56.750
G1 X5.500 Y56.750
G1 X5.500 Y57.000
G1 X5.250 Y57.250
G1 X5.000 Y57.500
G1 X4.750 Y57.500
G1 X4.750 Y57.750
G1 X4.500 Y58.000
G1 X4.250 Y58.000
G1 X4.250 Y58.250
G1 X4.000 Y58.500
G1 X3.750 Y58.750
G1 X3.750 Y58.750
G1 X3.500 Y59.000
G1 X3.250 Y59.250
G1 X3.000 Y59.250
G1 X3.000 Y59.500
G1 X2.750 Y59.750
G1 X2.500 Y59.750
G1 X2.500 Y60.000
G1 X2.250 Y60.250
G1 X2.000 Y60.500
G1 X1.750 Y60.500
G1 X1.750 Y60.750
G1 X1.500 Y61.000
G1 X1.250 Y61.000
G1 X1.250 Y61.250
G1 X1.000 Y61.500
G1 X0.750 Y61.750
G1 X0.750 Y61.750
G1 X0.500 Y62.000
G1 X0.250 Y62.250
G1 X0.000 Y62.250
G1 X0.000 Y62.500
G1 X0.000 Y62.750
G0 Z2.000 F3000
M400
M204 P600 T600
G1 F1300
G0 X0.000 Y63.750 Z2.000
M400
M204 P200 T200
G1 F600
G1 Z0.000 F2500
G1 X0.000 Y63.500
G1 X0.000 Y63.500
G1 X0.250 Y63.250
G1 X0.500 Y63.000
G0 Z2.000 F3000

; --- CIKEL NAMAKANJA ---
G0 Z2.000 F3000
M400
M204 P600 T600
G1 F1300
G0 X64.263 Y0.000 Z8.000
G1 Z1.000 F3000
G1 X64.263 Y0.000 F2500
G1 X64.263 Y1.750 F2500
G1 X60.763 Y0.000 F2500
G1 X64.263 Y0.000 F2500
G0 Z3.000 F3000
G0 X45.422 Y14.685
G0 Z8.000 F3000
G0 X0.750 Y63.000 Z2.000
M400
M204 P200 T200
G1 F600
G1 Z0.000 F2500
G1 X0.750 Y63.000
G1 X0.750 Y62.750
G1 X1.000 Y62.500
G1 X1.250 Y62.250
G1 X1.250 Y62.250
G1 X1.500 Y62.000
G1 X1.750 Y61.750
G1 X1.750 Y61.750
G1 X2.000 Y61.500
G1 X2.250 Y61.250
G1 X2.500 Y61.000
G1 X2.500 Y61.000
G1 X2.750 Y60.750
G1 X3.000 Y60.500
G1 X3.000 Y60.500
G1 X3.250 Y60.250
G1 X3.500 Y60.000
G1 X3.750 Y59.750
G1 X3.750 Y59.750
G1 X4.000 Y59.500
G1 X4.250 Y59.250
G1 X4.250 Y59.250
G1 X4.500 Y59.000
G1 X4.750 Y58.750
G1 X4.750 Y58.750
G1 X5.000 Y58.500
G1 X5.250 Y58.250
G1 X5.500 Y58.000
G1 X5.500 Y58.000
G1 X5.750 Y57.750
G1 X6.000 Y57.500
G1 X6.000 Y57.500
G1 X6.250 Y57.250
G1 X6.500 Y57.000
G1 X6.750 Y56.750
G1 X6.750 Y56.750
G1 X7.000 Y56.500
G1 X7.250 Y56.250
G1 X7.250 Y56.250
G1 X7.500 Y56.000
G1 X7.750 Y55.750
G1 X8.000 Y55.750
G1 X8.000 Y55.500
G1 X8.250 Y55.250
G1 X8.500 Y55.000
G1 X8.500 Y55.000
G1 X8.750 Y54.750
G1 X9.000 Y54.500
G1 X9.000 Y54.500
G1 X9.250 Y54.250
G1 X9.500 Y54.000
G1 X9.750 Y53.750
G1 X9.750 Y53.750
G1 X10.000 Y53.500
G1 X10.250 Y53.250
G1 X10.250 Y53.250
G1 X10.500 Y53.000
G1 X10.750 Y52.750
G1 X11.000 Y52.500
G1 X11.000 Y52.500
G1 X11.250 Y52.250
G1 X11.500 Y52.000
G1 X11.500 Y52.000
G1 X11.750 Y51.750
G1 X12.000 Y51.500
G1 X12.000 Y51.500
G1 X12.250 Y51.250
G1 X12.500 Y51.000
G1 X12.750 Y50.750
G1 X12.750 Y50.750
G1 X13.000 Y50.500
G1 X13.250 Y50.250
G1 X13.250 Y50.250
G1 X13.500 Y50.000
G1 X13.750 Y49.750
G1 X14.000 Y49.500
G1 X14.000 Y49.500
G1 X14.250 Y49.250
G1 X14.500 Y49.000
G1 X14.500 Y49.000
G1 X14.750 Y48.750
G1 X15.000 Y48.500
G1 X15.000 Y48.500
G1 X15.250 Y48.250
G1 X15.500 Y48.000
G1 X15.750 Y47.750
G1 X15.750 Y47.750
G1 X16.000 Y47.500
G1 X16.250 Y47.250
G1 X16.250 Y47.250
G1 X16.500 Y47.000
G1 X16.750 Y46.750
G1 X17.000 Y46.500
G1 X17.000 Y46.500
G1 X17.250 Y46.250
G1 X17.500 Y46.000
G1 X17.500 Y46.000
G1 X17.750 Y45.750
G1 X18.000 Y45.500
G1 X18.250 Y45.250
G1 X18.250 Y45.250
G1 X18.500 Y45.000
G1 X18.750 Y44.750
G1 X18.750 Y44.750
G1 X19.000 Y44.500
G1 X19.250 Y44.250
G1 X19.250 Y44.250
G1 X19.500 Y44.000
G1 X19.750 Y43.750
G1 X20.000 Y43.500
G1 X20.000 Y43.500
G1 X20.250 Y43.250
G1 X20.500 Y43.000
G1 X20.500 Y43.000
G1 X20.750 Y42.750
G1 X21.000 Y42.500
G1 X21.250 Y42.250
G1 X21.250 Y42.250
G1 X21.500 Y42.000
G1 X21.750 Y41.750
G1 X21.750 Y41.750
G1 X22.000 Y41.500
G1 X22.250 Y41.250
G1 X22.250 Y41.250
G1 X22.500 Y41.000
G1 X22.750 Y40.750
G1 X23.000 Y40.500
G1 X23.000 Y40.500
G1 X23.250 Y40.250
G1 X23.500 Y40.000
G1 X23.500 Y40.000
G1 X23.750 Y39.750
G1 X24.000 Y39.500
G1 X24.250 Y39.250
G1 X24.250 Y39.250
G1 X24.500 Y39.000
G1 X24.750 Y38.750
G1 X24.750 Y38.750
G1 X25.000 Y38.500
G1 X25.250 Y38.250
G1 X25.500 Y38.250
G1 X25.500 Y38.000
G1 X25.750 Y37.750
G1 X26.000 Y37.500
G1 X26.000 Y37.500
G1 X26.250 Y37.250
G1 X26.500 Y37.000
G1 X26.500 Y37.000
G1 X26.750 Y36.750
G1 X27.000 Y36.500
G1 X27.250 Y36.250
G1 X27.250 Y36.250
G1 X27.500 Y36.000
G1 X27.750 Y35.750
G1 X27.750 Y35.750
G1 X28.000 Y35.500
G1 X28.250 Y35.250
G1 X28.500 Y35.000
G1 X28.500 Y35.000
G1 X28.750 Y34.750
G1 X29.000 Y34.500
G1 X29.000 Y34.500
G1 X29.250 Y34.250
G1 X29.500 Y34.000
G1 X29.500 Y34.000
G1 X29.750 Y33.750
G1 X30.000 Y33.500
G1 X30.250 Y33.250
G1 X30.250 Y33.250
G1 X30.500 Y33.000
G1 X30.750 Y32.750
G1 X30.750 Y32.750
G1 X31.000 Y32.500
G1 X31.250 Y32.250
G1 X31.500 Y32.000
G1 X31.500 Y32.000
G1 X31.750 Y31.750
G1 X32.000 Y31.500
G1 X32.000 Y31.500
G1 X32.250 Y31.250
G1 X32.500 Y31.000
G1 X32.750 Y31.000
G1 X32.750 Y30.750
G1 X33.000 Y30.500
G1 X33.250 Y30.250
G1 X33.250 Y30.250
G1 X33.500 Y30.000
G1 X33.750 Y29.750
G1 X33.750 Y29.750
G1 X34.000 Y29.500
G1 X34.250 Y29.250
G1 X34.500 Y29.000
G1 X34.500 Y29.000
G0 Z2.000 F3000
M400
M204 P600 T600
G1 F1300
G0 X35.750 Y29.000 Z2.000
M400
M204 P200 T200
G1 F600
G1 Z0.000 F2500
G1 X35.500 Y29.000
G1 X35.250 Y29.250
G1 X35.000 Y29.500
G1 X35.000 Y29.750
G1 X34.750 Y29.750
G1 X34.500 Y30.000
G1 X34.500 Y30.250
G1 X34.250 Y30.250
G1 X34.000 Y30.500
G1 X33.750 Y30.750
G1 X33.750 Y31.000
G1 X33.500 Y31.000
G1 X33.250 Y31.250
G1 X33.250 Y31.500
G1 X33.000 Y31.500
G1 X32.750 Y31.750
G1 X32.750 Y32.000
G1 X32.500 Y32.000
G1 X32.250 Y32.250
G1 X32.000 Y32.500
G1 X32.000 Y32.750
G1 X31.750 Y32.750
G1 X31.500 Y33.000
G1 X31.500 Y33.250
G1 X31.250 Y33.250
G1 X31.000 Y33.500
G1 X30.750 Y33.750
G1 X30.750 Y34.000
G1 X30.500 Y34.000
G1 X30.250 Y34.250
G1 X30.250 Y34.500
G1 X30.000 Y34.500
G1 X29.750 Y34.750
G1 X29.500 Y35.000
G1 X29.500 Y35.000
G1 X29.250 Y35.250
G1 X29.000 Y35.500
G1 X29.000 Y35.750
G1 X28.750 Y35.750
G1 X28.500 Y36.000
G1 X28.500 Y36.250
G1 X28.250 Y36.250
G1 X28.000 Y36.500
G1 X27.750 Y36.750
G1 X27.750 Y37.000
G1 X27.500 Y37.000
G1 X27.250 Y37.250
G1 X27.250 Y37.500
G1 X27.000 Y37.500
G1 X26.750 Y37.750
G1 X26.500 Y38.000
G1 X26.500 Y38.250
G1 X26.250 Y38.250
G1 X26.000 Y38.500
G1 X26.000 Y38.750
G1 X25.750 Y38.750
G1 X25.500 Y39.000
G1 X25.500 Y39.250
G1 X25.250 Y39.250
G1 X25.000 Y39.500
G1 X24.750 Y39.750
G1 X24.750 Y40.000
G1 X24.500 Y40.000
G1 X24.250 Y40.250
G1 X24.250 Y40.500
G1 X24.000 Y40.500
G1 X23.750 Y40.750
G1 X23.500 Y41.000
G1 X23.500 Y41.250
G1 X23.250 Y41.250
G1 X23.000 Y41.500
G1 X23.000 Y41.750
G1 X22.750 Y41.750
G1 X22.500 Y42.000
G1 X22.250 Y42.250
G1 X22.250 Y42.250
G1 X22.000 Y42.500
G1 X21.750 Y42.750
G1 X21.750 Y43.000
G1 X21.500 Y43.000
G1 X21.250 Y43.250
G1 X21.250 Y43.500
G1 X21.000 Y43.500
G1 X20.750 Y43.750
G1 X20.500 Y44.000
G1 X20.500 Y44.250
G1 X20.250 Y44.250
G1 X20.000 Y44.500
G1 X20.000 Y44.750
G1 X19.750 Y44.750
G1 X19.500 Y45.000
G1 X19.250 Y45.250
G1 X19.250 Y45.250
G1 X19.000 Y45.500
G1 X18.750 Y45.750
G1 X18.750 Y46.000
G1 X18.500 Y46.000
G1 X18.250 Y46.250
G1 X18.250 Y46.500
G1 X18.000 Y46.500
G1 X17.750 Y46.750
G1 X17.500 Y47.000
G1 X17.500 Y47.250
G1 X17.250 Y47.250
G1 X17.000 Y47.500
G1 X17.000 Y47.750
G1 X16.750 Y47.750
G1 X16.500 Y48.000
G1 X16.250 Y48.250
G1 X16.250 Y48.500
G1 X16.000 Y48.500
G1 X15.750 Y48.750
G1 X15.750 Y49.000
G1 X15.500 Y49.000
G1 X15.250 Y49.250
G1 X15.000 Y49.500
G1 X15.000 Y49.500
G1 X14.750 Y49.750
G1 X14.500 Y50.000
G1 X14.500 Y50.250
G1 X14.250 Y50.250
G1 X14.000 Y50.500
G1 X14.000 Y50.750
G1 X13.750 Y50.750
G1 X13.500 Y51.000
G1 X13.250 Y51.250
G1 X13.250 Y51.500
G1 X13.000 Y51.500
G1 X12.750 Y51.750
G1 X12.750 Y52.000
G1 X12.500 Y52.000
G1 X12.250 Y52.250
G1 X12.000 Y52.500
G1 X12.000 Y52.500
G1 X11.750 Y52.750
G1 X11.500 Y53.000
G1 X11.500 Y53.250
G1 X11.250 Y53.250
G1 X11.000 Y53.500
G1 X11.000 Y53.750
G1 X10.750 Y53.750
G1 X10.500 Y54.000
G1 X10.250 Y54.250
G1 X10.250 Y54.500
G1 X10.000 Y54.500
G1 X9.750 Y54.750
G1 X9.750 Y55.000
G1 X9.500 Y55.000
G1 X9.250 Y55.250
G1 X9.000 Y55.500
G1 X9.000 Y55.750
G1 X8.750 Y55.750
G1 X8.500 Y56.000
G1 X8.500 Y56.250
G1 X8.250 Y56.250
G1 X8.000 Y56.500
G1 X8.000 Y56.750
G1 X7.750 Y56.750
G1 X7.500 Y57.000
G1 X7.250 Y57.250
G1 X7.250 Y57.500
G1 X7.000 Y57.500
G1 X6.750 Y57.750
G1 X6.750 Y58.000
G1 X6.500 Y58.000
G0 Z2.000 F3000

; --- CIKEL NAMAKANJA ---
G0 Z2.000 F3000
M400
M204 P600 T600
G1 F1300
G0 X61.999 Y3.058 Z8.000
G1 Z1.000 F3000
G1 X61.999 Y3.058 F2500
G1 X61.999 Y4.808 F2500
G1 X58.499 Y3.058 F2500
G1 X61.999 Y0.000 F2500
G0 Z3.000 F3000
G0 X45.575 Y14.825
G0 Z8.000 F3000
G0 X6.250 Y58.250 Z2.000
M400
M204 P200 T200
G1 F600
G1 Z0.000 F2500
G1 X6.250 Y58.250
G1 X6.000 Y58.500
G1 X6.000 Y58.750
G1 X5.750 Y58.750
G1 X5.500 Y59.000
G1 X5.500 Y59.250
G1 X5.250 Y59.250
G1 X5.000 Y59.500
G1 X4.750 Y59.750
G1 X4.750 Y59.750
G1 X4.500 Y60.000
G1 X4.250 Y60.250
G1 X4.250 Y60.500
G1 X4.000 Y60.500
G1 X3.750 Y60.750
G1 X3.750 Y61.000
G1 X3.500 Y61.000
G1 X3.250 Y61.250
G1 X3.000 Y61.500
G1 X3.000 Y61.750
G1 X2.750 Y61.750
G1 X2.500 Y62.000
G1 X2.500 Y62.250
G1 X2.250 Y62.250
G1 X2.000 Y62.500
G1 X1.750 Y62.750
G1 X1.750 Y63.000
G1 X1.500 Y63.000
G1 X1.250 Y63.250
G1 X1.250 Y63.500
G1 X1.000 Y63.500
G1 X0.750 Y63.750
G1 X0.750 Y64.000
G1 X0.500 Y64.000
G1 X0.250 Y64.250
G1 X0.000 Y64.500
G1 X0.000 Y64.750
G1 X0.000 Y64.750
G0 Z2.000 F3000
M400
M204 P600 T600
G1 F1300
G0 X0.000 Y66.000 Z2.000
M400
M204 P200 T200
G1 F600
G1 Z0.000 F2500
G1 X0.000 Y65.750
G1 X0.000 Y65.500
G1 X0.250 Y65.250
G1 X0.500 Y65.250
G1 X0.750 Y65.000
G1 X0.750 Y64.750
G1 X1.000 Y64.750
G1 X1.250 Y64.500
G1 X1.250 Y64.250
G1 X1.500 Y64.000
G1 X1.750 Y64.000
G1 X1.750 Y63.750
G1 X2.000 Y63.500
G1 X2.250 Y63.500
G1 X2.500 Y63.250
G1 X2.500 Y63.000
G1 X2.750 Y63.000
G1 X3.000 Y62.750
G1 X3.000 Y62.500
G1 X3.250 Y62.250
G1 X3.500 Y62.250
G1 X3.750 Y62.000
G1 X3.750 Y61.750
G1 X4.000 Y61.750
G1 X4.250 Y61.500
G1 X4.250 Y61.250
G1 X4.500 Y61.000
G1 X4.750 Y61.000
G1 X4.750 Y60.750
G1 X5.000 Y60.500
G1 X5.250 Y60.500
G1 X5.500 Y60.250
G1 X5.500 Y60.000
G1 X5.750 Y59.750
G1 X6.000 Y59.750
G1 X6.000 Y59.500
G1 X6.250 Y59.250
G1 X6.500 Y59.250
G1 X6.750 Y59.000
G1 X6.750 Y58.750
G1 X7.000 Y58.750
G1 X7.250 Y58.500
G1 X7.250 Y58.250
G1 X7.500 Y58.000
G1 X7.750 Y58.000
G1 X8.000 Y57.750
G1 X8.000 Y57.500
G1 X8.250 Y57.500
G1 X8.500 Y57.250
G1 X8.500 Y57.000
G1 X8.750 Y56.750
G1 X9.000 Y56.750
G1 X9.000 Y56.500
G1 X9.250 Y56.250
G1 X9.500 Y56.250
G1 X9.750 Y56.000
G1 X9.750 Y55.750
G1 X10.000 Y55.750
G1 X10.250 Y55.500
G1 X10.250 Y55.250
G1 X10.500 Y55.000
G1 X10.750 Y55.000
G1 X11.000 Y54.750
G1 X11.000 Y54.500
G1 X11.250 Y54.500
G1 X11.500 Y54.250
G1 X11.500 Y54.000
G1 X11.750 Y53.750
G1 X12.000 Y53.750
G1 X12.000 Y53.500
G1 X12.250 Y53.250
G1 X12.500 Y53.250
G1 X12.750 Y53.000
G1 X12.750 Y52.750
G1 X13.000 Y52.500
G1 X13.250 Y52.500
G1 X13.250 Y52.250
G1 X13.500 Y52.000
G1 X13.750 Y52.000
G1 X14.000 Y51.750
G1 X14.000 Y51.500
G1 X14.250 Y51.500
G1 X14.500 Y51.250
G1 X14.500 Y51.000
G1 X14.750 Y50.750
G1 X15.000 Y50.750
G1 X15.000 Y50.500
G1 X15.250 Y50.250
G1 X15.500 Y50.250
G1 X15.750 Y50.000
G1 X15.750 Y49.750
G1 X16.000 Y49.500
G1 X16.250 Y49.500
G1 X16.250 Y49.250
G1 X16.500 Y49.000
G1 X16.750 Y49.000
G1 X17.000 Y48.750
G1 X17.000 Y48.500
G1 X17.250 Y48.500
G1 X17.500 Y48.250
G1 X17.500 Y48.000
G1 X17.750 Y47.750
G1 X18.000 Y47.750
G1 X18.250 Y47.500
G1 X18.250 Y47.250
G1 X18.500 Y47.250
G1 X18.750 Y47.000
G1 X18.750 Y46.750
G1 X19.000 Y46.500
G1 X19.250 Y46.500
G1 X19.250 Y46.250
G1 X19.500 Y46.000
G1 X19.750 Y46.000
G1 X20.000 Y45.750
G1 X20.000 Y45.500
G1 X20.250 Y45.250
G1 X20.500 Y45.250
G1 X20.500 Y45.000
G1 X20.750 Y44.750
G1 X21.000 Y44.750
G1 X21.250 Y44.500
G1 X21.250 Y44.250
G1 X21.500 Y44.250
G1 X21.750 Y44.000
G1 X21.750 Y43.750
G1 X22.000 Y43.500
G1 X22.250 Y43.500
G1 X22.250 Y43.250
G1 X22.500 Y43.000
G1 X22.750 Y43.000
G1 X23.000 Y42.750
G1 X23.000 Y42.500
G1 X23.250 Y42.250
G1 X23.500 Y42.250
G1 X23.500 Y42.000
G1 X23.750 Y41.750
G1 X24.000 Y41.750
G1 X24.250 Y41.500
G1 X24.250 Y41.250
G1 X24.500 Y41.250
G1 X24.750 Y41.000
G1 X24.750 Y40.750
G1 X25.000 Y40.500
G1 X25.250 Y40.500
G1 X25.500 Y40.250
G1 X25.500 Y40.000
G1 X25.750 Y40.000
G1 X26.000 Y39.750
G1 X26.000 Y39.500
G1 X26.250 Y39.250
G1 X26.500 Y39.250
G1 X26.500 Y39.000
G1 X26.750 Y38.750
G1 X27.000 Y38.750
G1 X27.250 Y38.500
G1 X27.250 Y38.250
G1 X27.500 Y38.250
G1 X27.750 Y38.000
G1 X27.750 Y37.750
G1 X28.000 Y37.500
G1 X28.250 Y37.500
G1 X28.500 Y37.250
G1 X28.500 Y37.000
G1 X28.750 Y37.000
G1 X29.000 Y36.750
G1 X29.000 Y36.500
G1 X29.250 Y36.250
G1 X29.500 Y36.250
G1 X29.500 Y36.000
G1 X29.750 Y35.750
G1 X30.000 Y35.750
G1 X30.250 Y35.500
G1 X30.250 Y35.250
G1 X30.500 Y35.000
G1 X30.750 Y35.000
G1 X30.750 Y34.750
G1 X31.000 Y34.500
G1 X31.250 Y34.500
G1 X31.500 Y34.250
G1 X31.500 Y34.000
G1 X31.750 Y34.000
G1 X32.000 Y33.750
G1 X32.000 Y33.500
G1 X32.250 Y33.250
G1 X32.500 Y33.250
G1 X32.750 Y33.000
G1 X32.750 Y32.750
G1 X33.000 Y32.750
G1 X33.250 Y32.500
G1 X33.250 Y32.250
G1 X33.500 Y32.000
G1 X33.750 Y32.000
G1 X33.750 Y31.750
G1 X34.000 Y31.500
G1 X34.250 Y31.500
G1 X34.500 Y31.250
G1 X34.500 Y31.000
G1 X34.750 Y31.000
G1 X35.000 Y30.750
G1 X35.000 Y30.500
G1 X35.250 Y30.250
G1 X35.500 Y30.250
G1 X35.750 Y30.000
G1 X35.750 Y29.750
G1 X36.000 Y29.750
G1 X36.250 Y29.500
G1 X36.250 Y29.250
G1 X36.500 Y29.000
G1 X36.750 Y29.000
G0 Z2.000 F3000
M400
M204 P600 T600
G1 F1300
G0 X37.750 Y29.000 Z2.000
M400
M204 P200 T200
G1 F600
G1 Z0.000 F2500
G1 X37.500 Y29.000
G1 X37.500 Y29.250
G1 X37.250 Y29.500
G1 X37.000 Y29.750
G1 X36.750 Y29.750
G1 X36.750 Y30.000
G1 X36.500 Y30.250
G1 X36.250 Y30.250
G1 X36.250 Y30.500
G1 X36.000 Y30.750
G1 X35.750 Y31.000
G1 X35.750 Y31.000
G1 X35.500 Y31.250
G1 X35.250 Y31.500
G1 X35.000 Y31.500
G1 X35.000 Y31.750
G1 X34.750 Y32.000
G1 X34.500 Y32.000
G1 X34.500 Y32.250
G1 X34.250 Y32.500
G1 X34.000 Y32.750
G1 X33.750 Y32.750
G1 X33.750 Y33.000
G1 X33.500 Y33.250
G1 X33.250 Y33.250
G1 X33.250 Y33.500
G1 X33.000 Y33.750
G1 X32.750 Y34.000
G1 X32.750 Y34.000
G1 X32.500 Y34.250
G1 X32.250 Y34.500
G1 X32.000 Y34.500
G1 X32.000 Y34.750
G1 X31.750 Y35.000
G1 X31.500 Y35.000
G1 X31.500 Y35.250
G1 X31.250 Y35.500
G1 X31.000 Y35.750
G1 X30.750 Y35.750
G1 X30.750 Y36.000
G1 X30.500 Y36.250
G1 X30.250 Y36.250
G1 X30.250 Y36.500
G1 X30.000 Y36.750
G1 X29.750 Y37.000
G1 X29.500 Y37.000
G1 X29.500 Y37.250
G1 X29.250 Y37.500
G0 Z2.000 F3000

; --- CIKEL NAMAKANJA ---
G0 Z2.000 F3000
M400
M204 P600 T600
G1 F1300
G0 X64.420 Y0.831 Z8.000
G1 Z1.000 F3000
G1 X64.420 Y0.831 F2500
G1 X64.420 Y2.581 F2500
G1 X60.920 Y0.831 F2500
G1 X64.420 Y0.000 F2500
G0 Z3.000 F3000
G0 X46.506 Y15.617
G0 Z8.000 F3000
G0 X29.000 Y37.500 Z2.000
M400
M204 P200 T200
G1 F600
G1 Z0.000 F2500
G1 X29.000 Y37.500
G1 X29.000 Y37.750
G1 X28.750 Y38.000
G1 X28.500 Y38.250
G1 X28.500 Y38.250
G1 X28.250 Y38.500
G1 X28.000 Y38.750
G1 X27.750 Y38.750
G1 X27.750 Y39.000
G1 X27.500 Y39.250
G1 X27.250 Y39.250
G1 X27.250 Y39.500
G1 X27.000 Y39.750
G1 X26.750 Y40.000
G1 X26.500 Y40.000
G1 X26.500 Y40.250
G1 X26.250 Y40.500
G1 X26.000 Y40.500
G1 X26.000 Y40.750
G1 X25.750 Y41.000
G1 X25.500 Y41.250
G1 X25.500 Y41.250
G1 X25.250 Y41.500
G1 X25.000 Y41.750
G1 X24.750 Y41.750
G1 X24.750 Y42.000
G1 X24.500 Y42.250
G1 X24.250 Y42.250
G1 X24.250 Y42.500
G1 X24.000 Y42.750
G1 X23.750 Y43.000
G1 X23.500 Y43.000
G1 X23.500 Y43.250
G1 X23.250 Y43.500
G1 X23.000 Y43.500
G1 X23.000 Y43.750
G1 X22.750 Y44.000
G1 X22.500 Y44.250
G1 X22.250 Y44.250
G1 X22.250 Y44.500
G1 X22.000 Y44.750
G1 X21.750 Y44.750
G1 X21.750 Y45.000
G1 X21.500 Y45.250
G1 X21.250 Y45.250
G1 X21.250 Y45.500
G1 X21.000 Y45.750
G1 X20.750 Y46.000
G1 X20.500 Y46.000
G1 X20.500 Y46.250
G1 X20.250 Y46.500
G1 X20.000 Y46.500
G1 X20.000 Y46.750
G1 X19.750 Y47.000
G1 X19.500 Y47.250
G1 X19.250 Y47.250
G1 X19.250 Y47.500
G1 X19.000 Y47.750
G1 X18.750 Y47.750
G1 X18.750 Y48.000
G1 X18.500 Y48.250
G1 X18.250 Y48.500
G1 X18.250 Y48.500
G1 X18.000 Y48.750
G1 X17.750 Y49.000
G1 X17.500 Y49.000
G1 X17.500 Y49.250
G1 X17.250 Y49.500
G1 X17.000 Y49.500
G1 X17.000 Y49.750
G1 X16.750 Y50.000
G1 X16.500 Y50.250
G1 X16.250 Y50.250
G1 X16.250 Y50.500
G1 X16.000 Y50.750
G1 X15.750 Y50.750
G1 X15.750 Y51.000
G1 X15.500 Y51.250
G1 X15.250 Y51.500
G1 X15.000 Y51.500
G1 X15.000 Y51.750
G1 X14.750 Y52.000
G1 X14.500 Y52.000
G1 X14.500 Y52.250
G1 X14.250 Y52.500
G1 X14.000 Y52.500
G1 X14.000 Y52.750
G1 X13.750 Y53.000
G1 X13.500 Y53.250
G1 X13.250 Y53.250
G1 X13.250 Y53.500
G1 X13.000 Y53.750
G1 X12.750 Y53.750
G1 X12.750 Y54.000
G1 X12.500 Y54.250
G1 X12.250 Y54.500
G1 X12.000 Y54.500
G1 X12.000 Y54.750
G1 X11.750 Y55.000
G1 X11.500 Y55.000
G1 X11.500 Y55.250
G1 X11.250 Y55.500
G1 X11.000 Y55.750
G1 X11.000 Y55.750
G1 X10.750 Y56.000
G1 X10.500 Y56.250
G1 X10.250 Y56.250
G1 X10.250 Y56.500
G1 X10.000 Y56.750
G1 X9.750 Y56.750
G1 X9.750 Y57.000
G1 X9.500 Y57.250
G1 X9.250 Y57.500
G1 X9.000 Y57.500
G1 X9.000 Y57.750
G1 X8.750 Y58.000
G1 X8.500 Y58.000
G1 X8.500 Y58.250
G1 X8.250 Y58.500
G1 X8.000 Y58.750
G1 X8.000 Y58.750
G1 X7.750 Y59.000
G1 X7.500 Y59.250
G1 X7.250 Y59.250
G1 X7.250 Y59.500
G1 X7.000 Y59.750
G1 X6.750 Y59.750
G1 X6.750 Y60.000
G1 X6.500 Y60.250
G1 X6.250 Y60.500
G1 X6.000 Y60.500
G1 X6.000 Y60.750
G1 X5.750 Y61.000
G1 X5.500 Y61.000
G1 X5.500 Y61.250
G1 X5.250 Y61.500
G1 X5.000 Y61.750
G1 X4.750 Y61.750
G1 X4.750 Y62.000
G1 X4.500 Y62.250
G1 X4.250 Y62.250
G1 X4.250 Y62.500
G1 X4.000 Y62.750
G1 X3.750 Y63.000
G1 X3.750 Y63.000
G1 X3.500 Y63.250
G1 X3.250 Y63.500
G1 X3.000 Y63.500
G1 X3.000 Y63.750
G1 X2.750 Y64.000
G1 X2.500 Y64.000
G1 X2.500 Y64.250
G1 X2.250 Y64.500
G1 X2.000 Y64.750
G1 X1.750 Y64.750
G1 X1.750 Y65.000
G1 X1.500 Y65.250
G1 X1.250 Y65.250
G1 X1.250 Y65.500
G1 X1.000 Y65.750
G1 X0.750 Y66.000
G1 X0.750 Y66.000
G1 X0.500 Y66.250
G1 X0.250 Y66.500
G1 X0.000 Y66.500
G1 X0.000 Y66.750
G1 X0.000 Y67.000
G0 Z2.000 F3000
M400
M204 P600 T600
G1 F1300
G0 X0.000 Y68.000 Z2.000
M400
M204 P200 T200
G1 F600
G1 Z0.000 F2500
G1 X0.000 Y67.750
G1 X0.000 Y67.750
G1 X0.250 Y67.500
G1 X0.500 Y67.250
G1 X0.750 Y67.000
G1 X0.750 Y67.000
G1 X1.000 Y66.750
G1 X1.250 Y66.500
G1 X1.250 Y66.500
G1 X1.500 Y66.250
G1 X1.750 Y66.000
G1 X1.750 Y66.000
G1 X2.000 Y65.750
G1 X2.250 Y65.500
G1 X2.500 Y65.250
G1 X2.500 Y65.250
G1 X2.750 Y65.000
G1 X3.000 Y64.750
G1 X3.000 Y64.750
G1 X3.250 Y64.500
G1 X3.500 Y64.250
G1 X3.750 Y64.000
G1 X3.750 Y64.000
G1 X4.000 Y63.750
G1 X4.250 Y63.500
G1 X4.250 Y63.500
G1 X4.500 Y63.250
G1 X4.750 Y63.000
G1 X4.750 Y63.000
G1 X5.000 Y62.750
G1 X5.250 Y62.500
G1 X5.500 Y62.250
G1 X5.500 Y62.250
G1 X5.750 Y62.000
G1 X6.000 Y61.750
G1 X6.000 Y61.750
G1 X6.250 Y61.500
G1 X6.500 Y61.250
G1 X6.750 Y61.000
G1 X6.750 Y61.000
G1 X7.000 Y60.750
G1 X7.250 Y60.500
G1 X7.250 Y60.500
G1 X7.500 Y60.250
G1 X7.750 Y60.000
G1 X8.000 Y59.750
G1 X8.000 Y59.750
G1 X8.250 Y59.500
G1 X8.500 Y59.250
G1 X8.500 Y59.250
G1 X8.750 Y59.000
G1 X9.000 Y58.750
G1 X9.000 Y58.750
G1 X9.250 Y58.500
G1 X9.500 Y58.250
G1 X9.750 Y58.000
G1 X9.750 Y58.000
G1 X10.000 Y57.750
G1 X10.250 Y57.500
G1 X10.250 Y57.500
G1 X10.500 Y57.250
G1 X10.750 Y57.000
G1 X11.000 Y56.750
G1 X11.000 Y56.750
G1 X11.250 Y56.500
G1 X11.500 Y56.250
G1 X11.500 Y56.250
G1 X11.750 Y56.000
G1 X12.000 Y55.750
G1 X12.000 Y55.750
G1 X12.250 Y55.500
G1 X12.500 Y55.250
G1 X12.750 Y55.000
G1 X12.750 Y55.000
G1 X13.000 Y54.750
G1 X13.250 Y54.500
G1 X13.250 Y54.500
G1 X13.500 Y54.250
G1 X13.750 Y54.000
G1 X14.000 Y53.750
G1 X14.000 Y53.750
G1 X14.250 Y53.500
G1 X14.500 Y53.250
G1 X14.500 Y53.250
G1 X14.750 Y53.000
G1 X15.000 Y52.750
G1 X15.000 Y52.500
G1 X15.250 Y52.500
G1 X15.500 Y52.250
G1 X15.750 Y52.000
G1 X15.750 Y52.000
G1 X16.000 Y51.750
G1 X16.250 Y51.500
G1 X16.250 Y51.500
G1 X16.500 Y51.250
G1 X16.750 Y51.000
G1 X17.000 Y50.750
G1 X17.000 Y50.750
G1 X17.250 Y50.500
G1 X17.500 Y50.250
G1 X17.500 Y50.250
G1 X17.750 Y50.000
G1 X18.000 Y49.750
G1 X18.250 Y49.500
G1 X18.250 Y49.500
G1 X18.500 Y49.250
G1 X18.750 Y49.000
G1 X18.750 Y49.000
G1 X19.000 Y48.750
G1 X19.250 Y48.500
G1 X19.250 Y48.500
G1 X19.500 Y48.250
G1 X19.750 Y48.000
G1 X20.000 Y47.750
G1 X20.000 Y47.750
G1 X20.250 Y47.500
G1 X20.500 Y47.250
G1 X20.500 Y47.250
G1 X20.750 Y47.000
G1 X21.000 Y46.750
G1 X21.250 Y46.500
G1 X21.250 Y46.500
G1 X21.500 Y46.250
G1 X21.750 Y46.000
G1 X21.750 Y46.000
G1 X22.000 Y45.750
G1 X22.250 Y45.500
G1 X22.250 Y45.250
G1 X22.500 Y45.250
G1 X22.750 Y45.000
G1 X23.000 Y44.750
G1 X23.000 Y44.750
G1 X23.250 Y44.500
G1 X23.500 Y44.250
G1 X23.500 Y44.250
G1 X23.750 Y44.000
G0 Z2.000 F3000

; --- CIKEL NAMAKANJA ---
G0 Z2.000 F3000
M400
M204 P600 T600
G1 F1300
G0 X58.270 Y2.513 Z8.000
G1 Z1.000 F3000
G1 X58.270 Y2.513 F2500
G1 X58.270 Y4.263 F2500
G1 X54.770 Y2.513 F2500
G1 X58.270 Y0.000 F2500
G0 Z3.000 F3000
G0 X46.506 Y15.617
G0 Z8.000 F3000
G0 X24.000 Y43.750 Z2.000
M400
M204 P200 T200
G1 F600
G1 Z0.000 F2500
G1 X24.000 Y43.750
G1 X24.250 Y43.500
G1 X24.250 Y43.500
G1 X24.500 Y43.250
G1 X24.750 Y43.000
G1 X24.750 Y43.000
G1 X25.000 Y42.750
G1 X25.250 Y42.500
G1 X25.500 Y42.250
G1 X25.500 Y42.250
G1 X25.750 Y42.000
G1 X26.000 Y41.750
G1 X26.000 Y41.750
G1 X26.250 Y41.500
G1 X26.500 Y41.250
G1 X26.500 Y41.250
G1 X26.750 Y41.000
G1 X27.000 Y40.750
G1 X27.250 Y40.500
G1 X27.250 Y40.500
G1 X27.500 Y40.250
G1 X27.750 Y40.000
G1 X27.750 Y40.000
G1 X28.000 Y39.750
G1 X28.250 Y39.500
G1 X28.500 Y39.250
G1 X28.500 Y39.250
G1 X28.750 Y39.000
G1 X29.000 Y38.750
G1 X29.000 Y38.750
G1 X29.250 Y38.500
G1 X29.500 Y38.250
G1 X29.500 Y38.250
G1 X29.750 Y38.000
G1 X30.000 Y37.750
G1 X30.250 Y37.500
G1 X30.250 Y37.500
G1 X30.500 Y37.250
G1 X30.750 Y37.000
G1 X30.750 Y37.000
G1 X31.000 Y36.750
G1 X31.250 Y36.500
G1 X31.500 Y36.250
G1 X31.500 Y36.250
G1 X31.750 Y36.000
G1 X32.000 Y35.750
G1 X32.000 Y35.750
G1 X32.250 Y35.500
G1 X32.500 Y35.250
G1 X32.750 Y35.000
G1 X32.750 Y35.000
G1 X33.000 Y34.750
G1 X33.250 Y34.500
G1 X33.250 Y34.500
G1 X33.500 Y34.250
G1 X33.750 Y34.000
G1 X33.750 Y34.000
G1 X34.000 Y33.750
G1 X34.250 Y33.500
G1 X34.500 Y33.250
G1 X34.500 Y33.250
G1 X34.750 Y33.000
G1 X35.000 Y32.750
G1 X35.000 Y32.750
G1 X35.250 Y32.500
G1 X35.500 Y32.250
G1 X35.750 Y32.000
G1 X35.750 Y32.000
G1 X36.000 Y31.750
G1 X36.250 Y31.500
G1 X36.250 Y31.500
G1 X36.500 Y31.250
G1 X36.750 Y31.000
G1 X36.750 Y31.000
G1 X37.000 Y30.750
G1 X37.250 Y30.500
G1 X37.500 Y30.250
G1 X37.500 Y30.250
G1 X37.750 Y30.000
G1 X38.000 Y29.750
G1 X38.000 Y29.750
G1 X38.250 Y29.500
G1 X38.500 Y29.250
G1 X38.750 Y29.000
G1 X38.750 Y29.000
G0 Z2.000 F3000
M400
M204 P600 T600
G1 F1300
G0 X39.750 Y29.000 Z2.000
M400
M204 P200 T200
G1 F600
G1 Z0.000 F2500
G1 X39.750 Y29.000
G1 X39.500 Y29.250
G1 X39.250 Y29.500
G1 X39.250 Y29.750
G1 X39.000 Y29.750
G1 X38.750 Y30.000
G1 X38.750 Y30.250
G1 X38.500 Y30.250
G1 X38.250 Y30.500
G1 X38.000 Y30.750
G1 X38.000 Y31.000
G1 X37.750 Y31.000
G1 X37.500 Y31.250
G1 X37.500 Y31.500
G1 X37.250 Y31.500
G1 X37.000 Y31.750
G1 X36.750 Y32.000
G1 X36.750 Y32.000
G1 X36.500 Y32.250
G1 X36.250 Y32.500
G1 X36.250 Y32.750
G1 X36.000 Y32.750
G1 X35.750 Y33.000
G1 X35.750 Y33.250
G1 X35.500 Y33.250
G1 X35.250 Y33.500
G1 X35.000 Y33.750
G1 X35.000 Y34.000
G1 X34.750 Y34.000
G1 X34.500 Y34.250
G1 X34.500 Y34.500
G1 X34.250 Y34.500
G1 X34.000 Y34.750
G1 X33.750 Y35.000
G1 X33.750 Y35.000
G1 X33.500 Y35.250
G1 X33.250 Y35.500
G1 X33.250 Y35.750
G1 X33.000 Y35.750
G1 X32.750 Y36.000
G1 X32.750 Y36.250
G1 X32.500 Y36.250
G1 X32.250 Y36.500
G1 X32.000 Y36.750
G1 X32.000 Y37.000
G1 X31.750 Y37.000
G1 X31.500 Y37.250
G1 X31.500 Y37.500
G1 X31.250 Y37.500
G1 X31.000 Y37.750
G1 X30.750 Y38.000
G1 X30.750 Y38.250
G1 X30.500 Y38.250
G1 X30.250 Y38.500
G1 X30.250 Y38.750
G1 X30.000 Y38.750
G1 X29.750 Y39.000
G1 X29.500 Y39.250
G1 X29.500 Y39.250
G1 X29.250 Y39.500
G1 X29.000 Y39.750
G1 X29.000 Y40.000
G1 X28.750 Y40.000
G1 X28.500 Y40.250
G1 X28.500 Y40.500
G1 X28.250 Y40.500
G1 X28.000 Y40.750
G1 X27.750 Y41.000
G1 X27.750 Y41.250
G1 X27.500 Y41.250
G1 X27.250 Y41.500
G1 X27.250 Y41.750
G1 X27.000 Y41.750
G1 X26.750 Y42.000
G1 X26.500 Y42.250
G1 X26.500 Y42.250
G1 X26.250 Y42.500
G1 X26.000 Y42.750
G1 X26.000 Y43.000
G1 X25.750 Y43.000
G1 X25.500 Y43.250
G1 X25.500 Y43.500
G1 X25.250 Y43.500
G1 X25.000 Y43.750
G1 X24.750 Y44.000
G1 X24.750 Y44.250
G1 X24.500 Y44.250
G1 X24.250 Y44.500
G1 X24.250 Y44.750
G1 X24.000 Y44.750
G1 X23.750 Y45.000
G1 X23.500 Y45.250
G1 X23.500 Y45.250
G1 X23.250 Y45.500
G1 X23.000 Y45.750
G1 X23.000 Y46.000
G1 X22.750 Y46.000
G1 X22.500 Y46.250
G1 X22.250 Y46.500
G1 X22.250 Y46.500
G1 X22.000 Y46.750
G1 X21.750 Y47.000
G1 X21.750 Y47.250
G1 X21.500 Y47.250
G1 X21.250 Y47.500
G1 X21.250 Y47.750
G1 X21.000 Y47.750
G1 X20.750 Y48.000
G1 X20.500 Y48.250
G1 X20.500 Y48.500
G1 X20.250 Y48.500
G1 X20.000 Y48.750
G1 X20.000 Y49.000
G1 X19.750 Y49.000
G1 X19.500 Y49.250
G1 X19.250 Y49.500
G1 X19.250 Y49.500
G1 X19.000 Y49.750
G1 X18.750 Y50.000
G1 X18.750 Y50.250
G1 X18.500 Y50.250
G1 X18.250 Y50.500
G1 X18.250 Y50.750
G1 X18.000 Y50.750
G1 X17.750 Y51.000
G1 X17.500 Y51.250
G1 X17.500 Y51.500
G1 X17.250 Y51.500
G1 X17.000 Y51.750
G1 X17.000 Y52.000
G1 X16.750 Y52.000
G1 X16.500 Y52.250
G1 X16.250 Y52.500
G1 X16.250 Y52.500
G1 X16.000 Y52.750
G1 X15.750 Y53.000
G1 X15.750 Y53.250
G1 X15.500 Y53.250
G1 X15.250 Y53.500
G1 X15.000 Y53.750
G1 X15.000 Y53.750
G1 X14.750 Y54.000
G1 X14.500 Y54.250
G1 X14.500 Y54.500
G1 X14.250 Y54.500
G1 X14.000 Y54.750
G1 X14.000 Y55.000
G1 X13.750 Y55.000
G1 X13.500 Y55.250
G1 X13.250 Y55.500
G1 X13.250 Y55.750
G1 X13.000 Y55.750
G1 X12.750 Y56.000
G1 X12.750 Y56.250
G1 X12.500 Y56.250
G1 X12.250 Y56.500
G1 X12.000 Y56.750
G1 X12.000 Y56.750
G1 X11.750 Y57.000
G1 X11.500 Y57.250
G1 X11.500 Y57.500
G1 X11.250 Y57.500
G1 X11.000 Y57.750
G1 X11.000 Y58.000
G1 X10.750 Y58.000
G1 X10.500 Y58.250
G1 X10.250 Y58.500
G1 X10.250 Y58.750
G1 X10.000 Y58.750
G1 X9.750 Y59.000
G1 X9.750 Y59.250
G1 X9.500 Y59.250
G1 X9.250 Y59.500
G1 X9.000 Y59.750
G1 X9.000 Y59.750
G1 X8.750 Y60.000
G1 X8.500 Y60.250
G1 X8.500 Y60.500
G1 X8.250 Y60.500
G1 X8.000 Y60.750
G1 X8.000 Y61.000
G1 X7.750 Y61.000
G1 X7.500 Y61.250
G1 X7.250 Y61.500
G1 X7.250 Y61.750
G1 X7.000 Y61.750
G1 X6.750 Y62.000
G1 X6.750 Y62.250
G1 X6.500 Y62.250
G1 X6.250 Y62.500
G1 X6.000 Y62.750
G1 X6.000 Y63.000
G1 X5.750 Y63.000
G1 X5.500 Y63.250
G1 X5.500 Y63.500
G1 X5.250 Y63.500
G1 X5.000 Y63.750
G1 X4.750 Y64.000
G1 X4.750 Y64.000
G1 X4.500 Y64.250
G1 X4.250 Y64.500
G1 X4.250 Y64.750
G1 X4.000 Y64.750
G1 X3.750 Y65.000
G1 X3.750 Y65.250
G1 X3.500 Y65.250
G1 X3.250 Y65.500
G1 X3.000 Y65.750
G1 X3.000 Y66.000
G1 X2.750 Y66.000
G1 X2.500 Y66.250
G1 X2.500 Y66.500
G1 X2.250 Y66.500
G1 X2.000 Y66.750
G1 X1.750 Y67.000
G1 X1.750 Y67.000
G1 X1.500 Y67.250
G1 X1.250 Y67.500
G1 X1.250 Y67.750
G1 X1.000 Y67.750
G1 X0.750 Y68.000
G1 X0.750 Y68.250
G1 X0.500 Y68.250
G1 X0.250 Y68.500
G1 X0.000 Y68.750
G1 X0.000 Y69.000
G1 X0.000 Y69.000
G0 Z2.000 F3000
M400
M204 P600 T600
G1 F1300
G0 X0.000 Y70.000 Z2.000
M400
M204 P200 T200
G1 F600
G1 Z0.000 F2500
G1 X0.000 Y70.000
G1 X0.000 Y69.750
G1 X0.250 Y69.500
G1 X0.500 Y69.500
G1 X0.750 Y69.250
G1 X0.750 Y69.000
G1 X1.000 Y69.000
G1 X1.250 Y68.750
G1 X1.250 Y68.500
G1 X1.500 Y68.250
G1 X1.750 Y68.250
G1 X1.750 Y68.000
G1 X2.000 Y67.750
G1 X2.250 Y67.750
G1 X2.500 Y67.500
G1 X2.500 Y67.250
G1 X2.750 Y67.000
G1 X3.000 Y67.000
G1 X3.000 Y66.750
G1 X3.250 Y66.500
G1 X3.500 Y66.500
G1 X3.750 Y66.250
G1 X3.750 Y66.000
G1 X4.000 Y66.000
G1 X4.250 Y65.750
G1 X4.250 Y65.500
G1 X4.500 Y65.250
G1 X4.750 Y65.250
G1 X4.750 Y65.000
G1 X5.000 Y64.750
G1 X5.250 Y64.750
G1 X5.500 Y64.500
G1 X5.500 Y64.250
G1 X5.750 Y64.000
G1 X6.000 Y64.000
G1 X6.000 Y63.750
G1 X6.250 Y63.500
G1 X6.500 Y63.500
G1 X6.750 Y63.250
G1 X6.750 Y63.000
G1 X7.000 Y63.000
G1 X7.250 Y62.750
G1 X7.250 Y62.500
G1 X7.500 Y62.250
G1 X7.750 Y62.250
G1 X8.000 Y62.000
G1 X8.000 Y61.750
G1 X8.250 Y61.750
G0 Z2.000 F3000

; --- CIKEL NAMAKANJA ---
G0 Z2.000 F3000
M400
M204 P600 T600
G1 F1300
G0 X64.370 Y6.156 Z8.000
G1 Z1.000 F3000
G1 X64.370 Y6.156 F2500
G1 X64.370 Y7.906 F2500
G1 X60.870 Y6.156 F2500
G1 X64.370 Y0.906 F2500
G0 Z3.000 F3000
G0 X46.308 Y15.457
G0 Z8.000 F3000
G0 X8.500 Y61.500 Z2.000
M400
M204 P200 T200
G1 F600
G1 Z0.000 F2500
G1 X8.500 Y61.500
G1 X8.500 Y61.250
G1 X8.750 Y61.000
G1 X9.000 Y61.000
G1 X9.000 Y60.750
G1 X9.250 Y60.500
G1 X9.500 Y60.500
G1 X9.750 Y60.250
G1 X9.750 Y60.000
G1 X10.000 Y59.750
G1 X10.250 Y59.750
G1 X10.250 Y59.500
G1 X10.500 Y59.250
G1 X10.750 Y59.250
G1 X11.000 Y59.000
G1 X11.000 Y58.750
G1 X11.250 Y58.750
G1 X11.500 Y58.500
G1 X11.500 Y58.250
G1 X11.750 Y58.000
G1 X12.000 Y58.000
G1 X12.000 Y57.750
G1 X12.250 Y57.500
G1 X12.500 Y57.500
G1 X12.750 Y57.250
G1 X12.750 Y57.000
G1 X13.000 Y56.750
G1 X13.250 Y56.750
G1 X13.250 Y56.500
G1 X13.500 Y56.250
G1 X13.750 Y56.250
G1 X14.000 Y56.000
G1 X14.000 Y55.750
G1 X14.250 Y55.750
G1 X14.500 Y55.500
G1 X14.500 Y55.250
G1 X14.750 Y55.000
G1 X15.000 Y55.000
G1 X15.000 Y54.750
G1 X15.250 Y54.500
G1 X15.500 Y54.500
G1 X15.750 Y54.250
G1 X15.750 Y54.000
G1 X16.000 Y53.750
G1 X16.250 Y53.750
G1 X16.250 Y53.500
G1 X16.500 Y53.250
G1 X16.750 Y53.250
G1 X17.000 Y53.000
G1 X17.000 Y52.750
G1 X17.250 Y52.500
G1 X17.500 Y52.500
G1 X17.500 Y52.250
G1 X17.750 Y52.000
G1 X18.000 Y52.000
G1 X18.250 Y51.750
G1 X18.250 Y51.500
G1 X18.500 Y51.500
G1 X18.750 Y51.250
G1 X18.750 Y51.000
G1 X19.000 Y50.750
G1 X19.250 Y50.750
G1 X19.250 Y50.500
G1 X19.500 Y50.250
G1 X19.750 Y50.250
G1 X20.000 Y50.000
G1 X20.000 Y49.750
G1 X20.250 Y49.500
G1 X20.500 Y49.500
G1 X20.500 Y49.250
G1 X20.750 Y49.000
G1 X21.000 Y49.000
G1 X21.250 Y48.750
G1 X21.250 Y48.500
G1 X21.500 Y48.500
G1 X21.750 Y48.250
G1 X21.750 Y48.000
G1 X22.000 Y47.750
G1 X22.250 Y47.750
G1 X22.250 Y47.500
G1 X22.500 Y47.250
G1 X22.750 Y47.250
G1 X23.000 Y47.000
G1 X23.000 Y46.750
G1 X23.250 Y46.500
G1 X23.500 Y46.500
G1 X23.500 Y46.250
G1 X23.750 Y46.000
G1 X24.000 Y46.000
G1 X24.250 Y45.750
G1 X24.250 Y45.500
G1 X24.500 Y45.250
G1 X24.750 Y45.250
G1 X24.750 Y45.000
G1 X25.000 Y44.750
G1 X25.250 Y44.750
G1 X25.500 Y44.500
G1 X25.500 Y44.250
G1 X25.750 Y44.250
G1 X26.000 Y44.000
G1 X26.000 Y43.750
G1 X26.250 Y43.500
G1 X26.500 Y43.500
G1 X26.500 Y43.250
G1 X26.750 Y43.000
G1 X27.000 Y43.000
G1 X27.250 Y42.750
G1 X27.250 Y42.500
G1 X27.500 Y42.250
G1 X27.750 Y42.250
G1 X27.750 Y42.000
G1 X28.000 Y41.750
G1 X28.250 Y41.750
G1 X28.500 Y41.500
G1 X28.500 Y41.250
G1 X28.750 Y41.250
G1 X29.000 Y41.000
G1 X29.000 Y40.750
G1 X29.250 Y40.500
G1 X29.500 Y40.500
G1 X29.500 Y40.250
G1 X29.750 Y40.000
G1 X30.000 Y40.000
G1 X30.250 Y39.750
G1 X30.250 Y39.500
G1 X30.500 Y39.250
G1 X30.750 Y39.250
G1 X30.750 Y39.000
G1 X31.000 Y38.750
G1 X31.250 Y38.750
G1 X31.500 Y38.500
G1 X31.500 Y38.250
G1 X31.750 Y38.250
G1 X32.000 Y38.000
G1 X32.000 Y37.750
G1 X32.250 Y37.500
G1 X32.500 Y37.500
G1 X32.750 Y37.250
G1 X32.750 Y37.000
G1 X33.000 Y37.000
G1 X33.250 Y36.750
G1 X33.250 Y36.500
G1 X33.500 Y36.250
G1 X33.750 Y36.250
G1 X33.750 Y36.000
G1 X34.000 Y35.750
G1 X34.250 Y35.750
G1 X34.500 Y35.500
G1 X34.500 Y35.250
G1 X34.750 Y35.000
G1 X35.000 Y35.000
G1 X35.000 Y34.750
G1 X35.250 Y34.500
G1 X35.500 Y34.500
G1 X35.750 Y34.250
G1 X35.750 Y34.000
G1 X36.000 Y34.000
G1 X36.250 Y33.750
G1 X36.250 Y33.500
G1 X36.500 Y33.250
G1 X36.750 Y33.250
G1 X36.750 Y33.000
G1 X37.000 Y32.750
G1 X37.250 Y32.750
G1 X37.500 Y32.500
G1 X37.500 Y32.250
G1 X37.750 Y32.000
G1 X38.000 Y32.000
G1 X38.000 Y31.750
G1 X38.250 Y31.500
G1 X38.500 Y31.500
G1 X38.750 Y31.250
G1 X38.750 Y31.000
G1 X39.000 Y31.000
G1 X39.250 Y30.750
G1 X39.250 Y30.500
G1 X39.500 Y30.250
G1 X39.750 Y30.250
G1 X39.750 Y30.000
G1 X40.000 Y29.750
G1 X40.250 Y29.750
G1 X40.500 Y29.500
G1 X40.500 Y29.250
G1 X40.750 Y29.000
G1 X41.000 Y29.000
G0 Z2.000 F3000
M400
M204 P600 T600
G1 F1300
G0 X42.000 Y29.000 Z2.000
M400
M204 P200 T200
G1 F600
G1 Z0.000 F2500
G1 X41.750 Y29.000
G1 X41.750 Y29.250
G1 X41.500 Y29.500
G1 X41.250 Y29.750
G1 X41.000 Y29.750
G1 X41.000 Y30.000
G1 X40.750 Y30.250
G1 X40.500 Y30.250
G1 X40.500 Y30.500
G1 X40.250 Y30.750
G1 X40.000 Y31.000
G1 X39.750 Y31.000
G1 X39.750 Y31.250
G1 X39.500 Y31.500
G1 X39.250 Y31.500
G1 X39.250 Y31.750
G1 X39.000 Y32.000
G1 X38.750 Y32.000
G1 X38.750 Y32.250
G1 X38.500 Y32.500
G1 X38.250 Y32.750
G1 X38.000 Y32.750
G1 X38.000 Y33.000
G1 X37.750 Y33.250
G1 X37.500 Y33.250
G1 X37.500 Y33.500
G1 X37.250 Y33.750
G1 X37.000 Y34.000
G1 X36.750 Y34.000
G1 X36.750 Y34.250
G1 X36.500 Y34.500
G1 X36.250 Y34.500
G1 X36.250 Y34.750
G1 X36.000 Y35.000
G1 X35.750 Y35.000
G1 X35.750 Y35.250
G1 X35.500 Y35.500
G1 X35.250 Y35.750
G1 X35.000 Y35.750
G1 X35.000 Y36.000
G1 X34.750 Y36.250
G1 X34.500 Y36.250
G1 X34.500 Y36.500
G1 X34.250 Y36.750
G1 X34.000 Y37.000
G1 X33.750 Y37.000
G1 X33.750 Y37.250
G1 X33.500 Y37.500
G1 X33.250 Y37.500
G1 X33.250 Y37.750
G1 X33.000 Y38.000
G1 X32.750 Y38.250
G1 X32.750 Y38.250
G1 X32.500 Y38.500
G1 X32.250 Y38.750
G1 X32.000 Y38.750
G1 X32.000 Y39.000
G1 X31.750 Y39.250
G1 X31.500 Y39.250
G1 X31.500 Y39.500
G1 X31.250 Y39.750
G1 X31.000 Y40.000
G1 X30.750 Y40.000
G1 X30.750 Y40.250
G1 X30.500 Y40.500
G1 X30.250 Y40.500
G1 X30.250 Y40.750
G1 X30.000 Y41.000
G1 X29.750 Y41.250
G1 X29.500 Y41.250
G1 X29.500 Y41.500
G1 X29.250 Y41.750
G1 X29.000 Y41.750
G1 X29.000 Y42.000
G1 X28.750 Y42.250
G1 X28.500 Y42.250
G1 X28.500 Y42.500
G1 X28.250 Y42.750
G1 X28.000 Y43.000
G1 X27.750 Y43.000
G1 X27.750 Y43.250
G1 X27.500 Y43.500
G1 X27.250 Y43.500
G1 X27.250 Y43.750
G1 X27.000 Y44.000
G1 X26.750 Y44.250
G1 X26.500 Y44.250
G1 X26.500 Y44.500
G1 X26.250 Y44.750
G1 X26.000 Y44.750
G1 X26.000 Y45.000
G1 X25.750 Y45.250
G1 X25.500 Y45.250
G1 X25.500 Y45.500
G1 X25.250 Y45.750
G1 X25.000 Y46.000
G1 X24.750 Y46.000
G1 X24.750 Y46.250
G1 X24.500 Y46.500
G1 X24.250 Y46.500
G1 X24.250 Y46.750
G1 X24.000 Y47.000
G1 X23.750 Y47.250
G1 X23.500 Y47.250
G1 X23.500 Y47.500
G1 X23.250 Y47.750
G1 X23.000 Y47.750
G1 X23.000 Y48.000
G1 X22.750 Y48.250
G1 X22.500 Y48.500
G1 X22.250 Y48.500
G1 X22.250 Y48.750
G1 X22.000 Y49.000
G1 X21.750 Y49.000
G1 X21.750 Y49.250
G1 X21.500 Y49.500
G1 X21.250 Y49.500
G1 X21.250 Y49.750
G1 X21.000 Y50.000
G1 X20.750 Y50.250
G1 X20.500 Y50.250
G1 X20.500 Y50.500
G1 X20.250 Y50.750
G1 X20.000 Y50.750
G1 X20.000 Y51.000
G1 X19.750 Y51.250
G1 X19.500 Y51.500
G1 X19.250 Y51.500
G1 X19.250 Y51.750
G1 X19.000 Y52.000
G1 X18.750 Y52.000
G0 Z2.000 F3000

; --- CIKEL NAMAKANJA ---
G0 Z2.000 F3000
M400
M204 P600 T600
G1 F1300
G0 X60.127 Y0.000 Z8.000
G1 Z1.000 F3000
G1 X60.127 Y0.000 F2500
G1 X60.127 Y1.750 F2500
G1 X56.627 Y0.000 F2500
G1 X60.127 Y0.000 F2500
G0 Z3.000 F3000
G0 X46.795 Y15.844
G0 Z8.000 F3000
G0 X18.750 Y52.250 Z2.000
M400
M204 P200 T200
G1 F600
G1 Z0.000 F2500
G1 X18.750 Y52.250
G1 X18.500 Y52.500
G1 X18.250 Y52.500
G1 X18.250 Y52.750
G1 X18.000 Y53.000
G1 X17.750 Y53.250
G1 X17.500 Y53.250
G1 X17.500 Y53.500
G1 X17.250 Y53.750
G1 X17.000 Y53.750
G1 X17.000 Y54.000
G1 X16.750 Y54.250
G1 X16.500 Y54.500
G1 X16.250 Y54.500
G1 X16.250 Y54.750
G1 X16.000 Y55.000
G1 X15.750 Y55.000
G1 X15.750 Y55.250
G1 X15.500 Y55.500
G1 X15.250 Y55.750
G1 X15.000 Y55.750
G1 X15.000 Y56.000
G1 X14.750 Y56.250
G1 X14.500 Y56.250
G1 X14.500 Y56.500
G1 X14.250 Y56.750
G1 X14.000 Y56.750
G1 X14.000 Y57.000
G1 X13.750 Y57.250
G1 X13.500 Y57.500
G1 X13.250 Y57.500
G1 X13.250 Y57.750
G1 X13.000 Y58.000
G1 X12.750 Y58.000
G1 X12.750 Y58.250
G1 X12.500 Y58.500
G1 X12.250 Y58.750
G1 X12.000 Y58.750
G1 X12.000 Y59.000
G1 X11.750 Y59.250
G1 X11.500 Y59.250
G1 X11.500 Y59.500
G1 X11.250 Y59.750
G1 X11.000 Y59.750
G1 X11.000 Y60.000
G1 X10.750 Y60.250
G1 X10.500 Y60.500
G1 X10.250 Y60.500
G1 X10.250 Y60.750
G1 X10.000 Y61.000
G1 X9.750 Y61.000
G1 X9.750 Y61.250
G1 X9.500 Y61.500
