G90
G21
; === MULTI-COLOR PAINTER GCODE ===
; Generated layers: 1
; Backlash compensation: ON  BX=0.5 BY=1.6
; Working area clamping: ON  X[0–150] Y[0–150]


; ═══════════════════════════════
; LAYER 1: Color 1 — Red
; Infill: concentric (outline only)
; ═══════════════════════════════


; --- CIKEL NAMAKANJA ---
G0 Z4.600 F3000
M400
M204 P12000 T12000
G1 F12000
G0 X62.778 Y-15.252 Z31.000
G1 Z0.000 F3000
G1 X62.778 Y-15.252 F2500
G1 X62.778 Y-12.752 F2500
G1 X57.778 Y-15.252 F2500
G1 X62.778 Y-22.752 F2500
G0 Z16.000 F3000
G0 X76.077 Y17.276
G0 Z31.000 F3000
G0 X83.500 Y30.000 Z4.600
M400
M204 P12000 T12000
G1 F12000
G0 X83.500 Y30.000 Z4.600
M400
M204 P200 T200
G1 F400
G1 Z0.000 F2500
G1 X84.000 Y30.500
G1 X85.000 Y30.500
G1 X86.000 Y30.500
G1 X87.000 Y30.500
G1 X87.500 Y31.000
G1 X88.000 Y31.500
G1 X89.000 Y31.500
G1 X90.000 Y31.500
G1 X91.000 Y31.500
G1 X91.500 Y32.000
G1 X92.000 Y32.500
G1 X93.000 Y32.500
G1 X93.500 Y33.000
G1 X94.000 Y33.500
G1 X94.500 Y34.000
G1 X95.000 Y34.500
G1 X96.000 Y34.500
G1 X96.500 Y35.000
G1 X97.000 Y35.500
G1 X98.000 Y35.500
G1 X98.500 Y36.000
G1 X99.000 Y36.500
G1 X100.000 Y36.500
G1 X100.500 Y37.000
G1 X101.000 Y37.500
G1 X101.500 Y38.000
G1 X102.000 Y38.500
G1 X103.000 Y38.500
G1 X103.500 Y39.000
G1 X104.000 Y39.500
G1 X104.500 Y40.000
G1 X105.000 Y40.500
G1 X105.500 Y41.000
G1 X106.000 Y41.500
G1 X106.500 Y42.000
G1 X107.000 Y42.500
G1 X107.500 Y43.000
G1 X108.000 Y43.500
G1 X108.500 Y44.000
G1 X109.000 Y44.500
G1 X109.500 Y45.000
G1 X110.000 Y45.500
G1 X110.500 Y46.000
G1 X110.500 Y47.000
G1 X111.000 Y47.500
G1 X111.500 Y48.000
G1 X112.000 Y48.500
G1 X112.500 Y49.000
G1 X112.500 Y50.000
G1 X113.000 Y50.500
G1 X113.500 Y51.000
G1 X113.500 Y52.000
G1 X114.000 Y52.500
G1 X114.500 Y53.000
G1 X114.500 Y54.000
G1 X115.000 Y54.500
G1 X115.500 Y55.000
G1 X116.000 Y55.500
G1 X116.500 Y56.000
G1 X116.500 Y57.000
G1 X117.000 Y57.500
G1 X117.500 Y58.000
G1 X117.500 Y59.000
G1 X117.500 Y60.000
G1 X117.500 Y61.000
G1 X118.000 Y61.500
G1 X118.500 Y62.000
G1 X118.500 Y63.000
G1 X118.500 Y64.000
G1 X118.500 Y65.000
G1 X119.000 Y65.500
G0 Z4.600 F3000
M400
M204 P12000 T12000
G1 F12000
G0 X119.000 Y83.500 Z4.600
M400
M204 P200 T200
G1 F400
G1 Z0.000 F2500
; --- Backlash X fix: -0.500mm ---
G0 X118.500 Y83.500 F200
G1 X118.000 Y84.000
G1 X118.000 Y85.000
G1 X118.000 Y86.000
G1 X118.000 Y87.000
G1 X117.500 Y87.500
G1 X117.000 Y88.000
G1 X117.000 Y89.000
G1 X117.000 Y90.000
G1 X117.000 Y91.000
G1 X116.500 Y91.500
G1 X116.000 Y92.000
G1 X116.000 Y93.000
G1 X115.500 Y93.500
G1 X115.000 Y94.000
G1 X114.500 Y94.500
G1 X114.000 Y95.000
G1 X114.000 Y96.000
G1 X113.500 Y96.500
G1 X113.000 Y97.000
G1 X113.000 Y98.000
G1 X112.500 Y98.500
G1 X112.000 Y99.000
G1 X112.000 Y100.000
G1 X111.500 Y100.500
G1 X111.000 Y101.000
G1 X110.500 Y101.500
G1 X110.000 Y102.000
G1 X110.000 Y103.000
G1 X109.500 Y103.500
G1 X109.000 Y104.000
G1 X108.500 Y104.500
G1 X108.000 Y105.000
G1 X107.500 Y105.500
G1 X107.000 Y106.000
G1 X106.500 Y106.500
G1 X106.000 Y107.000
G1 X105.500 Y107.500
G1 X105.000 Y108.000
G1 X104.500 Y108.500
G1 X104.000 Y109.000
G1 X103.500 Y109.500
G1 X103.000 Y110.000
G1 X102.500 Y110.500
G1 X101.500 Y110.500
G1 X101.000 Y111.000
G1 X100.500 Y111.500
G1 X100.000 Y112.000
G1 X99.500 Y112.500
G1 X98.500 Y112.500
G1 X98.000 Y113.000
G1 X97.500 Y113.500
G1 X96.500 Y113.500
G1 X96.000 Y114.000
G1 X95.500 Y114.500
G1 X94.500 Y114.500
G1 X94.000 Y115.000
G1 X93.500 Y115.500
G1 X93.000 Y116.000
G1 X92.500 Y116.500
G1 X91.500 Y116.500
G1 X91.000 Y117.000
G1 X90.500 Y117.500
G1 X89.500 Y117.500
G1 X88.500 Y117.500
G1 X87.500 Y117.500
G1 X87.000 Y118.000
G1 X86.500 Y118.500
G1 X85.500 Y118.500
G1 X84.500 Y118.500
G1 X83.500 Y118.500
G1 X83.000 Y119.000
G0 Z4.600 F3000
M400
M204 P12000 T12000
G1 F12000
G0 X65.000 Y119.000 Z4.600
M400
M204 P200 T200
G1 F400
G1 Z0.000 F2500
; --- Backlash Y fix: -1.600mm ---
G0 X65.000 Y117.400 F200
G1 X64.500 Y116.900
G1 X63.500 Y116.900
G1 X62.500 Y116.900
G1 X61.500 Y116.900
G1 X61.000 Y116.400
G1 X60.500 Y115.900
G1 X59.500 Y115.900
G1 X58.500 Y115.900
G1 X57.500 Y115.900
G1 X57.000 Y115.400
G1 X56.500 Y114.900
G1 X55.500 Y114.900
G1 X55.000 Y114.400
G1 X54.500 Y113.900
G1 X54.000 Y113.400
G1 X53.500 Y112.900
G1 X52.500 Y112.900
G1 X52.000 Y112.400
G1 X51.500 Y111.900
G1 X50.500 Y111.900
G1 X50.000 Y111.400
G1 X49.500 Y110.900
G1 X48.500 Y110.900
G1 X48.000 Y110.400
G1 X47.500 Y109.900
G1 X47.000 Y109.400
G1 X46.500 Y108.900
G1 X45.500 Y108.900
G1 X45.000 Y108.400
G1 X44.500 Y107.900
G1 X44.000 Y107.400
G1 X43.500 Y106.900
G1 X43.000 Y106.400
G1 X42.500 Y105.900
G1 X42.000 Y105.400
G1 X41.500 Y104.900
G1 X41.000 Y104.400
G1 X40.500 Y103.900
G1 X40.000 Y103.400
G1 X39.500 Y102.900
G1 X39.000 Y102.400
G1 X38.500 Y101.900
G1 X38.000 Y101.400
G1 X38.000 Y100.400
G1 X37.500 Y99.900
G1 X37.000 Y99.400
G1 X36.500 Y98.900
G1 X36.000 Y98.400
G1 X36.000 Y97.400
G1 X35.500 Y96.900
G1 X35.000 Y96.400
G1 X35.000 Y95.400
G1 X34.500 Y94.900
G1 X34.000 Y94.400
G1 X34.000 Y93.400
G1 X33.500 Y92.900
G1 X33.000 Y92.400
G1 X32.500 Y91.900
G1 X32.000 Y91.400
G1 X32.000 Y90.400
G1 X31.500 Y89.900
G1 X31.000 Y89.400
G1 X31.000 Y88.400
G1 X31.000 Y87.400
G1 X31.000 Y86.400
G1 X30.500 Y85.900
G1 X30.000 Y85.400
G1 X30.000 Y84.400
G1 X30.000 Y83.400
G1 X30.000 Y82.400
G1 X29.500 Y81.900
G0 Z4.600 F3000
M400
M204 P12000 T12000
G1 F12000
G0 X29.500 Y63.900 Z4.600
M400
M204 P200 T200
G1 F400
G1 Z0.000 F2500
; --- Backlash X fix: 0.500mm ---
G0 X30.000 Y63.900 F200
G1 X30.500 Y63.400
G1 X30.500 Y62.400
G1 X30.500 Y61.400
G1 X30.500 Y60.400
G1 X31.000 Y59.900
G1 X31.500 Y59.400
G1 X31.500 Y58.400
G1 X31.500 Y57.400
G1 X31.500 Y56.400
G1 X32.000 Y55.900
G1 X32.500 Y55.400
G1 X32.500 Y54.400
G1 X33.000 Y53.900
G1 X33.500 Y53.400
G1 X34.000 Y52.900
G1 X34.500 Y52.400
G1 X34.500 Y51.400
G1 X35.000 Y50.900
G1 X35.500 Y50.400
G1 X35.500 Y49.400
G1 X36.000 Y48.900
G1 X36.500 Y48.400
G1 X36.500 Y47.400
G1 X37.000 Y46.900
G1 X37.500 Y46.400
G1 X38.000 Y45.900
G1 X38.500 Y45.400
G1 X38.500 Y44.400
G1 X39.000 Y43.900
G1 X39.500 Y43.400
G1 X40.000 Y42.900
G1 X40.500 Y42.400
G1 X41.000 Y41.900
G1 X41.500 Y41.400
G1 X42.000 Y40.900
G1 X42.500 Y40.400
G1 X43.000 Y39.900
G1 X43.500 Y39.400
G1 X44.000 Y38.900
G1 X44.500 Y38.400
G1 X45.000 Y37.900
G1 X45.500 Y37.400
G1 X46.000 Y36.900
G1 X47.000 Y36.900
G1 X47.500 Y36.400
G1 X48.000 Y35.900
G1 X48.500 Y35.400
G1 X49.000 Y34.900
G1 X50.000 Y34.900
G1 X50.500 Y34.400
G1 X51.000 Y33.900
G1 X52.000 Y33.900
G1 X52.500 Y33.400
G1 X53.000 Y32.900
G1 X54.000 Y32.900
G1 X54.500 Y32.400
G1 X55.000 Y31.900
G1 X55.500 Y31.400
G1 X56.000 Y30.900
G1 X57.000 Y30.900
G1 X57.500 Y30.400
G1 X58.000 Y29.900
G1 X59.000 Y29.900
G1 X60.000 Y29.900
G1 X61.000 Y29.900
G1 X61.500 Y29.400
G1 X62.000 Y28.900
G1 X63.000 Y28.900
G1 X64.000 Y28.900
G1 X65.000 Y28.900
G1 X65.500 Y28.400
G0 Z4.600 F3000

M400
G0 Z31.000 F3000
M2