G90
G21
; === MULTI-COLOR PAINTER GCODE ===
; Generated layers: 1
; Backlash compensation: OFF
; Working area clamping: ON  X[0–150] Y[0–150]


; ═══════════════════════════════
; LAYER 1: Color 1 — Red
; Infill: concentric (outline only)
; ═══════════════════════════════


; --- CIKEL NAMAKANJA ---
G0 Z4.600 F3000
M400
M204 P12000 T12000
G1 F12000
G0 X77.874 Y7.819 Z31.000
G1 Z0.000 F3000
G1 X77.874 Y7.819 F2500
G1 X77.874 Y20.319 F2500
G1 X52.874 Y7.819 F2500
G1 X77.874 Y-29.681 F2500
G0 Z16.000 F3000
G0 X74.987 Y69.421
G0 Z31.000 F3000
G0 X80.500 Y112.000 Z4.600
M400
M204 P12000 T12000
G1 F12000
G0 X80.500 Y112.000 Z4.600
M400
M204 P200 T200
G1 F400
G1 Z0.000 F2500
G1 X81.000 Y112.500
G1 X81.500 Y112.000
G1 X82.000 Y111.500
G1 X83.000 Y111.500
G1 X84.000 Y111.500
G1 X85.000 Y111.500
G1 X86.000 Y111.500
G1 X87.000 Y111.500
G1 X88.000 Y111.500
G1 X89.000 Y111.500
G1 X89.500 Y111.000
G1 X90.000 Y110.500
G1 X91.000 Y110.500
G1 X91.500 Y110.000
G1 X92.000 Y109.500
G1 X93.000 Y109.500
G1 X93.500 Y109.000
G1 X94.000 Y108.500
G1 X95.000 Y108.500
G1 X95.500 Y108.000
G1 X96.000 Y107.500
G1 X97.000 Y107.500
G1 X97.500 Y107.000
G1 X98.000 Y106.500
G1 X98.500 Y106.000
G1 X99.000 Y105.500
G1 X99.500 Y105.000
G1 X100.000 Y104.500
G1 X101.000 Y104.500
G1 X101.500 Y104.000
G1 X102.000 Y103.500
G1 X102.500 Y103.000
G1 X103.000 Y102.500
G1 X103.500 Y102.000
G1 X103.500 Y101.000
G1 X104.000 Y100.500
G1 X104.500 Y100.000
G1 X105.000 Y99.500
G1 X105.500 Y99.000
G1 X106.000 Y98.500
G1 X106.500 Y98.000
G1 X106.500 Y97.000
G1 X107.000 Y96.500
G1 X107.500 Y96.000
G1 X107.500 Y95.000
G1 X108.000 Y94.500
G1 X108.500 Y94.000
G1 X108.500 Y93.000
G1 X108.500 Y92.000
G1 X108.500 Y91.000
G1 X109.000 Y90.500
G1 X109.500 Y90.000
G1 X109.500 Y89.000
G1 X109.500 Y88.000
G1 X109.500 Y87.000
G1 X110.000 Y86.500
G1 X110.500 Y86.000
G1 X110.500 Y85.000
G1 X110.500 Y84.000
G1 X110.500 Y83.000
G1 X110.500 Y82.000
G1 X110.500 Y81.000
G1 X110.500 Y80.000
G1 X110.500 Y79.000
G1 X110.000 Y78.500
G1 X109.500 Y78.000
G1 X109.500 Y77.000
G1 X109.500 Y76.000
G1 X109.500 Y75.000
G1 X109.500 Y74.000
G1 X109.000 Y73.500
G1 X108.500 Y73.000
G1 X108.500 Y72.000
G1 X108.500 Y71.000
G1 X108.000 Y70.500
G1 X107.500 Y70.000
G1 X107.500 Y69.000
G1 X107.000 Y68.500
G1 X106.500 Y68.000
G1 X106.500 Y67.000
G1 X106.000 Y66.500
G1 X105.500 Y66.000
G1 X105.500 Y65.000
G1 X105.000 Y64.500
G1 X104.500 Y64.000
G1 X104.000 Y63.500
G1 X103.500 Y63.000
G1 X103.000 Y62.500
G1 X102.500 Y62.000
G1 X102.000 Y61.500
G1 X101.500 Y61.000
G1 X101.000 Y60.500
G1 X100.500 Y60.000
G1 X100.000 Y59.500
G1 X99.000 Y59.500
G1 X98.500 Y59.000
G1 X98.000 Y58.500
G1 X97.500 Y58.000
G1 X97.000 Y57.500
G1 X96.500 Y57.000
G1 X96.000 Y56.500
G1 X95.000 Y56.500
G1 X94.500 Y56.000
G1 X94.000 Y55.500
G1 X93.000 Y55.500
G1 X92.500 Y55.000
G1 X92.000 Y54.500
G1 X91.000 Y54.500
G1 X90.000 Y54.500
G1 X89.500 Y54.000
G1 X89.000 Y53.500
G1 X88.000 Y53.500
G1 X87.000 Y53.500
G1 X86.000 Y53.500
G1 X85.000 Y53.500
G1 X84.500 Y53.000
G1 X84.000 Y52.500
G1 X83.000 Y52.500
G1 X82.000 Y52.500
G1 X81.000 Y52.500
G1 X80.000 Y52.500
G1 X79.000 Y52.500
G1 X78.500 Y53.000
G1 X78.000 Y53.500
G1 X77.000 Y53.500
G1 X76.000 Y53.500
G1 X75.000 Y53.500
G1 X74.000 Y53.500
G1 X73.000 Y53.500
G1 X72.500 Y54.000
G1 X72.000 Y54.500
G1 X71.000 Y54.500
G1 X70.000 Y54.500
G1 X69.500 Y55.000
G1 X69.000 Y55.500
G1 X68.000 Y55.500
G1 X67.500 Y56.000
G1 X67.000 Y56.500
G1 X66.000 Y56.500
G1 X65.500 Y57.000
G1 X65.000 Y57.500
G1 X64.500 Y58.000
G1 X64.000 Y58.500
G1 X63.500 Y59.000
G1 X63.000 Y59.500
G1 X62.000 Y59.500
G1 X61.500 Y60.000
G1 X61.000 Y60.500
G1 X60.500 Y61.000
G1 X60.000 Y61.500
G1 X59.500 Y62.000
G1 X59.000 Y62.500
G1 X58.500 Y63.000
G1 X58.500 Y64.000
G1 X58.000 Y64.500
G1 X57.500 Y65.000
G1 X57.000 Y65.500
G1 X56.500 Y66.000
G1 X56.000 Y66.500
G1 X55.500 Y67.000
G1 X55.500 Y68.000
G1 X55.000 Y68.500
G1 X54.500 Y69.000
G1 X54.500 Y70.000
G1 X54.000 Y70.500
G1 X53.500 Y71.000
G1 X53.500 Y72.000
G1 X53.500 Y73.000
G1 X53.000 Y73.500
G1 X52.500 Y74.000
G1 X52.500 Y75.000
G1 X52.500 Y76.000
G1 X52.500 Y77.000
G1 X52.500 Y78.000
G1 X52.500 Y79.000
G1 X52.000 Y79.500
G1 X51.500 Y80.000
G1 X51.500 Y81.000
G1 X51.500 Y82.000
G1 X51.500 Y83.000
G1 X51.500 Y84.000
G1 X51.500 Y85.000
G1 X52.000 Y85.500
G1 X52.500 Y86.000
G1 X52.500 Y87.000
G1 X52.500 Y88.000
G1 X52.500 Y89.000
G1 X52.500 Y90.000
G1 X53.000 Y90.500
G1 X53.500 Y91.000
G1 X53.500 Y92.000
G1 X53.500 Y93.000
G1 X53.500 Y94.000
G1 X54.000 Y94.500
G1 X54.500 Y95.000
G1 X54.500 Y96.000
G1 X55.000 Y96.500
G1 X55.500 Y97.000
G1 X56.000 Y97.500
G1 X56.500 Y98.000
G1 X56.500 Y99.000
G1 X57.000 Y99.500
G1 X57.500 Y100.000
G1 X58.000 Y100.500
G1 X58.500 Y101.000
G1 X59.000 Y101.500
G1 X59.500 Y102.000
G1 X59.500 Y103.000
G1 X60.000 Y103.500
G1 X60.500 Y104.000
G1 X61.000 Y104.500
G1 X62.000 Y104.500
G1 X62.500 Y105.000
G1 X63.000 Y105.500
G1 X63.500 Y106.000
G1 X64.000 Y106.500
G1 X64.500 Y107.000
G1 X65.000 Y107.500
G1 X66.000 Y107.500
G1 X66.500 Y108.000
G1 X67.000 Y108.500
G1 X68.000 Y108.500
G1 X68.500 Y109.000
G1 X69.000 Y109.500
G1 X70.000 Y109.500
G1 X71.000 Y109.500
G1 X71.500 Y110.000
G1 X72.000 Y110.500
G1 X73.000 Y110.500
G1 X73.500 Y111.000
G1 X74.000 Y111.500
G1 X75.000 Y111.500
G1 X76.000 Y111.500
G1 X77.000 Y111.500
G1 X78.000 Y111.500
G1 X79.000 Y111.500
G1 X80.000 Y111.500
G1 X80.500 Y112.000
G0 Z4.600 F3000

M400
G0 Z31.000 F3000
M2