G90
G21
; === MULTI-COLOR PAINTER GCODE ===
; Generated layers: 2


; ═══════════════════════════════
; LAYER 1: Color 1 — Red
; ═══════════════════════════════


; --- CIKEL NAMAKANJA ---
G0 Z4.600 F3000
M400
M204 P12000 T12000
G1 F12000
G0 X-17.581 Y-17.007 Z31.000
G1 Z0.000 F3000
G1 X-17.581 Y-17.007 F2500
G1 X-17.581 Y-14.507 F2500
G1 X-22.581 Y-17.007 F2500
G1 X-17.581 Y-24.507 F2500
G0 Z16.000 F3000
G0 X10.422 Y10.788
G0 Z31.000 F3000
G0 X57.000 Y59.000 Z4.600
M400
M204 P12000 T12000
G1 F12000
G0 X57.000 Y59.000 Z4.600
M400
M204 P200 T200
G1 F400
G1 Z0.000 F2500
G1 X58.000 Y59.000
G1 X59.000 Y59.000
G1 X60.000 Y59.000
G1 X61.000 Y59.000
G1 X62.000 Y59.000
G1 X63.000 Y59.000
G1 X64.000 Y59.000
G1 X65.000 Y59.000
G1 X66.000 Y59.000
G1 X67.000 Y59.000
G1 X68.000 Y59.000
G1 X69.000 Y59.000
G1 X70.000 Y59.000
G1 X71.000 Y59.000
G1 X72.000 Y59.000
G1 X73.000 Y59.000
G1 X74.000 Y59.000
G1 X75.000 Y59.000
G1 X76.000 Y59.000
G1 X77.000 Y59.000
G1 X78.000 Y59.000
G1 X79.000 Y59.000
G1 X80.000 Y59.000
G1 X81.000 Y59.000
G1 X82.000 Y59.000
G1 X83.000 Y59.000
G1 X84.000 Y59.000
G1 X85.000 Y59.000
G1 X86.000 Y59.000
G1 X87.000 Y59.000
G1 X88.000 Y59.000
G1 X89.000 Y59.000
G1 X90.000 Y59.000
G1 X91.000 Y59.000
G1 X92.000 Y59.000
G1 X93.000 Y59.000
G1 X94.000 Y59.000
G1 X95.000 Y59.000
G1 X96.000 Y59.000
G1 X97.000 Y59.000
G1 X98.000 Y59.000
G1 X99.000 Y59.000
G1 X100.000 Y59.000
G1 X101.000 Y59.000
G1 X102.000 Y59.000
G1 X103.000 Y59.000
G1 X104.000 Y59.000
G1 X105.000 Y59.000
G1 X106.000 Y59.000
G1 X107.000 Y59.000
G1 X108.000 Y59.000
G1 X109.000 Y59.000
G1 X110.000 Y59.000
G1 X111.000 Y59.000
G1 X112.000 Y59.000
G1 X113.000 Y59.000
G1 X114.000 Y59.000
G1 X115.000 Y59.000
G1 X116.000 Y59.000
G1 X117.000 Y59.000
G1 X118.000 Y59.000
G1 X119.000 Y59.000
G1 X120.000 Y59.000
G1 X121.000 Y59.000
G1 X122.000 Y59.000
G1 X123.000 Y59.000
G1 X124.000 Y59.000
G1 X125.000 Y59.000
G1 X126.000 Y59.000
G1 X127.000 Y59.000
G1 X128.000 Y59.000
G1 X129.000 Y59.000
G1 X130.000 Y59.000
G1 X131.000 Y59.000
G1 X132.000 Y59.000
G1 X133.000 Y59.000
G1 X134.000 Y59.000
G1 X135.000 Y59.000
G1 X136.000 Y59.000
G1 X137.000 Y59.000
G1 X138.000 Y59.000
G1 X139.000 Y59.000
G1 X140.000 Y59.000
G1 X141.000 Y59.000
G1 X142.000 Y59.000
G1 X143.000 Y59.000
G1 X144.000 Y59.000
G1 X145.000 Y59.000
G1 X146.000 Y59.000
G1 X147.000 Y59.000
G1 X148.000 Y59.000
G1 X149.000 Y59.000
G1 X150.000 Y59.000
G1 X151.000 Y59.000
G1 X152.000 Y59.000
G1 X153.000 Y59.000
G1 X154.000 Y59.000
G1 X155.000 Y59.000
G1 X156.000 Y59.000
G1 X157.000 Y59.000
G1 X158.000 Y59.000
G1 X159.000 Y59.000
G1 X160.000 Y59.000
G1 X161.000 Y59.000
G1 X162.000 Y59.000
G1 X163.000 Y59.000
G1 X164.000 Y59.000
G1 X165.000 Y59.000
G1 X166.000 Y59.000
G1 X167.000 Y59.000
G1 X168.000 Y59.000
G1 X169.000 Y59.000
G1 X170.000 Y59.000
G1 X171.000 Y59.000
G1 X172.000 Y59.000
G1 X173.000 Y59.000
G1 X174.000 Y59.000
G1 X175.000 Y59.000
G1 X176.000 Y59.000
G1 X177.000 Y59.000
G1 X178.000 Y59.000
G1 X179.000 Y59.000
G1 X180.000 Y59.000
G1 X181.000 Y59.000
G1 X182.000 Y59.000
G1 X183.000 Y59.000
G1 X184.000 Y59.000
G1 X185.000 Y59.000
G1 X186.000 Y59.000
G1 X187.000 Y59.000
G1 X188.000 Y59.000
G1 X189.000 Y59.000
G1 X190.000 Y59.000
G1 X191.000 Y59.000
G1 X192.000 Y59.000
G1 X193.000 Y59.000
G1 X194.000 Y59.000
G1 X195.000 Y59.000
G1 X196.000 Y59.000
G1 X197.000 Y59.000
G1 X198.000 Y59.000
G1 X199.000 Y59.000
G1 X200.000 Y59.000
G1 X201.000 Y59.000
G1 X202.000 Y59.000
G0 Z4.600 F3000
M400
M204 P12000 T12000
G1 F12000
G0 X149.000 Y30.000 Z4.600
M400
M204 P200 T200
G1 F400
G1 Z0.000 F2500
G1 X148.000 Y30.000
G1 X147.000 Y30.000
G1 X146.000 Y30.000
G1 X145.000 Y30.000
G1 X144.000 Y30.000
G1 X143.000 Y30.000
G1 X142.000 Y30.000
G1 X141.000 Y30.000
G1 X140.000 Y30.000
G1 X139.000 Y30.000
G1 X138.000 Y30.000
G1 X137.000 Y30.000
G1 X136.000 Y30.000
G1 X135.000 Y30.000
G1 X134.000 Y30.000
G1 X133.000 Y30.000
G1 X132.000 Y30.000
G1 X131.000 Y30.000
G1 X130.000 Y30.000
G1 X129.000 Y30.000
G1 X128.000 Y30.000
G1 X127.000 Y30.000
G1 X126.000 Y30.000
G1 X125.000 Y30.000
G1 X124.000 Y30.000
G1 X123.000 Y30.000
G1 X122.000 Y30.000
G1 X121.000 Y30.000
G1 X120.000 Y30.000
G1 X119.000 Y30.000
G1 X118.000 Y30.000
G1 X117.000 Y30.000
G1 X116.000 Y30.000
G1 X115.000 Y30.000
G1 X114.000 Y30.000
G1 X113.000 Y30.000
G1 X112.000 Y30.000
G1 X111.000 Y30.000
G1 X110.000 Y30.000
G0 Z4.600 F3000
M400
M204 P12000 T12000
G1 F12000
G0 X109.000 Y31.000 Z4.600
M400
M204 P200 T200
G1 F400
G1 Z0.000 F2500
G1 X110.000 Y31.000
G1 X111.000 Y31.000
G1 X112.000 Y31.000
G1 X113.000 Y31.000
G1 X114.000 Y31.000
G1 X115.000 Y31.000
G1 X116.000 Y31.000
G1 X117.000 Y31.000
G1 X118.000 Y31.000
G1 X119.000 Y31.000
G1 X120.000 Y31.000
G1 X121.000 Y31.000
G1 X122.000 Y31.000
G1 X123.000 Y31.000
G1 X124.000 Y31.000
G1 X125.000 Y31.000
G1 X126.000 Y31.000
G1 X127.000 Y31.000
G1 X128.000 Y31.000
G1 X129.000 Y31.000
G1 X130.000 Y31.000
G1 X131.000 Y31.000
G1 X132.000 Y31.000
G1 X133.000 Y31.000
G1 X134.000 Y31.000
G1 X135.000 Y31.000
G1 X136.000 Y31.000
G1 X137.000 Y31.000
G1 X138.000 Y31.000
G1 X139.000 Y31.000
G1 X140.000 Y31.000
G1 X141.000 Y31.000
G1 X142.000 Y31.000
G1 X143.000 Y31.000
G1 X144.000 Y31.000
G1 X145.000 Y31.000
G1 X146.000 Y31.000
G1 X147.000 Y31.000
G1 X148.000 Y31.000
G1 X149.000 Y31.000
G1 X150.000 Y31.000
G0 Z4.600 F3000
M400
M204 P12000 T12000
G1 F12000
G0 X156.000 Y32.000 Z4.600
M400
M204 P200 T200
G1 F400
G1 Z0.000 F2500
G1 X155.000 Y32.000
G1 X154.000 Y32.000
G1 X153.000 Y32.000
G1 X152.000 Y32.000
G1 X151.000 Y32.000
G1 X150.000 Y32.000
G1 X149.000 Y32.000
G1 X148.000 Y32.000
G1 X147.000 Y32.000
G1 X146.000 Y32.000
G1 X145.000 Y32.000
G1 X144.000 Y32.000
G1 X143.000 Y32.000
G1 X142.000 Y32.000
G1 X141.000 Y32.000
G1 X140.000 Y32.000
G0 Z4.600 F3000

; --- CIKEL NAMAKANJA ---
G0 Z4.600 F3000
M400
M204 P12000 T12000
G1 F12000
G0 X12.991 Y-6.236 Z31.000
G1 Z0.000 F3000
G1 X12.991 Y-6.236 F2500
G1 X12.991 Y-3.736 F2500
G1 X7.991 Y-6.236 F2500
G1 X12.991 Y-13.736 F2500
G0 Z16.000 F3000
G0 X14.618 Y3.365
G0 Z31.000 F3000
G0 X139.000 Y32.000 Z4.600
M400
M204 P200 T200
G1 F400
G1 Z0.000 F2500
G1 X139.000 Y32.000
G1 X138.000 Y32.000
G1 X137.000 Y32.000
G1 X136.000 Y32.000
G1 X135.000 Y32.000
G1 X134.000 Y32.000
G1 X133.000 Y32.000
G1 X132.000 Y32.000
G1 X131.000 Y32.000
G1 X130.000 Y32.000
G1 X129.000 Y32.000
G1 X128.000 Y32.000
G1 X127.000 Y32.000
G1 X126.000 Y32.000
G1 X125.000 Y32.000
G1 X124.000 Y32.000
G1 X123.000 Y32.000
G1 X122.000 Y32.000
G1 X121.000 Y32.000
G1 X120.000 Y32.000
G1 X119.000 Y32.000
G1 X118.000 Y32.000
G1 X117.000 Y32.000
G1 X116.000 Y32.000
G1 X115.000 Y32.000
G1 X114.000 Y32.000
G1 X113.000 Y32.000
G1 X112.000 Y32.000
G1 X111.000 Y32.000
G1 X110.000 Y32.000
G1 X109.000 Y32.000
G1 X108.000 Y32.000
G1 X107.000 Y32.000
G1 X106.000 Y32.000
G1 X105.000 Y32.000
G1 X104.000 Y32.000
G1 X103.000 Y32.000
G0 Z4.600 F3000
M400
M204 P12000 T12000
G1 F12000
G0 X102.000 Y33.000 Z4.600
M400
M204 P200 T200
G1 F400
G1 Z0.000 F2500
G1 X103.000 Y33.000
G1 X104.000 Y33.000
G1 X105.000 Y33.000
G1 X106.000 Y33.000
G1 X107.000 Y33.000
G1 X108.000 Y33.000
G1 X109.000 Y33.000
G1 X110.000 Y33.000
G1 X111.000 Y33.000
G1 X112.000 Y33.000
G1 X113.000 Y33.000
G1 X114.000 Y33.000
G1 X115.000 Y33.000
G1 X116.000 Y33.000
G1 X117.000 Y33.000
G1 X118.000 Y33.000
G1 X119.000 Y33.000
G1 X120.000 Y33.000
G1 X121.000 Y33.000
G1 X122.000 Y33.000
G1 X123.000 Y33.000
G1 X124.000 Y33.000
G1 X125.000 Y33.000
G1 X126.000 Y33.000
G1 X127.000 Y33.000
G1 X128.000 Y33.000
G1 X129.000 Y33.000
G1 X130.000 Y33.000
G1 X131.000 Y33.000
G1 X132.000 Y33.000
G1 X133.000 Y33.000
G1 X134.000 Y33.000
G1 X135.000 Y33.000
G1 X136.000 Y33.000
G1 X137.000 Y33.000
G1 X138.000 Y33.000
G1 X139.000 Y33.000
G1 X140.000 Y33.000
G1 X141.000 Y33.000
G1 X142.000 Y33.000
G1 X143.000 Y33.000
G1 X144.000 Y33.000
G1 X145.000 Y33.000
G1 X146.000 Y33.000
G1 X147.000 Y33.000
G1 X148.000 Y33.000
G1 X149.000 Y33.000
G1 X150.000 Y33.000
G1 X151.000 Y33.000
G1 X152.000 Y33.000
G1 X153.000 Y33.000
G1 X154.000 Y33.000
G1 X155.000 Y33.000
G1 X156.000 Y33.000
G1 X157.000 Y33.000
G0 Z4.600 F3000
M400
M204 P12000 T12000
G1 F12000
G0 X162.000 Y34.000 Z4.600
M400
M204 P200 T200
G1 F400
G1 Z0.000 F2500
G1 X161.000 Y34.000
G1 X160.000 Y34.000
G1 X159.000 Y34.000
G1 X158.000 Y34.000
G1 X157.000 Y34.000
G1 X156.000 Y34.000
G1 X155.000 Y34.000
G1 X154.000 Y34.000
G1 X153.000 Y34.000
G1 X152.000 Y34.000
G1 X151.000 Y34.000
G1 X150.000 Y34.000
G1 X149.000 Y34.000
G1 X148.000 Y34.000
G1 X147.000 Y34.000
G1 X146.000 Y34.000
G1 X145.000 Y34.000
G1 X144.000 Y34.000
G1 X143.000 Y34.000
G1 X142.000 Y34.000
G1 X141.000 Y34.000
G1 X140.000 Y34.000
G1 X139.000 Y34.000
G1 X138.000 Y34.000
G1 X137.000 Y34.000
G1 X136.000 Y34.000
G1 X135.000 Y34.000
G1 X134.000 Y34.000
G1 X133.000 Y34.000
G1 X132.000 Y34.000
G1 X131.000 Y34.000
G1 X130.000 Y34.000
G1 X129.000 Y34.000
G1 X128.000 Y34.000
G1 X127.000 Y34.000
G1 X126.000 Y34.000
G1 X125.000 Y34.000
G1 X124.000 Y34.000
G1 X123.000 Y34.000
G1 X122.000 Y34.000
G1 X121.000 Y34.000
G1 X120.000 Y34.000
G1 X119.000 Y34.000
G1 X118.000 Y34.000
G1 X117.000 Y34.000
G1 X116.000 Y34.000
G1 X115.000 Y34.000
G1 X114.000 Y34.000
G1 X113.000 Y34.000
G1 X112.000 Y34.000
G1 X111.000 Y34.000
G1 X110.000 Y34.000
G1 X109.000 Y34.000
G1 X108.000 Y34.000
G1 X107.000 Y34.000
G1 X106.000 Y34.000
G1 X105.000 Y34.000
G1 X104.000 Y34.000
G1 X103.000 Y34.000
G1 X102.000 Y34.000
G1 X101.000 Y34.000
G1 X100.000 Y34.000
G1 X99.000 Y34.000
G1 X98.000 Y34.000
G1 X97.000 Y34.000
G0 Z4.600 F3000
M400
M204 P12000 T12000
G1 F12000
G0 X92.000 Y35.000 Z4.600
M400
M204 P200 T200
G1 F400
G1 Z0.000 F2500
G1 X93.000 Y35.000
G1 X94.000 Y35.000
G1 X95.000 Y35.000
G1 X96.000 Y35.000
G1 X97.000 Y35.000
G1 X98.000 Y35.000
G1 X99.000 Y35.000
G1 X100.000 Y35.000
G1 X101.000 Y35.000
G1 X102.000 Y35.000
G1 X103.000 Y35.000
G1 X104.000 Y35.000
G1 X105.000 Y35.000
G1 X106.000 Y35.000
G1 X107.000 Y35.000
G1 X108.000 Y35.000
G1 X109.000 Y35.000
G1 X110.000 Y35.000
G1 X111.000 Y35.000
G1 X112.000 Y35.000
G1 X113.000 Y35.000
G1 X114.000 Y35.000
G1 X115.000 Y35.000
G1 X116.000 Y35.000
G1 X117.000 Y35.000
G1 X118.000 Y35.000
G1 X119.000 Y35.000
G1 X120.000 Y35.000
G1 X121.000 Y35.000
G1 X122.000 Y35.000
G1 X123.000 Y35.000
G1 X124.000 Y35.000
G1 X125.000 Y35.000
G1 X126.000 Y35.000
G1 X127.000 Y35.000
G1 X128.000 Y35.000
G1 X129.000 Y35.000
G1 X130.000 Y35.000
G1 X131.000 Y35.000
G1 X132.000 Y35.000
G1 X133.000 Y35.000
G1 X134.000 Y35.000
G1 X135.000 Y35.000
G1 X136.000 Y35.000
G1 X137.000 Y35.000
G1 X138.000 Y35.000
G1 X139.000 Y35.000
G1 X140.000 Y35.000
G1 X141.000 Y35.000
G1 X142.000 Y35.000
G1 X143.000 Y35.000
G1 X144.000 Y35.000
G1 X145.000 Y35.000
G1 X146.000 Y35.000
G1 X147.000 Y35.000
G1 X148.000 Y35.000
G1 X149.000 Y35.000
G1 X150.000 Y35.000
G1 X151.000 Y35.000
G1 X152.000 Y35.000
G1 X153.000 Y35.000
G1 X154.000 Y35.000
G1 X155.000 Y35.000
G1 X156.000 Y35.000
G1 X157.000 Y35.000
G1 X158.000 Y35.000
G1 X159.000 Y35.000
G1 X160.000 Y35.000
G1 X161.000 Y35.000
G1 X162.000 Y35.000
G1 X163.000 Y35.000
G1 X164.000 Y35.000
G1 X165.000 Y35.000
G1 X166.000 Y35.000
G1 X167.000 Y35.000
G0 Z4.600 F3000
M400
M204 P12000 T12000
G1 F12000
G0 X167.000 Y36.000 Z4.600
M400
M204 P200 T200
G1 F400
G1 Z0.000 F2500
G1 X166.000 Y36.000
G1 X165.000 Y36.000
G1 X164.000 Y36.000
G1 X163.000 Y36.000
G1 X162.000 Y36.000
G1 X161.000 Y36.000
G1 X160.000 Y36.000
G1 X159.000 Y36.000
G1 X158.000 Y36.000
G1 X157.000 Y36.000
G1 X156.000 Y36.000
G1 X155.000 Y36.000
G1 X154.000 Y36.000
G1 X153.000 Y36.000
G1 X152.000 Y36.000
G1 X151.000 Y36.000
G1 X150.000 Y36.000
G1 X149.000 Y36.000
G0 Z4.600 F3000

; --- CIKEL NAMAKANJA ---
G0 Z4.600 F3000
M400
M204 P12000 T12000
G1 F12000
G0 X2.394 Y19.943 Z31.000
G1 Z0.000 F3000
G1 X2.394 Y19.943 F2500
G1 X2.394 Y22.443 F2500
G1 X-2.606 Y19.943 F2500
G1 X2.394 Y12.443 F2500
G0 Z16.000 F3000
G0 X14.575 Y3.545
G0 Z31.000 F3000
G0 X148.000 Y36.000 Z4.600
M400
M204 P200 T200
G1 F400
G1 Z0.000 F2500
G1 X148.000 Y36.000
G1 X147.000 Y36.000
G1 X146.000 Y36.000
G1 X145.000 Y36.000
G1 X144.000 Y36.000
G1 X143.000 Y36.000
G1 X142.000 Y36.000
G1 X141.000 Y36.000
G1 X140.000 Y36.000
G1 X139.000 Y36.000
G1 X138.000 Y36.000
G1 X137.000 Y36.000
G1 X136.000 Y36.000
G1 X135.000 Y36.000
G1 X134.000 Y36.000
G1 X133.000 Y36.000
G1 X132.000 Y36.000
G1 X131.000 Y36.000
G1 X130.000 Y36.000
G1 X129.000 Y36.000
G1 X128.000 Y36.000
G1 X127.000 Y36.000
G1 X126.000 Y36.000
G1 X125.000 Y36.000
G1 X124.000 Y36.000
G1 X123.000 Y36.000
G1 X122.000 Y36.000
G1 X121.000 Y36.000
G1 X120.000 Y36.000
G1 X119.000 Y36.000
G1 X118.000 Y36.000
G1 X117.000 Y36.000
G1 X116.000 Y36.000
G1 X115.000 Y36.000
G1 X114.000 Y36.000
G1 X113.000 Y36.000
G1 X112.000 Y36.000
G1 X111.000 Y36.000
G1 X110.000 Y36.000
G1 X109.000 Y36.000
G1 X108.000 Y36.000
G1 X107.000 Y36.000
G1 X106.000 Y36.000
G1 X105.000 Y36.000
G1 X104.000 Y36.000
G1 X103.000 Y36.000
G1 X102.000 Y36.000
G1 X101.000 Y36.000
G1 X100.000 Y36.000
G1 X99.000 Y36.000
G1 X98.000 Y36.000
G1 X97.000 Y36.000
G1 X96.000 Y36.000
G1 X95.000 Y36.000
G1 X94.000 Y36.000
G1 X93.000 Y36.000
G1 X92.000 Y36.000
G0 Z4.600 F3000
M400
M204 P12000 T12000
G1 F12000
G0 X89.000 Y37.000 Z4.600
M400
M204 P200 T200
G1 F400
G1 Z0.000 F2500
G1 X90.000 Y37.000
G1 X91.000 Y37.000
G1 X92.000 Y37.000
G1 X93.000 Y37.000
G1 X94.000 Y37.000
G1 X95.000 Y37.000
G1 X96.000 Y37.000
G1 X97.000 Y37.000
G1 X98.000 Y37.000
G1 X99.000 Y37.000
G1 X100.000 Y37.000
G1 X101.000 Y37.000
G1 X102.000 Y37.000
G1 X103.000 Y37.000
G1 X104.000 Y37.000
G1 X105.000 Y37.000
G1 X106.000 Y37.000
G1 X107.000 Y37.000
G1 X108.000 Y37.000
G1 X109.000 Y37.000
G1 X110.000 Y37.000
G1 X111.000 Y37.000
G1 X112.000 Y37.000
G1 X113.000 Y37.000
G1 X114.000 Y37.000
G1 X115.000 Y37.000
G1 X116.000 Y37.000
G1 X117.000 Y37.000
G1 X118.000 Y37.000
G1 X119.000 Y37.000
G1 X120.000 Y37.000
G1 X121.000 Y37.000
G1 X122.000 Y37.000
G1 X123.000 Y37.000
G1 X124.000 Y37.000
G1 X125.000 Y37.000
G1 X126.000 Y37.000
G1 X127.000 Y37.000
G1 X128.000 Y37.000
G1 X129.000 Y37.000
G1 X130.000 Y37.000
G1 X131.000 Y37.000
G1 X132.000 Y37.000
G1 X133.000 Y37.000
G1 X134.000 Y37.000
G1 X135.000 Y37.000
G1 X136.000 Y37.000
G1 X137.000 Y37.000
G1 X138.000 Y37.000
G1 X139.000 Y37.000
G1 X140.000 Y37.000
G1 X141.000 Y37.000
G1 X142.000 Y37.000
G1 X143.000 Y37.000
G1 X144.000 Y37.000
G1 X145.000 Y37.000
G1 X146.000 Y37.000
G1 X147.000 Y37.000
G1 X148.000 Y37.000
G1 X149.000 Y37.000
G1 X150.000 Y37.000
G1 X151.000 Y37.000
G1 X152.000 Y37.000
G1 X153.000 Y37.000
G1 X154.000 Y37.000
G1 X155.000 Y37.000
G1 X156.000 Y37.000
G1 X157.000 Y37.000
G1 X158.000 Y37.000
G1 X159.000 Y37.000
G1 X160.000 Y37.000
G1 X161.000 Y37.000
G1 X162.000 Y37.000
G1 X163.000 Y37.000
G1 X164.000 Y37.000
G1 X165.000 Y37.000
G1 X166.000 Y37.000
G1 X167.000 Y37.000
G1 X168.000 Y37.000
G1 X169.000 Y37.000
G1 X170.000 Y37.000
G0 Z4.600 F3000
M400
M204 P12000 T12000
G1 F12000
G0 X171.000 Y38.000 Z4.600
M400
M204 P200 T200
G1 F400
G1 Z0.000 F2500
G1 X170.000 Y38.000
G1 X169.000 Y38.000
G1 X168.000 Y38.000
G1 X167.000 Y38.000
G1 X166.000 Y38.000
G1 X165.000 Y38.000
G1 X164.000 Y38.000
G1 X163.000 Y38.000
G1 X162.000 Y38.000
G1 X161.000 Y38.000
G1 X160.000 Y38.000
G1 X159.000 Y38.000
G1 X158.000 Y38.000
G1 X157.000 Y38.000
G1 X156.000 Y38.000
G1 X155.000 Y38.000
G1 X154.000 Y38.000
G1 X153.000 Y38.000
G1 X152.000 Y38.000
G1 X151.000 Y38.000
G1 X150.000 Y38.000
G1 X149.000 Y38.000
G1 X148.000 Y38.000
G1 X147.000 Y38.000
G1 X146.000 Y38.000
G1 X145.000 Y38.000
G1 X144.000 Y38.000
G1 X143.000 Y38.000
G1 X142.000 Y38.000
G1 X141.000 Y38.000
G1 X140.000 Y38.000
G1 X139.000 Y38.000
G1 X138.000 Y38.000
G1 X137.000 Y38.000
G1 X136.000 Y38.000
G1 X135.000 Y38.000
G1 X134.000 Y38.000
G1 X133.000 Y38.000
G1 X132.000 Y38.000
G1 X131.000 Y38.000
G1 X130.000 Y38.000
G1 X129.000 Y38.000
G1 X128.000 Y38.000
G1 X127.000 Y38.000
G1 X126.000 Y38.000
G1 X125.000 Y38.000
G1 X124.000 Y38.000
G1 X123.000 Y38.000
G1 X122.000 Y38.000
G1 X121.000 Y38.000
G1 X120.000 Y38.000
G1 X119.000 Y38.000
G1 X118.000 Y38.000
G1 X117.000 Y38.000
G1 X116.000 Y38.000
G1 X115.000 Y38.000
G1 X114.000 Y38.000
G1 X113.000 Y38.000
G1 X112.000 Y38.000
G1 X111.000 Y38.000
G1 X110.000 Y38.000
G1 X109.000 Y38.000
G1 X108.000 Y38.000
G1 X107.000 Y38.000
G1 X106.000 Y38.000
G1 X105.000 Y38.000
G1 X104.000 Y38.000
G1 X103.000 Y38.000
G1 X102.000 Y38.000
G1 X101.000 Y38.000
G1 X100.000 Y38.000
G1 X99.000 Y38.000
G1 X98.000 Y38.000
G1 X97.000 Y38.000
G1 X96.000 Y38.000
G1 X95.000 Y38.000
G1 X94.000 Y38.000
G1 X93.000 Y38.000
G1 X92.000 Y38.000
G1 X91.000 Y38.000
G1 X90.000 Y38.000
G1 X89.000 Y38.000
G1 X88.000 Y38.000
G0 Z4.600 F3000
M400
M204 P12000 T12000
G1 F12000
G0 X85.000 Y39.000 Z4.600
M400
M204 P200 T200
G1 F400
G1 Z0.000 F2500
G1 X86.000 Y39.000
G1 X87.000 Y39.000
G1 X88.000 Y39.000
G1 X89.000 Y39.000
G1 X90.000 Y39.000
G1 X91.000 Y39.000
G1 X92.000 Y39.000
G1 X93.000 Y39.000
G1 X94.000 Y39.000
G1 X95.000 Y39.000
G1 X96.000 Y39.000
G1 X97.000 Y39.000
G1 X98.000 Y39.000
G1 X99.000 Y39.000
G1 X100.000 Y39.000
G1 X101.000 Y39.000
G1 X102.000 Y39.000
G1 X103.000 Y39.000
G1 X104.000 Y39.000
G1 X105.000 Y39.000
G1 X106.000 Y39.000
G1 X107.000 Y39.000
G1 X108.000 Y39.000
G1 X109.000 Y39.000
G1 X110.000 Y39.000
G1 X111.000 Y39.000
G1 X112.000 Y39.000
G1 X113.000 Y39.000
G0 Z4.600 F3000

; --- CIKEL NAMAKANJA ---
G0 Z4.600 F3000
M400
M204 P12000 T12000
G1 F12000
G0 X-12.182 Y2.122 Z31.000
G1 Z0.000 F3000
G1 X-12.182 Y2.122 F2500
G1 X-12.182 Y4.622 F2500
G1 X-17.182 Y2.122 F2500
G1 X-12.182 Y-5.378 F2500
G0 Z16.000 F3000
G0 X14.192 Y4.855
G0 Z31.000 F3000
G0 X114.000 Y39.000 Z4.600
M400
M204 P200 T200
G1 F400
G1 Z0.000 F2500
G1 X114.000 Y39.000
G1 X115.000 Y39.000
G1 X116.000 Y39.000
G1 X117.000 Y39.000
G1 X118.000 Y39.000
G1 X119.000 Y39.000
G1 X120.000 Y39.000
G1 X121.000 Y39.000
G1 X122.000 Y39.000
G1 X123.000 Y39.000
G1 X124.000 Y39.000
G1 X125.000 Y39.000
G1 X126.000 Y39.000
G1 X127.000 Y39.000
G1 X128.000 Y39.000
G1 X129.000 Y39.000
G1 X130.000 Y39.000
G1 X131.000 Y39.000
G1 X132.000 Y39.000
G1 X133.000 Y39.000
G1 X134.000 Y39.000
G1 X135.000 Y39.000
G1 X136.000 Y39.000
G1 X137.000 Y39.000
G1 X138.000 Y39.000
G1 X139.000 Y39.000
G1 X140.000 Y39.000
G1 X141.000 Y39.000
G1 X142.000 Y39.000
G1 X143.000 Y39.000
G1 X144.000 Y39.000
G1 X145.000 Y39.000
G1 X146.000 Y39.000
G1 X147.000 Y39.000
G1 X148.000 Y39.000
G1 X149.000 Y39.000
G1 X150.000 Y39.000
G1 X151.000 Y39.000
G1 X152.000 Y39.000
G1 X153.000 Y39.000
G1 X154.000 Y39.000
G1 X155.000 Y39.000
G1 X156.000 Y39.000
G1 X157.000 Y39.000
G1 X158.000 Y39.000
G1 X159.000 Y39.000
G1 X160.000 Y39.000
G1 X161.000 Y39.000
G1 X162.000 Y39.000
G1 X163.000 Y39.000
G1 X164.000 Y39.000
G1 X165.000 Y39.000
G1 X166.000 Y39.000
G1 X167.000 Y39.000
G1 X168.000 Y39.000
G1 X169.000 Y39.000
G1 X170.000 Y39.000
G1 X171.000 Y39.000
G1 X172.000 Y39.000
G1 X173.000 Y39.000
G1 X174.000 Y39.000
G0 Z4.600 F3000
M400
M204 P12000 T12000
G1 F12000
G0 X175.000 Y40.000 Z4.600
M400
M204 P200 T200
G1 F400
G1 Z0.000 F2500
G1 X174.000 Y40.000
G1 X173.000 Y40.000
G1 X172.000 Y40.000
G1 X171.000 Y40.000
G1 X170.000 Y40.000
G1 X169.000 Y40.000
G1 X168.000 Y40.000
G1 X167.000 Y40.000
G1 X166.000 Y40.000
G1 X165.000 Y40.000
G1 X164.000 Y40.000
G1 X163.000 Y40.000
G1 X162.000 Y40.000
G1 X161.000 Y40.000
G1 X160.000 Y40.000
G1 X159.000 Y40.000
G1 X158.000 Y40.000
G1 X157.000 Y40.000
G1 X156.000 Y40.000
G1 X155.000 Y40.000
G1 X154.000 Y40.000
G1 X153.000 Y40.000
G1 X152.000 Y40.000
G1 X151.000 Y40.000
G1 X150.000 Y40.000
G1 X149.000 Y40.000
G1 X148.000 Y40.000
G1 X147.000 Y40.000
G1 X146.000 Y40.000
G1 X145.000 Y40.000
G1 X144.000 Y40.000
G1 X143.000 Y40.000
G1 X142.000 Y40.000
G1 X141.000 Y40.000
G1 X140.000 Y40.000
G1 X139.000 Y40.000
G1 X138.000 Y40.000
G1 X137.000 Y40.000
G1 X136.000 Y40.000
G1 X135.000 Y40.000
G1 X134.000 Y40.000
G1 X133.000 Y40.000
G1 X132.000 Y40.000
G1 X131.000 Y40.000
G1 X130.000 Y40.000
G1 X129.000 Y40.000
G1 X128.000 Y40.000
G1 X127.000 Y40.000
G1 X126.000 Y40.000
G1 X125.000 Y40.000
G1 X124.000 Y40.000
G1 X123.000 Y40.000
G1 X122.000 Y40.000
G1 X121.000 Y40.000
G1 X120.000 Y40.000
G1 X119.000 Y40.000
G1 X118.000 Y40.000
G1 X117.000 Y40.000
G1 X116.000 Y40.000
G1 X115.000 Y40.000
G1 X114.000 Y40.000
G1 X113.000 Y40.000
G1 X112.000 Y40.000
G1 X111.000 Y40.000
G1 X110.000 Y40.000
G1 X109.000 Y40.000
G1 X108.000 Y40.000
G1 X107.000 Y40.000
G1 X106.000 Y40.000
G1 X105.000 Y40.000
G1 X104.000 Y40.000
G1 X103.000 Y40.000
G1 X102.000 Y40.000
G1 X101.000 Y40.000
G1 X100.000 Y40.000
G1 X99.000 Y40.000
G1 X98.000 Y40.000
G1 X97.000 Y40.000
G1 X96.000 Y40.000
G1 X95.000 Y40.000
G1 X94.000 Y40.000
G1 X93.000 Y40.000
G1 X92.000 Y40.000
G1 X91.000 Y40.000
G1 X90.000 Y40.000
G1 X89.000 Y40.000
G1 X88.000 Y40.000
G1 X87.000 Y40.000
G1 X86.000 Y40.000
G1 X85.000 Y40.000
G1 X84.000 Y40.000
G0 Z4.600 F3000
M400
M204 P12000 T12000
G1 F12000
G0 X81.000 Y41.000 Z4.600
M400
M204 P200 T200
G1 F400
G1 Z0.000 F2500
G1 X82.000 Y41.000
G1 X83.000 Y41.000
G1 X84.000 Y41.000
G1 X85.000 Y41.000
G1 X86.000 Y41.000
G1 X87.000 Y41.000
G1 X88.000 Y41.000
G1 X89.000 Y41.000
G1 X90.000 Y41.000
G1 X91.000 Y41.000
G1 X92.000 Y41.000
G1 X93.000 Y41.000
G1 X94.000 Y41.000
G1 X95.000 Y41.000
G1 X96.000 Y41.000
G1 X97.000 Y41.000
G1 X98.000 Y41.000
G1 X99.000 Y41.000
G1 X100.000 Y41.000
G1 X101.000 Y41.000
G1 X102.000 Y41.000
G1 X103.000 Y41.000
G1 X104.000 Y41.000
G1 X105.000 Y41.000
G1 X106.000 Y41.000
G1 X107.000 Y41.000
G1 X108.000 Y41.000
G1 X109.000 Y41.000
G1 X110.000 Y41.000
G1 X111.000 Y41.000
G1 X112.000 Y41.000
G1 X113.000 Y41.000
G1 X114.000 Y41.000
G1 X115.000 Y41.000
G1 X116.000 Y41.000
G1 X117.000 Y41.000
G1 X118.000 Y41.000
G1 X119.000 Y41.000
G1 X120.000 Y41.000
G1 X121.000 Y41.000
G1 X122.000 Y41.000
G1 X123.000 Y41.000
G1 X124.000 Y41.000
G1 X125.000 Y41.000
G1 X126.000 Y41.000
G1 X127.000 Y41.000
G1 X128.000 Y41.000
G1 X129.000 Y41.000
G1 X130.000 Y41.000
G1 X131.000 Y41.000
G1 X132.000 Y41.000
G1 X133.000 Y41.000
G1 X134.000 Y41.000
G1 X135.000 Y41.000
G1 X136.000 Y41.000
G1 X137.000 Y41.000
G1 X138.000 Y41.000
G1 X139.000 Y41.000
G1 X140.000 Y41.000
G1 X141.000 Y41.000
G1 X142.000 Y41.000
G1 X143.000 Y41.000
G1 X144.000 Y41.000
G1 X145.000 Y41.000
G1 X146.000 Y41.000
G1 X147.000 Y41.000
G1 X148.000 Y41.000
G1 X149.000 Y41.000
G1 X150.000 Y41.000
G1 X151.000 Y41.000
G1 X152.000 Y41.000
G1 X153.000 Y41.000
G1 X154.000 Y41.000
G1 X155.000 Y41.000
G1 X156.000 Y41.000
G1 X157.000 Y41.000
G1 X158.000 Y41.000
G1 X159.000 Y41.000
G1 X160.000 Y41.000
G1 X161.000 Y41.000
G1 X162.000 Y41.000
G1 X163.000 Y41.000
G1 X164.000 Y41.000
G1 X165.000 Y41.000
G1 X166.000 Y41.000
G1 X167.000 Y41.000
G1 X168.000 Y41.000
G1 X169.000 Y41.000
G1 X170.000 Y41.000
G1 X171.000 Y41.000
G1 X172.000 Y41.000
G1 X173.000 Y41.000
G1 X174.000 Y41.000
G1 X175.000 Y41.000
G1 X176.000 Y41.000
G1 X177.000 Y41.000
G1 X178.000 Y41.000
G0 Z4.600 F3000
M400
M204 P12000 T12000
G1 F12000
G0 X179.000 Y42.000 Z4.600
M400
M204 P200 T200
G1 F400
G1 Z0.000 F2500
G1 X178.000 Y42.000
G1 X177.000 Y42.000
G1 X176.000 Y42.000
G1 X175.000 Y42.000
G1 X174.000 Y42.000
G1 X173.000 Y42.000
G1 X172.000 Y42.000
G1 X171.000 Y42.000
G1 X170.000 Y42.000
G1 X169.000 Y42.000
G1 X168.000 Y42.000
G1 X167.000 Y42.000
G1 X166.000 Y42.000
G1 X165.000 Y42.000
G1 X164.000 Y42.000
G1 X163.000 Y42.000
G1 X162.000 Y42.000
G1 X161.000 Y42.000
G1 X160.000 Y42.000
G1 X159.000 Y42.000
G1 X158.000 Y42.000
G0 Z4.600 F3000

; --- CIKEL NAMAKANJA ---
G0 Z4.600 F3000
M400
M204 P12000 T12000
G1 F12000
G0 X-6.603 Y4.145 Z31.000
G1 Z0.000 F3000
G1 X-6.603 Y4.145 F2500
G1 X-6.603 Y6.645 F2500
G1 X-11.603 Y4.145 F2500
G1 X-6.603 Y-3.355 F2500
G0 Z16.000 F3000
G0 X14.490 Y3.876
G0 Z31.000 F3000
G0 X157.000 Y42.000 Z4.600
M400
M204 P200 T200
G1 F400
G1 Z0.000 F2500
G1 X157.000 Y42.000
G1 X156.000 Y42.000
G1 X155.000 Y42.000
G1 X154.000 Y42.000
G1 X153.000 Y42.000
G1 X152.000 Y42.000
G1 X151.000 Y42.000
G1 X150.000 Y42.000
G1 X149.000 Y42.000
G1 X148.000 Y42.000
G1 X147.000 Y42.000
G1 X146.000 Y42.000
G1 X145.000 Y42.000
G1 X144.000 Y42.000
G1 X143.000 Y42.000
G1 X142.000 Y42.000
G1 X141.000 Y42.000
G1 X140.000 Y42.000
G1 X139.000 Y42.000
G1 X138.000 Y42.000
G1 X137.000 Y42.000
G1 X136.000 Y42.000
G1 X135.000 Y42.000
G1 X134.000 Y42.000
G1 X133.000 Y42.000
G1 X132.000 Y42.000
G1 X131.000 Y42.000
G1 X130.000 Y42.000
G1 X129.000 Y42.000
G1 X128.000 Y42.000
G1 X127.000 Y42.000
G1 X126.000 Y42.000
G1 X125.000 Y42.000
G1 X124.000 Y42.000
G1 X123.000 Y42.000
G1 X122.000 Y42.000
G1 X121.000 Y42.000
G1 X120.000 Y42.000
G1 X119.000 Y42.000
G1 X118.000 Y42.000
G1 X117.000 Y42.000
G1 X116.000 Y42.000
G1 X115.000 Y42.000
G1 X114.000 Y42.000
G1 X113.000 Y42.000
G1 X112.000 Y42.000
G1 X111.000 Y42.000
G1 X110.000 Y42.000
G1 X109.000 Y42.000
G1 X108.000 Y42.000
G1 X107.000 Y42.000
G1 X106.000 Y42.000
G1 X105.000 Y42.000
G1 X104.000 Y42.000
G1 X103.000 Y42.000
G1 X102.000 Y42.000
G1 X101.000 Y42.000
G1 X100.000 Y42.000
G1 X99.000 Y42.000
G1 X98.000 Y42.000
G1 X97.000 Y42.000
G1 X96.000 Y42.000
G1 X95.000 Y42.000
G1 X94.000 Y42.000
G1 X93.000 Y42.000
G1 X92.000 Y42.000
G1 X91.000 Y42.000
G1 X90.000 Y42.000
G1 X89.000 Y42.000
G1 X88.000 Y42.000
G1 X87.000 Y42.000
G1 X86.000 Y42.000
G1 X85.000 Y42.000
G1 X84.000 Y42.000
G1 X83.000 Y42.000
G1 X82.000 Y42.000
G1 X81.000 Y42.000
G1 X80.000 Y42.000
G0 Z4.600 F3000
M400
M204 P12000 T12000
G1 F12000
G0 X77.000 Y43.000 Z4.600
M400
M204 P200 T200
G1 F400
G1 Z0.000 F2500
G1 X78.000 Y43.000
G1 X79.000 Y43.000
G1 X80.000 Y43.000
G1 X81.000 Y43.000
G1 X82.000 Y43.000
G1 X83.000 Y43.000
G1 X84.000 Y43.000
G1 X85.000 Y43.000
G1 X86.000 Y43.000
G1 X87.000 Y43.000
G1 X88.000 Y43.000
G1 X89.000 Y43.000
G1 X90.000 Y43.000
G1 X91.000 Y43.000
G1 X92.000 Y43.000
G1 X93.000 Y43.000
G1 X94.000 Y43.000
G1 X95.000 Y43.000
G1 X96.000 Y43.000
G1 X97.000 Y43.000
G1 X98.000 Y43.000
G1 X99.000 Y43.000
G1 X100.000 Y43.000
G1 X101.000 Y43.000
G1 X102.000 Y43.000
G1 X103.000 Y43.000
G1 X104.000 Y43.000
G1 X105.000 Y43.000
G1 X106.000 Y43.000
G1 X107.000 Y43.000
G1 X108.000 Y43.000
G1 X109.000 Y43.000
G1 X110.000 Y43.000
G1 X111.000 Y43.000
G1 X112.000 Y43.000
G1 X113.000 Y43.000
G1 X114.000 Y43.000
G1 X115.000 Y43.000
G1 X116.000 Y43.000
G1 X117.000 Y43.000
G1 X118.000 Y43.000
G1 X119.000 Y43.000
G1 X120.000 Y43.000
G1 X121.000 Y43.000
G1 X122.000 Y43.000
G1 X123.000 Y43.000
G1 X124.000 Y43.000
G1 X125.000 Y43.000
G1 X126.000 Y43.000
G1 X127.000 Y43.000
G1 X128.000 Y43.000
G1 X129.000 Y43.000
G1 X130.000 Y43.000
G1 X131.000 Y43.000
G1 X132.000 Y43.000
G1 X133.000 Y43.000
G1 X134.000 Y43.000
G1 X135.000 Y43.000
G1 X136.000 Y43.000
G1 X137.000 Y43.000
G1 X138.000 Y43.000
G1 X139.000 Y43.000
G1 X140.000 Y43.000
G1 X141.000 Y43.000
G1 X142.000 Y43.000
G1 X143.000 Y43.000
G1 X144.000 Y43.000
G1 X145.000 Y43.000
G1 X146.000 Y43.000
G1 X147.000 Y43.000
G1 X148.000 Y43.000
G1 X149.000 Y43.000
G1 X150.000 Y43.000
G1 X151.000 Y43.000
G1 X152.000 Y43.000
G1 X153.000 Y43.000
G1 X154.000 Y43.000
G1 X155.000 Y43.000
G1 X156.000 Y43.000
G1 X157.000 Y43.000
G1 X158.000 Y43.000
G1 X159.000 Y43.000
G1 X160.000 Y43.000
G1 X161.000 Y43.000
G1 X162.000 Y43.000
G1 X163.000 Y43.000
G1 X164.000 Y43.000
G1 X165.000 Y43.000
G1 X166.000 Y43.000
G1 X167.000 Y43.000
G1 X168.000 Y43.000
G1 X169.000 Y43.000
G1 X170.000 Y43.000
G1 X171.000 Y43.000
G1 X172.000 Y43.000
G1 X173.000 Y43.000
G1 X174.000 Y43.000
G1 X175.000 Y43.000
G1 X176.000 Y43.000
G1 X177.000 Y43.000
G1 X178.000 Y43.000
G1 X179.000 Y43.000
G1 X180.000 Y43.000
G1 X181.000 Y43.000
G1 X182.000 Y43.000
G0 Z4.600 F3000
M400
M204 P12000 T12000
G1 F12000
G0 X185.000 Y44.000 Z4.600
M400
M204 P200 T200
G1 F400
G1 Z0.000 F2500
G1 X184.000 Y44.000
G1 X183.000 Y44.000
G1 X182.000 Y44.000
G1 X181.000 Y44.000
G1 X180.000 Y44.000
G1 X179.000 Y44.000
G1 X178.000 Y44.000
G1 X177.000 Y44.000
G1 X176.000 Y44.000
G1 X175.000 Y44.000
G1 X174.000 Y44.000
G1 X173.000 Y44.000
G1 X172.000 Y44.000
G1 X171.000 Y44.000
G1 X170.000 Y44.000
G1 X169.000 Y44.000
G1 X168.000 Y44.000
G1 X167.000 Y44.000
G1 X166.000 Y44.000
G1 X165.000 Y44.000
G1 X164.000 Y44.000
G1 X163.000 Y44.000
G1 X162.000 Y44.000
G1 X161.000 Y44.000
G1 X160.000 Y44.000
G1 X159.000 Y44.000
G1 X158.000 Y44.000
G1 X157.000 Y44.000
G1 X156.000 Y44.000
G1 X155.000 Y44.000
G1 X154.000 Y44.000
G1 X153.000 Y44.000
G1 X152.000 Y44.000
G1 X151.000 Y44.000
G1 X150.000 Y44.000
G1 X149.000 Y44.000
G1 X148.000 Y44.000
G1 X147.000 Y44.000
G1 X146.000 Y44.000
G1 X145.000 Y44.000
G1 X144.000 Y44.000
G1 X143.000 Y44.000
G1 X142.000 Y44.000
G1 X141.000 Y44.000
G1 X140.000 Y44.000
G1 X139.000 Y44.000
G1 X138.000 Y44.000
G1 X137.000 Y44.000
G1 X136.000 Y44.000
G1 X135.000 Y44.000
G1 X134.000 Y44.000
G1 X133.000 Y44.000
G1 X132.000 Y44.000
G1 X131.000 Y44.000
G1 X130.000 Y44.000
G1 X129.000 Y44.000
G1 X128.000 Y44.000
G1 X127.000 Y44.000
G1 X126.000 Y44.000
G1 X125.000 Y44.000
G1 X124.000 Y44.000
G1 X123.000 Y44.000
G1 X122.000 Y44.000
G1 X121.000 Y44.000
G1 X120.000 Y44.000
G1 X119.000 Y44.000
G1 X118.000 Y44.000
G1 X117.000 Y44.000
G1 X116.000 Y44.000
G1 X115.000 Y44.000
G1 X114.000 Y44.000
G1 X113.000 Y44.000
G1 X112.000 Y44.000
G1 X111.000 Y44.000
G1 X110.000 Y44.000
G1 X109.000 Y44.000
G1 X108.000 Y44.000
G1 X107.000 Y44.000
G1 X106.000 Y44.000
G1 X105.000 Y44.000
G1 X104.000 Y44.000
G1 X103.000 Y44.000
G1 X102.000 Y44.000
G1 X101.000 Y44.000
G1 X100.000 Y44.000
G1 X99.000 Y44.000
G1 X98.000 Y44.000
G1 X97.000 Y44.000
G1 X96.000 Y44.000
G0 Z4.600 F3000

; --- CIKEL NAMAKANJA ---
G0 Z4.600 F3000
M400
M204 P12000 T12000
G1 F12000
G0 X-11.188 Y-6.687 Z31.000
G1 Z0.000 F3000
G1 X-11.188 Y-6.687 F2500
G1 X-11.188 Y-4.187 F2500
G1 X-16.188 Y-6.687 F2500
G1 X-11.188 Y-14.187 F2500
G0 Z16.000 F3000
G0 X13.611 Y6.304
G0 Z31.000 F3000
G0 X95.000 Y44.000 Z4.600
M400
M204 P200 T200
G1 F400
G1 Z0.000 F2500
G1 X95.000 Y44.000
G1 X94.000 Y44.000
G1 X93.000 Y44.000
G1 X92.000 Y44.000
G1 X91.000 Y44.000
G1 X90.000 Y44.000
G1 X89.000 Y44.000
G1 X88.000 Y44.000
G1 X87.000 Y44.000
G1 X86.000 Y44.000
G1 X85.000 Y44.000
G1 X84.000 Y44.000
G1 X83.000 Y44.000
G1 X82.000 Y44.000
G1 X81.000 Y44.000
G1 X80.000 Y44.000
G1 X79.000 Y44.000
G1 X78.000 Y44.000
G1 X77.000 Y44.000
G1 X76.000 Y44.000
G0 Z4.600 F3000
M400
M204 P12000 T12000
G1 F12000
G0 X75.000 Y45.000 Z4.600
M400
M204 P200 T200
G1 F400
G1 Z0.000 F2500
G1 X76.000 Y45.000
G1 X77.000 Y45.000
G1 X78.000 Y45.000
G1 X79.000 Y45.000
G1 X80.000 Y45.000
G1 X81.000 Y45.000
G1 X82.000 Y45.000
G1 X83.000 Y45.000
G1 X84.000 Y45.000
G1 X85.000 Y45.000
G1 X86.000 Y45.000
G1 X87.000 Y45.000
G1 X88.000 Y45.000
G1 X89.000 Y45.000
G1 X90.000 Y45.000
G1 X91.000 Y45.000
G1 X92.000 Y45.000
G1 X93.000 Y45.000
G1 X94.000 Y45.000
G1 X95.000 Y45.000
G1 X96.000 Y45.000
G1 X97.000 Y45.000
G1 X98.000 Y45.000
G1 X99.000 Y45.000
G1 X100.000 Y45.000
G1 X101.000 Y45.000
G1 X102.000 Y45.000
G1 X103.000 Y45.000
G1 X104.000 Y45.000
G1 X105.000 Y45.000
G1 X106.000 Y45.000
G1 X107.000 Y45.000
G1 X108.000 Y45.000
G1 X109.000 Y45.000
G1 X110.000 Y45.000
G1 X111.000 Y45.000
G1 X112.000 Y45.000
G1 X113.000 Y45.000
G1 X114.000 Y45.000
G1 X115.000 Y45.000
G1 X116.000 Y45.000
G1 X117.000 Y45.000
G1 X118.000 Y45.000
G1 X119.000 Y45.000
G1 X120.000 Y45.000
G1 X121.000 Y45.000
G1 X122.000 Y45.000
G1 X123.000 Y45.000
G1 X124.000 Y45.000
G1 X125.000 Y45.000
G1 X126.000 Y45.000
G1 X127.000 Y45.000
G1 X128.000 Y45.000
G1 X129.000 Y45.000
G1 X130.000 Y45.000
G1 X131.000 Y45.000
G1 X132.000 Y45.000
G1 X133.000 Y45.000
G1 X134.000 Y45.000
G1 X135.000 Y45.000
G1 X136.000 Y45.000
G1 X137.000 Y45.000
G1 X138.000 Y45.000
G1 X139.000 Y45.000
G1 X140.000 Y45.000
G1 X141.000 Y45.000
G1 X142.000 Y45.000
G1 X143.000 Y45.000
G1 X144.000 Y45.000
G1 X145.000 Y45.000
G1 X146.000 Y45.000
G1 X147.000 Y45.000
G1 X148.000 Y45.000
G1 X149.000 Y45.000
G1 X150.000 Y45.000
G1 X151.000 Y45.000
G1 X152.000 Y45.000
G1 X153.000 Y45.000
G1 X154.000 Y45.000
G1 X155.000 Y45.000
G1 X156.000 Y45.000
G1 X157.000 Y45.000
G1 X158.000 Y45.000
G1 X159.000 Y45.000
G1 X160.000 Y45.000
G1 X161.000 Y45.000
G1 X162.000 Y45.000
G1 X163.000 Y45.000
G1 X164.000 Y45.000
G1 X165.000 Y45.000
G1 X166.000 Y45.000
G1 X167.000 Y45.000
G1 X168.000 Y45.000
G1 X169.000 Y45.000
G1 X170.000 Y45.000
G1 X171.000 Y45.000
G1 X172.000 Y45.000
G1 X173.000 Y45.000
G1 X174.000 Y45.000
G1 X175.000 Y45.000
G1 X176.000 Y45.000
G1 X177.000 Y45.000
G1 X178.000 Y45.000
G1 X179.000 Y45.000
G1 X180.000 Y45.000
G1 X181.000 Y45.000
G1 X182.000 Y45.000
G1 X183.000 Y45.000
G1 X184.000 Y45.000
G1 X185.000 Y45.000
G0 Z4.600 F3000
M400
M204 P12000 T12000
G1 F12000
G0 X187.000 Y46.000 Z4.600
M400
M204 P200 T200
G1 F400
G1 Z0.000 F2500
G1 X186.000 Y46.000
G1 X185.000 Y46.000
G1 X184.000 Y46.000
G1 X183.000 Y46.000
G1 X182.000 Y46.000
G1 X181.000 Y46.000
G1 X180.000 Y46.000
G1 X179.000 Y46.000
G1 X178.000 Y46.000
G1 X177.000 Y46.000
G1 X176.000 Y46.000
G1 X175.000 Y46.000
G1 X174.000 Y46.000
G1 X173.000 Y46.000
G1 X172.000 Y46.000
G1 X171.000 Y46.000
G1 X170.000 Y46.000
G1 X169.000 Y46.000
G1 X168.000 Y46.000
G1 X167.000 Y46.000
G1 X166.000 Y46.000
G1 X165.000 Y46.000
G1 X164.000 Y46.000
G1 X163.000 Y46.000
G1 X162.000 Y46.000
G1 X161.000 Y46.000
G1 X160.000 Y46.000
G1 X159.000 Y46.000
G1 X158.000 Y46.000
G1 X157.000 Y46.000
G1 X156.000 Y46.000
G1 X155.000 Y46.000
G1 X154.000 Y46.000
G1 X153.000 Y46.000
G1 X152.000 Y46.000
G1 X151.000 Y46.000
G1 X150.000 Y46.000
G1 X149.000 Y46.000
G1 X148.000 Y46.000
G1 X147.000 Y46.000
G1 X146.000 Y46.000
G1 X145.000 Y46.000
G1 X144.000 Y46.000
G1 X143.000 Y46.000
G1 X142.000 Y46.000
G1 X141.000 Y46.000
G1 X140.000 Y46.000
G1 X139.000 Y46.000
G1 X138.000 Y46.000
G1 X137.000 Y46.000
G1 X136.000 Y46.000
G1 X135.000 Y46.000
G1 X134.000 Y46.000
G1 X133.000 Y46.000
G1 X132.000 Y46.000
G1 X131.000 Y46.000
G1 X130.000 Y46.000
G1 X129.000 Y46.000
G1 X128.000 Y46.000
G1 X127.000 Y46.000
G1 X126.000 Y46.000
G1 X125.000 Y46.000
G1 X124.000 Y46.000
G1 X123.000 Y46.000
G1 X122.000 Y46.000
G1 X121.000 Y46.000
G1 X120.000 Y46.000
G1 X119.000 Y46.000
G1 X118.000 Y46.000
G1 X117.000 Y46.000
G1 X116.000 Y46.000
G1 X115.000 Y46.000
G1 X114.000 Y46.000
G1 X113.000 Y46.000
G1 X112.000 Y46.000
G1 X111.000 Y46.000
G1 X110.000 Y46.000
G1 X109.000 Y46.000
G1 X108.000 Y46.000
G1 X107.000 Y46.000
G1 X106.000 Y46.000
G1 X105.000 Y46.000
G1 X104.000 Y46.000
G1 X103.000 Y46.000
G1 X102.000 Y46.000
G1 X101.000 Y46.000
G1 X100.000 Y46.000
G1 X99.000 Y46.000
G1 X98.000 Y46.000
G1 X97.000 Y46.000
G1 X96.000 Y46.000
G1 X95.000 Y46.000
G1 X94.000 Y46.000
G1 X93.000 Y46.000
G1 X92.000 Y46.000
G1 X91.000 Y46.000
G1 X90.000 Y46.000
G1 X89.000 Y46.000
G1 X88.000 Y46.000
G1 X87.000 Y46.000
G1 X86.000 Y46.000
G1 X85.000 Y46.000
G1 X84.000 Y46.000
G1 X83.000 Y46.000
G1 X82.000 Y46.000
G1 X81.000 Y46.000
G1 X80.000 Y46.000
G1 X79.000 Y46.000
G1 X78.000 Y46.000
G1 X77.000 Y46.000
G1 X76.000 Y46.000
G1 X75.000 Y46.000
G1 X74.000 Y46.000
G1 X73.000 Y46.000
G1 X72.000 Y46.000
G0 Z4.600 F3000
M400
M204 P12000 T12000
G1 F12000
G0 X72.000 Y47.000 Z4.600
M400
M204 P200 T200
G1 F400
G1 Z0.000 F2500
G1 X73.000 Y47.000
G1 X74.000 Y47.000
G1 X75.000 Y47.000
G1 X76.000 Y47.000
G1 X77.000 Y47.000
G1 X78.000 Y47.000
G1 X79.000 Y47.000
G1 X80.000 Y47.000
G1 X81.000 Y47.000
G1 X82.000 Y47.000
G1 X83.000 Y47.000
G1 X84.000 Y47.000
G1 X85.000 Y47.000
G1 X86.000 Y47.000
G1 X87.000 Y47.000
G1 X88.000 Y47.000
G0 Z4.600 F3000

; --- CIKEL NAMAKANJA ---
G0 Z4.600 F3000
M400
M204 P12000 T12000
G1 F12000
G0 X16.759 Y17.669 Z31.000
G1 Z0.000 F3000
G1 X16.759 Y17.669 F2500
G1 X16.759 Y20.169 F2500
G1 X11.759 Y17.669 F2500
G1 X16.759 Y10.169 F2500
G0 Z16.000 F3000
G0 X13.264 Y7.005
G0 Z31.000 F3000
G0 X89.000 Y47.000 Z4.600
M400
M204 P200 T200
G1 F400
G1 Z0.000 F2500
G1 X89.000 Y47.000
G1 X90.000 Y47.000
G1 X91.000 Y47.000
G1 X92.000 Y47.000
G1 X93.000 Y47.000
G1 X94.000 Y47.000
G1 X95.000 Y47.000
G1 X96.000 Y47.000
G1 X97.000 Y47.000
G1 X98.000 Y47.000
G1 X99.000 Y47.000
G1 X100.000 Y47.000
G1 X101.000 Y47.000
G1 X102.000 Y47.000
G1 X103.000 Y47.000
G1 X104.000 Y47.000
G1 X105.000 Y47.000
G1 X106.000 Y47.000
G1 X107.000 Y47.000
G1 X108.000 Y47.000
G1 X109.000 Y47.000
G1 X110.000 Y47.000
G1 X111.000 Y47.000
G1 X112.000 Y47.000
G1 X113.000 Y47.000
G1 X114.000 Y47.000
G1 X115.000 Y47.000
G1 X116.000 Y47.000
G1 X117.000 Y47.000
G1 X118.000 Y47.000
G1 X119.000 Y47.000
G1 X120.000 Y47.000
G1 X121.000 Y47.000
G1 X122.000 Y47.000
G1 X123.000 Y47.000
G1 X124.000 Y47.000
G1 X125.000 Y47.000
G1 X126.000 Y47.000
G1 X127.000 Y47.000
G1 X128.000 Y47.000
G1 X129.000 Y47.000
G1 X130.000 Y47.000
G1 X131.000 Y47.000
G1 X132.000 Y47.000
G1 X133.000 Y47.000
G1 X134.000 Y47.000
G1 X135.000 Y47.000
G1 X136.000 Y47.000
G1 X137.000 Y47.000
G1 X138.000 Y47.000
G1 X139.000 Y47.000
G1 X140.000 Y47.000
G1 X141.000 Y47.000
G1 X142.000 Y47.000
G1 X143.000 Y47.000
G1 X144.000 Y47.000
G1 X145.000 Y47.000
G1 X146.000 Y47.000
G1 X147.000 Y47.000
G1 X148.000 Y47.000
G1 X149.000 Y47.000
G1 X150.000 Y47.000
G1 X151.000 Y47.000
G1 X152.000 Y47.000
G1 X153.000 Y47.000
G1 X154.000 Y47.000
G1 X155.000 Y47.000
G1 X156.000 Y47.000
G1 X157.000 Y47.000
G1 X158.000 Y47.000
G1 X159.000 Y47.000
G1 X160.000 Y47.000
G1 X161.000 Y47.000
G1 X162.000 Y47.000
G1 X163.000 Y47.000
G1 X164.000 Y47.000
G1 X165.000 Y47.000
G1 X166.000 Y47.000
G1 X167.000 Y47.000
G1 X168.000 Y47.000
G1 X169.000 Y47.000
G1 X170.000 Y47.000
G1 X171.000 Y47.000
G1 X172.000 Y47.000
G1 X173.000 Y47.000
G1 X174.000 Y47.000
G1 X175.000 Y47.000
G1 X176.000 Y47.000
G1 X177.000 Y47.000
G1 X178.000 Y47.000
G1 X179.000 Y47.000
G1 X180.000 Y47.000
G1 X181.000 Y47.000
G1 X182.000 Y47.000
G1 X183.000 Y47.000
G1 X184.000 Y47.000
G1 X185.000 Y47.000
G1 X186.000 Y47.000
G1 X187.000 Y47.000
G0 Z4.600 F3000
M400
M204 P12000 T12000
G1 F12000
G0 X189.000 Y48.000 Z4.600
M400
M204 P200 T200
G1 F400
G1 Z0.000 F2500
G1 X188.000 Y48.000
G1 X187.000 Y48.000
G1 X186.000 Y48.000
G1 X185.000 Y48.000
G1 X184.000 Y48.000
G1 X183.000 Y48.000
G1 X182.000 Y48.000
G1 X181.000 Y48.000
G1 X180.000 Y48.000
G1 X179.000 Y48.000
G1 X178.000 Y48.000
G1 X177.000 Y48.000
G1 X176.000 Y48.000
G1 X175.000 Y48.000
G1 X174.000 Y48.000
G1 X173.000 Y48.000
G1 X172.000 Y48.000
G1 X171.000 Y48.000
G1 X170.000 Y48.000
G1 X169.000 Y48.000
G1 X168.000 Y48.000
G1 X167.000 Y48.000
G1 X166.000 Y48.000
G1 X165.000 Y48.000
G1 X164.000 Y48.000
G1 X163.000 Y48.000
G1 X162.000 Y48.000
G1 X161.000 Y48.000
G1 X160.000 Y48.000
G1 X159.000 Y48.000
G1 X158.000 Y48.000
G1 X157.000 Y48.000
G1 X156.000 Y48.000
G1 X155.000 Y48.000
G1 X154.000 Y48.000
G1 X153.000 Y48.000
G1 X152.000 Y48.000
G1 X151.000 Y48.000
G1 X150.000 Y48.000
G1 X149.000 Y48.000
G1 X148.000 Y48.000
G1 X147.000 Y48.000
G1 X146.000 Y48.000
G1 X145.000 Y48.000
G1 X144.000 Y48.000
G1 X143.000 Y48.000
G1 X142.000 Y48.000
G1 X141.000 Y48.000
G1 X140.000 Y48.000
G1 X139.000 Y48.000
G1 X138.000 Y48.000
G1 X137.000 Y48.000
G1 X136.000 Y48.000
G1 X135.000 Y48.000
G1 X134.000 Y48.000
G1 X133.000 Y48.000
G1 X132.000 Y48.000
G1 X131.000 Y48.000
G1 X130.000 Y48.000
G1 X129.000 Y48.000
G1 X128.000 Y48.000
G1 X127.000 Y48.000
G1 X126.000 Y48.000
G1 X125.000 Y48.000
G1 X124.000 Y48.000
G1 X123.000 Y48.000
G1 X122.000 Y48.000
G1 X121.000 Y48.000
G1 X120.000 Y48.000
G1 X119.000 Y48.000
G1 X118.000 Y48.000
G1 X117.000 Y48.000
G1 X116.000 Y48.000
G1 X115.000 Y48.000
G1 X114.000 Y48.000
G1 X113.000 Y48.000
G1 X112.000 Y48.000
G1 X111.000 Y48.000
G1 X110.000 Y48.000
G1 X109.000 Y48.000
G1 X108.000 Y48.000
G1 X107.000 Y48.000
G1 X106.000 Y48.000
G1 X105.000 Y48.000
G1 X104.000 Y48.000
G1 X103.000 Y48.000
G1 X102.000 Y48.000
G1 X101.000 Y48.000
G1 X100.000 Y48.000
G1 X99.000 Y48.000
G1 X98.000 Y48.000
G1 X97.000 Y48.000
G1 X96.000 Y48.000
G1 X95.000 Y48.000
G1 X94.000 Y48.000
G1 X93.000 Y48.000
G1 X92.000 Y48.000
G1 X91.000 Y48.000
G1 X90.000 Y48.000
G1 X89.000 Y48.000
G1 X88.000 Y48.000
G1 X87.000 Y48.000
G1 X86.000 Y48.000
G1 X85.000 Y48.000
G1 X84.000 Y48.000
G1 X83.000 Y48.000
G1 X82.000 Y48.000
G1 X81.000 Y48.000
G1 X80.000 Y48.000
G1 X79.000 Y48.000
G1 X78.000 Y48.000
G1 X77.000 Y48.000
G1 X76.000 Y48.000
G1 X75.000 Y48.000
G1 X74.000 Y48.000
G1 X73.000 Y48.000
G1 X72.000 Y48.000
G1 X71.000 Y48.000
G1 X70.000 Y48.000
G0 Z4.600 F3000
M400
M204 P12000 T12000
G1 F12000
G0 X70.000 Y49.000 Z4.600
M400
M204 P200 T200
G1 F400
G1 Z0.000 F2500
G1 X71.000 Y49.000
G1 X72.000 Y49.000
G1 X73.000 Y49.000
G1 X74.000 Y49.000
G1 X75.000 Y49.000
G1 X76.000 Y49.000
G1 X77.000 Y49.000
G1 X78.000 Y49.000
G1 X79.000 Y49.000
G1 X80.000 Y49.000
G1 X81.000 Y49.000
G1 X82.000 Y49.000
G1 X83.000 Y49.000
G1 X84.000 Y49.000
G1 X85.000 Y49.000
G1 X86.000 Y49.000
G1 X87.000 Y49.000
G1 X88.000 Y49.000
G1 X89.000 Y49.000
G1 X90.000 Y49.000
G1 X91.000 Y49.000
G1 X92.000 Y49.000
G1 X93.000 Y49.000
G1 X94.000 Y49.000
G1 X95.000 Y49.000
G1 X96.000 Y49.000
G1 X97.000 Y49.000
G1 X98.000 Y49.000
G1 X99.000 Y49.000
G1 X100.000 Y49.000
G1 X101.000 Y49.000
G1 X102.000 Y49.000
G1 X103.000 Y49.000
G1 X104.000 Y49.000
G1 X105.000 Y49.000
G1 X106.000 Y49.000
G1 X107.000 Y49.000
G1 X108.000 Y49.000
G1 X109.000 Y49.000
G1 X110.000 Y49.000
G1 X111.000 Y49.000
G1 X112.000 Y49.000
G1 X113.000 Y49.000
G1 X114.000 Y49.000
G1 X115.000 Y49.000
G1 X116.000 Y49.000
G1 X117.000 Y49.000
G1 X118.000 Y49.000
G1 X119.000 Y49.000
G1 X120.000 Y49.000
G1 X121.000 Y49.000
G0 Z4.600 F3000

; --- CIKEL NAMAKANJA ---
G0 Z4.600 F3000
M400
M204 P12000 T12000
G1 F12000
G0 X-18.268 Y14.310 Z31.000
G1 Z0.000 F3000
G1 X-18.268 Y14.310 F2500
G1 X-18.268 Y16.810 F2500
G1 X-23.268 Y14.310 F2500
G1 X-18.268 Y6.810 F2500
G0 Z16.000 F3000
G0 X13.919 Y5.591
G0 Z31.000 F3000
G0 X122.000 Y49.000 Z4.600
M400
M204 P200 T200
G1 F400
G1 Z0.000 F2500
G1 X122.000 Y49.000
G1 X123.000 Y49.000
G1 X124.000 Y49.000
G1 X125.000 Y49.000
G1 X126.000 Y49.000
G1 X127.000 Y49.000
G1 X128.000 Y49.000
G1 X129.000 Y49.000
G1 X130.000 Y49.000
G1 X131.000 Y49.000
G1 X132.000 Y49.000
G1 X133.000 Y49.000
G1 X134.000 Y49.000
G1 X135.000 Y49.000
G1 X136.000 Y49.000
G1 X137.000 Y49.000
G1 X138.000 Y49.000
G1 X139.000 Y49.000
G1 X140.000 Y49.000
G1 X141.000 Y49.000
G1 X142.000 Y49.000
G1 X143.000 Y49.000
G1 X144.000 Y49.000
G1 X145.000 Y49.000
G1 X146.000 Y49.000
G1 X147.000 Y49.000
G1 X148.000 Y49.000
G1 X149.000 Y49.000
G1 X150.000 Y49.000
G1 X151.000 Y49.000
G1 X152.000 Y49.000
G1 X153.000 Y49.000
G1 X154.000 Y49.000
G1 X155.000 Y49.000
G1 X156.000 Y49.000
G1 X157.000 Y49.000
G1 X158.000 Y49.000
G1 X159.000 Y49.000
G1 X160.000 Y49.000
G1 X161.000 Y49.000
G1 X162.000 Y49.000
G1 X163.000 Y49.000
G1 X164.000 Y49.000
G1 X165.000 Y49.000
G1 X166.000 Y49.000
G1 X167.000 Y49.000
G1 X168.000 Y49.000
G1 X169.000 Y49.000
G1 X170.000 Y49.000
G1 X171.000 Y49.000
G1 X172.000 Y49.000
G1 X173.000 Y49.000
G1 X174.000 Y49.000
G1 X175.000 Y49.000
G1 X176.000 Y49.000
G1 X177.000 Y49.000
G1 X178.000 Y49.000
G1 X179.000 Y49.000
G1 X180.000 Y49.000
G1 X181.000 Y49.000
G1 X182.000 Y49.000
G1 X183.000 Y49.000
G1 X184.000 Y49.000
G1 X185.000 Y49.000
G1 X186.000 Y49.000
G1 X187.000 Y49.000
G1 X188.000 Y49.000
G1 X189.000 Y49.000
G0 Z4.600 F3000
M400
M204 P12000 T12000
G1 F12000
G0 X192.000 Y50.000 Z4.600
M400
M204 P200 T200
G1 F400
G1 Z0.000 F2500
G1 X191.000 Y50.000
G1 X190.000 Y50.000
G1 X189.000 Y50.000
G1 X188.000 Y50.000
G1 X187.000 Y50.000
G1 X186.000 Y50.000
G1 X185.000 Y50.000
G1 X184.000 Y50.000
G1 X183.000 Y50.000
G1 X182.000 Y50.000
G1 X181.000 Y50.000
G1 X180.000 Y50.000
G1 X179.000 Y50.000
G1 X178.000 Y50.000
G1 X177.000 Y50.000
G1 X176.000 Y50.000
G1 X175.000 Y50.000
G1 X174.000 Y50.000
G1 X173.000 Y50.000
G1 X172.000 Y50.000
G1 X171.000 Y50.000
G1 X170.000 Y50.000
G1 X169.000 Y50.000
G1 X168.000 Y50.000
G1 X167.000 Y50.000
G1 X166.000 Y50.000
G1 X165.000 Y50.000
G1 X164.000 Y50.000
G1 X163.000 Y50.000
G1 X162.000 Y50.000
G1 X161.000 Y50.000
G1 X160.000 Y50.000
G1 X159.000 Y50.000
G1 X158.000 Y50.000
G1 X157.000 Y50.000
G1 X156.000 Y50.000
G1 X155.000 Y50.000
G1 X154.000 Y50.000
G1 X153.000 Y50.000
G1 X152.000 Y50.000
G1 X151.000 Y50.000
G1 X150.000 Y50.000
G1 X149.000 Y50.000
G1 X148.000 Y50.000
G1 X147.000 Y50.000
G1 X146.000 Y50.000
G1 X145.000 Y50.000
G1 X144.000 Y50.000
G1 X143.000 Y50.000
G1 X142.000 Y50.000
G1 X141.000 Y50.000
G1 X140.000 Y50.000
G1 X139.000 Y50.000
G1 X138.000 Y50.000
G1 X137.000 Y50.000
G1 X136.000 Y50.000
G1 X135.000 Y50.000
G1 X134.000 Y50.000
G1 X133.000 Y50.000
G1 X132.000 Y50.000
G1 X131.000 Y50.000
G1 X130.000 Y50.000
G1 X129.000 Y50.000
G1 X128.000 Y50.000
G1 X127.000 Y50.000
G1 X126.000 Y50.000
G1 X125.000 Y50.000
G1 X124.000 Y50.000
G1 X123.000 Y50.000
G1 X122.000 Y50.000
G1 X121.000 Y50.000
G1 X120.000 Y50.000
G1 X119.000 Y50.000
G1 X118.000 Y50.000
G1 X117.000 Y50.000
G1 X116.000 Y50.000
G1 X115.000 Y50.000
G1 X114.000 Y50.000
G1 X113.000 Y50.000
G1 X112.000 Y50.000
G1 X111.000 Y50.000
G1 X110.000 Y50.000
G1 X109.000 Y50.000
G1 X108.000 Y50.000
G1 X107.000 Y50.000
G1 X106.000 Y50.000
G1 X105.000 Y50.000
G1 X104.000 Y50.000
G1 X103.000 Y50.000
G1 X102.000 Y50.000
G1 X101.000 Y50.000
G1 X100.000 Y50.000
G1 X99.000 Y50.000
G1 X98.000 Y50.000
G1 X97.000 Y50.000
G1 X96.000 Y50.000
G1 X95.000 Y50.000
G1 X94.000 Y50.000
G1 X93.000 Y50.000
G1 X92.000 Y50.000
G1 X91.000 Y50.000
G1 X90.000 Y50.000
G1 X89.000 Y50.000
G1 X88.000 Y50.000
G1 X87.000 Y50.000
G1 X86.000 Y50.000
G1 X85.000 Y50.000
G1 X84.000 Y50.000
G1 X83.000 Y50.000
G1 X82.000 Y50.000
G1 X81.000 Y50.000
G1 X80.000 Y50.000
G1 X79.000 Y50.000
G1 X78.000 Y50.000
G1 X77.000 Y50.000
G1 X76.000 Y50.000
G1 X75.000 Y50.000
G1 X74.000 Y50.000
G1 X73.000 Y50.000
G1 X72.000 Y50.000
G1 X71.000 Y50.000
G1 X70.000 Y50.000
G1 X69.000 Y50.000
G1 X68.000 Y50.000
G1 X67.000 Y50.000
G0 Z4.600 F3000
M400
M204 P12000 T12000
G1 F12000
G0 X66.000 Y51.000 Z4.600
M400
M204 P200 T200
G1 F400
G1 Z0.000 F2500
G1 X67.000 Y51.000
G1 X68.000 Y51.000
G1 X69.000 Y51.000
G1 X70.000 Y51.000
G1 X71.000 Y51.000
G1 X72.000 Y51.000
G1 X73.000 Y51.000
G1 X74.000 Y51.000
G1 X75.000 Y51.000
G1 X76.000 Y51.000
G1 X77.000 Y51.000
G1 X78.000 Y51.000
G1 X79.000 Y51.000
G1 X80.000 Y51.000
G1 X81.000 Y51.000
G1 X82.000 Y51.000
G1 X83.000 Y51.000
G1 X84.000 Y51.000
G1 X85.000 Y51.000
G1 X86.000 Y51.000
G1 X87.000 Y51.000
G1 X88.000 Y51.000
G1 X89.000 Y51.000
G1 X90.000 Y51.000
G1 X91.000 Y51.000
G1 X92.000 Y51.000
G1 X93.000 Y51.000
G1 X94.000 Y51.000
G1 X95.000 Y51.000
G1 X96.000 Y51.000
G1 X97.000 Y51.000
G1 X98.000 Y51.000
G1 X99.000 Y51.000
G1 X100.000 Y51.000
G1 X101.000 Y51.000
G1 X102.000 Y51.000
G1 X103.000 Y51.000
G1 X104.000 Y51.000
G1 X105.000 Y51.000
G1 X106.000 Y51.000
G1 X107.000 Y51.000
G1 X108.000 Y51.000
G1 X109.000 Y51.000
G1 X110.000 Y51.000
G1 X111.000 Y51.000
G1 X112.000 Y51.000
G1 X113.000 Y51.000
G1 X114.000 Y51.000
G1 X115.000 Y51.000
G1 X116.000 Y51.000
G1 X117.000 Y51.000
G1 X118.000 Y51.000
G1 X119.000 Y51.000
G1 X120.000 Y51.000
G0 Z4.600 F3000

; --- CIKEL NAMAKANJA ---
G0 Z4.600 F3000
M400
M204 P12000 T12000
G1 F12000
G0 X11.501 Y1.217 Z31.000
G1 Z0.000 F3000
G1 X11.501 Y1.217 F2500
G1 X11.501 Y3.717 F2500
G1 X6.501 Y1.217 F2500
G1 X11.501 Y-6.283 F2500
G0 Z16.000 F3000
G0 X13.822 Y5.826
G0 Z31.000 F3000
G0 X121.000 Y51.000 Z4.600
M400
M204 P200 T200
G1 F400
G1 Z0.000 F2500
G1 X121.000 Y51.000
G1 X122.000 Y51.000
G1 X123.000 Y51.000
G1 X124.000 Y51.000
G1 X125.000 Y51.000
G1 X126.000 Y51.000
G1 X127.000 Y51.000
G1 X128.000 Y51.000
G1 X129.000 Y51.000
G1 X130.000 Y51.000
G1 X131.000 Y51.000
G1 X132.000 Y51.000
G1 X133.000 Y51.000
G1 X134.000 Y51.000
G1 X135.000 Y51.000
G1 X136.000 Y51.000
G1 X137.000 Y51.000
G1 X138.000 Y51.000
G1 X139.000 Y51.000
G1 X140.000 Y51.000
G1 X141.000 Y51.000
G1 X142.000 Y51.000
G1 X143.000 Y51.000
G1 X144.000 Y51.000
G1 X145.000 Y51.000
G1 X146.000 Y51.000
G1 X147.000 Y51.000
G1 X148.000 Y51.000
G1 X149.000 Y51.000
G1 X150.000 Y51.000
G1 X151.000 Y51.000
G1 X152.000 Y51.000
G1 X153.000 Y51.000
G1 X154.000 Y51.000
G1 X155.000 Y51.000
G1 X156.000 Y51.000
G1 X157.000 Y51.000
G1 X158.000 Y51.000
G1 X159.000 Y51.000
G1 X160.000 Y51.000
G1 X161.000 Y51.000
G1 X162.000 Y51.000
G1 X163.000 Y51.000
G1 X164.000 Y51.000
G1 X165.000 Y51.000
G1 X166.000 Y51.000
G1 X167.000 Y51.000
G1 X168.000 Y51.000
G1 X169.000 Y51.000
G1 X170.000 Y51.000
G1 X171.000 Y51.000
G1 X172.000 Y51.000
G1 X173.000 Y51.000
G1 X174.000 Y51.000
G1 X175.000 Y51.000
G1 X176.000 Y51.000
G1 X177.000 Y51.000
G1 X178.000 Y51.000
G1 X179.000 Y51.000
G1 X180.000 Y51.000
G1 X181.000 Y51.000
G1 X182.000 Y51.000
G1 X183.000 Y51.000
G1 X184.000 Y51.000
G1 X185.000 Y51.000
G1 X186.000 Y51.000
G1 X187.000 Y51.000
G1 X188.000 Y51.000
G1 X189.000 Y51.000
G1 X190.000 Y51.000
G1 X191.000 Y51.000
G1 X192.000 Y51.000
G1 X193.000 Y51.000
G0 Z4.600 F3000
M400
M204 P12000 T12000
G1 F12000
G0 X194.000 Y52.000 Z4.600
M400
M204 P200 T200
G1 F400
G1 Z0.000 F2500
G1 X193.000 Y52.000
G1 X192.000 Y52.000
G1 X191.000 Y52.000
G1 X190.000 Y52.000
G1 X189.000 Y52.000
G1 X188.000 Y52.000
G1 X187.000 Y52.000
G1 X186.000 Y52.000
G1 X185.000 Y52.000
G1 X184.000 Y52.000
G1 X183.000 Y52.000
G1 X182.000 Y52.000
G1 X181.000 Y52.000
G1 X180.000 Y52.000
G1 X179.000 Y52.000
G1 X178.000 Y52.000
G1 X177.000 Y52.000
G1 X176.000 Y52.000
G1 X175.000 Y52.000
G1 X174.000 Y52.000
G1 X173.000 Y52.000
G1 X172.000 Y52.000
G1 X171.000 Y52.000
G1 X170.000 Y52.000
G1 X169.000 Y52.000
G1 X168.000 Y52.000
G1 X167.000 Y52.000
G1 X166.000 Y52.000
G1 X165.000 Y52.000
G1 X164.000 Y52.000
G1 X163.000 Y52.000
G1 X162.000 Y52.000
G1 X161.000 Y52.000
G1 X160.000 Y52.000
G1 X159.000 Y52.000
G1 X158.000 Y52.000
G1 X157.000 Y52.000
G1 X156.000 Y52.000
G1 X155.000 Y52.000
G1 X154.000 Y52.000
G1 X153.000 Y52.000
G1 X152.000 Y52.000
G1 X151.000 Y52.000
G1 X150.000 Y52.000
G1 X149.000 Y52.000
G1 X148.000 Y52.000
G1 X147.000 Y52.000
G1 X146.000 Y52.000
G1 X145.000 Y52.000
G1 X144.000 Y52.000
G1 X143.000 Y52.000
G1 X142.000 Y52.000
G1 X141.000 Y52.000
G1 X140.000 Y52.000
G1 X139.000 Y52.000
G1 X138.000 Y52.000
G1 X137.000 Y52.000
G1 X136.000 Y52.000
G1 X135.000 Y52.000
G1 X134.000 Y52.000
G1 X133.000 Y52.000
G1 X132.000 Y52.000
G1 X131.000 Y52.000
G1 X130.000 Y52.000
G1 X129.000 Y52.000
G1 X128.000 Y52.000
G1 X127.000 Y52.000
G1 X126.000 Y52.000
G1 X125.000 Y52.000
G1 X124.000 Y52.000
G1 X123.000 Y52.000
G1 X122.000 Y52.000
G1 X121.000 Y52.000
G1 X120.000 Y52.000
G1 X119.000 Y52.000
G1 X118.000 Y52.000
G1 X117.000 Y52.000
G1 X116.000 Y52.000
G1 X115.000 Y52.000
G1 X114.000 Y52.000
G1 X113.000 Y52.000
G1 X112.000 Y52.000
G1 X111.000 Y52.000
G1 X110.000 Y52.000
G1 X109.000 Y52.000
G1 X108.000 Y52.000
G1 X107.000 Y52.000
G1 X106.000 Y52.000
G1 X105.000 Y52.000
G1 X104.000 Y52.000
G1 X103.000 Y52.000
G1 X102.000 Y52.000
G1 X101.000 Y52.000
G1 X100.000 Y52.000
G1 X99.000 Y52.000
G1 X98.000 Y52.000
G1 X97.000 Y52.000
G1 X96.000 Y52.000
G1 X95.000 Y52.000
G1 X94.000 Y52.000
G1 X93.000 Y52.000
G1 X92.000 Y52.000
G1 X91.000 Y52.000
G1 X90.000 Y52.000
G1 X89.000 Y52.000
G1 X88.000 Y52.000
G1 X87.000 Y52.000
G1 X86.000 Y52.000
G1 X85.000 Y52.000
G1 X84.000 Y52.000
G1 X83.000 Y52.000
G1 X82.000 Y52.000
G1 X81.000 Y52.000
G1 X80.000 Y52.000
G1 X79.000 Y52.000
G1 X78.000 Y52.000
G1 X77.000 Y52.000
G1 X76.000 Y52.000
G1 X75.000 Y52.000
G1 X74.000 Y52.000
G1 X73.000 Y52.000
G1 X72.000 Y52.000
G1 X71.000 Y52.000
G1 X70.000 Y52.000
G1 X69.000 Y52.000
G1 X68.000 Y52.000
G1 X67.000 Y52.000
G1 X66.000 Y52.000
G1 X65.000 Y52.000
G0 Z4.600 F3000
M400
M204 P12000 T12000
G1 F12000
G0 X64.000 Y53.000 Z4.600
M400
M204 P200 T200
G1 F400
G1 Z0.000 F2500
G1 X65.000 Y53.000
G1 X66.000 Y53.000
G1 X67.000 Y53.000
G1 X68.000 Y53.000
G1 X69.000 Y53.000
G1 X70.000 Y53.000
G1 X71.000 Y53.000
G1 X72.000 Y53.000
G1 X73.000 Y53.000
G1 X74.000 Y53.000
G1 X75.000 Y53.000
G1 X76.000 Y53.000
G1 X77.000 Y53.000
G1 X78.000 Y53.000
G1 X79.000 Y53.000
G1 X80.000 Y53.000
G1 X81.000 Y53.000
G1 X82.000 Y53.000
G1 X83.000 Y53.000
G1 X84.000 Y53.000
G1 X85.000 Y53.000
G1 X86.000 Y53.000
G1 X87.000 Y53.000
G1 X88.000 Y53.000
G1 X89.000 Y53.000
G1 X90.000 Y53.000
G1 X91.000 Y53.000
G1 X92.000 Y53.000
G1 X93.000 Y53.000
G1 X94.000 Y53.000
G1 X95.000 Y53.000
G1 X96.000 Y53.000
G1 X97.000 Y53.000
G1 X98.000 Y53.000
G1 X99.000 Y53.000
G1 X100.000 Y53.000
G1 X101.000 Y53.000
G1 X102.000 Y53.000
G1 X103.000 Y53.000
G1 X104.000 Y53.000
G1 X105.000 Y53.000
G1 X106.000 Y53.000
G1 X107.000 Y53.000
G1 X108.000 Y53.000
G1 X109.000 Y53.000
G1 X110.000 Y53.000
G1 X111.000 Y53.000
G1 X112.000 Y53.000
G1 X113.000 Y53.000
G1 X114.000 Y53.000
G1 X115.000 Y53.000
G1 X116.000 Y53.000
G1 X117.000 Y53.000
G1 X118.000 Y53.000
G1 X119.000 Y53.000
G1 X120.000 Y53.000
G1 X121.000 Y53.000
G1 X122.000 Y53.000
G1 X123.000 Y53.000
G1 X124.000 Y53.000
G1 X125.000 Y53.000
G1 X126.000 Y53.000
G1 X127.000 Y53.000
G1 X128.000 Y53.000
G1 X129.000 Y53.000
G1 X130.000 Y53.000
G1 X131.000 Y53.000
G1 X132.000 Y53.000
G0 Z4.600 F3000

; --- CIKEL NAMAKANJA ---
G0 Z4.600 F3000
M400
M204 P12000 T12000
G1 F12000
G0 X11.902 Y17.486 Z31.000
G1 Z0.000 F3000
G1 X11.902 Y17.486 F2500
G1 X11.902 Y19.986 F2500
G1 X6.902 Y17.486 F2500
G1 X11.902 Y9.986 F2500
G0 Z16.000 F3000
G0 X13.934 Y5.553
G0 Z31.000 F3000
G0 X133.000 Y53.000 Z4.600
M400
M204 P200 T200
G1 F400
G1 Z0.000 F2500
G1 X133.000 Y53.000
G1 X134.000 Y53.000
G1 X135.000 Y53.000
G1 X136.000 Y53.000
G1 X137.000 Y53.000
G1 X138.000 Y53.000
G1 X139.000 Y53.000
G1 X140.000 Y53.000
G1 X141.000 Y53.000
G1 X142.000 Y53.000
G1 X143.000 Y53.000
G1 X144.000 Y53.000
G1 X145.000 Y53.000
G1 X146.000 Y53.000
G1 X147.000 Y53.000
G1 X148.000 Y53.000
G1 X149.000 Y53.000
G1 X150.000 Y53.000
G1 X151.000 Y53.000
G1 X152.000 Y53.000
G1 X153.000 Y53.000
G1 X154.000 Y53.000
G1 X155.000 Y53.000
G1 X156.000 Y53.000
G1 X157.000 Y53.000
G1 X158.000 Y53.000
G1 X159.000 Y53.000
G1 X160.000 Y53.000
G1 X161.000 Y53.000
G1 X162.000 Y53.000
G1 X163.000 Y53.000
G1 X164.000 Y53.000
G1 X165.000 Y53.000
G1 X166.000 Y53.000
G1 X167.000 Y53.000
G1 X168.000 Y53.000
G1 X169.000 Y53.000
G1 X170.000 Y53.000
G1 X171.000 Y53.000
G1 X172.000 Y53.000
G1 X173.000 Y53.000
G1 X174.000 Y53.000
G1 X175.000 Y53.000
G1 X176.000 Y53.000
G1 X177.000 Y53.000
G1 X178.000 Y53.000
G1 X179.000 Y53.000
G1 X180.000 Y53.000
G1 X181.000 Y53.000
G1 X182.000 Y53.000
G1 X183.000 Y53.000
G1 X184.000 Y53.000
G1 X185.000 Y53.000
G1 X186.000 Y53.000
G1 X187.000 Y53.000
G1 X188.000 Y53.000
G1 X189.000 Y53.000
G1 X190.000 Y53.000
G1 X191.000 Y53.000
G1 X192.000 Y53.000
G1 X193.000 Y53.000
G1 X194.000 Y53.000
G1 X195.000 Y53.000
G0 Z4.600 F3000
M400
M204 P12000 T12000
G1 F12000
G0 X196.000 Y54.000 Z4.600
M400
M204 P200 T200
G1 F400
G1 Z0.000 F2500
G1 X195.000 Y54.000
G1 X194.000 Y54.000
G1 X193.000 Y54.000
G1 X192.000 Y54.000
G1 X191.000 Y54.000
G1 X190.000 Y54.000
G1 X189.000 Y54.000
G1 X188.000 Y54.000
G1 X187.000 Y54.000
G1 X186.000 Y54.000
G1 X185.000 Y54.000
G1 X184.000 Y54.000
G1 X183.000 Y54.000
G1 X182.000 Y54.000
G1 X181.000 Y54.000
G1 X180.000 Y54.000
G1 X179.000 Y54.000
G1 X178.000 Y54.000
G1 X177.000 Y54.000
G1 X176.000 Y54.000
G1 X175.000 Y54.000
G1 X174.000 Y54.000
G1 X173.000 Y54.000
G1 X172.000 Y54.000
G1 X171.000 Y54.000
G1 X170.000 Y54.000
G1 X169.000 Y54.000
G1 X168.000 Y54.000
G1 X167.000 Y54.000
G1 X166.000 Y54.000
G1 X165.000 Y54.000
G1 X164.000 Y54.000
G1 X163.000 Y54.000
G1 X162.000 Y54.000
G1 X161.000 Y54.000
G1 X160.000 Y54.000
G1 X159.000 Y54.000
G1 X158.000 Y54.000
G1 X157.000 Y54.000
G1 X156.000 Y54.000
G1 X155.000 Y54.000
G1 X154.000 Y54.000
G1 X153.000 Y54.000
G1 X152.000 Y54.000
G1 X151.000 Y54.000
G1 X150.000 Y54.000
G1 X149.000 Y54.000
G1 X148.000 Y54.000
G1 X147.000 Y54.000
G1 X146.000 Y54.000
G1 X145.000 Y54.000
G1 X144.000 Y54.000
G1 X143.000 Y54.000
G1 X142.000 Y54.000
G1 X141.000 Y54.000
G1 X140.000 Y54.000
G1 X139.000 Y54.000
G1 X138.000 Y54.000
G1 X137.000 Y54.000
G1 X136.000 Y54.000
G1 X135.000 Y54.000
G1 X134.000 Y54.000
G1 X133.000 Y54.000
G1 X132.000 Y54.000
G1 X131.000 Y54.000
G1 X130.000 Y54.000
G1 X129.000 Y54.000
G1 X128.000 Y54.000
G1 X127.000 Y54.000
G1 X126.000 Y54.000
G1 X125.000 Y54.000
G1 X124.000 Y54.000
G1 X123.000 Y54.000
G1 X122.000 Y54.000
G1 X121.000 Y54.000
G1 X120.000 Y54.000
G1 X119.000 Y54.000
G1 X118.000 Y54.000
G1 X117.000 Y54.000
G1 X116.000 Y54.000
G1 X115.000 Y54.000
G1 X114.000 Y54.000
G1 X113.000 Y54.000
G1 X112.000 Y54.000
G1 X111.000 Y54.000
G1 X110.000 Y54.000
G1 X109.000 Y54.000
G1 X108.000 Y54.000
G1 X107.000 Y54.000
G1 X106.000 Y54.000
G1 X105.000 Y54.000
G1 X104.000 Y54.000
G1 X103.000 Y54.000
G1 X102.000 Y54.000
G1 X101.000 Y54.000
G1 X100.000 Y54.000
G1 X99.000 Y54.000
G1 X98.000 Y54.000
G1 X97.000 Y54.000
G1 X96.000 Y54.000
G1 X95.000 Y54.000
G1 X94.000 Y54.000
G1 X93.000 Y54.000
G1 X92.000 Y54.000
G1 X91.000 Y54.000
G1 X90.000 Y54.000
G1 X89.000 Y54.000
G1 X88.000 Y54.000
G1 X87.000 Y54.000
G1 X86.000 Y54.000
G1 X85.000 Y54.000
G1 X84.000 Y54.000
G1 X83.000 Y54.000
G1 X82.000 Y54.000
G1 X81.000 Y54.000
G1 X80.000 Y54.000
G1 X79.000 Y54.000
G1 X78.000 Y54.000
G1 X77.000 Y54.000
G1 X76.000 Y54.000
G1 X75.000 Y54.000
G1 X74.000 Y54.000
G1 X73.000 Y54.000
G1 X72.000 Y54.000
G1 X71.000 Y54.000
G1 X70.000 Y54.000
G1 X69.000 Y54.000
G1 X68.000 Y54.000
G1 X67.000 Y54.000
G1 X66.000 Y54.000
G1 X65.000 Y54.000
G1 X64.000 Y54.000
G1 X63.000 Y54.000
G0 Z4.600 F3000
M400
M204 P12000 T12000
G1 F12000
G0 X62.000 Y55.000 Z4.600
M400
M204 P200 T200
G1 F400
G1 Z0.000 F2500
G1 X63.000 Y55.000
G1 X64.000 Y55.000
G1 X65.000 Y55.000
G1 X66.000 Y55.000
G1 X67.000 Y55.000
G1 X68.000 Y55.000
G1 X69.000 Y55.000
G1 X70.000 Y55.000
G1 X71.000 Y55.000
G1 X72.000 Y55.000
G1 X73.000 Y55.000
G1 X74.000 Y55.000
G1 X75.000 Y55.000
G1 X76.000 Y55.000
G1 X77.000 Y55.000
G1 X78.000 Y55.000
G1 X79.000 Y55.000
G1 X80.000 Y55.000
G1 X81.000 Y55.000
G1 X82.000 Y55.000
G1 X83.000 Y55.000
G1 X84.000 Y55.000
G1 X85.000 Y55.000
G1 X86.000 Y55.000
G1 X87.000 Y55.000
G1 X88.000 Y55.000
G1 X89.000 Y55.000
G1 X90.000 Y55.000
G1 X91.000 Y55.000
G1 X92.000 Y55.000
G1 X93.000 Y55.000
G1 X94.000 Y55.000
G1 X95.000 Y55.000
G1 X96.000 Y55.000
G1 X97.000 Y55.000
G1 X98.000 Y55.000
G1 X99.000 Y55.000
G1 X100.000 Y55.000
G1 X101.000 Y55.000
G1 X102.000 Y55.000
G1 X103.000 Y55.000
G1 X104.000 Y55.000
G1 X105.000 Y55.000
G1 X106.000 Y55.000
G1 X107.000 Y55.000
G0 Z4.600 F3000

; --- CIKEL NAMAKANJA ---
G0 Z4.600 F3000
M400
M204 P12000 T12000
G1 F12000
G0 X-1.819 Y-9.954 Z31.000
G1 Z0.000 F3000
G1 X-1.819 Y-9.954 F2500
G1 X-1.819 Y-7.454 F2500
G1 X-6.819 Y-9.954 F2500
G1 X-1.819 Y-17.454 F2500
G0 Z16.000 F3000
G0 X13.367 Y6.807
G0 Z31.000 F3000
G0 X108.000 Y55.000 Z4.600
M400
M204 P200 T200
G1 F400
G1 Z0.000 F2500
G1 X108.000 Y55.000
G1 X109.000 Y55.000
G1 X110.000 Y55.000
G1 X111.000 Y55.000
G1 X112.000 Y55.000
G1 X113.000 Y55.000
G1 X114.000 Y55.000
G1 X115.000 Y55.000
G1 X116.000 Y55.000
G1 X117.000 Y55.000
G1 X118.000 Y55.000
G1 X119.000 Y55.000
G1 X120.000 Y55.000
G1 X121.000 Y55.000
G1 X122.000 Y55.000
G1 X123.000 Y55.000
G1 X124.000 Y55.000
G1 X125.000 Y55.000
G1 X126.000 Y55.000
G1 X127.000 Y55.000
G1 X128.000 Y55.000
G1 X129.000 Y55.000
G1 X130.000 Y55.000
G1 X131.000 Y55.000
G1 X132.000 Y55.000
G1 X133.000 Y55.000
G1 X134.000 Y55.000
G1 X135.000 Y55.000
G1 X136.000 Y55.000
G1 X137.000 Y55.000
G1 X138.000 Y55.000
G1 X139.000 Y55.000
G1 X140.000 Y55.000
G1 X141.000 Y55.000
G1 X142.000 Y55.000
G1 X143.000 Y55.000
G1 X144.000 Y55.000
G1 X145.000 Y55.000
G1 X146.000 Y55.000
G1 X147.000 Y55.000
G1 X148.000 Y55.000
G1 X149.000 Y55.000
G1 X150.000 Y55.000
G1 X151.000 Y55.000
G1 X152.000 Y55.000
G1 X153.000 Y55.000
G1 X154.000 Y55.000
G1 X155.000 Y55.000
G1 X156.000 Y55.000
G1 X157.000 Y55.000
G1 X158.000 Y55.000
G1 X159.000 Y55.000
G1 X160.000 Y55.000
G1 X161.000 Y55.000
G1 X162.000 Y55.000
G1 X163.000 Y55.000
G1 X164.000 Y55.000
G1 X165.000 Y55.000
G1 X166.000 Y55.000
G1 X167.000 Y55.000
G1 X168.000 Y55.000
G1 X169.000 Y55.000
G1 X170.000 Y55.000
G1 X171.000 Y55.000
G1 X172.000 Y55.000
G1 X173.000 Y55.000
G1 X174.000 Y55.000
G1 X175.000 Y55.000
G1 X176.000 Y55.000
G1 X177.000 Y55.000
G1 X178.000 Y55.000
G1 X179.000 Y55.000
G1 X180.000 Y55.000
G1 X181.000 Y55.000
G1 X182.000 Y55.000
G1 X183.000 Y55.000
G1 X184.000 Y55.000
G1 X185.000 Y55.000
G1 X186.000 Y55.000
G1 X187.000 Y55.000
G1 X188.000 Y55.000
G1 X189.000 Y55.000
G1 X190.000 Y55.000
G1 X191.000 Y55.000
G1 X192.000 Y55.000
G1 X193.000 Y55.000
G1 X194.000 Y55.000
G1 X195.000 Y55.000
G1 X196.000 Y55.000
G1 X197.000 Y55.000
G0 Z4.600 F3000
M400
M204 P12000 T12000
G1 F12000
G0 X198.000 Y56.000 Z4.600
M400
M204 P200 T200
G1 F400
G1 Z0.000 F2500
G1 X197.000 Y56.000
G1 X196.000 Y56.000
G1 X195.000 Y56.000
G1 X194.000 Y56.000
G1 X193.000 Y56.000
G1 X192.000 Y56.000
G1 X191.000 Y56.000
G1 X190.000 Y56.000
G1 X189.000 Y56.000
G1 X188.000 Y56.000
G1 X187.000 Y56.000
G1 X186.000 Y56.000
G1 X185.000 Y56.000
G1 X184.000 Y56.000
G1 X183.000 Y56.000
G1 X182.000 Y56.000
G1 X181.000 Y56.000
G1 X180.000 Y56.000
G1 X179.000 Y56.000
G1 X178.000 Y56.000
G1 X177.000 Y56.000
G1 X176.000 Y56.000
G1 X175.000 Y56.000
G1 X174.000 Y56.000
G1 X173.000 Y56.000
G1 X172.000 Y56.000
G1 X171.000 Y56.000
G1 X170.000 Y56.000
G1 X169.000 Y56.000
G1 X168.000 Y56.000
G1 X167.000 Y56.000
G1 X166.000 Y56.000
G1 X165.000 Y56.000
G1 X164.000 Y56.000
G1 X163.000 Y56.000
G1 X162.000 Y56.000
G1 X161.000 Y56.000
G1 X160.000 Y56.000
G1 X159.000 Y56.000
G1 X158.000 Y56.000
G1 X157.000 Y56.000
G1 X156.000 Y56.000
G1 X155.000 Y56.000
G1 X154.000 Y56.000
G1 X153.000 Y56.000
G1 X152.000 Y56.000
G1 X151.000 Y56.000
G1 X150.000 Y56.000
G1 X149.000 Y56.000
G1 X148.000 Y56.000
G1 X147.000 Y56.000
G1 X146.000 Y56.000
G1 X145.000 Y56.000
G1 X144.000 Y56.000
G1 X143.000 Y56.000
G1 X142.000 Y56.000
G1 X141.000 Y56.000
G1 X140.000 Y56.000
G1 X139.000 Y56.000
G1 X138.000 Y56.000
G1 X137.000 Y56.000
G1 X136.000 Y56.000
G1 X135.000 Y56.000
G1 X134.000 Y56.000
G1 X133.000 Y56.000
G1 X132.000 Y56.000
G1 X131.000 Y56.000
G1 X130.000 Y56.000
G1 X129.000 Y56.000
G1 X128.000 Y56.000
G1 X127.000 Y56.000
G1 X126.000 Y56.000
G1 X125.000 Y56.000
G1 X124.000 Y56.000
G1 X123.000 Y56.000
G1 X122.000 Y56.000
G1 X121.000 Y56.000
G1 X120.000 Y56.000
G1 X119.000 Y56.000
G1 X118.000 Y56.000
G1 X117.000 Y56.000
G1 X116.000 Y56.000
G1 X115.000 Y56.000
G1 X114.000 Y56.000
G1 X113.000 Y56.000
G1 X112.000 Y56.000
G1 X111.000 Y56.000
G1 X110.000 Y56.000
G1 X109.000 Y56.000
G1 X108.000 Y56.000
G1 X107.000 Y56.000
G1 X106.000 Y56.000
G1 X105.000 Y56.000
G1 X104.000 Y56.000
G1 X103.000 Y56.000
G1 X102.000 Y56.000
G1 X101.000 Y56.000
G1 X100.000 Y56.000
G1 X99.000 Y56.000
G1 X98.000 Y56.000
G1 X97.000 Y56.000
G1 X96.000 Y56.000
G1 X95.000 Y56.000
G1 X94.000 Y56.000
G1 X93.000 Y56.000
G1 X92.000 Y56.000
G1 X91.000 Y56.000
G1 X90.000 Y56.000
G1 X89.000 Y56.000
G1 X88.000 Y56.000
G1 X87.000 Y56.000
G1 X86.000 Y56.000
G1 X85.000 Y56.000
G1 X84.000 Y56.000
G1 X83.000 Y56.000
G1 X82.000 Y56.000
G1 X81.000 Y56.000
G1 X80.000 Y56.000
G1 X79.000 Y56.000
G1 X78.000 Y56.000
G1 X77.000 Y56.000
G1 X76.000 Y56.000
G1 X75.000 Y56.000
G1 X74.000 Y56.000
G1 X73.000 Y56.000
G1 X72.000 Y56.000
G1 X71.000 Y56.000
G1 X70.000 Y56.000
G1 X69.000 Y56.000
G1 X68.000 Y56.000
G1 X67.000 Y56.000
G1 X66.000 Y56.000
G1 X65.000 Y56.000
G1 X64.000 Y56.000
G1 X63.000 Y56.000
G1 X62.000 Y56.000
G1 X61.000 Y56.000
G0 Z4.600 F3000
M400
M204 P12000 T12000
G1 F12000
G0 X59.000 Y57.000 Z4.600
M400
M204 P200 T200
G1 F400
G1 Z0.000 F2500
G1 X60.000 Y57.000
G1 X61.000 Y57.000
G1 X62.000 Y57.000
G1 X63.000 Y57.000
G1 X64.000 Y57.000
G1 X65.000 Y57.000
G1 X66.000 Y57.000
G1 X67.000 Y57.000
G1 X68.000 Y57.000
G1 X69.000 Y57.000
G1 X70.000 Y57.000
G1 X71.000 Y57.000
G1 X72.000 Y57.000
G1 X73.000 Y57.000
G1 X74.000 Y57.000
G1 X75.000 Y57.000
G1 X76.000 Y57.000
G1 X77.000 Y57.000
G1 X78.000 Y57.000
G1 X79.000 Y57.000
G1 X80.000 Y57.000
G1 X81.000 Y57.000
G1 X82.000 Y57.000
G1 X83.000 Y57.000
G1 X84.000 Y57.000
G1 X85.000 Y57.000
G1 X86.000 Y57.000
G1 X87.000 Y57.000
G1 X88.000 Y57.000
G1 X89.000 Y57.000
G1 X90.000 Y57.000
G1 X91.000 Y57.000
G0 Z4.600 F3000

; --- CIKEL NAMAKANJA ---
G0 Z4.600 F3000
M400
M204 P12000 T12000
G1 F12000
G0 X-11.389 Y9.601 Z31.000
G1 Z0.000 F3000
G1 X-11.389 Y9.601 F2500
G1 X-11.389 Y12.101 F2500
G1 X-16.389 Y9.601 F2500
G1 X-11.389 Y2.101 F2500
G0 Z16.000 F3000
G0 X12.751 Y7.900
G0 Z31.000 F3000
G0 X92.000 Y57.000 Z4.600
M400
M204 P200 T200
G1 F400
G1 Z0.000 F2500
G1 X92.000 Y57.000
G1 X93.000 Y57.000
G1 X94.000 Y57.000
G1 X95.000 Y57.000
G1 X96.000 Y57.000
G1 X97.000 Y57.000
G1 X98.000 Y57.000
G1 X99.000 Y57.000
G1 X100.000 Y57.000
G1 X101.000 Y57.000
G1 X102.000 Y57.000
G1 X103.000 Y57.000
G1 X104.000 Y57.000
G1 X105.000 Y57.000
G1 X106.000 Y57.000
G1 X107.000 Y57.000
G1 X108.000 Y57.000
G1 X109.000 Y57.000
G1 X110.000 Y57.000
G1 X111.000 Y57.000
G1 X112.000 Y57.000
G1 X113.000 Y57.000
G1 X114.000 Y57.000
G1 X115.000 Y57.000
G1 X116.000 Y57.000
G1 X117.000 Y57.000
G1 X118.000 Y57.000
G1 X119.000 Y57.000
G1 X120.000 Y57.000
G1 X121.000 Y57.000
G1 X122.000 Y57.000
G1 X123.000 Y57.000
G1 X124.000 Y57.000
G1 X125.000 Y57.000
G1 X126.000 Y57.000
G1 X127.000 Y57.000
G1 X128.000 Y57.000
G1 X129.000 Y57.000
G1 X130.000 Y57.000
G1 X131.000 Y57.000
G1 X132.000 Y57.000
G1 X133.000 Y57.000
G1 X134.000 Y57.000
G1 X135.000 Y57.000
G1 X136.000 Y57.000
G1 X137.000 Y57.000
G1 X138.000 Y57.000
G1 X139.000 Y57.000
G1 X140.000 Y57.000
G1 X141.000 Y57.000
G1 X142.000 Y57.000
G1 X143.000 Y57.000
G1 X144.000 Y57.000
G1 X145.000 Y57.000
G1 X146.000 Y57.000
G1 X147.000 Y57.000
G1 X148.000 Y57.000
G1 X149.000 Y57.000
G1 X150.000 Y57.000
G1 X151.000 Y57.000
G1 X152.000 Y57.000
G1 X153.000 Y57.000
G1 X154.000 Y57.000
G1 X155.000 Y57.000
G1 X156.000 Y57.000
G1 X157.000 Y57.000
G1 X158.000 Y57.000
G1 X159.000 Y57.000
G1 X160.000 Y57.000
G1 X161.000 Y57.000
G1 X162.000 Y57.000
G1 X163.000 Y57.000
G1 X164.000 Y57.000
G1 X165.000 Y57.000
G1 X166.000 Y57.000
G1 X167.000 Y57.000
G1 X168.000 Y57.000
G1 X169.000 Y57.000
G1 X170.000 Y57.000
G1 X171.000 Y57.000
G1 X172.000 Y57.000
G1 X173.000 Y57.000
G1 X174.000 Y57.000
G1 X175.000 Y57.000
G1 X176.000 Y57.000
G1 X177.000 Y57.000
G1 X178.000 Y57.000
G1 X179.000 Y57.000
G1 X180.000 Y57.000
G1 X181.000 Y57.000
G1 X182.000 Y57.000
G1 X183.000 Y57.000
G1 X184.000 Y57.000
G1 X185.000 Y57.000
G1 X186.000 Y57.000
G1 X187.000 Y57.000
G1 X188.000 Y57.000
G1 X189.000 Y57.000
G1 X190.000 Y57.000
G1 X191.000 Y57.000
G1 X192.000 Y57.000
G1 X193.000 Y57.000
G1 X194.000 Y57.000
G1 X195.000 Y57.000
G1 X196.000 Y57.000
G1 X197.000 Y57.000
G1 X198.000 Y57.000
G1 X199.000 Y57.000
G1 X200.000 Y57.000
G0 Z4.600 F3000
M400
M204 P12000 T12000
G1 F12000
G0 X200.000 Y58.000 Z4.600
M400
M204 P200 T200
G1 F400
G1 Z0.000 F2500
G1 X199.000 Y58.000
G1 X198.000 Y58.000
G1 X197.000 Y58.000
G1 X196.000 Y58.000
G1 X195.000 Y58.000
G1 X194.000 Y58.000
G1 X193.000 Y58.000
G1 X192.000 Y58.000
G1 X191.000 Y58.000
G1 X190.000 Y58.000
G1 X189.000 Y58.000
G1 X188.000 Y58.000
G1 X187.000 Y58.000
G1 X186.000 Y58.000
G1 X185.000 Y58.000
G1 X184.000 Y58.000
G1 X183.000 Y58.000
G1 X182.000 Y58.000
G1 X181.000 Y58.000
G1 X180.000 Y58.000
G1 X179.000 Y58.000
G1 X178.000 Y58.000
G1 X177.000 Y58.000
G1 X176.000 Y58.000
G1 X175.000 Y58.000
G1 X174.000 Y58.000
G1 X173.000 Y58.000
G1 X172.000 Y58.000
G1 X171.000 Y58.000
G1 X170.000 Y58.000
G1 X169.000 Y58.000
G1 X168.000 Y58.000
G1 X167.000 Y58.000
G1 X166.000 Y58.000
G1 X165.000 Y58.000
G1 X164.000 Y58.000
G1 X163.000 Y58.000
G1 X162.000 Y58.000
G1 X161.000 Y58.000
G1 X160.000 Y58.000
G1 X159.000 Y58.000
G1 X158.000 Y58.000
G1 X157.000 Y58.000
G1 X156.000 Y58.000
G1 X155.000 Y58.000
G1 X154.000 Y58.000
G1 X153.000 Y58.000
G1 X152.000 Y58.000
G1 X151.000 Y58.000
G1 X150.000 Y58.000
G1 X149.000 Y58.000
G1 X148.000 Y58.000
G1 X147.000 Y58.000
G1 X146.000 Y58.000
G1 X145.000 Y58.000
G1 X144.000 Y58.000
G1 X143.000 Y58.000
G1 X142.000 Y58.000
G1 X141.000 Y58.000
G1 X140.000 Y58.000
G1 X139.000 Y58.000
G1 X138.000 Y58.000
G1 X137.000 Y58.000
G1 X136.000 Y58.000
G1 X135.000 Y58.000
G1 X134.000 Y58.000
G1 X133.000 Y58.000
G1 X132.000 Y58.000
G1 X131.000 Y58.000
G1 X130.000 Y58.000
G1 X129.000 Y58.000
G1 X128.000 Y58.000
G1 X127.000 Y58.000
G1 X126.000 Y58.000
G1 X125.000 Y58.000
G1 X124.000 Y58.000
G1 X123.000 Y58.000
G1 X122.000 Y58.000
G1 X121.000 Y58.000
G1 X120.000 Y58.000
G1 X119.000 Y58.000
G1 X118.000 Y58.000
G1 X117.000 Y58.000
G1 X116.000 Y58.000
G1 X115.000 Y58.000
G1 X114.000 Y58.000
G1 X113.000 Y58.000
G1 X112.000 Y58.000
G1 X111.000 Y58.000
G1 X110.000 Y58.000
G1 X109.000 Y58.000
G1 X108.000 Y58.000
G1 X107.000 Y58.000
G1 X106.000 Y58.000
G1 X105.000 Y58.000
G1 X104.000 Y58.000
G1 X103.000 Y58.000
G1 X102.000 Y58.000
G1 X101.000 Y58.000
G1 X100.000 Y58.000
G1 X99.000 Y58.000
G1 X98.000 Y58.000
G1 X97.000 Y58.000
G1 X96.000 Y58.000
G1 X95.000 Y58.000
G1 X94.000 Y58.000
G1 X93.000 Y58.000
G1 X92.000 Y58.000
G1 X91.000 Y58.000
G1 X90.000 Y58.000
G1 X89.000 Y58.000
G1 X88.000 Y58.000
G1 X87.000 Y58.000
G1 X86.000 Y58.000
G1 X85.000 Y58.000
G1 X84.000 Y58.000
G1 X83.000 Y58.000
G1 X82.000 Y58.000
G1 X81.000 Y58.000
G1 X80.000 Y58.000
G1 X79.000 Y58.000
G1 X78.000 Y58.000
G1 X77.000 Y58.000
G1 X76.000 Y58.000
G1 X75.000 Y58.000
G1 X74.000 Y58.000
G1 X73.000 Y58.000
G1 X72.000 Y58.000
G1 X71.000 Y58.000
G1 X70.000 Y58.000
G1 X69.000 Y58.000
G1 X68.000 Y58.000
G1 X67.000 Y58.000
G1 X66.000 Y58.000
G1 X65.000 Y58.000
G1 X64.000 Y58.000
G1 X63.000 Y58.000
G1 X62.000 Y58.000
G1 X61.000 Y58.000
G1 X60.000 Y58.000
G1 X59.000 Y58.000
G0 Z4.600 F3000
M400
M204 P12000 T12000
G1 F12000
G0 X57.000 Y60.000 Z4.600
M400
M204 P200 T200
G1 F400
G1 Z0.000 F2500
G1 X58.000 Y60.000
G1 X59.000 Y60.000
G0 Z4.600 F3000

; --- CIKEL NAMAKANJA ---
G0 Z4.600 F3000
M400
M204 P12000 T12000
G1 F12000
G0 X-17.380 Y-16.073 Z31.000
G1 Z0.000 F3000
G1 X-17.380 Y-16.073 F2500
G1 X-17.380 Y-13.573 F2500
G1 X-22.380 Y-16.073 F2500
G1 X-17.380 Y-23.573 F2500
G0 Z16.000 F3000
G0 X10.607 Y10.607
G0 Z31.000 F3000
G0 X60.000 Y60.000 Z4.600
M400
M204 P200 T200
G1 F400
G1 Z0.000 F2500
G1 X60.000 Y60.000
G1 X61.000 Y60.000
G1 X62.000 Y60.000
G1 X63.000 Y60.000
G1 X64.000 Y60.000
G1 X65.000 Y60.000
G1 X66.000 Y60.000
G1 X67.000 Y60.000
G1 X68.000 Y60.000
G1 X69.000 Y60.000
G1 X70.000 Y60.000
G1 X71.000 Y60.000
G1 X72.000 Y60.000
G1 X73.000 Y60.000
G1 X74.000 Y60.000
G1 X75.000 Y60.000
G1 X76.000 Y60.000
G1 X77.000 Y60.000
G1 X78.000 Y60.000
G1 X79.000 Y60.000
G1 X80.000 Y60.000
G1 X81.000 Y60.000
G1 X82.000 Y60.000
G1 X83.000 Y60.000
G1 X84.000 Y60.000
G1 X85.000 Y60.000
G1 X86.000 Y60.000
G1 X87.000 Y60.000
G1 X88.000 Y60.000
G1 X89.000 Y60.000
G1 X90.000 Y60.000
G1 X91.000 Y60.000
G1 X92.000 Y60.000
G1 X93.000 Y60.000
G1 X94.000 Y60.000
G1 X95.000 Y60.000
G1 X96.000 Y60.000
G1 X97.000 Y60.000
G1 X98.000 Y60.000
G1 X99.000 Y60.000
G1 X100.000 Y60.000
G1 X101.000 Y60.000
G1 X102.000 Y60.000
G1 X103.000 Y60.000
G1 X104.000 Y60.000
G1 X105.000 Y60.000
G1 X106.000 Y60.000
G1 X107.000 Y60.000
G1 X108.000 Y60.000
G1 X109.000 Y60.000
G1 X110.000 Y60.000
G1 X111.000 Y60.000
G1 X112.000 Y60.000
G1 X113.000 Y60.000
G1 X114.000 Y60.000
G1 X115.000 Y60.000
G1 X116.000 Y60.000
G1 X117.000 Y60.000
G1 X118.000 Y60.000
G1 X119.000 Y60.000
G1 X120.000 Y60.000
G1 X121.000 Y60.000
G1 X122.000 Y60.000
G1 X123.000 Y60.000
G1 X124.000 Y60.000
G1 X125.000 Y60.000
G1 X126.000 Y60.000
G1 X127.000 Y60.000
G1 X128.000 Y60.000
G1 X129.000 Y60.000
G1 X130.000 Y60.000
G1 X131.000 Y60.000
G1 X132.000 Y60.000
G1 X133.000 Y60.000
G1 X134.000 Y60.000
G1 X135.000 Y60.000
G1 X136.000 Y60.000
G1 X137.000 Y60.000
G1 X138.000 Y60.000
G1 X139.000 Y60.000
G1 X140.000 Y60.000
G1 X141.000 Y60.000
G1 X142.000 Y60.000
G1 X143.000 Y60.000
G1 X144.000 Y60.000
G1 X145.000 Y60.000
G1 X146.000 Y60.000
G1 X147.000 Y60.000
G1 X148.000 Y60.000
G1 X149.000 Y60.000
G1 X150.000 Y60.000
G1 X151.000 Y60.000
G1 X152.000 Y60.000
G1 X153.000 Y60.000
G1 X154.000 Y60.000
G1 X155.000 Y60.000
G1 X156.000 Y60.000
G1 X157.000 Y60.000
G1 X158.000 Y60.000
G1 X159.000 Y60.000
G1 X160.000 Y60.000
G1 X161.000 Y60.000
G1 X162.000 Y60.000
G1 X163.000 Y60.000
G1 X164.000 Y60.000
G1 X165.000 Y60.000
G1 X166.000 Y60.000
G1 X167.000 Y60.000
G1 X168.000 Y60.000
G1 X169.000 Y60.000
G1 X170.000 Y60.000
G1 X171.000 Y60.000
G1 X172.000 Y60.000
G1 X173.000 Y60.000
G1 X174.000 Y60.000
G1 X175.000 Y60.000
G1 X176.000 Y60.000
G1 X177.000 Y60.000
G1 X178.000 Y60.000
G1 X179.000 Y60.000
G1 X180.000 Y60.000
G1 X181.000 Y60.000
G1 X182.000 Y60.000
G1 X183.000 Y60.000
G1 X184.000 Y60.000
G1 X185.000 Y60.000
G1 X186.000 Y60.000
G1 X187.000 Y60.000
G1 X188.000 Y60.000
G1 X189.000 Y60.000
G1 X190.000 Y60.000
G1 X191.000 Y60.000
G1 X192.000 Y60.000
G1 X193.000 Y60.000
G1 X194.000 Y60.000
G1 X195.000 Y60.000
G1 X196.000 Y60.000
G1 X197.000 Y60.000
G1 X198.000 Y60.000
G1 X199.000 Y60.000
G1 X200.000 Y60.000
G1 X201.000 Y60.000
G1 X202.000 Y60.000
G0 Z4.600 F3000
M400
M204 P12000 T12000
G1 F12000
G0 X203.000 Y61.000 Z4.600
M400
M204 P200 T200
G1 F400
G1 Z0.000 F2500
G1 X202.000 Y61.000
G1 X201.000 Y61.000
G1 X200.000 Y61.000
G1 X199.000 Y61.000
G1 X198.000 Y61.000
G1 X197.000 Y61.000
G1 X196.000 Y61.000
G1 X195.000 Y61.000
G1 X194.000 Y61.000
G1 X193.000 Y61.000
G1 X192.000 Y61.000
G1 X191.000 Y61.000
G1 X190.000 Y61.000
G1 X189.000 Y61.000
G1 X188.000 Y61.000
G1 X187.000 Y61.000
G1 X186.000 Y61.000
G1 X185.000 Y61.000
G1 X184.000 Y61.000
G1 X183.000 Y61.000
G1 X182.000 Y61.000
G1 X181.000 Y61.000
G1 X180.000 Y61.000
G1 X179.000 Y61.000
G1 X178.000 Y61.000
G1 X177.000 Y61.000
G1 X176.000 Y61.000
G1 X175.000 Y61.000
G1 X174.000 Y61.000
G1 X173.000 Y61.000
G1 X172.000 Y61.000
G1 X171.000 Y61.000
G1 X170.000 Y61.000
G1 X169.000 Y61.000
G1 X168.000 Y61.000
G1 X167.000 Y61.000
G1 X166.000 Y61.000
G1 X165.000 Y61.000
G1 X164.000 Y61.000
G1 X163.000 Y61.000
G1 X162.000 Y61.000
G1 X161.000 Y61.000
G1 X160.000 Y61.000
G1 X159.000 Y61.000
G1 X158.000 Y61.000
G1 X157.000 Y61.000
G1 X156.000 Y61.000
G1 X155.000 Y61.000
G1 X154.000 Y61.000
G1 X153.000 Y61.000
G1 X152.000 Y61.000
G1 X151.000 Y61.000
G1 X150.000 Y61.000
G1 X149.000 Y61.000
G1 X148.000 Y61.000
G1 X147.000 Y61.000
G1 X146.000 Y61.000
G1 X145.000 Y61.000
G1 X144.000 Y61.000
G1 X143.000 Y61.000
G1 X142.000 Y61.000
G1 X141.000 Y61.000
G1 X140.000 Y61.000
G1 X139.000 Y61.000
G1 X138.000 Y61.000
G1 X137.000 Y61.000
G1 X136.000 Y61.000
G1 X135.000 Y61.000
G1 X134.000 Y61.000
G1 X133.000 Y61.000
G1 X132.000 Y61.000
G1 X131.000 Y61.000
G1 X130.000 Y61.000
G1 X129.000 Y61.000
G1 X128.000 Y61.000
G1 X127.000 Y61.000
G1 X126.000 Y61.000
G1 X125.000 Y61.000
G1 X124.000 Y61.000
G1 X123.000 Y61.000
G1 X122.000 Y61.000
G1 X121.000 Y61.000
G1 X120.000 Y61.000
G1 X119.000 Y61.000
G1 X118.000 Y61.000
G1 X117.000 Y61.000
G1 X116.000 Y61.000
G1 X115.000 Y61.000
G1 X114.000 Y61.000
G1 X113.000 Y61.000
G1 X112.000 Y61.000
G1 X111.000 Y61.000
G1 X110.000 Y61.000
G1 X109.000 Y61.000
G1 X108.000 Y61.000
G1 X107.000 Y61.000
G1 X106.000 Y61.000
G1 X105.000 Y61.000
G1 X104.000 Y61.000
G1 X103.000 Y61.000
G1 X102.000 Y61.000
G1 X101.000 Y61.000
G1 X100.000 Y61.000
G1 X99.000 Y61.000
G1 X98.000 Y61.000
G1 X97.000 Y61.000
G1 X96.000 Y61.000
G1 X95.000 Y61.000
G1 X94.000 Y61.000
G1 X93.000 Y61.000
G1 X92.000 Y61.000
G1 X91.000 Y61.000
G0 Z4.600 F3000

; --- CIKEL NAMAKANJA ---
G0 Z4.600 F3000
M400
M204 P12000 T12000
G1 F12000
G0 X-8.466 Y17.164 Z31.000
G1 Z0.000 F3000
G1 X-8.466 Y17.164 F2500
G1 X-8.466 Y19.664 F2500
G1 X-13.466 Y17.164 F2500
G1 X-8.466 Y9.664 F2500
G0 Z16.000 F3000
G0 X12.417 Y8.416
G0 Z31.000 F3000
G0 X90.000 Y61.000 Z4.600
M400
M204 P200 T200
G1 F400
G1 Z0.000 F2500
G1 X90.000 Y61.000
G1 X89.000 Y61.000
G1 X88.000 Y61.000
G1 X87.000 Y61.000
G1 X86.000 Y61.000
G1 X85.000 Y61.000
G1 X84.000 Y61.000
G1 X83.000 Y61.000
G1 X82.000 Y61.000
G1 X81.000 Y61.000
G1 X80.000 Y61.000
G1 X79.000 Y61.000
G1 X78.000 Y61.000
G1 X77.000 Y61.000
G1 X76.000 Y61.000
G1 X75.000 Y61.000
G1 X74.000 Y61.000
G1 X73.000 Y61.000
G1 X72.000 Y61.000
G1 X71.000 Y61.000
G1 X70.000 Y61.000
G1 X69.000 Y61.000
G1 X68.000 Y61.000
G1 X67.000 Y61.000
G1 X66.000 Y61.000
G1 X65.000 Y61.000
G1 X64.000 Y61.000
G1 X63.000 Y61.000
G1 X62.000 Y61.000
G1 X61.000 Y61.000
G1 X60.000 Y61.000
G1 X59.000 Y61.000
G1 X58.000 Y61.000
G1 X57.000 Y61.000
G1 X56.000 Y61.000
G0 Z4.600 F3000
M400
M204 P12000 T12000
G1 F12000
G0 X55.000 Y62.000 Z4.600
M400
M204 P200 T200
G1 F400
G1 Z0.000 F2500
G1 X56.000 Y62.000
G1 X57.000 Y62.000
G1 X58.000 Y62.000
G1 X59.000 Y62.000
G1 X60.000 Y62.000
G1 X61.000 Y62.000
G1 X62.000 Y62.000
G1 X63.000 Y62.000
G1 X64.000 Y62.000
G1 X65.000 Y62.000
G1 X66.000 Y62.000
G1 X67.000 Y62.000
G1 X68.000 Y62.000
G1 X69.000 Y62.000
G1 X70.000 Y62.000
G1 X71.000 Y62.000
G1 X72.000 Y62.000
G1 X73.000 Y62.000
G1 X74.000 Y62.000
G1 X75.000 Y62.000
G1 X76.000 Y62.000
G1 X77.000 Y62.000
G1 X78.000 Y62.000
G1 X79.000 Y62.000
G1 X80.000 Y62.000
G1 X81.000 Y62.000
G1 X82.000 Y62.000
G1 X83.000 Y62.000
G1 X84.000 Y62.000
G1 X85.000 Y62.000
G1 X86.000 Y62.000
G1 X87.000 Y62.000
G1 X88.000 Y62.000
G1 X89.000 Y62.000
G1 X90.000 Y62.000
G1 X91.000 Y62.000
G1 X92.000 Y62.000
G1 X93.000 Y62.000
G1 X94.000 Y62.000
G1 X95.000 Y62.000
G1 X96.000 Y62.000
G1 X97.000 Y62.000
G1 X98.000 Y62.000
G1 X99.000 Y62.000
G1 X100.000 Y62.000
G1 X101.000 Y62.000
G1 X102.000 Y62.000
G1 X103.000 Y62.000
G1 X104.000 Y62.000
G1 X105.000 Y62.000
G1 X106.000 Y62.000
G1 X107.000 Y62.000
G1 X108.000 Y62.000
G1 X109.000 Y62.000
G1 X110.000 Y62.000
G1 X111.000 Y62.000
G1 X112.000 Y62.000
G1 X113.000 Y62.000
G1 X114.000 Y62.000
G1 X115.000 Y62.000
G1 X116.000 Y62.000
G1 X117.000 Y62.000
G1 X118.000 Y62.000
G1 X119.000 Y62.000
G1 X120.000 Y62.000
G1 X121.000 Y62.000
G1 X122.000 Y62.000
G1 X123.000 Y62.000
G1 X124.000 Y62.000
G1 X125.000 Y62.000
G1 X126.000 Y62.000
G1 X127.000 Y62.000
G1 X128.000 Y62.000
G1 X129.000 Y62.000
G1 X130.000 Y62.000
G1 X131.000 Y62.000
G1 X132.000 Y62.000
G1 X133.000 Y62.000
G1 X134.000 Y62.000
G1 X135.000 Y62.000
G1 X136.000 Y62.000
G1 X137.000 Y62.000
G1 X138.000 Y62.000
G1 X139.000 Y62.000
G1 X140.000 Y62.000
G1 X141.000 Y62.000
G1 X142.000 Y62.000
G1 X143.000 Y62.000
G1 X144.000 Y62.000
G1 X145.000 Y62.000
G1 X146.000 Y62.000
G1 X147.000 Y62.000
G1 X148.000 Y62.000
G1 X149.000 Y62.000
G1 X150.000 Y62.000
G1 X151.000 Y62.000
G1 X152.000 Y62.000
G1 X153.000 Y62.000
G1 X154.000 Y62.000
G1 X155.000 Y62.000
G1 X156.000 Y62.000
G1 X157.000 Y62.000
G1 X158.000 Y62.000
G1 X159.000 Y62.000
G1 X160.000 Y62.000
G1 X161.000 Y62.000
G1 X162.000 Y62.000
G1 X163.000 Y62.000
G1 X164.000 Y62.000
G1 X165.000 Y62.000
G1 X166.000 Y62.000
G1 X167.000 Y62.000
G1 X168.000 Y62.000
G1 X169.000 Y62.000
G1 X170.000 Y62.000
G1 X171.000 Y62.000
G1 X172.000 Y62.000
G1 X173.000 Y62.000
G1 X174.000 Y62.000
G1 X175.000 Y62.000
G1 X176.000 Y62.000
G1 X177.000 Y62.000
G1 X178.000 Y62.000
G1 X179.000 Y62.000
G1 X180.000 Y62.000
G1 X181.000 Y62.000
G1 X182.000 Y62.000
G1 X183.000 Y62.000
G1 X184.000 Y62.000
G1 X185.000 Y62.000
G1 X186.000 Y62.000
G1 X187.000 Y62.000
G1 X188.000 Y62.000
G1 X189.000 Y62.000
G1 X190.000 Y62.000
G1 X191.000 Y62.000
G1 X192.000 Y62.000
G1 X193.000 Y62.000
G1 X194.000 Y62.000
G1 X195.000 Y62.000
G1 X196.000 Y62.000
G1 X197.000 Y62.000
G1 X198.000 Y62.000
G1 X199.000 Y62.000
G1 X200.000 Y62.000
G1 X201.000 Y62.000
G1 X202.000 Y62.000
G1 X203.000 Y62.000
G1 X204.000 Y62.000
G0 Z4.600 F3000
M400
M204 P12000 T12000
G1 F12000
G0 X205.000 Y63.000 Z4.600
M400
M204 P200 T200
G1 F400
G1 Z0.000 F2500
G1 X204.000 Y63.000
G1 X203.000 Y63.000
G1 X202.000 Y63.000
G1 X201.000 Y63.000
G1 X200.000 Y63.000
G1 X199.000 Y63.000
G1 X198.000 Y63.000
G1 X197.000 Y63.000
G1 X196.000 Y63.000
G1 X195.000 Y63.000
G1 X194.000 Y63.000
G1 X193.000 Y63.000
G1 X192.000 Y63.000
G1 X191.000 Y63.000
G1 X190.000 Y63.000
G1 X189.000 Y63.000
G1 X188.000 Y63.000
G1 X187.000 Y63.000
G1 X186.000 Y63.000
G1 X185.000 Y63.000
G1 X184.000 Y63.000
G1 X183.000 Y63.000
G1 X182.000 Y63.000
G1 X181.000 Y63.000
G1 X180.000 Y63.000
G1 X179.000 Y63.000
G1 X178.000 Y63.000
G1 X177.000 Y63.000
G1 X176.000 Y63.000
G1 X175.000 Y63.000
G1 X174.000 Y63.000
G1 X173.000 Y63.000
G1 X172.000 Y63.000
G1 X171.000 Y63.000
G1 X170.000 Y63.000
G1 X169.000 Y63.000
G1 X168.000 Y63.000
G1 X167.000 Y63.000
G1 X166.000 Y63.000
G1 X165.000 Y63.000
G1 X164.000 Y63.000
G1 X163.000 Y63.000
G1 X162.000 Y63.000
G1 X161.000 Y63.000
G1 X160.000 Y63.000
G1 X159.000 Y63.000
G1 X158.000 Y63.000
G1 X157.000 Y63.000
G1 X156.000 Y63.000
G1 X155.000 Y63.000
G1 X154.000 Y63.000
G1 X153.000 Y63.000
G1 X152.000 Y63.000
G1 X151.000 Y63.000
G1 X150.000 Y63.000
G1 X149.000 Y63.000
G1 X148.000 Y63.000
G1 X147.000 Y63.000
G1 X146.000 Y63.000
G1 X145.000 Y63.000
G1 X144.000 Y63.000
G1 X143.000 Y63.000
G1 X142.000 Y63.000
G1 X141.000 Y63.000
G1 X140.000 Y63.000
G1 X139.000 Y63.000
G1 X138.000 Y63.000
G1 X137.000 Y63.000
G1 X136.000 Y63.000
G1 X135.000 Y63.000
G1 X134.000 Y63.000
G1 X133.000 Y63.000
G1 X132.000 Y63.000
G1 X131.000 Y63.000
G1 X130.000 Y63.000
G1 X129.000 Y63.000
G1 X128.000 Y63.000
G1 X127.000 Y63.000
G1 X126.000 Y63.000
G1 X125.000 Y63.000
G1 X124.000 Y63.000
G1 X123.000 Y63.000
G1 X122.000 Y63.000
G1 X121.000 Y63.000
G1 X120.000 Y63.000
G1 X119.000 Y63.000
G1 X118.000 Y63.000
G1 X117.000 Y63.000
G1 X116.000 Y63.000
G0 Z4.600 F3000

; --- CIKEL NAMAKANJA ---
G0 Z4.600 F3000
M400
M204 P12000 T12000
G1 F12000
G0 X-8.903 Y-6.025 Z31.000
G1 Z0.000 F3000
G1 X-8.903 Y-6.025 F2500
G1 X-8.903 Y-3.525 F2500
G1 X-13.903 Y-6.025 F2500
G1 X-8.903 Y-13.525 F2500
G0 Z16.000 F3000
G0 X13.155 Y7.207
G0 Z31.000 F3000
G0 X115.000 Y63.000 Z4.600
M400
M204 P200 T200
G1 F400
G1 Z0.000 F2500
G1 X115.000 Y63.000
G1 X114.000 Y63.000
G1 X113.000 Y63.000
G1 X112.000 Y63.000
G1 X111.000 Y63.000
G1 X110.000 Y63.000
G1 X109.000 Y63.000
G1 X108.000 Y63.000
G1 X107.000 Y63.000
G1 X106.000 Y63.000
G1 X105.000 Y63.000
G1 X104.000 Y63.000
G1 X103.000 Y63.000
G1 X102.000 Y63.000
G1 X101.000 Y63.000
G1 X100.000 Y63.000
G1 X99.000 Y63.000
G1 X98.000 Y63.000
G1 X97.000 Y63.000
G1 X96.000 Y63.000
G1 X95.000 Y63.000
G1 X94.000 Y63.000
G1 X93.000 Y63.000
G1 X92.000 Y63.000
G1 X91.000 Y63.000
G1 X90.000 Y63.000
G1 X89.000 Y63.000
G1 X88.000 Y63.000
G1 X87.000 Y63.000
G1 X86.000 Y63.000
G1 X85.000 Y63.000
G1 X84.000 Y63.000
G1 X83.000 Y63.000
G1 X82.000 Y63.000
G1 X81.000 Y63.000
G1 X80.000 Y63.000
G1 X79.000 Y63.000
G1 X78.000 Y63.000
G1 X77.000 Y63.000
G1 X76.000 Y63.000
G1 X75.000 Y63.000
G1 X74.000 Y63.000
G1 X73.000 Y63.000
G1 X72.000 Y63.000
G1 X71.000 Y63.000
G1 X70.000 Y63.000
G1 X69.000 Y63.000
G1 X68.000 Y63.000
G1 X67.000 Y63.000
G1 X66.000 Y63.000
G1 X65.000 Y63.000
G1 X64.000 Y63.000
G1 X63.000 Y63.000
G1 X62.000 Y63.000
G1 X61.000 Y63.000
G1 X60.000 Y63.000
G1 X59.000 Y63.000
G1 X58.000 Y63.000
G1 X57.000 Y63.000
G1 X56.000 Y63.000
G1 X55.000 Y63.000
G1 X54.000 Y63.000
G0 Z4.600 F3000
M400
M204 P12000 T12000
G1 F12000
G0 X53.000 Y64.000 Z4.600
M400
M204 P200 T200
G1 F400
G1 Z0.000 F2500
G1 X54.000 Y64.000
G1 X55.000 Y64.000
G1 X56.000 Y64.000
G1 X57.000 Y64.000
G1 X58.000 Y64.000
G1 X59.000 Y64.000
G1 X60.000 Y64.000
G1 X61.000 Y64.000
G1 X62.000 Y64.000
G1 X63.000 Y64.000
G1 X64.000 Y64.000
G1 X65.000 Y64.000
G1 X66.000 Y64.000
G1 X67.000 Y64.000
G1 X68.000 Y64.000
G1 X69.000 Y64.000
G1 X70.000 Y64.000
G1 X71.000 Y64.000
G1 X72.000 Y64.000
G1 X73.000 Y64.000
G1 X74.000 Y64.000
G1 X75.000 Y64.000
G1 X76.000 Y64.000
G1 X77.000 Y64.000
G1 X78.000 Y64.000
G1 X79.000 Y64.000
G1 X80.000 Y64.000
G1 X81.000 Y64.000
G1 X82.000 Y64.000
G1 X83.000 Y64.000
G1 X84.000 Y64.000
G1 X85.000 Y64.000
G1 X86.000 Y64.000
G1 X87.000 Y64.000
G1 X88.000 Y64.000
G1 X89.000 Y64.000
G1 X90.000 Y64.000
G1 X91.000 Y64.000
G1 X92.000 Y64.000
G1 X93.000 Y64.000
G1 X94.000 Y64.000
G1 X95.000 Y64.000
G1 X96.000 Y64.000
G1 X97.000 Y64.000
G1 X98.000 Y64.000
G1 X99.000 Y64.000
G1 X100.000 Y64.000
G1 X101.000 Y64.000
G1 X102.000 Y64.000
G1 X103.000 Y64.000
G1 X104.000 Y64.000
G1 X105.000 Y64.000
G1 X106.000 Y64.000
G1 X107.000 Y64.000
G1 X108.000 Y64.000
G1 X109.000 Y64.000
G1 X110.000 Y64.000
G1 X111.000 Y64.000
G1 X112.000 Y64.000
G1 X113.000 Y64.000
G1 X114.000 Y64.000
G1 X115.000 Y64.000
G1 X116.000 Y64.000
G1 X117.000 Y64.000
G1 X118.000 Y64.000
G1 X119.000 Y64.000
G1 X120.000 Y64.000
G1 X121.000 Y64.000
G1 X122.000 Y64.000
G1 X123.000 Y64.000
G1 X124.000 Y64.000
G1 X125.000 Y64.000
G1 X126.000 Y64.000
G1 X127.000 Y64.000
G1 X128.000 Y64.000
G1 X129.000 Y64.000
G1 X130.000 Y64.000
G1 X131.000 Y64.000
G1 X132.000 Y64.000
G1 X133.000 Y64.000
G1 X134.000 Y64.000
G1 X135.000 Y64.000
G1 X136.000 Y64.000
G1 X137.000 Y64.000
G1 X138.000 Y64.000
G1 X139.000 Y64.000
G1 X140.000 Y64.000
G1 X141.000 Y64.000
G1 X142.000 Y64.000
G1 X143.000 Y64.000
G1 X144.000 Y64.000
G1 X145.000 Y64.000
G1 X146.000 Y64.000
G1 X147.000 Y64.000
G1 X148.000 Y64.000
G1 X149.000 Y64.000
G1 X150.000 Y64.000
G1 X151.000 Y64.000
G1 X152.000 Y64.000
G1 X153.000 Y64.000
G1 X154.000 Y64.000
G1 X155.000 Y64.000
G1 X156.000 Y64.000
G1 X157.000 Y64.000
G1 X158.000 Y64.000
G1 X159.000 Y64.000
G1 X160.000 Y64.000
G1 X161.000 Y64.000
G1 X162.000 Y64.000
G1 X163.000 Y64.000
G1 X164.000 Y64.000
G1 X165.000 Y64.000
G1 X166.000 Y64.000
G1 X167.000 Y64.000
G1 X168.000 Y64.000
G1 X169.000 Y64.000
G1 X170.000 Y64.000
G1 X171.000 Y64.000
G1 X172.000 Y64.000
G1 X173.000 Y64.000
G1 X174.000 Y64.000
G1 X175.000 Y64.000
G1 X176.000 Y64.000
G1 X177.000 Y64.000
G1 X178.000 Y64.000
G1 X179.000 Y64.000
G1 X180.000 Y64.000
G1 X181.000 Y64.000
G1 X182.000 Y64.000
G1 X183.000 Y64.000
G1 X184.000 Y64.000
G1 X185.000 Y64.000
G1 X186.000 Y64.000
G1 X187.000 Y64.000
G1 X188.000 Y64.000
G1 X189.000 Y64.000
G1 X190.000 Y64.000
G1 X191.000 Y64.000
G1 X192.000 Y64.000
G1 X193.000 Y64.000
G1 X194.000 Y64.000
G1 X195.000 Y64.000
G1 X196.000 Y64.000
G1 X197.000 Y64.000
G1 X198.000 Y64.000
G1 X199.000 Y64.000
G1 X200.000 Y64.000
G1 X201.000 Y64.000
G1 X202.000 Y64.000
G1 X203.000 Y64.000
G1 X204.000 Y64.000
G1 X205.000 Y64.000
G1 X206.000 Y64.000
G0 Z4.600 F3000
M400
M204 P12000 T12000
G1 F12000
G0 X207.000 Y65.000 Z4.600
M400
M204 P200 T200
G1 F400
G1 Z0.000 F2500
G1 X206.000 Y65.000
G1 X205.000 Y65.000
G1 X204.000 Y65.000
G1 X203.000 Y65.000
G1 X202.000 Y65.000
G1 X201.000 Y65.000
G1 X200.000 Y65.000
G1 X199.000 Y65.000
G1 X198.000 Y65.000
G1 X197.000 Y65.000
G1 X196.000 Y65.000
G1 X195.000 Y65.000
G1 X194.000 Y65.000
G1 X193.000 Y65.000
G1 X192.000 Y65.000
G1 X191.000 Y65.000
G1 X190.000 Y65.000
G1 X189.000 Y65.000
G1 X188.000 Y65.000
G1 X187.000 Y65.000
G1 X186.000 Y65.000
G1 X185.000 Y65.000
G1 X184.000 Y65.000
G1 X183.000 Y65.000
G1 X182.000 Y65.000
G1 X181.000 Y65.000
G1 X180.000 Y65.000
G1 X179.000 Y65.000
G1 X178.000 Y65.000
G1 X177.000 Y65.000
G1 X176.000 Y65.000
G1 X175.000 Y65.000
G1 X174.000 Y65.000
G1 X173.000 Y65.000
G1 X172.000 Y65.000
G1 X171.000 Y65.000
G1 X170.000 Y65.000
G1 X169.000 Y65.000
G1 X168.000 Y65.000
G1 X167.000 Y65.000
G1 X166.000 Y65.000
G1 X165.000 Y65.000
G1 X164.000 Y65.000
G1 X163.000 Y65.000
G1 X162.000 Y65.000
G1 X161.000 Y65.000
G1 X160.000 Y65.000
G1 X159.000 Y65.000
G1 X158.000 Y65.000
G0 Z4.600 F3000

; --- CIKEL NAMAKANJA ---
G0 Z4.600 F3000
M400
M204 P12000 T12000
G1 F12000
G0 X12.173 Y-8.187 Z31.000
G1 Z0.000 F3000
G1 X12.173 Y-8.187 F2500
G1 X12.173 Y-5.687 F2500
G1 X7.173 Y-8.187 F2500
G1 X12.173 Y-15.687 F2500
G0 Z16.000 F3000
G0 X13.859 Y5.738
G0 Z31.000 F3000
G0 X157.000 Y65.000 Z4.600
M400
M204 P200 T200
G1 F400
G1 Z0.000 F2500
G1 X157.000 Y65.000
G1 X156.000 Y65.000
G1 X155.000 Y65.000
G1 X154.000 Y65.000
G1 X153.000 Y65.000
G1 X152.000 Y65.000
G1 X151.000 Y65.000
G1 X150.000 Y65.000
G1 X149.000 Y65.000
G1 X148.000 Y65.000
G1 X147.000 Y65.000
G1 X146.000 Y65.000
G1 X145.000 Y65.000
G1 X144.000 Y65.000
G1 X143.000 Y65.000
G1 X142.000 Y65.000
G1 X141.000 Y65.000
G1 X140.000 Y65.000
G1 X139.000 Y65.000
G1 X138.000 Y65.000
G1 X137.000 Y65.000
G1 X136.000 Y65.000
G1 X135.000 Y65.000
G1 X134.000 Y65.000
G1 X133.000 Y65.000
G1 X132.000 Y65.000
G1 X131.000 Y65.000
G1 X130.000 Y65.000
G1 X129.000 Y65.000
G1 X128.000 Y65.000
G1 X127.000 Y65.000
G1 X126.000 Y65.000
G1 X125.000 Y65.000
G1 X124.000 Y65.000
G1 X123.000 Y65.000
G1 X122.000 Y65.000
G1 X121.000 Y65.000
G1 X120.000 Y65.000
G1 X119.000 Y65.000
G1 X118.000 Y65.000
G1 X117.000 Y65.000
G1 X116.000 Y65.000
G1 X115.000 Y65.000
G1 X114.000 Y65.000
G1 X113.000 Y65.000
G1 X112.000 Y65.000
G1 X111.000 Y65.000
G1 X110.000 Y65.000
G1 X109.000 Y65.000
G1 X108.000 Y65.000
G1 X107.000 Y65.000
G1 X106.000 Y65.000
G1 X105.000 Y65.000
G1 X104.000 Y65.000
G1 X103.000 Y65.000
G1 X102.000 Y65.000
G1 X101.000 Y65.000
G1 X100.000 Y65.000
G1 X99.000 Y65.000
G1 X98.000 Y65.000
G1 X97.000 Y65.000
G1 X96.000 Y65.000
G1 X95.000 Y65.000
G1 X94.000 Y65.000
G1 X93.000 Y65.000
G1 X92.000 Y65.000
G1 X91.000 Y65.000
G1 X90.000 Y65.000
G1 X89.000 Y65.000
G1 X88.000 Y65.000
G1 X87.000 Y65.000
G1 X86.000 Y65.000
G1 X85.000 Y65.000
G1 X84.000 Y65.000
G1 X83.000 Y65.000
G1 X82.000 Y65.000
G1 X81.000 Y65.000
G1 X80.000 Y65.000
G1 X79.000 Y65.000
G1 X78.000 Y65.000
G1 X77.000 Y65.000
G1 X76.000 Y65.000
G1 X75.000 Y65.000
G1 X74.000 Y65.000
G1 X73.000 Y65.000
G1 X72.000 Y65.000
G1 X71.000 Y65.000
G1 X70.000 Y65.000
G1 X69.000 Y65.000
G1 X68.000 Y65.000
G1 X67.000 Y65.000
G1 X66.000 Y65.000
G1 X65.000 Y65.000
G1 X64.000 Y65.000
G1 X63.000 Y65.000
G1 X62.000 Y65.000
G1 X61.000 Y65.000
G1 X60.000 Y65.000
G1 X59.000 Y65.000
G1 X58.000 Y65.000
G1 X57.000 Y65.000
G1 X56.000 Y65.000
G1 X55.000 Y65.000
G1 X54.000 Y65.000
G1 X53.000 Y65.000
G1 X52.000 Y65.000
G0 Z4.600 F3000
M400
M204 P12000 T12000
G1 F12000
G0 X51.000 Y66.000 Z4.600
M400
M204 P200 T200
G1 F400
G1 Z0.000 F2500
G1 X52.000 Y66.000
G1 X53.000 Y66.000
G1 X54.000 Y66.000
G1 X55.000 Y66.000
G1 X56.000 Y66.000
G1 X57.000 Y66.000
G1 X58.000 Y66.000
G1 X59.000 Y66.000
G1 X60.000 Y66.000
G1 X61.000 Y66.000
G1 X62.000 Y66.000
G1 X63.000 Y66.000
G1 X64.000 Y66.000
G1 X65.000 Y66.000
G1 X66.000 Y66.000
G1 X67.000 Y66.000
G1 X68.000 Y66.000
G1 X69.000 Y66.000
G1 X70.000 Y66.000
G1 X71.000 Y66.000
G1 X72.000 Y66.000
G1 X73.000 Y66.000
G1 X74.000 Y66.000
G1 X75.000 Y66.000
G1 X76.000 Y66.000
G1 X77.000 Y66.000
G1 X78.000 Y66.000
G1 X79.000 Y66.000
G1 X80.000 Y66.000
G1 X81.000 Y66.000
G1 X82.000 Y66.000
G1 X83.000 Y66.000
G1 X84.000 Y66.000
G1 X85.000 Y66.000
G1 X86.000 Y66.000
G1 X87.000 Y66.000
G1 X88.000 Y66.000
G1 X89.000 Y66.000
G1 X90.000 Y66.000
G1 X91.000 Y66.000
G1 X92.000 Y66.000
G1 X93.000 Y66.000
G1 X94.000 Y66.000
G1 X95.000 Y66.000
G1 X96.000 Y66.000
G1 X97.000 Y66.000
G1 X98.000 Y66.000
G1 X99.000 Y66.000
G1 X100.000 Y66.000
G1 X101.000 Y66.000
G1 X102.000 Y66.000
G1 X103.000 Y66.000
G1 X104.000 Y66.000
G1 X105.000 Y66.000
G1 X106.000 Y66.000
G1 X107.000 Y66.000
G1 X108.000 Y66.000
G1 X109.000 Y66.000
G1 X110.000 Y66.000
G1 X111.000 Y66.000
G1 X112.000 Y66.000
G1 X113.000 Y66.000
G1 X114.000 Y66.000
G1 X115.000 Y66.000
G1 X116.000 Y66.000
G1 X117.000 Y66.000
G1 X118.000 Y66.000
G1 X119.000 Y66.000
G1 X120.000 Y66.000
G1 X121.000 Y66.000
G1 X122.000 Y66.000
G1 X123.000 Y66.000
G1 X124.000 Y66.000
G1 X125.000 Y66.000
G1 X126.000 Y66.000
G1 X127.000 Y66.000
G1 X128.000 Y66.000
G1 X129.000 Y66.000
G1 X130.000 Y66.000
G1 X131.000 Y66.000
G1 X132.000 Y66.000
G1 X133.000 Y66.000
G1 X134.000 Y66.000
G1 X135.000 Y66.000
G1 X136.000 Y66.000
G1 X137.000 Y66.000
G1 X138.000 Y66.000
G1 X139.000 Y66.000
G1 X140.000 Y66.000
G1 X141.000 Y66.000
G1 X142.000 Y66.000
G1 X143.000 Y66.000
G1 X144.000 Y66.000
G1 X145.000 Y66.000
G1 X146.000 Y66.000
G1 X147.000 Y66.000
G1 X148.000 Y66.000
G1 X149.000 Y66.000
G1 X150.000 Y66.000
G1 X151.000 Y66.000
G1 X152.000 Y66.000
G1 X153.000 Y66.000
G1 X154.000 Y66.000
G1 X155.000 Y66.000
G1 X156.000 Y66.000
G1 X157.000 Y66.000
G1 X158.000 Y66.000
G1 X159.000 Y66.000
G1 X160.000 Y66.000
G1 X161.000 Y66.000
G1 X162.000 Y66.000
G1 X163.000 Y66.000
G1 X164.000 Y66.000
G1 X165.000 Y66.000
G1 X166.000 Y66.000
G1 X167.000 Y66.000
G1 X168.000 Y66.000
G1 X169.000 Y66.000
G1 X170.000 Y66.000
G1 X171.000 Y66.000
G1 X172.000 Y66.000
G1 X173.000 Y66.000
G1 X174.000 Y66.000
G1 X175.000 Y66.000
G1 X176.000 Y66.000
G1 X177.000 Y66.000
G1 X178.000 Y66.000
G1 X179.000 Y66.000
G1 X180.000 Y66.000
G1 X181.000 Y66.000
G1 X182.000 Y66.000
G1 X183.000 Y66.000
G1 X184.000 Y66.000
G1 X185.000 Y66.000
G1 X186.000 Y66.000
G1 X187.000 Y66.000
G1 X188.000 Y66.000
G1 X189.000 Y66.000
G1 X190.000 Y66.000
G1 X191.000 Y66.000
G1 X192.000 Y66.000
G1 X193.000 Y66.000
G1 X194.000 Y66.000
G0 Z4.600 F3000

; --- CIKEL NAMAKANJA ---
G0 Z4.600 F3000
M400
M204 P12000 T12000
G1 F12000
G0 X1.020 Y-14.527 Z31.000
G1 Z0.000 F3000
G1 X1.020 Y-14.527 F2500
G1 X1.020 Y-12.027 F2500
G1 X-3.980 Y-14.527 F2500
G1 X1.020 Y-22.027 F2500
G0 Z16.000 F3000
G0 X14.208 Y4.809
G0 Z31.000 F3000
G0 X195.000 Y66.000 Z4.600
M400
M204 P200 T200
G1 F400
G1 Z0.000 F2500
G1 X195.000 Y66.000
G1 X196.000 Y66.000
G1 X197.000 Y66.000
G1 X198.000 Y66.000
G1 X199.000 Y66.000
G1 X200.000 Y66.000
G1 X201.000 Y66.000
G1 X202.000 Y66.000
G1 X203.000 Y66.000
G1 X204.000 Y66.000
G1 X205.000 Y66.000
G1 X206.000 Y66.000
G1 X207.000 Y66.000
G1 X208.000 Y66.000
G0 Z4.600 F3000
M400
M204 P12000 T12000
G1 F12000
G0 X209.000 Y67.000 Z4.600
M400
M204 P200 T200
G1 F400
G1 Z0.000 F2500
G1 X208.000 Y67.000
G1 X207.000 Y67.000
G1 X206.000 Y67.000
G1 X205.000 Y67.000
G1 X204.000 Y67.000
G1 X203.000 Y67.000
G1 X202.000 Y67.000
G1 X201.000 Y67.000
G1 X200.000 Y67.000
G1 X199.000 Y67.000
G1 X198.000 Y67.000
G1 X197.000 Y67.000
G1 X196.000 Y67.000
G1 X195.000 Y67.000
G1 X194.000 Y67.000
G1 X193.000 Y67.000
G1 X192.000 Y67.000
G1 X191.000 Y67.000
G1 X190.000 Y67.000
G1 X189.000 Y67.000
G1 X188.000 Y67.000
G1 X187.000 Y67.000
G1 X186.000 Y67.000
G1 X185.000 Y67.000
G1 X184.000 Y67.000
G1 X183.000 Y67.000
G1 X182.000 Y67.000
G1 X181.000 Y67.000
G1 X180.000 Y67.000
G1 X179.000 Y67.000
G1 X178.000 Y67.000
G1 X177.000 Y67.000
G1 X176.000 Y67.000
G1 X175.000 Y67.000
G1 X174.000 Y67.000
G1 X173.000 Y67.000
G1 X172.000 Y67.000
G1 X171.000 Y67.000
G1 X170.000 Y67.000
G1 X169.000 Y67.000
G1 X168.000 Y67.000
G1 X167.000 Y67.000
G1 X166.000 Y67.000
G1 X165.000 Y67.000
G1 X164.000 Y67.000
G1 X163.000 Y67.000
G1 X162.000 Y67.000
G1 X161.000 Y67.000
G1 X160.000 Y67.000
G1 X159.000 Y67.000
G1 X158.000 Y67.000
G1 X157.000 Y67.000
G1 X156.000 Y67.000
G1 X155.000 Y67.000
G1 X154.000 Y67.000
G1 X153.000 Y67.000
G1 X152.000 Y67.000
G1 X151.000 Y67.000
G1 X150.000 Y67.000
G1 X149.000 Y67.000
G1 X148.000 Y67.000
G1 X147.000 Y67.000
G1 X146.000 Y67.000
G1 X145.000 Y67.000
G1 X144.000 Y67.000
G1 X143.000 Y67.000
G1 X142.000 Y67.000
G1 X141.000 Y67.000
G1 X140.000 Y67.000
G1 X139.000 Y67.000
G1 X138.000 Y67.000
G1 X137.000 Y67.000
G1 X136.000 Y67.000
G1 X135.000 Y67.000
G1 X134.000 Y67.000
G1 X133.000 Y67.000
G1 X132.000 Y67.000
G1 X131.000 Y67.000
G1 X130.000 Y67.000
G1 X129.000 Y67.000
G1 X128.000 Y67.000
G1 X127.000 Y67.000
G1 X126.000 Y67.000
G1 X125.000 Y67.000
G1 X124.000 Y67.000
G1 X123.000 Y67.000
G1 X122.000 Y67.000
G1 X121.000 Y67.000
G1 X120.000 Y67.000
G1 X119.000 Y67.000
G1 X118.000 Y67.000
G1 X117.000 Y67.000
G1 X116.000 Y67.000
G1 X115.000 Y67.000
G1 X114.000 Y67.000
G1 X113.000 Y67.000
G1 X112.000 Y67.000
G1 X111.000 Y67.000
G1 X110.000 Y67.000
G1 X109.000 Y67.000
G1 X108.000 Y67.000
G1 X107.000 Y67.000
G1 X106.000 Y67.000
G1 X105.000 Y67.000
G1 X104.000 Y67.000
G1 X103.000 Y67.000
G1 X102.000 Y67.000
G1 X101.000 Y67.000
G1 X100.000 Y67.000
G1 X99.000 Y67.000
G1 X98.000 Y67.000
G1 X97.000 Y67.000
G1 X96.000 Y67.000
G1 X95.000 Y67.000
G1 X94.000 Y67.000
G1 X93.000 Y67.000
G1 X92.000 Y67.000
G1 X91.000 Y67.000
G1 X90.000 Y67.000
G1 X89.000 Y67.000
G1 X88.000 Y67.000
G1 X87.000 Y67.000
G1 X86.000 Y67.000
G1 X85.000 Y67.000
G1 X84.000 Y67.000
G1 X83.000 Y67.000
G1 X82.000 Y67.000
G1 X81.000 Y67.000
G1 X80.000 Y67.000
G1 X79.000 Y67.000
G1 X78.000 Y67.000
G1 X77.000 Y67.000
G1 X76.000 Y67.000
G1 X75.000 Y67.000
G1 X74.000 Y67.000
G1 X73.000 Y67.000
G1 X72.000 Y67.000
G1 X71.000 Y67.000
G1 X70.000 Y67.000
G1 X69.000 Y67.000
G1 X68.000 Y67.000
G1 X67.000 Y67.000
G1 X66.000 Y67.000
G1 X65.000 Y67.000
G1 X64.000 Y67.000
G1 X63.000 Y67.000
G1 X62.000 Y67.000
G1 X61.000 Y67.000
G1 X60.000 Y67.000
G1 X59.000 Y67.000
G1 X58.000 Y67.000
G1 X57.000 Y67.000
G1 X56.000 Y67.000
G1 X55.000 Y67.000
G1 X54.000 Y67.000
G1 X53.000 Y67.000
G1 X52.000 Y67.000
G1 X51.000 Y67.000
G1 X50.000 Y67.000
G0 Z4.600 F3000
M400
M204 P12000 T12000
G1 F12000
G0 X50.000 Y68.000 Z4.600
M400
M204 P200 T200
G1 F400
G1 Z0.000 F2500
G1 X51.000 Y68.000
G1 X52.000 Y68.000
G1 X53.000 Y68.000
G1 X54.000 Y68.000
G1 X55.000 Y68.000
G1 X56.000 Y68.000
G1 X57.000 Y68.000
G1 X58.000 Y68.000
G1 X59.000 Y68.000
G1 X60.000 Y68.000
G1 X61.000 Y68.000
G1 X62.000 Y68.000
G1 X63.000 Y68.000
G1 X64.000 Y68.000
G1 X65.000 Y68.000
G1 X66.000 Y68.000
G1 X67.000 Y68.000
G1 X68.000 Y68.000
G1 X69.000 Y68.000
G1 X70.000 Y68.000
G1 X71.000 Y68.000
G1 X72.000 Y68.000
G1 X73.000 Y68.000
G1 X74.000 Y68.000
G1 X75.000 Y68.000
G1 X76.000 Y68.000
G1 X77.000 Y68.000
G1 X78.000 Y68.000
G1 X79.000 Y68.000
G1 X80.000 Y68.000
G1 X81.000 Y68.000
G1 X82.000 Y68.000
G1 X83.000 Y68.000
G1 X84.000 Y68.000
G1 X85.000 Y68.000
G1 X86.000 Y68.000
G1 X87.000 Y68.000
G1 X88.000 Y68.000
G1 X89.000 Y68.000
G1 X90.000 Y68.000
G1 X91.000 Y68.000
G1 X92.000 Y68.000
G1 X93.000 Y68.000
G1 X94.000 Y68.000
G1 X95.000 Y68.000
G1 X96.000 Y68.000
G1 X97.000 Y68.000
G1 X98.000 Y68.000
G1 X99.000 Y68.000
G1 X100.000 Y68.000
G1 X101.000 Y68.000
G1 X102.000 Y68.000
G1 X103.000 Y68.000
G1 X104.000 Y68.000
G1 X105.000 Y68.000
G1 X106.000 Y68.000
G1 X107.000 Y68.000
G1 X108.000 Y68.000
G1 X109.000 Y68.000
G1 X110.000 Y68.000
G1 X111.000 Y68.000
G1 X112.000 Y68.000
G1 X113.000 Y68.000
G1 X114.000 Y68.000
G1 X115.000 Y68.000
G1 X116.000 Y68.000
G1 X117.000 Y68.000
G1 X118.000 Y68.000
G1 X119.000 Y68.000
G1 X120.000 Y68.000
G1 X121.000 Y68.000
G1 X122.000 Y68.000
G1 X123.000 Y68.000
G1 X124.000 Y68.000
G1 X125.000 Y68.000
G1 X126.000 Y68.000
G1 X127.000 Y68.000
G1 X128.000 Y68.000
G1 X129.000 Y68.000
G1 X130.000 Y68.000
G1 X131.000 Y68.000
G1 X132.000 Y68.000
G0 Z4.600 F3000

; --- CIKEL NAMAKANJA ---
G0 Z4.600 F3000
M400
M204 P12000 T12000
G1 F12000
G0 X12.410 Y12.054 Z31.000
G1 Z0.000 F3000
G1 X12.410 Y12.054 F2500
G1 X12.410 Y14.554 F2500
G1 X7.410 Y12.054 F2500
G1 X12.410 Y4.554 F2500
G0 Z16.000 F3000
G0 X13.356 Y6.828
G0 Z31.000 F3000
G0 X133.000 Y68.000 Z4.600
M400
M204 P200 T200
G1 F400
G1 Z0.000 F2500
G1 X133.000 Y68.000
G1 X134.000 Y68.000
G1 X135.000 Y68.000
G1 X136.000 Y68.000
G1 X137.000 Y68.000
G1 X138.000 Y68.000
G1 X139.000 Y68.000
G1 X140.000 Y68.000
G1 X141.000 Y68.000
G1 X142.000 Y68.000
G1 X143.000 Y68.000
G1 X144.000 Y68.000
G1 X145.000 Y68.000
G1 X146.000 Y68.000
G1 X147.000 Y68.000
G1 X148.000 Y68.000
G1 X149.000 Y68.000
G1 X150.000 Y68.000
G1 X151.000 Y68.000
G1 X152.000 Y68.000
G1 X153.000 Y68.000
G1 X154.000 Y68.000
G1 X155.000 Y68.000
G1 X156.000 Y68.000
G1 X157.000 Y68.000
G1 X158.000 Y68.000
G1 X159.000 Y68.000
G1 X160.000 Y68.000
G1 X161.000 Y68.000
G1 X162.000 Y68.000
G1 X163.000 Y68.000
G1 X164.000 Y68.000
G1 X165.000 Y68.000
G1 X166.000 Y68.000
G1 X167.000 Y68.000
G1 X168.000 Y68.000
G1 X169.000 Y68.000
G1 X170.000 Y68.000
G1 X171.000 Y68.000
G1 X172.000 Y68.000
G1 X173.000 Y68.000
G1 X174.000 Y68.000
G1 X175.000 Y68.000
G1 X176.000 Y68.000
G1 X177.000 Y68.000
G1 X178.000 Y68.000
G1 X179.000 Y68.000
G1 X180.000 Y68.000
G1 X181.000 Y68.000
G1 X182.000 Y68.000
G1 X183.000 Y68.000
G1 X184.000 Y68.000
G1 X185.000 Y68.000
G1 X186.000 Y68.000
G1 X187.000 Y68.000
G1 X188.000 Y68.000
G1 X189.000 Y68.000
G1 X190.000 Y68.000
G1 X191.000 Y68.000
G1 X192.000 Y68.000
G1 X193.000 Y68.000
G1 X194.000 Y68.000
G1 X195.000 Y68.000
G1 X196.000 Y68.000
G1 X197.000 Y68.000
G1 X198.000 Y68.000
G1 X199.000 Y68.000
G1 X200.000 Y68.000
G1 X201.000 Y68.000
G1 X202.000 Y68.000
G1 X203.000 Y68.000
G1 X204.000 Y68.000
G1 X205.000 Y68.000
G1 X206.000 Y68.000
G1 X207.000 Y68.000
G1 X208.000 Y68.000
G1 X209.000 Y68.000
G0 Z4.600 F3000
M400
M204 P12000 T12000
G1 F12000
G0 X209.000 Y69.000 Z4.600
M400
M204 P200 T200
G1 F400
G1 Z0.000 F2500
G1 X208.000 Y69.000
G1 X207.000 Y69.000
G1 X206.000 Y69.000
G1 X205.000 Y69.000
G1 X204.000 Y69.000
G1 X203.000 Y69.000
G1 X202.000 Y69.000
G1 X201.000 Y69.000
G1 X200.000 Y69.000
G1 X199.000 Y69.000
G1 X198.000 Y69.000
G1 X197.000 Y69.000
G1 X196.000 Y69.000
G1 X195.000 Y69.000
G1 X194.000 Y69.000
G1 X193.000 Y69.000
G1 X192.000 Y69.000
G1 X191.000 Y69.000
G1 X190.000 Y69.000
G1 X189.000 Y69.000
G1 X188.000 Y69.000
G1 X187.000 Y69.000
G1 X186.000 Y69.000
G1 X185.000 Y69.000
G1 X184.000 Y69.000
G1 X183.000 Y69.000
G1 X182.000 Y69.000
G1 X181.000 Y69.000
G1 X180.000 Y69.000
G1 X179.000 Y69.000
