G90
G21
; === MULTI-COLOR PAINTER GCODE ===
; Generated layers: 1
; Backlash compensation: ON  BX=0.5 BY=1.6
; Working area clamping: ON  X[0–150] Y[0–150]


; ═══════════════════════════════
; LAYER 1: Color 1 — Red
; Infill: lines
; ═══════════════════════════════


; --- CIKEL NAMAKANJA ---
G0 Z4.600 F3000
M400
M204 P12000 T12000
G1 F12000
G0 X51.646 Y5.735 Z31.000
G1 Z0.000 F3000
G1 X51.646 Y5.735 F2500
G1 X51.646 Y18.235 F2500
G1 X26.646 Y5.735 F2500
G1 X51.646 Y0.000 F2500
G0 Z16.000 F3000
G0 X109.318 Y54.987
G0 Z31.000 F3000
G0 X150.000 Y150.000 Z4.600
M400
M204 P12000 T12000
G1 F12000
G0 X150.000 Y150.000 Z4.600
M400
M204 P200 T200
G1 F400
G1 Z0.000 F2500
G1 X150.000 Y150.000
G1 X150.000 Y150.000
G1 X150.000 Y150.000
G1 X150.000 Y150.000
G1 X150.000 Y150.000
G1 X150.000 Y150.000
G1 X150.000 Y150.000
G1 X150.000 Y150.000
G1 X150.000 Y150.000
G1 X150.000 Y150.000
G1 X150.000 Y150.000
G1 X150.000 Y150.000
G1 X150.000 Y150.000
G1 X150.000 Y150.000
G1 X150.000 Y150.000
G1 X150.000 Y150.000
G1 X150.000 Y150.000
G1 X150.000 Y150.000
G1 X150.000 Y150.000
G1 X150.000 Y150.000
G1 X150.000 Y150.000
G1 X150.000 Y150.000
G1 X150.000 Y150.000
G1 X150.000 Y150.000
G1 X150.000 Y150.000
G1 X150.000 Y150.000
G1 X150.000 Y150.000
G1 X150.000 Y150.000
G1 X150.000 Y150.000
G1 X150.000 Y150.000
G1 X150.000 Y150.000
G1 X150.000 Y150.000
G1 X150.000 Y150.000
G1 X150.000 Y150.000
G1 X150.000 Y150.000
G1 X150.000 Y150.000
G1 X150.000 Y150.000
G1 X150.000 Y150.000
G1 X150.000 Y150.000
G1 X150.000 Y150.000
G1 X150.000 Y150.000
G1 X150.000 Y150.000
G1 X150.000 Y150.000
G1 X150.000 Y150.000
G1 X150.000 Y150.000
G1 X150.000 Y150.000
G1 X150.000 Y150.000
G1 X150.000 Y150.000
G1 X150.000 Y150.000
G1 X150.000 Y150.000
G1 X150.000 Y150.000
G1 X150.000 Y150.000
G1 X150.000 Y150.000
G1 X150.000 Y150.000
G1 X150.000 Y150.000
G1 X150.000 Y150.000
G1 X150.000 Y150.000
G0 Z4.600 F3000
M400
M204 P12000 T12000
G1 F12000
; --- Backlash X fix: -0.500mm ---
G0 X150.000 Y150.000 F200
; --- Backlash Y fix: -1.600mm ---
G0 X150.000 Y150.000 F200
G0 X150.000 Y150.000 Z4.600
M400
M204 P200 T200
G1 F400
G1 Z0.000 F2500
G1 X150.000 Y150.000
G1 X150.000 Y150.000
G1 X150.000 Y150.000
G1 X150.000 Y150.000
G1 X150.000 Y150.000
G1 X150.000 Y150.000
G1 X150.000 Y150.000
G1 X150.000 Y150.000
G0 Z4.600 F3000
M400
M204 P12000 T12000
G1 F12000
; --- Backlash Y fix: 1.600mm ---
G0 X150.000 Y150.000 F200
G0 X150.000 Y150.000 Z4.600
M400
M204 P200 T200
G1 F400
G1 Z0.000 F2500
; --- Backlash X fix: 0.500mm ---
G0 X150.000 Y150.000 F200
G1 X150.000 Y150.000
G1 X150.000 Y150.000
G1 X150.000 Y150.000
G1 X150.000 Y150.000
G1 X150.000 Y150.000
G1 X150.000 Y150.000
G1 X150.000 Y150.000
G1 X150.000 Y150.000
G1 X150.000 Y150.000
G1 X150.000 Y150.000
G1 X150.000 Y150.000
G1 X150.000 Y150.000
G1 X150.000 Y150.000
G1 X150.000 Y150.000
G1 X150.000 Y150.000
G1 X150.000 Y150.000
G1 X150.000 Y150.000
G1 X150.000 Y150.000
G1 X150.000 Y150.000
G1 X150.000 Y150.000
G1 X150.000 Y150.000
G1 X150.000 Y150.000
G1 X150.000 Y150.000
G0 Z4.600 F3000
M400
M204 P12000 T12000
G1 F12000
G0 X150.000 Y150.000 Z4.600
M400
M204 P200 T200
G1 F400
G1 Z0.000 F2500
; --- Backlash X fix: -0.500mm ---
G0 X150.000 Y150.000 F200
G1 X150.000 Y150.000
G1 X150.000 Y150.000
G1 X150.000 Y150.000
G1 X150.000 Y150.000
G1 X150.000 Y150.000
G1 X150.000 Y150.000
G1 X150.000 Y150.000
G1 X150.000 Y150.000
G1 X150.000 Y150.000
G1 X150.000 Y150.000
G1 X150.000 Y150.000
G1 X150.000 Y150.000
G1 X150.000 Y150.000
G1 X150.000 Y150.000
G1 X150.000 Y150.000
G1 X150.000 Y150.000
G1 X150.000 Y150.000
G1 X150.000 Y150.000
G1 X150.000 Y150.000
G1 X150.000 Y150.000
G1 X150.000 Y150.000
G1 X150.000 Y150.000
G1 X150.000 Y150.000
G1 X150.000 Y150.000
G1 X150.000 Y150.000
G1 X150.000 Y150.000
G1 X150.000 Y150.000
G1 X150.000 Y150.000
G0 Z4.600 F3000
M400
M204 P12000 T12000
G1 F12000
G0 X150.000 Y150.000 Z4.600
M400
M204 P200 T200
G1 F400
G1 Z0.000 F2500
; --- Backlash X fix: 0.500mm ---
G0 X150.000 Y150.000 F200
G1 X150.000 Y150.000
G1 X150.000 Y150.000
G1 X150.000 Y150.000
G1 X150.000 Y150.000
G1 X150.000 Y150.000
G1 X150.000 Y150.000
G1 X150.000 Y150.000
G1 X150.000 Y150.000
G1 X150.000 Y150.000
G1 X150.000 Y150.000
G1 X150.000 Y150.000
G1 X150.000 Y150.000
G1 X150.000 Y150.000
G1 X150.000 Y150.000
G1 X150.000 Y150.000
G1 X150.000 Y150.000
G1 X150.000 Y150.000
G1 X150.000 Y150.000
G1 X150.000 Y150.000
G1 X150.000 Y150.000
G1 X150.000 Y150.000
G1 X150.000 Y150.000
G1 X150.000 Y150.000
G1 X150.000 Y150.000
G1 X150.000 Y150.000
G1 X150.000 Y150.000
G1 X150.000 Y150.000
G1 X150.000 Y150.000
G1 X150.000 Y150.000
G1 X150.000 Y150.000
G1 X150.000 Y150.000
G1 X150.000 Y150.000
G1 X150.000 Y150.000
G0 Z4.600 F3000
M400
M204 P12000 T12000
G1 F12000
G0 X150.000 Y150.000 Z4.600
M400
M204 P200 T200
G1 F400
G1 Z0.000 F2500
; --- Backlash X fix: -0.500mm ---
G0 X150.000 Y150.000 F200
G1 X150.000 Y150.000
G1 X150.000 Y150.000
G1 X150.000 Y150.000
G1 X150.000 Y150.000
G1 X150.000 Y150.000
G1 X150.000 Y150.000
G1 X150.000 Y150.000
G1 X150.000 Y150.000
G1 X150.000 Y150.000
G1 X150.000 Y150.000
G1 X150.000 Y150.000
G1 X150.000 Y150.000
G1 X150.000 Y150.000
G1 X150.000 Y150.000
G1 X150.000 Y150.000
G1 X150.000 Y150.000
G1 X150.000 Y150.000
G1 X150.000 Y150.000
G1 X150.000 Y150.000
G1 X150.000 Y150.000
G1 X150.000 Y150.000
G1 X150.000 Y150.000
G1 X150.000 Y150.000
G1 X150.000 Y150.000
G1 X150.000 Y150.000
G1 X150.000 Y150.000
G1 X150.000 Y150.000
G1 X150.000 Y150.000
G1 X150.000 Y150.000
G1 X150.000 Y150.000
G1 X150.000 Y150.000
G1 X150.000 Y150.000
G1 X150.000 Y150.000
G1 X150.000 Y150.000
G1 X150.000 Y150.000
G1 X150.000 Y150.000
G0 Z4.600 F3000
M400
M204 P12000 T12000
G1 F12000
G0 X150.000 Y150.000 Z4.600
M400
M204 P200 T200
G1 F400
G1 Z0.000 F2500
; --- Backlash X fix: 0.500mm ---
G0 X150.000 Y150.000 F200
G1 X150.000 Y150.000
G1 X150.000 Y150.000
G1 X150.000 Y150.000
G1 X150.000 Y150.000
G1 X150.000 Y150.000
G1 X150.000 Y150.000
G1 X150.000 Y150.000
G1 X150.000 Y150.000
G1 X150.000 Y150.000
G1 X150.000 Y150.000
G1 X150.000 Y150.000
G1 X150.000 Y150.000
G1 X150.000 Y150.000
G1 X150.000 Y150.000
G1 X150.000 Y150.000
G1 X150.000 Y150.000
G1 X150.000 Y150.000
G1 X150.000 Y150.000
G1 X150.000 Y150.000
G1 X150.000 Y150.000
G1 X150.000 Y150.000
G1 X150.000 Y150.000
G1 X150.000 Y150.000
G1 X150.000 Y150.000
G1 X150.000 Y150.000
G1 X150.000 Y150.000
G1 X150.000 Y150.000
G1 X150.000 Y150.000
G1 X150.000 Y150.000
G1 X150.000 Y150.000
G1 X150.000 Y150.000
G1 X150.000 Y150.000
G1 X150.000 Y150.000
G1 X150.000 Y150.000
G1 X150.000 Y150.000
G1 X150.000 Y150.000
G1 X150.000 Y150.000
G1 X150.000 Y150.000
G1 X150.000 Y150.000
G1 X150.000 Y150.000
G1 X150.000 Y150.000
G1 X150.000 Y150.000
G0 Z4.600 F3000
M400
M204 P12000 T12000
G1 F12000
G0 X150.000 Y150.000 Z4.600
M400
M204 P200 T200
G1 F400
G1 Z0.000 F2500
; --- Backlash X fix: -0.500mm ---
G0 X150.000 Y150.000 F200
G1 X150.000 Y150.000
G1 X150.000 Y150.000
G1 X150.000 Y150.000
G1 X150.000 Y150.000
G1 X150.000 Y150.000
G1 X150.000 Y150.000
G1 X150.000 Y150.000
G1 X150.000 Y150.000
G1 X150.000 Y150.000
G1 X150.000 Y150.000
G1 X150.000 Y150.000
G1 X150.000 Y150.000
G1 X150.000 Y150.000
G1 X150.000 Y150.000
G1 X150.000 Y150.000
G1 X150.000 Y150.000
G1 X150.000 Y150.000
G1 X150.000 Y150.000
G1 X150.000 Y150.000
G1 X150.000 Y150.000
G1 X150.000 Y150.000
G1 X150.000 Y150.000
G1 X150.000 Y150.000
G1 X150.000 Y150.000
G1 X150.000 Y150.000
G1 X150.000 Y150.000
G1 X150.000 Y150.000
G1 X150.000 Y150.000
G1 X150.000 Y150.000
G1 X150.000 Y150.000
G1 X150.000 Y150.000
G0 Z4.600 F3000

; --- CIKEL NAMAKANJA ---
G0 Z4.600 F3000
M400
M204 P12000 T12000
G1 F12000
G0 X49.571 Y0.000 Z31.000
G1 Z0.000 F3000
G1 X49.571 Y0.000 F2500
G1 X49.571 Y12.500 F2500
G1 X24.571 Y0.000 F2500
G1 X49.571 Y0.000 F2500
G0 Z16.000 F3000
G0 X111.740 Y52.989
G0 Z31.000 F3000
G0 X150.000 Y150.000 Z4.600
M400
M204 P200 T200
G1 F400
G1 Z0.000 F2500
G1 X150.000 Y150.000
G1 X150.000 Y150.000
G1 X150.000 Y150.000
G1 X150.000 Y150.000
G1 X150.000 Y150.000
G1 X150.000 Y150.000
G1 X150.000 Y150.000
G1 X150.000 Y150.000
G1 X150.000 Y150.000
G1 X150.000 Y150.000
G1 X150.000 Y150.000
G1 X150.000 Y150.000
G1 X150.000 Y150.000
G1 X150.000 Y150.000
G1 X150.000 Y150.000
G0 Z4.600 F3000
M400
M204 P12000 T12000
G1 F12000
G0 X150.000 Y150.000 Z4.600
M400
M204 P200 T200
G1 F400
G1 Z0.000 F2500
; --- Backlash X fix: 0.500mm ---
G0 X150.000 Y150.000 F200
G1 X150.000 Y150.000
G1 X150.000 Y150.000
G1 X150.000 Y150.000
G1 X150.000 Y150.000
G1 X150.000 Y150.000
G1 X150.000 Y150.000
G1 X150.000 Y150.000
G1 X150.000 Y150.000
G1 X150.000 Y150.000
G1 X150.000 Y150.000
G1 X150.000 Y150.000
G1 X150.000 Y150.000
G1 X150.000 Y150.000
G1 X150.000 Y150.000
G1 X150.000 Y150.000
G1 X150.000 Y150.000
G1 X150.000 Y150.000
G1 X150.000 Y150.000
G1 X150.000 Y150.000
G1 X150.000 Y150.000
G1 X150.000 Y150.000
G1 X150.000 Y150.000
G1 X150.000 Y150.000
G1 X150.000 Y150.000
G1 X150.000 Y150.000
G1 X150.000 Y150.000
G1 X150.000 Y150.000
G1 X150.000 Y150.000
G1 X150.000 Y150.000
G1 X150.000 Y150.000
G1 X150.000 Y150.000
G1 X150.000 Y150.000
G1 X150.000 Y150.000
G1 X150.000 Y150.000
G1 X150.000 Y150.000
G1 X150.000 Y150.000
G1 X150.000 Y150.000
G1 X150.000 Y150.000
G1 X150.000 Y150.000
G1 X150.000 Y150.000
G1 X150.000 Y150.000
G1 X150.000 Y150.000
G1 X150.000 Y150.000
G1 X150.000 Y150.000
G1 X150.000 Y150.000
G1 X150.000 Y150.000
G1 X150.000 Y150.000
G1 X150.000 Y150.000
G0 Z4.600 F3000
M400
M204 P12000 T12000
G1 F12000
G0 X150.000 Y150.000 Z4.600
M400
M204 P200 T200
G1 F400
G1 Z0.000 F2500
; --- Backlash X fix: -0.500mm ---
G0 X150.000 Y150.000 F200
G1 X150.000 Y150.000
G1 X150.000 Y150.000
G1 X150.000 Y150.000
G1 X150.000 Y150.000
G1 X150.000 Y150.000
G1 X150.000 Y150.000
G1 X150.000 Y150.000
G1 X150.000 Y150.000
G1 X150.000 Y150.000
G1 X150.000 Y150.000
G1 X150.000 Y150.000
G1 X150.000 Y150.000
G1 X150.000 Y150.000
G1 X150.000 Y150.000
G1 X150.000 Y150.000
G1 X150.000 Y150.000
G1 X150.000 Y150.000
G1 X150.000 Y150.000
G1 X150.000 Y150.000
G1 X150.000 Y150.000
G1 X150.000 Y150.000
G1 X150.000 Y150.000
G1 X150.000 Y150.000
G1 X150.000 Y150.000
G1 X150.000 Y150.000
G1 X150.000 Y150.000
G1 X150.000 Y150.000
G1 X150.000 Y150.000
G1 X150.000 Y150.000
G1 X150.000 Y150.000
G1 X150.000 Y150.000
G1 X150.000 Y150.000
G1 X150.000 Y150.000
G1 X150.000 Y150.000
G1 X150.000 Y150.000
G1 X150.000 Y150.000
G1 X150.000 Y150.000
G1 X150.000 Y150.000
G1 X150.000 Y150.000
G1 X150.000 Y150.000
G1 X150.000 Y150.000
G1 X150.000 Y150.000
G1 X150.000 Y150.000
G1 X150.000 Y150.000
G1 X150.000 Y150.000
G1 X150.000 Y150.000
G1 X150.000 Y150.000
G1 X150.000 Y150.000
G1 X150.000 Y150.000
G1 X150.000 Y150.000
G1 X150.000 Y150.000
G0 Z4.600 F3000
M400
M204 P12000 T12000
G1 F12000
G0 X150.000 Y150.000 Z4.600
M400
M204 P200 T200
G1 F400
G1 Z0.000 F2500
; --- Backlash X fix: 0.500mm ---
G0 X150.000 Y150.000 F200
G1 X150.000 Y150.000
G1 X150.000 Y150.000
G1 X150.000 Y150.000
G1 X150.000 Y150.000
G1 X150.000 Y150.000
G1 X150.000 Y150.000
G1 X150.000 Y150.000
G1 X150.000 Y150.000
G1 X150.000 Y150.000
G1 X150.000 Y150.000
G1 X150.000 Y150.000
G1 X150.000 Y150.000
G1 X150.000 Y150.000
G1 X150.000 Y150.000
G1 X150.000 Y150.000
G1 X150.000 Y150.000
G1 X150.000 Y150.000
G1 X150.000 Y150.000
G1 X150.000 Y150.000
G1 X150.000 Y150.000
G1 X150.000 Y150.000
G1 X150.000 Y150.000
G1 X150.000 Y150.000
G1 X150.000 Y150.000
G1 X150.000 Y150.000
G1 X150.000 Y150.000
G1 X150.000 Y150.000
G1 X150.000 Y150.000
G1 X150.000 Y150.000
G1 X150.000 Y150.000
G1 X150.000 Y150.000
G1 X150.000 Y150.000
G1 X150.000 Y150.000
G1 X150.000 Y150.000
G1 X150.000 Y150.000
G1 X150.000 Y150.000
G1 X150.000 Y150.000
G1 X150.000 Y150.000
G1 X150.000 Y150.000
G1 X150.000 Y150.000
G1 X150.000 Y150.000
G1 X150.000 Y150.000
G1 X150.000 Y150.000
G1 X150.000 Y150.000
G1 X150.000 Y150.000
G1 X150.000 Y150.000
G1 X150.000 Y150.000
G1 X150.000 Y150.000
G1 X150.000 Y150.000
G1 X150.000 Y150.000
G1 X150.000 Y150.000
G1 X150.000 Y150.000
G1 X150.000 Y150.000
G1 X150.000 Y150.000
G0 Z4.600 F3000
M400
M204 P12000 T12000
G1 F12000
G0 X150.000 Y150.000 Z4.600
M400
M204 P200 T200
G1 F400
G1 Z0.000 F2500
; --- Backlash X fix: -0.500mm ---
G0 X150.000 Y150.000 F200
G1 X150.000 Y150.000
G1 X150.000 Y150.000
G1 X150.000 Y150.000
G1 X150.000 Y150.000
G1 X150.000 Y150.000
G1 X150.000 Y150.000
G1 X150.000 Y150.000
G1 X150.000 Y150.000
G1 X150.000 Y150.000
G1 X150.000 Y150.000
G1 X150.000 Y150.000
G1 X150.000 Y150.000
G1 X150.000 Y150.000
G1 X150.000 Y150.000
G1 X150.000 Y150.000
G1 X150.000 Y150.000
G1 X150.000 Y150.000
G1 X150.000 Y150.000
G1 X150.000 Y150.000
G1 X150.000 Y150.000
G1 X150.000 Y150.000
G1 X150.000 Y150.000
G1 X150.000 Y150.000
G1 X150.000 Y150.000
G1 X150.000 Y150.000
G1 X150.000 Y150.000
G1 X150.000 Y150.000
G1 X150.000 Y150.000
G1 X150.000 Y150.000
G1 X150.000 Y150.000
G1 X150.000 Y150.000
G1 X150.000 Y150.000
G1 X150.000 Y150.000
G1 X150.000 Y150.000
G1 X150.000 Y150.000
G1 X150.000 Y150.000
G1 X150.000 Y150.000
G1 X150.000 Y150.000
G1 X150.000 Y150.000
G1 X150.000 Y150.000
G1 X150.000 Y150.000
G1 X150.000 Y150.000
G1 X150.000 Y150.000
G1 X150.000 Y150.000
G1 X150.000 Y150.000
G1 X150.000 Y150.000
G1 X150.000 Y150.000
G1 X150.000 Y150.000
G1 X150.000 Y150.000
G1 X150.000 Y150.000
G1 X150.000 Y150.000
G1 X150.000 Y150.000
G1 X150.000 Y150.000
G1 X150.000 Y150.000
G1 X150.000 Y150.000
G1 X150.000 Y150.000
G1 X150.000 Y150.000
G1 X150.000 Y150.000
G0 Z4.600 F3000
M400
M204 P12000 T12000
G1 F12000
G0 X150.000 Y150.000 Z4.600
M400
M204 P200 T200
G1 F400
G1 Z0.000 F2500
; --- Backlash X fix: 0.500mm ---
G0 X150.000 Y150.000 F200
G1 X150.000 Y150.000
G1 X150.000 Y150.000
G1 X150.000 Y150.000
G1 X150.000 Y150.000
G1 X150.000 Y150.000
G1 X150.000 Y150.000
G1 X150.000 Y150.000
G1 X150.000 Y150.000
G1 X150.000 Y150.000
G1 X150.000 Y150.000
G1 X150.000 Y150.000
G1 X150.000 Y150.000
G1 X150.000 Y150.000
G1 X150.000 Y150.000
G1 X150.000 Y150.000
G1 X150.000 Y150.000
G1 X150.000 Y150.000
G1 X150.000 Y150.000
G1 X150.000 Y150.000
G1 X150.000 Y150.000
G1 X150.000 Y150.000
G1 X150.000 Y150.000
G0 Z4.600 F3000

; --- CIKEL NAMAKANJA ---
G0 Z4.600 F3000
M400
M204 P12000 T12000
G1 F12000
G0 X71.958 Y1.783 Z31.000
G1 Z0.000 F3000
G1 X71.958 Y1.783 F2500
G1 X71.958 Y14.283 F2500
G1 X46.958 Y1.783 F2500
G1 X71.958 Y0.000 F2500
G0 Z16.000 F3000
G0 X111.429 Y53.256
G0 Z31.000 F3000
G0 X150.000 Y150.000 Z4.600
M400
M204 P200 T200
G1 F400
G1 Z0.000 F2500
G1 X150.000 Y150.000
G1 X150.000 Y150.000
G1 X150.000 Y150.000
G1 X150.000 Y150.000
G1 X150.000 Y150.000
G1 X150.000 Y150.000
G1 X150.000 Y150.000
G1 X150.000 Y150.000
G1 X150.000 Y150.000
G1 X150.000 Y150.000
G1 X150.000 Y150.000
G1 X150.000 Y150.000
G1 X150.000 Y150.000
G1 X150.000 Y150.000
G1 X150.000 Y150.000
G1 X150.000 Y150.000
G1 X150.000 Y150.000
G1 X150.000 Y150.000
G1 X150.000 Y150.000
G1 X150.000 Y150.000
G1 X150.000 Y150.000
G1 X150.000 Y150.000
G1 X150.000 Y150.000
G1 X150.000 Y150.000
G1 X150.000 Y150.000
G1 X150.000 Y150.000
G1 X150.000 Y150.000
G1 X150.000 Y150.000
G1 X150.000 Y150.000
G1 X150.000 Y150.000
G1 X150.000 Y150.000
G1 X150.000 Y150.000
G1 X150.000 Y150.000
G1 X150.000 Y150.000
G1 X150.000 Y150.000
G1 X150.000 Y150.000
G1 X150.000 Y150.000
G1 X150.000 Y150.000
G0 Z4.600 F3000
M400
M204 P12000 T12000
G1 F12000
G0 X150.000 Y150.000 Z4.600
M400
M204 P200 T200
G1 F400
G1 Z0.000 F2500
; --- Backlash X fix: -0.500mm ---
G0 X150.000 Y150.000 F200
G1 X150.000 Y150.000
G1 X150.000 Y150.000
G1 X150.000 Y150.000
G1 X150.000 Y150.000
G1 X150.000 Y150.000
G1 X150.000 Y150.000
G1 X150.000 Y150.000
G1 X150.000 Y150.000
G1 X150.000 Y150.000
G1 X150.000 Y150.000
G1 X150.000 Y150.000
G1 X150.000 Y150.000
G1 X150.000 Y150.000
G1 X150.000 Y150.000
G1 X150.000 Y150.000
G1 X150.000 Y150.000
G1 X150.000 Y150.000
G1 X150.000 Y150.000
G1 X150.000 Y150.000
G1 X150.000 Y150.000
G1 X150.000 Y150.000
G1 X150.000 Y150.000
G1 X150.000 Y150.000
G1 X150.000 Y150.000
G1 X150.000 Y150.000
G1 X150.000 Y150.000
G1 X150.000 Y150.000
G1 X150.000 Y150.000
G1 X150.000 Y150.000
G1 X150.000 Y150.000
G1 X150.000 Y150.000
G1 X150.000 Y150.000
G1 X150.000 Y150.000
G1 X150.000 Y150.000
G1 X150.000 Y150.000
G1 X150.000 Y150.000
G1 X150.000 Y150.000
G1 X150.000 Y150.000
G1 X150.000 Y150.000
G1 X150.000 Y150.000
G1 X150.000 Y150.000
G1 X150.000 Y150.000
G1 X150.000 Y150.000
G1 X150.000 Y150.000
G1 X150.000 Y150.000
G1 X150.000 Y150.000
G1 X150.000 Y150.000
G1 X150.000 Y150.000
G1 X150.000 Y150.000
G1 X150.000 Y150.000
G1 X150.000 Y150.000
G1 X150.000 Y150.000
G1 X150.000 Y150.000
G1 X150.000 Y150.000
G1 X150.000 Y150.000
G1 X150.000 Y150.000
G1 X150.000 Y150.000
G1 X150.000 Y150.000
G1 X150.000 Y150.000
G1 X150.000 Y150.000
G1 X150.000 Y150.000
G1 X150.000 Y150.000
G1 X150.000 Y150.000
G0 Z4.600 F3000
M400
M204 P12000 T12000
G1 F12000
G0 X150.000 Y150.000 Z4.600
M400
M204 P200 T200
G1 F400
G1 Z0.000 F2500
; --- Backlash X fix: 0.500mm ---
G0 X150.000 Y150.000 F200
G1 X150.000 Y150.000
G1 X150.000 Y150.000
G1 X150.000 Y150.000
G1 X150.000 Y150.000
G1 X150.000 Y150.000
G1 X150.000 Y150.000
G1 X150.000 Y150.000
G1 X150.000 Y150.000
G1 X150.000 Y150.000
G1 X150.000 Y150.000
G1 X150.000 Y150.000
G1 X150.000 Y150.000
G1 X150.000 Y150.000
G1 X150.000 Y150.000
G1 X150.000 Y150.000
G1 X150.000 Y150.000
G1 X150.000 Y150.000
G1 X150.000 Y150.000
G1 X150.000 Y150.000
G1 X150.000 Y150.000
G1 X150.000 Y150.000
G1 X150.000 Y150.000
G1 X150.000 Y150.000
G1 X150.000 Y150.000
G1 X150.000 Y150.000
G1 X150.000 Y150.000
G1 X150.000 Y150.000
G1 X150.000 Y150.000
G1 X150.000 Y150.000
G1 X150.000 Y150.000
G1 X150.000 Y150.000
G1 X150.000 Y150.000
G1 X150.000 Y150.000
G1 X150.000 Y150.000
G1 X150.000 Y150.000
G1 X150.000 Y150.000
G1 X150.000 Y150.000
G1 X150.000 Y150.000
G1 X150.000 Y150.000
G1 X150.000 Y150.000
G1 X150.000 Y150.000
G1 X150.000 Y150.000
G1 X150.000 Y150.000
G1 X150.000 Y150.000
G1 X150.000 Y150.000
G1 X150.000 Y150.000
G1 X150.000 Y150.000
G1 X150.000 Y150.000
G1 X150.000 Y150.000
G1 X150.000 Y150.000
G1 X150.000 Y150.000
G1 X150.000 Y150.000
G1 X150.000 Y150.000
G1 X150.000 Y150.000
G1 X150.000 Y150.000
G1 X150.000 Y150.000
G1 X150.000 Y150.000
G1 X150.000 Y150.000
G1 X150.000 Y150.000
G1 X150.000 Y150.000
G1 X150.000 Y150.000
G1 X150.000 Y150.000
G1 X150.000 Y150.000
G1 X150.000 Y150.000
G1 X150.000 Y150.000
G0 Z4.600 F3000
M400
M204 P12000 T12000
G1 F12000
G0 X150.000 Y150.000 Z4.600
M400
M204 P200 T200
G1 F400
G1 Z0.000 F2500
; --- Backlash X fix: -0.500mm ---
G0 X150.000 Y150.000 F200
G1 X150.000 Y150.000
G1 X150.000 Y150.000
G1 X150.000 Y150.000
G1 X150.000 Y150.000
G1 X150.000 Y150.000
G1 X150.000 Y150.000
G1 X150.000 Y150.000
G1 X150.000 Y150.000
G1 X150.000 Y150.000
G1 X150.000 Y150.000
G1 X150.000 Y150.000
G1 X150.000 Y150.000
G1 X150.000 Y150.000
G1 X150.000 Y150.000
G1 X150.000 Y150.000
G1 X150.000 Y150.000
G1 X150.000 Y150.000
G1 X150.000 Y150.000
G1 X150.000 Y150.000
G1 X150.000 Y150.000
G1 X150.000 Y150.000
G1 X150.000 Y150.000
G1 X150.000 Y150.000
G1 X150.000 Y150.000
G1 X150.000 Y150.000
G1 X150.000 Y150.000
G1 X150.000 Y150.000
G1 X150.000 Y150.000
G1 X150.000 Y150.000
G1 X150.000 Y150.000
G1 X150.000 Y150.000
G1 X150.000 Y150.000
G1 X150.000 Y150.000
G1 X150.000 Y150.000
G1 X150.000 Y150.000
G1 X150.000 Y150.000
G1 X150.000 Y150.000
G1 X150.000 Y150.000
G1 X150.000 Y150.000
G1 X150.000 Y150.000
G1 X150.000 Y150.000
G1 X150.000 Y150.000
G1 X150.000 Y150.000
G1 X150.000 Y150.000
G1 X150.000 Y150.000
G1 X150.000 Y150.000
G1 X150.000 Y150.000
G1 X150.000 Y150.000
G1 X150.000 Y150.000
G1 X150.000 Y150.000
G1 X150.000 Y150.000
G1 X150.000 Y150.000
G1 X150.000 Y150.000
G1 X150.000 Y150.000
G1 X150.000 Y150.000
G1 X150.000 Y150.000
G1 X150.000 Y150.000
G1 X150.000 Y150.000
G1 X150.000 Y150.000
G1 X150.000 Y150.000
G1 X150.000 Y150.000
G1 X150.000 Y150.000
G1 X150.000 Y150.000
G1 X150.000 Y150.000
G1 X150.000 Y150.000
G1 X150.000 Y150.000
G0 Z4.600 F3000
M400
M204 P12000 T12000
G1 F12000
G0 X150.000 Y150.000 Z4.600
M400
M204 P200 T200
G1 F400
G1 Z0.000 F2500
; --- Backlash X fix: 0.500mm ---
G0 X150.000 Y150.000 F200
G1 X150.000 Y150.000
G1 X150.000 Y150.000
G1 X150.000 Y150.000
G1 X150.000 Y150.000
G1 X150.000 Y150.000
G1 X150.000 Y150.000
G1 X150.000 Y150.000
G1 X150.000 Y150.000
G1 X150.000 Y150.000
G1 X150.000 Y150.000
G1 X150.000 Y150.000
G1 X150.000 Y150.000
G1 X150.000 Y150.000
G1 X150.000 Y150.000
G1 X150.000 Y150.000
G1 X150.000 Y150.000
G1 X150.000 Y150.000
G1 X150.000 Y150.000
G1 X150.000 Y150.000
G1 X150.000 Y150.000
G1 X150.000 Y150.000
G1 X150.000 Y150.000
G1 X150.000 Y150.000
G1 X150.000 Y150.000
G1 X150.000 Y150.000
G1 X150.000 Y150.000
G1 X150.000 Y150.000
G1 X150.000 Y150.000
G1 X150.000 Y150.000
G1 X150.000 Y150.000
G1 X150.000 Y150.000
G1 X150.000 Y150.000
G1 X150.000 Y150.000
G1 X150.000 Y150.000
G1 X150.000 Y150.000
G1 X150.000 Y150.000
G1 X150.000 Y150.000
G1 X150.000 Y150.000
G1 X150.000 Y150.000
G0 Z4.600 F3000

; --- CIKEL NAMAKANJA ---
G0 Z4.600 F3000
M400
M204 P12000 T12000
G1 F12000
G0 X83.657 Y16.201 Z31.000
G1 Z0.000 F3000
G1 X83.657 Y16.201 F2500
G1 X83.657 Y28.701 F2500
G1 X58.657 Y16.201 F2500
G1 X83.657 Y0.000 F2500
G0 Z16.000 F3000
G0 X112.341 Y52.464
G0 Z31.000 F3000
G0 X150.000 Y150.000 Z4.600
M400
M204 P200 T200
G1 F400
G1 Z0.000 F2500
G1 X150.000 Y150.000
G1 X150.000 Y150.000
G1 X150.000 Y150.000
G1 X150.000 Y150.000
G1 X150.000 Y150.000
G1 X150.000 Y150.000
G1 X150.000 Y150.000
G1 X150.000 Y150.000
G1 X150.000 Y150.000
G1 X150.000 Y150.000
G1 X150.000 Y150.000
G1 X150.000 Y150.000
G1 X150.000 Y150.000
G1 X150.000 Y150.000
G1 X150.000 Y150.000
G1 X150.000 Y150.000
G1 X150.000 Y150.000
G1 X150.000 Y150.000
G1 X150.000 Y150.000
G1 X150.000 Y150.000
G1 X150.000 Y150.000
G1 X150.000 Y150.000
G1 X150.000 Y150.000
G1 X150.000 Y150.000
G1 X150.000 Y150.000
G1 X150.000 Y150.000
G1 X150.000 Y150.000
G1 X150.000 Y150.000
G0 Z4.600 F3000
M400
M204 P12000 T12000
G1 F12000
G0 X150.000 Y150.000 Z4.600
M400
M204 P200 T200
G1 F400
G1 Z0.000 F2500
; --- Backlash X fix: -0.500mm ---
G0 X150.000 Y150.000 F200
G1 X150.000 Y150.000
G1 X150.000 Y150.000
G1 X150.000 Y150.000
G1 X150.000 Y150.000
G1 X150.000 Y150.000
G1 X150.000 Y150.000
G1 X150.000 Y150.000
G1 X150.000 Y150.000
G1 X150.000 Y150.000
G1 X150.000 Y150.000
G1 X150.000 Y150.000
G1 X150.000 Y150.000
G1 X150.000 Y150.000
G1 X150.000 Y150.000
G1 X150.000 Y150.000
G1 X150.000 Y150.000
G1 X150.000 Y150.000
G1 X150.000 Y150.000
G1 X150.000 Y150.000
G1 X150.000 Y150.000
G1 X150.000 Y150.000
G1 X150.000 Y150.000
G1 X150.000 Y150.000
G1 X150.000 Y150.000
G1 X150.000 Y150.000
G1 X150.000 Y150.000
G1 X150.000 Y150.000
G1 X150.000 Y150.000
G1 X150.000 Y150.000
G1 X150.000 Y150.000
G1 X150.000 Y150.000
G1 X150.000 Y150.000
G1 X150.000 Y150.000
G1 X150.000 Y150.000
G1 X150.000 Y150.000
G1 X150.000 Y150.000
G1 X150.000 Y150.000
G1 X150.000 Y150.000
G1 X150.000 Y150.000
G1 X150.000 Y150.000
G1 X150.000 Y150.000
G1 X150.000 Y150.000
G1 X150.000 Y150.000
G1 X150.000 Y150.000
G1 X150.000 Y150.000
G1 X150.000 Y150.000
G1 X150.000 Y150.000
G1 X150.000 Y150.000
G1 X150.000 Y150.000
G1 X150.000 Y150.000
G1 X150.000 Y150.000
G1 X150.000 Y150.000
G1 X150.000 Y150.000
G1 X150.000 Y150.000
G1 X150.000 Y150.000
G1 X150.000 Y150.000
G1 X150.000 Y150.000
G1 X150.000 Y150.000
G1 X150.000 Y150.000
G1 X150.000 Y150.000
G1 X150.000 Y150.000
G1 X150.000 Y150.000
G1 X150.000 Y150.000
G1 X150.000 Y150.000
G1 X150.000 Y150.000
G1 X150.000 Y150.000
G1 X150.000 Y150.000
G1 X150.000 Y150.000
G1 X150.000 Y150.000
G1 X150.000 Y150.000
G0 Z4.600 F3000
M400
M204 P12000 T12000
G1 F12000
G0 X150.000 Y150.000 Z4.600
M400
M204 P200 T200
G1 F400
G1 Z0.000 F2500
; --- Backlash X fix: 0.500mm ---
G0 X150.000 Y150.000 F200
G1 X150.000 Y150.000
G1 X150.000 Y150.000
G1 X150.000 Y150.000
G1 X150.000 Y150.000
G1 X150.000 Y150.000
G1 X150.000 Y150.000
G1 X150.000 Y150.000
G1 X150.000 Y150.000
G1 X150.000 Y150.000
G1 X150.000 Y150.000
G1 X150.000 Y150.000
G1 X150.000 Y150.000
G1 X150.000 Y150.000
G1 X150.000 Y150.000
G1 X150.000 Y150.000
G1 X150.000 Y150.000
G1 X150.000 Y150.000
G1 X150.000 Y150.000
G1 X150.000 Y150.000
G1 X150.000 Y150.000
G1 X150.000 Y150.000
G1 X150.000 Y150.000
G1 X150.000 Y150.000
G1 X150.000 Y150.000
G1 X150.000 Y150.000
G1 X150.000 Y150.000
G1 X150.000 Y150.000
G1 X150.000 Y150.000
G1 X150.000 Y150.000
G1 X150.000 Y150.000
G1 X150.000 Y150.000
G1 X150.000 Y150.000
G1 X150.000 Y150.000
G1 X150.000 Y150.000
G1 X150.000 Y150.000
G1 X150.000 Y150.000
G1 X150.000 Y150.000
G1 X150.000 Y150.000
G1 X150.000 Y150.000
G1 X150.000 Y150.000
G1 X150.000 Y150.000
G1 X150.000 Y150.000
G1 X150.000 Y150.000
G1 X150.000 Y150.000
G1 X150.000 Y150.000
G1 X150.000 Y150.000
G1 X150.000 Y150.000
G1 X150.000 Y150.000
G1 X150.000 Y150.000
G1 X150.000 Y150.000
G1 X150.000 Y150.000
G1 X150.000 Y150.000
G1 X150.000 Y150.000
G1 X150.000 Y150.000
G1 X150.000 Y150.000
G1 X150.000 Y150.000
G1 X150.000 Y150.000
G1 X150.000 Y150.000
G1 X150.000 Y150.000
G1 X150.000 Y150.000
G1 X150.000 Y150.000
G1 X150.000 Y150.000
G1 X150.000 Y150.000
G1 X150.000 Y150.000
G1 X150.000 Y150.000
G1 X150.000 Y150.000
G1 X150.000 Y150.000
G1 X150.000 Y150.000
G1 X150.000 Y150.000
G1 X150.000 Y150.000
G1 X150.000 Y150.000
G0 Z4.600 F3000
M400
M204 P12000 T12000
G1 F12000
G0 X150.000 Y150.000 Z4.600
M400
M204 P200 T200
G1 F400
G1 Z0.000 F2500
; --- Backlash X fix: -0.500mm ---
G0 X150.000 Y150.000 F200
G1 X150.000 Y150.000
G1 X150.000 Y150.000
G1 X150.000 Y150.000
G1 X150.000 Y150.000
G1 X150.000 Y150.000
G1 X150.000 Y150.000
G1 X150.000 Y150.000
G1 X150.000 Y150.000
G1 X150.000 Y150.000
G1 X150.000 Y150.000
G1 X150.000 Y150.000
G1 X150.000 Y150.000
G1 X150.000 Y150.000
G1 X150.000 Y150.000
G1 X150.000 Y150.000
G1 X150.000 Y150.000
G1 X150.000 Y150.000
G1 X150.000 Y150.000
G1 X150.000 Y150.000
G1 X150.000 Y150.000
G1 X150.000 Y150.000
G1 X150.000 Y150.000
G1 X150.000 Y150.000
G1 X150.000 Y150.000
G1 X150.000 Y150.000
G1 X150.000 Y150.000
G1 X150.000 Y150.000
G1 X150.000 Y150.000
G1 X150.000 Y150.000
G1 X150.000 Y150.000
G1 X150.000 Y150.000
G1 X150.000 Y150.000
G1 X150.000 Y150.000
G1 X150.000 Y150.000
G1 X150.000 Y150.000
G1 X150.000 Y150.000
G1 X150.000 Y150.000
G1 X150.000 Y150.000
G1 X150.000 Y150.000
G1 X150.000 Y150.000
G1 X150.000 Y150.000
G1 X150.000 Y150.000
G1 X150.000 Y150.000
G1 X150.000 Y150.000
G1 X150.000 Y150.000
G1 X150.000 Y150.000
G1 X150.000 Y150.000
G1 X150.000 Y150.000
G1 X150.000 Y150.000
G1 X150.000 Y150.000
G1 X150.000 Y150.000
G1 X150.000 Y150.000
G1 X150.000 Y150.000
G1 X150.000 Y150.000
G1 X150.000 Y150.000
G1 X150.000 Y150.000
G1 X150.000 Y150.000
G1 X150.000 Y150.000
G1 X150.000 Y150.000
G1 X150.000 Y150.000
G1 X150.000 Y150.000
G1 X150.000 Y150.000
G1 X150.000 Y150.000
G1 X150.000 Y150.000
G1 X150.000 Y150.000
G1 X150.000 Y150.000
G1 X150.000 Y150.000
G1 X150.000 Y150.000
G1 X150.000 Y150.000
G1 X150.000 Y150.000
G1 X150.000 Y150.000
G1 X150.000 Y150.000
G0 Z4.600 F3000
M400
M204 P12000 T12000
G1 F12000
G0 X150.000 Y150.000 Z4.600
M400
M204 P200 T200
G1 F400
G1 Z0.000 F2500
; --- Backlash X fix: 0.500mm ---
G0 X150.000 Y150.000 F200
G1 X150.000 Y150.000
G1 X150.000 Y150.000
G1 X150.000 Y150.000
G1 X150.000 Y150.000
G1 X150.000 Y150.000
G1 X150.000 Y150.000
G1 X150.000 Y150.000
G1 X150.000 Y150.000
G1 X150.000 Y150.000
G1 X150.000 Y150.000
G1 X150.000 Y150.000
G1 X150.000 Y150.000
G1 X150.000 Y150.000
G1 X150.000 Y150.000
G1 X150.000 Y150.000
G1 X150.000 Y150.000
G1 X150.000 Y150.000
G1 X150.000 Y150.000
G1 X150.000 Y150.000
G1 X150.000 Y150.000
G1 X150.000 Y150.000
G1 X150.000 Y150.000
G1 X150.000 Y150.000
G1 X150.000 Y150.000
G1 X150.000 Y150.000
G1 X150.000 Y150.000
G1 X150.000 Y150.000
G0 Z4.600 F3000

; --- CIKEL NAMAKANJA ---
G0 Z4.600 F3000
M400
M204 P12000 T12000
G1 F12000
G0 X81.766 Y0.000 Z31.000
G1 Z0.000 F3000
G1 X81.766 Y0.000 F2500
G1 X81.766 Y12.500 F2500
G1 X56.766 Y0.000 F2500
G1 X81.766 Y0.000 F2500
G0 Z16.000 F3000
G0 X110.564 Y53.982
G0 Z31.000 F3000
G0 X150.000 Y150.000 Z4.600
M400
M204 P200 T200
G1 F400
G1 Z0.000 F2500
G1 X150.000 Y150.000
G1 X150.000 Y150.000
G1 X150.000 Y150.000
G1 X150.000 Y150.000
G1 X150.000 Y150.000
G1 X150.000 Y150.000
G1 X150.000 Y150.000
G1 X150.000 Y150.000
G1 X150.000 Y150.000
G1 X150.000 Y150.000
G1 X150.000 Y150.000
G1 X150.000 Y150.000
G1 X150.000 Y150.000
G1 X150.000 Y150.000
G1 X150.000 Y150.000
G1 X150.000 Y150.000
G1 X150.000 Y150.000
G1 X150.000 Y150.000
G1 X150.000 Y150.000
G1 X150.000 Y150.000
G1 X150.000 Y150.000
G1 X150.000 Y150.000
G1 X150.000 Y150.000
G1 X150.000 Y150.000
G1 X150.000 Y150.000
G1 X150.000 Y150.000
G1 X150.000 Y150.000
G1 X150.000 Y150.000
G1 X150.000 Y150.000
G1 X150.000 Y150.000
G1 X150.000 Y150.000
G1 X150.000 Y150.000
G1 X150.000 Y150.000
G1 X150.000 Y150.000
G1 X150.000 Y150.000
G1 X150.000 Y150.000
G1 X150.000 Y150.000
G1 X150.000 Y150.000
G1 X150.000 Y150.000
G1 X150.000 Y150.000
G1 X150.000 Y150.000
G1 X150.000 Y150.000
G1 X150.000 Y150.000
G1 X150.000 Y150.000
G1 X150.000 Y150.000
G1 X150.000 Y150.000
G1 X150.000 Y150.000
G0 Z4.600 F3000
M400
M204 P12000 T12000
G1 F12000
G0 X150.000 Y150.000 Z4.600
M400
M204 P200 T200
G1 F400
G1 Z0.000 F2500
; --- Backlash X fix: -0.500mm ---
G0 X150.000 Y150.000 F200
G1 X150.000 Y150.000
G1 X150.000 Y150.000
G1 X150.000 Y150.000
G1 X150.000 Y150.000
G1 X150.000 Y150.000
G1 X150.000 Y150.000
G1 X150.000 Y150.000
G1 X150.000 Y150.000
G1 X150.000 Y150.000
G1 X150.000 Y150.000
G1 X150.000 Y150.000
G1 X150.000 Y150.000
G1 X150.000 Y150.000
G1 X150.000 Y150.000
G1 X150.000 Y150.000
G1 X150.000 Y150.000
G1 X150.000 Y150.000
G1 X150.000 Y150.000
G1 X150.000 Y150.000
G1 X150.000 Y150.000
G1 X150.000 Y150.000
G1 X150.000 Y150.000
G1 X150.000 Y150.000
G1 X150.000 Y150.000
G1 X150.000 Y150.000
G1 X150.000 Y150.000
G1 X150.000 Y150.000
G1 X150.000 Y150.000
G1 X150.000 Y150.000
G1 X150.000 Y150.000
G1 X150.000 Y150.000
G1 X150.000 Y150.000
G1 X150.000 Y150.000
G1 X150.000 Y150.000
G1 X150.000 Y150.000
G1 X150.000 Y150.000
G1 X150.000 Y150.000
G1 X150.000 Y150.000
G1 X150.000 Y150.000
G1 X150.000 Y150.000
G1 X150.000 Y150.000
G1 X150.000 Y150.000
G1 X150.000 Y150.000
G1 X150.000 Y150.000
G1 X150.000 Y150.000
G1 X150.000 Y150.000
G1 X150.000 Y150.000
G1 X150.000 Y150.000
G1 X150.000 Y150.000
G1 X150.000 Y150.000
G1 X150.000 Y150.000
G1 X150.000 Y150.000
G1 X150.000 Y150.000
G1 X150.000 Y150.000
G1 X150.000 Y150.000
G1 X150.000 Y150.000
G1 X150.000 Y150.000
G1 X150.000 Y150.000
G1 X150.000 Y150.000
G1 X150.000 Y150.000
G1 X150.000 Y150.000
G1 X150.000 Y150.000
G1 X150.000 Y150.000
G1 X150.000 Y150.000
G1 X150.000 Y150.000
G1 X150.000 Y150.000
G1 X150.000 Y150.000
G1 X150.000 Y150.000
G1 X150.000 Y150.000
G1 X150.000 Y150.000
G1 X150.000 Y150.000
G1 X150.000 Y150.000
G1 X150.000 Y150.000
G1 X150.000 Y150.000
G0 Z4.600 F3000
M400
M204 P12000 T12000
G1 F12000
G0 X150.000 Y150.000 Z4.600
M400
M204 P200 T200
G1 F400
G1 Z0.000 F2500
; --- Backlash X fix: 0.500mm ---
G0 X150.000 Y150.000 F200
G1 X150.000 Y150.000
G1 X150.000 Y150.000
G1 X150.000 Y150.000
G1 X150.000 Y150.000
G1 X150.000 Y150.000
G1 X150.000 Y150.000
G1 X150.000 Y150.000
G1 X150.000 Y150.000
G1 X150.000 Y150.000
G1 X150.000 Y150.000
G1 X150.000 Y150.000
G1 X150.000 Y150.000
G1 X150.000 Y150.000
G1 X150.000 Y150.000
G1 X150.000 Y150.000
G1 X150.000 Y150.000
G1 X150.000 Y150.000
G1 X150.000 Y150.000
G1 X150.000 Y150.000
G1 X150.000 Y150.000
G1 X150.000 Y150.000
G1 X150.000 Y150.000
G1 X150.000 Y150.000
G1 X150.000 Y150.000
G1 X150.000 Y150.000
G1 X150.000 Y150.000
G1 X150.000 Y150.000
G1 X150.000 Y150.000
G1 X150.000 Y150.000
G1 X150.000 Y150.000
G1 X150.000 Y150.000
G1 X150.000 Y150.000
G1 X150.000 Y150.000
G1 X150.000 Y150.000
G1 X150.000 Y150.000
G1 X150.000 Y150.000
G1 X150.000 Y150.000
G1 X150.000 Y150.000
G1 X150.000 Y150.000
G1 X150.000 Y150.000
G1 X150.000 Y150.000
G1 X150.000 Y150.000
G1 X150.000 Y150.000
G1 X150.000 Y150.000
G1 X150.000 Y150.000
G1 X150.000 Y150.000
G1 X150.000 Y150.000
G1 X150.000 Y150.000
G1 X150.000 Y150.000
G1 X150.000 Y150.000
G1 X150.000 Y150.000
G1 X150.000 Y150.000
G1 X150.000 Y150.000
G1 X150.000 Y150.000
G1 X150.000 Y150.000
G1 X150.000 Y150.000
G1 X150.000 Y150.000
G1 X150.000 Y150.000
G1 X150.000 Y150.000
G1 X150.000 Y150.000
G1 X150.000 Y150.000
G1 X150.000 Y150.000
G1 X150.000 Y150.000
G1 X150.000 Y150.000
G1 X150.000 Y150.000
G1 X150.000 Y150.000
G1 X150.000 Y150.000
G1 X150.000 Y150.000
G1 X150.000 Y150.000
G1 X150.000 Y150.000
G1 X150.000 Y150.000
G1 X150.000 Y150.000
G1 X150.000 Y150.000
G1 X150.000 Y150.000
G1 X150.000 Y150.000
G1 X150.000 Y150.000
G0 Z4.600 F3000
M400
M204 P12000 T12000
G1 F12000
G0 X150.000 Y150.000 Z4.600
M400
M204 P200 T200
G1 F400
G1 Z0.000 F2500
; --- Backlash X fix: -0.500mm ---
G0 X150.000 Y150.000 F200
G1 X150.000 Y150.000
G1 X150.000 Y150.000
G1 X150.000 Y150.000
G1 X150.000 Y150.000
G1 X150.000 Y150.000
G1 X150.000 Y150.000
G1 X150.000 Y150.000
G1 X150.000 Y150.000
G1 X150.000 Y150.000
G1 X150.000 Y150.000
G1 X150.000 Y150.000
G1 X150.000 Y150.000
G1 X150.000 Y150.000
G1 X150.000 Y150.000
G1 X150.000 Y150.000
G1 X150.000 Y150.000
G1 X150.000 Y150.000
G1 X150.000 Y150.000
G1 X150.000 Y150.000
G1 X150.000 Y150.000
G1 X150.000 Y150.000
G1 X150.000 Y150.000
G1 X150.000 Y150.000
G1 X150.000 Y150.000
G1 X150.000 Y150.000
G1 X150.000 Y150.000
G1 X150.000 Y150.000
G1 X150.000 Y150.000
G1 X150.000 Y150.000
G1 X150.000 Y150.000
G1 X150.000 Y150.000
G1 X150.000 Y150.000
G1 X150.000 Y150.000
G1 X150.000 Y150.000
G1 X150.000 Y150.000
G1 X150.000 Y150.000
G1 X150.000 Y150.000
G1 X150.000 Y150.000
G1 X150.000 Y150.000
G1 X150.000 Y150.000
G1 X150.000 Y150.000
G1 X150.000 Y150.000
G1 X150.000 Y150.000
G1 X150.000 Y150.000
G1 X150.000 Y150.000
G1 X150.000 Y150.000
G1 X150.000 Y150.000
G1 X150.000 Y150.000
G1 X150.000 Y150.000
G1 X150.000 Y150.000
G1 X150.000 Y150.000
G1 X150.000 Y150.000
G1 X150.000 Y150.000
G1 X150.000 Y150.000
G1 X150.000 Y150.000
G1 X150.000 Y150.000
G1 X150.000 Y150.000
G0 Z4.600 F3000

; --- CIKEL NAMAKANJA ---
G0 Z4.600 F3000
M400
M204 P12000 T12000
G1 F12000
G0 X51.551 Y6.761 Z31.000
G1 Z0.000 F3000
G1 X51.551 Y6.761 F2500
G1 X51.551 Y19.261 F2500
G1 X26.551 Y6.761 F2500
G1 X51.551 Y0.000 F2500
G0 Z16.000 F3000
G0 X109.187 Y55.089
G0 Z31.000 F3000
G0 X150.000 Y150.000 Z4.600
M400
M204 P200 T200
G1 F400
G1 Z0.000 F2500
G1 X150.000 Y150.000
G1 X150.000 Y150.000
G1 X150.000 Y150.000
G1 X150.000 Y150.000
G1 X150.000 Y150.000
G1 X150.000 Y150.000
G1 X150.000 Y150.000
G1 X150.000 Y150.000
G1 X150.000 Y150.000
G1 X150.000 Y150.000
G1 X150.000 Y150.000
G1 X150.000 Y150.000
G1 X150.000 Y150.000
G1 X150.000 Y150.000
G1 X150.000 Y150.000
G1 X150.000 Y150.000
G1 X150.000 Y150.000
G1 X150.000 Y150.000
G1 X150.000 Y150.000
G0 Z4.600 F3000
M400
M204 P12000 T12000
G1 F12000
; --- Backlash X fix: 0.500mm ---
G0 X150.000 Y150.000 F200
G0 X150.000 Y150.000 Z4.600
M400
M204 P200 T200
G1 F400
G1 Z0.000 F2500
G1 X150.000 Y150.000
G1 X150.000 Y150.000
G0 Z4.600 F3000
M400
M204 P12000 T12000
G1 F12000
; --- Backlash Y fix: -1.600mm ---
G0 X150.000 Y150.000 F200
G0 X150.000 Y150.000 Z4.600
M400
M204 P200 T200
G1 F400
G1 Z0.000 F2500
; --- Backlash X fix: -0.500mm ---
G0 X150.000 Y150.000 F200
G1 X150.000 Y150.000
G1 X150.000 Y150.000
G1 X150.000 Y150.000
G1 X150.000 Y150.000
G1 X150.000 Y150.000
G1 X150.000 Y150.000
G1 X150.000 Y150.000
G1 X150.000 Y150.000
G1 X150.000 Y150.000
G1 X150.000 Y150.000
G1 X150.000 Y150.000
G1 X150.000 Y150.000
G1 X150.000 Y150.000
G1 X150.000 Y150.000
G1 X150.000 Y150.000
G1 X150.000 Y150.000
G1 X150.000 Y150.000
G1 X150.000 Y150.000
G0 Z4.600 F3000
M400
M204 P12000 T12000
G1 F12000
G0 X150.000 Y150.000 Z4.600
M400
M204 P200 T200
G1 F400
G1 Z0.000 F2500
; --- Backlash X fix: 0.500mm ---
G0 X150.000 Y150.000 F200
G1 X150.000 Y150.000
G1 X150.000 Y150.000
G1 X150.000 Y150.000
G1 X150.000 Y150.000
G1 X150.000 Y150.000
G1 X150.000 Y150.000
G1 X150.000 Y150.000
G1 X150.000 Y150.000
G1 X150.000 Y150.000
G1 X150.000 Y150.000
G1 X150.000 Y150.000
G1 X150.000 Y150.000
G1 X150.000 Y150.000
G1 X150.000 Y150.000
G1 X150.000 Y150.000
G1 X150.000 Y150.000
G1 X150.000 Y150.000
G1 X150.000 Y150.000
G1 X150.000 Y150.000
G1 X150.000 Y150.000
G1 X150.000 Y150.000
G1 X150.000 Y150.000
G1 X150.000 Y150.000
G1 X150.000 Y150.000
G0 Z4.600 F3000
M400
M204 P12000 T12000
G1 F12000
G0 X150.000 Y150.000 Z4.600
M400
M204 P200 T200
G1 F400
G1 Z0.000 F2500
; --- Backlash X fix: -0.500mm ---
G0 X150.000 Y150.000 F200
G1 X150.000 Y150.000
G1 X150.000 Y150.000
G1 X150.000 Y150.000
G1 X150.000 Y150.000
G1 X150.000 Y150.000
G1 X150.000 Y150.000
G1 X150.000 Y150.000
G1 X150.000 Y150.000
G1 X150.000 Y150.000
G1 X150.000 Y150.000
G1 X150.000 Y150.000
G1 X150.000 Y150.000
G1 X150.000 Y150.000
G1 X150.000 Y150.000
G1 X150.000 Y150.000
G1 X150.000 Y150.000
G1 X150.000 Y150.000
G1 X150.000 Y150.000
G1 X150.000 Y150.000
G1 X150.000 Y150.000
G1 X150.000 Y150.000
G1 X150.000 Y150.000
G1 X150.000 Y150.000
G1 X150.000 Y150.000
G1 X150.000 Y150.000
G1 X150.000 Y150.000
G1 X150.000 Y150.000
G1 X150.000 Y150.000
G1 X150.000 Y150.000
G1 X150.000 Y150.000
G1 X150.000 Y150.000
G1 X150.000 Y150.000
G0 Z4.600 F3000
M400
M204 P12000 T12000
G1 F12000
G0 X150.000 Y150.000 Z4.600
M400
M204 P200 T200
G1 F400
G1 Z0.000 F2500
; --- Backlash X fix: 0.500mm ---
G0 X150.000 Y150.000 F200
G1 X150.000 Y150.000
G1 X150.000 Y150.000
G1 X150.000 Y150.000
G1 X150.000 Y150.000
G1 X150.000 Y150.000
G1 X150.000 Y150.000
G1 X150.000 Y150.000
G1 X150.000 Y150.000
G1 X150.000 Y150.000
G1 X150.000 Y150.000
G1 X150.000 Y150.000
G1 X150.000 Y150.000
G1 X150.000 Y150.000
G1 X150.000 Y150.000
G1 X150.000 Y150.000
G1 X150.000 Y150.000
G1 X150.000 Y150.000
G1 X150.000 Y150.000
G1 X150.000 Y150.000
G1 X150.000 Y150.000
G1 X150.000 Y150.000
G1 X150.000 Y150.000
G1 X150.000 Y150.000
G1 X150.000 Y150.000
G1 X150.000 Y150.000
G1 X150.000 Y150.000
G1 X150.000 Y150.000
G1 X150.000 Y150.000
G1 X150.000 Y150.000
G1 X150.000 Y150.000
G1 X150.000 Y150.000
G1 X150.000 Y150.000
G1 X150.000 Y150.000
G1 X150.000 Y150.000
G1 X150.000 Y150.000
G1 X150.000 Y150.000
G0 Z4.600 F3000
M400
M204 P12000 T12000
G1 F12000
G0 X150.000 Y150.000 Z4.600
M400
M204 P200 T200
G1 F400
G1 Z0.000 F2500
; --- Backlash X fix: -0.500mm ---
G0 X150.000 Y150.000 F200
G1 X150.000 Y150.000
G1 X150.000 Y150.000
G1 X150.000 Y150.000
G1 X150.000 Y150.000
G1 X150.000 Y150.000
G1 X150.000 Y150.000
G1 X150.000 Y150.000
G1 X150.000 Y150.000
G1 X150.000 Y150.000
G1 X150.000 Y150.000
G1 X150.000 Y150.000
G1 X150.000 Y150.000
G1 X150.000 Y150.000
G1 X150.000 Y150.000
G1 X150.000 Y150.000
G1 X150.000 Y150.000
G1 X150.000 Y150.000
G1 X150.000 Y150.000
G1 X150.000 Y150.000
G1 X150.000 Y150.000
G1 X150.000 Y150.000
G1 X150.000 Y150.000
G1 X150.000 Y150.000
G1 X150.000 Y150.000
G1 X150.000 Y150.000
G1 X150.000 Y150.000
G1 X150.000 Y150.000
G1 X150.000 Y150.000
G1 X150.000 Y150.000
G1 X150.000 Y150.000
G1 X150.000 Y150.000
G1 X150.000 Y150.000
G1 X150.000 Y150.000
G1 X150.000 Y150.000
G1 X150.000 Y150.000
G1 X150.000 Y150.000
G1 X150.000 Y150.000
G1 X150.000 Y150.000
G1 X150.000 Y150.000
G1 X150.000 Y150.000
G0 Z4.600 F3000
M400
M204 P12000 T12000
G1 F12000
G0 X150.000 Y150.000 Z4.600
M400
M204 P200 T200
G1 F400
G1 Z0.000 F2500
; --- Backlash X fix: 0.500mm ---
G0 X150.000 Y150.000 F200
G1 X150.000 Y150.000
G1 X150.000 Y150.000
G1 X150.000 Y150.000
G1 X150.000 Y150.000
G1 X150.000 Y150.000
G1 X150.000 Y150.000
G1 X150.000 Y150.000
G1 X150.000 Y150.000
G1 X150.000 Y150.000
G1 X150.000 Y150.000
G1 X150.000 Y150.000
G1 X150.000 Y150.000
G1 X150.000 Y150.000
G1 X150.000 Y150.000
G1 X150.000 Y150.000
G1 X150.000 Y150.000
G1 X150.000 Y150.000
G1 X150.000 Y150.000
G1 X150.000 Y150.000
G1 X150.000 Y150.000
G1 X150.000 Y150.000
G1 X150.000 Y150.000
G1 X150.000 Y150.000
G1 X150.000 Y150.000
G1 X150.000 Y150.000
G1 X150.000 Y150.000
G1 X150.000 Y150.000
G1 X150.000 Y150.000
G1 X150.000 Y150.000
G1 X150.000 Y150.000
G1 X150.000 Y150.000
G1 X150.000 Y150.000
G1 X150.000 Y150.000
G1 X150.000 Y150.000
G1 X150.000 Y150.000
G1 X150.000 Y150.000
G1 X150.000 Y150.000
G1 X150.000 Y150.000
G1 X150.000 Y150.000
G1 X150.000 Y150.000
G1 X150.000 Y150.000
G1 X150.000 Y150.000
G1 X150.000 Y150.000
G1 X150.000 Y150.000
G0 Z4.600 F3000
M400
M204 P12000 T12000
G1 F12000
G0 X150.000 Y150.000 Z4.600
M400
M204 P200 T200
G1 F400
G1 Z0.000 F2500
; --- Backlash X fix: -0.500mm ---
G0 X150.000 Y150.000 F200
G1 X150.000 Y150.000
G1 X150.000 Y150.000
G1 X150.000 Y150.000
G1 X150.000 Y150.000
G1 X150.000 Y150.000
G1 X150.000 Y150.000
G1 X150.000 Y150.000
G1 X150.000 Y150.000
G1 X150.000 Y150.000
G1 X150.000 Y150.000
G1 X150.000 Y150.000
G1 X150.000 Y150.000
G1 X150.000 Y150.000
G1 X150.000 Y150.000
G1 X150.000 Y150.000
G1 X150.000 Y150.000
G1 X150.000 Y150.000
G1 X150.000 Y150.000
G1 X150.000 Y150.000
G1 X150.000 Y150.000
G1 X150.000 Y150.000
G1 X150.000 Y150.000
G1 X150.000 Y150.000
G1 X150.000 Y150.000
G1 X150.000 Y150.000
G1 X150.000 Y150.000
G1 X150.000 Y150.000
G1 X150.000 Y150.000
G1 X150.000 Y150.000
G1 X150.000 Y150.000
G1 X150.000 Y150.000
G1 X150.000 Y150.000
G1 X150.000 Y150.000
G1 X150.000 Y150.000
G1 X150.000 Y150.000
G1 X150.000 Y150.000
G1 X150.000 Y150.000
G1 X150.000 Y150.000
G1 X150.000 Y150.000
G1 X150.000 Y150.000
G1 X150.000 Y150.000
G1 X150.000 Y150.000
G1 X150.000 Y150.000
G1 X150.000 Y150.000
G1 X150.000 Y150.000
G1 X150.000 Y150.000
G1 X150.000 Y150.000
G0 Z4.600 F3000
M400
M204 P12000 T12000
G1 F12000
G0 X150.000 Y150.000 Z4.600
M400
M204 P200 T200
G1 F400
G1 Z0.000 F2500
; --- Backlash X fix: 0.500mm ---
G0 X150.000 Y150.000 F200
G1 X150.000 Y150.000
G1 X150.000 Y150.000
G1 X150.000 Y150.000
G1 X150.000 Y150.000
G1 X150.000 Y150.000
G0 Z4.600 F3000

; --- CIKEL NAMAKANJA ---
G0 Z4.600 F3000
M400
M204 P12000 T12000
G1 F12000
G0 X77.215 Y0.000 Z31.000
G1 Z0.000 F3000
G1 X77.215 Y0.000 F2500
G1 X77.215 Y12.500 F2500
G1 X52.215 Y0.000 F2500
G1 X77.215 Y0.000 F2500
G0 Z16.000 F3000
G0 X104.935 Y58.173
G0 Z31.000 F3000
G0 X150.000 Y150.000 Z4.600
M400
M204 P200 T200
G1 F400
G1 Z0.000 F2500
G1 X150.000 Y150.000
G1 X150.000 Y150.000
G1 X150.000 Y150.000
G1 X150.000 Y150.000
G1 X150.000 Y150.000
G1 X150.000 Y150.000
G1 X150.000 Y150.000
G1 X150.000 Y150.000
G1 X150.000 Y150.000
G1 X150.000 Y150.000
G1 X150.000 Y150.000
G1 X150.000 Y150.000
G1 X150.000 Y150.000
G1 X150.000 Y150.000
G1 X150.000 Y150.000
G1 X150.000 Y150.000
G1 X150.000 Y150.000
G1 X150.000 Y150.000
G1 X150.000 Y150.000
G1 X150.000 Y150.000
G1 X150.000 Y150.000
G1 X150.000 Y150.000
G1 X150.000 Y150.000
G1 X150.000 Y150.000
G1 X150.000 Y150.000
G1 X150.000 Y150.000
G1 X150.000 Y150.000
G1 X150.000 Y150.000
G1 X150.000 Y150.000
G1 X150.000 Y150.000
G1 X150.000 Y150.000
G1 X150.000 Y150.000
G1 X150.000 Y150.000
G1 X150.000 Y150.000
G1 X150.000 Y150.000
G1 X150.000 Y150.000
G1 X150.000 Y150.000
G1 X150.000 Y150.000
G1 X150.000 Y150.000
G1 X150.000 Y150.000
G1 X150.000 Y150.000
G1 X150.000 Y150.000
G1 X150.000 Y150.000
G1 X150.000 Y150.000
G1 X150.000 Y150.000
G0 Z4.600 F3000
M400
M204 P12000 T12000
G1 F12000
G0 X150.000 Y150.000 Z4.600
M400
M204 P200 T200
G1 F400
G1 Z0.000 F2500
; --- Backlash X fix: -0.500mm ---
G0 X150.000 Y150.000 F200
G1 X150.000 Y150.000
G1 X150.000 Y150.000
G1 X150.000 Y150.000
G1 X150.000 Y150.000
G1 X150.000 Y150.000
G1 X150.000 Y150.000
G1 X150.000 Y150.000
G1 X150.000 Y150.000
G1 X150.000 Y150.000
G1 X150.000 Y150.000
G1 X150.000 Y150.000
G1 X150.000 Y150.000
G1 X150.000 Y150.000
G1 X150.000 Y150.000
G1 X150.000 Y150.000
G1 X150.000 Y150.000
G1 X150.000 Y150.000
G1 X150.000 Y150.000
G1 X150.000 Y150.000
G1 X150.000 Y150.000
G1 X150.000 Y150.000
G1 X150.000 Y150.000
G1 X150.000 Y150.000
G1 X150.000 Y150.000
G1 X150.000 Y150.000
G1 X150.000 Y150.000
G1 X150.000 Y150.000
G1 X150.000 Y150.000
G1 X150.000 Y150.000
G1 X150.000 Y150.000
G1 X150.000 Y150.000
G1 X150.000 Y150.000
G1 X150.000 Y150.000
G1 X150.000 Y150.000
G1 X150.000 Y150.000
G1 X150.000 Y150.000
G1 X150.000 Y150.000
G1 X150.000 Y150.000
G1 X150.000 Y150.000
G1 X150.000 Y150.000
G1 X150.000 Y150.000
G1 X150.000 Y150.000
G1 X150.000 Y150.000
G1 X150.000 Y150.000
G1 X150.000 Y150.000
G1 X150.000 Y150.000
G1 X150.000 Y150.000
G1 X150.000 Y150.000
G1 X150.000 Y150.000
G1 X150.000 Y150.000
G1 X150.000 Y150.000
G1 X150.000 Y150.000
G0 Z4.600 F3000
M400
M204 P12000 T12000
G1 F12000
G0 X150.000 Y150.000 Z4.600
M400
M204 P200 T200
G1 F400
G1 Z0.000 F2500
; --- Backlash X fix: 0.500mm ---
G0 X150.000 Y150.000 F200
G1 X150.000 Y150.000
G1 X150.000 Y150.000
G1 X150.000 Y150.000
G1 X150.000 Y150.000
G1 X150.000 Y150.000
G1 X150.000 Y150.000
G1 X150.000 Y150.000
G1 X150.000 Y150.000
G1 X150.000 Y150.000
G1 X150.000 Y150.000
G1 X150.000 Y150.000
G1 X150.000 Y150.000
G1 X150.000 Y150.000
G1 X150.000 Y150.000
G1 X150.000 Y150.000
G1 X150.000 Y150.000
G1 X150.000 Y150.000
G1 X150.000 Y150.000
G1 X150.000 Y150.000
G1 X150.000 Y150.000
G1 X150.000 Y150.000
G1 X150.000 Y150.000
G1 X150.000 Y150.000
G1 X150.000 Y150.000
G1 X150.000 Y150.000
G1 X150.000 Y150.000
G1 X150.000 Y150.000
G1 X150.000 Y150.000
G1 X150.000 Y150.000
G1 X150.000 Y150.000
G1 X150.000 Y150.000
G1 X150.000 Y150.000
G1 X150.000 Y150.000
G1 X150.000 Y150.000
G1 X150.000 Y150.000
G1 X150.000 Y150.000
G1 X150.000 Y150.000
G1 X150.000 Y150.000
G1 X150.000 Y150.000
G1 X150.000 Y150.000
G1 X150.000 Y150.000
G1 X150.000 Y150.000
G1 X150.000 Y150.000
G1 X150.000 Y150.000
G1 X150.000 Y150.000
G1 X150.000 Y150.000
G1 X150.000 Y150.000
G1 X150.000 Y150.000
G1 X150.000 Y150.000
G1 X150.000 Y150.000
G1 X150.000 Y150.000
G1 X150.000 Y150.000
G1 X150.000 Y150.000
G1 X150.000 Y150.000
G0 Z4.600 F3000
M400
M204 P12000 T12000
G1 F12000
G0 X150.000 Y150.000 Z4.600
M400
M204 P200 T200
G1 F400
G1 Z0.000 F2500
; --- Backlash X fix: -0.500mm ---
G0 X150.000 Y150.000 F200
G1 X150.000 Y150.000
G1 X150.000 Y150.000
G1 X150.000 Y150.000
G1 X150.000 Y150.000
G1 X150.000 Y150.000
G1 X150.000 Y150.000
G1 X150.000 Y150.000
G1 X150.000 Y150.000
G1 X150.000 Y150.000
G1 X150.000 Y150.000
G1 X150.000 Y150.000
G1 X150.000 Y150.000
G1 X150.000 Y150.000
G1 X150.000 Y150.000
G1 X150.000 Y150.000
G1 X150.000 Y150.000
G1 X150.000 Y150.000
G1 X150.000 Y150.000
G1 X150.000 Y150.000
G1 X150.000 Y150.000
G1 X150.000 Y150.000
G1 X150.000 Y150.000
G1 X150.000 Y150.000
G1 X150.000 Y150.000
G1 X150.000 Y150.000
G1 X150.000 Y150.000
G1 X150.000 Y150.000
G1 X150.000 Y150.000
G1 X150.000 Y150.000
G1 X150.000 Y150.000
G1 X150.000 Y150.000
G1 X150.000 Y150.000
G1 X150.000 Y150.000
G1 X150.000 Y150.000
G1 X150.000 Y150.000
G1 X150.000 Y150.000
G1 X150.000 Y150.000
G1 X150.000 Y150.000
G1 X150.000 Y150.000
G1 X150.000 Y150.000
G1 X150.000 Y150.000
G1 X150.000 Y150.000
G1 X150.000 Y150.000
G1 X150.000 Y150.000
G1 X150.000 Y150.000
G1 X150.000 Y150.000
G1 X150.000 Y150.000
G1 X150.000 Y150.000
G1 X150.000 Y150.000
G1 X150.000 Y150.000
G1 X150.000 Y150.000
G1 X150.000 Y150.000
G1 X150.000 Y150.000
G1 X150.000 Y150.000
G1 X150.000 Y150.000
G1 X150.000 Y150.000
G1 X150.000 Y150.000
G1 X150.000 Y150.000
G0 Z4.600 F3000
M400
M204 P12000 T12000
G1 F12000
G0 X150.000 Y150.000 Z4.600
M400
M204 P200 T200
G1 F400
G1 Z0.000 F2500
; --- Backlash X fix: 0.500mm ---
G0 X150.000 Y150.000 F200
G1 X150.000 Y150.000
G1 X150.000 Y150.000
G1 X150.000 Y150.000
G1 X150.000 Y150.000
G1 X150.000 Y150.000
G1 X150.000 Y150.000
G1 X150.000 Y150.000
G1 X150.000 Y150.000
G1 X150.000 Y150.000
G1 X150.000 Y150.000
G1 X150.000 Y150.000
G1 X150.000 Y150.000
G1 X150.000 Y150.000
G1 X150.000 Y150.000
G1 X150.000 Y150.000
G1 X150.000 Y150.000
G1 X150.000 Y150.000
G1 X150.000 Y150.000
G1 X150.000 Y150.000
G1 X150.000 Y150.000
G1 X150.000 Y150.000
G1 X150.000 Y150.000
G1 X150.000 Y150.000
G1 X150.000 Y150.000
G1 X150.000 Y150.000
G1 X150.000 Y150.000
G1 X150.000 Y150.000
G1 X150.000 Y150.000
G1 X150.000 Y150.000
G1 X150.000 Y150.000
G1 X150.000 Y150.000
G1 X150.000 Y150.000
G1 X150.000 Y150.000
G1 X150.000 Y150.000
G1 X150.000 Y150.000
G1 X150.000 Y150.000
G1 X150.000 Y150.000
G1 X150.000 Y150.000
G1 X150.000 Y150.000
G1 X150.000 Y150.000
G1 X150.000 Y150.000
G1 X150.000 Y150.000
G0 Z4.600 F3000

; --- CIKEL NAMAKANJA ---
G0 Z4.600 F3000
M400
M204 P12000 T12000
G1 F12000
G0 X46.492 Y0.000 Z31.000
G1 Z0.000 F3000
G1 X46.492 Y0.000 F2500
G1 X46.492 Y12.500 F2500
G1 X21.492 Y0.000 F2500
G1 X46.492 Y0.000 F2500
G0 Z16.000 F3000
G0 X108.401 Y55.697
G0 Z31.000 F3000
G0 X150.000 Y150.000 Z4.600
M400
M204 P200 T200
G1 F400
G1 Z0.000 F2500
G1 X150.000 Y150.000
G1 X150.000 Y150.000
G1 X150.000 Y150.000
G1 X150.000 Y150.000
G1 X150.000 Y150.000
G1 X150.000 Y150.000
G1 X150.000 Y150.000
G1 X150.000 Y150.000
G1 X150.000 Y150.000
G1 X150.000 Y150.000
G1 X150.000 Y150.000
G1 X150.000 Y150.000
G1 X150.000 Y150.000
G1 X150.000 Y150.000
G1 X150.000 Y150.000
G1 X150.000 Y150.000
G1 X150.000 Y150.000
G1 X150.000 Y150.000
G0 Z4.600 F3000
M400
M204 P12000 T12000
G1 F12000
G0 X150.000 Y150.000 Z4.600
M400
M204 P200 T200
G1 F400
G1 Z0.000 F2500
; --- Backlash X fix: -0.500mm ---
G0 X150.000 Y150.000 F200
G1 X150.000 Y150.000
G1 X150.000 Y150.000
G1 X150.000 Y150.000
G1 X150.000 Y150.000
G1 X150.000 Y150.000
G1 X150.000 Y150.000
G1 X150.000 Y150.000
G1 X150.000 Y150.000
G1 X150.000 Y150.000
G1 X150.000 Y150.000
G1 X150.000 Y150.000
G1 X150.000 Y150.000
G1 X150.000 Y150.000
G1 X150.000 Y150.000
G1 X150.000 Y150.000
G1 X150.000 Y150.000
G1 X150.000 Y150.000
G1 X150.000 Y150.000
G1 X150.000 Y150.000
G1 X150.000 Y150.000
G1 X150.000 Y150.000
G1 X150.000 Y150.000
G1 X150.000 Y150.000
G1 X150.000 Y150.000
G1 X150.000 Y150.000
G1 X150.000 Y150.000
G1 X150.000 Y150.000
G1 X150.000 Y150.000
G1 X150.000 Y150.000
G1 X150.000 Y150.000
G1 X150.000 Y150.000
G1 X150.000 Y150.000
G1 X150.000 Y150.000
G1 X150.000 Y150.000
G1 X150.000 Y150.000
G1 X150.000 Y150.000
G1 X150.000 Y150.000
G1 X150.000 Y150.000
G1 X150.000 Y150.000
G1 X150.000 Y150.000
G1 X150.000 Y150.000
G1 X150.000 Y150.000
G1 X150.000 Y150.000
G1 X150.000 Y150.000
G1 X150.000 Y150.000
G1 X150.000 Y150.000
G1 X150.000 Y150.000
G1 X150.000 Y150.000
G1 X150.000 Y150.000
G1 X150.000 Y150.000
G1 X150.000 Y150.000
G1 X150.000 Y150.000
G1 X150.000 Y150.000
G1 X150.000 Y150.000
G1 X150.000 Y150.000
G1 X150.000 Y150.000
G1 X150.000 Y150.000
G1 X150.000 Y150.000
G1 X150.000 Y150.000
G1 X150.000 Y150.000
G1 X150.000 Y150.000
G1 X150.000 Y150.000
G0 Z4.600 F3000
M400
M204 P12000 T12000
G1 F12000
G0 X150.000 Y150.000 Z4.600
M400
M204 P200 T200
G1 F400
G1 Z0.000 F2500
; --- Backlash X fix: 0.500mm ---
G0 X150.000 Y150.000 F200
G1 X150.000 Y150.000
G1 X150.000 Y150.000
G1 X150.000 Y150.000
G1 X150.000 Y150.000
G1 X150.000 Y150.000
G1 X150.000 Y150.000
G1 X150.000 Y150.000
G1 X150.000 Y150.000
G1 X150.000 Y150.000
G1 X150.000 Y150.000
G1 X150.000 Y150.000
G1 X150.000 Y150.000
G1 X150.000 Y150.000
G1 X150.000 Y150.000
G1 X150.000 Y150.000
G1 X150.000 Y150.000
G1 X150.000 Y150.000
G1 X150.000 Y150.000
G1 X150.000 Y150.000
G1 X150.000 Y150.000
G1 X150.000 Y150.000
G1 X150.000 Y150.000
G1 X150.000 Y150.000
G1 X150.000 Y150.000
G1 X150.000 Y150.000
G1 X150.000 Y150.000
G1 X150.000 Y150.000
G1 X150.000 Y150.000
G1 X150.000 Y150.000
G1 X150.000 Y150.000
G1 X150.000 Y150.000
G1 X150.000 Y150.000
G1 X150.000 Y150.000
G1 X150.000 Y150.000
G1 X150.000 Y150.000
G1 X150.000 Y150.000
G1 X150.000 Y150.000
G1 X150.000 Y150.000
G1 X150.000 Y150.000
G1 X150.000 Y150.000
G1 X150.000 Y150.000
G1 X150.000 Y150.000
G1 X150.000 Y150.000
G1 X150.000 Y150.000
G1 X150.000 Y150.000
G1 X150.000 Y150.000
G1 X150.000 Y150.000
G1 X150.000 Y150.000
G1 X150.000 Y150.000
G1 X150.000 Y150.000
G1 X150.000 Y150.000
G1 X150.000 Y150.000
G1 X150.000 Y150.000
G1 X150.000 Y150.000
G1 X150.000 Y150.000
G1 X150.000 Y150.000
G1 X150.000 Y150.000
G1 X150.000 Y150.000
G1 X150.000 Y150.000
G1 X150.000 Y150.000
G1 X150.000 Y150.000
G1 X150.000 Y150.000
G1 X150.000 Y150.000
G1 X150.000 Y150.000
G0 Z4.600 F3000
M400
M204 P12000 T12000
G1 F12000
G0 X150.000 Y150.000 Z4.600
M400
M204 P200 T200
G1 F400
G1 Z0.000 F2500
; --- Backlash X fix: -0.500mm ---
G0 X150.000 Y150.000 F200
G1 X150.000 Y150.000
G1 X150.000 Y150.000
G1 X150.000 Y150.000
G1 X150.000 Y150.000
G1 X150.000 Y150.000
G1 X150.000 Y150.000
G1 X150.000 Y150.000
G1 X150.000 Y150.000
G1 X150.000 Y150.000
G1 X150.000 Y150.000
G1 X150.000 Y150.000
G1 X150.000 Y150.000
G1 X150.000 Y150.000
G1 X150.000 Y150.000
G1 X150.000 Y150.000
G1 X150.000 Y150.000
G1 X150.000 Y150.000
G1 X150.000 Y150.000
G1 X150.000 Y150.000
G1 X150.000 Y150.000
G1 X150.000 Y150.000
G1 X150.000 Y150.000
G1 X150.000 Y150.000
G1 X150.000 Y150.000
G1 X150.000 Y150.000
G1 X150.000 Y150.000
G1 X150.000 Y150.000
G1 X150.000 Y150.000
G1 X150.000 Y150.000
G1 X150.000 Y150.000
G1 X150.000 Y150.000
G1 X150.000 Y150.000
G1 X150.000 Y150.000
G1 X150.000 Y150.000
G1 X150.000 Y150.000
G1 X150.000 Y150.000
G1 X150.000 Y150.000
G1 X150.000 Y150.000
G1 X150.000 Y150.000
G1 X150.000 Y150.000
G1 X150.000 Y150.000
G1 X150.000 Y150.000
G1 X150.000 Y150.000
G1 X150.000 Y150.000
G1 X150.000 Y150.000
G1 X150.000 Y150.000
G1 X150.000 Y150.000
G1 X150.000 Y150.000
G1 X150.000 Y150.000
G1 X150.000 Y150.000
G1 X150.000 Y150.000
G1 X150.000 Y150.000
G1 X150.000 Y150.000
G1 X150.000 Y150.000
G1 X150.000 Y150.000
G1 X150.000 Y150.000
G1 X150.000 Y150.000
G1 X150.000 Y150.000
G1 X150.000 Y150.000
G1 X150.000 Y150.000
G1 X150.000 Y150.000
G1 X150.000 Y150.000
G1 X150.000 Y150.000
G1 X150.000 Y150.000
G0 Z4.600 F3000
M400
M204 P12000 T12000
G1 F12000
G0 X150.000 Y150.000 Z4.600
M400
M204 P200 T200
G1 F400
G1 Z0.000 F2500
; --- Backlash X fix: 0.500mm ---
G0 X150.000 Y150.000 F200
G1 X150.000 Y150.000
G1 X150.000 Y150.000
G1 X150.000 Y150.000
G1 X150.000 Y150.000
G1 X150.000 Y150.000
G1 X150.000 Y150.000
G1 X150.000 Y150.000
G1 X150.000 Y150.000
G1 X150.000 Y150.000
G1 X150.000 Y150.000
G1 X150.000 Y150.000
G1 X150.000 Y150.000
G1 X150.000 Y150.000
G1 X150.000 Y150.000
G1 X150.000 Y150.000
G1 X150.000 Y150.000
G1 X150.000 Y150.000
G1 X150.000 Y150.000
G1 X150.000 Y150.000
G1 X150.000 Y150.000
G1 X150.000 Y150.000
G1 X150.000 Y150.000
G1 X150.000 Y150.000
G1 X150.000 Y150.000
G1 X150.000 Y150.000
G1 X150.000 Y150.000
G1 X150.000 Y150.000
G1 X150.000 Y150.000
G1 X150.000 Y150.000
G1 X150.000 Y150.000
G1 X150.000 Y150.000
G1 X150.000 Y150.000
G1 X150.000 Y150.000
G1 X150.000 Y150.000
G1 X150.000 Y150.000
G1 X150.000 Y150.000
G1 X150.000 Y150.000
G1 X150.000 Y150.000
G1 X150.000 Y150.000
G0 Z4.600 F3000

; --- CIKEL NAMAKANJA ---
G0 Z4.600 F3000
M400
M204 P12000 T12000
G1 F12000
G0 X73.710 Y0.000 Z31.000
G1 Z0.000 F3000
G1 X73.710 Y0.000 F2500
G1 X73.710 Y12.500 F2500
G1 X48.710 Y0.000 F2500
G1 X73.710 Y0.000 F2500
G0 Z16.000 F3000
G0 X108.120 Y55.910
G0 Z31.000 F3000
G0 X150.000 Y150.000 Z4.600
M400
M204 P200 T200
G1 F400
G1 Z0.000 F2500
G1 X150.000 Y150.000
G1 X150.000 Y150.000
G1 X150.000 Y150.000
G1 X150.000 Y150.000
G1 X150.000 Y150.000
G1 X150.000 Y150.000
G1 X150.000 Y150.000
G1 X150.000 Y150.000
G1 X150.000 Y150.000
G1 X150.000 Y150.000
G1 X150.000 Y150.000
G1 X150.000 Y150.000
G1 X150.000 Y150.000
G1 X150.000 Y150.000
G1 X150.000 Y150.000
G1 X150.000 Y150.000
G1 X150.000 Y150.000
G1 X150.000 Y150.000
G1 X150.000 Y150.000
G1 X150.000 Y150.000
G1 X150.000 Y150.000
G1 X150.000 Y150.000
G1 X150.000 Y150.000
G1 X150.000 Y150.000
G1 X150.000 Y150.000
G1 X150.000 Y150.000
G1 X150.000 Y150.000
G0 Z4.600 F3000
M400
M204 P12000 T12000
G1 F12000
G0 X150.000 Y150.000 Z4.600
M400
M204 P200 T200
G1 F400
G1 Z0.000 F2500
; --- Backlash X fix: -0.500mm ---
G0 X150.000 Y150.000 F200
G1 X150.000 Y150.000
G1 X150.000 Y150.000
G1 X150.000 Y150.000
G1 X150.000 Y150.000
G1 X150.000 Y150.000
G1 X150.000 Y150.000
G1 X150.000 Y150.000
G1 X150.000 Y150.000
G1 X150.000 Y150.000
G1 X150.000 Y150.000
G1 X150.000 Y150.000
G1 X150.000 Y150.000
G1 X150.000 Y150.000
G1 X150.000 Y150.000
G1 X150.000 Y150.000
G1 X150.000 Y150.000
G1 X150.000 Y150.000
G1 X150.000 Y150.000
G1 X150.000 Y150.000
G1 X150.000 Y150.000
G1 X150.000 Y150.000
G1 X150.000 Y150.000
G1 X150.000 Y150.000
G1 X150.000 Y150.000
G1 X150.000 Y150.000
G1 X150.000 Y150.000
G1 X150.000 Y150.000
G1 X150.000 Y150.000
G1 X150.000 Y150.000
G1 X150.000 Y150.000
G1 X150.000 Y150.000
G1 X150.000 Y150.000
G1 X150.000 Y150.000
G1 X150.000 Y150.000
G1 X150.000 Y150.000
G1 X150.000 Y150.000
G1 X150.000 Y150.000
G1 X150.000 Y150.000
G1 X150.000 Y150.000
G1 X150.000 Y150.000
G1 X150.000 Y150.000
G1 X150.000 Y150.000
G1 X150.000 Y150.000
G1 X150.000 Y150.000
G1 X150.000 Y150.000
G1 X150.000 Y150.000
G1 X150.000 Y150.000
G1 X150.000 Y150.000
G1 X150.000 Y150.000
G1 X150.000 Y150.000
G1 X150.000 Y150.000
G1 X150.000 Y150.000
G1 X150.000 Y150.000
G1 X150.000 Y150.000
G1 X150.000 Y150.000
G1 X150.000 Y150.000
G1 X150.000 Y150.000
G1 X150.000 Y150.000
G1 X150.000 Y150.000
G1 X150.000 Y150.000
G1 X150.000 Y150.000
G1 X150.000 Y150.000
G1 X150.000 Y150.000
G1 X150.000 Y150.000
G1 X150.000 Y150.000
G1 X150.000 Y150.000
G1 X150.000 Y150.000
G1 X150.000 Y150.000
G0 Z4.600 F3000
M400
M204 P12000 T12000
G1 F12000
G0 X150.000 Y150.000 Z4.600
M400
M204 P200 T200
G1 F400
G1 Z0.000 F2500
; --- Backlash X fix: 0.500mm ---
G0 X150.000 Y150.000 F200
G1 X150.000 Y150.000
G1 X150.000 Y150.000
G1 X150.000 Y150.000
G1 X150.000 Y150.000
G1 X150.000 Y150.000
G1 X150.000 Y150.000
G1 X150.000 Y150.000
G1 X150.000 Y150.000
G1 X150.000 Y150.000
G1 X150.000 Y150.000
G1 X150.000 Y150.000
G1 X150.000 Y150.000
G1 X150.000 Y150.000
G1 X150.000 Y150.000
G1 X150.000 Y150.000
G1 X150.000 Y150.000
G1 X150.000 Y150.000
G1 X150.000 Y150.000
G1 X150.000 Y150.000
G1 X150.000 Y150.000
G1 X150.000 Y150.000
G1 X150.000 Y150.000
G1 X150.000 Y150.000
G1 X150.000 Y150.000
G1 X150.000 Y150.000
G1 X150.000 Y150.000
G1 X150.000 Y150.000
G1 X150.000 Y150.000
G1 X150.000 Y150.000
G1 X150.000 Y150.000
G1 X150.000 Y150.000
G1 X150.000 Y150.000
G1 X150.000 Y150.000
G1 X150.000 Y150.000
G1 X150.000 Y150.000
G1 X150.000 Y150.000
G1 X150.000 Y150.000
G1 X150.000 Y150.000
G1 X150.000 Y150.000
G1 X150.000 Y150.000
G1 X150.000 Y150.000
G1 X150.000 Y150.000
G1 X150.000 Y150.000
G1 X150.000 Y150.000
G1 X150.000 Y150.000
G1 X150.000 Y150.000
G1 X150.000 Y150.000
G1 X150.000 Y150.000
G1 X150.000 Y150.000
G1 X150.000 Y150.000
G1 X150.000 Y150.000
G1 X150.000 Y150.000
G1 X150.000 Y150.000
G1 X150.000 Y150.000
G1 X150.000 Y150.000
G1 X150.000 Y150.000
G1 X150.000 Y150.000
G1 X150.000 Y150.000
G1 X150.000 Y150.000
G1 X150.000 Y150.000
G1 X150.000 Y150.000
G1 X150.000 Y150.000
G1 X150.000 Y150.000
G1 X150.000 Y150.000
G1 X150.000 Y150.000
G1 X150.000 Y150.000
G1 X150.000 Y150.000
G1 X150.000 Y150.000
G1 X150.000 Y150.000
G1 X150.000 Y150.000
G0 Z4.600 F3000
M400
M204 P12000 T12000
G1 F12000
G0 X150.000 Y150.000 Z4.600
M400
M204 P200 T200
G1 F400
G1 Z0.000 F2500
; --- Backlash X fix: -0.500mm ---
G0 X150.000 Y150.000 F200
G1 X150.000 Y150.000
G1 X150.000 Y150.000
G1 X150.000 Y150.000
G1 X150.000 Y150.000
G1 X150.000 Y150.000
G1 X150.000 Y150.000
G1 X150.000 Y150.000
G1 X150.000 Y150.000
G1 X150.000 Y150.000
G1 X150.000 Y150.000
G1 X150.000 Y150.000
G1 X150.000 Y150.000
G1 X150.000 Y150.000
G1 X150.000 Y150.000
G1 X150.000 Y150.000
G1 X150.000 Y150.000
G1 X150.000 Y150.000
G1 X150.000 Y150.000
G1 X150.000 Y150.000
G1 X150.000 Y150.000
G1 X150.000 Y150.000
G1 X150.000 Y150.000
G1 X150.000 Y150.000
G1 X150.000 Y150.000
G1 X150.000 Y150.000
G1 X150.000 Y150.000
G1 X150.000 Y150.000
G1 X150.000 Y150.000
G1 X150.000 Y150.000
G1 X150.000 Y150.000
G1 X150.000 Y150.000
G1 X150.000 Y150.000
G1 X150.000 Y150.000
G1 X150.000 Y150.000
G1 X150.000 Y150.000
G1 X150.000 Y150.000
G1 X150.000 Y150.000
G1 X150.000 Y150.000
G1 X150.000 Y150.000
G1 X150.000 Y150.000
G1 X150.000 Y150.000
G1 X150.000 Y150.000
G1 X150.000 Y150.000
G1 X150.000 Y150.000
G1 X150.000 Y150.000
G1 X150.000 Y150.000
G1 X150.000 Y150.000
G1 X150.000 Y150.000
G1 X150.000 Y150.000
G1 X150.000 Y150.000
G1 X150.000 Y150.000
G1 X150.000 Y150.000
G1 X150.000 Y150.000
G1 X150.000 Y150.000
G1 X150.000 Y150.000
G1 X150.000 Y150.000
G1 X150.000 Y150.000
G1 X150.000 Y150.000
G1 X150.000 Y150.000
G1 X150.000 Y150.000
G1 X150.000 Y150.000
G1 X150.000 Y150.000
G1 X150.000 Y150.000
G1 X150.000 Y150.000
G1 X150.000 Y150.000
G1 X150.000 Y150.000
G1 X150.000 Y150.000
G1 X150.000 Y150.000
G1 X150.000 Y150.000
G1 X150.000 Y150.000
G1 X150.000 Y150.000
G1 X150.000 Y150.000
G0 Z4.600 F3000
M400
M204 P12000 T12000
G1 F12000
G0 X150.000 Y150.000 Z4.600
M400
M204 P200 T200
G1 F400
G1 Z0.000 F2500
; --- Backlash X fix: 0.500mm ---
G0 X150.000 Y150.000 F200
G1 X150.000 Y150.000
G1 X150.000 Y150.000
G1 X150.000 Y150.000
G1 X150.000 Y150.000
G1 X150.000 Y150.000
G1 X150.000 Y150.000
G1 X150.000 Y150.000
G1 X150.000 Y150.000
G1 X150.000 Y150.000
G1 X150.000 Y150.000
G1 X150.000 Y150.000
G1 X150.000 Y150.000
G1 X150.000 Y150.000
G1 X150.000 Y150.000
G1 X150.000 Y150.000
G1 X150.000 Y150.000
G1 X150.000 Y150.000
G1 X150.000 Y150.000
G1 X150.000 Y150.000
G1 X150.000 Y150.000
G1 X150.000 Y150.000
G1 X150.000 Y150.000
G1 X150.000 Y150.000
G1 X150.000 Y150.000
G1 X150.000 Y150.000
G1 X150.000 Y150.000
G1 X150.000 Y150.000
G1 X150.000 Y150.000
G1 X150.000 Y150.000
G1 X150.000 Y150.000
G0 Z4.600 F3000

; --- CIKEL NAMAKANJA ---
G0 Z4.600 F3000
M400
M204 P12000 T12000
G1 F12000
G0 X81.584 Y0.000 Z31.000
G1 Z0.000 F3000
G1 X81.584 Y0.000 F2500
G1 X81.584 Y12.500 F2500
G1 X56.584 Y0.000 F2500
G1 X81.584 Y0.000 F2500
G0 Z16.000 F3000
G0 X107.136 Y56.638
G0 Z31.000 F3000
G0 X150.000 Y150.000 Z4.600
M400
M204 P200 T200
G1 F400
G1 Z0.000 F2500
G1 X150.000 Y150.000
G1 X150.000 Y150.000
G1 X150.000 Y150.000
G1 X150.000 Y150.000
G1 X150.000 Y150.000
G1 X150.000 Y150.000
G1 X150.000 Y150.000
G1 X150.000 Y150.000
G1 X150.000 Y150.000
G1 X150.000 Y150.000
G1 X150.000 Y150.000
G1 X150.000 Y150.000
G1 X150.000 Y150.000
G1 X150.000 Y150.000
G1 X150.000 Y150.000
G1 X150.000 Y150.000
G1 X150.000 Y150.000
G1 X150.000 Y150.000
G1 X150.000 Y150.000
G1 X150.000 Y150.000
G1 X150.000 Y150.000
G1 X150.000 Y150.000
G1 X150.000 Y150.000
G1 X150.000 Y150.000
G1 X150.000 Y150.000
G1 X150.000 Y150.000
G1 X150.000 Y150.000
G1 X150.000 Y150.000
G1 X150.000 Y150.000
G1 X150.000 Y150.000
G1 X150.000 Y150.000
G1 X150.000 Y150.000
G1 X150.000 Y150.000
G1 X150.000 Y150.000
G1 X150.000 Y150.000
G1 X150.000 Y150.000
G1 X150.000 Y150.000
G1 X150.000 Y150.000
G1 X150.000 Y150.000
G1 X150.000 Y150.000
G1 X150.000 Y150.000
G1 X150.000 Y150.000
G1 X150.000 Y150.000
G0 Z4.600 F3000
M400
M204 P12000 T12000
G1 F12000
G0 X150.000 Y150.000 Z4.600
M400
M204 P200 T200
G1 F400
G1 Z0.000 F2500
; --- Backlash X fix: -0.500mm ---
G0 X150.000 Y150.000 F200
G1 X150.000 Y150.000
G1 X150.000 Y150.000
G1 X150.000 Y150.000
G1 X150.000 Y150.000
G1 X150.000 Y150.000
G1 X150.000 Y150.000
G1 X150.000 Y150.000
G1 X150.000 Y150.000
G1 X150.000 Y150.000
G1 X150.000 Y150.000
G1 X150.000 Y150.000
G1 X150.000 Y150.000
G1 X150.000 Y150.000
G1 X150.000 Y150.000
G1 X150.000 Y150.000
G1 X150.000 Y150.000
G1 X150.000 Y150.000
G1 X150.000 Y150.000
G1 X150.000 Y150.000
G1 X150.000 Y150.000
G1 X150.000 Y150.000
G1 X150.000 Y150.000
G1 X150.000 Y150.000
G1 X150.000 Y150.000
G1 X150.000 Y150.000
G1 X150.000 Y150.000
G1 X150.000 Y150.000
G1 X150.000 Y150.000
G1 X150.000 Y150.000
G1 X150.000 Y150.000
G1 X150.000 Y150.000
G1 X150.000 Y150.000
G1 X150.000 Y150.000
G1 X150.000 Y150.000
G1 X150.000 Y150.000
G1 X150.000 Y150.000
G1 X150.000 Y150.000
G1 X150.000 Y150.000
G1 X150.000 Y150.000
G1 X150.000 Y150.000
G1 X150.000 Y150.000
G1 X150.000 Y150.000
G1 X150.000 Y150.000
G1 X150.000 Y150.000
G1 X150.000 Y150.000
G1 X150.000 Y150.000
G1 X150.000 Y150.000
G1 X150.000 Y150.000
G1 X150.000 Y150.000
G1 X150.000 Y150.000
G1 X150.000 Y150.000
G1 X150.000 Y150.000
G1 X150.000 Y150.000
G1 X150.000 Y150.000
G1 X150.000 Y150.000
G1 X150.000 Y150.000
G1 X150.000 Y150.000
G1 X150.000 Y150.000
G1 X150.000 Y150.000
G1 X150.000 Y150.000
G1 X150.000 Y150.000
G1 X150.000 Y150.000
G1 X150.000 Y150.000
G1 X150.000 Y150.000
G1 X150.000 Y150.000
G1 X150.000 Y150.000
G1 X150.000 Y150.000
G1 X150.000 Y150.000
G1 X150.000 Y150.000
G1 X150.000 Y150.000
G1 X150.000 Y150.000
G1 X150.000 Y150.000
G1 X150.000 Y150.000
G1 X150.000 Y150.000
G0 Z4.600 F3000
M400
M204 P12000 T12000
G1 F12000
G0 X150.000 Y150.000 Z4.600
M400
M204 P200 T200
G1 F400
G1 Z0.000 F2500
; --- Backlash X fix: 0.500mm ---
G0 X150.000 Y150.000 F200
G1 X150.000 Y150.000
G1 X150.000 Y150.000
G1 X150.000 Y150.000
G1 X150.000 Y150.000
G1 X150.000 Y150.000
G1 X150.000 Y150.000
G1 X150.000 Y150.000
G1 X150.000 Y150.000
G1 X150.000 Y150.000
G1 X150.000 Y150.000
G1 X150.000 Y150.000
G1 X150.000 Y150.000
G1 X150.000 Y150.000
G1 X150.000 Y150.000
G1 X150.000 Y150.000
G1 X150.000 Y150.000
G1 X150.000 Y150.000
G1 X150.000 Y150.000
G1 X150.000 Y150.000
G1 X150.000 Y150.000
G1 X150.000 Y150.000
G1 X150.000 Y150.000
G1 X150.000 Y150.000
G1 X150.000 Y150.000
G1 X150.000 Y150.000
G1 X150.000 Y150.000
G1 X150.000 Y150.000
G1 X150.000 Y150.000
G1 X150.000 Y150.000
G1 X150.000 Y150.000
G1 X150.000 Y150.000
G1 X150.000 Y150.000
G1 X150.000 Y150.000
G1 X150.000 Y150.000
G1 X150.000 Y150.000
G1 X150.000 Y150.000
G1 X150.000 Y150.000
G1 X150.000 Y150.000
G1 X150.000 Y150.000
G1 X150.000 Y150.000
G1 X150.000 Y150.000
G1 X150.000 Y150.000
G1 X150.000 Y150.000
G1 X150.000 Y150.000
G1 X150.000 Y150.000
G1 X150.000 Y150.000
G1 X150.000 Y150.000
G1 X150.000 Y150.000
G1 X150.000 Y150.000
G1 X150.000 Y150.000
G1 X150.000 Y150.000
G1 X150.000 Y150.000
G1 X150.000 Y150.000
G1 X150.000 Y150.000
G1 X150.000 Y150.000
G1 X150.000 Y150.000
G1 X150.000 Y150.000
G1 X150.000 Y150.000
G1 X150.000 Y150.000
G1 X150.000 Y150.000
G1 X150.000 Y150.000
G1 X150.000 Y150.000
G1 X150.000 Y150.000
G1 X150.000 Y150.000
G1 X150.000 Y150.000
G1 X150.000 Y150.000
G1 X150.000 Y150.000
G1 X150.000 Y150.000
G1 X150.000 Y150.000
G1 X150.000 Y150.000
G1 X150.000 Y150.000
G1 X150.000 Y150.000
G1 X150.000 Y150.000
G1 X150.000 Y150.000
G1 X150.000 Y150.000
G1 X150.000 Y150.000
G0 Z4.600 F3000
M400
M204 P12000 T12000
G1 F12000
G0 X150.000 Y150.000 Z4.600
M400
M204 P200 T200
G1 F400
G1 Z0.000 F2500
; --- Backlash X fix: -0.500mm ---
G0 X150.000 Y150.000 F200
G1 X150.000 Y150.000
G1 X150.000 Y150.000
G1 X150.000 Y150.000
G1 X150.000 Y150.000
G1 X150.000 Y150.000
G1 X150.000 Y150.000
G1 X150.000 Y150.000
G1 X150.000 Y150.000
G1 X150.000 Y150.000
G1 X150.000 Y150.000
G1 X150.000 Y150.000
G1 X150.000 Y150.000
G1 X150.000 Y150.000
G1 X150.000 Y150.000
G1 X150.000 Y150.000
G1 X150.000 Y150.000
G1 X150.000 Y150.000
G1 X150.000 Y150.000
G1 X150.000 Y150.000
G1 X150.000 Y150.000
G1 X150.000 Y150.000
G1 X150.000 Y150.000
G1 X150.000 Y150.000
G1 X150.000 Y150.000
G1 X150.000 Y150.000
G1 X150.000 Y150.000
G1 X150.000 Y150.000
G1 X150.000 Y150.000
G1 X150.000 Y150.000
G1 X150.000 Y150.000
G1 X150.000 Y150.000
G1 X150.000 Y150.000
G1 X150.000 Y150.000
G1 X150.000 Y150.000
G1 X150.000 Y150.000
G1 X150.000 Y150.000
G1 X150.000 Y150.000
G1 X150.000 Y150.000
G1 X150.000 Y150.000
G1 X150.000 Y150.000
G1 X150.000 Y150.000
G1 X150.000 Y150.000
G1 X150.000 Y150.000
G1 X150.000 Y150.000
G1 X150.000 Y150.000
G1 X150.000 Y150.000
G1 X150.000 Y150.000
G1 X150.000 Y150.000
G1 X150.000 Y150.000
G1 X150.000 Y150.000
G1 X150.000 Y150.000
G0 Z4.600 F3000

; --- CIKEL NAMAKANJA ---
G0 Z4.600 F3000
M400
M204 P12000 T12000
G1 F12000
G0 X51.539 Y4.825 Z31.000
G1 Z0.000 F3000
G1 X51.539 Y4.825 F2500
G1 X51.539 Y17.325 F2500
G1 X26.539 Y4.825 F2500
G1 X51.539 Y0.000 F2500
G0 Z16.000 F3000
G0 X106.539 Y57.067
G0 Z31.000 F3000
G0 X150.000 Y150.000 Z4.600
M400
M204 P200 T200
G1 F400
G1 Z0.000 F2500
G1 X150.000 Y150.000
G1 X150.000 Y150.000
G1 X150.000 Y150.000
G1 X150.000 Y150.000
G1 X150.000 Y150.000
G1 X150.000 Y150.000
G1 X150.000 Y150.000
G1 X150.000 Y150.000
G1 X150.000 Y150.000
G1 X150.000 Y150.000
G1 X150.000 Y150.000
G1 X150.000 Y150.000
G1 X150.000 Y150.000
G1 X150.000 Y150.000
G1 X150.000 Y150.000
G1 X150.000 Y150.000
G1 X150.000 Y150.000
G1 X150.000 Y150.000
G1 X150.000 Y150.000
G1 X150.000 Y150.000
G1 X150.000 Y150.000
G1 X150.000 Y150.000
G1 X150.000 Y150.000
G1 X150.000 Y150.000
G1 X150.000 Y150.000
G0 Z4.600 F3000
M400
M204 P12000 T12000
G1 F12000
G0 X150.000 Y150.000 Z4.600
M400
M204 P200 T200
G1 F400
G1 Z0.000 F2500
; --- Backlash X fix: 0.500mm ---
G0 X150.000 Y150.000 F200
G1 X150.000 Y150.000
G1 X150.000 Y150.000
G1 X150.000 Y150.000
G1 X150.000 Y150.000
G1 X150.000 Y150.000
G1 X150.000 Y150.000
G1 X150.000 Y150.000
G1 X150.000 Y150.000
G1 X150.000 Y150.000
G1 X150.000 Y150.000
G1 X150.000 Y150.000
G1 X150.000 Y150.000
G1 X150.000 Y150.000
G1 X150.000 Y150.000
G1 X150.000 Y150.000
G1 X150.000 Y150.000
G1 X150.000 Y150.000
G1 X150.000 Y150.000
G1 X150.000 Y150.000
G1 X150.000 Y150.000
G1 X150.000 Y150.000
G1 X150.000 Y150.000
G1 X150.000 Y150.000
G1 X150.000 Y150.000
G1 X150.000 Y150.000
G1 X150.000 Y150.000
G1 X150.000 Y150.000
G1 X150.000 Y150.000
G1 X150.000 Y150.000
G1 X150.000 Y150.000
G1 X150.000 Y150.000
G1 X150.000 Y150.000
G1 X150.000 Y150.000
G1 X150.000 Y150.000
G1 X150.000 Y150.000
G1 X150.000 Y150.000
G1 X150.000 Y150.000
G1 X150.000 Y150.000
G1 X150.000 Y150.000
G1 X150.000 Y150.000
G1 X150.000 Y150.000
G1 X150.000 Y150.000
G1 X150.000 Y150.000
G1 X150.000 Y150.000
G1 X150.000 Y150.000
G1 X150.000 Y150.000
G1 X150.000 Y150.000
G1 X150.000 Y150.000
G1 X150.000 Y150.000
G1 X150.000 Y150.000
G1 X150.000 Y150.000
G1 X150.000 Y150.000
G1 X150.000 Y150.000
G1 X150.000 Y150.000
G1 X150.000 Y150.000
G1 X150.000 Y150.000
G1 X150.000 Y150.000
G1 X150.000 Y150.000
G1 X150.000 Y150.000
G1 X150.000 Y150.000
G1 X150.000 Y150.000
G1 X150.000 Y150.000
G1 X150.000 Y150.000
G1 X150.000 Y150.000
G1 X150.000 Y150.000
G1 X150.000 Y150.000
G1 X150.000 Y150.000
G1 X150.000 Y150.000
G1 X150.000 Y150.000
G1 X150.000 Y150.000
G1 X150.000 Y150.000
G1 X150.000 Y150.000
G1 X150.000 Y150.000
G1 X150.000 Y150.000
G1 X150.000 Y150.000
G1 X150.000 Y150.000
G1 X150.000 Y150.000
G1 X150.000 Y150.000
G0 Z4.600 F3000
M400
M204 P12000 T12000
G1 F12000
G0 X150.000 Y150.000 Z4.600
M400
M204 P200 T200
G1 F400
G1 Z0.000 F2500
; --- Backlash X fix: -0.500mm ---
G0 X150.000 Y150.000 F200
G1 X150.000 Y150.000
G1 X150.000 Y150.000
G1 X150.000 Y150.000
G1 X150.000 Y150.000
G1 X150.000 Y150.000
G1 X150.000 Y150.000
G1 X150.000 Y150.000
G1 X150.000 Y150.000
G1 X150.000 Y150.000
G1 X150.000 Y150.000
G1 X150.000 Y150.000
G1 X150.000 Y150.000
G1 X150.000 Y150.000
G1 X150.000 Y150.000
G1 X150.000 Y150.000
G1 X150.000 Y150.000
G1 X150.000 Y150.000
G1 X150.000 Y150.000
G1 X150.000 Y150.000
G1 X150.000 Y150.000
G1 X150.000 Y150.000
G1 X150.000 Y150.000
G1 X150.000 Y150.000
G1 X150.000 Y150.000
G1 X150.000 Y150.000
G1 X150.000 Y150.000
G1 X150.000 Y150.000
G1 X150.000 Y150.000
G1 X150.000 Y150.000
G1 X150.000 Y150.000
G1 X150.000 Y150.000
G1 X150.000 Y150.000
G1 X150.000 Y150.000
G1 X150.000 Y150.000
G1 X150.000 Y150.000
G1 X150.000 Y150.000
G1 X150.000 Y150.000
G1 X150.000 Y150.000
G1 X150.000 Y150.000
G1 X150.000 Y150.000
G1 X150.000 Y150.000
G1 X150.000 Y150.000
G1 X150.000 Y150.000
G1 X150.000 Y150.000
G1 X150.000 Y150.000
G1 X150.000 Y150.000
G1 X150.000 Y150.000
G1 X150.000 Y150.000
G1 X150.000 Y150.000
G1 X150.000 Y150.000
G1 X150.000 Y150.000
G1 X150.000 Y150.000
G1 X150.000 Y150.000
G1 X150.000 Y150.000
G1 X150.000 Y150.000
G1 X150.000 Y150.000
G1 X150.000 Y150.000
G1 X150.000 Y150.000
G1 X150.000 Y150.000
G1 X150.000 Y150.000
G1 X150.000 Y150.000
G1 X150.000 Y150.000
G1 X150.000 Y150.000
G1 X150.000 Y150.000
G1 X150.000 Y150.000
G1 X150.000 Y150.000
G1 X150.000 Y150.000
G1 X150.000 Y150.000
G1 X150.000 Y150.000
G1 X150.000 Y150.000
G1 X150.000 Y150.000
G1 X150.000 Y150.000
G1 X150.000 Y150.000
G1 X150.000 Y150.000
G1 X150.000 Y150.000
G1 X150.000 Y150.000
G1 X150.000 Y150.000
G1 X150.000 Y150.000
G0 Z4.600 F3000
M400
M204 P12000 T12000
G1 F12000
G0 X150.000 Y150.000 Z4.600
M400
M204 P200 T200
G1 F400
G1 Z0.000 F2500
; --- Backlash X fix: 0.500mm ---
G0 X150.000 Y150.000 F200
G1 X150.000 Y150.000
G1 X150.000 Y150.000
G1 X150.000 Y150.000
G1 X150.000 Y150.000
G1 X150.000 Y150.000
G1 X150.000 Y150.000
G1 X150.000 Y150.000
G1 X150.000 Y150.000
G1 X150.000 Y150.000
G1 X150.000 Y150.000
G1 X150.000 Y150.000
G1 X150.000 Y150.000
G1 X150.000 Y150.000
G1 X150.000 Y150.000
G1 X150.000 Y150.000
G1 X150.000 Y150.000
G1 X150.000 Y150.000
G1 X150.000 Y150.000
G1 X150.000 Y150.000
G1 X150.000 Y150.000
G1 X150.000 Y150.000
G1 X150.000 Y150.000
G1 X150.000 Y150.000
G1 X150.000 Y150.000
G1 X150.000 Y150.000
G1 X150.000 Y150.000
G1 X150.000 Y150.000
G1 X150.000 Y150.000
G1 X150.000 Y150.000
G1 X150.000 Y150.000
G1 X150.000 Y150.000
G1 X150.000 Y150.000
G1 X150.000 Y150.000
G1 X150.000 Y150.000
G1 X150.000 Y150.000
G1 X150.000 Y150.000
G1 X150.000 Y150.000
G1 X150.000 Y150.000
G1 X150.000 Y150.000
G1 X150.000 Y150.000
G1 X150.000 Y150.000
G1 X150.000 Y150.000
G1 X150.000 Y150.000
G1 X150.000 Y150.000
G1 X150.000 Y150.000
G1 X150.000 Y150.000
G1 X150.000 Y150.000
G1 X150.000 Y150.000
G1 X150.000 Y150.000
G1 X150.000 Y150.000
G1 X150.000 Y150.000
G1 X150.000 Y150.000
G1 X150.000 Y150.000
G1 X150.000 Y150.000
G1 X150.000 Y150.000
G1 X150.000 Y150.000
G1 X150.000 Y150.000
G1 X150.000 Y150.000
G1 X150.000 Y150.000
G1 X150.000 Y150.000
G0 Z4.600 F3000

; --- CIKEL NAMAKANJA ---
G0 Z4.600 F3000
M400
M204 P12000 T12000
G1 F12000
G0 X79.405 Y4.868 Z31.000
G1 Z0.000 F3000
G1 X79.405 Y4.868 F2500
G1 X79.405 Y17.368 F2500
G1 X54.405 Y4.868 F2500
G1 X79.405 Y0.000 F2500
G0 Z16.000 F3000
G0 X110.147 Y54.323
G0 Z31.000 F3000
G0 X150.000 Y150.000 Z4.600
M400
M204 P200 T200
G1 F400
G1 Z0.000 F2500
G1 X150.000 Y150.000
G1 X150.000 Y150.000
G1 X150.000 Y150.000
G1 X150.000 Y150.000
G1 X150.000 Y150.000
G1 X150.000 Y150.000
G1 X150.000 Y150.000
G1 X150.000 Y150.000
G1 X150.000 Y150.000
G1 X150.000 Y150.000
G1 X150.000 Y150.000
G1 X150.000 Y150.000
G1 X150.000 Y150.000
G1 X150.000 Y150.000
G1 X150.000 Y150.000
G1 X150.000 Y150.000
G1 X150.000 Y150.000
G1 X150.000 Y150.000
G1 X150.000 Y150.000
G0 Z4.600 F3000
M400
M204 P12000 T12000
G1 F12000
G0 X150.000 Y150.000 Z4.600
M400
M204 P200 T200
G1 F400
G1 Z0.000 F2500
; --- Backlash X fix: -0.500mm ---
G0 X150.000 Y150.000 F200
G1 X150.000 Y150.000
G1 X150.000 Y150.000
G1 X150.000 Y150.000
G1 X150.000 Y150.000
G1 X150.000 Y150.000
G1 X150.000 Y150.000
G1 X150.000 Y150.000
G1 X150.000 Y150.000
G1 X150.000 Y150.000
G1 X150.000 Y150.000
G1 X150.000 Y150.000
G1 X150.000 Y150.000
G1 X150.000 Y150.000
G1 X150.000 Y150.000
G1 X150.000 Y150.000
G1 X150.000 Y150.000
G1 X150.000 Y150.000
G1 X150.000 Y150.000
G1 X150.000 Y150.000
G1 X150.000 Y150.000
G1 X150.000 Y150.000
G1 X150.000 Y150.000
G1 X150.000 Y150.000
G1 X150.000 Y150.000
G1 X150.000 Y150.000
G1 X150.000 Y150.000
G1 X150.000 Y150.000
G1 X150.000 Y150.000
G1 X150.000 Y150.000
G1 X150.000 Y150.000
G1 X150.000 Y150.000
G1 X150.000 Y150.000
G1 X150.000 Y150.000
G1 X150.000 Y150.000
G1 X150.000 Y150.000
G1 X150.000 Y150.000
G1 X150.000 Y150.000
G1 X150.000 Y150.000
G1 X150.000 Y150.000
G1 X150.000 Y150.000
G1 X150.000 Y150.000
G1 X150.000 Y150.000
G1 X150.000 Y150.000
G1 X150.000 Y150.000
G1 X150.000 Y150.000
G1 X150.000 Y150.000
G1 X150.000 Y150.000
G1 X150.000 Y150.000
G1 X150.000 Y150.000
G1 X150.000 Y150.000
G1 X150.000 Y150.000
G1 X150.000 Y150.000
G1 X150.000 Y150.000
G1 X150.000 Y150.000
G1 X150.000 Y150.000
G1 X150.000 Y150.000
G1 X150.000 Y150.000
G1 X150.000 Y150.000
G1 X150.000 Y150.000
G1 X150.000 Y150.000
G1 X150.000 Y150.000
G1 X150.000 Y150.000
G1 X150.000 Y150.000
G1 X150.000 Y150.000
G1 X150.000 Y150.000
G1 X150.000 Y150.000
G1 X150.000 Y150.000
G1 X150.000 Y150.000
G1 X150.000 Y150.000
G1 X150.000 Y150.000
G1 X150.000 Y150.000
G1 X150.000 Y150.000
G1 X150.000 Y150.000
G1 X150.000 Y150.000
G1 X150.000 Y150.000
G1 X150.000 Y150.000
G1 X150.000 Y150.000
G1 X150.000 Y150.000
G1 X150.000 Y150.000
G1 X150.000 Y150.000
G0 Z4.600 F3000
M400
M204 P12000 T12000
G1 F12000
G0 X150.000 Y150.000 Z4.600
M400
M204 P200 T200
G1 F400
G1 Z0.000 F2500
; --- Backlash X fix: 0.500mm ---
G0 X150.000 Y150.000 F200
G1 X150.000 Y150.000
G1 X150.000 Y150.000
G1 X150.000 Y150.000
G1 X150.000 Y150.000
G1 X150.000 Y150.000
G1 X150.000 Y150.000
G1 X150.000 Y150.000
G1 X150.000 Y150.000
G1 X150.000 Y150.000
G1 X150.000 Y150.000
G1 X150.000 Y150.000
G1 X150.000 Y150.000
G1 X150.000 Y150.000
G1 X150.000 Y150.000
G1 X150.000 Y150.000
G1 X150.000 Y150.000
G1 X150.000 Y150.000
G1 X150.000 Y150.000
G1 X150.000 Y150.000
G1 X150.000 Y150.000
G1 X150.000 Y150.000
G1 X150.000 Y150.000
G1 X150.000 Y150.000
G1 X150.000 Y150.000
G1 X150.000 Y150.000
G1 X150.000 Y150.000
G1 X150.000 Y150.000
G1 X150.000 Y150.000
G1 X150.000 Y150.000
G1 X150.000 Y150.000
G1 X150.000 Y150.000
G1 X150.000 Y150.000
G1 X150.000 Y150.000
G1 X150.000 Y150.000
G1 X150.000 Y150.000
G1 X150.000 Y150.000
G1 X150.000 Y150.000
G1 X150.000 Y150.000
G1 X150.000 Y150.000
G1 X150.000 Y150.000
G1 X150.000 Y150.000
G1 X150.000 Y150.000
G1 X150.000 Y150.000
G1 X150.000 Y150.000
G1 X150.000 Y150.000
G1 X150.000 Y150.000
G1 X150.000 Y150.000
G1 X150.000 Y150.000
G1 X150.000 Y150.000
G1 X150.000 Y150.000
G1 X150.000 Y150.000
G1 X150.000 Y150.000
G1 X150.000 Y150.000
G1 X150.000 Y150.000
G1 X150.000 Y150.000
G1 X150.000 Y150.000
G1 X150.000 Y150.000
G1 X150.000 Y150.000
G1 X150.000 Y150.000
G1 X150.000 Y150.000
G1 X150.000 Y150.000
G1 X150.000 Y150.000
G1 X150.000 Y150.000
G1 X150.000 Y150.000
G1 X150.000 Y150.000
G1 X150.000 Y150.000
G1 X150.000 Y150.000
G1 X150.000 Y150.000
G1 X150.000 Y150.000
G1 X150.000 Y150.000
G1 X150.000 Y150.000
G1 X150.000 Y150.000
G1 X150.000 Y150.000
G1 X150.000 Y150.000
G1 X150.000 Y150.000
G1 X150.000 Y150.000
G1 X150.000 Y150.000
G1 X150.000 Y150.000
G1 X150.000 Y150.000
G1 X150.000 Y150.000
G1 X150.000 Y150.000
G0 Z4.600 F3000
M400
M204 P12000 T12000
G1 F12000
G0 X150.000 Y150.000 Z4.600
M400
M204 P200 T200
G1 F400
G1 Z0.000 F2500
; --- Backlash X fix: -0.500mm ---
G0 X150.000 Y150.000 F200
G1 X150.000 Y150.000
G1 X150.000 Y150.000
G1 X150.000 Y150.000
G1 X150.000 Y150.000
G1 X150.000 Y150.000
G1 X150.000 Y150.000
G1 X150.000 Y150.000
G1 X150.000 Y150.000
G1 X150.000 Y150.000
G1 X150.000 Y150.000
G1 X150.000 Y150.000
G1 X150.000 Y150.000
G1 X150.000 Y150.000
G1 X150.000 Y150.000
G1 X150.000 Y150.000
G1 X150.000 Y150.000
G1 X150.000 Y150.000
G1 X150.000 Y150.000
G1 X150.000 Y150.000
G1 X150.000 Y150.000
G1 X150.000 Y150.000
G1 X150.000 Y150.000
G1 X150.000 Y150.000
G1 X150.000 Y150.000
G1 X150.000 Y150.000
G1 X150.000 Y150.000
G1 X150.000 Y150.000
G1 X150.000 Y150.000
G1 X150.000 Y150.000
G1 X150.000 Y150.000
G1 X150.000 Y150.000
G1 X150.000 Y150.000
G1 X150.000 Y150.000
G1 X150.000 Y150.000
G1 X150.000 Y150.000
G1 X150.000 Y150.000
G1 X150.000 Y150.000
G1 X150.000 Y150.000
G1 X150.000 Y150.000
G1 X150.000 Y150.000
G1 X150.000 Y150.000
G1 X150.000 Y150.000
G1 X150.000 Y150.000
G1 X150.000 Y150.000
G1 X150.000 Y150.000
G1 X150.000 Y150.000
G1 X150.000 Y150.000
G1 X150.000 Y150.000
G1 X150.000 Y150.000
G1 X150.000 Y150.000
G1 X150.000 Y150.000
G1 X150.000 Y150.000
G1 X150.000 Y150.000
G1 X150.000 Y150.000
G1 X150.000 Y150.000
G1 X150.000 Y150.000
G1 X150.000 Y150.000
G1 X150.000 Y150.000
G1 X150.000 Y150.000
G1 X150.000 Y150.000
G1 X150.000 Y150.000
G1 X150.000 Y150.000
G1 X150.000 Y150.000
G0 Z4.600 F3000

; --- CIKEL NAMAKANJA ---
G0 Z4.600 F3000
M400
M204 P12000 T12000
G1 F12000
G0 X81.851 Y0.000 Z31.000
G1 Z0.000 F3000
G1 X81.851 Y0.000 F2500
G1 X81.851 Y12.500 F2500
G1 X56.851 Y0.000 F2500
G1 X81.851 Y0.000 F2500
G0 Z16.000 F3000
G0 X106.035 Y57.421
G0 Z31.000 F3000
G0 X150.000 Y150.000 Z4.600
M400
M204 P200 T200
G1 F400
G1 Z0.000 F2500
G1 X150.000 Y150.000
G1 X150.000 Y150.000
G1 X150.000 Y150.000
G1 X150.000 Y150.000
G1 X150.000 Y150.000
G1 X150.000 Y150.000
G1 X150.000 Y150.000
G1 X150.000 Y150.000
G1 X150.000 Y150.000
G1 X150.000 Y150.000
G1 X150.000 Y150.000
G1 X150.000 Y150.000
G1 X150.000 Y150.000
G1 X150.000 Y150.000
G1 X150.000 Y150.000
G1 X150.000 Y150.000
G1 X150.000 Y150.000
G1 X150.000 Y150.000
G1 X150.000 Y150.000
G0 Z4.600 F3000
M400
M204 P12000 T12000
G1 F12000
G0 X150.000 Y150.000 Z4.600
M400
M204 P200 T200
G1 F400
G1 Z0.000 F2500
; --- Backlash X fix: 0.500mm ---
G0 X150.000 Y150.000 F200
G1 X150.000 Y150.000
G1 X150.000 Y150.000
G1 X150.000 Y150.000
G1 X150.000 Y150.000
G1 X150.000 Y150.000
G1 X150.000 Y150.000
G1 X150.000 Y150.000
G1 X150.000 Y150.000
G1 X150.000 Y150.000
G1 X150.000 Y150.000
G1 X150.000 Y150.000
G1 X150.000 Y150.000
G1 X150.000 Y150.000
G1 X150.000 Y150.000
G1 X150.000 Y150.000
G1 X150.000 Y150.000
G1 X150.000 Y150.000
G1 X150.000 Y150.000
G1 X150.000 Y150.000
G1 X150.000 Y150.000
G1 X150.000 Y150.000
G1 X150.000 Y150.000
G1 X150.000 Y150.000
G1 X150.000 Y150.000
G1 X150.000 Y150.000
G1 X150.000 Y150.000
G1 X150.000 Y150.000
G1 X150.000 Y150.000
G1 X150.000 Y150.000
G1 X150.000 Y150.000
G1 X150.000 Y150.000
G1 X150.000 Y150.000
G1 X150.000 Y150.000
G1 X150.000 Y150.000
G1 X150.000 Y150.000
G1 X150.000 Y150.000
G1 X150.000 Y150.000
G1 X150.000 Y150.000
G1 X150.000 Y150.000
G1 X150.000 Y150.000
G1 X150.000 Y150.000
G1 X150.000 Y150.000
G1 X150.000 Y150.000
G1 X150.000 Y150.000
G1 X150.000 Y150.000
G1 X150.000 Y150.000
G1 X150.000 Y150.000
G1 X150.000 Y150.000
G1 X150.000 Y150.000
G1 X150.000 Y150.000
G1 X150.000 Y150.000
G1 X150.000 Y150.000
G1 X150.000 Y150.000
G1 X150.000 Y150.000
G1 X150.000 Y150.000
G1 X150.000 Y150.000
G1 X150.000 Y150.000
G1 X150.000 Y150.000
G1 X150.000 Y150.000
G1 X150.000 Y150.000
G1 X150.000 Y150.000
G1 X150.000 Y150.000
G1 X150.000 Y150.000
G1 X150.000 Y150.000
G1 X150.000 Y150.000
G1 X150.000 Y150.000
G1 X150.000 Y150.000
G1 X150.000 Y150.000
G1 X150.000 Y150.000
G1 X150.000 Y150.000
G1 X150.000 Y150.000
G1 X150.000 Y150.000
G1 X150.000 Y150.000
G1 X150.000 Y150.000
G1 X150.000 Y150.000
G1 X150.000 Y150.000
G1 X150.000 Y150.000
G1 X150.000 Y150.000
G1 X150.000 Y150.000
G1 X150.000 Y150.000
G1 X150.000 Y150.000
G1 X150.000 Y150.000
G0 Z4.600 F3000
M400
M204 P12000 T12000
G1 F12000
G0 X150.000 Y150.000 Z4.600
M400
M204 P200 T200
G1 F400
G1 Z0.000 F2500
; --- Backlash X fix: -0.500mm ---
G0 X150.000 Y150.000 F200
G1 X150.000 Y150.000
G1 X150.000 Y150.000
G1 X150.000 Y150.000
G1 X150.000 Y150.000
G1 X150.000 Y150.000
G1 X150.000 Y150.000
G1 X150.000 Y150.000
G1 X150.000 Y150.000
G1 X150.000 Y150.000
G1 X150.000 Y150.000
G1 X150.000 Y150.000
G1 X150.000 Y150.000
G1 X150.000 Y150.000
G1 X150.000 Y150.000
G1 X150.000 Y150.000
G1 X150.000 Y150.000
G1 X150.000 Y150.000
G1 X150.000 Y150.000
G1 X150.000 Y150.000
G1 X150.000 Y150.000
G1 X150.000 Y150.000
G1 X150.000 Y150.000
G1 X150.000 Y150.000
G1 X150.000 Y150.000
G1 X150.000 Y150.000
G1 X150.000 Y150.000
G1 X150.000 Y150.000
G1 X150.000 Y150.000
G1 X150.000 Y150.000
G1 X150.000 Y150.000
G1 X150.000 Y150.000
G1 X150.000 Y150.000
G1 X150.000 Y150.000
G1 X150.000 Y150.000
G1 X150.000 Y150.000
G1 X150.000 Y150.000
G1 X150.000 Y150.000
G1 X150.000 Y150.000
G1 X150.000 Y150.000
G1 X150.000 Y150.000
G1 X150.000 Y150.000
G1 X150.000 Y150.000
G1 X150.000 Y150.000
G1 X150.000 Y150.000
G1 X150.000 Y150.000
G1 X150.000 Y150.000
G1 X150.000 Y150.000
G1 X150.000 Y150.000
G1 X150.000 Y150.000
G1 X150.000 Y150.000
G1 X150.000 Y150.000
G1 X150.000 Y150.000
G1 X150.000 Y150.000
G1 X150.000 Y150.000
G1 X150.000 Y150.000
G1 X150.000 Y150.000
G1 X150.000 Y150.000
G1 X150.000 Y150.000
G1 X150.000 Y150.000
G1 X150.000 Y150.000
G1 X150.000 Y150.000
G1 X150.000 Y150.000
G1 X150.000 Y150.000
G1 X150.000 Y150.000
G1 X150.000 Y150.000
G1 X150.000 Y150.000
G1 X150.000 Y150.000
G1 X150.000 Y150.000
G1 X150.000 Y150.000
G1 X150.000 Y150.000
G1 X150.000 Y150.000
G1 X150.000 Y150.000
G1 X150.000 Y150.000
G1 X150.000 Y150.000
G1 X150.000 Y150.000
G1 X150.000 Y150.000
G1 X150.000 Y150.000
G1 X150.000 Y150.000
G1 X150.000 Y150.000
G1 X150.000 Y150.000
G1 X150.000 Y150.000
G1 X150.000 Y150.000
G0 Z4.600 F3000
M400
M204 P12000 T12000
G1 F12000
G0 X150.000 Y150.000 Z4.600
M400
M204 P200 T200
G1 F400
G1 Z0.000 F2500
; --- Backlash X fix: 0.500mm ---
G0 X150.000 Y150.000 F200
G1 X150.000 Y150.000
G1 X150.000 Y150.000
G1 X150.000 Y150.000
G1 X150.000 Y150.000
G1 X150.000 Y150.000
G1 X150.000 Y150.000
G1 X150.000 Y150.000
G1 X150.000 Y150.000
G1 X150.000 Y150.000
G1 X150.000 Y150.000
G1 X150.000 Y150.000
G1 X150.000 Y150.000
G1 X150.000 Y150.000
G1 X150.000 Y150.000
G1 X150.000 Y150.000
G1 X150.000 Y150.000
G1 X150.000 Y150.000
G1 X150.000 Y150.000
G1 X150.000 Y150.000
G1 X150.000 Y150.000
G1 X150.000 Y150.000
G1 X150.000 Y150.000
G1 X150.000 Y150.000
G1 X150.000 Y150.000
G1 X150.000 Y150.000
G1 X150.000 Y150.000
G1 X150.000 Y150.000
G1 X150.000 Y150.000
G1 X150.000 Y150.000
G1 X150.000 Y150.000
G1 X150.000 Y150.000
G1 X150.000 Y150.000
G1 X150.000 Y150.000
G1 X150.000 Y150.000
G1 X150.000 Y150.000
G1 X150.000 Y150.000
G1 X150.000 Y150.000
G1 X150.000 Y150.000
G1 X150.000 Y150.000
G1 X150.000 Y150.000
G1 X150.000 Y150.000
G1 X150.000 Y150.000
G1 X150.000 Y150.000
G1 X150.000 Y150.000
G1 X150.000 Y150.000
G1 X150.000 Y150.000
G1 X150.000 Y150.000
G1 X150.000 Y150.000
G1 X150.000 Y150.000
G1 X150.000 Y150.000
G1 X150.000 Y150.000
G1 X150.000 Y150.000
G1 X150.000 Y150.000
G1 X150.000 Y150.000
G1 X150.000 Y150.000
G1 X150.000 Y150.000
G1 X150.000 Y150.000
G1 X150.000 Y150.000
G1 X150.000 Y150.000
G1 X150.000 Y150.000
G1 X150.000 Y150.000
G1 X150.000 Y150.000
G1 X150.000 Y150.000
G1 X150.000 Y150.000
G1 X150.000 Y150.000
G1 X150.000 Y150.000
G1 X150.000 Y150.000
G1 X150.000 Y150.000
G1 X150.000 Y150.000
G1 X150.000 Y150.000
G1 X150.000 Y150.000
G1 X150.000 Y150.000
G1 X150.000 Y150.000
G1 X150.000 Y150.000
G1 X150.000 Y150.000
G1 X150.000 Y150.000
G0 Z4.600 F3000

; --- CIKEL NAMAKANJA ---
G0 Z4.600 F3000
M400
M204 P12000 T12000
G1 F12000
G0 X60.869 Y18.019 Z31.000
G1 Z0.000 F3000
G1 X60.869 Y18.019 F2500
G1 X60.869 Y30.519 F2500
G1 X35.869 Y18.019 F2500
G1 X60.869 Y0.000 F2500
G0 Z16.000 F3000
G0 X111.811 Y52.928
G0 Z31.000 F3000
G0 X150.000 Y150.000 Z4.600
M400
M204 P200 T200
G1 F400
G1 Z0.000 F2500
G1 X150.000 Y150.000
G1 X150.000 Y150.000
G1 X150.000 Y150.000
G1 X150.000 Y150.000
G1 X150.000 Y150.000
G1 X150.000 Y150.000
G1 X150.000 Y150.000
G1 X150.000 Y150.000
G0 Z4.600 F3000
M400
M204 P12000 T12000
G1 F12000
G0 X150.000 Y150.000 Z4.600
M400
M204 P200 T200
G1 F400
G1 Z0.000 F2500
; --- Backlash X fix: -0.500mm ---
G0 X150.000 Y150.000 F200
G1 X150.000 Y150.000
G1 X150.000 Y150.000
G1 X150.000 Y150.000
G1 X150.000 Y150.000
G1 X150.000 Y150.000
G1 X150.000 Y150.000
G1 X150.000 Y150.000
G1 X150.000 Y150.000
G1 X150.000 Y150.000
G1 X150.000 Y150.000
G1 X150.000 Y150.000
G1 X150.000 Y150.000
G1 X150.000 Y150.000
G1 X150.000 Y150.000
G1 X150.000 Y150.000
G1 X150.000 Y150.000
G1 X150.000 Y150.000
G1 X150.000 Y150.000
G1 X150.000 Y150.000
G1 X150.000 Y150.000
G1 X150.000 Y150.000
G1 X150.000 Y150.000
G1 X150.000 Y150.000
G1 X150.000 Y150.000
G1 X150.000 Y150.000
G1 X150.000 Y150.000
G1 X150.000 Y150.000
G1 X150.000 Y150.000
G1 X150.000 Y150.000
G1 X150.000 Y150.000
G1 X150.000 Y150.000
G1 X150.000 Y150.000
G1 X150.000 Y150.000
G1 X150.000 Y150.000
G1 X150.000 Y150.000
G1 X150.000 Y150.000
G1 X150.000 Y150.000
G1 X150.000 Y150.000
G1 X150.000 Y150.000
G1 X150.000 Y150.000
G1 X150.000 Y150.000
G1 X150.000 Y150.000
G1 X150.000 Y150.000
G1 X150.000 Y150.000
G1 X150.000 Y150.000
G1 X150.000 Y150.000
G1 X150.000 Y150.000
G1 X150.000 Y150.000
G1 X150.000 Y150.000
G1 X150.000 Y150.000
G1 X150.000 Y150.000
G1 X150.000 Y150.000
G1 X150.000 Y150.000
G1 X150.000 Y150.000
G1 X150.000 Y150.000
G1 X150.000 Y150.000
G1 X150.000 Y150.000
G1 X150.000 Y150.000
G1 X150.000 Y150.000
G1 X150.000 Y150.000
G1 X150.000 Y150.000
G1 X150.000 Y150.000
G1 X150.000 Y150.000
G1 X150.000 Y150.000
G1 X150.000 Y150.000
G1 X150.000 Y150.000
G1 X150.000 Y150.000
G1 X150.000 Y150.000
G1 X150.000 Y150.000
G1 X150.000 Y150.000
G1 X150.000 Y150.000
G1 X150.000 Y150.000
G1 X150.000 Y150.000
G1 X150.000 Y150.000
G1 X150.000 Y150.000
G1 X150.000 Y150.000
G1 X150.000 Y150.000
G1 X150.000 Y150.000
G1 X150.000 Y150.000
G1 X150.000 Y150.000
G1 X150.000 Y150.000
G1 X150.000 Y150.000
G1 X150.000 Y150.000
G1 X150.000 Y150.000
G0 Z4.600 F3000
M400
M204 P12000 T12000
G1 F12000
G0 X150.000 Y150.000 Z4.600
M400
M204 P200 T200
G1 F400
G1 Z0.000 F2500
; --- Backlash X fix: 0.500mm ---
G0 X150.000 Y150.000 F200
G1 X150.000 Y150.000
G1 X150.000 Y150.000
G1 X150.000 Y150.000
G1 X150.000 Y150.000
G1 X150.000 Y150.000
G1 X150.000 Y150.000
G1 X150.000 Y150.000
G1 X150.000 Y150.000
G1 X150.000 Y150.000
G1 X150.000 Y150.000
G1 X150.000 Y150.000
G1 X150.000 Y150.000
G1 X150.000 Y150.000
G1 X150.000 Y150.000
G1 X150.000 Y150.000
G1 X150.000 Y150.000
G1 X150.000 Y150.000
G1 X150.000 Y150.000
G1 X150.000 Y150.000
G1 X150.000 Y150.000
G1 X150.000 Y150.000
G1 X150.000 Y150.000
G1 X150.000 Y150.000
G1 X150.000 Y150.000
G1 X150.000 Y150.000
G1 X150.000 Y150.000
G1 X150.000 Y150.000
G1 X150.000 Y150.000
G1 X150.000 Y150.000
G1 X150.000 Y150.000
G1 X150.000 Y150.000
G1 X150.000 Y150.000
G1 X150.000 Y150.000
G1 X150.000 Y150.000
G1 X150.000 Y150.000
G1 X150.000 Y150.000
G1 X150.000 Y150.000
G1 X150.000 Y150.000
G1 X150.000 Y150.000
G1 X150.000 Y150.000
G1 X150.000 Y150.000
G1 X150.000 Y150.000
G1 X150.000 Y150.000
G1 X150.000 Y150.000
G1 X150.000 Y150.000
G1 X150.000 Y150.000
G1 X150.000 Y150.000
G1 X150.000 Y150.000
G1 X150.000 Y150.000
G1 X150.000 Y150.000
G1 X150.000 Y150.000
G1 X150.000 Y150.000
G1 X150.000 Y150.000
G1 X150.000 Y150.000
G1 X150.000 Y150.000
G1 X150.000 Y150.000
G1 X150.000 Y150.000
G1 X150.000 Y150.000
G1 X150.000 Y150.000
G1 X150.000 Y150.000
G1 X150.000 Y150.000
G1 X150.000 Y150.000
G1 X150.000 Y150.000
G1 X150.000 Y150.000
G1 X150.000 Y150.000
G1 X150.000 Y150.000
G1 X150.000 Y150.000
G1 X150.000 Y150.000
G1 X150.000 Y150.000
G1 X150.000 Y150.000
G1 X150.000 Y150.000
G1 X150.000 Y150.000
G1 X150.000 Y150.000
G1 X150.000 Y150.000
G1 X150.000 Y150.000
G1 X150.000 Y150.000
G1 X150.000 Y150.000
G1 X150.000 Y150.000
G1 X150.000 Y150.000
G1 X150.000 Y150.000
G1 X150.000 Y150.000
G1 X150.000 Y150.000
G1 X150.000 Y150.000
G1 X150.000 Y150.000
G1 X150.000 Y150.000
G0 Z4.600 F3000
M400
M204 P12000 T12000
G1 F12000
G0 X150.000 Y150.000 Z4.600
M400
M204 P200 T200
G1 F400
G1 Z0.000 F2500
; --- Backlash X fix: -0.500mm ---
G0 X150.000 Y150.000 F200
G1 X150.000 Y150.000
G1 X150.000 Y150.000
G1 X150.000 Y150.000
G1 X150.000 Y150.000
G1 X150.000 Y150.000
G1 X150.000 Y150.000
G1 X150.000 Y150.000
G1 X150.000 Y150.000
G1 X150.000 Y150.000
G1 X150.000 Y150.000
G1 X150.000 Y150.000
G1 X150.000 Y150.000
G1 X150.000 Y150.000
G1 X150.000 Y150.000
G1 X150.000 Y150.000
G1 X150.000 Y150.000
G1 X150.000 Y150.000
G1 X150.000 Y150.000
G1 X150.000 Y150.000
G1 X150.000 Y150.000
G1 X150.000 Y150.000
G1 X150.000 Y150.000
G1 X150.000 Y150.000
G1 X150.000 Y150.000
G1 X150.000 Y150.000
G1 X150.000 Y150.000
G1 X150.000 Y150.000
G1 X150.000 Y150.000
G1 X150.000 Y150.000
G1 X150.000 Y150.000
G1 X150.000 Y150.000
G1 X150.000 Y150.000
G1 X150.000 Y150.000
G1 X150.000 Y150.000
G1 X150.000 Y150.000
G1 X150.000 Y150.000
G1 X150.000 Y150.000
G1 X150.000 Y150.000
G1 X150.000 Y150.000
G1 X150.000 Y150.000
G1 X150.000 Y150.000
G1 X150.000 Y150.000
G1 X150.000 Y150.000
G1 X150.000 Y150.000
G1 X150.000 Y150.000
G1 X150.000 Y150.000
G1 X150.000 Y150.000
G1 X150.000 Y150.000
G1 X150.000 Y150.000
G1 X150.000 Y150.000
G1 X150.000 Y150.000
G1 X150.000 Y150.000
G1 X150.000 Y150.000
G1 X150.000 Y150.000
G1 X150.000 Y150.000
G1 X150.000 Y150.000
G1 X150.000 Y150.000
G1 X150.000 Y150.000
G1 X150.000 Y150.000
G1 X150.000 Y150.000
G1 X150.000 Y150.000
G1 X150.000 Y150.000
G1 X150.000 Y150.000
G1 X150.000 Y150.000
G1 X150.000 Y150.000
G1 X150.000 Y150.000
G1 X150.000 Y150.000
G1 X150.000 Y150.000
G1 X150.000 Y150.000
G1 X150.000 Y150.000
G1 X150.000 Y150.000
G1 X150.000 Y150.000
G1 X150.000 Y150.000
G1 X150.000 Y150.000
G1 X150.000 Y150.000
G1 X150.000 Y150.000
G1 X150.000 Y150.000
G1 X150.000 Y150.000
G1 X150.000 Y150.000
G1 X150.000 Y150.000
G1 X150.000 Y150.000
G1 X150.000 Y150.000
G1 X150.000 Y150.000
G1 X150.000 Y150.000
G1 X150.000 Y150.000
G1 X150.000 Y150.000
G0 Z4.600 F3000
M400
M204 P12000 T12000
G1 F12000
G0 X150.000 Y150.000 Z4.600
M400
M204 P200 T200
G1 F400
G1 Z0.000 F2500
; --- Backlash X fix: 0.500mm ---
G0 X150.000 Y150.000 F200
G1 X150.000 Y150.000
G1 X150.000 Y150.000
G1 X150.000 Y150.000
G1 X150.000 Y150.000
G0 Z4.600 F3000

; --- CIKEL NAMAKANJA ---
G0 Z4.600 F3000
M400
M204 P12000 T12000
G1 F12000
G0 X81.392 Y15.223 Z31.000
G1 Z0.000 F3000
G1 X81.392 Y15.223 F2500
G1 X81.392 Y27.723 F2500
G1 X56.392 Y15.223 F2500
G1 X81.392 Y0.000 F2500
G0 Z16.000 F3000
G0 X104.905 Y58.193
G0 Z31.000 F3000
G0 X150.000 Y150.000 Z4.600
M400
M204 P200 T200
G1 F400
G1 Z0.000 F2500
G1 X150.000 Y150.000
G1 X150.000 Y150.000
G1 X150.000 Y150.000
G1 X150.000 Y150.000
G1 X150.000 Y150.000
G1 X150.000 Y150.000
G1 X150.000 Y150.000
G1 X150.000 Y150.000
G1 X150.000 Y150.000
G1 X150.000 Y150.000
G1 X150.000 Y150.000
G1 X150.000 Y150.000
G1 X150.000 Y150.000
G1 X150.000 Y150.000
G1 X150.000 Y150.000
G1 X150.000 Y150.000
G1 X150.000 Y150.000
G1 X150.000 Y150.000
G1 X150.000 Y150.000
G1 X150.000 Y150.000
G1 X150.000 Y150.000
G1 X150.000 Y150.000
G1 X150.000 Y150.000
G1 X150.000 Y150.000
G1 X150.000 Y150.000
G1 X150.000 Y150.000
G1 X150.000 Y150.000
G1 X150.000 Y150.000
G1 X150.000 Y150.000
G1 X150.000 Y150.000
G1 X150.000 Y150.000
G1 X150.000 Y150.000
G1 X150.000 Y150.000
G1 X150.000 Y150.000
G1 X150.000 Y150.000
G1 X150.000 Y150.000
G1 X150.000 Y150.000
G1 X150.000 Y150.000
G1 X150.000 Y150.000
G1 X150.000 Y150.000
G1 X150.000 Y150.000
G1 X150.000 Y150.000
G1 X150.000 Y150.000
G1 X150.000 Y150.000
G1 X150.000 Y150.000
G1 X150.000 Y150.000
G1 X150.000 Y150.000
G1 X150.000 Y150.000
G1 X150.000 Y150.000
G1 X150.000 Y150.000
G1 X150.000 Y150.000
G1 X150.000 Y150.000
G1 X150.000 Y150.000
G1 X150.000 Y150.000
G1 X150.000 Y150.000
G1 X150.000 Y150.000
G1 X150.000 Y150.000
G1 X150.000 Y150.000
G1 X150.000 Y150.000
G1 X150.000 Y150.000
G1 X150.000 Y150.000
G1 X150.000 Y150.000
G1 X150.000 Y150.000
G1 X150.000 Y150.000
G1 X150.000 Y150.000
G1 X150.000 Y150.000
G1 X150.000 Y150.000
G1 X150.000 Y150.000
G1 X150.000 Y150.000
G1 X150.000 Y150.000
G1 X150.000 Y150.000
G1 X150.000 Y150.000
G1 X150.000 Y150.000
G1 X150.000 Y150.000
G1 X150.000 Y150.000
G1 X150.000 Y150.000
G1 X150.000 Y150.000
G1 X150.000 Y150.000
G1 X150.000 Y150.000
G1 X150.000 Y150.000
G1 X150.000 Y150.000
G1 X150.000 Y150.000
G0 Z4.600 F3000
M400
M204 P12000 T12000
G1 F12000
G0 X150.000 Y150.000 Z4.600
M400
M204 P200 T200
G1 F400
G1 Z0.000 F2500
; --- Backlash X fix: -0.500mm ---
G0 X150.000 Y150.000 F200
G1 X150.000 Y150.000
G1 X150.000 Y150.000
G1 X150.000 Y150.000
G1 X150.000 Y150.000
G1 X150.000 Y150.000
G1 X150.000 Y150.000
G1 X150.000 Y150.000
G1 X150.000 Y150.000
G1 X150.000 Y150.000
G1 X150.000 Y150.000
G1 X150.000 Y150.000
G1 X150.000 Y150.000
G1 X150.000 Y150.000
G1 X150.000 Y150.000
G1 X150.000 Y150.000
G1 X150.000 Y150.000
G1 X150.000 Y150.000
G1 X150.000 Y150.000
G1 X150.000 Y150.000
G1 X150.000 Y150.000
G1 X150.000 Y150.000
G1 X150.000 Y150.000
G1 X150.000 Y150.000
G1 X150.000 Y150.000
G1 X150.000 Y150.000
G1 X150.000 Y150.000
G1 X150.000 Y150.000
G1 X150.000 Y150.000
G1 X150.000 Y150.000
G1 X150.000 Y150.000
G1 X150.000 Y150.000
G1 X150.000 Y150.000
G1 X150.000 Y150.000
G1 X150.000 Y150.000
G1 X150.000 Y150.000
G1 X150.000 Y150.000
G1 X150.000 Y150.000
G1 X150.000 Y150.000
G1 X150.000 Y150.000
G1 X150.000 Y150.000
G1 X150.000 Y150.000
G1 X150.000 Y150.000
G1 X150.000 Y150.000
G1 X150.000 Y150.000
G1 X150.000 Y150.000
G1 X150.000 Y150.000
G1 X150.000 Y150.000
G1 X150.000 Y150.000
G1 X150.000 Y150.000
G1 X150.000 Y150.000
G1 X150.000 Y150.000
G1 X150.000 Y150.000
G1 X150.000 Y150.000
G1 X150.000 Y150.000
G1 X150.000 Y150.000
G1 X150.000 Y150.000
G1 X150.000 Y150.000
G1 X150.000 Y150.000
G1 X150.000 Y150.000
G1 X150.000 Y150.000
G1 X150.000 Y150.000
G1 X150.000 Y150.000
G1 X150.000 Y150.000
G1 X150.000 Y150.000
G1 X150.000 Y150.000
G1 X150.000 Y150.000
G1 X150.000 Y150.000
G1 X150.000 Y150.000
G1 X150.000 Y150.000
G1 X150.000 Y150.000
G1 X150.000 Y150.000
G1 X150.000 Y150.000
G1 X150.000 Y150.000
G1 X150.000 Y150.000
G1 X150.000 Y150.000
G1 X150.000 Y150.000
G1 X150.000 Y150.000
G1 X150.000 Y150.000
G1 X150.000 Y150.000
G1 X150.000 Y150.000
G1 X150.000 Y150.000
G1 X150.000 Y150.000
G1 X150.000 Y150.000
G1 X150.000 Y150.000
G1 X150.000 Y150.000
G1 X150.000 Y150.000
G0 Z4.600 F3000
M400
M204 P12000 T12000
G1 F12000
G0 X150.000 Y150.000 Z4.600
M400
M204 P200 T200
G1 F400
G1 Z0.000 F2500
; --- Backlash X fix: 0.500mm ---
G0 X150.000 Y150.000 F200
G1 X150.000 Y150.000
G1 X150.000 Y150.000
G1 X150.000 Y150.000
G1 X150.000 Y150.000
G1 X150.000 Y150.000
G1 X150.000 Y150.000
G1 X150.000 Y150.000
G1 X150.000 Y150.000
G1 X150.000 Y150.000
G1 X150.000 Y150.000
G1 X150.000 Y150.000
G1 X150.000 Y150.000
G1 X150.000 Y150.000
G1 X150.000 Y150.000
G1 X150.000 Y150.000
G1 X150.000 Y150.000
G1 X150.000 Y150.000
G1 X150.000 Y150.000
G1 X150.000 Y150.000
G1 X150.000 Y150.000
G1 X150.000 Y150.000
G1 X150.000 Y150.000
G1 X150.000 Y150.000
G1 X150.000 Y150.000
G1 X150.000 Y150.000
G1 X150.000 Y150.000
G1 X150.000 Y150.000
G1 X150.000 Y150.000
G1 X150.000 Y150.000
G1 X150.000 Y150.000
G1 X150.000 Y150.000
G1 X150.000 Y150.000
G1 X150.000 Y150.000
G1 X150.000 Y150.000
G1 X150.000 Y150.000
G1 X150.000 Y150.000
G1 X150.000 Y150.000
G1 X150.000 Y150.000
G1 X150.000 Y150.000
G1 X150.000 Y150.000
G1 X150.000 Y150.000
G1 X150.000 Y150.000
G1 X150.000 Y150.000
G1 X150.000 Y150.000
G1 X150.000 Y150.000
G1 X150.000 Y150.000
G1 X150.000 Y150.000
G1 X150.000 Y150.000
G1 X150.000 Y150.000
G1 X150.000 Y150.000
G1 X150.000 Y150.000
G1 X150.000 Y150.000
G1 X150.000 Y150.000
G1 X150.000 Y150.000
G1 X150.000 Y150.000
G1 X150.000 Y150.000
G1 X150.000 Y150.000
G1 X150.000 Y150.000
G1 X150.000 Y150.000
G1 X150.000 Y150.000
G1 X150.000 Y150.000
G1 X150.000 Y150.000
G1 X150.000 Y150.000
G1 X150.000 Y150.000
G1 X150.000 Y150.000
G1 X150.000 Y150.000
G1 X150.000 Y150.000
G1 X150.000 Y150.000
G1 X150.000 Y150.000
G1 X150.000 Y150.000
G1 X150.000 Y150.000
G1 X150.000 Y150.000
G1 X150.000 Y150.000
G1 X150.000 Y150.000
G1 X150.000 Y150.000
G1 X150.000 Y150.000
G1 X150.000 Y150.000
G1 X150.000 Y150.000
G1 X150.000 Y150.000
G1 X150.000 Y150.000
G1 X150.000 Y150.000
G1 X150.000 Y150.000
G1 X150.000 Y150.000
G0 Z4.600 F3000

; --- CIKEL NAMAKANJA ---
G0 Z4.600 F3000
M400
M204 P12000 T12000
G1 F12000
G0 X68.624 Y0.000 Z31.000
G1 Z0.000 F3000
G1 X68.624 Y0.000 F2500
G1 X68.624 Y12.500 F2500
G1 X43.624 Y0.000 F2500
G1 X68.624 Y0.000 F2500
G0 Z16.000 F3000
G0 X112.754 Y52.097
G0 Z31.000 F3000
G0 X150.000 Y150.000 Z4.600
M400
M204 P200 T200
G1 F400
G1 Z0.000 F2500
G1 X150.000 Y150.000
G1 X150.000 Y150.000
G1 X150.000 Y150.000
G0 Z4.600 F3000
M400
M204 P12000 T12000
G1 F12000
G0 X150.000 Y150.000 Z4.600
M400
M204 P200 T200
G1 F400
G1 Z0.000 F2500
; --- Backlash X fix: -0.500mm ---
G0 X150.000 Y150.000 F200
G1 X150.000 Y150.000
G1 X150.000 Y150.000
G1 X150.000 Y150.000
G1 X150.000 Y150.000
G1 X150.000 Y150.000
G1 X150.000 Y150.000
G1 X150.000 Y150.000
G1 X150.000 Y150.000
G1 X150.000 Y150.000
G1 X150.000 Y150.000
G1 X150.000 Y150.000
G1 X150.000 Y150.000
G1 X150.000 Y150.000
G1 X150.000 Y150.000
G1 X150.000 Y150.000
G1 X150.000 Y150.000
G1 X150.000 Y150.000
G1 X150.000 Y150.000
G1 X150.000 Y150.000
G1 X150.000 Y150.000
G1 X150.000 Y150.000
G1 X150.000 Y150.000
G1 X150.000 Y150.000
G1 X150.000 Y150.000
G1 X150.000 Y150.000
G1 X150.000 Y150.000
G1 X150.000 Y150.000
G1 X150.000 Y150.000
G1 X150.000 Y150.000
G1 X150.000 Y150.000
G1 X150.000 Y150.000
G1 X150.000 Y150.000
G1 X150.000 Y150.000
G1 X150.000 Y150.000
G1 X150.000 Y150.000
G1 X150.000 Y150.000
G1 X150.000 Y150.000
G1 X150.000 Y150.000
G1 X150.000 Y150.000
G1 X150.000 Y150.000
G1 X150.000 Y150.000
G1 X150.000 Y150.000
G1 X150.000 Y150.000
G1 X150.000 Y150.000
G1 X150.000 Y150.000
G1 X150.000 Y150.000
G1 X150.000 Y150.000
G1 X150.000 Y150.000
G1 X150.000 Y150.000
G1 X150.000 Y150.000
G1 X150.000 Y150.000
G1 X150.000 Y150.000
G1 X150.000 Y150.000
G1 X150.000 Y150.000
G1 X150.000 Y150.000
G1 X150.000 Y150.000
G1 X150.000 Y150.000
G1 X150.000 Y150.000
G1 X150.000 Y150.000
G1 X150.000 Y150.000
G1 X150.000 Y150.000
G1 X150.000 Y150.000
G1 X150.000 Y150.000
G1 X150.000 Y150.000
G1 X150.000 Y150.000
G1 X150.000 Y150.000
G1 X150.000 Y150.000
G1 X150.000 Y150.000
G1 X150.000 Y150.000
G1 X150.000 Y150.000
G1 X150.000 Y150.000
G1 X150.000 Y150.000
G1 X150.000 Y150.000
G1 X150.000 Y150.000
G1 X150.000 Y150.000
G1 X150.000 Y150.000
G1 X150.000 Y150.000
G1 X150.000 Y150.000
