G90
G21
; === MULTI-COLOR PAINTER GCODE ===
; Generated layers: 1
; Backlash compensation: ON  BX=0.5 BY=1.6
; Working area clamping: ON  X[0–150] Y[0–150]


; ═══════════════════════════════
; LAYER 1: Color 1 — Red
; Infill: concentric (outline only)
; ═══════════════════════════════


; --- CIKEL NAMAKANJA ---
G0 Z4.600 F3000
M400
M204 P12000 T12000
G1 F12000
G0 X79.872 Y0.000 Z31.000
G1 Z0.000 F3000
G1 X79.872 Y0.000 F2500
G1 X79.872 Y2.500 F2500
G1 X74.872 Y0.000 F2500
G1 X79.872 Y0.000 F2500
G0 Z16.000 F3000
G0 X69.750 Y14.524
G0 Z31.000 F3000
G0 X105.500 Y150.000 Z4.600
M400
M204 P12000 T12000
G1 F12000
G0 X105.500 Y150.000 Z4.600
M400
M204 P200 T200
G1 F400
G1 Z0.000 F2500
G1 X106.000 Y150.000
G1 X107.000 Y150.000
G1 X108.000 Y150.000
; --- Backlash Y fix: -1.600mm ---
G0 X108.000 Y150.000 F200
G1 X108.500 Y150.000
G1 X109.000 Y150.000
G1 X110.000 Y150.000
G1 X111.000 Y150.000
G1 X112.000 Y150.000
G1 X113.000 Y150.000
G1 X114.000 Y150.000
G1 X115.000 Y150.000
G1 X116.000 Y150.000
G1 X116.500 Y150.000
G1 X117.000 Y149.900
G1 X118.000 Y149.900
G1 X119.000 Y149.900
G1 X119.500 Y149.400
G1 X120.000 Y148.900
G1 X121.000 Y148.900
G1 X122.000 Y148.900
G1 X123.000 Y148.900
G1 X123.500 Y148.400
G1 X124.000 Y147.900
G1 X125.000 Y147.900
G1 X125.500 Y147.400
G1 X126.000 Y146.900
G1 X127.000 Y146.900
G1 X127.500 Y146.400
G1 X128.000 Y145.900
G1 X129.000 Y145.900
G1 X129.500 Y145.400
G1 X130.000 Y144.900
G1 X130.500 Y144.400
G1 X131.000 Y143.900
G1 X132.000 Y143.900
G1 X132.500 Y143.400
G1 X133.000 Y142.900
G1 X133.500 Y142.400
G1 X134.000 Y141.900
G1 X134.500 Y141.400
G1 X135.000 Y140.900
G1 X136.000 Y140.900
G1 X136.500 Y140.400
G1 X137.000 Y139.900
G1 X137.500 Y139.400
G1 X138.000 Y138.900
G1 X138.500 Y138.400
G1 X139.000 Y137.900
G1 X139.500 Y137.400
G1 X139.500 Y136.400
G1 X140.000 Y135.900
G1 X140.500 Y135.400
G1 X141.000 Y134.900
G1 X141.500 Y134.400
G1 X142.000 Y133.900
G1 X142.500 Y133.400
G1 X143.000 Y132.900
G1 X143.500 Y132.400
G1 X143.500 Y131.400
G1 X144.000 Y130.900
G1 X144.500 Y130.400
G1 X145.000 Y129.900
G1 X145.500 Y129.400
G1 X145.500 Y128.400
G1 X146.000 Y127.900
G1 X146.500 Y127.400
G1 X146.500 Y126.400
G1 X146.500 Y125.400
G1 X147.000 Y124.900
G1 X147.500 Y124.400
G1 X147.500 Y123.400
G1 X148.000 Y122.900
G1 X148.500 Y122.400
G1 X148.500 Y121.400
G1 X148.500 Y120.400
G1 X149.000 Y119.900
G1 X149.500 Y119.400
G1 X149.500 Y118.400
G1 X150.000 Y117.900
G1 X150.000 Y117.400
G1 X150.000 Y116.400
G1 X150.000 Y115.400
G1 X150.000 Y114.400
G1 X150.000 Y113.400
G1 X150.000 Y112.400
G1 X150.000 Y111.400
G1 X150.000 Y110.400
G1 X150.000 Y109.400
G1 X150.000 Y108.400
G1 X150.000 Y107.400
G1 X150.000 Y106.400
G1 X150.000 Y105.400
G1 X150.000 Y104.400
G1 X150.000 Y103.400
G1 X150.000 Y102.400
G1 X150.000 Y101.400
G1 X150.000 Y100.400
G1 X150.000 Y99.400
G1 X150.000 Y98.400
G1 X150.000 Y97.400
; --- Backlash X fix: -0.500mm ---
G0 X150.000 Y97.400 F200
G1 X149.500 Y96.900
G1 X149.000 Y96.400
G1 X149.000 Y95.400
G1 X149.000 Y94.400
G1 X148.500 Y93.900
G1 X148.000 Y93.400
G1 X148.000 Y92.400
G1 X147.500 Y91.900
G1 X147.000 Y91.400
G1 X147.000 Y90.400
G1 X146.500 Y89.900
G1 X146.000 Y89.400
G1 X146.000 Y88.400
G1 X146.000 Y87.400
G1 X145.500 Y86.900
G1 X145.000 Y86.400
G1 X145.000 Y85.400
G1 X144.500 Y84.900
G1 X144.000 Y84.400
G1 X144.000 Y83.400
G1 X143.500 Y82.900
G1 X143.000 Y82.400
G1 X142.500 Y81.900
G1 X142.000 Y81.400
G1 X142.000 Y80.400
G1 X141.500 Y79.900
G1 X140.500 Y79.900
G1 X140.000 Y79.400
G1 X140.000 Y78.400
G1 X139.500 Y77.900
G1 X139.000 Y77.400
G1 X138.500 Y76.900
G1 X138.000 Y76.400
G1 X137.500 Y75.900
G1 X137.000 Y75.400
G1 X136.500 Y74.900
G1 X136.000 Y74.400
G1 X135.500 Y73.900
G1 X135.000 Y73.400
G1 X134.500 Y72.900
G1 X134.000 Y72.400
G1 X133.500 Y71.900
G1 X132.500 Y71.900
G1 X132.000 Y71.400
G1 X131.500 Y70.900
G1 X131.000 Y70.400
G1 X130.500 Y69.900
G1 X130.000 Y69.400
G1 X129.500 Y68.900
G1 X128.500 Y68.900
G1 X128.000 Y68.400
G1 X127.500 Y67.900
G1 X126.500 Y67.900
G1 X125.500 Y67.900
G1 X125.000 Y67.400
G1 X124.500 Y66.900
G1 X123.500 Y66.900
G1 X123.000 Y66.400
G1 X122.500 Y65.900
G1 X121.500 Y65.900
G1 X121.000 Y65.400
G1 X120.500 Y64.900
G1 X119.500 Y64.900
G1 X118.500 Y64.900
G1 X118.000 Y64.400
G1 X117.500 Y63.900
G1 X116.500 Y63.900
G1 X115.500 Y63.900
G1 X114.500 Y63.900
G1 X113.500 Y63.900
G1 X112.500 Y63.900
G1 X111.500 Y63.900
G1 X111.000 Y63.400
G1 X110.500 Y62.900
G1 X109.500 Y62.900
G1 X108.500 Y62.900
G1 X107.500 Y62.900
G1 X106.500 Y62.900
G1 X105.500 Y62.900
G1 X104.500 Y62.900
G1 X103.500 Y62.900
G1 X102.500 Y62.900
; --- Backlash Y fix: 1.600mm ---
G0 X102.500 Y64.500 F200
G1 X102.000 Y65.000
G1 X101.500 Y65.500
G1 X100.500 Y65.500
G1 X99.500 Y65.500
G1 X98.500 Y65.500
G1 X97.500 Y65.500
G1 X96.500 Y65.500
G1 X95.500 Y65.500
G1 X94.500 Y65.500
G1 X94.000 Y66.000
G1 X93.500 Y66.500
G1 X92.500 Y66.500
G1 X92.000 Y67.000
G1 X91.500 Y67.500
G1 X90.500 Y67.500
G1 X89.500 Y67.500
G1 X89.000 Y68.000
G1 X88.500 Y68.500
G1 X88.000 Y69.000
G1 X87.500 Y69.500
G1 X86.500 Y69.500
G1 X85.500 Y69.500
G1 X85.000 Y70.000
G1 X84.500 Y70.500
G1 X83.500 Y70.500
G1 X83.000 Y71.000
G1 X82.500 Y71.500
G1 X82.000 Y72.000
G1 X81.500 Y72.500
G1 X80.500 Y72.500
G1 X80.000 Y73.000
G1 X79.500 Y73.500
G1 X79.000 Y74.000
G1 X78.500 Y74.500
G1 X77.500 Y74.500
G1 X77.000 Y75.000
G1 X77.000 Y76.000
G1 X76.500 Y76.500
G1 X76.000 Y77.000
G1 X75.500 Y77.500
G1 X74.500 Y77.500
G1 X74.000 Y78.000
G1 X73.500 Y78.500
G1 X73.000 Y79.000
G1 X73.000 Y80.000
G1 X72.500 Y80.500
G1 X72.000 Y81.000
G1 X71.500 Y81.500
G1 X71.000 Y82.000
G1 X70.500 Y82.500
G1 X70.000 Y83.000
G1 X70.000 Y84.000
G1 X69.500 Y84.500
G1 X69.000 Y85.000
G1 X69.000 Y86.000
G1 X68.500 Y86.500
G1 X68.000 Y87.000
G1 X68.000 Y88.000
G1 X67.500 Y88.500
G1 X67.000 Y89.000
G1 X66.500 Y89.500
G1 X66.000 Y90.000
G1 X66.000 Y91.000
G1 X65.500 Y91.500
G1 X65.000 Y92.000
G1 X65.000 Y93.000
G1 X65.000 Y94.000
G1 X65.000 Y95.000
G1 X65.000 Y96.000
G1 X64.500 Y96.500
G1 X64.000 Y97.000
G1 X64.000 Y98.000
G1 X64.000 Y99.000
G1 X63.500 Y99.500
G1 X63.000 Y100.000
G1 X63.000 Y101.000
G1 X63.000 Y102.000
G1 X63.000 Y103.000
G1 X63.000 Y104.000
G1 X62.500 Y104.500
G1 X62.000 Y105.000
G1 X62.000 Y106.000
G1 X62.000 Y107.000
G1 X62.000 Y108.000
G1 X62.000 Y109.000
G1 X62.000 Y110.000
G1 X62.000 Y111.000
G1 X62.000 Y112.000
G1 X62.000 Y113.000
; --- Backlash X fix: 0.500mm ---
G0 X62.500 Y113.000 F200
G1 X63.000 Y113.500
G1 X63.500 Y114.000
G1 X63.500 Y115.000
G1 X63.500 Y116.000
G1 X63.500 Y117.000
G1 X63.500 Y118.000
G1 X64.000 Y118.500
G1 X64.500 Y119.000
G1 X64.500 Y120.000
G1 X64.500 Y121.000
G1 X65.000 Y121.500
G1 X65.500 Y122.000
G1 X65.500 Y123.000
G1 X65.500 Y124.000
G1 X65.500 Y125.000
G1 X66.000 Y125.500
G1 X66.500 Y126.000
G1 X66.500 Y127.000
G1 X67.000 Y127.500
G1 X67.500 Y128.000
G1 X67.500 Y129.000
G1 X68.000 Y129.500
G1 X68.500 Y130.000
G1 X68.500 Y131.000
G1 X69.000 Y131.500
G1 X69.500 Y132.000
G1 X69.500 Y133.000
G1 X70.000 Y133.500
G1 X70.500 Y134.000
G0 Z4.600 F3000

; --- CIKEL NAMAKANJA ---
G0 Z4.600 F3000
M400
M204 P12000 T12000
G1 F12000
G0 X60.786 Y0.000 Z31.000
G1 Z0.000 F3000
G1 X60.786 Y0.000 F2500
G1 X60.786 Y2.500 F2500
G1 X55.786 Y0.000 F2500
G1 X60.786 Y0.000 F2500
G0 Z16.000 F3000
G0 X66.557 Y14.990
G0 Z31.000 F3000
G0 X71.000 Y134.500 Z4.600
M400
M204 P200 T200
G1 F400
G1 Z0.000 F2500
G1 X71.000 Y134.500
G1 X71.500 Y135.000
G1 X72.000 Y135.500
G1 X72.500 Y136.000
G1 X73.000 Y136.500
G1 X73.500 Y137.000
G1 X74.000 Y137.500
G1 X74.500 Y138.000
G1 X74.500 Y139.000
G1 X75.000 Y139.500
G1 X75.500 Y140.000
G1 X76.000 Y140.500
G1 X76.500 Y141.000
G1 X77.000 Y141.500
G1 X77.500 Y142.000
G1 X78.000 Y142.500
G1 X79.000 Y142.500
G1 X79.500 Y143.000
G1 X80.000 Y143.500
G1 X80.500 Y144.000
G1 X81.000 Y144.500
G1 X81.500 Y145.000
G1 X82.000 Y145.500
G1 X82.500 Y146.000
G1 X83.000 Y146.500
G1 X84.000 Y146.500
G1 X84.500 Y147.000
G1 X85.000 Y147.500
G1 X86.000 Y147.500
G1 X86.500 Y148.000
G1 X87.000 Y148.500
G1 X88.000 Y148.500
G1 X88.500 Y149.000
G1 X89.000 Y149.500
G1 X90.000 Y149.500
G1 X90.500 Y150.000
G1 X91.000 Y150.000
G1 X92.000 Y150.000
G1 X93.000 Y150.000
G1 X94.000 Y150.000
G1 X94.500 Y150.000
G1 X95.000 Y150.000
G1 X96.000 Y150.000
G1 X97.000 Y150.000
G1 X97.500 Y150.000
G1 X98.000 Y150.000
G1 X99.000 Y150.000
G1 X100.000 Y150.000
G1 X101.000 Y150.000
G1 X102.000 Y150.000
G1 X103.000 Y150.000
G1 X104.000 Y150.000
G1 X105.000 Y150.000
G1 X105.500 Y150.000
G0 Z4.600 F3000

M400
G0 Z31.000 F3000
M2