G90
G21
; === MULTI-COLOR PAINTER GCODE ===
; Generated layers: 2


; ═══════════════════════════════
; LAYER 1: Color 1 — Red
; ═══════════════════════════════


; --- CIKEL NAMAKANJA ---
G0 Z4.600 F3000
M400
M204 P12000 T12000
G1 F12000
G0 X11.189 Y7.342 Z31.000
G1 Z0.000 F3000
G1 X11.189 Y7.342 F2500
G1 X11.189 Y9.842 F2500
G1 X6.189 Y7.342 F2500
G1 X11.189 Y-0.158 F2500
G0 Z16.000 F3000
G0 X10.422 Y10.788
G0 Z31.000 F3000
G0 X57.000 Y59.000 Z4.600
M400
M204 P12000 T12000
G1 F12000
G0 X57.000 Y59.000 Z4.600
M400
M204 P200 T200
G1 F400
G1 Z0.000 F2500
G1 X58.000 Y59.000
G1 X59.000 Y59.000
G1 X60.000 Y59.000
G1 X61.000 Y59.000
G1 X62.000 Y59.000
G1 X63.000 Y59.000
G1 X64.000 Y59.000
G1 X65.000 Y59.000
G1 X66.000 Y59.000
G1 X67.000 Y59.000
G1 X68.000 Y59.000
G1 X69.000 Y59.000
G1 X70.000 Y59.000
G1 X71.000 Y59.000
G1 X72.000 Y59.000
G1 X73.000 Y59.000
G1 X74.000 Y59.000
G1 X75.000 Y59.000
G1 X76.000 Y59.000
G1 X77.000 Y59.000
G1 X78.000 Y59.000
G1 X79.000 Y59.000
G1 X80.000 Y59.000
G1 X81.000 Y59.000
G1 X82.000 Y59.000
G1 X83.000 Y59.000
G1 X84.000 Y59.000
G1 X85.000 Y59.000
G1 X86.000 Y59.000
G1 X87.000 Y59.000
G1 X88.000 Y59.000
G1 X89.000 Y59.000
G1 X90.000 Y59.000
G1 X91.000 Y59.000
G1 X92.000 Y59.000
G1 X93.000 Y59.000
G1 X94.000 Y59.000
G1 X95.000 Y59.000
G1 X96.000 Y59.000
G1 X97.000 Y59.000
G1 X98.000 Y59.000
G1 X99.000 Y59.000
G1 X100.000 Y59.000
G1 X101.000 Y59.000
G1 X102.000 Y59.000
G1 X103.000 Y59.000
G1 X104.000 Y59.000
G1 X105.000 Y59.000
G1 X106.000 Y59.000
G1 X107.000 Y59.000
G1 X108.000 Y59.000
G1 X109.000 Y59.000
G1 X110.000 Y59.000
G1 X111.000 Y59.000
G1 X112.000 Y59.000
G1 X113.000 Y59.000
G1 X114.000 Y59.000
G1 X115.000 Y59.000
G1 X116.000 Y59.000
G1 X117.000 Y59.000
G1 X118.000 Y59.000
G1 X119.000 Y59.000
G1 X120.000 Y59.000
G1 X121.000 Y59.000
G1 X122.000 Y59.000
G1 X123.000 Y59.000
G1 X124.000 Y59.000
G1 X125.000 Y59.000
G1 X126.000 Y59.000
G1 X127.000 Y59.000
G1 X128.000 Y59.000
G1 X129.000 Y59.000
G1 X130.000 Y59.000
G1 X131.000 Y59.000
G1 X132.000 Y59.000
G1 X133.000 Y59.000
G1 X134.000 Y59.000
G1 X135.000 Y59.000
G1 X136.000 Y59.000
G1 X137.000 Y59.000
G1 X138.000 Y59.000
G1 X139.000 Y59.000
G1 X140.000 Y59.000
G1 X141.000 Y59.000
G1 X142.000 Y59.000
G1 X143.000 Y59.000
G1 X144.000 Y59.000
G1 X145.000 Y59.000
G1 X146.000 Y59.000
G1 X147.000 Y59.000
G1 X148.000 Y59.000
G1 X149.000 Y59.000
G1 X150.000 Y59.000
G1 X151.000 Y59.000
G1 X152.000 Y59.000
G1 X153.000 Y59.000
G1 X154.000 Y59.000
G1 X155.000 Y59.000
G1 X156.000 Y59.000
G1 X157.000 Y59.000
G1 X158.000 Y59.000
G1 X159.000 Y59.000
G1 X160.000 Y59.000
G1 X161.000 Y59.000
G1 X162.000 Y59.000
G1 X163.000 Y59.000
G1 X164.000 Y59.000
G1 X165.000 Y59.000
G1 X166.000 Y59.000
G1 X167.000 Y59.000
G1 X168.000 Y59.000
G1 X169.000 Y59.000
G1 X170.000 Y59.000
G1 X171.000 Y59.000
G1 X172.000 Y59.000
G1 X173.000 Y59.000
G1 X174.000 Y59.000
G1 X175.000 Y59.000
G1 X176.000 Y59.000
G1 X177.000 Y59.000
G1 X178.000 Y59.000
G1 X179.000 Y59.000
G1 X180.000 Y59.000
G1 X181.000 Y59.000
G1 X182.000 Y59.000
G1 X183.000 Y59.000
G1 X184.000 Y59.000
G1 X185.000 Y59.000
G1 X186.000 Y59.000
G1 X187.000 Y59.000
G1 X188.000 Y59.000
G1 X189.000 Y59.000
G1 X190.000 Y59.000
G1 X191.000 Y59.000
G1 X192.000 Y59.000
G1 X193.000 Y59.000
G1 X194.000 Y59.000
G1 X195.000 Y59.000
G1 X196.000 Y59.000
G1 X197.000 Y59.000
G1 X198.000 Y59.000
G1 X199.000 Y59.000
G1 X200.000 Y59.000
G1 X201.000 Y59.000
G1 X202.000 Y59.000
G0 Z4.600 F3000
M400
M204 P12000 T12000
G1 F12000
G0 X149.000 Y30.000 Z4.600
M400
M204 P200 T200
G1 F400
G1 Z0.000 F2500
G1 X148.000 Y30.000
G1 X147.000 Y30.000
G1 X146.000 Y30.000
G1 X145.000 Y30.000
G1 X144.000 Y30.000
G1 X143.000 Y30.000
G1 X142.000 Y30.000
G1 X141.000 Y30.000
G1 X140.000 Y30.000
G1 X139.000 Y30.000
G1 X138.000 Y30.000
G1 X137.000 Y30.000
G1 X136.000 Y30.000
G1 X135.000 Y30.000
G1 X134.000 Y30.000
G1 X133.000 Y30.000
G1 X132.000 Y30.000
G1 X131.000 Y30.000
G1 X130.000 Y30.000
G1 X129.000 Y30.000
G1 X128.000 Y30.000
G1 X127.000 Y30.000
G1 X126.000 Y30.000
G1 X125.000 Y30.000
G1 X124.000 Y30.000
G1 X123.000 Y30.000
G1 X122.000 Y30.000
G1 X121.000 Y30.000
G1 X120.000 Y30.000
G1 X119.000 Y30.000
G1 X118.000 Y30.000
G1 X117.000 Y30.000
G1 X116.000 Y30.000
G1 X115.000 Y30.000
G1 X114.000 Y30.000
G1 X113.000 Y30.000
G1 X112.000 Y30.000
G1 X111.000 Y30.000
G1 X110.000 Y30.000
G0 Z4.600 F3000
M400
M204 P12000 T12000
G1 F12000
G0 X109.000 Y31.000 Z4.600
M400
M204 P200 T200
G1 F400
G1 Z0.000 F2500
G1 X110.000 Y31.000
G1 X111.000 Y31.000
G1 X112.000 Y31.000
G1 X113.000 Y31.000
G1 X114.000 Y31.000
G1 X115.000 Y31.000
G1 X116.000 Y31.000
G1 X117.000 Y31.000
G1 X118.000 Y31.000
G1 X119.000 Y31.000
G1 X120.000 Y31.000
G1 X121.000 Y31.000
G1 X122.000 Y31.000
G1 X123.000 Y31.000
G1 X124.000 Y31.000
G1 X125.000 Y31.000
G1 X126.000 Y31.000
G1 X127.000 Y31.000
G1 X128.000 Y31.000
G1 X129.000 Y31.000
G1 X130.000 Y31.000
G1 X131.000 Y31.000
G1 X132.000 Y31.000
G1 X133.000 Y31.000
G1 X134.000 Y31.000
G1 X135.000 Y31.000
G1 X136.000 Y31.000
G1 X137.000 Y31.000
G1 X138.000 Y31.000
G1 X139.000 Y31.000
G1 X140.000 Y31.000
G1 X141.000 Y31.000
G1 X142.000 Y31.000
G1 X143.000 Y31.000
G1 X144.000 Y31.000
G1 X145.000 Y31.000
G1 X146.000 Y31.000
G1 X147.000 Y31.000
G1 X148.000 Y31.000
G1 X149.000 Y31.000
G1 X150.000 Y31.000
G0 Z4.600 F3000
M400
M204 P12000 T12000
G1 F12000
G0 X156.000 Y32.000 Z4.600
M400
M204 P200 T200
G1 F400
G1 Z0.000 F2500
G1 X155.000 Y32.000
G1 X154.000 Y32.000
G1 X153.000 Y32.000
G1 X152.000 Y32.000
G1 X151.000 Y32.000
G1 X150.000 Y32.000
G1 X149.000 Y32.000
G1 X148.000 Y32.000
G1 X147.000 Y32.000
G1 X146.000 Y32.000
G1 X145.000 Y32.000
G1 X144.000 Y32.000
G1 X143.000 Y32.000
G1 X142.000 Y32.000
G1 X141.000 Y32.000
G1 X140.000 Y32.000
G1 X139.000 Y32.000
G1 X138.000 Y32.000
G1 X137.000 Y32.000
G1 X136.000 Y32.000
G0 Z4.600 F3000

; --- CIKEL NAMAKANJA ---
G0 Z4.600 F3000
M400
M204 P12000 T12000
G1 F12000
G0 X10.395 Y16.524 Z31.000
G1 Z0.000 F3000
G1 X10.395 Y16.524 F2500
G1 X10.395 Y19.024 F2500
G1 X5.395 Y16.524 F2500
G1 X10.395 Y9.024 F2500
G0 Z16.000 F3000
G0 X14.596 Y3.460
G0 Z31.000 F3000
G0 X135.000 Y32.000 Z4.600
M400
M204 P200 T200
G1 F400
G1 Z0.000 F2500
G1 X135.000 Y32.000
G1 X134.000 Y32.000
G1 X133.000 Y32.000
G1 X132.000 Y32.000
G1 X131.000 Y32.000
G1 X130.000 Y32.000
G1 X129.000 Y32.000
G1 X128.000 Y32.000
G1 X127.000 Y32.000
G1 X126.000 Y32.000
G1 X125.000 Y32.000
G1 X124.000 Y32.000
G1 X123.000 Y32.000
G1 X122.000 Y32.000
G1 X121.000 Y32.000
G1 X120.000 Y32.000
G1 X119.000 Y32.000
G1 X118.000 Y32.000
G1 X117.000 Y32.000
G1 X116.000 Y32.000
G1 X115.000 Y32.000
G1 X114.000 Y32.000
G1 X113.000 Y32.000
G1 X112.000 Y32.000
G1 X111.000 Y32.000
G1 X110.000 Y32.000
G1 X109.000 Y32.000
G1 X108.000 Y32.000
G1 X107.000 Y32.000
G1 X106.000 Y32.000
G1 X105.000 Y32.000
G1 X104.000 Y32.000
G1 X103.000 Y32.000
G0 Z4.600 F3000
M400
M204 P12000 T12000
G1 F12000
G0 X102.000 Y33.000 Z4.600
M400
M204 P200 T200
G1 F400
G1 Z0.000 F2500
G1 X103.000 Y33.000
G1 X104.000 Y33.000
G1 X105.000 Y33.000
G1 X106.000 Y33.000
G1 X107.000 Y33.000
G1 X108.000 Y33.000
G1 X109.000 Y33.000
G1 X110.000 Y33.000
G1 X111.000 Y33.000
G1 X112.000 Y33.000
G1 X113.000 Y33.000
G1 X114.000 Y33.000
G1 X115.000 Y33.000
G1 X116.000 Y33.000
G1 X117.000 Y33.000
G1 X118.000 Y33.000
G1 X119.000 Y33.000
G1 X120.000 Y33.000
G1 X121.000 Y33.000
G1 X122.000 Y33.000
G1 X123.000 Y33.000
G1 X124.000 Y33.000
G1 X125.000 Y33.000
G1 X126.000 Y33.000
G1 X127.000 Y33.000
G1 X128.000 Y33.000
G1 X129.000 Y33.000
G1 X130.000 Y33.000
G1 X131.000 Y33.000
G1 X132.000 Y33.000
G1 X133.000 Y33.000
G1 X134.000 Y33.000
G1 X135.000 Y33.000
G1 X136.000 Y33.000
G1 X137.000 Y33.000
G1 X138.000 Y33.000
G1 X139.000 Y33.000
G1 X140.000 Y33.000
G1 X141.000 Y33.000
G1 X142.000 Y33.000
G1 X143.000 Y33.000
G1 X144.000 Y33.000
G1 X145.000 Y33.000
G1 X146.000 Y33.000
G1 X147.000 Y33.000
G1 X148.000 Y33.000
G1 X149.000 Y33.000
G1 X150.000 Y33.000
G1 X151.000 Y33.000
G1 X152.000 Y33.000
G1 X153.000 Y33.000
G1 X154.000 Y33.000
G1 X155.000 Y33.000
G1 X156.000 Y33.000
G1 X157.000 Y33.000
G0 Z4.600 F3000
M400
M204 P12000 T12000
G1 F12000
G0 X162.000 Y34.000 Z4.600
M400
M204 P200 T200
G1 F400
G1 Z0.000 F2500
G1 X161.000 Y34.000
G1 X160.000 Y34.000
G1 X159.000 Y34.000
G1 X158.000 Y34.000
G1 X157.000 Y34.000
G1 X156.000 Y34.000
G1 X155.000 Y34.000
G1 X154.000 Y34.000
G1 X153.000 Y34.000
G1 X152.000 Y34.000
G1 X151.000 Y34.000
G1 X150.000 Y34.000
G1 X149.000 Y34.000
G1 X148.000 Y34.000
G1 X147.000 Y34.000
G1 X146.000 Y34.000
G1 X145.000 Y34.000
G1 X144.000 Y34.000
G1 X143.000 Y34.000
G1 X142.000 Y34.000
G1 X141.000 Y34.000
G1 X140.000 Y34.000
G1 X139.000 Y34.000
G1 X138.000 Y34.000
G1 X137.000 Y34.000
G1 X136.000 Y34.000
G1 X135.000 Y34.000
G1 X134.000 Y34.000
G1 X133.000 Y34.000
G1 X132.000 Y34.000
G1 X131.000 Y34.000
G1 X130.000 Y34.000
G1 X129.000 Y34.000
G1 X128.000 Y34.000
G1 X127.000 Y34.000
G1 X126.000 Y34.000
G1 X125.000 Y34.000
G1 X124.000 Y34.000
G1 X123.000 Y34.000
G1 X122.000 Y34.000
G1 X121.000 Y34.000
G1 X120.000 Y34.000
G1 X119.000 Y34.000
G1 X118.000 Y34.000
G1 X117.000 Y34.000
G1 X116.000 Y34.000
G1 X115.000 Y34.000
G1 X114.000 Y34.000
G1 X113.000 Y34.000
G1 X112.000 Y34.000
G1 X111.000 Y34.000
G1 X110.000 Y34.000
G1 X109.000 Y34.000
G1 X108.000 Y34.000
G1 X107.000 Y34.000
G1 X106.000 Y34.000
G1 X105.000 Y34.000
G1 X104.000 Y34.000
G1 X103.000 Y34.000
G1 X102.000 Y34.000
G1 X101.000 Y34.000
G1 X100.000 Y34.000
G1 X99.000 Y34.000
G1 X98.000 Y34.000
G1 X97.000 Y34.000
G0 Z4.600 F3000
M400
M204 P12000 T12000
G1 F12000
G0 X92.000 Y35.000 Z4.600
M400
M204 P200 T200
G1 F400
G1 Z0.000 F2500
G1 X93.000 Y35.000
G1 X94.000 Y35.000
G1 X95.000 Y35.000
G1 X96.000 Y35.000
G1 X97.000 Y35.000
G1 X98.000 Y35.000
G1 X99.000 Y35.000
G1 X100.000 Y35.000
G1 X101.000 Y35.000
G1 X102.000 Y35.000
G1 X103.000 Y35.000
G1 X104.000 Y35.000
G1 X105.000 Y35.000
G1 X106.000 Y35.000
G1 X107.000 Y35.000
G1 X108.000 Y35.000
G1 X109.000 Y35.000
G1 X110.000 Y35.000
G1 X111.000 Y35.000
G1 X112.000 Y35.000
G1 X113.000 Y35.000
G1 X114.000 Y35.000
G1 X115.000 Y35.000
G1 X116.000 Y35.000
G1 X117.000 Y35.000
G1 X118.000 Y35.000
G1 X119.000 Y35.000
G1 X120.000 Y35.000
G1 X121.000 Y35.000
G1 X122.000 Y35.000
G1 X123.000 Y35.000
G1 X124.000 Y35.000
G1 X125.000 Y35.000
G1 X126.000 Y35.000
G1 X127.000 Y35.000
G1 X128.000 Y35.000
G1 X129.000 Y35.000
G1 X130.000 Y35.000
G1 X131.000 Y35.000
G1 X132.000 Y35.000
G1 X133.000 Y35.000
G1 X134.000 Y35.000
G1 X135.000 Y35.000
G1 X136.000 Y35.000
G1 X137.000 Y35.000
G1 X138.000 Y35.000
G1 X139.000 Y35.000
G1 X140.000 Y35.000
G1 X141.000 Y35.000
G1 X142.000 Y35.000
G1 X143.000 Y35.000
G1 X144.000 Y35.000
G1 X145.000 Y35.000
G1 X146.000 Y35.000
G1 X147.000 Y35.000
G1 X148.000 Y35.000
G1 X149.000 Y35.000
G1 X150.000 Y35.000
G1 X151.000 Y35.000
G1 X152.000 Y35.000
G1 X153.000 Y35.000
G1 X154.000 Y35.000
G1 X155.000 Y35.000
G1 X156.000 Y35.000
G1 X157.000 Y35.000
G1 X158.000 Y35.000
G1 X159.000 Y35.000
G1 X160.000 Y35.000
G1 X161.000 Y35.000
G1 X162.000 Y35.000
G1 X163.000 Y35.000
G1 X164.000 Y35.000
G1 X165.000 Y35.000
G1 X166.000 Y35.000
G1 X167.000 Y35.000
G0 Z4.600 F3000
M400
M204 P12000 T12000
G1 F12000
G0 X167.000 Y36.000 Z4.600
M400
M204 P200 T200
G1 F400
G1 Z0.000 F2500
G1 X166.000 Y36.000
G1 X165.000 Y36.000
G1 X164.000 Y36.000
G1 X163.000 Y36.000
G1 X162.000 Y36.000
G1 X161.000 Y36.000
G1 X160.000 Y36.000
G1 X159.000 Y36.000
G1 X158.000 Y36.000
G1 X157.000 Y36.000
G1 X156.000 Y36.000
G1 X155.000 Y36.000
G1 X154.000 Y36.000
G1 X153.000 Y36.000
G1 X152.000 Y36.000
G1 X151.000 Y36.000
G1 X150.000 Y36.000
G1 X149.000 Y36.000
G1 X148.000 Y36.000
G1 X147.000 Y36.000
G1 X146.000 Y36.000
G0 Z4.600 F3000

; --- CIKEL NAMAKANJA ---
G0 Z4.600 F3000
M400
M204 P12000 T12000
G1 F12000
G0 X12.508 Y6.233 Z31.000
G1 Z0.000 F3000
G1 X12.508 Y6.233 F2500
G1 X12.508 Y8.733 F2500
G1 X7.508 Y6.233 F2500
G1 X12.508 Y-1.267 F2500
G0 Z16.000 F3000
G0 X14.558 Y3.614
G0 Z31.000 F3000
G0 X145.000 Y36.000 Z4.600
M400
M204 P200 T200
G1 F400
G1 Z0.000 F2500
G1 X145.000 Y36.000
G1 X144.000 Y36.000
G1 X143.000 Y36.000
G1 X142.000 Y36.000
G1 X141.000 Y36.000
G1 X140.000 Y36.000
G1 X139.000 Y36.000
G1 X138.000 Y36.000
G1 X137.000 Y36.000
G1 X136.000 Y36.000
G1 X135.000 Y36.000
G1 X134.000 Y36.000
G1 X133.000 Y36.000
G1 X132.000 Y36.000
G1 X131.000 Y36.000
G1 X130.000 Y36.000
G1 X129.000 Y36.000
G1 X128.000 Y36.000
G1 X127.000 Y36.000
G1 X126.000 Y36.000
G1 X125.000 Y36.000
G1 X124.000 Y36.000
G1 X123.000 Y36.000
G1 X122.000 Y36.000
G1 X121.000 Y36.000
G1 X120.000 Y36.000
G1 X119.000 Y36.000
G1 X118.000 Y36.000
G1 X117.000 Y36.000
G1 X116.000 Y36.000
G1 X115.000 Y36.000
G1 X114.000 Y36.000
G1 X113.000 Y36.000
G1 X112.000 Y36.000
G1 X111.000 Y36.000
G1 X110.000 Y36.000
G1 X109.000 Y36.000
G1 X108.000 Y36.000
G1 X107.000 Y36.000
G1 X106.000 Y36.000
G1 X105.000 Y36.000
G1 X104.000 Y36.000
G1 X103.000 Y36.000
G1 X102.000 Y36.000
G1 X101.000 Y36.000
G1 X100.000 Y36.000
G1 X99.000 Y36.000
G1 X98.000 Y36.000
G1 X97.000 Y36.000
G1 X96.000 Y36.000
G1 X95.000 Y36.000
G1 X94.000 Y36.000
G1 X93.000 Y36.000
G1 X92.000 Y36.000
G0 Z4.600 F3000
M400
M204 P12000 T12000
G1 F12000
G0 X89.000 Y37.000 Z4.600
M400
M204 P200 T200
G1 F400
G1 Z0.000 F2500
G1 X90.000 Y37.000
G1 X91.000 Y37.000
G1 X92.000 Y37.000
G1 X93.000 Y37.000
G1 X94.000 Y37.000
G1 X95.000 Y37.000
G1 X96.000 Y37.000
G1 X97.000 Y37.000
G1 X98.000 Y37.000
G1 X99.000 Y37.000
G1 X100.000 Y37.000
G1 X101.000 Y37.000
G1 X102.000 Y37.000
G1 X103.000 Y37.000
G1 X104.000 Y37.000
G1 X105.000 Y37.000
G1 X106.000 Y37.000
G1 X107.000 Y37.000
G1 X108.000 Y37.000
G1 X109.000 Y37.000
G1 X110.000 Y37.000
G1 X111.000 Y37.000
G1 X112.000 Y37.000
G1 X113.000 Y37.000
G1 X114.000 Y37.000
G1 X115.000 Y37.000
G1 X116.000 Y37.000
G1 X117.000 Y37.000
G1 X118.000 Y37.000
G1 X119.000 Y37.000
G1 X120.000 Y37.000
G1 X121.000 Y37.000
G1 X122.000 Y37.000
G1 X123.000 Y37.000
G1 X124.000 Y37.000
G1 X125.000 Y37.000
G1 X126.000 Y37.000
G1 X127.000 Y37.000
G1 X128.000 Y37.000
G1 X129.000 Y37.000
G1 X130.000 Y37.000
G1 X131.000 Y37.000
G1 X132.000 Y37.000
G1 X133.000 Y37.000
G1 X134.000 Y37.000
G1 X135.000 Y37.000
G1 X136.000 Y37.000
G1 X137.000 Y37.000
G1 X138.000 Y37.000
G1 X139.000 Y37.000
G1 X140.000 Y37.000
G1 X141.000 Y37.000
G1 X142.000 Y37.000
G1 X143.000 Y37.000
G1 X144.000 Y37.000
G1 X145.000 Y37.000
G1 X146.000 Y37.000
G1 X147.000 Y37.000
G1 X148.000 Y37.000
G1 X149.000 Y37.000
G1 X150.000 Y37.000
G1 X151.000 Y37.000
G1 X152.000 Y37.000
G1 X153.000 Y37.000
G1 X154.000 Y37.000
G1 X155.000 Y37.000
G1 X156.000 Y37.000
G1 X157.000 Y37.000
G1 X158.000 Y37.000
G1 X159.000 Y37.000
G1 X160.000 Y37.000
G1 X161.000 Y37.000
G1 X162.000 Y37.000
G1 X163.000 Y37.000
G1 X164.000 Y37.000
G1 X165.000 Y37.000
G1 X166.000 Y37.000
G1 X167.000 Y37.000
G1 X168.000 Y37.000
G1 X169.000 Y37.000
G1 X170.000 Y37.000
G0 Z4.600 F3000
M400
M204 P12000 T12000
G1 F12000
G0 X171.000 Y38.000 Z4.600
M400
M204 P200 T200
G1 F400
G1 Z0.000 F2500
G1 X170.000 Y38.000
G1 X169.000 Y38.000
G1 X168.000 Y38.000
G1 X167.000 Y38.000
G1 X166.000 Y38.000
G1 X165.000 Y38.000
G1 X164.000 Y38.000
G1 X163.000 Y38.000
G1 X162.000 Y38.000
G1 X161.000 Y38.000
G1 X160.000 Y38.000
G1 X159.000 Y38.000
G1 X158.000 Y38.000
G1 X157.000 Y38.000
G1 X156.000 Y38.000
G1 X155.000 Y38.000
G1 X154.000 Y38.000
G1 X153.000 Y38.000
G1 X152.000 Y38.000
G1 X151.000 Y38.000
G1 X150.000 Y38.000
G1 X149.000 Y38.000
G1 X148.000 Y38.000
G1 X147.000 Y38.000
G1 X146.000 Y38.000
G1 X145.000 Y38.000
G1 X144.000 Y38.000
G1 X143.000 Y38.000
G1 X142.000 Y38.000
G1 X141.000 Y38.000
G1 X140.000 Y38.000
G1 X139.000 Y38.000
G1 X138.000 Y38.000
G1 X137.000 Y38.000
G1 X136.000 Y38.000
G1 X135.000 Y38.000
G1 X134.000 Y38.000
G1 X133.000 Y38.000
G1 X132.000 Y38.000
G1 X131.000 Y38.000
G1 X130.000 Y38.000
G1 X129.000 Y38.000
G1 X128.000 Y38.000
G1 X127.000 Y38.000
G1 X126.000 Y38.000
G1 X125.000 Y38.000
G1 X124.000 Y38.000
G1 X123.000 Y38.000
G1 X122.000 Y38.000
G1 X121.000 Y38.000
G1 X120.000 Y38.000
G1 X119.000 Y38.000
G1 X118.000 Y38.000
G1 X117.000 Y38.000
G1 X116.000 Y38.000
G1 X115.000 Y38.000
G1 X114.000 Y38.000
G1 X113.000 Y38.000
G1 X112.000 Y38.000
G1 X111.000 Y38.000
G1 X110.000 Y38.000
G1 X109.000 Y38.000
G1 X108.000 Y38.000
G1 X107.000 Y38.000
G1 X106.000 Y38.000
G1 X105.000 Y38.000
G1 X104.000 Y38.000
G1 X103.000 Y38.000
G1 X102.000 Y38.000
G1 X101.000 Y38.000
G1 X100.000 Y38.000
G1 X99.000 Y38.000
G1 X98.000 Y38.000
G1 X97.000 Y38.000
G1 X96.000 Y38.000
G1 X95.000 Y38.000
G1 X94.000 Y38.000
G1 X93.000 Y38.000
G1 X92.000 Y38.000
G1 X91.000 Y38.000
G1 X90.000 Y38.000
G1 X89.000 Y38.000
G1 X88.000 Y38.000
G0 Z4.600 F3000
M400
M204 P12000 T12000
G1 F12000
G0 X85.000 Y39.000 Z4.600
M400
M204 P200 T200
G1 F400
G1 Z0.000 F2500
G1 X86.000 Y39.000
G1 X87.000 Y39.000
G1 X88.000 Y39.000
G1 X89.000 Y39.000
G1 X90.000 Y39.000
G1 X91.000 Y39.000
G1 X92.000 Y39.000
G1 X93.000 Y39.000
G1 X94.000 Y39.000
G1 X95.000 Y39.000
G1 X96.000 Y39.000
G1 X97.000 Y39.000
G1 X98.000 Y39.000
G1 X99.000 Y39.000
G1 X100.000 Y39.000
G1 X101.000 Y39.000
G1 X102.000 Y39.000
G1 X103.000 Y39.000
G1 X104.000 Y39.000
G1 X105.000 Y39.000
G1 X106.000 Y39.000
G1 X107.000 Y39.000
G1 X108.000 Y39.000
G1 X109.000 Y39.000
G1 X110.000 Y39.000
G1 X111.000 Y39.000
G1 X112.000 Y39.000
G1 X113.000 Y39.000
G1 X114.000 Y39.000
G1 X115.000 Y39.000
G1 X116.000 Y39.000
G1 X117.000 Y39.000
G1 X118.000 Y39.000
G1 X119.000 Y39.000
G1 X120.000 Y39.000
G1 X121.000 Y39.000
G1 X122.000 Y39.000
G1 X123.000 Y39.000
G1 X124.000 Y39.000
G1 X125.000 Y39.000
G1 X126.000 Y39.000
G1 X127.000 Y39.000
G1 X128.000 Y39.000
G1 X129.000 Y39.000
G1 X130.000 Y39.000
G1 X131.000 Y39.000
G1 X132.000 Y39.000
G1 X133.000 Y39.000
G1 X134.000 Y39.000
G1 X135.000 Y39.000
G1 X136.000 Y39.000
G1 X137.000 Y39.000
G1 X138.000 Y39.000
G1 X139.000 Y39.000
G1 X140.000 Y39.000
G1 X141.000 Y39.000
G0 Z4.600 F3000

; --- CIKEL NAMAKANJA ---
G0 Z4.600 F3000
M400
M204 P12000 T12000
G1 F12000
G0 X5.518 Y-11.784 Z31.000
G1 Z0.000 F3000
G1 X5.518 Y-11.784 F2500
G1 X5.518 Y-9.284 F2500
G1 X0.518 Y-11.784 F2500
G1 X5.518 Y-19.284 F2500
G0 Z16.000 F3000
G0 X14.464 Y3.973
G0 Z31.000 F3000
G0 X142.000 Y39.000 Z4.600
M400
M204 P200 T200
G1 F400
G1 Z0.000 F2500
G1 X142.000 Y39.000
G1 X143.000 Y39.000
G1 X144.000 Y39.000
G1 X145.000 Y39.000
G1 X146.000 Y39.000
G1 X147.000 Y39.000
G1 X148.000 Y39.000
G1 X149.000 Y39.000
G1 X150.000 Y39.000
G1 X151.000 Y39.000
G1 X152.000 Y39.000
G1 X153.000 Y39.000
G1 X154.000 Y39.000
G1 X155.000 Y39.000
G1 X156.000 Y39.000
G1 X157.000 Y39.000
G1 X158.000 Y39.000
G1 X159.000 Y39.000
G1 X160.000 Y39.000
G1 X161.000 Y39.000
G1 X162.000 Y39.000
G1 X163.000 Y39.000
G1 X164.000 Y39.000
G1 X165.000 Y39.000
G1 X166.000 Y39.000
G1 X167.000 Y39.000
G1 X168.000 Y39.000
G1 X169.000 Y39.000
G1 X170.000 Y39.000
G1 X171.000 Y39.000
G1 X172.000 Y39.000
G1 X173.000 Y39.000
G1 X174.000 Y39.000
G0 Z4.600 F3000
M400
M204 P12000 T12000
G1 F12000
G0 X175.000 Y40.000 Z4.600
M400
M204 P200 T200
G1 F400
G1 Z0.000 F2500
G1 X174.000 Y40.000
G1 X173.000 Y40.000
G1 X172.000 Y40.000
G1 X171.000 Y40.000
G1 X170.000 Y40.000
G1 X169.000 Y40.000
G1 X168.000 Y40.000
G1 X167.000 Y40.000
G1 X166.000 Y40.000
G1 X165.000 Y40.000
G1 X164.000 Y40.000
G1 X163.000 Y40.000
G1 X162.000 Y40.000
G1 X161.000 Y40.000
G1 X160.000 Y40.000
G1 X159.000 Y40.000
G1 X158.000 Y40.000
G1 X157.000 Y40.000
G1 X156.000 Y40.000
G1 X155.000 Y40.000
G1 X154.000 Y40.000
G1 X153.000 Y40.000
G1 X152.000 Y40.000
G1 X151.000 Y40.000
G1 X150.000 Y40.000
G1 X149.000 Y40.000
G1 X148.000 Y40.000
G1 X147.000 Y40.000
G1 X146.000 Y40.000
G1 X145.000 Y40.000
G1 X144.000 Y40.000
G1 X143.000 Y40.000
G1 X142.000 Y40.000
G1 X141.000 Y40.000
G1 X140.000 Y40.000
G1 X139.000 Y40.000
G1 X138.000 Y40.000
G1 X137.000 Y40.000
G1 X136.000 Y40.000
G1 X135.000 Y40.000
G1 X134.000 Y40.000
G1 X133.000 Y40.000
G1 X132.000 Y40.000
G1 X131.000 Y40.000
G1 X130.000 Y40.000
G1 X129.000 Y40.000
G1 X128.000 Y40.000
G1 X127.000 Y40.000
G1 X126.000 Y40.000
G1 X125.000 Y40.000
G1 X124.000 Y40.000
G1 X123.000 Y40.000
G1 X122.000 Y40.000
G1 X121.000 Y40.000
G1 X120.000 Y40.000
G1 X119.000 Y40.000
G1 X118.000 Y40.000
G1 X117.000 Y40.000
G1 X116.000 Y40.000
G1 X115.000 Y40.000
G1 X114.000 Y40.000
G1 X113.000 Y40.000
G1 X112.000 Y40.000
G1 X111.000 Y40.000
G1 X110.000 Y40.000
G1 X109.000 Y40.000
G1 X108.000 Y40.000
G1 X107.000 Y40.000
G1 X106.000 Y40.000
G1 X105.000 Y40.000
G1 X104.000 Y40.000
G1 X103.000 Y40.000
G1 X102.000 Y40.000
G1 X101.000 Y40.000
G1 X100.000 Y40.000
G1 X99.000 Y40.000
G1 X98.000 Y40.000
G1 X97.000 Y40.000
G1 X96.000 Y40.000
G1 X95.000 Y40.000
G1 X94.000 Y40.000
G1 X93.000 Y40.000
G1 X92.000 Y40.000
G1 X91.000 Y40.000
G1 X90.000 Y40.000
G1 X89.000 Y40.000
G1 X88.000 Y40.000
G1 X87.000 Y40.000
G1 X86.000 Y40.000
G1 X85.000 Y40.000
G1 X84.000 Y40.000
G0 Z4.600 F3000
M400
M204 P12000 T12000
G1 F12000
G0 X81.000 Y41.000 Z4.600
M400
M204 P200 T200
G1 F400
G1 Z0.000 F2500
G1 X82.000 Y41.000
G1 X83.000 Y41.000
G1 X84.000 Y41.000
G1 X85.000 Y41.000
G1 X86.000 Y41.000
G1 X87.000 Y41.000
G1 X88.000 Y41.000
G1 X89.000 Y41.000
G1 X90.000 Y41.000
G1 X91.000 Y41.000
G1 X92.000 Y41.000
G1 X93.000 Y41.000
G1 X94.000 Y41.000
G1 X95.000 Y41.000
G1 X96.000 Y41.000
G1 X97.000 Y41.000
G1 X98.000 Y41.000
G1 X99.000 Y41.000
G1 X100.000 Y41.000
G1 X101.000 Y41.000
G1 X102.000 Y41.000
G1 X103.000 Y41.000
G1 X104.000 Y41.000
G1 X105.000 Y41.000
G1 X106.000 Y41.000
G1 X107.000 Y41.000
G1 X108.000 Y41.000
G1 X109.000 Y41.000
G1 X110.000 Y41.000
G1 X111.000 Y41.000
G1 X112.000 Y41.000
G1 X113.000 Y41.000
G1 X114.000 Y41.000
G1 X115.000 Y41.000
G1 X116.000 Y41.000
G1 X117.000 Y41.000
G1 X118.000 Y41.000
G1 X119.000 Y41.000
G1 X120.000 Y41.000
G1 X121.000 Y41.000
G1 X122.000 Y41.000
G1 X123.000 Y41.000
G1 X124.000 Y41.000
G1 X125.000 Y41.000
G1 X126.000 Y41.000
G1 X127.000 Y41.000
G1 X128.000 Y41.000
G1 X129.000 Y41.000
G1 X130.000 Y41.000
G1 X131.000 Y41.000
G1 X132.000 Y41.000
G1 X133.000 Y41.000
G1 X134.000 Y41.000
G1 X135.000 Y41.000
G1 X136.000 Y41.000
G1 X137.000 Y41.000
G1 X138.000 Y41.000
G1 X139.000 Y41.000
G1 X140.000 Y41.000
G1 X141.000 Y41.000
G1 X142.000 Y41.000
G1 X143.000 Y41.000
G1 X144.000 Y41.000
G1 X145.000 Y41.000
G1 X146.000 Y41.000
G1 X147.000 Y41.000
G1 X148.000 Y41.000
G1 X149.000 Y41.000
G1 X150.000 Y41.000
G1 X151.000 Y41.000
G1 X152.000 Y41.000
G1 X153.000 Y41.000
G1 X154.000 Y41.000
G1 X155.000 Y41.000
G1 X156.000 Y41.000
G1 X157.000 Y41.000
G1 X158.000 Y41.000
G1 X159.000 Y41.000
G1 X160.000 Y41.000
G1 X161.000 Y41.000
G1 X162.000 Y41.000
G1 X163.000 Y41.000
G1 X164.000 Y41.000
G1 X165.000 Y41.000
G1 X166.000 Y41.000
G1 X167.000 Y41.000
G1 X168.000 Y41.000
G1 X169.000 Y41.000
G1 X170.000 Y41.000
G1 X171.000 Y41.000
G1 X172.000 Y41.000
G1 X173.000 Y41.000
G1 X174.000 Y41.000
G1 X175.000 Y41.000
G1 X176.000 Y41.000
G1 X177.000 Y41.000
G1 X178.000 Y41.000
G0 Z4.600 F3000
M400
M204 P12000 T12000
G1 F12000
G0 X179.000 Y42.000 Z4.600
M400
M204 P200 T200
G1 F400
G1 Z0.000 F2500
G1 X178.000 Y42.000
G1 X177.000 Y42.000
G1 X176.000 Y42.000
G1 X175.000 Y42.000
G1 X174.000 Y42.000
G1 X173.000 Y42.000
G1 X172.000 Y42.000
G1 X171.000 Y42.000
G1 X170.000 Y42.000
G1 X169.000 Y42.000
G1 X168.000 Y42.000
G1 X167.000 Y42.000
G1 X166.000 Y42.000
G1 X165.000 Y42.000
G1 X164.000 Y42.000
G1 X163.000 Y42.000
G1 X162.000 Y42.000
G1 X161.000 Y42.000
G1 X160.000 Y42.000
G1 X159.000 Y42.000
G1 X158.000 Y42.000
G1 X157.000 Y42.000
G0 Z4.600 F3000

; --- CIKEL NAMAKANJA ---
G0 Z4.600 F3000
M400
M204 P12000 T12000
G1 F12000
G0 X-2.909 Y0.624 Z31.000
G1 Z0.000 F3000
G1 X-2.909 Y0.624 F2500
G1 X-2.909 Y3.124 F2500
G1 X-7.909 Y0.624 F2500
G1 X-2.909 Y-6.876 F2500
G0 Z16.000 F3000
G0 X14.484 Y3.900
G0 Z31.000 F3000
G0 X156.000 Y42.000 Z4.600
M400
M204 P200 T200
G1 F400
G1 Z0.000 F2500
G1 X156.000 Y42.000
G1 X155.000 Y42.000
G1 X154.000 Y42.000
G1 X153.000 Y42.000
G1 X152.000 Y42.000
G1 X151.000 Y42.000
G1 X150.000 Y42.000
G1 X149.000 Y42.000
G1 X148.000 Y42.000
G1 X147.000 Y42.000
G1 X146.000 Y42.000
G1 X145.000 Y42.000
G1 X144.000 Y42.000
G1 X143.000 Y42.000
G1 X142.000 Y42.000
G1 X141.000 Y42.000
G1 X140.000 Y42.000
G1 X139.000 Y42.000
G1 X138.000 Y42.000
G1 X137.000 Y42.000
G1 X136.000 Y42.000
G1 X135.000 Y42.000
G1 X134.000 Y42.000
G1 X133.000 Y42.000
G1 X132.000 Y42.000
G1 X131.000 Y42.000
G1 X130.000 Y42.000
G1 X129.000 Y42.000
G1 X128.000 Y42.000
G1 X127.000 Y42.000
G1 X126.000 Y42.000
G1 X125.000 Y42.000
G1 X124.000 Y42.000
G1 X123.000 Y42.000
G1 X122.000 Y42.000
G1 X121.000 Y42.000
G1 X120.000 Y42.000
G1 X119.000 Y42.000
G1 X118.000 Y42.000
G1 X117.000 Y42.000
G1 X116.000 Y42.000
G1 X115.000 Y42.000
G1 X114.000 Y42.000
G1 X113.000 Y42.000
G1 X112.000 Y42.000
G1 X111.000 Y42.000
G1 X110.000 Y42.000
G1 X109.000 Y42.000
G1 X108.000 Y42.000
G1 X107.000 Y42.000
G1 X106.000 Y42.000
G1 X105.000 Y42.000
G1 X104.000 Y42.000
G1 X103.000 Y42.000
G1 X102.000 Y42.000
G1 X101.000 Y42.000
G1 X100.000 Y42.000
G1 X99.000 Y42.000
G1 X98.000 Y42.000
G1 X97.000 Y42.000
G1 X96.000 Y42.000
G1 X95.000 Y42.000
G1 X94.000 Y42.000
G1 X93.000 Y42.000
G1 X92.000 Y42.000
G1 X91.000 Y42.000
G1 X90.000 Y42.000
G1 X89.000 Y42.000
G1 X88.000 Y42.000
G1 X87.000 Y42.000
G1 X86.000 Y42.000
G1 X85.000 Y42.000
G1 X84.000 Y42.000
G1 X83.000 Y42.000
G1 X82.000 Y42.000
G1 X81.000 Y42.000
G1 X80.000 Y42.000
G0 Z4.600 F3000
M400
M204 P12000 T12000
G1 F12000
G0 X77.000 Y43.000 Z4.600
M400
M204 P200 T200
G1 F400
G1 Z0.000 F2500
G1 X78.000 Y43.000
G1 X79.000 Y43.000
G1 X80.000 Y43.000
G1 X81.000 Y43.000
G1 X82.000 Y43.000
G1 X83.000 Y43.000
G1 X84.000 Y43.000
G1 X85.000 Y43.000
G1 X86.000 Y43.000
G1 X87.000 Y43.000
G1 X88.000 Y43.000
G1 X89.000 Y43.000
G1 X90.000 Y43.000
G1 X91.000 Y43.000
G1 X92.000 Y43.000
G1 X93.000 Y43.000
G1 X94.000 Y43.000
G1 X95.000 Y43.000
G1 X96.000 Y43.000
G1 X97.000 Y43.000
G1 X98.000 Y43.000
G1 X99.000 Y43.000
G1 X100.000 Y43.000
G1 X101.000 Y43.000
G1 X102.000 Y43.000
G1 X103.000 Y43.000
G1 X104.000 Y43.000
G1 X105.000 Y43.000
G1 X106.000 Y43.000
G1 X107.000 Y43.000
G1 X108.000 Y43.000
G1 X109.000 Y43.000
G1 X110.000 Y43.000
G1 X111.000 Y43.000
G1 X112.000 Y43.000
G1 X113.000 Y43.000
G1 X114.000 Y43.000
G1 X115.000 Y43.000
G1 X116.000 Y43.000
G1 X117.000 Y43.000
G1 X118.000 Y43.000
G1 X119.000 Y43.000
G1 X120.000 Y43.000
G1 X121.000 Y43.000
G1 X122.000 Y43.000
G1 X123.000 Y43.000
G1 X124.000 Y43.000
G1 X125.000 Y43.000
G1 X126.000 Y43.000
G1 X127.000 Y43.000
G1 X128.000 Y43.000
G1 X129.000 Y43.000
G1 X130.000 Y43.000
G1 X131.000 Y43.000
G1 X132.000 Y43.000
G1 X133.000 Y43.000
G1 X134.000 Y43.000
G1 X135.000 Y43.000
G1 X136.000 Y43.000
G1 X137.000 Y43.000
G1 X138.000 Y43.000
G1 X139.000 Y43.000
G1 X140.000 Y43.000
G1 X141.000 Y43.000
G1 X142.000 Y43.000
G1 X143.000 Y43.000
G1 X144.000 Y43.000
G1 X145.000 Y43.000
G1 X146.000 Y43.000
G1 X147.000 Y43.000
G1 X148.000 Y43.000
G1 X149.000 Y43.000
G1 X150.000 Y43.000
G1 X151.000 Y43.000
G1 X152.000 Y43.000
G1 X153.000 Y43.000
G1 X154.000 Y43.000
G1 X155.000 Y43.000
G1 X156.000 Y43.000
G1 X157.000 Y43.000
G1 X158.000 Y43.000
G1 X159.000 Y43.000
G1 X160.000 Y43.000
G1 X161.000 Y43.000
G1 X162.000 Y43.000
G1 X163.000 Y43.000
G1 X164.000 Y43.000
G1 X165.000 Y43.000
G1 X166.000 Y43.000
G1 X167.000 Y43.000
G1 X168.000 Y43.000
G1 X169.000 Y43.000
G1 X170.000 Y43.000
G1 X171.000 Y43.000
G1 X172.000 Y43.000
G1 X173.000 Y43.000
G1 X174.000 Y43.000
G1 X175.000 Y43.000
G1 X176.000 Y43.000
G1 X177.000 Y43.000
G1 X178.000 Y43.000
G1 X179.000 Y43.000
G1 X180.000 Y43.000
G1 X181.000 Y43.000
G1 X182.000 Y43.000
G0 Z4.600 F3000
M400
M204 P12000 T12000
G1 F12000
G0 X185.000 Y44.000 Z4.600
M400
M204 P200 T200
G1 F400
G1 Z0.000 F2500
G1 X184.000 Y44.000
G1 X183.000 Y44.000
G1 X182.000 Y44.000
G1 X181.000 Y44.000
G1 X180.000 Y44.000
G1 X179.000 Y44.000
G1 X178.000 Y44.000
G1 X177.000 Y44.000
G1 X176.000 Y44.000
G1 X175.000 Y44.000
G1 X174.000 Y44.000
G1 X173.000 Y44.000
G1 X172.000 Y44.000
G1 X171.000 Y44.000
G1 X170.000 Y44.000
G1 X169.000 Y44.000
G1 X168.000 Y44.000
G1 X167.000 Y44.000
G1 X166.000 Y44.000
G1 X165.000 Y44.000
G1 X164.000 Y44.000
G1 X163.000 Y44.000
G1 X162.000 Y44.000
G1 X161.000 Y44.000
G1 X160.000 Y44.000
G1 X159.000 Y44.000
G1 X158.000 Y44.000
G1 X157.000 Y44.000
G1 X156.000 Y44.000
G1 X155.000 Y44.000
G1 X154.000 Y44.000
G1 X153.000 Y44.000
G1 X152.000 Y44.000
G1 X151.000 Y44.000
G1 X150.000 Y44.000
G1 X149.000 Y44.000
G1 X148.000 Y44.000
G1 X147.000 Y44.000
G1 X146.000 Y44.000
G1 X145.000 Y44.000
G1 X144.000 Y44.000
G1 X143.000 Y44.000
G1 X142.000 Y44.000
G1 X141.000 Y44.000
G1 X140.000 Y44.000
G1 X139.000 Y44.000
G1 X138.000 Y44.000
G1 X137.000 Y44.000
G1 X136.000 Y44.000
G1 X135.000 Y44.000
G1 X134.000 Y44.000
G1 X133.000 Y44.000
G1 X132.000 Y44.000
G1 X131.000 Y44.000
G1 X130.000 Y44.000
G1 X129.000 Y44.000
G1 X128.000 Y44.000
G1 X127.000 Y44.000
G1 X126.000 Y44.000
G1 X125.000 Y44.000
G1 X124.000 Y44.000
G1 X123.000 Y44.000
G1 X122.000 Y44.000
G1 X121.000 Y44.000
G1 X120.000 Y44.000
G1 X119.000 Y44.000
G1 X118.000 Y44.000
G1 X117.000 Y44.000
G0 Z4.600 F3000

; --- CIKEL NAMAKANJA ---
G0 Z4.600 F3000
M400
M204 P12000 T12000
G1 F12000
G0 X-1.842 Y-12.246 Z31.000
G1 Z0.000 F3000
G1 X-1.842 Y-12.246 F2500
G1 X-1.842 Y-9.746 F2500
G1 X-6.842 Y-12.246 F2500
G1 X-1.842 Y-19.746 F2500
G0 Z16.000 F3000
G0 X14.025 Y5.320
G0 Z31.000 F3000
G0 X116.000 Y44.000 Z4.600
M400
M204 P200 T200
G1 F400
G1 Z0.000 F2500
G1 X116.000 Y44.000
G1 X115.000 Y44.000
G1 X114.000 Y44.000
G1 X113.000 Y44.000
G1 X112.000 Y44.000
G1 X111.000 Y44.000
G1 X110.000 Y44.000
G1 X109.000 Y44.000
G1 X108.000 Y44.000
G1 X107.000 Y44.000
G1 X106.000 Y44.000
G1 X105.000 Y44.000
G1 X104.000 Y44.000
G1 X103.000 Y44.000
G1 X102.000 Y44.000
G1 X101.000 Y44.000
G1 X100.000 Y44.000
G1 X99.000 Y44.000
G1 X98.000 Y44.000
G1 X97.000 Y44.000
G1 X96.000 Y44.000
G1 X95.000 Y44.000
G1 X94.000 Y44.000
G1 X93.000 Y44.000
G1 X92.000 Y44.000
G1 X91.000 Y44.000
G1 X90.000 Y44.000
G1 X89.000 Y44.000
G1 X88.000 Y44.000
G1 X87.000 Y44.000
G1 X86.000 Y44.000
G1 X85.000 Y44.000
G1 X84.000 Y44.000
G1 X83.000 Y44.000
G1 X82.000 Y44.000
G1 X81.000 Y44.000
G1 X80.000 Y44.000
G1 X79.000 Y44.000
G1 X78.000 Y44.000
G1 X77.000 Y44.000
G1 X76.000 Y44.000
G0 Z4.600 F3000
M400
M204 P12000 T12000
G1 F12000
G0 X75.000 Y45.000 Z4.600
M400
M204 P200 T200
G1 F400
G1 Z0.000 F2500
G1 X76.000 Y45.000
G1 X77.000 Y45.000
G1 X78.000 Y45.000
G1 X79.000 Y45.000
G1 X80.000 Y45.000
G1 X81.000 Y45.000
G1 X82.000 Y45.000
G1 X83.000 Y45.000
G1 X84.000 Y45.000
G1 X85.000 Y45.000
G1 X86.000 Y45.000
G1 X87.000 Y45.000
G1 X88.000 Y45.000
G1 X89.000 Y45.000
G1 X90.000 Y45.000
G1 X91.000 Y45.000
G1 X92.000 Y45.000
G1 X93.000 Y45.000
G1 X94.000 Y45.000
G1 X95.000 Y45.000
G1 X96.000 Y45.000
G1 X97.000 Y45.000
G1 X98.000 Y45.000
G1 X99.000 Y45.000
G1 X100.000 Y45.000
G1 X101.000 Y45.000
G1 X102.000 Y45.000
G1 X103.000 Y45.000
G1 X104.000 Y45.000
G1 X105.000 Y45.000
G1 X106.000 Y45.000
G1 X107.000 Y45.000
G1 X108.000 Y45.000
G1 X109.000 Y45.000
G1 X110.000 Y45.000
G1 X111.000 Y45.000
G1 X112.000 Y45.000
G1 X113.000 Y45.000
G1 X114.000 Y45.000
G1 X115.000 Y45.000
G1 X116.000 Y45.000
G1 X117.000 Y45.000
G1 X118.000 Y45.000
G1 X119.000 Y45.000
G1 X120.000 Y45.000
G1 X121.000 Y45.000
G1 X122.000 Y45.000
G1 X123.000 Y45.000
G1 X124.000 Y45.000
G1 X125.000 Y45.000
G1 X126.000 Y45.000
G1 X127.000 Y45.000
G1 X128.000 Y45.000
G1 X129.000 Y45.000
G1 X130.000 Y45.000
G1 X131.000 Y45.000
G1 X132.000 Y45.000
G1 X133.000 Y45.000
G1 X134.000 Y45.000
G1 X135.000 Y45.000
G1 X136.000 Y45.000
G1 X137.000 Y45.000
G1 X138.000 Y45.000
G1 X139.000 Y45.000
G1 X140.000 Y45.000
G1 X141.000 Y45.000
G1 X142.000 Y45.000
G1 X143.000 Y45.000
G1 X144.000 Y45.000
G1 X145.000 Y45.000
G1 X146.000 Y45.000
G1 X147.000 Y45.000
G1 X148.000 Y45.000
G1 X149.000 Y45.000
G1 X150.000 Y45.000
G1 X151.000 Y45.000
G1 X152.000 Y45.000
G1 X153.000 Y45.000
G1 X154.000 Y45.000
G1 X155.000 Y45.000
G1 X156.000 Y45.000
G1 X157.000 Y45.000
G1 X158.000 Y45.000
G1 X159.000 Y45.000
G1 X160.000 Y45.000
G1 X161.000 Y45.000
G1 X162.000 Y45.000
G1 X163.000 Y45.000
G1 X164.000 Y45.000
G1 X165.000 Y45.000
G1 X166.000 Y45.000
G1 X167.000 Y45.000
G1 X168.000 Y45.000
G1 X169.000 Y45.000
G1 X170.000 Y45.000
G1 X171.000 Y45.000
G1 X172.000 Y45.000
G1 X173.000 Y45.000
G1 X174.000 Y45.000
G1 X175.000 Y45.000
G1 X176.000 Y45.000
G1 X177.000 Y45.000
G1 X178.000 Y45.000
G1 X179.000 Y45.000
G1 X180.000 Y45.000
G1 X181.000 Y45.000
G1 X182.000 Y45.000
G1 X183.000 Y45.000
G1 X184.000 Y45.000
G1 X185.000 Y45.000
G0 Z4.600 F3000
M400
M204 P12000 T12000
G1 F12000
G0 X187.000 Y46.000 Z4.600
M400
M204 P200 T200
G1 F400
G1 Z0.000 F2500
G1 X186.000 Y46.000
G1 X185.000 Y46.000
G1 X184.000 Y46.000
G1 X183.000 Y46.000
G1 X182.000 Y46.000
G1 X181.000 Y46.000
G1 X180.000 Y46.000
G1 X179.000 Y46.000
G1 X178.000 Y46.000
G1 X177.000 Y46.000
G1 X176.000 Y46.000
G1 X175.000 Y46.000
G1 X174.000 Y46.000
G1 X173.000 Y46.000
G1 X172.000 Y46.000
G1 X171.000 Y46.000
G1 X170.000 Y46.000
G1 X169.000 Y46.000
G1 X168.000 Y46.000
G1 X167.000 Y46.000
G1 X166.000 Y46.000
G1 X165.000 Y46.000
G1 X164.000 Y46.000
G1 X163.000 Y46.000
G1 X162.000 Y46.000
G1 X161.000 Y46.000
G1 X160.000 Y46.000
G1 X159.000 Y46.000
G1 X158.000 Y46.000
G1 X157.000 Y46.000
G1 X156.000 Y46.000
G1 X155.000 Y46.000
G1 X154.000 Y46.000
G1 X153.000 Y46.000
G1 X152.000 Y46.000
G1 X151.000 Y46.000
G1 X150.000 Y46.000
G1 X149.000 Y46.000
G1 X148.000 Y46.000
G1 X147.000 Y46.000
G1 X146.000 Y46.000
G1 X145.000 Y46.000
G1 X144.000 Y46.000
G1 X143.000 Y46.000
G1 X142.000 Y46.000
G1 X141.000 Y46.000
G1 X140.000 Y46.000
G1 X139.000 Y46.000
G1 X138.000 Y46.000
G1 X137.000 Y46.000
G1 X136.000 Y46.000
G1 X135.000 Y46.000
G1 X134.000 Y46.000
G1 X133.000 Y46.000
G1 X132.000 Y46.000
G1 X131.000 Y46.000
G1 X130.000 Y46.000
G1 X129.000 Y46.000
G1 X128.000 Y46.000
G1 X127.000 Y46.000
G1 X126.000 Y46.000
G1 X125.000 Y46.000
G1 X124.000 Y46.000
G1 X123.000 Y46.000
G1 X122.000 Y46.000
G1 X121.000 Y46.000
G1 X120.000 Y46.000
G1 X119.000 Y46.000
G1 X118.000 Y46.000
G1 X117.000 Y46.000
G1 X116.000 Y46.000
G1 X115.000 Y46.000
G1 X114.000 Y46.000
G1 X113.000 Y46.000
G1 X112.000 Y46.000
G1 X111.000 Y46.000
G1 X110.000 Y46.000
G1 X109.000 Y46.000
G1 X108.000 Y46.000
G1 X107.000 Y46.000
G1 X106.000 Y46.000
G1 X105.000 Y46.000
G1 X104.000 Y46.000
G1 X103.000 Y46.000
G1 X102.000 Y46.000
G1 X101.000 Y46.000
G1 X100.000 Y46.000
G1 X99.000 Y46.000
G1 X98.000 Y46.000
G1 X97.000 Y46.000
G1 X96.000 Y46.000
G1 X95.000 Y46.000
G1 X94.000 Y46.000
G1 X93.000 Y46.000
G1 X92.000 Y46.000
G1 X91.000 Y46.000
G1 X90.000 Y46.000
G1 X89.000 Y46.000
G1 X88.000 Y46.000
G1 X87.000 Y46.000
G1 X86.000 Y46.000
G1 X85.000 Y46.000
G1 X84.000 Y46.000
G1 X83.000 Y46.000
G1 X82.000 Y46.000
G1 X81.000 Y46.000
G1 X80.000 Y46.000
G1 X79.000 Y46.000
G1 X78.000 Y46.000
G1 X77.000 Y46.000
G1 X76.000 Y46.000
G1 X75.000 Y46.000
G1 X74.000 Y46.000
G1 X73.000 Y46.000
G1 X72.000 Y46.000
G0 Z4.600 F3000
M400
M204 P12000 T12000
G1 F12000
G0 X72.000 Y47.000 Z4.600
M400
M204 P200 T200
G1 F400
G1 Z0.000 F2500
G1 X73.000 Y47.000
G1 X74.000 Y47.000
G1 X75.000 Y47.000
G1 X76.000 Y47.000
G1 X77.000 Y47.000
G1 X78.000 Y47.000
G1 X79.000 Y47.000
G0 Z4.600 F3000

; --- CIKEL NAMAKANJA ---
G0 Z4.600 F3000
M400
M204 P12000 T12000
G1 F12000
G0 X0.861 Y2.889 Z31.000
G1 Z0.000 F3000
G1 X0.861 Y2.889 F2500
G1 X0.861 Y5.389 F2500
G1 X-4.139 Y2.889 F2500
G1 X0.861 Y-4.611 F2500
G0 Z16.000 F3000
G0 X12.933 Y7.598
G0 Z31.000 F3000
G0 X80.000 Y47.000 Z4.600
M400
M204 P200 T200
G1 F400
G1 Z0.000 F2500
G1 X80.000 Y47.000
G1 X81.000 Y47.000
G1 X82.000 Y47.000
G1 X83.000 Y47.000
G1 X84.000 Y47.000
G1 X85.000 Y47.000
G1 X86.000 Y47.000
G1 X87.000 Y47.000
G1 X88.000 Y47.000
G1 X89.000 Y47.000
G1 X90.000 Y47.000
G1 X91.000 Y47.000
G1 X92.000 Y47.000
G1 X93.000 Y47.000
G1 X94.000 Y47.000
G1 X95.000 Y47.000
G1 X96.000 Y47.000
G1 X97.000 Y47.000
G1 X98.000 Y47.000
G1 X99.000 Y47.000
G1 X100.000 Y47.000
G1 X101.000 Y47.000
G1 X102.000 Y47.000
G1 X103.000 Y47.000
G1 X104.000 Y47.000
G1 X105.000 Y47.000
G1 X106.000 Y47.000
G1 X107.000 Y47.000
G1 X108.000 Y47.000
G1 X109.000 Y47.000
G1 X110.000 Y47.000
G1 X111.000 Y47.000
G1 X112.000 Y47.000
G1 X113.000 Y47.000
G1 X114.000 Y47.000
G1 X115.000 Y47.000
G1 X116.000 Y47.000
G1 X117.000 Y47.000
G1 X118.000 Y47.000
G1 X119.000 Y47.000
G1 X120.000 Y47.000
G1 X121.000 Y47.000
G1 X122.000 Y47.000
G1 X123.000 Y47.000
G1 X124.000 Y47.000
G1 X125.000 Y47.000
G1 X126.000 Y47.000
G1 X127.000 Y47.000
G1 X128.000 Y47.000
G1 X129.000 Y47.000
G1 X130.000 Y47.000
G1 X131.000 Y47.000
G1 X132.000 Y47.000
G1 X133.000 Y47.000
G1 X134.000 Y47.000
G1 X135.000 Y47.000
G1 X136.000 Y47.000
G1 X137.000 Y47.000
G1 X138.000 Y47.000
G1 X139.000 Y47.000
G1 X140.000 Y47.000
G1 X141.000 Y47.000
G1 X142.000 Y47.000
G1 X143.000 Y47.000
G1 X144.000 Y47.000
G1 X145.000 Y47.000
G1 X146.000 Y47.000
G1 X147.000 Y47.000
G1 X148.000 Y47.000
G1 X149.000 Y47.000
G1 X150.000 Y47.000
G1 X151.000 Y47.000
G1 X152.000 Y47.000
G1 X153.000 Y47.000
G1 X154.000 Y47.000
G1 X155.000 Y47.000
G1 X156.000 Y47.000
G1 X157.000 Y47.000
G1 X158.000 Y47.000
G1 X159.000 Y47.000
G1 X160.000 Y47.000
G1 X161.000 Y47.000
G1 X162.000 Y47.000
G1 X163.000 Y47.000
G1 X164.000 Y47.000
G1 X165.000 Y47.000
G1 X166.000 Y47.000
G1 X167.000 Y47.000
G1 X168.000 Y47.000
G1 X169.000 Y47.000
G1 X170.000 Y47.000
G1 X171.000 Y47.000
G1 X172.000 Y47.000
G1 X173.000 Y47.000
G1 X174.000 Y47.000
G1 X175.000 Y47.000
G1 X176.000 Y47.000
G1 X177.000 Y47.000
G1 X178.000 Y47.000
G1 X179.000 Y47.000
G1 X180.000 Y47.000
G1 X181.000 Y47.000
G1 X182.000 Y47.000
G1 X183.000 Y47.000
G1 X184.000 Y47.000
G1 X185.000 Y47.000
G1 X186.000 Y47.000
G1 X187.000 Y47.000
G0 Z4.600 F3000
M400
M204 P12000 T12000
G1 F12000
G0 X189.000 Y48.000 Z4.600
M400
M204 P200 T200
G1 F400
G1 Z0.000 F2500
G1 X188.000 Y48.000
G1 X187.000 Y48.000
G1 X186.000 Y48.000
G1 X185.000 Y48.000
G1 X184.000 Y48.000
G1 X183.000 Y48.000
G1 X182.000 Y48.000
G1 X181.000 Y48.000
G1 X180.000 Y48.000
G1 X179.000 Y48.000
G1 X178.000 Y48.000
G1 X177.000 Y48.000
G1 X176.000 Y48.000
G1 X175.000 Y48.000
G1 X174.000 Y48.000
G1 X173.000 Y48.000
G1 X172.000 Y48.000
G1 X171.000 Y48.000
G1 X170.000 Y48.000
G1 X169.000 Y48.000
G1 X168.000 Y48.000
G1 X167.000 Y48.000
G1 X166.000 Y48.000
G1 X165.000 Y48.000
G1 X164.000 Y48.000
G1 X163.000 Y48.000
G1 X162.000 Y48.000
G1 X161.000 Y48.000
G1 X160.000 Y48.000
G1 X159.000 Y48.000
G1 X158.000 Y48.000
G1 X157.000 Y48.000
G1 X156.000 Y48.000
G1 X155.000 Y48.000
G1 X154.000 Y48.000
G1 X153.000 Y48.000
G1 X152.000 Y48.000
G1 X151.000 Y48.000
G1 X150.000 Y48.000
G1 X149.000 Y48.000
G1 X148.000 Y48.000
G1 X147.000 Y48.000
G1 X146.000 Y48.000
G1 X145.000 Y48.000
G1 X144.000 Y48.000
G1 X143.000 Y48.000
G1 X142.000 Y48.000
G1 X141.000 Y48.000
G1 X140.000 Y48.000
G1 X139.000 Y48.000
G1 X138.000 Y48.000
G1 X137.000 Y48.000
G1 X136.000 Y48.000
G1 X135.000 Y48.000
G1 X134.000 Y48.000
G1 X133.000 Y48.000
G1 X132.000 Y48.000
G1 X131.000 Y48.000
G1 X130.000 Y48.000
G1 X129.000 Y48.000
G1 X128.000 Y48.000
G1 X127.000 Y48.000
G1 X126.000 Y48.000
G1 X125.000 Y48.000
G1 X124.000 Y48.000
G1 X123.000 Y48.000
G1 X122.000 Y48.000
G1 X121.000 Y48.000
G1 X120.000 Y48.000
G1 X119.000 Y48.000
G1 X118.000 Y48.000
G1 X117.000 Y48.000
G1 X116.000 Y48.000
G1 X115.000 Y48.000
G1 X114.000 Y48.000
G1 X113.000 Y48.000
G1 X112.000 Y48.000
G1 X111.000 Y48.000
G1 X110.000 Y48.000
G1 X109.000 Y48.000
G1 X108.000 Y48.000
G1 X107.000 Y48.000
G1 X106.000 Y48.000
G1 X105.000 Y48.000
G1 X104.000 Y48.000
G1 X103.000 Y48.000
G1 X102.000 Y48.000
G1 X101.000 Y48.000
G1 X100.000 Y48.000
G1 X99.000 Y48.000
G1 X98.000 Y48.000
G1 X97.000 Y48.000
G1 X96.000 Y48.000
G1 X95.000 Y48.000
G1 X94.000 Y48.000
G1 X93.000 Y48.000
G1 X92.000 Y48.000
G1 X91.000 Y48.000
G1 X90.000 Y48.000
G1 X89.000 Y48.000
G1 X88.000 Y48.000
G1 X87.000 Y48.000
G1 X86.000 Y48.000
G1 X85.000 Y48.000
G1 X84.000 Y48.000
G1 X83.000 Y48.000
G1 X82.000 Y48.000
G1 X81.000 Y48.000
G1 X80.000 Y48.000
G1 X79.000 Y48.000
G1 X78.000 Y48.000
G1 X77.000 Y48.000
G1 X76.000 Y48.000
G1 X75.000 Y48.000
G1 X74.000 Y48.000
G1 X73.000 Y48.000
G1 X72.000 Y48.000
G1 X71.000 Y48.000
G1 X70.000 Y48.000
G0 Z4.600 F3000
M400
M204 P12000 T12000
G1 F12000
G0 X70.000 Y49.000 Z4.600
M400
M204 P200 T200
G1 F400
G1 Z0.000 F2500
G1 X71.000 Y49.000
G1 X72.000 Y49.000
G1 X73.000 Y49.000
G1 X74.000 Y49.000
G1 X75.000 Y49.000
G1 X76.000 Y49.000
G1 X77.000 Y49.000
G1 X78.000 Y49.000
G1 X79.000 Y49.000
G1 X80.000 Y49.000
G1 X81.000 Y49.000
G1 X82.000 Y49.000
G1 X83.000 Y49.000
G1 X84.000 Y49.000
G1 X85.000 Y49.000
G1 X86.000 Y49.000
G1 X87.000 Y49.000
G1 X88.000 Y49.000
G1 X89.000 Y49.000
G1 X90.000 Y49.000
G1 X91.000 Y49.000
G1 X92.000 Y49.000
G1 X93.000 Y49.000
G1 X94.000 Y49.000
G1 X95.000 Y49.000
G1 X96.000 Y49.000
G1 X97.000 Y49.000
G0 Z4.600 F3000

; --- CIKEL NAMAKANJA ---
G0 Z4.600 F3000
M400
M204 P12000 T12000
G1 F12000
G0 X2.259 Y17.421 Z31.000
G1 Z0.000 F3000
G1 X2.259 Y17.421 F2500
G1 X2.259 Y19.921 F2500
G1 X-2.741 Y17.421 F2500
G1 X2.259 Y9.921 F2500
G0 Z16.000 F3000
G0 X13.416 Y6.708
G0 Z31.000 F3000
G0 X98.000 Y49.000 Z4.600
M400
M204 P200 T200
G1 F400
G1 Z0.000 F2500
G1 X98.000 Y49.000
G1 X99.000 Y49.000
G1 X100.000 Y49.000
G1 X101.000 Y49.000
G1 X102.000 Y49.000
G1 X103.000 Y49.000
G1 X104.000 Y49.000
G1 X105.000 Y49.000
G1 X106.000 Y49.000
G1 X107.000 Y49.000
G1 X108.000 Y49.000
G1 X109.000 Y49.000
G1 X110.000 Y49.000
G1 X111.000 Y49.000
G1 X112.000 Y49.000
G1 X113.000 Y49.000
G1 X114.000 Y49.000
G1 X115.000 Y49.000
G1 X116.000 Y49.000
G1 X117.000 Y49.000
G1 X118.000 Y49.000
G1 X119.000 Y49.000
G1 X120.000 Y49.000
G1 X121.000 Y49.000
G1 X122.000 Y49.000
G1 X123.000 Y49.000
G1 X124.000 Y49.000
G1 X125.000 Y49.000
G1 X126.000 Y49.000
G1 X127.000 Y49.000
G1 X128.000 Y49.000
G1 X129.000 Y49.000
G1 X130.000 Y49.000
G1 X131.000 Y49.000
G1 X132.000 Y49.000
G1 X133.000 Y49.000
G1 X134.000 Y49.000
G1 X135.000 Y49.000
G1 X136.000 Y49.000
G1 X137.000 Y49.000
G1 X138.000 Y49.000
G1 X139.000 Y49.000
G1 X140.000 Y49.000
G1 X141.000 Y49.000
G1 X142.000 Y49.000
G1 X143.000 Y49.000
G1 X144.000 Y49.000
G1 X145.000 Y49.000
G1 X146.000 Y49.000
G1 X147.000 Y49.000
G1 X148.000 Y49.000
G1 X149.000 Y49.000
G1 X150.000 Y49.000
G1 X151.000 Y49.000
G1 X152.000 Y49.000
G1 X153.000 Y49.000
G1 X154.000 Y49.000
G1 X155.000 Y49.000
G1 X156.000 Y49.000
G1 X157.000 Y49.000
G1 X158.000 Y49.000
G1 X159.000 Y49.000
G1 X160.000 Y49.000
G1 X161.000 Y49.000
G1 X162.000 Y49.000
G1 X163.000 Y49.000
G1 X164.000 Y49.000
G1 X165.000 Y49.000
G1 X166.000 Y49.000
G1 X167.000 Y49.000
G1 X168.000 Y49.000
G1 X169.000 Y49.000
G1 X170.000 Y49.000
G1 X171.000 Y49.000
G1 X172.000 Y49.000
G1 X173.000 Y49.000
G1 X174.000 Y49.000
G1 X175.000 Y49.000
G1 X176.000 Y49.000
G1 X177.000 Y49.000
G1 X178.000 Y49.000
G1 X179.000 Y49.000
G1 X180.000 Y49.000
G1 X181.000 Y49.000
G1 X182.000 Y49.000
G1 X183.000 Y49.000
G1 X184.000 Y49.000
G1 X185.000 Y49.000
G1 X186.000 Y49.000
G1 X187.000 Y49.000
G1 X188.000 Y49.000
G1 X189.000 Y49.000
G0 Z4.600 F3000
M400
M204 P12000 T12000
G1 F12000
G0 X192.000 Y50.000 Z4.600
M400
M204 P200 T200
G1 F400
G1 Z0.000 F2500
G1 X191.000 Y50.000
G1 X190.000 Y50.000
G1 X189.000 Y50.000
G1 X188.000 Y50.000
G1 X187.000 Y50.000
G1 X186.000 Y50.000
G1 X185.000 Y50.000
G1 X184.000 Y50.000
G1 X183.000 Y50.000
G1 X182.000 Y50.000
G1 X181.000 Y50.000
G1 X180.000 Y50.000
G1 X179.000 Y50.000
G1 X178.000 Y50.000
G1 X177.000 Y50.000
G1 X176.000 Y50.000
G1 X175.000 Y50.000
G1 X174.000 Y50.000
G1 X173.000 Y50.000
G1 X172.000 Y50.000
G1 X171.000 Y50.000
G1 X170.000 Y50.000
G1 X169.000 Y50.000
G1 X168.000 Y50.000
G1 X167.000 Y50.000
G1 X166.000 Y50.000
G1 X165.000 Y50.000
G1 X164.000 Y50.000
G1 X163.000 Y50.000
G1 X162.000 Y50.000
G1 X161.000 Y50.000
G1 X160.000 Y50.000
G1 X159.000 Y50.000
G1 X158.000 Y50.000
G1 X157.000 Y50.000
G1 X156.000 Y50.000
G1 X155.000 Y50.000
G1 X154.000 Y50.000
G1 X153.000 Y50.000
G1 X152.000 Y50.000
G1 X151.000 Y50.000
G1 X150.000 Y50.000
G1 X149.000 Y50.000
G1 X148.000 Y50.000
G1 X147.000 Y50.000
G1 X146.000 Y50.000
G1 X145.000 Y50.000
G1 X144.000 Y50.000
G1 X143.000 Y50.000
G1 X142.000 Y50.000
G1 X141.000 Y50.000
G1 X140.000 Y50.000
G1 X139.000 Y50.000
G1 X138.000 Y50.000
G1 X137.000 Y50.000
G1 X136.000 Y50.000
G1 X135.000 Y50.000
G1 X134.000 Y50.000
G1 X133.000 Y50.000
G1 X132.000 Y50.000
G1 X131.000 Y50.000
G1 X130.000 Y50.000
G1 X129.000 Y50.000
G1 X128.000 Y50.000
G1 X127.000 Y50.000
G1 X126.000 Y50.000
G1 X125.000 Y50.000
G1 X124.000 Y50.000
G1 X123.000 Y50.000
G1 X122.000 Y50.000
G1 X121.000 Y50.000
G1 X120.000 Y50.000
G1 X119.000 Y50.000
G1 X118.000 Y50.000
G1 X117.000 Y50.000
G1 X116.000 Y50.000
G1 X115.000 Y50.000
G1 X114.000 Y50.000
G1 X113.000 Y50.000
G1 X112.000 Y50.000
G1 X111.000 Y50.000
G1 X110.000 Y50.000
G1 X109.000 Y50.000
G1 X108.000 Y50.000
G1 X107.000 Y50.000
G1 X106.000 Y50.000
G1 X105.000 Y50.000
G1 X104.000 Y50.000
G1 X103.000 Y50.000
G1 X102.000 Y50.000
G1 X101.000 Y50.000
G1 X100.000 Y50.000
G1 X99.000 Y50.000
G1 X98.000 Y50.000
G1 X97.000 Y50.000
G1 X96.000 Y50.000
G1 X95.000 Y50.000
G1 X94.000 Y50.000
G1 X93.000 Y50.000
G1 X92.000 Y50.000
G1 X91.000 Y50.000
G1 X90.000 Y50.000
G1 X89.000 Y50.000
G1 X88.000 Y50.000
G1 X87.000 Y50.000
G1 X86.000 Y50.000
G1 X85.000 Y50.000
G1 X84.000 Y50.000
G1 X83.000 Y50.000
G1 X82.000 Y50.000
G1 X81.000 Y50.000
G1 X80.000 Y50.000
G1 X79.000 Y50.000
G1 X78.000 Y50.000
G1 X77.000 Y50.000
G1 X76.000 Y50.000
G1 X75.000 Y50.000
G1 X74.000 Y50.000
G1 X73.000 Y50.000
G1 X72.000 Y50.000
G1 X71.000 Y50.000
G1 X70.000 Y50.000
G1 X69.000 Y50.000
G1 X68.000 Y50.000
G1 X67.000 Y50.000
G0 Z4.600 F3000
M400
M204 P12000 T12000
G1 F12000
G0 X66.000 Y51.000 Z4.600
M400
M204 P200 T200
G1 F400
G1 Z0.000 F2500
G1 X67.000 Y51.000
G1 X68.000 Y51.000
G1 X69.000 Y51.000
G1 X70.000 Y51.000
G1 X71.000 Y51.000
G1 X72.000 Y51.000
G1 X73.000 Y51.000
G1 X74.000 Y51.000
G1 X75.000 Y51.000
G1 X76.000 Y51.000
G1 X77.000 Y51.000
G1 X78.000 Y51.000
G1 X79.000 Y51.000
G1 X80.000 Y51.000
G1 X81.000 Y51.000
G1 X82.000 Y51.000
G1 X83.000 Y51.000
G1 X84.000 Y51.000
G1 X85.000 Y51.000
G1 X86.000 Y51.000
G1 X87.000 Y51.000
G1 X88.000 Y51.000
G1 X89.000 Y51.000
G1 X90.000 Y51.000
G1 X91.000 Y51.000
G1 X92.000 Y51.000
G1 X93.000 Y51.000
G1 X94.000 Y51.000
G1 X95.000 Y51.000
G1 X96.000 Y51.000
G1 X97.000 Y51.000
G1 X98.000 Y51.000
G1 X99.000 Y51.000
G1 X100.000 Y51.000
G1 X101.000 Y51.000
G1 X102.000 Y51.000
G1 X103.000 Y51.000
G1 X104.000 Y51.000
G1 X105.000 Y51.000
G1 X106.000 Y51.000
G1 X107.000 Y51.000
G1 X108.000 Y51.000
G1 X109.000 Y51.000
G1 X110.000 Y51.000
G1 X111.000 Y51.000
G1 X112.000 Y51.000
G1 X113.000 Y51.000
G1 X114.000 Y51.000
G1 X115.000 Y51.000
G1 X116.000 Y51.000
G1 X117.000 Y51.000
G1 X118.000 Y51.000
G1 X119.000 Y51.000
G1 X120.000 Y51.000
G1 X121.000 Y51.000
G1 X122.000 Y51.000
G1 X123.000 Y51.000
G1 X124.000 Y51.000
G0 Z4.600 F3000

; --- CIKEL NAMAKANJA ---
G0 Z4.600 F3000
M400
M204 P12000 T12000
G1 F12000
G0 X-3.373 Y-0.734 Z31.000
G1 Z0.000 F3000
G1 X-3.373 Y-0.734 F2500
G1 X-3.373 Y1.766 F2500
G1 X-8.373 Y-0.734 F2500
G1 X-3.373 Y-8.234 F2500
G0 Z16.000 F3000
G0 X13.889 Y5.667
G0 Z31.000 F3000
G0 X125.000 Y51.000 Z4.600
M400
M204 P200 T200
G1 F400
G1 Z0.000 F2500
G1 X125.000 Y51.000
G1 X126.000 Y51.000
G1 X127.000 Y51.000
G1 X128.000 Y51.000
G1 X129.000 Y51.000
G1 X130.000 Y51.000
G1 X131.000 Y51.000
G1 X132.000 Y51.000
G1 X133.000 Y51.000
G1 X134.000 Y51.000
G1 X135.000 Y51.000
G1 X136.000 Y51.000
G1 X137.000 Y51.000
G1 X138.000 Y51.000
G1 X139.000 Y51.000
G1 X140.000 Y51.000
G1 X141.000 Y51.000
G1 X142.000 Y51.000
G1 X143.000 Y51.000
G1 X144.000 Y51.000
G1 X145.000 Y51.000
G1 X146.000 Y51.000
G1 X147.000 Y51.000
G1 X148.000 Y51.000
G1 X149.000 Y51.000
G1 X150.000 Y51.000
G1 X151.000 Y51.000
G1 X152.000 Y51.000
G1 X153.000 Y51.000
G1 X154.000 Y51.000
G1 X155.000 Y51.000
G1 X156.000 Y51.000
G1 X157.000 Y51.000
G1 X158.000 Y51.000
G1 X159.000 Y51.000
G1 X160.000 Y51.000
G1 X161.000 Y51.000
G1 X162.000 Y51.000
G1 X163.000 Y51.000
G1 X164.000 Y51.000
G1 X165.000 Y51.000
G1 X166.000 Y51.000
G1 X167.000 Y51.000
G1 X168.000 Y51.000
G1 X169.000 Y51.000
G1 X170.000 Y51.000
G1 X171.000 Y51.000
G1 X172.000 Y51.000
G1 X173.000 Y51.000
G1 X174.000 Y51.000
G1 X175.000 Y51.000
G1 X176.000 Y51.000
G1 X177.000 Y51.000
G1 X178.000 Y51.000
G1 X179.000 Y51.000
G1 X180.000 Y51.000
G1 X181.000 Y51.000
G1 X182.000 Y51.000
G1 X183.000 Y51.000
G1 X184.000 Y51.000
G1 X185.000 Y51.000
G1 X186.000 Y51.000
G1 X187.000 Y51.000
G1 X188.000 Y51.000
G1 X189.000 Y51.000
G1 X190.000 Y51.000
G1 X191.000 Y51.000
G1 X192.000 Y51.000
G1 X193.000 Y51.000
G0 Z4.600 F3000
M400
M204 P12000 T12000
G1 F12000
G0 X194.000 Y52.000 Z4.600
M400
M204 P200 T200
G1 F400
G1 Z0.000 F2500
G1 X193.000 Y52.000
G1 X192.000 Y52.000
G1 X191.000 Y52.000
G1 X190.000 Y52.000
G1 X189.000 Y52.000
G1 X188.000 Y52.000
G1 X187.000 Y52.000
G1 X186.000 Y52.000
G1 X185.000 Y52.000
G1 X184.000 Y52.000
G1 X183.000 Y52.000
G1 X182.000 Y52.000
G1 X181.000 Y52.000
G1 X180.000 Y52.000
G1 X179.000 Y52.000
G1 X178.000 Y52.000
G1 X177.000 Y52.000
G1 X176.000 Y52.000
G1 X175.000 Y52.000
G1 X174.000 Y52.000
G1 X173.000 Y52.000
G1 X172.000 Y52.000
G1 X171.000 Y52.000
G1 X170.000 Y52.000
G1 X169.000 Y52.000
G1 X168.000 Y52.000
G1 X167.000 Y52.000
G1 X166.000 Y52.000
G1 X165.000 Y52.000
G1 X164.000 Y52.000
G1 X163.000 Y52.000
G1 X162.000 Y52.000
G1 X161.000 Y52.000
G1 X160.000 Y52.000
G1 X159.000 Y52.000
G1 X158.000 Y52.000
G1 X157.000 Y52.000
G1 X156.000 Y52.000
G1 X155.000 Y52.000
G1 X154.000 Y52.000
G1 X153.000 Y52.000
G1 X152.000 Y52.000
G1 X151.000 Y52.000
G1 X150.000 Y52.000
G1 X149.000 Y52.000
G1 X148.000 Y52.000
G1 X147.000 Y52.000
G1 X146.000 Y52.000
G1 X145.000 Y52.000
G1 X144.000 Y52.000
G1 X143.000 Y52.000
G1 X142.000 Y52.000
G1 X141.000 Y52.000
G1 X140.000 Y52.000
G1 X139.000 Y52.000
G1 X138.000 Y52.000
G1 X137.000 Y52.000
G1 X136.000 Y52.000
G1 X135.000 Y52.000
G1 X134.000 Y52.000
G1 X133.000 Y52.000
G1 X132.000 Y52.000
G1 X131.000 Y52.000
G1 X130.000 Y52.000
G1 X129.000 Y52.000
G1 X128.000 Y52.000
G1 X127.000 Y52.000
G1 X126.000 Y52.000
G1 X125.000 Y52.000
G1 X124.000 Y52.000
G1 X123.000 Y52.000
G1 X122.000 Y52.000
G1 X121.000 Y52.000
G1 X120.000 Y52.000
G1 X119.000 Y52.000
G1 X118.000 Y52.000
G1 X117.000 Y52.000
G1 X116.000 Y52.000
G1 X115.000 Y52.000
G1 X114.000 Y52.000
G1 X113.000 Y52.000
G1 X112.000 Y52.000
G1 X111.000 Y52.000
G1 X110.000 Y52.000
G1 X109.000 Y52.000
G1 X108.000 Y52.000
G1 X107.000 Y52.000
G1 X106.000 Y52.000
G1 X105.000 Y52.000
G1 X104.000 Y52.000
G1 X103.000 Y52.000
G1 X102.000 Y52.000
G1 X101.000 Y52.000
G1 X100.000 Y52.000
G1 X99.000 Y52.000
G1 X98.000 Y52.000
G1 X97.000 Y52.000
G1 X96.000 Y52.000
G1 X95.000 Y52.000
G1 X94.000 Y52.000
G1 X93.000 Y52.000
G1 X92.000 Y52.000
G1 X91.000 Y52.000
G1 X90.000 Y52.000
G1 X89.000 Y52.000
G1 X88.000 Y52.000
G1 X87.000 Y52.000
G1 X86.000 Y52.000
G1 X85.000 Y52.000
G1 X84.000 Y52.000
G1 X83.000 Y52.000
G1 X82.000 Y52.000
G1 X81.000 Y52.000
G1 X80.000 Y52.000
G1 X79.000 Y52.000
G1 X78.000 Y52.000
G1 X77.000 Y52.000
G1 X76.000 Y52.000
G1 X75.000 Y52.000
G1 X74.000 Y52.000
G1 X73.000 Y52.000
G1 X72.000 Y52.000
G1 X71.000 Y52.000
G1 X70.000 Y52.000
G1 X69.000 Y52.000
G1 X68.000 Y52.000
G1 X67.000 Y52.000
G1 X66.000 Y52.000
G1 X65.000 Y52.000
G0 Z4.600 F3000
M400
M204 P12000 T12000
G1 F12000
G0 X64.000 Y53.000 Z4.600
M400
M204 P200 T200
G1 F400
G1 Z0.000 F2500
G1 X65.000 Y53.000
G1 X66.000 Y53.000
G1 X67.000 Y53.000
G1 X68.000 Y53.000
G1 X69.000 Y53.000
G1 X70.000 Y53.000
G1 X71.000 Y53.000
G1 X72.000 Y53.000
G1 X73.000 Y53.000
G1 X74.000 Y53.000
G1 X75.000 Y53.000
G1 X76.000 Y53.000
G1 X77.000 Y53.000
G1 X78.000 Y53.000
G1 X79.000 Y53.000
G1 X80.000 Y53.000
G1 X81.000 Y53.000
G1 X82.000 Y53.000
G1 X83.000 Y53.000
G1 X84.000 Y53.000
G1 X85.000 Y53.000
G1 X86.000 Y53.000
G1 X87.000 Y53.000
G1 X88.000 Y53.000
G1 X89.000 Y53.000
G1 X90.000 Y53.000
G1 X91.000 Y53.000
G1 X92.000 Y53.000
G1 X93.000 Y53.000
G1 X94.000 Y53.000
G1 X95.000 Y53.000
G1 X96.000 Y53.000
G1 X97.000 Y53.000
G1 X98.000 Y53.000
G1 X99.000 Y53.000
G1 X100.000 Y53.000
G1 X101.000 Y53.000
G1 X102.000 Y53.000
G1 X103.000 Y53.000
G1 X104.000 Y53.000
G1 X105.000 Y53.000
G1 X106.000 Y53.000
G1 X107.000 Y53.000
G1 X108.000 Y53.000
G1 X109.000 Y53.000
G1 X110.000 Y53.000
G1 X111.000 Y53.000
G1 X112.000 Y53.000
G1 X113.000 Y53.000
G1 X114.000 Y53.000
G1 X115.000 Y53.000
G1 X116.000 Y53.000
G1 X117.000 Y53.000
G1 X118.000 Y53.000
G1 X119.000 Y53.000
G1 X120.000 Y53.000
G1 X121.000 Y53.000
G1 X122.000 Y53.000
G1 X123.000 Y53.000
G1 X124.000 Y53.000
G1 X125.000 Y53.000
G1 X126.000 Y53.000
G1 X127.000 Y53.000
G1 X128.000 Y53.000
G1 X129.000 Y53.000
G1 X130.000 Y53.000
G1 X131.000 Y53.000
G1 X132.000 Y53.000
G1 X133.000 Y53.000
G1 X134.000 Y53.000
G1 X135.000 Y53.000
G0 Z4.600 F3000

; --- CIKEL NAMAKANJA ---
G0 Z4.600 F3000
M400
M204 P12000 T12000
G1 F12000
G0 X-17.573 Y-14.299 Z31.000
G1 Z0.000 F3000
G1 X-17.573 Y-14.299 F2500
G1 X-17.573 Y-11.799 F2500
G1 X-22.573 Y-14.299 F2500
G1 X-17.573 Y-21.799 F2500
G0 Z16.000 F3000
G0 X13.976 Y5.447
G0 Z31.000 F3000
G0 X136.000 Y53.000 Z4.600
M400
M204 P200 T200
G1 F400
G1 Z0.000 F2500
G1 X136.000 Y53.000
G1 X137.000 Y53.000
G1 X138.000 Y53.000
G1 X139.000 Y53.000
G1 X140.000 Y53.000
G1 X141.000 Y53.000
G1 X142.000 Y53.000
G1 X143.000 Y53.000
G1 X144.000 Y53.000
G1 X145.000 Y53.000
G1 X146.000 Y53.000
G1 X147.000 Y53.000
G1 X148.000 Y53.000
G1 X149.000 Y53.000
G1 X150.000 Y53.000
G1 X151.000 Y53.000
G1 X152.000 Y53.000
G1 X153.000 Y53.000
G1 X154.000 Y53.000
G1 X155.000 Y53.000
G1 X156.000 Y53.000
G1 X157.000 Y53.000
G1 X158.000 Y53.000
G1 X159.000 Y53.000
G1 X160.000 Y53.000
G1 X161.000 Y53.000
G1 X162.000 Y53.000
G1 X163.000 Y53.000
G1 X164.000 Y53.000
G1 X165.000 Y53.000
G1 X166.000 Y53.000
G1 X167.000 Y53.000
G1 X168.000 Y53.000
G1 X169.000 Y53.000
G1 X170.000 Y53.000
G1 X171.000 Y53.000
G1 X172.000 Y53.000
G1 X173.000 Y53.000
G1 X174.000 Y53.000
G1 X175.000 Y53.000
G1 X176.000 Y53.000
G1 X177.000 Y53.000
G1 X178.000 Y53.000
G1 X179.000 Y53.000
G1 X180.000 Y53.000
G1 X181.000 Y53.000
G1 X182.000 Y53.000
G1 X183.000 Y53.000
G1 X184.000 Y53.000
G1 X185.000 Y53.000
G1 X186.000 Y53.000
G1 X187.000 Y53.000
G1 X188.000 Y53.000
G1 X189.000 Y53.000
G1 X190.000 Y53.000
G1 X191.000 Y53.000
G1 X192.000 Y53.000
G1 X193.000 Y53.000
G1 X194.000 Y53.000
G1 X195.000 Y53.000
G0 Z4.600 F3000
M400
M204 P12000 T12000
G1 F12000
G0 X196.000 Y54.000 Z4.600
M400
M204 P200 T200
G1 F400
G1 Z0.000 F2500
G1 X195.000 Y54.000
G1 X194.000 Y54.000
G1 X193.000 Y54.000
G1 X192.000 Y54.000
G1 X191.000 Y54.000
G1 X190.000 Y54.000
G1 X189.000 Y54.000
G1 X188.000 Y54.000
G1 X187.000 Y54.000
G1 X186.000 Y54.000
G1 X185.000 Y54.000
G1 X184.000 Y54.000
G1 X183.000 Y54.000
G1 X182.000 Y54.000
G1 X181.000 Y54.000
G1 X180.000 Y54.000
G1 X179.000 Y54.000
G1 X178.000 Y54.000
G1 X177.000 Y54.000
G1 X176.000 Y54.000
G1 X175.000 Y54.000
G1 X174.000 Y54.000
G1 X173.000 Y54.000
G1 X172.000 Y54.000
G1 X171.000 Y54.000
G1 X170.000 Y54.000
G1 X169.000 Y54.000
G1 X168.000 Y54.000
G1 X167.000 Y54.000
G1 X166.000 Y54.000
G1 X165.000 Y54.000
G1 X164.000 Y54.000
G1 X163.000 Y54.000
G1 X162.000 Y54.000
G1 X161.000 Y54.000
G1 X160.000 Y54.000
G1 X159.000 Y54.000
G1 X158.000 Y54.000
G1 X157.000 Y54.000
G1 X156.000 Y54.000
G1 X155.000 Y54.000
G1 X154.000 Y54.000
G1 X153.000 Y54.000
G1 X152.000 Y54.000
G1 X151.000 Y54.000
G1 X150.000 Y54.000
G1 X149.000 Y54.000
G1 X148.000 Y54.000
G1 X147.000 Y54.000
G1 X146.000 Y54.000
G1 X145.000 Y54.000
G1 X144.000 Y54.000
G1 X143.000 Y54.000
G1 X142.000 Y54.000
G1 X141.000 Y54.000
G1 X140.000 Y54.000
G1 X139.000 Y54.000
G1 X138.000 Y54.000
G1 X137.000 Y54.000
G1 X136.000 Y54.000
G1 X135.000 Y54.000
G1 X134.000 Y54.000
G1 X133.000 Y54.000
G1 X132.000 Y54.000
G1 X131.000 Y54.000
G1 X130.000 Y54.000
G1 X129.000 Y54.000
G1 X128.000 Y54.000
G1 X127.000 Y54.000
G1 X126.000 Y54.000
G1 X125.000 Y54.000
G1 X124.000 Y54.000
G1 X123.000 Y54.000
G1 X122.000 Y54.000
G1 X121.000 Y54.000
G1 X120.000 Y54.000
G1 X119.000 Y54.000
G1 X118.000 Y54.000
G1 X117.000 Y54.000
G1 X116.000 Y54.000
G1 X115.000 Y54.000
G1 X114.000 Y54.000
G1 X113.000 Y54.000
G1 X112.000 Y54.000
G1 X111.000 Y54.000
G1 X110.000 Y54.000
G1 X109.000 Y54.000
G1 X108.000 Y54.000
G1 X107.000 Y54.000
G1 X106.000 Y54.000
G1 X105.000 Y54.000
G1 X104.000 Y54.000
G1 X103.000 Y54.000
G1 X102.000 Y54.000
G1 X101.000 Y54.000
G1 X100.000 Y54.000
G1 X99.000 Y54.000
G1 X98.000 Y54.000
G1 X97.000 Y54.000
G1 X96.000 Y54.000
G1 X95.000 Y54.000
G1 X94.000 Y54.000
G1 X93.000 Y54.000
G1 X92.000 Y54.000
G1 X91.000 Y54.000
G1 X90.000 Y54.000
G1 X89.000 Y54.000
G1 X88.000 Y54.000
G1 X87.000 Y54.000
G1 X86.000 Y54.000
G1 X85.000 Y54.000
G1 X84.000 Y54.000
G1 X83.000 Y54.000
G1 X82.000 Y54.000
G1 X81.000 Y54.000
G1 X80.000 Y54.000
G1 X79.000 Y54.000
G1 X78.000 Y54.000
G1 X77.000 Y54.000
G1 X76.000 Y54.000
G1 X75.000 Y54.000
G1 X74.000 Y54.000
G1 X73.000 Y54.000
G1 X72.000 Y54.000
G1 X71.000 Y54.000
G1 X70.000 Y54.000
G1 X69.000 Y54.000
G1 X68.000 Y54.000
G1 X67.000 Y54.000
G1 X66.000 Y54.000
G1 X65.000 Y54.000
G1 X64.000 Y54.000
G1 X63.000 Y54.000
G0 Z4.600 F3000
M400
M204 P12000 T12000
G1 F12000
G0 X62.000 Y55.000 Z4.600
M400
M204 P200 T200
G1 F400
G1 Z0.000 F2500
G1 X63.000 Y55.000
G1 X64.000 Y55.000
G1 X65.000 Y55.000
G1 X66.000 Y55.000
G1 X67.000 Y55.000
G1 X68.000 Y55.000
G1 X69.000 Y55.000
G1 X70.000 Y55.000
G1 X71.000 Y55.000
G1 X72.000 Y55.000
G1 X73.000 Y55.000
G1 X74.000 Y55.000
G1 X75.000 Y55.000
G1 X76.000 Y55.000
G1 X77.000 Y55.000
G1 X78.000 Y55.000
G1 X79.000 Y55.000
G1 X80.000 Y55.000
G1 X81.000 Y55.000
G1 X82.000 Y55.000
G1 X83.000 Y55.000
G1 X84.000 Y55.000
G1 X85.000 Y55.000
G1 X86.000 Y55.000
G1 X87.000 Y55.000
G1 X88.000 Y55.000
G1 X89.000 Y55.000
G1 X90.000 Y55.000
G1 X91.000 Y55.000
G1 X92.000 Y55.000
G1 X93.000 Y55.000
G1 X94.000 Y55.000
G1 X95.000 Y55.000
G1 X96.000 Y55.000
G1 X97.000 Y55.000
G1 X98.000 Y55.000
G1 X99.000 Y55.000
G1 X100.000 Y55.000
G1 X101.000 Y55.000
G1 X102.000 Y55.000
G1 X103.000 Y55.000
G1 X104.000 Y55.000
G1 X105.000 Y55.000
G1 X106.000 Y55.000
G1 X107.000 Y55.000
G1 X108.000 Y55.000
G1 X109.000 Y55.000
G1 X110.000 Y55.000
G1 X111.000 Y55.000
G1 X112.000 Y55.000
G1 X113.000 Y55.000
G1 X114.000 Y55.000
G1 X115.000 Y55.000
G1 X116.000 Y55.000
G1 X117.000 Y55.000
G1 X118.000 Y55.000
G1 X119.000 Y55.000
G1 X120.000 Y55.000
G1 X121.000 Y55.000
G1 X122.000 Y55.000
G1 X123.000 Y55.000
G1 X124.000 Y55.000
G1 X125.000 Y55.000
G1 X126.000 Y55.000
G1 X127.000 Y55.000
G1 X128.000 Y55.000
G1 X129.000 Y55.000
G1 X130.000 Y55.000
G0 Z4.600 F3000

; --- CIKEL NAMAKANJA ---
G0 Z4.600 F3000
M400
M204 P12000 T12000
G1 F12000
G0 X-13.262 Y-13.024 Z31.000
G1 Z0.000 F3000
G1 X-13.262 Y-13.024 F2500
G1 X-13.262 Y-10.524 F2500
G1 X-18.262 Y-13.024 F2500
G1 X-13.262 Y-20.524 F2500
G0 Z16.000 F3000
G0 X13.830 Y5.807
G0 Z31.000 F3000
G0 X131.000 Y55.000 Z4.600
M400
M204 P200 T200
G1 F400
G1 Z0.000 F2500
G1 X131.000 Y55.000
G1 X132.000 Y55.000
G1 X133.000 Y55.000
G1 X134.000 Y55.000
G1 X135.000 Y55.000
G1 X136.000 Y55.000
G1 X137.000 Y55.000
G1 X138.000 Y55.000
G1 X139.000 Y55.000
G1 X140.000 Y55.000
G1 X141.000 Y55.000
G1 X142.000 Y55.000
G1 X143.000 Y55.000
G1 X144.000 Y55.000
G1 X145.000 Y55.000
G1 X146.000 Y55.000
G1 X147.000 Y55.000
G1 X148.000 Y55.000
G1 X149.000 Y55.000
G1 X150.000 Y55.000
G1 X151.000 Y55.000
G1 X152.000 Y55.000
G1 X153.000 Y55.000
G1 X154.000 Y55.000
G1 X155.000 Y55.000
G1 X156.000 Y55.000
G1 X157.000 Y55.000
G1 X158.000 Y55.000
G1 X159.000 Y55.000
G1 X160.000 Y55.000
G1 X161.000 Y55.000
G1 X162.000 Y55.000
G1 X163.000 Y55.000
G1 X164.000 Y55.000
G1 X165.000 Y55.000
G1 X166.000 Y55.000
G1 X167.000 Y55.000
G1 X168.000 Y55.000
G1 X169.000 Y55.000
G1 X170.000 Y55.000
G1 X171.000 Y55.000
G1 X172.000 Y55.000
G1 X173.000 Y55.000
G1 X174.000 Y55.000
G1 X175.000 Y55.000
G1 X176.000 Y55.000
G1 X177.000 Y55.000
G1 X178.000 Y55.000
G1 X179.000 Y55.000
G1 X180.000 Y55.000
G1 X181.000 Y55.000
G1 X182.000 Y55.000
G1 X183.000 Y55.000
G1 X184.000 Y55.000
G1 X185.000 Y55.000
G1 X186.000 Y55.000
G1 X187.000 Y55.000
G1 X188.000 Y55.000
G1 X189.000 Y55.000
G1 X190.000 Y55.000
G1 X191.000 Y55.000
G1 X192.000 Y55.000
G1 X193.000 Y55.000
G1 X194.000 Y55.000
G1 X195.000 Y55.000
G1 X196.000 Y55.000
G1 X197.000 Y55.000
G0 Z4.600 F3000
M400
M204 P12000 T12000
G1 F12000
G0 X198.000 Y56.000 Z4.600
M400
M204 P200 T200
G1 F400
G1 Z0.000 F2500
G1 X197.000 Y56.000
G1 X196.000 Y56.000
G1 X195.000 Y56.000
G1 X194.000 Y56.000
G1 X193.000 Y56.000
G1 X192.000 Y56.000
G1 X191.000 Y56.000
G1 X190.000 Y56.000
G1 X189.000 Y56.000
G1 X188.000 Y56.000
G1 X187.000 Y56.000
G1 X186.000 Y56.000
G1 X185.000 Y56.000
G1 X184.000 Y56.000
G1 X183.000 Y56.000
G1 X182.000 Y56.000
G1 X181.000 Y56.000
G1 X180.000 Y56.000
G1 X179.000 Y56.000
G1 X178.000 Y56.000
G1 X177.000 Y56.000
G1 X176.000 Y56.000
G1 X175.000 Y56.000
G1 X174.000 Y56.000
G1 X173.000 Y56.000
G1 X172.000 Y56.000
G1 X171.000 Y56.000
G1 X170.000 Y56.000
G1 X169.000 Y56.000
G1 X168.000 Y56.000
G1 X167.000 Y56.000
G1 X166.000 Y56.000
G1 X165.000 Y56.000
G1 X164.000 Y56.000
G1 X163.000 Y56.000
G1 X162.000 Y56.000
G1 X161.000 Y56.000
G1 X160.000 Y56.000
G1 X159.000 Y56.000
G1 X158.000 Y56.000
G1 X157.000 Y56.000
G1 X156.000 Y56.000
G1 X155.000 Y56.000
G1 X154.000 Y56.000
G1 X153.000 Y56.000
G1 X152.000 Y56.000
G1 X151.000 Y56.000
G1 X150.000 Y56.000
G1 X149.000 Y56.000
G1 X148.000 Y56.000
G1 X147.000 Y56.000
G1 X146.000 Y56.000
G1 X145.000 Y56.000
G1 X144.000 Y56.000
G1 X143.000 Y56.000
G1 X142.000 Y56.000
G1 X141.000 Y56.000
G1 X140.000 Y56.000
G1 X139.000 Y56.000
G1 X138.000 Y56.000
G1 X137.000 Y56.000
G1 X136.000 Y56.000
G1 X135.000 Y56.000
G1 X134.000 Y56.000
G1 X133.000 Y56.000
G1 X132.000 Y56.000
G1 X131.000 Y56.000
G1 X130.000 Y56.000
G1 X129.000 Y56.000
G1 X128.000 Y56.000
G1 X127.000 Y56.000
G1 X126.000 Y56.000
G1 X125.000 Y56.000
G1 X124.000 Y56.000
G1 X123.000 Y56.000
G1 X122.000 Y56.000
G1 X121.000 Y56.000
G1 X120.000 Y56.000
G1 X119.000 Y56.000
G1 X118.000 Y56.000
G1 X117.000 Y56.000
G1 X116.000 Y56.000
G1 X115.000 Y56.000
G1 X114.000 Y56.000
G1 X113.000 Y56.000
G1 X112.000 Y56.000
G1 X111.000 Y56.000
G1 X110.000 Y56.000
G1 X109.000 Y56.000
G1 X108.000 Y56.000
G1 X107.000 Y56.000
G1 X106.000 Y56.000
G1 X105.000 Y56.000
G1 X104.000 Y56.000
G1 X103.000 Y56.000
G1 X102.000 Y56.000
G1 X101.000 Y56.000
G1 X100.000 Y56.000
G1 X99.000 Y56.000
G1 X98.000 Y56.000
G1 X97.000 Y56.000
G1 X96.000 Y56.000
G1 X95.000 Y56.000
G1 X94.000 Y56.000
G1 X93.000 Y56.000
G1 X92.000 Y56.000
G1 X91.000 Y56.000
G1 X90.000 Y56.000
G1 X89.000 Y56.000
G1 X88.000 Y56.000
G1 X87.000 Y56.000
G1 X86.000 Y56.000
G1 X85.000 Y56.000
G1 X84.000 Y56.000
G1 X83.000 Y56.000
G1 X82.000 Y56.000
G1 X81.000 Y56.000
G1 X80.000 Y56.000
G1 X79.000 Y56.000
G1 X78.000 Y56.000
G1 X77.000 Y56.000
G1 X76.000 Y56.000
G1 X75.000 Y56.000
G1 X74.000 Y56.000
G1 X73.000 Y56.000
G1 X72.000 Y56.000
G1 X71.000 Y56.000
G1 X70.000 Y56.000
G1 X69.000 Y56.000
G1 X68.000 Y56.000
G1 X67.000 Y56.000
G1 X66.000 Y56.000
G1 X65.000 Y56.000
G1 X64.000 Y56.000
G1 X63.000 Y56.000
G1 X62.000 Y56.000
G1 X61.000 Y56.000
G0 Z4.600 F3000
M400
M204 P12000 T12000
G1 F12000
G0 X59.000 Y57.000 Z4.600
M400
M204 P200 T200
G1 F400
G1 Z0.000 F2500
G1 X60.000 Y57.000
G1 X61.000 Y57.000
G1 X62.000 Y57.000
G1 X63.000 Y57.000
G1 X64.000 Y57.000
G1 X65.000 Y57.000
G1 X66.000 Y57.000
G1 X67.000 Y57.000
G1 X68.000 Y57.000
G1 X69.000 Y57.000
G1 X70.000 Y57.000
G1 X71.000 Y57.000
G1 X72.000 Y57.000
G1 X73.000 Y57.000
G1 X74.000 Y57.000
G1 X75.000 Y57.000
G1 X76.000 Y57.000
G1 X77.000 Y57.000
G1 X78.000 Y57.000
G1 X79.000 Y57.000
G1 X80.000 Y57.000
G1 X81.000 Y57.000
G1 X82.000 Y57.000
G1 X83.000 Y57.000
G1 X84.000 Y57.000
G1 X85.000 Y57.000
G1 X86.000 Y57.000
G1 X87.000 Y57.000
G1 X88.000 Y57.000
G1 X89.000 Y57.000
G1 X90.000 Y57.000
G1 X91.000 Y57.000
G1 X92.000 Y57.000
G1 X93.000 Y57.000
G1 X94.000 Y57.000
G1 X95.000 Y57.000
G1 X96.000 Y57.000
G1 X97.000 Y57.000
G1 X98.000 Y57.000
G1 X99.000 Y57.000
G1 X100.000 Y57.000
G1 X101.000 Y57.000
G1 X102.000 Y57.000
G1 X103.000 Y57.000
G1 X104.000 Y57.000
G1 X105.000 Y57.000
G1 X106.000 Y57.000
G1 X107.000 Y57.000
G1 X108.000 Y57.000
G1 X109.000 Y57.000
G1 X110.000 Y57.000
G0 Z4.600 F3000

; --- CIKEL NAMAKANJA ---
G0 Z4.600 F3000
M400
M204 P12000 T12000
G1 F12000
G0 X-10.273 Y17.799 Z31.000
G1 Z0.000 F3000
G1 X-10.273 Y17.799 F2500
G1 X-10.273 Y20.299 F2500
G1 X-15.273 Y17.799 F2500
G1 X-10.273 Y10.299 F2500
G0 Z16.000 F3000
G0 X13.344 Y6.852
G0 Z31.000 F3000
G0 X111.000 Y57.000 Z4.600
M400
M204 P200 T200
G1 F400
G1 Z0.000 F2500
G1 X111.000 Y57.000
G1 X112.000 Y57.000
G1 X113.000 Y57.000
G1 X114.000 Y57.000
G1 X115.000 Y57.000
G1 X116.000 Y57.000
G1 X117.000 Y57.000
G1 X118.000 Y57.000
G1 X119.000 Y57.000
G1 X120.000 Y57.000
G1 X121.000 Y57.000
G1 X122.000 Y57.000
G1 X123.000 Y57.000
G1 X124.000 Y57.000
G1 X125.000 Y57.000
G1 X126.000 Y57.000
G1 X127.000 Y57.000
G1 X128.000 Y57.000
G1 X129.000 Y57.000
G1 X130.000 Y57.000
G1 X131.000 Y57.000
G1 X132.000 Y57.000
G1 X133.000 Y57.000
G1 X134.000 Y57.000
G1 X135.000 Y57.000
G1 X136.000 Y57.000
G1 X137.000 Y57.000
G1 X138.000 Y57.000
G1 X139.000 Y57.000
G1 X140.000 Y57.000
G1 X141.000 Y57.000
G1 X142.000 Y57.000
G1 X143.000 Y57.000
G1 X144.000 Y57.000
G1 X145.000 Y57.000
G1 X146.000 Y57.000
G1 X147.000 Y57.000
G1 X148.000 Y57.000
G1 X149.000 Y57.000
G1 X150.000 Y57.000
G1 X151.000 Y57.000
G1 X152.000 Y57.000
G1 X153.000 Y57.000
G1 X154.000 Y57.000
G1 X155.000 Y57.000
G1 X156.000 Y57.000
G1 X157.000 Y57.000
G1 X158.000 Y57.000
G1 X159.000 Y57.000
G1 X160.000 Y57.000
G1 X161.000 Y57.000
G1 X162.000 Y57.000
G1 X163.000 Y57.000
G1 X164.000 Y57.000
G1 X165.000 Y57.000
G1 X166.000 Y57.000
G1 X167.000 Y57.000
G1 X168.000 Y57.000
G1 X169.000 Y57.000
G1 X170.000 Y57.000
G1 X171.000 Y57.000
G1 X172.000 Y57.000
G1 X173.000 Y57.000
G1 X174.000 Y57.000
G1 X175.000 Y57.000
G1 X176.000 Y57.000
G1 X177.000 Y57.000
G1 X178.000 Y57.000
G1 X179.000 Y57.000
G1 X180.000 Y57.000
G1 X181.000 Y57.000
G1 X182.000 Y57.000
G1 X183.000 Y57.000
G1 X184.000 Y57.000
G1 X185.000 Y57.000
G1 X186.000 Y57.000
G1 X187.000 Y57.000
G1 X188.000 Y57.000
G1 X189.000 Y57.000
G1 X190.000 Y57.000
G1 X191.000 Y57.000
G1 X192.000 Y57.000
G1 X193.000 Y57.000
G1 X194.000 Y57.000
G1 X195.000 Y57.000
G1 X196.000 Y57.000
G1 X197.000 Y57.000
G1 X198.000 Y57.000
G1 X199.000 Y57.000
G1 X200.000 Y57.000
G0 Z4.600 F3000
M400
M204 P12000 T12000
G1 F12000
G0 X200.000 Y58.000 Z4.600
M400
M204 P200 T200
G1 F400
G1 Z0.000 F2500
G1 X199.000 Y58.000
G1 X198.000 Y58.000
G1 X197.000 Y58.000
G1 X196.000 Y58.000
G1 X195.000 Y58.000
G1 X194.000 Y58.000
G1 X193.000 Y58.000
G1 X192.000 Y58.000
G1 X191.000 Y58.000
G1 X190.000 Y58.000
G1 X189.000 Y58.000
G1 X188.000 Y58.000
G1 X187.000 Y58.000
G1 X186.000 Y58.000
G1 X185.000 Y58.000
G1 X184.000 Y58.000
G1 X183.000 Y58.000
G1 X182.000 Y58.000
G1 X181.000 Y58.000
G1 X180.000 Y58.000
G1 X179.000 Y58.000
G1 X178.000 Y58.000
G1 X177.000 Y58.000
G1 X176.000 Y58.000
G1 X175.000 Y58.000
G1 X174.000 Y58.000
G1 X173.000 Y58.000
G1 X172.000 Y58.000
G1 X171.000 Y58.000
G1 X170.000 Y58.000
G1 X169.000 Y58.000
G1 X168.000 Y58.000
G1 X167.000 Y58.000
G1 X166.000 Y58.000
G1 X165.000 Y58.000
G1 X164.000 Y58.000
G1 X163.000 Y58.000
G1 X162.000 Y58.000
G1 X161.000 Y58.000
G1 X160.000 Y58.000
G1 X159.000 Y58.000
G1 X158.000 Y58.000
G1 X157.000 Y58.000
G1 X156.000 Y58.000
G1 X155.000 Y58.000
G1 X154.000 Y58.000
G1 X153.000 Y58.000
G1 X152.000 Y58.000
G1 X151.000 Y58.000
G1 X150.000 Y58.000
G1 X149.000 Y58.000
G1 X148.000 Y58.000
G1 X147.000 Y58.000
G1 X146.000 Y58.000
G1 X145.000 Y58.000
G1 X144.000 Y58.000
G1 X143.000 Y58.000
G1 X142.000 Y58.000
G1 X141.000 Y58.000
G1 X140.000 Y58.000
G1 X139.000 Y58.000
G1 X138.000 Y58.000
G1 X137.000 Y58.000
G1 X136.000 Y58.000
G1 X135.000 Y58.000
G1 X134.000 Y58.000
G1 X133.000 Y58.000
G1 X132.000 Y58.000
G1 X131.000 Y58.000
G1 X130.000 Y58.000
G1 X129.000 Y58.000
G1 X128.000 Y58.000
G1 X127.000 Y58.000
G1 X126.000 Y58.000
G1 X125.000 Y58.000
G1 X124.000 Y58.000
G1 X123.000 Y58.000
G1 X122.000 Y58.000
G1 X121.000 Y58.000
G1 X120.000 Y58.000
G1 X119.000 Y58.000
G1 X118.000 Y58.000
G1 X117.000 Y58.000
G1 X116.000 Y58.000
G1 X115.000 Y58.000
G1 X114.000 Y58.000
G1 X113.000 Y58.000
G1 X112.000 Y58.000
G1 X111.000 Y58.000
G1 X110.000 Y58.000
G1 X109.000 Y58.000
G1 X108.000 Y58.000
G1 X107.000 Y58.000
G1 X106.000 Y58.000
G1 X105.000 Y58.000
G1 X104.000 Y58.000
G1 X103.000 Y58.000
G1 X102.000 Y58.000
G1 X101.000 Y58.000
G1 X100.000 Y58.000
G1 X99.000 Y58.000
G1 X98.000 Y58.000
G1 X97.000 Y58.000
G1 X96.000 Y58.000
G1 X95.000 Y58.000
G1 X94.000 Y58.000
G1 X93.000 Y58.000
G1 X92.000 Y58.000
G1 X91.000 Y58.000
G1 X90.000 Y58.000
G1 X89.000 Y58.000
G1 X88.000 Y58.000
G1 X87.000 Y58.000
G1 X86.000 Y58.000
G1 X85.000 Y58.000
G1 X84.000 Y58.000
G1 X83.000 Y58.000
G1 X82.000 Y58.000
G1 X81.000 Y58.000
G1 X80.000 Y58.000
G1 X79.000 Y58.000
G1 X78.000 Y58.000
G1 X77.000 Y58.000
G1 X76.000 Y58.000
G1 X75.000 Y58.000
G1 X74.000 Y58.000
G1 X73.000 Y58.000
G1 X72.000 Y58.000
G1 X71.000 Y58.000
G1 X70.000 Y58.000
G1 X69.000 Y58.000
G1 X68.000 Y58.000
G1 X67.000 Y58.000
G1 X66.000 Y58.000
G1 X65.000 Y58.000
G1 X64.000 Y58.000
G1 X63.000 Y58.000
G1 X62.000 Y58.000
G1 X61.000 Y58.000
G1 X60.000 Y58.000
G1 X59.000 Y58.000
G0 Z4.600 F3000
M400
M204 P12000 T12000
G1 F12000
G0 X57.000 Y60.000 Z4.600
M400
M204 P200 T200
G1 F400
G1 Z0.000 F2500
G1 X58.000 Y60.000
G1 X59.000 Y60.000
G1 X60.000 Y60.000
G1 X61.000 Y60.000
G1 X62.000 Y60.000
G1 X63.000 Y60.000
G1 X64.000 Y60.000
G1 X65.000 Y60.000
G1 X66.000 Y60.000
G1 X67.000 Y60.000
G1 X68.000 Y60.000
G1 X69.000 Y60.000
G1 X70.000 Y60.000
G1 X71.000 Y60.000
G1 X72.000 Y60.000
G1 X73.000 Y60.000
G1 X74.000 Y60.000
G1 X75.000 Y60.000
G1 X76.000 Y60.000
G1 X77.000 Y60.000
G1 X78.000 Y60.000
G1 X79.000 Y60.000
G1 X80.000 Y60.000
G1 X81.000 Y60.000
G1 X82.000 Y60.000
G1 X83.000 Y60.000
G1 X84.000 Y60.000
G1 X85.000 Y60.000
G1 X86.000 Y60.000
G1 X87.000 Y60.000
G1 X88.000 Y60.000
G1 X89.000 Y60.000
G1 X90.000 Y60.000
G1 X91.000 Y60.000
G1 X92.000 Y60.000
G1 X93.000 Y60.000
G1 X94.000 Y60.000
G1 X95.000 Y60.000
G1 X96.000 Y60.000
G1 X97.000 Y60.000
G1 X98.000 Y60.000
G1 X99.000 Y60.000
G1 X100.000 Y60.000
G1 X101.000 Y60.000
G1 X102.000 Y60.000
G1 X103.000 Y60.000
G1 X104.000 Y60.000
G0 Z4.600 F3000

; --- CIKEL NAMAKANJA ---
G0 Z4.600 F3000
M400
M204 P12000 T12000
G1 F12000
G0 X9.843 Y2.403 Z31.000
G1 Z0.000 F3000
G1 X9.843 Y2.403 F2500
G1 X9.843 Y4.903 F2500
G1 X4.843 Y2.403 F2500
G1 X9.843 Y-5.097 F2500
G0 Z16.000 F3000
G0 X13.024 Y7.442
G0 Z31.000 F3000
G0 X105.000 Y60.000 Z4.600
M400
M204 P200 T200
G1 F400
G1 Z0.000 F2500
G1 X105.000 Y60.000
G1 X106.000 Y60.000
G1 X107.000 Y60.000
G1 X108.000 Y60.000
G1 X109.000 Y60.000
G1 X110.000 Y60.000
G1 X111.000 Y60.000
G1 X112.000 Y60.000
G1 X113.000 Y60.000
G1 X114.000 Y60.000
G1 X115.000 Y60.000
G1 X116.000 Y60.000
G1 X117.000 Y60.000
G1 X118.000 Y60.000
G1 X119.000 Y60.000
G1 X120.000 Y60.000
G1 X121.000 Y60.000
G1 X122.000 Y60.000
G1 X123.000 Y60.000
G1 X124.000 Y60.000
G1 X125.000 Y60.000
G1 X126.000 Y60.000
G1 X127.000 Y60.000
G1 X128.000 Y60.000
G1 X129.000 Y60.000
G1 X130.000 Y60.000
G1 X131.000 Y60.000
G1 X132.000 Y60.000
G1 X133.000 Y60.000
G1 X134.000 Y60.000
G1 X135.000 Y60.000
G1 X136.000 Y60.000
G1 X137.000 Y60.000
G1 X138.000 Y60.000
G1 X139.000 Y60.000
G1 X140.000 Y60.000
G1 X141.000 Y60.000
G1 X142.000 Y60.000
G1 X143.000 Y60.000
G1 X144.000 Y60.000
G1 X145.000 Y60.000
G1 X146.000 Y60.000
G1 X147.000 Y60.000
G1 X148.000 Y60.000
G1 X149.000 Y60.000
G1 X150.000 Y60.000
G1 X151.000 Y60.000
G1 X152.000 Y60.000
G1 X153.000 Y60.000
G1 X154.000 Y60.000
G1 X155.000 Y60.000
G1 X156.000 Y60.000
G1 X157.000 Y60.000
G1 X158.000 Y60.000
G1 X159.000 Y60.000
G1 X160.000 Y60.000
G1 X161.000 Y60.000
G1 X162.000 Y60.000
G1 X163.000 Y60.000
G1 X164.000 Y60.000
G1 X165.000 Y60.000
G1 X166.000 Y60.000
G1 X167.000 Y60.000
G1 X168.000 Y60.000
G1 X169.000 Y60.000
G1 X170.000 Y60.000
G1 X171.000 Y60.000
G1 X172.000 Y60.000
G1 X173.000 Y60.000
G1 X174.000 Y60.000
G1 X175.000 Y60.000
G1 X176.000 Y60.000
G1 X177.000 Y60.000
G1 X178.000 Y60.000
G1 X179.000 Y60.000
G1 X180.000 Y60.000
G1 X181.000 Y60.000
G1 X182.000 Y60.000
G1 X183.000 Y60.000
G1 X184.000 Y60.000
G1 X185.000 Y60.000
G1 X186.000 Y60.000
G1 X187.000 Y60.000
G1 X188.000 Y60.000
G1 X189.000 Y60.000
G1 X190.000 Y60.000
G1 X191.000 Y60.000
G1 X192.000 Y60.000
G1 X193.000 Y60.000
G1 X194.000 Y60.000
G1 X195.000 Y60.000
G1 X196.000 Y60.000
G1 X197.000 Y60.000
G1 X198.000 Y60.000
G1 X199.000 Y60.000
G1 X200.000 Y60.000
G1 X201.000 Y60.000
G1 X202.000 Y60.000
G0 Z4.600 F3000
M400
M204 P12000 T12000
G1 F12000
G0 X203.000 Y61.000 Z4.600
M400
M204 P200 T200
G1 F400
G1 Z0.000 F2500
G1 X202.000 Y61.000
G1 X201.000 Y61.000
G1 X200.000 Y61.000
G1 X199.000 Y61.000
G1 X198.000 Y61.000
G1 X197.000 Y61.000
G1 X196.000 Y61.000
G1 X195.000 Y61.000
G1 X194.000 Y61.000
G1 X193.000 Y61.000
G1 X192.000 Y61.000
G1 X191.000 Y61.000
G1 X190.000 Y61.000
G1 X189.000 Y61.000
G1 X188.000 Y61.000
G1 X187.000 Y61.000
G1 X186.000 Y61.000
G1 X185.000 Y61.000
G1 X184.000 Y61.000
G1 X183.000 Y61.000
G1 X182.000 Y61.000
G1 X181.000 Y61.000
G1 X180.000 Y61.000
G1 X179.000 Y61.000
G1 X178.000 Y61.000
G1 X177.000 Y61.000
G1 X176.000 Y61.000
G1 X175.000 Y61.000
G1 X174.000 Y61.000
G1 X173.000 Y61.000
G1 X172.000 Y61.000
G1 X171.000 Y61.000
G1 X170.000 Y61.000
G1 X169.000 Y61.000
G1 X168.000 Y61.000
G1 X167.000 Y61.000
G1 X166.000 Y61.000
G1 X165.000 Y61.000
G1 X164.000 Y61.000
G1 X163.000 Y61.000
G1 X162.000 Y61.000
G1 X161.000 Y61.000
G1 X160.000 Y61.000
G1 X159.000 Y61.000
G1 X158.000 Y61.000
G1 X157.000 Y61.000
G1 X156.000 Y61.000
G1 X155.000 Y61.000
G1 X154.000 Y61.000
G1 X153.000 Y61.000
G1 X152.000 Y61.000
G1 X151.000 Y61.000
G1 X150.000 Y61.000
G1 X149.000 Y61.000
G1 X148.000 Y61.000
G1 X147.000 Y61.000
G1 X146.000 Y61.000
G1 X145.000 Y61.000
G1 X144.000 Y61.000
G1 X143.000 Y61.000
G1 X142.000 Y61.000
G1 X141.000 Y61.000
G1 X140.000 Y61.000
G1 X139.000 Y61.000
G1 X138.000 Y61.000
G1 X137.000 Y61.000
G1 X136.000 Y61.000
G1 X135.000 Y61.000
G1 X134.000 Y61.000
G1 X133.000 Y61.000
G1 X132.000 Y61.000
G1 X131.000 Y61.000
G1 X130.000 Y61.000
G1 X129.000 Y61.000
G1 X128.000 Y61.000
G1 X127.000 Y61.000
G1 X126.000 Y61.000
G1 X125.000 Y61.000
G1 X124.000 Y61.000
G1 X123.000 Y61.000
G1 X122.000 Y61.000
G1 X121.000 Y61.000
G1 X120.000 Y61.000
G1 X119.000 Y61.000
G1 X118.000 Y61.000
G1 X117.000 Y61.000
G1 X116.000 Y61.000
G1 X115.000 Y61.000
G1 X114.000 Y61.000
G1 X113.000 Y61.000
G1 X112.000 Y61.000
G1 X111.000 Y61.000
G1 X110.000 Y61.000
G1 X109.000 Y61.000
G1 X108.000 Y61.000
G1 X107.000 Y61.000
G1 X106.000 Y61.000
G1 X105.000 Y61.000
G1 X104.000 Y61.000
G1 X103.000 Y61.000
G1 X102.000 Y61.000
G1 X101.000 Y61.000
G1 X100.000 Y61.000
G1 X99.000 Y61.000
G1 X98.000 Y61.000
G1 X97.000 Y61.000
G1 X96.000 Y61.000
G1 X95.000 Y61.000
G1 X94.000 Y61.000
G1 X93.000 Y61.000
G1 X92.000 Y61.000
G1 X91.000 Y61.000
G1 X90.000 Y61.000
G1 X89.000 Y61.000
G1 X88.000 Y61.000
G1 X87.000 Y61.000
G1 X86.000 Y61.000
G1 X85.000 Y61.000
G1 X84.000 Y61.000
G1 X83.000 Y61.000
G1 X82.000 Y61.000
G1 X81.000 Y61.000
G1 X80.000 Y61.000
G1 X79.000 Y61.000
G1 X78.000 Y61.000
G1 X77.000 Y61.000
G1 X76.000 Y61.000
G1 X75.000 Y61.000
G1 X74.000 Y61.000
G1 X73.000 Y61.000
G1 X72.000 Y61.000
G1 X71.000 Y61.000
G1 X70.000 Y61.000
G1 X69.000 Y61.000
G1 X68.000 Y61.000
G1 X67.000 Y61.000
G1 X66.000 Y61.000
G1 X65.000 Y61.000
G1 X64.000 Y61.000
G1 X63.000 Y61.000
G1 X62.000 Y61.000
G1 X61.000 Y61.000
G1 X60.000 Y61.000
G1 X59.000 Y61.000
G1 X58.000 Y61.000
G1 X57.000 Y61.000
G1 X56.000 Y61.000
G0 Z4.600 F3000
M400
M204 P12000 T12000
G1 F12000
G0 X55.000 Y62.000 Z4.600
M400
M204 P200 T200
G1 F400
G1 Z0.000 F2500
G1 X56.000 Y62.000
G1 X57.000 Y62.000
G1 X58.000 Y62.000
G1 X59.000 Y62.000
G1 X60.000 Y62.000
G1 X61.000 Y62.000
G1 X62.000 Y62.000
G1 X63.000 Y62.000
G1 X64.000 Y62.000
G1 X65.000 Y62.000
G1 X66.000 Y62.000
G1 X67.000 Y62.000
G1 X68.000 Y62.000
G1 X69.000 Y62.000
G1 X70.000 Y62.000
G1 X71.000 Y62.000
G1 X72.000 Y62.000
G1 X73.000 Y62.000
G1 X74.000 Y62.000
G1 X75.000 Y62.000
G1 X76.000 Y62.000
G1 X77.000 Y62.000
G1 X78.000 Y62.000
G1 X79.000 Y62.000
G1 X80.000 Y62.000
G1 X81.000 Y62.000
G1 X82.000 Y62.000
G1 X83.000 Y62.000
G1 X84.000 Y62.000
G1 X85.000 Y62.000
G1 X86.000 Y62.000
G1 X87.000 Y62.000
G0 Z4.600 F3000

; --- CIKEL NAMAKANJA ---
G0 Z4.600 F3000
M400
M204 P12000 T12000
G1 F12000
G0 X-9.588 Y7.908 Z31.000
G1 Z0.000 F3000
G1 X-9.588 Y7.908 F2500
G1 X-9.588 Y10.408 F2500
G1 X-14.588 Y7.908 F2500
G1 X-9.588 Y0.408 F2500
G0 Z16.000 F3000
G0 X12.262 Y8.639
G0 Z31.000 F3000
G0 X88.000 Y62.000 Z4.600
M400
M204 P200 T200
G1 F400
G1 Z0.000 F2500
G1 X88.000 Y62.000
G1 X89.000 Y62.000
G1 X90.000 Y62.000
G1 X91.000 Y62.000
G1 X92.000 Y62.000
G1 X93.000 Y62.000
G1 X94.000 Y62.000
G1 X95.000 Y62.000
G1 X96.000 Y62.000
G1 X97.000 Y62.000
G1 X98.000 Y62.000
G1 X99.000 Y62.000
G1 X100.000 Y62.000
G1 X101.000 Y62.000
G1 X102.000 Y62.000
G1 X103.000 Y62.000
G1 X104.000 Y62.000
G1 X105.000 Y62.000
G1 X106.000 Y62.000
G1 X107.000 Y62.000
G1 X108.000 Y62.000
G1 X109.000 Y62.000
G1 X110.000 Y62.000
G1 X111.000 Y62.000
G1 X112.000 Y62.000
G1 X113.000 Y62.000
G1 X114.000 Y62.000
G1 X115.000 Y62.000
G1 X116.000 Y62.000
G1 X117.000 Y62.000
G1 X118.000 Y62.000
G1 X119.000 Y62.000
G1 X120.000 Y62.000
G1 X121.000 Y62.000
G1 X122.000 Y62.000
G1 X123.000 Y62.000
G1 X124.000 Y62.000
G1 X125.000 Y62.000
G1 X126.000 Y62.000
G1 X127.000 Y62.000
G1 X128.000 Y62.000
G1 X129.000 Y62.000
G1 X130.000 Y62.000
G1 X131.000 Y62.000
G1 X132.000 Y62.000
G1 X133.000 Y62.000
G1 X134.000 Y62.000
G1 X135.000 Y62.000
G1 X136.000 Y62.000
G1 X137.000 Y62.000
G1 X138.000 Y62.000
G1 X139.000 Y62.000
G1 X140.000 Y62.000
G1 X141.000 Y62.000
G1 X142.000 Y62.000
G1 X143.000 Y62.000
G1 X144.000 Y62.000
G1 X145.000 Y62.000
G1 X146.000 Y62.000
G1 X147.000 Y62.000
G1 X148.000 Y62.000
G1 X149.000 Y62.000
G1 X150.000 Y62.000
G1 X151.000 Y62.000
G1 X152.000 Y62.000
G1 X153.000 Y62.000
G1 X154.000 Y62.000
G1 X155.000 Y62.000
G1 X156.000 Y62.000
G1 X157.000 Y62.000
G1 X158.000 Y62.000
G1 X159.000 Y62.000
G1 X160.000 Y62.000
G1 X161.000 Y62.000
G1 X162.000 Y62.000
G1 X163.000 Y62.000
G1 X164.000 Y62.000
G1 X165.000 Y62.000
G1 X166.000 Y62.000
G1 X167.000 Y62.000
G1 X168.000 Y62.000
G1 X169.000 Y62.000
G1 X170.000 Y62.000
G1 X171.000 Y62.000
G1 X172.000 Y62.000
G1 X173.000 Y62.000
G1 X174.000 Y62.000
G1 X175.000 Y62.000
G1 X176.000 Y62.000
G1 X177.000 Y62.000
G1 X178.000 Y62.000
G1 X179.000 Y62.000
G1 X180.000 Y62.000
G1 X181.000 Y62.000
G1 X182.000 Y62.000
G1 X183.000 Y62.000
G1 X184.000 Y62.000
G1 X185.000 Y62.000
G1 X186.000 Y62.000
G1 X187.000 Y62.000
G1 X188.000 Y62.000
G1 X189.000 Y62.000
G1 X190.000 Y62.000
G1 X191.000 Y62.000
G1 X192.000 Y62.000
G1 X193.000 Y62.000
G1 X194.000 Y62.000
G1 X195.000 Y62.000
G1 X196.000 Y62.000
G1 X197.000 Y62.000
G1 X198.000 Y62.000
G1 X199.000 Y62.000
G1 X200.000 Y62.000
G1 X201.000 Y62.000
G1 X202.000 Y62.000
G1 X203.000 Y62.000
G1 X204.000 Y62.000
G0 Z4.600 F3000
M400
M204 P12000 T12000
G1 F12000
G0 X205.000 Y63.000 Z4.600
M400
M204 P200 T200
G1 F400
G1 Z0.000 F2500
G1 X204.000 Y63.000
G1 X203.000 Y63.000
G1 X202.000 Y63.000
G1 X201.000 Y63.000
G1 X200.000 Y63.000
G1 X199.000 Y63.000
G1 X198.000 Y63.000
G1 X197.000 Y63.000
G1 X196.000 Y63.000
G1 X195.000 Y63.000
G1 X194.000 Y63.000
G1 X193.000 Y63.000
G1 X192.000 Y63.000
G1 X191.000 Y63.000
G1 X190.000 Y63.000
G1 X189.000 Y63.000
G1 X188.000 Y63.000
G1 X187.000 Y63.000
G1 X186.000 Y63.000
G1 X185.000 Y63.000
G1 X184.000 Y63.000
G1 X183.000 Y63.000
G1 X182.000 Y63.000
G1 X181.000 Y63.000
G1 X180.000 Y63.000
G1 X179.000 Y63.000
G1 X178.000 Y63.000
G1 X177.000 Y63.000
G1 X176.000 Y63.000
G1 X175.000 Y63.000
G1 X174.000 Y63.000
G1 X173.000 Y63.000
G1 X172.000 Y63.000
G1 X171.000 Y63.000
G1 X170.000 Y63.000
G1 X169.000 Y63.000
G1 X168.000 Y63.000
G1 X167.000 Y63.000
G1 X166.000 Y63.000
G1 X165.000 Y63.000
G1 X164.000 Y63.000
G1 X163.000 Y63.000
G1 X162.000 Y63.000
G1 X161.000 Y63.000
G1 X160.000 Y63.000
G1 X159.000 Y63.000
G1 X158.000 Y63.000
G1 X157.000 Y63.000
G1 X156.000 Y63.000
G1 X155.000 Y63.000
G1 X154.000 Y63.000
G1 X153.000 Y63.000
G1 X152.000 Y63.000
G1 X151.000 Y63.000
G1 X150.000 Y63.000
G1 X149.000 Y63.000
G1 X148.000 Y63.000
G1 X147.000 Y63.000
G1 X146.000 Y63.000
G1 X145.000 Y63.000
G1 X144.000 Y63.000
G1 X143.000 Y63.000
G1 X142.000 Y63.000
G1 X141.000 Y63.000
G1 X140.000 Y63.000
G1 X139.000 Y63.000
G1 X138.000 Y63.000
G1 X137.000 Y63.000
G1 X136.000 Y63.000
G1 X135.000 Y63.000
G1 X134.000 Y63.000
G1 X133.000 Y63.000
G1 X132.000 Y63.000
G1 X131.000 Y63.000
G1 X130.000 Y63.000
G1 X129.000 Y63.000
G1 X128.000 Y63.000
G1 X127.000 Y63.000
G1 X126.000 Y63.000
G1 X125.000 Y63.000
G1 X124.000 Y63.000
G1 X123.000 Y63.000
G1 X122.000 Y63.000
G1 X121.000 Y63.000
G1 X120.000 Y63.000
G1 X119.000 Y63.000
G1 X118.000 Y63.000
G1 X117.000 Y63.000
G1 X116.000 Y63.000
G1 X115.000 Y63.000
G1 X114.000 Y63.000
G1 X113.000 Y63.000
G1 X112.000 Y63.000
G1 X111.000 Y63.000
G1 X110.000 Y63.000
G1 X109.000 Y63.000
G1 X108.000 Y63.000
G1 X107.000 Y63.000
G1 X106.000 Y63.000
G1 X105.000 Y63.000
G1 X104.000 Y63.000
G1 X103.000 Y63.000
G1 X102.000 Y63.000
G1 X101.000 Y63.000
G1 X100.000 Y63.000
G1 X99.000 Y63.000
G1 X98.000 Y63.000
G1 X97.000 Y63.000
G1 X96.000 Y63.000
G1 X95.000 Y63.000
G1 X94.000 Y63.000
G1 X93.000 Y63.000
G1 X92.000 Y63.000
G1 X91.000 Y63.000
G1 X90.000 Y63.000
G1 X89.000 Y63.000
G1 X88.000 Y63.000
G1 X87.000 Y63.000
G1 X86.000 Y63.000
G1 X85.000 Y63.000
G1 X84.000 Y63.000
G1 X83.000 Y63.000
G1 X82.000 Y63.000
G1 X81.000 Y63.000
G1 X80.000 Y63.000
G1 X79.000 Y63.000
G1 X78.000 Y63.000
G1 X77.000 Y63.000
G1 X76.000 Y63.000
G1 X75.000 Y63.000
G1 X74.000 Y63.000
G1 X73.000 Y63.000
G1 X72.000 Y63.000
G1 X71.000 Y63.000
G1 X70.000 Y63.000
G1 X69.000 Y63.000
G1 X68.000 Y63.000
G1 X67.000 Y63.000
G1 X66.000 Y63.000
G1 X65.000 Y63.000
G1 X64.000 Y63.000
G1 X63.000 Y63.000
G1 X62.000 Y63.000
G1 X61.000 Y63.000
G1 X60.000 Y63.000
G1 X59.000 Y63.000
G1 X58.000 Y63.000
G1 X57.000 Y63.000
G1 X56.000 Y63.000
G1 X55.000 Y63.000
G1 X54.000 Y63.000
G0 Z4.600 F3000
M400
M204 P12000 T12000
G1 F12000
G0 X53.000 Y64.000 Z4.600
M400
M204 P200 T200
G1 F400
G1 Z0.000 F2500
G1 X54.000 Y64.000
G1 X55.000 Y64.000
G1 X56.000 Y64.000
G1 X57.000 Y64.000
G1 X58.000 Y64.000
G1 X59.000 Y64.000
G1 X60.000 Y64.000
G1 X61.000 Y64.000
G0 Z4.600 F3000

; --- CIKEL NAMAKANJA ---
G0 Z4.600 F3000
M400
M204 P12000 T12000
G1 F12000
G0 X-3.456 Y9.202 Z31.000
G1 Z0.000 F3000
G1 X-3.456 Y9.202 F2500
G1 X-3.456 Y11.702 F2500
G1 X-8.456 Y9.202 F2500
G1 X-3.456 Y1.702 F2500
G0 Z16.000 F3000
G0 X10.437 Y10.774
G0 Z31.000 F3000
G0 X62.000 Y64.000 Z4.600
M400
M204 P200 T200
G1 F400
G1 Z0.000 F2500
G1 X62.000 Y64.000
G1 X63.000 Y64.000
G1 X64.000 Y64.000
G1 X65.000 Y64.000
G1 X66.000 Y64.000
G1 X67.000 Y64.000
G1 X68.000 Y64.000
G1 X69.000 Y64.000
G1 X70.000 Y64.000
G1 X71.000 Y64.000
G1 X72.000 Y64.000
G1 X73.000 Y64.000
G1 X74.000 Y64.000
G1 X75.000 Y64.000
G1 X76.000 Y64.000
G1 X77.000 Y64.000
G1 X78.000 Y64.000
G1 X79.000 Y64.000
G1 X80.000 Y64.000
G1 X81.000 Y64.000
G1 X82.000 Y64.000
G1 X83.000 Y64.000
G1 X84.000 Y64.000
G1 X85.000 Y64.000
G1 X86.000 Y64.000
G1 X87.000 Y64.000
G1 X88.000 Y64.000
G1 X89.000 Y64.000
G1 X90.000 Y64.000
G1 X91.000 Y64.000
G1 X92.000 Y64.000
G1 X93.000 Y64.000
G1 X94.000 Y64.000
G1 X95.000 Y64.000
G1 X96.000 Y64.000
G1 X97.000 Y64.000
G1 X98.000 Y64.000
G1 X99.000 Y64.000
G1 X100.000 Y64.000
G1 X101.000 Y64.000
G1 X102.000 Y64.000
G1 X103.000 Y64.000
G1 X104.000 Y64.000
G1 X105.000 Y64.000
G1 X106.000 Y64.000
G1 X107.000 Y64.000
G1 X108.000 Y64.000
G1 X109.000 Y64.000
G1 X110.000 Y64.000
G1 X111.000 Y64.000
G1 X112.000 Y64.000
G1 X113.000 Y64.000
G1 X114.000 Y64.000
G1 X115.000 Y64.000
G1 X116.000 Y64.000
G1 X117.000 Y64.000
G1 X118.000 Y64.000
G1 X119.000 Y64.000
G1 X120.000 Y64.000
G1 X121.000 Y64.000
G1 X122.000 Y64.000
G1 X123.000 Y64.000
G1 X124.000 Y64.000
G1 X125.000 Y64.000
G1 X126.000 Y64.000
G1 X127.000 Y64.000
G1 X128.000 Y64.000
G1 X129.000 Y64.000
G1 X130.000 Y64.000
G1 X131.000 Y64.000
G1 X132.000 Y64.000
G1 X133.000 Y64.000
G1 X134.000 Y64.000
G1 X135.000 Y64.000
G1 X136.000 Y64.000
G1 X137.000 Y64.000
G1 X138.000 Y64.000
G1 X139.000 Y64.000
G1 X140.000 Y64.000
G1 X141.000 Y64.000
G1 X142.000 Y64.000
G1 X143.000 Y64.000
G1 X144.000 Y64.000
G1 X145.000 Y64.000
G1 X146.000 Y64.000
G1 X147.000 Y64.000
G1 X148.000 Y64.000
G1 X149.000 Y64.000
G1 X150.000 Y64.000
G1 X151.000 Y64.000
G1 X152.000 Y64.000
G1 X153.000 Y64.000
G1 X154.000 Y64.000
G1 X155.000 Y64.000
G1 X156.000 Y64.000
G1 X157.000 Y64.000
G1 X158.000 Y64.000
G1 X159.000 Y64.000
G1 X160.000 Y64.000
G1 X161.000 Y64.000
G1 X162.000 Y64.000
G1 X163.000 Y64.000
G1 X164.000 Y64.000
G1 X165.000 Y64.000
G1 X166.000 Y64.000
G1 X167.000 Y64.000
G1 X168.000 Y64.000
G1 X169.000 Y64.000
G1 X170.000 Y64.000
G1 X171.000 Y64.000
G1 X172.000 Y64.000
G1 X173.000 Y64.000
G1 X174.000 Y64.000
G1 X175.000 Y64.000
G1 X176.000 Y64.000
G1 X177.000 Y64.000
G1 X178.000 Y64.000
G1 X179.000 Y64.000
G1 X180.000 Y64.000
G1 X181.000 Y64.000
G1 X182.000 Y64.000
G1 X183.000 Y64.000
G1 X184.000 Y64.000
G1 X185.000 Y64.000
G1 X186.000 Y64.000
G1 X187.000 Y64.000
G1 X188.000 Y64.000
G1 X189.000 Y64.000
G1 X190.000 Y64.000
G1 X191.000 Y64.000
G1 X192.000 Y64.000
G1 X193.000 Y64.000
G1 X194.000 Y64.000
G1 X195.000 Y64.000
G1 X196.000 Y64.000
G1 X197.000 Y64.000
G1 X198.000 Y64.000
G1 X199.000 Y64.000
G1 X200.000 Y64.000
G1 X201.000 Y64.000
G1 X202.000 Y64.000
G1 X203.000 Y64.000
G1 X204.000 Y64.000
G1 X205.000 Y64.000
G1 X206.000 Y64.000
G0 Z4.600 F3000
M400
M204 P12000 T12000
G1 F12000
G0 X207.000 Y65.000 Z4.600
M400
M204 P200 T200
G1 F400
G1 Z0.000 F2500
G1 X206.000 Y65.000
G1 X205.000 Y65.000
G1 X204.000 Y65.000
G1 X203.000 Y65.000
G1 X202.000 Y65.000
G1 X201.000 Y65.000
G1 X200.000 Y65.000
G1 X199.000 Y65.000
G1 X198.000 Y65.000
G1 X197.000 Y65.000
G1 X196.000 Y65.000
G1 X195.000 Y65.000
G1 X194.000 Y65.000
G1 X193.000 Y65.000
G1 X192.000 Y65.000
G1 X191.000 Y65.000
G1 X190.000 Y65.000
G1 X189.000 Y65.000
G1 X188.000 Y65.000
G1 X187.000 Y65.000
G1 X186.000 Y65.000
G1 X185.000 Y65.000
G1 X184.000 Y65.000
G1 X183.000 Y65.000
G1 X182.000 Y65.000
G1 X181.000 Y65.000
G1 X180.000 Y65.000
G1 X179.000 Y65.000
G1 X178.000 Y65.000
G1 X177.000 Y65.000
G1 X176.000 Y65.000
G1 X175.000 Y65.000
G1 X174.000 Y65.000
G1 X173.000 Y65.000
G1 X172.000 Y65.000
G1 X171.000 Y65.000
G1 X170.000 Y65.000
G1 X169.000 Y65.000
G1 X168.000 Y65.000
G1 X167.000 Y65.000
G1 X166.000 Y65.000
G1 X165.000 Y65.000
G1 X164.000 Y65.000
G1 X163.000 Y65.000
G1 X162.000 Y65.000
G1 X161.000 Y65.000
G1 X160.000 Y65.000
G1 X159.000 Y65.000
G1 X158.000 Y65.000
G1 X157.000 Y65.000
G1 X156.000 Y65.000
G1 X155.000 Y65.000
G1 X154.000 Y65.000
G1 X153.000 Y65.000
G1 X152.000 Y65.000
G1 X151.000 Y65.000
G1 X150.000 Y65.000
G1 X149.000 Y65.000
G1 X148.000 Y65.000
G1 X147.000 Y65.000
G1 X146.000 Y65.000
G1 X145.000 Y65.000
G1 X144.000 Y65.000
G1 X143.000 Y65.000
G1 X142.000 Y65.000
G1 X141.000 Y65.000
G1 X140.000 Y65.000
G1 X139.000 Y65.000
G1 X138.000 Y65.000
G1 X137.000 Y65.000
G1 X136.000 Y65.000
G1 X135.000 Y65.000
G1 X134.000 Y65.000
G1 X133.000 Y65.000
G1 X132.000 Y65.000
G1 X131.000 Y65.000
G1 X130.000 Y65.000
G1 X129.000 Y65.000
G1 X128.000 Y65.000
G1 X127.000 Y65.000
G1 X126.000 Y65.000
G1 X125.000 Y65.000
G1 X124.000 Y65.000
G1 X123.000 Y65.000
G1 X122.000 Y65.000
G1 X121.000 Y65.000
G1 X120.000 Y65.000
G1 X119.000 Y65.000
G1 X118.000 Y65.000
G1 X117.000 Y65.000
G1 X116.000 Y65.000
G1 X115.000 Y65.000
G1 X114.000 Y65.000
G1 X113.000 Y65.000
G1 X112.000 Y65.000
G1 X111.000 Y65.000
G1 X110.000 Y65.000
G1 X109.000 Y65.000
G1 X108.000 Y65.000
G1 X107.000 Y65.000
G1 X106.000 Y65.000
G1 X105.000 Y65.000
G1 X104.000 Y65.000
G1 X103.000 Y65.000
G1 X102.000 Y65.000
G1 X101.000 Y65.000
G1 X100.000 Y65.000
G1 X99.000 Y65.000
G1 X98.000 Y65.000
G1 X97.000 Y65.000
G1 X96.000 Y65.000
G1 X95.000 Y65.000
G1 X94.000 Y65.000
G1 X93.000 Y65.000
G1 X92.000 Y65.000
G1 X91.000 Y65.000
G1 X90.000 Y65.000
G1 X89.000 Y65.000
G1 X88.000 Y65.000
G1 X87.000 Y65.000
G1 X86.000 Y65.000
G1 X85.000 Y65.000
G1 X84.000 Y65.000
G1 X83.000 Y65.000
G1 X82.000 Y65.000
G0 Z4.600 F3000

; --- CIKEL NAMAKANJA ---
G0 Z4.600 F3000
M400
M204 P12000 T12000
G1 F12000
G0 X9.020 Y16.290 Z31.000
G1 Z0.000 F3000
G1 X9.020 Y16.290 F2500
G1 X9.020 Y18.790 F2500
G1 X4.020 Y16.290 F2500
G1 X9.020 Y8.790 F2500
G0 Z16.000 F3000
G0 X11.699 Y9.388
G0 Z31.000 F3000
G0 X81.000 Y65.000 Z4.600
M400
M204 P200 T200
G1 F400
G1 Z0.000 F2500
G1 X81.000 Y65.000
G1 X80.000 Y65.000
G1 X79.000 Y65.000
G1 X78.000 Y65.000
G1 X77.000 Y65.000
G1 X76.000 Y65.000
G1 X75.000 Y65.000
G1 X74.000 Y65.000
G1 X73.000 Y65.000
G1 X72.000 Y65.000
G1 X71.000 Y65.000
G1 X70.000 Y65.000
G1 X69.000 Y65.000
G1 X68.000 Y65.000
G1 X67.000 Y65.000
G1 X66.000 Y65.000
G1 X65.000 Y65.000
G1 X64.000 Y65.000
G1 X63.000 Y65.000
G1 X62.000 Y65.000
G1 X61.000 Y65.000
G1 X60.000 Y65.000
G1 X59.000 Y65.000
G1 X58.000 Y65.000
G1 X57.000 Y65.000
G1 X56.000 Y65.000
G1 X55.000 Y65.000
G1 X54.000 Y65.000
G1 X53.000 Y65.000
G1 X52.000 Y65.000
G0 Z4.600 F3000
M400
M204 P12000 T12000
G1 F12000
G0 X51.000 Y66.000 Z4.600
M400
M204 P200 T200
G1 F400
G1 Z0.000 F2500
G1 X52.000 Y66.000
G1 X53.000 Y66.000
G1 X54.000 Y66.000
G1 X55.000 Y66.000
G1 X56.000 Y66.000
G1 X57.000 Y66.000
G1 X58.000 Y66.000
G1 X59.000 Y66.000
G1 X60.000 Y66.000
G1 X61.000 Y66.000
G1 X62.000 Y66.000
G1 X63.000 Y66.000
G1 X64.000 Y66.000
G1 X65.000 Y66.000
G1 X66.000 Y66.000
G1 X67.000 Y66.000
G1 X68.000 Y66.000
G1 X69.000 Y66.000
G1 X70.000 Y66.000
G1 X71.000 Y66.000
G1 X72.000 Y66.000
G1 X73.000 Y66.000
G1 X74.000 Y66.000
G1 X75.000 Y66.000
G1 X76.000 Y66.000
G1 X77.000 Y66.000
G1 X78.000 Y66.000
G1 X79.000 Y66.000
G1 X80.000 Y66.000
G1 X81.000 Y66.000
G1 X82.000 Y66.000
G1 X83.000 Y66.000
G1 X84.000 Y66.000
G1 X85.000 Y66.000
G1 X86.000 Y66.000
G1 X87.000 Y66.000
G1 X88.000 Y66.000
G1 X89.000 Y66.000
G1 X90.000 Y66.000
G1 X91.000 Y66.000
G1 X92.000 Y66.000
G1 X93.000 Y66.000
G1 X94.000 Y66.000
G1 X95.000 Y66.000
G1 X96.000 Y66.000
G1 X97.000 Y66.000
G1 X98.000 Y66.000
G1 X99.000 Y66.000
G1 X100.000 Y66.000
G1 X101.000 Y66.000
G1 X102.000 Y66.000
G1 X103.000 Y66.000
G1 X104.000 Y66.000
G1 X105.000 Y66.000
G1 X106.000 Y66.000
G1 X107.000 Y66.000
G1 X108.000 Y66.000
G1 X109.000 Y66.000
G1 X110.000 Y66.000
G1 X111.000 Y66.000
G1 X112.000 Y66.000
G1 X113.000 Y66.000
G1 X114.000 Y66.000
G1 X115.000 Y66.000
G1 X116.000 Y66.000
G1 X117.000 Y66.000
G1 X118.000 Y66.000
G1 X119.000 Y66.000
G1 X120.000 Y66.000
G1 X121.000 Y66.000
G1 X122.000 Y66.000
G1 X123.000 Y66.000
G1 X124.000 Y66.000
G1 X125.000 Y66.000
G1 X126.000 Y66.000
G1 X127.000 Y66.000
G1 X128.000 Y66.000
G1 X129.000 Y66.000
G1 X130.000 Y66.000
G1 X131.000 Y66.000
G1 X132.000 Y66.000
G1 X133.000 Y66.000
G1 X134.000 Y66.000
G1 X135.000 Y66.000
G1 X136.000 Y66.000
G1 X137.000 Y66.000
G1 X138.000 Y66.000
G1 X139.000 Y66.000
G1 X140.000 Y66.000
G1 X141.000 Y66.000
G1 X142.000 Y66.000
G1 X143.000 Y66.000
G1 X144.000 Y66.000
G1 X145.000 Y66.000
G1 X146.000 Y66.000
G1 X147.000 Y66.000
G1 X148.000 Y66.000
G1 X149.000 Y66.000
G1 X150.000 Y66.000
G1 X151.000 Y66.000
G1 X152.000 Y66.000
G1 X153.000 Y66.000
G1 X154.000 Y66.000
G1 X155.000 Y66.000
G1 X156.000 Y66.000
G1 X157.000 Y66.000
G1 X158.000 Y66.000
G1 X159.000 Y66.000
G1 X160.000 Y66.000
G1 X161.000 Y66.000
G1 X162.000 Y66.000
G1 X163.000 Y66.000
G1 X164.000 Y66.000
G1 X165.000 Y66.000
G1 X166.000 Y66.000
G1 X167.000 Y66.000
G1 X168.000 Y66.000
G1 X169.000 Y66.000
G1 X170.000 Y66.000
G1 X171.000 Y66.000
G1 X172.000 Y66.000
G1 X173.000 Y66.000
G1 X174.000 Y66.000
G1 X175.000 Y66.000
G1 X176.000 Y66.000
G1 X177.000 Y66.000
G1 X178.000 Y66.000
G1 X179.000 Y66.000
G1 X180.000 Y66.000
G1 X181.000 Y66.000
G1 X182.000 Y66.000
G1 X183.000 Y66.000
G1 X184.000 Y66.000
G1 X185.000 Y66.000
G1 X186.000 Y66.000
G1 X187.000 Y66.000
G1 X188.000 Y66.000
G1 X189.000 Y66.000
G1 X190.000 Y66.000
G1 X191.000 Y66.000
G1 X192.000 Y66.000
G1 X193.000 Y66.000
G1 X194.000 Y66.000
G1 X195.000 Y66.000
G1 X196.000 Y66.000
G1 X197.000 Y66.000
G1 X198.000 Y66.000
G1 X199.000 Y66.000
G1 X200.000 Y66.000
G1 X201.000 Y66.000
G1 X202.000 Y66.000
G1 X203.000 Y66.000
G1 X204.000 Y66.000
G1 X205.000 Y66.000
G1 X206.000 Y66.000
G1 X207.000 Y66.000
G1 X208.000 Y66.000
G0 Z4.600 F3000
M400
M204 P12000 T12000
G1 F12000
G0 X209.000 Y67.000 Z4.600
M400
M204 P200 T200
G1 F400
G1 Z0.000 F2500
G1 X208.000 Y67.000
G1 X207.000 Y67.000
G1 X206.000 Y67.000
G1 X205.000 Y67.000
G1 X204.000 Y67.000
G1 X203.000 Y67.000
G1 X202.000 Y67.000
G1 X201.000 Y67.000
G1 X200.000 Y67.000
G1 X199.000 Y67.000
G1 X198.000 Y67.000
G1 X197.000 Y67.000
G1 X196.000 Y67.000
G1 X195.000 Y67.000
G1 X194.000 Y67.000
G1 X193.000 Y67.000
G1 X192.000 Y67.000
G1 X191.000 Y67.000
G1 X190.000 Y67.000
G1 X189.000 Y67.000
G1 X188.000 Y67.000
G1 X187.000 Y67.000
G1 X186.000 Y67.000
G1 X185.000 Y67.000
G1 X184.000 Y67.000
G1 X183.000 Y67.000
G1 X182.000 Y67.000
G1 X181.000 Y67.000
G1 X180.000 Y67.000
G1 X179.000 Y67.000
G1 X178.000 Y67.000
G1 X177.000 Y67.000
G1 X176.000 Y67.000
G1 X175.000 Y67.000
G1 X174.000 Y67.000
G1 X173.000 Y67.000
G1 X172.000 Y67.000
G1 X171.000 Y67.000
G1 X170.000 Y67.000
G1 X169.000 Y67.000
G1 X168.000 Y67.000
G1 X167.000 Y67.000
G1 X166.000 Y67.000
G1 X165.000 Y67.000
G1 X164.000 Y67.000
G1 X163.000 Y67.000
G1 X162.000 Y67.000
G1 X161.000 Y67.000
G1 X160.000 Y67.000
G1 X159.000 Y67.000
G1 X158.000 Y67.000
G1 X157.000 Y67.000
G1 X156.000 Y67.000
G1 X155.000 Y67.000
G1 X154.000 Y67.000
G1 X153.000 Y67.000
G1 X152.000 Y67.000
G1 X151.000 Y67.000
G1 X150.000 Y67.000
G1 X149.000 Y67.000
G1 X148.000 Y67.000
G1 X147.000 Y67.000
G1 X146.000 Y67.000
G1 X145.000 Y67.000
G1 X144.000 Y67.000
G1 X143.000 Y67.000
G1 X142.000 Y67.000
G1 X141.000 Y67.000
G1 X140.000 Y67.000
G0 Z4.600 F3000

; --- CIKEL NAMAKANJA ---
G0 Z4.600 F3000
M400
M204 P12000 T12000
G1 F12000
G0 X10.530 Y8.384 Z31.000
G1 Z0.000 F3000
G1 X10.530 Y8.384 F2500
G1 X10.530 Y10.884 F2500
G1 X5.530 Y8.384 F2500
G1 X10.530 Y0.884 F2500
G0 Z16.000 F3000
G0 X13.512 Y6.513
G0 Z31.000 F3000
G0 X139.000 Y67.000 Z4.600
M400
M204 P200 T200
G1 F400
G1 Z0.000 F2500
G1 X139.000 Y67.000
G1 X138.000 Y67.000
G1 X137.000 Y67.000
G1 X136.000 Y67.000
G1 X135.000 Y67.000
G1 X134.000 Y67.000
G1 X133.000 Y67.000
G1 X132.000 Y67.000
G1 X131.000 Y67.000
G1 X130.000 Y67.000
G1 X129.000 Y67.000
G1 X128.000 Y67.000
G1 X127.000 Y67.000
G1 X126.000 Y67.000
G1 X125.000 Y67.000
G1 X124.000 Y67.000
G1 X123.000 Y67.000
G1 X122.000 Y67.000
G1 X121.000 Y67.000
G1 X120.000 Y67.000
G1 X119.000 Y67.000
G1 X118.000 Y67.000
G1 X117.000 Y67.000
G1 X116.000 Y67.000
G1 X115.000 Y67.000
G1 X114.000 Y67.000
G1 X113.000 Y67.000
G1 X112.000 Y67.000
G1 X111.000 Y67.000
G1 X110.000 Y67.000
G1 X109.000 Y67.000
G1 X108.000 Y67.000
G1 X107.000 Y67.000
G1 X106.000 Y67.000
G1 X105.000 Y67.000
G1 X104.000 Y67.000
G1 X103.000 Y67.000
G1 X102.000 Y67.000
G1 X101.000 Y67.000
G1 X100.000 Y67.000
G1 X99.000 Y67.000
G1 X98.000 Y67.000
G1 X97.000 Y67.000
G1 X96.000 Y67.000
G1 X95.000 Y67.000
G1 X94.000 Y67.000
G1 X93.000 Y67.000
G1 X92.000 Y67.000
G1 X91.000 Y67.000
G1 X90.000 Y67.000
G1 X89.000 Y67.000
G1 X88.000 Y67.000
G1 X87.000 Y67.000
G1 X86.000 Y67.000
G1 X85.000 Y67.000
G1 X84.000 Y67.000
G1 X83.000 Y67.000
G1 X82.000 Y67.000
G1 X81.000 Y67.000
G1 X80.000 Y67.000
G1 X79.000 Y67.000
G1 X78.000 Y67.000
G1 X77.000 Y67.000
G1 X76.000 Y67.000
G1 X75.000 Y67.000
G1 X74.000 Y67.000
G1 X73.000 Y67.000
G1 X72.000 Y67.000
G1 X71.000 Y67.000
G1 X70.000 Y67.000
G1 X69.000 Y67.000
G1 X68.000 Y67.000
G1 X67.000 Y67.000
G1 X66.000 Y67.000
G1 X65.000 Y67.000
G1 X64.000 Y67.000
G1 X63.000 Y67.000
G1 X62.000 Y67.000
G1 X61.000 Y67.000
G1 X60.000 Y67.000
G1 X59.000 Y67.000
G1 X58.000 Y67.000
G1 X57.000 Y67.000
G1 X56.000 Y67.000
G1 X55.000 Y67.000
G1 X54.000 Y67.000
G1 X53.000 Y67.000
G1 X52.000 Y67.000
G1 X51.000 Y67.000
G1 X50.000 Y67.000
G0 Z4.600 F3000
M400
M204 P12000 T12000
G1 F12000
G0 X50.000 Y68.000 Z4.600
M400
M204 P200 T200
G1 F400
G1 Z0.000 F2500
G1 X51.000 Y68.000
G1 X52.000 Y68.000
G1 X53.000 Y68.000
G1 X54.000 Y68.000
G1 X55.000 Y68.000
G1 X56.000 Y68.000
G1 X57.000 Y68.000
G1 X58.000 Y68.000
G1 X59.000 Y68.000
G1 X60.000 Y68.000
G1 X61.000 Y68.000
G1 X62.000 Y68.000
G1 X63.000 Y68.000
G1 X64.000 Y68.000
G1 X65.000 Y68.000
G1 X66.000 Y68.000
G1 X67.000 Y68.000
G1 X68.000 Y68.000
G1 X69.000 Y68.000
G1 X70.000 Y68.000
G1 X71.000 Y68.000
G1 X72.000 Y68.000
G1 X73.000 Y68.000
G1 X74.000 Y68.000
G1 X75.000 Y68.000
G1 X76.000 Y68.000
G1 X77.000 Y68.000
G1 X78.000 Y68.000
G1 X79.000 Y68.000
G1 X80.000 Y68.000
G1 X81.000 Y68.000
G1 X82.000 Y68.000
G1 X83.000 Y68.000
G1 X84.000 Y68.000
G1 X85.000 Y68.000
G1 X86.000 Y68.000
G1 X87.000 Y68.000
G1 X88.000 Y68.000
G1 X89.000 Y68.000
G1 X90.000 Y68.000
G1 X91.000 Y68.000
G1 X92.000 Y68.000
G1 X93.000 Y68.000
G1 X94.000 Y68.000
G1 X95.000 Y68.000
G1 X96.000 Y68.000
G1 X97.000 Y68.000
G1 X98.000 Y68.000
G1 X99.000 Y68.000
G1 X100.000 Y68.000
G1 X101.000 Y68.000
G1 X102.000 Y68.000
G1 X103.000 Y68.000
G1 X104.000 Y68.000
G1 X105.000 Y68.000
G1 X106.000 Y68.000
G1 X107.000 Y68.000
G1 X108.000 Y68.000
G1 X109.000 Y68.000
G1 X110.000 Y68.000
G1 X111.000 Y68.000
G1 X112.000 Y68.000
G1 X113.000 Y68.000
G1 X114.000 Y68.000
G1 X115.000 Y68.000
G1 X116.000 Y68.000
G1 X117.000 Y68.000
G1 X118.000 Y68.000
G1 X119.000 Y68.000
G1 X120.000 Y68.000
G1 X121.000 Y68.000
G1 X122.000 Y68.000
G1 X123.000 Y68.000
G1 X124.000 Y68.000
G1 X125.000 Y68.000
G1 X126.000 Y68.000
G1 X127.000 Y68.000
G1 X128.000 Y68.000
G1 X129.000 Y68.000
G1 X130.000 Y68.000
G1 X131.000 Y68.000
G1 X132.000 Y68.000
G1 X133.000 Y68.000
G1 X134.000 Y68.000
G1 X135.000 Y68.000
G1 X136.000 Y68.000
G1 X137.000 Y68.000
G1 X138.000 Y68.000
G1 X139.000 Y68.000
G1 X140.000 Y68.000
G1 X141.000 Y68.000
G1 X142.000 Y68.000
G1 X143.000 Y68.000
G1 X144.000 Y68.000
G1 X145.000 Y68.000
G1 X146.000 Y68.000
G1 X147.000 Y68.000
G1 X148.000 Y68.000
G1 X149.000 Y68.000
G1 X150.000 Y68.000
G1 X151.000 Y68.000
G1 X152.000 Y68.000
G1 X153.000 Y68.000
G1 X154.000 Y68.000
G1 X155.000 Y68.000
G1 X156.000 Y68.000
G1 X157.000 Y68.000
G1 X158.000 Y68.000
G1 X159.000 Y68.000
G1 X160.000 Y68.000
G1 X161.000 Y68.000
G1 X162.000 Y68.000
G1 X163.000 Y68.000
G1 X164.000 Y68.000
G1 X165.000 Y68.000
G1 X166.000 Y68.000
G1 X167.000 Y68.000
G1 X168.000 Y68.000
G1 X169.000 Y68.000
G1 X170.000 Y68.000
G1 X171.000 Y68.000
G1 X172.000 Y68.000
G1 X173.000 Y68.000
G1 X174.000 Y68.000
G1 X175.000 Y68.000
G1 X176.000 Y68.000
G1 X177.000 Y68.000
G1 X178.000 Y68.000
G1 X179.000 Y68.000
G1 X180.000 Y68.000
G1 X181.000 Y68.000
G1 X182.000 Y68.000
G1 X183.000 Y68.000
G1 X184.000 Y68.000
G1 X185.000 Y68.000
G1 X186.000 Y68.000
G1 X187.000 Y68.000
G1 X188.000 Y68.000
G1 X189.000 Y68.000
G1 X190.000 Y68.000
G1 X191.000 Y68.000
G1 X192.000 Y68.000
G1 X193.000 Y68.000
G1 X194.000 Y68.000
G1 X195.000 Y68.000
G1 X196.000 Y68.000
G1 X197.000 Y68.000
G1 X198.000 Y68.000
G1 X199.000 Y68.000
G1 X200.000 Y68.000
G1 X201.000 Y68.000
G1 X202.000 Y68.000
G1 X203.000 Y68.000
G1 X204.000 Y68.000
G1 X205.000 Y68.000
G0 Z4.600 F3000

; --- CIKEL NAMAKANJA ---
G0 Z4.600 F3000
M400
M204 P12000 T12000
G1 F12000
G0 X-17.675 Y4.870 Z31.000
G1 Z0.000 F3000
G1 X-17.675 Y4.870 F2500
G1 X-17.675 Y7.370 F2500
G1 X-22.675 Y4.870 F2500
G1 X-17.675 Y-2.630 F2500
G0 Z16.000 F3000
G0 X14.244 Y4.702
G0 Z31.000 F3000
G0 X206.000 Y68.000 Z4.600
M400
M204 P200 T200
G1 F400
G1 Z0.000 F2500
G1 X206.000 Y68.000
G1 X207.000 Y68.000
G1 X208.000 Y68.000
G1 X209.000 Y68.000
G0 Z4.600 F3000
M400
M204 P12000 T12000
G1 F12000
G0 X209.000 Y69.000 Z4.600
M400
M204 P200 T200
G1 F400
G1 Z0.000 F2500
G1 X208.000 Y69.000
G1 X207.000 Y69.000
G1 X206.000 Y69.000
G1 X205.000 Y69.000
G1 X204.000 Y69.000
G1 X203.000 Y69.000
G1 X202.000 Y69.000
G1 X201.000 Y69.000
G1 X200.000 Y69.000
G1 X199.000 Y69.000
G1 X198.000 Y69.000
G1 X197.000 Y69.000
G1 X196.000 Y69.000
G1 X195.000 Y69.000
G1 X194.000 Y69.000
G1 X193.000 Y69.000
G1 X192.000 Y69.000
G1 X191.000 Y69.000
G1 X190.000 Y69.000
G1 X189.000 Y69.000
G1 X188.000 Y69.000
G1 X187.000 Y69.000
G1 X186.000 Y69.000
G1 X185.000 Y69.000
G1 X184.000 Y69.000
G1 X183.000 Y69.000
G1 X182.000 Y69.000
G1 X181.000 Y69.000
G1 X180.000 Y69.000
G1 X179.000 Y69.000
G1 X178.000 Y69.000
G1 X177.000 Y69.000
G1 X176.000 Y69.000
