G90
G21
; === MULTI-COLOR PAINTER GCODE ===
; Generated layers: 1
; Backlash compensation: ON  BX=0.5 BY=1
; Working area clamping: ON  X[0–150] Y[0–150]
; Tutti Frutti mode: ON  stroke 40–80mm  dishes: Color 1 — Red, Color 2 — Teal, Color 3 — Yellow, Color 4 — Purple


; ═══════════════════════════════
; LAYER 1: Color 1 — Red
; Infill: lines
; ═══════════════════════════════


; --- DIP → Color 4 — Purple ---
G0 Z1.600 F3000
M400
M204 P600 T600
G1 F1500
G0 X150.000 Y1.821 Z10.000
G1 Z1.000 F3000
G1 X150.000 Y1.821 F2500
G1 X150.000 Y4.321 F2500
G1 X145.000 Y1.821 F2500
G1 X150.000 Y0.000 F2500
G0 Z3.000 F3000
G0 X138.833 Y5.258
G0 Z10.000 F3000
G0 X31.700 Y40.100 Z1.600
M400
M204 P600 T600
G1 F1500
G0 X31.700 Y40.100 Z1.600
M400
M204 P200 T200
G1 F600
G1 Z0.000 F2500
G1 X31.800 Y40.100
G1 X31.900 Y40.100
G1 X32.000 Y40.100
G1 X32.100 Y40.100
G1 X32.200 Y40.100
G1 X32.300 Y40.100
G1 X32.400 Y40.100
G1 X32.500 Y40.100
G1 X32.600 Y40.100
G1 X32.700 Y40.100
G1 X32.800 Y40.100
G1 X32.900 Y40.100
G1 X33.000 Y40.100
G1 X33.100 Y40.100
G1 X33.200 Y40.100
G1 X33.300 Y40.100
G1 X33.400 Y40.100
G1 X33.500 Y40.100
G0 Z1.600 F3000
M400
M204 P600 T600
G1 F1500
; --- Backlash X fix: -0.500mm ---
G0 X33.000 Y40.100 F200
G0 X31.000 Y41.000 Z1.600
M400
M204 P200 T200
G1 F600
G1 Z0.000 F2500
; --- Backlash X fix: 0.500mm ---
G0 X31.500 Y41.000 F200
G1 X31.600 Y41.000
G1 X31.700 Y41.000
G1 X31.800 Y41.000
G1 X31.900 Y41.000
G1 X32.000 Y41.000
G1 X32.100 Y41.000
G1 X32.200 Y41.000
G1 X32.300 Y41.000
G1 X32.400 Y41.000
G1 X32.500 Y41.000
G1 X32.600 Y41.000
G1 X32.700 Y41.000
G1 X32.800 Y41.000
G1 X32.900 Y41.000
G1 X33.000 Y41.000
G1 X33.100 Y41.000
G1 X33.200 Y41.000
G1 X33.300 Y41.000
G1 X33.400 Y41.000
G1 X33.500 Y41.000
G1 X33.600 Y41.000
G1 X33.700 Y41.000
G1 X33.800 Y41.000
G1 X33.900 Y41.000
G1 X34.000 Y41.000
G1 X34.100 Y41.000
G1 X34.200 Y41.000
G1 X34.300 Y41.000
G1 X34.400 Y41.000
G1 X34.500 Y41.000
G1 X34.600 Y41.000
G1 X34.700 Y41.000
G1 X34.800 Y41.000
G1 X34.900 Y41.000
G1 X35.000 Y41.000
G1 X35.100 Y41.000
G1 X35.200 Y41.000
G1 X35.300 Y41.000
G1 X35.400 Y41.000
G1 X35.500 Y41.000
G1 X35.600 Y41.000
G1 X35.700 Y41.000
G1 X35.800 Y41.000
G1 X35.900 Y41.000
G0 Z1.600 F3000
M400
M204 P600 T600
G1 F1500
G0 X38.000 Y41.900 Z1.600
M400
M204 P200 T200
G1 F600
G1 Z0.000 F2500
; --- Backlash X fix: -0.500mm ---
G0 X37.500 Y41.900 F200
G1 X37.400 Y41.900
G1 X37.300 Y41.900
G1 X37.200 Y41.900
G1 X37.100 Y41.900
G1 X37.000 Y41.900
G1 X36.900 Y41.900
G1 X36.800 Y41.900
G1 X36.700 Y41.900
G1 X36.600 Y41.900
G1 X36.500 Y41.900
G1 X36.400 Y41.900
G1 X36.300 Y41.900
G1 X36.200 Y41.900
G1 X36.100 Y41.900
G1 X36.000 Y41.900
G1 X35.900 Y41.900
G1 X35.800 Y41.900
G1 X35.700 Y41.900
G1 X35.600 Y41.900
G1 X35.500 Y41.900
G1 X35.400 Y41.900
G1 X35.300 Y41.900
G1 X35.200 Y41.900
G1 X35.100 Y41.900
G1 X35.000 Y41.900
G1 X34.900 Y41.900
G1 X34.800 Y41.900
G1 X34.700 Y41.900
G1 X34.600 Y41.900
G1 X34.500 Y41.900
G1 X34.400 Y41.900
G1 X34.300 Y41.900
G1 X34.200 Y41.900
G1 X34.100 Y41.900
G1 X34.000 Y41.900
G1 X33.900 Y41.900
G1 X33.800 Y41.900
G1 X33.700 Y41.900
G1 X33.600 Y41.900
G1 X33.500 Y41.900
G1 X33.400 Y41.900
G1 X33.300 Y41.900
G1 X33.200 Y41.900
G1 X33.100 Y41.900
G1 X33.000 Y41.900
G1 X32.900 Y41.900
G1 X32.800 Y41.900
G1 X32.700 Y41.900
G1 X32.600 Y41.900
G1 X32.500 Y41.900
G1 X32.400 Y41.900
G1 X32.300 Y41.900
G1 X32.200 Y41.900
G1 X32.100 Y41.900
G1 X32.000 Y41.900
G1 X31.900 Y41.900
G1 X31.800 Y41.900
G1 X31.700 Y41.900
G1 X31.600 Y41.900
G1 X31.500 Y41.900
G1 X31.400 Y41.900
G1 X31.300 Y41.900
G1 X31.200 Y41.900
G1 X31.100 Y41.900
G1 X31.000 Y41.900
G1 X30.900 Y41.900
G0 Z1.600 F3000
M400
M204 P600 T600
G1 F1500
; --- Backlash X fix: 0.500mm ---
G0 X31.400 Y41.900 F200
G0 X37.800 Y46.400 Z1.600
M400
M204 P200 T200
G1 F600
G1 Z0.000 F2500
G1 X37.900 Y46.400
G1 X38.000 Y46.400
G1 X38.100 Y46.400
G1 X38.200 Y46.400
G1 X38.300 Y46.400
G1 X38.400 Y46.400
G1 X38.500 Y46.400
G1 X38.600 Y46.400
G1 X38.700 Y46.400
G1 X38.800 Y46.400
G1 X38.900 Y46.400
G1 X39.000 Y46.400
G1 X39.100 Y46.400
G1 X39.200 Y46.400
G1 X39.300 Y46.400
G1 X39.400 Y46.400
G1 X39.500 Y46.400
G1 X39.600 Y46.400
G1 X39.700 Y46.400
G1 X39.800 Y46.400
G1 X39.900 Y46.400
G1 X40.000 Y46.400
G1 X40.100 Y46.400
G1 X40.200 Y46.400
G1 X40.300 Y46.400
G1 X40.400 Y46.400
G1 X40.500 Y46.400
G1 X40.600 Y46.400
G1 X40.700 Y46.400
G1 X40.800 Y46.400
G1 X40.900 Y46.400
G1 X41.000 Y46.400
G1 X41.100 Y46.400
G1 X41.200 Y46.400
G1 X41.300 Y46.400
G1 X41.400 Y46.400
G1 X41.500 Y46.400
G1 X41.600 Y46.400
G1 X41.700 Y46.400
G1 X41.800 Y46.400
G1 X41.900 Y46.400
G1 X42.000 Y46.400
G1 X42.100 Y46.400
G1 X42.200 Y46.400
G1 X42.300 Y46.400
G1 X42.400 Y46.400
G1 X42.500 Y46.400
G1 X42.600 Y46.400
G1 X42.700 Y46.400
G1 X42.800 Y46.400
G1 X42.900 Y46.400
G1 X43.000 Y46.400
G1 X43.100 Y46.400
G1 X43.200 Y46.400
G1 X43.300 Y46.400
G1 X43.400 Y46.400
G1 X43.500 Y46.400
G1 X43.600 Y46.400
G1 X43.700 Y46.400
G1 X43.800 Y46.400
G1 X43.900 Y46.400
G1 X44.000 Y46.400
G1 X44.100 Y46.400
G1 X44.200 Y46.400
G1 X44.300 Y46.400
G1 X44.400 Y46.400
G1 X44.500 Y46.400
G1 X44.600 Y46.400
G1 X44.700 Y46.400
G1 X44.800 Y46.400
G1 X44.900 Y46.400
G1 X45.000 Y46.400
G1 X45.100 Y46.400
G1 X45.200 Y46.400
G1 X45.300 Y46.400
G1 X45.400 Y46.400
G1 X45.500 Y46.400
G1 X45.600 Y46.400
G1 X45.700 Y46.400
G1 X45.800 Y46.400
G1 X45.900 Y46.400
G1 X46.000 Y46.400
G1 X46.100 Y46.400
G0 Z1.600 F3000
M400
M204 P600 T600
G1 F1500
; --- Backlash X fix: -0.500mm ---
G0 X45.600 Y46.400 F200
G0 X42.800 Y50.000 Z1.600
M400
M204 P200 T200
G1 F600
G1 Z0.000 F2500
; --- Backlash X fix: 0.500mm ---
G0 X43.300 Y50.000 F200
G1 X43.400 Y50.000
G1 X43.500 Y50.000
G1 X43.600 Y50.000
G1 X43.700 Y50.000
G1 X43.800 Y50.000
G1 X43.900 Y50.000
G1 X44.000 Y50.000
G1 X44.100 Y50.000
G1 X44.200 Y50.000
G1 X44.300 Y50.000
G1 X44.400 Y50.000
G1 X44.500 Y50.000
G1 X44.600 Y50.000
G1 X44.700 Y50.000
G1 X44.800 Y50.000
G1 X44.900 Y50.000
G1 X45.000 Y50.000
G1 X45.100 Y50.000
G1 X45.200 Y50.000
G1 X45.300 Y50.000
G1 X45.400 Y50.000
G1 X45.500 Y50.000
G1 X45.600 Y50.000
G1 X45.700 Y50.000
G1 X45.800 Y50.000
G1 X45.900 Y50.000
G1 X46.000 Y50.000
G1 X46.100 Y50.000
G1 X46.200 Y50.000
G1 X46.300 Y50.000
G1 X46.400 Y50.000
G1 X46.500 Y50.000
G1 X46.600 Y50.000
G1 X46.700 Y50.000
G1 X46.800 Y50.000
G1 X46.900 Y50.000
G1 X47.000 Y50.000
G1 X47.100 Y50.000
G1 X47.200 Y50.000
G1 X47.300 Y50.000
G1 X47.400 Y50.000
G1 X47.500 Y50.000
G1 X47.600 Y50.000
G1 X47.700 Y50.000
G1 X47.800 Y50.000
G1 X47.900 Y50.000
G1 X48.000 Y50.000
G1 X48.100 Y50.000
G1 X48.200 Y50.000
G1 X48.300 Y50.000
G1 X48.400 Y50.000
G1 X48.500 Y50.000
G1 X48.600 Y50.000
G1 X48.700 Y50.000
G1 X48.800 Y50.000
G1 X48.900 Y50.000
G1 X49.000 Y50.000
G1 X49.100 Y50.000
G1 X49.200 Y50.000
G1 X49.300 Y50.000
G1 X49.400 Y50.000
G1 X49.500 Y50.000
G1 X49.600 Y50.000
G1 X49.700 Y50.000
G1 X49.800 Y50.000
G1 X49.900 Y50.000
G1 X50.000 Y50.000
G1 X50.100 Y50.000
G1 X50.200 Y50.000
G1 X50.300 Y50.000
G1 X50.400 Y50.000
G1 X50.500 Y50.000
G0 Z1.600 F3000
M400
M204 P600 T600
G1 F1500
G0 X53.400 Y53.600 Z1.600
M400
M204 P200 T200
G1 F600
G1 Z0.000 F2500
; --- Backlash X fix: -0.500mm ---
G0 X52.900 Y53.600 F200
G1 X52.800 Y53.600
G1 X52.700 Y53.600
G1 X52.600 Y53.600
G1 X52.500 Y53.600
G1 X52.400 Y53.600
G1 X52.300 Y53.600
G1 X52.200 Y53.600
G1 X52.100 Y53.600
G1 X52.000 Y53.600
G1 X51.900 Y53.600
G1 X51.800 Y53.600
G1 X51.700 Y53.600
G1 X51.600 Y53.600
G1 X51.500 Y53.600
G1 X51.400 Y53.600
G1 X51.300 Y53.600
G1 X51.200 Y53.600
G1 X51.100 Y53.600
G1 X51.000 Y53.600
G1 X50.900 Y53.600
G1 X50.800 Y53.600
G1 X50.700 Y53.600
G1 X50.600 Y53.600
G1 X50.500 Y53.600
G1 X50.400 Y53.600
G1 X50.300 Y53.600
G1 X50.200 Y53.600
G1 X50.100 Y53.600
G1 X50.000 Y53.600
G1 X49.900 Y53.600
G1 X49.800 Y53.600
G1 X49.700 Y53.600
G1 X49.600 Y53.600
G1 X49.500 Y53.600
G1 X49.400 Y53.600
G1 X49.300 Y53.600
G1 X49.200 Y53.600
G1 X49.100 Y53.600
G1 X49.000 Y53.600
G1 X48.900 Y53.600
G1 X48.800 Y53.600
G1 X48.700 Y53.600
G1 X48.600 Y53.600
G1 X48.500 Y53.600
G1 X48.400 Y53.600
G1 X48.300 Y53.600
G1 X48.200 Y53.600
G1 X48.100 Y53.600
G1 X48.000 Y53.600
G1 X47.900 Y53.600
G1 X47.800 Y53.600
G1 X47.700 Y53.600
G1 X47.600 Y53.600
G1 X47.500 Y53.600
G1 X47.400 Y53.600
G1 X47.300 Y53.600
G1 X47.200 Y53.600
G1 X47.100 Y53.600
G1 X47.000 Y53.600
G1 X46.900 Y53.600
G1 X46.800 Y53.600
G1 X46.700 Y53.600
G1 X46.600 Y53.600
G1 X46.500 Y53.600
G1 X46.400 Y53.600
G0 Z1.600 F3000
M400
M204 P600 T600
G1 F1500
; --- Backlash X fix: 0.500mm ---
G0 X46.900 Y53.600 F200
G0 X49.100 Y56.300 Z1.600
M400
M204 P200 T200
G1 F600
G1 Z0.000 F2500
G1 X49.200 Y56.300
G1 X49.300 Y56.300
G1 X49.400 Y56.300
G1 X49.500 Y56.300
G1 X49.600 Y56.300
G1 X49.700 Y56.300
G1 X49.800 Y56.300
G1 X49.900 Y56.300
G1 X50.000 Y56.300
G1 X50.100 Y56.300
G1 X50.200 Y56.300
G1 X50.300 Y56.300
G1 X50.400 Y56.300
G1 X50.500 Y56.300
G1 X50.600 Y56.300
G1 X50.700 Y56.300
G1 X50.800 Y56.300
G1 X50.900 Y56.300
G1 X51.000 Y56.300
G1 X51.100 Y56.300
G1 X51.200 Y56.300
G1 X51.300 Y56.300
G1 X51.400 Y56.300
G1 X51.500 Y56.300
G1 X51.600 Y56.300
G1 X51.700 Y56.300
G1 X51.800 Y56.300
G1 X51.900 Y56.300
G1 X52.000 Y56.300
G1 X52.100 Y56.300
G1 X52.200 Y56.300
G1 X52.300 Y56.300
G1 X52.400 Y56.300
G1 X52.500 Y56.300
G1 X52.600 Y56.300
G1 X52.700 Y56.300
G1 X52.800 Y56.300
G1 X52.900 Y56.300
G1 X53.000 Y56.300
G1 X53.100 Y56.300
G1 X53.200 Y56.300
G1 X53.300 Y56.300
G1 X53.400 Y56.300
G1 X53.500 Y56.300
G1 X53.600 Y56.300
G1 X53.700 Y56.300
G1 X53.800 Y56.300
G1 X53.900 Y56.300
G1 X54.000 Y56.300
G1 X54.100 Y56.300
G1 X54.200 Y56.300
G1 X54.300 Y56.300
G1 X54.400 Y56.300
G1 X54.500 Y56.300
G1 X54.600 Y56.300
G1 X54.700 Y56.300
G1 X54.800 Y56.300
G0 Z1.600 F3000
M400
M204 P600 T600
G1 F1500
G0 X55.500 Y59.000 Z1.600
M400
M204 P200 T200
G1 F600
G1 Z0.000 F2500
; --- Backlash X fix: -0.500mm ---
G0 X55.000 Y59.000 F200
G1 X54.900 Y59.000
G1 X54.800 Y59.000
G1 X54.700 Y59.000
G1 X54.600 Y59.000
G1 X54.500 Y59.000
G1 X54.400 Y59.000
G1 X54.300 Y59.000
G1 X54.200 Y59.000
G1 X54.100 Y59.000
G1 X54.000 Y59.000
G1 X53.900 Y59.000
G1 X53.800 Y59.000
G1 X53.700 Y59.000
G1 X53.600 Y59.000
G1 X53.500 Y59.000
G1 X53.400 Y59.000
G1 X53.300 Y59.000
G1 X53.200 Y59.000
G1 X53.100 Y59.000
G1 X53.000 Y59.000
G1 X52.900 Y59.000
G1 X52.800 Y59.000
G1 X52.700 Y59.000
G1 X52.600 Y59.000
G1 X52.500 Y59.000
G1 X52.400 Y59.000
G1 X52.300 Y59.000
G1 X52.200 Y59.000
G1 X52.100 Y59.000
G1 X52.000 Y59.000
G1 X51.900 Y59.000
G1 X51.800 Y59.000
G1 X51.700 Y59.000
G1 X51.600 Y59.000
G1 X51.500 Y59.000
G1 X51.400 Y59.000
G1 X51.300 Y59.000
G1 X51.200 Y59.000
G1 X51.100 Y59.000
G1 X51.000 Y59.000
G1 X50.900 Y59.000
G1 X50.800 Y59.000
G1 X50.700 Y59.000
G1 X50.600 Y59.000
G1 X50.500 Y59.000
G1 X50.400 Y59.000
G0 Z1.600 F3000
M400
M204 P600 T600
G1 F1500
; --- Backlash X fix: 0.500mm ---
G0 X50.900 Y59.000 F200
G0 X58.900 Y59.900 Z1.600
M400
M204 P200 T200
G1 F600
G1 Z0.000 F2500
G1 X59.000 Y59.900
G1 X59.100 Y59.900
G1 X59.200 Y59.900
G1 X59.300 Y59.900
G1 X59.400 Y59.900
G0 Z1.600 F3000
M400
M204 P600 T600
G1 F1500
; --- Backlash X fix: -0.500mm ---
G0 X58.900 Y59.900 F200
G0 X58.400 Y60.800 Z1.600
M400
M204 P200 T200
G1 F600
G1 Z0.000 F2500
; --- Backlash X fix: 0.500mm ---
G0 X58.900 Y60.800 F200
G1 X59.000 Y60.800
G1 X59.100 Y60.800
G1 X59.200 Y60.800
G1 X59.300 Y60.800
G1 X59.400 Y60.800
G1 X59.500 Y60.800
G1 X59.600 Y60.800
G1 X59.700 Y60.800
G1 X59.800 Y60.800
G1 X59.900 Y60.800
G1 X60.000 Y60.800
G0 Z1.600 F3000
M400
M204 P600 T600
G1 F1500
G0 X60.600 Y61.700 Z1.600
M400
M204 P200 T200
G1 F600
G1 Z0.000 F2500
; --- Backlash X fix: -0.500mm ---
G0 X60.100 Y61.700 F200
G1 X60.000 Y61.700
G1 X59.900 Y61.700
G1 X59.800 Y61.700
G1 X59.700 Y61.700
G1 X59.600 Y61.700
G1 X59.500 Y61.700
G1 X59.400 Y61.700
G1 X59.300 Y61.700
G1 X59.200 Y61.700
G1 X59.100 Y61.700
G1 X59.000 Y61.700
G1 X58.900 Y61.700
G1 X58.800 Y61.700
G1 X58.700 Y61.700
G1 X58.600 Y61.700
G1 X58.500 Y61.700
G1 X58.400 Y61.700
G1 X58.300 Y61.700
G0 Z1.600 F3000
M400
M204 P600 T600
G1 F1500
G0 X58.200 Y62.600 Z1.600
M400
M204 P200 T200
G1 F600
G1 Z0.000 F2500
; --- Backlash X fix: 0.500mm ---
G0 X58.700 Y62.600 F200
G1 X58.800 Y62.600
G1 X58.900 Y62.600
G1 X59.000 Y62.600
G1 X59.100 Y62.600
G1 X59.200 Y62.600
G1 X59.300 Y62.600
G1 X59.400 Y62.600
G1 X59.500 Y62.600
G1 X59.600 Y62.600
G1 X59.700 Y62.600
G1 X59.800 Y62.600
G1 X59.900 Y62.600
G1 X60.000 Y62.600
G1 X60.100 Y62.600
G1 X60.200 Y62.600
G1 X60.300 Y62.600
G1 X60.400 Y62.600
G1 X60.500 Y62.600
G1 X60.600 Y62.600
G1 X60.700 Y62.600
G1 X60.800 Y62.600
G1 X60.900 Y62.600
G1 X61.000 Y62.600
G1 X61.100 Y62.600
G1 X61.200 Y62.600
G0 Z1.600 F3000
M400
M204 P600 T600
G1 F1500
G0 X61.800 Y63.500 Z1.600
M400
M204 P200 T200
G1 F600
G1 Z0.000 F2500
; --- Backlash X fix: -0.500mm ---
G0 X61.300 Y63.500 F200
G1 X61.200 Y63.500
G1 X61.100 Y63.500
G1 X61.000 Y63.500
G1 X60.900 Y63.500
G1 X60.800 Y63.500
G1 X60.700 Y63.500
G1 X60.600 Y63.500
G1 X60.500 Y63.500
G1 X60.400 Y63.500
G1 X60.300 Y63.500
G1 X60.200 Y63.500
G1 X60.100 Y63.500
G1 X60.000 Y63.500
G1 X59.900 Y63.500
G1 X59.800 Y63.500
G1 X59.700 Y63.500
G1 X59.600 Y63.500
G1 X59.500 Y63.500
G1 X59.400 Y63.500
G1 X59.300 Y63.500
G1 X59.200 Y63.500
G1 X59.100 Y63.500
G1 X59.000 Y63.500
G1 X58.900 Y63.500
G1 X58.800 Y63.500
G1 X58.700 Y63.500
G1 X58.600 Y63.500
G1 X58.500 Y63.500
G1 X58.400 Y63.500
G1 X58.300 Y63.500
G1 X58.200 Y63.500
G0 Z1.600 F3000
M400
M204 P600 T600
G1 F1500
G0 X58.000 Y64.400 Z1.600
M400
M204 P200 T200
G1 F600
G1 Z0.000 F2500
; --- Backlash X fix: 0.500mm ---
G0 X58.500 Y64.400 F200
G1 X58.600 Y64.400
G1 X58.700 Y64.400
G1 X58.800 Y64.400
G1 X58.900 Y64.400
G1 X59.000 Y64.400
G1 X59.100 Y64.400
G1 X59.200 Y64.400
G1 X59.300 Y64.400
G1 X59.400 Y64.400
G1 X59.500 Y64.400
G1 X59.600 Y64.400
G1 X59.700 Y64.400
G1 X59.800 Y64.400
G1 X59.900 Y64.400
G1 X60.000 Y64.400
G1 X60.100 Y64.400
G1 X60.200 Y64.400
G1 X60.300 Y64.400
G1 X60.400 Y64.400
G1 X60.500 Y64.400
G1 X60.600 Y64.400
G1 X60.700 Y64.400
G1 X60.800 Y64.400
G1 X60.900 Y64.400
G1 X61.000 Y64.400
G1 X61.100 Y64.400
G1 X61.200 Y64.400
G1 X61.300 Y64.400
G1 X61.400 Y64.400
G1 X61.500 Y64.400
G1 X61.600 Y64.400
G1 X61.700 Y64.400
G1 X61.800 Y64.400
G1 X61.900 Y64.400
G1 X62.000 Y64.400
G1 X62.100 Y64.400
G1 X62.200 Y64.400
G1 X62.300 Y64.400
G1 X62.400 Y64.400
G0 Z1.600 F3000
M400
M204 P600 T600
G1 F1500
G0 X65.600 Y66.200 Z1.600
M400
M204 P200 T200
G1 F600
G1 Z0.000 F2500
G1 X65.700 Y66.200
G1 X65.800 Y66.200
G1 X65.900 Y66.200
G1 X66.000 Y66.200
G1 X66.100 Y66.200
G1 X66.200 Y66.200
G1 X66.300 Y66.200
G1 X66.400 Y66.200
G1 X66.500 Y66.200
G1 X66.600 Y66.200
G1 X66.700 Y66.200
G1 X66.800 Y66.200
G1 X66.900 Y66.200
G1 X67.000 Y66.200
G1 X67.100 Y66.200
G1 X67.200 Y66.200
G1 X67.300 Y66.200
G1 X67.400 Y66.200
G1 X67.500 Y66.200
G1 X67.600 Y66.200
G1 X67.700 Y66.200
G1 X67.800 Y66.200
G1 X67.900 Y66.200
G1 X68.000 Y66.200
G1 X68.100 Y66.200
G1 X68.200 Y66.200
G1 X68.300 Y66.200
G1 X68.400 Y66.200
G1 X68.500 Y66.200
G1 X68.600 Y66.200
G1 X68.700 Y66.200
G1 X68.800 Y66.200
G1 X68.900 Y66.200
G1 X69.000 Y66.200
G1 X69.100 Y66.200
G1 X69.200 Y66.200
G1 X69.300 Y66.200
G1 X69.400 Y66.200
G1 X69.500 Y66.200
G1 X69.600 Y66.200
G1 X69.700 Y66.200
G1 X69.800 Y66.200
G1 X69.900 Y66.200
G0 Z1.600 F3000

; --- DIP → Color 2 — Teal ---
G0 Z1.600 F3000
M400
M204 P600 T600
G1 F1500
G0 X65.906 Y0.000 Z10.000
G1 Z1.000 F3000
G1 X65.906 Y0.000 F2500
G1 X65.906 Y2.500 F2500
G1 X60.906 Y0.000 F2500
G1 X65.906 Y0.000 F2500
G0 Z3.000 F3000
G0 X64.788 Y16.906
G0 Z10.000 F3000
G0 X70.000 Y66.200 Z1.600
M400
M204 P200 T200
G1 F600
G1 Z0.000 F2500
G1 X70.000 Y66.200
G1 X70.100 Y66.200
G1 X70.200 Y66.200
G1 X70.300 Y66.200
G1 X70.400 Y66.200
G1 X70.500 Y66.200
G1 X70.600 Y66.200
G1 X70.700 Y66.200
G1 X70.800 Y66.200
G1 X70.900 Y66.200
G1 X71.000 Y66.200
G1 X71.100 Y66.200
G1 X71.200 Y66.200
G1 X71.300 Y66.200
G1 X71.400 Y66.200
G1 X71.500 Y66.200
G1 X71.600 Y66.200
G1 X71.700 Y66.200
G1 X71.800 Y66.200
G1 X71.900 Y66.200
G1 X72.000 Y66.200
G1 X72.100 Y66.200
G1 X72.200 Y66.200
G1 X72.300 Y66.200
G1 X72.400 Y66.200
G1 X72.500 Y66.200
G1 X72.600 Y66.200
G1 X72.700 Y66.200
G1 X72.800 Y66.200
G1 X72.900 Y66.200
G1 X73.000 Y66.200
G1 X73.100 Y66.200
G1 X73.200 Y66.200
G1 X73.300 Y66.200
G1 X73.400 Y66.200
G1 X73.500 Y66.200
G1 X73.600 Y66.200
G1 X73.700 Y66.200
G1 X73.800 Y66.200
G1 X73.900 Y66.200
G1 X74.000 Y66.200
G1 X74.100 Y66.200
G1 X74.200 Y66.200
G1 X74.300 Y66.200
G1 X74.400 Y66.200
G1 X74.500 Y66.200
G1 X74.600 Y66.200
G1 X74.700 Y66.200
G1 X74.800 Y66.200
G1 X74.900 Y66.200
G1 X75.000 Y66.200
G1 X75.100 Y66.200
G1 X75.200 Y66.200
G1 X75.300 Y66.200
G1 X75.400 Y66.200
G1 X75.500 Y66.200
G1 X75.600 Y66.200
G1 X75.700 Y66.200
G1 X75.800 Y66.200
G1 X75.900 Y66.200
G1 X76.000 Y66.200
G1 X76.100 Y66.200
G1 X76.200 Y66.200
G1 X76.300 Y66.200
G1 X76.400 Y66.200
G1 X76.500 Y66.200
G1 X76.600 Y66.200
G1 X76.700 Y66.200
G1 X76.800 Y66.200
G1 X76.900 Y66.200
G1 X77.000 Y66.200
G1 X77.100 Y66.200
G1 X77.200 Y66.200
G1 X77.300 Y66.200
G1 X77.400 Y66.200
G1 X77.500 Y66.200
G1 X77.600 Y66.200
G1 X77.700 Y66.200
G1 X77.800 Y66.200
G1 X77.900 Y66.200
G1 X78.000 Y66.200
G1 X78.100 Y66.200
G1 X78.200 Y66.200
G1 X78.300 Y66.200
G1 X78.400 Y66.200
G1 X78.500 Y66.200
G1 X78.600 Y66.200
G1 X78.700 Y66.200
G1 X78.800 Y66.200
G1 X78.900 Y66.200
G1 X79.000 Y66.200
G1 X79.100 Y66.200
G1 X79.200 Y66.200
G1 X79.300 Y66.200
G1 X79.400 Y66.200
G1 X79.500 Y66.200
G1 X79.600 Y66.200
G1 X79.700 Y66.200
G1 X79.800 Y66.200
G1 X79.900 Y66.200
G1 X80.000 Y66.200
G1 X80.100 Y66.200
G1 X80.200 Y66.200
G1 X80.300 Y66.200
G1 X80.400 Y66.200
G1 X80.500 Y66.200
G1 X80.600 Y66.200
G1 X80.700 Y66.200
G1 X80.800 Y66.200
G1 X80.900 Y66.200
G1 X81.000 Y66.200
G1 X81.100 Y66.200
G1 X81.200 Y66.200
G1 X81.300 Y66.200
G1 X81.400 Y66.200
G1 X81.500 Y66.200
G1 X81.600 Y66.200
G1 X81.700 Y66.200
G1 X81.800 Y66.200
G1 X81.900 Y66.200
G1 X82.000 Y66.200
G1 X82.100 Y66.200
G1 X82.200 Y66.200
G1 X82.300 Y66.200
G1 X82.400 Y66.200
G1 X82.500 Y66.200
G1 X82.600 Y66.200
G1 X82.700 Y66.200
G1 X82.800 Y66.200
G1 X82.900 Y66.200
G1 X83.000 Y66.200
G1 X83.100 Y66.200
G1 X83.200 Y66.200
G1 X83.300 Y66.200
G1 X83.400 Y66.200
G1 X83.500 Y66.200
G1 X83.600 Y66.200
G1 X83.700 Y66.200
G1 X83.800 Y66.200
G1 X83.900 Y66.200
G1 X84.000 Y66.200
G1 X84.100 Y66.200
G1 X84.200 Y66.200
G1 X84.300 Y66.200
G1 X84.400 Y66.200
G1 X84.500 Y66.200
G1 X84.600 Y66.200
G1 X84.700 Y66.200
G1 X84.800 Y66.200
G1 X84.900 Y66.200
G1 X85.000 Y66.200
G1 X85.100 Y66.200
G1 X85.200 Y66.200
G1 X85.300 Y66.200
G1 X85.400 Y66.200
G1 X85.500 Y66.200
G1 X85.600 Y66.200
G1 X85.700 Y66.200
G1 X85.800 Y66.200
G1 X85.900 Y66.200
G1 X86.000 Y66.200
G0 Z1.600 F3000
M400
M204 P600 T600
G1 F1500
G0 X92.600 Y70.700 Z1.600
M400
M204 P200 T200
G1 F600
G1 Z0.000 F2500
G1 X92.700 Y70.700
G1 X92.800 Y70.700
G1 X92.900 Y70.700
G1 X93.000 Y70.700
G1 X93.100 Y70.700
G1 X93.200 Y70.700
G1 X93.300 Y70.700
G1 X93.400 Y70.700
G1 X93.500 Y70.700
G1 X93.600 Y70.700
G1 X93.700 Y70.700
G1 X93.800 Y70.700
G1 X93.900 Y70.700
G1 X94.000 Y70.700
G1 X94.100 Y70.700
G1 X94.200 Y70.700
G1 X94.300 Y70.700
G1 X94.400 Y70.700
G1 X94.500 Y70.700
G1 X94.600 Y70.700
G1 X94.700 Y70.700
G1 X94.800 Y70.700
G1 X94.900 Y70.700
G1 X95.000 Y70.700
G1 X95.100 Y70.700
G1 X95.200 Y70.700
G1 X95.300 Y70.700
G1 X95.400 Y70.700
G1 X95.500 Y70.700
G1 X95.600 Y70.700
G1 X95.700 Y70.700
G1 X95.800 Y70.700
G1 X95.900 Y70.700
G1 X96.000 Y70.700
G1 X96.100 Y70.700
G1 X96.200 Y70.700
G1 X96.300 Y70.700
G1 X96.400 Y70.700
G1 X96.500 Y70.700
G1 X96.600 Y70.700
G1 X96.700 Y70.700
G1 X96.800 Y70.700
G1 X96.900 Y70.700
G1 X97.000 Y70.700
G1 X97.100 Y70.700
G1 X97.200 Y70.700
G1 X97.300 Y70.700
G1 X97.400 Y70.700
G1 X97.500 Y70.700
G0 Z1.600 F3000
M400
M204 P600 T600
G1 F1500
; --- Backlash Y fix: -1.000mm ---
G0 X97.500 Y69.700 F200
G0 X99.100 Y67.000 Z1.600
M400
M204 P200 T200
G1 F600
G1 Z0.000 F2500
G1 X99.200 Y67.000
G1 X99.300 Y67.000
G1 X99.400 Y67.000
G1 X99.500 Y67.000
G1 X99.600 Y67.000
G1 X99.700 Y67.000
G1 X99.800 Y67.000
G1 X99.900 Y67.000
G1 X100.000 Y67.000
G1 X100.100 Y67.000
G1 X100.200 Y67.000
G1 X100.300 Y67.000
G1 X100.400 Y67.000
G1 X100.500 Y67.000
G1 X100.600 Y67.000
G1 X100.700 Y67.000
G1 X100.800 Y67.000
G1 X100.900 Y67.000
G1 X101.000 Y67.000
G1 X101.100 Y67.000
G1 X101.200 Y67.000
G1 X101.300 Y67.000
G1 X101.400 Y67.000
G1 X101.500 Y67.000
G1 X101.600 Y67.000
G1 X101.700 Y67.000
G1 X101.800 Y67.000
G1 X101.900 Y67.000
G1 X102.000 Y67.000
G1 X102.100 Y67.000
G1 X102.200 Y67.000
G1 X102.300 Y67.000
G1 X102.400 Y67.000
G1 X102.500 Y67.000
G1 X102.600 Y67.000
G1 X102.700 Y67.000
G1 X102.800 Y67.000
G1 X102.900 Y67.000
G1 X103.000 Y67.000
G1 X103.100 Y67.000
G1 X103.200 Y67.000
G1 X103.300 Y67.000
G0 Z1.600 F3000
M400
M204 P600 T600
G1 F1500
; --- Backlash Y fix: 1.000mm ---
G0 X103.300 Y68.000 F200
G0 X105.600 Y69.800 Z1.600
M400
M204 P200 T200
G1 F600
G1 Z0.000 F2500
G1 X105.700 Y69.800
G1 X105.800 Y69.800
G1 X105.900 Y69.800
G1 X106.000 Y69.800
G1 X106.100 Y69.800
G1 X106.200 Y69.800
G1 X106.300 Y69.800
G1 X106.400 Y69.800
G1 X106.500 Y69.800
G1 X106.600 Y69.800
G1 X106.700 Y69.800
G1 X106.800 Y69.800
G1 X106.900 Y69.800
G1 X107.000 Y69.800
G1 X107.100 Y69.800
G1 X107.200 Y69.800
G1 X107.300 Y69.800
G1 X107.400 Y69.800
G1 X107.500 Y69.800
G1 X107.600 Y69.800
G1 X107.700 Y69.800
G1 X107.800 Y69.800
G1 X107.900 Y69.800
G1 X108.000 Y69.800
G1 X108.100 Y69.800
G1 X108.200 Y69.800
G1 X108.300 Y69.800
G1 X108.400 Y69.800
G1 X108.500 Y69.800
G1 X108.600 Y69.800
G1 X108.700 Y69.800
G1 X108.800 Y69.800
G1 X108.900 Y69.800
G1 X109.000 Y69.800
G1 X109.100 Y69.800
G1 X109.200 Y69.800
G1 X109.300 Y69.800
G1 X109.400 Y69.800
G1 X109.500 Y69.800
G1 X109.600 Y69.800
G1 X109.700 Y69.800
G1 X109.800 Y69.800
G1 X109.900 Y69.800
G1 X110.000 Y69.800
G1 X110.100 Y69.800
G1 X110.200 Y69.800
G1 X110.300 Y69.800
G1 X110.400 Y69.800
G1 X110.500 Y69.800
G0 Z1.600 F3000
M400
M204 P600 T600
G1 F1500
; --- Backlash Y fix: -1.000mm ---
G0 X110.500 Y68.800 F200
G0 X113.300 Y66.100 Z1.600
M400
M204 P200 T200
G1 F600
G1 Z0.000 F2500
; --- Backlash X fix: -0.500mm ---
G0 X112.800 Y66.100 F200
G1 X112.700 Y66.100
G1 X112.600 Y66.100
G1 X112.500 Y66.100
G1 X112.400 Y66.100
G1 X112.300 Y66.100
G1 X112.200 Y66.100
G1 X112.100 Y66.100
G1 X112.000 Y66.100
G1 X111.900 Y66.100
G1 X111.800 Y66.100
G1 X111.700 Y66.100
G1 X111.600 Y66.100
G1 X111.500 Y66.100
G1 X111.400 Y66.100
G1 X111.300 Y66.100
G1 X111.200 Y66.100
G1 X111.100 Y66.100
G1 X111.000 Y66.100
G1 X110.900 Y66.100
G1 X110.800 Y66.100
G1 X110.700 Y66.100
G1 X110.600 Y66.100
G1 X110.500 Y66.100
G1 X110.400 Y66.100
G1 X110.300 Y66.100
G1 X110.200 Y66.100
G1 X110.100 Y66.100
G1 X110.000 Y66.100
G1 X109.900 Y66.100
G1 X109.800 Y66.100
G1 X109.700 Y66.100
G1 X109.600 Y66.100
G1 X109.500 Y66.100
G1 X109.400 Y66.100
G1 X109.300 Y66.100
G1 X109.200 Y66.100
G1 X109.100 Y66.100
G1 X109.000 Y66.100
G1 X108.900 Y66.100
G1 X108.800 Y66.100
G1 X108.700 Y66.100
G1 X108.600 Y66.100
G1 X108.500 Y66.100
G1 X108.400 Y66.100
G1 X108.300 Y66.100
G1 X108.200 Y66.100
G1 X108.100 Y66.100
G1 X108.000 Y66.100
G1 X107.900 Y66.100
G1 X107.800 Y66.100
G1 X107.700 Y66.100
G1 X107.600 Y66.100
G1 X107.500 Y66.100
G1 X107.400 Y66.100
G1 X107.300 Y66.100
G1 X107.200 Y66.100
G1 X107.100 Y66.100
G0 Z1.600 F3000
M400
M204 P600 T600
G1 F1500
; --- Backlash X fix: 0.500mm ---
G0 X107.600 Y66.100 F200
G0 X109.400 Y63.400 Z1.600
M400
M204 P200 T200
G1 F600
G1 Z0.000 F2500
G1 X109.500 Y63.400
G1 X109.600 Y63.400
G1 X109.700 Y63.400
G1 X109.800 Y63.400
G1 X109.900 Y63.400
G1 X110.000 Y63.400
G1 X110.100 Y63.400
G1 X110.200 Y63.400
G1 X110.300 Y63.400
G1 X110.400 Y63.400
G1 X110.500 Y63.400
G1 X110.600 Y63.400
G1 X110.700 Y63.400
G1 X110.800 Y63.400
G1 X110.900 Y63.400
G1 X111.000 Y63.400
G1 X111.100 Y63.400
G1 X111.200 Y63.400
G1 X111.300 Y63.400
G1 X111.400 Y63.400
G1 X111.500 Y63.400
G1 X111.600 Y63.400
G1 X111.700 Y63.400
G1 X111.800 Y63.400
G1 X111.900 Y63.400
G1 X112.000 Y63.400
G1 X112.100 Y63.400
G1 X112.200 Y63.400
G1 X112.300 Y63.400
G1 X112.400 Y63.400
G1 X112.500 Y63.400
G1 X112.600 Y63.400
G1 X112.700 Y63.400
G1 X112.800 Y63.400
G1 X112.900 Y63.400
G1 X113.000 Y63.400
G1 X113.100 Y63.400
G1 X113.200 Y63.400
G1 X113.300 Y63.400
G1 X113.400 Y63.400
G1 X113.500 Y63.400
G1 X113.600 Y63.400
G1 X113.700 Y63.400
G1 X113.800 Y63.400
G1 X113.900 Y63.400
G1 X114.000 Y63.400
G1 X114.100 Y63.400
G1 X114.200 Y63.400
G1 X114.300 Y63.400
G1 X114.400 Y63.400
G1 X114.500 Y63.400
G1 X114.600 Y63.400
G1 X114.700 Y63.400
G1 X114.800 Y63.400
G1 X114.900 Y63.400
G1 X115.000 Y63.400
G1 X115.100 Y63.400
G1 X115.200 Y63.400
G0 Z1.600 F3000
M400
M204 P600 T600
G1 F1500
G0 X116.600 Y60.700 Z1.600
M400
M204 P200 T200
G1 F600
G1 Z0.000 F2500
; --- Backlash X fix: -0.500mm ---
G0 X116.100 Y60.700 F200
G1 X116.000 Y60.700
G1 X115.900 Y60.700
G1 X115.800 Y60.700
G1 X115.700 Y60.700
G1 X115.600 Y60.700
G1 X115.500 Y60.700
G1 X115.400 Y60.700
G1 X115.300 Y60.700
G1 X115.200 Y60.700
G1 X115.100 Y60.700
G1 X115.000 Y60.700
G1 X114.900 Y60.700
G1 X114.800 Y60.700
G1 X114.700 Y60.700
G1 X114.600 Y60.700
G1 X114.500 Y60.700
G1 X114.400 Y60.700
G1 X114.300 Y60.700
G1 X114.200 Y60.700
G1 X114.100 Y60.700
G1 X114.000 Y60.700
G1 X113.900 Y60.700
G1 X113.800 Y60.700
G1 X113.700 Y60.700
G1 X113.600 Y60.700
G1 X113.500 Y60.700
G1 X113.400 Y60.700
G1 X113.300 Y60.700
G1 X113.200 Y60.700
G1 X113.100 Y60.700
G1 X113.000 Y60.700
G1 X112.900 Y60.700
G1 X112.800 Y60.700
G1 X112.700 Y60.700
G1 X112.600 Y60.700
G1 X112.500 Y60.700
G1 X112.400 Y60.700
G1 X112.300 Y60.700
G0 Z1.600 F3000

; --- DIP → Color 1 — Red ---
G0 Z1.600 F3000
M400
M204 P600 T600
G1 F1500
G0 X17.267 Y4.330 Z10.000
G1 Z1.000 F3000
G1 X17.267 Y4.330 F2500
G1 X17.267 Y6.830 F2500
G1 X12.267 Y4.330 F2500
G1 X17.267 Y0.000 F2500
G0 Z3.000 F3000
G0 X31.288 Y9.212
G0 Z10.000 F3000
G0 X112.700 Y61.700 Z1.600
M400
M204 P200 T200
G1 F600
G1 Z0.000 F2500
G1 X112.200 Y60.700
G1 X112.100 Y60.700
G1 X112.000 Y60.700
G1 X111.900 Y60.700
G1 X111.800 Y60.700
G1 X111.700 Y60.700
G1 X111.600 Y60.700
G1 X111.500 Y60.700
G1 X111.400 Y60.700
G1 X111.300 Y60.700
G1 X111.200 Y60.700
G1 X111.100 Y60.700
G1 X111.000 Y60.700
G1 X110.900 Y60.700
G1 X110.800 Y60.700
G1 X110.700 Y60.700
G1 X110.600 Y60.700
G1 X110.500 Y60.700
G0 Z1.600 F3000
M400
M204 P600 T600
G1 F1500
; --- Backlash X fix: 0.500mm ---
G0 X111.000 Y60.700 F200
G0 X111.900 Y58.900 Z1.600
M400
M204 P200 T200
G1 F600
G1 Z0.000 F2500
G1 X112.000 Y58.900
G1 X112.100 Y58.900
G1 X112.200 Y58.900
G1 X112.300 Y58.900
G1 X112.400 Y58.900
G1 X112.500 Y58.900
G1 X112.600 Y58.900
G1 X112.700 Y58.900
G1 X112.800 Y58.900
G1 X112.900 Y58.900
G1 X113.000 Y58.900
G1 X113.100 Y58.900
G1 X113.200 Y58.900
G1 X113.300 Y58.900
G1 X113.400 Y58.900
G1 X113.500 Y58.900
G1 X113.600 Y58.900
G1 X113.700 Y58.900
G1 X113.800 Y58.900
G1 X113.900 Y58.900
G1 X114.000 Y58.900
G1 X114.100 Y58.900
G1 X114.200 Y58.900
G1 X114.300 Y58.900
G1 X114.400 Y58.900
G1 X114.500 Y58.900
G1 X114.600 Y58.900
G1 X114.700 Y58.900
G1 X114.800 Y58.900
G1 X114.900 Y58.900
G1 X115.000 Y58.900
G1 X115.100 Y58.900
G1 X115.200 Y58.900
G1 X115.300 Y58.900
G1 X115.400 Y58.900
G1 X115.500 Y58.900
G1 X115.600 Y58.900
G1 X115.700 Y58.900
G1 X115.800 Y58.900
G1 X115.900 Y58.900
G1 X116.000 Y58.900
G1 X116.100 Y58.900
G1 X116.200 Y58.900
G1 X116.300 Y58.900
G1 X116.400 Y58.900
G1 X116.500 Y58.900
G1 X116.600 Y58.900
G1 X116.700 Y58.900
G1 X116.800 Y58.900
G1 X116.900 Y58.900
G1 X117.000 Y58.900
G1 X117.100 Y58.900
G1 X117.200 Y58.900
G1 X117.300 Y58.900
G0 Z1.600 F3000
M400
M204 P600 T600
G1 F1500
G0 X117.800 Y57.100 Z1.600
M400
M204 P200 T200
G1 F600
G1 Z0.000 F2500
; --- Backlash X fix: -0.500mm ---
G0 X117.300 Y57.100 F200
G1 X117.200 Y57.100
G1 X117.100 Y57.100
G1 X117.000 Y57.100
G1 X116.900 Y57.100
G1 X116.800 Y57.100
G1 X116.700 Y57.100
G1 X116.600 Y57.100
G1 X116.500 Y57.100
G1 X116.400 Y57.100
G1 X116.300 Y57.100
G1 X116.200 Y57.100
G1 X116.100 Y57.100
G1 X116.000 Y57.100
G1 X115.900 Y57.100
G1 X115.800 Y57.100
G1 X115.700 Y57.100
G1 X115.600 Y57.100
G1 X115.500 Y57.100
G1 X115.400 Y57.100
G1 X115.300 Y57.100
G1 X115.200 Y57.100
G1 X115.100 Y57.100
G1 X115.000 Y57.100
G1 X114.900 Y57.100
G1 X114.800 Y57.100
G1 X114.700 Y57.100
G1 X114.600 Y57.100
G1 X114.500 Y57.100
G1 X114.400 Y57.100
G1 X114.300 Y57.100
G1 X114.200 Y57.100
G1 X114.100 Y57.100
G1 X114.000 Y57.100
G1 X113.900 Y57.100
G1 X113.800 Y57.100
G1 X113.700 Y57.100
G1 X113.600 Y57.100
G1 X113.500 Y57.100
G1 X113.400 Y57.100
G1 X113.300 Y57.100
G1 X113.200 Y57.100
G1 X113.100 Y57.100
G1 X113.000 Y57.100
G1 X112.900 Y57.100
G1 X112.800 Y57.100
G1 X112.700 Y57.100
G1 X112.600 Y57.100
G1 X112.500 Y57.100
G1 X112.400 Y57.100
G1 X112.300 Y57.100
G1 X112.200 Y57.100
G0 Z1.600 F3000
M400
M204 P600 T600
G1 F1500
; --- Backlash X fix: 0.500mm ---
G0 X112.700 Y57.100 F200
G0 X113.300 Y55.300 Z1.600
M400
M204 P200 T200
G1 F600
G1 Z0.000 F2500
G1 X113.400 Y55.300
G1 X113.500 Y55.300
G1 X113.600 Y55.300
G1 X113.700 Y55.300
G1 X113.800 Y55.300
G1 X113.900 Y55.300
G1 X114.000 Y55.300
G1 X114.100 Y55.300
G1 X114.200 Y55.300
G1 X114.300 Y55.300
G1 X114.400 Y55.300
G1 X114.500 Y55.300
G1 X114.600 Y55.300
G1 X114.700 Y55.300
G1 X114.800 Y55.300
G1 X114.900 Y55.300
G1 X115.000 Y55.300
G1 X115.100 Y55.300
G1 X115.200 Y55.300
G1 X115.300 Y55.300
G1 X115.400 Y55.300
G1 X115.500 Y55.300
G1 X115.600 Y55.300
G1 X115.700 Y55.300
G1 X115.800 Y55.300
G1 X115.900 Y55.300
G1 X116.000 Y55.300
G1 X116.100 Y55.300
G1 X116.200 Y55.300
G1 X116.300 Y55.300
G1 X116.400 Y55.300
G1 X116.500 Y55.300
G1 X116.600 Y55.300
G1 X116.700 Y55.300
G1 X116.800 Y55.300
G1 X116.900 Y55.300
G1 X117.000 Y55.300
G1 X117.100 Y55.300
G1 X117.200 Y55.300
G1 X117.300 Y55.300
G1 X117.400 Y55.300
G1 X117.500 Y55.300
G1 X117.600 Y55.300
G1 X117.700 Y55.300
G1 X117.800 Y55.300
G1 X117.900 Y55.300
G1 X118.000 Y55.300
G1 X118.100 Y55.300
G1 X118.200 Y55.300
G0 Z1.600 F3000
M400
M204 P600 T600
G1 F1500
G0 X118.500 Y53.500 Z1.600
M400
M204 P200 T200
G1 F600
G1 Z0.000 F2500
; --- Backlash X fix: -0.500mm ---
G0 X118.000 Y53.500 F200
G1 X117.900 Y53.500
G1 X117.800 Y53.500
G1 X117.700 Y53.500
G1 X117.600 Y53.500
G1 X117.500 Y53.500
G1 X117.400 Y53.500
G1 X117.300 Y53.500
G1 X117.200 Y53.500
G1 X117.100 Y53.500
G1 X117.000 Y53.500
G1 X116.900 Y53.500
G1 X116.800 Y53.500
G1 X116.700 Y53.500
G1 X116.600 Y53.500
G1 X116.500 Y53.500
G1 X116.400 Y53.500
G1 X116.300 Y53.500
G1 X116.200 Y53.500
G1 X116.100 Y53.500
G1 X116.000 Y53.500
G1 X115.900 Y53.500
G1 X115.800 Y53.500
G1 X115.700 Y53.500
G1 X115.600 Y53.500
G1 X115.500 Y53.500
G1 X115.400 Y53.500
G1 X115.300 Y53.500
G1 X115.200 Y53.500
G1 X115.100 Y53.500
G1 X115.000 Y53.500
G1 X114.900 Y53.500
G1 X114.800 Y53.500
G1 X114.700 Y53.500
G1 X114.600 Y53.500
G1 X114.500 Y53.500
G1 X114.400 Y53.500
G1 X114.300 Y53.500
G1 X114.200 Y53.500
G1 X114.100 Y53.500
G1 X114.000 Y53.500
G1 X113.900 Y53.500
G1 X113.800 Y53.500
G1 X113.700 Y53.500
G1 X113.600 Y53.500
G1 X113.500 Y53.500
G1 X113.400 Y53.500
G0 Z1.600 F3000
M400
M204 P600 T600
G1 F1500
; --- Backlash X fix: 0.500mm ---
G0 X113.900 Y53.500 F200
G0 X114.200 Y52.600 Z1.600
M400
M204 P200 T200
G1 F600
G1 Z0.000 F2500
G1 X114.300 Y52.600
G1 X114.400 Y52.600
G1 X114.500 Y52.600
G1 X114.600 Y52.600
G1 X114.700 Y52.600
G1 X114.800 Y52.600
G1 X114.900 Y52.600
G1 X115.000 Y52.600
G1 X115.100 Y52.600
G1 X115.200 Y52.600
G1 X115.300 Y52.600
G1 X115.400 Y52.600
G1 X115.500 Y52.600
G1 X115.600 Y52.600
G1 X115.700 Y52.600
G1 X115.800 Y52.600
G1 X115.900 Y52.600
G1 X116.000 Y52.600
G1 X116.100 Y52.600
G1 X116.200 Y52.600
G1 X116.300 Y52.600
G1 X116.400 Y52.600
G1 X116.500 Y52.600
G1 X116.600 Y52.600
G1 X116.700 Y52.600
G1 X116.800 Y52.600
G1 X116.900 Y52.600
G1 X117.000 Y52.600
G1 X117.100 Y52.600
G1 X117.200 Y52.600
G1 X117.300 Y52.600
G1 X117.400 Y52.600
G1 X117.500 Y52.600
G1 X117.600 Y52.600
G1 X117.700 Y52.600
G1 X117.800 Y52.600
G1 X117.900 Y52.600
G1 X118.000 Y52.600
G1 X118.100 Y52.600
G1 X118.200 Y52.600
G1 X118.300 Y52.600
G1 X118.400 Y52.600
G1 X118.500 Y52.600
G1 X118.600 Y52.600
G0 Z1.600 F3000
M400
M204 P600 T600
G1 F1500
G0 X118.600 Y51.700 Z1.600
M400
M204 P200 T200
G1 F600
G1 Z0.000 F2500
; --- Backlash X fix: -0.500mm ---
G0 X118.100 Y51.700 F200
G1 X118.000 Y51.700
G1 X117.900 Y51.700
G1 X117.800 Y51.700
G1 X117.700 Y51.700
G1 X117.600 Y51.700
G1 X117.500 Y51.700
G1 X117.400 Y51.700
G1 X117.300 Y51.700
G1 X117.200 Y51.700
G1 X117.100 Y51.700
G1 X117.000 Y51.700
G1 X116.900 Y51.700
G1 X116.800 Y51.700
G1 X116.700 Y51.700
G1 X116.600 Y51.700
G1 X116.500 Y51.700
G1 X116.400 Y51.700
G1 X116.300 Y51.700
G1 X116.200 Y51.700
G1 X116.100 Y51.700
G1 X116.000 Y51.700
G1 X115.900 Y51.700
G1 X115.800 Y51.700
G1 X115.700 Y51.700
G1 X115.600 Y51.700
G1 X115.500 Y51.700
G1 X115.400 Y51.700
G1 X115.300 Y51.700
G1 X115.200 Y51.700
G1 X115.100 Y51.700
G1 X115.000 Y51.700
G1 X114.900 Y51.700
G1 X114.800 Y51.700
G1 X114.700 Y51.700
G1 X114.600 Y51.700
G1 X114.500 Y51.700
G1 X114.400 Y51.700
G1 X114.300 Y51.700
G1 X114.200 Y51.700
G1 X114.100 Y51.700
G1 X114.000 Y51.700
G1 X113.900 Y51.700
G0 Z1.600 F3000
M400
M204 P600 T600
G1 F1500
; --- Backlash X fix: 0.500mm ---
G0 X114.400 Y51.700 F200
G0 X114.600 Y50.800 Z1.600
M400
M204 P200 T200
G1 F600
G1 Z0.000 F2500
G1 X114.700 Y50.800
G1 X114.800 Y50.800
G1 X114.900 Y50.800
G1 X115.000 Y50.800
G1 X115.100 Y50.800
G1 X115.200 Y50.800
G1 X115.300 Y50.800
G1 X115.400 Y50.800
G1 X115.500 Y50.800
G1 X115.600 Y50.800
G1 X115.700 Y50.800
G1 X115.800 Y50.800
G1 X115.900 Y50.800
G1 X116.000 Y50.800
G1 X116.100 Y50.800
G1 X116.200 Y50.800
G1 X116.300 Y50.800
G1 X116.400 Y50.800
G1 X116.500 Y50.800
G1 X116.600 Y50.800
G1 X116.700 Y50.800
G1 X116.800 Y50.800
G1 X116.900 Y50.800
G1 X117.000 Y50.800
G1 X117.100 Y50.800
G1 X117.200 Y50.800
G1 X117.300 Y50.800
G1 X117.400 Y50.800
G1 X117.500 Y50.800
G1 X117.600 Y50.800
G1 X117.700 Y50.800
G1 X117.800 Y50.800
G1 X117.900 Y50.800
G1 X118.000 Y50.800
G1 X118.100 Y50.800
G1 X118.200 Y50.800
G1 X118.300 Y50.800
G1 X118.400 Y50.800
G1 X118.500 Y50.800
G1 X118.600 Y50.800
G0 Z1.600 F3000
M400
M204 P600 T600
G1 F1500
G0 X118.700 Y49.900 Z1.600
M400
M204 P200 T200
G1 F600
G1 Z0.000 F2500
; --- Backlash X fix: -0.500mm ---
G0 X118.200 Y49.900 F200
G1 X118.100 Y49.900
G1 X118.000 Y49.900
G1 X117.900 Y49.900
G1 X117.800 Y49.900
G1 X117.700 Y49.900
G1 X117.600 Y49.900
G1 X117.500 Y49.900
G1 X117.400 Y49.900
G1 X117.300 Y49.900
G1 X117.200 Y49.900
G1 X117.100 Y49.900
G1 X117.000 Y49.900
G1 X116.900 Y49.900
G1 X116.800 Y49.900
G1 X116.700 Y49.900
G1 X116.600 Y49.900
G1 X116.500 Y49.900
G1 X116.400 Y49.900
G1 X116.300 Y49.900
G1 X116.200 Y49.900
G1 X116.100 Y49.900
G1 X116.000 Y49.900
G1 X115.900 Y49.900
G1 X115.800 Y49.900
G1 X115.700 Y49.900
G1 X115.600 Y49.900
G1 X115.500 Y49.900
G1 X115.400 Y49.900
G1 X115.300 Y49.900
G1 X115.200 Y49.900
G1 X115.100 Y49.900
G1 X115.000 Y49.900
G1 X114.900 Y49.900
G1 X114.800 Y49.900
G1 X114.700 Y49.900
G1 X114.600 Y49.900
G1 X114.500 Y49.900
G1 X114.400 Y49.900
G1 X114.300 Y49.900
G0 Z1.600 F3000
M400
M204 P600 T600
G1 F1500
; --- Backlash X fix: 0.500mm ---
G0 X114.800 Y49.900 F200
G0 X114.900 Y49.000 Z1.600
M400
M204 P200 T200
G1 F600
G1 Z0.000 F2500
G1 X115.000 Y49.000
G1 X115.100 Y49.000
G1 X115.200 Y49.000
G1 X115.300 Y49.000
G1 X115.400 Y49.000
G1 X115.500 Y49.000
G1 X115.600 Y49.000
G1 X115.700 Y49.000
G1 X115.800 Y49.000
G1 X115.900 Y49.000
G1 X116.000 Y49.000
G1 X116.100 Y49.000
G1 X116.200 Y49.000
G1 X116.300 Y49.000
G1 X116.400 Y49.000
G1 X116.500 Y49.000
G1 X116.600 Y49.000
G1 X116.700 Y49.000
G1 X116.800 Y49.000
G1 X116.900 Y49.000
G1 X117.000 Y49.000
G1 X117.100 Y49.000
G1 X117.200 Y49.000
G1 X117.300 Y49.000
G1 X117.400 Y49.000
G1 X117.500 Y49.000
G1 X117.600 Y49.000
G1 X117.700 Y49.000
G1 X117.800 Y49.000
G1 X117.900 Y49.000
G1 X118.000 Y49.000
G1 X118.100 Y49.000
G1 X118.200 Y49.000
G1 X118.300 Y49.000
G1 X118.400 Y49.000
G1 X118.500 Y49.000
G1 X118.600 Y49.000
G1 X118.700 Y49.000
G0 Z1.600 F3000
M400
M204 P600 T600
G1 F1500
G0 X118.700 Y48.100 Z1.600
M400
M204 P200 T200
G1 F600
G1 Z0.000 F2500
; --- Backlash X fix: -0.500mm ---
G0 X118.200 Y48.100 F200
G1 X118.100 Y48.100
G1 X118.000 Y48.100
G1 X117.900 Y48.100
G1 X117.800 Y48.100
G1 X117.700 Y48.100
G1 X117.600 Y48.100
G1 X117.500 Y48.100
G1 X117.400 Y48.100
G1 X117.300 Y48.100
G1 X117.200 Y48.100
G1 X117.100 Y48.100
G1 X117.000 Y48.100
G1 X116.900 Y48.100
G1 X116.800 Y48.100
G1 X116.700 Y48.100
G1 X116.600 Y48.100
G1 X116.500 Y48.100
G1 X116.400 Y48.100
G1 X116.300 Y48.100
G1 X116.200 Y48.100
G1 X116.100 Y48.100
G1 X116.000 Y48.100
G1 X115.900 Y48.100
G1 X115.800 Y48.100
G1 X115.700 Y48.100
G1 X115.600 Y48.100
G1 X115.500 Y48.100
G1 X115.400 Y48.100
G1 X115.300 Y48.100
G1 X115.200 Y48.100
G1 X115.100 Y48.100
G1 X115.000 Y48.100
G1 X114.900 Y48.100
G1 X114.800 Y48.100
G1 X114.700 Y48.100
G1 X114.600 Y48.100
G1 X114.500 Y48.100
G0 Z1.600 F3000
M400
M204 P600 T600
G1 F1500
; --- Backlash X fix: 0.500mm ---
G0 X115.000 Y48.100 F200
G0 X115.100 Y47.200 Z1.600
M400
M204 P200 T200
G1 F600
G1 Z0.000 F2500
G1 X115.200 Y47.200
G1 X115.300 Y47.200
G1 X115.400 Y47.200
G1 X115.500 Y47.200
G1 X115.600 Y47.200
G1 X115.700 Y47.200
G1 X115.800 Y47.200
G1 X115.900 Y47.200
G1 X116.000 Y47.200
G1 X116.100 Y47.200
G1 X116.200 Y47.200
G1 X116.300 Y47.200
G1 X116.400 Y47.200
G1 X116.500 Y47.200
G1 X116.600 Y47.200
G1 X116.700 Y47.200
G1 X116.800 Y47.200
G1 X116.900 Y47.200
G1 X117.000 Y47.200
G1 X117.100 Y47.200
G1 X117.200 Y47.200
G1 X117.300 Y47.200
G1 X117.400 Y47.200
G1 X117.500 Y47.200
G1 X117.600 Y47.200
G1 X117.700 Y47.200
G1 X117.800 Y47.200
G1 X117.900 Y47.200
G1 X118.000 Y47.200
G1 X118.100 Y47.200
G1 X118.200 Y47.200
G1 X118.300 Y47.200
G1 X118.400 Y47.200
G1 X118.500 Y47.200
G1 X118.600 Y47.200
G1 X118.700 Y47.200
G0 Z1.600 F3000
M400
M204 P600 T600
G1 F1500
G0 X118.700 Y45.400 Z1.600
M400
M204 P200 T200
G1 F600
G1 Z0.000 F2500
; --- Backlash X fix: -0.500mm ---
G0 X118.200 Y45.400 F200
G1 X118.100 Y45.400
G1 X118.000 Y45.400
G1 X117.900 Y45.400
G1 X117.800 Y45.400
G1 X117.700 Y45.400
G1 X117.600 Y45.400
G1 X117.500 Y45.400
G1 X117.400 Y45.400
G1 X117.300 Y45.400
G1 X117.200 Y45.400
G1 X117.100 Y45.400
G1 X117.000 Y45.400
G1 X116.900 Y45.400
G1 X116.800 Y45.400
G1 X116.700 Y45.400
G1 X116.600 Y45.400
G1 X116.500 Y45.400
G1 X116.400 Y45.400
G1 X116.300 Y45.400
G1 X116.200 Y45.400
G1 X116.100 Y45.400
G1 X116.000 Y45.400
G1 X115.900 Y45.400
G1 X115.800 Y45.400
G1 X115.700 Y45.400
G1 X115.600 Y45.400
G1 X115.500 Y45.400
G1 X115.400 Y45.400
G1 X115.300 Y45.400
G1 X115.200 Y45.400
G1 X115.100 Y45.400
G1 X115.000 Y45.400
G1 X114.900 Y45.400
G1 X114.800 Y45.400
G1 X114.700 Y45.400
G1 X114.600 Y45.400
G1 X114.500 Y45.400
G1 X114.400 Y45.400
G1 X114.300 Y45.400
G1 X114.200 Y45.400
G1 X114.100 Y45.400
G1 X114.000 Y45.400
G1 X113.900 Y45.400
G1 X113.800 Y45.400
G1 X113.700 Y45.400
G1 X113.600 Y45.400
G1 X113.500 Y45.400
G1 X113.400 Y45.400
G1 X113.300 Y45.400
G1 X113.200 Y45.400
G1 X113.100 Y45.400
G1 X113.000 Y45.400
G1 X112.900 Y45.400
G1 X112.800 Y45.400
G1 X112.700 Y45.400
G1 X112.600 Y45.400
G1 X112.500 Y45.400
G1 X112.400 Y45.400
G1 X112.300 Y45.400
G1 X112.200 Y45.400
G1 X112.100 Y45.400
G0 Z1.600 F3000
M400
M204 P600 T600
G1 F1500
; --- Backlash X fix: 0.500mm ---
G0 X112.600 Y45.400 F200
G0 X116.300 Y39.100 Z1.600
M400
M204 P200 T200
G1 F600
G1 Z0.000 F2500
G1 X116.400 Y39.100
G1 X116.500 Y39.100
G1 X116.600 Y39.100
G1 X116.700 Y39.100
G1 X116.800 Y39.100
G1 X116.900 Y39.100
G1 X117.000 Y39.100
G1 X117.100 Y39.100
G1 X117.200 Y39.100
G1 X117.300 Y39.100
G1 X117.400 Y39.100
G1 X117.500 Y39.100
G1 X117.600 Y39.100
G1 X117.700 Y39.100
G1 X117.800 Y39.100
G1 X117.900 Y39.100
G1 X118.000 Y39.100
G1 X118.100 Y39.100
G1 X118.200 Y39.100
G1 X118.300 Y39.100
G0 Z1.600 F3000
M400
M204 P600 T600
G1 F1500
; --- Backlash Y fix: 1.000mm ---
G0 X118.300 Y40.100 F200
G0 X118.400 Y41.000 Z1.600
M400
M204 P200 T200
G1 F600
G1 Z0.000 F2500
; --- Backlash X fix: -0.500mm ---
G0 X117.900 Y41.000 F200
G1 X117.800 Y41.000
G1 X117.700 Y41.000
G1 X117.600 Y41.000
G1 X117.500 Y41.000
G1 X117.400 Y41.000
G1 X117.300 Y41.000
G1 X117.200 Y41.000
G1 X117.100 Y41.000
G1 X117.000 Y41.000
G1 X116.900 Y41.000
G1 X116.800 Y41.000
G1 X116.700 Y41.000
G1 X116.600 Y41.000
G1 X116.500 Y41.000
G1 X116.400 Y41.000
G1 X116.300 Y41.000
G1 X116.200 Y41.000
G1 X116.100 Y41.000
G1 X116.000 Y41.000
G1 X115.900 Y41.000
G1 X115.800 Y41.000
G1 X115.700 Y41.000
G1 X115.600 Y41.000
G1 X115.500 Y41.000
G1 X115.400 Y41.000
G1 X115.300 Y41.000
G1 X115.200 Y41.000
G1 X115.100 Y41.000
G1 X115.000 Y41.000
G1 X114.900 Y41.000
G1 X114.800 Y41.000
G1 X114.700 Y41.000
G1 X114.600 Y41.000
G1 X114.500 Y41.000
G1 X114.400 Y41.000
G1 X114.300 Y41.000
G1 X114.200 Y41.000
G1 X114.100 Y41.000
G1 X114.000 Y41.000
G1 X113.900 Y41.000
G1 X113.800 Y41.000
G1 X113.700 Y41.000
G1 X113.600 Y41.000
G1 X113.500 Y41.000
G0 Z1.600 F3000
M400
M204 P600 T600
G1 F1500
G0 X111.400 Y41.900 Z1.600
M400
M204 P200 T200
G1 F600
G1 Z0.000 F2500
; --- Backlash X fix: 0.500mm ---
G0 X111.900 Y41.900 F200
G1 X112.000 Y41.900
G1 X112.100 Y41.900
G1 X112.200 Y41.900
G1 X112.300 Y41.900
G1 X112.400 Y41.900
G1 X112.500 Y41.900
G1 X112.600 Y41.900
G1 X112.700 Y41.900
G1 X112.800 Y41.900
G1 X112.900 Y41.900
G1 X113.000 Y41.900
G1 X113.100 Y41.900
G1 X113.200 Y41.900
G1 X113.300 Y41.900
G1 X113.400 Y41.900
G1 X113.500 Y41.900
G1 X113.600 Y41.900
G1 X113.700 Y41.900
G1 X113.800 Y41.900
G1 X113.900 Y41.900
G1 X114.000 Y41.900
G1 X114.100 Y41.900
G1 X114.200 Y41.900
G1 X114.300 Y41.900
G1 X114.400 Y41.900
G1 X114.500 Y41.900
G1 X114.600 Y41.900
G1 X114.700 Y41.900
G1 X114.800 Y41.900
G1 X114.900 Y41.900
G1 X115.000 Y41.900
G1 X115.100 Y41.900
G1 X115.200 Y41.900
G1 X115.300 Y41.900
G1 X115.400 Y41.900
G1 X115.500 Y41.900
G1 X115.600 Y41.900
G1 X115.700 Y41.900
G1 X115.800 Y41.900
G1 X115.900 Y41.900
G1 X116.000 Y41.900
G1 X116.100 Y41.900
G1 X116.200 Y41.900
G1 X116.300 Y41.900
G1 X116.400 Y41.900
G1 X116.500 Y41.900
G1 X116.600 Y41.900
G1 X116.700 Y41.900
G1 X116.800 Y41.900
G1 X116.900 Y41.900
G1 X117.000 Y41.900
G1 X117.100 Y41.900
G1 X117.200 Y41.900
G1 X117.300 Y41.900
G1 X117.400 Y41.900
G1 X117.500 Y41.900
G1 X117.600 Y41.900
G1 X117.700 Y41.900
G1 X117.800 Y41.900
G1 X117.900 Y41.900
G1 X118.000 Y41.900
G1 X118.100 Y41.900
G1 X118.200 Y41.900
G1 X118.300 Y41.900
G1 X118.400 Y41.900
G1 X118.500 Y41.900
G1 X118.600 Y41.900
G0 Z1.600 F3000
M400
M204 P600 T600
G1 F1500
G0 X118.600 Y42.800 Z1.600
M400
M204 P200 T200
G1 F600
G1 Z0.000 F2500
; --- Backlash X fix: -0.500mm ---
G0 X118.100 Y42.800 F200
G1 X118.000 Y42.800
G1 X117.900 Y42.800
G0 Z1.600 F3000

; --- DIP → Color 2 — Teal ---
G0 Z1.600 F3000
M400
M204 P600 T600
G1 F1500
G0 X59.480 Y4.173 Z10.000
G1 Z1.000 F3000
G1 X59.480 Y4.173 F2500
G1 X59.480 Y6.673 F2500
G1 X54.480 Y4.173 F2500
G1 X59.480 Y0.000 F2500
G0 Z3.000 F3000
G0 X76.444 Y10.405
G0 Z10.000 F3000
G0 X118.300 Y42.800 Z1.600
M400
M204 P200 T200
G1 F600
G1 Z0.000 F2500
G1 X117.800 Y42.800
G1 X117.700 Y42.800
G1 X117.600 Y42.800
G1 X117.500 Y42.800
G1 X117.400 Y42.800
G1 X117.300 Y42.800
G1 X117.200 Y42.800
G1 X117.100 Y42.800
G1 X117.000 Y42.800
G1 X116.900 Y42.800
G1 X116.800 Y42.800
G1 X116.700 Y42.800
G1 X116.600 Y42.800
G1 X116.500 Y42.800
G1 X116.400 Y42.800
G1 X116.300 Y42.800
G1 X116.200 Y42.800
G1 X116.100 Y42.800
G1 X116.000 Y42.800
G1 X115.900 Y42.800
G1 X115.800 Y42.800
G1 X115.700 Y42.800
G1 X115.600 Y42.800
G1 X115.500 Y42.800
G1 X115.400 Y42.800
G1 X115.300 Y42.800
G1 X115.200 Y42.800
G1 X115.100 Y42.800
G1 X115.000 Y42.800
G1 X114.900 Y42.800
G1 X114.800 Y42.800
G1 X114.700 Y42.800
G1 X114.600 Y42.800
G1 X114.500 Y42.800
G1 X114.400 Y42.800
G1 X114.300 Y42.800
G1 X114.200 Y42.800
G1 X114.100 Y42.800
G1 X114.000 Y42.800
G1 X113.900 Y42.800
G1 X113.800 Y42.800
G1 X113.700 Y42.800
G1 X113.600 Y42.800
G1 X113.500 Y42.800
G1 X113.400 Y42.800
G1 X113.300 Y42.800
G1 X113.200 Y42.800
G1 X113.100 Y42.800
G1 X113.000 Y42.800
G1 X112.900 Y42.800
G1 X112.800 Y42.800
G1 X112.700 Y42.800
G1 X112.600 Y42.800
G1 X112.500 Y42.800
G1 X112.400 Y42.800
G1 X112.300 Y42.800
G1 X112.200 Y42.800
G1 X112.100 Y42.800
G1 X112.000 Y42.800
G1 X111.900 Y42.800
G1 X111.800 Y42.800
G1 X111.700 Y42.800
G1 X111.600 Y42.800
G1 X111.500 Y42.800
G1 X111.400 Y42.800
G1 X111.300 Y42.800
G1 X111.200 Y42.800
G1 X111.100 Y42.800
G1 X111.000 Y42.800
G1 X110.900 Y42.800
G1 X110.800 Y42.800
G1 X110.700 Y42.800
G1 X110.600 Y42.800
G1 X110.500 Y42.800
G1 X110.400 Y42.800
G1 X110.300 Y42.800
G1 X110.200 Y42.800
G1 X110.100 Y42.800
G1 X110.000 Y42.800
G1 X109.900 Y42.800
G1 X109.800 Y42.800
G1 X109.700 Y42.800
G1 X109.600 Y42.800
G1 X109.500 Y42.800
G0 Z1.600 F3000
M400
M204 P600 T600
G1 F1500
; --- Backlash X fix: 0.500mm ---
G0 X110.000 Y42.800 F200
G0 X111.800 Y47.300 Z1.600
M400
M204 P200 T200
G1 F600
G1 Z0.000 F2500
G1 X111.900 Y47.300
G1 X112.000 Y47.300
G1 X112.100 Y47.300
G1 X112.200 Y47.300
G1 X112.300 Y47.300
G1 X112.400 Y47.300
G1 X112.500 Y47.300
G1 X112.600 Y47.300
G1 X112.700 Y47.300
G1 X112.800 Y47.300
G1 X112.900 Y47.300
G1 X113.000 Y47.300
G1 X113.100 Y47.300
G1 X113.200 Y47.300
G1 X113.300 Y47.300
G1 X113.400 Y47.300
G1 X113.500 Y47.300
G1 X113.600 Y47.300
G1 X113.700 Y47.300
G1 X113.800 Y47.300
G1 X113.900 Y47.300
G1 X114.000 Y47.300
G1 X114.100 Y47.300
G1 X114.200 Y47.300
G1 X114.300 Y47.300
G1 X114.400 Y47.300
G1 X114.500 Y47.300
G1 X114.600 Y47.300
G1 X114.700 Y47.300
G1 X114.800 Y47.300
G1 X114.900 Y47.300
G1 X115.000 Y47.300
G1 X115.100 Y47.300
G1 X115.200 Y47.300
G1 X115.300 Y47.300
G1 X115.400 Y47.300
G1 X115.500 Y47.300
G1 X115.600 Y47.300
G1 X115.700 Y47.300
G1 X115.800 Y47.300
G1 X115.900 Y47.300
G1 X116.000 Y47.300
G1 X116.100 Y47.300
G1 X116.200 Y47.300
G1 X116.300 Y47.300
G1 X116.400 Y47.300
G1 X116.500 Y47.300
G1 X116.600 Y47.300
G1 X116.700 Y47.300
G1 X116.800 Y47.300
G1 X116.900 Y47.300
G1 X117.000 Y47.300
G1 X117.100 Y47.300
G1 X117.200 Y47.300
G1 X117.300 Y47.300
G1 X117.400 Y47.300
G1 X117.500 Y47.300
G1 X117.600 Y47.300
G1 X117.700 Y47.300
G1 X117.800 Y47.300
G1 X117.900 Y47.300
G1 X118.000 Y47.300
G1 X118.100 Y47.300
G1 X118.200 Y47.300
G1 X118.300 Y47.300
G1 X118.400 Y47.300
G1 X118.500 Y47.300
G1 X118.600 Y47.300
G1 X118.700 Y47.300
G0 Z1.600 F3000
M400
M204 P600 T600
G1 F1500
; --- Backlash X fix: -0.500mm ---
G0 X118.200 Y47.300 F200
G0 X114.000 Y48.200 Z1.600
M400
M204 P200 T200
G1 F600
G1 Z0.000 F2500
G1 X113.900 Y48.200
G1 X113.800 Y48.200
G1 X113.700 Y48.200
G1 X113.600 Y48.200
G1 X113.500 Y48.200
G1 X113.400 Y48.200
G1 X113.300 Y48.200
G1 X113.200 Y48.200
G1 X113.100 Y48.200
G1 X113.000 Y48.200
G1 X112.900 Y48.200
G1 X112.800 Y48.200
G1 X112.700 Y48.200
G1 X112.600 Y48.200
G1 X112.500 Y48.200
G1 X112.400 Y48.200
G1 X112.300 Y48.200
G1 X112.200 Y48.200
G1 X112.100 Y48.200
G1 X112.000 Y48.200
G1 X111.900 Y48.200
G1 X111.800 Y48.200
G1 X111.700 Y48.200
G1 X111.600 Y48.200
G1 X111.500 Y48.200
G1 X111.400 Y48.200
G1 X111.300 Y48.200
G1 X111.200 Y48.200
G1 X111.100 Y48.200
G1 X111.000 Y48.200
G1 X110.900 Y48.200
G1 X110.800 Y48.200
G1 X110.700 Y48.200
G1 X110.600 Y48.200
G1 X110.500 Y48.200
G0 Z1.600 F3000
M400
M204 P600 T600
G1 F1500
G0 X109.600 Y49.100 Z1.600
M400
M204 P200 T200
G1 F600
G1 Z0.000 F2500
; --- Backlash X fix: 0.500mm ---
G0 X110.100 Y49.100 F200
G1 X110.200 Y49.100
G1 X110.300 Y49.100
G1 X110.400 Y49.100
G1 X110.500 Y49.100
G1 X110.600 Y49.100
G1 X110.700 Y49.100
G1 X110.800 Y49.100
G1 X110.900 Y49.100
G1 X111.000 Y49.100
G1 X111.100 Y49.100
G1 X111.200 Y49.100
G1 X111.300 Y49.100
G1 X111.400 Y49.100
G1 X111.500 Y49.100
G1 X111.600 Y49.100
G1 X111.700 Y49.100
G1 X111.800 Y49.100
G1 X111.900 Y49.100
G1 X112.000 Y49.100
G1 X112.100 Y49.100
G1 X112.200 Y49.100
G1 X112.300 Y49.100
G1 X112.400 Y49.100
G1 X112.500 Y49.100
G1 X112.600 Y49.100
G1 X112.700 Y49.100
G1 X112.800 Y49.100
G1 X112.900 Y49.100
G1 X113.000 Y49.100
G1 X113.100 Y49.100
G1 X113.200 Y49.100
G1 X113.300 Y49.100
G1 X113.400 Y49.100
G1 X113.500 Y49.100
G1 X113.600 Y49.100
G1 X113.700 Y49.100
G1 X113.800 Y49.100
G1 X113.900 Y49.100
G1 X114.000 Y49.100
G1 X114.100 Y49.100
G0 Z1.600 F3000
M400
M204 P600 T600
G1 F1500
; --- Backlash X fix: -0.500mm ---
G0 X113.600 Y49.100 F200
G0 X113.200 Y50.000 Z1.600
M400
M204 P200 T200
G1 F600
G1 Z0.000 F2500
G1 X113.100 Y50.000
G1 X113.000 Y50.000
G1 X112.900 Y50.000
G1 X112.800 Y50.000
G1 X112.700 Y50.000
G1 X112.600 Y50.000
G1 X112.500 Y50.000
G1 X112.400 Y50.000
G1 X112.300 Y50.000
G1 X112.200 Y50.000
G1 X112.100 Y50.000
G1 X112.000 Y50.000
G1 X111.900 Y50.000
G1 X111.800 Y50.000
G1 X111.700 Y50.000
G1 X111.600 Y50.000
G1 X111.500 Y50.000
G1 X111.400 Y50.000
G1 X111.300 Y50.000
G1 X111.200 Y50.000
G1 X111.100 Y50.000
G1 X111.000 Y50.000
G1 X110.900 Y50.000
G1 X110.800 Y50.000
G1 X110.700 Y50.000
G1 X110.600 Y50.000
G1 X110.500 Y50.000
G1 X110.400 Y50.000
G1 X110.300 Y50.000
G1 X110.200 Y50.000
G1 X110.100 Y50.000
G1 X110.000 Y50.000
G1 X109.900 Y50.000
G1 X109.800 Y50.000
G1 X109.700 Y50.000
G1 X109.600 Y50.000
G1 X109.500 Y50.000
G1 X109.400 Y50.000
G1 X109.300 Y50.000
G1 X109.200 Y50.000
G1 X109.100 Y50.000
G1 X109.000 Y50.000
G1 X108.900 Y50.000
G1 X108.800 Y50.000
G0 Z1.600 F3000
M400
M204 P600 T600
G1 F1500
G0 X107.900 Y50.900 Z1.600
M400
M204 P200 T200
G1 F600
G1 Z0.000 F2500
; --- Backlash X fix: 0.500mm ---
G0 X108.400 Y50.900 F200
G1 X108.500 Y50.900
G1 X108.600 Y50.900
G1 X108.700 Y50.900
G1 X108.800 Y50.900
G1 X108.900 Y50.900
G1 X109.000 Y50.900
G1 X109.100 Y50.900
G1 X109.200 Y50.900
G1 X109.300 Y50.900
G1 X109.400 Y50.900
G1 X109.500 Y50.900
G1 X109.600 Y50.900
G1 X109.700 Y50.900
G1 X109.800 Y50.900
G1 X109.900 Y50.900
G1 X110.000 Y50.900
G1 X110.100 Y50.900
G1 X110.200 Y50.900
G1 X110.300 Y50.900
G1 X110.400 Y50.900
G1 X110.500 Y50.900
G1 X110.600 Y50.900
G1 X110.700 Y50.900
G1 X110.800 Y50.900
G1 X110.900 Y50.900
G1 X111.000 Y50.900
G1 X111.100 Y50.900
G1 X111.200 Y50.900
G1 X111.300 Y50.900
G1 X111.400 Y50.900
G1 X111.500 Y50.900
G1 X111.600 Y50.900
G1 X111.700 Y50.900
G1 X111.800 Y50.900
G1 X111.900 Y50.900
G1 X112.000 Y50.900
G1 X112.100 Y50.900
G1 X112.200 Y50.900
G1 X112.300 Y50.900
G1 X112.400 Y50.900
G1 X112.500 Y50.900
G1 X112.600 Y50.900
G1 X112.700 Y50.900
G1 X112.800 Y50.900
G1 X112.900 Y50.900
G1 X113.000 Y50.900
G1 X113.100 Y50.900
G1 X113.200 Y50.900
G1 X113.300 Y50.900
G0 Z1.600 F3000
M400
M204 P600 T600
G1 F1500
G0 X113.600 Y55.400 Z1.600
M400
M204 P200 T200
G1 F600
G1 Z0.000 F2500
G1 X113.700 Y55.400
G1 X113.800 Y55.400
G1 X113.900 Y55.400
G1 X114.000 Y55.400
G1 X114.100 Y55.400
G1 X114.200 Y55.400
G1 X114.300 Y55.400
G1 X114.400 Y55.400
G1 X114.500 Y55.400
G1 X114.600 Y55.400
G1 X114.700 Y55.400
G1 X114.800 Y55.400
G1 X114.900 Y55.400
G1 X115.000 Y55.400
G1 X115.100 Y55.400
G1 X115.200 Y55.400
G1 X115.300 Y55.400
G1 X115.400 Y55.400
G1 X115.500 Y55.400
G1 X115.600 Y55.400
G1 X115.700 Y55.400
G1 X115.800 Y55.400
G1 X115.900 Y55.400
G1 X116.000 Y55.400
G1 X116.100 Y55.400
G1 X116.200 Y55.400
G1 X116.300 Y55.400
G1 X116.400 Y55.400
G1 X116.500 Y55.400
G1 X116.600 Y55.400
G1 X116.700 Y55.400
G1 X116.800 Y55.400
G1 X116.900 Y55.400
G1 X117.000 Y55.400
G1 X117.100 Y55.400
G1 X117.200 Y55.400
G1 X117.300 Y55.400
G1 X117.400 Y55.400
G1 X117.500 Y55.400
G1 X117.600 Y55.400
G1 X117.700 Y55.400
G1 X117.800 Y55.400
G1 X117.900 Y55.400
G1 X118.000 Y55.400
G1 X118.100 Y55.400
G1 X118.200 Y55.400
G1 X118.300 Y55.400
G1 X118.400 Y55.400
G0 Z1.600 F3000
M400
M204 P600 T600
G1 F1500
; --- Backlash X fix: -0.500mm ---
G0 X117.900 Y55.400 F200
G0 X117.500 Y57.200 Z1.600
M400
M204 P200 T200
G1 F600
G1 Z0.000 F2500
G1 X117.400 Y57.200
G1 X117.300 Y57.200
G1 X117.200 Y57.200
G1 X117.100 Y57.200
G1 X117.000 Y57.200
G1 X116.900 Y57.200
G1 X116.800 Y57.200
G1 X116.700 Y57.200
G1 X116.600 Y57.200
G1 X116.500 Y57.200
G1 X116.400 Y57.200
G1 X116.300 Y57.200
G1 X116.200 Y57.200
G1 X116.100 Y57.200
G1 X116.000 Y57.200
G1 X115.900 Y57.200
G1 X115.800 Y57.200
G1 X115.700 Y57.200
G1 X115.600 Y57.200
G1 X115.500 Y57.200
G1 X115.400 Y57.200
G1 X115.300 Y57.200
G1 X115.200 Y57.200
G1 X115.100 Y57.200
G1 X115.000 Y57.200
G1 X114.900 Y57.200
G1 X114.800 Y57.200
G1 X114.700 Y57.200
G1 X114.600 Y57.200
G1 X114.500 Y57.200
G1 X114.400 Y57.200
G1 X114.300 Y57.200
G1 X114.200 Y57.200
G1 X114.100 Y57.200
G1 X114.000 Y57.200
G1 X113.900 Y57.200
G1 X113.800 Y57.200
G1 X113.700 Y57.200
G1 X113.600 Y57.200
G1 X113.500 Y57.200
G1 X113.400 Y57.200
G1 X113.300 Y57.200
G1 X113.200 Y57.200
G1 X113.100 Y57.200
G1 X113.000 Y57.200
G1 X112.900 Y57.200
G1 X112.800 Y57.200
G1 X112.700 Y57.200
G1 X112.600 Y57.200
G1 X112.500 Y57.200
G0 Z1.600 F3000
M400
M204 P600 T600
G1 F1500
G0 X111.800 Y59.000 Z1.600
M400
M204 P200 T200
G1 F600
G1 Z0.000 F2500
; --- Backlash X fix: 0.500mm ---
G0 X112.300 Y59.000 F200
G1 X112.400 Y59.000
G1 X112.500 Y59.000
G1 X112.600 Y59.000
G1 X112.700 Y59.000
G1 X112.800 Y59.000
G1 X112.900 Y59.000
G1 X113.000 Y59.000
G1 X113.100 Y59.000
G1 X113.200 Y59.000
G1 X113.300 Y59.000
G1 X113.400 Y59.000
G1 X113.500 Y59.000
G1 X113.600 Y59.000
G1 X113.700 Y59.000
G1 X113.800 Y59.000
G1 X113.900 Y59.000
G1 X114.000 Y59.000
G1 X114.100 Y59.000
G1 X114.200 Y59.000
G1 X114.300 Y59.000
G1 X114.400 Y59.000
G1 X114.500 Y59.000
G1 X114.600 Y59.000
G1 X114.700 Y59.000
G1 X114.800 Y59.000
G1 X114.900 Y59.000
G1 X115.000 Y59.000
G1 X115.100 Y59.000
G1 X115.200 Y59.000
G1 X115.300 Y59.000
G1 X115.400 Y59.000
G1 X115.500 Y59.000
G1 X115.600 Y59.000
G1 X115.700 Y59.000
G1 X115.800 Y59.000
G1 X115.900 Y59.000
G1 X116.000 Y59.000
G1 X116.100 Y59.000
G1 X116.200 Y59.000
G1 X116.300 Y59.000
G1 X116.400 Y59.000
G1 X116.500 Y59.000
G1 X116.600 Y59.000
G1 X116.700 Y59.000
G1 X116.800 Y59.000
G1 X116.900 Y59.000
G1 X117.000 Y59.000
G1 X117.100 Y59.000
G1 X117.200 Y59.000
G1 X117.300 Y59.000
G1 X117.400 Y59.000
G1 X117.500 Y59.000
G1 X117.600 Y59.000
G0 Z1.600 F3000
M400
M204 P600 T600
G1 F1500
; --- Backlash X fix: -0.500mm ---
G0 X117.100 Y59.000 F200
G0 X116.500 Y60.800 Z1.600
M400
M204 P200 T200
G1 F600
G1 Z0.000 F2500
G1 X116.400 Y60.800
G1 X116.300 Y60.800
G1 X116.200 Y60.800
G1 X116.100 Y60.800
G1 X116.000 Y60.800
G1 X115.900 Y60.800
G1 X115.800 Y60.800
G1 X115.700 Y60.800
G1 X115.600 Y60.800
G1 X115.500 Y60.800
G1 X115.400 Y60.800
G1 X115.300 Y60.800
G1 X115.200 Y60.800
G1 X115.100 Y60.800
G1 X115.000 Y60.800
G1 X114.900 Y60.800
G1 X114.800 Y60.800
G1 X114.700 Y60.800
G1 X114.600 Y60.800
G1 X114.500 Y60.800
G1 X114.400 Y60.800
G1 X114.300 Y60.800
G1 X114.200 Y60.800
G1 X114.100 Y60.800
G1 X114.000 Y60.800
G1 X113.900 Y60.800
G1 X113.800 Y60.800
G1 X113.700 Y60.800
G1 X113.600 Y60.800
G1 X113.500 Y60.800
G1 X113.400 Y60.800
G1 X113.300 Y60.800
G1 X113.200 Y60.800
G1 X113.100 Y60.800
G1 X113.000 Y60.800
G1 X112.900 Y60.800
G1 X112.800 Y60.800
G1 X112.700 Y60.800
G1 X112.600 Y60.800
G1 X112.500 Y60.800
G1 X112.400 Y60.800
G1 X112.300 Y60.800
G1 X112.200 Y60.800
G1 X112.100 Y60.800
G1 X112.000 Y60.800
G1 X111.900 Y60.800
G1 X111.800 Y60.800
G1 X111.700 Y60.800
G1 X111.600 Y60.800
G1 X111.500 Y60.800
G1 X111.400 Y60.800
G1 X111.300 Y60.800
G1 X111.200 Y60.800
G1 X111.100 Y60.800
G1 X111.000 Y60.800
G1 X110.900 Y60.800
G0 Z1.600 F3000
M400
M204 P600 T600
G1 F1500
G0 X110.000 Y62.600 Z1.600
M400
M204 P200 T200
G1 F600
G1 Z0.000 F2500
; --- Backlash X fix: 0.500mm ---
G0 X110.500 Y62.600 F200
G1 X110.600 Y62.600
G1 X110.700 Y62.600
G1 X110.800 Y62.600
G1 X110.900 Y62.600
G1 X111.000 Y62.600
G1 X111.100 Y62.600
G1 X111.200 Y62.600
G1 X111.300 Y62.600
G1 X111.400 Y62.600
G1 X111.500 Y62.600
G1 X111.600 Y62.600
G1 X111.700 Y62.600
G1 X111.800 Y62.600
G1 X111.900 Y62.600
G1 X112.000 Y62.600
G1 X112.100 Y62.600
G1 X112.200 Y62.600
G1 X112.300 Y62.600
G1 X112.400 Y62.600
G1 X112.500 Y62.600
G1 X112.600 Y62.600
G1 X112.700 Y62.600
G1 X112.800 Y62.600
G1 X112.900 Y62.600
G1 X113.000 Y62.600
G1 X113.100 Y62.600
G1 X113.200 Y62.600
G1 X113.300 Y62.600
G1 X113.400 Y62.600
G1 X113.500 Y62.600
G1 X113.600 Y62.600
G1 X113.700 Y62.600
G1 X113.800 Y62.600
G1 X113.900 Y62.600
G1 X114.000 Y62.600
G1 X114.100 Y62.600
G1 X114.200 Y62.600
G1 X114.300 Y62.600
G1 X114.400 Y62.600
G1 X114.500 Y62.600
G1 X114.600 Y62.600
G1 X114.700 Y62.600
G1 X114.800 Y62.600
G1 X114.900 Y62.600
G1 X115.000 Y62.600
G1 X115.100 Y62.600
G1 X115.200 Y62.600
G1 X115.300 Y62.600
G1 X115.400 Y62.600
G1 X115.500 Y62.600
G1 X115.600 Y62.600
G1 X115.700 Y62.600
G1 X115.800 Y62.600
G1 X115.900 Y62.600
G1 X116.000 Y62.600
G1 X116.100 Y62.600
G1 X116.200 Y62.600
G0 Z1.600 F3000
M400
M204 P600 T600
G1 F1500
; --- Backlash X fix: -0.500mm ---
G0 X115.700 Y62.600 F200
G0 X115.200 Y63.500 Z1.600
M400
M204 P200 T200
G1 F600
G1 Z0.000 F2500
G1 X115.100 Y63.500
G1 X115.000 Y63.500
G1 X114.900 Y63.500
G1 X114.800 Y63.500
G1 X114.700 Y63.500
G1 X114.600 Y63.500
G1 X114.500 Y63.500
G1 X114.400 Y63.500
G1 X114.300 Y63.500
G1 X114.200 Y63.500
G1 X114.100 Y63.500
G1 X114.000 Y63.500
G1 X113.900 Y63.500
G1 X113.800 Y63.500
G1 X113.700 Y63.500
G1 X113.600 Y63.500
G1 X113.500 Y63.500
G1 X113.400 Y63.500
G1 X113.300 Y63.500
G1 X113.200 Y63.500
G1 X113.100 Y63.500
G1 X113.000 Y63.500
G1 X112.900 Y63.500
G1 X112.800 Y63.500
G1 X112.700 Y63.500
G1 X112.600 Y63.500
G1 X112.500 Y63.500
G1 X112.400 Y63.500
G1 X112.300 Y63.500
G1 X112.200 Y63.500
G1 X112.100 Y63.500
G1 X112.000 Y63.500
G1 X111.900 Y63.500
G1 X111.800 Y63.500
G1 X111.700 Y63.500
G1 X111.600 Y63.500
G1 X111.500 Y63.500
G1 X111.400 Y63.500
G1 X111.300 Y63.500
G1 X111.200 Y63.500
G1 X111.100 Y63.500
G1 X111.000 Y63.500
G1 X110.900 Y63.500
G1 X110.800 Y63.500
G1 X110.700 Y63.500
G1 X110.600 Y63.500
G1 X110.500 Y63.500
G1 X110.400 Y63.500
G1 X110.300 Y63.500
G1 X110.200 Y63.500
G1 X110.100 Y63.500
G1 X110.000 Y63.500
G1 X109.900 Y63.500
G1 X109.800 Y63.500
G1 X109.700 Y63.500
G1 X109.600 Y63.500
G1 X109.500 Y63.500
G0 Z1.600 F3000
M400
M204 P600 T600
G1 F1500
G0 X108.300 Y65.300 Z1.600
M400
M204 P200 T200
G1 F600
G1 Z0.000 F2500
; --- Backlash X fix: 0.500mm ---
G0 X108.800 Y65.300 F200
G1 X108.900 Y65.300
G1 X109.000 Y65.300
G1 X109.100 Y65.300
G1 X109.200 Y65.300
G1 X109.300 Y65.300
G1 X109.400 Y65.300
G1 X109.500 Y65.300
G1 X109.600 Y65.300
G1 X109.700 Y65.300
G1 X109.800 Y65.300
G1 X109.900 Y65.300
G1 X110.000 Y65.300
G1 X110.100 Y65.300
G1 X110.200 Y65.300
G1 X110.300 Y65.300
G1 X110.400 Y65.300
G1 X110.500 Y65.300
G1 X110.600 Y65.300
G1 X110.700 Y65.300
G1 X110.800 Y65.300
G1 X110.900 Y65.300
G1 X111.000 Y65.300
G1 X111.100 Y65.300
G1 X111.200 Y65.300
G1 X111.300 Y65.300
G1 X111.400 Y65.300
G1 X111.500 Y65.300
G1 X111.600 Y65.300
G1 X111.700 Y65.300
G1 X111.800 Y65.300
G1 X111.900 Y65.300
G1 X112.000 Y65.300
G1 X112.100 Y65.300
G1 X112.200 Y65.300
G1 X112.300 Y65.300
G1 X112.400 Y65.300
G1 X112.500 Y65.300
G1 X112.600 Y65.300
G1 X112.700 Y65.300
G1 X112.800 Y65.300
G1 X112.900 Y65.300
G1 X113.000 Y65.300
G1 X113.100 Y65.300
G1 X113.200 Y65.300
G1 X113.300 Y65.300
G1 X113.400 Y65.300
G1 X113.500 Y65.300
G1 X113.600 Y65.300
G1 X113.700 Y65.300
G1 X113.800 Y65.300
G1 X113.900 Y65.300
G1 X114.000 Y65.300
G1 X114.100 Y65.300
G1 X114.200 Y65.300
G1 X114.300 Y65.300
G1 X114.400 Y65.300
G1 X114.500 Y65.300
G1 X114.600 Y65.300
G1 X114.700 Y65.300
G0 Z1.600 F3000
M400
M204 P600 T600
G1 F1500
; --- Backlash X fix: -0.500mm ---
G0 X114.200 Y65.300 F200
G0 X113.500 Y66.200 Z1.600
M400
M204 P200 T200
G1 F600
G1 Z0.000 F2500
G1 X113.400 Y66.200
G1 X113.300 Y66.200
G1 X113.200 Y66.200
G1 X113.100 Y66.200
G1 X113.000 Y66.200
G1 X112.900 Y66.200
G1 X112.800 Y66.200
G1 X112.700 Y66.200
G1 X112.600 Y66.200
G1 X112.500 Y66.200
G1 X112.400 Y66.200
G1 X112.300 Y66.200
G1 X112.200 Y66.200
G1 X112.100 Y66.200
G1 X112.000 Y66.200
G1 X111.900 Y66.200
G1 X111.800 Y66.200
G1 X111.700 Y66.200
G1 X111.600 Y66.200
G1 X111.500 Y66.200
G1 X111.400 Y66.200
G1 X111.300 Y66.200
G1 X111.200 Y66.200
G1 X111.100 Y66.200
G1 X111.000 Y66.200
G1 X110.900 Y66.200
G1 X110.800 Y66.200
G1 X110.700 Y66.200
G1 X110.600 Y66.200
G1 X110.500 Y66.200
G1 X110.400 Y66.200
G1 X110.300 Y66.200
G0 Z1.600 F3000

; --- DIP → Color 4 — Purple ---
G0 Z1.600 F3000
M400
M204 P600 T600
G1 F1500
G0 X150.000 Y0.000 Z10.000
G1 Z1.000 F3000
G1 X150.000 Y0.000 F2500
G1 X150.000 Y2.500 F2500
G1 X145.000 Y0.000 F2500
G1 X150.000 Y0.000 F2500
G0 Z3.000 F3000
G0 X145.545 Y14.128
G0 Z10.000 F3000
G0 X110.700 Y66.200 Z1.600
M400
M204 P200 T200
G1 F600
G1 Z0.000 F2500
G1 X110.200 Y66.200
G1 X110.100 Y66.200
G1 X110.000 Y66.200
G1 X109.900 Y66.200
G1 X109.800 Y66.200
G1 X109.700 Y66.200
G1 X109.600 Y66.200
G1 X109.500 Y66.200
G1 X109.400 Y66.200
G1 X109.300 Y66.200
G1 X109.200 Y66.200
G1 X109.100 Y66.200
G1 X109.000 Y66.200
G1 X108.900 Y66.200
G1 X108.800 Y66.200
G1 X108.700 Y66.200
G1 X108.600 Y66.200
G1 X108.500 Y66.200
G1 X108.400 Y66.200
G1 X108.300 Y66.200
G1 X108.200 Y66.200
G1 X108.100 Y66.200
G1 X108.000 Y66.200
G1 X107.900 Y66.200
G1 X107.800 Y66.200
G1 X107.700 Y66.200
G0 Z1.600 F3000
M400
M204 P600 T600
G1 F1500
; --- Backlash X fix: 0.500mm ---
G0 X108.200 Y66.200 F200
G0 X116.200 Y72.500 Z1.600
M400
M204 P200 T200
G1 F600
G1 Z0.000 F2500
G1 X116.300 Y72.500
G1 X116.400 Y72.500
G0 Z1.600 F3000
M400
M204 P600 T600
G1 F1500
G0 X117.700 Y73.400 Z1.600
M400
M204 P200 T200
G1 F600
G1 Z0.000 F2500
; --- Backlash X fix: -0.500mm ---
G0 X117.200 Y73.400 F200
G1 X117.100 Y73.400
G1 X117.000 Y73.400
G1 X116.900 Y73.400
G1 X116.800 Y73.400
G1 X116.700 Y73.400
G1 X116.600 Y73.400
G1 X116.500 Y73.400
G1 X116.400 Y73.400
G1 X116.300 Y73.400
G1 X116.200 Y73.400
G1 X116.100 Y73.400
G1 X116.000 Y73.400
G1 X115.900 Y73.400
G1 X115.800 Y73.400
G1 X115.700 Y73.400
G1 X115.600 Y73.400
G1 X115.500 Y73.400
G1 X115.400 Y73.400
G1 X115.300 Y73.400
G1 X115.200 Y73.400
G1 X115.100 Y73.400
G1 X115.000 Y73.400
G1 X114.900 Y73.400
G1 X114.800 Y73.400
G1 X114.700 Y73.400
G1 X114.600 Y73.400
G1 X114.500 Y73.400
G1 X114.400 Y73.400
G1 X114.300 Y73.400
G1 X114.200 Y73.400
G1 X114.100 Y73.400
G0 Z1.600 F3000
M400
M204 P600 T600
G1 F1500
G0 X112.800 Y74.300 Z1.600
M400
M204 P200 T200
G1 F600
G1 Z0.000 F2500
; --- Backlash X fix: 0.500mm ---
G0 X113.300 Y74.300 F200
G1 X113.400 Y74.300
G1 X113.500 Y74.300
G1 X113.600 Y74.300
G1 X113.700 Y74.300
G1 X113.800 Y74.300
G1 X113.900 Y74.300
G1 X114.000 Y74.300
G1 X114.100 Y74.300
G1 X114.200 Y74.300
G1 X114.300 Y74.300
G1 X114.400 Y74.300
G1 X114.500 Y74.300
G1 X114.600 Y74.300
G1 X114.700 Y74.300
G1 X114.800 Y74.300
G1 X114.900 Y74.300
G1 X115.000 Y74.300
G1 X115.100 Y74.300
G1 X115.200 Y74.300
G1 X115.300 Y74.300
G1 X115.400 Y74.300
G1 X115.500 Y74.300
G1 X115.600 Y74.300
G1 X115.700 Y74.300
G1 X115.800 Y74.300
G1 X115.900 Y74.300
G1 X116.000 Y74.300
G1 X116.100 Y74.300
G1 X116.200 Y74.300
G1 X116.300 Y74.300
G1 X116.400 Y74.300
G1 X116.500 Y74.300
G1 X116.600 Y74.300
G1 X116.700 Y74.300
G1 X116.800 Y74.300
G1 X116.900 Y74.300
G1 X117.000 Y74.300
G1 X117.100 Y74.300
G1 X117.200 Y74.300
G1 X117.300 Y74.300
G1 X117.400 Y74.300
G1 X117.500 Y74.300
G1 X117.600 Y74.300
G1 X117.700 Y74.300
G1 X117.800 Y74.300
G1 X117.900 Y74.300
G1 X118.000 Y74.300
G1 X118.100 Y74.300
G1 X118.200 Y74.300
G1 X118.300 Y74.300
G1 X118.400 Y74.300
G1 X118.500 Y74.300
G1 X118.600 Y74.300
G0 Z1.600 F3000
M400
M204 P600 T600
G1 F1500
G0 X119.500 Y75.200 Z1.600
M400
M204 P200 T200
G1 F600
G1 Z0.000 F2500
; --- Backlash X fix: -0.500mm ---
G0 X119.000 Y75.200 F200
G1 X118.900 Y75.200
G1 X118.800 Y75.200
G1 X118.700 Y75.200
G1 X118.600 Y75.200
G1 X118.500 Y75.200
G1 X118.400 Y75.200
G1 X118.300 Y75.200
G1 X118.200 Y75.200
G1 X118.100 Y75.200
G1 X118.000 Y75.200
G1 X117.900 Y75.200
G1 X117.800 Y75.200
G1 X117.700 Y75.200
G1 X117.600 Y75.200
G1 X117.500 Y75.200
G1 X117.400 Y75.200
G1 X117.300 Y75.200
G1 X117.200 Y75.200
G1 X117.100 Y75.200
G1 X117.000 Y75.200
G1 X116.900 Y75.200
G1 X116.800 Y75.200
G1 X116.700 Y75.200
G1 X116.600 Y75.200
G1 X116.500 Y75.200
G1 X116.400 Y75.200
G1 X116.300 Y75.200
G1 X116.200 Y75.200
G1 X116.100 Y75.200
G1 X116.000 Y75.200
G1 X115.900 Y75.200
G1 X115.800 Y75.200
G1 X115.700 Y75.200
G1 X115.600 Y75.200
G1 X115.500 Y75.200
G1 X115.400 Y75.200
G1 X115.300 Y75.200
G1 X115.200 Y75.200
G1 X115.100 Y75.200
G1 X115.000 Y75.200
G1 X114.900 Y75.200
G1 X114.800 Y75.200
G1 X114.700 Y75.200
G1 X114.600 Y75.200
G1 X114.500 Y75.200
G1 X114.400 Y75.200
G1 X114.300 Y75.200
G1 X114.200 Y75.200
G1 X114.100 Y75.200
G1 X114.000 Y75.200
G1 X113.900 Y75.200
G1 X113.800 Y75.200
G1 X113.700 Y75.200
G1 X113.600 Y75.200
G1 X113.500 Y75.200
G1 X113.400 Y75.200
G1 X113.300 Y75.200
G1 X113.200 Y75.200
G1 X113.100 Y75.200
G1 X113.000 Y75.200
G1 X112.900 Y75.200
G1 X112.800 Y75.200
G1 X112.700 Y75.200
G1 X112.600 Y75.200
G1 X112.500 Y75.200
G1 X112.400 Y75.200
G1 X112.300 Y75.200
G1 X112.200 Y75.200
G1 X112.100 Y75.200
G1 X112.000 Y75.200
G1 X111.900 Y75.200
G1 X111.800 Y75.200
G1 X111.700 Y75.200
G1 X111.600 Y75.200
G1 X111.500 Y75.200
G0 Z1.600 F3000
M400
M204 P600 T600
G1 F1500
G0 X110.100 Y76.100 Z1.600
M400
M204 P200 T200
G1 F600
G1 Z0.000 F2500
; --- Backlash X fix: 0.500mm ---
G0 X110.600 Y76.100 F200
G1 X110.700 Y76.100
G1 X110.800 Y76.100
G1 X110.900 Y76.100
G1 X111.000 Y76.100
G1 X111.100 Y76.100
G1 X111.200 Y76.100
G1 X111.300 Y76.100
G1 X111.400 Y76.100
G1 X111.500 Y76.100
G1 X111.600 Y76.100
G1 X111.700 Y76.100
G1 X111.800 Y76.100
G1 X111.900 Y76.100
G1 X112.000 Y76.100
G1 X112.100 Y76.100
G1 X112.200 Y76.100
G1 X112.300 Y76.100
G1 X112.400 Y76.100
G1 X112.500 Y76.100
G1 X112.600 Y76.100
G1 X112.700 Y76.100
G1 X112.800 Y76.100
G1 X112.900 Y76.100
G1 X113.000 Y76.100
G1 X113.100 Y76.100
G1 X113.200 Y76.100
G1 X113.300 Y76.100
G1 X113.400 Y76.100
G1 X113.500 Y76.100
G1 X113.600 Y76.100
G1 X113.700 Y76.100
G1 X113.800 Y76.100
G1 X113.900 Y76.100
G1 X114.000 Y76.100
G1 X114.100 Y76.100
G1 X114.200 Y76.100
G1 X114.300 Y76.100
G1 X114.400 Y76.100
G1 X114.500 Y76.100
G1 X114.600 Y76.100
G1 X114.700 Y76.100
G1 X114.800 Y76.100
G1 X114.900 Y76.100
G1 X115.000 Y76.100
G1 X115.100 Y76.100
G1 X115.200 Y76.100
G1 X115.300 Y76.100
G1 X115.400 Y76.100
G1 X115.500 Y76.100
G1 X115.600 Y76.100
G1 X115.700 Y76.100
G1 X115.800 Y76.100
G1 X115.900 Y76.100
G1 X116.000 Y76.100
G1 X116.100 Y76.100
G1 X116.200 Y76.100
G1 X116.300 Y76.100
G1 X116.400 Y76.100
G1 X116.500 Y76.100
G1 X116.600 Y76.100
G1 X116.700 Y76.100
G1 X116.800 Y76.100
G1 X116.900 Y76.100
G1 X117.000 Y76.100
G1 X117.100 Y76.100
G1 X117.200 Y76.100
G1 X117.300 Y76.100
G1 X117.400 Y76.100
G1 X117.500 Y76.100
G1 X117.600 Y76.100
G1 X117.700 Y76.100
G1 X117.800 Y76.100
G1 X117.900 Y76.100
G1 X118.000 Y76.100
G1 X118.100 Y76.100
G1 X118.200 Y76.100
G1 X118.300 Y76.100
G1 X118.400 Y76.100
G1 X118.500 Y76.100
G1 X118.600 Y76.100
G1 X118.700 Y76.100
G1 X118.800 Y76.100
G1 X118.900 Y76.100
G1 X119.000 Y76.100
G1 X119.100 Y76.100
G1 X119.200 Y76.100
G1 X119.300 Y76.100
G1 X119.400 Y76.100
G1 X119.500 Y76.100
G1 X119.600 Y76.100
G1 X119.700 Y76.100
G1 X119.800 Y76.100
G1 X119.900 Y76.100
G1 X120.000 Y76.100
G1 X120.100 Y76.100
G1 X120.200 Y76.100
G1 X120.300 Y76.100
G1 X120.400 Y76.100
G0 Z1.600 F3000
M400
M204 P600 T600
G1 F1500
G0 X121.200 Y77.000 Z1.600
M400
M204 P200 T200
G1 F600
G1 Z0.000 F2500
; --- Backlash X fix: -0.500mm ---
G0 X120.700 Y77.000 F200
G1 X120.600 Y77.000
G1 X120.500 Y77.000
G1 X120.400 Y77.000
G1 X120.300 Y77.000
G1 X120.200 Y77.000
G1 X120.100 Y77.000
G1 X120.000 Y77.000
G1 X119.900 Y77.000
G1 X119.800 Y77.000
G1 X119.700 Y77.000
G1 X119.600 Y77.000
G1 X119.500 Y77.000
G1 X119.400 Y77.000
G1 X119.300 Y77.000
G1 X119.200 Y77.000
G1 X119.100 Y77.000
G1 X119.000 Y77.000
G1 X118.900 Y77.000
G1 X118.800 Y77.000
G1 X118.700 Y77.000
G1 X118.600 Y77.000
G1 X118.500 Y77.000
G1 X118.400 Y77.000
G1 X118.300 Y77.000
G1 X118.200 Y77.000
G1 X118.100 Y77.000
G1 X118.000 Y77.000
G1 X117.900 Y77.000
G1 X117.800 Y77.000
G1 X117.700 Y77.000
G1 X117.600 Y77.000
G1 X117.500 Y77.000
G1 X117.400 Y77.000
G1 X117.300 Y77.000
G1 X117.200 Y77.000
G1 X117.100 Y77.000
G1 X117.000 Y77.000
G1 X116.900 Y77.000
G1 X116.800 Y77.000
G1 X116.700 Y77.000
G1 X116.600 Y77.000
G1 X116.500 Y77.000
G1 X116.400 Y77.000
G1 X116.300 Y77.000
G1 X116.200 Y77.000
G1 X116.100 Y77.000
G1 X116.000 Y77.000
G1 X115.900 Y77.000
G1 X115.800 Y77.000
G1 X115.700 Y77.000
G1 X115.600 Y77.000
G1 X115.500 Y77.000
G1 X115.400 Y77.000
G1 X115.300 Y77.000
G1 X115.200 Y77.000
G1 X115.100 Y77.000
G1 X115.000 Y77.000
G1 X114.900 Y77.000
G1 X114.800 Y77.000
G1 X114.700 Y77.000
G1 X114.600 Y77.000
G1 X114.500 Y77.000
G1 X114.400 Y77.000
G1 X114.300 Y77.000
G1 X114.200 Y77.000
G1 X114.100 Y77.000
G1 X114.000 Y77.000
G1 X113.900 Y77.000
G1 X113.800 Y77.000
G1 X113.700 Y77.000
G1 X113.600 Y77.000
G1 X113.500 Y77.000
G1 X113.400 Y77.000
G1 X113.300 Y77.000
G1 X113.200 Y77.000
G1 X113.100 Y77.000
G1 X113.000 Y77.000
G1 X112.900 Y77.000
G1 X112.800 Y77.000
G1 X112.700 Y77.000
G1 X112.600 Y77.000
G1 X112.500 Y77.000
G1 X112.400 Y77.000
G1 X112.300 Y77.000
G1 X112.200 Y77.000
G1 X112.100 Y77.000
G1 X112.000 Y77.000
G1 X111.900 Y77.000
G1 X111.800 Y77.000
G1 X111.700 Y77.000
G1 X111.600 Y77.000
G1 X111.500 Y77.000
G1 X111.400 Y77.000
G1 X111.300 Y77.000
G1 X111.200 Y77.000
G1 X111.100 Y77.000
G1 X111.000 Y77.000
G1 X110.900 Y77.000
G1 X110.800 Y77.000
G1 X110.700 Y77.000
G1 X110.600 Y77.000
G1 X110.500 Y77.000
G1 X110.400 Y77.000
G1 X110.300 Y77.000
G1 X110.200 Y77.000
G1 X110.100 Y77.000
G1 X110.000 Y77.000
G1 X109.900 Y77.000
G1 X109.800 Y77.000
G1 X109.700 Y77.000
G1 X109.600 Y77.000
G1 X109.500 Y77.000
G1 X109.400 Y77.000
G1 X109.300 Y77.000
G1 X109.200 Y77.000
G1 X109.100 Y77.000
G1 X109.000 Y77.000
G1 X108.900 Y77.000
G1 X108.800 Y77.000
G1 X108.700 Y77.000
G0 Z1.600 F3000
M400
M204 P600 T600
G1 F1500
G0 X106.800 Y77.000 Z1.600
M400
M204 P200 T200
G1 F600
G1 Z0.000 F2500
G1 X106.700 Y77.000
G1 X106.600 Y77.000
G1 X106.500 Y77.000
G1 X106.400 Y77.000
G1 X106.300 Y77.000
G1 X106.200 Y77.000
G1 X106.100 Y77.000
G1 X106.000 Y77.000
G1 X105.900 Y77.000
G1 X105.800 Y77.000
G1 X105.700 Y77.000
G1 X105.600 Y77.000
G1 X105.500 Y77.000
G1 X105.400 Y77.000
G1 X105.300 Y77.000
G1 X105.200 Y77.000
G1 X105.100 Y77.000
G1 X105.000 Y77.000
G1 X104.900 Y77.000
G0 Z1.600 F3000
M400
M204 P600 T600
G1 F1500
G0 X104.400 Y77.900 Z1.600
M400
M204 P200 T200
G1 F600
G1 Z0.000 F2500
; --- Backlash X fix: 0.500mm ---
G0 X104.900 Y77.900 F200
G1 X105.000 Y77.900
G1 X105.100 Y77.900
G1 X105.200 Y77.900
G1 X105.300 Y77.900
G1 X105.400 Y77.900
G1 X105.500 Y77.900
G1 X105.600 Y77.900
G1 X105.700 Y77.900
G1 X105.800 Y77.900
G1 X105.900 Y77.900
G1 X106.000 Y77.900
G1 X106.100 Y77.900
G1 X106.200 Y77.900
G1 X106.300 Y77.900
G1 X106.400 Y77.900
G1 X106.500 Y77.900
G1 X106.600 Y77.900
G1 X106.700 Y77.900
G1 X106.800 Y77.900
G1 X106.900 Y77.900
G1 X107.000 Y77.900
G1 X107.100 Y77.900
G1 X107.200 Y77.900
G1 X107.300 Y77.900
G1 X107.400 Y77.900
G1 X107.500 Y77.900
G1 X107.600 Y77.900
G1 X107.700 Y77.900
G1 X107.800 Y77.900
G1 X107.900 Y77.900
G1 X108.000 Y77.900
G1 X108.100 Y77.900
G1 X108.200 Y77.900
G1 X108.300 Y77.900
G1 X108.400 Y77.900
G1 X108.500 Y77.900
G1 X108.600 Y77.900
G1 X108.700 Y77.900
G1 X108.800 Y77.900
G1 X108.900 Y77.900
G1 X109.000 Y77.900
G1 X109.100 Y77.900
G1 X109.200 Y77.900
G1 X109.300 Y77.900
G1 X109.400 Y77.900
G1 X109.500 Y77.900
G1 X109.600 Y77.900
G1 X109.700 Y77.900
G1 X109.800 Y77.900
G1 X109.900 Y77.900
G1 X110.000 Y77.900
G1 X110.100 Y77.900
G1 X110.200 Y77.900
G1 X110.300 Y77.900
G1 X110.400 Y77.900
G1 X110.500 Y77.900
G1 X110.600 Y77.900
G1 X110.700 Y77.900
G1 X110.800 Y77.900
G1 X110.900 Y77.900
G1 X111.000 Y77.900
G1 X111.100 Y77.900
G1 X111.200 Y77.900
G1 X111.300 Y77.900
G1 X111.400 Y77.900
G1 X111.500 Y77.900
G1 X111.600 Y77.900
G1 X111.700 Y77.900
G1 X111.800 Y77.900
G1 X111.900 Y77.900
G1 X112.000 Y77.900
G1 X112.100 Y77.900
G1 X112.200 Y77.900
G1 X112.300 Y77.900
G1 X112.400 Y77.900
G1 X112.500 Y77.900
G1 X112.600 Y77.900
G1 X112.700 Y77.900
G1 X112.800 Y77.900
G1 X112.900 Y77.900
G1 X113.000 Y77.900
G1 X113.100 Y77.900
G1 X113.200 Y77.900
G1 X113.300 Y77.900
G1 X113.400 Y77.900
G1 X113.500 Y77.900
G1 X113.600 Y77.900
G1 X113.700 Y77.900
G1 X113.800 Y77.900
G1 X113.900 Y77.900
G1 X114.000 Y77.900
G1 X114.100 Y77.900
G1 X114.200 Y77.900
G1 X114.300 Y77.900
G1 X114.400 Y77.900
G1 X114.500 Y77.900
G1 X114.600 Y77.900
G1 X114.700 Y77.900
G1 X114.800 Y77.900
G1 X114.900 Y77.900
G1 X115.000 Y77.900
G1 X115.100 Y77.900
G1 X115.200 Y77.900
G1 X115.300 Y77.900
G1 X115.400 Y77.900
G1 X115.500 Y77.900
G1 X115.600 Y77.900
G1 X115.700 Y77.900
G1 X115.800 Y77.900
G1 X115.900 Y77.900
G1 X116.000 Y77.900
G1 X116.100 Y77.900
G1 X116.200 Y77.900
G1 X116.300 Y77.900
G1 X116.400 Y77.900
G1 X116.500 Y77.900
G1 X116.600 Y77.900
G1 X116.700 Y77.900
G1 X116.800 Y77.900
G1 X116.900 Y77.900
G1 X117.000 Y77.900
G1 X117.100 Y77.900
G1 X117.200 Y77.900
G1 X117.300 Y77.900
G1 X117.400 Y77.900
G1 X117.500 Y77.900
G1 X117.600 Y77.900
G1 X117.700 Y77.900
G1 X117.800 Y77.900
G1 X117.900 Y77.900
G1 X118.000 Y77.900
G1 X118.100 Y77.900
G1 X118.200 Y77.900
G1 X118.300 Y77.900
G1 X118.400 Y77.900
G1 X118.500 Y77.900
G1 X118.600 Y77.900
G1 X118.700 Y77.900
G1 X118.800 Y77.900
G1 X118.900 Y77.900
G1 X119.000 Y77.900
G1 X119.100 Y77.900
G1 X119.200 Y77.900
G1 X119.300 Y77.900
G1 X119.400 Y77.900
G1 X119.500 Y77.900
G1 X119.600 Y77.900
G1 X119.700 Y77.900
G1 X119.800 Y77.900
G1 X119.900 Y77.900
G1 X120.000 Y77.900
G1 X120.100 Y77.900
G1 X120.200 Y77.900
G1 X120.300 Y77.900
G1 X120.400 Y77.900
G1 X120.500 Y77.900
G1 X120.600 Y77.900
G1 X120.700 Y77.900
G1 X120.800 Y77.900
G1 X120.900 Y77.900
G1 X121.000 Y77.900
G1 X121.100 Y77.900
G1 X121.200 Y77.900
G1 X121.300 Y77.900
G1 X121.400 Y77.900
G1 X121.500 Y77.900
G1 X121.600 Y77.900
G1 X121.700 Y77.900
G1 X121.800 Y77.900
G1 X121.900 Y77.900
G1 X122.000 Y77.900
G1 X122.100 Y77.900
G0 Z1.600 F3000
M400
M204 P600 T600
G1 F1500
G0 X122.900 Y78.800 Z1.600
M400
M204 P200 T200
G1 F600
G1 Z0.000 F2500
; --- Backlash X fix: -0.500mm ---
G0 X122.400 Y78.800 F200
G1 X122.300 Y78.800
G1 X122.200 Y78.800
G1 X122.100 Y78.800
G1 X122.000 Y78.800
G1 X121.900 Y78.800
G1 X121.800 Y78.800
G1 X121.700 Y78.800
G1 X121.600 Y78.800
G1 X121.500 Y78.800
G1 X121.400 Y78.800
G1 X121.300 Y78.800
G1 X121.200 Y78.800
G1 X121.100 Y78.800
G1 X121.000 Y78.800
G1 X120.900 Y78.800
G1 X120.800 Y78.800
G1 X120.700 Y78.800
G1 X120.600 Y78.800
G1 X120.500 Y78.800
G1 X120.400 Y78.800
G1 X120.300 Y78.800
G1 X120.200 Y78.800
G1 X120.100 Y78.800
G1 X120.000 Y78.800
G1 X119.900 Y78.800
G1 X119.800 Y78.800
G1 X119.700 Y78.800
G1 X119.600 Y78.800
G1 X119.500 Y78.800
G1 X119.400 Y78.800
G1 X119.300 Y78.800
G1 X119.200 Y78.800
G1 X119.100 Y78.800
G1 X119.000 Y78.800
G1 X118.900 Y78.800
G1 X118.800 Y78.800
G1 X118.700 Y78.800
G1 X118.600 Y78.800
G1 X118.500 Y78.800
G1 X118.400 Y78.800
G1 X118.300 Y78.800
G1 X118.200 Y78.800
G1 X118.100 Y78.800
G1 X118.000 Y78.800
G1 X117.900 Y78.800
G1 X117.800 Y78.800
G1 X117.700 Y78.800
G1 X117.600 Y78.800
G1 X117.500 Y78.800
G1 X117.400 Y78.800
G1 X117.300 Y78.800
G1 X117.200 Y78.800
G1 X117.100 Y78.800
G1 X117.000 Y78.800
G1 X116.900 Y78.800
G1 X116.800 Y78.800
G1 X116.700 Y78.800
G1 X116.600 Y78.800
G1 X116.500 Y78.800
G1 X116.400 Y78.800
G1 X116.300 Y78.800
G1 X116.200 Y78.800
G1 X116.100 Y78.800
G1 X116.000 Y78.800
G1 X115.900 Y78.800
G1 X115.800 Y78.800
G1 X115.700 Y78.800
G1 X115.600 Y78.800
G1 X115.500 Y78.800
G1 X115.400 Y78.800
G1 X115.300 Y78.800
G1 X115.200 Y78.800
G1 X115.100 Y78.800
G1 X115.000 Y78.800
G1 X114.900 Y78.800
G1 X114.800 Y78.800
G1 X114.700 Y78.800
G1 X114.600 Y78.800
G1 X114.500 Y78.800
G1 X114.400 Y78.800
G1 X114.300 Y78.800
G1 X114.200 Y78.800
G1 X114.100 Y78.800
G1 X114.000 Y78.800
G0 Z1.600 F3000

; --- DIP → Color 2 — Teal ---
G0 Z1.600 F3000
M400
M204 P600 T600
G1 F1500
G0 X60.158 Y0.451 Z10.000
G1 Z1.000 F3000
G1 X60.158 Y0.451 F2500
G1 X60.158 Y2.951 F2500
G1 X55.158 Y0.451 F2500
G1 X60.158 Y0.000 F2500
G0 Z3.000 F3000
G0 X72.288 Y14.239
G0 Z10.000 F3000
G0 X114.400 Y78.800 Z1.600
M400
M204 P200 T200
G1 F600
G1 Z0.000 F2500
G1 X113.900 Y78.800
G1 X113.800 Y78.800
G1 X113.700 Y78.800
G1 X113.600 Y78.800
G1 X113.500 Y78.800
G1 X113.400 Y78.800
G1 X113.300 Y78.800
G1 X113.200 Y78.800
G1 X113.100 Y78.800
G1 X113.000 Y78.800
G1 X112.900 Y78.800
G1 X112.800 Y78.800
G1 X112.700 Y78.800
G1 X112.600 Y78.800
G1 X112.500 Y78.800
G1 X112.400 Y78.800
G1 X112.300 Y78.800
G1 X112.200 Y78.800
G1 X112.100 Y78.800
G1 X112.000 Y78.800
G1 X111.900 Y78.800
G1 X111.800 Y78.800
G1 X111.700 Y78.800
G1 X111.600 Y78.800
G1 X111.500 Y78.800
G1 X111.400 Y78.800
G1 X111.300 Y78.800
G1 X111.200 Y78.800
G1 X111.100 Y78.800
G1 X111.000 Y78.800
G1 X110.900 Y78.800
G1 X110.800 Y78.800
G1 X110.700 Y78.800
G1 X110.600 Y78.800
G1 X110.500 Y78.800
G1 X110.400 Y78.800
G1 X110.300 Y78.800
G1 X110.200 Y78.800
G1 X110.100 Y78.800
G1 X110.000 Y78.800
G1 X109.900 Y78.800
G1 X109.800 Y78.800
G1 X109.700 Y78.800
G1 X109.600 Y78.800
G1 X109.500 Y78.800
G1 X109.400 Y78.800
G1 X109.300 Y78.800
G1 X109.200 Y78.800
G1 X109.100 Y78.800
G1 X109.000 Y78.800
G1 X108.900 Y78.800
G1 X108.800 Y78.800
G1 X108.700 Y78.800
G1 X108.600 Y78.800
G1 X108.500 Y78.800
G1 X108.400 Y78.800
G1 X108.300 Y78.800
G1 X108.200 Y78.800
G1 X108.100 Y78.800
G1 X108.000 Y78.800
G1 X107.900 Y78.800
G1 X107.800 Y78.800
G1 X107.700 Y78.800
G1 X107.600 Y78.800
G1 X107.500 Y78.800
G1 X107.400 Y78.800
G1 X107.300 Y78.800
G1 X107.200 Y78.800
G1 X107.100 Y78.800
G1 X107.000 Y78.800
G1 X106.900 Y78.800
G1 X106.800 Y78.800
G1 X106.700 Y78.800
G1 X106.600 Y78.800
G1 X106.500 Y78.800
G1 X106.400 Y78.800
G1 X106.300 Y78.800
G1 X106.200 Y78.800
G1 X106.100 Y78.800
G1 X106.000 Y78.800
G1 X105.900 Y78.800
G1 X105.800 Y78.800
G1 X105.700 Y78.800
G1 X105.600 Y78.800
G1 X105.500 Y78.800
G1 X105.400 Y78.800
G1 X105.300 Y78.800
G1 X105.200 Y78.800
G1 X105.100 Y78.800
G1 X105.000 Y78.800
G1 X104.900 Y78.800
G1 X104.800 Y78.800
G1 X104.700 Y78.800
G1 X104.600 Y78.800
G1 X104.500 Y78.800
G1 X104.400 Y78.800
G1 X104.300 Y78.800
G1 X104.200 Y78.800
G1 X104.100 Y78.800
G1 X104.000 Y78.800
G0 Z1.600 F3000
M400
M204 P600 T600
G1 F1500
; --- Backlash X fix: 0.500mm ---
G0 X104.500 Y78.800 F200
G0 X125.900 Y95.900 Z1.600
M400
M204 P200 T200
G1 F600
G1 Z0.000 F2500
G1 X126.000 Y95.900
G1 X126.100 Y95.900
G1 X126.200 Y95.900
G1 X126.300 Y95.900
G1 X126.400 Y95.900
G1 X126.500 Y95.900
G1 X126.600 Y95.900
G1 X126.700 Y95.900
G1 X126.800 Y95.900
G1 X126.900 Y95.900
G1 X127.000 Y95.900
G1 X127.100 Y95.900
G1 X127.200 Y95.900
G1 X127.300 Y95.900
G1 X127.400 Y95.900
G1 X127.500 Y95.900
G1 X127.600 Y95.900
G1 X127.700 Y95.900
G1 X127.800 Y95.900
G1 X127.900 Y95.900
G1 X128.000 Y95.900
G1 X128.100 Y95.900
G1 X128.200 Y95.900
G1 X128.300 Y95.900
G1 X128.400 Y95.900
G1 X128.500 Y95.900
G1 X128.600 Y95.900
G1 X128.700 Y95.900
G1 X128.800 Y95.900
G1 X128.900 Y95.900
G1 X129.000 Y95.900
G1 X129.100 Y95.900
G1 X129.200 Y95.900
G1 X129.300 Y95.900
G1 X129.400 Y95.900
G1 X129.500 Y95.900
G1 X129.600 Y95.900
G1 X129.700 Y95.900
G1 X129.800 Y95.900
G1 X129.900 Y95.900
G1 X130.000 Y95.900
G1 X130.100 Y95.900
G1 X130.200 Y95.900
G1 X130.300 Y95.900
G1 X130.400 Y95.900
G1 X130.500 Y95.900
G1 X130.600 Y95.900
G1 X130.700 Y95.900
G1 X130.800 Y95.900
G1 X130.900 Y95.900
G1 X131.000 Y95.900
G1 X131.100 Y95.900
G1 X131.200 Y95.900
G1 X131.300 Y95.900
G1 X131.400 Y95.900
G1 X131.500 Y95.900
G1 X131.600 Y95.900
G1 X131.700 Y95.900
G1 X131.800 Y95.900
G1 X131.900 Y95.900
G1 X132.000 Y95.900
G1 X132.100 Y95.900
G1 X132.200 Y95.900
G1 X132.300 Y95.900
G1 X132.400 Y95.900
G1 X132.500 Y95.900
G1 X132.600 Y95.900
G1 X132.700 Y95.900
G1 X132.800 Y95.900
G1 X132.900 Y95.900
G1 X133.000 Y95.900
G1 X133.100 Y95.900
G1 X133.200 Y95.900
G1 X133.300 Y95.900
G1 X133.400 Y95.900
G0 Z1.600 F3000
M400
M204 P600 T600
G1 F1500
G0 X135.700 Y103.100 Z1.600
M400
M204 P200 T200
G1 F600
G1 Z0.000 F2500
; --- Backlash X fix: -0.500mm ---
G0 X135.200 Y103.100 F200
G1 X135.100 Y103.100
G1 X135.000 Y103.100
G1 X134.900 Y103.100
G1 X134.800 Y103.100
G1 X134.700 Y103.100
G1 X134.600 Y103.100
G1 X134.500 Y103.100
G1 X134.400 Y103.100
G1 X134.300 Y103.100
G1 X134.200 Y103.100
G1 X134.100 Y103.100
G1 X134.000 Y103.100
G1 X133.900 Y103.100
G1 X133.800 Y103.100
G1 X133.700 Y103.100
G1 X133.600 Y103.100
G1 X133.500 Y103.100
G1 X133.400 Y103.100
G1 X133.300 Y103.100
G1 X133.200 Y103.100
G1 X133.100 Y103.100
G1 X133.000 Y103.100
G1 X132.900 Y103.100
G1 X132.800 Y103.100
G1 X132.700 Y103.100
G1 X132.600 Y103.100
G1 X132.500 Y103.100
G1 X132.400 Y103.100
G1 X132.300 Y103.100
G1 X132.200 Y103.100
G1 X132.100 Y103.100
G1 X132.000 Y103.100
G1 X131.900 Y103.100
G1 X131.800 Y103.100
G1 X131.700 Y103.100
G1 X131.600 Y103.100
G1 X131.500 Y103.100
G1 X131.400 Y103.100
G1 X131.300 Y103.100
G1 X131.200 Y103.100
G1 X131.100 Y103.100
G1 X131.000 Y103.100
G1 X130.900 Y103.100
G1 X130.800 Y103.100
G1 X130.700 Y103.100
G1 X130.600 Y103.100
G1 X130.500 Y103.100
G1 X130.400 Y103.100
G1 X130.300 Y103.100
G1 X130.200 Y103.100
G1 X130.100 Y103.100
G1 X130.000 Y103.100
G1 X129.900 Y103.100
G1 X129.800 Y103.100
G1 X129.700 Y103.100
G1 X129.600 Y103.100
G1 X129.500 Y103.100
G1 X129.400 Y103.100
G1 X129.300 Y103.100
G1 X129.200 Y103.100
G1 X129.100 Y103.100
G1 X129.000 Y103.100
G1 X128.900 Y103.100
G1 X128.800 Y103.100
G1 X128.700 Y103.100
G1 X128.600 Y103.100
G1 X128.500 Y103.100
G1 X128.400 Y103.100
G1 X128.300 Y103.100
G1 X128.200 Y103.100
G1 X128.100 Y103.100
G1 X128.000 Y103.100
G1 X127.900 Y103.100
G1 X127.800 Y103.100
G1 X127.700 Y103.100
G1 X127.600 Y103.100
G1 X127.500 Y103.100
G1 X127.400 Y103.100
G1 X127.300 Y103.100
G1 X127.200 Y103.100
G1 X127.100 Y103.100
G1 X127.000 Y103.100
G1 X126.900 Y103.100
G1 X126.800 Y103.100
G1 X126.700 Y103.100
G1 X126.600 Y103.100
G1 X126.500 Y103.100
G1 X126.400 Y103.100
G1 X126.300 Y103.100
G1 X126.200 Y103.100
G1 X126.100 Y103.100
G1 X126.000 Y103.100
G1 X125.900 Y103.100
G1 X125.800 Y103.100
G1 X125.700 Y103.100
G1 X125.600 Y103.100
G1 X125.500 Y103.100
G1 X125.400 Y103.100
G1 X125.300 Y103.100
G1 X125.200 Y103.100
G1 X125.100 Y103.100
G1 X125.000 Y103.100
G1 X124.900 Y103.100
G1 X124.800 Y103.100
G1 X124.700 Y103.100
G1 X124.600 Y103.100
G1 X124.500 Y103.100
G1 X124.400 Y103.100
G1 X124.300 Y103.100
G1 X124.200 Y103.100
G1 X124.100 Y103.100
G1 X124.000 Y103.100
G1 X123.900 Y103.100
G1 X123.800 Y103.100
G1 X123.700 Y103.100
G1 X123.600 Y103.100
G1 X123.500 Y103.100
G1 X123.400 Y103.100
G1 X123.300 Y103.100
G1 X123.200 Y103.100
G1 X123.100 Y103.100
G1 X123.000 Y103.100
G1 X122.900 Y103.100
G1 X122.800 Y103.100
G1 X122.700 Y103.100
G1 X122.600 Y103.100
G1 X122.500 Y103.100
G1 X122.400 Y103.100
G1 X122.300 Y103.100
G1 X122.200 Y103.100
G1 X122.100 Y103.100
G1 X122.000 Y103.100
G1 X121.900 Y103.100
G1 X121.800 Y103.100
G1 X121.700 Y103.100
G1 X121.600 Y103.100
G1 X121.500 Y103.100
G1 X121.400 Y103.100
G1 X121.300 Y103.100
G1 X121.200 Y103.100
G1 X121.100 Y103.100
G1 X121.000 Y103.100
G1 X120.900 Y103.100
G1 X120.800 Y103.100
G1 X120.700 Y103.100
G1 X120.600 Y103.100
G1 X120.500 Y103.100
G1 X120.400 Y103.100
G1 X120.300 Y103.100
G1 X120.200 Y103.100
G1 X120.100 Y103.100
G1 X120.000 Y103.100
G1 X119.900 Y103.100
G1 X119.800 Y103.100
G1 X119.700 Y103.100
G1 X119.600 Y103.100
G1 X119.500 Y103.100
G1 X119.400 Y103.100
G1 X119.300 Y103.100
G1 X119.200 Y103.100
G1 X119.100 Y103.100
G1 X119.000 Y103.100
G1 X118.900 Y103.100
G1 X118.800 Y103.100
G1 X118.700 Y103.100
G1 X118.600 Y103.100
G1 X118.500 Y103.100
G1 X118.400 Y103.100
G1 X118.300 Y103.100
G1 X118.200 Y103.100
G1 X118.100 Y103.100
G1 X118.000 Y103.100
G1 X117.900 Y103.100
G1 X117.800 Y103.100
G1 X117.700 Y103.100
G1 X117.600 Y103.100
G1 X117.500 Y103.100
G1 X117.400 Y103.100
G1 X117.300 Y103.100
G1 X117.200 Y103.100
G1 X117.100 Y103.100
G1 X117.000 Y103.100
G1 X116.900 Y103.100
G1 X116.800 Y103.100
G1 X116.700 Y103.100
G1 X116.600 Y103.100
G1 X116.500 Y103.100
G1 X116.400 Y103.100
G1 X116.300 Y103.100
G1 X116.200 Y103.100
G1 X116.100 Y103.100
G1 X116.000 Y103.100
G0 Z1.600 F3000
M400
M204 P600 T600
G1 F1500
; --- Backlash X fix: 0.500mm ---
G0 X116.500 Y103.100 F200
G0 X118.200 Y108.500 Z1.600
M400
M204 P200 T200
G1 F600
G1 Z0.000 F2500
G1 X118.300 Y108.500
G1 X118.400 Y108.500
G1 X118.500 Y108.500
G1 X118.600 Y108.500
G1 X118.700 Y108.500
G1 X118.800 Y108.500
G1 X118.900 Y108.500
G1 X119.000 Y108.500
G1 X119.100 Y108.500
G1 X119.200 Y108.500
G1 X119.300 Y108.500
G1 X119.400 Y108.500
G1 X119.500 Y108.500
G1 X119.600 Y108.500
G1 X119.700 Y108.500
G1 X119.800 Y108.500
G1 X119.900 Y108.500
G1 X120.000 Y108.500
G1 X120.100 Y108.500
G1 X120.200 Y108.500
G1 X120.300 Y108.500
G1 X120.400 Y108.500
G1 X120.500 Y108.500
G1 X120.600 Y108.500
G1 X120.700 Y108.500
G1 X120.800 Y108.500
G1 X120.900 Y108.500
G1 X121.000 Y108.500
G1 X121.100 Y108.500
G1 X121.200 Y108.500
G1 X121.300 Y108.500
G1 X121.400 Y108.500
G1 X121.500 Y108.500
G1 X121.600 Y108.500
G1 X121.700 Y108.500
G1 X121.800 Y108.500
G1 X121.900 Y108.500
G1 X122.000 Y108.500
G1 X122.100 Y108.500
G1 X122.200 Y108.500
G1 X122.300 Y108.500
G1 X122.400 Y108.500
G1 X122.500 Y108.500
G1 X122.600 Y108.500
G1 X122.700 Y108.500
G1 X122.800 Y108.500
G1 X122.900 Y108.500
G1 X123.000 Y108.500
G1 X123.100 Y108.500
G1 X123.200 Y108.500
G1 X123.300 Y108.500
G1 X123.400 Y108.500
G1 X123.500 Y108.500
G1 X123.600 Y108.500
G1 X123.700 Y108.500
G1 X123.800 Y108.500
G1 X123.900 Y108.500
G1 X124.000 Y108.500
G1 X124.100 Y108.500
G1 X124.200 Y108.500
G1 X124.300 Y108.500
G1 X124.400 Y108.500
G1 X124.500 Y108.500
G1 X124.600 Y108.500
G1 X124.700 Y108.500
G1 X124.800 Y108.500
G1 X124.900 Y108.500
G1 X125.000 Y108.500
G1 X125.100 Y108.500
G1 X125.200 Y108.500
G1 X125.300 Y108.500
G1 X125.400 Y108.500
G1 X125.500 Y108.500
G1 X125.600 Y108.500
G1 X125.700 Y108.500
G1 X125.800 Y108.500
G1 X125.900 Y108.500
G1 X126.000 Y108.500
G1 X126.100 Y108.500
G1 X126.200 Y108.500
G1 X126.300 Y108.500
G1 X126.400 Y108.500
G1 X126.500 Y108.500
G1 X126.600 Y108.500
G1 X126.700 Y108.500
G1 X126.800 Y108.500
G1 X126.900 Y108.500
G1 X127.000 Y108.500
G1 X127.100 Y108.500
G1 X127.200 Y108.500
G1 X127.300 Y108.500
G1 X127.400 Y108.500
G1 X127.500 Y108.500
G1 X127.600 Y108.500
G1 X127.700 Y108.500
G1 X127.800 Y108.500
G1 X127.900 Y108.500
G1 X128.000 Y108.500
G1 X128.100 Y108.500
G1 X128.200 Y108.500
G1 X128.300 Y108.500
G1 X128.400 Y108.500
G1 X128.500 Y108.500
G1 X128.600 Y108.500
G1 X128.700 Y108.500
G0 Z1.600 F3000

; --- DIP → Color 1 — Red ---
G0 Z1.600 F3000
M400
M204 P600 T600
G1 F1500
G0 X13.786 Y2.446 Z10.000
G1 Z1.000 F3000
G1 X13.786 Y2.446 F2500
G1 X13.786 Y4.946 F2500
G1 X8.786 Y2.446 F2500
G1 X13.786 Y0.000 F2500
G0 Z3.000 F3000
G0 X29.200 Y11.839
G0 Z10.000 F3000
G0 X128.800 Y108.500 Z1.600
M400
M204 P200 T200
G1 F600
G1 Z0.000 F2500
G1 X128.800 Y108.500
G1 X128.900 Y108.500
G1 X129.000 Y108.500
G1 X129.100 Y108.500
G1 X129.200 Y108.500
G1 X129.300 Y108.500
G1 X129.400 Y108.500
G1 X129.500 Y108.500
G1 X129.600 Y108.500
G1 X129.700 Y108.500
G1 X129.800 Y108.500
G1 X129.900 Y108.500
G1 X130.000 Y108.500
G1 X130.100 Y108.500
G1 X130.200 Y108.500
G1 X130.300 Y108.500
G1 X130.400 Y108.500
G1 X130.500 Y108.500
G1 X130.600 Y108.500
G1 X130.700 Y108.500
G1 X130.800 Y108.500
G1 X130.900 Y108.500
G1 X131.000 Y108.500
G1 X131.100 Y108.500
G1 X131.200 Y108.500
G1 X131.300 Y108.500
G1 X131.400 Y108.500
G1 X131.500 Y108.500
G1 X131.600 Y108.500
G1 X131.700 Y108.500
G1 X131.800 Y108.500
G1 X131.900 Y108.500
G1 X132.000 Y108.500
G1 X132.100 Y108.500
G1 X132.200 Y108.500
G1 X132.300 Y108.500
G1 X132.400 Y108.500
G1 X132.500 Y108.500
G1 X132.600 Y108.500
G1 X132.700 Y108.500
G1 X132.800 Y108.500
G1 X132.900 Y108.500
G1 X133.000 Y108.500
G1 X133.100 Y108.500
G1 X133.200 Y108.500
G1 X133.300 Y108.500
G1 X133.400 Y108.500
G1 X133.500 Y108.500
G1 X133.600 Y108.500
G1 X133.700 Y108.500
G1 X133.800 Y108.500
G1 X133.900 Y108.500
G1 X134.000 Y108.500
G1 X134.100 Y108.500
G1 X134.200 Y108.500
G1 X134.300 Y108.500
G1 X134.400 Y108.500
G1 X134.500 Y108.500
G1 X134.600 Y108.500
G0 Z1.600 F3000
M400
M204 P600 T600
G1 F1500
; --- Backlash X fix: -0.500mm ---
G0 X134.100 Y108.500 F200
G0 X129.300 Y111.200 Z1.600
M400
M204 P200 T200
G1 F600
G1 Z0.000 F2500
G1 X129.200 Y111.200
G1 X129.100 Y111.200
G1 X129.000 Y111.200
G1 X128.900 Y111.200
G1 X128.800 Y111.200
G1 X128.700 Y111.200
G1 X128.600 Y111.200
G1 X128.500 Y111.200
G1 X128.400 Y111.200
G1 X128.300 Y111.200
G1 X128.200 Y111.200
G1 X128.100 Y111.200
G1 X128.000 Y111.200
G1 X127.900 Y111.200
G1 X127.800 Y111.200
G1 X127.700 Y111.200
G1 X127.600 Y111.200
G1 X127.500 Y111.200
G1 X127.400 Y111.200
G1 X127.300 Y111.200
G1 X127.200 Y111.200
G1 X127.100 Y111.200
G1 X127.000 Y111.200
G1 X126.900 Y111.200
G1 X126.800 Y111.200
G1 X126.700 Y111.200
G1 X126.600 Y111.200
G1 X126.500 Y111.200
G1 X126.400 Y111.200
G1 X126.300 Y111.200
G1 X126.200 Y111.200
G1 X126.100 Y111.200
G1 X126.000 Y111.200
G1 X125.900 Y111.200
G1 X125.800 Y111.200
G1 X125.700 Y111.200
G1 X125.600 Y111.200
G1 X125.500 Y111.200
G1 X125.400 Y111.200
G1 X125.300 Y111.200
G1 X125.200 Y111.200
G1 X125.100 Y111.200
G1 X125.000 Y111.200
G1 X124.900 Y111.200
G1 X124.800 Y111.200
G1 X124.700 Y111.200
G1 X124.600 Y111.200
G1 X124.500 Y111.200
G1 X124.400 Y111.200
G1 X124.300 Y111.200
G1 X124.200 Y111.200
G1 X124.100 Y111.200
G1 X124.000 Y111.200
G1 X123.900 Y111.200
G1 X123.800 Y111.200
G1 X123.700 Y111.200
G1 X123.600 Y111.200
G1 X123.500 Y111.200
G1 X123.400 Y111.200
G1 X123.300 Y111.200
G1 X123.200 Y111.200
G1 X123.100 Y111.200
G1 X123.000 Y111.200
G1 X122.900 Y111.200
G1 X122.800 Y111.200
G1 X122.700 Y111.200
G1 X122.600 Y111.200
G1 X122.500 Y111.200
G1 X122.400 Y111.200
G1 X122.300 Y111.200
G1 X122.200 Y111.200
G1 X122.100 Y111.200
G1 X122.000 Y111.200
G1 X121.900 Y111.200
G1 X121.800 Y111.200
G1 X121.700 Y111.200
G1 X121.600 Y111.200
G1 X121.500 Y111.200
G1 X121.400 Y111.200
G1 X121.300 Y111.200
G1 X121.200 Y111.200
G1 X121.100 Y111.200
G1 X121.000 Y111.200
G1 X120.900 Y111.200
G1 X120.800 Y111.200
G1 X120.700 Y111.200
G1 X120.600 Y111.200
G1 X120.500 Y111.200
G1 X120.400 Y111.200
G1 X120.300 Y111.200
G1 X120.200 Y111.200
G1 X120.100 Y111.200
G1 X120.000 Y111.200
G1 X119.900 Y111.200
G1 X119.800 Y111.200
G1 X119.700 Y111.200
G1 X119.600 Y111.200
G1 X119.500 Y111.200
G1 X119.400 Y111.200
G1 X119.300 Y111.200
G1 X119.200 Y111.200
G1 X119.100 Y111.200
G1 X119.000 Y111.200
G1 X118.900 Y111.200
G1 X118.800 Y111.200
G1 X118.700 Y111.200
G1 X118.600 Y111.200
G1 X118.500 Y111.200
G1 X118.400 Y111.200
G1 X118.300 Y111.200
G0 Z1.600 F3000
M400
M204 P600 T600
G1 F1500
; --- Backlash X fix: 0.500mm ---
G0 X118.800 Y111.200 F200
G0 X119.100 Y113.000 Z1.600
M400
M204 P200 T200
G1 F600
G1 Z0.000 F2500
G1 X119.200 Y113.000
G1 X119.300 Y113.000
G1 X119.400 Y113.000
G1 X119.500 Y113.000
G1 X119.600 Y113.000
G1 X119.700 Y113.000
G1 X119.800 Y113.000
G1 X119.900 Y113.000
G1 X120.000 Y113.000
G1 X120.100 Y113.000
G1 X120.200 Y113.000
G1 X120.300 Y113.000
G1 X120.400 Y113.000
G1 X120.500 Y113.000
G1 X120.600 Y113.000
G1 X120.700 Y113.000
G1 X120.800 Y113.000
G1 X120.900 Y113.000
G1 X121.000 Y113.000
G1 X121.100 Y113.000
G1 X121.200 Y113.000
G1 X121.300 Y113.000
G1 X121.400 Y113.000
G1 X121.500 Y113.000
G1 X121.600 Y113.000
G1 X121.700 Y113.000
G1 X121.800 Y113.000
G1 X121.900 Y113.000
G1 X122.000 Y113.000
G1 X122.100 Y113.000
G1 X122.200 Y113.000
G1 X122.300 Y113.000
G1 X122.400 Y113.000
G1 X122.500 Y113.000
G1 X122.600 Y113.000
G1 X122.700 Y113.000
G1 X122.800 Y113.000
G1 X122.900 Y113.000
G1 X123.000 Y113.000
G1 X123.100 Y113.000
G1 X123.200 Y113.000
G1 X123.300 Y113.000
G1 X123.400 Y113.000
G1 X123.500 Y113.000
G1 X123.600 Y113.000
G1 X123.700 Y113.000
G1 X123.800 Y113.000
G1 X123.900 Y113.000
G1 X124.000 Y113.000
G1 X124.100 Y113.000
G1 X124.200 Y113.000
G1 X124.300 Y113.000
G1 X124.400 Y113.000
G1 X124.500 Y113.000
G1 X124.600 Y113.000
G1 X124.700 Y113.000
G1 X124.800 Y113.000
G1 X124.900 Y113.000
G1 X125.000 Y113.000
G1 X125.100 Y113.000
G1 X125.200 Y113.000
G1 X125.300 Y113.000
G1 X125.400 Y113.000
G1 X125.500 Y113.000
G1 X125.600 Y113.000
G1 X125.700 Y113.000
G1 X125.800 Y113.000
G1 X125.900 Y113.000
G1 X126.000 Y113.000
G1 X126.100 Y113.000
G1 X126.200 Y113.000
G1 X126.300 Y113.000
G1 X126.400 Y113.000
G1 X126.500 Y113.000
G1 X126.600 Y113.000
G1 X126.700 Y113.000
G1 X126.800 Y113.000
G1 X126.900 Y113.000
G1 X127.000 Y113.000
G1 X127.100 Y113.000
G1 X127.200 Y113.000
G1 X127.300 Y113.000
G1 X127.400 Y113.000
G1 X127.500 Y113.000
G1 X127.600 Y113.000
G1 X127.700 Y113.000
G1 X127.800 Y113.000
G1 X127.900 Y113.000
G1 X128.000 Y113.000
G1 X128.100 Y113.000
G1 X128.200 Y113.000
G1 X128.300 Y113.000
G1 X128.400 Y113.000
G1 X128.500 Y113.000
G1 X128.600 Y113.000
G0 Z1.600 F3000
M400
M204 P600 T600
G1 F1500
G0 X128.700 Y113.900 Z1.600
M400
M204 P200 T200
G1 F600
G1 Z0.000 F2500
; --- Backlash X fix: -0.500mm ---
G0 X128.200 Y113.900 F200
G1 X128.100 Y113.900
G1 X128.000 Y113.900
G1 X127.900 Y113.900
G1 X127.800 Y113.900
G1 X127.700 Y113.900
G1 X127.600 Y113.900
G1 X127.500 Y113.900
G1 X127.400 Y113.900
G1 X127.300 Y113.900
G1 X127.200 Y113.900
G1 X127.100 Y113.900
G1 X127.000 Y113.900
G1 X126.900 Y113.900
G1 X126.800 Y113.900
G1 X126.700 Y113.900
G1 X126.600 Y113.900
G1 X126.500 Y113.900
G1 X126.400 Y113.900
G1 X126.300 Y113.900
G1 X126.200 Y113.900
G1 X126.100 Y113.900
G1 X126.000 Y113.900
G1 X125.900 Y113.900
G1 X125.800 Y113.900
G1 X125.700 Y113.900
G1 X125.600 Y113.900
G1 X125.500 Y113.900
G1 X125.400 Y113.900
G1 X125.300 Y113.900
G1 X125.200 Y113.900
G1 X125.100 Y113.900
G1 X125.000 Y113.900
G1 X124.900 Y113.900
G1 X124.800 Y113.900
G1 X124.700 Y113.900
G1 X124.600 Y113.900
G1 X124.500 Y113.900
G1 X124.400 Y113.900
G1 X124.300 Y113.900
G1 X124.200 Y113.900
G1 X124.100 Y113.900
G1 X124.000 Y113.900
G1 X123.900 Y113.900
G1 X123.800 Y113.900
G1 X123.700 Y113.900
G1 X123.600 Y113.900
G1 X123.500 Y113.900
G1 X123.400 Y113.900
G1 X123.300 Y113.900
G1 X123.200 Y113.900
G1 X123.100 Y113.900
G1 X123.000 Y113.900
G1 X122.900 Y113.900
G1 X122.800 Y113.900
G1 X122.700 Y113.900
G1 X122.600 Y113.900
G1 X122.500 Y113.900
G1 X122.400 Y113.900
G1 X122.300 Y113.900
G1 X122.200 Y113.900
G1 X122.100 Y113.900
G1 X122.000 Y113.900
G1 X121.900 Y113.900
G1 X121.800 Y113.900
G1 X121.700 Y113.900
G1 X121.600 Y113.900
G1 X121.500 Y113.900
G1 X121.400 Y113.900
G1 X121.300 Y113.900
G1 X121.200 Y113.900
G1 X121.100 Y113.900
G1 X121.000 Y113.900
G1 X120.900 Y113.900
G1 X120.800 Y113.900
G1 X120.700 Y113.900
G1 X120.600 Y113.900
G1 X120.500 Y113.900
G1 X120.400 Y113.900
G1 X120.300 Y113.900
G1 X120.200 Y113.900
G1 X120.100 Y113.900
G1 X120.000 Y113.900
G1 X119.900 Y113.900
G1 X119.800 Y113.900
G1 X119.700 Y113.900
G1 X119.600 Y113.900
G1 X119.500 Y113.900
G1 X119.400 Y113.900
G1 X119.300 Y113.900
G1 X119.200 Y113.900
G1 X119.100 Y113.900
G1 X119.000 Y113.900
G1 X118.900 Y113.900
G1 X118.800 Y113.900
G1 X118.700 Y113.900
G0 Z1.600 F3000
M400
M204 P600 T600
G1 F1500
; --- Backlash X fix: 0.500mm ---
G0 X119.200 Y113.900 F200
G0 X119.300 Y114.800 Z1.600
M400
M204 P200 T200
G1 F600
G1 Z0.000 F2500
G1 X119.400 Y114.800
G1 X119.500 Y114.800
G1 X119.600 Y114.800
G1 X119.700 Y114.800
G1 X119.800 Y114.800
G1 X119.900 Y114.800
G1 X120.000 Y114.800
G1 X120.100 Y114.800
G1 X120.200 Y114.800
G1 X120.300 Y114.800
G1 X120.400 Y114.800
G1 X120.500 Y114.800
G1 X120.600 Y114.800
G1 X120.700 Y114.800
G1 X120.800 Y114.800
G1 X120.900 Y114.800
G1 X121.000 Y114.800
G1 X121.100 Y114.800
G1 X121.200 Y114.800
G1 X121.300 Y114.800
G1 X121.400 Y114.800
G1 X121.500 Y114.800
G1 X121.600 Y114.800
G1 X121.700 Y114.800
G1 X121.800 Y114.800
G1 X121.900 Y114.800
G1 X122.000 Y114.800
G1 X122.100 Y114.800
G1 X122.200 Y114.800
G1 X122.300 Y114.800
G1 X122.400 Y114.800
G1 X122.500 Y114.800
G1 X122.600 Y114.800
G1 X122.700 Y114.800
G1 X122.800 Y114.800
G1 X122.900 Y114.800
G1 X123.000 Y114.800
G1 X123.100 Y114.800
G1 X123.200 Y114.800
G1 X123.300 Y114.800
G1 X123.400 Y114.800
G1 X123.500 Y114.800
G1 X123.600 Y114.800
G1 X123.700 Y114.800
G1 X123.800 Y114.800
G1 X123.900 Y114.800
G1 X124.000 Y114.800
G1 X124.100 Y114.800
G1 X124.200 Y114.800
G1 X124.300 Y114.800
G1 X124.400 Y114.800
G1 X124.500 Y114.800
G1 X124.600 Y114.800
G1 X124.700 Y114.800
G1 X124.800 Y114.800
G1 X124.900 Y114.800
G1 X125.000 Y114.800
G1 X125.100 Y114.800
G1 X125.200 Y114.800
G1 X125.300 Y114.800
G1 X125.400 Y114.800
G1 X125.500 Y114.800
G1 X125.600 Y114.800
G1 X125.700 Y114.800
G1 X125.800 Y114.800
G1 X125.900 Y114.800
G1 X126.000 Y114.800
G1 X126.100 Y114.800
G1 X126.200 Y114.800
G1 X126.300 Y114.800
G1 X126.400 Y114.800
G1 X126.500 Y114.800
G1 X126.600 Y114.800
G1 X126.700 Y114.800
G1 X126.800 Y114.800
G1 X126.900 Y114.800
G1 X127.000 Y114.800
G1 X127.100 Y114.800
G1 X127.200 Y114.800
G1 X127.300 Y114.800
G1 X127.400 Y114.800
G1 X127.500 Y114.800
G1 X127.600 Y114.800
G1 X127.700 Y114.800
G1 X127.800 Y114.800
G1 X127.900 Y114.800
G1 X128.000 Y114.800
G1 X128.100 Y114.800
G1 X128.200 Y114.800
G1 X128.300 Y114.800
G1 X128.400 Y114.800
G1 X128.500 Y114.800
G1 X128.600 Y114.800
G1 X128.700 Y114.800
G0 Z1.600 F3000
M400
M204 P600 T600
G1 F1500
G0 X128.700 Y115.700 Z1.600
M400
M204 P200 T200
G1 F600
G1 Z0.000 F2500
; --- Backlash X fix: -0.500mm ---
G0 X128.200 Y115.700 F200
G1 X128.100 Y115.700
G1 X128.000 Y115.700
G1 X127.900 Y115.700
G1 X127.800 Y115.700
G1 X127.700 Y115.700
G1 X127.600 Y115.700
G1 X127.500 Y115.700
G1 X127.400 Y115.700
G1 X127.300 Y115.700
G1 X127.200 Y115.700
G1 X127.100 Y115.700
G1 X127.000 Y115.700
G1 X126.900 Y115.700
G1 X126.800 Y115.700
G1 X126.700 Y115.700
G1 X126.600 Y115.700
G1 X126.500 Y115.700
G1 X126.400 Y115.700
G1 X126.300 Y115.700
G1 X126.200 Y115.700
G1 X126.100 Y115.700
G1 X126.000 Y115.700
G1 X125.900 Y115.700
G1 X125.800 Y115.700
G1 X125.700 Y115.700
G1 X125.600 Y115.700
G1 X125.500 Y115.700
G1 X125.400 Y115.700
G1 X125.300 Y115.700
G1 X125.200 Y115.700
G1 X125.100 Y115.700
G1 X125.000 Y115.700
G1 X124.900 Y115.700
G1 X124.800 Y115.700
G1 X124.700 Y115.700
G1 X124.600 Y115.700
G1 X124.500 Y115.700
G1 X124.400 Y115.700
G1 X124.300 Y115.700
G1 X124.200 Y115.700
G1 X124.100 Y115.700
G1 X124.000 Y115.700
G1 X123.900 Y115.700
G1 X123.800 Y115.700
G1 X123.700 Y115.700
G1 X123.600 Y115.700
G1 X123.500 Y115.700
G1 X123.400 Y115.700
G1 X123.300 Y115.700
G1 X123.200 Y115.700
G1 X123.100 Y115.700
G1 X123.000 Y115.700
G1 X122.900 Y115.700
G1 X122.800 Y115.700
G1 X122.700 Y115.700
G1 X122.600 Y115.700
G1 X122.500 Y115.700
G1 X122.400 Y115.700
G1 X122.300 Y115.700
G1 X122.200 Y115.700
G1 X122.100 Y115.700
G1 X122.000 Y115.700
G1 X121.900 Y115.700
G1 X121.800 Y115.700
G1 X121.700 Y115.700
G1 X121.600 Y115.700
G1 X121.500 Y115.700
G1 X121.400 Y115.700
G1 X121.300 Y115.700
G1 X121.200 Y115.700
G1 X121.100 Y115.700
G1 X121.000 Y115.700
G1 X120.900 Y115.700
G1 X120.800 Y115.700
G1 X120.700 Y115.700
G1 X120.600 Y115.700
G1 X120.500 Y115.700
G1 X120.400 Y115.700
G1 X120.300 Y115.700
G1 X120.200 Y115.700
G1 X120.100 Y115.700
G1 X120.000 Y115.700
G1 X119.900 Y115.700
G1 X119.800 Y115.700
G1 X119.700 Y115.700
G1 X119.600 Y115.700
G1 X119.500 Y115.700
G1 X119.400 Y115.700
G1 X119.300 Y115.700
G1 X119.200 Y115.700
G1 X119.100 Y115.700
G1 X119.000 Y115.700
G1 X118.900 Y115.700
G0 Z1.600 F3000
M400
M204 P600 T600
G1 F1500
G0 X118.900 Y116.600 Z1.600
M400
M204 P200 T200
G1 F600
G1 Z0.000 F2500
; --- Backlash X fix: 0.500mm ---
G0 X119.400 Y116.600 F200
G1 X119.500 Y116.600
G1 X119.600 Y116.600
G1 X119.700 Y116.600
G1 X119.800 Y116.600
G1 X119.900 Y116.600
G1 X120.000 Y116.600
G1 X120.100 Y116.600
G1 X120.200 Y116.600
G1 X120.300 Y116.600
G1 X120.400 Y116.600
G1 X120.500 Y116.600
G1 X120.600 Y116.600
G1 X120.700 Y116.600
G1 X120.800 Y116.600
G1 X120.900 Y116.600
G1 X121.000 Y116.600
G1 X121.100 Y116.600
G1 X121.200 Y116.600
G1 X121.300 Y116.600
G1 X121.400 Y116.600
G0 Z1.600 F3000

; --- DIP → Color 2 — Teal ---
G0 Z1.600 F3000
M400
M204 P600 T600
G1 F1500
G0 X58.031 Y3.974 Z10.000
G1 Z1.000 F3000
G1 X58.031 Y3.974 F2500
G1 X58.031 Y6.474 F2500
G1 X53.031 Y3.974 F2500
G1 X58.031 Y0.000 F2500
G0 Z3.000 F3000
G0 X70.623 Y15.195
G0 Z10.000 F3000
G0 X121.500 Y116.600 Z1.600
M400
M204 P200 T200
G1 F600
G1 Z0.000 F2500
G1 X121.500 Y116.600
G1 X121.600 Y116.600
G1 X121.700 Y116.600
G1 X121.800 Y116.600
G1 X121.900 Y116.600
G1 X122.000 Y116.600
G1 X122.100 Y116.600
G1 X122.200 Y116.600
G1 X122.300 Y116.600
G1 X122.400 Y116.600
G1 X122.500 Y116.600
G1 X122.600 Y116.600
G1 X122.700 Y116.600
G1 X122.800 Y116.600
G1 X122.900 Y116.600
G1 X123.000 Y116.600
G1 X123.100 Y116.600
G1 X123.200 Y116.600
G1 X123.300 Y116.600
G1 X123.400 Y116.600
G1 X123.500 Y116.600
G1 X123.600 Y116.600
G1 X123.700 Y116.600
G1 X123.800 Y116.600
G1 X123.900 Y116.600
G1 X124.000 Y116.600
G1 X124.100 Y116.600
G1 X124.200 Y116.600
