G90
G21
; === MULTI-COLOR PAINTER GCODE ===
; Generated layers: 1
; Backlash compensation: ON  BX=0.5 BY=1.6
; Working area clamping: ON  X[0–150] Y[0–150]


; ═══════════════════════════════
; LAYER 1: Color 1 — Red
; Infill: concentric (outline only)
; ═══════════════════════════════


; --- CIKEL NAMAKANJA ---
G0 Z4.600 F3000
M400
M204 P12000 T12000
G1 F12000
G0 X47.705 Y1.269 Z31.000
G1 Z0.000 F3000
G1 X47.705 Y1.269 F2500
G1 X47.705 Y3.769 F2500
G1 X42.705 Y1.269 F2500
G1 X47.705 Y0.000 F2500
G0 Z16.000 F3000
G0 X64.532 Y14.928
G0 Z31.000 F3000
G0 X63.050 Y30.000 Z4.600
M400
M204 P12000 T12000
G1 F12000
G0 X63.050 Y30.000 Z4.600
M400
M204 P200 T200
G1 F400
G1 Z0.000 F2500
G1 X63.050 Y30.100
G1 X63.050 Y30.200
G1 X63.050 Y30.300
; --- Backlash X fix: 0.500mm ---
G0 X63.550 Y30.300 F200
G1 X63.600 Y30.350
G1 X63.650 Y30.400
G1 X63.650 Y30.500
G1 X63.650 Y30.600
G1 X63.700 Y30.650
G1 X63.750 Y30.700
G1 X63.750 Y30.800
G1 X63.800 Y30.850
G1 X63.850 Y30.900
G1 X63.850 Y31.000
G1 X63.900 Y31.050
G1 X63.950 Y31.100
G1 X64.000 Y31.150
G1 X64.050 Y31.200
G1 X64.050 Y31.300
G1 X64.100 Y31.350
G1 X64.150 Y31.400
G1 X64.200 Y31.450
G1 X64.250 Y31.500
G1 X64.300 Y31.550
G1 X64.350 Y31.600
G1 X64.400 Y31.650
G1 X64.450 Y31.700
G1 X64.500 Y31.750
G1 X64.550 Y31.800
G1 X64.600 Y31.850
G1 X64.700 Y31.850
G1 X64.750 Y31.900
G1 X64.800 Y31.950
G1 X64.850 Y32.000
G1 X64.900 Y32.050
G1 X65.000 Y32.050
G1 X65.050 Y32.100
G1 X65.100 Y32.150
G1 X65.200 Y32.150
G1 X65.250 Y32.200
G1 X65.300 Y32.250
G1 X65.400 Y32.250
G1 X65.500 Y32.250
G1 X65.550 Y32.300
G1 X65.600 Y32.350
G1 X65.700 Y32.350
G1 X65.800 Y32.350
G1 X65.900 Y32.350
G1 X66.000 Y32.350
G1 X66.050 Y32.400
G1 X66.100 Y32.450
G1 X66.200 Y32.450
G1 X66.300 Y32.450
G1 X66.400 Y32.450
G1 X66.500 Y32.450
; --- Backlash Y fix: -1.600mm ---
G0 X66.500 Y30.850 F200
G1 X66.550 Y30.800
G1 X66.600 Y30.750
G1 X66.700 Y30.750
G1 X66.800 Y30.750
G1 X66.900 Y30.750
G1 X67.000 Y30.750
G1 X67.100 Y30.750
G1 X67.150 Y30.700
G1 X67.200 Y30.650
G1 X67.300 Y30.650
G1 X67.400 Y30.650
G1 X67.450 Y30.600
G1 X67.500 Y30.550
G1 X67.600 Y30.550
G1 X67.650 Y30.500
G1 X67.700 Y30.450
G1 X67.800 Y30.450
G1 X67.850 Y30.400
G1 X67.900 Y30.350
G1 X67.950 Y30.300
G1 X68.000 Y30.250
G1 X68.100 Y30.250
G1 X68.150 Y30.200
G1 X68.200 Y30.150
G1 X68.250 Y30.100
G1 X68.300 Y30.050
G1 X68.350 Y30.000
G1 X68.400 Y29.950
G1 X68.450 Y29.900
G1 X68.500 Y29.850
G1 X68.550 Y29.800
G1 X68.600 Y29.750
G1 X68.650 Y29.700
G1 X68.650 Y29.600
G1 X68.700 Y29.550
G1 X68.750 Y29.500
G1 X68.800 Y29.450
G1 X68.850 Y29.400
G1 X68.850 Y29.300
G1 X68.900 Y29.250
G1 X68.950 Y29.200
G1 X68.950 Y29.100
G1 X69.000 Y29.050
G1 X69.050 Y29.000
G1 X69.050 Y28.900
G1 X69.050 Y28.800
G1 X69.100 Y28.750
G1 X69.150 Y28.700
G1 X69.150 Y28.600
G1 X69.150 Y28.500
G1 X69.150 Y28.400
G0 Z4.600 F3000
M400
M204 P12000 T12000
G1 F12000
G0 X70.450 Y28.400 Z4.600
M400
M204 P200 T200
G1 F400
G1 Z0.000 F2500
; --- Backlash Y fix: 1.600mm ---
G0 X70.450 Y30.000 F200
G1 X70.400 Y30.050
; --- Backlash X fix: -0.500mm ---
G0 X69.900 Y30.050 F200
G1 X69.850 Y30.100
G1 X69.800 Y30.150
G1 X69.750 Y30.200
G1 X69.700 Y30.250
G1 X69.650 Y30.300
G1 X69.600 Y30.350
G1 X69.550 Y30.400
G1 X69.500 Y30.450
G1 X69.450 Y30.500
G1 X69.400 Y30.550
G1 X69.350 Y30.600
G1 X69.300 Y30.650
G1 X69.250 Y30.700
G1 X69.250 Y30.800
G1 X69.200 Y30.850
G1 X69.150 Y30.900
G1 X69.150 Y31.000
G1 X69.100 Y31.050
G1 X69.050 Y31.100
G1 X69.050 Y31.200
G1 X69.000 Y31.250
G1 X68.950 Y31.300
G1 X68.950 Y31.400
G1 X68.900 Y31.450
G1 X68.850 Y31.500
G1 X68.850 Y31.600
G1 X68.850 Y31.700
G1 X68.850 Y31.800
G1 X68.800 Y31.850
G1 X68.750 Y31.900
G1 X68.750 Y32.000
G1 X68.750 Y32.100
G1 X68.750 Y32.200
G1 X68.750 Y32.300
G1 X68.750 Y32.400
G1 X68.750 Y32.500
G1 X68.750 Y32.600
G1 X68.750 Y32.700
G1 X68.750 Y32.800
G1 X68.750 Y32.900
G1 X68.800 Y32.950
G1 X68.850 Y33.000
G1 X68.850 Y33.100
G1 X68.850 Y33.200
G1 X68.850 Y33.300
; --- Backlash X fix: 0.500mm ---
G0 X69.350 Y33.300 F200
G1 X69.400 Y33.350
G1 X69.450 Y33.400
G1 X69.450 Y33.500
G1 X69.500 Y33.550
G1 X69.550 Y33.600
G1 X69.550 Y33.700
G1 X69.600 Y33.750
G1 X69.650 Y33.800
G1 X69.650 Y33.900
G1 X69.700 Y33.950
G1 X69.750 Y34.000
G1 X69.750 Y34.100
G1 X69.800 Y34.150
G1 X69.850 Y34.200
G1 X69.900 Y34.250
G1 X69.950 Y34.300
G1 X70.000 Y34.350
G1 X70.050 Y34.400
G1 X70.100 Y34.450
G1 X70.150 Y34.500
G1 X70.200 Y34.550
G1 X70.250 Y34.600
G1 X70.300 Y34.650
G1 X70.350 Y34.700
G1 X70.400 Y34.750
G1 X70.450 Y34.800
G1 X70.500 Y34.850
G1 X70.600 Y34.850
G1 X70.650 Y34.900
G1 X70.700 Y34.950
G1 X70.800 Y34.950
G1 X70.850 Y35.000
G1 X70.900 Y35.050
G1 X71.000 Y35.050
G1 X71.050 Y35.100
G1 X71.100 Y35.150
G1 X71.200 Y35.150
G1 X71.300 Y35.150
G1 X71.350 Y35.200
G1 X71.400 Y35.250
G1 X71.500 Y35.250
G1 X71.600 Y35.250
G1 X71.700 Y35.250
G1 X71.750 Y35.300
G1 X71.800 Y35.350
G1 X71.900 Y35.350
G1 X72.000 Y35.350
G1 X72.100 Y35.350
G1 X72.200 Y35.350
G1 X72.300 Y35.350
G1 X72.400 Y35.350
G1 X72.500 Y35.350
G1 X72.600 Y35.350
; --- Backlash Y fix: -1.600mm ---
G0 X72.600 Y33.750 F200
G1 X72.650 Y33.700
G1 X72.700 Y33.650
G1 X72.800 Y33.650
G1 X72.900 Y33.650
G1 X73.000 Y33.650
G1 X73.050 Y33.600
G1 X73.100 Y33.550
G1 X73.200 Y33.550
G1 X73.300 Y33.550
G1 X73.350 Y33.500
G1 X73.400 Y33.450
G1 X73.500 Y33.450
G1 X73.550 Y33.400
G1 X73.600 Y33.350
G1 X73.700 Y33.350
G1 X73.750 Y33.300
G1 X73.800 Y33.250
G1 X73.850 Y33.200
G1 X73.900 Y33.150
G1 X74.000 Y33.150
G1 X74.050 Y33.100
G1 X74.100 Y33.050
G1 X74.150 Y33.000
G1 X74.200 Y32.950
G1 X74.250 Y32.900
G1 X74.300 Y32.850
G1 X74.350 Y32.800
G1 X74.400 Y32.750
G1 X74.450 Y32.700
G1 X74.500 Y32.650
G1 X74.550 Y32.600
G1 X74.550 Y32.500
G1 X74.600 Y32.450
G1 X74.650 Y32.400
G1 X74.700 Y32.350
G1 X74.750 Y32.300
G1 X74.750 Y32.200
G1 X74.800 Y32.150
G1 X74.850 Y32.100
G1 X74.850 Y32.000
G1 X74.900 Y31.950
G1 X74.950 Y31.900
G1 X74.950 Y31.800
G1 X74.950 Y31.700
G1 X75.000 Y31.650
G1 X75.050 Y31.600
G1 X75.050 Y31.500
G1 X75.050 Y31.400
G1 X75.050 Y31.300
G1 X75.050 Y31.200
G1 X75.100 Y31.150
G1 X75.150 Y31.100
G1 X75.150 Y31.000
G1 X75.150 Y30.900
G1 X75.150 Y30.800
G1 X75.150 Y30.700
G1 X75.150 Y30.600
G1 X75.150 Y30.500
; --- Backlash X fix: -0.500mm ---
G0 X74.650 Y30.500 F200
G1 X74.600 Y30.450
G1 X74.550 Y30.400
G1 X74.550 Y30.300
G1 X74.550 Y30.200
G1 X74.550 Y30.100
G1 X74.550 Y30.000
G1 X74.500 Y29.950
G1 X74.450 Y29.900
G1 X74.450 Y29.800
G1 X74.450 Y29.700
G1 X74.400 Y29.650
G1 X74.350 Y29.600
G1 X74.350 Y29.500
G1 X74.300 Y29.450
G1 X74.250 Y29.400
G1 X74.250 Y29.300
G1 X74.200 Y29.250
G1 X74.150 Y29.200
G1 X74.100 Y29.150
G1 X74.050 Y29.100
G1 X74.050 Y29.000
G1 X74.000 Y28.950
G1 X73.950 Y28.900
G1 X73.900 Y28.850
G1 X73.850 Y28.800
G1 X73.800 Y28.750
G1 X73.750 Y28.700
G1 X73.700 Y28.650
G1 X73.650 Y28.600
G1 X73.600 Y28.550
G1 X73.550 Y28.500
G1 X73.500 Y28.450
G1 X73.400 Y28.450
G1 X73.350 Y28.400
G0 Z4.600 F3000
M400
M204 P12000 T12000
G1 F12000
; --- Backlash X fix: 0.500mm ---
G0 X73.850 Y28.400 F200
G0 X74.850 Y28.400 Z4.600
M400
M204 P200 T200
G1 F400
G1 Z0.000 F2500
; --- Backlash Y fix: 1.600mm ---
G0 X74.850 Y30.000 F200
G1 X74.850 Y30.100
G1 X74.900 Y30.150
G1 X74.950 Y30.200
G1 X74.950 Y30.300
G1 X75.000 Y30.350
G1 X75.050 Y30.400
G1 X75.100 Y30.450
G1 X75.150 Y30.500
G1 X75.150 Y30.600
G1 X75.200 Y30.650
G1 X75.250 Y30.700
G1 X75.300 Y30.750
G1 X75.350 Y30.800
G1 X75.400 Y30.850
G1 X75.450 Y30.900
G1 X75.500 Y30.950
G1 X75.550 Y31.000
G1 X75.600 Y31.050
G1 X75.650 Y31.100
G1 X75.700 Y31.150
G1 X75.750 Y31.200
G1 X75.800 Y31.250
G1 X75.900 Y31.250
G1 X75.950 Y31.300
G1 X76.000 Y31.350
G1 X76.100 Y31.350
G1 X76.150 Y31.400
G1 X76.200 Y31.450
G1 X76.300 Y31.450
G1 X76.350 Y31.500
G1 X76.400 Y31.550
G1 X76.500 Y31.550
G1 X76.550 Y31.600
G1 X76.600 Y31.650
G1 X76.700 Y31.650
G1 X76.800 Y31.650
G1 X76.900 Y31.650
G1 X76.950 Y31.700
G1 X77.000 Y31.750
G1 X77.100 Y31.750
G1 X77.200 Y31.750
G1 X77.300 Y31.750
G1 X77.400 Y31.750
G1 X77.500 Y31.750
G1 X77.600 Y31.750
G1 X77.700 Y31.750
G1 X77.800 Y31.750
G1 X77.900 Y31.750
G1 X78.000 Y31.750
G1 X78.100 Y31.750
G1 X78.200 Y31.750
; --- Backlash Y fix: -1.600mm ---
G0 X78.200 Y30.150 F200
G1 X78.250 Y30.100
G1 X78.300 Y30.050
G1 X78.400 Y30.050
G1 X78.500 Y30.050
G1 X78.550 Y30.000
G1 X78.600 Y29.950
G1 X78.700 Y29.950
G1 X78.800 Y29.950
G1 X78.850 Y29.900
G1 X78.900 Y29.850
G1 X79.000 Y29.850
G1 X79.050 Y29.800
G1 X79.100 Y29.750
G1 X79.150 Y29.700
G1 X79.200 Y29.650
G1 X79.300 Y29.650
G1 X79.350 Y29.600
G1 X79.400 Y29.550
G1 X79.450 Y29.500
G1 X79.500 Y29.450
G1 X79.550 Y29.400
G1 X79.600 Y29.350
G1 X79.650 Y29.300
G1 X79.700 Y29.250
G1 X79.750 Y29.200
G1 X79.800 Y29.150
G1 X79.850 Y29.100
G1 X79.900 Y29.050
G1 X79.950 Y29.000
G1 X80.000 Y28.950
G1 X80.050 Y28.900
G1 X80.050 Y28.800
G1 X80.100 Y28.750
G1 X80.150 Y28.700
G1 X80.200 Y28.650
G1 X80.250 Y28.600
G1 X80.250 Y28.500
G1 X80.300 Y28.450
G1 X80.350 Y28.400
G0 Z4.600 F3000
M400
M204 P12000 T12000
G1 F12000
G0 X80.850 Y28.400 Z4.600
M400
M204 P200 T200
G1 F400
G1 Z0.000 F2500
; --- Backlash Y fix: 1.600mm ---
G0 X80.850 Y30.000 F200
G1 X80.800 Y30.050
G1 X80.750 Y30.100
G1 X80.750 Y30.200
G1 X80.700 Y30.250
G1 X80.650 Y30.300
G1 X80.650 Y30.400
G1 X80.650 Y30.500
; --- Backlash X fix: -0.500mm ---
G0 X80.150 Y30.500 F200
G1 X80.100 Y30.550
G1 X80.050 Y30.600
G1 X80.050 Y30.700
G1 X80.050 Y30.800
G1 X80.000 Y30.850
G1 X79.950 Y30.900
G1 X79.950 Y31.000
G1 X79.950 Y31.100
G1 X79.950 Y31.200
G1 X79.950 Y31.300
G1 X79.900 Y31.350
G1 X79.850 Y31.400
G1 X79.850 Y31.500
G1 X79.850 Y31.600
G1 X79.850 Y31.700
G1 X79.850 Y31.800
; --- Backlash X fix: 0.500mm ---
G0 X80.350 Y31.800 F200
G1 X80.400 Y31.850
G1 X80.450 Y31.900
G1 X80.450 Y32.000
G1 X80.450 Y32.100
G1 X80.450 Y32.200
G1 X80.450 Y32.300
G1 X80.450 Y32.400
G1 X80.500 Y32.450
G1 X80.550 Y32.500
G1 X80.550 Y32.600
G1 X80.550 Y32.700
G1 X80.600 Y32.750
G1 X80.650 Y32.800
G1 X80.650 Y32.900
G1 X80.700 Y32.950
G1 X80.750 Y33.000
G1 X80.750 Y33.100
G1 X80.800 Y33.150
G1 X80.850 Y33.200
G1 X80.900 Y33.250
G1 X80.950 Y33.300
G1 X80.950 Y33.400
G1 X81.000 Y33.450
G1 X81.050 Y33.500
G1 X81.100 Y33.550
G1 X81.150 Y33.600
G1 X81.200 Y33.650
G1 X81.250 Y33.700
G1 X81.300 Y33.750
G1 X81.350 Y33.800
G1 X81.400 Y33.850
G1 X81.450 Y33.900
G1 X81.500 Y33.950
G1 X81.550 Y34.000
G1 X81.600 Y34.050
G1 X81.650 Y34.100
G1 X81.700 Y34.150
G1 X81.800 Y34.150
G1 X81.850 Y34.200
G1 X81.900 Y34.250
G1 X82.000 Y34.250
G1 X82.050 Y34.300
G1 X82.100 Y34.350
G1 X82.200 Y34.350
G1 X82.250 Y34.400
G1 X82.300 Y34.450
G1 X82.400 Y34.450
G1 X82.500 Y34.450
G1 X82.550 Y34.500
G1 X82.600 Y34.550
G1 X82.700 Y34.550
G1 X82.800 Y34.550
G1 X82.900 Y34.550
G1 X82.950 Y34.600
G1 X83.000 Y34.650
G1 X83.100 Y34.650
G1 X83.200 Y34.650
G1 X83.300 Y34.650
G1 X83.400 Y34.650
G1 X83.500 Y34.650
G1 X83.600 Y34.650
G1 X83.700 Y34.650
G1 X83.800 Y34.650
G1 X83.850 Y34.600
; --- Backlash Y fix: -1.600mm ---
G0 X83.850 Y33.000 F200
G1 X83.900 Y32.950
G1 X84.000 Y32.950
G1 X84.100 Y32.950
G1 X84.200 Y32.950
G1 X84.250 Y32.900
G1 X84.300 Y32.850
G1 X84.400 Y32.850
G1 X84.500 Y32.850
G1 X84.550 Y32.800
G1 X84.600 Y32.750
G1 X84.700 Y32.750
G1 X84.750 Y32.700
G1 X84.800 Y32.650
G1 X84.900 Y32.650
G1 X84.950 Y32.600
G1 X85.000 Y32.550
G1 X85.100 Y32.550
G1 X85.150 Y32.500
G1 X85.200 Y32.450
G1 X85.250 Y32.400
G1 X85.300 Y32.350
G1 X85.350 Y32.300
G1 X85.400 Y32.250
G1 X85.450 Y32.200
G1 X85.500 Y32.150
G1 X85.550 Y32.100
G1 X85.600 Y32.050
G1 X85.650 Y32.000
G1 X85.700 Y31.950
G1 X85.750 Y31.900
G1 X85.800 Y31.850
G1 X85.850 Y31.800
G1 X85.900 Y31.750
G1 X85.950 Y31.700
G1 X85.950 Y31.600
G1 X86.000 Y31.550
G1 X86.050 Y31.500
G1 X86.050 Y31.400
G1 X86.100 Y31.350
G1 X86.150 Y31.300
G1 X86.150 Y31.200
G1 X86.200 Y31.150
G1 X86.250 Y31.100
G1 X86.250 Y31.000
G1 X86.250 Y30.900
G1 X86.300 Y30.850
G1 X86.350 Y30.800
G1 X86.350 Y30.700
G1 X86.350 Y30.600
G1 X86.350 Y30.500
G1 X86.350 Y30.400
G1 X86.400 Y30.350
G1 X86.450 Y30.300
G1 X86.450 Y30.200
G1 X86.450 Y30.100
G1 X86.450 Y30.000
G1 X86.450 Y29.900
G1 X86.450 Y29.800
G1 X86.450 Y29.700
G1 X86.400 Y29.650
; --- Backlash X fix: -0.500mm ---
G0 X85.900 Y29.650 F200
G1 X85.850 Y29.600
G1 X85.850 Y29.500
G1 X85.850 Y29.400
G1 X85.850 Y29.300
G1 X85.850 Y29.200
G1 X85.800 Y29.150
G1 X85.750 Y29.100
G1 X85.750 Y29.000
G1 X85.750 Y28.900
G1 X85.700 Y28.850
G1 X85.650 Y28.800
G1 X85.650 Y28.700
G1 X85.600 Y28.650
G1 X85.550 Y28.600
G1 X85.550 Y28.500
G1 X85.500 Y28.450
G1 X85.450 Y28.400
G0 Z4.600 F3000
M400
M204 P12000 T12000
G1 F12000
; --- Backlash X fix: 0.500mm ---
G0 X85.950 Y28.400 F200
G0 X86.450 Y28.400 Z4.600
M400
M204 P200 T200
G1 F400
G1 Z0.000 F2500
; --- Backlash Y fix: 1.600mm ---
G0 X86.450 Y30.000 F200
G1 X86.500 Y30.050
G1 X86.550 Y30.100
G1 X86.600 Y30.150
G1 X86.650 Y30.200
G1 X86.700 Y30.250
G1 X86.750 Y30.300
G1 X86.800 Y30.350
G1 X86.850 Y30.400
G1 X86.900 Y30.450
G1 X86.950 Y30.500
G1 X87.000 Y30.550
G1 X87.100 Y30.550
G1 X87.150 Y30.600
G1 X87.200 Y30.650
G1 X87.300 Y30.650
G1 X87.350 Y30.700
G1 X87.400 Y30.750
G1 X87.500 Y30.750
G1 X87.550 Y30.800
G1 X87.600 Y30.850
G1 X87.700 Y30.850
G1 X87.750 Y30.900
G1 X87.800 Y30.950
G1 X87.900 Y30.950
G1 X88.000 Y30.950
G1 X88.050 Y31.000
G1 X88.100 Y31.050
G1 X88.200 Y31.050
G1 X88.300 Y31.050
G1 X88.400 Y31.050
G1 X88.500 Y31.050
G1 X88.600 Y31.050
G1 X88.700 Y31.050
G1 X88.800 Y31.050
G1 X88.900 Y31.050
G1 X89.000 Y31.050
G1 X89.100 Y31.050
G1 X89.200 Y31.050
G1 X89.300 Y31.050
G1 X89.400 Y31.050
; --- Backlash Y fix: -1.600mm ---
G0 X89.400 Y29.450 F200
G1 X89.450 Y29.400
G1 X89.500 Y29.350
G1 X89.600 Y29.350
G1 X89.700 Y29.350
G1 X89.800 Y29.350
G1 X89.850 Y29.300
G1 X89.900 Y29.250
G1 X90.000 Y29.250
G1 X90.050 Y29.200
G1 X90.100 Y29.150
G1 X90.200 Y29.150
G1 X90.250 Y29.100
G1 X90.300 Y29.050
G1 X90.400 Y29.050
G1 X90.450 Y29.000
G1 X90.500 Y28.950
G1 X90.550 Y28.900
G1 X90.600 Y28.850
G1 X90.700 Y28.850
G1 X90.750 Y28.800
G1 X90.800 Y28.750
G1 X90.850 Y28.700
G1 X90.900 Y28.650
G1 X90.950 Y28.600
G1 X91.000 Y28.550
G1 X91.050 Y28.500
G1 X91.100 Y28.450
G1 X91.150 Y28.400
G0 Z4.600 F3000
M400
M204 P12000 T12000
G1 F12000
G0 X91.650 Y28.400 Z4.600
M400
M204 P200 T200
G1 F400
G1 Z0.000 F2500
; --- Backlash Y fix: 1.600mm ---
G0 X91.650 Y30.000 F200
G1 X91.650 Y30.100
G1 X91.650 Y30.200
; --- Backlash X fix: -0.500mm ---
G0 X91.150 Y30.200 F200
G1 X91.100 Y30.250
G1 X91.050 Y30.300
G1 X91.050 Y30.400
G1 X91.050 Y30.500
G1 X91.050 Y30.600
G1 X91.050 Y30.700
G1 X91.050 Y30.800
G1 X91.050 Y30.900
G1 X91.050 Y31.000
G1 X91.050 Y31.100
G1 X91.050 Y31.200
G1 X91.050 Y31.300
G1 X91.050 Y31.400
G1 X91.100 Y31.450
; --- Backlash X fix: 0.500mm ---
G0 X91.600 Y31.450 F200
G1 X91.650 Y31.500
G1 X91.650 Y31.600
G1 X91.650 Y31.700
G1 X91.650 Y31.800
G1 X91.700 Y31.850
G1 X91.750 Y31.900
G1 X91.750 Y32.000
G1 X91.800 Y32.050
G1 X91.850 Y32.100
G1 X91.850 Y32.200
G1 X91.900 Y32.250
G1 X91.950 Y32.300
G1 X91.950 Y32.400
G1 X92.000 Y32.450
G1 X92.050 Y32.500
G1 X92.050 Y32.600
G1 X92.100 Y32.650
G1 X92.150 Y32.700
G1 X92.200 Y32.750
G1 X92.250 Y32.800
G1 X92.300 Y32.850
G1 X92.350 Y32.900
G1 X92.400 Y32.950
G1 X92.450 Y33.000
G1 X92.500 Y33.050
G1 X92.550 Y33.100
G1 X92.600 Y33.150
G1 X92.650 Y33.200
G1 X92.700 Y33.250
G1 X92.750 Y33.300
G1 X92.800 Y33.350
G1 X92.900 Y33.350
G1 X92.950 Y33.400
G1 X93.000 Y33.450
G1 X93.050 Y33.500
G1 X93.100 Y33.550
G1 X93.200 Y33.550
G1 X93.250 Y33.600
G1 X93.300 Y33.650
G1 X93.400 Y33.650
G1 X93.450 Y33.700
G1 X93.500 Y33.750
G1 X93.600 Y33.750
G1 X93.700 Y33.750
G1 X93.750 Y33.800
G1 X93.800 Y33.850
G1 X93.900 Y33.850
G1 X94.000 Y33.850
G1 X94.100 Y33.850
G1 X94.200 Y33.850
G1 X94.250 Y33.900
G1 X94.300 Y33.950
G1 X94.400 Y33.950
G1 X94.500 Y33.950
G1 X94.600 Y33.950
G1 X94.700 Y33.950
G1 X94.800 Y33.950
G1 X94.900 Y33.950
; --- Backlash Y fix: -1.600mm ---
G0 X94.900 Y32.350 F200
G1 X94.950 Y32.300
G1 X95.000 Y32.250
G1 X95.100 Y32.250
G1 X95.200 Y32.250
G1 X95.300 Y32.250
G1 X95.400 Y32.250
G1 X95.450 Y32.200
G1 X95.500 Y32.150
G1 X95.600 Y32.150
G1 X95.700 Y32.150
G1 X95.750 Y32.100
G1 X95.800 Y32.050
G1 X95.900 Y32.050
G1 X95.950 Y32.000
G1 X96.000 Y31.950
G1 X96.100 Y31.950
G1 X96.150 Y31.900
G1 X96.200 Y31.850
G1 X96.300 Y31.850
G1 X96.350 Y31.800
G1 X96.400 Y31.750
G1 X96.450 Y31.700
G1 X96.500 Y31.650
G1 X96.600 Y31.650
G1 X96.650 Y31.600
G1 X96.700 Y31.550
G1 X96.750 Y31.500
G1 X96.800 Y31.450
G1 X96.850 Y31.400
G1 X96.900 Y31.350
G1 X96.950 Y31.300
G1 X97.000 Y31.250
G1 X97.050 Y31.200
G1 X97.050 Y31.100
G1 X97.100 Y31.050
G1 X97.150 Y31.000
G1 X97.200 Y30.950
G1 X97.250 Y30.900
G1 X97.250 Y30.800
G1 X97.300 Y30.750
G1 X97.350 Y30.700
G1 X97.350 Y30.600
G1 X97.400 Y30.550
G1 X97.450 Y30.500
G1 X97.450 Y30.400
G1 X97.500 Y30.350
G1 X97.550 Y30.300
G1 X97.550 Y30.200
G1 X97.550 Y30.100
G1 X97.600 Y30.050
G1 X97.650 Y30.000
G1 X97.650 Y29.900
G1 X97.650 Y29.800
G1 X97.650 Y29.700
G1 X97.650 Y29.600
G1 X97.700 Y29.550
G1 X97.750 Y29.500
G1 X97.750 Y29.400
G1 X97.750 Y29.300
G1 X97.750 Y29.200
G1 X97.750 Y29.100
G1 X97.750 Y29.000
G1 X97.750 Y28.900
G1 X97.700 Y28.850
G1 X97.650 Y28.800
G1 X97.650 Y28.700
G1 X97.650 Y28.600
G1 X97.650 Y28.500
G1 X97.650 Y28.400
G0 Z4.600 F3000
M400
M204 P12000 T12000
G1 F12000
G0 X98.950 Y28.400 Z4.600
M400
M204 P200 T200
G1 F400
G1 Z0.000 F2500
; --- Backlash Y fix: 1.600mm ---
G0 X98.950 Y30.000 F200
G1 X99.000 Y30.050
G1 X99.100 Y30.050
G1 X99.200 Y30.050
G1 X99.250 Y30.100
G1 X99.300 Y30.150
G1 X99.400 Y30.150
G1 X99.500 Y30.150
G1 X99.600 Y30.150
G1 X99.700 Y30.150
G1 X99.800 Y30.150
G1 X99.850 Y30.200
G1 X99.900 Y30.250
G1 X100.000 Y30.250
G1 X100.100 Y30.250
; --- Backlash Y fix: -1.600mm ---
G0 X100.100 Y28.650 F200
G1 X100.150 Y28.600
G1 X100.200 Y28.550
G1 X100.300 Y28.550
G1 X100.400 Y28.550
G1 X100.500 Y28.550
G1 X100.600 Y28.550
G1 X100.700 Y28.550
G1 X100.800 Y28.550
G1 X100.850 Y28.500
G1 X100.900 Y28.450
G1 X101.000 Y28.450
G1 X101.100 Y28.450
G1 X101.150 Y28.400
G0 Z4.600 F3000
M400
M204 P12000 T12000
G1 F12000
G0 X102.850 Y28.400 Z4.600
M400
M204 P200 T200
G1 F400
G1 Z0.000 F2500
; --- Backlash Y fix: 1.600mm ---
G0 X102.850 Y30.000 F200
G1 X102.850 Y30.100
G1 X102.850 Y30.200
G1 X102.850 Y30.300
G1 X102.850 Y30.400
G1 X102.850 Y30.500
G1 X102.850 Y30.600
G1 X102.900 Y30.650
G1 X102.950 Y30.700
G1 X102.950 Y30.800
G1 X102.950 Y30.900
G1 X102.950 Y31.000
G1 X103.000 Y31.050
G1 X103.050 Y31.100
G1 X103.050 Y31.200
G1 X103.100 Y31.250
G1 X103.150 Y31.300
G1 X103.150 Y31.400
G1 X103.200 Y31.450
G1 X103.250 Y31.500
G1 X103.250 Y31.600
G1 X103.300 Y31.650
G1 X103.350 Y31.700
G1 X103.350 Y31.800
G1 X103.400 Y31.850
G1 X103.450 Y31.900
G1 X103.500 Y31.950
G1 X103.550 Y32.000
G1 X103.600 Y32.050
G1 X103.650 Y32.100
G1 X103.700 Y32.150
G1 X103.750 Y32.200
G1 X103.800 Y32.250
G1 X103.850 Y32.300
G1 X103.900 Y32.350
G1 X103.950 Y32.400
G1 X104.000 Y32.450
G1 X104.050 Y32.500
G1 X104.100 Y32.550
G1 X104.200 Y32.550
G1 X104.250 Y32.600
G1 X104.300 Y32.650
G1 X104.400 Y32.650
G1 X104.450 Y32.700
G1 X104.500 Y32.750
G1 X104.600 Y32.750
G1 X104.650 Y32.800
G1 X104.700 Y32.850
G1 X104.800 Y32.850
G1 X104.850 Y32.900
G1 X104.900 Y32.950
G1 X105.000 Y32.950
G1 X105.100 Y32.950
G1 X105.200 Y32.950
G1 X105.250 Y33.000
G1 X105.300 Y33.050
G1 X105.400 Y33.050
G1 X105.500 Y33.050
G1 X105.600 Y33.050
G1 X105.700 Y33.050
G1 X105.800 Y33.050
G1 X105.900 Y33.050
G1 X106.000 Y33.050
G1 X106.100 Y33.050
G1 X106.200 Y33.050
G1 X106.300 Y33.050
G1 X106.400 Y33.050
G1 X106.450 Y33.000
G1 X106.500 Y32.950
G1 X106.600 Y32.950
G1 X106.700 Y32.950
G1 X106.800 Y32.950
; --- Backlash Y fix: -1.600mm ---
G0 X106.800 Y31.350 F200
G1 X106.850 Y31.300
G1 X106.900 Y31.250
G1 X107.000 Y31.250
G1 X107.050 Y31.200
G1 X107.100 Y31.150
G1 X107.200 Y31.150
G1 X107.250 Y31.100
G1 X107.300 Y31.050
G1 X107.400 Y31.050
G1 X107.450 Y31.000
G1 X107.500 Y30.950
G1 X107.600 Y30.950
G1 X107.650 Y30.900
G1 X107.700 Y30.850
G1 X107.750 Y30.800
G1 X107.800 Y30.750
G1 X107.850 Y30.700
G1 X107.900 Y30.650
G1 X107.950 Y30.600
G1 X108.000 Y30.550
G1 X108.050 Y30.500
G1 X108.100 Y30.450
G1 X108.150 Y30.400
G1 X108.200 Y30.350
G1 X108.250 Y30.300
G1 X108.300 Y30.250
G1 X108.350 Y30.200
G1 X108.350 Y30.100
G1 X108.400 Y30.050
G1 X108.450 Y30.000
G1 X108.450 Y29.900
G1 X108.500 Y29.850
G1 X108.550 Y29.800
G1 X108.550 Y29.700
G1 X108.600 Y29.650
G1 X108.650 Y29.600
G1 X108.650 Y29.500
G1 X108.700 Y29.450
G1 X108.750 Y29.400
G1 X108.750 Y29.300
G1 X108.750 Y29.200
G1 X108.750 Y29.100
G1 X108.800 Y29.050
G1 X108.850 Y29.000
G1 X108.850 Y28.900
G1 X108.850 Y28.800
G1 X108.850 Y28.700
G1 X108.850 Y28.600
G1 X108.850 Y28.500
G1 X108.850 Y28.400
G0 Z4.600 F3000
M400
M204 P12000 T12000
G1 F12000
G0 X114.350 Y28.400 Z4.600
M400
M204 P200 T200
G1 F400
G1 Z0.000 F2500
; --- Backlash Y fix: 1.600mm ---
G0 X114.350 Y30.000 F200
G1 X114.350 Y30.100
G1 X114.350 Y30.200
G1 X114.400 Y30.250
G1 X114.450 Y30.300
G1 X114.450 Y30.400
G1 X114.450 Y30.500
G1 X114.500 Y30.550
G1 X114.550 Y30.600
G1 X114.600 Y30.650
G1 X114.650 Y30.700
G1 X114.650 Y30.800
G1 X114.700 Y30.850
G1 X114.750 Y30.900
G1 X114.800 Y30.950
G1 X114.850 Y31.000
G1 X114.850 Y31.100
G1 X114.900 Y31.150
G1 X114.950 Y31.200
G1 X115.000 Y31.250
G1 X115.050 Y31.300
G1 X115.100 Y31.350
G1 X115.150 Y31.400
G1 X115.200 Y31.450
G1 X115.250 Y31.500
G1 X115.300 Y31.550
G1 X115.400 Y31.550
G1 X115.450 Y31.600
G1 X115.500 Y31.650
G1 X115.550 Y31.700
G1 X115.600 Y31.750
G1 X115.700 Y31.750
G1 X115.750 Y31.800
G1 X115.800 Y31.850
G1 X115.900 Y31.850
G1 X115.950 Y31.900
G1 X116.000 Y31.950
G1 X116.100 Y31.950
G1 X116.200 Y31.950
G1 X116.250 Y32.000
G1 X116.300 Y32.050
G1 X116.400 Y32.050
G1 X116.500 Y32.050
G1 X116.600 Y32.050
G1 X116.700 Y32.050
G1 X116.750 Y32.100
G1 X116.800 Y32.150
G1 X116.900 Y32.150
G1 X117.000 Y32.150
G1 X117.100 Y32.150
G1 X117.200 Y32.150
G1 X117.300 Y32.150
G1 X117.400 Y32.150
G1 X117.450 Y32.100
; --- Backlash Y fix: -1.600mm ---
G0 X117.450 Y30.500 F200
G1 X117.500 Y30.450
G1 X117.600 Y30.450
G1 X117.700 Y30.450
G1 X117.800 Y30.450
G1 X117.850 Y30.400
G1 X117.900 Y30.350
G1 X118.000 Y30.350
G1 X118.100 Y30.350
G1 X118.150 Y30.300
G1 X118.200 Y30.250
G1 X118.300 Y30.250
G1 X118.350 Y30.200
G1 X118.400 Y30.150
G1 X118.500 Y30.150
G1 X118.550 Y30.100
G1 X118.600 Y30.050
G1 X118.700 Y30.050
G1 X118.750 Y30.000
G1 X118.800 Y29.950
G1 X118.850 Y29.900
G1 X118.900 Y29.850
G1 X118.950 Y29.800
G1 X119.000 Y29.750
G1 X119.050 Y29.700
G1 X119.100 Y29.650
G1 X119.150 Y29.600
G1 X119.200 Y29.550
G1 X119.250 Y29.500
G1 X119.300 Y29.450
G1 X119.350 Y29.400
G1 X119.400 Y29.350
G1 X119.450 Y29.300
G1 X119.450 Y29.200
G1 X119.500 Y29.150
G1 X119.550 Y29.100
G1 X119.550 Y29.000
G1 X119.600 Y28.950
G1 X119.650 Y28.900
G1 X119.650 Y28.800
G1 X119.700 Y28.750
G1 X119.750 Y28.700
G1 X119.750 Y28.600
G1 X119.800 Y28.550
G1 X119.850 Y28.500
G1 X119.850 Y28.400
G0 Z4.600 F3000
M400
M204 P12000 T12000
G1 F12000
G0 X121.050 Y28.400 Z4.600
M400
M204 P200 T200
G1 F400
G1 Z0.000 F2500
; --- Backlash Y fix: 1.600mm ---
G0 X121.050 Y30.000 F200
G1 X121.000 Y30.050
G1 X120.950 Y30.100
G1 X120.900 Y30.150
; --- Backlash X fix: -0.500mm ---
G0 X120.400 Y30.150 F200
G1 X120.350 Y30.200
G1 X120.300 Y30.250
G1 X120.250 Y30.300
G1 X120.250 Y30.400
G1 X120.200 Y30.450
G1 X120.150 Y30.500
G1 X120.100 Y30.550
G1 X120.050 Y30.600
G1 X120.050 Y30.700
G1 X120.000 Y30.750
G1 X119.950 Y30.800
G1 X119.900 Y30.850
G1 X119.850 Y30.900
G1 X119.850 Y31.000
G1 X119.850 Y31.100
G1 X119.800 Y31.150
G1 X119.750 Y31.200
G1 X119.750 Y31.300
G1 X119.750 Y31.400
G1 X119.700 Y31.450
G1 X119.650 Y31.500
G1 X119.650 Y31.600
G1 X119.650 Y31.700
G1 X119.650 Y31.800
G1 X119.650 Y31.900
G1 X119.650 Y32.000
G1 X119.650 Y32.100
G1 X119.650 Y32.200
G1 X119.650 Y32.300
G1 X119.650 Y32.400
G1 X119.650 Y32.500
G1 X119.650 Y32.600
G1 X119.650 Y32.700
G1 X119.700 Y32.750
G1 X119.750 Y32.800
G1 X119.750 Y32.900
G1 X119.750 Y33.000
G1 X119.800 Y33.050
G1 X119.850 Y33.100
G1 X119.850 Y33.200
G1 X119.850 Y33.300
; --- Backlash X fix: 0.500mm ---
G0 X120.350 Y33.300 F200
G1 X120.400 Y33.350
G1 X120.450 Y33.400
G1 X120.450 Y33.500
G1 X120.500 Y33.550
G1 X120.550 Y33.600
G1 X120.600 Y33.650
G1 X120.650 Y33.700
G1 X120.650 Y33.800
G1 X120.700 Y33.850
G1 X120.750 Y33.900
G1 X120.800 Y33.950
G1 X120.850 Y34.000
G1 X120.900 Y34.050
G1 X120.950 Y34.100
G1 X121.000 Y34.150
G1 X121.050 Y34.200
G1 X121.100 Y34.250
G1 X121.150 Y34.300
G1 X121.200 Y34.350
G1 X121.300 Y34.350
G1 X121.350 Y34.400
G1 X121.400 Y34.450
G1 X121.450 Y34.500
G1 X121.500 Y34.550
G1 X121.600 Y34.550
G1 X121.650 Y34.600
G1 X121.700 Y34.650
G1 X121.800 Y34.650
G1 X121.850 Y34.700
G1 X121.900 Y34.750
G1 X122.000 Y34.750
G1 X122.100 Y34.750
G1 X122.150 Y34.800
G1 X122.200 Y34.850
G1 X122.300 Y34.850
G1 X122.400 Y34.850
G1 X122.500 Y34.850
G1 X122.600 Y34.850
G1 X122.700 Y34.850
G1 X122.800 Y34.850
G1 X122.900 Y34.850
G1 X123.000 Y34.850
G1 X123.100 Y34.850
G1 X123.200 Y34.850
G1 X123.300 Y34.850
G1 X123.400 Y34.850
G1 X123.500 Y34.850
G1 X123.600 Y34.850
; --- Backlash Y fix: -1.600mm ---
G0 X123.600 Y33.250 F200
G1 X123.650 Y33.200
G1 X123.700 Y33.150
G1 X123.800 Y33.150
G1 X123.900 Y33.150
G1 X123.950 Y33.100
G1 X124.000 Y33.050
G1 X124.100 Y33.050
G1 X124.150 Y33.000
G1 X124.200 Y32.950
G1 X124.300 Y32.950
G1 X124.350 Y32.900
G1 X124.400 Y32.850
G1 X124.450 Y32.800
G1 X124.500 Y32.750
G1 X124.600 Y32.750
G1 X124.650 Y32.700
G1 X124.700 Y32.650
G1 X124.750 Y32.600
G1 X124.800 Y32.550
G1 X124.850 Y32.500
G1 X124.900 Y32.450
G1 X124.950 Y32.400
G1 X125.000 Y32.350
G1 X125.050 Y32.300
G1 X125.100 Y32.250
G1 X125.150 Y32.200
G1 X125.150 Y32.100
G1 X125.200 Y32.050
G1 X125.250 Y32.000
G1 X125.300 Y31.950
G1 X125.350 Y31.900
G1 X125.350 Y31.800
G1 X125.400 Y31.750
G1 X125.450 Y31.700
G1 X125.450 Y31.600
G1 X125.500 Y31.550
G1 X125.550 Y31.500
G1 X125.550 Y31.400
G1 X125.550 Y31.300
G1 X125.600 Y31.250
G1 X125.650 Y31.200
G1 X125.650 Y31.100
G1 X125.650 Y31.000
G1 X125.650 Y30.900
G1 X125.650 Y30.800
G1 X125.650 Y30.700
G1 X125.650 Y30.600
G1 X125.650 Y30.500
G1 X125.650 Y30.400
G1 X125.650 Y30.300
G1 X125.650 Y30.200
G1 X125.650 Y30.100
G1 X125.650 Y30.000
G1 X125.650 Y29.900
G1 X125.650 Y29.800
; --- Backlash X fix: -0.500mm ---
G0 X125.150 Y29.800 F200
G1 X125.100 Y29.750
G1 X125.050 Y29.700
G1 X125.050 Y29.600
G1 X125.050 Y29.500
G1 X125.000 Y29.450
G1 X124.950 Y29.400
G1 X124.950 Y29.300
G1 X124.900 Y29.250
G1 X124.850 Y29.200
G1 X124.850 Y29.100
G1 X124.800 Y29.050
G1 X124.750 Y29.000
G1 X124.700 Y28.950
G1 X124.650 Y28.900
G1 X124.650 Y28.800
G1 X124.600 Y28.750
G1 X124.550 Y28.700
G1 X124.500 Y28.650
G1 X124.450 Y28.600
G1 X124.400 Y28.550
G1 X124.350 Y28.500
G1 X124.300 Y28.450
G1 X124.250 Y28.400
G0 Z4.600 F3000
M400
M204 P12000 T12000
G1 F12000
; --- Backlash X fix: 0.500mm ---
G0 X124.750 Y28.400 F200
G0 X125.950 Y28.400 Z4.600
M400
M204 P200 T200
G1 F400
G1 Z0.000 F2500
; --- Backlash Y fix: 1.600mm ---
G0 X125.950 Y30.000 F200
G1 X125.950 Y30.100
G1 X126.000 Y30.150
G1 X126.050 Y30.200
G1 X126.100 Y30.250
G1 X126.150 Y30.300
G1 X126.200 Y30.350
G1 X126.250 Y30.400
G1 X126.300 Y30.450
G1 X126.350 Y30.500
G1 X126.400 Y30.550
G1 X126.450 Y30.600
G1 X126.500 Y30.650
G1 X126.550 Y30.700
G1 X126.600 Y30.750
G1 X126.650 Y30.800
G1 X126.700 Y30.850
G1 X126.800 Y30.850
G1 X126.850 Y30.900
G1 X126.900 Y30.950
G1 X127.000 Y30.950
G1 X127.050 Y31.000
G1 X127.100 Y31.050
G1 X127.200 Y31.050
G1 X127.250 Y31.100
G1 X127.300 Y31.150
G1 X127.400 Y31.150
G1 X127.500 Y31.150
G1 X127.550 Y31.200
G1 X127.600 Y31.250
G1 X127.700 Y31.250
G1 X127.800 Y31.250
G1 X127.900 Y31.250
G1 X128.000 Y31.250
G1 X128.100 Y31.250
G1 X128.150 Y31.300
G1 X128.200 Y31.350
G1 X128.300 Y31.350
G1 X128.400 Y31.350
; --- Backlash Y fix: -1.600mm ---
G0 X128.400 Y29.750 F200
G1 X128.450 Y29.700
G1 X128.500 Y29.650
G1 X128.600 Y29.650
G1 X128.700 Y29.650
G1 X128.800 Y29.650
G1 X128.900 Y29.650
G1 X129.000 Y29.650
G1 X129.050 Y29.600
G1 X129.100 Y29.550
G1 X129.200 Y29.550
G1 X129.300 Y29.550
G1 X129.350 Y29.500
G1 X129.400 Y29.450
G1 X129.500 Y29.450
G1 X129.550 Y29.400
G1 X129.600 Y29.350
G1 X129.700 Y29.350
G1 X129.750 Y29.300
G1 X129.800 Y29.250
G1 X129.900 Y29.250
G1 X129.950 Y29.200
G1 X130.000 Y29.150
G1 X130.050 Y29.100
G1 X130.100 Y29.050
G1 X130.150 Y29.000
G1 X130.200 Y28.950
G1 X130.250 Y28.900
G1 X130.300 Y28.850
G1 X130.350 Y28.800
G1 X130.400 Y28.750
G1 X130.450 Y28.700
G1 X130.500 Y28.650
G1 X130.550 Y28.600
G1 X130.600 Y28.550
G1 X130.650 Y28.500
G1 X130.650 Y28.400
G0 Z4.600 F3000
M400
M204 P12000 T12000
G1 F12000
G0 X132.550 Y28.400 Z4.600
M400
M204 P200 T200
G1 F400
G1 Z0.000 F2500
; --- Backlash X fix: -0.500mm ---
G0 X132.050 Y28.400 F200
; --- Backlash Y fix: 1.600mm ---
G0 X132.050 Y30.000 F200
G1 X132.000 Y30.050
G1 X131.950 Y30.100
G1 X131.950 Y30.200
G1 X131.900 Y30.250
G1 X131.850 Y30.300
G1 X131.800 Y30.350
G1 X131.750 Y30.400
G1 X131.750 Y30.500
G1 X131.700 Y30.550
G1 X131.650 Y30.600
G1 X131.650 Y30.700
G1 X131.650 Y30.800
G1 X131.650 Y30.900
G1 X131.600 Y30.950
G1 X131.550 Y31.000
G1 X131.550 Y31.100
G1 X131.550 Y31.200
G1 X131.550 Y31.300
G1 X131.550 Y31.400
G1 X131.550 Y31.500
G1 X131.550 Y31.600
G1 X131.600 Y31.650
; --- Backlash X fix: 0.500mm ---
G0 X132.100 Y31.650 F200
G1 X132.150 Y31.700
G1 X132.150 Y31.800
G1 X132.150 Y31.900
G1 X132.150 Y32.000
G1 X132.200 Y32.050
G1 X132.250 Y32.100
G1 X132.250 Y32.200
G1 X132.300 Y32.250
G1 X132.350 Y32.300
G1 X132.350 Y32.400
G1 X132.400 Y32.450
G1 X132.450 Y32.500
G1 X132.500 Y32.550
G1 X132.550 Y32.600
G1 X132.550 Y32.700
G1 X132.600 Y32.750
G1 X132.650 Y32.800
G1 X132.700 Y32.850
G1 X132.800 Y32.850
G1 X132.850 Y32.900
G1 X132.900 Y32.950
G1 X132.950 Y33.000
G1 X133.000 Y33.050
G1 X133.050 Y33.100
G1 X133.100 Y33.150
G1 X133.200 Y33.150
G1 X133.250 Y33.200
G1 X133.300 Y33.250
G1 X133.400 Y33.250
G1 X133.500 Y33.250
G1 X133.550 Y33.300
G1 X133.600 Y33.350
G1 X133.700 Y33.350
G1 X133.800 Y33.350
G1 X133.900 Y33.350
G1 X134.000 Y33.350
G1 X134.100 Y33.350
G1 X134.200 Y33.350
G1 X134.300 Y33.350
G1 X134.400 Y33.350
G1 X134.500 Y33.350
G1 X134.600 Y33.350
G1 X134.700 Y33.350
; --- Backlash Y fix: -1.600mm ---
G0 X134.700 Y31.750 F200
G1 X134.750 Y31.700
G1 X134.800 Y31.650
G1 X134.900 Y31.650
G1 X134.950 Y31.600
G1 X135.000 Y31.550
G1 X135.100 Y31.550
G1 X135.150 Y31.500
G1 X135.200 Y31.450
G1 X135.300 Y31.450
G1 X135.350 Y31.400
G1 X135.400 Y31.350
G1 X135.450 Y31.300
G1 X135.500 Y31.250
G1 X135.550 Y31.200
G1 X135.600 Y31.150
G1 X135.650 Y31.100
G1 X135.700 Y31.050
G1 X135.750 Y31.000
G1 X135.800 Y30.950
G1 X135.850 Y30.900
G1 X135.850 Y30.800
G1 X135.900 Y30.750
G1 X135.950 Y30.700
G1 X136.000 Y30.650
G1 X136.050 Y30.600
G1 X136.050 Y30.500
G1 X136.050 Y30.400
G1 X136.100 Y30.350
G1 X136.150 Y30.300
G1 X136.150 Y30.200
G1 X136.150 Y30.100
G1 X136.150 Y30.000
G1 X136.150 Y29.900
G1 X136.150 Y29.800
G1 X136.150 Y29.700
G1 X136.150 Y29.600
G1 X136.150 Y29.500
G1 X136.150 Y29.400
G1 X136.150 Y29.300
G1 X136.150 Y29.200
G1 X136.150 Y29.100
; --- Backlash X fix: -0.500mm ---
G0 X135.650 Y29.100 F200
G1 X135.600 Y29.050
G1 X135.550 Y29.000
G1 X135.550 Y28.900
G1 X135.500 Y28.850
G1 X135.450 Y28.800
G1 X135.450 Y28.700
G1 X135.400 Y28.650
G1 X135.350 Y28.600
G1 X135.300 Y28.550
G1 X135.250 Y28.500
G1 X135.250 Y28.400
G0 Z4.600 F3000
M400
M204 P12000 T12000
G1 F12000
; --- Backlash X fix: 0.500mm ---
G0 X135.750 Y28.400 F200
; --- Backlash Y fix: 1.600mm ---
G0 X135.750 Y30.000 F200
G0 X139.350 Y36.100 Z4.600
M400
M204 P200 T200
G1 F400
G1 Z0.000 F2500
G1 X139.400 Y36.150
G1 X139.500 Y36.150
G1 X139.600 Y36.150
G1 X139.700 Y36.150
G1 X139.800 Y36.150
G1 X139.900 Y36.150
G1 X140.000 Y36.150
G1 X140.100 Y36.150
G1 X140.200 Y36.150
G1 X140.300 Y36.150
G1 X140.400 Y36.150
G1 X140.500 Y36.150
G1 X140.550 Y36.100
; --- Backlash Y fix: -1.600mm ---
G0 X140.550 Y34.500 F200
G1 X140.600 Y34.450
G1 X140.700 Y34.450
G1 X140.800 Y34.450
G1 X140.850 Y34.400
G1 X140.900 Y34.350
G1 X141.000 Y34.350
G1 X141.050 Y34.300
G1 X141.100 Y34.250
G1 X141.150 Y34.200
G1 X141.200 Y34.150
G1 X141.250 Y34.100
G1 X141.300 Y34.050
G1 X141.350 Y34.000
G1 X141.400 Y33.950
G1 X141.450 Y33.900
G1 X141.500 Y33.850
G1 X141.550 Y33.800
G1 X141.600 Y33.750
G1 X141.650 Y33.700
G1 X141.700 Y33.650
G1 X141.750 Y33.600
G1 X141.750 Y33.500
G1 X141.800 Y33.450
G1 X141.850 Y33.400
G1 X141.850 Y33.300
G1 X141.850 Y33.200
G1 X141.900 Y33.150
G1 X141.950 Y33.100
G1 X141.950 Y33.000
G1 X141.950 Y32.900
G1 X141.950 Y32.800
G1 X141.950 Y32.700
G1 X141.950 Y32.600
G1 X141.950 Y32.500
G1 X141.950 Y32.400
G1 X141.950 Y32.300
G1 X141.950 Y32.200
G1 X141.950 Y32.100
G1 X141.950 Y32.000
G1 X141.900 Y31.950
; --- Backlash X fix: -0.500mm ---
G0 X141.400 Y31.950 F200
G1 X141.350 Y31.900
G1 X141.350 Y31.800
G1 X141.300 Y31.750
G1 X141.250 Y31.700
G1 X141.250 Y31.600
G1 X141.200 Y31.550
G1 X141.150 Y31.500
G1 X141.150 Y31.400
G1 X141.100 Y31.350
G1 X141.050 Y31.300
G1 X141.000 Y31.250
G1 X140.950 Y31.200
G1 X140.900 Y31.150
G1 X140.850 Y31.100
G1 X140.800 Y31.050
G1 X140.750 Y31.000
G1 X140.700 Y30.950
G1 X140.650 Y30.900
G1 X140.600 Y30.850
G1 X140.500 Y30.850
G1 X140.450 Y30.800
G1 X140.400 Y30.750
G1 X140.300 Y30.750
G1 X140.250 Y30.700
G1 X140.200 Y30.650
G1 X140.100 Y30.650
G1 X140.000 Y30.650
G1 X139.950 Y30.600
G1 X139.900 Y30.550
G1 X139.800 Y30.550
G1 X139.700 Y30.550
G1 X139.600 Y30.550
G1 X139.500 Y30.550
G1 X139.400 Y30.550
G1 X139.300 Y30.550
G1 X139.200 Y30.550
G1 X139.100 Y30.550
; --- Backlash Y fix: 1.600mm ---
G0 X139.100 Y32.150 F200
G1 X139.050 Y32.200
G1 X139.000 Y32.250
G1 X138.900 Y32.250
G1 X138.800 Y32.250
G1 X138.750 Y32.300
G1 X138.700 Y32.350
G1 X138.600 Y32.350
G1 X138.550 Y32.400
G1 X138.500 Y32.450
G1 X138.400 Y32.450
G1 X138.350 Y32.500
G1 X138.300 Y32.550
G1 X138.250 Y32.600
G1 X138.200 Y32.650
G1 X138.100 Y32.650
G1 X138.050 Y32.700
G1 X138.000 Y32.750
G1 X137.950 Y32.800
G1 X137.950 Y32.900
G1 X137.900 Y32.950
G1 X137.850 Y33.000
G1 X137.800 Y33.050
G1 X137.750 Y33.100
G1 X137.750 Y33.200
G1 X137.700 Y33.250
G1 X137.650 Y33.300
G1 X137.650 Y33.400
G1 X137.600 Y33.450
G1 X137.550 Y33.500
G1 X137.550 Y33.600
G1 X137.550 Y33.700
G1 X137.500 Y33.750
G1 X137.450 Y33.800
G1 X137.450 Y33.900
G1 X137.450 Y34.000
G1 X137.450 Y34.100
G1 X137.450 Y34.200
G1 X137.450 Y34.300
G1 X137.450 Y34.400
G1 X137.450 Y34.500
; --- Backlash X fix: 0.500mm ---
G0 X137.950 Y34.500 F200
G1 X138.000 Y34.550
G1 X138.050 Y34.600
G1 X138.050 Y34.700
G1 X138.050 Y34.800
G1 X138.050 Y34.900
G1 X138.100 Y34.950
G1 X138.150 Y35.000
G1 X138.150 Y35.100
G1 X138.200 Y35.150
G1 X138.250 Y35.200
G1 X138.300 Y35.250
G1 X138.350 Y35.300
G1 X138.350 Y35.400
G1 X138.400 Y35.450
G1 X138.450 Y35.500
G1 X138.500 Y35.550
G1 X138.550 Y35.600
G1 X138.600 Y35.650
G1 X138.650 Y35.700
G1 X138.700 Y35.750
G1 X138.750 Y35.800
G1 X138.800 Y35.850
G1 X138.900 Y35.850
G1 X138.950 Y35.900
G1 X139.000 Y35.950
G1 X139.100 Y35.950
G1 X139.150 Y36.000
G1 X139.200 Y36.050
G1 X139.300 Y36.050
G1 X139.350 Y36.100
G0 Z4.600 F3000
M400
M204 P12000 T12000
G1 F12000
; --- Backlash X fix: -0.500mm ---
G0 X138.850 Y36.100 F200
G0 X133.850 Y39.800 Z4.600
M400
M204 P200 T200
G1 F400
G1 Z0.000 F2500
; --- Backlash X fix: 0.500mm ---
G0 X134.350 Y39.800 F200
G1 X134.400 Y39.850
G1 X134.500 Y39.850
G1 X134.600 Y39.850
G1 X134.700 Y39.850
G1 X134.800 Y39.850
; --- Backlash Y fix: -1.600mm ---
G0 X134.800 Y38.250 F200
G1 X134.850 Y38.200
G1 X134.900 Y38.150
G1 X135.000 Y38.150
G1 X135.100 Y38.150
G1 X135.200 Y38.150
G1 X135.250 Y38.100
G1 X135.300 Y38.050
G1 X135.400 Y38.050
G1 X135.500 Y38.050
G1 X135.550 Y38.000
G1 X135.600 Y37.950
G1 X135.650 Y37.900
G1 X135.700 Y37.850
G1 X135.800 Y37.850
G1 X135.850 Y37.800
G1 X135.900 Y37.750
G1 X135.950 Y37.700
G1 X136.000 Y37.650
G1 X136.050 Y37.600
G1 X136.100 Y37.550
G1 X136.150 Y37.500
G1 X136.200 Y37.450
G1 X136.250 Y37.400
G1 X136.250 Y37.300
G1 X136.300 Y37.250
G1 X136.350 Y37.200
G1 X136.350 Y37.100
G1 X136.400 Y37.050
G1 X136.450 Y37.000
G1 X136.450 Y36.900
G1 X136.500 Y36.850
G1 X136.550 Y36.800
G1 X136.550 Y36.700
G1 X136.550 Y36.600
G1 X136.550 Y36.500
G1 X136.550 Y36.400
G1 X136.600 Y36.350
G1 X136.650 Y36.300
G1 X136.650 Y36.200
G1 X136.650 Y36.100
; --- Backlash X fix: -0.500mm ---
G0 X136.150 Y36.100 F200
G1 X136.100 Y36.050
G1 X136.050 Y36.000
G1 X136.050 Y35.900
G1 X136.050 Y35.800
G1 X136.050 Y35.700
G1 X136.050 Y35.600
G1 X136.000 Y35.550
G1 X135.950 Y35.500
G1 X135.950 Y35.400
G1 X135.900 Y35.350
G1 X135.850 Y35.300
G1 X135.850 Y35.200
G1 X135.800 Y35.150
G1 X135.750 Y35.100
G1 X135.750 Y35.000
G1 X135.700 Y34.950
G1 X135.650 Y34.900
G1 X135.600 Y34.850
G1 X135.550 Y34.800
G1 X135.500 Y34.750
G1 X135.450 Y34.700
G1 X135.400 Y34.650
G1 X135.350 Y34.600
G1 X135.300 Y34.550
G1 X135.200 Y34.550
G1 X135.150 Y34.500
G1 X135.100 Y34.450
G1 X135.000 Y34.450
G1 X134.950 Y34.400
G1 X134.900 Y34.350
G1 X134.800 Y34.350
G1 X134.750 Y34.300
G1 X134.700 Y34.250
G1 X134.600 Y34.250
G1 X134.500 Y34.250
G1 X134.400 Y34.250
G1 X134.350 Y34.200
G1 X134.300 Y34.150
G1 X134.200 Y34.150
G1 X134.100 Y34.150
G1 X134.000 Y34.150
G1 X133.900 Y34.150
G1 X133.850 Y34.200
; --- Backlash Y fix: 1.600mm ---
G0 X133.850 Y35.800 F200
G1 X133.800 Y35.850
G1 X133.700 Y35.850
G1 X133.600 Y35.850
G1 X133.500 Y35.850
G1 X133.450 Y35.900
G1 X133.400 Y35.950
G1 X133.300 Y35.950
G1 X133.200 Y35.950
G1 X133.150 Y36.000
G1 X133.100 Y36.050
G1 X133.050 Y36.100
G1 X133.000 Y36.150
G1 X132.900 Y36.150
G1 X132.850 Y36.200
G1 X132.800 Y36.250
G1 X132.750 Y36.300
G1 X132.700 Y36.350
G1 X132.650 Y36.400
G1 X132.600 Y36.450
G1 X132.550 Y36.500
G1 X132.500 Y36.550
G1 X132.450 Y36.600
G1 X132.400 Y36.650
G1 X132.350 Y36.700
G1 X132.350 Y36.800
G1 X132.300 Y36.850
G1 X132.250 Y36.900
G1 X132.250 Y37.000
G1 X132.200 Y37.050
G1 X132.150 Y37.100
G1 X132.150 Y37.200
G1 X132.150 Y37.300
G1 X132.150 Y37.400
G1 X132.100 Y37.450
G1 X132.050 Y37.500
G1 X132.050 Y37.600
G1 X132.050 Y37.700
G1 X132.050 Y37.800
G1 X132.050 Y37.900
G1 X132.050 Y38.000
G1 X132.050 Y38.100
G1 X132.100 Y38.150
; --- Backlash X fix: 0.500mm ---
G0 X132.600 Y38.150 F200
G1 X132.650 Y38.200
G1 X132.650 Y38.300
G1 X132.650 Y38.400
G1 X132.650 Y38.500
G1 X132.700 Y38.550
G1 X132.750 Y38.600
G1 X132.750 Y38.700
G1 X132.800 Y38.750
G1 X132.850 Y38.800
G1 X132.850 Y38.900
G1 X132.900 Y38.950
G1 X132.950 Y39.000
G1 X133.000 Y39.050
G1 X133.050 Y39.100
G1 X133.100 Y39.150
G1 X133.150 Y39.200
G1 X133.200 Y39.250
G1 X133.250 Y39.300
G1 X133.300 Y39.350
G1 X133.350 Y39.400
G1 X133.400 Y39.450
G1 X133.450 Y39.500
G1 X133.500 Y39.550
G1 X133.600 Y39.550
G1 X133.650 Y39.600
G1 X133.700 Y39.650
G1 X133.800 Y39.650
G1 X133.900 Y39.650
G1 X133.950 Y39.700
G1 X134.000 Y39.750
G1 X134.100 Y39.750
G1 X134.200 Y39.750
G1 X134.300 Y39.750
G1 X134.350 Y39.800
G0 Z4.600 F3000
M400
M204 P12000 T12000
G1 F12000
G0 X140.050 Y42.600 Z4.600
M400
M204 P200 T200
G1 F400
G1 Z0.000 F2500
G1 X140.100 Y42.650
G1 X140.200 Y42.650
G1 X140.300 Y42.650
G1 X140.400 Y42.650
G1 X140.500 Y42.650
G1 X140.600 Y42.650
G1 X140.700 Y42.650
G1 X140.750 Y42.600
; --- Backlash Y fix: -1.600mm ---
G0 X140.750 Y41.000 F200
G1 X140.800 Y40.950
G1 X140.900 Y40.950
G1 X141.000 Y40.950
G1 X141.100 Y40.950
G1 X141.150 Y40.900
G1 X141.200 Y40.850
G1 X141.300 Y40.850
G1 X141.350 Y40.800
G1 X141.400 Y40.750
G1 X141.500 Y40.750
G1 X141.550 Y40.700
G1 X141.600 Y40.650
G1 X141.650 Y40.600
G1 X141.700 Y40.550
G1 X141.750 Y40.500
G1 X141.800 Y40.450
G1 X141.850 Y40.400
G1 X141.900 Y40.350
G1 X141.950 Y40.300
G1 X142.000 Y40.250
G1 X142.050 Y40.200
G1 X142.100 Y40.150
G1 X142.150 Y40.100
G1 X142.150 Y40.000
G1 X142.200 Y39.950
G1 X142.250 Y39.900
G1 X142.250 Y39.800
G1 X142.250 Y39.700
G1 X142.300 Y39.650
G1 X142.350 Y39.600
G1 X142.350 Y39.500
G1 X142.350 Y39.400
G1 X142.350 Y39.300
G1 X142.350 Y39.200
G1 X142.400 Y39.150
G1 X142.450 Y39.100
G1 X142.450 Y39.000
G1 X142.400 Y38.950
; --- Backlash X fix: -0.500mm ---
G0 X141.900 Y38.950 F200
G1 X141.850 Y38.900
G1 X141.850 Y38.800
G1 X141.850 Y38.700
G1 X141.850 Y38.600
G1 X141.850 Y38.500
G1 X141.800 Y38.450
G1 X141.750 Y38.400
G1 X141.750 Y38.300
G1 X141.750 Y38.200
G1 X141.700 Y38.150
G1 X141.650 Y38.100
G1 X141.650 Y38.000
G1 X141.600 Y37.950
G1 X141.550 Y37.900
G1 X141.500 Y37.850
G1 X141.450 Y37.800
G1 X141.400 Y37.750
G1 X141.350 Y37.700
G1 X141.300 Y37.650
G1 X141.250 Y37.600
G1 X141.200 Y37.550
G1 X141.150 Y37.500
G1 X141.100 Y37.450
G1 X141.050 Y37.400
G1 X141.000 Y37.350
G1 X140.900 Y37.350
G1 X140.850 Y37.300
G1 X140.800 Y37.250
G1 X140.700 Y37.250
G1 X140.650 Y37.200
G1 X140.600 Y37.150
G1 X140.500 Y37.150
G1 X140.400 Y37.150
G1 X140.300 Y37.150
G1 X140.250 Y37.100
G1 X140.200 Y37.050
G1 X140.100 Y37.050
G1 X140.000 Y37.050
G1 X139.900 Y37.050
G1 X139.800 Y37.050
G1 X139.700 Y37.050
G1 X139.600 Y37.050
; --- Backlash Y fix: 1.600mm ---
G0 X139.600 Y38.650 F200
G1 X139.550 Y38.700
G1 X139.500 Y38.750
G1 X139.400 Y38.750
G1 X139.300 Y38.750
G1 X139.250 Y38.800
G1 X139.200 Y38.850
G1 X139.100 Y38.850
G1 X139.000 Y38.850
G1 X138.950 Y38.900
G1 X138.900 Y38.950
G1 X138.850 Y39.000
G1 X138.800 Y39.050
G1 X138.700 Y39.050
G1 X138.650 Y39.100
G1 X138.600 Y39.150
G1 X138.550 Y39.200
G1 X138.500 Y39.250
G1 X138.450 Y39.300
G1 X138.400 Y39.350
G1 X138.350 Y39.400
G1 X138.350 Y39.500
G1 X138.300 Y39.550
G1 X138.250 Y39.600
G1 X138.200 Y39.650
G1 X138.150 Y39.700
G1 X138.150 Y39.800
G1 X138.100 Y39.850
G1 X138.050 Y39.900
G1 X138.050 Y40.000
G1 X138.050 Y40.100
G1 X138.000 Y40.150
G1 X137.950 Y40.200
G1 X137.950 Y40.300
G1 X137.950 Y40.400
G1 X137.950 Y40.500
G1 X137.950 Y40.600
G1 X137.950 Y40.700
G1 X137.950 Y40.800
G1 X137.950 Y40.900
G1 X137.950 Y41.000
G1 X137.950 Y41.100
; --- Backlash X fix: 0.500mm ---
G0 X138.450 Y41.100 F200
G1 X138.500 Y41.150
G1 X138.550 Y41.200
G1 X138.550 Y41.300
G1 X138.550 Y41.400
G1 X138.600 Y41.450
G1 X138.650 Y41.500
G1 X138.650 Y41.600
G1 X138.700 Y41.650
G1 X138.750 Y41.700
G1 X138.800 Y41.750
G1 X138.850 Y41.800
G1 X138.850 Y41.900
G1 X138.900 Y41.950
G1 X138.950 Y42.000
G1 X139.000 Y42.050
G1 X139.050 Y42.100
G1 X139.100 Y42.150
G1 X139.150 Y42.200
G1 X139.200 Y42.250
G1 X139.300 Y42.250
G1 X139.350 Y42.300
G1 X139.400 Y42.350
G1 X139.450 Y42.400
G1 X139.500 Y42.450
G1 X139.600 Y42.450
G1 X139.700 Y42.450
G1 X139.750 Y42.500
G1 X139.800 Y42.550
G1 X139.900 Y42.550
G1 X140.000 Y42.550
G1 X140.050 Y42.600
G0 Z4.600 F3000
M400
M204 P12000 T12000
G1 F12000
G0 X145.750 Y45.400 Z4.600
M400
M204 P200 T200
G1 F400
G1 Z0.000 F2500
G1 X145.800 Y45.450
G1 X145.900 Y45.450
G1 X146.000 Y45.450
G1 X146.100 Y45.450
G1 X146.200 Y45.450
G1 X146.300 Y45.450
G1 X146.400 Y45.450
G1 X146.500 Y45.450
G1 X146.600 Y45.450
G1 X146.700 Y45.450
; --- Backlash Y fix: -1.600mm ---
G0 X146.700 Y43.850 F200
G1 X146.750 Y43.800
G1 X146.800 Y43.750
G1 X146.900 Y43.750
G1 X147.000 Y43.750
G1 X147.050 Y43.700
G1 X147.100 Y43.650
G1 X147.200 Y43.650
G1 X147.250 Y43.600
G1 X147.300 Y43.550
G1 X147.350 Y43.500
G1 X147.400 Y43.450
G1 X147.500 Y43.450
G1 X147.550 Y43.400
G1 X147.600 Y43.350
G1 X147.650 Y43.300
G1 X147.700 Y43.250
G1 X147.750 Y43.200
G1 X147.800 Y43.150
G1 X147.850 Y43.100
G1 X147.850 Y43.000
G1 X147.900 Y42.950
G1 X147.950 Y42.900
G1 X148.000 Y42.850
G1 X148.050 Y42.800
G1 X148.050 Y42.700
G1 X148.050 Y42.600
G1 X148.100 Y42.550
G1 X148.150 Y42.500
G1 X148.150 Y42.400
G1 X148.150 Y42.300
G1 X148.200 Y42.250
G1 X148.250 Y42.200
G1 X148.250 Y42.100
G1 X148.250 Y42.000
G1 X148.250 Y41.900
G1 X148.250 Y41.800
G1 X148.250 Y41.700
G1 X148.250 Y41.600
; --- Backlash X fix: -0.500mm ---
G0 X147.750 Y41.600 F200
G1 X147.700 Y41.550
G1 X147.650 Y41.500
G1 X147.650 Y41.400
G1 X147.650 Y41.300
G1 X147.600 Y41.250
G1 X147.550 Y41.200
G1 X147.550 Y41.100
G1 X147.550 Y41.000
G1 X147.500 Y40.950
G1 X147.450 Y40.900
G1 X147.400 Y40.850
G1 X147.350 Y40.800
G1 X147.350 Y40.700
G1 X147.300 Y40.650
G1 X147.250 Y40.600
G1 X147.200 Y40.550
G1 X147.150 Y40.500
G1 X147.100 Y40.450
G1 X147.050 Y40.400
G1 X147.000 Y40.350
G1 X146.950 Y40.300
G1 X146.900 Y40.250
G1 X146.800 Y40.250
G1 X146.750 Y40.200
G1 X146.700 Y40.150
G1 X146.600 Y40.150
G1 X146.550 Y40.100
G1 X146.500 Y40.050
G1 X146.400 Y40.050
G1 X146.300 Y40.050
G1 X146.250 Y40.000
G1 X146.200 Y39.950
G1 X146.100 Y39.950
G1 X146.000 Y39.950
G1 X145.900 Y39.950
G1 X145.800 Y39.950
G1 X145.700 Y39.950
G1 X145.600 Y39.950
G1 X145.500 Y39.950
G1 X145.400 Y39.950
G1 X145.300 Y39.950
; --- Backlash Y fix: 1.600mm ---
G0 X145.300 Y41.550 F200
G1 X145.250 Y41.600
G1 X145.200 Y41.650
G1 X145.100 Y41.650
G1 X145.000 Y41.650
G1 X144.950 Y41.700
G1 X144.900 Y41.750
G1 X144.800 Y41.750
G1 X144.750 Y41.800
G1 X144.700 Y41.850
G1 X144.650 Y41.900
G1 X144.600 Y41.950
G1 X144.500 Y41.950
G1 X144.450 Y42.000
G1 X144.400 Y42.050
G1 X144.350 Y42.100
G1 X144.300 Y42.150
G1 X144.250 Y42.200
G1 X144.250 Y42.300
G1 X144.200 Y42.350
G1 X144.150 Y42.400
G1 X144.100 Y42.450
G1 X144.050 Y42.500
G1 X144.050 Y42.600
G1 X144.000 Y42.650
G1 X143.950 Y42.700
G1 X143.950 Y42.800
G1 X143.900 Y42.850
G1 X143.850 Y42.900
G1 X143.850 Y43.000
G1 X143.850 Y43.100
G1 X143.850 Y43.200
G1 X143.850 Y43.300
G1 X143.850 Y43.400
G1 X143.850 Y43.500
G1 X143.850 Y43.600
G1 X143.850 Y43.700
G1 X143.850 Y43.800
G1 X143.850 Y43.900
G1 X143.850 Y44.000
G1 X143.850 Y44.100
; --- Backlash X fix: 0.500mm ---
G0 X144.350 Y44.100 F200
G1 X144.400 Y44.150
G1 X144.450 Y44.200
G1 X144.450 Y44.300
G1 X144.500 Y44.350
G1 X144.550 Y44.400
G1 X144.550 Y44.500
G1 X144.600 Y44.550
G1 X144.650 Y44.600
G1 X144.700 Y44.650
G1 X144.750 Y44.700
G1 X144.750 Y44.800
G1 X144.800 Y44.850
G1 X144.850 Y44.900
G1 X144.900 Y44.950
G1 X145.000 Y44.950
G1 X145.050 Y45.000
G1 X145.100 Y45.050
G1 X145.150 Y45.100
G1 X145.200 Y45.150
G1 X145.250 Y45.200
G1 X145.300 Y45.250
G1 X145.400 Y45.250
G1 X145.450 Y45.300
G1 X145.500 Y45.350
G1 X145.600 Y45.350
G1 X145.700 Y45.350
G1 X145.750 Y45.400
G0 Z4.600 F3000
M400
M204 P12000 T12000
G1 F12000
; --- Backlash X fix: -0.500mm ---
G0 X145.250 Y45.400 F200
; --- Backlash Y fix: -1.600mm ---
G0 X145.250 Y43.800 F200
G0 X144.950 Y37.400 Z4.600
M400
M204 P200 T200
G1 F400
G1 Z0.000 F2500
; --- Backlash X fix: 0.500mm ---
G0 X145.450 Y37.400 F200
G1 X145.500 Y37.450
G1 X145.600 Y37.450
G1 X145.700 Y37.450
G1 X145.800 Y37.450
G1 X145.900 Y37.450
G1 X146.000 Y37.450
G1 X146.100 Y37.450
G1 X146.150 Y37.400
G1 X146.200 Y37.350
G1 X146.300 Y37.350
G1 X146.400 Y37.350
G1 X146.500 Y37.350
G1 X146.550 Y37.300
G1 X146.600 Y37.250
G1 X146.700 Y37.250
G1 X146.750 Y37.200
G1 X146.800 Y37.150
G1 X146.900 Y37.150
G1 X146.950 Y37.100
G1 X147.000 Y37.050
G1 X147.050 Y37.000
G1 X147.100 Y36.950
G1 X147.150 Y36.900
G1 X147.200 Y36.850
G1 X147.250 Y36.800
G1 X147.300 Y36.750
G1 X147.350 Y36.700
G1 X147.400 Y36.650
G1 X147.450 Y36.600
G1 X147.500 Y36.550
G1 X147.550 Y36.500
G1 X147.550 Y36.400
G1 X147.600 Y36.350
G1 X147.650 Y36.300
G1 X147.650 Y36.200
G1 X147.700 Y36.150
G1 X147.750 Y36.100
G1 X147.750 Y36.000
G1 X147.750 Y35.900
G1 X147.750 Y35.800
G1 X147.800 Y35.750
G1 X147.850 Y35.700
G1 X147.850 Y35.600
G1 X147.850 Y35.500
G1 X147.850 Y35.400
G1 X147.850 Y35.300
G1 X147.850 Y35.200
G1 X147.850 Y35.100
G1 X147.800 Y35.050
; --- Backlash X fix: -0.500mm ---
G0 X147.300 Y35.050 F200
G1 X147.250 Y35.000
G1 X147.250 Y34.900
G1 X147.250 Y34.800
G1 X147.200 Y34.750
G1 X147.150 Y34.700
G1 X147.150 Y34.600
G1 X147.150 Y34.500
G1 X147.100 Y34.450
G1 X147.050 Y34.400
G1 X147.000 Y34.350
G1 X146.950 Y34.300
G1 X146.950 Y34.200
G1 X146.900 Y34.150
G1 X146.850 Y34.100
G1 X146.800 Y34.050
G1 X146.750 Y34.000
G1 X146.700 Y33.950
G1 X146.650 Y33.900
G1 X146.600 Y33.850
G1 X146.550 Y33.800
G1 X146.500 Y33.750
G1 X146.400 Y33.750
G1 X146.350 Y33.700
G1 X146.300 Y33.650
G1 X146.200 Y33.650
G1 X146.150 Y33.600
G1 X146.100 Y33.550
G1 X146.000 Y33.550
G1 X145.950 Y33.500
G1 X145.900 Y33.450
G1 X145.800 Y33.450
G1 X145.700 Y33.450
G1 X145.600 Y33.450
G1 X145.500 Y33.450
G1 X145.400 Y33.450
G1 X145.300 Y33.450
G1 X145.200 Y33.450
G1 X145.100 Y33.450
G1 X145.000 Y33.450
G1 X144.900 Y33.450
G1 X144.800 Y33.450
G1 X144.700 Y33.450
; --- Backlash Y fix: 1.600mm ---
G0 X144.700 Y35.050 F200
G1 X144.650 Y35.100
G1 X144.600 Y35.150
G1 X144.500 Y35.150
G1 X144.450 Y35.200
G1 X144.400 Y35.250
G1 X144.300 Y35.250
G1 X144.250 Y35.300
G1 X144.200 Y35.350
G1 X144.150 Y35.400
G1 X144.100 Y35.450
G1 X144.000 Y35.450
G1 X143.950 Y35.500
G1 X143.900 Y35.550
G1 X143.850 Y35.600
G1 X143.800 Y35.650
G1 X143.750 Y35.700
G1 X143.750 Y35.800
G1 X143.700 Y35.850
G1 X143.650 Y35.900
G1 X143.600 Y35.950
G1 X143.550 Y36.000
G1 X143.550 Y36.100
G1 X143.500 Y36.150
G1 X143.450 Y36.200
G1 X143.450 Y36.300
G1 X143.400 Y36.350
G1 X143.350 Y36.400
G1 X143.350 Y36.500
G1 X143.350 Y36.600
G1 X143.350 Y36.700
G1 X143.350 Y36.800
G1 X143.300 Y36.850
G1 X143.250 Y36.900
G1 X143.250 Y37.000
G1 X143.250 Y37.100
; --- Backlash X fix: 0.500mm ---
G0 X143.750 Y37.100 F200
G1 X143.800 Y37.150
G1 X143.850 Y37.200
G1 X143.850 Y37.300
G1 X143.850 Y37.400
G1 X143.850 Y37.500
G1 X143.850 Y37.600
G1 X143.900 Y37.650
G1 X143.950 Y37.700
G1 X143.950 Y37.800
G1 X143.950 Y37.900
G1 X144.000 Y37.950
G1 X144.050 Y38.000
G1 X144.100 Y38.050
G1 X144.150 Y38.100
G1 X144.150 Y38.200
G1 X144.200 Y38.250
G1 X144.250 Y38.300
G1 X144.300 Y38.350
G1 X144.350 Y38.400
G1 X144.400 Y38.450
G1 X144.450 Y38.500
G1 X144.500 Y38.550
G1 X144.550 Y38.600
G1 X144.600 Y38.650
G1 X144.650 Y38.700
G1 X144.700 Y38.750
G1 X144.800 Y38.750
G1 X144.850 Y38.800
G1 X144.900 Y38.850
G1 X145.000 Y38.850
G1 X145.050 Y38.900
G1 X145.100 Y38.950
G1 X145.200 Y38.950
G1 X145.300 Y38.950
G1 X145.400 Y38.950
G1 X145.450 Y39.000
G0 Z4.600 F3000
M400
M204 P12000 T12000
G1 F12000
G0 X150.000 Y41.800 Z4.600
M400
M204 P200 T200
G1 F400
G1 Z0.000 F2500
G1 X150.000 Y41.850
G1 X150.000 Y41.850
G1 X150.000 Y41.850
G1 X150.000 Y41.850
G1 X150.000 Y41.850
G1 X150.000 Y41.850
G1 X150.000 Y41.850
G1 X150.000 Y41.850
G1 X150.000 Y41.850
G1 X150.000 Y41.850
G1 X150.000 Y41.850
G1 X150.000 Y41.850
; --- Backlash Y fix: -1.600mm ---
G0 X150.000 Y40.250 F200
G1 X150.000 Y40.200
G1 X150.000 Y40.150
G1 X150.000 Y40.150
G1 X150.000 Y40.150
G1 X150.000 Y40.100
G1 X150.000 Y40.050
G1 X150.000 Y40.050
G1 X150.000 Y40.000
G1 X150.000 Y39.950
G1 X150.000 Y39.900
G1 X150.000 Y39.850
G1 X150.000 Y39.800
G1 X150.000 Y39.750
G1 X150.000 Y39.700
G1 X150.000 Y39.650
G1 X150.000 Y39.600
G1 X150.000 Y39.550
G1 X150.000 Y39.500
G1 X150.000 Y39.450
G1 X150.000 Y39.400
G1 X150.000 Y39.300
G1 X150.000 Y39.250
G1 X150.000 Y39.200
G1 X150.000 Y39.150
G1 X150.000 Y39.100
G1 X150.000 Y39.000
G1 X150.000 Y38.900
G1 X150.000 Y38.850
G1 X150.000 Y38.800
G1 X150.000 Y38.700
G1 X150.000 Y38.600
G1 X150.000 Y38.500
G1 X150.000 Y38.400
G1 X150.000 Y38.300
G1 X150.000 Y38.200
G1 X150.000 Y38.100
G1 X150.000 Y38.000
G1 X150.000 Y37.900
G1 X150.000 Y37.800
G1 X150.000 Y37.700
; --- Backlash X fix: -0.500mm ---
G0 X150.000 Y37.700 F200
G1 X150.000 Y37.650
G1 X150.000 Y37.600
G1 X150.000 Y37.500
G1 X150.000 Y37.450
G1 X150.000 Y37.400
G1 X150.000 Y37.300
G1 X150.000 Y37.250
G1 X150.000 Y37.200
G1 X150.000 Y37.100
G1 X150.000 Y37.050
G1 X150.000 Y37.000
G1 X150.000 Y36.950
G1 X150.000 Y36.900
G1 X150.000 Y36.850
G1 X150.000 Y36.800
G1 X150.000 Y36.750
G1 X150.000 Y36.700
G1 X150.000 Y36.650
G1 X150.000 Y36.600
G1 X150.000 Y36.550
G1 X150.000 Y36.550
G1 X150.000 Y36.500
G1 X150.000 Y36.450
G1 X150.000 Y36.450
G1 X150.000 Y36.400
G1 X150.000 Y36.350
G1 X150.000 Y36.350
G1 X150.000 Y36.350
G1 X150.000 Y36.300
G1 X150.000 Y36.250
G1 X150.000 Y36.250
G1 X150.000 Y36.250
G1 X150.000 Y36.250
G1 X150.000 Y36.250
G1 X150.000 Y36.250
G1 X150.000 Y36.250
G1 X150.000 Y36.250
G1 X150.000 Y36.250
G1 X150.000 Y36.250
G1 X150.000 Y36.300
; --- Backlash Y fix: 1.600mm ---
G0 X150.000 Y37.900 F200
G1 X150.000 Y37.950
G1 X150.000 Y37.950
G1 X150.000 Y37.950
G1 X150.000 Y38.000
G1 X150.000 Y38.050
G1 X150.000 Y38.050
G1 X150.000 Y38.100
G1 X150.000 Y38.150
G1 X150.000 Y38.150
G1 X149.950 Y38.200
G1 X149.900 Y38.250
G1 X149.850 Y38.300
G1 X149.800 Y38.350
G1 X149.750 Y38.400
G1 X149.700 Y38.450
G1 X149.650 Y38.500
G1 X149.600 Y38.550
G1 X149.550 Y38.600
G1 X149.500 Y38.650
G1 X149.450 Y38.700
G1 X149.450 Y38.800
G1 X149.400 Y38.850
G1 X149.350 Y38.900
G1 X149.350 Y39.000
G1 X149.300 Y39.050
G1 X149.250 Y39.100
G1 X149.250 Y39.200
G1 X149.200 Y39.250
G1 X149.150 Y39.300
G1 X149.150 Y39.400
G1 X149.150 Y39.500
G1 X149.150 Y39.600
G1 X149.150 Y39.700
G1 X149.150 Y39.800
G1 X149.150 Y39.900
G1 X149.150 Y40.000
G1 X149.150 Y40.100
G1 X149.150 Y40.200
G1 X149.150 Y40.300
G1 X149.150 Y40.400
G1 X149.200 Y40.450
; --- Backlash X fix: 0.500mm ---
G0 X149.700 Y40.450 F200
G1 X149.750 Y40.500
G1 X149.750 Y40.600
G1 X149.750 Y40.700
G1 X149.800 Y40.750
G1 X149.850 Y40.800
G1 X149.850 Y40.900
G1 X149.900 Y40.950
G1 X149.950 Y41.000
G1 X150.000 Y41.050
G1 X150.000 Y41.100
G1 X150.000 Y41.150
G1 X150.000 Y41.200
G1 X150.000 Y41.250
G1 X150.000 Y41.300
G1 X150.000 Y41.350
G1 X150.000 Y41.400
G1 X150.000 Y41.450
G1 X150.000 Y41.500
G1 X150.000 Y41.550
G1 X150.000 Y41.600
G1 X150.000 Y41.650
G1 X150.000 Y41.650
G1 X150.000 Y41.700
G1 X150.000 Y41.750
G1 X150.000 Y41.750
G1 X150.000 Y41.750
G1 X150.000 Y41.800
G0 Z4.600 F3000
M400
M204 P12000 T12000
G1 F12000
; --- Backlash X fix: -0.500mm ---
G0 X150.000 Y41.800 F200
; --- Backlash Y fix: -1.600mm ---
G0 X150.000 Y40.200 F200
G0 X150.000 Y33.800 Z4.600
M400
M204 P200 T200
G1 F400
G1 Z0.000 F2500
; --- Backlash X fix: 0.500mm ---
G0 X150.000 Y33.800 F200
; --- Backlash Y fix: 1.600mm ---
G0 X150.000 Y35.400 F200
G1 X150.000 Y35.450
G1 X150.000 Y35.450
G1 X150.000 Y35.450
G1 X150.000 Y35.450
G1 X150.000 Y35.450
G1 X150.000 Y35.450
G1 X150.000 Y35.450
G1 X150.000 Y35.450
; --- Backlash Y fix: -1.600mm ---
G0 X150.000 Y33.850 F200
G1 X150.000 Y33.800
G1 X150.000 Y33.750
G1 X150.000 Y33.750
G1 X150.000 Y33.750
G1 X150.000 Y33.750
G1 X150.000 Y33.700
G1 X150.000 Y33.650
G1 X150.000 Y33.650
G1 X150.000 Y33.600
G1 X150.000 Y33.550
G1 X150.000 Y33.550
G1 X150.000 Y33.500
G1 X150.000 Y33.450
G1 X150.000 Y33.400
G1 X150.000 Y33.350
G1 X150.000 Y33.300
G1 X150.000 Y33.250
G1 X150.000 Y33.200
G1 X150.000 Y33.150
G1 X150.000 Y33.100
G1 X150.000 Y33.050
G1 X150.000 Y33.000
G1 X150.000 Y32.950
G1 X150.000 Y32.900
G1 X150.000 Y32.800
G1 X150.000 Y32.750
G1 X150.000 Y32.700
G1 X150.000 Y32.600
G1 X150.000 Y32.550
G1 X150.000 Y32.500
G1 X150.000 Y32.400
G1 X150.000 Y32.300
G1 X150.000 Y32.250
G1 X150.000 Y32.200
G1 X150.000 Y32.100
G1 X150.000 Y32.000
G1 X150.000 Y31.900
G1 X150.000 Y31.800
G1 X150.000 Y31.700
G1 X150.000 Y31.600
G1 X150.000 Y31.500
G1 X150.000 Y31.400
; --- Backlash X fix: -0.500mm ---
G0 X150.000 Y31.400 F200
G1 X150.000 Y31.350
G1 X150.000 Y31.300
G1 X150.000 Y31.200
G1 X150.000 Y31.100
G1 X150.000 Y31.050
G1 X150.000 Y31.000
G1 X150.000 Y30.900
G1 X150.000 Y30.850
G1 X150.000 Y30.800
G1 X150.000 Y30.700
G1 X150.000 Y30.650
G1 X150.000 Y30.600
G1 X150.000 Y30.550
G1 X150.000 Y30.500
G1 X150.000 Y30.400
G1 X150.000 Y30.350
G1 X150.000 Y30.300
G1 X150.000 Y30.250
G1 X150.000 Y30.250
G1 X150.000 Y30.200
G1 X150.000 Y30.150
G1 X150.000 Y30.100
G1 X150.000 Y30.050
G1 X150.000 Y30.000
G1 X150.000 Y29.950
G1 X150.000 Y29.950
G1 X150.000 Y29.900
G1 X150.000 Y29.850
G1 X150.000 Y29.850
G1 X150.000 Y29.850
G1 X150.000 Y29.800
G1 X150.000 Y29.750
G1 X150.000 Y29.750
G1 X150.000 Y29.750
G1 X150.000 Y29.750
G1 X150.000 Y29.750
G1 X150.000 Y29.750
G1 X150.000 Y29.750
G1 X150.000 Y29.750
G1 X150.000 Y29.750
G1 X150.000 Y29.750
G1 X150.000 Y29.750
G1 X150.000 Y29.800
; --- Backlash Y fix: 1.600mm ---
G0 X150.000 Y31.400 F200
G1 X150.000 Y31.450
G1 X150.000 Y31.450
G1 X149.900 Y31.450
G1 X149.850 Y31.500
G1 X149.800 Y31.550
G1 X149.700 Y31.550
G1 X149.650 Y31.600
G1 X149.600 Y31.650
G1 X149.550 Y31.700
G1 X149.500 Y31.750
G1 X149.400 Y31.750
G1 X149.350 Y31.800
G1 X149.300 Y31.850
G1 X149.250 Y31.900
G1 X149.200 Y31.950
G1 X149.150 Y32.000
G1 X149.100 Y32.050
G1 X149.050 Y32.100
G1 X149.050 Y32.200
G1 X149.000 Y32.250
G1 X148.950 Y32.300
G1 X148.900 Y32.350
G1 X148.850 Y32.400
G1 X148.850 Y32.500
G1 X148.800 Y32.550
G1 X148.750 Y32.600
G1 X148.750 Y32.700
G1 X148.750 Y32.800
G1 X148.700 Y32.850
G1 X148.650 Y32.900
G1 X148.650 Y33.000
G1 X148.650 Y33.100
G1 X148.650 Y33.200
G1 X148.650 Y33.300
G1 X148.650 Y33.400
G1 X148.650 Y33.500
G1 X148.650 Y33.600
G1 X148.650 Y33.700
G1 X148.650 Y33.800
G1 X148.700 Y33.850
; --- Backlash X fix: 0.500mm ---
G0 X149.200 Y33.850 F200
G1 X149.250 Y33.900
G1 X149.250 Y34.000
G1 X149.250 Y34.100
G1 X149.300 Y34.150
G1 X149.350 Y34.200
G1 X149.350 Y34.300
G1 X149.400 Y34.350
G1 X149.450 Y34.400
G1 X149.450 Y34.500
G1 X149.500 Y34.550
G1 X149.550 Y34.600
G1 X149.600 Y34.650
G1 X149.650 Y34.700
G1 X149.700 Y34.750
G1 X149.750 Y34.800
G1 X149.800 Y34.850
G1 X149.850 Y34.900
G1 X149.900 Y34.950
G1 X149.950 Y35.000
G1 X150.000 Y35.050
G1 X150.000 Y35.100
G1 X150.000 Y35.150
G1 X150.000 Y35.150
G1 X150.000 Y35.200
G1 X150.000 Y35.250
G1 X150.000 Y35.250
G1 X150.000 Y35.300
G1 X150.000 Y35.350
G1 X150.000 Y35.350
G1 X150.000 Y35.350
G1 X150.000 Y35.400
G0 Z4.600 F3000
M400
M204 P12000 T12000
G1 F12000
G0 X150.000 Y38.200 Z4.600
M400
M204 P200 T200
G1 F400
G1 Z0.000 F2500
G1 X150.000 Y38.250
G1 X150.000 Y38.250
G1 X150.000 Y38.250
G1 X150.000 Y38.250
G1 X150.000 Y38.250
G1 X150.000 Y38.250
G1 X150.000 Y38.250
G1 X150.000 Y38.250
G1 X150.000 Y38.250
G1 X150.000 Y38.250
G1 X150.000 Y38.250
G1 X150.000 Y38.250
G1 X150.000 Y38.200
; --- Backlash Y fix: -1.600mm ---
G0 X150.000 Y36.600 F200
G1 X150.000 Y36.550
G1 X150.000 Y36.550
G1 X150.000 Y36.500
G1 X150.000 Y36.450
G1 X150.000 Y36.450
G1 X150.000 Y36.400
G1 X150.000 Y36.350
G1 X150.000 Y36.350
G1 X150.000 Y36.300
G1 X150.000 Y36.250
G1 X150.000 Y36.200
G1 X150.000 Y36.150
G1 X150.000 Y36.100
G1 X150.000 Y36.050
G1 X150.000 Y36.000
G1 X150.000 Y35.950
G1 X150.000 Y35.900
G1 X150.000 Y35.850
G1 X150.000 Y35.800
G1 X150.000 Y35.700
G1 X150.000 Y35.650
G1 X150.000 Y35.600
G1 X150.000 Y35.500
G1 X150.000 Y35.450
G1 X150.000 Y35.400
G1 X150.000 Y35.300
G1 X150.000 Y35.250
G1 X150.000 Y35.200
G1 X150.000 Y35.100
G1 X150.000 Y35.000
G1 X150.000 Y34.900
G1 X150.000 Y34.800
G1 X150.000 Y34.700
G1 X150.000 Y34.600
G1 X150.000 Y34.500
G1 X150.000 Y34.400
G1 X150.000 Y34.300
G1 X150.000 Y34.200
G1 X150.000 Y34.100
; --- Backlash X fix: -0.500mm ---
G0 X150.000 Y34.100 F200
G1 X150.000 Y34.050
G1 X150.000 Y34.000
G1 X150.000 Y33.900
G1 X150.000 Y33.800
G1 X150.000 Y33.750
G1 X150.000 Y33.700
G1 X150.000 Y33.600
G1 X150.000 Y33.550
G1 X150.000 Y33.500
G1 X150.000 Y33.450
G1 X150.000 Y33.400
G1 X150.000 Y33.350
G1 X150.000 Y33.300
G1 X150.000 Y33.200
G1 X150.000 Y33.150
G1 X150.000 Y33.150
G1 X150.000 Y33.100
G1 X150.000 Y33.050
G1 X150.000 Y33.000
G1 X150.000 Y32.950
G1 X150.000 Y32.900
G1 X150.000 Y32.850
G1 X150.000 Y32.850
G1 X150.000 Y32.800
G1 X150.000 Y32.750
G1 X150.000 Y32.750
G1 X150.000 Y32.700
G1 X150.000 Y32.650
G1 X150.000 Y32.650
G1 X150.000 Y32.650
G1 X150.000 Y32.650
G1 X150.000 Y32.600
G1 X150.000 Y32.550
G1 X150.000 Y32.550
G1 X150.000 Y32.550
G1 X150.000 Y32.550
G1 X150.000 Y32.550
G1 X150.000 Y32.550
; --- Backlash Y fix: 1.600mm ---
G0 X150.000 Y34.150 F200
G1 X150.000 Y34.200
G1 X150.000 Y34.250
G1 X150.000 Y34.250
G1 X150.000 Y34.250
G1 X150.000 Y34.250
G1 X150.000 Y34.300
G1 X150.000 Y34.350
G1 X150.000 Y34.350
G1 X150.000 Y34.400
G1 X150.000 Y34.450
G1 X150.000 Y34.450
G1 X150.000 Y34.500
G1 X150.000 Y34.550
G1 X150.000 Y34.550
G1 X150.000 Y34.600
G1 X150.000 Y34.650
G1 X150.000 Y34.700
G1 X150.000 Y34.750
G1 X150.000 Y34.800
G1 X150.000 Y34.850
G1 X150.000 Y34.900
G1 X150.000 Y34.950
G1 X150.000 Y35.000
G1 X150.000 Y35.100
G1 X150.000 Y35.150
G1 X150.000 Y35.200
G1 X150.000 Y35.300
G1 X150.000 Y35.350
G1 X150.000 Y35.400
G1 X150.000 Y35.500
G1 X150.000 Y35.550
G1 X150.000 Y35.600
G1 X150.000 Y35.700
G1 X150.000 Y35.800
G1 X150.000 Y35.900
G1 X150.000 Y35.950
G1 X150.000 Y36.000
G1 X150.000 Y36.100
G1 X150.000 Y36.200
G1 X150.000 Y36.300
G1 X150.000 Y36.400
G1 X150.000 Y36.500
; --- Backlash X fix: 0.500mm ---
G0 X150.000 Y36.500 F200
G1 X150.000 Y36.550
G1 X150.000 Y36.600
G1 X150.000 Y36.700
G1 X150.000 Y36.800
G1 X150.000 Y36.900
G1 X150.000 Y36.950
G1 X150.000 Y37.000
G1 X150.000 Y37.100
G1 X150.000 Y37.150
G1 X150.000 Y37.200
G1 X150.000 Y37.300
G1 X150.000 Y37.350
G1 X150.000 Y37.400
G1 X150.000 Y37.450
G1 X150.000 Y37.500
G1 X150.000 Y37.550
G1 X150.000 Y37.600
G1 X150.000 Y37.700
G1 X150.000 Y37.750
G1 X150.000 Y37.750
G1 X150.000 Y37.800
G1 X150.000 Y37.850
G1 X150.000 Y37.900
G1 X150.000 Y37.950
G1 X150.000 Y38.000
G1 X150.000 Y38.050
G1 X150.000 Y38.050
G1 X150.000 Y38.100
G1 X150.000 Y38.150
G1 X150.000 Y38.150
G1 X150.000 Y38.150
G1 X150.000 Y38.200
G0 Z4.600 F3000
M400
M204 P12000 T12000
G1 F12000
G0 X150.000 Y41.000 Z4.600
M400
M204 P200 T200
G1 F400
G1 Z0.000 F2500
G1 X150.000 Y41.050
G1 X150.000 Y41.050
G1 X150.000 Y41.050
G1 X150.000 Y41.050
G1 X150.000 Y41.050
G1 X150.000 Y41.050
G1 X150.000 Y41.050
G1 X150.000 Y41.050
G1 X150.000 Y41.050
G1 X150.000 Y41.050
G1 X150.000 Y41.050
G1 X150.000 Y41.050
G1 X150.000 Y41.000
G1 X150.000 Y40.950
G1 X150.000 Y40.950
G1 X150.000 Y40.950
; --- Backlash Y fix: -1.600mm ---
G0 X150.000 Y39.350 F200
G1 X150.000 Y39.300
G1 X150.000 Y39.250
G1 X150.000 Y39.250
G1 X150.000 Y39.200
G1 X150.000 Y39.150
G1 X150.000 Y39.100
G1 X150.000 Y39.050
G1 X150.000 Y39.000
G1 X150.000 Y38.950
G1 X150.000 Y38.950
G1 X150.000 Y38.900
G1 X150.000 Y38.800
G1 X150.000 Y38.750
G1 X150.000 Y38.700
G1 X150.000 Y38.650
G1 X150.000 Y38.600
G1 X150.000 Y38.550
G1 X150.000 Y38.500
G1 X150.000 Y38.400
G1 X150.000 Y38.350
G1 X150.000 Y38.300
G1 X150.000 Y38.200
G1 X150.000 Y38.100
G1 X150.000 Y38.050
G1 X150.000 Y38.000
G1 X150.000 Y37.900
G1 X150.000 Y37.800
G1 X150.000 Y37.700
G1 X150.000 Y37.600
G1 X150.000 Y37.500
G1 X150.000 Y37.400
G1 X150.000 Y37.300
G1 X150.000 Y37.200
G1 X150.000 Y37.100
G1 X150.000 Y37.000
G1 X150.000 Y36.900
G1 X150.000 Y36.850
; --- Backlash X fix: -0.500mm ---
G0 X150.000 Y36.850 F200
G1 X150.000 Y36.800
G1 X150.000 Y36.700
G1 X150.000 Y36.650
G1 X150.000 Y36.600
G1 X150.000 Y36.500
G1 X150.000 Y36.450
G1 X150.000 Y36.400
G1 X150.000 Y36.300
G1 X150.000 Y36.250
G1 X150.000 Y36.200
G1 X150.000 Y36.150
G1 X150.000 Y36.100
G1 X150.000 Y36.050
G1 X150.000 Y36.000
G1 X150.000 Y35.950
G1 X150.000 Y35.900
G1 X150.000 Y35.850
G1 X150.000 Y35.850
G1 X150.000 Y35.800
G1 X150.000 Y35.750
G1 X150.000 Y35.700
G1 X150.000 Y35.650
G1 X150.000 Y35.650
G1 X150.000 Y35.600
G1 X150.000 Y35.550
G1 X150.000 Y35.550
G1 X150.000 Y35.550
G1 X150.000 Y35.550
G1 X150.000 Y35.500
G1 X150.000 Y35.450
G1 X150.000 Y35.450
G1 X150.000 Y35.450
G1 X150.000 Y35.450
G1 X150.000 Y35.450
G1 X150.000 Y35.450
G1 X150.000 Y35.450
G1 X150.000 Y35.450
; --- Backlash Y fix: 1.600mm ---
G0 X150.000 Y37.050 F200
G1 X150.000 Y37.100
G1 X150.000 Y37.150
G1 X150.000 Y37.150
G1 X150.000 Y37.150
G1 X150.000 Y37.200
G1 X150.000 Y37.250
G1 X150.000 Y37.250
G1 X150.000 Y37.300
G1 X150.000 Y37.350
G1 X150.000 Y37.350
G1 X150.000 Y37.400
G1 X150.000 Y37.450
G1 X150.000 Y37.500
G1 X150.000 Y37.550
G1 X150.000 Y37.550
G1 X150.000 Y37.600
G1 X150.000 Y37.650
G1 X150.000 Y37.700
G1 X150.000 Y37.800
G1 X150.000 Y37.850
G1 X150.000 Y37.900
G1 X150.000 Y37.950
G1 X150.000 Y38.000
G1 X150.000 Y38.100
G1 X150.000 Y38.150
G1 X150.000 Y38.200
G1 X150.000 Y38.300
G1 X150.000 Y38.350
G1 X150.000 Y38.400
G1 X150.000 Y38.500
G1 X150.000 Y38.600
G1 X150.000 Y38.650
G1 X150.000 Y38.700
G1 X150.000 Y38.800
G1 X150.000 Y38.900
G1 X150.000 Y39.000
G1 X150.000 Y39.100
G1 X150.000 Y39.200
G1 X150.000 Y39.300
G1 X150.000 Y39.400
G1 X150.000 Y39.500
; --- Backlash X fix: 0.500mm ---
G0 X150.000 Y39.500 F200
G1 X150.000 Y39.550
G1 X150.000 Y39.600
G1 X150.000 Y39.700
G1 X150.000 Y39.800
G1 X150.000 Y39.850
G1 X150.000 Y39.900
G1 X150.000 Y40.000
G1 X150.000 Y40.050
G1 X150.000 Y40.100
G1 X150.000 Y40.200
G1 X150.000 Y40.250
G1 X150.000 Y40.300
G1 X150.000 Y40.350
G1 X150.000 Y40.400
G1 X150.000 Y40.450
G1 X150.000 Y40.500
G1 X150.000 Y40.550
G1 X150.000 Y40.600
G1 X150.000 Y40.650
G1 X150.000 Y40.700
G1 X150.000 Y40.750
G1 X150.000 Y40.750
G1 X150.000 Y40.800
G1 X150.000 Y40.850
G1 X150.000 Y40.900
G1 X150.000 Y40.950
G1 X150.000 Y40.950
G1 X150.000 Y40.950
G1 X150.000 Y41.000
G0 Z4.600 F3000
M400
M204 P12000 T12000
G1 F12000
; --- Backlash X fix: -0.500mm ---
G0 X150.000 Y41.000 F200
G0 X150.000 Y44.700 Z4.600
M400
M204 P200 T200
G1 F400
G1 Z0.000 F2500
; --- Backlash X fix: 0.500mm ---
G0 X150.000 Y44.700 F200
G1 X150.000 Y44.750
G1 X150.000 Y44.750
G1 X150.000 Y44.750
G1 X150.000 Y44.750
G1 X150.000 Y44.700
; --- Backlash Y fix: -1.600mm ---
G0 X150.000 Y43.100 F200
G1 X150.000 Y43.050
G1 X150.000 Y43.050
G1 X150.000 Y43.050
G1 X150.000 Y43.050
G1 X150.000 Y43.050
G1 X150.000 Y43.000
G1 X150.000 Y42.950
G1 X150.000 Y42.950
G1 X150.000 Y42.900
G1 X150.000 Y42.850
G1 X150.000 Y42.850
G1 X150.000 Y42.800
G1 X150.000 Y42.750
G1 X150.000 Y42.700
G1 X150.000 Y42.650
G1 X150.000 Y42.650
G1 X150.000 Y42.600
G1 X150.000 Y42.550
G1 X150.000 Y42.500
G1 X150.000 Y42.450
G1 X150.000 Y42.400
G1 X150.000 Y42.300
G1 X150.000 Y42.250
G1 X150.000 Y42.200
G1 X150.000 Y42.150
G1 X150.000 Y42.100
G1 X150.000 Y42.000
G1 X150.000 Y41.950
G1 X150.000 Y41.900
G1 X150.000 Y41.800
G1 X150.000 Y41.700
G1 X150.000 Y41.650
G1 X150.000 Y41.600
G1 X150.000 Y41.500
G1 X150.000 Y41.400
G1 X150.000 Y41.300
G1 X150.000 Y41.200
G1 X150.000 Y41.100
G1 X150.000 Y41.000
G1 X150.000 Y40.900
G1 X150.000 Y40.800
G1 X150.000 Y40.700
G1 X150.000 Y40.600
G1 X150.000 Y40.550
; --- Backlash X fix: -0.500mm ---
G0 X150.000 Y40.550 F200
G1 X150.000 Y40.500
G1 X150.000 Y40.400
G1 X150.000 Y40.300
G1 X150.000 Y40.250
G1 X150.000 Y40.200
G1 X150.000 Y40.100
G1 X150.000 Y40.050
G1 X150.000 Y40.000
G1 X150.000 Y39.950
G1 X150.000 Y39.900
G1 X150.000 Y39.850
G1 X150.000 Y39.800
G1 X150.000 Y39.700
G1 X150.000 Y39.650
G1 X150.000 Y39.650
G1 X150.000 Y39.600
G1 X150.000 Y39.550
G1 X150.000 Y39.500
G1 X150.000 Y39.450
G1 X150.000 Y39.400
G1 X150.000 Y39.350
G1 X150.000 Y39.350
G1 X150.000 Y39.300
G1 X150.000 Y39.250
G1 X150.000 Y39.250
G1 X150.000 Y39.250
G1 X150.000 Y39.200
G1 X150.000 Y39.150
G1 X150.000 Y39.150
G1 X150.000 Y39.150
G1 X150.000 Y39.150
G1 X150.000 Y39.150
G1 X150.000 Y39.150
G1 X150.000 Y39.150
G1 X150.000 Y39.150
G1 X150.000 Y39.150
G1 X150.000 Y39.150
G1 X150.000 Y39.150
G1 X150.000 Y39.200
; --- Backlash Y fix: 1.600mm ---
G0 X150.000 Y40.800 F200
G1 X150.000 Y40.850
G1 X150.000 Y40.850
G1 X150.000 Y40.850
G1 X150.000 Y40.900
G1 X150.000 Y40.950
G1 X150.000 Y40.950
G1 X150.000 Y41.000
G1 X150.000 Y41.050
G1 X150.000 Y41.100
G1 X150.000 Y41.150
G1 X150.000 Y41.150
G1 X150.000 Y41.200
G1 X150.000 Y41.250
G1 X150.000 Y41.300
G1 X150.000 Y41.350
G1 X150.000 Y41.400
G1 X150.000 Y41.450
G1 X150.000 Y41.500
G1 X150.000 Y41.600
G1 X150.000 Y41.650
G1 X150.000 Y41.700
G1 X150.000 Y41.800
G1 X150.000 Y41.850
G1 X150.000 Y41.900
G1 X150.000 Y42.000
G1 X150.000 Y42.050
G1 X150.000 Y42.100
G1 X150.000 Y42.200
G1 X150.000 Y42.300
G1 X150.000 Y42.400
G1 X150.000 Y42.450
G1 X150.000 Y42.500
G1 X150.000 Y42.600
G1 X150.000 Y42.700
G1 X150.000 Y42.800
G1 X150.000 Y42.900
; --- Backlash X fix: 0.500mm ---
G0 X150.000 Y42.900 F200
G1 X150.000 Y42.950
G1 X150.000 Y43.000
G1 X150.000 Y43.100
G1 X150.000 Y43.200
G1 X150.000 Y43.300
G1 X150.000 Y43.350
G1 X150.000 Y43.400
G1 X150.000 Y43.500
G1 X150.000 Y43.600
G1 X150.000 Y43.650
G1 X150.000 Y43.700
G1 X150.000 Y43.750
G1 X150.000 Y43.800
G1 X150.000 Y43.900
G1 X150.000 Y43.950
G1 X150.000 Y44.000
G1 X150.000 Y44.050
G1 X150.000 Y44.100
G1 X150.000 Y44.150
G1 X150.000 Y44.200
G1 X150.000 Y44.250
G1 X150.000 Y44.300
G1 X150.000 Y44.350
G1 X150.000 Y44.350
G1 X150.000 Y44.400
G1 X150.000 Y44.450
G1 X150.000 Y44.500
G1 X150.000 Y44.550
G1 X150.000 Y44.550
G1 X150.000 Y44.550
G1 X150.000 Y44.600
G1 X150.000 Y44.650
G1 X150.000 Y44.650
G1 X150.000 Y44.650
G1 X150.000 Y44.650
G1 X150.000 Y44.700
G0 Z4.600 F3000
M400
M204 P12000 T12000
G1 F12000
G0 X150.000 Y47.500 Z4.600
M400
M204 P200 T200
G1 F400
G1 Z0.000 F2500
G1 X150.000 Y47.550
G1 X150.000 Y47.550
G1 X150.000 Y47.550
G1 X150.000 Y47.550
G1 X150.000 Y47.550
G1 X150.000 Y47.550
G1 X150.000 Y47.550
G1 X150.000 Y47.550
G1 X150.000 Y47.500
G1 X150.000 Y47.450
G1 X150.000 Y47.450
G1 X150.000 Y47.450
; --- Backlash Y fix: -1.600mm ---
G0 X150.000 Y45.850 F200
G1 X150.000 Y45.800
G1 X150.000 Y45.750
G1 X150.000 Y45.750
G1 X150.000 Y45.700
G1 X150.000 Y45.650
G1 X150.000 Y45.650
G1 X150.000 Y45.600
G1 X150.000 Y45.550
G1 X150.000 Y45.500
G1 X150.000 Y45.450
G1 X150.000 Y45.400
G1 X150.000 Y45.350
G1 X150.000 Y45.300
G1 X150.000 Y45.250
G1 X150.000 Y45.200
G1 X150.000 Y45.150
G1 X150.000 Y45.100
G1 X150.000 Y45.050
G1 X150.000 Y45.000
G1 X150.000 Y44.900
G1 X150.000 Y44.850
G1 X150.000 Y44.800
G1 X150.000 Y44.700
G1 X150.000 Y44.600
G1 X150.000 Y44.550
G1 X150.000 Y44.500
G1 X150.000 Y44.400
G1 X150.000 Y44.300
G1 X150.000 Y44.200
G1 X150.000 Y44.100
G1 X150.000 Y44.050
G1 X150.000 Y44.000
G1 X150.000 Y43.900
G1 X150.000 Y43.850
; --- Backlash X fix: -0.500mm ---
G0 X150.000 Y43.850 F200
G1 X150.000 Y43.800
G1 X150.000 Y43.700
G1 X150.000 Y43.600
G1 X150.000 Y43.500
G1 X150.000 Y43.400
G1 X150.000 Y43.350
G1 X150.000 Y43.300
G1 X150.000 Y43.200
G1 X150.000 Y43.100
G1 X150.000 Y43.050
G1 X150.000 Y43.000
G1 X150.000 Y42.950
G1 X150.000 Y42.900
G1 X150.000 Y42.800
G1 X150.000 Y42.750
G1 X150.000 Y42.700
G1 X150.000 Y42.650
G1 X150.000 Y42.600
G1 X150.000 Y42.550
G1 X150.000 Y42.500
G1 X150.000 Y42.450
G1 X150.000 Y42.400
G1 X150.000 Y42.350
G1 X150.000 Y42.300
G1 X150.000 Y42.250
G1 X150.000 Y42.250
G1 X150.000 Y42.200
G1 X150.000 Y42.150
G1 X150.000 Y42.150
G1 X150.000 Y42.100
G1 X150.000 Y42.050
G1 X150.000 Y42.050
G1 X150.000 Y42.050
G1 X150.000 Y42.050
G1 X150.000 Y42.000
G1 X150.000 Y41.950
G1 X150.000 Y41.950
G1 X150.000 Y41.950
G1 X150.000 Y41.950
G1 X150.000 Y41.950
G1 X150.000 Y41.950
; --- Backlash Y fix: 1.600mm ---
G0 X150.000 Y43.550 F200
G1 X150.000 Y43.600
G1 X150.000 Y43.650
G1 X150.000 Y43.650
G1 X150.000 Y43.650
G1 X150.000 Y43.650
G1 X150.000 Y43.700
G1 X150.000 Y43.750
G1 X150.000 Y43.750
G1 X150.000 Y43.800
G1 X150.000 Y43.850
G1 X150.000 Y43.850
G1 X150.000 Y43.900
G1 X150.000 Y43.950
G1 X150.000 Y44.000
G1 X150.000 Y44.050
G1 X150.000 Y44.050
G1 X150.000 Y44.100
G1 X150.000 Y44.150
G1 X150.000 Y44.200
G1 X150.000 Y44.250
G1 X150.000 Y44.300
G1 X150.000 Y44.400
G1 X150.000 Y44.450
G1 X150.000 Y44.500
G1 X150.000 Y44.550
G1 X150.000 Y44.600
G1 X150.000 Y44.700
G1 X150.000 Y44.750
G1 X150.000 Y44.800
G1 X150.000 Y44.900
G1 X150.000 Y45.000
G1 X150.000 Y45.050
G1 X150.000 Y45.100
G1 X150.000 Y45.200
G1 X150.000 Y45.300
G1 X150.000 Y45.400
G1 X150.000 Y45.500
G1 X150.000 Y45.600
G1 X150.000 Y45.700
G1 X150.000 Y45.800
G1 X150.000 Y45.900
G1 X150.000 Y46.000
; --- Backlash X fix: 0.500mm ---
G0 X150.000 Y46.000 F200
G1 X150.000 Y46.050
G1 X150.000 Y46.100
G1 X150.000 Y46.200
G1 X150.000 Y46.300
G1 X150.000 Y46.350
G1 X150.000 Y46.400
G1 X150.000 Y46.500
G1 X150.000 Y46.550
G1 X150.000 Y46.600
G1 X150.000 Y46.650
G1 X150.000 Y46.700
G1 X150.000 Y46.800
G1 X150.000 Y46.850
G1 X150.000 Y46.900
G1 X150.000 Y46.950
G1 X150.000 Y47.000
G1 X150.000 Y47.050
G1 X150.000 Y47.100
G1 X150.000 Y47.150
G1 X150.000 Y47.150
G1 X150.000 Y47.200
G1 X150.000 Y47.250
G1 X150.000 Y47.300
G1 X150.000 Y47.350
G1 X150.000 Y47.350
G1 X150.000 Y47.400
G1 X150.000 Y47.450
G1 X150.000 Y47.450
G1 X150.000 Y47.450
G1 X150.000 Y47.450
G1 X150.000 Y47.500
G0 Z4.600 F3000
M400
M204 P12000 T12000
G1 F12000
G0 X150.000 Y50.300 Z4.600
M400
M204 P200 T200
G1 F400
G1 Z0.000 F2500
G1 X150.000 Y50.350
G1 X150.000 Y50.350
G1 X150.000 Y50.350
G1 X150.000 Y50.350
G1 X150.000 Y50.350
G1 X150.000 Y50.350
G1 X150.000 Y50.350
G1 X150.000 Y50.350
G1 X150.000 Y50.350
G1 X150.000 Y50.350
; --- Backlash Y fix: -1.600mm ---
G0 X150.000 Y48.750 F200
G1 X150.000 Y48.700
G1 X150.000 Y48.650
G1 X150.000 Y48.650
G1 X150.000 Y48.650
G1 X150.000 Y48.600
G1 X150.000 Y48.550
G1 X150.000 Y48.550
G1 X150.000 Y48.500
G1 X150.000 Y48.450
G1 X150.000 Y48.450
G1 X150.000 Y48.400
G1 X150.000 Y48.350
G1 X150.000 Y48.300
G1 X150.000 Y48.250
G1 X150.000 Y48.200
G1 X150.000 Y48.150
G1 X150.000 Y48.100
G1 X150.000 Y48.050
G1 X150.000 Y48.000
G1 X150.000 Y47.900
G1 X150.000 Y47.850
G1 X150.000 Y47.800
G1 X150.000 Y47.750
G1 X150.000 Y47.700
G1 X150.000 Y47.600
G1 X150.000 Y47.500
G1 X150.000 Y47.450
G1 X150.000 Y47.400
G1 X150.000 Y47.300
G1 X150.000 Y47.200
G1 X150.000 Y47.150
G1 X150.000 Y47.100
G1 X150.000 Y47.000
G1 X150.000 Y46.900
G1 X150.000 Y46.800
G1 X150.000 Y46.700
G1 X150.000 Y46.600
; --- Backlash X fix: -0.500mm ---
G0 X150.000 Y46.600 F200
G1 X150.000 Y46.550
G1 X150.000 Y46.500
G1 X150.000 Y46.400
G1 X150.000 Y46.300
G1 X150.000 Y46.200
G1 X150.000 Y46.150
G1 X150.000 Y46.100
G1 X150.000 Y46.000
G1 X150.000 Y45.900
G1 X150.000 Y45.850
G1 X150.000 Y45.800
G1 X150.000 Y45.750
G1 X150.000 Y45.700
G1 X150.000 Y45.600
G1 X150.000 Y45.550
G1 X150.000 Y45.500
G1 X150.000 Y45.450
G1 X150.000 Y45.400
G1 X150.000 Y45.350
G1 X150.000 Y45.300
G1 X150.000 Y45.250
G1 X150.000 Y45.250
G1 X150.000 Y45.200
G1 X150.000 Y45.150
G1 X150.000 Y45.100
G1 X150.000 Y45.050
G1 X150.000 Y45.050
G1 X150.000 Y45.000
G1 X150.000 Y44.950
G1 X150.000 Y44.950
G1 X150.000 Y44.950
G1 X150.000 Y44.900
G1 X150.000 Y44.850
G1 X150.000 Y44.850
G1 X150.000 Y44.850
G1 X150.000 Y44.850
G1 X150.000 Y44.850
G1 X150.000 Y44.850
G1 X150.000 Y44.850
G1 X150.000 Y44.850
G1 X150.000 Y44.850
G1 X150.000 Y44.850
G1 X150.000 Y44.900
G1 X150.000 Y44.950
G1 X150.000 Y44.950
G0 Z4.600 F3000

; --- CIKEL NAMAKANJA ---
G0 Z4.600 F3000
M400
M204 P12000 T12000
G1 F12000
G0 X60.111 Y0.000 Z31.000
G1 Z0.000 F3000
G1 X60.111 Y0.000 F2500
G1 X60.111 Y2.500 F2500
G1 X55.111 Y0.000 F2500
G1 X60.111 Y0.000 F2500
G0 Z16.000 F3000
G0 X79.644 Y6.233
G0 Z31.000 F3000
G0 X150.000 Y46.550 Z4.600
M400
M204 P200 T200
G1 F400
G1 Z0.000 F2500
G1 X150.000 Y44.950
; --- Backlash Y fix: 1.600mm ---
G0 X150.000 Y46.550 F200
G1 X150.000 Y46.600
G1 X150.000 Y46.650
G1 X150.000 Y46.650
G1 X150.000 Y46.700
G1 X150.000 Y46.750
G1 X150.000 Y46.800
G1 X150.000 Y46.850
G1 X150.000 Y46.900
G1 X150.000 Y46.950
G1 X150.000 Y46.950
G1 X150.000 Y47.000
G1 X150.000 Y47.050
G1 X150.000 Y47.100
G1 X150.000 Y47.200
G1 X150.000 Y47.250
G1 X150.000 Y47.300
G1 X150.000 Y47.350
G1 X150.000 Y47.400
G1 X150.000 Y47.500
G1 X150.000 Y47.550
G1 X150.000 Y47.600
G1 X150.000 Y47.700
G1 X150.000 Y47.750
G1 X150.000 Y47.800
G1 X150.000 Y47.900
G1 X150.000 Y48.000
G1 X150.000 Y48.100
G1 X150.000 Y48.200
G1 X150.000 Y48.300
G1 X150.000 Y48.350
G1 X150.000 Y48.400
G1 X150.000 Y48.450
; --- Backlash X fix: 0.500mm ---
G0 X150.000 Y48.450 F200
G1 X150.000 Y48.500
G1 X150.000 Y48.600
G1 X150.000 Y48.700
G1 X150.000 Y48.800
G1 X150.000 Y48.900
G1 X150.000 Y49.000
G1 X150.000 Y49.050
G1 X150.000 Y49.100
G1 X150.000 Y49.200
G1 X150.000 Y49.250
G1 X150.000 Y49.300
G1 X150.000 Y49.400
G1 X150.000 Y49.450
G1 X150.000 Y49.500
G1 X150.000 Y49.550
G1 X150.000 Y49.600
G1 X150.000 Y49.700
G1 X150.000 Y49.750
G1 X150.000 Y49.800
G1 X150.000 Y49.850
G1 X150.000 Y49.900
G1 X150.000 Y49.950
G1 X150.000 Y49.950
G1 X150.000 Y50.000
G1 X150.000 Y50.050
G1 X150.000 Y50.100
G1 X150.000 Y50.150
G1 X150.000 Y50.150
G1 X150.000 Y50.200
G1 X150.000 Y50.250
G1 X150.000 Y50.250
G1 X150.000 Y50.250
G1 X150.000 Y50.300
G0 Z4.600 F3000
M400
M204 P12000 T12000
G1 F12000
; --- Backlash Y fix: -1.600mm ---
G0 X150.000 Y48.700 F200
G0 X150.000 Y45.100 Z4.600
M400
M204 P200 T200
G1 F400
G1 Z0.000 F2500
G1 X150.000 Y45.150
G1 X150.000 Y45.150
G1 X150.000 Y45.150
G1 X150.000 Y45.150
G1 X150.000 Y45.150
G1 X150.000 Y45.150
G1 X150.000 Y45.150
G1 X150.000 Y45.150
G1 X150.000 Y45.150
G1 X150.000 Y45.150
G1 X150.000 Y45.150
G1 X150.000 Y45.150
G1 X150.000 Y45.100
G1 X150.000 Y45.050
G1 X150.000 Y45.050
G1 X150.000 Y45.050
G1 X150.000 Y45.000
G1 X150.000 Y44.950
G1 X150.000 Y44.900
G1 X150.000 Y44.850
G1 X150.000 Y44.850
G1 X150.000 Y44.800
G1 X150.000 Y44.750
G1 X150.000 Y44.700
G1 X150.000 Y44.650
G1 X150.000 Y44.600
G1 X150.000 Y44.550
G1 X150.000 Y44.500
G1 X150.000 Y44.450
G1 X150.000 Y44.400
G1 X150.000 Y44.350
G1 X150.000 Y44.300
G1 X150.000 Y44.200
G1 X150.000 Y44.150
G1 X150.000 Y44.100
G1 X150.000 Y44.000
G1 X150.000 Y43.950
G1 X150.000 Y43.900
G1 X150.000 Y43.800
G1 X150.000 Y43.700
G1 X150.000 Y43.650
G1 X150.000 Y43.600
G1 X150.000 Y43.500
G1 X150.000 Y43.400
G1 X150.000 Y43.300
G1 X150.000 Y43.200
G1 X150.000 Y43.100
G1 X150.000 Y43.000
G1 X150.000 Y42.900
G1 X150.000 Y42.800
G1 X150.000 Y42.700
; --- Backlash X fix: -0.500mm ---
G0 X150.000 Y42.700 F200
G1 X150.000 Y42.650
G1 X150.000 Y42.600
G1 X150.000 Y42.500
G1 X150.000 Y42.400
G1 X150.000 Y42.350
G1 X150.000 Y42.300
G1 X150.000 Y42.200
G1 X150.000 Y42.150
G1 X150.000 Y42.100
G1 X150.000 Y42.050
G1 X150.000 Y42.000
G1 X150.000 Y41.900
G1 X150.000 Y41.850
G1 X150.000 Y41.800
G1 X150.000 Y41.750
G1 X150.000 Y41.700
G1 X150.000 Y41.650
G1 X150.000 Y41.600
G1 X150.000 Y41.550
G1 X150.000 Y41.550
G1 X150.000 Y41.500
G1 X150.000 Y41.450
G1 X150.000 Y41.400
G1 X150.000 Y41.350
G1 X150.000 Y41.350
G1 X150.000 Y41.350
G1 X150.000 Y41.300
G1 X150.000 Y41.250
G1 X150.000 Y41.250
G1 X150.000 Y41.250
G1 X150.000 Y41.200
G1 X150.000 Y41.150
G1 X150.000 Y41.150
G1 X150.000 Y41.150
G1 X150.000 Y41.150
G1 X150.000 Y41.150
G1 X150.000 Y41.150
G1 X150.000 Y41.150
G1 X150.000 Y41.150
G1 X150.000 Y41.200
; --- Backlash Y fix: 1.600mm ---
G0 X150.000 Y42.800 F200
G1 X150.000 Y42.850
G1 X150.000 Y42.850
G1 X150.000 Y42.850
G1 X150.000 Y42.850
G1 X150.000 Y42.900
G1 X150.000 Y42.950
G1 X150.000 Y42.950
G1 X150.000 Y43.000
G1 X150.000 Y43.050
G1 X150.000 Y43.100
G1 X150.000 Y43.150
G1 X150.000 Y43.150
G1 X150.000 Y43.200
G1 X150.000 Y43.250
G1 X150.000 Y43.300
G1 X150.000 Y43.350
G1 X150.000 Y43.400
G1 X150.000 Y43.450
G1 X150.000 Y43.500
G1 X150.000 Y43.600
G1 X150.000 Y43.650
G1 X150.000 Y43.700
G1 X150.000 Y43.750
G1 X150.000 Y43.800
G1 X150.000 Y43.900
G1 X150.000 Y43.950
G1 X150.000 Y44.000
G1 X150.000 Y44.100
G1 X150.000 Y44.200
G1 X150.000 Y44.250
G1 X150.000 Y44.300
G1 X150.000 Y44.400
G1 X150.000 Y44.500
G1 X150.000 Y44.600
G1 X150.000 Y44.700
G1 X150.000 Y44.800
G1 X150.000 Y44.900
G1 X150.000 Y45.000
G1 X150.000 Y45.100
G1 X150.000 Y45.200
G1 X150.000 Y45.300
G1 X150.000 Y45.350
; --- Backlash X fix: 0.500mm ---
G0 X150.000 Y45.350 F200
G1 X150.000 Y45.400
G1 X150.000 Y45.500
G1 X150.000 Y45.550
G1 X150.000 Y45.600
G1 X150.000 Y45.700
G1 X150.000 Y45.750
G1 X150.000 Y45.800
G1 X150.000 Y45.900
G1 X150.000 Y45.950
G1 X150.000 Y46.000
G1 X150.000 Y46.050
G1 X150.000 Y46.100
G1 X150.000 Y46.150
G1 X150.000 Y46.200
G1 X150.000 Y46.250
G1 X150.000 Y46.300
G1 X150.000 Y46.350
G1 X150.000 Y46.400
G1 X150.000 Y46.450
G1 X150.000 Y46.450
G1 X150.000 Y46.500
G1 X150.000 Y46.550
G1 X150.000 Y46.600
G1 X150.000 Y46.650
G1 X150.000 Y46.650
G1 X150.000 Y46.650
G1 X150.000 Y46.700
G0 Z4.600 F3000
M400
M204 P12000 T12000
G1 F12000
; --- Backlash X fix: -0.500mm ---
G0 X150.000 Y46.700 F200
; --- Backlash Y fix: -1.600mm ---
G0 X150.000 Y45.100 F200
G0 X150.000 Y42.300 Z4.600
M400
M204 P200 T200
G1 F400
G1 Z0.000 F2500
; --- Backlash X fix: 0.500mm ---
G0 X150.000 Y42.300 F200
; --- Backlash Y fix: 1.600mm ---
G0 X150.000 Y43.900 F200
G1 X150.000 Y43.950
G1 X150.000 Y43.950
G1 X150.000 Y43.950
G1 X150.000 Y43.950
G1 X150.000 Y43.950
G1 X150.000 Y43.950
G1 X150.000 Y43.950
G1 X150.000 Y43.950
G1 X150.000 Y43.950
; --- Backlash Y fix: -1.600mm ---
G0 X150.000 Y42.350 F200
G1 X150.000 Y42.300
G1 X150.000 Y42.250
G1 X150.000 Y42.250
G1 X150.000 Y42.250
G1 X150.000 Y42.200
G1 X150.000 Y42.150
G1 X150.000 Y42.150
G1 X150.000 Y42.100
G1 X150.000 Y42.050
G1 X150.000 Y42.050
G1 X150.000 Y42.000
G1 X150.000 Y41.950
G1 X150.000 Y41.900
G1 X150.000 Y41.850
G1 X150.000 Y41.800
G1 X150.000 Y41.750
G1 X150.000 Y41.700
G1 X150.000 Y41.650
G1 X150.000 Y41.600
G1 X150.000 Y41.550
G1 X150.000 Y41.500
G1 X150.000 Y41.450
G1 X150.000 Y41.400
G1 X150.000 Y41.300
G1 X150.000 Y41.250
G1 X150.000 Y41.200
G1 X150.000 Y41.100
G1 X150.000 Y41.050
G1 X150.000 Y41.000
G1 X150.000 Y40.900
G1 X150.000 Y40.800
G1 X150.000 Y40.700
G1 X150.000 Y40.650
G1 X150.000 Y40.600
G1 X150.000 Y40.500
G1 X150.000 Y40.400
G1 X150.000 Y40.300
G1 X150.000 Y40.200
G1 X150.000 Y40.100
; --- Backlash X fix: -0.500mm ---
G0 X150.000 Y40.100 F200
G1 X150.000 Y40.050
G1 X150.000 Y40.000
G1 X150.000 Y39.900
G1 X150.000 Y39.800
G1 X150.000 Y39.700
G1 X150.000 Y39.650
G1 X150.000 Y39.600
G1 X150.000 Y39.500
G1 X150.000 Y39.450
G1 X150.000 Y39.400
G1 X150.000 Y39.300
G1 X150.000 Y39.250
G1 X150.000 Y39.200
G1 X150.000 Y39.100
G1 X150.000 Y39.050
G1 X150.000 Y39.000
G1 X150.000 Y38.950
G1 X150.000 Y38.900
G1 X150.000 Y38.850
G1 X150.000 Y38.800
G1 X150.000 Y38.750
G1 X150.000 Y38.700
G1 X150.000 Y38.650
G1 X150.000 Y38.650
G1 X150.000 Y38.600
G1 X150.000 Y38.550
G1 X150.000 Y38.550
G1 X150.000 Y38.500
G1 X150.000 Y38.450
G1 X150.000 Y38.450
G1 X150.000 Y38.400
G1 X150.000 Y38.350
G1 X150.000 Y38.350
G1 X150.000 Y38.350
G1 X150.000 Y38.350
G1 X150.000 Y38.350
G1 X150.000 Y38.350
G1 X150.000 Y38.350
G1 X150.000 Y38.350
G1 X150.000 Y38.350
G1 X150.000 Y38.350
G1 X150.000 Y38.350
G1 X150.000 Y38.350
G1 X150.000 Y38.400
G1 X150.000 Y38.450
G1 X150.000 Y38.450
G1 X150.000 Y38.450
; --- Backlash Y fix: 1.600mm ---
G0 X150.000 Y40.050 F200
G1 X150.000 Y40.100
G1 X150.000 Y40.150
G1 X150.000 Y40.150
G1 X150.000 Y40.200
G1 X150.000 Y40.250
G1 X150.000 Y40.300
G1 X150.000 Y40.350
G1 X150.000 Y40.350
G1 X150.000 Y40.400
G1 X150.000 Y40.450
G1 X150.000 Y40.500
G1 X150.000 Y40.550
G1 X150.000 Y40.600
G1 X150.000 Y40.700
G1 X150.000 Y40.750
G1 X150.000 Y40.800
G1 X150.000 Y40.850
G1 X150.000 Y40.900
G1 X150.000 Y41.000
G1 X150.000 Y41.050
G1 X150.000 Y41.100
G1 X150.000 Y41.200
G1 X150.000 Y41.250
G1 X150.000 Y41.300
G1 X150.000 Y41.400
G1 X150.000 Y41.500
G1 X150.000 Y41.600
G1 X150.000 Y41.700
G1 X150.000 Y41.750
G1 X150.000 Y41.800
G1 X150.000 Y41.900
G1 X150.000 Y42.000
G1 X150.000 Y42.100
G1 X150.000 Y42.150
; --- Backlash X fix: 0.500mm ---
G0 X150.000 Y42.150 F200
G1 X150.000 Y42.200
G1 X150.000 Y42.300
G1 X150.000 Y42.400
G1 X150.000 Y42.500
G1 X150.000 Y42.550
G1 X150.000 Y42.600
G1 X150.000 Y42.700
G1 X150.000 Y42.800
G1 X150.000 Y42.850
G1 X150.000 Y42.900
G1 X150.000 Y43.000
G1 X150.000 Y43.050
G1 X150.000 Y43.100
G1 X150.000 Y43.150
G1 X150.000 Y43.200
G1 X150.000 Y43.250
G1 X150.000 Y43.300
G1 X150.000 Y43.350
G1 X150.000 Y43.400
G1 X150.000 Y43.450
G1 X150.000 Y43.500
G1 X150.000 Y43.550
G1 X150.000 Y43.600
G1 X150.000 Y43.650
G1 X150.000 Y43.650
G1 X150.000 Y43.700
G1 X150.000 Y43.750
G1 X150.000 Y43.750
G1 X150.000 Y43.800
G1 X150.000 Y43.850
G1 X150.000 Y43.850
G1 X150.000 Y43.850
G1 X150.000 Y43.900
G0 Z4.600 F3000
M400
M204 P12000 T12000
G1 F12000
; --- Backlash X fix: -0.500mm ---
G0 X150.000 Y43.900 F200
; --- Backlash Y fix: -1.600mm ---
G0 X150.000 Y42.300 F200
G0 X150.000 Y35.900 Z4.600
M400
M204 P200 T200
G1 F400
G1 Z0.000 F2500
; --- Backlash X fix: 0.500mm ---
G0 X150.000 Y35.900 F200
G1 X150.000 Y35.950
G1 X150.000 Y35.950
G1 X150.000 Y35.950
G1 X150.000 Y35.950
G1 X150.000 Y35.950
G1 X150.000 Y35.950
G1 X150.000 Y35.900
G1 X150.000 Y35.850
G1 X150.000 Y35.850
G1 X150.000 Y35.850
G1 X150.000 Y35.850
G1 X150.000 Y35.800
G1 X150.000 Y35.750
G1 X150.000 Y35.750
G1 X150.000 Y35.700
G1 X150.000 Y35.650
G1 X150.000 Y35.650
G1 X150.000 Y35.600
G1 X150.000 Y35.550
G1 X150.000 Y35.550
G1 X150.000 Y35.500
G1 X150.000 Y35.450
G1 X150.000 Y35.400
G1 X150.000 Y35.350
G1 X150.000 Y35.300
G1 X150.000 Y35.250
G1 X150.000 Y35.200
G1 X150.000 Y35.150
G1 X150.000 Y35.100
G1 X150.000 Y35.000
G1 X150.000 Y34.950
G1 X150.000 Y34.900
G1 X150.000 Y34.800
G1 X150.000 Y34.750
G1 X150.000 Y34.700
G1 X150.000 Y34.600
G1 X150.000 Y34.550
G1 X150.000 Y34.500
G1 X150.000 Y34.400
G1 X150.000 Y34.300
G1 X150.000 Y34.200
G1 X150.000 Y34.150
G1 X150.000 Y34.100
G1 X150.000 Y34.000
G1 X150.000 Y33.900
G1 X150.000 Y33.800
G1 X150.000 Y33.700
G1 X150.000 Y33.600
G1 X150.000 Y33.550
; --- Backlash X fix: -0.500mm ---
G0 X150.000 Y33.550 F200
G1 X150.000 Y33.500
G1 X150.000 Y33.400
G1 X150.000 Y33.300
G1 X150.000 Y33.200
G1 X150.000 Y33.150
G1 X150.000 Y33.100
G1 X150.000 Y33.000
G1 X150.000 Y32.950
G1 X150.000 Y32.900
G1 X150.000 Y32.800
G1 X150.000 Y32.750
G1 X150.000 Y32.700
G1 X150.000 Y32.600
G1 X150.000 Y32.550
G1 X150.000 Y32.500
G1 X150.000 Y32.450
G1 X150.000 Y32.400
G1 X150.000 Y32.350
G1 X150.000 Y32.300
G1 X150.000 Y32.250
G1 X150.000 Y32.200
G1 X150.000 Y32.150
G1 X150.000 Y32.150
G1 X150.000 Y32.100
G1 X150.000 Y32.050
G1 X150.000 Y32.050
G1 X150.000 Y32.000
G1 X150.000 Y31.950
G1 X150.000 Y31.950
G1 X150.000 Y31.900
G1 X150.000 Y31.850
G1 X150.000 Y31.850
G1 X150.000 Y31.850
G1 X150.000 Y31.850
G1 X150.000 Y31.800
G1 X150.000 Y31.750
G1 X150.000 Y31.750
G1 X150.000 Y31.750
G1 X150.000 Y31.750
G1 X150.000 Y31.750
G1 X150.000 Y31.750
G1 X150.000 Y31.800
; --- Backlash Y fix: 1.600mm ---
G0 X150.000 Y33.400 F200
G1 X150.000 Y33.450
G1 X150.000 Y33.450
G1 X150.000 Y33.450
G1 X150.000 Y33.450
G1 X150.000 Y33.500
G1 X150.000 Y33.550
G1 X150.000 Y33.550
G1 X150.000 Y33.600
G1 X150.000 Y33.650
G1 X150.000 Y33.650
G1 X150.000 Y33.700
G1 X150.000 Y33.750
G1 X150.000 Y33.800
G1 X150.000 Y33.850
G1 X150.000 Y33.850
G1 X150.000 Y33.900
G1 X150.000 Y33.950
G1 X150.000 Y34.000
G1 X150.000 Y34.050
G1 X150.000 Y34.100
G1 X150.000 Y34.200
G1 X150.000 Y34.250
G1 X150.000 Y34.300
G1 X150.000 Y34.350
G1 X150.000 Y34.400
G1 X150.000 Y34.500
G1 X150.000 Y34.550
G1 X150.000 Y34.600
G1 X150.000 Y34.700
G1 X150.000 Y34.750
G1 X150.000 Y34.800
G1 X150.000 Y34.900
G1 X150.000 Y35.000
G1 X150.000 Y35.100
G1 X150.000 Y35.150
G1 X150.000 Y35.200
G1 X150.000 Y35.300
G1 X150.000 Y35.400
G1 X150.000 Y35.500
G1 X150.000 Y35.600
G1 X150.000 Y35.700
G1 X150.000 Y35.750
; --- Backlash X fix: 0.500mm ---
G0 X150.000 Y35.750 F200
G1 X150.000 Y35.800
G1 X150.000 Y35.900
G1 X150.000 Y36.000
G1 X150.000 Y36.100
G1 X150.000 Y36.150
G1 X150.000 Y36.200
G1 X150.000 Y36.300
G1 X150.000 Y36.350
G1 X150.000 Y36.400
G1 X150.000 Y36.500
G1 X150.000 Y36.550
G1 X150.000 Y36.600
G1 X150.000 Y36.650
G1 X150.000 Y36.700
G1 X150.000 Y36.800
G1 X150.000 Y36.850
G1 X150.000 Y36.900
G1 X150.000 Y36.950
G1 X150.000 Y37.000
G1 X150.000 Y37.050
G1 X150.000 Y37.050
G1 X150.000 Y37.100
G1 X150.000 Y37.150
G1 X150.000 Y37.200
G1 X150.000 Y37.250
G1 X150.000 Y37.250
G1 X150.000 Y37.300
G1 X150.000 Y37.350
G1 X150.000 Y37.350
G1 X150.000 Y37.400
G1 X150.000 Y37.450
G1 X150.000 Y37.450
G1 X150.000 Y37.450
G1 X150.000 Y37.450
G1 X150.000 Y37.500
G0 Z4.600 F3000
M400
M204 P12000 T12000
G1 F12000
G0 X150.000 Y40.300 Z4.600
M400
M204 P200 T200
G1 F400
G1 Z0.000 F2500
G1 X150.000 Y40.350
G1 X150.000 Y40.350
G1 X150.000 Y40.350
G1 X150.000 Y40.350
G1 X150.000 Y40.350
G1 X150.000 Y40.350
G1 X150.000 Y40.350
G1 X150.000 Y40.350
G1 X150.000 Y40.350
; --- Backlash Y fix: -1.600mm ---
G0 X150.000 Y38.750 F200
G1 X150.000 Y38.700
G1 X150.000 Y38.650
G1 X150.000 Y38.650
G1 X150.000 Y38.650
G1 X150.000 Y38.600
G1 X150.000 Y38.550
G1 X150.000 Y38.550
G1 X150.000 Y38.500
G1 X150.000 Y38.450
G1 X150.000 Y38.450
G1 X150.000 Y38.400
G1 X150.000 Y38.350
G1 X150.000 Y38.300
G1 X150.000 Y38.250
G1 X150.000 Y38.200
G1 X150.000 Y38.150
G1 X150.000 Y38.100
G1 X150.000 Y38.050
G1 X150.000 Y38.000
G1 X150.000 Y37.950
G1 X150.000 Y37.900
G1 X150.000 Y37.850
G1 X150.000 Y37.800
G1 X150.000 Y37.700
G1 X150.000 Y37.650
G1 X150.000 Y37.600
G1 X150.000 Y37.500
G1 X150.000 Y37.450
G1 X150.000 Y37.400
G1 X150.000 Y37.300
G1 X150.000 Y37.200
G1 X150.000 Y37.150
G1 X150.000 Y37.100
G1 X150.000 Y37.000
G1 X150.000 Y36.900
G1 X150.000 Y36.800
G1 X150.000 Y36.700
G1 X150.000 Y36.600
G1 X150.000 Y36.500
G1 X150.000 Y36.400
G1 X150.000 Y36.300
; --- Backlash X fix: -0.500mm ---
G0 X150.000 Y36.300 F200
G1 X150.000 Y36.250
G1 X150.000 Y36.200
G1 X150.000 Y36.100
G1 X150.000 Y36.000
G1 X150.000 Y35.950
G1 X150.000 Y35.900
G1 X150.000 Y35.800
G1 X150.000 Y35.750
G1 X150.000 Y35.700
G1 X150.000 Y35.600
G1 X150.000 Y35.550
G1 X150.000 Y35.500
G1 X150.000 Y35.450
G1 X150.000 Y35.400
G1 X150.000 Y35.350
G1 X150.000 Y35.300
G1 X150.000 Y35.250
G1 X150.000 Y35.200
G1 X150.000 Y35.150
G1 X150.000 Y35.100
G1 X150.000 Y35.050
G1 X150.000 Y35.000
G1 X150.000 Y34.950
G1 X150.000 Y34.950
G1 X150.000 Y34.900
G1 X150.000 Y34.850
G1 X150.000 Y34.850
G1 X150.000 Y34.800
G1 X150.000 Y34.750
G1 X150.000 Y34.750
G1 X150.000 Y34.750
G1 X150.000 Y34.700
G1 X150.000 Y34.650
G1 X150.000 Y34.650
G1 X150.000 Y34.650
G1 X150.000 Y34.650
G1 X150.000 Y34.650
G1 X150.000 Y34.650
G1 X150.000 Y34.650
G1 X150.000 Y34.650
G1 X150.000 Y34.650
G1 X150.000 Y34.700
; --- Backlash Y fix: 1.600mm ---
G0 X150.000 Y36.300 F200
G1 X150.000 Y36.350
G1 X150.000 Y36.350
G1 X150.000 Y36.350
G1 X150.000 Y36.400
G1 X150.000 Y36.450
G1 X150.000 Y36.450
G1 X150.000 Y36.450
G1 X150.000 Y36.500
G1 X150.000 Y36.550
G1 X150.000 Y36.600
G1 X150.000 Y36.650
G1 X150.000 Y36.650
G1 X150.000 Y36.700
G1 X150.000 Y36.750
G1 X150.000 Y36.800
G1 X150.000 Y36.850
G1 X150.000 Y36.900
G1 X150.000 Y36.950
G1 X150.000 Y37.000
G1 X150.000 Y37.100
G1 X150.000 Y37.150
G1 X150.000 Y37.200
G1 X150.000 Y37.250
G1 X150.000 Y37.300
G1 X150.000 Y37.400
G1 X150.000 Y37.450
G1 X150.000 Y37.500
G1 X150.000 Y37.600
G1 X150.000 Y37.700
G1 X150.000 Y37.800
G1 X150.000 Y37.850
G1 X150.000 Y37.900
G1 X150.000 Y38.000
G1 X150.000 Y38.100
G1 X150.000 Y38.200
G1 X150.000 Y38.300
G1 X150.000 Y38.400
G1 X150.000 Y38.500
G1 X150.000 Y38.600
G1 X150.000 Y38.700
G1 X150.000 Y38.750
; --- Backlash X fix: 0.500mm ---
G0 X150.000 Y38.750 F200
G1 X150.000 Y38.800
G1 X150.000 Y38.900
G1 X150.000 Y39.000
G1 X150.000 Y39.050
G1 X150.000 Y39.100
G1 X150.000 Y39.200
G1 X150.000 Y39.250
G1 X150.000 Y39.300
G1 X150.000 Y39.400
G1 X150.000 Y39.450
G1 X150.000 Y39.500
G1 X150.000 Y39.550
G1 X150.000 Y39.600
G1 X150.000 Y39.700
G1 X150.000 Y39.750
G1 X150.000 Y39.800
G1 X150.000 Y39.850
G1 X150.000 Y39.850
G1 X150.000 Y39.900
G1 X150.000 Y39.950
G1 X150.000 Y40.000
G1 X150.000 Y40.050
G1 X150.000 Y40.050
G1 X150.000 Y40.100
G1 X150.000 Y40.150
G1 X150.000 Y40.150
G1 X150.000 Y40.200
G1 X150.000 Y40.250
G1 X150.000 Y40.250
G1 X150.000 Y40.250
G1 X150.000 Y40.300
G0 Z4.600 F3000
M400
M204 P12000 T12000
G1 F12000
; --- Backlash Y fix: -1.600mm ---
G0 X150.000 Y38.700 F200
G0 X150.000 Y37.550 Z4.600
M400
M204 P200 T200
G1 F400
G1 Z0.000 F2500
; --- Backlash X fix: -0.500mm ---
G0 X150.000 Y37.550 F200
G1 X150.000 Y37.550
G1 X150.000 Y37.500
G1 X150.000 Y37.450
G1 X150.000 Y37.450
G1 X150.000 Y37.450
G1 X150.000 Y37.450
G1 X150.000 Y37.450
G1 X150.000 Y37.450
G1 X150.000 Y37.450
; --- Backlash Y fix: 1.600mm ---
G0 X150.000 Y39.050 F200
G1 X150.000 Y39.100
G1 X150.000 Y39.150
G1 X150.000 Y39.150
G1 X150.000 Y39.150
G1 X150.000 Y39.200
G1 X150.000 Y39.250
G1 X150.000 Y39.250
G1 X150.000 Y39.250
G1 X150.000 Y39.300
G1 X150.000 Y39.350
G1 X150.000 Y39.400
G1 X150.000 Y39.450
G1 X150.000 Y39.450
G1 X150.000 Y39.500
G1 X150.000 Y39.550
G1 X150.000 Y39.600
G1 X150.000 Y39.650
G1 X150.000 Y39.700
G1 X150.000 Y39.750
G1 X150.000 Y39.800
G1 X150.000 Y39.850
G1 X150.000 Y39.900
G1 X150.000 Y40.000
G1 X150.000 Y40.050
G1 X150.000 Y40.100
G1 X150.000 Y40.150
G1 X150.000 Y40.200
G1 X150.000 Y40.300
G1 X150.000 Y40.350
G1 X150.000 Y40.400
G1 X150.000 Y40.500
G1 X150.000 Y40.600
G1 X150.000 Y40.700
G1 X150.000 Y40.750
G1 X150.000 Y40.800
G1 X150.000 Y40.900
G1 X150.000 Y41.000
G1 X150.000 Y41.100
G1 X150.000 Y41.200
G1 X150.000 Y41.300
G1 X150.000 Y41.400
G1 X150.000 Y41.500
; --- Backlash X fix: 0.500mm ---
G0 X150.000 Y41.500 F200
G1 X150.000 Y41.550
G1 X150.000 Y41.600
G1 X150.000 Y41.700
G1 X150.000 Y41.800
G1 X150.000 Y41.850
G1 X150.000 Y41.900
G1 X150.000 Y42.000
G1 X150.000 Y42.100
G1 X150.000 Y42.150
G1 X150.000 Y42.200
G1 X150.000 Y42.250
G1 X150.000 Y42.300
G1 X150.000 Y42.400
G1 X150.000 Y42.450
G1 X150.000 Y42.500
G1 X150.000 Y42.550
G1 X150.000 Y42.600
G1 X150.000 Y42.650
G1 X150.000 Y42.700
G1 X150.000 Y42.750
G1 X150.000 Y42.800
G1 X150.000 Y42.850
G1 X150.000 Y42.850
G1 X150.000 Y42.900
G1 X150.000 Y42.950
G1 X150.000 Y42.950
G1 X150.000 Y43.000
G1 X150.000 Y43.050
G1 X150.000 Y43.050
G1 X150.000 Y43.100
G1 X150.000 Y43.150
G1 X150.000 Y43.150
G1 X150.000 Y43.150
G1 X150.000 Y43.150
G1 X150.000 Y43.200
G1 X150.000 Y43.250
G1 X150.000 Y43.250
G1 X150.000 Y43.250
G1 X150.000 Y43.250
G1 X150.000 Y43.250
G1 X150.000 Y43.200
; --- Backlash Y fix: -1.600mm ---
G0 X150.000 Y41.600 F200
G1 X150.000 Y41.550
G1 X150.000 Y41.550
G1 X150.000 Y41.550
G0 Z4.600 F3000
M400
M204 P12000 T12000
G1 F12000
; --- Backlash Y fix: 1.600mm ---
G0 X150.000 Y43.150 F200
G0 X150.000 Y45.650 Z4.600
M400
M204 P200 T200
G1 F400
G1 Z0.000 F2500
; --- Backlash X fix: -0.500mm ---
G0 X150.000 Y45.650 F200
G1 X150.000 Y45.650
G1 X150.000 Y45.650
G1 X150.000 Y45.650
G1 X150.000 Y45.650
G1 X150.000 Y45.650
G1 X150.000 Y45.650
G1 X150.000 Y45.700
G1 X150.000 Y45.750
G1 X150.000 Y45.750
G1 X150.000 Y45.800
G1 X150.000 Y45.850
G1 X150.000 Y45.850
G1 X150.000 Y45.900
G1 X150.000 Y45.950
G1 X150.000 Y45.950
G1 X150.000 Y46.000
G1 X150.000 Y46.050
G1 X150.000 Y46.100
G1 X150.000 Y46.150
G1 X150.000 Y46.200
G1 X150.000 Y46.250
G1 X150.000 Y46.300
G1 X150.000 Y46.350
G1 X150.000 Y46.400
G1 X150.000 Y46.500
G1 X150.000 Y46.550
G1 X150.000 Y46.600
G1 X150.000 Y46.650
G1 X150.000 Y46.700
G1 X150.000 Y46.800
G1 X150.000 Y46.850
G1 X150.000 Y46.900
G1 X150.000 Y47.000
G1 X150.000 Y47.100
G1 X150.000 Y47.200
G1 X150.000 Y47.250
G1 X150.000 Y47.300
G1 X150.000 Y47.400
G1 X150.000 Y47.500
G1 X150.000 Y47.600
G1 X150.000 Y47.700
G1 X150.000 Y47.800
G1 X150.000 Y47.900
; --- Backlash X fix: 0.500mm ---
G0 X150.000 Y47.900 F200
G1 X150.000 Y47.950
G1 X150.000 Y48.000
G1 X150.000 Y48.100
G1 X150.000 Y48.200
G1 X150.000 Y48.300
G1 X150.000 Y48.350
G1 X150.000 Y48.400
G1 X150.000 Y48.500
G1 X150.000 Y48.550
G1 X150.000 Y48.600
G1 X150.000 Y48.700
G1 X150.000 Y48.750
G1 X150.000 Y48.800
G1 X150.000 Y48.850
G1 X150.000 Y48.900
G1 X150.000 Y48.950
G1 X150.000 Y49.000
G1 X150.000 Y49.050
G1 X150.000 Y49.100
G1 X150.000 Y49.150
G1 X150.000 Y49.200
G1 X150.000 Y49.250
G1 X150.000 Y49.300
G1 X150.000 Y49.350
G1 X150.000 Y49.350
G1 X150.000 Y49.400
G1 X150.000 Y49.450
G1 X150.000 Y49.450
G1 X150.000 Y49.500
G1 X150.000 Y49.550
G1 X150.000 Y49.550
G1 X150.000 Y49.550
G1 X150.000 Y49.600
G1 X150.000 Y49.650
G1 X150.000 Y49.650
G1 X150.000 Y49.650
G1 X150.000 Y49.650
G1 X150.000 Y49.650
G0 Z4.600 F3000
M400
M204 P12000 T12000
G1 F12000
G0 X150.000 Y52.250 Z4.600
M400
M204 P200 T200
G1 F400
G1 Z0.000 F2500
; --- Backlash X fix: -0.500mm ---
G0 X150.000 Y52.250 F200
G1 X150.000 Y52.250
G1 X150.000 Y52.250
G1 X150.000 Y52.300
G1 X150.000 Y52.350
G1 X150.000 Y52.350
G1 X150.000 Y52.400
G1 X150.000 Y52.450
G1 X150.000 Y52.450
G1 X150.000 Y52.500
G1 X150.000 Y52.550
G1 X150.000 Y52.600
G1 X150.000 Y52.650
G1 X150.000 Y52.650
G1 X150.000 Y52.700
G1 X150.000 Y52.800
G1 X150.000 Y52.850
G1 X150.000 Y52.900
G1 X150.000 Y52.950
G1 X150.000 Y53.000
G1 X150.000 Y53.050
G1 X150.000 Y53.100
G1 X150.000 Y53.200
G1 X150.000 Y53.250
G1 X150.000 Y53.300
G1 X150.000 Y53.400
G1 X150.000 Y53.450
G1 X150.000 Y53.500
G1 X150.000 Y53.600
G1 X150.000 Y53.700
G1 X150.000 Y53.800
G1 X150.000 Y53.900
G1 X150.000 Y54.000
G1 X150.000 Y54.050
G1 X150.000 Y54.100
; --- Backlash X fix: 0.500mm ---
G0 X150.000 Y54.100 F200
G1 X150.000 Y54.150
G1 X150.000 Y54.200
G1 X150.000 Y54.300
G1 X150.000 Y54.400
G1 X150.000 Y54.500
G1 X150.000 Y54.600
G1 X150.000 Y54.700
G1 X150.000 Y54.750
G1 X150.000 Y54.800
G1 X150.000 Y54.900
G1 X150.000 Y54.950
G1 X150.000 Y55.000
G1 X150.000 Y55.100
G1 X150.000 Y55.150
G1 X150.000 Y55.200
G1 X150.000 Y55.250
G1 X150.000 Y55.300
G1 X150.000 Y55.400
G1 X150.000 Y55.450
G1 X150.000 Y55.500
G1 X150.000 Y55.550
G1 X150.000 Y55.550
G1 X150.000 Y55.600
G1 X150.000 Y55.650
G1 X150.000 Y55.700
G1 X150.000 Y55.750
G1 X150.000 Y55.750
G1 X150.000 Y55.800
G1 X150.000 Y55.850
G1 X150.000 Y55.850
G1 X150.000 Y55.900
G1 X150.000 Y55.950
G1 X150.000 Y55.950
G1 X150.000 Y55.950
G0 Z4.600 F3000
M400
M204 P12000 T12000
G1 F12000
G0 X150.000 Y58.950 Z4.600
M400
M204 P200 T200
G1 F400
G1 Z0.000 F2500
; --- Backlash X fix: -0.500mm ---
G0 X150.000 Y58.950 F200
G1 X150.000 Y58.950
G1 X150.000 Y59.000
G1 X150.000 Y59.050
G1 X150.000 Y59.100
G1 X150.000 Y59.150
G1 X150.000 Y59.150
G1 X150.000 Y59.200
G1 X150.000 Y59.250
G1 X150.000 Y59.300
G1 X150.000 Y59.400
G1 X150.000 Y59.450
G1 X150.000 Y59.500
G1 X150.000 Y59.550
G1 X150.000 Y59.600
G1 X150.000 Y59.700
G1 X150.000 Y59.750
G1 X150.000 Y59.800
G1 X150.000 Y59.900
G1 X150.000 Y59.950
G1 X150.000 Y60.000
G1 X150.000 Y60.100
G1 X150.000 Y60.200
G1 X150.000 Y60.300
G1 X150.000 Y60.400
G1 X150.000 Y60.450
G1 X150.000 Y60.500
G1 X150.000 Y60.600
G1 X150.000 Y60.700
; --- Backlash X fix: 0.500mm ---
G0 X150.000 Y60.700 F200
G1 X150.000 Y60.750
G1 X150.000 Y60.800
G1 X150.000 Y60.900
G1 X150.000 Y61.000
G1 X150.000 Y61.100
G1 X150.000 Y61.200
G1 X150.000 Y61.250
G1 X150.000 Y61.300
G1 X150.000 Y61.400
G1 X150.000 Y61.450
G1 X150.000 Y61.500
G1 X150.000 Y61.600
G1 X150.000 Y61.650
G1 X150.000 Y61.700
G1 X150.000 Y61.750
G1 X150.000 Y61.800
G1 X150.000 Y61.850
G1 X150.000 Y61.900
G1 X150.000 Y61.950
G1 X150.000 Y62.000
G1 X150.000 Y62.050
G1 X150.000 Y62.100
G1 X150.000 Y62.150
G1 X150.000 Y62.150
G1 X150.000 Y62.200
G1 X150.000 Y62.250
G0 Z4.600 F3000
M400
M204 P12000 T12000
G1 F12000
G0 X150.000 Y65.750 Z4.600
M400
M204 P200 T200
G1 F400
G1 Z0.000 F2500
; --- Backlash X fix: -0.500mm ---
G0 X150.000 Y65.750 F200
G1 X150.000 Y65.800
G1 X150.000 Y65.850
G1 X150.000 Y65.900
G1 X150.000 Y65.950
G1 X150.000 Y66.000
G1 X150.000 Y66.100
G1 X150.000 Y66.150
G1 X150.000 Y66.200
G1 X150.000 Y66.300
G1 X150.000 Y66.350
G1 X150.000 Y66.400
G1 X150.000 Y66.500
G1 X150.000 Y66.600
G1 X150.000 Y66.700
G1 X150.000 Y66.750
G1 X150.000 Y66.800
G1 X150.000 Y66.900
G1 X150.000 Y67.000
G1 X150.000 Y67.100
G1 X150.000 Y67.200
G1 X150.000 Y67.300
G1 X150.000 Y67.400
; --- Backlash X fix: 0.500mm ---
G0 X150.000 Y67.400 F200
G1 X150.000 Y67.450
G1 X150.000 Y67.500
G1 X150.000 Y67.600
G1 X150.000 Y67.700
G1 X150.000 Y67.750
G1 X150.000 Y67.800
G1 X150.000 Y67.900
G1 X150.000 Y67.950
G1 X150.000 Y68.000
G1 X150.000 Y68.100
G1 X150.000 Y68.150
G1 X150.000 Y68.200
G1 X150.000 Y68.250
G1 X150.000 Y68.300
G1 X150.000 Y68.350
G0 Z4.600 F3000
M400
M204 P12000 T12000
G1 F12000
G0 X150.000 Y73.250 Z4.600
M400
M204 P200 T200
G1 F400
G1 Z0.000 F2500
; --- Backlash X fix: -0.500mm ---
G0 X150.000 Y73.250 F200
G1 X150.000 Y73.300
G1 X150.000 Y73.400
G1 X150.000 Y73.500
G1 X150.000 Y73.600
G1 X150.000 Y73.700
G1 X150.000 Y73.800
; --- Backlash X fix: 0.500mm ---
G0 X150.000 Y73.800 F200
G1 X150.000 Y73.850
G0 Z4.600 F3000
M400
M204 P12000 T12000
G1 F12000
; --- Backlash X fix: -0.500mm ---
G0 X150.000 Y73.850 F200
; --- Backlash Y fix: -1.600mm ---
G0 X150.000 Y72.250 F200
G0 X150.000 Y70.900 Z4.600
M400
M204 P200 T200
G1 F400
G1 Z0.000 F2500
; --- Backlash X fix: 0.500mm ---
G0 X150.000 Y70.900 F200
G1 X150.000 Y70.950
G1 X150.000 Y70.950
G1 X150.000 Y70.950
G1 X150.000 Y70.900
G1 X150.000 Y70.850
G1 X150.000 Y70.850
G1 X150.000 Y70.850
G1 X150.000 Y70.850
G1 X150.000 Y70.800
G1 X150.000 Y70.750
G1 X150.000 Y70.750
G1 X150.000 Y70.700
G1 X150.000 Y70.650
G1 X150.000 Y70.650
G1 X150.000 Y70.600
G1 X150.000 Y70.550
G1 X150.000 Y70.550
G1 X150.000 Y70.500
G1 X150.000 Y70.450
G1 X150.000 Y70.400
G1 X150.000 Y70.350
G1 X150.000 Y70.300
G1 X150.000 Y70.200
G1 X150.000 Y70.150
G1 X150.000 Y70.100
G1 X150.000 Y70.050
G1 X150.000 Y70.000
G1 X150.000 Y69.900
G1 X150.000 Y69.850
G1 X150.000 Y69.800
G1 X150.000 Y69.700
G1 X150.000 Y69.650
G1 X150.000 Y69.600
G1 X150.000 Y69.500
G1 X150.000 Y69.400
G1 X150.000 Y69.300
G1 X150.000 Y69.200
G1 X150.000 Y69.100
G1 X150.000 Y69.000
G1 X150.000 Y68.900
G1 X150.000 Y68.800
G1 X150.000 Y68.700
G1 X150.000 Y68.600
; --- Backlash X fix: -0.500mm ---
G0 X150.000 Y68.600 F200
G1 X150.000 Y68.550
G1 X150.000 Y68.500
G1 X150.000 Y68.400
G1 X150.000 Y68.350
G1 X150.000 Y68.300
G1 X150.000 Y68.200
G1 X150.000 Y68.150
G1 X150.000 Y68.100
G1 X150.000 Y68.000
G1 X150.000 Y67.950
G1 X150.000 Y67.900
G1 X150.000 Y67.850
G1 X150.000 Y67.800
G1 X150.000 Y67.750
G1 X150.000 Y67.700
G1 X150.000 Y67.650
G1 X150.000 Y67.650
G1 X150.000 Y67.600
G1 X150.000 Y67.550
G1 X150.000 Y67.500
G1 X150.000 Y67.450
