G90
G21
; === MULTI-COLOR PAINTER GCODE ===
; Generated layers: 1
; Backlash compensation: ON  BX=0.5 BY=1.6
; Working area clamping: ON  X[0–150] Y[0–150]


; ═══════════════════════════════
; LAYER 1: Color 1 — Red
; Infill: concentric (outline only)
; ═══════════════════════════════


; --- CIKEL NAMAKANJA ---
G0 Z4.600 F3000
M400
M204 P12000 T12000
G1 F12000
G0 X54.784 Y3.541 Z31.000
G1 Z0.000 F3000
G1 X54.784 Y3.541 F2500
G1 X54.784 Y6.041 F2500
G1 X49.784 Y3.541 F2500
G1 X54.784 Y-3.959 F2500
G0 Z16.000 F3000
G0 X81.276 Y12.909
G0 Z31.000 F3000
G0 X101.500 Y30.000 Z4.600
M400
M204 P12000 T12000
G1 F12000
G0 X101.500 Y30.000 Z4.600
M400
M204 P200 T200
G1 F400
G1 Z0.000 F2500
G1 X102.000 Y30.500
G1 X103.000 Y30.500
G1 X104.000 Y30.500
G1 X105.000 Y30.500
G1 X105.500 Y31.000
G1 X106.000 Y31.500
G1 X107.000 Y31.500
G1 X108.000 Y31.500
G1 X109.000 Y31.500
G1 X109.500 Y32.000
G1 X110.000 Y32.500
G1 X111.000 Y32.500
G1 X112.000 Y32.500
G1 X112.500 Y33.000
G1 X113.000 Y33.500
G1 X114.000 Y33.500
G1 X114.500 Y34.000
G1 X115.000 Y34.500
G1 X116.000 Y34.500
G1 X116.500 Y35.000
G1 X117.000 Y35.500
G1 X117.500 Y36.000
G1 X118.000 Y36.500
G1 X119.000 Y36.500
G1 X119.500 Y37.000
G1 X120.000 Y37.500
G1 X121.000 Y37.500
G1 X121.500 Y38.000
G1 X122.000 Y38.500
G1 X123.000 Y38.500
G1 X123.500 Y39.000
G1 X124.000 Y39.500
G1 X124.500 Y40.000
G1 X125.000 Y40.500
G1 X125.500 Y41.000
G1 X126.000 Y41.500
G1 X127.000 Y41.500
G1 X127.500 Y42.000
G1 X128.000 Y42.500
G1 X128.500 Y43.000
G1 X129.000 Y43.500
G1 X129.500 Y44.000
G1 X130.000 Y44.500
G1 X130.500 Y45.000
G1 X131.000 Y45.500
G1 X131.500 Y46.000
G1 X132.000 Y46.500
G1 X132.500 Y47.000
G1 X133.000 Y47.500
G1 X133.500 Y48.000
G1 X134.000 Y48.500
G1 X134.500 Y49.000
G1 X135.000 Y49.500
G1 X135.500 Y50.000
G1 X136.000 Y50.500
G1 X136.500 Y51.000
G1 X137.000 Y51.500
G1 X137.500 Y52.000
G1 X137.500 Y53.000
G1 X138.000 Y53.500
G1 X138.500 Y54.000
G1 X139.000 Y54.500
G1 X139.500 Y55.000
G1 X140.000 Y55.500
G1 X140.500 Y56.000
G1 X140.500 Y57.000
G1 X141.000 Y57.500
G1 X141.500 Y58.000
G1 X141.500 Y59.000
G1 X142.000 Y59.500
G1 X142.500 Y60.000
G1 X143.000 Y60.500
G1 X143.500 Y61.000
G1 X143.500 Y62.000
G1 X144.000 Y62.500
G1 X144.500 Y63.000
G1 X144.500 Y64.000
G1 X145.000 Y64.500
G1 X145.500 Y65.000
G1 X145.500 Y66.000
G1 X146.000 Y66.500
G1 X146.500 Y67.000
G1 X146.500 Y68.000
G1 X146.500 Y69.000
G1 X147.000 Y69.500
G1 X147.500 Y70.000
G1 X147.500 Y71.000
G1 X147.500 Y72.000
G1 X147.500 Y73.000
G1 X148.000 Y73.500
G1 X148.500 Y74.000
G1 X148.500 Y75.000
G1 X148.500 Y76.000
G1 X148.500 Y77.000
G1 X149.000 Y77.500
G0 Z4.600 F3000
M400
M204 P12000 T12000
G1 F12000
G0 X149.000 Y101.500 Z4.600
M400
M204 P200 T200
G1 F400
G1 Z0.000 F2500
; --- Backlash X fix: -0.500mm ---
G0 X148.500 Y101.500 F200
G1 X148.000 Y102.000
G1 X148.000 Y103.000
G1 X148.000 Y104.000
G1 X148.000 Y105.000
G1 X147.500 Y105.500
G1 X147.000 Y106.000
G1 X147.000 Y107.000
G1 X147.000 Y108.000
G1 X147.000 Y109.000
G1 X146.500 Y109.500
G1 X146.000 Y110.000
G1 X146.000 Y111.000
G1 X146.000 Y112.000
G1 X145.500 Y112.500
G1 X145.000 Y113.000
G1 X145.000 Y114.000
G1 X144.500 Y114.500
G1 X144.000 Y115.000
G1 X144.000 Y116.000
G1 X143.500 Y116.500
G1 X143.000 Y117.000
G1 X143.000 Y118.000
G1 X142.500 Y118.500
G1 X142.000 Y119.000
G1 X141.500 Y119.500
G1 X141.000 Y120.000
G1 X141.000 Y121.000
G1 X140.500 Y121.500
G1 X140.000 Y122.000
G1 X140.000 Y123.000
G1 X139.500 Y123.500
G1 X139.000 Y124.000
G1 X138.500 Y124.500
G1 X138.000 Y125.000
G1 X137.500 Y125.500
G1 X137.000 Y126.000
G1 X137.000 Y127.000
G1 X136.500 Y127.500
G1 X136.000 Y128.000
G1 X135.500 Y128.500
G1 X135.000 Y129.000
G1 X134.500 Y129.500
G1 X134.000 Y130.000
G1 X133.500 Y130.500
G1 X133.000 Y131.000
G1 X132.500 Y131.500
G1 X132.000 Y132.000
G1 X131.500 Y132.500
G1 X131.000 Y133.000
G1 X130.500 Y133.500
G1 X130.000 Y134.000
G1 X129.500 Y134.500
G1 X129.000 Y135.000
G1 X128.500 Y135.500
G1 X128.000 Y136.000
G1 X127.500 Y136.500
G1 X127.000 Y137.000
G1 X126.500 Y137.500
G1 X125.500 Y137.500
G1 X125.000 Y138.000
G1 X124.500 Y138.500
G1 X124.000 Y139.000
G1 X123.500 Y139.500
G1 X123.000 Y140.000
G1 X122.500 Y140.500
G1 X121.500 Y140.500
G1 X121.000 Y141.000
G1 X120.500 Y141.500
G1 X119.500 Y141.500
G1 X119.000 Y142.000
G1 X118.500 Y142.500
G1 X117.500 Y142.500
G1 X117.000 Y143.000
G1 X116.500 Y143.500
G1 X116.000 Y144.000
G1 X115.500 Y144.500
G1 X114.500 Y144.500
G1 X114.000 Y145.000
G1 X113.500 Y145.500
G1 X112.500 Y145.500
G1 X112.000 Y146.000
G1 X111.500 Y146.500
G1 X110.500 Y146.500
G1 X109.500 Y146.500
G1 X109.000 Y147.000
G1 X108.500 Y147.500
G1 X107.500 Y147.500
G1 X106.500 Y147.500
G1 X105.500 Y147.500
G1 X105.000 Y148.000
G1 X104.500 Y148.500
G1 X103.500 Y148.500
G1 X102.500 Y148.500
G1 X101.500 Y148.500
G1 X101.000 Y149.000
G0 Z4.600 F3000
M400
M204 P12000 T12000
G1 F12000
G0 X77.000 Y149.000 Z4.600
M400
M204 P200 T200
G1 F400
G1 Z0.000 F2500
; --- Backlash Y fix: -1.600mm ---
G0 X77.000 Y147.400 F200
G1 X76.500 Y146.900
G1 X75.500 Y146.900
G1 X74.500 Y146.900
G1 X73.500 Y146.900
G1 X73.000 Y146.400
G1 X72.500 Y145.900
G1 X71.500 Y145.900
G1 X70.500 Y145.900
G1 X69.500 Y145.900
G1 X69.000 Y145.400
G1 X68.500 Y144.900
G1 X67.500 Y144.900
G1 X66.500 Y144.900
G1 X66.000 Y144.400
G1 X65.500 Y143.900
G1 X64.500 Y143.900
G1 X64.000 Y143.400
G1 X63.500 Y142.900
G1 X62.500 Y142.900
G1 X62.000 Y142.400
G1 X61.500 Y141.900
G1 X60.500 Y141.900
G1 X60.000 Y141.400
G1 X59.500 Y140.900
G1 X59.000 Y140.400
G1 X58.500 Y139.900
G1 X57.500 Y139.900
G1 X57.000 Y139.400
G1 X56.500 Y138.900
G1 X55.500 Y138.900
G1 X55.000 Y138.400
G1 X54.500 Y137.900
G1 X54.000 Y137.400
G1 X53.500 Y136.900
G1 X53.000 Y136.400
G1 X52.500 Y135.900
G1 X51.500 Y135.900
G1 X51.000 Y135.400
G1 X50.500 Y134.900
G1 X50.000 Y134.400
G1 X49.500 Y133.900
G1 X49.000 Y133.400
G1 X48.500 Y132.900
G1 X48.000 Y132.400
G1 X47.500 Y131.900
G1 X47.000 Y131.400
G1 X46.500 Y130.900
G1 X46.000 Y130.400
G1 X45.500 Y129.900
G1 X45.000 Y129.400
G1 X44.500 Y128.900
G1 X44.000 Y128.400
G1 X43.500 Y127.900
G1 X43.000 Y127.400
G1 X42.500 Y126.900
G1 X42.000 Y126.400
G1 X41.500 Y125.900
G1 X41.000 Y125.400
G1 X41.000 Y124.400
G1 X40.500 Y123.900
G1 X40.000 Y123.400
G1 X39.500 Y122.900
G1 X39.000 Y122.400
G1 X38.500 Y121.900
G1 X38.000 Y121.400
G1 X38.000 Y120.400
G1 X37.500 Y119.900
G1 X37.000 Y119.400
G1 X37.000 Y118.400
G1 X36.500 Y117.900
G1 X36.000 Y117.400
G1 X35.500 Y116.900
G1 X35.000 Y116.400
G1 X35.000 Y115.400
G1 X34.500 Y114.900
G1 X34.000 Y114.400
G1 X34.000 Y113.400
G1 X33.500 Y112.900
G1 X33.000 Y112.400
G1 X33.000 Y111.400
G1 X32.500 Y110.900
G1 X32.000 Y110.400
G1 X32.000 Y109.400
G1 X32.000 Y108.400
G1 X31.500 Y107.900
G1 X31.000 Y107.400
G1 X31.000 Y106.400
G1 X31.000 Y105.400
G1 X31.000 Y104.400
G1 X30.500 Y103.900
G1 X30.000 Y103.400
G1 X30.000 Y102.400
G1 X30.000 Y101.400
G1 X30.000 Y100.400
G1 X29.500 Y99.900
G0 Z4.600 F3000
M400
M204 P12000 T12000
G1 F12000
G0 X29.500 Y75.900 Z4.600
M400
M204 P200 T200
G1 F400
G1 Z0.000 F2500
; --- Backlash X fix: 0.500mm ---
G0 X30.000 Y75.900 F200
G1 X30.500 Y75.400
G1 X30.500 Y74.400
G1 X30.500 Y73.400
G1 X30.500 Y72.400
G1 X31.000 Y71.900
G1 X31.500 Y71.400
G1 X31.500 Y70.400
G1 X31.500 Y69.400
G1 X31.500 Y68.400
G1 X32.000 Y67.900
G1 X32.500 Y67.400
G1 X32.500 Y66.400
G1 X32.500 Y65.400
G1 X33.000 Y64.900
G1 X33.500 Y64.400
G1 X33.500 Y63.400
G1 X34.000 Y62.900
G1 X34.500 Y62.400
G1 X34.500 Y61.400
G1 X35.000 Y60.900
G1 X35.500 Y60.400
G1 X35.500 Y59.400
G1 X36.000 Y58.900
G1 X36.500 Y58.400
G1 X37.000 Y57.900
G1 X37.500 Y57.400
G1 X37.500 Y56.400
G1 X38.000 Y55.900
G1 X38.500 Y55.400
G1 X38.500 Y54.400
G1 X39.000 Y53.900
G1 X39.500 Y53.400
G1 X40.000 Y52.900
G1 X40.500 Y52.400
G1 X41.000 Y51.900
G1 X41.500 Y51.400
G1 X41.500 Y50.400
G1 X42.000 Y49.900
G1 X42.500 Y49.400
G1 X43.000 Y48.900
G1 X43.500 Y48.400
G1 X44.000 Y47.900
G1 X44.500 Y47.400
G1 X45.000 Y46.900
G1 X45.500 Y46.400
G1 X46.000 Y45.900
G1 X46.500 Y45.400
G1 X47.000 Y44.900
G1 X47.500 Y44.400
G1 X48.000 Y43.900
G1 X48.500 Y43.400
G1 X49.000 Y42.900
G1 X49.500 Y42.400
G1 X50.000 Y41.900
G1 X50.500 Y41.400
G1 X51.000 Y40.900
G1 X51.500 Y40.400
G0 Z4.600 F3000

; --- CIKEL NAMAKANJA ---
G0 Z4.600 F3000
M400
M204 P12000 T12000
G1 F12000
G0 X72.725 Y7.916 Z31.000
G1 Z0.000 F3000
G1 X72.725 Y7.916 F2500
G1 X72.725 Y10.416 F2500
G1 X67.725 Y7.916 F2500
G1 X72.725 Y0.416 F2500
G0 Z16.000 F3000
G0 X59.607 Y18.951
G0 Z31.000 F3000
G0 X52.000 Y41.500 Z4.600
M400
M204 P200 T200
G1 F400
G1 Z0.000 F2500
G1 X52.000 Y39.900
G1 X53.000 Y39.900
G1 X53.500 Y39.400
G1 X54.000 Y38.900
G1 X54.500 Y38.400
G1 X55.000 Y37.900
G1 X56.000 Y37.900
G1 X56.500 Y37.400
G1 X57.000 Y36.900
G1 X57.500 Y36.400
G1 X58.000 Y35.900
G1 X59.000 Y35.900
G1 X59.500 Y35.400
G1 X60.000 Y34.900
G1 X60.500 Y34.400
G1 X61.000 Y33.900
G1 X62.000 Y33.900
G1 X62.500 Y33.400
G1 X63.000 Y32.900
G1 X64.000 Y32.900
G1 X64.500 Y32.400
G1 X65.000 Y31.900
G1 X66.000 Y31.900
G1 X66.500 Y31.400
G1 X67.000 Y30.900
G1 X68.000 Y30.900
G1 X69.000 Y30.900
G1 X69.500 Y30.400
G1 X70.000 Y29.900
G1 X71.000 Y29.900
G1 X72.000 Y29.900
G1 X73.000 Y29.900
G1 X73.500 Y29.400
G1 X74.000 Y28.900
G1 X75.000 Y28.900
G1 X76.000 Y28.900
G1 X77.000 Y28.900
G1 X77.500 Y28.400
G0 Z4.600 F3000

M400
G0 Z31.000 F3000
M2