G90
G21
; === MULTI-COLOR PAINTER GCODE ===
; Generated layers: 1
; Backlash compensation: ON  BX=0.5 BY=1.6
; Working area clamping: ON  X[0–150] Y[0–150]


; ═══════════════════════════════
; LAYER 1: Color 1 — Red
; Infill: concentric (outline only)
; ═══════════════════════════════


; --- CIKEL NAMAKANJA ---
G0 Z4.600 F3000
M400
M204 P12000 T12000
G1 F12000
G0 X69.885 Y1.668 Z31.000
G1 Z0.000 F3000
G1 X69.885 Y1.668 F2500
G1 X69.885 Y4.168 F2500
G1 X64.885 Y1.668 F2500
G1 X69.885 Y0.000 F2500
G0 Z16.000 F3000
G0 X64.262 Y14.899
G0 Z31.000 F3000
G0 X62.500 Y30.000 Z4.600
M400
M204 P12000 T12000
G1 F12000
G0 X62.500 Y30.000 Z4.600
M400
M204 P200 T200
G1 F400
G1 Z0.000 F2500
; --- Backlash X fix: 0.500mm ---
G0 X63.000 Y30.000 F200
G1 X63.500 Y30.500
G1 X64.000 Y31.000
G1 X64.500 Y31.500
G1 X65.500 Y31.500
G1 X66.500 Y31.500
G1 X67.500 Y31.500
; --- Backlash Y fix: -1.600mm ---
G0 X67.500 Y29.900 F200
G1 X68.000 Y29.400
G1 X68.500 Y28.900
; --- Backlash Y fix: 1.600mm ---
G0 X68.500 Y30.500 F200
G1 X69.000 Y31.000
G1 X69.000 Y32.000
G1 X69.000 Y33.000
G1 X69.500 Y33.500
G1 X70.000 Y34.000
G1 X70.500 Y34.500
G1 X71.500 Y34.500
G1 X72.500 Y34.500
G1 X73.500 Y34.500
G1 X74.500 Y34.500
G1 X75.000 Y35.000
G1 X75.000 Y36.000
; --- Backlash X fix: -0.500mm ---
G0 X74.500 Y36.000 F200
G1 X74.000 Y36.500
; --- Backlash Y fix: -1.600mm ---
G0 X74.000 Y34.900 F200
G1 X73.500 Y34.400
G1 X73.000 Y33.900
G1 X72.000 Y33.900
G1 X71.000 Y33.900
; --- Backlash Y fix: 1.600mm ---
G0 X71.000 Y35.500 F200
G1 X70.500 Y36.000
G1 X70.000 Y36.500
G1 X69.500 Y37.000
G1 X69.000 Y37.500
G1 X68.500 Y38.000
G1 X68.500 Y39.000
; --- Backlash X fix: 0.500mm ---
G0 X69.000 Y39.000 F200
G1 X69.500 Y39.500
G1 X70.000 Y40.000
G1 X70.500 Y40.500
G1 X71.000 Y41.000
G1 X71.500 Y41.500
G1 X72.500 Y41.500
; --- Backlash Y fix: -1.600mm ---
G0 X72.500 Y39.900 F200
G1 X73.000 Y39.400
G1 X73.500 Y38.900
G1 X74.500 Y38.900
; --- Backlash Y fix: 1.600mm ---
G0 X74.500 Y40.500 F200
G1 X75.000 Y41.000
G1 X75.000 Y42.000
; --- Backlash X fix: -0.500mm ---
G0 X74.500 Y42.000 F200
G1 X74.000 Y42.500
G1 X73.000 Y42.500
G1 X72.000 Y42.500
G1 X71.000 Y42.500
G1 X70.000 Y42.500
G1 X69.500 Y43.000
G1 X69.500 Y44.000
G1 X69.500 Y45.000
G1 X69.500 Y46.000
; --- Backlash X fix: 0.500mm ---
G0 X70.000 Y46.000 F200
G1 X70.500 Y46.500
G1 X71.000 Y47.000
G1 X71.500 Y47.500
G1 X72.500 Y47.500
G1 X73.500 Y47.500
G1 X74.500 Y47.500
G1 X75.000 Y48.000
; --- Backlash X fix: -0.500mm ---
G0 X74.500 Y48.000 F200
G1 X74.000 Y48.500
G1 X73.000 Y48.500
G1 X72.000 Y48.500
G1 X71.000 Y48.500
G1 X70.500 Y49.000
G1 X70.000 Y49.500
G1 X69.500 Y50.000
G1 X69.500 Y51.000
G1 X69.500 Y52.000
G1 X69.000 Y52.500
G1 X68.000 Y52.500
G1 X67.000 Y52.500
G1 X66.000 Y52.500
G1 X65.500 Y53.000
G1 X65.000 Y53.500
G1 X64.500 Y54.000
G1 X64.500 Y55.000
G1 X64.500 Y56.000
; --- Backlash X fix: 0.500mm ---
G0 X65.000 Y56.000 F200
G1 X65.500 Y56.500
G1 X66.000 Y57.000
G1 X66.500 Y57.500
G1 X67.500 Y57.500
G1 X68.500 Y57.500
G1 X69.500 Y57.500
; --- Backlash Y fix: -1.600mm ---
G0 X69.500 Y55.900 F200
G1 X70.000 Y55.400
G1 X70.000 Y54.400
G1 X70.500 Y53.900
G1 X71.000 Y53.400
; --- Backlash X fix: -0.500mm ---
G0 X70.500 Y53.400 F200
G1 X70.000 Y52.900
G1 X69.500 Y52.400
; --- Backlash X fix: 0.500mm ---
G0 X70.000 Y52.400 F200
G1 X70.500 Y51.900
; --- Backlash Y fix: 1.600mm ---
G0 X70.500 Y53.500 F200
G1 X71.000 Y54.000
G1 X71.500 Y54.500
G1 X72.500 Y54.500
G1 X73.000 Y55.000
; --- Backlash X fix: -0.500mm ---
G0 X72.500 Y55.000 F200
G1 X72.000 Y55.500
G1 X71.000 Y55.500
G1 X70.500 Y56.000
G1 X70.500 Y57.000
G1 X70.500 Y58.000
G1 X70.500 Y59.000
G1 X70.000 Y59.500
; --- Backlash Y fix: -1.600mm ---
G0 X70.000 Y57.900 F200
G1 X69.500 Y57.400
G1 X69.000 Y56.900
G1 X68.000 Y56.900
G1 X67.000 Y56.900
; --- Backlash Y fix: 1.600mm ---
G0 X67.000 Y58.500 F200
G1 X66.500 Y59.000
G1 X66.000 Y59.500
G1 X65.500 Y60.000
G1 X65.000 Y60.500
G1 X64.500 Y61.000
G1 X64.500 Y62.000
; --- Backlash X fix: 0.500mm ---
G0 X65.000 Y62.000 F200
G1 X65.500 Y62.500
G1 X66.000 Y63.000
G1 X66.500 Y63.500
G1 X67.000 Y64.000
G1 X67.500 Y64.500
G1 X68.500 Y64.500
G1 X69.500 Y64.500
; --- Backlash Y fix: -1.600mm ---
G0 X69.500 Y62.900 F200
G1 X70.000 Y62.400
G1 X70.500 Y61.900
; --- Backlash Y fix: 1.600mm ---
G0 X70.500 Y63.500 F200
G1 X71.000 Y64.000
G1 X71.000 Y65.000
G1 X71.500 Y65.500
G1 X72.000 Y66.000
G1 X72.500 Y66.500
G1 X73.000 Y67.000
G1 X73.000 Y68.000
; --- Backlash X fix: -0.500mm ---
G0 X72.500 Y68.000 F200
G1 X72.000 Y68.500
G1 X71.500 Y69.000
G1 X71.000 Y69.500
; --- Backlash Y fix: -1.600mm ---
G0 X71.000 Y67.900 F200
G1 X70.500 Y67.400
G1 X70.500 Y66.400
G1 X70.500 Y65.400
G1 X70.500 Y64.400
G1 X70.000 Y63.900
G1 X69.000 Y63.900
G1 X68.000 Y63.900
G1 X67.000 Y63.900
; --- Backlash Y fix: 1.600mm ---
G0 X67.000 Y65.500 F200
G1 X66.500 Y66.000
G1 X66.000 Y66.500
G1 X65.500 Y67.000
G1 X65.500 Y68.000
G1 X65.500 Y69.000
; --- Backlash X fix: 0.500mm ---
G0 X66.000 Y69.000 F200
G1 X66.500 Y69.500
G1 X67.000 Y70.000
G1 X67.500 Y70.500
G1 X68.500 Y70.500
G1 X69.500 Y70.500
G1 X70.500 Y70.500
G1 X71.000 Y71.000
; --- Backlash X fix: -0.500mm ---
G0 X70.500 Y71.000 F200
G1 X70.000 Y71.500
G1 X69.000 Y71.500
G1 X68.000 Y71.500
G1 X67.500 Y72.000
G1 X67.000 Y72.500
G1 X66.500 Y73.000
G1 X66.000 Y73.500
G1 X65.500 Y74.000
G1 X65.500 Y75.000
; --- Backlash X fix: 0.500mm ---
G0 X66.000 Y75.000 F200
G1 X66.500 Y75.500
G1 X67.000 Y76.000
G1 X67.500 Y76.500
G1 X68.000 Y77.000
G1 X68.500 Y77.500
G1 X69.500 Y77.500
; --- Backlash Y fix: -1.600mm ---
G0 X69.500 Y75.900 F200
G1 X70.000 Y75.400
G1 X70.500 Y74.900
G1 X71.500 Y74.900
; --- Backlash Y fix: 1.600mm ---
G0 X71.500 Y76.500 F200
G1 X72.000 Y77.000
G1 X72.000 Y78.000
G1 X72.000 Y79.000
G1 X72.500 Y79.500
G1 X73.000 Y80.000
G1 X73.500 Y80.500
G1 X74.000 Y81.000
; --- Backlash X fix: -0.500mm ---
G0 X73.500 Y81.000 F200
G1 X73.000 Y81.500
G1 X72.500 Y82.000
G1 X72.000 Y82.500
G1 X71.500 Y83.000
G1 X71.500 Y84.000
G1 X71.000 Y84.500
G1 X70.000 Y84.500
G1 X69.000 Y84.500
G1 X68.000 Y84.500
G1 X67.500 Y85.000
G1 X67.000 Y85.500
G1 X66.500 Y86.000
G1 X66.500 Y87.000
G1 X66.500 Y88.000
; --- Backlash X fix: 0.500mm ---
G0 X67.000 Y88.000 F200
G1 X67.500 Y88.500
G1 X68.000 Y89.000
G1 X68.500 Y89.500
G1 X69.000 Y90.000
G1 X69.000 Y91.000
; --- Backlash X fix: -0.500mm ---
G0 X68.500 Y91.000 F200
G1 X68.000 Y91.500
G1 X67.500 Y92.000
G1 X67.000 Y92.500
G1 X66.500 Y93.000
G1 X66.500 Y94.000
; --- Backlash X fix: 0.500mm ---
G0 X67.000 Y94.000 F200
G1 X67.500 Y94.500
G1 X68.000 Y95.000
G1 X68.000 Y96.000
G1 X68.500 Y96.500
G1 X69.500 Y96.500
G1 X70.000 Y97.000
; --- Backlash X fix: -0.500mm ---
G0 X69.500 Y97.000 F200
G1 X69.000 Y97.500
G1 X68.500 Y98.000
G1 X68.000 Y98.500
G1 X67.500 Y99.000
G1 X67.500 Y100.000
G1 X67.500 Y101.000
; --- Backlash X fix: 0.500mm ---
G0 X68.000 Y101.000 F200
G1 X68.500 Y101.500
G1 X69.000 Y102.000
G1 X69.500 Y102.500
G1 X70.000 Y103.000
G1 X70.000 Y104.000
; --- Backlash X fix: -0.500mm ---
G0 X69.500 Y104.000 F200
G1 X69.000 Y104.500
G1 X68.500 Y105.000
G1 X68.000 Y105.500
G1 X67.500 Y106.000
G1 X67.500 Y107.000
G1 X67.500 Y108.000
; --- Backlash X fix: 0.500mm ---
G0 X68.000 Y108.000 F200
G1 X68.500 Y108.500
G1 X69.000 Y109.000
G1 X69.500 Y109.500
G1 X70.000 Y110.000
G1 X70.000 Y111.000
; --- Backlash X fix: -0.500mm ---
G0 X69.500 Y111.000 F200
G1 X69.000 Y111.500
G1 X68.500 Y112.000
G1 X68.500 Y113.000
G1 X68.500 Y114.000
G1 X68.000 Y114.500
; --- Backlash Y fix: -1.600mm ---
G0 X68.000 Y112.900 F200
G1 X67.500 Y112.400
G1 X67.000 Y111.900
G1 X66.000 Y111.900
G1 X65.000 Y111.900
; --- Backlash Y fix: 1.600mm ---
G0 X65.000 Y113.500 F200
G1 X64.500 Y114.000
G1 X64.000 Y114.500
G1 X63.500 Y115.000
G1 X63.000 Y115.500
G1 X62.500 Y116.000
G1 X62.500 Y117.000
G1 X62.500 Y118.000
; --- Backlash X fix: 0.500mm ---
G0 X63.000 Y118.000 F200
G1 X63.500 Y118.500
G1 X64.000 Y119.000
G1 X64.500 Y119.500
G1 X65.000 Y120.000
G1 X65.500 Y120.500
G1 X66.500 Y120.500
; --- Backlash Y fix: -1.600mm ---
G0 X66.500 Y118.900 F200
G1 X67.000 Y118.400
G1 X67.500 Y117.900
G1 X68.500 Y117.900
; --- Backlash Y fix: 1.600mm ---
G0 X68.500 Y119.500 F200
G1 X69.000 Y120.000
G1 X69.000 Y121.000
; --- Backlash X fix: -0.500mm ---
G0 X68.500 Y121.000 F200
G1 X68.000 Y121.500
G1 X67.000 Y121.500
G1 X66.000 Y121.500
G1 X65.000 Y121.500
G1 X64.500 Y122.000
G1 X64.500 Y123.000
G1 X64.500 Y124.000
G1 X64.500 Y125.000
; --- Backlash X fix: 0.500mm ---
G0 X65.000 Y125.000 F200
G1 X65.500 Y125.500
G1 X66.500 Y125.500
G1 X67.500 Y125.500
G1 X68.500 Y125.500
; --- Backlash Y fix: -1.600mm ---
G0 X68.500 Y123.900 F200
G1 X69.000 Y123.400
G1 X69.000 Y122.400
G1 X69.000 Y121.400
G1 X69.500 Y120.900
G1 X70.500 Y120.900
; --- Backlash Y fix: 1.600mm ---
G0 X70.500 Y122.500 F200
G1 X71.000 Y123.000
G1 X71.000 Y124.000
; --- Backlash X fix: -0.500mm ---
G0 X70.500 Y124.000 F200
G1 X70.000 Y124.500
G1 X69.500 Y125.000
G1 X69.500 Y126.000
G1 X69.500 Y127.000
G1 X69.500 Y128.000
; --- Backlash X fix: 0.500mm ---
G0 X70.000 Y128.000 F200
G1 X70.500 Y128.500
G1 X71.500 Y128.500
G1 X72.000 Y129.000
; --- Backlash X fix: -0.500mm ---
G0 X71.500 Y129.000 F200
G1 X71.000 Y129.500
G1 X70.500 Y130.000
G1 X70.000 Y130.500
; --- Backlash Y fix: -1.600mm ---
G0 X70.000 Y128.900 F200
G1 X69.500 Y128.400
G1 X69.500 Y127.400
G1 X69.000 Y126.900
G1 X68.500 Y126.400
G1 X68.000 Y125.900
G1 X67.000 Y125.900
G1 X66.000 Y125.900
G1 X65.000 Y125.900
G0 Z4.600 F3000

; --- CIKEL NAMAKANJA ---
G0 Z4.600 F3000
M400
M204 P12000 T12000
G1 F12000
G0 X61.293 Y0.000 Z31.000
G1 Z0.000 F3000
G1 X61.293 Y0.000 F2500
G1 X61.293 Y2.500 F2500
G1 X56.293 Y0.000 F2500
G1 X61.293 Y0.000 F2500
G0 Z16.000 F3000
G0 X65.824 Y14.999
G0 Z31.000 F3000
G0 X64.500 Y128.000 Z4.600
M400
M204 P200 T200
G1 F400
G1 Z0.000 F2500
; --- Backlash Y fix: 1.600mm ---
G0 X65.000 Y127.500 F200
G1 X64.500 Y128.000
G1 X64.500 Y129.000
G1 X64.500 Y130.000
G1 X64.500 Y131.000
G1 X64.500 Y132.000
; --- Backlash X fix: 0.500mm ---
G0 X65.000 Y132.000 F200
G1 X65.500 Y132.500
G1 X66.500 Y132.500
G1 X67.500 Y132.500
G1 X68.500 Y132.500
; --- Backlash Y fix: -1.600mm ---
G0 X68.500 Y130.900 F200
G1 X69.000 Y130.400
G1 X69.500 Y129.900
; --- Backlash Y fix: 1.600mm ---
G0 X69.500 Y131.500 F200
G1 X70.000 Y132.000
G1 X70.000 Y133.000
; --- Backlash X fix: -0.500mm ---
G0 X69.500 Y133.000 F200
G1 X69.000 Y133.500
G1 X68.000 Y133.500
G1 X67.000 Y133.500
G1 X66.000 Y133.500
G1 X65.500 Y134.000
G1 X65.000 Y134.500
G1 X64.500 Y135.000
G1 X64.500 Y136.000
G1 X64.500 Y137.000
G1 X64.500 Y138.000
; --- Backlash X fix: 0.500mm ---
G0 X65.000 Y138.000 F200
G1 X65.500 Y138.500
G1 X66.000 Y139.000
G1 X66.500 Y139.500
G1 X67.500 Y139.500
G1 X68.500 Y139.500
; --- Backlash Y fix: -1.600mm ---
G0 X68.500 Y137.900 F200
G1 X69.000 Y137.400
G1 X69.500 Y136.900
; --- Backlash Y fix: 1.600mm ---
G0 X69.500 Y138.500 F200
G1 X70.000 Y139.000
G1 X70.000 Y140.000
G1 X70.500 Y140.500
G1 X71.000 Y141.000
G1 X71.500 Y141.500
G1 X72.000 Y142.000
G1 X72.500 Y142.500
G1 X73.000 Y143.000
; --- Backlash X fix: -0.500mm ---
G0 X72.500 Y143.000 F200
G1 X72.000 Y143.500
G1 X71.500 Y144.000
G1 X71.000 Y144.500
G1 X70.500 Y145.000
G1 X70.500 Y146.000
G1 X70.500 Y147.000
; --- Backlash X fix: 0.500mm ---
G0 X71.000 Y147.000 F200
G1 X71.500 Y147.500
G1 X72.000 Y148.000
G1 X72.500 Y148.500
G1 X73.500 Y148.500
G1 X74.500 Y148.500
G1 X75.500 Y148.500
; --- Backlash Y fix: -1.600mm ---
G0 X75.500 Y146.900 F200
G1 X76.000 Y146.400
G1 X76.500 Y145.900
G1 X77.000 Y145.400
G1 X77.000 Y144.400
G1 X77.000 Y143.400
; --- Backlash X fix: -0.500mm ---
G0 X76.500 Y143.400 F200
G1 X76.000 Y142.900
G1 X75.500 Y142.400
G1 X75.000 Y141.900
G1 X74.500 Y141.400
G1 X74.500 Y140.400
; --- Backlash X fix: 0.500mm ---
G0 X75.000 Y140.400 F200
G1 X75.500 Y139.900
G1 X76.000 Y139.400
G1 X76.500 Y138.900
G1 X77.000 Y138.400
G1 X77.000 Y137.400
G1 X77.500 Y136.900
G1 X78.500 Y136.900
G1 X79.500 Y136.900
G1 X80.500 Y136.900
; --- Backlash Y fix: 1.600mm ---
G0 X80.500 Y138.500 F200
G1 X81.000 Y139.000
; --- Backlash X fix: -0.500mm ---
G0 X80.500 Y139.000 F200
G1 X80.000 Y139.500
G1 X79.000 Y139.500
G1 X78.000 Y139.500
G1 X77.500 Y140.000
G1 X77.000 Y140.500
G1 X76.500 Y141.000
G1 X76.500 Y142.000
G1 X76.500 Y143.000
; --- Backlash X fix: 0.500mm ---
G0 X77.000 Y143.000 F200
G1 X77.500 Y143.500
G1 X78.000 Y144.000
G1 X78.500 Y144.500
G1 X79.500 Y144.500
G1 X80.500 Y144.500
; --- Backlash Y fix: -1.600mm ---
G0 X80.500 Y142.900 F200
G1 X81.000 Y142.400
G1 X81.500 Y141.900
G1 X82.000 Y141.400
G1 X82.000 Y140.400
G1 X82.500 Y139.900
; --- Backlash Y fix: 1.600mm ---
G0 X82.500 Y141.500 F200
G1 X83.000 Y142.000
G1 X83.000 Y143.000
; --- Backlash X fix: -0.500mm ---
G0 X82.500 Y143.000 F200
G1 X82.000 Y143.500
G1 X81.500 Y144.000
G1 X81.500 Y145.000
G1 X81.500 Y146.000
; --- Backlash X fix: 0.500mm ---
G0 X82.000 Y146.000 F200
G1 X82.500 Y146.500
G1 X83.000 Y147.000
G1 X83.500 Y147.500
G1 X84.500 Y147.500
G1 X85.500 Y147.500
G1 X86.500 Y147.500
; --- Backlash Y fix: -1.600mm ---
G0 X86.500 Y145.900 F200
G1 X87.000 Y145.400
G1 X87.500 Y144.900
G1 X88.000 Y144.400
G1 X88.000 Y143.400
G1 X88.000 Y142.400
G1 X88.500 Y141.900
; --- Backlash Y fix: 1.600mm ---
G0 X88.500 Y143.500 F200
G1 X89.000 Y144.000
G1 X89.500 Y144.500
G1 X90.500 Y144.500
G1 X91.500 Y144.500
; --- Backlash Y fix: -1.600mm ---
G0 X91.500 Y142.900 F200
G1 X92.000 Y142.400
G1 X92.500 Y141.900
G1 X93.000 Y141.400
G1 X93.500 Y140.900
G1 X94.000 Y140.400
G1 X94.500 Y139.900
; --- Backlash Y fix: 1.600mm ---
G0 X94.500 Y141.500 F200
G1 X95.000 Y142.000
; --- Backlash X fix: -0.500mm ---
G0 X94.500 Y142.000 F200
G1 X94.000 Y142.500
G1 X93.500 Y143.000
G1 X93.500 Y144.000
G1 X93.500 Y145.000
G1 X93.500 Y146.000
; --- Backlash X fix: 0.500mm ---
G0 X94.000 Y146.000 F200
G1 X94.500 Y146.500
G1 X95.500 Y146.500
G1 X96.500 Y146.500
G1 X97.500 Y146.500
G1 X98.500 Y146.500
; --- Backlash Y fix: -1.600mm ---
G0 X98.500 Y144.900 F200
G1 X99.000 Y144.400
G1 X99.000 Y143.400
G1 X99.000 Y142.400
G1 X99.500 Y141.900
G1 X100.500 Y141.900
G1 X101.500 Y141.900
G1 X102.500 Y141.900
G1 X103.500 Y141.900
G1 X104.000 Y141.400
G1 X104.500 Y140.900
; --- Backlash Y fix: 1.600mm ---
G0 X104.500 Y142.500 F200
G1 X105.000 Y143.000
G1 X105.000 Y144.000
G1 X105.500 Y144.500
G1 X106.000 Y145.000
G1 X106.500 Y145.500
G1 X107.000 Y146.000
G1 X107.500 Y146.500
; --- Backlash Y fix: -1.600mm ---
G0 X107.500 Y144.900 F200
G1 X108.000 Y144.400
G1 X108.500 Y143.900
G1 X109.500 Y143.900
G1 X110.000 Y143.400
G1 X110.000 Y142.400
G1 X110.000 Y141.400
G1 X110.000 Y140.400
; --- Backlash X fix: -0.500mm ---
G0 X109.500 Y140.400 F200
G1 X109.000 Y139.900
G1 X108.500 Y139.400
G1 X108.500 Y138.400
; --- Backlash X fix: 0.500mm ---
G0 X109.000 Y138.400 F200
G1 X109.500 Y137.900
; --- Backlash Y fix: 1.600mm ---
G0 X109.500 Y139.500 F200
G1 X110.000 Y140.000
G1 X110.000 Y141.000
G1 X110.500 Y141.500
G1 X111.000 Y142.000
G1 X111.500 Y142.500
G1 X112.500 Y142.500
G1 X113.000 Y143.000
G1 X113.500 Y143.500
; --- Backlash Y fix: -1.600mm ---
G0 X113.500 Y141.900 F200
G1 X114.000 Y141.400
G1 X114.500 Y140.900
G1 X115.500 Y140.900
; --- Backlash Y fix: 1.600mm ---
G0 X115.500 Y142.500 F200
G1 X116.000 Y143.000
G1 X116.500 Y143.500
G1 X117.000 Y144.000
G1 X117.000 Y145.000
G1 X117.500 Y145.500
G1 X118.500 Y145.500
G1 X119.500 Y145.500
; --- Backlash Y fix: -1.600mm ---
G0 X119.500 Y143.900 F200
G1 X120.000 Y143.400
G1 X120.500 Y142.900
G1 X121.000 Y142.400
G1 X121.500 Y141.900
G1 X122.000 Y141.400
G1 X122.000 Y140.400
; --- Backlash X fix: -0.500mm ---
G0 X121.500 Y140.400 F200
G1 X121.000 Y139.900
G1 X120.500 Y139.400
G1 X120.000 Y138.900
G1 X119.500 Y138.400
G1 X119.500 Y137.400
; --- Backlash X fix: 0.500mm ---
G0 X120.000 Y137.400 F200
G1 X120.500 Y136.900
G1 X121.000 Y136.400
G1 X121.500 Y135.900
; --- Backlash Y fix: 1.600mm ---
G0 X121.500 Y137.500 F200
G1 X122.000 Y138.000
; --- Backlash X fix: -0.500mm ---
G0 X121.500 Y138.000 F200
G1 X121.000 Y138.500
G1 X120.500 Y139.000
; --- Backlash X fix: 0.500mm ---
G0 X121.000 Y139.000 F200
G1 X121.500 Y139.500
G1 X122.000 Y140.000
G1 X122.000 Y141.000
G1 X122.500 Y141.500
G1 X123.500 Y141.500
G1 X124.500 Y141.500
G1 X125.500 Y141.500
; --- Backlash Y fix: -1.600mm ---
G0 X125.500 Y139.900 F200
G1 X126.000 Y139.400
G1 X126.500 Y138.900
G1 X127.000 Y138.400
G1 X127.000 Y137.400
G1 X127.000 Y136.400
; --- Backlash X fix: -0.500mm ---
G0 X126.500 Y136.400 F200
G1 X126.000 Y135.900
G1 X125.500 Y135.400
G1 X125.000 Y134.900
G1 X124.000 Y134.900
G1 X123.000 Y134.900
G1 X122.000 Y134.900
G1 X121.500 Y134.400
; --- Backlash X fix: 0.500mm ---
G0 X122.000 Y134.400 F200
G1 X122.500 Y133.900
G1 X123.500 Y133.900
G1 X124.500 Y133.900
G1 X125.000 Y133.400
G1 X125.500 Y132.900
G1 X126.500 Y132.900
; --- Backlash Y fix: 1.600mm ---
G0 X126.500 Y134.500 F200
G1 X127.000 Y135.000
G1 X127.000 Y136.000
G1 X127.000 Y137.000
G1 X127.500 Y137.500
G1 X128.000 Y138.000
G1 X128.500 Y138.500
G1 X129.500 Y138.500
G1 X130.500 Y138.500
; --- Backlash Y fix: -1.600mm ---
G0 X130.500 Y136.900 F200
G1 X131.000 Y136.400
G1 X131.500 Y135.900
G1 X132.000 Y135.400
G1 X132.500 Y134.900
G1 X133.000 Y134.400
G1 X133.000 Y133.400
G1 X133.500 Y132.900
; --- Backlash Y fix: 1.600mm ---
G0 X133.500 Y134.500 F200
G1 X134.000 Y135.000
G1 X134.000 Y136.000
; --- Backlash X fix: -0.500mm ---
G0 X133.500 Y136.000 F200
G1 X133.000 Y136.500
G1 X132.500 Y137.000
G1 X132.500 Y138.000
G1 X132.500 Y139.000
G1 X132.500 Y140.000
; --- Backlash X fix: 0.500mm ---
G0 X133.000 Y140.000 F200
G1 X133.500 Y140.500
G1 X134.500 Y140.500
G1 X135.000 Y141.000
G1 X135.500 Y141.500
; --- Backlash Y fix: -1.600mm ---
G0 X135.500 Y139.900 F200
G1 X136.000 Y139.400
G1 X136.500 Y138.900
G1 X137.500 Y138.900
G1 X138.000 Y138.400
G1 X138.000 Y137.400
G1 X138.000 Y136.400
G1 X138.000 Y135.400
; --- Backlash X fix: -0.500mm ---
G0 X137.500 Y135.400 F200
G1 X137.000 Y134.900
G1 X136.500 Y134.400
G1 X136.000 Y133.900
G1 X135.500 Y133.400
; --- Backlash X fix: 0.500mm ---
G0 X136.000 Y133.400 F200
G1 X136.500 Y132.900
G1 X137.500 Y132.900
; --- Backlash Y fix: 1.600mm ---
G0 X137.500 Y134.500 F200
G1 X138.000 Y135.000
G1 X138.000 Y136.000
G1 X138.500 Y136.500
G1 X139.000 Y137.000
G1 X139.500 Y137.500
G1 X140.500 Y137.500
G1 X141.500 Y137.500
G1 X142.500 Y137.500
; --- Backlash Y fix: -1.600mm ---
G0 X142.500 Y135.900 F200
G1 X143.000 Y135.400
G1 X143.500 Y134.900
; --- Backlash Y fix: 1.600mm ---
G0 X143.500 Y136.500 F200
G1 X144.000 Y137.000
G1 X144.000 Y138.000
G1 X144.000 Y139.000
G1 X144.500 Y139.500
G1 X145.000 Y140.000
G1 X145.500 Y140.500
G1 X146.500 Y140.500
G1 X147.500 Y140.500
; --- Backlash Y fix: -1.600mm ---
G0 X147.500 Y138.900 F200
G1 X148.000 Y138.400
G1 X148.500 Y137.900
G1 X149.000 Y137.400
G1 X149.500 Y136.900
G1 X150.000 Y136.400
G1 X150.000 Y135.400
; --- Backlash X fix: -0.500mm ---
G0 X149.500 Y135.400 F200
G1 X149.000 Y134.900
G1 X148.500 Y134.400
G1 X148.500 Y133.400
G1 X148.000 Y132.900
G1 X147.000 Y132.900
G1 X146.000 Y132.900
G1 X145.000 Y132.900
; --- Backlash Y fix: 1.600mm ---
G0 X145.000 Y134.500 F200
G1 X144.500 Y135.000
G1 X144.000 Y135.500
; --- Backlash Y fix: -1.600mm ---
G0 X144.000 Y133.900 F200
G1 X143.500 Y133.400
G1 X143.500 Y132.400
G1 X143.000 Y131.900
G1 X142.500 Y131.400
G1 X142.500 Y130.400
; --- Backlash X fix: 0.500mm ---
G0 X143.000 Y130.400 F200
G1 X143.500 Y129.900
; --- Backlash Y fix: 1.600mm ---
G0 X143.500 Y131.500 F200
G1 X144.000 Y132.000
G1 X144.000 Y133.000
G1 X144.500 Y133.500
G1 X145.500 Y133.500
G1 X146.500 Y133.500
G1 X147.500 Y133.500
; --- Backlash Y fix: -1.600mm ---
G0 X147.500 Y131.900 F200
G1 X148.000 Y131.400
G1 X148.500 Y130.900
G0 Z4.600 F3000

; --- CIKEL NAMAKANJA ---
G0 Z4.600 F3000
M400
M204 P12000 T12000
G1 F12000
G0 X72.666 Y0.000 Z31.000
G1 Z0.000 F3000
G1 X72.666 Y0.000 F2500
G1 X72.666 Y2.500 F2500
G1 X67.666 Y0.000 F2500
G1 X72.666 Y0.000 F2500
G0 Z16.000 F3000
G0 X73.950 Y12.720
G0 Z31.000 F3000
G0 X148.500 Y132.000 Z4.600
M400
M204 P200 T200
G1 F400
G1 Z0.000 F2500
G1 X149.000 Y130.400
G1 X149.000 Y129.400
G1 X149.000 Y128.400
; --- Backlash X fix: -0.500mm ---
G0 X148.500 Y128.400 F200
G1 X148.000 Y127.900
G1 X147.500 Y127.400
G1 X147.000 Y126.900
G1 X146.500 Y126.400
; --- Backlash X fix: 0.500mm ---
G0 X147.000 Y126.400 F200
G1 X147.500 Y125.900
G1 X148.000 Y125.400
G1 X148.500 Y124.900
G1 X149.000 Y124.400
G1 X149.000 Y123.400
G1 X149.500 Y122.900
G1 X150.000 Y122.400
G1 X150.000 Y121.900
; --- Backlash Y fix: 1.600mm ---
G0 X150.000 Y123.500 F200
G1 X150.000 Y124.000
G1 X150.000 Y124.500
; --- Backlash Y fix: -1.600mm ---
G0 X150.000 Y122.900 F200
G1 X150.000 Y122.400
G1 X150.000 Y121.900
G1 X150.000 Y121.900
G1 X150.000 Y121.400
G1 X150.000 Y120.400
G1 X150.000 Y119.400
G1 X150.000 Y118.900
G1 X150.000 Y118.900
G1 X150.000 Y118.900
G1 X150.000 Y118.900
G1 X150.000 Y118.900
G1 X150.000 Y118.400
G1 X150.000 Y117.900
G1 X150.000 Y117.400
G1 X150.000 Y116.400
G1 X150.000 Y115.400
G1 X150.000 Y114.400
; --- Backlash X fix: -0.500mm ---
G0 X150.000 Y114.400 F200
G1 X150.000 Y113.900
G1 X150.000 Y113.400
G1 X150.000 Y112.900
G1 X150.000 Y112.400
G1 X150.000 Y111.900
G1 X150.000 Y111.900
G1 X150.000 Y111.900
; --- Backlash Y fix: 1.600mm ---
G0 X150.000 Y113.500 F200
G1 X150.000 Y114.000
G1 X150.000 Y114.500
G1 X150.000 Y115.000
G1 X150.000 Y115.500
G1 X150.000 Y116.000
G1 X150.000 Y117.000
G1 X150.000 Y117.500
G1 X150.000 Y117.500
G1 X150.000 Y117.500
G1 X149.500 Y118.000
G1 X149.000 Y118.500
; --- Backlash Y fix: -1.600mm ---
G0 X149.000 Y116.900 F200
G1 X148.500 Y116.400
G1 X148.500 Y115.400
G1 X148.000 Y114.900
G1 X147.500 Y114.400
G1 X147.000 Y113.900
G1 X146.500 Y113.400
G1 X146.500 Y112.400
; --- Backlash X fix: 0.500mm ---
G0 X147.000 Y112.400 F200
G1 X147.500 Y111.900
G1 X148.000 Y111.400
G1 X148.000 Y110.400
G1 X148.000 Y109.400
G1 X148.000 Y108.400
; --- Backlash X fix: -0.500mm ---
G0 X147.500 Y108.400 F200
G1 X147.000 Y107.900
G1 X146.500 Y107.400
G1 X146.000 Y106.900
G1 X145.000 Y106.900
G1 X144.500 Y106.400
; --- Backlash X fix: 0.500mm ---
G0 X145.000 Y106.400 F200
G1 X145.500 Y105.900
G1 X146.500 Y105.900
G1 X147.000 Y105.400
G1 X147.000 Y104.400
G1 X147.500 Y103.900
G1 X148.000 Y103.400
; --- Backlash X fix: -0.500mm ---
G0 X147.500 Y103.400 F200
G1 X147.000 Y102.900
G1 X146.500 Y102.400
G1 X146.500 Y101.400
G1 X146.000 Y100.900
G1 X145.000 Y100.900
G1 X144.500 Y100.400
; --- Backlash X fix: 0.500mm ---
G0 X145.000 Y100.400 F200
G1 X145.500 Y99.900
G1 X146.000 Y99.400
G1 X146.500 Y98.900
G1 X147.000 Y98.400
G1 X147.000 Y97.400
G1 X147.000 Y96.400
G1 X147.000 Y95.400
; --- Backlash X fix: -0.500mm ---
G0 X146.500 Y95.400 F200
G1 X146.000 Y94.900
G1 X145.500 Y94.400
G1 X145.000 Y93.900
G1 X144.000 Y93.900
G1 X143.000 Y93.900
; --- Backlash Y fix: 1.600mm ---
G0 X143.000 Y95.500 F200
G1 X142.500 Y96.000
G1 X142.000 Y96.500
G1 X141.000 Y96.500
; --- Backlash Y fix: -1.600mm ---
G0 X141.000 Y94.900 F200
G1 X140.500 Y94.400
G1 X140.500 Y93.400
; --- Backlash X fix: 0.500mm ---
G0 X141.000 Y93.400 F200
G1 X141.500 Y92.900
G1 X142.500 Y92.900
G1 X143.500 Y92.900
G1 X144.500 Y92.900
G1 X145.500 Y92.900
G1 X146.000 Y92.400
G1 X146.000 Y91.400
G1 X146.500 Y90.900
G1 X147.000 Y90.400
; --- Backlash X fix: -0.500mm ---
G0 X146.500 Y90.400 F200
G1 X146.000 Y89.900
G1 X145.500 Y89.400
G1 X145.500 Y88.400
G1 X145.000 Y87.900
G1 X144.000 Y87.900
G1 X143.000 Y87.900
G1 X142.000 Y87.900
G1 X141.000 Y87.900
G1 X140.500 Y87.400
G1 X140.500 Y86.400
G1 X140.000 Y85.900
G1 X139.500 Y85.400
G1 X139.000 Y84.900
G1 X138.500 Y84.400
G1 X138.500 Y83.400
; --- Backlash X fix: 0.500mm ---
G0 X139.000 Y83.400 F200
G1 X139.500 Y82.900
G1 X140.000 Y82.400
G1 X140.000 Y81.400
G1 X140.000 Y80.400
G1 X140.000 Y79.400
; --- Backlash X fix: -0.500mm ---
G0 X139.500 Y79.400 F200
G1 X139.000 Y78.900
G1 X138.500 Y78.400
G1 X138.000 Y77.900
G1 X137.500 Y77.400
; --- Backlash X fix: 0.500mm ---
G0 X138.000 Y77.400 F200
G1 X138.500 Y76.900
G1 X139.000 Y76.400
G1 X139.500 Y75.900
G1 X140.000 Y75.400
G1 X140.000 Y74.400
G1 X140.000 Y73.400
; --- Backlash X fix: -0.500mm ---
G0 X139.500 Y73.400 F200
G1 X139.000 Y72.900
G1 X138.500 Y72.400
G1 X138.000 Y71.900
G1 X137.000 Y71.900
G1 X136.000 Y71.900
G1 X135.000 Y71.900
; --- Backlash Y fix: 1.600mm ---
G0 X135.000 Y73.500 F200
G1 X134.500 Y74.000
G1 X134.000 Y74.500
; --- Backlash Y fix: -1.600mm ---
G0 X134.000 Y72.900 F200
G1 X133.500 Y72.400
G1 X133.500 Y71.400
G1 X133.500 Y70.400
G1 X133.000 Y69.900
G1 X132.500 Y69.400
G1 X132.000 Y68.900
G1 X131.500 Y68.400
; --- Backlash X fix: 0.500mm ---
G0 X132.000 Y68.400 F200
G1 X132.500 Y67.900
G1 X133.000 Y67.400
G1 X133.000 Y66.400
G1 X133.500 Y65.900
G1 X134.000 Y65.400
G1 X134.000 Y64.400
; --- Backlash X fix: -0.500mm ---
G0 X133.500 Y64.400 F200
G1 X133.000 Y63.900
G1 X132.500 Y63.400
G1 X132.000 Y62.900
G1 X131.500 Y62.400
G1 X131.500 Y61.400
; --- Backlash X fix: 0.500mm ---
G0 X132.000 Y61.400 F200
G1 X132.500 Y60.900
G1 X133.000 Y60.400
G1 X133.000 Y59.400
G1 X133.000 Y58.400
G1 X133.000 Y57.400
; --- Backlash X fix: -0.500mm ---
G0 X132.500 Y57.400 F200
G1 X132.000 Y56.900
G1 X131.500 Y56.400
G1 X131.000 Y55.900
G1 X130.500 Y55.400
; --- Backlash X fix: 0.500mm ---
G0 X131.000 Y55.400 F200
G1 X131.500 Y54.900
G1 X132.000 Y54.400
G1 X132.500 Y53.900
G1 X133.000 Y53.400
G1 X133.000 Y52.400
G1 X133.000 Y51.400
; --- Backlash X fix: -0.500mm ---
G0 X132.500 Y51.400 F200
G1 X132.000 Y50.900
G1 X131.500 Y50.400
G1 X131.000 Y49.900
G1 X130.500 Y49.400
G1 X130.000 Y48.900
G1 X129.000 Y48.900
; --- Backlash Y fix: 1.600mm ---
G0 X129.000 Y50.500 F200
G1 X128.500 Y51.000
G1 X128.000 Y51.500
G1 X127.000 Y51.500
; --- Backlash Y fix: -1.600mm ---
G0 X127.000 Y49.900 F200
G1 X126.500 Y49.400
G1 X126.500 Y48.400
G1 X126.000 Y47.900
G1 X125.500 Y47.400
G1 X125.000 Y46.900
G1 X124.500 Y46.400
; --- Backlash X fix: 0.500mm ---
G0 X125.000 Y46.400 F200
G1 X125.500 Y45.900
G1 X126.000 Y45.400
G1 X126.000 Y44.400
G1 X126.500 Y43.900
G1 X127.000 Y43.400
G1 X127.000 Y42.400
; --- Backlash X fix: -0.500mm ---
G0 X126.500 Y42.400 F200
G1 X126.000 Y41.900
G1 X125.500 Y41.400
G1 X125.000 Y40.900
G1 X124.500 Y40.400
G1 X124.000 Y39.900
G1 X123.000 Y39.900
G1 X122.000 Y39.900
G1 X121.000 Y39.900
G1 X120.500 Y39.400
; --- Backlash X fix: 0.500mm ---
G0 X121.000 Y39.400 F200
G1 X121.500 Y38.900
G1 X122.500 Y38.900
G1 X123.500 Y38.900
G1 X124.500 Y38.900
G1 X125.000 Y38.400
G1 X125.500 Y37.900
G1 X126.000 Y37.400
G1 X126.000 Y36.400
G1 X126.000 Y35.400
; --- Backlash X fix: -0.500mm ---
G0 X125.500 Y35.400 F200
G1 X125.000 Y34.900
G1 X124.500 Y34.400
G1 X124.000 Y33.900
G1 X123.000 Y33.900
G1 X122.000 Y33.900
G1 X121.000 Y33.900
; --- Backlash Y fix: 1.600mm ---
G0 X121.000 Y35.500 F200
G1 X120.500 Y36.000
G1 X120.000 Y36.500
G1 X119.500 Y37.000
G1 X119.500 Y38.000
G1 X119.500 Y39.000
G1 X119.000 Y39.500
; --- Backlash Y fix: -1.600mm ---
G0 X119.000 Y37.900 F200
G1 X118.500 Y37.400
G1 X118.000 Y36.900
G1 X117.500 Y36.400
; --- Backlash X fix: 0.500mm ---
G0 X118.000 Y36.400 F200
G1 X118.500 Y35.900
G1 X119.000 Y35.400
G1 X119.500 Y34.900
G1 X120.000 Y34.400
G1 X120.000 Y33.400
G1 X120.000 Y32.400
; --- Backlash X fix: -0.500mm ---
G0 X119.500 Y32.400 F200
G1 X119.000 Y31.900
G1 X118.500 Y31.400
G1 X118.000 Y30.900
G1 X117.000 Y30.900
G1 X116.000 Y30.900
G1 X115.000 Y30.900
; --- Backlash Y fix: 1.600mm ---
G0 X115.000 Y32.500 F200
G1 X114.500 Y33.000
G1 X114.000 Y33.500
; --- Backlash Y fix: -1.600mm ---
G0 X114.000 Y31.900 F200
G1 X113.500 Y31.400
G1 X113.500 Y30.400
G1 X113.500 Y29.400
G1 X113.000 Y28.900
G1 X112.500 Y28.400
G0 Z4.600 F3000
M400
M204 P12000 T12000
G1 F12000
; --- Backlash X fix: 0.500mm ---
G0 X113.000 Y28.400 F200
G0 X114.000 Y28.400 Z4.600
M400
M204 P200 T200
G1 F400
G1 Z0.000 F2500
; --- Backlash Y fix: 1.600mm ---
G0 X114.000 Y30.000 F200
G1 X114.500 Y30.500
G1 X115.000 Y31.000
G1 X115.500 Y31.500
G1 X116.500 Y31.500
G1 X117.500 Y31.500
G1 X118.500 Y31.500
; --- Backlash Y fix: -1.600mm ---
G0 X118.500 Y29.900 F200
G1 X119.000 Y29.400
G1 X119.000 Y28.400
G0 Z4.600 F3000
M400
M204 P12000 T12000
G1 F12000
G0 X120.000 Y28.400 Z4.600
M400
M204 P200 T200
G1 F400
G1 Z0.000 F2500
; --- Backlash Y fix: 1.600mm ---
G0 X120.000 Y30.000 F200
G1 X120.000 Y31.000
G1 X120.000 Y32.000
G1 X120.000 Y33.000
G1 X120.500 Y33.500
G1 X121.000 Y34.000
G1 X121.500 Y34.500
G1 X122.500 Y34.500
G1 X123.500 Y34.500
; --- Backlash Y fix: -1.600mm ---
G0 X123.500 Y32.900 F200
G1 X124.000 Y32.400
G1 X124.500 Y31.900
G1 X125.000 Y31.400
G1 X125.000 Y30.400
G1 X125.000 Y29.400
G1 X125.000 Y28.400
G0 Z4.600 F3000
M400
M204 P12000 T12000
G1 F12000
G0 X126.000 Y28.400 Z4.600
M400
M204 P200 T200
G1 F400
G1 Z0.000 F2500
; --- Backlash Y fix: 1.600mm ---
G0 X126.000 Y30.000 F200
G1 X126.500 Y30.500
G1 X127.500 Y30.500
G1 X128.500 Y30.500
G1 X129.500 Y30.500
; --- Backlash Y fix: -1.600mm ---
G0 X129.500 Y28.900 F200
G1 X130.000 Y28.400
G0 Z4.600 F3000
M400
M204 P12000 T12000
G1 F12000
G0 X132.000 Y28.400 Z4.600
M400
M204 P200 T200
G1 F400
G1 Z0.000 F2500
; --- Backlash Y fix: 1.600mm ---
G0 X132.000 Y30.000 F200
G1 X132.000 Y31.000
G1 X132.000 Y32.000
G1 X132.500 Y32.500
G1 X133.500 Y32.500
G1 X134.500 Y32.500
; --- Backlash Y fix: -1.600mm ---
G0 X134.500 Y30.900 F200
G1 X135.000 Y30.400
G1 X135.500 Y29.900
G1 X136.000 Y29.400
G1 X136.000 Y28.400
G0 Z4.600 F3000
M400
M204 P12000 T12000
G1 F12000
; --- Backlash Y fix: 1.600mm ---
G0 X136.000 Y30.000 F200
G0 X138.000 Y35.000 Z4.600
M400
M204 P200 T200
G1 F400
G1 Z0.000 F2500
G1 X138.500 Y35.500
G1 X139.500 Y35.500
G1 X140.500 Y35.500
; --- Backlash Y fix: -1.600mm ---
G0 X140.500 Y33.900 F200
G1 X141.000 Y33.400
G1 X141.500 Y32.900
G1 X142.000 Y32.400
; --- Backlash X fix: -0.500mm ---
G0 X141.500 Y32.400 F200
G1 X141.000 Y31.900
G1 X140.500 Y31.400
G1 X140.500 Y30.400
G1 X140.000 Y29.900
G1 X139.000 Y29.900
G1 X138.000 Y29.900
; --- Backlash Y fix: 1.600mm ---
G0 X138.000 Y31.500 F200
G1 X137.500 Y32.000
G1 X137.500 Y33.000
G1 X137.000 Y33.500
G1 X136.500 Y34.000
; --- Backlash X fix: 0.500mm ---
G0 X137.000 Y34.000 F200
G1 X137.500 Y34.500
G1 X138.000 Y35.000
G0 Z4.600 F3000
M400
M204 P12000 T12000
G1 F12000
; --- Backlash X fix: -0.500mm ---
G0 X137.500 Y35.000 F200
G0 X132.500 Y39.000 Z4.600
M400
M204 P200 T200
G1 F400
G1 Z0.000 F2500
; --- Backlash X fix: 0.500mm ---
G0 X133.000 Y39.000 F200
G1 X133.500 Y39.500
G1 X134.500 Y39.500
; --- Backlash Y fix: -1.600mm ---
G0 X134.500 Y37.900 F200
G1 X135.000 Y37.400
G1 X135.500 Y36.900
G1 X136.000 Y36.400
G1 X136.000 Y35.400
G1 X136.000 Y34.400
; --- Backlash X fix: -0.500mm ---
G0 X135.500 Y34.400 F200
G1 X135.000 Y33.900
G1 X134.000 Y33.900
G1 X133.000 Y33.900
; --- Backlash Y fix: 1.600mm ---
G0 X133.000 Y35.500 F200
G1 X132.500 Y36.000
G1 X132.000 Y36.500
G1 X131.500 Y37.000
G1 X131.500 Y38.000
; --- Backlash X fix: 0.500mm ---
G0 X132.000 Y38.000 F200
G1 X132.500 Y38.500
G1 X133.000 Y39.000
G0 Z4.600 F3000
M400
M204 P12000 T12000
G1 F12000
G0 X133.000 Y45.000 Z4.600
M400
M204 P200 T200
G1 F400
G1 Z0.000 F2500
G1 X133.500 Y45.500
G1 X134.500 Y45.500
G1 X135.500 Y45.500
; --- Backlash Y fix: -1.600mm ---
G0 X135.500 Y43.900 F200
G1 X136.000 Y43.400
G1 X136.500 Y42.900
G1 X137.000 Y42.400
; --- Backlash X fix: -0.500mm ---
G0 X136.500 Y42.400 F200
G1 X136.000 Y41.900
G1 X135.500 Y41.400
G1 X135.000 Y40.900
G1 X134.500 Y40.400
G1 X134.000 Y39.900
; --- Backlash Y fix: 1.600mm ---
G0 X134.000 Y41.500 F200
G1 X133.500 Y42.000
G1 X133.000 Y42.500
G1 X132.500 Y43.000
G1 X132.500 Y44.000
G1 X132.500 Y45.000
G0 Z4.600 F3000
M400
M204 P12000 T12000
G1 F12000
; --- Backlash Y fix: -1.600mm ---
G0 X132.500 Y43.400 F200
G0 X126.500 Y41.400 Z4.600
M400
M204 P200 T200
G1 F400
G1 Z0.000 F2500
; --- Backlash X fix: 0.500mm ---
G0 X127.000 Y41.400 F200
; --- Backlash Y fix: 1.600mm ---
G0 X127.000 Y43.000 F200
G1 X127.500 Y43.500
G1 X128.500 Y43.500
G1 X129.500 Y43.500
G0 Z4.600 F3000

; --- CIKEL NAMAKANJA ---
G0 Z4.600 F3000
M400
M204 P12000 T12000
G1 F12000
G0 X62.320 Y0.000 Z31.000
G1 Z0.000 F3000
G1 X62.320 Y0.000 F2500
G1 X62.320 Y2.500 F2500
G1 X57.320 Y0.000 F2500
G1 X62.320 Y0.000 F2500
G0 Z16.000 F3000
G0 X78.406 Y8.432
G0 Z31.000 F3000
G0 X130.000 Y43.500 Z4.600
M400
M204 P200 T200
G1 F400
G1 Z0.000 F2500
G1 X130.500 Y43.500
; --- Backlash Y fix: -1.600mm ---
G0 X130.500 Y41.900 F200
G1 X131.000 Y41.400
G1 X131.000 Y40.400
G1 X131.500 Y39.900
G1 X132.000 Y39.400
; --- Backlash X fix: -0.500mm ---
G0 X131.500 Y39.400 F200
G1 X131.000 Y38.900
G1 X130.500 Y38.400
G1 X130.500 Y37.400
G1 X130.000 Y36.900
G1 X129.000 Y36.900
G1 X128.000 Y36.900
G1 X127.000 Y36.900
; --- Backlash Y fix: 1.600mm ---
G0 X127.000 Y38.500 F200
G1 X126.500 Y39.000
G1 X126.000 Y39.500
G1 X125.500 Y40.000
G1 X125.500 Y41.000
G1 X125.500 Y42.000
; --- Backlash X fix: 0.500mm ---
G0 X126.000 Y42.000 F200
G1 X126.500 Y42.500
G1 X127.000 Y43.000
G0 Z4.600 F3000
M400
M204 P12000 T12000
G1 F12000
; --- Backlash Y fix: -1.600mm ---
G0 X127.000 Y41.400 F200
G0 X127.000 Y35.400 Z4.600
M400
M204 P200 T200
G1 F400
G1 Z0.000 F2500
; --- Backlash Y fix: 1.600mm ---
G0 X127.000 Y37.000 F200
G1 X127.500 Y37.500
G1 X128.500 Y37.500
G1 X129.500 Y37.500
; --- Backlash Y fix: -1.600mm ---
G0 X129.500 Y35.900 F200
G1 X130.000 Y35.400
G1 X130.500 Y34.900
G1 X131.000 Y34.400
G1 X131.000 Y33.400
G1 X131.000 Y32.400
G1 X131.000 Y31.400
; --- Backlash X fix: -0.500mm ---
G0 X130.500 Y31.400 F200
G1 X130.000 Y30.900
G1 X129.500 Y30.400
G1 X129.000 Y29.900
G1 X128.000 Y29.900
G1 X127.000 Y29.900
; --- Backlash Y fix: 1.600mm ---
G0 X127.000 Y31.500 F200
G1 X126.500 Y32.000
G1 X126.000 Y32.500
G1 X125.500 Y33.000
G1 X125.000 Y33.500
G1 X124.500 Y34.000
G1 X124.500 Y35.000
; --- Backlash X fix: 0.500mm ---
G0 X125.000 Y35.000 F200
G1 X125.500 Y35.500
G1 X126.000 Y36.000
G1 X126.500 Y36.500
G1 X127.000 Y37.000
G0 Z4.600 F3000
M400
M204 P12000 T12000
G1 F12000
; --- Backlash X fix: -0.500mm ---
G0 X126.500 Y37.000 F200
G0 X118.500 Y45.000 Z4.600
M400
M204 P200 T200
G1 F400
G1 Z0.000 F2500
; --- Backlash X fix: 0.500mm ---
G0 X119.000 Y45.000 F200
G1 X119.500 Y45.500
; --- Backlash Y fix: -1.600mm ---
G0 X119.500 Y43.900 F200
G1 X120.000 Y43.400
; --- Backlash X fix: -0.500mm ---
G0 X119.500 Y43.400 F200
G1 X119.000 Y42.900
; --- Backlash Y fix: 1.600mm ---
G0 X119.000 Y44.500 F200
G1 X118.500 Y45.000
G0 Z4.600 F3000
M400
M204 P12000 T12000
G1 F12000
; --- Backlash X fix: 0.500mm ---
G0 X119.000 Y45.000 F200
G0 X121.000 Y48.000 Z4.600
M400
M204 P200 T200
G1 F400
G1 Z0.000 F2500
G1 X121.500 Y48.500
G1 X122.500 Y48.500
; --- Backlash Y fix: -1.600mm ---
G0 X122.500 Y46.900 F200
G1 X123.000 Y46.400
; --- Backlash X fix: -0.500mm ---
G0 X122.500 Y46.400 F200
G1 X122.000 Y45.900
G1 X121.000 Y45.900
; --- Backlash Y fix: 1.600mm ---
G0 X121.000 Y47.500 F200
G1 X120.500 Y48.000
G0 Z4.600 F3000
M400
M204 P12000 T12000
G1 F12000
G0 X119.500 Y52.000 Z4.600
M400
M204 P200 T200
G1 F400
G1 Z0.000 F2500
; --- Backlash X fix: 0.500mm ---
G0 X120.000 Y52.000 F200
G1 X120.500 Y52.500
; --- Backlash Y fix: -1.600mm ---
G0 X120.500 Y50.900 F200
G1 X121.000 Y50.400
G1 X121.000 Y49.400
; --- Backlash X fix: -0.500mm ---
G0 X120.500 Y49.400 F200
G1 X120.000 Y48.900
; --- Backlash Y fix: 1.600mm ---
G0 X120.000 Y50.500 F200
G1 X119.500 Y51.000
G1 X119.500 Y52.000
G0 Z4.600 F3000
M400
M204 P12000 T12000
G1 F12000
; --- Backlash X fix: 0.500mm ---
G0 X120.000 Y52.000 F200
G0 X121.000 Y55.000 Z4.600
M400
M204 P200 T200
G1 F400
G1 Z0.000 F2500
G1 X121.500 Y55.500
G1 X122.500 Y55.500
; --- Backlash Y fix: -1.600mm ---
G0 X122.500 Y53.900 F200
G1 X123.000 Y53.400
G1 X123.000 Y52.400
; --- Backlash X fix: -0.500mm ---
G0 X122.500 Y52.400 F200
G1 X122.000 Y51.900
G1 X121.000 Y51.900
; --- Backlash Y fix: 1.600mm ---
G0 X121.000 Y53.500 F200
G1 X120.500 Y54.000
G1 X120.500 Y55.000
G0 Z4.600 F3000
M400
M204 P12000 T12000
G1 F12000
; --- Backlash X fix: 0.500mm ---
G0 X121.000 Y55.000 F200
G0 X126.000 Y55.000 Z4.600
M400
M204 P200 T200
G1 F400
G1 Z0.000 F2500
G1 X126.500 Y55.500
; --- Backlash Y fix: -1.600mm ---
G0 X126.500 Y53.900 F200
G1 X127.000 Y53.400
G1 X127.000 Y52.400
; --- Backlash X fix: -0.500mm ---
G0 X126.500 Y52.400 F200
G1 X126.000 Y51.900
G1 X125.000 Y51.900
; --- Backlash Y fix: 1.600mm ---
G0 X125.000 Y53.500 F200
G1 X124.500 Y54.000
; --- Backlash X fix: 0.500mm ---
G0 X125.000 Y54.000 F200
G1 X125.500 Y54.500
G1 X126.000 Y55.000
G0 Z4.600 F3000
M400
M204 P12000 T12000
G1 F12000
G0 X127.000 Y58.000 Z4.600
M400
M204 P200 T200
G1 F400
G1 Z0.000 F2500
G1 X127.500 Y58.500
; --- Backlash Y fix: -1.600mm ---
G0 X127.500 Y56.900 F200
G1 X128.000 Y56.400
G1 X128.500 Y55.900
G1 X129.000 Y55.400
; --- Backlash X fix: -0.500mm ---
G0 X128.500 Y55.400 F200
G1 X128.000 Y54.900
G1 X127.000 Y54.900
; --- Backlash Y fix: 1.600mm ---
G0 X127.000 Y56.500 F200
G1 X126.500 Y57.000
G1 X126.500 Y58.000
G0 Z4.600 F3000
M400
M204 P12000 T12000
G1 F12000
G0 X124.500 Y61.000 Z4.600
M400
M204 P200 T200
G1 F400
G1 Z0.000 F2500
; --- Backlash X fix: 0.500mm ---
G0 X125.000 Y61.000 F200
G1 X125.500 Y61.500
G1 X126.500 Y61.500
; --- Backlash Y fix: -1.600mm ---
G0 X126.500 Y59.900 F200
G1 X127.000 Y59.400
G1 X127.000 Y58.400
; --- Backlash X fix: -0.500mm ---
G0 X126.500 Y58.400 F200
G1 X126.000 Y57.900
; --- Backlash Y fix: 1.600mm ---
G0 X126.000 Y59.500 F200
G1 X125.500 Y60.000
G1 X125.000 Y60.500
G1 X124.500 Y61.000
G0 Z4.600 F3000
M400
M204 P12000 T12000
G1 F12000
G0 X121.500 Y61.000 Z4.600
M400
M204 P200 T200
G1 F400
G1 Z0.000 F2500
; --- Backlash X fix: 0.500mm ---
G0 X122.000 Y61.000 F200
G1 X122.500 Y61.500
G1 X123.500 Y61.500
; --- Backlash Y fix: -1.600mm ---
G0 X123.500 Y59.900 F200
G1 X124.000 Y59.400
; --- Backlash X fix: -0.500mm ---
G0 X123.500 Y59.400 F200
G1 X123.000 Y58.900
G1 X122.000 Y58.900
; --- Backlash Y fix: 1.600mm ---
G0 X122.000 Y60.500 F200
G1 X121.500 Y61.000
G0 Z4.600 F3000
M400
M204 P12000 T12000
G1 F12000
G0 X120.500 Y65.000 Z4.600
M400
M204 P200 T200
G1 F400
G1 Z0.000 F2500
; --- Backlash X fix: 0.500mm ---
G0 X121.000 Y65.000 F200
G1 X121.500 Y65.500
; --- Backlash Y fix: -1.600mm ---
G0 X121.500 Y63.900 F200
G1 X122.000 Y63.400
G1 X122.000 Y62.400
G1 X122.000 Y61.400
; --- Backlash X fix: -0.500mm ---
G0 X121.500 Y61.400 F200
G1 X121.000 Y60.900
; --- Backlash Y fix: 1.600mm ---
G0 X121.000 Y62.500 F200
G1 X120.500 Y63.000
G1 X120.000 Y63.500
G1 X119.500 Y64.000
; --- Backlash X fix: 0.500mm ---
G0 X120.000 Y64.000 F200
G1 X120.500 Y64.500
G1 X121.000 Y65.000
G0 Z4.600 F3000
M400
M204 P12000 T12000
G1 F12000
G0 X122.000 Y68.000 Z4.600
M400
M204 P200 T200
G1 F400
G1 Z0.000 F2500
G1 X122.500 Y68.500
G1 X123.500 Y68.500
; --- Backlash Y fix: -1.600mm ---
G0 X123.500 Y66.900 F200
G1 X124.000 Y66.400
G1 X124.000 Y65.400
; --- Backlash X fix: -0.500mm ---
G0 X123.500 Y65.400 F200
G1 X123.000 Y64.900
G1 X122.000 Y64.900
; --- Backlash Y fix: 1.600mm ---
G0 X122.000 Y66.500 F200
G1 X121.500 Y67.000
G1 X121.500 Y68.000
G0 Z4.600 F3000
M400
M204 P12000 T12000
G1 F12000
; --- Backlash X fix: 0.500mm ---
G0 X122.000 Y68.000 F200
G0 X127.000 Y68.000 Z4.600
M400
M204 P200 T200
G1 F400
G1 Z0.000 F2500
G1 X127.500 Y68.500
; --- Backlash Y fix: -1.600mm ---
G0 X127.500 Y66.900 F200
G1 X128.000 Y66.400
; --- Backlash X fix: -0.500mm ---
G0 X127.500 Y66.400 F200
G1 X127.000 Y65.900
G1 X126.500 Y65.400
G1 X126.000 Y64.900
; --- Backlash Y fix: 1.600mm ---
G0 X126.000 Y66.500 F200
G1 X125.500 Y67.000
; --- Backlash X fix: 0.500mm ---
G0 X126.000 Y67.000 F200
G1 X126.500 Y67.500
G1 X127.000 Y68.000
G0 Z4.600 F3000
M400
M204 P12000 T12000
G1 F12000
G0 X128.000 Y71.000 Z4.600
M400
M204 P200 T200
G1 F400
G1 Z0.000 F2500
G1 X128.500 Y71.500
; --- Backlash Y fix: -1.600mm ---
G0 X128.500 Y69.900 F200
G1 X129.000 Y69.400
G1 X129.500 Y68.900
G1 X130.000 Y68.400
; --- Backlash X fix: -0.500mm ---
G0 X129.500 Y68.400 F200
G1 X129.000 Y67.900
G1 X128.000 Y67.900
; --- Backlash Y fix: 1.600mm ---
G0 X128.000 Y69.500 F200
G1 X127.500 Y70.000
G1 X127.500 Y71.000
G0 Z4.600 F3000
M400
M204 P12000 T12000
G1 F12000
G0 X126.500 Y74.000 Z4.600
M400
M204 P200 T200
G1 F400
G1 Z0.000 F2500
; --- Backlash X fix: 0.500mm ---
G0 X127.000 Y74.000 F200
G1 X127.500 Y74.500
; --- Backlash Y fix: -1.600mm ---
G0 X127.500 Y72.900 F200
G1 X128.000 Y72.400
G1 X128.000 Y71.400
; --- Backlash X fix: -0.500mm ---
G0 X127.500 Y71.400 F200
G1 X127.000 Y70.900
; --- Backlash Y fix: 1.600mm ---
G0 X127.000 Y72.500 F200
G1 X126.500 Y73.000
G1 X126.500 Y74.000
G0 Z4.600 F3000
M400
M204 P12000 T12000
G1 F12000
; --- Backlash X fix: 0.500mm ---
G0 X127.000 Y74.000 F200
G0 X129.000 Y77.000 Z4.600
M400
M204 P200 T200
G1 F400
G1 Z0.000 F2500
G1 X129.500 Y77.500
; --- Backlash Y fix: -1.600mm ---
G0 X129.500 Y75.900 F200
G1 X130.000 Y75.400
; --- Backlash X fix: -0.500mm ---
G0 X129.500 Y75.400 F200
G1 X129.000 Y74.900
; --- Backlash Y fix: 1.600mm ---
G0 X129.000 Y76.500 F200
G1 X128.500 Y77.000
G0 Z4.600 F3000
M400
M204 P12000 T12000
G1 F12000
G0 X126.500 Y80.000 Z4.600
M400
M204 P200 T200
G1 F400
G1 Z0.000 F2500
; --- Backlash X fix: 0.500mm ---
G0 X127.000 Y80.000 F200
G1 X127.500 Y80.500
; --- Backlash Y fix: -1.600mm ---
G0 X127.500 Y78.900 F200
G1 X128.000 Y78.400
; --- Backlash X fix: -0.500mm ---
G0 X127.500 Y78.400 F200
G1 X127.000 Y77.900
; --- Backlash Y fix: 1.600mm ---
G0 X127.000 Y79.500 F200
G1 X126.500 Y80.000
G0 Z4.600 F3000
M400
M204 P12000 T12000
G1 F12000
G0 X122.500 Y81.000 Z4.600
M400
M204 P200 T200
G1 F400
G1 Z0.000 F2500
; --- Backlash X fix: 0.500mm ---
G0 X123.000 Y81.000 F200
G1 X123.500 Y81.500
; --- Backlash Y fix: -1.600mm ---
G0 X123.500 Y79.900 F200
G1 X124.000 Y79.400
G1 X124.000 Y78.400
; --- Backlash X fix: -0.500mm ---
G0 X123.500 Y78.400 F200
G1 X123.000 Y77.900
; --- Backlash Y fix: 1.600mm ---
G0 X123.000 Y79.500 F200
G1 X122.500 Y80.000
G1 X122.500 Y81.000
G0 Z4.600 F3000
M400
M204 P12000 T12000
G1 F12000
G0 X120.500 Y84.000 Z4.600
M400
M204 P200 T200
G1 F400
G1 Z0.000 F2500
; --- Backlash X fix: 0.500mm ---
G0 X121.000 Y84.000 F200
G1 X121.500 Y84.500
G1 X122.500 Y84.500
; --- Backlash Y fix: -1.600mm ---
G0 X122.500 Y82.900 F200
G1 X123.000 Y82.400
G1 X123.000 Y81.400
; --- Backlash X fix: -0.500mm ---
G0 X122.500 Y81.400 F200
G1 X122.000 Y80.900
; --- Backlash Y fix: 1.600mm ---
G0 X122.000 Y82.500 F200
G1 X121.500 Y83.000
G1 X121.000 Y83.500
G1 X120.500 Y84.000
G0 Z4.600 F3000
M400
M204 P12000 T12000
G1 F12000
G0 X117.500 Y84.000 Z4.600
M400
M204 P200 T200
G1 F400
G1 Z0.000 F2500
; --- Backlash X fix: 0.500mm ---
G0 X118.000 Y84.000 F200
G1 X118.500 Y84.500
G1 X119.500 Y84.500
; --- Backlash Y fix: -1.600mm ---
G0 X119.500 Y82.900 F200
G1 X120.000 Y82.400
; --- Backlash X fix: -0.500mm ---
G0 X119.500 Y82.400 F200
G1 X119.000 Y81.900
G1 X118.000 Y81.900
; --- Backlash Y fix: 1.600mm ---
G0 X118.000 Y83.500 F200
G1 X117.500 Y84.000
G0 Z4.600 F3000
M400
M204 P12000 T12000
G1 F12000
G0 X116.500 Y88.000 Z4.600
M400
M204 P200 T200
G1 F400
G1 Z0.000 F2500
; --- Backlash X fix: 0.500mm ---
G0 X117.000 Y88.000 F200
G1 X117.500 Y88.500
; --- Backlash Y fix: -1.600mm ---
G0 X117.500 Y86.900 F200
G1 X118.000 Y86.400
; --- Backlash X fix: -0.500mm ---
G0 X117.500 Y86.400 F200
G1 X117.000 Y85.900
; --- Backlash Y fix: 1.600mm ---
G0 X117.000 Y87.500 F200
G1 X116.500 Y88.000
G0 Z4.600 F3000
M400
M204 P12000 T12000
G1 F12000
; --- Backlash X fix: 0.500mm ---
G0 X117.000 Y88.000 F200
G0 X118.000 Y91.000 Z4.600
M400
M204 P200 T200
G1 F400
G1 Z0.000 F2500
G1 X118.500 Y91.500
; --- Backlash Y fix: -1.600mm ---
G0 X118.500 Y89.900 F200
G1 X119.000 Y89.400
G1 X119.000 Y88.400
; --- Backlash X fix: -0.500mm ---
G0 X118.500 Y88.400 F200
G1 X118.000 Y87.900
; --- Backlash Y fix: 1.600mm ---
G0 X118.000 Y89.500 F200
G1 X117.500 Y90.000
G1 X117.500 Y91.000
G0 Z4.600 F3000
M400
M204 P12000 T12000
G1 F12000
G0 X116.500 Y94.000 Z4.600
M400
M204 P200 T200
G1 F400
G1 Z0.000 F2500
; --- Backlash X fix: 0.500mm ---
G0 X117.000 Y94.000 F200
G1 X117.500 Y94.500
; --- Backlash Y fix: -1.600mm ---
G0 X117.500 Y92.900 F200
G1 X118.000 Y92.400
; --- Backlash X fix: -0.500mm ---
G0 X117.500 Y92.400 F200
G1 X117.000 Y91.900
; --- Backlash Y fix: 1.600mm ---
G0 X117.000 Y93.500 F200
G1 X116.500 Y94.000
G0 Z4.600 F3000
M400
M204 P12000 T12000
G1 F12000
; --- Backlash X fix: 0.500mm ---
G0 X117.000 Y94.000 F200
G0 X119.000 Y97.000 Z4.600
M400
M204 P200 T200
G1 F400
G1 Z0.000 F2500
G1 X119.500 Y97.500
; --- Backlash Y fix: -1.600mm ---
G0 X119.500 Y95.900 F200
G1 X120.000 Y95.400
; --- Backlash X fix: -0.500mm ---
G0 X119.500 Y95.400 F200
G1 X119.000 Y94.900
; --- Backlash Y fix: 1.600mm ---
G0 X119.000 Y96.500 F200
G1 X118.500 Y97.000
G0 Z4.600 F3000
M400
M204 P12000 T12000
G1 F12000
; --- Backlash X fix: 0.500mm ---
G0 X119.000 Y97.000 F200
G0 X123.000 Y97.000 Z4.600
M400
M204 P200 T200
G1 F400
G1 Z0.000 F2500
G1 X123.500 Y97.500
; --- Backlash Y fix: -1.600mm ---
G0 X123.500 Y95.900 F200
G1 X124.000 Y95.400
; --- Backlash X fix: -0.500mm ---
G0 X123.500 Y95.400 F200
G1 X123.000 Y94.900
; --- Backlash Y fix: 1.600mm ---
G0 X123.000 Y96.500 F200
G1 X122.500 Y97.000
G0 Z4.600 F3000
M400
M204 P12000 T12000
G1 F12000
; --- Backlash X fix: 0.500mm ---
G0 X123.000 Y97.000 F200
G0 X125.000 Y100.000 Z4.600
M400
M204 P200 T200
G1 F400
G1 Z0.000 F2500
G1 X125.500 Y100.500
G1 X126.500 Y100.500
; --- Backlash Y fix: -1.600mm ---
G0 X126.500 Y98.900 F200
G1 X127.000 Y98.400
; --- Backlash X fix: -0.500mm ---
G0 X126.500 Y98.400 F200
G1 X126.000 Y97.900
G1 X125.000 Y97.900
; --- Backlash Y fix: 1.600mm ---
G0 X125.000 Y99.500 F200
G1 X124.500 Y100.000
G0 Z4.600 F3000
M400
M204 P12000 T12000
G1 F12000
; --- Backlash X fix: 0.500mm ---
G0 X125.000 Y100.000 F200
G0 X128.000 Y100.000 Z4.600
M400
M204 P200 T200
G1 F400
G1 Z0.000 F2500
G1 X128.500 Y100.500
; --- Backlash Y fix: -1.600mm ---
G0 X128.500 Y98.900 F200
G1 X129.000 Y98.400
; --- Backlash X fix: -0.500mm ---
G0 X128.500 Y98.400 F200
G1 X128.000 Y97.900
; --- Backlash Y fix: 1.600mm ---
G0 X128.000 Y99.500 F200
G1 X127.500 Y100.000
G0 Z4.600 F3000
M400
M204 P12000 T12000
G1 F12000
; --- Backlash X fix: 0.500mm ---
G0 X128.000 Y100.000 F200
G0 X130.000 Y103.000 Z4.600
M400
M204 P200 T200
G1 F400
G1 Z0.000 F2500
G1 X130.500 Y103.500
G1 X131.500 Y103.500
; --- Backlash Y fix: -1.600mm ---
G0 X131.500 Y101.900 F200
G1 X132.000 Y101.400
; --- Backlash X fix: -0.500mm ---
G0 X131.500 Y101.400 F200
G1 X131.000 Y100.900
G1 X130.000 Y100.900
; --- Backlash Y fix: 1.600mm ---
G0 X130.000 Y102.500 F200
G1 X129.500 Y103.000
G0 Z4.600 F3000
M400
M204 P12000 T12000
G1 F12000
; --- Backlash X fix: 0.500mm ---
G0 X130.000 Y103.000 F200
G0 X135.000 Y103.000 Z4.600
M400
M204 P200 T200
G1 F400
G1 Z0.000 F2500
G1 X135.500 Y103.500
; --- Backlash Y fix: -1.600mm ---
G0 X135.500 Y101.900 F200
G1 X136.000 Y101.400
G1 X136.000 Y100.400
; --- Backlash X fix: -0.500mm ---
G0 X135.500 Y100.400 F200
G1 X135.000 Y99.900
; --- Backlash Y fix: 1.600mm ---
G0 X135.000 Y101.500 F200
G1 X134.500 Y102.000
G1 X134.500 Y103.000
G0 Z4.600 F3000
M400
M204 P12000 T12000
G1 F12000
; --- Backlash X fix: 0.500mm ---
G0 X135.000 Y103.000 F200
G0 X136.000 Y105.000 Z4.600
M400
M204 P200 T200
G1 F400
G1 Z0.000 F2500
G1 X136.500 Y105.500
; --- Backlash Y fix: -1.600mm ---
G0 X136.500 Y103.900 F200
G1 X137.000 Y103.400
; --- Backlash X fix: -0.500mm ---
G0 X136.500 Y103.400 F200
G1 X136.000 Y102.900
; --- Backlash Y fix: 1.600mm ---
G0 X136.000 Y104.500 F200
G1 X135.500 Y105.000
G0 Z4.600 F3000
M400
M204 P12000 T12000
G1 F12000
G0 X134.500 Y109.000 Z4.600
M400
M204 P200 T200
G1 F400
G1 Z0.000 F2500
; --- Backlash X fix: 0.500mm ---
G0 X135.000 Y109.000 F200
G1 X135.500 Y109.500
; --- Backlash Y fix: -1.600mm ---
G0 X135.500 Y107.900 F200
G1 X136.000 Y107.400
; --- Backlash X fix: -0.500mm ---
G0 X135.500 Y107.400 F200
G1 X135.000 Y106.900
; --- Backlash Y fix: 1.600mm ---
G0 X135.000 Y108.500 F200
G1 X134.500 Y109.000
G0 Z4.600 F3000
M400
M204 P12000 T12000
G1 F12000
; --- Backlash X fix: 0.500mm ---
G0 X135.000 Y109.000 F200
G0 X137.000 Y112.000 Z4.600
M400
M204 P200 T200
G1 F400
G1 Z0.000 F2500
G1 X137.500 Y112.500
; --- Backlash Y fix: -1.600mm ---
G0 X137.500 Y110.900 F200
G1 X138.000 Y110.400
; --- Backlash X fix: -0.500mm ---
G0 X137.500 Y110.400 F200
G1 X137.000 Y109.900
; --- Backlash Y fix: 1.600mm ---
G0 X137.000 Y111.500 F200
G1 X136.500 Y112.000
G0 Z4.600 F3000
M400
M204 P12000 T12000
G1 F12000
; --- Backlash X fix: 0.500mm ---
G0 X137.000 Y112.000 F200
G0 X141.000 Y112.000 Z4.600
M400
M204 P200 T200
G1 F400
G1 Z0.000 F2500
G1 X141.500 Y112.500
; --- Backlash Y fix: -1.600mm ---
G0 X141.500 Y110.900 F200
G1 X142.000 Y110.400
; --- Backlash X fix: -0.500mm ---
G0 X141.500 Y110.400 F200
G1 X141.000 Y109.900
; --- Backlash Y fix: 1.600mm ---
G0 X141.000 Y111.500 F200
G1 X140.500 Y112.000
G0 Z4.600 F3000
M400
M204 P12000 T12000
G1 F12000
; --- Backlash X fix: 0.500mm ---
G0 X141.000 Y112.000 F200
G0 X143.000 Y115.000 Z4.600
M400
M204 P200 T200
G1 F400
G1 Z0.000 F2500
G1 X143.500 Y115.500
; --- Backlash Y fix: -1.600mm ---
G0 X143.500 Y113.900 F200
G1 X144.000 Y113.400
; --- Backlash X fix: -0.500mm ---
G0 X143.500 Y113.400 F200
G1 X143.000 Y112.900
; --- Backlash Y fix: 1.600mm ---
G0 X143.000 Y114.500 F200
G1 X142.500 Y115.000
G0 Z4.600 F3000
M400
M204 P12000 T12000
G1 F12000
; --- Backlash X fix: 0.500mm ---
G0 X143.000 Y115.000 F200
G0 X150.000 Y116.000 Z4.600
M400
M204 P200 T200
G1 F400
G1 Z0.000 F2500
G1 X150.000 Y116.500
G1 X150.000 Y116.500
; --- Backlash Y fix: -1.600mm ---
G0 X150.000 Y114.900 F200
G1 X150.000 Y114.400
G1 X150.000 Y113.900
G1 X150.000 Y113.400
G1 X150.000 Y112.400
; --- Backlash X fix: -0.500mm ---
G0 X150.000 Y112.400 F200
G1 X150.000 Y111.900
G1 X150.000 Y111.400
G1 X150.000 Y110.900
G1 X150.000 Y110.900
G1 X149.000 Y110.900
; --- Backlash Y fix: 1.600mm ---
G0 X149.000 Y112.500 F200
G1 X148.500 Y113.000
G1 X148.500 Y114.000
G1 X148.500 Y115.000
; --- Backlash X fix: 0.500mm ---
G0 X149.000 Y115.000 F200
G1 X149.500 Y115.500
G1 X150.000 Y116.000
G0 Z4.600 F3000
M400
M204 P12000 T12000
G1 F12000
; --- Backlash X fix: -0.500mm ---
G0 X149.500 Y116.000 F200
G0 X146.500 Y121.000 Z4.600
M400
M204 P200 T200
G1 F400
G1 Z0.000 F2500
; --- Backlash X fix: 0.500mm ---
G0 X147.000 Y121.000 F200
G1 X147.500 Y121.500
; --- Backlash Y fix: -1.600mm ---
G0 X147.500 Y119.900 F200
G1 X148.000 Y119.400
; --- Backlash X fix: -0.500mm ---
G0 X147.500 Y119.400 F200
G1 X147.000 Y118.900
; --- Backlash Y fix: 1.600mm ---
G0 X147.000 Y120.500 F200
G1 X146.500 Y121.000
G0 Z4.600 F3000
M400
M204 P12000 T12000
G1 F12000
G0 X143.500 Y128.000 Z4.600
M400
M204 P200 T200
G1 F400
G1 Z0.000 F2500
; --- Backlash X fix: 0.500mm ---
G0 X144.000 Y128.000 F200
G1 X144.500 Y128.500
; --- Backlash Y fix: -1.600mm ---
G0 X144.500 Y126.900 F200
G1 X145.000 Y126.400
; --- Backlash X fix: -0.500mm ---
G0 X144.500 Y126.400 F200
G1 X144.000 Y125.900
; --- Backlash Y fix: 1.600mm ---
G0 X144.000 Y127.500 F200
G1 X143.500 Y128.000
G0 Z4.600 F3000
M400
M204 P12000 T12000
G1 F12000
; --- Backlash X fix: 0.500mm ---
G0 X144.000 Y128.000 F200
G0 X150.000 Y128.000 Z4.600
M400
M204 P200 T200
G1 F400
G1 Z0.000 F2500
G1 X150.000 Y128.500
G1 X150.000 Y128.500
G1 X150.000 Y128.500
; --- Backlash Y fix: -1.600mm ---
G0 X150.000 Y126.900 F200
G1 X150.000 Y126.400
G1 X150.000 Y125.400
G1 X150.000 Y124.400
; --- Backlash X fix: -0.500mm ---
G0 X150.000 Y124.400 F200
G1 X150.000 Y123.900
G1 X150.000 Y123.900
; --- Backlash Y fix: 1.600mm ---
G0 X150.000 Y125.500 F200
G1 X150.000 Y126.000
G1 X150.000 Y126.500
G1 X149.500 Y127.000
G1 X149.500 Y128.000
G0 Z4.600 F3000
M400
M204 P12000 T12000
G1 F12000
; --- Backlash X fix: 0.500mm ---
G0 X150.000 Y128.000 F200
G0 X150.000 Y131.000 Z4.600
M400
M204 P200 T200
G1 F400
G1 Z0.000 F2500
G1 X150.000 Y131.500
G1 X150.000 Y131.500
G1 X150.000 Y131.500
; --- Backlash Y fix: -1.600mm ---
G0 X150.000 Y129.900 F200
G1 X150.000 Y129.400
G1 X150.000 Y128.400
G1 X150.000 Y127.400
; --- Backlash X fix: -0.500mm ---
G0 X150.000 Y127.400 F200
G1 X150.000 Y126.900
G1 X150.000 Y126.900
G1 X150.000 Y126.900
; --- Backlash Y fix: 1.600mm ---
G0 X150.000 Y128.500 F200
G1 X150.000 Y129.000
G1 X150.000 Y130.000
G1 X150.000 Y131.000
G0 Z4.600 F3000
M400
M204 P12000 T12000
G1 F12000
; --- Backlash Y fix: -1.600mm ---
G0 X150.000 Y129.400 F200
G0 X150.000 Y123.400 Z4.600
M400
M204 P200 T200
G1 F400
G1 Z0.000 F2500
; --- Backlash X fix: 0.500mm ---
G0 X150.000 Y123.400 F200
; --- Backlash Y fix: 1.600mm ---
G0 X150.000 Y125.000 F200
G1 X150.000 Y125.500
G1 X150.000 Y125.500
; --- Backlash Y fix: -1.600mm ---
G0 X150.000 Y123.900 F200
G1 X150.000 Y123.400
G1 X150.000 Y122.900
G1 X150.000 Y122.400
G1 X150.000 Y121.400
; --- Backlash X fix: -0.500mm ---
G0 X150.000 Y121.400 F200
G1 X150.000 Y120.900
G1 X150.000 Y120.900
G1 X150.000 Y120.900
; --- Backlash Y fix: 1.600mm ---
G0 X150.000 Y122.500 F200
G1 X150.000 Y123.000
G1 X150.000 Y124.000
G1 X150.000 Y125.000
G0 Z4.600 F3000
M400
M204 P12000 T12000
G1 F12000
; --- Backlash X fix: 0.500mm ---
G0 X150.000 Y125.000 F200
G0 X150.000 Y127.000 Z4.600
M400
M204 P200 T200
G1 F400
G1 Z0.000 F2500
G1 X150.000 Y127.500
G1 X150.000 Y127.500
G1 X150.000 Y127.500
; --- Backlash Y fix: -1.600mm ---
G0 X150.000 Y125.900 F200
G1 X150.000 Y125.400
G1 X150.000 Y124.400
; --- Backlash X fix: -0.500mm ---
G0 X150.000 Y124.400 F200
G1 X150.000 Y123.900
G1 X150.000 Y123.400
G1 X150.000 Y122.900
; --- Backlash Y fix: 1.600mm ---
G0 X150.000 Y124.500 F200
G1 X150.000 Y125.000
G1 X150.000 Y125.500
G1 X150.000 Y126.000
G1 X150.000 Y127.000
G0 Z4.600 F3000
M400
M204 P12000 T12000
G1 F12000
; --- Backlash Y fix: -1.600mm ---
G0 X150.000 Y125.400 F200
G0 X150.000 Y119.400 Z4.600
M400
M204 P200 T200
G1 F400
G1 Z0.000 F2500
; --- Backlash X fix: 0.500mm ---
G0 X150.000 Y119.400 F200
; --- Backlash Y fix: 1.600mm ---
G0 X150.000 Y121.000 F200
G1 X150.000 Y121.500
G1 X150.000 Y121.500
G1 X150.000 Y121.500
; --- Backlash Y fix: -1.600mm ---
G0 X150.000 Y119.900 F200
G1 X150.000 Y119.400
G1 X150.000 Y118.400
G1 X150.000 Y117.400
; --- Backlash X fix: -0.500mm ---
G0 X150.000 Y117.400 F200
G1 X150.000 Y116.900
G0 Z4.600 F3000

; --- CIKEL NAMAKANJA ---
G0 Z4.600 F3000
M400
M204 P12000 T12000
G1 F12000
G0 X53.801 Y14.071 Z31.000
G1 Z0.000 F3000
G1 X53.801 Y14.071 F2500
G1 X53.801 Y16.571 F2500
G1 X48.801 Y14.071 F2500
G1 X53.801 Y6.571 F2500
G0 Z16.000 F3000
G0 X75.442 Y11.655
G0 Z31.000 F3000
G0 X150.000 Y118.500 Z4.600
M400
M204 P200 T200
G1 F400
G1 Z0.000 F2500
G1 X150.000 Y116.900
G1 X150.000 Y116.900
; --- Backlash Y fix: 1.600mm ---
G0 X150.000 Y118.500 F200
G1 X150.000 Y119.000
G1 X150.000 Y120.000
G1 X150.000 Y121.000
G0 Z4.600 F3000
M400
M204 P12000 T12000
G1 F12000
; --- Backlash Y fix: -1.600mm ---
G0 X150.000 Y119.400 F200
G0 X150.000 Y113.400 Z4.600
M400
M204 P200 T200
G1 F400
G1 Z0.000 F2500
; --- Backlash X fix: 0.500mm ---
G0 X150.000 Y113.400 F200
; --- Backlash Y fix: 1.600mm ---
G0 X150.000 Y115.000 F200
G1 X150.000 Y115.500
G1 X150.000 Y115.500
; --- Backlash Y fix: -1.600mm ---
G0 X150.000 Y113.900 F200
G1 X150.000 Y113.400
G1 X150.000 Y112.900
G1 X150.000 Y112.400
; --- Backlash X fix: -0.500mm ---
G0 X150.000 Y112.400 F200
G1 X150.000 Y111.900
G1 X150.000 Y111.400
G1 X150.000 Y110.900
G1 X150.000 Y110.900
; --- Backlash Y fix: 1.600mm ---
G0 X150.000 Y112.500 F200
G1 X150.000 Y113.000
G1 X150.000 Y114.000
G1 X150.000 Y115.000
G0 Z4.600 F3000
M400
M204 P12000 T12000
G1 F12000
; --- Backlash X fix: 0.500mm ---
G0 X150.000 Y115.000 F200
G0 X150.000 Y117.000 Z4.600
M400
M204 P200 T200
G1 F400
G1 Z0.000 F2500
G1 X150.000 Y117.500
G1 X150.000 Y117.500
G1 X150.000 Y117.500
; --- Backlash Y fix: -1.600mm ---
G0 X150.000 Y115.900 F200
G1 X150.000 Y115.400
G1 X150.000 Y114.400
G1 X150.000 Y113.400
; --- Backlash X fix: -0.500mm ---
G0 X150.000 Y113.400 F200
G1 X150.000 Y112.900
G1 X150.000 Y112.900
; --- Backlash Y fix: 1.600mm ---
G0 X150.000 Y114.500 F200
G1 X150.000 Y115.000
G1 X150.000 Y115.500
G1 X150.000 Y116.000
G1 X150.000 Y117.000
G0 Z4.600 F3000
M400
M204 P12000 T12000
G1 F12000
; --- Backlash Y fix: -1.600mm ---
G0 X150.000 Y115.400 F200
G0 X150.000 Y109.400 Z4.600
M400
M204 P200 T200
G1 F400
G1 Z0.000 F2500
; --- Backlash X fix: 0.500mm ---
G0 X150.000 Y109.400 F200
; --- Backlash Y fix: 1.600mm ---
G0 X150.000 Y111.000 F200
G1 X150.000 Y111.500
G1 X150.000 Y111.500
G1 X150.000 Y111.500
; --- Backlash Y fix: -1.600mm ---
G0 X150.000 Y109.900 F200
G1 X150.000 Y109.400
G1 X150.000 Y108.400
G1 X150.000 Y107.400
; --- Backlash X fix: -0.500mm ---
G0 X150.000 Y107.400 F200
G1 X150.000 Y106.900
G1 X150.000 Y106.900
G1 X150.000 Y106.900
; --- Backlash Y fix: 1.600mm ---
G0 X150.000 Y108.500 F200
G1 X150.000 Y109.000
G1 X150.000 Y110.000
G1 X150.000 Y111.000
G0 Z4.600 F3000
M400
M204 P12000 T12000
G1 F12000
; --- Backlash Y fix: -1.600mm ---
G0 X150.000 Y109.400 F200
G0 X150.000 Y103.400 Z4.600
M400
M204 P200 T200
G1 F400
G1 Z0.000 F2500
; --- Backlash X fix: 0.500mm ---
G0 X150.000 Y103.400 F200
; --- Backlash Y fix: 1.600mm ---
G0 X150.000 Y105.000 F200
G1 X150.000 Y105.500
; --- Backlash Y fix: -1.600mm ---
G0 X150.000 Y103.900 F200
G1 X150.000 Y103.400
G1 X150.000 Y102.900
G1 X150.000 Y102.900
G1 X150.000 Y102.400
G1 X150.000 Y101.400
; --- Backlash X fix: -0.500mm ---
G0 X150.000 Y101.400 F200
G1 X150.000 Y100.900
G1 X150.000 Y100.400
G1 X150.000 Y99.900
G1 X150.000 Y99.900
; --- Backlash Y fix: 1.600mm ---
G0 X150.000 Y101.500 F200
G1 X150.000 Y102.000
G1 X150.000 Y102.500
G1 X150.000 Y103.000
G1 X150.000 Y104.000
; --- Backlash X fix: 0.500mm ---
G0 X150.000 Y104.000 F200
G1 X150.000 Y104.500
G1 X150.000 Y105.000
G0 Z4.600 F3000
M400
M204 P12000 T12000
G1 F12000
G0 X150.000 Y107.000 Z4.600
M400
M204 P200 T200
G1 F400
G1 Z0.000 F2500
G1 X150.000 Y107.500
G1 X150.000 Y107.500
G1 X150.000 Y107.500
; --- Backlash Y fix: -1.600mm ---
G0 X150.000 Y105.900 F200
G1 X150.000 Y105.400
G1 X150.000 Y104.400
G1 X150.000 Y103.400
; --- Backlash X fix: -0.500mm ---
G0 X150.000 Y103.400 F200
G1 X150.000 Y102.900
G1 X150.000 Y102.900
; --- Backlash Y fix: 1.600mm ---
G0 X150.000 Y104.500 F200
G1 X150.000 Y105.000
G1 X150.000 Y105.500
G1 X150.000 Y106.000
G1 X150.000 Y107.000
G0 Z4.600 F3000
M400
M204 P12000 T12000
G1 F12000
; --- Backlash Y fix: -1.600mm ---
G0 X150.000 Y105.400 F200
G0 X150.000 Y99.400 Z4.600
M400
M204 P200 T200
G1 F400
G1 Z0.000 F2500
; --- Backlash X fix: 0.500mm ---
G0 X150.000 Y99.400 F200
; --- Backlash Y fix: 1.600mm ---
G0 X150.000 Y101.000 F200
G1 X150.000 Y101.500
G1 X150.000 Y101.500
G1 X150.000 Y101.500
; --- Backlash Y fix: -1.600mm ---
G0 X150.000 Y99.900 F200
G1 X150.000 Y99.400
G1 X150.000 Y98.400
G1 X150.000 Y97.400
; --- Backlash X fix: -0.500mm ---
G0 X150.000 Y97.400 F200
G1 X150.000 Y96.900
G1 X150.000 Y96.900
G1 X150.000 Y96.900
; --- Backlash Y fix: 1.600mm ---
G0 X150.000 Y98.500 F200
G1 X150.000 Y99.000
G1 X150.000 Y100.000
G1 X150.000 Y101.000
G0 Z4.600 F3000
M400
M204 P12000 T12000
G1 F12000
; --- Backlash Y fix: -1.600mm ---
G0 X150.000 Y99.400 F200
G0 X150.000 Y93.400 Z4.600
M400
M204 P200 T200
G1 F400
G1 Z0.000 F2500
; --- Backlash X fix: 0.500mm ---
G0 X150.000 Y93.400 F200
; --- Backlash Y fix: 1.600mm ---
G0 X150.000 Y95.000 F200
G1 X150.000 Y95.500
; --- Backlash Y fix: -1.600mm ---
G0 X150.000 Y93.900 F200
G1 X150.000 Y93.400
G1 X150.000 Y92.900
G1 X150.000 Y92.400
G1 X150.000 Y91.900
G1 X150.000 Y91.400
; --- Backlash X fix: -0.500mm ---
G0 X150.000 Y91.400 F200
G1 X150.000 Y90.900
G1 X150.000 Y90.400
G1 X150.000 Y89.900
G1 X150.000 Y89.900
; --- Backlash Y fix: 1.600mm ---
G0 X150.000 Y91.500 F200
G1 X150.000 Y92.000
G1 X150.000 Y92.500
G1 X150.000 Y93.000
G1 X150.000 Y94.000
; --- Backlash X fix: 0.500mm ---
G0 X150.000 Y94.000 F200
G1 X150.000 Y94.500
G1 X150.000 Y95.000
G0 Z4.600 F3000
M400
M204 P12000 T12000
G1 F12000
G0 X150.000 Y97.000 Z4.600
M400
M204 P200 T200
G1 F400
G1 Z0.000 F2500
G1 X150.000 Y97.500
G1 X150.000 Y97.500
G1 X150.000 Y97.500
; --- Backlash Y fix: -1.600mm ---
G0 X150.000 Y95.900 F200
G1 X150.000 Y95.400
G1 X150.000 Y94.400
G1 X150.000 Y93.400
; --- Backlash X fix: -0.500mm ---
G0 X150.000 Y93.400 F200
G1 X150.000 Y92.900
G1 X150.000 Y92.900
G1 X150.000 Y92.900
; --- Backlash Y fix: 1.600mm ---
G0 X150.000 Y94.500 F200
G1 X150.000 Y95.000
G1 X150.000 Y96.000
G1 X150.000 Y97.000
G0 Z4.600 F3000
M400
M204 P12000 T12000
G1 F12000
; --- Backlash X fix: 0.500mm ---
G0 X150.000 Y97.000 F200
G0 X150.000 Y101.500 Z4.600
M400
M204 P200 T200
G1 F400
G1 Z0.000 F2500
; --- Backlash X fix: -0.500mm ---
G0 X150.000 Y101.500 F200
G1 X150.000 Y101.500
G1 X150.000 Y101.500
G1 X150.000 Y102.000
G1 X150.000 Y103.000
G1 X150.000 Y104.000
; --- Backlash X fix: 0.500mm ---
G0 X150.000 Y104.000 F200
G1 X150.000 Y104.500
G1 X150.000 Y104.500
; --- Backlash Y fix: -1.600mm ---
G0 X150.000 Y102.900 F200
G1 X150.000 Y102.400
G1 X150.000 Y101.900
G0 Z4.600 F3000
M400
M204 P12000 T12000
G1 F12000
; --- Backlash Y fix: 1.600mm ---
G0 X150.000 Y103.500 F200
G0 X150.000 Y107.500 Z4.600
M400
M204 P200 T200
G1 F400
G1 Z0.000 F2500
; --- Backlash X fix: -0.500mm ---
G0 X150.000 Y107.500 F200
G1 X150.000 Y107.500
G1 X150.000 Y107.500
G1 X150.000 Y108.000
G1 X150.000 Y109.000
G1 X150.000 Y110.000
; --- Backlash X fix: 0.500mm ---
G0 X150.000 Y110.000 F200
G1 X150.000 Y110.500
G1 X150.000 Y110.500
G1 X150.000 Y110.500
G0 Z4.600 F3000
M400
M204 P12000 T12000
G1 F12000
G0 X150.000 Y113.500 Z4.600
M400
M204 P200 T200
G1 F400
G1 Z0.000 F2500
; --- Backlash X fix: -0.500mm ---
G0 X150.000 Y113.500 F200
G1 X150.000 Y114.000
G1 X150.000 Y114.500
G1 X150.000 Y115.000
G1 X150.000 Y115.500
G1 X150.000 Y116.000
; --- Backlash X fix: 0.500mm ---
G0 X150.000 Y116.000 F200
G1 X150.000 Y116.500
G1 X150.000 Y117.000
G1 X150.000 Y117.500
G1 X150.000 Y117.500
G0 Z4.600 F3000
M400
M204 P12000 T12000
G1 F12000
G0 X150.000 Y120.500 Z4.600
M400
M204 P200 T200
G1 F400
G1 Z0.000 F2500
; --- Backlash X fix: -0.500mm ---
G0 X150.000 Y120.500 F200
G1 X150.000 Y120.500
G1 X150.000 Y121.000
G1 X150.000 Y122.000
G1 X150.000 Y123.000
; --- Backlash X fix: 0.500mm ---
G0 X150.000 Y123.000 F200
G1 X150.000 Y123.500
G1 X150.000 Y123.500
G0 Z4.600 F3000
M400
M204 P12000 T12000
G1 F12000
G0 X150.000 Y126.500 Z4.600
M400
M204 P200 T200
G1 F400
G1 Z0.000 F2500
; --- Backlash X fix: -0.500mm ---
G0 X150.000 Y126.500 F200
G1 X150.000 Y127.000
G1 X150.000 Y127.500
G1 X150.000 Y128.000
G1 X150.000 Y129.000
; --- Backlash X fix: 0.500mm ---
G0 X150.000 Y129.000 F200
G1 X150.000 Y129.500
G1 X150.000 Y130.000
G1 X150.000 Y130.500
G0 Z4.600 F3000
M400
M204 P12000 T12000
G1 F12000
G0 X150.000 Y133.500 Z4.600
M400
M204 P200 T200
G1 F400
G1 Z0.000 F2500
; --- Backlash X fix: -0.500mm ---
G0 X150.000 Y133.500 F200
G1 X150.000 Y134.000
G1 X150.000 Y135.000
G1 X150.000 Y136.000
; --- Backlash X fix: 0.500mm ---
G0 X150.000 Y136.000 F200
G1 X150.000 Y136.500
G0 Z4.600 F3000
M400
M204 P12000 T12000
G1 F12000
G0 X150.000 Y140.500 Z4.600
M400
M204 P200 T200
G1 F400
G1 Z0.000 F2500
; --- Backlash X fix: -0.500mm ---
G0 X150.000 Y140.500 F200
G1 X150.000 Y141.000
G1 X150.000 Y142.000
; --- Backlash X fix: 0.500mm ---
G0 X150.000 Y142.000 F200
G1 X150.000 Y142.500
G0 Z4.600 F3000
M400
M204 P12000 T12000
G1 F12000
; --- Backlash X fix: -0.500mm ---
G0 X150.000 Y142.500 F200
; --- Backlash Y fix: -1.600mm ---
G0 X150.000 Y140.900 F200
G0 X150.000 Y138.400 Z4.600
M400
M204 P200 T200
G1 F400
G1 Z0.000 F2500
; --- Backlash X fix: 0.500mm ---
G0 X150.000 Y138.400 F200
; --- Backlash Y fix: 1.600mm ---
G0 X150.000 Y140.000 F200
G1 X150.000 Y140.500
G1 X150.000 Y140.500
; --- Backlash Y fix: -1.600mm ---
G0 X150.000 Y138.900 F200
G1 X150.000 Y138.400
G1 X150.000 Y137.900
G1 X150.000 Y137.400
; --- Backlash X fix: -0.500mm ---
G0 X150.000 Y137.400 F200
G1 X150.000 Y136.900
G1 X150.000 Y136.400
G1 X150.000 Y135.900
G1 X150.000 Y135.900
; --- Backlash Y fix: 1.600mm ---
G0 X150.000 Y137.500 F200
G1 X150.000 Y138.000
G1 X150.000 Y139.000
G1 X150.000 Y140.000
G0 Z4.600 F3000
M400
M204 P12000 T12000
G1 F12000
G0 X150.000 Y146.000 Z4.600
M400
M204 P200 T200
G1 F400
G1 Z0.000 F2500
; --- Backlash X fix: 0.500mm ---
G0 X150.000 Y146.000 F200
G1 X150.000 Y146.500
G1 X150.000 Y146.500
G1 X150.000 Y146.500
; --- Backlash Y fix: -1.600mm ---
G0 X150.000 Y144.900 F200
G1 X150.000 Y144.400
G1 X150.000 Y143.400
; --- Backlash X fix: -0.500mm ---
G0 X150.000 Y143.400 F200
G1 X150.000 Y142.900
G1 X150.000 Y142.400
G1 X150.000 Y141.900
; --- Backlash Y fix: 1.600mm ---
G0 X150.000 Y143.500 F200
G1 X150.000 Y144.000
G1 X150.000 Y144.500
G1 X150.000 Y145.000
G1 X150.000 Y146.000
G0 Z4.600 F3000
M400
M204 P12000 T12000
G1 F12000
G0 X150.000 Y150.000 Z4.600
M400
M204 P200 T200
G1 F400
G1 Z0.000 F2500
; --- Backlash X fix: 0.500mm ---
G0 X150.000 Y150.000 F200
G1 X150.000 Y150.000
G1 X150.000 Y150.000
; --- Backlash Y fix: -1.600mm ---
G0 X150.000 Y148.900 F200
G1 X150.000 Y148.400
G1 X150.000 Y147.900
G1 X150.000 Y147.400
; --- Backlash X fix: -0.500mm ---
G0 X150.000 Y147.400 F200
G1 X150.000 Y146.900
G1 X150.000 Y146.400
G1 X150.000 Y145.900
G1 X150.000 Y145.900
; --- Backlash Y fix: 1.600mm ---
G0 X150.000 Y147.500 F200
G1 X150.000 Y148.000
G1 X150.000 Y149.000
G1 X150.000 Y150.000
G0 Z4.600 F3000
M400
M204 P12000 T12000
G1 F12000
G0 X150.000 Y150.000 Z4.600
M400
M204 P200 T200
G1 F400
G1 Z0.000 F2500
; --- Backlash X fix: 0.500mm ---
G0 X150.000 Y150.000 F200
G1 X150.000 Y150.000
G1 X150.000 Y150.000
G1 X150.000 Y150.000
; --- Backlash Y fix: -1.600mm ---
G0 X150.000 Y150.000 F200
G1 X150.000 Y150.000
G1 X150.000 Y150.000
; --- Backlash X fix: -0.500mm ---
G0 X150.000 Y150.000 F200
G1 X150.000 Y150.000
G1 X150.000 Y150.000
G1 X150.000 Y150.000
; --- Backlash Y fix: 1.600mm ---
G0 X150.000 Y150.000 F200
G1 X150.000 Y150.000
G1 X150.000 Y150.000
G1 X150.000 Y150.000
G1 X150.000 Y150.000
G0 Z4.600 F3000
M400
M204 P12000 T12000
G1 F12000
G0 X150.000 Y150.000 Z4.600
M400
M204 P200 T200
G1 F400
G1 Z0.000 F2500
; --- Backlash X fix: 0.500mm ---
G0 X150.000 Y150.000 F200
G1 X150.000 Y150.000
G1 X150.000 Y150.000
; --- Backlash Y fix: -1.600mm ---
G0 X150.000 Y150.000 F200
G1 X150.000 Y150.000
G1 X150.000 Y150.000
G1 X150.000 Y150.000
; --- Backlash X fix: -0.500mm ---
G0 X150.000 Y150.000 F200
G1 X150.000 Y150.000
G1 X150.000 Y150.000
G1 X150.000 Y150.000
G1 X150.000 Y150.000
; --- Backlash Y fix: 1.600mm ---
G0 X150.000 Y150.000 F200
G1 X150.000 Y150.000
G1 X150.000 Y150.000
G1 X150.000 Y150.000
G0 Z4.600 F3000
M400
M204 P12000 T12000
G1 F12000
G0 X150.000 Y150.000 Z4.600
M400
M204 P200 T200
G1 F400
G1 Z0.000 F2500
; --- Backlash X fix: 0.500mm ---
G0 X150.000 Y150.000 F200
G1 X150.000 Y150.000
G1 X150.000 Y150.000
; --- Backlash Y fix: -1.600mm ---
G0 X150.000 Y150.000 F200
G1 X150.000 Y150.000
G1 X150.000 Y150.000
; --- Backlash X fix: -0.500mm ---
G0 X150.000 Y150.000 F200
G1 X150.000 Y150.000
G1 X150.000 Y150.000
; --- Backlash Y fix: 1.600mm ---
G0 X150.000 Y150.000 F200
G1 X150.000 Y150.000
G1 X150.000 Y150.000
G0 Z4.600 F3000
M400
M204 P12000 T12000
G1 F12000
; --- Backlash X fix: 0.500mm ---
G0 X150.000 Y150.000 F200
G0 X150.000 Y150.000 Z4.600
M400
M204 P200 T200
G1 F400
G1 Z0.000 F2500
G1 X150.000 Y150.000
G1 X150.000 Y150.000
G1 X150.000 Y150.000
; --- Backlash Y fix: -1.600mm ---
G0 X150.000 Y150.000 F200
G1 X150.000 Y150.000
G1 X150.000 Y150.000
; --- Backlash X fix: -0.500mm ---
G0 X150.000 Y150.000 F200
G1 X150.000 Y150.000
G1 X150.000 Y150.000
G1 X150.000 Y150.000
; --- Backlash Y fix: 1.600mm ---
G0 X150.000 Y150.000 F200
G1 X150.000 Y150.000
G1 X150.000 Y150.000
G1 X150.000 Y150.000
G1 X150.000 Y150.000
G0 Z4.600 F3000
M400
M204 P12000 T12000
G1 F12000
G0 X150.000 Y150.000 Z4.600
M400
M204 P200 T200
G1 F400
G1 Z0.000 F2500
; --- Backlash X fix: 0.500mm ---
G0 X150.000 Y150.000 F200
G1 X150.000 Y150.000
G1 X150.000 Y150.000
; --- Backlash Y fix: -1.600mm ---
G0 X150.000 Y150.000 F200
G1 X150.000 Y150.000
G1 X150.000 Y150.000
G1 X150.000 Y150.000
; --- Backlash X fix: -0.500mm ---
G0 X150.000 Y150.000 F200
G1 X150.000 Y150.000
G1 X150.000 Y150.000
G1 X150.000 Y150.000
G1 X150.000 Y150.000
; --- Backlash Y fix: 1.600mm ---
G0 X150.000 Y150.000 F200
G1 X150.000 Y150.000
G1 X150.000 Y150.000
G1 X150.000 Y150.000
G0 Z4.600 F3000
M400
M204 P12000 T12000
G1 F12000
G0 X150.000 Y150.000 Z4.600
M400
M204 P200 T200
G1 F400
G1 Z0.000 F2500
; --- Backlash X fix: 0.500mm ---
G0 X150.000 Y150.000 F200
G1 X150.000 Y150.000
G1 X150.000 Y150.000
; --- Backlash Y fix: -1.600mm ---
G0 X150.000 Y150.000 F200
G1 X150.000 Y150.000
G1 X150.000 Y150.000
; --- Backlash X fix: -0.500mm ---
G0 X150.000 Y150.000 F200
G1 X150.000 Y150.000
G1 X150.000 Y150.000
; --- Backlash Y fix: 1.600mm ---
G0 X150.000 Y150.000 F200
G1 X150.000 Y150.000
G1 X150.000 Y150.000
G0 Z4.600 F3000
M400
M204 P12000 T12000
G1 F12000
; --- Backlash X fix: 0.500mm ---
G0 X150.000 Y150.000 F200
G0 X150.000 Y150.000 Z4.600
M400
M204 P200 T200
G1 F400
G1 Z0.000 F2500
G1 X150.000 Y150.000
G1 X150.000 Y150.000
G1 X150.000 Y150.000
; --- Backlash Y fix: -1.600mm ---
G0 X150.000 Y150.000 F200
G1 X150.000 Y150.000
G1 X150.000 Y150.000
; --- Backlash X fix: -0.500mm ---
G0 X150.000 Y150.000 F200
G1 X150.000 Y150.000
G1 X150.000 Y150.000
G1 X150.000 Y150.000
; --- Backlash Y fix: 1.600mm ---
G0 X150.000 Y150.000 F200
G1 X150.000 Y150.000
G1 X150.000 Y150.000
G0 Z4.600 F3000
M400
M204 P12000 T12000
G1 F12000
G0 X150.000 Y150.000 Z4.600
M400
M204 P200 T200
G1 F400
G1 Z0.000 F2500
; --- Backlash Y fix: -1.600mm ---
G0 X150.000 Y150.000 F200
G1 X150.000 Y150.000
G1 X150.000 Y150.000
G1 X150.000 Y150.000
G1 X150.000 Y150.000
; --- Backlash Y fix: 1.600mm ---
G0 X150.000 Y150.000 F200
G1 X150.000 Y150.000
G1 X150.000 Y150.000
G0 Z4.600 F3000
M400
M204 P12000 T12000
G1 F12000
; --- Backlash X fix: 0.500mm ---
G0 X150.000 Y150.000 F200
G0 X150.000 Y150.000 Z4.600
M400
M204 P200 T200
G1 F400
G1 Z0.000 F2500
; --- Backlash Y fix: -1.600mm ---
G0 X150.000 Y150.000 F200
G1 X150.000 Y150.000
G1 X150.000 Y150.000
G1 X150.000 Y150.000
G1 X150.000 Y150.000
; --- Backlash Y fix: 1.600mm ---
G0 X150.000 Y150.000 F200
G1 X150.000 Y150.000
G1 X150.000 Y150.000
G1 X150.000 Y150.000
G1 X150.000 Y150.000
G0 Z4.600 F3000
M400
M204 P12000 T12000
G1 F12000
; --- Backlash Y fix: -1.600mm ---
G0 X150.000 Y150.000 F200
G0 X150.000 Y150.000 Z4.600
M400
M204 P200 T200
G1 F400
G1 Z0.000 F2500
; --- Backlash Y fix: 1.600mm ---
G0 X150.000 Y150.000 F200
G1 X150.000 Y150.000
G1 X150.000 Y150.000
; --- Backlash Y fix: -1.600mm ---
G0 X150.000 Y150.000 F200
G1 X150.000 Y150.000
G1 X150.000 Y150.000
G1 X150.000 Y150.000
; --- Backlash X fix: -0.500mm ---
G0 X150.000 Y150.000 F200
G1 X150.000 Y150.000
G1 X150.000 Y150.000
; --- Backlash Y fix: 1.600mm ---
G0 X150.000 Y150.000 F200
G1 X150.000 Y150.000
G1 X150.000 Y150.000
G1 X150.000 Y150.000
G0 Z4.600 F3000
M400
M204 P12000 T12000
G1 F12000
; --- Backlash X fix: 0.500mm ---
G0 X150.000 Y150.000 F200
; --- Backlash Y fix: -1.600mm ---
G0 X150.000 Y150.000 F200
G0 X150.000 Y150.000 Z4.600
M400
M204 P200 T200
G1 F400
G1 Z0.000 F2500
; --- Backlash Y fix: 1.600mm ---
G0 X150.000 Y150.000 F200
G1 X150.000 Y150.000
G1 X150.000 Y150.000
; --- Backlash Y fix: -1.600mm ---
G0 X150.000 Y150.000 F200
G1 X150.000 Y150.000
G1 X150.000 Y150.000
G1 X150.000 Y150.000
; --- Backlash X fix: -0.500mm ---
G0 X150.000 Y150.000 F200
G1 X150.000 Y150.000
G1 X150.000 Y150.000
G1 X150.000 Y150.000
G1 X150.000 Y150.000
; --- Backlash Y fix: 1.600mm ---
G0 X150.000 Y150.000 F200
G1 X150.000 Y150.000
G1 X150.000 Y150.000
G1 X150.000 Y150.000
G0 Z4.600 F3000
M400
M204 P12000 T12000
G1 F12000
; --- Backlash Y fix: -1.600mm ---
G0 X150.000 Y150.000 F200
G0 X150.000 Y150.000 Z4.600
M400
M204 P200 T200
G1 F400
G1 Z0.000 F2500
; --- Backlash X fix: 0.500mm ---
G0 X150.000 Y150.000 F200
; --- Backlash Y fix: 1.600mm ---
G0 X150.000 Y150.000 F200
G1 X150.000 Y150.000
; --- Backlash Y fix: -1.600mm ---
G0 X150.000 Y150.000 F200
G1 X150.000 Y150.000
G1 X150.000 Y150.000
G1 X150.000 Y150.000
G1 X150.000 Y150.000
; --- Backlash X fix: -0.500mm ---
G0 X150.000 Y150.000 F200
G1 X150.000 Y150.000
G1 X150.000 Y150.000
G1 X150.000 Y150.000
; --- Backlash Y fix: 1.600mm ---
G0 X150.000 Y150.000 F200
G1 X150.000 Y150.000
G1 X150.000 Y150.000
; --- Backlash X fix: 0.500mm ---
G0 X150.000 Y150.000 F200
G1 X150.000 Y150.000
G1 X150.000 Y150.000
G0 Z4.600 F3000
M400
M204 P12000 T12000
G1 F12000
; --- Backlash X fix: -0.500mm ---
G0 X150.000 Y150.000 F200
G0 X150.000 Y150.000 Z4.600
M400
M204 P200 T200
G1 F400
G1 Z0.000 F2500
; --- Backlash X fix: 0.500mm ---
G0 X150.000 Y150.000 F200
G1 X150.000 Y150.000
G1 X150.000 Y150.000
G1 X150.000 Y150.000
; --- Backlash Y fix: -1.600mm ---
G0 X150.000 Y150.000 F200
G1 X150.000 Y150.000
G1 X150.000 Y150.000
; --- Backlash X fix: -0.500mm ---
G0 X150.000 Y150.000 F200
G1 X150.000 Y150.000
G1 X150.000 Y150.000
G0 Z4.600 F3000

; --- CIKEL NAMAKANJA ---
G0 Z4.600 F3000
M400
M204 P12000 T12000
G1 F12000
G0 X83.046 Y16.134 Z31.000
G1 Z0.000 F3000
G1 X83.046 Y16.134 F2500
G1 X83.046 Y18.634 F2500
G1 X78.046 Y16.134 F2500
G1 X83.046 Y8.634 F2500
G0 Z16.000 F3000
G0 X74.001 Y12.688
G0 Z31.000 F3000
G0 X150.000 Y150.000 Z4.600
M400
M204 P200 T200
G1 F400
G1 Z0.000 F2500
G1 X150.000 Y150.000
; --- Backlash Y fix: 1.600mm ---
G0 X150.000 Y150.000 F200
G1 X150.000 Y150.000
G1 X150.000 Y150.000
G1 X150.000 Y150.000
G1 X150.000 Y150.000
G0 Z4.600 F3000
M400
M204 P12000 T12000
G1 F12000
; --- Backlash Y fix: -1.600mm ---
G0 X150.000 Y150.000 F200
G0 X150.000 Y150.000 Z4.600
M400
M204 P200 T200
G1 F400
G1 Z0.000 F2500
; --- Backlash X fix: 0.500mm ---
G0 X150.000 Y150.000 F200
; --- Backlash Y fix: 1.600mm ---
G0 X150.000 Y150.000 F200
G1 X150.000 Y150.000
G1 X150.000 Y150.000
; --- Backlash Y fix: -1.600mm ---
G0 X150.000 Y150.000 F200
G1 X150.000 Y150.000
G1 X150.000 Y150.000
G1 X150.000 Y150.000
; --- Backlash X fix: -0.500mm ---
G0 X150.000 Y150.000 F200
G1 X150.000 Y150.000
G1 X150.000 Y150.000
G1 X150.000 Y150.000
G1 X150.000 Y150.000
; --- Backlash Y fix: 1.600mm ---
G0 X150.000 Y150.000 F200
G1 X150.000 Y150.000
G1 X150.000 Y150.000
G1 X150.000 Y150.000
G0 Z4.600 F3000
M400
M204 P12000 T12000
G1 F12000
; --- Backlash X fix: 0.500mm ---
G0 X150.000 Y150.000 F200
; --- Backlash Y fix: -1.600mm ---
G0 X150.000 Y150.000 F200
G0 X150.000 Y150.000 Z4.600
M400
M204 P200 T200
G1 F400
G1 Z0.000 F2500
; --- Backlash Y fix: 1.600mm ---
G0 X150.000 Y150.000 F200
G1 X150.000 Y150.000
G1 X150.000 Y150.000
G1 X150.000 Y150.000
; --- Backlash Y fix: -1.600mm ---
G0 X150.000 Y150.000 F200
G1 X150.000 Y150.000
G1 X150.000 Y150.000
; --- Backlash X fix: -0.500mm ---
G0 X150.000 Y150.000 F200
G1 X150.000 Y150.000
G1 X150.000 Y150.000
G1 X150.000 Y150.000
G1 X150.000 Y150.000
; --- Backlash Y fix: 1.600mm ---
G0 X150.000 Y150.000 F200
G1 X150.000 Y150.000
G1 X150.000 Y150.000
G1 X150.000 Y150.000
G0 Z4.600 F3000
M400
M204 P12000 T12000
G1 F12000
; --- Backlash Y fix: -1.600mm ---
G0 X150.000 Y150.000 F200
G0 X150.000 Y150.000 Z4.600
M400
M204 P200 T200
G1 F400
G1 Z0.000 F2500
; --- Backlash X fix: 0.500mm ---
G0 X150.000 Y150.000 F200
; --- Backlash Y fix: 1.600mm ---
G0 X150.000 Y150.000 F200
G1 X150.000 Y150.000
; --- Backlash Y fix: -1.600mm ---
G0 X150.000 Y150.000 F200
G1 X150.000 Y150.000
G1 X150.000 Y150.000
G1 X150.000 Y150.000
G1 X150.000 Y149.400
; --- Backlash X fix: -0.500mm ---
G0 X150.000 Y149.400 F200
G1 X150.000 Y148.900
G1 X150.000 Y148.900
; --- Backlash Y fix: 1.600mm ---
G0 X150.000 Y150.000 F200
G1 X150.000 Y150.000
G1 X150.000 Y150.000
G1 X150.000 Y150.000
G0 Z4.600 F3000
M400
M204 P12000 T12000
G1 F12000
G0 X150.000 Y150.000 Z4.600
M400
M204 P200 T200
G1 F400
G1 Z0.000 F2500
; --- Backlash X fix: 0.500mm ---
G0 X150.000 Y150.000 F200
G1 X150.000 Y150.000
G1 X150.000 Y150.000
G1 X150.000 Y150.000
; --- Backlash Y fix: -1.600mm ---
G0 X150.000 Y150.000 F200
G1 X150.000 Y150.000
G1 X150.000 Y150.000
; --- Backlash X fix: -0.500mm ---
G0 X150.000 Y150.000 F200
G1 X150.000 Y149.900
G1 X150.000 Y149.400
G1 X150.000 Y148.900
; --- Backlash Y fix: 1.600mm ---
G0 X150.000 Y150.000 F200
G1 X150.000 Y150.000
G1 X150.000 Y150.000
G1 X150.000 Y150.000
G1 X150.000 Y150.000
G0 Z4.600 F3000
M400
M204 P12000 T12000
G1 F12000
; --- Backlash Y fix: -1.600mm ---
G0 X150.000 Y150.000 F200
G0 X150.000 Y148.400 Z4.600
M400
M204 P200 T200
G1 F400
G1 Z0.000 F2500
; --- Backlash X fix: 0.500mm ---
G0 X150.000 Y148.400 F200
; --- Backlash Y fix: 1.600mm ---
G0 X150.000 Y150.000 F200
G1 X150.000 Y150.000
G1 X150.000 Y150.000
; --- Backlash Y fix: -1.600mm ---
G0 X150.000 Y148.900 F200
G1 X150.000 Y148.400
G1 X150.000 Y147.400
; --- Backlash X fix: -0.500mm ---
G0 X150.000 Y147.400 F200
G1 X150.000 Y146.900
G1 X150.000 Y146.900
; --- Backlash Y fix: 1.600mm ---
G0 X150.000 Y148.500 F200
G1 X150.000 Y149.000
G1 X150.000 Y150.000
G0 Z4.600 F3000
M400
M204 P12000 T12000
G1 F12000
; --- Backlash Y fix: -1.600mm ---
G0 X150.000 Y148.400 F200
G0 X150.000 Y146.400 Z4.600
M400
M204 P200 T200
G1 F400
G1 Z0.000 F2500
; --- Backlash X fix: 0.500mm ---
G0 X150.000 Y146.400 F200
; --- Backlash Y fix: 1.600mm ---
G0 X150.000 Y148.000 F200
G1 X150.000 Y148.500
; --- Backlash Y fix: -1.600mm ---
G0 X150.000 Y146.900 F200
G1 X150.000 Y146.400
G1 X150.000 Y145.400
G1 X150.000 Y144.400
; --- Backlash X fix: -0.500mm ---
G0 X150.000 Y144.400 F200
G1 X150.000 Y143.900
G1 X150.000 Y143.900
; --- Backlash Y fix: 1.600mm ---
G0 X150.000 Y145.500 F200
G1 X150.000 Y146.000
G1 X150.000 Y147.000
; --- Backlash X fix: 0.500mm ---
G0 X150.000 Y147.000 F200
G1 X150.000 Y147.500
G1 X150.000 Y148.000
G0 Z4.600 F3000
M400
M204 P12000 T12000
G1 F12000
; --- Backlash Y fix: -1.600mm ---
G0 X150.000 Y146.400 F200
G0 X150.000 Y142.400 Z4.600
M400
M204 P200 T200
G1 F400
G1 Z0.000 F2500
; --- Backlash Y fix: 1.600mm ---
G0 X150.000 Y144.000 F200
G1 X150.000 Y144.500
G1 X150.000 Y144.500
G1 X150.000 Y144.500
; --- Backlash Y fix: -1.600mm ---
G0 X150.000 Y142.900 F200
G1 X150.000 Y142.400
G1 X150.000 Y141.400
; --- Backlash X fix: -0.500mm ---
G0 X150.000 Y141.400 F200
G1 X150.000 Y140.900
G1 X150.000 Y140.400
G1 X150.000 Y139.900
G1 X150.000 Y139.900
; --- Backlash Y fix: 1.600mm ---
G0 X150.000 Y141.500 F200
G1 X150.000 Y142.000
G1 X150.000 Y143.000
G1 X150.000 Y144.000
G0 Z4.600 F3000
M400
M204 P12000 T12000
G1 F12000
; --- Backlash Y fix: -1.600mm ---
G0 X150.000 Y142.400 F200
G0 X150.000 Y136.400 Z4.600
M400
M204 P200 T200
G1 F400
G1 Z0.000 F2500
; --- Backlash X fix: 0.500mm ---
G0 X150.000 Y136.400 F200
; --- Backlash Y fix: 1.600mm ---
G0 X150.000 Y138.000 F200
G1 X150.000 Y138.500
G1 X150.000 Y138.500
; --- Backlash Y fix: -1.600mm ---
G0 X150.000 Y136.900 F200
G1 X150.000 Y136.400
G1 X150.000 Y135.400
G1 X150.000 Y134.400
; --- Backlash X fix: -0.500mm ---
G0 X150.000 Y134.400 F200
G1 X150.000 Y133.900
G1 X150.000 Y133.900
; --- Backlash Y fix: 1.600mm ---
G0 X150.000 Y135.500 F200
G1 X150.000 Y136.000
G1 X150.000 Y137.000
G1 X150.000 Y138.000
G0 Z4.600 F3000
M400
M204 P12000 T12000
G1 F12000
; --- Backlash X fix: 0.500mm ---
G0 X150.000 Y138.000 F200
G0 X150.000 Y140.000 Z4.600
M400
M204 P200 T200
G1 F400
G1 Z0.000 F2500
G1 X150.000 Y140.500
G1 X150.000 Y140.500
G1 X150.000 Y140.500
; --- Backlash Y fix: -1.600mm ---
G0 X150.000 Y138.900 F200
G1 X150.000 Y138.400
G1 X150.000 Y137.400
; --- Backlash X fix: -0.500mm ---
G0 X150.000 Y137.400 F200
G1 X150.000 Y136.900
G1 X150.000 Y136.900
G1 X150.000 Y136.900
; --- Backlash Y fix: 1.600mm ---
G0 X150.000 Y138.500 F200
G1 X150.000 Y139.000
G1 X150.000 Y140.000
G0 Z4.600 F3000
M400
M204 P12000 T12000
G1 F12000
; --- Backlash Y fix: -1.600mm ---
G0 X150.000 Y138.400 F200
G0 X150.000 Y132.400 Z4.600
M400
M204 P200 T200
G1 F400
G1 Z0.000 F2500
; --- Backlash X fix: 0.500mm ---
G0 X150.000 Y132.400 F200
; --- Backlash Y fix: 1.600mm ---
G0 X150.000 Y134.000 F200
G1 X150.000 Y134.500
G1 X150.000 Y134.500
G1 X150.000 Y134.500
; --- Backlash Y fix: -1.600mm ---
G0 X150.000 Y132.900 F200
G1 X150.000 Y132.400
G1 X150.000 Y131.400
G1 X150.000 Y130.400
; --- Backlash X fix: -0.500mm ---
G0 X150.000 Y130.400 F200
G1 X150.000 Y129.900
G1 X150.000 Y129.900
G1 X150.000 Y129.900
; --- Backlash Y fix: 1.600mm ---
G0 X150.000 Y131.500 F200
G1 X150.000 Y132.000
G1 X150.000 Y133.000
G1 X150.000 Y134.000
G0 Z4.600 F3000
M400
M204 P12000 T12000
G1 F12000
; --- Backlash X fix: 0.500mm ---
G0 X150.000 Y134.000 F200
; --- Backlash Y fix: -1.600mm ---
G0 X150.000 Y132.400 F200
G0 X150.000 Y128.400 Z4.600
M400
M204 P200 T200
G1 F400
G1 Z0.000 F2500
; --- Backlash Y fix: 1.600mm ---
G0 X150.000 Y130.000 F200
G1 X150.000 Y130.500
G1 X150.000 Y130.500
G1 X150.000 Y130.500
; --- Backlash Y fix: -1.600mm ---
G0 X150.000 Y128.900 F200
G1 X150.000 Y128.400
G1 X150.000 Y127.400
; --- Backlash X fix: -0.500mm ---
G0 X150.000 Y127.400 F200
G1 X150.000 Y126.900
G1 X150.000 Y126.400
G1 X150.000 Y125.900
; --- Backlash Y fix: 1.600mm ---
G0 X150.000 Y127.500 F200
G1 X150.000 Y128.000
G1 X150.000 Y128.500
G1 X150.000 Y129.000
G1 X150.000 Y130.000
G0 Z4.600 F3000
M400
M204 P12000 T12000
G1 F12000
; --- Backlash Y fix: -1.600mm ---
G0 X150.000 Y128.400 F200
G0 X150.000 Y122.400 Z4.600
M400
M204 P200 T200
G1 F400
G1 Z0.000 F2500
; --- Backlash X fix: 0.500mm ---
G0 X150.000 Y122.400 F200
; --- Backlash Y fix: 1.600mm ---
G0 X150.000 Y124.000 F200
G1 X150.000 Y124.500
G1 X150.000 Y124.500
; --- Backlash Y fix: -1.600mm ---
G0 X150.000 Y122.900 F200
G1 X150.000 Y122.400
G1 X150.000 Y121.900
G1 X150.000 Y121.400
G1 X150.000 Y120.400
; --- Backlash X fix: -0.500mm ---
G0 X150.000 Y120.400 F200
G1 X150.000 Y119.900
G1 X150.000 Y119.900
G1 X150.000 Y119.900
; --- Backlash Y fix: 1.600mm ---
G0 X150.000 Y121.500 F200
G1 X150.000 Y122.000
G1 X150.000 Y123.000
G1 X150.000 Y124.000
G0 Z4.600 F3000
M400
M204 P12000 T12000
G1 F12000
; --- Backlash X fix: 0.500mm ---
G0 X150.000 Y124.000 F200
; --- Backlash Y fix: -1.600mm ---
G0 X150.000 Y122.400 F200
G0 X150.000 Y118.400 Z4.600
M400
M204 P200 T200
G1 F400
G1 Z0.000 F2500
; --- Backlash Y fix: 1.600mm ---
G0 X150.000 Y120.000 F200
G1 X150.000 Y120.500
G1 X150.000 Y120.500
G1 X150.000 Y120.500
; --- Backlash Y fix: -1.600mm ---
G0 X150.000 Y118.900 F200
G1 X150.000 Y118.400
G1 X150.000 Y117.400
G1 X150.000 Y116.400
; --- Backlash X fix: -0.500mm ---
G0 X150.000 Y116.400 F200
G1 X150.000 Y115.900
G1 X150.000 Y115.900
; --- Backlash Y fix: 1.600mm ---
G0 X150.000 Y117.500 F200
G1 X150.000 Y118.000
G1 X150.000 Y118.500
G1 X150.000 Y119.000
G1 X150.000 Y120.000
G0 Z4.600 F3000
M400
M204 P12000 T12000
G1 F12000
; --- Backlash Y fix: -1.600mm ---
G0 X150.000 Y118.400 F200
G0 X150.000 Y112.400 Z4.600
M400
M204 P200 T200
G1 F400
G1 Z0.000 F2500
; --- Backlash X fix: 0.500mm ---
G0 X150.000 Y112.400 F200
; --- Backlash Y fix: 1.600mm ---
G0 X150.000 Y114.000 F200
G1 X150.000 Y114.500
G1 X150.000 Y114.500
; --- Backlash Y fix: -1.600mm ---
G0 X150.000 Y112.900 F200
G1 X150.000 Y112.400
G1 X150.000 Y111.900
G1 X150.000 Y111.400
G1 X150.000 Y110.400
; --- Backlash X fix: -0.500mm ---
G0 X150.000 Y110.400 F200
G1 X150.000 Y109.900
G1 X150.000 Y109.900
G1 X150.000 Y109.900
; --- Backlash Y fix: 1.600mm ---
G0 X150.000 Y111.500 F200
G1 X150.000 Y112.000
G1 X150.000 Y113.000
G1 X150.000 Y114.000
G0 Z4.600 F3000
M400
M204 P12000 T12000
G1 F12000
; --- Backlash X fix: 0.500mm ---
G0 X150.000 Y114.000 F200
G0 X150.000 Y127.000 Z4.600
M400
M204 P200 T200
G1 F400
G1 Z0.000 F2500
G1 X150.000 Y127.500
G1 X150.000 Y127.500
; --- Backlash Y fix: -1.600mm ---
G0 X150.000 Y125.900 F200
G1 X150.000 Y125.400
G1 X150.000 Y124.900
G1 X150.000 Y124.400
G1 X150.000 Y123.400
; --- Backlash X fix: -0.500mm ---
G0 X150.000 Y123.400 F200
G1 X150.000 Y122.900
G1 X150.000 Y122.900
G1 X150.000 Y122.900
; --- Backlash Y fix: 1.600mm ---
G0 X150.000 Y124.500 F200
G1 X150.000 Y125.000
G1 X150.000 Y126.000
G1 X150.000 Y127.000
G0 Z4.600 F3000
M400
M204 P12000 T12000
G1 F12000
G0 X150.000 Y133.000 Z4.600
M400
M204 P200 T200
G1 F400
G1 Z0.000 F2500
; --- Backlash X fix: 0.500mm ---
G0 X150.000 Y133.000 F200
G1 X150.000 Y133.500
G1 X150.000 Y133.500
G1 X150.000 Y133.500
; --- Backlash Y fix: -1.600mm ---
G0 X150.000 Y131.900 F200
G1 X150.000 Y131.400
G1 X150.000 Y130.400
G1 X150.000 Y129.400
; --- Backlash X fix: -0.500mm ---
G0 X150.000 Y129.400 F200
G1 X150.000 Y128.900
G1 X150.000 Y128.900
; --- Backlash Y fix: 1.600mm ---
G0 X150.000 Y130.500 F200
G1 X150.000 Y131.000
G1 X150.000 Y131.500
G1 X150.000 Y132.000
G1 X150.000 Y133.000
G0 Z4.600 F3000
M400
M204 P12000 T12000
G1 F12000
G0 X150.000 Y137.000 Z4.600
M400
M204 P200 T200
G1 F400
G1 Z0.000 F2500
; --- Backlash X fix: 0.500mm ---
G0 X150.000 Y137.000 F200
G1 X150.000 Y137.500
G1 X150.000 Y137.500
; --- Backlash Y fix: -1.600mm ---
G0 X150.000 Y135.900 F200
G1 X150.000 Y135.400
G1 X150.000 Y134.900
G1 X150.000 Y134.400
; --- Backlash X fix: -0.500mm ---
G0 X150.000 Y134.400 F200
G1 X150.000 Y133.900
G1 X150.000 Y133.400
G1 X150.000 Y132.900
G1 X150.000 Y132.900
; --- Backlash Y fix: 1.600mm ---
G0 X150.000 Y134.500 F200
G1 X150.000 Y135.000
G1 X150.000 Y136.000
G1 X150.000 Y137.000
G0 Z4.600 F3000
M400
M204 P12000 T12000
G1 F12000
G0 X150.000 Y143.000 Z4.600
M400
M204 P200 T200
G1 F400
G1 Z0.000 F2500
; --- Backlash X fix: 0.500mm ---
G0 X150.000 Y143.000 F200
G1 X150.000 Y143.500
G1 X150.000 Y143.500
G1 X150.000 Y143.500
; --- Backlash Y fix: -1.600mm ---
G0 X150.000 Y141.900 F200
G1 X150.000 Y141.400
G1 X150.000 Y140.400
; --- Backlash X fix: -0.500mm ---
G0 X150.000 Y140.400 F200
G1 X150.000 Y139.900
G1 X150.000 Y139.400
G1 X150.000 Y138.900
; --- Backlash Y fix: 1.600mm ---
G0 X150.000 Y140.500 F200
G1 X150.000 Y141.000
G1 X150.000 Y141.500
G1 X150.000 Y142.000
G1 X150.000 Y143.000
G0 Z4.600 F3000
M400
M204 P12000 T12000
G1 F12000
G0 X150.000 Y147.000 Z4.600
M400
M204 P200 T200
G1 F400
G1 Z0.000 F2500
; --- Backlash X fix: 0.500mm ---
G0 X150.000 Y147.000 F200
G1 X150.000 Y147.500
G1 X150.000 Y147.500
; --- Backlash Y fix: -1.600mm ---
G0 X150.000 Y145.900 F200
G1 X150.000 Y145.400
G1 X150.000 Y144.900
G1 X150.000 Y144.400
; --- Backlash X fix: -0.500mm ---
G0 X150.000 Y144.400 F200
G1 X150.000 Y143.900
G1 X150.000 Y143.400
G1 X150.000 Y142.900
G1 X150.000 Y142.900
; --- Backlash Y fix: 1.600mm ---
G0 X150.000 Y144.500 F200
G1 X150.000 Y145.000
G1 X150.000 Y146.000
G1 X150.000 Y147.000
G0 Z4.600 F3000
M400
M204 P12000 T12000
G1 F12000
G0 X150.000 Y150.000 Z4.600
M400
M204 P200 T200
G1 F400
G1 Z0.000 F2500
; --- Backlash X fix: 0.500mm ---
G0 X150.000 Y150.000 F200
G1 X150.000 Y150.000
G1 X150.000 Y150.000
; --- Backlash Y fix: -1.600mm ---
G0 X150.000 Y150.000 F200
G1 X150.000 Y150.000
G1 X150.000 Y150.000
G1 X150.000 Y150.000
; --- Backlash X fix: -0.500mm ---
G0 X150.000 Y150.000 F200
G1 X150.000 Y150.000
G1 X150.000 Y150.000
G1 X150.000 Y150.000
G1 X150.000 Y150.000
; --- Backlash Y fix: 1.600mm ---
G0 X150.000 Y150.000 F200
G1 X150.000 Y150.000
G1 X150.000 Y150.000
G1 X150.000 Y150.000
G0 Z4.600 F3000
M400
M204 P12000 T12000
G1 F12000
G0 X150.000 Y150.000 Z4.600
M400
M204 P200 T200
G1 F400
G1 Z0.000 F2500
; --- Backlash X fix: 0.500mm ---
G0 X150.000 Y150.000 F200
G1 X150.000 Y150.000
G1 X150.000 Y150.000
; --- Backlash Y fix: -1.600mm ---
G0 X150.000 Y150.000 F200
G1 X150.000 Y150.000
G1 X150.000 Y150.000
G1 X150.000 Y150.000
; --- Backlash X fix: -0.500mm ---
G0 X150.000 Y150.000 F200
G1 X150.000 Y150.000
G1 X150.000 Y150.000
; --- Backlash Y fix: 1.600mm ---
G0 X150.000 Y150.000 F200
G1 X150.000 Y150.000
G1 X150.000 Y150.000
G1 X150.000 Y150.000
G0 Z4.600 F3000
M400
M204 P12000 T12000
G1 F12000
G0 X150.000 Y150.000 Z4.600
M400
M204 P200 T200
G1 F400
G1 Z0.000 F2500
; --- Backlash X fix: 0.500mm ---
G0 X150.000 Y150.000 F200
G1 X150.000 Y150.000
G1 X150.000 Y150.000
G1 X150.000 Y150.000
; --- Backlash Y fix: -1.600mm ---
G0 X150.000 Y150.000 F200
G1 X150.000 Y150.000
G1 X150.000 Y150.000
; --- Backlash X fix: -0.500mm ---
G0 X150.000 Y150.000 F200
G1 X150.000 Y150.000
G1 X150.000 Y150.000
G1 X150.000 Y150.000
; --- Backlash Y fix: 1.600mm ---
G0 X150.000 Y150.000 F200
G1 X150.000 Y150.000
G1 X150.000 Y150.000
G1 X150.000 Y150.000
G1 X150.000 Y150.000
G0 Z4.600 F3000
M400
M204 P12000 T12000
G1 F12000
G0 X147.500 Y150.000 Z4.600
M400
M204 P200 T200
G1 F400
G1 Z0.000 F2500
; --- Backlash X fix: 0.500mm ---
G0 X148.000 Y150.000 F200
G1 X148.500 Y150.000
G1 X149.500 Y150.000
; --- Backlash Y fix: -1.600mm ---
G0 X149.500 Y150.000 F200
G1 X150.000 Y150.000
G1 X150.000 Y150.000
G1 X150.000 Y150.000
; --- Backlash X fix: -0.500mm ---
G0 X149.500 Y150.000 F200
G1 X149.000 Y150.000
G1 X148.000 Y150.000
; --- Backlash Y fix: 1.600mm ---
G0 X148.000 Y150.000 F200
G1 X147.500 Y150.000
G1 X147.500 Y150.000
G1 X147.500 Y150.000
G0 Z4.600 F3000
M400
M204 P12000 T12000
G1 F12000
G0 X147.500 Y150.000 Z4.600
M400
M204 P200 T200
G1 F400
G1 Z0.000 F2500
; --- Backlash X fix: 0.500mm ---
G0 X148.000 Y150.000 F200
G1 X148.500 Y150.000
G1 X149.500 Y150.000
G1 X150.000 Y150.000
; --- Backlash Y fix: -1.600mm ---
G0 X150.000 Y150.000 F200
G1 X150.000 Y150.000
G1 X150.000 Y150.000
; --- Backlash X fix: -0.500mm ---
G0 X150.000 Y150.000 F200
G1 X150.000 Y150.000
G1 X149.500 Y150.000
G1 X149.000 Y150.000
; --- Backlash Y fix: 1.600mm ---
G0 X149.000 Y150.000 F200
G1 X148.500 Y150.000
G1 X148.000 Y150.000
G1 X147.500 Y150.000
G1 X147.500 Y150.000
G0 Z4.600 F3000
M400
M204 P12000 T12000
G1 F12000
G0 X144.500 Y150.000 Z4.600
M400
M204 P200 T200
G1 F400
G1 Z0.000 F2500
; --- Backlash Y fix: -1.600mm ---
G0 X144.500 Y150.000 F200
G1 X144.000 Y150.000
G1 X143.000 Y150.000
; --- Backlash Y fix: 1.600mm ---
G0 X143.000 Y150.000 F200
G1 X142.500 Y150.000
G0 Z4.600 F3000
M400
M204 P12000 T12000
G1 F12000
; --- Backlash Y fix: -1.600mm ---
G0 X142.500 Y150.000 F200
G0 X141.500 Y150.000 Z4.600
M400
M204 P200 T200
G1 F400
G1 Z0.000 F2500
; --- Backlash X fix: 0.500mm ---
G0 X142.000 Y150.000 F200
; --- Backlash Y fix: 1.600mm ---
G0 X142.000 Y150.000 F200
G1 X142.500 Y150.000
G1 X143.500 Y150.000
G1 X144.500 Y150.000
; --- Backlash Y fix: -1.600mm ---
G0 X144.500 Y150.000 F200
G1 X145.000 Y150.000
G1 X145.000 Y150.000
; --- Backlash X fix: -0.500mm ---
G0 X144.500 Y150.000 F200
G1 X144.000 Y150.000
G1 X143.000 Y150.000
G1 X142.000 Y150.000
; --- Backlash Y fix: 1.600mm ---
G0 X142.000 Y150.000 F200
G1 X141.500 Y150.000
G1 X141.500 Y150.000
G0 Z4.600 F3000
M400
M204 P12000 T12000
G1 F12000
; --- Backlash Y fix: -1.600mm ---
G0 X141.500 Y150.000 F200
G0 X136.500 Y150.000 Z4.600
M400
M204 P200 T200
G1 F400
G1 Z0.000 F2500
; --- Backlash X fix: 0.500mm ---
G0 X137.000 Y150.000 F200
; --- Backlash Y fix: 1.600mm ---
G0 X137.000 Y150.000 F200
G1 X137.500 Y150.000
G1 X138.500 Y150.000
; --- Backlash Y fix: -1.600mm ---
G0 X138.500 Y150.000 F200
G1 X139.000 Y150.000
G1 X139.000 Y150.000
; --- Backlash X fix: -0.500mm ---
G0 X138.500 Y150.000 F200
G1 X138.000 Y150.000
G1 X137.000 Y150.000
G0 Z4.600 F3000

; --- CIKEL NAMAKANJA ---
G0 Z4.600 F3000
M400
M204 P12000 T12000
G1 F12000
G0 X71.404 Y7.916 Z31.000
G1 Z0.000 F3000
G1 X71.404 Y7.916 F2500
G1 X71.404 Y10.416 F2500
G1 X66.404 Y7.916 F2500
G1 X71.404 Y0.416 F2500
G0 Z16.000 F3000
G0 X71.746 Y13.856
G0 Z31.000 F3000
G0 X136.500 Y150.000 Z4.600
M400
M204 P200 T200
G1 F400
G1 Z0.000 F2500
; --- Backlash Y fix: 1.600mm ---
G0 X137.000 Y150.000 F200
G1 X136.500 Y150.000
G1 X136.500 Y150.000
G0 Z4.600 F3000
M400
M204 P12000 T12000
G1 F12000
; --- Backlash X fix: 0.500mm ---
G0 X137.000 Y150.000 F200
; --- Backlash Y fix: -1.600mm ---
G0 X137.000 Y150.000 F200
G0 X142.000 Y150.000 Z4.600
M400
M204 P200 T200
G1 F400
G1 Z0.000 F2500
; --- Backlash Y fix: 1.600mm ---
G0 X142.000 Y150.000 F200
G1 X142.500 Y150.000
G1 X143.500 Y150.000
; --- Backlash Y fix: -1.600mm ---
G0 X143.500 Y150.000 F200
G1 X144.000 Y150.000
G1 X144.000 Y150.000
G1 X144.000 Y150.000
; --- Backlash X fix: -0.500mm ---
G0 X143.500 Y150.000 F200
G1 X143.000 Y150.000
G1 X142.000 Y150.000
; --- Backlash Y fix: 1.600mm ---
G0 X142.000 Y150.000 F200
G1 X141.500 Y150.000
G1 X141.500 Y150.000
G1 X141.500 Y150.000
G0 Z4.600 F3000
M400
M204 P12000 T12000
G1 F12000
; --- Backlash X fix: 0.500mm ---
G0 X142.000 Y150.000 F200
; --- Backlash Y fix: -1.600mm ---
G0 X142.000 Y150.000 F200
G0 X147.000 Y150.000 Z4.600
M400
M204 P200 T200
G1 F400
G1 Z0.000 F2500
; --- Backlash Y fix: 1.600mm ---
G0 X147.000 Y150.000 F200
G1 X147.500 Y150.000
G1 X148.500 Y150.000
G1 X149.500 Y150.000
; --- Backlash Y fix: -1.600mm ---
G0 X149.500 Y150.000 F200
G1 X150.000 Y150.000
G1 X150.000 Y150.000
; --- Backlash X fix: -0.500mm ---
G0 X149.500 Y150.000 F200
G1 X149.000 Y150.000
G1 X148.500 Y150.000
G1 X148.000 Y150.000
; --- Backlash Y fix: 1.600mm ---
G0 X148.000 Y150.000 F200
G1 X147.500 Y150.000
G1 X147.000 Y150.000
G1 X146.500 Y150.000
G1 X146.500 Y150.000
G0 Z4.600 F3000
M400
M204 P12000 T12000
G1 F12000
; --- Backlash Y fix: -1.600mm ---
G0 X146.500 Y150.000 F200
G0 X146.500 Y150.000 Z4.600
M400
M204 P200 T200
G1 F400
G1 Z0.000 F2500
; --- Backlash X fix: 0.500mm ---
G0 X147.000 Y150.000 F200
; --- Backlash Y fix: 1.600mm ---
G0 X147.000 Y150.000 F200
G1 X147.500 Y150.000
G1 X148.500 Y150.000
; --- Backlash Y fix: -1.600mm ---
G0 X148.500 Y150.000 F200
G1 X149.000 Y150.000
G1 X149.000 Y150.000
G1 X149.000 Y150.000
; --- Backlash X fix: -0.500mm ---
G0 X148.500 Y150.000 F200
G1 X148.000 Y150.000
G1 X147.000 Y150.000
; --- Backlash Y fix: 1.600mm ---
G0 X147.000 Y150.000 F200
G1 X146.500 Y150.000
G1 X146.500 Y150.000
G1 X146.500 Y150.000
G0 Z4.600 F3000
M400
M204 P12000 T12000
G1 F12000
; --- Backlash Y fix: -1.600mm ---
G0 X146.500 Y150.000 F200
G0 X140.500 Y150.000 Z4.600
M400
M204 P200 T200
G1 F400
G1 Z0.000 F2500
; --- Backlash X fix: 0.500mm ---
G0 X141.000 Y150.000 F200
; --- Backlash Y fix: 1.600mm ---
G0 X141.000 Y150.000 F200
G1 X141.500 Y150.000
G1 X142.500 Y150.000
G1 X143.500 Y150.000
; --- Backlash Y fix: -1.600mm ---
G0 X143.500 Y150.000 F200
G1 X144.000 Y150.000
G1 X144.500 Y150.000
G1 X145.000 Y150.000
G1 X145.000 Y150.000
G1 X145.000 Y150.000
; --- Backlash X fix: -0.500mm ---
G0 X144.500 Y150.000 F200
G1 X144.000 Y150.000
G1 X143.500 Y150.000
G1 X143.000 Y149.900
G1 X142.000 Y149.900
G1 X141.000 Y149.900
; --- Backlash Y fix: 1.600mm ---
G0 X141.000 Y150.000 F200
G1 X140.500 Y150.000
G1 X140.000 Y150.000
G1 X139.500 Y150.000
G1 X139.500 Y150.000
G1 X139.500 Y150.000
; --- Backlash X fix: 0.500mm ---
G0 X140.000 Y150.000 F200
G1 X140.500 Y150.000
G1 X141.000 Y150.000
G0 Z4.600 F3000
M400
M204 P12000 T12000
G1 F12000
G0 X141.000 Y150.000 Z4.600
M400
M204 P200 T200
G1 F400
G1 Z0.000 F2500
G1 X141.500 Y150.000
G1 X142.500 Y150.000
G1 X143.500 Y150.000
; --- Backlash Y fix: -1.600mm ---
G0 X143.500 Y150.000 F200
G1 X144.000 Y150.000
G1 X144.000 Y150.000
; --- Backlash X fix: -0.500mm ---
G0 X143.500 Y150.000 F200
G1 X143.000 Y150.000
G1 X142.000 Y150.000
G1 X141.000 Y150.000
; --- Backlash Y fix: 1.600mm ---
G0 X141.000 Y150.000 F200
G1 X140.500 Y150.000
G1 X140.500 Y150.000
G0 Z4.600 F3000
M400
M204 P12000 T12000
G1 F12000
; --- Backlash Y fix: -1.600mm ---
G0 X140.500 Y150.000 F200
G0 X135.500 Y150.000 Z4.600
M400
M204 P200 T200
G1 F400
G1 Z0.000 F2500
; --- Backlash X fix: 0.500mm ---
G0 X136.000 Y150.000 F200
; --- Backlash Y fix: 1.600mm ---
G0 X136.000 Y150.000 F200
G1 X136.500 Y150.000
G1 X137.500 Y150.000
; --- Backlash Y fix: -1.600mm ---
G0 X137.500 Y150.000 F200
G1 X138.000 Y150.000
G1 X138.500 Y150.000
G1 X139.000 Y150.000
G1 X139.000 Y150.000
G1 X139.000 Y150.000
G1 X139.000 Y150.000
; --- Backlash X fix: -0.500mm ---
G0 X138.500 Y150.000 F200
G1 X138.000 Y150.000
G1 X137.000 Y150.000
G1 X136.000 Y150.000
G1 X135.000 Y150.000
; --- Backlash Y fix: 1.600mm ---
G0 X135.000 Y150.000 F200
G1 X134.500 Y150.000
G1 X134.000 Y150.000
G1 X133.500 Y150.000
G1 X133.500 Y150.000
; --- Backlash X fix: 0.500mm ---
G0 X134.000 Y150.000 F200
G1 X134.500 Y150.000
G1 X135.000 Y150.000
G1 X135.500 Y150.000
G1 X136.000 Y150.000
G0 Z4.600 F3000
M400
M204 P12000 T12000
G1 F12000
; --- Backlash X fix: -0.500mm ---
G0 X135.500 Y150.000 F200
G0 X129.500 Y150.000 Z4.600
M400
M204 P200 T200
G1 F400
G1 Z0.000 F2500
; --- Backlash X fix: 0.500mm ---
G0 X130.000 Y150.000 F200
G1 X130.500 Y150.000
G1 X131.500 Y150.000
G1 X132.500 Y150.000
; --- Backlash Y fix: -1.600mm ---
G0 X132.500 Y150.000 F200
G1 X133.000 Y150.000
G1 X133.500 Y150.000
G1 X134.000 Y150.000
G1 X134.000 Y150.000
G1 X134.000 Y150.000
; --- Backlash X fix: -0.500mm ---
G0 X133.500 Y150.000 F200
G1 X133.000 Y150.000
G1 X132.500 Y150.000
G1 X132.000 Y150.000
G1 X131.000 Y150.000
G1 X130.000 Y150.000
; --- Backlash Y fix: 1.600mm ---
G0 X130.000 Y150.000 F200
G1 X129.500 Y150.000
G1 X129.000 Y150.000
G1 X128.500 Y150.000
G1 X128.500 Y150.000
G1 X128.500 Y150.000
; --- Backlash X fix: 0.500mm ---
G0 X129.000 Y150.000 F200
G1 X129.500 Y150.000
G1 X130.000 Y150.000
G0 Z4.600 F3000
M400
M204 P12000 T12000
G1 F12000
; --- Backlash Y fix: -1.600mm ---
G0 X130.000 Y150.000 F200
G0 X130.000 Y150.000 Z4.600
M400
M204 P200 T200
G1 F400
G1 Z0.000 F2500
; --- Backlash Y fix: 1.600mm ---
G0 X130.000 Y150.000 F200
G1 X130.500 Y150.000
G1 X131.500 Y150.000
; --- Backlash Y fix: -1.600mm ---
G0 X131.500 Y150.000 F200
G1 X132.000 Y150.000
G1 X132.500 Y150.000
G1 X133.000 Y150.000
G1 X133.500 Y150.000
G1 X134.000 Y150.000
G1 X134.000 Y150.000
; --- Backlash X fix: -0.500mm ---
G0 X133.500 Y150.000 F200
G1 X133.000 Y150.000
G1 X132.500 Y150.000
G1 X132.000 Y150.000
G1 X131.000 Y150.000
G1 X130.000 Y150.000
G1 X129.000 Y150.000
; --- Backlash Y fix: 1.600mm ---
G0 X129.000 Y150.000 F200
G1 X128.500 Y150.000
G1 X128.500 Y150.000
G1 X128.000 Y150.000
G1 X127.500 Y150.000
; --- Backlash X fix: 0.500mm ---
G0 X128.000 Y150.000 F200
G1 X128.500 Y150.000
G1 X129.000 Y150.000
G1 X129.500 Y150.000
G1 X130.000 Y150.000
G0 Z4.600 F3000
M400
M204 P12000 T12000
G1 F12000
; --- Backlash Y fix: -1.600mm ---
G0 X130.000 Y150.000 F200
G0 X135.000 Y150.000 Z4.600
M400
M204 P200 T200
G1 F400
G1 Z0.000 F2500
; --- Backlash Y fix: 1.600mm ---
G0 X135.000 Y150.000 F200
G1 X135.500 Y150.000
G1 X136.500 Y150.000
G1 X137.500 Y150.000
; --- Backlash Y fix: -1.600mm ---
G0 X137.500 Y150.000 F200
G1 X138.000 Y150.000
G1 X138.500 Y150.000
G1 X139.000 Y150.000
G1 X139.000 Y149.400
G1 X139.000 Y148.400
; --- Backlash X fix: -0.500mm ---
G0 X138.500 Y148.400 F200
G1 X138.000 Y147.900
G1 X137.500 Y147.400
G1 X137.000 Y146.900
G1 X136.000 Y146.900
G1 X135.000 Y146.900
; --- Backlash Y fix: 1.600mm ---
G0 X135.000 Y148.500 F200
G1 X134.500 Y149.000
G1 X134.000 Y149.500
G1 X133.500 Y150.000
G1 X133.500 Y150.000
G1 X133.500 Y150.000
; --- Backlash X fix: 0.500mm ---
G0 X134.000 Y150.000 F200
G1 X134.500 Y150.000
G1 X135.000 Y150.000
G0 Z4.600 F3000
M400
M204 P12000 T12000
G1 F12000
; --- Backlash Y fix: -1.600mm ---
G0 X135.000 Y150.000 F200
G0 X135.000 Y145.400 Z4.600
M400
M204 P200 T200
G1 F400
G1 Z0.000 F2500
; --- Backlash Y fix: 1.600mm ---
G0 X135.000 Y147.000 F200
G1 X135.500 Y147.500
G1 X136.500 Y147.500
; --- Backlash Y fix: -1.600mm ---
G0 X136.500 Y145.900 F200
G1 X137.000 Y145.400
G1 X137.500 Y144.900
G1 X138.000 Y144.400
G1 X138.000 Y143.400
G1 X138.000 Y142.400
G1 X138.000 Y141.400
; --- Backlash X fix: -0.500mm ---
G0 X137.500 Y141.400 F200
G1 X137.000 Y140.900
G1 X136.000 Y140.900
G1 X135.000 Y140.900
G1 X134.000 Y140.900
; --- Backlash Y fix: 1.600mm ---
G0 X134.000 Y142.500 F200
G1 X133.500 Y143.000
G1 X133.500 Y144.000
G1 X133.500 Y145.000
G1 X133.500 Y146.000
; --- Backlash X fix: 0.500mm ---
G0 X134.000 Y146.000 F200
G1 X134.500 Y146.500
G1 X135.000 Y147.000
G0 Z4.600 F3000
M400
M204 P12000 T12000
G1 F12000
; --- Backlash Y fix: -1.600mm ---
G0 X135.000 Y145.400 F200
G0 X140.000 Y141.400 Z4.600
M400
M204 P200 T200
G1 F400
G1 Z0.000 F2500
; --- Backlash Y fix: 1.600mm ---
G0 X140.000 Y143.000 F200
G1 X140.500 Y143.500
G1 X141.500 Y143.500
G1 X142.500 Y143.500
; --- Backlash Y fix: -1.600mm ---
G0 X142.500 Y141.900 F200
G1 X143.000 Y141.400
G1 X143.500 Y140.900
G1 X144.000 Y140.400
G1 X144.000 Y139.400
G1 X144.000 Y138.400
; --- Backlash X fix: -0.500mm ---
G0 X143.500 Y138.400 F200
G1 X143.000 Y137.900
G1 X142.500 Y137.400
G1 X142.000 Y136.900
G1 X141.000 Y136.900
G1 X140.000 Y136.900
; --- Backlash Y fix: 1.600mm ---
G0 X140.000 Y138.500 F200
G1 X139.500 Y139.000
