G90
G21
; === MULTI-COLOR PAINTER GCODE ===
; Generated layers: 1
; Backlash compensation: OFF
; Working area clamping: ON  X[0–290] Y[0–450]
; Tutti Frutti mode: OFF


; ═══════════════════════════════
; LAYER 2: Color 2 — Teal
; Infill: lines
; ═══════════════════════════════


; --- CIKEL NAMAKANJA ---
G0 Z2.000 F3000
M400
M204 P300 T300
G1 F250
G0 X96.564 Y0.000 Z7.000
G1 Z1.000 F3000
G1 X96.564 Y0.000 F2500
G1 X96.564 Y2.500 F2500
G1 X91.564 Y0.000 F2500
G1 X96.564 Y0.000 F2500
G0 Z19.000 F3000
G0 X83.917 Y18.000
G0 Z7.000 F3000
G0 X77.750 Y36.250 Z2.000
M400
M204 P300 T300
G1 F250
G0 X77.750 Y36.250 Z2.000
M400
M204 P150 T150
G1 F120
G1 Z0.000 F2500
G1 X78.000 Y36.250
G1 X78.250 Y36.250
G1 X78.500 Y36.250
G1 X78.750 Y36.250
G0 Z2.000 F3000
M400
M204 P300 T300
G1 F250
G0 X78.750 Y37.000 Z2.000
M400
M204 P150 T150
G1 F120
G1 Z0.000 F2500
G1 X78.500 Y37.000
G1 X78.250 Y37.000
G1 X78.000 Y37.000
G1 X77.750 Y37.000
G1 X77.500 Y37.000
G1 X77.250 Y37.000
G1 X77.000 Y37.000
G1 X76.750 Y37.000
G1 X76.500 Y37.000
G1 X76.250 Y37.000
G1 X76.000 Y37.000
G1 X75.750 Y37.000
G0 Z2.000 F3000
M400
M204 P300 T300
G1 F250
G0 X74.250 Y37.750 Z2.000
M400
M204 P150 T150
G1 F120
G1 Z0.000 F2500
G1 X74.500 Y37.750
G1 X74.750 Y37.750
G1 X75.000 Y37.750
G1 X75.250 Y37.750
G1 X75.500 Y37.750
G1 X75.750 Y37.750
G1 X76.000 Y37.750
G1 X76.250 Y37.750
G1 X76.500 Y37.750
G1 X76.750 Y37.750
G1 X77.000 Y37.750
G1 X77.250 Y37.750
G1 X77.500 Y37.750
G1 X77.750 Y37.750
G1 X78.000 Y37.750
G1 X78.250 Y37.750
G1 X78.500 Y37.750
G1 X78.750 Y37.750
G0 Z2.000 F3000
M400
M204 P300 T300
G1 F250
G0 X79.000 Y41.500 Z2.000
M400
M204 P150 T150
G1 F120
G1 Z0.000 F2500
G1 X78.750 Y41.500
G1 X78.500 Y41.500
G1 X78.250 Y41.500
G1 X78.000 Y41.500
G1 X77.750 Y41.500
G1 X77.500 Y41.500
G1 X77.250 Y41.500
G1 X77.000 Y41.500
G1 X76.750 Y41.500
G0 Z2.000 F3000
M400
M204 P300 T300
G1 F250
G0 X76.750 Y42.250 Z2.000
M400
M204 P150 T150
G1 F120
G1 Z0.000 F2500
G1 X77.000 Y42.250
G1 X77.250 Y42.250
G1 X77.500 Y42.250
G1 X77.750 Y42.250
G1 X78.000 Y42.250
G1 X78.250 Y42.250
G1 X78.500 Y42.250
G1 X78.750 Y42.250
G1 X79.000 Y42.250
G0 Z2.000 F3000
M400
M204 P300 T300
G1 F250
G0 X79.000 Y43.000 Z2.000
M400
M204 P150 T150
G1 F120
G1 Z0.000 F2500
G1 X78.750 Y43.000
G1 X78.500 Y43.000
G1 X78.250 Y43.000
G1 X78.000 Y43.000
G1 X77.750 Y43.000
G1 X77.500 Y43.000
G1 X77.250 Y43.000
G1 X77.000 Y43.000
G1 X76.750 Y43.000
G1 X76.500 Y43.000
G0 Z2.000 F3000
M400
M204 P300 T300
G1 F250
G0 X76.500 Y43.750 Z2.000
M400
M204 P150 T150
G1 F120
G1 Z0.000 F2500
G1 X76.750 Y43.750
G1 X77.000 Y43.750
G1 X77.250 Y43.750
G1 X77.500 Y43.750
G1 X77.750 Y43.750
G1 X78.000 Y43.750
G1 X78.250 Y43.750
G1 X78.500 Y43.750
G1 X78.750 Y43.750
G1 X79.000 Y43.750
G0 Z2.000 F3000
M400
M204 P300 T300
G1 F250
G0 X79.000 Y44.500 Z2.000
M400
M204 P150 T150
G1 F120
G1 Z0.000 F2500
G1 X78.750 Y44.500
G1 X78.500 Y44.500
G1 X78.250 Y44.500
G1 X78.000 Y44.500
G1 X77.750 Y44.500
G1 X77.500 Y44.500
G1 X77.250 Y44.500
G1 X77.000 Y44.500
G1 X76.750 Y44.500
G1 X76.500 Y44.500
G1 X76.250 Y44.500
G0 Z2.000 F3000
M400
M204 P300 T300
G1 F250
G0 X76.250 Y45.250 Z2.000
M400
M204 P150 T150
G1 F120
G1 Z0.000 F2500
G1 X76.500 Y45.250
G1 X76.750 Y45.250
G1 X77.000 Y45.250
G1 X77.250 Y45.250
G1 X77.500 Y45.250
G1 X77.750 Y45.250
G1 X78.000 Y45.250
G1 X78.250 Y45.250
G1 X78.500 Y45.250
G1 X78.750 Y45.250
G1 X79.000 Y45.250
G0 Z2.000 F3000
M400
M204 P300 T300
G1 F250
G0 X78.750 Y46.000 Z2.000
M400
M204 P150 T150
G1 F120
G1 Z0.000 F2500
G1 X78.500 Y46.000
G1 X78.250 Y46.000
G1 X78.000 Y46.000
G1 X77.750 Y46.000
G1 X77.500 Y46.000
G1 X77.250 Y46.000
G1 X77.000 Y46.000
G1 X76.750 Y46.000
G1 X76.500 Y46.000
G1 X76.250 Y46.000
G1 X76.000 Y46.000
G0 Z2.000 F3000
M400
M204 P300 T300
G1 F250
G0 X75.750 Y46.750 Z2.000
M400
M204 P150 T150
G1 F120
G1 Z0.000 F2500
G1 X76.000 Y46.750
G1 X76.250 Y46.750
G1 X76.500 Y46.750
G1 X76.750 Y46.750
G1 X77.000 Y46.750
G1 X77.250 Y46.750
G1 X77.500 Y46.750
G1 X77.750 Y46.750
G1 X78.000 Y46.750
G1 X78.250 Y46.750
G1 X78.500 Y46.750
G1 X78.750 Y46.750
G0 Z2.000 F3000
M400
M204 P300 T300
G1 F250
G0 X78.500 Y47.500 Z2.000
M400
M204 P150 T150
G1 F120
G1 Z0.000 F2500
G1 X78.250 Y47.500
G1 X78.000 Y47.500
G1 X77.750 Y47.500
G1 X77.500 Y47.500
G1 X77.250 Y47.500
G1 X77.000 Y47.500
G1 X76.750 Y47.500
G1 X76.500 Y47.500
G1 X76.250 Y47.500
G1 X76.000 Y47.500
G1 X75.750 Y47.500
G1 X75.500 Y47.500
G0 Z2.000 F3000
M400
M204 P300 T300
G1 F250
G0 X75.250 Y48.250 Z2.000
M400
M204 P150 T150
G1 F120
G1 Z0.000 F2500
G1 X75.500 Y48.250
G1 X75.750 Y48.250
G1 X76.000 Y48.250
G1 X76.250 Y48.250
G1 X76.500 Y48.250
G1 X76.750 Y48.250
G1 X77.000 Y48.250
G1 X77.250 Y48.250
G1 X77.500 Y48.250
G1 X77.750 Y48.250
G1 X78.000 Y48.250
G1 X78.250 Y48.250
G1 X78.500 Y48.250
G0 Z2.000 F3000
M400
M204 P300 T300
G1 F250
G0 X78.250 Y49.000 Z2.000
M400
M204 P150 T150
G1 F120
G1 Z0.000 F2500
G1 X78.000 Y49.000
G1 X77.750 Y49.000
G1 X77.500 Y49.000
G1 X77.250 Y49.000
G1 X77.000 Y49.000
G1 X76.750 Y49.000
G1 X76.500 Y49.000
G1 X76.250 Y49.000
G1 X76.000 Y49.000
G1 X75.750 Y49.000
G1 X75.500 Y49.000
G1 X75.250 Y49.000
G1 X75.000 Y49.000
G1 X74.750 Y49.000
G0 Z2.000 F3000
M400
M204 P300 T300
G1 F250
G0 X74.500 Y49.750 Z2.000
M400
M204 P150 T150
G1 F120
G1 Z0.000 F2500
G1 X74.750 Y49.750
G1 X75.000 Y49.750
G1 X75.250 Y49.750
G1 X75.500 Y49.750
G1 X75.750 Y49.750
G1 X76.000 Y49.750
G1 X76.250 Y49.750
G1 X76.500 Y49.750
G1 X76.750 Y49.750
G1 X77.000 Y49.750
G1 X77.250 Y49.750
G1 X77.500 Y49.750
G1 X77.750 Y49.750
G1 X78.000 Y49.750
G0 Z2.000 F3000
M400
M204 P300 T300
G1 F250
G0 X77.750 Y50.500 Z2.000
M400
M204 P150 T150
G1 F120
G1 Z0.000 F2500
G1 X77.500 Y50.500
G1 X77.250 Y50.500
G1 X77.000 Y50.500
G1 X76.750 Y50.500
G1 X76.500 Y50.500
G1 X76.250 Y50.500
G1 X76.000 Y50.500
G1 X75.750 Y50.500
G1 X75.500 Y50.500
G1 X75.250 Y50.500
G1 X75.000 Y50.500
G1 X74.750 Y50.500
G1 X74.500 Y50.500
G1 X74.250 Y50.500
G1 X74.000 Y50.500
G0 Z2.000 F3000
M400
M204 P300 T300
G1 F250
G0 X73.750 Y51.250 Z2.000
M400
M204 P150 T150
G1 F120
G1 Z0.000 F2500
G1 X74.000 Y51.250
G1 X74.250 Y51.250
G1 X74.500 Y51.250
G1 X74.750 Y51.250
G1 X75.000 Y51.250
G1 X75.250 Y51.250
G1 X75.500 Y51.250
G1 X75.750 Y51.250
G1 X76.000 Y51.250
G1 X76.250 Y51.250
G1 X76.500 Y51.250
G1 X76.750 Y51.250
G1 X77.000 Y51.250
G1 X77.250 Y51.250
G0 Z2.000 F3000
M400
M204 P300 T300
G1 F250
G0 X77.000 Y52.000 Z2.000
M400
M204 P150 T150
G1 F120
G1 Z0.000 F2500
G1 X76.750 Y52.000
G1 X76.500 Y52.000
G1 X76.250 Y52.000
G1 X76.000 Y52.000
G1 X75.750 Y52.000
G1 X75.500 Y52.000
G1 X75.250 Y52.000
G1 X75.000 Y52.000
G1 X74.750 Y52.000
G1 X74.500 Y52.000
G1 X74.250 Y52.000
G1 X74.000 Y52.000
G1 X73.750 Y52.000
G1 X73.500 Y52.000
G1 X73.250 Y52.000
G0 Z2.000 F3000
M400
M204 P300 T300
G1 F250
G0 X72.750 Y52.750 Z2.000
M400
M204 P150 T150
G1 F120
G1 Z0.000 F2500
G1 X73.000 Y52.750
G1 X73.250 Y52.750
G1 X73.500 Y52.750
G1 X73.750 Y52.750
G1 X74.000 Y52.750
G1 X74.250 Y52.750
G1 X74.500 Y52.750
G1 X74.750 Y52.750
G1 X75.000 Y52.750
G1 X75.250 Y52.750
G1 X75.500 Y52.750
G1 X75.750 Y52.750
G1 X76.000 Y52.750
G1 X76.250 Y52.750
G1 X76.500 Y52.750
G0 Z2.000 F3000
M400
M204 P300 T300
G1 F250
G0 X76.000 Y53.500 Z2.000
M400
M204 P150 T150
G1 F120
G1 Z0.000 F2500
G1 X75.750 Y53.500
G1 X75.500 Y53.500
G1 X75.250 Y53.500
G1 X75.000 Y53.500
G1 X74.750 Y53.500
G1 X74.500 Y53.500
G1 X74.250 Y53.500
G1 X74.000 Y53.500
G1 X73.750 Y53.500
G1 X73.500 Y53.500
G1 X73.250 Y53.500
G1 X73.000 Y53.500
G1 X72.750 Y53.500
G1 X72.500 Y53.500
G1 X72.250 Y53.500
G0 Z2.000 F3000
M400
M204 P300 T300
G1 F250
G0 X71.750 Y54.250 Z2.000
M400
M204 P150 T150
G1 F120
G1 Z0.000 F2500
G1 X72.000 Y54.250
G1 X72.250 Y54.250
G1 X72.500 Y54.250
G1 X72.750 Y54.250
G1 X73.000 Y54.250
G1 X73.250 Y54.250
G1 X73.500 Y54.250
G1 X73.750 Y54.250
G1 X74.000 Y54.250
G1 X74.250 Y54.250
G1 X74.500 Y54.250
G1 X74.750 Y54.250
G1 X75.000 Y54.250
G1 X75.250 Y54.250
G1 X75.500 Y54.250
G0 Z2.000 F3000
M400
M204 P300 T300
G1 F250
G0 X77.250 Y58.000 Z2.000
M400
M204 P150 T150
G1 F120
G1 Z0.000 F2500
G1 X77.500 Y58.000
G0 Z2.000 F3000
M400
M204 P300 T300
G1 F250
G0 X78.500 Y58.750 Z2.000
M400
M204 P150 T150
G1 F120
G1 Z0.000 F2500
G1 X78.250 Y58.750
G1 X78.000 Y58.750
G1 X77.750 Y58.750
G1 X77.500 Y58.750
G1 X77.250 Y58.750
G1 X77.000 Y58.750
G1 X76.750 Y58.750
G1 X76.500 Y58.750
G1 X76.250 Y58.750
G1 X76.000 Y58.750
G0 Z2.000 F3000
M400
M204 P300 T300
G1 F250
G0 X75.000 Y59.500 Z2.000
M400
M204 P150 T150
G1 F120
G1 Z0.000 F2500
G1 X75.250 Y59.500
G1 X75.500 Y59.500
G1 X75.750 Y59.500
G1 X76.000 Y59.500
G1 X76.250 Y59.500
G1 X76.500 Y59.500
G1 X76.750 Y59.500
G1 X77.000 Y59.500
G1 X77.250 Y59.500
G1 X77.500 Y59.500
G1 X77.750 Y59.500
G1 X78.000 Y59.500
G1 X78.250 Y59.500
G1 X78.500 Y59.500
G1 X78.750 Y59.500
G1 X79.000 Y59.500
G1 X79.250 Y59.500
G0 Z2.000 F3000
M400
M204 P300 T300
G1 F250
G0 X80.000 Y60.250 Z2.000
M400
M204 P150 T150
G1 F120
G1 Z0.000 F2500
G1 X79.750 Y60.250
G1 X79.500 Y60.250
G1 X79.250 Y60.250
G1 X79.000 Y60.250
G1 X78.750 Y60.250
G1 X78.500 Y60.250
G1 X78.250 Y60.250
G1 X78.000 Y60.250
G1 X77.750 Y60.250
G1 X77.500 Y60.250
G1 X77.250 Y60.250
G1 X77.000 Y60.250
G1 X76.750 Y60.250
G1 X76.500 Y60.250
G1 X76.250 Y60.250
G1 X76.000 Y60.250
G1 X75.750 Y60.250
G1 X75.500 Y60.250
G1 X75.250 Y60.250
G1 X75.000 Y60.250
G1 X74.750 Y60.250
G1 X74.500 Y60.250
G1 X74.250 Y60.250
G1 X74.000 Y60.250
G1 X73.750 Y60.250
G0 Z2.000 F3000
M400
M204 P300 T300
G1 F250
G0 X72.750 Y61.000 Z2.000
M400
M204 P150 T150
G1 F120
G1 Z0.000 F2500
G1 X73.000 Y61.000
G1 X73.250 Y61.000
G1 X73.500 Y61.000
G1 X73.750 Y61.000
G1 X74.000 Y61.000
G1 X74.250 Y61.000
G1 X74.500 Y61.000
G1 X74.750 Y61.000
G1 X75.000 Y61.000
G1 X75.250 Y61.000
G1 X75.500 Y61.000
G1 X75.750 Y61.000
G1 X76.000 Y61.000
G1 X76.250 Y61.000
G1 X76.500 Y61.000
G1 X76.750 Y61.000
G1 X77.000 Y61.000
G1 X77.250 Y61.000
G1 X77.500 Y61.000
G1 X77.750 Y61.000
G1 X78.000 Y61.000
G1 X78.250 Y61.000
G1 X78.500 Y61.000
G1 X78.750 Y61.000
G1 X79.000 Y61.000
G1 X79.250 Y61.000
G1 X79.500 Y61.000
G1 X79.750 Y61.000
G1 X80.000 Y61.000
G1 X80.250 Y61.000
G1 X80.500 Y61.000
G1 X80.750 Y61.000
G0 Z2.000 F3000
M400
M204 P300 T300
G1 F250
G0 X71.500 Y61.000 Z2.000
M400
M204 P150 T150
G1 F120
G1 Z0.000 F2500
G1 X71.250 Y61.000
G1 X71.000 Y61.000
G1 X70.750 Y61.000
G1 X70.500 Y61.000
G1 X70.250 Y61.000
G0 Z2.000 F3000
M400
M204 P300 T300
G1 F250
G0 X69.750 Y61.750 Z2.000
M400
M204 P150 T150
G1 F120
G1 Z0.000 F2500
G1 X70.000 Y61.750
G1 X70.250 Y61.750
G1 X70.500 Y61.750
G1 X70.750 Y61.750
G1 X71.000 Y61.750
G1 X71.250 Y61.750
G1 X71.500 Y61.750
G1 X71.750 Y61.750
G1 X72.000 Y61.750
G1 X72.250 Y61.750
G1 X72.500 Y61.750
G1 X72.750 Y61.750
G1 X73.000 Y61.750
G1 X73.250 Y61.750
G1 X73.500 Y61.750
G1 X73.750 Y61.750
G1 X74.000 Y61.750
G1 X74.250 Y61.750
G1 X74.500 Y61.750
G1 X74.750 Y61.750
G1 X75.000 Y61.750
G1 X75.250 Y61.750
G1 X75.500 Y61.750
G1 X75.750 Y61.750
G1 X76.000 Y61.750
G1 X76.250 Y61.750
G1 X76.500 Y61.750
G1 X76.750 Y61.750
G1 X77.000 Y61.750
G1 X77.250 Y61.750
G1 X77.500 Y61.750
G1 X77.750 Y61.750
G1 X78.000 Y61.750
G1 X78.250 Y61.750
G1 X78.500 Y61.750
G1 X78.750 Y61.750
G1 X79.000 Y61.750
G1 X79.250 Y61.750
G1 X79.500 Y61.750
G1 X79.750 Y61.750
G1 X80.000 Y61.750
G0 Z2.000 F3000

; --- CIKEL NAMAKANJA ---
G0 Z2.000 F3000
M400
M204 P300 T300
G1 F250
G0 X109.411 Y19.794 Z7.000
G1 Z1.000 F3000
G1 X109.411 Y19.794 F2500
G1 X109.411 Y22.294 F2500
G1 X104.411 Y19.794 F2500
G1 X109.411 Y12.294 F2500
G0 Z19.000 F3000
G0 X87.037 Y18.767
G0 Z7.000 F3000
G0 X80.250 Y61.750 Z2.000
M400
M204 P150 T150
G1 F120
G1 Z0.000 F2500
G1 X80.250 Y61.750
G1 X80.500 Y61.750
G1 X80.750 Y61.750
G1 X81.000 Y61.750
G1 X81.250 Y61.750
G1 X81.500 Y61.750
G0 Z2.000 F3000
M400
M204 P300 T300
G1 F250
G0 X82.000 Y62.500 Z2.000
M400
M204 P150 T150
G1 F120
G1 Z0.000 F2500
G1 X81.750 Y62.500
G1 X81.500 Y62.500
G1 X81.250 Y62.500
G1 X81.000 Y62.500
G1 X80.750 Y62.500
G1 X80.500 Y62.500
G1 X80.250 Y62.500
G1 X80.000 Y62.500
G1 X79.750 Y62.500
G1 X79.500 Y62.500
G1 X79.250 Y62.500
G1 X79.000 Y62.500
G1 X78.750 Y62.500
G1 X78.500 Y62.500
G1 X78.250 Y62.500
G1 X78.000 Y62.500
G1 X77.750 Y62.500
G1 X77.500 Y62.500
G1 X77.250 Y62.500
G1 X77.000 Y62.500
G1 X76.750 Y62.500
G1 X76.500 Y62.500
G1 X76.250 Y62.500
G1 X76.000 Y62.500
G1 X75.750 Y62.500
G1 X75.500 Y62.500
G1 X75.250 Y62.500
G1 X75.000 Y62.500
G1 X74.750 Y62.500
G1 X74.500 Y62.500
G1 X74.250 Y62.500
G1 X74.000 Y62.500
G1 X73.750 Y62.500
G1 X73.500 Y62.500
G1 X73.250 Y62.500
G1 X73.000 Y62.500
G1 X72.750 Y62.500
G1 X72.500 Y62.500
G1 X72.250 Y62.500
G1 X72.000 Y62.500
G1 X71.750 Y62.500
G1 X71.500 Y62.500
G1 X71.250 Y62.500
G1 X71.000 Y62.500
G1 X70.750 Y62.500
G1 X70.500 Y62.500
G1 X70.250 Y62.500
G1 X70.000 Y62.500
G1 X69.750 Y62.500
G1 X69.500 Y62.500
G0 Z2.000 F3000
M400
M204 P300 T300
G1 F250
G0 X73.250 Y70.750 Z2.000
M400
M204 P150 T150
G1 F120
G1 Z0.000 F2500
G1 X73.500 Y70.750
G1 X73.750 Y70.750
G1 X74.000 Y70.750
G1 X74.250 Y70.750
G1 X74.500 Y70.750
G1 X74.750 Y70.750
G1 X75.000 Y70.750
G1 X75.250 Y70.750
G1 X75.500 Y70.750
G1 X75.750 Y70.750
G1 X76.000 Y70.750
G1 X76.250 Y70.750
G1 X76.500 Y70.750
G1 X76.750 Y70.750
G1 X77.000 Y70.750
G1 X77.250 Y70.750
G1 X77.500 Y70.750
G1 X77.750 Y70.750
G1 X78.000 Y70.750
G1 X78.250 Y70.750
G1 X78.500 Y70.750
G1 X78.750 Y70.750
G1 X79.000 Y70.750
G1 X79.250 Y70.750
G1 X79.500 Y70.750
G1 X79.750 Y70.750
G1 X80.000 Y70.750
G1 X80.250 Y70.750
G1 X80.500 Y70.750
G0 Z2.000 F3000
M400
M204 P300 T300
G1 F250
G0 X75.250 Y73.750 Z2.000
M400
M204 P150 T150
G1 F120
G1 Z0.000 F2500
G1 X75.500 Y73.750
G1 X75.750 Y73.750
G1 X76.000 Y73.750
G1 X76.250 Y73.750
G1 X76.500 Y73.750
G1 X76.750 Y73.750
G1 X77.000 Y73.750
G1 X77.250 Y73.750
G1 X77.500 Y73.750
G1 X77.750 Y73.750
G1 X78.000 Y73.750
G1 X78.250 Y73.750
G1 X78.500 Y73.750
G1 X78.750 Y73.750
G1 X79.000 Y73.750
G1 X79.250 Y73.750
G1 X79.500 Y73.750
G1 X79.750 Y73.750
G1 X80.000 Y73.750
G1 X80.250 Y73.750
G1 X80.500 Y73.750
G1 X80.750 Y73.750
G1 X81.000 Y73.750
G1 X81.250 Y73.750
G1 X81.500 Y73.750
G1 X81.750 Y73.750
G1 X82.000 Y73.750
G1 X82.250 Y73.750
G1 X82.500 Y73.750
G1 X82.750 Y73.750
G1 X83.000 Y73.750
G1 X83.250 Y73.750
G1 X83.500 Y73.750
G1 X83.750 Y73.750
G1 X84.000 Y73.750
G1 X84.250 Y73.750
G1 X84.500 Y73.750
G1 X84.750 Y73.750
G1 X85.000 Y73.750
G1 X85.250 Y73.750
G1 X85.500 Y73.750
G1 X85.750 Y73.750
G1 X86.000 Y73.750
G1 X86.250 Y73.750
G1 X86.500 Y73.750
G1 X86.750 Y73.750
G1 X87.000 Y73.750
G1 X87.250 Y73.750
G1 X87.500 Y73.750
G1 X87.750 Y73.750
G1 X88.000 Y73.750
G1 X88.250 Y73.750
G1 X88.500 Y73.750
G1 X88.750 Y73.750
G0 Z2.000 F3000
M400
M204 P300 T300
G1 F250
G0 X90.500 Y79.000 Z2.000
M400
M204 P150 T150
G1 F120
G1 Z0.000 F2500
G1 X90.250 Y79.000
G1 X90.000 Y79.000
G1 X89.750 Y79.000
G1 X89.500 Y79.000
G1 X89.250 Y79.000
G1 X89.000 Y79.000
G1 X88.750 Y79.000
G1 X88.500 Y79.000
G1 X88.250 Y79.000
G1 X88.000 Y79.000
G1 X87.750 Y79.000
G1 X87.500 Y79.000
G1 X87.250 Y79.000
G1 X87.000 Y79.000
G1 X86.750 Y79.000
G1 X86.500 Y79.000
G1 X86.250 Y79.000
G1 X86.000 Y79.000
G1 X85.750 Y79.000
G1 X85.500 Y79.000
G1 X85.250 Y79.000
G1 X85.000 Y79.000
G1 X84.750 Y79.000
G1 X84.500 Y79.000
G1 X84.250 Y79.000
G1 X84.000 Y79.000
G1 X83.750 Y79.000
G1 X83.500 Y79.000
G1 X83.250 Y79.000
G1 X83.000 Y79.000
G1 X82.750 Y79.000
G1 X82.500 Y79.000
G1 X82.250 Y79.000
G1 X82.000 Y79.000
G1 X81.750 Y79.000
G1 X81.500 Y79.000
G1 X81.250 Y79.000
G1 X81.000 Y79.000
G1 X80.750 Y79.000
G1 X80.500 Y79.000
G1 X80.250 Y79.000
G1 X80.000 Y79.000
G1 X79.750 Y79.000
G1 X79.500 Y79.000
G1 X79.250 Y79.000
G1 X79.000 Y79.000
G1 X78.750 Y79.000
G1 X78.500 Y79.000
G1 X78.250 Y79.000
G1 X78.000 Y79.000
G0 Z2.000 F3000
M400
M204 P300 T300
G1 F250
G0 X78.500 Y80.500 Z2.000
M400
M204 P150 T150
G1 F120
G1 Z0.000 F2500
G1 X78.750 Y80.500
G1 X79.000 Y80.500
G1 X79.250 Y80.500
G1 X79.500 Y80.500
G1 X79.750 Y80.500
G1 X80.000 Y80.500
G1 X80.250 Y80.500
G1 X80.500 Y80.500
G1 X80.750 Y80.500
G1 X81.000 Y80.500
G1 X81.250 Y80.500
G1 X81.500 Y80.500
G1 X81.750 Y80.500
G1 X82.000 Y80.500
G1 X82.250 Y80.500
G1 X82.500 Y80.500
G1 X82.750 Y80.500
G1 X83.000 Y80.500
G1 X83.250 Y80.500
G1 X83.500 Y80.500
G1 X83.750 Y80.500
G1 X84.000 Y80.500
G1 X84.250 Y80.500
G1 X84.500 Y80.500
G1 X84.750 Y80.500
G1 X85.000 Y80.500
G1 X85.250 Y80.500
G1 X85.500 Y80.500
G1 X85.750 Y80.500
G1 X86.000 Y80.500
G1 X86.250 Y80.500
G1 X86.500 Y80.500
G1 X86.750 Y80.500
G1 X87.000 Y80.500
G1 X87.250 Y80.500
G1 X87.500 Y80.500
G1 X87.750 Y80.500
G1 X88.000 Y80.500
G1 X88.250 Y80.500
G1 X88.500 Y80.500
G1 X88.750 Y80.500
G1 X89.000 Y80.500
G1 X89.250 Y80.500
G1 X89.500 Y80.500
G1 X89.750 Y80.500
G1 X90.000 Y80.500
G1 X90.250 Y80.500
G1 X90.500 Y80.500
G1 X90.750 Y80.500
G1 X91.000 Y80.500
G0 Z2.000 F3000
M400
M204 P300 T300
G1 F250
G0 X86.750 Y83.500 Z2.000
M400
M204 P150 T150
G1 F120
G1 Z0.000 F2500
G1 X86.500 Y83.500
G1 X86.250 Y83.500
G1 X86.000 Y83.500
G1 X85.750 Y83.500
G1 X85.500 Y83.500
G1 X85.250 Y83.500
G1 X85.000 Y83.500
G1 X84.750 Y83.500
G1 X84.500 Y83.500
G1 X84.250 Y83.500
G1 X84.000 Y83.500
G1 X83.750 Y83.500
G1 X83.500 Y83.500
G1 X83.250 Y83.500
G1 X83.000 Y83.500
G1 X82.750 Y83.500
G1 X82.500 Y83.500
G1 X82.250 Y83.500
G1 X82.000 Y83.500
G1 X81.750 Y83.500
G1 X81.500 Y83.500
G1 X81.250 Y83.500
G1 X81.000 Y83.500
G1 X80.750 Y83.500
G1 X80.500 Y83.500
G1 X80.250 Y83.500
G1 X80.000 Y83.500
G1 X79.750 Y83.500
G1 X79.500 Y83.500
G1 X79.250 Y83.500
G0 Z2.000 F3000
M400
M204 P300 T300
G1 F250
G0 X79.500 Y85.000 Z2.000
M400
M204 P150 T150
G1 F120
G1 Z0.000 F2500
G1 X79.750 Y85.000
G1 X80.000 Y85.000
G1 X80.250 Y85.000
G1 X80.500 Y85.000
G1 X80.750 Y85.000
G1 X81.000 Y85.000
G1 X81.250 Y85.000
G1 X81.500 Y85.000
G1 X81.750 Y85.000
G1 X82.000 Y85.000
G1 X82.250 Y85.000
G1 X82.500 Y85.000
G1 X82.750 Y85.000
G1 X83.000 Y85.000
G1 X83.250 Y85.000
G1 X83.500 Y85.000
G1 X83.750 Y85.000
G1 X84.000 Y85.000
G1 X84.250 Y85.000
G1 X84.500 Y85.000
G1 X84.750 Y85.000
G1 X85.000 Y85.000
G1 X85.250 Y85.000
G1 X85.500 Y85.000
G0 Z2.000 F3000
M400
M204 P300 T300
G1 F250
G0 X85.500 Y85.750 Z2.000
M400
M204 P150 T150
G1 F120
G1 Z0.000 F2500
G1 X85.250 Y85.750
G1 X85.000 Y85.750
G1 X84.750 Y85.750
G1 X84.500 Y85.750
G1 X84.250 Y85.750
G1 X84.000 Y85.750
G1 X83.750 Y85.750
G1 X83.500 Y85.750
G1 X83.250 Y85.750
G1 X83.000 Y85.750
G1 X82.750 Y85.750
G1 X82.500 Y85.750
G1 X82.250 Y85.750
G1 X82.000 Y85.750
G1 X81.750 Y85.750
G1 X81.500 Y85.750
G1 X81.250 Y85.750
G1 X81.000 Y85.750
G1 X80.750 Y85.750
G1 X80.500 Y85.750
G1 X80.250 Y85.750
G1 X80.000 Y85.750
G1 X79.750 Y85.750
G1 X79.500 Y85.750
G0 Z2.000 F3000
M400
M204 P300 T300
G1 F250
G0 X79.500 Y86.500 Z2.000
M400
M204 P150 T150
G1 F120
G1 Z0.000 F2500
G1 X79.750 Y86.500
G1 X80.000 Y86.500
G1 X80.250 Y86.500
G1 X80.500 Y86.500
G1 X80.750 Y86.500
G1 X81.000 Y86.500
G1 X81.250 Y86.500
G1 X81.500 Y86.500
G1 X81.750 Y86.500
G1 X82.000 Y86.500
G1 X82.250 Y86.500
G1 X82.500 Y86.500
G1 X82.750 Y86.500
G1 X83.000 Y86.500
G1 X83.250 Y86.500
G1 X83.500 Y86.500
G1 X83.750 Y86.500
G1 X84.000 Y86.500
G1 X84.250 Y86.500
G1 X84.500 Y86.500
G1 X84.750 Y86.500
G1 X85.000 Y86.500
G1 X85.250 Y86.500
G1 X85.500 Y86.500
G1 X85.750 Y86.500
G0 Z2.000 F3000
M400
M204 P300 T300
G1 F250
G0 X85.750 Y88.000 Z2.000
M400
M204 P150 T150
G1 F120
G1 Z0.000 F2500
G1 X85.500 Y88.000
G1 X85.250 Y88.000
G1 X85.000 Y88.000
G1 X84.750 Y88.000
G1 X84.500 Y88.000
G1 X84.250 Y88.000
G1 X84.000 Y88.000
G1 X83.750 Y88.000
G1 X83.500 Y88.000
G1 X83.250 Y88.000
G1 X83.000 Y88.000
G1 X82.750 Y88.000
G1 X82.500 Y88.000
G1 X82.250 Y88.000
G1 X82.000 Y88.000
G1 X81.750 Y88.000
G1 X81.500 Y88.000
G1 X81.250 Y88.000
G1 X81.000 Y88.000
G1 X80.750 Y88.000
G1 X80.500 Y88.000
G1 X80.250 Y88.000
G1 X80.000 Y88.000
G1 X79.750 Y88.000
G0 Z2.000 F3000
M400
M204 P300 T300
G1 F250
G0 X79.750 Y88.750 Z2.000
M400
M204 P150 T150
G1 F120
G1 Z0.000 F2500
G1 X80.000 Y88.750
G1 X80.250 Y88.750
G1 X80.500 Y88.750
G1 X80.750 Y88.750
G1 X81.000 Y88.750
G1 X81.250 Y88.750
G1 X81.500 Y88.750
G1 X81.750 Y88.750
G1 X82.000 Y88.750
G1 X82.250 Y88.750
G1 X82.500 Y88.750
G1 X82.750 Y88.750
G1 X83.000 Y88.750
G0 Z2.000 F3000

; --- CIKEL NAMAKANJA ---
G0 Z2.000 F3000
M400
M204 P300 T300
G1 F250
G0 X84.686 Y0.000 Z7.000
G1 Z1.000 F3000
G1 X84.686 Y0.000 F2500
G1 X84.686 Y2.500 F2500
G1 X79.686 Y0.000 F2500
G1 X84.686 Y0.000 F2500
G0 Z19.000 F3000
G0 X88.559 Y18.945
G0 Z7.000 F3000
G0 X83.250 Y88.750 Z2.000
M400
M204 P150 T150
G1 F120
G1 Z0.000 F2500
G1 X83.250 Y88.750
G1 X83.500 Y88.750
G1 X83.750 Y88.750
G1 X84.000 Y88.750
G1 X84.250 Y88.750
G1 X84.500 Y88.750
G1 X84.750 Y88.750
G1 X85.000 Y88.750
G1 X85.250 Y88.750
G1 X85.500 Y88.750
G1 X85.750 Y88.750
G0 Z2.000 F3000
M400
M204 P300 T300
G1 F250
G0 X86.000 Y89.500 Z2.000
M400
M204 P150 T150
G1 F120
G1 Z0.000 F2500
G1 X85.750 Y89.500
G1 X85.500 Y89.500
G1 X85.250 Y89.500
G1 X85.000 Y89.500
G1 X84.750 Y89.500
G1 X84.500 Y89.500
G1 X84.250 Y89.500
G1 X84.000 Y89.500
G1 X83.750 Y89.500
G1 X83.500 Y89.500
G1 X83.250 Y89.500
G1 X83.000 Y89.500
G1 X82.750 Y89.500
G1 X82.500 Y89.500
G1 X82.250 Y89.500
G1 X82.000 Y89.500
G1 X81.750 Y89.500
G1 X81.500 Y89.500
G1 X81.250 Y89.500
G1 X81.000 Y89.500
G1 X80.750 Y89.500
G1 X80.500 Y89.500
G1 X80.250 Y89.500
G1 X80.000 Y89.500
G1 X79.750 Y89.500
G0 Z2.000 F3000
M400
M204 P300 T300
G1 F250
G0 X79.750 Y90.250 Z2.000
M400
M204 P150 T150
G1 F120
G1 Z0.000 F2500
G1 X80.000 Y90.250
G1 X80.250 Y90.250
G1 X80.500 Y90.250
G1 X80.750 Y90.250
G1 X81.000 Y90.250
G1 X81.250 Y90.250
G1 X81.500 Y90.250
G1 X81.750 Y90.250
G1 X82.000 Y90.250
G1 X82.250 Y90.250
G1 X82.500 Y90.250
G1 X82.750 Y90.250
G1 X83.000 Y90.250
G1 X83.250 Y90.250
G1 X83.500 Y90.250
G1 X83.750 Y90.250
G1 X84.000 Y90.250
G1 X84.250 Y90.250
G1 X84.500 Y90.250
G1 X84.750 Y90.250
G1 X85.000 Y90.250
G1 X85.250 Y90.250
G1 X85.500 Y90.250
G1 X85.750 Y90.250
G1 X86.000 Y90.250
G1 X86.250 Y90.250
G1 X86.500 Y90.250
G1 X86.750 Y90.250
G1 X87.000 Y90.250
G1 X87.250 Y90.250
G1 X87.500 Y90.250
G1 X87.750 Y90.250
G0 Z2.000 F3000
M400
M204 P300 T300
G1 F250
G0 X90.000 Y91.000 Z2.000
M400
M204 P150 T150
G1 F120
G1 Z0.000 F2500
G1 X89.750 Y91.000
G1 X89.500 Y91.000
G1 X89.250 Y91.000
G1 X89.000 Y91.000
G1 X88.750 Y91.000
G1 X88.500 Y91.000
G1 X88.250 Y91.000
G1 X88.000 Y91.000
G1 X87.750 Y91.000
G1 X87.500 Y91.000
G1 X87.250 Y91.000
G1 X87.000 Y91.000
G1 X86.750 Y91.000
G1 X86.500 Y91.000
G1 X86.250 Y91.000
G1 X86.000 Y91.000
G1 X85.750 Y91.000
G1 X85.500 Y91.000
G1 X85.250 Y91.000
G1 X85.000 Y91.000
G1 X84.750 Y91.000
G1 X84.500 Y91.000
G1 X84.250 Y91.000
G1 X84.000 Y91.000
G1 X83.750 Y91.000
G1 X83.500 Y91.000
G1 X83.250 Y91.000
G1 X83.000 Y91.000
G1 X82.750 Y91.000
G1 X82.500 Y91.000
G1 X82.250 Y91.000
G1 X82.000 Y91.000
G1 X81.750 Y91.000
G1 X81.500 Y91.000
G1 X81.250 Y91.000
G1 X81.000 Y91.000
G1 X80.750 Y91.000
G1 X80.500 Y91.000
G1 X80.250 Y91.000
G1 X80.000 Y91.000
G1 X79.750 Y91.000
G1 X79.500 Y91.000
G0 Z2.000 F3000
M400
M204 P300 T300
G1 F250
G0 X79.500 Y91.750 Z2.000
M400
M204 P150 T150
G1 F120
G1 Z0.000 F2500
G1 X79.750 Y91.750
G1 X80.000 Y91.750
G1 X80.250 Y91.750
G1 X80.500 Y91.750
G1 X80.750 Y91.750
G1 X81.000 Y91.750
G1 X81.250 Y91.750
G1 X81.500 Y91.750
G1 X81.750 Y91.750
G1 X82.000 Y91.750
G1 X82.250 Y91.750
G1 X82.500 Y91.750
G1 X82.750 Y91.750
G1 X83.000 Y91.750
G1 X83.250 Y91.750
G1 X83.500 Y91.750
G1 X83.750 Y91.750
G1 X84.000 Y91.750
G1 X84.250 Y91.750
G1 X84.500 Y91.750
G1 X84.750 Y91.750
G1 X85.000 Y91.750
G1 X85.250 Y91.750
G1 X85.500 Y91.750
G1 X85.750 Y91.750
G1 X86.000 Y91.750
G1 X86.250 Y91.750
G1 X86.500 Y91.750
G1 X86.750 Y91.750
G1 X87.000 Y91.750
G1 X87.250 Y91.750
G1 X87.500 Y91.750
G1 X87.750 Y91.750
G1 X88.000 Y91.750
G1 X88.250 Y91.750
G1 X88.500 Y91.750
G1 X88.750 Y91.750
G1 X89.000 Y91.750
G1 X89.250 Y91.750
G1 X89.500 Y91.750
G1 X89.750 Y91.750
G1 X90.000 Y91.750
G1 X90.250 Y91.750
G1 X90.500 Y91.750
G1 X90.750 Y91.750
G1 X91.000 Y91.750
G1 X91.250 Y91.750
G1 X91.500 Y91.750
G1 X91.750 Y91.750
G0 Z2.000 F3000
M400
M204 P300 T300
G1 F250
G0 X92.000 Y92.500 Z2.000
M400
M204 P150 T150
G1 F120
G1 Z0.000 F2500
G1 X91.750 Y92.500
G1 X91.500 Y92.500
G1 X91.250 Y92.500
G1 X91.000 Y92.500
G1 X90.750 Y92.500
G1 X90.500 Y92.500
G1 X90.250 Y92.500
G1 X90.000 Y92.500
G1 X89.750 Y92.500
G1 X89.500 Y92.500
G1 X89.250 Y92.500
G1 X89.000 Y92.500
G1 X88.750 Y92.500
G1 X88.500 Y92.500
G1 X88.250 Y92.500
G1 X88.000 Y92.500
G1 X87.750 Y92.500
G1 X87.500 Y92.500
G1 X87.250 Y92.500
G1 X87.000 Y92.500
G1 X86.750 Y92.500
G1 X86.500 Y92.500
G1 X86.250 Y92.500
G1 X86.000 Y92.500
G1 X85.750 Y92.500
G1 X85.500 Y92.500
G1 X85.250 Y92.500
G1 X85.000 Y92.500
G1 X84.750 Y92.500
G1 X84.500 Y92.500
G1 X84.250 Y92.500
G1 X84.000 Y92.500
G1 X83.750 Y92.500
G1 X83.500 Y92.500
G1 X83.250 Y92.500
G1 X83.000 Y92.500
G1 X82.750 Y92.500
G1 X82.500 Y92.500
G1 X82.250 Y92.500
G1 X82.000 Y92.500
G1 X81.750 Y92.500
G1 X81.500 Y92.500
G1 X81.250 Y92.500
G1 X81.000 Y92.500
G1 X80.750 Y92.500
G1 X80.500 Y92.500
G1 X80.250 Y92.500
G1 X80.000 Y92.500
G1 X79.750 Y92.500
G1 X79.500 Y92.500
G0 Z2.000 F3000
M400
M204 P300 T300
G1 F250
G0 X79.500 Y93.250 Z2.000
M400
M204 P150 T150
G1 F120
G1 Z0.000 F2500
G1 X79.750 Y93.250
G1 X80.000 Y93.250
G1 X80.250 Y93.250
G1 X80.500 Y93.250
G1 X80.750 Y93.250
G1 X81.000 Y93.250
G1 X81.250 Y93.250
G1 X81.500 Y93.250
G1 X81.750 Y93.250
G1 X82.000 Y93.250
G1 X82.250 Y93.250
G1 X82.500 Y93.250
G1 X82.750 Y93.250
G1 X83.000 Y93.250
G1 X83.250 Y93.250
G1 X83.500 Y93.250
G1 X83.750 Y93.250
G1 X84.000 Y93.250
G1 X84.250 Y93.250
G1 X84.500 Y93.250
G1 X84.750 Y93.250
G1 X85.000 Y93.250
G1 X85.250 Y93.250
G1 X85.500 Y93.250
G1 X85.750 Y93.250
G1 X86.000 Y93.250
G1 X86.250 Y93.250
G1 X86.500 Y93.250
G1 X86.750 Y93.250
G1 X87.000 Y93.250
G1 X87.250 Y93.250
G1 X87.500 Y93.250
G1 X87.750 Y93.250
G1 X88.000 Y93.250
G1 X88.250 Y93.250
G1 X88.500 Y93.250
G1 X88.750 Y93.250
G1 X89.000 Y93.250
G1 X89.250 Y93.250
G1 X89.500 Y93.250
G1 X89.750 Y93.250
G1 X90.000 Y93.250
G1 X90.250 Y93.250
G1 X90.500 Y93.250
G1 X90.750 Y93.250
G1 X91.000 Y93.250
G1 X91.250 Y93.250
G1 X91.500 Y93.250
G1 X91.750 Y93.250
G0 Z2.000 F3000
M400
M204 P300 T300
G1 F250
G0 X91.750 Y94.000 Z2.000
M400
M204 P150 T150
G1 F120
G1 Z0.000 F2500
G1 X91.500 Y94.000
G1 X91.250 Y94.000
G1 X91.000 Y94.000
G1 X90.750 Y94.000
G1 X90.500 Y94.000
G1 X90.250 Y94.000
G1 X90.000 Y94.000
G1 X89.750 Y94.000
G1 X89.500 Y94.000
G1 X89.250 Y94.000
G1 X89.000 Y94.000
G1 X88.750 Y94.000
G1 X88.500 Y94.000
G1 X88.250 Y94.000
G1 X88.000 Y94.000
G1 X87.750 Y94.000
G1 X87.500 Y94.000
G1 X87.250 Y94.000
G1 X87.000 Y94.000
G1 X86.750 Y94.000
G1 X86.500 Y94.000
G1 X86.250 Y94.000
G1 X86.000 Y94.000
G1 X85.750 Y94.000
G1 X85.500 Y94.000
G1 X85.250 Y94.000
G1 X85.000 Y94.000
G1 X84.750 Y94.000
G1 X84.500 Y94.000
G1 X84.250 Y94.000
G1 X84.000 Y94.000
G1 X83.750 Y94.000
G1 X83.500 Y94.000
G1 X83.250 Y94.000
G1 X83.000 Y94.000
G1 X82.750 Y94.000
G1 X82.500 Y94.000
G1 X82.250 Y94.000
G1 X82.000 Y94.000
G1 X81.750 Y94.000
G1 X81.500 Y94.000
G1 X81.250 Y94.000
G1 X81.000 Y94.000
G1 X80.750 Y94.000
G1 X80.500 Y94.000
G1 X80.250 Y94.000
G1 X80.000 Y94.000
G1 X79.750 Y94.000
G1 X79.500 Y94.000
G1 X79.250 Y94.000
G0 Z2.000 F3000
M400
M204 P300 T300
G1 F250
G0 X79.250 Y94.750 Z2.000
M400
M204 P150 T150
G1 F120
G1 Z0.000 F2500
G1 X79.500 Y94.750
G1 X79.750 Y94.750
G1 X80.000 Y94.750
G1 X80.250 Y94.750
G1 X80.500 Y94.750
G1 X80.750 Y94.750
G1 X81.000 Y94.750
G1 X81.250 Y94.750
G1 X81.500 Y94.750
G1 X81.750 Y94.750
G1 X82.000 Y94.750
G1 X82.250 Y94.750
G1 X82.500 Y94.750
G1 X82.750 Y94.750
G1 X83.000 Y94.750
G1 X83.250 Y94.750
G1 X83.500 Y94.750
G1 X83.750 Y94.750
G1 X84.000 Y94.750
G1 X84.250 Y94.750
G1 X84.500 Y94.750
G1 X84.750 Y94.750
G1 X85.000 Y94.750
G1 X85.250 Y94.750
G1 X85.500 Y94.750
G1 X85.750 Y94.750
G1 X86.000 Y94.750
G1 X86.250 Y94.750
G1 X86.500 Y94.750
G1 X86.750 Y94.750
G1 X87.000 Y94.750
G1 X87.250 Y94.750
G1 X87.500 Y94.750
G1 X87.750 Y94.750
G1 X88.000 Y94.750
G1 X88.250 Y94.750
G1 X88.500 Y94.750
G1 X88.750 Y94.750
G0 Z2.000 F3000

; --- CIKEL NAMAKANJA ---
G0 Z2.000 F3000
M400
M204 P300 T300
G1 F250
G0 X112.442 Y0.000 Z7.000
G1 Z1.000 F3000
G1 X112.442 Y0.000 F2500
G1 X112.442 Y2.500 F2500
G1 X107.442 Y0.000 F2500
G1 X112.442 Y0.000 F2500
G0 Z19.000 F3000
G0 X89.799 Y18.999
G0 Z7.000 F3000
G0 X89.000 Y94.750 Z2.000
M400
M204 P150 T150
G1 F120
G1 Z0.000 F2500
G1 X89.000 Y94.750
G1 X89.250 Y94.750
G1 X89.500 Y94.750
G1 X89.750 Y94.750
G1 X90.000 Y94.750
G1 X90.250 Y94.750
G1 X90.500 Y94.750
G1 X90.750 Y94.750
G1 X91.000 Y94.750
G1 X91.250 Y94.750
G1 X91.500 Y94.750
G0 Z2.000 F3000
M400
M204 P300 T300
G1 F250
G0 X91.500 Y95.500 Z2.000
M400
M204 P150 T150
G1 F120
G1 Z0.000 F2500
G1 X91.250 Y95.500
G1 X91.000 Y95.500
G1 X90.750 Y95.500
G1 X90.500 Y95.500
G1 X90.250 Y95.500
G1 X90.000 Y95.500
G1 X89.750 Y95.500
G1 X89.500 Y95.500
G1 X89.250 Y95.500
G1 X89.000 Y95.500
G1 X88.750 Y95.500
G1 X88.500 Y95.500
G1 X88.250 Y95.500
G1 X88.000 Y95.500
G1 X87.750 Y95.500
G1 X87.500 Y95.500
G1 X87.250 Y95.500
G1 X87.000 Y95.500
G1 X86.750 Y95.500
G1 X86.500 Y95.500
G1 X86.250 Y95.500
G1 X86.000 Y95.500
G1 X85.750 Y95.500
G1 X85.500 Y95.500
G1 X85.250 Y95.500
G1 X85.000 Y95.500
G1 X84.750 Y95.500
G1 X84.500 Y95.500
G1 X84.250 Y95.500
G1 X84.000 Y95.500
G1 X83.750 Y95.500
G1 X83.500 Y95.500
G1 X83.250 Y95.500
G1 X83.000 Y95.500
G1 X82.750 Y95.500
G1 X82.500 Y95.500
G1 X82.250 Y95.500
G1 X82.000 Y95.500
G1 X81.750 Y95.500
G1 X81.500 Y95.500
G1 X81.250 Y95.500
G1 X81.000 Y95.500
G1 X80.750 Y95.500
G1 X80.500 Y95.500
G1 X80.250 Y95.500
G1 X80.000 Y95.500
G1 X79.750 Y95.500
G1 X79.500 Y95.500
G1 X79.250 Y95.500
G1 X79.000 Y95.500
G0 Z2.000 F3000
M400
M204 P300 T300
G1 F250
G0 X78.750 Y96.250 Z2.000
M400
M204 P150 T150
G1 F120
G1 Z0.000 F2500
G1 X79.000 Y96.250
G1 X79.250 Y96.250
G1 X79.500 Y96.250
G1 X79.750 Y96.250
G1 X80.000 Y96.250
G1 X80.250 Y96.250
G1 X80.500 Y96.250
G1 X80.750 Y96.250
G1 X81.000 Y96.250
G1 X81.250 Y96.250
G1 X81.500 Y96.250
G1 X81.750 Y96.250
G1 X82.000 Y96.250
G1 X82.250 Y96.250
G1 X82.500 Y96.250
G1 X82.750 Y96.250
G1 X83.000 Y96.250
G1 X83.250 Y96.250
G1 X83.500 Y96.250
G1 X83.750 Y96.250
G1 X84.000 Y96.250
G1 X84.250 Y96.250
G1 X84.500 Y96.250
G1 X84.750 Y96.250
G1 X85.000 Y96.250
G1 X85.250 Y96.250
G1 X85.500 Y96.250
G1 X85.750 Y96.250
G1 X86.000 Y96.250
G1 X86.250 Y96.250
G1 X86.500 Y96.250
G1 X86.750 Y96.250
G1 X87.000 Y96.250
G1 X87.250 Y96.250
G1 X87.500 Y96.250
G1 X87.750 Y96.250
G1 X88.000 Y96.250
G1 X88.250 Y96.250
G1 X88.500 Y96.250
G1 X88.750 Y96.250
G1 X89.000 Y96.250
G1 X89.250 Y96.250
G1 X89.500 Y96.250
G1 X89.750 Y96.250
G1 X90.000 Y96.250
G1 X90.250 Y96.250
G1 X90.500 Y96.250
G1 X90.750 Y96.250
G1 X91.000 Y96.250
G1 X91.250 Y96.250
G0 Z2.000 F3000
M400
M204 P300 T300
G1 F250
G0 X91.000 Y97.000 Z2.000
M400
M204 P150 T150
G1 F120
G1 Z0.000 F2500
G1 X90.750 Y97.000
G1 X90.500 Y97.000
G1 X90.250 Y97.000
G1 X90.000 Y97.000
G1 X89.750 Y97.000
G1 X89.500 Y97.000
G1 X89.250 Y97.000
G1 X89.000 Y97.000
G1 X88.750 Y97.000
G1 X88.500 Y97.000
G1 X88.250 Y97.000
G1 X88.000 Y97.000
G1 X87.750 Y97.000
G1 X87.500 Y97.000
G1 X87.250 Y97.000
G1 X87.000 Y97.000
G1 X86.750 Y97.000
G1 X86.500 Y97.000
G1 X86.250 Y97.000
G1 X86.000 Y97.000
G1 X85.750 Y97.000
G1 X85.500 Y97.000
G1 X85.250 Y97.000
G1 X85.000 Y97.000
G1 X84.750 Y97.000
G1 X84.500 Y97.000
G1 X84.250 Y97.000
G1 X84.000 Y97.000
G1 X83.750 Y97.000
G1 X83.500 Y97.000
G1 X83.250 Y97.000
G1 X83.000 Y97.000
G1 X82.750 Y97.000
G1 X82.500 Y97.000
G1 X82.250 Y97.000
G1 X82.000 Y97.000
G1 X81.750 Y97.000
G1 X81.500 Y97.000
G1 X81.250 Y97.000
G1 X81.000 Y97.000
G1 X80.750 Y97.000
G1 X80.500 Y97.000
G1 X80.250 Y97.000
G1 X80.000 Y97.000
G1 X79.750 Y97.000
G1 X79.500 Y97.000
G1 X79.250 Y97.000
G1 X79.000 Y97.000
G1 X78.750 Y97.000
G0 Z2.000 F3000
M400
M204 P300 T300
G1 F250
G0 X78.500 Y97.750 Z2.000
M400
M204 P150 T150
G1 F120
G1 Z0.000 F2500
G1 X78.750 Y97.750
G1 X79.000 Y97.750
G1 X79.250 Y97.750
G1 X79.500 Y97.750
G1 X79.750 Y97.750
G1 X80.000 Y97.750
G1 X80.250 Y97.750
G1 X80.500 Y97.750
G1 X80.750 Y97.750
G1 X81.000 Y97.750
G1 X81.250 Y97.750
G1 X81.500 Y97.750
G1 X81.750 Y97.750
G1 X82.000 Y97.750
G1 X82.250 Y97.750
G1 X82.500 Y97.750
G1 X82.750 Y97.750
G1 X83.000 Y97.750
G1 X83.250 Y97.750
G1 X83.500 Y97.750
G1 X83.750 Y97.750
G1 X84.000 Y97.750
G1 X84.250 Y97.750
G1 X84.500 Y97.750
G1 X84.750 Y97.750
G1 X85.000 Y97.750
G1 X85.250 Y97.750
G1 X85.500 Y97.750
G1 X85.750 Y97.750
G1 X86.000 Y97.750
G1 X86.250 Y97.750
G1 X86.500 Y97.750
G1 X86.750 Y97.750
G1 X87.000 Y97.750
G1 X87.250 Y97.750
G1 X87.500 Y97.750
G1 X87.750 Y97.750
G1 X88.000 Y97.750
G1 X88.250 Y97.750
G1 X88.500 Y97.750
G1 X88.750 Y97.750
G1 X89.000 Y97.750
G1 X89.250 Y97.750
G1 X89.500 Y97.750
G1 X89.750 Y97.750
G1 X90.000 Y97.750
G1 X90.250 Y97.750
G1 X90.500 Y97.750
G1 X90.750 Y97.750
G1 X91.000 Y97.750
G0 Z2.000 F3000
M400
M204 P300 T300
G1 F250
G0 X90.750 Y98.500 Z2.000
M400
M204 P150 T150
G1 F120
G1 Z0.000 F2500
G1 X90.500 Y98.500
G1 X90.250 Y98.500
G1 X90.000 Y98.500
G1 X89.750 Y98.500
G1 X89.500 Y98.500
G1 X89.250 Y98.500
G1 X89.000 Y98.500
G1 X88.750 Y98.500
G1 X88.500 Y98.500
G1 X88.250 Y98.500
G1 X88.000 Y98.500
G1 X87.750 Y98.500
G1 X87.500 Y98.500
G1 X87.250 Y98.500
G1 X87.000 Y98.500
G1 X86.750 Y98.500
G1 X86.500 Y98.500
G1 X86.250 Y98.500
G1 X86.000 Y98.500
G1 X85.750 Y98.500
G1 X85.500 Y98.500
G1 X85.250 Y98.500
G1 X85.000 Y98.500
G1 X84.750 Y98.500
G1 X84.500 Y98.500
G1 X84.250 Y98.500
G1 X84.000 Y98.500
G1 X83.750 Y98.500
G1 X83.500 Y98.500
G1 X83.250 Y98.500
G1 X83.000 Y98.500
G1 X82.750 Y98.500
G1 X82.500 Y98.500
G1 X82.250 Y98.500
G1 X82.000 Y98.500
G1 X81.750 Y98.500
G1 X81.500 Y98.500
G1 X81.250 Y98.500
G1 X81.000 Y98.500
G1 X80.750 Y98.500
G1 X80.500 Y98.500
G1 X80.250 Y98.500
G1 X80.000 Y98.500
G1 X79.750 Y98.500
G1 X79.500 Y98.500
G1 X79.250 Y98.500
G1 X79.000 Y98.500
G1 X78.750 Y98.500
G1 X78.500 Y98.500
G1 X78.250 Y98.500
G0 Z2.000 F3000
M400
M204 P300 T300
G1 F250
G0 X78.000 Y99.250 Z2.000
M400
M204 P150 T150
G1 F120
G1 Z0.000 F2500
G1 X78.250 Y99.250
G1 X78.500 Y99.250
G1 X78.750 Y99.250
G1 X79.000 Y99.250
G1 X79.250 Y99.250
G1 X79.500 Y99.250
G1 X79.750 Y99.250
G1 X80.000 Y99.250
G1 X80.250 Y99.250
G1 X80.500 Y99.250
G1 X80.750 Y99.250
G1 X81.000 Y99.250
G1 X81.250 Y99.250
G1 X81.500 Y99.250
G1 X81.750 Y99.250
G1 X82.000 Y99.250
G1 X82.250 Y99.250
G1 X82.500 Y99.250
G1 X82.750 Y99.250
G1 X83.000 Y99.250
G1 X83.250 Y99.250
G1 X83.500 Y99.250
G1 X83.750 Y99.250
G1 X84.000 Y99.250
G1 X84.250 Y99.250
G1 X84.500 Y99.250
G1 X84.750 Y99.250
G1 X85.000 Y99.250
G1 X85.250 Y99.250
G1 X85.500 Y99.250
G1 X85.750 Y99.250
G1 X86.000 Y99.250
G1 X86.250 Y99.250
G1 X86.500 Y99.250
G1 X86.750 Y99.250
G1 X87.000 Y99.250
G1 X87.250 Y99.250
G1 X87.500 Y99.250
G1 X87.750 Y99.250
G1 X88.000 Y99.250
G1 X88.250 Y99.250
G1 X88.500 Y99.250
G1 X88.750 Y99.250
G1 X89.000 Y99.250
G1 X89.250 Y99.250
G1 X89.500 Y99.250
G1 X89.750 Y99.250
G1 X90.000 Y99.250
G1 X90.250 Y99.250
G1 X90.500 Y99.250
G1 X90.750 Y99.250
G0 Z2.000 F3000
M400
M204 P300 T300
G1 F250
G0 X90.250 Y100.000 Z2.000
M400
M204 P150 T150
G1 F120
G1 Z0.000 F2500
G1 X90.000 Y100.000
G1 X89.750 Y100.000
G1 X89.500 Y100.000
G1 X89.250 Y100.000
G1 X89.000 Y100.000
G1 X88.750 Y100.000
G1 X88.500 Y100.000
G1 X88.250 Y100.000
G1 X88.000 Y100.000
G1 X87.750 Y100.000
G1 X87.500 Y100.000
G1 X87.250 Y100.000
G1 X87.000 Y100.000
G1 X86.750 Y100.000
G1 X86.500 Y100.000
G1 X86.250 Y100.000
G1 X86.000 Y100.000
G1 X85.750 Y100.000
G1 X85.500 Y100.000
G1 X85.250 Y100.000
G1 X85.000 Y100.000
G0 Z2.000 F3000

; --- CIKEL NAMAKANJA ---
G0 Z2.000 F3000
M400
M204 P300 T300
G1 F250
G0 X113.857 Y0.000 Z7.000
G1 Z1.000 F3000
G1 X113.857 Y0.000 F2500
G1 X113.857 Y2.500 F2500
G1 X108.857 Y0.000 F2500
G1 X113.857 Y0.000 F2500
G0 Z19.000 F3000
G0 X89.004 Y18.974
G0 Z7.000 F3000
G0 X84.750 Y100.000 Z2.000
M400
M204 P150 T150
G1 F120
G1 Z0.000 F2500
G1 X84.750 Y100.000
G1 X84.500 Y100.000
G1 X84.250 Y100.000
G1 X84.000 Y100.000
G1 X83.750 Y100.000
G1 X83.500 Y100.000
G1 X83.250 Y100.000
G1 X83.000 Y100.000
G1 X82.750 Y100.000
G1 X82.500 Y100.000
G1 X82.250 Y100.000
G1 X82.000 Y100.000
G1 X81.750 Y100.000
G1 X81.500 Y100.000
G1 X81.250 Y100.000
G1 X81.000 Y100.000
G1 X80.750 Y100.000
G1 X80.500 Y100.000
G1 X80.250 Y100.000
G1 X80.000 Y100.000
G1 X79.750 Y100.000
G1 X79.500 Y100.000
G1 X79.250 Y100.000
G1 X79.000 Y100.000
G1 X78.750 Y100.000
G1 X78.500 Y100.000
G1 X78.250 Y100.000
G1 X78.000 Y100.000
G1 X77.750 Y100.000
G0 Z2.000 F3000
M400
M204 P300 T300
G1 F250
G0 X77.250 Y100.750 Z2.000
M400
M204 P150 T150
G1 F120
G1 Z0.000 F2500
G1 X77.500 Y100.750
G1 X77.750 Y100.750
G1 X78.000 Y100.750
G1 X78.250 Y100.750
G1 X78.500 Y100.750
G1 X78.750 Y100.750
G1 X79.000 Y100.750
G1 X79.250 Y100.750
G1 X79.500 Y100.750
G1 X79.750 Y100.750
G1 X80.000 Y100.750
G1 X80.250 Y100.750
G1 X80.500 Y100.750
G1 X80.750 Y100.750
G1 X81.000 Y100.750
G1 X81.250 Y100.750
G1 X81.500 Y100.750
G1 X81.750 Y100.750
G1 X82.000 Y100.750
G1 X82.250 Y100.750
G1 X82.500 Y100.750
G1 X82.750 Y100.750
G1 X83.000 Y100.750
G1 X83.250 Y100.750
G1 X83.500 Y100.750
G1 X83.750 Y100.750
G0 Z2.000 F3000
M400
M204 P300 T300
G1 F250
G0 X83.500 Y101.500 Z2.000
M400
M204 P150 T150
G1 F120
G1 Z0.000 F2500
G1 X83.250 Y101.500
G1 X83.000 Y101.500
G1 X82.750 Y101.500
G1 X82.500 Y101.500
G1 X82.250 Y101.500
G1 X82.000 Y101.500
G1 X81.750 Y101.500
G1 X81.500 Y101.500
G1 X81.250 Y101.500
G1 X81.000 Y101.500
G1 X80.750 Y101.500
G1 X80.500 Y101.500
G1 X80.250 Y101.500
G1 X80.000 Y101.500
G1 X79.750 Y101.500
G1 X79.500 Y101.500
G1 X79.250 Y101.500
G1 X79.000 Y101.500
G1 X78.750 Y101.500
G1 X78.500 Y101.500
G1 X78.250 Y101.500
G1 X78.000 Y101.500
G1 X77.750 Y101.500
G1 X77.500 Y101.500
G1 X77.250 Y101.500
G1 X77.000 Y101.500
G0 Z2.000 F3000
M400
M204 P300 T300
G1 F250
G0 X76.750 Y102.250 Z2.000
M400
M204 P150 T150
G1 F120
G1 Z0.000 F2500
G1 X77.000 Y102.250
G1 X77.250 Y102.250
G1 X77.500 Y102.250
G1 X77.750 Y102.250
G1 X78.000 Y102.250
G1 X78.250 Y102.250
G1 X78.500 Y102.250
G1 X78.750 Y102.250
G1 X79.000 Y102.250
G1 X79.250 Y102.250
G1 X79.500 Y102.250
G1 X79.750 Y102.250
G1 X80.000 Y102.250
G1 X80.250 Y102.250
G1 X80.500 Y102.250
G1 X80.750 Y102.250
G1 X81.000 Y102.250
G1 X81.250 Y102.250
G1 X81.500 Y102.250
G1 X81.750 Y102.250
G1 X82.000 Y102.250
G1 X82.250 Y102.250
G1 X82.500 Y102.250
G1 X82.750 Y102.250
G1 X83.000 Y102.250
G1 X83.250 Y102.250
G0 Z2.000 F3000
M400
M204 P300 T300
G1 F250
G0 X83.000 Y103.000 Z2.000
M400
M204 P150 T150
G1 F120
G1 Z0.000 F2500
G1 X82.750 Y103.000
G1 X82.500 Y103.000
G1 X82.250 Y103.000
G1 X82.000 Y103.000
G1 X81.750 Y103.000
G1 X81.500 Y103.000
G1 X81.250 Y103.000
G1 X81.000 Y103.000
G1 X80.750 Y103.000
G1 X80.500 Y103.000
G1 X80.250 Y103.000
G1 X80.000 Y103.000
G1 X79.750 Y103.000
G1 X79.500 Y103.000
G1 X79.250 Y103.000
G1 X79.000 Y103.000
G1 X78.750 Y103.000
G1 X78.500 Y103.000
G1 X78.250 Y103.000
G1 X78.000 Y103.000
G1 X77.750 Y103.000
G1 X77.500 Y103.000
G1 X77.250 Y103.000
G1 X77.000 Y103.000
G1 X76.750 Y103.000
G1 X76.500 Y103.000
G1 X76.250 Y103.000
G0 Z2.000 F3000
M400
M204 P300 T300
G1 F250
G0 X75.750 Y103.750 Z2.000
M400
M204 P150 T150
G1 F120
G1 Z0.000 F2500
G1 X76.000 Y103.750
G1 X76.250 Y103.750
G1 X76.500 Y103.750
G1 X76.750 Y103.750
G1 X77.000 Y103.750
G1 X77.250 Y103.750
G1 X77.500 Y103.750
G1 X77.750 Y103.750
G1 X78.000 Y103.750
G1 X78.250 Y103.750
G1 X78.500 Y103.750
G1 X78.750 Y103.750
G1 X79.000 Y103.750
G1 X79.250 Y103.750
G1 X79.500 Y103.750
G1 X79.750 Y103.750
G1 X80.000 Y103.750
G1 X80.250 Y103.750
G1 X80.500 Y103.750
G1 X80.750 Y103.750
G1 X81.000 Y103.750
G1 X81.250 Y103.750
G1 X81.500 Y103.750
G1 X81.750 Y103.750
G1 X82.000 Y103.750
G1 X82.250 Y103.750
G1 X82.500 Y103.750
G0 Z2.000 F3000
M400
M204 P300 T300
G1 F250
G0 X82.250 Y104.500 Z2.000
M400
M204 P150 T150
G1 F120
G1 Z0.000 F2500
G1 X82.000 Y104.500
G1 X81.750 Y104.500
G1 X81.500 Y104.500
G1 X81.250 Y104.500
G1 X81.000 Y104.500
G1 X80.750 Y104.500
G1 X80.500 Y104.500
G1 X80.250 Y104.500
G1 X80.000 Y104.500
G1 X79.750 Y104.500
G1 X79.500 Y104.500
G1 X79.250 Y104.500
G1 X79.000 Y104.500
G1 X78.750 Y104.500
G1 X78.500 Y104.500
G1 X78.250 Y104.500
G1 X78.000 Y104.500
G1 X77.750 Y104.500
G1 X77.500 Y104.500
G1 X77.250 Y104.500
G1 X77.000 Y104.500
G1 X76.750 Y104.500
G1 X76.500 Y104.500
G1 X76.250 Y104.500
G1 X76.000 Y104.500
G1 X75.750 Y104.500
G1 X75.500 Y104.500
G0 Z2.000 F3000
M400
M204 P300 T300
G1 F250
G0 X75.000 Y105.250 Z2.000
M400
M204 P150 T150
G1 F120
G1 Z0.000 F2500
G1 X75.250 Y105.250
G1 X75.500 Y105.250
G1 X75.750 Y105.250
G1 X76.000 Y105.250
G1 X76.250 Y105.250
G1 X76.500 Y105.250
G1 X76.750 Y105.250
G1 X77.000 Y105.250
G1 X77.250 Y105.250
G1 X77.500 Y105.250
G1 X77.750 Y105.250
G1 X78.000 Y105.250
G1 X78.250 Y105.250
G1 X78.500 Y105.250
G1 X78.750 Y105.250
G1 X79.000 Y105.250
G1 X79.250 Y105.250
G1 X79.500 Y105.250
G1 X79.750 Y105.250
G1 X80.000 Y105.250
G1 X80.250 Y105.250
G1 X80.500 Y105.250
G1 X80.750 Y105.250
G1 X81.000 Y105.250
G1 X81.250 Y105.250
G1 X81.500 Y105.250
G1 X81.750 Y105.250
G1 X82.000 Y105.250
G0 Z2.000 F3000
M400
M204 P300 T300
G1 F250
G0 X82.750 Y106.000 Z2.000
M400
M204 P150 T150
G1 F120
G1 Z0.000 F2500
G1 X82.500 Y106.000
G1 X82.250 Y106.000
G1 X82.000 Y106.000
G1 X81.750 Y106.000
G1 X81.500 Y106.000
G1 X81.250 Y106.000
G1 X81.000 Y106.000
G1 X80.750 Y106.000
G1 X80.500 Y106.000
G1 X80.250 Y106.000
G1 X80.000 Y106.000
G1 X79.750 Y106.000
G1 X79.500 Y106.000
G1 X79.250 Y106.000
G1 X79.000 Y106.000
G1 X78.750 Y106.000
G1 X78.500 Y106.000
G1 X78.250 Y106.000
G1 X78.000 Y106.000
G1 X77.750 Y106.000
G1 X77.500 Y106.000
G1 X77.250 Y106.000
G1 X77.000 Y106.000
G1 X76.750 Y106.000
G1 X76.500 Y106.000
G1 X76.250 Y106.000
G1 X76.000 Y106.000
G1 X75.750 Y106.000
G1 X75.500 Y106.000
G1 X75.250 Y106.000
G1 X75.000 Y106.000
G1 X74.750 Y106.000
G1 X74.500 Y106.000
G0 Z2.000 F3000
M400
M204 P300 T300
G1 F250
G0 X73.750 Y106.750 Z2.000
M400
M204 P150 T150
G1 F120
G1 Z0.000 F2500
G1 X74.000 Y106.750
G1 X74.250 Y106.750
G1 X74.500 Y106.750
G1 X74.750 Y106.750
G1 X75.000 Y106.750
G1 X75.250 Y106.750
G1 X75.500 Y106.750
G1 X75.750 Y106.750
G1 X76.000 Y106.750
G1 X76.250 Y106.750
G1 X76.500 Y106.750
G1 X76.750 Y106.750
G1 X77.000 Y106.750
G1 X77.250 Y106.750
G1 X77.500 Y106.750
G1 X77.750 Y106.750
G1 X78.000 Y106.750
G1 X78.250 Y106.750
G1 X78.500 Y106.750
G1 X78.750 Y106.750
G1 X79.000 Y106.750
G1 X79.250 Y106.750
G1 X79.500 Y106.750
G1 X79.750 Y106.750
G1 X80.000 Y106.750
G1 X80.250 Y106.750
G1 X80.500 Y106.750
G1 X80.750 Y106.750
G1 X81.000 Y106.750
G1 X81.250 Y106.750
G1 X81.500 Y106.750
G1 X81.750 Y106.750
G1 X82.000 Y106.750
G1 X82.250 Y106.750
G1 X82.500 Y106.750
G1 X82.750 Y106.750
G1 X83.000 Y106.750
G1 X83.250 Y106.750
G0 Z2.000 F3000
M400
M204 P300 T300
G1 F250
G0 X84.000 Y107.500 Z2.000
M400
M204 P150 T150
G1 F120
G1 Z0.000 F2500
G1 X83.750 Y107.500
G1 X83.500 Y107.500
G1 X83.250 Y107.500
G1 X83.000 Y107.500
G1 X82.750 Y107.500
G1 X82.500 Y107.500
G1 X82.250 Y107.500
G1 X82.000 Y107.500
G1 X81.750 Y107.500
G1 X81.500 Y107.500
G1 X81.250 Y107.500
G1 X81.000 Y107.500
G1 X80.750 Y107.500
G1 X80.500 Y107.500
G1 X80.250 Y107.500
G1 X80.000 Y107.500
G1 X79.750 Y107.500
G1 X79.500 Y107.500
G1 X79.250 Y107.500
G1 X79.000 Y107.500
G1 X78.750 Y107.500
G1 X78.500 Y107.500
G1 X78.250 Y107.500
G1 X78.000 Y107.500
G1 X77.750 Y107.500
G1 X77.500 Y107.500
G1 X77.250 Y107.500
G1 X77.000 Y107.500
G1 X76.750 Y107.500
G1 X76.500 Y107.500
G1 X76.250 Y107.500
G1 X76.000 Y107.500
G1 X75.750 Y107.500
G1 X75.500 Y107.500
G1 X75.250 Y107.500
G1 X75.000 Y107.500
G1 X74.750 Y107.500
G1 X74.500 Y107.500
G1 X74.250 Y107.500
G1 X74.000 Y107.500
G1 X73.750 Y107.500
G1 X73.500 Y107.500
G1 X73.250 Y107.500
G0 Z2.000 F3000
M400
M204 P300 T300
G1 F250
G0 X80.250 Y116.500 Z2.000
M400
M204 P150 T150
G1 F120
G1 Z0.000 F2500
G1 X80.500 Y116.500
G1 X80.750 Y116.500
G1 X81.000 Y116.500
G1 X81.250 Y116.500
G1 X81.500 Y116.500
G1 X81.750 Y116.500
G0 Z2.000 F3000
M400
M204 P300 T300
G1 F250
G0 X82.250 Y115.750 Z2.000
M400
M204 P150 T150
G1 F120
G1 Z0.000 F2500
G1 X82.000 Y115.750
G1 X81.750 Y115.750
G1 X81.500 Y115.750
G1 X81.250 Y115.750
G1 X81.000 Y115.750
G1 X80.750 Y115.750
G1 X80.500 Y115.750
G1 X80.250 Y115.750
G1 X80.000 Y115.750
G1 X79.750 Y115.750
G1 X79.500 Y115.750
G1 X79.250 Y115.750
G1 X79.000 Y115.750
G1 X78.750 Y115.750
G1 X78.500 Y115.750
G0 Z2.000 F3000
M400
M204 P300 T300
G1 F250
G0 X76.750 Y115.000 Z2.000
M400
M204 P150 T150
G1 F120
G1 Z0.000 F2500
G1 X77.000 Y115.000
G1 X77.250 Y115.000
G1 X77.500 Y115.000
G1 X77.750 Y115.000
G1 X78.000 Y115.000
G1 X78.250 Y115.000
G1 X78.500 Y115.000
G0 Z2.000 F3000

; --- CIKEL NAMAKANJA ---
G0 Z2.000 F3000
M400
M204 P300 T300
G1 F250
G0 X111.061 Y0.000 Z7.000
G1 Z1.000 F3000
G1 X111.061 Y0.000 F2500
G1 X111.061 Y2.500 F2500
G1 X106.061 Y0.000 F2500
G1 X111.061 Y0.000 F2500
G0 Z19.000 F3000
G0 X88.150 Y18.910
G0 Z7.000 F3000
G0 X78.750 Y115.000 Z2.000
M400
M204 P150 T150
G1 F120
G1 Z0.000 F2500
G1 X78.750 Y115.000
G1 X79.000 Y115.000
G1 X79.250 Y115.000
G1 X79.500 Y115.000
G1 X79.750 Y115.000
G1 X80.000 Y115.000
G1 X80.250 Y115.000
G1 X80.500 Y115.000
G1 X80.750 Y115.000
G1 X81.000 Y115.000
G1 X81.250 Y115.000
G1 X81.500 Y115.000
G1 X81.750 Y115.000
G1 X82.000 Y115.000
G1 X82.250 Y115.000
G1 X82.500 Y115.000
G1 X82.750 Y115.000
G0 Z2.000 F3000
M400
M204 P300 T300
G1 F250
G0 X74.000 Y115.750 Z2.000
M400
M204 P150 T150
G1 F120
G1 Z0.000 F2500
G1 X73.750 Y115.750
G1 X73.500 Y115.750
G0 Z2.000 F3000
M400
M204 P300 T300
G1 F250
G0 X73.000 Y115.000 Z2.000
M400
M204 P150 T150
G1 F120
G1 Z0.000 F2500
G1 X73.250 Y115.000
G1 X73.500 Y115.000
G1 X73.750 Y115.000
G1 X74.000 Y115.000
G1 X74.250 Y115.000
G1 X74.500 Y115.000
G1 X74.750 Y115.000
G0 Z2.000 F3000
M400
M204 P300 T300
G1 F250
G0 X72.750 Y114.250 Z2.000
M400
M204 P150 T150
G1 F120
G1 Z0.000 F2500
G1 X73.000 Y114.250
G1 X73.250 Y114.250
G1 X73.500 Y114.250
G1 X73.750 Y114.250
G1 X74.000 Y114.250
G1 X74.250 Y114.250
G1 X74.500 Y114.250
G1 X74.750 Y114.250
G1 X75.000 Y114.250
G1 X75.250 Y114.250
G1 X75.500 Y114.250
G1 X75.750 Y114.250
G1 X76.000 Y114.250
G1 X76.250 Y114.250
G1 X76.500 Y114.250
G1 X76.750 Y114.250
G1 X77.000 Y114.250
G1 X77.250 Y114.250
G1 X77.500 Y114.250
G1 X77.750 Y114.250
G1 X78.000 Y114.250
G1 X78.250 Y114.250
G1 X78.500 Y114.250
G1 X78.750 Y114.250
G1 X79.000 Y114.250
G1 X79.250 Y114.250
G1 X79.500 Y114.250
G1 X79.750 Y114.250
G1 X80.000 Y114.250
G1 X80.250 Y114.250
G1 X80.500 Y114.250
G1 X80.750 Y114.250
G1 X81.000 Y114.250
G1 X81.250 Y114.250
G1 X81.500 Y114.250
G1 X81.750 Y114.250
G1 X82.000 Y114.250
G1 X82.250 Y114.250
G1 X82.500 Y114.250
G1 X82.750 Y114.250
G1 X83.000 Y114.250
G1 X83.250 Y114.250
G1 X83.500 Y114.250
G0 Z2.000 F3000
M400
M204 P300 T300
G1 F250
G0 X84.000 Y113.500 Z2.000
M400
M204 P150 T150
G1 F120
G1 Z0.000 F2500
G1 X83.750 Y113.500
G1 X83.500 Y113.500
G1 X83.250 Y113.500
G1 X83.000 Y113.500
G1 X82.750 Y113.500
G1 X82.500 Y113.500
G1 X82.250 Y113.500
G1 X82.000 Y113.500
G1 X81.750 Y113.500
G1 X81.500 Y113.500
G1 X81.250 Y113.500
G1 X81.000 Y113.500
G1 X80.750 Y113.500
G1 X80.500 Y113.500
G1 X80.250 Y113.500
G1 X80.000 Y113.500
G1 X79.750 Y113.500
G1 X79.500 Y113.500
G1 X79.250 Y113.500
G1 X79.000 Y113.500
G1 X78.750 Y113.500
G1 X78.500 Y113.500
G1 X78.250 Y113.500
G1 X78.000 Y113.500
G1 X77.750 Y113.500
G1 X77.500 Y113.500
G1 X77.250 Y113.500
G1 X77.000 Y113.500
G1 X76.750 Y113.500
G1 X76.500 Y113.500
G1 X76.250 Y113.500
G1 X76.000 Y113.500
G1 X75.750 Y113.500
G1 X75.500 Y113.500
G1 X75.250 Y113.500
G1 X75.000 Y113.500
G1 X74.750 Y113.500
G1 X74.500 Y113.500
G1 X74.250 Y113.500
G1 X74.000 Y113.500
G1 X73.750 Y113.500
G1 X73.500 Y113.500
G1 X73.250 Y113.500
G1 X73.000 Y113.500
G1 X72.750 Y113.500
G1 X72.500 Y113.500
G0 Z2.000 F3000
M400
M204 P300 T300
G1 F250
G0 X72.000 Y112.750 Z2.000
M400
M204 P150 T150
G1 F120
G1 Z0.000 F2500
G1 X72.250 Y112.750
G1 X72.500 Y112.750
G1 X72.750 Y112.750
G1 X73.000 Y112.750
G1 X73.250 Y112.750
G1 X73.500 Y112.750
G1 X73.750 Y112.750
G1 X74.000 Y112.750
G1 X74.250 Y112.750
G1 X74.500 Y112.750
G1 X74.750 Y112.750
G1 X75.000 Y112.750
G1 X75.250 Y112.750
G1 X75.500 Y112.750
G1 X75.750 Y112.750
G1 X76.000 Y112.750
G1 X76.250 Y112.750
G1 X76.500 Y112.750
G1 X76.750 Y112.750
G1 X77.000 Y112.750
G1 X77.250 Y112.750
G1 X77.500 Y112.750
G1 X77.750 Y112.750
G1 X78.000 Y112.750
G1 X78.250 Y112.750
G1 X78.500 Y112.750
G1 X78.750 Y112.750
G1 X79.000 Y112.750
G1 X79.250 Y112.750
G1 X79.500 Y112.750
G1 X79.750 Y112.750
G1 X80.000 Y112.750
G1 X80.250 Y112.750
G1 X80.500 Y112.750
G1 X80.750 Y112.750
G1 X81.000 Y112.750
G1 X81.250 Y112.750
G1 X81.500 Y112.750
G1 X81.750 Y112.750
G1 X82.000 Y112.750
G1 X82.250 Y112.750
G1 X82.500 Y112.750
G1 X82.750 Y112.750
G1 X83.000 Y112.750
G1 X83.250 Y112.750
G1 X83.500 Y112.750
G1 X83.750 Y112.750
G1 X84.000 Y112.750
G1 X84.250 Y112.750
G1 X84.500 Y112.750
G0 Z2.000 F3000
M400
M204 P300 T300
G1 F250
G0 X84.750 Y108.250 Z2.000
M400
M204 P150 T150
G1 F120
G1 Z0.000 F2500
G1 X84.500 Y108.250
G1 X84.250 Y108.250
G1 X84.000 Y108.250
G1 X83.750 Y108.250
G1 X83.500 Y108.250
G1 X83.250 Y108.250
G1 X83.000 Y108.250
G1 X82.750 Y108.250
G1 X82.500 Y108.250
G1 X82.250 Y108.250
G1 X82.000 Y108.250
G1 X81.750 Y108.250
G1 X81.500 Y108.250
G1 X81.250 Y108.250
G1 X81.000 Y108.250
G1 X80.750 Y108.250
G1 X80.500 Y108.250
G1 X80.250 Y108.250
G1 X80.000 Y108.250
G1 X79.750 Y108.250
G1 X79.500 Y108.250
G1 X79.250 Y108.250
G1 X79.000 Y108.250
G1 X78.750 Y108.250
G1 X78.500 Y108.250
G1 X78.250 Y108.250
G1 X78.000 Y108.250
G1 X77.750 Y108.250
G1 X77.500 Y108.250
G1 X77.250 Y108.250
G1 X77.000 Y108.250
G1 X76.750 Y108.250
G1 X76.500 Y108.250
G1 X76.250 Y108.250
G1 X76.000 Y108.250
G1 X75.750 Y108.250
G1 X75.500 Y108.250
G1 X75.250 Y108.250
G1 X75.000 Y108.250
G1 X74.750 Y108.250
G1 X74.500 Y108.250
G1 X74.250 Y108.250
G1 X74.000 Y108.250
G1 X73.750 Y108.250
G1 X73.500 Y108.250
G1 X73.250 Y108.250
G1 X73.000 Y108.250
G1 X72.750 Y108.250
G0 Z2.000 F3000
M400
M204 P300 T300
G1 F250
G0 X72.000 Y109.000 Z2.000
M400
M204 P150 T150
G1 F120
G1 Z0.000 F2500
G1 X72.250 Y109.000
G1 X72.500 Y109.000
G1 X72.750 Y109.000
G1 X73.000 Y109.000
G1 X73.250 Y109.000
G1 X73.500 Y109.000
G1 X73.750 Y109.000
G1 X74.000 Y109.000
G1 X74.250 Y109.000
G1 X74.500 Y109.000
G1 X74.750 Y109.000
G1 X75.000 Y109.000
G1 X75.250 Y109.000
G1 X75.500 Y109.000
G1 X75.750 Y109.000
G1 X76.000 Y109.000
G1 X76.250 Y109.000
G1 X76.500 Y109.000
G1 X76.750 Y109.000
G1 X77.000 Y109.000
G1 X77.250 Y109.000
G1 X77.500 Y109.000
G1 X77.750 Y109.000
G1 X78.000 Y109.000
G1 X78.250 Y109.000
G1 X78.500 Y109.000
G1 X78.750 Y109.000
G1 X79.000 Y109.000
G1 X79.250 Y109.000
G1 X79.500 Y109.000
G1 X79.750 Y109.000
G1 X80.000 Y109.000
G1 X80.250 Y109.000
G1 X80.500 Y109.000
G1 X80.750 Y109.000
G1 X81.000 Y109.000
G1 X81.250 Y109.000
G1 X81.500 Y109.000
G1 X81.750 Y109.000
G1 X82.000 Y109.000
G1 X82.250 Y109.000
G1 X82.500 Y109.000
G1 X82.750 Y109.000
G1 X83.000 Y109.000
G1 X83.250 Y109.000
G1 X83.500 Y109.000
G1 X83.750 Y109.000
G1 X84.000 Y109.000
G1 X84.250 Y109.000
G1 X84.500 Y109.000
G1 X84.750 Y109.000
G1 X85.000 Y109.000
G1 X85.250 Y109.000
G1 X85.500 Y109.000
G0 Z2.000 F3000
M400
M204 P300 T300
G1 F250
G0 X86.000 Y109.750 Z2.000
M400
M204 P150 T150
G1 F120
G1 Z0.000 F2500
G1 X85.750 Y109.750
G1 X85.500 Y109.750
G1 X85.250 Y109.750
G1 X85.000 Y109.750
G1 X84.750 Y109.750
G1 X84.500 Y109.750
G1 X84.250 Y109.750
G1 X84.000 Y109.750
G1 X83.750 Y109.750
G1 X83.500 Y109.750
G1 X83.250 Y109.750
G1 X83.000 Y109.750
G1 X82.750 Y109.750
G1 X82.500 Y109.750
G1 X82.250 Y109.750
G1 X82.000 Y109.750
G1 X81.750 Y109.750
G1 X81.500 Y109.750
G1 X81.250 Y109.750
G1 X81.000 Y109.750
G1 X80.750 Y109.750
G1 X80.500 Y109.750
G1 X80.250 Y109.750
G1 X80.000 Y109.750
G1 X79.750 Y109.750
G1 X79.500 Y109.750
G1 X79.250 Y109.750
G1 X79.000 Y109.750
G1 X78.750 Y109.750
G1 X78.500 Y109.750
G1 X78.250 Y109.750
G1 X78.000 Y109.750
G1 X77.750 Y109.750
G1 X77.500 Y109.750
G1 X77.250 Y109.750
G1 X77.000 Y109.750
G1 X76.750 Y109.750
G1 X76.500 Y109.750
G1 X76.250 Y109.750
G1 X76.000 Y109.750
G1 X75.750 Y109.750
G1 X75.500 Y109.750
G1 X75.250 Y109.750
G1 X75.000 Y109.750
G1 X74.750 Y109.750
G1 X74.500 Y109.750
G1 X74.250 Y109.750
G1 X74.000 Y109.750
G1 X73.750 Y109.750
G1 X73.500 Y109.750
G1 X73.250 Y109.750
G1 X73.000 Y109.750
G1 X72.750 Y109.750
G1 X72.500 Y109.750
G1 X72.250 Y109.750
G1 X72.000 Y109.750
G1 X71.750 Y109.750
G1 X71.500 Y109.750
G0 Z2.000 F3000
M400
M204 P300 T300
G1 F250
G0 X71.750 Y112.000 Z2.000
M400
M204 P150 T150
G1 F120
G1 Z0.000 F2500
G1 X72.000 Y112.000
G1 X72.250 Y112.000
G1 X72.500 Y112.000
G1 X72.750 Y112.000
G1 X73.000 Y112.000
G1 X73.250 Y112.000
G1 X73.500 Y112.000
G1 X73.750 Y112.000
G1 X74.000 Y112.000
G1 X74.250 Y112.000
G1 X74.500 Y112.000
G1 X74.750 Y112.000
G1 X75.000 Y112.000
G1 X75.250 Y112.000
G1 X75.500 Y112.000
G1 X75.750 Y112.000
G1 X76.000 Y112.000
G1 X76.250 Y112.000
G1 X76.500 Y112.000
G1 X76.750 Y112.000
G1 X77.000 Y112.000
G1 X77.250 Y112.000
G1 X77.500 Y112.000
G1 X77.750 Y112.000
G1 X78.000 Y112.000
G1 X78.250 Y112.000
G1 X78.500 Y112.000
G1 X78.750 Y112.000
G1 X79.000 Y112.000
G1 X79.250 Y112.000
G1 X79.500 Y112.000
G1 X79.750 Y112.000
G1 X80.000 Y112.000
G1 X80.250 Y112.000
G1 X80.500 Y112.000
G1 X80.750 Y112.000
G1 X81.000 Y112.000
G1 X81.250 Y112.000
G1 X81.500 Y112.000
G1 X81.750 Y112.000
G1 X82.000 Y112.000
G1 X82.250 Y112.000
G1 X82.500 Y112.000
G1 X82.750 Y112.000
G1 X83.000 Y112.000
G1 X83.250 Y112.000
G1 X83.500 Y112.000
G1 X83.750 Y112.000
G0 Z2.000 F3000

; --- CIKEL NAMAKANJA ---
G0 Z2.000 F3000
M400
M204 P300 T300
G1 F250
G0 X113.842 Y12.623 Z7.000
G1 Z1.000 F3000
G1 X113.842 Y12.623 F2500
G1 X113.842 Y15.123 F2500
G1 X108.842 Y12.623 F2500
G1 X113.842 Y5.123 F2500
G0 Z19.000 F3000
G0 X88.984 Y18.973
G0 Z7.000 F3000
G0 X84.000 Y112.000 Z2.000
M400
M204 P150 T150
G1 F120
G1 Z0.000 F2500
G1 X84.000 Y112.000
G1 X84.250 Y112.000
G1 X84.500 Y112.000
G1 X84.750 Y112.000
G1 X85.000 Y112.000
G0 Z2.000 F3000
M400
M204 P300 T300
G1 F250
G0 X85.500 Y111.250 Z2.000
M400
M204 P150 T150
G1 F120
G1 Z0.000 F2500
G1 X85.250 Y111.250
G1 X85.000 Y111.250
G1 X84.750 Y111.250
G1 X84.500 Y111.250
G1 X84.250 Y111.250
G1 X84.000 Y111.250
G1 X83.750 Y111.250
G1 X83.500 Y111.250
G1 X83.250 Y111.250
G1 X83.000 Y111.250
G1 X82.750 Y111.250
G1 X82.500 Y111.250
G1 X82.250 Y111.250
G1 X82.000 Y111.250
G1 X81.750 Y111.250
G1 X81.500 Y111.250
G1 X81.250 Y111.250
G1 X81.000 Y111.250
G1 X80.750 Y111.250
G1 X80.500 Y111.250
G1 X80.250 Y111.250
G1 X80.000 Y111.250
G1 X79.750 Y111.250
G1 X79.500 Y111.250
G1 X79.250 Y111.250
G1 X79.000 Y111.250
G1 X78.750 Y111.250
G1 X78.500 Y111.250
G1 X78.250 Y111.250
G1 X78.000 Y111.250
G1 X77.750 Y111.250
G1 X77.500 Y111.250
G1 X77.250 Y111.250
G1 X77.000 Y111.250
G1 X76.750 Y111.250
G1 X76.500 Y111.250
G1 X76.250 Y111.250
G1 X76.000 Y111.250
G1 X75.750 Y111.250
G1 X75.500 Y111.250
G1 X75.250 Y111.250
G1 X75.000 Y111.250
G1 X74.750 Y111.250
G1 X74.500 Y111.250
G1 X74.250 Y111.250
G1 X74.000 Y111.250
G1 X73.750 Y111.250
G1 X73.500 Y111.250
G1 X73.250 Y111.250
G1 X73.000 Y111.250
G1 X72.750 Y111.250
G1 X72.500 Y111.250
G1 X72.250 Y111.250
G1 X72.000 Y111.250
G1 X71.750 Y111.250
G1 X71.500 Y111.250
G0 Z2.000 F3000
M400
M204 P300 T300
G1 F250
G0 X71.000 Y110.500 Z2.000
M400
M204 P150 T150
G1 F120
G1 Z0.000 F2500
G1 X71.250 Y110.500
G1 X71.500 Y110.500
G1 X71.750 Y110.500
G1 X72.000 Y110.500
G1 X72.250 Y110.500
G1 X72.500 Y110.500
G1 X72.750 Y110.500
G1 X73.000 Y110.500
G1 X73.250 Y110.500
G1 X73.500 Y110.500
G1 X73.750 Y110.500
G1 X74.000 Y110.500
G1 X74.250 Y110.500
G1 X74.500 Y110.500
G1 X74.750 Y110.500
G1 X75.000 Y110.500
G1 X75.250 Y110.500
G1 X75.500 Y110.500
G1 X75.750 Y110.500
G1 X76.000 Y110.500
G1 X76.250 Y110.500
G1 X76.500 Y110.500
G1 X76.750 Y110.500
G1 X77.000 Y110.500
G1 X77.250 Y110.500
G1 X77.500 Y110.500
G1 X77.750 Y110.500
G1 X78.000 Y110.500
G1 X78.250 Y110.500
G1 X78.500 Y110.500
G1 X78.750 Y110.500
G1 X79.000 Y110.500
G1 X79.250 Y110.500
G1 X79.500 Y110.500
G1 X79.750 Y110.500
G1 X80.000 Y110.500
G1 X80.250 Y110.500
G1 X80.500 Y110.500
G1 X80.750 Y110.500
G1 X81.000 Y110.500
G1 X81.250 Y110.500
G1 X81.500 Y110.500
G1 X81.750 Y110.500
G1 X82.000 Y110.500
G1 X82.250 Y110.500
G1 X82.500 Y110.500
G1 X82.750 Y110.500
G1 X83.000 Y110.500
G1 X83.250 Y110.500
G1 X83.500 Y110.500
G1 X83.750 Y110.500
G1 X84.000 Y110.500
G1 X84.250 Y110.500
G1 X84.500 Y110.500
G1 X84.750 Y110.500
G1 X85.000 Y110.500
G1 X85.250 Y110.500
G1 X85.500 Y110.500
G1 X85.750 Y110.500
G1 X86.000 Y110.500
G0 Z2.000 F3000
M400
M204 P300 T300
G1 F250
G0 X73.750 Y121.750 Z2.000
M400
M204 P150 T150
G1 F120
G1 Z0.000 F2500
G1 X73.500 Y121.750
G1 X73.250 Y121.750
G1 X73.000 Y121.750
G1 X72.750 Y121.750
G1 X72.500 Y121.750
G1 X72.250 Y121.750
G1 X72.000 Y121.750
G1 X71.750 Y121.750
G1 X71.500 Y121.750
G1 X71.250 Y121.750
G1 X71.000 Y121.750
G1 X70.750 Y121.750
G1 X70.500 Y121.750
G1 X70.250 Y121.750
G1 X70.000 Y121.750
G1 X69.750 Y121.750
G1 X69.500 Y121.750
G1 X69.250 Y121.750
G0 Z2.000 F3000
M400
M204 P300 T300
G1 F250
G0 X70.750 Y124.000 Z2.000
M400
M204 P150 T150
G1 F120
G1 Z0.000 F2500
G1 X71.000 Y124.000
G1 X71.250 Y124.000
G1 X71.500 Y124.000
G1 X71.750 Y124.000
G1 X72.000 Y124.000
G1 X72.250 Y124.000
G1 X72.500 Y124.000
G1 X72.750 Y124.000
G1 X73.000 Y124.000
G1 X73.250 Y124.000
G1 X73.500 Y124.000
G1 X73.750 Y124.000
G1 X74.000 Y124.000
G1 X74.250 Y124.000
G1 X74.500 Y124.000
G0 Z2.000 F3000
M400
M204 P300 T300
G1 F250
G0 X75.250 Y125.500 Z2.000
M400
M204 P150 T150
G1 F120
G1 Z0.000 F2500
G1 X75.000 Y125.500
G1 X74.750 Y125.500
G1 X74.500 Y125.500
G1 X74.250 Y125.500
G1 X74.000 Y125.500
G1 X73.750 Y125.500
G1 X73.500 Y125.500
G1 X73.250 Y125.500
G1 X73.000 Y125.500
G1 X72.750 Y125.500
G1 X72.500 Y125.500
G1 X72.250 Y125.500
G1 X72.000 Y125.500
G1 X71.750 Y125.500
G0 Z2.000 F3000
M400
M204 P300 T300
G1 F250
G0 X72.750 Y127.000 Z2.000
M400
M204 P150 T150
G1 F120
G1 Z0.000 F2500
G1 X73.000 Y127.000
G1 X73.250 Y127.000
G1 X73.500 Y127.000
G1 X73.750 Y127.000
G1 X74.000 Y127.000
G1 X74.250 Y127.000
G1 X74.500 Y127.000
G1 X74.750 Y127.000
G1 X75.000 Y127.000
G1 X75.250 Y127.000
G1 X75.500 Y127.000
G1 X75.750 Y127.000
G1 X76.000 Y127.000
G0 Z2.000 F3000
M400
M204 P300 T300
G1 F250
G0 X76.500 Y128.500 Z2.000
M400
M204 P150 T150
G1 F120
G1 Z0.000 F2500
G1 X76.250 Y128.500
G1 X76.000 Y128.500
G1 X75.750 Y128.500
G1 X75.500 Y128.500
G1 X75.250 Y128.500
G1 X75.000 Y128.500
G1 X74.750 Y128.500
G1 X74.500 Y128.500
G1 X74.250 Y128.500
G1 X74.000 Y128.500
G1 X73.750 Y128.500
G0 Z2.000 F3000
M400
M204 P300 T300
G1 F250
G0 X74.750 Y130.000 Z2.000
M400
M204 P150 T150
G1 F120
G1 Z0.000 F2500
G1 X75.000 Y130.000
G1 X75.250 Y130.000
G1 X75.500 Y130.000
G1 X75.750 Y130.000
G1 X76.000 Y130.000
G1 X76.250 Y130.000
G1 X76.500 Y130.000
G1 X76.750 Y130.000
G1 X77.000 Y130.000
G1 X77.250 Y130.000
G0 Z2.000 F3000
M400
M204 P300 T300
G1 F250
G0 X77.500 Y130.750 Z2.000
M400
M204 P150 T150
G1 F120
G1 Z0.000 F2500
G1 X77.250 Y130.750
G1 X77.000 Y130.750
G1 X76.750 Y130.750
G1 X76.500 Y130.750
G1 X76.250 Y130.750
G1 X76.000 Y130.750
G1 X75.750 Y130.750
G1 X75.500 Y130.750
G0 Z2.000 F3000
M400
M204 P300 T300
G1 F250
G0 X76.000 Y131.500 Z2.000
M400
M204 P150 T150
G1 F120
G1 Z0.000 F2500
G1 X76.250 Y131.500
G1 X76.500 Y131.500
G1 X76.750 Y131.500
G1 X77.000 Y131.500
G1 X77.250 Y131.500
G1 X77.500 Y131.500
G1 X77.750 Y131.500
G0 Z2.000 F3000
M400
M204 P300 T300
G1 F250
G0 X78.000 Y132.250 Z2.000
M400
M204 P150 T150
G1 F120
G1 Z0.000 F2500
G1 X77.750 Y132.250
G1 X77.500 Y132.250
G1 X77.250 Y132.250
G1 X77.000 Y132.250
G1 X76.750 Y132.250
G1 X76.500 Y132.250
G0 Z2.000 F3000
M400
M204 P300 T300
G1 F250
G0 X77.250 Y133.000 Z2.000
M400
M204 P150 T150
G1 F120
G1 Z0.000 F2500
G1 X77.500 Y133.000
G1 X77.750 Y133.000
G0 Z2.000 F3000
M400
M204 P300 T300
G1 F250
G0 X76.750 Y129.250 Z2.000
M400
M204 P150 T150
G1 F120
G1 Z0.000 F2500
G1 X76.500 Y129.250
G1 X76.250 Y129.250
G1 X76.000 Y129.250
G1 X75.750 Y129.250
G1 X75.500 Y129.250
G1 X75.250 Y129.250
G1 X75.000 Y129.250
G1 X74.750 Y129.250
G1 X74.500 Y129.250
G1 X74.250 Y129.250
G0 Z2.000 F3000
M400
M204 P300 T300
G1 F250
G0 X73.250 Y127.750 Z2.000
M400
M204 P150 T150
G1 F120
G1 Z0.000 F2500
G1 X73.500 Y127.750
G1 X73.750 Y127.750
G1 X74.000 Y127.750
G1 X74.250 Y127.750
G1 X74.500 Y127.750
G1 X74.750 Y127.750
G1 X75.000 Y127.750
G1 X75.250 Y127.750
G1 X75.500 Y127.750
G1 X75.750 Y127.750
G1 X76.000 Y127.750
G1 X76.250 Y127.750
G0 Z2.000 F3000
M400
M204 P300 T300
G1 F250
G0 X75.500 Y126.250 Z2.000
M400
M204 P150 T150
G1 F120
G1 Z0.000 F2500
G1 X75.250 Y126.250
G1 X75.000 Y126.250
G1 X74.750 Y126.250
G1 X74.500 Y126.250
G1 X74.250 Y126.250
G1 X74.000 Y126.250
G1 X73.750 Y126.250
G1 X73.500 Y126.250
G1 X73.250 Y126.250
G1 X73.000 Y126.250
G1 X72.750 Y126.250
G1 X72.500 Y126.250
G1 X72.250 Y126.250
G0 Z2.000 F3000
M400
M204 P300 T300
G1 F250
G0 X71.250 Y124.750 Z2.000
M400
M204 P150 T150
G1 F120
G1 Z0.000 F2500
G1 X71.500 Y124.750
G1 X71.750 Y124.750
G1 X72.000 Y124.750
G1 X72.250 Y124.750
G1 X72.500 Y124.750
G1 X72.750 Y124.750
G1 X73.000 Y124.750
G1 X73.250 Y124.750
G1 X73.500 Y124.750
G1 X73.750 Y124.750
G1 X74.000 Y124.750
G1 X74.250 Y124.750
G1 X74.500 Y124.750
G1 X74.750 Y124.750
G1 X75.000 Y124.750
G0 Z2.000 F3000
M400
M204 P300 T300
G1 F250
G0 X74.250 Y123.250 Z2.000
M400
M204 P150 T150
G1 F120
G1 Z0.000 F2500
G1 X74.000 Y123.250
G1 X73.750 Y123.250
G1 X73.500 Y123.250
G1 X73.250 Y123.250
G1 X73.000 Y123.250
G1 X72.750 Y123.250
G1 X72.500 Y123.250
G1 X72.250 Y123.250
G1 X72.000 Y123.250
G1 X71.750 Y123.250
G1 X71.500 Y123.250
G1 X71.250 Y123.250
G1 X71.000 Y123.250
G1 X70.750 Y123.250
G1 X70.500 Y123.250
G1 X70.250 Y123.250
G0 Z2.000 F3000
M400
M204 P300 T300
G1 F250
G0 X69.750 Y122.500 Z2.000
M400
M204 P150 T150
G1 F120
G1 Z0.000 F2500
G1 X70.000 Y122.500
G1 X70.250 Y122.500
G1 X70.500 Y122.500
G1 X70.750 Y122.500
G1 X71.000 Y122.500
G1 X71.250 Y122.500
G1 X71.500 Y122.500
G1 X71.750 Y122.500
G1 X72.000 Y122.500
G1 X72.250 Y122.500
G1 X72.500 Y122.500
G1 X72.750 Y122.500
G1 X73.000 Y122.500
G1 X73.250 Y122.500
G1 X73.500 Y122.500
G1 X73.750 Y122.500
G1 X74.000 Y122.500
G0 Z2.000 F3000
M400
M204 P300 T300
G1 F250
G0 X73.250 Y121.000 Z2.000
M400
M204 P150 T150
G1 F120
G1 Z0.000 F2500
G1 X73.000 Y121.000
G1 X72.750 Y121.000
G1 X72.500 Y121.000
G1 X72.250 Y121.000
G1 X72.000 Y121.000
G1 X71.750 Y121.000
G1 X71.500 Y121.000
G1 X71.250 Y121.000
G1 X71.000 Y121.000
G1 X70.750 Y121.000
G1 X70.500 Y121.000
G1 X70.250 Y121.000
G1 X70.000 Y121.000
G1 X69.750 Y121.000
G1 X69.500 Y121.000
G1 X69.250 Y121.000
G1 X69.000 Y121.000
G1 X68.750 Y121.000
G0 Z2.000 F3000
M400
M204 P300 T300
G1 F250
G0 X68.000 Y120.250 Z2.000
M400
M204 P150 T150
G1 F120
G1 Z0.000 F2500
G1 X68.250 Y120.250
G1 X68.500 Y120.250
G1 X68.750 Y120.250
G1 X69.000 Y120.250
G1 X69.250 Y120.250
G1 X69.500 Y120.250
G1 X69.750 Y120.250
G1 X70.000 Y120.250
G1 X70.250 Y120.250
G1 X70.500 Y120.250
G1 X70.750 Y120.250
G1 X71.000 Y120.250
G1 X71.250 Y120.250
G1 X71.500 Y120.250
G1 X71.750 Y120.250
G1 X72.000 Y120.250
G1 X72.250 Y120.250
G1 X72.500 Y120.250
G1 X72.750 Y120.250
G1 X73.000 Y120.250
G0 Z2.000 F3000
M400
M204 P300 T300
G1 F250
G0 X72.750 Y119.500 Z2.000
M400
M204 P150 T150
G1 F120
G1 Z0.000 F2500
G1 X72.500 Y119.500
G1 X72.250 Y119.500
G1 X72.000 Y119.500
G1 X71.750 Y119.500
G1 X71.500 Y119.500
G1 X71.250 Y119.500
G1 X71.000 Y119.500
G1 X70.750 Y119.500
G1 X70.500 Y119.500
G1 X70.250 Y119.500
G1 X70.000 Y119.500
G1 X69.750 Y119.500
G1 X69.500 Y119.500
G1 X69.250 Y119.500
G1 X69.000 Y119.500
G1 X68.750 Y119.500
G1 X68.500 Y119.500
G1 X68.250 Y119.500
G1 X68.000 Y119.500
G1 X67.750 Y119.500
G1 X67.500 Y119.500
G0 Z2.000 F3000
M400
M204 P300 T300
G1 F250
G0 X67.000 Y118.750 Z2.000
M400
M204 P150 T150
G1 F120
G1 Z0.000 F2500
G1 X67.250 Y118.750
G1 X67.500 Y118.750
G1 X67.750 Y118.750
G1 X68.000 Y118.750
G1 X68.250 Y118.750
G1 X68.500 Y118.750
G1 X68.750 Y118.750
G1 X69.000 Y118.750
G1 X69.250 Y118.750
G1 X69.500 Y118.750
G0 Z2.000 F3000

; --- CIKEL NAMAKANJA ---
G0 Z2.000 F3000
M400
M204 P300 T300
G1 F250
G0 X107.132 Y8.792 Z7.000
G1 Z1.000 F3000
G1 X107.132 Y8.792 F2500
G1 X107.132 Y11.292 F2500
G1 X102.132 Y8.792 F2500
G1 X107.132 Y1.292 F2500
G0 Z19.000 F3000
G0 X86.806 Y18.730
G0 Z7.000 F3000
G0 X69.750 Y118.750 Z2.000
M400
M204 P150 T150
G1 F120
G1 Z0.000 F2500
G1 X69.750 Y118.750
G1 X70.000 Y118.750
G1 X70.250 Y118.750
G1 X70.500 Y118.750
G1 X70.750 Y118.750
G1 X71.000 Y118.750
G1 X71.250 Y118.750
G1 X71.500 Y118.750
G1 X71.750 Y118.750
G1 X72.000 Y118.750
G1 X72.250 Y118.750
G0 Z2.000 F3000
M400
M204 P300 T300
G1 F250
G0 X72.000 Y118.000 Z2.000
M400
M204 P150 T150
G1 F120
G1 Z0.000 F2500
G1 X71.750 Y118.000
G1 X71.500 Y118.000
G1 X71.250 Y118.000
G1 X71.000 Y118.000
G1 X70.750 Y118.000
G1 X70.500 Y118.000
G1 X70.250 Y118.000
G1 X70.000 Y118.000
G1 X69.750 Y118.000
G1 X69.500 Y118.000
G1 X69.250 Y118.000
G1 X69.000 Y118.000
G1 X68.750 Y118.000
G1 X68.500 Y118.000
G1 X68.250 Y118.000
G1 X68.000 Y118.000
G1 X67.750 Y118.000
G1 X67.500 Y118.000
G1 X67.250 Y118.000
G1 X67.000 Y118.000
G1 X66.750 Y118.000
G1 X66.500 Y118.000
G0 Z2.000 F3000
M400
M204 P300 T300
G1 F250
G0 X66.000 Y117.250 Z2.000
M400
M204 P150 T150
G1 F120
G1 Z0.000 F2500
G1 X66.250 Y117.250
G1 X66.500 Y117.250
G1 X66.750 Y117.250
G1 X67.000 Y117.250
G1 X67.250 Y117.250
G1 X67.500 Y117.250
G1 X67.750 Y117.250
G1 X68.000 Y117.250
G1 X68.250 Y117.250
G1 X68.500 Y117.250
G1 X68.750 Y117.250
G1 X69.000 Y117.250
G1 X69.250 Y117.250
G1 X69.500 Y117.250
G1 X69.750 Y117.250
G1 X70.000 Y117.250
G1 X70.250 Y117.250
G1 X70.500 Y117.250
G1 X70.750 Y117.250
G1 X71.000 Y117.250
G1 X71.250 Y117.250
G1 X71.500 Y117.250
G1 X71.750 Y117.250
G0 Z2.000 F3000
M400
M204 P300 T300
G1 F250
G0 X71.250 Y116.500 Z2.000
M400
M204 P150 T150
G1 F120
G1 Z0.000 F2500
G1 X71.000 Y116.500
G1 X70.750 Y116.500
G1 X70.500 Y116.500
G1 X70.250 Y116.500
G1 X70.000 Y116.500
G1 X69.750 Y116.500
G1 X69.500 Y116.500
G1 X69.250 Y116.500
G1 X69.000 Y116.500
G1 X68.750 Y116.500
G1 X68.500 Y116.500
G1 X68.250 Y116.500
G1 X68.000 Y116.500
G1 X67.750 Y116.500
G1 X67.500 Y116.500
G1 X67.250 Y116.500
G1 X67.000 Y116.500
G1 X66.750 Y116.500
G1 X66.500 Y116.500
G1 X66.250 Y116.500
G1 X66.000 Y116.500
G1 X65.750 Y116.500
G1 X65.500 Y116.500
G0 Z2.000 F3000
M400
M204 P300 T300
G1 F250
G0 X65.000 Y115.750 Z2.000
M400
M204 P150 T150
G1 F120
G1 Z0.000 F2500
G1 X65.250 Y115.750
G1 X65.500 Y115.750
G1 X65.750 Y115.750
G1 X66.000 Y115.750
G1 X66.250 Y115.750
G1 X66.500 Y115.750
G1 X66.750 Y115.750
G1 X67.000 Y115.750
G1 X67.250 Y115.750
G1 X67.500 Y115.750
G1 X67.750 Y115.750
G1 X68.000 Y115.750
G1 X68.250 Y115.750
G1 X68.500 Y115.750
G1 X68.750 Y115.750
G1 X69.000 Y115.750
G1 X69.250 Y115.750
G1 X69.500 Y115.750
G1 X69.750 Y115.750
G1 X70.000 Y115.750
G1 X70.250 Y115.750
G1 X70.500 Y115.750
G1 X70.750 Y115.750
G1 X71.000 Y115.750
G0 Z2.000 F3000
M400
M204 P300 T300
G1 F250
G0 X70.750 Y115.000 Z2.000
M400
M204 P150 T150
G1 F120
G1 Z0.000 F2500
G1 X70.500 Y115.000
G1 X70.250 Y115.000
G1 X70.000 Y115.000
G1 X69.750 Y115.000
G1 X69.500 Y115.000
G1 X69.250 Y115.000
G1 X69.000 Y115.000
G1 X68.750 Y115.000
G1 X68.500 Y115.000
G1 X68.250 Y115.000
G1 X68.000 Y115.000
G1 X67.750 Y115.000
G1 X67.500 Y115.000
G1 X67.250 Y115.000
G1 X67.000 Y115.000
G1 X66.750 Y115.000
G1 X66.500 Y115.000
G1 X66.250 Y115.000
G1 X66.000 Y115.000
G1 X65.750 Y115.000
G1 X65.500 Y115.000
G1 X65.250 Y115.000
G1 X65.000 Y115.000
G1 X64.750 Y115.000
G1 X64.500 Y115.000
G0 Z2.000 F3000
M400
M204 P300 T300
G1 F250
G0 X64.000 Y114.250 Z2.000
M400
M204 P150 T150
G1 F120
G1 Z0.000 F2500
G1 X64.250 Y114.250
G1 X64.500 Y114.250
G1 X64.750 Y114.250
G1 X65.000 Y114.250
G1 X65.250 Y114.250
G1 X65.500 Y114.250
G1 X65.750 Y114.250
G1 X66.000 Y114.250
G1 X66.250 Y114.250
G1 X66.500 Y114.250
G1 X66.750 Y114.250
G1 X67.000 Y114.250
G1 X67.250 Y114.250
G1 X67.500 Y114.250
G1 X67.750 Y114.250
G1 X68.000 Y114.250
G1 X68.250 Y114.250
G1 X68.500 Y114.250
G1 X68.750 Y114.250
G1 X69.000 Y114.250
G1 X69.250 Y114.250
G1 X69.500 Y114.250
G1 X69.750 Y114.250
G1 X70.000 Y114.250
G1 X70.250 Y114.250
G0 Z2.000 F3000
M400
M204 P300 T300
G1 F250
G0 X70.000 Y113.500 Z2.000
M400
M204 P150 T150
G1 F120
G1 Z0.000 F2500
G1 X69.750 Y113.500
G1 X69.500 Y113.500
G1 X69.250 Y113.500
G1 X69.000 Y113.500
G1 X68.750 Y113.500
G1 X68.500 Y113.500
G1 X68.250 Y113.500
G1 X68.000 Y113.500
G1 X67.750 Y113.500
G1 X67.500 Y113.500
G1 X67.250 Y113.500
G1 X67.000 Y113.500
G1 X66.750 Y113.500
G1 X66.500 Y113.500
G1 X66.250 Y113.500
G1 X66.000 Y113.500
G1 X65.750 Y113.500
G1 X65.500 Y113.500
G1 X65.250 Y113.500
G1 X65.000 Y113.500
G1 X64.750 Y113.500
G1 X64.500 Y113.500
G1 X64.250 Y113.500
G1 X64.000 Y113.500
G1 X63.750 Y113.500
G1 X63.500 Y113.500
G1 X63.250 Y113.500
G0 Z2.000 F3000
M400
M204 P300 T300
G1 F250
G0 X62.750 Y112.750 Z2.000
M400
M204 P150 T150
G1 F120
G1 Z0.000 F2500
G1 X63.000 Y112.750
G1 X63.250 Y112.750
G1 X63.500 Y112.750
G1 X63.750 Y112.750
G1 X64.000 Y112.750
G1 X64.250 Y112.750
G1 X64.500 Y112.750
G1 X64.750 Y112.750
G1 X65.000 Y112.750
G1 X65.250 Y112.750
G1 X65.500 Y112.750
G1 X65.750 Y112.750
G1 X66.000 Y112.750
G1 X66.250 Y112.750
G1 X66.500 Y112.750
G1 X66.750 Y112.750
G1 X67.000 Y112.750
G1 X67.250 Y112.750
G1 X67.500 Y112.750
G1 X67.750 Y112.750
G1 X68.000 Y112.750
G1 X68.250 Y112.750
G1 X68.500 Y112.750
G1 X68.750 Y112.750
G1 X69.000 Y112.750
G1 X69.250 Y112.750
G1 X69.500 Y112.750
G1 X69.750 Y112.750
G0 Z2.000 F3000
M400
M204 P300 T300
G1 F250
G0 X69.250 Y112.000 Z2.000
M400
M204 P150 T150
G1 F120
G1 Z0.000 F2500
G1 X69.000 Y112.000
G1 X68.750 Y112.000
G1 X68.500 Y112.000
G1 X68.250 Y112.000
G1 X68.000 Y112.000
G1 X67.750 Y112.000
G1 X67.500 Y112.000
G1 X67.250 Y112.000
G1 X67.000 Y112.000
G1 X66.750 Y112.000
G1 X66.500 Y112.000
G1 X66.250 Y112.000
G1 X66.000 Y112.000
G1 X65.750 Y112.000
G1 X65.500 Y112.000
G1 X65.250 Y112.000
G1 X65.000 Y112.000
G1 X64.750 Y112.000
G1 X64.500 Y112.000
G1 X64.250 Y112.000
G1 X64.000 Y112.000
G1 X63.750 Y112.000
G1 X63.500 Y112.000
G1 X63.250 Y112.000
G1 X63.000 Y112.000
G1 X62.750 Y112.000
G1 X62.500 Y112.000
G1 X62.250 Y112.000
G0 Z2.000 F3000
M400
M204 P300 T300
G1 F250
G0 X61.750 Y111.250 Z2.000
M400
M204 P150 T150
G1 F120
G1 Z0.000 F2500
G1 X62.000 Y111.250
G1 X62.250 Y111.250
G1 X62.500 Y111.250
G1 X62.750 Y111.250
G1 X63.000 Y111.250
G1 X63.250 Y111.250
G1 X63.500 Y111.250
G1 X63.750 Y111.250
G1 X64.000 Y111.250
G1 X64.250 Y111.250
G1 X64.500 Y111.250
G1 X64.750 Y111.250
G1 X65.000 Y111.250
G1 X65.250 Y111.250
G1 X65.500 Y111.250
G1 X65.750 Y111.250
G1 X66.000 Y111.250
G1 X66.250 Y111.250
G1 X66.500 Y111.250
G1 X66.750 Y111.250
G1 X67.000 Y111.250
G1 X67.250 Y111.250
G1 X67.500 Y111.250
G1 X67.750 Y111.250
G1 X68.000 Y111.250
G1 X68.250 Y111.250
G1 X68.500 Y111.250
G1 X68.750 Y111.250
G1 X69.000 Y111.250
G0 Z2.000 F3000
M400
M204 P300 T300
G1 F250
G0 X68.750 Y110.500 Z2.000
M400
M204 P150 T150
G1 F120
G1 Z0.000 F2500
G1 X68.500 Y110.500
G1 X68.250 Y110.500
G1 X68.000 Y110.500
G1 X67.750 Y110.500
G1 X67.500 Y110.500
G1 X67.250 Y110.500
G1 X67.000 Y110.500
G1 X66.750 Y110.500
G1 X66.500 Y110.500
G1 X66.250 Y110.500
G1 X66.000 Y110.500
G1 X65.750 Y110.500
G1 X65.500 Y110.500
G1 X65.250 Y110.500
G1 X65.000 Y110.500
G1 X64.750 Y110.500
G1 X64.500 Y110.500
G1 X64.250 Y110.500
G1 X64.000 Y110.500
G1 X63.750 Y110.500
G1 X63.500 Y110.500
G1 X63.250 Y110.500
G1 X63.000 Y110.500
G1 X62.750 Y110.500
G1 X62.500 Y110.500
G1 X62.250 Y110.500
G1 X62.000 Y110.500
G1 X61.750 Y110.500
G1 X61.500 Y110.500
G1 X61.250 Y110.500
G0 Z2.000 F3000
M400
M204 P300 T300
G1 F250
G0 X60.750 Y109.750 Z2.000
M400
M204 P150 T150
G1 F120
G1 Z0.000 F2500
G1 X61.000 Y109.750
G1 X61.250 Y109.750
G1 X61.500 Y109.750
G1 X61.750 Y109.750
G1 X62.000 Y109.750
G1 X62.250 Y109.750
G1 X62.500 Y109.750
G1 X62.750 Y109.750
G1 X63.000 Y109.750
G1 X63.250 Y109.750
G1 X63.500 Y109.750
G1 X63.750 Y109.750
G1 X64.000 Y109.750
G1 X64.250 Y109.750
G1 X64.500 Y109.750
G1 X64.750 Y109.750
G1 X65.000 Y109.750
G1 X65.250 Y109.750
G1 X65.500 Y109.750
G1 X65.750 Y109.750
G1 X66.000 Y109.750
G1 X66.250 Y109.750
G1 X66.500 Y109.750
G1 X66.750 Y109.750
G1 X67.000 Y109.750
G1 X67.250 Y109.750
G1 X67.500 Y109.750
G1 X67.750 Y109.750
G1 X68.000 Y109.750
G1 X68.250 Y109.750
G1 X68.500 Y109.750
G0 Z2.000 F3000
M400
M204 P300 T300
G1 F250
G0 X68.000 Y109.000 Z2.000
M400
M204 P150 T150
G1 F120
G1 Z0.000 F2500
G1 X67.750 Y109.000
G1 X67.500 Y109.000
G1 X67.250 Y109.000
G1 X67.000 Y109.000
G1 X66.750 Y109.000
G1 X66.500 Y109.000
G1 X66.250 Y109.000
G1 X66.000 Y109.000
G1 X65.750 Y109.000
G1 X65.500 Y109.000
G1 X65.250 Y109.000
G1 X65.000 Y109.000
G1 X64.750 Y109.000
G1 X64.500 Y109.000
G1 X64.250 Y109.000
G1 X64.000 Y109.000
G1 X63.750 Y109.000
G1 X63.500 Y109.000
G1 X63.250 Y109.000
G1 X63.000 Y109.000
G1 X62.750 Y109.000
G1 X62.500 Y109.000
G1 X62.250 Y109.000
G1 X62.000 Y109.000
G1 X61.750 Y109.000
G1 X61.500 Y109.000
G1 X61.250 Y109.000
G0 Z2.000 F3000

; --- CIKEL NAMAKANJA ---
G0 Z2.000 F3000
M400
M204 P300 T300
G1 F250
G0 X111.149 Y0.000 Z7.000
G1 Z1.000 F3000
G1 X111.149 Y0.000 F2500
G1 X111.149 Y2.500 F2500
G1 X106.149 Y0.000 F2500
G1 X111.149 Y0.000 F2500
G0 Z19.000 F3000
G0 X85.115 Y18.361
G0 Z7.000 F3000
G0 X61.000 Y109.000 Z2.000
M400
M204 P150 T150
G1 F120
G1 Z0.000 F2500
G1 X61.000 Y109.000
G1 X60.750 Y109.000
G1 X60.500 Y109.000
G1 X60.250 Y109.000
G0 Z2.000 F3000
M400
M204 P300 T300
G1 F250
G0 X59.500 Y108.250 Z2.000
M400
M204 P150 T150
G1 F120
G1 Z0.000 F2500
G1 X59.750 Y108.250
G1 X60.000 Y108.250
G1 X60.250 Y108.250
G1 X60.500 Y108.250
G1 X60.750 Y108.250
G1 X61.000 Y108.250
G1 X61.250 Y108.250
G1 X61.500 Y108.250
G1 X61.750 Y108.250
G1 X62.000 Y108.250
G1 X62.250 Y108.250
G1 X62.500 Y108.250
G1 X62.750 Y108.250
G1 X63.000 Y108.250
G1 X63.250 Y108.250
G1 X63.500 Y108.250
G1 X63.750 Y108.250
G1 X64.000 Y108.250
G1 X64.250 Y108.250
G1 X64.500 Y108.250
G1 X64.750 Y108.250
G1 X65.000 Y108.250
G1 X65.250 Y108.250
G1 X65.500 Y108.250
G1 X65.750 Y108.250
G1 X66.000 Y108.250
G1 X66.250 Y108.250
G1 X66.500 Y108.250
G1 X66.750 Y108.250
G1 X67.000 Y108.250
G1 X67.250 Y108.250
G1 X67.500 Y108.250
G1 X67.750 Y108.250
G0 Z2.000 F3000
M400
M204 P300 T300
G1 F250
G0 X67.500 Y107.500 Z2.000
M400
M204 P150 T150
G1 F120
G1 Z0.000 F2500
G1 X67.250 Y107.500
G1 X67.000 Y107.500
G1 X66.750 Y107.500
G1 X66.500 Y107.500
G1 X66.250 Y107.500
G1 X66.000 Y107.500
G1 X65.750 Y107.500
G1 X65.500 Y107.500
G1 X65.250 Y107.500
G1 X65.000 Y107.500
G1 X64.750 Y107.500
G1 X64.500 Y107.500
G1 X64.250 Y107.500
G1 X64.000 Y107.500
G1 X63.750 Y107.500
G1 X63.500 Y107.500
G1 X63.250 Y107.500
G1 X63.000 Y107.500
G1 X62.750 Y107.500
G1 X62.500 Y107.500
G1 X62.250 Y107.500
G1 X62.000 Y107.500
G1 X61.750 Y107.500
G1 X61.500 Y107.500
G1 X61.250 Y107.500
G1 X61.000 Y107.500
G1 X60.750 Y107.500
G1 X60.500 Y107.500
G1 X60.250 Y107.500
G1 X60.000 Y107.500
G1 X59.750 Y107.500
G1 X59.500 Y107.500
G1 X59.250 Y107.500
G1 X59.000 Y107.500
G0 Z2.000 F3000
M400
M204 P300 T300
G1 F250
G0 X58.500 Y106.750 Z2.000
M400
M204 P150 T150
G1 F120
G1 Z0.000 F2500
G1 X58.750 Y106.750
G1 X59.000 Y106.750
G1 X59.250 Y106.750
G1 X59.500 Y106.750
G1 X59.750 Y106.750
G1 X60.000 Y106.750
G1 X60.250 Y106.750
G1 X60.500 Y106.750
G1 X60.750 Y106.750
G1 X61.000 Y106.750
G1 X61.250 Y106.750
G1 X61.500 Y106.750
G1 X61.750 Y106.750
G1 X62.000 Y106.750
G1 X62.250 Y106.750
G1 X62.500 Y106.750
G1 X62.750 Y106.750
G1 X63.000 Y106.750
G1 X63.250 Y106.750
G1 X63.500 Y106.750
G1 X63.750 Y106.750
G1 X64.000 Y106.750
G1 X64.250 Y106.750
G1 X64.500 Y106.750
G1 X64.750 Y106.750
G1 X65.000 Y106.750
G1 X65.250 Y106.750
G1 X65.500 Y106.750
G1 X65.750 Y106.750
G1 X66.000 Y106.750
G1 X66.250 Y106.750
G1 X66.500 Y106.750
G1 X66.750 Y106.750
G1 X67.000 Y106.750
G0 Z2.000 F3000
M400
M204 P300 T300
G1 F250
G0 X66.750 Y106.000 Z2.000
M400
M204 P150 T150
G1 F120
G1 Z0.000 F2500
G1 X66.500 Y106.000
G1 X66.250 Y106.000
G1 X66.000 Y106.000
G1 X65.750 Y106.000
G1 X65.500 Y106.000
G1 X65.250 Y106.000
G1 X65.000 Y106.000
G1 X64.750 Y106.000
G1 X64.500 Y106.000
G1 X64.250 Y106.000
G1 X64.000 Y106.000
G1 X63.750 Y106.000
G1 X63.500 Y106.000
G1 X63.250 Y106.000
G1 X63.000 Y106.000
G1 X62.750 Y106.000
G1 X62.500 Y106.000
G1 X62.250 Y106.000
G1 X62.000 Y106.000
G1 X61.750 Y106.000
G1 X61.500 Y106.000
G1 X61.250 Y106.000
G1 X61.000 Y106.000
G1 X60.750 Y106.000
G1 X60.500 Y106.000
G1 X60.250 Y106.000
G1 X60.000 Y106.000
G1 X59.750 Y106.000
G1 X59.500 Y106.000
G1 X59.250 Y106.000
G1 X59.000 Y106.000
G1 X58.750 Y106.000
G1 X58.500 Y106.000
G1 X58.250 Y106.000
G1 X58.000 Y106.000
G0 Z2.000 F3000
M400
M204 P300 T300
G1 F250
G0 X57.500 Y105.250 Z2.000
M400
M204 P150 T150
G1 F120
G1 Z0.000 F2500
G1 X57.750 Y105.250
G1 X58.000 Y105.250
G1 X58.250 Y105.250
G1 X58.500 Y105.250
G1 X58.750 Y105.250
G1 X59.000 Y105.250
G1 X59.250 Y105.250
G1 X59.500 Y105.250
G1 X59.750 Y105.250
G1 X60.000 Y105.250
G1 X60.250 Y105.250
G1 X60.500 Y105.250
G1 X60.750 Y105.250
G1 X61.000 Y105.250
G1 X61.250 Y105.250
G1 X61.500 Y105.250
G1 X61.750 Y105.250
G1 X62.000 Y105.250
G1 X62.250 Y105.250
G1 X62.500 Y105.250
G1 X62.750 Y105.250
G1 X63.000 Y105.250
G1 X63.250 Y105.250
G1 X63.500 Y105.250
G1 X63.750 Y105.250
G1 X64.000 Y105.250
G1 X64.250 Y105.250
G1 X64.500 Y105.250
G1 X64.750 Y105.250
G1 X65.000 Y105.250
G1 X65.250 Y105.250
G1 X65.500 Y105.250
G1 X65.750 Y105.250
G1 X66.000 Y105.250
G1 X66.250 Y105.250
G1 X66.500 Y105.250
G0 Z2.000 F3000
M400
M204 P300 T300
G1 F250
G0 X66.000 Y104.500 Z2.000
M400
M204 P150 T150
G1 F120
G1 Z0.000 F2500
G1 X65.750 Y104.500
G1 X65.500 Y104.500
G1 X65.250 Y104.500
G1 X65.000 Y104.500
G1 X64.750 Y104.500
G1 X64.500 Y104.500
G1 X64.250 Y104.500
G1 X64.000 Y104.500
G1 X63.750 Y104.500
G1 X63.500 Y104.500
G1 X63.250 Y104.500
G1 X63.000 Y104.500
G1 X62.750 Y104.500
G1 X62.500 Y104.500
G1 X62.250 Y104.500
G1 X62.000 Y104.500
G1 X61.750 Y104.500
G1 X61.500 Y104.500
G1 X61.250 Y104.500
G1 X61.000 Y104.500
G1 X60.750 Y104.500
G1 X60.500 Y104.500
G1 X60.250 Y104.500
G1 X60.000 Y104.500
G1 X59.750 Y104.500
G1 X59.500 Y104.500
G1 X59.250 Y104.500
G1 X59.000 Y104.500
G1 X58.750 Y104.500
G1 X58.500 Y104.500
G1 X58.250 Y104.500
G1 X58.000 Y104.500
G1 X57.750 Y104.500
G1 X57.500 Y104.500
G1 X57.250 Y104.500
G1 X57.000 Y104.500
G0 Z2.000 F3000
M400
M204 P300 T300
G1 F250
G0 X56.500 Y103.750 Z2.000
M400
M204 P150 T150
G1 F120
G1 Z0.000 F2500
G1 X56.750 Y103.750
G1 X57.000 Y103.750
G1 X57.250 Y103.750
G1 X57.500 Y103.750
G1 X57.750 Y103.750
G1 X58.000 Y103.750
G1 X58.250 Y103.750
G1 X58.500 Y103.750
G1 X58.750 Y103.750
G1 X59.000 Y103.750
G1 X59.250 Y103.750
G1 X59.500 Y103.750
G1 X59.750 Y103.750
G1 X60.000 Y103.750
G1 X60.250 Y103.750
G1 X60.500 Y103.750
G1 X60.750 Y103.750
G1 X61.000 Y103.750
G1 X61.250 Y103.750
G1 X61.500 Y103.750
G1 X61.750 Y103.750
G1 X62.000 Y103.750
G1 X62.250 Y103.750
G1 X62.500 Y103.750
G1 X62.750 Y103.750
G1 X63.000 Y103.750
G1 X63.250 Y103.750
G1 X63.500 Y103.750
G1 X63.750 Y103.750
G1 X64.000 Y103.750
G1 X64.250 Y103.750
G1 X64.500 Y103.750
G1 X64.750 Y103.750
G1 X65.000 Y103.750
G1 X65.250 Y103.750
G1 X65.500 Y103.750
G1 X65.750 Y103.750
G0 Z2.000 F3000
M400
M204 P300 T300
G1 F250
G0 X65.500 Y103.000 Z2.000
M400
M204 P150 T150
G1 F120
G1 Z0.000 F2500
G1 X65.250 Y103.000
G1 X65.000 Y103.000
G1 X64.750 Y103.000
G1 X64.500 Y103.000
G1 X64.250 Y103.000
G1 X64.000 Y103.000
G1 X63.750 Y103.000
G1 X63.500 Y103.000
G1 X63.250 Y103.000
G1 X63.000 Y103.000
G1 X62.750 Y103.000
G1 X62.500 Y103.000
G1 X62.250 Y103.000
G1 X62.000 Y103.000
G1 X61.750 Y103.000
G1 X61.500 Y103.000
G1 X61.250 Y103.000
G1 X61.000 Y103.000
G1 X60.750 Y103.000
G1 X60.500 Y103.000
G1 X60.250 Y103.000
G1 X60.000 Y103.000
G1 X59.750 Y103.000
G1 X59.500 Y103.000
G1 X59.250 Y103.000
G1 X59.000 Y103.000
G1 X58.750 Y103.000
G1 X58.500 Y103.000
G1 X58.250 Y103.000
G1 X58.000 Y103.000
G1 X57.750 Y103.000
G1 X57.500 Y103.000
G1 X57.250 Y103.000
G1 X57.000 Y103.000
G1 X56.750 Y103.000
G1 X56.500 Y103.000
G1 X56.250 Y103.000
G1 X56.000 Y103.000
G1 X55.750 Y103.000
G0 Z2.000 F3000
M400
M204 P300 T300
G1 F250
G0 X55.250 Y102.250 Z2.000
M400
M204 P150 T150
G1 F120
G1 Z0.000 F2500
G1 X55.500 Y102.250
G1 X55.750 Y102.250
G1 X56.000 Y102.250
G1 X56.250 Y102.250
G1 X56.500 Y102.250
G1 X56.750 Y102.250
G1 X57.000 Y102.250
G1 X57.250 Y102.250
G1 X57.500 Y102.250
G1 X57.750 Y102.250
G1 X58.000 Y102.250
G1 X58.250 Y102.250
G1 X58.500 Y102.250
G1 X58.750 Y102.250
G1 X59.000 Y102.250
G1 X59.250 Y102.250
G1 X59.500 Y102.250
G1 X59.750 Y102.250
G1 X60.000 Y102.250
G1 X60.250 Y102.250
G1 X60.500 Y102.250
G1 X60.750 Y102.250
G1 X61.000 Y102.250
G1 X61.250 Y102.250
G1 X61.500 Y102.250
G1 X61.750 Y102.250
G1 X62.000 Y102.250
G1 X62.250 Y102.250
G1 X62.500 Y102.250
G1 X62.750 Y102.250
G1 X63.000 Y102.250
G1 X63.250 Y102.250
G1 X63.500 Y102.250
G1 X63.750 Y102.250
G1 X64.000 Y102.250
G1 X64.250 Y102.250
G1 X64.500 Y102.250
G1 X64.750 Y102.250
G1 X65.000 Y102.250
G0 Z2.000 F3000
M400
M204 P300 T300
G1 F250
G0 X64.750 Y101.500 Z2.000
M400
M204 P150 T150
G1 F120
G1 Z0.000 F2500
G1 X64.500 Y101.500
G1 X64.250 Y101.500
G1 X64.000 Y101.500
G1 X63.750 Y101.500
G1 X63.500 Y101.500
G1 X63.250 Y101.500
G1 X63.000 Y101.500
G1 X62.750 Y101.500
G1 X62.500 Y101.500
G1 X62.250 Y101.500
G1 X62.000 Y101.500
G1 X61.750 Y101.500
G1 X61.500 Y101.500
G1 X61.250 Y101.500
G1 X61.000 Y101.500
G1 X60.750 Y101.500
G1 X60.500 Y101.500
G1 X60.250 Y101.500
G1 X60.000 Y101.500
G1 X59.750 Y101.500
G1 X59.500 Y101.500
G1 X59.250 Y101.500
G1 X59.000 Y101.500
G1 X58.750 Y101.500
G1 X58.500 Y101.500
G1 X58.250 Y101.500
G1 X58.000 Y101.500
G1 X57.750 Y101.500
G1 X57.500 Y101.500
G1 X57.250 Y101.500
G1 X57.000 Y101.500
G1 X56.750 Y101.500
G1 X56.500 Y101.500
G1 X56.250 Y101.500
G1 X56.000 Y101.500
G1 X55.750 Y101.500
G1 X55.500 Y101.500
G1 X55.250 Y101.500
G1 X55.000 Y101.500
G1 X54.750 Y101.500
G0 Z2.000 F3000
M400
M204 P300 T300
G1 F250
G0 X54.250 Y100.750 Z2.000
M400
M204 P150 T150
G1 F120
G1 Z0.000 F2500
G1 X54.500 Y100.750
G1 X54.750 Y100.750
G1 X55.000 Y100.750
G1 X55.250 Y100.750
G1 X55.500 Y100.750
G1 X55.750 Y100.750
G1 X56.000 Y100.750
G1 X56.250 Y100.750
G1 X56.500 Y100.750
G1 X56.750 Y100.750
G1 X57.000 Y100.750
G1 X57.250 Y100.750
G1 X57.500 Y100.750
G1 X57.750 Y100.750
G1 X58.000 Y100.750
G1 X58.250 Y100.750
G1 X58.500 Y100.750
G1 X58.750 Y100.750
G1 X59.000 Y100.750
G1 X59.250 Y100.750
G1 X59.500 Y100.750
G1 X59.750 Y100.750
G1 X60.000 Y100.750
G1 X60.250 Y100.750
G1 X60.500 Y100.750
G1 X60.750 Y100.750
G1 X61.000 Y100.750
G1 X61.250 Y100.750
G1 X61.500 Y100.750
G1 X61.750 Y100.750
G0 Z2.000 F3000

; --- CIKEL NAMAKANJA ---
G0 Z2.000 F3000
M400
M204 P300 T300
G1 F250
G0 X103.742 Y0.000 Z7.000
G1 Z1.000 F3000
G1 X103.742 Y0.000 F2500
G1 X103.742 Y2.500 F2500
G1 X98.742 Y0.000 F2500
G1 X103.742 Y0.000 F2500
G0 Z19.000 F3000
G0 X84.912 Y18.306
G0 Z7.000 F3000
G0 X62.000 Y100.750 Z2.000
M400
M204 P150 T150
G1 F120
G1 Z0.000 F2500
G1 X62.000 Y100.750
G1 X62.250 Y100.750
G1 X62.500 Y100.750
G1 X62.750 Y100.750
G1 X63.000 Y100.750
G1 X63.250 Y100.750
G1 X63.500 Y100.750
G1 X63.750 Y100.750
G1 X64.000 Y100.750
G1 X64.250 Y100.750
G1 X64.500 Y100.750
G0 Z2.000 F3000
M400
M204 P300 T300
G1 F250
G0 X64.000 Y100.000 Z2.000
M400
M204 P150 T150
G1 F120
G1 Z0.000 F2500
G1 X63.750 Y100.000
G1 X63.500 Y100.000
G1 X63.250 Y100.000
G1 X63.000 Y100.000
G1 X62.750 Y100.000
G1 X62.500 Y100.000
G1 X62.250 Y100.000
G1 X62.000 Y100.000
G1 X61.750 Y100.000
G1 X61.500 Y100.000
G1 X61.250 Y100.000
G1 X61.000 Y100.000
G1 X60.750 Y100.000
G1 X60.500 Y100.000
G1 X60.250 Y100.000
G1 X60.000 Y100.000
G1 X59.750 Y100.000
G1 X59.500 Y100.000
G1 X59.250 Y100.000
G1 X59.000 Y100.000
G1 X58.750 Y100.000
G1 X58.500 Y100.000
G1 X58.250 Y100.000
G1 X58.000 Y100.000
G1 X57.750 Y100.000
G1 X57.500 Y100.000
G1 X57.250 Y100.000
G1 X57.000 Y100.000
G1 X56.750 Y100.000
G1 X56.500 Y100.000
G1 X56.250 Y100.000
G1 X56.000 Y100.000
G1 X55.750 Y100.000
G1 X55.500 Y100.000
G1 X55.250 Y100.000
G1 X55.000 Y100.000
G1 X54.750 Y100.000
G1 X54.500 Y100.000
G1 X54.250 Y100.000
G1 X54.000 Y100.000
G1 X53.750 Y100.000
G0 Z2.000 F3000
M400
M204 P300 T300
G1 F250
G0 X53.250 Y99.250 Z2.000
M400
M204 P150 T150
G1 F120
G1 Z0.000 F2500
G1 X53.500 Y99.250
G1 X53.750 Y99.250
G1 X54.000 Y99.250
G1 X54.250 Y99.250
G1 X54.500 Y99.250
G1 X54.750 Y99.250
G1 X55.000 Y99.250
G1 X55.250 Y99.250
G1 X55.500 Y99.250
G1 X55.750 Y99.250
G1 X56.000 Y99.250
G1 X56.250 Y99.250
G1 X56.500 Y99.250
G1 X56.750 Y99.250
G1 X57.000 Y99.250
G1 X57.250 Y99.250
G1 X57.500 Y99.250
G1 X57.750 Y99.250
G1 X58.000 Y99.250
G1 X58.250 Y99.250
G1 X58.500 Y99.250
G1 X58.750 Y99.250
G1 X59.000 Y99.250
G1 X59.250 Y99.250
G1 X59.500 Y99.250
G1 X59.750 Y99.250
G1 X60.000 Y99.250
G1 X60.250 Y99.250
G1 X60.500 Y99.250
G1 X60.750 Y99.250
G1 X61.000 Y99.250
G1 X61.250 Y99.250
G1 X61.500 Y99.250
G1 X61.750 Y99.250
G1 X62.000 Y99.250
G1 X62.250 Y99.250
G1 X62.500 Y99.250
G1 X62.750 Y99.250
G1 X63.000 Y99.250
G1 X63.250 Y99.250
G1 X63.500 Y99.250
G1 X63.750 Y99.250
G0 Z2.000 F3000
M400
M204 P300 T300
G1 F250
G0 X63.500 Y98.500 Z2.000
M400
M204 P150 T150
G1 F120
G1 Z0.000 F2500
G1 X63.250 Y98.500
G1 X63.000 Y98.500
G1 X62.750 Y98.500
G1 X62.500 Y98.500
G1 X62.250 Y98.500
G1 X62.000 Y98.500
G1 X61.750 Y98.500
G1 X61.500 Y98.500
G1 X61.250 Y98.500
G1 X61.000 Y98.500
G1 X60.750 Y98.500
G1 X60.500 Y98.500
G1 X60.250 Y98.500
G1 X60.000 Y98.500
G1 X59.750 Y98.500
G1 X59.500 Y98.500
G1 X59.250 Y98.500
G1 X59.000 Y98.500
G1 X58.750 Y98.500
G1 X58.500 Y98.500
G1 X58.250 Y98.500
G1 X58.000 Y98.500
G1 X57.750 Y98.500
G1 X57.500 Y98.500
G1 X57.250 Y98.500
G1 X57.000 Y98.500
G1 X56.750 Y98.500
G1 X56.500 Y98.500
G1 X56.250 Y98.500
G1 X56.000 Y98.500
G1 X55.750 Y98.500
G1 X55.500 Y98.500
G1 X55.250 Y98.500
G1 X55.000 Y98.500
G1 X54.750 Y98.500
G1 X54.500 Y98.500
G1 X54.250 Y98.500
G1 X54.000 Y98.500
G1 X53.750 Y98.500
G1 X53.500 Y98.500
G1 X53.250 Y98.500
G1 X53.000 Y98.500
G1 X52.750 Y98.500
G1 X52.500 Y98.500
G0 Z2.000 F3000
M400
M204 P300 T300
G1 F250
G0 X52.000 Y97.750 Z2.000
M400
M204 P150 T150
G1 F120
G1 Z0.000 F2500
G1 X52.250 Y97.750
G1 X52.500 Y97.750
G1 X52.750 Y97.750
G1 X53.000 Y97.750
G1 X53.250 Y97.750
G1 X53.500 Y97.750
G1 X53.750 Y97.750
G1 X54.000 Y97.750
G1 X54.250 Y97.750
G1 X54.500 Y97.750
G1 X54.750 Y97.750
G1 X55.000 Y97.750
G1 X55.250 Y97.750
G1 X55.500 Y97.750
G1 X55.750 Y97.750
G1 X56.000 Y97.750
G1 X56.250 Y97.750
G1 X56.500 Y97.750
G1 X56.750 Y97.750
G1 X57.000 Y97.750
G1 X57.250 Y97.750
G1 X57.500 Y97.750
G1 X57.750 Y97.750
G1 X58.000 Y97.750
G1 X58.250 Y97.750
G1 X58.500 Y97.750
G1 X58.750 Y97.750
G1 X59.000 Y97.750
G1 X59.250 Y97.750
G1 X59.500 Y97.750
G1 X59.750 Y97.750
G1 X60.000 Y97.750
G1 X60.250 Y97.750
G1 X60.500 Y97.750
G1 X60.750 Y97.750
G1 X61.000 Y97.750
G1 X61.250 Y97.750
G1 X61.500 Y97.750
G1 X61.750 Y97.750
G1 X62.000 Y97.750
G1 X62.250 Y97.750
G1 X62.500 Y97.750
G1 X62.750 Y97.750
G1 X63.000 Y97.750
G1 X63.250 Y97.750
G0 Z2.000 F3000
M400
M204 P300 T300
G1 F250
G0 X62.750 Y97.000 Z2.000
M400
M204 P150 T150
G1 F120
G1 Z0.000 F2500
G1 X62.500 Y97.000
G1 X62.250 Y97.000
G1 X62.000 Y97.000
G1 X61.750 Y97.000
G1 X61.500 Y97.000
G1 X61.250 Y97.000
G1 X61.000 Y97.000
G1 X60.750 Y97.000
G1 X60.500 Y97.000
G1 X60.250 Y97.000
G1 X60.000 Y97.000
G1 X59.750 Y97.000
G1 X59.500 Y97.000
G1 X59.250 Y97.000
G1 X59.000 Y97.000
G1 X58.750 Y97.000
G1 X58.500 Y97.000
G1 X58.250 Y97.000
G1 X58.000 Y97.000
G1 X57.750 Y97.000
G1 X57.500 Y97.000
G1 X57.250 Y97.000
G1 X57.000 Y97.000
G1 X56.750 Y97.000
G1 X56.500 Y97.000
G1 X56.250 Y97.000
G1 X56.000 Y97.000
G1 X55.750 Y97.000
G1 X55.500 Y97.000
G1 X55.250 Y97.000
G1 X55.000 Y97.000
G1 X54.750 Y97.000
G1 X54.500 Y97.000
G1 X54.250 Y97.000
G1 X54.000 Y97.000
G1 X53.750 Y97.000
G1 X53.500 Y97.000
G1 X53.250 Y97.000
G1 X53.000 Y97.000
G1 X52.750 Y97.000
G1 X52.500 Y97.000
G1 X52.250 Y97.000
G1 X52.000 Y97.000
G1 X51.750 Y97.000
G1 X51.500 Y97.000
G0 Z2.000 F3000
M400
M204 P300 T300
G1 F250
G0 X51.000 Y96.250 Z2.000
M400
M204 P150 T150
G1 F120
G1 Z0.000 F2500
G1 X51.250 Y96.250
G1 X51.500 Y96.250
G1 X51.750 Y96.250
G1 X52.000 Y96.250
G1 X52.250 Y96.250
G1 X52.500 Y96.250
G1 X52.750 Y96.250
G1 X53.000 Y96.250
G1 X53.250 Y96.250
G1 X53.500 Y96.250
G1 X53.750 Y96.250
G1 X54.000 Y96.250
G1 X54.250 Y96.250
G1 X54.500 Y96.250
G1 X54.750 Y96.250
G1 X55.000 Y96.250
G1 X55.250 Y96.250
G1 X55.500 Y96.250
G1 X55.750 Y96.250
G1 X56.000 Y96.250
G1 X56.250 Y96.250
G1 X56.500 Y96.250
G1 X56.750 Y96.250
G1 X57.000 Y96.250
G1 X57.250 Y96.250
G1 X57.500 Y96.250
G1 X57.750 Y96.250
G1 X58.000 Y96.250
G1 X58.250 Y96.250
G1 X58.500 Y96.250
G1 X58.750 Y96.250
G1 X59.000 Y96.250
G1 X59.250 Y96.250
G1 X59.500 Y96.250
G1 X59.750 Y96.250
G1 X60.000 Y96.250
G1 X60.250 Y96.250
G1 X60.500 Y96.250
G1 X60.750 Y96.250
G1 X61.000 Y96.250
G1 X61.250 Y96.250
G1 X61.500 Y96.250
G1 X61.750 Y96.250
G1 X62.000 Y96.250
G1 X62.250 Y96.250
G1 X62.500 Y96.250
G0 Z2.000 F3000
M400
M204 P300 T300
G1 F250
G0 X62.250 Y95.500 Z2.000
M400
M204 P150 T150
G1 F120
G1 Z0.000 F2500
G1 X62.000 Y95.500
G1 X61.750 Y95.500
G1 X61.500 Y95.500
G1 X61.250 Y95.500
G1 X61.000 Y95.500
G1 X60.750 Y95.500
G1 X60.500 Y95.500
G1 X60.250 Y95.500
G1 X60.000 Y95.500
G1 X59.750 Y95.500
G1 X59.500 Y95.500
G1 X59.250 Y95.500
G1 X59.000 Y95.500
G1 X58.750 Y95.500
G1 X58.500 Y95.500
G1 X58.250 Y95.500
G1 X58.000 Y95.500
G1 X57.750 Y95.500
G1 X57.500 Y95.500
G1 X57.250 Y95.500
G1 X57.000 Y95.500
G1 X56.750 Y95.500
G1 X56.500 Y95.500
G1 X56.250 Y95.500
G1 X56.000 Y95.500
G1 X55.750 Y95.500
G1 X55.500 Y95.500
G1 X55.250 Y95.500
G1 X55.000 Y95.500
G1 X54.750 Y95.500
G1 X54.500 Y95.500
G1 X54.250 Y95.500
G1 X54.000 Y95.500
G1 X53.750 Y95.500
G1 X53.500 Y95.500
G1 X53.250 Y95.500
G1 X53.000 Y95.500
G1 X52.750 Y95.500
G1 X52.500 Y95.500
G1 X52.250 Y95.500
G1 X52.000 Y95.500
G1 X51.750 Y95.500
G1 X51.500 Y95.500
G1 X51.250 Y95.500
G1 X51.000 Y95.500
G1 X50.750 Y95.500
G1 X50.500 Y95.500
G0 Z2.000 F3000
M400
M204 P300 T300
G1 F250
G0 X50.000 Y94.750 Z2.000
M400
M204 P150 T150
G1 F120
G1 Z0.000 F2500
G1 X50.250 Y94.750
G1 X50.500 Y94.750
G1 X50.750 Y94.750
G1 X51.000 Y94.750
G1 X51.250 Y94.750
G0 Z2.000 F3000

; --- CIKEL NAMAKANJA ---
G0 Z2.000 F3000
M400
M204 P300 T300
G1 F250
G0 X76.413 Y16.070 Z7.000
G1 Z1.000 F3000
G1 X76.413 Y16.070 F2500
G1 X76.413 Y18.570 F2500
G1 X71.413 Y16.070 F2500
G1 X76.413 Y8.570 F2500
G0 Z19.000 F3000
G0 X82.848 Y17.602
G0 Z7.000 F3000
G0 X51.500 Y94.750 Z2.000
M400
M204 P150 T150
G1 F120
G1 Z0.000 F2500
G1 X51.500 Y94.750
G1 X51.750 Y94.750
G1 X52.000 Y94.750
G1 X52.250 Y94.750
G1 X52.500 Y94.750
G1 X52.750 Y94.750
G1 X53.000 Y94.750
G1 X53.250 Y94.750
G1 X53.500 Y94.750
G1 X53.750 Y94.750
G1 X54.000 Y94.750
G1 X54.250 Y94.750
G1 X54.500 Y94.750
G1 X54.750 Y94.750
G1 X55.000 Y94.750
G1 X55.250 Y94.750
G1 X55.500 Y94.750
G1 X55.750 Y94.750
G1 X56.000 Y94.750
G1 X56.250 Y94.750
G1 X56.500 Y94.750
G1 X56.750 Y94.750
G1 X57.000 Y94.750
G1 X57.250 Y94.750
G1 X57.500 Y94.750
G1 X57.750 Y94.750
G1 X58.000 Y94.750
G1 X58.250 Y94.750
G1 X58.500 Y94.750
G1 X58.750 Y94.750
G1 X59.000 Y94.750
G1 X59.250 Y94.750
G1 X59.500 Y94.750
G1 X59.750 Y94.750
G1 X60.000 Y94.750
G1 X60.250 Y94.750
G1 X60.500 Y94.750
G1 X60.750 Y94.750
G1 X61.000 Y94.750
G1 X61.250 Y94.750
G1 X61.500 Y94.750
G1 X61.750 Y94.750
G0 Z2.000 F3000
M400
M204 P300 T300
G1 F250
G0 X61.500 Y94.000 Z2.000
M400
M204 P150 T150
G1 F120
G1 Z0.000 F2500
G1 X61.250 Y94.000
G1 X61.000 Y94.000
G1 X60.750 Y94.000
G1 X60.500 Y94.000
G1 X60.250 Y94.000
G1 X60.000 Y94.000
G1 X59.750 Y94.000
G1 X59.500 Y94.000
G1 X59.250 Y94.000
G1 X59.000 Y94.000
G1 X58.750 Y94.000
G1 X58.500 Y94.000
G1 X58.250 Y94.000
G1 X58.000 Y94.000
G1 X57.750 Y94.000
G1 X57.500 Y94.000
G1 X57.250 Y94.000
G1 X57.000 Y94.000
G1 X56.750 Y94.000
G1 X56.500 Y94.000
G1 X56.250 Y94.000
G1 X56.000 Y94.000
G1 X55.750 Y94.000
G1 X55.500 Y94.000
G1 X55.250 Y94.000
G1 X55.000 Y94.000
G1 X54.750 Y94.000
G1 X54.500 Y94.000
G1 X54.250 Y94.000
G1 X54.000 Y94.000
G1 X53.750 Y94.000
G1 X53.500 Y94.000
G1 X53.250 Y94.000
G1 X53.000 Y94.000
G1 X52.750 Y94.000
G1 X52.500 Y94.000
G1 X52.250 Y94.000
G1 X52.000 Y94.000
G1 X51.750 Y94.000
G1 X51.500 Y94.000
G1 X51.250 Y94.000
G1 X51.000 Y94.000
G1 X50.750 Y94.000
G1 X50.500 Y94.000
G1 X50.250 Y94.000
G1 X50.000 Y94.000
G1 X49.750 Y94.000
G1 X49.500 Y94.000
G0 Z2.000 F3000
M400
M204 P300 T300
G1 F250
G0 X49.000 Y93.250 Z2.000
M400
M204 P150 T150
G1 F120
G1 Z0.000 F2500
G1 X49.250 Y93.250
G1 X49.500 Y93.250
G1 X49.750 Y93.250
G1 X50.000 Y93.250
G1 X50.250 Y93.250
G1 X50.500 Y93.250
G1 X50.750 Y93.250
G1 X51.000 Y93.250
G1 X51.250 Y93.250
G1 X51.500 Y93.250
G1 X51.750 Y93.250
G1 X52.000 Y93.250
G1 X52.250 Y93.250
G1 X52.500 Y93.250
G1 X52.750 Y93.250
G1 X53.000 Y93.250
G1 X53.250 Y93.250
G1 X53.500 Y93.250
G1 X53.750 Y93.250
G1 X54.000 Y93.250
G1 X54.250 Y93.250
G1 X54.500 Y93.250
G1 X54.750 Y93.250
G1 X55.000 Y93.250
G1 X55.250 Y93.250
G1 X55.500 Y93.250
G1 X55.750 Y93.250
G1 X56.000 Y93.250
G1 X56.250 Y93.250
G1 X56.500 Y93.250
G1 X56.750 Y93.250
G1 X57.000 Y93.250
G1 X57.250 Y93.250
G1 X57.500 Y93.250
G1 X57.750 Y93.250
G1 X58.000 Y93.250
G1 X58.250 Y93.250
G1 X58.500 Y93.250
G1 X58.750 Y93.250
G1 X59.000 Y93.250
G1 X59.250 Y93.250
G1 X59.500 Y93.250
G1 X59.750 Y93.250
G1 X60.000 Y93.250
G1 X60.250 Y93.250
G1 X60.500 Y93.250
G1 X60.750 Y93.250
G1 X61.000 Y93.250
G1 X61.250 Y93.250
G0 Z2.000 F3000
M400
M204 P300 T300
G1 F250
G0 X59.000 Y81.250 Z2.000
M400
M204 P150 T150
G1 F120
G1 Z0.000 F2500
G1 X58.750 Y81.250
G1 X58.500 Y81.250
G1 X58.250 Y81.250
G1 X58.000 Y81.250
G0 Z2.000 F3000
M400
M204 P300 T300
G1 F250
G0 X57.750 Y80.500 Z2.000
M400
M204 P150 T150
G1 F120
G1 Z0.000 F2500
G1 X58.000 Y80.500
G1 X58.250 Y80.500
G1 X58.500 Y80.500
G1 X58.750 Y80.500
G1 X59.000 Y80.500
G1 X59.250 Y80.500
G0 Z2.000 F3000
M400
M204 P300 T300
G1 F250
G0 X59.500 Y79.750 Z2.000
M400
M204 P150 T150
G1 F120
G1 Z0.000 F2500
G1 X59.250 Y79.750
G1 X59.000 Y79.750
G1 X58.750 Y79.750
G1 X58.500 Y79.750
G1 X58.250 Y79.750
G1 X58.000 Y79.750
G1 X57.750 Y79.750
G1 X57.500 Y79.750
G1 X57.250 Y79.750
G0 Z2.000 F3000
M400
M204 P300 T300
G1 F250
G0 X57.000 Y79.000 Z2.000
M400
M204 P150 T150
G1 F120
G1 Z0.000 F2500
G1 X57.250 Y79.000
G1 X57.500 Y79.000
G1 X57.750 Y79.000
G1 X58.000 Y79.000
G1 X58.250 Y79.000
G1 X58.500 Y79.000
G1 X58.750 Y79.000
G1 X59.000 Y79.000
G1 X59.250 Y79.000
G1 X59.500 Y79.000
G1 X59.750 Y79.000
G0 Z2.000 F3000
M400
M204 P300 T300
G1 F250
G0 X60.000 Y78.250 Z2.000
M400
M204 P150 T150
G1 F120
G1 Z0.000 F2500
G1 X59.750 Y78.250
G1 X59.500 Y78.250
G1 X59.250 Y78.250
G1 X59.000 Y78.250
G1 X58.750 Y78.250
G1 X58.500 Y78.250
G1 X58.250 Y78.250
G1 X58.000 Y78.250
G1 X57.750 Y78.250
G1 X57.500 Y78.250
G1 X57.250 Y78.250
G1 X57.000 Y78.250
G1 X56.750 Y78.250
G1 X56.500 Y78.250
G0 Z2.000 F3000
M400
M204 P300 T300
G1 F250
G0 X56.000 Y77.500 Z2.000
M400
M204 P150 T150
G1 F120
G1 Z0.000 F2500
G1 X56.250 Y77.500
G1 X56.500 Y77.500
G1 X56.750 Y77.500
G1 X57.000 Y77.500
G1 X57.250 Y77.500
G1 X57.500 Y77.500
G1 X57.750 Y77.500
G1 X58.000 Y77.500
G1 X58.250 Y77.500
G1 X58.500 Y77.500
G1 X58.750 Y77.500
G1 X59.000 Y77.500
G1 X59.250 Y77.500
G1 X59.500 Y77.500
G1 X59.750 Y77.500
G1 X60.000 Y77.500
G1 X60.250 Y77.500
G1 X60.500 Y77.500
G0 Z2.000 F3000
M400
M204 P300 T300
G1 F250
G0 X60.750 Y76.750 Z2.000
M400
M204 P150 T150
G1 F120
G1 Z0.000 F2500
G1 X60.500 Y76.750
G1 X60.250 Y76.750
G1 X60.000 Y76.750
G1 X59.750 Y76.750
G1 X59.500 Y76.750
G1 X59.250 Y76.750
G1 X59.000 Y76.750
G1 X58.750 Y76.750
G1 X58.500 Y76.750
G1 X58.250 Y76.750
G1 X58.000 Y76.750
G1 X57.750 Y76.750
G1 X57.500 Y76.750
G1 X57.250 Y76.750
G1 X57.000 Y76.750
G1 X56.750 Y76.750
G1 X56.500 Y76.750
G1 X56.250 Y76.750
G1 X56.000 Y76.750
G1 X55.750 Y76.750
G0 Z2.000 F3000
M400
M204 P300 T300
G1 F250
G0 X55.250 Y76.000 Z2.000
M400
M204 P150 T150
G1 F120
G1 Z0.000 F2500
G1 X55.500 Y76.000
G1 X55.750 Y76.000
G1 X56.000 Y76.000
G1 X56.250 Y76.000
G1 X56.500 Y76.000
G1 X56.750 Y76.000
G1 X57.000 Y76.000
G1 X57.250 Y76.000
G1 X57.500 Y76.000
G1 X57.750 Y76.000
G1 X58.000 Y76.000
G1 X58.250 Y76.000
G1 X58.500 Y76.000
G1 X58.750 Y76.000
G1 X59.000 Y76.000
G1 X59.250 Y76.000
G1 X59.500 Y76.000
G1 X59.750 Y76.000
G1 X60.000 Y76.000
G1 X60.250 Y76.000
G1 X60.500 Y76.000
G1 X60.750 Y76.000
G1 X61.000 Y76.000
G0 Z2.000 F3000
M400
M204 P300 T300
G1 F250
G0 X61.750 Y70.000 Z2.000
M400
M204 P150 T150
G1 F120
G1 Z0.000 F2500
G1 X62.000 Y70.000
G1 X62.250 Y70.000
G1 X62.500 Y70.000
G1 X62.750 Y70.000
G1 X63.000 Y70.000
G0 Z2.000 F3000
M400
M204 P300 T300
G1 F250
G0 X63.500 Y69.250 Z2.000
M400
M204 P150 T150
G1 F120
G1 Z0.000 F2500
G1 X63.250 Y69.250
G1 X63.000 Y69.250
G1 X62.750 Y69.250
G1 X62.500 Y69.250
G1 X62.250 Y69.250
G1 X62.000 Y69.250
G1 X61.750 Y69.250
G1 X61.500 Y69.250
G1 X61.250 Y69.250
G1 X61.000 Y69.250
G1 X60.750 Y69.250
G1 X60.500 Y69.250
G0 Z2.000 F3000
M400
M204 P300 T300
G1 F250
G0 X59.250 Y68.500 Z2.000
M400
M204 P150 T150
G1 F120
G1 Z0.000 F2500
G1 X59.500 Y68.500
G1 X59.750 Y68.500
G1 X60.000 Y68.500
G1 X60.250 Y68.500
G1 X60.500 Y68.500
G1 X60.750 Y68.500
G1 X61.000 Y68.500
G1 X61.250 Y68.500
G1 X61.500 Y68.500
G1 X61.750 Y68.500
G1 X62.000 Y68.500
G1 X62.250 Y68.500
G1 X62.500 Y68.500
G1 X62.750 Y68.500
G1 X63.000 Y68.500
G1 X63.250 Y68.500
G1 X63.500 Y68.500
G1 X63.750 Y68.500
G0 Z2.000 F3000
M400
M204 P300 T300
G1 F250
G0 X68.000 Y65.500 Z2.000
M400
M204 P150 T150
G1 F120
G1 Z0.000 F2500
G1 X68.250 Y65.500
G1 X68.500 Y65.500
G1 X68.750 Y65.500
G1 X69.000 Y65.500
G1 X69.250 Y65.500
G1 X69.500 Y65.500
G1 X69.750 Y65.500
G1 X70.000 Y65.500
G1 X70.250 Y65.500
G1 X70.500 Y65.500
G1 X70.750 Y65.500
G1 X71.000 Y65.500
G1 X71.250 Y65.500
G1 X71.500 Y65.500
G1 X71.750 Y65.500
G1 X72.000 Y65.500
G1 X72.250 Y65.500
G1 X72.500 Y65.500
G1 X72.750 Y65.500
G1 X73.000 Y65.500
G1 X73.250 Y65.500
G1 X73.500 Y65.500
G1 X73.750 Y65.500
G1 X74.000 Y65.500
G1 X74.250 Y65.500
G1 X74.500 Y65.500
G1 X74.750 Y65.500
G1 X75.000 Y65.500
G1 X75.250 Y65.500
G1 X75.500 Y65.500
G1 X75.750 Y65.500
G1 X76.000 Y65.500
G1 X76.250 Y65.500
G1 X76.500 Y65.500
G1 X76.750 Y65.500
G1 X77.000 Y65.500
G1 X77.250 Y65.500
G1 X77.500 Y65.500
G1 X77.750 Y65.500
G1 X78.000 Y65.500
G1 X78.250 Y65.500
G1 X78.500 Y65.500
G1 X78.750 Y65.500
G1 X79.000 Y65.500
G1 X79.250 Y65.500
G1 X79.500 Y65.500
G1 X79.750 Y65.500
G1 X80.000 Y65.500
G1 X80.250 Y65.500
G1 X80.500 Y65.500
G1 X80.750 Y65.500
G1 X81.000 Y65.500
G1 X81.250 Y65.500
G1 X81.500 Y65.500
G1 X81.750 Y65.500
G1 X82.000 Y65.500
G0 Z2.000 F3000
M400
M204 P300 T300
G1 F250
G0 X81.000 Y71.500 Z2.000
M400
M204 P150 T150
G1 F120
G1 Z0.000 F2500
G1 X80.750 Y71.500
G1 X80.500 Y71.500
G1 X80.250 Y71.500
G1 X80.000 Y71.500
G1 X79.750 Y71.500
G1 X79.500 Y71.500
G1 X79.250 Y71.500
G1 X79.000 Y71.500
G1 X78.750 Y71.500
G1 X78.500 Y71.500
G1 X78.250 Y71.500
G1 X78.000 Y71.500
G1 X77.750 Y71.500
G1 X77.500 Y71.500
G1 X77.250 Y71.500
G1 X77.000 Y71.500
G1 X76.750 Y71.500
G1 X76.500 Y71.500
G1 X76.250 Y71.500
G1 X76.000 Y71.500
G1 X75.750 Y71.500
G1 X75.500 Y71.500
G1 X75.250 Y71.500
G1 X75.000 Y71.500
G1 X74.750 Y71.500
G1 X74.500 Y71.500
G1 X74.250 Y71.500
G1 X74.000 Y71.500
G1 X73.750 Y71.500
G0 Z2.000 F3000
M400
M204 P300 T300
G1 F250
G0 X75.750 Y74.500 Z2.000
M400
M204 P150 T150
G1 F120
G1 Z0.000 F2500
G1 X76.000 Y74.500
G1 X76.250 Y74.500
G1 X76.500 Y74.500
G1 X76.750 Y74.500
G1 X77.000 Y74.500
G1 X77.250 Y74.500
G1 X77.500 Y74.500
G1 X77.750 Y74.500
G1 X78.000 Y74.500
G1 X78.250 Y74.500
G1 X78.500 Y74.500
G1 X78.750 Y74.500
G1 X79.000 Y74.500
G1 X79.250 Y74.500
G1 X79.500 Y74.500
G1 X79.750 Y74.500
G1 X80.000 Y74.500
G1 X80.250 Y74.500
G1 X80.500 Y74.500
G1 X80.750 Y74.500
G1 X81.000 Y74.500
G1 X81.250 Y74.500
G1 X81.500 Y74.500
G1 X81.750 Y74.500
G1 X82.000 Y74.500
G1 X82.250 Y74.500
G1 X82.500 Y74.500
G1 X82.750 Y74.500
G1 X83.000 Y74.500
G1 X83.250 Y74.500
G1 X83.500 Y74.500
G1 X83.750 Y74.500
G1 X84.000 Y74.500
G0 Z2.000 F3000

; --- CIKEL NAMAKANJA ---
G0 Z2.000 F3000
M400
M204 P300 T300
G1 F250
G0 X107.857 Y4.804 Z7.000
G1 Z1.000 F3000
G1 X107.857 Y4.804 F2500
G1 X107.857 Y7.304 F2500
G1 X102.857 Y4.804 F2500
G1 X107.857 Y0.000 F2500
G0 Z19.000 F3000
G0 X88.538 Y18.944
G0 Z7.000 F3000
G0 X84.250 Y74.500 Z2.000
M400
M204 P150 T150
G1 F120
G1 Z0.000 F2500
G1 X84.250 Y74.500
G1 X84.500 Y74.500
G1 X84.750 Y74.500
G1 X85.000 Y74.500
G1 X85.250 Y74.500
G1 X85.500 Y74.500
G1 X85.750 Y74.500
G1 X86.000 Y74.500
G1 X86.250 Y74.500
G1 X86.500 Y74.500
G1 X86.750 Y74.500
G1 X87.000 Y74.500
G1 X87.250 Y74.500
G1 X87.500 Y74.500
G1 X87.750 Y74.500
G1 X88.000 Y74.500
G1 X88.250 Y74.500
G1 X88.500 Y74.500
G1 X88.750 Y74.500
G1 X89.000 Y74.500
G0 Z2.000 F3000
M400
