G90
G21
; === MULTI-COLOR PAINTER GCODE ===
; Generated layers: 1
; Backlash compensation: OFF
; Working area clamping: ON  X[0–150] Y[0–150]
; Tutti Frutti mode: OFF


; ═══════════════════════════════
; LAYER 2: Color 2 — Teal
; Infill: lines
; ═══════════════════════════════


; --- CIKEL NAMAKANJA ---
G0 Z2.000 F3000
M400
M204 P600 T600
G1 F1300
G0 X55.891 Y3.872 Z8.000
G1 Z1.000 F3000
G1 X55.891 Y3.872 F2500
G1 X55.891 Y5.622 F2500
G1 X52.391 Y3.872 F2500
G1 X55.891 Y0.000 F2500
G0 Z3.000 F3000
G0 X62.727 Y19.650
G0 Z8.000 F3000
G0 X64.500 Y29.000 Z2.000
M400
M204 P600 T600
G1 F1300
G0 X64.500 Y29.000 Z2.000
M400
M204 P200 T200
G1 F600
G1 Z0.000 F2500
G1 X64.500 Y29.000
G0 Z2.000 F3000
M400
M204 P600 T600
G1 F1300
G0 X62.750 Y30.750 Z2.000
M400
M204 P200 T200
G1 F600
G1 Z0.000 F2500
G1 X62.750 Y30.750
G1 X62.500 Y31.000
G1 X62.250 Y31.250
G1 X62.250 Y31.500
G0 Z2.000 F3000
M400
M204 P600 T600
G1 F1300
G0 X60.500 Y29.750 Z2.000
M400
M204 P200 T200
G1 F600
G1 Z0.000 F2500
G1 X60.500 Y29.500
G1 X60.750 Y29.250
G1 X61.000 Y29.000
G1 X61.000 Y29.000
G0 Z2.000 F3000
M400
M204 P600 T600
G1 F1300
G0 X59.000 Y31.000 Z2.000
M400
M204 P200 T200
G1 F600
G1 Z0.000 F2500
G1 X58.750 Y31.250
G1 X58.500 Y31.500
G1 X58.500 Y31.500
G0 Z2.000 F3000
M400
M204 P600 T600
G1 F1300
G0 X60.250 Y33.250 Z2.000
M400
M204 P200 T200
G1 F600
G1 Z0.000 F2500
G1 X60.500 Y33.250
G1 X60.500 Y33.000
G0 Z2.000 F3000
M400
M204 P600 T600
G1 F1300
G0 X58.500 Y35.000 Z2.000
M400
M204 P200 T200
G1 F600
G1 Z0.000 F2500
G1 X58.500 Y35.000
G0 Z2.000 F3000
M400
M204 P600 T600
G1 F1300
G0 X57.000 Y33.000 Z2.000
M400
M204 P200 T200
G1 F600
G1 Z0.000 F2500
G1 X56.750 Y33.250
G1 X56.750 Y33.250
G1 X56.500 Y33.500
G1 X56.250 Y33.750
G1 X56.250 Y33.750
G0 Z2.000 F3000
M400
M204 P600 T600
G1 F1300
G0 X54.750 Y31.750 Z2.000
M400
M204 P200 T200
G1 F600
G1 Z0.000 F2500
G1 X55.000 Y31.500
G1 X55.000 Y31.500
G1 X55.250 Y31.250
G0 Z2.000 F3000
M400
M204 P600 T600
G1 F1300
G0 X56.750 Y29.750 Z2.000
M400
M204 P200 T200
G1 F600
G1 Z0.000 F2500
G1 X56.750 Y29.750
G1 X57.000 Y29.500
G1 X57.250 Y29.250
G1 X57.250 Y29.000
G0 Z2.000 F3000
M400
M204 P600 T600
G1 F1300
G0 X53.250 Y29.750 Z2.000
M400
M204 P200 T200
G1 F600
G1 Z0.000 F2500
G1 X53.250 Y29.750
G0 Z2.000 F3000
M400
M204 P600 T600
G1 F1300
G0 X51.250 Y31.500 Z2.000
M400
M204 P200 T200
G1 F600
G1 Z0.000 F2500
G1 X51.250 Y31.750
G1 X51.000 Y32.000
G1 X50.750 Y32.000
G0 Z2.000 F3000
M400
M204 P600 T600
G1 F1300
G0 X52.500 Y34.000 Z2.000
M400
M204 P200 T200
G1 F600
G1 Z0.000 F2500
G1 X52.500 Y33.750
G1 X52.750 Y33.750
G1 X53.000 Y33.500
G1 X53.250 Y33.250
G1 X53.250 Y33.250
G0 Z2.000 F3000
M400
M204 P600 T600
G1 F1300
G0 X55.000 Y35.000 Z2.000
M400
M204 P200 T200
G1 F600
G1 Z0.000 F2500
G1 X55.000 Y35.000
G1 X54.750 Y35.250
G1 X54.500 Y35.500
G0 Z2.000 F3000
M400
M204 P600 T600
G1 F1300
G0 X56.750 Y36.750 Z2.000
M400
M204 P200 T200
G1 F600
G1 Z0.000 F2500
G1 X56.750 Y37.000
G1 X56.500 Y37.000
G1 X56.250 Y37.250
G1 X56.250 Y37.500
G0 Z2.000 F3000
M400
M204 P600 T600
G1 F1300
G0 X54.500 Y39.000 Z2.000
M400
M204 P200 T200
G1 F600
G1 Z0.000 F2500
G1 X54.250 Y39.250
G1 X54.250 Y39.250
G0 Z2.000 F3000
M400
M204 P600 T600
G1 F1300
G0 X52.250 Y37.750 Z2.000
M400
M204 P200 T200
G1 F600
G1 Z0.000 F2500
G1 X52.500 Y37.500
G1 X52.500 Y37.500
G1 X52.750 Y37.250
G1 X53.000 Y37.000
G0 Z2.000 F3000
M400
M204 P600 T600
G1 F1300
G0 X51.250 Y35.000 Z2.000
M400
M204 P200 T200
G1 F600
G1 Z0.000 F2500
G1 X51.250 Y35.250
G1 X51.000 Y35.500
G1 X50.750 Y35.750
G1 X50.750 Y35.750
G1 X50.500 Y36.000
G0 Z2.000 F3000
M400
M204 P600 T600
G1 F1300
G0 X49.250 Y33.750 Z2.000
M400
M204 P200 T200
G1 F600
G1 Z0.000 F2500
G1 X49.000 Y33.750
G0 Z2.000 F3000
M400
M204 P600 T600
G1 F1300
G0 X49.250 Y37.250 Z2.000
M400
M204 P200 T200
G1 F600
G1 Z0.000 F2500
G1 X49.000 Y37.500
G1 X49.000 Y37.500
G1 X48.750 Y37.750
G1 X48.500 Y38.000
G0 Z2.000 F3000
M400
M204 P600 T600
G1 F1300
G0 X50.250 Y39.750 Z2.000
M400
M204 P200 T200
G1 F600
G1 Z0.000 F2500
G1 X50.500 Y39.500
G1 X50.750 Y39.250
G1 X50.750 Y39.250
G1 X51.000 Y39.000
G0 Z2.000 F3000
M400
M204 P600 T600
G1 F1300
G0 X52.500 Y41.000 Z2.000
M400
M204 P200 T200
G1 F600
G1 Z0.000 F2500
G1 X52.500 Y41.000
G1 X52.250 Y41.250
G0 Z2.000 F3000
M400
M204 P600 T600
G1 F1300
G0 X50.750 Y43.000 Z2.000
M400
M204 P200 T200
G1 F600
G1 Z0.000 F2500
G1 X50.500 Y43.000
G1 X50.250 Y43.250
G1 X50.250 Y43.500
G0 Z2.000 F3000
M400
M204 P600 T600
G1 F1300
G0 X48.500 Y41.500 Z2.000
M400
M204 P200 T200
G1 F600
G1 Z0.000 F2500
G1 X48.750 Y41.250
G0 Z2.000 F3000
M400
M204 P600 T600
G1 F1300
G0 X46.750 Y39.750 Z2.000
M400
M204 P200 T200
G1 F600
G1 Z0.000 F2500
G1 X47.000 Y39.500
G1 X47.000 Y39.250
G0 Z2.000 F3000
M400
M204 P600 T600
G1 F1300
G0 X45.000 Y41.500 Z2.000
M400
M204 P200 T200
G1 F600
G1 Z0.000 F2500
G1 X44.750 Y41.750
G1 X44.750 Y41.750
G0 Z2.000 F3000
M400
M204 P600 T600
G1 F1300
G0 X46.250 Y43.750 Z2.000
M400
M204 P200 T200
G1 F600
G1 Z0.000 F2500
G1 X46.500 Y43.500
G1 X46.500 Y43.500
G1 X46.750 Y43.250
G1 X47.000 Y43.000
G1 X47.000 Y43.000
G0 Z2.000 F3000
M400
M204 P600 T600
G1 F1300
G0 X48.500 Y45.000 Z2.000
M400
M204 P200 T200
G1 F600
G1 Z0.000 F2500
G1 X48.250 Y45.250
G1 X48.250 Y45.250
G0 Z2.000 F3000
M400
M204 P600 T600
G1 F1300
G0 X46.500 Y47.000 Z2.000
M400
M204 P200 T200
G1 F600
G1 Z0.000 F2500
G1 X46.500 Y47.250
G1 X46.250 Y47.250
G1 X46.000 Y47.500
G0 Z2.000 F3000
M400
M204 P600 T600
G1 F1300
G0 X44.250 Y45.750 Z2.000
M400
M204 P200 T200
G1 F600
G1 Z0.000 F2500
G1 X44.500 Y45.500
G1 X44.750 Y45.250
G1 X44.750 Y45.250
G1 X45.000 Y45.000
G0 Z2.000 F3000
M400
M204 P600 T600
G1 F1300
G0 X43.000 Y43.500 Z2.000
M400
M204 P200 T200
G1 F600
G1 Z0.000 F2500
G1 X43.000 Y43.500
G1 X42.750 Y43.750
G1 X42.500 Y44.000
G0 Z2.000 F3000
M400
M204 P600 T600
G1 F1300
G0 X41.000 Y45.250 Z2.000
M400
M204 P200 T200
G1 F600
G1 Z0.000 F2500
G1 X41.000 Y45.500
G1 X40.750 Y45.750
G1 X40.500 Y46.000
G1 X40.500 Y46.000
G0 Z2.000 F3000
M400
M204 P600 T600
G1 F1300
G0 X42.250 Y47.750 Z2.000
M400
M204 P200 T200
G1 F600
G1 Z0.000 F2500
G1 X42.250 Y47.750
G1 X42.500 Y47.500
G1 X42.750 Y47.250
G1 X43.000 Y47.250
G0 Z2.000 F3000
M400
M204 P600 T600
G1 F1300
G0 X44.250 Y49.250 Z2.000
M400
M204 P200 T200
G1 F600
G1 Z0.000 F2500
G1 X44.500 Y49.000
G1 X44.750 Y49.000
G0 Z2.000 F3000
M400
M204 P600 T600
G1 F1300
G0 X42.500 Y51.000 Z2.000
M400
M204 P200 T200
G1 F600
G1 Z0.000 F2500
G1 X42.250 Y51.250
G1 X42.250 Y51.250
G1 X42.000 Y51.500
G0 Z2.000 F3000
M400
M204 P600 T600
G1 F1300
G0 X40.250 Y49.750 Z2.000
M400
M204 P200 T200
G1 F600
G1 Z0.000 F2500
G1 X40.500 Y49.500
G1 X40.500 Y49.500
G1 X40.750 Y49.250
G1 X41.000 Y49.000
G1 X41.000 Y49.000
G0 Z2.000 F3000
M400
M204 P600 T600
G1 F1300
G0 X39.000 Y47.500 Z2.000
M400
M204 P200 T200
G1 F600
G1 Z0.000 F2500
G1 X38.750 Y47.750
G1 X38.750 Y47.750
G1 X38.500 Y48.000
G0 Z2.000 F3000
M400
M204 P600 T600
G1 F1300
G0 X37.250 Y49.250 Z2.000
M400
M204 P200 T200
G1 F600
G1 Z0.000 F2500
G1 X37.000 Y49.500
G1 X36.750 Y49.500
G1 X36.750 Y49.750
G1 X36.500 Y50.000
G0 Z2.000 F3000
M400
M204 P600 T600
G1 F1300
G0 X38.250 Y51.750 Z2.000
M400
M204 P200 T200
G1 F600
G1 Z0.000 F2500
G1 X38.500 Y51.500
G1 X38.750 Y51.250
G1 X38.750 Y51.250
G1 X39.000 Y51.000
G0 Z2.000 F3000
M400
M204 P600 T600
G1 F1300
G0 X40.500 Y53.000 Z2.000
M400
M204 P200 T200
G1 F600
G1 Z0.000 F2500
G1 X40.500 Y53.250
G1 X40.250 Y53.250
G1 X40.000 Y53.500
G0 Z2.000 F3000
M400
M204 P600 T600
G1 F1300
G0 X38.750 Y55.000 Z2.000
M400
M204 P200 T200
G1 F600
G1 Z0.000 F2500
G1 X38.500 Y55.000
G1 X38.250 Y55.250
G1 X38.000 Y55.500
G1 X38.000 Y55.500
G0 Z2.000 F3000
M400
M204 P600 T600
G1 F1300
G0 X36.250 Y53.750 Z2.000
M400
M204 P200 T200
G1 F600
G1 Z0.000 F2500
G1 X36.250 Y53.750
G1 X36.500 Y53.500
G1 X36.750 Y53.250
G1 X36.750 Y53.250
G1 X37.000 Y53.000
G0 Z2.000 F3000
M400
M204 P600 T600
G1 F1300
G0 X35.000 Y51.250 Z2.000
M400
M204 P200 T200
G1 F600
G1 Z0.000 F2500
G1 X35.000 Y51.500
G1 X34.750 Y51.750
G1 X34.500 Y52.000
G1 X34.500 Y52.000
G0 Z2.000 F3000
M400
M204 P600 T600
G1 F1300
G0 X33.000 Y53.500 Z2.000
M400
M204 P200 T200
G1 F600
G1 Z0.000 F2500
G1 X32.750 Y53.750
G1 X32.750 Y53.750
G1 X32.500 Y54.000
G0 Z2.000 F3000
M400
M204 P600 T600
G1 F1300
G0 X34.250 Y55.750 Z2.000
M400
M204 P200 T200
G1 F600
G1 Z0.000 F2500
G1 X34.500 Y55.500
G1 X34.500 Y55.500
G1 X34.750 Y55.250
G1 X35.000 Y55.000
G1 X35.000 Y55.000
G0 Z2.000 F3000
M400
M204 P600 T600
G1 F1300
G0 X36.500 Y57.000 Z2.000
M400
M204 P200 T200
G1 F600
G1 Z0.000 F2500
G1 X36.250 Y57.250
G1 X36.250 Y57.500
G1 X36.000 Y57.500
G0 Z2.000 F3000
M400
M204 P600 T600
G1 F1300
G0 X34.500 Y59.000 Z2.000
M400
M204 P200 T200
G1 F600
G1 Z0.000 F2500
G1 X34.500 Y59.250
G1 X34.250 Y59.250
G1 X34.000 Y59.500
G0 Z2.000 F3000
M400
M204 P600 T600
G1 F1300
G0 X32.250 Y57.750 Z2.000
M400
M204 P200 T200
G1 F600
G1 Z0.000 F2500
G1 X32.500 Y57.500
G1 X32.750 Y57.500
G1 X32.750 Y57.250
G0 Z2.000 F3000
M400
M204 P600 T600
G1 F1300
G0 X31.000 Y55.500 Z2.000
M400
M204 P200 T200
G1 F600
G1 Z0.000 F2500
G1 X30.750 Y55.500
G1 X30.750 Y55.750
G1 X30.500 Y56.000
G0 Z2.000 F3000
M400
M204 P600 T600
G1 F1300
G0 X29.000 Y57.500 Z2.000
M400
M204 P200 T200
G1 F600
G1 Z0.000 F2500
G1 X29.000 Y57.500
G1 X28.750 Y57.750
G1 X28.500 Y58.000
G1 X28.500 Y58.000
G0 Z2.000 F3000
M400
M204 P600 T600
G1 F1300
G0 X30.250 Y59.750 Z2.000
M400
M204 P200 T200
G1 F600
G1 Z0.000 F2500
G1 X30.250 Y59.750
G1 X30.500 Y59.500
G1 X30.750 Y59.250
G1 X30.750 Y59.250
G0 Z2.000 F3000
M400
M204 P600 T600
G1 F1300
G0 X32.750 Y61.000 Z2.000
M400
M204 P200 T200
G1 F600
G1 Z0.000 F2500
G1 X32.500 Y61.000
G1 X32.250 Y61.250
G1 X32.000 Y61.500
G1 X32.000 Y61.750
G0 Z2.000 F3000
M400
M204 P600 T600
G1 F1300
G0 X30.500 Y63.000 Z2.000
M400
M204 P200 T200
G1 F600
G1 Z0.000 F2500
G1 X30.250 Y63.250
G1 X30.250 Y63.500
G1 X30.000 Y63.500
G0 Z2.000 F3000
M400
M204 P600 T600
G1 F1300
G0 X28.250 Y61.750 Z2.000
M400
M204 P200 T200
G1 F600
G1 Z0.000 F2500
G1 X28.500 Y61.750
G1 X28.500 Y61.500
G1 X28.750 Y61.250
G0 Z2.000 F3000
M400
M204 P600 T600
G1 F1300
G0 X27.000 Y59.500 Z2.000
M400
M204 P200 T200
G1 F600
G1 Z0.000 F2500
G1 X26.750 Y59.750
G1 X26.500 Y59.750
G1 X26.500 Y60.000
G0 Z2.000 F3000
M400
M204 P600 T600
G1 F1300
G0 X25.000 Y61.500 Z2.000
M400
M204 P200 T200
G1 F600
G1 Z0.000 F2500
G1 X24.750 Y61.750
G1 X24.750 Y61.750
G1 X24.500 Y62.000
G0 Z2.000 F3000
M400
M204 P600 T600
G1 F1300
G0 X26.250 Y63.750 Z2.000
M400
M204 P200 T200
G1 F600
G1 Z0.000 F2500
G1 X26.500 Y63.500
G1 X26.500 Y63.500
G1 X26.750 Y63.250
G0 Z2.000 F3000
M400
M204 P600 T600
G1 F1300
G0 X28.500 Y65.000 Z2.000
M400
M204 P200 T200
G1 F600
G1 Z0.000 F2500
G1 X28.500 Y65.250
G1 X28.250 Y65.250
G1 X28.000 Y65.500
G0 Z2.000 F3000
M400
M204 P600 T600
G1 F1300
G0 X24.500 Y65.500 Z2.000
M400
M204 P200 T200
G1 F600
G1 Z0.000 F2500
G1 X24.250 Y65.750
G1 X24.250 Y65.750
G0 Z2.000 F3000
M400
M204 P600 T600
G1 F1300
G0 X22.750 Y67.250 Z2.000
M400
M204 P200 T200
G1 F600
G1 Z0.000 F2500
G1 X22.500 Y67.500
G1 X22.250 Y67.750
G1 X22.250 Y67.750
G0 Z2.000 F3000
M400
M204 P600 T600
G1 F1300
G0 X20.750 Y65.750 Z2.000
M400
M204 P200 T200
G1 F600
G1 Z0.000 F2500
G1 X20.500 Y65.750
G0 Z2.000 F3000
M400
M204 P600 T600
G1 F1300
G0 X18.750 Y67.750 Z2.000
M400
M204 P200 T200
G1 F600
G1 Z0.000 F2500
G1 X18.750 Y67.750
G1 X18.500 Y68.000
G0 Z2.000 F3000
M400
M204 P600 T600
G1 F1300
G0 X20.250 Y69.750 Z2.000
M400
M204 P200 T200
G1 F600
G1 Z0.000 F2500
G1 X20.500 Y69.500
G1 X20.500 Y69.500
G1 X20.750 Y69.250
G0 Z2.000 F3000
M400
M204 P600 T600
G1 F1300
G0 X22.250 Y71.250 Z2.000
M400
M204 P200 T200
G1 F600
G1 Z0.000 F2500
G1 X22.250 Y71.250
G0 Z2.000 F3000
M400
M204 P600 T600
G1 F1300
G0 X20.250 Y73.250 Z2.000
M400
M204 P200 T200
G1 F600
G1 Z0.000 F2500
G1 X20.000 Y73.500
G1 X20.000 Y73.750
G0 Z2.000 F3000
M400
M204 P600 T600
G1 F1300
G0 X18.250 Y72.000 Z2.000
M400
M204 P200 T200
G1 F600
G1 Z0.000 F2500
G1 X18.250 Y71.750
G1 X18.500 Y71.500
G1 X18.750 Y71.250
G1 X18.750 Y71.250
G0 Z2.000 F3000
M400
M204 P600 T600
G1 F1300
G0 X16.750 Y69.750 Z2.000
M400
M204 P200 T200
G1 F600
G1 Z0.000 F2500
G1 X16.500 Y70.000
G0 Z2.000 F3000
M400
M204 P600 T600
G1 F1300
G0 X16.500 Y73.500 Z2.000
M400
M204 P200 T200
G1 F600
G1 Z0.000 F2500
G1 X16.250 Y73.750
G1 X16.250 Y73.750
G0 Z2.000 F3000
M400
M204 P600 T600
G1 F1300
G0 X18.000 Y75.500 Z2.000
M400
M204 P200 T200
G1 F600
G1 Z0.000 F2500
G1 X18.250 Y75.500
G1 X18.250 Y75.250
G0 Z2.000 F3000
M400
M204 P600 T600
G1 F1300
G0 X16.250 Y77.250 Z2.000
M400
M204 P200 T200
G1 F600
G1 Z0.000 F2500
G1 X16.250 Y77.250
G1 X16.000 Y77.500
G0 Z2.000 F3000
M400
M204 P600 T600
G1 F1300
G0 X14.500 Y75.500 Z2.000
M400
M204 P200 T200
G1 F600
G1 Z0.000 F2500
G1 X14.500 Y75.500
G0 Z2.000 F3000
M400
M204 P600 T600
G1 F1300
G0 X12.500 Y77.500 Z2.000
M400
M204 P200 T200
G1 F600
G1 Z0.000 F2500
G1 X12.250 Y77.750
G0 Z2.000 F3000
M400
M204 P600 T600
G1 F1300
G0 X14.000 Y79.500 Z2.000
M400
M204 P200 T200
G1 F600
G1 Z0.000 F2500
G1 X14.000 Y79.750
G0 Z2.000 F3000
M400
M204 P600 T600
G1 F1300
G0 X10.500 Y79.500 Z2.000
M400
M204 P200 T200
G1 F600
G1 Z0.000 F2500
G1 X10.250 Y79.750
G1 X10.250 Y79.750
G0 Z2.000 F3000
M400
M204 P600 T600
G1 F1300
G0 X8.500 Y78.000 Z2.000
M400
M204 P200 T200
G1 F600
G1 Z0.000 F2500
G1 X8.500 Y78.000
G1 X8.750 Y77.750
G0 Z2.000 F3000
M400
M204 P600 T600
G1 F1300
G0 X6.750 Y79.750 Z2.000
M400
M204 P200 T200
G1 F600
G1 Z0.000 F2500
G1 X6.750 Y79.750
G1 X6.500 Y80.000
G0 Z2.000 F3000
M400
M204 P600 T600
G1 F1300
G0 X8.250 Y81.750 Z2.000
M400
M204 P200 T200
G1 F600
G1 Z0.000 F2500
G1 X8.500 Y81.500
G1 X8.500 Y81.500
G0 Z2.000 F3000
M400
M204 P600 T600
G1 F1300
G0 X4.750 Y81.750 Z2.000
M400
M204 P200 T200
G1 F600
G1 Z0.000 F2500
G1 X4.500 Y82.000
G0 Z2.000 F3000
M400
M204 P600 T600
G1 F1300
G0 X2.750 Y83.750 Z2.000
M400
M204 P200 T200
G1 F600
G1 Z0.000 F2500
G1 X2.500 Y84.000
G1 X2.500 Y84.000
G0 Z2.000 F3000
M400
M204 P600 T600
G1 F1300
G0 X4.000 Y86.000 Z2.000
M400
M204 P200 T200
G1 F600
G1 Z0.000 F2500
G1 X4.250 Y85.750
G1 X4.250 Y85.750
G1 X4.500 Y85.500
G0 Z2.000 F3000
M400
M204 P600 T600
G1 F1300
G0 X6.000 Y87.500 Z2.000
M400
M204 P200 T200
G1 F600
G1 Z0.000 F2500
G1 X6.000 Y87.500
G0 Z2.000 F3000
M400
M204 P600 T600
G1 F1300
G0 X4.250 Y89.250 Z2.000
M400
M204 P200 T200
G1 F600
G1 Z0.000 F2500
G1 X4.250 Y89.500
G1 X4.000 Y89.500
G0 Z2.000 F3000
M400
M204 P600 T600
G1 F1300
G0 X2.000 Y88.000 Z2.000
M400
M204 P200 T200
G1 F600
G1 Z0.000 F2500
G1 X2.250 Y87.750
G1 X2.500 Y87.500
G1 X2.500 Y87.500
G0 Z2.000 F3000
M400
M204 P600 T600
G1 F1300
G0 X0.750 Y85.750 Z2.000
M400
M204 P200 T200
G1 F600
G1 Z0.000 F2500
G1 X0.750 Y85.750
G1 X0.500 Y86.000
G1 X0.250 Y86.250
G1 X0.000 Y86.250
G0 Z2.000 F3000
M400
M204 P600 T600
G1 F1300
G0 X0.750 Y89.500 Z2.000
M400
M204 P200 T200
G1 F600
G1 Z0.000 F2500
G1 X0.500 Y89.500
G1 X0.250 Y89.750
G1 X0.000 Y90.000
G1 X0.000 Y90.000
G1 X0.000 Y90.250
G0 Z2.000 F3000
M400
M204 P600 T600
G1 F1300
G0 X2.000 Y91.500 Z2.000
M400
M204 P200 T200
G1 F600
G1 Z0.000 F2500
G1 X2.250 Y91.250
G0 Z2.000 F3000
M400
M204 P600 T600
G1 F1300
G0 X0.000 Y93.500 Z2.000
M400
M204 P200 T200
G1 F600
G1 Z0.000 F2500
G1 X0.000 Y93.500
G1 X0.000 Y93.750
G0 Z2.000 F3000
M400
M204 P600 T600
G1 F1300
G0 X10.500 Y104.250 Z2.000
M400
M204 P200 T200
G1 F600
G1 Z0.000 F2500
G1 X10.750 Y104.000
G0 Z2.000 F3000
M400
M204 P600 T600
G1 F1300
G0 X12.500 Y102.250 Z2.000
M400
M204 P200 T200
G1 F600
G1 Z0.000 F2500
G1 X12.750 Y102.000
G1 X12.750 Y102.000
G0 Z2.000 F3000
M400
M204 P600 T600
G1 F1300
G0 X14.500 Y100.250 Z2.000
M400
M204 P200 T200
G1 F600
G1 Z0.000 F2500
G1 X14.500 Y100.250
G1 X14.750 Y100.000
G0 Z2.000 F3000
M400
M204 P600 T600
G1 F1300
G0 X16.500 Y98.250 Z2.000
M400
M204 P200 T200
G1 F600
G1 Z0.000 F2500
G1 X16.750 Y98.000
G0 Z2.000 F3000
M400
M204 P600 T600
G1 F1300
G0 X18.500 Y96.250 Z2.000
M400
M204 P200 T200
G1 F600
G1 Z0.000 F2500
G1 X18.750 Y96.000
G1 X18.750 Y96.000
G0 Z2.000 F3000
M400
M204 P600 T600
G1 F1300
G0 X20.500 Y94.250 Z2.000
M400
M204 P200 T200
G1 F600
G1 Z0.000 F2500
G1 X20.500 Y94.250
G1 X20.750 Y94.000
G0 Z2.000 F3000
M400
M204 P600 T600
G1 F1300
G0 X22.500 Y92.250 Z2.000
M400
M204 P200 T200
G1 F600
G1 Z0.000 F2500
G1 X22.750 Y92.000
G0 Z2.000 F3000
M400
M204 P600 T600
G1 F1300
G0 X24.500 Y90.250 Z2.000
M400
M204 P200 T200
G1 F600
G1 Z0.000 F2500
G1 X24.750 Y90.000
G1 X24.750 Y90.000
G1 X25.000 Y89.750
G0 Z2.000 F3000
M400
M204 P600 T600
G1 F1300
G0 X26.500 Y88.250 Z2.000
M400
M204 P200 T200
G1 F600
G1 Z0.000 F2500
G1 X26.500 Y88.250
G1 X26.750 Y88.000
G1 X27.000 Y87.750
G0 Z2.000 F3000
M400
M204 P600 T600
G1 F1300
G0 X28.500 Y86.250 Z2.000
M400
M204 P200 T200
G1 F600
G1 Z0.000 F2500
G1 X28.500 Y86.250
G1 X28.750 Y86.000
G1 X29.000 Y85.750
G1 X29.000 Y85.750
G0 Z2.000 F3000
M400
M204 P600 T600
G1 F1300
G0 X30.750 Y87.500 Z2.000
M400
M204 P200 T200
G1 F600
G1 Z0.000 F2500
G1 X30.750 Y87.500
G1 X30.500 Y87.750
G1 X30.250 Y88.000
G0 Z2.000 F3000
M400
M204 P600 T600
G1 F1300
G0 X32.250 Y89.500 Z2.000
M400
M204 P200 T200
G1 F600
G1 Z0.000 F2500
G1 X32.500 Y89.500
G0 Z2.000 F3000
M400
M204 P600 T600
G1 F1300
G0 X34.250 Y87.500 Z2.000
M400
M204 P200 T200
G1 F600
G1 Z0.000 F2500
G1 X34.500 Y87.500
G0 Z2.000 F3000
M400
M204 P600 T600
G1 F1300
G0 X34.500 Y83.750 Z2.000
M400
M204 P200 T200
G1 F600
G1 Z0.000 F2500
G1 X34.750 Y83.500
G0 Z2.000 F3000
M400
M204 P600 T600
G1 F1300
G0 X36.500 Y81.750 Z2.000
M400
M204 P200 T200
G1 F600
G1 Z0.000 F2500
G1 X36.750 Y81.500
G1 X36.750 Y81.500
G0 Z2.000 F3000
M400
M204 P600 T600
G1 F1300
G0 X38.500 Y79.750 Z2.000
M400
M204 P200 T200
G1 F600
G1 Z0.000 F2500
G1 X38.750 Y79.750
G1 X38.750 Y79.500
G0 Z2.000 F3000
M400
M204 P600 T600
G1 F1300
G0 X40.250 Y78.000 Z2.000
M400
M204 P200 T200
G1 F600
G1 Z0.000 F2500
G1 X40.500 Y78.000
G1 X40.500 Y77.750
G1 X40.750 Y77.500
G1 X41.000 Y77.250
G1 X41.000 Y77.250
G0 Z2.000 F3000
M400
M204 P600 T600
G1 F1300
G0 X42.250 Y76.000 Z2.000
M400
M204 P200 T200
G1 F600
G1 Z0.000 F2500
G1 X42.250 Y76.000
G1 X42.500 Y75.750
G1 X42.750 Y75.500
G1 X43.000 Y75.500
G1 X43.000 Y75.250
G0 Z2.000 F3000
M400
M204 P600 T600
G1 F1300
G0 X44.250 Y74.000 Z2.000
M400
M204 P200 T200
G1 F600
G1 Z0.000 F2500
G1 X44.500 Y73.750
G1 X44.750 Y73.750
G1 X44.750 Y73.500
G1 X45.000 Y73.250
G0 Z2.000 F3000
M400
M204 P600 T600
G1 F1300
G0 X46.250 Y72.000 Z2.000
M400
M204 P200 T200
G1 F600
G1 Z0.000 F2500
G1 X46.500 Y72.000
G1 X46.500 Y71.750
G1 X46.750 Y71.500
G1 X47.000 Y71.250
G1 X47.000 Y71.250
G0 Z2.000 F3000
M400
M204 P600 T600
G1 F1300
G0 X48.250 Y70.000 Z2.000
M400
M204 P200 T200
G1 F600
G1 Z0.000 F2500
G1 X48.250 Y70.000
G1 X48.500 Y69.750
G1 X48.750 Y69.500
G1 X49.000 Y69.500
G1 X49.000 Y69.250
G0 Z2.000 F3000
M400
M204 P600 T600
G1 F1300
G0 X50.500 Y67.750 Z2.000
M400
M204 P200 T200
G1 F600
G1 Z0.000 F2500
G1 X50.750 Y67.750
G1 X50.750 Y67.500
G1 X51.000 Y67.250
G0 Z2.000 F3000
M400
M204 P600 T600
G1 F1300
G0 X52.500 Y65.750 Z2.000
M400
M204 P200 T200
G1 F600
G1 Z0.000 F2500
G1 X52.500 Y65.750
G1 X52.750 Y65.500
G1 X53.000 Y65.250
G1 X53.250 Y65.250
G0 Z2.000 F3000
M400
M204 P600 T600
G1 F1300
G0 X54.500 Y63.750 Z2.000
M400
M204 P200 T200
G1 F600
G1 Z0.000 F2500
G1 X54.750 Y63.500
G1 X55.000 Y63.500
G1 X55.000 Y63.250
G0 Z2.000 F3000
M400
M204 P600 T600
G1 F1300
G0 X56.500 Y61.750 Z2.000
M400
M204 P200 T200
G1 F600
G1 Z0.000 F2500
G1 X56.750 Y61.750
G1 X56.750 Y61.500
G1 X57.000 Y61.250
G0 Z2.000 F3000
M400
M204 P600 T600
G1 F1300
G0 X58.500 Y59.750 Z2.000
M400
M204 P200 T200
G1 F600
G1 Z0.000 F2500
G1 X58.500 Y59.750
G1 X58.750 Y59.500
G1 X59.000 Y59.250
G1 X59.250 Y59.250
G0 Z2.000 F3000
M400
M204 P600 T600
G1 F1300
G0 X60.500 Y58.000 Z2.000
M400
M204 P200 T200
G1 F600
G1 Z0.000 F2500
G1 X60.500 Y57.750
G1 X60.750 Y57.500
G1 X61.000 Y57.500
G1 X61.000 Y57.250
G0 Z2.000 F3000
M400
M204 P600 T600
G1 F1300
G0 X62.500 Y55.750 Z2.000
M400
M204 P200 T200
G1 F600
G1 Z0.000 F2500
G1 X62.750 Y55.500
G1 X62.750 Y55.500
G1 X63.000 Y55.250
G0 Z2.000 F3000
M400
M204 P600 T600
G1 F1300
G0 X64.500 Y53.750 Z2.000
M400
M204 P200 T200
G1 F600
G1 Z0.000 F2500
G1 X64.500 Y53.750
G1 X64.750 Y53.500
G1 X65.000 Y53.250
G1 X65.250 Y53.250
G1 X65.250 Y53.000
G0 Z2.000 F3000
M400
M204 P600 T600
G1 F1300
G0 X66.500 Y52.000 Z2.000
M400
M204 P200 T200
G1 F600
G1 Z0.000 F2500
G1 X66.500 Y51.750
G1 X66.750 Y51.500
G1 X67.000 Y51.250
G1 X67.000 Y51.250
G1 X67.250 Y51.000
G0 Z2.000 F3000
M400
M204 P600 T600
G1 F1300
G0 X68.500 Y49.750 Z2.000
M400
M204 P200 T200
G1 F600
G1 Z0.000 F2500
G1 X68.750 Y49.500
G1 X68.750 Y49.500
G1 X69.000 Y49.250
G0 Z2.000 F3000
M400
M204 P600 T600
G1 F1300
G0 X70.500 Y47.750 Z2.000
M400
M204 P200 T200
G1 F600
G1 Z0.000 F2500
G1 X70.750 Y47.750
G1 X70.750 Y47.500
G1 X71.000 Y47.250
G1 X71.250 Y47.250
G1 X71.250 Y47.000
G0 Z2.000 F3000
M400
M204 P600 T600
G1 F1300
G0 X72.500 Y45.750 Z2.000
M400
M204 P200 T200
G1 F600
G1 Z0.000 F2500
G1 X72.750 Y45.500
G1 X73.000 Y45.250
G1 X73.000 Y45.250
G1 X73.250 Y45.000
G0 Z2.000 F3000
M400
M204 P600 T600
G1 F1300
G0 X74.500 Y43.750 Z2.000
M400
M204 P200 T200
G1 F600
G1 Z0.000 F2500
G1 X74.750 Y43.500
G1 X75.000 Y43.500
G1 X75.000 Y43.250
G1 X75.250 Y43.000
G0 Z2.000 F3000
M400
M204 P600 T600
G1 F1300
G0 X76.500 Y41.750 Z2.000
M400
M204 P200 T200
G1 F600
G1 Z0.000 F2500
G1 X76.750 Y41.750
G1 X76.750 Y41.500
G1 X77.000 Y41.250
G1 X77.250 Y41.000
G1 X77.250 Y41.000
G0 Z2.000 F3000
M400
M204 P600 T600
G1 F1300
G0 X78.500 Y39.750 Z2.000
M400
M204 P200 T200
G1 F600
G1 Z0.000 F2500
G1 X78.750 Y39.500
G1 X79.000 Y39.250
G1 X79.000 Y39.250
G1 X79.250 Y39.000
G0 Z2.000 F3000
M400
M204 P600 T600
G1 F1300
G0 X80.750 Y37.500 Z2.000
M400
M204 P200 T200
G1 F600
G1 Z0.000 F2500
G1 X81.000 Y37.500
G1 X81.000 Y37.250
G0 Z2.000 F3000
M400
M204 P600 T600
G1 F1300
G0 X79.250 Y35.500 Z2.000
M400
M204 P200 T200
G1 F600
G1 Z0.000 F2500
G1 X79.000 Y35.750
G1 X79.000 Y35.750
G0 Z2.000 F3000
M400
M204 P600 T600
G1 F1300
G0 X77.500 Y33.750 Z2.000
M400
M204 P200 T200
G1 F600
G1 Z0.000 F2500
G1 X77.250 Y33.750
G0 Z2.000 F3000
M400
M204 P600 T600
G1 F1300
G0 X73.500 Y37.750 Z2.000
M400
M204 P200 T200
G1 F600
G1 Z0.000 F2500
G1 X73.250 Y38.000
G1 X73.000 Y38.000
G0 Z2.000 F3000
M400
M204 P600 T600
G1 F1300
G0 X74.750 Y40.000 Z2.000
M400
M204 P200 T200
G1 F600
G1 Z0.000 F2500
G1 X75.000 Y40.000
G1 X75.000 Y39.750
G1 X75.250 Y39.500
G1 X75.500 Y39.250
G1 X75.500 Y39.250
G0 Z2.000 F3000
M400
M204 P600 T600
G1 F1300
G0 X73.500 Y41.250 Z2.000
M400
M204 P200 T200
G1 F600
G1 Z0.000 F2500
G1 X73.250 Y41.500
G1 X73.000 Y41.750
G1 X73.000 Y41.750
G1 X72.750 Y42.000
G0 Z2.000 F3000
M400
M204 P600 T600
G1 F1300
G0 X71.250 Y40.000 Z2.000
M400
M204 P200 T200
G1 F600
G1 Z0.000 F2500
G1 X71.250 Y40.000
G1 X71.500 Y39.750
G0 Z2.000 F3000
M400
M204 P600 T600
G1 F1300
G0 X71.250 Y43.500 Z2.000
M400
M204 P200 T200
G1 F600
G1 Z0.000 F2500
G1 X71.250 Y43.500
G1 X71.000 Y43.750
G1 X70.750 Y44.000
G1 X70.750 Y44.000
G0 Z2.000 F3000
M400
M204 P600 T600
G1 F1300
G0 X69.250 Y45.500 Z2.000
M400
M204 P200 T200
G1 F600
G1 Z0.000 F2500
G1 X69.000 Y45.750
G1 X68.750 Y46.000
G1 X68.750 Y46.000
G0 Z2.000 F3000
M400
M204 P600 T600
G1 F1300
G0 X67.250 Y47.500 Z2.000
M400
M204 P200 T200
G1 F600
G1 Z0.000 F2500
G1 X67.000 Y47.750
G1 X67.000 Y47.750
G1 X66.750 Y48.000
G0 Z2.000 F3000
M400
M204 P600 T600
G1 F1300
G0 X65.250 Y49.500 Z2.000
M400
M204 P200 T200
G1 F600
G1 Z0.000 F2500
G1 X65.250 Y49.500
G1 X65.000 Y49.750
G1 X64.750 Y50.000
G0 Z2.000 F3000
M400
M204 P600 T600
G1 F1300
G0 X63.250 Y51.500 Z2.000
M400
M204 P200 T200
G1 F600
G1 Z0.000 F2500
G1 X63.000 Y51.750
G1 X62.750 Y52.000
G1 X62.750 Y52.000
G0 Z2.000 F3000
M400
M204 P600 T600
G1 F1300
G0 X61.250 Y53.500 Z2.000
M400
M204 P200 T200
G1 F600
G1 Z0.000 F2500
G1 X61.000 Y53.750
G1 X61.000 Y53.750
G1 X60.750 Y54.000
G0 Z2.000 F3000
M400
M204 P600 T600
G1 F1300
G0 X59.250 Y55.500 Z2.000
M400
M204 P200 T200
G1 F600
G1 Z0.000 F2500
G1 X59.250 Y55.500
G1 X59.000 Y55.750
G0 Z2.000 F3000

; --- CIKEL NAMAKANJA ---
G0 Z2.000 F3000
M400
M204 P600 T600
G1 F1300
G0 X65.368 Y0.000 Z8.000
G1 Z1.000 F3000
G1 X65.368 Y0.000 F2500
G1 X65.368 Y1.750 F2500
G1 X61.868 Y0.000 F2500
G1 X65.368 Y0.000 F2500
G0 Z3.000 F3000
G0 X58.911 Y20.000
G0 Z8.000 F3000
G0 X58.750 Y56.000 Z2.000
M400
M204 P200 T200
G1 F600
G1 Z0.000 F2500
G1 X58.750 Y56.000
G0 Z2.000 F3000
M400
M204 P600 T600
G1 F1300
G0 X57.250 Y57.500 Z2.000
M400
M204 P200 T200
G1 F600
G1 Z0.000 F2500
G1 X57.250 Y57.500
G1 X57.000 Y57.750
G1 X56.750 Y58.000
G1 X56.750 Y58.000
G0 Z2.000 F3000
M400
M204 P600 T600
G1 F1300
G0 X55.000 Y59.750 Z2.000
M400
M204 P200 T200
G1 F600
G1 Z0.000 F2500
G1 X55.000 Y59.750
G0 Z2.000 F3000
M400
M204 P600 T600
G1 F1300
G0 X53.250 Y61.500 Z2.000
M400
M204 P200 T200
G1 F600
G1 Z0.000 F2500
G1 X53.250 Y61.750
G1 X53.000 Y61.750
G1 X52.750 Y62.000
G0 Z2.000 F3000
M400
M204 P600 T600
G1 F1300
G0 X51.250 Y63.500 Z2.000
M400
M204 P200 T200
G1 F600
G1 Z0.000 F2500
G1 X51.250 Y63.500
G1 X51.000 Y63.750
G1 X50.750 Y64.000
G1 X50.750 Y64.000
G1 X50.500 Y64.250
G0 Z2.000 F3000
M400
M204 P600 T600
G1 F1300
G0 X49.250 Y65.500 Z2.000
M400
M204 P200 T200
G1 F600
G1 Z0.000 F2500
G1 X49.000 Y65.750
G1 X49.000 Y65.750
G1 X48.750 Y66.000
G1 X48.500 Y66.250
G0 Z2.000 F3000
M400
M204 P600 T600
G1 F1300
G0 X47.250 Y67.500 Z2.000
M400
M204 P200 T200
G1 F600
G1 Z0.000 F2500
G1 X47.000 Y67.750
G1 X47.000 Y67.750
G1 X46.750 Y68.000
G1 X46.500 Y68.250
G1 X46.500 Y68.250
G0 Z2.000 F3000
M400
M204 P600 T600
G1 F1300
G0 X45.250 Y69.500 Z2.000
M400
M204 P200 T200
G1 F600
G1 Z0.000 F2500
G1 X45.250 Y69.500
G1 X45.000 Y69.750
G1 X44.750 Y70.000
G1 X44.750 Y70.000
G1 X44.500 Y70.250
G0 Z2.000 F3000
M400
M204 P600 T600
G1 F1300
G0 X43.250 Y71.500 Z2.000
M400
M204 P200 T200
G1 F600
G1 Z0.000 F2500
G1 X43.000 Y71.750
G1 X43.000 Y72.000
G1 X42.750 Y72.000
G1 X42.500 Y72.250
G0 Z2.000 F3000
M400
M204 P600 T600
G1 F1300
G0 X41.000 Y73.750 Z2.000
M400
M204 P200 T200
G1 F600
G1 Z0.000 F2500
G1 X41.000 Y73.750
G1 X40.750 Y74.000
G0 Z2.000 F3000
M400
M204 P600 T600
G1 F1300
G0 X39.000 Y75.750 Z2.000
M400
M204 P200 T200
G1 F600
G1 Z0.000 F2500
G1 X38.750 Y76.000
G1 X38.750 Y76.000
G0 Z2.000 F3000
M400
M204 P600 T600
G1 F1300
G0 X42.250 Y79.750 Z2.000
M400
M204 P200 T200
G1 F600
G1 Z0.000 F2500
G1 X42.250 Y79.500
G1 X42.500 Y79.250
G1 X42.750 Y79.250
G0 Z2.000 F3000
M400
M204 P600 T600
G1 F1300
G0 X44.000 Y77.750 Z2.000
M400
M204 P200 T200
G1 F600
G1 Z0.000 F2500
G1 X44.250 Y77.500
G1 X44.500 Y77.250
G1 X44.750 Y77.250
G0 Z2.000 F3000
M400
M204 P600 T600
G1 F1300
G0 X46.000 Y75.750 Z2.000
M400
M204 P200 T200
G1 F600
G1 Z0.000 F2500
G1 X46.250 Y75.500
G1 X46.500 Y75.500
G1 X46.500 Y75.250
G1 X46.750 Y75.000
G0 Z2.000 F3000
M400
M204 P600 T600
G1 F1300
G0 X48.000 Y73.750 Z2.000
M400
M204 P200 T200
G1 F600
G1 Z0.000 F2500
G1 X48.250 Y73.750
G1 X48.250 Y73.500
G1 X48.500 Y73.250
G1 X48.750 Y73.000
G0 Z2.000 F3000
M400
M204 P600 T600
G1 F1300
G0 X50.250 Y71.750 Z2.000
M400
M204 P200 T200
G1 F600
G1 Z0.000 F2500
G1 X50.250 Y71.500
G1 X50.500 Y71.250
G1 X50.750 Y71.250
G0 Z2.000 F3000
M400
M204 P600 T600
G1 F1300
G0 X52.250 Y69.500 Z2.000
M400
M204 P200 T200
G1 F600
G1 Z0.000 F2500
G1 X52.500 Y69.500
G1 X52.500 Y69.250
G1 X52.750 Y69.000
G0 Z2.000 F3000
M400
M204 P600 T600
G1 F1300
G0 X54.250 Y67.750 Z2.000
M400
M204 P200 T200
G1 F600
G1 Z0.000 F2500
G1 X54.250 Y67.500
G1 X54.500 Y67.250
G1 X54.750 Y67.000
G1 X55.000 Y67.000
G0 Z2.000 F3000
M400
M204 P600 T600
G1 F1300
G0 X56.250 Y65.750 Z2.000
M400
M204 P200 T200
G1 F600
G1 Z0.000 F2500
G1 X56.250 Y65.500
G1 X56.500 Y65.250
G1 X56.750 Y65.250
G1 X56.750 Y65.000
G0 Z2.000 F3000
M400
M204 P600 T600
G1 F1300
G0 X58.500 Y63.500 Z2.000
M400
M204 P200 T200
G1 F600
G1 Z0.000 F2500
G1 X58.500 Y63.250
G0 Z2.000 F3000
M400
M204 P600 T600
G1 F1300
G0 X60.250 Y61.750 Z2.000
M400
M204 P200 T200
G1 F600
G1 Z0.000 F2500
G1 X60.500 Y61.500
G1 X60.500 Y61.250
G1 X60.750 Y61.000
G1 X61.000 Y61.000
G0 Z2.000 F3000
M400
M204 P600 T600
G1 F1300
G0 X62.250 Y59.750 Z2.000
M400
M204 P200 T200
G1 F600
G1 Z0.000 F2500
G1 X62.250 Y59.500
G1 X62.500 Y59.250
G1 X62.750 Y59.250
G1 X62.750 Y59.000
G0 Z2.000 F3000
M400
M204 P600 T600
G1 F1300
G0 X64.500 Y57.500 Z2.000
M400
M204 P200 T200
G1 F600
G1 Z0.000 F2500
G1 X64.500 Y57.250
G0 Z2.000 F3000
M400
M204 P600 T600
G1 F1300
G0 X66.250 Y55.500 Z2.000
M400
M204 P200 T200
G1 F600
G1 Z0.000 F2500
G1 X66.500 Y55.500
G1 X66.500 Y55.250
G1 X66.750 Y55.000
G1 X67.000 Y55.000
G0 Z2.000 F3000
M400
M204 P600 T600
G1 F1300
G0 X68.250 Y53.750 Z2.000
M400
M204 P200 T200
G1 F600
G1 Z0.000 F2500
G1 X68.250 Y53.500
G1 X68.500 Y53.250
G1 X68.750 Y53.250
G1 X68.750 Y53.000
G0 Z2.000 F3000
M400
M204 P600 T600
G1 F1300
G0 X70.250 Y51.500 Z2.000
M400
M204 P200 T200
G1 F600
G1 Z0.000 F2500
G1 X70.500 Y51.250
G1 X70.750 Y51.250
G1 X70.750 Y51.000
G0 Z2.000 F3000
M400
M204 P600 T600
G1 F1300
G0 X72.500 Y49.500 Z2.000
M400
M204 P200 T200
G1 F600
G1 Z0.000 F2500
G1 X72.500 Y49.250
G1 X72.750 Y49.000
G1 X73.000 Y49.000
G0 Z2.000 F3000
M400
M204 P600 T600
G1 F1300
G0 X74.500 Y47.250 Z2.000
M400
M204 P200 T200
G1 F600
G1 Z0.000 F2500
G1 X74.750 Y47.250
G1 X75.000 Y47.000
G0 Z2.000 F3000
M400
M204 P600 T600
G1 F1300
G0 X76.500 Y45.250 Z2.000
M400
M204 P200 T200
G1 F600
G1 Z0.000 F2500
G1 X76.750 Y45.250
G1 X76.750 Y45.000
G0 Z2.000 F3000
M400
M204 P600 T600
G1 F1300
G0 X78.500 Y43.500 Z2.000
M400
M204 P200 T200
G1 F600
G1 Z0.000 F2500
G1 X78.500 Y43.250
G1 X78.750 Y43.000
G1 X79.000 Y43.000
G0 Z2.000 F3000
M400
M204 P600 T600
G1 F1300
G0 X80.250 Y41.500 Z2.000
M400
M204 P200 T200
G1 F600
G1 Z0.000 F2500
G1 X80.500 Y41.250
G1 X80.750 Y41.000
G1 X81.000 Y41.000
G1 X81.000 Y40.750
G0 Z2.000 F3000
M400
M204 P600 T600
G1 F1300
G0 X82.250 Y39.500 Z2.000
M400
M204 P200 T200
G1 F600
G1 Z0.000 F2500
G1 X82.500 Y39.250
G1 X82.750 Y39.250
G1 X82.750 Y39.000
G1 X83.000 Y38.750
G1 X83.250 Y38.750
G0 Z2.000 F3000
M400
M204 P600 T600
G1 F1300
G0 X82.750 Y42.750 Z2.000
M400
M204 P200 T200
G1 F600
G1 Z0.000 F2500
G1 X82.500 Y43.000
G0 Z2.000 F3000
M400
M204 P600 T600
G1 F1300
G0 X88.500 Y37.000 Z2.000
M400
M204 P200 T200
G1 F600
G1 Z0.000 F2500
G1 X88.750 Y36.750
G0 Z2.000 F3000
M400
M204 P600 T600
G1 F1300
G0 X87.000 Y35.000 Z2.000
M400
M204 P200 T200
G1 F600
G1 Z0.000 F2500
G1 X86.750 Y35.000
G0 Z2.000 F3000
M400
M204 P600 T600
G1 F1300
G0 X88.250 Y33.500 Z2.000
M400
M204 P200 T200
G1 F600
G1 Z0.000 F2500
G1 X88.500 Y33.250
G1 X88.750 Y33.250
G1 X88.750 Y33.000
G1 X89.000 Y32.750
G1 X89.250 Y32.750
G0 Z2.000 F3000
M400
M204 P600 T600
G1 F1300
G0 X90.250 Y31.500 Z2.000
M400
M204 P200 T200
G1 F600
G1 Z0.000 F2500
G1 X90.500 Y31.500
G1 X90.500 Y31.250
G1 X90.750 Y31.000
G1 X91.000 Y30.750
G1 X91.250 Y30.750
G0 Z2.000 F3000
M400
M204 P600 T600
G1 F1300
G0 X92.500 Y29.500 Z2.000
M400
M204 P200 T200
G1 F600
G1 Z0.000 F2500
G1 X92.500 Y29.250
G1 X92.750 Y29.000
G1 X93.000 Y29.000
G0 Z2.000 F3000
M400
M204 P600 T600
G1 F1300
G0 X94.500 Y30.750 Z2.000
M400
M204 P200 T200
G1 F600
G1 Z0.000 F2500
G1 X94.750 Y30.750
G0 Z2.000 F3000
M400
M204 P600 T600
G1 F1300
G0 X92.500 Y33.000 Z2.000
M400
M204 P200 T200
G1 F600
G1 Z0.000 F2500
G1 X92.250 Y33.250
G0 Z2.000 F3000
M400
M204 P600 T600
G1 F1300
G0 X88.500 Y29.750 Z2.000
M400
M204 P200 T200
G1 F600
G1 Z0.000 F2500
G1 X88.750 Y29.750
G1 X88.750 Y29.500
G1 X89.000 Y29.250
G1 X89.250 Y29.000
G1 X89.250 Y29.000
G0 Z2.000 F3000
M400
M204 P600 T600
G1 F1300
G0 X87.000 Y31.250 Z2.000
M400
M204 P200 T200
G1 F600
G1 Z0.000 F2500
G1 X87.000 Y31.500
G1 X86.750 Y31.500
G0 Z2.000 F3000
M400
M204 P600 T600
G1 F1300
G0 X101.500 Y38.000 Z2.000
M400
M204 P200 T200
G1 F600
G1 Z0.000 F2500
G1 X101.500 Y38.000
G0 Z2.000 F3000
M400
M204 P600 T600
G1 F1300
G0 X103.000 Y40.000 Z2.000
M400
M204 P200 T200
G1 F600
G1 Z0.000 F2500
G1 X103.250 Y40.000
G1 X103.250 Y39.750
G1 X103.500 Y39.500
G1 X103.750 Y39.250
G1 X103.750 Y39.250
G0 Z2.000 F3000
M400
M204 P600 T600
G1 F1300
G0 X105.000 Y38.000 Z2.000
M400
M204 P200 T200
G1 F600
G1 Z0.000 F2500
G1 X105.000 Y38.000
G1 X105.250 Y37.750
G1 X105.500 Y37.500
G1 X105.750 Y37.500
G1 X105.750 Y37.250
G0 Z2.000 F3000
M400
M204 P600 T600
G1 F1300
G0 X107.000 Y36.000 Z2.000
M400
M204 P200 T200
G1 F600
G1 Z0.000 F2500
G1 X107.250 Y35.750
G1 X107.500 Y35.750
G1 X107.500 Y35.500
G1 X107.750 Y35.250
G0 Z2.000 F3000
M400
M204 P600 T600
G1 F1300
G0 X109.000 Y34.000 Z2.000
M400
M204 P200 T200
G1 F600
G1 Z0.000 F2500
G1 X109.250 Y33.750
G1 X109.250 Y33.750
G1 X109.500 Y33.500
G1 X109.750 Y33.250
G0 Z2.000 F3000
M400
M204 P600 T600
G1 F1300
G0 X111.000 Y32.000 Z2.000
M400
M204 P200 T200
G1 F600
G1 Z0.000 F2500
G1 X111.000 Y32.000
G1 X111.250 Y31.750
G1 X111.500 Y31.500
G1 X111.750 Y31.500
G1 X111.750 Y31.250
G0 Z2.000 F3000
M400
M204 P600 T600
G1 F1300
G0 X113.000 Y30.000 Z2.000
M400
M204 P200 T200
G1 F600
G1 Z0.000 F2500
G1 X113.250 Y29.750
G1 X113.500 Y29.750
G1 X113.500 Y29.500
G1 X113.750 Y29.250
G0 Z2.000 F3000
M400
M204 P600 T600
G1 F1300
G0 X115.500 Y31.000 Z2.000
M400
M204 P200 T200
G1 F600
G1 Z0.000 F2500
G1 X115.250 Y31.250
G1 X115.250 Y31.500
G1 X115.000 Y31.500
G1 X114.750 Y31.750
G0 Z2.000 F3000
M400
M204 P600 T600
G1 F1300
G0 X116.750 Y29.750 Z2.000
M400
M204 P200 T200
G1 F600
G1 Z0.000 F2500
G1 X117.000 Y29.750
G1 X117.000 Y29.500
G1 X117.250 Y29.250
G1 X117.500 Y29.000
G1 X117.750 Y29.000
G0 Z2.000 F3000
M400
M204 P600 T600
G1 F1300
G0 X119.250 Y30.750 Z2.000
M400
M204 P200 T200
G1 F600
G1 Z0.000 F2500
G1 X119.000 Y31.000
G1 X119.000 Y31.250
G1 X118.750 Y31.500
G0 Z2.000 F3000
M400
M204 P600 T600
G1 F1300
G0 X120.750 Y29.500 Z2.000
M400
M204 P200 T200
G1 F600
G1 Z0.000 F2500
G1 X120.750 Y29.250
G1 X121.000 Y29.000
G1 X121.250 Y29.000
G0 Z2.000 F3000
M400
M204 P600 T600
G1 F1300
G0 X117.500 Y32.750 Z2.000
M400
M204 P200 T200
G1 F600
G1 Z0.000 F2500
G1 X117.250 Y32.750
G1 X117.000 Y33.000
G1 X117.000 Y33.250
G1 X116.750 Y33.250
G0 Z2.000 F3000
M400
M204 P600 T600
G1 F1300
G0 X118.750 Y35.000 Z2.000
M400
M204 P200 T200
G1 F600
G1 Z0.000 F2500
G1 X119.000 Y34.750
G0 Z2.000 F3000
M400
M204 P600 T600
G1 F1300
G0 X117.000 Y36.750 Z2.000
M400
M204 P200 T200
G1 F600
G1 Z0.000 F2500
G1 X116.750 Y37.000
G0 Z2.000 F3000
M400
M204 P600 T600
G1 F1300
G0 X114.750 Y35.500 Z2.000
M400
M204 P200 T200
G1 F600
G1 Z0.000 F2500
G1 X114.750 Y35.250
G1 X115.000 Y35.000
G1 X115.250 Y35.000
G1 X115.250 Y34.750
G0 Z2.000 F3000
M400
M204 P600 T600
G1 F1300
G0 X113.500 Y33.000 Z2.000
M400
M204 P200 T200
G1 F600
G1 Z0.000 F2500
G1 X113.500 Y33.250
G1 X113.250 Y33.250
G1 X113.000 Y33.500
G1 X113.000 Y33.750
G1 X112.750 Y33.750
G0 Z2.000 F3000
M400
M204 P600 T600
G1 F1300
G0 X111.750 Y35.000 Z2.000
M400
M204 P200 T200
G1 F600
G1 Z0.000 F2500
G1 X111.500 Y35.000
G1 X111.250 Y35.250
G1 X111.000 Y35.500
G1 X111.000 Y35.750
G1 X110.750 Y35.750
G0 Z2.000 F3000
M400
M204 P600 T600
G1 F1300
G0 X112.500 Y37.500 Z2.000
M400
M204 P200 T200
G1 F600
G1 Z0.000 F2500
G1 X112.750 Y37.500
G1 X113.000 Y37.250
G1 X113.000 Y37.000
G1 X113.250 Y37.000
G0 Z2.000 F3000
M400
M204 P600 T600
G1 F1300
G0 X114.750 Y39.000 Z2.000
M400
M204 P200 T200
G1 F600
G1 Z0.000 F2500
G1 X114.500 Y39.250
G0 Z2.000 F3000
M400
M204 P600 T600
G1 F1300
G0 X111.250 Y38.750 Z2.000
M400
M204 P200 T200
G1 F600
G1 Z0.000 F2500
G1 X111.000 Y39.000
G1 X111.000 Y39.250
G1 X110.750 Y39.250
G1 X110.500 Y39.500
G0 Z2.000 F3000
M400
M204 P600 T600
G1 F1300
G0 X108.750 Y38.000 Z2.000
M400
M204 P200 T200
G1 F600
G1 Z0.000 F2500
G1 X108.750 Y37.750
G1 X109.000 Y37.500
G1 X109.250 Y37.500
G1 X109.250 Y37.250
G1 X109.500 Y37.000
G1 X109.750 Y37.000
G0 Z2.000 F3000
M400
M204 P600 T600
G1 F1300
G0 X107.500 Y39.000 Z2.000
M400
M204 P200 T200
G1 F600
G1 Z0.000 F2500
G1 X107.500 Y39.250
G1 X107.250 Y39.250
G1 X107.000 Y39.500
G1 X106.750 Y39.750
G1 X106.750 Y40.000
G0 Z2.000 F3000
M400
M204 P600 T600
G1 F1300
G0 X108.500 Y41.750 Z2.000
M400
M204 P200 T200
G1 F600
G1 Z0.000 F2500
G1 X108.750 Y41.500
G1 X108.750 Y41.250
G1 X109.000 Y41.000
G1 X109.250 Y41.000
G1 X109.250 Y40.750
G0 Z2.000 F3000
M400
M204 P600 T600
G1 F1300
G0 X107.250 Y43.000 Z2.000
M400
M204 P200 T200
G1 F600
G1 Z0.000 F2500
G1 X107.000 Y43.000
G1 X106.750 Y43.250
G1 X106.750 Y43.500
G0 Z2.000 F3000
M400
M204 P600 T600
G1 F1300
G0 X108.500 Y45.250 Z2.000
M400
M204 P200 T200
G1 F600
G1 Z0.000 F2500
G1 X108.750 Y45.000
G0 Z2.000 F3000
M400
M204 P600 T600
G1 F1300
G0 X105.250 Y44.750 Z2.000
M400
M204 P200 T200
G1 F600
G1 Z0.000 F2500
G1 X105.000 Y45.000
G1 X105.000 Y45.250
G1 X104.750 Y45.250
G1 X104.500 Y45.500
G1 X104.500 Y45.750
G0 Z2.000 F3000
M400
M204 P600 T600
G1 F1300
G0 X102.750 Y44.000 Z2.000
M400
M204 P200 T200
G1 F600
G1 Z0.000 F2500
G1 X102.750 Y43.750
G1 X103.000 Y43.500
G1 X103.250 Y43.500
G1 X103.250 Y43.250
G1 X103.500 Y43.000
G0 Z2.000 F3000
M400
M204 P600 T600
G1 F1300
G0 X104.750 Y41.750 Z2.000
M400
M204 P200 T200
G1 F600
G1 Z0.000 F2500
G1 X105.000 Y41.750
G1 X105.000 Y41.500
G1 X105.250 Y41.250
G1 X105.500 Y41.000
G1 X105.750 Y41.000
G0 Z2.000 F3000
M400
M204 P600 T600
G1 F1300
G0 X101.750 Y41.250 Z2.000
M400
M204 P200 T200
G1 F600
G1 Z0.000 F2500
G1 X101.500 Y41.500
G1 X101.500 Y41.750
G1 X101.250 Y41.750
G1 X101.000 Y42.000
G0 Z2.000 F3000
M400
M204 P600 T600
G1 F1300
G0 X99.750 Y43.250 Z2.000
M400
M204 P200 T200
G1 F600
G1 Z0.000 F2500
G1 X99.500 Y43.500
G1 X99.500 Y43.500
G1 X99.250 Y43.750
G1 X99.000 Y44.000
G1 X99.000 Y44.000
G0 Z2.000 F3000
M400
M204 P600 T600
G1 F1300
G0 X100.750 Y46.000 Z2.000
M400
M204 P200 T200
G1 F600
G1 Z0.000 F2500
G1 X100.750 Y45.750
G1 X101.000 Y45.500
G1 X101.250 Y45.250
G1 X101.500 Y45.250
G1 X101.500 Y45.000
G0 Z2.000 F3000
M400
M204 P600 T600
G1 F1300
G0 X103.250 Y46.750 Z2.000
M400
M204 P200 T200
G1 F600
G1 Z0.000 F2500
G1 X103.250 Y47.000
G1 X103.000 Y47.250
G1 X102.750 Y47.250
G1 X102.750 Y47.500
G1 X102.500 Y47.750
G0 Z2.000 F3000
M400
M204 P600 T600
G1 F1300
G0 X104.750 Y49.000 Z2.000
M400
M204 P200 T200
G1 F600
G1 Z0.000 F2500
G1 X105.000 Y48.750
G0 Z2.000 F3000
M400
M204 P600 T600
G1 F1300
G0 X102.750 Y51.000 Z2.000
M400
M204 P200 T200
G1 F600
G1 Z0.000 F2500
G1 X102.500 Y51.250
G0 Z2.000 F3000
M400
M204 P600 T600
G1 F1300
G0 X101.250 Y49.000 Z2.000
M400
M204 P200 T200
G1 F600
G1 Z0.000 F2500
G1 X101.000 Y49.000
G1 X100.750 Y49.250
G1 X100.750 Y49.500
G1 X100.500 Y49.500
G0 Z2.000 F3000
M400
M204 P600 T600
G1 F1300
G0 X98.750 Y47.750 Z2.000
M400
M204 P200 T200
G1 F600
G1 Z0.000 F2500
G1 X99.000 Y47.750
G1 X99.000 Y47.500
G1 X99.250 Y47.250
G1 X99.500 Y47.250
G1 X99.500 Y47.000
G0 Z2.000 F3000
M400
M204 P600 T600
G1 F1300
G0 X97.750 Y45.250 Z2.000
M400
M204 P200 T200
G1 F600
G1 Z0.000 F2500
G1 X97.750 Y45.250
G1 X97.500 Y45.500
G1 X97.250 Y45.750
G1 X97.250 Y46.000
G1 X97.000 Y46.000
G0 Z2.000 F3000
M400
M204 P600 T600
G1 F1300
G0 X95.500 Y47.500 Z2.000
M400
M204 P200 T200
G1 F600
G1 Z0.000 F2500
G1 X95.500 Y47.750
G1 X95.250 Y47.750
G1 X95.000 Y48.000
G0 Z2.000 F3000
M400
M204 P600 T600
G1 F1300
G0 X96.750 Y49.750 Z2.000
M400
M204 P200 T200
G1 F600
G1 Z0.000 F2500
G1 X97.000 Y49.500
G1 X97.250 Y49.500
G1 X97.250 Y49.250
G1 X97.500 Y49.000
G0 Z2.000 F3000
M400
M204 P600 T600
G1 F1300
G0 X99.000 Y51.000 Z2.000
M400
M204 P200 T200
G1 F600
G1 Z0.000 F2500
G1 X99.000 Y51.250
G1 X98.750 Y51.250
G1 X98.500 Y51.500
G1 X98.500 Y51.750
G0 Z2.000 F3000
M400
M204 P600 T600
G1 F1300
G0 X100.500 Y53.250 Z2.000
M400
M204 P200 T200
G1 F600
G1 Z0.000 F2500
G1 X100.750 Y53.000
G0 Z2.000 F3000
M400
M204 P600 T600
G1 F1300
G0 X97.250 Y53.000 Z2.000
M400
M204 P200 T200
G1 F600
G1 Z0.000 F2500
G1 X97.000 Y53.250
G1 X96.750 Y53.250
G1 X96.500 Y53.500
G1 X96.500 Y53.750
G0 Z2.000 F3000
M400
M204 P600 T600
G1 F1300
G0 X94.750 Y52.000 Z2.000
M400
M204 P200 T200
G1 F600
G1 Z0.000 F2500
G1 X94.750 Y51.750
G1 X95.000 Y51.500
G1 X95.250 Y51.250
G1 X95.500 Y51.250
G1 X95.500 Y51.000
G0 Z2.000 F3000
M400
M204 P600 T600
G1 F1300
G0 X93.500 Y53.250 Z2.000
M400
M204 P200 T200
G1 F600
G1 Z0.000 F2500
G1 X93.250 Y53.250
G1 X93.000 Y53.500
G1 X93.000 Y53.750
G1 X92.750 Y53.750
G0 Z2.000 F3000
M400
M204 P600 T600
G1 F1300
G0 X94.500 Y55.500 Z2.000
M400
M204 P200 T200
G1 F600
G1 Z0.000 F2500
G1 X94.750 Y55.500
G0 Z2.000 F3000

; --- CIKEL NAMAKANJA ---
G0 Z2.000 F3000
M400
M204 P600 T600
G1 F1300
G0 X60.465 Y0.000 Z8.000
G1 Z1.000 F3000
G1 X60.465 Y0.000 F2500
G1 X60.465 Y1.750 F2500
G1 X56.965 Y0.000 F2500
G1 X60.465 Y0.000 F2500
G0 Z3.000 F3000
G0 X69.865 Y16.791
G0 Z8.000 F3000
G0 X94.750 Y55.250 Z2.000
M400
M204 P200 T200
G1 F600
G1 Z0.000 F2500
G1 X94.750 Y55.250
G1 X95.000 Y55.000
G1 X95.250 Y55.000
G0 Z2.000 F3000
M400
M204 P600 T600
G1 F1300
G0 X93.000 Y57.000 Z2.000
M400
M204 P200 T200
G1 F600
G1 Z0.000 F2500
G1 X93.000 Y57.250
G1 X92.750 Y57.500
G1 X92.500 Y57.500
G1 X92.500 Y57.750
G0 Z2.000 F3000
M400
M204 P600 T600
G1 F1300
G0 X90.750 Y55.750 Z2.000
M400
M204 P200 T200
G1 F600
G1 Z0.000 F2500
G1 X91.000 Y55.500
G1 X91.250 Y55.500
G1 X91.250 Y55.250
G0 Z2.000 F3000
M400
M204 P600 T600
G1 F1300
G0 X89.500 Y53.500 Z2.000
M400
M204 P200 T200
G1 F600
G1 Z0.000 F2500
G1 X89.250 Y53.750
G1 X89.250 Y53.750
G1 X89.000 Y54.000
G0 Z2.000 F3000
M400
M204 P600 T600
G1 F1300
G0 X87.500 Y55.500 Z2.000
M400
M204 P200 T200
G1 F600
G1 Z0.000 F2500
G1 X87.500 Y55.500
G1 X87.250 Y55.750
G1 X87.000 Y56.000
G0 Z2.000 F3000
M400
M204 P600 T600
G1 F1300
G0 X89.250 Y57.250 Z2.000
M400
M204 P200 T200
G1 F600
G1 Z0.000 F2500
G1 X89.250 Y57.500
G1 X89.000 Y57.500
G1 X88.750 Y57.750
G1 X88.750 Y58.000
G0 Z2.000 F3000
M400
M204 P600 T600
G1 F1300
G0 X90.500 Y59.750 Z2.000
M400
M204 P200 T200
G1 F600
G1 Z0.000 F2500
G1 X90.500 Y59.500
G1 X90.750 Y59.250
G1 X91.000 Y59.250
G1 X91.250 Y59.000
G0 Z2.000 F3000
M400
M204 P600 T600
G1 F1300
G0 X94.500 Y59.250 Z2.000
M400
M204 P200 T200
G1 F600
G1 Z0.000 F2500
G1 X94.750 Y59.000
G0 Z2.000 F3000
M400
M204 P600 T600
G1 F1300
G0 X89.250 Y61.000 Z2.000
M400
M204 P200 T200
G1 F600
G1 Z0.000 F2500
G1 X89.000 Y61.000
G1 X88.750 Y61.250
G1 X88.750 Y61.500
G1 X88.500 Y61.750
G0 Z2.000 F3000
M400
M204 P600 T600
G1 F1300
G0 X86.750 Y59.750 Z2.000
M400
M204 P200 T200
G1 F600
G1 Z0.000 F2500
G1 X87.000 Y59.750
G1 X87.000 Y59.500
G1 X87.250 Y59.250
G0 Z2.000 F3000
M400
M204 P600 T600
G1 F1300
G0 X79.250 Y63.750 Z2.000
M400
M204 P200 T200
G1 F600
G1 Z0.000 F2500
G1 X79.000 Y64.000
G1 X79.000 Y64.000
G0 Z2.000 F3000
M400
M204 P600 T600
G1 F1300
G0 X77.250 Y65.750 Z2.000
M400
M204 P200 T200
G1 F600
G1 Z0.000 F2500
G1 X77.250 Y65.750
G1 X77.000 Y66.000
G0 Z2.000 F3000
M400
M204 P600 T600
G1 F1300
G0 X78.750 Y67.750 Z2.000
M400
M204 P200 T200
G1 F600
G1 Z0.000 F2500
G1 X79.000 Y67.750
G1 X79.000 Y67.500
G0 Z2.000 F3000
M400
M204 P600 T600
G1 F1300
G0 X80.750 Y69.500 Z2.000
M400
M204 P200 T200
G1 F600
G1 Z0.000 F2500
G1 X81.000 Y69.250
G0 Z2.000 F3000
M400
M204 P600 T600
G1 F1300
G0 X79.000 Y71.250 Z2.000
M400
M204 P200 T200
G1 F600
G1 Z0.000 F2500
G1 X78.750 Y71.250
G1 X78.500 Y71.500
G1 X78.500 Y71.750
G0 Z2.000 F3000
M400
M204 P600 T600
G1 F1300
G0 X77.250 Y69.500 Z2.000
M400
M204 P200 T200
G1 F600
G1 Z0.000 F2500
G1 X77.000 Y69.500
G1 X76.750 Y69.750
G0 Z2.000 F3000
M400
M204 P600 T600
G1 F1300
G0 X75.250 Y71.250 Z2.000
M400
M204 P200 T200
G1 F600
G1 Z0.000 F2500
G1 X75.000 Y71.500
G1 X75.000 Y71.750
G1 X74.750 Y72.000
G1 X74.500 Y72.000
G0 Z2.000 F3000
M400
M204 P600 T600
G1 F1300
G0 X72.750 Y70.250 Z2.000
M400
M204 P200 T200
G1 F600
G1 Z0.000 F2500
G1 X73.000 Y70.000
G1 X73.000 Y70.000
G1 X73.250 Y69.750
G1 X73.500 Y69.500
G0 Z2.000 F3000
M400
M204 P600 T600
G1 F1300
G0 X71.250 Y71.750 Z2.000
M400
M204 P200 T200
G1 F600
G1 Z0.000 F2500
G1 X71.250 Y72.000
G1 X71.000 Y72.000
G1 X70.750 Y72.250
G0 Z2.000 F3000
M400
M204 P600 T600
G1 F1300
G0 X72.500 Y74.000 Z2.000
M400
M204 P200 T200
G1 F600
G1 Z0.000 F2500
G1 X72.750 Y73.750
G1 X73.000 Y73.750
G1 X73.000 Y73.500
G1 X73.250 Y73.250
G0 Z2.000 F3000
M400
M204 P600 T600
G1 F1300
G0 X74.500 Y75.500 Z2.000
M400
M204 P200 T200
G1 F600
G1 Z0.000 F2500
G1 X74.750 Y75.500
G1 X75.000 Y75.250
G0 Z2.000 F3000
M400
M204 P600 T600
G1 F1300
G0 X76.500 Y73.750 Z2.000
M400
M204 P200 T200
G1 F600
G1 Z0.000 F2500
G1 X76.750 Y73.500
G1 X76.750 Y73.250
G0 Z2.000 F3000
M400
M204 P600 T600
G1 F1300
G0 X73.000 Y77.250 Z2.000
M400
M204 P200 T200
G1 F600
G1 Z0.000 F2500
G1 X72.750 Y77.250
G1 X72.500 Y77.500
G1 X72.500 Y77.750
G0 Z2.000 F3000
M400
M204 P600 T600
G1 F1300
G0 X70.500 Y76.000 Z2.000
M400
M204 P200 T200
G1 F600
G1 Z0.000 F2500
G1 X70.750 Y76.000
G1 X70.750 Y75.750
G1 X71.000 Y75.500
G1 X71.250 Y75.500
G1 X71.250 Y75.250
G0 Z2.000 F3000
M400
M204 P600 T600
G1 F1300
G0 X69.250 Y73.750 Z2.000
M400
M204 P200 T200
G1 F600
G1 Z0.000 F2500
G1 X69.000 Y74.000
G0 Z2.000 F3000
M400
M204 P600 T600
G1 F1300
G0 X67.250 Y75.750 Z2.000
M400
M204 P200 T200
G1 F600
G1 Z0.000 F2500
G1 X67.000 Y76.000
G1 X67.000 Y76.000
G1 X66.750 Y76.250
G0 Z2.000 F3000
M400
M204 P600 T600
G1 F1300
G0 X68.500 Y78.000 Z2.000
M400
M204 P200 T200
G1 F600
G1 Z0.000 F2500
G1 X68.750 Y78.000
G1 X68.750 Y77.750
G1 X69.000 Y77.500
G1 X69.250 Y77.250
G0 Z2.000 F3000
M400
M204 P600 T600
G1 F1300
G0 X71.000 Y79.250 Z2.000
M400
M204 P200 T200
G1 F600
G1 Z0.000 F2500
G1 X70.750 Y79.250
G1 X70.750 Y79.500
G1 X70.500 Y79.750
G0 Z2.000 F3000
M400
M204 P600 T600
G1 F1300
G0 X68.750 Y81.250 Z2.000
M400
M204 P200 T200
G1 F600
G1 Z0.000 F2500
G1 X68.750 Y81.500
G1 X68.500 Y81.500
G0 Z2.000 F3000
M400
M204 P600 T600
G1 F1300
G0 X66.500 Y80.250 Z2.000
M400
M204 P200 T200
G1 F600
G1 Z0.000 F2500
G1 X66.500 Y80.000
G1 X66.750 Y79.750
G1 X67.000 Y79.750
G1 X67.000 Y79.500
G0 Z2.000 F3000
M400
M204 P600 T600
G1 F1300
G0 X65.250 Y77.750 Z2.000
M400
M204 P200 T200
G1 F600
G1 Z0.000 F2500
G1 X65.250 Y78.000
G1 X65.000 Y78.000
G1 X64.750 Y78.250
G0 Z2.000 F3000
M400
M204 P600 T600
G1 F1300
G0 X63.250 Y79.750 Z2.000
M400
M204 P200 T200
G1 F600
G1 Z0.000 F2500
G1 X63.000 Y80.000
G1 X62.750 Y80.250
G1 X62.750 Y80.250
G0 Z2.000 F3000
M400
M204 P600 T600
G1 F1300
G0 X64.500 Y82.250 Z2.000
M400
M204 P200 T200
G1 F600
G1 Z0.000 F2500
G1 X64.500 Y82.000
G1 X64.750 Y81.750
G1 X65.000 Y81.500
G1 X65.250 Y81.500
G1 X65.250 Y81.250
G0 Z2.000 F3000
M400
M204 P600 T600
G1 F1300
G0 X67.000 Y83.250 Z2.000
M400
M204 P200 T200
G1 F600
G1 Z0.000 F2500
G1 X66.750 Y83.250
G1 X66.500 Y83.500
G1 X66.500 Y83.750
G0 Z2.000 F3000
M400
M204 P600 T600
G1 F1300
G0 X65.000 Y85.250 Z2.000
M400
M204 P200 T200
G1 F600
G1 Z0.000 F2500
G1 X64.750 Y85.250
G1 X64.500 Y85.500
G1 X64.500 Y85.750
G1 X64.250 Y85.750
G0 Z2.000 F3000
M400
M204 P600 T600
G1 F1300
G0 X66.250 Y87.500 Z2.000
M400
M204 P200 T200
G1 F600
G1 Z0.000 F2500
G1 X66.500 Y87.250
G0 Z2.000 F3000
M400
M204 P600 T600
G1 F1300
G0 X64.500 Y89.250 Z2.000
M400
M204 P200 T200
G1 F600
G1 Z0.000 F2500
G1 X64.250 Y89.500
G0 Z2.000 F3000
M400
M204 P600 T600
G1 F1300
G0 X62.250 Y88.000 Z2.000
M400
M204 P200 T200
G1 F600
G1 Z0.000 F2500
G1 X62.250 Y87.750
G1 X62.500 Y87.500
G1 X62.750 Y87.500
G1 X62.750 Y87.250
G0 Z2.000 F3000
M400
M204 P600 T600
G1 F1300
G0 X60.500 Y86.250 Z2.000
M400
M204 P200 T200
G1 F600
G1 Z0.000 F2500
G1 X60.500 Y86.000
G1 X60.750 Y85.750
G1 X61.000 Y85.750
G1 X61.000 Y85.500
G0 Z2.000 F3000
M400
M204 P600 T600
G1 F1300
G0 X62.500 Y84.000 Z2.000
M400
M204 P200 T200
G1 F600
G1 Z0.000 F2500
G1 X62.750 Y84.000
G1 X62.750 Y83.750
G1 X63.000 Y83.500
G1 X63.250 Y83.250
G0 Z2.000 F3000
M400
M204 P600 T600
G1 F1300
G0 X61.250 Y81.750 Z2.000
M400
M204 P200 T200
G1 F600
G1 Z0.000 F2500
G1 X61.000 Y82.000
G1 X61.000 Y82.250
G1 X60.750 Y82.250
G0 Z2.000 F3000
M400
M204 P600 T600
G1 F1300
G0 X59.250 Y83.750 Z2.000
M400
M204 P200 T200
G1 F600
G1 Z0.000 F2500
G1 X59.250 Y84.000
G1 X59.000 Y84.000
G1 X58.750 Y84.250
G0 Z2.000 F3000
M400
M204 P600 T600
G1 F1300
G0 X57.250 Y85.750 Z2.000
M400
M204 P200 T200
G1 F600
G1 Z0.000 F2500
G1 X57.250 Y85.750
G1 X57.000 Y86.000
G1 X56.750 Y86.250
G1 X56.750 Y86.250
G0 Z2.000 F3000
M400
M204 P600 T600
G1 F1300
G0 X58.500 Y88.250 Z2.000
M400
M204 P200 T200
G1 F600
G1 Z0.000 F2500
G1 X58.500 Y88.000
G1 X58.750 Y87.750
G1 X59.000 Y87.500
G1 X59.250 Y87.500
G0 Z2.000 F3000
M400
M204 P600 T600
G1 F1300
G0 X61.000 Y89.250 Z2.000
M400
M204 P200 T200
G1 F600
G1 Z0.000 F2500
G1 X60.750 Y89.500
G1 X60.500 Y89.500
G1 X60.500 Y89.750
G1 X60.250 Y90.000
G0 Z2.000 F3000
M400
M204 P600 T600
G1 F1300
G0 X58.750 Y91.250 Z2.000
M400
M204 P200 T200
G1 F600
G1 Z0.000 F2500
G1 X58.500 Y91.500
G1 X58.500 Y91.750
G1 X58.250 Y91.750
G0 Z2.000 F3000
M400
M204 P600 T600
G1 F1300
G0 X56.500 Y90.000 Z2.000
M400
M204 P200 T200
G1 F600
G1 Z0.000 F2500
G1 X56.750 Y90.000
G1 X56.750 Y89.750
G1 X57.000 Y89.500
G0 Z2.000 F3000
M400
M204 P600 T600
G1 F1300
G0 X55.000 Y91.500 Z2.000
M400
M204 P200 T200
G1 F600
G1 Z0.000 F2500
G1 X55.000 Y91.750
G1 X54.750 Y91.750
G1 X54.500 Y92.000
G0 Z2.000 F3000
M400
M204 P600 T600
G1 F1300
G0 X56.500 Y93.500 Z2.000
M400
M204 P200 T200
G1 F600
G1 Z0.000 F2500
G1 X56.750 Y93.500
G0 Z2.000 F3000
M400
M204 P600 T600
G1 F1300
G0 X60.250 Y93.500 Z2.000
M400
M204 P200 T200
G1 F600
G1 Z0.000 F2500
G1 X60.500 Y93.250
G0 Z2.000 F3000
M400
M204 P600 T600
G1 F1300
G0 X52.750 Y93.750 Z2.000
M400
M204 P200 T200
G1 F600
G1 Z0.000 F2500
G1 X52.500 Y94.000
G0 Z2.000 F3000
M400
M204 P600 T600
G1 F1300
G0 X50.750 Y92.250 Z2.000
M400
M204 P200 T200
G1 F600
G1 Z0.000 F2500
G1 X51.000 Y92.000
G0 Z2.000 F3000
M400
M204 P600 T600
G1 F1300
G0 X52.750 Y90.250 Z2.000
M400
M204 P200 T200
G1 F600
G1 Z0.000 F2500
G1 X53.000 Y90.000
G0 Z2.000 F3000
M400
M204 P600 T600
G1 F1300
G0 X49.250 Y93.750 Z2.000
M400
M204 P200 T200
G1 F600
G1 Z0.000 F2500
G1 X49.000 Y94.000
G1 X49.000 Y94.250
G1 X48.750 Y94.250
G0 Z2.000 F3000
M400
M204 P600 T600
G1 F1300
G0 X50.500 Y96.000 Z2.000
M400
M204 P200 T200
G1 F600
G1 Z0.000 F2500
G1 X50.750 Y96.000
G1 X50.750 Y95.750
G0 Z2.000 F3000
M400
M204 P600 T600
G1 F1300
G0 X52.500 Y97.500 Z2.000
M400
M204 P200 T200
G1 F600
G1 Z0.000 F2500
G1 X52.500 Y97.750
G0 Z2.000 F3000
M400
M204 P600 T600
G1 F1300
G0 X50.750 Y99.500 Z2.000
M400
M204 P200 T200
G1 F600
G1 Z0.000 F2500
G1 X50.500 Y99.750
G0 Z2.000 F3000
M400
M204 P600 T600
G1 F1300
G0 X49.000 Y97.750 Z2.000
M400
M204 P200 T200
G1 F600
G1 Z0.000 F2500
G1 X48.750 Y97.750
G1 X48.500 Y98.000
G0 Z2.000 F3000
M400
M204 P600 T600
G1 F1300
G0 X46.750 Y96.250 Z2.000
M400
M204 P200 T200
G1 F600
G1 Z0.000 F2500
G1 X47.000 Y96.000
G1 X47.000 Y96.000
G0 Z2.000 F3000
M400
M204 P600 T600
G1 F1300
G0 X46.750 Y99.750 Z2.000
M400
M204 P200 T200
G1 F600
G1 Z0.000 F2500
G1 X46.500 Y100.000
G0 Z2.000 F3000
M400
M204 P600 T600
G1 F1300
G0 X48.500 Y101.500 Z2.000
M400
M204 P200 T200
G1 F600
G1 Z0.000 F2500
G1 X48.750 Y101.500
G0 Z2.000 F3000
M400
M204 P600 T600
G1 F1300
G0 X40.750 Y105.750 Z2.000
M400
M204 P200 T200
G1 F600
G1 Z0.000 F2500
G1 X40.500 Y106.000
G0 Z2.000 F3000
M400
M204 P600 T600
G1 F1300
G0 X38.750 Y107.750 Z2.000
M400
M204 P200 T200
G1 F600
G1 Z0.000 F2500
G1 X38.750 Y108.000
G1 X38.500 Y108.000
G0 Z2.000 F3000
M400
M204 P600 T600
G1 F1300
G0 X36.750 Y109.750 Z2.000
M400
M204 P200 T200
G1 F600
G1 Z0.000 F2500
G1 X36.750 Y110.000
G1 X36.500 Y110.000
G0 Z2.000 F3000
M400
M204 P600 T600
G1 F1300
G0 X34.750 Y108.250 Z2.000
M400
M204 P200 T200
G1 F600
G1 Z0.000 F2500
G1 X35.000 Y108.000
G1 X35.000 Y108.000
G0 Z2.000 F3000
M400
M204 P600 T600
G1 F1300
G0 X34.750 Y111.750 Z2.000
M400
M204 P200 T200
G1 F600
G1 Z0.000 F2500
G1 X34.500 Y112.000
G1 X34.500 Y112.250
G0 Z2.000 F3000
M400
M204 P600 T600
G1 F1300
G0 X32.750 Y113.750 Z2.000
M400
M204 P200 T200
G1 F600
G1 Z0.000 F2500
G1 X32.750 Y114.000
G1 X32.500 Y114.250
G0 Z2.000 F3000
M400
M204 P600 T600
G1 F1300
G0 X30.750 Y116.000 Z2.000
M400
M204 P200 T200
G1 F600
G1 Z0.000 F2500
G1 X30.500 Y116.000
G0 Z2.000 F3000
M400
M204 P600 T600
G1 F1300
G0 X32.250 Y117.750 Z2.000
M400
M204 P200 T200
G1 F600
G1 Z0.000 F2500
G1 X32.500 Y117.750
G0 Z2.000 F3000
M400
M204 P600 T600
G1 F1300
G0 X30.250 Y119.750 Z2.000
M400
M204 P200 T200
G1 F600
G1 Z0.000 F2500
G1 X30.250 Y120.000
G0 Z2.000 F3000
M400
M204 P600 T600
G1 F1300
G0 X28.500 Y118.250 Z2.000
M400
M204 P200 T200
G1 F600
G1 Z0.000 F2500
G1 X28.500 Y118.000
G0 Z2.000 F3000
M400
M204 P600 T600
G1 F1300
G0 X26.750 Y119.750 Z2.000
M400
M204 P200 T200
G1 F600
G1 Z0.000 F2500
G1 X26.500 Y120.000
G1 X26.500 Y120.250
G1 X26.250 Y120.250
G0 Z2.000 F3000
M400
M204 P600 T600
G1 F1300
G0 X28.250 Y122.000 Z2.000
M400
M204 P200 T200
G1 F600
G1 Z0.000 F2500
G1 X28.500 Y121.750
G0 Z2.000 F3000
M400
M204 P600 T600
G1 F1300
G0 X26.500 Y123.500 Z2.000
M400
M204 P200 T200
G1 F600
G1 Z0.000 F2500
G1 X26.500 Y123.750
G1 X26.250 Y123.750
G1 X26.000 Y124.000
G0 Z2.000 F3000
M400
M204 P600 T600
G1 F1300
G0 X24.250 Y122.250 Z2.000
M400
M204 P200 T200
G1 F600
G1 Z0.000 F2500
G1 X24.500 Y122.000
G1 X24.750 Y122.000
G1 X24.750 Y121.750
G0 Z2.000 F3000
M400
M204 P600 T600
G1 F1300
G0 X22.500 Y124.000 Z2.000
M400
M204 P200 T200
G1 F600
G1 Z0.000 F2500
G1 X22.250 Y124.250
G0 Z2.000 F3000
M400
M204 P600 T600
G1 F1300
G0 X20.500 Y122.500 Z2.000
M400
M204 P200 T200
G1 F600
G1 Z0.000 F2500
G1 X20.500 Y122.500
G1 X20.750 Y122.250
G0 Z2.000 F3000
M400
M204 P600 T600
G1 F1300
G0 X20.500 Y126.000 Z2.000
M400
M204 P200 T200
G1 F600
G1 Z0.000 F2500
G1 X20.500 Y126.250
G0 Z2.000 F3000
M400
M204 P600 T600
G1 F1300
G0 X22.250 Y127.750 Z2.000
M400
M204 P200 T200
G1 F600
G1 Z0.000 F2500
G1 X22.250 Y128.000
G0 Z2.000 F3000
M400
M204 P600 T600
G1 F1300
G0 X24.250 Y126.000 Z2.000
M400
M204 P200 T200
G1 F600
G1 Z0.000 F2500
G1 X24.250 Y125.750
G0 Z2.000 F3000
M400
M204 P600 T600
G1 F1300
G0 X20.500 Y129.750 Z2.000
M400
M204 P200 T200
G1 F600
G1 Z0.000 F2500
G1 X20.250 Y129.750
G1 X20.000 Y130.000
G1 X20.000 Y130.250
G0 Z2.000 F3000
M400
M204 P600 T600
G1 F1300
G0 X18.250 Y128.500 Z2.000
M400
M204 P200 T200
G1 F600
G1 Z0.000 F2500
G1 X18.250 Y128.250
G1 X18.500 Y128.000
G1 X18.750 Y128.000
G1 X18.750 Y127.750
G0 Z2.000 F3000
M400
M204 P600 T600
G1 F1300
G0 X17.000 Y126.000 Z2.000
M400
M204 P200 T200
G1 F600
G1 Z0.000 F2500
G1 X17.000 Y126.250
G1 X16.750 Y126.250
G1 X16.500 Y126.500
G0 Z2.000 F3000
M400
M204 P600 T600
G1 F1300
G0 X15.000 Y128.000 Z2.000
M400
M204 P200 T200
G1 F600
G1 Z0.000 F2500
G1 X15.000 Y128.000
G1 X14.750 Y128.250
G1 X14.500 Y128.500
G1 X14.500 Y128.500
G0 Z2.000 F3000
M400
M204 P600 T600
G1 F1300
G0 X16.750 Y129.750 Z2.000
M400
M204 P200 T200
G1 F600
G1 Z0.000 F2500
G1 X16.500 Y130.000
G1 X16.250 Y130.250
G1 X16.250 Y130.500
G0 Z2.000 F3000
M400
M204 P600 T600
G1 F1300
G0 X18.000 Y132.250 Z2.000
M400
M204 P200 T200
G1 F600
G1 Z0.000 F2500
G1 X18.250 Y132.000
G1 X18.250 Y131.750
G1 X18.500 Y131.750
G0 Z2.000 F3000
M400
M204 P600 T600
G1 F1300
G0 X16.250 Y133.750 Z2.000
M400
M204 P200 T200
G1 F600
G1 Z0.000 F2500
G1 X16.250 Y134.000
G1 X16.000 Y134.000
G0 Z2.000 F3000
M400
M204 P600 T600
G1 F1300
G0 X14.250 Y132.250 Z2.000
M400
M204 P200 T200
G1 F600
G1 Z0.000 F2500
G1 X14.500 Y132.250
G1 X14.500 Y132.000
G1 X14.750 Y131.750
G0 Z2.000 F3000
M400
M204 P600 T600
G1 F1300
G0 X13.000 Y130.000 Z2.000
M400
M204 P200 T200
G1 F600
G1 Z0.000 F2500
G1 X12.750 Y130.250
G1 X12.750 Y130.500
G1 X12.500 Y130.500
G0 Z2.000 F3000
M400
M204 P600 T600
G1 F1300
G0 X10.750 Y132.250 Z2.000
M400
M204 P200 T200
G1 F600
G1 Z0.000 F2500
G1 X10.500 Y132.500
G0 Z2.000 F3000
M400
M204 P600 T600
G1 F1300
G0 X12.250 Y134.250 Z2.000
M400
M204 P200 T200
G1 F600
G1 Z0.000 F2500
G1 X12.500 Y134.000
G1 X12.750 Y134.000
G1 X12.750 Y133.750
G0 Z2.000 F3000
M400
M204 P600 T600
G1 F1300
G0 X14.500 Y135.750 Z2.000
M400
M204 P200 T200
G1 F600
G1 Z0.000 F2500
G1 X14.250 Y135.750
G1 X14.000 Y136.000
G1 X14.000 Y136.250
G0 Z2.000 F3000
M400
M204 P600 T600
G1 F1300
G0 X12.000 Y138.000 Z2.000
M400
M204 P200 T200
G1 F600
G1 Z0.000 F2500
G1 X12.000 Y138.250
G0 Z2.000 F3000
M400
M204 P600 T600
G1 F1300
G0 X10.250 Y136.500 Z2.000
M400
M204 P200 T200
G1 F600
G1 Z0.000 F2500
G1 X10.250 Y136.250
G1 X10.500 Y136.000
G0 Z2.000 F3000
M400
M204 P600 T600
G1 F1300
G0 X8.750 Y134.250 Z2.000
M400
M204 P200 T200
G1 F600
G1 Z0.000 F2500
G1 X8.500 Y134.500
G0 Z2.000 F3000
M400
M204 P600 T600
G1 F1300
G0 X8.500 Y138.000 Z2.000
M400
M204 P200 T200
G1 F600
G1 Z0.000 F2500
G1 X8.500 Y138.250
G1 X8.250 Y138.250
G0 Z2.000 F3000
M400
M204 P600 T600
G1 F1300
G0 X6.750 Y140.000 Z2.000
M400
M204 P200 T200
G1 F600
G1 Z0.000 F2500
G1 X6.500 Y140.000
G1 X6.250 Y140.250
G0 Z2.000 F3000
M400
M204 P600 T600
G1 F1300
G0 X4.750 Y138.250 Z2.000
M400
M204 P200 T200
G1 F600
G1 Z0.000 F2500
G1 X4.750 Y138.250
G0 Z2.000 F3000
M400
M204 P600 T600
G1 F1300
G0 X4.500 Y142.000 Z2.000
M400
M204 P200 T200
G1 F600
G1 Z0.000 F2500
G1 X4.250 Y142.250
G1 X4.250 Y142.500
G0 Z2.000 F3000
M400
M204 P600 T600
G1 F1300
G0 X2.500 Y144.000 Z2.000
M400
M204 P200 T200
G1 F600
G1 Z0.000 F2500
G1 X2.500 Y144.250
G1 X2.250 Y144.250
G0 Z2.000 F3000
M400
M204 P600 T600
G1 F1300
G0 X0.500 Y146.000 Z2.000
M400
M204 P200 T200
G1 F600
G1 Z0.000 F2500
G1 X0.250 Y146.250
G0 Z2.000 F3000
M400
M204 P600 T600
G1 F1300
G0 X0.000 Y150.000 Z2.000
M400
M204 P200 T200
G1 F600
G1 Z0.000 F2500
G1 X0.000 Y150.000
G1 X0.000 Y150.000
G0 Z2.000 F3000
M400
M204 P600 T600
G1 F1300
G0 X0.000 Y150.000 Z2.000
M400
M204 P200 T200
G1 F600
G1 Z0.000 F2500
G1 X0.000 Y150.000
G0 Z2.000 F3000
M400
M204 P600 T600
G1 F1300
G0 X8.500 Y150.000 Z2.000
M400
M204 P200 T200
G1 F600
G1 Z0.000 F2500
G1 X8.750 Y150.000
G0 Z2.000 F3000
M400
M204 P600 T600
G1 F1300
G0 X10.500 Y150.000 Z2.000
M400
M204 P200 T200
G1 F600
G1 Z0.000 F2500
G1 X10.750 Y150.000
G0 Z2.000 F3000
M400
M204 P600 T600
G1 F1300
G0 X12.250 Y150.000 Z2.000
M400
M204 P200 T200
G1 F600
G1 Z0.000 F2500
G1 X12.500 Y150.000
G1 X12.750 Y150.000
G1 X12.750 Y150.000
G0 Z2.000 F3000
M400
M204 P600 T600
G1 F1300
G0 X14.250 Y150.000 Z2.000
M400
M204 P200 T200
G1 F600
G1 Z0.000 F2500
G1 X14.500 Y150.000
G1 X14.500 Y150.000
G1 X14.750 Y150.000
G0 Z2.000 F3000
M400
M204 P600 T600
G1 F1300
G0 X16.000 Y150.000 Z2.000
M400
M204 P200 T200
G1 F600
G1 Z0.000 F2500
G1 X16.250 Y150.000
G1 X16.250 Y150.000
G1 X16.500 Y150.000
G1 X16.750 Y150.000
G1 X17.000 Y150.000
G0 Z2.000 F3000
M400
M204 P600 T600
G1 F1300
G0 X18.250 Y150.000 Z2.000
M400
M204 P200 T200
G1 F600
G1 Z0.000 F2500
G1 X18.250 Y150.000
G1 X18.500 Y150.000
G1 X18.750 Y150.000
G1 X18.750 Y150.000
G0 Z2.000 F3000
M400
M204 P600 T600
G1 F1300
G0 X20.000 Y150.000 Z2.000
M400
M204 P200 T200
G1 F600
G1 Z0.000 F2500
G1 X20.250 Y150.000
G1 X20.500 Y150.000
G1 X20.500 Y150.000
G1 X20.750 Y150.000
G1 X21.000 Y150.000
G0 Z2.000 F3000
M400
M204 P600 T600
G1 F1300
G0 X22.250 Y150.000 Z2.000
M400
M204 P200 T200
G1 F600
G1 Z0.000 F2500
G1 X22.500 Y150.000
G1 X22.750 Y150.000
G0 Z2.000 F3000
M400
M204 P600 T600
G1 F1300
G0 X24.750 Y150.000 Z2.000
M400
M204 P200 T200
G1 F600
G1 Z0.000 F2500
G1 X24.500 Y150.000
G1 X24.250 Y150.000
G1 X24.250 Y150.000
G1 X24.000 Y150.000
G0 Z2.000 F3000
M400
M204 P600 T600
G1 F1300
G0 X26.250 Y150.000 Z2.000
M400
M204 P200 T200
G1 F600
G1 Z0.000 F2500
G1 X26.500 Y150.000
G0 Z2.000 F3000
M400
M204 P600 T600
G1 F1300
G0 X28.250 Y150.000 Z2.000
M400
M204 P200 T200
G1 F600
G1 Z0.000 F2500
G1 X28.000 Y150.000
G0 Z2.000 F3000
M400
M204 P600 T600
G1 F1300
G0 X24.750 Y150.000 Z2.000
M400
M204 P200 T200
G1 F600
G1 Z0.000 F2500
G1 X24.500 Y150.000
G0 Z2.000 F3000
M400
M204 P600 T600
G1 F1300
G0 X22.750 Y150.000 Z2.000
M400
M204 P200 T200
G1 F600
G1 Z0.000 F2500
G1 X22.500 Y150.000
G1 X22.250 Y150.000
G1 X22.250 Y150.000
G1 X22.000 Y150.000
G0 Z2.000 F3000
M400
M204 P600 T600
G1 F1300
G0 X24.000 Y150.000 Z2.000
M400
M204 P200 T200
G1 F600
G1 Z0.000 F2500
G1 X24.250 Y150.000
G0 Z2.000 F3000
M400
M204 P600 T600
G1 F1300
G0 X20.500 Y150.000 Z2.000
M400
M204 P200 T200
G1 F600
G1 Z0.000 F2500
G1 X20.500 Y150.000
G1 X20.250 Y150.000
G1 X20.000 Y150.000
G1 X20.000 Y150.000
G0 Z2.000 F3000
M400
M204 P600 T600
G1 F1300
G0 X18.750 Y150.000 Z2.000
M400
M204 P200 T200
G1 F600
G1 Z0.000 F2500
G1 X18.500 Y150.000
G1 X18.250 Y150.000
G1 X18.250 Y150.000
G1 X18.000 Y150.000
G0 Z2.000 F3000
M400
M204 P600 T600
G1 F1300
G0 X16.500 Y150.000 Z2.000
M400
M204 P200 T200
G1 F600
G1 Z0.000 F2500
G1 X16.250 Y150.000
G1 X16.250 Y150.000
G1 X16.000 Y150.000
G0 Z2.000 F3000
M400
M204 P600 T600
G1 F1300
G0 X14.500 Y150.000 Z2.000
M400
M204 P200 T200
G1 F600
G1 Z0.000 F2500
G1 X14.500 Y150.000
G1 X14.250 Y150.000
G1 X14.000 Y150.000
G1 X14.000 Y150.000
G0 Z2.000 F3000
M400
M204 P600 T600
G1 F1300
G0 X12.500 Y150.000 Z2.000
M400
M204 P200 T200
G1 F600
G1 Z0.000 F2500
G1 X12.250 Y150.000
G1 X12.000 Y150.000
G1 X12.000 Y150.000
G0 Z2.000 F3000
M400
M204 P600 T600
G1 F1300
G0 X10.750 Y150.000 Z2.000
M400
M204 P200 T200
G1 F600
G1 Z0.000 F2500
G1 X10.500 Y150.000
G1 X10.250 Y150.000
G1 X10.250 Y150.000
G1 X10.000 Y150.000
G0 Z2.000 F3000
M400
M204 P600 T600
G1 F1300
G0 X8.750 Y150.000 Z2.000
M400
M204 P200 T200
G1 F600
G1 Z0.000 F2500
G1 X8.500 Y150.000
G1 X8.500 Y150.000
G1 X8.250 Y150.000
G1 X8.000 Y150.000
G0 Z2.000 F3000
M400
M204 P600 T600
G1 F1300
G0 X9.750 Y150.000 Z2.000
M400
M204 P200 T200
G1 F600
G1 Z0.000 F2500
G1 X10.000 Y150.000
G1 X10.250 Y150.000
G1 X10.250 Y150.000
G1 X10.500 Y150.000
G0 Z2.000 F3000
M400
M204 P600 T600
G1 F1300
G0 X12.000 Y150.000 Z2.000
M400
M204 P200 T200
G1 F600
G1 Z0.000 F2500
G1 X11.750 Y150.000
G0 Z2.000 F3000
M400
M204 P600 T600
G1 F1300
G0 X10.250 Y150.000 Z2.000
M400
M204 P200 T200
G1 F600
G1 Z0.000 F2500
G1 X10.000 Y150.000
G0 Z2.000 F3000
M400
M204 P600 T600
G1 F1300
G0 X8.000 Y150.000 Z2.000
M400
M204 P200 T200
G1 F600
G1 Z0.000 F2500
G1 X8.000 Y150.000
G1 X8.250 Y150.000
G1 X8.500 Y150.000
G0 Z2.000 F3000
M400
M204 P600 T600
G1 F1300
G0 X6.750 Y150.000 Z2.000
M400
M204 P200 T200
G1 F600
G1 Z0.000 F2500
G1 X6.500 Y150.000
G1 X6.250 Y150.000
G0 Z2.000 F3000
M400
M204 P600 T600
G1 F1300
G0 X4.250 Y150.000 Z2.000
M400
M204 P200 T200
G1 F600
G1 Z0.000 F2500
G1 X4.500 Y150.000
G1 X4.750 Y150.000
G1 X4.750 Y150.000
G1 X5.000 Y150.000
G0 Z2.000 F3000
M400
M204 P600 T600
G1 F1300
G0 X3.000 Y150.000 Z2.000
M400
M204 P200 T200
G1 F600
G1 Z0.000 F2500
G1 X3.000 Y150.000
G1 X2.750 Y150.000
G1 X2.500 Y150.000
G1 X2.500 Y150.000
G1 X2.250 Y150.000
G0 Z2.000 F3000
M400
M204 P600 T600
G1 F1300
G0 X4.000 Y150.000 Z2.000
M400
M204 P200 T200
G1 F600
G1 Z0.000 F2500
G1 X4.250 Y150.000
G1 X4.250 Y150.000
G1 X4.500 Y150.000
G1 X4.750 Y150.000
G1 X4.750 Y150.000
G0 Z2.000 F3000
M400
M204 P600 T600
G1 F1300
G0 X6.500 Y150.000 Z2.000
M400
M204 P200 T200
G1 F600
G1 Z0.000 F2500
G1 X6.250 Y150.000
G1 X6.000 Y150.000
G1 X6.000 Y150.000
G0 Z2.000 F3000
M400
M204 P600 T600
G1 F1300
G0 X8.000 Y150.000 Z2.000
M400
M204 P200 T200
G1 F600
G1 Z0.000 F2500
G1 X8.000 Y150.000
G0 Z2.000 F3000
M400
M204 P600 T600
G1 F1300
G0 X6.000 Y150.000 Z2.000
M400
M204 P200 T200
G1 F600
G1 Z0.000 F2500
G1 X5.750 Y150.000
G0 Z2.000 F3000
M400
M204 P600 T600
G1 F1300
G0 X3.750 Y150.000 Z2.000
M400
M204 P200 T200
G1 F600
G1 Z0.000 F2500
G1 X3.750 Y150.000
G1 X4.000 Y150.000
G1 X4.250 Y150.000
G1 X4.250 Y150.000
G1 X4.500 Y150.000
G0 Z2.000 F3000
M400
M204 P600 T600
G1 F1300
G0 X2.750 Y150.000 Z2.000
M400
M204 P200 T200
G1 F600
G1 Z0.000 F2500
G1 X2.500 Y150.000
G1 X2.500 Y150.000
G1 X2.250 Y150.000
G1 X2.000 Y150.000
G0 Z2.000 F3000
M400
M204 P600 T600
G1 F1300
G0 X0.250 Y150.000 Z2.000
M400
M204 P200 T200
G1 F600
G1 Z0.000 F2500
G1 X0.500 Y150.000
G1 X0.750 Y150.000
G1 X0.750 Y150.000
G1 X1.000 Y150.000
G0 Z2.000 F3000
M400
M204 P600 T600
G1 F1300
G0 X0.750 Y150.000 Z2.000
M400
M204 P200 T200
G1 F600
G1 Z0.000 F2500
G0 Z2.000 F3000

; --- CIKEL NAMAKANJA ---
G0 Z2.000 F3000
M400
M204 P600 T600
G1 F1300
G0 X55.606 Y0.000 Z8.000
G1 Z1.000 F3000
G1 X55.606 Y0.000 F2500
G1 X55.606 Y1.750 F2500
G1 X52.106 Y0.000 F2500
G1 X55.606 Y0.000 F2500
G0 Z3.000 F3000
G0 X52.659 Y18.968
G0 Z8.000 F3000
G0 X0.750 Y150.000 Z2.000
M400
M204 P200 T200
G1 F600
G1 Z0.000 F2500
G1 X0.750 Y150.000
G1 X0.500 Y150.000
G1 X0.250 Y150.000
G1 X0.000 Y150.000
G1 X0.000 Y150.000
G1 X0.000 Y150.000
G0 Z2.000 F3000
M400
M204 P600 T600
G1 F1300
G0 X1.750 Y150.000 Z2.000
M400
M204 P200 T200
G1 F600
G1 Z0.000 F2500
G1 X1.750 Y150.000
G1 X2.000 Y150.000
G1 X2.250 Y150.000
G1 X2.500 Y150.000
G1 X2.500 Y150.000
G0 Z2.000 F3000
M400
M204 P600 T600
G1 F1300
G0 X4.250 Y150.000 Z2.000
M400
M204 P200 T200
G1 F600
G1 Z0.000 F2500
G1 X4.000 Y150.000
G1 X3.750 Y150.000
G1 X3.750 Y150.000
G0 Z2.000 F3000
M400
M204 P600 T600
G1 F1300
G0 X0.500 Y150.000 Z2.000
M400
M204 P200 T200
G1 F600
G1 Z0.000 F2500
G1 X0.250 Y150.000
G1 X0.000 Y150.000
G1 X0.000 Y150.000
G1 X0.000 Y150.000
G0 Z2.000 F3000
M400
M204 P600 T600
G1 F1300
G0 X20.500 Y150.000 Z2.000
M400
M204 P200 T200
G1 F600
G1 Z0.000 F2500
G1 X20.750 Y150.000
G0 Z2.000 F3000
M400
M204 P600 T600
G1 F1300
G0 X28.500 Y150.000 Z2.000
M400
M204 P200 T200
G1 F600
G1 Z0.000 F2500
G1 X28.500 Y150.000
G1 X28.750 Y150.000
G1 X29.000 Y150.000
G0 Z2.000 F3000
M400
M204 P600 T600
G1 F1300
G0 X30.250 Y150.000 Z2.000
M400
M204 P200 T200
G1 F600
G1 Z0.000 F2500
G1 X30.500 Y150.000
G1 X30.750 Y150.000
G1 X30.750 Y150.000
G0 Z2.000 F3000
M400
M204 P600 T600
G1 F1300
G0 X32.250 Y150.000 Z2.000
M400
M204 P200 T200
G1 F600
G1 Z0.000 F2500
G1 X32.500 Y150.000
G1 X32.750 Y150.000
G1 X32.750 Y150.000
G1 X33.000 Y150.000
G0 Z2.000 F3000
M400
M204 P600 T600
G1 F1300
G0 X34.500 Y150.000 Z2.000
M400
M204 P200 T200
G1 F600
G1 Z0.000 F2500
G1 X34.500 Y150.000
G1 X34.750 Y150.000
G1 X35.000 Y150.000
G0 Z2.000 F3000
M400
M204 P600 T600
G1 F1300
G0 X36.750 Y150.000 Z2.000
M400
M204 P200 T200
G1 F600
G1 Z0.000 F2500
G1 X36.750 Y150.000
G0 Z2.000 F3000
M400
M204 P600 T600
G1 F1300
G0 X36.750 Y150.000 Z2.000
M400
M204 P200 T200
G1 F600
G1 Z0.000 F2500
G1 X36.500 Y150.000
G1 X36.250 Y150.000
G1 X36.250 Y150.000
G0 Z2.000 F3000
M400
M204 P600 T600
G1 F1300
G0 X34.750 Y150.000 Z2.000
M400
M204 P200 T200
G1 F600
G1 Z0.000 F2500
G1 X34.500 Y150.000
G1 X34.500 Y150.000
G1 X34.250 Y150.000
G0 Z2.000 F3000
M400
M204 P600 T600
G1 F1300
G0 X32.750 Y150.000 Z2.000
M400
M204 P200 T200
G1 F600
G1 Z0.000 F2500
G1 X32.750 Y150.000
G1 X32.500 Y150.000
G1 X32.250 Y150.000
G0 Z2.000 F3000
M400
M204 P600 T600
G1 F1300
G0 X30.500 Y150.000 Z2.000
M400
M204 P200 T200
G1 F600
G1 Z0.000 F2500
G1 X30.250 Y150.000
G1 X30.250 Y150.000
G0 Z2.000 F3000
M400
M204 P600 T600
G1 F1300
G0 X42.500 Y150.000 Z2.000
M400
M204 P200 T200
G1 F600
G1 Z0.000 F2500
G1 X42.750 Y150.000
G0 Z2.000 F3000
M400
M204 P600 T600
G1 F1300
G0 X44.500 Y150.000 Z2.000
M400
M204 P200 T200
G1 F600
G1 Z0.000 F2500
G1 X44.750 Y150.000
G0 Z2.000 F3000
M400
M204 P600 T600
G1 F1300
G0 X43.000 Y150.000 Z2.000
M400
M204 P200 T200
G1 F600
G1 Z0.000 F2500
G1 X42.750 Y150.000
G1 X42.500 Y150.000
G0 Z2.000 F3000
M400
M204 P600 T600
G1 F1300
G0 X44.500 Y150.000 Z2.000
M400
M204 P200 T200
G1 F600
G1 Z0.000 F2500
G1 X44.750 Y150.000
G1 X44.750 Y150.000
G1 X45.000 Y150.000
G0 Z2.000 F3000
M400
M204 P600 T600
G1 F1300
G0 X46.500 Y150.000 Z2.000
M400
M204 P200 T200
G1 F600
G1 Z0.000 F2500
G1 X46.500 Y150.000
G1 X46.750 Y150.000
G1 X47.000 Y150.000
G1 X47.000 Y150.000
G0 Z2.000 F3000
M400
M204 P600 T600
G1 F1300
G0 X48.500 Y150.000 Z2.000
M400
M204 P200 T200
G1 F600
G1 Z0.000 F2500
G1 X48.750 Y150.000
G1 X49.000 Y150.000
G1 X49.000 Y150.000
G0 Z2.000 F3000
M400
M204 P600 T600
G1 F1300
G0 X50.750 Y150.000 Z2.000
M400
M204 P200 T200
G1 F600
G1 Z0.000 F2500
G1 X50.750 Y150.000
G0 Z2.000 F3000
M400
M204 P600 T600
G1 F1300
G0 X52.500 Y150.000 Z2.000
M400
M204 P200 T200
G1 F600
G1 Z0.000 F2500
G1 X52.500 Y150.000
G1 X52.750 Y150.000
G0 Z2.000 F3000
M400
M204 P600 T600
G1 F1300
G0 X50.750 Y150.000 Z2.000
M400
M204 P200 T200
G1 F600
G1 Z0.000 F2500
G1 X50.750 Y150.000
G1 X50.500 Y150.000
G1 X50.250 Y150.000
G1 X50.250 Y150.000
G0 Z2.000 F3000
M400
M204 P600 T600
G1 F1300
G0 X48.750 Y150.000 Z2.000
M400
M204 P200 T200
G1 F600
G1 Z0.000 F2500
G1 X48.500 Y150.000
G1 X48.250 Y150.000
G1 X48.250 Y150.000
G0 Z2.000 F3000
M400
M204 P600 T600
G1 F1300
G0 X44.750 Y150.000 Z2.000
M400
M204 P200 T200
G1 F600
G1 Z0.000 F2500
G1 X45.000 Y150.000
G0 Z2.000 F3000
M400
M204 P600 T600
G1 F1300
G0 X40.750 Y150.000 Z2.000
M400
M204 P200 T200
G1 F600
G1 Z0.000 F2500
G1 X40.500 Y150.000
G0 Z2.000 F3000
M400
M204 P600 T600
G1 F1300
G0 X55.000 Y150.000 Z2.000
M400
M204 P200 T200
G1 F600
G1 Z0.000 F2500
G1 X55.000 Y150.000
G1 X54.750 Y150.000
G0 Z2.000 F3000
M400
M204 P600 T600
G1 F1300
G0 X56.500 Y150.000 Z2.000
M400
M204 P200 T200
G1 F600
G1 Z0.000 F2500
G1 X56.750 Y150.000
G0 Z2.000 F3000
M400
M204 P600 T600
G1 F1300
G0 X67.000 Y150.000 Z2.000
M400
M204 P200 T200
G1 F600
G1 Z0.000 F2500
G1 X67.000 Y150.000
G0 Z2.000 F3000
M400
M204 P600 T600
G1 F1300
G0 X70.750 Y150.000 Z2.000
M400
M204 P200 T200
G1 F600
G1 Z0.000 F2500
G1 X70.750 Y150.000
G0 Z2.000 F3000
M400
M204 P600 T600
G1 F1300
G0 X73.000 Y150.000 Z2.000
M400
M204 P200 T200
G1 F600
G1 Z0.000 F2500
G1 X73.000 Y150.000
G0 Z2.000 F3000
M400
M204 P600 T600
G1 F1300
G0 X76.750 Y150.000 Z2.000
M400
M204 P200 T200
G1 F600
G1 Z0.000 F2500
G1 X76.750 Y150.000
G0 Z2.000 F3000
M400
M204 P600 T600
G1 F1300
G0 X84.750 Y150.000 Z2.000
M400
M204 P200 T200
G1 F600
G1 Z0.000 F2500
G1 X85.000 Y150.000
G0 Z2.000 F3000
M400
M204 P600 T600
G1 F1300
G0 X86.500 Y148.500 Z2.000
M400
M204 P200 T200
G1 F600
G1 Z0.000 F2500
G1 X86.750 Y148.250
G1 X87.000 Y148.000
G1 X87.000 Y148.000
G1 X87.250 Y147.750
G0 Z2.000 F3000
M400
M204 P600 T600
G1 F1300
G0 X88.500 Y146.500 Z2.000
M400
M204 P200 T200
G1 F600
G1 Z0.000 F2500
G1 X88.750 Y146.250
G1 X88.750 Y146.000
G1 X89.000 Y146.000
G1 X89.250 Y145.750
G0 Z2.000 F3000
M400
M204 P600 T600
G1 F1300
G0 X90.500 Y144.500 Z2.000
M400
M204 P200 T200
G1 F600
G1 Z0.000 F2500
G1 X90.500 Y144.250
G1 X90.750 Y144.250
G1 X91.000 Y144.000
G1 X91.250 Y143.750
G1 X91.250 Y143.750
G0 Z2.000 F3000
M400
M204 P600 T600
G1 F1300
G0 X92.500 Y142.500 Z2.000
M400
M204 P200 T200
G1 F600
G1 Z0.000 F2500
G1 X92.500 Y142.500
G1 X92.750 Y142.250
G1 X93.000 Y142.000
G1 X93.000 Y142.000
G1 X93.250 Y141.750
G0 Z2.000 F3000
M400
M204 P600 T600
G1 F1300
G0 X94.500 Y140.500 Z2.000
M400
M204 P200 T200
G1 F600
G1 Z0.000 F2500
G1 X94.750 Y140.250
G1 X94.750 Y140.000
G1 X95.000 Y140.000
G1 X95.250 Y139.750
G0 Z2.000 F3000
M400
M204 P600 T600
G1 F1300
G0 X96.750 Y138.250 Z2.000
M400
M204 P200 T200
G1 F600
G1 Z0.000 F2500
G1 X97.000 Y138.000
G1 X97.250 Y137.750
G1 X97.250 Y137.750
G0 Z2.000 F3000
M400
M204 P600 T600
G1 F1300
G0 X98.750 Y136.250 Z2.000
M400
M204 P200 T200
G1 F600
G1 Z0.000 F2500
G1 X99.000 Y136.000
G1 X99.000 Y135.750
G0 Z2.000 F3000
M400
M204 P600 T600
G1 F1300
G0 X97.500 Y134.000 Z2.000
M400
M204 P200 T200
G1 F600
G1 Z0.000 F2500
G1 X97.250 Y134.000
G1 X97.250 Y134.250
G1 X97.000 Y134.500
G0 Z2.000 F3000
M400
M204 P600 T600
G1 F1300
G0 X99.000 Y132.500 Z2.000
M400
M204 P200 T200
G1 F600
G1 Z0.000 F2500
G1 X99.000 Y132.250
G1 X99.250 Y132.250
G1 X99.500 Y132.000
G1 X99.500 Y131.750
G0 Z2.000 F3000
M400
M204 P600 T600
G1 F1300
G0 X95.500 Y132.250 Z2.000
M400
M204 P200 T200
G1 F600
G1 Z0.000 F2500
G1 X95.500 Y132.500
G0 Z2.000 F3000
M400
M204 P600 T600
G1 F1300
G0 X93.500 Y134.250 Z2.000
M400
M204 P200 T200
G1 F600
G1 Z0.000 F2500
G1 X93.500 Y134.500
G1 X93.250 Y134.750
G1 X93.000 Y134.750
G0 Z2.000 F3000
M400
M204 P600 T600
G1 F1300
G0 X95.000 Y136.500 Z2.000
M400
M204 P200 T200
G1 F600
G1 Z0.000 F2500
G1 X95.250 Y136.250
G0 Z2.000 F3000
M400
M204 P600 T600
G1 F1300
G0 X93.250 Y138.250 Z2.000
M400
M204 P200 T200
G1 F600
G1 Z0.000 F2500
G1 X93.000 Y138.250
G0 Z2.000 F3000
M400
M204 P600 T600
G1 F1300
G0 X91.250 Y136.750 Z2.000
M400
M204 P200 T200
G1 F600
G1 Z0.000 F2500
G1 X91.250 Y136.500
G1 X91.500 Y136.500
G0 Z2.000 F3000
M400
M204 P600 T600
G1 F1300
G0 X89.500 Y138.250 Z2.000
M400
M204 P200 T200
G1 F600
G1 Z0.000 F2500
G1 X89.250 Y138.500
G0 Z2.000 F3000
M400
M204 P600 T600
G1 F1300
G0 X91.000 Y140.500 Z2.000
M400
M204 P200 T200
G1 F600
G1 Z0.000 F2500
G1 X91.250 Y140.250
G1 X91.250 Y140.000
G1 X91.500 Y140.000
G0 Z2.000 F3000
M400
M204 P600 T600
G1 F1300
G0 X89.250 Y142.000 Z2.000
M400
M204 P200 T200
G1 F600
G1 Z0.000 F2500
G1 X89.250 Y142.250
G1 X89.000 Y142.500
G1 X88.750 Y142.500
G0 Z2.000 F3000
M400
M204 P600 T600
G1 F1300
G0 X87.000 Y140.750 Z2.000
M400
M204 P200 T200
G1 F600
G1 Z0.000 F2500
G1 X87.250 Y140.750
G1 X87.500 Y140.500
G1 X87.500 Y140.250
G0 Z2.000 F3000
M400
M204 P600 T600
G1 F1300
G0 X85.500 Y142.500 Z2.000
M400
M204 P200 T200
G1 F600
G1 Z0.000 F2500
G1 X85.250 Y142.500
G1 X85.250 Y142.750
G0 Z2.000 F3000
M400
M204 P600 T600
G1 F1300
G0 X86.750 Y144.750 Z2.000
M400
M204 P200 T200
G1 F600
G1 Z0.000 F2500
G1 X87.000 Y144.500
G1 X87.000 Y144.250
G1 X87.250 Y144.250
G1 X87.500 Y144.000
G0 Z2.000 F3000
M400
M204 P600 T600
G1 F1300
G0 X85.500 Y146.000 Z2.000
M400
M204 P200 T200
G1 F600
G1 Z0.000 F2500
G1 X85.250 Y146.000
G1 X85.250 Y146.250
G1 X85.000 Y146.500
G1 X84.750 Y146.750
G0 Z2.000 F3000
M400
M204 P600 T600
G1 F1300
G0 X83.250 Y144.500 Z2.000
M400
M204 P200 T200
G1 F600
G1 Z0.000 F2500
G1 X83.500 Y144.250
G0 Z2.000 F3000
M400
M204 P600 T600
G1 F1300
G0 X94.500 Y144.000 Z2.000
M400
M204 P200 T200
G1 F600
G1 Z0.000 F2500
G1 X94.750 Y143.750
G1 X94.750 Y143.750
G0 Z2.000 F3000
M400
M204 P600 T600
G1 F1300
G0 X96.500 Y142.000 Z2.000
M400
M204 P200 T200
G1 F600
G1 Z0.000 F2500
G1 X96.500 Y142.000
G1 X96.750 Y141.750
G0 Z2.000 F3000
M400
M204 P600 T600
G1 F1300
G0 X98.500 Y140.000 Z2.000
M400
M204 P200 T200
G1 F600
G1 Z0.000 F2500
G1 X98.500 Y140.000
G1 X98.750 Y139.750
G0 Z2.000 F3000
M400
M204 P600 T600
G1 F1300
G0 X100.750 Y137.750 Z2.000
M400
M204 P200 T200
G1 F600
G1 Z0.000 F2500
G1 X100.750 Y137.750
G0 Z2.000 F3000
M400
M204 P600 T600
G1 F1300
G0 X105.000 Y126.250 Z2.000
M400
M204 P200 T200
G1 F600
G1 Z0.000 F2500
G1 X105.250 Y126.250
G0 Z2.000 F3000
M400
M204 P600 T600
G1 F1300
G0 X107.250 Y124.250 Z2.000
M400
M204 P200 T200
G1 F600
G1 Z0.000 F2500
G1 X107.500 Y124.000
G0 Z2.000 F3000
M400
M204 P600 T600
G1 F1300
G0 X97.000 Y113.250 Z2.000
M400
M204 P200 T200
G1 F600
G1 Z0.000 F2500
G1 X96.750 Y113.500
G1 X96.500 Y113.500
G1 X96.500 Y113.750
G1 X96.250 Y114.000
G0 Z2.000 F3000
M400
M204 P600 T600
G1 F1300
G0 X98.500 Y111.750 Z2.000
M400
M204 P200 T200
G1 F600
G1 Z0.000 F2500
G1 X98.500 Y111.750
G1 X98.750 Y111.500
G1 X99.000 Y111.250
G0 Z2.000 F3000
M400
M204 P600 T600
G1 F1300
G0 X97.250 Y109.500 Z2.000
M400
M204 P200 T200
G1 F600
G1 Z0.000 F2500
G1 X97.000 Y109.750
G1 X96.750 Y110.000
G0 Z2.000 F3000
M400
M204 P600 T600
G1 F1300
G0 X98.500 Y108.250 Z2.000
M400
M204 P200 T200
G1 F600
G1 Z0.000 F2500
G1 X98.500 Y108.000
G1 X98.750 Y108.000
G1 X99.000 Y107.750
G1 X99.000 Y107.500
G1 X99.250 Y107.500
G0 Z2.000 F3000
M400
M204 P600 T600
G1 F1300
G0 X100.500 Y106.250 Z2.000
M400
M204 P200 T200
G1 F600
G1 Z0.000 F2500
G1 X100.750 Y106.000
G1 X100.750 Y105.750
G1 X101.000 Y105.750
G1 X101.250 Y105.500
G0 Z2.000 F3000
M400
M204 P600 T600
G1 F1300
G0 X102.500 Y104.250 Z2.000
M400
M204 P200 T200
G1 F600
G1 Z0.000 F2500
G1 X102.750 Y104.000
G1 X102.750 Y103.750
G1 X103.000 Y103.750
G1 X103.250 Y103.500
G1 X103.250 Y103.250
G1 X103.500 Y103.250
G0 Z2.000 F3000
M400
M204 P600 T600
G1 F1300
G0 X104.500 Y102.250 Z2.000
M400
M204 P200 T200
G1 F600
G1 Z0.000 F2500
G1 X104.500 Y102.000
G1 X104.750 Y102.000
G1 X105.000 Y101.750
G1 X105.000 Y101.500
G1 X105.250 Y101.500
G0 Z2.000 F3000
M400
M204 P600 T600
G1 F1300
G0 X106.750 Y100.000 Z2.000
M400
M204 P200 T200
G1 F600
G1 Z0.000 F2500
G1 X106.750 Y99.750
G1 X107.000 Y99.750
G1 X107.250 Y99.500
G1 X107.500 Y99.250
G0 Z2.000 F3000
M400
M204 P600 T600
G1 F1300
G0 X108.750 Y98.000 Z2.000
M400
M204 P200 T200
G1 F600
G1 Z0.000 F2500
G1 X108.750 Y97.750
G1 X109.000 Y97.750
G1 X109.250 Y97.500
G1 X109.250 Y97.250
G0 Z2.000 F3000
M400
M204 P600 T600
G1 F1300
G0 X110.750 Y96.000 Z2.000
M400
M204 P200 T200
G1 F600
G1 Z0.000 F2500
G1 X111.000 Y95.750
G1 X111.000 Y95.500
G1 X111.250 Y95.500
G0 Z2.000 F3000
M400
M204 P600 T600
G1 F1300
G0 X113.000 Y93.750 Z2.000
M400
M204 P200 T200
G1 F600
G1 Z0.000 F2500
G1 X113.000 Y93.500
G1 X113.250 Y93.500
G0 Z2.000 F3000
M400
M204 P600 T600
G1 F1300
G0 X111.500 Y91.750 Z2.000
M400
M204 P200 T200
G1 F600
G1 Z0.000 F2500
G1 X111.250 Y91.750
G1 X111.000 Y92.000
G0 Z2.000 F3000
M400
M204 P600 T600
G1 F1300
G0 X109.500 Y93.500 Z2.000
M400
M204 P200 T200
G1 F600
G1 Z0.000 F2500
G1 X109.250 Y93.750
G1 X109.250 Y94.000
G1 X109.000 Y94.250
G0 Z2.000 F3000
M400
M204 P600 T600
G1 F1300
G0 X107.750 Y95.500 Z2.000
M400
M204 P200 T200
G1 F600
G1 Z0.000 F2500
G1 X107.500 Y95.500
G1 X107.500 Y95.750
G1 X107.250 Y96.000
G1 X107.000 Y96.000
G1 X106.750 Y96.250
G0 Z2.000 F3000
M400
M204 P600 T600
G1 F1300
G0 X105.500 Y97.750 Z2.000
M400
M204 P200 T200
G1 F600
G1 Z0.000 F2500
G1 X105.250 Y97.750
G1 X105.000 Y98.000
G1 X105.000 Y98.250
G0 Z2.000 F3000
M400
M204 P600 T600
G1 F1300
G0 X103.250 Y96.500 Z2.000
M400
M204 P200 T200
G1 F600
G1 Z0.000 F2500
G1 X103.250 Y96.250
G1 X103.500 Y96.000
G1 X103.750 Y96.000
G1 X103.750 Y95.750
G0 Z2.000 F3000
M400
M204 P600 T600
G1 F1300
G0 X101.500 Y98.000 Z2.000
M400
M204 P200 T200
G1 F600
G1 Z0.000 F2500
G1 X101.500 Y98.250
G0 Z2.000 F3000
M400
M204 P600 T600
G1 F1300
G0 X103.500 Y99.750 Z2.000
M400
M204 P200 T200
G1 F600
G1 Z0.000 F2500
G1 X103.250 Y99.750
G1 X103.250 Y100.000
G1 X103.000 Y100.250
G1 X102.750 Y100.250
G1 X102.750 Y100.500
G0 Z2.000 F3000
M400
M204 P600 T600
G1 F1300
G0 X101.750 Y101.500 Z2.000
M400
M204 P200 T200
G1 F600
G1 Z0.000 F2500
G1 X101.500 Y101.500
G1 X101.500 Y101.750
G1 X101.250 Y102.000
G1 X101.000 Y102.000
G1 X100.750 Y102.250
G1 X100.750 Y102.500
G0 Z2.000 F3000
M400
M204 P600 T600
G1 F1300
G0 X99.250 Y100.250 Z2.000
M400
M204 P200 T200
G1 F600
G1 Z0.000 F2500
G1 X99.500 Y100.250
G1 X99.500 Y100.000
G0 Z2.000 F3000
M400
M204 P600 T600
G1 F1300
G0 X97.500 Y102.000 Z2.000
M400
M204 P200 T200
G1 F600
G1 Z0.000 F2500
G1 X97.250 Y102.250
G0 Z2.000 F3000
M400
M204 P600 T600
G1 F1300
G0 X99.500 Y103.500 Z2.000
M400
M204 P200 T200
G1 F600
G1 Z0.000 F2500
G1 X99.500 Y103.750
G1 X99.250 Y103.750
G1 X99.000 Y104.000
G1 X99.000 Y104.250
G0 Z2.000 F3000
M400
M204 P600 T600
G1 F1300
G0 X97.500 Y105.750 Z2.000
M400
M204 P200 T200
G1 F600
G1 Z0.000 F2500
G1 X97.250 Y105.750
G1 X97.250 Y106.000
G1 X97.000 Y106.250
G1 X96.750 Y106.250
G0 Z2.000 F3000
M400
M204 P600 T600
G1 F1300
G0 X95.000 Y104.500 Z2.000
M400
M204 P200 T200
G1 F600
G1 Z0.000 F2500
G1 X95.250 Y104.500
G1 X95.500 Y104.250
G1 X95.500 Y104.000
G0 Z2.000 F3000
M400
M204 P600 T600
G1 F1300
G0 X93.750 Y105.750 Z2.000
M400
M204 P200 T200
G1 F600
G1 Z0.000 F2500
G1 X93.500 Y106.000
G1 X93.500 Y106.250
G1 X93.250 Y106.250
G1 X93.000 Y106.500
G0 Z2.000 F3000
M400
M204 P600 T600
G1 F1300
G0 X94.750 Y108.250 Z2.000
M400
M204 P200 T200
G1 F600
G1 Z0.000 F2500
G1 X95.000 Y108.000
G1 X95.250 Y108.000
G1 X95.500 Y107.750
G1 X95.500 Y107.500
G0 Z2.000 F3000
M400
M204 P600 T600
G1 F1300
G0 X93.500 Y109.500 Z2.000
M400
M204 P200 T200
G1 F600
G1 Z0.000 F2500
G1 X93.500 Y109.750
G1 X93.250 Y110.000
G1 X93.000 Y110.000
G1 X93.000 Y110.250
G1 X92.750 Y110.500
G0 Z2.000 F3000
M400
M204 P600 T600
G1 F1300
G0 X91.250 Y108.500 Z2.000
M400
M204 P200 T200
G1 F600
G1 Z0.000 F2500
G1 X91.250 Y108.250
G1 X91.500 Y108.000
G0 Z2.000 F3000
M400
M204 P600 T600
G1 F1300
G0 X89.750 Y110.000 Z2.000
M400
M204 P200 T200
G1 F600
G1 Z0.000 F2500
G1 X89.500 Y110.000
G1 X89.250 Y110.250
G1 X89.250 Y110.500
G1 X89.000 Y110.500
G0 Z2.000 F3000
M400
M204 P600 T600
G1 F1300
G0 X90.500 Y112.500 Z2.000
M400
M204 P200 T200
G1 F600
G1 Z0.000 F2500
G1 X90.750 Y112.250
G1 X91.000 Y112.250
G1 X91.250 Y112.000
G1 X91.250 Y111.750
G1 X91.500 Y111.750
G0 Z2.000 F3000
M400
M204 P600 T600
G1 F1300
G0 X93.250 Y113.500 Z2.000
M400
M204 P200 T200
G1 F600
G1 Z0.000 F2500
G1 X93.000 Y113.500
G1 X93.000 Y113.750
G1 X92.750 Y114.000
G1 X92.500 Y114.250
G1 X92.500 Y114.250
G0 Z2.000 F3000
M400
M204 P600 T600
G1 F1300
G0 X94.500 Y112.250 Z2.000
M400
M204 P200 T200
G1 F600
G1 Z0.000 F2500
G1 X94.750 Y112.000
G1 X94.750 Y111.750
G1 X95.000 Y111.750
G1 X95.250 Y111.500
G0 Z2.000 F3000
M400
M204 P600 T600
G1 F1300
G0 X95.000 Y115.250 Z2.000
M400
M204 P200 T200
G1 F600
G1 Z0.000 F2500
G1 X94.750 Y115.250
G1 X94.750 Y115.500
G1 X94.500 Y115.750
G1 X94.250 Y116.000
G1 X94.250 Y116.000
G0 Z2.000 F3000
M400
M204 P600 T600
G1 F1300
G0 X93.000 Y117.250 Z2.000
M400
M204 P200 T200
G1 F600
G1 Z0.000 F2500
G1 X93.000 Y117.250
G1 X92.750 Y117.500
G1 X92.500 Y117.750
G1 X92.500 Y117.750
G1 X92.250 Y118.000
G0 Z2.000 F3000
M400
M204 P600 T600
G1 F1300
G0 X90.500 Y116.250 Z2.000
M400
M204 P200 T200
G1 F600
G1 Z0.000 F2500
G1 X90.500 Y116.000
G1 X90.750 Y116.000
G1 X91.000 Y115.750
G1 X91.250 Y115.500
G1 X91.250 Y115.250
G0 Z2.000 F3000
M400
M204 P600 T600
G1 F1300
G0 X89.500 Y113.500 Z2.000
M400
M204 P200 T200
G1 F600
G1 Z0.000 F2500
G1 X89.250 Y113.750
G1 X89.250 Y114.000
G1 X89.000 Y114.250
G1 X88.750 Y114.250
G1 X88.750 Y114.500
G0 Z2.000 F3000
M400
M204 P600 T600
G1 F1300
G0 X87.000 Y112.500 Z2.000
M400
M204 P200 T200
G1 F600
G1 Z0.000 F2500
G1 X87.250 Y112.250
G1 X87.500 Y112.250
G1 X87.500 Y112.000
G0 Z2.000 F3000
M400
M204 P600 T600
G1 F1300
G0 X85.500 Y114.250 Z2.000
M400
M204 P200 T200
G1 F600
G1 Z0.000 F2500
G1 X85.250 Y114.250
G1 X85.250 Y114.500
G0 Z2.000 F3000
M400
M204 P600 T600
G1 F1300
G0 X86.750 Y116.500 Z2.000
M400
M204 P200 T200
G1 F600
G1 Z0.000 F2500
G1 X87.000 Y116.250
G1 X87.000 Y116.000
G1 X87.250 Y116.000
G1 X87.500 Y115.750
G0 Z2.000 F3000
M400
M204 P600 T600
G1 F1300
G0 X89.250 Y117.500 Z2.000
M400
M204 P200 T200
G1 F600
G1 Z0.000 F2500
G1 X89.000 Y117.750
G1 X88.750 Y117.750
G1 X88.750 Y118.000
G1 X88.500 Y118.250
G0 Z2.000 F3000
M400
M204 P600 T600
G1 F1300
G0 X90.250 Y120.000 Z2.000
M400
M204 P200 T200
G1 F600
G1 Z0.000 F2500
G1 X90.500 Y119.750
G1 X90.500 Y119.500
G1 X90.750 Y119.500
G1 X91.000 Y119.250
G0 Z2.000 F3000
M400
M204 P600 T600
G1 F1300
G0 X88.750 Y121.500 Z2.000
M400
M204 P200 T200
G1 F600
G1 Z0.000 F2500
G1 X88.750 Y121.500
G1 X88.500 Y121.750
G0 Z2.000 F3000
M400
M204 P600 T600
G1 F1300
G0 X86.500 Y120.250 Z2.000
M400
M204 P200 T200
G1 F600
G1 Z0.000 F2500
G1 X86.750 Y120.000
G1 X87.000 Y119.750
G1 X87.000 Y119.500
G1 X87.250 Y119.500
G0 Z2.000 F3000
M400
M204 P600 T600
G1 F1300
G0 X85.500 Y117.750 Z2.000
M400
M204 P200 T200
G1 F600
G1 Z0.000 F2500
G1 X85.250 Y117.750
G1 X85.250 Y118.000
G1 X85.000 Y118.250
G1 X84.750 Y118.250
G1 X84.500 Y118.500
G0 Z2.000 F3000
M400
M204 P600 T600
G1 F1300
G0 X83.000 Y116.500 Z2.000
M400
M204 P200 T200
G1 F600
G1 Z0.000 F2500
G1 X83.250 Y116.500
G1 X83.250 Y116.250
G1 X83.500 Y116.000
G0 Z2.000 F3000
M400
M204 P600 T600
G1 F1300
G0 X81.500 Y118.000 Z2.000
M400
M204 P200 T200
G1 F600
G1 Z0.000 F2500
G1 X81.500 Y118.250
G1 X81.250 Y118.250
G1 X81.000 Y118.500
G0 Z2.000 F3000
M400
M204 P600 T600
G1 F1300
G0 X83.250 Y119.750 Z2.000
M400
M204 P200 T200
G1 F600
G1 Z0.000 F2500
G1 X83.250 Y120.000
G1 X83.000 Y120.250
G1 X82.750 Y120.250
G1 X82.750 Y120.500
G0 Z2.000 F3000
M400
M204 P600 T600
G1 F1300
G0 X84.500 Y122.250 Z2.000
M400
M204 P200 T200
G1 F600
G1 Z0.000 F2500
G1 X84.500 Y122.000
G1 X84.750 Y122.000
G1 X85.000 Y121.750
G1 X85.250 Y121.500
G1 X85.250 Y121.500
G0 Z2.000 F3000
M400
M204 P600 T600
G1 F1300
G0 X86.750 Y123.500 Z2.000
M400
M204 P200 T200
G1 F600
G1 Z0.000 F2500
G1 X86.500 Y123.750
G0 Z2.000 F3000
M400
M204 P600 T600
G1 F1300
G0 X83.250 Y123.500 Z2.000
M400
M204 P200 T200
G1 F600
G1 Z0.000 F2500
G1 X83.000 Y123.750
G1 X82.750 Y123.750
G0 Z2.000 F3000

; --- CIKEL NAMAKANJA ---
G0 Z2.000 F3000
M400
M204 P600 T600
G1 F1300
G0 X62.671 Y0.429 Z8.000
G1 Z1.000 F3000
G1 X62.671 Y0.429 F2500
G1 X62.671 Y2.179 F2500
G1 X59.171 Y0.429 F2500
G1 X62.671 Y0.000 F2500
G0 Z3.000 F3000
G0 X62.762 Y19.643
G0 Z8.000 F3000
G0 X82.750 Y124.000 Z2.000
M400
M204 P200 T200
G1 F600
G1 Z0.000 F2500
G1 X82.750 Y124.000
G1 X82.500 Y124.250
G0 Z2.000 F3000
M400
M204 P600 T600
G1 F1300
G0 X80.500 Y122.500 Z2.000
M400
M204 P200 T200
G1 F600
G1 Z0.000 F2500
G1 X80.750 Y122.500
G1 X81.000 Y122.250
G1 X81.000 Y122.000
G1 X81.250 Y122.000
G1 X81.500 Y121.750
G0 Z2.000 F3000
M400
M204 P600 T600
G1 F1300
G0 X79.500 Y120.250 Z2.000
M400
M204 P200 T200
G1 F600
G1 Z0.000 F2500
G1 X79.250 Y120.250
G1 X79.000 Y120.500
G0 Z2.000 F3000
M400
M204 P600 T600
G1 F1300
G0 X77.500 Y122.000 Z2.000
M400
M204 P200 T200
G1 F600
G1 Z0.000 F2500
G1 X77.250 Y122.250
G1 X77.250 Y122.500
G1 X77.000 Y122.500
G0 Z2.000 F3000
M400
M204 P600 T600
G1 F1300
G0 X79.250 Y123.750 Z2.000
M400
M204 P200 T200
G1 F600
G1 Z0.000 F2500
G1 X79.000 Y124.000
G1 X79.000 Y124.250
G1 X78.750 Y124.500
G0 Z2.000 F3000
M400
M204 P600 T600
G1 F1300
G0 X80.500 Y126.250 Z2.000
M400
M204 P200 T200
G1 F600
G1 Z0.000 F2500
G1 X80.750 Y126.000
G1 X81.000 Y125.750
G1 X81.000 Y125.500
G1 X81.250 Y125.500
G0 Z2.000 F3000
M400
M204 P600 T600
G1 F1300
G0 X82.750 Y127.500 Z2.000
M400
M204 P200 T200
G1 F600
G1 Z0.000 F2500
G1 X82.750 Y127.500
G1 X82.500 Y127.750
G1 X82.250 Y128.000
G0 Z2.000 F3000
M400
M204 P600 T600
G1 F1300
G0 X80.750 Y129.500 Z2.000
M400
M204 P200 T200
G1 F600
G1 Z0.000 F2500
G1 X80.500 Y129.750
G0 Z2.000 F3000
M400
M204 P600 T600
G1 F1300
G0 X78.500 Y128.250 Z2.000
M400
M204 P200 T200
G1 F600
G1 Z0.000 F2500
G1 X78.500 Y128.000
G1 X78.750 Y128.000
G1 X79.000 Y127.750
G1 X79.000 Y127.500
G0 Z2.000 F3000
M400
M204 P600 T600
G1 F1300
G0 X76.750 Y126.500 Z2.000
M400
M204 P200 T200
G1 F600
G1 Z0.000 F2500
G1 X76.750 Y126.250
G1 X77.000 Y126.250
G1 X77.250 Y126.000
G1 X77.250 Y125.750
G0 Z2.000 F3000
M400
M204 P600 T600
G1 F1300
G0 X75.250 Y128.000 Z2.000
M400
M204 P200 T200
G1 F600
G1 Z0.000 F2500
G1 X75.000 Y128.000
G1 X75.000 Y128.250
G1 X74.750 Y128.500
G1 X74.500 Y128.500
G0 Z2.000 F3000
M400
M204 P600 T600
G1 F1300
G0 X76.500 Y130.250 Z2.000
M400
M204 P200 T200
G1 F600
G1 Z0.000 F2500
G1 X76.750 Y130.000
G1 X76.750 Y129.750
G1 X77.000 Y129.750
G1 X77.250 Y129.500
G0 Z2.000 F3000
M400
M204 P600 T600
G1 F1300
G0 X78.750 Y131.500 Z2.000
M400
M204 P200 T200
G1 F600
G1 Z0.000 F2500
G1 X78.500 Y131.750
G1 X78.500 Y131.750
G1 X78.250 Y132.000
G0 Z2.000 F3000
M400
M204 P600 T600
G1 F1300
G0 X75.250 Y131.500 Z2.000
M400
M204 P200 T200
G1 F600
G1 Z0.000 F2500
G1 X75.000 Y131.750
G1 X75.000 Y131.750
G1 X74.750 Y132.000
G1 X74.500 Y132.250
G1 X74.250 Y132.250
G0 Z2.000 F3000
M400
M204 P600 T600
G1 F1300
G0 X72.500 Y130.500 Z2.000
M400
M204 P200 T200
G1 F600
G1 Z0.000 F2500
G1 X72.750 Y130.500
G1 X73.000 Y130.250
G1 X73.000 Y130.000
G1 X73.250 Y129.750
G1 X73.500 Y129.750
G0 Z2.000 F3000
M400
M204 P600 T600
G1 F1300
G0 X71.500 Y128.000 Z2.000
M400
M204 P200 T200
G1 F600
G1 Z0.000 F2500
G1 X71.250 Y128.250
G1 X71.250 Y128.500
G1 X71.000 Y128.500
G1 X70.750 Y128.750
G0 Z2.000 F3000
M400
M204 P600 T600
G1 F1300
G0 X73.000 Y126.500 Z2.000
M400
M204 P200 T200
G1 F600
G1 Z0.000 F2500
G1 X73.250 Y126.250
G0 Z2.000 F3000
M400
M204 P600 T600
G1 F1300
G0 X69.500 Y130.000 Z2.000
M400
M204 P200 T200
G1 F600
G1 Z0.000 F2500
G1 X69.500 Y130.250
G1 X69.250 Y130.500
G1 X69.000 Y130.500
G1 X68.750 Y130.750
G0 Z2.000 F3000
M400
M204 P600 T600
G1 F1300
G0 X70.500 Y132.750 Z2.000
M400
M204 P200 T200
G1 F600
G1 Z0.000 F2500
G1 X70.750 Y132.500
G1 X70.750 Y132.250
G1 X71.000 Y132.250
G1 X71.250 Y132.000
G1 X71.250 Y131.750
G1 X71.500 Y131.750
G0 Z2.000 F3000
M400
M204 P600 T600
G1 F1300
G0 X73.250 Y133.500 Z2.000
M400
M204 P200 T200
G1 F600
G1 Z0.000 F2500
G1 X73.000 Y133.500
G1 X73.000 Y133.750
G1 X72.750 Y134.000
G1 X72.500 Y134.000
G1 X72.500 Y134.250
G1 X72.250 Y134.500
G0 Z2.000 F3000
M400
M204 P600 T600
G1 F1300
G0 X74.500 Y135.750 Z2.000
M400
M204 P200 T200
G1 F600
G1 Z0.000 F2500
G1 X74.750 Y135.500
G0 Z2.000 F3000
M400
M204 P600 T600
G1 F1300
G0 X72.750 Y137.500 Z2.000
M400
M204 P200 T200
G1 F600
G1 Z0.000 F2500
G1 X72.500 Y137.750
G1 X72.500 Y137.750
G1 X72.250 Y138.000
G0 Z2.000 F3000
M400
M204 P600 T600
G1 F1300
G0 X70.250 Y136.500 Z2.000
M400
M204 P200 T200
G1 F600
G1 Z0.000 F2500
G1 X70.500 Y136.250
G1 X70.750 Y136.000
G1 X70.750 Y135.750
G1 X71.000 Y135.750
G1 X71.250 Y135.500
G0 Z2.000 F3000
M400
M204 P600 T600
G1 F1300
G0 X69.250 Y134.000 Z2.000
M400
M204 P200 T200
G1 F600
G1 Z0.000 F2500
G1 X69.000 Y134.000
G1 X68.750 Y134.250
G1 X68.750 Y134.500
G0 Z2.000 F3000
M400
M204 P600 T600
G1 F1300
G0 X67.000 Y132.500 Z2.000
M400
M204 P200 T200
G1 F600
G1 Z0.000 F2500
G1 X67.250 Y132.250
G0 Z2.000 F3000
M400
M204 P600 T600
G1 F1300
G0 X65.500 Y134.000 Z2.000
M400
M204 P200 T200
G1 F600
G1 Z0.000 F2500
G1 X65.250 Y134.250
G1 X65.250 Y134.500
G1 X65.000 Y134.750
G1 X64.750 Y134.750
G0 Z2.000 F3000
M400
M204 P600 T600
G1 F1300
G0 X66.500 Y136.750 Z2.000
M400
M204 P200 T200
G1 F600
G1 Z0.000 F2500
G1 X66.500 Y136.500
G1 X66.750 Y136.500
G1 X67.000 Y136.250
G1 X67.000 Y136.000
G1 X67.250 Y135.750
G1 X67.500 Y135.750
G0 Z2.000 F3000
M400
M204 P600 T600
G1 F1300
G0 X69.250 Y137.500 Z2.000
M400
M204 P200 T200
G1 F600
G1 Z0.000 F2500
G1 X69.000 Y137.750
G1 X68.750 Y137.750
G1 X68.750 Y138.000
G1 X68.500 Y138.250
G1 X68.250 Y138.250
G1 X68.250 Y138.500
G0 Z2.000 F3000
M400
M204 P600 T600
G1 F1300
G0 X70.250 Y140.000 Z2.000
M400
M204 P200 T200
G1 F600
G1 Z0.000 F2500
G1 X70.500 Y139.750
G1 X70.750 Y139.500
G1 X70.750 Y139.500
G0 Z2.000 F3000
M400
M204 P600 T600
G1 F1300
G0 X68.750 Y141.500 Z2.000
M400
M204 P200 T200
G1 F600
G1 Z0.000 F2500
G1 X68.500 Y141.750
G1 X68.250 Y142.000
G1 X68.250 Y142.000
G0 Z2.000 F3000
M400
M204 P600 T600
G1 F1300
G0 X66.250 Y140.500 Z2.000
M400
M204 P200 T200
G1 F600
G1 Z0.000 F2500
G1 X66.500 Y140.250
G1 X66.500 Y140.000
G1 X66.750 Y140.000
G1 X67.000 Y139.750
G1 X67.000 Y139.500
G1 X67.250 Y139.500
G0 Z2.000 F3000
M400
M204 P600 T600
G1 F1300
G0 X65.250 Y137.750 Z2.000
M400
M204 P200 T200
G1 F600
G1 Z0.000 F2500
G1 X65.250 Y138.000
G1 X65.000 Y138.250
G1 X64.750 Y138.250
G1 X64.500 Y138.500
G1 X64.500 Y138.750
G0 Z2.000 F3000
M400
M204 P600 T600
G1 F1300
G0 X62.750 Y136.750 Z2.000
M400
M204 P200 T200
G1 F600
G1 Z0.000 F2500
G1 X63.000 Y136.500
G1 X63.250 Y136.500
G1 X63.500 Y136.250
G1 X63.500 Y136.000
G0 Z2.000 F3000
M400
M204 P600 T600
G1 F1300
G0 X61.500 Y138.000 Z2.000
M400
M204 P200 T200
G1 F600
G1 Z0.000 F2500
G1 X61.500 Y138.250
G1 X61.250 Y138.250
G1 X61.000 Y138.500
G1 X61.000 Y138.750
G0 Z2.000 F3000
M400
M204 P600 T600
G1 F1300
G0 X62.750 Y140.500 Z2.000
M400
M204 P200 T200
G1 F600
G1 Z0.000 F2500
G1 X62.750 Y140.250
G1 X63.000 Y140.000
G1 X63.250 Y140.000
G0 Z2.000 F3000
M400
M204 P600 T600
G1 F1300
G0 X65.000 Y141.750 Z2.000
M400
M204 P200 T200
G1 F600
G1 Z0.000 F2500
G1 X64.750 Y142.000
G1 X64.500 Y142.000
G1 X64.500 Y142.250
G1 X64.250 Y142.500
G0 Z2.000 F3000
M400
M204 P600 T600
G1 F1300
G0 X66.250 Y144.000 Z2.000
M400
M204 P200 T200
G1 F600
G1 Z0.000 F2500
G1 X66.500 Y143.750
G1 X66.500 Y143.750
G1 X66.750 Y143.500
G0 Z2.000 F3000
M400
M204 P600 T600
G1 F1300
G0 X64.500 Y145.750 Z2.000
M400
M204 P200 T200
G1 F600
G1 Z0.000 F2500
G1 X64.250 Y146.000
G0 Z2.000 F3000
M400
M204 P600 T600
G1 F1300
G0 X62.250 Y144.500 Z2.000
M400
M204 P200 T200
G1 F600
G1 Z0.000 F2500
G1 X62.250 Y144.250
G1 X62.500 Y144.250
G1 X62.750 Y144.000
G1 X62.750 Y143.750
G1 X63.000 Y143.750
G0 Z2.000 F3000
M400
M204 P600 T600
G1 F1300
G0 X61.250 Y142.000 Z2.000
M400
M204 P200 T200
G1 F600
G1 Z0.000 F2500
G1 X61.000 Y142.000
G1 X61.000 Y142.250
G1 X60.750 Y142.500
G1 X60.500 Y142.500
G1 X60.500 Y142.750
G0 Z2.000 F3000
M400
M204 P600 T600
G1 F1300
G0 X59.250 Y144.000 Z2.000
M400
M204 P200 T200
G1 F600
G1 Z0.000 F2500
G1 X59.000 Y144.250
G1 X58.750 Y144.250
G1 X58.500 Y144.500
G1 X58.500 Y144.750
G0 Z2.000 F3000
M400
M204 P600 T600
G1 F1300
G0 X60.500 Y146.250 Z2.000
M400
M204 P200 T200
G1 F600
G1 Z0.000 F2500
G1 X60.500 Y146.000
G1 X60.750 Y146.000
G0 Z2.000 F3000
M400
M204 P600 T600
G1 F1300
G0 X62.500 Y147.750 Z2.000
M400
M204 P200 T200
G1 F600
G1 Z0.000 F2500
G1 X62.250 Y148.000
G1 X62.250 Y148.000
G0 Z2.000 F3000
M400
M204 P600 T600
G1 F1300
G0 X59.000 Y147.750 Z2.000
M400
M204 P200 T200
G1 F600
G1 Z0.000 F2500
G1 X58.750 Y148.000
G1 X58.500 Y148.000
G1 X58.500 Y148.250
G0 Z2.000 F3000
M400
M204 P600 T600
G1 F1300
G0 X56.500 Y146.750 Z2.000
M400
M204 P200 T200
G1 F600
G1 Z0.000 F2500
G1 X56.750 Y146.500
G1 X56.750 Y146.250
G1 X57.000 Y146.000
G1 X57.250 Y146.000
G0 Z2.000 F3000
M400
M204 P600 T600
G1 F1300
G0 X55.250 Y144.250 Z2.000
M400
M204 P200 T200
G1 F600
G1 Z0.000 F2500
G1 X55.000 Y144.500
G0 Z2.000 F3000
M400
M204 P600 T600
G1 F1300
G0 X48.000 Y134.000 Z2.000
M400
M204 P200 T200
G1 F600
G1 Z0.000 F2500
G1 X48.250 Y133.750
G0 Z2.000 F3000
M400
M204 P600 T600
G1 F1300
G0 X50.000 Y132.000 Z2.000
M400
M204 P200 T200
G1 F600
G1 Z0.000 F2500
G1 X50.250 Y131.750
G1 X50.250 Y131.750
G1 X50.500 Y131.500
G0 Z2.000 F3000
M400
M204 P600 T600
G1 F1300
G0 X52.000 Y130.000 Z2.000
M400
M204 P200 T200
G1 F600
G1 Z0.000 F2500
G1 X52.000 Y129.750
G1 X52.250 Y129.750
G1 X52.500 Y129.500
G0 Z2.000 F3000
M400
M204 P600 T600
G1 F1300
G0 X54.000 Y128.000 Z2.000
M400
M204 P200 T200
G1 F600
G1 Z0.000 F2500
G1 X54.250 Y127.750
G1 X54.250 Y127.500
G1 X54.500 Y127.500
G0 Z2.000 F3000
M400
M204 P600 T600
G1 F1300
G0 X56.000 Y126.000 Z2.000
M400
M204 P200 T200
G1 F600
G1 Z0.000 F2500
G1 X56.250 Y125.750
G1 X56.250 Y125.500
G1 X56.500 Y125.500
G1 X56.750 Y125.250
G0 Z2.000 F3000
M400
M204 P600 T600
G1 F1300
G0 X55.000 Y123.500 Z2.000
M400
M204 P200 T200
G1 F600
G1 Z0.000 F2500
G1 X54.750 Y123.750
G1 X54.500 Y123.750
G1 X54.250 Y124.000
G1 X54.250 Y124.250
G0 Z2.000 F3000
M400
M204 P600 T600
G1 F1300
G0 X56.500 Y122.000 Z2.000
M400
M204 P200 T200
G1 F600
G1 Z0.000 F2500
G1 X56.750 Y121.750
G0 Z2.000 F3000
M400
M204 P600 T600
G1 F1300
G0 X58.500 Y120.000 Z2.000
M400
M204 P200 T200
G1 F600
G1 Z0.000 F2500
G1 X58.500 Y119.750
G0 Z2.000 F3000
M400
M204 P600 T600
G1 F1300
G0 X56.500 Y118.250 Z2.000
M400
M204 P200 T200
G1 F600
G1 Z0.000 F2500
G1 X56.750 Y118.250
G1 X56.750 Y118.000
G1 X57.000 Y117.750
G0 Z2.000 F3000
M400
M204 P600 T600
G1 F1300
G0 X55.250 Y116.000 Z2.000
M400
M204 P200 T200
G1 F600
G1 Z0.000 F2500
G1 X55.000 Y116.250
G1 X55.000 Y116.500
G1 X54.750 Y116.500
G0 Z2.000 F3000
M400
M204 P600 T600
G1 F1300
G0 X55.000 Y119.750 Z2.000
M400
M204 P200 T200
G1 F600
G1 Z0.000 F2500
G1 X55.000 Y120.000
G1 X54.750 Y120.250
G1 X54.500 Y120.250
G0 Z2.000 F3000
M400
M204 P600 T600
G1 F1300
G0 X53.250 Y121.500 Z2.000
M400
M204 P200 T200
G1 F600
G1 Z0.000 F2500
G1 X53.250 Y121.750
G1 X53.000 Y122.000
G1 X52.750 Y122.000
G1 X52.500 Y122.250
G1 X52.500 Y122.500
G1 X52.250 Y122.500
G0 Z2.000 F3000
M400
M204 P600 T600
G1 F1300
G0 X50.750 Y120.500 Z2.000
M400
M204 P200 T200
G1 F600
G1 Z0.000 F2500
G1 X51.000 Y120.250
G1 X51.250 Y120.250
G1 X51.250 Y120.000
G0 Z2.000 F3000
M400
M204 P600 T600
G1 F1300
G0 X51.250 Y123.750 Z2.000
M400
M204 P200 T200
G1 F600
G1 Z0.000 F2500
G1 X51.000 Y123.750
G1 X50.750 Y124.000
G1 X50.750 Y124.250
G1 X50.500 Y124.500
G1 X50.250 Y124.500
G0 Z2.000 F3000
M400
M204 P600 T600
G1 F1300
G0 X52.000 Y126.250 Z2.000
M400
M204 P200 T200
G1 F600
G1 Z0.000 F2500
G1 X52.250 Y126.250
G1 X52.500 Y126.000
G1 X52.500 Y125.750
G1 X52.750 Y125.500
G1 X53.000 Y125.500
G0 Z2.000 F3000
M400
M204 P600 T600
G1 F1300
G0 X51.000 Y127.500 Z2.000
M400
M204 P200 T200
G1 F600
G1 Z0.000 F2500
G1 X50.750 Y127.500
G1 X50.750 Y127.750
G1 X50.500 Y128.000
G1 X50.250 Y128.000
G1 X50.250 Y128.250
G0 Z2.000 F3000
M400
M204 P600 T600
G1 F1300
G0 X48.500 Y126.250 Z2.000
M400
M204 P200 T200
G1 F600
G1 Z0.000 F2500
G1 X48.750 Y126.250
G1 X49.000 Y126.000
G1 X49.000 Y125.750
G0 Z2.000 F3000
M400
M204 P600 T600
G1 F1300
G0 X47.000 Y128.000 Z2.000
M400
M204 P200 T200
G1 F600
G1 Z0.000 F2500
G1 X46.750 Y128.000
G1 X46.500 Y128.250
G0 Z2.000 F3000
M400
M204 P600 T600
G1 F1300
G0 X48.250 Y130.250 Z2.000
M400
M204 P200 T200
G1 F600
G1 Z0.000 F2500
G1 X48.250 Y130.000
G1 X48.500 Y129.750
G1 X48.750 Y129.750
G0 Z2.000 F3000
M400
M204 P600 T600
G1 F1300
G0 X46.750 Y131.750 Z2.000
M400
M204 P200 T200
G1 F600
G1 Z0.000 F2500
G1 X46.500 Y131.750
G1 X46.500 Y132.000
G0 Z2.000 F3000
M400
M204 P600 T600
G1 F1300
G0 X44.750 Y126.500 Z2.000
M400
M204 P200 T200
G1 F600
G1 Z0.000 F2500
G1 X45.000 Y126.250
G1 X45.250 Y126.250
G1 X45.250 Y126.000
G0 Z2.000 F3000
M400
M204 P600 T600
G1 F1300
G0 X39.000 Y132.250 Z2.000
M400
M204 P200 T200
G1 F600
G1 Z0.000 F2500
G1 X38.750 Y132.500
G0 Z2.000 F3000
M400
M204 P600 T600
G1 F1300
G0 X40.500 Y134.250 Z2.000
M400
M204 P200 T200
G1 F600
G1 Z0.000 F2500
G1 X40.750 Y134.000
G0 Z2.000 F3000
M400
M204 P600 T600
G1 F1300
G0 X38.750 Y136.000 Z2.000
M400
M204 P200 T200
G1 F600
G1 Z0.000 F2500
G1 X38.750 Y136.250
G0 Z2.000 F3000
M400
M204 P600 T600
G1 F1300
G0 X36.750 Y138.000 Z2.000
M400
M204 P200 T200
G1 F600
G1 Z0.000 F2500
G1 X36.750 Y138.250
G1 X36.500 Y138.250
G0 Z2.000 F3000
M400
M204 P600 T600
G1 F1300
G0 X34.750 Y140.000 Z2.000
M400
M204 P200 T200
G1 F600
G1 Z0.000 F2500
G1 X34.500 Y140.250
G0 Z2.000 F3000
M400
M204 P600 T600
G1 F1300
G0 X30.750 Y144.250 Z2.000
M400
M204 P200 T200
G1 F600
G1 Z0.000 F2500
G1 X30.500 Y144.250
G0 Z2.000 F3000
M400
M204 P600 T600
G1 F1300
G0 X17.000 Y150.000 Z2.000
M400
M204 P200 T200
G1 F600
G1 Z0.000 F2500
G1 X17.000 Y150.000
G1 X16.750 Y150.000
G1 X16.500 Y150.000
G0 Z2.000 F3000
M400
M204 P600 T600
G1 F1300
G0 X15.000 Y150.000 Z2.000
M400
M204 P200 T200
G1 F600
G1 Z0.000 F2500
G1 X15.000 Y150.000
G1 X14.750 Y150.000
G1 X14.500 Y150.000
G1 X14.500 Y150.000
G0 Z2.000 F3000
M400
M204 P600 T600
G1 F1300
G0 X0.000 Y125.500 Z2.000
M400
M204 P200 T200
G1 F600
G1 Z0.000 F2500
G1 X0.000 Y125.500
G0 Z2.000 F3000
M400
M204 P600 T600
G1 F1300
G0 X0.000 Y122.000 Z2.000
M400
M204 P200 T200
G1 F600
G1 Z0.000 F2500
G1 X0.000 Y122.000
G1 X0.000 Y121.750
G1 X0.250 Y121.500
G1 X0.500 Y121.500
G0 Z2.000 F3000
M400
M204 P600 T600
G1 F1300
G0 X2.000 Y119.750 Z2.000
M400
M204 P200 T200
G1 F600
G1 Z0.000 F2500
G1 X2.250 Y119.500
G1 X2.500 Y119.500
G0 Z2.000 F3000
M400
M204 P600 T600
G1 F1300
G0 X4.000 Y117.750 Z2.000
M400
M204 P200 T200
G1 F600
G1 Z0.000 F2500
G1 X4.250 Y117.750
G0 Z2.000 F3000
M400
M204 P600 T600
G1 F1300
G0 X6.000 Y116.000 Z2.000
M400
M204 P200 T200
G1 F600
G1 Z0.000 F2500
G1 X6.000 Y115.750
G1 X6.250 Y115.500
G0 Z2.000 F3000
M400
M204 P600 T600
G1 F1300
G0 X8.000 Y114.000 Z2.000
M400
M204 P200 T200
G1 F600
G1 Z0.000 F2500
G1 X8.000 Y113.750
G1 X8.250 Y113.500
G1 X8.500 Y113.500
G0 Z2.000 F3000
M400
M204 P600 T600
G1 F1300
G0 X10.000 Y111.750 Z2.000
M400
M204 P200 T200
G1 F600
G1 Z0.000 F2500
G1 X10.250 Y111.750
G1 X10.250 Y111.500
G0 Z2.000 F3000
M400
M204 P600 T600
G1 F1300
G0 X8.500 Y109.750 Z2.000
M400
M204 P200 T200
G1 F600
G1 Z0.000 F2500
G1 X8.500 Y110.000
G1 X8.250 Y110.000
G0 Z2.000 F3000
M400
M204 P600 T600
G1 F1300
G0 X10.250 Y108.000 Z2.000
M400
M204 P200 T200
G1 F600
G1 Z0.000 F2500
G1 X10.250 Y108.000
G1 X10.500 Y107.750
G0 Z2.000 F3000
M400
M204 P600 T600
G1 F1300
G0 X12.250 Y106.000 Z2.000
M400
M204 P200 T200
G1 F600
G1 Z0.000 F2500
G1 X12.500 Y105.750
G1 X12.750 Y105.750
G0 Z2.000 F3000
M400
M204 P600 T600
G1 F1300
G0 X14.250 Y104.000 Z2.000
M400
M204 P200 T200
G1 F600
G1 Z0.000 F2500
G1 X14.500 Y103.750
G1 X14.500 Y103.750
G1 X14.750 Y103.500
G0 Z2.000 F3000
M400
M204 P600 T600
G1 F1300
G0 X16.250 Y102.000 Z2.000
M400
M204 P200 T200
G1 F600
G1 Z0.000 F2500
G1 X16.250 Y102.000
G1 X16.500 Y101.750
G1 X16.750 Y101.500
G0 Z2.000 F3000
M400
M204 P600 T600
G1 F1300
G0 X18.250 Y100.250 Z2.000
M400
M204 P200 T200
G1 F600
G1 Z0.000 F2500
G1 X18.250 Y100.000
G1 X18.500 Y99.750
G1 X18.750 Y99.750
G1 X18.750 Y99.500
G0 Z2.000 F3000
M400
M204 P600 T600
G1 F1300
G0 X20.250 Y98.000 Z2.000
M400
M204 P200 T200
G1 F600
G1 Z0.000 F2500
G1 X20.500 Y97.750
G1 X20.500 Y97.750
G1 X20.750 Y97.500
G0 Z2.000 F3000
M400
M204 P600 T600
G1 F1300
G0 X22.250 Y96.000 Z2.000
M400
M204 P200 T200
G1 F600
G1 Z0.000 F2500
G1 X22.250 Y96.000
G1 X22.500 Y95.750
G1 X22.750 Y95.500
G0 Z2.000 F3000
M400
M204 P600 T600
G1 F1300
G0 X24.250 Y94.250 Z2.000
M400
M204 P200 T200
G1 F600
G1 Z0.000 F2500
G1 X24.250 Y94.000
G1 X24.500 Y93.750
G1 X24.750 Y93.500
G1 X24.750 Y93.500
G0 Z2.000 F3000
M400
M204 P600 T600
G1 F1300
G0 X26.250 Y92.000 Z2.000
M400
M204 P200 T200
G1 F600
G1 Z0.000 F2500
G1 X26.500 Y91.750
G1 X26.500 Y91.750
G1 X26.750 Y91.500
G0 Z2.000 F3000
M400
M204 P600 T600
G1 F1300
G0 X28.250 Y90.000 Z2.000
M400
M204 P200 T200
G1 F600
G1 Z0.000 F2500
G1 X28.500 Y90.000
G1 X28.500 Y89.750
G1 X28.750 Y89.500
G0 Z2.000 F3000
M400
M204 P600 T600
G1 F1300
G0 X30.250 Y91.500 Z2.000
M400
M204 P200 T200
G1 F600
G1 Z0.000 F2500
G1 X30.250 Y91.750
G0 Z2.000 F3000
M400
M204 P600 T600
G1 F1300
G0 X28.500 Y93.500 Z2.000
M400
M204 P200 T200
G1 F600
G1 Z0.000 F2500
G1 X28.250 Y93.500
G0 Z2.000 F3000
M400
M204 P600 T600
G1 F1300
G0 X26.500 Y95.500 Z2.000
M400
M204 P200 T200
G1 F600
G1 Z0.000 F2500
G1 X26.250 Y95.500
G0 Z2.000 F3000
M400
M204 P600 T600
G1 F1300
G0 X22.250 Y99.500 Z2.000
M400
M204 P200 T200
G1 F600
G1 Z0.000 F2500
