G90
G21
; === MULTI-COLOR PAINTER GCODE ===
; Generated layers: 2


; ═══════════════════════════════
; LAYER 1: Color 1 — Red
; ═══════════════════════════════


; --- CIKEL NAMAKANJA ---
G0 Z4.600 F3000
M400
M204 P12000 T12000
G1 F12000
G0 X2.923 Y7.289 Z31.000
G1 Z0.000 F3000
G1 X2.923 Y7.289 F2500
G1 X2.923 Y9.789 F2500
G1 X-2.077 Y7.289 F2500
G1 X2.923 Y-0.211 F2500
G0 Z16.000 F3000
G0 X10.697 Y10.516
G0 Z31.000 F3000
G0 X59.000 Y58.000 Z4.600
M400
M204 P12000 T12000
G1 F12000
G0 X59.000 Y58.000 Z4.600
M400
M204 P200 T200
G1 F400
G1 Z0.000 F2500
G1 X60.000 Y58.000
G1 X61.000 Y58.000
G1 X62.000 Y58.000
G1 X63.000 Y58.000
G1 X64.000 Y58.000
G1 X65.000 Y58.000
G1 X66.000 Y58.000
G1 X67.000 Y58.000
G1 X68.000 Y58.000
G1 X69.000 Y58.000
G1 X70.000 Y58.000
G1 X71.000 Y58.000
G1 X72.000 Y58.000
G1 X73.000 Y58.000
G1 X74.000 Y58.000
G1 X75.000 Y58.000
G1 X76.000 Y58.000
G1 X77.000 Y58.000
G1 X78.000 Y58.000
G1 X79.000 Y58.000
G1 X80.000 Y58.000
G1 X81.000 Y58.000
G1 X82.000 Y58.000
G1 X83.000 Y58.000
G1 X84.000 Y58.000
G1 X85.000 Y58.000
G1 X86.000 Y58.000
G1 X87.000 Y58.000
G1 X88.000 Y58.000
G1 X89.000 Y58.000
G1 X90.000 Y58.000
G1 X91.000 Y58.000
G1 X92.000 Y58.000
G1 X93.000 Y58.000
G1 X94.000 Y58.000
G1 X95.000 Y58.000
G1 X96.000 Y58.000
G1 X97.000 Y58.000
G1 X98.000 Y58.000
G1 X99.000 Y58.000
G1 X100.000 Y58.000
G1 X101.000 Y58.000
G1 X102.000 Y58.000
G1 X103.000 Y58.000
G1 X104.000 Y58.000
G1 X105.000 Y58.000
G1 X106.000 Y58.000
G1 X107.000 Y58.000
G1 X108.000 Y58.000
G1 X109.000 Y58.000
G1 X110.000 Y58.000
G1 X111.000 Y58.000
G1 X112.000 Y58.000
G1 X113.000 Y58.000
G1 X114.000 Y58.000
G1 X115.000 Y58.000
G1 X116.000 Y58.000
G1 X117.000 Y58.000
G1 X118.000 Y58.000
G1 X119.000 Y58.000
G1 X120.000 Y58.000
G1 X121.000 Y58.000
G1 X122.000 Y58.000
G1 X123.000 Y58.000
G1 X124.000 Y58.000
G1 X125.000 Y58.000
G1 X126.000 Y58.000
G1 X127.000 Y58.000
G1 X128.000 Y58.000
G1 X129.000 Y58.000
G1 X130.000 Y58.000
G1 X131.000 Y58.000
G1 X132.000 Y58.000
G1 X133.000 Y58.000
G1 X134.000 Y58.000
G1 X135.000 Y58.000
G1 X136.000 Y58.000
G1 X137.000 Y58.000
G1 X138.000 Y58.000
G1 X139.000 Y58.000
G1 X140.000 Y58.000
G1 X141.000 Y58.000
G1 X142.000 Y58.000
G1 X143.000 Y58.000
G1 X144.000 Y58.000
G1 X145.000 Y58.000
G1 X146.000 Y58.000
G1 X147.000 Y58.000
G1 X148.000 Y58.000
G1 X149.000 Y58.000
G1 X150.000 Y58.000
G1 X151.000 Y58.000
G1 X152.000 Y58.000
G1 X153.000 Y58.000
G1 X154.000 Y58.000
G1 X155.000 Y58.000
G1 X156.000 Y58.000
G1 X157.000 Y58.000
G1 X158.000 Y58.000
G1 X159.000 Y58.000
G1 X160.000 Y58.000
G1 X161.000 Y58.000
G1 X162.000 Y58.000
G1 X163.000 Y58.000
G1 X164.000 Y58.000
G1 X165.000 Y58.000
G1 X166.000 Y58.000
G1 X167.000 Y58.000
G1 X168.000 Y58.000
G1 X169.000 Y58.000
G1 X170.000 Y58.000
G1 X171.000 Y58.000
G1 X172.000 Y58.000
G1 X173.000 Y58.000
G1 X174.000 Y58.000
G1 X175.000 Y58.000
G1 X176.000 Y58.000
G1 X177.000 Y58.000
G1 X178.000 Y58.000
G1 X179.000 Y58.000
G1 X180.000 Y58.000
G1 X181.000 Y58.000
G1 X182.000 Y58.000
G1 X183.000 Y58.000
G1 X184.000 Y58.000
G1 X185.000 Y58.000
G1 X186.000 Y58.000
G1 X187.000 Y58.000
G1 X188.000 Y58.000
G1 X189.000 Y58.000
G1 X190.000 Y58.000
G1 X191.000 Y58.000
G1 X192.000 Y58.000
G1 X193.000 Y58.000
G1 X194.000 Y58.000
G1 X195.000 Y58.000
G1 X196.000 Y58.000
G1 X197.000 Y58.000
G1 X198.000 Y58.000
G1 X199.000 Y58.000
G1 X200.000 Y58.000
G0 Z4.600 F3000
M400
M204 P12000 T12000
G1 F12000
G0 X149.000 Y30.000 Z4.600
M400
M204 P200 T200
G1 F400
G1 Z0.000 F2500
G1 X148.000 Y30.000
G1 X147.000 Y30.000
G1 X146.000 Y30.000
G1 X145.000 Y30.000
G1 X144.000 Y30.000
G1 X143.000 Y30.000
G1 X142.000 Y30.000
G1 X141.000 Y30.000
G1 X140.000 Y30.000
G1 X139.000 Y30.000
G1 X138.000 Y30.000
G1 X137.000 Y30.000
G1 X136.000 Y30.000
G1 X135.000 Y30.000
G1 X134.000 Y30.000
G1 X133.000 Y30.000
G1 X132.000 Y30.000
G1 X131.000 Y30.000
G1 X130.000 Y30.000
G1 X129.000 Y30.000
G1 X128.000 Y30.000
G1 X127.000 Y30.000
G1 X126.000 Y30.000
G1 X125.000 Y30.000
G1 X124.000 Y30.000
G1 X123.000 Y30.000
G1 X122.000 Y30.000
G1 X121.000 Y30.000
G1 X120.000 Y30.000
G1 X119.000 Y30.000
G1 X118.000 Y30.000
G1 X117.000 Y30.000
G1 X116.000 Y30.000
G1 X115.000 Y30.000
G1 X114.000 Y30.000
G1 X113.000 Y30.000
G1 X112.000 Y30.000
G1 X111.000 Y30.000
G1 X110.000 Y30.000
G0 Z4.600 F3000
M400
M204 P12000 T12000
G1 F12000
G0 X103.000 Y32.000 Z4.600
M400
M204 P200 T200
G1 F400
G1 Z0.000 F2500
G1 X104.000 Y32.000
G1 X105.000 Y32.000
G1 X106.000 Y32.000
G1 X107.000 Y32.000
G1 X108.000 Y32.000
G1 X109.000 Y32.000
G1 X110.000 Y32.000
G1 X111.000 Y32.000
G1 X112.000 Y32.000
G1 X113.000 Y32.000
G1 X114.000 Y32.000
G1 X115.000 Y32.000
G1 X116.000 Y32.000
G1 X117.000 Y32.000
G1 X118.000 Y32.000
G1 X119.000 Y32.000
G1 X120.000 Y32.000
G1 X121.000 Y32.000
G1 X122.000 Y32.000
G1 X123.000 Y32.000
G1 X124.000 Y32.000
G1 X125.000 Y32.000
G1 X126.000 Y32.000
G1 X127.000 Y32.000
G1 X128.000 Y32.000
G1 X129.000 Y32.000
G1 X130.000 Y32.000
G1 X131.000 Y32.000
G1 X132.000 Y32.000
G1 X133.000 Y32.000
G1 X134.000 Y32.000
G1 X135.000 Y32.000
G1 X136.000 Y32.000
G1 X137.000 Y32.000
G1 X138.000 Y32.000
G1 X139.000 Y32.000
G1 X140.000 Y32.000
G1 X141.000 Y32.000
G1 X142.000 Y32.000
G1 X143.000 Y32.000
G1 X144.000 Y32.000
G1 X145.000 Y32.000
G1 X146.000 Y32.000
G1 X147.000 Y32.000
G1 X148.000 Y32.000
G1 X149.000 Y32.000
G1 X150.000 Y32.000
G1 X151.000 Y32.000
G1 X152.000 Y32.000
G1 X153.000 Y32.000
G1 X154.000 Y32.000
G1 X155.000 Y32.000
G1 X156.000 Y32.000
G0 Z4.600 F3000
M400
M204 P12000 T12000
G1 F12000
G0 X162.000 Y34.000 Z4.600
M400
M204 P200 T200
G1 F400
G1 Z0.000 F2500
G1 X161.000 Y34.000
G1 X160.000 Y34.000
G1 X159.000 Y34.000
G1 X158.000 Y34.000
G1 X157.000 Y34.000
G1 X156.000 Y34.000
G1 X155.000 Y34.000
G1 X154.000 Y34.000
G1 X153.000 Y34.000
G1 X152.000 Y34.000
G1 X151.000 Y34.000
G1 X150.000 Y34.000
G1 X149.000 Y34.000
G1 X148.000 Y34.000
G1 X147.000 Y34.000
G1 X146.000 Y34.000
G1 X145.000 Y34.000
G1 X144.000 Y34.000
G1 X143.000 Y34.000
G1 X142.000 Y34.000
G1 X141.000 Y34.000
G1 X140.000 Y34.000
G0 Z4.600 F3000

; --- CIKEL NAMAKANJA ---
G0 Z4.600 F3000
M400
M204 P12000 T12000
G1 F12000
G0 X-7.554 Y0.941 Z31.000
G1 Z0.000 F3000
G1 X-7.554 Y0.941 F2500
G1 X-7.554 Y3.441 F2500
G1 X-12.554 Y0.941 F2500
G1 X-7.554 Y-6.559 F2500
G0 Z16.000 F3000
G0 X14.570 Y3.564
G0 Z31.000 F3000
G0 X139.000 Y34.000 Z4.600
M400
M204 P200 T200
G1 F400
G1 Z0.000 F2500
G1 X139.000 Y34.000
G1 X138.000 Y34.000
G1 X137.000 Y34.000
G1 X136.000 Y34.000
G1 X135.000 Y34.000
G1 X134.000 Y34.000
G1 X133.000 Y34.000
G1 X132.000 Y34.000
G1 X131.000 Y34.000
G1 X130.000 Y34.000
G1 X129.000 Y34.000
G1 X128.000 Y34.000
G1 X127.000 Y34.000
G1 X126.000 Y34.000
G1 X125.000 Y34.000
G1 X124.000 Y34.000
G1 X123.000 Y34.000
G1 X122.000 Y34.000
G1 X121.000 Y34.000
G1 X120.000 Y34.000
G1 X119.000 Y34.000
G1 X118.000 Y34.000
G1 X117.000 Y34.000
G1 X116.000 Y34.000
G1 X115.000 Y34.000
G1 X114.000 Y34.000
G1 X113.000 Y34.000
G1 X112.000 Y34.000
G1 X111.000 Y34.000
G1 X110.000 Y34.000
G1 X109.000 Y34.000
G1 X108.000 Y34.000
G1 X107.000 Y34.000
G1 X106.000 Y34.000
G1 X105.000 Y34.000
G1 X104.000 Y34.000
G1 X103.000 Y34.000
G1 X102.000 Y34.000
G1 X101.000 Y34.000
G1 X100.000 Y34.000
G1 X99.000 Y34.000
G1 X98.000 Y34.000
G1 X97.000 Y34.000
G0 Z4.600 F3000
M400
M204 P12000 T12000
G1 F12000
G0 X92.000 Y36.000 Z4.600
M400
M204 P200 T200
G1 F400
G1 Z0.000 F2500
G1 X93.000 Y36.000
G1 X94.000 Y36.000
G1 X95.000 Y36.000
G1 X96.000 Y36.000
G1 X97.000 Y36.000
G1 X98.000 Y36.000
G1 X99.000 Y36.000
G1 X100.000 Y36.000
G1 X101.000 Y36.000
G1 X102.000 Y36.000
G1 X103.000 Y36.000
G1 X104.000 Y36.000
G1 X105.000 Y36.000
G1 X106.000 Y36.000
G1 X107.000 Y36.000
G1 X108.000 Y36.000
G1 X109.000 Y36.000
G1 X110.000 Y36.000
G1 X111.000 Y36.000
G1 X112.000 Y36.000
G1 X113.000 Y36.000
G1 X114.000 Y36.000
G1 X115.000 Y36.000
G1 X116.000 Y36.000
G1 X117.000 Y36.000
G1 X118.000 Y36.000
G1 X119.000 Y36.000
G1 X120.000 Y36.000
G1 X121.000 Y36.000
G1 X122.000 Y36.000
G1 X123.000 Y36.000
G1 X124.000 Y36.000
G1 X125.000 Y36.000
G1 X126.000 Y36.000
G1 X127.000 Y36.000
G1 X128.000 Y36.000
G1 X129.000 Y36.000
G1 X130.000 Y36.000
G1 X131.000 Y36.000
G1 X132.000 Y36.000
G1 X133.000 Y36.000
G1 X134.000 Y36.000
G1 X135.000 Y36.000
G1 X136.000 Y36.000
G1 X137.000 Y36.000
G1 X138.000 Y36.000
G1 X139.000 Y36.000
G1 X140.000 Y36.000
G1 X141.000 Y36.000
G1 X142.000 Y36.000
G1 X143.000 Y36.000
G1 X144.000 Y36.000
G1 X145.000 Y36.000
G1 X146.000 Y36.000
G1 X147.000 Y36.000
G1 X148.000 Y36.000
G1 X149.000 Y36.000
G1 X150.000 Y36.000
G1 X151.000 Y36.000
G1 X152.000 Y36.000
G1 X153.000 Y36.000
G1 X154.000 Y36.000
G1 X155.000 Y36.000
G1 X156.000 Y36.000
G1 X157.000 Y36.000
G1 X158.000 Y36.000
G1 X159.000 Y36.000
G1 X160.000 Y36.000
G1 X161.000 Y36.000
G1 X162.000 Y36.000
G1 X163.000 Y36.000
G1 X164.000 Y36.000
G1 X165.000 Y36.000
G1 X166.000 Y36.000
G1 X167.000 Y36.000
G0 Z4.600 F3000
M400
M204 P12000 T12000
G1 F12000
G0 X171.000 Y38.000 Z4.600
M400
M204 P200 T200
G1 F400
G1 Z0.000 F2500
G1 X170.000 Y38.000
G1 X169.000 Y38.000
G1 X168.000 Y38.000
G1 X167.000 Y38.000
G1 X166.000 Y38.000
G1 X165.000 Y38.000
G1 X164.000 Y38.000
G1 X163.000 Y38.000
G1 X162.000 Y38.000
G1 X161.000 Y38.000
G1 X160.000 Y38.000
G1 X159.000 Y38.000
G1 X158.000 Y38.000
G1 X157.000 Y38.000
G1 X156.000 Y38.000
G1 X155.000 Y38.000
G1 X154.000 Y38.000
G1 X153.000 Y38.000
G1 X152.000 Y38.000
G1 X151.000 Y38.000
G1 X150.000 Y38.000
G1 X149.000 Y38.000
G1 X148.000 Y38.000
G1 X147.000 Y38.000
G1 X146.000 Y38.000
G1 X145.000 Y38.000
G1 X144.000 Y38.000
G1 X143.000 Y38.000
G1 X142.000 Y38.000
G1 X141.000 Y38.000
G1 X140.000 Y38.000
G1 X139.000 Y38.000
G1 X138.000 Y38.000
G1 X137.000 Y38.000
G1 X136.000 Y38.000
G1 X135.000 Y38.000
G1 X134.000 Y38.000
G1 X133.000 Y38.000
G1 X132.000 Y38.000
G1 X131.000 Y38.000
G1 X130.000 Y38.000
G1 X129.000 Y38.000
G1 X128.000 Y38.000
G1 X127.000 Y38.000
G1 X126.000 Y38.000
G1 X125.000 Y38.000
G1 X124.000 Y38.000
G1 X123.000 Y38.000
G1 X122.000 Y38.000
G1 X121.000 Y38.000
G1 X120.000 Y38.000
G1 X119.000 Y38.000
G1 X118.000 Y38.000
G1 X117.000 Y38.000
G1 X116.000 Y38.000
G1 X115.000 Y38.000
G1 X114.000 Y38.000
G1 X113.000 Y38.000
G1 X112.000 Y38.000
G1 X111.000 Y38.000
G1 X110.000 Y38.000
G1 X109.000 Y38.000
G1 X108.000 Y38.000
G1 X107.000 Y38.000
G1 X106.000 Y38.000
G1 X105.000 Y38.000
G1 X104.000 Y38.000
G1 X103.000 Y38.000
G1 X102.000 Y38.000
G1 X101.000 Y38.000
G1 X100.000 Y38.000
G1 X99.000 Y38.000
G1 X98.000 Y38.000
G1 X97.000 Y38.000
G1 X96.000 Y38.000
G1 X95.000 Y38.000
G1 X94.000 Y38.000
G1 X93.000 Y38.000
G1 X92.000 Y38.000
G1 X91.000 Y38.000
G1 X90.000 Y38.000
G1 X89.000 Y38.000
G1 X88.000 Y38.000
G0 Z4.600 F3000
M400
M204 P12000 T12000
G1 F12000
G0 X84.000 Y40.000 Z4.600
M400
M204 P200 T200
G1 F400
G1 Z0.000 F2500
G1 X85.000 Y40.000
G1 X86.000 Y40.000
G1 X87.000 Y40.000
G1 X88.000 Y40.000
G1 X89.000 Y40.000
G1 X90.000 Y40.000
G1 X91.000 Y40.000
G1 X92.000 Y40.000
G1 X93.000 Y40.000
G1 X94.000 Y40.000
G1 X95.000 Y40.000
G1 X96.000 Y40.000
G1 X97.000 Y40.000
G1 X98.000 Y40.000
G1 X99.000 Y40.000
G1 X100.000 Y40.000
G1 X101.000 Y40.000
G1 X102.000 Y40.000
G1 X103.000 Y40.000
G1 X104.000 Y40.000
G1 X105.000 Y40.000
G1 X106.000 Y40.000
G1 X107.000 Y40.000
G1 X108.000 Y40.000
G1 X109.000 Y40.000
G1 X110.000 Y40.000
G1 X111.000 Y40.000
G1 X112.000 Y40.000
G1 X113.000 Y40.000
G1 X114.000 Y40.000
G1 X115.000 Y40.000
G1 X116.000 Y40.000
G1 X117.000 Y40.000
G1 X118.000 Y40.000
G1 X119.000 Y40.000
G1 X120.000 Y40.000
G1 X121.000 Y40.000
G1 X122.000 Y40.000
G1 X123.000 Y40.000
G1 X124.000 Y40.000
G1 X125.000 Y40.000
G1 X126.000 Y40.000
G1 X127.000 Y40.000
G1 X128.000 Y40.000
G1 X129.000 Y40.000
G1 X130.000 Y40.000
G1 X131.000 Y40.000
G1 X132.000 Y40.000
G1 X133.000 Y40.000
G1 X134.000 Y40.000
G1 X135.000 Y40.000
G0 Z4.600 F3000

; --- CIKEL NAMAKANJA ---
G0 Z4.600 F3000
M400
M204 P12000 T12000
G1 F12000
G0 X-9.586 Y-5.194 Z31.000
G1 Z0.000 F3000
G1 X-9.586 Y-5.194 F2500
G1 X-9.586 Y-2.694 F2500
G1 X-14.586 Y-5.194 F2500
G1 X-9.586 Y-12.694 F2500
G0 Z16.000 F3000
G0 X14.390 Y4.232
G0 Z31.000 F3000
G0 X136.000 Y40.000 Z4.600
M400
M204 P200 T200
G1 F400
G1 Z0.000 F2500
G1 X136.000 Y40.000
G1 X137.000 Y40.000
G1 X138.000 Y40.000
G1 X139.000 Y40.000
G1 X140.000 Y40.000
G1 X141.000 Y40.000
G1 X142.000 Y40.000
G1 X143.000 Y40.000
G1 X144.000 Y40.000
G1 X145.000 Y40.000
G1 X146.000 Y40.000
G1 X147.000 Y40.000
G1 X148.000 Y40.000
G1 X149.000 Y40.000
G1 X150.000 Y40.000
G1 X151.000 Y40.000
G1 X152.000 Y40.000
G1 X153.000 Y40.000
G1 X154.000 Y40.000
G1 X155.000 Y40.000
G1 X156.000 Y40.000
G1 X157.000 Y40.000
G1 X158.000 Y40.000
G1 X159.000 Y40.000
G1 X160.000 Y40.000
G1 X161.000 Y40.000
G1 X162.000 Y40.000
G1 X163.000 Y40.000
G1 X164.000 Y40.000
G1 X165.000 Y40.000
G1 X166.000 Y40.000
G1 X167.000 Y40.000
G1 X168.000 Y40.000
G1 X169.000 Y40.000
G1 X170.000 Y40.000
G1 X171.000 Y40.000
G1 X172.000 Y40.000
G1 X173.000 Y40.000
G1 X174.000 Y40.000
G1 X175.000 Y40.000
G0 Z4.600 F3000
M400
M204 P12000 T12000
G1 F12000
G0 X179.000 Y42.000 Z4.600
M400
M204 P200 T200
G1 F400
G1 Z0.000 F2500
G1 X178.000 Y42.000
G1 X177.000 Y42.000
G1 X176.000 Y42.000
G1 X175.000 Y42.000
G1 X174.000 Y42.000
G1 X173.000 Y42.000
G1 X172.000 Y42.000
G1 X171.000 Y42.000
G1 X170.000 Y42.000
G1 X169.000 Y42.000
G1 X168.000 Y42.000
G1 X167.000 Y42.000
G1 X166.000 Y42.000
G1 X165.000 Y42.000
G1 X164.000 Y42.000
G1 X163.000 Y42.000
G1 X162.000 Y42.000
G1 X161.000 Y42.000
G1 X160.000 Y42.000
G1 X159.000 Y42.000
G1 X158.000 Y42.000
G1 X157.000 Y42.000
G1 X156.000 Y42.000
G1 X155.000 Y42.000
G1 X154.000 Y42.000
G1 X153.000 Y42.000
G1 X152.000 Y42.000
G1 X151.000 Y42.000
G1 X150.000 Y42.000
G1 X149.000 Y42.000
G1 X148.000 Y42.000
G1 X147.000 Y42.000
G1 X146.000 Y42.000
G1 X145.000 Y42.000
G1 X144.000 Y42.000
G1 X143.000 Y42.000
G1 X142.000 Y42.000
G1 X141.000 Y42.000
G1 X140.000 Y42.000
G1 X139.000 Y42.000
G1 X138.000 Y42.000
G1 X137.000 Y42.000
G1 X136.000 Y42.000
G1 X135.000 Y42.000
G1 X134.000 Y42.000
G1 X133.000 Y42.000
G1 X132.000 Y42.000
G1 X131.000 Y42.000
G1 X130.000 Y42.000
G1 X129.000 Y42.000
G1 X128.000 Y42.000
G1 X127.000 Y42.000
G1 X126.000 Y42.000
G1 X125.000 Y42.000
G1 X124.000 Y42.000
G1 X123.000 Y42.000
G1 X122.000 Y42.000
G1 X121.000 Y42.000
G1 X120.000 Y42.000
G1 X119.000 Y42.000
G1 X118.000 Y42.000
G1 X117.000 Y42.000
G1 X116.000 Y42.000
G1 X115.000 Y42.000
G1 X114.000 Y42.000
G1 X113.000 Y42.000
G1 X112.000 Y42.000
G1 X111.000 Y42.000
G1 X110.000 Y42.000
G1 X109.000 Y42.000
G1 X108.000 Y42.000
G1 X107.000 Y42.000
G1 X106.000 Y42.000
G1 X105.000 Y42.000
G1 X104.000 Y42.000
G1 X103.000 Y42.000
G1 X102.000 Y42.000
G1 X101.000 Y42.000
G1 X100.000 Y42.000
G1 X99.000 Y42.000
G1 X98.000 Y42.000
G1 X97.000 Y42.000
G1 X96.000 Y42.000
G1 X95.000 Y42.000
G1 X94.000 Y42.000
G1 X93.000 Y42.000
G1 X92.000 Y42.000
G1 X91.000 Y42.000
G1 X90.000 Y42.000
G1 X89.000 Y42.000
G1 X88.000 Y42.000
G1 X87.000 Y42.000
G1 X86.000 Y42.000
G1 X85.000 Y42.000
G1 X84.000 Y42.000
G1 X83.000 Y42.000
G1 X82.000 Y42.000
G1 X81.000 Y42.000
G1 X80.000 Y42.000
G0 Z4.600 F3000
M400
M204 P12000 T12000
G1 F12000
G0 X76.000 Y44.000 Z4.600
M400
M204 P200 T200
G1 F400
G1 Z0.000 F2500
G1 X77.000 Y44.000
G1 X78.000 Y44.000
G1 X79.000 Y44.000
G1 X80.000 Y44.000
G1 X81.000 Y44.000
G1 X82.000 Y44.000
G1 X83.000 Y44.000
G1 X84.000 Y44.000
G1 X85.000 Y44.000
G1 X86.000 Y44.000
G1 X87.000 Y44.000
G1 X88.000 Y44.000
G1 X89.000 Y44.000
G1 X90.000 Y44.000
G1 X91.000 Y44.000
G1 X92.000 Y44.000
G1 X93.000 Y44.000
G1 X94.000 Y44.000
G1 X95.000 Y44.000
G1 X96.000 Y44.000
G1 X97.000 Y44.000
G1 X98.000 Y44.000
G1 X99.000 Y44.000
G1 X100.000 Y44.000
G1 X101.000 Y44.000
G1 X102.000 Y44.000
G1 X103.000 Y44.000
G1 X104.000 Y44.000
G1 X105.000 Y44.000
G1 X106.000 Y44.000
G1 X107.000 Y44.000
G1 X108.000 Y44.000
G1 X109.000 Y44.000
G1 X110.000 Y44.000
G1 X111.000 Y44.000
G1 X112.000 Y44.000
G1 X113.000 Y44.000
G1 X114.000 Y44.000
G1 X115.000 Y44.000
G1 X116.000 Y44.000
G1 X117.000 Y44.000
G1 X118.000 Y44.000
G1 X119.000 Y44.000
G1 X120.000 Y44.000
G1 X121.000 Y44.000
G1 X122.000 Y44.000
G1 X123.000 Y44.000
G1 X124.000 Y44.000
G1 X125.000 Y44.000
G1 X126.000 Y44.000
G1 X127.000 Y44.000
G1 X128.000 Y44.000
G1 X129.000 Y44.000
G1 X130.000 Y44.000
G1 X131.000 Y44.000
G1 X132.000 Y44.000
G1 X133.000 Y44.000
G1 X134.000 Y44.000
G1 X135.000 Y44.000
G1 X136.000 Y44.000
G1 X137.000 Y44.000
G1 X138.000 Y44.000
G1 X139.000 Y44.000
G1 X140.000 Y44.000
G1 X141.000 Y44.000
G1 X142.000 Y44.000
G1 X143.000 Y44.000
G1 X144.000 Y44.000
G1 X145.000 Y44.000
G1 X146.000 Y44.000
G1 X147.000 Y44.000
G1 X148.000 Y44.000
G1 X149.000 Y44.000
G1 X150.000 Y44.000
G1 X151.000 Y44.000
G1 X152.000 Y44.000
G1 X153.000 Y44.000
G1 X154.000 Y44.000
G1 X155.000 Y44.000
G1 X156.000 Y44.000
G1 X157.000 Y44.000
G1 X158.000 Y44.000
G1 X159.000 Y44.000
G1 X160.000 Y44.000
G1 X161.000 Y44.000
G1 X162.000 Y44.000
G1 X163.000 Y44.000
G1 X164.000 Y44.000
G1 X165.000 Y44.000
G1 X166.000 Y44.000
G1 X167.000 Y44.000
G1 X168.000 Y44.000
G1 X169.000 Y44.000
G1 X170.000 Y44.000
G1 X171.000 Y44.000
G1 X172.000 Y44.000
G1 X173.000 Y44.000
G1 X174.000 Y44.000
G1 X175.000 Y44.000
G1 X176.000 Y44.000
G1 X177.000 Y44.000
G1 X178.000 Y44.000
G1 X179.000 Y44.000
G1 X180.000 Y44.000
G1 X181.000 Y44.000
G1 X182.000 Y44.000
G1 X183.000 Y44.000
G1 X184.000 Y44.000
G1 X185.000 Y44.000
G0 Z4.600 F3000
M400
M204 P12000 T12000
G1 F12000
G0 X187.000 Y46.000 Z4.600
M400
M204 P200 T200
G1 F400
G1 Z0.000 F2500
G1 X186.000 Y46.000
G1 X185.000 Y46.000
G1 X184.000 Y46.000
G1 X183.000 Y46.000
G1 X182.000 Y46.000
G1 X181.000 Y46.000
G1 X180.000 Y46.000
G1 X179.000 Y46.000
G1 X178.000 Y46.000
G1 X177.000 Y46.000
G1 X176.000 Y46.000
G1 X175.000 Y46.000
G1 X174.000 Y46.000
G0 Z4.600 F3000

; --- CIKEL NAMAKANJA ---
G0 Z4.600 F3000
M400
M204 P12000 T12000
G1 F12000
G0 X-12.190 Y-11.526 Z31.000
G1 Z0.000 F3000
G1 X-12.190 Y-11.526 F2500
G1 X-12.190 Y-9.026 F2500
G1 X-17.190 Y-11.526 F2500
G1 X-12.190 Y-19.026 F2500
G0 Z16.000 F3000
G0 X14.496 Y3.855
G0 Z31.000 F3000
G0 X173.000 Y46.000 Z4.600
M400
M204 P200 T200
G1 F400
G1 Z0.000 F2500
G1 X173.000 Y46.000
G1 X172.000 Y46.000
G1 X171.000 Y46.000
G1 X170.000 Y46.000
G1 X169.000 Y46.000
G1 X168.000 Y46.000
G1 X167.000 Y46.000
G1 X166.000 Y46.000
G1 X165.000 Y46.000
G1 X164.000 Y46.000
G1 X163.000 Y46.000
G1 X162.000 Y46.000
G1 X161.000 Y46.000
G1 X160.000 Y46.000
G1 X159.000 Y46.000
G1 X158.000 Y46.000
G1 X157.000 Y46.000
G1 X156.000 Y46.000
G1 X155.000 Y46.000
G1 X154.000 Y46.000
G1 X153.000 Y46.000
G1 X152.000 Y46.000
G1 X151.000 Y46.000
G1 X150.000 Y46.000
G1 X149.000 Y46.000
G1 X148.000 Y46.000
G1 X147.000 Y46.000
G1 X146.000 Y46.000
G1 X145.000 Y46.000
G1 X144.000 Y46.000
G1 X143.000 Y46.000
G1 X142.000 Y46.000
G1 X141.000 Y46.000
G1 X140.000 Y46.000
G1 X139.000 Y46.000
G1 X138.000 Y46.000
G1 X137.000 Y46.000
G1 X136.000 Y46.000
G1 X135.000 Y46.000
G1 X134.000 Y46.000
G1 X133.000 Y46.000
G1 X132.000 Y46.000
G1 X131.000 Y46.000
G1 X130.000 Y46.000
G1 X129.000 Y46.000
G1 X128.000 Y46.000
G1 X127.000 Y46.000
G1 X126.000 Y46.000
G1 X125.000 Y46.000
G1 X124.000 Y46.000
G1 X123.000 Y46.000
G1 X122.000 Y46.000
G1 X121.000 Y46.000
G1 X120.000 Y46.000
G1 X119.000 Y46.000
G1 X118.000 Y46.000
G1 X117.000 Y46.000
G1 X116.000 Y46.000
G1 X115.000 Y46.000
G1 X114.000 Y46.000
G1 X113.000 Y46.000
G1 X112.000 Y46.000
G1 X111.000 Y46.000
G1 X110.000 Y46.000
G1 X109.000 Y46.000
G1 X108.000 Y46.000
G1 X107.000 Y46.000
G1 X106.000 Y46.000
G1 X105.000 Y46.000
G1 X104.000 Y46.000
G1 X103.000 Y46.000
G1 X102.000 Y46.000
G1 X101.000 Y46.000
G1 X100.000 Y46.000
G1 X99.000 Y46.000
G1 X98.000 Y46.000
G1 X97.000 Y46.000
G1 X96.000 Y46.000
G1 X95.000 Y46.000
G1 X94.000 Y46.000
G1 X93.000 Y46.000
G1 X92.000 Y46.000
G1 X91.000 Y46.000
G1 X90.000 Y46.000
G1 X89.000 Y46.000
G1 X88.000 Y46.000
G1 X87.000 Y46.000
G1 X86.000 Y46.000
G1 X85.000 Y46.000
G1 X84.000 Y46.000
G1 X83.000 Y46.000
G1 X82.000 Y46.000
G1 X81.000 Y46.000
G1 X80.000 Y46.000
G1 X79.000 Y46.000
G1 X78.000 Y46.000
G1 X77.000 Y46.000
G1 X76.000 Y46.000
G1 X75.000 Y46.000
G1 X74.000 Y46.000
G1 X73.000 Y46.000
G1 X72.000 Y46.000
G0 Z4.600 F3000
M400
M204 P12000 T12000
G1 F12000
G0 X70.000 Y48.000 Z4.600
M400
M204 P200 T200
G1 F400
G1 Z0.000 F2500
G1 X71.000 Y48.000
G1 X72.000 Y48.000
G1 X73.000 Y48.000
G1 X74.000 Y48.000
G1 X75.000 Y48.000
G1 X76.000 Y48.000
G1 X77.000 Y48.000
G1 X78.000 Y48.000
G1 X79.000 Y48.000
G1 X80.000 Y48.000
G1 X81.000 Y48.000
G1 X82.000 Y48.000
G1 X83.000 Y48.000
G1 X84.000 Y48.000
G1 X85.000 Y48.000
G1 X86.000 Y48.000
G1 X87.000 Y48.000
G1 X88.000 Y48.000
G1 X89.000 Y48.000
G1 X90.000 Y48.000
G1 X91.000 Y48.000
G1 X92.000 Y48.000
G1 X93.000 Y48.000
G1 X94.000 Y48.000
G1 X95.000 Y48.000
G1 X96.000 Y48.000
G1 X97.000 Y48.000
G1 X98.000 Y48.000
G1 X99.000 Y48.000
G1 X100.000 Y48.000
G1 X101.000 Y48.000
G1 X102.000 Y48.000
G1 X103.000 Y48.000
G1 X104.000 Y48.000
G1 X105.000 Y48.000
G1 X106.000 Y48.000
G1 X107.000 Y48.000
G1 X108.000 Y48.000
G1 X109.000 Y48.000
G1 X110.000 Y48.000
G1 X111.000 Y48.000
G1 X112.000 Y48.000
G1 X113.000 Y48.000
G1 X114.000 Y48.000
G1 X115.000 Y48.000
G1 X116.000 Y48.000
G1 X117.000 Y48.000
G1 X118.000 Y48.000
G1 X119.000 Y48.000
G1 X120.000 Y48.000
G1 X121.000 Y48.000
G1 X122.000 Y48.000
G1 X123.000 Y48.000
G1 X124.000 Y48.000
G1 X125.000 Y48.000
G1 X126.000 Y48.000
G1 X127.000 Y48.000
G1 X128.000 Y48.000
G1 X129.000 Y48.000
G1 X130.000 Y48.000
G1 X131.000 Y48.000
G1 X132.000 Y48.000
G1 X133.000 Y48.000
G1 X134.000 Y48.000
G1 X135.000 Y48.000
G1 X136.000 Y48.000
G1 X137.000 Y48.000
G1 X138.000 Y48.000
G1 X139.000 Y48.000
G1 X140.000 Y48.000
G1 X141.000 Y48.000
G1 X142.000 Y48.000
G1 X143.000 Y48.000
G1 X144.000 Y48.000
G1 X145.000 Y48.000
G1 X146.000 Y48.000
G1 X147.000 Y48.000
G1 X148.000 Y48.000
G1 X149.000 Y48.000
G1 X150.000 Y48.000
G1 X151.000 Y48.000
G1 X152.000 Y48.000
G1 X153.000 Y48.000
G1 X154.000 Y48.000
G1 X155.000 Y48.000
G1 X156.000 Y48.000
G1 X157.000 Y48.000
G1 X158.000 Y48.000
G1 X159.000 Y48.000
G1 X160.000 Y48.000
G1 X161.000 Y48.000
G1 X162.000 Y48.000
G1 X163.000 Y48.000
G1 X164.000 Y48.000
G1 X165.000 Y48.000
G1 X166.000 Y48.000
G1 X167.000 Y48.000
G1 X168.000 Y48.000
G1 X169.000 Y48.000
G1 X170.000 Y48.000
G1 X171.000 Y48.000
G1 X172.000 Y48.000
G1 X173.000 Y48.000
G1 X174.000 Y48.000
G1 X175.000 Y48.000
G1 X176.000 Y48.000
G1 X177.000 Y48.000
G1 X178.000 Y48.000
G1 X179.000 Y48.000
G1 X180.000 Y48.000
G1 X181.000 Y48.000
G1 X182.000 Y48.000
G1 X183.000 Y48.000
G1 X184.000 Y48.000
G1 X185.000 Y48.000
G1 X186.000 Y48.000
G1 X187.000 Y48.000
G1 X188.000 Y48.000
G1 X189.000 Y48.000
G0 Z4.600 F3000
M400
M204 P12000 T12000
G1 F12000
G0 X192.000 Y50.000 Z4.600
M400
M204 P200 T200
G1 F400
G1 Z0.000 F2500
G1 X191.000 Y50.000
G1 X190.000 Y50.000
G1 X189.000 Y50.000
G1 X188.000 Y50.000
G1 X187.000 Y50.000
G1 X186.000 Y50.000
G1 X185.000 Y50.000
G1 X184.000 Y50.000
G1 X183.000 Y50.000
G1 X182.000 Y50.000
G1 X181.000 Y50.000
G1 X180.000 Y50.000
G1 X179.000 Y50.000
G1 X178.000 Y50.000
G1 X177.000 Y50.000
G1 X176.000 Y50.000
G1 X175.000 Y50.000
G1 X174.000 Y50.000
G1 X173.000 Y50.000
G1 X172.000 Y50.000
G1 X171.000 Y50.000
G1 X170.000 Y50.000
G1 X169.000 Y50.000
G1 X168.000 Y50.000
G1 X167.000 Y50.000
G1 X166.000 Y50.000
G1 X165.000 Y50.000
G1 X164.000 Y50.000
G1 X163.000 Y50.000
G1 X162.000 Y50.000
G1 X161.000 Y50.000
G1 X160.000 Y50.000
G1 X159.000 Y50.000
G1 X158.000 Y50.000
G1 X157.000 Y50.000
G1 X156.000 Y50.000
G1 X155.000 Y50.000
G1 X154.000 Y50.000
G1 X153.000 Y50.000
G1 X152.000 Y50.000
G1 X151.000 Y50.000
G1 X150.000 Y50.000
G1 X149.000 Y50.000
G1 X148.000 Y50.000
G1 X147.000 Y50.000
G1 X146.000 Y50.000
G1 X145.000 Y50.000
G1 X144.000 Y50.000
G1 X143.000 Y50.000
G1 X142.000 Y50.000
G1 X141.000 Y50.000
G0 Z4.600 F3000

; --- CIKEL NAMAKANJA ---
G0 Z4.600 F3000
M400
M204 P12000 T12000
G1 F12000
G0 X5.484 Y-12.529 Z31.000
G1 Z0.000 F3000
G1 X5.484 Y-12.529 F2500
G1 X5.484 Y-10.029 F2500
G1 X0.484 Y-12.529 F2500
G1 X5.484 Y-20.029 F2500
G0 Z16.000 F3000
G0 X14.126 Y5.045
G0 Z31.000 F3000
G0 X140.000 Y50.000 Z4.600
M400
M204 P200 T200
G1 F400
G1 Z0.000 F2500
G1 X140.000 Y50.000
G1 X139.000 Y50.000
G1 X138.000 Y50.000
G1 X137.000 Y50.000
G1 X136.000 Y50.000
G1 X135.000 Y50.000
G1 X134.000 Y50.000
G1 X133.000 Y50.000
G1 X132.000 Y50.000
G1 X131.000 Y50.000
G1 X130.000 Y50.000
G1 X129.000 Y50.000
G1 X128.000 Y50.000
G1 X127.000 Y50.000
G1 X126.000 Y50.000
G1 X125.000 Y50.000
G1 X124.000 Y50.000
G1 X123.000 Y50.000
G1 X122.000 Y50.000
G1 X121.000 Y50.000
G1 X120.000 Y50.000
G1 X119.000 Y50.000
G1 X118.000 Y50.000
G1 X117.000 Y50.000
G1 X116.000 Y50.000
G1 X115.000 Y50.000
G1 X114.000 Y50.000
G1 X113.000 Y50.000
G1 X112.000 Y50.000
G1 X111.000 Y50.000
G1 X110.000 Y50.000
G1 X109.000 Y50.000
G1 X108.000 Y50.000
G1 X107.000 Y50.000
G1 X106.000 Y50.000
G1 X105.000 Y50.000
G1 X104.000 Y50.000
G1 X103.000 Y50.000
G1 X102.000 Y50.000
G1 X101.000 Y50.000
G1 X100.000 Y50.000
G1 X99.000 Y50.000
G1 X98.000 Y50.000
G1 X97.000 Y50.000
G1 X96.000 Y50.000
G1 X95.000 Y50.000
G1 X94.000 Y50.000
G1 X93.000 Y50.000
G1 X92.000 Y50.000
G1 X91.000 Y50.000
G1 X90.000 Y50.000
G1 X89.000 Y50.000
G1 X88.000 Y50.000
G1 X87.000 Y50.000
G1 X86.000 Y50.000
G1 X85.000 Y50.000
G1 X84.000 Y50.000
G1 X83.000 Y50.000
G1 X82.000 Y50.000
G1 X81.000 Y50.000
G1 X80.000 Y50.000
G1 X79.000 Y50.000
G1 X78.000 Y50.000
G1 X77.000 Y50.000
G1 X76.000 Y50.000
G1 X75.000 Y50.000
G1 X74.000 Y50.000
G1 X73.000 Y50.000
G1 X72.000 Y50.000
G1 X71.000 Y50.000
G1 X70.000 Y50.000
G1 X69.000 Y50.000
G1 X68.000 Y50.000
G1 X67.000 Y50.000
G0 Z4.600 F3000
M400
M204 P12000 T12000
G1 F12000
G0 X65.000 Y52.000 Z4.600
M400
M204 P200 T200
G1 F400
G1 Z0.000 F2500
G1 X66.000 Y52.000
G1 X67.000 Y52.000
G1 X68.000 Y52.000
G1 X69.000 Y52.000
G1 X70.000 Y52.000
G1 X71.000 Y52.000
G1 X72.000 Y52.000
G1 X73.000 Y52.000
G1 X74.000 Y52.000
G1 X75.000 Y52.000
G1 X76.000 Y52.000
G1 X77.000 Y52.000
G1 X78.000 Y52.000
G1 X79.000 Y52.000
G1 X80.000 Y52.000
G1 X81.000 Y52.000
G1 X82.000 Y52.000
G1 X83.000 Y52.000
G1 X84.000 Y52.000
G1 X85.000 Y52.000
G1 X86.000 Y52.000
G1 X87.000 Y52.000
G1 X88.000 Y52.000
G1 X89.000 Y52.000
G1 X90.000 Y52.000
G1 X91.000 Y52.000
G1 X92.000 Y52.000
G1 X93.000 Y52.000
G1 X94.000 Y52.000
G1 X95.000 Y52.000
G1 X96.000 Y52.000
G1 X97.000 Y52.000
G1 X98.000 Y52.000
G1 X99.000 Y52.000
G1 X100.000 Y52.000
G1 X101.000 Y52.000
G1 X102.000 Y52.000
G1 X103.000 Y52.000
G1 X104.000 Y52.000
G1 X105.000 Y52.000
G1 X106.000 Y52.000
G1 X107.000 Y52.000
G1 X108.000 Y52.000
G1 X109.000 Y52.000
G1 X110.000 Y52.000
G1 X111.000 Y52.000
G1 X112.000 Y52.000
G1 X113.000 Y52.000
G1 X114.000 Y52.000
G1 X115.000 Y52.000
G1 X116.000 Y52.000
G1 X117.000 Y52.000
G1 X118.000 Y52.000
G1 X119.000 Y52.000
G1 X120.000 Y52.000
G1 X121.000 Y52.000
G1 X122.000 Y52.000
G1 X123.000 Y52.000
G1 X124.000 Y52.000
G1 X125.000 Y52.000
G1 X126.000 Y52.000
G1 X127.000 Y52.000
G1 X128.000 Y52.000
G1 X129.000 Y52.000
G1 X130.000 Y52.000
G1 X131.000 Y52.000
G1 X132.000 Y52.000
G1 X133.000 Y52.000
G1 X134.000 Y52.000
G1 X135.000 Y52.000
G1 X136.000 Y52.000
G1 X137.000 Y52.000
G1 X138.000 Y52.000
G1 X139.000 Y52.000
G1 X140.000 Y52.000
G1 X141.000 Y52.000
G1 X142.000 Y52.000
G1 X143.000 Y52.000
G1 X144.000 Y52.000
G1 X145.000 Y52.000
G1 X146.000 Y52.000
G1 X147.000 Y52.000
G1 X148.000 Y52.000
G1 X149.000 Y52.000
G1 X150.000 Y52.000
G1 X151.000 Y52.000
G1 X152.000 Y52.000
G1 X153.000 Y52.000
G1 X154.000 Y52.000
G1 X155.000 Y52.000
G1 X156.000 Y52.000
G1 X157.000 Y52.000
G1 X158.000 Y52.000
G1 X159.000 Y52.000
G1 X160.000 Y52.000
G1 X161.000 Y52.000
G1 X162.000 Y52.000
G1 X163.000 Y52.000
G1 X164.000 Y52.000
G1 X165.000 Y52.000
G1 X166.000 Y52.000
G1 X167.000 Y52.000
G1 X168.000 Y52.000
G1 X169.000 Y52.000
G1 X170.000 Y52.000
G1 X171.000 Y52.000
G1 X172.000 Y52.000
G1 X173.000 Y52.000
G1 X174.000 Y52.000
G1 X175.000 Y52.000
G1 X176.000 Y52.000
G1 X177.000 Y52.000
G1 X178.000 Y52.000
G1 X179.000 Y52.000
G1 X180.000 Y52.000
G1 X181.000 Y52.000
G1 X182.000 Y52.000
G1 X183.000 Y52.000
G1 X184.000 Y52.000
G1 X185.000 Y52.000
G1 X186.000 Y52.000
G1 X187.000 Y52.000
G1 X188.000 Y52.000
G1 X189.000 Y52.000
G1 X190.000 Y52.000
G1 X191.000 Y52.000
G1 X192.000 Y52.000
G1 X193.000 Y52.000
G1 X194.000 Y52.000
G0 Z4.600 F3000
M400
M204 P12000 T12000
G1 F12000
G0 X196.000 Y54.000 Z4.600
M400
M204 P200 T200
G1 F400
G1 Z0.000 F2500
G1 X195.000 Y54.000
G1 X194.000 Y54.000
G1 X193.000 Y54.000
G1 X192.000 Y54.000
G1 X191.000 Y54.000
G1 X190.000 Y54.000
G1 X189.000 Y54.000
G1 X188.000 Y54.000
G1 X187.000 Y54.000
G1 X186.000 Y54.000
G1 X185.000 Y54.000
G1 X184.000 Y54.000
G1 X183.000 Y54.000
G1 X182.000 Y54.000
G1 X181.000 Y54.000
G1 X180.000 Y54.000
G1 X179.000 Y54.000
G1 X178.000 Y54.000
G1 X177.000 Y54.000
G1 X176.000 Y54.000
G1 X175.000 Y54.000
G1 X174.000 Y54.000
G1 X173.000 Y54.000
G1 X172.000 Y54.000
G1 X171.000 Y54.000
G1 X170.000 Y54.000
G1 X169.000 Y54.000
G1 X168.000 Y54.000
G1 X167.000 Y54.000
G1 X166.000 Y54.000
G1 X165.000 Y54.000
G1 X164.000 Y54.000
G1 X163.000 Y54.000
G1 X162.000 Y54.000
G1 X161.000 Y54.000
G1 X160.000 Y54.000
G1 X159.000 Y54.000
G1 X158.000 Y54.000
G1 X157.000 Y54.000
G1 X156.000 Y54.000
G1 X155.000 Y54.000
G1 X154.000 Y54.000
G1 X153.000 Y54.000
G1 X152.000 Y54.000
G1 X151.000 Y54.000
G1 X150.000 Y54.000
G1 X149.000 Y54.000
G1 X148.000 Y54.000
G1 X147.000 Y54.000
G1 X146.000 Y54.000
G1 X145.000 Y54.000
G1 X144.000 Y54.000
G1 X143.000 Y54.000
G1 X142.000 Y54.000
G1 X141.000 Y54.000
G1 X140.000 Y54.000
G1 X139.000 Y54.000
G1 X138.000 Y54.000
G1 X137.000 Y54.000
G1 X136.000 Y54.000
G1 X135.000 Y54.000
G1 X134.000 Y54.000
G1 X133.000 Y54.000
G1 X132.000 Y54.000
G1 X131.000 Y54.000
G1 X130.000 Y54.000
G1 X129.000 Y54.000
G1 X128.000 Y54.000
G1 X127.000 Y54.000
G1 X126.000 Y54.000
G1 X125.000 Y54.000
G1 X124.000 Y54.000
G0 Z4.600 F3000

; --- CIKEL NAMAKANJA ---
G0 Z4.600 F3000
M400
M204 P12000 T12000
G1 F12000
G0 X18.843 Y-5.558 Z31.000
G1 Z0.000 F3000
G1 X18.843 Y-5.558 F2500
G1 X18.843 Y-3.058 F2500
G1 X13.843 Y-5.558 F2500
G1 X18.843 Y-13.058 F2500
G0 Z16.000 F3000
G0 X13.735 Y6.030
G0 Z31.000 F3000
G0 X123.000 Y54.000 Z4.600
M400
M204 P200 T200
G1 F400
G1 Z0.000 F2500
G1 X123.000 Y54.000
G1 X122.000 Y54.000
G1 X121.000 Y54.000
G1 X120.000 Y54.000
G1 X119.000 Y54.000
G1 X118.000 Y54.000
G1 X117.000 Y54.000
G1 X116.000 Y54.000
G1 X115.000 Y54.000
G1 X114.000 Y54.000
G1 X113.000 Y54.000
G1 X112.000 Y54.000
G1 X111.000 Y54.000
G1 X110.000 Y54.000
G1 X109.000 Y54.000
G1 X108.000 Y54.000
G1 X107.000 Y54.000
G1 X106.000 Y54.000
G1 X105.000 Y54.000
G1 X104.000 Y54.000
G1 X103.000 Y54.000
G1 X102.000 Y54.000
G1 X101.000 Y54.000
G1 X100.000 Y54.000
G1 X99.000 Y54.000
G1 X98.000 Y54.000
G1 X97.000 Y54.000
G1 X96.000 Y54.000
G1 X95.000 Y54.000
G1 X94.000 Y54.000
G1 X93.000 Y54.000
G1 X92.000 Y54.000
G1 X91.000 Y54.000
G1 X90.000 Y54.000
G1 X89.000 Y54.000
G1 X88.000 Y54.000
G1 X87.000 Y54.000
G1 X86.000 Y54.000
G1 X85.000 Y54.000
G1 X84.000 Y54.000
G1 X83.000 Y54.000
G1 X82.000 Y54.000
G1 X81.000 Y54.000
G1 X80.000 Y54.000
G1 X79.000 Y54.000
G1 X78.000 Y54.000
G1 X77.000 Y54.000
G1 X76.000 Y54.000
G1 X75.000 Y54.000
G1 X74.000 Y54.000
G1 X73.000 Y54.000
G1 X72.000 Y54.000
G1 X71.000 Y54.000
G1 X70.000 Y54.000
G1 X69.000 Y54.000
G1 X68.000 Y54.000
G1 X67.000 Y54.000
G1 X66.000 Y54.000
G1 X65.000 Y54.000
G1 X64.000 Y54.000
G1 X63.000 Y54.000
G0 Z4.600 F3000
M400
M204 P12000 T12000
G1 F12000
G0 X61.000 Y56.000 Z4.600
M400
M204 P200 T200
G1 F400
G1 Z0.000 F2500
G1 X62.000 Y56.000
G1 X63.000 Y56.000
G1 X64.000 Y56.000
G1 X65.000 Y56.000
G1 X66.000 Y56.000
G1 X67.000 Y56.000
G1 X68.000 Y56.000
G1 X69.000 Y56.000
G1 X70.000 Y56.000
G1 X71.000 Y56.000
G1 X72.000 Y56.000
G1 X73.000 Y56.000
G1 X74.000 Y56.000
G1 X75.000 Y56.000
G1 X76.000 Y56.000
G1 X77.000 Y56.000
G1 X78.000 Y56.000
G1 X79.000 Y56.000
G1 X80.000 Y56.000
G1 X81.000 Y56.000
G1 X82.000 Y56.000
G1 X83.000 Y56.000
G1 X84.000 Y56.000
G1 X85.000 Y56.000
G1 X86.000 Y56.000
G1 X87.000 Y56.000
G1 X88.000 Y56.000
G1 X89.000 Y56.000
G1 X90.000 Y56.000
G1 X91.000 Y56.000
G1 X92.000 Y56.000
G1 X93.000 Y56.000
G1 X94.000 Y56.000
G1 X95.000 Y56.000
G1 X96.000 Y56.000
G1 X97.000 Y56.000
G1 X98.000 Y56.000
G1 X99.000 Y56.000
G1 X100.000 Y56.000
G1 X101.000 Y56.000
G1 X102.000 Y56.000
G1 X103.000 Y56.000
G1 X104.000 Y56.000
G1 X105.000 Y56.000
G1 X106.000 Y56.000
G1 X107.000 Y56.000
G1 X108.000 Y56.000
G1 X109.000 Y56.000
G1 X110.000 Y56.000
G1 X111.000 Y56.000
G1 X112.000 Y56.000
G1 X113.000 Y56.000
G1 X114.000 Y56.000
G1 X115.000 Y56.000
G1 X116.000 Y56.000
G1 X117.000 Y56.000
G1 X118.000 Y56.000
G1 X119.000 Y56.000
G1 X120.000 Y56.000
G1 X121.000 Y56.000
G1 X122.000 Y56.000
G1 X123.000 Y56.000
G1 X124.000 Y56.000
G1 X125.000 Y56.000
G1 X126.000 Y56.000
G1 X127.000 Y56.000
G1 X128.000 Y56.000
G1 X129.000 Y56.000
G1 X130.000 Y56.000
G1 X131.000 Y56.000
G1 X132.000 Y56.000
G1 X133.000 Y56.000
G1 X134.000 Y56.000
G1 X135.000 Y56.000
G1 X136.000 Y56.000
G1 X137.000 Y56.000
G1 X138.000 Y56.000
G1 X139.000 Y56.000
G1 X140.000 Y56.000
G1 X141.000 Y56.000
G1 X142.000 Y56.000
G1 X143.000 Y56.000
G1 X144.000 Y56.000
G1 X145.000 Y56.000
G1 X146.000 Y56.000
G1 X147.000 Y56.000
G1 X148.000 Y56.000
G1 X149.000 Y56.000
G1 X150.000 Y56.000
G1 X151.000 Y56.000
G1 X152.000 Y56.000
G1 X153.000 Y56.000
G1 X154.000 Y56.000
G1 X155.000 Y56.000
G1 X156.000 Y56.000
G1 X157.000 Y56.000
G1 X158.000 Y56.000
G1 X159.000 Y56.000
G1 X160.000 Y56.000
G1 X161.000 Y56.000
G1 X162.000 Y56.000
G1 X163.000 Y56.000
G1 X164.000 Y56.000
G1 X165.000 Y56.000
G1 X166.000 Y56.000
G1 X167.000 Y56.000
G1 X168.000 Y56.000
G1 X169.000 Y56.000
G1 X170.000 Y56.000
G1 X171.000 Y56.000
G1 X172.000 Y56.000
G1 X173.000 Y56.000
G1 X174.000 Y56.000
G1 X175.000 Y56.000
G1 X176.000 Y56.000
G1 X177.000 Y56.000
G1 X178.000 Y56.000
G1 X179.000 Y56.000
G1 X180.000 Y56.000
G1 X181.000 Y56.000
G1 X182.000 Y56.000
G1 X183.000 Y56.000
G1 X184.000 Y56.000
G1 X185.000 Y56.000
G1 X186.000 Y56.000
G1 X187.000 Y56.000
G1 X188.000 Y56.000
G1 X189.000 Y56.000
G1 X190.000 Y56.000
G1 X191.000 Y56.000
G1 X192.000 Y56.000
G1 X193.000 Y56.000
G1 X194.000 Y56.000
G1 X195.000 Y56.000
G1 X196.000 Y56.000
G1 X197.000 Y56.000
G1 X198.000 Y56.000
G0 Z4.600 F3000
M400
M204 P12000 T12000
G1 F12000
G0 X202.000 Y60.000 Z4.600
M400
M204 P200 T200
G1 F400
G1 Z0.000 F2500
G1 X201.000 Y60.000
G1 X200.000 Y60.000
G1 X199.000 Y60.000
G1 X198.000 Y60.000
G1 X197.000 Y60.000
G1 X196.000 Y60.000
G1 X195.000 Y60.000
G1 X194.000 Y60.000
G1 X193.000 Y60.000
G1 X192.000 Y60.000
G1 X191.000 Y60.000
G1 X190.000 Y60.000
G1 X189.000 Y60.000
G1 X188.000 Y60.000
G1 X187.000 Y60.000
G1 X186.000 Y60.000
G1 X185.000 Y60.000
G1 X184.000 Y60.000
G1 X183.000 Y60.000
G1 X182.000 Y60.000
G1 X181.000 Y60.000
G1 X180.000 Y60.000
G1 X179.000 Y60.000
G1 X178.000 Y60.000
G1 X177.000 Y60.000
G1 X176.000 Y60.000
G1 X175.000 Y60.000
G1 X174.000 Y60.000
G1 X173.000 Y60.000
G1 X172.000 Y60.000
G1 X171.000 Y60.000
G1 X170.000 Y60.000
G1 X169.000 Y60.000
G1 X168.000 Y60.000
G1 X167.000 Y60.000
G1 X166.000 Y60.000
G1 X165.000 Y60.000
G1 X164.000 Y60.000
G1 X163.000 Y60.000
G1 X162.000 Y60.000
G1 X161.000 Y60.000
G1 X160.000 Y60.000
G1 X159.000 Y60.000
G1 X158.000 Y60.000
G1 X157.000 Y60.000
G1 X156.000 Y60.000
G1 X155.000 Y60.000
G1 X154.000 Y60.000
G1 X153.000 Y60.000
G1 X152.000 Y60.000
G1 X151.000 Y60.000
G1 X150.000 Y60.000
G1 X149.000 Y60.000
G1 X148.000 Y60.000
G1 X147.000 Y60.000
G1 X146.000 Y60.000
G1 X145.000 Y60.000
G1 X144.000 Y60.000
G1 X143.000 Y60.000
G1 X142.000 Y60.000
G1 X141.000 Y60.000
G1 X140.000 Y60.000
G1 X139.000 Y60.000
G1 X138.000 Y60.000
G1 X137.000 Y60.000
G1 X136.000 Y60.000
G1 X135.000 Y60.000
G1 X134.000 Y60.000
G1 X133.000 Y60.000
G1 X132.000 Y60.000
G1 X131.000 Y60.000
G0 Z4.600 F3000

; --- CIKEL NAMAKANJA ---
G0 Z4.600 F3000
M400
M204 P12000 T12000
G1 F12000
G0 X-14.595 Y-8.236 Z31.000
G1 Z0.000 F3000
G1 X-14.595 Y-8.236 F2500
G1 X-14.595 Y-5.736 F2500
G1 X-19.595 Y-8.236 F2500
G1 X-14.595 Y-15.736 F2500
G0 Z16.000 F3000
G0 X13.619 Y6.286
G0 Z31.000 F3000
G0 X130.000 Y60.000 Z4.600
M400
M204 P200 T200
G1 F400
G1 Z0.000 F2500
G1 X130.000 Y60.000
G1 X129.000 Y60.000
G1 X128.000 Y60.000
G1 X127.000 Y60.000
G1 X126.000 Y60.000
G1 X125.000 Y60.000
G1 X124.000 Y60.000
G1 X123.000 Y60.000
G1 X122.000 Y60.000
G1 X121.000 Y60.000
G1 X120.000 Y60.000
G1 X119.000 Y60.000
G1 X118.000 Y60.000
G1 X117.000 Y60.000
G1 X116.000 Y60.000
G1 X115.000 Y60.000
G1 X114.000 Y60.000
G1 X113.000 Y60.000
G1 X112.000 Y60.000
G1 X111.000 Y60.000
G1 X110.000 Y60.000
G1 X109.000 Y60.000
G1 X108.000 Y60.000
G1 X107.000 Y60.000
G1 X106.000 Y60.000
G1 X105.000 Y60.000
G1 X104.000 Y60.000
G1 X103.000 Y60.000
G1 X102.000 Y60.000
G1 X101.000 Y60.000
G1 X100.000 Y60.000
G1 X99.000 Y60.000
G1 X98.000 Y60.000
G1 X97.000 Y60.000
G1 X96.000 Y60.000
G1 X95.000 Y60.000
G1 X94.000 Y60.000
G1 X93.000 Y60.000
G1 X92.000 Y60.000
G1 X91.000 Y60.000
G1 X90.000 Y60.000
G1 X89.000 Y60.000
G1 X88.000 Y60.000
G1 X87.000 Y60.000
G1 X86.000 Y60.000
G1 X85.000 Y60.000
G1 X84.000 Y60.000
G1 X83.000 Y60.000
G1 X82.000 Y60.000
G1 X81.000 Y60.000
G1 X80.000 Y60.000
G1 X79.000 Y60.000
G1 X78.000 Y60.000
G1 X77.000 Y60.000
G1 X76.000 Y60.000
G1 X75.000 Y60.000
G1 X74.000 Y60.000
G1 X73.000 Y60.000
G1 X72.000 Y60.000
G1 X71.000 Y60.000
G1 X70.000 Y60.000
G1 X69.000 Y60.000
G1 X68.000 Y60.000
G1 X67.000 Y60.000
G1 X66.000 Y60.000
G1 X65.000 Y60.000
G1 X64.000 Y60.000
G1 X63.000 Y60.000
G1 X62.000 Y60.000
G1 X61.000 Y60.000
G1 X60.000 Y60.000
G1 X59.000 Y60.000
G1 X58.000 Y60.000
G1 X57.000 Y60.000
G0 Z4.600 F3000
M400
M204 P12000 T12000
G1 F12000
G0 X55.000 Y62.000 Z4.600
M400
M204 P200 T200
G1 F400
G1 Z0.000 F2500
G1 X56.000 Y62.000
G1 X57.000 Y62.000
G1 X58.000 Y62.000
G1 X59.000 Y62.000
G1 X60.000 Y62.000
G1 X61.000 Y62.000
G1 X62.000 Y62.000
G1 X63.000 Y62.000
G1 X64.000 Y62.000
G1 X65.000 Y62.000
G1 X66.000 Y62.000
G1 X67.000 Y62.000
G1 X68.000 Y62.000
G1 X69.000 Y62.000
G1 X70.000 Y62.000
G1 X71.000 Y62.000
G1 X72.000 Y62.000
G1 X73.000 Y62.000
G1 X74.000 Y62.000
G1 X75.000 Y62.000
G1 X76.000 Y62.000
G1 X77.000 Y62.000
G1 X78.000 Y62.000
G1 X79.000 Y62.000
G1 X80.000 Y62.000
G1 X81.000 Y62.000
G1 X82.000 Y62.000
G1 X83.000 Y62.000
G1 X84.000 Y62.000
G1 X85.000 Y62.000
G1 X86.000 Y62.000
G1 X87.000 Y62.000
G1 X88.000 Y62.000
G1 X89.000 Y62.000
G1 X90.000 Y62.000
G1 X91.000 Y62.000
G1 X92.000 Y62.000
G1 X93.000 Y62.000
G1 X94.000 Y62.000
G1 X95.000 Y62.000
G1 X96.000 Y62.000
G1 X97.000 Y62.000
G1 X98.000 Y62.000
G1 X99.000 Y62.000
G1 X100.000 Y62.000
G1 X101.000 Y62.000
G1 X102.000 Y62.000
G1 X103.000 Y62.000
G1 X104.000 Y62.000
G1 X105.000 Y62.000
G1 X106.000 Y62.000
G1 X107.000 Y62.000
G1 X108.000 Y62.000
G1 X109.000 Y62.000
G1 X110.000 Y62.000
G1 X111.000 Y62.000
G1 X112.000 Y62.000
G1 X113.000 Y62.000
G1 X114.000 Y62.000
G1 X115.000 Y62.000
G1 X116.000 Y62.000
G1 X117.000 Y62.000
G1 X118.000 Y62.000
G1 X119.000 Y62.000
G1 X120.000 Y62.000
G1 X121.000 Y62.000
G1 X122.000 Y62.000
G1 X123.000 Y62.000
G1 X124.000 Y62.000
G1 X125.000 Y62.000
G1 X126.000 Y62.000
G1 X127.000 Y62.000
G1 X128.000 Y62.000
G1 X129.000 Y62.000
G1 X130.000 Y62.000
G1 X131.000 Y62.000
G1 X132.000 Y62.000
G1 X133.000 Y62.000
G1 X134.000 Y62.000
G1 X135.000 Y62.000
G1 X136.000 Y62.000
G1 X137.000 Y62.000
G1 X138.000 Y62.000
G1 X139.000 Y62.000
G1 X140.000 Y62.000
G1 X141.000 Y62.000
G1 X142.000 Y62.000
G1 X143.000 Y62.000
G1 X144.000 Y62.000
G1 X145.000 Y62.000
G1 X146.000 Y62.000
G1 X147.000 Y62.000
G1 X148.000 Y62.000
G1 X149.000 Y62.000
G1 X150.000 Y62.000
G1 X151.000 Y62.000
G1 X152.000 Y62.000
G1 X153.000 Y62.000
G1 X154.000 Y62.000
G1 X155.000 Y62.000
G1 X156.000 Y62.000
G1 X157.000 Y62.000
G1 X158.000 Y62.000
G1 X159.000 Y62.000
G1 X160.000 Y62.000
G1 X161.000 Y62.000
G1 X162.000 Y62.000
G1 X163.000 Y62.000
G1 X164.000 Y62.000
G1 X165.000 Y62.000
G1 X166.000 Y62.000
G1 X167.000 Y62.000
G1 X168.000 Y62.000
G1 X169.000 Y62.000
G1 X170.000 Y62.000
G1 X171.000 Y62.000
G1 X172.000 Y62.000
G1 X173.000 Y62.000
G1 X174.000 Y62.000
G1 X175.000 Y62.000
G1 X176.000 Y62.000
G1 X177.000 Y62.000
G1 X178.000 Y62.000
G1 X179.000 Y62.000
G1 X180.000 Y62.000
G1 X181.000 Y62.000
G1 X182.000 Y62.000
G1 X183.000 Y62.000
G1 X184.000 Y62.000
G1 X185.000 Y62.000
G1 X186.000 Y62.000
G1 X187.000 Y62.000
G1 X188.000 Y62.000
G1 X189.000 Y62.000
G1 X190.000 Y62.000
G1 X191.000 Y62.000
G1 X192.000 Y62.000
G1 X193.000 Y62.000
G1 X194.000 Y62.000
G1 X195.000 Y62.000
G1 X196.000 Y62.000
G1 X197.000 Y62.000
G1 X198.000 Y62.000
G1 X199.000 Y62.000
G1 X200.000 Y62.000
G1 X201.000 Y62.000
G1 X202.000 Y62.000
G1 X203.000 Y62.000
G1 X204.000 Y62.000
G0 Z4.600 F3000
M400
M204 P12000 T12000
G1 F12000
G0 X206.000 Y64.000 Z4.600
M400
M204 P200 T200
G1 F400
G1 Z0.000 F2500
G1 X205.000 Y64.000
G1 X204.000 Y64.000
G1 X203.000 Y64.000
G1 X202.000 Y64.000
G1 X201.000 Y64.000
G1 X200.000 Y64.000
G1 X199.000 Y64.000
G1 X198.000 Y64.000
G1 X197.000 Y64.000
G1 X196.000 Y64.000
G1 X195.000 Y64.000
G1 X194.000 Y64.000
G1 X193.000 Y64.000
G1 X192.000 Y64.000
G1 X191.000 Y64.000
G1 X190.000 Y64.000
G1 X189.000 Y64.000
G1 X188.000 Y64.000
G1 X187.000 Y64.000
G1 X186.000 Y64.000
G1 X185.000 Y64.000
G1 X184.000 Y64.000
G1 X183.000 Y64.000
G1 X182.000 Y64.000
G1 X181.000 Y64.000
G1 X180.000 Y64.000
G1 X179.000 Y64.000
G1 X178.000 Y64.000
G0 Z4.600 F3000

; --- CIKEL NAMAKANJA ---
G0 Z4.600 F3000
M400
M204 P12000 T12000
G1 F12000
G0 X11.439 Y10.685 Z31.000
G1 Z0.000 F3000
G1 X11.439 Y10.685 F2500
G1 X11.439 Y13.185 F2500
G1 X6.439 Y10.685 F2500
G1 X11.439 Y3.185 F2500
G0 Z16.000 F3000
G0 X14.106 Y5.101
G0 Z31.000 F3000
G0 X177.000 Y64.000 Z4.600
M400
M204 P200 T200
G1 F400
G1 Z0.000 F2500
G1 X177.000 Y64.000
G1 X176.000 Y64.000
G1 X175.000 Y64.000
G1 X174.000 Y64.000
G1 X173.000 Y64.000
G1 X172.000 Y64.000
G1 X171.000 Y64.000
G1 X170.000 Y64.000
G1 X169.000 Y64.000
G1 X168.000 Y64.000
G1 X167.000 Y64.000
G1 X166.000 Y64.000
G1 X165.000 Y64.000
G1 X164.000 Y64.000
G1 X163.000 Y64.000
G1 X162.000 Y64.000
G1 X161.000 Y64.000
G1 X160.000 Y64.000
G1 X159.000 Y64.000
G1 X158.000 Y64.000
G1 X157.000 Y64.000
G1 X156.000 Y64.000
G1 X155.000 Y64.000
G1 X154.000 Y64.000
G1 X153.000 Y64.000
G1 X152.000 Y64.000
G1 X151.000 Y64.000
G1 X150.000 Y64.000
G1 X149.000 Y64.000
G1 X148.000 Y64.000
G1 X147.000 Y64.000
G1 X146.000 Y64.000
G1 X145.000 Y64.000
G1 X144.000 Y64.000
G1 X143.000 Y64.000
G1 X142.000 Y64.000
G1 X141.000 Y64.000
G1 X140.000 Y64.000
G1 X139.000 Y64.000
G1 X138.000 Y64.000
G1 X137.000 Y64.000
G1 X136.000 Y64.000
G1 X135.000 Y64.000
G1 X134.000 Y64.000
G1 X133.000 Y64.000
G1 X132.000 Y64.000
G1 X131.000 Y64.000
G1 X130.000 Y64.000
G1 X129.000 Y64.000
G1 X128.000 Y64.000
G1 X127.000 Y64.000
G1 X126.000 Y64.000
G1 X125.000 Y64.000
G1 X124.000 Y64.000
G1 X123.000 Y64.000
G1 X122.000 Y64.000
G1 X121.000 Y64.000
G1 X120.000 Y64.000
G1 X119.000 Y64.000
G1 X118.000 Y64.000
G1 X117.000 Y64.000
G1 X116.000 Y64.000
G1 X115.000 Y64.000
G1 X114.000 Y64.000
G1 X113.000 Y64.000
G1 X112.000 Y64.000
G1 X111.000 Y64.000
G1 X110.000 Y64.000
G1 X109.000 Y64.000
G1 X108.000 Y64.000
G1 X107.000 Y64.000
G1 X106.000 Y64.000
G1 X105.000 Y64.000
G1 X104.000 Y64.000
G1 X103.000 Y64.000
G1 X102.000 Y64.000
G1 X101.000 Y64.000
G1 X100.000 Y64.000
G1 X99.000 Y64.000
G1 X98.000 Y64.000
G1 X97.000 Y64.000
G1 X96.000 Y64.000
G1 X95.000 Y64.000
G1 X94.000 Y64.000
G1 X93.000 Y64.000
G1 X92.000 Y64.000
G1 X91.000 Y64.000
G1 X90.000 Y64.000
G1 X89.000 Y64.000
G1 X88.000 Y64.000
G1 X87.000 Y64.000
G1 X86.000 Y64.000
G1 X85.000 Y64.000
G1 X84.000 Y64.000
G1 X83.000 Y64.000
G1 X82.000 Y64.000
G1 X81.000 Y64.000
G1 X80.000 Y64.000
G1 X79.000 Y64.000
G1 X78.000 Y64.000
G1 X77.000 Y64.000
G1 X76.000 Y64.000
G1 X75.000 Y64.000
G1 X74.000 Y64.000
G1 X73.000 Y64.000
G1 X72.000 Y64.000
G1 X71.000 Y64.000
G1 X70.000 Y64.000
G1 X69.000 Y64.000
G1 X68.000 Y64.000
G1 X67.000 Y64.000
G1 X66.000 Y64.000
G1 X65.000 Y64.000
G1 X64.000 Y64.000
G1 X63.000 Y64.000
G1 X62.000 Y64.000
G1 X61.000 Y64.000
G1 X60.000 Y64.000
G1 X59.000 Y64.000
G1 X58.000 Y64.000
G1 X57.000 Y64.000
G1 X56.000 Y64.000
G1 X55.000 Y64.000
G1 X54.000 Y64.000
G1 X53.000 Y64.000
G0 Z4.600 F3000
M400
M204 P12000 T12000
G1 F12000
G0 X51.000 Y66.000 Z4.600
M400
M204 P200 T200
G1 F400
G1 Z0.000 F2500
G1 X52.000 Y66.000
G1 X53.000 Y66.000
G1 X54.000 Y66.000
G1 X55.000 Y66.000
G1 X56.000 Y66.000
G1 X57.000 Y66.000
G1 X58.000 Y66.000
G1 X59.000 Y66.000
G1 X60.000 Y66.000
G1 X61.000 Y66.000
G1 X62.000 Y66.000
G1 X63.000 Y66.000
G1 X64.000 Y66.000
G1 X65.000 Y66.000
G1 X66.000 Y66.000
G1 X67.000 Y66.000
G1 X68.000 Y66.000
G1 X69.000 Y66.000
G1 X70.000 Y66.000
G1 X71.000 Y66.000
G1 X72.000 Y66.000
G1 X73.000 Y66.000
G1 X74.000 Y66.000
G1 X75.000 Y66.000
G1 X76.000 Y66.000
G1 X77.000 Y66.000
G1 X78.000 Y66.000
G1 X79.000 Y66.000
G1 X80.000 Y66.000
G1 X81.000 Y66.000
G1 X82.000 Y66.000
G1 X83.000 Y66.000
G1 X84.000 Y66.000
G1 X85.000 Y66.000
G1 X86.000 Y66.000
G1 X87.000 Y66.000
G1 X88.000 Y66.000
G1 X89.000 Y66.000
G1 X90.000 Y66.000
G1 X91.000 Y66.000
G1 X92.000 Y66.000
G1 X93.000 Y66.000
G1 X94.000 Y66.000
G1 X95.000 Y66.000
G1 X96.000 Y66.000
G1 X97.000 Y66.000
G1 X98.000 Y66.000
G1 X99.000 Y66.000
G1 X100.000 Y66.000
G1 X101.000 Y66.000
G1 X102.000 Y66.000
G1 X103.000 Y66.000
G1 X104.000 Y66.000
G1 X105.000 Y66.000
G1 X106.000 Y66.000
G1 X107.000 Y66.000
G1 X108.000 Y66.000
G1 X109.000 Y66.000
G1 X110.000 Y66.000
G1 X111.000 Y66.000
G1 X112.000 Y66.000
G1 X113.000 Y66.000
G1 X114.000 Y66.000
G1 X115.000 Y66.000
G1 X116.000 Y66.000
G1 X117.000 Y66.000
G1 X118.000 Y66.000
G1 X119.000 Y66.000
G1 X120.000 Y66.000
G1 X121.000 Y66.000
G1 X122.000 Y66.000
G1 X123.000 Y66.000
G1 X124.000 Y66.000
G1 X125.000 Y66.000
G1 X126.000 Y66.000
G1 X127.000 Y66.000
G1 X128.000 Y66.000
G1 X129.000 Y66.000
G1 X130.000 Y66.000
G1 X131.000 Y66.000
G1 X132.000 Y66.000
G1 X133.000 Y66.000
G1 X134.000 Y66.000
G1 X135.000 Y66.000
G1 X136.000 Y66.000
G1 X137.000 Y66.000
G1 X138.000 Y66.000
G1 X139.000 Y66.000
G1 X140.000 Y66.000
G1 X141.000 Y66.000
G1 X142.000 Y66.000
G1 X143.000 Y66.000
G1 X144.000 Y66.000
G1 X145.000 Y66.000
G1 X146.000 Y66.000
G1 X147.000 Y66.000
G1 X148.000 Y66.000
G1 X149.000 Y66.000
G1 X150.000 Y66.000
G1 X151.000 Y66.000
G1 X152.000 Y66.000
G1 X153.000 Y66.000
G1 X154.000 Y66.000
G1 X155.000 Y66.000
G1 X156.000 Y66.000
G1 X157.000 Y66.000
G1 X158.000 Y66.000
G1 X159.000 Y66.000
G1 X160.000 Y66.000
G1 X161.000 Y66.000
G1 X162.000 Y66.000
G1 X163.000 Y66.000
G1 X164.000 Y66.000
G1 X165.000 Y66.000
G1 X166.000 Y66.000
G1 X167.000 Y66.000
G1 X168.000 Y66.000
G1 X169.000 Y66.000
G1 X170.000 Y66.000
G1 X171.000 Y66.000
G1 X172.000 Y66.000
G1 X173.000 Y66.000
G1 X174.000 Y66.000
G1 X175.000 Y66.000
G1 X176.000 Y66.000
G1 X177.000 Y66.000
G1 X178.000 Y66.000
G1 X179.000 Y66.000
G1 X180.000 Y66.000
G1 X181.000 Y66.000
G1 X182.000 Y66.000
G1 X183.000 Y66.000
G1 X184.000 Y66.000
G1 X185.000 Y66.000
G1 X186.000 Y66.000
G1 X187.000 Y66.000
G1 X188.000 Y66.000
G1 X189.000 Y66.000
G1 X190.000 Y66.000
G1 X191.000 Y66.000
G1 X192.000 Y66.000
G1 X193.000 Y66.000
G1 X194.000 Y66.000
G1 X195.000 Y66.000
G1 X196.000 Y66.000
G1 X197.000 Y66.000
G1 X198.000 Y66.000
G1 X199.000 Y66.000
G1 X200.000 Y66.000
G1 X201.000 Y66.000
G0 Z4.600 F3000

; --- CIKEL NAMAKANJA ---
G0 Z4.600 F3000
M400
M204 P12000 T12000
G1 F12000
G0 X-6.516 Y11.821 Z31.000
G1 Z0.000 F3000
G1 X-6.516 Y11.821 F2500
G1 X-6.516 Y14.321 F2500
G1 X-11.516 Y11.821 F2500
G1 X-6.516 Y4.321 F2500
G0 Z16.000 F3000
G0 X14.258 Y4.659
G0 Z31.000 F3000
G0 X202.000 Y66.000 Z4.600
M400
M204 P200 T200
G1 F400
G1 Z0.000 F2500
G1 X202.000 Y66.000
G1 X203.000 Y66.000
G1 X204.000 Y66.000
G1 X205.000 Y66.000
G1 X206.000 Y66.000
G1 X207.000 Y66.000
G1 X208.000 Y66.000
G0 Z4.600 F3000
M400
M204 P12000 T12000
G1 F12000
G0 X209.000 Y68.000 Z4.600
M400
M204 P200 T200
G1 F400
G1 Z0.000 F2500
G1 X208.000 Y68.000
G1 X207.000 Y68.000
G1 X206.000 Y68.000
G1 X205.000 Y68.000
G1 X204.000 Y68.000
G1 X203.000 Y68.000
G1 X202.000 Y68.000
G1 X201.000 Y68.000
G1 X200.000 Y68.000
G1 X199.000 Y68.000
G1 X198.000 Y68.000
G1 X197.000 Y68.000
G1 X196.000 Y68.000
G1 X195.000 Y68.000
G1 X194.000 Y68.000
G1 X193.000 Y68.000
G1 X192.000 Y68.000
G1 X191.000 Y68.000
G1 X190.000 Y68.000
G1 X189.000 Y68.000
G1 X188.000 Y68.000
G1 X187.000 Y68.000
G1 X186.000 Y68.000
G1 X185.000 Y68.000
G1 X184.000 Y68.000
G1 X183.000 Y68.000
G1 X182.000 Y68.000
G1 X181.000 Y68.000
G1 X180.000 Y68.000
G1 X179.000 Y68.000
G1 X178.000 Y68.000
G1 X177.000 Y68.000
G1 X176.000 Y68.000
G1 X175.000 Y68.000
G1 X174.000 Y68.000
G1 X173.000 Y68.000
G1 X172.000 Y68.000
G1 X171.000 Y68.000
G1 X170.000 Y68.000
G1 X169.000 Y68.000
G1 X168.000 Y68.000
G1 X167.000 Y68.000
G1 X166.000 Y68.000
G1 X165.000 Y68.000
G1 X164.000 Y68.000
G1 X163.000 Y68.000
G1 X162.000 Y68.000
G1 X161.000 Y68.000
G1 X160.000 Y68.000
G1 X159.000 Y68.000
G1 X158.000 Y68.000
G1 X157.000 Y68.000
G1 X156.000 Y68.000
G1 X155.000 Y68.000
G1 X154.000 Y68.000
G1 X153.000 Y68.000
G1 X152.000 Y68.000
G1 X151.000 Y68.000
G1 X150.000 Y68.000
G1 X149.000 Y68.000
G1 X148.000 Y68.000
G1 X147.000 Y68.000
G1 X146.000 Y68.000
G1 X145.000 Y68.000
G1 X144.000 Y68.000
G1 X143.000 Y68.000
G1 X142.000 Y68.000
G1 X141.000 Y68.000
G1 X140.000 Y68.000
G1 X139.000 Y68.000
G1 X138.000 Y68.000
G1 X137.000 Y68.000
G1 X136.000 Y68.000
G1 X135.000 Y68.000
G1 X134.000 Y68.000
G1 X133.000 Y68.000
G1 X132.000 Y68.000
G1 X131.000 Y68.000
G1 X130.000 Y68.000
G1 X129.000 Y68.000
G1 X128.000 Y68.000
G1 X127.000 Y68.000
G1 X126.000 Y68.000
G1 X125.000 Y68.000
G1 X124.000 Y68.000
G1 X123.000 Y68.000
G1 X122.000 Y68.000
G1 X121.000 Y68.000
G1 X120.000 Y68.000
G1 X119.000 Y68.000
G1 X118.000 Y68.000
G1 X117.000 Y68.000
G1 X116.000 Y68.000
G1 X115.000 Y68.000
G1 X114.000 Y68.000
G1 X113.000 Y68.000
G1 X112.000 Y68.000
G1 X111.000 Y68.000
G1 X110.000 Y68.000
G1 X109.000 Y68.000
G1 X108.000 Y68.000
G1 X107.000 Y68.000
G1 X106.000 Y68.000
G1 X105.000 Y68.000
G1 X104.000 Y68.000
G1 X103.000 Y68.000
G1 X102.000 Y68.000
G1 X101.000 Y68.000
G1 X100.000 Y68.000
G1 X99.000 Y68.000
G1 X98.000 Y68.000
G1 X97.000 Y68.000
G1 X96.000 Y68.000
G1 X95.000 Y68.000
G1 X94.000 Y68.000
G1 X93.000 Y68.000
G1 X92.000 Y68.000
G1 X91.000 Y68.000
G1 X90.000 Y68.000
G1 X89.000 Y68.000
G1 X88.000 Y68.000
G1 X87.000 Y68.000
G1 X86.000 Y68.000
G1 X85.000 Y68.000
G1 X84.000 Y68.000
G1 X83.000 Y68.000
G1 X82.000 Y68.000
G1 X81.000 Y68.000
G1 X80.000 Y68.000
G1 X79.000 Y68.000
G1 X78.000 Y68.000
G1 X77.000 Y68.000
G1 X76.000 Y68.000
G1 X75.000 Y68.000
G1 X74.000 Y68.000
G1 X73.000 Y68.000
G1 X72.000 Y68.000
G1 X71.000 Y68.000
G1 X70.000 Y68.000
G1 X69.000 Y68.000
G1 X68.000 Y68.000
G1 X67.000 Y68.000
G1 X66.000 Y68.000
G1 X65.000 Y68.000
G1 X64.000 Y68.000
G1 X63.000 Y68.000
G1 X62.000 Y68.000
G1 X61.000 Y68.000
G1 X60.000 Y68.000
G1 X59.000 Y68.000
G1 X58.000 Y68.000
G1 X57.000 Y68.000
G1 X56.000 Y68.000
G1 X55.000 Y68.000
G1 X54.000 Y68.000
G1 X53.000 Y68.000
G1 X52.000 Y68.000
G1 X51.000 Y68.000
G1 X50.000 Y68.000
G0 Z4.600 F3000
M400
M204 P12000 T12000
G1 F12000
G0 X48.000 Y70.000 Z4.600
M400
M204 P200 T200
G1 F400
G1 Z0.000 F2500
G1 X49.000 Y70.000
G1 X50.000 Y70.000
G1 X51.000 Y70.000
G1 X52.000 Y70.000
G1 X53.000 Y70.000
G1 X54.000 Y70.000
G1 X55.000 Y70.000
G1 X56.000 Y70.000
G1 X57.000 Y70.000
G1 X58.000 Y70.000
G1 X59.000 Y70.000
G1 X60.000 Y70.000
G1 X61.000 Y70.000
G1 X62.000 Y70.000
G1 X63.000 Y70.000
G1 X64.000 Y70.000
G1 X65.000 Y70.000
G1 X66.000 Y70.000
G1 X67.000 Y70.000
G1 X68.000 Y70.000
G1 X69.000 Y70.000
G1 X70.000 Y70.000
G1 X71.000 Y70.000
G1 X72.000 Y70.000
G1 X73.000 Y70.000
G1 X74.000 Y70.000
G1 X75.000 Y70.000
G1 X76.000 Y70.000
G1 X77.000 Y70.000
G1 X78.000 Y70.000
G1 X79.000 Y70.000
G1 X80.000 Y70.000
G1 X81.000 Y70.000
G1 X82.000 Y70.000
G1 X83.000 Y70.000
G1 X84.000 Y70.000
G1 X85.000 Y70.000
G1 X86.000 Y70.000
G1 X87.000 Y70.000
G1 X88.000 Y70.000
G1 X89.000 Y70.000
G1 X90.000 Y70.000
G1 X91.000 Y70.000
G1 X92.000 Y70.000
G1 X93.000 Y70.000
G1 X94.000 Y70.000
G1 X95.000 Y70.000
G1 X96.000 Y70.000
G1 X97.000 Y70.000
G1 X98.000 Y70.000
G1 X99.000 Y70.000
G1 X100.000 Y70.000
G1 X101.000 Y70.000
G1 X102.000 Y70.000
G1 X103.000 Y70.000
G1 X104.000 Y70.000
G1 X105.000 Y70.000
G1 X106.000 Y70.000
G1 X107.000 Y70.000
G1 X108.000 Y70.000
G1 X109.000 Y70.000
G1 X110.000 Y70.000
G1 X111.000 Y70.000
G1 X112.000 Y70.000
G1 X113.000 Y70.000
G1 X114.000 Y70.000
G1 X115.000 Y70.000
G1 X116.000 Y70.000
G1 X117.000 Y70.000
G1 X118.000 Y70.000
G1 X119.000 Y70.000
G1 X120.000 Y70.000
G1 X121.000 Y70.000
G1 X122.000 Y70.000
G1 X123.000 Y70.000
G1 X124.000 Y70.000
G1 X125.000 Y70.000
G1 X126.000 Y70.000
G1 X127.000 Y70.000
G1 X128.000 Y70.000
G1 X129.000 Y70.000
G1 X130.000 Y70.000
G1 X131.000 Y70.000
G1 X132.000 Y70.000
G1 X133.000 Y70.000
G1 X134.000 Y70.000
G1 X135.000 Y70.000
G1 X136.000 Y70.000
G1 X137.000 Y70.000
G1 X138.000 Y70.000
G1 X139.000 Y70.000
G1 X140.000 Y70.000
G0 Z4.600 F3000

; --- CIKEL NAMAKANJA ---
G0 Z4.600 F3000
M400
M204 P12000 T12000
G1 F12000
G0 X-19.354 Y1.203 Z31.000
G1 Z0.000 F3000
G1 X-19.354 Y1.203 F2500
G1 X-19.354 Y3.703 F2500
G1 X-24.354 Y1.203 F2500
G1 X-19.354 Y-6.297 F2500
G0 Z16.000 F3000
G0 X13.435 Y6.670
G0 Z31.000 F3000
G0 X141.000 Y70.000 Z4.600
M400
M204 P200 T200
G1 F400
G1 Z0.000 F2500
G1 X141.000 Y70.000
G1 X142.000 Y70.000
G1 X143.000 Y70.000
G1 X144.000 Y70.000
G1 X145.000 Y70.000
G1 X146.000 Y70.000
G1 X147.000 Y70.000
G1 X148.000 Y70.000
G1 X149.000 Y70.000
G1 X150.000 Y70.000
G1 X151.000 Y70.000
G1 X152.000 Y70.000
G1 X153.000 Y70.000
G1 X154.000 Y70.000
G1 X155.000 Y70.000
G1 X156.000 Y70.000
G1 X157.000 Y70.000
G1 X158.000 Y70.000
G1 X159.000 Y70.000
G1 X160.000 Y70.000
G1 X161.000 Y70.000
G1 X162.000 Y70.000
G1 X163.000 Y70.000
G1 X164.000 Y70.000
G1 X165.000 Y70.000
G1 X166.000 Y70.000
G1 X167.000 Y70.000
G1 X168.000 Y70.000
G1 X169.000 Y70.000
G1 X170.000 Y70.000
G1 X171.000 Y70.000
G1 X172.000 Y70.000
G1 X173.000 Y70.000
G1 X174.000 Y70.000
G1 X175.000 Y70.000
G1 X176.000 Y70.000
G1 X177.000 Y70.000
G1 X178.000 Y70.000
G1 X179.000 Y70.000
G1 X180.000 Y70.000
G1 X181.000 Y70.000
G1 X182.000 Y70.000
G1 X183.000 Y70.000
G1 X184.000 Y70.000
G1 X185.000 Y70.000
G1 X186.000 Y70.000
G1 X187.000 Y70.000
G1 X188.000 Y70.000
G1 X189.000 Y70.000
G1 X190.000 Y70.000
G1 X191.000 Y70.000
G1 X192.000 Y70.000
G1 X193.000 Y70.000
G1 X194.000 Y70.000
G1 X195.000 Y70.000
G1 X196.000 Y70.000
G1 X197.000 Y70.000
G1 X198.000 Y70.000
G1 X199.000 Y70.000
G1 X200.000 Y70.000
G1 X201.000 Y70.000
G1 X202.000 Y70.000
G1 X203.000 Y70.000
G1 X204.000 Y70.000
G1 X205.000 Y70.000
G1 X206.000 Y70.000
G1 X207.000 Y70.000
G1 X208.000 Y70.000
G1 X209.000 Y70.000
G1 X210.000 Y70.000
G1 X211.000 Y70.000
G0 Z4.600 F3000
M400
M204 P12000 T12000
G1 F12000
G0 X213.000 Y72.000 Z4.600
M400
M204 P200 T200
G1 F400
G1 Z0.000 F2500
G1 X212.000 Y72.000
G1 X211.000 Y72.000
G1 X210.000 Y72.000
G1 X209.000 Y72.000
G1 X208.000 Y72.000
G1 X207.000 Y72.000
G1 X206.000 Y72.000
G1 X205.000 Y72.000
G1 X204.000 Y72.000
G1 X203.000 Y72.000
G1 X202.000 Y72.000
G1 X201.000 Y72.000
G1 X200.000 Y72.000
G1 X199.000 Y72.000
G1 X198.000 Y72.000
G1 X197.000 Y72.000
G1 X196.000 Y72.000
G1 X195.000 Y72.000
G1 X194.000 Y72.000
G1 X193.000 Y72.000
G1 X192.000 Y72.000
G1 X191.000 Y72.000
G1 X190.000 Y72.000
G1 X189.000 Y72.000
G1 X188.000 Y72.000
G1 X187.000 Y72.000
G1 X186.000 Y72.000
G1 X185.000 Y72.000
G1 X184.000 Y72.000
G1 X183.000 Y72.000
G1 X182.000 Y72.000
G1 X181.000 Y72.000
G1 X180.000 Y72.000
G1 X179.000 Y72.000
G1 X178.000 Y72.000
G1 X177.000 Y72.000
G1 X176.000 Y72.000
G1 X175.000 Y72.000
G1 X174.000 Y72.000
G1 X173.000 Y72.000
G1 X172.000 Y72.000
G1 X171.000 Y72.000
G1 X170.000 Y72.000
G1 X169.000 Y72.000
G1 X168.000 Y72.000
G1 X167.000 Y72.000
G1 X166.000 Y72.000
G1 X165.000 Y72.000
G1 X164.000 Y72.000
G1 X163.000 Y72.000
G1 X162.000 Y72.000
G1 X161.000 Y72.000
G1 X160.000 Y72.000
G1 X159.000 Y72.000
G1 X158.000 Y72.000
G1 X157.000 Y72.000
G1 X156.000 Y72.000
G1 X155.000 Y72.000
G1 X154.000 Y72.000
G1 X153.000 Y72.000
G1 X152.000 Y72.000
G1 X151.000 Y72.000
G1 X150.000 Y72.000
G1 X149.000 Y72.000
G1 X148.000 Y72.000
G1 X147.000 Y72.000
G1 X146.000 Y72.000
G1 X145.000 Y72.000
G1 X144.000 Y72.000
G1 X143.000 Y72.000
G1 X142.000 Y72.000
G1 X141.000 Y72.000
G1 X140.000 Y72.000
G1 X139.000 Y72.000
G1 X138.000 Y72.000
G1 X137.000 Y72.000
G1 X136.000 Y72.000
G1 X135.000 Y72.000
G1 X134.000 Y72.000
G1 X133.000 Y72.000
G1 X132.000 Y72.000
G1 X131.000 Y72.000
G1 X130.000 Y72.000
G1 X129.000 Y72.000
G1 X128.000 Y72.000
G1 X127.000 Y72.000
G1 X126.000 Y72.000
G1 X125.000 Y72.000
G1 X124.000 Y72.000
G1 X123.000 Y72.000
G1 X122.000 Y72.000
G1 X121.000 Y72.000
G1 X120.000 Y72.000
G1 X119.000 Y72.000
G1 X118.000 Y72.000
G1 X117.000 Y72.000
G1 X116.000 Y72.000
G1 X115.000 Y72.000
G1 X114.000 Y72.000
G1 X113.000 Y72.000
G1 X112.000 Y72.000
G1 X111.000 Y72.000
G1 X110.000 Y72.000
G1 X109.000 Y72.000
G1 X108.000 Y72.000
G1 X107.000 Y72.000
G1 X106.000 Y72.000
G1 X105.000 Y72.000
G1 X104.000 Y72.000
G1 X103.000 Y72.000
G1 X102.000 Y72.000
G1 X101.000 Y72.000
G1 X100.000 Y72.000
G1 X99.000 Y72.000
G1 X98.000 Y72.000
G1 X97.000 Y72.000
G1 X96.000 Y72.000
G1 X95.000 Y72.000
G1 X94.000 Y72.000
G1 X93.000 Y72.000
G1 X92.000 Y72.000
G1 X91.000 Y72.000
G1 X90.000 Y72.000
G1 X89.000 Y72.000
G1 X88.000 Y72.000
G1 X87.000 Y72.000
G1 X86.000 Y72.000
G1 X85.000 Y72.000
G1 X84.000 Y72.000
G1 X83.000 Y72.000
G1 X82.000 Y72.000
G1 X81.000 Y72.000
G1 X80.000 Y72.000
G1 X79.000 Y72.000
G1 X78.000 Y72.000
G1 X77.000 Y72.000
G1 X76.000 Y72.000
G1 X75.000 Y72.000
G1 X74.000 Y72.000
G1 X73.000 Y72.000
G1 X72.000 Y72.000
G1 X71.000 Y72.000
G1 X70.000 Y72.000
G1 X69.000 Y72.000
G1 X68.000 Y72.000
G1 X67.000 Y72.000
G1 X66.000 Y72.000
G1 X65.000 Y72.000
G1 X64.000 Y72.000
G1 X63.000 Y72.000
G1 X62.000 Y72.000
G1 X61.000 Y72.000
G1 X60.000 Y72.000
G1 X59.000 Y72.000
G1 X58.000 Y72.000
G1 X57.000 Y72.000
G1 X56.000 Y72.000
G1 X55.000 Y72.000
G1 X54.000 Y72.000
G1 X53.000 Y72.000
G1 X52.000 Y72.000
G1 X51.000 Y72.000
G1 X50.000 Y72.000
G1 X49.000 Y72.000
G1 X48.000 Y72.000
G1 X47.000 Y72.000
G1 X46.000 Y72.000
G0 Z4.600 F3000
M400
M204 P12000 T12000
G1 F12000
G0 X44.000 Y74.000 Z4.600
M400
M204 P200 T200
G1 F400
G1 Z0.000 F2500
G1 X45.000 Y74.000
G1 X46.000 Y74.000
G1 X47.000 Y74.000
G1 X48.000 Y74.000
G1 X49.000 Y74.000
G1 X50.000 Y74.000
G1 X51.000 Y74.000
G1 X52.000 Y74.000
G1 X53.000 Y74.000
G1 X54.000 Y74.000
G1 X55.000 Y74.000
G1 X56.000 Y74.000
G1 X57.000 Y74.000
G1 X58.000 Y74.000
G1 X59.000 Y74.000
G1 X60.000 Y74.000
G1 X61.000 Y74.000
G1 X62.000 Y74.000
G1 X63.000 Y74.000
G1 X64.000 Y74.000
G1 X65.000 Y74.000
G0 Z4.600 F3000

; --- CIKEL NAMAKANJA ---
G0 Z4.600 F3000
M400
M204 P12000 T12000
G1 F12000
G0 X16.490 Y4.649 Z31.000
G1 Z0.000 F3000
G1 X16.490 Y4.649 F2500
G1 X16.490 Y7.149 F2500
G1 X11.490 Y4.649 F2500
G1 X16.490 Y-2.851 F2500
G0 Z16.000 F3000
G0 X9.984 Y11.194
G0 Z31.000 F3000
G0 X66.000 Y74.000 Z4.600
M400
M204 P200 T200
G1 F400
G1 Z0.000 F2500
G1 X66.000 Y74.000
G1 X67.000 Y74.000
G1 X68.000 Y74.000
G1 X69.000 Y74.000
G1 X70.000 Y74.000
G1 X71.000 Y74.000
G1 X72.000 Y74.000
G1 X73.000 Y74.000
G1 X74.000 Y74.000
G1 X75.000 Y74.000
G1 X76.000 Y74.000
G1 X77.000 Y74.000
G1 X78.000 Y74.000
G1 X79.000 Y74.000
G1 X80.000 Y74.000
G1 X81.000 Y74.000
G1 X82.000 Y74.000
G1 X83.000 Y74.000
G1 X84.000 Y74.000
G1 X85.000 Y74.000
G1 X86.000 Y74.000
G1 X87.000 Y74.000
G1 X88.000 Y74.000
G1 X89.000 Y74.000
G1 X90.000 Y74.000
G1 X91.000 Y74.000
G1 X92.000 Y74.000
G1 X93.000 Y74.000
G1 X94.000 Y74.000
G1 X95.000 Y74.000
G1 X96.000 Y74.000
G1 X97.000 Y74.000
G1 X98.000 Y74.000
G1 X99.000 Y74.000
G1 X100.000 Y74.000
G1 X101.000 Y74.000
G1 X102.000 Y74.000
G1 X103.000 Y74.000
G1 X104.000 Y74.000
G1 X105.000 Y74.000
G1 X106.000 Y74.000
G1 X107.000 Y74.000
G1 X108.000 Y74.000
G1 X109.000 Y74.000
G1 X110.000 Y74.000
G1 X111.000 Y74.000
G1 X112.000 Y74.000
G1 X113.000 Y74.000
G1 X114.000 Y74.000
G1 X115.000 Y74.000
G1 X116.000 Y74.000
G1 X117.000 Y74.000
G1 X118.000 Y74.000
G1 X119.000 Y74.000
G1 X120.000 Y74.000
G1 X121.000 Y74.000
G1 X122.000 Y74.000
G1 X123.000 Y74.000
G1 X124.000 Y74.000
G1 X125.000 Y74.000
G1 X126.000 Y74.000
G1 X127.000 Y74.000
G1 X128.000 Y74.000
G1 X129.000 Y74.000
G1 X130.000 Y74.000
G1 X131.000 Y74.000
G1 X132.000 Y74.000
G1 X133.000 Y74.000
G1 X134.000 Y74.000
G1 X135.000 Y74.000
G1 X136.000 Y74.000
G1 X137.000 Y74.000
G1 X138.000 Y74.000
G1 X139.000 Y74.000
G1 X140.000 Y74.000
G1 X141.000 Y74.000
G1 X142.000 Y74.000
G1 X143.000 Y74.000
G1 X144.000 Y74.000
G1 X145.000 Y74.000
G1 X146.000 Y74.000
G1 X147.000 Y74.000
G1 X148.000 Y74.000
G1 X149.000 Y74.000
G1 X150.000 Y74.000
G1 X151.000 Y74.000
G1 X152.000 Y74.000
G1 X153.000 Y74.000
G1 X154.000 Y74.000
G1 X155.000 Y74.000
G1 X156.000 Y74.000
G1 X157.000 Y74.000
G1 X158.000 Y74.000
G1 X159.000 Y74.000
G1 X160.000 Y74.000
G1 X161.000 Y74.000
G1 X162.000 Y74.000
G1 X163.000 Y74.000
G1 X164.000 Y74.000
G1 X165.000 Y74.000
G1 X166.000 Y74.000
G1 X167.000 Y74.000
G1 X168.000 Y74.000
G1 X169.000 Y74.000
G1 X170.000 Y74.000
G1 X171.000 Y74.000
G1 X172.000 Y74.000
G1 X173.000 Y74.000
G1 X174.000 Y74.000
G1 X175.000 Y74.000
G1 X176.000 Y74.000
G1 X177.000 Y74.000
G1 X178.000 Y74.000
G1 X179.000 Y74.000
G1 X180.000 Y74.000
G1 X181.000 Y74.000
G1 X182.000 Y74.000
G1 X183.000 Y74.000
G1 X184.000 Y74.000
G1 X185.000 Y74.000
G1 X186.000 Y74.000
G1 X187.000 Y74.000
G1 X188.000 Y74.000
G1 X189.000 Y74.000
G1 X190.000 Y74.000
G1 X191.000 Y74.000
G1 X192.000 Y74.000
G1 X193.000 Y74.000
G1 X194.000 Y74.000
G1 X195.000 Y74.000
G1 X196.000 Y74.000
G1 X197.000 Y74.000
G1 X198.000 Y74.000
G1 X199.000 Y74.000
G1 X200.000 Y74.000
G1 X201.000 Y74.000
G1 X202.000 Y74.000
G1 X203.000 Y74.000
G1 X204.000 Y74.000
G1 X205.000 Y74.000
G1 X206.000 Y74.000
G1 X207.000 Y74.000
G1 X208.000 Y74.000
G1 X209.000 Y74.000
G1 X210.000 Y74.000
G1 X211.000 Y74.000
G1 X212.000 Y74.000
G1 X213.000 Y74.000
G1 X214.000 Y74.000
G0 Z4.600 F3000
M400
M204 P12000 T12000
G1 F12000
G0 X215.000 Y76.000 Z4.600
M400
M204 P200 T200
G1 F400
G1 Z0.000 F2500
G1 X214.000 Y76.000
G1 X213.000 Y76.000
G1 X212.000 Y76.000
G1 X211.000 Y76.000
G1 X210.000 Y76.000
G1 X209.000 Y76.000
G1 X208.000 Y76.000
G1 X207.000 Y76.000
G1 X206.000 Y76.000
G1 X205.000 Y76.000
G1 X204.000 Y76.000
G1 X203.000 Y76.000
G1 X202.000 Y76.000
G1 X201.000 Y76.000
G1 X200.000 Y76.000
G1 X199.000 Y76.000
G1 X198.000 Y76.000
G1 X197.000 Y76.000
G1 X196.000 Y76.000
G1 X195.000 Y76.000
G1 X194.000 Y76.000
G1 X193.000 Y76.000
G1 X192.000 Y76.000
G1 X191.000 Y76.000
G1 X190.000 Y76.000
G1 X189.000 Y76.000
G1 X188.000 Y76.000
G1 X187.000 Y76.000
G1 X186.000 Y76.000
G1 X185.000 Y76.000
G1 X184.000 Y76.000
G1 X183.000 Y76.000
G1 X182.000 Y76.000
G1 X181.000 Y76.000
G1 X180.000 Y76.000
G1 X179.000 Y76.000
G1 X178.000 Y76.000
G1 X177.000 Y76.000
G1 X176.000 Y76.000
G1 X175.000 Y76.000
G1 X174.000 Y76.000
G1 X173.000 Y76.000
G1 X172.000 Y76.000
G1 X171.000 Y76.000
G1 X170.000 Y76.000
G1 X169.000 Y76.000
G1 X168.000 Y76.000
G1 X167.000 Y76.000
G1 X166.000 Y76.000
G1 X165.000 Y76.000
G1 X164.000 Y76.000
G1 X163.000 Y76.000
G1 X162.000 Y76.000
G1 X161.000 Y76.000
G1 X160.000 Y76.000
G1 X159.000 Y76.000
G1 X158.000 Y76.000
G1 X157.000 Y76.000
G1 X156.000 Y76.000
G1 X155.000 Y76.000
G1 X154.000 Y76.000
G1 X153.000 Y76.000
G1 X152.000 Y76.000
G1 X151.000 Y76.000
G1 X150.000 Y76.000
G1 X149.000 Y76.000
G1 X148.000 Y76.000
G1 X147.000 Y76.000
G1 X146.000 Y76.000
G1 X145.000 Y76.000
G1 X144.000 Y76.000
G1 X143.000 Y76.000
G1 X142.000 Y76.000
G1 X141.000 Y76.000
G1 X140.000 Y76.000
G1 X139.000 Y76.000
G1 X138.000 Y76.000
G1 X137.000 Y76.000
G1 X136.000 Y76.000
G1 X135.000 Y76.000
G1 X134.000 Y76.000
G1 X133.000 Y76.000
G1 X132.000 Y76.000
G1 X131.000 Y76.000
G1 X130.000 Y76.000
G1 X129.000 Y76.000
G1 X128.000 Y76.000
G1 X127.000 Y76.000
G1 X126.000 Y76.000
G1 X125.000 Y76.000
G1 X124.000 Y76.000
G1 X123.000 Y76.000
G1 X122.000 Y76.000
G1 X121.000 Y76.000
G1 X120.000 Y76.000
G1 X119.000 Y76.000
G1 X118.000 Y76.000
G1 X117.000 Y76.000
G1 X116.000 Y76.000
G1 X115.000 Y76.000
G1 X114.000 Y76.000
G1 X113.000 Y76.000
G1 X112.000 Y76.000
G1 X111.000 Y76.000
G1 X110.000 Y76.000
G1 X109.000 Y76.000
G1 X108.000 Y76.000
G1 X107.000 Y76.000
G1 X106.000 Y76.000
G1 X105.000 Y76.000
G1 X104.000 Y76.000
G1 X103.000 Y76.000
G1 X102.000 Y76.000
G1 X101.000 Y76.000
G1 X100.000 Y76.000
G1 X99.000 Y76.000
G1 X98.000 Y76.000
G1 X97.000 Y76.000
G1 X96.000 Y76.000
G1 X95.000 Y76.000
G1 X94.000 Y76.000
G1 X93.000 Y76.000
G1 X92.000 Y76.000
G1 X91.000 Y76.000
G1 X90.000 Y76.000
G1 X89.000 Y76.000
G1 X88.000 Y76.000
G1 X87.000 Y76.000
G0 Z4.600 F3000

; --- CIKEL NAMAKANJA ---
G0 Z4.600 F3000
M400
M204 P12000 T12000
G1 F12000
G0 X8.904 Y18.773 Z31.000
G1 Z0.000 F3000
G1 X8.904 Y18.773 F2500
G1 X8.904 Y21.273 F2500
G1 X3.904 Y18.773 F2500
G1 X8.904 Y11.273 F2500
G0 Z16.000 F3000
G0 X11.240 Y9.933
G0 Z31.000 F3000
G0 X86.000 Y76.000 Z4.600
M400
M204 P200 T200
G1 F400
G1 Z0.000 F2500
G1 X86.000 Y76.000
G1 X85.000 Y76.000
G1 X84.000 Y76.000
G1 X83.000 Y76.000
G1 X82.000 Y76.000
G1 X81.000 Y76.000
G1 X80.000 Y76.000
G1 X79.000 Y76.000
G1 X78.000 Y76.000
G1 X77.000 Y76.000
G1 X76.000 Y76.000
G1 X75.000 Y76.000
G1 X74.000 Y76.000
G1 X73.000 Y76.000
G1 X72.000 Y76.000
G1 X71.000 Y76.000
G1 X70.000 Y76.000
G1 X69.000 Y76.000
G1 X68.000 Y76.000
G1 X67.000 Y76.000
G1 X66.000 Y76.000
G1 X65.000 Y76.000
G1 X64.000 Y76.000
G1 X63.000 Y76.000
G1 X62.000 Y76.000
G1 X61.000 Y76.000
G1 X60.000 Y76.000
G1 X59.000 Y76.000
G1 X58.000 Y76.000
G1 X57.000 Y76.000
G1 X56.000 Y76.000
G1 X55.000 Y76.000
G1 X54.000 Y76.000
G1 X53.000 Y76.000
G1 X52.000 Y76.000
G1 X51.000 Y76.000
G1 X50.000 Y76.000
G1 X49.000 Y76.000
G1 X48.000 Y76.000
G1 X47.000 Y76.000
G1 X46.000 Y76.000
G1 X45.000 Y76.000
G1 X44.000 Y76.000
G0 Z4.600 F3000
M400
M204 P12000 T12000
G1 F12000
G0 X43.000 Y78.000 Z4.600
M400
M204 P200 T200
G1 F400
G1 Z0.000 F2500
G1 X44.000 Y78.000
G1 X45.000 Y78.000
G1 X46.000 Y78.000
G1 X47.000 Y78.000
G1 X48.000 Y78.000
G1 X49.000 Y78.000
G1 X50.000 Y78.000
G1 X51.000 Y78.000
G1 X52.000 Y78.000
G1 X53.000 Y78.000
G1 X54.000 Y78.000
G1 X55.000 Y78.000
G1 X56.000 Y78.000
G1 X57.000 Y78.000
G1 X58.000 Y78.000
G1 X59.000 Y78.000
G1 X60.000 Y78.000
G1 X61.000 Y78.000
G1 X62.000 Y78.000
G1 X63.000 Y78.000
G1 X64.000 Y78.000
G1 X65.000 Y78.000
G1 X66.000 Y78.000
G1 X67.000 Y78.000
G1 X68.000 Y78.000
G1 X69.000 Y78.000
G1 X70.000 Y78.000
G1 X71.000 Y78.000
G1 X72.000 Y78.000
G1 X73.000 Y78.000
G1 X74.000 Y78.000
G1 X75.000 Y78.000
G1 X76.000 Y78.000
G1 X77.000 Y78.000
G1 X78.000 Y78.000
G1 X79.000 Y78.000
G1 X80.000 Y78.000
G1 X81.000 Y78.000
G1 X82.000 Y78.000
G1 X83.000 Y78.000
G1 X84.000 Y78.000
G1 X85.000 Y78.000
G1 X86.000 Y78.000
G1 X87.000 Y78.000
G1 X88.000 Y78.000
G1 X89.000 Y78.000
G1 X90.000 Y78.000
G1 X91.000 Y78.000
G1 X92.000 Y78.000
G1 X93.000 Y78.000
G1 X94.000 Y78.000
G1 X95.000 Y78.000
G1 X96.000 Y78.000
G1 X97.000 Y78.000
G1 X98.000 Y78.000
G1 X99.000 Y78.000
G1 X100.000 Y78.000
G1 X101.000 Y78.000
G1 X102.000 Y78.000
G1 X103.000 Y78.000
G1 X104.000 Y78.000
G1 X105.000 Y78.000
G1 X106.000 Y78.000
G1 X107.000 Y78.000
G1 X108.000 Y78.000
G1 X109.000 Y78.000
G1 X110.000 Y78.000
G1 X111.000 Y78.000
G1 X112.000 Y78.000
G1 X113.000 Y78.000
G1 X114.000 Y78.000
G1 X115.000 Y78.000
G1 X116.000 Y78.000
G1 X117.000 Y78.000
G1 X118.000 Y78.000
G1 X119.000 Y78.000
G1 X120.000 Y78.000
G1 X121.000 Y78.000
G1 X122.000 Y78.000
G1 X123.000 Y78.000
G1 X124.000 Y78.000
G1 X125.000 Y78.000
G1 X126.000 Y78.000
G1 X127.000 Y78.000
G1 X128.000 Y78.000
G1 X129.000 Y78.000
G1 X130.000 Y78.000
G1 X131.000 Y78.000
G1 X132.000 Y78.000
G1 X133.000 Y78.000
G1 X134.000 Y78.000
G1 X135.000 Y78.000
G1 X136.000 Y78.000
G1 X137.000 Y78.000
G1 X138.000 Y78.000
G1 X139.000 Y78.000
G1 X140.000 Y78.000
G1 X141.000 Y78.000
G1 X142.000 Y78.000
G1 X143.000 Y78.000
G1 X144.000 Y78.000
G1 X145.000 Y78.000
G1 X146.000 Y78.000
G1 X147.000 Y78.000
G1 X148.000 Y78.000
G1 X149.000 Y78.000
G1 X150.000 Y78.000
G1 X151.000 Y78.000
G1 X152.000 Y78.000
G1 X153.000 Y78.000
G1 X154.000 Y78.000
G1 X155.000 Y78.000
G1 X156.000 Y78.000
G1 X157.000 Y78.000
G1 X158.000 Y78.000
G1 X159.000 Y78.000
G1 X160.000 Y78.000
G1 X161.000 Y78.000
G1 X162.000 Y78.000
G1 X163.000 Y78.000
G1 X164.000 Y78.000
G1 X165.000 Y78.000
G1 X166.000 Y78.000
G1 X167.000 Y78.000
G1 X168.000 Y78.000
G1 X169.000 Y78.000
G1 X170.000 Y78.000
G1 X171.000 Y78.000
G1 X172.000 Y78.000
G1 X173.000 Y78.000
G1 X174.000 Y78.000
G1 X175.000 Y78.000
G1 X176.000 Y78.000
G1 X177.000 Y78.000
G1 X178.000 Y78.000
G1 X179.000 Y78.000
G1 X180.000 Y78.000
G1 X181.000 Y78.000
G1 X182.000 Y78.000
G1 X183.000 Y78.000
G1 X184.000 Y78.000
G1 X185.000 Y78.000
G1 X186.000 Y78.000
G1 X187.000 Y78.000
G1 X188.000 Y78.000
G1 X189.000 Y78.000
G1 X190.000 Y78.000
G1 X191.000 Y78.000
G1 X192.000 Y78.000
G1 X193.000 Y78.000
G1 X194.000 Y78.000
G1 X195.000 Y78.000
G1 X196.000 Y78.000
G1 X197.000 Y78.000
G1 X198.000 Y78.000
G1 X199.000 Y78.000
G1 X200.000 Y78.000
G1 X201.000 Y78.000
G1 X202.000 Y78.000
G1 X203.000 Y78.000
G1 X204.000 Y78.000
G1 X205.000 Y78.000
G1 X206.000 Y78.000
G1 X207.000 Y78.000
G1 X208.000 Y78.000
G1 X209.000 Y78.000
G1 X210.000 Y78.000
G1 X211.000 Y78.000
G1 X212.000 Y78.000
G1 X213.000 Y78.000
G1 X214.000 Y78.000
G1 X215.000 Y78.000
G1 X216.000 Y78.000
G0 Z4.600 F3000
M400
M204 P12000 T12000
G1 F12000
G0 X217.000 Y80.000 Z4.600
M400
M204 P200 T200
G1 F400
G1 Z0.000 F2500
G1 X216.000 Y80.000
G1 X215.000 Y80.000
G1 X214.000 Y80.000
G1 X213.000 Y80.000
G1 X212.000 Y80.000
G1 X211.000 Y80.000
G1 X210.000 Y80.000
G1 X209.000 Y80.000
G1 X208.000 Y80.000
G1 X207.000 Y80.000
G1 X206.000 Y80.000
G1 X205.000 Y80.000
G1 X204.000 Y80.000
G1 X203.000 Y80.000
G1 X202.000 Y80.000
G1 X201.000 Y80.000
G1 X200.000 Y80.000
G1 X199.000 Y80.000
G1 X198.000 Y80.000
G1 X197.000 Y80.000
G1 X196.000 Y80.000
G1 X195.000 Y80.000
G1 X194.000 Y80.000
G1 X193.000 Y80.000
G1 X192.000 Y80.000
G1 X191.000 Y80.000
G1 X190.000 Y80.000
G1 X189.000 Y80.000
G1 X188.000 Y80.000
G1 X187.000 Y80.000
G1 X186.000 Y80.000
G1 X185.000 Y80.000
G1 X184.000 Y80.000
G1 X183.000 Y80.000
G1 X182.000 Y80.000
G1 X181.000 Y80.000
G1 X180.000 Y80.000
G1 X179.000 Y80.000
G1 X178.000 Y80.000
G0 Z4.600 F3000

; --- CIKEL NAMAKANJA ---
G0 Z4.600 F3000
M400
M204 P12000 T12000
G1 F12000
G0 X17.455 Y-0.973 Z31.000
G1 Z0.000 F3000
G1 X17.455 Y-0.973 F2500
G1 X17.455 Y1.527 F2500
G1 X12.455 Y-0.973 F2500
G1 X17.455 Y-8.473 F2500
G0 Z16.000 F3000
G0 X13.669 Y6.178
G0 Z31.000 F3000
G0 X177.000 Y80.000 Z4.600
M400
M204 P200 T200
G1 F400
G1 Z0.000 F2500
G1 X177.000 Y80.000
G1 X176.000 Y80.000
G1 X175.000 Y80.000
G1 X174.000 Y80.000
G1 X173.000 Y80.000
G1 X172.000 Y80.000
G1 X171.000 Y80.000
G1 X170.000 Y80.000
G1 X169.000 Y80.000
G1 X168.000 Y80.000
G1 X167.000 Y80.000
G1 X166.000 Y80.000
G1 X165.000 Y80.000
G1 X164.000 Y80.000
G1 X163.000 Y80.000
G1 X162.000 Y80.000
G1 X161.000 Y80.000
G1 X160.000 Y80.000
G1 X159.000 Y80.000
G1 X158.000 Y80.000
G1 X157.000 Y80.000
G1 X156.000 Y80.000
G1 X155.000 Y80.000
G1 X154.000 Y80.000
G1 X153.000 Y80.000
G1 X152.000 Y80.000
G1 X151.000 Y80.000
G1 X150.000 Y80.000
G1 X149.000 Y80.000
G1 X148.000 Y80.000
G1 X147.000 Y80.000
G1 X146.000 Y80.000
G1 X145.000 Y80.000
G1 X144.000 Y80.000
G1 X143.000 Y80.000
G1 X142.000 Y80.000
G1 X141.000 Y80.000
G1 X140.000 Y80.000
G1 X139.000 Y80.000
G1 X138.000 Y80.000
G1 X137.000 Y80.000
G1 X136.000 Y80.000
G1 X135.000 Y80.000
G1 X134.000 Y80.000
G1 X133.000 Y80.000
G1 X132.000 Y80.000
G1 X131.000 Y80.000
G1 X130.000 Y80.000
G1 X129.000 Y80.000
G1 X128.000 Y80.000
G1 X127.000 Y80.000
G1 X126.000 Y80.000
G1 X125.000 Y80.000
G1 X124.000 Y80.000
G1 X123.000 Y80.000
G1 X122.000 Y80.000
G1 X121.000 Y80.000
G1 X120.000 Y80.000
G1 X119.000 Y80.000
G1 X118.000 Y80.000
G1 X117.000 Y80.000
G1 X116.000 Y80.000
G1 X115.000 Y80.000
G1 X114.000 Y80.000
G1 X113.000 Y80.000
G1 X112.000 Y80.000
G1 X111.000 Y80.000
G1 X110.000 Y80.000
G1 X109.000 Y80.000
G1 X108.000 Y80.000
G1 X107.000 Y80.000
G1 X106.000 Y80.000
G1 X105.000 Y80.000
G1 X104.000 Y80.000
G1 X103.000 Y80.000
G1 X102.000 Y80.000
G1 X101.000 Y80.000
G1 X100.000 Y80.000
G1 X99.000 Y80.000
G1 X98.000 Y80.000
G1 X97.000 Y80.000
G1 X96.000 Y80.000
G1 X95.000 Y80.000
G1 X94.000 Y80.000
G1 X93.000 Y80.000
G1 X92.000 Y80.000
G1 X91.000 Y80.000
G1 X90.000 Y80.000
G1 X89.000 Y80.000
G1 X88.000 Y80.000
G1 X87.000 Y80.000
G1 X86.000 Y80.000
G1 X85.000 Y80.000
G1 X84.000 Y80.000
G1 X83.000 Y80.000
G1 X82.000 Y80.000
G1 X81.000 Y80.000
G1 X80.000 Y80.000
G1 X79.000 Y80.000
G1 X78.000 Y80.000
G1 X77.000 Y80.000
G1 X76.000 Y80.000
G1 X75.000 Y80.000
G1 X74.000 Y80.000
G1 X73.000 Y80.000
G1 X72.000 Y80.000
G1 X71.000 Y80.000
G1 X70.000 Y80.000
G1 X69.000 Y80.000
G1 X68.000 Y80.000
G1 X67.000 Y80.000
G1 X66.000 Y80.000
G1 X65.000 Y80.000
G1 X64.000 Y80.000
G1 X63.000 Y80.000
G1 X62.000 Y80.000
G1 X61.000 Y80.000
G1 X60.000 Y80.000
G1 X59.000 Y80.000
G1 X58.000 Y80.000
G1 X57.000 Y80.000
G1 X56.000 Y80.000
G1 X55.000 Y80.000
G1 X54.000 Y80.000
G1 X53.000 Y80.000
G1 X52.000 Y80.000
G1 X51.000 Y80.000
G1 X50.000 Y80.000
G1 X49.000 Y80.000
G1 X48.000 Y80.000
G1 X47.000 Y80.000
G1 X46.000 Y80.000
G1 X45.000 Y80.000
G1 X44.000 Y80.000
G1 X43.000 Y80.000
G1 X42.000 Y80.000
G0 Z4.600 F3000
M400
M204 P12000 T12000
G1 F12000
G0 X41.000 Y82.000 Z4.600
M400
M204 P200 T200
G1 F400
G1 Z0.000 F2500
G1 X42.000 Y82.000
G1 X43.000 Y82.000
G1 X44.000 Y82.000
G1 X45.000 Y82.000
G1 X46.000 Y82.000
G1 X47.000 Y82.000
G1 X48.000 Y82.000
G1 X49.000 Y82.000
G1 X50.000 Y82.000
G1 X51.000 Y82.000
G1 X52.000 Y82.000
G1 X53.000 Y82.000
G1 X54.000 Y82.000
G1 X55.000 Y82.000
G1 X56.000 Y82.000
G1 X57.000 Y82.000
G1 X58.000 Y82.000
G1 X59.000 Y82.000
G1 X60.000 Y82.000
G1 X61.000 Y82.000
G1 X62.000 Y82.000
G1 X63.000 Y82.000
G1 X64.000 Y82.000
G1 X65.000 Y82.000
G1 X66.000 Y82.000
G1 X67.000 Y82.000
G1 X68.000 Y82.000
G1 X69.000 Y82.000
G1 X70.000 Y82.000
G1 X71.000 Y82.000
G1 X72.000 Y82.000
G1 X73.000 Y82.000
G1 X74.000 Y82.000
G1 X75.000 Y82.000
G1 X76.000 Y82.000
G1 X77.000 Y82.000
G1 X78.000 Y82.000
G1 X79.000 Y82.000
G1 X80.000 Y82.000
G1 X81.000 Y82.000
G1 X82.000 Y82.000
G1 X83.000 Y82.000
G1 X84.000 Y82.000
G1 X85.000 Y82.000
G1 X86.000 Y82.000
G1 X87.000 Y82.000
G1 X88.000 Y82.000
G1 X89.000 Y82.000
G1 X90.000 Y82.000
G1 X91.000 Y82.000
G1 X92.000 Y82.000
G1 X93.000 Y82.000
G1 X94.000 Y82.000
G1 X95.000 Y82.000
G1 X96.000 Y82.000
G1 X97.000 Y82.000
G1 X98.000 Y82.000
G1 X99.000 Y82.000
G1 X100.000 Y82.000
G1 X101.000 Y82.000
G1 X102.000 Y82.000
G1 X103.000 Y82.000
G1 X104.000 Y82.000
G1 X105.000 Y82.000
G1 X106.000 Y82.000
G1 X107.000 Y82.000
G1 X108.000 Y82.000
G1 X109.000 Y82.000
G1 X110.000 Y82.000
G1 X111.000 Y82.000
G1 X112.000 Y82.000
G1 X113.000 Y82.000
G1 X114.000 Y82.000
G1 X115.000 Y82.000
G1 X116.000 Y82.000
G1 X117.000 Y82.000
G1 X118.000 Y82.000
G1 X119.000 Y82.000
G1 X120.000 Y82.000
G1 X121.000 Y82.000
G1 X122.000 Y82.000
G1 X123.000 Y82.000
G1 X124.000 Y82.000
G1 X125.000 Y82.000
G1 X126.000 Y82.000
G1 X127.000 Y82.000
G1 X128.000 Y82.000
G1 X129.000 Y82.000
G1 X130.000 Y82.000
G1 X131.000 Y82.000
G1 X132.000 Y82.000
G1 X133.000 Y82.000
G1 X134.000 Y82.000
G1 X135.000 Y82.000
G1 X136.000 Y82.000
G1 X137.000 Y82.000
G1 X138.000 Y82.000
G1 X139.000 Y82.000
G1 X140.000 Y82.000
G1 X141.000 Y82.000
G1 X142.000 Y82.000
G1 X143.000 Y82.000
G1 X144.000 Y82.000
G1 X145.000 Y82.000
G1 X146.000 Y82.000
G1 X147.000 Y82.000
G1 X148.000 Y82.000
G1 X149.000 Y82.000
G1 X150.000 Y82.000
G1 X151.000 Y82.000
G1 X152.000 Y82.000
G1 X153.000 Y82.000
G1 X154.000 Y82.000
G1 X155.000 Y82.000
G1 X156.000 Y82.000
G1 X157.000 Y82.000
G1 X158.000 Y82.000
G1 X159.000 Y82.000
G1 X160.000 Y82.000
G1 X161.000 Y82.000
G1 X162.000 Y82.000
G1 X163.000 Y82.000
G1 X164.000 Y82.000
G1 X165.000 Y82.000
G1 X166.000 Y82.000
G1 X167.000 Y82.000
G1 X168.000 Y82.000
G1 X169.000 Y82.000
G1 X170.000 Y82.000
G1 X171.000 Y82.000
G1 X172.000 Y82.000
G1 X173.000 Y82.000
G1 X174.000 Y82.000
G1 X175.000 Y82.000
G1 X176.000 Y82.000
G1 X177.000 Y82.000
G1 X178.000 Y82.000
G1 X179.000 Y82.000
G1 X180.000 Y82.000
G0 Z4.600 F3000

; --- CIKEL NAMAKANJA ---
G0 Z4.600 F3000
M400
M204 P12000 T12000
G1 F12000
G0 X-13.239 Y1.462 Z31.000
G1 Z0.000 F3000
G1 X-13.239 Y1.462 F2500
G1 X-13.239 Y3.962 F2500
G1 X-18.239 Y1.462 F2500
G1 X-13.239 Y-6.038 F2500
G0 Z16.000 F3000
G0 X13.663 Y6.190
G0 Z31.000 F3000
G0 X181.000 Y82.000 Z4.600
M400
M204 P200 T200
G1 F400
G1 Z0.000 F2500
G1 X181.000 Y82.000
G1 X182.000 Y82.000
G1 X183.000 Y82.000
G1 X184.000 Y82.000
G1 X185.000 Y82.000
G1 X186.000 Y82.000
G1 X187.000 Y82.000
G1 X188.000 Y82.000
G1 X189.000 Y82.000
G1 X190.000 Y82.000
G1 X191.000 Y82.000
G1 X192.000 Y82.000
G1 X193.000 Y82.000
G1 X194.000 Y82.000
G1 X195.000 Y82.000
G1 X196.000 Y82.000
G1 X197.000 Y82.000
G1 X198.000 Y82.000
G1 X199.000 Y82.000
G1 X200.000 Y82.000
G1 X201.000 Y82.000
G1 X202.000 Y82.000
G1 X203.000 Y82.000
G1 X204.000 Y82.000
G1 X205.000 Y82.000
G1 X206.000 Y82.000
G1 X207.000 Y82.000
G1 X208.000 Y82.000
G1 X209.000 Y82.000
G1 X210.000 Y82.000
G1 X211.000 Y82.000
G1 X212.000 Y82.000
G1 X213.000 Y82.000
G1 X214.000 Y82.000
G1 X215.000 Y82.000
G1 X216.000 Y82.000
G1 X217.000 Y82.000
G1 X218.000 Y82.000
G0 Z4.600 F3000
M400
M204 P12000 T12000
G1 F12000
G0 X219.000 Y84.000 Z4.600
M400
M204 P200 T200
G1 F400
G1 Z0.000 F2500
G1 X218.000 Y84.000
G1 X217.000 Y84.000
G1 X216.000 Y84.000
G1 X215.000 Y84.000
G1 X214.000 Y84.000
G1 X213.000 Y84.000
G1 X212.000 Y84.000
G1 X211.000 Y84.000
G1 X210.000 Y84.000
G1 X209.000 Y84.000
G1 X208.000 Y84.000
G1 X207.000 Y84.000
G1 X206.000 Y84.000
G1 X205.000 Y84.000
G1 X204.000 Y84.000
G1 X203.000 Y84.000
G1 X202.000 Y84.000
G1 X201.000 Y84.000
G1 X200.000 Y84.000
G1 X199.000 Y84.000
G1 X198.000 Y84.000
G1 X197.000 Y84.000
G1 X196.000 Y84.000
G1 X195.000 Y84.000
G1 X194.000 Y84.000
G1 X193.000 Y84.000
G1 X192.000 Y84.000
G1 X191.000 Y84.000
G1 X190.000 Y84.000
G1 X189.000 Y84.000
G1 X188.000 Y84.000
G1 X187.000 Y84.000
G1 X186.000 Y84.000
G1 X185.000 Y84.000
G1 X184.000 Y84.000
G1 X183.000 Y84.000
G1 X182.000 Y84.000
G1 X181.000 Y84.000
G1 X180.000 Y84.000
G1 X179.000 Y84.000
G1 X178.000 Y84.000
G1 X177.000 Y84.000
G1 X176.000 Y84.000
G1 X175.000 Y84.000
G1 X174.000 Y84.000
G1 X173.000 Y84.000
G1 X172.000 Y84.000
G1 X171.000 Y84.000
G1 X170.000 Y84.000
G1 X169.000 Y84.000
G1 X168.000 Y84.000
G1 X167.000 Y84.000
G1 X166.000 Y84.000
G1 X165.000 Y84.000
G1 X164.000 Y84.000
G1 X163.000 Y84.000
G1 X162.000 Y84.000
G1 X161.000 Y84.000
G1 X160.000 Y84.000
G1 X159.000 Y84.000
G1 X158.000 Y84.000
G1 X157.000 Y84.000
G1 X156.000 Y84.000
G1 X155.000 Y84.000
G1 X154.000 Y84.000
G1 X153.000 Y84.000
G1 X152.000 Y84.000
G1 X151.000 Y84.000
G1 X150.000 Y84.000
G1 X149.000 Y84.000
G1 X148.000 Y84.000
G1 X147.000 Y84.000
G1 X146.000 Y84.000
G1 X145.000 Y84.000
G1 X144.000 Y84.000
G1 X143.000 Y84.000
G1 X142.000 Y84.000
G1 X141.000 Y84.000
G1 X140.000 Y84.000
G1 X139.000 Y84.000
G1 X138.000 Y84.000
G1 X137.000 Y84.000
G1 X136.000 Y84.000
G1 X135.000 Y84.000
G1 X134.000 Y84.000
G1 X133.000 Y84.000
G1 X132.000 Y84.000
G1 X131.000 Y84.000
G1 X130.000 Y84.000
G1 X129.000 Y84.000
G1 X128.000 Y84.000
G1 X127.000 Y84.000
G1 X126.000 Y84.000
G1 X125.000 Y84.000
G1 X124.000 Y84.000
G1 X123.000 Y84.000
G1 X122.000 Y84.000
G1 X121.000 Y84.000
G1 X120.000 Y84.000
G1 X119.000 Y84.000
G1 X118.000 Y84.000
G1 X117.000 Y84.000
G1 X116.000 Y84.000
G1 X115.000 Y84.000
G1 X114.000 Y84.000
G1 X113.000 Y84.000
G1 X112.000 Y84.000
G1 X111.000 Y84.000
G1 X110.000 Y84.000
G1 X109.000 Y84.000
G1 X108.000 Y84.000
G1 X107.000 Y84.000
G1 X106.000 Y84.000
G1 X105.000 Y84.000
G1 X104.000 Y84.000
G1 X103.000 Y84.000
G1 X102.000 Y84.000
G1 X101.000 Y84.000
G1 X100.000 Y84.000
G1 X99.000 Y84.000
G1 X98.000 Y84.000
G1 X97.000 Y84.000
G1 X96.000 Y84.000
G1 X95.000 Y84.000
G1 X94.000 Y84.000
G1 X93.000 Y84.000
G1 X92.000 Y84.000
G1 X91.000 Y84.000
G1 X90.000 Y84.000
G1 X89.000 Y84.000
G1 X88.000 Y84.000
G1 X87.000 Y84.000
G1 X86.000 Y84.000
G1 X85.000 Y84.000
G1 X84.000 Y84.000
G1 X83.000 Y84.000
G1 X82.000 Y84.000
G1 X81.000 Y84.000
G1 X80.000 Y84.000
G1 X79.000 Y84.000
G1 X78.000 Y84.000
G1 X77.000 Y84.000
G1 X76.000 Y84.000
G1 X75.000 Y84.000
G1 X74.000 Y84.000
G1 X73.000 Y84.000
G1 X72.000 Y84.000
G1 X71.000 Y84.000
G1 X70.000 Y84.000
G1 X69.000 Y84.000
G1 X68.000 Y84.000
G1 X67.000 Y84.000
G1 X66.000 Y84.000
G1 X65.000 Y84.000
G1 X64.000 Y84.000
G1 X63.000 Y84.000
G1 X62.000 Y84.000
G1 X61.000 Y84.000
G1 X60.000 Y84.000
G1 X59.000 Y84.000
G1 X58.000 Y84.000
G1 X57.000 Y84.000
G1 X56.000 Y84.000
G1 X55.000 Y84.000
G1 X54.000 Y84.000
G1 X53.000 Y84.000
G1 X52.000 Y84.000
G1 X51.000 Y84.000
G1 X50.000 Y84.000
G1 X49.000 Y84.000
G1 X48.000 Y84.000
G1 X47.000 Y84.000
G1 X46.000 Y84.000
G1 X45.000 Y84.000
G1 X44.000 Y84.000
G1 X43.000 Y84.000
G1 X42.000 Y84.000
G1 X41.000 Y84.000
G1 X40.000 Y84.000
G0 Z4.600 F3000
M400
M204 P12000 T12000
G1 F12000
G0 X39.000 Y86.000 Z4.600
M400
M204 P200 T200
G1 F400
G1 Z0.000 F2500
G1 X40.000 Y86.000
G1 X41.000 Y86.000
G1 X42.000 Y86.000
G1 X43.000 Y86.000
G1 X44.000 Y86.000
G1 X45.000 Y86.000
G1 X46.000 Y86.000
G1 X47.000 Y86.000
G1 X48.000 Y86.000
G1 X49.000 Y86.000
G1 X50.000 Y86.000
G1 X51.000 Y86.000
G1 X52.000 Y86.000
G1 X53.000 Y86.000
G1 X54.000 Y86.000
G1 X55.000 Y86.000
G1 X56.000 Y86.000
G1 X57.000 Y86.000
G1 X58.000 Y86.000
G1 X59.000 Y86.000
G1 X60.000 Y86.000
G1 X61.000 Y86.000
G1 X62.000 Y86.000
G1 X63.000 Y86.000
G1 X64.000 Y86.000
G1 X65.000 Y86.000
G1 X66.000 Y86.000
G1 X67.000 Y86.000
G1 X68.000 Y86.000
G1 X69.000 Y86.000
G1 X70.000 Y86.000
G1 X71.000 Y86.000
G1 X72.000 Y86.000
G1 X73.000 Y86.000
G1 X74.000 Y86.000
G1 X75.000 Y86.000
G1 X76.000 Y86.000
G1 X77.000 Y86.000
G1 X78.000 Y86.000
G1 X79.000 Y86.000
G1 X80.000 Y86.000
G1 X81.000 Y86.000
G1 X82.000 Y86.000
G1 X83.000 Y86.000
G1 X84.000 Y86.000
G0 Z4.600 F3000

; --- CIKEL NAMAKANJA ---
G0 Z4.600 F3000
M400
M204 P12000 T12000
G1 F12000
G0 X-0.402 Y10.708 Z31.000
G1 Z0.000 F3000
G1 X-0.402 Y10.708 F2500
G1 X-0.402 Y13.208 F2500
G1 X-5.402 Y10.708 F2500
G1 X-0.402 Y3.208 F2500
G0 Z16.000 F3000
G0 X10.544 Y10.668
G0 Z31.000 F3000
G0 X85.000 Y86.000 Z4.600
M400
M204 P200 T200
G1 F400
G1 Z0.000 F2500
G1 X85.000 Y86.000
G1 X86.000 Y86.000
G1 X87.000 Y86.000
G1 X88.000 Y86.000
G1 X89.000 Y86.000
G1 X90.000 Y86.000
G1 X91.000 Y86.000
G1 X92.000 Y86.000
G1 X93.000 Y86.000
G1 X94.000 Y86.000
G1 X95.000 Y86.000
G1 X96.000 Y86.000
G1 X97.000 Y86.000
G1 X98.000 Y86.000
G1 X99.000 Y86.000
G1 X100.000 Y86.000
G1 X101.000 Y86.000
G1 X102.000 Y86.000
G1 X103.000 Y86.000
G1 X104.000 Y86.000
G1 X105.000 Y86.000
G1 X106.000 Y86.000
G1 X107.000 Y86.000
G1 X108.000 Y86.000
G1 X109.000 Y86.000
G1 X110.000 Y86.000
G1 X111.000 Y86.000
G1 X112.000 Y86.000
G1 X113.000 Y86.000
G1 X114.000 Y86.000
G1 X115.000 Y86.000
G1 X116.000 Y86.000
G1 X117.000 Y86.000
G1 X118.000 Y86.000
G1 X119.000 Y86.000
G1 X120.000 Y86.000
G1 X121.000 Y86.000
G1 X122.000 Y86.000
G1 X123.000 Y86.000
G1 X124.000 Y86.000
G1 X125.000 Y86.000
G1 X126.000 Y86.000
G1 X127.000 Y86.000
G1 X128.000 Y86.000
G1 X129.000 Y86.000
G1 X130.000 Y86.000
G1 X131.000 Y86.000
G1 X132.000 Y86.000
G1 X133.000 Y86.000
G1 X134.000 Y86.000
G1 X135.000 Y86.000
G1 X136.000 Y86.000
G1 X137.000 Y86.000
G1 X138.000 Y86.000
G1 X139.000 Y86.000
G1 X140.000 Y86.000
G1 X141.000 Y86.000
G1 X142.000 Y86.000
G1 X143.000 Y86.000
G1 X144.000 Y86.000
G1 X145.000 Y86.000
G1 X146.000 Y86.000
G1 X147.000 Y86.000
G1 X148.000 Y86.000
G1 X149.000 Y86.000
G1 X150.000 Y86.000
G1 X151.000 Y86.000
G1 X152.000 Y86.000
G1 X153.000 Y86.000
G1 X154.000 Y86.000
G1 X155.000 Y86.000
G1 X156.000 Y86.000
G1 X157.000 Y86.000
G1 X158.000 Y86.000
G1 X159.000 Y86.000
G1 X160.000 Y86.000
G1 X161.000 Y86.000
G1 X162.000 Y86.000
G1 X163.000 Y86.000
G1 X164.000 Y86.000
G1 X165.000 Y86.000
G1 X166.000 Y86.000
G1 X167.000 Y86.000
G1 X168.000 Y86.000
G1 X169.000 Y86.000
G1 X170.000 Y86.000
G1 X171.000 Y86.000
G1 X172.000 Y86.000
G1 X173.000 Y86.000
G1 X174.000 Y86.000
G1 X175.000 Y86.000
G1 X176.000 Y86.000
G1 X177.000 Y86.000
G1 X178.000 Y86.000
G1 X179.000 Y86.000
G1 X180.000 Y86.000
G1 X181.000 Y86.000
G1 X182.000 Y86.000
G1 X183.000 Y86.000
G1 X184.000 Y86.000
G1 X185.000 Y86.000
G1 X186.000 Y86.000
G1 X187.000 Y86.000
G1 X188.000 Y86.000
G1 X189.000 Y86.000
G1 X190.000 Y86.000
G1 X191.000 Y86.000
G1 X192.000 Y86.000
G1 X193.000 Y86.000
G1 X194.000 Y86.000
G1 X195.000 Y86.000
G1 X196.000 Y86.000
G1 X197.000 Y86.000
G1 X198.000 Y86.000
G1 X199.000 Y86.000
G1 X200.000 Y86.000
G1 X201.000 Y86.000
G1 X202.000 Y86.000
G1 X203.000 Y86.000
G1 X204.000 Y86.000
G1 X205.000 Y86.000
G1 X206.000 Y86.000
G1 X207.000 Y86.000
G1 X208.000 Y86.000
G1 X209.000 Y86.000
G1 X210.000 Y86.000
G1 X211.000 Y86.000
G1 X212.000 Y86.000
G1 X213.000 Y86.000
G1 X214.000 Y86.000
G1 X215.000 Y86.000
G1 X216.000 Y86.000
G1 X217.000 Y86.000
G1 X218.000 Y86.000
G1 X219.000 Y86.000
G1 X220.000 Y86.000
G0 Z4.600 F3000
M400
M204 P12000 T12000
G1 F12000
G0 X150.000 Y228.000 Z4.600
M400
M204 P200 T200
G1 F400
G1 Z0.000 F2500
G1 X149.000 Y228.000
G1 X148.000 Y228.000
G1 X147.000 Y228.000
G1 X146.000 Y228.000
G1 X145.000 Y228.000
G1 X144.000 Y228.000
G1 X143.000 Y228.000
G1 X142.000 Y228.000
G1 X141.000 Y228.000
G1 X140.000 Y228.000
G1 X139.000 Y228.000
G1 X138.000 Y228.000
G1 X137.000 Y228.000
G1 X136.000 Y228.000
G1 X135.000 Y228.000
G1 X134.000 Y228.000
G1 X133.000 Y228.000
G1 X132.000 Y228.000
G1 X131.000 Y228.000
G1 X130.000 Y228.000
G1 X129.000 Y228.000
G1 X128.000 Y228.000
G1 X127.000 Y228.000
G1 X126.000 Y228.000
G1 X125.000 Y228.000
G1 X124.000 Y228.000
G1 X123.000 Y228.000
G1 X122.000 Y228.000
G1 X121.000 Y228.000
G1 X120.000 Y228.000
G1 X119.000 Y228.000
G1 X118.000 Y228.000
G1 X117.000 Y228.000
G1 X116.000 Y228.000
G1 X115.000 Y228.000
G1 X114.000 Y228.000
G1 X113.000 Y228.000
G1 X112.000 Y228.000
G1 X111.000 Y228.000
G1 X110.000 Y228.000
G1 X109.000 Y228.000
G0 Z4.600 F3000
M400
M204 P12000 T12000
G1 F12000
G0 X102.000 Y226.000 Z4.600
M400
M204 P200 T200
G1 F400
G1 Z0.000 F2500
G1 X103.000 Y226.000
G1 X104.000 Y226.000
G1 X105.000 Y226.000
G1 X106.000 Y226.000
G1 X107.000 Y226.000
G1 X108.000 Y226.000
G1 X109.000 Y226.000
G1 X110.000 Y226.000
G1 X111.000 Y226.000
G1 X112.000 Y226.000
G1 X113.000 Y226.000
G1 X114.000 Y226.000
G1 X115.000 Y226.000
G1 X116.000 Y226.000
G1 X117.000 Y226.000
G1 X118.000 Y226.000
G1 X119.000 Y226.000
G1 X120.000 Y226.000
G1 X121.000 Y226.000
G1 X122.000 Y226.000
G1 X123.000 Y226.000
G1 X124.000 Y226.000
G1 X125.000 Y226.000
G1 X126.000 Y226.000
G1 X127.000 Y226.000
G1 X128.000 Y226.000
G1 X129.000 Y226.000
G1 X130.000 Y226.000
G1 X131.000 Y226.000
G1 X132.000 Y226.000
G1 X133.000 Y226.000
G1 X134.000 Y226.000
G1 X135.000 Y226.000
G1 X136.000 Y226.000
G1 X137.000 Y226.000
G1 X138.000 Y226.000
G1 X139.000 Y226.000
G1 X140.000 Y226.000
G1 X141.000 Y226.000
G1 X142.000 Y226.000
G1 X143.000 Y226.000
G1 X144.000 Y226.000
G1 X145.000 Y226.000
G1 X146.000 Y226.000
G1 X147.000 Y226.000
G1 X148.000 Y226.000
G1 X149.000 Y226.000
G1 X150.000 Y226.000
G1 X151.000 Y226.000
G1 X152.000 Y226.000
G1 X153.000 Y226.000
G1 X154.000 Y226.000
G1 X155.000 Y226.000
G1 X156.000 Y226.000
G1 X157.000 Y226.000
G0 Z4.600 F3000
M400
M204 P12000 T12000
G1 F12000
G0 X167.000 Y224.000 Z4.600
M400
M204 P200 T200
G1 F400
G1 Z0.000 F2500
G1 X166.000 Y224.000
G1 X165.000 Y224.000
G1 X164.000 Y224.000
G1 X163.000 Y224.000
G1 X162.000 Y224.000
G1 X161.000 Y224.000
G1 X160.000 Y224.000
G1 X159.000 Y224.000
G1 X158.000 Y224.000
G1 X157.000 Y224.000
G1 X156.000 Y224.000
G1 X155.000 Y224.000
G1 X154.000 Y224.000
G1 X153.000 Y224.000
G1 X152.000 Y224.000
G1 X151.000 Y224.000
G1 X150.000 Y224.000
G1 X149.000 Y224.000
G1 X148.000 Y224.000
G1 X147.000 Y224.000
G1 X146.000 Y224.000
G1 X145.000 Y224.000
G1 X144.000 Y224.000
G1 X143.000 Y224.000
G1 X142.000 Y224.000
G1 X141.000 Y224.000
G1 X140.000 Y224.000
G1 X139.000 Y224.000
G1 X138.000 Y224.000
G1 X137.000 Y224.000
G0 Z4.600 F3000

; --- CIKEL NAMAKANJA ---
G0 Z4.600 F3000
M400
M204 P12000 T12000
G1 F12000
G0 X-15.468 Y-1.226 Z31.000
G1 Z0.000 F3000
G1 X-15.468 Y-1.226 F2500
G1 X-15.468 Y1.274 F2500
G1 X-20.468 Y-1.226 F2500
G1 X-15.468 Y-8.726 F2500
G0 Z16.000 F3000
G0 X7.785 Y12.822
G0 Z31.000 F3000
G0 X136.000 Y224.000 Z4.600
M400
M204 P200 T200
G1 F400
G1 Z0.000 F2500
G1 X136.000 Y224.000
G1 X135.000 Y224.000
G1 X134.000 Y224.000
G1 X133.000 Y224.000
G1 X132.000 Y224.000
G1 X131.000 Y224.000
G1 X130.000 Y224.000
G1 X129.000 Y224.000
G1 X128.000 Y224.000
G1 X127.000 Y224.000
G1 X126.000 Y224.000
G1 X125.000 Y224.000
G1 X124.000 Y224.000
G1 X123.000 Y224.000
G1 X122.000 Y224.000
G1 X121.000 Y224.000
G1 X120.000 Y224.000
G1 X119.000 Y224.000
G1 X118.000 Y224.000
G1 X117.000 Y224.000
G1 X116.000 Y224.000
G1 X115.000 Y224.000
G1 X114.000 Y224.000
G1 X113.000 Y224.000
G1 X112.000 Y224.000
G1 X111.000 Y224.000
G1 X110.000 Y224.000
G1 X109.000 Y224.000
G1 X108.000 Y224.000
G1 X107.000 Y224.000
G1 X106.000 Y224.000
G1 X105.000 Y224.000
G1 X104.000 Y224.000
G1 X103.000 Y224.000
G1 X102.000 Y224.000
G1 X101.000 Y224.000
G1 X100.000 Y224.000
G1 X99.000 Y224.000
G1 X98.000 Y224.000
G1 X97.000 Y224.000
G1 X96.000 Y224.000
G1 X95.000 Y224.000
G1 X94.000 Y224.000
G1 X93.000 Y224.000
G1 X92.000 Y224.000
G0 Z4.600 F3000
M400
M204 P12000 T12000
G1 F12000
G0 X89.000 Y222.000 Z4.600
M400
M204 P200 T200
G1 F400
G1 Z0.000 F2500
G1 X90.000 Y222.000
G1 X91.000 Y222.000
G1 X92.000 Y222.000
G1 X93.000 Y222.000
G1 X94.000 Y222.000
G1 X95.000 Y222.000
G1 X96.000 Y222.000
G1 X97.000 Y222.000
G1 X98.000 Y222.000
G1 X99.000 Y222.000
G1 X100.000 Y222.000
G1 X101.000 Y222.000
G1 X102.000 Y222.000
G1 X103.000 Y222.000
G1 X104.000 Y222.000
G1 X105.000 Y222.000
G1 X106.000 Y222.000
G1 X107.000 Y222.000
G1 X108.000 Y222.000
G1 X109.000 Y222.000
G1 X110.000 Y222.000
G1 X111.000 Y222.000
G1 X112.000 Y222.000
G1 X113.000 Y222.000
G1 X114.000 Y222.000
G1 X115.000 Y222.000
G1 X116.000 Y222.000
G1 X117.000 Y222.000
G1 X118.000 Y222.000
G1 X119.000 Y222.000
G1 X120.000 Y222.000
G1 X121.000 Y222.000
G1 X122.000 Y222.000
G1 X123.000 Y222.000
G1 X124.000 Y222.000
G1 X125.000 Y222.000
G1 X126.000 Y222.000
G1 X127.000 Y222.000
G1 X128.000 Y222.000
G1 X129.000 Y222.000
G1 X130.000 Y222.000
G1 X131.000 Y222.000
G1 X132.000 Y222.000
G1 X133.000 Y222.000
G1 X134.000 Y222.000
G1 X135.000 Y222.000
G1 X136.000 Y222.000
G1 X137.000 Y222.000
G1 X138.000 Y222.000
G1 X139.000 Y222.000
G1 X140.000 Y222.000
G1 X141.000 Y222.000
G1 X142.000 Y222.000
G1 X143.000 Y222.000
G1 X144.000 Y222.000
G1 X145.000 Y222.000
G1 X146.000 Y222.000
G1 X147.000 Y222.000
G1 X148.000 Y222.000
G1 X149.000 Y222.000
G1 X150.000 Y222.000
G1 X151.000 Y222.000
G1 X152.000 Y222.000
G1 X153.000 Y222.000
G1 X154.000 Y222.000
G1 X155.000 Y222.000
G1 X156.000 Y222.000
G1 X157.000 Y222.000
G1 X158.000 Y222.000
G1 X159.000 Y222.000
G1 X160.000 Y222.000
G1 X161.000 Y222.000
G1 X162.000 Y222.000
G1 X163.000 Y222.000
G1 X164.000 Y222.000
G1 X165.000 Y222.000
G1 X166.000 Y222.000
G1 X167.000 Y222.000
G1 X168.000 Y222.000
G1 X169.000 Y222.000
G1 X170.000 Y222.000
G0 Z4.600 F3000
M400
M204 P12000 T12000
G1 F12000
G0 X174.000 Y220.000 Z4.600
M400
M204 P200 T200
G1 F400
G1 Z0.000 F2500
G1 X173.000 Y220.000
G1 X172.000 Y220.000
G1 X171.000 Y220.000
G1 X170.000 Y220.000
G1 X169.000 Y220.000
G1 X168.000 Y220.000
G1 X167.000 Y220.000
G1 X166.000 Y220.000
G1 X165.000 Y220.000
G1 X164.000 Y220.000
G1 X163.000 Y220.000
G1 X162.000 Y220.000
G1 X161.000 Y220.000
G1 X160.000 Y220.000
G1 X159.000 Y220.000
G1 X158.000 Y220.000
G1 X157.000 Y220.000
G1 X156.000 Y220.000
G1 X155.000 Y220.000
G1 X154.000 Y220.000
G1 X153.000 Y220.000
G1 X152.000 Y220.000
G1 X151.000 Y220.000
G1 X150.000 Y220.000
G1 X149.000 Y220.000
G1 X148.000 Y220.000
G1 X147.000 Y220.000
G1 X146.000 Y220.000
G1 X145.000 Y220.000
G1 X144.000 Y220.000
G1 X143.000 Y220.000
G1 X142.000 Y220.000
G1 X141.000 Y220.000
G1 X140.000 Y220.000
G1 X139.000 Y220.000
G1 X138.000 Y220.000
G1 X137.000 Y220.000
G1 X136.000 Y220.000
G1 X135.000 Y220.000
G1 X134.000 Y220.000
G1 X133.000 Y220.000
G1 X132.000 Y220.000
G1 X131.000 Y220.000
G1 X130.000 Y220.000
G1 X129.000 Y220.000
G1 X128.000 Y220.000
G1 X127.000 Y220.000
G1 X126.000 Y220.000
G1 X125.000 Y220.000
G1 X124.000 Y220.000
G1 X123.000 Y220.000
G1 X122.000 Y220.000
G1 X121.000 Y220.000
G1 X120.000 Y220.000
G1 X119.000 Y220.000
G1 X118.000 Y220.000
G1 X117.000 Y220.000
G1 X116.000 Y220.000
G1 X115.000 Y220.000
G1 X114.000 Y220.000
G1 X113.000 Y220.000
G1 X112.000 Y220.000
G1 X111.000 Y220.000
G1 X110.000 Y220.000
G1 X109.000 Y220.000
G1 X108.000 Y220.000
G1 X107.000 Y220.000
G1 X106.000 Y220.000
G1 X105.000 Y220.000
G1 X104.000 Y220.000
G1 X103.000 Y220.000
G1 X102.000 Y220.000
G1 X101.000 Y220.000
G1 X100.000 Y220.000
G1 X99.000 Y220.000
G1 X98.000 Y220.000
G1 X97.000 Y220.000
G1 X96.000 Y220.000
G1 X95.000 Y220.000
G1 X94.000 Y220.000
G1 X93.000 Y220.000
G1 X92.000 Y220.000
G1 X91.000 Y220.000
G1 X90.000 Y220.000
G1 X89.000 Y220.000
G1 X88.000 Y220.000
G1 X87.000 Y220.000
G1 X86.000 Y220.000
G1 X85.000 Y220.000
G0 Z4.600 F3000
M400
M204 P12000 T12000
G1 F12000
G0 X81.000 Y218.000 Z4.600
M400
M204 P200 T200
G1 F400
G1 Z0.000 F2500
G1 X82.000 Y218.000
G1 X83.000 Y218.000
G1 X84.000 Y218.000
G1 X85.000 Y218.000
G1 X86.000 Y218.000
G1 X87.000 Y218.000
G1 X88.000 Y218.000
G1 X89.000 Y218.000
G1 X90.000 Y218.000
G1 X91.000 Y218.000
G1 X92.000 Y218.000
G1 X93.000 Y218.000
G1 X94.000 Y218.000
G1 X95.000 Y218.000
G1 X96.000 Y218.000
G1 X97.000 Y218.000
G1 X98.000 Y218.000
G1 X99.000 Y218.000
G1 X100.000 Y218.000
G1 X101.000 Y218.000
G1 X102.000 Y218.000
G1 X103.000 Y218.000
G1 X104.000 Y218.000
G1 X105.000 Y218.000
G1 X106.000 Y218.000
G1 X107.000 Y218.000
G0 Z4.600 F3000

; --- CIKEL NAMAKANJA ---
G0 Z4.600 F3000
M400
M204 P12000 T12000
G1 F12000
G0 X-8.117 Y11.864 Z31.000
G1 Z0.000 F3000
G1 X-8.117 Y11.864 F2500
G1 X-8.117 Y14.364 F2500
G1 X-13.117 Y11.864 F2500
G1 X-8.117 Y4.364 F2500
G0 Z16.000 F3000
G0 X6.659 Y13.441
G0 Z31.000 F3000
G0 X108.000 Y218.000 Z4.600
M400
M204 P200 T200
G1 F400
G1 Z0.000 F2500
G1 X108.000 Y218.000
G1 X109.000 Y218.000
G1 X110.000 Y218.000
G1 X111.000 Y218.000
G1 X112.000 Y218.000
G1 X113.000 Y218.000
G1 X114.000 Y218.000
G1 X115.000 Y218.000
G1 X116.000 Y218.000
G1 X117.000 Y218.000
G1 X118.000 Y218.000
G1 X119.000 Y218.000
G1 X120.000 Y218.000
G1 X121.000 Y218.000
G1 X122.000 Y218.000
G1 X123.000 Y218.000
G1 X124.000 Y218.000
G1 X125.000 Y218.000
G1 X126.000 Y218.000
G1 X127.000 Y218.000
G1 X128.000 Y218.000
G1 X129.000 Y218.000
G1 X130.000 Y218.000
G1 X131.000 Y218.000
G1 X132.000 Y218.000
G1 X133.000 Y218.000
G1 X134.000 Y218.000
G1 X135.000 Y218.000
G1 X136.000 Y218.000
G1 X137.000 Y218.000
G1 X138.000 Y218.000
G1 X139.000 Y218.000
G1 X140.000 Y218.000
G1 X141.000 Y218.000
G1 X142.000 Y218.000
G1 X143.000 Y218.000
G1 X144.000 Y218.000
G1 X145.000 Y218.000
G1 X146.000 Y218.000
G1 X147.000 Y218.000
G1 X148.000 Y218.000
G1 X149.000 Y218.000
G1 X150.000 Y218.000
G1 X151.000 Y218.000
G1 X152.000 Y218.000
G1 X153.000 Y218.000
G1 X154.000 Y218.000
G1 X155.000 Y218.000
G1 X156.000 Y218.000
G1 X157.000 Y218.000
G1 X158.000 Y218.000
G1 X159.000 Y218.000
G1 X160.000 Y218.000
G1 X161.000 Y218.000
G1 X162.000 Y218.000
G1 X163.000 Y218.000
G1 X164.000 Y218.000
G1 X165.000 Y218.000
G1 X166.000 Y218.000
G1 X167.000 Y218.000
G1 X168.000 Y218.000
G1 X169.000 Y218.000
G1 X170.000 Y218.000
G1 X171.000 Y218.000
G1 X172.000 Y218.000
G1 X173.000 Y218.000
G1 X174.000 Y218.000
G1 X175.000 Y218.000
G1 X176.000 Y218.000
G1 X177.000 Y218.000
G1 X178.000 Y218.000
G0 Z4.600 F3000
M400
M204 P12000 T12000
G1 F12000
G0 X182.000 Y216.000 Z4.600
M400
M204 P200 T200
G1 F400
G1 Z0.000 F2500
G1 X181.000 Y216.000
G1 X180.000 Y216.000
G1 X179.000 Y216.000
G1 X178.000 Y216.000
G1 X177.000 Y216.000
G1 X176.000 Y216.000
G1 X175.000 Y216.000
G1 X174.000 Y216.000
G1 X173.000 Y216.000
G1 X172.000 Y216.000
G1 X171.000 Y216.000
G1 X170.000 Y216.000
G1 X169.000 Y216.000
G1 X168.000 Y216.000
G1 X167.000 Y216.000
G1 X166.000 Y216.000
G1 X165.000 Y216.000
G1 X164.000 Y216.000
G1 X163.000 Y216.000
G1 X162.000 Y216.000
G1 X161.000 Y216.000
G1 X160.000 Y216.000
G1 X159.000 Y216.000
G1 X158.000 Y216.000
G1 X157.000 Y216.000
G1 X156.000 Y216.000
G1 X155.000 Y216.000
G1 X154.000 Y216.000
G1 X153.000 Y216.000
G1 X152.000 Y216.000
G1 X151.000 Y216.000
G1 X150.000 Y216.000
G1 X149.000 Y216.000
G1 X148.000 Y216.000
G1 X147.000 Y216.000
G1 X146.000 Y216.000
G1 X145.000 Y216.000
G1 X144.000 Y216.000
G1 X143.000 Y216.000
G1 X142.000 Y216.000
G1 X141.000 Y216.000
G1 X140.000 Y216.000
G1 X139.000 Y216.000
G1 X138.000 Y216.000
G1 X137.000 Y216.000
G1 X136.000 Y216.000
G1 X135.000 Y216.000
G1 X134.000 Y216.000
G1 X133.000 Y216.000
G1 X132.000 Y216.000
G1 X131.000 Y216.000
G1 X130.000 Y216.000
G1 X129.000 Y216.000
G1 X128.000 Y216.000
G1 X127.000 Y216.000
G1 X126.000 Y216.000
G1 X125.000 Y216.000
G1 X124.000 Y216.000
G1 X123.000 Y216.000
G1 X122.000 Y216.000
G1 X121.000 Y216.000
G1 X120.000 Y216.000
G1 X119.000 Y216.000
G1 X118.000 Y216.000
G1 X117.000 Y216.000
G1 X116.000 Y216.000
G1 X115.000 Y216.000
G1 X114.000 Y216.000
G1 X113.000 Y216.000
G1 X112.000 Y216.000
G1 X111.000 Y216.000
G1 X110.000 Y216.000
G1 X109.000 Y216.000
G1 X108.000 Y216.000
G1 X107.000 Y216.000
G1 X106.000 Y216.000
G1 X105.000 Y216.000
G1 X104.000 Y216.000
G1 X103.000 Y216.000
G1 X102.000 Y216.000
G1 X101.000 Y216.000
G1 X100.000 Y216.000
G1 X99.000 Y216.000
G1 X98.000 Y216.000
G1 X97.000 Y216.000
G1 X96.000 Y216.000
G1 X95.000 Y216.000
G1 X94.000 Y216.000
G1 X93.000 Y216.000
G1 X92.000 Y216.000
G1 X91.000 Y216.000
G1 X90.000 Y216.000
G1 X89.000 Y216.000
G1 X88.000 Y216.000
G1 X87.000 Y216.000
G1 X86.000 Y216.000
G1 X85.000 Y216.000
G1 X84.000 Y216.000
G1 X83.000 Y216.000
G1 X82.000 Y216.000
G1 X81.000 Y216.000
G1 X80.000 Y216.000
G1 X79.000 Y216.000
G1 X78.000 Y216.000
G1 X77.000 Y216.000
G0 Z4.600 F3000
M400
M204 P12000 T12000
G1 F12000
G0 X74.000 Y214.000 Z4.600
M400
M204 P200 T200
G1 F400
G1 Z0.000 F2500
G1 X75.000 Y214.000
G1 X76.000 Y214.000
G1 X77.000 Y214.000
G1 X78.000 Y214.000
G1 X79.000 Y214.000
G1 X80.000 Y214.000
G1 X81.000 Y214.000
G1 X82.000 Y214.000
G1 X83.000 Y214.000
G1 X84.000 Y214.000
G1 X85.000 Y214.000
G1 X86.000 Y214.000
G1 X87.000 Y214.000
G1 X88.000 Y214.000
G1 X89.000 Y214.000
G1 X90.000 Y214.000
G1 X91.000 Y214.000
G1 X92.000 Y214.000
G1 X93.000 Y214.000
G1 X94.000 Y214.000
G1 X95.000 Y214.000
G1 X96.000 Y214.000
G1 X97.000 Y214.000
G1 X98.000 Y214.000
G1 X99.000 Y214.000
G1 X100.000 Y214.000
G1 X101.000 Y214.000
G1 X102.000 Y214.000
G1 X103.000 Y214.000
G1 X104.000 Y214.000
G1 X105.000 Y214.000
G1 X106.000 Y214.000
G1 X107.000 Y214.000
G1 X108.000 Y214.000
G1 X109.000 Y214.000
G1 X110.000 Y214.000
G1 X111.000 Y214.000
G1 X112.000 Y214.000
G1 X113.000 Y214.000
G1 X114.000 Y214.000
G1 X115.000 Y214.000
G1 X116.000 Y214.000
G1 X117.000 Y214.000
G1 X118.000 Y214.000
G1 X119.000 Y214.000
G1 X120.000 Y214.000
G1 X121.000 Y214.000
G1 X122.000 Y214.000
G1 X123.000 Y214.000
G1 X124.000 Y214.000
G1 X125.000 Y214.000
G1 X126.000 Y214.000
G1 X127.000 Y214.000
G1 X128.000 Y214.000
G1 X129.000 Y214.000
G1 X130.000 Y214.000
G1 X131.000 Y214.000
G1 X132.000 Y214.000
G1 X133.000 Y214.000
G1 X134.000 Y214.000
G1 X135.000 Y214.000
G1 X136.000 Y214.000
G1 X137.000 Y214.000
G1 X138.000 Y214.000
G1 X139.000 Y214.000
G1 X140.000 Y214.000
G1 X141.000 Y214.000
G1 X142.000 Y214.000
G1 X143.000 Y214.000
G1 X144.000 Y214.000
G1 X145.000 Y214.000
G1 X146.000 Y214.000
G1 X147.000 Y214.000
G1 X148.000 Y214.000
G1 X149.000 Y214.000
G1 X150.000 Y214.000
G1 X151.000 Y214.000
G1 X152.000 Y214.000
G1 X153.000 Y214.000
G1 X154.000 Y214.000
G1 X155.000 Y214.000
G1 X156.000 Y214.000
G1 X157.000 Y214.000
G1 X158.000 Y214.000
G1 X159.000 Y214.000
G1 X160.000 Y214.000
G1 X161.000 Y214.000
G1 X162.000 Y214.000
G1 X163.000 Y214.000
G1 X164.000 Y214.000
G1 X165.000 Y214.000
G1 X166.000 Y214.000
G1 X167.000 Y214.000
G1 X168.000 Y214.000
G1 X169.000 Y214.000
G1 X170.000 Y214.000
G1 X171.000 Y214.000
G0 Z4.600 F3000

; --- CIKEL NAMAKANJA ---
G0 Z4.600 F3000
M400
M204 P12000 T12000
G1 F12000
G0 X-3.828 Y-2.922 Z31.000
G1 Z0.000 F3000
G1 X-3.828 Y-2.922 F2500
G1 X-3.828 Y-0.422 F2500
G1 X-8.828 Y-2.922 F2500
G1 X-3.828 Y-10.422 F2500
G0 Z16.000 F3000
G0 X9.397 Y11.692
G0 Z31.000 F3000
G0 X172.000 Y214.000 Z4.600
M400
M204 P200 T200
G1 F400
G1 Z0.000 F2500
G1 X172.000 Y214.000
G1 X173.000 Y214.000
