G90
G21
; === MULTI-COLOR PAINTER GCODE ===
; Generated layers: 1
; Backlash compensation: OFF
; Working area clamping: ON  X[0–150] Y[0–150]
; Tutti Frutti mode: OFF


; ═══════════════════════════════
; LAYER 2: Color 2 — Teal
; Infill: concentric
; ═══════════════════════════════


; --- CIKEL NAMAKANJA ---
G0 Z2.000 F3000
M400
M204 P600 T600
G1 F1300
G0 X65.108 Y3.333 Z8.000
G1 Z1.000 F3000
G1 X65.108 Y3.333 F2500
G1 X65.108 Y5.083 F2500
G1 X61.608 Y3.333 F2500
G1 X65.108 Y0.000 F2500
G0 Z3.000 F3000
G0 X60.462 Y19.947
G0 Z8.000 F3000
G0 X61.125 Y29.000 Z2.000
M400
M204 P600 T600
G1 F1300
G0 X61.125 Y29.000 Z2.000
M400
M204 P200 T200
G1 F600
G1 Z0.000 F2500
G1 X61.000 Y29.125
G1 X60.875 Y29.250
G1 X60.875 Y29.500
G1 X60.875 Y29.750
G1 X60.875 Y30.000
G1 X60.875 Y30.250
G1 X61.000 Y30.375
G1 X61.125 Y30.500
G1 X61.125 Y30.750
G1 X61.125 Y31.000
G1 X61.250 Y31.125
G1 X61.375 Y31.250
G1 X61.375 Y31.500
G1 X61.500 Y31.625
G1 X61.625 Y31.750
G1 X61.750 Y31.875
G1 X61.875 Y32.000
G1 X62.000 Y32.125
G1 X62.125 Y32.250
G1 X62.250 Y32.375
G1 X62.500 Y32.375
G1 X62.625 Y32.500
G1 X62.750 Y32.625
G1 X63.000 Y32.625
G1 X63.250 Y32.625
G1 X63.375 Y32.750
G1 X63.500 Y32.875
G1 X63.750 Y32.875
G1 X64.000 Y32.875
G1 X64.250 Y32.875
G1 X64.500 Y32.875
G1 X64.750 Y32.875
G1 X64.875 Y32.750
G1 X65.000 Y32.625
G1 X65.250 Y32.625
G1 X65.375 Y32.500
G1 X65.500 Y32.375
G1 X65.750 Y32.375
G1 X65.875 Y32.250
G1 X66.000 Y32.125
G1 X66.125 Y32.000
G1 X66.250 Y31.875
G1 X66.375 Y31.750
G1 X66.500 Y31.625
G1 X66.625 Y31.500
G1 X66.750 Y31.375
G1 X66.875 Y31.250
G1 X66.875 Y31.000
G1 X66.875 Y30.750
G1 X67.000 Y30.625
G1 X67.125 Y30.500
G1 X67.125 Y30.250
G1 X67.125 Y30.000
G1 X67.125 Y29.750
G1 X67.125 Y29.500
G1 X67.125 Y29.250
G1 X67.125 Y29.000
G0 Z2.000 F3000
M400
M204 P600 T600
G1 F1300
G0 X68.625 Y29.000 Z2.000
M400
M204 P200 T200
G1 F600
G1 Z0.000 F2500
G1 X68.750 Y29.125
G1 X69.000 Y29.125
G1 X69.250 Y29.125
G1 X69.500 Y29.125
G1 X69.750 Y29.125
G1 X70.000 Y29.125
G1 X70.250 Y29.125
G1 X70.375 Y29.000
G0 Z2.000 F3000
M400
M204 P600 T600
G1 F1300
G0 X72.375 Y29.000 Z2.000
M400
M204 P200 T200
G1 F600
G1 Z0.000 F2500
G1 X72.375 Y29.250
G1 X72.375 Y29.500
G1 X72.375 Y29.750
G1 X72.375 Y30.000
G1 X72.500 Y30.125
G1 X72.625 Y30.250
G1 X72.625 Y30.500
G1 X72.750 Y30.625
G1 X72.875 Y30.750
G1 X73.000 Y30.875
G1 X73.125 Y31.000
G1 X73.250 Y31.125
G1 X73.375 Y31.250
G1 X73.500 Y31.375
G1 X73.625 Y31.500
G1 X73.750 Y31.625
G1 X74.000 Y31.625
G1 X74.125 Y31.750
G1 X74.250 Y31.875
G1 X74.500 Y31.875
G1 X74.750 Y31.875
G1 X75.000 Y31.875
G1 X75.250 Y31.875
G1 X75.500 Y31.875
G1 X75.750 Y31.875
G1 X76.000 Y31.875
G1 X76.250 Y31.875
G1 X76.375 Y31.750
G1 X76.500 Y31.625
G1 X76.750 Y31.625
G1 X76.875 Y31.500
G1 X77.000 Y31.375
G1 X77.250 Y31.375
G1 X77.375 Y31.250
G1 X77.500 Y31.125
G1 X77.625 Y31.000
G1 X77.625 Y30.750
G1 X77.750 Y30.625
G1 X77.875 Y30.500
G1 X78.000 Y30.375
G1 X78.125 Y30.250
G1 X78.125 Y30.000
G1 X78.125 Y29.750
G1 X78.250 Y29.625
G1 X78.375 Y29.500
G1 X78.375 Y29.250
G1 X78.375 Y29.000
G0 Z2.000 F3000
M400
M204 P600 T600
G1 F1300
G0 X80.625 Y29.000 Z2.000
M400
M204 P200 T200
G1 F600
G1 Z0.000 F2500
G1 X80.500 Y29.125
G1 X80.250 Y29.125
G1 X80.000 Y29.125
G1 X79.875 Y29.250
G1 X79.750 Y29.375
G1 X79.500 Y29.375
G1 X79.375 Y29.500
G1 X79.250 Y29.625
G1 X79.125 Y29.750
G1 X79.000 Y29.875
G1 X78.875 Y30.000
G1 X78.750 Y30.125
G1 X78.625 Y30.250
G1 X78.625 Y30.500
G1 X78.500 Y30.625
G1 X78.375 Y30.750
G1 X78.375 Y31.000
G1 X78.375 Y31.250
G1 X78.375 Y31.500
G1 X78.250 Y31.625
G1 X78.125 Y31.750
G1 X78.125 Y32.000
G1 X78.250 Y32.125
G1 X78.375 Y32.250
G1 X78.375 Y32.500
G1 X78.375 Y32.750
G1 X78.375 Y33.000
G1 X78.500 Y33.125
G1 X78.625 Y33.250
G1 X78.750 Y33.375
G1 X78.875 Y33.500
G1 X78.875 Y33.750
G1 X79.000 Y33.875
G1 X79.125 Y34.000
G1 X79.250 Y34.125
G1 X79.500 Y34.125
G1 X79.625 Y34.250
G1 X79.750 Y34.375
G1 X80.000 Y34.375
G1 X80.125 Y34.500
G1 X80.250 Y34.625
G1 X80.500 Y34.625
G1 X80.750 Y34.625
G1 X81.000 Y34.625
G1 X81.250 Y34.625
G1 X81.500 Y34.625
G1 X81.750 Y34.625
G1 X82.000 Y34.625
G1 X82.125 Y34.500
G1 X82.250 Y34.375
G1 X82.500 Y34.375
G1 X82.625 Y34.250
G1 X82.750 Y34.125
G1 X82.875 Y34.000
G1 X83.000 Y33.875
G1 X83.125 Y33.750
G1 X83.250 Y33.625
G1 X83.375 Y33.500
G1 X83.500 Y33.375
G1 X83.625 Y33.250
G1 X83.625 Y33.000
G1 X83.750 Y32.875
G1 X83.875 Y32.750
G1 X83.875 Y32.500
G1 X83.875 Y32.250
G1 X83.875 Y32.000
G1 X83.875 Y31.750
G1 X83.875 Y31.500
G1 X83.875 Y31.250
G1 X83.875 Y31.000
G1 X83.875 Y30.750
G1 X83.750 Y30.625
G1 X83.625 Y30.500
G1 X83.625 Y30.250
G1 X83.500 Y30.125
G1 X83.375 Y30.000
G1 X83.250 Y29.875
G1 X83.125 Y29.750
G1 X83.000 Y29.625
G1 X82.875 Y29.500
G1 X82.750 Y29.375
G1 X82.500 Y29.375
G1 X82.375 Y29.250
G1 X82.250 Y29.125
G1 X82.000 Y29.125
G1 X81.750 Y29.125
G1 X81.625 Y29.000
G0 Z2.000 F3000
M400
M204 P600 T600
G1 F1300
G0 X83.625 Y29.000 Z2.000
M400
M204 P200 T200
G1 F600
G1 Z0.000 F2500
G1 X83.750 Y29.125
G1 X83.875 Y29.250
G1 X83.875 Y29.500
G1 X84.000 Y29.625
G1 X84.125 Y29.750
G1 X84.250 Y29.875
G1 X84.375 Y30.000
G1 X84.500 Y30.125
G1 X84.625 Y30.250
G1 X84.750 Y30.375
G1 X84.875 Y30.500
G1 X85.000 Y30.625
G1 X85.125 Y30.750
G1 X85.250 Y30.875
G1 X85.500 Y30.875
G1 X85.750 Y30.875
G1 X85.875 Y31.000
G1 X86.000 Y31.125
G1 X86.250 Y31.125
G1 X86.500 Y31.125
G1 X86.750 Y31.125
G1 X87.000 Y31.125
G1 X87.125 Y31.000
G1 X87.250 Y30.875
G1 X87.500 Y30.875
G1 X87.750 Y30.875
G1 X87.875 Y30.750
G1 X88.000 Y30.625
G1 X88.125 Y30.500
G1 X88.250 Y30.375
G1 X88.375 Y30.250
G1 X88.500 Y30.125
G1 X88.625 Y30.000
G1 X88.750 Y29.875
G1 X88.875 Y29.750
G1 X89.000 Y29.625
G1 X89.125 Y29.500
G1 X89.125 Y29.250
G1 X89.125 Y29.000
G0 Z2.000 F3000
M400
M204 P600 T600
G1 F1300
G0 X90.375 Y29.000 Z2.000
M400
M204 P200 T200
G1 F600
G1 Z0.000 F2500
G1 X90.250 Y29.125
G1 X90.125 Y29.250
G1 X90.000 Y29.375
G1 X89.875 Y29.500
G1 X89.875 Y29.750
G1 X89.750 Y29.875
G1 X89.625 Y30.000
G1 X89.625 Y30.250
G1 X89.625 Y30.500
G1 X89.625 Y30.750
G1 X89.625 Y31.000
G1 X89.625 Y31.250
G1 X89.625 Y31.500
G1 X89.625 Y31.750
G1 X89.625 Y32.000
G1 X89.750 Y32.125
G1 X89.875 Y32.250
G1 X89.875 Y32.500
G1 X90.000 Y32.625
G1 X90.125 Y32.750
G1 X90.250 Y32.875
G1 X90.375 Y33.000
G1 X90.500 Y33.125
G1 X90.625 Y33.250
G1 X90.750 Y33.375
G1 X91.000 Y33.375
G1 X91.125 Y33.500
G1 X91.250 Y33.625
G1 X91.500 Y33.625
G1 X91.625 Y33.750
G1 X91.750 Y33.875
G1 X92.000 Y33.875
G1 X92.250 Y33.875
G1 X92.500 Y33.875
G1 X92.750 Y33.875
G1 X92.875 Y33.750
G1 X93.000 Y33.625
G1 X93.250 Y33.625
G1 X93.500 Y33.625
G1 X93.625 Y33.500
G1 X93.750 Y33.375
G1 X94.000 Y33.375
G1 X94.125 Y33.250
G1 X94.250 Y33.125
G1 X94.375 Y33.000
G1 X94.500 Y32.875
G1 X94.625 Y32.750
G1 X94.625 Y32.500
G1 X94.750 Y32.375
G1 X94.875 Y32.250
G1 X94.875 Y32.000
G1 X95.000 Y31.875
G1 X95.125 Y31.750
G1 X95.125 Y31.500
G1 X95.125 Y31.250
G1 X95.125 Y31.000
G1 X95.125 Y30.750
G1 X95.125 Y30.500
G1 X95.125 Y30.250
G1 X95.000 Y30.125
G1 X94.875 Y30.000
G1 X94.875 Y29.750
G1 X94.750 Y29.625
G1 X94.625 Y29.500
G1 X94.500 Y29.375
G1 X94.375 Y29.250
G1 X94.375 Y29.000
G0 Z2.000 F3000
M400
M204 P600 T600
G1 F1300
G0 X95.375 Y29.000 Z2.000
M400
M204 P200 T200
G1 F600
G1 Z0.000 F2500
G1 X95.500 Y29.125
G1 X95.625 Y29.250
G1 X95.750 Y29.375
G1 X95.875 Y29.500
G1 X96.000 Y29.625
G1 X96.125 Y29.750
G1 X96.250 Y29.875
G1 X96.500 Y29.875
G1 X96.625 Y30.000
G1 X96.750 Y30.125
G1 X97.000 Y30.125
G1 X97.250 Y30.125
G1 X97.500 Y30.125
G1 X97.750 Y30.125
G1 X98.000 Y30.125
G1 X98.250 Y30.125
G1 X98.500 Y30.125
G1 X98.750 Y30.125
G1 X98.875 Y30.000
G1 X99.000 Y29.875
G1 X99.250 Y29.875
G1 X99.375 Y29.750
G1 X99.500 Y29.625
G1 X99.625 Y29.500
G1 X99.750 Y29.375
G1 X99.875 Y29.250
G1 X100.000 Y29.125
G1 X100.125 Y29.000
G0 Z2.000 F3000
M400
M204 P600 T600
G1 F1300
G0 X101.875 Y29.000 Z2.000
M400
M204 P200 T200
G1 F600
G1 Z0.000 F2500
G1 X101.750 Y29.125
G1 X101.625 Y29.250
G1 X101.625 Y29.500
G1 X101.625 Y29.750
G1 X101.625 Y30.000
G1 X101.500 Y30.125
G1 X101.375 Y30.250
G1 X101.500 Y30.375
G1 X101.625 Y30.500
G1 X101.625 Y30.750
G1 X101.625 Y31.000
G1 X101.625 Y31.250
G1 X101.750 Y31.375
G1 X101.875 Y31.500
G1 X102.000 Y31.625
G1 X102.125 Y31.750
G1 X102.250 Y31.875
G1 X102.375 Y32.000
G1 X102.500 Y32.125
G1 X102.750 Y32.125
G1 X103.000 Y32.125
G1 X103.125 Y32.250
G1 X103.250 Y32.375
G1 X103.500 Y32.375
G1 X103.750 Y32.375
G1 X104.000 Y32.375
G1 X104.125 Y32.250
G1 X104.250 Y32.125
G1 X104.500 Y32.125
G1 X104.625 Y32.000
G1 X104.750 Y31.875
G1 X104.875 Y31.750
G1 X105.000 Y31.625
G1 X105.125 Y31.500
G1 X105.250 Y31.375
G1 X105.375 Y31.250
G1 X105.375 Y31.000
G1 X105.500 Y30.875
G1 X105.625 Y30.750
G1 X105.625 Y30.500
G1 X105.625 Y30.250
G1 X105.625 Y30.000
G1 X105.625 Y29.750
G1 X105.500 Y29.625
G1 X105.375 Y29.500
G1 X105.375 Y29.250
G1 X105.250 Y29.125
G1 X105.125 Y29.000
G0 Z2.000 F3000
M400
M204 P600 T600
G1 F1300
G0 X108.625 Y35.000 Z2.000
M400
M204 P200 T200
G1 F600
G1 Z0.000 F2500
G1 X108.750 Y35.125
G1 X109.000 Y35.125
G1 X109.250 Y35.125
G1 X109.500 Y35.125
G1 X109.750 Y35.125
G1 X110.000 Y35.125
G1 X110.125 Y35.000
G1 X110.250 Y34.875
G1 X110.500 Y34.875
G1 X110.625 Y34.750
G1 X110.750 Y34.625
G1 X110.875 Y34.500
G1 X111.000 Y34.375
G1 X111.125 Y34.250
G1 X111.125 Y34.000
G1 X111.250 Y33.875
G1 X111.375 Y33.750
G1 X111.375 Y33.500
G1 X111.375 Y33.250
G1 X111.375 Y33.000
G1 X111.375 Y32.750
G1 X111.375 Y32.500
G1 X111.250 Y32.375
G1 X111.125 Y32.250
G1 X111.125 Y32.000
G1 X111.000 Y31.875
G1 X110.875 Y31.750
G1 X110.750 Y31.625
G1 X110.625 Y31.500
G1 X110.500 Y31.375
G1 X110.250 Y31.375
G1 X110.125 Y31.250
G1 X110.000 Y31.125
G1 X109.750 Y31.125
G1 X109.500 Y31.125
G1 X109.250 Y31.125
G1 X109.000 Y31.125
G1 X108.750 Y31.125
G1 X108.625 Y31.250
G1 X108.500 Y31.375
G1 X108.250 Y31.375
G1 X108.125 Y31.500
G1 X108.000 Y31.625
G1 X107.875 Y31.750
G1 X107.750 Y31.875
G1 X107.625 Y32.000
G1 X107.625 Y32.250
G1 X107.500 Y32.375
G1 X107.375 Y32.500
G1 X107.375 Y32.750
G1 X107.375 Y33.000
G1 X107.375 Y33.250
G1 X107.375 Y33.500
G1 X107.375 Y33.750
G1 X107.500 Y33.875
G1 X107.625 Y34.000
G1 X107.625 Y34.250
G1 X107.750 Y34.375
G1 X107.875 Y34.500
G1 X108.000 Y34.625
G1 X108.125 Y34.750
G1 X108.250 Y34.875
G1 X108.500 Y34.875
G1 X108.625 Y35.000
G0 Z2.000 F3000
M400
M204 P600 T600
G1 F1300
G0 X103.875 Y38.750 Z2.000
M400
M204 P200 T200
G1 F600
G1 Z0.000 F2500
G1 X104.000 Y38.875
G1 X104.125 Y38.750
G1 X104.250 Y38.625
G1 X104.500 Y38.625
G1 X104.750 Y38.625
G1 X104.875 Y38.500
G1 X105.000 Y38.375
G0 Z2.000 F3000

; --- CIKEL NAMAKANJA ---
G0 Z2.000 F3000
M400
M204 P600 T600
G1 F1300
G0 X52.811 Y0.000 Z8.000
G1 Z1.000 F3000
G1 X52.811 Y0.000 F2500
G1 X52.811 Y1.750 F2500
G1 X49.311 Y0.000 F2500
G1 X52.811 Y0.000 F2500
G0 Z3.000 F3000
G0 X74.392 Y12.771
G0 Z8.000 F3000
G0 X105.250 Y38.375 Z2.000
M400
M204 P200 T200
G1 F600
G1 Z0.000 F2500
G1 X105.250 Y38.375
G1 X105.375 Y38.250
G1 X105.500 Y38.125
G1 X105.625 Y38.000
G1 X105.750 Y37.875
G1 X105.875 Y37.750
G1 X105.875 Y37.500
G1 X105.875 Y37.250
G1 X106.000 Y37.125
G1 X106.125 Y37.000
G1 X106.125 Y36.750
G1 X106.125 Y36.500
G1 X106.000 Y36.375
G1 X105.875 Y36.250
G1 X105.875 Y36.000
G1 X105.875 Y35.750
G1 X105.750 Y35.625
G1 X105.625 Y35.500
G1 X105.500 Y35.375
G1 X105.375 Y35.250
G1 X105.250 Y35.125
G1 X105.125 Y35.000
G1 X105.000 Y34.875
G1 X104.750 Y34.875
G1 X104.500 Y34.875
G1 X104.375 Y34.750
G1 X104.250 Y34.625
G1 X104.000 Y34.625
G1 X103.750 Y34.625
G1 X103.625 Y34.750
G1 X103.500 Y34.875
G1 X103.250 Y34.875
G1 X103.000 Y34.875
G1 X102.875 Y35.000
G1 X102.750 Y35.125
G1 X102.625 Y35.250
G1 X102.500 Y35.375
G1 X102.375 Y35.500
G1 X102.250 Y35.625
G1 X102.125 Y35.750
G1 X102.125 Y36.000
G1 X102.125 Y36.250
G1 X102.125 Y36.500
G1 X102.000 Y36.625
G1 X101.875 Y36.750
G1 X102.000 Y36.875
G1 X102.125 Y37.000
G1 X102.125 Y37.250
G1 X102.125 Y37.500
G1 X102.250 Y37.625
G1 X102.375 Y37.750
G1 X102.375 Y38.000
G1 X102.500 Y38.125
G1 X102.625 Y38.250
G1 X102.750 Y38.375
G1 X103.000 Y38.375
G1 X103.125 Y38.500
G1 X103.250 Y38.625
G1 X103.500 Y38.625
G1 X103.750 Y38.625
G1 X103.875 Y38.750
G0 Z2.000 F3000
M400
M204 P600 T600
G1 F1300
G0 X109.375 Y41.500 Z2.000
M400
M204 P200 T200
G1 F600
G1 Z0.000 F2500
G1 X109.500 Y41.625
G1 X109.750 Y41.625
G1 X110.000 Y41.625
G1 X110.250 Y41.625
G1 X110.375 Y41.500
G1 X110.500 Y41.375
G1 X110.750 Y41.375
G1 X110.875 Y41.250
G1 X111.000 Y41.125
G1 X111.125 Y41.000
G1 X111.250 Y40.875
G1 X111.375 Y40.750
G1 X111.500 Y40.625
G1 X111.625 Y40.500
G1 X111.625 Y40.250
G1 X111.750 Y40.125
G1 X111.875 Y40.000
G1 X111.875 Y39.750
G1 X111.875 Y39.500
G1 X111.875 Y39.250
G1 X111.875 Y39.000
G1 X111.750 Y38.875
G1 X111.625 Y38.750
G1 X111.625 Y38.500
G1 X111.500 Y38.375
G1 X111.375 Y38.250
G1 X111.250 Y38.125
G1 X111.125 Y38.000
G1 X111.000 Y37.875
G1 X110.750 Y37.875
G1 X110.625 Y37.750
G1 X110.500 Y37.625
G1 X110.250 Y37.625
G1 X110.000 Y37.625
G1 X109.750 Y37.625
G1 X109.500 Y37.625
G1 X109.250 Y37.625
G1 X109.125 Y37.750
G1 X109.000 Y37.875
G1 X108.750 Y37.875
G1 X108.625 Y38.000
G1 X108.500 Y38.125
G1 X108.375 Y38.250
G1 X108.250 Y38.375
G1 X108.125 Y38.500
G1 X108.125 Y38.750
G1 X108.000 Y38.875
G1 X107.875 Y39.000
G1 X107.875 Y39.250
G1 X107.875 Y39.500
G1 X107.875 Y39.750
G1 X107.875 Y40.000
G1 X107.875 Y40.250
G1 X108.000 Y40.375
G1 X108.125 Y40.500
G1 X108.125 Y40.750
G1 X108.250 Y40.875
G1 X108.375 Y41.000
G1 X108.500 Y41.125
G1 X108.750 Y41.125
G1 X108.875 Y41.250
G1 X109.000 Y41.375
G1 X109.250 Y41.375
G1 X109.375 Y41.500
G0 Z2.000 F3000
M400
M204 P600 T600
G1 F1300
G0 X114.875 Y44.250 Z2.000
M400
M204 P200 T200
G1 F600
G1 Z0.000 F2500
G1 X115.000 Y44.375
G1 X115.250 Y44.375
G1 X115.500 Y44.375
G1 X115.750 Y44.375
G1 X116.000 Y44.375
G1 X116.250 Y44.375
G1 X116.375 Y44.250
G1 X116.500 Y44.125
G1 X116.750 Y44.125
G1 X116.875 Y44.000
G1 X117.000 Y43.875
G1 X117.125 Y43.750
G1 X117.250 Y43.625
G1 X117.375 Y43.500
G1 X117.375 Y43.250
G1 X117.500 Y43.125
G1 X117.625 Y43.000
G1 X117.625 Y42.750
G1 X117.625 Y42.500
G1 X117.625 Y42.250
G1 X117.625 Y42.000
G1 X117.625 Y41.750
G1 X117.500 Y41.625
G1 X117.375 Y41.500
G1 X117.375 Y41.250
G1 X117.250 Y41.125
G1 X117.125 Y41.000
G1 X117.000 Y40.875
G1 X116.750 Y40.875
G1 X116.625 Y40.750
G1 X116.500 Y40.625
G1 X116.250 Y40.625
G1 X116.125 Y40.500
G1 X116.000 Y40.375
G1 X115.750 Y40.375
G1 X115.500 Y40.375
G1 X115.375 Y40.500
G1 X115.250 Y40.625
G1 X115.000 Y40.625
G1 X114.750 Y40.625
G1 X114.625 Y40.750
G1 X114.500 Y40.875
G1 X114.375 Y41.000
G1 X114.250 Y41.125
G1 X114.125 Y41.250
G1 X114.000 Y41.375
G1 X113.875 Y41.500
G1 X113.875 Y41.750
G1 X113.875 Y42.000
G1 X113.750 Y42.125
G1 X113.625 Y42.250
G1 X113.625 Y42.500
G1 X113.625 Y42.750
G1 X113.750 Y42.875
G1 X113.875 Y43.000
G1 X113.875 Y43.250
G1 X114.000 Y43.375
G1 X114.125 Y43.500
G1 X114.125 Y43.750
G1 X114.250 Y43.875
G1 X114.500 Y43.875
G1 X114.625 Y44.000
G1 X114.750 Y44.125
G1 X114.875 Y44.250
G0 Z2.000 F3000
M400
M204 P600 T600
G1 F1300
G0 X120.625 Y47.000 Z2.000
M400
M204 P200 T200
G1 F600
G1 Z0.000 F2500
G1 X120.750 Y47.125
G1 X121.000 Y47.125
G1 X121.250 Y47.125
G1 X121.500 Y47.125
G1 X121.750 Y47.125
G1 X122.000 Y47.125
G1 X122.250 Y47.125
G1 X122.375 Y47.000
G1 X122.500 Y46.875
G1 X122.750 Y46.875
G1 X122.875 Y46.750
G1 X123.000 Y46.625
G1 X123.125 Y46.500
G1 X123.125 Y46.250
G1 X123.250 Y46.125
G1 X123.375 Y46.000
G1 X123.375 Y45.750
G1 X123.375 Y45.500
G1 X123.375 Y45.250
G1 X123.375 Y45.000
G1 X123.375 Y44.750
G1 X123.375 Y44.500
G1 X123.250 Y44.375
G1 X123.125 Y44.250
G1 X123.125 Y44.000
G1 X123.000 Y43.875
G1 X122.875 Y43.750
G1 X122.750 Y43.625
G1 X122.500 Y43.625
G1 X122.375 Y43.500
G1 X122.250 Y43.375
G1 X122.000 Y43.375
G1 X121.750 Y43.375
G1 X121.500 Y43.375
G1 X121.250 Y43.375
G1 X121.000 Y43.375
G1 X120.750 Y43.375
G1 X120.625 Y43.500
G1 X120.500 Y43.625
G1 X120.375 Y43.750
G1 X120.250 Y43.875
G1 X120.125 Y44.000
G1 X120.000 Y44.125
G1 X119.875 Y44.250
G1 X119.750 Y44.375
G1 X119.625 Y44.500
G1 X119.625 Y44.750
G1 X119.625 Y45.000
G1 X119.625 Y45.250
G1 X119.625 Y45.500
G1 X119.625 Y45.750
G1 X119.625 Y46.000
G1 X119.750 Y46.125
G1 X119.875 Y46.250
G1 X119.875 Y46.500
G1 X120.000 Y46.625
G1 X120.125 Y46.750
G1 X120.250 Y46.875
G1 X120.500 Y46.875
G1 X120.625 Y47.000
G0 Z2.000 F3000
M400
M204 P600 T600
G1 F1300
G0 X115.625 Y50.750 Z2.000
M400
M204 P200 T200
G1 F600
G1 Z0.000 F2500
G1 X115.750 Y50.875
G1 X116.000 Y50.875
G1 X116.250 Y50.875
G1 X116.500 Y50.875
G1 X116.625 Y50.750
G1 X116.750 Y50.625
G1 X117.000 Y50.625
G1 X117.125 Y50.500
G1 X117.250 Y50.375
G1 X117.375 Y50.250
G1 X117.500 Y50.125
G1 X117.625 Y50.000
G1 X117.750 Y49.875
G1 X117.875 Y49.750
G1 X117.875 Y49.500
G1 X118.000 Y49.375
G1 X118.125 Y49.250
G1 X118.125 Y49.000
G1 X118.125 Y48.750
G1 X118.125 Y48.500
G1 X118.000 Y48.375
G1 X117.875 Y48.250
G1 X117.875 Y48.000
G1 X117.750 Y47.875
G1 X117.625 Y47.750
G1 X117.500 Y47.625
G1 X117.375 Y47.500
G1 X117.250 Y47.375
G1 X117.125 Y47.250
G1 X117.000 Y47.125
G1 X116.750 Y47.125
G1 X116.500 Y47.125
G1 X116.375 Y47.000
G1 X116.250 Y46.875
G1 X116.000 Y46.875
G1 X115.875 Y47.000
G1 X115.750 Y47.125
G1 X115.500 Y47.125
G1 X115.250 Y47.125
G1 X115.125 Y47.250
G1 X115.000 Y47.375
G1 X114.875 Y47.500
G1 X114.750 Y47.625
G1 X114.625 Y47.750
G1 X114.500 Y47.875
G1 X114.375 Y48.000
G1 X114.375 Y48.250
G1 X114.375 Y48.500
G1 X114.250 Y48.625
G1 X114.125 Y48.750
G1 X114.125 Y49.000
G1 X114.250 Y49.125
G1 X114.375 Y49.250
G1 X114.375 Y49.500
G1 X114.375 Y49.750
G1 X114.500 Y49.875
G1 X114.625 Y50.000
G1 X114.750 Y50.125
G1 X114.875 Y50.250
G1 X115.000 Y50.375
G1 X115.125 Y50.500
G1 X115.250 Y50.625
G1 X115.500 Y50.625
G1 X115.625 Y50.750
G0 Z2.000 F3000
M400
M204 P600 T600
G1 F1300
G0 X121.125 Y53.500 Z2.000
M400
M204 P200 T200
G1 F600
G1 Z0.000 F2500
G1 X121.250 Y53.625
G1 X121.500 Y53.625
G1 X121.750 Y53.625
G1 X122.000 Y53.625
G1 X122.250 Y53.625
G1 X122.500 Y53.625
G1 X122.625 Y53.500
G1 X122.750 Y53.375
G1 X123.000 Y53.375
G1 X123.125 Y53.250
G1 X123.250 Y53.125
G1 X123.375 Y53.000
G1 X123.500 Y52.875
G1 X123.625 Y52.750
G1 X123.625 Y52.500
G1 X123.750 Y52.375
G1 X123.875 Y52.250
G1 X123.875 Y52.000
G1 X123.875 Y51.750
G1 X123.875 Y51.500
G1 X123.875 Y51.250
G1 X123.750 Y51.125
G1 X123.625 Y51.000
G1 X123.625 Y50.750
G1 X123.500 Y50.625
G1 X123.375 Y50.500
G1 X123.250 Y50.375
G1 X123.125 Y50.250
G1 X123.000 Y50.125
G1 X122.750 Y50.125
G1 X122.625 Y50.000
G1 X122.500 Y49.875
G1 X122.250 Y49.875
G1 X122.000 Y49.875
G1 X121.750 Y49.875
G1 X121.500 Y49.875
G1 X121.250 Y49.875
G1 X121.125 Y50.000
G1 X121.000 Y50.125
G1 X120.875 Y50.250
G1 X120.750 Y50.375
G1 X120.625 Y50.500
G1 X120.500 Y50.625
G1 X120.375 Y50.750
G1 X120.250 Y50.875
G1 X120.125 Y51.000
G1 X120.125 Y51.250
G1 X120.125 Y51.500
G1 X120.125 Y51.750
G1 X120.125 Y52.000
G1 X120.125 Y52.250
G1 X120.125 Y52.500
G1 X120.250 Y52.625
G1 X120.375 Y52.750
G1 X120.500 Y52.875
G1 X120.625 Y53.000
G1 X120.750 Y53.125
G1 X120.875 Y53.250
G1 X121.000 Y53.375
G1 X121.125 Y53.500
G0 Z2.000 F3000
M400
M204 P600 T600
G1 F1300
G0 X115.625 Y57.000 Z2.000
M400
M204 P200 T200
G1 F600
G1 Z0.000 F2500
G1 X115.750 Y57.125
G1 X116.000 Y57.125
G1 X116.250 Y57.125
G1 X116.500 Y57.125
G1 X116.750 Y57.125
G1 X117.000 Y57.125
G1 X117.250 Y57.125
G1 X117.375 Y57.000
G1 X117.500 Y56.875
G1 X117.750 Y56.875
G1 X117.875 Y56.750
G1 X118.000 Y56.625
G1 X118.125 Y56.500
G1 X118.125 Y56.250
G1 X118.250 Y56.125
G1 X118.375 Y56.000
G1 X118.375 Y55.750
G1 X118.375 Y55.500
G1 X118.375 Y55.250
G1 X118.375 Y55.000
G1 X118.375 Y54.750
G1 X118.250 Y54.625
G1 X118.125 Y54.500
G1 X118.125 Y54.250
G1 X118.000 Y54.125
G1 X117.875 Y54.000
G1 X117.750 Y53.875
G1 X117.500 Y53.875
G1 X117.375 Y53.750
G1 X117.250 Y53.625
G1 X117.000 Y53.625
G1 X116.750 Y53.625
G1 X116.500 Y53.625
G1 X116.250 Y53.625
G1 X116.000 Y53.625
G1 X115.750 Y53.625
G1 X115.625 Y53.750
G1 X115.500 Y53.875
G1 X115.375 Y54.000
G1 X115.250 Y54.125
G1 X115.125 Y54.250
G1 X115.000 Y54.375
G1 X114.875 Y54.500
G1 X114.875 Y54.750
G1 X114.875 Y55.000
G1 X114.750 Y55.125
G1 X114.625 Y55.250
G1 X114.625 Y55.500
G1 X114.750 Y55.625
G1 X114.875 Y55.750
G1 X114.875 Y56.000
G1 X114.875 Y56.250
G1 X115.000 Y56.375
G1 X115.125 Y56.500
G1 X115.250 Y56.625
G1 X115.375 Y56.750
G1 X115.500 Y56.875
G1 X115.625 Y57.000
G0 Z2.000 F3000
M400
M204 P600 T600
G1 F1300
G0 X110.125 Y54.250 Z2.000
M400
M204 P200 T200
G1 F600
G1 Z0.000 F2500
G1 X110.250 Y54.375
G1 X110.500 Y54.375
G1 X110.750 Y54.375
G1 X111.000 Y54.375
G1 X111.250 Y54.375
G1 X111.375 Y54.250
G1 X111.500 Y54.125
G1 X111.750 Y54.125
G1 X111.875 Y54.000
G1 X112.000 Y53.875
G1 X112.125 Y53.750
G1 X112.250 Y53.625
G1 X112.375 Y53.500
G1 X112.375 Y53.250
G1 X112.500 Y53.125
G1 X112.625 Y53.000
G1 X112.625 Y52.750
G1 X112.625 Y52.500
G1 X112.625 Y52.250
G1 X112.625 Y52.000
G1 X112.500 Y51.875
G1 X112.375 Y51.750
G1 X112.375 Y51.500
G1 X112.250 Y51.375
G1 X112.125 Y51.250
G1 X112.000 Y51.125
G1 X111.875 Y51.000
G1 X111.750 Y50.875
G1 X111.500 Y50.875
G1 X111.375 Y50.750
G1 X111.250 Y50.625
G1 X111.000 Y50.625
G0 Z2.000 F3000

; --- CIKEL NAMAKANJA ---
G0 Z2.000 F3000
M400
M204 P600 T600
G1 F1300
G0 X55.169 Y3.186 Z8.000
G1 Z1.000 F3000
G1 X55.169 Y3.186 F2500
G1 X55.169 Y4.936 F2500
G1 X51.669 Y3.186 F2500
G1 X55.169 Y0.000 F2500
G0 Z3.000 F3000
G0 X73.297 Y13.986
G0 Z8.000 F3000
G0 X110.750 Y50.625 Z2.000
M400
M204 P200 T200
G1 F600
G1 Z0.000 F2500
G1 X110.750 Y50.625
G1 X110.500 Y50.625
G1 X110.250 Y50.625
G1 X110.125 Y50.750
G1 X110.000 Y50.875
G1 X109.750 Y50.875
G1 X109.625 Y51.000
G1 X109.500 Y51.125
G1 X109.375 Y51.250
G1 X109.250 Y51.375
G1 X109.125 Y51.500
G1 X109.125 Y51.750
G1 X109.000 Y51.875
G1 X108.875 Y52.000
G1 X108.875 Y52.250
G1 X108.875 Y52.500
G1 X108.875 Y52.750
G1 X108.875 Y53.000
G1 X109.000 Y53.125
G1 X109.125 Y53.250
G1 X109.125 Y53.500
G1 X109.250 Y53.625
G1 X109.375 Y53.750
G1 X109.500 Y53.875
G1 X109.625 Y54.000
G1 X109.750 Y54.125
G1 X110.000 Y54.125
G1 X110.125 Y54.250
G0 Z2.000 F3000
M400
M204 P600 T600
G1 F1300
G0 X105.125 Y58.000 Z2.000
M400
M204 P200 T200
G1 F600
G1 Z0.000 F2500
G1 X105.250 Y58.125
G1 X105.500 Y58.125
G1 X105.625 Y58.000
G1 X105.750 Y57.875
G1 X106.000 Y57.875
G1 X106.250 Y57.875
G1 X106.375 Y57.750
G1 X106.500 Y57.625
G1 X106.625 Y57.500
G1 X106.750 Y57.375
G1 X106.875 Y57.250
G1 X107.000 Y57.125
G1 X107.125 Y57.000
G1 X107.125 Y56.750
G1 X107.125 Y56.500
G1 X107.125 Y56.250
G1 X107.125 Y56.000
G1 X107.125 Y55.750
G1 X107.125 Y55.500
G1 X107.000 Y55.375
G1 X106.875 Y55.250
G1 X106.875 Y55.000
G1 X106.750 Y54.875
G1 X106.625 Y54.750
G1 X106.500 Y54.625
G1 X106.250 Y54.625
G1 X106.125 Y54.500
G1 X106.000 Y54.375
G1 X105.750 Y54.375
G1 X105.500 Y54.375
G1 X105.250 Y54.375
G1 X105.000 Y54.375
G1 X104.750 Y54.375
G1 X104.625 Y54.500
G1 X104.500 Y54.625
G1 X104.250 Y54.625
G1 X104.125 Y54.750
G1 X104.000 Y54.875
G1 X103.875 Y55.000
G1 X103.875 Y55.250
G1 X103.750 Y55.375
G1 X103.625 Y55.500
G1 X103.625 Y55.750
G1 X103.625 Y56.000
G1 X103.625 Y56.250
G1 X103.625 Y56.500
G1 X103.625 Y56.750
G1 X103.625 Y57.000
G1 X103.750 Y57.125
G1 X103.875 Y57.250
G1 X104.000 Y57.375
G1 X104.125 Y57.500
G1 X104.250 Y57.625
G1 X104.375 Y57.750
G1 X104.500 Y57.875
G1 X104.750 Y57.875
G1 X105.000 Y57.875
G1 X105.125 Y58.000
G0 Z2.000 F3000
M400
M204 P600 T600
G1 F1300
G0 X110.625 Y60.750 Z2.000
M400
M204 P200 T200
G1 F600
G1 Z0.000 F2500
G1 X110.750 Y60.875
G1 X111.000 Y60.875
G1 X111.250 Y60.875
G1 X111.500 Y60.875
G1 X111.750 Y60.875
G1 X111.875 Y60.750
G1 X112.000 Y60.625
G1 X112.250 Y60.625
G1 X112.375 Y60.500
G1 X112.500 Y60.375
G1 X112.625 Y60.250
G1 X112.625 Y60.000
G1 X112.750 Y59.875
G1 X112.875 Y59.750
G1 X112.875 Y59.500
G1 X113.000 Y59.375
G1 X113.125 Y59.250
G1 X113.125 Y59.000
G1 X113.125 Y58.750
G1 X113.000 Y58.625
G1 X112.875 Y58.500
G1 X112.875 Y58.250
G1 X112.750 Y58.125
G1 X112.625 Y58.000
G1 X112.625 Y57.750
G1 X112.500 Y57.625
G1 X112.250 Y57.625
G1 X112.125 Y57.500
G1 X112.000 Y57.375
G1 X111.750 Y57.375
G1 X111.625 Y57.250
G1 X111.500 Y57.125
G1 X111.250 Y57.125
G1 X111.000 Y57.125
G1 X110.750 Y57.125
G1 X110.625 Y57.250
G1 X110.500 Y57.375
G1 X110.250 Y57.375
G1 X110.125 Y57.500
G1 X110.000 Y57.625
G1 X109.875 Y57.750
G1 X109.750 Y57.875
G1 X109.625 Y58.000
G1 X109.625 Y58.250
G1 X109.500 Y58.375
G1 X109.375 Y58.500
G1 X109.375 Y58.750
G1 X109.375 Y59.000
G1 X109.375 Y59.250
G1 X109.375 Y59.500
G1 X109.500 Y59.625
G1 X109.625 Y59.750
G1 X109.625 Y60.000
G1 X109.750 Y60.125
G1 X109.875 Y60.250
G1 X110.000 Y60.375
G1 X110.125 Y60.500
G1 X110.250 Y60.625
G1 X110.500 Y60.625
G1 X110.625 Y60.750
G0 Z2.000 F3000
M400
M204 P600 T600
G1 F1300
G0 X116.125 Y63.500 Z2.000
M400
M204 P200 T200
G1 F600
G1 Z0.000 F2500
G1 X116.250 Y63.625
G1 X116.500 Y63.625
G1 X116.750 Y63.625
G1 X117.000 Y63.625
G1 X117.250 Y63.625
G1 X117.500 Y63.625
G1 X117.750 Y63.625
G1 X117.875 Y63.500
G1 X118.000 Y63.375
G1 X118.250 Y63.375
G1 X118.375 Y63.250
G1 X118.375 Y63.000
G1 X118.500 Y62.875
G1 X118.625 Y62.750
G1 X118.750 Y62.625
G1 X118.875 Y62.500
G1 X118.875 Y62.250
G1 X118.875 Y62.000
G1 X118.875 Y61.750
G1 X118.875 Y61.500
G1 X118.875 Y61.250
G1 X118.750 Y61.125
G1 X118.625 Y61.000
G1 X118.625 Y60.750
G1 X118.500 Y60.625
G1 X118.375 Y60.500
G1 X118.250 Y60.375
G1 X118.000 Y60.375
G1 X117.875 Y60.250
G1 X117.750 Y60.125
G1 X117.500 Y60.125
G1 X117.250 Y60.125
G1 X117.000 Y60.125
G1 X116.750 Y60.125
G1 X116.500 Y60.125
G1 X116.250 Y60.125
G1 X116.125 Y60.250
G1 X116.000 Y60.375
G1 X115.875 Y60.500
G1 X115.750 Y60.625
G1 X115.625 Y60.750
G1 X115.500 Y60.875
G1 X115.375 Y61.000
G1 X115.375 Y61.250
G1 X115.250 Y61.375
G1 X115.125 Y61.500
G1 X115.125 Y61.750
G1 X115.125 Y62.000
G1 X115.125 Y62.250
G1 X115.250 Y62.375
G1 X115.375 Y62.500
G1 X115.375 Y62.750
G1 X115.500 Y62.875
G1 X115.625 Y63.000
G1 X115.750 Y63.125
G1 X115.875 Y63.250
G1 X116.000 Y63.375
G1 X116.125 Y63.500
G0 Z2.000 F3000
M400
M204 P600 T600
G1 F1300
G0 X111.375 Y67.250 Z2.000
M400
M204 P200 T200
G1 F600
G1 Z0.000 F2500
G1 X111.500 Y67.375
G1 X111.750 Y67.375
G1 X111.875 Y67.250
G1 X112.000 Y67.125
G1 X112.250 Y67.125
G1 X112.500 Y67.125
G1 X112.625 Y67.000
G1 X112.750 Y66.875
G1 X112.875 Y66.750
G1 X113.000 Y66.625
G1 X113.125 Y66.500
G1 X113.250 Y66.375
G1 X113.375 Y66.250
G1 X113.375 Y66.000
G1 X113.375 Y65.750
G1 X113.375 Y65.500
G1 X113.375 Y65.250
G1 X113.375 Y65.000
G1 X113.375 Y64.750
G1 X113.250 Y64.625
G1 X113.125 Y64.500
G1 X113.000 Y64.375
G1 X112.875 Y64.250
G1 X112.750 Y64.125
G1 X112.625 Y64.000
G1 X112.500 Y63.875
G1 X112.250 Y63.875
G1 X112.125 Y63.750
G1 X112.000 Y63.625
G1 X111.750 Y63.625
G1 X111.500 Y63.625
G1 X111.375 Y63.750
G1 X111.250 Y63.875
G1 X111.000 Y63.875
G1 X110.750 Y63.875
G1 X110.625 Y64.000
G1 X110.500 Y64.125
G1 X110.375 Y64.250
G1 X110.250 Y64.375
G1 X110.125 Y64.500
G1 X110.125 Y64.750
G1 X110.000 Y64.875
G1 X109.875 Y65.000
G1 X109.875 Y65.250
G1 X109.875 Y65.500
G1 X109.875 Y65.750
G1 X109.875 Y66.000
G1 X110.000 Y66.125
G1 X110.125 Y66.250
G1 X110.125 Y66.500
G1 X110.250 Y66.625
G1 X110.375 Y66.750
G1 X110.500 Y66.875
G1 X110.625 Y67.000
G1 X110.750 Y67.125
G1 X111.000 Y67.125
G1 X111.250 Y67.125
G1 X111.375 Y67.250
G0 Z2.000 F3000
M400
M204 P600 T600
G1 F1300
G0 X116.875 Y70.000 Z2.000
M400
M204 P200 T200
G1 F600
G1 Z0.000 F2500
G1 X117.000 Y70.125
G1 X117.250 Y70.125
G1 X117.500 Y70.125
G1 X117.750 Y70.125
G1 X118.000 Y70.125
G1 X118.125 Y70.000
G1 X118.250 Y69.875
G1 X118.500 Y69.875
G1 X118.625 Y69.750
G1 X118.750 Y69.625
G1 X118.875 Y69.500
G1 X119.000 Y69.375
G1 X119.125 Y69.250
G1 X119.125 Y69.000
G1 X119.250 Y68.875
G1 X119.375 Y68.750
G1 X119.375 Y68.500
G1 X119.375 Y68.250
G1 X119.375 Y68.000
G1 X119.250 Y67.875
G1 X119.125 Y67.750
G1 X119.125 Y67.500
G1 X119.000 Y67.375
G1 X118.875 Y67.250
G1 X118.750 Y67.125
G1 X118.625 Y67.000
G1 X118.500 Y66.875
G1 X118.375 Y66.750
G1 X118.250 Y66.625
G1 X118.000 Y66.625
G1 X117.750 Y66.625
G1 X117.500 Y66.625
G1 X117.250 Y66.625
G1 X117.000 Y66.625
G1 X116.750 Y66.625
G1 X116.625 Y66.750
G1 X116.500 Y66.875
G1 X116.375 Y67.000
G1 X116.250 Y67.125
G1 X116.125 Y67.250
G1 X116.000 Y67.375
G1 X115.875 Y67.500
G1 X115.875 Y67.750
G1 X115.750 Y67.875
G1 X115.625 Y68.000
G1 X115.625 Y68.250
G1 X115.625 Y68.500
G1 X115.625 Y68.750
G1 X115.750 Y68.875
G1 X115.875 Y69.000
G1 X115.875 Y69.250
G1 X116.000 Y69.375
G1 X116.125 Y69.500
G1 X116.250 Y69.625
G1 X116.375 Y69.750
G1 X116.500 Y69.875
G1 X116.750 Y69.875
G1 X116.875 Y70.000
G0 Z2.000 F3000
M400
M204 P600 T600
G1 F1300
G0 X122.375 Y72.750 Z2.000
M400
M204 P200 T200
G1 F600
G1 Z0.000 F2500
G1 X122.500 Y72.875
G1 X122.750 Y72.875
G1 X123.000 Y72.875
G1 X123.250 Y72.875
G1 X123.500 Y72.875
G1 X123.750 Y72.875
G1 X124.000 Y72.875
G1 X124.125 Y72.750
G1 X124.250 Y72.625
G1 X124.500 Y72.625
G1 X124.625 Y72.500
G1 X124.750 Y72.375
G1 X124.875 Y72.250
G1 X124.875 Y72.000
G1 X125.000 Y71.875
G1 X125.125 Y71.750
G1 X125.125 Y71.500
G1 X125.125 Y71.250
G1 X125.125 Y71.000
G1 X125.125 Y70.750
G1 X125.000 Y70.625
G1 X124.875 Y70.500
G1 X124.875 Y70.250
G1 X124.750 Y70.125
G1 X124.625 Y70.000
G1 X124.500 Y69.875
G1 X124.375 Y69.750
G1 X124.250 Y69.625
G1 X124.000 Y69.625
G1 X123.875 Y69.500
G1 X123.750 Y69.375
G1 X123.500 Y69.375
G1 X123.250 Y69.375
G1 X123.000 Y69.375
G1 X122.875 Y69.500
G1 X122.750 Y69.625
G1 X122.500 Y69.625
G1 X122.375 Y69.750
G1 X122.250 Y69.875
G1 X122.125 Y70.000
G1 X122.000 Y70.125
G1 X121.875 Y70.250
G1 X121.750 Y70.375
G1 X121.625 Y70.500
G1 X121.625 Y70.750
G1 X121.625 Y71.000
G1 X121.625 Y71.250
G1 X121.625 Y71.500
G1 X121.625 Y71.750
G1 X121.625 Y72.000
G1 X121.750 Y72.125
G1 X121.875 Y72.250
G1 X122.000 Y72.375
G1 X122.125 Y72.500
G1 X122.250 Y72.625
G1 X122.375 Y72.750
G0 Z2.000 F3000
M400
M204 P600 T600
G1 F1300
G0 X117.625 Y76.500 Z2.000
M400
M204 P200 T200
G1 F600
G1 Z0.000 F2500
G1 X117.750 Y76.625
G1 X118.000 Y76.625
G1 X118.250 Y76.625
G1 X118.375 Y76.500
G1 X118.500 Y76.375
G1 X118.750 Y76.375
G1 X118.875 Y76.250
G1 X119.000 Y76.125
G1 X119.125 Y76.000
G1 X119.250 Y75.875
G1 X119.375 Y75.750
G1 X119.500 Y75.625
G1 X119.625 Y75.500
G1 X119.625 Y75.250
G1 X119.625 Y75.000
G1 X119.625 Y74.750
G1 X119.625 Y74.500
G1 X119.625 Y74.250
G1 X119.500 Y74.125
G1 X119.375 Y74.000
G1 X119.375 Y73.750
G1 X119.250 Y73.625
G1 X119.125 Y73.500
G1 X119.000 Y73.375
G1 X118.750 Y73.375
G1 X118.625 Y73.250
G1 X118.500 Y73.125
G1 X118.250 Y73.125
G0 Z2.000 F3000

; --- CIKEL NAMAKANJA ---
G0 Z2.000 F3000
M400
M204 P600 T600
G1 F1300
G0 X64.973 Y0.000 Z8.000
G1 Z1.000 F3000
G1 X64.973 Y0.000 F2500
G1 X64.973 Y1.750 F2500
G1 X61.473 Y0.000 F2500
G1 X64.973 Y0.000 F2500
G0 Z3.000 F3000
G0 X71.559 Y15.565
G0 Z8.000 F3000
G0 X118.000 Y73.125 Z2.000
M400
M204 P200 T200
G1 F600
G1 Z0.000 F2500
G1 X118.000 Y73.125
G1 X117.750 Y73.125
G1 X117.500 Y73.125
G1 X117.250 Y73.125
G1 X117.125 Y73.250
G1 X117.000 Y73.375
G1 X116.875 Y73.500
G1 X116.750 Y73.625
G1 X116.625 Y73.750
G1 X116.500 Y73.875
G1 X116.375 Y74.000
G1 X116.375 Y74.250
G1 X116.250 Y74.375
G1 X116.125 Y74.500
G1 X116.125 Y74.750
G1 X116.125 Y75.000
G1 X116.250 Y75.125
G1 X116.375 Y75.250
G1 X116.375 Y75.500
G1 X116.375 Y75.750
G1 X116.500 Y75.875
G1 X116.625 Y76.000
G1 X116.750 Y76.125
G1 X116.875 Y76.250
G1 X117.000 Y76.375
G1 X117.250 Y76.375
G1 X117.500 Y76.375
G1 X117.625 Y76.500
G0 Z2.000 F3000
M400
M204 P600 T600
G1 F1300
G0 X123.125 Y79.250 Z2.000
M400
M204 P200 T200
G1 F600
G1 Z0.000 F2500
G1 X123.250 Y79.375
G1 X123.500 Y79.375
G1 X123.750 Y79.375
G1 X124.000 Y79.375
G1 X124.250 Y79.375
G1 X124.375 Y79.250
G1 X124.500 Y79.125
G1 X124.750 Y79.125
G1 X124.875 Y79.000
G1 X125.000 Y78.875
G1 X125.125 Y78.750
G1 X125.250 Y78.625
G1 X125.375 Y78.500
G1 X125.375 Y78.250
G1 X125.375 Y78.000
G1 X125.375 Y77.750
G1 X125.375 Y77.500
G1 X125.375 Y77.250
G1 X125.375 Y77.000
G1 X125.250 Y76.875
G1 X125.125 Y76.750
G1 X125.125 Y76.500
G1 X125.000 Y76.375
G1 X124.750 Y76.375
G1 X124.625 Y76.250
G1 X124.500 Y76.125
G1 X124.250 Y76.125
G1 X124.125 Y76.000
G1 X124.000 Y75.875
G1 X123.750 Y75.875
G1 X123.500 Y75.875
G1 X123.375 Y76.000
G1 X123.250 Y76.125
G1 X123.000 Y76.125
G1 X122.875 Y76.250
G1 X122.750 Y76.375
G1 X122.625 Y76.500
G1 X122.500 Y76.625
G1 X122.375 Y76.750
G1 X122.250 Y76.875
G1 X122.125 Y77.000
G1 X122.125 Y77.250
G1 X122.125 Y77.500
G1 X122.125 Y77.750
G1 X122.125 Y78.000
G1 X122.125 Y78.250
G1 X122.250 Y78.375
G1 X122.375 Y78.500
G1 X122.375 Y78.750
G1 X122.500 Y78.875
G1 X122.625 Y79.000
G1 X122.750 Y79.125
G1 X123.000 Y79.125
G1 X123.125 Y79.250
G0 Z2.000 F3000
M400
M204 P600 T600
G1 F1300
G0 X128.875 Y82.000 Z2.000
M400
M204 P200 T200
G1 F600
G1 Z0.000 F2500
G1 X129.000 Y82.125
G1 X129.250 Y82.125
G1 X129.500 Y82.125
G1 X129.750 Y82.125
G1 X130.000 Y82.125
G1 X130.250 Y82.125
G1 X130.375 Y82.000
G1 X130.500 Y81.875
G1 X130.750 Y81.875
G1 X130.875 Y81.750
G1 X130.875 Y81.500
G1 X131.000 Y81.375
G1 X131.125 Y81.250
G1 X131.125 Y81.000
G1 X131.250 Y80.875
G1 X131.375 Y80.750
G1 X131.375 Y80.500
G1 X131.375 Y80.250
G1 X131.250 Y80.125
G1 X131.125 Y80.000
G1 X131.125 Y79.750
G1 X131.000 Y79.625
G1 X130.875 Y79.500
G1 X130.750 Y79.375
G1 X130.625 Y79.250
G1 X130.500 Y79.125
G1 X130.375 Y79.000
G1 X130.250 Y78.875
G1 X130.000 Y78.875
G1 X129.750 Y78.875
G1 X129.500 Y78.875
G1 X129.250 Y78.875
G1 X129.000 Y78.875
G1 X128.875 Y79.000
G1 X128.750 Y79.125
G1 X128.625 Y79.250
G1 X128.500 Y79.375
G1 X128.375 Y79.500
G1 X128.250 Y79.625
G1 X128.125 Y79.750
G1 X128.125 Y80.000
G1 X128.000 Y80.125
G1 X127.875 Y80.250
G1 X127.875 Y80.500
G1 X127.875 Y80.750
G1 X128.000 Y80.875
G1 X128.125 Y81.000
G1 X128.125 Y81.250
G1 X128.250 Y81.375
G1 X128.375 Y81.500
G1 X128.375 Y81.750
G1 X128.500 Y81.875
G1 X128.750 Y81.875
G1 X128.875 Y82.000
G0 Z2.000 F3000
M400
M204 P600 T600
G1 F1300
G0 X128.875 Y75.750 Z2.000
M400
M204 P200 T200
G1 F600
G1 Z0.000 F2500
G1 X129.000 Y75.875
G1 X129.250 Y75.875
G1 X129.375 Y75.750
G1 X129.500 Y75.625
G1 X129.750 Y75.625
G1 X130.000 Y75.625
G1 X130.125 Y75.500
G1 X130.250 Y75.375
G1 X130.375 Y75.250
G1 X130.500 Y75.125
G1 X130.625 Y75.000
G1 X130.750 Y74.875
G1 X130.875 Y74.750
G1 X130.875 Y74.500
G1 X130.875 Y74.250
G1 X130.875 Y74.000
G1 X130.875 Y73.750
G1 X130.875 Y73.500
G1 X130.750 Y73.375
G1 X130.625 Y73.250
G1 X130.625 Y73.000
G1 X130.500 Y72.875
G1 X130.375 Y72.750
G1 X130.250 Y72.625
G1 X130.000 Y72.625
G1 X129.875 Y72.500
G1 X129.750 Y72.375
G1 X129.500 Y72.375
G1 X129.250 Y72.375
G1 X129.000 Y72.375
G1 X128.750 Y72.375
G1 X128.500 Y72.375
G1 X128.375 Y72.500
G1 X128.250 Y72.625
G1 X128.125 Y72.750
G1 X128.000 Y72.875
G1 X127.875 Y73.000
G1 X127.750 Y73.125
G1 X127.625 Y73.250
G1 X127.625 Y73.500
G1 X127.500 Y73.625
G1 X127.375 Y73.750
G1 X127.375 Y74.000
G1 X127.375 Y74.250
G1 X127.375 Y74.500
G1 X127.500 Y74.625
G1 X127.625 Y74.750
G1 X127.625 Y75.000
G1 X127.750 Y75.125
G1 X127.875 Y75.250
G1 X128.000 Y75.375
G1 X128.125 Y75.500
G1 X128.250 Y75.625
G1 X128.500 Y75.625
G1 X128.750 Y75.625
G1 X128.875 Y75.750
G0 Z2.000 F3000
M400
M204 P600 T600
G1 F1300
G0 X133.625 Y72.000 Z2.000
M400
M204 P200 T200
G1 F600
G1 Z0.000 F2500
G1 X133.750 Y72.125
G1 X134.000 Y72.125
G1 X134.250 Y72.125
G1 X134.500 Y72.125
G1 X134.750 Y72.125
G1 X135.000 Y72.125
G1 X135.250 Y72.125
G1 X135.375 Y72.000
G1 X135.500 Y71.875
G1 X135.750 Y71.875
G1 X135.875 Y71.750
G1 X135.875 Y71.500
G1 X136.000 Y71.375
G1 X136.125 Y71.250
G1 X136.250 Y71.125
G1 X136.375 Y71.000
G1 X136.375 Y70.750
G1 X136.375 Y70.500
G1 X136.375 Y70.250
G1 X136.375 Y70.000
G1 X136.250 Y69.875
G1 X136.125 Y69.750
G1 X136.125 Y69.500
G1 X136.000 Y69.375
G1 X135.875 Y69.250
G1 X135.750 Y69.125
G1 X135.625 Y69.000
G1 X135.500 Y68.875
G1 X135.375 Y68.750
G1 X135.250 Y68.625
G1 X135.000 Y68.625
G1 X134.750 Y68.625
G1 X134.500 Y68.625
G1 X134.250 Y68.625
G1 X134.000 Y68.625
G1 X133.875 Y68.750
G1 X133.750 Y68.875
G1 X133.500 Y68.875
G1 X133.375 Y69.000
G1 X133.250 Y69.125
G1 X133.125 Y69.250
G1 X133.125 Y69.500
G1 X133.000 Y69.625
G1 X132.875 Y69.750
G1 X132.875 Y70.000
G1 X132.875 Y70.250
G1 X132.875 Y70.500
G1 X132.875 Y70.750
G1 X132.875 Y71.000
G1 X132.875 Y71.250
G1 X133.000 Y71.375
G1 X133.125 Y71.500
G1 X133.250 Y71.625
G1 X133.375 Y71.750
G1 X133.500 Y71.875
G1 X133.625 Y72.000
G0 Z2.000 F3000
M400
M204 P600 T600
G1 F1300
G0 X128.125 Y69.250 Z2.000
M400
M204 P200 T200
G1 F600
G1 Z0.000 F2500
G1 X128.250 Y69.375
G1 X128.500 Y69.375
G1 X128.750 Y69.375
G1 X129.000 Y69.375
G1 X129.250 Y69.375
G1 X129.375 Y69.250
G1 X129.500 Y69.125
G1 X129.750 Y69.125
G1 X129.875 Y69.000
G1 X130.000 Y68.875
G1 X130.125 Y68.750
G1 X130.250 Y68.625
G1 X130.375 Y68.500
G1 X130.375 Y68.250
G1 X130.375 Y68.000
G1 X130.500 Y67.875
G1 X130.625 Y67.750
G1 X130.625 Y67.500
G1 X130.500 Y67.375
G1 X130.375 Y67.250
G1 X130.375 Y67.000
G1 X130.375 Y66.750
G1 X130.250 Y66.625
G1 X130.125 Y66.500
G1 X130.000 Y66.375
G1 X129.875 Y66.250
G1 X129.750 Y66.125
G1 X129.625 Y66.000
G1 X129.500 Y65.875
G1 X129.250 Y65.875
G1 X129.000 Y65.875
G1 X128.750 Y65.875
G1 X128.500 Y65.875
G1 X128.250 Y65.875
G1 X128.000 Y65.875
G1 X127.875 Y66.000
G1 X127.750 Y66.125
G1 X127.500 Y66.125
G1 X127.375 Y66.250
G1 X127.375 Y66.500
G1 X127.250 Y66.625
G1 X127.125 Y66.750
G1 X127.125 Y67.000
G1 X127.000 Y67.125
G1 X126.875 Y67.250
G1 X126.875 Y67.500
G1 X126.875 Y67.750
G1 X126.875 Y68.000
G1 X127.000 Y68.125
G1 X127.125 Y68.250
G1 X127.125 Y68.500
G1 X127.250 Y68.625
G1 X127.375 Y68.750
G1 X127.500 Y68.875
G1 X127.625 Y69.000
G1 X127.750 Y69.125
G1 X128.000 Y69.125
G1 X128.125 Y69.250
G0 Z2.000 F3000
M400
M204 P600 T600
G1 F1300
G0 X122.625 Y66.500 Z2.000
M400
M204 P200 T200
G1 F600
G1 Z0.000 F2500
G1 X122.750 Y66.625
G1 X123.000 Y66.625
G1 X123.125 Y66.500
G1 X123.250 Y66.375
G1 X123.500 Y66.375
G1 X123.750 Y66.375
G1 X123.875 Y66.250
G1 X124.000 Y66.125
G1 X124.125 Y66.000
G1 X124.250 Y65.875
G1 X124.375 Y65.750
G1 X124.500 Y65.625
G1 X124.625 Y65.500
G1 X124.625 Y65.250
G1 X124.625 Y65.000
G1 X124.625 Y64.750
G1 X124.625 Y64.500
G1 X124.625 Y64.250
G1 X124.625 Y64.000
G1 X124.500 Y63.875
G1 X124.375 Y63.750
G1 X124.250 Y63.625
G1 X124.125 Y63.500
G1 X124.000 Y63.375
G1 X123.875 Y63.250
G1 X123.750 Y63.125
G1 X123.625 Y63.000
G1 X123.500 Y62.875
G1 X123.250 Y62.875
G1 X123.000 Y62.875
G1 X122.750 Y62.875
G1 X122.500 Y62.875
G1 X122.250 Y62.875
G1 X122.125 Y63.000
G1 X122.000 Y63.125
G1 X121.875 Y63.250
G1 X121.750 Y63.375
G1 X121.625 Y63.500
G1 X121.500 Y63.625
G1 X121.375 Y63.750
G1 X121.250 Y63.875
G1 X121.125 Y64.000
G1 X121.125 Y64.250
G1 X121.125 Y64.500
G1 X121.125 Y64.750
G1 X121.125 Y65.000
G1 X121.125 Y65.250
G1 X121.125 Y65.500
G1 X121.250 Y65.625
G1 X121.375 Y65.750
G1 X121.500 Y65.875
G1 X121.625 Y66.000
G1 X121.750 Y66.125
G1 X121.875 Y66.250
G1 X122.000 Y66.375
G1 X122.250 Y66.375
G1 X122.500 Y66.375
G1 X122.625 Y66.500
G0 Z2.000 F3000
M400
M204 P600 T600
G1 F1300
G0 X127.375 Y62.750 Z2.000
M400
M204 P200 T200
G1 F600
G1 Z0.000 F2500
G1 X127.500 Y62.875
G1 X127.750 Y62.875
G1 X128.000 Y62.875
G1 X128.250 Y62.875
G1 X128.500 Y62.875
G1 X128.750 Y62.875
G1 X129.000 Y62.875
G1 X129.125 Y62.750
G1 X129.250 Y62.625
G1 X129.375 Y62.500
G1 X129.500 Y62.375
G1 X129.625 Y62.250
G1 X129.750 Y62.125
G1 X129.875 Y62.000
G1 X130.000 Y61.875
G1 X130.125 Y61.750
G1 X130.125 Y61.500
G1 X130.125 Y61.250
G1 X130.125 Y61.000
G1 X130.125 Y60.750
G1 X130.125 Y60.500
G1 X130.000 Y60.375
G1 X129.875 Y60.250
G1 X129.875 Y60.000
G1 X129.750 Y59.875
G1 X129.625 Y59.750
G1 X129.500 Y59.625
G1 X129.375 Y59.500
G1 X129.250 Y59.375
G1 X129.000 Y59.375
G1 X128.750 Y59.375
G1 X128.625 Y59.250
G1 X128.500 Y59.125
G1 X128.250 Y59.125
G1 X128.000 Y59.125
G1 X127.875 Y59.250
G1 X127.750 Y59.375
G0 Z2.000 F3000

; --- CIKEL NAMAKANJA ---
G0 Z2.000 F3000
M400
M204 P600 T600
G1 F1300
G0 X60.302 Y0.000 Z8.000
G1 Z1.000 F3000
G1 X60.302 Y0.000 F2500
G1 X60.302 Y1.750 F2500
G1 X56.802 Y0.000 F2500
G1 X60.302 Y0.000 F2500
G0 Z3.000 F3000
G0 X74.113 Y13.100
G0 Z8.000 F3000
G0 X127.500 Y59.375 Z2.000
M400
M204 P200 T200
G1 F600
G1 Z0.000 F2500
G1 X127.500 Y59.375
G1 X127.375 Y59.500
G1 X127.250 Y59.625
G1 X127.000 Y59.625
G1 X126.875 Y59.750
G1 X126.750 Y59.875
G1 X126.625 Y60.000
G1 X126.625 Y60.250
G1 X126.500 Y60.375
G1 X126.375 Y60.500
G1 X126.375 Y60.750
G1 X126.375 Y61.000
G1 X126.375 Y61.250
G1 X126.375 Y61.500
G1 X126.500 Y61.625
G1 X126.625 Y61.750
G1 X126.625 Y62.000
G1 X126.750 Y62.125
G1 X126.875 Y62.250
G1 X127.000 Y62.375
G1 X127.125 Y62.500
G1 X127.250 Y62.625
G1 X127.375 Y62.750
G0 Z2.000 F3000
M400
M204 P600 T600
G1 F1300
G0 X121.875 Y60.000 Z2.000
M400
M204 P200 T200
G1 F600
G1 Z0.000 F2500
G1 X122.000 Y60.125
G1 X122.250 Y60.125
G1 X122.500 Y60.125
G1 X122.750 Y60.125
G1 X123.000 Y60.125
G1 X123.125 Y60.000
G1 X123.250 Y59.875
G1 X123.500 Y59.875
G1 X123.625 Y59.750
G1 X123.750 Y59.625
G1 X123.875 Y59.500
G1 X124.000 Y59.375
G1 X124.125 Y59.250
G1 X124.125 Y59.000
G1 X124.125 Y58.750
G1 X124.250 Y58.625
G1 X124.375 Y58.500
G1 X124.375 Y58.250
G1 X124.375 Y58.000
G1 X124.375 Y57.750
G1 X124.250 Y57.625
G1 X124.125 Y57.500
G1 X124.125 Y57.250
G1 X124.000 Y57.125
G1 X123.875 Y57.000
G1 X123.750 Y56.875
G1 X123.625 Y56.750
G1 X123.500 Y56.625
G1 X123.250 Y56.625
G1 X123.125 Y56.500
G1 X123.000 Y56.375
G1 X122.750 Y56.375
G1 X122.500 Y56.375
G1 X122.250 Y56.375
G1 X122.000 Y56.375
G1 X121.750 Y56.375
G1 X121.625 Y56.500
G1 X121.500 Y56.625
G1 X121.375 Y56.750
G1 X121.250 Y56.875
G1 X121.000 Y56.875
G1 X120.875 Y57.000
G1 X120.875 Y57.250
G1 X120.750 Y57.375
G1 X120.625 Y57.500
G1 X120.625 Y57.750
G1 X120.625 Y58.000
G1 X120.625 Y58.250
G1 X120.625 Y58.500
G1 X120.625 Y58.750
G1 X120.625 Y59.000
G1 X120.750 Y59.125
G1 X120.875 Y59.250
G1 X121.000 Y59.375
G1 X121.125 Y59.500
G1 X121.250 Y59.625
G1 X121.375 Y59.750
G1 X121.500 Y59.875
G1 X121.750 Y59.875
G1 X121.875 Y60.000
G0 Z2.000 F3000
M400
M204 P600 T600
G1 F1300
G0 X127.625 Y56.500 Z2.000
M400
M204 P200 T200
G1 F600
G1 Z0.000 F2500
G1 X127.750 Y56.625
G1 X128.000 Y56.625
G1 X128.125 Y56.500
G1 X128.250 Y56.375
G1 X128.500 Y56.375
G1 X128.750 Y56.375
G1 X128.875 Y56.250
G1 X129.000 Y56.125
G1 X129.125 Y56.000
G1 X129.250 Y55.875
G1 X129.375 Y55.750
G1 X129.500 Y55.625
G1 X129.625 Y55.500
G1 X129.625 Y55.250
G1 X129.625 Y55.000
G1 X129.625 Y54.750
G1 X129.625 Y54.500
G1 X129.625 Y54.250
G1 X129.625 Y54.000
G1 X129.625 Y53.750
G1 X129.500 Y53.625
G1 X129.375 Y53.500
G1 X129.250 Y53.375
G1 X129.125 Y53.250
G1 X129.000 Y53.125
G1 X128.875 Y53.000
G1 X128.750 Y52.875
G1 X128.500 Y52.875
G1 X128.375 Y52.750
G1 X128.250 Y52.625
G1 X128.000 Y52.625
G1 X127.750 Y52.625
G1 X127.500 Y52.625
G1 X127.375 Y52.750
G1 X127.250 Y52.875
G1 X127.000 Y52.875
G1 X126.750 Y52.875
G1 X126.625 Y53.000
G1 X126.500 Y53.125
G1 X126.375 Y53.250
G1 X126.250 Y53.375
G1 X126.125 Y53.500
G1 X126.125 Y53.750
G1 X126.000 Y53.875
G1 X125.875 Y54.000
G1 X125.875 Y54.250
G1 X125.875 Y54.500
G1 X125.875 Y54.750
G1 X125.875 Y55.000
G1 X126.000 Y55.125
G1 X126.125 Y55.250
G1 X126.125 Y55.500
G1 X126.250 Y55.625
G1 X126.375 Y55.750
G1 X126.375 Y56.000
G1 X126.500 Y56.125
G1 X126.750 Y56.125
G1 X126.875 Y56.250
G1 X127.000 Y56.375
G1 X127.250 Y56.375
G1 X127.500 Y56.375
G1 X127.625 Y56.500
G0 Z2.000 F3000
M400
M204 P600 T600
G1 F1300
G0 X132.375 Y52.750 Z2.000
M400
M204 P200 T200
G1 F600
G1 Z0.000 F2500
G1 X132.500 Y52.875
G1 X132.750 Y52.875
G1 X133.000 Y52.875
G1 X133.250 Y52.875
G1 X133.500 Y52.875
G1 X133.750 Y52.875
G1 X133.875 Y52.750
G1 X134.000 Y52.625
G1 X134.250 Y52.625
G1 X134.375 Y52.500
G1 X134.500 Y52.375
G1 X134.625 Y52.250
G1 X134.750 Y52.125
G1 X134.875 Y52.000
G1 X134.875 Y51.750
G1 X135.000 Y51.625
G1 X135.125 Y51.500
G1 X135.125 Y51.250
G1 X135.125 Y51.000
G1 X135.125 Y50.750
G1 X135.125 Y50.500
G1 X135.125 Y50.250
G1 X135.000 Y50.125
G1 X134.875 Y50.000
G1 X134.750 Y49.875
G1 X134.625 Y49.750
G1 X134.500 Y49.625
G1 X134.375 Y49.500
G1 X134.250 Y49.375
G1 X134.125 Y49.250
G1 X134.000 Y49.125
G1 X133.750 Y49.125
G1 X133.500 Y49.125
G1 X133.250 Y49.125
G1 X133.000 Y49.125
G1 X132.750 Y49.125
G1 X132.500 Y49.125
G1 X132.375 Y49.250
G1 X132.250 Y49.375
G1 X132.000 Y49.375
G1 X131.875 Y49.500
G1 X131.750 Y49.625
G1 X131.625 Y49.750
G1 X131.625 Y50.000
G1 X131.500 Y50.125
G1 X131.375 Y50.250
G1 X131.375 Y50.500
G1 X131.375 Y50.750
G1 X131.375 Y51.000
G1 X131.375 Y51.250
G1 X131.375 Y51.500
G1 X131.375 Y51.750
G1 X131.500 Y51.875
G1 X131.625 Y52.000
G1 X131.625 Y52.250
G1 X131.750 Y52.375
G1 X132.000 Y52.375
G1 X132.125 Y52.500
G1 X132.250 Y52.625
G1 X132.375 Y52.750
G0 Z2.000 F3000
M400
M204 P600 T600
G1 F1300
G0 X126.875 Y50.000 Z2.000
M400
M204 P200 T200
G1 F600
G1 Z0.000 F2500
G1 X127.000 Y50.125
G1 X127.250 Y50.125
G1 X127.500 Y50.125
G1 X127.750 Y50.125
G1 X127.875 Y50.000
G1 X128.000 Y49.875
G1 X128.250 Y49.875
G1 X128.375 Y49.750
G1 X128.500 Y49.625
G1 X128.625 Y49.500
G1 X128.750 Y49.375
G1 X128.875 Y49.250
G1 X129.000 Y49.125
G1 X129.125 Y49.000
G1 X129.125 Y48.750
G1 X129.250 Y48.625
G1 X129.375 Y48.500
G1 X129.375 Y48.250
G1 X129.375 Y48.000
G1 X129.375 Y47.750
G1 X129.250 Y47.625
G1 X129.125 Y47.500
G1 X129.125 Y47.250
G1 X129.000 Y47.125
G1 X128.875 Y47.000
G1 X128.875 Y46.750
G1 X128.750 Y46.625
G1 X128.500 Y46.625
G1 X128.375 Y46.500
G1 X128.250 Y46.375
G1 X128.000 Y46.375
G1 X127.875 Y46.250
G1 X127.750 Y46.125
G1 X127.500 Y46.125
G1 X127.250 Y46.125
G1 X127.000 Y46.125
G1 X126.875 Y46.250
G1 X126.750 Y46.375
G1 X126.500 Y46.375
G1 X126.375 Y46.500
G1 X126.250 Y46.625
G1 X126.000 Y46.625
G1 X125.875 Y46.750
G1 X125.875 Y47.000
G1 X125.750 Y47.125
G1 X125.625 Y47.250
G1 X125.625 Y47.500
G1 X125.500 Y47.625
G1 X125.375 Y47.750
G1 X125.375 Y48.000
G1 X125.375 Y48.250
G1 X125.375 Y48.500
G1 X125.500 Y48.625
G1 X125.625 Y48.750
G1 X125.625 Y49.000
G1 X125.750 Y49.125
G1 X125.875 Y49.250
G1 X125.875 Y49.500
G1 X126.000 Y49.625
G1 X126.250 Y49.625
G1 X126.375 Y49.750
G1 X126.500 Y49.875
G1 X126.750 Y49.875
G1 X126.875 Y50.000
G0 Z2.000 F3000
M400
M204 P600 T600
G1 F1300
G0 X131.875 Y46.250 Z2.000
M400
M204 P200 T200
G1 F600
G1 Z0.000 F2500
G1 X132.000 Y46.375
G1 X132.250 Y46.375
G1 X132.500 Y46.375
G1 X132.750 Y46.375
G1 X133.000 Y46.375
G1 X133.250 Y46.375
G1 X133.500 Y46.375
G1 X133.625 Y46.250
G1 X133.750 Y46.125
G1 X134.000 Y46.125
G1 X134.125 Y46.000
G1 X134.250 Y45.875
G1 X134.375 Y45.750
G1 X134.375 Y45.500
G1 X134.500 Y45.375
G1 X134.625 Y45.250
G1 X134.625 Y45.000
G1 X134.625 Y44.750
G1 X134.625 Y44.500
G1 X134.625 Y44.250
G1 X134.625 Y44.000
G1 X134.625 Y43.750
G1 X134.500 Y43.625
G1 X134.375 Y43.500
G1 X134.375 Y43.250
G1 X134.250 Y43.125
G1 X134.125 Y43.000
G1 X134.000 Y42.875
G1 X133.750 Y42.875
G1 X133.625 Y42.750
G1 X133.500 Y42.625
G1 X133.250 Y42.625
G1 X133.000 Y42.625
G1 X132.875 Y42.500
G1 X132.750 Y42.375
G1 X132.625 Y42.500
G1 X132.500 Y42.625
G1 X132.250 Y42.625
G1 X132.000 Y42.625
G1 X131.875 Y42.750
G1 X131.750 Y42.875
G1 X131.500 Y42.875
G1 X131.375 Y43.000
G1 X131.250 Y43.125
G1 X131.125 Y43.250
G1 X131.125 Y43.500
G1 X131.000 Y43.625
G1 X130.875 Y43.750
G1 X130.875 Y44.000
G1 X130.875 Y44.250
G1 X130.875 Y44.500
G1 X130.875 Y44.750
G1 X130.875 Y45.000
G1 X130.875 Y45.250
G1 X131.000 Y45.375
G1 X131.125 Y45.500
G1 X131.125 Y45.750
G1 X131.250 Y45.875
G1 X131.375 Y46.000
G1 X131.500 Y46.125
G1 X131.750 Y46.125
G1 X131.875 Y46.250
G0 Z2.000 F3000
M400
M204 P600 T600
G1 F1300
G0 X131.875 Y40.000 Z2.000
M400
M204 P200 T200
G1 F600
G1 Z0.000 F2500
G1 X132.000 Y40.125
G1 X132.250 Y40.125
G1 X132.500 Y40.125
G1 X132.625 Y40.000
G1 X132.750 Y39.875
G1 X133.000 Y39.875
G1 X133.250 Y39.875
G1 X133.375 Y39.750
G1 X133.500 Y39.625
G1 X133.625 Y39.500
G1 X133.750 Y39.375
G1 X133.875 Y39.250
G1 X134.000 Y39.125
G1 X134.125 Y39.000
G1 X134.125 Y38.750
G1 X134.250 Y38.625
G1 X134.375 Y38.500
G1 X134.375 Y38.250
G1 X134.375 Y38.000
G1 X134.375 Y37.750
G1 X134.375 Y37.500
G1 X134.250 Y37.375
G1 X134.125 Y37.250
G1 X134.125 Y37.000
G1 X134.000 Y36.875
G1 X133.875 Y36.750
G1 X133.750 Y36.625
G1 X133.625 Y36.500
G1 X133.500 Y36.375
G1 X133.375 Y36.250
G1 X133.250 Y36.125
G1 X133.000 Y36.125
G1 X132.750 Y36.125
G1 X132.625 Y36.000
G1 X132.500 Y35.875
G1 X132.250 Y35.875
G1 X132.125 Y36.000
G1 X132.000 Y36.125
G1 X131.750 Y36.125
G1 X131.500 Y36.125
G1 X131.375 Y36.250
G1 X131.250 Y36.375
G1 X131.000 Y36.375
G1 X130.875 Y36.500
G1 X130.750 Y36.625
G1 X130.625 Y36.750
G1 X130.625 Y37.000
G1 X130.500 Y37.125
G1 X130.375 Y37.250
G1 X130.375 Y37.500
G1 X130.375 Y37.750
G1 X130.375 Y38.000
G1 X130.375 Y38.250
G1 X130.375 Y38.500
G1 X130.375 Y38.750
G1 X130.500 Y38.875
G1 X130.625 Y39.000
G1 X130.625 Y39.250
G1 X130.750 Y39.375
G1 X130.875 Y39.500
G1 X131.000 Y39.625
G1 X131.250 Y39.625
G1 X131.375 Y39.750
G1 X131.500 Y39.875
G1 X131.750 Y39.875
G1 X131.875 Y40.000
G0 Z2.000 F3000
M400
M204 P600 T600
G1 F1300
G0 X137.375 Y42.750 Z2.000
M400
M204 P200 T200
G1 F600
G1 Z0.000 F2500
G1 X137.500 Y42.875
G1 X137.750 Y42.875
G1 X138.000 Y42.875
G1 X138.250 Y42.875
G1 X138.500 Y42.875
G1 X138.750 Y42.875
G1 X138.875 Y42.750
G1 X139.000 Y42.625
G1 X139.250 Y42.625
G1 X139.375 Y42.500
G1 X139.500 Y42.375
G1 X139.625 Y42.250
G1 X139.750 Y42.125
G1 X139.875 Y42.000
G1 X139.875 Y41.750
G1 X140.000 Y41.625
G1 X140.125 Y41.500
G1 X140.125 Y41.250
G1 X140.125 Y41.000
G1 X140.125 Y40.750
G1 X140.125 Y40.500
G1 X140.125 Y40.250
G1 X140.000 Y40.125
G1 X139.875 Y40.000
G1 X139.875 Y39.750
G1 X139.750 Y39.625
G1 X139.625 Y39.500
G1 X139.500 Y39.375
G1 X139.375 Y39.250
G1 X139.250 Y39.125
G1 X139.000 Y39.125
G1 X138.875 Y39.000
G1 X138.750 Y38.875
G1 X138.500 Y38.875
G1 X138.250 Y38.875
G1 X138.000 Y38.875
G1 X137.750 Y38.875
G1 X137.500 Y38.875
G1 X137.375 Y39.000
G1 X137.250 Y39.125
G1 X137.000 Y39.125
G1 X136.875 Y39.250
G1 X136.750 Y39.375
G1 X136.625 Y39.500
G1 X136.500 Y39.625
G1 X136.375 Y39.750
G1 X136.375 Y40.000
G1 X136.250 Y40.125
G1 X136.125 Y40.250
G1 X136.125 Y40.500
G1 X136.125 Y40.750
G1 X136.125 Y41.000
G1 X136.125 Y41.250
G1 X136.125 Y41.500
G1 X136.250 Y41.625
G1 X136.375 Y41.750
G1 X136.375 Y42.000
G1 X136.500 Y42.125
G0 Z2.000 F3000

; --- CIKEL NAMAKANJA ---
G0 Z2.000 F3000
M400
M204 P600 T600
G1 F1300
G0 X54.559 Y4.232 Z8.000
G1 Z1.000 F3000
G1 X54.559 Y4.232 F2500
G1 X54.559 Y5.982 F2500
G1 X51.059 Y4.232 F2500
G1 X54.559 Y0.000 F2500
G0 Z3.000 F3000
G0 X76.567 Y9.561
G0 Z8.000 F3000
G0 X136.625 Y42.250 Z2.000
M400
M204 P200 T200
G1 F600
G1 Z0.000 F2500
G1 X136.625 Y42.250
G1 X136.750 Y42.375
G1 X136.875 Y42.500
G1 X137.000 Y42.625
G1 X137.250 Y42.625
G1 X137.375 Y42.750
G0 Z2.000 F3000
M400
M204 P600 T600
G1 F1300
G0 X143.125 Y45.500 Z2.000
M400
M204 P200 T200
G1 F600
G1 Z0.000 F2500
G1 X143.250 Y45.625
G1 X143.500 Y45.625
G1 X143.750 Y45.625
G1 X144.000 Y45.625
G1 X144.250 Y45.625
G1 X144.500 Y45.625
G1 X144.750 Y45.625
G1 X144.875 Y45.500
G1 X145.000 Y45.375
G1 X145.250 Y45.375
G1 X145.375 Y45.250
G1 X145.500 Y45.125
G1 X145.625 Y45.000
G1 X145.625 Y44.750
G1 X145.750 Y44.625
G1 X145.875 Y44.500
G1 X145.875 Y44.250
G1 X145.875 Y44.000
G1 X145.875 Y43.750
G1 X145.875 Y43.500
G1 X145.875 Y43.250
G1 X145.875 Y43.000
G1 X145.875 Y42.750
G1 X145.750 Y42.625
G1 X145.625 Y42.500
G1 X145.500 Y42.375
G1 X145.375 Y42.250
G1 X145.250 Y42.125
G1 X145.125 Y42.000
G1 X145.000 Y41.875
G1 X144.750 Y41.875
G1 X144.625 Y41.750
G1 X144.500 Y41.625
G1 X144.250 Y41.625
G1 X144.000 Y41.625
G1 X143.750 Y41.625
G1 X143.500 Y41.625
G1 X143.375 Y41.750
G1 X143.250 Y41.875
G1 X143.000 Y41.875
G1 X142.875 Y42.000
G1 X142.750 Y42.125
G1 X142.625 Y42.250
G1 X142.500 Y42.375
G1 X142.375 Y42.500
G1 X142.250 Y42.625
G1 X142.125 Y42.750
G1 X142.125 Y43.000
G1 X142.000 Y43.125
G1 X141.875 Y43.250
G1 X141.875 Y43.500
G1 X141.875 Y43.750
G1 X141.875 Y44.000
G1 X142.000 Y44.125
G1 X142.125 Y44.250
G1 X142.125 Y44.500
G1 X142.125 Y44.750
G1 X142.250 Y44.875
G1 X142.375 Y45.000
G1 X142.500 Y45.125
G1 X142.625 Y45.250
G1 X142.750 Y45.375
G1 X143.000 Y45.375
G1 X143.125 Y45.500
G0 Z2.000 F3000
M400
M204 P600 T600
G1 F1300
G0 X138.125 Y49.250 Z2.000
M400
M204 P200 T200
G1 F600
G1 Z0.000 F2500
G1 X138.250 Y49.375
G1 X138.500 Y49.375
G1 X138.750 Y49.375
G1 X139.000 Y49.375
G1 X139.125 Y49.250
G1 X139.250 Y49.125
G1 X139.500 Y49.125
G1 X139.625 Y49.000
G1 X139.750 Y48.875
G1 X139.875 Y48.750
G1 X140.000 Y48.625
G1 X140.125 Y48.500
G1 X140.250 Y48.375
G1 X140.375 Y48.250
G1 X140.375 Y48.000
G1 X140.500 Y47.875
G1 X140.625 Y47.750
G1 X140.625 Y47.500
G1 X140.625 Y47.250
G1 X140.625 Y47.000
G1 X140.500 Y46.875
G1 X140.375 Y46.750
G1 X140.375 Y46.500
G1 X140.250 Y46.375
G1 X140.125 Y46.250
G1 X140.125 Y46.000
G1 X140.000 Y45.875
G1 X139.875 Y45.750
G1 X139.750 Y45.625
G1 X139.500 Y45.625
G1 X139.375 Y45.500
G1 X139.250 Y45.375
G1 X139.000 Y45.375
G1 X138.750 Y45.375
G1 X138.500 Y45.375
G1 X138.250 Y45.375
G1 X138.000 Y45.375
G1 X137.875 Y45.500
G1 X137.750 Y45.625
G1 X137.500 Y45.625
G1 X137.375 Y45.750
G1 X137.250 Y45.875
G1 X137.125 Y46.000
G1 X137.000 Y46.125
G1 X136.875 Y46.250
G1 X136.875 Y46.500
G1 X136.750 Y46.625
G1 X136.625 Y46.750
G1 X136.625 Y47.000
G1 X136.625 Y47.250
G1 X136.625 Y47.500
G1 X136.625 Y47.750
G1 X136.625 Y48.000
G1 X136.750 Y48.125
G1 X136.875 Y48.250
G1 X137.000 Y48.375
G1 X137.125 Y48.500
G1 X137.125 Y48.750
G1 X137.250 Y48.875
G1 X137.500 Y48.875
G1 X137.625 Y49.000
G1 X137.750 Y49.125
G1 X138.000 Y49.125
G1 X138.125 Y49.250
G0 Z2.000 F3000
M400
M204 P600 T600
G1 F1300
G0 X143.625 Y52.000 Z2.000
M400
M204 P200 T200
G1 F600
G1 Z0.000 F2500
G1 X143.750 Y52.125
G1 X144.000 Y52.125
G1 X144.250 Y52.125
G1 X144.500 Y52.125
G1 X144.750 Y52.125
G1 X145.000 Y52.125
G1 X145.125 Y52.000
G1 X145.250 Y51.875
G1 X145.500 Y51.875
G1 X145.625 Y51.750
G1 X145.750 Y51.625
G1 X145.875 Y51.500
G1 X146.000 Y51.375
G1 X146.125 Y51.250
G1 X146.125 Y51.000
G1 X146.250 Y50.875
G1 X146.375 Y50.750
G1 X146.375 Y50.500
G1 X146.375 Y50.250
G1 X146.375 Y50.000
G1 X146.375 Y49.750
G1 X146.375 Y49.500
G1 X146.250 Y49.375
G1 X146.125 Y49.250
G1 X146.125 Y49.000
G1 X146.000 Y48.875
G1 X145.875 Y48.750
G1 X145.750 Y48.625
G1 X145.500 Y48.625
G1 X145.375 Y48.500
G1 X145.250 Y48.375
G1 X145.000 Y48.375
G1 X144.875 Y48.250
G1 X144.750 Y48.125
G1 X144.500 Y48.125
G1 X144.250 Y48.125
G1 X144.125 Y48.250
G1 X144.000 Y48.375
G1 X143.750 Y48.375
G1 X143.500 Y48.375
G1 X143.375 Y48.500
G1 X143.250 Y48.625
G1 X143.125 Y48.750
G1 X143.000 Y48.875
G1 X142.875 Y49.000
G1 X142.750 Y49.125
G1 X142.625 Y49.250
G1 X142.625 Y49.500
G1 X142.625 Y49.750
G1 X142.500 Y49.875
G1 X142.375 Y50.000
G1 X142.375 Y50.250
G1 X142.375 Y50.500
G1 X142.500 Y50.625
G1 X142.625 Y50.750
G1 X142.625 Y51.000
G1 X142.750 Y51.125
G1 X142.875 Y51.250
G1 X142.875 Y51.500
G1 X143.000 Y51.625
G1 X143.125 Y51.750
G1 X143.250 Y51.875
G1 X143.500 Y51.875
G1 X143.625 Y52.000
G0 Z2.000 F3000
M400
M204 P600 T600
G1 F1300
G0 X149.750 Y51.125 Z2.000
M400
M204 P200 T200
G1 F600
G1 Z0.000 F2500
G1 X149.500 Y51.125
G1 X149.375 Y51.250
G1 X149.250 Y51.375
G1 X149.125 Y51.500
G1 X149.000 Y51.625
G1 X148.875 Y51.750
G1 X148.750 Y51.875
G1 X148.625 Y52.000
G1 X148.500 Y52.125
G1 X148.375 Y52.250
G1 X148.375 Y52.500
G1 X148.375 Y52.750
G1 X148.375 Y53.000
G1 X148.375 Y53.250
G1 X148.375 Y53.500
G1 X148.375 Y53.750
G1 X148.500 Y53.875
G1 X148.625 Y54.000
G1 X148.750 Y54.125
G1 X148.875 Y54.250
G1 X148.875 Y54.500
G1 X149.000 Y54.625
G1 X149.250 Y54.625
G1 X149.375 Y54.750
G1 X149.500 Y54.875
G1 X149.750 Y54.875
G0 Z2.000 F3000
M400
M204 P600 T600
G1 F1300
G0 X149.750 Y57.875 Z2.000
M400
M204 P200 T200
G1 F600
G1 Z0.000 F2500
G1 X149.625 Y58.000
G1 X149.500 Y58.125
G1 X149.375 Y58.250
G1 X149.250 Y58.375
G1 X149.125 Y58.500
G1 X149.000 Y58.625
G1 X148.875 Y58.750
G1 X148.875 Y59.000
G1 X148.875 Y59.250
G1 X148.875 Y59.500
G1 X148.875 Y59.750
G1 X148.875 Y60.000
G1 X148.875 Y60.250
G1 X149.000 Y60.375
G1 X149.125 Y60.500
G1 X149.250 Y60.625
G1 X149.375 Y60.750
G1 X149.500 Y60.875
G1 X149.625 Y61.000
G1 X149.750 Y61.125
G0 Z2.000 F3000
M400
M204 P600 T600
G1 F1300
G0 X149.750 Y64.625 Z2.000
M400
M204 P200 T200
G1 F600
G1 Z0.000 F2500
G1 X149.625 Y64.750
G1 X149.625 Y65.000
G1 X149.500 Y65.125
G1 X149.375 Y65.250
G1 X149.375 Y65.500
G1 X149.375 Y65.750
G1 X149.375 Y66.000
G1 X149.375 Y66.250
G1 X149.375 Y66.500
G1 X149.375 Y66.750
G1 X149.500 Y66.875
G1 X149.625 Y67.000
G1 X149.750 Y67.125
G0 Z2.000 F3000
M400
M204 P600 T600
G1 F1300
G0 X145.125 Y65.000 Z2.000
M400
M204 P200 T200
G1 F600
G1 Z0.000 F2500
G1 X145.250 Y65.125
G1 X145.500 Y65.125
G1 X145.625 Y65.000
G1 X145.750 Y64.875
G1 X146.000 Y64.875
G1 X146.250 Y64.875
G1 X146.375 Y64.750
G1 X146.500 Y64.625
G1 X146.625 Y64.500
G1 X146.750 Y64.375
G1 X146.875 Y64.250
G1 X147.000 Y64.125
G1 X147.125 Y64.000
G1 X147.125 Y63.750
G1 X147.125 Y63.500
G1 X147.125 Y63.250
G1 X147.125 Y63.000
G1 X147.125 Y62.750
G1 X147.125 Y62.500
G1 X147.000 Y62.375
G1 X146.875 Y62.250
G1 X146.875 Y62.000
G1 X146.750 Y61.875
G1 X146.625 Y61.750
G1 X146.500 Y61.625
G1 X146.375 Y61.500
G1 X146.250 Y61.375
G1 X146.000 Y61.375
G1 X145.750 Y61.375
G1 X145.500 Y61.375
G1 X145.250 Y61.375
G1 X145.000 Y61.375
G1 X144.750 Y61.375
G1 X144.500 Y61.375
G1 X144.375 Y61.500
G1 X144.250 Y61.625
G1 X144.125 Y61.750
G1 X144.000 Y61.875
G1 X143.875 Y62.000
G1 X143.750 Y62.125
G1 X143.625 Y62.250
G1 X143.625 Y62.500
G1 X143.500 Y62.625
G1 X143.375 Y62.750
G1 X143.375 Y63.000
G1 X143.375 Y63.250
G1 X143.375 Y63.500
G1 X143.500 Y63.625
G1 X143.625 Y63.750
G1 X143.625 Y64.000
G1 X143.750 Y64.125
G1 X143.875 Y64.250
G1 X144.000 Y64.375
G1 X144.125 Y64.500
G1 X144.250 Y64.625
G1 X144.375 Y64.750
G1 X144.500 Y64.875
G1 X144.750 Y64.875
G1 X145.000 Y64.875
G1 X145.125 Y65.000
G0 Z2.000 F3000
M400
M204 P600 T600
G1 F1300
G0 X144.875 Y71.250 Z2.000
M400
M204 P200 T200
G1 F600
G1 Z0.000 F2500
G1 X145.000 Y71.375
G1 X145.250 Y71.375
G1 X145.500 Y71.375
G1 X145.750 Y71.375
G1 X146.000 Y71.375
G1 X146.250 Y71.375
G1 X146.500 Y71.375
G1 X146.625 Y71.250
G1 X146.750 Y71.125
G1 X146.875 Y71.000
G1 X147.000 Y70.875
G1 X147.125 Y70.750
G1 X147.250 Y70.625
G1 X147.375 Y70.500
G1 X147.375 Y70.250
G1 X147.500 Y70.125
G1 X147.625 Y70.000
G1 X147.625 Y69.750
G1 X147.625 Y69.500
G1 X147.625 Y69.250
G1 X147.500 Y69.125
G1 X147.375 Y69.000
G1 X147.375 Y68.750
G1 X147.250 Y68.625
G1 X147.125 Y68.500
G1 X147.000 Y68.375
G1 X146.875 Y68.250
G1 X146.750 Y68.125
G1 X146.625 Y68.000
G1 X146.500 Y67.875
G1 X146.250 Y67.875
G1 X146.000 Y67.875
G1 X145.750 Y67.875
G1 X145.500 Y67.875
G1 X145.250 Y67.875
G1 X145.000 Y67.875
G1 X144.875 Y68.000
G1 X144.750 Y68.125
G1 X144.625 Y68.250
G1 X144.500 Y68.375
G1 X144.375 Y68.500
G1 X144.250 Y68.625
G1 X144.125 Y68.750
G1 X144.125 Y69.000
G1 X144.000 Y69.125
G1 X143.875 Y69.250
G1 X143.875 Y69.500
G1 X143.875 Y69.750
G1 X144.000 Y69.875
G1 X144.125 Y70.000
G1 X144.125 Y70.250
G1 X144.125 Y70.500
G1 X144.250 Y70.625
G1 X144.375 Y70.750
G1 X144.500 Y70.875
G1 X144.625 Y71.000
G1 X144.750 Y71.125
G1 X144.875 Y71.250
G0 Z2.000 F3000
M400
M204 P600 T600
G1 F1300
G0 X140.125 Y75.000 Z2.000
M400
M204 P200 T200
G1 F600
G1 Z0.000 F2500
G1 X140.250 Y75.125
G1 X140.500 Y75.125
G1 X140.625 Y75.000
G1 X140.750 Y74.875
G1 X141.000 Y74.875
G1 X141.250 Y74.875
G1 X141.375 Y74.750
G1 X141.500 Y74.625
G1 X141.625 Y74.500
G1 X141.750 Y74.375
G1 X141.875 Y74.250
G1 X142.000 Y74.125
G1 X142.125 Y74.000
G1 X142.125 Y73.750
G1 X142.125 Y73.500
G1 X142.125 Y73.250
G1 X142.125 Y73.000
G1 X142.125 Y72.750
G0 Z2.000 F3000

; --- CIKEL NAMAKANJA ---
G0 Z2.000 F3000
M400
M204 P600 T600
G1 F1300
G0 X64.433 Y0.000 Z8.000
G1 Z1.000 F3000
G1 X64.433 Y0.000 F2500
G1 X64.433 Y1.750 F2500
G1 X60.933 Y0.000 F2500
G1 X64.433 Y0.000 F2500
G0 Z3.000 F3000
G0 X74.073 Y13.146
G0 Z8.000 F3000
G0 X142.125 Y72.500 Z2.000
M400
M204 P200 T200
G1 F600
G1 Z0.000 F2500
G1 X142.125 Y72.500
G1 X142.000 Y72.375
G1 X141.875 Y72.250
G1 X141.750 Y72.125
G1 X141.625 Y72.000
G1 X141.500 Y71.875
G1 X141.375 Y71.750
G1 X141.250 Y71.625
G1 X141.000 Y71.625
G1 X140.750 Y71.625
G1 X140.625 Y71.500
G1 X140.500 Y71.375
G1 X140.250 Y71.375
G1 X140.125 Y71.500
G1 X140.000 Y71.625
G1 X139.750 Y71.625
G1 X139.500 Y71.625
G1 X139.375 Y71.750
G1 X139.250 Y71.875
G1 X139.125 Y72.000
G1 X139.000 Y72.125
G1 X138.875 Y72.250
G1 X138.875 Y72.500
G1 X138.750 Y72.625
G1 X138.625 Y72.750
G1 X138.625 Y73.000
G1 X138.625 Y73.250
G1 X138.625 Y73.500
G1 X138.625 Y73.750
G1 X138.750 Y73.875
G1 X138.875 Y74.000
G1 X138.875 Y74.250
G1 X139.000 Y74.375
G1 X139.125 Y74.500
G1 X139.250 Y74.625
G1 X139.375 Y74.750
G1 X139.500 Y74.875
G1 X139.750 Y74.875
G1 X140.000 Y74.875
G1 X140.125 Y75.000
G0 Z2.000 F3000
M400
M204 P600 T600
G1 F1300
G0 X145.625 Y77.750 Z2.000
M400
M204 P200 T200
G1 F600
G1 Z0.000 F2500
G1 X145.750 Y77.875
G1 X146.000 Y77.875
G1 X146.250 Y77.875
G1 X146.500 Y77.875
G1 X146.750 Y77.875
G1 X146.875 Y77.750
G1 X147.000 Y77.625
G1 X147.250 Y77.625
G1 X147.375 Y77.500
G1 X147.500 Y77.375
G1 X147.625 Y77.250
G1 X147.750 Y77.125
G1 X147.875 Y77.000
G1 X147.875 Y76.750
G1 X147.875 Y76.500
G1 X148.000 Y76.375
G1 X148.125 Y76.250
G1 X148.125 Y76.000
G1 X148.000 Y75.875
G1 X147.875 Y75.750
G1 X147.875 Y75.500
G1 X147.875 Y75.250
G1 X147.750 Y75.125
G1 X147.625 Y75.000
G1 X147.500 Y74.875
G1 X147.375 Y74.750
G1 X147.250 Y74.625
G1 X147.125 Y74.500
G1 X147.000 Y74.375
G1 X146.750 Y74.375
G1 X146.500 Y74.375
G1 X146.250 Y74.375
G1 X146.000 Y74.375
G1 X145.750 Y74.375
G1 X145.500 Y74.375
G1 X145.375 Y74.500
G1 X145.250 Y74.625
G1 X145.125 Y74.750
G1 X145.000 Y74.875
G1 X144.875 Y75.000
G1 X144.750 Y75.125
G1 X144.625 Y75.250
G1 X144.625 Y75.500
G1 X144.500 Y75.625
G1 X144.375 Y75.750
G1 X144.375 Y76.000
G1 X144.375 Y76.250
G1 X144.500 Y76.375
G1 X144.625 Y76.500
G1 X144.625 Y76.750
G1 X144.625 Y77.000
G1 X144.750 Y77.125
G1 X144.875 Y77.250
G1 X145.000 Y77.375
G1 X145.125 Y77.500
G1 X145.250 Y77.625
G1 X145.500 Y77.625
G1 X145.625 Y77.750
G0 Z2.000 F3000
M400
M204 P600 T600
G1 F1300
G0 X146.125 Y84.250 Z2.000
M400
M204 P200 T200
G1 F600
G1 Z0.000 F2500
G1 X146.250 Y84.375
G1 X146.500 Y84.375
G1 X146.750 Y84.375
G1 X147.000 Y84.375
G1 X147.125 Y84.250
G1 X147.250 Y84.125
G1 X147.500 Y84.125
G1 X147.625 Y84.000
G1 X147.750 Y83.875
G1 X147.875 Y83.750
G1 X148.000 Y83.625
G1 X148.125 Y83.500
G1 X148.250 Y83.375
G1 X148.375 Y83.250
G1 X148.375 Y83.000
G1 X148.375 Y82.750
G1 X148.375 Y82.500
G1 X148.375 Y82.250
G1 X148.375 Y82.000
G1 X148.250 Y81.875
G1 X148.125 Y81.750
G1 X148.125 Y81.500
G1 X148.000 Y81.375
G1 X147.875 Y81.250
G1 X147.750 Y81.125
G1 X147.500 Y81.125
G1 X147.375 Y81.000
G1 X147.250 Y80.875
G1 X147.000 Y80.875
G1 X146.750 Y80.875
G1 X146.500 Y80.875
G1 X146.250 Y80.875
G1 X146.000 Y80.875
G1 X145.875 Y81.000
G1 X145.750 Y81.125
G1 X145.625 Y81.250
G1 X145.500 Y81.375
G1 X145.375 Y81.500
G1 X145.250 Y81.625
G1 X145.125 Y81.750
G1 X145.125 Y82.000
G1 X145.000 Y82.125
G1 X144.875 Y82.250
G1 X144.875 Y82.500
G1 X144.875 Y82.750
G1 X145.000 Y82.875
G1 X145.125 Y83.000
G1 X145.125 Y83.250
G1 X145.125 Y83.500
G1 X145.250 Y83.625
G1 X145.375 Y83.750
G1 X145.500 Y83.875
G1 X145.625 Y84.000
G1 X145.750 Y84.125
G1 X146.000 Y84.125
G1 X146.125 Y84.250
G0 Z2.000 F3000
M400
M204 P600 T600
G1 F1300
G0 X146.625 Y90.750 Z2.000
M400
M204 P200 T200
G1 F600
G1 Z0.000 F2500
G1 X146.750 Y90.875
G1 X147.000 Y90.875
G1 X147.250 Y90.875
G1 X147.500 Y90.875
G1 X147.625 Y90.750
G1 X147.750 Y90.625
G1 X148.000 Y90.625
G1 X148.125 Y90.500
G1 X148.250 Y90.375
G1 X148.375 Y90.250
G1 X148.500 Y90.125
G1 X148.625 Y90.000
G1 X148.750 Y89.875
G1 X148.875 Y89.750
G1 X148.875 Y89.500
G1 X148.875 Y89.250
G1 X148.875 Y89.000
G1 X148.875 Y88.750
G1 X148.875 Y88.500
G1 X148.750 Y88.375
G1 X148.625 Y88.250
G1 X148.625 Y88.000
G1 X148.500 Y87.875
G1 X148.375 Y87.750
G1 X148.250 Y87.625
G1 X148.000 Y87.625
G1 X147.875 Y87.500
G1 X147.750 Y87.375
G1 X147.500 Y87.375
G1 X147.250 Y87.375
G1 X147.000 Y87.375
G1 X146.750 Y87.375
G1 X146.500 Y87.375
G1 X146.375 Y87.500
G1 X146.250 Y87.625
G1 X146.000 Y87.625
G1 X145.875 Y87.750
G1 X145.750 Y87.875
G1 X145.625 Y88.000
G1 X145.625 Y88.250
G1 X145.500 Y88.375
G1 X145.375 Y88.500
G1 X145.375 Y88.750
G1 X145.375 Y89.000
G1 X145.375 Y89.250
G1 X145.375 Y89.500
G1 X145.500 Y89.625
G1 X145.625 Y89.750
G1 X145.625 Y90.000
G1 X145.750 Y90.125
G1 X145.875 Y90.250
G1 X146.000 Y90.375
G1 X146.125 Y90.500
G1 X146.250 Y90.625
G1 X146.500 Y90.625
G1 X146.625 Y90.750
G0 Z2.000 F3000
M400
M204 P600 T600
G1 F1300
G0 X146.875 Y97.000 Z2.000
M400
M204 P200 T200
G1 F600
G1 Z0.000 F2500
G1 X147.000 Y97.125
G1 X147.250 Y97.125
G1 X147.500 Y97.125
G1 X147.750 Y97.125
G1 X148.000 Y97.125
G1 X148.250 Y97.125
G1 X148.375 Y97.000
G1 X148.500 Y96.875
G1 X148.750 Y96.875
G1 X148.875 Y96.750
G1 X148.875 Y96.500
G1 X149.000 Y96.375
G1 X149.125 Y96.250
G1 X149.125 Y96.000
G1 X149.250 Y95.875
G1 X149.375 Y95.750
G1 X149.375 Y95.500
G1 X149.375 Y95.250
G1 X149.250 Y95.125
G1 X149.125 Y95.000
G1 X149.125 Y94.750
G1 X149.000 Y94.625
G1 X148.875 Y94.500
G1 X148.750 Y94.375
G1 X148.625 Y94.250
G1 X148.500 Y94.125
G1 X148.375 Y94.000
G1 X148.250 Y93.875
G1 X148.000 Y93.875
G1 X147.750 Y93.875
G1 X147.500 Y93.875
G1 X147.250 Y93.875
G1 X147.000 Y93.875
G1 X146.875 Y94.000
G1 X146.750 Y94.125
G1 X146.500 Y94.125
G1 X146.375 Y94.250
G1 X146.375 Y94.500
G1 X146.250 Y94.625
G1 X146.125 Y94.750
G1 X146.000 Y94.875
G1 X145.875 Y95.000
G1 X145.875 Y95.250
G1 X145.875 Y95.500
G1 X145.875 Y95.750
G1 X145.875 Y96.000
G1 X146.000 Y96.125
G1 X146.125 Y96.250
G1 X146.125 Y96.500
G1 X146.250 Y96.625
G1 X146.375 Y96.750
G1 X146.500 Y96.875
G1 X146.750 Y96.875
G1 X146.875 Y97.000
G0 Z2.000 F3000
M400
M204 P600 T600
G1 F1300
G0 X141.125 Y94.250 Z2.000
M400
M204 P200 T200
G1 F600
G1 Z0.000 F2500
G1 X141.250 Y94.375
G1 X141.500 Y94.375
G1 X141.750 Y94.375
G1 X142.000 Y94.375
G1 X142.250 Y94.375
G1 X142.375 Y94.250
G1 X142.500 Y94.125
G1 X142.750 Y94.125
G1 X142.875 Y94.000
G1 X143.000 Y93.875
G1 X143.125 Y93.750
G1 X143.125 Y93.500
G1 X143.250 Y93.375
G1 X143.375 Y93.250
G1 X143.375 Y93.000
G1 X143.375 Y92.750
G1 X143.375 Y92.500
G1 X143.375 Y92.250
G1 X143.375 Y92.000
G1 X143.250 Y91.875
G1 X143.125 Y91.750
G1 X143.000 Y91.625
G1 X142.875 Y91.500
G1 X142.750 Y91.375
G1 X142.625 Y91.250
G1 X142.500 Y91.125
G1 X142.250 Y91.125
G1 X142.000 Y91.125
G1 X141.750 Y91.125
G1 X141.500 Y91.125
G1 X141.250 Y91.125
G1 X141.000 Y91.125
G1 X140.875 Y91.250
G1 X140.750 Y91.375
G1 X140.625 Y91.500
G1 X140.500 Y91.625
G1 X140.375 Y91.750
G1 X140.250 Y91.875
G1 X140.125 Y92.000
G1 X140.125 Y92.250
G1 X140.125 Y92.500
G1 X140.125 Y92.750
G1 X140.125 Y93.000
G1 X140.125 Y93.250
G1 X140.250 Y93.375
G1 X140.375 Y93.500
G1 X140.375 Y93.750
G1 X140.500 Y93.875
G1 X140.625 Y94.000
G1 X140.750 Y94.125
G1 X141.000 Y94.125
G1 X141.125 Y94.250
G0 Z2.000 F3000
M400
M204 P600 T600
G1 F1300
G0 X135.375 Y91.500 Z2.000
M400
M204 P200 T200
G1 F600
G1 Z0.000 F2500
G1 X135.500 Y91.625
G1 X135.750 Y91.625
G1 X136.000 Y91.625
G1 X136.250 Y91.625
G1 X136.375 Y91.500
G1 X136.500 Y91.375
G1 X136.750 Y91.375
G1 X136.875 Y91.250
G1 X137.000 Y91.125
G1 X137.125 Y91.000
G1 X137.250 Y90.875
G1 X137.375 Y90.750
G1 X137.500 Y90.625
G1 X137.625 Y90.500
G1 X137.625 Y90.250
G1 X137.625 Y90.000
G1 X137.625 Y89.750
G1 X137.625 Y89.500
G1 X137.625 Y89.250
G1 X137.500 Y89.125
G1 X137.375 Y89.000
G1 X137.375 Y88.750
G1 X137.250 Y88.625
G1 X137.125 Y88.500
G1 X137.000 Y88.375
G1 X136.750 Y88.375
G1 X136.625 Y88.250
G1 X136.500 Y88.125
G1 X136.250 Y88.125
G1 X136.000 Y88.125
G1 X135.750 Y88.125
G1 X135.500 Y88.125
G1 X135.250 Y88.125
G1 X135.125 Y88.250
G1 X135.000 Y88.375
G1 X134.875 Y88.500
G1 X134.750 Y88.625
G1 X134.625 Y88.750
G1 X134.500 Y88.875
G1 X134.375 Y89.000
G1 X134.375 Y89.250
G1 X134.250 Y89.375
G1 X134.125 Y89.500
G1 X134.125 Y89.750
G1 X134.125 Y90.000
G1 X134.125 Y90.250
G1 X134.250 Y90.375
G1 X134.375 Y90.500
G1 X134.375 Y90.750
G1 X134.500 Y90.875
G1 X134.625 Y91.000
G1 X134.750 Y91.125
G1 X134.875 Y91.250
G1 X135.000 Y91.375
G1 X135.250 Y91.375
G1 X135.375 Y91.500
G0 Z2.000 F3000
M400
M204 P600 T600
G1 F1300
G0 X135.625 Y97.750 Z2.000
M400
M204 P200 T200
G1 F600
G1 Z0.000 F2500
G1 X135.750 Y97.875
G1 X136.000 Y97.875
G1 X136.250 Y97.875
G1 X136.500 Y97.875
G1 X136.750 Y97.875
G1 X137.000 Y97.875
G1 X137.125 Y97.750
G1 X137.250 Y97.625
G1 X137.375 Y97.500
G1 X137.500 Y97.375
G1 X137.625 Y97.250
G1 X137.750 Y97.125
G1 X137.875 Y97.000
G1 X137.875 Y96.750
G1 X137.875 Y96.500
G1 X138.000 Y96.375
G1 X138.125 Y96.250
G1 X138.000 Y96.125
G1 X137.875 Y96.000
G1 X137.875 Y95.750
G1 X137.875 Y95.500
G1 X137.750 Y95.375
G1 X137.625 Y95.250
G1 X137.500 Y95.125
G1 X137.375 Y95.000
G1 X137.250 Y94.875
G1 X137.000 Y94.875
G1 X136.875 Y94.750
G1 X136.750 Y94.625
G1 X136.500 Y94.625
G1 X136.250 Y94.625
G1 X136.000 Y94.625
G1 X135.875 Y94.750
G1 X135.750 Y94.875
G1 X135.500 Y94.875
G1 X135.375 Y95.000
G1 X135.250 Y95.125
G1 X135.125 Y95.250
G1 X135.000 Y95.375
G1 X134.875 Y95.500
G1 X134.875 Y95.750
G1 X134.875 Y96.000
G1 X134.750 Y96.125
G1 X134.625 Y96.250
G0 Z2.000 F3000

; --- CIKEL NAMAKANJA ---
G0 Z2.000 F3000
M400
M204 P600 T600
G1 F1300
G0 X52.062 Y4.408 Z8.000
G1 Z1.000 F3000
G1 X52.062 Y4.408 F2500
G1 X52.062 Y6.158 F2500
G1 X48.562 Y4.408 F2500
G1 X52.062 Y0.000 F2500
G0 Z3.000 F3000
G0 X71.359 Y15.724
G0 Z8.000 F3000
G0 X134.750 Y96.375 Z2.000
M400
M204 P200 T200
G1 F600
G1 Z0.000 F2500
G1 X134.750 Y96.375
G1 X134.875 Y96.500
G1 X134.875 Y96.750
G1 X134.875 Y97.000
G1 X135.000 Y97.125
G1 X135.125 Y97.250
G1 X135.125 Y97.500
G1 X135.250 Y97.625
G1 X135.500 Y97.625
G1 X135.625 Y97.750
G0 Z2.000 F3000
M400
M204 P600 T600
G1 F1300
G0 X130.625 Y101.500 Z2.000
M400
M204 P200 T200
G1 F600
G1 Z0.000 F2500
G1 X130.750 Y101.625
G1 X131.000 Y101.625
G1 X131.250 Y101.625
G1 X131.375 Y101.500
G1 X131.500 Y101.375
G1 X131.750 Y101.375
G1 X131.875 Y101.250
G1 X132.000 Y101.125
G1 X132.125 Y101.000
G1 X132.250 Y100.875
G1 X132.375 Y100.750
G1 X132.375 Y100.500
G1 X132.500 Y100.375
G1 X132.625 Y100.250
G1 X132.625 Y100.000
G1 X132.625 Y99.750
G1 X132.625 Y99.500
G1 X132.500 Y99.375
G1 X132.375 Y99.250
G1 X132.375 Y99.000
G1 X132.250 Y98.875
G1 X132.125 Y98.750
G1 X132.000 Y98.625
G1 X131.750 Y98.625
G1 X131.625 Y98.500
G1 X131.500 Y98.375
G1 X131.250 Y98.375
G1 X131.000 Y98.375
G1 X130.750 Y98.375
G1 X130.500 Y98.375
G1 X130.375 Y98.500
G1 X130.250 Y98.625
G1 X130.000 Y98.625
G1 X129.875 Y98.750
G1 X129.750 Y98.875
G1 X129.625 Y99.000
G1 X129.625 Y99.250
G1 X129.500 Y99.375
G1 X129.375 Y99.500
G1 X129.375 Y99.750
G1 X129.375 Y100.000
G1 X129.375 Y100.250
G1 X129.375 Y100.500
G1 X129.500 Y100.625
G1 X129.625 Y100.750
G1 X129.750 Y100.875
G1 X129.875 Y101.000
G1 X130.000 Y101.125
G1 X130.125 Y101.250
G1 X130.250 Y101.375
G1 X130.500 Y101.375
G1 X130.625 Y101.500
G0 Z2.000 F3000
M400
M204 P600 T600
G1 F1300
G0 X136.125 Y104.250 Z2.000
M400
M204 P200 T200
G1 F600
G1 Z0.000 F2500
G1 X136.250 Y104.375
G1 X136.500 Y104.375
G1 X136.750 Y104.375
G1 X137.000 Y104.375
G1 X137.250 Y104.375
G1 X137.500 Y104.375
G1 X137.625 Y104.250
G1 X137.750 Y104.125
G1 X137.875 Y104.000
G1 X138.000 Y103.875
G1 X138.125 Y103.750
G1 X138.250 Y103.625
G1 X138.375 Y103.500
G1 X138.375 Y103.250
G1 X138.375 Y103.000
G1 X138.375 Y102.750
G1 X138.375 Y102.500
G1 X138.375 Y102.250
G1 X138.250 Y102.125
G1 X138.125 Y102.000
G1 X138.125 Y101.750
G1 X138.000 Y101.625
G1 X137.875 Y101.500
G1 X137.750 Y101.375
G1 X137.500 Y101.375
G1 X137.375 Y101.250
G1 X137.250 Y101.125
G1 X137.000 Y101.125
G1 X136.750 Y101.125
G1 X136.500 Y101.125
G1 X136.375 Y101.250
G1 X136.250 Y101.375
G1 X136.000 Y101.375
G1 X135.875 Y101.500
G1 X135.750 Y101.625
G1 X135.625 Y101.750
G1 X135.500 Y101.875
G1 X135.375 Y102.000
G1 X135.375 Y102.250
G1 X135.250 Y102.375
G1 X135.125 Y102.500
G1 X135.125 Y102.750
G1 X135.125 Y103.000
G1 X135.250 Y103.125
G1 X135.375 Y103.250
G1 X135.375 Y103.500
G1 X135.500 Y103.625
G1 X135.625 Y103.750
G1 X135.625 Y104.000
G1 X135.750 Y104.125
G1 X136.000 Y104.125
G1 X136.125 Y104.250
G0 Z2.000 F3000
M400
M204 P600 T600
G1 F1300
G0 X131.125 Y108.000 Z2.000
M400
M204 P200 T200
G1 F600
G1 Z0.000 F2500
G1 X131.250 Y108.125
G1 X131.500 Y108.125
G1 X131.750 Y108.125
G1 X131.875 Y108.000
G1 X132.000 Y107.875
G1 X132.250 Y107.875
G1 X132.375 Y107.750
G1 X132.500 Y107.625
G1 X132.625 Y107.500
G1 X132.750 Y107.375
G1 X132.875 Y107.250
G1 X132.875 Y107.000
G1 X133.000 Y106.875
G1 X133.125 Y106.750
G1 X133.125 Y106.500
G1 X133.125 Y106.250
G1 X133.000 Y106.125
G1 X132.875 Y106.000
G1 X132.875 Y105.750
G1 X132.750 Y105.625
G1 X132.625 Y105.500
G1 X132.625 Y105.250
G1 X132.500 Y105.125
G1 X132.250 Y105.125
G1 X132.125 Y105.000
G1 X132.000 Y104.875
G1 X131.750 Y104.875
G1 X131.500 Y104.875
G1 X131.250 Y104.875
G1 X131.000 Y104.875
G1 X130.750 Y104.875
G1 X130.625 Y105.000
G1 X130.500 Y105.125
G1 X130.375 Y105.250
G1 X130.250 Y105.375
G1 X130.125 Y105.500
G1 X130.000 Y105.625
G1 X129.875 Y105.750
G1 X129.875 Y106.000
G1 X129.875 Y106.250
G1 X129.875 Y106.500
G1 X129.875 Y106.750
G1 X129.875 Y107.000
G1 X130.000 Y107.125
G1 X130.125 Y107.250
G1 X130.125 Y107.500
G1 X130.250 Y107.625
G1 X130.500 Y107.625
G1 X130.625 Y107.750
G1 X130.750 Y107.875
G1 X131.000 Y107.875
G1 X131.125 Y108.000
G0 Z2.000 F3000
M400
M204 P600 T600
G1 F1300
G0 X136.625 Y110.750 Z2.000
M400
M204 P200 T200
G1 F600
G1 Z0.000 F2500
G1 X136.750 Y110.875
G1 X137.000 Y110.875
G1 X137.250 Y110.875
G1 X137.500 Y110.875
G1 X137.750 Y110.875
G1 X137.875 Y110.750
G1 X138.000 Y110.625
G1 X138.250 Y110.625
G1 X138.375 Y110.500
G1 X138.500 Y110.375
G1 X138.625 Y110.250
G1 X138.625 Y110.000
G1 X138.750 Y109.875
G1 X138.875 Y109.750
G1 X138.875 Y109.500
G1 X138.875 Y109.250
G1 X138.875 Y109.000
G1 X138.875 Y108.750
G1 X138.750 Y108.625
G1 X138.625 Y108.500
G1 X138.500 Y108.375
G1 X138.375 Y108.250
G1 X138.250 Y108.125
G1 X138.125 Y108.000
G1 X138.000 Y107.875
G1 X137.750 Y107.875
G1 X137.625 Y107.750
G1 X137.500 Y107.625
G1 X137.250 Y107.625
G1 X137.000 Y107.625
G1 X136.875 Y107.750
G1 X136.750 Y107.875
G1 X136.500 Y107.875
G1 X136.375 Y108.000
G1 X136.250 Y108.125
G1 X136.125 Y108.250
G1 X136.000 Y108.375
G1 X135.875 Y108.500
G1 X135.875 Y108.750
G1 X135.750 Y108.875
G1 X135.625 Y109.000
G1 X135.625 Y109.250
G1 X135.625 Y109.500
G1 X135.750 Y109.625
G1 X135.875 Y109.750
G1 X135.875 Y110.000
G1 X136.000 Y110.125
G1 X136.125 Y110.250
G1 X136.250 Y110.375
G1 X136.375 Y110.500
G1 X136.500 Y110.625
G1 X136.625 Y110.750
G0 Z2.000 F3000
M400
M204 P600 T600
G1 F1300
G0 X142.375 Y113.500 Z2.000
M400
M204 P200 T200
G1 F600
G1 Z0.000 F2500
G1 X142.500 Y113.625
G1 X142.750 Y113.625
G1 X143.000 Y113.625
G1 X143.250 Y113.625
G1 X143.500 Y113.625
G1 X143.750 Y113.625
G1 X143.875 Y113.500
G1 X144.000 Y113.375
G1 X144.250 Y113.375
G1 X144.375 Y113.250
G1 X144.375 Y113.000
G1 X144.500 Y112.875
G1 X144.625 Y112.750
G1 X144.625 Y112.500
G1 X144.625 Y112.250
G1 X144.625 Y112.000
G1 X144.625 Y111.750
G1 X144.625 Y111.500
G1 X144.500 Y111.375
G1 X144.375 Y111.250
G1 X144.375 Y111.000
G1 X144.250 Y110.875
G1 X144.000 Y110.875
G1 X143.875 Y110.750
G1 X143.750 Y110.625
G1 X143.500 Y110.625
G1 X143.250 Y110.625
G1 X143.000 Y110.625
G1 X142.750 Y110.625
G1 X142.500 Y110.625
G1 X142.375 Y110.750
G1 X142.250 Y110.875
G1 X142.000 Y110.875
G1 X141.875 Y111.000
G1 X141.875 Y111.250
G1 X141.750 Y111.375
G1 X141.625 Y111.500
G1 X141.625 Y111.750
G1 X141.625 Y112.000
G1 X141.625 Y112.250
G1 X141.625 Y112.500
G1 X141.625 Y112.750
G1 X141.750 Y112.875
G1 X141.875 Y113.000
G1 X141.875 Y113.250
G1 X142.000 Y113.375
G1 X142.250 Y113.375
G1 X142.375 Y113.500
G0 Z2.000 F3000
M400
M204 P600 T600
G1 F1300
G0 X137.375 Y117.250 Z2.000
M400
M204 P200 T200
G1 F600
G1 Z0.000 F2500
G1 X137.500 Y117.375
G1 X137.750 Y117.375
G1 X138.000 Y117.375
G1 X138.125 Y117.250
G1 X138.250 Y117.125
G1 X138.500 Y117.125
G1 X138.625 Y117.000
G1 X138.750 Y116.875
G1 X138.875 Y116.750
G1 X139.000 Y116.625
G1 X139.125 Y116.500
G1 X139.125 Y116.250
G1 X139.125 Y116.000
G1 X139.250 Y115.875
G1 X139.375 Y115.750
G1 X139.250 Y115.625
G1 X139.125 Y115.500
G1 X139.125 Y115.250
G1 X139.125 Y115.000
G1 X139.000 Y114.875
G1 X138.875 Y114.750
G1 X138.750 Y114.625
G1 X138.625 Y114.500
G1 X138.500 Y114.375
G1 X138.250 Y114.375
G1 X138.125 Y114.250
G1 X138.000 Y114.125
G1 X137.750 Y114.125
G1 X137.500 Y114.125
G1 X137.375 Y114.250
G1 X137.250 Y114.375
G1 X137.000 Y114.375
G1 X136.875 Y114.500
G1 X136.750 Y114.625
G1 X136.625 Y114.750
G1 X136.500 Y114.875
G1 X136.375 Y115.000
G1 X136.375 Y115.250
G1 X136.250 Y115.375
G1 X136.125 Y115.500
G1 X136.125 Y115.750
G1 X136.125 Y116.000
G1 X136.250 Y116.125
G1 X136.375 Y116.250
G1 X136.375 Y116.500
G1 X136.500 Y116.625
G1 X136.625 Y116.750
G1 X136.750 Y116.875
G1 X136.875 Y117.000
G1 X137.000 Y117.125
G1 X137.250 Y117.125
G1 X137.375 Y117.250
G0 Z2.000 F3000
M400
M204 P600 T600
G1 F1300
G0 X142.875 Y120.000 Z2.000
M400
M204 P200 T200
G1 F600
G1 Z0.000 F2500
G1 X143.000 Y120.125
G1 X143.250 Y120.125
G1 X143.500 Y120.125
G1 X143.750 Y120.125
G1 X144.000 Y120.125
G1 X144.250 Y120.125
G1 X144.375 Y120.000
G1 X144.500 Y119.875
G1 X144.625 Y119.750
G1 X144.750 Y119.625
G1 X144.875 Y119.500
G1 X144.875 Y119.250
G1 X145.000 Y119.125
G1 X145.125 Y119.000
G1 X145.125 Y118.750
G1 X145.125 Y118.500
G1 X145.125 Y118.250
G1 X145.125 Y118.000
G1 X145.000 Y117.875
G1 X144.875 Y117.750
G1 X144.750 Y117.625
G1 X144.625 Y117.500
G1 X144.500 Y117.375
G1 X144.375 Y117.250
G1 X144.250 Y117.125
G1 X144.000 Y117.125
G1 X143.750 Y117.125
G1 X143.500 Y117.125
G1 X143.250 Y117.125
G1 X143.000 Y117.125
G1 X142.875 Y117.250
G1 X142.750 Y117.375
G1 X142.500 Y117.375
G1 X142.375 Y117.500
G1 X142.375 Y117.750
G1 X142.250 Y117.875
G1 X142.125 Y118.000
G1 X142.125 Y118.250
G1 X142.125 Y118.500
G1 X142.125 Y118.750
G1 X142.125 Y119.000
G1 X142.125 Y119.250
G1 X142.250 Y119.375
G1 X142.375 Y119.500
G1 X142.500 Y119.625
G1 X142.625 Y119.750
G1 X142.750 Y119.875
G1 X142.875 Y120.000
G0 Z2.000 F3000
M400
M204 P600 T600
G1 F1300
G0 X137.375 Y123.500 Z2.000
M400
M204 P200 T200
G1 F600
G1 Z0.000 F2500
G1 X137.500 Y123.625
G1 X137.750 Y123.625
G1 X138.000 Y123.625
G1 X138.250 Y123.625
G1 X138.500 Y123.625
G1 X138.750 Y123.625
G1 X139.000 Y123.625
G1 X139.125 Y123.500
G1 X139.250 Y123.375
G1 X139.375 Y123.250
G1 X139.375 Y123.000
G1 X139.500 Y122.875
G1 X139.625 Y122.750
G1 X139.625 Y122.500
G1 X139.625 Y122.250
G1 X139.625 Y122.000
G1 X139.625 Y121.750
G1 X139.500 Y121.625
G1 X139.375 Y121.500
G1 X139.375 Y121.250
G1 X139.250 Y121.125
G1 X139.125 Y121.000
G1 X139.000 Y120.875
G1 X138.750 Y120.875
G1 X138.500 Y120.875
G1 X138.375 Y120.750
G1 X138.250 Y120.625
G1 X138.000 Y120.625
G1 X137.875 Y120.750
G1 X137.750 Y120.875
G1 X137.500 Y120.875
G1 X137.375 Y121.000
G1 X137.250 Y121.125
G1 X137.125 Y121.250
G1 X137.000 Y121.375
G1 X136.875 Y121.500
G1 X136.875 Y121.750
G1 X136.750 Y121.875
G1 X136.625 Y122.000
G1 X136.625 Y122.250
G1 X136.625 Y122.500
G1 X136.750 Y122.625
G1 X136.875 Y122.750
G1 X136.875 Y123.000
G1 X137.000 Y123.125
G1 X137.125 Y123.250
G1 X137.250 Y123.375
G1 X137.375 Y123.500
G0 Z2.000 F3000
M400
M204 P600 T600
G1 F1300
G0 X131.875 Y120.750 Z2.000
M400
M204 P200 T200
G1 F600
G1 Z0.000 F2500
G1 X132.000 Y120.875
G0 Z2.000 F3000

; --- CIKEL NAMAKANJA ---
G0 Z2.000 F3000
M400
M204 P600 T600
G1 F1300
G0 X54.776 Y0.000 Z8.000
G1 Z1.000 F3000
G1 X54.776 Y0.000 F2500
G1 X54.776 Y1.750 F2500
G1 X51.276 Y0.000 F2500
G1 X54.776 Y0.000 F2500
G0 Z3.000 F3000
G0 X69.365 Y17.104
G0 Z8.000 F3000
G0 X132.250 Y120.875 Z2.000
M400
M204 P200 T200
G1 F600
G1 Z0.000 F2500
G1 X132.250 Y120.875
G1 X132.500 Y120.875
G1 X132.750 Y120.875
G1 X132.875 Y120.750
G1 X133.000 Y120.625
G1 X133.250 Y120.625
G1 X133.375 Y120.500
G1 X133.500 Y120.375
G1 X133.625 Y120.250
G1 X133.625 Y120.000
G1 X133.750 Y119.875
G1 X133.875 Y119.750
G1 X133.875 Y119.500
G1 X133.875 Y119.250
G1 X133.875 Y119.000
G1 X133.750 Y118.875
G1 X133.625 Y118.750
G1 X133.625 Y118.500
G1 X133.500 Y118.375
G1 X133.375 Y118.250
G1 X133.250 Y118.125
G1 X133.000 Y118.125
G1 X132.875 Y118.000
G1 X132.750 Y117.875
G1 X132.500 Y117.875
G1 X132.250 Y117.875
G1 X132.000 Y117.875
G1 X131.875 Y118.000
G1 X131.750 Y118.125
G1 X131.500 Y118.125
G1 X131.375 Y118.250
G1 X131.250 Y118.375
G1 X131.125 Y118.500
G1 X131.125 Y118.750
G1 X131.000 Y118.875
G1 X130.875 Y119.000
G1 X130.875 Y119.250
G1 X130.875 Y119.500
G1 X130.875 Y119.750
G1 X131.000 Y119.875
G1 X131.125 Y120.000
G1 X131.125 Y120.250
G1 X131.250 Y120.375
G1 X131.375 Y120.500
G1 X131.500 Y120.625
G1 X131.750 Y120.625
G1 X131.875 Y120.750
G0 Z2.000 F3000
M400
M204 P600 T600
G1 F1300
G0 X126.625 Y124.500 Z2.000
M400
M204 P200 T200
G1 F600
G1 Z0.000 F2500
G1 X126.750 Y124.625
G1 X127.000 Y124.625
G1 X127.125 Y124.500
G1 X127.250 Y124.375
G1 X127.500 Y124.375
G1 X127.750 Y124.375
G1 X127.875 Y124.250
G1 X128.000 Y124.125
G1 X128.125 Y124.000
G1 X128.250 Y123.875
G1 X128.375 Y123.750
G1 X128.375 Y123.500
G1 X128.375 Y123.250
G1 X128.375 Y123.000
G1 X128.375 Y122.750
G1 X128.375 Y122.500
G1 X128.375 Y122.250
G1 X128.250 Y122.125
G1 X128.125 Y122.000
G1 X128.000 Y121.875
G1 X127.875 Y121.750
G1 X127.750 Y121.625
G1 X127.500 Y121.625
G1 X127.250 Y121.625
G1 X127.000 Y121.625
G1 X126.750 Y121.625
G1 X126.500 Y121.625
G1 X126.250 Y121.625
G1 X126.125 Y121.750
G1 X126.000 Y121.875
G1 X125.875 Y122.000
G1 X125.750 Y122.125
G1 X125.625 Y122.250
G1 X125.625 Y122.500
G1 X125.500 Y122.625
G1 X125.375 Y122.750
G1 X125.375 Y123.000
G1 X125.375 Y123.250
G1 X125.500 Y123.375
G1 X125.625 Y123.500
G1 X125.625 Y123.750
G1 X125.750 Y123.875
G1 X125.875 Y124.000
G1 X126.000 Y124.125
G1 X126.125 Y124.250
G1 X126.250 Y124.375
G1 X126.500 Y124.375
G1 X126.625 Y124.500
G0 Z2.000 F3000
M400
M204 P600 T600
G1 F1300
G0 X132.125 Y127.250 Z2.000
M400
M204 P200 T200
G1 F600
G1 Z0.000 F2500
G1 X132.250 Y127.375
G1 X132.500 Y127.375
G1 X132.750 Y127.375
G1 X133.000 Y127.375
G1 X133.250 Y127.375
G1 X133.375 Y127.250
G1 X133.500 Y127.125
G1 X133.750 Y127.125
G1 X133.875 Y127.000
G1 X134.000 Y126.875
G1 X134.125 Y126.750
G1 X134.125 Y126.500
G1 X134.125 Y126.250
G1 X134.250 Y126.125
G1 X134.375 Y126.000
G1 X134.375 Y125.750
G1 X134.375 Y125.500
G1 X134.250 Y125.375
G1 X134.125 Y125.250
G1 X134.125 Y125.000
G1 X134.000 Y124.875
G1 X133.875 Y124.750
G1 X133.750 Y124.625
G1 X133.500 Y124.625
G1 X133.375 Y124.500
G1 X133.250 Y124.375
G1 X133.000 Y124.375
G1 X132.750 Y124.375
G1 X132.500 Y124.375
G1 X132.250 Y124.375
G1 X132.125 Y124.500
G1 X132.000 Y124.625
G1 X131.875 Y124.750
G1 X131.750 Y124.875
G1 X131.625 Y125.000
G1 X131.500 Y125.125
G1 X131.375 Y125.250
G1 X131.375 Y125.500
G1 X131.375 Y125.750
G1 X131.375 Y126.000
G1 X131.375 Y126.250
G1 X131.375 Y126.500
G1 X131.500 Y126.625
G1 X131.625 Y126.750
G1 X131.750 Y126.875
G1 X131.875 Y127.000
G1 X132.000 Y127.125
G1 X132.125 Y127.250
G0 Z2.000 F3000
M400
M204 P600 T600
G1 F1300
G0 X137.875 Y130.000 Z2.000
M400
M204 P200 T200
G1 F600
G1 Z0.000 F2500
G1 X138.000 Y130.125
G1 X138.250 Y130.125
G1 X138.500 Y130.125
G1 X138.750 Y130.125
G1 X139.000 Y130.125
G1 X139.250 Y130.125
G1 X139.375 Y130.000
G1 X139.500 Y129.875
G1 X139.625 Y129.750
G1 X139.750 Y129.625
G1 X139.875 Y129.500
G1 X140.000 Y129.375
G1 X140.125 Y129.250
G1 X140.125 Y129.000
G1 X140.125 Y128.750
G1 X140.125 Y128.500
G1 X140.125 Y128.250
G1 X140.000 Y128.125
G1 X139.875 Y128.000
G1 X139.875 Y127.750
G1 X139.750 Y127.625
G1 X139.625 Y127.500
G1 X139.500 Y127.375
G1 X139.250 Y127.375
G1 X139.000 Y127.375
G1 X138.875 Y127.250
G1 X138.750 Y127.125
G1 X138.500 Y127.125
G1 X138.375 Y127.250
G1 X138.250 Y127.375
G1 X138.000 Y127.375
G1 X137.875 Y127.500
G1 X137.750 Y127.625
G1 X137.500 Y127.625
G1 X137.375 Y127.750
G1 X137.375 Y128.000
G1 X137.250 Y128.125
G1 X137.125 Y128.250
G1 X137.125 Y128.500
G1 X137.125 Y128.750
G1 X137.125 Y129.000
G1 X137.125 Y129.250
G1 X137.250 Y129.375
G1 X137.375 Y129.500
G1 X137.500 Y129.625
G1 X137.625 Y129.750
G1 X137.750 Y129.875
G1 X137.875 Y130.000
G0 Z2.000 F3000
M400
M204 P600 T600
G1 F1300
G0 X132.875 Y133.750 Z2.000
M400
M204 P200 T200
G1 F600
G1 Z0.000 F2500
G1 X133.000 Y133.875
G1 X133.250 Y133.875
G1 X133.500 Y133.875
G1 X133.625 Y133.750
G1 X133.750 Y133.625
G1 X134.000 Y133.625
G1 X134.125 Y133.500
G1 X134.250 Y133.375
G1 X134.375 Y133.250
G1 X134.500 Y133.125
G1 X134.625 Y133.000
G1 X134.625 Y132.750
G1 X134.625 Y132.500
G1 X134.625 Y132.250
G1 X134.625 Y132.000
G1 X134.625 Y131.750
G1 X134.500 Y131.625
G1 X134.375 Y131.500
G1 X134.250 Y131.375
G1 X134.125 Y131.250
G1 X134.000 Y131.125
G1 X133.875 Y131.000
G1 X133.750 Y130.875
G1 X133.500 Y130.875
G1 X133.250 Y130.875
G1 X133.000 Y130.875
G1 X132.750 Y130.875
G1 X132.625 Y131.000
G1 X132.500 Y131.125
G1 X132.375 Y131.250
G1 X132.250 Y131.375
G1 X132.125 Y131.500
G1 X132.000 Y131.625
G1 X131.875 Y131.750
G1 X131.875 Y132.000
G1 X131.875 Y132.250
G1 X131.875 Y132.500
G1 X131.875 Y132.750
G1 X131.875 Y133.000
G1 X132.000 Y133.125
G1 X132.125 Y133.250
G1 X132.250 Y133.375
G1 X132.375 Y133.500
G1 X132.500 Y133.625
G1 X132.750 Y133.625
G1 X132.875 Y133.750
G0 Z2.000 F3000
M400
M204 P600 T600
G1 F1300
G0 X138.375 Y136.500 Z2.000
M400
M204 P200 T200
G1 F600
G1 Z0.000 F2500
G1 X138.500 Y136.625
G1 X138.750 Y136.625
G1 X139.000 Y136.625
G1 X139.250 Y136.625
G1 X139.500 Y136.625
G1 X139.625 Y136.500
G1 X139.750 Y136.375
G1 X140.000 Y136.375
G1 X140.125 Y136.250
G1 X140.250 Y136.125
G1 X140.375 Y136.000
G1 X140.375 Y135.750
G1 X140.500 Y135.625
G1 X140.625 Y135.500
G1 X140.625 Y135.250
G1 X140.625 Y135.000
G1 X140.500 Y134.875
G1 X140.375 Y134.750
G1 X140.375 Y134.500
G1 X140.250 Y134.375
G1 X140.125 Y134.250
G1 X140.000 Y134.125
G1 X139.875 Y134.000
G1 X139.750 Y133.875
G1 X139.500 Y133.875
G1 X139.250 Y133.875
G1 X139.000 Y133.875
G1 X138.750 Y133.875
G1 X138.500 Y133.875
G1 X138.375 Y134.000
G1 X138.250 Y134.125
G1 X138.000 Y134.125
G1 X137.875 Y134.250
G1 X137.875 Y134.500
G1 X137.750 Y134.625
G1 X137.625 Y134.750
G1 X137.625 Y135.000
G1 X137.625 Y135.250
G1 X137.625 Y135.500
G1 X137.750 Y135.625
G1 X137.875 Y135.750
G1 X137.875 Y136.000
G1 X138.000 Y136.125
G1 X138.125 Y136.250
G1 X138.250 Y136.375
G1 X138.375 Y136.500
G0 Z2.000 F3000
M400
M204 P600 T600
G1 F1300
G0 X144.125 Y139.250 Z2.000
M400
M204 P200 T200
G1 F600
G1 Z0.000 F2500
G1 X144.250 Y139.375
G1 X144.500 Y139.375
G1 X144.750 Y139.375
G1 X145.000 Y139.375
G1 X145.250 Y139.375
G1 X145.500 Y139.375
G1 X145.625 Y139.250
G1 X145.750 Y139.125
G1 X146.000 Y139.125
G1 X146.125 Y139.000
G1 X146.125 Y138.750
G1 X146.250 Y138.625
G1 X146.375 Y138.500
G1 X146.375 Y138.250
G1 X146.375 Y138.000
G1 X146.375 Y137.750
G1 X146.375 Y137.500
G1 X146.250 Y137.375
G1 X146.125 Y137.250
G1 X146.000 Y137.125
G1 X145.875 Y137.000
G1 X145.750 Y136.875
G1 X145.625 Y136.750
G1 X145.500 Y136.625
G1 X145.250 Y136.625
G1 X145.000 Y136.625
G1 X144.750 Y136.625
G1 X144.500 Y136.625
G1 X144.375 Y136.750
G1 X144.250 Y136.875
G1 X144.000 Y136.875
G1 X143.875 Y137.000
G1 X143.750 Y137.125
G1 X143.625 Y137.250
G1 X143.625 Y137.500
G1 X143.625 Y137.750
G1 X143.500 Y137.875
G1 X143.375 Y138.000
G1 X143.500 Y138.125
G1 X143.625 Y138.250
G1 X143.625 Y138.500
G1 X143.625 Y138.750
G1 X143.750 Y138.875
G1 X143.875 Y139.000
G1 X144.000 Y139.125
G1 X144.125 Y139.250
G0 Z2.000 F3000
M400
M204 P600 T600
G1 F1300
G0 X149.750 Y139.625 Z2.000
M400
M204 P200 T200
G1 F600
G1 Z0.000 F2500
G1 X149.625 Y139.750
G1 X149.500 Y139.875
G1 X149.375 Y140.000
G1 X149.375 Y140.250
G1 X149.375 Y140.500
G1 X149.250 Y140.625
G1 X149.125 Y140.750
G1 X149.125 Y141.000
G1 X149.125 Y141.250
G1 X149.250 Y141.375
G1 X149.375 Y141.500
G1 X149.375 Y141.750
G1 X149.500 Y141.875
G1 X149.625 Y142.000
G1 X149.750 Y142.125
G0 Z2.000 F3000
M400
M204 P600 T600
G1 F1300
G0 X149.750 Y147.125 Z2.000
M400
M204 P200 T200
G1 F600
G1 Z0.000 F2500
G1 X149.625 Y147.250
G1 X149.625 Y147.500
G1 X149.750 Y147.625
G0 Z2.000 F3000
M400
M204 P600 T600
G1 F1300
G0 X144.625 Y145.750 Z2.000
M400
M204 P200 T200
G1 F600
G1 Z0.000 F2500
G1 X144.750 Y145.875
G1 X145.000 Y145.875
G1 X145.250 Y145.875
G1 X145.500 Y145.875
G1 X145.750 Y145.875
G1 X146.000 Y145.875
G1 X146.125 Y145.750
G1 X146.250 Y145.625
G1 X146.375 Y145.500
G1 X146.500 Y145.375
G1 X146.625 Y145.250
G1 X146.625 Y145.000
G1 X146.750 Y144.875
G1 X146.875 Y144.750
G1 X146.875 Y144.500
G1 X146.875 Y144.250
G1 X146.750 Y144.125
G1 X146.625 Y144.000
G1 X146.625 Y143.750
G1 X146.500 Y143.625
G1 X146.375 Y143.500
G1 X146.250 Y143.375
G1 X146.125 Y143.250
G1 X146.000 Y143.125
G1 X145.750 Y143.125
G1 X145.500 Y143.125
G1 X145.250 Y143.125
G1 X145.000 Y143.125
G1 X144.750 Y143.125
G1 X144.625 Y143.250
G1 X144.500 Y143.375
G1 X144.375 Y143.500
G1 X144.250 Y143.625
G1 X144.125 Y143.750
G1 X144.125 Y144.000
G1 X144.000 Y144.125
G1 X143.875 Y144.250
G1 X143.875 Y144.500
G1 X143.875 Y144.750
G1 X144.000 Y144.875
G1 X144.125 Y145.000
G1 X144.125 Y145.250
G1 X144.250 Y145.375
G1 X144.375 Y145.500
G1 X144.500 Y145.625
G1 X144.625 Y145.750
G0 Z2.000 F3000
M400
M204 P600 T600
G1 F1300
G0 X139.125 Y143.000 Z2.000
M400
M204 P200 T200
G1 F600
G1 Z0.000 F2500
G1 X139.250 Y143.125
G1 X139.500 Y143.125
G1 X139.750 Y143.125
G1 X140.000 Y143.125
G1 X140.125 Y143.000
G1 X140.250 Y142.875
G1 X140.375 Y142.750
G1 X140.500 Y142.625
G1 X140.625 Y142.500
G1 X140.750 Y142.375
G1 X140.875 Y142.250
G1 X140.875 Y142.000
G1 X140.875 Y141.750
G1 X140.875 Y141.500
G1 X140.875 Y141.250
G1 X140.875 Y141.000
G1 X140.750 Y140.875
G1 X140.625 Y140.750
G1 X140.500 Y140.625
G1 X140.375 Y140.500
G1 X140.250 Y140.375
G1 X140.000 Y140.375
G1 X139.750 Y140.375
G1 X139.500 Y140.375
G1 X139.250 Y140.375
G1 X139.000 Y140.375
G1 X138.875 Y140.500
G1 X138.750 Y140.625
G1 X138.500 Y140.625
G1 X138.375 Y140.750
G1 X138.375 Y141.000
G1 X138.250 Y141.125
G1 X138.125 Y141.250
G1 X138.125 Y141.500
G1 X138.125 Y141.750
G1 X138.125 Y142.000
G1 X138.250 Y142.125
G1 X138.375 Y142.250
G1 X138.375 Y142.500
G1 X138.500 Y142.625
G1 X138.625 Y142.750
G1 X138.750 Y142.875
G1 X139.000 Y142.875
G1 X139.125 Y143.000
G0 Z2.000 F3000
M400
M204 P600 T600
G1 F1300
G0 X139.625 Y149.500 Z2.000
M400
M204 P200 T200
G1 F600
G1 Z0.000 F2500
G1 X139.750 Y149.625
G1 X140.000 Y149.625
G1 X140.250 Y149.625
G1 X140.375 Y149.500
G1 X140.500 Y149.375
G0 Z2.000 F3000

; --- CIKEL NAMAKANJA ---
G0 Z2.000 F3000
M400
M204 P600 T600
G1 F1300
G0 X63.542 Y6.784 Z8.000
G1 Z1.000 F3000
G1 X63.542 Y6.784 F2500
G1 X63.542 Y8.534 F2500
G1 X60.042 Y6.784 F2500
G1 X63.542 Y1.534 F2500
G0 Z3.000 F3000
G0 X68.602 Y17.544
G0 Z8.000 F3000
G0 X140.750 Y149.375 Z2.000
M400
M204 P200 T200
G1 F600
G1 Z0.000 F2500
G1 X140.750 Y149.375
G1 X140.875 Y149.250
G1 X141.000 Y149.125
G1 X141.125 Y149.000
G1 X141.125 Y148.750
G1 X141.250 Y148.625
G1 X141.375 Y148.500
G1 X141.375 Y148.250
G1 X141.375 Y148.000
G1 X141.375 Y147.750
G1 X141.250 Y147.625
G1 X141.125 Y147.500
G1 X141.125 Y147.250
G1 X141.000 Y147.125
G1 X140.875 Y147.000
G1 X140.750 Y146.875
G1 X140.500 Y146.875
G1 X140.250 Y146.875
G1 X140.000 Y146.875
G1 X139.750 Y146.875
G1 X139.500 Y146.875
G1 X139.250 Y146.875
G1 X139.125 Y147.000
G1 X139.000 Y147.125
G1 X138.875 Y147.250
G1 X138.875 Y147.500
G1 X138.750 Y147.625
G1 X138.625 Y147.750
G1 X138.625 Y148.000
G1 X138.625 Y148.250
G1 X138.625 Y148.500
G1 X138.750 Y148.625
G1 X138.875 Y148.750
G1 X138.875 Y149.000
G1 X139.000 Y149.125
G1 X139.125 Y149.250
G1 X139.250 Y149.375
G1 X139.500 Y149.375
G1 X139.625 Y149.500
G0 Z2.000 F3000
M400
M204 P600 T600
G1 F1300
G0 X145.125 Y150.000 Z2.000
M400
M204 P200 T200
G1 F600
G1 Z0.000 F2500
G1 X145.250 Y150.000
G1 X145.500 Y150.000
G1 X145.750 Y150.000
G1 X146.000 Y150.000
G1 X146.250 Y150.000
G1 X146.375 Y150.000
G1 X146.500 Y150.000
G1 X146.750 Y150.000
G1 X146.875 Y150.000
G1 X146.875 Y150.000
G1 X147.000 Y150.000
G1 X147.125 Y150.000
G1 X147.125 Y150.000
G1 X147.125 Y150.000
G1 X147.125 Y150.000
G1 X147.125 Y150.000
G1 X147.000 Y150.000
G1 X146.875 Y150.000
G1 X146.875 Y150.000
G1 X146.750 Y149.875
G1 X146.500 Y149.875
G1 X146.375 Y149.750
G1 X146.250 Y149.625
G1 X146.000 Y149.625
G1 X145.750 Y149.625
G1 X145.500 Y149.625
G1 X145.250 Y149.625
G1 X145.125 Y149.750
G1 X145.000 Y149.875
G1 X144.875 Y150.000
G1 X144.750 Y150.000
G1 X144.625 Y150.000
G1 X144.625 Y150.000
G1 X144.500 Y150.000
G1 X144.375 Y150.000
G1 X144.375 Y150.000
G1 X144.375 Y150.000
G1 X144.500 Y150.000
G1 X144.625 Y150.000
G1 X144.625 Y150.000
G1 X144.750 Y150.000
G1 X144.875 Y150.000
G1 X145.000 Y150.000
G1 X145.125 Y150.000
G0 Z2.000 F3000
M400
M204 P600 T600
G1 F1300
G0 X140.125 Y150.000 Z2.000
M400
M204 P200 T200
G1 F600
G1 Z0.000 F2500
G1 X140.250 Y150.000
G1 X140.500 Y150.000
G1 X140.750 Y150.000
G1 X140.875 Y150.000
G1 X141.000 Y150.000
G1 X141.250 Y150.000
G1 X141.375 Y150.000
G1 X141.500 Y150.000
G1 X141.625 Y150.000
G1 X141.625 Y150.000
G1 X141.750 Y150.000
G1 X141.875 Y150.000
G1 X141.875 Y150.000
G1 X141.875 Y150.000
G1 X141.875 Y150.000
G1 X141.750 Y150.000
G1 X141.625 Y150.000
G1 X141.625 Y150.000
G1 X141.500 Y150.000
G1 X141.375 Y150.000
G1 X141.250 Y150.000
G1 X141.000 Y150.000
G1 X140.875 Y150.000
G1 X140.750 Y150.000
G1 X140.500 Y150.000
G1 X140.250 Y150.000
G1 X140.125 Y150.000
G1 X140.000 Y150.000
G1 X139.750 Y150.000
G1 X139.625 Y150.000
G1 X139.500 Y150.000
G1 X139.375 Y150.000
G1 X139.250 Y150.000
G1 X139.125 Y150.000
G1 X139.125 Y150.000
G1 X139.125 Y150.000
G1 X139.125 Y150.000
G1 X139.125 Y150.000
G1 X139.125 Y150.000
G1 X139.250 Y150.000
G1 X139.375 Y150.000
G1 X139.500 Y150.000
G1 X139.625 Y150.000
G1 X139.750 Y150.000
G1 X140.000 Y150.000
G1 X140.125 Y150.000
G0 Z2.000 F3000
M400
M204 P600 T600
G1 F1300
G0 X145.625 Y150.000 Z2.000
M400
M204 P200 T200
G1 F600
G1 Z0.000 F2500
G1 X145.750 Y150.000
G1 X146.000 Y150.000
G1 X146.250 Y150.000
G1 X146.500 Y150.000
G1 X146.750 Y150.000
G1 X146.875 Y150.000
G1 X147.000 Y150.000
G1 X147.125 Y150.000
G1 X147.250 Y150.000
G1 X147.375 Y150.000
G1 X147.500 Y150.000
G1 X147.625 Y150.000
G1 X147.625 Y150.000
G1 X147.625 Y150.000
G1 X147.625 Y150.000
G1 X147.625 Y150.000
G1 X147.500 Y150.000
G1 X147.375 Y150.000
G1 X147.375 Y150.000
G1 X147.250 Y150.000
G1 X147.000 Y150.000
G1 X146.875 Y150.000
G1 X146.750 Y150.000
G1 X146.500 Y150.000
G1 X146.250 Y150.000
G1 X146.000 Y150.000
G1 X145.750 Y150.000
G1 X145.625 Y150.000
G1 X145.500 Y150.000
G1 X145.375 Y150.000
G1 X145.250 Y150.000
G1 X145.125 Y150.000
G1 X145.000 Y150.000
G1 X144.875 Y150.000
G1 X144.875 Y150.000
G1 X144.875 Y150.000
G1 X144.875 Y150.000
G1 X145.000 Y150.000
G1 X145.125 Y150.000
G1 X145.125 Y150.000
G1 X145.250 Y150.000
G1 X145.375 Y150.000
G1 X145.500 Y150.000
G1 X145.625 Y150.000
G0 Z2.000 F3000
M400
M204 P600 T600
G1 F1300
G0 X140.625 Y150.000 Z2.000
M400
M204 P200 T200
G1 F600
G1 Z0.000 F2500
G1 X140.750 Y150.000
G1 X141.000 Y150.000
G1 X141.125 Y150.000
G1 X141.250 Y150.000
G1 X141.500 Y150.000
G1 X141.625 Y150.000
G1 X141.750 Y150.000
G1 X142.000 Y150.000
G1 X142.125 Y150.000
G1 X142.125 Y150.000
G1 X142.250 Y150.000
G1 X142.375 Y150.000
G1 X142.375 Y150.000
G1 X142.375 Y150.000
G1 X142.375 Y150.000
G1 X142.250 Y150.000
G1 X142.125 Y150.000
G1 X142.125 Y150.000
G1 X142.000 Y150.000
G1 X141.875 Y150.000
G1 X141.750 Y150.000
G1 X141.500 Y150.000
G1 X141.375 Y150.000
G1 X141.250 Y150.000
G1 X141.000 Y150.000
G1 X140.750 Y150.000
G1 X140.625 Y150.000
G1 X140.500 Y150.000
G1 X140.250 Y150.000
G1 X140.125 Y150.000
G1 X140.000 Y150.000
G1 X139.875 Y150.000
G1 X139.750 Y150.000
G1 X139.625 Y150.000
G1 X139.625 Y150.000
G1 X139.625 Y150.000
G1 X139.625 Y150.000
G1 X139.625 Y150.000
G1 X139.625 Y150.000
G1 X139.750 Y150.000
G1 X139.875 Y150.000
G1 X140.000 Y150.000
G1 X140.125 Y150.000
G1 X140.250 Y150.000
G1 X140.500 Y150.000
G1 X140.625 Y150.000
G0 Z2.000 F3000
M400
M204 P600 T600
G1 F1300
G0 X146.125 Y150.000 Z2.000
M400
M204 P200 T200
G1 F600
G1 Z0.000 F2500
G1 X146.250 Y150.000
G1 X146.500 Y150.000
G1 X146.750 Y150.000
G1 X147.000 Y150.000
G1 X147.250 Y150.000
G1 X147.375 Y150.000
G1 X147.500 Y150.000
G1 X147.750 Y150.000
G1 X147.875 Y150.000
G1 X147.875 Y150.000
G1 X148.000 Y150.000
G1 X148.125 Y150.000
G1 X148.125 Y150.000
G1 X148.125 Y150.000
G1 X148.125 Y150.000
G1 X148.125 Y150.000
G1 X148.125 Y150.000
G1 X148.000 Y150.000
G1 X147.875 Y150.000
G1 X147.750 Y150.000
G1 X147.625 Y150.000
G1 X147.500 Y150.000
G1 X147.250 Y150.000
G1 X147.000 Y150.000
G1 X146.875 Y150.000
G1 X146.750 Y150.000
G1 X146.625 Y150.000
G1 X146.500 Y150.000
G1 X146.250 Y150.000
G1 X146.000 Y150.000
G1 X145.875 Y150.000
G1 X145.750 Y150.000
G1 X145.625 Y150.000
G1 X145.500 Y150.000
G1 X145.375 Y150.000
G1 X145.375 Y150.000
G1 X145.375 Y150.000
G1 X145.375 Y150.000
G1 X145.375 Y150.000
G1 X145.375 Y150.000
G1 X145.375 Y150.000
G1 X145.500 Y150.000
G1 X145.625 Y150.000
G1 X145.750 Y150.000
G1 X146.000 Y150.000
G1 X146.125 Y150.000
G0 Z2.000 F3000
M400
M204 P600 T600
G1 F1300
G0 X146.625 Y150.000 Z2.000
M400
M204 P200 T200
G1 F600
G1 Z0.000 F2500
G1 X146.750 Y150.000
G1 X147.000 Y150.000
G1 X147.250 Y150.000
G1 X147.500 Y150.000
G1 X147.750 Y150.000
G1 X147.875 Y150.000
G1 X148.000 Y150.000
G1 X148.125 Y150.000
G1 X148.250 Y150.000
G1 X148.375 Y150.000
G1 X148.500 Y150.000
G1 X148.625 Y150.000
G1 X148.625 Y150.000
G1 X148.625 Y150.000
G1 X148.625 Y150.000
G1 X148.625 Y150.000
G1 X148.500 Y150.000
G1 X148.375 Y150.000
G1 X148.375 Y150.000
G1 X148.250 Y150.000
G1 X148.125 Y150.000
G1 X148.000 Y150.000
G1 X147.750 Y150.000
G1 X147.500 Y150.000
G1 X147.375 Y150.000
G1 X147.250 Y150.000
G1 X147.125 Y150.000
G1 X147.000 Y150.000
G1 X146.750 Y150.000
G1 X146.500 Y150.000
G1 X146.375 Y150.000
G1 X146.250 Y150.000
G1 X146.125 Y150.000
G1 X146.000 Y150.000
G1 X145.875 Y150.000
G1 X145.875 Y150.000
G1 X145.875 Y150.000
G1 X145.875 Y150.000
G1 X145.875 Y150.000
G1 X145.875 Y150.000
G1 X145.875 Y150.000
G1 X146.000 Y150.000
G1 X146.125 Y150.000
G1 X146.250 Y150.000
G1 X146.500 Y150.000
G1 X146.625 Y150.000
G0 Z2.000 F3000
M400
M204 P600 T600
G1 F1300
G0 X146.875 Y150.000 Z2.000
M400
M204 P200 T200
G1 F600
G1 Z0.000 F2500
G1 X147.000 Y150.000
G1 X147.250 Y150.000
G1 X147.500 Y150.000
G1 X147.750 Y150.000
G1 X148.000 Y150.000
G1 X148.250 Y150.000
G1 X148.375 Y150.000
G1 X148.500 Y150.000
G1 X148.625 Y150.000
G1 X148.750 Y150.000
G1 X148.875 Y150.000
G1 X149.000 Y150.000
G1 X149.125 Y150.000
G1 X149.125 Y150.000
G1 X149.125 Y150.000
G1 X149.125 Y150.000
G1 X149.125 Y150.000
G1 X149.125 Y150.000
G1 X149.000 Y150.000
G1 X148.875 Y150.000
G1 X148.750 Y150.000
G1 X148.625 Y150.000
G1 X148.500 Y150.000
G1 X148.250 Y150.000
G1 X148.125 Y150.000
G1 X148.000 Y150.000
G1 X147.750 Y150.000
G1 X147.500 Y150.000
G1 X147.250 Y150.000
G1 X147.125 Y150.000
G1 X147.000 Y150.000
G1 X146.750 Y150.000
G1 X146.625 Y150.000
G1 X146.500 Y150.000
G1 X146.375 Y150.000
G1 X146.375 Y150.000
G1 X146.250 Y150.000
G1 X146.125 Y150.000
G1 X146.125 Y150.000
G1 X146.125 Y150.000
G1 X146.125 Y150.000
G1 X146.125 Y150.000
G1 X146.250 Y150.000
G1 X146.375 Y150.000
G1 X146.500 Y150.000
G1 X146.625 Y150.000
G1 X146.750 Y150.000
G1 X146.875 Y150.000
G0 Z2.000 F3000
M400
M204 P600 T600
G1 F1300
G0 X141.125 Y150.000 Z2.000
M400
M204 P200 T200
G1 F600
G1 Z0.000 F2500
G1 X141.250 Y150.000
G1 X141.500 Y150.000
G1 X141.750 Y150.000
G1 X142.000 Y150.000
G1 X142.250 Y150.000
G1 X142.500 Y150.000
G1 X142.625 Y150.000
G1 X142.750 Y150.000
G1 X142.875 Y150.000
G1 X143.000 Y150.000
G1 X143.125 Y150.000
G1 X143.125 Y150.000
G1 X143.125 Y150.000
G1 X143.125 Y150.000
G1 X143.125 Y150.000
G1 X143.125 Y150.000
G1 X143.000 Y150.000
G1 X142.875 Y150.000
G1 X142.750 Y150.000
G1 X142.625 Y150.000
G1 X142.500 Y150.000
G1 X142.375 Y150.000
G1 X142.250 Y150.000
G1 X142.000 Y150.000
G1 X141.750 Y150.000
G1 X141.500 Y150.000
G1 X141.375 Y150.000
G1 X141.250 Y150.000
G1 X141.000 Y150.000
G1 X140.875 Y150.000
G1 X140.750 Y150.000
G1 X140.625 Y150.000
G1 X140.625 Y150.000
G1 X140.500 Y150.000
G1 X140.375 Y150.000
G1 X140.375 Y150.000
G1 X140.375 Y150.000
G1 X140.375 Y150.000
G1 X140.500 Y150.000
G1 X140.625 Y150.000
G1 X140.625 Y150.000
G1 X140.750 Y150.000
G1 X141.000 Y150.000
G1 X141.125 Y150.000
G0 Z2.000 F3000
M400
M204 P600 T600
G1 F1300
G0 X137.375 Y150.000 Z2.000
M400
M204 P200 T200
G1 F600
G1 Z0.000 F2500
G1 X137.500 Y150.000
G1 X137.625 Y150.000
G1 X137.625 Y150.000
G1 X137.750 Y150.000
G1 X137.875 Y150.000
G1 X137.875 Y150.000
G1 X137.875 Y150.000
G1 X137.875 Y150.000
G1 X137.750 Y150.000
G1 X137.625 Y150.000
G1 X137.500 Y150.000
G1 X137.375 Y150.000
G1 X137.250 Y150.000
G1 X137.125 Y150.000
G1 X137.000 Y150.000
G1 X136.750 Y150.000
G1 X136.500 Y150.000
G1 X136.250 Y150.000
G1 X136.000 Y150.000
G1 X135.750 Y150.000
G1 X135.625 Y150.000
G1 X135.500 Y150.000
G1 X135.375 Y150.000
G1 X135.250 Y150.000
G1 X135.125 Y150.000
G1 X135.125 Y150.000
G1 X135.125 Y150.000
G1 X135.125 Y150.000
G1 X135.125 Y150.000
G1 X135.125 Y150.000
G1 X135.125 Y150.000
G1 X135.250 Y150.000
G1 X135.375 Y150.000
G0 Z2.000 F3000
M400
M204 P600 T600
G1 F1300
G0 X130.125 Y150.000 Z2.000
M400
M204 P200 T200
G1 F600
G1 Z0.000 F2500
G1 X130.250 Y150.000
G1 X130.500 Y150.000
G1 X130.750 Y150.000
G1 X131.000 Y150.000
