G90
G21
; === MULTI-COLOR PAINTER GCODE ===
; Generated layers: 2


; ═══════════════════════════════
; LAYER 1: Color 1 — Red
; ═══════════════════════════════


; --- CIKEL NAMAKANJA ---
G0 Z4.600 F3000
M400
M204 P12000 T12000
G1 F12000
G0 X-3.878 Y-17.587 Z31.000
G1 Z0.000 F3000
G1 X-3.878 Y-17.587 F2500
G1 X-3.878 Y-15.087 F2500
G1 X-8.878 Y-17.587 F2500
G1 X-3.878 Y-25.087 F2500
G0 Z16.000 F3000
G0 X10.422 Y10.788
G0 Z31.000 F3000
G0 X57.000 Y59.000 Z4.600
M400
M204 P12000 T12000
G1 F12000
G0 X57.000 Y59.000 Z4.600
M400
M204 P200 T200
G1 F400
G1 Z0.000 F2500
G1 X58.000 Y59.000
G1 X59.000 Y59.000
G1 X60.000 Y59.000
G1 X61.000 Y59.000
G1 X62.000 Y59.000
G1 X63.000 Y59.000
G1 X64.000 Y59.000
G1 X65.000 Y59.000
G1 X66.000 Y59.000
G1 X67.000 Y59.000
G1 X68.000 Y59.000
G1 X69.000 Y59.000
G1 X70.000 Y59.000
G1 X71.000 Y59.000
G1 X72.000 Y59.000
G1 X73.000 Y59.000
G1 X74.000 Y59.000
G1 X75.000 Y59.000
G1 X76.000 Y59.000
G1 X77.000 Y59.000
G1 X78.000 Y59.000
G1 X79.000 Y59.000
G1 X80.000 Y59.000
G1 X81.000 Y59.000
G1 X82.000 Y59.000
G1 X83.000 Y59.000
G1 X84.000 Y59.000
G1 X85.000 Y59.000
G1 X86.000 Y59.000
G1 X87.000 Y59.000
G1 X88.000 Y59.000
G1 X89.000 Y59.000
G1 X90.000 Y59.000
G1 X91.000 Y59.000
G1 X92.000 Y59.000
G1 X93.000 Y59.000
G1 X94.000 Y59.000
G1 X95.000 Y59.000
G1 X96.000 Y59.000
G1 X97.000 Y59.000
G1 X98.000 Y59.000
G1 X99.000 Y59.000
G1 X100.000 Y59.000
G1 X101.000 Y59.000
G1 X102.000 Y59.000
G1 X103.000 Y59.000
G1 X104.000 Y59.000
G1 X105.000 Y59.000
G1 X106.000 Y59.000
G1 X107.000 Y59.000
G1 X108.000 Y59.000
G1 X109.000 Y59.000
G1 X110.000 Y59.000
G1 X111.000 Y59.000
G1 X112.000 Y59.000
G1 X113.000 Y59.000
G1 X114.000 Y59.000
G1 X115.000 Y59.000
G1 X116.000 Y59.000
G1 X117.000 Y59.000
G1 X118.000 Y59.000
G1 X119.000 Y59.000
G1 X120.000 Y59.000
G1 X121.000 Y59.000
G1 X122.000 Y59.000
G1 X123.000 Y59.000
G1 X124.000 Y59.000
G1 X125.000 Y59.000
G1 X126.000 Y59.000
G1 X127.000 Y59.000
G1 X128.000 Y59.000
G1 X129.000 Y59.000
G1 X130.000 Y59.000
G1 X131.000 Y59.000
G1 X132.000 Y59.000
G1 X133.000 Y59.000
G1 X134.000 Y59.000
G1 X135.000 Y59.000
G1 X136.000 Y59.000
G1 X137.000 Y59.000
G1 X138.000 Y59.000
G1 X139.000 Y59.000
G1 X140.000 Y59.000
G1 X141.000 Y59.000
G1 X142.000 Y59.000
G1 X143.000 Y59.000
G1 X144.000 Y59.000
G1 X145.000 Y59.000
G1 X146.000 Y59.000
G1 X147.000 Y59.000
G1 X148.000 Y59.000
G1 X149.000 Y59.000
G1 X150.000 Y59.000
G1 X151.000 Y59.000
G1 X152.000 Y59.000
G1 X153.000 Y59.000
G1 X154.000 Y59.000
G1 X155.000 Y59.000
G1 X156.000 Y59.000
G1 X157.000 Y59.000
G1 X158.000 Y59.000
G1 X159.000 Y59.000
G1 X160.000 Y59.000
G1 X161.000 Y59.000
G1 X162.000 Y59.000
G1 X163.000 Y59.000
G1 X164.000 Y59.000
G1 X165.000 Y59.000
G1 X166.000 Y59.000
G1 X167.000 Y59.000
G1 X168.000 Y59.000
G1 X169.000 Y59.000
G1 X170.000 Y59.000
G1 X171.000 Y59.000
G1 X172.000 Y59.000
G1 X173.000 Y59.000
G1 X174.000 Y59.000
G1 X175.000 Y59.000
G1 X176.000 Y59.000
G1 X177.000 Y59.000
G1 X178.000 Y59.000
G1 X179.000 Y59.000
G1 X180.000 Y59.000
G1 X181.000 Y59.000
G1 X182.000 Y59.000
G1 X183.000 Y59.000
G1 X184.000 Y59.000
G1 X185.000 Y59.000
G1 X186.000 Y59.000
G1 X187.000 Y59.000
G1 X188.000 Y59.000
G1 X189.000 Y59.000
G1 X190.000 Y59.000
G1 X191.000 Y59.000
G1 X192.000 Y59.000
G1 X193.000 Y59.000
G1 X194.000 Y59.000
G1 X195.000 Y59.000
G1 X196.000 Y59.000
G1 X197.000 Y59.000
G1 X198.000 Y59.000
G1 X199.000 Y59.000
G1 X200.000 Y59.000
G1 X201.000 Y59.000
G1 X202.000 Y59.000
G0 Z4.600 F3000
M400
M204 P12000 T12000
G1 F12000
G0 X149.000 Y30.000 Z4.600
M400
M204 P200 T200
G1 F400
G1 Z0.000 F2500
G1 X148.000 Y30.000
G1 X147.000 Y30.000
G1 X146.000 Y30.000
G1 X145.000 Y30.000
G1 X144.000 Y30.000
G1 X143.000 Y30.000
G1 X142.000 Y30.000
G1 X141.000 Y30.000
G1 X140.000 Y30.000
G1 X139.000 Y30.000
G1 X138.000 Y30.000
G1 X137.000 Y30.000
G1 X136.000 Y30.000
G1 X135.000 Y30.000
G1 X134.000 Y30.000
G1 X133.000 Y30.000
G1 X132.000 Y30.000
G1 X131.000 Y30.000
G1 X130.000 Y30.000
G1 X129.000 Y30.000
G1 X128.000 Y30.000
G1 X127.000 Y30.000
G1 X126.000 Y30.000
G1 X125.000 Y30.000
G1 X124.000 Y30.000
G1 X123.000 Y30.000
G1 X122.000 Y30.000
G1 X121.000 Y30.000
G1 X120.000 Y30.000
G1 X119.000 Y30.000
G1 X118.000 Y30.000
G1 X117.000 Y30.000
G1 X116.000 Y30.000
G1 X115.000 Y30.000
G1 X114.000 Y30.000
G1 X113.000 Y30.000
G1 X112.000 Y30.000
G1 X111.000 Y30.000
G1 X110.000 Y30.000
G0 Z4.600 F3000
M400
M204 P12000 T12000
G1 F12000
G0 X109.000 Y31.000 Z4.600
M400
M204 P200 T200
G1 F400
G1 Z0.000 F2500
G1 X110.000 Y31.000
G1 X111.000 Y31.000
G1 X112.000 Y31.000
G1 X113.000 Y31.000
G1 X114.000 Y31.000
G1 X115.000 Y31.000
G1 X116.000 Y31.000
G1 X117.000 Y31.000
G1 X118.000 Y31.000
G1 X119.000 Y31.000
G1 X120.000 Y31.000
G1 X121.000 Y31.000
G1 X122.000 Y31.000
G1 X123.000 Y31.000
G1 X124.000 Y31.000
G1 X125.000 Y31.000
G1 X126.000 Y31.000
G1 X127.000 Y31.000
G1 X128.000 Y31.000
G1 X129.000 Y31.000
G1 X130.000 Y31.000
G1 X131.000 Y31.000
G1 X132.000 Y31.000
G1 X133.000 Y31.000
G1 X134.000 Y31.000
G1 X135.000 Y31.000
G1 X136.000 Y31.000
G1 X137.000 Y31.000
G1 X138.000 Y31.000
G1 X139.000 Y31.000
G1 X140.000 Y31.000
G1 X141.000 Y31.000
G1 X142.000 Y31.000
G1 X143.000 Y31.000
G1 X144.000 Y31.000
G1 X145.000 Y31.000
G1 X146.000 Y31.000
G1 X147.000 Y31.000
G1 X148.000 Y31.000
G1 X149.000 Y31.000
G1 X150.000 Y31.000
G0 Z4.600 F3000
M400
M204 P12000 T12000
G1 F12000
G0 X156.000 Y32.000 Z4.600
M400
M204 P200 T200
G1 F400
G1 Z0.000 F2500
G1 X155.000 Y32.000
G1 X154.000 Y32.000
G1 X153.000 Y32.000
G1 X152.000 Y32.000
G1 X151.000 Y32.000
G1 X150.000 Y32.000
G1 X149.000 Y32.000
G1 X148.000 Y32.000
G1 X147.000 Y32.000
G1 X146.000 Y32.000
G1 X145.000 Y32.000
G1 X144.000 Y32.000
G1 X143.000 Y32.000
G1 X142.000 Y32.000
G1 X141.000 Y32.000
G1 X140.000 Y32.000
G1 X139.000 Y32.000
G1 X138.000 Y32.000
G1 X137.000 Y32.000
G1 X136.000 Y32.000
G1 X135.000 Y32.000
G1 X134.000 Y32.000
G1 X133.000 Y32.000
G1 X132.000 Y32.000
G1 X131.000 Y32.000
G1 X130.000 Y32.000
G0 Z4.600 F3000

; --- CIKEL NAMAKANJA ---
G0 Z4.600 F3000
M400
M204 P12000 T12000
G1 F12000
G0 X-1.550 Y-15.272 Z31.000
G1 Z0.000 F3000
G1 X-1.550 Y-15.272 F2500
G1 X-1.550 Y-12.772 F2500
G1 X-6.550 Y-15.272 F2500
G1 X-1.550 Y-22.772 F2500
G0 Z16.000 F3000
G0 X14.559 Y3.611
G0 Z31.000 F3000
G0 X129.000 Y32.000 Z4.600
M400
M204 P200 T200
G1 F400
G1 Z0.000 F2500
G1 X129.000 Y32.000
G1 X128.000 Y32.000
G1 X127.000 Y32.000
G1 X126.000 Y32.000
G1 X125.000 Y32.000
G1 X124.000 Y32.000
G1 X123.000 Y32.000
G1 X122.000 Y32.000
G1 X121.000 Y32.000
G1 X120.000 Y32.000
G1 X119.000 Y32.000
G1 X118.000 Y32.000
G1 X117.000 Y32.000
G1 X116.000 Y32.000
G1 X115.000 Y32.000
G1 X114.000 Y32.000
G1 X113.000 Y32.000
G1 X112.000 Y32.000
G1 X111.000 Y32.000
G1 X110.000 Y32.000
G1 X109.000 Y32.000
G1 X108.000 Y32.000
G1 X107.000 Y32.000
G1 X106.000 Y32.000
G1 X105.000 Y32.000
G1 X104.000 Y32.000
G1 X103.000 Y32.000
G0 Z4.600 F3000
M400
M204 P12000 T12000
G1 F12000
G0 X102.000 Y33.000 Z4.600
M400
M204 P200 T200
G1 F400
G1 Z0.000 F2500
G1 X103.000 Y33.000
G1 X104.000 Y33.000
G1 X105.000 Y33.000
G1 X106.000 Y33.000
G1 X107.000 Y33.000
G1 X108.000 Y33.000
G1 X109.000 Y33.000
G1 X110.000 Y33.000
G1 X111.000 Y33.000
G1 X112.000 Y33.000
G1 X113.000 Y33.000
G1 X114.000 Y33.000
G1 X115.000 Y33.000
G1 X116.000 Y33.000
G1 X117.000 Y33.000
G1 X118.000 Y33.000
G1 X119.000 Y33.000
G1 X120.000 Y33.000
G1 X121.000 Y33.000
G1 X122.000 Y33.000
G1 X123.000 Y33.000
G1 X124.000 Y33.000
G1 X125.000 Y33.000
G1 X126.000 Y33.000
G1 X127.000 Y33.000
G1 X128.000 Y33.000
G1 X129.000 Y33.000
G1 X130.000 Y33.000
G1 X131.000 Y33.000
G1 X132.000 Y33.000
G1 X133.000 Y33.000
G1 X134.000 Y33.000
G1 X135.000 Y33.000
G1 X136.000 Y33.000
G1 X137.000 Y33.000
G1 X138.000 Y33.000
G1 X139.000 Y33.000
G1 X140.000 Y33.000
G1 X141.000 Y33.000
G1 X142.000 Y33.000
G1 X143.000 Y33.000
G1 X144.000 Y33.000
G1 X145.000 Y33.000
G1 X146.000 Y33.000
G1 X147.000 Y33.000
G1 X148.000 Y33.000
G1 X149.000 Y33.000
G1 X150.000 Y33.000
G1 X151.000 Y33.000
G1 X152.000 Y33.000
G1 X153.000 Y33.000
G1 X154.000 Y33.000
G1 X155.000 Y33.000
G1 X156.000 Y33.000
G1 X157.000 Y33.000
G0 Z4.600 F3000
M400
M204 P12000 T12000
G1 F12000
G0 X162.000 Y34.000 Z4.600
M400
M204 P200 T200
G1 F400
G1 Z0.000 F2500
G1 X161.000 Y34.000
G1 X160.000 Y34.000
G1 X159.000 Y34.000
G1 X158.000 Y34.000
G1 X157.000 Y34.000
G1 X156.000 Y34.000
G1 X155.000 Y34.000
G1 X154.000 Y34.000
G1 X153.000 Y34.000
G1 X152.000 Y34.000
G1 X151.000 Y34.000
G1 X150.000 Y34.000
G1 X149.000 Y34.000
G1 X148.000 Y34.000
G1 X147.000 Y34.000
G1 X146.000 Y34.000
G1 X145.000 Y34.000
G1 X144.000 Y34.000
G1 X143.000 Y34.000
G1 X142.000 Y34.000
G1 X141.000 Y34.000
G1 X140.000 Y34.000
G1 X139.000 Y34.000
G1 X138.000 Y34.000
G1 X137.000 Y34.000
G1 X136.000 Y34.000
G1 X135.000 Y34.000
G1 X134.000 Y34.000
G1 X133.000 Y34.000
G1 X132.000 Y34.000
G1 X131.000 Y34.000
G1 X130.000 Y34.000
G1 X129.000 Y34.000
G1 X128.000 Y34.000
G1 X127.000 Y34.000
G1 X126.000 Y34.000
G1 X125.000 Y34.000
G1 X124.000 Y34.000
G1 X123.000 Y34.000
G1 X122.000 Y34.000
G1 X121.000 Y34.000
G1 X120.000 Y34.000
G1 X119.000 Y34.000
G1 X118.000 Y34.000
G1 X117.000 Y34.000
G1 X116.000 Y34.000
G1 X115.000 Y34.000
G1 X114.000 Y34.000
G1 X113.000 Y34.000
G1 X112.000 Y34.000
G1 X111.000 Y34.000
G1 X110.000 Y34.000
G1 X109.000 Y34.000
G1 X108.000 Y34.000
G1 X107.000 Y34.000
G1 X106.000 Y34.000
G1 X105.000 Y34.000
G1 X104.000 Y34.000
G1 X103.000 Y34.000
G1 X102.000 Y34.000
G1 X101.000 Y34.000
G1 X100.000 Y34.000
G1 X99.000 Y34.000
G1 X98.000 Y34.000
G1 X97.000 Y34.000
G0 Z4.600 F3000
M400
M204 P12000 T12000
G1 F12000
G0 X92.000 Y35.000 Z4.600
M400
M204 P200 T200
G1 F400
G1 Z0.000 F2500
G1 X93.000 Y35.000
G1 X94.000 Y35.000
G1 X95.000 Y35.000
G1 X96.000 Y35.000
G1 X97.000 Y35.000
G1 X98.000 Y35.000
G1 X99.000 Y35.000
G1 X100.000 Y35.000
G1 X101.000 Y35.000
G1 X102.000 Y35.000
G1 X103.000 Y35.000
G1 X104.000 Y35.000
G1 X105.000 Y35.000
G1 X106.000 Y35.000
G1 X107.000 Y35.000
G1 X108.000 Y35.000
G1 X109.000 Y35.000
G1 X110.000 Y35.000
G1 X111.000 Y35.000
G1 X112.000 Y35.000
G1 X113.000 Y35.000
G1 X114.000 Y35.000
G1 X115.000 Y35.000
G1 X116.000 Y35.000
G1 X117.000 Y35.000
G1 X118.000 Y35.000
G1 X119.000 Y35.000
G1 X120.000 Y35.000
G1 X121.000 Y35.000
G1 X122.000 Y35.000
G1 X123.000 Y35.000
G1 X124.000 Y35.000
G1 X125.000 Y35.000
G1 X126.000 Y35.000
G1 X127.000 Y35.000
G1 X128.000 Y35.000
G1 X129.000 Y35.000
G1 X130.000 Y35.000
G1 X131.000 Y35.000
G1 X132.000 Y35.000
G1 X133.000 Y35.000
G1 X134.000 Y35.000
G1 X135.000 Y35.000
G1 X136.000 Y35.000
G1 X137.000 Y35.000
G1 X138.000 Y35.000
G1 X139.000 Y35.000
G1 X140.000 Y35.000
G1 X141.000 Y35.000
G1 X142.000 Y35.000
G1 X143.000 Y35.000
G1 X144.000 Y35.000
G1 X145.000 Y35.000
G1 X146.000 Y35.000
G1 X147.000 Y35.000
G1 X148.000 Y35.000
G1 X149.000 Y35.000
G1 X150.000 Y35.000
G1 X151.000 Y35.000
G1 X152.000 Y35.000
G1 X153.000 Y35.000
G1 X154.000 Y35.000
G1 X155.000 Y35.000
G1 X156.000 Y35.000
G1 X157.000 Y35.000
G1 X158.000 Y35.000
G1 X159.000 Y35.000
G1 X160.000 Y35.000
G1 X161.000 Y35.000
G1 X162.000 Y35.000
G1 X163.000 Y35.000
G1 X164.000 Y35.000
G1 X165.000 Y35.000
G1 X166.000 Y35.000
G1 X167.000 Y35.000
G0 Z4.600 F3000
M400
M204 P12000 T12000
G1 F12000
G0 X167.000 Y36.000 Z4.600
M400
M204 P200 T200
G1 F400
G1 Z0.000 F2500
G1 X166.000 Y36.000
G1 X165.000 Y36.000
G1 X164.000 Y36.000
G1 X163.000 Y36.000
G1 X162.000 Y36.000
G1 X161.000 Y36.000
G1 X160.000 Y36.000
G1 X159.000 Y36.000
G1 X158.000 Y36.000
G1 X157.000 Y36.000
G1 X156.000 Y36.000
G1 X155.000 Y36.000
G1 X154.000 Y36.000
G1 X153.000 Y36.000
G1 X152.000 Y36.000
G1 X151.000 Y36.000
G1 X150.000 Y36.000
G1 X149.000 Y36.000
G1 X148.000 Y36.000
G1 X147.000 Y36.000
G1 X146.000 Y36.000
G1 X145.000 Y36.000
G1 X144.000 Y36.000
G1 X143.000 Y36.000
G1 X142.000 Y36.000
G1 X141.000 Y36.000
G1 X140.000 Y36.000
G1 X139.000 Y36.000
G1 X138.000 Y36.000
G1 X137.000 Y36.000
G1 X136.000 Y36.000
G1 X135.000 Y36.000
G1 X134.000 Y36.000
G1 X133.000 Y36.000
G1 X132.000 Y36.000
G1 X131.000 Y36.000
G1 X130.000 Y36.000
G1 X129.000 Y36.000
G0 Z4.600 F3000

; --- CIKEL NAMAKANJA ---
G0 Z4.600 F3000
M400
M204 P12000 T12000
G1 F12000
G0 X-15.399 Y-8.551 Z31.000
G1 Z0.000 F3000
G1 X-15.399 Y-8.551 F2500
G1 X-15.399 Y-6.051 F2500
G1 X-20.399 Y-8.551 F2500
G1 X-15.399 Y-16.051 F2500
G0 Z16.000 F3000
G0 X14.440 Y4.061
G0 Z31.000 F3000
G0 X128.000 Y36.000 Z4.600
M400
M204 P200 T200
G1 F400
G1 Z0.000 F2500
G1 X128.000 Y36.000
G1 X127.000 Y36.000
G1 X126.000 Y36.000
G1 X125.000 Y36.000
G1 X124.000 Y36.000
G1 X123.000 Y36.000
G1 X122.000 Y36.000
G1 X121.000 Y36.000
G1 X120.000 Y36.000
G1 X119.000 Y36.000
G1 X118.000 Y36.000
G1 X117.000 Y36.000
G1 X116.000 Y36.000
G1 X115.000 Y36.000
G1 X114.000 Y36.000
G1 X113.000 Y36.000
G1 X112.000 Y36.000
G1 X111.000 Y36.000
G1 X110.000 Y36.000
G1 X109.000 Y36.000
G1 X108.000 Y36.000
G1 X107.000 Y36.000
G1 X106.000 Y36.000
G1 X105.000 Y36.000
G1 X104.000 Y36.000
G1 X103.000 Y36.000
G1 X102.000 Y36.000
G1 X101.000 Y36.000
G1 X100.000 Y36.000
G1 X99.000 Y36.000
G1 X98.000 Y36.000
G1 X97.000 Y36.000
G1 X96.000 Y36.000
G1 X95.000 Y36.000
G1 X94.000 Y36.000
G1 X93.000 Y36.000
G1 X92.000 Y36.000
G0 Z4.600 F3000
M400
M204 P12000 T12000
G1 F12000
G0 X89.000 Y37.000 Z4.600
M400
M204 P200 T200
G1 F400
G1 Z0.000 F2500
G1 X90.000 Y37.000
G1 X91.000 Y37.000
G1 X92.000 Y37.000
G1 X93.000 Y37.000
G1 X94.000 Y37.000
G1 X95.000 Y37.000
G1 X96.000 Y37.000
G1 X97.000 Y37.000
G1 X98.000 Y37.000
G1 X99.000 Y37.000
G1 X100.000 Y37.000
G1 X101.000 Y37.000
G1 X102.000 Y37.000
G1 X103.000 Y37.000
G1 X104.000 Y37.000
G1 X105.000 Y37.000
G1 X106.000 Y37.000
G1 X107.000 Y37.000
G1 X108.000 Y37.000
G1 X109.000 Y37.000
G1 X110.000 Y37.000
G1 X111.000 Y37.000
G1 X112.000 Y37.000
G1 X113.000 Y37.000
G1 X114.000 Y37.000
G1 X115.000 Y37.000
G1 X116.000 Y37.000
G1 X117.000 Y37.000
G1 X118.000 Y37.000
G1 X119.000 Y37.000
G1 X120.000 Y37.000
G1 X121.000 Y37.000
G1 X122.000 Y37.000
G1 X123.000 Y37.000
G1 X124.000 Y37.000
G1 X125.000 Y37.000
G1 X126.000 Y37.000
G1 X127.000 Y37.000
G1 X128.000 Y37.000
G1 X129.000 Y37.000
G1 X130.000 Y37.000
G1 X131.000 Y37.000
G1 X132.000 Y37.000
G1 X133.000 Y37.000
G1 X134.000 Y37.000
G1 X135.000 Y37.000
G1 X136.000 Y37.000
G1 X137.000 Y37.000
G1 X138.000 Y37.000
G1 X139.000 Y37.000
G1 X140.000 Y37.000
G1 X141.000 Y37.000
G1 X142.000 Y37.000
G1 X143.000 Y37.000
G1 X144.000 Y37.000
G1 X145.000 Y37.000
G1 X146.000 Y37.000
G1 X147.000 Y37.000
G1 X148.000 Y37.000
G1 X149.000 Y37.000
G1 X150.000 Y37.000
G1 X151.000 Y37.000
G1 X152.000 Y37.000
G1 X153.000 Y37.000
G1 X154.000 Y37.000
G1 X155.000 Y37.000
G1 X156.000 Y37.000
G1 X157.000 Y37.000
G1 X158.000 Y37.000
G1 X159.000 Y37.000
G1 X160.000 Y37.000
G1 X161.000 Y37.000
G1 X162.000 Y37.000
G1 X163.000 Y37.000
G1 X164.000 Y37.000
G1 X165.000 Y37.000
G1 X166.000 Y37.000
G1 X167.000 Y37.000
G1 X168.000 Y37.000
G1 X169.000 Y37.000
G1 X170.000 Y37.000
G0 Z4.600 F3000
M400
M204 P12000 T12000
G1 F12000
G0 X171.000 Y38.000 Z4.600
M400
M204 P200 T200
G1 F400
G1 Z0.000 F2500
G1 X170.000 Y38.000
G1 X169.000 Y38.000
G1 X168.000 Y38.000
G1 X167.000 Y38.000
G1 X166.000 Y38.000
G1 X165.000 Y38.000
G1 X164.000 Y38.000
G1 X163.000 Y38.000
G1 X162.000 Y38.000
G1 X161.000 Y38.000
G1 X160.000 Y38.000
G1 X159.000 Y38.000
G1 X158.000 Y38.000
G1 X157.000 Y38.000
G1 X156.000 Y38.000
G1 X155.000 Y38.000
G1 X154.000 Y38.000
G1 X153.000 Y38.000
G1 X152.000 Y38.000
G1 X151.000 Y38.000
G1 X150.000 Y38.000
G1 X149.000 Y38.000
G1 X148.000 Y38.000
G1 X147.000 Y38.000
G1 X146.000 Y38.000
G1 X145.000 Y38.000
G1 X144.000 Y38.000
G1 X143.000 Y38.000
G1 X142.000 Y38.000
G1 X141.000 Y38.000
G1 X140.000 Y38.000
G1 X139.000 Y38.000
G1 X138.000 Y38.000
G1 X137.000 Y38.000
G1 X136.000 Y38.000
G1 X135.000 Y38.000
G1 X134.000 Y38.000
G1 X133.000 Y38.000
G1 X132.000 Y38.000
G1 X131.000 Y38.000
G1 X130.000 Y38.000
G1 X129.000 Y38.000
G1 X128.000 Y38.000
G1 X127.000 Y38.000
G1 X126.000 Y38.000
G1 X125.000 Y38.000
G1 X124.000 Y38.000
G1 X123.000 Y38.000
G1 X122.000 Y38.000
G1 X121.000 Y38.000
G1 X120.000 Y38.000
G1 X119.000 Y38.000
G1 X118.000 Y38.000
G1 X117.000 Y38.000
G1 X116.000 Y38.000
G1 X115.000 Y38.000
G1 X114.000 Y38.000
G1 X113.000 Y38.000
G1 X112.000 Y38.000
G1 X111.000 Y38.000
G1 X110.000 Y38.000
G1 X109.000 Y38.000
G1 X108.000 Y38.000
G1 X107.000 Y38.000
G1 X106.000 Y38.000
G1 X105.000 Y38.000
G1 X104.000 Y38.000
G1 X103.000 Y38.000
G1 X102.000 Y38.000
G1 X101.000 Y38.000
G1 X100.000 Y38.000
G1 X99.000 Y38.000
G1 X98.000 Y38.000
G1 X97.000 Y38.000
G1 X96.000 Y38.000
G1 X95.000 Y38.000
G1 X94.000 Y38.000
G1 X93.000 Y38.000
G1 X92.000 Y38.000
G1 X91.000 Y38.000
G1 X90.000 Y38.000
G1 X89.000 Y38.000
G1 X88.000 Y38.000
G0 Z4.600 F3000
M400
M204 P12000 T12000
G1 F12000
G0 X85.000 Y39.000 Z4.600
M400
M204 P200 T200
G1 F400
G1 Z0.000 F2500
G1 X86.000 Y39.000
G1 X87.000 Y39.000
G1 X88.000 Y39.000
G1 X89.000 Y39.000
G1 X90.000 Y39.000
G1 X91.000 Y39.000
G1 X92.000 Y39.000
G1 X93.000 Y39.000
G1 X94.000 Y39.000
G1 X95.000 Y39.000
G1 X96.000 Y39.000
G1 X97.000 Y39.000
G1 X98.000 Y39.000
G1 X99.000 Y39.000
G1 X100.000 Y39.000
G1 X101.000 Y39.000
G1 X102.000 Y39.000
G1 X103.000 Y39.000
G1 X104.000 Y39.000
G1 X105.000 Y39.000
G1 X106.000 Y39.000
G1 X107.000 Y39.000
G1 X108.000 Y39.000
G1 X109.000 Y39.000
G1 X110.000 Y39.000
G1 X111.000 Y39.000
G1 X112.000 Y39.000
G1 X113.000 Y39.000
G1 X114.000 Y39.000
G1 X115.000 Y39.000
G1 X116.000 Y39.000
G1 X117.000 Y39.000
G1 X118.000 Y39.000
G1 X119.000 Y39.000
G1 X120.000 Y39.000
G1 X121.000 Y39.000
G1 X122.000 Y39.000
G1 X123.000 Y39.000
G1 X124.000 Y39.000
G1 X125.000 Y39.000
G1 X126.000 Y39.000
G1 X127.000 Y39.000
G1 X128.000 Y39.000
G1 X129.000 Y39.000
G1 X130.000 Y39.000
G1 X131.000 Y39.000
G1 X132.000 Y39.000
G1 X133.000 Y39.000
G1 X134.000 Y39.000
G1 X135.000 Y39.000
G1 X136.000 Y39.000
G1 X137.000 Y39.000
G1 X138.000 Y39.000
G1 X139.000 Y39.000
G1 X140.000 Y39.000
G1 X141.000 Y39.000
G1 X142.000 Y39.000
G0 Z4.600 F3000

; --- CIKEL NAMAKANJA ---
G0 Z4.600 F3000
M400
M204 P12000 T12000
G1 F12000
G0 X14.668 Y16.866 Z31.000
G1 Z0.000 F3000
G1 X14.668 Y16.866 F2500
G1 X14.668 Y19.366 F2500
G1 X9.668 Y16.866 F2500
G1 X14.668 Y9.366 F2500
G0 Z16.000 F3000
G0 X14.471 Y3.947
G0 Z31.000 F3000
G0 X143.000 Y39.000 Z4.600
M400
M204 P200 T200
G1 F400
G1 Z0.000 F2500
G1 X143.000 Y39.000
G1 X144.000 Y39.000
G1 X145.000 Y39.000
G1 X146.000 Y39.000
G1 X147.000 Y39.000
G1 X148.000 Y39.000
G1 X149.000 Y39.000
G1 X150.000 Y39.000
G1 X151.000 Y39.000
G1 X152.000 Y39.000
G1 X153.000 Y39.000
G1 X154.000 Y39.000
G1 X155.000 Y39.000
G1 X156.000 Y39.000
G1 X157.000 Y39.000
G1 X158.000 Y39.000
G1 X159.000 Y39.000
G1 X160.000 Y39.000
G1 X161.000 Y39.000
G1 X162.000 Y39.000
G1 X163.000 Y39.000
G1 X164.000 Y39.000
G1 X165.000 Y39.000
G1 X166.000 Y39.000
G1 X167.000 Y39.000
G1 X168.000 Y39.000
G1 X169.000 Y39.000
G1 X170.000 Y39.000
G1 X171.000 Y39.000
G1 X172.000 Y39.000
G1 X173.000 Y39.000
G1 X174.000 Y39.000
G0 Z4.600 F3000
M400
M204 P12000 T12000
G1 F12000
G0 X175.000 Y40.000 Z4.600
M400
M204 P200 T200
G1 F400
G1 Z0.000 F2500
G1 X174.000 Y40.000
G1 X173.000 Y40.000
G1 X172.000 Y40.000
G1 X171.000 Y40.000
G1 X170.000 Y40.000
G1 X169.000 Y40.000
G1 X168.000 Y40.000
G1 X167.000 Y40.000
G1 X166.000 Y40.000
G1 X165.000 Y40.000
G1 X164.000 Y40.000
G1 X163.000 Y40.000
G1 X162.000 Y40.000
G1 X161.000 Y40.000
G1 X160.000 Y40.000
G1 X159.000 Y40.000
G1 X158.000 Y40.000
G1 X157.000 Y40.000
G1 X156.000 Y40.000
G1 X155.000 Y40.000
G1 X154.000 Y40.000
G1 X153.000 Y40.000
G1 X152.000 Y40.000
G1 X151.000 Y40.000
G1 X150.000 Y40.000
G1 X149.000 Y40.000
G1 X148.000 Y40.000
G1 X147.000 Y40.000
G1 X146.000 Y40.000
G1 X145.000 Y40.000
G1 X144.000 Y40.000
G1 X143.000 Y40.000
G1 X142.000 Y40.000
G1 X141.000 Y40.000
G1 X140.000 Y40.000
G1 X139.000 Y40.000
G1 X138.000 Y40.000
G1 X137.000 Y40.000
G1 X136.000 Y40.000
G1 X135.000 Y40.000
G1 X134.000 Y40.000
G1 X133.000 Y40.000
G1 X132.000 Y40.000
G1 X131.000 Y40.000
G1 X130.000 Y40.000
G1 X129.000 Y40.000
G1 X128.000 Y40.000
G1 X127.000 Y40.000
G1 X126.000 Y40.000
G1 X125.000 Y40.000
G1 X124.000 Y40.000
G1 X123.000 Y40.000
G1 X122.000 Y40.000
G1 X121.000 Y40.000
G1 X120.000 Y40.000
G1 X119.000 Y40.000
G1 X118.000 Y40.000
G1 X117.000 Y40.000
G1 X116.000 Y40.000
G1 X115.000 Y40.000
G1 X114.000 Y40.000
G1 X113.000 Y40.000
G1 X112.000 Y40.000
G1 X111.000 Y40.000
G1 X110.000 Y40.000
G1 X109.000 Y40.000
G1 X108.000 Y40.000
G1 X107.000 Y40.000
G1 X106.000 Y40.000
G1 X105.000 Y40.000
G1 X104.000 Y40.000
G1 X103.000 Y40.000
G1 X102.000 Y40.000
G1 X101.000 Y40.000
G1 X100.000 Y40.000
G1 X99.000 Y40.000
G1 X98.000 Y40.000
G1 X97.000 Y40.000
G1 X96.000 Y40.000
G1 X95.000 Y40.000
G1 X94.000 Y40.000
G1 X93.000 Y40.000
G1 X92.000 Y40.000
G1 X91.000 Y40.000
G1 X90.000 Y40.000
G1 X89.000 Y40.000
G1 X88.000 Y40.000
G1 X87.000 Y40.000
G1 X86.000 Y40.000
G1 X85.000 Y40.000
G1 X84.000 Y40.000
G0 Z4.600 F3000
M400
M204 P12000 T12000
G1 F12000
G0 X81.000 Y41.000 Z4.600
M400
M204 P200 T200
G1 F400
G1 Z0.000 F2500
G1 X82.000 Y41.000
G1 X83.000 Y41.000
G1 X84.000 Y41.000
G1 X85.000 Y41.000
G1 X86.000 Y41.000
G1 X87.000 Y41.000
G1 X88.000 Y41.000
G1 X89.000 Y41.000
G1 X90.000 Y41.000
G1 X91.000 Y41.000
G1 X92.000 Y41.000
G1 X93.000 Y41.000
G1 X94.000 Y41.000
G1 X95.000 Y41.000
G1 X96.000 Y41.000
G1 X97.000 Y41.000
G1 X98.000 Y41.000
G1 X99.000 Y41.000
G1 X100.000 Y41.000
G1 X101.000 Y41.000
G1 X102.000 Y41.000
G1 X103.000 Y41.000
G1 X104.000 Y41.000
G1 X105.000 Y41.000
G1 X106.000 Y41.000
G1 X107.000 Y41.000
G1 X108.000 Y41.000
G1 X109.000 Y41.000
G1 X110.000 Y41.000
G1 X111.000 Y41.000
G1 X112.000 Y41.000
G1 X113.000 Y41.000
G1 X114.000 Y41.000
G1 X115.000 Y41.000
G1 X116.000 Y41.000
G1 X117.000 Y41.000
G1 X118.000 Y41.000
G1 X119.000 Y41.000
G1 X120.000 Y41.000
G1 X121.000 Y41.000
G1 X122.000 Y41.000
G1 X123.000 Y41.000
G1 X124.000 Y41.000
G1 X125.000 Y41.000
G1 X126.000 Y41.000
G1 X127.000 Y41.000
G1 X128.000 Y41.000
G1 X129.000 Y41.000
G1 X130.000 Y41.000
G1 X131.000 Y41.000
G1 X132.000 Y41.000
G1 X133.000 Y41.000
G1 X134.000 Y41.000
G1 X135.000 Y41.000
G1 X136.000 Y41.000
G1 X137.000 Y41.000
G1 X138.000 Y41.000
G1 X139.000 Y41.000
G1 X140.000 Y41.000
G1 X141.000 Y41.000
G1 X142.000 Y41.000
G1 X143.000 Y41.000
G1 X144.000 Y41.000
G1 X145.000 Y41.000
G1 X146.000 Y41.000
G1 X147.000 Y41.000
G1 X148.000 Y41.000
G1 X149.000 Y41.000
G1 X150.000 Y41.000
G1 X151.000 Y41.000
G1 X152.000 Y41.000
G1 X153.000 Y41.000
G1 X154.000 Y41.000
G1 X155.000 Y41.000
G1 X156.000 Y41.000
G1 X157.000 Y41.000
G1 X158.000 Y41.000
G1 X159.000 Y41.000
G1 X160.000 Y41.000
G1 X161.000 Y41.000
G1 X162.000 Y41.000
G1 X163.000 Y41.000
G1 X164.000 Y41.000
G1 X165.000 Y41.000
G1 X166.000 Y41.000
G1 X167.000 Y41.000
G1 X168.000 Y41.000
G1 X169.000 Y41.000
G1 X170.000 Y41.000
G1 X171.000 Y41.000
G1 X172.000 Y41.000
G1 X173.000 Y41.000
G1 X174.000 Y41.000
G1 X175.000 Y41.000
G1 X176.000 Y41.000
G1 X177.000 Y41.000
G1 X178.000 Y41.000
G0 Z4.600 F3000
M400
M204 P12000 T12000
G1 F12000
G0 X179.000 Y42.000 Z4.600
M400
M204 P200 T200
G1 F400
G1 Z0.000 F2500
G1 X178.000 Y42.000
G1 X177.000 Y42.000
G1 X176.000 Y42.000
G1 X175.000 Y42.000
G1 X174.000 Y42.000
G1 X173.000 Y42.000
G1 X172.000 Y42.000
G1 X171.000 Y42.000
G1 X170.000 Y42.000
G1 X169.000 Y42.000
G1 X168.000 Y42.000
G1 X167.000 Y42.000
G1 X166.000 Y42.000
G1 X165.000 Y42.000
G1 X164.000 Y42.000
G1 X163.000 Y42.000
G1 X162.000 Y42.000
G1 X161.000 Y42.000
G1 X160.000 Y42.000
G1 X159.000 Y42.000
G1 X158.000 Y42.000
G1 X157.000 Y42.000
G1 X156.000 Y42.000
G1 X155.000 Y42.000
G1 X154.000 Y42.000
G1 X153.000 Y42.000
G0 Z4.600 F3000

; --- CIKEL NAMAKANJA ---
G0 Z4.600 F3000
M400
M204 P12000 T12000
G1 F12000
G0 X-17.145 Y-11.471 Z31.000
G1 Z0.000 F3000
G1 X-17.145 Y-11.471 F2500
G1 X-17.145 Y-8.971 F2500
G1 X-22.145 Y-11.471 F2500
G1 X-17.145 Y-18.971 F2500
G0 Z16.000 F3000
G0 X14.458 Y3.995
G0 Z31.000 F3000
G0 X152.000 Y42.000 Z4.600
M400
M204 P200 T200
G1 F400
G1 Z0.000 F2500
G1 X152.000 Y42.000
G1 X151.000 Y42.000
G1 X150.000 Y42.000
G1 X149.000 Y42.000
G1 X148.000 Y42.000
G1 X147.000 Y42.000
G1 X146.000 Y42.000
G1 X145.000 Y42.000
G1 X144.000 Y42.000
G1 X143.000 Y42.000
G1 X142.000 Y42.000
G1 X141.000 Y42.000
G1 X140.000 Y42.000
G1 X139.000 Y42.000
G1 X138.000 Y42.000
G1 X137.000 Y42.000
G1 X136.000 Y42.000
G1 X135.000 Y42.000
G1 X134.000 Y42.000
G1 X133.000 Y42.000
G1 X132.000 Y42.000
G1 X131.000 Y42.000
G1 X130.000 Y42.000
G1 X129.000 Y42.000
G1 X128.000 Y42.000
G1 X127.000 Y42.000
G1 X126.000 Y42.000
G1 X125.000 Y42.000
G1 X124.000 Y42.000
G1 X123.000 Y42.000
G1 X122.000 Y42.000
G1 X121.000 Y42.000
G1 X120.000 Y42.000
G1 X119.000 Y42.000
G1 X118.000 Y42.000
G1 X117.000 Y42.000
G1 X116.000 Y42.000
G1 X115.000 Y42.000
G1 X114.000 Y42.000
G1 X113.000 Y42.000
G1 X112.000 Y42.000
G1 X111.000 Y42.000
G1 X110.000 Y42.000
G1 X109.000 Y42.000
G1 X108.000 Y42.000
G1 X107.000 Y42.000
G1 X106.000 Y42.000
G1 X105.000 Y42.000
G1 X104.000 Y42.000
G1 X103.000 Y42.000
G1 X102.000 Y42.000
G1 X101.000 Y42.000
G1 X100.000 Y42.000
G1 X99.000 Y42.000
G1 X98.000 Y42.000
G1 X97.000 Y42.000
G1 X96.000 Y42.000
G1 X95.000 Y42.000
G1 X94.000 Y42.000
G1 X93.000 Y42.000
G1 X92.000 Y42.000
G1 X91.000 Y42.000
G1 X90.000 Y42.000
G1 X89.000 Y42.000
G1 X88.000 Y42.000
G1 X87.000 Y42.000
G1 X86.000 Y42.000
G1 X85.000 Y42.000
G1 X84.000 Y42.000
G1 X83.000 Y42.000
G1 X82.000 Y42.000
G1 X81.000 Y42.000
G1 X80.000 Y42.000
G0 Z4.600 F3000
M400
M204 P12000 T12000
G1 F12000
G0 X77.000 Y43.000 Z4.600
M400
M204 P200 T200
G1 F400
G1 Z0.000 F2500
G1 X78.000 Y43.000
G1 X79.000 Y43.000
G1 X80.000 Y43.000
G1 X81.000 Y43.000
G1 X82.000 Y43.000
G1 X83.000 Y43.000
G1 X84.000 Y43.000
G1 X85.000 Y43.000
G1 X86.000 Y43.000
G1 X87.000 Y43.000
G1 X88.000 Y43.000
G1 X89.000 Y43.000
G1 X90.000 Y43.000
G1 X91.000 Y43.000
G1 X92.000 Y43.000
G1 X93.000 Y43.000
G1 X94.000 Y43.000
G1 X95.000 Y43.000
G1 X96.000 Y43.000
G1 X97.000 Y43.000
G1 X98.000 Y43.000
G1 X99.000 Y43.000
G1 X100.000 Y43.000
G1 X101.000 Y43.000
G1 X102.000 Y43.000
G1 X103.000 Y43.000
G1 X104.000 Y43.000
G1 X105.000 Y43.000
G1 X106.000 Y43.000
G1 X107.000 Y43.000
G1 X108.000 Y43.000
G1 X109.000 Y43.000
G1 X110.000 Y43.000
G1 X111.000 Y43.000
G1 X112.000 Y43.000
G1 X113.000 Y43.000
G1 X114.000 Y43.000
G1 X115.000 Y43.000
G1 X116.000 Y43.000
G1 X117.000 Y43.000
G1 X118.000 Y43.000
G1 X119.000 Y43.000
G1 X120.000 Y43.000
G1 X121.000 Y43.000
G1 X122.000 Y43.000
G1 X123.000 Y43.000
G1 X124.000 Y43.000
G1 X125.000 Y43.000
G1 X126.000 Y43.000
G1 X127.000 Y43.000
G1 X128.000 Y43.000
G1 X129.000 Y43.000
G1 X130.000 Y43.000
G1 X131.000 Y43.000
G1 X132.000 Y43.000
G1 X133.000 Y43.000
G1 X134.000 Y43.000
G1 X135.000 Y43.000
G1 X136.000 Y43.000
G1 X137.000 Y43.000
G1 X138.000 Y43.000
G1 X139.000 Y43.000
G1 X140.000 Y43.000
G1 X141.000 Y43.000
G1 X142.000 Y43.000
G1 X143.000 Y43.000
G1 X144.000 Y43.000
G1 X145.000 Y43.000
G1 X146.000 Y43.000
G1 X147.000 Y43.000
G1 X148.000 Y43.000
G1 X149.000 Y43.000
G1 X150.000 Y43.000
G1 X151.000 Y43.000
G1 X152.000 Y43.000
G1 X153.000 Y43.000
G1 X154.000 Y43.000
G1 X155.000 Y43.000
G1 X156.000 Y43.000
G1 X157.000 Y43.000
G1 X158.000 Y43.000
G1 X159.000 Y43.000
G1 X160.000 Y43.000
G1 X161.000 Y43.000
G1 X162.000 Y43.000
G1 X163.000 Y43.000
G1 X164.000 Y43.000
G1 X165.000 Y43.000
G1 X166.000 Y43.000
G1 X167.000 Y43.000
G1 X168.000 Y43.000
G1 X169.000 Y43.000
G1 X170.000 Y43.000
G1 X171.000 Y43.000
G1 X172.000 Y43.000
G1 X173.000 Y43.000
G1 X174.000 Y43.000
G1 X175.000 Y43.000
G1 X176.000 Y43.000
G1 X177.000 Y43.000
G1 X178.000 Y43.000
G1 X179.000 Y43.000
G1 X180.000 Y43.000
G1 X181.000 Y43.000
G1 X182.000 Y43.000
G0 Z4.600 F3000
M400
M204 P12000 T12000
G1 F12000
G0 X185.000 Y44.000 Z4.600
M400
M204 P200 T200
G1 F400
G1 Z0.000 F2500
G1 X184.000 Y44.000
G1 X183.000 Y44.000
G1 X182.000 Y44.000
G1 X181.000 Y44.000
G1 X180.000 Y44.000
G1 X179.000 Y44.000
G1 X178.000 Y44.000
G1 X177.000 Y44.000
G1 X176.000 Y44.000
G1 X175.000 Y44.000
G1 X174.000 Y44.000
G1 X173.000 Y44.000
G1 X172.000 Y44.000
G1 X171.000 Y44.000
G1 X170.000 Y44.000
G1 X169.000 Y44.000
G1 X168.000 Y44.000
G1 X167.000 Y44.000
G1 X166.000 Y44.000
G1 X165.000 Y44.000
G1 X164.000 Y44.000
G1 X163.000 Y44.000
G1 X162.000 Y44.000
G1 X161.000 Y44.000
G1 X160.000 Y44.000
G1 X159.000 Y44.000
G1 X158.000 Y44.000
G1 X157.000 Y44.000
G1 X156.000 Y44.000
G1 X155.000 Y44.000
G1 X154.000 Y44.000
G1 X153.000 Y44.000
G1 X152.000 Y44.000
G1 X151.000 Y44.000
G1 X150.000 Y44.000
G1 X149.000 Y44.000
G1 X148.000 Y44.000
G1 X147.000 Y44.000
G1 X146.000 Y44.000
G1 X145.000 Y44.000
G1 X144.000 Y44.000
G1 X143.000 Y44.000
G1 X142.000 Y44.000
G1 X141.000 Y44.000
G1 X140.000 Y44.000
G1 X139.000 Y44.000
G1 X138.000 Y44.000
G1 X137.000 Y44.000
G1 X136.000 Y44.000
G1 X135.000 Y44.000
G1 X134.000 Y44.000
G1 X133.000 Y44.000
G1 X132.000 Y44.000
G1 X131.000 Y44.000
G1 X130.000 Y44.000
G1 X129.000 Y44.000
G1 X128.000 Y44.000
G1 X127.000 Y44.000
G1 X126.000 Y44.000
G1 X125.000 Y44.000
G1 X124.000 Y44.000
G1 X123.000 Y44.000
G1 X122.000 Y44.000
G1 X121.000 Y44.000
G1 X120.000 Y44.000
G1 X119.000 Y44.000
G1 X118.000 Y44.000
G1 X117.000 Y44.000
G1 X116.000 Y44.000
G1 X115.000 Y44.000
G0 Z4.600 F3000

; --- CIKEL NAMAKANJA ---
G0 Z4.600 F3000
M400
M204 P12000 T12000
G1 F12000
G0 X16.036 Y6.100 Z31.000
G1 Z0.000 F3000
G1 X16.036 Y6.100 F2500
G1 X16.036 Y8.600 F2500
G1 X11.036 Y6.100 F2500
G1 X16.036 Y-1.400 F2500
G0 Z16.000 F3000
G0 X13.994 Y5.401
G0 Z31.000 F3000
G0 X114.000 Y44.000 Z4.600
M400
M204 P200 T200
G1 F400
G1 Z0.000 F2500
G1 X114.000 Y44.000
G1 X113.000 Y44.000
G1 X112.000 Y44.000
G1 X111.000 Y44.000
G1 X110.000 Y44.000
G1 X109.000 Y44.000
G1 X108.000 Y44.000
G1 X107.000 Y44.000
G1 X106.000 Y44.000
G1 X105.000 Y44.000
G1 X104.000 Y44.000
G1 X103.000 Y44.000
G1 X102.000 Y44.000
G1 X101.000 Y44.000
G1 X100.000 Y44.000
G1 X99.000 Y44.000
G1 X98.000 Y44.000
G1 X97.000 Y44.000
G1 X96.000 Y44.000
G1 X95.000 Y44.000
G1 X94.000 Y44.000
G1 X93.000 Y44.000
G1 X92.000 Y44.000
G1 X91.000 Y44.000
G1 X90.000 Y44.000
G1 X89.000 Y44.000
G1 X88.000 Y44.000
G1 X87.000 Y44.000
G1 X86.000 Y44.000
G1 X85.000 Y44.000
G1 X84.000 Y44.000
G1 X83.000 Y44.000
G1 X82.000 Y44.000
G1 X81.000 Y44.000
G1 X80.000 Y44.000
G1 X79.000 Y44.000
G1 X78.000 Y44.000
G1 X77.000 Y44.000
G1 X76.000 Y44.000
G0 Z4.600 F3000
M400
M204 P12000 T12000
G1 F12000
G0 X75.000 Y45.000 Z4.600
M400
M204 P200 T200
G1 F400
G1 Z0.000 F2500
G1 X76.000 Y45.000
G1 X77.000 Y45.000
G1 X78.000 Y45.000
G1 X79.000 Y45.000
G1 X80.000 Y45.000
G1 X81.000 Y45.000
G1 X82.000 Y45.000
G1 X83.000 Y45.000
G1 X84.000 Y45.000
G1 X85.000 Y45.000
G1 X86.000 Y45.000
G1 X87.000 Y45.000
G1 X88.000 Y45.000
G1 X89.000 Y45.000
G1 X90.000 Y45.000
G1 X91.000 Y45.000
G1 X92.000 Y45.000
G1 X93.000 Y45.000
G1 X94.000 Y45.000
G1 X95.000 Y45.000
G1 X96.000 Y45.000
G1 X97.000 Y45.000
G1 X98.000 Y45.000
G1 X99.000 Y45.000
G1 X100.000 Y45.000
G1 X101.000 Y45.000
G1 X102.000 Y45.000
G1 X103.000 Y45.000
G1 X104.000 Y45.000
G1 X105.000 Y45.000
G1 X106.000 Y45.000
G1 X107.000 Y45.000
G1 X108.000 Y45.000
G1 X109.000 Y45.000
G1 X110.000 Y45.000
G1 X111.000 Y45.000
G1 X112.000 Y45.000
G1 X113.000 Y45.000
G1 X114.000 Y45.000
G1 X115.000 Y45.000
G1 X116.000 Y45.000
G1 X117.000 Y45.000
G1 X118.000 Y45.000
G1 X119.000 Y45.000
G1 X120.000 Y45.000
G1 X121.000 Y45.000
G1 X122.000 Y45.000
G1 X123.000 Y45.000
G1 X124.000 Y45.000
G1 X125.000 Y45.000
G1 X126.000 Y45.000
G1 X127.000 Y45.000
G1 X128.000 Y45.000
G1 X129.000 Y45.000
G1 X130.000 Y45.000
G1 X131.000 Y45.000
G1 X132.000 Y45.000
G1 X133.000 Y45.000
G1 X134.000 Y45.000
G1 X135.000 Y45.000
G1 X136.000 Y45.000
G1 X137.000 Y45.000
G1 X138.000 Y45.000
G1 X139.000 Y45.000
G1 X140.000 Y45.000
G1 X141.000 Y45.000
G1 X142.000 Y45.000
G1 X143.000 Y45.000
G1 X144.000 Y45.000
G1 X145.000 Y45.000
G1 X146.000 Y45.000
G1 X147.000 Y45.000
G1 X148.000 Y45.000
G1 X149.000 Y45.000
G1 X150.000 Y45.000
G1 X151.000 Y45.000
G1 X152.000 Y45.000
G1 X153.000 Y45.000
G1 X154.000 Y45.000
G1 X155.000 Y45.000
G1 X156.000 Y45.000
G1 X157.000 Y45.000
G1 X158.000 Y45.000
G1 X159.000 Y45.000
G1 X160.000 Y45.000
G1 X161.000 Y45.000
G1 X162.000 Y45.000
G1 X163.000 Y45.000
G1 X164.000 Y45.000
G1 X165.000 Y45.000
G1 X166.000 Y45.000
G1 X167.000 Y45.000
G1 X168.000 Y45.000
G1 X169.000 Y45.000
G1 X170.000 Y45.000
G1 X171.000 Y45.000
G1 X172.000 Y45.000
G1 X173.000 Y45.000
G1 X174.000 Y45.000
G1 X175.000 Y45.000
G1 X176.000 Y45.000
G1 X177.000 Y45.000
G1 X178.000 Y45.000
G1 X179.000 Y45.000
G1 X180.000 Y45.000
G1 X181.000 Y45.000
G1 X182.000 Y45.000
G1 X183.000 Y45.000
G1 X184.000 Y45.000
G1 X185.000 Y45.000
G0 Z4.600 F3000
M400
M204 P12000 T12000
G1 F12000
G0 X187.000 Y46.000 Z4.600
M400
M204 P200 T200
G1 F400
G1 Z0.000 F2500
G1 X186.000 Y46.000
G1 X185.000 Y46.000
G1 X184.000 Y46.000
G1 X183.000 Y46.000
G1 X182.000 Y46.000
G1 X181.000 Y46.000
G1 X180.000 Y46.000
G1 X179.000 Y46.000
G1 X178.000 Y46.000
G1 X177.000 Y46.000
G1 X176.000 Y46.000
G1 X175.000 Y46.000
G1 X174.000 Y46.000
G1 X173.000 Y46.000
G1 X172.000 Y46.000
G1 X171.000 Y46.000
G1 X170.000 Y46.000
G1 X169.000 Y46.000
G1 X168.000 Y46.000
G1 X167.000 Y46.000
G1 X166.000 Y46.000
G1 X165.000 Y46.000
G1 X164.000 Y46.000
G1 X163.000 Y46.000
G1 X162.000 Y46.000
G1 X161.000 Y46.000
G1 X160.000 Y46.000
G1 X159.000 Y46.000
G1 X158.000 Y46.000
G1 X157.000 Y46.000
G1 X156.000 Y46.000
G1 X155.000 Y46.000
G1 X154.000 Y46.000
G1 X153.000 Y46.000
G1 X152.000 Y46.000
G1 X151.000 Y46.000
G1 X150.000 Y46.000
G1 X149.000 Y46.000
G1 X148.000 Y46.000
G1 X147.000 Y46.000
G1 X146.000 Y46.000
G1 X145.000 Y46.000
G1 X144.000 Y46.000
G1 X143.000 Y46.000
G1 X142.000 Y46.000
G1 X141.000 Y46.000
G1 X140.000 Y46.000
G1 X139.000 Y46.000
G1 X138.000 Y46.000
G1 X137.000 Y46.000
G1 X136.000 Y46.000
G1 X135.000 Y46.000
G1 X134.000 Y46.000
G1 X133.000 Y46.000
G1 X132.000 Y46.000
G1 X131.000 Y46.000
G1 X130.000 Y46.000
G1 X129.000 Y46.000
G1 X128.000 Y46.000
G1 X127.000 Y46.000
G1 X126.000 Y46.000
G1 X125.000 Y46.000
G1 X124.000 Y46.000
G1 X123.000 Y46.000
G1 X122.000 Y46.000
G1 X121.000 Y46.000
G1 X120.000 Y46.000
G1 X119.000 Y46.000
G1 X118.000 Y46.000
G1 X117.000 Y46.000
G1 X116.000 Y46.000
G1 X115.000 Y46.000
G1 X114.000 Y46.000
G1 X113.000 Y46.000
G1 X112.000 Y46.000
G1 X111.000 Y46.000
G1 X110.000 Y46.000
G1 X109.000 Y46.000
G1 X108.000 Y46.000
G1 X107.000 Y46.000
G1 X106.000 Y46.000
G1 X105.000 Y46.000
G1 X104.000 Y46.000
G1 X103.000 Y46.000
G1 X102.000 Y46.000
G1 X101.000 Y46.000
G1 X100.000 Y46.000
G1 X99.000 Y46.000
G1 X98.000 Y46.000
G1 X97.000 Y46.000
G1 X96.000 Y46.000
G1 X95.000 Y46.000
G1 X94.000 Y46.000
G1 X93.000 Y46.000
G1 X92.000 Y46.000
G1 X91.000 Y46.000
G1 X90.000 Y46.000
G1 X89.000 Y46.000
G1 X88.000 Y46.000
G1 X87.000 Y46.000
G1 X86.000 Y46.000
G1 X85.000 Y46.000
G1 X84.000 Y46.000
G1 X83.000 Y46.000
G1 X82.000 Y46.000
G1 X81.000 Y46.000
G1 X80.000 Y46.000
G1 X79.000 Y46.000
G1 X78.000 Y46.000
G1 X77.000 Y46.000
G1 X76.000 Y46.000
G1 X75.000 Y46.000
G1 X74.000 Y46.000
G1 X73.000 Y46.000
G1 X72.000 Y46.000
G0 Z4.600 F3000
M400
M204 P12000 T12000
G1 F12000
G0 X72.000 Y47.000 Z4.600
M400
M204 P200 T200
G1 F400
G1 Z0.000 F2500
G1 X73.000 Y47.000
G1 X74.000 Y47.000
G1 X75.000 Y47.000
G1 X76.000 Y47.000
G1 X77.000 Y47.000
G1 X78.000 Y47.000
G1 X79.000 Y47.000
G1 X80.000 Y47.000
G1 X81.000 Y47.000
G1 X82.000 Y47.000
G1 X83.000 Y47.000
G0 Z4.600 F3000

; --- CIKEL NAMAKANJA ---
G0 Z4.600 F3000
M400
M204 P12000 T12000
G1 F12000
G0 X-8.724 Y-6.325 Z31.000
G1 Z0.000 F3000
G1 X-8.724 Y-6.325 F2500
G1 X-8.724 Y-3.825 F2500
G1 X-13.724 Y-6.325 F2500
G1 X-8.724 Y-13.825 F2500
G0 Z16.000 F3000
G0 X13.090 Y7.324
G0 Z31.000 F3000
G0 X84.000 Y47.000 Z4.600
M400
M204 P200 T200
G1 F400
G1 Z0.000 F2500
G1 X84.000 Y47.000
G1 X85.000 Y47.000
G1 X86.000 Y47.000
G1 X87.000 Y47.000
G1 X88.000 Y47.000
G1 X89.000 Y47.000
G1 X90.000 Y47.000
G1 X91.000 Y47.000
G1 X92.000 Y47.000
G1 X93.000 Y47.000
G1 X94.000 Y47.000
G1 X95.000 Y47.000
G1 X96.000 Y47.000
G1 X97.000 Y47.000
G1 X98.000 Y47.000
G1 X99.000 Y47.000
G1 X100.000 Y47.000
G1 X101.000 Y47.000
G1 X102.000 Y47.000
G1 X103.000 Y47.000
G1 X104.000 Y47.000
G1 X105.000 Y47.000
G1 X106.000 Y47.000
G1 X107.000 Y47.000
G1 X108.000 Y47.000
G1 X109.000 Y47.000
G1 X110.000 Y47.000
G1 X111.000 Y47.000
G1 X112.000 Y47.000
G1 X113.000 Y47.000
G1 X114.000 Y47.000
G1 X115.000 Y47.000
G1 X116.000 Y47.000
G1 X117.000 Y47.000
G1 X118.000 Y47.000
G1 X119.000 Y47.000
G1 X120.000 Y47.000
G1 X121.000 Y47.000
G1 X122.000 Y47.000
G1 X123.000 Y47.000
G1 X124.000 Y47.000
G1 X125.000 Y47.000
G1 X126.000 Y47.000
G1 X127.000 Y47.000
G1 X128.000 Y47.000
G1 X129.000 Y47.000
G1 X130.000 Y47.000
G1 X131.000 Y47.000
G1 X132.000 Y47.000
G1 X133.000 Y47.000
G1 X134.000 Y47.000
G1 X135.000 Y47.000
G1 X136.000 Y47.000
G1 X137.000 Y47.000
G1 X138.000 Y47.000
G1 X139.000 Y47.000
G1 X140.000 Y47.000
G1 X141.000 Y47.000
G1 X142.000 Y47.000
G1 X143.000 Y47.000
G1 X144.000 Y47.000
G1 X145.000 Y47.000
G1 X146.000 Y47.000
G1 X147.000 Y47.000
G1 X148.000 Y47.000
G1 X149.000 Y47.000
G1 X150.000 Y47.000
G1 X151.000 Y47.000
G1 X152.000 Y47.000
G1 X153.000 Y47.000
G1 X154.000 Y47.000
G1 X155.000 Y47.000
G1 X156.000 Y47.000
G1 X157.000 Y47.000
G1 X158.000 Y47.000
G1 X159.000 Y47.000
G1 X160.000 Y47.000
G1 X161.000 Y47.000
G1 X162.000 Y47.000
G1 X163.000 Y47.000
G1 X164.000 Y47.000
G1 X165.000 Y47.000
G1 X166.000 Y47.000
G1 X167.000 Y47.000
G1 X168.000 Y47.000
G1 X169.000 Y47.000
G1 X170.000 Y47.000
G1 X171.000 Y47.000
G1 X172.000 Y47.000
G1 X173.000 Y47.000
G1 X174.000 Y47.000
G1 X175.000 Y47.000
G1 X176.000 Y47.000
G1 X177.000 Y47.000
G1 X178.000 Y47.000
G1 X179.000 Y47.000
G1 X180.000 Y47.000
G1 X181.000 Y47.000
G1 X182.000 Y47.000
G1 X183.000 Y47.000
G1 X184.000 Y47.000
G1 X185.000 Y47.000
G1 X186.000 Y47.000
G1 X187.000 Y47.000
G0 Z4.600 F3000
M400
M204 P12000 T12000
G1 F12000
G0 X189.000 Y48.000 Z4.600
M400
M204 P200 T200
G1 F400
G1 Z0.000 F2500
G1 X188.000 Y48.000
G1 X187.000 Y48.000
G1 X186.000 Y48.000
G1 X185.000 Y48.000
G1 X184.000 Y48.000
G1 X183.000 Y48.000
G1 X182.000 Y48.000
G1 X181.000 Y48.000
G1 X180.000 Y48.000
G1 X179.000 Y48.000
G1 X178.000 Y48.000
G1 X177.000 Y48.000
G1 X176.000 Y48.000
G1 X175.000 Y48.000
G1 X174.000 Y48.000
G1 X173.000 Y48.000
G1 X172.000 Y48.000
G1 X171.000 Y48.000
G1 X170.000 Y48.000
G1 X169.000 Y48.000
G1 X168.000 Y48.000
G1 X167.000 Y48.000
G1 X166.000 Y48.000
G1 X165.000 Y48.000
G1 X164.000 Y48.000
G1 X163.000 Y48.000
G1 X162.000 Y48.000
G1 X161.000 Y48.000
G1 X160.000 Y48.000
G1 X159.000 Y48.000
G1 X158.000 Y48.000
G1 X157.000 Y48.000
G1 X156.000 Y48.000
G1 X155.000 Y48.000
G1 X154.000 Y48.000
G1 X153.000 Y48.000
G1 X152.000 Y48.000
G1 X151.000 Y48.000
G1 X150.000 Y48.000
G1 X149.000 Y48.000
G1 X148.000 Y48.000
G1 X147.000 Y48.000
G1 X146.000 Y48.000
G1 X145.000 Y48.000
G1 X144.000 Y48.000
G1 X143.000 Y48.000
G1 X142.000 Y48.000
G1 X141.000 Y48.000
G1 X140.000 Y48.000
G1 X139.000 Y48.000
G1 X138.000 Y48.000
G1 X137.000 Y48.000
G1 X136.000 Y48.000
G1 X135.000 Y48.000
G1 X134.000 Y48.000
G1 X133.000 Y48.000
G1 X132.000 Y48.000
G1 X131.000 Y48.000
G1 X130.000 Y48.000
G1 X129.000 Y48.000
G1 X128.000 Y48.000
G1 X127.000 Y48.000
G1 X126.000 Y48.000
G1 X125.000 Y48.000
G1 X124.000 Y48.000
G1 X123.000 Y48.000
G1 X122.000 Y48.000
G1 X121.000 Y48.000
G1 X120.000 Y48.000
G1 X119.000 Y48.000
G1 X118.000 Y48.000
G1 X117.000 Y48.000
G1 X116.000 Y48.000
G1 X115.000 Y48.000
G1 X114.000 Y48.000
G1 X113.000 Y48.000
G1 X112.000 Y48.000
G1 X111.000 Y48.000
G1 X110.000 Y48.000
G1 X109.000 Y48.000
G1 X108.000 Y48.000
G1 X107.000 Y48.000
G1 X106.000 Y48.000
G1 X105.000 Y48.000
G1 X104.000 Y48.000
G1 X103.000 Y48.000
G1 X102.000 Y48.000
G1 X101.000 Y48.000
G1 X100.000 Y48.000
G1 X99.000 Y48.000
G1 X98.000 Y48.000
G1 X97.000 Y48.000
G1 X96.000 Y48.000
G1 X95.000 Y48.000
G1 X94.000 Y48.000
G1 X93.000 Y48.000
G1 X92.000 Y48.000
G1 X91.000 Y48.000
G1 X90.000 Y48.000
G1 X89.000 Y48.000
G1 X88.000 Y48.000
G1 X87.000 Y48.000
G1 X86.000 Y48.000
G1 X85.000 Y48.000
G1 X84.000 Y48.000
G1 X83.000 Y48.000
G1 X82.000 Y48.000
G1 X81.000 Y48.000
G1 X80.000 Y48.000
G1 X79.000 Y48.000
G1 X78.000 Y48.000
G1 X77.000 Y48.000
G1 X76.000 Y48.000
G1 X75.000 Y48.000
G1 X74.000 Y48.000
G1 X73.000 Y48.000
G1 X72.000 Y48.000
G1 X71.000 Y48.000
G1 X70.000 Y48.000
G0 Z4.600 F3000
M400
M204 P12000 T12000
G1 F12000
G0 X70.000 Y49.000 Z4.600
M400
M204 P200 T200
G1 F400
G1 Z0.000 F2500
G1 X71.000 Y49.000
G1 X72.000 Y49.000
G1 X73.000 Y49.000
G1 X74.000 Y49.000
G1 X75.000 Y49.000
G1 X76.000 Y49.000
G1 X77.000 Y49.000
G1 X78.000 Y49.000
G1 X79.000 Y49.000
G1 X80.000 Y49.000
G1 X81.000 Y49.000
G1 X82.000 Y49.000
G1 X83.000 Y49.000
G1 X84.000 Y49.000
G1 X85.000 Y49.000
G1 X86.000 Y49.000
G1 X87.000 Y49.000
G1 X88.000 Y49.000
G1 X89.000 Y49.000
G1 X90.000 Y49.000
G1 X91.000 Y49.000
G1 X92.000 Y49.000
G1 X93.000 Y49.000
G0 Z4.600 F3000

; --- CIKEL NAMAKANJA ---
G0 Z4.600 F3000
M400
M204 P12000 T12000
G1 F12000
G0 X-17.656 Y-2.569 Z31.000
G1 Z0.000 F3000
G1 X-17.656 Y-2.569 F2500
G1 X-17.656 Y-0.069 F2500
G1 X-22.656 Y-2.569 F2500
G1 X-17.656 Y-10.069 F2500
G0 Z16.000 F3000
G0 X13.301 Y6.934
G0 Z31.000 F3000
G0 X94.000 Y49.000 Z4.600
M400
M204 P200 T200
G1 F400
G1 Z0.000 F2500
G1 X94.000 Y49.000
G1 X95.000 Y49.000
G1 X96.000 Y49.000
G1 X97.000 Y49.000
G1 X98.000 Y49.000
G1 X99.000 Y49.000
G1 X100.000 Y49.000
G1 X101.000 Y49.000
G1 X102.000 Y49.000
G1 X103.000 Y49.000
G1 X104.000 Y49.000
G1 X105.000 Y49.000
G1 X106.000 Y49.000
G1 X107.000 Y49.000
G1 X108.000 Y49.000
G1 X109.000 Y49.000
G1 X110.000 Y49.000
G1 X111.000 Y49.000
G1 X112.000 Y49.000
G1 X113.000 Y49.000
G1 X114.000 Y49.000
G1 X115.000 Y49.000
G1 X116.000 Y49.000
G1 X117.000 Y49.000
G1 X118.000 Y49.000
G1 X119.000 Y49.000
G1 X120.000 Y49.000
G1 X121.000 Y49.000
G1 X122.000 Y49.000
G1 X123.000 Y49.000
G1 X124.000 Y49.000
G1 X125.000 Y49.000
G1 X126.000 Y49.000
G1 X127.000 Y49.000
G1 X128.000 Y49.000
G1 X129.000 Y49.000
G1 X130.000 Y49.000
G1 X131.000 Y49.000
G1 X132.000 Y49.000
G1 X133.000 Y49.000
G1 X134.000 Y49.000
G1 X135.000 Y49.000
G1 X136.000 Y49.000
G1 X137.000 Y49.000
G1 X138.000 Y49.000
G1 X139.000 Y49.000
G1 X140.000 Y49.000
G1 X141.000 Y49.000
G1 X142.000 Y49.000
G1 X143.000 Y49.000
G1 X144.000 Y49.000
G1 X145.000 Y49.000
G1 X146.000 Y49.000
G1 X147.000 Y49.000
G1 X148.000 Y49.000
G1 X149.000 Y49.000
G1 X150.000 Y49.000
G1 X151.000 Y49.000
G1 X152.000 Y49.000
G1 X153.000 Y49.000
G1 X154.000 Y49.000
G1 X155.000 Y49.000
G1 X156.000 Y49.000
G1 X157.000 Y49.000
G1 X158.000 Y49.000
G1 X159.000 Y49.000
G1 X160.000 Y49.000
G1 X161.000 Y49.000
G1 X162.000 Y49.000
G1 X163.000 Y49.000
G1 X164.000 Y49.000
G1 X165.000 Y49.000
G1 X166.000 Y49.000
G1 X167.000 Y49.000
G1 X168.000 Y49.000
G1 X169.000 Y49.000
G1 X170.000 Y49.000
G1 X171.000 Y49.000
G1 X172.000 Y49.000
G1 X173.000 Y49.000
G1 X174.000 Y49.000
G1 X175.000 Y49.000
G1 X176.000 Y49.000
G1 X177.000 Y49.000
G1 X178.000 Y49.000
G1 X179.000 Y49.000
G1 X180.000 Y49.000
G1 X181.000 Y49.000
G1 X182.000 Y49.000
G1 X183.000 Y49.000
G1 X184.000 Y49.000
G1 X185.000 Y49.000
G1 X186.000 Y49.000
G1 X187.000 Y49.000
G1 X188.000 Y49.000
G1 X189.000 Y49.000
G0 Z4.600 F3000
M400
M204 P12000 T12000
G1 F12000
G0 X192.000 Y50.000 Z4.600
M400
M204 P200 T200
G1 F400
G1 Z0.000 F2500
G1 X191.000 Y50.000
G1 X190.000 Y50.000
G1 X189.000 Y50.000
G1 X188.000 Y50.000
G1 X187.000 Y50.000
G1 X186.000 Y50.000
G1 X185.000 Y50.000
G1 X184.000 Y50.000
G1 X183.000 Y50.000
G1 X182.000 Y50.000
G1 X181.000 Y50.000
G1 X180.000 Y50.000
G1 X179.000 Y50.000
G1 X178.000 Y50.000
G1 X177.000 Y50.000
G1 X176.000 Y50.000
G1 X175.000 Y50.000
G1 X174.000 Y50.000
G1 X173.000 Y50.000
G1 X172.000 Y50.000
G1 X171.000 Y50.000
G1 X170.000 Y50.000
G1 X169.000 Y50.000
G1 X168.000 Y50.000
G1 X167.000 Y50.000
G1 X166.000 Y50.000
G1 X165.000 Y50.000
G1 X164.000 Y50.000
G1 X163.000 Y50.000
G1 X162.000 Y50.000
G1 X161.000 Y50.000
G1 X160.000 Y50.000
G1 X159.000 Y50.000
G1 X158.000 Y50.000
G1 X157.000 Y50.000
G1 X156.000 Y50.000
G1 X155.000 Y50.000
G1 X154.000 Y50.000
G1 X153.000 Y50.000
G1 X152.000 Y50.000
G1 X151.000 Y50.000
G1 X150.000 Y50.000
G1 X149.000 Y50.000
G1 X148.000 Y50.000
G1 X147.000 Y50.000
G1 X146.000 Y50.000
G1 X145.000 Y50.000
G1 X144.000 Y50.000
G1 X143.000 Y50.000
G1 X142.000 Y50.000
G1 X141.000 Y50.000
G1 X140.000 Y50.000
G1 X139.000 Y50.000
G1 X138.000 Y50.000
G1 X137.000 Y50.000
G1 X136.000 Y50.000
G1 X135.000 Y50.000
G1 X134.000 Y50.000
G1 X133.000 Y50.000
G1 X132.000 Y50.000
G1 X131.000 Y50.000
G1 X130.000 Y50.000
G1 X129.000 Y50.000
G1 X128.000 Y50.000
G1 X127.000 Y50.000
G1 X126.000 Y50.000
G1 X125.000 Y50.000
G1 X124.000 Y50.000
G1 X123.000 Y50.000
G1 X122.000 Y50.000
G1 X121.000 Y50.000
G1 X120.000 Y50.000
G1 X119.000 Y50.000
G1 X118.000 Y50.000
G1 X117.000 Y50.000
G1 X116.000 Y50.000
G1 X115.000 Y50.000
G1 X114.000 Y50.000
G1 X113.000 Y50.000
G1 X112.000 Y50.000
G1 X111.000 Y50.000
G1 X110.000 Y50.000
G1 X109.000 Y50.000
G1 X108.000 Y50.000
G1 X107.000 Y50.000
G1 X106.000 Y50.000
G1 X105.000 Y50.000
G1 X104.000 Y50.000
G1 X103.000 Y50.000
G1 X102.000 Y50.000
G1 X101.000 Y50.000
G1 X100.000 Y50.000
G1 X99.000 Y50.000
G1 X98.000 Y50.000
G1 X97.000 Y50.000
G1 X96.000 Y50.000
G1 X95.000 Y50.000
G1 X94.000 Y50.000
G1 X93.000 Y50.000
G1 X92.000 Y50.000
G1 X91.000 Y50.000
G1 X90.000 Y50.000
G1 X89.000 Y50.000
G1 X88.000 Y50.000
G1 X87.000 Y50.000
G1 X86.000 Y50.000
G1 X85.000 Y50.000
G1 X84.000 Y50.000
G1 X83.000 Y50.000
G1 X82.000 Y50.000
G1 X81.000 Y50.000
G1 X80.000 Y50.000
G1 X79.000 Y50.000
G1 X78.000 Y50.000
G1 X77.000 Y50.000
G1 X76.000 Y50.000
G1 X75.000 Y50.000
G1 X74.000 Y50.000
G1 X73.000 Y50.000
G1 X72.000 Y50.000
G1 X71.000 Y50.000
G1 X70.000 Y50.000
G1 X69.000 Y50.000
G1 X68.000 Y50.000
G1 X67.000 Y50.000
G0 Z4.600 F3000
M400
M204 P12000 T12000
G1 F12000
G0 X66.000 Y51.000 Z4.600
M400
M204 P200 T200
G1 F400
G1 Z0.000 F2500
G1 X67.000 Y51.000
G1 X68.000 Y51.000
G1 X69.000 Y51.000
G1 X70.000 Y51.000
G1 X71.000 Y51.000
G1 X72.000 Y51.000
G1 X73.000 Y51.000
G1 X74.000 Y51.000
G1 X75.000 Y51.000
G1 X76.000 Y51.000
G1 X77.000 Y51.000
G1 X78.000 Y51.000
G1 X79.000 Y51.000
G1 X80.000 Y51.000
G1 X81.000 Y51.000
G1 X82.000 Y51.000
G1 X83.000 Y51.000
G1 X84.000 Y51.000
G1 X85.000 Y51.000
G1 X86.000 Y51.000
G1 X87.000 Y51.000
G1 X88.000 Y51.000
G1 X89.000 Y51.000
G1 X90.000 Y51.000
G1 X91.000 Y51.000
G1 X92.000 Y51.000
G1 X93.000 Y51.000
G1 X94.000 Y51.000
G1 X95.000 Y51.000
G1 X96.000 Y51.000
G0 Z4.600 F3000

; --- CIKEL NAMAKANJA ---
G0 Z4.600 F3000
M400
M204 P12000 T12000
G1 F12000
G0 X9.351 Y-4.706 Z31.000
G1 Z0.000 F3000
G1 X9.351 Y-4.706 F2500
G1 X9.351 Y-2.206 F2500
G1 X4.351 Y-4.706 F2500
G1 X9.351 Y-12.206 F2500
G0 Z16.000 F3000
G0 X13.277 Y6.981
G0 Z31.000 F3000
G0 X97.000 Y51.000 Z4.600
M400
M204 P200 T200
G1 F400
G1 Z0.000 F2500
G1 X97.000 Y51.000
G1 X98.000 Y51.000
G1 X99.000 Y51.000
G1 X100.000 Y51.000
G1 X101.000 Y51.000
G1 X102.000 Y51.000
G1 X103.000 Y51.000
G1 X104.000 Y51.000
G1 X105.000 Y51.000
G1 X106.000 Y51.000
G1 X107.000 Y51.000
G1 X108.000 Y51.000
G1 X109.000 Y51.000
G1 X110.000 Y51.000
G1 X111.000 Y51.000
G1 X112.000 Y51.000
G1 X113.000 Y51.000
G1 X114.000 Y51.000
G1 X115.000 Y51.000
G1 X116.000 Y51.000
G1 X117.000 Y51.000
G1 X118.000 Y51.000
G1 X119.000 Y51.000
G1 X120.000 Y51.000
G1 X121.000 Y51.000
G1 X122.000 Y51.000
G1 X123.000 Y51.000
G1 X124.000 Y51.000
G1 X125.000 Y51.000
G1 X126.000 Y51.000
G1 X127.000 Y51.000
G1 X128.000 Y51.000
G1 X129.000 Y51.000
G1 X130.000 Y51.000
G1 X131.000 Y51.000
G1 X132.000 Y51.000
G1 X133.000 Y51.000
G1 X134.000 Y51.000
G1 X135.000 Y51.000
G1 X136.000 Y51.000
G1 X137.000 Y51.000
G1 X138.000 Y51.000
G1 X139.000 Y51.000
G1 X140.000 Y51.000
G1 X141.000 Y51.000
G1 X142.000 Y51.000
G1 X143.000 Y51.000
G1 X144.000 Y51.000
G1 X145.000 Y51.000
G1 X146.000 Y51.000
G1 X147.000 Y51.000
G1 X148.000 Y51.000
G1 X149.000 Y51.000
G1 X150.000 Y51.000
G1 X151.000 Y51.000
G1 X152.000 Y51.000
G1 X153.000 Y51.000
G1 X154.000 Y51.000
G1 X155.000 Y51.000
G1 X156.000 Y51.000
G1 X157.000 Y51.000
G1 X158.000 Y51.000
G1 X159.000 Y51.000
G1 X160.000 Y51.000
G1 X161.000 Y51.000
G1 X162.000 Y51.000
G1 X163.000 Y51.000
G1 X164.000 Y51.000
G1 X165.000 Y51.000
G1 X166.000 Y51.000
G1 X167.000 Y51.000
G1 X168.000 Y51.000
G1 X169.000 Y51.000
G1 X170.000 Y51.000
G1 X171.000 Y51.000
G1 X172.000 Y51.000
G1 X173.000 Y51.000
G1 X174.000 Y51.000
G1 X175.000 Y51.000
G1 X176.000 Y51.000
G1 X177.000 Y51.000
G1 X178.000 Y51.000
G1 X179.000 Y51.000
G1 X180.000 Y51.000
G1 X181.000 Y51.000
G1 X182.000 Y51.000
G1 X183.000 Y51.000
G1 X184.000 Y51.000
G1 X185.000 Y51.000
G1 X186.000 Y51.000
G1 X187.000 Y51.000
G1 X188.000 Y51.000
G1 X189.000 Y51.000
G1 X190.000 Y51.000
G1 X191.000 Y51.000
G1 X192.000 Y51.000
G1 X193.000 Y51.000
G0 Z4.600 F3000
M400
M204 P12000 T12000
G1 F12000
G0 X194.000 Y52.000 Z4.600
M400
M204 P200 T200
G1 F400
G1 Z0.000 F2500
G1 X193.000 Y52.000
G1 X192.000 Y52.000
G1 X191.000 Y52.000
G1 X190.000 Y52.000
G1 X189.000 Y52.000
G1 X188.000 Y52.000
G1 X187.000 Y52.000
G1 X186.000 Y52.000
G1 X185.000 Y52.000
G1 X184.000 Y52.000
G1 X183.000 Y52.000
G1 X182.000 Y52.000
G1 X181.000 Y52.000
G1 X180.000 Y52.000
G1 X179.000 Y52.000
G1 X178.000 Y52.000
G1 X177.000 Y52.000
G1 X176.000 Y52.000
G1 X175.000 Y52.000
G1 X174.000 Y52.000
G1 X173.000 Y52.000
G1 X172.000 Y52.000
G1 X171.000 Y52.000
G1 X170.000 Y52.000
G1 X169.000 Y52.000
G1 X168.000 Y52.000
G1 X167.000 Y52.000
G1 X166.000 Y52.000
G1 X165.000 Y52.000
G1 X164.000 Y52.000
G1 X163.000 Y52.000
G1 X162.000 Y52.000
G1 X161.000 Y52.000
G1 X160.000 Y52.000
G1 X159.000 Y52.000
G1 X158.000 Y52.000
G1 X157.000 Y52.000
G1 X156.000 Y52.000
G1 X155.000 Y52.000
G1 X154.000 Y52.000
G1 X153.000 Y52.000
G1 X152.000 Y52.000
G1 X151.000 Y52.000
G1 X150.000 Y52.000
G1 X149.000 Y52.000
G1 X148.000 Y52.000
G1 X147.000 Y52.000
G1 X146.000 Y52.000
G1 X145.000 Y52.000
G1 X144.000 Y52.000
G1 X143.000 Y52.000
G1 X142.000 Y52.000
G1 X141.000 Y52.000
G1 X140.000 Y52.000
G1 X139.000 Y52.000
G1 X138.000 Y52.000
G1 X137.000 Y52.000
G1 X136.000 Y52.000
G1 X135.000 Y52.000
G1 X134.000 Y52.000
G1 X133.000 Y52.000
G1 X132.000 Y52.000
G1 X131.000 Y52.000
G1 X130.000 Y52.000
G1 X129.000 Y52.000
G1 X128.000 Y52.000
G1 X127.000 Y52.000
G1 X126.000 Y52.000
G1 X125.000 Y52.000
G1 X124.000 Y52.000
G1 X123.000 Y52.000
G1 X122.000 Y52.000
G1 X121.000 Y52.000
G1 X120.000 Y52.000
G1 X119.000 Y52.000
G1 X118.000 Y52.000
G1 X117.000 Y52.000
G1 X116.000 Y52.000
G1 X115.000 Y52.000
G1 X114.000 Y52.000
G1 X113.000 Y52.000
G1 X112.000 Y52.000
G1 X111.000 Y52.000
G1 X110.000 Y52.000
G1 X109.000 Y52.000
G1 X108.000 Y52.000
G1 X107.000 Y52.000
G1 X106.000 Y52.000
G1 X105.000 Y52.000
G1 X104.000 Y52.000
G1 X103.000 Y52.000
G1 X102.000 Y52.000
G1 X101.000 Y52.000
G1 X100.000 Y52.000
G1 X99.000 Y52.000
G1 X98.000 Y52.000
G1 X97.000 Y52.000
G1 X96.000 Y52.000
G1 X95.000 Y52.000
G1 X94.000 Y52.000
G1 X93.000 Y52.000
G1 X92.000 Y52.000
G1 X91.000 Y52.000
G1 X90.000 Y52.000
G1 X89.000 Y52.000
G1 X88.000 Y52.000
G1 X87.000 Y52.000
G1 X86.000 Y52.000
G1 X85.000 Y52.000
G1 X84.000 Y52.000
G1 X83.000 Y52.000
G1 X82.000 Y52.000
G1 X81.000 Y52.000
G1 X80.000 Y52.000
G1 X79.000 Y52.000
G1 X78.000 Y52.000
G1 X77.000 Y52.000
G1 X76.000 Y52.000
G1 X75.000 Y52.000
G1 X74.000 Y52.000
G1 X73.000 Y52.000
G1 X72.000 Y52.000
G1 X71.000 Y52.000
G1 X70.000 Y52.000
G1 X69.000 Y52.000
G1 X68.000 Y52.000
G1 X67.000 Y52.000
G1 X66.000 Y52.000
G1 X65.000 Y52.000
G0 Z4.600 F3000
M400
M204 P12000 T12000
G1 F12000
G0 X64.000 Y53.000 Z4.600
M400
M204 P200 T200
G1 F400
G1 Z0.000 F2500
G1 X65.000 Y53.000
G1 X66.000 Y53.000
G1 X67.000 Y53.000
G1 X68.000 Y53.000
G1 X69.000 Y53.000
G1 X70.000 Y53.000
G1 X71.000 Y53.000
G1 X72.000 Y53.000
G1 X73.000 Y53.000
G1 X74.000 Y53.000
G1 X75.000 Y53.000
G1 X76.000 Y53.000
G1 X77.000 Y53.000
G1 X78.000 Y53.000
G1 X79.000 Y53.000
G1 X80.000 Y53.000
G0 Z4.600 F3000

; --- CIKEL NAMAKANJA ---
G0 Z4.600 F3000
M400
M204 P12000 T12000
G1 F12000
G0 X-6.044 Y-12.650 Z31.000
G1 Z0.000 F3000
G1 X-6.044 Y-12.650 F2500
G1 X-6.044 Y-10.150 F2500
G1 X-11.044 Y-12.650 F2500
G1 X-6.044 Y-20.150 F2500
G0 Z16.000 F3000
G0 X12.552 Y8.213
G0 Z31.000 F3000
G0 X81.000 Y53.000 Z4.600
M400
M204 P200 T200
G1 F400
G1 Z0.000 F2500
G1 X81.000 Y53.000
G1 X82.000 Y53.000
G1 X83.000 Y53.000
G1 X84.000 Y53.000
G1 X85.000 Y53.000
G1 X86.000 Y53.000
G1 X87.000 Y53.000
G1 X88.000 Y53.000
G1 X89.000 Y53.000
G1 X90.000 Y53.000
G1 X91.000 Y53.000
G1 X92.000 Y53.000
G1 X93.000 Y53.000
G1 X94.000 Y53.000
G1 X95.000 Y53.000
G1 X96.000 Y53.000
G1 X97.000 Y53.000
G1 X98.000 Y53.000
G1 X99.000 Y53.000
G1 X100.000 Y53.000
G1 X101.000 Y53.000
G1 X102.000 Y53.000
G1 X103.000 Y53.000
G1 X104.000 Y53.000
G1 X105.000 Y53.000
G1 X106.000 Y53.000
G1 X107.000 Y53.000
G1 X108.000 Y53.000
G1 X109.000 Y53.000
G1 X110.000 Y53.000
G1 X111.000 Y53.000
G1 X112.000 Y53.000
G1 X113.000 Y53.000
G1 X114.000 Y53.000
G1 X115.000 Y53.000
G1 X116.000 Y53.000
G1 X117.000 Y53.000
G1 X118.000 Y53.000
G1 X119.000 Y53.000
G1 X120.000 Y53.000
G1 X121.000 Y53.000
G1 X122.000 Y53.000
G1 X123.000 Y53.000
G1 X124.000 Y53.000
G1 X125.000 Y53.000
G1 X126.000 Y53.000
G1 X127.000 Y53.000
G1 X128.000 Y53.000
G1 X129.000 Y53.000
G1 X130.000 Y53.000
G1 X131.000 Y53.000
G1 X132.000 Y53.000
G1 X133.000 Y53.000
G1 X134.000 Y53.000
G1 X135.000 Y53.000
G1 X136.000 Y53.000
G1 X137.000 Y53.000
G1 X138.000 Y53.000
G1 X139.000 Y53.000
G1 X140.000 Y53.000
G1 X141.000 Y53.000
G1 X142.000 Y53.000
G1 X143.000 Y53.000
G1 X144.000 Y53.000
G1 X145.000 Y53.000
G1 X146.000 Y53.000
G1 X147.000 Y53.000
G1 X148.000 Y53.000
G1 X149.000 Y53.000
G1 X150.000 Y53.000
G1 X151.000 Y53.000
G1 X152.000 Y53.000
G1 X153.000 Y53.000
G1 X154.000 Y53.000
G1 X155.000 Y53.000
G1 X156.000 Y53.000
G1 X157.000 Y53.000
G1 X158.000 Y53.000
G1 X159.000 Y53.000
G1 X160.000 Y53.000
G1 X161.000 Y53.000
G1 X162.000 Y53.000
G1 X163.000 Y53.000
G1 X164.000 Y53.000
G1 X165.000 Y53.000
G1 X166.000 Y53.000
G1 X167.000 Y53.000
G1 X168.000 Y53.000
G1 X169.000 Y53.000
G1 X170.000 Y53.000
G1 X171.000 Y53.000
G1 X172.000 Y53.000
G1 X173.000 Y53.000
G1 X174.000 Y53.000
G1 X175.000 Y53.000
G1 X176.000 Y53.000
G1 X177.000 Y53.000
G1 X178.000 Y53.000
G1 X179.000 Y53.000
G1 X180.000 Y53.000
G1 X181.000 Y53.000
G1 X182.000 Y53.000
G1 X183.000 Y53.000
G1 X184.000 Y53.000
G1 X185.000 Y53.000
G1 X186.000 Y53.000
G1 X187.000 Y53.000
G1 X188.000 Y53.000
G1 X189.000 Y53.000
G1 X190.000 Y53.000
G1 X191.000 Y53.000
G1 X192.000 Y53.000
G1 X193.000 Y53.000
G1 X194.000 Y53.000
G1 X195.000 Y53.000
G0 Z4.600 F3000
M400
M204 P12000 T12000
G1 F12000
G0 X196.000 Y54.000 Z4.600
M400
M204 P200 T200
G1 F400
G1 Z0.000 F2500
G1 X195.000 Y54.000
G1 X194.000 Y54.000
G1 X193.000 Y54.000
G1 X192.000 Y54.000
G1 X191.000 Y54.000
G1 X190.000 Y54.000
G1 X189.000 Y54.000
G1 X188.000 Y54.000
G1 X187.000 Y54.000
G1 X186.000 Y54.000
G1 X185.000 Y54.000
G1 X184.000 Y54.000
G1 X183.000 Y54.000
G1 X182.000 Y54.000
G1 X181.000 Y54.000
G1 X180.000 Y54.000
G1 X179.000 Y54.000
G1 X178.000 Y54.000
G1 X177.000 Y54.000
G1 X176.000 Y54.000
G1 X175.000 Y54.000
G1 X174.000 Y54.000
G1 X173.000 Y54.000
G1 X172.000 Y54.000
G1 X171.000 Y54.000
G1 X170.000 Y54.000
G1 X169.000 Y54.000
G1 X168.000 Y54.000
G1 X167.000 Y54.000
G1 X166.000 Y54.000
G1 X165.000 Y54.000
G1 X164.000 Y54.000
G1 X163.000 Y54.000
G1 X162.000 Y54.000
G1 X161.000 Y54.000
G1 X160.000 Y54.000
G1 X159.000 Y54.000
G1 X158.000 Y54.000
G1 X157.000 Y54.000
G1 X156.000 Y54.000
G1 X155.000 Y54.000
G1 X154.000 Y54.000
G1 X153.000 Y54.000
G1 X152.000 Y54.000
G1 X151.000 Y54.000
G1 X150.000 Y54.000
G1 X149.000 Y54.000
G1 X148.000 Y54.000
G1 X147.000 Y54.000
G1 X146.000 Y54.000
G1 X145.000 Y54.000
G1 X144.000 Y54.000
G1 X143.000 Y54.000
G1 X142.000 Y54.000
G1 X141.000 Y54.000
G1 X140.000 Y54.000
G1 X139.000 Y54.000
G1 X138.000 Y54.000
G1 X137.000 Y54.000
G1 X136.000 Y54.000
G1 X135.000 Y54.000
G1 X134.000 Y54.000
G1 X133.000 Y54.000
G1 X132.000 Y54.000
G1 X131.000 Y54.000
G1 X130.000 Y54.000
G1 X129.000 Y54.000
G1 X128.000 Y54.000
G1 X127.000 Y54.000
G1 X126.000 Y54.000
G1 X125.000 Y54.000
G1 X124.000 Y54.000
G1 X123.000 Y54.000
G1 X122.000 Y54.000
G1 X121.000 Y54.000
G1 X120.000 Y54.000
G1 X119.000 Y54.000
G1 X118.000 Y54.000
G1 X117.000 Y54.000
G1 X116.000 Y54.000
G1 X115.000 Y54.000
G1 X114.000 Y54.000
G1 X113.000 Y54.000
G1 X112.000 Y54.000
G1 X111.000 Y54.000
G1 X110.000 Y54.000
G1 X109.000 Y54.000
G1 X108.000 Y54.000
G1 X107.000 Y54.000
G1 X106.000 Y54.000
G1 X105.000 Y54.000
G1 X104.000 Y54.000
G1 X103.000 Y54.000
G1 X102.000 Y54.000
G1 X101.000 Y54.000
G1 X100.000 Y54.000
G1 X99.000 Y54.000
G1 X98.000 Y54.000
G1 X97.000 Y54.000
G1 X96.000 Y54.000
G1 X95.000 Y54.000
G1 X94.000 Y54.000
G1 X93.000 Y54.000
G1 X92.000 Y54.000
G1 X91.000 Y54.000
G1 X90.000 Y54.000
G1 X89.000 Y54.000
G1 X88.000 Y54.000
G1 X87.000 Y54.000
G1 X86.000 Y54.000
G1 X85.000 Y54.000
G1 X84.000 Y54.000
G1 X83.000 Y54.000
G1 X82.000 Y54.000
G1 X81.000 Y54.000
G1 X80.000 Y54.000
G1 X79.000 Y54.000
G1 X78.000 Y54.000
G1 X77.000 Y54.000
G1 X76.000 Y54.000
G1 X75.000 Y54.000
G1 X74.000 Y54.000
G1 X73.000 Y54.000
G1 X72.000 Y54.000
G1 X71.000 Y54.000
G1 X70.000 Y54.000
G1 X69.000 Y54.000
G1 X68.000 Y54.000
G1 X67.000 Y54.000
G1 X66.000 Y54.000
G1 X65.000 Y54.000
G1 X64.000 Y54.000
G1 X63.000 Y54.000
G0 Z4.600 F3000
M400
M204 P12000 T12000
G1 F12000
G0 X62.000 Y55.000 Z4.600
M400
M204 P200 T200
G1 F400
G1 Z0.000 F2500
G1 X63.000 Y55.000
G1 X64.000 Y55.000
G1 X65.000 Y55.000
G1 X66.000 Y55.000
G1 X67.000 Y55.000
G1 X68.000 Y55.000
G1 X69.000 Y55.000
G1 X70.000 Y55.000
G0 Z4.600 F3000

; --- CIKEL NAMAKANJA ---
G0 Z4.600 F3000
M400
M204 P12000 T12000
G1 F12000
G0 X6.056 Y3.484 Z31.000
G1 Z0.000 F3000
G1 X6.056 Y3.484 F2500
G1 X6.056 Y5.984 F2500
G1 X1.056 Y3.484 F2500
G1 X6.056 Y-4.016 F2500
G0 Z16.000 F3000
G0 X11.858 Y9.186
G0 Z31.000 F3000
G0 X71.000 Y55.000 Z4.600
M400
M204 P200 T200
G1 F400
G1 Z0.000 F2500
G1 X71.000 Y55.000
G1 X72.000 Y55.000
G1 X73.000 Y55.000
G1 X74.000 Y55.000
G1 X75.000 Y55.000
G1 X76.000 Y55.000
G1 X77.000 Y55.000
G1 X78.000 Y55.000
G1 X79.000 Y55.000
G1 X80.000 Y55.000
G1 X81.000 Y55.000
G1 X82.000 Y55.000
G1 X83.000 Y55.000
G1 X84.000 Y55.000
G1 X85.000 Y55.000
G1 X86.000 Y55.000
G1 X87.000 Y55.000
G1 X88.000 Y55.000
G1 X89.000 Y55.000
G1 X90.000 Y55.000
G1 X91.000 Y55.000
G1 X92.000 Y55.000
G1 X93.000 Y55.000
G1 X94.000 Y55.000
G1 X95.000 Y55.000
G1 X96.000 Y55.000
G1 X97.000 Y55.000
G1 X98.000 Y55.000
G1 X99.000 Y55.000
G1 X100.000 Y55.000
G1 X101.000 Y55.000
G1 X102.000 Y55.000
G1 X103.000 Y55.000
G1 X104.000 Y55.000
G1 X105.000 Y55.000
G1 X106.000 Y55.000
G1 X107.000 Y55.000
G1 X108.000 Y55.000
G1 X109.000 Y55.000
G1 X110.000 Y55.000
G1 X111.000 Y55.000
G1 X112.000 Y55.000
G1 X113.000 Y55.000
G1 X114.000 Y55.000
G1 X115.000 Y55.000
G1 X116.000 Y55.000
G1 X117.000 Y55.000
G1 X118.000 Y55.000
G1 X119.000 Y55.000
G1 X120.000 Y55.000
G1 X121.000 Y55.000
G1 X122.000 Y55.000
G1 X123.000 Y55.000
G1 X124.000 Y55.000
G1 X125.000 Y55.000
G1 X126.000 Y55.000
G1 X127.000 Y55.000
G1 X128.000 Y55.000
G1 X129.000 Y55.000
G1 X130.000 Y55.000
G1 X131.000 Y55.000
G1 X132.000 Y55.000
G1 X133.000 Y55.000
G1 X134.000 Y55.000
G1 X135.000 Y55.000
G1 X136.000 Y55.000
G1 X137.000 Y55.000
G1 X138.000 Y55.000
G1 X139.000 Y55.000
G1 X140.000 Y55.000
G1 X141.000 Y55.000
G1 X142.000 Y55.000
G1 X143.000 Y55.000
G1 X144.000 Y55.000
G1 X145.000 Y55.000
G1 X146.000 Y55.000
G1 X147.000 Y55.000
G1 X148.000 Y55.000
G1 X149.000 Y55.000
G1 X150.000 Y55.000
G1 X151.000 Y55.000
G1 X152.000 Y55.000
G1 X153.000 Y55.000
G1 X154.000 Y55.000
G1 X155.000 Y55.000
G1 X156.000 Y55.000
G1 X157.000 Y55.000
G1 X158.000 Y55.000
G1 X159.000 Y55.000
G1 X160.000 Y55.000
G1 X161.000 Y55.000
G1 X162.000 Y55.000
G1 X163.000 Y55.000
G1 X164.000 Y55.000
G1 X165.000 Y55.000
G1 X166.000 Y55.000
G1 X167.000 Y55.000
G1 X168.000 Y55.000
G1 X169.000 Y55.000
G1 X170.000 Y55.000
G1 X171.000 Y55.000
G1 X172.000 Y55.000
G1 X173.000 Y55.000
G1 X174.000 Y55.000
G1 X175.000 Y55.000
G1 X176.000 Y55.000
G1 X177.000 Y55.000
G1 X178.000 Y55.000
G1 X179.000 Y55.000
G1 X180.000 Y55.000
G1 X181.000 Y55.000
G1 X182.000 Y55.000
G1 X183.000 Y55.000
G1 X184.000 Y55.000
G1 X185.000 Y55.000
G1 X186.000 Y55.000
G1 X187.000 Y55.000
G1 X188.000 Y55.000
G1 X189.000 Y55.000
G1 X190.000 Y55.000
G1 X191.000 Y55.000
G1 X192.000 Y55.000
G1 X193.000 Y55.000
G1 X194.000 Y55.000
G1 X195.000 Y55.000
G1 X196.000 Y55.000
G1 X197.000 Y55.000
G0 Z4.600 F3000
M400
M204 P12000 T12000
G1 F12000
G0 X198.000 Y56.000 Z4.600
M400
M204 P200 T200
G1 F400
G1 Z0.000 F2500
G1 X197.000 Y56.000
G1 X196.000 Y56.000
G1 X195.000 Y56.000
G1 X194.000 Y56.000
G1 X193.000 Y56.000
G1 X192.000 Y56.000
G1 X191.000 Y56.000
G1 X190.000 Y56.000
G1 X189.000 Y56.000
G1 X188.000 Y56.000
G1 X187.000 Y56.000
G1 X186.000 Y56.000
G1 X185.000 Y56.000
G1 X184.000 Y56.000
G1 X183.000 Y56.000
G1 X182.000 Y56.000
G1 X181.000 Y56.000
G1 X180.000 Y56.000
G1 X179.000 Y56.000
G1 X178.000 Y56.000
G1 X177.000 Y56.000
G1 X176.000 Y56.000
G1 X175.000 Y56.000
G1 X174.000 Y56.000
G1 X173.000 Y56.000
G1 X172.000 Y56.000
G1 X171.000 Y56.000
G1 X170.000 Y56.000
G1 X169.000 Y56.000
G1 X168.000 Y56.000
G1 X167.000 Y56.000
G1 X166.000 Y56.000
G1 X165.000 Y56.000
G1 X164.000 Y56.000
G1 X163.000 Y56.000
G1 X162.000 Y56.000
G1 X161.000 Y56.000
G1 X160.000 Y56.000
G1 X159.000 Y56.000
G1 X158.000 Y56.000
G1 X157.000 Y56.000
G1 X156.000 Y56.000
G1 X155.000 Y56.000
G1 X154.000 Y56.000
G1 X153.000 Y56.000
G1 X152.000 Y56.000
G1 X151.000 Y56.000
G1 X150.000 Y56.000
G1 X149.000 Y56.000
G1 X148.000 Y56.000
G1 X147.000 Y56.000
G1 X146.000 Y56.000
G1 X145.000 Y56.000
G1 X144.000 Y56.000
G1 X143.000 Y56.000
G1 X142.000 Y56.000
G1 X141.000 Y56.000
G1 X140.000 Y56.000
G1 X139.000 Y56.000
G1 X138.000 Y56.000
G1 X137.000 Y56.000
G1 X136.000 Y56.000
G1 X135.000 Y56.000
G1 X134.000 Y56.000
G1 X133.000 Y56.000
G1 X132.000 Y56.000
G1 X131.000 Y56.000
G1 X130.000 Y56.000
G1 X129.000 Y56.000
G1 X128.000 Y56.000
G1 X127.000 Y56.000
G1 X126.000 Y56.000
G1 X125.000 Y56.000
G1 X124.000 Y56.000
G1 X123.000 Y56.000
G1 X122.000 Y56.000
G1 X121.000 Y56.000
G1 X120.000 Y56.000
G1 X119.000 Y56.000
G1 X118.000 Y56.000
G1 X117.000 Y56.000
G1 X116.000 Y56.000
G1 X115.000 Y56.000
G1 X114.000 Y56.000
G1 X113.000 Y56.000
G1 X112.000 Y56.000
G1 X111.000 Y56.000
G1 X110.000 Y56.000
G1 X109.000 Y56.000
G1 X108.000 Y56.000
G1 X107.000 Y56.000
G1 X106.000 Y56.000
G1 X105.000 Y56.000
G1 X104.000 Y56.000
G1 X103.000 Y56.000
G1 X102.000 Y56.000
G1 X101.000 Y56.000
G1 X100.000 Y56.000
G1 X99.000 Y56.000
G1 X98.000 Y56.000
G1 X97.000 Y56.000
G1 X96.000 Y56.000
G1 X95.000 Y56.000
G1 X94.000 Y56.000
G1 X93.000 Y56.000
G1 X92.000 Y56.000
G1 X91.000 Y56.000
G1 X90.000 Y56.000
G1 X89.000 Y56.000
G1 X88.000 Y56.000
G1 X87.000 Y56.000
G1 X86.000 Y56.000
G1 X85.000 Y56.000
G1 X84.000 Y56.000
G1 X83.000 Y56.000
G1 X82.000 Y56.000
G1 X81.000 Y56.000
G1 X80.000 Y56.000
G1 X79.000 Y56.000
G1 X78.000 Y56.000
G1 X77.000 Y56.000
G1 X76.000 Y56.000
G1 X75.000 Y56.000
G1 X74.000 Y56.000
G1 X73.000 Y56.000
G1 X72.000 Y56.000
G1 X71.000 Y56.000
G1 X70.000 Y56.000
G1 X69.000 Y56.000
G1 X68.000 Y56.000
G1 X67.000 Y56.000
G1 X66.000 Y56.000
G1 X65.000 Y56.000
G1 X64.000 Y56.000
G1 X63.000 Y56.000
G0 Z4.600 F3000

; --- CIKEL NAMAKANJA ---
G0 Z4.600 F3000
M400
M204 P12000 T12000
G1 F12000
G0 X9.926 Y-2.133 Z31.000
G1 Z0.000 F3000
G1 X9.926 Y-2.133 F2500
G1 X9.926 Y0.367 F2500
G1 X4.926 Y-2.133 F2500
G1 X9.926 Y-9.633 F2500
G0 Z16.000 F3000
G0 X11.132 Y10.054
G0 Z31.000 F3000
G0 X62.000 Y56.000 Z4.600
M400
M204 P200 T200
G1 F400
G1 Z0.000 F2500
G1 X62.000 Y56.000
G1 X61.000 Y56.000
G0 Z4.600 F3000
M400
M204 P12000 T12000
G1 F12000
G0 X59.000 Y57.000 Z4.600
M400
M204 P200 T200
G1 F400
G1 Z0.000 F2500
G1 X60.000 Y57.000
G1 X61.000 Y57.000
G1 X62.000 Y57.000
G1 X63.000 Y57.000
G1 X64.000 Y57.000
G1 X65.000 Y57.000
G1 X66.000 Y57.000
G1 X67.000 Y57.000
G1 X68.000 Y57.000
G1 X69.000 Y57.000
G1 X70.000 Y57.000
G1 X71.000 Y57.000
G1 X72.000 Y57.000
G1 X73.000 Y57.000
G1 X74.000 Y57.000
G1 X75.000 Y57.000
G1 X76.000 Y57.000
G1 X77.000 Y57.000
G1 X78.000 Y57.000
G1 X79.000 Y57.000
G1 X80.000 Y57.000
G1 X81.000 Y57.000
G1 X82.000 Y57.000
G1 X83.000 Y57.000
G1 X84.000 Y57.000
G1 X85.000 Y57.000
G1 X86.000 Y57.000
G1 X87.000 Y57.000
G1 X88.000 Y57.000
G1 X89.000 Y57.000
G1 X90.000 Y57.000
G1 X91.000 Y57.000
G1 X92.000 Y57.000
G1 X93.000 Y57.000
G1 X94.000 Y57.000
G1 X95.000 Y57.000
G1 X96.000 Y57.000
G1 X97.000 Y57.000
G1 X98.000 Y57.000
G1 X99.000 Y57.000
G1 X100.000 Y57.000
G1 X101.000 Y57.000
G1 X102.000 Y57.000
G1 X103.000 Y57.000
G1 X104.000 Y57.000
G1 X105.000 Y57.000
G1 X106.000 Y57.000
G1 X107.000 Y57.000
G1 X108.000 Y57.000
G1 X109.000 Y57.000
G1 X110.000 Y57.000
G1 X111.000 Y57.000
G1 X112.000 Y57.000
G1 X113.000 Y57.000
G1 X114.000 Y57.000
G1 X115.000 Y57.000
G1 X116.000 Y57.000
G1 X117.000 Y57.000
G1 X118.000 Y57.000
G1 X119.000 Y57.000
G1 X120.000 Y57.000
G1 X121.000 Y57.000
G1 X122.000 Y57.000
G1 X123.000 Y57.000
G1 X124.000 Y57.000
G1 X125.000 Y57.000
G1 X126.000 Y57.000
G1 X127.000 Y57.000
G1 X128.000 Y57.000
G1 X129.000 Y57.000
G1 X130.000 Y57.000
G1 X131.000 Y57.000
G1 X132.000 Y57.000
G1 X133.000 Y57.000
G1 X134.000 Y57.000
G1 X135.000 Y57.000
G1 X136.000 Y57.000
G1 X137.000 Y57.000
G1 X138.000 Y57.000
G1 X139.000 Y57.000
G1 X140.000 Y57.000
G1 X141.000 Y57.000
G1 X142.000 Y57.000
G1 X143.000 Y57.000
G1 X144.000 Y57.000
G1 X145.000 Y57.000
G1 X146.000 Y57.000
G1 X147.000 Y57.000
G1 X148.000 Y57.000
G1 X149.000 Y57.000
G1 X150.000 Y57.000
G1 X151.000 Y57.000
G1 X152.000 Y57.000
G1 X153.000 Y57.000
G1 X154.000 Y57.000
G1 X155.000 Y57.000
G1 X156.000 Y57.000
G1 X157.000 Y57.000
G1 X158.000 Y57.000
G1 X159.000 Y57.000
G1 X160.000 Y57.000
G1 X161.000 Y57.000
G1 X162.000 Y57.000
G1 X163.000 Y57.000
G1 X164.000 Y57.000
G1 X165.000 Y57.000
G1 X166.000 Y57.000
G1 X167.000 Y57.000
G1 X168.000 Y57.000
G1 X169.000 Y57.000
G1 X170.000 Y57.000
G1 X171.000 Y57.000
G1 X172.000 Y57.000
G1 X173.000 Y57.000
G1 X174.000 Y57.000
G1 X175.000 Y57.000
G1 X176.000 Y57.000
G1 X177.000 Y57.000
G1 X178.000 Y57.000
G1 X179.000 Y57.000
G1 X180.000 Y57.000
G1 X181.000 Y57.000
G1 X182.000 Y57.000
G1 X183.000 Y57.000
G1 X184.000 Y57.000
G1 X185.000 Y57.000
G1 X186.000 Y57.000
G1 X187.000 Y57.000
G1 X188.000 Y57.000
G1 X189.000 Y57.000
G1 X190.000 Y57.000
G1 X191.000 Y57.000
G1 X192.000 Y57.000
G1 X193.000 Y57.000
G1 X194.000 Y57.000
G1 X195.000 Y57.000
G1 X196.000 Y57.000
G1 X197.000 Y57.000
G1 X198.000 Y57.000
G1 X199.000 Y57.000
G1 X200.000 Y57.000
G0 Z4.600 F3000
M400
M204 P12000 T12000
G1 F12000
G0 X200.000 Y58.000 Z4.600
M400
M204 P200 T200
G1 F400
G1 Z0.000 F2500
G1 X199.000 Y58.000
G1 X198.000 Y58.000
G1 X197.000 Y58.000
G1 X196.000 Y58.000
G1 X195.000 Y58.000
G1 X194.000 Y58.000
G1 X193.000 Y58.000
G1 X192.000 Y58.000
G1 X191.000 Y58.000
G1 X190.000 Y58.000
G1 X189.000 Y58.000
G1 X188.000 Y58.000
G1 X187.000 Y58.000
G1 X186.000 Y58.000
G1 X185.000 Y58.000
G1 X184.000 Y58.000
G1 X183.000 Y58.000
G1 X182.000 Y58.000
G1 X181.000 Y58.000
G1 X180.000 Y58.000
G1 X179.000 Y58.000
G1 X178.000 Y58.000
G1 X177.000 Y58.000
G1 X176.000 Y58.000
G1 X175.000 Y58.000
G1 X174.000 Y58.000
G1 X173.000 Y58.000
G1 X172.000 Y58.000
G1 X171.000 Y58.000
G1 X170.000 Y58.000
G1 X169.000 Y58.000
G1 X168.000 Y58.000
G1 X167.000 Y58.000
G1 X166.000 Y58.000
G1 X165.000 Y58.000
G1 X164.000 Y58.000
G1 X163.000 Y58.000
G1 X162.000 Y58.000
G1 X161.000 Y58.000
G1 X160.000 Y58.000
G1 X159.000 Y58.000
G1 X158.000 Y58.000
G1 X157.000 Y58.000
G1 X156.000 Y58.000
G1 X155.000 Y58.000
G1 X154.000 Y58.000
G1 X153.000 Y58.000
G1 X152.000 Y58.000
G1 X151.000 Y58.000
G1 X150.000 Y58.000
G1 X149.000 Y58.000
G1 X148.000 Y58.000
G1 X147.000 Y58.000
G1 X146.000 Y58.000
G1 X145.000 Y58.000
G1 X144.000 Y58.000
G1 X143.000 Y58.000
G1 X142.000 Y58.000
G1 X141.000 Y58.000
G1 X140.000 Y58.000
G1 X139.000 Y58.000
G1 X138.000 Y58.000
G1 X137.000 Y58.000
G1 X136.000 Y58.000
G1 X135.000 Y58.000
G1 X134.000 Y58.000
G1 X133.000 Y58.000
G1 X132.000 Y58.000
G1 X131.000 Y58.000
G1 X130.000 Y58.000
G1 X129.000 Y58.000
G1 X128.000 Y58.000
G1 X127.000 Y58.000
G1 X126.000 Y58.000
G1 X125.000 Y58.000
G1 X124.000 Y58.000
G1 X123.000 Y58.000
G1 X122.000 Y58.000
G1 X121.000 Y58.000
G1 X120.000 Y58.000
G1 X119.000 Y58.000
G1 X118.000 Y58.000
G1 X117.000 Y58.000
G1 X116.000 Y58.000
G1 X115.000 Y58.000
G1 X114.000 Y58.000
G1 X113.000 Y58.000
G1 X112.000 Y58.000
G1 X111.000 Y58.000
G1 X110.000 Y58.000
G1 X109.000 Y58.000
G1 X108.000 Y58.000
G1 X107.000 Y58.000
G1 X106.000 Y58.000
G1 X105.000 Y58.000
G1 X104.000 Y58.000
G1 X103.000 Y58.000
G1 X102.000 Y58.000
G1 X101.000 Y58.000
G1 X100.000 Y58.000
G1 X99.000 Y58.000
G1 X98.000 Y58.000
G1 X97.000 Y58.000
G1 X96.000 Y58.000
G1 X95.000 Y58.000
G1 X94.000 Y58.000
G1 X93.000 Y58.000
G1 X92.000 Y58.000
G1 X91.000 Y58.000
G1 X90.000 Y58.000
G1 X89.000 Y58.000
G1 X88.000 Y58.000
G1 X87.000 Y58.000
G1 X86.000 Y58.000
G1 X85.000 Y58.000
G1 X84.000 Y58.000
G1 X83.000 Y58.000
G1 X82.000 Y58.000
G1 X81.000 Y58.000
G1 X80.000 Y58.000
G1 X79.000 Y58.000
G1 X78.000 Y58.000
G1 X77.000 Y58.000
G1 X76.000 Y58.000
G1 X75.000 Y58.000
G1 X74.000 Y58.000
G1 X73.000 Y58.000
G1 X72.000 Y58.000
G1 X71.000 Y58.000
G0 Z4.600 F3000

; --- CIKEL NAMAKANJA ---
G0 Z4.600 F3000
M400
M204 P12000 T12000
G1 F12000
G0 X-5.327 Y2.747 Z31.000
G1 Z0.000 F3000
G1 X-5.327 Y2.747 F2500
G1 X-5.327 Y5.247 F2500
G1 X-10.327 Y2.747 F2500
G1 X-5.327 Y-4.753 F2500
G0 Z16.000 F3000
G0 X11.550 Y9.570
G0 Z31.000 F3000
G0 X70.000 Y58.000 Z4.600
M400
M204 P200 T200
G1 F400
G1 Z0.000 F2500
G1 X70.000 Y58.000
G1 X69.000 Y58.000
G1 X68.000 Y58.000
G1 X67.000 Y58.000
G1 X66.000 Y58.000
G1 X65.000 Y58.000
G1 X64.000 Y58.000
G1 X63.000 Y58.000
G1 X62.000 Y58.000
G1 X61.000 Y58.000
G1 X60.000 Y58.000
G1 X59.000 Y58.000
G0 Z4.600 F3000
M400
M204 P12000 T12000
G1 F12000
G0 X57.000 Y60.000 Z4.600
M400
M204 P200 T200
G1 F400
G1 Z0.000 F2500
G1 X58.000 Y60.000
G1 X59.000 Y60.000
G1 X60.000 Y60.000
G1 X61.000 Y60.000
G1 X62.000 Y60.000
G1 X63.000 Y60.000
G1 X64.000 Y60.000
G1 X65.000 Y60.000
G1 X66.000 Y60.000
G1 X67.000 Y60.000
G1 X68.000 Y60.000
G1 X69.000 Y60.000
G1 X70.000 Y60.000
G1 X71.000 Y60.000
G1 X72.000 Y60.000
G1 X73.000 Y60.000
G1 X74.000 Y60.000
G1 X75.000 Y60.000
G1 X76.000 Y60.000
G1 X77.000 Y60.000
G1 X78.000 Y60.000
G1 X79.000 Y60.000
G1 X80.000 Y60.000
G1 X81.000 Y60.000
G1 X82.000 Y60.000
G1 X83.000 Y60.000
G1 X84.000 Y60.000
G1 X85.000 Y60.000
G1 X86.000 Y60.000
G1 X87.000 Y60.000
G1 X88.000 Y60.000
G1 X89.000 Y60.000
G1 X90.000 Y60.000
G1 X91.000 Y60.000
G1 X92.000 Y60.000
G1 X93.000 Y60.000
G1 X94.000 Y60.000
G1 X95.000 Y60.000
G1 X96.000 Y60.000
G1 X97.000 Y60.000
G1 X98.000 Y60.000
G1 X99.000 Y60.000
G1 X100.000 Y60.000
G1 X101.000 Y60.000
G1 X102.000 Y60.000
G1 X103.000 Y60.000
G1 X104.000 Y60.000
G1 X105.000 Y60.000
G1 X106.000 Y60.000
G1 X107.000 Y60.000
G1 X108.000 Y60.000
G1 X109.000 Y60.000
G1 X110.000 Y60.000
G1 X111.000 Y60.000
G1 X112.000 Y60.000
G1 X113.000 Y60.000
G1 X114.000 Y60.000
G1 X115.000 Y60.000
G1 X116.000 Y60.000
G1 X117.000 Y60.000
G1 X118.000 Y60.000
G1 X119.000 Y60.000
G1 X120.000 Y60.000
G1 X121.000 Y60.000
G1 X122.000 Y60.000
G1 X123.000 Y60.000
G1 X124.000 Y60.000
G1 X125.000 Y60.000
G1 X126.000 Y60.000
G1 X127.000 Y60.000
G1 X128.000 Y60.000
G1 X129.000 Y60.000
G1 X130.000 Y60.000
G1 X131.000 Y60.000
G1 X132.000 Y60.000
G1 X133.000 Y60.000
G1 X134.000 Y60.000
G1 X135.000 Y60.000
G1 X136.000 Y60.000
G1 X137.000 Y60.000
G1 X138.000 Y60.000
G1 X139.000 Y60.000
G1 X140.000 Y60.000
G1 X141.000 Y60.000
G1 X142.000 Y60.000
G1 X143.000 Y60.000
G1 X144.000 Y60.000
G1 X145.000 Y60.000
G1 X146.000 Y60.000
G1 X147.000 Y60.000
G1 X148.000 Y60.000
G1 X149.000 Y60.000
G1 X150.000 Y60.000
G1 X151.000 Y60.000
G1 X152.000 Y60.000
G1 X153.000 Y60.000
G1 X154.000 Y60.000
G1 X155.000 Y60.000
G1 X156.000 Y60.000
G1 X157.000 Y60.000
G1 X158.000 Y60.000
G1 X159.000 Y60.000
G1 X160.000 Y60.000
G1 X161.000 Y60.000
G1 X162.000 Y60.000
G1 X163.000 Y60.000
G1 X164.000 Y60.000
G1 X165.000 Y60.000
G1 X166.000 Y60.000
G1 X167.000 Y60.000
G1 X168.000 Y60.000
G1 X169.000 Y60.000
G1 X170.000 Y60.000
G1 X171.000 Y60.000
G1 X172.000 Y60.000
G1 X173.000 Y60.000
G1 X174.000 Y60.000
G1 X175.000 Y60.000
G1 X176.000 Y60.000
G1 X177.000 Y60.000
G1 X178.000 Y60.000
G1 X179.000 Y60.000
G1 X180.000 Y60.000
G1 X181.000 Y60.000
G1 X182.000 Y60.000
G1 X183.000 Y60.000
G1 X184.000 Y60.000
G1 X185.000 Y60.000
G1 X186.000 Y60.000
G1 X187.000 Y60.000
G1 X188.000 Y60.000
G1 X189.000 Y60.000
G1 X190.000 Y60.000
G1 X191.000 Y60.000
G1 X192.000 Y60.000
G1 X193.000 Y60.000
G1 X194.000 Y60.000
G1 X195.000 Y60.000
G1 X196.000 Y60.000
G1 X197.000 Y60.000
G1 X198.000 Y60.000
G1 X199.000 Y60.000
G1 X200.000 Y60.000
G1 X201.000 Y60.000
G1 X202.000 Y60.000
G0 Z4.600 F3000
M400
M204 P12000 T12000
G1 F12000
G0 X203.000 Y61.000 Z4.600
M400
M204 P200 T200
G1 F400
G1 Z0.000 F2500
G1 X202.000 Y61.000
G1 X201.000 Y61.000
G1 X200.000 Y61.000
G1 X199.000 Y61.000
G1 X198.000 Y61.000
G1 X197.000 Y61.000
G1 X196.000 Y61.000
G1 X195.000 Y61.000
G1 X194.000 Y61.000
G1 X193.000 Y61.000
G1 X192.000 Y61.000
G1 X191.000 Y61.000
G1 X190.000 Y61.000
G1 X189.000 Y61.000
G1 X188.000 Y61.000
G1 X187.000 Y61.000
G1 X186.000 Y61.000
G1 X185.000 Y61.000
G1 X184.000 Y61.000
G1 X183.000 Y61.000
G1 X182.000 Y61.000
G1 X181.000 Y61.000
G1 X180.000 Y61.000
G1 X179.000 Y61.000
G1 X178.000 Y61.000
G1 X177.000 Y61.000
G1 X176.000 Y61.000
G1 X175.000 Y61.000
G1 X174.000 Y61.000
G1 X173.000 Y61.000
G1 X172.000 Y61.000
G1 X171.000 Y61.000
G1 X170.000 Y61.000
G1 X169.000 Y61.000
G1 X168.000 Y61.000
G1 X167.000 Y61.000
G1 X166.000 Y61.000
G1 X165.000 Y61.000
G1 X164.000 Y61.000
G1 X163.000 Y61.000
G1 X162.000 Y61.000
G1 X161.000 Y61.000
G1 X160.000 Y61.000
G1 X159.000 Y61.000
G1 X158.000 Y61.000
G1 X157.000 Y61.000
G1 X156.000 Y61.000
G1 X155.000 Y61.000
G1 X154.000 Y61.000
G1 X153.000 Y61.000
G1 X152.000 Y61.000
G1 X151.000 Y61.000
G1 X150.000 Y61.000
G1 X149.000 Y61.000
G1 X148.000 Y61.000
G1 X147.000 Y61.000
G1 X146.000 Y61.000
G1 X145.000 Y61.000
G1 X144.000 Y61.000
G1 X143.000 Y61.000
G1 X142.000 Y61.000
G1 X141.000 Y61.000
G1 X140.000 Y61.000
G1 X139.000 Y61.000
G1 X138.000 Y61.000
G1 X137.000 Y61.000
G1 X136.000 Y61.000
G1 X135.000 Y61.000
G1 X134.000 Y61.000
G1 X133.000 Y61.000
G1 X132.000 Y61.000
G1 X131.000 Y61.000
G1 X130.000 Y61.000
G1 X129.000 Y61.000
G1 X128.000 Y61.000
G1 X127.000 Y61.000
G1 X126.000 Y61.000
G1 X125.000 Y61.000
G1 X124.000 Y61.000
G1 X123.000 Y61.000
G1 X122.000 Y61.000
G1 X121.000 Y61.000
G1 X120.000 Y61.000
G1 X119.000 Y61.000
G1 X118.000 Y61.000
G1 X117.000 Y61.000
G1 X116.000 Y61.000
G1 X115.000 Y61.000
G1 X114.000 Y61.000
G1 X113.000 Y61.000
G1 X112.000 Y61.000
G1 X111.000 Y61.000
G1 X110.000 Y61.000
G1 X109.000 Y61.000
G1 X108.000 Y61.000
G0 Z4.600 F3000

; --- CIKEL NAMAKANJA ---
G0 Z4.600 F3000
M400
M204 P12000 T12000
G1 F12000
G0 X-7.487 Y-16.882 Z31.000
G1 Z0.000 F3000
G1 X-7.487 Y-16.882 F2500
G1 X-7.487 Y-14.382 F2500
G1 X-12.487 Y-16.882 F2500
G1 X-7.487 Y-24.382 F2500
G0 Z16.000 F3000
G0 X13.031 Y7.429
G0 Z31.000 F3000
G0 X107.000 Y61.000 Z4.600
M400
M204 P200 T200
G1 F400
G1 Z0.000 F2500
G1 X107.000 Y61.000
G1 X106.000 Y61.000
G1 X105.000 Y61.000
G1 X104.000 Y61.000
G1 X103.000 Y61.000
G1 X102.000 Y61.000
G1 X101.000 Y61.000
G1 X100.000 Y61.000
G1 X99.000 Y61.000
G1 X98.000 Y61.000
G1 X97.000 Y61.000
G1 X96.000 Y61.000
G1 X95.000 Y61.000
G1 X94.000 Y61.000
G1 X93.000 Y61.000
G1 X92.000 Y61.000
G1 X91.000 Y61.000
G1 X90.000 Y61.000
G1 X89.000 Y61.000
G1 X88.000 Y61.000
G1 X87.000 Y61.000
G1 X86.000 Y61.000
G1 X85.000 Y61.000
G1 X84.000 Y61.000
G1 X83.000 Y61.000
G1 X82.000 Y61.000
G1 X81.000 Y61.000
G1 X80.000 Y61.000
G1 X79.000 Y61.000
G1 X78.000 Y61.000
G1 X77.000 Y61.000
G1 X76.000 Y61.000
G1 X75.000 Y61.000
G1 X74.000 Y61.000
G1 X73.000 Y61.000
G1 X72.000 Y61.000
G1 X71.000 Y61.000
G1 X70.000 Y61.000
G1 X69.000 Y61.000
G1 X68.000 Y61.000
G1 X67.000 Y61.000
G1 X66.000 Y61.000
G1 X65.000 Y61.000
G1 X64.000 Y61.000
G1 X63.000 Y61.000
G1 X62.000 Y61.000
G1 X61.000 Y61.000
G1 X60.000 Y61.000
G1 X59.000 Y61.000
G1 X58.000 Y61.000
G1 X57.000 Y61.000
G1 X56.000 Y61.000
G0 Z4.600 F3000
M400
M204 P12000 T12000
G1 F12000
G0 X55.000 Y62.000 Z4.600
M400
M204 P200 T200
G1 F400
G1 Z0.000 F2500
G1 X56.000 Y62.000
G1 X57.000 Y62.000
G1 X58.000 Y62.000
G1 X59.000 Y62.000
G1 X60.000 Y62.000
G1 X61.000 Y62.000
G1 X62.000 Y62.000
G1 X63.000 Y62.000
G1 X64.000 Y62.000
G1 X65.000 Y62.000
G1 X66.000 Y62.000
G1 X67.000 Y62.000
G1 X68.000 Y62.000
G1 X69.000 Y62.000
G1 X70.000 Y62.000
G1 X71.000 Y62.000
G1 X72.000 Y62.000
G1 X73.000 Y62.000
G1 X74.000 Y62.000
G1 X75.000 Y62.000
G1 X76.000 Y62.000
G1 X77.000 Y62.000
G1 X78.000 Y62.000
G1 X79.000 Y62.000
G1 X80.000 Y62.000
G1 X81.000 Y62.000
G1 X82.000 Y62.000
G1 X83.000 Y62.000
G1 X84.000 Y62.000
G1 X85.000 Y62.000
G1 X86.000 Y62.000
G1 X87.000 Y62.000
G1 X88.000 Y62.000
G1 X89.000 Y62.000
G1 X90.000 Y62.000
G1 X91.000 Y62.000
G1 X92.000 Y62.000
G1 X93.000 Y62.000
G1 X94.000 Y62.000
G1 X95.000 Y62.000
G1 X96.000 Y62.000
G1 X97.000 Y62.000
G1 X98.000 Y62.000
G1 X99.000 Y62.000
G1 X100.000 Y62.000
G1 X101.000 Y62.000
G1 X102.000 Y62.000
G1 X103.000 Y62.000
G1 X104.000 Y62.000
G1 X105.000 Y62.000
G1 X106.000 Y62.000
G1 X107.000 Y62.000
G1 X108.000 Y62.000
G1 X109.000 Y62.000
G1 X110.000 Y62.000
G1 X111.000 Y62.000
G1 X112.000 Y62.000
G1 X113.000 Y62.000
G1 X114.000 Y62.000
G1 X115.000 Y62.000
G1 X116.000 Y62.000
G1 X117.000 Y62.000
G1 X118.000 Y62.000
G1 X119.000 Y62.000
G1 X120.000 Y62.000
G1 X121.000 Y62.000
G1 X122.000 Y62.000
G1 X123.000 Y62.000
G1 X124.000 Y62.000
G1 X125.000 Y62.000
G1 X126.000 Y62.000
G1 X127.000 Y62.000
G1 X128.000 Y62.000
G1 X129.000 Y62.000
G1 X130.000 Y62.000
G1 X131.000 Y62.000
G1 X132.000 Y62.000
G1 X133.000 Y62.000
G1 X134.000 Y62.000
G1 X135.000 Y62.000
G1 X136.000 Y62.000
G1 X137.000 Y62.000
G1 X138.000 Y62.000
G1 X139.000 Y62.000
G1 X140.000 Y62.000
G1 X141.000 Y62.000
G1 X142.000 Y62.000
G1 X143.000 Y62.000
G1 X144.000 Y62.000
G1 X145.000 Y62.000
G1 X146.000 Y62.000
G1 X147.000 Y62.000
G1 X148.000 Y62.000
G1 X149.000 Y62.000
G1 X150.000 Y62.000
G1 X151.000 Y62.000
G1 X152.000 Y62.000
G1 X153.000 Y62.000
G1 X154.000 Y62.000
G1 X155.000 Y62.000
G1 X156.000 Y62.000
G1 X157.000 Y62.000
G1 X158.000 Y62.000
G1 X159.000 Y62.000
G1 X160.000 Y62.000
G1 X161.000 Y62.000
G1 X162.000 Y62.000
G1 X163.000 Y62.000
G1 X164.000 Y62.000
G1 X165.000 Y62.000
G1 X166.000 Y62.000
G1 X167.000 Y62.000
G1 X168.000 Y62.000
G1 X169.000 Y62.000
G1 X170.000 Y62.000
G1 X171.000 Y62.000
G1 X172.000 Y62.000
G1 X173.000 Y62.000
G1 X174.000 Y62.000
G1 X175.000 Y62.000
G1 X176.000 Y62.000
G1 X177.000 Y62.000
G1 X178.000 Y62.000
G1 X179.000 Y62.000
G1 X180.000 Y62.000
G1 X181.000 Y62.000
G1 X182.000 Y62.000
G1 X183.000 Y62.000
G1 X184.000 Y62.000
G1 X185.000 Y62.000
G1 X186.000 Y62.000
G1 X187.000 Y62.000
G1 X188.000 Y62.000
G1 X189.000 Y62.000
G1 X190.000 Y62.000
G1 X191.000 Y62.000
G1 X192.000 Y62.000
G1 X193.000 Y62.000
G1 X194.000 Y62.000
G1 X195.000 Y62.000
G1 X196.000 Y62.000
G1 X197.000 Y62.000
G1 X198.000 Y62.000
G1 X199.000 Y62.000
G1 X200.000 Y62.000
G1 X201.000 Y62.000
G1 X202.000 Y62.000
G1 X203.000 Y62.000
G1 X204.000 Y62.000
G0 Z4.600 F3000
M400
M204 P12000 T12000
G1 F12000
G0 X205.000 Y63.000 Z4.600
M400
M204 P200 T200
G1 F400
G1 Z0.000 F2500
G1 X204.000 Y63.000
G1 X203.000 Y63.000
G1 X202.000 Y63.000
G1 X201.000 Y63.000
G1 X200.000 Y63.000
G1 X199.000 Y63.000
G1 X198.000 Y63.000
G1 X197.000 Y63.000
G1 X196.000 Y63.000
G1 X195.000 Y63.000
G1 X194.000 Y63.000
G1 X193.000 Y63.000
G1 X192.000 Y63.000
G1 X191.000 Y63.000
G1 X190.000 Y63.000
G1 X189.000 Y63.000
G1 X188.000 Y63.000
G1 X187.000 Y63.000
G1 X186.000 Y63.000
G1 X185.000 Y63.000
G1 X184.000 Y63.000
G1 X183.000 Y63.000
G1 X182.000 Y63.000
G1 X181.000 Y63.000
G1 X180.000 Y63.000
G1 X179.000 Y63.000
G1 X178.000 Y63.000
G1 X177.000 Y63.000
G1 X176.000 Y63.000
G1 X175.000 Y63.000
G1 X174.000 Y63.000
G1 X173.000 Y63.000
G1 X172.000 Y63.000
G1 X171.000 Y63.000
G1 X170.000 Y63.000
G1 X169.000 Y63.000
G1 X168.000 Y63.000
G1 X167.000 Y63.000
G1 X166.000 Y63.000
G1 X165.000 Y63.000
G1 X164.000 Y63.000
G1 X163.000 Y63.000
G1 X162.000 Y63.000
G1 X161.000 Y63.000
G1 X160.000 Y63.000
G1 X159.000 Y63.000
G1 X158.000 Y63.000
G1 X157.000 Y63.000
G1 X156.000 Y63.000
G1 X155.000 Y63.000
G1 X154.000 Y63.000
G1 X153.000 Y63.000
G1 X152.000 Y63.000
G1 X151.000 Y63.000
G1 X150.000 Y63.000
G1 X149.000 Y63.000
G1 X148.000 Y63.000
G1 X147.000 Y63.000
G1 X146.000 Y63.000
G1 X145.000 Y63.000
G1 X144.000 Y63.000
G1 X143.000 Y63.000
G1 X142.000 Y63.000
G0 Z4.600 F3000

; --- CIKEL NAMAKANJA ---
G0 Z4.600 F3000
M400
M204 P12000 T12000
G1 F12000
G0 X11.493 Y-17.002 Z31.000
G1 Z0.000 F3000
G1 X11.493 Y-17.002 F2500
G1 X11.493 Y-14.502 F2500
G1 X6.493 Y-17.002 F2500
G1 X11.493 Y-24.502 F2500
G0 Z16.000 F3000
G0 X13.695 Y6.119
G0 Z31.000 F3000
G0 X141.000 Y63.000 Z4.600
M400
M204 P200 T200
G1 F400
G1 Z0.000 F2500
G1 X141.000 Y63.000
G1 X140.000 Y63.000
G1 X139.000 Y63.000
G1 X138.000 Y63.000
G1 X137.000 Y63.000
G1 X136.000 Y63.000
G1 X135.000 Y63.000
G1 X134.000 Y63.000
G1 X133.000 Y63.000
G1 X132.000 Y63.000
G1 X131.000 Y63.000
G1 X130.000 Y63.000
G1 X129.000 Y63.000
G1 X128.000 Y63.000
G1 X127.000 Y63.000
G1 X126.000 Y63.000
G1 X125.000 Y63.000
G1 X124.000 Y63.000
G1 X123.000 Y63.000
G1 X122.000 Y63.000
G1 X121.000 Y63.000
G1 X120.000 Y63.000
G1 X119.000 Y63.000
G1 X118.000 Y63.000
G1 X117.000 Y63.000
G1 X116.000 Y63.000
G1 X115.000 Y63.000
G1 X114.000 Y63.000
G1 X113.000 Y63.000
G1 X112.000 Y63.000
G1 X111.000 Y63.000
G1 X110.000 Y63.000
G1 X109.000 Y63.000
G1 X108.000 Y63.000
G1 X107.000 Y63.000
G1 X106.000 Y63.000
G1 X105.000 Y63.000
G1 X104.000 Y63.000
G1 X103.000 Y63.000
G1 X102.000 Y63.000
G1 X101.000 Y63.000
G1 X100.000 Y63.000
G1 X99.000 Y63.000
G1 X98.000 Y63.000
G1 X97.000 Y63.000
G1 X96.000 Y63.000
G1 X95.000 Y63.000
G1 X94.000 Y63.000
G1 X93.000 Y63.000
G1 X92.000 Y63.000
G1 X91.000 Y63.000
G1 X90.000 Y63.000
G1 X89.000 Y63.000
G1 X88.000 Y63.000
G1 X87.000 Y63.000
G1 X86.000 Y63.000
G1 X85.000 Y63.000
G1 X84.000 Y63.000
G1 X83.000 Y63.000
G1 X82.000 Y63.000
G1 X81.000 Y63.000
G1 X80.000 Y63.000
G1 X79.000 Y63.000
G1 X78.000 Y63.000
G1 X77.000 Y63.000
G1 X76.000 Y63.000
G1 X75.000 Y63.000
G1 X74.000 Y63.000
G1 X73.000 Y63.000
G1 X72.000 Y63.000
G1 X71.000 Y63.000
G1 X70.000 Y63.000
G1 X69.000 Y63.000
G1 X68.000 Y63.000
G1 X67.000 Y63.000
G1 X66.000 Y63.000
G1 X65.000 Y63.000
G1 X64.000 Y63.000
G1 X63.000 Y63.000
G1 X62.000 Y63.000
G1 X61.000 Y63.000
G1 X60.000 Y63.000
G1 X59.000 Y63.000
G1 X58.000 Y63.000
G1 X57.000 Y63.000
G1 X56.000 Y63.000
G1 X55.000 Y63.000
G1 X54.000 Y63.000
G0 Z4.600 F3000
M400
M204 P12000 T12000
G1 F12000
G0 X53.000 Y64.000 Z4.600
M400
M204 P200 T200
G1 F400
G1 Z0.000 F2500
G1 X54.000 Y64.000
G1 X55.000 Y64.000
G1 X56.000 Y64.000
G1 X57.000 Y64.000
G1 X58.000 Y64.000
G1 X59.000 Y64.000
G1 X60.000 Y64.000
G1 X61.000 Y64.000
G1 X62.000 Y64.000
G1 X63.000 Y64.000
G1 X64.000 Y64.000
G1 X65.000 Y64.000
G1 X66.000 Y64.000
G1 X67.000 Y64.000
G1 X68.000 Y64.000
G1 X69.000 Y64.000
G1 X70.000 Y64.000
G1 X71.000 Y64.000
G1 X72.000 Y64.000
G1 X73.000 Y64.000
G1 X74.000 Y64.000
G1 X75.000 Y64.000
G1 X76.000 Y64.000
G1 X77.000 Y64.000
G1 X78.000 Y64.000
G1 X79.000 Y64.000
G1 X80.000 Y64.000
G1 X81.000 Y64.000
G1 X82.000 Y64.000
G1 X83.000 Y64.000
G1 X84.000 Y64.000
G1 X85.000 Y64.000
G1 X86.000 Y64.000
G1 X87.000 Y64.000
G1 X88.000 Y64.000
G1 X89.000 Y64.000
G1 X90.000 Y64.000
G1 X91.000 Y64.000
G1 X92.000 Y64.000
G1 X93.000 Y64.000
G1 X94.000 Y64.000
G1 X95.000 Y64.000
G1 X96.000 Y64.000
G1 X97.000 Y64.000
G1 X98.000 Y64.000
G1 X99.000 Y64.000
G1 X100.000 Y64.000
G1 X101.000 Y64.000
G1 X102.000 Y64.000
G1 X103.000 Y64.000
G1 X104.000 Y64.000
G1 X105.000 Y64.000
G1 X106.000 Y64.000
G1 X107.000 Y64.000
G1 X108.000 Y64.000
G1 X109.000 Y64.000
G1 X110.000 Y64.000
G1 X111.000 Y64.000
G1 X112.000 Y64.000
G1 X113.000 Y64.000
G1 X114.000 Y64.000
G1 X115.000 Y64.000
G1 X116.000 Y64.000
G1 X117.000 Y64.000
G1 X118.000 Y64.000
G1 X119.000 Y64.000
G1 X120.000 Y64.000
G1 X121.000 Y64.000
G1 X122.000 Y64.000
G1 X123.000 Y64.000
G1 X124.000 Y64.000
G1 X125.000 Y64.000
G1 X126.000 Y64.000
G1 X127.000 Y64.000
G1 X128.000 Y64.000
G1 X129.000 Y64.000
G1 X130.000 Y64.000
G1 X131.000 Y64.000
G1 X132.000 Y64.000
G1 X133.000 Y64.000
G1 X134.000 Y64.000
G1 X135.000 Y64.000
G1 X136.000 Y64.000
G1 X137.000 Y64.000
G1 X138.000 Y64.000
G1 X139.000 Y64.000
G1 X140.000 Y64.000
G1 X141.000 Y64.000
G1 X142.000 Y64.000
G1 X143.000 Y64.000
G1 X144.000 Y64.000
G1 X145.000 Y64.000
G1 X146.000 Y64.000
G1 X147.000 Y64.000
G1 X148.000 Y64.000
G1 X149.000 Y64.000
G1 X150.000 Y64.000
G1 X151.000 Y64.000
G1 X152.000 Y64.000
G1 X153.000 Y64.000
G1 X154.000 Y64.000
G1 X155.000 Y64.000
G1 X156.000 Y64.000
G1 X157.000 Y64.000
G1 X158.000 Y64.000
G1 X159.000 Y64.000
G1 X160.000 Y64.000
G1 X161.000 Y64.000
G1 X162.000 Y64.000
G1 X163.000 Y64.000
G1 X164.000 Y64.000
G1 X165.000 Y64.000
G1 X166.000 Y64.000
G1 X167.000 Y64.000
G1 X168.000 Y64.000
G1 X169.000 Y64.000
G1 X170.000 Y64.000
G1 X171.000 Y64.000
G1 X172.000 Y64.000
G1 X173.000 Y64.000
G1 X174.000 Y64.000
G1 X175.000 Y64.000
G1 X176.000 Y64.000
G1 X177.000 Y64.000
G1 X178.000 Y64.000
G1 X179.000 Y64.000
G1 X180.000 Y64.000
G1 X181.000 Y64.000
G1 X182.000 Y64.000
G1 X183.000 Y64.000
G1 X184.000 Y64.000
G1 X185.000 Y64.000
G1 X186.000 Y64.000
G1 X187.000 Y64.000
G1 X188.000 Y64.000
G1 X189.000 Y64.000
G1 X190.000 Y64.000
G1 X191.000 Y64.000
G1 X192.000 Y64.000
G1 X193.000 Y64.000
G1 X194.000 Y64.000
G1 X195.000 Y64.000
G1 X196.000 Y64.000
G1 X197.000 Y64.000
G1 X198.000 Y64.000
G1 X199.000 Y64.000
G1 X200.000 Y64.000
G1 X201.000 Y64.000
G1 X202.000 Y64.000
G1 X203.000 Y64.000
G1 X204.000 Y64.000
G1 X205.000 Y64.000
G1 X206.000 Y64.000
G0 Z4.600 F3000
M400
M204 P12000 T12000
G1 F12000
G0 X207.000 Y65.000 Z4.600
M400
M204 P200 T200
G1 F400
G1 Z0.000 F2500
G1 X206.000 Y65.000
G1 X205.000 Y65.000
G1 X204.000 Y65.000
G1 X203.000 Y65.000
G1 X202.000 Y65.000
G1 X201.000 Y65.000
G1 X200.000 Y65.000
G1 X199.000 Y65.000
G1 X198.000 Y65.000
G1 X197.000 Y65.000
G1 X196.000 Y65.000
G1 X195.000 Y65.000
G1 X194.000 Y65.000
G1 X193.000 Y65.000
G1 X192.000 Y65.000
G1 X191.000 Y65.000
G0 Z4.600 F3000

; --- CIKEL NAMAKANJA ---
G0 Z4.600 F3000
M400
M204 P12000 T12000
G1 F12000
G0 X16.957 Y0.055 Z31.000
G1 Z0.000 F3000
G1 X16.957 Y0.055 F2500
G1 X16.957 Y2.555 F2500
G1 X11.957 Y0.055 F2500
G1 X16.957 Y-7.445 F2500
G0 Z16.000 F3000
G0 X14.192 Y4.855
G0 Z31.000 F3000
G0 X190.000 Y65.000 Z4.600
M400
M204 P200 T200
G1 F400
G1 Z0.000 F2500
G1 X190.000 Y65.000
G1 X189.000 Y65.000
G1 X188.000 Y65.000
G1 X187.000 Y65.000
G1 X186.000 Y65.000
G1 X185.000 Y65.000
G1 X184.000 Y65.000
G1 X183.000 Y65.000
G1 X182.000 Y65.000
G1 X181.000 Y65.000
G1 X180.000 Y65.000
G1 X179.000 Y65.000
G1 X178.000 Y65.000
G1 X177.000 Y65.000
G1 X176.000 Y65.000
G1 X175.000 Y65.000
G1 X174.000 Y65.000
G1 X173.000 Y65.000
G1 X172.000 Y65.000
G1 X171.000 Y65.000
G1 X170.000 Y65.000
G1 X169.000 Y65.000
G1 X168.000 Y65.000
G1 X167.000 Y65.000
G1 X166.000 Y65.000
G1 X165.000 Y65.000
G1 X164.000 Y65.000
G1 X163.000 Y65.000
G1 X162.000 Y65.000
G1 X161.000 Y65.000
G1 X160.000 Y65.000
G1 X159.000 Y65.000
G1 X158.000 Y65.000
G1 X157.000 Y65.000
G1 X156.000 Y65.000
G1 X155.000 Y65.000
G1 X154.000 Y65.000
G1 X153.000 Y65.000
G1 X152.000 Y65.000
G1 X151.000 Y65.000
G1 X150.000 Y65.000
G1 X149.000 Y65.000
G1 X148.000 Y65.000
G1 X147.000 Y65.000
G1 X146.000 Y65.000
G1 X145.000 Y65.000
G1 X144.000 Y65.000
G1 X143.000 Y65.000
G1 X142.000 Y65.000
G1 X141.000 Y65.000
G1 X140.000 Y65.000
G1 X139.000 Y65.000
G1 X138.000 Y65.000
G1 X137.000 Y65.000
G1 X136.000 Y65.000
G1 X135.000 Y65.000
G1 X134.000 Y65.000
G1 X133.000 Y65.000
G1 X132.000 Y65.000
G1 X131.000 Y65.000
G1 X130.000 Y65.000
G1 X129.000 Y65.000
G1 X128.000 Y65.000
G1 X127.000 Y65.000
G1 X126.000 Y65.000
G1 X125.000 Y65.000
G1 X124.000 Y65.000
G1 X123.000 Y65.000
G1 X122.000 Y65.000
G1 X121.000 Y65.000
G1 X120.000 Y65.000
G1 X119.000 Y65.000
G1 X118.000 Y65.000
G1 X117.000 Y65.000
G1 X116.000 Y65.000
G1 X115.000 Y65.000
G1 X114.000 Y65.000
G1 X113.000 Y65.000
G1 X112.000 Y65.000
G1 X111.000 Y65.000
G1 X110.000 Y65.000
G1 X109.000 Y65.000
G1 X108.000 Y65.000
G1 X107.000 Y65.000
G1 X106.000 Y65.000
G1 X105.000 Y65.000
G1 X104.000 Y65.000
G1 X103.000 Y65.000
G1 X102.000 Y65.000
G1 X101.000 Y65.000
G1 X100.000 Y65.000
G1 X99.000 Y65.000
G1 X98.000 Y65.000
G1 X97.000 Y65.000
G1 X96.000 Y65.000
G1 X95.000 Y65.000
G1 X94.000 Y65.000
G1 X93.000 Y65.000
G1 X92.000 Y65.000
G1 X91.000 Y65.000
G1 X90.000 Y65.000
G1 X89.000 Y65.000
G1 X88.000 Y65.000
G1 X87.000 Y65.000
G1 X86.000 Y65.000
G1 X85.000 Y65.000
G1 X84.000 Y65.000
G1 X83.000 Y65.000
G1 X82.000 Y65.000
G1 X81.000 Y65.000
G1 X80.000 Y65.000
G1 X79.000 Y65.000
G1 X78.000 Y65.000
G1 X77.000 Y65.000
G1 X76.000 Y65.000
G1 X75.000 Y65.000
G1 X74.000 Y65.000
G1 X73.000 Y65.000
G1 X72.000 Y65.000
G1 X71.000 Y65.000
G1 X70.000 Y65.000
G1 X69.000 Y65.000
G1 X68.000 Y65.000
G1 X67.000 Y65.000
G1 X66.000 Y65.000
G1 X65.000 Y65.000
G1 X64.000 Y65.000
G1 X63.000 Y65.000
G1 X62.000 Y65.000
G1 X61.000 Y65.000
G1 X60.000 Y65.000
G1 X59.000 Y65.000
G1 X58.000 Y65.000
G1 X57.000 Y65.000
G1 X56.000 Y65.000
G1 X55.000 Y65.000
G1 X54.000 Y65.000
G1 X53.000 Y65.000
G1 X52.000 Y65.000
G0 Z4.600 F3000
M400
M204 P12000 T12000
G1 F12000
G0 X51.000 Y66.000 Z4.600
M400
M204 P200 T200
G1 F400
G1 Z0.000 F2500
G1 X52.000 Y66.000
G1 X53.000 Y66.000
G1 X54.000 Y66.000
G1 X55.000 Y66.000
G1 X56.000 Y66.000
G1 X57.000 Y66.000
G1 X58.000 Y66.000
G1 X59.000 Y66.000
G1 X60.000 Y66.000
G1 X61.000 Y66.000
G1 X62.000 Y66.000
G1 X63.000 Y66.000
G1 X64.000 Y66.000
G1 X65.000 Y66.000
G1 X66.000 Y66.000
G1 X67.000 Y66.000
G1 X68.000 Y66.000
G1 X69.000 Y66.000
G1 X70.000 Y66.000
G1 X71.000 Y66.000
G1 X72.000 Y66.000
G1 X73.000 Y66.000
G1 X74.000 Y66.000
G1 X75.000 Y66.000
G1 X76.000 Y66.000
G1 X77.000 Y66.000
G1 X78.000 Y66.000
G1 X79.000 Y66.000
G1 X80.000 Y66.000
G1 X81.000 Y66.000
G1 X82.000 Y66.000
G1 X83.000 Y66.000
G1 X84.000 Y66.000
G1 X85.000 Y66.000
G1 X86.000 Y66.000
G1 X87.000 Y66.000
G1 X88.000 Y66.000
G1 X89.000 Y66.000
G1 X90.000 Y66.000
G1 X91.000 Y66.000
G1 X92.000 Y66.000
G1 X93.000 Y66.000
G1 X94.000 Y66.000
G1 X95.000 Y66.000
G1 X96.000 Y66.000
G1 X97.000 Y66.000
G1 X98.000 Y66.000
G1 X99.000 Y66.000
G1 X100.000 Y66.000
G1 X101.000 Y66.000
G1 X102.000 Y66.000
G1 X103.000 Y66.000
G1 X104.000 Y66.000
G1 X105.000 Y66.000
G1 X106.000 Y66.000
G1 X107.000 Y66.000
G1 X108.000 Y66.000
G1 X109.000 Y66.000
G1 X110.000 Y66.000
G1 X111.000 Y66.000
G1 X112.000 Y66.000
G1 X113.000 Y66.000
G1 X114.000 Y66.000
G1 X115.000 Y66.000
G1 X116.000 Y66.000
G1 X117.000 Y66.000
G1 X118.000 Y66.000
G1 X119.000 Y66.000
G1 X120.000 Y66.000
G1 X121.000 Y66.000
G1 X122.000 Y66.000
G1 X123.000 Y66.000
G1 X124.000 Y66.000
G1 X125.000 Y66.000
G1 X126.000 Y66.000
G1 X127.000 Y66.000
G1 X128.000 Y66.000
G1 X129.000 Y66.000
G1 X130.000 Y66.000
G1 X131.000 Y66.000
G1 X132.000 Y66.000
G1 X133.000 Y66.000
G1 X134.000 Y66.000
G1 X135.000 Y66.000
G1 X136.000 Y66.000
G1 X137.000 Y66.000
G1 X138.000 Y66.000
G1 X139.000 Y66.000
G1 X140.000 Y66.000
G1 X141.000 Y66.000
G1 X142.000 Y66.000
G1 X143.000 Y66.000
G1 X144.000 Y66.000
G1 X145.000 Y66.000
G1 X146.000 Y66.000
G1 X147.000 Y66.000
G1 X148.000 Y66.000
G1 X149.000 Y66.000
G1 X150.000 Y66.000
G1 X151.000 Y66.000
G1 X152.000 Y66.000
G1 X153.000 Y66.000
G1 X154.000 Y66.000
G1 X155.000 Y66.000
G1 X156.000 Y66.000
G1 X157.000 Y66.000
G1 X158.000 Y66.000
G1 X159.000 Y66.000
G1 X160.000 Y66.000
G1 X161.000 Y66.000
G1 X162.000 Y66.000
G1 X163.000 Y66.000
G1 X164.000 Y66.000
G1 X165.000 Y66.000
G1 X166.000 Y66.000
G1 X167.000 Y66.000
G1 X168.000 Y66.000
G1 X169.000 Y66.000
G1 X170.000 Y66.000
G1 X171.000 Y66.000
G1 X172.000 Y66.000
G1 X173.000 Y66.000
G1 X174.000 Y66.000
G1 X175.000 Y66.000
G1 X176.000 Y66.000
G1 X177.000 Y66.000
G1 X178.000 Y66.000
G1 X179.000 Y66.000
G1 X180.000 Y66.000
G1 X181.000 Y66.000
G0 Z4.600 F3000

; --- CIKEL NAMAKANJA ---
G0 Z4.600 F3000
M400
M204 P12000 T12000
G1 F12000
G0 X3.092 Y16.789 Z31.000
G1 Z0.000 F3000
G1 X3.092 Y16.789 F2500
G1 X3.092 Y19.289 F2500
G1 X-1.908 Y16.789 F2500
G1 X3.092 Y9.289 F2500
G0 Z16.000 F3000
G0 X14.101 Y5.114
G0 Z31.000 F3000
G0 X182.000 Y66.000 Z4.600
M400
M204 P200 T200
G1 F400
G1 Z0.000 F2500
G1 X182.000 Y66.000
G1 X183.000 Y66.000
G1 X184.000 Y66.000
G1 X185.000 Y66.000
G1 X186.000 Y66.000
G1 X187.000 Y66.000
G1 X188.000 Y66.000
G1 X189.000 Y66.000
G1 X190.000 Y66.000
G1 X191.000 Y66.000
G1 X192.000 Y66.000
G1 X193.000 Y66.000
G1 X194.000 Y66.000
G1 X195.000 Y66.000
G1 X196.000 Y66.000
G1 X197.000 Y66.000
G1 X198.000 Y66.000
G1 X199.000 Y66.000
G1 X200.000 Y66.000
G1 X201.000 Y66.000
G1 X202.000 Y66.000
G1 X203.000 Y66.000
G1 X204.000 Y66.000
G1 X205.000 Y66.000
G1 X206.000 Y66.000
G1 X207.000 Y66.000
G1 X208.000 Y66.000
G0 Z4.600 F3000
M400
M204 P12000 T12000
G1 F12000
G0 X209.000 Y67.000 Z4.600
M400
M204 P200 T200
G1 F400
G1 Z0.000 F2500
G1 X208.000 Y67.000
G1 X207.000 Y67.000
G1 X206.000 Y67.000
G1 X205.000 Y67.000
G1 X204.000 Y67.000
G1 X203.000 Y67.000
G1 X202.000 Y67.000
G1 X201.000 Y67.000
G1 X200.000 Y67.000
G1 X199.000 Y67.000
G1 X198.000 Y67.000
G1 X197.000 Y67.000
G1 X196.000 Y67.000
G1 X195.000 Y67.000
G1 X194.000 Y67.000
G1 X193.000 Y67.000
G1 X192.000 Y67.000
G1 X191.000 Y67.000
G1 X190.000 Y67.000
G1 X189.000 Y67.000
G1 X188.000 Y67.000
G1 X187.000 Y67.000
G1 X186.000 Y67.000
G1 X185.000 Y67.000
G1 X184.000 Y67.000
G1 X183.000 Y67.000
G1 X182.000 Y67.000
G1 X181.000 Y67.000
G1 X180.000 Y67.000
G1 X179.000 Y67.000
G1 X178.000 Y67.000
G1 X177.000 Y67.000
G1 X176.000 Y67.000
G1 X175.000 Y67.000
G1 X174.000 Y67.000
G1 X173.000 Y67.000
G1 X172.000 Y67.000
G1 X171.000 Y67.000
G1 X170.000 Y67.000
G1 X169.000 Y67.000
G1 X168.000 Y67.000
G1 X167.000 Y67.000
G1 X166.000 Y67.000
G1 X165.000 Y67.000
G1 X164.000 Y67.000
G1 X163.000 Y67.000
G1 X162.000 Y67.000
G1 X161.000 Y67.000
G1 X160.000 Y67.000
G1 X159.000 Y67.000
G1 X158.000 Y67.000
G1 X157.000 Y67.000
G1 X156.000 Y67.000
G1 X155.000 Y67.000
G1 X154.000 Y67.000
G1 X153.000 Y67.000
G1 X152.000 Y67.000
G1 X151.000 Y67.000
G1 X150.000 Y67.000
G1 X149.000 Y67.000
G1 X148.000 Y67.000
G1 X147.000 Y67.000
G1 X146.000 Y67.000
G1 X145.000 Y67.000
G1 X144.000 Y67.000
G1 X143.000 Y67.000
G1 X142.000 Y67.000
G1 X141.000 Y67.000
G1 X140.000 Y67.000
G1 X139.000 Y67.000
G1 X138.000 Y67.000
G1 X137.000 Y67.000
G1 X136.000 Y67.000
G1 X135.000 Y67.000
G1 X134.000 Y67.000
G1 X133.000 Y67.000
G1 X132.000 Y67.000
G1 X131.000 Y67.000
G1 X130.000 Y67.000
G1 X129.000 Y67.000
G1 X128.000 Y67.000
G1 X127.000 Y67.000
G1 X126.000 Y67.000
G1 X125.000 Y67.000
G1 X124.000 Y67.000
G1 X123.000 Y67.000
G1 X122.000 Y67.000
G1 X121.000 Y67.000
G1 X120.000 Y67.000
G1 X119.000 Y67.000
G1 X118.000 Y67.000
G1 X117.000 Y67.000
G1 X116.000 Y67.000
G1 X115.000 Y67.000
G1 X114.000 Y67.000
G1 X113.000 Y67.000
G1 X112.000 Y67.000
G1 X111.000 Y67.000
G1 X110.000 Y67.000
G1 X109.000 Y67.000
G1 X108.000 Y67.000
G1 X107.000 Y67.000
G1 X106.000 Y67.000
G1 X105.000 Y67.000
G1 X104.000 Y67.000
G1 X103.000 Y67.000
G1 X102.000 Y67.000
G1 X101.000 Y67.000
G1 X100.000 Y67.000
G1 X99.000 Y67.000
G1 X98.000 Y67.000
G1 X97.000 Y67.000
G1 X96.000 Y67.000
G1 X95.000 Y67.000
G1 X94.000 Y67.000
G1 X93.000 Y67.000
G1 X92.000 Y67.000
G1 X91.000 Y67.000
G1 X90.000 Y67.000
G1 X89.000 Y67.000
G1 X88.000 Y67.000
G1 X87.000 Y67.000
G1 X86.000 Y67.000
G1 X85.000 Y67.000
G1 X84.000 Y67.000
G1 X83.000 Y67.000
G1 X82.000 Y67.000
G1 X81.000 Y67.000
G1 X80.000 Y67.000
G1 X79.000 Y67.000
G1 X78.000 Y67.000
G1 X77.000 Y67.000
G1 X76.000 Y67.000
G1 X75.000 Y67.000
G1 X74.000 Y67.000
G1 X73.000 Y67.000
G1 X72.000 Y67.000
G1 X71.000 Y67.000
G1 X70.000 Y67.000
G1 X69.000 Y67.000
G1 X68.000 Y67.000
G1 X67.000 Y67.000
G1 X66.000 Y67.000
G1 X65.000 Y67.000
G1 X64.000 Y67.000
G1 X63.000 Y67.000
G1 X62.000 Y67.000
G1 X61.000 Y67.000
G1 X60.000 Y67.000
G1 X59.000 Y67.000
G1 X58.000 Y67.000
G1 X57.000 Y67.000
G1 X56.000 Y67.000
G1 X55.000 Y67.000
G1 X54.000 Y67.000
G1 X53.000 Y67.000
G1 X52.000 Y67.000
G1 X51.000 Y67.000
G1 X50.000 Y67.000
G0 Z4.600 F3000
M400
M204 P12000 T12000
G1 F12000
G0 X50.000 Y68.000 Z4.600
M400
M204 P200 T200
G1 F400
G1 Z0.000 F2500
G1 X51.000 Y68.000
G1 X52.000 Y68.000
G1 X53.000 Y68.000
G1 X54.000 Y68.000
G1 X55.000 Y68.000
G1 X56.000 Y68.000
G1 X57.000 Y68.000
G1 X58.000 Y68.000
G1 X59.000 Y68.000
G1 X60.000 Y68.000
G1 X61.000 Y68.000
G1 X62.000 Y68.000
G1 X63.000 Y68.000
G1 X64.000 Y68.000
G1 X65.000 Y68.000
G1 X66.000 Y68.000
G1 X67.000 Y68.000
G1 X68.000 Y68.000
G1 X69.000 Y68.000
G1 X70.000 Y68.000
G1 X71.000 Y68.000
G1 X72.000 Y68.000
G1 X73.000 Y68.000
G1 X74.000 Y68.000
G1 X75.000 Y68.000
G1 X76.000 Y68.000
G1 X77.000 Y68.000
G1 X78.000 Y68.000
G1 X79.000 Y68.000
G1 X80.000 Y68.000
G1 X81.000 Y68.000
G1 X82.000 Y68.000
G1 X83.000 Y68.000
G1 X84.000 Y68.000
G1 X85.000 Y68.000
G1 X86.000 Y68.000
G1 X87.000 Y68.000
G1 X88.000 Y68.000
G1 X89.000 Y68.000
G1 X90.000 Y68.000
G1 X91.000 Y68.000
G1 X92.000 Y68.000
G1 X93.000 Y68.000
G1 X94.000 Y68.000
G1 X95.000 Y68.000
G1 X96.000 Y68.000
G1 X97.000 Y68.000
G1 X98.000 Y68.000
G1 X99.000 Y68.000
G1 X100.000 Y68.000
G1 X101.000 Y68.000
G1 X102.000 Y68.000
G1 X103.000 Y68.000
G1 X104.000 Y68.000
G1 X105.000 Y68.000
G1 X106.000 Y68.000
G0 Z4.600 F3000

; --- CIKEL NAMAKANJA ---
G0 Z4.600 F3000
M400
M204 P12000 T12000
G1 F12000
G0 X-0.121 Y12.353 Z31.000
G1 Z0.000 F3000
G1 X-0.121 Y12.353 F2500
G1 X-0.121 Y14.853 F2500
G1 X-5.121 Y12.353 F2500
G1 X-0.121 Y4.853 F2500
G0 Z16.000 F3000
G0 X12.660 Y8.045
G0 Z31.000 F3000
G0 X107.000 Y68.000 Z4.600
M400
M204 P200 T200
G1 F400
G1 Z0.000 F2500
G1 X107.000 Y68.000
G1 X108.000 Y68.000
G1 X109.000 Y68.000
G1 X110.000 Y68.000
G1 X111.000 Y68.000
G1 X112.000 Y68.000
G1 X113.000 Y68.000
G1 X114.000 Y68.000
G1 X115.000 Y68.000
G1 X116.000 Y68.000
G1 X117.000 Y68.000
G1 X118.000 Y68.000
G1 X119.000 Y68.000
G1 X120.000 Y68.000
G1 X121.000 Y68.000
G1 X122.000 Y68.000
G1 X123.000 Y68.000
G1 X124.000 Y68.000
G1 X125.000 Y68.000
G1 X126.000 Y68.000
G1 X127.000 Y68.000
G1 X128.000 Y68.000
G1 X129.000 Y68.000
G1 X130.000 Y68.000
G1 X131.000 Y68.000
G1 X132.000 Y68.000
G1 X133.000 Y68.000
G1 X134.000 Y68.000
G1 X135.000 Y68.000
G1 X136.000 Y68.000
G1 X137.000 Y68.000
G1 X138.000 Y68.000
G1 X139.000 Y68.000
G1 X140.000 Y68.000
G1 X141.000 Y68.000
G1 X142.000 Y68.000
G1 X143.000 Y68.000
G1 X144.000 Y68.000
G1 X145.000 Y68.000
G1 X146.000 Y68.000
G1 X147.000 Y68.000
G1 X148.000 Y68.000
G1 X149.000 Y68.000
G1 X150.000 Y68.000
G1 X151.000 Y68.000
G1 X152.000 Y68.000
G1 X153.000 Y68.000
G1 X154.000 Y68.000
G1 X155.000 Y68.000
G1 X156.000 Y68.000
G1 X157.000 Y68.000
G1 X158.000 Y68.000
G1 X159.000 Y68.000
G1 X160.000 Y68.000
G1 X161.000 Y68.000
G1 X162.000 Y68.000
G1 X163.000 Y68.000
G1 X164.000 Y68.000
G1 X165.000 Y68.000
G1 X166.000 Y68.000
G1 X167.000 Y68.000
G1 X168.000 Y68.000
G1 X169.000 Y68.000
G1 X170.000 Y68.000
G1 X171.000 Y68.000
G1 X172.000 Y68.000
G1 X173.000 Y68.000
G1 X174.000 Y68.000
G1 X175.000 Y68.000
G1 X176.000 Y68.000
G1 X177.000 Y68.000
G1 X178.000 Y68.000
G1 X179.000 Y68.000
G1 X180.000 Y68.000
G1 X181.000 Y68.000
G1 X182.000 Y68.000
G1 X183.000 Y68.000
G1 X184.000 Y68.000
G1 X185.000 Y68.000
G1 X186.000 Y68.000
G1 X187.000 Y68.000
G1 X188.000 Y68.000
G1 X189.000 Y68.000
G1 X190.000 Y68.000
G1 X191.000 Y68.000
G1 X192.000 Y68.000
G1 X193.000 Y68.000
G1 X194.000 Y68.000
G1 X195.000 Y68.000
G1 X196.000 Y68.000
G1 X197.000 Y68.000
G1 X198.000 Y68.000
G1 X199.000 Y68.000
G1 X200.000 Y68.000
G1 X201.000 Y68.000
G1 X202.000 Y68.000
G1 X203.000 Y68.000
G1 X204.000 Y68.000
G1 X205.000 Y68.000
G1 X206.000 Y68.000
G1 X207.000 Y68.000
G1 X208.000 Y68.000
G1 X209.000 Y68.000
G0 Z4.600 F3000
M400
M204 P12000 T12000
G1 F12000
G0 X209.000 Y69.000 Z4.600
M400
M204 P200 T200
G1 F400
G1 Z0.000 F2500
G1 X208.000 Y69.000
G1 X207.000 Y69.000
G1 X206.000 Y69.000
G1 X205.000 Y69.000
G1 X204.000 Y69.000
G1 X203.000 Y69.000
G1 X202.000 Y69.000
G1 X201.000 Y69.000
G1 X200.000 Y69.000
G1 X199.000 Y69.000
G1 X198.000 Y69.000
G1 X197.000 Y69.000
G1 X196.000 Y69.000
G1 X195.000 Y69.000
G1 X194.000 Y69.000
G1 X193.000 Y69.000
G1 X192.000 Y69.000
G1 X191.000 Y69.000
G1 X190.000 Y69.000
G1 X189.000 Y69.000
G1 X188.000 Y69.000
G1 X187.000 Y69.000
G1 X186.000 Y69.000
G1 X185.000 Y69.000
G1 X184.000 Y69.000
G1 X183.000 Y69.000
G1 X182.000 Y69.000
G1 X181.000 Y69.000
G1 X180.000 Y69.000
G1 X179.000 Y69.000
G1 X178.000 Y69.000
