G90
G21
; === MULTI-COLOR PAINTER GCODE ===
; Generated layers: 1
; Backlash compensation: OFF
; Working area clamping: ON  X[0–150] Y[0–150]
; Tutti Frutti mode: OFF


; ═══════════════════════════════
; LAYER 2: Color 2 — Teal
; Infill: lines
; ═══════════════════════════════


; --- CIKEL NAMAKANJA ---
G0 Z2.000 F3000
M400
M204 P600 T600
G1 F1300
G0 X63.418 Y0.000 Z8.000
G1 Z1.000 F3000
G1 X63.418 Y0.000 F2500
G1 X63.418 Y1.750 F2500
G1 X59.918 Y0.000 F2500
G1 X63.418 Y0.000 F2500
G0 Z3.000 F3000
G0 X41.051 Y8.822
G0 Z8.000 F3000
G0 X0.000 Y29.000 Z2.000
M400
M204 P600 T600
G1 F1300
G0 X0.000 Y29.000 Z2.000
M400
M204 P200 T200
G1 F600
G1 Z0.000 F2500
G1 X0.000 Y29.000
G0 Z2.000 F3000
M400
M204 P600 T600
G1 F1300
G0 X0.000 Y32.500 Z2.000
M400
M204 P200 T200
G1 F600
G1 Z0.000 F2500
G1 X0.000 Y32.500
G1 X0.000 Y32.250
G1 X0.250 Y32.000
G1 X0.500 Y32.000
G1 X0.750 Y31.750
G1 X0.750 Y31.500
G1 X1.000 Y31.250
G1 X1.250 Y31.250
G1 X1.250 Y31.000
G1 X1.500 Y30.750
G1 X1.750 Y30.750
G1 X1.750 Y30.500
G1 X2.000 Y30.250
G1 X2.250 Y30.250
G1 X2.500 Y30.000
G1 X2.500 Y29.750
G1 X2.750 Y29.500
G1 X3.000 Y29.500
G1 X3.000 Y29.250
G1 X3.250 Y29.000
G1 X3.500 Y29.000
G0 Z2.000 F3000
M400
M204 P600 T600
G1 F1300
G0 X7.000 Y29.000 Z2.000
M400
M204 P200 T200
G1 F600
G1 Z0.000 F2500
G1 X6.750 Y29.000
G1 X6.750 Y29.250
G1 X6.500 Y29.500
G1 X6.250 Y29.500
G1 X6.000 Y29.750
G1 X6.000 Y30.000
G1 X5.750 Y30.250
G1 X5.500 Y30.250
G1 X5.500 Y30.500
G1 X5.250 Y30.750
G1 X5.000 Y30.750
G1 X4.750 Y31.000
G1 X4.750 Y31.250
G1 X4.500 Y31.250
G1 X4.250 Y31.500
G1 X4.250 Y31.750
G1 X4.000 Y32.000
G1 X3.750 Y32.000
G1 X3.750 Y32.250
G1 X3.500 Y32.500
G1 X3.250 Y32.500
G1 X3.000 Y32.750
G1 X3.000 Y33.000
G1 X2.750 Y33.250
G1 X2.500 Y33.250
G1 X2.500 Y33.500
G1 X2.250 Y33.750
G1 X2.000 Y33.750
G1 X1.750 Y34.000
G1 X1.750 Y34.250
G1 X1.500 Y34.250
G1 X1.250 Y34.500
G1 X1.250 Y34.750
G1 X1.000 Y35.000
G1 X0.750 Y35.000
G1 X0.750 Y35.250
G1 X0.500 Y35.500
G1 X0.250 Y35.500
G1 X0.000 Y35.750
G1 X0.000 Y36.000
G1 X0.000 Y36.250
G0 Z2.000 F3000
M400
M204 P600 T600
G1 F1300
G0 X0.000 Y39.750 Z2.000
M400
M204 P200 T200
G1 F600
G1 Z0.000 F2500
G1 X0.000 Y39.500
G1 X0.000 Y39.250
G1 X0.250 Y39.250
G1 X0.500 Y39.000
G1 X0.750 Y38.750
G1 X0.750 Y38.500
G1 X1.000 Y38.500
G1 X1.250 Y38.250
G1 X1.250 Y38.000
G1 X1.500 Y38.000
G1 X1.750 Y37.750
G1 X1.750 Y37.500
G1 X2.000 Y37.500
G1 X2.250 Y37.250
G1 X2.500 Y37.000
G1 X2.500 Y36.750
G1 X2.750 Y36.750
G1 X3.000 Y36.500
G1 X3.000 Y36.250
G1 X3.250 Y36.250
G1 X3.500 Y36.000
G1 X3.750 Y35.750
G1 X3.750 Y35.500
G1 X4.000 Y35.500
G1 X4.250 Y35.250
G1 X4.250 Y35.000
G1 X4.500 Y35.000
G1 X4.750 Y34.750
G1 X4.750 Y34.500
G1 X5.000 Y34.250
G1 X5.250 Y34.250
G1 X5.500 Y34.000
G1 X5.500 Y33.750
G1 X5.750 Y33.750
G1 X6.000 Y33.500
G1 X6.000 Y33.250
G1 X6.250 Y33.250
G1 X6.500 Y33.000
G1 X6.750 Y32.750
G1 X6.750 Y32.500
G1 X7.000 Y32.500
G1 X7.250 Y32.250
G1 X7.250 Y32.000
G1 X7.500 Y32.000
G1 X7.750 Y31.750
G1 X8.000 Y31.500
G1 X8.000 Y31.250
G1 X8.250 Y31.250
G1 X8.500 Y31.000
G1 X8.500 Y30.750
G1 X8.750 Y30.750
G1 X9.000 Y30.500
G1 X9.000 Y30.250
G1 X9.250 Y30.250
G1 X9.500 Y30.000
G1 X9.750 Y29.750
G1 X9.750 Y29.500
G1 X10.000 Y29.500
G1 X10.250 Y29.250
G1 X10.250 Y29.000
G1 X10.500 Y29.000
G0 Z2.000 F3000
M400
M204 P600 T600
G1 F1300
G0 X14.000 Y29.000 Z2.000
M400
M204 P200 T200
G1 F600
G1 Z0.000 F2500
G1 X14.000 Y29.000
G1 X13.750 Y29.250
G1 X13.500 Y29.500
G1 X13.250 Y29.500
G1 X13.250 Y29.750
G1 X13.000 Y30.000
G1 X12.750 Y30.250
G1 X12.750 Y30.250
G1 X12.500 Y30.500
G1 X12.250 Y30.750
G1 X12.000 Y30.750
G1 X12.000 Y31.000
G1 X11.750 Y31.250
G1 X11.500 Y31.250
G1 X11.500 Y31.500
G1 X11.250 Y31.750
G1 X11.000 Y32.000
G1 X11.000 Y32.000
G1 X10.750 Y32.250
G1 X10.500 Y32.500
G1 X10.250 Y32.500
G1 X10.250 Y32.750
G1 X10.000 Y33.000
G1 X9.750 Y33.250
G1 X9.750 Y33.250
G1 X9.500 Y33.500
G1 X9.250 Y33.750
G1 X9.000 Y33.750
G1 X9.000 Y34.000
G1 X8.750 Y34.250
G1 X8.500 Y34.250
G1 X8.500 Y34.500
G1 X8.250 Y34.750
G1 X8.000 Y35.000
G1 X8.000 Y35.000
G1 X7.750 Y35.250
G1 X7.500 Y35.500
G1 X7.250 Y35.500
G1 X7.250 Y35.750
G1 X7.000 Y36.000
G1 X6.750 Y36.250
G1 X6.750 Y36.250
G1 X6.500 Y36.500
G1 X6.250 Y36.750
G1 X6.000 Y36.750
G1 X6.000 Y37.000
G1 X5.750 Y37.250
G1 X5.500 Y37.500
G1 X5.500 Y37.500
G1 X5.250 Y37.750
G1 X5.000 Y38.000
G1 X4.750 Y38.000
G1 X4.750 Y38.250
G1 X4.500 Y38.500
G1 X4.250 Y38.500
G1 X4.250 Y38.750
G1 X4.000 Y39.000
G1 X3.750 Y39.250
G1 X3.750 Y39.250
G1 X3.500 Y39.500
G1 X3.250 Y39.750
G1 X3.000 Y39.750
G1 X3.000 Y40.000
G1 X2.750 Y40.250
G1 X2.500 Y40.500
G1 X2.500 Y40.500
G1 X2.250 Y40.750
G1 X2.000 Y41.000
G1 X1.750 Y41.000
G1 X1.750 Y41.250
G1 X1.500 Y41.500
G1 X1.250 Y41.500
G1 X1.250 Y41.750
G1 X1.000 Y42.000
G1 X0.750 Y42.250
G1 X0.750 Y42.250
G1 X0.500 Y42.500
G1 X0.250 Y42.750
G1 X0.000 Y42.750
G1 X0.000 Y43.000
G1 X0.000 Y43.250
G0 Z2.000 F3000
M400
M204 P600 T600
G1 F1300
G0 X0.000 Y46.750 Z2.000
M400
M204 P200 T200
G1 F600
G1 Z0.000 F2500
G1 X0.000 Y46.500
G1 X0.000 Y46.500
G1 X0.250 Y46.250
G1 X0.500 Y46.000
G1 X0.750 Y45.750
G1 X0.750 Y45.750
G1 X1.000 Y45.500
G1 X1.250 Y45.250
G1 X1.250 Y45.250
G1 X1.500 Y45.000
G1 X1.750 Y44.750
G1 X1.750 Y44.750
G1 X2.000 Y44.500
G1 X2.250 Y44.250
G1 X2.500 Y44.000
G1 X2.500 Y44.000
G1 X2.750 Y43.750
G1 X3.000 Y43.500
G1 X3.000 Y43.500
G1 X3.250 Y43.250
G1 X3.500 Y43.000
G1 X3.750 Y42.750
G1 X3.750 Y42.750
G1 X4.000 Y42.500
G1 X4.250 Y42.250
G1 X4.250 Y42.250
G1 X4.500 Y42.000
G1 X4.750 Y41.750
G1 X4.750 Y41.500
G1 X5.000 Y41.500
G1 X5.250 Y41.250
G1 X5.500 Y41.000
G1 X5.500 Y41.000
G1 X5.750 Y40.750
G1 X6.000 Y40.500
G1 X6.000 Y40.500
G1 X6.250 Y40.250
G1 X6.500 Y40.000
G1 X6.750 Y39.750
G1 X6.750 Y39.750
G1 X7.000 Y39.500
G1 X7.250 Y39.250
G1 X7.250 Y39.250
G1 X7.500 Y39.000
G1 X7.750 Y38.750
G1 X8.000 Y38.500
G1 X8.000 Y38.500
G1 X8.250 Y38.250
G1 X8.500 Y38.000
G1 X8.500 Y38.000
G1 X8.750 Y37.750
G1 X9.000 Y37.500
G1 X9.000 Y37.500
G1 X9.250 Y37.250
G1 X9.500 Y37.000
G1 X9.750 Y36.750
G1 X9.750 Y36.750
G1 X10.000 Y36.500
G1 X10.250 Y36.250
G1 X10.250 Y36.250
G1 X10.500 Y36.000
G1 X10.750 Y35.750
G1 X11.000 Y35.500
G1 X11.000 Y35.500
G1 X11.250 Y35.250
G1 X11.500 Y35.000
G1 X11.500 Y35.000
G1 X11.750 Y34.750
G1 X12.000 Y34.500
G1 X12.000 Y34.250
G1 X12.250 Y34.250
G1 X12.500 Y34.000
G1 X12.750 Y33.750
G1 X12.750 Y33.750
G1 X13.000 Y33.500
G1 X13.250 Y33.250
G1 X13.250 Y33.250
G1 X13.500 Y33.000
G1 X13.750 Y32.750
G1 X14.000 Y32.500
G1 X14.000 Y32.500
G1 X14.250 Y32.250
G1 X14.500 Y32.000
G1 X14.500 Y32.000
G1 X14.750 Y31.750
G1 X15.000 Y31.500
G1 X15.000 Y31.250
G1 X15.250 Y31.250
G1 X15.500 Y31.000
G1 X15.750 Y30.750
G1 X15.750 Y30.750
G1 X16.000 Y30.500
G1 X16.250 Y30.250
G1 X16.250 Y30.250
G1 X16.500 Y30.000
G1 X16.750 Y29.750
G1 X17.000 Y29.500
G1 X17.000 Y29.500
G1 X17.250 Y29.250
G1 X17.500 Y29.000
G1 X17.500 Y29.000
G0 Z2.000 F3000
M400
M204 P600 T600
G1 F1300
G0 X21.250 Y29.000 Z2.000
M400
M204 P200 T200
G1 F600
G1 Z0.000 F2500
G1 X21.000 Y29.000
G1 X20.750 Y29.250
G1 X20.500 Y29.500
G1 X20.500 Y29.500
G1 X20.250 Y29.750
G1 X20.000 Y30.000
G1 X20.000 Y30.250
G1 X19.750 Y30.250
G1 X19.500 Y30.500
G1 X19.250 Y30.750
G1 X19.250 Y30.750
G1 X19.000 Y31.000
G1 X18.750 Y31.250
G1 X18.750 Y31.250
G1 X18.500 Y31.500
G1 X18.250 Y31.750
G1 X18.250 Y32.000
G1 X18.000 Y32.000
G1 X17.750 Y32.250
G1 X17.500 Y32.500
G1 X17.500 Y32.500
G1 X17.250 Y32.750
G1 X17.000 Y33.000
G1 X17.000 Y33.250
G1 X16.750 Y33.250
G1 X16.500 Y33.500
G1 X16.250 Y33.750
G1 X16.250 Y33.750
G1 X16.000 Y34.000
G1 X15.750 Y34.250
G1 X15.750 Y34.250
G1 X15.500 Y34.500
G1 X15.250 Y34.750
G1 X15.000 Y35.000
G1 X15.000 Y35.000
G1 X14.750 Y35.250
G1 X14.500 Y35.500
G1 X14.500 Y35.500
G1 X14.250 Y35.750
G1 X14.000 Y36.000
G1 X14.000 Y36.250
G1 X13.750 Y36.250
G1 X13.500 Y36.500
G1 X13.250 Y36.750
G1 X13.250 Y36.750
G1 X13.000 Y37.000
G1 X12.750 Y37.250
G1 X12.750 Y37.500
G1 X12.500 Y37.500
G1 X12.250 Y37.750
G1 X12.000 Y38.000
G1 X12.000 Y38.000
G1 X11.750 Y38.250
G1 X11.500 Y38.500
G1 X11.500 Y38.500
G1 X11.250 Y38.750
G0 Z2.000 F3000

; --- CIKEL NAMAKANJA ---
G0 Z2.000 F3000
M400
M204 P600 T600
G1 F1300
G0 X57.219 Y1.262 Z8.000
G1 Z1.000 F3000
G1 X57.219 Y1.262 F2500
G1 X57.219 Y3.012 F2500
G1 X53.719 Y1.262 F2500
G1 X57.219 Y0.000 F2500
G0 Z3.000 F3000
G0 X43.478 Y12.612
G0 Z8.000 F3000
G0 X11.000 Y39.000 Z2.000
M400
M204 P200 T200
G1 F600
G1 Z0.000 F2500
G1 X11.000 Y39.000
G1 X11.000 Y39.250
G1 X10.750 Y39.250
G1 X10.500 Y39.500
G1 X10.250 Y39.750
G1 X10.250 Y39.750
G1 X10.000 Y40.000
G1 X9.750 Y40.250
G1 X9.750 Y40.500
G1 X9.500 Y40.500
G1 X9.250 Y40.750
G1 X9.000 Y41.000
G1 X9.000 Y41.000
G1 X8.750 Y41.250
G1 X8.500 Y41.500
G1 X8.500 Y41.500
G1 X8.250 Y41.750
G1 X8.000 Y42.000
G1 X8.000 Y42.250
G1 X7.750 Y42.250
G1 X7.500 Y42.500
G1 X7.250 Y42.750
G1 X7.250 Y42.750
G1 X7.000 Y43.000
G1 X6.750 Y43.250
G1 X6.750 Y43.500
G1 X6.500 Y43.500
G1 X6.250 Y43.750
G1 X6.000 Y44.000
G1 X6.000 Y44.000
G1 X5.750 Y44.250
G1 X5.500 Y44.500
G1 X5.500 Y44.750
G1 X5.250 Y44.750
G1 X5.000 Y45.000
G1 X4.750 Y45.250
G1 X4.750 Y45.250
G1 X4.500 Y45.500
G1 X4.250 Y45.750
G1 X4.250 Y45.750
G1 X4.000 Y46.000
G1 X3.750 Y46.250
G1 X3.750 Y46.500
G1 X3.500 Y46.500
G1 X3.250 Y46.750
G1 X3.000 Y47.000
G1 X3.000 Y47.000
G1 X2.750 Y47.250
G1 X2.500 Y47.500
G1 X2.500 Y47.750
G1 X2.250 Y47.750
G1 X2.000 Y48.000
G1 X1.750 Y48.250
G1 X1.750 Y48.250
G1 X1.500 Y48.500
G1 X1.250 Y48.750
G1 X1.250 Y48.750
G1 X1.000 Y49.000
G1 X0.750 Y49.250
G1 X0.750 Y49.500
G1 X0.500 Y49.500
G1 X0.250 Y49.750
G1 X0.000 Y50.000
G1 X0.000 Y50.000
G1 X0.000 Y50.250
G0 Z2.000 F3000
M400
M204 P600 T600
G1 F1300
G0 X0.000 Y53.750 Z2.000
M400
M204 P200 T200
G1 F600
G1 Z0.000 F2500
G1 X0.000 Y53.750
G1 X0.000 Y53.500
G1 X0.250 Y53.250
G1 X0.500 Y53.000
G1 X0.750 Y53.000
G1 X0.750 Y52.750
G1 X1.000 Y52.500
G1 X1.250 Y52.500
G1 X1.250 Y52.250
G1 X1.500 Y52.000
G1 X1.750 Y51.750
G1 X1.750 Y51.750
G1 X2.000 Y51.500
G1 X2.250 Y51.250
G1 X2.500 Y51.250
G1 X2.500 Y51.000
G1 X2.750 Y50.750
G1 X3.000 Y50.750
G1 X3.000 Y50.500
G1 X3.250 Y50.250
G1 X3.500 Y50.000
G1 X3.750 Y50.000
G1 X3.750 Y49.750
G1 X4.000 Y49.500
G1 X4.250 Y49.500
G1 X4.250 Y49.250
G1 X4.500 Y49.000
G1 X4.750 Y48.750
G1 X4.750 Y48.750
G1 X5.000 Y48.500
G1 X5.250 Y48.250
G1 X5.500 Y48.250
G1 X5.500 Y48.000
G1 X5.750 Y47.750
G1 X6.000 Y47.750
G1 X6.000 Y47.500
G1 X6.250 Y47.250
G1 X6.500 Y47.000
G1 X6.750 Y47.000
G1 X6.750 Y46.750
G1 X7.000 Y46.500
G1 X7.250 Y46.500
G1 X7.250 Y46.250
G1 X7.500 Y46.000
G1 X7.750 Y45.750
G1 X8.000 Y45.750
G1 X8.000 Y45.500
G1 X8.250 Y45.250
G1 X8.500 Y45.250
G1 X8.500 Y45.000
G1 X8.750 Y44.750
G1 X9.000 Y44.750
G1 X9.000 Y44.500
G1 X9.250 Y44.250
G1 X9.500 Y44.000
G1 X9.750 Y44.000
G1 X9.750 Y43.750
G1 X10.000 Y43.500
G1 X10.250 Y43.500
G1 X10.250 Y43.250
G1 X10.500 Y43.000
G1 X10.750 Y42.750
G1 X11.000 Y42.750
G1 X11.000 Y42.500
G1 X11.250 Y42.250
G1 X11.500 Y42.250
G1 X11.500 Y42.000
G1 X11.750 Y41.750
G1 X12.000 Y41.500
G1 X12.000 Y41.500
G1 X12.250 Y41.250
G1 X12.500 Y41.000
G1 X12.750 Y41.000
G1 X12.750 Y40.750
G1 X13.000 Y40.500
G1 X13.250 Y40.500
G1 X13.250 Y40.250
G1 X13.500 Y40.000
G1 X13.750 Y39.750
G1 X14.000 Y39.750
G1 X14.000 Y39.500
G1 X14.250 Y39.250
G1 X14.500 Y39.250
G1 X14.500 Y39.000
G1 X14.750 Y38.750
G1 X15.000 Y38.500
G1 X15.000 Y38.500
G1 X15.250 Y38.250
G1 X15.500 Y38.000
G1 X15.750 Y38.000
G1 X15.750 Y37.750
G1 X16.000 Y37.500
G1 X16.250 Y37.500
G1 X16.250 Y37.250
G1 X16.500 Y37.000
G1 X16.750 Y36.750
G1 X17.000 Y36.750
G1 X17.000 Y36.500
G1 X17.250 Y36.250
G1 X17.500 Y36.250
G1 X17.500 Y36.000
G1 X17.750 Y35.750
G1 X18.000 Y35.500
G1 X18.250 Y35.500
G1 X18.250 Y35.250
G1 X18.500 Y35.000
G1 X18.750 Y35.000
G1 X18.750 Y34.750
G1 X19.000 Y34.500
G1 X19.250 Y34.250
G1 X19.250 Y34.250
G1 X19.500 Y34.000
G1 X19.750 Y33.750
G1 X20.000 Y33.750
G1 X20.000 Y33.500
G1 X20.250 Y33.250
G1 X20.500 Y33.250
G1 X20.500 Y33.000
G1 X20.750 Y32.750
G1 X21.000 Y32.500
G1 X21.250 Y32.500
G1 X21.250 Y32.250
G1 X21.500 Y32.000
G1 X21.750 Y32.000
G1 X21.750 Y31.750
G1 X22.000 Y31.500
G1 X22.250 Y31.250
G1 X22.250 Y31.250
G1 X22.500 Y31.000
G1 X22.750 Y30.750
G1 X23.000 Y30.750
G1 X23.000 Y30.500
G1 X23.250 Y30.250
G1 X23.500 Y30.250
G1 X23.500 Y30.000
G1 X23.750 Y29.750
G1 X24.000 Y29.500
G1 X24.250 Y29.500
G1 X24.250 Y29.250
G1 X24.500 Y29.000
G1 X24.750 Y29.000
G0 Z2.000 F3000
M400
M204 P600 T600
G1 F1300
G0 X28.250 Y29.000 Z2.000
M400
M204 P200 T200
G1 F600
G1 Z0.000 F2500
G1 X28.000 Y29.000
G1 X27.750 Y29.250
G1 X27.750 Y29.500
G1 X27.500 Y29.500
G1 X27.250 Y29.750
G1 X27.250 Y30.000
G1 X27.000 Y30.250
G1 X26.750 Y30.250
G1 X26.500 Y30.500
G1 X26.500 Y30.750
G1 X26.250 Y30.750
G1 X26.000 Y31.000
G1 X26.000 Y31.250
G1 X25.750 Y31.250
G1 X25.500 Y31.500
G1 X25.500 Y31.750
G1 X25.250 Y32.000
G1 X25.000 Y32.000
G1 X24.750 Y32.250
G1 X24.750 Y32.500
G1 X24.500 Y32.500
G1 X24.250 Y32.750
G1 X24.250 Y33.000
G1 X24.000 Y33.250
G1 X23.750 Y33.250
G1 X23.500 Y33.500
G1 X23.500 Y33.750
G1 X23.250 Y33.750
G1 X23.000 Y34.000
G1 X23.000 Y34.250
G1 X22.750 Y34.250
G1 X22.500 Y34.500
G1 X22.250 Y34.750
G1 X22.250 Y35.000
G1 X22.000 Y35.000
G1 X21.750 Y35.250
G1 X21.750 Y35.500
G1 X21.500 Y35.500
G1 X21.250 Y35.750
G1 X21.250 Y36.000
G1 X21.000 Y36.250
G1 X20.750 Y36.250
G1 X20.500 Y36.500
G1 X20.500 Y36.750
G1 X20.250 Y36.750
G1 X20.000 Y37.000
G1 X20.000 Y37.250
G1 X19.750 Y37.500
G1 X19.500 Y37.500
G1 X19.250 Y37.750
G1 X19.250 Y38.000
G1 X19.000 Y38.000
G1 X18.750 Y38.250
G1 X18.750 Y38.500
G1 X18.500 Y38.500
G1 X18.250 Y38.750
G1 X18.250 Y39.000
G1 X18.000 Y39.250
G1 X17.750 Y39.250
G1 X17.500 Y39.500
G1 X17.500 Y39.750
G1 X17.250 Y39.750
G1 X17.000 Y40.000
G1 X17.000 Y40.250
G1 X16.750 Y40.500
G1 X16.500 Y40.500
G1 X16.250 Y40.750
G1 X16.250 Y41.000
G1 X16.000 Y41.000
G1 X15.750 Y41.250
G1 X15.750 Y41.500
G1 X15.500 Y41.500
G1 X15.250 Y41.750
G1 X15.000 Y42.000
G1 X15.000 Y42.250
G1 X14.750 Y42.250
G1 X14.500 Y42.500
G1 X14.500 Y42.750
G1 X14.250 Y42.750
G1 X14.000 Y43.000
G1 X14.000 Y43.250
G0 Z2.000 F3000

; --- CIKEL NAMAKANJA ---
G0 Z2.000 F3000
M400
M204 P600 T600
G1 F1300
G0 X53.385 Y5.319 Z8.000
G1 Z1.000 F3000
G1 X53.385 Y5.319 F2500
G1 X53.385 Y7.069 F2500
G1 X49.885 Y5.319 F2500
G1 X53.385 Y0.069 F2500
G0 Z3.000 F3000
G0 X44.582 Y13.861
G0 Z8.000 F3000
G0 X13.750 Y43.500 Z2.000
M400
M204 P200 T200
G1 F600
G1 Z0.000 F2500
G1 X13.750 Y43.500
G1 X13.500 Y43.500
G1 X13.250 Y43.750
G1 X13.250 Y44.000
G1 X13.000 Y44.000
G1 X12.750 Y44.250
G1 X12.750 Y44.500
G1 X12.500 Y44.750
G1 X12.250 Y44.750
G1 X12.000 Y45.000
G1 X12.000 Y45.250
G1 X11.750 Y45.250
G1 X11.500 Y45.500
G1 X11.500 Y45.750
G1 X11.250 Y45.750
G1 X11.000 Y46.000
G1 X11.000 Y46.250
G1 X10.750 Y46.500
G1 X10.500 Y46.500
G1 X10.250 Y46.750
G1 X10.250 Y47.000
G1 X10.000 Y47.000
G1 X9.750 Y47.250
G1 X9.750 Y47.500
G1 X9.500 Y47.750
G1 X9.250 Y47.750
G1 X9.000 Y48.000
G1 X9.000 Y48.250
G1 X8.750 Y48.250
G1 X8.500 Y48.500
G1 X8.500 Y48.750
G1 X8.250 Y48.750
G1 X8.000 Y49.000
G1 X8.000 Y49.250
G1 X7.750 Y49.500
G1 X7.500 Y49.500
G1 X7.250 Y49.750
G1 X7.250 Y50.000
G1 X7.000 Y50.000
G1 X6.750 Y50.250
G1 X6.750 Y50.500
G1 X6.500 Y50.750
G1 X6.250 Y50.750
G1 X6.000 Y51.000
G1 X6.000 Y51.250
G1 X5.750 Y51.250
G1 X5.500 Y51.500
G1 X5.500 Y51.750
G1 X5.250 Y51.750
G1 X5.000 Y52.000
G1 X4.750 Y52.250
G1 X4.750 Y52.500
G1 X4.500 Y52.500
G1 X4.250 Y52.750
G1 X4.250 Y53.000
G1 X4.000 Y53.000
G1 X3.750 Y53.250
G1 X3.750 Y53.500
G1 X3.500 Y53.750
G1 X3.250 Y53.750
G1 X3.000 Y54.000
G1 X3.000 Y54.250
G1 X2.750 Y54.250
G1 X2.500 Y54.500
G1 X2.500 Y54.750
G1 X2.250 Y55.000
G1 X2.000 Y55.000
G1 X1.750 Y55.250
G1 X1.750 Y55.500
G1 X1.500 Y55.500
G1 X1.250 Y55.750
G1 X1.250 Y56.000
G1 X1.000 Y56.000
G1 X0.750 Y56.250
G1 X0.750 Y56.500
G1 X0.500 Y56.750
G1 X0.250 Y56.750
G1 X0.000 Y57.000
G1 X0.000 Y57.250
G1 X0.000 Y57.250
G0 Z2.000 F3000
M400
M204 P600 T600
G1 F1300
G0 X0.000 Y61.000 Z2.000
M400
M204 P200 T200
G1 F600
G1 Z0.000 F2500
G1 X0.000 Y60.750
G1 X0.000 Y60.500
G1 X0.250 Y60.250
G1 X0.500 Y60.250
G1 X0.750 Y60.000
G1 X0.750 Y59.750
G1 X1.000 Y59.750
G1 X1.250 Y59.500
G1 X1.250 Y59.250
G1 X1.500 Y59.000
G1 X1.750 Y59.000
G1 X1.750 Y58.750
G1 X2.000 Y58.500
G1 X2.250 Y58.500
G1 X2.500 Y58.250
G1 X2.500 Y58.000
G1 X2.750 Y58.000
G1 X3.000 Y57.750
G1 X3.000 Y57.500
G1 X3.250 Y57.250
G1 X3.500 Y57.250
G1 X3.750 Y57.000
G1 X3.750 Y56.750
G1 X4.000 Y56.750
G1 X4.250 Y56.500
G1 X4.250 Y56.250
G1 X4.500 Y56.000
G1 X4.750 Y56.000
G1 X4.750 Y55.750
G1 X5.000 Y55.500
G1 X5.250 Y55.500
G1 X5.500 Y55.250
G1 X5.500 Y55.000
G1 X5.750 Y55.000
G1 X6.000 Y54.750
G1 X6.000 Y54.500
G1 X6.250 Y54.250
G1 X6.500 Y54.250
G1 X6.750 Y54.000
G1 X6.750 Y53.750
G1 X7.000 Y53.750
G1 X7.250 Y53.500
G1 X7.250 Y53.250
G1 X7.500 Y53.000
G1 X7.750 Y53.000
G1 X8.000 Y52.750
G1 X8.000 Y52.500
G1 X8.250 Y52.500
G1 X8.500 Y52.250
G1 X8.500 Y52.000
G1 X8.750 Y51.750
G1 X9.000 Y51.750
G1 X9.000 Y51.500
G1 X9.250 Y51.250
G1 X9.500 Y51.250
G1 X9.750 Y51.000
G1 X9.750 Y50.750
G1 X10.000 Y50.750
G1 X10.250 Y50.500
G1 X10.250 Y50.250
G1 X10.500 Y50.000
G1 X10.750 Y50.000
G1 X11.000 Y49.750
G1 X11.000 Y49.500
G1 X11.250 Y49.500
G1 X11.500 Y49.250
G1 X11.500 Y49.000
G1 X11.750 Y48.750
G1 X12.000 Y48.750
G1 X12.000 Y48.500
G1 X12.250 Y48.250
G1 X12.500 Y48.250
G1 X12.750 Y48.000
G1 X12.750 Y47.750
G1 X13.000 Y47.750
G1 X13.250 Y47.500
G1 X13.250 Y47.250
G1 X13.500 Y47.000
G1 X13.750 Y47.000
G1 X14.000 Y46.750
G1 X14.000 Y46.500
G1 X14.250 Y46.500
G1 X14.500 Y46.250
G1 X14.500 Y46.000
G1 X14.750 Y45.750
G1 X15.000 Y45.750
G1 X15.000 Y45.500
G1 X15.250 Y45.250
G1 X15.500 Y45.250
G1 X15.750 Y45.000
G1 X15.750 Y44.750
G1 X16.000 Y44.750
G1 X16.250 Y44.500
G1 X16.250 Y44.250
G1 X16.500 Y44.000
G1 X16.750 Y44.000
G1 X17.000 Y43.750
G1 X17.000 Y43.500
G1 X17.250 Y43.500
G1 X17.500 Y43.250
G1 X17.500 Y43.000
G1 X17.750 Y42.750
G1 X18.000 Y42.750
G1 X18.250 Y42.500
G1 X18.250 Y42.250
G1 X18.500 Y42.250
G1 X18.750 Y42.000
G1 X18.750 Y41.750
G1 X19.000 Y41.500
G1 X19.250 Y41.500
G1 X19.250 Y41.250
G1 X19.500 Y41.000
G1 X19.750 Y41.000
G1 X20.000 Y40.750
G1 X20.000 Y40.500
G1 X20.250 Y40.500
G1 X20.500 Y40.250
G1 X20.500 Y40.000
G1 X20.750 Y39.750
G1 X21.000 Y39.750
G1 X21.250 Y39.500
G1 X21.250 Y39.250
G1 X21.500 Y39.250
G1 X21.750 Y39.000
G1 X21.750 Y38.750
G1 X22.000 Y38.500
G1 X22.250 Y38.500
G1 X22.250 Y38.250
G1 X22.500 Y38.000
G1 X22.750 Y38.000
G1 X23.000 Y37.750
G1 X23.000 Y37.500
G1 X23.250 Y37.500
G1 X23.500 Y37.250
G1 X23.500 Y37.000
G1 X23.750 Y36.750
G1 X24.000 Y36.750
G1 X24.250 Y36.500
G1 X24.250 Y36.250
G1 X24.500 Y36.250
G1 X24.750 Y36.000
G1 X24.750 Y35.750
G1 X25.000 Y35.500
G1 X25.250 Y35.500
G1 X25.500 Y35.250
G1 X25.500 Y35.000
G1 X25.750 Y35.000
G1 X26.000 Y34.750
G1 X26.000 Y34.500
G1 X26.250 Y34.250
G1 X26.500 Y34.250
G1 X26.500 Y34.000
G1 X26.750 Y33.750
G1 X27.000 Y33.750
G1 X27.250 Y33.500
G1 X27.250 Y33.250
G1 X27.500 Y33.250
G1 X27.750 Y33.000
G1 X27.750 Y32.750
G1 X28.000 Y32.500
G1 X28.250 Y32.500
G1 X28.500 Y32.250
G1 X28.500 Y32.000
G1 X28.750 Y32.000
G1 X29.000 Y31.750
G1 X29.000 Y31.500
G1 X29.250 Y31.250
G1 X29.500 Y31.250
G1 X29.500 Y31.000
G1 X29.750 Y30.750
G1 X30.000 Y30.750
G1 X30.250 Y30.500
G1 X30.250 Y30.250
G1 X30.500 Y30.250
G1 X30.750 Y30.000
G1 X30.750 Y29.750
G1 X31.000 Y29.500
G1 X31.250 Y29.500
G1 X31.500 Y29.250
G1 X31.500 Y29.000
G1 X31.750 Y29.000
G0 Z2.000 F3000
M400
M204 P600 T600
G1 F1300
G0 X35.250 Y29.000 Z2.000
M400
M204 P200 T200
G1 F600
G1 Z0.000 F2500
G1 X35.000 Y29.000
G1 X35.000 Y29.250
G1 X34.750 Y29.500
G1 X34.500 Y29.500
G1 X34.500 Y29.750
G1 X34.250 Y30.000
G1 X34.000 Y30.250
G1 X33.750 Y30.250
G1 X33.750 Y30.500
G1 X33.500 Y30.750
G1 X33.250 Y30.750
G1 X33.250 Y31.000
G1 X33.000 Y31.250
G1 X32.750 Y31.250
G1 X32.750 Y31.500
G1 X32.500 Y31.750
G1 X32.250 Y32.000
G1 X32.000 Y32.000
G1 X32.000 Y32.250
G1 X31.750 Y32.500
G1 X31.500 Y32.500
G1 X31.500 Y32.750
G1 X31.250 Y33.000
G1 X31.000 Y33.250
G1 X30.750 Y33.250
G1 X30.750 Y33.500
G1 X30.500 Y33.750
G1 X30.250 Y33.750
G1 X30.250 Y34.000
G1 X30.000 Y34.250
G1 X29.750 Y34.250
G1 X29.500 Y34.500
G1 X29.500 Y34.750
G1 X29.250 Y35.000
G1 X29.000 Y35.000
G1 X29.000 Y35.250
G1 X28.750 Y35.500
G1 X28.500 Y35.500
G1 X28.500 Y35.750
G1 X28.250 Y36.000
G1 X28.000 Y36.250
G1 X27.750 Y36.250
G1 X27.750 Y36.500
G1 X27.500 Y36.750
G1 X27.250 Y36.750
G1 X27.250 Y37.000
G1 X27.000 Y37.250
G1 X26.750 Y37.500
G1 X26.500 Y37.500
G1 X26.500 Y37.750
G1 X26.250 Y38.000
G1 X26.000 Y38.000
G1 X26.000 Y38.250
G1 X25.750 Y38.500
G1 X25.500 Y38.500
G1 X25.500 Y38.750
G1 X25.250 Y39.000
G1 X25.000 Y39.250
G1 X24.750 Y39.250
G1 X24.750 Y39.500
G0 Z2.000 F3000

; --- CIKEL NAMAKANJA ---
G0 Z2.000 F3000
M400
M204 P600 T600
G1 F1300
G0 X56.571 Y0.000 Z8.000
G1 Z1.000 F3000
G1 X56.571 Y0.000 F2500
G1 X56.571 Y1.750 F2500
G1 X53.071 Y0.000 F2500
G1 X56.571 Y0.000 F2500
G0 Z3.000 F3000
G0 X45.891 Y15.104
G0 Z8.000 F3000
G0 X24.500 Y39.750 Z2.000
M400
M204 P200 T200
G1 F600
G1 Z0.000 F2500
G1 X24.500 Y39.750
G1 X24.250 Y39.750
G1 X24.250 Y40.000
G1 X24.000 Y40.250
G1 X23.750 Y40.500
G1 X23.500 Y40.500
G1 X23.500 Y40.750
G1 X23.250 Y41.000
G1 X23.000 Y41.000
G1 X23.000 Y41.250
G1 X22.750 Y41.500
G1 X22.500 Y41.500
G1 X22.250 Y41.750
G1 X22.250 Y42.000
G1 X22.000 Y42.250
G1 X21.750 Y42.250
G1 X21.750 Y42.500
G1 X21.500 Y42.750
G1 X21.250 Y42.750
G1 X21.250 Y43.000
G1 X21.000 Y43.250
G1 X20.750 Y43.500
G1 X20.500 Y43.500
G1 X20.500 Y43.750
G1 X20.250 Y44.000
G1 X20.000 Y44.000
G1 X20.000 Y44.250
G1 X19.750 Y44.500
G1 X19.500 Y44.750
G1 X19.250 Y44.750
G1 X19.250 Y45.000
G1 X19.000 Y45.250
G1 X18.750 Y45.250
G1 X18.750 Y45.500
G1 X18.500 Y45.750
G1 X18.250 Y45.750
G1 X18.250 Y46.000
G1 X18.000 Y46.250
G1 X17.750 Y46.500
G1 X17.500 Y46.500
G1 X17.500 Y46.750
G1 X17.250 Y47.000
G1 X17.000 Y47.000
G1 X17.000 Y47.250
G1 X16.750 Y47.500
G1 X16.500 Y47.750
G1 X16.250 Y47.750
G1 X16.250 Y48.000
G1 X16.000 Y48.250
G1 X15.750 Y48.250
G1 X15.750 Y48.500
G1 X15.500 Y48.750
G1 X15.250 Y48.750
G1 X15.000 Y49.000
G1 X15.000 Y49.250
G1 X14.750 Y49.500
G1 X14.500 Y49.500
G1 X14.500 Y49.750
G1 X14.250 Y50.000
G1 X14.000 Y50.000
G1 X14.000 Y50.250
G1 X13.750 Y50.500
G1 X13.500 Y50.750
G1 X13.250 Y50.750
G1 X13.250 Y51.000
G1 X13.000 Y51.250
G1 X12.750 Y51.250
G1 X12.750 Y51.500
G1 X12.500 Y51.750
G1 X12.250 Y51.750
G1 X12.000 Y52.000
G1 X12.000 Y52.250
G1 X11.750 Y52.500
G1 X11.500 Y52.500
G1 X11.500 Y52.750
G1 X11.250 Y53.000
G1 X11.000 Y53.000
G1 X11.000 Y53.250
G1 X10.750 Y53.500
G1 X10.500 Y53.750
G1 X10.250 Y53.750
G1 X10.250 Y54.000
G1 X10.000 Y54.250
G1 X9.750 Y54.250
G1 X9.750 Y54.500
G1 X9.500 Y54.750
G1 X9.250 Y55.000
G1 X9.000 Y55.000
G1 X9.000 Y55.250
G1 X8.750 Y55.500
G1 X8.500 Y55.500
G1 X8.500 Y55.750
G1 X8.250 Y56.000
G1 X8.000 Y56.000
G1 X8.000 Y56.250
G1 X7.750 Y56.500
G1 X7.500 Y56.750
G1 X7.250 Y56.750
G1 X7.250 Y57.000
G1 X7.000 Y57.250
G1 X6.750 Y57.250
G1 X6.750 Y57.500
G1 X6.500 Y57.750
G1 X6.250 Y58.000
G1 X6.000 Y58.000
G1 X6.000 Y58.250
G1 X5.750 Y58.500
G1 X5.500 Y58.500
G1 X5.500 Y58.750
G1 X5.250 Y59.000
G1 X5.000 Y59.000
G1 X4.750 Y59.250
G1 X4.750 Y59.500
G1 X4.500 Y59.750
G1 X4.250 Y59.750
G1 X4.250 Y60.000
G1 X4.000 Y60.250
G1 X3.750 Y60.250
G1 X3.750 Y60.500
G1 X3.500 Y60.750
G1 X3.250 Y61.000
G1 X3.000 Y61.000
G1 X3.000 Y61.250
G1 X2.750 Y61.500
G1 X2.500 Y61.500
G1 X2.500 Y61.750
G1 X2.250 Y62.000
G1 X2.000 Y62.250
G1 X1.750 Y62.250
G1 X1.750 Y62.500
G1 X1.500 Y62.750
G1 X1.250 Y62.750
G1 X1.250 Y63.000
G1 X1.000 Y63.250
G1 X0.750 Y63.250
G1 X0.750 Y63.500
G1 X0.500 Y63.750
G1 X0.250 Y64.000
G1 X0.000 Y64.000
G1 X0.000 Y64.250
G1 X0.000 Y64.500
G0 Z2.000 F3000
M400
M204 P600 T600
G1 F1300
G0 X0.000 Y68.000 Z2.000
M400
M204 P200 T200
G1 F600
G1 Z0.000 F2500
G1 X0.000 Y67.750
G1 X0.000 Y67.500
G1 X0.250 Y67.500
G1 X0.500 Y67.250
G1 X0.750 Y67.000
G1 X0.750 Y67.000
G1 X1.000 Y66.750
G1 X1.250 Y66.500
G1 X1.250 Y66.250
G1 X1.500 Y66.250
G1 X1.750 Y66.000
G1 X1.750 Y65.750
G1 X2.000 Y65.750
G1 X2.250 Y65.500
G1 X2.500 Y65.250
G1 X2.500 Y65.250
G1 X2.750 Y65.000
G1 X3.000 Y64.750
G1 X3.000 Y64.500
G1 X3.250 Y64.500
G1 X3.500 Y64.250
G1 X3.750 Y64.000
G1 X3.750 Y64.000
G1 X4.000 Y63.750
G1 X4.250 Y63.500
G1 X4.250 Y63.250
G1 X4.500 Y63.250
G1 X4.750 Y63.000
G1 X4.750 Y62.750
G1 X5.000 Y62.750
G1 X5.250 Y62.500
G1 X5.500 Y62.250
G1 X5.500 Y62.250
G1 X5.750 Y62.000
G1 X6.000 Y61.750
G1 X6.000 Y61.500
G1 X6.250 Y61.500
G1 X6.500 Y61.250
G1 X6.750 Y61.000
G1 X6.750 Y61.000
G1 X7.000 Y60.750
G1 X7.250 Y60.500
G1 X7.250 Y60.250
G1 X7.500 Y60.250
G1 X7.750 Y60.000
G1 X8.000 Y59.750
G1 X8.000 Y59.750
G1 X8.250 Y59.500
G1 X8.500 Y59.250
G1 X8.500 Y59.000
G1 X8.750 Y59.000
G1 X9.000 Y58.750
G1 X9.000 Y58.500
G1 X9.250 Y58.500
G1 X9.500 Y58.250
G1 X9.750 Y58.000
G1 X9.750 Y58.000
G1 X10.000 Y57.750
G1 X10.250 Y57.500
G1 X10.250 Y57.250
G1 X10.500 Y57.250
G1 X10.750 Y57.000
G1 X11.000 Y56.750
G1 X11.000 Y56.750
G1 X11.250 Y56.500
G1 X11.500 Y56.250
G1 X11.500 Y56.000
G1 X11.750 Y56.000
G1 X12.000 Y55.750
G1 X12.000 Y55.500
G1 X12.250 Y55.500
G1 X12.500 Y55.250
G1 X12.750 Y55.000
G1 X12.750 Y55.000
G1 X13.000 Y54.750
G1 X13.250 Y54.500
G1 X13.250 Y54.250
G1 X13.500 Y54.250
G1 X13.750 Y54.000
G1 X14.000 Y53.750
G1 X14.000 Y53.750
G1 X14.250 Y53.500
G1 X14.500 Y53.250
G1 X14.500 Y53.000
G1 X14.750 Y53.000
G1 X15.000 Y52.750
G1 X15.000 Y52.500
G1 X15.250 Y52.500
G1 X15.500 Y52.250
G1 X15.750 Y52.000
G1 X15.750 Y51.750
G1 X16.000 Y51.750
G1 X16.250 Y51.500
G1 X16.250 Y51.250
G1 X16.500 Y51.250
G1 X16.750 Y51.000
G1 X17.000 Y50.750
G1 X17.000 Y50.750
G1 X17.250 Y50.500
G1 X17.500 Y50.250
G1 X17.500 Y50.000
G1 X17.750 Y50.000
G1 X18.000 Y49.750
G1 X18.250 Y49.500
G1 X18.250 Y49.500
G1 X18.500 Y49.250
G1 X18.750 Y49.000
G1 X18.750 Y48.750
G1 X19.000 Y48.750
G1 X19.250 Y48.500
G1 X19.250 Y48.250
G1 X19.500 Y48.250
G1 X19.750 Y48.000
G1 X20.000 Y47.750
G1 X20.000 Y47.750
G1 X20.250 Y47.500
G1 X20.500 Y47.250
G1 X20.500 Y47.000
G1 X20.750 Y47.000
G1 X21.000 Y46.750
G1 X21.250 Y46.500
G1 X21.250 Y46.500
G1 X21.500 Y46.250
G1 X21.750 Y46.000
G1 X21.750 Y45.750
G1 X22.000 Y45.750
G1 X22.250 Y45.500
G1 X22.250 Y45.250
G1 X22.500 Y45.250
G1 X22.750 Y45.000
G1 X23.000 Y44.750
G1 X23.000 Y44.750
G1 X23.250 Y44.500
G1 X23.500 Y44.250
G1 X23.500 Y44.000
G1 X23.750 Y44.000
G1 X24.000 Y43.750
G1 X24.250 Y43.500
G1 X24.250 Y43.500
G1 X24.500 Y43.250
G1 X24.750 Y43.000
G1 X24.750 Y42.750
G1 X25.000 Y42.750
G1 X25.250 Y42.500
G1 X25.500 Y42.250
G1 X25.500 Y42.250
G1 X25.750 Y42.000
G1 X26.000 Y41.750
G1 X26.000 Y41.500
G1 X26.250 Y41.500
G1 X26.500 Y41.250
G1 X26.500 Y41.000
G1 X26.750 Y41.000
G1 X27.000 Y40.750
G1 X27.250 Y40.500
G1 X27.250 Y40.500
G1 X27.500 Y40.250
G1 X27.750 Y40.000
G1 X27.750 Y39.750
G1 X28.000 Y39.750
G1 X28.250 Y39.500
G1 X28.500 Y39.250
G1 X28.500 Y39.250
G1 X28.750 Y39.000
G1 X29.000 Y38.750
G1 X29.000 Y38.500
G0 Z2.000 F3000

; --- CIKEL NAMAKANJA ---
G0 Z2.000 F3000
M400
M204 P600 T600
G1 F1300
G0 X55.101 Y0.782 Z8.000
G1 Z1.000 F3000
G1 X55.101 Y0.782 F2500
G1 X55.101 Y2.532 F2500
G1 X51.601 Y0.782 F2500
G1 X55.101 Y0.000 F2500
G0 Z3.000 F3000
G0 X46.771 Y15.826
G0 Z8.000 F3000
G0 X29.250 Y38.500 Z2.000
M400
M204 P200 T200
G1 F600
G1 Z0.000 F2500
G1 X29.250 Y38.500
G1 X29.500 Y38.250
G1 X29.500 Y38.000
G1 X29.750 Y38.000
G1 X30.000 Y37.750
G1 X30.250 Y37.500
G1 X30.250 Y37.500
G1 X30.500 Y37.250
G1 X30.750 Y37.000
G1 X30.750 Y36.750
G1 X31.000 Y36.750
G1 X31.250 Y36.500
G1 X31.500 Y36.250
G1 X31.500 Y36.250
G1 X31.750 Y36.000
G1 X32.000 Y35.750
G1 X32.000 Y35.500
G1 X32.250 Y35.500
G1 X32.500 Y35.250
G1 X32.750 Y35.000
G1 X32.750 Y35.000
G1 X33.000 Y34.750
G1 X33.250 Y34.500
G1 X33.250 Y34.250
G1 X33.500 Y34.250
G1 X33.750 Y34.000
G1 X33.750 Y33.750
G1 X34.000 Y33.750
G1 X34.250 Y33.500
G1 X34.500 Y33.250
G1 X34.500 Y33.250
G1 X34.750 Y33.000
G1 X35.000 Y32.750
G1 X35.000 Y32.500
G1 X35.250 Y32.500
G1 X35.500 Y32.250
G1 X35.750 Y32.000
G1 X35.750 Y32.000
G1 X36.000 Y31.750
G1 X36.250 Y31.500
G1 X36.250 Y31.250
G1 X36.500 Y31.250
G1 X36.750 Y31.000
G1 X36.750 Y30.750
G1 X37.000 Y30.750
G1 X37.250 Y30.500
G1 X37.500 Y30.250
G1 X37.500 Y30.250
G1 X37.750 Y30.000
G1 X38.000 Y29.750
G1 X38.000 Y29.500
G1 X38.250 Y29.500
G1 X38.500 Y29.250
G1 X38.750 Y29.000
G1 X38.750 Y29.000
G0 Z2.000 F3000
M400
M204 P600 T600
G1 F1300
G0 X42.250 Y29.000 Z2.000
M400
M204 P200 T200
G1 F600
G1 Z0.000 F2500
G1 X42.250 Y29.000
G1 X42.000 Y29.250
G1 X41.750 Y29.500
G1 X41.750 Y29.500
G1 X41.500 Y29.750
G1 X41.250 Y30.000
G1 X41.000 Y30.250
G1 X41.000 Y30.250
G1 X40.750 Y30.500
G1 X40.500 Y30.750
G1 X40.500 Y30.750
G1 X40.250 Y31.000
G1 X40.000 Y31.250
G1 X39.750 Y31.250
G1 X39.750 Y31.500
G1 X39.500 Y31.750
G1 X39.250 Y32.000
G1 X39.250 Y32.000
G1 X39.000 Y32.250
G1 X38.750 Y32.500
G1 X38.750 Y32.500
G1 X38.500 Y32.750
G1 X38.250 Y33.000
G1 X38.000 Y33.250
G1 X38.000 Y33.250
G1 X37.750 Y33.500
G1 X37.500 Y33.750
G1 X37.500 Y33.750
G1 X37.250 Y34.000
G1 X37.000 Y34.250
G1 X36.750 Y34.250
G1 X36.750 Y34.500
G1 X36.500 Y34.750
G1 X36.250 Y35.000
G1 X36.250 Y35.000
G1 X36.000 Y35.250
G1 X35.750 Y35.500
G1 X35.750 Y35.500
G1 X35.500 Y35.750
G1 X35.250 Y36.000
G1 X35.000 Y36.250
G1 X35.000 Y36.250
G1 X34.750 Y36.500
G1 X34.500 Y36.750
G1 X34.500 Y36.750
G1 X34.250 Y37.000
G1 X34.000 Y37.250
G1 X33.750 Y37.500
G1 X33.750 Y37.500
G1 X33.500 Y37.750
G1 X33.250 Y38.000
G1 X33.250 Y38.000
G1 X33.000 Y38.250
G1 X32.750 Y38.500
G1 X32.750 Y38.500
G1 X32.500 Y38.750
G1 X32.250 Y39.000
G1 X32.000 Y39.250
G1 X32.000 Y39.250
G1 X31.750 Y39.500
G1 X31.500 Y39.750
G1 X31.500 Y39.750
G1 X31.250 Y40.000
G1 X31.000 Y40.250
G1 X30.750 Y40.500
G1 X30.750 Y40.500
G1 X30.500 Y40.750
G1 X30.250 Y41.000
G1 X30.250 Y41.000
G1 X30.000 Y41.250
G1 X29.750 Y41.500
G1 X29.500 Y41.500
G1 X29.500 Y41.750
G1 X29.250 Y42.000
G1 X29.000 Y42.250
G1 X29.000 Y42.250
G1 X28.750 Y42.500
G1 X28.500 Y42.750
G1 X28.500 Y42.750
G1 X28.250 Y43.000
G1 X28.000 Y43.250
G1 X27.750 Y43.500
G1 X27.750 Y43.500
G1 X27.500 Y43.750
G1 X27.250 Y44.000
G1 X27.250 Y44.000
G1 X27.000 Y44.250
G1 X26.750 Y44.500
G1 X26.500 Y44.750
G1 X26.500 Y44.750
G1 X26.250 Y45.000
G1 X26.000 Y45.250
G1 X26.000 Y45.250
G1 X25.750 Y45.500
G1 X25.500 Y45.750
G1 X25.500 Y45.750
G1 X25.250 Y46.000
G1 X25.000 Y46.250
G1 X24.750 Y46.500
G1 X24.750 Y46.500
G1 X24.500 Y46.750
G1 X24.250 Y47.000
G1 X24.250 Y47.000
G1 X24.000 Y47.250
G1 X23.750 Y47.500
G1 X23.500 Y47.750
G1 X23.500 Y47.750
G1 X23.250 Y48.000
G1 X23.000 Y48.250
G1 X23.000 Y48.250
G1 X22.750 Y48.500
G1 X22.500 Y48.750
G1 X22.250 Y48.750
G1 X22.250 Y49.000
G1 X22.000 Y49.250
G1 X21.750 Y49.500
G1 X21.750 Y49.500
G1 X21.500 Y49.750
G1 X21.250 Y50.000
G1 X21.250 Y50.000
G1 X21.000 Y50.250
G1 X20.750 Y50.500
G1 X20.500 Y50.750
G1 X20.500 Y50.750
G1 X20.250 Y51.000
G1 X20.000 Y51.250
G1 X20.000 Y51.250
G1 X19.750 Y51.500
G1 X19.500 Y51.750
G1 X19.250 Y51.750
G1 X19.250 Y52.000
G1 X19.000 Y52.250
G1 X18.750 Y52.500
G1 X18.750 Y52.500
G1 X18.500 Y52.750
G1 X18.250 Y53.000
G1 X18.250 Y53.000
G1 X18.000 Y53.250
G1 X17.750 Y53.500
G1 X17.500 Y53.750
G1 X17.500 Y53.750
G1 X17.250 Y54.000
G1 X17.000 Y54.250
G1 X17.000 Y54.250
G1 X16.750 Y54.500
G1 X16.500 Y54.750
G1 X16.250 Y55.000
G1 X16.250 Y55.000
G1 X16.000 Y55.250
G1 X15.750 Y55.500
G1 X15.750 Y55.500
G1 X15.500 Y55.750
G1 X15.250 Y56.000
G1 X15.000 Y56.000
G1 X15.000 Y56.250
G1 X14.750 Y56.500
G1 X14.500 Y56.750
G1 X14.500 Y56.750
G1 X14.250 Y57.000
G1 X14.000 Y57.250
G1 X14.000 Y57.250
G1 X13.750 Y57.500
G1 X13.500 Y57.750
G1 X13.250 Y58.000
G1 X13.250 Y58.000
G1 X13.000 Y58.250
G1 X12.750 Y58.500
G1 X12.750 Y58.500
G1 X12.500 Y58.750
G1 X12.250 Y59.000
G1 X12.000 Y59.000
G1 X12.000 Y59.250
G1 X11.750 Y59.500
G1 X11.500 Y59.750
G1 X11.500 Y59.750
G1 X11.250 Y60.000
G1 X11.000 Y60.250
G1 X11.000 Y60.250
G1 X10.750 Y60.500
G1 X10.500 Y60.750
G1 X10.250 Y61.000
G1 X10.250 Y61.000
G1 X10.000 Y61.250
G1 X9.750 Y61.500
G1 X9.750 Y61.500
G1 X9.500 Y61.750
G1 X9.250 Y62.000
G1 X9.000 Y62.250
G1 X9.000 Y62.250
G1 X8.750 Y62.500
G1 X8.500 Y62.750
G1 X8.500 Y62.750
G1 X8.250 Y63.000
G1 X8.000 Y63.250
G1 X8.000 Y63.250
G1 X7.750 Y63.500
G1 X7.500 Y63.750
G1 X7.250 Y64.000
G1 X7.250 Y64.000
G1 X7.000 Y64.250
G1 X6.750 Y64.500
G1 X6.750 Y64.500
G1 X6.500 Y64.750
G1 X6.250 Y65.000
G1 X6.000 Y65.250
G1 X6.000 Y65.250
G1 X5.750 Y65.500
G1 X5.500 Y65.750
G1 X5.500 Y65.750
G1 X5.250 Y66.000
G1 X5.000 Y66.250
G1 X4.750 Y66.250
G1 X4.750 Y66.500
G1 X4.500 Y66.750
G1 X4.250 Y67.000
G1 X4.250 Y67.000
G1 X4.000 Y67.250
G1 X3.750 Y67.500
G1 X3.750 Y67.500
G1 X3.500 Y67.750
G1 X3.250 Y68.000
G1 X3.000 Y68.250
G1 X3.000 Y68.250
G1 X2.750 Y68.500
G1 X2.500 Y68.750
G1 X2.500 Y68.750
G1 X2.250 Y69.000
G1 X2.000 Y69.250
G1 X1.750 Y69.500
G1 X1.750 Y69.500
G1 X1.500 Y69.750
G1 X1.250 Y70.000
G1 X1.250 Y70.000
G1 X1.000 Y70.250
G1 X0.750 Y70.500
G1 X0.750 Y70.500
G1 X0.500 Y70.750
G1 X0.250 Y71.000
G1 X0.000 Y71.250
G1 X0.000 Y71.250
G1 X0.000 Y71.500
G0 Z2.000 F3000
M400
M204 P600 T600
G1 F1300
G0 X0.000 Y75.000 Z2.000
M400
M204 P200 T200
G1 F600
G1 Z0.000 F2500
G1 X0.000 Y74.750
G1 X0.000 Y74.750
G1 X0.250 Y74.500
G1 X0.500 Y74.250
G1 X0.750 Y74.250
G1 X0.750 Y74.000
G1 X1.000 Y73.750
G1 X1.250 Y73.500
G1 X1.250 Y73.500
G1 X1.500 Y73.250
G1 X1.750 Y73.000
G1 X1.750 Y73.000
G1 X2.000 Y72.750
G1 X2.250 Y72.500
G1 X2.500 Y72.500
G1 X2.500 Y72.250
G1 X2.750 Y72.000
G1 X3.000 Y71.750
G1 X3.000 Y71.750
G1 X3.250 Y71.500
G1 X3.500 Y71.250
G1 X3.750 Y71.250
G1 X3.750 Y71.000
G1 X4.000 Y70.750
G1 X4.250 Y70.500
G1 X4.250 Y70.500
G1 X4.500 Y70.250
G1 X4.750 Y70.000
G1 X4.750 Y70.000
G1 X5.000 Y69.750
G1 X5.250 Y69.500
G1 X5.500 Y69.500
G1 X5.500 Y69.250
G1 X5.750 Y69.000
G1 X6.000 Y68.750
G1 X6.000 Y68.750
G1 X6.250 Y68.500
G1 X6.500 Y68.250
G1 X6.750 Y68.250
G1 X6.750 Y68.000
G1 X7.000 Y67.750
G1 X7.250 Y67.500
G1 X7.250 Y67.500
G1 X7.500 Y67.250
G1 X7.750 Y67.000
G1 X8.000 Y67.000
G1 X8.000 Y66.750
G1 X8.250 Y66.500
G1 X8.500 Y66.250
G1 X8.500 Y66.250
G1 X8.750 Y66.000
G1 X9.000 Y65.750
G1 X9.000 Y65.750
G1 X9.250 Y65.500
G1 X9.500 Y65.250
G1 X9.750 Y65.250
G1 X9.750 Y65.000
G1 X10.000 Y64.750
G1 X10.250 Y64.500
G1 X10.250 Y64.500
G1 X10.500 Y64.250
G1 X10.750 Y64.000
G1 X11.000 Y64.000
G1 X11.000 Y63.750
G1 X11.250 Y63.500
G1 X11.500 Y63.250
G1 X11.500 Y63.250
G1 X11.750 Y63.000
G1 X12.000 Y62.750
G1 X12.000 Y62.750
G1 X12.250 Y62.500
G1 X12.500 Y62.250
G1 X12.750 Y62.250
G1 X12.750 Y62.000
G1 X13.000 Y61.750
G1 X13.250 Y61.500
G1 X13.250 Y61.500
G1 X13.500 Y61.250
G1 X13.750 Y61.000
G1 X14.000 Y61.000
G1 X14.000 Y60.750
G1 X14.250 Y60.500
G1 X14.500 Y60.250
G1 X14.500 Y60.250
G0 Z2.000 F3000

; --- CIKEL NAMAKANJA ---
G0 Z2.000 F3000
M400
M204 P600 T600
G1 F1300
G0 X62.381 Y0.000 Z8.000
G1 Z1.000 F3000
G1 X62.381 Y0.000 F2500
G1 X62.381 Y1.750 F2500
G1 X58.881 Y0.000 F2500
G1 X62.381 Y0.000 F2500
G0 Z3.000 F3000
G0 X47.129 Y16.096
G0 Z8.000 F3000
G0 X14.750 Y60.000 Z2.000
M400
M204 P200 T200
G1 F600
G1 Z0.000 F2500
G1 X14.750 Y60.000
G1 X15.000 Y59.750
G1 X15.000 Y59.750
G1 X15.250 Y59.500
G1 X15.500 Y59.250
G1 X15.750 Y59.000
G1 X15.750 Y59.000
G1 X16.000 Y58.750
G1 X16.250 Y58.500
G1 X16.250 Y58.500
G1 X16.500 Y58.250
G1 X16.750 Y58.000
G1 X17.000 Y58.000
G1 X17.000 Y57.750
G1 X17.250 Y57.500
G1 X17.500 Y57.250
G1 X17.500 Y57.250
G1 X17.750 Y57.000
G1 X18.000 Y56.750
G1 X18.250 Y56.750
G1 X18.250 Y56.500
G1 X18.500 Y56.250
G1 X18.750 Y56.000
G1 X18.750 Y56.000
G1 X19.000 Y55.750
G1 X19.250 Y55.500
G1 X19.250 Y55.500
G1 X19.500 Y55.250
G1 X19.750 Y55.000
G1 X20.000 Y55.000
G1 X20.000 Y54.750
G1 X20.250 Y54.500
G1 X20.500 Y54.250
G1 X20.500 Y54.250
G1 X20.750 Y54.000
G1 X21.000 Y53.750
G1 X21.250 Y53.750
G1 X21.250 Y53.500
G1 X21.500 Y53.250
G1 X21.750 Y53.000
G1 X21.750 Y53.000
G1 X22.000 Y52.750
G1 X22.250 Y52.500
G1 X22.250 Y52.500
G1 X22.500 Y52.250
G1 X22.750 Y52.000
G1 X23.000 Y51.750
G1 X23.000 Y51.750
G1 X23.250 Y51.500
G1 X23.500 Y51.250
G1 X23.500 Y51.250
G1 X23.750 Y51.000
G1 X24.000 Y50.750
G1 X24.250 Y50.750
G1 X24.250 Y50.500
G1 X24.500 Y50.250
G1 X24.750 Y50.000
G1 X24.750 Y50.000
G1 X25.000 Y49.750
G1 X25.250 Y49.500
G1 X25.500 Y49.500
G1 X25.500 Y49.250
G1 X25.750 Y49.000
G1 X26.000 Y48.750
G1 X26.000 Y48.750
G1 X26.250 Y48.500
G1 X26.500 Y48.250
G1 X26.500 Y48.250
G1 X26.750 Y48.000
G1 X27.000 Y47.750
G1 X27.250 Y47.750
G1 X27.250 Y47.500
G1 X27.500 Y47.250
G1 X27.750 Y47.000
G1 X27.750 Y47.000
G1 X28.000 Y46.750
G1 X28.250 Y46.500
G1 X28.500 Y46.500
G1 X28.500 Y46.250
G1 X28.750 Y46.000
G1 X29.000 Y45.750
G1 X29.000 Y45.750
G1 X29.250 Y45.500
G1 X29.500 Y45.250
G1 X29.500 Y45.250
G1 X29.750 Y45.000
G1 X30.000 Y44.750
G1 X30.250 Y44.750
G1 X30.250 Y44.500
G1 X30.500 Y44.250
G1 X30.750 Y44.000
G1 X30.750 Y44.000
G1 X31.000 Y43.750
G1 X31.250 Y43.500
G1 X31.500 Y43.500
G1 X31.500 Y43.250
G1 X31.750 Y43.000
G1 X32.000 Y42.750
G1 X32.000 Y42.750
G1 X32.250 Y42.500
G1 X32.500 Y42.250
G1 X32.750 Y42.250
G1 X32.750 Y42.000
G1 X33.000 Y41.750
G1 X33.250 Y41.500
G1 X33.250 Y41.500
G1 X33.500 Y41.250
G1 X33.750 Y41.000
G1 X33.750 Y41.000
G1 X34.000 Y40.750
G1 X34.250 Y40.500
G1 X34.500 Y40.500
G1 X34.500 Y40.250
G1 X34.750 Y40.000
G1 X35.000 Y39.750
G1 X35.000 Y39.750
G1 X35.250 Y39.500
G1 X35.500 Y39.250
G1 X35.750 Y39.250
G1 X35.750 Y39.000
G1 X36.000 Y38.750
G1 X36.250 Y38.500
G1 X36.250 Y38.500
G1 X36.500 Y38.250
G1 X36.750 Y38.000
G1 X36.750 Y38.000
G1 X37.000 Y37.750
G1 X37.250 Y37.500
G1 X37.500 Y37.500
G1 X37.500 Y37.250
G1 X37.750 Y37.000
G1 X38.000 Y36.750
G1 X38.000 Y36.750
G1 X38.250 Y36.500
G1 X38.500 Y36.250
G1 X38.750 Y36.250
G1 X38.750 Y36.000
G1 X39.000 Y35.750
G1 X39.250 Y35.500
G1 X39.250 Y35.500
G1 X39.500 Y35.250
G1 X39.750 Y35.000
G1 X39.750 Y35.000
G1 X40.000 Y34.750
G1 X40.250 Y34.500
G1 X40.500 Y34.250
G1 X40.500 Y34.250
G1 X40.750 Y34.000
G1 X41.000 Y33.750
G1 X41.000 Y33.750
G1 X41.250 Y33.500
G1 X41.500 Y33.250
G1 X41.750 Y33.250
G1 X41.750 Y33.000
G1 X42.000 Y32.750
G1 X42.250 Y32.500
G1 X42.250 Y32.500
G1 X42.500 Y32.250
G1 X42.750 Y32.000
G1 X43.000 Y32.000
G1 X43.000 Y31.750
G1 X43.250 Y31.500
G1 X43.500 Y31.250
G1 X43.500 Y31.250
G1 X43.750 Y31.000
G1 X44.000 Y30.750
G1 X44.000 Y30.750
G1 X44.250 Y30.500
G1 X44.500 Y30.250
G1 X44.750 Y30.250
G1 X44.750 Y30.000
G1 X45.000 Y29.750
G1 X45.250 Y29.500
G1 X45.250 Y29.500
G1 X45.500 Y29.250
G1 X45.750 Y29.000
G1 X46.000 Y29.000
G0 Z2.000 F3000
M400
M204 P600 T600
G1 F1300
G0 X49.500 Y29.000 Z2.000
M400
M204 P200 T200
G1 F600
G1 Z0.000 F2500
G1 X49.250 Y29.000
G1 X49.000 Y29.250
G1 X49.000 Y29.500
G1 X48.750 Y29.500
G1 X48.500 Y29.750
G1 X48.250 Y30.000
G1 X48.250 Y30.250
G1 X48.000 Y30.250
G1 X47.750 Y30.500
G1 X47.750 Y30.750
G1 X47.500 Y30.750
G1 X47.250 Y31.000
G1 X47.000 Y31.250
G1 X47.000 Y31.250
G1 X46.750 Y31.500
G1 X46.500 Y31.750
G1 X46.500 Y32.000
G1 X46.250 Y32.000
G1 X46.000 Y32.250
G1 X46.000 Y32.500
G1 X45.750 Y32.500
G1 X45.500 Y32.750
G1 X45.250 Y33.000
G1 X45.250 Y33.250
G1 X45.000 Y33.250
G1 X44.750 Y33.500
G1 X44.750 Y33.750
G1 X44.500 Y33.750
G1 X44.250 Y34.000
G1 X44.000 Y34.250
G1 X44.000 Y34.250
G1 X43.750 Y34.500
G1 X43.500 Y34.750
G1 X43.500 Y35.000
G1 X43.250 Y35.000
G1 X43.000 Y35.250
G1 X43.000 Y35.500
G1 X42.750 Y35.500
G1 X42.500 Y35.750
G1 X42.250 Y36.000
G1 X42.250 Y36.250
G1 X42.000 Y36.250
G1 X41.750 Y36.500
G1 X41.750 Y36.750
G1 X41.500 Y36.750
G1 X41.250 Y37.000
G1 X41.000 Y37.250
G1 X41.000 Y37.500
G1 X40.750 Y37.500
G1 X40.500 Y37.750
G1 X40.500 Y38.000
G1 X40.250 Y38.000
G1 X40.000 Y38.250
G1 X39.750 Y38.500
G1 X39.750 Y38.500
G1 X39.500 Y38.750
G1 X39.250 Y39.000
G1 X39.250 Y39.250
G1 X39.000 Y39.250
G1 X38.750 Y39.500
G1 X38.750 Y39.750
G1 X38.500 Y39.750
G1 X38.250 Y40.000
G1 X38.000 Y40.250
G1 X38.000 Y40.500
G1 X37.750 Y40.500
G1 X37.500 Y40.750
G1 X37.500 Y41.000
G1 X37.250 Y41.000
G1 X37.000 Y41.250
G1 X36.750 Y41.500
G1 X36.750 Y41.500
G1 X36.500 Y41.750
G1 X36.250 Y42.000
G1 X36.250 Y42.250
G1 X36.000 Y42.250
G1 X35.750 Y42.500
G1 X35.750 Y42.750
G1 X35.500 Y42.750
G1 X35.250 Y43.000
G1 X35.000 Y43.250
G1 X35.000 Y43.500
G1 X34.750 Y43.500
G1 X34.500 Y43.750
G1 X34.500 Y44.000
G1 X34.250 Y44.000
G1 X34.000 Y44.250
G1 X33.750 Y44.500
G1 X33.750 Y44.750
G1 X33.500 Y44.750
G1 X33.250 Y45.000
G1 X33.250 Y45.250
G1 X33.000 Y45.250
G1 X32.750 Y45.500
G1 X32.750 Y45.750
G1 X32.500 Y45.750
G1 X32.250 Y46.000
G1 X32.000 Y46.250
G1 X32.000 Y46.500
G1 X31.750 Y46.500
G1 X31.500 Y46.750
G1 X31.500 Y47.000
G1 X31.250 Y47.000
G1 X31.000 Y47.250
G1 X30.750 Y47.500
G1 X30.750 Y47.750
G1 X30.500 Y47.750
G1 X30.250 Y48.000
G1 X30.250 Y48.250
G1 X30.000 Y48.250
G1 X29.750 Y48.500
G1 X29.500 Y48.750
G1 X29.500 Y48.750
G1 X29.250 Y49.000
G1 X29.000 Y49.250
G1 X29.000 Y49.500
G0 Z2.000 F3000

; --- CIKEL NAMAKANJA ---
G0 Z2.000 F3000
M400
M204 P600 T600
G1 F1300
G0 X59.073 Y3.245 Z8.000
G1 Z1.000 F3000
G1 X59.073 Y3.245 F2500
G1 X59.073 Y4.995 F2500
G1 X55.573 Y3.245 F2500
G1 X59.073 Y0.000 F2500
G0 Z3.000 F3000
G0 X48.571 Y17.066
G0 Z8.000 F3000
G0 X28.750 Y49.500 Z2.000
M400
M204 P200 T200
G1 F600
G1 Z0.000 F2500
G1 X28.750 Y49.500
G1 X28.500 Y49.750
G1 X28.500 Y50.000
G1 X28.250 Y50.000
G1 X28.000 Y50.250
G1 X27.750 Y50.500
G1 X27.750 Y50.750
G1 X27.500 Y50.750
G1 X27.250 Y51.000
G1 X27.250 Y51.250
G1 X27.000 Y51.250
G1 X26.750 Y51.500
G1 X26.500 Y51.750
G1 X26.500 Y51.750
G1 X26.250 Y52.000
G1 X26.000 Y52.250
G1 X26.000 Y52.500
G1 X25.750 Y52.500
G1 X25.500 Y52.750
G1 X25.500 Y53.000
G1 X25.250 Y53.000
G1 X25.000 Y53.250
G1 X24.750 Y53.500
G1 X24.750 Y53.750
G1 X24.500 Y53.750
G1 X24.250 Y54.000
G1 X24.250 Y54.250
G1 X24.000 Y54.250
G1 X23.750 Y54.500
G1 X23.500 Y54.750
G1 X23.500 Y55.000
G1 X23.250 Y55.000
G1 X23.000 Y55.250
G1 X23.000 Y55.500
G1 X22.750 Y55.500
G1 X22.500 Y55.750
G1 X22.250 Y56.000
G1 X22.250 Y56.000
G1 X22.000 Y56.250
G1 X21.750 Y56.500
G1 X21.750 Y56.750
G1 X21.500 Y56.750
G1 X21.250 Y57.000
G1 X21.250 Y57.250
G1 X21.000 Y57.250
G1 X20.750 Y57.500
G1 X20.500 Y57.750
G1 X20.500 Y58.000
G1 X20.250 Y58.000
G1 X20.000 Y58.250
G1 X20.000 Y58.500
G1 X19.750 Y58.500
G1 X19.500 Y58.750
G1 X19.250 Y59.000
G1 X19.250 Y59.000
G1 X19.000 Y59.250
G1 X18.750 Y59.500
G1 X18.750 Y59.750
G1 X18.500 Y59.750
G1 X18.250 Y60.000
G1 X18.250 Y60.250
G1 X18.000 Y60.250
G1 X17.750 Y60.500
G1 X17.500 Y60.750
G1 X17.500 Y61.000
G1 X17.250 Y61.000
G1 X17.000 Y61.250
G1 X17.000 Y61.500
G1 X16.750 Y61.500
G1 X16.500 Y61.750
G1 X16.250 Y62.000
G1 X16.250 Y62.250
G1 X16.000 Y62.250
G1 X15.750 Y62.500
G1 X15.750 Y62.750
G1 X15.500 Y62.750
G1 X15.250 Y63.000
G1 X15.000 Y63.250
G1 X15.000 Y63.250
G1 X14.750 Y63.500
G1 X14.500 Y63.750
G1 X14.500 Y64.000
G1 X14.250 Y64.000
G1 X14.000 Y64.250
G1 X14.000 Y64.500
G1 X13.750 Y64.500
G1 X13.500 Y64.750
G1 X13.250 Y65.000
G1 X13.250 Y65.250
G1 X13.000 Y65.250
G1 X12.750 Y65.500
G1 X12.750 Y65.750
G1 X12.500 Y65.750
G1 X12.250 Y66.000
G1 X12.000 Y66.250
G1 X12.000 Y66.250
G1 X11.750 Y66.500
G1 X11.500 Y66.750
G1 X11.500 Y67.000
G1 X11.250 Y67.000
G1 X11.000 Y67.250
G1 X11.000 Y67.500
G1 X10.750 Y67.500
G1 X10.500 Y67.750
G1 X10.250 Y68.000
G1 X10.250 Y68.250
G1 X10.000 Y68.250
G1 X9.750 Y68.500
G1 X9.750 Y68.750
G1 X9.500 Y68.750
G1 X9.250 Y69.000
G1 X9.000 Y69.250
G1 X9.000 Y69.500
G1 X8.750 Y69.500
G1 X8.500 Y69.750
G1 X8.500 Y70.000
G1 X8.250 Y70.000
G1 X8.000 Y70.250
G1 X8.000 Y70.500
G1 X7.750 Y70.500
G1 X7.500 Y70.750
G1 X7.250 Y71.000
G1 X7.250 Y71.250
G1 X7.000 Y71.250
G1 X6.750 Y71.500
G1 X6.750 Y71.750
G1 X6.500 Y71.750
G1 X6.250 Y72.000
G1 X6.000 Y72.250
G1 X6.000 Y72.500
G1 X5.750 Y72.500
G1 X5.500 Y72.750
G1 X5.500 Y73.000
G1 X5.250 Y73.000
G1 X5.000 Y73.250
G1 X4.750 Y73.500
G1 X4.750 Y73.500
G1 X4.500 Y73.750
G1 X4.250 Y74.000
G1 X4.250 Y74.250
G1 X4.000 Y74.250
G1 X3.750 Y74.500
G1 X3.750 Y74.750
G1 X3.500 Y74.750
G1 X3.250 Y75.000
G1 X3.000 Y75.250
G1 X3.000 Y75.500
G1 X2.750 Y75.500
G1 X2.500 Y75.750
G1 X2.500 Y76.000
G1 X2.250 Y76.000
G1 X2.000 Y76.250
G1 X1.750 Y76.500
G1 X1.750 Y76.500
G1 X1.500 Y76.750
G1 X1.250 Y77.000
G1 X1.250 Y77.250
G1 X1.000 Y77.250
G1 X0.750 Y77.500
G1 X0.750 Y77.750
G1 X0.500 Y77.750
G1 X0.250 Y78.000
G1 X0.000 Y78.250
G1 X0.000 Y78.500
G1 X0.000 Y78.500
G0 Z2.000 F3000
M400
M204 P600 T600
G1 F1300
G0 X0.000 Y82.000 Z2.000
M400
M204 P200 T200
G1 F600
G1 Z0.000 F2500
G1 X0.000 Y82.000
G1 X0.000 Y81.750
G1 X0.250 Y81.500
G1 X0.500 Y81.500
G1 X0.750 Y81.250
G1 X0.750 Y81.000
G1 X1.000 Y80.750
G1 X1.250 Y80.750
G1 X1.250 Y80.500
G1 X1.500 Y80.250
G1 X1.750 Y80.250
G1 X1.750 Y80.000
G1 X2.000 Y79.750
G1 X2.250 Y79.750
G1 X2.500 Y79.500
G1 X2.500 Y79.250
G1 X2.750 Y79.000
G1 X3.000 Y79.000
G1 X3.000 Y78.750
G1 X3.250 Y78.500
G1 X3.500 Y78.500
G1 X3.750 Y78.250
G1 X3.750 Y78.000
G1 X4.000 Y77.750
G1 X4.250 Y77.750
G1 X4.250 Y77.500
G1 X4.500 Y77.250
G1 X4.750 Y77.250
G1 X4.750 Y77.000
G1 X5.000 Y76.750
G1 X5.250 Y76.500
G1 X5.500 Y76.500
G1 X5.500 Y76.250
G1 X5.750 Y76.000
G1 X6.000 Y76.000
G1 X6.000 Y75.750
G1 X6.250 Y75.500
G1 X6.500 Y75.500
G1 X6.750 Y75.250
G1 X6.750 Y75.000
G1 X7.000 Y74.750
G1 X7.250 Y74.750
G1 X7.250 Y74.500
G1 X7.500 Y74.250
G1 X7.750 Y74.250
G1 X8.000 Y74.000
G1 X8.000 Y73.750
G1 X8.250 Y73.500
G1 X8.500 Y73.500
G1 X8.500 Y73.250
G1 X8.750 Y73.000
G1 X9.000 Y73.000
G1 X9.000 Y72.750
G1 X9.250 Y72.500
G1 X9.500 Y72.500
G1 X9.750 Y72.250
G1 X9.750 Y72.000
G1 X10.000 Y71.750
G1 X10.250 Y71.750
G1 X10.250 Y71.500
G1 X10.500 Y71.250
G1 X10.750 Y71.250
G1 X11.000 Y71.000
G1 X11.000 Y70.750
G1 X11.250 Y70.500
G1 X11.500 Y70.500
G1 X11.500 Y70.250
G1 X11.750 Y70.000
G1 X12.000 Y70.000
G1 X12.000 Y69.750
G1 X12.250 Y69.500
G1 X12.500 Y69.500
G1 X12.750 Y69.250
G1 X12.750 Y69.000
G1 X13.000 Y68.750
G1 X13.250 Y68.750
G1 X13.250 Y68.500
G1 X13.500 Y68.250
G1 X13.750 Y68.250
G1 X14.000 Y68.000
G1 X14.000 Y67.750
G1 X14.250 Y67.500
G1 X14.500 Y67.500
G1 X14.500 Y67.250
G1 X14.750 Y67.000
G1 X15.000 Y67.000
G1 X15.000 Y66.750
G1 X15.250 Y66.500
G1 X15.500 Y66.250
G1 X15.750 Y66.250
G1 X15.750 Y66.000
G1 X16.000 Y65.750
G1 X16.250 Y65.750
G1 X16.250 Y65.500
G1 X16.500 Y65.250
G1 X16.750 Y65.250
G1 X17.000 Y65.000
G1 X17.000 Y64.750
G1 X17.250 Y64.500
G1 X17.500 Y64.500
G1 X17.500 Y64.250
G1 X17.750 Y64.000
G1 X18.000 Y64.000
G1 X18.250 Y63.750
G1 X18.250 Y63.500
G1 X18.500 Y63.250
G1 X18.750 Y63.250
G1 X18.750 Y63.000
G1 X19.000 Y62.750
G1 X19.250 Y62.750
G1 X19.250 Y62.500
G1 X19.500 Y62.250
G1 X19.750 Y62.250
G1 X20.000 Y62.000
G1 X20.000 Y61.750
G1 X20.250 Y61.500
G1 X20.500 Y61.500
G1 X20.500 Y61.250
G1 X20.750 Y61.000
G1 X21.000 Y61.000
G1 X21.250 Y60.750
G1 X21.250 Y60.500
G1 X21.500 Y60.250
G1 X21.750 Y60.250
G1 X21.750 Y60.000
G1 X22.000 Y59.750
G1 X22.250 Y59.750
G1 X22.250 Y59.500
G1 X22.500 Y59.250
G1 X22.750 Y59.000
G1 X23.000 Y59.000
G1 X23.000 Y58.750
G1 X23.250 Y58.500
G1 X23.500 Y58.500
G1 X23.500 Y58.250
G1 X23.750 Y58.000
G1 X24.000 Y58.000
G1 X24.250 Y57.750
G1 X24.250 Y57.500
G1 X24.500 Y57.250
G1 X24.750 Y57.250
G1 X24.750 Y57.000
G1 X25.000 Y56.750
G1 X25.250 Y56.750
G1 X25.500 Y56.500
G1 X25.500 Y56.250
G1 X25.750 Y56.000
G1 X26.000 Y56.000
G1 X26.000 Y55.750
G0 Z2.000 F3000

; --- CIKEL NAMAKANJA ---
G0 Z2.000 F3000
M400
M204 P600 T600
G1 F1300
G0 X57.390 Y0.000 Z8.000
G1 Z1.000 F3000
G1 X57.390 Y0.000 F2500
G1 X57.390 Y1.750 F2500
G1 X53.890 Y0.000 F2500
G1 X57.390 Y0.000 F2500
G0 Z3.000 F3000
G0 X48.836 Y17.225
G0 Z8.000 F3000
G0 X26.250 Y55.500 Z2.000
M400
M204 P200 T200
G1 F600
G1 Z0.000 F2500
G1 X26.250 Y55.500
G1 X26.500 Y55.500
G1 X26.500 Y55.250
G1 X26.750 Y55.000
G1 X27.000 Y55.000
G1 X27.250 Y54.750
G1 X27.250 Y54.500
G1 X27.500 Y54.250
G1 X27.750 Y54.250
G1 X27.750 Y54.000
G1 X28.000 Y53.750
G1 X28.250 Y53.750
G1 X28.500 Y53.500
G1 X28.500 Y53.250
G1 X28.750 Y53.000
G1 X29.000 Y53.000
G1 X29.000 Y52.750
G1 X29.250 Y52.500
G1 X29.500 Y52.500
G1 X29.500 Y52.250
G1 X29.750 Y52.000
G1 X30.000 Y51.750
G1 X30.250 Y51.750
G1 X30.250 Y51.500
G1 X30.500 Y51.250
G1 X30.750 Y51.250
G1 X30.750 Y51.000
G1 X31.000 Y50.750
G1 X31.250 Y50.750
G1 X31.500 Y50.500
G1 X31.500 Y50.250
G1 X31.750 Y50.000
G1 X32.000 Y50.000
G1 X32.000 Y49.750
G1 X32.250 Y49.500
G1 X32.500 Y49.500
G1 X32.750 Y49.250
G1 X32.750 Y49.000
G1 X33.000 Y48.750
G1 X33.250 Y48.750
G1 X33.250 Y48.500
G1 X33.500 Y48.250
G1 X33.750 Y48.250
G1 X33.750 Y48.000
G1 X34.000 Y47.750
G1 X34.250 Y47.750
G1 X34.500 Y47.500
G1 X34.500 Y47.250
G1 X34.750 Y47.000
G1 X35.000 Y47.000
G1 X35.000 Y46.750
G1 X35.250 Y46.500
G1 X35.500 Y46.500
G1 X35.750 Y46.250
G1 X35.750 Y46.000
G1 X36.000 Y45.750
G1 X36.250 Y45.750
G1 X36.250 Y45.500
G1 X36.500 Y45.250
G1 X36.750 Y45.250
G1 X36.750 Y45.000
G1 X37.000 Y44.750
G1 X37.250 Y44.750
G1 X37.500 Y44.500
G1 X37.500 Y44.250
G1 X37.750 Y44.000
G1 X38.000 Y44.000
G1 X38.000 Y43.750
G1 X38.250 Y43.500
G1 X38.500 Y43.500
G1 X38.750 Y43.250
G1 X38.750 Y43.000
G1 X39.000 Y42.750
G1 X39.250 Y42.750
G1 X39.250 Y42.500
G1 X39.500 Y42.250
G1 X39.750 Y42.250
G1 X39.750 Y42.000
G1 X40.000 Y41.750
G1 X40.250 Y41.500
G1 X40.500 Y41.500
G1 X40.500 Y41.250
G1 X40.750 Y41.000
G1 X41.000 Y41.000
G1 X41.000 Y40.750
G1 X41.250 Y40.500
G1 X41.500 Y40.500
G1 X41.750 Y40.250
G1 X41.750 Y40.000
G1 X42.000 Y39.750
G1 X42.250 Y39.750
G1 X42.250 Y39.500
G1 X42.500 Y39.250
G1 X42.750 Y39.250
G1 X43.000 Y39.000
G1 X43.000 Y38.750
G1 X43.250 Y38.500
G1 X43.500 Y38.500
G1 X43.500 Y38.250
G1 X43.750 Y38.000
G1 X44.000 Y38.000
G1 X44.000 Y37.750
G1 X44.250 Y37.500
G1 X44.500 Y37.500
G1 X44.750 Y37.250
G1 X44.750 Y37.000
G1 X45.000 Y36.750
G1 X45.250 Y36.750
G1 X45.250 Y36.500
G1 X45.500 Y36.250
G1 X45.750 Y36.250
G1 X46.000 Y36.000
G1 X46.000 Y35.750
G1 X46.250 Y35.500
G1 X46.500 Y35.500
G1 X46.500 Y35.250
G1 X46.750 Y35.000
G1 X47.000 Y35.000
G1 X47.000 Y34.750
G1 X47.250 Y34.500
G1 X47.500 Y34.250
G1 X47.750 Y34.250
G1 X47.750 Y34.000
G1 X48.000 Y33.750
G1 X48.250 Y33.750
G1 X48.250 Y33.500
G1 X48.500 Y33.250
G1 X48.750 Y33.250
G1 X49.000 Y33.000
G1 X49.000 Y32.750
G1 X49.250 Y32.500
G1 X49.500 Y32.500
G1 X49.500 Y32.250
G1 X49.750 Y32.000
G1 X50.000 Y32.000
G1 X50.250 Y31.750
G1 X50.250 Y31.500
G1 X50.500 Y31.250
G1 X50.750 Y31.250
G1 X50.750 Y31.000
G1 X51.000 Y30.750
G1 X51.250 Y30.750
G1 X51.250 Y30.500
G1 X51.500 Y30.250
G1 X51.750 Y30.250
G1 X52.000 Y30.000
G1 X52.000 Y29.750
G1 X52.250 Y29.500
G1 X52.500 Y29.500
G1 X52.500 Y29.250
G1 X52.750 Y29.000
G1 X53.000 Y29.000
G0 Z2.000 F3000
M400
M204 P600 T600
G1 F1300
G0 X56.500 Y29.000 Z2.000
M400
M204 P200 T200
G1 F600
G1 Z0.000 F2500
G1 X56.250 Y29.000
G1 X56.250 Y29.250
G1 X56.000 Y29.500
G1 X55.750 Y29.500
G1 X55.500 Y29.750
G1 X55.500 Y30.000
G1 X55.250 Y30.250
G1 X55.000 Y30.250
G1 X55.000 Y30.500
G1 X54.750 Y30.750
G1 X54.500 Y30.750
G1 X54.250 Y31.000
G1 X54.250 Y31.250
G1 X54.000 Y31.250
G1 X53.750 Y31.500
G1 X53.750 Y31.750
G1 X53.500 Y32.000
G1 X53.250 Y32.000
G1 X53.250 Y32.250
G1 X53.000 Y32.500
G1 X52.750 Y32.500
G1 X52.500 Y32.750
G1 X52.500 Y33.000
G1 X52.250 Y33.250
G1 X52.000 Y33.250
G1 X52.000 Y33.500
G1 X51.750 Y33.750
G1 X51.500 Y33.750
G1 X51.250 Y34.000
G1 X51.250 Y34.250
G1 X51.000 Y34.250
G1 X50.750 Y34.500
G1 X50.750 Y34.750
G1 X50.500 Y35.000
G1 X50.250 Y35.000
G1 X50.250 Y35.250
G1 X50.000 Y35.500
G1 X49.750 Y35.500
G1 X49.500 Y35.750
G1 X49.500 Y36.000
G1 X49.250 Y36.250
G1 X49.000 Y36.250
G1 X49.000 Y36.500
G1 X48.750 Y36.750
G1 X48.500 Y36.750
G1 X48.250 Y37.000
G1 X48.250 Y37.250
G1 X48.000 Y37.500
G1 X47.750 Y37.500
G1 X47.750 Y37.750
G1 X47.500 Y38.000
G1 X47.250 Y38.000
G1 X47.000 Y38.250
G1 X47.000 Y38.500
G1 X46.750 Y38.500
G1 X46.500 Y38.750
G1 X46.500 Y39.000
G1 X46.250 Y39.250
G1 X46.000 Y39.250
G1 X46.000 Y39.500
G1 X45.750 Y39.750
G1 X45.500 Y39.750
G1 X45.250 Y40.000
G1 X45.250 Y40.250
G1 X45.000 Y40.500
G1 X44.750 Y40.500
G1 X44.750 Y40.750
G1 X44.500 Y41.000
G1 X44.250 Y41.000
G1 X44.000 Y41.250
G1 X44.000 Y41.500
G1 X43.750 Y41.500
G1 X43.500 Y41.750
G1 X43.500 Y42.000
G1 X43.250 Y42.250
G1 X43.000 Y42.250
G1 X43.000 Y42.500
G1 X42.750 Y42.750
G1 X42.500 Y42.750
G1 X42.250 Y43.000
G1 X42.250 Y43.250
G1 X42.000 Y43.500
G1 X41.750 Y43.500
G1 X41.750 Y43.750
G1 X41.500 Y44.000
G1 X41.250 Y44.000
G1 X41.000 Y44.250
G1 X41.000 Y44.500
G1 X40.750 Y44.750
G1 X40.500 Y44.750
G1 X40.500 Y45.000
G1 X40.250 Y45.250
G1 X40.000 Y45.250
G1 X39.750 Y45.500
G1 X39.750 Y45.750
G1 X39.500 Y45.750
G1 X39.250 Y46.000
G1 X39.250 Y46.250
G1 X39.000 Y46.500
G1 X38.750 Y46.500
G1 X38.750 Y46.750
G1 X38.500 Y47.000
G1 X38.250 Y47.000
G1 X38.000 Y47.250
G1 X38.000 Y47.500
G1 X37.750 Y47.750
G1 X37.500 Y47.750
G1 X37.500 Y48.000
G1 X37.250 Y48.250
G1 X37.000 Y48.250
G1 X36.750 Y48.500
G1 X36.750 Y48.750
G1 X36.500 Y48.750
G1 X36.250 Y49.000
G1 X36.250 Y49.250
G1 X36.000 Y49.500
G1 X35.750 Y49.500
G1 X35.750 Y49.750
G1 X35.500 Y50.000
G1 X35.250 Y50.000
G1 X35.000 Y50.250
G1 X35.000 Y50.500
G1 X34.750 Y50.750
G1 X34.500 Y50.750
G1 X34.500 Y51.000
G1 X34.250 Y51.250
G1 X34.000 Y51.250
G1 X33.750 Y51.500
G1 X33.750 Y51.750
G1 X33.500 Y51.750
G1 X33.250 Y52.000
G1 X33.250 Y52.250
G1 X33.000 Y52.500
G1 X32.750 Y52.500
G1 X32.750 Y52.750
G1 X32.500 Y53.000
G1 X32.250 Y53.000
G1 X32.000 Y53.250
G1 X32.000 Y53.500
G1 X31.750 Y53.750
G1 X31.500 Y53.750
G1 X31.500 Y54.000
G1 X31.250 Y54.250
G1 X31.000 Y54.250
G1 X30.750 Y54.500
G1 X30.750 Y54.750
G1 X30.500 Y55.000
G1 X30.250 Y55.000
G1 X30.250 Y55.250
G1 X30.000 Y55.500
G1 X29.750 Y55.500
G1 X29.500 Y55.750
G1 X29.500 Y56.000
G1 X29.250 Y56.000
G1 X29.000 Y56.250
G1 X29.000 Y56.500
G1 X28.750 Y56.750
G1 X28.500 Y56.750
G1 X28.500 Y57.000
G1 X28.250 Y57.250
G1 X28.000 Y57.250
G1 X27.750 Y57.500
G1 X27.750 Y57.750
G1 X27.500 Y58.000
G1 X27.250 Y58.000
G1 X27.250 Y58.250
G1 X27.000 Y58.500
G1 X26.750 Y58.500
G1 X26.500 Y58.750
G1 X26.500 Y59.000
G1 X26.250 Y59.000
G1 X26.000 Y59.250
G1 X26.000 Y59.500
G1 X25.750 Y59.750
G1 X25.500 Y59.750
G1 X25.500 Y60.000
G1 X25.250 Y60.250
G1 X25.000 Y60.250
G1 X24.750 Y60.500
G1 X24.750 Y60.750
G1 X24.500 Y61.000
G1 X24.250 Y61.000
G1 X24.250 Y61.250
G1 X24.000 Y61.500
G1 X23.750 Y61.500
G0 Z2.000 F3000

; --- CIKEL NAMAKANJA ---
G0 Z2.000 F3000
M400
M204 P600 T600
G1 F1300
G0 X65.077 Y5.622 Z8.000
G1 Z1.000 F3000
G1 X65.077 Y5.622 F2500
G1 X65.077 Y7.372 F2500
G1 X61.577 Y5.622 F2500
G1 X65.077 Y0.372 F2500
G0 Z3.000 F3000
G0 X49.032 Y17.339
G0 Z8.000 F3000
G0 X23.500 Y61.750 Z2.000
M400
M204 P200 T200
G1 F600
G1 Z0.000 F2500
G1 X23.500 Y61.750
G1 X23.500 Y62.000
G1 X23.250 Y62.250
G1 X23.000 Y62.250
G1 X23.000 Y62.500
G1 X22.750 Y62.750
G1 X22.500 Y62.750
G1 X22.250 Y63.000
G1 X22.250 Y63.250
G1 X22.000 Y63.250
G1 X21.750 Y63.500
G1 X21.750 Y63.750
G1 X21.500 Y64.000
G1 X21.250 Y64.000
G1 X21.250 Y64.250
G1 X21.000 Y64.500
G1 X20.750 Y64.500
G1 X20.500 Y64.750
G1 X20.500 Y65.000
G1 X20.250 Y65.250
G1 X20.000 Y65.250
G1 X20.000 Y65.500
G1 X19.750 Y65.750
G1 X19.500 Y65.750
G1 X19.250 Y66.000
G1 X19.250 Y66.250
G1 X19.000 Y66.250
G1 X18.750 Y66.500
G1 X18.750 Y66.750
G1 X18.500 Y67.000
G1 X18.250 Y67.000
G1 X18.250 Y67.250
G1 X18.000 Y67.500
G1 X17.750 Y67.500
G1 X17.500 Y67.750
G1 X17.500 Y68.000
G1 X17.250 Y68.250
G1 X17.000 Y68.250
G1 X17.000 Y68.500
G1 X16.750 Y68.750
G1 X16.500 Y68.750
G1 X16.250 Y69.000
G1 X16.250 Y69.250
G1 X16.000 Y69.500
G1 X15.750 Y69.500
G1 X15.750 Y69.750
G1 X15.500 Y70.000
G1 X15.250 Y70.000
G1 X15.000 Y70.250
G1 X15.000 Y70.500
G1 X14.750 Y70.500
G1 X14.500 Y70.750
G1 X14.500 Y71.000
G1 X14.250 Y71.250
G1 X14.000 Y71.250
G1 X14.000 Y71.500
G1 X13.750 Y71.750
G1 X13.500 Y71.750
G1 X13.250 Y72.000
G1 X13.250 Y72.250
G1 X13.000 Y72.500
G1 X12.750 Y72.500
G1 X12.750 Y72.750
G1 X12.500 Y73.000
G1 X12.250 Y73.000
G1 X12.000 Y73.250
G1 X12.000 Y73.500
G1 X11.750 Y73.500
G1 X11.500 Y73.750
G1 X11.500 Y74.000
G1 X11.250 Y74.250
G1 X11.000 Y74.250
G1 X11.000 Y74.500
G1 X10.750 Y74.750
G1 X10.500 Y74.750
G1 X10.250 Y75.000
G1 X10.250 Y75.250
G1 X10.000 Y75.500
G1 X9.750 Y75.500
G1 X9.750 Y75.750
G1 X9.500 Y76.000
G1 X9.250 Y76.000
G1 X9.000 Y76.250
G1 X9.000 Y76.500
G1 X8.750 Y76.500
G1 X8.500 Y76.750
G1 X8.500 Y77.000
G1 X8.250 Y77.250
G1 X8.000 Y77.250
G1 X8.000 Y77.500
G1 X7.750 Y77.750
G1 X7.500 Y77.750
G1 X7.250 Y78.000
G1 X7.250 Y78.250
G1 X7.000 Y78.500
G1 X6.750 Y78.500
G1 X6.750 Y78.750
G1 X6.500 Y79.000
G1 X6.250 Y79.000
G1 X6.000 Y79.250
G1 X6.000 Y79.500
G1 X5.750 Y79.750
G1 X5.500 Y79.750
G1 X5.500 Y80.000
G1 X5.250 Y80.250
G1 X5.000 Y80.250
G1 X4.750 Y80.500
G1 X4.750 Y80.750
G1 X4.500 Y80.750
G1 X4.250 Y81.000
G1 X4.250 Y81.250
G1 X4.000 Y81.500
G1 X3.750 Y81.500
G1 X3.750 Y81.750
G1 X3.500 Y82.000
G1 X3.250 Y82.000
G1 X3.000 Y82.250
G1 X3.000 Y82.500
G1 X2.750 Y82.750
G1 X2.500 Y82.750
G1 X2.500 Y83.000
G1 X2.250 Y83.250
G1 X2.000 Y83.250
G1 X1.750 Y83.500
G1 X1.750 Y83.750
G1 X1.500 Y83.750
G1 X1.250 Y84.000
G1 X1.250 Y84.250
G1 X1.000 Y84.500
G1 X0.750 Y84.500
G1 X0.750 Y84.750
G1 X0.500 Y85.000
G1 X0.250 Y85.000
G1 X0.000 Y85.250
G1 X0.000 Y85.500
G1 X0.000 Y85.750
G0 Z2.000 F3000
M400
M204 P600 T600
G1 F1300
G0 X0.000 Y89.250 Z2.000
M400
M204 P200 T200
G1 F600
G1 Z0.000 F2500
G1 X0.000 Y89.000
G1 X0.000 Y88.750
G1 X0.250 Y88.750
G1 X0.500 Y88.500
G1 X0.750 Y88.250
G1 X0.750 Y88.000
G1 X1.000 Y88.000
G1 X1.250 Y87.750
G1 X1.250 Y87.500
G1 X1.500 Y87.500
G1 X1.750 Y87.250
G1 X1.750 Y87.000
G1 X2.000 Y87.000
G1 X2.250 Y86.750
G1 X2.500 Y86.500
G1 X2.500 Y86.250
G1 X2.750 Y86.250
G1 X3.000 Y86.000
G1 X3.000 Y85.750
G1 X3.250 Y85.750
G1 X3.500 Y85.500
G1 X3.750 Y85.250
G1 X3.750 Y85.000
G1 X4.000 Y85.000
G1 X4.250 Y84.750
G1 X4.250 Y84.500
G1 X4.500 Y84.500
G1 X4.750 Y84.250
G1 X4.750 Y84.000
G1 X5.000 Y83.750
G1 X5.250 Y83.750
G1 X5.500 Y83.500
G1 X5.500 Y83.250
G1 X5.750 Y83.250
G1 X6.000 Y83.000
G1 X6.000 Y82.750
G1 X6.250 Y82.750
G1 X6.500 Y82.500
G1 X6.750 Y82.250
G1 X6.750 Y82.000
G1 X7.000 Y82.000
G1 X7.250 Y81.750
G1 X7.250 Y81.500
G1 X7.500 Y81.500
G1 X7.750 Y81.250
G1 X8.000 Y81.000
G1 X8.000 Y80.750
G1 X8.250 Y80.750
G1 X8.500 Y80.500
G1 X8.500 Y80.250
G1 X8.750 Y80.250
G1 X9.000 Y80.000
G1 X9.000 Y79.750
G1 X9.250 Y79.750
G1 X9.500 Y79.500
G1 X9.750 Y79.250
G1 X9.750 Y79.000
G1 X10.000 Y79.000
G1 X10.250 Y78.750
G1 X10.250 Y78.500
G1 X10.500 Y78.500
G1 X10.750 Y78.250
G1 X11.000 Y78.000
G1 X11.000 Y77.750
G1 X11.250 Y77.750
G1 X11.500 Y77.500
G1 X11.500 Y77.250
G1 X11.750 Y77.250
G1 X12.000 Y77.000
G1 X12.000 Y76.750
G1 X12.250 Y76.500
G1 X12.500 Y76.500
G1 X12.750 Y76.250
G1 X12.750 Y76.000
G1 X13.000 Y76.000
G1 X13.250 Y75.750
G1 X13.250 Y75.500
G1 X13.500 Y75.500
G1 X13.750 Y75.250
G1 X14.000 Y75.000
G1 X14.000 Y74.750
G1 X14.250 Y74.750
G1 X14.500 Y74.500
G1 X14.500 Y74.250
G1 X14.750 Y74.250
G1 X15.000 Y74.000
G1 X15.000 Y73.750
G1 X15.250 Y73.500
G1 X15.500 Y73.500
G1 X15.750 Y73.250
G1 X15.750 Y73.000
G1 X16.000 Y73.000
G1 X16.250 Y72.750
G1 X16.250 Y72.500
G1 X16.500 Y72.500
G1 X16.750 Y72.250
G1 X17.000 Y72.000
G1 X17.000 Y71.750
G1 X17.250 Y71.750
G1 X17.500 Y71.500
G1 X17.500 Y71.250
G1 X17.750 Y71.250
G1 X18.000 Y71.000
G1 X18.250 Y70.750
G1 X18.250 Y70.500
G1 X18.500 Y70.500
G1 X18.750 Y70.250
G1 X18.750 Y70.000
G1 X19.000 Y70.000
G1 X19.250 Y69.750
G1 X19.250 Y69.500
G1 X19.500 Y69.500
G1 X19.750 Y69.250
G1 X20.000 Y69.000
G1 X20.000 Y68.750
G1 X20.250 Y68.750
G1 X20.500 Y68.500
G1 X20.500 Y68.250
G1 X20.750 Y68.250
G1 X21.000 Y68.000
G1 X21.250 Y67.750
G1 X21.250 Y67.500
G1 X21.500 Y67.500
G1 X21.750 Y67.250
G1 X21.750 Y67.000
G1 X22.000 Y67.000
G1 X22.250 Y66.750
G1 X22.250 Y66.500
G1 X22.500 Y66.250
G1 X22.750 Y66.250
G1 X23.000 Y66.000
G1 X23.000 Y65.750
G1 X23.250 Y65.750
G1 X23.500 Y65.500
G1 X23.500 Y65.250
G1 X23.750 Y65.250
G1 X24.000 Y65.000
G1 X24.250 Y64.750
G1 X24.250 Y64.500
G1 X24.500 Y64.500
G1 X24.750 Y64.250
G0 Z2.000 F3000

; --- CIKEL NAMAKANJA ---
G0 Z2.000 F3000
M400
M204 P600 T600
G1 F1300
G0 X65.314 Y6.198 Z8.000
G1 Z1.000 F3000
G1 X65.314 Y6.198 F2500
G1 X65.314 Y7.948 F2500
G1 X61.814 Y6.198 F2500
G1 X65.314 Y0.948 F2500
G0 Z3.000 F3000
G0 X49.563 Y17.634
G0 Z8.000 F3000
G0 X24.750 Y64.000 Z2.000
M400
M204 P200 T200
G1 F600
G1 Z0.000 F2500
G1 X24.750 Y64.000
G1 X25.000 Y64.000
G1 X25.250 Y63.750
G1 X25.500 Y63.500
G1 X25.500 Y63.250
G1 X25.750 Y63.250
G1 X26.000 Y63.000
G1 X26.000 Y62.750
G1 X26.250 Y62.750
G1 X26.500 Y62.500
G1 X26.500 Y62.250
G1 X26.750 Y62.250
G1 X27.000 Y62.000
G1 X27.250 Y61.750
G1 X27.250 Y61.500
G1 X27.500 Y61.500
G1 X27.750 Y61.250
G1 X27.750 Y61.000
G1 X28.000 Y61.000
G1 X28.250 Y60.750
G1 X28.500 Y60.500
G1 X28.500 Y60.250
G1 X28.750 Y60.250
G1 X29.000 Y60.000
G1 X29.000 Y59.750
G1 X29.250 Y59.750
G1 X29.500 Y59.500
G1 X29.500 Y59.250
G1 X29.750 Y59.000
G1 X30.000 Y59.000
G1 X30.250 Y58.750
G1 X30.250 Y58.500
G1 X30.500 Y58.500
G1 X30.750 Y58.250
G1 X30.750 Y58.000
G1 X31.000 Y58.000
G1 X31.250 Y57.750
G1 X31.500 Y57.500
G1 X31.500 Y57.250
G1 X31.750 Y57.250
G1 X32.000 Y57.000
G1 X32.000 Y56.750
G1 X32.250 Y56.750
G1 X32.500 Y56.500
G1 X32.750 Y56.250
G1 X32.750 Y56.000
G1 X33.000 Y56.000
G1 X33.250 Y55.750
G1 X33.250 Y55.500
G1 X33.500 Y55.500
G1 X33.750 Y55.250
G1 X33.750 Y55.000
G1 X34.000 Y55.000
G1 X34.250 Y54.750
G1 X34.500 Y54.500
G1 X34.500 Y54.250
G1 X34.750 Y54.250
G1 X35.000 Y54.000
G1 X35.000 Y53.750
G1 X35.250 Y53.750
G1 X35.500 Y53.500
G1 X35.750 Y53.250
G1 X35.750 Y53.000
G1 X36.000 Y53.000
G1 X36.250 Y52.750
G1 X36.250 Y52.500
G1 X36.500 Y52.500
G1 X36.750 Y52.250
G1 X36.750 Y52.000
G1 X37.000 Y51.750
G1 X37.250 Y51.750
G1 X37.500 Y51.500
G1 X37.500 Y51.250
G1 X37.750 Y51.250
G1 X38.000 Y51.000
G1 X38.000 Y50.750
G1 X38.250 Y50.750
G1 X38.500 Y50.500
G1 X38.750 Y50.250
G1 X38.750 Y50.000
G1 X39.000 Y50.000
G1 X39.250 Y49.750
G1 X39.250 Y49.500
G1 X39.500 Y49.500
G1 X39.750 Y49.250
G1 X39.750 Y49.000
G1 X40.000 Y48.750
G1 X40.250 Y48.750
G1 X40.500 Y48.500
G1 X40.500 Y48.250
G1 X40.750 Y48.250
G1 X41.000 Y48.000
G1 X41.000 Y47.750
G1 X41.250 Y47.750
G1 X41.500 Y47.500
G1 X41.750 Y47.250
G1 X41.750 Y47.000
G1 X42.000 Y47.000
G1 X42.250 Y46.750
G1 X42.250 Y46.500
G1 X42.500 Y46.500
G1 X42.750 Y46.250
G1 X43.000 Y46.000
G1 X43.000 Y45.750
G1 X43.250 Y45.750
G1 X43.500 Y45.500
G1 X43.500 Y45.250
G1 X43.750 Y45.250
G1 X44.000 Y45.000
G1 X44.000 Y44.750
G1 X44.250 Y44.750
G1 X44.500 Y44.500
G1 X44.750 Y44.250
G1 X44.750 Y44.000
G1 X45.000 Y44.000
G1 X45.250 Y43.750
G1 X45.250 Y43.500
G1 X45.500 Y43.500
G1 X45.750 Y43.250
G1 X46.000 Y43.000
G1 X46.000 Y42.750
G1 X46.250 Y42.750
G1 X46.500 Y42.500
G1 X46.500 Y42.250
G1 X46.750 Y42.250
G1 X47.000 Y42.000
G1 X47.000 Y41.750
G1 X47.250 Y41.500
G1 X47.500 Y41.500
G1 X47.750 Y41.250
G1 X47.750 Y41.000
G1 X48.000 Y41.000
G1 X48.250 Y40.750
G1 X48.250 Y40.500
G1 X48.500 Y40.500
G1 X48.750 Y40.250
G1 X49.000 Y40.000
G1 X49.000 Y39.750
G1 X49.250 Y39.750
G1 X49.500 Y39.500
G1 X49.500 Y39.250
G1 X49.750 Y39.250
G1 X50.000 Y39.000
G1 X50.250 Y38.750
G1 X50.250 Y38.500
G1 X50.500 Y38.500
G1 X50.750 Y38.250
G1 X50.750 Y38.000
G1 X51.000 Y38.000
G1 X51.250 Y37.750
G1 X51.250 Y37.500
G1 X51.500 Y37.500
G1 X51.750 Y37.250
G1 X52.000 Y37.000
G1 X52.000 Y36.750
G1 X52.250 Y36.750
G1 X52.500 Y36.500
G1 X52.500 Y36.250
G1 X52.750 Y36.250
G1 X53.000 Y36.000
G1 X53.250 Y35.750
G1 X53.250 Y35.500
G1 X53.500 Y35.500
G1 X53.750 Y35.250
G1 X53.750 Y35.000
G1 X54.000 Y35.000
G1 X54.250 Y34.750
G1 X54.250 Y34.500
G1 X54.500 Y34.250
G1 X54.750 Y34.250
G1 X55.000 Y34.000
G1 X55.000 Y33.750
G1 X55.250 Y33.750
G1 X55.500 Y33.500
G1 X55.500 Y33.250
G1 X55.750 Y33.250
G1 X56.000 Y33.000
G1 X56.250 Y32.750
G1 X56.250 Y32.500
G1 X56.500 Y32.500
G1 X56.750 Y32.250
G1 X56.750 Y32.000
G1 X57.000 Y32.000
G1 X57.250 Y31.750
G1 X57.250 Y31.500
G1 X57.500 Y31.250
G1 X57.750 Y31.250
G1 X58.000 Y31.000
G1 X58.000 Y30.750
G1 X58.250 Y30.750
G1 X58.500 Y30.500
G1 X58.500 Y30.250
G1 X58.750 Y30.250
G1 X59.000 Y30.000
G1 X59.250 Y29.750
G1 X59.250 Y29.500
G1 X59.500 Y29.500
G1 X59.750 Y29.250
G1 X59.750 Y29.000
G1 X60.000 Y29.000
G0 Z2.000 F3000
M400
M204 P600 T600
G1 F1300
G0 X63.500 Y29.000 Z2.000
M400
M204 P200 T200
G1 F600
G1 Z0.000 F2500
G1 X63.500 Y29.000
G1 X63.250 Y29.250
G1 X63.000 Y29.500
G1 X62.750 Y29.500
G1 X62.750 Y29.750
G1 X62.500 Y30.000
G1 X62.250 Y30.250
G1 X62.250 Y30.250
G1 X62.000 Y30.500
G1 X61.750 Y30.750
G1 X61.500 Y30.750
G1 X61.500 Y31.000
G1 X61.250 Y31.250
G1 X61.000 Y31.250
G1 X61.000 Y31.500
G1 X60.750 Y31.750
G1 X60.500 Y32.000
G1 X60.500 Y32.000
G1 X60.250 Y32.250
G1 X60.000 Y32.500
G1 X59.750 Y32.500
G1 X59.750 Y32.750
G1 X59.500 Y33.000
G1 X59.250 Y33.250
G1 X59.250 Y33.250
G1 X59.000 Y33.500
G1 X58.750 Y33.750
G1 X58.500 Y33.750
G1 X58.500 Y34.000
G1 X58.250 Y34.250
G1 X58.000 Y34.250
G1 X58.000 Y34.500
G1 X57.750 Y34.750
G1 X57.500 Y35.000
G1 X57.250 Y35.000
G1 X57.250 Y35.250
G1 X57.000 Y35.500
G1 X56.750 Y35.500
G1 X56.750 Y35.750
G1 X56.500 Y36.000
G1 X56.250 Y36.250
G1 X56.250 Y36.250
G1 X56.000 Y36.500
G1 X55.750 Y36.750
G1 X55.500 Y36.750
G1 X55.500 Y37.000
G1 X55.250 Y37.250
G1 X55.000 Y37.500
G1 X55.000 Y37.500
G1 X54.750 Y37.750
G1 X54.500 Y38.000
G1 X54.250 Y38.000
G1 X54.250 Y38.250
G1 X54.000 Y38.500
G1 X53.750 Y38.500
G1 X53.750 Y38.750
G1 X53.500 Y39.000
G1 X53.250 Y39.250
G1 X53.250 Y39.250
G1 X53.000 Y39.500
G1 X52.750 Y39.750
G1 X52.500 Y39.750
G1 X52.500 Y40.000
G1 X52.250 Y40.250
G1 X52.000 Y40.500
G1 X52.000 Y40.500
G1 X51.750 Y40.750
G1 X51.500 Y41.000
G1 X51.250 Y41.000
G1 X51.250 Y41.250
G1 X51.000 Y41.500
G1 X50.750 Y41.500
G1 X50.750 Y41.750
G1 X50.500 Y42.000
G1 X50.250 Y42.250
G1 X50.250 Y42.250
G1 X50.000 Y42.500
G1 X49.750 Y42.750
G1 X49.500 Y42.750
G1 X49.500 Y43.000
G1 X49.250 Y43.250
G1 X49.000 Y43.500
G1 X49.000 Y43.500
G0 Z2.000 F3000

; --- CIKEL NAMAKANJA ---
G0 Z2.000 F3000
M400
M204 P600 T600
G1 F1300
G0 X63.597 Y4.979 Z8.000
G1 Z1.000 F3000
G1 X63.597 Y4.979 F2500
G1 X63.597 Y6.729 F2500
G1 X60.097 Y4.979 F2500
G1 X63.597 Y0.000 F2500
G0 Z3.000 F3000
G0 X54.438 Y19.473
G0 Z8.000 F3000
G0 X48.750 Y43.750 Z2.000
M400
M204 P200 T200
G1 F600
G1 Z0.000 F2500
G1 X48.750 Y43.750
G1 X48.500 Y44.000
G1 X48.250 Y44.000
G1 X48.250 Y44.250
G1 X48.000 Y44.500
G1 X47.750 Y44.750
G1 X47.750 Y44.750
G1 X47.500 Y45.000
G1 X47.250 Y45.250
G1 X47.000 Y45.250
G1 X47.000 Y45.500
G1 X46.750 Y45.750
G1 X46.500 Y45.750
G1 X46.500 Y46.000
G1 X46.250 Y46.250
G1 X46.000 Y46.500
G1 X46.000 Y46.500
G1 X45.750 Y46.750
G1 X45.500 Y47.000
G1 X45.250 Y47.000
G1 X45.250 Y47.250
G1 X45.000 Y47.500
G1 X44.750 Y47.750
G1 X44.750 Y47.750
G1 X44.500 Y48.000
G1 X44.250 Y48.250
G1 X44.000 Y48.250
G1 X44.000 Y48.500
G1 X43.750 Y48.750
G1 X43.500 Y48.750
G1 X43.500 Y49.000
G1 X43.250 Y49.250
G1 X43.000 Y49.500
G1 X43.000 Y49.500
G1 X42.750 Y49.750
G1 X42.500 Y50.000
G1 X42.250 Y50.000
G1 X42.250 Y50.250
G1 X42.000 Y50.500
G1 X41.750 Y50.750
G1 X41.750 Y50.750
G1 X41.500 Y51.000
G1 X41.250 Y51.250
G1 X41.000 Y51.250
G1 X41.000 Y51.500
G1 X40.750 Y51.750
G1 X40.500 Y51.750
G1 X40.500 Y52.000
G1 X40.250 Y52.250
G1 X40.000 Y52.500
G1 X39.750 Y52.500
G1 X39.750 Y52.750
G1 X39.500 Y53.000
G1 X39.250 Y53.000
G1 X39.250 Y53.250
G1 X39.000 Y53.500
G1 X38.750 Y53.750
G1 X38.750 Y53.750
G1 X38.500 Y54.000
G1 X38.250 Y54.250
G1 X38.000 Y54.250
G1 X38.000 Y54.500
G1 X37.750 Y54.750
G1 X37.500 Y55.000
G1 X37.500 Y55.000
G1 X37.250 Y55.250
G1 X37.000 Y55.500
G1 X36.750 Y55.500
G1 X36.750 Y55.750
G1 X36.500 Y56.000
G1 X36.250 Y56.000
G1 X36.250 Y56.250
G1 X36.000 Y56.500
G1 X35.750 Y56.750
G1 X35.750 Y56.750
G1 X35.500 Y57.000
G1 X35.250 Y57.250
G1 X35.000 Y57.250
G1 X35.000 Y57.500
G1 X34.750 Y57.750
G1 X34.500 Y58.000
G1 X34.500 Y58.000
G1 X34.250 Y58.250
G1 X34.000 Y58.500
G1 X33.750 Y58.500
G1 X33.750 Y58.750
G1 X33.500 Y59.000
G1 X33.250 Y59.000
G1 X33.250 Y59.250
G1 X33.000 Y59.500
G1 X32.750 Y59.750
G1 X32.750 Y59.750
G1 X32.500 Y60.000
G1 X32.250 Y60.250
G1 X32.000 Y60.250
G1 X32.000 Y60.500
G1 X31.750 Y60.750
G1 X31.500 Y61.000
G1 X31.500 Y61.000
G1 X31.250 Y61.250
G1 X31.000 Y61.500
G1 X30.750 Y61.500
G1 X30.750 Y61.750
G1 X30.500 Y62.000
G1 X30.250 Y62.250
G1 X30.250 Y62.250
G1 X30.000 Y62.500
G1 X29.750 Y62.750
G1 X29.500 Y62.750
G1 X29.500 Y63.000
G1 X29.250 Y63.250
G1 X29.000 Y63.250
G1 X29.000 Y63.500
G1 X28.750 Y63.750
G1 X28.500 Y64.000
G1 X28.500 Y64.000
G1 X28.250 Y64.250
G1 X28.000 Y64.500
G1 X27.750 Y64.500
G1 X27.750 Y64.750
G1 X27.500 Y65.000
G1 X27.250 Y65.250
G1 X27.250 Y65.250
G1 X27.000 Y65.500
G1 X26.750 Y65.750
G1 X26.500 Y65.750
G1 X26.500 Y66.000
G1 X26.250 Y66.250
G1 X26.000 Y66.250
G1 X26.000 Y66.500
G1 X25.750 Y66.750
G1 X25.500 Y67.000
G1 X25.500 Y67.000
G1 X25.250 Y67.250
G1 X25.000 Y67.500
G1 X24.750 Y67.500
G1 X24.750 Y67.750
G1 X24.500 Y68.000
G1 X24.250 Y68.250
G1 X24.250 Y68.250
G1 X24.000 Y68.500
G1 X23.750 Y68.750
G1 X23.500 Y68.750
G1 X23.500 Y69.000
G1 X23.250 Y69.250
G1 X23.000 Y69.500
G1 X23.000 Y69.500
G1 X22.750 Y69.750
G1 X22.500 Y70.000
G1 X22.250 Y70.000
G1 X22.250 Y70.250
G1 X22.000 Y70.500
G1 X21.750 Y70.500
G1 X21.750 Y70.750
G1 X21.500 Y71.000
G1 X21.250 Y71.250
G1 X21.250 Y71.250
G1 X21.000 Y71.500
G1 X20.750 Y71.750
G1 X20.500 Y71.750
G1 X20.500 Y72.000
G1 X20.250 Y72.250
G1 X20.000 Y72.500
G1 X20.000 Y72.500
G1 X19.750 Y72.750
G1 X19.500 Y73.000
G1 X19.250 Y73.000
G1 X19.250 Y73.250
G1 X19.000 Y73.500
G1 X18.750 Y73.500
G1 X18.750 Y73.750
G1 X18.500 Y74.000
G1 X18.250 Y74.250
G1 X18.250 Y74.250
G1 X18.000 Y74.500
G1 X17.750 Y74.750
G1 X17.500 Y74.750
G1 X17.500 Y75.000
G1 X17.250 Y75.250
G1 X17.000 Y75.500
G1 X17.000 Y75.500
G1 X16.750 Y75.750
G1 X16.500 Y76.000
G1 X16.250 Y76.000
G1 X16.250 Y76.250
G1 X16.000 Y76.500
G1 X15.750 Y76.500
G1 X15.750 Y76.750
G1 X15.500 Y77.000
G1 X15.250 Y77.250
G1 X15.000 Y77.250
G1 X15.000 Y77.500
G1 X14.750 Y77.750
G1 X14.500 Y77.750
G1 X14.500 Y78.000
G1 X14.250 Y78.250
G1 X14.000 Y78.500
G1 X14.000 Y78.500
G1 X13.750 Y78.750
G1 X13.500 Y79.000
G1 X13.250 Y79.000
G1 X13.250 Y79.250
G1 X13.000 Y79.500
G1 X12.750 Y79.750
G1 X12.750 Y79.750
G1 X12.500 Y80.000
G1 X12.250 Y80.250
G1 X12.000 Y80.250
G1 X12.000 Y80.500
G1 X11.750 Y80.750
G1 X11.500 Y80.750
G1 X11.500 Y81.000
G1 X11.250 Y81.250
G1 X11.000 Y81.500
G1 X11.000 Y81.500
G1 X10.750 Y81.750
G1 X10.500 Y82.000
G1 X10.250 Y82.000
G1 X10.250 Y82.250
G1 X10.000 Y82.500
G1 X9.750 Y82.750
G1 X9.750 Y82.750
G1 X9.500 Y83.000
G1 X9.250 Y83.250
G1 X9.000 Y83.250
G1 X9.000 Y83.500
G1 X8.750 Y83.750
G1 X8.500 Y83.750
G1 X8.500 Y84.000
G1 X8.250 Y84.250
G1 X8.000 Y84.500
G1 X8.000 Y84.500
G1 X7.750 Y84.750
G1 X7.500 Y85.000
G1 X7.250 Y85.000
G1 X7.250 Y85.250
G1 X7.000 Y85.500
G1 X6.750 Y85.750
G1 X6.750 Y85.750
G1 X6.500 Y86.000
G1 X6.250 Y86.250
G1 X6.000 Y86.250
G1 X6.000 Y86.500
G1 X5.750 Y86.750
G1 X5.500 Y87.000
G1 X5.500 Y87.000
G1 X5.250 Y87.250
G1 X5.000 Y87.500
G1 X4.750 Y87.500
G1 X4.750 Y87.750
G1 X4.500 Y88.000
G1 X4.250 Y88.000
G1 X4.250 Y88.250
G1 X4.000 Y88.500
G1 X3.750 Y88.750
G1 X3.750 Y88.750
G1 X3.500 Y89.000
G1 X3.250 Y89.250
G1 X3.000 Y89.250
G1 X3.000 Y89.500
G1 X2.750 Y89.750
G1 X2.500 Y90.000
G1 X2.500 Y90.000
G1 X2.250 Y90.250
G1 X2.000 Y90.500
G1 X1.750 Y90.500
G1 X1.750 Y90.750
G1 X1.500 Y91.000
G1 X1.250 Y91.000
G1 X1.250 Y91.250
G1 X1.000 Y91.500
G1 X0.750 Y91.750
G1 X0.750 Y91.750
G1 X0.500 Y92.000
G1 X0.250 Y92.250
G1 X0.000 Y92.250
G1 X0.000 Y92.500
G1 X0.000 Y92.750
G0 Z2.000 F3000
M400
M204 P600 T600
G1 F1300
G0 X0.000 Y96.250 Z2.000
M400
M204 P200 T200
G1 F600
G1 Z0.000 F2500
G1 X0.000 Y96.000
G1 X0.000 Y96.000
G1 X0.250 Y95.750
G1 X0.500 Y95.500
G1 X0.750 Y95.250
G1 X0.750 Y95.250
G1 X1.000 Y95.000
G1 X1.250 Y94.750
G1 X1.250 Y94.750
G1 X1.500 Y94.500
G1 X1.750 Y94.250
G1 X1.750 Y94.000
G1 X2.000 Y94.000
G1 X2.250 Y93.750
G1 X2.500 Y93.500
G1 X2.500 Y93.500
G1 X2.750 Y93.250
G1 X3.000 Y93.000
G1 X3.000 Y93.000
G1 X3.250 Y92.750
G1 X3.500 Y92.500
G1 X3.750 Y92.250
G1 X3.750 Y92.250
G1 X4.000 Y92.000
G1 X4.250 Y91.750
G1 X4.250 Y91.750
G1 X4.500 Y91.500
G1 X4.750 Y91.250
G1 X4.750 Y91.000
G1 X5.000 Y91.000
G1 X5.250 Y90.750
G1 X5.500 Y90.500
G1 X5.500 Y90.500
G1 X5.750 Y90.250
G1 X6.000 Y90.000
G1 X6.000 Y90.000
G0 Z2.000 F3000

; --- CIKEL NAMAKANJA ---
G0 Z2.000 F3000
M400
M204 P600 T600
G1 F1300
G0 X57.423 Y0.000 Z8.000
G1 Z1.000 F3000
G1 X57.423 Y0.000 F2500
G1 X57.423 Y1.750 F2500
G1 X53.923 Y0.000 F2500
G1 X57.423 Y0.000 F2500
G0 Z3.000 F3000
G0 X48.866 Y17.242
G0 Z8.000 F3000
G0 X6.250 Y89.750 Z2.000
M400
M204 P200 T200
G1 F600
G1 Z0.000 F2500
G1 X6.250 Y89.750
G1 X6.500 Y89.500
G1 X6.750 Y89.250
G1 X6.750 Y89.250
G1 X7.000 Y89.000
G1 X7.250 Y88.750
G1 X7.250 Y88.750
G1 X7.500 Y88.500
G1 X7.750 Y88.250
G1 X8.000 Y88.000
G1 X8.000 Y88.000
G1 X8.250 Y87.750
G1 X8.500 Y87.500
G1 X8.500 Y87.500
G1 X8.750 Y87.250
G1 X9.000 Y87.000
G1 X9.000 Y87.000
G1 X9.250 Y86.750
G1 X9.500 Y86.500
G1 X9.750 Y86.250
G1 X9.750 Y86.250
G1 X10.000 Y86.000
G1 X10.250 Y85.750
G1 X10.250 Y85.750
G1 X10.500 Y85.500
G1 X10.750 Y85.250
G1 X11.000 Y85.000
G1 X11.000 Y85.000
G1 X11.250 Y84.750
G1 X11.500 Y84.500
G1 X11.500 Y84.500
G1 X11.750 Y84.250
G1 X12.000 Y84.000
G1 X12.000 Y83.750
G1 X12.250 Y83.750
G1 X12.500 Y83.500
G1 X12.750 Y83.250
G1 X12.750 Y83.250
G1 X13.000 Y83.000
G1 X13.250 Y82.750
G1 X13.250 Y82.750
G1 X13.500 Y82.500
G1 X13.750 Y82.250
G1 X14.000 Y82.000
G1 X14.000 Y82.000
G1 X14.250 Y81.750
G1 X14.500 Y81.500
G1 X14.500 Y81.500
G1 X14.750 Y81.250
G1 X15.000 Y81.000
G1 X15.000 Y80.750
G1 X15.250 Y80.750
G1 X15.500 Y80.500
G1 X15.750 Y80.250
G1 X15.750 Y80.250
G1 X16.000 Y80.000
G1 X16.250 Y79.750
G1 X16.250 Y79.750
G1 X16.500 Y79.500
G1 X16.750 Y79.250
G1 X17.000 Y79.000
G1 X17.000 Y79.000
G1 X17.250 Y78.750
G1 X17.500 Y78.500
G1 X17.500 Y78.500
G1 X17.750 Y78.250
G1 X18.000 Y78.000
G1 X18.250 Y77.750
G1 X18.250 Y77.750
G1 X18.500 Y77.500
G1 X18.750 Y77.250
G1 X18.750 Y77.250
G1 X19.000 Y77.000
G1 X19.250 Y76.750
G1 X19.250 Y76.500
G1 X19.500 Y76.500
G1 X19.750 Y76.250
G1 X20.000 Y76.000
G1 X20.000 Y76.000
G1 X20.250 Y75.750
G1 X20.500 Y75.500
G1 X20.500 Y75.500
G1 X20.750 Y75.250
G1 X21.000 Y75.000
G1 X21.250 Y74.750
G1 X21.250 Y74.750
G1 X21.500 Y74.500
G1 X21.750 Y74.250
G1 X21.750 Y74.250
G1 X22.000 Y74.000
G1 X22.250 Y73.750
G1 X22.250 Y73.500
G1 X22.500 Y73.500
G1 X22.750 Y73.250
G1 X23.000 Y73.000
G1 X23.000 Y73.000
G1 X23.250 Y72.750
G1 X23.500 Y72.500
G1 X23.500 Y72.500
G1 X23.750 Y72.250
G1 X24.000 Y72.000
G1 X24.250 Y71.750
G1 X24.250 Y71.750
G1 X24.500 Y71.500
G1 X24.750 Y71.250
G1 X24.750 Y71.250
G1 X25.000 Y71.000
G1 X25.250 Y70.750
G1 X25.500 Y70.500
G1 X25.500 Y70.500
G1 X25.750 Y70.250
G1 X26.000 Y70.000
G1 X26.000 Y70.000
G1 X26.250 Y69.750
G1 X26.500 Y69.500
G1 X26.500 Y69.500
G1 X26.750 Y69.250
G1 X27.000 Y69.000
G1 X27.250 Y68.750
G1 X27.250 Y68.750
G1 X27.500 Y68.500
G1 X27.750 Y68.250
G1 X27.750 Y68.250
G1 X28.000 Y68.000
G1 X28.250 Y67.750
G1 X28.500 Y67.500
G1 X28.500 Y67.500
G1 X28.750 Y67.250
G1 X29.000 Y67.000
G1 X29.000 Y67.000
G1 X29.250 Y66.750
G1 X29.500 Y66.500
G1 X29.500 Y66.250
G1 X29.750 Y66.250
G1 X30.000 Y66.000
G1 X30.250 Y65.750
G1 X30.250 Y65.750
G1 X30.500 Y65.500
G1 X30.750 Y65.250
G1 X30.750 Y65.250
G1 X31.000 Y65.000
G1 X31.250 Y64.750
G1 X31.500 Y64.500
G1 X31.500 Y64.500
G1 X31.750 Y64.250
G1 X32.000 Y64.000
G1 X32.000 Y64.000
G1 X32.250 Y63.750
G1 X32.500 Y63.500
G1 X32.750 Y63.250
G1 X32.750 Y63.250
G1 X33.000 Y63.000
G1 X33.250 Y62.750
G1 X33.250 Y62.750
G1 X33.500 Y62.500
G1 X33.750 Y62.250
G1 X33.750 Y62.250
G1 X34.000 Y62.000
G1 X34.250 Y61.750
G1 X34.500 Y61.500
G1 X34.500 Y61.500
G1 X34.750 Y61.250
G1 X35.000 Y61.000
G1 X35.000 Y61.000
G1 X35.250 Y60.750
G1 X35.500 Y60.500
G1 X35.750 Y60.250
G1 X35.750 Y60.250
G1 X36.000 Y60.000
G1 X36.250 Y59.750
G1 X36.250 Y59.750
G1 X36.500 Y59.500
G1 X36.750 Y59.250
G1 X36.750 Y59.000
G1 X37.000 Y59.000
G1 X37.250 Y58.750
G1 X37.500 Y58.500
G1 X37.500 Y58.500
G1 X37.750 Y58.250
G1 X38.000 Y58.000
G1 X38.000 Y58.000
G1 X38.250 Y57.750
G1 X38.500 Y57.500
G1 X38.750 Y57.250
G1 X38.750 Y57.250
G1 X39.000 Y57.000
G1 X39.250 Y56.750
G1 X39.250 Y56.750
G1 X39.500 Y56.500
G1 X39.750 Y56.250
G1 X39.750 Y56.000
G1 X40.000 Y56.000
G1 X40.250 Y55.750
G1 X40.500 Y55.500
G1 X40.500 Y55.500
G1 X40.750 Y55.250
G1 X41.000 Y55.000
G1 X41.000 Y55.000
G1 X41.250 Y54.750
G1 X41.500 Y54.500
G1 X41.750 Y54.250
G1 X41.750 Y54.250
G1 X42.000 Y54.000
G1 X42.250 Y53.750
G1 X42.250 Y53.750
G1 X42.500 Y53.500
G1 X42.750 Y53.250
G1 X43.000 Y53.000
G1 X43.000 Y53.000
G1 X43.250 Y52.750
G1 X43.500 Y52.500
G1 X43.500 Y52.500
G1 X43.750 Y52.250
G1 X44.000 Y52.000
G1 X44.000 Y51.750
G1 X44.250 Y51.750
G1 X44.500 Y51.500
G1 X44.750 Y51.250
G1 X44.750 Y51.250
G1 X45.000 Y51.000
G1 X45.250 Y50.750
G1 X45.250 Y50.750
G1 X45.500 Y50.500
G1 X45.750 Y50.250
G1 X46.000 Y50.000
G1 X46.000 Y50.000
G1 X46.250 Y49.750
G1 X46.500 Y49.500
G1 X46.500 Y49.500
G1 X46.750 Y49.250
G1 X47.000 Y49.000
G1 X47.000 Y48.750
G1 X47.250 Y48.750
G1 X47.500 Y48.500
G1 X47.750 Y48.250
G1 X47.750 Y48.250
G1 X48.000 Y48.000
G1 X48.250 Y47.750
G1 X48.250 Y47.750
G1 X48.500 Y47.500
G1 X48.750 Y47.250
G1 X49.000 Y47.000
G1 X49.000 Y47.000
G1 X49.250 Y46.750
G1 X49.500 Y46.500
G1 X49.500 Y46.500
G1 X49.750 Y46.250
G1 X50.000 Y46.000
G1 X50.250 Y45.750
G1 X50.250 Y45.750
G1 X50.500 Y45.500
G1 X50.750 Y45.250
G1 X50.750 Y45.250
G1 X51.000 Y45.000
G1 X51.250 Y44.750
G1 X51.250 Y44.750
G1 X51.500 Y44.500
G1 X51.750 Y44.250
G1 X52.000 Y44.000
G1 X52.000 Y44.000
G1 X52.250 Y43.750
G1 X52.500 Y43.500
G1 X52.500 Y43.500
G1 X52.750 Y43.250
G1 X53.000 Y43.000
G1 X53.250 Y42.750
G1 X53.250 Y42.750
G1 X53.500 Y42.500
G1 X53.750 Y42.250
G1 X53.750 Y42.250
G1 X54.000 Y42.000
G1 X54.250 Y41.750
G1 X54.250 Y41.500
G1 X54.500 Y41.500
G1 X54.750 Y41.250
G1 X55.000 Y41.000
G1 X55.000 Y41.000
G1 X55.250 Y40.750
G1 X55.500 Y40.500
G1 X55.500 Y40.500
G1 X55.750 Y40.250
G1 X56.000 Y40.000
G1 X56.250 Y39.750
G1 X56.250 Y39.750
G1 X56.500 Y39.500
G1 X56.750 Y39.250
G1 X56.750 Y39.250
G1 X57.000 Y39.000
G1 X57.250 Y38.750
G1 X57.250 Y38.500
G1 X57.500 Y38.500
G1 X57.750 Y38.250
G1 X58.000 Y38.000
G1 X58.000 Y38.000
G1 X58.250 Y37.750
G1 X58.500 Y37.500
G1 X58.500 Y37.500
G1 X58.750 Y37.250
G1 X59.000 Y37.000
G1 X59.250 Y36.750
G1 X59.250 Y36.750
G1 X59.500 Y36.500
G1 X59.750 Y36.250
G1 X59.750 Y36.250
G1 X60.000 Y36.000
G1 X60.250 Y35.750
G1 X60.500 Y35.500
G1 X60.500 Y35.500
G1 X60.750 Y35.250
G1 X61.000 Y35.000
G1 X61.000 Y35.000
G1 X61.250 Y34.750
G1 X61.500 Y34.500
G1 X61.500 Y34.250
G1 X61.750 Y34.250
G1 X62.000 Y34.000
G1 X62.250 Y33.750
G1 X62.250 Y33.750
G1 X62.500 Y33.500
G1 X62.750 Y33.250
G1 X62.750 Y33.250
G1 X63.000 Y33.000
G1 X63.250 Y32.750
G1 X63.500 Y32.500
G1 X63.500 Y32.500
G1 X63.750 Y32.250
G1 X64.000 Y32.000
G1 X64.000 Y32.000
G1 X64.250 Y31.750
G1 X64.500 Y31.500
G1 X64.500 Y31.250
G1 X64.750 Y31.250
G1 X65.000 Y31.000
G1 X65.250 Y30.750
G1 X65.250 Y30.750
G1 X65.500 Y30.500
G1 X65.750 Y30.250
G1 X65.750 Y30.250
G1 X66.000 Y30.000
G1 X66.250 Y29.750
G1 X66.500 Y29.500
G1 X66.500 Y29.500
G1 X66.750 Y29.250
G1 X67.000 Y29.000
G1 X67.000 Y29.000
G0 Z2.000 F3000
M400
M204 P600 T600
G1 F1300
G0 X70.750 Y29.000 Z2.000
M400
M204 P200 T200
G1 F600
G1 Z0.000 F2500
G1 X70.500 Y29.000
G1 X70.250 Y29.250
G1 X70.000 Y29.500
G1 X70.000 Y29.500
G1 X69.750 Y29.750
G1 X69.500 Y30.000
G1 X69.500 Y30.250
G1 X69.250 Y30.250
G1 X69.000 Y30.500
G1 X68.750 Y30.750
G1 X68.750 Y30.750
G1 X68.500 Y31.000
G1 X68.250 Y31.250
G1 X68.250 Y31.250
G1 X68.000 Y31.500
G1 X67.750 Y31.750
G1 X67.750 Y32.000
G1 X67.500 Y32.000
G1 X67.250 Y32.250
G1 X67.000 Y32.500
G1 X67.000 Y32.500
G1 X66.750 Y32.750
G1 X66.500 Y33.000
G1 X66.500 Y33.250
G1 X66.250 Y33.250
G1 X66.000 Y33.500
G1 X65.750 Y33.750
G1 X65.750 Y33.750
G1 X65.500 Y34.000
G0 Z2.000 F3000

; --- CIKEL NAMAKANJA ---
G0 Z2.000 F3000
M400
M204 P600 T600
G1 F1300
G0 X61.182 Y6.940 Z8.000
G1 Z1.000 F3000
G1 X61.182 Y6.940 F2500
G1 X61.182 Y8.690 F2500
G1 X57.682 Y6.940 F2500
G1 X61.182 Y1.690 F2500
G0 Z3.000 F3000
G0 X62.590 Y19.675
G0 Z8.000 F3000
G0 X65.250 Y34.250 Z2.000
M400
M204 P200 T200
G1 F600
G1 Z0.000 F2500
G1 X65.250 Y34.250
G1 X65.250 Y34.250
G1 X65.000 Y34.500
G1 X64.750 Y34.750
G1 X64.500 Y35.000
G1 X64.500 Y35.000
G1 X64.250 Y35.250
G1 X64.000 Y35.500
G1 X64.000 Y35.500
G1 X63.750 Y35.750
G1 X63.500 Y36.000
G1 X63.500 Y36.250
G1 X63.250 Y36.250
G1 X63.000 Y36.500
G1 X62.750 Y36.750
G1 X62.750 Y36.750
G1 X62.500 Y37.000
G1 X62.250 Y37.250
G1 X62.250 Y37.500
G1 X62.000 Y37.500
G1 X61.750 Y37.750
G1 X61.500 Y38.000
G1 X61.500 Y38.000
G1 X61.250 Y38.250
G1 X61.000 Y38.500
G1 X61.000 Y38.500
G1 X60.750 Y38.750
G1 X60.500 Y39.000
G1 X60.500 Y39.250
G1 X60.250 Y39.250
G1 X60.000 Y39.500
G1 X59.750 Y39.750
G1 X59.750 Y39.750
G1 X59.500 Y40.000
G1 X59.250 Y40.250
G1 X59.250 Y40.500
G1 X59.000 Y40.500
G1 X58.750 Y40.750
G1 X58.500 Y41.000
G1 X58.500 Y41.000
G1 X58.250 Y41.250
G1 X58.000 Y41.500
G1 X58.000 Y41.500
G1 X57.750 Y41.750
G1 X57.500 Y42.000
G1 X57.250 Y42.250
G1 X57.250 Y42.250
G1 X57.000 Y42.500
G1 X56.750 Y42.750
G1 X56.750 Y42.750
G1 X56.500 Y43.000
G1 X56.250 Y43.250
G1 X56.250 Y43.500
G1 X56.000 Y43.500
G1 X55.750 Y43.750
G1 X55.500 Y44.000
G1 X55.500 Y44.000
G1 X55.250 Y44.250
G1 X55.000 Y44.500
G1 X55.000 Y44.750
G1 X54.750 Y44.750
G1 X54.500 Y45.000
G1 X54.250 Y45.250
G1 X54.250 Y45.250
G1 X54.000 Y45.500
G1 X53.750 Y45.750
G1 X53.750 Y45.750
G1 X53.500 Y46.000
G1 X53.250 Y46.250
G1 X53.250 Y46.500
G1 X53.000 Y46.500
G1 X52.750 Y46.750
G1 X52.500 Y47.000
G1 X52.500 Y47.000
G1 X52.250 Y47.250
G1 X52.000 Y47.500
G1 X52.000 Y47.750
G1 X51.750 Y47.750
G1 X51.500 Y48.000
G1 X51.250 Y48.250
G1 X51.250 Y48.250
G1 X51.000 Y48.500
G1 X50.750 Y48.750
G1 X50.750 Y48.750
G1 X50.500 Y49.000
G1 X50.250 Y49.250
G1 X50.250 Y49.500
G1 X50.000 Y49.500
G1 X49.750 Y49.750
G1 X49.500 Y50.000
G1 X49.500 Y50.000
G1 X49.250 Y50.250
G1 X49.000 Y50.500
G1 X49.000 Y50.750
G1 X48.750 Y50.750
G1 X48.500 Y51.000
G1 X48.250 Y51.250
G1 X48.250 Y51.250
G1 X48.000 Y51.500
G1 X47.750 Y51.750
G1 X47.750 Y51.750
G1 X47.500 Y52.000
G1 X47.250 Y52.250
G1 X47.000 Y52.500
G1 X47.000 Y52.500
G1 X46.750 Y52.750
G1 X46.500 Y53.000
G1 X46.500 Y53.000
G1 X46.250 Y53.250
G1 X46.000 Y53.500
G1 X46.000 Y53.750
G1 X45.750 Y53.750
G1 X45.500 Y54.000
G1 X45.250 Y54.250
G1 X45.250 Y54.250
G1 X45.000 Y54.500
G1 X44.750 Y54.750
G1 X44.750 Y55.000
G1 X44.500 Y55.000
G1 X44.250 Y55.250
G1 X44.000 Y55.500
G1 X44.000 Y55.500
G1 X43.750 Y55.750
G1 X43.500 Y56.000
G1 X43.500 Y56.000
G1 X43.250 Y56.250
G1 X43.000 Y56.500
G1 X43.000 Y56.750
G1 X42.750 Y56.750
G1 X42.500 Y57.000
G1 X42.250 Y57.250
G1 X42.250 Y57.250
G1 X42.000 Y57.500
G1 X41.750 Y57.750
G1 X41.750 Y58.000
G1 X41.500 Y58.000
G1 X41.250 Y58.250
G1 X41.000 Y58.500
G1 X41.000 Y58.500
G1 X40.750 Y58.750
G1 X40.500 Y59.000
G1 X40.500 Y59.000
G1 X40.250 Y59.250
G1 X40.000 Y59.500
G1 X39.750 Y59.750
G1 X39.750 Y59.750
G1 X39.500 Y60.000
G1 X39.250 Y60.250
G1 X39.250 Y60.250
G1 X39.000 Y60.500
G1 X38.750 Y60.750
G1 X38.750 Y61.000
G1 X38.500 Y61.000
G1 X38.250 Y61.250
G1 X38.000 Y61.500
G1 X38.000 Y61.500
G1 X37.750 Y61.750
G1 X37.500 Y62.000
G1 X37.500 Y62.250
G1 X37.250 Y62.250
G1 X37.000 Y62.500
G1 X36.750 Y62.750
G1 X36.750 Y62.750
G1 X36.500 Y63.000
G1 X36.250 Y63.250
G1 X36.250 Y63.250
G1 X36.000 Y63.500
G1 X35.750 Y63.750
G1 X35.750 Y64.000
G1 X35.500 Y64.000
G1 X35.250 Y64.250
G1 X35.000 Y64.500
G1 X35.000 Y64.500
G1 X34.750 Y64.750
G1 X34.500 Y65.000
G1 X34.500 Y65.250
G1 X34.250 Y65.250
G1 X34.000 Y65.500
G1 X33.750 Y65.750
G1 X33.750 Y65.750
G1 X33.500 Y66.000
G1 X33.250 Y66.250
G1 X33.250 Y66.250
G1 X33.000 Y66.500
G1 X32.750 Y66.750
G1 X32.750 Y67.000
G1 X32.500 Y67.000
G1 X32.250 Y67.250
G1 X32.000 Y67.500
G1 X32.000 Y67.500
G1 X31.750 Y67.750
G1 X31.500 Y68.000
G1 X31.500 Y68.250
G1 X31.250 Y68.250
G1 X31.000 Y68.500
G1 X30.750 Y68.750
G1 X30.750 Y68.750
G1 X30.500 Y69.000
G1 X30.250 Y69.250
G1 X30.250 Y69.500
G1 X30.000 Y69.500
G1 X29.750 Y69.750
G1 X29.500 Y70.000
G1 X29.500 Y70.000
G1 X29.250 Y70.250
G1 X29.000 Y70.500
G1 X29.000 Y70.500
G1 X28.750 Y70.750
G1 X28.500 Y71.000
G1 X28.500 Y71.250
G1 X28.250 Y71.250
G1 X28.000 Y71.500
G1 X27.750 Y71.750
G1 X27.750 Y71.750
G1 X27.500 Y72.000
G1 X27.250 Y72.250
G1 X27.250 Y72.500
G1 X27.000 Y72.500
G1 X26.750 Y72.750
G1 X26.500 Y73.000
G1 X26.500 Y73.000
G1 X26.250 Y73.250
G1 X26.000 Y73.500
G1 X26.000 Y73.500
G1 X25.750 Y73.750
G1 X25.500 Y74.000
G1 X25.500 Y74.250
G1 X25.250 Y74.250
G1 X25.000 Y74.500
G1 X24.750 Y74.750
G1 X24.750 Y74.750
G1 X24.500 Y75.000
G1 X24.250 Y75.250
G1 X24.250 Y75.500
G1 X24.000 Y75.500
G1 X23.750 Y75.750
G1 X23.500 Y76.000
G1 X23.500 Y76.000
G1 X23.250 Y76.250
G1 X23.000 Y76.500
G1 X23.000 Y76.500
G1 X22.750 Y76.750
G1 X22.500 Y77.000
G1 X22.250 Y77.250
G1 X22.250 Y77.250
G1 X22.000 Y77.500
G1 X21.750 Y77.750
G1 X21.750 Y77.750
G1 X21.500 Y78.000
G1 X21.250 Y78.250
G1 X21.250 Y78.500
G1 X21.000 Y78.500
G1 X20.750 Y78.750
G1 X20.500 Y79.000
G1 X20.500 Y79.000
G1 X20.250 Y79.250
G1 X20.000 Y79.500
G1 X20.000 Y79.750
G1 X19.750 Y79.750
G1 X19.500 Y80.000
G1 X19.250 Y80.250
G1 X19.250 Y80.250
G1 X19.000 Y80.500
G1 X18.750 Y80.750
G1 X18.750 Y80.750
G1 X18.500 Y81.000
G1 X18.250 Y81.250
G1 X18.250 Y81.500
G1 X18.000 Y81.500
G1 X17.750 Y81.750
G1 X17.500 Y82.000
G1 X17.500 Y82.000
G1 X17.250 Y82.250
G1 X17.000 Y82.500
G1 X17.000 Y82.750
G1 X16.750 Y82.750
G1 X16.500 Y83.000
G1 X16.250 Y83.250
G1 X16.250 Y83.250
G1 X16.000 Y83.500
G1 X15.750 Y83.750
G1 X15.750 Y83.750
G1 X15.500 Y84.000
G1 X15.250 Y84.250
G1 X15.000 Y84.500
G1 X15.000 Y84.500
G1 X14.750 Y84.750
G1 X14.500 Y85.000
G1 X14.500 Y85.000
G1 X14.250 Y85.250
G1 X14.000 Y85.500
G1 X14.000 Y85.750
G1 X13.750 Y85.750
G1 X13.500 Y86.000
G1 X13.250 Y86.250
G1 X13.250 Y86.250
G1 X13.000 Y86.500
G1 X12.750 Y86.750
G1 X12.750 Y87.000
G1 X12.500 Y87.000
G1 X12.250 Y87.250
G1 X12.000 Y87.500
G1 X12.000 Y87.500
G1 X11.750 Y87.750
G1 X11.500 Y88.000
G1 X11.500 Y88.000
G1 X11.250 Y88.250
G1 X11.000 Y88.500
G1 X11.000 Y88.750
G1 X10.750 Y88.750
G1 X10.500 Y89.000
G1 X10.250 Y89.250
G1 X10.250 Y89.250
G1 X10.000 Y89.500
G1 X9.750 Y89.750
G1 X9.750 Y90.000
G1 X9.500 Y90.000
G1 X9.250 Y90.250
G1 X9.000 Y90.500
G1 X9.000 Y90.500
G1 X8.750 Y90.750
G1 X8.500 Y91.000
G1 X8.500 Y91.000
G1 X8.250 Y91.250
G1 X8.000 Y91.500
G1 X8.000 Y91.750
G1 X7.750 Y91.750
G1 X7.500 Y92.000
G1 X7.250 Y92.250
G1 X7.250 Y92.250
G1 X7.000 Y92.500
G1 X6.750 Y92.750
G1 X6.750 Y93.000
G0 Z2.000 F3000

; --- CIKEL NAMAKANJA ---
G0 Z2.000 F3000
M400
M204 P600 T600
G1 F1300
G0 X62.339 Y0.000 Z8.000
G1 Z1.000 F3000
G1 X62.339 Y0.000 F2500
G1 X62.339 Y1.750 F2500
G1 X58.839 Y0.000 F2500
G1 X62.339 Y0.000 F2500
G0 Z3.000 F3000
G0 X49.168 Y17.416
G0 Z8.000 F3000
G0 X6.500 Y93.000 Z2.000
M400
M204 P200 T200
G1 F600
G1 Z0.000 F2500
G1 X6.500 Y93.000
G1 X6.250 Y93.250
G1 X6.000 Y93.500
G1 X6.000 Y93.500
G1 X5.750 Y93.750
G1 X5.500 Y94.000
G1 X5.500 Y94.000
G1 X5.250 Y94.250
G1 X5.000 Y94.500
G1 X4.750 Y94.750
G1 X4.750 Y94.750
G1 X4.500 Y95.000
G1 X4.250 Y95.250
G1 X4.250 Y95.250
G1 X4.000 Y95.500
G1 X3.750 Y95.750
G1 X3.750 Y96.000
G1 X3.500 Y96.000
G1 X3.250 Y96.250
G1 X3.000 Y96.500
G1 X3.000 Y96.500
G1 X2.750 Y96.750
G1 X2.500 Y97.000
G1 X2.500 Y97.250
G1 X2.250 Y97.250
G1 X2.000 Y97.500
G1 X1.750 Y97.750
G1 X1.750 Y97.750
G1 X1.500 Y98.000
G1 X1.250 Y98.250
G1 X1.250 Y98.250
G1 X1.000 Y98.500
G1 X0.750 Y98.750
G1 X0.750 Y99.000
G1 X0.500 Y99.000
G1 X0.250 Y99.250
G1 X0.000 Y99.500
G1 X0.000 Y99.500
G1 X0.000 Y99.750
G0 Z2.000 F3000
M400
M204 P600 T600
G1 F1300
G0 X0.000 Y103.250 Z2.000
M400
M204 P200 T200
G1 F600
G1 Z0.000 F2500
G1 X0.000 Y103.250
G1 X0.000 Y103.000
G1 X0.250 Y102.750
G1 X0.500 Y102.500
G1 X0.750 Y102.500
G1 X0.750 Y102.250
G1 X1.000 Y102.000
G1 X1.250 Y102.000
G1 X1.250 Y101.750
G1 X1.500 Y101.500
G1 X1.750 Y101.250
G1 X1.750 Y101.250
G1 X2.000 Y101.000
G1 X2.250 Y100.750
G1 X2.500 Y100.750
G1 X2.500 Y100.500
G1 X2.750 Y100.250
G1 X3.000 Y100.250
G1 X3.000 Y100.000
G1 X3.250 Y99.750
G1 X3.500 Y99.500
G1 X3.750 Y99.500
G1 X3.750 Y99.250
G1 X4.000 Y99.000
G1 X4.250 Y99.000
G1 X4.250 Y98.750
G1 X4.500 Y98.500
G1 X4.750 Y98.250
G1 X4.750 Y98.250
G1 X5.000 Y98.000
G1 X5.250 Y97.750
G1 X5.500 Y97.750
G1 X5.500 Y97.500
G1 X5.750 Y97.250
G1 X6.000 Y97.250
G1 X6.000 Y97.000
G1 X6.250 Y96.750
G1 X6.500 Y96.500
G1 X6.750 Y96.500
G1 X6.750 Y96.250
G1 X7.000 Y96.000
G1 X7.250 Y96.000
G1 X7.250 Y95.750
G1 X7.500 Y95.500
G1 X7.750 Y95.250
G1 X8.000 Y95.250
G1 X8.000 Y95.000
G1 X8.250 Y94.750
G1 X8.500 Y94.750
G1 X8.500 Y94.500
G1 X8.750 Y94.250
G1 X9.000 Y94.000
G1 X9.000 Y94.000
G1 X9.250 Y93.750
G1 X9.500 Y93.500
G1 X9.750 Y93.500
G1 X9.750 Y93.250
G1 X10.000 Y93.000
G1 X10.250 Y93.000
G1 X10.250 Y92.750
G1 X10.500 Y92.500
G1 X10.750 Y92.250
G1 X11.000 Y92.250
G1 X11.000 Y92.000
G1 X11.250 Y91.750
G1 X11.500 Y91.750
G1 X11.500 Y91.500
G1 X11.750 Y91.250
G1 X12.000 Y91.000
G1 X12.000 Y91.000
G1 X12.250 Y90.750
G1 X12.500 Y90.500
G1 X12.750 Y90.500
G1 X12.750 Y90.250
G1 X13.000 Y90.000
G1 X13.250 Y90.000
G1 X13.250 Y89.750
G1 X13.500 Y89.500
G1 X13.750 Y89.250
G1 X14.000 Y89.250
G1 X14.000 Y89.000
G1 X14.250 Y88.750
G1 X14.500 Y88.750
G1 X14.500 Y88.500
G1 X14.750 Y88.250
G1 X15.000 Y88.000
G1 X15.000 Y88.000
G1 X15.250 Y87.750
G1 X15.500 Y87.500
G1 X15.750 Y87.500
G1 X15.750 Y87.250
G1 X16.000 Y87.000
G1 X16.250 Y87.000
G1 X16.250 Y86.750
G1 X16.500 Y86.500
G1 X16.750 Y86.250
G1 X17.000 Y86.250
G1 X17.000 Y86.000
G1 X17.250 Y85.750
G1 X17.500 Y85.750
G1 X17.500 Y85.500
G1 X17.750 Y85.250
G1 X18.000 Y85.000
G1 X18.250 Y85.000
G1 X18.250 Y84.750
G1 X18.500 Y84.500
G1 X18.750 Y84.500
G1 X18.750 Y84.250
G1 X19.000 Y84.000
G1 X19.250 Y83.750
G1 X19.250 Y83.750
G1 X19.500 Y83.500
G1 X19.750 Y83.250
G1 X20.000 Y83.250
G1 X20.000 Y83.000
G1 X20.250 Y82.750
G1 X20.500 Y82.750
G1 X20.500 Y82.500
G1 X20.750 Y82.250
G1 X21.000 Y82.000
G1 X21.250 Y82.000
G1 X21.250 Y81.750
G1 X21.500 Y81.500
G1 X21.750 Y81.500
G1 X21.750 Y81.250
G1 X22.000 Y81.000
G1 X22.250 Y80.750
G1 X22.250 Y80.750
G1 X22.500 Y80.500
G1 X22.750 Y80.250
G1 X23.000 Y80.250
G1 X23.000 Y80.000
G1 X23.250 Y79.750
G1 X23.500 Y79.750
G1 X23.500 Y79.500
G1 X23.750 Y79.250
G1 X24.000 Y79.000
G1 X24.250 Y79.000
G1 X24.250 Y78.750
G1 X24.500 Y78.500
G1 X24.750 Y78.500
G1 X24.750 Y78.250
G1 X25.000 Y78.000
G1 X25.250 Y77.750
G1 X25.500 Y77.750
G1 X25.500 Y77.500
G1 X25.750 Y77.250
G1 X26.000 Y77.250
G1 X26.000 Y77.000
G1 X26.250 Y76.750
G1 X26.500 Y76.500
G1 X26.500 Y76.500
G1 X26.750 Y76.250
G1 X27.000 Y76.000
G1 X27.250 Y76.000
G1 X27.250 Y75.750
G1 X27.500 Y75.500
G1 X27.750 Y75.500
G1 X27.750 Y75.250
G1 X28.000 Y75.000
G1 X28.250 Y74.750
G1 X28.500 Y74.750
G1 X28.500 Y74.500
G1 X28.750 Y74.250
G1 X29.000 Y74.250
G1 X29.000 Y74.000
G1 X29.250 Y73.750
G1 X29.500 Y73.500
G1 X29.500 Y73.500
G1 X29.750 Y73.250
G1 X30.000 Y73.000
G1 X30.250 Y73.000
G1 X30.250 Y72.750
G1 X30.500 Y72.500
G1 X30.750 Y72.500
G1 X30.750 Y72.250
G1 X31.000 Y72.000
G1 X31.250 Y71.750
G1 X31.500 Y71.750
G1 X31.500 Y71.500
G1 X31.750 Y71.250
G1 X32.000 Y71.250
G1 X32.000 Y71.000
G1 X32.250 Y70.750
G1 X32.500 Y70.500
G1 X32.750 Y70.500
G1 X32.750 Y70.250
G1 X33.000 Y70.000
G1 X33.250 Y70.000
G1 X33.250 Y69.750
G1 X33.500 Y69.500
G1 X33.750 Y69.500
G1 X33.750 Y69.250
G1 X34.000 Y69.000
G1 X34.250 Y68.750
G1 X34.500 Y68.750
G1 X34.500 Y68.500
G1 X34.750 Y68.250
G1 X35.000 Y68.250
G1 X35.000 Y68.000
G1 X35.250 Y67.750
G1 X35.500 Y67.500
G1 X35.750 Y67.500
G1 X35.750 Y67.250
G1 X36.000 Y67.000
G1 X36.250 Y67.000
G1 X36.250 Y66.750
G1 X36.500 Y66.500
G1 X36.750 Y66.250
G1 X36.750 Y66.250
G1 X37.000 Y66.000
G1 X37.250 Y65.750
G1 X37.500 Y65.750
G1 X37.500 Y65.500
G1 X37.750 Y65.250
G1 X38.000 Y65.250
G1 X38.000 Y65.000
G1 X38.250 Y64.750
G1 X38.500 Y64.500
G1 X38.750 Y64.500
G1 X38.750 Y64.250
G1 X39.000 Y64.000
G1 X39.250 Y64.000
G1 X39.250 Y63.750
G1 X39.500 Y63.500
G1 X39.750 Y63.250
G1 X39.750 Y63.250
G1 X40.000 Y63.000
G1 X40.250 Y62.750
G1 X40.500 Y62.750
G1 X40.500 Y62.500
G1 X40.750 Y62.250
G1 X41.000 Y62.250
G1 X41.000 Y62.000
G1 X41.250 Y61.750
G1 X41.500 Y61.500
G1 X41.750 Y61.500
G1 X41.750 Y61.250
G1 X42.000 Y61.000
G1 X42.250 Y61.000
G1 X42.250 Y60.750
G1 X42.500 Y60.500
G1 X42.750 Y60.250
G1 X43.000 Y60.250
G1 X43.000 Y60.000
G1 X43.250 Y59.750
G1 X43.500 Y59.750
G1 X43.500 Y59.500
G1 X43.750 Y59.250
G1 X44.000 Y59.000
G1 X44.000 Y59.000
G1 X44.250 Y58.750
G1 X44.500 Y58.500
G1 X44.750 Y58.500
G1 X44.750 Y58.250
G1 X45.000 Y58.000
G1 X45.250 Y58.000
G1 X45.250 Y57.750
G1 X45.500 Y57.500
G1 X45.750 Y57.250
G1 X46.000 Y57.250
G1 X46.000 Y57.000
G1 X46.250 Y56.750
G1 X46.500 Y56.750
G1 X46.500 Y56.500
G1 X46.750 Y56.250
G1 X47.000 Y56.000
G1 X47.000 Y56.000
G1 X47.250 Y55.750
G1 X47.500 Y55.500
G1 X47.750 Y55.500
G1 X47.750 Y55.250
G1 X48.000 Y55.000
G1 X48.250 Y55.000
G1 X48.250 Y54.750
G1 X48.500 Y54.500
G1 X48.750 Y54.250
G1 X49.000 Y54.250
G1 X49.000 Y54.000
G1 X49.250 Y53.750
G1 X49.500 Y53.750
G1 X49.500 Y53.500
G1 X49.750 Y53.250
G1 X50.000 Y53.000
G1 X50.250 Y53.000
G1 X50.250 Y52.750
G1 X50.500 Y52.500
G1 X50.750 Y52.500
G1 X50.750 Y52.250
G1 X51.000 Y52.000
G1 X51.250 Y51.750
G1 X51.250 Y51.750
G1 X51.500 Y51.500
G0 Z2.000 F3000

; --- CIKEL NAMAKANJA ---
G0 Z2.000 F3000
M400
M204 P600 T600
G1 F1300
G0 X54.284 Y5.140 Z8.000
G1 Z1.000 F3000
G1 X54.284 Y5.140 F2500
G1 X54.284 Y6.890 F2500
G1 X50.784 Y5.140 F2500
G1 X54.284 Y0.000 F2500
G0 Z3.000 F3000
G0 X56.199 Y19.803
G0 Z8.000 F3000
G0 X51.750 Y51.250 Z2.000
M400
M204 P200 T200
G1 F600
G1 Z0.000 F2500
G1 X51.750 Y51.250
G1 X52.000 Y51.250
G1 X52.000 Y51.000
G1 X52.250 Y50.750
G1 X52.500 Y50.750
G1 X52.500 Y50.500
G1 X52.750 Y50.250
G1 X53.000 Y50.000
G1 X53.250 Y50.000
G1 X53.250 Y49.750
G1 X53.500 Y49.500
G1 X53.750 Y49.500
G1 X53.750 Y49.250
G1 X54.000 Y49.000
G1 X54.250 Y48.750
G1 X54.250 Y48.750
G1 X54.500 Y48.500
G1 X54.750 Y48.250
G1 X55.000 Y48.250
G1 X55.000 Y48.000
G1 X55.250 Y47.750
G1 X55.500 Y47.750
G1 X55.500 Y47.500
G1 X55.750 Y47.250
G1 X56.000 Y47.000
G1 X56.250 Y47.000
G1 X56.250 Y46.750
G1 X56.500 Y46.500
G1 X56.750 Y46.500
G1 X56.750 Y46.250
G1 X57.000 Y46.000
G1 X57.250 Y45.750
G1 X57.250 Y45.750
G1 X57.500 Y45.500
G1 X57.750 Y45.250
G1 X58.000 Y45.250
G1 X58.000 Y45.000
G1 X58.250 Y44.750
G1 X58.500 Y44.750
G1 X58.500 Y44.500
G1 X58.750 Y44.250
G1 X59.000 Y44.000
G1 X59.250 Y44.000
G1 X59.250 Y43.750
G1 X59.500 Y43.500
G1 X59.750 Y43.500
G1 X59.750 Y43.250
G1 X60.000 Y43.000
G1 X60.250 Y42.750
G1 X60.500 Y42.750
G1 X60.500 Y42.500
G1 X60.750 Y42.250
G1 X61.000 Y42.250
G1 X61.000 Y42.000
G1 X61.250 Y41.750
G1 X61.500 Y41.500
G1 X61.500 Y41.500
G1 X61.750 Y41.250
G1 X62.000 Y41.000
G1 X62.250 Y41.000
G1 X62.250 Y40.750
G1 X62.500 Y40.500
G1 X62.750 Y40.500
G1 X62.750 Y40.250
G1 X63.000 Y40.000
G1 X63.250 Y39.750
G1 X63.500 Y39.750
G1 X63.500 Y39.500
G1 X63.750 Y39.250
G1 X64.000 Y39.250
G1 X64.000 Y39.000
G1 X64.250 Y38.750
G1 X64.500 Y38.500
G1 X64.500 Y38.500
G1 X64.750 Y38.250
G1 X65.000 Y38.000
G1 X65.250 Y38.000
G1 X65.250 Y37.750
G1 X65.500 Y37.500
G1 X65.750 Y37.500
G1 X65.750 Y37.250
G1 X66.000 Y37.000
G1 X66.250 Y36.750
G1 X66.500 Y36.750
G1 X66.500 Y36.500
G1 X66.750 Y36.250
G1 X67.000 Y36.250
G1 X67.000 Y36.000
G1 X67.250 Y35.750
G1 X67.500 Y35.500
G1 X67.750 Y35.500
G1 X67.750 Y35.250
G1 X68.000 Y35.000
G1 X68.250 Y35.000
G1 X68.250 Y34.750
G1 X68.500 Y34.500
G1 X68.750 Y34.250
G1 X68.750 Y34.250
G1 X69.000 Y34.000
G1 X69.250 Y33.750
G1 X69.500 Y33.750
G1 X69.500 Y33.500
G1 X69.750 Y33.250
G1 X70.000 Y33.250
G1 X70.000 Y33.000
G1 X70.250 Y32.750
G1 X70.500 Y32.500
G1 X70.750 Y32.500
G1 X70.750 Y32.250
G1 X71.000 Y32.000
G1 X71.250 Y32.000
G1 X71.250 Y31.750
G1 X71.500 Y31.500
G1 X71.750 Y31.250
G1 X71.750 Y31.250
G1 X72.000 Y31.000
G1 X72.250 Y30.750
G1 X72.500 Y30.750
G1 X72.500 Y30.500
G1 X72.750 Y30.250
G1 X73.000 Y30.250
G1 X73.000 Y30.000
G1 X73.250 Y29.750
G1 X73.500 Y29.500
G1 X73.750 Y29.500
G1 X73.750 Y29.250
G1 X74.000 Y29.000
G1 X74.250 Y29.000
G0 Z2.000 F3000
M400
M204 P600 T600
G1 F1300
G0 X77.750 Y29.000 Z2.000
M400
M204 P200 T200
G1 F600
G1 Z0.000 F2500
G1 X77.500 Y29.000
G1 X77.250 Y29.250
G1 X77.250 Y29.500
G1 X77.000 Y29.500
G1 X76.750 Y29.750
G1 X76.750 Y30.000
G1 X76.500 Y30.250
G1 X76.250 Y30.250
G1 X76.000 Y30.500
G1 X76.000 Y30.750
G1 X75.750 Y30.750
G1 X75.500 Y31.000
G1 X75.500 Y31.250
G1 X75.250 Y31.250
G1 X75.000 Y31.500
G1 X75.000 Y31.750
G1 X74.750 Y32.000
G1 X74.500 Y32.000
G1 X74.250 Y32.250
G1 X74.250 Y32.500
G1 X74.000 Y32.500
G1 X73.750 Y32.750
G1 X73.750 Y33.000
G1 X73.500 Y33.250
G1 X73.250 Y33.250
G1 X73.000 Y33.500
G1 X73.000 Y33.750
G1 X72.750 Y33.750
G1 X72.500 Y34.000
G1 X72.500 Y34.250
G1 X72.250 Y34.250
G1 X72.000 Y34.500
G1 X71.750 Y34.750
G1 X71.750 Y35.000
G1 X71.500 Y35.000
G1 X71.250 Y35.250
G1 X71.250 Y35.500
G1 X71.000 Y35.500
G1 X70.750 Y35.750
G1 X70.750 Y36.000
G1 X70.500 Y36.250
G1 X70.250 Y36.250
G1 X70.000 Y36.500
G1 X70.000 Y36.750
G1 X69.750 Y36.750
G1 X69.500 Y37.000
G1 X69.500 Y37.250
G1 X69.250 Y37.500
G1 X69.000 Y37.500
G1 X68.750 Y37.750
G1 X68.750 Y38.000
G1 X68.500 Y38.000
G1 X68.250 Y38.250
G1 X68.250 Y38.500
G1 X68.000 Y38.500
G1 X67.750 Y38.750
G1 X67.750 Y39.000
G1 X67.500 Y39.250
G1 X67.250 Y39.250
G1 X67.000 Y39.500
G1 X67.000 Y39.750
G1 X66.750 Y39.750
G1 X66.500 Y40.000
G1 X66.500 Y40.250
G1 X66.250 Y40.500
G1 X66.000 Y40.500
G1 X65.750 Y40.750
G1 X65.750 Y41.000
G1 X65.500 Y41.000
G1 X65.250 Y41.250
G1 X65.250 Y41.500
G1 X65.000 Y41.500
G1 X64.750 Y41.750
G1 X64.500 Y42.000
G1 X64.500 Y42.250
G1 X64.250 Y42.250
G1 X64.000 Y42.500
G1 X64.000 Y42.750
G1 X63.750 Y42.750
G1 X63.500 Y43.000
G1 X63.500 Y43.250
G1 X63.250 Y43.500
G1 X63.000 Y43.500
G1 X62.750 Y43.750
G1 X62.750 Y44.000
G1 X62.500 Y44.000
G1 X62.250 Y44.250
G1 X62.250 Y44.500
G1 X62.000 Y44.750
G1 X61.750 Y44.750
G1 X61.500 Y45.000
G1 X61.500 Y45.250
G1 X61.250 Y45.250
G1 X61.000 Y45.500
G1 X61.000 Y45.750
G1 X60.750 Y45.750
G1 X60.500 Y46.000
G1 X60.500 Y46.250
G1 X60.250 Y46.500
G1 X60.000 Y46.500
G1 X59.750 Y46.750
G1 X59.750 Y47.000
G1 X59.500 Y47.000
G1 X59.250 Y47.250
G1 X59.250 Y47.500
G1 X59.000 Y47.750
G1 X58.750 Y47.750
G1 X58.500 Y48.000
G1 X58.500 Y48.250
G1 X58.250 Y48.250
G1 X58.000 Y48.500
G1 X58.000 Y48.750
G1 X57.750 Y48.750
G1 X57.500 Y49.000
G1 X57.250 Y49.250
G1 X57.250 Y49.500
G1 X57.000 Y49.500
G1 X56.750 Y49.750
G1 X56.750 Y50.000
G1 X56.500 Y50.000
G1 X56.250 Y50.250
G1 X56.250 Y50.500
G1 X56.000 Y50.750
G1 X55.750 Y50.750
G1 X55.500 Y51.000
G1 X55.500 Y51.250
G1 X55.250 Y51.250
G1 X55.000 Y51.500
G1 X55.000 Y51.750
G1 X54.750 Y51.750
G1 X54.500 Y52.000
G1 X54.250 Y52.250
G1 X54.250 Y52.500
G1 X54.000 Y52.500
G1 X53.750 Y52.750
G1 X53.750 Y53.000
G1 X53.500 Y53.000
G1 X53.250 Y53.250
G1 X53.250 Y53.500
G1 X53.000 Y53.750
G1 X52.750 Y53.750
G1 X52.500 Y54.000
G1 X52.500 Y54.250
G1 X52.250 Y54.250
G1 X52.000 Y54.500
G1 X52.000 Y54.750
G1 X51.750 Y55.000
G1 X51.500 Y55.000
G1 X51.250 Y55.250
G1 X51.250 Y55.500
G1 X51.000 Y55.500
G1 X50.750 Y55.750
G1 X50.750 Y56.000
G1 X50.500 Y56.000
G1 X50.250 Y56.250
G1 X50.250 Y56.500
G1 X50.000 Y56.750
G1 X49.750 Y56.750
G1 X49.500 Y57.000
G1 X49.500 Y57.250
G1 X49.250 Y57.250
G1 X49.000 Y57.500
G1 X49.000 Y57.750
G1 X48.750 Y58.000
G1 X48.500 Y58.000
G1 X48.250 Y58.250
G1 X48.250 Y58.500
G1 X48.000 Y58.500
G1 X47.750 Y58.750
G1 X47.750 Y59.000
G1 X47.500 Y59.000
G1 X47.250 Y59.250
G1 X47.000 Y59.500
G1 X47.000 Y59.750
G1 X46.750 Y59.750
G1 X46.500 Y60.000
G1 X46.500 Y60.250
G1 X46.250 Y60.250
G1 X46.000 Y60.500
G1 X46.000 Y60.750
G1 X45.750 Y61.000
G1 X45.500 Y61.000
G1 X45.250 Y61.250
G1 X45.250 Y61.500
G1 X45.000 Y61.500
G1 X44.750 Y61.750
G1 X44.750 Y62.000
G1 X44.500 Y62.250
G1 X44.250 Y62.250
G1 X44.000 Y62.500
G1 X44.000 Y62.750
G1 X43.750 Y62.750
G1 X43.500 Y63.000
G1 X43.500 Y63.250
G1 X43.250 Y63.250
G1 X43.000 Y63.500
G1 X43.000 Y63.750
G1 X42.750 Y64.000
G1 X42.500 Y64.000
G1 X42.250 Y64.250
G1 X42.250 Y64.500
G1 X42.000 Y64.500
G1 X41.750 Y64.750
G1 X41.750 Y65.000
G1 X41.500 Y65.250
G1 X41.250 Y65.250
G0 Z2.000 F3000

; --- CIKEL NAMAKANJA ---
G0 Z2.000 F3000
M400
M204 P600 T600
G1 F1300
G0 X56.147 Y0.000 Z8.000
G1 Z1.000 F3000
G1 X56.147 Y0.000 F2500
G1 X56.147 Y1.750 F2500
G1 X52.647 Y0.000 F2500
G1 X56.147 Y0.000 F2500
G0 Z3.000 F3000
G0 X53.700 Y19.285
G0 Z8.000 F3000
G0 X41.000 Y65.500 Z2.000
M400
M204 P200 T200
G1 F600
G1 Z0.000 F2500
G1 X41.000 Y65.500
G1 X41.000 Y65.750
G1 X40.750 Y65.750
G1 X40.500 Y66.000
G1 X40.500 Y66.250
G1 X40.250 Y66.250
G1 X40.000 Y66.500
G1 X39.750 Y66.750
G1 X39.750 Y67.000
G1 X39.500 Y67.000
G1 X39.250 Y67.250
G1 X39.250 Y67.500
G1 X39.000 Y67.500
G1 X38.750 Y67.750
G1 X38.750 Y68.000
G1 X38.500 Y68.250
G1 X38.250 Y68.250
G1 X38.000 Y68.500
G1 X38.000 Y68.750
G1 X37.750 Y68.750
G1 X37.500 Y69.000
G1 X37.500 Y69.250
G1 X37.250 Y69.500
G1 X37.000 Y69.500
G1 X36.750 Y69.750
G1 X36.750 Y70.000
G1 X36.500 Y70.000
G1 X36.250 Y70.250
G1 X36.250 Y70.500
G1 X36.000 Y70.500
G1 X35.750 Y70.750
G1 X35.750 Y71.000
G1 X35.500 Y71.250
G1 X35.250 Y71.250
