G90
G21
; === MULTI-COLOR PAINTER GCODE ===
; Generated layers: 1
; Backlash compensation: ON  BX=0.5 BY=1
; Working area clamping: ON  X[0–150] Y[0–150]
; Tutti Frutti mode: ON  stroke 40–80mm  dishes: Color 1 — Red, Color 2 — Teal, Color 3 — Yellow, Color 4 — Purple


; ═══════════════════════════════
; LAYER 1: Color 1 — Red
; Infill: concentric
; ═══════════════════════════════


; --- DIP → Color 1 — Red ---
G0 Z1.800 F3000
M400
M204 P1000 T1000
G1 F1500
G0 X15.139 Y0.000 Z10.000
G1 Z1.000 F3000
G1 X15.139 Y0.000 F2500
G1 X15.139 Y2.500 F2500
G1 X10.139 Y0.000 F2500
G1 X15.139 Y0.000 F2500
G0 Z3.000 F3000
G0 X26.605 Y11.521
G0 Z10.000 F3000
G0 X51.850 Y41.800 Z1.800
M400
M204 P1000 T1000
G1 F1500
G0 X51.850 Y41.800 Z1.800
M400
M204 P550 T550
G1 F600
G1 Z0.000 F2500
G1 X51.900 Y41.850
G1 X52.000 Y41.850
G1 X52.100 Y41.850
G1 X52.200 Y41.850
G1 X52.300 Y41.850
G1 X52.400 Y41.850
G1 X52.500 Y41.850
G1 X52.600 Y41.850
G1 X52.700 Y41.850
G1 X52.800 Y41.850
G1 X52.900 Y41.850
G1 X53.000 Y41.850
; --- Backlash Y fix: -1.000mm ---
G0 X53.000 Y40.850 F200
G1 X53.050 Y40.800
G1 X53.050 Y40.700
G1 X53.050 Y40.600
G1 X53.050 Y40.500
G1 X53.050 Y40.400
G1 X53.050 Y40.300
G1 X53.050 Y40.200
G1 X53.050 Y40.100
G1 X53.050 Y40.000
G1 X53.100 Y39.950
G1 X53.150 Y39.900
G1 X53.100 Y39.850
; --- Backlash X fix: -0.500mm ---
G0 X52.600 Y39.850 F200
G1 X52.500 Y39.850
G1 X52.400 Y39.850
G1 X52.350 Y39.800
G1 X52.300 Y39.750
G1 X52.200 Y39.750
G1 X52.150 Y39.700
G1 X52.100 Y39.650
G1 X52.000 Y39.650
G1 X51.900 Y39.650
G1 X51.850 Y39.600
G1 X51.800 Y39.550
G1 X51.700 Y39.550
G1 X51.650 Y39.500
G1 X51.600 Y39.450
G1 X51.500 Y39.450
G1 X51.450 Y39.500
; --- Backlash Y fix: 1.000mm ---
G0 X51.450 Y40.500 F200
G1 X51.450 Y40.600
G1 X51.450 Y40.700
G1 X51.450 Y40.800
G1 X51.450 Y40.900
G1 X51.400 Y40.950
G1 X51.350 Y41.000
G1 X51.350 Y41.100
G1 X51.350 Y41.200
G1 X51.350 Y41.300
G1 X51.350 Y41.400
G1 X51.350 Y41.500
G1 X51.350 Y41.600
G1 X51.350 Y41.700
G1 X51.350 Y41.800
G0 Z1.800 F3000
M400
M204 P1000 T1000
G1 F1500
; --- Backlash X fix: 0.500mm ---
G0 X51.850 Y41.800 F200
G0 X54.750 Y44.800 Z1.800
M400
M204 P550 T550
G1 F600
G1 Z0.000 F2500
G1 X54.800 Y44.850
; --- Backlash Y fix: -1.000mm ---
G0 X54.800 Y43.850 F200
G1 X54.850 Y43.800
; --- Backlash X fix: -0.500mm ---
G0 X54.350 Y43.800 F200
G1 X54.300 Y43.750
G1 X54.250 Y43.800
G0 Z1.800 F3000
M400
M204 P1000 T1000
G1 F1500
; --- Backlash X fix: 0.500mm ---
G0 X54.750 Y43.800 F200
; --- Backlash Y fix: 1.000mm ---
G0 X54.750 Y44.800 F200
G0 X58.350 Y61.300 Z1.800
M400
M204 P550 T550
G1 F600
G1 Z0.000 F2500
G1 X58.400 Y61.350
G1 X58.500 Y61.350
G1 X58.600 Y61.350
; --- Backlash Y fix: -1.000mm ---
G0 X58.600 Y60.350 F200
G1 X58.650 Y60.300
G1 X58.600 Y60.250
; --- Backlash X fix: -0.500mm ---
G0 X58.100 Y60.250 F200
G1 X58.050 Y60.200
G1 X58.050 Y60.100
G1 X58.000 Y60.050
G1 X57.950 Y60.000
G1 X57.900 Y59.950
G1 X57.850 Y59.900
G1 X57.850 Y59.800
G1 X57.800 Y59.750
G1 X57.750 Y59.700
G1 X57.700 Y59.650
G1 X57.650 Y59.600
G1 X57.650 Y59.500
G1 X57.600 Y59.450
G1 X57.550 Y59.400
G1 X57.500 Y59.350
G1 X57.450 Y59.300
G1 X57.450 Y59.200
G1 X57.400 Y59.150
G1 X57.350 Y59.100
G1 X57.300 Y59.050
G1 X57.250 Y59.000
G1 X57.200 Y58.950
G1 X57.150 Y58.900
G1 X57.150 Y58.800
G1 X57.100 Y58.750
G1 X57.050 Y58.700
G1 X57.000 Y58.650
G1 X56.950 Y58.600
G1 X56.900 Y58.550
G1 X56.850 Y58.500
G1 X56.850 Y58.400
G1 X56.800 Y58.350
G1 X56.750 Y58.300
G1 X56.750 Y58.200
G1 X56.700 Y58.150
G1 X56.650 Y58.100
G1 X56.600 Y58.050
G1 X56.550 Y58.000
G1 X56.550 Y57.900
G1 X56.500 Y57.850
G1 X56.450 Y57.800
G1 X56.400 Y57.750
G1 X56.350 Y57.700
G1 X56.300 Y57.650
G1 X56.250 Y57.600
G1 X56.250 Y57.500
G1 X56.200 Y57.450
G1 X56.150 Y57.400
G1 X56.150 Y57.300
G1 X56.100 Y57.250
G1 X56.050 Y57.200
G1 X56.000 Y57.150
G1 X55.950 Y57.100
G1 X55.950 Y57.000
G1 X55.900 Y56.950
G1 X55.850 Y56.900
G1 X55.800 Y56.850
G1 X55.750 Y56.800
G1 X55.750 Y56.700
G1 X55.700 Y56.650
G1 X55.650 Y56.600
G1 X55.650 Y56.500
G1 X55.600 Y56.450
G1 X55.550 Y56.400
G1 X55.500 Y56.350
G1 X55.450 Y56.300
G1 X55.450 Y56.200
G1 X55.400 Y56.150
G1 X55.350 Y56.100
G1 X55.350 Y56.000
G1 X55.300 Y55.950
G1 X55.250 Y55.900
G1 X55.200 Y55.850
G1 X55.150 Y55.800
G1 X55.150 Y55.700
G1 X55.100 Y55.650
G1 X55.050 Y55.600
G1 X55.050 Y55.500
G1 X55.000 Y55.450
G1 X54.950 Y55.400
G1 X54.950 Y55.300
G1 X54.900 Y55.250
G1 X54.850 Y55.200
G1 X54.800 Y55.150
G1 X54.750 Y55.100
G1 X54.750 Y55.000
G1 X54.750 Y54.900
G1 X54.700 Y54.850
G1 X54.650 Y54.800
G1 X54.600 Y54.750
G1 X54.550 Y54.700
G1 X54.550 Y54.600
G1 X54.500 Y54.550
G1 X54.450 Y54.500
G1 X54.450 Y54.400
G1 X54.450 Y54.300
G1 X54.400 Y54.250
G1 X54.350 Y54.200
G1 X54.350 Y54.100
G1 X54.300 Y54.050
G1 X54.250 Y54.000
G1 X54.200 Y53.950
G1 X54.150 Y53.900
G1 X54.150 Y53.800
G1 X54.150 Y53.700
G1 X54.100 Y53.650
G1 X54.050 Y53.600
G1 X54.050 Y53.500
G1 X54.000 Y53.450
G1 X53.950 Y53.400
G1 X53.950 Y53.300
G1 X53.900 Y53.250
G1 X53.850 Y53.200
G1 X53.850 Y53.100
G1 X53.850 Y53.000
G1 X53.800 Y52.950
G1 X53.750 Y52.900
G1 X53.750 Y52.800
G1 X53.700 Y52.750
G1 X53.650 Y52.700
G1 X53.650 Y52.600
G1 X53.600 Y52.550
G1 X53.550 Y52.500
G1 X53.550 Y52.400
G1 X53.550 Y52.300
G1 X53.500 Y52.250
G1 X53.450 Y52.200
G1 X53.450 Y52.100
G1 X53.450 Y52.000
G1 X53.400 Y51.950
G1 X53.350 Y51.900
G1 X53.350 Y51.800
G1 X53.300 Y51.750
G1 X53.250 Y51.700
G1 X53.250 Y51.600
G1 X53.250 Y51.500
G1 X53.200 Y51.450
G1 X53.150 Y51.400
G1 X53.150 Y51.300
G1 X53.100 Y51.250
G1 X53.050 Y51.200
G1 X53.050 Y51.100
G1 X53.050 Y51.000
G1 X53.000 Y50.950
G1 X52.950 Y50.900
G1 X52.950 Y50.800
G1 X52.950 Y50.700
G1 X52.900 Y50.650
G1 X52.850 Y50.600
G1 X52.850 Y50.500
G1 X52.850 Y50.400
G1 X52.800 Y50.350
G1 X52.750 Y50.300
G1 X52.750 Y50.200
G1 X52.750 Y50.100
G1 X52.700 Y50.050
G1 X52.650 Y50.000
G1 X52.650 Y49.900
G1 X52.650 Y49.800
G1 X52.600 Y49.750
G1 X52.550 Y49.700
G1 X52.550 Y49.600
G1 X52.550 Y49.500
G1 X52.500 Y49.450
G1 X52.450 Y49.400
G1 X52.450 Y49.300
G1 X52.450 Y49.200
G1 X52.400 Y49.150
G1 X52.350 Y49.100
G1 X52.350 Y49.000
G1 X52.350 Y48.900
G1 X52.350 Y48.800
G1 X52.350 Y48.700
G1 X52.300 Y48.650
G1 X52.250 Y48.600
G1 X52.250 Y48.500
G1 X52.250 Y48.400
G1 X52.200 Y48.350
G1 X52.150 Y48.300
G1 X52.150 Y48.200
G1 X52.150 Y48.100
G1 X52.100 Y48.050
G1 X52.050 Y48.000
G1 X52.050 Y47.900
G1 X52.050 Y47.800
G1 X52.050 Y47.700
G1 X52.050 Y47.600
G1 X52.000 Y47.550
G1 X51.950 Y47.500
G1 X51.950 Y47.400
G1 X51.950 Y47.300
G1 X51.950 Y47.200
G1 X51.950 Y47.100
G1 X51.900 Y47.050
G1 X51.850 Y47.000
G1 X51.850 Y46.900
G1 X51.850 Y46.800
G1 X51.850 Y46.700
G1 X51.800 Y46.650
G1 X51.750 Y46.600
G1 X51.750 Y46.500
G1 X51.750 Y46.400
G1 X51.750 Y46.300
G1 X51.750 Y46.200
G1 X51.750 Y46.100
G1 X51.750 Y46.000
G1 X51.700 Y45.950
G1 X51.650 Y45.900
G1 X51.650 Y45.800
G1 X51.650 Y45.700
G1 X51.650 Y45.600
G1 X51.650 Y45.500
G1 X51.650 Y45.400
G1 X51.650 Y45.300
G1 X51.600 Y45.250
G1 X51.550 Y45.200
G1 X51.550 Y45.100
G1 X51.550 Y45.000
G1 X51.550 Y44.900
G1 X51.550 Y44.800
G1 X51.550 Y44.700
G1 X51.550 Y44.600
G1 X51.550 Y44.500
G1 X51.500 Y44.450
G1 X51.450 Y44.400
G1 X51.450 Y44.300
G1 X51.450 Y44.200
G1 X51.450 Y44.100
G1 X51.450 Y44.000
G1 X51.450 Y43.900
G1 X51.450 Y43.800
G1 X51.450 Y43.700
G1 X51.450 Y43.600
G1 X51.450 Y43.500
G1 X51.450 Y43.400
G1 X51.450 Y43.300
G1 X51.450 Y43.200
G1 X51.450 Y43.100
G1 X51.450 Y43.000
G1 X51.450 Y42.900
G1 X51.450 Y42.800
G1 X51.450 Y42.700
G1 X51.450 Y42.600
G1 X51.450 Y42.500
G1 X51.450 Y42.400
G1 X51.450 Y42.300
G1 X51.450 Y42.200
G1 X51.450 Y42.100
G1 X51.450 Y42.000
G1 X51.450 Y41.900
G1 X51.450 Y41.800
G1 X51.500 Y41.750
; --- Backlash X fix: 0.500mm ---
G0 X52.000 Y41.750 F200
G1 X52.100 Y41.750
G1 X52.200 Y41.750
G1 X52.300 Y41.750
G1 X52.400 Y41.750
G1 X52.500 Y41.750
G1 X52.600 Y41.750
G1 X52.700 Y41.750
G1 X52.800 Y41.750
G1 X52.900 Y41.750
G1 X53.000 Y41.750
G1 X53.100 Y41.750
G1 X53.200 Y41.750
G1 X53.300 Y41.750
G1 X53.400 Y41.750
G1 X53.500 Y41.750
G1 X53.600 Y41.750
G1 X53.700 Y41.750
G1 X53.800 Y41.750
G1 X53.850 Y41.800
; --- Backlash Y fix: 1.000mm ---
G0 X53.850 Y42.800 F200
G1 X53.900 Y42.850
; --- Backlash Y fix: -1.000mm ---
G0 X53.900 Y41.850 F200
G1 X53.950 Y41.800
G1 X53.950 Y41.700
G1 X53.950 Y41.600
G1 X53.950 Y41.500
G1 X53.950 Y41.400
G1 X53.950 Y41.300
G1 X53.950 Y41.200
G1 X53.950 Y41.100
G1 X53.950 Y41.000
G1 X53.950 Y40.900
G1 X54.000 Y40.850
G1 X54.100 Y40.850
G1 X54.200 Y40.850
G1 X54.300 Y40.850
G1 X54.400 Y40.850
G1 X54.500 Y40.850
G1 X54.600 Y40.850
G1 X54.700 Y40.850
G1 X54.800 Y40.850
G1 X54.900 Y40.850
G1 X55.000 Y40.850
G1 X55.100 Y40.850
G1 X55.200 Y40.850
G1 X55.300 Y40.850
G1 X55.400 Y40.850
G1 X55.500 Y40.850
G1 X55.600 Y40.850
G1 X55.700 Y40.850
G1 X55.800 Y40.850
G1 X55.900 Y40.850
G1 X55.950 Y40.900
; --- Backlash Y fix: 1.000mm ---
G0 X55.950 Y41.900 F200
G1 X56.000 Y41.950
G1 X56.050 Y42.000
G1 X56.100 Y42.050
G1 X56.200 Y42.050
G1 X56.250 Y42.100
G1 X56.300 Y42.150
G1 X56.400 Y42.150
G1 X56.500 Y42.150
G1 X56.550 Y42.200
G1 X56.600 Y42.250
G1 X56.650 Y42.300
G1 X56.700 Y42.350
G1 X56.800 Y42.350
G1 X56.850 Y42.400
G1 X56.900 Y42.450
G1 X57.000 Y42.450
G1 X57.050 Y42.500
G1 X57.100 Y42.550
G1 X57.150 Y42.600
G1 X57.200 Y42.650
G1 X57.300 Y42.650
G1 X57.350 Y42.700
G1 X57.400 Y42.750
G1 X57.500 Y42.750
G1 X57.550 Y42.800
G1 X57.600 Y42.850
G1 X57.700 Y42.850
G1 X57.750 Y42.900
G1 X57.800 Y42.950
G1 X57.850 Y43.000
G1 X57.900 Y43.050
G1 X58.000 Y43.050
G1 X58.050 Y43.100
G1 X58.100 Y43.150
G1 X58.150 Y43.200
G1 X58.200 Y43.250
G1 X58.300 Y43.250
G1 X58.350 Y43.300
G1 X58.400 Y43.350
G1 X58.500 Y43.350
G1 X58.550 Y43.400
G1 X58.600 Y43.450
G1 X58.650 Y43.500
G1 X58.700 Y43.550
G1 X58.750 Y43.600
G1 X58.800 Y43.650
G1 X58.900 Y43.650
G1 X58.950 Y43.700
G1 X59.000 Y43.750
G1 X59.050 Y43.800
G1 X59.100 Y43.850
G1 X59.150 Y43.900
G1 X59.200 Y43.950
G1 X59.300 Y43.950
G1 X59.350 Y44.000
G1 X59.400 Y44.050
G1 X59.450 Y44.100
G1 X59.500 Y44.150
G1 X59.550 Y44.200
G1 X59.600 Y44.250
G1 X59.700 Y44.250
G1 X59.750 Y44.300
G1 X59.800 Y44.350
G1 X59.850 Y44.400
G1 X59.900 Y44.450
G1 X59.950 Y44.500
G1 X60.000 Y44.550
G1 X60.100 Y44.550
G1 X60.150 Y44.600
G1 X60.200 Y44.650
G1 X60.250 Y44.700
G1 X60.300 Y44.750
G1 X60.350 Y44.800
G1 X60.400 Y44.850
G1 X60.450 Y44.900
G1 X60.500 Y44.950
G1 X60.550 Y45.000
G1 X60.600 Y45.050
G1 X60.650 Y45.100
G1 X60.700 Y45.150
G1 X60.800 Y45.150
G1 X60.850 Y45.200
G1 X60.900 Y45.250
G1 X60.950 Y45.300
G1 X61.000 Y45.350
G1 X61.050 Y45.400
G1 X61.100 Y45.450
G1 X61.150 Y45.500
G1 X61.200 Y45.550
G1 X61.250 Y45.600
G1 X61.300 Y45.650
G1 X61.350 Y45.700
G1 X61.400 Y45.750
G1 X61.500 Y45.750
G1 X61.550 Y45.800
G1 X61.550 Y45.900
G1 X61.600 Y45.950
G1 X61.650 Y46.000
G1 X61.700 Y46.050
G1 X61.800 Y46.050
G1 X61.850 Y46.100
G1 X61.850 Y46.200
G1 X61.900 Y46.250
G1 X62.000 Y46.250
G1 X62.050 Y46.300
G1 X62.100 Y46.350
G1 X62.150 Y46.400
G1 X62.200 Y46.450
G1 X62.250 Y46.500
G1 X62.300 Y46.550
G1 X62.350 Y46.600
G1 X62.400 Y46.650
G1 X62.450 Y46.700
G1 X62.450 Y46.800
G1 X62.500 Y46.850
G1 X62.550 Y46.900
G1 X62.600 Y46.950
G1 X62.700 Y46.950
G1 X62.750 Y47.000
G1 X62.750 Y47.100
G1 X62.800 Y47.150
G1 X62.850 Y47.200
G1 X62.900 Y47.250
G1 X62.950 Y47.300
G1 X63.000 Y47.350
G1 X63.050 Y47.400
G1 X63.100 Y47.450
G1 X63.150 Y47.500
G1 X63.200 Y47.550
G1 X63.250 Y47.600
G1 X63.300 Y47.650
G1 X63.350 Y47.700
G1 X63.400 Y47.750
G1 X63.450 Y47.800
G1 X63.500 Y47.850
G1 X63.550 Y47.900
G1 X63.600 Y47.950
G1 X63.650 Y48.000
G1 X63.650 Y48.100
G1 X63.700 Y48.150
G1 X63.750 Y48.200
G1 X63.800 Y48.250
G1 X63.850 Y48.300
G1 X63.900 Y48.350
G1 X63.950 Y48.400
G1 X64.000 Y48.450
G1 X64.050 Y48.500
G1 X64.050 Y48.600
G1 X64.100 Y48.650
G1 X64.150 Y48.700
G1 X64.200 Y48.750
G1 X64.250 Y48.800
G1 X64.300 Y48.850
G1 X64.350 Y48.900
G1 X64.400 Y48.950
G1 X64.450 Y49.000
G1 X64.500 Y49.050
G1 X64.550 Y49.100
G1 X64.550 Y49.200
G1 X64.600 Y49.250
G1 X64.650 Y49.300
G1 X64.700 Y49.350
G1 X64.750 Y49.400
G1 X64.800 Y49.450
G1 X64.850 Y49.500
G1 X64.850 Y49.600
G1 X64.900 Y49.650
G1 X64.950 Y49.700
G1 X65.000 Y49.750
G1 X65.050 Y49.800
G1 X65.100 Y49.850
G1 X65.150 Y49.900
G1 X65.150 Y50.000
G1 X65.200 Y50.050
G1 X65.250 Y50.100
G1 X65.300 Y50.150
G1 X65.350 Y50.200
G1 X65.350 Y50.300
G1 X65.400 Y50.350
G1 X65.450 Y50.400
G1 X65.500 Y50.450
G1 X65.550 Y50.500
G1 X65.550 Y50.600
G1 X65.600 Y50.650
G1 X65.650 Y50.700
G1 X65.700 Y50.750
G1 X65.750 Y50.800
G1 X65.750 Y50.900
G1 X65.800 Y50.950
G1 X65.850 Y51.000
G1 X65.900 Y51.050
G1 X65.950 Y51.100
G1 X66.000 Y51.150
G1 X66.050 Y51.200
G1 X66.050 Y51.300
G1 X66.100 Y51.350
G1 X66.150 Y51.400
G1 X66.150 Y51.500
G1 X66.200 Y51.550
G1 X66.250 Y51.600
G1 X66.300 Y51.650
G1 X66.350 Y51.700
G1 X66.350 Y51.800
G1 X66.400 Y51.850
G1 X66.450 Y51.900
G1 X66.450 Y52.000
G1 X66.500 Y52.050
G1 X66.550 Y52.100
G1 X66.600 Y52.150
G1 X66.650 Y52.200
G1 X66.650 Y52.300
G1 X66.700 Y52.350
G1 X66.750 Y52.400
G1 X66.750 Y52.500
G1 X66.800 Y52.550
G1 X66.850 Y52.600
G1 X66.850 Y52.700
G1 X66.900 Y52.750
G1 X66.950 Y52.800
G1 X66.950 Y52.900
G1 X67.000 Y52.950
G1 X67.050 Y53.000
G1 X67.100 Y53.050
G1 X67.150 Y53.100
G1 X67.150 Y53.200
G1 X67.200 Y53.250
G1 X67.250 Y53.300
G1 X67.250 Y53.400
G1 X67.300 Y53.450
G1 X67.350 Y53.500
G1 X67.350 Y53.600
G1 X67.400 Y53.650
G1 X67.450 Y53.700
G1 X67.450 Y53.800
G1 X67.500 Y53.850
G1 X67.550 Y53.900
G1 X67.550 Y54.000
G1 X67.600 Y54.050
G1 X67.650 Y54.100
G1 X67.650 Y54.200
G1 X67.700 Y54.250
G1 X67.750 Y54.300
G1 X67.750 Y54.400
G1 X67.800 Y54.450
G1 X67.850 Y54.500
G1 X67.850 Y54.600
G1 X67.850 Y54.700
G1 X67.900 Y54.750
G1 X67.950 Y54.800
G1 X67.950 Y54.900
G1 X68.000 Y54.950
G1 X68.050 Y55.000
G1 X68.050 Y55.100
G1 X68.100 Y55.150
G1 X68.150 Y55.200
G1 X68.200 Y55.250
G1 X68.250 Y55.200
; --- Backlash Y fix: -1.000mm ---
G0 X68.250 Y54.200 F200
G1 X68.250 Y54.100
G1 X68.250 Y54.000
G1 X68.300 Y53.950
G1 X68.350 Y53.900
G1 X68.350 Y53.800
G1 X68.350 Y53.700
G1 X68.350 Y53.600
G1 X68.400 Y53.550
G1 X68.450 Y53.500
G1 X68.450 Y53.400
G1 X68.450 Y53.300
G1 X68.450 Y53.200
G1 X68.450 Y53.100
G1 X68.450 Y53.000
G1 X68.500 Y52.950
G1 X68.550 Y52.900
G1 X68.500 Y52.850
G1 X68.450 Y52.800
G1 X68.450 Y52.700
G1 X68.450 Y52.600
G1 X68.450 Y52.500
G1 X68.450 Y52.400
G1 X68.450 Y52.300
G1 X68.450 Y52.200
G1 X68.400 Y52.150
; --- Backlash X fix: -0.500mm ---
G0 X67.900 Y52.150 F200
G1 X67.850 Y52.100
G1 X67.850 Y52.000
G1 X67.850 Y51.900
G1 X67.800 Y51.850
G1 X67.750 Y51.800
G1 X67.750 Y51.700
G1 X67.750 Y51.600
G1 X67.700 Y51.550
G1 X67.650 Y51.500
G1 X67.650 Y51.400
G1 X67.650 Y51.300
G1 X67.650 Y51.200
G1 X67.600 Y51.150
G1 X67.550 Y51.100
G1 X67.550 Y51.000
G1 X67.550 Y50.900
G1 X67.500 Y50.850
G1 X67.450 Y50.800
G1 X67.450 Y50.700
G1 X67.400 Y50.650
G1 X67.350 Y50.600
G1 X67.350 Y50.500
G1 X67.350 Y50.400
G1 X67.300 Y50.350
G1 X67.250 Y50.300
G1 X67.250 Y50.200
G1 X67.200 Y50.150
G1 X67.150 Y50.100
G1 X67.150 Y50.000
G1 X67.100 Y49.950
G1 X67.050 Y49.900
G1 X67.050 Y49.800
G1 X67.000 Y49.750
G1 X66.950 Y49.700
G1 X66.950 Y49.600
G1 X66.900 Y49.550
G1 X66.850 Y49.500
G1 X66.850 Y49.400
G1 X66.800 Y49.350
G1 X66.750 Y49.300
G1 X66.750 Y49.200
G1 X66.700 Y49.150
G1 X66.650 Y49.100
G1 X66.650 Y49.000
G1 X66.600 Y48.950
G1 X66.550 Y48.900
G1 X66.500 Y48.850
G1 X66.450 Y48.800
G1 X66.450 Y48.700
G1 X66.400 Y48.650
G1 X66.350 Y48.600
G1 X66.350 Y48.500
G1 X66.300 Y48.450
G1 X66.250 Y48.400
G1 X66.200 Y48.350
G1 X66.150 Y48.300
G1 X66.150 Y48.200
G1 X66.100 Y48.150
G1 X66.050 Y48.100
G1 X66.000 Y48.050
G1 X65.950 Y48.000
G1 X65.900 Y47.950
G1 X65.850 Y47.900
G1 X65.850 Y47.800
G1 X65.800 Y47.750
G1 X65.750 Y47.700
G1 X65.700 Y47.650
G1 X65.650 Y47.600
G1 X65.650 Y47.500
G1 X65.600 Y47.450
G1 X65.550 Y47.400
G1 X65.500 Y47.350
G1 X65.450 Y47.300
G1 X65.400 Y47.250
G1 X65.350 Y47.200
G1 X65.300 Y47.150
G1 X65.250 Y47.100
G1 X65.250 Y47.000
G1 X65.200 Y46.950
G1 X65.150 Y46.900
G1 X65.100 Y46.850
G1 X65.050 Y46.800
G1 X65.000 Y46.750
G1 X64.950 Y46.700
G1 X64.900 Y46.650
G1 X64.850 Y46.600
G1 X64.800 Y46.550
G1 X64.750 Y46.500
G1 X64.700 Y46.450
G1 X64.650 Y46.400
G1 X64.650 Y46.300
G1 X64.600 Y46.250
G1 X64.550 Y46.200
G1 X64.500 Y46.150
G1 X64.450 Y46.100
G1 X64.400 Y46.050
G1 X64.350 Y46.000
G1 X64.300 Y45.950
G1 X64.250 Y45.900
G1 X64.200 Y45.850
G1 X64.150 Y45.800
G1 X64.100 Y45.750
G1 X64.050 Y45.700
G1 X64.000 Y45.650
G1 X63.950 Y45.600
G1 X63.900 Y45.550
G1 X63.850 Y45.500
G1 X63.800 Y45.450
G1 X63.750 Y45.400
G1 X63.700 Y45.350
G1 X63.650 Y45.300
G1 X63.600 Y45.250
G1 X63.550 Y45.200
G1 X63.500 Y45.150
G1 X63.450 Y45.100
G1 X63.400 Y45.050
G1 X63.300 Y45.050
G1 X63.250 Y45.000
G1 X63.200 Y44.950
G1 X63.150 Y44.900
G1 X63.100 Y44.850
G1 X63.050 Y44.800
G1 X63.000 Y44.750
G1 X62.950 Y44.700
G1 X62.900 Y44.650
G1 X62.850 Y44.600
G1 X62.800 Y44.550
G1 X62.750 Y44.500
G1 X62.700 Y44.450
G1 X62.650 Y44.400
G1 X62.600 Y44.350
G1 X62.550 Y44.300
G1 X62.500 Y44.250
G1 X62.400 Y44.250
G1 X62.350 Y44.200
G1 X62.300 Y44.150
G1 X62.250 Y44.100
G1 X62.200 Y44.050
G1 X62.150 Y44.000
G1 X62.100 Y43.950
G1 X62.050 Y43.900
G1 X62.000 Y43.850
G1 X61.900 Y43.850
G1 X61.850 Y43.800
G1 X61.800 Y43.750
G1 X61.750 Y43.700
G1 X61.700 Y43.650
G1 X61.650 Y43.600
G1 X61.600 Y43.550
G1 X61.500 Y43.550
G1 X61.450 Y43.500
G1 X61.400 Y43.450
G1 X61.350 Y43.400
G1 X61.300 Y43.350
G1 X61.250 Y43.300
G1 X61.200 Y43.250
G1 X61.100 Y43.250
G1 X61.050 Y43.200
G1 X61.000 Y43.150
G1 X60.950 Y43.100
G1 X60.900 Y43.050
G0 Z1.800 F3000

; --- DIP → Color 2 — Teal ---
G0 Z1.800 F3000
M400
M204 P1000 T1000
G1 F1500
G0 X60.814 Y0.000 Z10.000
G1 Z1.000 F3000
G1 X60.814 Y0.000 F2500
G1 X60.814 Y2.500 F2500
G1 X55.814 Y0.000 F2500
G1 X60.814 Y0.000 F2500
G0 Z3.000 F3000
G0 X62.438 Y14.989
G0 Z10.000 F3000
G0 X61.350 Y44.000 Z1.800
M400
M204 P550 T550
G1 F600
G1 Z0.000 F2500
G1 X60.850 Y43.000
G1 X60.800 Y42.950
G1 X60.700 Y42.950
G1 X60.650 Y42.900
G1 X60.600 Y42.850
G1 X60.550 Y42.800
G1 X60.500 Y42.750
G1 X60.450 Y42.700
G1 X60.400 Y42.650
G1 X60.300 Y42.650
G1 X60.250 Y42.600
G1 X60.200 Y42.550
G1 X60.100 Y42.550
G1 X60.050 Y42.500
G1 X60.000 Y42.450
G1 X59.950 Y42.400
G1 X59.900 Y42.350
G1 X59.800 Y42.350
G1 X59.750 Y42.300
G1 X59.700 Y42.250
G1 X59.650 Y42.200
G1 X59.600 Y42.150
G1 X59.500 Y42.150
G1 X59.450 Y42.100
G1 X59.400 Y42.050
G1 X59.300 Y42.050
G1 X59.250 Y42.000
G1 X59.200 Y41.950
G1 X59.150 Y41.900
G1 X59.100 Y41.850
G1 X59.050 Y41.800
G1 X59.000 Y41.750
G1 X58.900 Y41.750
G1 X58.850 Y41.700
G1 X58.800 Y41.650
G1 X58.700 Y41.650
G1 X58.650 Y41.600
G1 X58.600 Y41.550
G1 X58.550 Y41.500
G1 X58.500 Y41.450
G1 X58.400 Y41.450
G1 X58.300 Y41.450
G1 X58.250 Y41.400
G1 X58.200 Y41.350
G1 X58.150 Y41.300
G1 X58.100 Y41.250
G1 X58.000 Y41.250
G1 X57.950 Y41.200
G1 X57.900 Y41.150
G1 X57.800 Y41.150
G1 X57.750 Y41.100
G1 X57.700 Y41.050
G1 X57.650 Y41.000
G1 X57.600 Y40.950
G1 X57.500 Y40.950
G1 X57.450 Y40.900
G1 X57.400 Y40.850
G1 X57.300 Y40.850
G1 X57.250 Y40.800
G1 X57.200 Y40.750
G1 X57.100 Y40.750
G1 X57.050 Y40.700
G1 X57.000 Y40.650
G1 X56.900 Y40.650
G1 X56.850 Y40.600
G1 X56.800 Y40.550
G1 X56.700 Y40.550
G1 X56.650 Y40.500
G1 X56.600 Y40.450
G1 X56.500 Y40.450
G1 X56.450 Y40.400
G1 X56.400 Y40.350
G1 X56.350 Y40.300
G1 X56.300 Y40.250
G1 X56.200 Y40.250
G1 X56.100 Y40.250
G1 X56.050 Y40.200
G1 X56.000 Y40.150
G1 X55.950 Y40.100
G1 X55.900 Y40.050
G1 X55.800 Y40.050
G1 X55.750 Y40.000
G1 X55.700 Y39.950
G1 X55.600 Y39.950
G1 X55.500 Y39.950
G1 X55.450 Y39.900
G1 X55.400 Y39.850
G1 X55.300 Y39.850
G1 X55.250 Y39.800
G1 X55.200 Y39.750
G1 X55.100 Y39.750
G1 X55.050 Y39.700
G1 X55.000 Y39.650
G1 X54.900 Y39.650
G1 X54.850 Y39.600
G1 X54.800 Y39.550
G1 X54.700 Y39.550
G1 X54.650 Y39.500
G1 X54.600 Y39.450
G1 X54.500 Y39.450
G1 X54.450 Y39.400
G1 X54.400 Y39.350
G1 X54.300 Y39.350
G1 X54.250 Y39.300
G1 X54.200 Y39.250
G1 X54.100 Y39.250
G1 X54.000 Y39.250
G1 X53.950 Y39.200
G1 X53.900 Y39.150
G1 X53.800 Y39.150
G1 X53.750 Y39.100
G1 X53.700 Y39.050
G1 X53.600 Y39.050
G1 X53.550 Y39.000
G1 X53.500 Y38.950
G1 X53.400 Y38.950
G1 X53.300 Y38.950
G1 X53.250 Y38.900
G1 X53.200 Y38.850
G1 X53.100 Y38.850
G1 X53.050 Y38.800
G1 X53.000 Y38.750
G1 X52.900 Y38.750
G1 X52.800 Y38.750
G1 X52.750 Y38.700
G1 X52.700 Y38.650
G1 X52.600 Y38.650
G1 X52.550 Y38.600
G1 X52.500 Y38.550
G1 X52.400 Y38.550
G1 X52.350 Y38.500
G1 X52.300 Y38.450
G1 X52.200 Y38.450
G1 X52.100 Y38.450
G1 X52.050 Y38.400
G1 X52.000 Y38.350
G1 X51.900 Y38.350
G1 X51.850 Y38.300
G1 X51.800 Y38.250
G1 X51.700 Y38.250
G1 X51.600 Y38.250
G1 X51.550 Y38.200
G1 X51.500 Y38.150
G1 X51.400 Y38.150
G1 X51.300 Y38.150
G1 X51.250 Y38.100
G1 X51.200 Y38.050
G1 X51.100 Y38.050
G1 X51.050 Y38.000
G1 X51.000 Y37.950
G1 X50.900 Y37.950
G1 X50.850 Y37.900
G1 X50.800 Y37.850
G1 X50.700 Y37.850
G1 X50.650 Y37.900
; --- Backlash Y fix: 1.000mm ---
G0 X50.650 Y38.900 F200
G1 X50.650 Y39.000
G1 X50.650 Y39.100
G1 X50.600 Y39.150
G1 X50.550 Y39.200
G1 X50.550 Y39.300
G1 X50.550 Y39.400
G1 X50.550 Y39.500
G1 X50.550 Y39.600
G1 X50.550 Y39.700
G1 X50.550 Y39.800
G1 X50.550 Y39.900
G1 X50.550 Y40.000
G1 X50.500 Y40.050
G1 X50.450 Y40.100
G1 X50.450 Y40.200
G1 X50.450 Y40.300
G1 X50.450 Y40.400
G1 X50.450 Y40.500
G1 X50.450 Y40.600
G1 X50.450 Y40.700
G1 X50.450 Y40.800
G1 X50.450 Y40.900
G1 X50.450 Y41.000
G1 X50.400 Y41.050
G1 X50.350 Y41.100
G1 X50.350 Y41.200
G1 X50.350 Y41.300
G1 X50.350 Y41.400
G1 X50.350 Y41.500
G1 X50.350 Y41.600
G1 X50.350 Y41.700
G1 X50.350 Y41.800
G1 X50.350 Y41.900
G1 X50.350 Y42.000
G1 X50.350 Y42.100
G1 X50.350 Y42.200
G1 X50.350 Y42.300
G1 X50.350 Y42.400
G1 X50.350 Y42.500
G1 X50.350 Y42.600
G1 X50.350 Y42.700
G1 X50.350 Y42.800
G1 X50.350 Y42.900
G1 X50.350 Y43.000
G1 X50.350 Y43.100
G1 X50.350 Y43.200
G1 X50.350 Y43.300
G1 X50.350 Y43.400
G1 X50.350 Y43.500
G1 X50.350 Y43.600
G1 X50.350 Y43.700
G1 X50.350 Y43.800
G1 X50.350 Y43.900
G1 X50.350 Y44.000
G1 X50.350 Y44.100
G1 X50.350 Y44.200
G1 X50.350 Y44.300
G1 X50.350 Y44.400
G1 X50.350 Y44.500
G1 X50.350 Y44.600
G1 X50.350 Y44.700
G1 X50.350 Y44.800
G1 X50.350 Y44.900
G1 X50.350 Y45.000
G1 X50.350 Y45.100
G1 X50.350 Y45.200
G1 X50.350 Y45.300
G1 X50.350 Y45.400
G1 X50.350 Y45.500
G1 X50.350 Y45.600
G1 X50.350 Y45.700
G1 X50.350 Y45.800
G1 X50.350 Y45.900
G1 X50.350 Y46.000
G1 X50.350 Y46.100
G1 X50.350 Y46.200
G1 X50.350 Y46.300
G1 X50.350 Y46.400
G1 X50.350 Y46.500
G1 X50.350 Y46.600
G1 X50.350 Y46.700
G1 X50.350 Y46.800
G1 X50.350 Y46.900
G1 X50.350 Y47.000
G1 X50.400 Y47.050
; --- Backlash X fix: 0.500mm ---
G0 X50.900 Y47.050 F200
G1 X50.950 Y47.100
G1 X50.950 Y47.200
G1 X50.950 Y47.300
G1 X50.950 Y47.400
G1 X50.950 Y47.500
G1 X50.950 Y47.600
G1 X50.950 Y47.700
G1 X50.950 Y47.800
G1 X50.950 Y47.900
G1 X50.950 Y48.000
G1 X50.950 Y48.100
G1 X50.950 Y48.200
G1 X50.950 Y48.300
G1 X51.000 Y48.350
G1 X51.050 Y48.400
G1 X51.050 Y48.500
G1 X51.050 Y48.600
G1 X51.050 Y48.700
G1 X51.050 Y48.800
G1 X51.050 Y48.900
G1 X51.050 Y49.000
G1 X51.050 Y49.100
G1 X51.050 Y49.200
G1 X51.050 Y49.300
G1 X51.100 Y49.350
G1 X51.150 Y49.400
G1 X51.150 Y49.500
G1 X51.150 Y49.600
G1 X51.150 Y49.700
G1 X51.150 Y49.800
G1 X51.200 Y49.850
G1 X51.250 Y49.900
G1 X51.250 Y50.000
G1 X51.250 Y50.100
G1 X51.250 Y50.200
G1 X51.250 Y50.300
G1 X51.300 Y50.350
G1 X51.350 Y50.400
G1 X51.350 Y50.500
G1 X51.350 Y50.600
G1 X51.350 Y50.700
G1 X51.350 Y50.800
G1 X51.350 Y50.900
G1 X51.400 Y50.950
G1 X51.450 Y51.000
G1 X51.450 Y51.100
G1 X51.450 Y51.200
G1 X51.450 Y51.300
G1 X51.500 Y51.350
G1 X51.550 Y51.400
G1 X51.550 Y51.500
G1 X51.550 Y51.600
G1 X51.550 Y51.700
G1 X51.600 Y51.750
G1 X51.650 Y51.800
G1 X51.650 Y51.900
G1 X51.650 Y52.000
G1 X51.650 Y52.100
G1 X51.700 Y52.150
G1 X51.750 Y52.200
G1 X51.750 Y52.300
G1 X51.750 Y52.400
G1 X51.800 Y52.450
G1 X51.850 Y52.500
G1 X51.850 Y52.600
G1 X51.850 Y52.700
G1 X51.900 Y52.750
G1 X51.950 Y52.800
G1 X51.950 Y52.900
G1 X51.950 Y53.000
G1 X51.950 Y53.100
G1 X52.000 Y53.150
G1 X52.050 Y53.200
G1 X52.050 Y53.300
G1 X52.100 Y53.350
G1 X52.150 Y53.400
G1 X52.150 Y53.500
G1 X52.150 Y53.600
G1 X52.200 Y53.650
G1 X52.250 Y53.700
G1 X52.250 Y53.800
G1 X52.250 Y53.900
G1 X52.300 Y53.950
G1 X52.350 Y54.000
G1 X52.350 Y54.100
G1 X52.400 Y54.150
G1 X52.450 Y54.200
G1 X52.450 Y54.300
G1 X52.500 Y54.350
G1 X52.550 Y54.400
G1 X52.550 Y54.500
G1 X52.550 Y54.600
G1 X52.600 Y54.650
G1 X52.650 Y54.700
G1 X52.650 Y54.800
G1 X52.700 Y54.850
G1 X52.750 Y54.900
G1 X52.750 Y55.000
G1 X52.800 Y55.050
G1 X52.850 Y55.100
G1 X52.850 Y55.200
G1 X52.900 Y55.250
G1 X52.950 Y55.300
G1 X52.950 Y55.400
G1 X53.000 Y55.450
G1 X53.050 Y55.500
G1 X53.050 Y55.600
G1 X53.100 Y55.650
G1 X53.150 Y55.700
G1 X53.150 Y55.800
G1 X53.200 Y55.850
G1 X53.250 Y55.900
G1 X53.300 Y55.950
G1 X53.350 Y56.000
G1 X53.350 Y56.100
G1 X53.400 Y56.150
G1 X53.450 Y56.200
G1 X53.450 Y56.300
G1 X53.500 Y56.350
G1 X53.550 Y56.400
G1 X53.550 Y56.500
G1 X53.600 Y56.550
G1 X53.650 Y56.600
G1 X53.700 Y56.650
G1 X53.750 Y56.700
G1 X53.750 Y56.800
G1 X53.800 Y56.850
G1 X53.850 Y56.900
G1 X53.900 Y56.950
G1 X53.950 Y57.000
G1 X53.950 Y57.100
G1 X54.000 Y57.150
G1 X54.050 Y57.200
G1 X54.050 Y57.300
G1 X54.100 Y57.350
G1 X54.150 Y57.400
G1 X54.200 Y57.450
G1 X54.250 Y57.500
G1 X54.300 Y57.550
G1 X54.350 Y57.600
G1 X54.350 Y57.700
G1 X54.400 Y57.750
G1 X54.450 Y57.800
G1 X54.500 Y57.850
G1 X54.550 Y57.900
G1 X54.600 Y57.950
G1 X54.650 Y58.000
G1 X54.650 Y58.100
G1 X54.700 Y58.150
G1 X54.750 Y58.200
G1 X54.800 Y58.250
G1 X54.850 Y58.300
G1 X54.900 Y58.350
G1 X54.950 Y58.400
G1 X54.950 Y58.500
G1 X55.000 Y58.550
G1 X55.050 Y58.600
G1 X55.100 Y58.650
G1 X55.150 Y58.700
G1 X55.200 Y58.750
G1 X55.250 Y58.800
G1 X55.300 Y58.850
G1 X55.350 Y58.900
G1 X55.400 Y58.950
G1 X55.450 Y59.000
G1 X55.450 Y59.100
G1 X55.500 Y59.150
G1 X55.550 Y59.200
G1 X55.600 Y59.250
G1 X55.650 Y59.300
G1 X55.700 Y59.350
G1 X55.750 Y59.400
G1 X55.800 Y59.450
G1 X55.850 Y59.500
G1 X55.900 Y59.550
G1 X55.950 Y59.600
G1 X56.000 Y59.650
G1 X56.050 Y59.700
G1 X56.100 Y59.750
G1 X56.150 Y59.800
G1 X56.200 Y59.850
G1 X56.250 Y59.900
G1 X56.300 Y59.950
G1 X56.350 Y60.000
G1 X56.400 Y60.050
G1 X56.450 Y60.100
G1 X56.500 Y60.150
G1 X56.600 Y60.150
G1 X56.650 Y60.200
G1 X56.700 Y60.250
G1 X56.750 Y60.300
G1 X56.800 Y60.350
G1 X56.850 Y60.400
G1 X56.900 Y60.450
G1 X56.950 Y60.500
G1 X57.000 Y60.550
G1 X57.050 Y60.600
G1 X57.100 Y60.650
G1 X57.200 Y60.650
G1 X57.250 Y60.700
G1 X57.300 Y60.750
G1 X57.400 Y60.750
G1 X57.450 Y60.800
G1 X57.500 Y60.850
G1 X57.550 Y60.900
G1 X57.600 Y60.950
G1 X57.700 Y60.950
G1 X57.750 Y61.000
G1 X57.800 Y61.050
G1 X57.900 Y61.050
G1 X57.950 Y61.100
G1 X58.000 Y61.150
G1 X58.100 Y61.150
G1 X58.150 Y61.200
G1 X58.200 Y61.250
G1 X58.300 Y61.250
G1 X58.350 Y61.300
G0 Z1.800 F3000
M400
M204 P1000 T1000
G1 F1500
G0 X58.950 Y62.500 Z1.800
M400
M204 P550 T550
G1 F600
G1 Z0.000 F2500
G1 X59.000 Y62.550
G1 X59.100 Y62.550
G1 X59.200 Y62.550
G1 X59.300 Y62.550
G1 X59.400 Y62.550
G1 X59.500 Y62.550
G1 X59.600 Y62.550
G1 X59.700 Y62.550
G1 X59.800 Y62.550
G1 X59.900 Y62.550
G1 X60.000 Y62.550
G1 X60.100 Y62.550
G1 X60.200 Y62.550
G1 X60.300 Y62.550
G1 X60.400 Y62.550
G1 X60.500 Y62.550
G1 X60.600 Y62.550
G1 X60.650 Y62.500
G1 X60.700 Y62.450
G1 X60.800 Y62.450
; --- Backlash Y fix: -1.000mm ---
G0 X60.800 Y61.450 F200
G1 X60.850 Y61.400
G1 X60.900 Y61.350
G1 X60.950 Y61.300
G1 X60.950 Y61.200
; --- Backlash X fix: -0.500mm ---
G0 X60.450 Y61.200 F200
G1 X60.400 Y61.150
G1 X60.350 Y61.100
G1 X60.300 Y61.050
G1 X60.250 Y61.000
G1 X60.250 Y60.900
G1 X60.200 Y60.850
G1 X60.150 Y60.800
G1 X60.100 Y60.750
G1 X60.050 Y60.700
G1 X60.000 Y60.650
G1 X59.950 Y60.600
G1 X59.950 Y60.500
G1 X59.900 Y60.450
G1 X59.850 Y60.400
G1 X59.800 Y60.350
G1 X59.750 Y60.300
G1 X59.700 Y60.250
G1 X59.650 Y60.200
G1 X59.650 Y60.100
G1 X59.600 Y60.050
G1 X59.550 Y60.000
G1 X59.500 Y59.950
G1 X59.450 Y59.900
G1 X59.400 Y59.850
G1 X59.350 Y59.800
G1 X59.300 Y59.750
G1 X59.250 Y59.700
G1 X59.250 Y59.600
G1 X59.200 Y59.550
G1 X59.150 Y59.500
G1 X59.100 Y59.450
G1 X59.050 Y59.400
G1 X59.000 Y59.350
G1 X58.950 Y59.300
G1 X58.950 Y59.200
G1 X58.900 Y59.150
G1 X58.850 Y59.100
G1 X58.800 Y59.050
G1 X58.750 Y59.000
G1 X58.750 Y58.900
G1 X58.700 Y58.850
G1 X58.650 Y58.800
G1 X58.600 Y58.750
G1 X58.550 Y58.700
G1 X58.550 Y58.600
G1 X58.500 Y58.550
G1 X58.450 Y58.500
G1 X58.400 Y58.450
G1 X58.350 Y58.400
G1 X58.350 Y58.300
G1 X58.300 Y58.250
G1 X58.250 Y58.200
G1 X58.200 Y58.150
G1 X58.150 Y58.100
G1 X58.100 Y58.050
G1 X58.050 Y58.000
G1 X58.050 Y57.900
G1 X58.000 Y57.850
G1 X57.950 Y57.800
G1 X57.900 Y57.750
G1 X57.850 Y57.700
G1 X57.800 Y57.650
G1 X57.750 Y57.600
G1 X57.750 Y57.500
G1 X57.700 Y57.450
G1 X57.650 Y57.400
G1 X57.650 Y57.300
G1 X57.600 Y57.250
G1 X57.550 Y57.200
G1 X57.500 Y57.150
G1 X57.450 Y57.100
G1 X57.450 Y57.000
G1 X57.400 Y56.950
G1 X57.350 Y56.900
G1 X57.300 Y56.850
G1 X57.250 Y56.800
G1 X57.200 Y56.750
G1 X57.150 Y56.700
G1 X57.150 Y56.600
G1 X57.100 Y56.550
G1 X57.050 Y56.500
G1 X57.050 Y56.400
G1 X57.000 Y56.350
G1 X56.950 Y56.300
G1 X56.900 Y56.250
G1 X56.850 Y56.200
G1 X56.850 Y56.100
G1 X56.800 Y56.050
G1 X56.750 Y56.000
G1 X56.700 Y55.950
G1 X56.650 Y55.900
G1 X56.650 Y55.800
G1 X56.600 Y55.750
G1 X56.550 Y55.700
G1 X56.550 Y55.600
G1 X56.500 Y55.550
G1 X56.450 Y55.500
G1 X56.400 Y55.450
G1 X56.350 Y55.400
G1 X56.350 Y55.300
G1 X56.300 Y55.250
G1 X56.250 Y55.200
G1 X56.250 Y55.100
G1 X56.200 Y55.050
G1 X56.150 Y55.000
G1 X56.100 Y54.950
G1 X56.050 Y54.900
G1 X56.050 Y54.800
G1 X56.000 Y54.750
G1 X55.950 Y54.700
G1 X55.950 Y54.600
G1 X55.900 Y54.550
G1 X55.850 Y54.500
G1 X55.850 Y54.400
G1 X55.800 Y54.350
G1 X55.750 Y54.300
G1 X55.700 Y54.250
G1 X55.650 Y54.200
G1 X55.650 Y54.100
G1 X55.650 Y54.000
G1 X55.600 Y53.950
G1 X55.550 Y53.900
G1 X55.500 Y53.850
G1 X55.450 Y53.800
G1 X55.450 Y53.700
G1 X55.400 Y53.650
G1 X55.350 Y53.600
G1 X55.350 Y53.500
G1 X55.350 Y53.400
G1 X55.300 Y53.350
G1 X55.250 Y53.300
G1 X55.250 Y53.200
G1 X55.200 Y53.150
G1 X55.150 Y53.100
G1 X55.100 Y53.050
G1 X55.050 Y53.000
G1 X55.050 Y52.900
G1 X55.050 Y52.800
G1 X55.000 Y52.750
G1 X54.950 Y52.700
G1 X54.950 Y52.600
G1 X54.900 Y52.550
G1 X54.850 Y52.500
G1 X54.850 Y52.400
G1 X54.800 Y52.350
G1 X54.750 Y52.300
G1 X54.750 Y52.200
G1 X54.750 Y52.100
G1 X54.700 Y52.050
G1 X54.650 Y52.000
G1 X54.650 Y51.900
G1 X54.600 Y51.850
G1 X54.550 Y51.800
G1 X54.550 Y51.700
G1 X54.500 Y51.650
G1 X54.450 Y51.600
G1 X54.450 Y51.500
G1 X54.450 Y51.400
G1 X54.400 Y51.350
G1 X54.350 Y51.300
G1 X54.350 Y51.200
G1 X54.350 Y51.100
G1 X54.300 Y51.050
G1 X54.250 Y51.000
G1 X54.250 Y50.900
G1 X54.200 Y50.850
G1 X54.150 Y50.800
G1 X54.150 Y50.700
G1 X54.150 Y50.600
G1 X54.100 Y50.550
G1 X54.050 Y50.500
G1 X54.050 Y50.400
G1 X54.000 Y50.350
G1 X53.950 Y50.300
G1 X53.950 Y50.200
G1 X53.950 Y50.100
G1 X53.900 Y50.050
G1 X53.850 Y50.000
G1 X53.850 Y49.900
G1 X53.850 Y49.800
G1 X53.800 Y49.750
G1 X53.750 Y49.700
G1 X53.750 Y49.600
G1 X53.750 Y49.500
G1 X53.700 Y49.450
G1 X53.650 Y49.400
G1 X53.650 Y49.300
G1 X53.650 Y49.200
G1 X53.600 Y49.150
G1 X53.550 Y49.100
G1 X53.550 Y49.000
G1 X53.550 Y48.900
G1 X53.500 Y48.850
G1 X53.450 Y48.800
G1 X53.450 Y48.700
G1 X53.450 Y48.600
G1 X53.400 Y48.550
G0 Z1.800 F3000

; --- DIP → Color 3 — Yellow ---
G0 Z1.800 F3000
M400
M204 P1000 T1000
G1 F1500
G0 X109.341 Y6.993 Z10.000
G1 Z1.000 F3000
G1 X109.341 Y6.993 F2500
G1 X109.341 Y9.493 F2500
G1 X104.341 Y6.993 F2500
G1 X109.341 Y0.000 F2500
G0 Z3.000 F3000
G0 X97.837 Y10.019
G0 Z10.000 F3000
G0 X53.850 Y49.500 Z1.800
M400
M204 P550 T550
G1 F600
G1 Z0.000 F2500
G1 X53.350 Y48.500
G1 X53.350 Y48.400
G1 X53.350 Y48.300
G1 X53.300 Y48.250
G1 X53.250 Y48.200
G1 X53.250 Y48.100
G1 X53.250 Y48.000
G1 X53.250 Y47.900
G1 X53.250 Y47.800
G1 X53.200 Y47.750
G1 X53.150 Y47.700
G1 X53.150 Y47.600
G1 X53.150 Y47.500
G1 X53.100 Y47.450
G1 X53.050 Y47.400
G1 X53.050 Y47.300
G1 X53.050 Y47.200
G1 X53.000 Y47.150
G1 X52.950 Y47.100
G1 X52.950 Y47.000
G1 X52.950 Y46.900
G1 X52.950 Y46.800
G1 X52.950 Y46.700
G1 X52.900 Y46.650
G1 X52.850 Y46.600
G1 X52.850 Y46.500
G1 X52.850 Y46.400
G1 X52.850 Y46.300
G1 X52.850 Y46.200
G1 X52.800 Y46.150
G1 X52.750 Y46.100
G1 X52.750 Y46.000
G1 X52.750 Y45.900
G1 X52.750 Y45.800
G1 X52.700 Y45.750
G1 X52.650 Y45.700
G1 X52.650 Y45.600
G1 X52.650 Y45.500
G1 X52.650 Y45.400
G1 X52.650 Y45.300
G1 X52.650 Y45.200
G1 X52.650 Y45.100
G1 X52.600 Y45.050
G1 X52.550 Y45.000
G1 X52.550 Y44.900
G1 X52.550 Y44.800
G1 X52.550 Y44.700
G1 X52.550 Y44.600
G1 X52.550 Y44.500
G1 X52.550 Y44.400
G1 X52.500 Y44.350
G1 X52.450 Y44.300
G1 X52.450 Y44.200
G1 X52.450 Y44.100
G1 X52.450 Y44.000
G1 X52.450 Y43.900
G1 X52.450 Y43.800
G1 X52.450 Y43.700
G1 X52.450 Y43.600
G1 X52.400 Y43.550
G1 X52.350 Y43.500
G1 X52.350 Y43.400
G1 X52.350 Y43.300
G1 X52.350 Y43.200
G1 X52.350 Y43.100
G1 X52.350 Y43.000
G1 X52.350 Y42.900
G1 X52.350 Y42.800
G1 X52.350 Y42.700
G1 X52.400 Y42.650
; --- Backlash X fix: 0.500mm ---
G0 X52.900 Y42.650 F200
; --- Backlash Y fix: 1.000mm ---
G0 X52.900 Y43.650 F200
G1 X52.950 Y43.700
G1 X53.000 Y43.750
G1 X53.050 Y43.800
G1 X53.100 Y43.850
G1 X53.150 Y43.900
G1 X53.150 Y44.000
G1 X53.150 Y44.100
G1 X53.200 Y44.150
G1 X53.250 Y44.200
G1 X53.250 Y44.300
G1 X53.300 Y44.350
G1 X53.350 Y44.400
G1 X53.350 Y44.500
G1 X53.400 Y44.550
G1 X53.450 Y44.600
G1 X53.450 Y44.700
G1 X53.450 Y44.800
G1 X53.500 Y44.850
G1 X53.550 Y44.900
G1 X53.550 Y45.000
G1 X53.600 Y45.050
G1 X53.650 Y45.100
G1 X53.650 Y45.200
G1 X53.700 Y45.250
G1 X53.750 Y45.300
G1 X53.750 Y45.400
G1 X53.750 Y45.500
G1 X53.800 Y45.550
G1 X53.850 Y45.600
G1 X53.850 Y45.700
G1 X53.900 Y45.750
G1 X53.950 Y45.800
G1 X53.950 Y45.900
G1 X54.000 Y45.950
G1 X54.050 Y46.000
G1 X54.050 Y46.100
G1 X54.050 Y46.200
G1 X54.100 Y46.250
G1 X54.150 Y46.300
G1 X54.150 Y46.400
G1 X54.200 Y46.450
G1 X54.250 Y46.500
G1 X54.250 Y46.600
G1 X54.300 Y46.650
G1 X54.350 Y46.700
G1 X54.350 Y46.800
G1 X54.350 Y46.900
G1 X54.400 Y46.950
G1 X54.450 Y47.000
G1 X54.450 Y47.100
G1 X54.500 Y47.150
G1 X54.550 Y47.200
G1 X54.550 Y47.300
G1 X54.600 Y47.350
G1 X54.650 Y47.400
G1 X54.650 Y47.500
G1 X54.700 Y47.550
G1 X54.750 Y47.600
G1 X54.750 Y47.700
G1 X54.800 Y47.750
G1 X54.850 Y47.800
G1 X54.850 Y47.900
G1 X54.900 Y47.950
G1 X54.950 Y48.000
G1 X54.950 Y48.100
G1 X54.950 Y48.200
G1 X55.000 Y48.250
G1 X55.050 Y48.300
G1 X55.050 Y48.400
G1 X55.100 Y48.450
G1 X55.150 Y48.500
G1 X55.200 Y48.550
G1 X55.250 Y48.600
G1 X55.250 Y48.700
G1 X55.250 Y48.800
G1 X55.300 Y48.850
G1 X55.350 Y48.900
G1 X55.350 Y49.000
G1 X55.400 Y49.050
G1 X55.450 Y49.100
G1 X55.450 Y49.200
G1 X55.500 Y49.250
G1 X55.550 Y49.300
G1 X55.550 Y49.400
G1 X55.600 Y49.450
G1 X55.650 Y49.500
G1 X55.650 Y49.600
G1 X55.700 Y49.650
G1 X55.750 Y49.700
G1 X55.750 Y49.800
G1 X55.800 Y49.850
G1 X55.850 Y49.900
G1 X55.850 Y50.000
G1 X55.900 Y50.050
G1 X55.950 Y50.100
G1 X55.950 Y50.200
G1 X56.000 Y50.250
G1 X56.050 Y50.300
G1 X56.050 Y50.400
G1 X56.100 Y50.450
G1 X56.150 Y50.500
G1 X56.150 Y50.600
G1 X56.200 Y50.650
G1 X56.250 Y50.700
G1 X56.250 Y50.800
G1 X56.300 Y50.850
G1 X56.350 Y50.900
G1 X56.350 Y51.000
G1 X56.400 Y51.050
G1 X56.450 Y51.100
G1 X56.450 Y51.200
G1 X56.500 Y51.250
G1 X56.550 Y51.300
G1 X56.550 Y51.400
G1 X56.600 Y51.450
G1 X56.650 Y51.500
G1 X56.650 Y51.600
G1 X56.700 Y51.650
G1 X56.750 Y51.700
G1 X56.750 Y51.800
G1 X56.800 Y51.850
G1 X56.850 Y51.900
G1 X56.850 Y52.000
G1 X56.900 Y52.050
G1 X56.950 Y52.100
G1 X56.950 Y52.200
G1 X57.000 Y52.250
G1 X57.050 Y52.300
G1 X57.050 Y52.400
G1 X57.100 Y52.450
G1 X57.150 Y52.500
G1 X57.150 Y52.600
G1 X57.200 Y52.650
G1 X57.250 Y52.700
G1 X57.300 Y52.750
G1 X57.350 Y52.800
G1 X57.350 Y52.900
G1 X57.400 Y52.950
G1 X57.450 Y53.000
G1 X57.450 Y53.100
G1 X57.500 Y53.150
G1 X57.550 Y53.200
G1 X57.550 Y53.300
G1 X57.600 Y53.350
G1 X57.650 Y53.400
G1 X57.650 Y53.500
G1 X57.700 Y53.550
G1 X57.750 Y53.600
G1 X57.750 Y53.700
G1 X57.800 Y53.750
G1 X57.850 Y53.800
G1 X57.900 Y53.850
G1 X57.950 Y53.900
G1 X57.950 Y54.000
G1 X58.000 Y54.050
G1 X58.050 Y54.100
G1 X58.050 Y54.200
G1 X58.100 Y54.250
G1 X58.150 Y54.300
G1 X58.200 Y54.350
G1 X58.250 Y54.400
G1 X58.250 Y54.500
G1 X58.300 Y54.550
G1 X58.350 Y54.600
G1 X58.350 Y54.700
G1 X58.400 Y54.750
G1 X58.450 Y54.800
G1 X58.500 Y54.850
G1 X58.550 Y54.900
G1 X58.550 Y55.000
G1 X58.600 Y55.050
G1 X58.650 Y55.100
G1 X58.650 Y55.200
G1 X58.700 Y55.250
G1 X58.750 Y55.300
G1 X58.800 Y55.350
G1 X58.850 Y55.400
G1 X58.850 Y55.500
G1 X58.900 Y55.550
G1 X58.950 Y55.600
G1 X59.000 Y55.650
G1 X59.050 Y55.700
G1 X59.050 Y55.800
G1 X59.100 Y55.850
G1 X59.150 Y55.900
G1 X59.150 Y56.000
G1 X59.200 Y56.050
G1 X59.250 Y56.100
G1 X59.300 Y56.150
G1 X59.350 Y56.200
G1 X59.400 Y56.250
G1 X59.450 Y56.300
G1 X59.450 Y56.400
G1 X59.500 Y56.450
G1 X59.550 Y56.500
G1 X59.600 Y56.550
G1 X59.650 Y56.600
G1 X59.650 Y56.700
G1 X59.700 Y56.750
G1 X59.750 Y56.800
G1 X59.800 Y56.850
G1 X59.850 Y56.900
G1 X59.850 Y57.000
G1 X59.900 Y57.050
G1 X59.950 Y57.100
G1 X60.000 Y57.150
G1 X60.050 Y57.200
G1 X60.050 Y57.300
G1 X60.100 Y57.350
G1 X60.150 Y57.400
G1 X60.200 Y57.450
G1 X60.250 Y57.500
G1 X60.250 Y57.600
G1 X60.300 Y57.650
G1 X60.350 Y57.700
G1 X60.400 Y57.750
G1 X60.450 Y57.800
G1 X60.450 Y57.900
G1 X60.500 Y57.950
G1 X60.550 Y58.000
G1 X60.600 Y58.050
G1 X60.650 Y58.100
G1 X60.700 Y58.150
G1 X60.750 Y58.200
G1 X60.750 Y58.300
G1 X60.800 Y58.350
G1 X60.850 Y58.400
G1 X60.900 Y58.450
G1 X60.950 Y58.500
G1 X60.950 Y58.600
G1 X61.000 Y58.650
G1 X61.050 Y58.700
G1 X61.100 Y58.750
G1 X61.150 Y58.800
G1 X61.200 Y58.850
G1 X61.250 Y58.900
G1 X61.250 Y59.000
G1 X61.300 Y59.050
G1 X61.350 Y59.100
G1 X61.400 Y59.150
G1 X61.450 Y59.200
G1 X61.500 Y59.250
G1 X61.550 Y59.300
G1 X61.550 Y59.400
G1 X61.600 Y59.450
G1 X61.650 Y59.500
G1 X61.700 Y59.550
G1 X61.750 Y59.600
G1 X61.800 Y59.650
G1 X61.850 Y59.700
G1 X61.850 Y59.800
G1 X61.900 Y59.850
G1 X61.950 Y59.900
G1 X62.000 Y59.950
G1 X62.050 Y60.000
G1 X62.100 Y60.050
G1 X62.150 Y60.100
G1 X62.150 Y60.200
G1 X62.200 Y60.250
G1 X62.250 Y60.300
G1 X62.300 Y60.350
G1 X62.350 Y60.400
G1 X62.400 Y60.450
G1 X62.450 Y60.500
G1 X62.450 Y60.600
G1 X62.500 Y60.650
G1 X62.550 Y60.700
G1 X62.600 Y60.750
G1 X62.650 Y60.800
G1 X62.700 Y60.850
G1 X62.750 Y60.900
G1 X62.800 Y60.950
G1 X62.850 Y61.000
G1 X62.850 Y61.100
G1 X62.900 Y61.150
G1 X62.950 Y61.200
G1 X63.000 Y61.250
G1 X63.050 Y61.300
G1 X63.100 Y61.350
G1 X63.150 Y61.400
G1 X63.200 Y61.450
G1 X63.250 Y61.500
G1 X63.300 Y61.550
G1 X63.400 Y61.550
G1 X63.500 Y61.550
G1 X63.550 Y61.500
G1 X63.600 Y61.450
G1 X63.700 Y61.450
; --- Backlash Y fix: -1.000mm ---
G0 X63.700 Y60.450 F200
G1 X63.750 Y60.400
G1 X63.800 Y60.350
G1 X63.900 Y60.350
G1 X63.950 Y60.300
G1 X64.000 Y60.250
G1 X64.100 Y60.250
G1 X64.150 Y60.200
G1 X64.200 Y60.150
G1 X64.300 Y60.150
G1 X64.350 Y60.100
G1 X64.400 Y60.050
G1 X64.500 Y60.050
G1 X64.550 Y60.000
G1 X64.600 Y59.950
G1 X64.650 Y59.900
G1 X64.700 Y59.850
G1 X64.750 Y59.800
G1 X64.800 Y59.750
G1 X64.900 Y59.750
G1 X64.950 Y59.700
G1 X65.000 Y59.650
G1 X65.100 Y59.650
G1 X65.150 Y59.600
G1 X65.200 Y59.550
G1 X65.250 Y59.500
G1 X65.300 Y59.450
G1 X65.350 Y59.400
G1 X65.400 Y59.350
G1 X65.500 Y59.350
G1 X65.550 Y59.300
G1 X65.600 Y59.250
G1 X65.650 Y59.200
G1 X65.700 Y59.150
G1 X65.750 Y59.100
G1 X65.800 Y59.050
G1 X65.900 Y59.050
G1 X65.950 Y59.000
G1 X66.000 Y58.950
G1 X66.050 Y58.900
G1 X66.100 Y58.850
G1 X66.150 Y58.800
G1 X66.150 Y58.700
G1 X66.200 Y58.650
G1 X66.250 Y58.600
G1 X66.200 Y58.550
G1 X66.150 Y58.500
G1 X66.150 Y58.400
G1 X66.150 Y58.300
; --- Backlash X fix: -0.500mm ---
G0 X65.650 Y58.300 F200
G1 X65.600 Y58.250
G1 X65.550 Y58.200
G1 X65.550 Y58.100
G1 X65.550 Y58.000
G1 X65.550 Y57.900
G1 X65.500 Y57.850
G1 X65.450 Y57.800
G1 X65.450 Y57.700
G1 X65.450 Y57.600
G1 X65.400 Y57.550
G1 X65.350 Y57.500
G1 X65.350 Y57.400
G1 X65.300 Y57.350
G1 X65.250 Y57.300
G1 X65.250 Y57.200
G1 X65.250 Y57.100
G1 X65.200 Y57.050
G1 X65.150 Y57.000
G1 X65.150 Y56.900
G1 X65.100 Y56.850
G1 X65.050 Y56.800
G1 X65.050 Y56.700
G1 X65.000 Y56.650
G1 X64.950 Y56.600
G1 X64.950 Y56.500
G1 X64.950 Y56.400
G1 X64.900 Y56.350
G1 X64.850 Y56.300
G1 X64.850 Y56.200
G1 X64.800 Y56.150
G1 X64.750 Y56.100
G1 X64.750 Y56.000
G1 X64.700 Y55.950
G1 X64.650 Y55.900
G1 X64.650 Y55.800
G1 X64.650 Y55.700
G1 X64.600 Y55.650
G1 X64.550 Y55.600
G1 X64.550 Y55.500
G1 X64.500 Y55.450
G1 X64.450 Y55.400
G1 X64.450 Y55.300
G1 X64.400 Y55.250
G1 X64.350 Y55.200
G1 X64.350 Y55.100
G1 X64.300 Y55.050
G1 X64.250 Y55.000
G1 X64.250 Y54.900
G1 X64.200 Y54.850
G1 X64.150 Y54.800
G1 X64.150 Y54.700
G1 X64.100 Y54.650
G1 X64.050 Y54.600
G1 X64.050 Y54.500
G1 X64.000 Y54.450
G1 X63.950 Y54.400
G1 X63.950 Y54.300
G1 X63.900 Y54.250
G1 X63.850 Y54.200
G1 X63.850 Y54.100
G1 X63.800 Y54.050
G1 X63.750 Y54.000
G1 X63.750 Y53.900
G1 X63.700 Y53.850
G1 X63.650 Y53.800
G1 X63.650 Y53.700
G1 X63.600 Y53.650
G1 X63.550 Y53.600
G1 X63.550 Y53.500
G1 X63.500 Y53.450
G1 X63.450 Y53.400
G1 X63.450 Y53.300
G1 X63.400 Y53.250
G1 X63.350 Y53.200
G1 X63.300 Y53.150
G1 X63.250 Y53.100
G1 X63.250 Y53.000
G1 X63.200 Y52.950
G1 X63.150 Y52.900
G1 X63.150 Y52.800
G1 X63.100 Y52.750
G1 X63.050 Y52.700
G1 X63.050 Y52.600
G1 X63.000 Y52.550
G1 X62.950 Y52.500
G1 X62.900 Y52.450
G1 X62.850 Y52.400
G1 X62.850 Y52.300
G1 X62.800 Y52.250
G1 X62.750 Y52.200
G1 X62.750 Y52.100
G1 X62.700 Y52.050
G1 X62.650 Y52.000
G1 X62.600 Y51.950
G1 X62.550 Y51.900
G1 X62.550 Y51.800
G1 X62.500 Y51.750
G1 X62.450 Y51.700
G1 X62.450 Y51.600
G1 X62.400 Y51.550
G1 X62.350 Y51.500
G1 X62.300 Y51.450
G1 X62.250 Y51.400
G1 X62.250 Y51.300
G1 X62.200 Y51.250
G1 X62.150 Y51.200
G1 X62.150 Y51.100
G1 X62.100 Y51.050
G1 X62.050 Y51.000
G1 X62.000 Y50.950
G1 X61.950 Y50.900
G1 X61.950 Y50.800
G1 X61.900 Y50.750
G1 X61.850 Y50.700
G1 X61.800 Y50.650
G1 X61.750 Y50.600
G1 X61.700 Y50.550
G1 X61.650 Y50.500
G1 X61.650 Y50.400
G1 X61.600 Y50.350
G1 X61.550 Y50.300
G1 X61.500 Y50.250
G1 X61.450 Y50.200
G1 X61.450 Y50.100
G1 X61.400 Y50.050
G1 X61.350 Y50.000
G1 X61.300 Y49.950
G1 X61.250 Y49.900
G1 X61.250 Y49.800
G1 X61.200 Y49.750
G1 X61.150 Y49.700
G1 X61.100 Y49.650
G1 X61.050 Y49.600
G1 X61.000 Y49.550
G1 X60.950 Y49.500
G1 X60.950 Y49.400
G1 X60.900 Y49.350
G1 X60.850 Y49.300
G1 X60.800 Y49.250
G1 X60.750 Y49.200
G1 X60.700 Y49.150
G1 X60.650 Y49.100
G1 X60.650 Y49.000
G1 X60.600 Y48.950
G1 X60.550 Y48.900
G1 X60.500 Y48.850
G1 X60.450 Y48.800
G1 X60.400 Y48.750
G1 X60.350 Y48.700
G1 X60.350 Y48.600
G1 X60.300 Y48.550
G1 X60.250 Y48.500
G1 X60.200 Y48.450
G1 X60.150 Y48.400
G1 X60.100 Y48.350
G1 X60.050 Y48.300
G1 X60.000 Y48.250
G1 X59.950 Y48.200
G1 X59.950 Y48.100
G1 X59.900 Y48.050
G1 X59.850 Y48.000
G1 X59.800 Y47.950
G1 X59.750 Y47.900
G1 X59.700 Y47.850
G1 X59.650 Y47.800
G1 X59.600 Y47.750
G1 X59.550 Y47.700
G1 X59.550 Y47.600
G1 X59.500 Y47.550
G1 X59.450 Y47.500
G1 X59.400 Y47.450
G1 X59.350 Y47.400
G1 X59.300 Y47.350
G1 X59.250 Y47.300
G1 X59.200 Y47.250
G1 X59.150 Y47.200
G1 X59.100 Y47.150
G1 X59.050 Y47.100
G1 X59.050 Y47.000
G1 X59.000 Y46.950
G1 X58.950 Y46.900
G1 X58.900 Y46.850
G1 X58.850 Y46.800
G1 X58.800 Y46.750
G1 X58.750 Y46.700
G1 X58.700 Y46.650
G1 X58.650 Y46.600
G1 X58.600 Y46.550
G1 X58.550 Y46.500
G1 X58.500 Y46.450
G1 X58.450 Y46.400
G1 X58.400 Y46.350
G1 X58.350 Y46.300
G1 X58.350 Y46.200
G1 X58.300 Y46.150
G1 X58.250 Y46.100
G1 X58.200 Y46.050
G1 X58.150 Y46.000
G1 X58.100 Y45.950
G1 X58.050 Y45.900
G1 X58.000 Y45.850
G1 X57.950 Y45.800
G1 X57.900 Y45.750
G1 X57.850 Y45.700
G1 X57.800 Y45.650
G1 X57.750 Y45.600
G1 X57.700 Y45.550
G1 X57.650 Y45.500
G1 X57.600 Y45.450
G1 X57.550 Y45.400
G1 X57.500 Y45.350
G1 X57.450 Y45.300
G1 X57.450 Y45.200
G1 X57.400 Y45.150
G1 X57.350 Y45.100
G1 X57.300 Y45.050
G1 X57.250 Y45.000
G1 X57.200 Y44.950
G1 X57.150 Y44.900
G1 X57.100 Y44.850
G1 X57.050 Y44.800
G1 X57.000 Y44.750
G1 X56.950 Y44.700
G1 X56.900 Y44.650
G1 X56.850 Y44.600
G1 X56.800 Y44.550
G1 X56.750 Y44.500
G1 X56.700 Y44.450
G1 X56.650 Y44.400
G1 X56.600 Y44.350
G1 X56.550 Y44.300
G1 X56.500 Y44.250
G1 X56.450 Y44.200
G1 X56.400 Y44.150
G1 X56.350 Y44.100
G1 X56.300 Y44.050
G1 X56.250 Y44.000
G1 X56.250 Y43.900
G1 X56.200 Y43.850
G1 X56.100 Y43.850
G1 X56.050 Y43.800
G1 X56.050 Y43.700
G1 X56.000 Y43.650
G1 X55.950 Y43.600
G1 X55.900 Y43.550
G1 X55.850 Y43.500
G1 X55.800 Y43.450
G1 X55.750 Y43.400
G1 X55.700 Y43.350
G1 X55.650 Y43.300
G1 X55.600 Y43.250
G1 X55.550 Y43.200
G1 X55.500 Y43.150
G1 X55.450 Y43.100
G1 X55.400 Y43.050
G1 X55.350 Y43.000
G1 X55.300 Y42.950
G1 X55.250 Y42.900
G1 X55.200 Y42.850
G1 X55.150 Y42.800
G1 X55.100 Y42.750
G1 X55.050 Y42.700
G1 X55.000 Y42.650
G1 X54.950 Y42.600
G1 X54.900 Y42.550
G1 X54.850 Y42.500
G1 X54.800 Y42.450
G1 X54.750 Y42.400
G1 X54.700 Y42.350
G1 X54.650 Y42.300
G1 X54.650 Y42.200
G1 X54.600 Y42.150
G1 X54.550 Y42.100
G1 X54.500 Y42.050
G1 X54.450 Y42.000
G1 X54.400 Y41.950
G1 X54.350 Y41.900
G1 X54.350 Y41.800
G1 X54.400 Y41.750
; --- Backlash X fix: 0.500mm ---
G0 X54.900 Y41.750 F200
G1 X55.000 Y41.750
G1 X55.050 Y41.800
; --- Backlash Y fix: 1.000mm ---
G0 X55.050 Y42.800 F200
G1 X55.100 Y42.850
G1 X55.150 Y42.900
G1 X55.200 Y42.950
G1 X55.300 Y42.950
G1 X55.350 Y43.000
G1 X55.400 Y43.050
G1 X55.500 Y43.050
G1 X55.600 Y43.050
G1 X55.650 Y43.100
G1 X55.700 Y43.150
G1 X55.750 Y43.200
G1 X55.800 Y43.250
G1 X55.900 Y43.250
G1 X55.950 Y43.300
G1 X56.000 Y43.350
G1 X56.100 Y43.350
G1 X56.150 Y43.400
G1 X56.200 Y43.450
G1 X56.250 Y43.500
G1 X56.300 Y43.550
G1 X56.400 Y43.550
G1 X56.450 Y43.600
G1 X56.500 Y43.650
G1 X56.600 Y43.650
G1 X56.650 Y43.700
G1 X56.700 Y43.750
G1 X56.800 Y43.750
G1 X56.850 Y43.800
G1 X56.900 Y43.850
G1 X56.950 Y43.900
G1 X57.000 Y43.950
G1 X57.100 Y43.950
G1 X57.150 Y44.000
G1 X57.200 Y44.050
G1 X57.250 Y44.100
G1 X57.300 Y44.150
G1 X57.400 Y44.150
G1 X57.450 Y44.200
G1 X57.500 Y44.250
G1 X57.600 Y44.250
G1 X57.650 Y44.300
G1 X57.700 Y44.350
G1 X57.750 Y44.400
G1 X57.800 Y44.450
G1 X57.850 Y44.500
G1 X57.900 Y44.550
G1 X58.000 Y44.550
G1 X58.050 Y44.600
G1 X58.100 Y44.650
G1 X58.150 Y44.700
G1 X58.200 Y44.750
G1 X58.250 Y44.800
G1 X58.300 Y44.850
G1 X58.400 Y44.850
G1 X58.450 Y44.900
G1 X58.500 Y44.950
G1 X58.550 Y45.000
G1 X58.600 Y45.050
G1 X58.650 Y45.100
G1 X58.700 Y45.150
G1 X58.800 Y45.150
G1 X58.850 Y45.200
G1 X58.900 Y45.250
G1 X58.950 Y45.300
G1 X59.000 Y45.350
G1 X59.050 Y45.400
G1 X59.100 Y45.450
G1 X59.200 Y45.450
G1 X59.250 Y45.500
G1 X59.300 Y45.550
G1 X59.350 Y45.600
G1 X59.400 Y45.650
G1 X59.450 Y45.700
G1 X59.500 Y45.750
G1 X59.550 Y45.800
G1 X59.600 Y45.850
G1 X59.650 Y45.900
G1 X59.700 Y45.950
G1 X59.750 Y46.000
G1 X59.800 Y46.050
G1 X59.900 Y46.050
G1 X59.950 Y46.100
G1 X60.000 Y46.150
G1 X60.050 Y46.200
G1 X60.100 Y46.250
G1 X60.150 Y46.300
G1 X60.200 Y46.350
G1 X60.250 Y46.400
G1 X60.300 Y46.450
G1 X60.350 Y46.500
G1 X60.400 Y46.550
G1 X60.450 Y46.600
G1 X60.500 Y46.650
G1 X60.600 Y46.650
G1 X60.650 Y46.700
G1 X60.650 Y46.800
G1 X60.700 Y46.850
G1 X60.750 Y46.900
G1 X60.800 Y46.950
G1 X60.900 Y46.950
G1 X60.950 Y47.000
G1 X60.950 Y47.100
G1 X61.000 Y47.150
G1 X61.100 Y47.150
G0 Z1.800 F3000

; --- DIP → Color 1 — Red ---
G0 Z1.800 F3000
M400
M204 P1000 T1000
G1 F1500
G0 X10.895 Y0.000 Z10.000
G1 Z1.000 F3000
G1 X10.895 Y0.000 F2500
G1 X10.895 Y2.500 F2500
G1 X5.895 Y0.000 F2500
G1 X10.895 Y0.000 F2500
G0 Z3.000 F3000
G0 X27.247 Y10.955
G0 Z10.000 F3000
G0 X61.150 Y47.200 Z1.800
M400
M204 P550 T550
G1 F600
G1 Z0.000 F2500
G1 X61.150 Y47.200
G1 X61.200 Y47.250
G1 X61.250 Y47.300
G1 X61.300 Y47.350
G1 X61.350 Y47.400
G1 X61.400 Y47.450
G1 X61.450 Y47.500
G1 X61.500 Y47.550
G1 X61.550 Y47.600
G1 X61.550 Y47.700
G1 X61.600 Y47.750
G1 X61.650 Y47.800
G1 X61.700 Y47.850
G1 X61.800 Y47.850
G1 X61.850 Y47.900
G1 X61.850 Y48.000
G1 X61.900 Y48.050
G1 X61.950 Y48.100
G1 X62.000 Y48.150
G1 X62.050 Y48.200
G1 X62.100 Y48.250
G1 X62.150 Y48.300
G1 X62.200 Y48.350
G1 X62.250 Y48.400
G1 X62.300 Y48.450
G1 X62.350 Y48.500
G1 X62.400 Y48.550
G1 X62.450 Y48.600
G1 X62.500 Y48.650
G1 X62.550 Y48.700
G1 X62.600 Y48.750
G1 X62.650 Y48.800
G1 X62.700 Y48.850
G1 X62.750 Y48.900
G1 X62.750 Y49.000
G1 X62.800 Y49.050
G1 X62.850 Y49.100
G1 X62.900 Y49.150
G1 X62.950 Y49.200
G1 X63.000 Y49.250
G1 X63.050 Y49.300
G1 X63.100 Y49.350
G1 X63.150 Y49.400
G1 X63.150 Y49.500
G1 X63.200 Y49.550
G1 X63.250 Y49.600
G1 X63.300 Y49.650
G1 X63.350 Y49.700
G1 X63.400 Y49.750
G1 X63.450 Y49.800
G1 X63.500 Y49.850
G1 X63.550 Y49.900
G1 X63.600 Y49.950
G1 X63.650 Y50.000
G1 X63.650 Y50.100
G1 X63.700 Y50.150
G1 X63.750 Y50.200
G1 X63.800 Y50.250
G1 X63.850 Y50.300
G1 X63.900 Y50.350
G1 X63.950 Y50.400
G1 X63.950 Y50.500
G1 X64.000 Y50.550
G1 X64.050 Y50.600
G1 X64.100 Y50.650
G1 X64.150 Y50.700
G1 X64.200 Y50.750
G1 X64.250 Y50.800
G1 X64.250 Y50.900
G1 X64.300 Y50.950
G1 X64.350 Y51.000
G1 X64.400 Y51.050
G1 X64.450 Y51.100
G1 X64.450 Y51.200
G1 X64.500 Y51.250
G1 X64.550 Y51.300
G1 X64.600 Y51.350
G1 X64.650 Y51.400
G1 X64.650 Y51.500
G1 X64.700 Y51.550
G1 X64.750 Y51.600
G1 X64.800 Y51.650
G1 X64.850 Y51.700
G1 X64.850 Y51.800
G1 X64.900 Y51.850
G1 X64.950 Y51.900
G1 X65.000 Y51.950
G1 X65.050 Y52.000
G1 X65.100 Y52.050
G1 X65.150 Y52.100
G1 X65.150 Y52.200
G1 X65.200 Y52.250
G1 X65.250 Y52.300
G1 X65.250 Y52.400
G1 X65.300 Y52.450
G1 X65.350 Y52.500
G1 X65.400 Y52.550
G1 X65.450 Y52.600
G1 X65.450 Y52.700
G1 X65.500 Y52.750
G1 X65.550 Y52.800
G1 X65.550 Y52.900
G1 X65.600 Y52.950
G1 X65.650 Y53.000
G1 X65.700 Y53.050
G1 X65.750 Y53.100
G1 X65.750 Y53.200
G1 X65.800 Y53.250
G1 X65.850 Y53.300
G1 X65.850 Y53.400
G1 X65.900 Y53.450
G1 X65.950 Y53.500
G1 X65.950 Y53.600
G1 X66.000 Y53.650
G1 X66.050 Y53.700
G1 X66.050 Y53.800
G1 X66.100 Y53.850
G1 X66.150 Y53.900
G1 X66.200 Y53.950
G1 X66.250 Y54.000
G1 X66.250 Y54.100
G1 X66.300 Y54.150
G1 X66.350 Y54.200
G1 X66.350 Y54.300
G1 X66.400 Y54.350
G1 X66.450 Y54.400
G1 X66.450 Y54.500
G1 X66.500 Y54.550
G1 X66.550 Y54.600
G1 X66.550 Y54.700
G1 X66.600 Y54.750
G1 X66.650 Y54.800
G1 X66.650 Y54.900
G1 X66.700 Y54.950
G1 X66.750 Y55.000
G1 X66.750 Y55.100
G1 X66.800 Y55.150
G1 X66.850 Y55.200
G1 X66.850 Y55.300
G1 X66.900 Y55.350
G1 X66.950 Y55.400
G1 X66.950 Y55.500
G1 X66.950 Y55.600
G1 X67.000 Y55.650
G1 X67.050 Y55.700
G1 X67.050 Y55.800
G1 X67.100 Y55.850
G1 X67.150 Y55.900
G1 X67.150 Y56.000
G1 X67.200 Y56.050
G1 X67.250 Y56.100
G1 X67.250 Y56.200
G1 X67.250 Y56.300
G1 X67.300 Y56.350
G1 X67.350 Y56.400
G1 X67.350 Y56.500
G1 X67.400 Y56.550
G1 X67.450 Y56.600
G1 X67.450 Y56.700
G1 X67.500 Y56.750
G1 X67.550 Y56.800
G1 X67.550 Y56.900
G1 X67.550 Y57.000
G1 X67.600 Y57.050
G1 X67.650 Y57.100
G1 X67.650 Y57.200
G1 X67.650 Y57.300
G1 X67.700 Y57.350
G1 X67.750 Y57.400
G1 X67.750 Y57.500
G1 X67.800 Y57.550
G1 X67.850 Y57.600
G1 X67.850 Y57.700
G1 X67.850 Y57.800
G1 X67.900 Y57.850
G1 X67.950 Y57.900
G1 X67.950 Y58.000
G1 X68.000 Y58.050
G1 X68.050 Y58.100
G1 X68.100 Y58.150
G1 X68.150 Y58.100
; --- Backlash Y fix: -1.000mm ---
G0 X68.150 Y57.100 F200
G1 X68.150 Y57.000
G1 X68.200 Y56.950
G1 X68.250 Y56.900
G1 X68.300 Y56.850
G1 X68.350 Y56.800
G1 X68.350 Y56.700
G1 X68.400 Y56.650
G1 X68.450 Y56.600
G1 X68.450 Y56.500
G1 X68.500 Y56.450
G1 X68.550 Y56.400
G1 X68.600 Y56.350
G1 X68.650 Y56.300
G1 X68.650 Y56.200
G1 X68.700 Y56.150
G1 X68.750 Y56.100
G1 X68.750 Y56.000
G1 X68.750 Y55.900
G1 X68.800 Y55.850
G1 X68.850 Y55.800
G1 X68.850 Y55.700
G1 X68.900 Y55.650
G1 X68.950 Y55.600
G1 X68.950 Y55.500
G1 X69.000 Y55.450
G1 X69.050 Y55.400
G1 X69.050 Y55.300
G1 X69.050 Y55.200
G1 X69.100 Y55.150
G1 X69.150 Y55.100
G1 X69.150 Y55.000
G1 X69.150 Y54.900
G1 X69.200 Y54.850
G1 X69.250 Y54.800
G1 X69.250 Y54.700
G1 X69.250 Y54.600
G1 X69.250 Y54.500
G1 X69.300 Y54.450
G1 X69.350 Y54.400
G1 X69.350 Y54.300
G1 X69.350 Y54.200
G1 X69.350 Y54.100
G1 X69.350 Y54.000
G1 X69.350 Y53.900
G1 X69.400 Y53.850
G1 X69.450 Y53.800
G1 X69.450 Y53.700
G1 X69.450 Y53.600
G1 X69.450 Y53.500
G1 X69.450 Y53.400
G1 X69.450 Y53.300
G1 X69.450 Y53.200
G1 X69.450 Y53.100
G1 X69.450 Y53.000
G1 X69.450 Y52.900
G1 X69.450 Y52.800
G1 X69.450 Y52.700
G1 X69.450 Y52.600
G1 X69.450 Y52.500
G1 X69.450 Y52.400
G1 X69.450 Y52.300
G1 X69.450 Y52.200
G1 X69.450 Y52.100
G1 X69.450 Y52.000
G1 X69.400 Y51.950
; --- Backlash X fix: -0.500mm ---
G0 X68.900 Y51.950 F200
G1 X68.850 Y51.900
G1 X68.850 Y51.800
G1 X68.850 Y51.700
G1 X68.850 Y51.600
G1 X68.850 Y51.500
G1 X68.850 Y51.400
G1 X68.850 Y51.300
G1 X68.800 Y51.250
G1 X68.750 Y51.200
G1 X68.750 Y51.100
G1 X68.750 Y51.000
G1 X68.700 Y50.950
G1 X68.650 Y50.900
G1 X68.650 Y50.800
G1 X68.650 Y50.700
G1 X68.600 Y50.650
G1 X68.550 Y50.600
G1 X68.550 Y50.500
G1 X68.550 Y50.400
G1 X68.550 Y50.300
G1 X68.500 Y50.250
G1 X68.450 Y50.200
G1 X68.450 Y50.100
G1 X68.450 Y50.000
G1 X68.400 Y49.950
G1 X68.350 Y49.900
G1 X68.350 Y49.800
G1 X68.300 Y49.750
G1 X68.250 Y49.700
G1 X68.250 Y49.600
G1 X68.250 Y49.500
G1 X68.200 Y49.450
G1 X68.150 Y49.400
G1 X68.150 Y49.300
G1 X68.100 Y49.250
G1 X68.050 Y49.200
G1 X68.050 Y49.100
G1 X68.000 Y49.050
G1 X67.950 Y49.000
G1 X67.950 Y48.900
G1 X67.900 Y48.850
G1 X67.850 Y48.800
G1 X67.850 Y48.700
G1 X67.800 Y48.650
G1 X67.750 Y48.600
G1 X67.750 Y48.500
G1 X67.700 Y48.450
G1 X67.650 Y48.400
G1 X67.650 Y48.300
G1 X67.600 Y48.250
G1 X67.550 Y48.200
G1 X67.550 Y48.100
G1 X67.500 Y48.050
G1 X67.450 Y48.000
G1 X67.400 Y47.950
G1 X67.350 Y47.900
G1 X67.350 Y47.800
G1 X67.300 Y47.750
G1 X67.250 Y47.700
G1 X67.250 Y47.600
G1 X67.200 Y47.550
G1 X67.150 Y47.500
G1 X67.100 Y47.450
G1 X67.050 Y47.400
G1 X67.050 Y47.300
G1 X67.000 Y47.250
G1 X66.950 Y47.200
G1 X66.900 Y47.150
G1 X66.850 Y47.100
G1 X66.800 Y47.050
G1 X66.750 Y47.000
G1 X66.750 Y46.900
G1 X66.700 Y46.850
G1 X66.650 Y46.800
G1 X66.600 Y46.750
G1 X66.550 Y46.700
G1 X66.550 Y46.600
G1 X66.500 Y46.550
G1 X66.450 Y46.500
G1 X66.400 Y46.450
G1 X66.350 Y46.400
G1 X66.300 Y46.350
G1 X66.250 Y46.300
G1 X66.200 Y46.250
G1 X66.150 Y46.200
G1 X66.150 Y46.100
G1 X66.100 Y46.050
G1 X66.050 Y46.000
G1 X66.000 Y45.950
G1 X65.950 Y45.900
G1 X65.900 Y45.850
G1 X65.850 Y45.800
G1 X65.800 Y45.750
G1 X65.750 Y45.700
G1 X65.700 Y45.650
G1 X65.650 Y45.600
G1 X65.600 Y45.550
G1 X65.550 Y45.500
G1 X65.550 Y45.400
G1 X65.500 Y45.350
G1 X65.450 Y45.300
G1 X65.400 Y45.250
G1 X65.350 Y45.200
G1 X65.300 Y45.150
G1 X65.250 Y45.100
G1 X65.200 Y45.050
G1 X65.150 Y45.000
G1 X65.100 Y44.950
G1 X65.050 Y44.900
G1 X65.000 Y44.850
G1 X64.950 Y44.800
G1 X64.900 Y44.750
G1 X64.850 Y44.700
G1 X64.800 Y44.650
G1 X64.750 Y44.600
G1 X64.700 Y44.550
G1 X64.650 Y44.500
G1 X64.600 Y44.450
G1 X64.550 Y44.400
G1 X64.500 Y44.350
G1 X64.450 Y44.300
G1 X64.400 Y44.250
G1 X64.350 Y44.200
G1 X64.300 Y44.150
G1 X64.200 Y44.150
G1 X64.150 Y44.100
G1 X64.100 Y44.050
G1 X64.050 Y44.000
G1 X64.000 Y43.950
G1 X63.950 Y43.900
G1 X63.900 Y43.850
G1 X63.850 Y43.800
G1 X63.800 Y43.750
G1 X63.750 Y43.700
G1 X63.700 Y43.650
G1 X63.650 Y43.600
G1 X63.600 Y43.550
G1 X63.550 Y43.500
G1 X63.500 Y43.450
G1 X63.450 Y43.400
G1 X63.400 Y43.350
G1 X63.300 Y43.350
G1 X63.250 Y43.300
G1 X63.200 Y43.250
G1 X63.150 Y43.200
G1 X63.100 Y43.150
G1 X63.050 Y43.100
G1 X63.000 Y43.050
G1 X62.950 Y43.000
G1 X62.900 Y42.950
G1 X62.800 Y42.950
G1 X62.750 Y42.900
G1 X62.700 Y42.850
G1 X62.650 Y42.800
G1 X62.600 Y42.750
G1 X62.550 Y42.700
G1 X62.500 Y42.650
G1 X62.400 Y42.650
G1 X62.350 Y42.600
G1 X62.300 Y42.550
G1 X62.250 Y42.500
G1 X62.200 Y42.450
G1 X62.150 Y42.400
G1 X62.100 Y42.350
G1 X62.000 Y42.350
G1 X61.950 Y42.300
G1 X61.900 Y42.250
G1 X61.850 Y42.200
G1 X61.800 Y42.150
G1 X61.750 Y42.100
G1 X61.700 Y42.050
G1 X61.600 Y42.050
G1 X61.550 Y42.000
G1 X61.500 Y41.950
G1 X61.450 Y41.900
G1 X61.400 Y41.850
G1 X61.350 Y41.800
G1 X61.300 Y41.750
G1 X61.200 Y41.750
G1 X61.150 Y41.700
G1 X61.100 Y41.650
G1 X61.000 Y41.650
G1 X60.950 Y41.600
G1 X60.900 Y41.550
G1 X60.850 Y41.500
G1 X60.800 Y41.450
G1 X60.700 Y41.450
G1 X60.650 Y41.400
G1 X60.600 Y41.350
G1 X60.550 Y41.300
G1 X60.500 Y41.250
G1 X60.400 Y41.250
G1 X60.350 Y41.200
G1 X60.300 Y41.150
G1 X60.200 Y41.150
G1 X60.150 Y41.100
G1 X60.100 Y41.050
G1 X60.050 Y41.000
G1 X60.000 Y40.950
G1 X59.950 Y40.900
G1 X59.900 Y40.850
G1 X59.800 Y40.850
G1 X59.750 Y40.800
G1 X59.700 Y40.750
G1 X59.600 Y40.750
G1 X59.550 Y40.700
G1 X59.500 Y40.650
G1 X59.450 Y40.600
G1 X59.400 Y40.550
G1 X59.300 Y40.550
G1 X59.200 Y40.550
G1 X59.150 Y40.500
G1 X59.100 Y40.450
G1 X59.050 Y40.400
G1 X59.000 Y40.350
G1 X58.900 Y40.350
G1 X58.850 Y40.300
G1 X58.800 Y40.250
G1 X58.700 Y40.250
G1 X58.650 Y40.200
G1 X58.600 Y40.150
G1 X58.550 Y40.100
G1 X58.500 Y40.050
G1 X58.400 Y40.050
G1 X58.350 Y40.000
G1 X58.300 Y39.950
G1 X58.200 Y39.950
G1 X58.150 Y39.900
G1 X58.100 Y39.850
G1 X58.000 Y39.850
G1 X57.950 Y39.800
G1 X57.900 Y39.750
G1 X57.800 Y39.750
G1 X57.750 Y39.700
G1 X57.700 Y39.650
G1 X57.600 Y39.650
G1 X57.550 Y39.600
G1 X57.500 Y39.550
G1 X57.400 Y39.550
G1 X57.350 Y39.500
G1 X57.300 Y39.450
G1 X57.250 Y39.400
G1 X57.200 Y39.350
G1 X57.100 Y39.350
G1 X57.000 Y39.350
G1 X56.950 Y39.300
G1 X56.900 Y39.250
G1 X56.850 Y39.200
G1 X56.800 Y39.150
G1 X56.700 Y39.150
G1 X56.650 Y39.100
G1 X56.600 Y39.050
G1 X56.500 Y39.050
G1 X56.400 Y39.050
G1 X56.350 Y39.000
G1 X56.300 Y38.950
G1 X56.200 Y38.950
G1 X56.150 Y38.900
G1 X56.100 Y38.850
G1 X56.000 Y38.850
G1 X55.950 Y38.800
G1 X55.900 Y38.750
G1 X55.800 Y38.750
G1 X55.750 Y38.700
G1 X55.700 Y38.650
G1 X55.600 Y38.650
G1 X55.550 Y38.600
G1 X55.500 Y38.550
G1 X55.400 Y38.550
G1 X55.350 Y38.500
G1 X55.300 Y38.450
G1 X55.200 Y38.450
G1 X55.150 Y38.400
G1 X55.100 Y38.350
G1 X55.000 Y38.350
G1 X54.900 Y38.350
G1 X54.850 Y38.300
G1 X54.800 Y38.250
G1 X54.700 Y38.250
G1 X54.650 Y38.200
G1 X54.600 Y38.150
G1 X54.500 Y38.150
G1 X54.450 Y38.100
G1 X54.400 Y38.050
G1 X54.300 Y38.050
G1 X54.200 Y38.050
G1 X54.150 Y38.000
G1 X54.100 Y37.950
G1 X54.000 Y37.950
G1 X53.950 Y37.900
G1 X53.900 Y37.850
G1 X53.800 Y37.850
G1 X53.700 Y37.850
G1 X53.650 Y37.800
G1 X53.600 Y37.750
G1 X53.500 Y37.750
G1 X53.450 Y37.700
G1 X53.400 Y37.650
G1 X53.300 Y37.650
G1 X53.250 Y37.600
G1 X53.200 Y37.550
G1 X53.100 Y37.550
G1 X53.000 Y37.550
G1 X52.950 Y37.500
G1 X52.900 Y37.450
G1 X52.800 Y37.450
G1 X52.750 Y37.400
G1 X52.700 Y37.350
G1 X52.600 Y37.350
G1 X52.500 Y37.350
G1 X52.450 Y37.300
G1 X52.400 Y37.250
G1 X52.300 Y37.250
G1 X52.200 Y37.250
G1 X52.150 Y37.200
G1 X52.100 Y37.150
G1 X52.000 Y37.150
G1 X51.950 Y37.100
G1 X51.900 Y37.050
G1 X51.800 Y37.050
G1 X51.750 Y37.000
G1 X51.700 Y36.950
G1 X51.600 Y36.950
G1 X51.500 Y36.950
G1 X51.400 Y36.950
G1 X51.350 Y36.900
G1 X51.300 Y36.850
G1 X51.200 Y36.850
G1 X51.150 Y36.800
G1 X51.100 Y36.750
G1 X51.000 Y36.750
G1 X50.900 Y36.750
G1 X50.850 Y36.700
G1 X50.800 Y36.650
G1 X50.700 Y36.650
G1 X50.600 Y36.650
G1 X50.550 Y36.600
G1 X50.500 Y36.550
G1 X50.400 Y36.550
G1 X50.350 Y36.500
G1 X50.300 Y36.450
G1 X50.200 Y36.450
G1 X50.100 Y36.450
G1 X50.050 Y36.400
G1 X50.000 Y36.350
G1 X49.900 Y36.350
G1 X49.850 Y36.400
; --- Backlash Y fix: 1.000mm ---
G0 X49.850 Y37.400 F200
G1 X49.850 Y37.500
G1 X49.850 Y37.600
G1 X49.800 Y37.650
G1 X49.750 Y37.700
G1 X49.750 Y37.800
G1 X49.750 Y37.900
G1 X49.750 Y38.000
G1 X49.750 Y38.100
G1 X49.750 Y38.200
G1 X49.700 Y38.250
G1 X49.650 Y38.300
G1 X49.650 Y38.400
G1 X49.650 Y38.500
G1 X49.650 Y38.600
G1 X49.650 Y38.700
G1 X49.650 Y38.800
G1 X49.650 Y38.900
G1 X49.650 Y39.000
G1 X49.650 Y39.100
G1 X49.600 Y39.150
G1 X49.550 Y39.200
G1 X49.550 Y39.300
G1 X49.550 Y39.400
G1 X49.550 Y39.500
G1 X49.550 Y39.600
G1 X49.550 Y39.700
G1 X49.550 Y39.800
G1 X49.550 Y39.900
G1 X49.550 Y40.000
G1 X49.550 Y40.100
G1 X49.500 Y40.150
G1 X49.450 Y40.200
G1 X49.450 Y40.300
G1 X49.450 Y40.400
G1 X49.450 Y40.500
G1 X49.450 Y40.600
G1 X49.450 Y40.700
G1 X49.450 Y40.800
G1 X49.450 Y40.900
G1 X49.450 Y41.000
G1 X49.450 Y41.100
G1 X49.450 Y41.200
G1 X49.450 Y41.300
G1 X49.450 Y41.400
G1 X49.450 Y41.500
G1 X49.450 Y41.600
G1 X49.450 Y41.700
G1 X49.450 Y41.800
G1 X49.450 Y41.900
G1 X49.450 Y42.000
G1 X49.450 Y42.100
G1 X49.450 Y42.200
G1 X49.450 Y42.300
G1 X49.450 Y42.400
G1 X49.450 Y42.500
G1 X49.450 Y42.600
G1 X49.450 Y42.700
G1 X49.450 Y42.800
G1 X49.450 Y42.900
G1 X49.450 Y43.000
G1 X49.450 Y43.100
G1 X49.450 Y43.200
G1 X49.450 Y43.300
G1 X49.450 Y43.400
G1 X49.450 Y43.500
G1 X49.450 Y43.600
G1 X49.450 Y43.700
G1 X49.450 Y43.800
G1 X49.450 Y43.900
G1 X49.450 Y44.000
G1 X49.400 Y44.050
G1 X49.350 Y44.100
G1 X49.350 Y44.200
G1 X49.350 Y44.300
G1 X49.350 Y44.400
G1 X49.350 Y44.500
G1 X49.400 Y44.550
; --- Backlash X fix: 0.500mm ---
G0 X49.900 Y44.550 F200
G1 X49.950 Y44.600
G1 X49.950 Y44.700
G1 X49.950 Y44.800
G1 X49.950 Y44.900
G1 X49.950 Y45.000
G1 X49.950 Y45.100
G1 X49.950 Y45.200
G1 X49.950 Y45.300
G1 X49.950 Y45.400
G1 X49.950 Y45.500
G1 X49.950 Y45.600
G1 X49.950 Y45.700
G1 X49.950 Y45.800
G1 X49.950 Y45.900
G1 X49.950 Y46.000
G1 X49.950 Y46.100
G1 X49.950 Y46.200
G1 X49.950 Y46.300
G1 X49.950 Y46.400
G1 X49.950 Y46.500
G1 X49.950 Y46.600
G1 X49.950 Y46.700
G1 X49.950 Y46.800
G1 X49.950 Y46.900
G1 X49.950 Y47.000
G1 X49.950 Y47.100
G1 X49.950 Y47.200
G1 X49.950 Y47.300
G1 X49.950 Y47.400
G1 X49.950 Y47.500
G1 X49.950 Y47.600
G1 X49.950 Y47.700
G1 X49.950 Y47.800
G1 X49.950 Y47.900
G1 X50.000 Y47.950
G1 X50.050 Y48.000
G1 X50.050 Y48.100
G1 X50.050 Y48.200
G1 X50.050 Y48.300
G1 X50.050 Y48.400
G1 X50.050 Y48.500
G1 X50.050 Y48.600
G1 X50.050 Y48.700
G1 X50.050 Y48.800
G1 X50.050 Y48.900
G1 X50.050 Y49.000
G1 X50.050 Y49.100
G1 X50.050 Y49.200
G1 X50.100 Y49.250
G1 X50.150 Y49.300
G1 X50.150 Y49.400
G1 X50.150 Y49.500
G1 X50.150 Y49.600
G1 X50.150 Y49.700
G1 X50.150 Y49.800
G1 X50.150 Y49.900
G1 X50.150 Y50.000
G1 X50.150 Y50.100
G1 X50.150 Y50.200
G1 X50.200 Y50.250
G1 X50.250 Y50.300
G1 X50.250 Y50.400
G1 X50.250 Y50.500
G1 X50.250 Y50.600
G1 X50.250 Y50.700
G1 X50.300 Y50.750
G1 X50.350 Y50.800
G1 X50.350 Y50.900
G1 X50.350 Y51.000
G1 X50.350 Y51.100
G1 X50.350 Y51.200
G1 X50.400 Y51.250
G1 X50.450 Y51.300
G1 X50.450 Y51.400
G1 X50.450 Y51.500
G1 X50.450 Y51.600
G1 X50.450 Y51.700
G1 X50.450 Y51.800
G1 X50.500 Y51.850
G1 X50.550 Y51.900
G1 X50.550 Y52.000
G1 X50.550 Y52.100
G1 X50.550 Y52.200
G1 X50.600 Y52.250
G1 X50.650 Y52.300
G1 X50.650 Y52.400
G1 X50.650 Y52.500
G1 X50.650 Y52.600
G1 X50.700 Y52.650
G1 X50.750 Y52.700
G1 X50.750 Y52.800
G1 X50.750 Y52.900
G1 X50.750 Y53.000
G1 X50.800 Y53.050
G1 X50.850 Y53.100
G1 X50.850 Y53.200
G1 X50.850 Y53.300
G1 X50.900 Y53.350
G1 X50.950 Y53.400
G1 X50.950 Y53.500
G1 X50.950 Y53.600
G1 X51.000 Y53.650
G1 X51.050 Y53.700
G1 X51.050 Y53.800
G1 X51.050 Y53.900
G1 X51.050 Y54.000
G1 X51.100 Y54.050
G1 X51.150 Y54.100
G1 X51.150 Y54.200
G1 X51.200 Y54.250
G1 X51.250 Y54.300
G1 X51.250 Y54.400
G1 X51.250 Y54.500
G1 X51.300 Y54.550
G1 X51.350 Y54.600
G1 X51.350 Y54.700
G1 X51.350 Y54.800
G1 X51.400 Y54.850
G1 X51.450 Y54.900
G1 X51.450 Y55.000
G1 X51.500 Y55.050
G1 X51.550 Y55.100
G1 X51.550 Y55.200
G1 X51.600 Y55.250
G1 X51.650 Y55.300
G1 X51.650 Y55.400
G1 X51.650 Y55.500
G1 X51.700 Y55.550
G1 X51.750 Y55.600
G1 X51.750 Y55.700
G1 X51.800 Y55.750
G1 X51.850 Y55.800
G1 X51.850 Y55.900
G1 X51.900 Y55.950
G1 X51.950 Y56.000
G1 X51.950 Y56.100
G1 X52.000 Y56.150
G1 X52.050 Y56.200
G1 X52.050 Y56.300
G1 X52.100 Y56.350
G1 X52.150 Y56.400
G1 X52.150 Y56.500
G1 X52.200 Y56.550
G1 X52.250 Y56.600
G1 X52.250 Y56.700
G1 X52.300 Y56.750
G1 X52.350 Y56.800
G1 X52.400 Y56.850
G1 X52.450 Y56.900
G1 X52.450 Y57.000
G1 X52.500 Y57.050
G1 X52.550 Y57.100
G1 X52.550 Y57.200
G1 X52.600 Y57.250
G1 X52.650 Y57.300
G1 X52.650 Y57.400
G1 X52.700 Y57.450
G1 X52.750 Y57.500
G1 X52.800 Y57.550
G1 X52.850 Y57.600
G1 X52.850 Y57.700
G1 X52.900 Y57.750
G1 X52.950 Y57.800
G1 X53.000 Y57.850
G1 X53.050 Y57.900
G1 X53.050 Y58.000
G1 X53.100 Y58.050
G1 X53.150 Y58.100
G1 X53.150 Y58.200
G1 X53.200 Y58.250
G1 X53.250 Y58.300
G1 X53.300 Y58.350
G1 X53.350 Y58.400
G1 X53.400 Y58.450
G1 X53.450 Y58.500
G0 Z1.800 F3000

; --- DIP → Color 2 — Teal ---
G0 Z1.800 F3000
M400
M204 P1000 T1000
G1 F1500
G0 X65.106 Y0.000 Z10.000
G1 Z1.000 F3000
G1 X65.106 Y0.000 F2500
G1 X65.106 Y2.500 F2500
G1 X60.106 Y0.000 F2500
G1 X65.106 Y0.000 F2500
G0 Z3.000 F3000
G0 X60.587 Y14.805
G0 Z10.000 F3000
G0 X53.450 Y58.600 Z1.800
M400
M204 P550 T550
G1 F600
G1 Z0.000 F2500
G1 X53.450 Y58.600
G1 X53.500 Y58.650
G1 X53.550 Y58.700
G1 X53.600 Y58.750
G1 X53.650 Y58.800
G1 X53.700 Y58.850
G1 X53.750 Y58.900
G1 X53.750 Y59.000
G1 X53.800 Y59.050
G1 X53.850 Y59.100
G1 X53.900 Y59.150
G1 X53.950 Y59.200
G1 X54.000 Y59.250
G1 X54.050 Y59.300
G1 X54.050 Y59.400
G1 X54.100 Y59.450
G1 X54.150 Y59.500
G1 X54.200 Y59.550
G1 X54.250 Y59.600
G1 X54.300 Y59.650
G1 X54.350 Y59.700
G1 X54.400 Y59.750
G1 X54.450 Y59.800
G1 X54.500 Y59.850
G1 X54.550 Y59.900
G1 X54.550 Y60.000
G1 X54.600 Y60.050
G1 X54.650 Y60.100
G1 X54.700 Y60.150
G1 X54.750 Y60.200
G1 X54.800 Y60.250
G1 X54.850 Y60.300
G1 X54.900 Y60.350
G1 X54.950 Y60.400
G1 X55.000 Y60.450
G1 X55.050 Y60.500
G1 X55.100 Y60.550
G1 X55.150 Y60.600
G1 X55.200 Y60.650
G1 X55.250 Y60.700
G1 X55.300 Y60.750
G1 X55.350 Y60.800
G1 X55.400 Y60.850
G1 X55.450 Y60.900
G1 X55.500 Y60.950
G1 X55.550 Y61.000
G1 X55.600 Y61.050
G1 X55.700 Y61.050
G1 X55.750 Y61.100
G1 X55.800 Y61.150
G1 X55.850 Y61.200
G1 X55.900 Y61.250
G1 X55.950 Y61.300
G1 X56.000 Y61.350
G1 X56.050 Y61.400
G1 X56.100 Y61.450
G1 X56.150 Y61.500
G1 X56.200 Y61.550
G1 X56.300 Y61.550
G1 X56.350 Y61.600
G1 X56.400 Y61.650
G1 X56.500 Y61.650
G1 X56.550 Y61.700
G1 X56.600 Y61.750
G1 X56.650 Y61.800
G1 X56.700 Y61.850
G1 X56.800 Y61.850
G1 X56.850 Y61.900
G1 X56.900 Y61.950
G1 X57.000 Y61.950
G1 X57.050 Y62.000
G1 X57.100 Y62.050
G1 X57.200 Y62.050
G1 X57.250 Y62.100
G1 X57.300 Y62.150
G1 X57.400 Y62.150
G1 X57.450 Y62.200
G1 X57.500 Y62.250
G1 X57.600 Y62.250
G1 X57.700 Y62.250
G1 X57.800 Y62.250
G1 X57.900 Y62.250
G1 X57.950 Y62.300
G1 X58.000 Y62.350
G1 X58.100 Y62.350
G1 X58.200 Y62.350
G1 X58.250 Y62.400
G1 X58.300 Y62.450
G1 X58.400 Y62.450
G1 X58.500 Y62.450
G1 X58.600 Y62.450
G1 X58.700 Y62.450
G1 X58.800 Y62.450
G1 X58.900 Y62.450
G1 X58.950 Y62.500
G0 Z1.800 F3000
M400
M204 P1000 T1000
G1 F1500
; --- Backlash Y fix: -1.000mm ---
G0 X58.950 Y61.500 F200
G0 X63.650 Y59.000 Z1.800
M400
M204 P550 T550
G1 F600
G1 Z0.000 F2500
G1 X63.700 Y59.050
G1 X63.750 Y59.000
G1 X63.800 Y58.950
G1 X63.850 Y58.900
G1 X63.900 Y58.850
G1 X64.000 Y58.850
G1 X64.050 Y58.800
G1 X64.100 Y58.750
G1 X64.200 Y58.750
G1 X64.250 Y58.700
G1 X64.300 Y58.650
G1 X64.350 Y58.600
G1 X64.400 Y58.550
G1 X64.450 Y58.500
G1 X64.500 Y58.450
G1 X64.600 Y58.450
G1 X64.650 Y58.400
G1 X64.700 Y58.350
G1 X64.750 Y58.300
G1 X64.800 Y58.250
G1 X64.850 Y58.200
G1 X64.850 Y58.100
G1 X64.850 Y58.000
G1 X64.800 Y57.950
G1 X64.750 Y57.900
G1 X64.750 Y57.800
G1 X64.700 Y57.750
G1 X64.650 Y57.700
G1 X64.650 Y57.600
; --- Backlash X fix: -0.500mm ---
G0 X64.150 Y57.600 F200
G1 X64.100 Y57.550
G1 X64.050 Y57.500
G1 X64.050 Y57.400
G1 X64.050 Y57.300
G1 X64.000 Y57.250
G1 X63.950 Y57.200
G1 X63.950 Y57.100
G1 X63.900 Y57.050
G1 X63.850 Y57.000
G1 X63.850 Y56.900
G1 X63.800 Y56.850
G1 X63.750 Y56.800
G1 X63.750 Y56.700
G1 X63.750 Y56.600
G1 X63.700 Y56.550
G1 X63.650 Y56.500
G1 X63.650 Y56.400
G1 X63.600 Y56.350
G1 X63.550 Y56.300
G1 X63.550 Y56.200
G1 X63.500 Y56.150
G1 X63.450 Y56.100
G1 X63.450 Y56.000
G1 X63.400 Y55.950
G1 X63.350 Y55.900
G1 X63.350 Y55.800
G1 X63.300 Y55.750
G1 X63.250 Y55.700
G1 X63.250 Y55.600
G1 X63.200 Y55.550
G1 X63.150 Y55.500
G1 X63.150 Y55.400
G1 X63.100 Y55.350
G1 X63.050 Y55.300
G1 X63.050 Y55.200
G1 X63.000 Y55.150
G1 X62.950 Y55.100
G1 X62.950 Y55.000
G1 X62.900 Y54.950
G1 X62.850 Y54.900
G1 X62.850 Y54.800
G1 X62.800 Y54.750
G1 X62.750 Y54.700
G1 X62.750 Y54.600
G1 X62.700 Y54.550
G1 X62.650 Y54.500
G1 X62.650 Y54.400
G1 X62.600 Y54.350
G1 X62.550 Y54.300
G1 X62.550 Y54.200
G1 X62.500 Y54.150
G1 X62.450 Y54.100
G1 X62.400 Y54.050
G1 X62.350 Y54.000
G1 X62.350 Y53.900
G1 X62.300 Y53.850
G1 X62.250 Y53.800
G1 X62.250 Y53.700
G1 X62.200 Y53.650
G1 X62.150 Y53.600
G1 X62.150 Y53.500
G1 X62.100 Y53.450
G1 X62.050 Y53.400
G1 X62.000 Y53.350
G1 X61.950 Y53.300
G1 X61.950 Y53.200
G1 X61.900 Y53.150
G1 X61.850 Y53.100
G1 X61.850 Y53.000
G1 X61.800 Y52.950
G1 X61.750 Y52.900
G1 X61.700 Y52.850
G1 X61.650 Y52.800
G1 X61.650 Y52.700
G1 X61.600 Y52.650
G1 X61.550 Y52.600
G1 X61.550 Y52.500
G1 X61.500 Y52.450
G1 X61.450 Y52.400
G1 X61.400 Y52.350
G1 X61.350 Y52.300
G1 X61.350 Y52.200
G1 X61.300 Y52.150
G1 X61.250 Y52.100
G1 X61.250 Y52.000
G1 X61.200 Y51.950
G1 X61.150 Y51.900
G1 X61.100 Y51.850
G1 X61.050 Y51.800
G1 X61.050 Y51.700
G1 X61.000 Y51.650
G1 X60.950 Y51.600
G1 X60.900 Y51.550
G1 X60.850 Y51.500
G1 X60.800 Y51.450
G1 X60.750 Y51.400
G1 X60.750 Y51.300
G1 X60.700 Y51.250
G1 X60.650 Y51.200
G1 X60.600 Y51.150
G1 X60.550 Y51.100
G1 X60.550 Y51.000
G1 X60.500 Y50.950
G1 X60.450 Y50.900
G1 X60.400 Y50.850
G1 X60.350 Y50.800
G1 X60.350 Y50.700
G1 X60.300 Y50.650
G1 X60.250 Y50.600
G1 X60.200 Y50.550
G1 X60.150 Y50.500
G1 X60.100 Y50.450
G1 X60.050 Y50.400
G1 X60.050 Y50.300
G1 X60.000 Y50.250
G1 X59.950 Y50.200
G1 X59.900 Y50.150
G1 X59.850 Y50.100
G1 X59.800 Y50.050
G1 X59.750 Y50.000
G1 X59.750 Y49.900
G1 X59.700 Y49.850
G1 X59.650 Y49.800
G1 X59.600 Y49.750
G1 X59.550 Y49.700
G1 X59.500 Y49.650
G1 X59.450 Y49.600
G1 X59.450 Y49.500
G1 X59.400 Y49.450
G1 X59.350 Y49.400
G1 X59.300 Y49.350
G1 X59.250 Y49.300
G1 X59.200 Y49.250
G1 X59.150 Y49.200
G1 X59.100 Y49.150
G1 X59.050 Y49.100
G1 X59.050 Y49.000
G1 X59.000 Y48.950
G1 X58.950 Y48.900
G1 X58.900 Y48.850
G1 X58.850 Y48.800
G1 X58.800 Y48.750
G1 X58.750 Y48.700
G1 X58.700 Y48.650
G1 X58.650 Y48.600
G1 X58.650 Y48.500
G1 X58.600 Y48.450
G1 X58.550 Y48.400
G1 X58.500 Y48.350
G1 X58.450 Y48.300
G1 X58.400 Y48.250
G1 X58.350 Y48.200
G1 X58.300 Y48.150
G1 X58.250 Y48.100
G1 X58.200 Y48.050
G1 X58.150 Y48.000
G1 X58.150 Y47.900
G1 X58.100 Y47.850
G1 X58.050 Y47.800
G1 X58.000 Y47.750
G1 X57.950 Y47.700
G1 X57.900 Y47.650
G1 X57.850 Y47.600
G1 X57.800 Y47.550
G1 X57.750 Y47.500
G1 X57.700 Y47.450
G1 X57.650 Y47.400
G1 X57.600 Y47.350
G1 X57.550 Y47.300
G1 X57.500 Y47.250
G1 X57.450 Y47.200
G1 X57.450 Y47.100
G1 X57.400 Y47.050
G1 X57.350 Y47.000
G1 X57.300 Y46.950
G1 X57.250 Y46.900
G1 X57.200 Y46.850
G1 X57.150 Y46.800
G1 X57.100 Y46.750
G1 X57.050 Y46.700
G1 X57.000 Y46.650
G1 X56.950 Y46.600
G1 X56.900 Y46.550
G1 X56.850 Y46.500
G1 X56.800 Y46.450
G1 X56.750 Y46.400
G1 X56.700 Y46.350
G1 X56.650 Y46.300
G1 X56.600 Y46.250
G1 X56.550 Y46.200
G1 X56.550 Y46.100
G1 X56.500 Y46.050
G1 X56.450 Y46.000
G1 X56.400 Y45.950
G1 X56.350 Y45.900
G1 X56.300 Y45.850
G1 X56.250 Y45.800
G1 X56.200 Y45.750
G1 X56.150 Y45.700
G1 X56.100 Y45.650
G1 X56.050 Y45.600
G1 X56.000 Y45.550
G1 X55.950 Y45.500
G1 X55.900 Y45.450
G1 X55.850 Y45.400
G1 X55.800 Y45.350
G1 X55.750 Y45.300
G1 X55.700 Y45.250
G1 X55.650 Y45.200
G1 X55.600 Y45.150
G1 X55.550 Y45.100
G1 X55.500 Y45.050
G1 X55.450 Y45.000
G1 X55.400 Y44.950
G1 X55.350 Y44.900
G1 X55.350 Y44.800
G1 X55.300 Y44.750
G1 X55.200 Y44.750
G1 X55.150 Y44.700
G1 X55.150 Y44.600
G1 X55.100 Y44.550
G1 X55.050 Y44.500
G1 X55.000 Y44.450
G1 X54.950 Y44.400
G1 X54.900 Y44.350
G1 X54.850 Y44.300
G1 X54.800 Y44.250
G1 X54.750 Y44.200
G1 X54.700 Y44.150
G1 X54.650 Y44.100
G1 X54.600 Y44.050
G1 X54.550 Y44.000
G1 X54.500 Y43.950
G1 X54.450 Y43.900
G1 X54.400 Y43.850
G1 X54.350 Y43.900
; --- Backlash Y fix: 1.000mm ---
G0 X54.350 Y44.900 F200
G1 X54.350 Y45.000
G1 X54.400 Y45.050
; --- Backlash X fix: 0.500mm ---
G0 X54.900 Y45.050 F200
G1 X54.950 Y45.100
G1 X54.950 Y45.200
G1 X54.950 Y45.300
G1 X55.000 Y45.350
G1 X55.050 Y45.400
G1 X55.050 Y45.500
G1 X55.100 Y45.550
G1 X55.150 Y45.600
G1 X55.150 Y45.700
G1 X55.200 Y45.750
G1 X55.250 Y45.800
G1 X55.250 Y45.900
G1 X55.250 Y46.000
G1 X55.300 Y46.050
G1 X55.350 Y46.100
G1 X55.350 Y46.200
G1 X55.400 Y46.250
G1 X55.450 Y46.300
G1 X55.450 Y46.400
G1 X55.500 Y46.450
G1 X55.550 Y46.500
G1 X55.550 Y46.600
G1 X55.600 Y46.650
G1 X55.650 Y46.700
G1 X55.650 Y46.800
G1 X55.700 Y46.850
G1 X55.750 Y46.900
G1 X55.750 Y47.000
G1 X55.800 Y47.050
G1 X55.850 Y47.100
G1 X55.850 Y47.200
G1 X55.850 Y47.300
G1 X55.900 Y47.350
G1 X55.950 Y47.400
G1 X55.950 Y47.500
G1 X56.000 Y47.550
G1 X56.050 Y47.600
G1 X56.100 Y47.650
G1 X56.150 Y47.700
G1 X56.150 Y47.800
G1 X56.150 Y47.900
G1 X56.200 Y47.950
G1 X56.250 Y48.000
G1 X56.250 Y48.100
G1 X56.300 Y48.150
G1 X56.350 Y48.200
G1 X56.350 Y48.300
G1 X56.400 Y48.350
G1 X56.450 Y48.400
G1 X56.450 Y48.500
G1 X56.500 Y48.550
G1 X56.550 Y48.600
G1 X56.550 Y48.700
G1 X56.600 Y48.750
G1 X56.650 Y48.800
G1 X56.650 Y48.900
G1 X56.700 Y48.950
G1 X56.750 Y49.000
G1 X56.750 Y49.100
G1 X56.800 Y49.150
G1 X56.850 Y49.200
G1 X56.850 Y49.300
G1 X56.900 Y49.350
G1 X56.950 Y49.400
G1 X56.950 Y49.500
G1 X57.000 Y49.550
G1 X57.050 Y49.600
G1 X57.050 Y49.700
G1 X57.100 Y49.750
G1 X57.150 Y49.800
G1 X57.150 Y49.900
G1 X57.200 Y49.950
G1 X57.250 Y50.000
G1 X57.250 Y50.100
G1 X57.300 Y50.150
G1 X57.350 Y50.200
G1 X57.350 Y50.300
G1 X57.400 Y50.350
G1 X57.450 Y50.400
G1 X57.450 Y50.500
G1 X57.500 Y50.550
G1 X57.550 Y50.600
G1 X57.550 Y50.700
G1 X57.600 Y50.750
G1 X57.650 Y50.800
G1 X57.650 Y50.900
G1 X57.700 Y50.950
G1 X57.750 Y51.000
G1 X57.750 Y51.100
G1 X57.800 Y51.150
G1 X57.850 Y51.200
G1 X57.850 Y51.300
G1 X57.900 Y51.350
G1 X57.950 Y51.400
G1 X57.950 Y51.500
G1 X58.000 Y51.550
G1 X58.050 Y51.600
G1 X58.050 Y51.700
G1 X58.100 Y51.750
G1 X58.150 Y51.800
G1 X58.200 Y51.850
G1 X58.250 Y51.900
G1 X58.250 Y52.000
G1 X58.300 Y52.050
G1 X58.350 Y52.100
G1 X58.350 Y52.200
G1 X58.400 Y52.250
G1 X58.450 Y52.300
G1 X58.450 Y52.400
G1 X58.500 Y52.450
G1 X58.550 Y52.500
G1 X58.550 Y52.600
G1 X58.600 Y52.650
G1 X58.650 Y52.700
G1 X58.650 Y52.800
G1 X58.700 Y52.850
G1 X58.750 Y52.900
G1 X58.800 Y52.950
G1 X58.850 Y53.000
G1 X58.850 Y53.100
G1 X58.900 Y53.150
G1 X58.950 Y53.200
G1 X58.950 Y53.300
G1 X59.000 Y53.350
G1 X59.050 Y53.400
G1 X59.100 Y53.450
G1 X59.150 Y53.500
G1 X59.150 Y53.600
G1 X59.200 Y53.650
G1 X59.250 Y53.700
G1 X59.250 Y53.800
G1 X59.300 Y53.850
G1 X59.350 Y53.900
G1 X59.400 Y53.950
G1 X59.450 Y54.000
G1 X59.450 Y54.100
G1 X59.500 Y54.150
G1 X59.550 Y54.200
G1 X59.550 Y54.300
G1 X59.600 Y54.350
G1 X59.650 Y54.400
G1 X59.700 Y54.450
G1 X59.750 Y54.500
G1 X59.750 Y54.600
G1 X59.800 Y54.650
G1 X59.850 Y54.700
G1 X59.900 Y54.750
G1 X59.950 Y54.800
G1 X59.950 Y54.900
G1 X60.000 Y54.950
G1 X60.050 Y55.000
G1 X60.050 Y55.100
G1 X60.100 Y55.150
G1 X60.150 Y55.200
G1 X60.200 Y55.250
G1 X60.250 Y55.300
G1 X60.300 Y55.350
G1 X60.350 Y55.400
G1 X60.350 Y55.500
G1 X60.400 Y55.550
G1 X60.450 Y55.600
G1 X60.500 Y55.650
G1 X60.550 Y55.700
G1 X60.550 Y55.800
G1 X60.600 Y55.850
G1 X60.650 Y55.900
G1 X60.700 Y55.950
G1 X60.750 Y56.000
G1 X60.750 Y56.100
G1 X60.800 Y56.150
G1 X60.850 Y56.200
G1 X60.900 Y56.250
G1 X60.950 Y56.300
G1 X60.950 Y56.400
G1 X61.000 Y56.450
G1 X61.050 Y56.500
G1 X61.100 Y56.550
G1 X61.150 Y56.600
G1 X61.150 Y56.700
G1 X61.200 Y56.750
G1 X61.250 Y56.800
G1 X61.300 Y56.850
G1 X61.350 Y56.900
G1 X61.350 Y57.000
G1 X61.400 Y57.050
G1 X61.450 Y57.100
G1 X61.500 Y57.150
G1 X61.550 Y57.200
G1 X61.600 Y57.250
G1 X61.650 Y57.300
G1 X61.650 Y57.400
G1 X61.700 Y57.450
G1 X61.750 Y57.500
G1 X61.800 Y57.550
G1 X61.850 Y57.600
G1 X61.850 Y57.700
G1 X61.900 Y57.750
G1 X61.950 Y57.800
G1 X62.000 Y57.850
G1 X62.050 Y57.900
G1 X62.100 Y57.950
G1 X62.150 Y58.000
G1 X62.150 Y58.100
G1 X62.200 Y58.150
G1 X62.250 Y58.200
G1 X62.300 Y58.250
G1 X62.350 Y58.300
G1 X62.400 Y58.350
G1 X62.450 Y58.400
G1 X62.450 Y58.500
G1 X62.500 Y58.550
G1 X62.550 Y58.600
G1 X62.600 Y58.650
G1 X62.650 Y58.700
G1 X62.700 Y58.750
G1 X62.750 Y58.800
G1 X62.750 Y58.900
G1 X62.800 Y58.950
G1 X62.850 Y59.000
G1 X62.900 Y59.050
G1 X62.950 Y59.100
G1 X63.000 Y59.150
G1 X63.050 Y59.200
G1 X63.050 Y59.300
G1 X63.100 Y59.350
G1 X63.150 Y59.400
G1 X63.200 Y59.450
G1 X63.250 Y59.500
G1 X63.300 Y59.550
G1 X63.350 Y59.600
G1 X63.350 Y59.700
G1 X63.400 Y59.750
G1 X63.450 Y59.800
G1 X63.500 Y59.850
G1 X63.550 Y59.900
G1 X63.600 Y59.950
G1 X63.650 Y60.000
G0 Z1.800 F3000
M400
M204 P1000 T1000
G1 F1500
G0 X71.250 Y71.900 Z1.800
M400
M204 P550 T550
G1 F600
G1 Z0.000 F2500
G1 X71.300 Y71.950
G1 X71.350 Y71.900
; --- Backlash Y fix: -1.000mm ---
G0 X71.350 Y70.900 F200
G1 X71.300 Y70.850
; --- Backlash Y fix: 1.000mm ---
G0 X71.300 Y71.850 F200
G1 X71.250 Y71.900
G0 Z1.800 F3000
M400
M204 P1000 T1000
G1 F1500
; --- Backlash X fix: -0.500mm ---
G0 X70.750 Y71.900 F200
G0 X70.350 Y73.800 Z1.800
M400
M204 P550 T550
G1 F600
G1 Z0.000 F2500
; --- Backlash X fix: 0.500mm ---
G0 X70.850 Y73.800 F200
G1 X70.900 Y73.850
G1 X71.000 Y73.850
G1 X71.050 Y73.800
G1 X71.100 Y73.750
G1 X71.150 Y73.700
G1 X71.200 Y73.650
G1 X71.300 Y73.650
; --- Backlash Y fix: -1.000mm ---
G0 X71.300 Y72.650 F200
G1 X71.350 Y72.600
G1 X71.400 Y72.550
G1 X71.500 Y72.550
G1 X71.550 Y72.500
G1 X71.600 Y72.450
G1 X71.650 Y72.400
G1 X71.700 Y72.350
G1 X71.800 Y72.350
G1 X71.850 Y72.300
G1 X71.900 Y72.250
G1 X72.000 Y72.250
G1 X72.050 Y72.200
G1 X72.100 Y72.150
G1 X72.150 Y72.100
G1 X72.200 Y72.050
G1 X72.300 Y72.050
G1 X72.350 Y72.000
G1 X72.400 Y71.950
G1 X72.500 Y71.950
G1 X72.550 Y71.900
G1 X72.600 Y71.850
G1 X72.650 Y71.800
G1 X72.700 Y71.750
G1 X72.800 Y71.750
G1 X72.850 Y71.700
G1 X72.900 Y71.650
G1 X73.000 Y71.650
G1 X73.050 Y71.600
G1 X73.100 Y71.550
G1 X73.150 Y71.500
G1 X73.150 Y71.400
; --- Backlash X fix: -0.500mm ---
G0 X72.650 Y71.400 F200
G1 X72.600 Y71.350
G1 X72.550 Y71.300
G1 X72.550 Y71.200
G1 X72.500 Y71.150
G1 X72.450 Y71.100
G1 X72.400 Y71.050
G1 X72.350 Y71.000
G1 X72.350 Y70.900
G1 X72.300 Y70.850
G1 X72.250 Y70.800
G1 X72.200 Y70.750
G1 X72.150 Y70.700
G1 X72.150 Y70.600
G1 X72.100 Y70.550
G1 X72.050 Y70.500
G1 X72.000 Y70.450
G1 X71.950 Y70.400
G1 X71.900 Y70.350
G1 X71.850 Y70.300
G1 X71.850 Y70.200
G1 X71.800 Y70.150
G1 X71.750 Y70.100
G1 X71.750 Y70.000
G1 X71.700 Y69.950
G1 X71.650 Y69.900
G1 X71.600 Y69.850
G1 X71.550 Y69.800
G1 X71.550 Y69.700
G1 X71.500 Y69.650
G1 X71.450 Y69.600
G1 X71.400 Y69.550
G1 X71.350 Y69.500
G1 X71.300 Y69.450
G1 X71.250 Y69.400
G1 X71.250 Y69.300
G1 X71.200 Y69.250
G1 X71.150 Y69.200
G1 X71.100 Y69.150
G1 X71.050 Y69.100
G1 X71.050 Y69.000
G1 X71.000 Y68.950
G1 X70.950 Y68.900
G1 X70.950 Y68.800
G1 X70.900 Y68.750
G1 X70.850 Y68.700
G1 X70.800 Y68.650
G1 X70.750 Y68.600
G1 X70.700 Y68.550
G1 X70.650 Y68.500
G1 X70.650 Y68.400
G1 X70.600 Y68.350
G1 X70.550 Y68.300
G1 X70.500 Y68.250
G1 X70.450 Y68.200
G1 X70.450 Y68.100
G1 X70.400 Y68.050
G1 X70.350 Y68.000
G1 X70.350 Y67.900
G1 X70.300 Y67.850
G1 X70.250 Y67.800
G1 X70.200 Y67.750
G1 X70.150 Y67.700
G1 X70.100 Y67.650
G1 X70.050 Y67.600
G1 X70.050 Y67.500
G1 X70.000 Y67.450
G1 X69.950 Y67.400
G1 X69.950 Y67.300
G1 X69.900 Y67.250
G1 X69.850 Y67.200
G1 X69.800 Y67.150
G1 X69.750 Y67.100
G1 X69.750 Y67.000
G1 X69.700 Y66.950
G1 X69.650 Y66.900
G1 X69.600 Y66.850
G1 X69.550 Y66.800
G1 X69.500 Y66.750
G1 X69.450 Y66.700
G1 X69.450 Y66.600
G1 X69.400 Y66.550
G1 X69.350 Y66.500
G1 X69.350 Y66.400
G1 X69.300 Y66.350
G1 X69.250 Y66.300
G1 X69.200 Y66.250
G1 X69.150 Y66.200
G1 X69.150 Y66.100
G1 X69.100 Y66.050
G1 X69.050 Y66.000
G1 X69.000 Y65.950
G1 X68.950 Y65.900
G1 X68.900 Y65.850
G1 X68.850 Y65.800
G1 X68.850 Y65.700
G1 X68.800 Y65.650
G1 X68.750 Y65.600
G1 X68.750 Y65.500
G1 X68.700 Y65.450
G1 X68.650 Y65.400
G1 X68.600 Y65.350
G1 X68.550 Y65.300
G1 X68.550 Y65.200
G1 X68.500 Y65.150
G1 X68.450 Y65.100
G1 X68.400 Y65.050
G1 X68.350 Y65.000
G1 X68.300 Y64.950
G1 X68.250 Y64.900
G1 X68.250 Y64.800
G1 X68.200 Y64.750
G1 X68.150 Y64.700
G1 X68.100 Y64.650
G1 X68.050 Y64.700
G1 X68.000 Y64.750
G1 X67.950 Y64.800
G1 X67.900 Y64.850
G1 X67.800 Y64.850
G1 X67.700 Y64.850
; --- Backlash Y fix: 1.000mm ---
G0 X67.700 Y65.850 F200
G1 X67.650 Y65.900
G1 X67.600 Y65.950
G1 X67.550 Y66.000
G1 X67.500 Y66.050
G1 X67.400 Y66.050
G1 X67.350 Y66.100
G1 X67.300 Y66.150
G1 X67.200 Y66.150
G1 X67.150 Y66.200
G1 X67.100 Y66.250
G1 X67.000 Y66.250
G1 X66.950 Y66.300
G1 X66.900 Y66.350
G1 X66.800 Y66.350
G1 X66.750 Y66.400
G1 X66.700 Y66.450
G1 X66.650 Y66.500
G1 X66.650 Y66.600
G1 X66.700 Y66.650
G1 X66.750 Y66.700
G1 X66.750 Y66.800
G1 X66.800 Y66.850
G1 X66.850 Y66.900
; --- Backlash X fix: 0.500mm ---
G0 X67.350 Y66.900 F200
G1 X67.400 Y66.950
G1 X67.450 Y67.000
G1 X67.450 Y67.100
G1 X67.500 Y67.150
G1 X67.550 Y67.200
G1 X67.550 Y67.300
G1 X67.600 Y67.350
G1 X67.650 Y67.400
G1 X67.650 Y67.500
G1 X67.700 Y67.550
G1 X67.750 Y67.600
G1 X67.800 Y67.650
G1 X67.850 Y67.700
G1 X67.850 Y67.800
G1 X67.850 Y67.900
G1 X67.900 Y67.950
G1 X67.950 Y68.000
G1 X68.000 Y68.050
G1 X68.050 Y68.100
G1 X68.050 Y68.200
G1 X68.100 Y68.250
G1 X68.150 Y68.300
G1 X68.150 Y68.400
G1 X68.200 Y68.450
G1 X68.250 Y68.500
G1 X68.250 Y68.600
G1 X68.300 Y68.650
G1 X68.350 Y68.700
G1 X68.350 Y68.800
G1 X68.400 Y68.850
G1 X68.450 Y68.900
G1 X68.450 Y69.000
G1 X68.500 Y69.050
G1 X68.550 Y69.100
G1 X68.550 Y69.200
G1 X68.600 Y69.250
G1 X68.650 Y69.300
G1 X68.700 Y69.350
G1 X68.750 Y69.400
G1 X68.750 Y69.500
G1 X68.750 Y69.600
G1 X68.800 Y69.650
G1 X68.850 Y69.700
G1 X68.850 Y69.800
G1 X68.900 Y69.850
G1 X68.950 Y69.900
G1 X69.000 Y69.950
G1 X69.050 Y70.000
G1 X69.050 Y70.100
G1 X69.050 Y70.200
G1 X69.100 Y70.250
G1 X69.150 Y70.300
G1 X69.150 Y70.400
G1 X69.200 Y70.450
G1 X69.250 Y70.500
G1 X69.300 Y70.550
G1 X69.350 Y70.600
G1 X69.350 Y70.700
G1 X69.350 Y70.800
G1 X69.400 Y70.850
G1 X69.450 Y70.900
G1 X69.450 Y71.000
G1 X69.500 Y71.050
G1 X69.550 Y71.100
G1 X69.600 Y71.150
G1 X69.650 Y71.200
G1 X69.650 Y71.300
G1 X69.650 Y71.400
G1 X69.700 Y71.450
G1 X69.750 Y71.500
G1 X69.800 Y71.550
G1 X69.850 Y71.600
G1 X69.850 Y71.700
G1 X69.900 Y71.750
G1 X69.950 Y71.800
G1 X69.950 Y71.900
G1 X69.950 Y72.000
G1 X70.000 Y72.050
G1 X70.050 Y72.100
G1 X70.050 Y72.200
G1 X70.100 Y72.250
G1 X70.150 Y72.300
G1 X70.200 Y72.350
G1 X70.250 Y72.400
G1 X70.250 Y72.500
G1 X70.250 Y72.600
G1 X70.300 Y72.650
G1 X70.350 Y72.700
G1 X70.350 Y72.800
G1 X70.400 Y72.850
G1 X70.450 Y72.900
G1 X70.500 Y72.950
G1 X70.550 Y73.000
G1 X70.550 Y73.100
G1 X70.550 Y73.200
G1 X70.600 Y73.250
G1 X70.650 Y73.300
G1 X70.650 Y73.400
G1 X70.700 Y73.450
G1 X70.750 Y73.500
G1 X70.750 Y73.600
G1 X70.800 Y73.650
G1 X70.850 Y73.700
G1 X70.850 Y73.800
G0 Z1.800 F3000
M400
M204 P1000 T1000
G1 F1500
; --- Backlash X fix: -0.500mm ---
G0 X70.350 Y73.800 F200
G0 X69.850 Y75.500 Z1.800
M400
M204 P550 T550
G1 F600
G1 Z0.000 F2500
; --- Backlash X fix: 0.500mm ---
G0 X70.350 Y75.500 F200
G1 X70.400 Y75.550
G1 X70.500 Y75.550
G1 X70.550 Y75.500
G1 X70.600 Y75.450
G1 X70.700 Y75.450
G1 X70.750 Y75.400
; --- Backlash Y fix: -1.000mm ---
G0 X70.750 Y74.400 F200
G1 X70.800 Y74.350
G1 X70.900 Y74.350
G1 X70.950 Y74.300
G1 X71.000 Y74.250
G1 X71.050 Y74.200
G1 X71.100 Y74.150
G1 X71.200 Y74.150
G1 X71.250 Y74.100
G1 X71.300 Y74.050
G1 X71.400 Y74.050
G1 X71.450 Y74.000
G1 X71.500 Y73.950
G1 X71.550 Y73.900
G1 X71.600 Y73.850
G1 X71.700 Y73.850
G1 X71.750 Y73.800
G1 X71.800 Y73.750
G1 X71.900 Y73.750
G1 X71.950 Y73.700
G1 X72.000 Y73.650
G1 X72.050 Y73.600
G1 X72.100 Y73.550
G1 X72.200 Y73.550
G1 X72.250 Y73.500
G1 X72.300 Y73.450
G1 X72.400 Y73.450
G1 X72.450 Y73.400
G1 X72.500 Y73.350
G0 Z1.800 F3000

; --- DIP → Color 4 — Purple ---
G0 Z1.800 F3000
M400
M204 P1000 T1000
G1 F1500
G0 X150.000 Y4.432 Z10.000
G1 Z1.000 F3000
G1 X150.000 Y4.432 F2500
G1 X150.000 Y6.932 F2500
G1 X145.000 Y4.432 F2500
G1 X150.000 Y0.000 F2500
G0 Z3.000 F3000
G0 X143.857 Y10.042
G0 Z10.000 F3000
G0 X72.550 Y74.300 Z1.800
M400
M204 P550 T550
G1 F600
G1 Z0.000 F2500
G1 X72.550 Y73.300
G1 X72.600 Y73.250
G1 X72.700 Y73.250
G1 X72.750 Y73.200
G1 X72.800 Y73.150
G1 X72.900 Y73.150
G1 X72.950 Y73.100
G1 X73.000 Y73.050
G1 X73.050 Y73.000
G1 X73.100 Y72.950
G1 X73.200 Y72.950
G1 X73.250 Y72.900
G1 X73.300 Y72.850
G1 X73.400 Y72.850
G1 X73.450 Y72.800
G1 X73.500 Y72.750
G1 X73.550 Y72.700
G1 X73.600 Y72.650
G1 X73.700 Y72.650
G1 X73.750 Y72.600
G1 X73.800 Y72.550
G1 X73.900 Y72.550
G1 X73.950 Y72.500
G1 X74.000 Y72.450
G1 X74.050 Y72.400
G1 X74.100 Y72.350
G1 X74.200 Y72.350
G1 X74.250 Y72.300
G1 X74.300 Y72.250
G1 X74.400 Y72.250
G1 X74.450 Y72.200
G1 X74.500 Y72.150
G1 X74.550 Y72.100
G1 X74.600 Y72.050
G1 X74.700 Y72.050
G1 X74.750 Y72.000
G1 X74.800 Y71.950
G1 X74.900 Y71.950
G1 X74.950 Y71.900
G1 X74.950 Y71.800
G1 X74.900 Y71.750
; --- Backlash X fix: -0.500mm ---
G0 X74.400 Y71.750 F200
G1 X74.350 Y71.700
G1 X74.350 Y71.600
G1 X74.300 Y71.550
G1 X74.250 Y71.500
G1 X74.200 Y71.450
G1 X74.150 Y71.400
G1 X74.150 Y71.300
G1 X74.100 Y71.250
G1 X74.050 Y71.200
G1 X74.000 Y71.150
G1 X73.950 Y71.100
G1 X73.950 Y71.000
G1 X73.900 Y70.950
G1 X73.850 Y70.900
G1 X73.800 Y70.850
G1 X73.750 Y70.800
G1 X73.700 Y70.750
G1 X73.650 Y70.700
G1 X73.650 Y70.600
G1 X73.600 Y70.550
G1 X73.550 Y70.500
G1 X73.500 Y70.450
G1 X73.450 Y70.400
G1 X73.450 Y70.300
G1 X73.400 Y70.250
G1 X73.350 Y70.200
G1 X73.300 Y70.150
G1 X73.250 Y70.100
G1 X73.250 Y70.000
G1 X73.200 Y69.950
G1 X73.150 Y69.900
G1 X73.100 Y69.850
G1 X73.050 Y69.800
G1 X73.050 Y69.700
G1 X73.000 Y69.650
G1 X72.950 Y69.600
G1 X72.900 Y69.550
G1 X72.850 Y69.500
G1 X72.800 Y69.450
G1 X72.750 Y69.400
G1 X72.750 Y69.300
G1 X72.700 Y69.250
G1 X72.650 Y69.200
G1 X72.650 Y69.100
G1 X72.600 Y69.050
G1 X72.550 Y69.000
G1 X72.500 Y68.950
G1 X72.450 Y68.900
G1 X72.450 Y68.800
G1 X72.400 Y68.750
G1 X72.350 Y68.700
G1 X72.300 Y68.650
G1 X72.250 Y68.600
G1 X72.200 Y68.550
G1 X72.150 Y68.500
G1 X72.150 Y68.400
G1 X72.100 Y68.350
G1 X72.050 Y68.300
G1 X72.000 Y68.250
G1 X71.950 Y68.200
G1 X71.950 Y68.100
G1 X71.900 Y68.050
G1 X71.850 Y68.000
G1 X71.850 Y67.900
G1 X71.800 Y67.850
G1 X71.750 Y67.800
G1 X71.700 Y67.750
G1 X71.650 Y67.700
G1 X71.600 Y67.650
G1 X71.550 Y67.600
G1 X71.550 Y67.500
G1 X71.500 Y67.450
G1 X71.450 Y67.400
G1 X71.400 Y67.350
G1 X71.350 Y67.300
G1 X71.350 Y67.200
G1 X71.300 Y67.150
G1 X71.250 Y67.100
G1 X71.250 Y67.000
G1 X71.200 Y66.950
G1 X71.150 Y66.900
G1 X71.100 Y66.850
G1 X71.050 Y66.800
G1 X71.000 Y66.750
G1 X70.950 Y66.700
G1 X70.950 Y66.600
G1 X70.900 Y66.550
G1 X70.850 Y66.500
G1 X70.850 Y66.400
G1 X70.800 Y66.350
G1 X70.750 Y66.300
G1 X70.700 Y66.250
G1 X70.650 Y66.200
G1 X70.650 Y66.100
G1 X70.600 Y66.050
G1 X70.550 Y66.000
G1 X70.500 Y65.950
G1 X70.450 Y65.900
G1 X70.400 Y65.850
G1 X70.350 Y65.800
G1 X70.350 Y65.700
G1 X70.300 Y65.650
G1 X70.250 Y65.600
G1 X70.250 Y65.500
G1 X70.200 Y65.450
G1 X70.150 Y65.400
G1 X70.100 Y65.350
G1 X70.050 Y65.300
G1 X70.050 Y65.200
G1 X70.000 Y65.150
G1 X69.950 Y65.100
G1 X69.900 Y65.050
G1 X69.850 Y65.000
G1 X69.800 Y64.950
G1 X69.750 Y64.900
G1 X69.750 Y64.800
G1 X69.700 Y64.750
G1 X69.650 Y64.700
G1 X69.650 Y64.600
G1 X69.600 Y64.550
G1 X69.550 Y64.500
G1 X69.500 Y64.450
G1 X69.450 Y64.400
G1 X69.450 Y64.300
G1 X69.400 Y64.250
G1 X69.350 Y64.200
G1 X69.300 Y64.150
G1 X69.250 Y64.100
G1 X69.200 Y64.050
G1 X69.150 Y64.000
G1 X69.150 Y63.900
G1 X69.100 Y63.850
G1 X69.050 Y63.800
G1 X69.050 Y63.700
G1 X69.000 Y63.650
G1 X68.950 Y63.600
G1 X68.900 Y63.550
G1 X68.850 Y63.500
G1 X68.850 Y63.400
G1 X68.800 Y63.350
G1 X68.750 Y63.300
G1 X68.700 Y63.250
G1 X68.650 Y63.200
G1 X68.600 Y63.150
G1 X68.550 Y63.100
G1 X68.550 Y63.000
G1 X68.500 Y62.950
G1 X68.400 Y62.950
G1 X68.350 Y63.000
G1 X68.300 Y63.050
G1 X68.250 Y63.100
; --- Backlash Y fix: 1.000mm ---
G0 X68.250 Y64.100 F200
G1 X68.200 Y64.150
G1 X68.100 Y64.150
G1 X68.050 Y64.200
G1 X68.000 Y64.250
G1 X67.950 Y64.300
G1 X67.900 Y64.350
G1 X67.800 Y64.350
G1 X67.750 Y64.400
G1 X67.700 Y64.450
G1 X67.650 Y64.500
G1 X67.600 Y64.550
G1 X67.500 Y64.550
G1 X67.450 Y64.600
G1 X67.400 Y64.650
G1 X67.350 Y64.700
G1 X67.300 Y64.750
G1 X67.200 Y64.750
G1 X67.150 Y64.800
G1 X67.100 Y64.850
G1 X67.050 Y64.900
G1 X67.000 Y64.950
G1 X66.900 Y64.950
G1 X66.800 Y64.950
G1 X66.750 Y65.000
G1 X66.700 Y65.050
G1 X66.650 Y65.100
G1 X66.600 Y65.150
G1 X66.500 Y65.150
G1 X66.450 Y65.200
G1 X66.400 Y65.250
G1 X66.300 Y65.250
G1 X66.250 Y65.300
G1 X66.200 Y65.350
G1 X66.100 Y65.350
G1 X66.050 Y65.400
G1 X66.000 Y65.450
G1 X65.900 Y65.450
G1 X65.850 Y65.500
G1 X65.800 Y65.550
G1 X65.700 Y65.550
G1 X65.600 Y65.550
G1 X65.550 Y65.600
G1 X65.500 Y65.650
G1 X65.400 Y65.650
G1 X65.350 Y65.700
G1 X65.300 Y65.750
G1 X65.200 Y65.750
G1 X65.150 Y65.800
G1 X65.100 Y65.850
G1 X65.000 Y65.850
G1 X64.950 Y65.900
G1 X64.950 Y66.000
G1 X65.000 Y66.050
G1 X65.050 Y66.100
G1 X65.050 Y66.200
G1 X65.100 Y66.250
; --- Backlash X fix: 0.500mm ---
G0 X65.600 Y66.250 F200
G1 X65.650 Y66.300
G1 X65.650 Y66.400
G1 X65.700 Y66.450
G1 X65.750 Y66.500
G1 X65.750 Y66.600
G1 X65.800 Y66.650
G1 X65.850 Y66.700
G1 X65.900 Y66.750
G1 X65.950 Y66.800
G1 X65.950 Y66.900
G1 X66.000 Y66.950
G1 X66.050 Y67.000
G1 X66.050 Y67.100
G1 X66.100 Y67.150
G1 X66.150 Y67.200
G1 X66.150 Y67.300
G1 X66.200 Y67.350
G1 X66.250 Y67.400
G1 X66.250 Y67.500
G1 X66.300 Y67.550
G1 X66.350 Y67.600
G1 X66.350 Y67.700
G1 X66.400 Y67.750
G1 X66.450 Y67.800
G1 X66.500 Y67.850
G1 X66.550 Y67.900
G1 X66.550 Y68.000
G1 X66.600 Y68.050
G1 X66.650 Y68.100
G1 X66.650 Y68.200
G1 X66.700 Y68.250
G1 X66.750 Y68.300
G1 X66.750 Y68.400
G1 X66.800 Y68.450
G1 X66.850 Y68.500
G1 X66.900 Y68.550
G1 X66.950 Y68.600
G1 X66.950 Y68.700
G1 X66.950 Y68.800
G1 X67.000 Y68.850
G1 X67.050 Y68.900
G1 X67.100 Y68.950
G1 X67.150 Y69.000
G1 X67.150 Y69.100
G1 X67.200 Y69.150
G1 X67.250 Y69.200
G1 X67.250 Y69.300
G1 X67.300 Y69.350
G1 X67.350 Y69.400
G1 X67.350 Y69.500
G1 X67.400 Y69.550
G1 X67.450 Y69.600
G1 X67.450 Y69.700
G1 X67.500 Y69.750
G1 X67.550 Y69.800
G1 X67.550 Y69.900
G1 X67.600 Y69.950
G1 X67.650 Y70.000
G1 X67.650 Y70.100
G1 X67.700 Y70.150
G1 X67.750 Y70.200
G1 X67.800 Y70.250
G1 X67.850 Y70.300
G1 X67.850 Y70.400
G1 X67.850 Y70.500
G1 X67.900 Y70.550
G1 X67.950 Y70.600
G1 X67.950 Y70.700
G1 X68.000 Y70.750
G1 X68.050 Y70.800
G1 X68.100 Y70.850
G1 X68.150 Y70.900
G1 X68.150 Y71.000
G1 X68.150 Y71.100
G1 X68.200 Y71.150
G1 X68.250 Y71.200
G1 X68.250 Y71.300
G1 X68.300 Y71.350
G1 X68.350 Y71.400
G1 X68.400 Y71.450
G1 X68.450 Y71.500
G1 X68.450 Y71.600
G1 X68.450 Y71.700
G1 X68.500 Y71.750
G1 X68.550 Y71.800
G1 X68.550 Y71.900
G1 X68.600 Y71.950
G1 X68.650 Y72.000
G1 X68.700 Y72.050
G1 X68.750 Y72.100
G1 X68.750 Y72.200
G1 X68.750 Y72.300
G1 X68.800 Y72.350
G1 X68.850 Y72.400
G1 X68.900 Y72.450
G1 X68.950 Y72.500
G1 X68.950 Y72.600
G1 X69.000 Y72.650
G1 X69.050 Y72.700
G1 X69.050 Y72.800
G1 X69.050 Y72.900
G1 X69.100 Y72.950
G1 X69.150 Y73.000
G1 X69.150 Y73.100
G1 X69.200 Y73.150
G1 X69.250 Y73.200
G1 X69.300 Y73.250
G1 X69.350 Y73.300
G1 X69.350 Y73.400
G1 X69.350 Y73.500
G1 X69.400 Y73.550
G1 X69.450 Y73.600
G1 X69.450 Y73.700
G1 X69.500 Y73.750
G1 X69.550 Y73.800
G1 X69.600 Y73.850
G1 X69.650 Y73.900
G1 X69.650 Y74.000
G1 X69.650 Y74.100
G1 X69.700 Y74.150
G1 X69.750 Y74.200
G1 X69.750 Y74.300
G1 X69.800 Y74.350
G1 X69.850 Y74.400
G1 X69.850 Y74.500
G1 X69.900 Y74.550
G1 X69.950 Y74.600
G1 X69.950 Y74.700
G1 X70.000 Y74.750
G1 X70.050 Y74.800
G1 X70.050 Y74.900
G1 X70.100 Y74.950
G1 X70.150 Y75.000
G1 X70.150 Y75.100
G1 X70.200 Y75.150
G1 X70.250 Y75.200
G1 X70.250 Y75.300
G1 X70.300 Y75.350
G1 X70.350 Y75.400
G1 X70.350 Y75.500
G0 Z1.800 F3000
M400
M204 P1000 T1000
G1 F1500
; --- Backlash X fix: -0.500mm ---
G0 X69.850 Y75.500 F200
G0 X69.350 Y77.200 Z1.800
M400
M204 P550 T550
G1 F600
G1 Z0.000 F2500
; --- Backlash X fix: 0.500mm ---
G0 X69.850 Y77.200 F200
G1 X69.900 Y77.250
G1 X70.000 Y77.250
G1 X70.050 Y77.200
G1 X70.100 Y77.150
G1 X70.200 Y77.150
; --- Backlash Y fix: -1.000mm ---
G0 X70.200 Y76.150 F200
G1 X70.250 Y76.100
G1 X70.300 Y76.050
G1 X70.350 Y76.000
G1 X70.400 Y75.950
G1 X70.500 Y75.950
G1 X70.550 Y75.900
G1 X70.600 Y75.850
G1 X70.700 Y75.850
G1 X70.750 Y75.800
G1 X70.800 Y75.750
G1 X70.900 Y75.750
G1 X70.950 Y75.700
G1 X71.000 Y75.650
G1 X71.100 Y75.650
G1 X71.150 Y75.600
G1 X71.200 Y75.550
G1 X71.250 Y75.500
G1 X71.300 Y75.450
G1 X71.400 Y75.450
G1 X71.450 Y75.400
G1 X71.500 Y75.350
G1 X71.600 Y75.350
G1 X71.650 Y75.300
G1 X71.700 Y75.250
G1 X71.800 Y75.250
G1 X71.850 Y75.200
G1 X71.900 Y75.150
G1 X71.950 Y75.100
G1 X72.000 Y75.050
G1 X72.100 Y75.050
G1 X72.150 Y75.000
G1 X72.200 Y74.950
G1 X72.300 Y74.950
G1 X72.350 Y74.900
G1 X72.400 Y74.850
G1 X72.450 Y74.800
G1 X72.500 Y74.750
G1 X72.600 Y74.750
G1 X72.650 Y74.700
G1 X72.700 Y74.650
G1 X72.800 Y74.650
G1 X72.850 Y74.600
G1 X72.900 Y74.550
G1 X72.950 Y74.500
G1 X73.000 Y74.450
G1 X73.100 Y74.450
G1 X73.150 Y74.400
G1 X73.200 Y74.350
G1 X73.300 Y74.350
G1 X73.350 Y74.300
G1 X73.400 Y74.250
G1 X73.450 Y74.200
G1 X73.500 Y74.150
G1 X73.600 Y74.150
G1 X73.650 Y74.100
G1 X73.700 Y74.050
G1 X73.800 Y74.050
G1 X73.850 Y74.000
G1 X73.900 Y73.950
G1 X73.950 Y73.900
G1 X74.000 Y73.850
G1 X74.100 Y73.850
G1 X74.150 Y73.800
G1 X74.200 Y73.750
G1 X74.300 Y73.750
G1 X74.350 Y73.700
G1 X74.400 Y73.650
G1 X74.450 Y73.600
G1 X74.500 Y73.550
G1 X74.600 Y73.550
G1 X74.650 Y73.500
G1 X74.700 Y73.450
G1 X74.800 Y73.450
G1 X74.850 Y73.400
G1 X74.900 Y73.350
G1 X74.950 Y73.300
G1 X75.000 Y73.250
G1 X75.100 Y73.250
G1 X75.150 Y73.200
G1 X75.200 Y73.150
G1 X75.300 Y73.150
G1 X75.350 Y73.100
G1 X75.400 Y73.050
G1 X75.450 Y73.000
G1 X75.500 Y72.950
G1 X75.600 Y72.950
G1 X75.650 Y72.900
G1 X75.700 Y72.850
G1 X75.800 Y72.850
G1 X75.850 Y72.800
G1 X75.900 Y72.750
G1 X75.950 Y72.700
G1 X76.000 Y72.650
G1 X76.100 Y72.650
G1 X76.150 Y72.600
G1 X76.200 Y72.550
G1 X76.300 Y72.550
G1 X76.350 Y72.500
G1 X76.400 Y72.450
G1 X76.450 Y72.400
G1 X76.500 Y72.350
G1 X76.600 Y72.350
G1 X76.650 Y72.300
G1 X76.700 Y72.250
G1 X76.750 Y72.200
G1 X76.700 Y72.150
G1 X76.650 Y72.100
; --- Backlash X fix: -0.500mm ---
G0 X76.150 Y72.100 F200
G1 X76.100 Y72.050
G1 X76.050 Y72.000
G1 X76.050 Y71.900
G1 X76.000 Y71.850
G1 X75.950 Y71.800
G1 X75.900 Y71.750
G1 X75.850 Y71.700
G1 X75.850 Y71.600
G1 X75.800 Y71.550
G1 X75.750 Y71.500
G1 X75.700 Y71.450
G1 X75.650 Y71.400
G1 X75.650 Y71.300
G1 X75.600 Y71.250
G1 X75.550 Y71.200
G1 X75.500 Y71.150
G1 X75.450 Y71.100
G1 X75.450 Y71.000
G1 X75.400 Y70.950
G1 X75.350 Y70.900
G1 X75.300 Y70.850
G1 X75.250 Y70.800
G1 X75.250 Y70.700
G1 X75.200 Y70.650
G1 X75.150 Y70.600
G1 X75.100 Y70.550
G1 X75.050 Y70.500
G1 X75.050 Y70.400
G1 X75.000 Y70.350
G1 X74.950 Y70.300
G1 X74.900 Y70.250
G1 X74.850 Y70.200
G1 X74.850 Y70.100
G1 X74.800 Y70.050
G1 X74.750 Y70.000
G1 X74.700 Y69.950
G1 X74.650 Y69.900
G1 X74.600 Y69.850
G1 X74.550 Y69.800
G1 X74.550 Y69.700
G1 X74.500 Y69.650
G1 X74.450 Y69.600
G1 X74.400 Y69.550
G1 X74.350 Y69.500
G1 X74.350 Y69.400
G1 X74.300 Y69.350
G1 X74.250 Y69.300
G1 X74.200 Y69.250
G1 X74.150 Y69.200
G1 X74.150 Y69.100
G1 X74.100 Y69.050
G1 X74.050 Y69.000
G1 X74.000 Y68.950
G1 X73.950 Y68.900
G1 X73.950 Y68.800
G1 X73.900 Y68.750
G1 X73.850 Y68.700
G1 X73.800 Y68.650
G1 X73.750 Y68.600
G1 X73.700 Y68.550
G1 X73.650 Y68.500
G1 X73.650 Y68.400
G1 X73.600 Y68.350
G1 X73.550 Y68.300
G1 X73.550 Y68.200
G1 X73.500 Y68.150
G1 X73.450 Y68.100
G1 X73.400 Y68.050
G1 X73.350 Y68.000
G1 X73.350 Y67.900
G1 X73.300 Y67.850
G1 X73.250 Y67.800
G1 X73.200 Y67.750
G1 X73.150 Y67.700
G1 X73.100 Y67.650
G1 X73.050 Y67.600
G1 X73.050 Y67.500
G1 X73.000 Y67.450
G1 X72.950 Y67.400
G1 X72.900 Y67.350
G1 X72.850 Y67.300
G1 X72.850 Y67.200
G1 X72.800 Y67.150
G1 X72.750 Y67.100
G1 X72.750 Y67.000
G1 X72.700 Y66.950
G1 X72.650 Y66.900
G1 X72.600 Y66.850
G1 X72.550 Y66.800
G1 X72.500 Y66.750
G1 X72.450 Y66.700
G1 X72.450 Y66.600
G1 X72.400 Y66.550
G1 X72.350 Y66.500
G1 X72.300 Y66.450
G1 X72.250 Y66.400
G1 X72.250 Y66.300
G1 X72.200 Y66.250
G1 X72.150 Y66.200
G1 X72.150 Y66.100
G1 X72.100 Y66.050
G1 X72.050 Y66.000
G1 X72.000 Y65.950
G1 X71.950 Y65.900
G1 X71.900 Y65.850
G1 X71.850 Y65.800
G1 X71.850 Y65.700
G1 X71.800 Y65.650
G1 X71.750 Y65.600
G1 X71.750 Y65.500
G1 X71.700 Y65.450
G1 X71.650 Y65.400
G1 X71.600 Y65.350
G1 X71.550 Y65.300
G1 X71.550 Y65.200
G1 X71.500 Y65.150
G1 X71.450 Y65.100
G1 X71.400 Y65.050
G1 X71.350 Y65.000
G1 X71.300 Y64.950
G1 X71.250 Y64.900
G1 X71.250 Y64.800
G1 X71.200 Y64.750
G1 X71.150 Y64.700
G1 X71.150 Y64.600
G1 X71.100 Y64.550
G1 X71.050 Y64.500
G1 X71.000 Y64.450
G1 X70.950 Y64.400
G1 X70.950 Y64.300
G1 X70.900 Y64.250
G1 X70.850 Y64.200
G1 X70.800 Y64.150
G1 X70.750 Y64.100
G1 X70.700 Y64.050
G1 X70.650 Y64.000
G1 X70.650 Y63.900
G1 X70.600 Y63.850
G1 X70.550 Y63.800
G1 X70.550 Y63.700
G1 X70.500 Y63.650
G1 X70.450 Y63.600
G1 X70.400 Y63.550
G1 X70.350 Y63.500
G1 X70.350 Y63.400
G1 X70.300 Y63.350
G1 X70.250 Y63.300
G1 X70.200 Y63.250
G1 X70.150 Y63.200
G1 X70.100 Y63.150
G1 X70.050 Y63.100
G1 X70.050 Y63.000
G1 X70.000 Y62.950
G1 X69.950 Y62.900
G1 X69.950 Y62.800
G1 X69.900 Y62.750
G1 X69.850 Y62.700
G1 X69.800 Y62.650
G1 X69.750 Y62.600
G1 X69.750 Y62.500
G1 X69.700 Y62.450
G1 X69.650 Y62.400
G1 X69.600 Y62.350
G1 X69.550 Y62.300
G1 X69.500 Y62.250
G1 X69.450 Y62.200
G1 X69.450 Y62.100
G1 X69.400 Y62.050
G1 X69.350 Y62.000
G1 X69.350 Y61.900
G1 X69.300 Y61.850
G1 X69.250 Y61.800
G1 X69.200 Y61.750
G1 X69.150 Y61.700
G1 X69.150 Y61.600
G1 X69.100 Y61.550
G1 X69.050 Y61.500
G1 X69.000 Y61.450
G1 X68.950 Y61.400
G1 X68.900 Y61.350
G1 X68.850 Y61.300
G1 X68.850 Y61.200
G1 X68.800 Y61.150
G1 X68.750 Y61.100
G1 X68.700 Y61.050
; --- Backlash Y fix: 1.000mm ---
G0 X68.700 Y62.050 F200
G1 X68.650 Y62.100
G1 X68.600 Y62.150
G1 X68.550 Y62.200
G1 X68.500 Y62.250
G1 X68.450 Y62.300
G1 X68.400 Y62.350
G1 X68.350 Y62.400
G1 X68.300 Y62.450
G1 X68.250 Y62.500
G1 X68.200 Y62.550
G1 X68.100 Y62.550
G1 X68.050 Y62.600
G1 X68.000 Y62.650
G1 X67.950 Y62.700
G1 X67.900 Y62.750
G1 X67.850 Y62.800
G1 X67.800 Y62.850
G1 X67.750 Y62.900
G1 X67.700 Y62.950
G1 X67.650 Y63.000
G1 X67.600 Y63.050
G1 X67.500 Y63.050
G1 X67.450 Y63.100
G1 X67.400 Y63.150
G1 X67.350 Y63.200
G1 X67.300 Y63.250
G1 X67.200 Y63.250
G1 X67.150 Y63.300
G1 X67.100 Y63.350
G1 X67.050 Y63.400
G1 X67.000 Y63.450
G1 X66.900 Y63.450
G1 X66.850 Y63.500
G1 X66.800 Y63.550
G1 X66.750 Y63.600
G1 X66.700 Y63.650
G1 X66.600 Y63.650
G1 X66.550 Y63.700
G1 X66.500 Y63.750
G1 X66.450 Y63.800
G1 X66.400 Y63.850
G1 X66.300 Y63.850
G1 X66.250 Y63.900
G1 X66.200 Y63.950
G1 X66.150 Y64.000
G1 X66.100 Y64.050
G1 X66.000 Y64.050
G1 X65.900 Y64.050
G1 X65.850 Y64.100
G1 X65.800 Y64.150
G1 X65.750 Y64.200
G1 X65.700 Y64.250
G1 X65.600 Y64.250
G1 X65.550 Y64.300
G1 X65.500 Y64.350
G1 X65.400 Y64.350
G1 X65.350 Y64.400
G1 X65.300 Y64.450
G1 X65.200 Y64.450
G1 X65.150 Y64.500
G1 X65.100 Y64.550
G1 X65.000 Y64.550
G1 X64.950 Y64.600
G1 X64.900 Y64.650
G1 X64.800 Y64.650
G1 X64.700 Y64.650
G1 X64.650 Y64.700
G1 X64.600 Y64.750
G1 X64.500 Y64.750
G1 X64.450 Y64.800
G1 X64.400 Y64.850
G1 X64.300 Y64.850
G1 X64.250 Y64.900
G1 X64.200 Y64.950
G1 X64.100 Y64.950
G1 X64.000 Y64.950
G1 X63.950 Y65.000
G1 X63.900 Y65.050
G1 X63.800 Y65.050
G1 X63.700 Y65.050
G1 X63.650 Y65.100
G1 X63.600 Y65.150
G1 X63.500 Y65.150
G1 X63.400 Y65.150
G1 X63.350 Y65.200
G1 X63.300 Y65.250
G1 X63.200 Y65.250
G1 X63.150 Y65.300
; --- Backlash X fix: 0.500mm ---
G0 X63.650 Y65.300 F200
G1 X63.700 Y65.350
G1 X63.750 Y65.400
G1 X63.750 Y65.500
G1 X63.800 Y65.550
G1 X63.850 Y65.600
G1 X63.850 Y65.700
G1 X63.900 Y65.750
G1 X63.950 Y65.800
G1 X63.950 Y65.900
G1 X64.000 Y65.950
G1 X64.050 Y66.000
G1 X64.100 Y66.050
G1 X64.150 Y66.100
G1 X64.150 Y66.200
G1 X64.200 Y66.250
G1 X64.250 Y66.300
G1 X64.250 Y66.400
G1 X64.300 Y66.450
G1 X64.350 Y66.500
G1 X64.350 Y66.600
G1 X64.400 Y66.650
G1 X64.450 Y66.700
G1 X64.500 Y66.750
G1 X64.550 Y66.800
G1 X64.550 Y66.900
G1 X64.600 Y66.950
G1 X64.650 Y67.000
G1 X64.650 Y67.100
G1 X64.700 Y67.150
G1 X64.750 Y67.200
G1 X64.750 Y67.300
G1 X64.800 Y67.350
G1 X64.850 Y67.400
G1 X64.850 Y67.500
G1 X64.900 Y67.550
G1 X64.950 Y67.600
G1 X65.000 Y67.650
G1 X65.050 Y67.700
G1 X65.050 Y67.800
G1 X65.100 Y67.850
G1 X65.150 Y67.900
G1 X65.150 Y68.000
G1 X65.200 Y68.050
G1 X65.250 Y68.100
G1 X65.250 Y68.200
G1 X65.300 Y68.250
G1 X65.350 Y68.300
G1 X65.350 Y68.400
G1 X65.400 Y68.450
G1 X65.450 Y68.500
G1 X65.450 Y68.600
G1 X65.500 Y68.650
G1 X65.550 Y68.700
G1 X65.600 Y68.750
G1 X65.650 Y68.800
G1 X65.650 Y68.900
G1 X65.700 Y68.950
G1 X65.750 Y69.000
G1 X65.750 Y69.100
G1 X65.800 Y69.150
G1 X65.850 Y69.200
G1 X65.850 Y69.300
G1 X65.900 Y69.350
G1 X65.950 Y69.400
G1 X66.000 Y69.450
G1 X66.050 Y69.500
G1 X66.050 Y69.600
G1 X66.050 Y69.700
G1 X66.100 Y69.750
G1 X66.150 Y69.800
G1 X66.200 Y69.850
G1 X66.250 Y69.900
G1 X66.250 Y70.000
G1 X66.300 Y70.050
G1 X66.350 Y70.100
G1 X66.350 Y70.200
G1 X66.400 Y70.250
G1 X66.450 Y70.300
G1 X66.450 Y70.400
G1 X66.500 Y70.450
G1 X66.550 Y70.500
G1 X66.550 Y70.600
G1 X66.600 Y70.650
G1 X66.650 Y70.700
G1 X66.650 Y70.800
G1 X66.700 Y70.850
G1 X66.750 Y70.900
G1 X66.750 Y71.000
G1 X66.800 Y71.050
G1 X66.850 Y71.100
G1 X66.900 Y71.150
G1 X66.950 Y71.200
G1 X66.950 Y71.300
G1 X66.950 Y71.400
G1 X67.000 Y71.450
