G90
G21
; === MULTI-COLOR PAINTER GCODE ===
; Generated layers: 1
; Backlash compensation: OFF
; Working area clamping: ON  X[0–150] Y[0–150]
; Tutti Frutti mode: OFF


; ═══════════════════════════════
; LAYER 2: Color 2 — Teal
; Infill: lines
; ═══════════════════════════════


; --- CIKEL NAMAKANJA ---
G0 Z2.000 F3000
M400
M204 P600 T600
G1 F1300
G0 X53.752 Y3.281 Z8.000
G1 Z1.000 F3000
G1 X53.752 Y3.281 F2500
G1 X53.752 Y5.031 F2500
G1 X50.252 Y3.281 F2500
G1 X53.752 Y0.000 F2500
G0 Z3.000 F3000
G0 X59.171 Y19.999
G0 Z8.000 F3000
G0 X59.250 Y29.250 Z2.000
M400
M204 P600 T600
G1 F1300
G0 X59.250 Y29.250 Z2.000
M400
M204 P200 T200
G1 F600
G1 Z0.000 F2500
G1 X59.250 Y29.250
G0 Z2.000 F3000
M400
M204 P600 T600
G1 F1300
G0 X57.750 Y30.750 Z2.000
M400
M204 P200 T200
G1 F600
G1 Z0.000 F2500
G1 X57.500 Y31.000
G0 Z2.000 F3000
M400
M204 P600 T600
G1 F1300
G0 X52.250 Y32.750 Z2.000
M400
M204 P200 T200
G1 F600
G1 Z0.000 F2500
G1 X52.000 Y32.750
G0 Z2.000 F3000
M400
M204 P600 T600
G1 F1300
G0 X51.500 Y33.250 Z2.000
M400
M204 P200 T200
G1 F600
G1 Z0.000 F2500
G1 X51.250 Y33.500
G0 Z2.000 F3000
M400
M204 P600 T600
G1 F1300
G0 X50.750 Y30.750 Z2.000
M400
M204 P200 T200
G1 F600
G1 Z0.000 F2500
G1 X50.500 Y31.000
G1 X50.250 Y31.000
G1 X50.250 Y31.250
G1 X50.000 Y31.500
G1 X49.750 Y31.500
G1 X49.500 Y31.750
G1 X49.500 Y32.000
G1 X49.250 Y32.250
G1 X49.000 Y32.250
G1 X49.000 Y32.500
G1 X48.750 Y32.750
G1 X48.500 Y32.750
G1 X48.250 Y33.000
G1 X48.250 Y33.250
G1 X48.000 Y33.250
G1 X47.750 Y33.500
G1 X47.750 Y33.750
G1 X47.500 Y34.000
G1 X47.250 Y34.000
G0 Z2.000 F3000
M400
M204 P600 T600
G1 F1300
G0 X47.500 Y30.250 Z2.000
M400
M204 P200 T200
G1 F600
G1 Z0.000 F2500
G1 X47.750 Y30.250
G1 X47.750 Y30.000
G0 Z2.000 F3000
M400
M204 P600 T600
G1 F1300
G0 X47.000 Y31.000 Z2.000
M400
M204 P200 T200
G1 F600
G1 Z0.000 F2500
G1 X46.750 Y31.000
G1 X46.500 Y31.250
G0 Z2.000 F3000
M400
M204 P600 T600
G1 F1300
G0 X46.750 Y34.500 Z2.000
M400
M204 P200 T200
G1 F600
G1 Z0.000 F2500
G1 X47.000 Y34.500
G0 Z2.000 F3000
M400
M204 P600 T600
G1 F1300
G0 X43.750 Y37.500 Z2.000
M400
M204 P200 T200
G1 F600
G1 Z0.000 F2500
G1 X43.500 Y37.750
G1 X43.500 Y38.000
G1 X43.250 Y38.250
G1 X43.000 Y38.250
G1 X43.000 Y38.500
G0 Z2.000 F3000
M400
M204 P600 T600
G1 F1300
G0 X43.250 Y41.750 Z2.000
M400
M204 P200 T200
G1 F600
G1 Z0.000 F2500
G1 X43.000 Y41.750
G1 X43.000 Y42.000
G1 X42.750 Y42.250
G0 Z2.000 F3000
M400
M204 P600 T600
G1 F1300
G0 X52.250 Y43.250 Z2.000
M400
M204 P200 T200
G1 F600
G1 Z0.000 F2500
G1 X52.500 Y43.000
G1 X52.500 Y43.000
G0 Z2.000 F3000
M400
M204 P600 T600
G1 F1300
G0 X54.250 Y41.250 Z2.000
M400
M204 P200 T200
G1 F600
G1 Z0.000 F2500
G1 X54.250 Y41.250
G0 Z2.000 F3000
M400
M204 P600 T600
G1 F1300
G0 X55.000 Y40.500 Z2.000
M400
M204 P200 T200
G1 F600
G1 Z0.000 F2500
G1 X55.000 Y40.500
G1 X55.250 Y40.250
G1 X55.500 Y40.000
G1 X55.500 Y40.000
G1 X55.750 Y39.750
G0 Z2.000 F3000
M400
M204 P600 T600
G1 F1300
G0 X59.250 Y43.250 Z2.000
M400
M204 P200 T200
G1 F600
G1 Z0.000 F2500
G1 X59.500 Y43.000
G1 X59.750 Y43.000
G1 X59.750 Y42.750
G1 X60.000 Y42.500
G0 Z2.000 F3000
M400
M204 P600 T600
G1 F1300
G0 X61.500 Y41.000 Z2.000
M400
M204 P200 T200
G1 F600
G1 Z0.000 F2500
G1 X61.750 Y40.750
G1 X62.000 Y40.500
G1 X62.250 Y40.500
G1 X62.250 Y40.250
G1 X62.500 Y40.000
G1 X62.750 Y40.000
G1 X62.750 Y39.750
G1 X63.000 Y39.500
G1 X63.250 Y39.500
G0 Z2.000 F3000
M400
M204 P600 T600
G1 F1300
G0 X66.000 Y40.000 Z2.000
M400
M204 P200 T200
G1 F600
G1 Z0.000 F2500
G1 X66.250 Y40.000
G1 X66.500 Y39.750
G1 X66.500 Y39.500
G1 X66.750 Y39.500
G1 X67.000 Y39.250
G1 X67.000 Y39.000
G1 X67.250 Y38.750
G1 X67.500 Y38.750
G1 X67.750 Y38.500
G1 X67.750 Y38.250
G1 X68.000 Y38.250
G0 Z2.000 F3000
M400
M204 P600 T600
G1 F1300
G0 X68.750 Y37.500 Z2.000
M400
M204 P200 T200
G1 F600
G1 Z0.000 F2500
G1 X68.750 Y37.250
G0 Z2.000 F3000
M400
M204 P600 T600
G1 F1300
G0 X69.750 Y36.500 Z2.000
M400
M204 P200 T200
G1 F600
G1 Z0.000 F2500
G1 X70.000 Y36.250
G0 Z2.000 F3000
M400
M204 P600 T600
G1 F1300
G0 X70.000 Y32.500 Z2.000
M400
M204 P200 T200
G1 F600
G1 Z0.000 F2500
G1 X70.250 Y32.250
G1 X70.500 Y32.250
G1 X70.750 Y32.000
G0 Z2.000 F3000
M400
M204 P600 T600
G1 F1300
G0 X74.250 Y31.750 Z2.000
M400
M204 P200 T200
G1 F600
G1 Z0.000 F2500
G1 X74.500 Y31.500
G0 Z2.000 F3000
M400
M204 P600 T600
G1 F1300
G0 X77.250 Y32.250 Z2.000
M400
M204 P200 T200
G1 F600
G1 Z0.000 F2500
G1 X77.500 Y32.250
G1 X77.750 Y32.000
G1 X78.000 Y31.750
G1 X78.000 Y31.500
G1 X78.250 Y31.500
G0 Z2.000 F3000
M400
M204 P600 T600
G1 F1300
G0 X82.750 Y34.000 Z2.000
M400
M204 P200 T200
G1 F600
G1 Z0.000 F2500
G1 X82.750 Y34.000
G1 X83.000 Y33.750
G0 Z2.000 F3000
M400
M204 P600 T600
G1 F1300
G0 X85.250 Y31.500 Z2.000
M400
M204 P200 T200
G1 F600
G1 Z0.000 F2500
G1 X85.250 Y31.500
G1 X85.500 Y31.250
G0 Z2.000 F3000
M400
M204 P600 T600
G1 F1300
G0 X89.750 Y34.000 Z2.000
M400
M204 P200 T200
G1 F600
G1 Z0.000 F2500
G1 X90.000 Y34.000
G1 X90.000 Y33.750
G0 Z2.000 F3000
M400
M204 P600 T600
G1 F1300
G0 X91.750 Y35.500 Z2.000
M400
M204 P200 T200
G1 F600
G1 Z0.000 F2500
G1 X92.000 Y35.250
G0 Z2.000 F3000
M400
M204 P600 T600
G1 F1300
G0 X92.500 Y35.000 Z2.000
M400
M204 P200 T200
G1 F600
G1 Z0.000 F2500
G1 X92.500 Y34.750
G1 X92.750 Y34.500
G0 Z2.000 F3000
M400
M204 P600 T600
G1 F1300
G0 X93.000 Y34.250 Z2.000
M400
M204 P200 T200
G1 F600
G1 Z0.000 F2500
G1 X93.250 Y34.000
G1 X93.500 Y34.000
G0 Z2.000 F3000
M400
M204 P600 T600
G1 F1300
G0 X93.750 Y33.500 Z2.000
M400
M204 P200 T200
G1 F600
G1 Z0.000 F2500
G1 X94.000 Y33.250
G0 Z2.000 F3000
M400
M204 P600 T600
G1 F1300
G0 X94.500 Y32.750 Z2.000
M400
M204 P200 T200
G1 F600
G1 Z0.000 F2500
G1 X94.750 Y32.750
G1 X94.750 Y32.500
G1 X95.000 Y32.250
G1 X95.250 Y32.250
G1 X95.500 Y32.000
G1 X95.500 Y31.750
G0 Z2.000 F3000
M400
M204 P600 T600
G1 F1300
G0 X98.000 Y32.750 Z2.000
M400
M204 P200 T200
G1 F600
G1 Z0.000 F2500
G1 X98.250 Y32.750
G0 Z2.000 F3000
M400
M204 P600 T600
G1 F1300
G0 X97.250 Y33.500 Z2.000
M400
M204 P200 T200
G1 F600
G1 Z0.000 F2500
G1 X97.250 Y33.750
G1 X97.000 Y34.000
G1 X96.750 Y34.000
G1 X96.500 Y34.250
G1 X96.500 Y34.500
G0 Z2.000 F3000
M400
M204 P600 T600
G1 F1300
G0 X95.250 Y35.750 Z2.000
M400
M204 P200 T200
G1 F600
G1 Z0.000 F2500
G1 X95.000 Y35.750
G0 Z2.000 F3000
M400
M204 P600 T600
G1 F1300
G0 X94.750 Y36.250 Z2.000
M400
M204 P200 T200
G1 F600
G1 Z0.000 F2500
G1 X94.500 Y36.500
G1 X94.250 Y36.500
G0 Z2.000 F3000
M400
M204 P600 T600
G1 F1300
G0 X96.000 Y38.250 Z2.000
M400
M204 P200 T200
G1 F600
G1 Z0.000 F2500
G1 X96.250 Y38.250
G1 X96.500 Y38.000
G1 X96.500 Y37.750
G1 X96.750 Y37.500
G1 X97.000 Y37.500
G1 X97.250 Y37.250
G1 X97.250 Y37.000
G1 X97.500 Y37.000
G1 X97.750 Y36.750
G1 X97.750 Y36.500
G1 X98.000 Y36.500
G1 X98.250 Y36.250
G1 X98.500 Y36.000
G1 X98.500 Y35.750
G1 X98.750 Y35.750
G1 X99.000 Y35.500
G0 Z2.000 F3000
M400
M204 P600 T600
G1 F1300
G0 X100.000 Y38.000 Z2.000
M400
M204 P200 T200
G1 F600
G1 Z0.000 F2500
G1 X99.750 Y38.250
G1 X99.500 Y38.250
G0 Z2.000 F3000
M400
M204 P600 T600
G1 F1300
G0 X102.750 Y38.750 Z2.000
M400
M204 P200 T200
G1 F600
G1 Z0.000 F2500
G1 X102.750 Y38.750
G0 Z2.000 F3000
M400
M204 P600 T600
G1 F1300
G0 X103.750 Y37.750 Z2.000
M400
M204 P200 T200
G1 F600
G1 Z0.000 F2500
G1 X103.750 Y37.500
G1 X104.000 Y37.500
G1 X104.250 Y37.250
G1 X104.500 Y37.000
G1 X104.500 Y37.000
G1 X104.750 Y36.750
G1 X105.000 Y36.500
G1 X105.000 Y36.500
G1 X105.250 Y36.250
G1 X105.500 Y36.000
G1 X105.750 Y35.750
G1 X105.750 Y35.750
G1 X106.000 Y35.500
G1 X106.250 Y35.250
G1 X106.250 Y35.250
G0 Z2.000 F3000
M400
M204 P600 T600
G1 F1300
G0 X107.750 Y37.250 Z2.000
M400
M204 P200 T200
G1 F600
G1 Z0.000 F2500
G1 X108.000 Y37.000
G1 X108.000 Y37.000
G1 X108.250 Y36.750
G0 Z2.000 F3000
M400
M204 P600 T600
G1 F1300
G0 X108.750 Y36.250 Z2.000
M400
M204 P200 T200
G1 F600
G1 Z0.000 F2500
G1 X109.000 Y36.000
G1 X109.250 Y35.750
G1 X109.250 Y35.750
G1 X109.500 Y35.500
G1 X109.750 Y35.250
G0 Z2.000 F3000
M400
M204 P600 T600
G1 F1300
G0 X111.500 Y37.000 Z2.000
M400
M204 P200 T200
G1 F600
G1 Z0.000 F2500
G1 X111.750 Y37.000
G0 Z2.000 F3000
M400
M204 P600 T600
G1 F1300
G0 X112.000 Y36.500 Z2.000
M400
M204 P200 T200
G1 F600
G1 Z0.000 F2500
G1 X112.250 Y36.500
G1 X112.250 Y36.250
G1 X112.500 Y36.000
G0 Z2.000 F3000
M400
M204 P600 T600
G1 F1300
G0 X113.250 Y38.750 Z2.000
M400
M204 P200 T200
G1 F600
G1 Z0.000 F2500
G1 X113.000 Y39.000
G1 X113.000 Y39.250
G0 Z2.000 F3000
M400
M204 P600 T600
G1 F1300
G0 X113.750 Y41.750 Z2.000
M400
M204 P200 T200
G1 F600
G1 Z0.000 F2500
G1 X113.500 Y42.000
G0 Z2.000 F3000
M400
M204 P600 T600
G1 F1300
G0 X113.000 Y42.500 Z2.000
M400
M204 P200 T200
G1 F600
G1 Z0.000 F2500
G1 X113.000 Y42.750
G0 Z2.000 F3000
M400
M204 P600 T600
G1 F1300
G0 X112.000 Y43.750 Z2.000
M400
M204 P200 T200
G1 F600
G1 Z0.000 F2500
G1 X111.750 Y43.750
G1 X111.750 Y44.000
G1 X111.500 Y44.250
G1 X111.250 Y44.250
G0 Z2.000 F3000
M400
M204 P600 T600
G1 F1300
G0 X110.750 Y44.750 Z2.000
M400
M204 P200 T200
G1 F600
G1 Z0.000 F2500
G1 X110.500 Y45.000
G0 Z2.000 F3000
M400
M204 P600 T600
G1 F1300
G0 X110.000 Y45.500 Z2.000
M400
M204 P200 T200
G1 F600
G1 Z0.000 F2500
G1 X110.000 Y45.750
G0 Z2.000 F3000
M400
M204 P600 T600
G1 F1300
G0 X109.250 Y46.250 Z2.000
M400
M204 P200 T200
G1 F600
G1 Z0.000 F2500
G1 X109.250 Y46.500
G1 X109.000 Y46.750
G1 X108.750 Y46.750
G1 X108.750 Y47.000
G1 X108.500 Y47.250
G0 Z2.000 F3000
M400
M204 P600 T600
G1 F1300
G0 X107.750 Y44.250 Z2.000
M400
M204 P200 T200
G1 F600
G1 Z0.000 F2500
G1 X108.000 Y44.250
G1 X108.000 Y44.000
G1 X108.250 Y43.750
G0 Z2.000 F3000
M400
M204 P600 T600
G1 F1300
G0 X108.750 Y43.500 Z2.000
M400
M204 P200 T200
G1 F600
G1 Z0.000 F2500
G1 X108.750 Y43.250
G1 X109.000 Y43.000
G1 X109.250 Y43.000
G1 X109.250 Y42.750
G1 X109.500 Y42.500
G1 X109.750 Y42.500
G1 X110.000 Y42.250
G1 X110.000 Y42.000
G1 X110.250 Y41.750
G0 Z2.000 F3000
M400
M204 P600 T600
G1 F1300
G0 X109.750 Y38.750 Z2.000
M400
M204 P200 T200
G1 F600
G1 Z0.000 F2500
G1 X110.000 Y38.750
G1 X110.000 Y38.500
G1 X110.250 Y38.250
G1 X110.500 Y38.250
G1 X110.500 Y38.000
G1 X110.750 Y37.750
G0 Z2.000 F3000
M400
M204 P600 T600
G1 F1300
G0 X116.750 Y38.750 Z2.000
M400
M204 P200 T200
G1 F600
G1 Z0.000 F2500
G1 X117.000 Y38.750
G0 Z2.000 F3000
M400
M204 P600 T600
G1 F1300
G0 X118.500 Y37.000 Z2.000
M400
M204 P200 T200
G1 F600
G1 Z0.000 F2500
G1 X118.750 Y37.000
G0 Z2.000 F3000
M400
M204 P600 T600
G1 F1300
G0 X121.250 Y38.000 Z2.000
M400
M204 P200 T200
G1 F600
G1 Z0.000 F2500
G1 X121.250 Y37.750
G1 X121.500 Y37.500
G1 X121.750 Y37.500
G1 X122.000 Y37.250
G1 X122.000 Y37.000
G0 Z2.000 F3000
M400
M204 P600 T600
G1 F1300
G0 X122.500 Y36.500 Z2.000
M400
M204 P200 T200
G1 F600
G1 Z0.000 F2500
G1 X122.750 Y36.500
G0 Z2.000 F3000
M400
M204 P600 T600
G1 F1300
G0 X125.000 Y34.000 Z2.000
M400
M204 P200 T200
G1 F600
G1 Z0.000 F2500
G1 X125.250 Y34.000
G0 Z2.000 F3000
M400
M204 P600 T600
G1 F1300
G0 X123.500 Y32.250 Z2.000
M400
M204 P200 T200
G1 F600
G1 Z0.000 F2500
G1 X123.750 Y32.000
G1 X123.750 Y31.750
G0 Z2.000 F3000
M400
M204 P600 T600
G1 F1300
G0 X128.500 Y34.000 Z2.000
M400
M204 P200 T200
G1 F600
G1 Z0.000 F2500
G1 X128.500 Y34.250
G0 Z2.000 F3000
M400
M204 P600 T600
G1 F1300
G0 X130.250 Y36.000 Z2.000
M400
M204 P200 T200
G1 F600
G1 Z0.000 F2500
G1 X130.000 Y36.250
G0 Z2.000 F3000
M400
M204 P600 T600
G1 F1300
G0 X132.250 Y34.000 Z2.000
M400
M204 P200 T200
G1 F600
G1 Z0.000 F2500
G1 X132.250 Y34.000
G0 Z2.000 F3000
M400
M204 P600 T600
G1 F1300
G0 X135.750 Y30.500 Z2.000
M400
M204 P200 T200
G1 F600
G1 Z0.000 F2500
G1 X135.750 Y30.250
G1 X136.000 Y30.250
G0 Z2.000 F3000
M400
M204 P600 T600
G1 F1300
G0 X139.750 Y33.500 Z2.000
M400
M204 P200 T200
G1 F600
G1 Z0.000 F2500
G1 X140.000 Y33.250
G1 X140.000 Y33.250
G0 Z2.000 F3000
M400
M204 P600 T600
G1 F1300
G0 X141.250 Y35.500 Z2.000
M400
M204 P200 T200
G1 F600
G1 Z0.000 F2500
G1 X141.250 Y35.750
G0 Z2.000 F3000
M400
M204 P600 T600
G1 F1300
G0 X140.500 Y36.500 Z2.000
M400
M204 P200 T200
G1 F600
G1 Z0.000 F2500
G1 X140.250 Y36.500
G0 Z2.000 F3000
M400
M204 P600 T600
G1 F1300
G0 X143.250 Y33.500 Z2.000
M400
M204 P200 T200
G1 F600
G1 Z0.000 F2500
G1 X143.500 Y33.250
G1 X143.750 Y33.250
G1 X143.750 Y33.000
G0 Z2.000 F3000
M400
M204 P600 T600
G1 F1300
G0 X147.250 Y33.250 Z2.000
M400
M204 P200 T200
G1 F600
G1 Z0.000 F2500
G1 X147.250 Y33.000
G1 X147.500 Y32.750
G1 X147.750 Y32.750
G1 X148.000 Y32.500
G0 Z2.000 F3000
M400
M204 P600 T600
G1 F1300
G0 X148.500 Y32.000 Z2.000
M400
M204 P200 T200
G1 F600
G1 Z0.000 F2500
G1 X148.500 Y31.750
G1 X148.750 Y31.500
G1 X149.000 Y31.500
G0 Z2.000 F3000
M400
M204 P600 T600
G1 F1300
G0 X149.750 Y30.750 Z2.000
M400
M204 P200 T200
G1 F600
G1 Z0.000 F2500
G1 X149.750 Y30.500
G0 Z2.000 F3000
M400
M204 P600 T600
G1 F1300
G0 X148.000 Y29.000 Z2.000
M400
M204 P200 T200
G1 F600
G1 Z0.000 F2500
G1 X147.750 Y29.250
G1 X147.500 Y29.250
G0 Z2.000 F3000
M400
M204 P600 T600
G1 F1300
G0 X147.250 Y29.750 Z2.000
M400
M204 P200 T200
G1 F600
G1 Z0.000 F2500
G1 X147.000 Y29.750
G0 Z2.000 F3000
M400
M204 P600 T600
G1 F1300
G0 X149.750 Y34.000 Z2.000
M400
M204 P200 T200
G1 F600
G1 Z0.000 F2500
G1 X149.750 Y34.250
G1 X149.500 Y34.500
G1 X149.250 Y34.500
G1 X149.000 Y34.750
G1 X149.000 Y35.000
G1 X148.750 Y35.250
G1 X148.500 Y35.250
G1 X148.500 Y35.500
G0 Z2.000 F3000
M400
M204 P600 T600
G1 F1300
G0 X147.000 Y37.000 Z2.000
M400
M204 P200 T200
G1 F600
G1 Z0.000 F2500
G1 X146.750 Y37.000
G0 Z2.000 F3000
M400
M204 P600 T600
G1 F1300
G0 X146.250 Y37.500 Z2.000
M400
M204 P200 T200
G1 F600
G1 Z0.000 F2500
G1 X146.000 Y37.750
G1 X146.000 Y38.000
G0 Z2.000 F3000
M400
M204 P600 T600
G1 F1300
G0 X147.750 Y39.750 Z2.000
M400
M204 P200 T200
G1 F600
G1 Z0.000 F2500
G1 X148.000 Y39.500
G1 X148.000 Y39.500
G1 X148.250 Y39.250
G0 Z2.000 F3000
M400
M204 P600 T600
G1 F1300
G0 X143.750 Y40.250 Z2.000
M400
M204 P200 T200
G1 F600
G1 Z0.000 F2500
G1 X143.500 Y40.500
G0 Z2.000 F3000
M400
M204 P600 T600
G1 F1300
G0 X143.000 Y40.750 Z2.000
M400
M204 P200 T200
G1 F600
G1 Z0.000 F2500
G1 X143.000 Y41.000
G0 Z2.000 F3000
M400
M204 P600 T600
G1 F1300
G0 X141.500 Y46.000 Z2.000
M400
M204 P200 T200
G1 F600
G1 Z0.000 F2500
G1 X141.250 Y46.000
G1 X141.250 Y46.250
G0 Z2.000 F3000
M400
M204 P600 T600
G1 F1300
G0 X140.750 Y46.750 Z2.000
M400
M204 P200 T200
G1 F600
G1 Z0.000 F2500
G1 X140.750 Y46.750
G0 Z2.000 F3000
M400
M204 P600 T600
G1 F1300
G0 X143.750 Y47.250 Z2.000
M400
M204 P200 T200
G1 F600
G1 Z0.000 F2500
G1 X143.750 Y47.250
G1 X144.000 Y47.000
G1 X144.250 Y46.750
G1 X144.250 Y46.750
G1 X144.500 Y46.500
G1 X144.750 Y46.250
G1 X145.000 Y46.000
G1 X145.000 Y46.000
G0 Z2.000 F3000
M400
M204 P600 T600
G1 F1300
G0 X145.750 Y48.750 Z2.000
M400
M204 P200 T200
G1 F600
G1 Z0.000 F2500
G1 X145.500 Y49.000
G1 X145.500 Y49.000
G0 Z2.000 F3000
M400
M204 P600 T600
G1 F1300
G0 X148.000 Y50.000 Z2.000
M400
M204 P200 T200
G1 F600
G1 Z0.000 F2500
G1 X148.250 Y49.750
G0 Z2.000 F3000
M400
M204 P600 T600
G1 F1300
G0 X147.000 Y51.000 Z2.000
M400
M204 P200 T200
G1 F600
G1 Z0.000 F2500
G1 X146.750 Y51.250
G1 X146.750 Y51.500
G1 X146.500 Y51.500
G1 X146.250 Y51.750
G0 Z2.000 F3000
M400
M204 P600 T600
G1 F1300
G0 X148.750 Y52.750 Z2.000
M400
M204 P200 T200
G1 F600
G1 Z0.000 F2500
G1 X149.000 Y52.750
G1 X149.000 Y52.500
G1 X149.250 Y52.250
G1 X149.500 Y52.000
G0 Z2.000 F3000
M400
M204 P600 T600
G1 F1300
G0 X147.750 Y54.000 Z2.000
M400
M204 P200 T200
G1 F600
G1 Z0.000 F2500
G1 X147.500 Y54.000
G1 X147.250 Y54.250
G1 X147.250 Y54.500
G1 X147.000 Y54.500
G0 Z2.000 F3000
M400
M204 P600 T600
G1 F1300
G0 X146.000 Y55.750 Z2.000
M400
M204 P200 T200
G1 F600
G1 Z0.000 F2500
G1 X145.750 Y55.750
G0 Z2.000 F3000
M400
M204 P600 T600
G1 F1300
G0 X143.750 Y54.500 Z2.000
M400
M204 P200 T200
G1 F600
G1 Z0.000 F2500
G1 X143.750 Y54.250
G1 X144.000 Y54.000
G1 X144.250 Y54.000
G1 X144.250 Y53.750
G1 X144.500 Y53.500
G1 X144.750 Y53.250
G1 X145.000 Y53.250
G1 X145.000 Y53.000
G1 X145.250 Y52.750
G1 X145.500 Y52.750
G1 X145.500 Y52.500
G0 Z2.000 F3000
M400
M204 P600 T600
G1 F1300
G0 X142.750 Y51.750 Z2.000
M400
M204 P200 T200
G1 F600
G1 Z0.000 F2500
G1 X142.500 Y52.000
G1 X142.500 Y52.000
G1 X142.250 Y52.250
G0 Z2.000 F3000
M400
M204 P600 T600
G1 F1300
G0 X140.750 Y50.250 Z2.000
M400
M204 P200 T200
G1 F600
G1 Z0.000 F2500
G1 X140.750 Y50.250
G0 Z2.000 F3000
M400
M204 P600 T600
G1 F1300
G0 X140.000 Y50.750 Z2.000
M400
M204 P200 T200
G1 F600
G1 Z0.000 F2500
G1 X140.000 Y51.000
G0 Z2.000 F3000
M400
M204 P600 T600
G1 F1300
G0 X137.750 Y53.250 Z2.000
M400
M204 P200 T200
G1 F600
G1 Z0.000 F2500
G1 X137.750 Y53.250
G0 Z2.000 F3000
M400
M204 P600 T600
G1 F1300
G0 X139.500 Y55.000 Z2.000
M400
M204 P200 T200
G1 F600
G1 Z0.000 F2500
G1 X139.500 Y55.000
G1 X139.250 Y55.250
G0 Z2.000 F3000
M400
M204 P600 T600
G1 F1300
G0 X138.750 Y55.750 Z2.000
M400
M204 P200 T200
G1 F600
G1 Z0.000 F2500
G1 X138.750 Y55.750
G0 Z2.000 F3000
M400
M204 P600 T600
G1 F1300
G0 X135.500 Y55.500 Z2.000
M400
M204 P200 T200
G1 F600
G1 Z0.000 F2500
G1 X135.250 Y55.750
G1 X135.250 Y55.750
G1 X135.000 Y56.000
G0 Z2.000 F3000
M400
M204 P600 T600
G1 F1300
G0 X142.000 Y59.500 Z2.000
M400
M204 P200 T200
G1 F600
G1 Z0.000 F2500
G1 X142.250 Y59.250
G0 Z2.000 F3000
M400
M204 P600 T600
G1 F1300
G0 X132.000 Y48.500 Z2.000
M400
M204 P200 T200
G1 F600
G1 Z0.000 F2500
G1 X132.250 Y48.250
G0 Z2.000 F3000
M400
M204 P600 T600
G1 F1300
G0 X132.500 Y47.750 Z2.000
M400
M204 P200 T200
G1 F600
G1 Z0.000 F2500
G1 X132.750 Y47.750
G0 Z2.000 F3000
M400
M204 P600 T600
G1 F1300
G0 X133.000 Y47.250 Z2.000
M400
M204 P200 T200
G1 F600
G1 Z0.000 F2500
G1 X133.250 Y47.250
G1 X133.500 Y47.000
G0 Z2.000 F3000
M400
M204 P600 T600
G1 F1300
G0 X134.250 Y46.000 Z2.000
M400
M204 P200 T200
G1 F600
G1 Z0.000 F2500
G1 X134.500 Y46.000
G1 X134.750 Y45.750
G1 X134.750 Y45.500
G1 X135.000 Y45.500
G0 Z2.000 F3000
M400
M204 P600 T600
G1 F1300
G0 X131.750 Y45.000 Z2.000
M400
M204 P200 T200
G1 F600
G1 Z0.000 F2500
G1 X131.500 Y45.250
G1 X131.500 Y45.500
G0 Z2.000 F3000
M400
M204 P600 T600
G1 F1300
G0 X130.750 Y46.000 Z2.000
M400
M204 P200 T200
G1 F600
G1 Z0.000 F2500
G1 X130.500 Y46.250
G1 X130.500 Y46.500
G1 X130.250 Y46.750
G0 Z2.000 F3000

; --- CIKEL NAMAKANJA ---
G0 Z2.000 F3000
M400
M204 P600 T600
G1 F1300
G0 X60.661 Y4.987 Z8.000
G1 Z1.000 F3000
G1 X60.661 Y4.987 F2500
G1 X60.661 Y6.737 F2500
G1 X57.161 Y4.987 F2500
G1 X60.661 Y0.000 F2500
G0 Z3.000 F3000
G0 X75.704 Y10.999
G0 Z8.000 F3000
G0 X130.000 Y46.750 Z2.000
M400
M204 P200 T200
G1 F600
G1 Z0.000 F2500
G1 X130.000 Y46.750
G1 X129.750 Y47.000
G1 X129.750 Y47.250
G1 X129.500 Y47.250
G0 Z2.000 F3000
M400
M204 P600 T600
G1 F1300
G0 X129.000 Y47.750 Z2.000
M400
M204 P200 T200
G1 F600
G1 Z0.000 F2500
G1 X128.750 Y48.000
G1 X128.500 Y48.250
G1 X128.500 Y48.500
G1 X128.250 Y48.500
G0 Z2.000 F3000
M400
M204 P600 T600
G1 F1300
G0 X126.750 Y46.750 Z2.000
M400
M204 P200 T200
G1 F600
G1 Z0.000 F2500
G1 X126.750 Y46.500
G1 X127.000 Y46.250
G1 X127.250 Y46.000
G1 X127.500 Y46.000
G1 X127.500 Y45.750
G1 X127.750 Y45.500
G1 X128.000 Y45.500
G0 Z2.000 F3000
M400
M204 P600 T600
G1 F1300
G0 X126.250 Y47.000 Z2.000
M400
M204 P200 T200
G1 F600
G1 Z0.000 F2500
G1 X126.250 Y47.250
G1 X126.000 Y47.250
G1 X125.750 Y47.500
G1 X125.500 Y47.750
G1 X125.500 Y47.750
G1 X125.250 Y48.000
G1 X125.000 Y48.250
G1 X125.000 Y48.500
G0 Z2.000 F3000
M400
M204 P600 T600
G1 F1300
G0 X127.000 Y49.750 Z2.000
M400
M204 P200 T200
G1 F600
G1 Z0.000 F2500
G1 X127.250 Y49.750
G1 X127.500 Y49.500
G1 X127.500 Y49.250
G1 X127.750 Y49.000
G1 X128.000 Y49.000
G0 Z2.000 F3000
M400
M204 P600 T600
G1 F1300
G0 X129.500 Y50.750 Z2.000
M400
M204 P200 T200
G1 F600
G1 Z0.000 F2500
G1 X129.750 Y50.750
G1 X129.750 Y50.500
G1 X130.000 Y50.250
G1 X130.250 Y50.250
G1 X130.500 Y50.000
G0 Z2.000 F3000
M400
M204 P600 T600
G1 F1300
G0 X126.250 Y50.500 Z2.000
M400
M204 P200 T200
G1 F600
G1 Z0.000 F2500
G1 X126.250 Y50.750
G0 Z2.000 F3000
M400
M204 P600 T600
G1 F1300
G0 X125.750 Y51.000 Z2.000
M400
M204 P200 T200
G1 F600
G1 Z0.000 F2500
G1 X125.500 Y51.250
G0 Z2.000 F3000
M400
M204 P600 T600
G1 F1300
G0 X123.750 Y49.500 Z2.000
M400
M204 P200 T200
G1 F600
G1 Z0.000 F2500
G1 X124.000 Y49.250
G1 X124.250 Y49.000
G1 X124.250 Y49.000
G0 Z2.000 F3000
M400
M204 P600 T600
G1 F1300
G0 X122.500 Y47.250 Z2.000
M400
M204 P200 T200
G1 F600
G1 Z0.000 F2500
G1 X122.500 Y47.250
G1 X122.750 Y47.000
G0 Z2.000 F3000
M400
M204 P600 T600
G1 F1300
G0 X123.500 Y46.250 Z2.000
M400
M204 P200 T200
G1 F600
G1 Z0.000 F2500
G1 X123.750 Y46.000
G1 X123.750 Y46.000
G1 X124.000 Y45.750
G1 X124.250 Y45.500
G1 X124.250 Y45.500
G0 Z2.000 F3000
M400
M204 P600 T600
G1 F1300
G0 X122.250 Y44.000 Z2.000
M400
M204 P200 T200
G1 F600
G1 Z0.000 F2500
G1 X122.000 Y44.250
G1 X122.000 Y44.250
G1 X121.750 Y44.500
G1 X121.500 Y44.750
G0 Z2.000 F3000
M400
M204 P600 T600
G1 F1300
G0 X119.000 Y43.750 Z2.000
M400
M204 P200 T200
G1 F600
G1 Z0.000 F2500
G1 X119.000 Y43.750
G0 Z2.000 F3000
M400
M204 P600 T600
G1 F1300
G0 X118.500 Y44.250 Z2.000
M400
M204 P200 T200
G1 F600
G1 Z0.000 F2500
G1 X118.250 Y44.250
G1 X118.250 Y44.500
G0 Z2.000 F3000
M400
M204 P600 T600
G1 F1300
G0 X114.250 Y48.500 Z2.000
M400
M204 P200 T200
G1 F600
G1 Z0.000 F2500
G1 X114.000 Y48.500
G1 X114.000 Y48.750
G0 Z2.000 F3000
M400
M204 P600 T600
G1 F1300
G0 X116.000 Y50.250 Z2.000
M400
M204 P200 T200
G1 F600
G1 Z0.000 F2500
G1 X116.000 Y50.250
G1 X116.250 Y50.000
G0 Z2.000 F3000
M400
M204 P600 T600
G1 F1300
G0 X119.000 Y50.750 Z2.000
M400
M204 P200 T200
G1 F600
G1 Z0.000 F2500
G1 X119.000 Y50.750
G0 Z2.000 F3000
M400
M204 P600 T600
G1 F1300
G0 X114.250 Y52.000 Z2.000
M400
M204 P200 T200
G1 F600
G1 Z0.000 F2500
G1 X114.000 Y52.000
G1 X114.000 Y52.250
G0 Z2.000 F3000
M400
M204 P600 T600
G1 F1300
G0 X110.750 Y48.500 Z2.000
M400
M204 P200 T200
G1 F600
G1 Z0.000 F2500
G1 X110.500 Y48.500
G0 Z2.000 F3000
M400
M204 P600 T600
G1 F1300
G0 X109.750 Y49.500 Z2.000
M400
M204 P200 T200
G1 F600
G1 Z0.000 F2500
G1 X109.500 Y49.750
G0 Z2.000 F3000
M400
M204 P600 T600
G1 F1300
G0 X107.750 Y47.750 Z2.000
M400
M204 P200 T200
G1 F600
G1 Z0.000 F2500
G1 X107.500 Y48.000
G1 X107.500 Y48.250
G1 X107.250 Y48.500
G1 X107.000 Y48.500
G0 Z2.000 F3000
M400
M204 P600 T600
G1 F1300
G0 X105.750 Y46.250 Z2.000
M400
M204 P200 T200
G1 F600
G1 Z0.000 F2500
G1 X106.000 Y46.000
G1 X106.250 Y46.000
G1 X106.250 Y45.750
G1 X106.500 Y45.500
G1 X106.750 Y45.500
G1 X106.750 Y45.250
G1 X107.000 Y45.000
G0 Z2.000 F3000
M400
M204 P600 T600
G1 F1300
G0 X105.500 Y43.000 Z2.000
M400
M204 P200 T200
G1 F600
G1 Z0.000 F2500
G1 X105.750 Y43.000
G1 X105.750 Y42.750
G1 X106.000 Y42.500
G1 X106.250 Y42.500
G1 X106.250 Y42.250
G0 Z2.000 F3000
M400
M204 P600 T600
G1 F1300
G0 X104.500 Y40.500 Z2.000
M400
M204 P200 T200
G1 F600
G1 Z0.000 F2500
G1 X104.500 Y40.500
G0 Z2.000 F3000
M400
M204 P600 T600
G1 F1300
G0 X104.000 Y41.000 Z2.000
M400
M204 P200 T200
G1 F600
G1 Z0.000 F2500
G1 X103.750 Y41.250
G1 X103.750 Y41.250
G1 X103.500 Y41.500
G1 X103.250 Y41.750
G1 X103.250 Y41.750
G1 X103.000 Y42.000
G0 Z2.000 F3000
M400
M204 P600 T600
G1 F1300
G0 X100.750 Y40.750 Z2.000
M400
M204 P200 T200
G1 F600
G1 Z0.000 F2500
G1 X100.500 Y41.000
G1 X100.250 Y41.250
G1 X100.250 Y41.250
G1 X100.000 Y41.500
G1 X99.750 Y41.750
G0 Z2.000 F3000
M400
M204 P600 T600
G1 F1300
G0 X105.000 Y43.500 Z2.000
M400
M204 P200 T200
G1 F600
G1 Z0.000 F2500
G1 X105.000 Y43.750
G1 X104.750 Y43.750
G1 X104.500 Y44.000
G1 X104.500 Y44.250
G1 X104.250 Y44.250
G1 X104.000 Y44.500
G1 X103.750 Y44.750
G1 X103.750 Y44.750
G1 X103.500 Y45.000
G1 X103.250 Y45.250
G1 X103.250 Y45.500
G1 X103.000 Y45.500
G1 X102.750 Y45.750
G1 X102.750 Y46.000
G1 X102.500 Y46.000
G1 X102.250 Y46.250
G1 X102.000 Y46.500
G1 X102.000 Y46.750
G1 X101.750 Y46.750
G1 X101.500 Y47.000
G1 X101.500 Y47.250
G1 X101.250 Y47.250
G1 X101.000 Y47.500
G1 X100.750 Y47.750
G1 X100.750 Y47.750
G0 Z2.000 F3000
M400
M204 P600 T600
G1 F1300
G0 X105.000 Y47.250 Z2.000
M400
M204 P200 T200
G1 F600
G1 Z0.000 F2500
G1 X105.000 Y47.000
G1 X105.250 Y46.750
G1 X105.500 Y46.750
G0 Z2.000 F3000
M400
M204 P600 T600
G1 F1300
G0 X100.750 Y51.500 Z2.000
M400
M204 P200 T200
G1 F600
G1 Z0.000 F2500
G1 X100.500 Y51.500
G0 Z2.000 F3000
M400
M204 P600 T600
G1 F1300
G0 X99.000 Y49.750 Z2.000
M400
M204 P200 T200
G1 F600
G1 Z0.000 F2500
G1 X99.000 Y49.500
G1 X99.250 Y49.250
G1 X99.500 Y49.000
G1 X99.500 Y49.000
G1 X99.750 Y48.750
G1 X100.000 Y48.500
G1 X100.250 Y48.500
G1 X100.250 Y48.250
G0 Z2.000 F3000
M400
M204 P600 T600
G1 F1300
G0 X96.750 Y48.250 Z2.000
M400
M204 P200 T200
G1 F600
G1 Z0.000 F2500
G1 X97.000 Y48.000
G1 X97.250 Y47.750
G1 X97.250 Y47.750
G1 X97.500 Y47.500
G1 X97.750 Y47.250
G1 X97.750 Y47.250
G1 X98.000 Y47.000
G1 X98.250 Y46.750
G1 X98.500 Y46.750
G1 X98.500 Y46.500
G1 X98.750 Y46.250
G1 X99.000 Y46.000
G1 X99.000 Y46.000
G1 X99.250 Y45.750
G1 X99.500 Y45.500
G1 X99.500 Y45.500
G1 X99.750 Y45.250
G1 X100.000 Y45.000
G1 X100.250 Y44.750
G1 X100.250 Y44.750
G1 X100.500 Y44.500
G1 X100.750 Y44.250
G1 X100.750 Y44.250
G1 X101.000 Y44.000
G1 X101.250 Y43.750
G1 X101.500 Y43.750
G1 X101.500 Y43.500
G1 X101.750 Y43.250
G1 X102.000 Y43.000
G1 X102.000 Y43.000
G1 X102.250 Y42.750
G1 X102.500 Y42.500
G1 X102.750 Y42.500
G0 Z2.000 F3000
M400
M204 P600 T600
G1 F1300
G0 X112.500 Y46.750 Z2.000
M400
M204 P200 T200
G1 F600
G1 Z0.000 F2500
G1 X112.750 Y46.500
G1 X113.000 Y46.250
G1 X113.000 Y46.000
G1 X113.250 Y46.000
G1 X113.500 Y45.750
G1 X113.500 Y45.500
G1 X113.750 Y45.500
G1 X114.000 Y45.250
G0 Z2.000 F3000
M400
M204 P600 T600
G1 F1300
G0 X125.250 Y41.000 Z2.000
M400
M204 P200 T200
G1 F600
G1 Z0.000 F2500
G1 X125.500 Y40.750
G0 Z2.000 F3000
M400
M204 P600 T600
G1 F1300
G0 X133.500 Y40.000 Z2.000
M400
M204 P200 T200
G1 F600
G1 Z0.000 F2500
G1 X133.500 Y39.750
G0 Z2.000 F3000
M400
M204 P600 T600
G1 F1300
G0 X136.000 Y37.250 Z2.000
M400
M204 P200 T200
G1 F600
G1 Z0.000 F2500
G1 X136.250 Y37.000
G1 X136.500 Y37.000
G0 Z2.000 F3000
M400
M204 P600 T600
G1 F1300
G0 X129.250 Y30.000 Z2.000
M400
M204 P200 T200
G1 F600
G1 Z0.000 F2500
G1 X129.000 Y30.250
G0 Z2.000 F3000
M400
M204 P600 T600
G1 F1300
G0 X128.000 Y52.500 Z2.000
M400
M204 P200 T200
G1 F600
G1 Z0.000 F2500
G1 X127.750 Y52.750
G1 X127.500 Y52.750
G1 X127.500 Y53.000
G1 X127.250 Y53.250
G0 Z2.000 F3000
M400
M204 P600 T600
G1 F1300
G0 X115.000 Y72.500 Z2.000
M400
M204 P200 T200
G1 F600
G1 Z0.000 F2500
G1 X114.750 Y72.500
G1 X114.750 Y72.750
G1 X114.500 Y73.000
G0 Z2.000 F3000
M400
M204 P600 T600
G1 F1300
G0 X113.750 Y73.750 Z2.000
M400
M204 P200 T200
G1 F600
G1 Z0.000 F2500
G1 X113.500 Y73.750
G0 Z2.000 F3000
M400
M204 P600 T600
G1 F1300
G0 X111.000 Y73.000 Z2.000
M400
M204 P200 T200
G1 F600
G1 Z0.000 F2500
G1 X110.750 Y73.250
G1 X110.500 Y73.250
G1 X110.500 Y73.500
G0 Z2.000 F3000
M400
M204 P600 T600
G1 F1300
G0 X108.250 Y72.000 Z2.000
M400
M204 P200 T200
G1 F600
G1 Z0.000 F2500
G1 X108.000 Y72.250
G1 X108.000 Y72.500
G1 X107.750 Y72.500
G1 X107.500 Y72.750
G0 Z2.000 F3000
M400
M204 P600 T600
G1 F1300
G0 X107.000 Y69.750 Z2.000
M400
M204 P200 T200
G1 F600
G1 Z0.000 F2500
G1 X107.250 Y69.500
G1 X107.500 Y69.500
G0 Z2.000 F3000
M400
M204 P600 T600
G1 F1300
G0 X105.750 Y67.750 Z2.000
M400
M204 P200 T200
G1 F600
G1 Z0.000 F2500
G1 X105.750 Y67.500
G0 Z2.000 F3000
M400
M204 P600 T600
G1 F1300
G0 X103.500 Y69.750 Z2.000
M400
M204 P200 T200
G1 F600
G1 Z0.000 F2500
G1 X103.250 Y70.000
G1 X103.250 Y70.250
G1 X103.000 Y70.250
G0 Z2.000 F3000
M400
M204 P600 T600
G1 F1300
G0 X102.750 Y70.750 Z2.000
M400
M204 P200 T200
G1 F600
G1 Z0.000 F2500
G1 X102.500 Y70.750
G1 X102.250 Y71.000
G0 Z2.000 F3000
M400
M204 P600 T600
G1 F1300
G0 X102.000 Y71.500 Z2.000
M400
M204 P200 T200
G1 F600
G1 Z0.000 F2500
G1 X101.750 Y71.500
G0 Z2.000 F3000
M400
M204 P600 T600
G1 F1300
G0 X99.250 Y70.500 Z2.000
M400
M204 P200 T200
G1 F600
G1 Z0.000 F2500
G1 X99.500 Y70.250
G1 X99.500 Y70.250
G1 X99.750 Y70.000
G1 X100.000 Y69.750
G1 X100.250 Y69.500
G1 X100.250 Y69.500
G1 X100.500 Y69.250
G1 X100.750 Y69.000
G1 X100.750 Y69.000
G1 X101.000 Y68.750
G1 X101.250 Y68.500
G1 X101.500 Y68.500
G1 X101.500 Y68.250
G1 X101.750 Y68.000
G1 X102.000 Y67.750
G1 X102.000 Y67.750
G1 X102.250 Y67.500
G1 X102.500 Y67.250
G1 X102.750 Y67.250
G1 X102.750 Y67.000
G1 X103.000 Y66.750
G1 X103.250 Y66.500
G1 X103.250 Y66.500
G1 X103.500 Y66.250
G1 X103.750 Y66.000
G1 X103.750 Y66.000
G1 X104.000 Y65.750
G1 X104.250 Y65.500
G1 X104.500 Y65.250
G1 X104.500 Y65.250
G1 X104.750 Y65.000
G1 X105.000 Y64.750
G1 X105.000 Y64.750
G1 X105.250 Y64.500
G0 Z2.000 F3000
M400
M204 P600 T600
G1 F1300
G0 X106.000 Y70.750 Z2.000
M400
M204 P200 T200
G1 F600
G1 Z0.000 F2500
G1 X105.750 Y71.000
G1 X105.750 Y71.250
G1 X105.500 Y71.500
G0 Z2.000 F3000
M400
M204 P600 T600
G1 F1300
G0 X106.250 Y77.750 Z2.000
M400
M204 P200 T200
G1 F600
G1 Z0.000 F2500
G1 X106.000 Y78.000
G1 X105.750 Y78.000
G0 Z2.000 F3000
M400
M204 P600 T600
G1 F1300
G0 X108.750 Y78.750 Z2.000
M400
M204 P200 T200
G1 F600
G1 Z0.000 F2500
G1 X108.750 Y78.750
G0 Z2.000 F3000
M400
M204 P600 T600
G1 F1300
G0 X110.500 Y80.500 Z2.000
M400
M204 P200 T200
G1 F600
G1 Z0.000 F2500
G1 X110.500 Y80.500
G0 Z2.000 F3000
M400
M204 P600 T600
G1 F1300
G0 X116.750 Y81.250 Z2.000
M400
M204 P200 T200
G1 F600
G1 Z0.000 F2500
G1 X117.000 Y81.000
G1 X117.000 Y81.000
G0 Z2.000 F3000
M400
M204 P600 T600
G1 F1300
G0 X117.750 Y76.750 Z2.000
M400
M204 P200 T200
G1 F600
G1 Z0.000 F2500
G1 X117.750 Y76.750
G0 Z2.000 F3000
M400
M204 P600 T600
G1 F1300
G0 X121.750 Y79.750 Z2.000
M400
M204 P200 T200
G1 F600
G1 Z0.000 F2500
G1 X122.000 Y79.750
G1 X122.000 Y79.500
G0 Z2.000 F3000
M400
M204 P600 T600
G1 F1300
G0 X124.750 Y80.500 Z2.000
M400
M204 P200 T200
G1 F600
G1 Z0.000 F2500
G1 X125.000 Y80.250
G1 X125.000 Y80.000
G0 Z2.000 F3000
M400
M204 P600 T600
G1 F1300
G0 X127.500 Y81.000 Z2.000
M400
M204 P200 T200
G1 F600
G1 Z0.000 F2500
G1 X127.500 Y81.250
G0 Z2.000 F3000
M400
M204 P600 T600
G1 F1300
G0 X125.500 Y86.500 Z2.000
M400
M204 P200 T200
G1 F600
G1 Z0.000 F2500
G1 X125.500 Y86.750
G1 X125.250 Y87.000
G1 X125.000 Y87.000
G0 Z2.000 F3000
M400
M204 P600 T600
G1 F1300
G0 X131.250 Y88.000 Z2.000
M400
M204 P200 T200
G1 F600
G1 Z0.000 F2500
G1 X131.500 Y87.750
G1 X131.500 Y87.750
G0 Z2.000 F3000
M400
M204 P600 T600
G1 F1300
G0 X133.250 Y93.000 Z2.000
M400
M204 P200 T200
G1 F600
G1 Z0.000 F2500
G1 X133.000 Y93.250
G0 Z2.000 F3000
M400
M204 P600 T600
G1 F1300
G0 X143.000 Y93.750 Z2.000
M400
M204 P200 T200
G1 F600
G1 Z0.000 F2500
G1 X143.000 Y94.000
G0 Z2.000 F3000
M400
M204 P600 T600
G1 F1300
G0 X145.000 Y95.500 Z2.000
M400
M204 P200 T200
G1 F600
G1 Z0.000 F2500
G1 X145.000 Y95.500
G1 X145.250 Y95.250
G0 Z2.000 F3000
M400
M204 P600 T600
G1 F1300
G0 X127.250 Y109.750 Z2.000
M400
M204 P200 T200
G1 F600
G1 Z0.000 F2500
G1 X127.000 Y110.000
G0 Z2.000 F3000
M400
M204 P600 T600
G1 F1300
G0 X120.250 Y102.750 Z2.000
M400
M204 P200 T200
G1 F600
G1 Z0.000 F2500
G1 X120.000 Y102.750
G1 X119.750 Y103.000
G0 Z2.000 F3000
M400
M204 P600 T600
G1 F1300
G0 X119.500 Y103.500 Z2.000
M400
M204 P200 T200
G1 F600
G1 Z0.000 F2500
G1 X119.250 Y103.500
G0 Z2.000 F3000
M400
M204 P600 T600
G1 F1300
G0 X117.750 Y105.250 Z2.000
M400
M204 P200 T200
G1 F600
G1 Z0.000 F2500
G1 X117.500 Y105.250
G0 Z2.000 F3000
M400
M204 P600 T600
G1 F1300
G0 X104.000 Y104.500 Z2.000
M400
M204 P200 T200
G1 F600
G1 Z0.000 F2500
G1 X103.750 Y104.750
G1 X103.750 Y105.000
G1 X103.500 Y105.250
G0 Z2.000 F3000
M400
M204 P600 T600
G1 F1300
G0 X101.500 Y103.750 Z2.000
M400
M204 P200 T200
G1 F600
G1 Z0.000 F2500
G1 X101.500 Y103.500
G1 X101.750 Y103.500
G1 X102.000 Y103.250
G1 X102.000 Y103.000
G1 X102.250 Y102.750
G0 Z2.000 F3000
M400
M204 P600 T600
G1 F1300
G0 X103.500 Y101.500 Z2.000
M400
M204 P200 T200
G1 F600
G1 Z0.000 F2500
G1 X103.750 Y101.500
G1 X103.750 Y101.250
G1 X104.000 Y101.000
G1 X104.250 Y101.000
G0 Z2.000 F3000
M400
M204 P600 T600
G1 F1300
G0 X102.500 Y99.250 Z2.000
M400
M204 P200 T200
G1 F600
G1 Z0.000 F2500
G1 X102.750 Y99.000
G1 X102.750 Y98.750
G1 X103.000 Y98.500
G0 Z2.000 F3000
M400
M204 P600 T600
G1 F1300
G0 X101.500 Y100.000 Z2.000
M400
M204 P200 T200
G1 F600
G1 Z0.000 F2500
G1 X101.500 Y100.250
G0 Z2.000 F3000
M400
M204 P600 T600
G1 F1300
G0 X100.500 Y97.500 Z2.000
M400
M204 P200 T200
G1 F600
G1 Z0.000 F2500
G1 X100.750 Y97.250
G1 X100.750 Y97.250
G1 X101.000 Y97.000
G1 X101.250 Y96.750
G0 Z2.000 F3000
M400
M204 P600 T600
G1 F1300
G0 X102.500 Y95.500 Z2.000
M400
M204 P200 T200
G1 F600
G1 Z0.000 F2500
G1 X102.750 Y95.500
G1 X102.750 Y95.250
G1 X103.000 Y95.000
G0 Z2.000 F3000
M400
M204 P600 T600
G1 F1300
G0 X104.500 Y93.500 Z2.000
M400
M204 P200 T200
G1 F600
G1 Z0.000 F2500
G1 X104.750 Y93.250
G1 X105.000 Y93.000
G1 X105.000 Y93.000
G0 Z2.000 F3000
M400
M204 P600 T600
G1 F1300
G0 X107.250 Y94.250 Z2.000
M400
M204 P200 T200
G1 F600
G1 Z0.000 F2500
G1 X107.500 Y94.250
G0 Z2.000 F3000
M400
M204 P600 T600
G1 F1300
G0 X104.250 Y90.250 Z2.000
M400
M204 P200 T200
G1 F600
G1 Z0.000 F2500
G1 X104.500 Y90.000
G1 X104.500 Y90.000
G0 Z2.000 F3000
M400
M204 P600 T600
G1 F1300
G0 X106.250 Y88.250 Z2.000
M400
M204 P200 T200
G1 F600
G1 Z0.000 F2500
G1 X106.250 Y88.250
G0 Z2.000 F3000
M400
M204 P600 T600
G1 F1300
G0 X104.500 Y86.500 Z2.000
M400
M204 P200 T200
G1 F600
G1 Z0.000 F2500
G1 X104.500 Y86.500
G0 Z2.000 F3000
M400
M204 P600 T600
G1 F1300
G0 X103.750 Y87.250 Z2.000
M400
M204 P200 T200
G1 F600
G1 Z0.000 F2500
G1 X103.500 Y87.500
G1 X103.250 Y87.750
G1 X103.250 Y87.750
G1 X103.000 Y88.000
G0 Z2.000 F3000
M400
M204 P600 T600
G1 F1300
G0 X102.500 Y88.500 Z2.000
M400
M204 P200 T200
G1 F600
G1 Z0.000 F2500
G1 X102.250 Y88.750
G0 Z2.000 F3000
M400
M204 P600 T600
G1 F1300
G0 X101.000 Y90.000 Z2.000
M400
M204 P200 T200
G1 F600
G1 Z0.000 F2500
G1 X100.750 Y90.000
G0 Z2.000 F3000
M400
M204 P600 T600
G1 F1300
G0 X100.500 Y90.500 Z2.000
M400
M204 P200 T200
G1 F600
G1 Z0.000 F2500
G1 X100.250 Y90.750
G1 X100.250 Y90.750
G0 Z2.000 F3000
M400
M204 P600 T600
G1 F1300
G0 X98.750 Y88.750 Z2.000
M400
M204 P200 T200
G1 F600
G1 Z0.000 F2500
G1 X99.000 Y88.500
G1 X99.000 Y88.250
G0 Z2.000 F3000
M400
M204 P600 T600
G1 F1300
G0 X99.500 Y88.000 Z2.000
M400
M204 P200 T200
G1 F600
G1 Z0.000 F2500
G1 X99.500 Y87.750
G1 X99.750 Y87.750
G1 X100.000 Y87.500
G1 X100.250 Y87.250
G1 X100.250 Y87.000
G1 X100.500 Y87.000
G0 Z2.000 F3000
M400
M204 P600 T600
G1 F1300
G0 X100.750 Y86.500 Z2.000
M400
M204 P200 T200
G1 F600
G1 Z0.000 F2500
G1 X101.000 Y86.500
G1 X101.250 Y86.250
G1 X101.500 Y86.000
G1 X101.500 Y86.000
G1 X101.750 Y85.750
G0 Z2.000 F3000
M400
M204 P600 T600
G1 F1300
G0 X99.000 Y85.000 Z2.000
M400
M204 P200 T200
G1 F600
G1 Z0.000 F2500
G1 X99.000 Y84.750
G1 X99.250 Y84.750
G1 X99.500 Y84.500
G1 X99.500 Y84.250
G1 X99.750 Y84.000
G1 X100.000 Y84.000
G1 X100.250 Y83.750
G1 X100.250 Y83.500
G1 X100.500 Y83.500
G1 X100.750 Y83.250
G1 X100.750 Y83.000
G0 Z2.000 F3000
M400
M204 P600 T600
G1 F1300
G0 X99.250 Y81.000 Z2.000
M400
M204 P200 T200
G1 F600
G1 Z0.000 F2500
G1 X99.500 Y81.000
G1 X99.500 Y80.750
G1 X99.750 Y80.500
G1 X100.000 Y80.500
G1 X100.250 Y80.250
G1 X100.250 Y80.000
G0 Z2.000 F3000
M400
M204 P600 T600
G1 F1300
G0 X98.500 Y81.750 Z2.000
M400
M204 P200 T200
G1 F600
G1 Z0.000 F2500
G1 X98.500 Y82.000
G1 X98.250 Y82.250
G1 X98.000 Y82.250
G0 Z2.000 F3000
M400
M204 P600 T600
G1 F1300
G0 X94.750 Y82.250 Z2.000
M400
M204 P200 T200
G1 F600
G1 Z0.000 F2500
G1 X94.750 Y82.000
G1 X95.000 Y81.750
G1 X95.250 Y81.750
G0 Z2.000 F3000

; --- CIKEL NAMAKANJA ---
G0 Z2.000 F3000
M400
M204 P600 T600
G1 F1300
G0 X54.034 Y3.666 Z8.000
G1 Z1.000 F3000
G1 X54.034 Y3.666 F2500
G1 X54.034 Y5.416 F2500
G1 X50.534 Y3.666 F2500
G1 X54.034 Y0.000 F2500
G0 Z3.000 F3000
G0 X67.175 Y18.253
G0 Z8.000 F3000
G0 X95.500 Y81.500 Z2.000
M400
M204 P200 T200
G1 F600
G1 Z0.000 F2500
G1 X95.500 Y81.500
G1 X95.500 Y81.250
G1 X95.750 Y81.000
G1 X96.000 Y81.000
G1 X96.000 Y80.750
G1 X96.250 Y80.500
G1 X96.500 Y80.500
G1 X96.500 Y80.250
G1 X96.750 Y80.000
G1 X97.000 Y79.750
G1 X97.250 Y79.750
G1 X97.250 Y79.500
G1 X97.500 Y79.250
G1 X97.750 Y79.250
G1 X97.750 Y79.000
G1 X98.000 Y78.750
G1 X98.250 Y78.750
G1 X98.500 Y78.500
G1 X98.500 Y78.250
G1 X98.750 Y78.000
G1 X99.000 Y78.000
G1 X99.000 Y77.750
G0 Z2.000 F3000
M400
M204 P600 T600
G1 F1300
G0 X97.250 Y76.250 Z2.000
M400
M204 P200 T200
G1 F600
G1 Z0.000 F2500
G1 X97.000 Y76.250
G0 Z2.000 F3000
M400
M204 P600 T600
G1 F1300
G0 X96.000 Y77.500 Z2.000
M400
M204 P200 T200
G1 F600
G1 Z0.000 F2500
G1 X95.750 Y77.500
G1 X95.500 Y77.750
G1 X95.500 Y78.000
G1 X95.250 Y78.000
G0 Z2.000 F3000
M400
M204 P600 T600
G1 F1300
G0 X92.250 Y77.500 Z2.000
M400
M204 P200 T200
G1 F600
G1 Z0.000 F2500
G1 X92.500 Y77.500
G1 X92.500 Y77.250
G1 X92.750 Y77.000
G1 X93.000 Y76.750
G1 X93.000 Y76.750
G1 X93.250 Y76.500
G1 X93.500 Y76.250
G1 X93.500 Y76.250
G1 X93.750 Y76.000
G1 X94.000 Y75.750
G1 X94.250 Y75.500
G1 X94.250 Y75.500
G1 X94.500 Y75.250
G1 X94.750 Y75.000
G1 X94.750 Y75.000
G1 X95.000 Y74.750
G1 X95.250 Y74.500
G1 X95.500 Y74.500
G1 X95.500 Y74.250
G1 X95.750 Y74.000
G1 X96.000 Y73.750
G1 X96.000 Y73.750
G1 X96.250 Y73.500
G1 X96.500 Y73.250
G1 X96.500 Y73.250
G0 Z2.000 F3000
M400
M204 P600 T600
G1 F1300
G0 X96.250 Y70.000 Z2.000
M400
M204 P200 T200
G1 F600
G1 Z0.000 F2500
G1 X96.500 Y69.750
G1 X96.500 Y69.500
G1 X96.750 Y69.500
G1 X97.000 Y69.250
G0 Z2.000 F3000
M400
M204 P600 T600
G1 F1300
G0 X94.000 Y68.750 Z2.000
M400
M204 P200 T200
G1 F600
G1 Z0.000 F2500
G1 X93.750 Y69.000
G0 Z2.000 F3000
M400
M204 P600 T600
G1 F1300
G0 X93.250 Y69.500 Z2.000
M400
M204 P200 T200
G1 F600
G1 Z0.000 F2500
G1 X93.000 Y69.500
G0 Z2.000 F3000
M400
M204 P600 T600
G1 F1300
G0 X91.250 Y68.000 Z2.000
M400
M204 P200 T200
G1 F600
G1 Z0.000 F2500
G1 X91.000 Y68.250
G1 X90.750 Y68.500
G1 X90.500 Y68.500
G0 Z2.000 F3000
M400
M204 P600 T600
G1 F1300
G0 X87.750 Y64.250 Z2.000
M400
M204 P200 T200
G1 F600
G1 Z0.000 F2500
G1 X88.000 Y64.250
G1 X88.250 Y64.000
G1 X88.250 Y63.750
G1 X88.500 Y63.500
G0 Z2.000 F3000
M400
M204 P600 T600
G1 F1300
G0 X91.250 Y60.750 Z2.000
M400
M204 P200 T200
G1 F600
G1 Z0.000 F2500
G1 X91.500 Y60.500
G1 X91.750 Y60.500
G0 Z2.000 F3000
M400
M204 P600 T600
G1 F1300
G0 X92.000 Y60.000 Z2.000
M400
M204 P200 T200
G1 F600
G1 Z0.000 F2500
G1 X92.250 Y60.000
G0 Z2.000 F3000
M400
M204 P600 T600
G1 F1300
G0 X92.500 Y59.500 Z2.000
M400
M204 P200 T200
G1 F600
G1 Z0.000 F2500
G1 X92.750 Y59.250
G1 X93.000 Y59.250
G1 X93.000 Y59.000
G0 Z2.000 F3000
M400
M204 P600 T600
G1 F1300
G0 X91.250 Y57.500 Z2.000
M400
M204 P200 T200
G1 F600
G1 Z0.000 F2500
G1 X91.250 Y57.250
G1 X91.500 Y57.000
G1 X91.750 Y57.000
G1 X91.750 Y56.750
G0 Z2.000 F3000
M400
M204 P600 T600
G1 F1300
G0 X92.250 Y56.250 Z2.000
M400
M204 P200 T200
G1 F600
G1 Z0.000 F2500
G1 X92.500 Y56.250
G1 X92.500 Y56.000
G0 Z2.000 F3000
M400
M204 P600 T600
G1 F1300
G0 X90.000 Y55.000 Z2.000
M400
M204 P200 T200
G1 F600
G1 Z0.000 F2500
G1 X90.000 Y55.000
G0 Z2.000 F3000
M400
M204 P600 T600
G1 F1300
G0 X91.750 Y53.250 Z2.000
M400
M204 P200 T200
G1 F600
G1 Z0.000 F2500
G1 X91.750 Y53.250
G0 Z2.000 F3000
M400
M204 P600 T600
G1 F1300
G0 X92.750 Y52.250 Z2.000
M400
M204 P200 T200
G1 F600
G1 Z0.000 F2500
G1 X93.000 Y52.000
G1 X93.000 Y52.000
G1 X93.250 Y51.750
G0 Z2.000 F3000
M400
M204 P600 T600
G1 F1300
G0 X93.750 Y51.250 Z2.000
M400
M204 P200 T200
G1 F600
G1 Z0.000 F2500
G1 X94.000 Y51.000
G1 X94.250 Y50.750
G1 X94.250 Y50.750
G1 X94.500 Y50.500
G1 X94.750 Y50.250
G1 X94.750 Y50.250
G1 X95.000 Y50.000
G1 X95.250 Y49.750
G1 X95.500 Y49.750
G1 X95.500 Y49.500
G1 X95.750 Y49.250
G1 X96.000 Y49.000
G1 X96.000 Y49.000
G1 X96.250 Y48.750
G0 Z2.000 F3000
M400
M204 P600 T600
G1 F1300
G0 X98.000 Y50.500 Z2.000
M400
M204 P200 T200
G1 F600
G1 Z0.000 F2500
G1 X97.750 Y50.750
G1 X97.750 Y50.750
G1 X97.500 Y51.000
G1 X97.250 Y51.250
G1 X97.250 Y51.500
G1 X97.000 Y51.500
G1 X96.750 Y51.750
G0 Z2.000 F3000
M400
M204 P600 T600
G1 F1300
G0 X96.000 Y52.500 Z2.000
M400
M204 P200 T200
G1 F600
G1 Z0.000 F2500
G1 X96.000 Y52.750
G0 Z2.000 F3000
M400
M204 P600 T600
G1 F1300
G0 X92.250 Y49.250 Z2.000
M400
M204 P200 T200
G1 F600
G1 Z0.000 F2500
G1 X92.500 Y49.000
G1 X92.500 Y49.000
G1 X92.750 Y48.750
G0 Z2.000 F3000
M400
M204 P600 T600
G1 F1300
G0 X93.250 Y48.250 Z2.000
M400
M204 P200 T200
G1 F600
G1 Z0.000 F2500
G1 X93.500 Y48.000
G1 X93.500 Y47.750
G1 X93.750 Y47.750
G1 X94.000 Y47.500
G1 X94.250 Y47.250
G1 X94.250 Y47.250
G1 X94.500 Y47.000
G1 X94.750 Y46.750
G1 X94.750 Y46.750
G1 X95.000 Y46.500
G1 X95.250 Y46.250
G1 X95.500 Y46.000
G1 X95.500 Y46.000
G1 X95.750 Y45.750
G1 X96.000 Y45.500
G1 X96.000 Y45.500
G1 X96.250 Y45.250
G1 X96.500 Y45.000
G1 X96.500 Y44.750
G1 X96.750 Y44.750
G1 X97.000 Y44.500
G1 X97.250 Y44.250
G1 X97.250 Y44.250
G1 X97.500 Y44.000
G1 X97.750 Y43.750
G1 X97.750 Y43.750
G1 X98.000 Y43.500
G1 X98.250 Y43.250
G1 X98.500 Y43.000
G1 X98.500 Y43.000
G1 X98.750 Y42.750
G1 X99.000 Y42.500
G1 X99.000 Y42.500
G1 X99.250 Y42.250
G1 X99.500 Y42.000
G0 Z2.000 F3000
M400
M204 P600 T600
G1 F1300
G0 X92.750 Y38.250 Z2.000
M400
M204 P200 T200
G1 F600
G1 Z0.000 F2500
G1 X92.500 Y38.250
G1 X92.500 Y38.500
G0 Z2.000 F3000
M400
M204 P600 T600
G1 F1300
G0 X85.750 Y38.250 Z2.000
M400
M204 P200 T200
G1 F600
G1 Z0.000 F2500
G1 X85.500 Y38.250
G0 Z2.000 F3000
M400
M204 P600 T600
G1 F1300
G0 X88.000 Y39.500 Z2.000
M400
M204 P200 T200
G1 F600
G1 Z0.000 F2500
G1 X87.750 Y39.500
G1 X87.500 Y39.750
G1 X87.500 Y40.000
G1 X87.250 Y40.000
G1 X87.000 Y40.250
G1 X87.000 Y40.500
G1 X86.750 Y40.500
G1 X86.500 Y40.750
G1 X86.250 Y41.000
G1 X86.250 Y41.250
G1 X86.000 Y41.250
G1 X85.750 Y41.500
G1 X85.750 Y41.750
G1 X85.500 Y41.750
G1 X85.250 Y42.000
G1 X85.250 Y42.250
G1 X85.000 Y42.500
G1 X84.750 Y42.500
G1 X84.500 Y42.750
G0 Z2.000 F3000
M400
M204 P600 T600
G1 F1300
G0 X89.250 Y45.000 Z2.000
M400
M204 P200 T200
G1 F600
G1 Z0.000 F2500
G1 X89.500 Y44.750
G1 X89.750 Y44.750
G1 X90.000 Y44.500
G1 X90.000 Y44.250
G1 X90.250 Y44.250
G1 X90.500 Y44.000
G1 X90.500 Y43.750
G1 X90.750 Y43.750
G1 X91.000 Y43.500
G1 X91.250 Y43.250
G1 X91.250 Y43.000
G1 X91.500 Y43.000
G1 X91.750 Y42.750
G1 X91.750 Y42.500
G1 X92.000 Y42.500
G1 X92.250 Y42.250
G1 X92.500 Y42.000
G1 X92.500 Y41.750
G1 X92.750 Y41.750
G1 X93.000 Y41.500
G1 X93.000 Y41.250
G1 X93.250 Y41.250
G1 X93.500 Y41.000
G1 X93.500 Y40.750
G1 X93.750 Y40.500
G1 X94.000 Y40.500
G1 X94.250 Y40.250
G0 Z2.000 F3000
M400
M204 P600 T600
G1 F1300
G0 X97.750 Y40.250 Z2.000
M400
M204 P200 T200
G1 F600
G1 Z0.000 F2500
G1 X97.500 Y40.500
G1 X97.250 Y40.500
G1 X97.250 Y40.750
G1 X97.000 Y41.000
G1 X96.750 Y41.250
G1 X96.500 Y41.250
G1 X96.500 Y41.500
G1 X96.250 Y41.750
G1 X96.000 Y41.750
G1 X96.000 Y42.000
G1 X95.750 Y42.250
G1 X95.500 Y42.500
G1 X95.500 Y42.500
G1 X95.250 Y42.750
G1 X95.000 Y43.000
G1 X94.750 Y43.000
G1 X94.750 Y43.250
G1 X94.500 Y43.500
G1 X94.250 Y43.750
G1 X94.250 Y43.750
G1 X94.000 Y44.000
G1 X93.750 Y44.250
G1 X93.500 Y44.250
G1 X93.500 Y44.500
G1 X93.250 Y44.750
G1 X93.000 Y44.750
G1 X93.000 Y45.000
G1 X92.750 Y45.250
G1 X92.500 Y45.500
G1 X92.500 Y45.500
G1 X92.250 Y45.750
G1 X92.000 Y46.000
G1 X91.750 Y46.000
G1 X91.750 Y46.250
G1 X91.500 Y46.500
G0 Z2.000 F3000
M400
M204 P600 T600
G1 F1300
G0 X89.000 Y45.500 Z2.000
M400
M204 P200 T200
G1 F600
G1 Z0.000 F2500
G1 X88.750 Y45.500
G1 X88.750 Y45.750
G0 Z2.000 F3000
M400
M204 P600 T600
G1 F1300
G0 X88.250 Y46.000 Z2.000
M400
M204 P200 T200
G1 F600
G1 Z0.000 F2500
G1 X88.250 Y46.250
G1 X88.000 Y46.500
G1 X87.750 Y46.750
G1 X87.500 Y46.750
G1 X87.500 Y47.000
G1 X87.250 Y47.250
G0 Z2.000 F3000
M400
M204 P600 T600
G1 F1300
G0 X88.750 Y49.000 Z2.000
M400
M204 P200 T200
G1 F600
G1 Z0.000 F2500
G1 X89.000 Y49.000
G1 X89.250 Y48.750
G1 X89.250 Y48.500
G1 X89.500 Y48.500
G1 X89.750 Y48.250
G1 X90.000 Y48.000
G1 X90.000 Y47.750
G1 X90.250 Y47.750
G1 X90.500 Y47.500
G1 X90.500 Y47.250
G1 X90.750 Y47.250
G1 X91.000 Y47.000
G0 Z2.000 F3000
M400
M204 P600 T600
G1 F1300
G0 X91.500 Y50.000 Z2.000
M400
M204 P200 T200
G1 F600
G1 Z0.000 F2500
G1 X91.250 Y50.250
G1 X91.250 Y50.250
G1 X91.000 Y50.500
G0 Z2.000 F3000
M400
M204 P600 T600
G1 F1300
G0 X90.500 Y51.000 Z2.000
M400
M204 P200 T200
G1 F600
G1 Z0.000 F2500
G1 X90.250 Y51.250
G1 X90.000 Y51.500
G1 X90.000 Y51.500
G1 X89.750 Y51.750
G1 X89.500 Y52.000
G1 X89.250 Y52.000
G0 Z2.000 F3000
M400
M204 P600 T600
G1 F1300
G0 X88.500 Y49.500 Z2.000
M400
M204 P200 T200
G1 F600
G1 Z0.000 F2500
G1 X88.250 Y49.750
G1 X88.250 Y49.750
G1 X88.000 Y50.000
G1 X87.750 Y50.250
G1 X87.500 Y50.250
G1 X87.500 Y50.500
G1 X87.250 Y50.750
G1 X87.000 Y50.750
G1 X87.000 Y51.000
G1 X86.750 Y51.250
G1 X86.500 Y51.500
G0 Z2.000 F3000
M400
M204 P600 T600
G1 F1300
G0 X85.500 Y49.000 Z2.000
M400
M204 P200 T200
G1 F600
G1 Z0.000 F2500
G1 X85.750 Y48.750
G1 X85.750 Y48.500
G1 X86.000 Y48.500
G1 X86.250 Y48.250
G1 X86.250 Y48.000
G1 X86.500 Y47.750
G1 X86.750 Y47.750
G1 X87.000 Y47.500
G0 Z2.000 F3000
M400
M204 P600 T600
G1 F1300
G0 X84.750 Y46.000 Z2.000
M400
M204 P200 T200
G1 F600
G1 Z0.000 F2500
G1 X85.000 Y46.000
G1 X85.250 Y45.750
G1 X85.250 Y45.500
G1 X85.500 Y45.500
G1 X85.750 Y45.250
G1 X85.750 Y45.000
G1 X86.000 Y44.750
G1 X86.250 Y44.750
G1 X86.250 Y44.500
G1 X86.500 Y44.250
G1 X86.750 Y44.250
G1 X87.000 Y44.000
G1 X87.000 Y43.750
G1 X87.250 Y43.750
G1 X87.500 Y43.500
G1 X87.500 Y43.250
G1 X87.750 Y43.000
G1 X88.000 Y43.000
G1 X88.250 Y42.750
G1 X88.250 Y42.500
G1 X88.500 Y42.500
G1 X88.750 Y42.250
G1 X88.750 Y42.000
G1 X89.000 Y41.750
G1 X89.250 Y41.750
G1 X89.250 Y41.500
G1 X89.500 Y41.250
G1 X89.750 Y41.250
G1 X90.000 Y41.000
G1 X90.000 Y40.750
G1 X90.250 Y40.500
G1 X90.500 Y40.500
G1 X90.500 Y40.250
G1 X90.750 Y40.000
G1 X91.000 Y40.000
G1 X91.250 Y39.750
G1 X91.250 Y39.500
G1 X91.500 Y39.500
G0 Z2.000 F3000
M400
M204 P600 T600
G1 F1300
G0 X84.250 Y43.000 Z2.000
M400
M204 P200 T200
G1 F600
G1 Z0.000 F2500
G1 X84.000 Y43.250
G1 X84.000 Y43.500
G0 Z2.000 F3000
M400
M204 P600 T600
G1 F1300
G0 X79.000 Y44.750 Z2.000
M400
M204 P200 T200
G1 F600
G1 Z0.000 F2500
G1 X79.000 Y44.750
G1 X78.750 Y45.000
G0 Z2.000 F3000
M400
M204 P600 T600
G1 F1300
G0 X76.750 Y43.750 Z2.000
M400
M204 P200 T200
G1 F600
G1 Z0.000 F2500
G1 X76.750 Y43.500
G1 X77.000 Y43.250
G1 X77.250 Y43.000
G1 X77.250 Y43.000
G0 Z2.000 F3000
M400
M204 P600 T600
G1 F1300
G0 X75.250 Y41.500 Z2.000
M400
M204 P200 T200
G1 F600
G1 Z0.000 F2500
G1 X75.000 Y41.750
G1 X75.000 Y41.750
G0 Z2.000 F3000
M400
M204 P600 T600
G1 F1300
G0 X75.500 Y44.750 Z2.000
M400
M204 P200 T200
G1 F600
G1 Z0.000 F2500
G1 X75.500 Y44.750
G1 X75.250 Y45.000
G1 X75.000 Y45.250
G1 X75.000 Y45.500
G1 X74.750 Y45.500
G1 X74.500 Y45.750
G0 Z2.000 F3000
M400
M204 P600 T600
G1 F1300
G0 X75.750 Y48.000 Z2.000
M400
M204 P200 T200
G1 F600
G1 Z0.000 F2500
G1 X75.500 Y48.250
G1 X75.500 Y48.500
G0 Z2.000 F3000
M400
M204 P600 T600
G1 F1300
G0 X78.750 Y48.500 Z2.000
M400
M204 P200 T200
G1 F600
G1 Z0.000 F2500
G1 X79.000 Y48.500
G1 X79.000 Y48.250
G0 Z2.000 F3000
M400
M204 P600 T600
G1 F1300
G0 X81.500 Y49.250 Z2.000
M400
M204 P200 T200
G1 F600
G1 Z0.000 F2500
G1 X81.750 Y49.000
G1 X82.000 Y49.000
G1 X82.000 Y48.750
G0 Z2.000 F3000
M400
M204 P600 T600
G1 F1300
G0 X78.500 Y52.500 Z2.000
M400
M204 P200 T200
G1 F600
G1 Z0.000 F2500
G1 X78.250 Y52.750
G1 X78.000 Y52.750
G0 Z2.000 F3000
M400
M204 P600 T600
G1 F1300
G0 X79.750 Y54.500 Z2.000
M400
M204 P200 T200
G1 F600
G1 Z0.000 F2500
G1 X80.000 Y54.500
G1 X80.250 Y54.250
G1 X80.250 Y54.000
G0 Z2.000 F3000

; --- CIKEL NAMAKANJA ---
G0 Z2.000 F3000
M400
M204 P600 T600
G1 F1300
G0 X60.379 Y1.042 Z8.000
G1 Z1.000 F3000
G1 X60.379 Y1.042 F2500
G1 X60.379 Y2.792 F2500
G1 X56.879 Y1.042 F2500
G1 X60.379 Y0.000 F2500
G0 Z3.000 F3000
G0 X66.398 Y18.581
G0 Z8.000 F3000
G0 X80.500 Y54.000 Z2.000
M400
M204 P200 T200
G1 F600
G1 Z0.000 F2500
G1 X80.500 Y54.000
G1 X80.750 Y53.750
G1 X81.000 Y53.500
G1 X81.000 Y53.250
G0 Z2.000 F3000
M400
M204 P600 T600
G1 F1300
G0 X84.750 Y56.750 Z2.000
M400
M204 P200 T200
G1 F600
G1 Z0.000 F2500
G1 X85.000 Y56.500
G1 X85.250 Y56.250
G1 X85.250 Y56.250
G0 Z2.000 F3000
M400
M204 P600 T600
G1 F1300
G0 X87.500 Y57.500 Z2.000
M400
M204 P200 T200
G1 F600
G1 Z0.000 F2500
G1 X87.500 Y57.500
G1 X87.750 Y57.250
G0 Z2.000 F3000
M400
M204 P600 T600
G1 F1300
G0 X90.250 Y58.250 Z2.000
M400
M204 P200 T200
G1 F600
G1 Z0.000 F2500
G1 X90.500 Y58.000
G1 X90.500 Y58.000
G1 X90.750 Y57.750
G0 Z2.000 F3000
M400
M204 P600 T600
G1 F1300
G0 X85.750 Y63.000 Z2.000
M400
M204 P200 T200
G1 F600
G1 Z0.000 F2500
G1 X85.500 Y63.000
G1 X85.250 Y63.250
G1 X85.250 Y63.500
G1 X85.000 Y63.500
G1 X84.750 Y63.750
G1 X84.500 Y64.000
G1 X84.500 Y64.250
G1 X84.250 Y64.250
G1 X84.000 Y64.500
G1 X84.000 Y64.750
G0 Z2.000 F3000
M400
M204 P600 T600
G1 F1300
G0 X82.250 Y62.750 Z2.000
M400
M204 P200 T200
G1 F600
G1 Z0.000 F2500
G1 X82.500 Y62.500
G1 X82.750 Y62.250
G1 X82.750 Y62.250
G1 X83.000 Y62.000
G1 X83.250 Y61.750
G1 X83.250 Y61.750
G1 X83.500 Y61.500
G1 X83.750 Y61.250
G0 Z2.000 F3000
M400
M204 P600 T600
G1 F1300
G0 X83.000 Y58.500 Z2.000
M400
M204 P200 T200
G1 F600
G1 Z0.000 F2500
G1 X82.750 Y58.750
G1 X82.750 Y58.750
G1 X82.500 Y59.000
G1 X82.250 Y59.250
G1 X82.000 Y59.250
G1 X82.000 Y59.500
G1 X81.750 Y59.750
G1 X81.500 Y60.000
G1 X81.500 Y60.000
G1 X81.250 Y60.250
G1 X81.000 Y60.500
G1 X81.000 Y60.500
G1 X80.750 Y60.750
G1 X80.500 Y61.000
G0 Z2.000 F3000
M400
M204 P600 T600
G1 F1300
G0 X79.750 Y58.250 Z2.000
M400
M204 P200 T200
G1 F600
G1 Z0.000 F2500
G1 X79.750 Y58.000
G1 X80.000 Y58.000
G0 Z2.000 F3000
M400
M204 P600 T600
G1 F1300
G0 X76.750 Y57.750 Z2.000
M400
M204 P200 T200
G1 F600
G1 Z0.000 F2500
G1 X76.500 Y58.000
G1 X76.250 Y58.000
G0 Z2.000 F3000
M400
M204 P600 T600
G1 F1300
G0 X75.750 Y55.000 Z2.000
M400
M204 P200 T200
G1 F600
G1 Z0.000 F2500
G1 X76.000 Y55.000
G1 X76.000 Y54.750
G0 Z2.000 F3000
M400
M204 P600 T600
G1 F1300
G0 X74.500 Y52.750 Z2.000
M400
M204 P200 T200
G1 F600
G1 Z0.000 F2500
G1 X74.750 Y52.750
G1 X75.000 Y52.500
G1 X75.000 Y52.250
G1 X75.250 Y52.000
G0 Z2.000 F3000
M400
M204 P600 T600
G1 F1300
G0 X73.250 Y50.500 Z2.000
M400
M204 P200 T200
G1 F600
G1 Z0.000 F2500
G1 X73.000 Y50.750
G1 X73.000 Y50.750
G1 X72.750 Y51.000
G1 X72.500 Y51.250
G1 X72.500 Y51.500
G1 X72.250 Y51.500
G1 X72.000 Y51.750
G1 X71.750 Y52.000
G1 X71.750 Y52.000
G1 X71.500 Y52.250
G1 X71.250 Y52.500
G1 X71.250 Y52.750
G1 X71.000 Y52.750
G0 Z2.000 F3000
M400
M204 P600 T600
G1 F1300
G0 X72.750 Y47.500 Z2.000
M400
M204 P200 T200
G1 F600
G1 Z0.000 F2500
G1 X73.000 Y47.250
G1 X73.000 Y47.250
G1 X73.250 Y47.000
G1 X73.500 Y46.750
G1 X73.750 Y46.750
G1 X73.750 Y46.500
G1 X74.000 Y46.250
G0 Z2.000 F3000
M400
M204 P600 T600
G1 F1300
G0 X69.250 Y44.000 Z2.000
M400
M204 P200 T200
G1 F600
G1 Z0.000 F2500
G1 X69.500 Y43.750
G1 X69.500 Y43.750
G1 X69.750 Y43.500
G1 X70.000 Y43.250
G1 X70.000 Y43.000
G1 X70.250 Y43.000
G1 X70.500 Y42.750
G1 X70.750 Y42.500
G1 X70.750 Y42.500
G1 X71.000 Y42.250
G1 X71.250 Y42.000
G1 X71.250 Y41.750
G1 X71.500 Y41.750
G1 X71.750 Y41.500
G1 X71.750 Y41.250
G1 X72.000 Y41.250
G1 X72.250 Y41.000
G0 Z2.000 F3000
M400
M204 P600 T600
G1 F1300
G0 X68.750 Y40.750 Z2.000
M400
M204 P200 T200
G1 F600
G1 Z0.000 F2500
G1 X68.750 Y41.000
G1 X68.500 Y41.250
G1 X68.250 Y41.250
G1 X68.250 Y41.500
G1 X68.000 Y41.750
G1 X67.750 Y41.750
G1 X67.750 Y42.000
G1 X67.500 Y42.250
G1 X67.250 Y42.500
G1 X67.000 Y42.500
G1 X67.000 Y42.750
G1 X66.750 Y43.000
G1 X66.500 Y43.000
G1 X66.500 Y43.250
G1 X66.250 Y43.500
G1 X66.000 Y43.750
G1 X65.750 Y43.750
G1 X65.750 Y44.000
G1 X65.500 Y44.250
G1 X65.250 Y44.250
G1 X65.250 Y44.500
G1 X65.000 Y44.750
G0 Z2.000 F3000
M400
M204 P600 T600
G1 F1300
G0 X63.250 Y43.000 Z2.000
M400
M204 P200 T200
G1 F600
G1 Z0.000 F2500
G1 X63.500 Y42.750
G1 X63.500 Y42.500
G1 X63.750 Y42.500
G1 X64.000 Y42.250
G1 X64.000 Y42.000
G1 X64.250 Y41.750
G1 X64.500 Y41.750
G1 X64.500 Y41.500
G1 X64.750 Y41.250
G1 X65.000 Y41.250
G1 X65.250 Y41.000
G0 Z2.000 F3000
M400
M204 P600 T600
G1 F1300
G0 X62.750 Y43.500 Z2.000
M400
M204 P200 T200
G1 F600
G1 Z0.000 F2500
G1 X62.500 Y43.750
G1 X62.250 Y43.750
G1 X62.250 Y44.000
G1 X62.000 Y44.250
G1 X61.750 Y44.250
G0 Z2.000 F3000
M400
M204 P600 T600
G1 F1300
G0 X64.000 Y45.500 Z2.000
M400
M204 P200 T200
G1 F600
G1 Z0.000 F2500
G1 X64.000 Y45.750
G1 X63.750 Y46.000
G1 X63.500 Y46.000
G1 X63.500 Y46.250
G1 X63.250 Y46.500
G1 X63.000 Y46.750
G1 X62.750 Y46.750
G1 X62.750 Y47.000
G1 X62.500 Y47.250
G1 X62.250 Y47.250
G0 Z2.000 F3000
M400
M204 P600 T600
G1 F1300
G0 X66.250 Y47.000 Z2.000
M400
M204 P200 T200
G1 F600
G1 Z0.000 F2500
G1 X66.500 Y46.750
G1 X66.500 Y46.750
G1 X66.750 Y46.500
G1 X67.000 Y46.250
G1 X67.000 Y46.000
G1 X67.250 Y46.000
G1 X67.500 Y45.750
G1 X67.750 Y45.500
G1 X67.750 Y45.500
G1 X68.000 Y45.250
G1 X68.250 Y45.000
G1 X68.250 Y44.750
G1 X68.500 Y44.750
G1 X68.750 Y44.500
G0 Z2.000 F3000
M400
M204 P600 T600
G1 F1300
G0 X61.750 Y47.750 Z2.000
M400
M204 P200 T200
G1 F600
G1 Z0.000 F2500
G1 X61.500 Y48.000
G0 Z2.000 F3000
M400
M204 P600 T600
G1 F1300
G0 X61.250 Y48.500 Z2.000
M400
M204 P200 T200
G1 F600
G1 Z0.000 F2500
G1 X61.000 Y48.500
G1 X61.000 Y48.750
G0 Z2.000 F3000
M400
M204 P600 T600
G1 F1300
G0 X60.250 Y49.500 Z2.000
M400
M204 P200 T200
G1 F600
G1 Z0.000 F2500
G1 X60.000 Y49.750
G0 Z2.000 F3000
M400
M204 P600 T600
G1 F1300
G0 X58.500 Y47.750 Z2.000
M400
M204 P200 T200
G1 F600
G1 Z0.000 F2500
G1 X58.500 Y47.500
G1 X58.750 Y47.250
G0 Z2.000 F3000
M400
M204 P600 T600
G1 F1300
G0 X59.250 Y47.000 Z2.000
M400
M204 P200 T200
G1 F600
G1 Z0.000 F2500
G1 X59.250 Y46.750
G1 X59.500 Y46.750
G1 X59.750 Y46.500
G1 X59.750 Y46.250
G1 X60.000 Y46.000
G1 X60.250 Y46.000
G1 X60.500 Y45.750
G1 X60.500 Y45.500
G1 X60.750 Y45.500
G1 X61.000 Y45.250
G1 X61.000 Y45.000
G0 Z2.000 F3000
M400
M204 P600 T600
G1 F1300
G0 X58.000 Y44.500 Z2.000
M400
M204 P200 T200
G1 F600
G1 Z0.000 F2500
G1 X58.000 Y44.750
G1 X57.750 Y44.750
G0 Z2.000 F3000
M400
M204 P600 T600
G1 F1300
G0 X57.250 Y45.250 Z2.000
M400
M204 P200 T200
G1 F600
G1 Z0.000 F2500
G1 X57.250 Y45.500
G1 X57.000 Y45.500
G1 X56.750 Y45.750
G0 Z2.000 F3000
M400
M204 P600 T600
G1 F1300
G0 X56.250 Y46.250 Z2.000
M400
M204 P200 T200
G1 F600
G1 Z0.000 F2500
G1 X56.250 Y46.500
G0 Z2.000 F3000
M400
M204 P600 T600
G1 F1300
G0 X55.500 Y47.000 Z2.000
M400
M204 P200 T200
G1 F600
G1 Z0.000 F2500
G1 X55.500 Y47.250
G0 Z2.000 F3000
M400
M204 P600 T600
G1 F1300
G0 X53.250 Y46.000 Z2.000
M400
M204 P200 T200
G1 F600
G1 Z0.000 F2500
G1 X53.250 Y45.750
G0 Z2.000 F3000
M400
M204 P600 T600
G1 F1300
G0 X52.750 Y46.250 Z2.000
M400
M204 P200 T200
G1 F600
G1 Z0.000 F2500
G1 X52.500 Y46.500
G0 Z2.000 F3000
M400
M204 P600 T600
G1 F1300
G0 X52.250 Y46.750 Z2.000
M400
M204 P200 T200
G1 F600
G1 Z0.000 F2500
G1 X52.000 Y47.000
G1 X52.000 Y47.250
G1 X51.750 Y47.250
G0 Z2.000 F3000
M400
M204 P600 T600
G1 F1300
G0 X53.750 Y48.750 Z2.000
M400
M204 P200 T200
G1 F600
G1 Z0.000 F2500
G1 X54.000 Y48.500
G1 X54.250 Y48.500
G1 X54.250 Y48.250
G1 X54.500 Y48.000
G1 X54.750 Y47.750
G0 Z2.000 F3000
M400
M204 P600 T600
G1 F1300
G0 X53.500 Y49.000 Z2.000
M400
M204 P200 T200
G1 F600
G1 Z0.000 F2500
G1 X53.250 Y49.250
G1 X53.250 Y49.500
G0 Z2.000 F3000
M400
M204 P600 T600
G1 F1300
G0 X52.750 Y49.750 Z2.000
M400
M204 P200 T200
G1 F600
G1 Z0.000 F2500
G1 X52.500 Y50.000
G0 Z2.000 F3000
M400
M204 P600 T600
G1 F1300
G0 X54.750 Y51.500 Z2.000
M400
M204 P200 T200
G1 F600
G1 Z0.000 F2500
G1 X55.000 Y51.250
G0 Z2.000 F3000
M400
M204 P600 T600
G1 F1300
G0 X58.000 Y51.500 Z2.000
M400
M204 P200 T200
G1 F600
G1 Z0.000 F2500
G1 X58.250 Y51.500
G1 X58.500 Y51.250
G1 X58.500 Y51.000
G1 X58.750 Y50.750
G1 X59.000 Y50.750
G1 X59.250 Y50.500
G1 X59.250 Y50.250
G1 X59.500 Y50.250
G1 X59.750 Y50.000
G0 Z2.000 F3000
M400
M204 P600 T600
G1 F1300
G0 X61.500 Y51.750 Z2.000
M400
M204 P200 T200
G1 F600
G1 Z0.000 F2500
G1 X61.250 Y52.000
G1 X61.000 Y52.000
G1 X61.000 Y52.250
G1 X60.750 Y52.500
G0 Z2.000 F3000
M400
M204 P600 T600
G1 F1300
G0 X62.500 Y50.750 Z2.000
M400
M204 P200 T200
G1 F600
G1 Z0.000 F2500
G1 X62.750 Y50.500
G1 X62.750 Y50.250
G1 X63.000 Y50.250
G1 X63.250 Y50.000
G1 X63.500 Y49.750
G1 X63.500 Y49.750
G1 X63.750 Y49.500
G1 X64.000 Y49.250
G1 X64.000 Y49.000
G1 X64.250 Y49.000
G1 X64.500 Y48.750
G0 Z2.000 F3000
M400
M204 P600 T600
G1 F1300
G0 X63.250 Y53.500 Z2.000
M400
M204 P200 T200
G1 F600
G1 Z0.000 F2500
G1 X63.500 Y53.250
G1 X63.500 Y53.250
G1 X63.750 Y53.000
G1 X64.000 Y52.750
G1 X64.000 Y52.750
G1 X64.250 Y52.500
G1 X64.500 Y52.250
G1 X64.500 Y52.000
G1 X64.750 Y52.000
G1 X65.000 Y51.750
G1 X65.250 Y51.500
G1 X65.250 Y51.500
G1 X65.500 Y51.250
G1 X65.750 Y51.000
G1 X65.750 Y50.750
G1 X66.000 Y50.750
G1 X66.250 Y50.500
G1 X66.500 Y50.250
G1 X66.500 Y50.250
G1 X66.750 Y50.000
G1 X67.000 Y49.750
G1 X67.000 Y49.750
G1 X67.250 Y49.500
G1 X67.500 Y49.250
G1 X67.750 Y49.000
G1 X67.750 Y49.000
G1 X68.000 Y48.750
G1 X68.250 Y48.500
G1 X68.250 Y48.500
G1 X68.500 Y48.250
G1 X68.750 Y48.000
G1 X68.750 Y47.750
G1 X69.000 Y47.750
G1 X69.250 Y47.500
G1 X69.500 Y47.250
G1 X69.500 Y47.250
G1 X69.750 Y47.000
G1 X70.000 Y46.750
G1 X70.000 Y46.750
G1 X70.250 Y46.500
G1 X70.500 Y46.250
G1 X70.750 Y46.000
G1 X70.750 Y46.000
G1 X71.000 Y45.750
G1 X71.250 Y45.500
G1 X71.250 Y45.500
G1 X71.500 Y45.250
G1 X71.750 Y45.000
G1 X71.750 Y44.750
G1 X72.000 Y44.750
G1 X72.250 Y44.500
G1 X72.500 Y44.250
G1 X72.500 Y44.250
G1 X72.750 Y44.000
G1 X73.000 Y43.750
G1 X73.000 Y43.750
G1 X73.250 Y43.500
G1 X73.500 Y43.250
G1 X73.750 Y43.000
G1 X73.750 Y43.000
G1 X74.000 Y42.750
G1 X74.250 Y42.500
G1 X74.250 Y42.500
G1 X74.500 Y42.250
G0 Z2.000 F3000
M400
M204 P600 T600
G1 F1300
G0 X70.750 Y53.250 Z2.000
M400
M204 P200 T200
G1 F600
G1 Z0.000 F2500
G1 X70.500 Y53.250
G1 X70.250 Y53.500
G0 Z2.000 F3000
M400
M204 P600 T600
G1 F1300
G0 X71.500 Y55.750 Z2.000
M400
M204 P200 T200
G1 F600
G1 Z0.000 F2500
G1 X71.750 Y55.750
G1 X71.750 Y55.500
G1 X72.000 Y55.250
G1 X72.250 Y55.000
G1 X72.500 Y55.000
G1 X72.500 Y54.750
G1 X72.750 Y54.500
G1 X73.000 Y54.500
G1 X73.000 Y54.250
G1 X73.250 Y54.000
G1 X73.500 Y54.000
G0 Z2.000 F3000
M400
M204 P600 T600
G1 F1300
G0 X74.500 Y56.250 Z2.000
M400
M204 P200 T200
G1 F600
G1 Z0.000 F2500
G1 X74.250 Y56.500
G1 X74.250 Y56.750
G1 X74.000 Y57.000
G1 X73.750 Y57.000
G1 X73.750 Y57.250
G1 X73.500 Y57.500
G1 X73.250 Y57.500
G1 X73.000 Y57.750
G1 X73.000 Y58.000
G1 X72.750 Y58.000
G1 X72.500 Y58.250
G1 X72.500 Y58.500
G1 X72.250 Y58.750
G1 X72.000 Y58.750
G1 X71.750 Y59.000
G1 X71.750 Y59.250
G0 Z2.000 F3000
M400
M204 P600 T600
G1 F1300
G0 X74.500 Y60.000 Z2.000
M400
M204 P200 T200
G1 F600
G1 Z0.000 F2500
G1 X74.750 Y59.750
G1 X75.000 Y59.500
G0 Z2.000 F3000
M400
M204 P600 T600
G1 F1300
G0 X73.500 Y61.000 Z2.000
M400
M204 P200 T200
G1 F600
G1 Z0.000 F2500
G1 X73.250 Y61.250
G1 X73.000 Y61.250
G1 X73.000 Y61.500
G0 Z2.000 F3000
M400
M204 P600 T600
G1 F1300
G0 X74.500 Y63.500 Z2.000
M400
M204 P200 T200
G1 F600
G1 Z0.000 F2500
G1 X74.750 Y63.250
G0 Z2.000 F3000

; --- CIKEL NAMAKANJA ---
G0 Z2.000 F3000
M400
M204 P600 T600
G1 F1300
G0 X54.855 Y6.693 Z8.000
G1 Z1.000 F3000
G1 X54.855 Y6.693 F2500
G1 X54.855 Y8.443 F2500
G1 X51.355 Y6.693 F2500
G1 X54.855 Y1.443 F2500
G0 Z3.000 F3000
G0 X63.923 Y19.385
G0 Z8.000 F3000
G0 X75.000 Y63.000 Z2.000
M400
M204 P200 T200
G1 F600
G1 Z0.000 F2500
G1 X75.000 Y63.000
G1 X75.000 Y63.000
G1 X75.250 Y62.750
G1 X75.500 Y62.500
G1 X75.500 Y62.250
G1 X75.750 Y62.250
G1 X76.000 Y62.000
G1 X76.000 Y61.750
G1 X76.250 Y61.750
G1 X76.500 Y61.500
G1 X76.750 Y61.250
G1 X76.750 Y61.250
G1 X77.000 Y61.000
G1 X77.250 Y60.750
G1 X77.250 Y60.500
G1 X77.500 Y60.500
G1 X77.750 Y60.250
G0 Z2.000 F3000
M400
M204 P600 T600
G1 F1300
G0 X81.250 Y63.750 Z2.000
M400
M204 P200 T200
G1 F600
G1 Z0.000 F2500
G1 X81.500 Y63.500
G1 X81.500 Y63.500
G1 X81.750 Y63.250
G0 Z2.000 F3000
M400
M204 P600 T600
G1 F1300
G0 X80.750 Y64.250 Z2.000
M400
M204 P200 T200
G1 F600
G1 Z0.000 F2500
G1 X80.500 Y64.500
G1 X80.250 Y64.750
G1 X80.250 Y64.750
G1 X80.000 Y65.000
G0 Z2.000 F3000
M400
M204 P600 T600
G1 F1300
G0 X82.250 Y66.250 Z2.000
M400
M204 P200 T200
G1 F600
G1 Z0.000 F2500
G1 X82.500 Y66.000
G0 Z2.000 F3000
M400
M204 P600 T600
G1 F1300
G0 X82.750 Y65.750 Z2.000
M400
M204 P200 T200
G1 F600
G1 Z0.000 F2500
G1 X83.000 Y65.500
G1 X83.250 Y65.250
G1 X83.250 Y65.250
G1 X83.500 Y65.000
G0 Z2.000 F3000
M400
M204 P600 T600
G1 F1300
G0 X85.250 Y67.000 Z2.000
M400
M204 P200 T200
G1 F600
G1 Z0.000 F2500
G1 X85.250 Y66.750
G1 X85.500 Y66.500
G1 X85.750 Y66.500
G1 X85.750 Y66.250
G1 X86.000 Y66.000
G1 X86.250 Y66.000
G1 X86.250 Y65.750
G0 Z2.000 F3000
M400
M204 P600 T600
G1 F1300
G0 X84.250 Y67.750 Z2.000
M400
M204 P200 T200
G1 F600
G1 Z0.000 F2500
G1 X84.000 Y68.000
G0 Z2.000 F3000
M400
M204 P600 T600
G1 F1300
G0 X83.750 Y68.500 Z2.000
M400
M204 P200 T200
G1 F600
G1 Z0.000 F2500
G1 X83.500 Y68.500
G0 Z2.000 F3000
M400
M204 P600 T600
G1 F1300
G0 X85.750 Y70.000 Z2.000
M400
M204 P200 T200
G1 F600
G1 Z0.000 F2500
G1 X85.750 Y69.750
G1 X86.000 Y69.500
G1 X86.250 Y69.500
G1 X86.250 Y69.250
G1 X86.500 Y69.000
G1 X86.750 Y69.000
G1 X87.000 Y68.750
G1 X87.000 Y68.500
G1 X87.250 Y68.500
G1 X87.500 Y68.250
G1 X87.500 Y68.000
G1 X87.750 Y67.750
G1 X88.000 Y67.750
G1 X88.250 Y67.500
G1 X88.250 Y67.250
G1 X88.500 Y67.250
G0 Z2.000 F3000
M400
M204 P600 T600
G1 F1300
G0 X87.500 Y71.750 Z2.000
M400
M204 P200 T200
G1 F600
G1 Z0.000 F2500
G1 X87.250 Y72.000
G1 X87.000 Y72.000
G1 X87.000 Y72.250
G1 X86.750 Y72.500
G1 X86.500 Y72.500
G0 Z2.000 F3000
M400
M204 P600 T600
G1 F1300
G0 X88.500 Y74.250 Z2.000
M400
M204 P200 T200
G1 F600
G1 Z0.000 F2500
G1 X88.750 Y74.000
G1 X88.750 Y73.750
G1 X89.000 Y73.750
G1 X89.250 Y73.500
G0 Z2.000 F3000
M400
M204 P600 T600
G1 F1300
G0 X87.500 Y75.000 Z2.000
M400
M204 P200 T200
G1 F600
G1 Z0.000 F2500
G1 X87.500 Y75.250
G1 X87.250 Y75.500
G0 Z2.000 F3000
M400
M204 P600 T600
G1 F1300
G0 X86.250 Y76.250 Z2.000
M400
M204 P200 T200
G1 F600
G1 Z0.000 F2500
G1 X86.250 Y76.500
G1 X86.000 Y76.750
G1 X85.750 Y76.750
G0 Z2.000 F3000
M400
M204 P600 T600
G1 F1300
G0 X85.500 Y77.250 Z2.000
M400
M204 P200 T200
G1 F600
G1 Z0.000 F2500
G1 X85.250 Y77.500
G1 X85.250 Y77.500
G1 X85.000 Y77.750
G1 X84.750 Y78.000
G0 Z2.000 F3000
M400
M204 P600 T600
G1 F1300
G0 X84.500 Y78.250 Z2.000
M400
M204 P200 T200
G1 F600
G1 Z0.000 F2500
G1 X84.250 Y78.500
G0 Z2.000 F3000
M400
M204 P600 T600
G1 F1300
G0 X83.750 Y79.000 Z2.000
M400
M204 P200 T200
G1 F600
G1 Z0.000 F2500
G1 X83.500 Y79.250
G0 Z2.000 F3000
M400
M204 P600 T600
G1 F1300
G0 X82.500 Y80.250 Z2.000
M400
M204 P200 T200
G1 F600
G1 Z0.000 F2500
G1 X82.250 Y80.500
G0 Z2.000 F3000
M400
M204 P600 T600
G1 F1300
G0 X82.000 Y80.750 Z2.000
M400
M204 P200 T200
G1 F600
G1 Z0.000 F2500
G1 X81.750 Y81.000
G1 X81.500 Y81.000
G1 X81.500 Y81.250
G1 X81.250 Y81.500
G1 X81.000 Y81.750
G1 X81.000 Y81.750
G1 X80.750 Y82.000
G0 Z2.000 F3000
M400
M204 P600 T600
G1 F1300
G0 X82.000 Y84.000 Z2.000
M400
M204 P200 T200
G1 F600
G1 Z0.000 F2500
G1 X82.000 Y84.250
G0 Z2.000 F3000
M400
M204 P600 T600
G1 F1300
G0 X80.250 Y86.000 Z2.000
M400
M204 P200 T200
G1 F600
G1 Z0.000 F2500
G1 X80.250 Y86.000
G0 Z2.000 F3000
M400
M204 P600 T600
G1 F1300
G0 X81.000 Y89.000 Z2.000
M400
M204 P200 T200
G1 F600
G1 Z0.000 F2500
G1 X80.750 Y89.000
G1 X80.500 Y89.250
G0 Z2.000 F3000
M400
M204 P600 T600
G1 F1300
G0 X84.000 Y89.250 Z2.000
M400
M204 P200 T200
G1 F600
G1 Z0.000 F2500
G1 X84.250 Y89.000
G1 X84.500 Y89.000
G1 X84.500 Y88.750
G0 Z2.000 F3000
M400
M204 P600 T600
G1 F1300
G0 X85.250 Y88.250 Z2.000
M400
M204 P200 T200
G1 F600
G1 Z0.000 F2500
G1 X85.250 Y88.000
G1 X85.500 Y87.750
G1 X85.750 Y87.750
G1 X85.750 Y87.500
G0 Z2.000 F3000
M400
M204 P600 T600
G1 F1300
G0 X84.500 Y85.250 Z2.000
M400
M204 P200 T200
G1 F600
G1 Z0.000 F2500
G1 X84.500 Y85.250
G0 Z2.000 F3000
M400
M204 P600 T600
G1 F1300
G0 X86.250 Y83.500 Z2.000
M400
M204 P200 T200
G1 F600
G1 Z0.000 F2500
G1 X86.250 Y83.500
G1 X86.500 Y83.250
G0 Z2.000 F3000
M400
M204 P600 T600
G1 F1300
G0 X87.750 Y82.000 Z2.000
M400
M204 P200 T200
G1 F600
G1 Z0.000 F2500
G1 X88.000 Y81.750
G1 X88.250 Y81.750
G1 X88.250 Y81.500
G1 X88.500 Y81.250
G1 X88.750 Y81.000
G1 X88.750 Y81.000
G0 Z2.000 F3000
M400
M204 P600 T600
G1 F1300
G0 X90.500 Y82.750 Z2.000
M400
M204 P200 T200
G1 F600
G1 Z0.000 F2500
G1 X90.500 Y82.750
G1 X90.750 Y82.500
G1 X91.000 Y82.250
G1 X91.250 Y82.250
G1 X91.250 Y82.000
G1 X91.500 Y81.750
G0 Z2.000 F3000
M400
M204 P600 T600
G1 F1300
G0 X91.750 Y81.500 Z2.000
M400
M204 P200 T200
G1 F600
G1 Z0.000 F2500
G1 X92.000 Y81.250
G1 X92.250 Y81.000
G1 X92.500 Y81.000
G0 Z2.000 F3000
M400
M204 P600 T600
G1 F1300
G0 X92.750 Y80.500 Z2.000
M400
M204 P200 T200
G1 F600
G1 Z0.000 F2500
G1 X93.000 Y80.500
G1 X93.000 Y80.250
G1 X93.250 Y80.000
G1 X93.500 Y79.750
G1 X93.500 Y79.750
G1 X93.750 Y79.500
G1 X94.000 Y79.250
G1 X94.250 Y79.250
G0 Z2.000 F3000
M400
M204 P600 T600
G1 F1300
G0 X90.750 Y79.000 Z2.000
M400
M204 P200 T200
G1 F600
G1 Z0.000 F2500
G1 X90.500 Y79.250
G1 X90.500 Y79.250
G0 Z2.000 F3000
M400
M204 P600 T600
G1 F1300
G0 X89.000 Y77.250 Z2.000
M400
M204 P200 T200
G1 F600
G1 Z0.000 F2500
G1 X89.250 Y77.000
G1 X89.250 Y76.750
G1 X89.500 Y76.750
G1 X89.750 Y76.500
G1 X90.000 Y76.250
G1 X90.000 Y76.250
G1 X90.250 Y76.000
G1 X90.500 Y75.750
G1 X90.500 Y75.500
G1 X90.750 Y75.500
G1 X91.000 Y75.250
G1 X91.250 Y75.000
G1 X91.250 Y75.000
G1 X91.500 Y74.750
G0 Z2.000 F3000
M400
M204 P600 T600
G1 F1300
G0 X87.750 Y78.500 Z2.000
M400
M204 P200 T200
G1 F600
G1 Z0.000 F2500
G1 X87.500 Y78.750
G1 X87.500 Y78.750
G1 X87.250 Y79.000
G0 Z2.000 F3000
M400
M204 P600 T600
G1 F1300
G0 X86.750 Y79.500 Z2.000
M400
M204 P200 T200
G1 F600
G1 Z0.000 F2500
G1 X86.500 Y79.750
G1 X86.250 Y79.750
G1 X86.250 Y80.000
G1 X86.000 Y80.250
G1 X85.750 Y80.500
G1 X85.750 Y80.500
G1 X85.500 Y80.750
G0 Z2.000 F3000
M400
M204 P600 T600
G1 F1300
G0 X83.250 Y76.000 Z2.000
M400
M204 P200 T200
G1 F600
G1 Z0.000 F2500
G1 X83.250 Y75.750
G1 X83.500 Y75.500
G0 Z2.000 F3000
M400
M204 P600 T600
G1 F1300
G0 X84.000 Y75.000 Z2.000
M400
M204 P200 T200
G1 F600
G1 Z0.000 F2500
G1 X84.250 Y75.000
G1 X84.500 Y74.750
G0 Z2.000 F3000
M400
M204 P600 T600
G1 F1300
G0 X81.000 Y71.250 Z2.000
M400
M204 P200 T200
G1 F600
G1 Z0.000 F2500
G1 X81.000 Y71.000
G1 X81.250 Y70.750
G1 X81.500 Y70.750
G1 X81.500 Y70.500
G1 X81.750 Y70.250
G1 X82.000 Y70.250
G1 X82.000 Y70.000
G1 X82.250 Y69.750
G1 X82.500 Y69.500
G1 X82.750 Y69.500
G1 X82.750 Y69.250
G0 Z2.000 F3000
M400
M204 P600 T600
G1 F1300
G0 X78.750 Y66.250 Z2.000
M400
M204 P200 T200
G1 F600
G1 Z0.000 F2500
G1 X78.500 Y66.500
G1 X78.500 Y66.500
G1 X78.250 Y66.750
G1 X78.000 Y67.000
G1 X78.000 Y67.250
G1 X77.750 Y67.250
G1 X77.500 Y67.500
G0 Z2.000 F3000
M400
M204 P600 T600
G1 F1300
G0 X74.000 Y64.000 Z2.000
M400
M204 P200 T200
G1 F600
G1 Z0.000 F2500
G1 X73.750 Y64.250
G1 X73.750 Y64.250
G0 Z2.000 F3000
M400
M204 P600 T600
G1 F1300
G0 X72.000 Y62.250 Z2.000
M400
M204 P200 T200
G1 F600
G1 Z0.000 F2500
G1 X71.750 Y62.500
G1 X71.750 Y62.750
G1 X71.500 Y63.000
G1 X71.250 Y63.000
G1 X71.250 Y63.250
G1 X71.000 Y63.500
G1 X70.750 Y63.500
G1 X70.750 Y63.750
G1 X70.500 Y64.000
G1 X70.250 Y64.250
G1 X70.000 Y64.250
G1 X70.000 Y64.500
G1 X69.750 Y64.750
G1 X69.500 Y64.750
G1 X69.500 Y65.000
G1 X69.250 Y65.250
G0 Z2.000 F3000
M400
M204 P600 T600
G1 F1300
G0 X70.750 Y60.000 Z2.000
M400
M204 P200 T200
G1 F600
G1 Z0.000 F2500
G1 X71.000 Y60.000
G1 X71.250 Y59.750
G1 X71.250 Y59.500
G0 Z2.000 F3000
M400
M204 P600 T600
G1 F1300
G0 X70.250 Y60.500 Z2.000
M400
M204 P200 T200
G1 F600
G1 Z0.000 F2500
G1 X70.000 Y60.750
G1 X70.000 Y61.000
G1 X69.750 Y61.250
G1 X69.500 Y61.250
G1 X69.500 Y61.500
G1 X69.250 Y61.750
G1 X69.000 Y61.750
G1 X68.750 Y62.000
G0 Z2.000 F3000
M400
M204 P600 T600
G1 F1300
G0 X67.000 Y60.500 Z2.000
M400
M204 P200 T200
G1 F600
G1 Z0.000 F2500
G1 X67.000 Y60.250
G1 X67.250 Y60.000
G1 X67.500 Y60.000
G1 X67.750 Y59.750
G1 X67.750 Y59.500
G1 X68.000 Y59.250
G1 X68.250 Y59.250
G1 X68.250 Y59.000
G1 X68.500 Y58.750
G1 X68.750 Y58.750
G1 X68.750 Y58.500
G1 X69.000 Y58.250
G1 X69.250 Y58.000
G1 X69.500 Y58.000
G1 X69.500 Y57.750
G1 X69.750 Y57.500
G1 X70.000 Y57.500
G1 X70.000 Y57.250
G1 X70.250 Y57.000
G1 X70.500 Y57.000
G1 X70.750 Y56.750
G1 X70.750 Y56.500
G0 Z2.000 F3000
M400
M204 P600 T600
G1 F1300
G0 X69.500 Y54.250 Z2.000
M400
M204 P200 T200
G1 F600
G1 Z0.000 F2500
G1 X69.500 Y54.500
G1 X69.250 Y54.500
G1 X69.000 Y54.750
G1 X68.750 Y55.000
G1 X68.750 Y55.000
G1 X68.500 Y55.250
G1 X68.250 Y55.500
G1 X68.250 Y55.750
G0 Z2.000 F3000
M400
M204 P600 T600
G1 F1300
G0 X64.250 Y56.000 Z2.000
M400
M204 P200 T200
G1 F600
G1 Z0.000 F2500
G1 X64.500 Y55.750
G1 X64.500 Y55.750
G1 X64.750 Y55.500
G1 X65.000 Y55.250
G1 X65.250 Y55.000
G1 X65.250 Y55.000
G1 X65.500 Y54.750
G1 X65.750 Y54.500
G1 X65.750 Y54.500
G1 X66.000 Y54.250
G1 X66.250 Y54.000
G1 X66.500 Y54.000
G1 X66.500 Y53.750
G1 X66.750 Y53.500
G1 X67.000 Y53.250
G1 X67.000 Y53.250
G1 X67.250 Y53.000
G1 X67.500 Y52.750
G1 X67.750 Y52.750
G1 X67.750 Y52.500
G1 X68.000 Y52.250
G1 X68.250 Y52.000
G1 X68.250 Y52.000
G1 X68.500 Y51.750
G1 X68.750 Y51.500
G1 X68.750 Y51.500
G1 X69.000 Y51.250
G1 X69.250 Y51.000
G1 X69.500 Y50.750
G1 X69.500 Y50.750
G1 X69.750 Y50.500
G1 X70.000 Y50.250
G1 X70.000 Y50.250
G1 X70.250 Y50.000
G1 X70.500 Y49.750
G1 X70.750 Y49.750
G1 X70.750 Y49.500
G1 X71.000 Y49.250
G1 X71.250 Y49.000
G1 X71.250 Y49.000
G1 X71.500 Y48.750
G1 X71.750 Y48.500
G1 X71.750 Y48.500
G1 X72.000 Y48.250
G1 X72.250 Y48.000
G0 Z2.000 F3000
M400
M204 P600 T600
G1 F1300
G0 X60.250 Y53.000 Z2.000
M400
M204 P200 T200
G1 F600
G1 Z0.000 F2500
G1 X60.000 Y53.250
G1 X59.750 Y53.250
G1 X59.750 Y53.500
G1 X59.500 Y53.750
G0 Z2.000 F3000
M400
M204 P600 T600
G1 F1300
G0 X60.750 Y56.000 Z2.000
M400
M204 P200 T200
G1 F600
G1 Z0.000 F2500
G1 X60.500 Y56.250
G1 X60.500 Y56.250
G1 X60.250 Y56.500
G1 X60.000 Y56.750
G1 X59.750 Y57.000
G1 X59.750 Y57.000
G1 X59.500 Y57.250
G0 Z2.000 F3000
M400
M204 P600 T600
G1 F1300
G0 X62.500 Y61.250 Z2.000
M400
M204 P200 T200
G1 F600
G1 Z0.000 F2500
G1 X62.750 Y61.250
G1 X62.750 Y61.000
G1 X63.000 Y60.750
G1 X63.250 Y60.500
G1 X63.500 Y60.500
G1 X63.500 Y60.250
G1 X63.750 Y60.000
G1 X64.000 Y60.000
G1 X64.000 Y59.750
G1 X64.250 Y59.500
G1 X64.500 Y59.250
G1 X64.500 Y59.250
G1 X64.750 Y59.000
G1 X65.000 Y58.750
G1 X65.250 Y58.750
G1 X65.250 Y58.500
G1 X65.500 Y58.250
G1 X65.750 Y58.000
G1 X65.750 Y58.000
G1 X66.000 Y57.750
G1 X66.250 Y57.500
G1 X66.500 Y57.500
G1 X66.500 Y57.250
G1 X66.750 Y57.000
G1 X67.000 Y57.000
G1 X67.000 Y56.750
G1 X67.250 Y56.500
G1 X67.500 Y56.250
G1 X67.750 Y56.250
G1 X67.750 Y56.000
G0 Z2.000 F3000
M400
M204 P600 T600
G1 F1300
G0 X66.500 Y60.750 Z2.000
M400
M204 P200 T200
G1 F600
G1 Z0.000 F2500
G1 X66.500 Y61.000
G0 Z2.000 F3000
M400
M204 P600 T600
G1 F1300
G0 X65.250 Y62.000 Z2.000
M400
M204 P200 T200
G1 F600
G1 Z0.000 F2500
G1 X65.250 Y62.250
G0 Z2.000 F3000
M400
M204 P600 T600
G1 F1300
G0 X67.500 Y63.500 Z2.000
M400
M204 P200 T200
G1 F600
G1 Z0.000 F2500
G1 X67.750 Y63.250
G1 X67.750 Y63.000
G1 X68.000 Y63.000
G0 Z2.000 F3000
M400
M204 P600 T600
G1 F1300
G0 X68.750 Y65.500 Z2.000
M400
M204 P200 T200
G1 F600
G1 Z0.000 F2500
G1 X68.750 Y65.750
G1 X68.500 Y66.000
G1 X68.250 Y66.000
G1 X68.250 Y66.250
G1 X68.000 Y66.500
G1 X67.750 Y66.500
G1 X67.750 Y66.750
G0 Z2.000 F3000
M400
M204 P600 T600
G1 F1300
G0 X66.500 Y64.500 Z2.000
M400
M204 P200 T200
G1 F600
G1 Z0.000 F2500
G1 X66.250 Y64.750
G1 X66.000 Y64.750
G1 X65.750 Y65.000
G1 X65.750 Y65.250
G1 X65.500 Y65.250
G1 X65.250 Y65.500
G1 X65.250 Y65.750
G1 X65.000 Y66.000
G0 Z2.000 F3000
M400
M204 P600 T600
G1 F1300
G0 X67.000 Y67.250 Z2.000
M400
M204 P200 T200
G1 F600
G1 Z0.000 F2500
G1 X67.000 Y67.500
G1 X66.750 Y67.750
G1 X66.500 Y67.750
G1 X66.500 Y68.000
G1 X66.250 Y68.250
G1 X66.000 Y68.500
G1 X65.750 Y68.500
G1 X65.750 Y68.750
G1 X65.500 Y69.000
G1 X65.250 Y69.000
G1 X65.250 Y69.250
G1 X65.000 Y69.500
G0 Z2.000 F3000

; --- CIKEL NAMAKANJA ---
G0 Z2.000 F3000
M400
M204 P600 T600
G1 F1300
G0 X62.897 Y4.671 Z8.000
G1 Z1.000 F3000
G1 X62.897 Y4.671 F2500
G1 X62.897 Y6.421 F2500
G1 X59.397 Y4.671 F2500
G1 X62.897 Y0.000 F2500
G0 Z3.000 F3000
G0 X60.649 Y19.932
G0 Z8.000 F3000
G0 X64.750 Y69.500 Z2.000
M400
M204 P200 T200
G1 F600
G1 Z0.000 F2500
G1 X64.750 Y69.500
G1 X64.500 Y69.750
G1 X64.500 Y70.000
G0 Z2.000 F3000
M400
M204 P600 T600
G1 F1300
G0 X67.500 Y70.500 Z2.000
M400
M204 P200 T200
G1 F600
G1 Z0.000 F2500
G1 X67.750 Y70.250
G1 X67.750 Y70.250
G1 X68.000 Y70.000
G1 X68.250 Y69.750
G1 X68.250 Y69.500
G1 X68.500 Y69.500
G1 X68.750 Y69.250
G1 X68.750 Y69.000
G1 X69.000 Y69.000
G1 X69.250 Y68.750
G1 X69.500 Y68.500
G1 X69.500 Y68.500
G1 X69.750 Y68.250
G1 X70.000 Y68.000
G1 X70.000 Y67.750
G1 X70.250 Y67.750
G1 X70.500 Y67.500
G1 X70.750 Y67.250
G1 X70.750 Y67.250
G1 X71.000 Y67.000
G1 X71.250 Y66.750
G1 X71.250 Y66.500
G1 X71.500 Y66.500
G1 X71.750 Y66.250
G1 X71.750 Y66.000
G1 X72.000 Y66.000
G1 X72.250 Y65.750
G1 X72.500 Y65.500
G1 X72.500 Y65.250
G1 X72.750 Y65.250
G1 X73.000 Y65.000
G1 X73.000 Y64.750
G1 X73.250 Y64.750
G0 Z2.000 F3000
M400
M204 P600 T600
G1 F1300
G0 X72.500 Y69.000 Z2.000
M400
M204 P200 T200
G1 F600
G1 Z0.000 F2500
G1 X72.500 Y69.000
G1 X72.750 Y68.750
G1 X73.000 Y68.500
G1 X73.000 Y68.500
G1 X73.250 Y68.250
G1 X73.500 Y68.000
G1 X73.750 Y67.750
G1 X73.750 Y67.750
G1 X74.000 Y67.500
G1 X74.250 Y67.250
G1 X74.250 Y67.250
G1 X74.500 Y67.000
G1 X74.750 Y66.750
G1 X75.000 Y66.500
G1 X75.000 Y66.500
G1 X75.250 Y66.250
G1 X75.500 Y66.000
G1 X75.500 Y66.000
G1 X75.750 Y65.750
G1 X76.000 Y65.500
G1 X76.000 Y65.250
G1 X76.250 Y65.250
G1 X76.500 Y65.000
G1 X76.750 Y64.750
G1 X76.750 Y64.750
G1 X77.000 Y64.500
G1 X77.250 Y64.250
G1 X77.250 Y64.250
G1 X77.500 Y64.000
G1 X77.750 Y63.750
G1 X78.000 Y63.500
G1 X78.000 Y63.500
G1 X78.250 Y63.250
G1 X78.500 Y63.000
G1 X78.500 Y63.000
G1 X78.750 Y62.750
G1 X79.000 Y62.500
G1 X79.000 Y62.250
G1 X79.250 Y62.250
G1 X79.500 Y62.000
G1 X79.750 Y61.750
G1 X79.750 Y61.750
G1 X80.000 Y61.500
G0 Z2.000 F3000
M400
M204 P600 T600
G1 F1300
G0 X77.000 Y68.000 Z2.000
M400
M204 P200 T200
G1 F600
G1 Z0.000 F2500
G1 X76.750 Y68.250
G1 X76.750 Y68.500
G1 X76.500 Y68.500
G1 X76.250 Y68.750
G1 X76.000 Y69.000
G1 X76.000 Y69.000
G1 X75.750 Y69.250
G1 X75.500 Y69.500
G1 X75.500 Y69.500
G1 X75.250 Y69.750
G1 X75.000 Y70.000
G1 X75.000 Y70.250
G0 Z2.000 F3000
M400
M204 P600 T600
G1 F1300
G0 X76.500 Y72.000 Z2.000
M400
M204 P200 T200
G1 F600
G1 Z0.000 F2500
G1 X76.750 Y72.000
G1 X76.750 Y71.750
G1 X77.000 Y71.500
G1 X77.250 Y71.500
G1 X77.250 Y71.250
G1 X77.500 Y71.000
G1 X77.750 Y70.750
G1 X78.000 Y70.750
G1 X78.000 Y70.500
G1 X78.250 Y70.250
G1 X78.500 Y70.250
G1 X78.500 Y70.000
G1 X78.750 Y69.750
G1 X79.000 Y69.500
G1 X79.000 Y69.500
G1 X79.250 Y69.250
G1 X79.500 Y69.000
G1 X79.750 Y69.000
G1 X79.750 Y68.750
G1 X80.000 Y68.500
G1 X80.250 Y68.500
G1 X80.250 Y68.250
G0 Z2.000 F3000
M400
M204 P600 T600
G1 F1300
G0 X74.000 Y71.000 Z2.000
M400
M204 P200 T200
G1 F600
G1 Z0.000 F2500
G1 X73.750 Y71.250
G0 Z2.000 F3000
M400
M204 P600 T600
G1 F1300
G0 X72.000 Y69.500 Z2.000
M400
M204 P200 T200
G1 F600
G1 Z0.000 F2500
G1 X71.750 Y69.500
G1 X71.750 Y69.750
G1 X71.500 Y70.000
G1 X71.250 Y70.250
G1 X71.250 Y70.250
G1 X71.000 Y70.500
G1 X70.750 Y70.750
G1 X70.750 Y70.750
G1 X70.500 Y71.000
G0 Z2.000 F3000
M400
M204 P600 T600
G1 F1300
G0 X70.000 Y71.500 Z2.000
M400
M204 P200 T200
G1 F600
G1 Z0.000 F2500
G1 X70.000 Y71.500
G0 Z2.000 F3000
M400
M204 P600 T600
G1 F1300
G0 X73.250 Y75.250 Z2.000
M400
M204 P200 T200
G1 F600
G1 Z0.000 F2500
G1 X73.000 Y75.500
G1 X73.000 Y75.500
G1 X72.750 Y75.750
G1 X72.500 Y76.000
G1 X72.500 Y76.250
G1 X72.250 Y76.250
G1 X72.000 Y76.500
G1 X71.750 Y76.750
G1 X71.750 Y76.750
G0 Z2.000 F3000
M400
M204 P600 T600
G1 F1300
G0 X75.500 Y76.500 Z2.000
M400
M204 P200 T200
G1 F600
G1 Z0.000 F2500
G1 X75.750 Y76.250
G0 Z2.000 F3000
M400
M204 P600 T600
G1 F1300
G0 X77.250 Y75.000 Z2.000
M400
M204 P200 T200
G1 F600
G1 Z0.000 F2500
G1 X77.250 Y74.750
G1 X77.500 Y74.500
G1 X77.750 Y74.500
G1 X78.000 Y74.250
G1 X78.000 Y74.000
G1 X78.250 Y73.750
G1 X78.500 Y73.750
G1 X78.500 Y73.500
G1 X78.750 Y73.250
G1 X79.000 Y73.250
G1 X79.000 Y73.000
G1 X79.250 Y72.750
G0 Z2.000 F3000
M400
M204 P600 T600
G1 F1300
G0 X79.000 Y76.500 Z2.000
M400
M204 P200 T200
G1 F600
G1 Z0.000 F2500
G1 X79.250 Y76.250
G1 X79.500 Y76.250
G1 X79.750 Y76.000
G1 X79.750 Y75.750
G1 X80.000 Y75.500
G1 X80.250 Y75.500
G1 X80.250 Y75.250
G1 X80.500 Y75.000
G1 X80.750 Y75.000
G1 X81.000 Y74.750
G1 X81.000 Y74.500
G1 X81.250 Y74.500
G1 X81.500 Y74.250
G1 X81.500 Y74.000
G1 X81.750 Y73.750
G1 X82.000 Y73.750
G1 X82.000 Y73.500
G1 X82.250 Y73.250
G1 X82.500 Y73.250
G1 X82.750 Y73.000
G1 X82.750 Y72.750
G1 X83.000 Y72.500
G1 X83.250 Y72.500
G1 X83.250 Y72.250
G1 X83.500 Y72.000
G1 X83.750 Y72.000
G1 X84.000 Y71.750
G1 X84.000 Y71.500
G1 X84.250 Y71.500
G1 X84.500 Y71.250
G0 Z2.000 F3000
M400
M204 P600 T600
G1 F1300
G0 X78.250 Y77.500 Z2.000
M400
M204 P200 T200
G1 F600
G1 Z0.000 F2500
G1 X78.000 Y77.500
G1 X78.000 Y77.750
G1 X77.750 Y78.000
G1 X77.500 Y78.000
G1 X77.250 Y78.250
G1 X77.250 Y78.500
G1 X77.000 Y78.750
G1 X76.750 Y78.750
G1 X76.750 Y79.000
G1 X76.500 Y79.250
G1 X76.250 Y79.250
G1 X76.000 Y79.500
G1 X76.000 Y79.750
G1 X75.750 Y79.750
G0 Z2.000 F3000
M400
M204 P600 T600
G1 F1300
G0 X77.750 Y81.500 Z2.000
M400
M204 P200 T200
G1 F600
G1 Z0.000 F2500
G1 X78.000 Y81.250
G1 X78.000 Y81.000
G1 X78.250 Y81.000
G1 X78.500 Y80.750
G1 X78.500 Y80.500
G1 X78.750 Y80.500
G1 X79.000 Y80.250
G1 X79.000 Y80.000
G1 X79.250 Y79.750
G1 X79.500 Y79.750
G1 X79.750 Y79.500
G1 X79.750 Y79.250
G1 X80.000 Y79.250
G1 X80.250 Y79.000
G1 X80.250 Y78.750
G1 X80.500 Y78.750
G1 X80.750 Y78.500
G1 X81.000 Y78.250
G1 X81.000 Y78.000
G1 X81.250 Y78.000
G1 X81.500 Y77.750
G1 X81.500 Y77.500
G1 X81.750 Y77.500
G0 Z2.000 F3000
M400
M204 P600 T600
G1 F1300
G0 X74.250 Y77.750 Z2.000
M400
M204 P200 T200
G1 F600
G1 Z0.000 F2500
G1 X74.250 Y78.000
G1 X74.000 Y78.000
G1 X73.750 Y78.250
G1 X73.750 Y78.500
G1 X73.500 Y78.750
G0 Z2.000 F3000
M400
M204 P600 T600
G1 F1300
G0 X73.000 Y79.000 Z2.000
M400
M204 P200 T200
G1 F600
G1 Z0.000 F2500
G1 X73.000 Y79.250
G1 X72.750 Y79.250
G0 Z2.000 F3000
M400
M204 P600 T600
G1 F1300
G0 X72.500 Y79.750 Z2.000
M400
M204 P200 T200
G1 F600
G1 Z0.000 F2500
G1 X72.250 Y79.750
G0 Z2.000 F3000
M400
M204 P600 T600
G1 F1300
G0 X71.500 Y80.500 Z2.000
M400
M204 P200 T200
G1 F600
G1 Z0.000 F2500
G1 X71.250 Y80.750
G0 Z2.000 F3000
M400
M204 P600 T600
G1 F1300
G0 X70.500 Y81.750 Z2.000
M400
M204 P200 T200
G1 F600
G1 Z0.000 F2500
G1 X70.250 Y81.750
G0 Z2.000 F3000
M400
M204 P600 T600
G1 F1300
G0 X72.250 Y83.500 Z2.000
M400
M204 P200 T200
G1 F600
G1 Z0.000 F2500
G1 X72.500 Y83.250
G1 X72.500 Y83.000
G1 X72.750 Y82.750
G1 X73.000 Y82.750
G1 X73.000 Y82.500
G1 X73.250 Y82.250
G1 X73.500 Y82.250
G1 X73.750 Y82.000
G0 Z2.000 F3000
M400
M204 P600 T600
G1 F1300
G0 X74.250 Y81.500 Z2.000
M400
M204 P200 T200
G1 F600
G1 Z0.000 F2500
G1 X74.250 Y81.250
G0 Z2.000 F3000
M400
M204 P600 T600
G1 F1300
G0 X75.500 Y83.750 Z2.000
M400
M204 P200 T200
G1 F600
G1 Z0.000 F2500
G1 X75.500 Y83.500
G1 X75.750 Y83.500
G1 X76.000 Y83.250
G1 X76.000 Y83.000
G1 X76.250 Y82.750
G1 X76.500 Y82.750
G1 X76.750 Y82.500
G1 X76.750 Y82.250
G1 X77.000 Y82.250
G0 Z2.000 F3000
M400
M204 P600 T600
G1 F1300
G0 X74.750 Y84.500 Z2.000
M400
M204 P200 T200
G1 F600
G1 Z0.000 F2500
G1 X74.500 Y84.750
G1 X74.250 Y84.750
G0 Z2.000 F3000
M400
M204 P600 T600
G1 F1300
G0 X73.500 Y85.750 Z2.000
M400
M204 P200 T200
G1 F600
G1 Z0.000 F2500
G1 X73.250 Y86.000
G0 Z2.000 F3000
M400
M204 P600 T600
G1 F1300
G0 X73.000 Y86.250 Z2.000
M400
M204 P200 T200
G1 F600
G1 Z0.000 F2500
G1 X72.750 Y86.500
G0 Z2.000 F3000
M400
M204 P600 T600
G1 F1300
G0 X75.000 Y87.750 Z2.000
M400
M204 P200 T200
G1 F600
G1 Z0.000 F2500
G1 X75.000 Y87.750
G0 Z2.000 F3000
M400
M204 P600 T600
G1 F1300
G0 X76.000 Y86.500 Z2.000
M400
M204 P200 T200
G1 F600
G1 Z0.000 F2500
G1 X76.250 Y86.500
G0 Z2.000 F3000
M400
M204 P600 T600
G1 F1300
G0 X78.000 Y88.250 Z2.000
M400
M204 P200 T200
G1 F600
G1 Z0.000 F2500
G1 X78.000 Y88.250
G1 X77.750 Y88.500
G0 Z2.000 F3000
M400
M204 P600 T600
G1 F1300
G0 X77.250 Y89.000 Z2.000
M400
M204 P200 T200
G1 F600
G1 Z0.000 F2500
G1 X77.250 Y89.000
G1 X77.000 Y89.250
G0 Z2.000 F3000
M400
M204 P600 T600
G1 F1300
G0 X76.250 Y90.000 Z2.000
M400
M204 P200 T200
G1 F600
G1 Z0.000 F2500
G1 X76.000 Y90.000
G0 Z2.000 F3000
M400
M204 P600 T600
G1 F1300
G0 X77.750 Y92.000 Z2.000
M400
M204 P200 T200
G1 F600
G1 Z0.000 F2500
G1 X78.000 Y92.000
G1 X78.000 Y91.750
G0 Z2.000 F3000
M400
M204 P600 T600
G1 F1300
G0 X76.750 Y93.000 Z2.000
M400
M204 P200 T200
G1 F600
G1 Z0.000 F2500
G1 X76.750 Y93.000
G0 Z2.000 F3000
M400
M204 P600 T600
G1 F1300
G0 X78.000 Y95.250 Z2.000
M400
M204 P200 T200
G1 F600
G1 Z0.000 F2500
G1 X78.000 Y95.500
G1 X77.750 Y95.500
G0 Z2.000 F3000
M400
M204 P600 T600
G1 F1300
G0 X77.250 Y96.000 Z2.000
M400
M204 P200 T200
G1 F600
G1 Z0.000 F2500
G1 X77.250 Y96.250
G0 Z2.000 F3000
M400
M204 P600 T600
G1 F1300
G0 X81.250 Y95.500 Z2.000
M400
M204 P200 T200
G1 F600
G1 Z0.000 F2500
G1 X81.500 Y95.500
G0 Z2.000 F3000
M400
M204 P600 T600
G1 F1300
G0 X82.500 Y94.250 Z2.000
M400
M204 P200 T200
G1 F600
G1 Z0.000 F2500
G1 X82.750 Y94.250
G0 Z2.000 F3000
M400
M204 P600 T600
G1 F1300
G0 X83.250 Y93.500 Z2.000
M400
M204 P200 T200
G1 F600
G1 Z0.000 F2500
G1 X83.500 Y93.250
G1 X83.750 Y93.000
G0 Z2.000 F3000
M400
M204 P600 T600
G1 F1300
G0 X85.250 Y91.750 Z2.000
M400
M204 P200 T200
G1 F600
G1 Z0.000 F2500
G1 X85.250 Y91.500
G1 X85.500 Y91.250
G1 X85.750 Y91.250
G0 Z2.000 F3000
M400
M204 P600 T600
G1 F1300
G0 X86.250 Y90.500 Z2.000
M400
M204 P200 T200
G1 F600
G1 Z0.000 F2500
G1 X86.500 Y90.250
G1 X86.750 Y90.000
G1 X87.000 Y90.000
G1 X87.000 Y89.750
G1 X87.250 Y89.500
G1 X87.500 Y89.500
G0 Z2.000 F3000
M400
M204 P600 T600
G1 F1300
G0 X88.750 Y91.750 Z2.000
M400
M204 P200 T200
G1 F600
G1 Z0.000 F2500
G1 X88.750 Y91.500
G1 X89.000 Y91.250
G1 X89.250 Y91.250
G1 X89.250 Y91.000
G1 X89.500 Y90.750
G1 X89.750 Y90.750
G1 X90.000 Y90.500
G0 Z2.000 F3000
M400
M204 P600 T600
G1 F1300
G0 X91.250 Y89.250 Z2.000
M400
M204 P200 T200
G1 F600
G1 Z0.000 F2500
G1 X91.250 Y89.000
G1 X91.500 Y89.000
G1 X91.750 Y88.750
G0 Z2.000 F3000
M400
M204 P600 T600
G1 F1300
G0 X93.000 Y87.500 Z2.000
M400
M204 P200 T200
G1 F600
G1 Z0.000 F2500
G1 X93.000 Y87.250
G1 X93.250 Y87.000
G0 Z2.000 F3000
M400
M204 P600 T600
G1 F1300
G0 X94.750 Y89.000 Z2.000
M400
M204 P200 T200
G1 F600
G1 Z0.000 F2500
G1 X95.000 Y89.000
G0 Z2.000 F3000
M400
M204 P600 T600
G1 F1300
G0 X95.500 Y88.500 Z2.000
M400
M204 P200 T200
G1 F600
G1 Z0.000 F2500
G1 X95.500 Y88.250
G1 X95.750 Y88.250
G1 X96.000 Y88.000
G0 Z2.000 F3000
M400
M204 P600 T600
G1 F1300
G0 X97.250 Y86.500 Z2.000
M400
M204 P200 T200
G1 F600
G1 Z0.000 F2500
G1 X97.500 Y86.500
G1 X97.750 Y86.250
G1 X97.750 Y86.000
G1 X98.000 Y86.000
G0 Z2.000 F3000
M400
M204 P600 T600
G1 F1300
G0 X96.250 Y84.000 Z2.000
M400
M204 P200 T200
G1 F600
G1 Z0.000 F2500
G1 X96.000 Y84.250
G1 X96.000 Y84.500
G1 X95.750 Y84.750
G1 X95.500 Y84.750
G0 Z2.000 F3000
M400
M204 P600 T600
G1 F1300
G0 X93.500 Y83.500 Z2.000
M400
M204 P200 T200
G1 F600
G1 Z0.000 F2500
G1 X93.500 Y83.250
G1 X93.750 Y83.000
G1 X94.000 Y82.750
G0 Z2.000 F3000
M400
M204 P600 T600
G1 F1300
G0 X93.000 Y84.000 Z2.000
M400
M204 P200 T200
G1 F600
G1 Z0.000 F2500
G1 X92.750 Y84.000
G0 Z2.000 F3000
M400
M204 P600 T600
G1 F1300
G0 X91.500 Y85.250 Z2.000
M400
M204 P200 T200
G1 F600
G1 Z0.000 F2500
G1 X91.250 Y85.500
G0 Z2.000 F3000
M400
M204 P600 T600
G1 F1300
G0 X91.000 Y86.000 Z2.000
M400
M204 P200 T200
G1 F600
G1 Z0.000 F2500
G1 X90.750 Y86.000
G0 Z2.000 F3000
M400
M204 P600 T600
G1 F1300
G0 X89.250 Y84.000 Z2.000
M400
M204 P200 T200
G1 F600
G1 Z0.000 F2500
G1 X89.250 Y84.000
G1 X89.500 Y83.750
G0 Z2.000 F3000
M400
M204 P600 T600
G1 F1300
G0 X91.250 Y92.500 Z2.000
M400
M204 P200 T200
G1 F600
G1 Z0.000 F2500
G1 X91.500 Y92.500
G0 Z2.000 F3000
M400
M204 P600 T600
G1 F1300
G0 X93.500 Y93.750 Z2.000
M400
M204 P200 T200
G1 F600
G1 Z0.000 F2500
G1 X93.750 Y93.750
G1 X94.000 Y93.500
G0 Z2.000 F3000
M400
M204 P600 T600
G1 F1300
G0 X94.250 Y93.000 Z2.000
M400
M204 P200 T200
G1 F600
G1 Z0.000 F2500
G1 X94.500 Y93.000
G1 X94.750 Y92.750
G1 X94.750 Y92.500
G1 X95.000 Y92.500
G1 X95.250 Y92.250
G0 Z2.000 F3000
M400
M204 P600 T600
G1 F1300
G0 X97.000 Y94.000 Z2.000
M400
M204 P200 T200
G1 F600
G1 Z0.000 F2500
G0 Z2.000 F3000

; --- CIKEL NAMAKANJA ---
G0 Z2.000 F3000
M400
M204 P600 T600
G1 F1300
G0 X54.052 Y5.503 Z8.000
G1 Z1.000 F3000
G1 X54.052 Y5.503 F2500
G1 X54.052 Y7.253 F2500
G1 X50.552 Y5.503 F2500
G1 X54.052 Y0.253 F2500
G0 Z3.000 F3000
G0 X66.555 Y18.518
G0 Z8.000 F3000
G0 X97.250 Y93.750 Z2.000
M400
M204 P200 T200
G1 F600
G1 Z0.000 F2500
G1 X97.250 Y93.750
G1 X97.250 Y93.750
G1 X97.500 Y93.500
G0 Z2.000 F3000
M400
M204 P600 T600
G1 F1300
G0 X95.500 Y95.500 Z2.000
M400
M204 P200 T200
G1 F600
G1 Z0.000 F2500
G1 X95.500 Y95.500
G1 X95.250 Y95.750
G0 Z2.000 F3000
M400
M204 P600 T600
G1 F1300
G0 X94.750 Y96.250 Z2.000
M400
M204 P200 T200
G1 F600
G1 Z0.000 F2500
G1 X94.750 Y96.250
G0 Z2.000 F3000
M400
M204 P600 T600
G1 F1300
G0 X93.250 Y97.750 Z2.000
M400
M204 P200 T200
G1 F600
G1 Z0.000 F2500
G1 X93.000 Y98.000
G1 X93.000 Y98.000
G1 X92.750 Y98.250
G0 Z2.000 F3000
M400
M204 P600 T600
G1 F1300
G0 X91.500 Y96.000 Z2.000
M400
M204 P200 T200
G1 F600
G1 Z0.000 F2500
G1 X91.750 Y95.750
G1 X91.750 Y95.500
G1 X92.000 Y95.500
G0 Z2.000 F3000
M400
M204 P600 T600
G1 F1300
G0 X91.000 Y96.500 Z2.000
M400
M204 P200 T200
G1 F600
G1 Z0.000 F2500
G1 X90.750 Y96.750
G1 X90.500 Y96.750
G1 X90.500 Y97.000
G1 X90.250 Y97.250
G1 X90.000 Y97.250
G1 X90.000 Y97.500
G1 X89.750 Y97.750
G0 Z2.000 F3000
M400
M204 P600 T600
G1 F1300
G0 X88.500 Y99.000 Z2.000
M400
M204 P200 T200
G1 F600
G1 Z0.000 F2500
G1 X88.250 Y99.250
G1 X88.250 Y99.250
G0 Z2.000 F3000
M400
M204 P600 T600
G1 F1300
G0 X85.250 Y95.250 Z2.000
M400
M204 P200 T200
G1 F600
G1 Z0.000 F2500
G1 X85.250 Y95.000
G0 Z2.000 F3000
M400
M204 P600 T600
G1 F1300
G0 X85.750 Y94.750 Z2.000
M400
M204 P200 T200
G1 F600
G1 Z0.000 F2500
G1 X85.750 Y94.500
G0 Z2.000 F3000
M400
M204 P600 T600
G1 F1300
G0 X86.250 Y94.250 Z2.000
M400
M204 P200 T200
G1 F600
G1 Z0.000 F2500
G1 X86.250 Y94.000
G0 Z2.000 F3000
M400
M204 P600 T600
G1 F1300
G0 X87.250 Y93.000 Z2.000
M400
M204 P200 T200
G1 F600
G1 Z0.000 F2500
G1 X87.500 Y93.000
G1 X87.500 Y92.750
G1 X87.750 Y92.500
G1 X88.000 Y92.500
G0 Z2.000 F3000
M400
M204 P600 T600
G1 F1300
G0 X83.250 Y97.000 Z2.000
M400
M204 P200 T200
G1 F600
G1 Z0.000 F2500
G1 X83.250 Y97.250
G1 X83.000 Y97.250
G1 X82.750 Y97.500
G1 X82.750 Y97.750
G0 Z2.000 F3000
M400
M204 P600 T600
G1 F1300
G0 X80.500 Y99.750 Z2.000
M400
M204 P200 T200
G1 F600
G1 Z0.000 F2500
G1 X80.250 Y100.000
G1 X80.250 Y100.250
G1 X80.000 Y100.250
G0 Z2.000 F3000
M400
M204 P600 T600
G1 F1300
G0 X83.250 Y104.000 Z2.000
M400
M204 P200 T200
G1 F600
G1 Z0.000 F2500
G1 X83.250 Y104.250
G1 X83.000 Y104.500
G1 X82.750 Y104.500
G1 X82.750 Y104.750
G1 X82.500 Y105.000
G0 Z2.000 F3000
M400
M204 P600 T600
G1 F1300
G0 X82.000 Y105.250 Z2.000
M400
M204 P200 T200
G1 F600
G1 Z0.000 F2500
G1 X82.000 Y105.500
G0 Z2.000 F3000
M400
M204 P600 T600
G1 F1300
G0 X84.250 Y106.750 Z2.000
M400
M204 P200 T200
G1 F600
G1 Z0.000 F2500
G1 X84.500 Y106.500
G1 X84.500 Y106.500
G1 X84.750 Y106.250
G0 Z2.000 F3000
M400
M204 P600 T600
G1 F1300
G0 X81.750 Y109.250 Z2.000
M400
M204 P200 T200
G1 F600
G1 Z0.000 F2500
G1 X81.500 Y109.500
G1 X81.500 Y109.500
G1 X81.250 Y109.750
G0 Z2.000 F3000
M400
M204 P600 T600
G1 F1300
G0 X83.000 Y111.500 Z2.000
M400
M204 P200 T200
G1 F600
G1 Z0.000 F2500
G1 X83.250 Y111.250
G1 X83.250 Y111.250
G0 Z2.000 F3000
M400
M204 P600 T600
G1 F1300
G0 X84.000 Y114.000 Z2.000
M400
M204 P200 T200
G1 F600
G1 Z0.000 F2500
G1 X84.000 Y114.250
G1 X83.750 Y114.250
G0 Z2.000 F3000
M400
M204 P600 T600
G1 F1300
G0 X82.750 Y115.500 Z2.000
M400
M204 P200 T200
G1 F600
G1 Z0.000 F2500
G1 X82.500 Y115.500
G0 Z2.000 F3000
M400
M204 P600 T600
G1 F1300
G0 X82.250 Y119.250 Z2.000
M400
M204 P200 T200
G1 F600
G1 Z0.000 F2500
G1 X82.000 Y119.500
G1 X82.000 Y119.750
G1 X81.750 Y119.750
G1 X81.500 Y120.000
G1 X81.500 Y120.250
G1 X81.250 Y120.250
G0 Z2.000 F3000
M400
M204 P600 T600
G1 F1300
G0 X82.750 Y122.500 Z2.000
M400
M204 P200 T200
G1 F600
G1 Z0.000 F2500
G1 X82.500 Y122.750
G1 X82.250 Y122.750
G1 X82.000 Y123.000
G1 X82.000 Y123.250
G1 X81.750 Y123.250
G0 Z2.000 F3000
M400
M204 P600 T600
G1 F1300
G0 X76.750 Y117.750 Z2.000
M400
M204 P200 T200
G1 F600
G1 Z0.000 F2500
G1 X76.750 Y117.750
G1 X77.000 Y117.500
G1 X77.250 Y117.250
G1 X77.250 Y117.250
G0 Z2.000 F3000
M400
M204 P600 T600
G1 F1300
G0 X75.500 Y115.500 Z2.000
M400
M204 P200 T200
G1 F600
G1 Z0.000 F2500
G1 X75.500 Y115.500
G1 X75.750 Y115.250
G1 X76.000 Y115.000
G1 X76.000 Y114.750
G1 X76.250 Y114.750
G1 X76.500 Y114.500
G1 X76.750 Y114.250
G1 X76.750 Y114.250
G1 X77.000 Y114.000
G1 X77.250 Y113.750
G1 X77.250 Y113.750
G1 X77.500 Y113.500
G1 X77.750 Y113.250
G1 X78.000 Y113.000
G1 X78.000 Y113.000
G0 Z2.000 F3000
M400
M204 P600 T600
G1 F1300
G0 X76.250 Y111.250 Z2.000
M400
M204 P200 T200
G1 F600
G1 Z0.000 F2500
G1 X76.000 Y111.250
G1 X76.000 Y111.500
G1 X75.750 Y111.750
G1 X75.500 Y111.750
G1 X75.500 Y112.000
G1 X75.250 Y112.250
G1 X75.000 Y112.500
G1 X75.000 Y112.500
G1 X74.750 Y112.750
G0 Z2.000 F3000
M400
M204 P600 T600
G1 F1300
G0 X77.750 Y109.750 Z2.000
M400
M204 P200 T200
G1 F600
G1 Z0.000 F2500
G1 X78.000 Y109.500
G1 X78.000 Y109.500
G1 X78.250 Y109.250
G0 Z2.000 F3000
M400
M204 P600 T600
G1 F1300
G0 X74.750 Y116.250 Z2.000
M400
M204 P200 T200
G1 F600
G1 Z0.000 F2500
G1 X74.500 Y116.500
G1 X74.250 Y116.750
G1 X74.250 Y116.750
G0 Z2.000 F3000
M400
M204 P600 T600
G1 F1300
G0 X75.500 Y119.000 Z2.000
M400
M204 P200 T200
G1 F600
G1 Z0.000 F2500
G1 X75.500 Y119.000
G1 X75.250 Y119.250
G1 X75.000 Y119.500
G0 Z2.000 F3000
M400
M204 P600 T600
G1 F1300
G0 X71.250 Y116.250 Z2.000
M400
M204 P200 T200
G1 F600
G1 Z0.000 F2500
G1 X71.000 Y116.500
G0 Z2.000 F3000
M400
M204 P600 T600
G1 F1300
G0 X71.250 Y119.750 Z2.000
M400
M204 P200 T200
G1 F600
G1 Z0.000 F2500
G1 X71.250 Y119.750
G1 X71.000 Y120.000
G1 X70.750 Y120.250
G1 X70.750 Y120.250
G1 X70.500 Y120.500
G1 X70.250 Y120.750
G1 X70.000 Y121.000
G1 X70.000 Y121.000
G1 X69.750 Y121.250
G1 X69.500 Y121.500
G1 X69.500 Y121.500
G1 X69.250 Y121.750
G0 Z2.000 F3000
M400
M204 P600 T600
G1 F1300
G0 X68.750 Y122.250 Z2.000
M400
M204 P200 T200
G1 F600
G1 Z0.000 F2500
G1 X68.500 Y122.500
G1 X68.250 Y122.750
G1 X68.250 Y122.750
G1 X68.000 Y123.000
G0 Z2.000 F3000
M400
M204 P600 T600
G1 F1300
G0 X67.000 Y124.000 Z2.000
M400
M204 P200 T200
G1 F600
G1 Z0.000 F2500
G1 X67.000 Y124.000
G0 Z2.000 F3000
M400
M204 P600 T600
G1 F1300
G0 X65.250 Y122.250 Z2.000
M400
M204 P200 T200
G1 F600
G1 Z0.000 F2500
G1 X65.250 Y122.000
G1 X65.500 Y122.000
G1 X65.750 Y121.750
G0 Z2.000 F3000
M400
M204 P600 T600
G1 F1300
G0 X66.500 Y121.000 Z2.000
M400
M204 P200 T200
G1 F600
G1 Z0.000 F2500
G1 X66.500 Y121.000
G1 X66.750 Y120.750
G1 X67.000 Y120.500
G1 X67.000 Y120.250
G1 X67.250 Y120.250
G0 Z2.000 F3000
M400
M204 P600 T600
G1 F1300
G0 X57.500 Y119.250 Z2.000
M400
M204 P200 T200
G1 F600
G1 Z0.000 F2500
G1 X57.250 Y119.500
G0 Z2.000 F3000
M400
M204 P600 T600
G1 F1300
G0 X55.500 Y117.750 Z2.000
M400
M204 P200 T200
G1 F600
G1 Z0.000 F2500
G1 X55.500 Y117.750
G0 Z2.000 F3000
M400
M204 P600 T600
G1 F1300
G0 X56.500 Y116.750 Z2.000
M400
M204 P200 T200
G1 F600
G1 Z0.000 F2500
G1 X56.750 Y116.750
G0 Z2.000 F3000
M400
M204 P600 T600
G1 F1300
G0 X50.250 Y112.500 Z2.000
M400
M204 P200 T200
G1 F600
G1 Z0.000 F2500
G1 X50.250 Y112.500
G1 X50.000 Y112.750
G0 Z2.000 F3000
M400
M204 P600 T600
G1 F1300
G0 X49.000 Y106.750 Z2.000
M400
M204 P200 T200
G1 F600
G1 Z0.000 F2500
G1 X49.000 Y106.500
G0 Z2.000 F3000
M400
M204 P600 T600
G1 F1300
G0 X49.750 Y105.750 Z2.000
M400
M204 P200 T200
G1 F600
G1 Z0.000 F2500
G1 X50.000 Y105.750
G0 Z2.000 F3000
M400
M204 P600 T600
G1 F1300
G0 X50.750 Y104.750 Z2.000
M400
M204 P200 T200
G1 F600
G1 Z0.000 F2500
G1 X51.000 Y104.500
G1 X51.250 Y104.500
G1 X51.250 Y104.250
G0 Z2.000 F3000
M400
M204 P600 T600
G1 F1300
G0 X52.500 Y103.000 Z2.000
M400
M204 P200 T200
G1 F600
G1 Z0.000 F2500
G1 X52.750 Y102.750
G1 X53.000 Y102.750
G1 X53.250 Y102.500
G1 X53.250 Y102.250
G0 Z2.000 F3000
M400
M204 P600 T600
G1 F1300
G0 X54.250 Y101.250 Z2.000
M400
M204 P200 T200
G1 F600
G1 Z0.000 F2500
G1 X54.500 Y101.000
G1 X54.750 Y101.000
G1 X55.000 Y100.750
G1 X55.000 Y100.500
G1 X55.250 Y100.250
G0 Z2.000 F3000
M400
M204 P600 T600
G1 F1300
G0 X55.750 Y99.750 Z2.000
M400
M204 P200 T200
G1 F600
G1 Z0.000 F2500
G1 X56.000 Y99.750
G1 X56.250 Y99.500
G1 X56.250 Y99.250
G1 X56.500 Y99.250
G1 X56.750 Y99.000
G0 Z2.000 F3000
M400
M204 P600 T600
G1 F1300
G0 X57.750 Y98.000 Z2.000
M400
M204 P200 T200
G1 F600
G1 Z0.000 F2500
G1 X58.000 Y97.750
G1 X58.000 Y97.500
G0 Z2.000 F3000
M400
M204 P600 T600
G1 F1300
G0 X58.500 Y97.250 Z2.000
M400
M204 P200 T200
G1 F600
G1 Z0.000 F2500
G1 X58.500 Y97.000
G0 Z2.000 F3000
M400
M204 P600 T600
G1 F1300
G0 X60.750 Y95.000 Z2.000
M400
M204 P200 T200
G1 F600
G1 Z0.000 F2500
G1 X61.000 Y94.750
G1 X61.000 Y94.500
G0 Z2.000 F3000
M400
M204 P600 T600
G1 F1300
G0 X61.750 Y93.750 Z2.000
M400
M204 P200 T200
G1 F600
G1 Z0.000 F2500
G1 X62.000 Y93.750
G1 X62.250 Y93.500
G1 X62.250 Y93.250
G1 X62.500 Y93.000
G0 Z2.000 F3000
M400
M204 P600 T600
G1 F1300
G0 X62.750 Y92.750 Z2.000
M400
M204 P200 T200
G1 F600
G1 Z0.000 F2500
G1 X63.000 Y92.500
G1 X63.250 Y92.500
G0 Z2.000 F3000
M400
M204 P600 T600
G1 F1300
G0 X64.750 Y90.750 Z2.000
M400
M204 P200 T200
G1 F600
G1 Z0.000 F2500
G1 X65.000 Y90.750
G1 X65.250 Y90.500
G1 X65.250 Y90.250
G1 X65.500 Y90.000
G1 X65.750 Y90.000
G0 Z2.000 F3000
M400
M204 P600 T600
G1 F1300
G0 X66.750 Y92.500 Z2.000
M400
M204 P200 T200
G1 F600
G1 Z0.000 F2500
G1 X66.500 Y92.500
G1 X66.500 Y92.750
G0 Z2.000 F3000
M400
M204 P600 T600
G1 F1300
G0 X68.750 Y90.500 Z2.000
M400
M204 P200 T200
G1 F600
G1 Z0.000 F2500
G1 X68.750 Y90.250
G1 X69.000 Y90.000
G1 X69.250 Y90.000
G0 Z2.000 F3000
M400
M204 P600 T600
G1 F1300
G0 X73.250 Y89.500 Z2.000
M400
M204 P200 T200
G1 F600
G1 Z0.000 F2500
G1 X73.500 Y89.250
G1 X73.750 Y89.000
G1 X73.750 Y89.000
G1 X74.000 Y88.750
G1 X74.250 Y88.500
G0 Z2.000 F3000
M400
M204 P600 T600
G1 F1300
G0 X71.250 Y84.500 Z2.000
M400
M204 P200 T200
G1 F600
G1 Z0.000 F2500
G1 X71.000 Y84.750
G1 X70.750 Y84.750
G1 X70.750 Y85.000
G1 X70.500 Y85.250
G1 X70.250 Y85.250
G0 Z2.000 F3000
M400
M204 P600 T600
G1 F1300
G0 X69.500 Y82.500 Z2.000
M400
M204 P200 T200
G1 F600
G1 Z0.000 F2500
G1 X69.500 Y82.750
G1 X69.250 Y82.750
G1 X69.000 Y83.000
G1 X68.750 Y83.250
G1 X68.750 Y83.500
G1 X68.500 Y83.500
G1 X68.250 Y83.750
G1 X68.250 Y84.000
G1 X68.000 Y84.000
G1 X67.750 Y84.250
G1 X67.750 Y84.500
G1 X67.500 Y84.750
G1 X67.250 Y84.750
G1 X67.000 Y85.000
G0 Z2.000 F3000
M400
M204 P600 T600
G1 F1300
G0 X68.000 Y80.500 Z2.000
M400
M204 P200 T200
G1 F600
G1 Z0.000 F2500
G1 X68.250 Y80.500
G1 X68.250 Y80.250
G0 Z2.000 F3000
M400
M204 P600 T600
G1 F1300
G0 X69.000 Y79.500 Z2.000
M400
M204 P200 T200
G1 F600
G1 Z0.000 F2500
G1 X69.250 Y79.250
G1 X69.500 Y79.250
G1 X69.500 Y79.000
G1 X69.750 Y78.750
G0 Z2.000 F3000
M400
M204 P600 T600
G1 F1300
G0 X67.500 Y77.500 Z2.000
M400
M204 P200 T200
G1 F600
G1 Z0.000 F2500
G1 X67.750 Y77.500
G1 X67.750 Y77.250
G1 X68.000 Y77.000
G1 X68.250 Y76.750
G1 X68.250 Y76.750
G1 X68.500 Y76.500
G1 X68.750 Y76.250
G1 X68.750 Y76.250
G1 X69.000 Y76.000
G1 X69.250 Y75.750
G1 X69.500 Y75.500
G1 X69.500 Y75.500
G1 X69.750 Y75.250
G1 X70.000 Y75.000
G1 X70.000 Y75.000
G1 X70.250 Y74.750
G1 X70.500 Y74.500
G1 X70.750 Y74.500
G1 X70.750 Y74.250
G1 X71.000 Y74.000
G1 X71.250 Y73.750
G1 X71.250 Y73.750
G1 X71.500 Y73.500
G1 X71.750 Y73.250
G1 X71.750 Y73.250
G1 X72.000 Y73.000
G1 X72.250 Y72.750
G1 X72.500 Y72.500
G1 X72.500 Y72.500
G1 X72.750 Y72.250
G1 X73.000 Y72.000
G1 X73.000 Y72.000
G0 Z2.000 F3000
M400
M204 P600 T600
G1 F1300
G0 X69.500 Y72.000 Z2.000
M400
M204 P200 T200
G1 F600
G1 Z0.000 F2500
G1 X69.500 Y72.000
G1 X69.250 Y72.250
G1 X69.000 Y72.500
G1 X68.750 Y72.500
G1 X68.750 Y72.750
G1 X68.500 Y73.000
G1 X68.250 Y73.250
G1 X68.250 Y73.250
G1 X68.000 Y73.500
G1 X67.750 Y73.750
G1 X67.750 Y73.750
G1 X67.500 Y74.000
G1 X67.250 Y74.250
G1 X67.000 Y74.500
G1 X67.000 Y74.500
G1 X66.750 Y74.750
G1 X66.500 Y75.000
G1 X66.500 Y75.000
G1 X66.250 Y75.250
G1 X66.000 Y75.500
G1 X65.750 Y75.500
G1 X65.750 Y75.750
G0 Z2.000 F3000
M400
M204 P600 T600
G1 F1300
G0 X64.250 Y73.750 Z2.000
M400
M204 P200 T200
G1 F600
G1 Z0.000 F2500
G1 X64.000 Y73.750
G0 Z2.000 F3000
M400
M204 P600 T600
G1 F1300
G0 X63.750 Y74.250 Z2.000
M400
M204 P200 T200
G1 F600
G1 Z0.000 F2500
G1 X63.500 Y74.500
G1 X63.500 Y74.500
G0 Z2.000 F3000
M400
M204 P600 T600
G1 F1300
G0 X62.000 Y76.000 Z2.000
M400
M204 P200 T200
G1 F600
G1 Z0.000 F2500
G1 X61.750 Y76.250
G0 Z2.000 F3000
M400
M204 P600 T600
G1 F1300
G0 X60.750 Y77.250 Z2.000
M400
M204 P200 T200
G1 F600
G1 Z0.000 F2500
G1 X60.500 Y77.500
G1 X60.500 Y77.500
G1 X60.250 Y77.750
G0 Z2.000 F3000
M400
M204 P600 T600
G1 F1300
G0 X62.250 Y79.250 Z2.000
M400
M204 P200 T200
G1 F600
G1 Z0.000 F2500
G1 X62.250 Y79.250
G1 X62.500 Y79.000
G1 X62.750 Y78.750
G1 X62.750 Y78.750
G0 Z2.000 F3000
M400
M204 P600 T600
G1 F1300
G0 X63.500 Y78.000 Z2.000
M400
M204 P200 T200
G1 F600
G1 Z0.000 F2500
G1 X63.500 Y78.000
G0 Z2.000 F3000
M400
M204 P600 T600
G1 F1300
G0 X64.250 Y80.750 Z2.000
M400
M204 P200 T200
G1 F600
G1 Z0.000 F2500
G1 X64.500 Y80.500
G1 X64.500 Y80.500
G1 X64.750 Y80.250
G1 X65.000 Y80.000
G1 X65.250 Y79.750
G1 X65.250 Y79.750
G1 X65.500 Y79.500
G1 X65.750 Y79.250
G1 X65.750 Y79.250
G1 X66.000 Y79.000
G1 X66.250 Y78.750
G1 X66.500 Y78.750
G1 X66.500 Y78.500
G1 X66.750 Y78.250
G0 Z2.000 F3000
M400
M204 P600 T600
G1 F1300
G0 X67.000 Y81.500 Z2.000
M400
M204 P200 T200
G1 F600
G1 Z0.000 F2500
G1 X67.000 Y81.750
G0 Z2.000 F3000
M400
M204 P600 T600
G1 F1300
G0 X65.500 Y83.000 Z2.000
M400
M204 P200 T200
G1 F600
G1 Z0.000 F2500
G1 X65.250 Y83.250
G0 Z2.000 F3000
M400
M204 P600 T600
G1 F1300
G0 X63.500 Y81.500 Z2.000
M400
M204 P200 T200
G1 F600
G1 Z0.000 F2500
G1 X63.750 Y81.250
G0 Z2.000 F3000
M400
M204 P600 T600
G1 F1300
G0 X65.000 Y83.500 Z2.000
M400
M204 P200 T200
G1 F600
G1 Z0.000 F2500
G1 X64.750 Y83.750
G1 X64.500 Y84.000
G1 X64.500 Y84.000
G1 X64.250 Y84.250
G1 X64.000 Y84.500
G1 X64.000 Y84.750
G1 X63.750 Y84.750
G1 X63.500 Y85.000
G1 X63.500 Y85.250
G1 X63.250 Y85.250
G1 X63.000 Y85.500
G1 X62.750 Y85.750
G0 Z2.000 F3000
M400
M204 P600 T600
G1 F1300
G0 X65.750 Y86.250 Z2.000
M400
M204 P200 T200
G1 F600
G1 Z0.000 F2500
G1 X66.000 Y86.000
G0 Z2.000 F3000
M400
M204 P600 T600
G1 F1300
G0 X61.750 Y86.750 Z2.000
M400
M204 P200 T200
G1 F600
G1 Z0.000 F2500
G1 X61.500 Y87.000
G1 X61.500 Y87.000
G0 Z2.000 F3000
M400
M204 P600 T600
G1 F1300
G0 X59.750 Y85.250 Z2.000
M400
M204 P200 T200
G1 F600
G1 Z0.000 F2500
G1 X59.750 Y85.250
G1 X60.000 Y85.000
G1 X60.250 Y84.750
G1 X60.500 Y84.750
G1 X60.500 Y84.500
G1 X60.750 Y84.250
G1 X61.000 Y84.000
G1 X61.000 Y84.000
G1 X61.250 Y83.750
G1 X61.500 Y83.500
G1 X61.500 Y83.500
G1 X61.750 Y83.250
G1 X62.000 Y83.000
G1 X62.250 Y82.750
G1 X62.250 Y82.750
G1 X62.500 Y82.500
G0 Z2.000 F3000
M400
M204 P600 T600
G1 F1300
G0 X59.250 Y85.750 Z2.000
M400
M204 P200 T200
G1 F600
G1 Z0.000 F2500
G1 X59.250 Y86.000
G1 X59.000 Y86.000
G0 Z2.000 F3000
M400
M204 P600 T600
G1 F1300
G0 X58.500 Y86.500 Z2.000
M400
M204 P200 T200
G1 F600
G1 Z0.000 F2500
G1 X58.500 Y86.500
G1 X58.250 Y86.750
G0 Z2.000 F3000
M400
M204 P600 T600
G1 F1300
G0 X56.000 Y85.500 Z2.000
M400
M204 P200 T200
G1 F600
G1 Z0.000 F2500
G1 X56.250 Y85.250
G1 X56.250 Y85.250
G1 X56.500 Y85.000
G1 X56.750 Y84.750
G1 X56.750 Y84.750
G1 X57.000 Y84.500
G1 X57.250 Y84.250
G1 X57.250 Y84.000
G1 X57.500 Y84.000
G1 X57.750 Y83.750
G1 X58.000 Y83.500
G1 X58.000 Y83.500
G1 X58.250 Y83.250
G1 X58.500 Y83.000
G1 X58.500 Y82.750
G1 X58.750 Y82.750
G1 X59.000 Y82.500
G1 X59.250 Y82.250
G1 X59.250 Y82.250
G0 Z2.000 F3000
M400
M204 P600 T600
G1 F1300
G0 X57.250 Y80.750 Z2.000
M400
M204 P200 T200
G1 F600
G1 Z0.000 F2500
G1 X57.000 Y81.000
G1 X56.750 Y81.000
G1 X56.750 Y81.250
G0 Z2.000 F3000
M400
M204 P600 T600
G1 F1300
G0 X58.500 Y79.500 Z2.000
M400
M204 P200 T200
G1 F600
G1 Z0.000 F2500
G1 X58.500 Y79.250
G1 X58.750 Y79.250
G1 X59.000 Y79.000
G0 Z2.000 F3000
M400
M204 P600 T600
G1 F1300
G0 X57.000 Y77.500 Z2.000
M400
M204 P200 T200
G1 F600
G1 Z0.000 F2500
G1 X56.750 Y77.500
G1 X56.750 Y77.750
G0 Z2.000 F3000
M400
M204 P600 T600
G1 F1300
G0 X57.250 Y77.000 Z2.000
M400
M204 P200 T200
G1 F600
G1 Z0.000 F2500
G1 X57.500 Y76.750
G1 X57.750 Y76.750
G1 X58.000 Y76.500
G1 X58.000 Y76.250
G1 X58.250 Y76.250
G0 Z2.000 F3000
M400
M204 P600 T600
G1 F1300
G0 X58.750 Y75.500 Z2.000
M400
M204 P200 T200
G1 F600
G1 Z0.000 F2500
