G90
G21
; === MULTI-COLOR PAINTER GCODE ===
; Generated layers: 1
; Backlash compensation: OFF
; Working area clamping: ON  X[0–1400] Y[0–1400]
; Tutti Frutti mode: ON  stroke 50–100mm  dishes: Color 1 — Red, Color 2 — Teal, Color 3 — Yellow, Color 4 — Purple


; ═══════════════════════════════
; LAYER 1: Color 1 — Red
; Infill: lines
; ═══════════════════════════════


; --- DIP → Color 4 — Purple ---
G0 Z4.600 F3000
M400
M204 P1200 T1200
G1 F1200
G0 X142.356 Y0.000 Z31.000
G1 Z0.000 F3000
G1 X142.356 Y0.000 F2500
G1 X142.356 Y2.500 F2500
G1 X137.356 Y0.000 F2500
G1 X142.356 Y0.000 F2500
G0 Z16.000 F3000
G0 X148.075 Y12.641
G0 Z31.000 F3000
G0 X323.200 Y286.800 Z4.600
M400
M204 P1200 T1200
G1 F1200
G0 X323.200 Y286.800 Z4.600
M400
M204 P200 T200
G1 F400
G1 Z0.000 F2500
G1 X323.300 Y286.800
G1 X323.400 Y286.800
G1 X323.500 Y286.800
G1 X323.600 Y286.800
G1 X323.700 Y286.800
G1 X323.800 Y286.800
G1 X323.900 Y286.800
G1 X324.000 Y286.800
G1 X324.100 Y286.800
G1 X324.200 Y286.800
G1 X324.300 Y286.800
G1 X324.400 Y286.800
G1 X324.500 Y286.800
G1 X324.600 Y286.800
G1 X324.700 Y286.800
G1 X324.800 Y286.800
G1 X324.900 Y286.800
G1 X325.000 Y286.800
G1 X325.100 Y286.800
G1 X325.200 Y286.800
G1 X325.300 Y286.800
G1 X325.400 Y286.800
G1 X325.500 Y286.800
G1 X325.600 Y286.800
G1 X325.700 Y286.800
G1 X325.800 Y286.800
G1 X325.900 Y286.800
G1 X326.000 Y286.800
G1 X326.100 Y286.800
G1 X326.200 Y286.800
G1 X326.300 Y286.800
G1 X326.400 Y286.800
G1 X326.500 Y286.800
G1 X326.600 Y286.800
G1 X326.700 Y286.800
G1 X326.800 Y286.800
G1 X326.900 Y286.800
G1 X327.000 Y286.800
G1 X327.100 Y286.800
G1 X327.200 Y286.800
G0 Z4.600 F3000
M400
M204 P1200 T1200
G1 F1200
G0 X326.500 Y285.500 Z4.600
M400
M204 P200 T200
G1 F400
G1 Z0.000 F2500
G1 X326.400 Y285.500
G1 X326.300 Y285.500
G1 X326.200 Y285.500
G1 X326.100 Y285.500
G1 X326.000 Y285.500
G1 X325.900 Y285.500
G1 X325.800 Y285.500
G1 X325.700 Y285.500
G1 X325.600 Y285.500
G1 X325.500 Y285.500
G1 X325.400 Y285.500
G1 X325.300 Y285.500
G0 Z4.600 F3000
M400
M204 P1200 T1200
G1 F1200
G0 X322.800 Y288.100 Z4.600
M400
M204 P200 T200
G1 F400
G1 Z0.000 F2500
G1 X322.900 Y288.100
G1 X323.000 Y288.100
G1 X323.100 Y288.100
G1 X323.200 Y288.100
G1 X323.300 Y288.100
G1 X323.400 Y288.100
G1 X323.500 Y288.100
G1 X323.600 Y288.100
G1 X323.700 Y288.100
G1 X323.800 Y288.100
G1 X323.900 Y288.100
G1 X324.000 Y288.100
G1 X324.100 Y288.100
G1 X324.200 Y288.100
G1 X324.300 Y288.100
G1 X324.400 Y288.100
G1 X324.500 Y288.100
G1 X324.600 Y288.100
G1 X324.700 Y288.100
G1 X324.800 Y288.100
G1 X324.900 Y288.100
G1 X325.000 Y288.100
G1 X325.100 Y288.100
G1 X325.200 Y288.100
G1 X325.300 Y288.100
G1 X325.400 Y288.100
G1 X325.500 Y288.100
G1 X325.600 Y288.100
G1 X325.700 Y288.100
G1 X325.800 Y288.100
G1 X325.900 Y288.100
G1 X326.000 Y288.100
G1 X326.100 Y288.100
G1 X326.200 Y288.100
G1 X326.300 Y288.100
G1 X326.400 Y288.100
G1 X326.500 Y288.100
G1 X326.600 Y288.100
G1 X326.700 Y288.100
G1 X326.800 Y288.100
G1 X326.900 Y288.100
G1 X327.000 Y288.100
G1 X327.100 Y288.100
G1 X327.200 Y288.100
G1 X327.300 Y288.100
G1 X327.400 Y288.100
G1 X327.500 Y288.100
G1 X327.600 Y288.100
G1 X327.700 Y288.100
G1 X327.800 Y288.100
G1 X327.900 Y288.100
G1 X328.000 Y288.100
G1 X328.100 Y288.100
G1 X328.200 Y288.100
G1 X328.300 Y288.100
G1 X328.400 Y288.100
G1 X328.500 Y288.100
G1 X328.600 Y288.100
G1 X328.700 Y288.100
G0 Z4.600 F3000
M400
M204 P1200 T1200
G1 F1200
G0 X327.100 Y292.000 Z4.600
M400
M204 P200 T200
G1 F400
G1 Z0.000 F2500
G1 X327.000 Y292.000
G1 X326.900 Y292.000
G1 X326.800 Y292.000
G1 X326.700 Y292.000
G1 X326.600 Y292.000
G1 X326.500 Y292.000
G1 X326.400 Y292.000
G1 X326.300 Y292.000
G1 X326.200 Y292.000
G1 X326.100 Y292.000
G1 X326.000 Y292.000
G1 X325.900 Y292.000
G1 X325.800 Y292.000
G1 X325.700 Y292.000
G1 X325.600 Y292.000
G1 X325.500 Y292.000
G1 X325.400 Y292.000
G1 X325.300 Y292.000
G1 X325.200 Y292.000
G1 X325.100 Y292.000
G0 Z4.600 F3000
M400
M204 P1200 T1200
G1 F1200
G0 X324.600 Y293.300 Z4.600
M400
M204 P200 T200
G1 F400
G1 Z0.000 F2500
G1 X324.700 Y293.300
G1 X324.800 Y293.300
G1 X324.900 Y293.300
G1 X325.000 Y293.300
G1 X325.100 Y293.300
G1 X325.200 Y293.300
G1 X325.300 Y293.300
G1 X325.400 Y293.300
G1 X325.500 Y293.300
G1 X325.600 Y293.300
G1 X325.700 Y293.300
G1 X325.800 Y293.300
G0 Z4.600 F3000
M400
M204 P1200 T1200
G1 F1200
G0 X324.200 Y294.600 Z4.600
M400
M204 P200 T200
G1 F400
G1 Z0.000 F2500
G1 X324.100 Y294.600
G1 X324.000 Y294.600
G1 X323.900 Y294.600
G1 X323.800 Y294.600
G1 X323.700 Y294.600
G1 X323.600 Y294.600
G1 X323.500 Y294.600
G1 X323.400 Y294.600
G1 X323.300 Y294.600
G0 Z4.600 F3000
M400
M204 P1200 T1200
G1 F1200
G0 X323.500 Y295.900 Z4.600
M400
M204 P200 T200
G1 F400
G1 Z0.000 F2500
G1 X323.400 Y295.900
G1 X323.300 Y295.900
G1 X323.200 Y295.900
G1 X323.100 Y295.900
G1 X323.000 Y295.900
G0 Z4.600 F3000
M400
M204 P1200 T1200
G1 F1200
G0 X321.400 Y297.200 Z4.600
M400
M204 P200 T200
G1 F400
G1 Z0.000 F2500
G1 X321.300 Y297.200
G1 X321.200 Y297.200
G0 Z4.600 F3000
M400
M204 P1200 T1200
G1 F1200
G0 X321.000 Y298.500 Z4.600
M400
M204 P200 T200
G1 F400
G1 Z0.000 F2500
G1 X321.100 Y298.500
G1 X321.200 Y298.500
G1 X321.300 Y298.500
G1 X321.400 Y298.500
G1 X321.500 Y298.500
G1 X321.600 Y298.500
G1 X321.700 Y298.500
G1 X321.800 Y298.500
G1 X321.900 Y298.500
G1 X322.000 Y298.500
G1 X322.100 Y298.500
G1 X322.200 Y298.500
G0 Z4.600 F3000
M400
M204 P1200 T1200
G1 F1200
G0 X322.100 Y299.800 Z4.600
M400
M204 P200 T200
G1 F400
G1 Z0.000 F2500
G1 X322.000 Y299.800
G1 X321.900 Y299.800
G1 X321.800 Y299.800
G1 X321.700 Y299.800
G1 X321.600 Y299.800
G1 X321.500 Y299.800
G1 X321.400 Y299.800
G1 X321.300 Y299.800
G1 X321.200 Y299.800
G1 X321.100 Y299.800
G1 X321.000 Y299.800
G1 X320.900 Y299.800
G0 Z4.600 F3000
M400
M204 P1200 T1200
G1 F1200
G0 X321.000 Y301.100 Z4.600
M400
M204 P200 T200
G1 F400
G1 Z0.000 F2500
G1 X321.100 Y301.100
G1 X321.200 Y301.100
G1 X321.300 Y301.100
G1 X321.400 Y301.100
G1 X321.500 Y301.100
G1 X321.600 Y301.100
G1 X321.700 Y301.100
G1 X321.800 Y301.100
G1 X321.900 Y301.100
G1 X322.000 Y301.100
G1 X322.100 Y301.100
G1 X322.200 Y301.100
G0 Z4.600 F3000
M400
M204 P1200 T1200
G1 F1200
G0 X322.200 Y302.400 Z4.600
M400
M204 P200 T200
G1 F400
G1 Z0.000 F2500
G1 X322.100 Y302.400
G1 X322.000 Y302.400
G1 X321.900 Y302.400
G1 X321.800 Y302.400
G1 X321.700 Y302.400
G1 X321.600 Y302.400
G1 X321.500 Y302.400
G1 X321.400 Y302.400
G1 X321.300 Y302.400
G1 X321.200 Y302.400
G1 X321.100 Y302.400
G0 Z4.600 F3000
M400
M204 P1200 T1200
G1 F1200
G0 X322.800 Y303.700 Z4.600
M400
M204 P200 T200
G1 F400
G1 Z0.000 F2500
G1 X322.900 Y303.700
G1 X323.000 Y303.700
G1 X323.100 Y303.700
G1 X323.200 Y303.700
G1 X323.300 Y303.700
G1 X323.400 Y303.700
G1 X323.500 Y303.700
G1 X323.600 Y303.700
G1 X323.700 Y303.700
G1 X323.800 Y303.700
G1 X323.900 Y303.700
G1 X324.000 Y303.700
G1 X324.100 Y303.700
G1 X324.200 Y303.700
G1 X324.300 Y303.700
G1 X324.400 Y303.700
G1 X324.500 Y303.700
G1 X324.600 Y303.700
G1 X324.700 Y303.700
G1 X324.800 Y303.700
G1 X324.900 Y303.700
G1 X325.000 Y303.700
G1 X325.100 Y303.700
G1 X325.200 Y303.700
G1 X325.300 Y303.700
G1 X325.400 Y303.700
G1 X325.500 Y303.700
G1 X325.600 Y303.700
G1 X325.700 Y303.700
G1 X325.800 Y303.700
G1 X325.900 Y303.700
G1 X326.000 Y303.700
G1 X326.100 Y303.700
G1 X326.200 Y303.700
G1 X326.300 Y303.700
G1 X326.400 Y303.700
G1 X326.500 Y303.700
G1 X326.600 Y303.700
G1 X326.700 Y303.700
G1 X326.800 Y303.700
G1 X326.900 Y303.700
G1 X327.000 Y303.700
G1 X327.100 Y303.700
G1 X327.200 Y303.700
G1 X327.300 Y303.700
G1 X327.400 Y303.700
G1 X327.500 Y303.700
G1 X327.600 Y303.700
G1 X327.700 Y303.700
G1 X327.800 Y303.700
G1 X327.900 Y303.700
G1 X328.000 Y303.700
G1 X328.100 Y303.700
G1 X328.200 Y303.700
G1 X328.300 Y303.700
G1 X328.400 Y303.700
G1 X328.500 Y303.700
G1 X328.600 Y303.700
G1 X328.700 Y303.700
G1 X328.800 Y303.700
G1 X328.900 Y303.700
G1 X329.000 Y303.700
G1 X329.100 Y303.700
G1 X329.200 Y303.700
G1 X329.300 Y303.700
G1 X329.400 Y303.700
G1 X329.500 Y303.700
G1 X329.600 Y303.700
G1 X329.700 Y303.700
G1 X329.800 Y303.700
G1 X329.900 Y303.700
G1 X330.000 Y303.700
G1 X330.100 Y303.700
G1 X330.200 Y303.700
G1 X330.300 Y303.700
G1 X330.400 Y303.700
G1 X330.500 Y303.700
G1 X330.600 Y303.700
G1 X330.700 Y303.700
G1 X330.800 Y303.700
G1 X330.900 Y303.700
G1 X331.000 Y303.700
G1 X331.100 Y303.700
G1 X331.200 Y303.700
G1 X331.300 Y303.700
G1 X331.400 Y303.700
G1 X331.500 Y303.700
G1 X331.600 Y303.700
G1 X331.700 Y303.700
G1 X331.800 Y303.700
G1 X331.900 Y303.700
G1 X332.000 Y303.700
G1 X332.100 Y303.700
G1 X332.200 Y303.700
G1 X332.300 Y303.700
G1 X332.400 Y303.700
G1 X332.500 Y303.700
G1 X332.600 Y303.700
G0 Z4.600 F3000
M400
M204 P1200 T1200
G1 F1200
G0 X335.700 Y302.400 Z4.600
M400
M204 P200 T200
G1 F400
G1 Z0.000 F2500
G1 X335.800 Y302.400
G0 Z4.600 F3000
M400
M204 P1200 T1200
G1 F1200
G0 X339.900 Y303.700 Z4.600
M400
M204 P200 T200
G1 F400
G1 Z0.000 F2500
G1 X340.000 Y303.700
G1 X340.100 Y303.700
G1 X340.200 Y303.700
G1 X340.300 Y303.700
G1 X340.400 Y303.700
G1 X340.500 Y303.700
G1 X340.600 Y303.700
G1 X340.700 Y303.700
G1 X340.800 Y303.700
G1 X340.900 Y303.700
G1 X341.000 Y303.700
G1 X341.100 Y303.700
G1 X341.200 Y303.700
G1 X341.300 Y303.700
G1 X341.400 Y303.700
G1 X341.500 Y303.700
G1 X341.600 Y303.700
G1 X341.700 Y303.700
G1 X341.800 Y303.700
G1 X341.900 Y303.700
G1 X342.000 Y303.700
G1 X342.100 Y303.700
G1 X342.200 Y303.700
G1 X342.300 Y303.700
G1 X342.400 Y303.700
G1 X342.500 Y303.700
G1 X342.600 Y303.700
G1 X342.700 Y303.700
G1 X342.800 Y303.700
G1 X342.900 Y303.700
G1 X343.000 Y303.700
G1 X343.100 Y303.700
G0 Z4.600 F3000
M400
M204 P1200 T1200
G1 F1200
G0 X345.500 Y303.700 Z4.600
M400
M204 P200 T200
G1 F400
G1 Z0.000 F2500
G1 X345.600 Y303.700
G1 X345.700 Y303.700
G1 X345.800 Y303.700
G1 X345.900 Y303.700
G1 X346.000 Y303.700
G1 X346.100 Y303.700
G1 X346.200 Y303.700
G1 X346.300 Y303.700
G1 X346.400 Y303.700
G1 X346.500 Y303.700
G1 X346.600 Y303.700
G1 X346.700 Y303.700
G1 X346.800 Y303.700
G1 X346.900 Y303.700
G1 X347.000 Y303.700
G1 X347.100 Y303.700
G1 X347.200 Y303.700
G1 X347.300 Y303.700
G1 X347.400 Y303.700
G1 X347.500 Y303.700
G1 X347.600 Y303.700
G0 Z4.600 F3000
M400
M204 P1200 T1200
G1 F1200
G0 X349.100 Y303.700 Z4.600
M400
M204 P200 T200
G1 F400
G1 Z0.000 F2500
G1 X349.200 Y303.700
G1 X349.300 Y303.700
G1 X349.400 Y303.700
G1 X349.500 Y303.700
G1 X349.600 Y303.700
G1 X349.700 Y303.700
G1 X349.800 Y303.700
G1 X349.900 Y303.700
G1 X350.000 Y303.700
G1 X350.100 Y303.700
G1 X350.200 Y303.700
G1 X350.300 Y303.700
G1 X350.400 Y303.700
G1 X350.500 Y303.700
G1 X350.600 Y303.700
G1 X350.700 Y303.700
G1 X350.800 Y303.700
G1 X350.900 Y303.700
G1 X351.000 Y303.700
G1 X351.100 Y303.700
G1 X351.200 Y303.700
G1 X351.300 Y303.700
G1 X351.400 Y303.700
G1 X351.500 Y303.700
G1 X351.600 Y303.700
G1 X351.700 Y303.700
G1 X351.800 Y303.700
G1 X351.900 Y303.700
G1 X352.000 Y303.700
G1 X352.100 Y303.700
G1 X352.200 Y303.700
G1 X352.300 Y303.700
G1 X352.400 Y303.700
G1 X352.500 Y303.700
G1 X352.600 Y303.700
G1 X352.700 Y303.700
G1 X352.800 Y303.700
G1 X352.900 Y303.700
G1 X353.000 Y303.700
G1 X353.100 Y303.700
G1 X353.200 Y303.700
G1 X353.300 Y303.700
G1 X353.400 Y303.700
G1 X353.500 Y303.700
G1 X353.600 Y303.700
G1 X353.700 Y303.700
G1 X353.800 Y303.700
G1 X353.900 Y303.700
G1 X354.000 Y303.700
G1 X354.100 Y303.700
G1 X354.200 Y303.700
G1 X354.300 Y303.700
G1 X354.400 Y303.700
G1 X354.500 Y303.700
G1 X354.600 Y303.700
G1 X354.700 Y303.700
G1 X354.800 Y303.700
G1 X354.900 Y303.700
G1 X355.000 Y303.700
G1 X355.100 Y303.700
G1 X355.200 Y303.700
G1 X355.300 Y303.700
G1 X355.400 Y303.700
G1 X355.500 Y303.700
G1 X355.600 Y303.700
G1 X355.700 Y303.700
G1 X355.800 Y303.700
G1 X355.900 Y303.700
G1 X356.000 Y303.700
G1 X356.100 Y303.700
G1 X356.200 Y303.700
G1 X356.300 Y303.700
G1 X356.400 Y303.700
G1 X356.500 Y303.700
G1 X356.600 Y303.700
G1 X356.700 Y303.700
G1 X356.800 Y303.700
G1 X356.900 Y303.700
G1 X357.000 Y303.700
G1 X357.100 Y303.700
G1 X357.200 Y303.700
G1 X357.300 Y303.700
G1 X357.400 Y303.700
G1 X357.500 Y303.700
G1 X357.600 Y303.700
G1 X357.700 Y303.700
G1 X357.800 Y303.700
G1 X357.900 Y303.700
G0 Z4.600 F3000
M400
M204 P1200 T1200
G1 F1200
G0 X357.700 Y301.100 Z4.600
M400
M204 P200 T200
G1 F400
G1 Z0.000 F2500
G1 X357.800 Y301.100
G1 X357.900 Y301.100
G1 X358.000 Y301.100
G1 X358.100 Y301.100
G1 X358.200 Y301.100
G1 X358.300 Y301.100
G1 X358.400 Y301.100
G1 X358.500 Y301.100
G1 X358.600 Y301.100
G1 X358.700 Y301.100
G1 X358.800 Y301.100
G1 X358.900 Y301.100
G1 X359.000 Y301.100
G1 X359.100 Y301.100
G1 X359.200 Y301.100
G1 X359.300 Y301.100
G1 X359.400 Y301.100
G1 X359.500 Y301.100
G1 X359.600 Y301.100
G1 X359.700 Y301.100
G1 X359.800 Y301.100
G1 X359.900 Y301.100
G1 X360.000 Y301.100
G1 X360.100 Y301.100
G1 X360.200 Y301.100
G1 X360.300 Y301.100
G1 X360.400 Y301.100
G1 X360.500 Y301.100
G1 X360.600 Y301.100
G1 X360.700 Y301.100
G1 X360.800 Y301.100
G1 X360.900 Y301.100
G1 X361.000 Y301.100
G1 X361.100 Y301.100
G1 X361.200 Y301.100
G1 X361.300 Y301.100
G1 X361.400 Y301.100
G0 Z4.600 F3000
M400
M204 P1200 T1200
G1 F1200
G0 X361.700 Y299.800 Z4.600
M400
M204 P200 T200
G1 F400
G1 Z0.000 F2500
G1 X361.600 Y299.800
G1 X361.500 Y299.800
G1 X361.400 Y299.800
G1 X361.300 Y299.800
G1 X361.200 Y299.800
G1 X361.100 Y299.800
G1 X361.000 Y299.800
G1 X360.900 Y299.800
G1 X360.800 Y299.800
G1 X360.700 Y299.800
G1 X360.600 Y299.800
G1 X360.500 Y299.800
G1 X360.400 Y299.800
G1 X360.300 Y299.800
G1 X360.200 Y299.800
G1 X360.100 Y299.800
G1 X360.000 Y299.800
G1 X359.900 Y299.800
G1 X359.800 Y299.800
G1 X359.700 Y299.800
G1 X359.600 Y299.800
G1 X359.500 Y299.800
G0 Z4.600 F3000
M400
M204 P1200 T1200
G1 F1200
G0 X360.100 Y298.500 Z4.600
M400
M204 P200 T200
G1 F400
G1 Z0.000 F2500
G1 X360.200 Y298.500
G1 X360.300 Y298.500
G1 X360.400 Y298.500
G1 X360.500 Y298.500
G1 X360.600 Y298.500
G1 X360.700 Y298.500
G1 X360.800 Y298.500
G1 X360.900 Y298.500
G1 X361.000 Y298.500
G1 X361.100 Y298.500
G1 X361.200 Y298.500
G1 X361.300 Y298.500
G1 X361.400 Y298.500
G0 Z4.600 F3000
M400
M204 P1200 T1200
G1 F1200
G0 X361.500 Y297.200 Z4.600
M400
M204 P200 T200
G1 F400
G1 Z0.000 F2500
G1 X361.400 Y297.200
G1 X361.300 Y297.200
G1 X361.200 Y297.200
G1 X361.100 Y297.200
G1 X361.000 Y297.200
G1 X360.900 Y297.200
G1 X360.800 Y297.200
G1 X360.700 Y297.200
G1 X360.600 Y297.200
G1 X360.500 Y297.200
G1 X360.400 Y297.200
G1 X360.300 Y297.200
G1 X360.200 Y297.200
G0 Z4.600 F3000
M400
M204 P1200 T1200
G1 F1200
G0 X360.000 Y295.900 Z4.600
M400
M204 P200 T200
G1 F400
G1 Z0.000 F2500
G1 X360.100 Y295.900
G1 X360.200 Y295.900
G1 X360.300 Y295.900
G1 X360.400 Y295.900
G1 X360.500 Y295.900
G1 X360.600 Y295.900
G1 X360.700 Y295.900
G1 X360.800 Y295.900
G1 X360.900 Y295.900
G1 X361.000 Y295.900
G1 X361.100 Y295.900
G0 Z4.600 F3000

; --- DIP → Color 1 — Red ---
G0 Z4.600 F3000
M400
M204 P1200 T1200
G1 F1200
G0 X17.657 Y15.186 Z31.000
G1 Z0.000 F3000
G1 X17.657 Y15.186 F2500
G1 X17.657 Y17.686 F2500
G1 X12.657 Y15.186 F2500
G1 X17.657 Y7.686 F2500
G0 Z16.000 F3000
G0 X31.332 Y9.828
G0 Z31.000 F3000
G0 X361.200 Y295.900 Z4.600
M400
M204 P200 T200
G1 F400
G1 Z0.000 F2500
G1 X361.200 Y295.900
G1 X361.300 Y295.900
G1 X361.400 Y295.900
G0 Z4.600 F3000
M400
M204 P1200 T1200
G1 F1200
G0 X359.800 Y293.300 Z4.600
M400
M204 P200 T200
G1 F400
G1 Z0.000 F2500
G1 X359.700 Y293.300
G1 X359.600 Y293.300
G1 X359.500 Y293.300
G1 X359.400 Y293.300
G1 X359.300 Y293.300
G1 X359.200 Y293.300
G1 X359.100 Y293.300
G1 X359.000 Y293.300
G1 X358.900 Y293.300
G1 X358.800 Y293.300
G1 X358.700 Y293.300
G1 X358.600 Y293.300
G1 X358.500 Y293.300
G1 X358.400 Y293.300
G1 X358.300 Y293.300
G1 X358.200 Y293.300
G1 X358.100 Y293.300
G1 X358.000 Y293.300
G1 X357.900 Y293.300
G1 X357.800 Y293.300
G1 X357.700 Y293.300
G1 X357.600 Y293.300
G1 X357.500 Y293.300
G1 X357.400 Y293.300
G1 X357.300 Y293.300
G1 X357.200 Y293.300
G1 X357.100 Y293.300
G1 X357.000 Y293.300
G1 X356.900 Y293.300
G1 X356.800 Y293.300
G1 X356.700 Y293.300
G1 X356.600 Y293.300
G1 X356.500 Y293.300
G1 X356.400 Y293.300
G1 X356.300 Y293.300
G1 X356.200 Y293.300
G1 X356.100 Y293.300
G0 Z4.600 F3000
M400
M204 P1200 T1200
G1 F1200
G0 X355.300 Y294.600 Z4.600
M400
M204 P200 T200
G1 F400
G1 Z0.000 F2500
G1 X355.400 Y294.600
G1 X355.500 Y294.600
G1 X355.600 Y294.600
G1 X355.700 Y294.600
G1 X355.800 Y294.600
G1 X355.900 Y294.600
G1 X356.000 Y294.600
G1 X356.100 Y294.600
G1 X356.200 Y294.600
G1 X356.300 Y294.600
G1 X356.400 Y294.600
G1 X356.500 Y294.600
G1 X356.600 Y294.600
G1 X356.700 Y294.600
G1 X356.800 Y294.600
G1 X356.900 Y294.600
G1 X357.000 Y294.600
G1 X357.100 Y294.600
G1 X357.200 Y294.600
G1 X357.300 Y294.600
G1 X357.400 Y294.600
G1 X357.500 Y294.600
G1 X357.600 Y294.600
G1 X357.700 Y294.600
G1 X357.800 Y294.600
G1 X357.900 Y294.600
G1 X358.000 Y294.600
G1 X358.100 Y294.600
G1 X358.200 Y294.600
G1 X358.300 Y294.600
G1 X358.400 Y294.600
G1 X358.500 Y294.600
G1 X358.600 Y294.600
G1 X358.700 Y294.600
G1 X358.800 Y294.600
G1 X358.900 Y294.600
G1 X359.000 Y294.600
G1 X359.100 Y294.600
G1 X359.200 Y294.600
G1 X359.300 Y294.600
G1 X359.400 Y294.600
G1 X359.500 Y294.600
G1 X359.600 Y294.600
G1 X359.700 Y294.600
G1 X359.800 Y294.600
G1 X359.900 Y294.600
G1 X360.000 Y294.600
G1 X360.100 Y294.600
G1 X360.200 Y294.600
G1 X360.300 Y294.600
G1 X360.400 Y294.600
G1 X360.500 Y294.600
G1 X360.600 Y294.600
G1 X360.700 Y294.600
G1 X360.800 Y294.600
G1 X360.900 Y294.600
G1 X361.000 Y294.600
G1 X361.100 Y294.600
G1 X361.200 Y294.600
G0 Z4.600 F3000
M400
M204 P1200 T1200
G1 F1200
G0 X355.000 Y295.900 Z4.600
M400
M204 P200 T200
G1 F400
G1 Z0.000 F2500
G1 X354.900 Y295.900
G1 X354.800 Y295.900
G1 X354.700 Y295.900
G1 X354.600 Y295.900
G1 X354.500 Y295.900
G1 X354.400 Y295.900
G1 X354.300 Y295.900
G1 X354.200 Y295.900
G1 X354.100 Y295.900
G1 X354.000 Y295.900
G0 Z4.600 F3000
M400
M204 P1200 T1200
G1 F1200
G0 X352.800 Y298.500 Z4.600
M400
M204 P200 T200
G1 F400
G1 Z0.000 F2500
G1 X352.700 Y298.500
G1 X352.600 Y298.500
G1 X352.500 Y298.500
G1 X352.400 Y298.500
G1 X352.300 Y298.500
G1 X352.200 Y298.500
G1 X352.100 Y298.500
G1 X352.000 Y298.500
G0 Z4.600 F3000
M400
M204 P1200 T1200
G1 F1200
G0 X351.600 Y299.800 Z4.600
M400
M204 P200 T200
G1 F400
G1 Z0.000 F2500
G1 X351.700 Y299.800
G1 X351.800 Y299.800
G1 X351.900 Y299.800
G1 X352.000 Y299.800
G1 X352.100 Y299.800
G1 X352.200 Y299.800
G1 X352.300 Y299.800
G1 X352.400 Y299.800
G1 X352.500 Y299.800
G1 X352.600 Y299.800
G1 X352.700 Y299.800
G1 X352.800 Y299.800
G1 X352.900 Y299.800
G1 X353.000 Y299.800
G1 X353.100 Y299.800
G0 Z4.600 F3000
M400
M204 P1200 T1200
G1 F1200
G0 X353.700 Y301.100 Z4.600
M400
M204 P200 T200
G1 F400
G1 Z0.000 F2500
G1 X353.600 Y301.100
G1 X353.500 Y301.100
G1 X353.400 Y301.100
G1 X353.300 Y301.100
G1 X353.200 Y301.100
G1 X353.100 Y301.100
G1 X353.000 Y301.100
G1 X352.900 Y301.100
G1 X352.800 Y301.100
G1 X352.700 Y301.100
G1 X352.600 Y301.100
G1 X352.500 Y301.100
G1 X352.400 Y301.100
G1 X352.300 Y301.100
G1 X352.200 Y301.100
G1 X352.100 Y301.100
G1 X352.000 Y301.100
G1 X351.900 Y301.100
G1 X351.800 Y301.100
G1 X351.700 Y301.100
G1 X351.600 Y301.100
G1 X351.500 Y301.100
G1 X351.400 Y301.100
G1 X351.300 Y301.100
G1 X351.200 Y301.100
G1 X351.100 Y301.100
G1 X351.000 Y301.100
G0 Z4.600 F3000
M400
M204 P1200 T1200
G1 F1200
G0 X350.000 Y302.400 Z4.600
M400
M204 P200 T200
G1 F400
G1 Z0.000 F2500
G1 X350.100 Y302.400
G1 X350.200 Y302.400
G1 X350.300 Y302.400
G1 X350.400 Y302.400
G1 X350.500 Y302.400
G1 X350.600 Y302.400
G1 X350.700 Y302.400
G1 X350.800 Y302.400
G1 X350.900 Y302.400
G1 X351.000 Y302.400
G1 X351.100 Y302.400
G1 X351.200 Y302.400
G1 X351.300 Y302.400
G1 X351.400 Y302.400
G1 X351.500 Y302.400
G1 X351.600 Y302.400
G1 X351.700 Y302.400
G1 X351.800 Y302.400
G1 X351.900 Y302.400
G1 X352.000 Y302.400
G1 X352.100 Y302.400
G1 X352.200 Y302.400
G1 X352.300 Y302.400
G1 X352.400 Y302.400
G1 X352.500 Y302.400
G1 X352.600 Y302.400
G1 X352.700 Y302.400
G1 X352.800 Y302.400
G1 X352.900 Y302.400
G1 X353.000 Y302.400
G1 X353.100 Y302.400
G1 X353.200 Y302.400
G1 X353.300 Y302.400
G1 X353.400 Y302.400
G1 X353.500 Y302.400
G1 X353.600 Y302.400
G1 X353.700 Y302.400
G1 X353.800 Y302.400
G1 X353.900 Y302.400
G1 X354.000 Y302.400
G1 X354.100 Y302.400
G1 X354.200 Y302.400
G1 X354.300 Y302.400
G1 X354.400 Y302.400
G1 X354.500 Y302.400
G1 X354.600 Y302.400
G1 X354.700 Y302.400
G1 X354.800 Y302.400
G1 X354.900 Y302.400
G1 X355.000 Y302.400
G1 X355.100 Y302.400
G1 X355.200 Y302.400
G1 X355.300 Y302.400
G1 X355.400 Y302.400
G1 X355.500 Y302.400
G1 X355.600 Y302.400
G1 X355.700 Y302.400
G1 X355.800 Y302.400
G1 X355.900 Y302.400
G1 X356.000 Y302.400
G1 X356.100 Y302.400
G1 X356.200 Y302.400
G1 X356.300 Y302.400
G1 X356.400 Y302.400
G1 X356.500 Y302.400
G1 X356.600 Y302.400
G1 X356.700 Y302.400
G1 X356.800 Y302.400
G1 X356.900 Y302.400
G1 X357.000 Y302.400
G1 X357.100 Y302.400
G1 X357.200 Y302.400
G1 X357.300 Y302.400
G1 X357.400 Y302.400
G1 X357.500 Y302.400
G1 X357.600 Y302.400
G1 X357.700 Y302.400
G1 X357.800 Y302.400
G1 X357.900 Y302.400
G1 X358.000 Y302.400
G1 X358.100 Y302.400
G1 X358.200 Y302.400
G1 X358.300 Y302.400
G1 X358.400 Y302.400
G1 X358.500 Y302.400
G1 X358.600 Y302.400
G1 X358.700 Y302.400
G1 X358.800 Y302.400
G1 X358.900 Y302.400
G1 X359.000 Y302.400
G1 X359.100 Y302.400
G1 X359.200 Y302.400
G0 Z4.600 F3000
M400
M204 P1200 T1200
G1 F1200
G0 X356.100 Y306.300 Z4.600
M400
M204 P200 T200
G1 F400
G1 Z0.000 F2500
G1 X356.000 Y306.300
G1 X355.900 Y306.300
G1 X355.800 Y306.300
G1 X355.700 Y306.300
G1 X355.600 Y306.300
G1 X355.500 Y306.300
G1 X355.400 Y306.300
G1 X355.300 Y306.300
G1 X355.200 Y306.300
G1 X355.100 Y306.300
G1 X355.000 Y306.300
G1 X354.900 Y306.300
G1 X354.800 Y306.300
G1 X354.700 Y306.300
G1 X354.600 Y306.300
G1 X354.500 Y306.300
G1 X354.400 Y306.300
G1 X354.300 Y306.300
G1 X354.200 Y306.300
G1 X354.100 Y306.300
G1 X354.000 Y306.300
G1 X353.900 Y306.300
G1 X353.800 Y306.300
G1 X353.700 Y306.300
G1 X353.600 Y306.300
G1 X353.500 Y306.300
G1 X353.400 Y306.300
G1 X353.300 Y306.300
G1 X353.200 Y306.300
G1 X353.100 Y306.300
G1 X353.000 Y306.300
G1 X352.900 Y306.300
G1 X352.800 Y306.300
G1 X352.700 Y306.300
G1 X352.600 Y306.300
G1 X352.500 Y306.300
G1 X352.400 Y306.300
G1 X352.300 Y306.300
G1 X352.200 Y306.300
G1 X352.100 Y306.300
G1 X352.000 Y306.300
G1 X351.900 Y306.300
G1 X351.800 Y306.300
G1 X351.700 Y306.300
G1 X351.600 Y306.300
G1 X351.500 Y306.300
G1 X351.400 Y306.300
G1 X351.300 Y306.300
G1 X351.200 Y306.300
G1 X351.100 Y306.300
G1 X351.000 Y306.300
G1 X350.900 Y306.300
G1 X350.800 Y306.300
G1 X350.700 Y306.300
G1 X350.600 Y306.300
G1 X350.500 Y306.300
G1 X350.400 Y306.300
G1 X350.300 Y306.300
G1 X350.200 Y306.300
G1 X350.100 Y306.300
G1 X350.000 Y306.300
G1 X349.900 Y306.300
G1 X349.800 Y306.300
G1 X349.700 Y306.300
G1 X349.600 Y306.300
G1 X349.500 Y306.300
G1 X349.400 Y306.300
G1 X349.300 Y306.300
G1 X349.200 Y306.300
G1 X349.100 Y306.300
G1 X349.000 Y306.300
G1 X348.900 Y306.300
G1 X348.800 Y306.300
G1 X348.700 Y306.300
G1 X348.600 Y306.300
G1 X348.500 Y306.300
G1 X348.400 Y306.300
G1 X348.300 Y306.300
G1 X348.200 Y306.300
G1 X348.100 Y306.300
G1 X348.000 Y306.300
G1 X347.900 Y306.300
G1 X347.800 Y306.300
G1 X347.700 Y306.300
G1 X347.600 Y306.300
G1 X347.500 Y306.300
G1 X347.400 Y306.300
G1 X347.300 Y306.300
G1 X347.200 Y306.300
G1 X347.100 Y306.300
G1 X347.000 Y306.300
G1 X346.900 Y306.300
G1 X346.800 Y306.300
G1 X346.700 Y306.300
G1 X346.600 Y306.300
G1 X346.500 Y306.300
G0 Z4.600 F3000
M400
M204 P1200 T1200
G1 F1200
G0 X346.400 Y307.600 Z4.600
M400
M204 P200 T200
G1 F400
G1 Z0.000 F2500
G1 X346.500 Y307.600
G1 X346.600 Y307.600
G1 X346.700 Y307.600
G1 X346.800 Y307.600
G1 X346.900 Y307.600
G1 X347.000 Y307.600
G1 X347.100 Y307.600
G1 X347.200 Y307.600
G1 X347.300 Y307.600
G1 X347.400 Y307.600
G1 X347.500 Y307.600
G1 X347.600 Y307.600
G1 X347.700 Y307.600
G1 X347.800 Y307.600
G1 X347.900 Y307.600
G1 X348.000 Y307.600
G1 X348.100 Y307.600
G1 X348.200 Y307.600
G1 X348.300 Y307.600
G1 X348.400 Y307.600
G1 X348.500 Y307.600
G1 X348.600 Y307.600
G1 X348.700 Y307.600
G1 X348.800 Y307.600
G1 X348.900 Y307.600
G1 X349.000 Y307.600
G1 X349.100 Y307.600
G1 X349.200 Y307.600
G1 X349.300 Y307.600
G1 X349.400 Y307.600
G1 X349.500 Y307.600
G1 X349.600 Y307.600
G1 X349.700 Y307.600
G1 X349.800 Y307.600
G1 X349.900 Y307.600
G1 X350.000 Y307.600
G1 X350.100 Y307.600
G1 X350.200 Y307.600
G1 X350.300 Y307.600
G1 X350.400 Y307.600
G1 X350.500 Y307.600
G1 X350.600 Y307.600
G1 X350.700 Y307.600
G1 X350.800 Y307.600
G1 X350.900 Y307.600
G1 X351.000 Y307.600
G1 X351.100 Y307.600
G1 X351.200 Y307.600
G1 X351.300 Y307.600
G1 X351.400 Y307.600
G1 X351.500 Y307.600
G1 X351.600 Y307.600
G1 X351.700 Y307.600
G1 X351.800 Y307.600
G1 X351.900 Y307.600
G1 X352.000 Y307.600
G1 X352.100 Y307.600
G1 X352.200 Y307.600
G1 X352.300 Y307.600
G1 X352.400 Y307.600
G1 X352.500 Y307.600
G1 X352.600 Y307.600
G1 X352.700 Y307.600
G1 X352.800 Y307.600
G1 X352.900 Y307.600
G1 X353.000 Y307.600
G1 X353.100 Y307.600
G1 X353.200 Y307.600
G1 X353.300 Y307.600
G1 X353.400 Y307.600
G1 X353.500 Y307.600
G1 X353.600 Y307.600
G1 X353.700 Y307.600
G1 X353.800 Y307.600
G1 X353.900 Y307.600
G1 X354.000 Y307.600
G1 X354.100 Y307.600
G1 X354.200 Y307.600
G1 X354.300 Y307.600
G1 X354.400 Y307.600
G1 X354.500 Y307.600
G1 X354.600 Y307.600
G1 X354.700 Y307.600
G1 X354.800 Y307.600
G1 X354.900 Y307.600
G1 X355.000 Y307.600
G1 X355.100 Y307.600
G1 X355.200 Y307.600
G1 X355.300 Y307.600
G1 X355.400 Y307.600
G0 Z4.600 F3000
M400
M204 P1200 T1200
G1 F1200
G0 X352.700 Y315.400 Z4.600
M400
M204 P200 T200
G1 F400
G1 Z0.000 F2500
G1 X352.600 Y315.400
G1 X352.500 Y315.400
G1 X352.400 Y315.400
G1 X352.300 Y315.400
G1 X352.200 Y315.400
G1 X352.100 Y315.400
G1 X352.000 Y315.400
G1 X351.900 Y315.400
G1 X351.800 Y315.400
G1 X351.700 Y315.400
G1 X351.600 Y315.400
G1 X351.500 Y315.400
G1 X351.400 Y315.400
G0 Z4.600 F3000
M400
M204 P1200 T1200
G1 F1200
G0 X351.900 Y316.700 Z4.600
M400
M204 P200 T200
G1 F400
G1 Z0.000 F2500
G1 X352.000 Y316.700
G1 X352.100 Y316.700
G1 X352.200 Y316.700
G1 X352.300 Y316.700
G1 X352.400 Y316.700
G1 X352.500 Y316.700
G1 X352.600 Y316.700
G1 X352.700 Y316.700
G1 X352.800 Y316.700
G1 X352.900 Y316.700
G1 X353.000 Y316.700
G0 Z4.600 F3000
M400
M204 P1200 T1200
G1 F1200
G0 X353.800 Y318.000 Z4.600
M400
M204 P200 T200
G1 F400
G1 Z0.000 F2500
G1 X353.900 Y318.000
G1 X354.000 Y318.000
G1 X354.100 Y318.000
G1 X354.200 Y318.000
G0 Z4.600 F3000
M400
M204 P1200 T1200
G1 F1200
G0 X354.000 Y319.300 Z4.600
M400
M204 P200 T200
G1 F400
G1 Z0.000 F2500
G1 X354.100 Y319.300
G1 X354.200 Y319.300
G1 X354.300 Y319.300
G1 X354.400 Y319.300
G1 X354.500 Y319.300
G1 X354.600 Y319.300
G1 X354.700 Y319.300
G0 Z4.600 F3000
M400
M204 P1200 T1200
G1 F1200
G0 X355.300 Y320.600 Z4.600
M400
M204 P200 T200
G1 F400
G1 Z0.000 F2500
G1 X355.200 Y320.600
G1 X355.100 Y320.600
G1 X355.000 Y320.600
G1 X354.900 Y320.600
G1 X354.800 Y320.600
G1 X354.700 Y320.600
G1 X354.600 Y320.600
G1 X354.500 Y320.600
G1 X354.400 Y320.600
G1 X354.300 Y320.600
G1 X354.200 Y320.600
G1 X354.100 Y320.600
G1 X354.000 Y320.600
G1 X353.900 Y320.600
G1 X353.800 Y320.600
G1 X353.700 Y320.600
G0 Z4.600 F3000
M400
M204 P1200 T1200
G1 F1200
G0 X355.500 Y321.900 Z4.600
M400
M204 P200 T200
G1 F400
G1 Z0.000 F2500
G1 X355.600 Y321.900
G1 X355.700 Y321.900
G1 X355.800 Y321.900
G1 X355.900 Y321.900
G1 X356.000 Y321.900
G1 X356.100 Y321.900
G0 Z4.600 F3000
M400
M204 P1200 T1200
G1 F1200
G0 X356.800 Y321.900 Z4.600
M400
M204 P200 T200
G1 F400
G1 Z0.000 F2500
G1 X356.900 Y321.900
G1 X357.000 Y321.900
G1 X357.100 Y321.900
G1 X357.200 Y321.900
G1 X357.300 Y321.900
G0 Z4.600 F3000
M400
M204 P1200 T1200
G1 F1200
G0 X357.500 Y323.200 Z4.600
M400
M204 P200 T200
G1 F400
G1 Z0.000 F2500
G1 X357.400 Y323.200
G1 X357.300 Y323.200
G1 X357.200 Y323.200
G1 X357.100 Y323.200
G1 X357.000 Y323.200
G1 X356.900 Y323.200
G1 X356.800 Y323.200
G1 X356.700 Y323.200
G1 X356.600 Y323.200
G1 X356.500 Y323.200
G1 X356.400 Y323.200
G1 X356.300 Y323.200
G1 X356.200 Y323.200
G1 X356.100 Y323.200
G1 X356.000 Y323.200
G1 X355.900 Y323.200
G0 Z4.600 F3000
M400
M204 P1200 T1200
G1 F1200
G0 X358.700 Y324.500 Z4.600
M400
M204 P200 T200
G1 F400
G1 Z0.000 F2500
G1 X358.800 Y324.500
G0 Z4.600 F3000
M400
M204 P1200 T1200
G1 F1200
G0 X358.000 Y325.800 Z4.600
M400
M204 P200 T200
G1 F400
G1 Z0.000 F2500
G1 X358.100 Y325.800
G1 X358.200 Y325.800
G1 X358.300 Y325.800
G1 X358.400 Y325.800
G1 X358.500 Y325.800
G1 X358.600 Y325.800
G1 X358.700 Y325.800
G1 X358.800 Y325.800
G1 X358.900 Y325.800
G1 X359.000 Y325.800
G1 X359.100 Y325.800
G1 X359.200 Y325.800
G1 X359.300 Y325.800
G1 X359.400 Y325.800
G1 X359.500 Y325.800
G1 X359.600 Y325.800
G0 Z4.600 F3000
M400
M204 P1200 T1200
G1 F1200
G0 X360.400 Y327.100 Z4.600
M400
M204 P200 T200
G1 F400
G1 Z0.000 F2500
G1 X360.300 Y327.100
G1 X360.200 Y327.100
G1 X360.100 Y327.100
G1 X360.000 Y327.100
G1 X359.900 Y327.100
G1 X359.800 Y327.100
G1 X359.700 Y327.100
G1 X359.600 Y327.100
G1 X359.500 Y327.100
G1 X359.400 Y327.100
G1 X359.300 Y327.100
G1 X359.200 Y327.100
G1 X359.100 Y327.100
G1 X359.000 Y327.100
G1 X358.900 Y327.100
G1 X358.800 Y327.100
G1 X358.700 Y327.100
G1 X358.600 Y327.100
G1 X358.500 Y327.100
G1 X358.400 Y327.100
G1 X358.300 Y327.100
G1 X358.200 Y327.100
G1 X358.100 Y327.100
G1 X358.000 Y327.100
G1 X357.900 Y327.100
G1 X357.800 Y327.100
G0 Z4.600 F3000
M400
M204 P1200 T1200
G1 F1200
G0 X359.800 Y328.400 Z4.600
M400
M204 P200 T200
G1 F400
G1 Z0.000 F2500
G1 X359.900 Y328.400
G1 X360.000 Y328.400
G1 X360.100 Y328.400
G1 X360.200 Y328.400
G1 X360.300 Y328.400
G1 X360.400 Y328.400
G1 X360.500 Y328.400
G1 X360.600 Y328.400
G1 X360.700 Y328.400
G1 X360.800 Y328.400
G1 X360.900 Y328.400
G1 X361.000 Y328.400
G1 X361.100 Y328.400
G1 X361.200 Y328.400
G1 X361.300 Y328.400
G1 X361.400 Y328.400
G1 X361.500 Y328.400
G1 X361.600 Y328.400
G0 Z4.600 F3000
M400
M204 P1200 T1200
G1 F1200
G0 X361.900 Y329.700 Z4.600
M400
M204 P200 T200
G1 F400
G1 Z0.000 F2500
G1 X362.000 Y329.700
G1 X362.100 Y329.700
G1 X362.200 Y329.700
G1 X362.300 Y329.700
G1 X362.400 Y329.700
G1 X362.500 Y329.700
G1 X362.600 Y329.700
G0 Z4.600 F3000
M400
M204 P1200 T1200
G1 F1200
G0 X362.600 Y331.000 Z4.600
M400
M204 P200 T200
G1 F400
G1 Z0.000 F2500
G1 X362.700 Y331.000
G1 X362.800 Y331.000
G1 X362.900 Y331.000
G1 X363.000 Y331.000
G1 X363.100 Y331.000
G1 X363.200 Y331.000
G1 X363.300 Y331.000
G0 Z4.600 F3000
M400
M204 P1200 T1200
G1 F1200
G0 X361.900 Y331.000 Z4.600
M400
M204 P200 T200
G1 F400
G1 Z0.000 F2500
G1 X361.800 Y331.000
G0 Z4.600 F3000
M400
M204 P1200 T1200
G1 F1200
G0 X362.200 Y332.300 Z4.600
M400
M204 P200 T200
G1 F400
G1 Z0.000 F2500
G1 X362.300 Y332.300
G1 X362.400 Y332.300
G1 X362.500 Y332.300
G1 X362.600 Y332.300
G1 X362.700 Y332.300
G1 X362.800 Y332.300
G1 X362.900 Y332.300
G1 X363.000 Y332.300
G1 X363.100 Y332.300
G1 X363.200 Y332.300
G1 X363.300 Y332.300
G1 X363.400 Y332.300
G1 X363.500 Y332.300
G1 X363.600 Y332.300
G1 X363.700 Y332.300
G1 X363.800 Y332.300
G0 Z4.600 F3000
M400
M204 P1200 T1200
G1 F1200
G0 X364.400 Y333.600 Z4.600
M400
M204 P200 T200
G1 F400
G1 Z0.000 F2500
G1 X364.300 Y333.600
G1 X364.200 Y333.600
G1 X364.100 Y333.600
G1 X364.000 Y333.600
G1 X363.900 Y333.600
G1 X363.800 Y333.600
G1 X363.700 Y333.600
G1 X363.600 Y333.600
G1 X363.500 Y333.600
G1 X363.400 Y333.600
G1 X363.300 Y333.600
G1 X363.200 Y333.600
G1 X363.100 Y333.600
G1 X363.000 Y333.600
G1 X362.900 Y333.600
G1 X362.800 Y333.600
G1 X362.700 Y333.600
G1 X362.600 Y333.600
G1 X362.500 Y333.600
G1 X362.400 Y333.600
G1 X362.300 Y333.600
G1 X362.200 Y333.600
G1 X362.100 Y333.600
G1 X362.000 Y333.600
G1 X361.900 Y333.600
G1 X361.800 Y333.600
G0 Z4.600 F3000
M400
M204 P1200 T1200
G1 F1200
G0 X360.600 Y331.000 Z4.600
M400
M204 P200 T200
G1 F400
G1 Z0.000 F2500
G1 X360.500 Y331.000
G1 X360.400 Y331.000
G1 X360.300 Y331.000
G1 X360.200 Y331.000
G1 X360.100 Y331.000
G1 X360.000 Y331.000
G0 Z4.600 F3000
M400
M204 P1200 T1200
G1 F1200
G0 X359.900 Y329.700 Z4.600
M400
M204 P200 T200
G1 F400
G1 Z0.000 F2500
G1 X360.000 Y329.700
G1 X360.100 Y329.700
G1 X360.200 Y329.700
G1 X360.300 Y329.700
G1 X360.400 Y329.700
G1 X360.500 Y329.700
G1 X360.600 Y329.700
G1 X360.700 Y329.700
G1 X360.800 Y329.700
G1 X360.900 Y329.700
G1 X361.000 Y329.700
G1 X361.100 Y329.700
G1 X361.200 Y329.700
G0 Z4.600 F3000
M400
M204 P1200 T1200
G1 F1200
G0 X361.600 Y334.900 Z4.600
M400
M204 P200 T200
G1 F400
G1 Z0.000 F2500
G1 X361.500 Y334.900
G1 X361.400 Y334.900
G1 X361.300 Y334.900
G1 X361.200 Y334.900
G1 X361.100 Y334.900
G1 X361.000 Y334.900
G1 X360.900 Y334.900
G1 X360.800 Y334.900
G1 X360.700 Y334.900
G1 X360.600 Y334.900
G1 X360.500 Y334.900
G1 X360.400 Y334.900
G1 X360.300 Y334.900
G1 X360.200 Y334.900
G1 X360.100 Y334.900
G1 X360.000 Y334.900
G1 X359.900 Y334.900
G1 X359.800 Y334.900
G1 X359.700 Y334.900
G1 X359.600 Y334.900
G1 X359.500 Y334.900
G1 X359.400 Y334.900
G1 X359.300 Y334.900
G1 X359.200 Y334.900
G1 X359.100 Y334.900
G1 X359.000 Y334.900
G1 X358.900 Y334.900
G1 X358.800 Y334.900
G1 X358.700 Y334.900
G1 X358.600 Y334.900
G1 X358.500 Y334.900
G1 X358.400 Y334.900
G1 X358.300 Y334.900
G0 Z4.600 F3000
M400
M204 P1200 T1200
G1 F1200
G0 X359.800 Y336.200 Z4.600
M400
M204 P200 T200
G1 F400
G1 Z0.000 F2500
G1 X359.700 Y336.200
G1 X359.600 Y336.200
G1 X359.500 Y336.200
G1 X359.400 Y336.200
G1 X359.300 Y336.200
G1 X359.200 Y336.200
G1 X359.100 Y336.200
G1 X359.000 Y336.200
G1 X358.900 Y336.200
G1 X358.800 Y336.200
G1 X358.700 Y336.200
G1 X358.600 Y336.200
G1 X358.500 Y336.200
G1 X358.400 Y336.200
G1 X358.300 Y336.200
G1 X358.200 Y336.200
G1 X358.100 Y336.200
G1 X358.000 Y336.200
G1 X357.900 Y336.200
G1 X357.800 Y336.200
G1 X357.700 Y336.200
G1 X357.600 Y336.200
G1 X357.500 Y336.200
G1 X357.400 Y336.200
G1 X357.300 Y336.200
G1 X357.200 Y336.200
G1 X357.100 Y336.200
G1 X357.000 Y336.200
G1 X356.900 Y336.200
G1 X356.800 Y336.200
G1 X356.700 Y336.200
G1 X356.600 Y336.200
G1 X356.500 Y336.200
G1 X356.400 Y336.200
G1 X356.300 Y336.200
G1 X356.200 Y336.200
G0 Z4.600 F3000
M400
M204 P1200 T1200
G1 F1200
G0 X354.500 Y337.500 Z4.600
M400
M204 P200 T200
G1 F400
G1 Z0.000 F2500
G1 X354.600 Y337.500
G1 X354.700 Y337.500
G1 X354.800 Y337.500
G1 X354.900 Y337.500
G1 X355.000 Y337.500
G1 X355.100 Y337.500
G1 X355.200 Y337.500
G1 X355.300 Y337.500
G1 X355.400 Y337.500
G1 X355.500 Y337.500
G1 X355.600 Y337.500
G1 X355.700 Y337.500
G1 X355.800 Y337.500
G1 X355.900 Y337.500
G1 X356.000 Y337.500
G1 X356.100 Y337.500
G1 X356.200 Y337.500
G1 X356.300 Y337.500
G1 X356.400 Y337.500
G1 X356.500 Y337.500
G1 X356.600 Y337.500
G1 X356.700 Y337.500
G1 X356.800 Y337.500
G1 X356.900 Y337.500
G1 X357.000 Y337.500
G1 X357.100 Y337.500
G1 X357.200 Y337.500
G1 X357.300 Y337.500
G1 X357.400 Y337.500
G1 X357.500 Y337.500
G1 X357.600 Y337.500
G1 X357.700 Y337.500
G1 X357.800 Y337.500
G1 X357.900 Y337.500
G1 X358.000 Y337.500
G1 X358.100 Y337.500
G1 X358.200 Y337.500
G1 X358.300 Y337.500
G1 X358.400 Y337.500
G1 X358.500 Y337.500
G1 X358.600 Y337.500
G1 X358.700 Y337.500
G1 X358.800 Y337.500
G1 X358.900 Y337.500
G1 X359.000 Y337.500
G1 X359.100 Y337.500
G1 X359.200 Y337.500
G1 X359.300 Y337.500
G1 X359.400 Y337.500
G1 X359.500 Y337.500
G1 X359.600 Y337.500
G1 X359.700 Y337.500
G0 Z4.600 F3000
M400
M204 P1200 T1200
G1 F1200
G0 X357.600 Y345.300 Z4.600
M400
M204 P200 T200
G1 F400
G1 Z0.000 F2500
G1 X357.700 Y345.300
G1 X357.800 Y345.300
G1 X357.900 Y345.300
G1 X358.000 Y345.300
G1 X358.100 Y345.300
G1 X358.200 Y345.300
G1 X358.300 Y345.300
G1 X358.400 Y345.300
G1 X358.500 Y345.300
G1 X358.600 Y345.300
G1 X358.700 Y345.300
G1 X358.800 Y345.300
G1 X358.900 Y345.300
G1 X359.000 Y345.300
G1 X359.100 Y345.300
G1 X359.200 Y345.300
G1 X359.300 Y345.300
G1 X359.400 Y345.300
G1 X359.500 Y345.300
G1 X359.600 Y345.300
G1 X359.700 Y345.300
G1 X359.800 Y345.300
G1 X359.900 Y345.300
G1 X360.000 Y345.300
G1 X360.100 Y345.300
G1 X360.200 Y345.300
G1 X360.300 Y345.300
G1 X360.400 Y345.300
G1 X360.500 Y345.300
G1 X360.600 Y345.300
G1 X360.700 Y345.300
G1 X360.800 Y345.300
G1 X360.900 Y345.300
G1 X361.000 Y345.300
G1 X361.100 Y345.300
G1 X361.200 Y345.300
G1 X361.300 Y345.300
G1 X361.400 Y345.300
G1 X361.500 Y345.300
G1 X361.600 Y345.300
G1 X361.700 Y345.300
G1 X361.800 Y345.300
G1 X361.900 Y345.300
G1 X362.000 Y345.300
G1 X362.100 Y345.300
G1 X362.200 Y345.300
G1 X362.300 Y345.300
G1 X362.400 Y345.300
G1 X362.500 Y345.300
G1 X362.600 Y345.300
G1 X362.700 Y345.300
G1 X362.800 Y345.300
G1 X362.900 Y345.300
G1 X363.000 Y345.300
G1 X363.100 Y345.300
G1 X363.200 Y345.300
G1 X363.300 Y345.300
G1 X363.400 Y345.300
G1 X363.500 Y345.300
G1 X363.600 Y345.300
G1 X363.700 Y345.300
G1 X363.800 Y345.300
G1 X363.900 Y345.300
G1 X364.000 Y345.300
G1 X364.100 Y345.300
G1 X364.200 Y345.300
G1 X364.300 Y345.300
G1 X364.400 Y345.300
G1 X364.500 Y345.300
G1 X364.600 Y345.300
G1 X364.700 Y345.300
G1 X364.800 Y345.300
G1 X364.900 Y345.300
G0 Z4.600 F3000

; --- DIP → Color 4 — Purple ---
G0 Z4.600 F3000
M400
M204 P1200 T1200
G1 F1200
G0 X158.697 Y0.000 Z31.000
G1 Z0.000 F3000
G1 X158.697 Y0.000 F2500
G1 X158.697 Y2.500 F2500
G1 X153.697 Y0.000 F2500
G1 X158.697 Y0.000 F2500
G0 Z16.000 F3000
G0 X148.189 Y12.567
G0 Z31.000 F3000
G0 X365.000 Y345.300 Z4.600
M400
M204 P200 T200
G1 F400
G1 Z0.000 F2500
G1 X365.000 Y345.300
G1 X365.100 Y345.300
G1 X365.200 Y345.300
G1 X365.300 Y345.300
G1 X365.400 Y345.300
G1 X365.500 Y345.300
G1 X365.600 Y345.300
G1 X365.700 Y345.300
G1 X365.800 Y345.300
G1 X365.900 Y345.300
G1 X366.000 Y345.300
G1 X366.100 Y345.300
G1 X366.200 Y345.300
G1 X366.300 Y345.300
G1 X366.400 Y345.300
G1 X366.500 Y345.300
G1 X366.600 Y345.300
G1 X366.700 Y345.300
G1 X366.800 Y345.300
G1 X366.900 Y345.300
G1 X367.000 Y345.300
G1 X367.100 Y345.300
G1 X367.200 Y345.300
G1 X367.300 Y345.300
G1 X367.400 Y345.300
G1 X367.500 Y345.300
G1 X367.600 Y345.300
G1 X367.700 Y345.300
G1 X367.800 Y345.300
G0 Z4.600 F3000
M400
M204 P1200 T1200
G1 F1200
G0 X371.800 Y350.500 Z4.600
M400
M204 P200 T200
G1 F400
G1 Z0.000 F2500
G1 X371.900 Y350.500
G1 X372.000 Y350.500
G1 X372.100 Y350.500
G1 X372.200 Y350.500
G1 X372.300 Y350.500
G1 X372.400 Y350.500
G1 X372.500 Y350.500
G1 X372.600 Y350.500
G1 X372.700 Y350.500
G0 Z4.600 F3000
M400
M204 P1200 T1200
G1 F1200
G0 X372.700 Y351.800 Z4.600
M400
M204 P200 T200
G1 F400
G1 Z0.000 F2500
G1 X372.800 Y351.800
G1 X372.900 Y351.800
G1 X373.000 Y351.800
G1 X373.100 Y351.800
G1 X373.200 Y351.800
G1 X373.300 Y351.800
G1 X373.400 Y351.800
G1 X373.500 Y351.800
G1 X373.600 Y351.800
G1 X373.700 Y351.800
G1 X373.800 Y351.800
G1 X373.900 Y351.800
G1 X374.000 Y351.800
G1 X374.100 Y351.800
G0 Z4.600 F3000
M400
M204 P1200 T1200
G1 F1200
G0 X374.300 Y353.100 Z4.600
M400
M204 P200 T200
G1 F400
G1 Z0.000 F2500
G1 X374.400 Y353.100
G1 X374.500 Y353.100
G1 X374.600 Y353.100
G1 X374.700 Y353.100
G1 X374.800 Y353.100
G1 X374.900 Y353.100
G1 X375.000 Y353.100
G1 X375.100 Y353.100
G1 X375.200 Y353.100
G1 X375.300 Y353.100
G1 X375.400 Y353.100
G1 X375.500 Y353.100
G1 X375.600 Y353.100
G1 X375.700 Y353.100
G0 Z4.600 F3000
M400
M204 P1200 T1200
G1 F1200
G0 X374.700 Y354.400 Z4.600
M400
M204 P200 T200
G1 F400
G1 Z0.000 F2500
G1 X374.800 Y354.400
G1 X374.900 Y354.400
G1 X375.000 Y354.400
G1 X375.100 Y354.400
G1 X375.200 Y354.400
G1 X375.300 Y354.400
G1 X375.400 Y354.400
G1 X375.500 Y354.400
G1 X375.600 Y354.400
G1 X375.700 Y354.400
G1 X375.800 Y354.400
G1 X375.900 Y354.400
G1 X376.000 Y354.400
G1 X376.100 Y354.400
G1 X376.200 Y354.400
G1 X376.300 Y354.400
G1 X376.400 Y354.400
G1 X376.500 Y354.400
G1 X376.600 Y354.400
G1 X376.700 Y354.400
G1 X376.800 Y354.400
G0 Z4.600 F3000
M400
M204 P1200 T1200
G1 F1200
G0 X376.600 Y355.700 Z4.600
M400
M204 P200 T200
G1 F400
G1 Z0.000 F2500
G1 X376.700 Y355.700
G1 X376.800 Y355.700
G1 X376.900 Y355.700
G1 X377.000 Y355.700
G1 X377.100 Y355.700
G1 X377.200 Y355.700
G1 X377.300 Y355.700
G1 X377.400 Y355.700
G1 X377.500 Y355.700
G1 X377.600 Y355.700
G1 X377.700 Y355.700
G1 X377.800 Y355.700
G1 X377.900 Y355.700
G1 X378.000 Y355.700
G1 X378.100 Y355.700
G0 Z4.600 F3000
M400
M204 P1200 T1200
G1 F1200
G0 X378.000 Y357.000 Z4.600
M400
M204 P200 T200
G1 F400
G1 Z0.000 F2500
G1 X377.900 Y357.000
G0 Z4.600 F3000
M400
M204 P1200 T1200
G1 F1200
G0 X377.700 Y357.000 Z4.600
M400
M204 P200 T200
G1 F400
G1 Z0.000 F2500
G1 X377.600 Y357.000
G1 X377.500 Y357.000
G1 X377.400 Y357.000
G1 X377.300 Y357.000
G1 X377.200 Y357.000
G0 Z4.600 F3000
M400
M204 P1200 T1200
G1 F1200
G0 X376.900 Y357.000 Z4.600
M400
M204 P200 T200
G1 F400
G1 Z0.000 F2500
G1 X376.800 Y357.000
G1 X376.700 Y357.000
G1 X376.600 Y357.000
G1 X376.500 Y357.000
G1 X376.400 Y357.000
G1 X376.300 Y357.000
G1 X376.200 Y357.000
G0 Z4.600 F3000
M400
M204 P1200 T1200
G1 F1200
G0 X375.200 Y359.600 Z4.600
M400
M204 P200 T200
G1 F400
G1 Z0.000 F2500
G1 X375.100 Y359.600
G1 X375.000 Y359.600
G1 X374.900 Y359.600
G1 X374.800 Y359.600
G1 X374.700 Y359.600
G1 X374.600 Y359.600
G1 X374.500 Y359.600
G1 X374.400 Y359.600
G0 Z4.600 F3000
M400
M204 P1200 T1200
G1 F1200
G0 X374.100 Y360.900 Z4.600
M400
M204 P200 T200
G1 F400
G1 Z0.000 F2500
G1 X374.000 Y360.900
G1 X373.900 Y360.900
G1 X373.800 Y360.900
G1 X373.700 Y360.900
G1 X373.600 Y360.900
G1 X373.500 Y360.900
G1 X373.400 Y360.900
G1 X373.300 Y360.900
G1 X373.200 Y360.900
G1 X373.100 Y360.900
G1 X373.000 Y360.900
G1 X372.900 Y360.900
G0 Z4.600 F3000
M400
M204 P1200 T1200
G1 F1200
G0 X373.500 Y362.200 Z4.600
M400
M204 P200 T200
G1 F400
G1 Z0.000 F2500
G1 X373.400 Y362.200
G1 X373.300 Y362.200
G1 X373.200 Y362.200
G1 X373.100 Y362.200
G1 X373.000 Y362.200
G1 X372.900 Y362.200
G1 X372.800 Y362.200
G1 X372.700 Y362.200
G1 X372.600 Y362.200
G1 X372.500 Y362.200
G1 X372.400 Y362.200
G1 X372.300 Y362.200
G1 X372.200 Y362.200
G1 X372.100 Y362.200
G0 Z4.600 F3000
M400
M204 P1200 T1200
G1 F1200
G0 X371.700 Y363.500 Z4.600
M400
M204 P200 T200
G1 F400
G1 Z0.000 F2500
G1 X371.600 Y363.500
G1 X371.500 Y363.500
G1 X371.400 Y363.500
G1 X371.300 Y363.500
G1 X371.200 Y363.500
G1 X371.100 Y363.500
G1 X371.000 Y363.500
G0 Z4.600 F3000
M400
M204 P1200 T1200
G1 F1200
G0 X370.700 Y363.500 Z4.600
M400
M204 P200 T200
G1 F400
G1 Z0.000 F2500
G1 X370.600 Y363.500
G1 X370.500 Y363.500
G0 Z4.600 F3000
M400
M204 P1200 T1200
G1 F1200
G0 X370.100 Y363.500 Z4.600
M400
M204 P200 T200
G1 F400
G1 Z0.000 F2500
G1 X370.000 Y363.500
G1 X369.900 Y363.500
G1 X369.800 Y363.500
G1 X369.700 Y363.500
G1 X369.600 Y363.500
G1 X369.500 Y363.500
G0 Z4.600 F3000
M400
M204 P1200 T1200
G1 F1200
G0 X370.000 Y364.800 Z4.600
M400
M204 P200 T200
G1 F400
G1 Z0.000 F2500
G1 X370.100 Y364.800
G1 X370.200 Y364.800
G0 Z4.600 F3000
M400
M204 P1200 T1200
G1 F1200
G0 X369.600 Y364.800 Z4.600
M400
M204 P200 T200
G1 F400
G1 Z0.000 F2500
G1 X369.500 Y364.800
G1 X369.400 Y364.800
G1 X369.300 Y364.800
G1 X369.200 Y364.800
G1 X369.100 Y364.800
G1 X369.000 Y364.800
G1 X368.900 Y364.800
G1 X368.800 Y364.800
G1 X368.700 Y364.800
G1 X368.600 Y364.800
G1 X368.500 Y364.800
G1 X368.400 Y364.800
G1 X368.300 Y364.800
G1 X368.200 Y364.800
G0 Z4.600 F3000
M400
M204 P1200 T1200
G1 F1200
G0 X367.900 Y363.500 Z4.600
M400
M204 P200 T200
G1 F400
G1 Z0.000 F2500
G1 X368.000 Y363.500
G1 X368.100 Y363.500
G1 X368.200 Y363.500
G1 X368.300 Y363.500
G1 X368.400 Y363.500
G1 X368.500 Y363.500
G1 X368.600 Y363.500
G1 X368.700 Y363.500
G1 X368.800 Y363.500
G1 X368.900 Y363.500
G1 X369.000 Y363.500
G1 X369.100 Y363.500
G1 X369.200 Y363.500
G0 Z4.600 F3000
M400
M204 P1200 T1200
G1 F1200
G0 X370.100 Y362.200 Z4.600
M400
M204 P200 T200
G1 F400
G1 Z0.000 F2500
G1 X370.000 Y362.200
G1 X369.900 Y362.200
G1 X369.800 Y362.200
G1 X369.700 Y362.200
G1 X369.600 Y362.200
G1 X369.500 Y362.200
G1 X369.400 Y362.200
G1 X369.300 Y362.200
G1 X369.200 Y362.200
G1 X369.100 Y362.200
G1 X369.000 Y362.200
G1 X368.900 Y362.200
G1 X368.800 Y362.200
G1 X368.700 Y362.200
G1 X368.600 Y362.200
G1 X368.500 Y362.200
G1 X368.400 Y362.200
G1 X368.300 Y362.200
G1 X368.200 Y362.200
G1 X368.100 Y362.200
G1 X368.000 Y362.200
G1 X367.900 Y362.200
G0 Z4.600 F3000
M400
M204 P1200 T1200
G1 F1200
G0 X367.900 Y360.900 Z4.600
M400
M204 P200 T200
G1 F400
G1 Z0.000 F2500
G1 X368.000 Y360.900
G1 X368.100 Y360.900
G1 X368.200 Y360.900
G1 X368.300 Y360.900
G1 X368.400 Y360.900
G1 X368.500 Y360.900
G1 X368.600 Y360.900
G1 X368.700 Y360.900
G1 X368.800 Y360.900
G1 X368.900 Y360.900
G1 X369.000 Y360.900
G1 X369.100 Y360.900
G1 X369.200 Y360.900
G1 X369.300 Y360.900
G1 X369.400 Y360.900
G1 X369.500 Y360.900
G1 X369.600 Y360.900
G0 Z4.600 F3000
M400
M204 P1200 T1200
G1 F1200
G0 X369.200 Y359.600 Z4.600
M400
M204 P200 T200
G1 F400
G1 Z0.000 F2500
G1 X369.100 Y359.600
G1 X369.000 Y359.600
G1 X368.900 Y359.600
G1 X368.800 Y359.600
G1 X368.700 Y359.600
G1 X368.600 Y359.600
G1 X368.500 Y359.600
G1 X368.400 Y359.600
G1 X368.300 Y359.600
G1 X368.200 Y359.600
G0 Z4.600 F3000
M400
M204 P1200 T1200
G1 F1200
G0 X370.500 Y357.000 Z4.600
M400
M204 P200 T200
G1 F400
G1 Z0.000 F2500
G1 X370.600 Y357.000
G1 X370.700 Y357.000
G1 X370.800 Y357.000
G1 X370.900 Y357.000
G0 Z4.600 F3000
M400
M204 P1200 T1200
G1 F1200
G0 X370.100 Y355.700 Z4.600
M400
M204 P200 T200
G1 F400
G1 Z0.000 F2500
G1 X370.000 Y355.700
G1 X369.900 Y355.700
G1 X369.800 Y355.700
G1 X369.700 Y355.700
G1 X369.600 Y355.700
G1 X369.500 Y355.700
G1 X369.400 Y355.700
G1 X369.300 Y355.700
G1 X369.200 Y355.700
G1 X369.100 Y355.700
G1 X369.000 Y355.700
G1 X368.900 Y355.700
G1 X368.800 Y355.700
G0 Z4.600 F3000
M400
M204 P1200 T1200
G1 F1200
G0 X368.400 Y355.700 Z4.600
M400
M204 P200 T200
G1 F400
G1 Z0.000 F2500
G1 X368.300 Y355.700
G1 X368.200 Y355.700
G1 X368.100 Y355.700
G1 X368.000 Y355.700
G1 X367.900 Y355.700
G1 X367.800 Y355.700
G0 Z4.600 F3000
M400
M204 P1200 T1200
G1 F1200
G0 X367.500 Y354.400 Z4.600
M400
M204 P200 T200
G1 F400
G1 Z0.000 F2500
G1 X367.400 Y354.400
G1 X367.300 Y354.400
G1 X367.200 Y354.400
G1 X367.100 Y354.400
G1 X367.000 Y354.400
G1 X366.900 Y354.400
G1 X366.800 Y354.400
G0 Z4.600 F3000
M400
M204 P1200 T1200
G1 F1200
G0 X367.400 Y353.100 Z4.600
M400
M204 P200 T200
G1 F400
G1 Z0.000 F2500
G1 X367.300 Y353.100
G1 X367.200 Y353.100
G1 X367.100 Y353.100
G1 X367.000 Y353.100
G1 X366.900 Y353.100
G1 X366.800 Y353.100
G1 X366.700 Y353.100
G1 X366.600 Y353.100
G1 X366.500 Y353.100
G1 X366.400 Y353.100
G1 X366.300 Y353.100
G1 X366.200 Y353.100
G1 X366.100 Y353.100
G0 Z4.600 F3000
M400
M204 P1200 T1200
G1 F1200
G0 X367.800 Y351.800 Z4.600
M400
M204 P200 T200
G1 F400
G1 Z0.000 F2500
G1 X367.700 Y351.800
G1 X367.600 Y351.800
G1 X367.500 Y351.800
G1 X367.400 Y351.800
G1 X367.300 Y351.800
G1 X367.200 Y351.800
G1 X367.100 Y351.800
G1 X367.000 Y351.800
G1 X366.900 Y351.800
G1 X366.800 Y351.800
G1 X366.700 Y351.800
G1 X366.600 Y351.800
G1 X366.500 Y351.800
G1 X366.400 Y351.800
G1 X366.300 Y351.800
G1 X366.200 Y351.800
G1 X366.100 Y351.800
G1 X366.000 Y351.800
G1 X365.900 Y351.800
G1 X365.800 Y351.800
G1 X365.700 Y351.800
G1 X365.600 Y351.800
G1 X365.500 Y351.800
G1 X365.400 Y351.800
G1 X365.300 Y351.800
G1 X365.200 Y351.800
G1 X365.100 Y351.800
G1 X365.000 Y351.800
G1 X364.900 Y351.800
G1 X364.800 Y351.800
G1 X364.700 Y351.800
G1 X364.600 Y351.800
G1 X364.500 Y351.800
G1 X364.400 Y351.800
G1 X364.300 Y351.800
G1 X364.200 Y351.800
G1 X364.100 Y351.800
G0 Z4.600 F3000
M400
M204 P1200 T1200
G1 F1200
G0 X362.900 Y350.500 Z4.600
M400
M204 P200 T200
G1 F400
G1 Z0.000 F2500
G1 X363.000 Y350.500
G1 X363.100 Y350.500
G1 X363.200 Y350.500
G1 X363.300 Y350.500
G1 X363.400 Y350.500
G1 X363.500 Y350.500
G1 X363.600 Y350.500
G1 X363.700 Y350.500
G1 X363.800 Y350.500
G1 X363.900 Y350.500
G1 X364.000 Y350.500
G1 X364.100 Y350.500
G1 X364.200 Y350.500
G1 X364.300 Y350.500
G1 X364.400 Y350.500
G1 X364.500 Y350.500
G1 X364.600 Y350.500
G1 X364.700 Y350.500
G1 X364.800 Y350.500
G1 X364.900 Y350.500
G1 X365.000 Y350.500
G1 X365.100 Y350.500
G1 X365.200 Y350.500
G1 X365.300 Y350.500
G1 X365.400 Y350.500
G1 X365.500 Y350.500
G1 X365.600 Y350.500
G1 X365.700 Y350.500
G1 X365.800 Y350.500
G1 X365.900 Y350.500
G1 X366.000 Y350.500
G1 X366.100 Y350.500
G1 X366.200 Y350.500
G1 X366.300 Y350.500
G1 X366.400 Y350.500
G1 X366.500 Y350.500
G1 X366.600 Y350.500
G1 X366.700 Y350.500
G1 X366.800 Y350.500
G1 X366.900 Y350.500
G1 X367.000 Y350.500
G1 X367.100 Y350.500
G1 X367.200 Y350.500
G1 X367.300 Y350.500
G1 X367.400 Y350.500
G1 X367.500 Y350.500
G1 X367.600 Y350.500
G1 X367.700 Y350.500
G1 X367.800 Y350.500
G1 X367.900 Y350.500
G1 X368.000 Y350.500
G1 X368.100 Y350.500
G1 X368.200 Y350.500
G1 X368.300 Y350.500
G1 X368.400 Y350.500
G1 X368.500 Y350.500
G1 X368.600 Y350.500
G1 X368.700 Y350.500
G1 X368.800 Y350.500
G1 X368.900 Y350.500
G1 X369.000 Y350.500
G1 X369.100 Y350.500
G1 X369.200 Y350.500
G1 X369.300 Y350.500
G1 X369.400 Y350.500
G1 X369.500 Y350.500
G1 X369.600 Y350.500
G1 X369.700 Y350.500
G1 X369.800 Y350.500
G1 X369.900 Y350.500
G1 X370.000 Y350.500
G0 Z4.600 F3000
M400
M204 P1200 T1200
G1 F1200
G0 X371.500 Y349.200 Z4.600
M400
M204 P200 T200
G1 F400
G1 Z0.000 F2500
G1 X371.400 Y349.200
G1 X371.300 Y349.200
G1 X371.200 Y349.200
G1 X371.100 Y349.200
G1 X371.000 Y349.200
G1 X370.900 Y349.200
G1 X370.800 Y349.200
G1 X370.700 Y349.200
G1 X370.600 Y349.200
G1 X370.500 Y349.200
G1 X370.400 Y349.200
G1 X370.300 Y349.200
G1 X370.200 Y349.200
G1 X370.100 Y349.200
G1 X370.000 Y349.200
G1 X369.900 Y349.200
G1 X369.800 Y349.200
G1 X369.700 Y349.200
G1 X369.600 Y349.200
G1 X369.500 Y349.200
G1 X369.400 Y349.200
G1 X369.300 Y349.200
G1 X369.200 Y349.200
G1 X369.100 Y349.200
G1 X369.000 Y349.200
G1 X368.900 Y349.200
G1 X368.800 Y349.200
G1 X368.700 Y349.200
G1 X368.600 Y349.200
G1 X368.500 Y349.200
G1 X368.400 Y349.200
G1 X368.300 Y349.200
G1 X368.200 Y349.200
G1 X368.100 Y349.200
G1 X368.000 Y349.200
G1 X367.900 Y349.200
G1 X367.800 Y349.200
G1 X367.700 Y349.200
G1 X367.600 Y349.200
G1 X367.500 Y349.200
G1 X367.400 Y349.200
G1 X367.300 Y349.200
G1 X367.200 Y349.200
G1 X367.100 Y349.200
G1 X367.000 Y349.200
G1 X366.900 Y349.200
G1 X366.800 Y349.200
G1 X366.700 Y349.200
G1 X366.600 Y349.200
G1 X366.500 Y349.200
G1 X366.400 Y349.200
G1 X366.300 Y349.200
G1 X366.200 Y349.200
G1 X366.100 Y349.200
G1 X366.000 Y349.200
G1 X365.900 Y349.200
G1 X365.800 Y349.200
G1 X365.700 Y349.200
G1 X365.600 Y349.200
G1 X365.500 Y349.200
G1 X365.400 Y349.200
G1 X365.300 Y349.200
G1 X365.200 Y349.200
G1 X365.100 Y349.200
G1 X365.000 Y349.200
G1 X364.900 Y349.200
G1 X364.800 Y349.200
G1 X364.700 Y349.200
G1 X364.600 Y349.200
G1 X364.500 Y349.200
G1 X364.400 Y349.200
G1 X364.300 Y349.200
G1 X364.200 Y349.200
G1 X364.100 Y349.200
G1 X364.000 Y349.200
G1 X363.900 Y349.200
G1 X363.800 Y349.200
G1 X363.700 Y349.200
G1 X363.600 Y349.200
G1 X363.500 Y349.200
G1 X363.400 Y349.200
G1 X363.300 Y349.200
G1 X363.200 Y349.200
G1 X363.100 Y349.200
G1 X363.000 Y349.200
G1 X362.900 Y349.200
G1 X362.800 Y349.200
G1 X362.700 Y349.200
G1 X362.600 Y349.200
G1 X362.500 Y349.200
G1 X362.400 Y349.200
G1 X362.300 Y349.200
G1 X362.200 Y349.200
G1 X362.100 Y349.200
G1 X362.000 Y349.200
G1 X361.900 Y349.200
G1 X361.800 Y349.200
G1 X361.700 Y349.200
G1 X361.600 Y349.200
G0 Z4.600 F3000
M400
M204 P1200 T1200
G1 F1200
G0 X360.300 Y347.900 Z4.600
M400
M204 P200 T200
G1 F400
G1 Z0.000 F2500
G1 X360.400 Y347.900
G1 X360.500 Y347.900
G1 X360.600 Y347.900
G1 X360.700 Y347.900
G1 X360.800 Y347.900
G1 X360.900 Y347.900
G1 X361.000 Y347.900
G1 X361.100 Y347.900
G1 X361.200 Y347.900
G1 X361.300 Y347.900
G1 X361.400 Y347.900
G1 X361.500 Y347.900
G1 X361.600 Y347.900
G1 X361.700 Y347.900
G1 X361.800 Y347.900
G1 X361.900 Y347.900
G1 X362.000 Y347.900
G1 X362.100 Y347.900
G1 X362.200 Y347.900
G1 X362.300 Y347.900
G1 X362.400 Y347.900
G1 X362.500 Y347.900
G1 X362.600 Y347.900
G1 X362.700 Y347.900
G1 X362.800 Y347.900
G1 X362.900 Y347.900
G1 X363.000 Y347.900
G1 X363.100 Y347.900
G1 X363.200 Y347.900
G1 X363.300 Y347.900
G1 X363.400 Y347.900
G1 X363.500 Y347.900
G1 X363.600 Y347.900
G1 X363.700 Y347.900
G1 X363.800 Y347.900
G1 X363.900 Y347.900
G1 X364.000 Y347.900
G1 X364.100 Y347.900
G1 X364.200 Y347.900
G1 X364.300 Y347.900
G1 X364.400 Y347.900
G1 X364.500 Y347.900
G1 X364.600 Y347.900
G1 X364.700 Y347.900
G1 X364.800 Y347.900
G1 X364.900 Y347.900
G1 X365.000 Y347.900
G1 X365.100 Y347.900
G1 X365.200 Y347.900
G1 X365.300 Y347.900
G1 X365.400 Y347.900
G1 X365.500 Y347.900
G1 X365.600 Y347.900
G1 X365.700 Y347.900
G1 X365.800 Y347.900
G1 X365.900 Y347.900
G1 X366.000 Y347.900
G1 X366.100 Y347.900
G1 X366.200 Y347.900
G1 X366.300 Y347.900
G1 X366.400 Y347.900
G1 X366.500 Y347.900
G1 X366.600 Y347.900
G1 X366.700 Y347.900
G1 X366.800 Y347.900
G1 X366.900 Y347.900
G1 X367.000 Y347.900
G1 X367.100 Y347.900
G1 X367.200 Y347.900
G1 X367.300 Y347.900
G1 X367.400 Y347.900
G1 X367.500 Y347.900
G1 X367.600 Y347.900
G1 X367.700 Y347.900
G1 X367.800 Y347.900
G1 X367.900 Y347.900
G1 X368.000 Y347.900
G1 X368.100 Y347.900
G1 X368.200 Y347.900
G1 X368.300 Y347.900
G1 X368.400 Y347.900
G1 X368.500 Y347.900
G1 X368.600 Y347.900
G1 X368.700 Y347.900
G1 X368.800 Y347.900
G1 X368.900 Y347.900
G1 X369.000 Y347.900
G1 X369.100 Y347.900
G1 X369.200 Y347.900
G1 X369.300 Y347.900
G1 X369.400 Y347.900
G1 X369.500 Y347.900
G1 X369.600 Y347.900
G1 X369.700 Y347.900
G1 X369.800 Y347.900
G1 X369.900 Y347.900
G1 X370.000 Y347.900
G1 X370.100 Y347.900
G0 Z4.600 F3000
M400
M204 P1200 T1200
G1 F1200
G0 X369.400 Y346.600 Z4.600
M400
M204 P200 T200
G1 F400
G1 Z0.000 F2500
G1 X369.300 Y346.600
G1 X369.200 Y346.600
G1 X369.100 Y346.600
G1 X369.000 Y346.600
G1 X368.900 Y346.600
G1 X368.800 Y346.600
G1 X368.700 Y346.600
G1 X368.600 Y346.600
G1 X368.500 Y346.600
G1 X368.400 Y346.600
G1 X368.300 Y346.600
G1 X368.200 Y346.600
G1 X368.100 Y346.600
G1 X368.000 Y346.600
G1 X367.900 Y346.600
G1 X367.800 Y346.600
G1 X367.700 Y346.600
G1 X367.600 Y346.600
G1 X367.500 Y346.600
G1 X367.400 Y346.600
G1 X367.300 Y346.600
G1 X367.200 Y346.600
G1 X367.100 Y346.600
G1 X367.000 Y346.600
G1 X366.900 Y346.600
G1 X366.800 Y346.600
G1 X366.700 Y346.600
G1 X366.600 Y346.600
G1 X366.500 Y346.600
G1 X366.400 Y346.600
G1 X366.300 Y346.600
G1 X366.200 Y346.600
G1 X366.100 Y346.600
G1 X366.000 Y346.600
G1 X365.900 Y346.600
G1 X365.800 Y346.600
G1 X365.700 Y346.600
G1 X365.600 Y346.600
G1 X365.500 Y346.600
G1 X365.400 Y346.600
G1 X365.300 Y346.600
G1 X365.200 Y346.600
G1 X365.100 Y346.600
G1 X365.000 Y346.600
G1 X364.900 Y346.600
G1 X364.800 Y346.600
G1 X364.700 Y346.600
G1 X364.600 Y346.600
G1 X364.500 Y346.600
G1 X364.400 Y346.600
G1 X364.300 Y346.600
G1 X364.200 Y346.600
G1 X364.100 Y346.600
G1 X364.000 Y346.600
G1 X363.900 Y346.600
G1 X363.800 Y346.600
G1 X363.700 Y346.600
G1 X363.600 Y346.600
G1 X363.500 Y346.600
G1 X363.400 Y346.600
G1 X363.300 Y346.600
G1 X363.200 Y346.600
G1 X363.100 Y346.600
G1 X363.000 Y346.600
G1 X362.900 Y346.600
G1 X362.800 Y346.600
G1 X362.700 Y346.600
G1 X362.600 Y346.600
G1 X362.500 Y346.600
G1 X362.400 Y346.600
G1 X362.300 Y346.600
G1 X362.200 Y346.600
G1 X362.100 Y346.600
G1 X362.000 Y346.600
G1 X361.900 Y346.600
G1 X361.800 Y346.600
G1 X361.700 Y346.600
G1 X361.600 Y346.600
G1 X361.500 Y346.600
G1 X361.400 Y346.600
G1 X361.300 Y346.600
G1 X361.200 Y346.600
G1 X361.100 Y346.600
G1 X361.000 Y346.600
G1 X360.900 Y346.600
G1 X360.800 Y346.600
G1 X360.700 Y346.600
G1 X360.600 Y346.600
G1 X360.500 Y346.600
G1 X360.400 Y346.600
G1 X360.300 Y346.600
G1 X360.200 Y346.600
G1 X360.100 Y346.600
G1 X360.000 Y346.600
G1 X359.900 Y346.600
G1 X359.800 Y346.600
G1 X359.700 Y346.600
G1 X359.600 Y346.600
G1 X359.500 Y346.600
G1 X359.400 Y346.600
G1 X359.300 Y346.600
G1 X359.200 Y346.600
G0 Z4.600 F3000
M400
M204 P1200 T1200
G1 F1200
G0 X352.700 Y355.700 Z4.600
M400
M204 P200 T200
G1 F400
G1 Z0.000 F2500
G1 X352.600 Y355.700
G1 X352.500 Y355.700
G1 X352.400 Y355.700
G1 X352.300 Y355.700
G0 Z4.600 F3000
M400
M204 P1200 T1200
G1 F1200
G0 X350.800 Y357.000 Z4.600
M400
M204 P200 T200
G1 F400
G1 Z0.000 F2500
G1 X350.700 Y357.000
G1 X350.600 Y357.000
G1 X350.500 Y357.000
G1 X350.400 Y357.000
G1 X350.300 Y357.000
G1 X350.200 Y357.000
G1 X350.100 Y357.000
G1 X350.000 Y357.000
G0 Z4.600 F3000
M400
M204 P1200 T1200
G1 F1200
G0 X350.000 Y358.300 Z4.600
M400
M204 P200 T200
G1 F400
G1 Z0.000 F2500
G1 X350.100 Y358.300
G1 X350.200 Y358.300
G1 X350.300 Y358.300
G1 X350.400 Y358.300
G1 X350.500 Y358.300
G1 X350.600 Y358.300
G1 X350.700 Y358.300
G0 Z4.600 F3000
M400
M204 P1200 T1200
G1 F1200
G0 X351.400 Y359.600 Z4.600
M400
M204 P200 T200
G1 F400
G1 Z0.000 F2500
G1 X351.300 Y359.600
G1 X351.200 Y359.600
G1 X351.100 Y359.600
G1 X351.000 Y359.600
G1 X350.900 Y359.600
G1 X350.800 Y359.600
G1 X350.700 Y359.600
G1 X350.600 Y359.600
G1 X350.500 Y359.600
G1 X350.400 Y359.600
G1 X350.300 Y359.600
G1 X350.200 Y359.600
G1 X350.100 Y359.600
G1 X350.000 Y359.600
G1 X349.900 Y359.600
G1 X349.800 Y359.600
G0 Z4.600 F3000
M400
M204 P1200 T1200
G1 F1200
G0 X349.500 Y360.900 Z4.600
M400
M204 P200 T200
G1 F400
G1 Z0.000 F2500
G1 X349.600 Y360.900
G1 X349.700 Y360.900
G1 X349.800 Y360.900
G1 X349.900 Y360.900
G1 X350.000 Y360.900
G1 X350.100 Y360.900
G1 X350.200 Y360.900
G1 X350.300 Y360.900
G1 X350.400 Y360.900
G1 X350.500 Y360.900
G1 X350.600 Y360.900
G1 X350.700 Y360.900
G1 X350.800 Y360.900
G1 X350.900 Y360.900
G1 X351.000 Y360.900
G0 Z4.600 F3000
M400
M204 P1200 T1200
G1 F1200
G0 X350.700 Y362.200 Z4.600
M400
M204 P200 T200
G1 F400
G1 Z0.000 F2500
G1 X350.600 Y362.200
G1 X350.500 Y362.200
G1 X350.400 Y362.200
G1 X350.300 Y362.200
G1 X350.200 Y362.200
G1 X350.100 Y362.200
G0 Z4.600 F3000
M400
M204 P1200 T1200
G1 F1200
G0 X349.300 Y363.500 Z4.600
M400
M204 P200 T200
G1 F400
G1 Z0.000 F2500
G1 X349.200 Y363.500
G1 X349.100 Y363.500
G1 X349.000 Y363.500
G1 X348.900 Y363.500
G1 X348.800 Y363.500
G1 X348.700 Y363.500
G1 X348.600 Y363.500
G1 X348.500 Y363.500
G1 X348.400 Y363.500
G1 X348.300 Y363.500
G1 X348.200 Y363.500
G1 X348.100 Y363.500
G1 X348.000 Y363.500
G1 X347.900 Y363.500
G0 Z4.600 F3000
M400
M204 P1200 T1200
G1 F1200
G0 X347.600 Y364.800 Z4.600
M400
M204 P200 T200
G1 F400
G1 Z0.000 F2500
G1 X347.700 Y364.800
G1 X347.800 Y364.800
G1 X347.900 Y364.800
G1 X348.000 Y364.800
G1 X348.100 Y364.800
G1 X348.200 Y364.800
G1 X348.300 Y364.800
G1 X348.400 Y364.800
G1 X348.500 Y364.800
G1 X348.600 Y364.800
G1 X348.700 Y364.800
G1 X348.800 Y364.800
G1 X348.900 Y364.800
G1 X349.000 Y364.800
G1 X349.100 Y364.800
G1 X349.200 Y364.800
G1 X349.300 Y364.800
G0 Z4.600 F3000
M400
M204 P1200 T1200
G1 F1200
G0 X349.300 Y366.100 Z4.600
M400
M204 P200 T200
G1 F400
G1 Z0.000 F2500
G1 X349.200 Y366.100
G1 X349.100 Y366.100
G1 X349.000 Y366.100
G1 X348.900 Y366.100
G1 X348.800 Y366.100
G1 X348.700 Y366.100
G1 X348.600 Y366.100
G1 X348.500 Y366.100
G1 X348.400 Y366.100
G1 X348.300 Y366.100
G1 X348.200 Y366.100
G1 X348.100 Y366.100
G1 X348.000 Y366.100
G1 X347.900 Y366.100
G1 X347.800 Y366.100
G1 X347.700 Y366.100
G1 X347.600 Y366.100
G1 X347.500 Y366.100
G1 X347.400 Y366.100
G1 X347.300 Y366.100
G1 X347.200 Y366.100
G1 X347.100 Y366.100
G1 X347.000 Y366.100
G1 X346.900 Y366.100
G1 X346.800 Y366.100
G1 X346.700 Y366.100
G1 X346.600 Y366.100
G1 X346.500 Y366.100
G1 X346.400 Y366.100
G1 X346.300 Y366.100
G1 X346.200 Y366.100
G1 X346.100 Y366.100
G1 X346.000 Y366.100
G1 X345.900 Y366.100
G1 X345.800 Y366.100
G1 X345.700 Y366.100
G1 X345.600 Y366.100
G1 X345.500 Y366.100
G1 X345.400 Y366.100
G1 X345.300 Y366.100
G1 X345.200 Y366.100
G1 X345.100 Y366.100
G1 X345.000 Y366.100
G1 X344.900 Y366.100
G1 X344.800 Y366.100
G1 X344.700 Y366.100
G1 X344.600 Y366.100
G1 X344.500 Y366.100
G1 X344.400 Y366.100
G1 X344.300 Y366.100
G1 X344.200 Y366.100
G1 X344.100 Y366.100
G1 X344.000 Y366.100
G1 X343.900 Y366.100
G1 X343.800 Y366.100
G1 X343.700 Y366.100
G1 X343.600 Y366.100
G1 X343.500 Y366.100
G1 X343.400 Y366.100
G1 X343.300 Y366.100
G1 X343.200 Y366.100
G1 X343.100 Y366.100
G1 X343.000 Y366.100
G1 X342.900 Y366.100
G0 Z4.600 F3000
M400
M204 P1200 T1200
G1 F1200
G0 X343.700 Y359.600 Z4.600
M400
M204 P200 T200
G1 F400
G1 Z0.000 F2500
G1 X343.800 Y359.600
G1 X343.900 Y359.600
G1 X344.000 Y359.600
G1 X344.100 Y359.600
G1 X344.200 Y359.600
G1 X344.300 Y359.600
G1 X344.400 Y359.600
G1 X344.500 Y359.600
G1 X344.600 Y359.600
G1 X344.700 Y359.600
G1 X344.800 Y359.600
G0 Z4.600 F3000
M400
M204 P1200 T1200
G1 F1200
G0 X344.600 Y358.300 Z4.600
M400
M204 P200 T200
G1 F400
G1 Z0.000 F2500
G1 X344.500 Y358.300
G1 X344.400 Y358.300
G1 X344.300 Y358.300
G0 Z4.600 F3000
M400
M204 P1200 T1200
G1 F1200
G0 X345.900 Y355.700 Z4.600
M400
M204 P200 T200
G1 F400
G1 Z0.000 F2500
G1 X346.000 Y355.700
G1 X346.100 Y355.700
G1 X346.200 Y355.700
G1 X346.300 Y355.700
G1 X346.400 Y355.700
G1 X346.500 Y355.700
G1 X346.600 Y355.700
G1 X346.700 Y355.700
G1 X346.800 Y355.700
G1 X346.900 Y355.700
G1 X347.000 Y355.700
G1 X347.100 Y355.700
G1 X347.200 Y355.700
G1 X347.300 Y355.700
G1 X347.400 Y355.700
G1 X347.500 Y355.700
G1 X347.600 Y355.700
G1 X347.700 Y355.700
G1 X347.800 Y355.700
G1 X347.900 Y355.700
G1 X348.000 Y355.700
G1 X348.100 Y355.700
G1 X348.200 Y355.700
G1 X348.300 Y355.700
G1 X348.400 Y355.700
G1 X348.500 Y355.700
G1 X348.600 Y355.700
G1 X348.700 Y355.700
G1 X348.800 Y355.700
G1 X348.900 Y355.700
G1 X349.000 Y355.700
G1 X349.100 Y355.700
G1 X349.200 Y355.700
G1 X349.300 Y355.700
G1 X349.400 Y355.700
G1 X349.500 Y355.700
G1 X349.600 Y355.700
G1 X349.700 Y355.700
G1 X349.800 Y355.700
G1 X349.900 Y355.700
G1 X350.000 Y355.700
G1 X350.100 Y355.700
G1 X350.200 Y355.700
G1 X350.300 Y355.700
G1 X350.400 Y355.700
G1 X350.500 Y355.700
G1 X350.600 Y355.700
G1 X350.700 Y355.700
G1 X350.800 Y355.700
G1 X350.900 Y355.700
G1 X351.000 Y355.700
G1 X351.100 Y355.700
G1 X351.200 Y355.700
G1 X351.300 Y355.700
G1 X351.400 Y355.700
G1 X351.500 Y355.700
G0 Z4.600 F3000
M400
M204 P1200 T1200
G1 F1200
G0 X353.300 Y354.400 Z4.600
M400
M204 P200 T200
G1 F400
G1 Z0.000 F2500
G1 X353.200 Y354.400
G1 X353.100 Y354.400
G1 X353.000 Y354.400
G1 X352.900 Y354.400
G1 X352.800 Y354.400
G1 X352.700 Y354.400
G1 X352.600 Y354.400
G1 X352.500 Y354.400
G1 X352.400 Y354.400
G1 X352.300 Y354.400
G1 X352.200 Y354.400
G1 X352.100 Y354.400
G1 X352.000 Y354.400
G1 X351.900 Y354.400
G1 X351.800 Y354.400
G1 X351.700 Y354.400
G1 X351.600 Y354.400
G1 X351.500 Y354.400
G1 X351.400 Y354.400
G1 X351.300 Y354.400
G1 X351.200 Y354.400
G1 X351.100 Y354.400
G1 X351.000 Y354.400
G1 X350.900 Y354.400
G1 X350.800 Y354.400
G1 X350.700 Y354.400
G1 X350.600 Y354.400
G1 X350.500 Y354.400
G1 X350.400 Y354.400
G1 X350.300 Y354.400
G1 X350.200 Y354.400
G1 X350.100 Y354.400
G1 X350.000 Y354.400
G1 X349.900 Y354.400
G1 X349.800 Y354.400
G1 X349.700 Y354.400
G1 X349.600 Y354.400
G1 X349.500 Y354.400
G1 X349.400 Y354.400
G1 X349.300 Y354.400
G1 X349.200 Y354.400
G1 X349.100 Y354.400
G1 X349.000 Y354.400
G1 X348.900 Y354.400
G1 X348.800 Y354.400
G1 X348.700 Y354.400
G1 X348.600 Y354.400
G1 X348.500 Y354.400
G1 X348.400 Y354.400
G1 X348.300 Y354.400
G1 X348.200 Y354.400
G1 X348.100 Y354.400
G1 X348.000 Y354.400
G1 X347.900 Y354.400
G1 X347.800 Y354.400
G1 X347.700 Y354.400
G1 X347.600 Y354.400
G1 X347.500 Y354.400
G1 X347.400 Y354.400
G1 X347.300 Y354.400
G1 X347.200 Y354.400
G1 X347.100 Y354.400
G1 X347.000 Y354.400
G1 X346.900 Y354.400
G1 X346.800 Y354.400
G1 X346.700 Y354.400
G1 X346.600 Y354.400
G1 X346.500 Y354.400
G1 X346.400 Y354.400
G1 X346.300 Y354.400
G1 X346.200 Y354.400
G1 X346.100 Y354.400
G1 X346.000 Y354.400
G1 X345.900 Y354.400
G1 X345.800 Y354.400
G1 X345.700 Y354.400
G1 X345.600 Y354.400
G1 X345.500 Y354.400
G0 Z4.600 F3000
M400
M204 P1200 T1200
G1 F1200
G0 X346.900 Y350.500 Z4.600
M400
M204 P200 T200
G1 F400
G1 Z0.000 F2500
G1 X347.000 Y350.500
G1 X347.100 Y350.500
G0 Z4.600 F3000

; --- DIP → Color 4 — Purple ---
G0 Z4.600 F3000
M400
M204 P1200 T1200
G1 F1200
G0 X123.835 Y0.000 Z31.000
G1 Z0.000 F3000
G1 X123.835 Y0.000 F2500
G1 X123.835 Y2.500 F2500
G1 X118.835 Y0.000 F2500
G1 X123.835 Y0.000 F2500
G0 Z16.000 F3000
G0 X147.633 Y12.913
G0 Z31.000 F3000
G0 X347.200 Y350.500 Z4.600
M400
M204 P200 T200
G1 F400
G1 Z0.000 F2500
G1 X347.200 Y350.500
G1 X347.300 Y350.500
G1 X347.400 Y350.500
G1 X347.500 Y350.500
G1 X347.600 Y350.500
G1 X347.700 Y350.500
G1 X347.800 Y350.500
G1 X347.900 Y350.500
G1 X348.000 Y350.500
G1 X348.100 Y350.500
G1 X348.200 Y350.500
G1 X348.300 Y350.500
G1 X348.400 Y350.500
G1 X348.500 Y350.500
G1 X348.600 Y350.500
G1 X348.700 Y350.500
G1 X348.800 Y350.500
G1 X348.900 Y350.500
G1 X349.000 Y350.500
G1 X349.100 Y350.500
G1 X349.200 Y350.500
G1 X349.300 Y350.500
G1 X349.400 Y350.500
G1 X349.500 Y350.500
G1 X349.600 Y350.500
G1 X349.700 Y350.500
G1 X349.800 Y350.500
G1 X349.900 Y350.500
G1 X350.000 Y350.500
G1 X350.100 Y350.500
G1 X350.200 Y350.500
G1 X350.300 Y350.500
G1 X350.400 Y350.500
G1 X350.500 Y350.500
G1 X350.600 Y350.500
G1 X350.700 Y350.500
G1 X350.800 Y350.500
G1 X350.900 Y350.500
G1 X351.000 Y350.500
G1 X351.100 Y350.500
G1 X351.200 Y350.500
G1 X351.300 Y350.500
G1 X351.400 Y350.500
G1 X351.500 Y350.500
G1 X351.600 Y350.500
G1 X351.700 Y350.500
G1 X351.800 Y350.500
G1 X351.900 Y350.500
G1 X352.000 Y350.500
G1 X352.100 Y350.500
G1 X352.200 Y350.500
G1 X352.300 Y350.500
G1 X352.400 Y350.500
G1 X352.500 Y350.500
G1 X352.600 Y350.500
G1 X352.700 Y350.500
G1 X352.800 Y350.500
G1 X352.900 Y350.500
G1 X353.000 Y350.500
G1 X353.100 Y350.500
G1 X353.200 Y350.500
G1 X353.300 Y350.500
G1 X353.400 Y350.500
G1 X353.500 Y350.500
G1 X353.600 Y350.500
G1 X353.700 Y350.500
G1 X353.800 Y350.500
G1 X353.900 Y350.500
G1 X354.000 Y350.500
G1 X354.100 Y350.500
G1 X354.200 Y350.500
G1 X354.300 Y350.500
G0 Z4.600 F3000
M400
M204 P1200 T1200
G1 F1200
G0 X355.000 Y349.200 Z4.600
M400
M204 P200 T200
G1 F400
G1 Z0.000 F2500
G1 X354.900 Y349.200
G1 X354.800 Y349.200
G1 X354.700 Y349.200
G1 X354.600 Y349.200
G1 X354.500 Y349.200
G1 X354.400 Y349.200
G1 X354.300 Y349.200
G1 X354.200 Y349.200
G1 X354.100 Y349.200
G1 X354.000 Y349.200
G1 X353.900 Y349.200
G1 X353.800 Y349.200
G1 X353.700 Y349.200
G1 X353.600 Y349.200
G1 X353.500 Y349.200
G1 X353.400 Y349.200
G1 X353.300 Y349.200
G1 X353.200 Y349.200
G1 X353.100 Y349.200
G1 X353.000 Y349.200
G1 X352.900 Y349.200
G1 X352.800 Y349.200
G1 X352.700 Y349.200
G1 X352.600 Y349.200
G1 X352.500 Y349.200
G1 X352.400 Y349.200
G1 X352.300 Y349.200
G1 X352.200 Y349.200
G1 X352.100 Y349.200
G1 X352.000 Y349.200
G1 X351.900 Y349.200
G1 X351.800 Y349.200
G1 X351.700 Y349.200
G1 X351.600 Y349.200
G1 X351.500 Y349.200
G1 X351.400 Y349.200
G1 X351.300 Y349.200
G1 X351.200 Y349.200
G1 X351.100 Y349.200
G1 X351.000 Y349.200
G1 X350.900 Y349.200
G1 X350.800 Y349.200
G1 X350.700 Y349.200
G1 X350.600 Y349.200
G1 X350.500 Y349.200
G1 X350.400 Y349.200
G1 X350.300 Y349.200
G1 X350.200 Y349.200
G1 X350.100 Y349.200
G1 X350.000 Y349.200
G1 X349.900 Y349.200
G1 X349.800 Y349.200
G1 X349.700 Y349.200
G1 X349.600 Y349.200
G1 X349.500 Y349.200
G1 X349.400 Y349.200
G1 X349.300 Y349.200
G1 X349.200 Y349.200
G1 X349.100 Y349.200
G1 X349.000 Y349.200
G1 X348.900 Y349.200
G1 X348.800 Y349.200
G1 X348.700 Y349.200
G1 X348.600 Y349.200
G1 X348.500 Y349.200
G1 X348.400 Y349.200
G1 X348.300 Y349.200
G1 X348.200 Y349.200
G1 X348.100 Y349.200
G1 X348.000 Y349.200
G1 X347.900 Y349.200
G1 X347.800 Y349.200
G1 X347.700 Y349.200
G1 X347.600 Y349.200
G1 X347.500 Y349.200
G1 X347.400 Y349.200
G1 X347.300 Y349.200
G1 X347.200 Y349.200
G0 Z4.600 F3000
M400
M204 P1200 T1200
G1 F1200
G0 X348.700 Y345.300 Z4.600
M400
M204 P200 T200
G1 F400
G1 Z0.000 F2500
G1 X348.800 Y345.300
G1 X348.900 Y345.300
G1 X349.000 Y345.300
G1 X349.100 Y345.300
G1 X349.200 Y345.300
G1 X349.300 Y345.300
G1 X349.400 Y345.300
G1 X349.500 Y345.300
G1 X349.600 Y345.300
G1 X349.700 Y345.300
G1 X349.800 Y345.300
G1 X349.900 Y345.300
G1 X350.000 Y345.300
G1 X350.100 Y345.300
G1 X350.200 Y345.300
G1 X350.300 Y345.300
G1 X350.400 Y345.300
G1 X350.500 Y345.300
G1 X350.600 Y345.300
G1 X350.700 Y345.300
G1 X350.800 Y345.300
G1 X350.900 Y345.300
G1 X351.000 Y345.300
G1 X351.100 Y345.300
G1 X351.200 Y345.300
G1 X351.300 Y345.300
G1 X351.400 Y345.300
G1 X351.500 Y345.300
G1 X351.600 Y345.300
G1 X351.700 Y345.300
G1 X351.800 Y345.300
G1 X351.900 Y345.300
G1 X352.000 Y345.300
G1 X352.100 Y345.300
G1 X352.200 Y345.300
G1 X352.300 Y345.300
G1 X352.400 Y345.300
G1 X352.500 Y345.300
G1 X352.600 Y345.300
G1 X352.700 Y345.300
G1 X352.800 Y345.300
G1 X352.900 Y345.300
G1 X353.000 Y345.300
G1 X353.100 Y345.300
G1 X353.200 Y345.300
G1 X353.300 Y345.300
G1 X353.400 Y345.300
G1 X353.500 Y345.300
G1 X353.600 Y345.300
G1 X353.700 Y345.300
G1 X353.800 Y345.300
G1 X353.900 Y345.300
G1 X354.000 Y345.300
G1 X354.100 Y345.300
G1 X354.200 Y345.300
G1 X354.300 Y345.300
G1 X354.400 Y345.300
G1 X354.500 Y345.300
G1 X354.600 Y345.300
G1 X354.700 Y345.300
G1 X354.800 Y345.300
G1 X354.900 Y345.300
G1 X355.000 Y345.300
G1 X355.100 Y345.300
G1 X355.200 Y345.300
G1 X355.300 Y345.300
G1 X355.400 Y345.300
G1 X355.500 Y345.300
G1 X355.600 Y345.300
G0 Z4.600 F3000
M400
M204 P1200 T1200
G1 F1200
G0 X349.200 Y344.000 Z4.600
M400
M204 P200 T200
G1 F400
G1 Z0.000 F2500
G1 X349.300 Y344.000
G1 X349.400 Y344.000
G1 X349.500 Y344.000
G1 X349.600 Y344.000
G1 X349.700 Y344.000
G1 X349.800 Y344.000
G1 X349.900 Y344.000
G1 X350.000 Y344.000
G1 X350.100 Y344.000
G1 X350.200 Y344.000
G1 X350.300 Y344.000
G1 X350.400 Y344.000
G1 X350.500 Y344.000
G1 X350.600 Y344.000
G1 X350.700 Y344.000
G1 X350.800 Y344.000
G1 X350.900 Y344.000
G1 X351.000 Y344.000
G1 X351.100 Y344.000
G1 X351.200 Y344.000
G1 X351.300 Y344.000
G1 X351.400 Y344.000
G1 X351.500 Y344.000
G1 X351.600 Y344.000
G1 X351.700 Y344.000
G1 X351.800 Y344.000
G1 X351.900 Y344.000
G1 X352.000 Y344.000
G1 X352.100 Y344.000
G1 X352.200 Y344.000
G1 X352.300 Y344.000
G1 X352.400 Y344.000
G1 X352.500 Y344.000
G1 X352.600 Y344.000
G1 X352.700 Y344.000
G1 X352.800 Y344.000
G1 X352.900 Y344.000
G1 X353.000 Y344.000
G1 X353.100 Y344.000
G1 X353.200 Y344.000
G1 X353.300 Y344.000
G1 X353.400 Y344.000
G1 X353.500 Y344.000
G1 X353.600 Y344.000
G1 X353.700 Y344.000
G1 X353.800 Y344.000
G1 X353.900 Y344.000
G1 X354.000 Y344.000
G1 X354.100 Y344.000
G1 X354.200 Y344.000
G1 X354.300 Y344.000
G1 X354.400 Y344.000
G1 X354.500 Y344.000
G1 X354.600 Y344.000
G1 X354.700 Y344.000
G1 X354.800 Y344.000
G1 X354.900 Y344.000
G1 X355.000 Y344.000
G1 X355.100 Y344.000
G1 X355.200 Y344.000
G1 X355.300 Y344.000
G1 X355.400 Y344.000
G1 X355.500 Y344.000
G1 X355.600 Y344.000
G1 X355.700 Y344.000
G1 X355.800 Y344.000
G1 X355.900 Y344.000
G1 X356.000 Y344.000
G1 X356.100 Y344.000
G1 X356.200 Y344.000
G1 X356.300 Y344.000
G1 X356.400 Y344.000
G1 X356.500 Y344.000
G1 X356.600 Y344.000
G1 X356.700 Y344.000
G1 X356.800 Y344.000
G1 X356.900 Y344.000
G1 X357.000 Y344.000
G1 X357.100 Y344.000
G1 X357.200 Y344.000
G1 X357.300 Y344.000
G1 X357.400 Y344.000
G1 X357.500 Y344.000
G1 X357.600 Y344.000
G1 X357.700 Y344.000
G1 X357.800 Y344.000
G1 X357.900 Y344.000
G1 X358.000 Y344.000
G1 X358.100 Y344.000
G1 X358.200 Y344.000
G1 X358.300 Y344.000
G1 X358.400 Y344.000
G1 X358.500 Y344.000
G1 X358.600 Y344.000
G1 X358.700 Y344.000
G1 X358.800 Y344.000
G1 X358.900 Y344.000
G1 X359.000 Y344.000
G1 X359.100 Y344.000
G1 X359.200 Y344.000
G1 X359.300 Y344.000
G1 X359.400 Y344.000
G1 X359.500 Y344.000
G1 X359.600 Y344.000
G1 X359.700 Y344.000
G1 X359.800 Y344.000
G1 X359.900 Y344.000
G1 X360.000 Y344.000
G1 X360.100 Y344.000
G1 X360.200 Y344.000
G1 X360.300 Y344.000
G1 X360.400 Y344.000
G1 X360.500 Y344.000
G1 X360.600 Y344.000
G1 X360.700 Y344.000
G1 X360.800 Y344.000
G1 X360.900 Y344.000
G1 X361.000 Y344.000
G1 X361.100 Y344.000
G1 X361.200 Y344.000
G1 X361.300 Y344.000
G1 X361.400 Y344.000
G1 X361.500 Y344.000
G1 X361.600 Y344.000
G1 X361.700 Y344.000
G1 X361.800 Y344.000
G1 X361.900 Y344.000
G1 X362.000 Y344.000
G1 X362.100 Y344.000
G1 X362.200 Y344.000
G1 X362.300 Y344.000
G1 X362.400 Y344.000
G1 X362.500 Y344.000
G1 X362.600 Y344.000
G1 X362.700 Y344.000
G1 X362.800 Y344.000
G1 X362.900 Y344.000
G1 X363.000 Y344.000
G1 X363.100 Y344.000
G1 X363.200 Y344.000
G1 X363.300 Y344.000
G1 X363.400 Y344.000
G1 X363.500 Y344.000
G1 X363.600 Y344.000
G1 X363.700 Y344.000
G1 X363.800 Y344.000
G1 X363.900 Y344.000
G1 X364.000 Y344.000
G1 X364.100 Y344.000
G1 X364.200 Y344.000
G1 X364.300 Y344.000
G1 X364.400 Y344.000
G1 X364.500 Y344.000
G1 X364.600 Y344.000
G1 X364.700 Y344.000
G1 X364.800 Y344.000
G1 X364.900 Y344.000
G1 X365.000 Y344.000
G1 X365.100 Y344.000
G1 X365.200 Y344.000
G1 X365.300 Y344.000
G1 X365.400 Y344.000
G1 X365.500 Y344.000
G1 X365.600 Y344.000
G1 X365.700 Y344.000
G1 X365.800 Y344.000
G1 X365.900 Y344.000
G1 X366.000 Y344.000
G1 X366.100 Y344.000
G1 X366.200 Y344.000
G1 X366.300 Y344.000
G1 X366.400 Y344.000
G1 X366.500 Y344.000
G0 Z4.600 F3000
M400
M204 P1200 T1200
G1 F1200
G0 X361.300 Y338.800 Z4.600
M400
M204 P200 T200
G1 F400
G1 Z0.000 F2500
G1 X361.200 Y338.800
G1 X361.100 Y338.800
G1 X361.000 Y338.800
G1 X360.900 Y338.800
G1 X360.800 Y338.800
G1 X360.700 Y338.800
G1 X360.600 Y338.800
G1 X360.500 Y338.800
G1 X360.400 Y338.800
G1 X360.300 Y338.800
G1 X360.200 Y338.800
G1 X360.100 Y338.800
G1 X360.000 Y338.800
G1 X359.900 Y338.800
G1 X359.800 Y338.800
G1 X359.700 Y338.800
G1 X359.600 Y338.800
G1 X359.500 Y338.800
G1 X359.400 Y338.800
G1 X359.300 Y338.800
G1 X359.200 Y338.800
G1 X359.100 Y338.800
G1 X359.000 Y338.800
G1 X358.900 Y338.800
G1 X358.800 Y338.800
G1 X358.700 Y338.800
G1 X358.600 Y338.800
G1 X358.500 Y338.800
G1 X358.400 Y338.800
G1 X358.300 Y338.800
G1 X358.200 Y338.800
G1 X358.100 Y338.800
G1 X358.000 Y338.800
G1 X357.900 Y338.800
G1 X357.800 Y338.800
G1 X357.700 Y338.800
G1 X357.600 Y338.800
G1 X357.500 Y338.800
G1 X357.400 Y338.800
G1 X357.300 Y338.800
G1 X357.200 Y338.800
G1 X357.100 Y338.800
G1 X357.000 Y338.800
G1 X356.900 Y338.800
G1 X356.800 Y338.800
G1 X356.700 Y338.800
G1 X356.600 Y338.800
G1 X356.500 Y338.800
G1 X356.400 Y338.800
G1 X356.300 Y338.800
G1 X356.200 Y338.800
G1 X356.100 Y338.800
G1 X356.000 Y338.800
G1 X355.900 Y338.800
G1 X355.800 Y338.800
G1 X355.700 Y338.800
G1 X355.600 Y338.800
G1 X355.500 Y338.800
G1 X355.400 Y338.800
G1 X355.300 Y338.800
G1 X355.200 Y338.800
G1 X355.100 Y338.800
G1 X355.000 Y338.800
G1 X354.900 Y338.800
G1 X354.800 Y338.800
G1 X354.700 Y338.800
G1 X354.600 Y338.800
G1 X354.500 Y338.800
G1 X354.400 Y338.800
G1 X354.300 Y338.800
G1 X354.200 Y338.800
G1 X354.100 Y338.800
G1 X354.000 Y338.800
G1 X353.900 Y338.800
G1 X353.800 Y338.800
G1 X353.700 Y338.800
G1 X353.600 Y338.800
G1 X353.500 Y338.800
G1 X353.400 Y338.800
G1 X353.300 Y338.800
G1 X353.200 Y338.800
G1 X353.100 Y338.800
G1 X353.000 Y338.800
G1 X352.900 Y338.800
G1 X352.800 Y338.800
G1 X352.700 Y338.800
G1 X352.600 Y338.800
G1 X352.500 Y338.800
G1 X352.400 Y338.800
G1 X352.300 Y338.800
G1 X352.200 Y338.800
G1 X352.100 Y338.800
G1 X352.000 Y338.800
G1 X351.900 Y338.800
G1 X351.800 Y338.800
G1 X351.700 Y338.800
G1 X351.600 Y338.800
G1 X351.500 Y338.800
G1 X351.400 Y338.800
G1 X351.300 Y338.800
G1 X351.200 Y338.800
G1 X351.100 Y338.800
G0 Z4.600 F3000
M400
M204 P1200 T1200
G1 F1200
G0 X349.900 Y340.100 Z4.600
M400
M204 P200 T200
G1 F400
G1 Z0.000 F2500
G1 X350.000 Y340.100
G1 X350.100 Y340.100
G1 X350.200 Y340.100
G1 X350.300 Y340.100
G1 X350.400 Y340.100
G1 X350.500 Y340.100
G1 X350.600 Y340.100
G1 X350.700 Y340.100
G1 X350.800 Y340.100
G1 X350.900 Y340.100
G1 X351.000 Y340.100
G1 X351.100 Y340.100
G1 X351.200 Y340.100
G1 X351.300 Y340.100
G1 X351.400 Y340.100
G1 X351.500 Y340.100
G1 X351.600 Y340.100
G1 X351.700 Y340.100
G1 X351.800 Y340.100
G1 X351.900 Y340.100
G1 X352.000 Y340.100
G1 X352.100 Y340.100
G1 X352.200 Y340.100
G1 X352.300 Y340.100
G1 X352.400 Y340.100
G1 X352.500 Y340.100
G1 X352.600 Y340.100
G1 X352.700 Y340.100
G1 X352.800 Y340.100
G1 X352.900 Y340.100
G1 X353.000 Y340.100
G1 X353.100 Y340.100
G1 X353.200 Y340.100
G1 X353.300 Y340.100
G1 X353.400 Y340.100
G1 X353.500 Y340.100
G1 X353.600 Y340.100
G1 X353.700 Y340.100
G1 X353.800 Y340.100
G1 X353.900 Y340.100
G1 X354.000 Y340.100
G1 X354.100 Y340.100
G1 X354.200 Y340.100
G1 X354.300 Y340.100
G1 X354.400 Y340.100
G1 X354.500 Y340.100
G1 X354.600 Y340.100
G1 X354.700 Y340.100
G1 X354.800 Y340.100
G1 X354.900 Y340.100
G1 X355.000 Y340.100
G1 X355.100 Y340.100
G1 X355.200 Y340.100
G1 X355.300 Y340.100
G1 X355.400 Y340.100
G1 X355.500 Y340.100
G1 X355.600 Y340.100
G1 X355.700 Y340.100
G1 X355.800 Y340.100
G1 X355.900 Y340.100
G1 X356.000 Y340.100
G1 X356.100 Y340.100
G1 X356.200 Y340.100
G1 X356.300 Y340.100
G1 X356.400 Y340.100
G1 X356.500 Y340.100
G1 X356.600 Y340.100
G1 X356.700 Y340.100
G1 X356.800 Y340.100
G1 X356.900 Y340.100
G1 X357.000 Y340.100
G1 X357.100 Y340.100
G1 X357.200 Y340.100
G1 X357.300 Y340.100
G1 X357.400 Y340.100
G1 X357.500 Y340.100
G1 X357.600 Y340.100
G1 X357.700 Y340.100
G1 X357.800 Y340.100
G1 X357.900 Y340.100
G1 X358.000 Y340.100
G1 X358.100 Y340.100
G1 X358.200 Y340.100
G1 X358.300 Y340.100
G1 X358.400 Y340.100
G1 X358.500 Y340.100
G1 X358.600 Y340.100
G1 X358.700 Y340.100
G1 X358.800 Y340.100
G1 X358.900 Y340.100
G1 X359.000 Y340.100
G1 X359.100 Y340.100
G1 X359.200 Y340.100
G1 X359.300 Y340.100
G1 X359.400 Y340.100
G1 X359.500 Y340.100
G1 X359.600 Y340.100
G1 X359.700 Y340.100
G1 X359.800 Y340.100
G1 X359.900 Y340.100
G1 X360.000 Y340.100
G1 X360.100 Y340.100
G1 X360.200 Y340.100
G1 X360.300 Y340.100
G1 X360.400 Y340.100
G1 X360.500 Y340.100
G1 X360.600 Y340.100
G1 X360.700 Y340.100
G1 X360.800 Y340.100
G1 X360.900 Y340.100
G1 X361.000 Y340.100
G1 X361.100 Y340.100
G1 X361.200 Y340.100
G1 X361.300 Y340.100
G1 X361.400 Y340.100
G1 X361.500 Y340.100
G1 X361.600 Y340.100
G1 X361.700 Y340.100
G1 X361.800 Y340.100
G1 X361.900 Y340.100
G1 X362.000 Y340.100
G1 X362.100 Y340.100
G1 X362.200 Y340.100
G1 X362.300 Y340.100
G1 X362.400 Y340.100
G1 X362.500 Y340.100
G1 X362.600 Y340.100
G1 X362.700 Y340.100
G0 Z4.600 F3000
M400
M204 P1200 T1200
G1 F1200
G0 X365.400 Y342.700 Z4.600
M400
M204 P200 T200
G1 F400
G1 Z0.000 F2500
G1 X365.300 Y342.700
G1 X365.200 Y342.700
G1 X365.100 Y342.700
G1 X365.000 Y342.700
G1 X364.900 Y342.700
G1 X364.800 Y342.700
G1 X364.700 Y342.700
G1 X364.600 Y342.700
G1 X364.500 Y342.700
G1 X364.400 Y342.700
G1 X364.300 Y342.700
G1 X364.200 Y342.700
G1 X364.100 Y342.700
G1 X364.000 Y342.700
G1 X363.900 Y342.700
G1 X363.800 Y342.700
G1 X363.700 Y342.700
G1 X363.600 Y342.700
G1 X363.500 Y342.700
G1 X363.400 Y342.700
G1 X363.300 Y342.700
G1 X363.200 Y342.700
G1 X363.100 Y342.700
G1 X363.000 Y342.700
G1 X362.900 Y342.700
G1 X362.800 Y342.700
G1 X362.700 Y342.700
G1 X362.600 Y342.700
G1 X362.500 Y342.700
G1 X362.400 Y342.700
G1 X362.300 Y342.700
G1 X362.200 Y342.700
G1 X362.100 Y342.700
G1 X362.000 Y342.700
G1 X361.900 Y342.700
G1 X361.800 Y342.700
G1 X361.700 Y342.700
G1 X361.600 Y342.700
G1 X361.500 Y342.700
G1 X361.400 Y342.700
G1 X361.300 Y342.700
G1 X361.200 Y342.700
G1 X361.100 Y342.700
G1 X361.000 Y342.700
G0 Z4.600 F3000

; --- DIP → Color 3 — Yellow ---
G0 Z4.600 F3000
M400
M204 P1200 T1200
G1 F1200
G0 X91.158 Y8.203 Z31.000
G1 Z0.000 F3000
G1 X91.158 Y8.203 F2500
G1 X91.158 Y10.703 F2500
G1 X86.158 Y8.203 F2500
G1 X91.158 Y0.703 F2500
G0 Z16.000 F3000
G0 X109.086 Y11.935
G0 Z31.000 F3000
G0 X360.900 Y342.700 Z4.600
M400
M204 P200 T200
G1 F400
G1 Z0.000 F2500
G1 X360.900 Y342.700
G1 X360.800 Y342.700
G1 X360.700 Y342.700
G1 X360.600 Y342.700
G1 X360.500 Y342.700
G1 X360.400 Y342.700
G1 X360.300 Y342.700
G1 X360.200 Y342.700
G1 X360.100 Y342.700
G1 X360.000 Y342.700
G1 X359.900 Y342.700
G1 X359.800 Y342.700
G1 X359.700 Y342.700
G1 X359.600 Y342.700
G1 X359.500 Y342.700
G1 X359.400 Y342.700
G1 X359.300 Y342.700
G1 X359.200 Y342.700
G1 X359.100 Y342.700
G1 X359.000 Y342.700
G1 X358.900 Y342.700
G1 X358.800 Y342.700
G1 X358.700 Y342.700
G1 X358.600 Y342.700
G1 X358.500 Y342.700
G1 X358.400 Y342.700
G1 X358.300 Y342.700
G1 X358.200 Y342.700
G1 X358.100 Y342.700
G1 X358.000 Y342.700
G1 X357.900 Y342.700
G1 X357.800 Y342.700
G1 X357.700 Y342.700
G1 X357.600 Y342.700
G1 X357.500 Y342.700
G1 X357.400 Y342.700
G1 X357.300 Y342.700
G1 X357.200 Y342.700
G1 X357.100 Y342.700
G1 X357.000 Y342.700
G1 X356.900 Y342.700
G1 X356.800 Y342.700
G1 X356.700 Y342.700
G1 X356.600 Y342.700
G1 X356.500 Y342.700
G1 X356.400 Y342.700
G1 X356.300 Y342.700
G1 X356.200 Y342.700
G1 X356.100 Y342.700
G1 X356.000 Y342.700
G1 X355.900 Y342.700
G1 X355.800 Y342.700
G1 X355.700 Y342.700
G1 X355.600 Y342.700
G1 X355.500 Y342.700
G1 X355.400 Y342.700
G1 X355.300 Y342.700
G1 X355.200 Y342.700
G1 X355.100 Y342.700
G1 X355.000 Y342.700
G1 X354.900 Y342.700
G1 X354.800 Y342.700
G1 X354.700 Y342.700
G1 X354.600 Y342.700
G1 X354.500 Y342.700
G1 X354.400 Y342.700
G1 X354.300 Y342.700
G1 X354.200 Y342.700
G1 X354.100 Y342.700
G1 X354.000 Y342.700
G1 X353.900 Y342.700
G1 X353.800 Y342.700
G1 X353.700 Y342.700
G1 X353.600 Y342.700
G1 X353.500 Y342.700
G1 X353.400 Y342.700
G1 X353.300 Y342.700
G1 X353.200 Y342.700
G1 X353.100 Y342.700
G1 X353.000 Y342.700
G1 X352.900 Y342.700
G1 X352.800 Y342.700
G1 X352.700 Y342.700
G1 X352.600 Y342.700
G1 X352.500 Y342.700
G1 X352.400 Y342.700
G1 X352.300 Y342.700
G1 X352.200 Y342.700
G1 X352.100 Y342.700
G1 X352.000 Y342.700
G1 X351.900 Y342.700
G1 X351.800 Y342.700
G1 X351.700 Y342.700
G1 X351.600 Y342.700
G1 X351.500 Y342.700
G1 X351.400 Y342.700
G1 X351.300 Y342.700
G1 X351.200 Y342.700
G1 X351.100 Y342.700
G1 X351.000 Y342.700
G1 X350.900 Y342.700
G1 X350.800 Y342.700
G1 X350.700 Y342.700
G1 X350.600 Y342.700
G1 X350.500 Y342.700
G1 X350.400 Y342.700
G1 X350.300 Y342.700
G1 X350.200 Y342.700
G1 X350.100 Y342.700
G1 X350.000 Y342.700
G1 X349.900 Y342.700
G1 X349.800 Y342.700
G1 X349.700 Y342.700
G1 X349.600 Y342.700
G1 X349.500 Y342.700
G0 Z4.600 F3000
M400
M204 P1200 T1200
G1 F1200
G0 X347.800 Y346.600 Z4.600
M400
M204 P200 T200
G1 F400
G1 Z0.000 F2500
G1 X347.900 Y346.600
G1 X348.000 Y346.600
G1 X348.100 Y346.600
G1 X348.200 Y346.600
G1 X348.300 Y346.600
G1 X348.400 Y346.600
G1 X348.500 Y346.600
G1 X348.600 Y346.600
G1 X348.700 Y346.600
G1 X348.800 Y346.600
G1 X348.900 Y346.600
G1 X349.000 Y346.600
G1 X349.100 Y346.600
G1 X349.200 Y346.600
G1 X349.300 Y346.600
G1 X349.400 Y346.600
G1 X349.500 Y346.600
G1 X349.600 Y346.600
G1 X349.700 Y346.600
G1 X349.800 Y346.600
G1 X349.900 Y346.600
G1 X350.000 Y346.600
G1 X350.100 Y346.600
G1 X350.200 Y346.600
G1 X350.300 Y346.600
G1 X350.400 Y346.600
G1 X350.500 Y346.600
G1 X350.600 Y346.600
G1 X350.700 Y346.600
G1 X350.800 Y346.600
G1 X350.900 Y346.600
G1 X351.000 Y346.600
G1 X351.100 Y346.600
G1 X351.200 Y346.600
G1 X351.300 Y346.600
G1 X351.400 Y346.600
G1 X351.500 Y346.600
G1 X351.600 Y346.600
G1 X351.700 Y346.600
G1 X351.800 Y346.600
G1 X351.900 Y346.600
G1 X352.000 Y346.600
G1 X352.100 Y346.600
G1 X352.200 Y346.600
G1 X352.300 Y346.600
G1 X352.400 Y346.600
G1 X352.500 Y346.600
G1 X352.600 Y346.600
G1 X352.700 Y346.600
G1 X352.800 Y346.600
G1 X352.900 Y346.600
G1 X353.000 Y346.600
G1 X353.100 Y346.600
G1 X353.200 Y346.600
G1 X353.300 Y346.600
G1 X353.400 Y346.600
G1 X353.500 Y346.600
G1 X353.600 Y346.600
G1 X353.700 Y346.600
G1 X353.800 Y346.600
G1 X353.900 Y346.600
G1 X354.000 Y346.600
G1 X354.100 Y346.600
G1 X354.200 Y346.600
G1 X354.300 Y346.600
G1 X354.400 Y346.600
G1 X354.500 Y346.600
G1 X354.600 Y346.600
G1 X354.700 Y346.600
G1 X354.800 Y346.600
G1 X354.900 Y346.600
G1 X355.000 Y346.600
G1 X355.100 Y346.600
G1 X355.200 Y346.600
G1 X355.300 Y346.600
G1 X355.400 Y346.600
G1 X355.500 Y346.600
G0 Z4.600 F3000
M400
M204 P1200 T1200
G1 F1200
G0 X355.300 Y347.900 Z4.600
M400
M204 P200 T200
G1 F400
G1 Z0.000 F2500
G1 X355.200 Y347.900
G1 X355.100 Y347.900
G1 X355.000 Y347.900
G1 X354.900 Y347.900
G1 X354.800 Y347.900
G1 X354.700 Y347.900
G1 X354.600 Y347.900
G1 X354.500 Y347.900
G1 X354.400 Y347.900
G1 X354.300 Y347.900
G1 X354.200 Y347.900
G1 X354.100 Y347.900
G1 X354.000 Y347.900
G1 X353.900 Y347.900
G1 X353.800 Y347.900
G1 X353.700 Y347.900
G1 X353.600 Y347.900
G1 X353.500 Y347.900
G1 X353.400 Y347.900
G1 X353.300 Y347.900
G1 X353.200 Y347.900
G1 X353.100 Y347.900
G1 X353.000 Y347.900
G1 X352.900 Y347.900
G1 X352.800 Y347.900
G1 X352.700 Y347.900
G1 X352.600 Y347.900
G1 X352.500 Y347.900
G1 X352.400 Y347.900
G1 X352.300 Y347.900
G1 X352.200 Y347.900
G1 X352.100 Y347.900
G1 X352.000 Y347.900
G1 X351.900 Y347.900
G1 X351.800 Y347.900
G1 X351.700 Y347.900
G1 X351.600 Y347.900
G1 X351.500 Y347.900
G1 X351.400 Y347.900
G1 X351.300 Y347.900
G1 X351.200 Y347.900
G1 X351.100 Y347.900
G1 X351.000 Y347.900
G1 X350.900 Y347.900
G1 X350.800 Y347.900
G1 X350.700 Y347.900
G1 X350.600 Y347.900
G1 X350.500 Y347.900
G1 X350.400 Y347.900
G1 X350.300 Y347.900
G1 X350.200 Y347.900
G1 X350.100 Y347.900
G1 X350.000 Y347.900
G1 X349.900 Y347.900
G1 X349.800 Y347.900
G1 X349.700 Y347.900
G1 X349.600 Y347.900
G1 X349.500 Y347.900
G1 X349.400 Y347.900
G1 X349.300 Y347.900
G1 X349.200 Y347.900
G1 X349.100 Y347.900
G1 X349.000 Y347.900
G1 X348.900 Y347.900
G1 X348.800 Y347.900
G1 X348.700 Y347.900
G1 X348.600 Y347.900
G1 X348.500 Y347.900
G1 X348.400 Y347.900
G1 X348.300 Y347.900
G1 X348.200 Y347.900
G1 X348.100 Y347.900
G1 X348.000 Y347.900
G1 X347.900 Y347.900
G1 X347.800 Y347.900
G1 X347.700 Y347.900
G1 X347.600 Y347.900
G1 X347.500 Y347.900
G1 X347.400 Y347.900
G0 Z4.600 F3000
M400
M204 P1200 T1200
G1 F1200
G0 X346.100 Y351.800 Z4.600
M400
M204 P200 T200
G1 F400
G1 Z0.000 F2500
G1 X346.200 Y351.800
G1 X346.300 Y351.800
G1 X346.400 Y351.800
G1 X346.500 Y351.800
G1 X346.600 Y351.800
G1 X346.700 Y351.800
G1 X346.800 Y351.800
G1 X346.900 Y351.800
G1 X347.000 Y351.800
G1 X347.100 Y351.800
G1 X347.200 Y351.800
G1 X347.300 Y351.800
G1 X347.400 Y351.800
G1 X347.500 Y351.800
G1 X347.600 Y351.800
G1 X347.700 Y351.800
G1 X347.800 Y351.800
G1 X347.900 Y351.800
G1 X348.000 Y351.800
G1 X348.100 Y351.800
G1 X348.200 Y351.800
G1 X348.300 Y351.800
G1 X348.400 Y351.800
G1 X348.500 Y351.800
G1 X348.600 Y351.800
G1 X348.700 Y351.800
G1 X348.800 Y351.800
G1 X348.900 Y351.800
G1 X349.000 Y351.800
G1 X349.100 Y351.800
G1 X349.200 Y351.800
G1 X349.300 Y351.800
G1 X349.400 Y351.800
G1 X349.500 Y351.800
G1 X349.600 Y351.800
G1 X349.700 Y351.800
G1 X349.800 Y351.800
G1 X349.900 Y351.800
G1 X350.000 Y351.800
G1 X350.100 Y351.800
G1 X350.200 Y351.800
G1 X350.300 Y351.800
G1 X350.400 Y351.800
G1 X350.500 Y351.800
G1 X350.600 Y351.800
G1 X350.700 Y351.800
G1 X350.800 Y351.800
G1 X350.900 Y351.800
G1 X351.000 Y351.800
G1 X351.100 Y351.800
G1 X351.200 Y351.800
G1 X351.300 Y351.800
G1 X351.400 Y351.800
G1 X351.500 Y351.800
G1 X351.600 Y351.800
G1 X351.700 Y351.800
G1 X351.800 Y351.800
G1 X351.900 Y351.800
G1 X352.000 Y351.800
G1 X352.100 Y351.800
G1 X352.200 Y351.800
G1 X352.300 Y351.800
G1 X352.400 Y351.800
G1 X352.500 Y351.800
G1 X352.600 Y351.800
G1 X352.700 Y351.800
G1 X352.800 Y351.800
G1 X352.900 Y351.800
G1 X353.000 Y351.800
G1 X353.100 Y351.800
G1 X353.200 Y351.800
G1 X353.300 Y351.800
G1 X353.400 Y351.800
G1 X353.500 Y351.800
G1 X353.600 Y351.800
G1 X353.700 Y351.800
G1 X353.800 Y351.800
G1 X353.900 Y351.800
G0 Z4.600 F3000
M400
M204 P1200 T1200
G1 F1200
G0 X353.700 Y353.100 Z4.600
M400
M204 P200 T200
G1 F400
G1 Z0.000 F2500
G1 X353.600 Y353.100
G1 X353.500 Y353.100
G1 X353.400 Y353.100
G1 X353.300 Y353.100
G1 X353.200 Y353.100
G1 X353.100 Y353.100
G1 X353.000 Y353.100
G1 X352.900 Y353.100
G1 X352.800 Y353.100
G1 X352.700 Y353.100
G1 X352.600 Y353.100
G1 X352.500 Y353.100
G1 X352.400 Y353.100
G1 X352.300 Y353.100
G1 X352.200 Y353.100
G1 X352.100 Y353.100
G1 X352.000 Y353.100
G1 X351.900 Y353.100
G1 X351.800 Y353.100
G1 X351.700 Y353.100
G1 X351.600 Y353.100
G1 X351.500 Y353.100
G1 X351.400 Y353.100
G1 X351.300 Y353.100
G1 X351.200 Y353.100
G1 X351.100 Y353.100
G1 X351.000 Y353.100
G1 X350.900 Y353.100
G1 X350.800 Y353.100
G1 X350.700 Y353.100
G1 X350.600 Y353.100
G1 X350.500 Y353.100
G1 X350.400 Y353.100
G1 X350.300 Y353.100
G1 X350.200 Y353.100
G1 X350.100 Y353.100
G1 X350.000 Y353.100
G1 X349.900 Y353.100
G1 X349.800 Y353.100
G1 X349.700 Y353.100
G1 X349.600 Y353.100
G1 X349.500 Y353.100
G1 X349.400 Y353.100
G1 X349.300 Y353.100
G1 X349.200 Y353.100
G1 X349.100 Y353.100
G1 X349.000 Y353.100
G1 X348.900 Y353.100
G1 X348.800 Y353.100
G1 X348.700 Y353.100
G1 X348.600 Y353.100
G1 X348.500 Y353.100
G1 X348.400 Y353.100
G1 X348.300 Y353.100
G1 X348.200 Y353.100
G1 X348.100 Y353.100
G1 X348.000 Y353.100
G1 X347.900 Y353.100
G1 X347.800 Y353.100
G1 X347.700 Y353.100
G1 X347.600 Y353.100
G1 X347.500 Y353.100
G1 X347.400 Y353.100
G1 X347.300 Y353.100
G1 X347.200 Y353.100
G1 X347.100 Y353.100
G1 X347.000 Y353.100
G1 X346.900 Y353.100
G1 X346.800 Y353.100
G1 X346.700 Y353.100
G1 X346.600 Y353.100
G1 X346.500 Y353.100
G1 X346.400 Y353.100
G1 X346.300 Y353.100
G1 X346.200 Y353.100
G1 X346.100 Y353.100
G1 X346.000 Y353.100
G1 X345.900 Y353.100
G1 X345.800 Y353.100
G1 X345.700 Y353.100
G1 X345.600 Y353.100
G0 Z4.600 F3000
M400
M204 P1200 T1200
G1 F1200
G0 X346.200 Y342.700 Z4.600
M400
M204 P200 T200
G1 F400
G1 Z0.000 F2500
G1 X346.300 Y342.700
G0 Z4.600 F3000
M400
M204 P1200 T1200
G1 F1200
G0 X345.400 Y341.400 Z4.600
M400
M204 P200 T200
G1 F400
G1 Z0.000 F2500
G1 X345.500 Y341.400
G1 X345.600 Y341.400
G1 X345.700 Y341.400
G1 X345.800 Y341.400
G1 X345.900 Y341.400
G1 X346.000 Y341.400
G1 X346.100 Y341.400
G1 X346.200 Y341.400
G1 X346.300 Y341.400
G1 X346.400 Y341.400
G1 X346.500 Y341.400
G1 X346.600 Y341.400
G1 X346.700 Y341.400
G1 X346.800 Y341.400
G1 X346.900 Y341.400
G1 X347.000 Y341.400
G1 X347.100 Y341.400
G1 X347.200 Y341.400
G1 X347.300 Y341.400
G1 X347.400 Y341.400
G1 X347.500 Y341.400
G1 X347.600 Y341.400
G1 X347.700 Y341.400
G1 X347.800 Y341.400
G1 X347.900 Y341.400
G1 X348.000 Y341.400
G1 X348.100 Y341.400
G1 X348.200 Y341.400
G1 X348.300 Y341.400
G1 X348.400 Y341.400
G1 X348.500 Y341.400
G1 X348.600 Y341.400
G1 X348.700 Y341.400
G1 X348.800 Y341.400
G1 X348.900 Y341.400
G1 X349.000 Y341.400
G1 X349.100 Y341.400
G1 X349.200 Y341.400
G1 X349.300 Y341.400
G1 X349.400 Y341.400
G1 X349.500 Y341.400
G1 X349.600 Y341.400
G1 X349.700 Y341.400
G1 X349.800 Y341.400
G1 X349.900 Y341.400
G1 X350.000 Y341.400
G1 X350.100 Y341.400
G1 X350.200 Y341.400
G1 X350.300 Y341.400
G1 X350.400 Y341.400
G1 X350.500 Y341.400
G1 X350.600 Y341.400
G1 X350.700 Y341.400
G1 X350.800 Y341.400
G1 X350.900 Y341.400
G1 X351.000 Y341.400
G1 X351.100 Y341.400
G1 X351.200 Y341.400
G1 X351.300 Y341.400
G1 X351.400 Y341.400
G1 X351.500 Y341.400
G1 X351.600 Y341.400
G1 X351.700 Y341.400
G1 X351.800 Y341.400
G1 X351.900 Y341.400
G1 X352.000 Y341.400
G1 X352.100 Y341.400
G1 X352.200 Y341.400
G1 X352.300 Y341.400
G1 X352.400 Y341.400
G1 X352.500 Y341.400
G1 X352.600 Y341.400
G1 X352.700 Y341.400
G1 X352.800 Y341.400
G1 X352.900 Y341.400
G1 X353.000 Y341.400
G1 X353.100 Y341.400
G1 X353.200 Y341.400
G1 X353.300 Y341.400
G1 X353.400 Y341.400
G1 X353.500 Y341.400
G1 X353.600 Y341.400
G1 X353.700 Y341.400
G1 X353.800 Y341.400
G1 X353.900 Y341.400
G1 X354.000 Y341.400
G1 X354.100 Y341.400
G1 X354.200 Y341.400
G1 X354.300 Y341.400
G1 X354.400 Y341.400
G1 X354.500 Y341.400
G1 X354.600 Y341.400
G1 X354.700 Y341.400
G1 X354.800 Y341.400
G1 X354.900 Y341.400
G1 X355.000 Y341.400
G1 X355.100 Y341.400
G1 X355.200 Y341.400
G1 X355.300 Y341.400
G1 X355.400 Y341.400
G1 X355.500 Y341.400
G1 X355.600 Y341.400
G1 X355.700 Y341.400
G1 X355.800 Y341.400
G1 X355.900 Y341.400
G1 X356.000 Y341.400
G1 X356.100 Y341.400
G1 X356.200 Y341.400
G1 X356.300 Y341.400
G1 X356.400 Y341.400
G1 X356.500 Y341.400
G1 X356.600 Y341.400
G1 X356.700 Y341.400
G1 X356.800 Y341.400
G1 X356.900 Y341.400
G1 X357.000 Y341.400
G1 X357.100 Y341.400
G1 X357.200 Y341.400
G1 X357.300 Y341.400
G1 X357.400 Y341.400
G1 X357.500 Y341.400
G1 X357.600 Y341.400
G1 X357.700 Y341.400
G1 X357.800 Y341.400
G1 X357.900 Y341.400
G1 X358.000 Y341.400
G1 X358.100 Y341.400
G1 X358.200 Y341.400
G1 X358.300 Y341.400
G1 X358.400 Y341.400
G1 X358.500 Y341.400
G1 X358.600 Y341.400
G1 X358.700 Y341.400
G1 X358.800 Y341.400
G1 X358.900 Y341.400
G1 X359.000 Y341.400
G1 X359.100 Y341.400
G1 X359.200 Y341.400
G1 X359.300 Y341.400
G1 X359.400 Y341.400
G1 X359.500 Y341.400
G1 X359.600 Y341.400
G1 X359.700 Y341.400
G1 X359.800 Y341.400
G1 X359.900 Y341.400
G1 X360.000 Y341.400
G1 X360.100 Y341.400
G1 X360.200 Y341.400
G1 X360.300 Y341.400
G1 X360.400 Y341.400
G1 X360.500 Y341.400
G1 X360.600 Y341.400
G1 X360.700 Y341.400
G1 X360.800 Y341.400
G1 X360.900 Y341.400
G1 X361.000 Y341.400
G1 X361.100 Y341.400
G1 X361.200 Y341.400
G1 X361.300 Y341.400
G1 X361.400 Y341.400
G1 X361.500 Y341.400
G1 X361.600 Y341.400
G1 X361.700 Y341.400
G1 X361.800 Y341.400
G1 X361.900 Y341.400
G1 X362.000 Y341.400
G1 X362.100 Y341.400
G1 X362.200 Y341.400
G1 X362.300 Y341.400
G1 X362.400 Y341.400
G1 X362.500 Y341.400
G1 X362.600 Y341.400
G1 X362.700 Y341.400
G1 X362.800 Y341.400
G1 X362.900 Y341.400
G1 X363.000 Y341.400
G1 X363.100 Y341.400
G1 X363.200 Y341.400
G1 X363.300 Y341.400
G1 X363.400 Y341.400
G1 X363.500 Y341.400
G1 X363.600 Y341.400
G1 X363.700 Y341.400
G1 X363.800 Y341.400
G1 X363.900 Y341.400
G1 X364.000 Y341.400
G0 Z4.600 F3000
M400
M204 P1200 T1200
G1 F1200
G0 X347.000 Y340.100 Z4.600
M400
M204 P200 T200
G1 F400
G1 Z0.000 F2500
G1 X346.900 Y340.100
G1 X346.800 Y340.100
G1 X346.700 Y340.100
G1 X346.600 Y340.100
G1 X346.500 Y340.100
G1 X346.400 Y340.100
G1 X346.300 Y340.100
G1 X346.200 Y340.100
G1 X346.100 Y340.100
G1 X346.000 Y340.100
G1 X345.900 Y340.100
G1 X345.800 Y340.100
G1 X345.700 Y340.100
G1 X345.600 Y340.100
G1 X345.500 Y340.100
G1 X345.400 Y340.100
G1 X345.300 Y340.100
G1 X345.200 Y340.100
G1 X345.100 Y340.100
G1 X345.000 Y340.100
G1 X344.900 Y340.100
G1 X344.800 Y340.100
G1 X344.700 Y340.100
G1 X344.600 Y340.100
G1 X344.500 Y340.100
G1 X344.400 Y340.100
G1 X344.300 Y340.100
G1 X344.200 Y340.100
G1 X344.100 Y340.100
G1 X344.000 Y340.100
G1 X343.900 Y340.100
G1 X343.800 Y340.100
G0 Z4.600 F3000
M400
M204 P1200 T1200
G1 F1200
G0 X343.300 Y338.800 Z4.600
M400
M204 P200 T200
G1 F400
G1 Z0.000 F2500
G1 X343.400 Y338.800
G1 X343.500 Y338.800
G1 X343.600 Y338.800
G1 X343.700 Y338.800
G1 X343.800 Y338.800
G1 X343.900 Y338.800
G1 X344.000 Y338.800
G1 X344.100 Y338.800
G1 X344.200 Y338.800
G1 X344.300 Y338.800
G1 X344.400 Y338.800
G1 X344.500 Y338.800
G1 X344.600 Y338.800
G1 X344.700 Y338.800
G1 X344.800 Y338.800
G1 X344.900 Y338.800
G1 X345.000 Y338.800
G1 X345.100 Y338.800
G1 X345.200 Y338.800
G1 X345.300 Y338.800
G1 X345.400 Y338.800
G1 X345.500 Y338.800
G1 X345.600 Y338.800
G0 Z4.600 F3000
M400
M204 P1200 T1200
G1 F1200
G0 X343.400 Y341.400 Z4.600
M400
M204 P200 T200
G1 F400
G1 Z0.000 F2500
G1 X343.300 Y341.400
G1 X343.200 Y341.400
G1 X343.100 Y341.400
G1 X343.000 Y341.400
G1 X342.900 Y341.400
G1 X342.800 Y341.400
G1 X342.700 Y341.400
G1 X342.600 Y341.400
G1 X342.500 Y341.400
G1 X342.400 Y341.400
G1 X342.300 Y341.400
G1 X342.200 Y341.400
G1 X342.100 Y341.400
G1 X342.000 Y341.400
G1 X341.900 Y341.400
G0 Z4.600 F3000
M400
M204 P1200 T1200
G1 F1200
G0 X341.700 Y342.700 Z4.600
M400
M204 P200 T200
G1 F400
G1 Z0.000 F2500
G1 X341.800 Y342.700
G1 X341.900 Y342.700
G1 X342.000 Y342.700
G1 X342.100 Y342.700
G1 X342.200 Y342.700
G1 X342.300 Y342.700
G1 X342.400 Y342.700
G1 X342.500 Y342.700
G1 X342.600 Y342.700
G1 X342.700 Y342.700
G1 X342.800 Y342.700
G1 X342.900 Y342.700
G1 X343.000 Y342.700
G0 Z4.600 F3000
M400
M204 P1200 T1200
G1 F1200
G0 X342.700 Y344.000 Z4.600
M400
M204 P200 T200
G1 F400
G1 Z0.000 F2500
G1 X342.600 Y344.000
G1 X342.500 Y344.000
G1 X342.400 Y344.000
G1 X342.300 Y344.000
G1 X342.200 Y344.000
G1 X342.100 Y344.000
G1 X342.000 Y344.000
G1 X341.900 Y344.000
G1 X341.800 Y344.000
G1 X341.700 Y344.000
G1 X341.600 Y344.000
G0 Z4.600 F3000
M400
M204 P1200 T1200
G1 F1200
G0 X341.400 Y345.300 Z4.600
M400
M204 P200 T200
G1 F400
G1 Z0.000 F2500
G1 X341.500 Y345.300
G1 X341.600 Y345.300
G1 X341.700 Y345.300
G1 X341.800 Y345.300
G1 X341.900 Y345.300
G1 X342.000 Y345.300
G1 X342.100 Y345.300
G1 X342.200 Y345.300
G1 X342.300 Y345.300
G1 X342.400 Y345.300
G1 X342.500 Y345.300
G0 Z4.600 F3000
M400
M204 P1200 T1200
G1 F1200
G0 X341.400 Y346.600 Z4.600
M400
M204 P200 T200
G1 F400
G1 Z0.000 F2500
G1 X341.300 Y346.600
G1 X341.200 Y346.600
G1 X341.100 Y346.600
G1 X341.000 Y346.600
G1 X340.900 Y346.600
G0 Z4.600 F3000
M400
M204 P1200 T1200
G1 F1200
G0 X339.200 Y346.600 Z4.600
M400
M204 P200 T200
G1 F400
G1 Z0.000 F2500
G1 X339.100 Y346.600
G1 X339.000 Y346.600
G0 Z4.600 F3000
M400
M204 P1200 T1200
G1 F1200
G0 X337.800 Y346.600 Z4.600
M400
M204 P200 T200
G1 F400
G1 Z0.000 F2500
G1 X337.700 Y346.600
G1 X337.600 Y346.600
G1 X337.500 Y346.600
G1 X337.400 Y346.600
G1 X337.300 Y346.600
G0 Z4.600 F3000
M400
M204 P1200 T1200
G1 F1200
G0 X337.300 Y347.900 Z4.600
M400
M204 P200 T200
G1 F400
G1 Z0.000 F2500
G1 X337.400 Y347.900
G1 X337.500 Y347.900
G1 X337.600 Y347.900
G1 X337.700 Y347.900
G1 X337.800 Y347.900
G1 X337.900 Y347.900
G1 X338.000 Y347.900
G1 X338.100 Y347.900
G0 Z4.600 F3000

; --- DIP → Color 2 — Teal ---
G0 Z4.600 F3000
M400
M204 P1200 T1200
G1 F1200
G0 X50.798 Y8.370 Z31.000
G1 Z0.000 F3000
G1 X50.798 Y8.370 F2500
G1 X50.798 Y10.870 F2500
G1 X45.798 Y8.370 F2500
G1 X50.798 Y0.870 F2500
G0 Z16.000 F3000
G0 X69.368 Y11.715
G0 Z31.000 F3000
G0 X338.200 Y347.900 Z4.600
M400
M204 P200 T200
G1 F400
G1 Z0.000 F2500
G1 X338.200 Y347.900
G1 X338.300 Y347.900
G1 X338.400 Y347.900
G1 X338.500 Y347.900
G1 X338.600 Y347.900
G1 X338.700 Y347.900
G1 X338.800 Y347.900
G1 X338.900 Y347.900
G1 X339.000 Y347.900
G1 X339.100 Y347.900
G1 X339.200 Y347.900
G1 X339.300 Y347.900
G1 X339.400 Y347.900
G1 X339.500 Y347.900
G1 X339.600 Y347.900
G1 X339.700 Y347.900
G1 X339.800 Y347.900
G1 X339.900 Y347.900
G1 X340.000 Y347.900
G1 X340.100 Y347.900
G1 X340.200 Y347.900
G1 X340.300 Y347.900
G1 X340.400 Y347.900
G1 X340.500 Y347.900
G1 X340.600 Y347.900
G1 X340.700 Y347.900
G1 X340.800 Y347.900
G1 X340.900 Y347.900
G0 Z4.600 F3000
M400
M204 P1200 T1200
G1 F1200
G0 X337.100 Y345.300 Z4.600
M400
M204 P200 T200
G1 F400
G1 Z0.000 F2500
G1 X337.000 Y345.300
G1 X336.900 Y345.300
G0 Z4.600 F3000
M400
M204 P1200 T1200
G1 F1200
G0 X335.900 Y345.300 Z4.600
M400
M204 P200 T200
G1 F400
G1 Z0.000 F2500
G1 X335.800 Y345.300
G1 X335.700 Y345.300
G1 X335.600 Y345.300
G1 X335.500 Y345.300
G0 Z4.600 F3000
M400
M204 P1200 T1200
G1 F1200
G0 X335.500 Y344.000 Z4.600
M400
M204 P200 T200
G1 F400
G1 Z0.000 F2500
G1 X335.600 Y344.000
G1 X335.700 Y344.000
G1 X335.800 Y344.000
G1 X335.900 Y344.000
G1 X336.000 Y344.000
G1 X336.100 Y344.000
G1 X336.200 Y344.000
G1 X336.300 Y344.000
G1 X336.400 Y344.000
G1 X336.500 Y344.000
G1 X336.600 Y344.000
G1 X336.700 Y344.000
G1 X336.800 Y344.000
G0 Z4.600 F3000
M400
M204 P1200 T1200
G1 F1200
G0 X336.800 Y342.700 Z4.600
M400
M204 P200 T200
G1 F400
G1 Z0.000 F2500
G1 X336.700 Y342.700
G1 X336.600 Y342.700
G1 X336.500 Y342.700
G1 X336.400 Y342.700
G1 X336.300 Y342.700
G1 X336.200 Y342.700
G1 X336.100 Y342.700
G1 X336.000 Y342.700
G1 X335.900 Y342.700
G1 X335.800 Y342.700
G1 X335.700 Y342.700
G1 X335.600 Y342.700
G1 X335.500 Y342.700
G1 X335.400 Y342.700
G1 X335.300 Y342.700
G0 Z4.600 F3000
M400
M204 P1200 T1200
G1 F1200
G0 X335.600 Y340.100 Z4.600
M400
M204 P200 T200
G1 F400
G1 Z0.000 F2500
G1 X335.700 Y340.100
G1 X335.800 Y340.100
G1 X335.900 Y340.100
G1 X336.000 Y340.100
G1 X336.100 Y340.100
G1 X336.200 Y340.100
G1 X336.300 Y340.100
G1 X336.400 Y340.100
G1 X336.500 Y340.100
G1 X336.600 Y340.100
G1 X336.700 Y340.100
G1 X336.800 Y340.100
G1 X336.900 Y340.100
G1 X337.000 Y340.100
G1 X337.100 Y340.100
G1 X337.200 Y340.100
G1 X337.300 Y340.100
G0 Z4.600 F3000
M400
M204 P1200 T1200
G1 F1200
G0 X337.200 Y338.800 Z4.600
M400
M204 P200 T200
G1 F400
G1 Z0.000 F2500
G1 X337.300 Y338.800
G1 X337.400 Y338.800
G1 X337.500 Y338.800
G1 X337.600 Y338.800
G1 X337.700 Y338.800
G1 X337.800 Y338.800
G1 X337.900 Y338.800
G1 X338.000 Y338.800
G1 X338.100 Y338.800
G1 X338.200 Y338.800
G1 X338.300 Y338.800
G1 X338.400 Y338.800
G1 X338.500 Y338.800
G1 X338.600 Y338.800
G1 X338.700 Y338.800
G0 Z4.600 F3000
M400
M204 P1200 T1200
G1 F1200
G0 X337.200 Y337.500 Z4.600
M400
M204 P200 T200
G1 F400
G1 Z0.000 F2500
G1 X337.300 Y337.500
G1 X337.400 Y337.500
G1 X337.500 Y337.500
G1 X337.600 Y337.500
G1 X337.700 Y337.500
G1 X337.800 Y337.500
G1 X337.900 Y337.500
G1 X338.000 Y337.500
G1 X338.100 Y337.500
G1 X338.200 Y337.500
G1 X338.300 Y337.500
G1 X338.400 Y337.500
G1 X338.500 Y337.500
G1 X338.600 Y337.500
G1 X338.700 Y337.500
G1 X338.800 Y337.500
G1 X338.900 Y337.500
G1 X339.000 Y337.500
G1 X339.100 Y337.500
G1 X339.200 Y337.500
G1 X339.300 Y337.500
G1 X339.400 Y337.500
G1 X339.500 Y337.500
G1 X339.600 Y337.500
G1 X339.700 Y337.500
G1 X339.800 Y337.500
G1 X339.900 Y337.500
G1 X340.000 Y337.500
G1 X340.100 Y337.500
G1 X340.200 Y337.500
G1 X340.300 Y337.500
G1 X340.400 Y337.500
G1 X340.500 Y337.500
G1 X340.600 Y337.500
G1 X340.700 Y337.500
G1 X340.800 Y337.500
G1 X340.900 Y337.500
G1 X341.000 Y337.500
G1 X341.100 Y337.500
G1 X341.200 Y337.500
G1 X341.300 Y337.500
