G90
G21
; === MULTI-COLOR PAINTER GCODE ===
; Generated layers: 1
; Backlash compensation: OFF
; Working area clamping: ON  X[0–150] Y[0–150]
; Tutti Frutti mode: OFF


; ═══════════════════════════════
; LAYER 2: Color 2 — Teal
; Infill: concentric
; ═══════════════════════════════


; --- CIKEL NAMAKANJA ---
G0 Z2.000 F3000
M400
M204 P600 T600
G1 F1300
G0 X57.769 Y0.000 Z8.000
G1 Z1.000 F3000
G1 X57.769 Y0.000 F2500
G1 X57.769 Y1.750 F2500
G1 X54.269 Y0.000 F2500
G1 X57.769 Y0.000 F2500
G0 Z3.000 F3000
G0 X58.346 Y19.989
G0 Z8.000 F3000
G0 X53.375 Y150.000 Z2.000
M400
M204 P600 T600
G1 F1300
G0 X53.375 Y150.000 Z2.000
M400
M204 P200 T200
G1 F600
G1 Z0.000 F2500
G1 X53.500 Y150.000
G1 X53.750 Y150.000
G1 X54.000 Y150.000
G1 X54.250 Y150.000
G1 X54.500 Y150.000
G1 X54.750 Y150.000
G1 X55.000 Y150.000
G1 X55.250 Y150.000
G1 X55.500 Y150.000
G1 X55.750 Y150.000
G1 X56.000 Y150.000
G1 X56.250 Y150.000
G1 X56.500 Y150.000
G1 X56.750 Y150.000
G1 X57.000 Y150.000
G1 X57.250 Y150.000
G1 X57.500 Y150.000
G1 X57.750 Y150.000
G1 X58.000 Y150.000
G1 X58.250 Y150.000
G1 X58.500 Y150.000
G1 X58.750 Y150.000
G1 X59.000 Y150.000
G1 X59.250 Y150.000
G1 X59.500 Y150.000
G1 X59.750 Y150.000
G1 X60.000 Y150.000
G1 X60.250 Y150.000
G1 X60.500 Y150.000
G1 X60.750 Y150.000
G1 X61.000 Y150.000
G1 X61.250 Y150.000
G1 X61.500 Y150.000
G1 X61.750 Y150.000
G1 X62.000 Y150.000
G1 X62.250 Y150.000
G1 X62.500 Y150.000
G1 X62.750 Y150.000
G1 X63.000 Y150.000
G1 X63.250 Y150.000
G1 X63.500 Y150.000
G1 X63.750 Y150.000
G1 X64.000 Y150.000
G1 X64.250 Y150.000
G1 X64.500 Y150.000
G1 X64.750 Y150.000
G1 X65.000 Y150.000
G1 X65.250 Y150.000
G1 X65.500 Y150.000
G1 X65.750 Y150.000
G1 X66.000 Y150.000
G1 X66.250 Y150.000
G1 X66.500 Y150.000
G1 X66.750 Y150.000
G1 X67.000 Y150.000
G1 X67.250 Y150.000
G1 X67.500 Y150.000
G1 X67.750 Y150.000
G1 X68.000 Y150.000
G1 X68.250 Y150.000
G1 X68.500 Y150.000
G1 X68.750 Y150.000
G1 X69.000 Y150.000
G1 X69.250 Y150.000
G1 X69.500 Y150.000
G1 X69.750 Y150.000
G1 X70.000 Y150.000
G1 X70.250 Y150.000
G1 X70.500 Y150.000
G1 X70.750 Y150.000
G1 X71.000 Y150.000
G1 X71.250 Y150.000
G1 X71.500 Y150.000
G1 X71.750 Y150.000
G1 X72.000 Y150.000
G1 X72.250 Y150.000
G1 X72.500 Y150.000
G1 X72.750 Y150.000
G1 X73.000 Y150.000
G1 X73.250 Y150.000
G1 X73.500 Y150.000
G1 X73.750 Y150.000
G1 X74.000 Y150.000
G1 X74.250 Y150.000
G1 X74.500 Y150.000
G1 X74.750 Y150.000
G1 X75.000 Y150.000
G1 X75.250 Y150.000
G1 X75.500 Y150.000
G1 X75.750 Y150.000
G1 X76.000 Y150.000
G1 X76.250 Y150.000
G1 X76.500 Y150.000
G1 X76.750 Y150.000
G1 X77.000 Y150.000
G1 X77.250 Y150.000
G1 X77.500 Y150.000
G1 X77.750 Y150.000
G1 X78.000 Y150.000
G1 X78.250 Y150.000
G1 X78.500 Y150.000
G1 X78.750 Y150.000
G1 X79.000 Y150.000
G1 X79.250 Y150.000
G1 X79.500 Y150.000
G1 X79.750 Y150.000
G1 X80.000 Y150.000
G1 X80.250 Y150.000
G1 X80.500 Y150.000
G1 X80.750 Y150.000
G1 X81.000 Y150.000
G1 X81.250 Y150.000
G1 X81.500 Y150.000
G1 X81.750 Y150.000
G1 X82.000 Y150.000
G1 X82.250 Y150.000
G1 X82.500 Y150.000
G1 X82.750 Y150.000
G1 X83.000 Y150.000
G1 X83.250 Y150.000
G1 X83.500 Y150.000
G1 X83.750 Y150.000
G1 X84.000 Y150.000
G1 X84.250 Y150.000
G1 X84.500 Y150.000
G1 X84.750 Y150.000
G1 X85.000 Y150.000
G1 X85.250 Y150.000
G1 X85.500 Y150.000
G1 X85.750 Y150.000
G1 X86.000 Y150.000
G1 X86.250 Y150.000
G1 X86.500 Y150.000
G1 X86.750 Y150.000
G1 X87.000 Y150.000
G1 X87.250 Y150.000
G1 X87.500 Y150.000
G1 X87.750 Y150.000
G1 X88.000 Y150.000
G1 X88.250 Y150.000
G1 X88.500 Y150.000
G1 X88.750 Y150.000
G1 X89.000 Y150.000
G1 X89.250 Y150.000
G1 X89.500 Y150.000
G1 X89.750 Y150.000
G1 X90.000 Y150.000
G1 X90.250 Y150.000
G1 X90.500 Y150.000
G1 X90.750 Y150.000
G1 X91.000 Y150.000
G1 X91.250 Y150.000
G1 X91.500 Y150.000
G1 X91.750 Y150.000
G1 X92.000 Y150.000
G1 X92.250 Y150.000
G1 X92.500 Y150.000
G1 X92.750 Y150.000
G1 X93.000 Y150.000
G1 X93.250 Y150.000
G1 X93.500 Y150.000
G1 X93.750 Y150.000
G1 X94.000 Y150.000
G1 X94.250 Y150.000
G1 X94.500 Y150.000
G1 X94.750 Y150.000
G1 X95.000 Y150.000
G1 X95.250 Y150.000
G1 X95.500 Y150.000
G1 X95.750 Y150.000
G1 X96.000 Y150.000
G1 X96.250 Y150.000
G1 X96.500 Y150.000
G1 X96.750 Y150.000
G1 X97.000 Y150.000
G1 X97.250 Y150.000
G1 X97.500 Y150.000
G1 X97.750 Y150.000
G1 X98.000 Y150.000
G1 X98.250 Y150.000
G1 X98.500 Y150.000
G1 X98.750 Y150.000
G1 X99.000 Y150.000
G1 X99.250 Y150.000
G1 X99.500 Y150.000
G1 X99.750 Y150.000
G1 X100.000 Y150.000
G1 X100.250 Y150.000
G1 X100.500 Y150.000
G1 X100.750 Y150.000
G1 X101.000 Y150.000
G1 X101.250 Y150.000
G1 X101.500 Y150.000
G1 X101.750 Y150.000
G1 X102.000 Y150.000
G1 X102.250 Y150.000
G1 X102.500 Y150.000
G1 X102.750 Y150.000
G1 X103.000 Y150.000
G1 X103.250 Y150.000
G1 X103.500 Y150.000
G1 X103.750 Y150.000
G1 X104.000 Y150.000
G1 X104.250 Y150.000
G1 X104.375 Y150.000
G1 X104.500 Y150.000
G1 X104.625 Y150.000
G1 X104.625 Y150.000
G1 X104.625 Y150.000
G1 X104.625 Y150.000
G1 X104.625 Y150.000
G1 X104.625 Y150.000
G1 X104.625 Y150.000
G1 X104.625 Y150.000
G1 X104.625 Y150.000
G1 X104.625 Y150.000
G1 X104.625 Y150.000
G1 X104.625 Y150.000
G1 X104.625 Y150.000
G1 X104.625 Y150.000
G1 X104.625 Y150.000
G1 X104.625 Y150.000
G1 X104.625 Y150.000
G1 X104.625 Y150.000
G1 X104.625 Y150.000
G1 X104.625 Y150.000
G1 X104.625 Y150.000
G1 X104.625 Y150.000
G1 X104.625 Y150.000
G1 X104.625 Y150.000
G1 X104.625 Y150.000
G1 X104.625 Y150.000
G1 X104.625 Y150.000
G1 X104.625 Y150.000
G1 X104.625 Y150.000
G1 X104.625 Y150.000
G1 X104.625 Y150.000
G1 X104.625 Y150.000
G1 X104.625 Y150.000
G1 X104.625 Y150.000
G1 X104.625 Y150.000
G1 X104.625 Y150.000
G1 X104.625 Y150.000
G1 X104.625 Y150.000
G1 X104.625 Y150.000
G1 X104.625 Y150.000
G1 X104.625 Y150.000
G1 X104.625 Y150.000
G1 X104.625 Y150.000
G1 X104.625 Y150.000
G1 X104.625 Y150.000
G1 X104.625 Y150.000
G1 X104.625 Y150.000
G1 X104.625 Y150.000
G1 X104.625 Y150.000
G1 X104.625 Y150.000
G1 X104.625 Y150.000
G1 X104.625 Y150.000
G1 X104.625 Y150.000
G1 X104.625 Y150.000
G1 X104.625 Y150.000
G1 X104.625 Y150.000
G1 X104.625 Y150.000
G1 X104.625 Y150.000
G1 X104.625 Y150.000
G1 X104.625 Y150.000
G1 X104.625 Y150.000
G1 X104.625 Y150.000
G1 X104.625 Y150.000
G1 X104.625 Y150.000
G1 X104.625 Y150.000
G1 X104.625 Y150.000
G1 X104.625 Y150.000
G1 X104.625 Y150.000
G1 X104.625 Y150.000
G1 X104.625 Y150.000
G1 X104.625 Y150.000
G1 X104.625 Y150.000
G1 X104.625 Y150.000
G1 X104.625 Y150.000
G1 X104.625 Y150.000
G1 X104.625 Y150.000
G1 X104.625 Y150.000
G1 X104.625 Y150.000
G1 X104.625 Y150.000
G1 X104.625 Y150.000
G1 X104.625 Y150.000
G1 X104.625 Y150.000
G1 X104.625 Y150.000
G1 X104.625 Y150.000
G1 X104.625 Y150.000
G1 X104.625 Y150.000
G1 X104.625 Y150.000
G1 X104.625 Y150.000
G1 X104.625 Y149.750
G1 X104.625 Y149.500
G1 X104.625 Y149.250
G1 X104.625 Y149.000
G1 X104.625 Y148.750
G1 X104.625 Y148.500
G1 X104.625 Y148.250
G1 X104.625 Y148.000
G1 X104.625 Y147.750
G1 X104.625 Y147.500
G1 X104.625 Y147.250
G1 X104.625 Y147.000
G1 X104.625 Y146.750
G1 X104.625 Y146.500
G1 X104.625 Y146.250
G1 X104.625 Y146.000
G1 X104.625 Y145.750
G1 X104.625 Y145.500
G1 X104.625 Y145.250
G1 X104.625 Y145.000
G1 X104.625 Y144.750
G1 X104.625 Y144.500
G1 X104.625 Y144.250
G1 X104.625 Y144.000
G1 X104.625 Y143.750
G1 X104.625 Y143.500
G1 X104.625 Y143.250
G1 X104.625 Y143.000
G1 X104.625 Y142.750
G1 X104.625 Y142.500
G1 X104.625 Y142.250
G1 X104.625 Y142.000
G1 X104.625 Y141.750
G1 X104.625 Y141.500
G1 X104.625 Y141.250
G1 X104.625 Y141.000
G1 X104.625 Y140.750
G1 X104.625 Y140.500
G1 X104.625 Y140.250
G1 X104.625 Y140.000
G1 X104.625 Y139.750
G1 X104.625 Y139.500
G1 X104.625 Y139.250
G1 X104.625 Y139.000
G1 X104.625 Y138.750
G1 X104.625 Y138.500
G1 X104.625 Y138.250
G1 X104.625 Y138.000
G1 X104.625 Y137.750
G1 X104.625 Y137.500
G1 X104.625 Y137.250
G1 X104.625 Y137.000
G1 X104.625 Y136.750
G1 X104.625 Y136.500
G1 X104.625 Y136.250
G1 X104.625 Y136.000
G1 X104.625 Y135.750
G1 X104.625 Y135.500
G1 X104.625 Y135.250
G1 X104.625 Y135.000
G1 X104.625 Y134.750
G1 X104.625 Y134.500
G1 X104.625 Y134.250
G1 X104.625 Y134.000
G1 X104.625 Y133.750
G1 X104.625 Y133.500
G1 X104.625 Y133.250
G1 X104.625 Y133.000
G1 X104.625 Y132.750
G1 X104.625 Y132.500
G1 X104.625 Y132.250
G1 X104.625 Y132.000
G1 X104.625 Y131.750
G1 X104.625 Y131.500
G1 X104.625 Y131.250
G1 X104.625 Y131.000
G0 Z2.000 F3000

; --- CIKEL NAMAKANJA ---
G0 Z2.000 F3000
M400
M204 P600 T600
G1 F1300
G0 X56.109 Y3.299 Z8.000
G1 Z1.000 F3000
G1 X56.109 Y3.299 F2500
G1 X56.109 Y5.049 F2500
G1 X52.609 Y3.299 F2500
G1 X56.109 Y0.000 F2500
G0 Z3.000 F3000
G0 X65.589 Y18.883
G0 Z8.000 F3000
G0 X104.625 Y130.750 Z2.000
M400
M204 P200 T200
G1 F600
G1 Z0.000 F2500
G1 X104.625 Y130.750
G1 X104.625 Y130.500
G1 X104.625 Y130.250
G1 X104.625 Y130.000
G1 X104.625 Y129.750
G1 X104.625 Y129.500
G1 X104.625 Y129.250
G1 X104.625 Y129.000
G1 X104.625 Y128.750
G1 X104.625 Y128.500
G1 X104.625 Y128.250
G1 X104.625 Y128.000
G1 X104.625 Y127.750
G1 X104.625 Y127.500
G1 X104.625 Y127.250
G1 X104.625 Y127.000
G1 X104.625 Y126.750
G1 X104.625 Y126.500
G1 X104.625 Y126.250
G1 X104.625 Y126.000
G1 X104.625 Y125.750
G1 X104.625 Y125.500
G1 X104.625 Y125.250
G1 X104.625 Y125.000
G1 X104.625 Y124.750
G1 X104.625 Y124.500
G1 X104.625 Y124.250
G1 X104.625 Y124.000
G1 X104.625 Y123.750
G1 X104.625 Y123.500
G1 X104.625 Y123.250
G1 X104.625 Y123.000
G1 X104.625 Y122.750
G1 X104.625 Y122.500
G1 X104.625 Y122.250
G1 X104.625 Y122.000
G1 X104.625 Y121.750
G1 X104.625 Y121.500
G1 X104.625 Y121.250
G1 X104.625 Y121.000
G1 X104.500 Y120.875
G1 X104.250 Y120.875
G1 X104.000 Y120.875
G1 X103.750 Y120.875
G1 X103.500 Y120.875
G1 X103.250 Y120.875
G1 X103.000 Y120.875
G1 X102.750 Y120.875
G1 X102.500 Y120.875
G1 X102.250 Y120.875
G1 X102.000 Y120.875
G1 X101.750 Y120.875
G1 X101.500 Y120.875
G1 X101.250 Y120.875
G1 X101.000 Y120.875
G1 X100.750 Y120.875
G1 X100.500 Y120.875
G1 X100.250 Y120.875
G1 X100.000 Y120.875
G1 X99.750 Y120.875
G1 X99.500 Y120.875
G1 X99.250 Y120.875
G1 X99.000 Y120.875
G1 X98.750 Y120.875
G1 X98.500 Y120.875
G1 X98.250 Y120.875
G1 X98.000 Y120.875
G1 X97.750 Y120.875
G1 X97.500 Y120.875
G1 X97.250 Y120.875
G1 X97.000 Y120.875
G1 X96.750 Y120.875
G1 X96.500 Y120.875
G1 X96.250 Y120.875
G1 X96.000 Y120.875
G1 X95.750 Y120.875
G1 X95.500 Y120.875
G1 X95.250 Y120.875
G1 X95.000 Y120.875
G1 X94.750 Y120.875
G1 X94.500 Y120.875
G1 X94.250 Y120.875
G1 X94.000 Y120.875
G1 X93.750 Y120.875
G1 X93.500 Y120.875
G1 X93.250 Y120.875
G1 X93.000 Y120.875
G1 X92.750 Y120.875
G1 X92.500 Y120.875
G1 X92.250 Y120.875
G1 X92.000 Y120.875
G1 X91.750 Y120.875
G1 X91.500 Y120.875
G1 X91.250 Y120.875
G1 X91.000 Y120.875
G1 X90.750 Y120.875
G1 X90.500 Y120.875
G1 X90.250 Y120.875
G1 X90.000 Y120.875
G1 X89.750 Y120.875
G1 X89.500 Y120.875
G1 X89.250 Y120.875
G1 X89.000 Y120.875
G1 X88.750 Y120.875
G1 X88.500 Y120.875
G1 X88.250 Y120.875
G1 X88.000 Y120.875
G1 X87.750 Y120.875
G1 X87.500 Y120.875
G1 X87.250 Y120.875
G1 X87.000 Y120.875
G1 X86.750 Y120.875
G1 X86.500 Y120.875
G1 X86.250 Y120.875
G1 X86.000 Y120.875
G1 X85.750 Y120.875
G1 X85.500 Y120.875
G1 X85.250 Y120.875
G1 X85.000 Y120.875
G1 X84.750 Y120.875
G1 X84.500 Y120.875
G1 X84.250 Y120.875
G1 X84.000 Y120.875
G1 X83.750 Y120.875
G1 X83.500 Y120.875
G1 X83.250 Y120.875
G1 X83.000 Y120.875
G1 X82.750 Y120.875
G1 X82.500 Y120.875
G1 X82.250 Y120.875
G1 X82.000 Y120.875
G1 X81.750 Y120.875
G1 X81.500 Y120.875
G1 X81.250 Y120.875
G1 X81.000 Y120.875
G1 X80.750 Y120.875
G1 X80.500 Y120.875
G1 X80.250 Y120.875
G1 X80.000 Y120.875
G1 X79.750 Y120.875
G1 X79.500 Y120.875
G1 X79.250 Y120.875
G1 X79.000 Y120.875
G1 X78.750 Y120.875
G1 X78.500 Y120.875
G1 X78.250 Y120.875
G1 X78.000 Y120.875
G1 X77.750 Y120.875
G1 X77.500 Y120.875
G1 X77.250 Y120.875
G1 X77.000 Y120.875
G1 X76.750 Y120.875
G1 X76.500 Y120.875
G1 X76.250 Y120.875
G1 X76.000 Y120.875
G1 X75.750 Y120.875
G1 X75.500 Y120.875
G1 X75.250 Y120.875
G1 X75.000 Y120.875
G1 X74.750 Y120.875
G1 X74.500 Y120.875
G1 X74.250 Y120.875
G1 X74.000 Y120.875
G1 X73.750 Y120.875
G1 X73.500 Y120.875
G1 X73.250 Y120.875
G1 X73.000 Y120.875
G1 X72.750 Y120.875
G1 X72.500 Y120.875
G1 X72.250 Y120.875
G1 X72.000 Y120.875
G1 X71.750 Y120.875
G1 X71.500 Y120.875
G1 X71.250 Y120.875
G1 X71.000 Y120.875
G1 X70.750 Y120.875
G1 X70.500 Y120.875
G1 X70.250 Y120.875
G1 X70.000 Y120.875
G1 X69.750 Y120.875
G1 X69.500 Y120.875
G1 X69.250 Y120.875
G1 X69.000 Y120.875
G1 X68.750 Y120.875
G1 X68.500 Y120.875
G1 X68.250 Y120.875
G1 X68.000 Y120.875
G1 X67.750 Y120.875
G1 X67.500 Y120.875
G1 X67.250 Y120.875
G1 X67.000 Y120.875
G1 X66.750 Y120.875
G1 X66.500 Y120.875
G1 X66.250 Y120.875
G1 X66.000 Y120.875
G1 X65.750 Y120.875
G1 X65.500 Y120.875
G1 X65.250 Y120.875
G1 X65.000 Y120.875
G1 X64.750 Y120.875
G1 X64.500 Y120.875
G1 X64.250 Y120.875
G1 X64.000 Y120.875
G1 X63.750 Y120.875
G1 X63.500 Y120.875
G1 X63.250 Y120.875
G1 X63.000 Y120.875
G1 X62.750 Y120.875
G1 X62.500 Y120.875
G1 X62.250 Y120.875
G1 X62.000 Y120.875
G1 X61.750 Y120.875
G1 X61.500 Y120.875
G1 X61.250 Y120.875
G1 X61.000 Y120.875
G1 X60.750 Y120.875
G1 X60.500 Y120.875
G1 X60.250 Y120.875
G1 X60.000 Y120.875
G1 X59.750 Y120.875
G1 X59.500 Y120.875
G1 X59.250 Y120.875
G1 X59.000 Y120.875
G1 X58.750 Y120.875
G1 X58.500 Y120.875
G1 X58.250 Y120.875
G1 X58.000 Y120.875
G1 X57.750 Y120.875
G1 X57.500 Y120.875
G1 X57.250 Y120.875
G1 X57.000 Y120.875
G1 X56.750 Y120.875
G1 X56.500 Y120.875
G1 X56.250 Y120.875
G1 X56.000 Y120.875
G1 X55.750 Y120.875
G1 X55.500 Y120.875
G1 X55.250 Y120.875
G1 X55.000 Y120.875
G1 X54.750 Y120.875
G1 X54.500 Y120.875
G1 X54.250 Y120.875
G1 X54.000 Y120.875
G1 X53.750 Y120.875
G1 X53.500 Y120.875
G1 X53.250 Y120.875
G1 X53.125 Y121.000
G1 X53.125 Y121.250
G1 X53.125 Y121.500
G1 X53.125 Y121.750
G1 X53.125 Y122.000
G1 X53.125 Y122.250
G1 X53.125 Y122.500
G1 X53.125 Y122.750
G1 X53.125 Y123.000
G1 X53.125 Y123.250
G1 X53.125 Y123.500
G1 X53.125 Y123.750
G1 X53.125 Y124.000
G1 X53.125 Y124.250
G1 X53.125 Y124.500
G1 X53.125 Y124.750
G1 X53.125 Y125.000
G1 X53.125 Y125.250
G1 X53.125 Y125.500
G1 X53.125 Y125.750
G1 X53.125 Y126.000
G1 X53.125 Y126.250
G1 X53.125 Y126.500
G1 X53.125 Y126.750
G1 X53.125 Y127.000
G1 X53.125 Y127.250
G1 X53.125 Y127.500
G1 X53.125 Y127.750
G1 X53.125 Y128.000
G1 X53.125 Y128.250
G1 X53.125 Y128.500
G1 X53.125 Y128.750
G1 X53.125 Y129.000
G1 X53.125 Y129.250
G1 X53.125 Y129.500
G1 X53.125 Y129.750
G1 X53.125 Y130.000
G1 X53.125 Y130.250
G1 X53.125 Y130.500
G1 X53.125 Y130.750
G1 X53.125 Y131.000
G1 X53.125 Y131.250
G1 X53.125 Y131.500
G1 X53.125 Y131.750
G1 X53.125 Y132.000
G1 X53.125 Y132.250
G1 X53.125 Y132.500
G1 X53.125 Y132.750
G1 X53.125 Y133.000
G1 X53.125 Y133.250
G1 X53.125 Y133.500
G1 X53.125 Y133.750
G1 X53.125 Y134.000
G1 X53.125 Y134.250
G1 X53.125 Y134.500
G1 X53.125 Y134.750
G1 X53.125 Y135.000
G1 X53.125 Y135.250
G1 X53.125 Y135.500
G1 X53.125 Y135.750
G1 X53.125 Y136.000
G1 X53.125 Y136.250
G1 X53.125 Y136.500
G1 X53.125 Y136.750
G1 X53.125 Y137.000
G1 X53.125 Y137.250
G1 X53.125 Y137.500
G1 X53.125 Y137.750
G1 X53.125 Y138.000
G1 X53.125 Y138.250
G1 X53.125 Y138.500
G1 X53.125 Y138.750
G1 X53.125 Y139.000
G1 X53.125 Y139.250
G1 X53.125 Y139.500
G1 X53.125 Y139.750
G1 X53.125 Y140.000
G1 X53.125 Y140.250
G1 X53.125 Y140.500
G1 X53.125 Y140.750
G0 Z2.000 F3000

; --- CIKEL NAMAKANJA ---
G0 Z2.000 F3000
M400
M204 P600 T600
G1 F1300
G0 X57.529 Y4.375 Z8.000
G1 Z1.000 F3000
G1 X57.529 Y4.375 F2500
G1 X57.529 Y6.125 F2500
G1 X54.029 Y4.375 F2500
G1 X57.529 Y0.000 F2500
G0 Z3.000 F3000
G0 X58.167 Y19.983
G0 Z8.000 F3000
G0 X53.125 Y141.000 Z2.000
M400
M204 P200 T200
G1 F600
G1 Z0.000 F2500
G1 X53.125 Y141.000
G1 X53.125 Y141.250
G1 X53.125 Y141.500
G1 X53.125 Y141.750
G1 X53.125 Y142.000
G1 X53.125 Y142.250
G1 X53.125 Y142.500
G1 X53.125 Y142.750
G1 X53.125 Y143.000
G1 X53.125 Y143.250
G1 X53.125 Y143.500
G1 X53.125 Y143.750
G1 X53.125 Y144.000
G1 X53.125 Y144.250
G1 X53.125 Y144.500
G1 X53.125 Y144.750
G1 X53.125 Y145.000
G1 X53.125 Y145.250
G1 X53.125 Y145.500
G1 X53.125 Y145.750
G1 X53.125 Y146.000
G1 X53.125 Y146.250
G1 X53.125 Y146.500
G1 X53.125 Y146.750
G1 X53.125 Y147.000
G1 X53.125 Y147.250
G1 X53.125 Y147.500
G1 X53.125 Y147.750
G1 X53.125 Y148.000
G1 X53.125 Y148.250
G1 X53.125 Y148.500
G1 X53.125 Y148.750
G1 X53.125 Y149.000
G1 X53.125 Y149.250
G1 X53.125 Y149.500
G1 X53.125 Y149.750
G1 X53.125 Y150.000
G1 X53.125 Y150.000
G1 X53.125 Y150.000
G1 X53.125 Y150.000
G1 X53.125 Y150.000
G1 X53.125 Y150.000
G1 X53.125 Y150.000
G1 X53.125 Y150.000
G1 X53.125 Y150.000
G1 X53.125 Y150.000
G1 X53.125 Y150.000
G1 X53.125 Y150.000
G1 X53.125 Y150.000
G1 X53.125 Y150.000
G1 X53.125 Y150.000
G1 X53.125 Y150.000
G1 X53.125 Y150.000
G1 X53.125 Y150.000
G1 X53.125 Y150.000
G1 X53.125 Y150.000
G1 X53.125 Y150.000
G1 X53.125 Y150.000
G1 X53.125 Y150.000
G1 X53.125 Y150.000
G1 X53.125 Y150.000
G1 X53.125 Y150.000
G1 X53.125 Y150.000
G1 X53.125 Y150.000
G1 X53.125 Y150.000
G1 X53.125 Y150.000
G1 X53.125 Y150.000
G1 X53.125 Y150.000
G1 X53.125 Y150.000
G1 X53.125 Y150.000
G1 X53.125 Y150.000
G1 X53.125 Y150.000
G1 X53.125 Y150.000
G1 X53.125 Y150.000
G1 X53.125 Y150.000
G1 X53.125 Y150.000
G1 X53.125 Y150.000
G1 X53.125 Y150.000
G1 X53.125 Y150.000
G1 X53.125 Y150.000
G1 X53.125 Y150.000
G1 X53.125 Y150.000
G1 X53.125 Y150.000
G1 X53.125 Y150.000
G1 X53.125 Y150.000
G1 X53.125 Y150.000
G1 X53.125 Y150.000
G1 X53.125 Y150.000
G1 X53.125 Y150.000
G1 X53.125 Y150.000
G1 X53.125 Y150.000
G1 X53.125 Y150.000
G1 X53.125 Y150.000
G1 X53.125 Y150.000
G1 X53.125 Y150.000
G1 X53.125 Y150.000
G1 X53.125 Y150.000
G1 X53.125 Y150.000
G1 X53.125 Y150.000
G1 X53.125 Y150.000
G1 X53.125 Y150.000
G1 X53.125 Y150.000
G1 X53.125 Y150.000
G1 X53.125 Y150.000
G1 X53.125 Y150.000
G1 X53.125 Y150.000
G1 X53.125 Y150.000
G1 X53.125 Y150.000
G1 X53.125 Y150.000
G1 X53.125 Y150.000
G1 X53.125 Y150.000
G1 X53.125 Y150.000
G1 X53.125 Y150.000
G1 X53.125 Y150.000
G1 X53.125 Y150.000
G1 X53.125 Y150.000
G1 X53.125 Y150.000
G1 X53.125 Y150.000
G1 X53.125 Y150.000
G1 X53.125 Y150.000
G1 X53.125 Y150.000
G1 X53.125 Y150.000
G1 X53.125 Y150.000
G1 X53.125 Y150.000
G1 X53.250 Y150.000
G1 X53.375 Y150.000
G0 Z2.000 F3000
M400
M204 P600 T600
G1 F1300
G0 X52.125 Y150.000 Z2.000
M400
M204 P200 T200
G1 F600
G1 Z0.000 F2500
G1 X52.250 Y150.000
G1 X52.500 Y150.000
G1 X52.750 Y150.000
G1 X53.000 Y150.000
G1 X53.250 Y150.000
G1 X53.500 Y150.000
G1 X53.750 Y150.000
G1 X54.000 Y150.000
G1 X54.250 Y150.000
G1 X54.500 Y150.000
G1 X54.750 Y150.000
G1 X55.000 Y150.000
G1 X55.250 Y150.000
G1 X55.500 Y150.000
G1 X55.750 Y150.000
G1 X56.000 Y150.000
G1 X56.250 Y150.000
G1 X56.500 Y150.000
G1 X56.750 Y150.000
G1 X57.000 Y150.000
G1 X57.250 Y150.000
G1 X57.500 Y150.000
G1 X57.750 Y150.000
G1 X58.000 Y150.000
G1 X58.250 Y150.000
G1 X58.500 Y150.000
G1 X58.750 Y150.000
G1 X59.000 Y150.000
G1 X59.250 Y150.000
G1 X59.500 Y150.000
G1 X59.750 Y150.000
G1 X60.000 Y150.000
G1 X60.250 Y150.000
G1 X60.500 Y150.000
G1 X60.750 Y150.000
G1 X61.000 Y150.000
G1 X61.250 Y150.000
G1 X61.500 Y150.000
G1 X61.750 Y150.000
G1 X62.000 Y150.000
G1 X62.250 Y150.000
G1 X62.500 Y150.000
G1 X62.750 Y150.000
G1 X63.000 Y150.000
G1 X63.250 Y150.000
G1 X63.500 Y150.000
G1 X63.750 Y150.000
G1 X64.000 Y150.000
G1 X64.250 Y150.000
G1 X64.500 Y150.000
G1 X64.750 Y150.000
G1 X65.000 Y150.000
G1 X65.250 Y150.000
G1 X65.500 Y150.000
G1 X65.750 Y150.000
G1 X66.000 Y150.000
G1 X66.250 Y150.000
G1 X66.500 Y150.000
G1 X66.750 Y150.000
G1 X67.000 Y150.000
G1 X67.250 Y150.000
G1 X67.500 Y150.000
G1 X67.750 Y150.000
G1 X68.000 Y150.000
G1 X68.250 Y150.000
G1 X68.500 Y150.000
G1 X68.750 Y150.000
G1 X69.000 Y150.000
G1 X69.250 Y150.000
G1 X69.500 Y150.000
G1 X69.750 Y150.000
G1 X70.000 Y150.000
G1 X70.250 Y150.000
G1 X70.500 Y150.000
G1 X70.750 Y150.000
G1 X71.000 Y150.000
G1 X71.250 Y150.000
G1 X71.500 Y150.000
G1 X71.750 Y150.000
G1 X72.000 Y150.000
G1 X72.250 Y150.000
G1 X72.500 Y150.000
G1 X72.750 Y150.000
G1 X73.000 Y150.000
G1 X73.250 Y150.000
G1 X73.500 Y150.000
G1 X73.750 Y150.000
G1 X74.000 Y150.000
G1 X74.250 Y150.000
G1 X74.500 Y150.000
G1 X74.750 Y150.000
G1 X75.000 Y150.000
G1 X75.250 Y150.000
G1 X75.500 Y150.000
G1 X75.750 Y150.000
G1 X76.000 Y150.000
G1 X76.250 Y150.000
G1 X76.500 Y150.000
G1 X76.750 Y150.000
G1 X77.000 Y150.000
G1 X77.250 Y150.000
G1 X77.500 Y150.000
G1 X77.750 Y150.000
G1 X78.000 Y150.000
G1 X78.250 Y150.000
G1 X78.500 Y150.000
G1 X78.750 Y150.000
G1 X79.000 Y150.000
G1 X79.250 Y150.000
G1 X79.500 Y150.000
G1 X79.750 Y150.000
G1 X80.000 Y150.000
G1 X80.250 Y150.000
G1 X80.500 Y150.000
G1 X80.750 Y150.000
G1 X81.000 Y150.000
G1 X81.250 Y150.000
G1 X81.500 Y150.000
G1 X81.750 Y150.000
G1 X82.000 Y150.000
G1 X82.250 Y150.000
G1 X82.500 Y150.000
G1 X82.750 Y150.000
G1 X83.000 Y150.000
G1 X83.250 Y150.000
G1 X83.500 Y150.000
G1 X83.750 Y150.000
G1 X84.000 Y150.000
G1 X84.250 Y150.000
G1 X84.500 Y150.000
G1 X84.750 Y150.000
G1 X85.000 Y150.000
G1 X85.250 Y150.000
G1 X85.500 Y150.000
G1 X85.750 Y150.000
G1 X86.000 Y150.000
G1 X86.250 Y150.000
G1 X86.500 Y150.000
G1 X86.750 Y150.000
G1 X87.000 Y150.000
G1 X87.250 Y150.000
G1 X87.500 Y150.000
G1 X87.750 Y150.000
G1 X88.000 Y150.000
G1 X88.250 Y150.000
G1 X88.500 Y150.000
G1 X88.750 Y150.000
G1 X89.000 Y150.000
G1 X89.250 Y150.000
G1 X89.500 Y150.000
G1 X89.750 Y150.000
G1 X90.000 Y150.000
G1 X90.250 Y150.000
G1 X90.500 Y150.000
G1 X90.750 Y150.000
G1 X91.000 Y150.000
G1 X91.250 Y150.000
G1 X91.500 Y150.000
G1 X91.750 Y150.000
G1 X92.000 Y150.000
G1 X92.250 Y150.000
G1 X92.500 Y150.000
G1 X92.750 Y150.000
G1 X93.000 Y150.000
G1 X93.250 Y150.000
G1 X93.500 Y150.000
G1 X93.750 Y150.000
G1 X94.000 Y150.000
G1 X94.250 Y150.000
G1 X94.500 Y150.000
G1 X94.750 Y150.000
G1 X95.000 Y150.000
G1 X95.250 Y150.000
G1 X95.500 Y150.000
G1 X95.750 Y150.000
G1 X96.000 Y150.000
G1 X96.250 Y150.000
G1 X96.500 Y150.000
G1 X96.750 Y150.000
G1 X97.000 Y150.000
G1 X97.250 Y150.000
G1 X97.500 Y150.000
G1 X97.750 Y150.000
G1 X98.000 Y150.000
G1 X98.250 Y150.000
G1 X98.500 Y150.000
G1 X98.750 Y150.000
G1 X99.000 Y150.000
G1 X99.250 Y150.000
G1 X99.500 Y150.000
G1 X99.750 Y150.000
G1 X100.000 Y150.000
G1 X100.250 Y150.000
G1 X100.500 Y150.000
G1 X100.750 Y150.000
G1 X101.000 Y150.000
G1 X101.250 Y150.000
G1 X101.500 Y150.000
G1 X101.750 Y150.000
G1 X102.000 Y150.000
G1 X102.250 Y150.000
G1 X102.500 Y150.000
G1 X102.750 Y150.000
G1 X103.000 Y150.000
G1 X103.250 Y150.000
G1 X103.500 Y150.000
G1 X103.750 Y150.000
G1 X104.000 Y150.000
G1 X104.250 Y150.000
G1 X104.500 Y150.000
G1 X104.750 Y150.000
G1 X105.000 Y150.000
G1 X105.250 Y150.000
G1 X105.500 Y150.000
G1 X105.625 Y150.000
G1 X105.625 Y150.000
G1 X105.625 Y150.000
G1 X105.625 Y150.000
G1 X105.625 Y150.000
G1 X105.625 Y150.000
G1 X105.625 Y150.000
G1 X105.625 Y150.000
G1 X105.625 Y150.000
G1 X105.625 Y150.000
G1 X105.625 Y150.000
G1 X105.625 Y150.000
G1 X105.625 Y150.000
G1 X105.625 Y150.000
G1 X105.625 Y150.000
G1 X105.625 Y150.000
G1 X105.625 Y150.000
G1 X105.625 Y150.000
G1 X105.625 Y150.000
G1 X105.625 Y150.000
G1 X105.625 Y150.000
G1 X105.625 Y150.000
G1 X105.625 Y150.000
G1 X105.625 Y150.000
G1 X105.625 Y150.000
G1 X105.625 Y150.000
G1 X105.625 Y150.000
G1 X105.625 Y150.000
G1 X105.625 Y150.000
G1 X105.625 Y150.000
G1 X105.625 Y150.000
G1 X105.625 Y150.000
G1 X105.625 Y150.000
G1 X105.625 Y150.000
G1 X105.625 Y150.000
G1 X105.625 Y150.000
G1 X105.625 Y150.000
G1 X105.625 Y150.000
G1 X105.625 Y150.000
G1 X105.625 Y150.000
G1 X105.625 Y150.000
G1 X105.625 Y150.000
G1 X105.625 Y150.000
G1 X105.625 Y150.000
G1 X105.625 Y150.000
G1 X105.625 Y150.000
G1 X105.625 Y150.000
G0 Z2.000 F3000

; --- CIKEL NAMAKANJA ---
G0 Z2.000 F3000
M400
M204 P600 T600
G1 F1300
G0 X57.582 Y0.000 Z8.000
G1 Z1.000 F3000
G1 X57.582 Y0.000 F2500
G1 X57.582 Y1.750 F2500
G1 X54.082 Y0.000 F2500
G1 X57.582 Y0.000 F2500
G0 Z3.000 F3000
G0 X64.555 Y19.213
G0 Z8.000 F3000
G0 X105.625 Y150.000 Z2.000
M400
M204 P200 T200
G1 F600
G1 Z0.000 F2500
G1 X105.625 Y150.000
G1 X105.625 Y150.000
G1 X105.625 Y150.000
G1 X105.625 Y150.000
G1 X105.625 Y150.000
G1 X105.625 Y150.000
G1 X105.625 Y150.000
G1 X105.625 Y150.000
G1 X105.625 Y150.000
G1 X105.625 Y150.000
G1 X105.625 Y150.000
G1 X105.625 Y150.000
G1 X105.625 Y150.000
G1 X105.625 Y150.000
G1 X105.625 Y150.000
G1 X105.625 Y150.000
G1 X105.625 Y150.000
G1 X105.625 Y150.000
G1 X105.625 Y150.000
G1 X105.625 Y150.000
G1 X105.625 Y150.000
G1 X105.625 Y150.000
G1 X105.625 Y150.000
G1 X105.625 Y150.000
G1 X105.625 Y150.000
G1 X105.625 Y150.000
G1 X105.625 Y150.000
G1 X105.625 Y150.000
G1 X105.625 Y150.000
G1 X105.625 Y150.000
G1 X105.625 Y150.000
G1 X105.625 Y150.000
G1 X105.625 Y150.000
G1 X105.625 Y150.000
G1 X105.625 Y150.000
G1 X105.625 Y150.000
G1 X105.625 Y150.000
G1 X105.625 Y150.000
G1 X105.625 Y150.000
G1 X105.625 Y150.000
G1 X105.625 Y150.000
G1 X105.625 Y150.000
G1 X105.625 Y150.000
G1 X105.625 Y150.000
G1 X105.625 Y150.000
G1 X105.625 Y150.000
G1 X105.625 Y149.750
G1 X105.625 Y149.500
G1 X105.625 Y149.250
G1 X105.625 Y149.000
G1 X105.625 Y148.750
G1 X105.625 Y148.500
G1 X105.625 Y148.250
G1 X105.625 Y148.000
G1 X105.625 Y147.750
G1 X105.625 Y147.500
G1 X105.625 Y147.250
G1 X105.625 Y147.000
G1 X105.625 Y146.750
G1 X105.625 Y146.500
G1 X105.625 Y146.250
G1 X105.625 Y146.000
G1 X105.625 Y145.750
G1 X105.625 Y145.500
G1 X105.625 Y145.250
G1 X105.625 Y145.000
G1 X105.625 Y144.750
G1 X105.500 Y144.625
G1 X105.375 Y144.500
G1 X105.375 Y144.250
G1 X105.375 Y144.000
G1 X105.375 Y143.750
G1 X105.375 Y143.500
G1 X105.375 Y143.250
G1 X105.375 Y143.000
G1 X105.375 Y142.750
G1 X105.375 Y142.500
G1 X105.375 Y142.250
G1 X105.375 Y142.000
G1 X105.375 Y141.750
G1 X105.375 Y141.500
G1 X105.375 Y141.250
G1 X105.375 Y141.000
G1 X105.375 Y140.750
G1 X105.375 Y140.500
G1 X105.375 Y140.250
G1 X105.375 Y140.000
G1 X105.375 Y139.750
G1 X105.375 Y139.500
G1 X105.375 Y139.250
G1 X105.375 Y139.000
G1 X105.375 Y138.750
G1 X105.375 Y138.500
G1 X105.375 Y138.250
G1 X105.375 Y138.000
G1 X105.375 Y137.750
G1 X105.375 Y137.500
G1 X105.375 Y137.250
G1 X105.375 Y137.000
G1 X105.375 Y136.750
G1 X105.375 Y136.500
G1 X105.375 Y136.250
G1 X105.375 Y136.000
G1 X105.375 Y135.750
G1 X105.375 Y135.500
G1 X105.375 Y135.250
G1 X105.375 Y135.000
G1 X105.375 Y134.750
G1 X105.375 Y134.500
G1 X105.375 Y134.250
G1 X105.375 Y134.000
G1 X105.375 Y133.750
G1 X105.375 Y133.500
G1 X105.375 Y133.250
G1 X105.375 Y133.000
G1 X105.375 Y132.750
G1 X105.375 Y132.500
G1 X105.375 Y132.250
G1 X105.375 Y132.000
G1 X105.375 Y131.750
G1 X105.375 Y131.500
G1 X105.375 Y131.250
G1 X105.375 Y131.000
G1 X105.375 Y130.750
G1 X105.375 Y130.500
G1 X105.375 Y130.250
G1 X105.375 Y130.000
G1 X105.375 Y129.750
G1 X105.375 Y129.500
G1 X105.375 Y129.250
G1 X105.375 Y129.000
G1 X105.375 Y128.750
G1 X105.375 Y128.500
G1 X105.375 Y128.250
G1 X105.375 Y128.000
G1 X105.375 Y127.750
G1 X105.375 Y127.500
G1 X105.375 Y127.250
G1 X105.375 Y127.000
G1 X105.375 Y126.750
G1 X105.375 Y126.500
G1 X105.375 Y126.250
G1 X105.375 Y126.000
G1 X105.375 Y125.750
G1 X105.375 Y125.500
G1 X105.375 Y125.250
G1 X105.375 Y125.000
G1 X105.375 Y124.750
G1 X105.375 Y124.500
G1 X105.375 Y124.250
G1 X105.375 Y124.000
G1 X105.375 Y123.750
G1 X105.375 Y123.500
G1 X105.375 Y123.250
G1 X105.375 Y123.000
G1 X105.375 Y122.750
G1 X105.375 Y122.500
G1 X105.375 Y122.250
G1 X105.375 Y122.000
G1 X105.375 Y121.750
G1 X105.375 Y121.500
G1 X105.375 Y121.250
G1 X105.375 Y121.000
G1 X105.375 Y120.750
G1 X105.375 Y120.500
G1 X105.375 Y120.250
G1 X105.375 Y120.000
G1 X105.250 Y119.875
G1 X105.000 Y119.875
G1 X104.750 Y119.875
G1 X104.500 Y119.875
G1 X104.250 Y119.875
G1 X104.000 Y119.875
G1 X103.750 Y119.875
G1 X103.500 Y119.875
G1 X103.250 Y119.875
G1 X103.000 Y119.875
G1 X102.750 Y119.875
G1 X102.500 Y119.875
G1 X102.250 Y119.875
G1 X102.000 Y119.875
G1 X101.750 Y119.875
G1 X101.500 Y119.875
G1 X101.250 Y119.875
G1 X101.000 Y119.875
G1 X100.750 Y119.875
G1 X100.500 Y119.875
G1 X100.250 Y119.875
G1 X100.000 Y119.875
G1 X99.750 Y119.875
G1 X99.500 Y119.875
G1 X99.250 Y119.875
G1 X99.000 Y119.875
G1 X98.750 Y119.875
G1 X98.500 Y119.875
G1 X98.250 Y119.875
G1 X98.000 Y119.875
G1 X97.750 Y119.875
G1 X97.500 Y119.875
G1 X97.250 Y119.875
G1 X97.000 Y119.875
G1 X96.750 Y119.875
G1 X96.500 Y119.875
G1 X96.250 Y119.875
G1 X96.000 Y119.875
G1 X95.750 Y119.875
G1 X95.500 Y119.875
G1 X95.250 Y119.875
G1 X95.000 Y119.875
G1 X94.750 Y119.875
G1 X94.500 Y119.875
G1 X94.250 Y119.875
G1 X94.000 Y119.875
G1 X93.750 Y119.875
G1 X93.500 Y119.875
G1 X93.250 Y119.875
G1 X93.000 Y119.875
G1 X92.750 Y119.875
G1 X92.500 Y119.875
G1 X92.250 Y119.875
G1 X92.000 Y119.875
G1 X91.750 Y119.875
G1 X91.500 Y119.875
G1 X91.250 Y119.875
G1 X91.000 Y119.875
G1 X90.750 Y119.875
G1 X90.500 Y119.875
G1 X90.250 Y119.875
G1 X90.000 Y119.875
G1 X89.750 Y119.875
G1 X89.500 Y119.875
G1 X89.250 Y119.875
G1 X89.000 Y119.875
G1 X88.750 Y119.875
G1 X88.500 Y119.875
G1 X88.250 Y119.875
G1 X88.000 Y119.875
G1 X87.750 Y119.875
G1 X87.500 Y119.875
G1 X87.250 Y119.875
G1 X87.000 Y119.875
G1 X86.750 Y119.875
G1 X86.500 Y119.875
G1 X86.250 Y119.875
G1 X86.000 Y119.875
G1 X85.750 Y119.875
G1 X85.500 Y119.875
G1 X85.250 Y119.875
G1 X85.000 Y119.875
G1 X84.750 Y119.875
G1 X84.500 Y119.875
G1 X84.250 Y119.875
G1 X84.000 Y119.875
G1 X83.750 Y119.875
G1 X83.500 Y119.875
G1 X83.250 Y119.875
G1 X83.000 Y119.875
G1 X82.750 Y119.875
G1 X82.500 Y119.875
G1 X82.250 Y119.875
G1 X82.000 Y119.875
G1 X81.750 Y119.875
G1 X81.500 Y119.875
G1 X81.250 Y119.875
G1 X81.000 Y119.875
G1 X80.750 Y119.875
G1 X80.500 Y119.875
G1 X80.375 Y119.750
G1 X80.250 Y119.625
G1 X80.000 Y119.625
G1 X79.750 Y119.625
G1 X79.500 Y119.625
G1 X79.250 Y119.625
G1 X79.000 Y119.625
G1 X78.750 Y119.625
G1 X78.500 Y119.625
G1 X78.250 Y119.625
G1 X78.000 Y119.625
G1 X77.750 Y119.625
G1 X77.500 Y119.625
G1 X77.250 Y119.625
G1 X77.000 Y119.625
G1 X76.750 Y119.625
G1 X76.500 Y119.625
G1 X76.250 Y119.625
G1 X76.000 Y119.625
G1 X75.750 Y119.625
G1 X75.500 Y119.625
G1 X75.250 Y119.625
G1 X75.000 Y119.625
G1 X74.750 Y119.625
G1 X74.500 Y119.625
G1 X74.250 Y119.625
G1 X74.000 Y119.625
G1 X73.750 Y119.625
G1 X73.500 Y119.625
G1 X73.250 Y119.625
G1 X73.000 Y119.625
G1 X72.750 Y119.625
G1 X72.500 Y119.625
G1 X72.250 Y119.625
G1 X72.000 Y119.625
G1 X71.750 Y119.625
G1 X71.500 Y119.625
G1 X71.250 Y119.625
G1 X71.000 Y119.625
G1 X70.750 Y119.625
G1 X70.500 Y119.625
G1 X70.250 Y119.625
G1 X70.000 Y119.625
G1 X69.750 Y119.625
G1 X69.500 Y119.625
G1 X69.250 Y119.625
G1 X69.000 Y119.625
G1 X68.750 Y119.625
G1 X68.500 Y119.625
G1 X68.250 Y119.625
G1 X68.000 Y119.625
G1 X67.750 Y119.625
G1 X67.500 Y119.625
G1 X67.250 Y119.625
G1 X67.000 Y119.625
G1 X66.750 Y119.625
G1 X66.500 Y119.625
G1 X66.250 Y119.625
G1 X66.000 Y119.625
G1 X65.750 Y119.625
G1 X65.500 Y119.625
G1 X65.250 Y119.625
G0 Z2.000 F3000

; --- CIKEL NAMAKANJA ---
G0 Z2.000 F3000
M400
M204 P600 T600
G1 F1300
G0 X55.524 Y0.000 Z8.000
G1 Z1.000 F3000
G1 X55.524 Y0.000 F2500
G1 X55.524 Y1.750 F2500
G1 X52.024 Y0.000 F2500
G1 X55.524 Y0.000 F2500
G0 Z3.000 F3000
G0 X60.002 Y19.975
G0 Z8.000 F3000
G0 X65.000 Y119.625 Z2.000
M400
M204 P200 T200
G1 F600
G1 Z0.000 F2500
G1 X65.000 Y119.625
G1 X64.750 Y119.625
G1 X64.500 Y119.625
G1 X64.250 Y119.625
G1 X64.000 Y119.625
G1 X63.750 Y119.625
G1 X63.500 Y119.625
G1 X63.250 Y119.625
G1 X63.000 Y119.625
G1 X62.750 Y119.625
G1 X62.500 Y119.625
G1 X62.250 Y119.625
G1 X62.000 Y119.625
G1 X61.750 Y119.625
G1 X61.500 Y119.625
G1 X61.250 Y119.625
G1 X61.000 Y119.625
G1 X60.750 Y119.625
G1 X60.500 Y119.625
G1 X60.250 Y119.625
G1 X60.000 Y119.625
G1 X59.750 Y119.625
G1 X59.500 Y119.625
G1 X59.250 Y119.625
G1 X59.000 Y119.625
G1 X58.750 Y119.625
G1 X58.500 Y119.625
G1 X58.250 Y119.625
G1 X58.000 Y119.625
G1 X57.750 Y119.625
G1 X57.500 Y119.625
G1 X57.250 Y119.625
G1 X57.000 Y119.625
G1 X56.750 Y119.625
G1 X56.500 Y119.625
G1 X56.250 Y119.625
G1 X56.000 Y119.625
G1 X55.750 Y119.625
G1 X55.500 Y119.625
G1 X55.250 Y119.625
G1 X55.000 Y119.625
G1 X54.750 Y119.625
G1 X54.500 Y119.625
G1 X54.250 Y119.625
G1 X54.000 Y119.625
G1 X53.750 Y119.625
G1 X53.500 Y119.625
G1 X53.250 Y119.625
G1 X53.000 Y119.625
G1 X52.750 Y119.625
G1 X52.500 Y119.625
G1 X52.250 Y119.625
G1 X52.125 Y119.750
G1 X52.125 Y120.000
G1 X52.125 Y120.250
G1 X52.125 Y120.500
G1 X52.125 Y120.750
G1 X52.125 Y121.000
G1 X52.125 Y121.250
G1 X52.125 Y121.500
G1 X52.125 Y121.750
G1 X52.125 Y122.000
G1 X52.125 Y122.250
G1 X52.125 Y122.500
G1 X52.125 Y122.750
G1 X52.125 Y123.000
G1 X52.125 Y123.250
G1 X52.125 Y123.500
G1 X52.125 Y123.750
G1 X52.125 Y124.000
G1 X52.125 Y124.250
G1 X52.125 Y124.500
G1 X52.125 Y124.750
G1 X52.125 Y125.000
G1 X52.125 Y125.250
G1 X52.125 Y125.500
G1 X52.125 Y125.750
G1 X52.125 Y126.000
G1 X52.125 Y126.250
G1 X52.125 Y126.500
G1 X52.125 Y126.750
G1 X52.125 Y127.000
G1 X52.125 Y127.250
G1 X52.125 Y127.500
G1 X52.125 Y127.750
G1 X52.125 Y128.000
G1 X52.125 Y128.250
G1 X52.125 Y128.500
G1 X52.125 Y128.750
G1 X52.125 Y129.000
G1 X52.125 Y129.250
G1 X52.125 Y129.500
G1 X52.125 Y129.750
G1 X52.125 Y130.000
G1 X52.125 Y130.250
G1 X52.125 Y130.500
G1 X52.125 Y130.750
G1 X52.125 Y131.000
G1 X52.125 Y131.250
G1 X52.125 Y131.500
G1 X52.125 Y131.750
G1 X52.125 Y132.000
G1 X52.125 Y132.250
G1 X52.125 Y132.500
G1 X52.125 Y132.750
G1 X52.125 Y133.000
G1 X52.125 Y133.250
G1 X52.125 Y133.500
G1 X52.125 Y133.750
G1 X52.125 Y134.000
G1 X52.125 Y134.250
G1 X52.125 Y134.500
G1 X52.125 Y134.750
G1 X52.125 Y135.000
G1 X52.125 Y135.250
G1 X52.125 Y135.500
G1 X52.125 Y135.750
G1 X52.125 Y136.000
G1 X52.125 Y136.250
G1 X52.125 Y136.500
G1 X52.125 Y136.750
G1 X52.125 Y137.000
G1 X52.125 Y137.250
G1 X52.125 Y137.500
G1 X52.125 Y137.750
G1 X52.125 Y138.000
G1 X52.125 Y138.250
G1 X52.125 Y138.500
G1 X52.125 Y138.750
G1 X52.125 Y139.000
G1 X52.125 Y139.250
G1 X52.125 Y139.500
G1 X52.125 Y139.750
G1 X52.125 Y140.000
G1 X52.125 Y140.250
G1 X52.125 Y140.500
G1 X52.125 Y140.750
G1 X52.125 Y141.000
G1 X52.125 Y141.250
G1 X52.125 Y141.500
G1 X52.125 Y141.750
G1 X52.125 Y142.000
G1 X52.125 Y142.250
G1 X52.125 Y142.500
G1 X52.125 Y142.750
G1 X52.125 Y143.000
G1 X52.125 Y143.250
G1 X52.125 Y143.500
G1 X52.125 Y143.750
G1 X52.125 Y144.000
G1 X52.125 Y144.250
G1 X52.125 Y144.500
G1 X52.125 Y144.750
G1 X52.125 Y145.000
G1 X52.125 Y145.250
G1 X52.125 Y145.500
G1 X52.125 Y145.750
G1 X52.125 Y146.000
G1 X52.125 Y146.250
G1 X52.125 Y146.500
G1 X52.125 Y146.750
G1 X52.125 Y147.000
G1 X52.125 Y147.250
G1 X52.125 Y147.500
G1 X52.125 Y147.750
G1 X52.125 Y148.000
G1 X52.125 Y148.250
G1 X52.125 Y148.500
G1 X52.125 Y148.750
G1 X52.125 Y149.000
G1 X52.125 Y149.250
G1 X52.125 Y149.500
G1 X52.125 Y149.750
G1 X52.125 Y150.000
G1 X52.125 Y150.000
G1 X52.125 Y150.000
G1 X52.125 Y150.000
G1 X52.125 Y150.000
G1 X52.125 Y150.000
G1 X52.125 Y150.000
G1 X52.125 Y150.000
G1 X52.125 Y150.000
G1 X52.125 Y150.000
G1 X52.125 Y150.000
G1 X52.125 Y150.000
G1 X52.125 Y150.000
G1 X52.125 Y150.000
G1 X52.125 Y150.000
G1 X52.125 Y150.000
G1 X52.125 Y150.000
G1 X52.125 Y150.000
G1 X52.125 Y150.000
G1 X52.125 Y150.000
G1 X52.125 Y150.000
G1 X52.125 Y150.000
G1 X52.125 Y150.000
G1 X52.125 Y150.000
G1 X52.125 Y150.000
G1 X52.125 Y150.000
G1 X52.125 Y150.000
G1 X52.125 Y150.000
G1 X52.125 Y150.000
G1 X52.125 Y150.000
G1 X52.125 Y150.000
G1 X52.125 Y150.000
G1 X52.125 Y150.000
G1 X52.125 Y150.000
G1 X52.125 Y150.000
G1 X52.125 Y150.000
G1 X52.125 Y150.000
G1 X52.125 Y150.000
G1 X52.125 Y150.000
G1 X52.125 Y150.000
G1 X52.125 Y150.000
G1 X52.125 Y150.000
G1 X52.125 Y150.000
G1 X52.125 Y150.000
G1 X52.125 Y150.000
G1 X52.125 Y150.000
G1 X52.125 Y150.000
G1 X52.125 Y150.000
G1 X52.125 Y150.000
G1 X52.125 Y150.000
G1 X52.125 Y150.000
G1 X52.125 Y150.000
G1 X52.125 Y150.000
G1 X52.125 Y150.000
G1 X52.125 Y150.000
G1 X52.125 Y150.000
G1 X52.125 Y150.000
G1 X52.125 Y150.000
G1 X52.125 Y150.000
G1 X52.125 Y150.000
G1 X52.125 Y150.000
G1 X52.125 Y150.000
G1 X52.125 Y150.000
G1 X52.125 Y150.000
G1 X52.125 Y150.000
G1 X52.125 Y150.000
G1 X52.125 Y150.000
G1 X52.125 Y150.000
G1 X52.125 Y150.000
G1 X52.125 Y150.000
G1 X52.125 Y150.000
G1 X52.125 Y150.000
G1 X52.125 Y150.000
G1 X52.125 Y150.000
G1 X52.125 Y150.000
G1 X52.125 Y150.000
G1 X52.125 Y150.000
G1 X52.125 Y150.000
G1 X52.125 Y150.000
G1 X52.125 Y150.000
G1 X52.125 Y150.000
G1 X52.125 Y150.000
G1 X52.125 Y150.000
G1 X52.125 Y150.000
G1 X52.125 Y150.000
G1 X52.125 Y150.000
G1 X52.125 Y150.000
G1 X52.125 Y150.000
G1 X52.125 Y150.000
G1 X52.125 Y150.000
G1 X52.125 Y150.000
G1 X52.125 Y150.000
G1 X52.125 Y150.000
G0 Z2.000 F3000

M400
G0 Z8.000 F3000
M2