G90
G21
; === MULTI-COLOR PAINTER GCODE ===
; Generated layers: 1
; Backlash compensation: OFF
; Working area clamping: ON  X[0–150] Y[0–150]
; Tutti Frutti mode: OFF


; ═══════════════════════════════
; LAYER 1: Color 1 — Red
; Infill: lines
; ═══════════════════════════════


; --- CIKEL NAMAKANJA ---
G0 Z1.600 F3000
M400
M204 P600 T600
G1 F1500
G0 X13.560 Y0.020 Z10.000
G1 Z0.000 F3000
G1 X13.560 Y0.020 F2500
G1 X13.560 Y2.520 F2500
G1 X8.560 Y0.020 F2500
G1 X13.560 Y0.000 F2500
G0 Z5.000 F3000
G0 X7.806 Y14.292
G0 Z10.000 F3000
G0 X0.000 Y29.800 Z1.600
M400
M204 P600 T600
G1 F1500
G0 X0.000 Y29.800 Z1.600
M400
M204 P200 T200
G1 F600
G1 Z0.000 F2500
G1 X0.100 Y29.800
G1 X0.200 Y29.800
G1 X0.300 Y29.800
G1 X0.400 Y29.800
G1 X0.500 Y29.800
G1 X0.600 Y29.800
G1 X0.700 Y29.800
G1 X0.800 Y29.800
G1 X0.900 Y29.800
G1 X1.000 Y29.800
G1 X1.100 Y29.800
G1 X1.200 Y29.800
G1 X1.300 Y29.800
G1 X1.400 Y29.800
G1 X1.500 Y29.800
G1 X1.600 Y29.800
G1 X1.700 Y29.800
G1 X1.800 Y29.800
G1 X1.900 Y29.800
G1 X2.000 Y29.800
G1 X2.100 Y29.800
G1 X2.200 Y29.800
G1 X2.300 Y29.800
G1 X2.400 Y29.800
G1 X2.500 Y29.800
G1 X2.600 Y29.800
G1 X2.700 Y29.800
G1 X2.800 Y29.800
G1 X2.900 Y29.800
G1 X3.000 Y29.800
G1 X3.100 Y29.800
G1 X3.200 Y29.800
G1 X3.300 Y29.800
G1 X3.400 Y29.800
G1 X3.500 Y29.800
G1 X3.600 Y29.800
G1 X3.700 Y29.800
G1 X3.800 Y29.800
G1 X3.900 Y29.800
G1 X4.000 Y29.800
G1 X4.100 Y29.800
G1 X4.200 Y29.800
G1 X4.300 Y29.800
G1 X4.400 Y29.800
G1 X4.500 Y29.800
G1 X4.600 Y29.800
G1 X4.700 Y29.800
G1 X4.800 Y29.800
G1 X4.900 Y29.800
G1 X5.000 Y29.800
G1 X5.100 Y29.800
G1 X5.200 Y29.800
G1 X5.300 Y29.800
G1 X5.400 Y29.800
G1 X5.500 Y29.800
G1 X5.600 Y29.800
G1 X5.700 Y29.800
G1 X5.800 Y29.800
G1 X5.900 Y29.800
G1 X6.000 Y29.800
G1 X6.100 Y29.800
G1 X6.200 Y29.800
G1 X6.300 Y29.800
G1 X6.400 Y29.800
G1 X6.500 Y29.800
G1 X6.600 Y29.800
G1 X6.700 Y29.800
G1 X6.800 Y29.800
G1 X6.900 Y29.800
G1 X7.000 Y29.800
G1 X7.100 Y29.800
G1 X7.200 Y29.800
G1 X7.300 Y29.800
G1 X7.400 Y29.800
G1 X7.500 Y29.800
G1 X7.600 Y29.800
G1 X7.700 Y29.800
G1 X7.800 Y29.800
G1 X7.900 Y29.800
G1 X8.000 Y29.800
G1 X8.100 Y29.800
G1 X8.200 Y29.800
G1 X8.300 Y29.800
G1 X8.400 Y29.800
G1 X8.500 Y29.800
G1 X8.600 Y29.800
G1 X8.700 Y29.800
G1 X8.800 Y29.800
G1 X8.900 Y29.800
G1 X9.000 Y29.800
G1 X9.100 Y29.800
G1 X9.200 Y29.800
G1 X9.300 Y29.800
G1 X9.400 Y29.800
G1 X9.500 Y29.800
G1 X9.600 Y29.800
G1 X9.700 Y29.800
G1 X9.800 Y29.800
G1 X9.900 Y29.800
G1 X10.000 Y29.800
G1 X10.100 Y29.800
G1 X10.200 Y29.800
G1 X10.300 Y29.800
G1 X10.400 Y29.800
G1 X10.500 Y29.800
G1 X10.600 Y29.800
G1 X10.700 Y29.800
G1 X10.800 Y29.800
G1 X10.900 Y29.800
G1 X11.000 Y29.800
G1 X11.100 Y29.800
G1 X11.200 Y29.800
G1 X11.300 Y29.800
G1 X11.400 Y29.800
G1 X11.500 Y29.800
G1 X11.600 Y29.800
G1 X11.700 Y29.800
G1 X11.800 Y29.800
G1 X11.900 Y29.800
G1 X12.000 Y29.800
G1 X12.100 Y29.800
G1 X12.200 Y29.800
G1 X12.300 Y29.800
G1 X12.400 Y29.800
G1 X12.500 Y29.800
G1 X12.600 Y29.800
G1 X12.700 Y29.800
G1 X12.800 Y29.800
G1 X12.900 Y29.800
G1 X13.000 Y29.800
G1 X13.100 Y29.800
G1 X13.200 Y29.800
G1 X13.300 Y29.800
G1 X13.400 Y29.800
G1 X13.500 Y29.800
G1 X13.600 Y29.800
G1 X13.700 Y29.800
G1 X13.800 Y29.800
G1 X13.900 Y29.800
G1 X14.000 Y29.800
G1 X14.100 Y29.800
G1 X14.200 Y29.800
G1 X14.300 Y29.800
G1 X14.400 Y29.800
G1 X14.500 Y29.800
G1 X14.600 Y29.800
G1 X14.700 Y29.800
G1 X14.800 Y29.800
G1 X14.900 Y29.800
G1 X15.000 Y29.800
G1 X15.100 Y29.800
G1 X15.200 Y29.800
G1 X15.300 Y29.800
G1 X15.400 Y29.800
G1 X15.500 Y29.800
G1 X15.600 Y29.800
G1 X15.700 Y29.800
G1 X15.800 Y29.800
G1 X15.900 Y29.800
G1 X16.000 Y29.800
G1 X16.100 Y29.800
G1 X16.200 Y29.800
G1 X16.300 Y29.800
G1 X16.400 Y29.800
G1 X16.500 Y29.800
G1 X16.600 Y29.800
G1 X16.700 Y29.800
G1 X16.800 Y29.800
G1 X16.900 Y29.800
G1 X17.000 Y29.800
G1 X17.100 Y29.800
G1 X17.200 Y29.800
G1 X17.300 Y29.800
G1 X17.400 Y29.800
G1 X17.500 Y29.800
G1 X17.600 Y29.800
G1 X17.700 Y29.800
G1 X17.800 Y29.800
G1 X17.900 Y29.800
G1 X18.000 Y29.800
G1 X18.100 Y29.800
G1 X18.200 Y29.800
G1 X18.300 Y29.800
G1 X18.400 Y29.800
G1 X18.500 Y29.800
G1 X18.600 Y29.800
G1 X18.700 Y29.800
G1 X18.800 Y29.800
G1 X18.900 Y29.800
G1 X19.000 Y29.800
G1 X19.100 Y29.800
G1 X19.200 Y29.800
G1 X19.300 Y29.800
G1 X19.400 Y29.800
G1 X19.500 Y29.800
G1 X19.600 Y29.800
G1 X19.700 Y29.800
G1 X19.800 Y29.800
G1 X19.900 Y29.800
G1 X20.000 Y29.800
G1 X20.100 Y29.800
G1 X20.200 Y29.800
G1 X20.300 Y29.800
G1 X20.400 Y29.800
G1 X20.500 Y29.800
G1 X20.600 Y29.800
G1 X20.700 Y29.800
G1 X20.800 Y29.800
G1 X20.900 Y29.800
G1 X21.000 Y29.800
G1 X21.100 Y29.800
G1 X21.200 Y29.800
G1 X21.300 Y29.800
G1 X21.400 Y29.800
G1 X21.500 Y29.800
G1 X21.600 Y29.800
G1 X21.700 Y29.800
G1 X21.800 Y29.800
G1 X21.900 Y29.800
G1 X22.000 Y29.800
G1 X22.100 Y29.800
G1 X22.200 Y29.800
G1 X22.300 Y29.800
G1 X22.400 Y29.800
G1 X22.500 Y29.800
G1 X22.600 Y29.800
G1 X22.700 Y29.800
G1 X22.800 Y29.800
G1 X22.900 Y29.800
G1 X23.000 Y29.800
G1 X23.100 Y29.800
G1 X23.200 Y29.800
G1 X23.300 Y29.800
G1 X23.400 Y29.800
G1 X23.500 Y29.800
G1 X23.600 Y29.800
G1 X23.700 Y29.800
G1 X23.800 Y29.800
G1 X23.900 Y29.800
G1 X24.000 Y29.800
G1 X24.100 Y29.800
G1 X24.200 Y29.800
G1 X24.300 Y29.800
G1 X24.400 Y29.800
G1 X24.500 Y29.800
G1 X24.600 Y29.800
G1 X24.700 Y29.800
G1 X24.800 Y29.800
G1 X24.900 Y29.800
G1 X25.000 Y29.800
G1 X25.100 Y29.800
G1 X25.200 Y29.800
G1 X25.300 Y29.800
G1 X25.400 Y29.800
G1 X25.500 Y29.800
G1 X25.600 Y29.800
G1 X25.700 Y29.800
G1 X25.800 Y29.800
G1 X25.900 Y29.800
G1 X26.000 Y29.800
G1 X26.100 Y29.800
G1 X26.200 Y29.800
G1 X26.300 Y29.800
G1 X26.400 Y29.800
G1 X26.500 Y29.800
G1 X26.600 Y29.800
G1 X26.700 Y29.800
G1 X26.800 Y29.800
G1 X26.900 Y29.800
G1 X27.000 Y29.800
G1 X27.100 Y29.800
G1 X27.200 Y29.800
G1 X27.300 Y29.800
G1 X27.400 Y29.800
G1 X27.500 Y29.800
G1 X27.600 Y29.800
G1 X27.700 Y29.800
G1 X27.800 Y29.800
G1 X27.900 Y29.800
G1 X28.000 Y29.800
G1 X28.100 Y29.800
G1 X28.200 Y29.800
G1 X28.300 Y29.800
G1 X28.400 Y29.800
G1 X28.500 Y29.800
G1 X28.600 Y29.800
G1 X28.700 Y29.800
G1 X28.800 Y29.800
G1 X28.900 Y29.800
G1 X29.000 Y29.800
G1 X29.100 Y29.800
G1 X29.200 Y29.800
G1 X29.300 Y29.800
G1 X29.400 Y29.800
G1 X29.500 Y29.800
G1 X29.600 Y29.800
G1 X29.700 Y29.800
G1 X29.800 Y29.800
G1 X29.900 Y29.800
G1 X30.000 Y29.800
G1 X30.100 Y29.800
G1 X30.200 Y29.800
G1 X30.300 Y29.800
G1 X30.400 Y29.800
G1 X30.500 Y29.800
G1 X30.600 Y29.800
G1 X30.700 Y29.800
G1 X30.800 Y29.800
G1 X30.900 Y29.800
G1 X31.000 Y29.800
G1 X31.100 Y29.800
G1 X31.200 Y29.800
G1 X31.300 Y29.800
G1 X31.400 Y29.800
G1 X31.500 Y29.800
G1 X31.600 Y29.800
G1 X31.700 Y29.800
G1 X31.800 Y29.800
G1 X31.900 Y29.800
G1 X32.000 Y29.800
G1 X32.100 Y29.800
G1 X32.200 Y29.800
G1 X32.300 Y29.800
G1 X32.400 Y29.800
G1 X32.500 Y29.800
G1 X32.600 Y29.800
G1 X32.700 Y29.800
G1 X32.800 Y29.800
G1 X32.900 Y29.800
G1 X33.000 Y29.800
G1 X33.100 Y29.800
G1 X33.200 Y29.800
G1 X33.300 Y29.800
G1 X33.400 Y29.800
G1 X33.500 Y29.800
G1 X33.600 Y29.800
G1 X33.700 Y29.800
G1 X33.800 Y29.800
G1 X33.900 Y29.800
G1 X34.000 Y29.800
G1 X34.100 Y29.800
G1 X34.200 Y29.800
G1 X34.300 Y29.800
G1 X34.400 Y29.800
G1 X34.500 Y29.800
G1 X34.600 Y29.800
G1 X34.700 Y29.800
G1 X34.800 Y29.800
G1 X34.900 Y29.800
G1 X35.000 Y29.800
G1 X35.100 Y29.800
G1 X35.200 Y29.800
G1 X35.300 Y29.800
G1 X35.400 Y29.800
G1 X35.500 Y29.800
G1 X35.600 Y29.800
G1 X35.700 Y29.800
G1 X35.800 Y29.800
G1 X35.900 Y29.800
G1 X36.000 Y29.800
G1 X36.100 Y29.800
G1 X36.200 Y29.800
G1 X36.300 Y29.800
G1 X36.400 Y29.800
G1 X36.500 Y29.800
G1 X36.600 Y29.800
G1 X36.700 Y29.800
G1 X36.800 Y29.800
G1 X36.900 Y29.800
G1 X37.000 Y29.800
G1 X37.100 Y29.800
G1 X37.200 Y29.800
G1 X37.300 Y29.800
G1 X37.400 Y29.800
G1 X37.500 Y29.800
G1 X37.600 Y29.800
G1 X37.700 Y29.800
G1 X37.800 Y29.800
G1 X37.900 Y29.800
G1 X38.000 Y29.800
G1 X38.100 Y29.800
G1 X38.200 Y29.800
G1 X38.300 Y29.800
G1 X38.400 Y29.800
G1 X38.500 Y29.800
G1 X38.600 Y29.800
G1 X38.700 Y29.800
G1 X38.800 Y29.800
G1 X38.900 Y29.800
G1 X39.000 Y29.800
G1 X39.100 Y29.800
G1 X39.200 Y29.800
G1 X39.300 Y29.800
G1 X39.400 Y29.800
G1 X39.500 Y29.800
G1 X39.600 Y29.800
G1 X39.700 Y29.800
G1 X39.800 Y29.800
G1 X39.900 Y29.800
G1 X40.000 Y29.800
G1 X40.100 Y29.800
G1 X40.200 Y29.800
G1 X40.300 Y29.800
G1 X40.400 Y29.800
G1 X40.500 Y29.800
G1 X40.600 Y29.800
G1 X40.700 Y29.800
G1 X40.800 Y29.800
G1 X40.900 Y29.800
G1 X41.000 Y29.800
G1 X41.100 Y29.800
G1 X41.200 Y29.800
G1 X41.300 Y29.800
G1 X41.400 Y29.800
G1 X41.500 Y29.800
G1 X41.600 Y29.800
G1 X41.700 Y29.800
G1 X41.800 Y29.800
G1 X41.900 Y29.800
G1 X42.000 Y29.800
G1 X42.100 Y29.800
G1 X42.200 Y29.800
G1 X42.300 Y29.800
G1 X42.400 Y29.800
G1 X42.500 Y29.800
G1 X42.600 Y29.800
G1 X42.700 Y29.800
G1 X42.800 Y29.800
G1 X42.900 Y29.800
G1 X43.000 Y29.800
G1 X43.100 Y29.800
G1 X43.200 Y29.800
G1 X43.300 Y29.800
G1 X43.400 Y29.800
G1 X43.500 Y29.800
G1 X43.600 Y29.800
G1 X43.700 Y29.800
G1 X43.800 Y29.800
G1 X43.900 Y29.800
G1 X44.000 Y29.800
G1 X44.100 Y29.800
G1 X44.200 Y29.800
G1 X44.300 Y29.800
G1 X44.400 Y29.800
G1 X44.500 Y29.800
G1 X44.600 Y29.800
G1 X44.700 Y29.800
G1 X44.800 Y29.800
G1 X44.900 Y29.800
G1 X45.000 Y29.800
G1 X45.100 Y29.800
G1 X45.200 Y29.800
G1 X45.300 Y29.800
G1 X45.400 Y29.800
G1 X45.500 Y29.800
G1 X45.600 Y29.800
G1 X45.700 Y29.800
G1 X45.800 Y29.800
G1 X45.900 Y29.800
G1 X46.000 Y29.800
G1 X46.100 Y29.800
G1 X46.200 Y29.800
G1 X46.300 Y29.800
G1 X46.400 Y29.800
G1 X46.500 Y29.800
G1 X46.600 Y29.800
G1 X46.700 Y29.800
G1 X46.800 Y29.800
G1 X46.900 Y29.800
G1 X47.000 Y29.800
G1 X47.100 Y29.800
G1 X47.200 Y29.800
G1 X47.300 Y29.800
G1 X47.400 Y29.800
G1 X47.500 Y29.800
G1 X47.600 Y29.800
G1 X47.700 Y29.800
G1 X47.800 Y29.800
G1 X47.900 Y29.800
G1 X48.000 Y29.800
G1 X48.100 Y29.800
G1 X48.200 Y29.800
G1 X48.300 Y29.800
G1 X48.400 Y29.800
G1 X48.500 Y29.800
G1 X48.600 Y29.800
G1 X48.700 Y29.800
G1 X48.800 Y29.800
G1 X48.900 Y29.800
G1 X49.000 Y29.800
G1 X49.100 Y29.800
G1 X49.200 Y29.800
G1 X49.300 Y29.800
G1 X49.400 Y29.800
G1 X49.500 Y29.800
G1 X49.600 Y29.800
G1 X49.700 Y29.800
G1 X49.800 Y29.800
G1 X49.900 Y29.800
G1 X50.000 Y29.800
G1 X50.100 Y29.800
G1 X50.200 Y29.800
G1 X50.300 Y29.800
G1 X50.400 Y29.800
G1 X50.500 Y29.800
G1 X50.600 Y29.800
G1 X50.700 Y29.800
G1 X50.800 Y29.800
G1 X50.900 Y29.800
G1 X51.000 Y29.800
G1 X51.100 Y29.800
G1 X51.200 Y29.800
G1 X51.300 Y29.800
G1 X51.400 Y29.800
G1 X51.500 Y29.800
G1 X51.600 Y29.800
G1 X51.700 Y29.800
G1 X51.800 Y29.800
G1 X51.900 Y29.800
G1 X52.000 Y29.800
G1 X52.100 Y29.800
G1 X52.200 Y29.800
G1 X52.300 Y29.800
G1 X52.400 Y29.800
G1 X52.500 Y29.800
G1 X52.600 Y29.800
G1 X52.700 Y29.800
G1 X52.800 Y29.800
G1 X52.900 Y29.800
G1 X53.000 Y29.800
G1 X53.100 Y29.800
G1 X53.200 Y29.800
G1 X53.300 Y29.800
G1 X53.400 Y29.800
G1 X53.500 Y29.800
G1 X53.600 Y29.800
G1 X53.700 Y29.800
G1 X53.800 Y29.800
G1 X53.900 Y29.800
G1 X54.000 Y29.800
G1 X54.100 Y29.800
G1 X54.200 Y29.800
G1 X54.300 Y29.800
G1 X54.400 Y29.800
G1 X54.500 Y29.800
G1 X54.600 Y29.800
G1 X54.700 Y29.800
G1 X54.800 Y29.800
G1 X54.900 Y29.800
G1 X55.000 Y29.800
G1 X55.100 Y29.800
G1 X55.200 Y29.800
G1 X55.300 Y29.800
G1 X55.400 Y29.800
G1 X55.500 Y29.800
G1 X55.600 Y29.800
G1 X55.700 Y29.800
G1 X55.800 Y29.800
G1 X55.900 Y29.800
G1 X56.000 Y29.800
G1 X56.100 Y29.800
G1 X56.200 Y29.800
G1 X56.300 Y29.800
G1 X56.400 Y29.800
G1 X56.500 Y29.800
G1 X56.600 Y29.800
G1 X56.700 Y29.800
G1 X56.800 Y29.800
G1 X56.900 Y29.800
G1 X57.000 Y29.800
G1 X57.100 Y29.800
G1 X57.200 Y29.800
G1 X57.300 Y29.800
G1 X57.400 Y29.800
G1 X57.500 Y29.800
G1 X57.600 Y29.800
G1 X57.700 Y29.800
G1 X57.800 Y29.800
G1 X57.900 Y29.800
G1 X58.000 Y29.800
G1 X58.100 Y29.800
G1 X58.200 Y29.800
G1 X58.300 Y29.800
G1 X58.400 Y29.800
G1 X58.500 Y29.800
G1 X58.600 Y29.800
G1 X58.700 Y29.800
G1 X58.800 Y29.800
G1 X58.900 Y29.800
G1 X59.000 Y29.800
G1 X59.100 Y29.800
G1 X59.200 Y29.800
G1 X59.300 Y29.800
G1 X59.400 Y29.800
G1 X59.500 Y29.800
G1 X59.600 Y29.800
G1 X59.700 Y29.800
G1 X59.800 Y29.800
G1 X59.900 Y29.800
G1 X60.000 Y29.800
G1 X60.100 Y29.800
G1 X60.200 Y29.800
G1 X60.300 Y29.800
G1 X60.400 Y29.800
G1 X60.500 Y29.800
G1 X60.600 Y29.800
G1 X60.700 Y29.800
G1 X60.800 Y29.800
G1 X60.900 Y29.800
G1 X61.000 Y29.800
G1 X61.100 Y29.800
G1 X61.200 Y29.800
G1 X61.300 Y29.800
G1 X61.400 Y29.800
G1 X61.500 Y29.800
G1 X61.600 Y29.800
G1 X61.700 Y29.800
G1 X61.800 Y29.800
G1 X61.900 Y29.800
G1 X62.000 Y29.800
G1 X62.100 Y29.800
G1 X62.200 Y29.800
G1 X62.300 Y29.800
G1 X62.400 Y29.800
G1 X62.500 Y29.800
G1 X62.600 Y29.800
G1 X62.700 Y29.800
G1 X62.800 Y29.800
G1 X62.900 Y29.800
G1 X63.000 Y29.800
G1 X63.100 Y29.800
G1 X63.200 Y29.800
G1 X63.300 Y29.800
G1 X63.400 Y29.800
G1 X63.500 Y29.800
G1 X63.600 Y29.800
G1 X63.700 Y29.800
G1 X63.800 Y29.800
G1 X63.900 Y29.800
G1 X64.000 Y29.800
G1 X64.100 Y29.800
G1 X64.200 Y29.800
G1 X64.300 Y29.800
G1 X64.400 Y29.800
G1 X64.500 Y29.800
G1 X64.600 Y29.800
G1 X64.700 Y29.800
G1 X64.800 Y29.800
G1 X64.900 Y29.800
G1 X65.000 Y29.800
G1 X65.100 Y29.800
G1 X65.200 Y29.800
G1 X65.300 Y29.800
G1 X65.400 Y29.800
G1 X65.500 Y29.800
G1 X65.600 Y29.800
G1 X65.700 Y29.800
G1 X65.800 Y29.800
G1 X65.900 Y29.800
G1 X66.000 Y29.800
G1 X66.100 Y29.800
G1 X66.200 Y29.800
G1 X66.300 Y29.800
G1 X66.400 Y29.800
G1 X66.500 Y29.800
G1 X66.600 Y29.800
G1 X66.700 Y29.800
G1 X66.800 Y29.800
G1 X66.900 Y29.800
G1 X67.000 Y29.800
G1 X67.100 Y29.800
G1 X67.200 Y29.800
G1 X67.300 Y29.800
G1 X67.400 Y29.800
G1 X67.500 Y29.800
G1 X67.600 Y29.800
G1 X67.700 Y29.800
G1 X67.800 Y29.800
G1 X67.900 Y29.800
G1 X68.000 Y29.800
G1 X68.100 Y29.800
G1 X68.200 Y29.800
G1 X68.300 Y29.800
G1 X68.400 Y29.800
G1 X68.500 Y29.800
G1 X68.600 Y29.800
G1 X68.700 Y29.800
G1 X68.800 Y29.800
G1 X68.900 Y29.800
G1 X69.000 Y29.800
G1 X69.100 Y29.800
G1 X69.200 Y29.800
G1 X69.300 Y29.800
G1 X69.400 Y29.800
G1 X69.500 Y29.800
G1 X69.600 Y29.800
G1 X69.700 Y29.800
G1 X69.800 Y29.800
G1 X69.900 Y29.800
G1 X70.000 Y29.800
G1 X70.100 Y29.800
G1 X70.200 Y29.800
G1 X70.300 Y29.800
G1 X70.400 Y29.800
G1 X70.500 Y29.800
G1 X70.600 Y29.800
G1 X70.700 Y29.800
G1 X70.800 Y29.800
G1 X70.900 Y29.800
G1 X71.000 Y29.800
G1 X71.100 Y29.800
G1 X71.200 Y29.800
G1 X71.300 Y29.800
G1 X71.400 Y29.800
G1 X71.500 Y29.800
G1 X71.600 Y29.800
G1 X71.700 Y29.800
G1 X71.800 Y29.800
G1 X71.900 Y29.800
G1 X72.000 Y29.800
G1 X72.100 Y29.800
G1 X72.200 Y29.800
G1 X72.300 Y29.800
G1 X72.400 Y29.800
G1 X72.500 Y29.800
G1 X72.600 Y29.800
G1 X72.700 Y29.800
G1 X72.800 Y29.800
G1 X72.900 Y29.800
G1 X73.000 Y29.800
G1 X73.100 Y29.800
G1 X73.200 Y29.800
G1 X73.300 Y29.800
G1 X73.400 Y29.800
G1 X73.500 Y29.800
G1 X73.600 Y29.800
G1 X73.700 Y29.800
G1 X73.800 Y29.800
G1 X73.900 Y29.800
G1 X74.000 Y29.800
G1 X74.100 Y29.800
G1 X74.200 Y29.800
G1 X74.300 Y29.800
G1 X74.400 Y29.800
G1 X74.500 Y29.800
G1 X74.600 Y29.800
G1 X74.700 Y29.800
G1 X74.800 Y29.800
G1 X74.900 Y29.800
G1 X75.000 Y29.800
G1 X75.100 Y29.800
G1 X75.200 Y29.800
G1 X75.300 Y29.800
G1 X75.400 Y29.800
G1 X75.500 Y29.800
G1 X75.600 Y29.800
G1 X75.700 Y29.800
G1 X75.800 Y29.800
G1 X75.900 Y29.800
G1 X76.000 Y29.800
G1 X76.100 Y29.800
G1 X76.200 Y29.800
G1 X76.300 Y29.800
G1 X76.400 Y29.800
G1 X76.500 Y29.800
G1 X76.600 Y29.800
G1 X76.700 Y29.800
G1 X76.800 Y29.800
G0 Z1.600 F3000
M400
M204 P600 T600
G1 F1500
G0 X76.100 Y31.100 Z1.600
M400
M204 P200 T200
G1 F600
G1 Z0.000 F2500
G1 X76.000 Y31.100
G1 X75.900 Y31.100
G1 X75.800 Y31.100
G1 X75.700 Y31.100
G1 X75.600 Y31.100
G0 Z1.600 F3000
M400
M204 P600 T600
G1 F1500
G0 X77.800 Y32.400 Z1.600
M400
M204 P200 T200
G1 F600
G1 Z0.000 F2500
G1 X77.900 Y32.400
G1 X78.000 Y32.400
G1 X78.100 Y32.400
G1 X78.200 Y32.400
G1 X78.300 Y32.400
G1 X78.400 Y32.400
G1 X78.500 Y32.400
G1 X78.600 Y32.400
G1 X78.700 Y32.400
G1 X78.800 Y32.400
G1 X78.900 Y32.400
G1 X79.000 Y32.400
G1 X79.100 Y32.400
G1 X79.200 Y32.400
G1 X79.300 Y32.400
G1 X79.400 Y32.400
G1 X79.500 Y32.400
G1 X79.600 Y32.400
G1 X79.700 Y32.400
G1 X79.800 Y32.400
G1 X79.900 Y32.400
G1 X80.000 Y32.400
G1 X80.100 Y32.400
G1 X80.200 Y32.400
G1 X80.300 Y32.400
G1 X80.400 Y32.400
G1 X80.500 Y32.400
G1 X80.600 Y32.400
G1 X80.700 Y32.400
G1 X80.800 Y32.400
G1 X80.900 Y32.400
G1 X81.000 Y32.400
G1 X81.100 Y32.400
G1 X81.200 Y32.400
G1 X81.300 Y32.400
G1 X81.400 Y32.400
G1 X81.500 Y32.400
G1 X81.600 Y32.400
G1 X81.700 Y32.400
G1 X81.800 Y32.400
G1 X81.900 Y32.400
G1 X82.000 Y32.400
G1 X82.100 Y32.400
G1 X82.200 Y32.400
G1 X82.300 Y32.400
G1 X82.400 Y32.400
G1 X82.500 Y32.400
G1 X82.600 Y32.400
G1 X82.700 Y32.400
G0 Z1.600 F3000
M400
M204 P600 T600
G1 F1500
G0 X83.800 Y32.400 Z1.600
M400
M204 P200 T200
G1 F600
G1 Z0.000 F2500
G1 X83.900 Y32.400
G1 X84.000 Y32.400
G1 X84.100 Y32.400
G1 X84.200 Y32.400
G1 X84.300 Y32.400
G1 X84.400 Y32.400
G0 Z1.600 F3000
M400
M204 P600 T600
G1 F1500
G0 X84.800 Y32.400 Z1.600
M400
M204 P200 T200
G1 F600
G1 Z0.000 F2500
G1 X84.900 Y32.400
G1 X85.000 Y32.400
G1 X85.100 Y32.400
G1 X85.200 Y32.400
G1 X85.300 Y32.400
G1 X85.400 Y32.400
G1 X85.500 Y32.400
G0 Z1.600 F3000
M400
M204 P600 T600
G1 F1500
G0 X86.300 Y32.400 Z1.600
M400
M204 P200 T200
G1 F600
G1 Z0.000 F2500
G1 X86.400 Y32.400
G1 X86.500 Y32.400
G1 X86.600 Y32.400
G0 Z1.600 F3000
M400
M204 P600 T600
G1 F1500
G0 X86.800 Y32.400 Z1.600
M400
M204 P200 T200
G1 F600
G1 Z0.000 F2500
G1 X86.900 Y32.400
G1 X87.000 Y32.400
G1 X87.100 Y32.400
G1 X87.200 Y32.400
G1 X87.300 Y32.400
G1 X87.400 Y32.400
G1 X87.500 Y32.400
G1 X87.600 Y32.400
G1 X87.700 Y32.400
G1 X87.800 Y32.400
G1 X87.900 Y32.400
G1 X88.000 Y32.400
G1 X88.100 Y32.400
G1 X88.200 Y32.400
G1 X88.300 Y32.400
G1 X88.400 Y32.400
G1 X88.500 Y32.400
G1 X88.600 Y32.400
G1 X88.700 Y32.400
G1 X88.800 Y32.400
G1 X88.900 Y32.400
G1 X89.000 Y32.400
G1 X89.100 Y32.400
G0 Z1.600 F3000

; --- CIKEL NAMAKANJA ---
G0 Z1.600 F3000
M400
M204 P600 T600
G1 F1500
G0 X15.032 Y4.989 Z10.000
G1 Z0.000 F3000
G1 X15.032 Y4.989 F2500
G1 X15.032 Y7.489 F2500
G1 X10.032 Y4.989 F2500
G1 X15.032 Y0.000 F2500
G0 Z5.000 F3000
G0 X29.663 Y6.403
G0 Z10.000 F3000
G0 X89.200 Y32.400 Z1.600
M400
M204 P200 T200
G1 F600
G1 Z0.000 F2500
G1 X89.200 Y32.400
G1 X89.300 Y32.400
G1 X89.400 Y32.400
G1 X89.500 Y32.400
G1 X89.600 Y32.400
G1 X89.700 Y32.400
G1 X89.800 Y32.400
G1 X89.900 Y32.400
G1 X90.000 Y32.400
G1 X90.100 Y32.400
G1 X90.200 Y32.400
G1 X90.300 Y32.400
G1 X90.400 Y32.400
G1 X90.500 Y32.400
G1 X90.600 Y32.400
G1 X90.700 Y32.400
G1 X90.800 Y32.400
G1 X90.900 Y32.400
G1 X91.000 Y32.400
G1 X91.100 Y32.400
G1 X91.200 Y32.400
G1 X91.300 Y32.400
G1 X91.400 Y32.400
G1 X91.500 Y32.400
G1 X91.600 Y32.400
G1 X91.700 Y32.400
G1 X91.800 Y32.400
G1 X91.900 Y32.400
G1 X92.000 Y32.400
G1 X92.100 Y32.400
G1 X92.200 Y32.400
G1 X92.300 Y32.400
G1 X92.400 Y32.400
G1 X92.500 Y32.400
G1 X92.600 Y32.400
G1 X92.700 Y32.400
G1 X92.800 Y32.400
G1 X92.900 Y32.400
G1 X93.000 Y32.400
G1 X93.100 Y32.400
G1 X93.200 Y32.400
G1 X93.300 Y32.400
G1 X93.400 Y32.400
G1 X93.500 Y32.400
G1 X93.600 Y32.400
G1 X93.700 Y32.400
G1 X93.800 Y32.400
G1 X93.900 Y32.400
G1 X94.000 Y32.400
G1 X94.100 Y32.400
G1 X94.200 Y32.400
G1 X94.300 Y32.400
G1 X94.400 Y32.400
G1 X94.500 Y32.400
G1 X94.600 Y32.400
G1 X94.700 Y32.400
G1 X94.800 Y32.400
G1 X94.900 Y32.400
G1 X95.000 Y32.400
G1 X95.100 Y32.400
G1 X95.200 Y32.400
G1 X95.300 Y32.400
G1 X95.400 Y32.400
G1 X95.500 Y32.400
G1 X95.600 Y32.400
G1 X95.700 Y32.400
G1 X95.800 Y32.400
G1 X95.900 Y32.400
G1 X96.000 Y32.400
G1 X96.100 Y32.400
G1 X96.200 Y32.400
G1 X96.300 Y32.400
G1 X96.400 Y32.400
G1 X96.500 Y32.400
G1 X96.600 Y32.400
G1 X96.700 Y32.400
G1 X96.800 Y32.400
G1 X96.900 Y32.400
G1 X97.000 Y32.400
G1 X97.100 Y32.400
G1 X97.200 Y32.400
G1 X97.300 Y32.400
G1 X97.400 Y32.400
G1 X97.500 Y32.400
G1 X97.600 Y32.400
G1 X97.700 Y32.400
G1 X97.800 Y32.400
G1 X97.900 Y32.400
G1 X98.000 Y32.400
G1 X98.100 Y32.400
G1 X98.200 Y32.400
G1 X98.300 Y32.400
G1 X98.400 Y32.400
G1 X98.500 Y32.400
G1 X98.600 Y32.400
G1 X98.700 Y32.400
G1 X98.800 Y32.400
G1 X98.900 Y32.400
G1 X99.000 Y32.400
G1 X99.100 Y32.400
G1 X99.200 Y32.400
G1 X99.300 Y32.400
G1 X99.400 Y32.400
G1 X99.500 Y32.400
G1 X99.600 Y32.400
G1 X99.700 Y32.400
G1 X99.800 Y32.400
G1 X99.900 Y32.400
G1 X100.000 Y32.400
G1 X100.100 Y32.400
G1 X100.200 Y32.400
G1 X100.300 Y32.400
G1 X100.400 Y32.400
G1 X100.500 Y32.400
G1 X100.600 Y32.400
G1 X100.700 Y32.400
G1 X100.800 Y32.400
G1 X100.900 Y32.400
G1 X101.000 Y32.400
G1 X101.100 Y32.400
G1 X101.200 Y32.400
G1 X101.300 Y32.400
G1 X101.400 Y32.400
G1 X101.500 Y32.400
G1 X101.600 Y32.400
G1 X101.700 Y32.400
G1 X101.800 Y32.400
G1 X101.900 Y32.400
G1 X102.000 Y32.400
G1 X102.100 Y32.400
G1 X102.200 Y32.400
G1 X102.300 Y32.400
G1 X102.400 Y32.400
G1 X102.500 Y32.400
G1 X102.600 Y32.400
G1 X102.700 Y32.400
G1 X102.800 Y32.400
G1 X102.900 Y32.400
G1 X103.000 Y32.400
G1 X103.100 Y32.400
G1 X103.200 Y32.400
G1 X103.300 Y32.400
G1 X103.400 Y32.400
G1 X103.500 Y32.400
G1 X103.600 Y32.400
G1 X103.700 Y32.400
G1 X103.800 Y32.400
G1 X103.900 Y32.400
G1 X104.000 Y32.400
G1 X104.100 Y32.400
G1 X104.200 Y32.400
G1 X104.300 Y32.400
G1 X104.400 Y32.400
G1 X104.500 Y32.400
G1 X104.600 Y32.400
G1 X104.700 Y32.400
G1 X104.800 Y32.400
G1 X104.900 Y32.400
G1 X105.000 Y32.400
G1 X105.100 Y32.400
G1 X105.200 Y32.400
G1 X105.300 Y32.400
G1 X105.400 Y32.400
G1 X105.500 Y32.400
G1 X105.600 Y32.400
G1 X105.700 Y32.400
G1 X105.800 Y32.400
G1 X105.900 Y32.400
G1 X106.000 Y32.400
G1 X106.100 Y32.400
G1 X106.200 Y32.400
G1 X106.300 Y32.400
G1 X106.400 Y32.400
G1 X106.500 Y32.400
G1 X106.600 Y32.400
G1 X106.700 Y32.400
G1 X106.800 Y32.400
G1 X106.900 Y32.400
G1 X107.000 Y32.400
G1 X107.100 Y32.400
G1 X107.200 Y32.400
G1 X107.300 Y32.400
G1 X107.400 Y32.400
G1 X107.500 Y32.400
G1 X107.600 Y32.400
G1 X107.700 Y32.400
G1 X107.800 Y32.400
G1 X107.900 Y32.400
G1 X108.000 Y32.400
G1 X108.100 Y32.400
G1 X108.200 Y32.400
G1 X108.300 Y32.400
G1 X108.400 Y32.400
G1 X108.500 Y32.400
G1 X108.600 Y32.400
G1 X108.700 Y32.400
G1 X108.800 Y32.400
G1 X108.900 Y32.400
G1 X109.000 Y32.400
G1 X109.100 Y32.400
G1 X109.200 Y32.400
G1 X109.300 Y32.400
G1 X109.400 Y32.400
G1 X109.500 Y32.400
G1 X109.600 Y32.400
G1 X109.700 Y32.400
G1 X109.800 Y32.400
G1 X109.900 Y32.400
G1 X110.000 Y32.400
G1 X110.100 Y32.400
G1 X110.200 Y32.400
G1 X110.300 Y32.400
G1 X110.400 Y32.400
G1 X110.500 Y32.400
G1 X110.600 Y32.400
G1 X110.700 Y32.400
G1 X110.800 Y32.400
G1 X110.900 Y32.400
G1 X111.000 Y32.400
G1 X111.100 Y32.400
G1 X111.200 Y32.400
G1 X111.300 Y32.400
G1 X111.400 Y32.400
G1 X111.500 Y32.400
G1 X111.600 Y32.400
G1 X111.700 Y32.400
G1 X111.800 Y32.400
G1 X111.900 Y32.400
G1 X112.000 Y32.400
G1 X112.100 Y32.400
G1 X112.200 Y32.400
G1 X112.300 Y32.400
G1 X112.400 Y32.400
G1 X112.500 Y32.400
G1 X112.600 Y32.400
G1 X112.700 Y32.400
G1 X112.800 Y32.400
G1 X112.900 Y32.400
G1 X113.000 Y32.400
G1 X113.100 Y32.400
G1 X113.200 Y32.400
G1 X113.300 Y32.400
G1 X113.400 Y32.400
G1 X113.500 Y32.400
G1 X113.600 Y32.400
G1 X113.700 Y32.400
G1 X113.800 Y32.400
G1 X113.900 Y32.400
G1 X114.000 Y32.400
G1 X114.100 Y32.400
G1 X114.200 Y32.400
G1 X114.300 Y32.400
G1 X114.400 Y32.400
G1 X114.500 Y32.400
G1 X114.600 Y32.400
G1 X114.700 Y32.400
G1 X114.800 Y32.400
G1 X114.900 Y32.400
G1 X115.000 Y32.400
G1 X115.100 Y32.400
G1 X115.200 Y32.400
G1 X115.300 Y32.400
G1 X115.400 Y32.400
G1 X115.500 Y32.400
G1 X115.600 Y32.400
G1 X115.700 Y32.400
G1 X115.800 Y32.400
G1 X115.900 Y32.400
G1 X116.000 Y32.400
G1 X116.100 Y32.400
G1 X116.200 Y32.400
G1 X116.300 Y32.400
G1 X116.400 Y32.400
G1 X116.500 Y32.400
G1 X116.600 Y32.400
G1 X116.700 Y32.400
G1 X116.800 Y32.400
G1 X116.900 Y32.400
G1 X117.000 Y32.400
G1 X117.100 Y32.400
G1 X117.200 Y32.400
G1 X117.300 Y32.400
G1 X117.400 Y32.400
G1 X117.500 Y32.400
G1 X117.600 Y32.400
G1 X117.700 Y32.400
G1 X117.800 Y32.400
G1 X117.900 Y32.400
G1 X118.000 Y32.400
G1 X118.100 Y32.400
G1 X118.200 Y32.400
G1 X118.300 Y32.400
G1 X118.400 Y32.400
G1 X118.500 Y32.400
G1 X118.600 Y32.400
G1 X118.700 Y32.400
G1 X118.800 Y32.400
G1 X118.900 Y32.400
G1 X119.000 Y32.400
G1 X119.100 Y32.400
G1 X119.200 Y32.400
G1 X119.300 Y32.400
G1 X119.400 Y32.400
G1 X119.500 Y32.400
G1 X119.600 Y32.400
G1 X119.700 Y32.400
G1 X119.800 Y32.400
G1 X119.900 Y32.400
G1 X120.000 Y32.400
G1 X120.100 Y32.400
G1 X120.200 Y32.400
G1 X120.300 Y32.400
G1 X120.400 Y32.400
G1 X120.500 Y32.400
G1 X120.600 Y32.400
G1 X120.700 Y32.400
G1 X120.800 Y32.400
G1 X120.900 Y32.400
G1 X121.000 Y32.400
G1 X121.100 Y32.400
G1 X121.200 Y32.400
G1 X121.300 Y32.400
G1 X121.400 Y32.400
G1 X121.500 Y32.400
G1 X121.600 Y32.400
G1 X121.700 Y32.400
G1 X121.800 Y32.400
G1 X121.900 Y32.400
G1 X122.000 Y32.400
G1 X122.100 Y32.400
G1 X122.200 Y32.400
G1 X122.300 Y32.400
G1 X122.400 Y32.400
G1 X122.500 Y32.400
G1 X122.600 Y32.400
G1 X122.700 Y32.400
G1 X122.800 Y32.400
G1 X122.900 Y32.400
G1 X123.000 Y32.400
G1 X123.100 Y32.400
G1 X123.200 Y32.400
G1 X123.300 Y32.400
G1 X123.400 Y32.400
G1 X123.500 Y32.400
G1 X123.600 Y32.400
G1 X123.700 Y32.400
G1 X123.800 Y32.400
G1 X123.900 Y32.400
G1 X124.000 Y32.400
G1 X124.100 Y32.400
G1 X124.200 Y32.400
G1 X124.300 Y32.400
G1 X124.400 Y32.400
G1 X124.500 Y32.400
G1 X124.600 Y32.400
G1 X124.700 Y32.400
G1 X124.800 Y32.400
G1 X124.900 Y32.400
G1 X125.000 Y32.400
G1 X125.100 Y32.400
G1 X125.200 Y32.400
G1 X125.300 Y32.400
G1 X125.400 Y32.400
G1 X125.500 Y32.400
G1 X125.600 Y32.400
G1 X125.700 Y32.400
G1 X125.800 Y32.400
G1 X125.900 Y32.400
G1 X126.000 Y32.400
G1 X126.100 Y32.400
G1 X126.200 Y32.400
G1 X126.300 Y32.400
G1 X126.400 Y32.400
G1 X126.500 Y32.400
G1 X126.600 Y32.400
G1 X126.700 Y32.400
G1 X126.800 Y32.400
G1 X126.900 Y32.400
G1 X127.000 Y32.400
G1 X127.100 Y32.400
G1 X127.200 Y32.400
G1 X127.300 Y32.400
G1 X127.400 Y32.400
G1 X127.500 Y32.400
G1 X127.600 Y32.400
G1 X127.700 Y32.400
G1 X127.800 Y32.400
G1 X127.900 Y32.400
G1 X128.000 Y32.400
G1 X128.100 Y32.400
G1 X128.200 Y32.400
G1 X128.300 Y32.400
G1 X128.400 Y32.400
G1 X128.500 Y32.400
G1 X128.600 Y32.400
G1 X128.700 Y32.400
G1 X128.800 Y32.400
G1 X128.900 Y32.400
G1 X129.000 Y32.400
G1 X129.100 Y32.400
G1 X129.200 Y32.400
G1 X129.300 Y32.400
G1 X129.400 Y32.400
G1 X129.500 Y32.400
G1 X129.600 Y32.400
G1 X129.700 Y32.400
G1 X129.800 Y32.400
G1 X129.900 Y32.400
G1 X130.000 Y32.400
G1 X130.100 Y32.400
G1 X130.200 Y32.400
G1 X130.300 Y32.400
G1 X130.400 Y32.400
G1 X130.500 Y32.400
G1 X130.600 Y32.400
G1 X130.700 Y32.400
G1 X130.800 Y32.400
G1 X130.900 Y32.400
G1 X131.000 Y32.400
G1 X131.100 Y32.400
G1 X131.200 Y32.400
G1 X131.300 Y32.400
G1 X131.400 Y32.400
G1 X131.500 Y32.400
G1 X131.600 Y32.400
G1 X131.700 Y32.400
G1 X131.800 Y32.400
G1 X131.900 Y32.400
G1 X132.000 Y32.400
G1 X132.100 Y32.400
G1 X132.200 Y32.400
G1 X132.300 Y32.400
G1 X132.400 Y32.400
G1 X132.500 Y32.400
G1 X132.600 Y32.400
G1 X132.700 Y32.400
G1 X132.800 Y32.400
G1 X132.900 Y32.400
G1 X133.000 Y32.400
G1 X133.100 Y32.400
G1 X133.200 Y32.400
G1 X133.300 Y32.400
G1 X133.400 Y32.400
G1 X133.500 Y32.400
G1 X133.600 Y32.400
G1 X133.700 Y32.400
G1 X133.800 Y32.400
G1 X133.900 Y32.400
G1 X134.000 Y32.400
G1 X134.100 Y32.400
G1 X134.200 Y32.400
G1 X134.300 Y32.400
G1 X134.400 Y32.400
G1 X134.500 Y32.400
G1 X134.600 Y32.400
G1 X134.700 Y32.400
G1 X134.800 Y32.400
G1 X134.900 Y32.400
G1 X135.000 Y32.400
G1 X135.100 Y32.400
G1 X135.200 Y32.400
G1 X135.300 Y32.400
G1 X135.400 Y32.400
G1 X135.500 Y32.400
G1 X135.600 Y32.400
G1 X135.700 Y32.400
G1 X135.800 Y32.400
G1 X135.900 Y32.400
G1 X136.000 Y32.400
G1 X136.100 Y32.400
G1 X136.200 Y32.400
G1 X136.300 Y32.400
G1 X136.400 Y32.400
G1 X136.500 Y32.400
G1 X136.600 Y32.400
G1 X136.700 Y32.400
G1 X136.800 Y32.400
G1 X136.900 Y32.400
G1 X137.000 Y32.400
G1 X137.100 Y32.400
G1 X137.200 Y32.400
G1 X137.300 Y32.400
G1 X137.400 Y32.400
G1 X137.500 Y32.400
G1 X137.600 Y32.400
G1 X137.700 Y32.400
G1 X137.800 Y32.400
G1 X137.900 Y32.400
G1 X138.000 Y32.400
G1 X138.100 Y32.400
G1 X138.200 Y32.400
G1 X138.300 Y32.400
G1 X138.400 Y32.400
G1 X138.500 Y32.400
G1 X138.600 Y32.400
G1 X138.700 Y32.400
G1 X138.800 Y32.400
G1 X138.900 Y32.400
G1 X139.000 Y32.400
G1 X139.100 Y32.400
G1 X139.200 Y32.400
G1 X139.300 Y32.400
G1 X139.400 Y32.400
G1 X139.500 Y32.400
G1 X139.600 Y32.400
G1 X139.700 Y32.400
G1 X139.800 Y32.400
G1 X139.900 Y32.400
G1 X140.000 Y32.400
G1 X140.100 Y32.400
G1 X140.200 Y32.400
G1 X140.300 Y32.400
G1 X140.400 Y32.400
G1 X140.500 Y32.400
G1 X140.600 Y32.400
G1 X140.700 Y32.400
G1 X140.800 Y32.400
G1 X140.900 Y32.400
G1 X141.000 Y32.400
G1 X141.100 Y32.400
G1 X141.200 Y32.400
G1 X141.300 Y32.400
G1 X141.400 Y32.400
G1 X141.500 Y32.400
G1 X141.600 Y32.400
G1 X141.700 Y32.400
G1 X141.800 Y32.400
G1 X141.900 Y32.400
G1 X142.000 Y32.400
G1 X142.100 Y32.400
G1 X142.200 Y32.400
G1 X142.300 Y32.400
G1 X142.400 Y32.400
G1 X142.500 Y32.400
G1 X142.600 Y32.400
G1 X142.700 Y32.400
G1 X142.800 Y32.400
G1 X142.900 Y32.400
G1 X143.000 Y32.400
G1 X143.100 Y32.400
G1 X143.200 Y32.400
G1 X143.300 Y32.400
G1 X143.400 Y32.400
G1 X143.500 Y32.400
G1 X143.600 Y32.400
G1 X143.700 Y32.400
G1 X143.800 Y32.400
G1 X143.900 Y32.400
G1 X144.000 Y32.400
G1 X144.100 Y32.400
G1 X144.200 Y32.400
G1 X144.300 Y32.400
G1 X144.400 Y32.400
G1 X144.500 Y32.400
G1 X144.600 Y32.400
G1 X144.700 Y32.400
G1 X144.800 Y32.400
G1 X144.900 Y32.400
G1 X145.000 Y32.400
G1 X145.100 Y32.400
G1 X145.200 Y32.400
G1 X145.300 Y32.400
G1 X145.400 Y32.400
G1 X145.500 Y32.400
G1 X145.600 Y32.400
G1 X145.700 Y32.400
G1 X145.800 Y32.400
G1 X145.900 Y32.400
G1 X146.000 Y32.400
G1 X146.100 Y32.400
G1 X146.200 Y32.400
G1 X146.300 Y32.400
G1 X146.400 Y32.400
G1 X146.500 Y32.400
G1 X146.600 Y32.400
G1 X146.700 Y32.400
G1 X146.800 Y32.400
G1 X146.900 Y32.400
G1 X147.000 Y32.400
G1 X147.100 Y32.400
G1 X147.200 Y32.400
G1 X147.300 Y32.400
G1 X147.400 Y32.400
G1 X147.500 Y32.400
G1 X147.600 Y32.400
G1 X147.700 Y32.400
G1 X147.800 Y32.400
G1 X147.900 Y32.400
G1 X148.000 Y32.400
G1 X148.100 Y32.400
G1 X148.200 Y32.400
G1 X148.300 Y32.400
G1 X148.400 Y32.400
G1 X148.500 Y32.400
G1 X148.600 Y32.400
G1 X148.700 Y32.400
G1 X148.800 Y32.400
G1 X148.900 Y32.400
G1 X149.000 Y32.400
G1 X149.100 Y32.400
G1 X149.200 Y32.400
G1 X149.300 Y32.400
G1 X149.400 Y32.400
G1 X149.500 Y32.400
G1 X149.600 Y32.400
G1 X149.700 Y32.400
G1 X149.800 Y32.400
G1 X149.900 Y32.400
G0 Z1.600 F3000
M400
M204 P600 T600
G1 F1500
G0 X149.900 Y36.300 Z1.600
M400
M204 P200 T200
G1 F600
G1 Z0.000 F2500
G1 X149.800 Y36.300
G1 X149.700 Y36.300
G1 X149.600 Y36.300
G1 X149.500 Y36.300
G1 X149.400 Y36.300
G1 X149.300 Y36.300
G1 X149.200 Y36.300
G1 X149.100 Y36.300
G1 X149.000 Y36.300
G1 X148.900 Y36.300
G1 X148.800 Y36.300
G1 X148.700 Y36.300
G1 X148.600 Y36.300
G1 X148.500 Y36.300
G1 X148.400 Y36.300
G1 X148.300 Y36.300
G1 X148.200 Y36.300
G1 X148.100 Y36.300
G1 X148.000 Y36.300
G1 X147.900 Y36.300
G1 X147.800 Y36.300
G1 X147.700 Y36.300
G1 X147.600 Y36.300
G1 X147.500 Y36.300
G1 X147.400 Y36.300
G1 X147.300 Y36.300
G1 X147.200 Y36.300
G1 X147.100 Y36.300
G1 X147.000 Y36.300
G1 X146.900 Y36.300
G1 X146.800 Y36.300
G1 X146.700 Y36.300
G1 X146.600 Y36.300
G1 X146.500 Y36.300
G1 X146.400 Y36.300
G1 X146.300 Y36.300
G1 X146.200 Y36.300
G1 X146.100 Y36.300
G1 X146.000 Y36.300
G1 X145.900 Y36.300
G1 X145.800 Y36.300
G1 X145.700 Y36.300
G1 X145.600 Y36.300
G1 X145.500 Y36.300
G1 X145.400 Y36.300
G1 X145.300 Y36.300
G1 X145.200 Y36.300
G1 X145.100 Y36.300
G1 X145.000 Y36.300
G1 X144.900 Y36.300
G1 X144.800 Y36.300
G1 X144.700 Y36.300
G1 X144.600 Y36.300
G1 X144.500 Y36.300
G1 X144.400 Y36.300
G1 X144.300 Y36.300
G1 X144.200 Y36.300
G1 X144.100 Y36.300
G1 X144.000 Y36.300
G1 X143.900 Y36.300
G1 X143.800 Y36.300
G1 X143.700 Y36.300
G1 X143.600 Y36.300
G0 Z1.600 F3000
M400
M204 P600 T600
G1 F1500
G0 X144.300 Y37.600 Z1.600
M400
M204 P200 T200
G1 F600
G1 Z0.000 F2500
G1 X144.400 Y37.600
G1 X144.500 Y37.600
G1 X144.600 Y37.600
G1 X144.700 Y37.600
G1 X144.800 Y37.600
G1 X144.900 Y37.600
G1 X145.000 Y37.600
G1 X145.100 Y37.600
G1 X145.200 Y37.600
G1 X145.300 Y37.600
G1 X145.400 Y37.600
G1 X145.500 Y37.600
G1 X145.600 Y37.600
G1 X145.700 Y37.600
G1 X145.800 Y37.600
G1 X145.900 Y37.600
G1 X146.000 Y37.600
G1 X146.100 Y37.600
G1 X146.200 Y37.600
G1 X146.300 Y37.600
G1 X146.400 Y37.600
G1 X146.500 Y37.600
G1 X146.600 Y37.600
G1 X146.700 Y37.600
G1 X146.800 Y37.600
G1 X146.900 Y37.600
G1 X147.000 Y37.600
G1 X147.100 Y37.600
G1 X147.200 Y37.600
G1 X147.300 Y37.600
G1 X147.400 Y37.600
G1 X147.500 Y37.600
G1 X147.600 Y37.600
G1 X147.700 Y37.600
G1 X147.800 Y37.600
G1 X147.900 Y37.600
G1 X148.000 Y37.600
G1 X148.100 Y37.600
G1 X148.200 Y37.600
G1 X148.300 Y37.600
G1 X148.400 Y37.600
G1 X148.500 Y37.600
G1 X148.600 Y37.600
G1 X148.700 Y37.600
G1 X148.800 Y37.600
G1 X148.900 Y37.600
G1 X149.000 Y37.600
G1 X149.100 Y37.600
G1 X149.200 Y37.600
G1 X149.300 Y37.600
G1 X149.400 Y37.600
G1 X149.500 Y37.600
G1 X149.600 Y37.600
G1 X149.700 Y37.600
G1 X149.800 Y37.600
G1 X149.900 Y37.600
G0 Z1.600 F3000
M400
M204 P600 T600
G1 F1500
G0 X149.900 Y38.900 Z1.600
M400
M204 P200 T200
G1 F600
G1 Z0.000 F2500
G1 X149.800 Y38.900
G1 X149.700 Y38.900
G1 X149.600 Y38.900
G1 X149.500 Y38.900
G1 X149.400 Y38.900
G1 X149.300 Y38.900
G1 X149.200 Y38.900
G1 X149.100 Y38.900
G1 X149.000 Y38.900
G1 X148.900 Y38.900
G1 X148.800 Y38.900
G1 X148.700 Y38.900
G1 X148.600 Y38.900
G1 X148.500 Y38.900
G1 X148.400 Y38.900
G1 X148.300 Y38.900
G1 X148.200 Y38.900
G1 X148.100 Y38.900
G1 X148.000 Y38.900
G1 X147.900 Y38.900
G1 X147.800 Y38.900
G1 X147.700 Y38.900
G1 X147.600 Y38.900
G1 X147.500 Y38.900
G1 X147.400 Y38.900
G1 X147.300 Y38.900
G1 X147.200 Y38.900
G1 X147.100 Y38.900
G1 X147.000 Y38.900
G1 X146.900 Y38.900
G1 X146.800 Y38.900
G1 X146.700 Y38.900
G1 X146.600 Y38.900
G1 X146.500 Y38.900
G1 X146.400 Y38.900
G1 X146.300 Y38.900
G1 X146.200 Y38.900
G1 X146.100 Y38.900
G1 X146.000 Y38.900
G1 X145.900 Y38.900
G1 X145.800 Y38.900
G1 X145.700 Y38.900
G1 X145.600 Y38.900
G1 X145.500 Y38.900
G1 X145.400 Y38.900
G1 X145.300 Y38.900
G1 X145.200 Y38.900
G1 X145.100 Y38.900
G1 X145.000 Y38.900
G1 X144.900 Y38.900
G1 X144.800 Y38.900
G1 X144.700 Y38.900
G1 X144.600 Y38.900
G1 X144.500 Y38.900
G1 X144.400 Y38.900
G1 X144.300 Y38.900
G1 X144.200 Y38.900
G1 X144.100 Y38.900
G1 X144.000 Y38.900
G1 X143.900 Y38.900
G1 X143.800 Y38.900
G1 X143.700 Y38.900
G1 X143.600 Y38.900
G1 X143.500 Y38.900
G1 X143.400 Y38.900
G1 X143.300 Y38.900
G1 X143.200 Y38.900
G1 X143.100 Y38.900
G1 X143.000 Y38.900
G1 X142.900 Y38.900
G1 X142.800 Y38.900
G0 Z1.600 F3000
M400
M204 P600 T600
G1 F1500
G0 X142.100 Y40.200 Z1.600
M400
M204 P200 T200
G1 F600
G1 Z0.000 F2500
G1 X142.200 Y40.200
G1 X142.300 Y40.200
G1 X142.400 Y40.200
G1 X142.500 Y40.200
G1 X142.600 Y40.200
G1 X142.700 Y40.200
G1 X142.800 Y40.200
G1 X142.900 Y40.200
G1 X143.000 Y40.200
G1 X143.100 Y40.200
G1 X143.200 Y40.200
G1 X143.300 Y40.200
G1 X143.400 Y40.200
G1 X143.500 Y40.200
G1 X143.600 Y40.200
G1 X143.700 Y40.200
G1 X143.800 Y40.200
G1 X143.900 Y40.200
G1 X144.000 Y40.200
G1 X144.100 Y40.200
G1 X144.200 Y40.200
G1 X144.300 Y40.200
G1 X144.400 Y40.200
G1 X144.500 Y40.200
G1 X144.600 Y40.200
G1 X144.700 Y40.200
G1 X144.800 Y40.200
G1 X144.900 Y40.200
G1 X145.000 Y40.200
G1 X145.100 Y40.200
G1 X145.200 Y40.200
G1 X145.300 Y40.200
G1 X145.400 Y40.200
G1 X145.500 Y40.200
G1 X145.600 Y40.200
G1 X145.700 Y40.200
G1 X145.800 Y40.200
G1 X145.900 Y40.200
G1 X146.000 Y40.200
G1 X146.100 Y40.200
G1 X146.200 Y40.200
G1 X146.300 Y40.200
G1 X146.400 Y40.200
G1 X146.500 Y40.200
G1 X146.600 Y40.200
G1 X146.700 Y40.200
G0 Z1.600 F3000

; --- CIKEL NAMAKANJA ---
G0 Z1.600 F3000
M400
M204 P600 T600
G1 F1500
G0 X14.078 Y4.570 Z10.000
G1 Z0.000 F3000
G1 X14.078 Y4.570 F2500
G1 X14.078 Y7.070 F2500
G1 X9.078 Y4.570 F2500
G1 X14.078 Y0.000 F2500
G0 Z5.000 F3000
G0 X30.304 Y4.668
G0 Z10.000 F3000
G0 X146.800 Y40.200 Z1.600
M400
M204 P200 T200
G1 F600
G1 Z0.000 F2500
G1 X146.800 Y40.200
G1 X146.900 Y40.200
G1 X147.000 Y40.200
G1 X147.100 Y40.200
G1 X147.200 Y40.200
G1 X147.300 Y40.200
G1 X147.400 Y40.200
G1 X147.500 Y40.200
G1 X147.600 Y40.200
G1 X147.700 Y40.200
G1 X147.800 Y40.200
G1 X147.900 Y40.200
G1 X148.000 Y40.200
G1 X148.100 Y40.200
G1 X148.200 Y40.200
G1 X148.300 Y40.200
G1 X148.400 Y40.200
G1 X148.500 Y40.200
G1 X148.600 Y40.200
G1 X148.700 Y40.200
G1 X148.800 Y40.200
G1 X148.900 Y40.200
G1 X149.000 Y40.200
G1 X149.100 Y40.200
G1 X149.200 Y40.200
G1 X149.300 Y40.200
G1 X149.400 Y40.200
G1 X149.500 Y40.200
G1 X149.600 Y40.200
G1 X149.700 Y40.200
G1 X149.800 Y40.200
G1 X149.900 Y40.200
G0 Z1.600 F3000
M400
M204 P600 T600
G1 F1500
G0 X149.900 Y35.000 Z1.600
M400
M204 P200 T200
G1 F600
G1 Z0.000 F2500
G1 X149.800 Y35.000
G1 X149.700 Y35.000
G1 X149.600 Y35.000
G1 X149.500 Y35.000
G1 X149.400 Y35.000
G1 X149.300 Y35.000
G1 X149.200 Y35.000
G1 X149.100 Y35.000
G1 X149.000 Y35.000
G1 X148.900 Y35.000
G1 X148.800 Y35.000
G1 X148.700 Y35.000
G1 X148.600 Y35.000
G1 X148.500 Y35.000
G1 X148.400 Y35.000
G1 X148.300 Y35.000
G1 X148.200 Y35.000
G1 X148.100 Y35.000
G1 X148.000 Y35.000
G1 X147.900 Y35.000
G1 X147.800 Y35.000
G1 X147.700 Y35.000
G1 X147.600 Y35.000
G1 X147.500 Y35.000
G1 X147.400 Y35.000
G1 X147.300 Y35.000
G1 X147.200 Y35.000
G1 X147.100 Y35.000
G1 X147.000 Y35.000
G1 X146.900 Y35.000
G1 X146.800 Y35.000
G1 X146.700 Y35.000
G1 X146.600 Y35.000
G1 X146.500 Y35.000
G1 X146.400 Y35.000
G1 X146.300 Y35.000
G1 X146.200 Y35.000
G1 X146.100 Y35.000
G1 X146.000 Y35.000
G1 X145.900 Y35.000
G1 X145.800 Y35.000
G1 X145.700 Y35.000
G1 X145.600 Y35.000
G1 X145.500 Y35.000
G1 X145.400 Y35.000
G1 X145.300 Y35.000
G1 X145.200 Y35.000
G1 X145.100 Y35.000
G1 X145.000 Y35.000
G1 X144.900 Y35.000
G1 X144.800 Y35.000
G1 X144.700 Y35.000
G1 X144.600 Y35.000
G1 X144.500 Y35.000
G1 X144.400 Y35.000
G1 X144.300 Y35.000
G1 X144.200 Y35.000
G1 X144.100 Y35.000
G1 X144.000 Y35.000
G1 X143.900 Y35.000
G1 X143.800 Y35.000
G1 X143.700 Y35.000
G1 X143.600 Y35.000
G1 X143.500 Y35.000
G1 X143.400 Y35.000
G1 X143.300 Y35.000
G1 X143.200 Y35.000
G1 X143.100 Y35.000
G1 X143.000 Y35.000
G1 X142.900 Y35.000
G1 X142.800 Y35.000
G1 X142.700 Y35.000
G1 X142.600 Y35.000
G1 X142.500 Y35.000
G0 Z1.600 F3000
M400
M204 P600 T600
G1 F1500
G0 X141.900 Y33.700 Z1.600
M400
M204 P200 T200
G1 F600
G1 Z0.000 F2500
G1 X142.000 Y33.700
G1 X142.100 Y33.700
G1 X142.200 Y33.700
G1 X142.300 Y33.700
G1 X142.400 Y33.700
G1 X142.500 Y33.700
G1 X142.600 Y33.700
G1 X142.700 Y33.700
G1 X142.800 Y33.700
G1 X142.900 Y33.700
G1 X143.000 Y33.700
G1 X143.100 Y33.700
G1 X143.200 Y33.700
G1 X143.300 Y33.700
G1 X143.400 Y33.700
G1 X143.500 Y33.700
G1 X143.600 Y33.700
G1 X143.700 Y33.700
G1 X143.800 Y33.700
G1 X143.900 Y33.700
G1 X144.000 Y33.700
G1 X144.100 Y33.700
G1 X144.200 Y33.700
G1 X144.300 Y33.700
G1 X144.400 Y33.700
G1 X144.500 Y33.700
G1 X144.600 Y33.700
G1 X144.700 Y33.700
G1 X144.800 Y33.700
G1 X144.900 Y33.700
G1 X145.000 Y33.700
G1 X145.100 Y33.700
G1 X145.200 Y33.700
G1 X145.300 Y33.700
G1 X145.400 Y33.700
G1 X145.500 Y33.700
G1 X145.600 Y33.700
G1 X145.700 Y33.700
G1 X145.800 Y33.700
G1 X145.900 Y33.700
G1 X146.000 Y33.700
G1 X146.100 Y33.700
G1 X146.200 Y33.700
G1 X146.300 Y33.700
G1 X146.400 Y33.700
G1 X146.500 Y33.700
G1 X146.600 Y33.700
G1 X146.700 Y33.700
G1 X146.800 Y33.700
G1 X146.900 Y33.700
G1 X147.000 Y33.700
G1 X147.100 Y33.700
G1 X147.200 Y33.700
G1 X147.300 Y33.700
G1 X147.400 Y33.700
G1 X147.500 Y33.700
G1 X147.600 Y33.700
G1 X147.700 Y33.700
G1 X147.800 Y33.700
G1 X147.900 Y33.700
G1 X148.000 Y33.700
G1 X148.100 Y33.700
G1 X148.200 Y33.700
G1 X148.300 Y33.700
G1 X148.400 Y33.700
G1 X148.500 Y33.700
G1 X148.600 Y33.700
G1 X148.700 Y33.700
G1 X148.800 Y33.700
G1 X148.900 Y33.700
G1 X149.000 Y33.700
G1 X149.100 Y33.700
G1 X149.200 Y33.700
G1 X149.300 Y33.700
G1 X149.400 Y33.700
G1 X149.500 Y33.700
G1 X149.600 Y33.700
G1 X149.700 Y33.700
G1 X149.800 Y33.700
G1 X149.900 Y33.700
G0 Z1.600 F3000
M400
M204 P600 T600
G1 F1500
G0 X140.800 Y38.900 Z1.600
M400
M204 P200 T200
G1 F600
G1 Z0.000 F2500
G1 X140.700 Y38.900
G1 X140.600 Y38.900
G1 X140.500 Y38.900
G1 X140.400 Y38.900
G1 X140.300 Y38.900
G1 X140.200 Y38.900
G1 X140.100 Y38.900
G1 X140.000 Y38.900
G1 X139.900 Y38.900
G1 X139.800 Y38.900
G1 X139.700 Y38.900
G1 X139.600 Y38.900
G1 X139.500 Y38.900
G1 X139.400 Y38.900
G1 X139.300 Y38.900
G1 X139.200 Y38.900
G1 X139.100 Y38.900
G1 X139.000 Y38.900
G1 X138.900 Y38.900
G1 X138.800 Y38.900
G1 X138.700 Y38.900
G1 X138.600 Y38.900
G1 X138.500 Y38.900
G1 X138.400 Y38.900
G1 X138.300 Y38.900
G1 X138.200 Y38.900
G1 X138.100 Y38.900
G1 X138.000 Y38.900
G1 X137.900 Y38.900
G1 X137.800 Y38.900
G1 X137.700 Y38.900
G1 X137.600 Y38.900
G1 X137.500 Y38.900
G1 X137.400 Y38.900
G1 X137.300 Y38.900
G1 X137.200 Y38.900
G1 X137.100 Y38.900
G1 X137.000 Y38.900
G1 X136.900 Y38.900
G1 X136.800 Y38.900
G1 X136.700 Y38.900
G1 X136.600 Y38.900
G1 X136.500 Y38.900
G1 X136.400 Y38.900
G1 X136.300 Y38.900
G1 X136.200 Y38.900
G1 X136.100 Y38.900
G1 X136.000 Y38.900
G1 X135.900 Y38.900
G1 X135.800 Y38.900
G1 X135.700 Y38.900
G1 X135.600 Y38.900
G1 X135.500 Y38.900
G1 X135.400 Y38.900
G1 X135.300 Y38.900
G1 X135.200 Y38.900
G1 X135.100 Y38.900
G1 X135.000 Y38.900
G1 X134.900 Y38.900
G1 X134.800 Y38.900
G1 X134.700 Y38.900
G1 X134.600 Y38.900
G1 X134.500 Y38.900
G1 X134.400 Y38.900
G1 X134.300 Y38.900
G1 X134.200 Y38.900
G1 X134.100 Y38.900
G1 X134.000 Y38.900
G1 X133.900 Y38.900
G1 X133.800 Y38.900
G1 X133.700 Y38.900
G1 X133.600 Y38.900
G1 X133.500 Y38.900
G1 X133.400 Y38.900
G1 X133.300 Y38.900
G1 X133.200 Y38.900
G1 X133.100 Y38.900
G1 X133.000 Y38.900
G1 X132.900 Y38.900
G1 X132.800 Y38.900
G1 X132.700 Y38.900
G1 X132.600 Y38.900
G1 X132.500 Y38.900
G1 X132.400 Y38.900
G1 X132.300 Y38.900
G1 X132.200 Y38.900
G1 X132.100 Y38.900
G1 X132.000 Y38.900
G1 X131.900 Y38.900
G1 X131.800 Y38.900
G1 X131.700 Y38.900
G1 X131.600 Y38.900
G1 X131.500 Y38.900
G1 X131.400 Y38.900
G1 X131.300 Y38.900
G1 X131.200 Y38.900
G1 X131.100 Y38.900
G1 X131.000 Y38.900
G1 X130.900 Y38.900
G1 X130.800 Y38.900
G1 X130.700 Y38.900
G1 X130.600 Y38.900
G1 X130.500 Y38.900
G1 X130.400 Y38.900
G1 X130.300 Y38.900
G1 X130.200 Y38.900
G1 X130.100 Y38.900
G1 X130.000 Y38.900
G1 X129.900 Y38.900
G1 X129.800 Y38.900
G1 X129.700 Y38.900
G1 X129.600 Y38.900
G1 X129.500 Y38.900
G1 X129.400 Y38.900
G1 X129.300 Y38.900
G1 X129.200 Y38.900
G1 X129.100 Y38.900
G1 X129.000 Y38.900
G1 X128.900 Y38.900
G1 X128.800 Y38.900
G1 X128.700 Y38.900
G1 X128.600 Y38.900
G1 X128.500 Y38.900
G1 X128.400 Y38.900
G1 X128.300 Y38.900
G1 X128.200 Y38.900
G1 X128.100 Y38.900
G1 X128.000 Y38.900
G1 X127.900 Y38.900
G1 X127.800 Y38.900
G1 X127.700 Y38.900
G1 X127.600 Y38.900
G1 X127.500 Y38.900
G1 X127.400 Y38.900
G1 X127.300 Y38.900
G1 X127.200 Y38.900
G1 X127.100 Y38.900
G1 X127.000 Y38.900
G1 X126.900 Y38.900
G1 X126.800 Y38.900
G1 X126.700 Y38.900
G1 X126.600 Y38.900
G1 X126.500 Y38.900
G1 X126.400 Y38.900
G1 X126.300 Y38.900
G1 X126.200 Y38.900
G1 X126.100 Y38.900
G1 X126.000 Y38.900
G1 X125.900 Y38.900
G1 X125.800 Y38.900
G1 X125.700 Y38.900
G1 X125.600 Y38.900
G1 X125.500 Y38.900
G1 X125.400 Y38.900
G1 X125.300 Y38.900
G1 X125.200 Y38.900
G1 X125.100 Y38.900
G1 X125.000 Y38.900
G1 X124.900 Y38.900
G1 X124.800 Y38.900
G1 X124.700 Y38.900
G1 X124.600 Y38.900
G1 X124.500 Y38.900
G1 X124.400 Y38.900
G1 X124.300 Y38.900
G1 X124.200 Y38.900
G1 X124.100 Y38.900
G1 X124.000 Y38.900
G1 X123.900 Y38.900
G1 X123.800 Y38.900
G1 X123.700 Y38.900
G1 X123.600 Y38.900
G1 X123.500 Y38.900
G1 X123.400 Y38.900
G1 X123.300 Y38.900
G1 X123.200 Y38.900
G1 X123.100 Y38.900
G1 X123.000 Y38.900
G1 X122.900 Y38.900
G1 X122.800 Y38.900
G1 X122.700 Y38.900
G0 Z1.600 F3000
M400
M204 P600 T600
G1 F1500
G0 X122.100 Y40.200 Z1.600
M400
M204 P200 T200
G1 F600
G1 Z0.000 F2500
G1 X122.200 Y40.200
G1 X122.300 Y40.200
G1 X122.400 Y40.200
G1 X122.500 Y40.200
G1 X122.600 Y40.200
G1 X122.700 Y40.200
G1 X122.800 Y40.200
G1 X122.900 Y40.200
G1 X123.000 Y40.200
G1 X123.100 Y40.200
G1 X123.200 Y40.200
G1 X123.300 Y40.200
G1 X123.400 Y40.200
G1 X123.500 Y40.200
G1 X123.600 Y40.200
G1 X123.700 Y40.200
G1 X123.800 Y40.200
G1 X123.900 Y40.200
G1 X124.000 Y40.200
G1 X124.100 Y40.200
G1 X124.200 Y40.200
G1 X124.300 Y40.200
G1 X124.400 Y40.200
G1 X124.500 Y40.200
G1 X124.600 Y40.200
G1 X124.700 Y40.200
G1 X124.800 Y40.200
G1 X124.900 Y40.200
G1 X125.000 Y40.200
G1 X125.100 Y40.200
G1 X125.200 Y40.200
G1 X125.300 Y40.200
G1 X125.400 Y40.200
G1 X125.500 Y40.200
G1 X125.600 Y40.200
G1 X125.700 Y40.200
G1 X125.800 Y40.200
G1 X125.900 Y40.200
G1 X126.000 Y40.200
G1 X126.100 Y40.200
G1 X126.200 Y40.200
G1 X126.300 Y40.200
G1 X126.400 Y40.200
G1 X126.500 Y40.200
G1 X126.600 Y40.200
G1 X126.700 Y40.200
G1 X126.800 Y40.200
G1 X126.900 Y40.200
G1 X127.000 Y40.200
G1 X127.100 Y40.200
G1 X127.200 Y40.200
G1 X127.300 Y40.200
G1 X127.400 Y40.200
G1 X127.500 Y40.200
G1 X127.600 Y40.200
G1 X127.700 Y40.200
G1 X127.800 Y40.200
G1 X127.900 Y40.200
G1 X128.000 Y40.200
G1 X128.100 Y40.200
G1 X128.200 Y40.200
G1 X128.300 Y40.200
G1 X128.400 Y40.200
G1 X128.500 Y40.200
G1 X128.600 Y40.200
G1 X128.700 Y40.200
G1 X128.800 Y40.200
G1 X128.900 Y40.200
G1 X129.000 Y40.200
G1 X129.100 Y40.200
G1 X129.200 Y40.200
G1 X129.300 Y40.200
G1 X129.400 Y40.200
G1 X129.500 Y40.200
G1 X129.600 Y40.200
G1 X129.700 Y40.200
G1 X129.800 Y40.200
G1 X129.900 Y40.200
G1 X130.000 Y40.200
G1 X130.100 Y40.200
G1 X130.200 Y40.200
G1 X130.300 Y40.200
G1 X130.400 Y40.200
G1 X130.500 Y40.200
G1 X130.600 Y40.200
G1 X130.700 Y40.200
G1 X130.800 Y40.200
G1 X130.900 Y40.200
G1 X131.000 Y40.200
G1 X131.100 Y40.200
G1 X131.200 Y40.200
G1 X131.300 Y40.200
G1 X131.400 Y40.200
G1 X131.500 Y40.200
G1 X131.600 Y40.200
G1 X131.700 Y40.200
G1 X131.800 Y40.200
G1 X131.900 Y40.200
G1 X132.000 Y40.200
G1 X132.100 Y40.200
G1 X132.200 Y40.200
G1 X132.300 Y40.200
G1 X132.400 Y40.200
G1 X132.500 Y40.200
G1 X132.600 Y40.200
G1 X132.700 Y40.200
G1 X132.800 Y40.200
G1 X132.900 Y40.200
G1 X133.000 Y40.200
G1 X133.100 Y40.200
G1 X133.200 Y40.200
G1 X133.300 Y40.200
G1 X133.400 Y40.200
G1 X133.500 Y40.200
G1 X133.600 Y40.200
G1 X133.700 Y40.200
G1 X133.800 Y40.200
G1 X133.900 Y40.200
G1 X134.000 Y40.200
G1 X134.100 Y40.200
G1 X134.200 Y40.200
G1 X134.300 Y40.200
G1 X134.400 Y40.200
G1 X134.500 Y40.200
G1 X134.600 Y40.200
G1 X134.700 Y40.200
G1 X134.800 Y40.200
G1 X134.900 Y40.200
G1 X135.000 Y40.200
G1 X135.100 Y40.200
G1 X135.200 Y40.200
G1 X135.300 Y40.200
G1 X135.400 Y40.200
G1 X135.500 Y40.200
G1 X135.600 Y40.200
G1 X135.700 Y40.200
G1 X135.800 Y40.200
G1 X135.900 Y40.200
G1 X136.000 Y40.200
G1 X136.100 Y40.200
G1 X136.200 Y40.200
G1 X136.300 Y40.200
G1 X136.400 Y40.200
G1 X136.500 Y40.200
G1 X136.600 Y40.200
G1 X136.700 Y40.200
G1 X136.800 Y40.200
G1 X136.900 Y40.200
G1 X137.000 Y40.200
G1 X137.100 Y40.200
G1 X137.200 Y40.200
G1 X137.300 Y40.200
G1 X137.400 Y40.200
G1 X137.500 Y40.200
G1 X137.600 Y40.200
G1 X137.700 Y40.200
G1 X137.800 Y40.200
G1 X137.900 Y40.200
G1 X138.000 Y40.200
G1 X138.100 Y40.200
G1 X138.200 Y40.200
G1 X138.300 Y40.200
G1 X138.400 Y40.200
G1 X138.500 Y40.200
G1 X138.600 Y40.200
G1 X138.700 Y40.200
G1 X138.800 Y40.200
G1 X138.900 Y40.200
G1 X139.000 Y40.200
G1 X139.100 Y40.200
G1 X139.200 Y40.200
G1 X139.300 Y40.200
G1 X139.400 Y40.200
G1 X139.500 Y40.200
G1 X139.600 Y40.200
G1 X139.700 Y40.200
G1 X139.800 Y40.200
G1 X139.900 Y40.200
G1 X140.000 Y40.200
G1 X140.100 Y40.200
G1 X140.200 Y40.200
G1 X140.300 Y40.200
G1 X140.400 Y40.200
G1 X140.500 Y40.200
G1 X140.600 Y40.200
G1 X140.700 Y40.200
G1 X140.800 Y40.200
G1 X140.900 Y40.200
G1 X141.000 Y40.200
G1 X141.100 Y40.200
G1 X141.200 Y40.200
G1 X141.300 Y40.200
G1 X141.400 Y40.200
G0 Z1.600 F3000
M400
M204 P600 T600
G1 F1500
G0 X149.900 Y54.500 Z1.600
M400
M204 P200 T200
G1 F600
G1 Z0.000 F2500
G1 X149.800 Y54.500
G1 X149.700 Y54.500
G1 X149.600 Y54.500
G1 X149.500 Y54.500
G1 X149.400 Y54.500
G1 X149.300 Y54.500
G1 X149.200 Y54.500
G1 X149.100 Y54.500
G1 X149.000 Y54.500
G1 X148.900 Y54.500
G1 X148.800 Y54.500
G1 X148.700 Y54.500
G1 X148.600 Y54.500
G1 X148.500 Y54.500
G1 X148.400 Y54.500
G1 X148.300 Y54.500
G1 X148.200 Y54.500
G1 X148.100 Y54.500
G1 X148.000 Y54.500
G1 X147.900 Y54.500
G1 X147.800 Y54.500
G1 X147.700 Y54.500
G1 X147.600 Y54.500
G1 X147.500 Y54.500
G1 X147.400 Y54.500
G1 X147.300 Y54.500
G1 X147.200 Y54.500
G1 X147.100 Y54.500
G1 X147.000 Y54.500
G1 X146.900 Y54.500
G1 X146.800 Y54.500
G1 X146.700 Y54.500
G1 X146.600 Y54.500
G1 X146.500 Y54.500
G1 X146.400 Y54.500
G1 X146.300 Y54.500
G1 X146.200 Y54.500
G1 X146.100 Y54.500
G1 X146.000 Y54.500
G1 X145.900 Y54.500
G1 X145.800 Y54.500
G1 X145.700 Y54.500
G1 X145.600 Y54.500
G1 X145.500 Y54.500
G1 X145.400 Y54.500
G1 X145.300 Y54.500
G1 X145.200 Y54.500
G1 X145.100 Y54.500
G1 X145.000 Y54.500
G1 X144.900 Y54.500
G1 X144.800 Y54.500
G1 X144.700 Y54.500
G1 X144.600 Y54.500
G1 X144.500 Y54.500
G1 X144.400 Y54.500
G1 X144.300 Y54.500
G1 X144.200 Y54.500
G1 X144.100 Y54.500
G1 X144.000 Y54.500
G1 X143.900 Y54.500
G1 X143.800 Y54.500
G1 X143.700 Y54.500
G1 X143.600 Y54.500
G1 X143.500 Y54.500
G1 X143.400 Y54.500
G1 X143.300 Y54.500
G1 X143.200 Y54.500
G1 X143.100 Y54.500
G1 X143.000 Y54.500
G1 X142.900 Y54.500
G1 X142.800 Y54.500
G1 X142.700 Y54.500
G1 X142.600 Y54.500
G1 X142.500 Y54.500
G1 X142.400 Y54.500
G1 X142.300 Y54.500
G1 X142.200 Y54.500
G1 X142.100 Y54.500
G1 X142.000 Y54.500
G1 X141.900 Y54.500
G1 X141.800 Y54.500
G1 X141.700 Y54.500
G1 X141.600 Y54.500
G1 X141.500 Y54.500
G1 X141.400 Y54.500
G1 X141.300 Y54.500
G1 X141.200 Y54.500
G1 X141.100 Y54.500
G1 X141.000 Y54.500
G1 X140.900 Y54.500
G1 X140.800 Y54.500
G1 X140.700 Y54.500
G1 X140.600 Y54.500
G1 X140.500 Y54.500
G1 X140.400 Y54.500
G1 X140.300 Y54.500
G1 X140.200 Y54.500
G1 X140.100 Y54.500
G1 X140.000 Y54.500
G1 X139.900 Y54.500
G1 X139.800 Y54.500
G1 X139.700 Y54.500
G1 X139.600 Y54.500
G1 X139.500 Y54.500
G1 X139.400 Y54.500
G1 X139.300 Y54.500
G1 X139.200 Y54.500
G1 X139.100 Y54.500
G1 X139.000 Y54.500
G1 X138.900 Y54.500
G1 X138.800 Y54.500
G1 X138.700 Y54.500
G1 X138.600 Y54.500
G1 X138.500 Y54.500
G1 X138.400 Y54.500
G1 X138.300 Y54.500
G1 X138.200 Y54.500
G1 X138.100 Y54.500
G1 X138.000 Y54.500
G1 X137.900 Y54.500
G1 X137.800 Y54.500
G1 X137.700 Y54.500
G1 X137.600 Y54.500
G1 X137.500 Y54.500
G1 X137.400 Y54.500
G1 X137.300 Y54.500
G1 X137.200 Y54.500
G1 X137.100 Y54.500
G1 X137.000 Y54.500
G1 X136.900 Y54.500
G1 X136.800 Y54.500
G1 X136.700 Y54.500
G1 X136.600 Y54.500
G1 X136.500 Y54.500
G1 X136.400 Y54.500
G1 X136.300 Y54.500
G1 X136.200 Y54.500
G1 X136.100 Y54.500
G1 X136.000 Y54.500
G1 X135.900 Y54.500
G1 X135.800 Y54.500
G1 X135.700 Y54.500
G1 X135.600 Y54.500
G1 X135.500 Y54.500
G1 X135.400 Y54.500
G1 X135.300 Y54.500
G1 X135.200 Y54.500
G1 X135.100 Y54.500
G1 X135.000 Y54.500
G1 X134.900 Y54.500
G1 X134.800 Y54.500
G1 X134.700 Y54.500
G1 X134.600 Y54.500
G1 X134.500 Y54.500
G1 X134.400 Y54.500
G1 X134.300 Y54.500
G1 X134.200 Y54.500
G1 X134.100 Y54.500
G1 X134.000 Y54.500
G1 X133.900 Y54.500
G1 X133.800 Y54.500
G1 X133.700 Y54.500
G1 X133.600 Y54.500
G1 X133.500 Y54.500
G1 X133.400 Y54.500
G1 X133.300 Y54.500
G1 X133.200 Y54.500
G1 X133.100 Y54.500
G1 X133.000 Y54.500
G1 X132.900 Y54.500
G1 X132.800 Y54.500
G1 X132.700 Y54.500
G1 X132.600 Y54.500
G1 X132.500 Y54.500
G1 X132.400 Y54.500
G1 X132.300 Y54.500
G1 X132.200 Y54.500
G1 X132.100 Y54.500
G1 X132.000 Y54.500
G1 X131.900 Y54.500
G1 X131.800 Y54.500
G1 X131.700 Y54.500
G1 X131.600 Y54.500
G1 X131.500 Y54.500
G1 X131.400 Y54.500
G1 X131.300 Y54.500
G1 X131.200 Y54.500
G1 X131.100 Y54.500
G1 X131.000 Y54.500
G1 X130.900 Y54.500
G1 X130.800 Y54.500
G1 X130.700 Y54.500
G1 X130.600 Y54.500
G1 X130.500 Y54.500
G1 X130.400 Y54.500
G1 X130.300 Y54.500
G0 Z1.600 F3000
M400
M204 P600 T600
G1 F1500
G0 X148.200 Y66.200 Z1.600
M400
M204 P200 T200
G1 F600
G1 Z0.000 F2500
G1 X148.300 Y66.200
G1 X148.400 Y66.200
G1 X148.500 Y66.200
G1 X148.600 Y66.200
G1 X148.700 Y66.200
G1 X148.800 Y66.200
G1 X148.900 Y66.200
G1 X149.000 Y66.200
G1 X149.100 Y66.200
G1 X149.200 Y66.200
G1 X149.300 Y66.200
G1 X149.400 Y66.200
G1 X149.500 Y66.200
G1 X149.600 Y66.200
G1 X149.700 Y66.200
G1 X149.800 Y66.200
G1 X149.900 Y66.200
G0 Z1.600 F3000
M400
M204 P600 T600
G1 F1500
G0 X149.900 Y67.500 Z1.600
M400
M204 P200 T200
G1 F600
G1 Z0.000 F2500
G1 X149.800 Y67.500
G1 X149.700 Y67.500
G0 Z1.600 F3000
M400
M204 P600 T600
G1 F1500
G0 X149.900 Y72.700 Z1.600
M400
M204 P200 T200
G1 F600
G1 Z0.000 F2500
G1 X149.800 Y72.700
G1 X149.700 Y72.700
G1 X149.600 Y72.700
G1 X149.500 Y72.700
G1 X149.400 Y72.700
G1 X149.300 Y72.700
G1 X149.200 Y72.700
G1 X149.100 Y72.700
G1 X149.000 Y72.700
G1 X148.900 Y72.700
G0 Z1.600 F3000
M400
M204 P600 T600
G1 F1500
G0 X149.900 Y74.000 Z1.600
M400
M204 P200 T200
G1 F600
G1 Z0.000 F2500
G1 X149.800 Y74.000
G1 X149.700 Y74.000
G1 X149.600 Y74.000
G1 X149.500 Y74.000
G1 X149.400 Y74.000
G1 X149.300 Y74.000
G1 X149.200 Y74.000
G1 X149.100 Y74.000
G1 X149.000 Y74.000
G1 X148.900 Y74.000
G1 X148.800 Y74.000
G1 X148.700 Y74.000
G1 X148.600 Y74.000
G1 X148.500 Y74.000
G1 X148.400 Y74.000
G1 X148.300 Y74.000
G1 X148.200 Y74.000
G1 X148.100 Y74.000
G1 X148.000 Y74.000
G1 X147.900 Y74.000
G1 X147.800 Y74.000
G1 X147.700 Y74.000
G1 X147.600 Y74.000
G1 X147.500 Y74.000
G1 X147.400 Y74.000
G1 X147.300 Y74.000
G1 X147.200 Y74.000
G1 X147.100 Y74.000
G1 X147.000 Y74.000
G1 X146.900 Y74.000
G1 X146.800 Y74.000
G1 X146.700 Y74.000
G1 X146.600 Y74.000
G1 X146.500 Y74.000
G1 X146.400 Y74.000
G1 X146.300 Y74.000
G1 X146.200 Y74.000
G1 X146.100 Y74.000
G1 X146.000 Y74.000
G1 X145.900 Y74.000
G1 X145.800 Y74.000
G0 Z1.600 F3000

; --- CIKEL NAMAKANJA ---
G0 Z1.600 F3000
M400
M204 P600 T600
G1 F1500
G0 X12.997 Y4.904 Z10.000
G1 Z0.000 F3000
G1 X12.997 Y4.904 F2500
G1 X12.997 Y7.404 F2500
G1 X7.997 Y4.904 F2500
G1 X12.997 Y0.000 F2500
G0 Z5.000 F3000
G0 X28.923 Y7.883
G0 Z10.000 F3000
G0 X145.700 Y74.000 Z1.600
M400
M204 P200 T200
G1 F600
G1 Z0.000 F2500
G1 X145.700 Y74.000
G1 X145.600 Y74.000
G1 X145.500 Y74.000
G1 X145.400 Y74.000
G1 X145.300 Y74.000
G1 X145.200 Y74.000
G1 X145.100 Y74.000
G1 X145.000 Y74.000
G1 X144.900 Y74.000
G1 X144.800 Y74.000
G1 X144.700 Y74.000
G1 X144.600 Y74.000
G1 X144.500 Y74.000
G1 X144.400 Y74.000
G1 X144.300 Y74.000
G1 X144.200 Y74.000
G1 X144.100 Y74.000
G1 X144.000 Y74.000
G1 X143.900 Y74.000
G1 X143.800 Y74.000
G1 X143.700 Y74.000
G1 X143.600 Y74.000
G1 X143.500 Y74.000
G1 X143.400 Y74.000
G1 X143.300 Y74.000
G1 X143.200 Y74.000
G1 X143.100 Y74.000
G1 X143.000 Y74.000
G1 X142.900 Y74.000
G1 X142.800 Y74.000
G1 X142.700 Y74.000
G1 X142.600 Y74.000
G1 X142.500 Y74.000
G1 X142.400 Y74.000
G1 X142.300 Y74.000
G1 X142.200 Y74.000
G1 X142.100 Y74.000
G1 X142.000 Y74.000
G1 X141.900 Y74.000
G1 X141.800 Y74.000
G1 X141.700 Y74.000
G1 X141.600 Y74.000
G1 X141.500 Y74.000
G1 X141.400 Y74.000
G1 X141.300 Y74.000
G1 X141.200 Y74.000
G1 X141.100 Y74.000
G1 X141.000 Y74.000
G1 X140.900 Y74.000
G1 X140.800 Y74.000
G1 X140.700 Y74.000
G1 X140.600 Y74.000
G1 X140.500 Y74.000
G1 X140.400 Y74.000
G1 X140.300 Y74.000
G1 X140.200 Y74.000
G1 X140.100 Y74.000
G1 X140.000 Y74.000
G1 X139.900 Y74.000
G1 X139.800 Y74.000
G1 X139.700 Y74.000
G1 X139.600 Y74.000
G1 X139.500 Y74.000
G1 X139.400 Y74.000
G1 X139.300 Y74.000
G1 X139.200 Y74.000
G1 X139.100 Y74.000
G1 X139.000 Y74.000
G1 X138.900 Y74.000
G1 X138.800 Y74.000
G1 X138.700 Y74.000
G1 X138.600 Y74.000
G1 X138.500 Y74.000
G1 X138.400 Y74.000
G1 X138.300 Y74.000
G1 X138.200 Y74.000
G1 X138.100 Y74.000
G1 X138.000 Y74.000
G1 X137.900 Y74.000
G1 X137.800 Y74.000
G1 X137.700 Y74.000
G1 X137.600 Y74.000
G1 X137.500 Y74.000
G1 X137.400 Y74.000
G1 X137.300 Y74.000
G1 X137.200 Y74.000
G1 X137.100 Y74.000
G1 X137.000 Y74.000
G1 X136.900 Y74.000
G1 X136.800 Y74.000
G1 X136.700 Y74.000
G1 X136.600 Y74.000
G1 X136.500 Y74.000
G1 X136.400 Y74.000
G1 X136.300 Y74.000
G1 X136.200 Y74.000
G1 X136.100 Y74.000
G1 X136.000 Y74.000
G1 X135.900 Y74.000
G1 X135.800 Y74.000
G1 X135.700 Y74.000
G1 X135.600 Y74.000
G1 X135.500 Y74.000
G1 X135.400 Y74.000
G1 X135.300 Y74.000
G1 X135.200 Y74.000
G1 X135.100 Y74.000
G1 X135.000 Y74.000
G1 X134.900 Y74.000
G1 X134.800 Y74.000
G1 X134.700 Y74.000
G1 X134.600 Y74.000
G1 X134.500 Y74.000
G1 X134.400 Y74.000
G1 X134.300 Y74.000
G1 X134.200 Y74.000
G1 X134.100 Y74.000
G1 X134.000 Y74.000
G1 X133.900 Y74.000
G1 X133.800 Y74.000
G1 X133.700 Y74.000
G1 X133.600 Y74.000
G1 X133.500 Y74.000
G1 X133.400 Y74.000
G1 X133.300 Y74.000
G1 X133.200 Y74.000
G1 X133.100 Y74.000
G1 X133.000 Y74.000
G1 X132.900 Y74.000
G1 X132.800 Y74.000
G1 X132.700 Y74.000
G1 X132.600 Y74.000
G1 X132.500 Y74.000
G1 X132.400 Y74.000
G1 X132.300 Y74.000
G1 X132.200 Y74.000
G1 X132.100 Y74.000
G1 X132.000 Y74.000
G1 X131.900 Y74.000
G1 X131.800 Y74.000
G1 X131.700 Y74.000
G1 X131.600 Y74.000
G1 X131.500 Y74.000
G1 X131.400 Y74.000
G1 X131.300 Y74.000
G1 X131.200 Y74.000
G0 Z1.600 F3000
M400
M204 P600 T600
G1 F1500
G0 X131.100 Y75.300 Z1.600
M400
M204 P200 T200
G1 F600
G1 Z0.000 F2500
G1 X131.200 Y75.300
G1 X131.300 Y75.300
G1 X131.400 Y75.300
G1 X131.500 Y75.300
G1 X131.600 Y75.300
G1 X131.700 Y75.300
G1 X131.800 Y75.300
G1 X131.900 Y75.300
G1 X132.000 Y75.300
G1 X132.100 Y75.300
G1 X132.200 Y75.300
G1 X132.300 Y75.300
G1 X132.400 Y75.300
G1 X132.500 Y75.300
G1 X132.600 Y75.300
G1 X132.700 Y75.300
G1 X132.800 Y75.300
G1 X132.900 Y75.300
G1 X133.000 Y75.300
G1 X133.100 Y75.300
G1 X133.200 Y75.300
G1 X133.300 Y75.300
G1 X133.400 Y75.300
G1 X133.500 Y75.300
G1 X133.600 Y75.300
G1 X133.700 Y75.300
G1 X133.800 Y75.300
G1 X133.900 Y75.300
G1 X134.000 Y75.300
G1 X134.100 Y75.300
G1 X134.200 Y75.300
G1 X134.300 Y75.300
G1 X134.400 Y75.300
G1 X134.500 Y75.300
G1 X134.600 Y75.300
G1 X134.700 Y75.300
G1 X134.800 Y75.300
G1 X134.900 Y75.300
G1 X135.000 Y75.300
G1 X135.100 Y75.300
G1 X135.200 Y75.300
G1 X135.300 Y75.300
G1 X135.400 Y75.300
G1 X135.500 Y75.300
G1 X135.600 Y75.300
G1 X135.700 Y75.300
G1 X135.800 Y75.300
G1 X135.900 Y75.300
G1 X136.000 Y75.300
G1 X136.100 Y75.300
G1 X136.200 Y75.300
G1 X136.300 Y75.300
G1 X136.400 Y75.300
G1 X136.500 Y75.300
G1 X136.600 Y75.300
G1 X136.700 Y75.300
G1 X136.800 Y75.300
G1 X136.900 Y75.300
G1 X137.000 Y75.300
G1 X137.100 Y75.300
G1 X137.200 Y75.300
G1 X137.300 Y75.300
G1 X137.400 Y75.300
G1 X137.500 Y75.300
G1 X137.600 Y75.300
G1 X137.700 Y75.300
G1 X137.800 Y75.300
G1 X137.900 Y75.300
G1 X138.000 Y75.300
G1 X138.100 Y75.300
G1 X138.200 Y75.300
G1 X138.300 Y75.300
G1 X138.400 Y75.300
G1 X138.500 Y75.300
G1 X138.600 Y75.300
G1 X138.700 Y75.300
G1 X138.800 Y75.300
G1 X138.900 Y75.300
G1 X139.000 Y75.300
G1 X139.100 Y75.300
G1 X139.200 Y75.300
G1 X139.300 Y75.300
G1 X139.400 Y75.300
G1 X139.500 Y75.300
G1 X139.600 Y75.300
G1 X139.700 Y75.300
G1 X139.800 Y75.300
G1 X139.900 Y75.300
G1 X140.000 Y75.300
G1 X140.100 Y75.300
G1 X140.200 Y75.300
G1 X140.300 Y75.300
G1 X140.400 Y75.300
G1 X140.500 Y75.300
G1 X140.600 Y75.300
G1 X140.700 Y75.300
G1 X140.800 Y75.300
G1 X140.900 Y75.300
G1 X141.000 Y75.300
G1 X141.100 Y75.300
G1 X141.200 Y75.300
G1 X141.300 Y75.300
G1 X141.400 Y75.300
G1 X141.500 Y75.300
G1 X141.600 Y75.300
G1 X141.700 Y75.300
G1 X141.800 Y75.300
G1 X141.900 Y75.300
G1 X142.000 Y75.300
G1 X142.100 Y75.300
G1 X142.200 Y75.300
G1 X142.300 Y75.300
G1 X142.400 Y75.300
G1 X142.500 Y75.300
G1 X142.600 Y75.300
G1 X142.700 Y75.300
G1 X142.800 Y75.300
G1 X142.900 Y75.300
G1 X143.000 Y75.300
G1 X143.100 Y75.300
G1 X143.200 Y75.300
G1 X143.300 Y75.300
G1 X143.400 Y75.300
G1 X143.500 Y75.300
G1 X143.600 Y75.300
G1 X143.700 Y75.300
G1 X143.800 Y75.300
G1 X143.900 Y75.300
G1 X144.000 Y75.300
G1 X144.100 Y75.300
G1 X144.200 Y75.300
G1 X144.300 Y75.300
G1 X144.400 Y75.300
G1 X144.500 Y75.300
G1 X144.600 Y75.300
G1 X144.700 Y75.300
G1 X144.800 Y75.300
G1 X144.900 Y75.300
G1 X145.000 Y75.300
G1 X145.100 Y75.300
G1 X145.200 Y75.300
G1 X145.300 Y75.300
G1 X145.400 Y75.300
G1 X145.500 Y75.300
G1 X145.600 Y75.300
G1 X145.700 Y75.300
G1 X145.800 Y75.300
G1 X145.900 Y75.300
G1 X146.000 Y75.300
G1 X146.100 Y75.300
G1 X146.200 Y75.300
G1 X146.300 Y75.300
G1 X146.400 Y75.300
G1 X146.500 Y75.300
G1 X146.600 Y75.300
G1 X146.700 Y75.300
G1 X146.800 Y75.300
G1 X146.900 Y75.300
G1 X147.000 Y75.300
G1 X147.100 Y75.300
G1 X147.200 Y75.300
G1 X147.300 Y75.300
G1 X147.400 Y75.300
G1 X147.500 Y75.300
G1 X147.600 Y75.300
G1 X147.700 Y75.300
G1 X147.800 Y75.300
G1 X147.900 Y75.300
G1 X148.000 Y75.300
G1 X148.100 Y75.300
G1 X148.200 Y75.300
G1 X148.300 Y75.300
G1 X148.400 Y75.300
G1 X148.500 Y75.300
G1 X148.600 Y75.300
G1 X148.700 Y75.300
G1 X148.800 Y75.300
G1 X148.900 Y75.300
G1 X149.000 Y75.300
G1 X149.100 Y75.300
G1 X149.200 Y75.300
G1 X149.300 Y75.300
G1 X149.400 Y75.300
G1 X149.500 Y75.300
G1 X149.600 Y75.300
G1 X149.700 Y75.300
G1 X149.800 Y75.300
G1 X149.900 Y75.300
G0 Z1.600 F3000
M400
M204 P600 T600
G1 F1500
G0 X148.600 Y72.700 Z1.600
M400
M204 P200 T200
G1 F600
G1 Z0.000 F2500
G1 X148.500 Y72.700
G1 X148.400 Y72.700
G1 X148.300 Y72.700
G1 X148.200 Y72.700
G1 X148.100 Y72.700
G1 X148.000 Y72.700
G1 X147.900 Y72.700
G1 X147.800 Y72.700
G1 X147.700 Y72.700
G1 X147.600 Y72.700
G1 X147.500 Y72.700
G1 X147.400 Y72.700
G1 X147.300 Y72.700
G1 X147.200 Y72.700
G1 X147.100 Y72.700
G1 X147.000 Y72.700
G1 X146.900 Y72.700
G1 X146.800 Y72.700
G1 X146.700 Y72.700
G1 X146.600 Y72.700
G1 X146.500 Y72.700
G1 X146.400 Y72.700
G1 X146.300 Y72.700
G1 X146.200 Y72.700
G1 X146.100 Y72.700
G1 X146.000 Y72.700
G1 X145.900 Y72.700
G1 X145.800 Y72.700
G1 X145.700 Y72.700
G1 X145.600 Y72.700
G1 X145.500 Y72.700
G1 X145.400 Y72.700
G1 X145.300 Y72.700
G1 X145.200 Y72.700
G1 X145.100 Y72.700
G1 X145.000 Y72.700
G1 X144.900 Y72.700
G1 X144.800 Y72.700
G1 X144.700 Y72.700
G1 X144.600 Y72.700
G1 X144.500 Y72.700
G1 X144.400 Y72.700
G1 X144.300 Y72.700
G1 X144.200 Y72.700
G1 X144.100 Y72.700
G1 X144.000 Y72.700
G1 X143.900 Y72.700
G1 X143.800 Y72.700
G1 X143.700 Y72.700
G1 X143.600 Y72.700
G1 X143.500 Y72.700
G1 X143.400 Y72.700
G1 X143.300 Y72.700
G1 X143.200 Y72.700
G1 X143.100 Y72.700
G1 X143.000 Y72.700
G1 X142.900 Y72.700
G1 X142.800 Y72.700
G1 X142.700 Y72.700
G1 X142.600 Y72.700
G1 X142.500 Y72.700
G1 X142.400 Y72.700
G1 X142.300 Y72.700
G1 X142.200 Y72.700
G1 X142.100 Y72.700
G1 X142.000 Y72.700
G1 X141.900 Y72.700
G1 X141.800 Y72.700
G1 X141.700 Y72.700
G1 X141.600 Y72.700
G1 X141.500 Y72.700
G1 X141.400 Y72.700
G1 X141.300 Y72.700
G1 X141.200 Y72.700
G1 X141.100 Y72.700
G1 X141.000 Y72.700
G1 X140.900 Y72.700
G1 X140.800 Y72.700
G1 X140.700 Y72.700
G1 X140.600 Y72.700
G1 X140.500 Y72.700
G1 X140.400 Y72.700
G1 X140.300 Y72.700
G1 X140.200 Y72.700
G1 X140.100 Y72.700
G1 X140.000 Y72.700
G1 X139.900 Y72.700
G1 X139.800 Y72.700
G1 X139.700 Y72.700
G1 X139.600 Y72.700
G1 X139.500 Y72.700
G1 X139.400 Y72.700
G1 X139.300 Y72.700
G1 X139.200 Y72.700
G1 X139.100 Y72.700
G1 X139.000 Y72.700
G1 X138.900 Y72.700
G1 X138.800 Y72.700
G1 X138.700 Y72.700
G1 X138.600 Y72.700
G1 X138.500 Y72.700
G1 X138.400 Y72.700
G1 X138.300 Y72.700
G1 X138.200 Y72.700
G1 X138.100 Y72.700
G1 X138.000 Y72.700
G1 X137.900 Y72.700
G1 X137.800 Y72.700
G1 X137.700 Y72.700
G1 X137.600 Y72.700
G1 X137.500 Y72.700
G1 X137.400 Y72.700
G1 X137.300 Y72.700
G1 X137.200 Y72.700
G1 X137.100 Y72.700
G1 X137.000 Y72.700
G1 X136.900 Y72.700
G1 X136.800 Y72.700
G1 X136.700 Y72.700
G1 X136.600 Y72.700
G1 X136.500 Y72.700
G1 X136.400 Y72.700
G1 X136.300 Y72.700
G1 X136.200 Y72.700
G1 X136.100 Y72.700
G1 X136.000 Y72.700
G1 X135.900 Y72.700
G1 X135.800 Y72.700
G1 X135.700 Y72.700
G1 X135.600 Y72.700
G1 X135.500 Y72.700
G1 X135.400 Y72.700
G1 X135.300 Y72.700
G1 X135.200 Y72.700
G1 X135.100 Y72.700
G1 X135.000 Y72.700
G1 X134.900 Y72.700
G1 X134.800 Y72.700
G1 X134.700 Y72.700
G1 X134.600 Y72.700
G1 X134.500 Y72.700
G1 X134.400 Y72.700
G1 X134.300 Y72.700
G1 X134.200 Y72.700
G1 X134.100 Y72.700
G1 X134.000 Y72.700
G1 X133.900 Y72.700
G1 X133.800 Y72.700
G1 X133.700 Y72.700
G1 X133.600 Y72.700
G1 X133.500 Y72.700
G1 X133.400 Y72.700
G1 X133.300 Y72.700
G1 X133.200 Y72.700
G1 X133.100 Y72.700
G1 X133.000 Y72.700
G1 X132.900 Y72.700
G1 X132.800 Y72.700
G1 X132.700 Y72.700
G1 X132.600 Y72.700
G1 X132.500 Y72.700
G1 X132.400 Y72.700
G1 X132.300 Y72.700
G1 X132.200 Y72.700
G1 X132.100 Y72.700
G1 X132.000 Y72.700
G1 X131.900 Y72.700
G1 X131.800 Y72.700
G1 X131.700 Y72.700
G1 X131.600 Y72.700
G1 X131.500 Y72.700
G1 X131.400 Y72.700
G1 X131.300 Y72.700
G1 X131.200 Y72.700
G1 X131.100 Y72.700
G0 Z1.600 F3000
M400
M204 P600 T600
G1 F1500
G0 X130.900 Y76.600 Z1.600
M400
M204 P200 T200
G1 F600
G1 Z0.000 F2500
G1 X131.000 Y76.600
G1 X131.100 Y76.600
G1 X131.200 Y76.600
G1 X131.300 Y76.600
G1 X131.400 Y76.600
G1 X131.500 Y76.600
G1 X131.600 Y76.600
G1 X131.700 Y76.600
G1 X131.800 Y76.600
G1 X131.900 Y76.600
G1 X132.000 Y76.600
G1 X132.100 Y76.600
G1 X132.200 Y76.600
G1 X132.300 Y76.600
G1 X132.400 Y76.600
G1 X132.500 Y76.600
G1 X132.600 Y76.600
G1 X132.700 Y76.600
G1 X132.800 Y76.600
G1 X132.900 Y76.600
G1 X133.000 Y76.600
G1 X133.100 Y76.600
G1 X133.200 Y76.600
G1 X133.300 Y76.600
G1 X133.400 Y76.600
G1 X133.500 Y76.600
G1 X133.600 Y76.600
G1 X133.700 Y76.600
G1 X133.800 Y76.600
G1 X133.900 Y76.600
G1 X134.000 Y76.600
G1 X134.100 Y76.600
G1 X134.200 Y76.600
G1 X134.300 Y76.600
G1 X134.400 Y76.600
G1 X134.500 Y76.600
G1 X134.600 Y76.600
G1 X134.700 Y76.600
G1 X134.800 Y76.600
G1 X134.900 Y76.600
G1 X135.000 Y76.600
G1 X135.100 Y76.600
G1 X135.200 Y76.600
G1 X135.300 Y76.600
G1 X135.400 Y76.600
G1 X135.500 Y76.600
G1 X135.600 Y76.600
G1 X135.700 Y76.600
G1 X135.800 Y76.600
G1 X135.900 Y76.600
G1 X136.000 Y76.600
G1 X136.100 Y76.600
G1 X136.200 Y76.600
G1 X136.300 Y76.600
G1 X136.400 Y76.600
G1 X136.500 Y76.600
G1 X136.600 Y76.600
G1 X136.700 Y76.600
G1 X136.800 Y76.600
G1 X136.900 Y76.600
G1 X137.000 Y76.600
G1 X137.100 Y76.600
G1 X137.200 Y76.600
G1 X137.300 Y76.600
G1 X137.400 Y76.600
G1 X137.500 Y76.600
G1 X137.600 Y76.600
G1 X137.700 Y76.600
G1 X137.800 Y76.600
G1 X137.900 Y76.600
G1 X138.000 Y76.600
G1 X138.100 Y76.600
G1 X138.200 Y76.600
G1 X138.300 Y76.600
G1 X138.400 Y76.600
G1 X138.500 Y76.600
G1 X138.600 Y76.600
G1 X138.700 Y76.600
G1 X138.800 Y76.600
G1 X138.900 Y76.600
G1 X139.000 Y76.600
G1 X139.100 Y76.600
G1 X139.200 Y76.600
G1 X139.300 Y76.600
G1 X139.400 Y76.600
G1 X139.500 Y76.600
G1 X139.600 Y76.600
G1 X139.700 Y76.600
G1 X139.800 Y76.600
G1 X139.900 Y76.600
G1 X140.000 Y76.600
G1 X140.100 Y76.600
G1 X140.200 Y76.600
G1 X140.300 Y76.600
G1 X140.400 Y76.600
G1 X140.500 Y76.600
G1 X140.600 Y76.600
G1 X140.700 Y76.600
G1 X140.800 Y76.600
G1 X140.900 Y76.600
G1 X141.000 Y76.600
G1 X141.100 Y76.600
G1 X141.200 Y76.600
G1 X141.300 Y76.600
G1 X141.400 Y76.600
G1 X141.500 Y76.600
G1 X141.600 Y76.600
G1 X141.700 Y76.600
G1 X141.800 Y76.600
G1 X141.900 Y76.600
G1 X142.000 Y76.600
G1 X142.100 Y76.600
G1 X142.200 Y76.600
G1 X142.300 Y76.600
G1 X142.400 Y76.600
G1 X142.500 Y76.600
G1 X142.600 Y76.600
G1 X142.700 Y76.600
G1 X142.800 Y76.600
G1 X142.900 Y76.600
G1 X143.000 Y76.600
G1 X143.100 Y76.600
G1 X143.200 Y76.600
G1 X143.300 Y76.600
G1 X143.400 Y76.600
G1 X143.500 Y76.600
G1 X143.600 Y76.600
G1 X143.700 Y76.600
G1 X143.800 Y76.600
G1 X143.900 Y76.600
G1 X144.000 Y76.600
G1 X144.100 Y76.600
G1 X144.200 Y76.600
G1 X144.300 Y76.600
G1 X144.400 Y76.600
G1 X144.500 Y76.600
G1 X144.600 Y76.600
G1 X144.700 Y76.600
G1 X144.800 Y76.600
G1 X144.900 Y76.600
G1 X145.000 Y76.600
G1 X145.100 Y76.600
G1 X145.200 Y76.600
G1 X145.300 Y76.600
G1 X145.400 Y76.600
G1 X145.500 Y76.600
G1 X145.600 Y76.600
G1 X145.700 Y76.600
G1 X145.800 Y76.600
G1 X145.900 Y76.600
G1 X146.000 Y76.600
G1 X146.100 Y76.600
G1 X146.200 Y76.600
G1 X146.300 Y76.600
G1 X146.400 Y76.600
G1 X146.500 Y76.600
G1 X146.600 Y76.600
G1 X146.700 Y76.600
G1 X146.800 Y76.600
G1 X146.900 Y76.600
G1 X147.000 Y76.600
G1 X147.100 Y76.600
G1 X147.200 Y76.600
G1 X147.300 Y76.600
G1 X147.400 Y76.600
G1 X147.500 Y76.600
G1 X147.600 Y76.600
G1 X147.700 Y76.600
G1 X147.800 Y76.600
G1 X147.900 Y76.600
G1 X148.000 Y76.600
G1 X148.100 Y76.600
G1 X148.200 Y76.600
G1 X148.300 Y76.600
G1 X148.400 Y76.600
G1 X148.500 Y76.600
G1 X148.600 Y76.600
G1 X148.700 Y76.600
G1 X148.800 Y76.600
G1 X148.900 Y76.600
G1 X149.000 Y76.600
G1 X149.100 Y76.600
G1 X149.200 Y76.600
G1 X149.300 Y76.600
G1 X149.400 Y76.600
G1 X149.500 Y76.600
G1 X149.600 Y76.600
G1 X149.700 Y76.600
G1 X149.800 Y76.600
G1 X149.900 Y76.600
G0 Z1.600 F3000
M400
M204 P600 T600
G1 F1500
G0 X149.900 Y77.900 Z1.600
M400
M204 P200 T200
G1 F600
G1 Z0.000 F2500
G1 X149.800 Y77.900
G1 X149.700 Y77.900
G1 X149.600 Y77.900
G1 X149.500 Y77.900
G1 X149.400 Y77.900
G1 X149.300 Y77.900
G1 X149.200 Y77.900
G1 X149.100 Y77.900
G1 X149.000 Y77.900
G1 X148.900 Y77.900
G1 X148.800 Y77.900
G1 X148.700 Y77.900
G1 X148.600 Y77.900
G1 X148.500 Y77.900
G1 X148.400 Y77.900
G1 X148.300 Y77.900
G1 X148.200 Y77.900
G1 X148.100 Y77.900
G1 X148.000 Y77.900
G1 X147.900 Y77.900
G1 X147.800 Y77.900
G1 X147.700 Y77.900
G1 X147.600 Y77.900
G1 X147.500 Y77.900
G1 X147.400 Y77.900
G1 X147.300 Y77.900
G1 X147.200 Y77.900
G1 X147.100 Y77.900
G1 X147.000 Y77.900
G1 X146.900 Y77.900
G1 X146.800 Y77.900
G1 X146.700 Y77.900
G1 X146.600 Y77.900
G1 X146.500 Y77.900
G1 X146.400 Y77.900
G1 X146.300 Y77.900
G1 X146.200 Y77.900
G1 X146.100 Y77.900
G1 X146.000 Y77.900
G1 X145.900 Y77.900
G1 X145.800 Y77.900
G1 X145.700 Y77.900
G1 X145.600 Y77.900
G1 X145.500 Y77.900
G1 X145.400 Y77.900
G1 X145.300 Y77.900
G1 X145.200 Y77.900
G1 X145.100 Y77.900
G1 X145.000 Y77.900
G1 X144.900 Y77.900
G1 X144.800 Y77.900
G1 X144.700 Y77.900
G1 X144.600 Y77.900
G1 X144.500 Y77.900
G1 X144.400 Y77.900
G1 X144.300 Y77.900
G1 X144.200 Y77.900
G1 X144.100 Y77.900
G1 X144.000 Y77.900
G1 X143.900 Y77.900
G1 X143.800 Y77.900
G1 X143.700 Y77.900
G1 X143.600 Y77.900
G1 X143.500 Y77.900
G1 X143.400 Y77.900
G1 X143.300 Y77.900
G1 X143.200 Y77.900
G1 X143.100 Y77.900
G1 X143.000 Y77.900
G1 X142.900 Y77.900
G1 X142.800 Y77.900
G1 X142.700 Y77.900
G1 X142.600 Y77.900
G1 X142.500 Y77.900
G1 X142.400 Y77.900
G1 X142.300 Y77.900
G1 X142.200 Y77.900
G1 X142.100 Y77.900
G1 X142.000 Y77.900
G1 X141.900 Y77.900
G1 X141.800 Y77.900
G1 X141.700 Y77.900
G1 X141.600 Y77.900
G1 X141.500 Y77.900
G1 X141.400 Y77.900
G1 X141.300 Y77.900
G1 X141.200 Y77.900
G1 X141.100 Y77.900
G1 X141.000 Y77.900
G1 X140.900 Y77.900
G1 X140.800 Y77.900
G1 X140.700 Y77.900
G1 X140.600 Y77.900
G1 X140.500 Y77.900
G1 X140.400 Y77.900
G1 X140.300 Y77.900
G1 X140.200 Y77.900
G1 X140.100 Y77.900
G1 X140.000 Y77.900
G1 X139.900 Y77.900
G1 X139.800 Y77.900
G1 X139.700 Y77.900
G1 X139.600 Y77.900
G1 X139.500 Y77.900
G1 X139.400 Y77.900
G1 X139.300 Y77.900
G1 X139.200 Y77.900
G1 X139.100 Y77.900
G1 X139.000 Y77.900
G1 X138.900 Y77.900
G1 X138.800 Y77.900
G1 X138.700 Y77.900
G1 X138.600 Y77.900
G1 X138.500 Y77.900
G1 X138.400 Y77.900
G1 X138.300 Y77.900
G1 X138.200 Y77.900
G1 X138.100 Y77.900
G1 X138.000 Y77.900
G1 X137.900 Y77.900
G1 X137.800 Y77.900
G1 X137.700 Y77.900
G1 X137.600 Y77.900
G1 X137.500 Y77.900
G1 X137.400 Y77.900
G1 X137.300 Y77.900
G1 X137.200 Y77.900
G1 X137.100 Y77.900
G1 X137.000 Y77.900
G1 X136.900 Y77.900
G1 X136.800 Y77.900
G1 X136.700 Y77.900
G1 X136.600 Y77.900
G1 X136.500 Y77.900
G1 X136.400 Y77.900
G1 X136.300 Y77.900
G1 X136.200 Y77.900
G1 X136.100 Y77.900
G1 X136.000 Y77.900
G1 X135.900 Y77.900
G1 X135.800 Y77.900
G1 X135.700 Y77.900
G1 X135.600 Y77.900
G1 X135.500 Y77.900
G1 X135.400 Y77.900
G1 X135.300 Y77.900
G1 X135.200 Y77.900
G1 X135.100 Y77.900
G1 X135.000 Y77.900
G1 X134.900 Y77.900
G1 X134.800 Y77.900
G1 X134.700 Y77.900
G1 X134.600 Y77.900
G1 X134.500 Y77.900
G1 X134.400 Y77.900
G1 X134.300 Y77.900
G1 X134.200 Y77.900
G1 X134.100 Y77.900
G1 X134.000 Y77.900
G1 X133.900 Y77.900
G1 X133.800 Y77.900
G1 X133.700 Y77.900
G1 X133.600 Y77.900
G1 X133.500 Y77.900
G1 X133.400 Y77.900
G1 X133.300 Y77.900
G1 X133.200 Y77.900
G1 X133.100 Y77.900
G1 X133.000 Y77.900
G1 X132.900 Y77.900
G1 X132.800 Y77.900
G1 X132.700 Y77.900
G1 X132.600 Y77.900
G1 X132.500 Y77.900
G1 X132.400 Y77.900
G1 X132.300 Y77.900
G1 X132.200 Y77.900
G1 X132.100 Y77.900
G1 X132.000 Y77.900
G1 X131.900 Y77.900
G1 X131.800 Y77.900
G1 X131.700 Y77.900
G1 X131.600 Y77.900
G1 X131.500 Y77.900
G1 X131.400 Y77.900
G1 X131.300 Y77.900
G1 X131.200 Y77.900
G1 X131.100 Y77.900
G1 X131.000 Y77.900
G1 X130.900 Y77.900
G1 X130.800 Y77.900
G1 X130.700 Y77.900
G0 Z1.600 F3000
M400
M204 P600 T600
G1 F1500
G0 X133.900 Y57.100 Z1.600
M400
M204 P200 T200
G1 F600
G1 Z0.000 F2500
G1 X134.000 Y57.100
G1 X134.100 Y57.100
G1 X134.200 Y57.100
G1 X134.300 Y57.100
G1 X134.400 Y57.100
G1 X134.500 Y57.100
G1 X134.600 Y57.100
G1 X134.700 Y57.100
G1 X134.800 Y57.100
G1 X134.900 Y57.100
G1 X135.000 Y57.100
G1 X135.100 Y57.100
G1 X135.200 Y57.100
G1 X135.300 Y57.100
G1 X135.400 Y57.100
G1 X135.500 Y57.100
G1 X135.600 Y57.100
G1 X135.700 Y57.100
G1 X135.800 Y57.100
G1 X135.900 Y57.100
G1 X136.000 Y57.100
G1 X136.100 Y57.100
G1 X136.200 Y57.100
G1 X136.300 Y57.100
G1 X136.400 Y57.100
G1 X136.500 Y57.100
G1 X136.600 Y57.100
G1 X136.700 Y57.100
G1 X136.800 Y57.100
G1 X136.900 Y57.100
G1 X137.000 Y57.100
G1 X137.100 Y57.100
G1 X137.200 Y57.100
G1 X137.300 Y57.100
G1 X137.400 Y57.100
G1 X137.500 Y57.100
G1 X137.600 Y57.100
G1 X137.700 Y57.100
G1 X137.800 Y57.100
G1 X137.900 Y57.100
G1 X138.000 Y57.100
G1 X138.100 Y57.100
G1 X138.200 Y57.100
G1 X138.300 Y57.100
G1 X138.400 Y57.100
G1 X138.500 Y57.100
G1 X138.600 Y57.100
G1 X138.700 Y57.100
G1 X138.800 Y57.100
G1 X138.900 Y57.100
G1 X139.000 Y57.100
G1 X139.100 Y57.100
G1 X139.200 Y57.100
G1 X139.300 Y57.100
G1 X139.400 Y57.100
G1 X139.500 Y57.100
G1 X139.600 Y57.100
G1 X139.700 Y57.100
G1 X139.800 Y57.100
G1 X139.900 Y57.100
G1 X140.000 Y57.100
G1 X140.100 Y57.100
G1 X140.200 Y57.100
G1 X140.300 Y57.100
G1 X140.400 Y57.100
G1 X140.500 Y57.100
G1 X140.600 Y57.100
G1 X140.700 Y57.100
G1 X140.800 Y57.100
G1 X140.900 Y57.100
G1 X141.000 Y57.100
G1 X141.100 Y57.100
G1 X141.200 Y57.100
G1 X141.300 Y57.100
G1 X141.400 Y57.100
G1 X141.500 Y57.100
G1 X141.600 Y57.100
G1 X141.700 Y57.100
G0 Z1.600 F3000

; --- CIKEL NAMAKANJA ---
G0 Z1.600 F3000
M400
M204 P600 T600
G1 F1500
G0 X10.864 Y0.000 Z10.000
G1 Z0.000 F3000
G1 X10.864 Y0.000 F2500
G1 X10.864 Y2.500 F2500
G1 X5.864 Y0.000 F2500
G1 X10.864 Y0.000 F2500
G0 Z5.000 F3000
G0 X29.589 Y6.570
G0 Z10.000 F3000
G0 X141.800 Y57.100 Z1.600
M400
M204 P200 T200
G1 F600
G1 Z0.000 F2500
G1 X141.800 Y57.100
G1 X141.900 Y57.100
G1 X142.000 Y57.100
G1 X142.100 Y57.100
G1 X142.200 Y57.100
G1 X142.300 Y57.100
G1 X142.400 Y57.100
G1 X142.500 Y57.100
G1 X142.600 Y57.100
G1 X142.700 Y57.100
G1 X142.800 Y57.100
G1 X142.900 Y57.100
G1 X143.000 Y57.100
G1 X143.100 Y57.100
G1 X143.200 Y57.100
G1 X143.300 Y57.100
G1 X143.400 Y57.100
G1 X143.500 Y57.100
G1 X143.600 Y57.100
G1 X143.700 Y57.100
G1 X143.800 Y57.100
G1 X143.900 Y57.100
G1 X144.000 Y57.100
G1 X144.100 Y57.100
G1 X144.200 Y57.100
G1 X144.300 Y57.100
G1 X144.400 Y57.100
G1 X144.500 Y57.100
G1 X144.600 Y57.100
G1 X144.700 Y57.100
G1 X144.800 Y57.100
G1 X144.900 Y57.100
G1 X145.000 Y57.100
G1 X145.100 Y57.100
G1 X145.200 Y57.100
G1 X145.300 Y57.100
G1 X145.400 Y57.100
G1 X145.500 Y57.100
G1 X145.600 Y57.100
G1 X145.700 Y57.100
G1 X145.800 Y57.100
G1 X145.900 Y57.100
G1 X146.000 Y57.100
G1 X146.100 Y57.100
G1 X146.200 Y57.100
G1 X146.300 Y57.100
G1 X146.400 Y57.100
G1 X146.500 Y57.100
G1 X146.600 Y57.100
G1 X146.700 Y57.100
G1 X146.800 Y57.100
G1 X146.900 Y57.100
G1 X147.000 Y57.100
G1 X147.100 Y57.100
G1 X147.200 Y57.100
G1 X147.300 Y57.100
G1 X147.400 Y57.100
G1 X147.500 Y57.100
G1 X147.600 Y57.100
G1 X147.700 Y57.100
G1 X147.800 Y57.100
G1 X147.900 Y57.100
G1 X148.000 Y57.100
G1 X148.100 Y57.100
G1 X148.200 Y57.100
G1 X148.300 Y57.100
G1 X148.400 Y57.100
G1 X148.500 Y57.100
G1 X148.600 Y57.100
G1 X148.700 Y57.100
G1 X148.800 Y57.100
G1 X148.900 Y57.100
G1 X149.000 Y57.100
G1 X149.100 Y57.100
G1 X149.200 Y57.100
G1 X149.300 Y57.100
G1 X149.400 Y57.100
G1 X149.500 Y57.100
G1 X149.600 Y57.100
G1 X149.700 Y57.100
G1 X149.800 Y57.100
G1 X149.900 Y57.100
G0 Z1.600 F3000
M400
M204 P600 T600
G1 F1500
G0 X149.900 Y55.800 Z1.600
M400
M204 P200 T200
G1 F600
G1 Z0.000 F2500
G1 X149.800 Y55.800
G1 X149.700 Y55.800
G1 X149.600 Y55.800
G1 X149.500 Y55.800
G1 X149.400 Y55.800
G1 X149.300 Y55.800
G1 X149.200 Y55.800
G1 X149.100 Y55.800
G1 X149.000 Y55.800
G1 X148.900 Y55.800
G1 X148.800 Y55.800
G1 X148.700 Y55.800
G1 X148.600 Y55.800
G1 X148.500 Y55.800
G1 X148.400 Y55.800
G1 X148.300 Y55.800
G1 X148.200 Y55.800
G1 X148.100 Y55.800
G1 X148.000 Y55.800
G1 X147.900 Y55.800
G1 X147.800 Y55.800
G1 X147.700 Y55.800
G1 X147.600 Y55.800
G1 X147.500 Y55.800
G1 X147.400 Y55.800
G1 X147.300 Y55.800
G1 X147.200 Y55.800
G1 X147.100 Y55.800
G1 X147.000 Y55.800
G1 X146.900 Y55.800
G1 X146.800 Y55.800
G1 X146.700 Y55.800
G1 X146.600 Y55.800
G1 X146.500 Y55.800
G1 X146.400 Y55.800
G1 X146.300 Y55.800
G1 X146.200 Y55.800
G1 X146.100 Y55.800
G1 X146.000 Y55.800
G1 X145.900 Y55.800
G1 X145.800 Y55.800
G1 X145.700 Y55.800
G1 X145.600 Y55.800
G1 X145.500 Y55.800
G1 X145.400 Y55.800
G1 X145.300 Y55.800
G1 X145.200 Y55.800
G1 X145.100 Y55.800
G1 X145.000 Y55.800
G1 X144.900 Y55.800
G1 X144.800 Y55.800
G1 X144.700 Y55.800
G1 X144.600 Y55.800
G1 X144.500 Y55.800
G1 X144.400 Y55.800
G1 X144.300 Y55.800
G1 X144.200 Y55.800
G1 X144.100 Y55.800
G1 X144.000 Y55.800
G1 X143.900 Y55.800
G1 X143.800 Y55.800
G1 X143.700 Y55.800
G1 X143.600 Y55.800
G1 X143.500 Y55.800
G1 X143.400 Y55.800
G1 X143.300 Y55.800
G1 X143.200 Y55.800
G1 X143.100 Y55.800
G1 X143.000 Y55.800
G1 X142.900 Y55.800
G1 X142.800 Y55.800
G1 X142.700 Y55.800
G1 X142.600 Y55.800
G1 X142.500 Y55.800
G1 X142.400 Y55.800
G1 X142.300 Y55.800
G1 X142.200 Y55.800
G1 X142.100 Y55.800
G1 X142.000 Y55.800
G1 X141.900 Y55.800
G1 X141.800 Y55.800
G1 X141.700 Y55.800
G1 X141.600 Y55.800
G1 X141.500 Y55.800
G1 X141.400 Y55.800
G1 X141.300 Y55.800
G1 X141.200 Y55.800
G1 X141.100 Y55.800
G1 X141.000 Y55.800
G1 X140.900 Y55.800
G1 X140.800 Y55.800
G1 X140.700 Y55.800
G1 X140.600 Y55.800
G1 X140.500 Y55.800
G1 X140.400 Y55.800
G1 X140.300 Y55.800
G1 X140.200 Y55.800
G1 X140.100 Y55.800
G1 X140.000 Y55.800
G1 X139.900 Y55.800
G1 X139.800 Y55.800
G1 X139.700 Y55.800
G1 X139.600 Y55.800
G1 X139.500 Y55.800
G1 X139.400 Y55.800
G1 X139.300 Y55.800
G1 X139.200 Y55.800
G1 X139.100 Y55.800
G1 X139.000 Y55.800
G1 X138.900 Y55.800
G1 X138.800 Y55.800
G1 X138.700 Y55.800
G1 X138.600 Y55.800
G1 X138.500 Y55.800
G1 X138.400 Y55.800
G1 X138.300 Y55.800
G1 X138.200 Y55.800
G1 X138.100 Y55.800
G1 X138.000 Y55.800
G1 X137.900 Y55.800
G1 X137.800 Y55.800
G1 X137.700 Y55.800
G1 X137.600 Y55.800
G1 X137.500 Y55.800
G1 X137.400 Y55.800
G1 X137.300 Y55.800
G1 X137.200 Y55.800
G1 X137.100 Y55.800
G1 X137.000 Y55.800
G1 X136.900 Y55.800
G1 X136.800 Y55.800
G1 X136.700 Y55.800
G1 X136.600 Y55.800
G1 X136.500 Y55.800
G1 X136.400 Y55.800
G1 X136.300 Y55.800
G1 X136.200 Y55.800
G1 X136.100 Y55.800
G1 X136.000 Y55.800
G1 X135.900 Y55.800
G1 X135.800 Y55.800
G1 X135.700 Y55.800
G1 X135.600 Y55.800
G1 X135.500 Y55.800
G1 X135.400 Y55.800
G1 X135.300 Y55.800
G1 X135.200 Y55.800
G1 X135.100 Y55.800
G1 X135.000 Y55.800
G1 X134.900 Y55.800
G1 X134.800 Y55.800
G1 X134.700 Y55.800
G1 X134.600 Y55.800
G1 X134.500 Y55.800
G1 X134.400 Y55.800
G1 X134.300 Y55.800
G1 X134.200 Y55.800
G1 X134.100 Y55.800
G1 X134.000 Y55.800
G1 X133.900 Y55.800
G1 X133.800 Y55.800
G1 X133.700 Y55.800
G1 X133.600 Y55.800
G1 X133.500 Y55.800
G1 X133.400 Y55.800
G1 X133.300 Y55.800
G1 X133.200 Y55.800
G1 X133.100 Y55.800
G1 X133.000 Y55.800
G1 X132.900 Y55.800
G1 X132.800 Y55.800
G1 X132.700 Y55.800
G1 X132.600 Y55.800
G1 X132.500 Y55.800
G1 X132.400 Y55.800
G1 X132.300 Y55.800
G1 X132.200 Y55.800
G0 Z1.600 F3000
M400
M204 P600 T600
G1 F1500
G0 X131.300 Y57.100 Z1.600
M400
M204 P200 T200
G1 F600
G1 Z0.000 F2500
G1 X131.200 Y57.100
G1 X131.100 Y57.100
G1 X131.000 Y57.100
G1 X130.900 Y57.100
G0 Z1.600 F3000
M400
M204 P600 T600
G1 F1500
G0 X127.700 Y58.400 Z1.600
M400
M204 P200 T200
G1 F600
G1 Z0.000 F2500
G1 X127.800 Y58.400
G1 X127.900 Y58.400
G1 X128.000 Y58.400
G1 X128.100 Y58.400
G1 X128.200 Y58.400
G1 X128.300 Y58.400
G1 X128.400 Y58.400
G1 X128.500 Y58.400
G1 X128.600 Y58.400
G1 X128.700 Y58.400
G1 X128.800 Y58.400
G1 X128.900 Y58.400
G1 X129.000 Y58.400
G1 X129.100 Y58.400
G1 X129.200 Y58.400
G1 X129.300 Y58.400
G1 X129.400 Y58.400
G1 X129.500 Y58.400
G1 X129.600 Y58.400
G1 X129.700 Y58.400
G1 X129.800 Y58.400
G1 X129.900 Y58.400
G1 X130.000 Y58.400
G1 X130.100 Y58.400
G1 X130.200 Y58.400
G1 X130.300 Y58.400
G1 X130.400 Y58.400
G1 X130.500 Y58.400
G1 X130.600 Y58.400
G1 X130.700 Y58.400
G1 X130.800 Y58.400
G1 X130.900 Y58.400
G1 X131.000 Y58.400
G1 X131.100 Y58.400
G1 X131.200 Y58.400
G1 X131.300 Y58.400
G1 X131.400 Y58.400
G1 X131.500 Y58.400
G1 X131.600 Y58.400
G1 X131.700 Y58.400
G1 X131.800 Y58.400
G1 X131.900 Y58.400
G1 X132.000 Y58.400
G1 X132.100 Y58.400
G1 X132.200 Y58.400
G1 X132.300 Y58.400
G1 X132.400 Y58.400
G1 X132.500 Y58.400
G1 X132.600 Y58.400
G1 X132.700 Y58.400
G1 X132.800 Y58.400
G1 X132.900 Y58.400
G1 X133.000 Y58.400
G1 X133.100 Y58.400
G1 X133.200 Y58.400
G1 X133.300 Y58.400
G1 X133.400 Y58.400
G1 X133.500 Y58.400
G1 X133.600 Y58.400
G1 X133.700 Y58.400
G1 X133.800 Y58.400
G1 X133.900 Y58.400
G1 X134.000 Y58.400
G1 X134.100 Y58.400
G1 X134.200 Y58.400
G1 X134.300 Y58.400
G1 X134.400 Y58.400
G1 X134.500 Y58.400
G1 X134.600 Y58.400
G1 X134.700 Y58.400
G1 X134.800 Y58.400
G1 X134.900 Y58.400
G1 X135.000 Y58.400
G1 X135.100 Y58.400
G1 X135.200 Y58.400
G1 X135.300 Y58.400
G1 X135.400 Y58.400
G1 X135.500 Y58.400
G1 X135.600 Y58.400
G1 X135.700 Y58.400
G1 X135.800 Y58.400
G1 X135.900 Y58.400
G1 X136.000 Y58.400
G1 X136.100 Y58.400
G1 X136.200 Y58.400
G1 X136.300 Y58.400
G1 X136.400 Y58.400
G1 X136.500 Y58.400
G1 X136.600 Y58.400
G1 X136.700 Y58.400
G1 X136.800 Y58.400
G1 X136.900 Y58.400
G1 X137.000 Y58.400
G1 X137.100 Y58.400
G1 X137.200 Y58.400
G1 X137.300 Y58.400
G1 X137.400 Y58.400
G1 X137.500 Y58.400
G1 X137.600 Y58.400
G1 X137.700 Y58.400
G1 X137.800 Y58.400
G1 X137.900 Y58.400
G1 X138.000 Y58.400
G1 X138.100 Y58.400
G1 X138.200 Y58.400
G1 X138.300 Y58.400
G1 X138.400 Y58.400
G1 X138.500 Y58.400
G1 X138.600 Y58.400
G1 X138.700 Y58.400
G1 X138.800 Y58.400
G1 X138.900 Y58.400
G1 X139.000 Y58.400
G1 X139.100 Y58.400
G1 X139.200 Y58.400
G1 X139.300 Y58.400
G1 X139.400 Y58.400
G1 X139.500 Y58.400
G1 X139.600 Y58.400
G1 X139.700 Y58.400
G1 X139.800 Y58.400
G1 X139.900 Y58.400
G1 X140.000 Y58.400
G1 X140.100 Y58.400
G1 X140.200 Y58.400
G1 X140.300 Y58.400
G1 X140.400 Y58.400
G1 X140.500 Y58.400
G1 X140.600 Y58.400
G1 X140.700 Y58.400
G1 X140.800 Y58.400
G1 X140.900 Y58.400
G1 X141.000 Y58.400
G1 X141.100 Y58.400
G1 X141.200 Y58.400
G1 X141.300 Y58.400
G1 X141.400 Y58.400
G1 X141.500 Y58.400
G1 X141.600 Y58.400
G1 X141.700 Y58.400
G1 X141.800 Y58.400
G1 X141.900 Y58.400
G1 X142.000 Y58.400
G1 X142.100 Y58.400
G1 X142.200 Y58.400
G1 X142.300 Y58.400
G1 X142.400 Y58.400
G1 X142.500 Y58.400
G1 X142.600 Y58.400
G1 X142.700 Y58.400
G1 X142.800 Y58.400
G1 X142.900 Y58.400
G1 X143.000 Y58.400
G1 X143.100 Y58.400
G1 X143.200 Y58.400
G1 X143.300 Y58.400
G1 X143.400 Y58.400
G1 X143.500 Y58.400
G1 X143.600 Y58.400
G1 X143.700 Y58.400
G1 X143.800 Y58.400
G1 X143.900 Y58.400
G1 X144.000 Y58.400
G1 X144.100 Y58.400
G1 X144.200 Y58.400
G1 X144.300 Y58.400
G1 X144.400 Y58.400
G1 X144.500 Y58.400
G1 X144.600 Y58.400
G1 X144.700 Y58.400
G1 X144.800 Y58.400
G1 X144.900 Y58.400
G1 X145.000 Y58.400
G1 X145.100 Y58.400
G1 X145.200 Y58.400
G1 X145.300 Y58.400
G1 X145.400 Y58.400
G1 X145.500 Y58.400
G1 X145.600 Y58.400
G1 X145.700 Y58.400
G1 X145.800 Y58.400
G1 X145.900 Y58.400
G1 X146.000 Y58.400
G1 X146.100 Y58.400
G1 X146.200 Y58.400
G1 X146.300 Y58.400
G1 X146.400 Y58.400
G1 X146.500 Y58.400
G1 X146.600 Y58.400
G1 X146.700 Y58.400
G1 X146.800 Y58.400
G1 X146.900 Y58.400
G1 X147.000 Y58.400
G1 X147.100 Y58.400
G1 X147.200 Y58.400
G1 X147.300 Y58.400
G1 X147.400 Y58.400
G1 X147.500 Y58.400
G1 X147.600 Y58.400
G1 X147.700 Y58.400
G1 X147.800 Y58.400
G1 X147.900 Y58.400
G1 X148.000 Y58.400
G1 X148.100 Y58.400
G1 X148.200 Y58.400
G1 X148.300 Y58.400
G1 X148.400 Y58.400
G1 X148.500 Y58.400
G1 X148.600 Y58.400
G1 X148.700 Y58.400
G1 X148.800 Y58.400
G1 X148.900 Y58.400
G1 X149.000 Y58.400
G1 X149.100 Y58.400
G1 X149.200 Y58.400
G1 X149.300 Y58.400
G1 X149.400 Y58.400
G1 X149.500 Y58.400
G1 X149.600 Y58.400
G1 X149.700 Y58.400
G1 X149.800 Y58.400
G1 X149.900 Y58.400
G0 Z1.600 F3000
M400
M204 P600 T600
G1 F1500
G0 X127.100 Y57.100 Z1.600
M400
M204 P200 T200
G1 F600
G1 Z0.000 F2500
G1 X127.000 Y57.100
G1 X126.900 Y57.100
G1 X126.800 Y57.100
G1 X126.700 Y57.100
G0 Z1.600 F3000
M400
M204 P600 T600
G1 F1500
G0 X125.000 Y54.500 Z1.600
M400
M204 P200 T200
G1 F600
G1 Z0.000 F2500
G1 X124.900 Y54.500
G1 X124.800 Y54.500
G0 Z1.600 F3000
M400
M204 P600 T600
G1 F1500
G0 X125.700 Y53.200 Z1.600
M400
M204 P200 T200
G1 F600
G1 Z0.000 F2500
G1 X125.800 Y53.200
G1 X125.900 Y53.200
G1 X126.000 Y53.200
G1 X126.100 Y53.200
G1 X126.200 Y53.200
G1 X126.300 Y53.200
G1 X126.400 Y53.200
G1 X126.500 Y53.200
G1 X126.600 Y53.200
G1 X126.700 Y53.200
G1 X126.800 Y53.200
G1 X126.900 Y53.200
G1 X127.000 Y53.200
G1 X127.100 Y53.200
G1 X127.200 Y53.200
G1 X127.300 Y53.200
G1 X127.400 Y53.200
G1 X127.500 Y53.200
G1 X127.600 Y53.200
G1 X127.700 Y53.200
G1 X127.800 Y53.200
G1 X127.900 Y53.200
G1 X128.000 Y53.200
G1 X128.100 Y53.200
G1 X128.200 Y53.200
G1 X128.300 Y53.200
G1 X128.400 Y53.200
G1 X128.500 Y53.200
G1 X128.600 Y53.200
G1 X128.700 Y53.200
G1 X128.800 Y53.200
G1 X128.900 Y53.200
G1 X129.000 Y53.200
G1 X129.100 Y53.200
G1 X129.200 Y53.200
G1 X129.300 Y53.200
G1 X129.400 Y53.200
G1 X129.500 Y53.200
G1 X129.600 Y53.200
G1 X129.700 Y53.200
G1 X129.800 Y53.200
G1 X129.900 Y53.200
G1 X130.000 Y53.200
G1 X130.100 Y53.200
G1 X130.200 Y53.200
G1 X130.300 Y53.200
G1 X130.400 Y53.200
G1 X130.500 Y53.200
G1 X130.600 Y53.200
G1 X130.700 Y53.200
G1 X130.800 Y53.200
G1 X130.900 Y53.200
G1 X131.000 Y53.200
G1 X131.100 Y53.200
G1 X131.200 Y53.200
G1 X131.300 Y53.200
G1 X131.400 Y53.200
G1 X131.500 Y53.200
G1 X131.600 Y53.200
G1 X131.700 Y53.200
G1 X131.800 Y53.200
G1 X131.900 Y53.200
G1 X132.000 Y53.200
G1 X132.100 Y53.200
G1 X132.200 Y53.200
G1 X132.300 Y53.200
G1 X132.400 Y53.200
G1 X132.500 Y53.200
G1 X132.600 Y53.200
G1 X132.700 Y53.200
G1 X132.800 Y53.200
G1 X132.900 Y53.200
G1 X133.000 Y53.200
G1 X133.100 Y53.200
G1 X133.200 Y53.200
G1 X133.300 Y53.200
G1 X133.400 Y53.200
G1 X133.500 Y53.200
G1 X133.600 Y53.200
G1 X133.700 Y53.200
G1 X133.800 Y53.200
G1 X133.900 Y53.200
G1 X134.000 Y53.200
G1 X134.100 Y53.200
G1 X134.200 Y53.200
G1 X134.300 Y53.200
G1 X134.400 Y53.200
G1 X134.500 Y53.200
G1 X134.600 Y53.200
G1 X134.700 Y53.200
G1 X134.800 Y53.200
G1 X134.900 Y53.200
G1 X135.000 Y53.200
G1 X135.100 Y53.200
G1 X135.200 Y53.200
G1 X135.300 Y53.200
G1 X135.400 Y53.200
G1 X135.500 Y53.200
G1 X135.600 Y53.200
G1 X135.700 Y53.200
G1 X135.800 Y53.200
G1 X135.900 Y53.200
G1 X136.000 Y53.200
G1 X136.100 Y53.200
G1 X136.200 Y53.200
G1 X136.300 Y53.200
G1 X136.400 Y53.200
G1 X136.500 Y53.200
G1 X136.600 Y53.200
G1 X136.700 Y53.200
G1 X136.800 Y53.200
G1 X136.900 Y53.200
G1 X137.000 Y53.200
G1 X137.100 Y53.200
G1 X137.200 Y53.200
G1 X137.300 Y53.200
G1 X137.400 Y53.200
G1 X137.500 Y53.200
G1 X137.600 Y53.200
G1 X137.700 Y53.200
G1 X137.800 Y53.200
G1 X137.900 Y53.200
G1 X138.000 Y53.200
G1 X138.100 Y53.200
G1 X138.200 Y53.200
G1 X138.300 Y53.200
G1 X138.400 Y53.200
G1 X138.500 Y53.200
G1 X138.600 Y53.200
G1 X138.700 Y53.200
G1 X138.800 Y53.200
G1 X138.900 Y53.200
G1 X139.000 Y53.200
G1 X139.100 Y53.200
G1 X139.200 Y53.200
G1 X139.300 Y53.200
G1 X139.400 Y53.200
G1 X139.500 Y53.200
G1 X139.600 Y53.200
G1 X139.700 Y53.200
G1 X139.800 Y53.200
G1 X139.900 Y53.200
G1 X140.000 Y53.200
G1 X140.100 Y53.200
G1 X140.200 Y53.200
G1 X140.300 Y53.200
G1 X140.400 Y53.200
G1 X140.500 Y53.200
G1 X140.600 Y53.200
G1 X140.700 Y53.200
G1 X140.800 Y53.200
G1 X140.900 Y53.200
G1 X141.000 Y53.200
G1 X141.100 Y53.200
G1 X141.200 Y53.200
G1 X141.300 Y53.200
G1 X141.400 Y53.200
G1 X141.500 Y53.200
G1 X141.600 Y53.200
G1 X141.700 Y53.200
G1 X141.800 Y53.200
G1 X141.900 Y53.200
G1 X142.000 Y53.200
G1 X142.100 Y53.200
G1 X142.200 Y53.200
G1 X142.300 Y53.200
G1 X142.400 Y53.200
G1 X142.500 Y53.200
G1 X142.600 Y53.200
G1 X142.700 Y53.200
G1 X142.800 Y53.200
G1 X142.900 Y53.200
G1 X143.000 Y53.200
G1 X143.100 Y53.200
G1 X143.200 Y53.200
G1 X143.300 Y53.200
G1 X143.400 Y53.200
G1 X143.500 Y53.200
G1 X143.600 Y53.200
G1 X143.700 Y53.200
G1 X143.800 Y53.200
G1 X143.900 Y53.200
G1 X144.000 Y53.200
G1 X144.100 Y53.200
G1 X144.200 Y53.200
G1 X144.300 Y53.200
G1 X144.400 Y53.200
G1 X144.500 Y53.200
G1 X144.600 Y53.200
G1 X144.700 Y53.200
G1 X144.800 Y53.200
G1 X144.900 Y53.200
G1 X145.000 Y53.200
G1 X145.100 Y53.200
G1 X145.200 Y53.200
G1 X145.300 Y53.200
G1 X145.400 Y53.200
G1 X145.500 Y53.200
G1 X145.600 Y53.200
G1 X145.700 Y53.200
G1 X145.800 Y53.200
G1 X145.900 Y53.200
G1 X146.000 Y53.200
G1 X146.100 Y53.200
G1 X146.200 Y53.200
G1 X146.300 Y53.200
G1 X146.400 Y53.200
G1 X146.500 Y53.200
G1 X146.600 Y53.200
G1 X146.700 Y53.200
G1 X146.800 Y53.200
G1 X146.900 Y53.200
G1 X147.000 Y53.200
G1 X147.100 Y53.200
G1 X147.200 Y53.200
G1 X147.300 Y53.200
G1 X147.400 Y53.200
G1 X147.500 Y53.200
G1 X147.600 Y53.200
G1 X147.700 Y53.200
G1 X147.800 Y53.200
G1 X147.900 Y53.200
G1 X148.000 Y53.200
G1 X148.100 Y53.200
G1 X148.200 Y53.200
G1 X148.300 Y53.200
G1 X148.400 Y53.200
G1 X148.500 Y53.200
G1 X148.600 Y53.200
G1 X148.700 Y53.200
G1 X148.800 Y53.200
G1 X148.900 Y53.200
G1 X149.000 Y53.200
G1 X149.100 Y53.200
G1 X149.200 Y53.200
G1 X149.300 Y53.200
G1 X149.400 Y53.200
G1 X149.500 Y53.200
G1 X149.600 Y53.200
G1 X149.700 Y53.200
G1 X149.800 Y53.200
G1 X149.900 Y53.200
G0 Z1.600 F3000
M400
M204 P600 T600
G1 F1500
G0 X149.900 Y51.900 Z1.600
M400
M204 P200 T200
G1 F600
G1 Z0.000 F2500
G1 X149.800 Y51.900
G1 X149.700 Y51.900
G1 X149.600 Y51.900
G1 X149.500 Y51.900
G1 X149.400 Y51.900
G1 X149.300 Y51.900
G1 X149.200 Y51.900
G1 X149.100 Y51.900
G1 X149.000 Y51.900
G1 X148.900 Y51.900
G1 X148.800 Y51.900
G1 X148.700 Y51.900
G1 X148.600 Y51.900
G1 X148.500 Y51.900
G1 X148.400 Y51.900
G1 X148.300 Y51.900
G1 X148.200 Y51.900
G1 X148.100 Y51.900
G1 X148.000 Y51.900
G1 X147.900 Y51.900
G1 X147.800 Y51.900
G1 X147.700 Y51.900
G1 X147.600 Y51.900
G1 X147.500 Y51.900
G1 X147.400 Y51.900
G1 X147.300 Y51.900
G1 X147.200 Y51.900
G1 X147.100 Y51.900
G1 X147.000 Y51.900
G1 X146.900 Y51.900
G1 X146.800 Y51.900
G1 X146.700 Y51.900
G1 X146.600 Y51.900
G1 X146.500 Y51.900
G1 X146.400 Y51.900
G1 X146.300 Y51.900
G1 X146.200 Y51.900
G1 X146.100 Y51.900
G1 X146.000 Y51.900
G1 X145.900 Y51.900
G1 X145.800 Y51.900
G1 X145.700 Y51.900
G1 X145.600 Y51.900
G1 X145.500 Y51.900
G1 X145.400 Y51.900
G1 X145.300 Y51.900
G1 X145.200 Y51.900
G1 X145.100 Y51.900
G1 X145.000 Y51.900
G1 X144.900 Y51.900
G1 X144.800 Y51.900
G1 X144.700 Y51.900
G1 X144.600 Y51.900
G1 X144.500 Y51.900
G1 X144.400 Y51.900
G1 X144.300 Y51.900
G1 X144.200 Y51.900
G1 X144.100 Y51.900
G1 X144.000 Y51.900
G1 X143.900 Y51.900
G1 X143.800 Y51.900
G1 X143.700 Y51.900
G1 X143.600 Y51.900
G1 X143.500 Y51.900
G1 X143.400 Y51.900
G1 X143.300 Y51.900
G1 X143.200 Y51.900
G1 X143.100 Y51.900
G1 X143.000 Y51.900
G1 X142.900 Y51.900
G1 X142.800 Y51.900
G1 X142.700 Y51.900
G1 X142.600 Y51.900
G1 X142.500 Y51.900
G1 X142.400 Y51.900
G1 X142.300 Y51.900
G1 X142.200 Y51.900
G1 X142.100 Y51.900
G1 X142.000 Y51.900
G1 X141.900 Y51.900
G1 X141.800 Y51.900
G1 X141.700 Y51.900
G1 X141.600 Y51.900
G1 X141.500 Y51.900
G0 Z1.600 F3000

; --- CIKEL NAMAKANJA ---
G0 Z1.600 F3000
M400
M204 P600 T600
G1 F1500
G0 X13.688 Y4.402 Z10.000
G1 Z0.000 F3000
G1 X13.688 Y4.402 F2500
G1 X13.688 Y6.902 F2500
G1 X8.688 Y4.402 F2500
G1 X13.688 Y0.000 F2500
G0 Z5.000 F3000
G0 X29.801 Y6.077
G0 Z10.000 F3000
G0 X141.400 Y51.900 Z1.600
M400
M204 P200 T200
G1 F600
G1 Z0.000 F2500
G1 X141.400 Y51.900
G1 X141.300 Y51.900
G1 X141.200 Y51.900
G1 X141.100 Y51.900
G1 X141.000 Y51.900
G1 X140.900 Y51.900
G1 X140.800 Y51.900
G1 X140.700 Y51.900
G1 X140.600 Y51.900
G1 X140.500 Y51.900
G1 X140.400 Y51.900
G1 X140.300 Y51.900
G1 X140.200 Y51.900
G1 X140.100 Y51.900
G1 X140.000 Y51.900
G1 X139.900 Y51.900
G1 X139.800 Y51.900
G1 X139.700 Y51.900
G1 X139.600 Y51.900
G1 X139.500 Y51.900
G1 X139.400 Y51.900
G1 X139.300 Y51.900
G1 X139.200 Y51.900
G1 X139.100 Y51.900
G1 X139.000 Y51.900
G1 X138.900 Y51.900
G1 X138.800 Y51.900
G1 X138.700 Y51.900
G1 X138.600 Y51.900
G1 X138.500 Y51.900
G1 X138.400 Y51.900
G1 X138.300 Y51.900
G1 X138.200 Y51.900
G1 X138.100 Y51.900
G1 X138.000 Y51.900
G1 X137.900 Y51.900
G1 X137.800 Y51.900
G1 X137.700 Y51.900
G1 X137.600 Y51.900
G1 X137.500 Y51.900
G1 X137.400 Y51.900
G1 X137.300 Y51.900
G1 X137.200 Y51.900
G1 X137.100 Y51.900
G1 X137.000 Y51.900
G1 X136.900 Y51.900
G1 X136.800 Y51.900
G1 X136.700 Y51.900
G1 X136.600 Y51.900
G1 X136.500 Y51.900
G1 X136.400 Y51.900
G1 X136.300 Y51.900
G1 X136.200 Y51.900
G1 X136.100 Y51.900
G1 X136.000 Y51.900
G1 X135.900 Y51.900
G1 X135.800 Y51.900
G1 X135.700 Y51.900
G1 X135.600 Y51.900
G1 X135.500 Y51.900
G1 X135.400 Y51.900
G1 X135.300 Y51.900
G1 X135.200 Y51.900
G1 X135.100 Y51.900
G1 X135.000 Y51.900
G1 X134.900 Y51.900
G1 X134.800 Y51.900
G1 X134.700 Y51.900
G1 X134.600 Y51.900
G1 X134.500 Y51.900
G1 X134.400 Y51.900
G1 X134.300 Y51.900
G1 X134.200 Y51.900
G1 X134.100 Y51.900
G1 X134.000 Y51.900
G1 X133.900 Y51.900
G1 X133.800 Y51.900
G1 X133.700 Y51.900
G1 X133.600 Y51.900
G1 X133.500 Y51.900
G1 X133.400 Y51.900
G1 X133.300 Y51.900
G1 X133.200 Y51.900
G1 X133.100 Y51.900
G1 X133.000 Y51.900
G1 X132.900 Y51.900
G1 X132.800 Y51.900
G1 X132.700 Y51.900
G1 X132.600 Y51.900
G1 X132.500 Y51.900
G1 X132.400 Y51.900
G1 X132.300 Y51.900
G1 X132.200 Y51.900
G1 X132.100 Y51.900
G1 X132.000 Y51.900
G1 X131.900 Y51.900
G1 X131.800 Y51.900
G1 X131.700 Y51.900
G1 X131.600 Y51.900
G1 X131.500 Y51.900
G1 X131.400 Y51.900
G1 X131.300 Y51.900
G1 X131.200 Y51.900
G1 X131.100 Y51.900
G1 X131.000 Y51.900
G1 X130.900 Y51.900
G1 X130.800 Y51.900
G1 X130.700 Y51.900
G1 X130.600 Y51.900
G1 X130.500 Y51.900
G1 X130.400 Y51.900
G1 X130.300 Y51.900
G1 X130.200 Y51.900
G1 X130.100 Y51.900
G1 X130.000 Y51.900
G1 X129.900 Y51.900
G1 X129.800 Y51.900
G1 X129.700 Y51.900
G1 X129.600 Y51.900
G1 X129.500 Y51.900
G1 X129.400 Y51.900
G1 X129.300 Y51.900
G1 X129.200 Y51.900
G1 X129.100 Y51.900
G1 X129.000 Y51.900
G1 X128.900 Y51.900
G1 X128.800 Y51.900
G1 X128.700 Y51.900
G1 X128.600 Y51.900
G1 X128.500 Y51.900
G1 X128.400 Y51.900
G1 X128.300 Y51.900
G1 X128.200 Y51.900
G1 X128.100 Y51.900
G1 X128.000 Y51.900
G1 X127.900 Y51.900
G1 X127.800 Y51.900
G1 X127.700 Y51.900
G1 X127.600 Y51.900
G1 X127.500 Y51.900
G1 X127.400 Y51.900
G1 X127.300 Y51.900
G1 X127.200 Y51.900
G1 X127.100 Y51.900
G1 X127.000 Y51.900
G1 X126.900 Y51.900
G1 X126.800 Y51.900
G1 X126.700 Y51.900
G1 X126.600 Y51.900
G1 X126.500 Y51.900
G1 X126.400 Y51.900
G1 X126.300 Y51.900
G1 X126.200 Y51.900
G1 X126.100 Y51.900
G1 X126.000 Y51.900
G1 X125.900 Y51.900
G1 X125.800 Y51.900
G0 Z1.600 F3000
M400
M204 P600 T600
G1 F1500
G0 X125.100 Y53.200 Z1.600
M400
M204 P200 T200
G1 F600
G1 Z0.000 F2500
G1 X125.000 Y53.200
G1 X124.900 Y53.200
G1 X124.800 Y53.200
G1 X124.700 Y53.200
G1 X124.600 Y53.200
G1 X124.500 Y53.200
G1 X124.400 Y53.200
G1 X124.300 Y53.200
G1 X124.200 Y53.200
G1 X124.100 Y53.200
G1 X124.000 Y53.200
G1 X123.900 Y53.200
G1 X123.800 Y53.200
G1 X123.700 Y53.200
G1 X123.600 Y53.200
G1 X123.500 Y53.200
G1 X123.400 Y53.200
G0 Z1.600 F3000
M400
M204 P600 T600
G1 F1500
G0 X124.100 Y54.500 Z1.600
M400
M204 P200 T200
G1 F600
G1 Z0.000 F2500
G1 X124.000 Y54.500
G1 X123.900 Y54.500
G1 X123.800 Y54.500
G1 X123.700 Y54.500
G1 X123.600 Y54.500
G1 X123.500 Y54.500
G1 X123.400 Y54.500
G1 X123.300 Y54.500
G1 X123.200 Y54.500
G1 X123.100 Y54.500
G1 X123.000 Y54.500
G1 X122.900 Y54.500
G1 X122.800 Y54.500
G1 X122.700 Y54.500
G1 X122.600 Y54.500
G1 X122.500 Y54.500
G0 Z1.600 F3000
M400
M204 P600 T600
G1 F1500
G0 X121.800 Y54.500 Z1.600
M400
M204 P200 T200
G1 F600
G1 Z0.000 F2500
G1 X121.700 Y54.500
G1 X121.600 Y54.500
G1 X121.500 Y54.500
G0 Z1.600 F3000
M400
M204 P600 T600
G1 F1500
G0 X121.200 Y54.500 Z1.600
M400
M204 P200 T200
G1 F600
G1 Z0.000 F2500
G1 X121.100 Y54.500
G1 X121.000 Y54.500
G1 X120.900 Y54.500
G1 X120.800 Y54.500
G1 X120.700 Y54.500
G1 X120.600 Y54.500
G1 X120.500 Y54.500
G1 X120.400 Y54.500
G0 Z1.600 F3000
M400
M204 P600 T600
G1 F1500
G0 X120.200 Y54.500 Z1.600
M400
M204 P200 T200
G1 F600
G1 Z0.000 F2500
G1 X120.100 Y54.500
G1 X120.000 Y54.500
G1 X119.900 Y54.500
G1 X119.800 Y54.500
G1 X119.700 Y54.500
G1 X119.600 Y54.500
G1 X119.500 Y54.500
G1 X119.400 Y54.500
G1 X119.300 Y54.500
G0 Z1.600 F3000
M400
M204 P600 T600
G1 F1500
G0 X119.500 Y51.900 Z1.600
M400
M204 P200 T200
G1 F600
G1 Z0.000 F2500
G1 X119.600 Y51.900
G1 X119.700 Y51.900
G1 X119.800 Y51.900
G1 X119.900 Y51.900
G1 X120.000 Y51.900
G1 X120.100 Y51.900
G1 X120.200 Y51.900
G1 X120.300 Y51.900
G1 X120.400 Y51.900
G1 X120.500 Y51.900
G1 X120.600 Y51.900
G1 X120.700 Y51.900
G1 X120.800 Y51.900
G1 X120.900 Y51.900
G1 X121.000 Y51.900
G1 X121.100 Y51.900
G1 X121.200 Y51.900
G1 X121.300 Y51.900
G1 X121.400 Y51.900
G0 Z1.600 F3000
M400
M204 P600 T600
G1 F1500
G0 X122.400 Y51.900 Z1.600
M400
M204 P200 T200
G1 F600
G1 Z0.000 F2500
G1 X122.500 Y51.900
G1 X122.600 Y51.900
G1 X122.700 Y51.900
G1 X122.800 Y51.900
G1 X122.900 Y51.900
G1 X123.000 Y51.900
G1 X123.100 Y51.900
G1 X123.200 Y51.900
G1 X123.300 Y51.900
G1 X123.400 Y51.900
G1 X123.500 Y51.900
G1 X123.600 Y51.900
G1 X123.700 Y51.900
G1 X123.800 Y51.900
G1 X123.900 Y51.900
G1 X124.000 Y51.900
G1 X124.100 Y51.900
G1 X124.200 Y51.900
G1 X124.300 Y51.900
G1 X124.400 Y51.900
G1 X124.500 Y51.900
G1 X124.600 Y51.900
G1 X124.700 Y51.900
G1 X124.800 Y51.900
G1 X124.900 Y51.900
G1 X125.000 Y51.900
G1 X125.100 Y51.900
G1 X125.200 Y51.900
G1 X125.300 Y51.900
G0 Z1.600 F3000
M400
M204 P600 T600
G1 F1500
G0 X123.100 Y50.600 Z1.600
M400
M204 P200 T200
G1 F600
G1 Z0.000 F2500
G1 X123.200 Y50.600
G1 X123.300 Y50.600
G1 X123.400 Y50.600
G1 X123.500 Y50.600
G1 X123.600 Y50.600
G1 X123.700 Y50.600
G1 X123.800 Y50.600
G1 X123.900 Y50.600
G1 X124.000 Y50.600
G1 X124.100 Y50.600
G1 X124.200 Y50.600
G1 X124.300 Y50.600
G1 X124.400 Y50.600
G1 X124.500 Y50.600
G1 X124.600 Y50.600
G1 X124.700 Y50.600
G1 X124.800 Y50.600
G1 X124.900 Y50.600
G1 X125.000 Y50.600
G1 X125.100 Y50.600
G1 X125.200 Y50.600
G1 X125.300 Y50.600
G1 X125.400 Y50.600
G1 X125.500 Y50.600
G1 X125.600 Y50.600
G1 X125.700 Y50.600
G1 X125.800 Y50.600
G1 X125.900 Y50.600
G1 X126.000 Y50.600
G1 X126.100 Y50.600
G1 X126.200 Y50.600
G1 X126.300 Y50.600
G1 X126.400 Y50.600
G1 X126.500 Y50.600
G1 X126.600 Y50.600
G1 X126.700 Y50.600
G1 X126.800 Y50.600
G1 X126.900 Y50.600
G1 X127.000 Y50.600
G1 X127.100 Y50.600
G1 X127.200 Y50.600
G1 X127.300 Y50.600
G1 X127.400 Y50.600
G1 X127.500 Y50.600
G1 X127.600 Y50.600
G1 X127.700 Y50.600
G1 X127.800 Y50.600
G1 X127.900 Y50.600
G1 X128.000 Y50.600
G1 X128.100 Y50.600
G1 X128.200 Y50.600
G1 X128.300 Y50.600
G1 X128.400 Y50.600
G1 X128.500 Y50.600
G1 X128.600 Y50.600
G1 X128.700 Y50.600
G1 X128.800 Y50.600
G1 X128.900 Y50.600
G1 X129.000 Y50.600
G1 X129.100 Y50.600
G1 X129.200 Y50.600
G1 X129.300 Y50.600
G1 X129.400 Y50.600
G1 X129.500 Y50.600
G1 X129.600 Y50.600
G1 X129.700 Y50.600
G1 X129.800 Y50.600
G1 X129.900 Y50.600
G1 X130.000 Y50.600
G1 X130.100 Y50.600
G1 X130.200 Y50.600
G1 X130.300 Y50.600
G1 X130.400 Y50.600
G1 X130.500 Y50.600
G1 X130.600 Y50.600
G1 X130.700 Y50.600
G1 X130.800 Y50.600
G1 X130.900 Y50.600
G1 X131.000 Y50.600
G1 X131.100 Y50.600
G1 X131.200 Y50.600
G1 X131.300 Y50.600
G1 X131.400 Y50.600
G1 X131.500 Y50.600
G1 X131.600 Y50.600
G1 X131.700 Y50.600
G1 X131.800 Y50.600
G1 X131.900 Y50.600
G1 X132.000 Y50.600
G1 X132.100 Y50.600
G1 X132.200 Y50.600
G1 X132.300 Y50.600
G1 X132.400 Y50.600
G1 X132.500 Y50.600
G1 X132.600 Y50.600
G1 X132.700 Y50.600
G1 X132.800 Y50.600
G1 X132.900 Y50.600
G1 X133.000 Y50.600
G1 X133.100 Y50.600
G1 X133.200 Y50.600
G1 X133.300 Y50.600
G1 X133.400 Y50.600
G1 X133.500 Y50.600
G1 X133.600 Y50.600
G1 X133.700 Y50.600
G1 X133.800 Y50.600
G1 X133.900 Y50.600
G1 X134.000 Y50.600
G1 X134.100 Y50.600
G1 X134.200 Y50.600
G1 X134.300 Y50.600
G1 X134.400 Y50.600
G1 X134.500 Y50.600
G1 X134.600 Y50.600
G1 X134.700 Y50.600
G1 X134.800 Y50.600
G1 X134.900 Y50.600
G1 X135.000 Y50.600
G1 X135.100 Y50.600
G1 X135.200 Y50.600
G1 X135.300 Y50.600
G1 X135.400 Y50.600
G1 X135.500 Y50.600
G1 X135.600 Y50.600
G1 X135.700 Y50.600
G1 X135.800 Y50.600
G1 X135.900 Y50.600
G1 X136.000 Y50.600
G1 X136.100 Y50.600
G1 X136.200 Y50.600
G1 X136.300 Y50.600
