G90
G21
; === MULTI-COLOR PAINTER GCODE ===
; Generated layers: 2
; Backlash compensation: OFF
; Working area clamping: ON  X[0–1400] Y[0–1400]
; Tutti Frutti mode: ON  stroke 50–100mm  dishes: Color 1 — Red, Color 2 — Teal, Color 3 — Yellow, Color 4 — Purple


; ═══════════════════════════════
; LAYER 1: Color 1 — Red
; Infill: lines
; ═══════════════════════════════


; --- DIP → Color 1 — Red ---
G0 Z4.600 F3000
M400
M204 P12000 T12000
G1 F12000
G0 X15.561 Y0.000 Z31.000
G1 Z0.000 F3000
G1 X15.561 Y0.000 F2500
G1 X15.561 Y2.500 F2500
G1 X10.561 Y0.000 F2500
G1 X15.561 Y0.000 F2500
G0 Z16.000 F3000
G0 X18.169 Y12.580
G0 Z31.000 F3000
G0 X30.000 Y30.800 Z4.600
M400
M204 P12000 T12000
G1 F12000
G0 X30.000 Y30.800 Z4.600
M400
M204 P200 T200
G1 F400
G1 Z0.000 F2500
G1 X30.100 Y30.800
G1 X30.200 Y30.800
G1 X30.300 Y30.800
G1 X30.400 Y30.800
G1 X30.500 Y30.800
G1 X30.600 Y30.800
G1 X30.700 Y30.800
G1 X30.800 Y30.800
G1 X30.900 Y30.800
G1 X31.000 Y30.800
G1 X31.100 Y30.800
G1 X31.200 Y30.800
G1 X31.300 Y30.800
G1 X31.400 Y30.800
G1 X31.500 Y30.800
G1 X31.600 Y30.800
G1 X31.700 Y30.800
G1 X31.800 Y30.800
G1 X31.900 Y30.800
G1 X32.000 Y30.800
G1 X32.100 Y30.800
G1 X32.200 Y30.800
G1 X32.300 Y30.800
G1 X32.400 Y30.800
G1 X32.500 Y30.800
G1 X32.600 Y30.800
G1 X32.700 Y30.800
G1 X32.800 Y30.800
G1 X32.900 Y30.800
G1 X33.000 Y30.800
G1 X33.100 Y30.800
G1 X33.200 Y30.800
G1 X33.300 Y30.800
G1 X33.400 Y30.800
G1 X33.500 Y30.800
G1 X33.600 Y30.800
G1 X33.700 Y30.800
G1 X33.800 Y30.800
G1 X33.900 Y30.800
G1 X34.000 Y30.800
G1 X34.100 Y30.800
G1 X34.200 Y30.800
G1 X34.300 Y30.800
G1 X34.400 Y30.800
G1 X34.500 Y30.800
G1 X34.600 Y30.800
G0 Z4.600 F3000
M400
M204 P12000 T12000
G1 F12000
G0 X37.100 Y30.800 Z4.600
M400
M204 P200 T200
G1 F400
G1 Z0.000 F2500
G1 X37.200 Y30.800
G1 X37.300 Y30.800
G1 X37.400 Y30.800
G1 X37.500 Y30.800
G1 X37.600 Y30.800
G1 X37.700 Y30.800
G1 X37.800 Y30.800
G1 X37.900 Y30.800
G1 X38.000 Y30.800
G0 Z4.600 F3000
M400
M204 P12000 T12000
G1 F12000
G0 X37.700 Y32.100 Z4.600
M400
M204 P200 T200
G1 F400
G1 Z0.000 F2500
G1 X37.800 Y32.100
G1 X37.900 Y32.100
G1 X38.000 Y32.100
G1 X38.100 Y32.100
G1 X38.200 Y32.100
G1 X38.300 Y32.100
G0 Z4.600 F3000
M400
M204 P12000 T12000
G1 F12000
G0 X40.300 Y33.400 Z4.600
M400
M204 P200 T200
G1 F400
G1 Z0.000 F2500
G1 X40.200 Y33.400
G1 X40.100 Y33.400
G1 X40.000 Y33.400
G1 X39.900 Y33.400
G1 X39.800 Y33.400
G1 X39.700 Y33.400
G1 X39.600 Y33.400
G1 X39.500 Y33.400
G1 X39.400 Y33.400
G1 X39.300 Y33.400
G1 X39.200 Y33.400
G1 X39.100 Y33.400
G1 X39.000 Y33.400
G1 X38.900 Y33.400
G1 X38.800 Y33.400
G1 X38.700 Y33.400
G1 X38.600 Y33.400
G1 X38.500 Y33.400
G1 X38.400 Y33.400
G1 X38.300 Y33.400
G1 X38.200 Y33.400
G1 X38.100 Y33.400
G1 X38.000 Y33.400
G1 X37.900 Y33.400
G1 X37.800 Y33.400
G1 X37.700 Y33.400
G1 X37.600 Y33.400
G1 X37.500 Y33.400
G1 X37.400 Y33.400
G1 X37.300 Y33.400
G1 X37.200 Y33.400
G1 X37.100 Y33.400
G1 X37.000 Y33.400
G1 X36.900 Y33.400
G1 X36.800 Y33.400
G1 X36.700 Y33.400
G1 X36.600 Y33.400
G1 X36.500 Y33.400
G1 X36.400 Y33.400
G1 X36.300 Y33.400
G1 X36.200 Y33.400
G1 X36.100 Y33.400
G1 X36.000 Y33.400
G1 X35.900 Y33.400
G1 X35.800 Y33.400
G0 Z4.600 F3000
M400
M204 P12000 T12000
G1 F12000
G0 X41.400 Y32.100 Z4.600
M400
M204 P200 T200
G1 F400
G1 Z0.000 F2500
G1 X41.500 Y32.100
G1 X41.600 Y32.100
G1 X41.700 Y32.100
G1 X41.800 Y32.100
G1 X41.900 Y32.100
G1 X42.000 Y32.100
G1 X42.100 Y32.100
G1 X42.200 Y32.100
G1 X42.300 Y32.100
G1 X42.400 Y32.100
G1 X42.500 Y32.100
G1 X42.600 Y32.100
G1 X42.700 Y32.100
G1 X42.800 Y32.100
G1 X42.900 Y32.100
G1 X43.000 Y32.100
G1 X43.100 Y32.100
G1 X43.200 Y32.100
G1 X43.300 Y32.100
G1 X43.400 Y32.100
G1 X43.500 Y32.100
G1 X43.600 Y32.100
G1 X43.700 Y32.100
G1 X43.800 Y32.100
G1 X43.900 Y32.100
G1 X44.000 Y32.100
G1 X44.100 Y32.100
G1 X44.200 Y32.100
G1 X44.300 Y32.100
G1 X44.400 Y32.100
G1 X44.500 Y32.100
G1 X44.600 Y32.100
G1 X44.700 Y32.100
G1 X44.800 Y32.100
G1 X44.900 Y32.100
G1 X45.000 Y32.100
G1 X45.100 Y32.100
G1 X45.200 Y32.100
G1 X45.300 Y32.100
G1 X45.400 Y32.100
G0 Z4.600 F3000
M400
M204 P12000 T12000
G1 F12000
G0 X47.300 Y33.400 Z4.600
M400
M204 P200 T200
G1 F400
G1 Z0.000 F2500
G1 X47.400 Y33.400
G1 X47.500 Y33.400
G1 X47.600 Y33.400
G1 X47.700 Y33.400
G1 X47.800 Y33.400
G1 X47.900 Y33.400
G1 X48.000 Y33.400
G1 X48.100 Y33.400
G1 X48.200 Y33.400
G1 X48.300 Y33.400
G1 X48.400 Y33.400
G1 X48.500 Y33.400
G1 X48.600 Y33.400
G1 X48.700 Y33.400
G1 X48.800 Y33.400
G1 X48.900 Y33.400
G1 X49.000 Y33.400
G1 X49.100 Y33.400
G1 X49.200 Y33.400
G1 X49.300 Y33.400
G1 X49.400 Y33.400
G1 X49.500 Y33.400
G1 X49.600 Y33.400
G1 X49.700 Y33.400
G1 X49.800 Y33.400
G1 X49.900 Y33.400
G1 X50.000 Y33.400
G1 X50.100 Y33.400
G1 X50.200 Y33.400
G1 X50.300 Y33.400
G1 X50.400 Y33.400
G1 X50.500 Y33.400
G1 X50.600 Y33.400
G1 X50.700 Y33.400
G1 X50.800 Y33.400
G1 X50.900 Y33.400
G1 X51.000 Y33.400
G1 X51.100 Y33.400
G1 X51.200 Y33.400
G0 Z4.600 F3000
M400
M204 P12000 T12000
G1 F12000
G0 X53.000 Y32.100 Z4.600
M400
M204 P200 T200
G1 F400
G1 Z0.000 F2500
G1 X53.100 Y32.100
G1 X53.200 Y32.100
G1 X53.300 Y32.100
G1 X53.400 Y32.100
G1 X53.500 Y32.100
G1 X53.600 Y32.100
G1 X53.700 Y32.100
G1 X53.800 Y32.100
G1 X53.900 Y32.100
G1 X54.000 Y32.100
G1 X54.100 Y32.100
G1 X54.200 Y32.100
G1 X54.300 Y32.100
G1 X54.400 Y32.100
G1 X54.500 Y32.100
G1 X54.600 Y32.100
G1 X54.700 Y32.100
G1 X54.800 Y32.100
G1 X54.900 Y32.100
G1 X55.000 Y32.100
G1 X55.100 Y32.100
G1 X55.200 Y32.100
G1 X55.300 Y32.100
G1 X55.400 Y32.100
G1 X55.500 Y32.100
G1 X55.600 Y32.100
G1 X55.700 Y32.100
G1 X55.800 Y32.100
G1 X55.900 Y32.100
G1 X56.000 Y32.100
G1 X56.100 Y32.100
G1 X56.200 Y32.100
G0 Z4.600 F3000
M400
M204 P12000 T12000
G1 F12000
G0 X58.100 Y32.100 Z4.600
M400
M204 P200 T200
G1 F400
G1 Z0.000 F2500
G1 X58.200 Y32.100
G1 X58.300 Y32.100
G1 X58.400 Y32.100
G1 X58.500 Y32.100
G1 X58.600 Y32.100
G1 X58.700 Y32.100
G1 X58.800 Y32.100
G1 X58.900 Y32.100
G1 X59.000 Y32.100
G1 X59.100 Y32.100
G1 X59.200 Y32.100
G1 X59.300 Y32.100
G1 X59.400 Y32.100
G1 X59.500 Y32.100
G1 X59.600 Y32.100
G1 X59.700 Y32.100
G1 X59.800 Y32.100
G1 X59.900 Y32.100
G1 X60.000 Y32.100
G1 X60.100 Y32.100
G1 X60.200 Y32.100
G1 X60.300 Y32.100
G1 X60.400 Y32.100
G1 X60.500 Y32.100
G1 X60.600 Y32.100
G1 X60.700 Y32.100
G1 X60.800 Y32.100
G1 X60.900 Y32.100
G1 X61.000 Y32.100
G1 X61.100 Y32.100
G1 X61.200 Y32.100
G1 X61.300 Y32.100
G1 X61.400 Y32.100
G1 X61.500 Y32.100
G1 X61.600 Y32.100
G1 X61.700 Y32.100
G1 X61.800 Y32.100
G1 X61.900 Y32.100
G1 X62.000 Y32.100
G1 X62.100 Y32.100
G1 X62.200 Y32.100
G1 X62.300 Y32.100
G1 X62.400 Y32.100
G1 X62.500 Y32.100
G1 X62.600 Y32.100
G1 X62.700 Y32.100
G1 X62.800 Y32.100
G0 Z4.600 F3000
M400
M204 P12000 T12000
G1 F12000
G0 X63.300 Y30.800 Z4.600
M400
M204 P200 T200
G1 F400
G1 Z0.000 F2500
G1 X63.400 Y30.800
G1 X63.500 Y30.800
G1 X63.600 Y30.800
G1 X63.700 Y30.800
G1 X63.800 Y30.800
G1 X63.900 Y30.800
G1 X64.000 Y30.800
G1 X64.100 Y30.800
G1 X64.200 Y30.800
G1 X64.300 Y30.800
G1 X64.400 Y30.800
G1 X64.500 Y30.800
G1 X64.600 Y30.800
G1 X64.700 Y30.800
G1 X64.800 Y30.800
G1 X64.900 Y30.800
G1 X65.000 Y30.800
G1 X65.100 Y30.800
G1 X65.200 Y30.800
G1 X65.300 Y30.800
G1 X65.400 Y30.800
G1 X65.500 Y30.800
G1 X65.600 Y30.800
G1 X65.700 Y30.800
G1 X65.800 Y30.800
G1 X65.900 Y30.800
G1 X66.000 Y30.800
G1 X66.100 Y30.800
G1 X66.200 Y30.800
G1 X66.300 Y30.800
G1 X66.400 Y30.800
G1 X66.500 Y30.800
G1 X66.600 Y30.800
G1 X66.700 Y30.800
G1 X66.800 Y30.800
G1 X66.900 Y30.800
G1 X67.000 Y30.800
G1 X67.100 Y30.800
G1 X67.200 Y30.800
G1 X67.300 Y30.800
G1 X67.400 Y30.800
G1 X67.500 Y30.800
G1 X67.600 Y30.800
G1 X67.700 Y30.800
G1 X67.800 Y30.800
G1 X67.900 Y30.800
G1 X68.000 Y30.800
G1 X68.100 Y30.800
G1 X68.200 Y30.800
G1 X68.300 Y30.800
G1 X68.400 Y30.800
G0 Z4.600 F3000
M400
M204 P12000 T12000
G1 F12000
G0 X69.300 Y30.800 Z4.600
M400
M204 P200 T200
G1 F400
G1 Z0.000 F2500
G1 X69.400 Y30.800
G1 X69.500 Y30.800
G1 X69.600 Y30.800
G1 X69.700 Y30.800
G1 X69.800 Y30.800
G1 X69.900 Y30.800
G1 X70.000 Y30.800
G1 X70.100 Y30.800
G1 X70.200 Y30.800
G1 X70.300 Y30.800
G1 X70.400 Y30.800
G1 X70.500 Y30.800
G1 X70.600 Y30.800
G1 X70.700 Y30.800
G1 X70.800 Y30.800
G1 X70.900 Y30.800
G1 X71.000 Y30.800
G1 X71.100 Y30.800
G1 X71.200 Y30.800
G1 X71.300 Y30.800
G1 X71.400 Y30.800
G1 X71.500 Y30.800
G1 X71.600 Y30.800
G1 X71.700 Y30.800
G1 X71.800 Y30.800
G1 X71.900 Y30.800
G1 X72.000 Y30.800
G1 X72.100 Y30.800
G1 X72.200 Y30.800
G1 X72.300 Y30.800
G1 X72.400 Y30.800
G1 X72.500 Y30.800
G1 X72.600 Y30.800
G1 X72.700 Y30.800
G1 X72.800 Y30.800
G1 X72.900 Y30.800
G1 X73.000 Y30.800
G1 X73.100 Y30.800
G1 X73.200 Y30.800
G1 X73.300 Y30.800
G1 X73.400 Y30.800
G1 X73.500 Y30.800
G1 X73.600 Y30.800
G1 X73.700 Y30.800
G1 X73.800 Y30.800
G1 X73.900 Y30.800
G1 X74.000 Y30.800
G1 X74.100 Y30.800
G0 Z4.600 F3000
M400
M204 P12000 T12000
G1 F12000
G0 X74.900 Y30.800 Z4.600
M400
M204 P200 T200
G1 F400
G1 Z0.000 F2500
G1 X75.000 Y30.800
G1 X75.100 Y30.800
G1 X75.200 Y30.800
G1 X75.300 Y30.800
G1 X75.400 Y30.800
G1 X75.500 Y30.800
G1 X75.600 Y30.800
G1 X75.700 Y30.800
G1 X75.800 Y30.800
G1 X75.900 Y30.800
G1 X76.000 Y30.800
G1 X76.100 Y30.800
G1 X76.200 Y30.800
G1 X76.300 Y30.800
G1 X76.400 Y30.800
G1 X76.500 Y30.800
G1 X76.600 Y30.800
G1 X76.700 Y30.800
G1 X76.800 Y30.800
G1 X76.900 Y30.800
G1 X77.000 Y30.800
G1 X77.100 Y30.800
G1 X77.200 Y30.800
G1 X77.300 Y30.800
G1 X77.400 Y30.800
G1 X77.500 Y30.800
G1 X77.600 Y30.800
G1 X77.700 Y30.800
G1 X77.800 Y30.800
G1 X77.900 Y30.800
G1 X78.000 Y30.800
G1 X78.100 Y30.800
G1 X78.200 Y30.800
G1 X78.300 Y30.800
G1 X78.400 Y30.800
G1 X78.500 Y30.800
G1 X78.600 Y30.800
G1 X78.700 Y30.800
G1 X78.800 Y30.800
G1 X78.900 Y30.800
G1 X79.000 Y30.800
G1 X79.100 Y30.800
G1 X79.200 Y30.800
G0 Z4.600 F3000
M400
M204 P12000 T12000
G1 F12000
G0 X80.100 Y30.800 Z4.600
M400
M204 P200 T200
G1 F400
G1 Z0.000 F2500
G1 X80.200 Y30.800
G1 X80.300 Y30.800
G1 X80.400 Y30.800
G1 X80.500 Y30.800
G1 X80.600 Y30.800
G1 X80.700 Y30.800
G1 X80.800 Y30.800
G1 X80.900 Y30.800
G1 X81.000 Y30.800
G1 X81.100 Y30.800
G1 X81.200 Y30.800
G1 X81.300 Y30.800
G1 X81.400 Y30.800
G1 X81.500 Y30.800
G1 X81.600 Y30.800
G1 X81.700 Y30.800
G1 X81.800 Y30.800
G1 X81.900 Y30.800
G1 X82.000 Y30.800
G1 X82.100 Y30.800
G1 X82.200 Y30.800
G1 X82.300 Y30.800
G1 X82.400 Y30.800
G1 X82.500 Y30.800
G1 X82.600 Y30.800
G1 X82.700 Y30.800
G1 X82.800 Y30.800
G1 X82.900 Y30.800
G1 X83.000 Y30.800
G1 X83.100 Y30.800
G1 X83.200 Y30.800
G1 X83.300 Y30.800
G1 X83.400 Y30.800
G1 X83.500 Y30.800
G1 X83.600 Y30.800
G1 X83.700 Y30.800
G1 X83.800 Y30.800
G1 X83.900 Y30.800
G1 X84.000 Y30.800
G1 X84.100 Y30.800
G1 X84.200 Y30.800
G1 X84.300 Y30.800
G1 X84.400 Y30.800
G1 X84.500 Y30.800
G1 X84.600 Y30.800
G1 X84.700 Y30.800
G1 X84.800 Y30.800
G1 X84.900 Y30.800
G1 X85.000 Y30.800
G1 X85.100 Y30.800
G1 X85.200 Y30.800
G1 X85.300 Y30.800
G1 X85.400 Y30.800
G1 X85.500 Y30.800
G1 X85.600 Y30.800
G1 X85.700 Y30.800
G1 X85.800 Y30.800
G0 Z4.600 F3000
M400
M204 P12000 T12000
G1 F12000
G0 X87.100 Y30.800 Z4.600
M400
M204 P200 T200
G1 F400
G1 Z0.000 F2500
G1 X87.200 Y30.800
G1 X87.300 Y30.800
G1 X87.400 Y30.800
G1 X87.500 Y30.800
G1 X87.600 Y30.800
G1 X87.700 Y30.800
G1 X87.800 Y30.800
G1 X87.900 Y30.800
G1 X88.000 Y30.800
G1 X88.100 Y30.800
G1 X88.200 Y30.800
G1 X88.300 Y30.800
G1 X88.400 Y30.800
G1 X88.500 Y30.800
G1 X88.600 Y30.800
G1 X88.700 Y30.800
G1 X88.800 Y30.800
G1 X88.900 Y30.800
G1 X89.000 Y30.800
G1 X89.100 Y30.800
G1 X89.200 Y30.800
G1 X89.300 Y30.800
G1 X89.400 Y30.800
G1 X89.500 Y30.800
G0 Z4.600 F3000
M400
M204 P12000 T12000
G1 F12000
G0 X91.100 Y30.800 Z4.600
M400
M204 P200 T200
G1 F400
G1 Z0.000 F2500
G1 X91.200 Y30.800
G1 X91.300 Y30.800
G1 X91.400 Y30.800
G1 X91.500 Y30.800
G1 X91.600 Y30.800
G1 X91.700 Y30.800
G1 X91.800 Y30.800
G1 X91.900 Y30.800
G1 X92.000 Y30.800
G1 X92.100 Y30.800
G1 X92.200 Y30.800
G1 X92.300 Y30.800
G1 X92.400 Y30.800
G1 X92.500 Y30.800
G1 X92.600 Y30.800
G1 X92.700 Y30.800
G1 X92.800 Y30.800
G1 X92.900 Y30.800
G1 X93.000 Y30.800
G1 X93.100 Y30.800
G1 X93.200 Y30.800
G1 X93.300 Y30.800
G1 X93.400 Y30.800
G1 X93.500 Y30.800
G1 X93.600 Y30.800
G1 X93.700 Y30.800
G1 X93.800 Y30.800
G1 X93.900 Y30.800
G1 X94.000 Y30.800
G1 X94.100 Y30.800
G1 X94.200 Y30.800
G1 X94.300 Y30.800
G1 X94.400 Y30.800
G1 X94.500 Y30.800
G1 X94.600 Y30.800
G1 X94.700 Y30.800
G1 X94.800 Y30.800
G1 X94.900 Y30.800
G1 X95.000 Y30.800
G1 X95.100 Y30.800
G1 X95.200 Y30.800
G1 X95.300 Y30.800
G1 X95.400 Y30.800
G1 X95.500 Y30.800
G1 X95.600 Y30.800
G1 X95.700 Y30.800
G1 X95.800 Y30.800
G1 X95.900 Y30.800
G1 X96.000 Y30.800
G1 X96.100 Y30.800
G1 X96.200 Y30.800
G1 X96.300 Y30.800
G1 X96.400 Y30.800
G1 X96.500 Y30.800
G1 X96.600 Y30.800
G1 X96.700 Y30.800
G1 X96.800 Y30.800
G1 X96.900 Y30.800
G1 X97.000 Y30.800
G1 X97.100 Y30.800
G1 X97.200 Y30.800
G0 Z4.600 F3000
M400
M204 P12000 T12000
G1 F12000
G0 X97.400 Y32.100 Z4.600
M400
M204 P200 T200
G1 F400
G1 Z0.000 F2500
G1 X97.500 Y32.100
G1 X97.600 Y32.100
G1 X97.700 Y32.100
G1 X97.800 Y32.100
G1 X97.900 Y32.100
G1 X98.000 Y32.100
G1 X98.100 Y32.100
G1 X98.200 Y32.100
G1 X98.300 Y32.100
G1 X98.400 Y32.100
G1 X98.500 Y32.100
G1 X98.600 Y32.100
G1 X98.700 Y32.100
G1 X98.800 Y32.100
G1 X98.900 Y32.100
G1 X99.000 Y32.100
G1 X99.100 Y32.100
G1 X99.200 Y32.100
G1 X99.300 Y32.100
G1 X99.400 Y32.100
G1 X99.500 Y32.100
G1 X99.600 Y32.100
G1 X99.700 Y32.100
G1 X99.800 Y32.100
G1 X99.900 Y32.100
G1 X100.000 Y32.100
G1 X100.100 Y32.100
G1 X100.200 Y32.100
G1 X100.300 Y32.100
G1 X100.400 Y32.100
G1 X100.500 Y32.100
G1 X100.600 Y32.100
G1 X100.700 Y32.100
G1 X100.800 Y32.100
G1 X100.900 Y32.100
G1 X101.000 Y32.100
G1 X101.100 Y32.100
G1 X101.200 Y32.100
G1 X101.300 Y32.100
G1 X101.400 Y32.100
G1 X101.500 Y32.100
G1 X101.600 Y32.100
G1 X101.700 Y32.100
G1 X101.800 Y32.100
G1 X101.900 Y32.100
G1 X102.000 Y32.100
G1 X102.100 Y32.100
G1 X102.200 Y32.100
G1 X102.300 Y32.100
G1 X102.400 Y32.100
G1 X102.500 Y32.100
G0 Z4.600 F3000
M400
M204 P12000 T12000
G1 F12000
G0 X103.200 Y32.100 Z4.600
M400
M204 P200 T200
G1 F400
G1 Z0.000 F2500
G1 X103.300 Y32.100
G1 X103.400 Y32.100
G1 X103.500 Y32.100
G1 X103.600 Y32.100
G1 X103.700 Y32.100
G1 X103.800 Y32.100
G1 X103.900 Y32.100
G1 X104.000 Y32.100
G1 X104.100 Y32.100
G1 X104.200 Y32.100
G1 X104.300 Y32.100
G1 X104.400 Y32.100
G1 X104.500 Y32.100
G1 X104.600 Y32.100
G1 X104.700 Y32.100
G1 X104.800 Y32.100
G1 X104.900 Y32.100
G1 X105.000 Y32.100
G1 X105.100 Y32.100
G1 X105.200 Y32.100
G1 X105.300 Y32.100
G1 X105.400 Y32.100
G1 X105.500 Y32.100
G1 X105.600 Y32.100
G1 X105.700 Y32.100
G1 X105.800 Y32.100
G1 X105.900 Y32.100
G1 X106.000 Y32.100
G1 X106.100 Y32.100
G1 X106.200 Y32.100
G1 X106.300 Y32.100
G1 X106.400 Y32.100
G1 X106.500 Y32.100
G1 X106.600 Y32.100
G1 X106.700 Y32.100
G1 X106.800 Y32.100
G1 X106.900 Y32.100
G1 X107.000 Y32.100
G1 X107.100 Y32.100
G1 X107.200 Y32.100
G1 X107.300 Y32.100
G1 X107.400 Y32.100
G1 X107.500 Y32.100
G0 Z4.600 F3000
M400
M204 P12000 T12000
G1 F12000
G0 X108.500 Y32.100 Z4.600
M400
M204 P200 T200
G1 F400
G1 Z0.000 F2500
G1 X108.600 Y32.100
G1 X108.700 Y32.100
G1 X108.800 Y32.100
G1 X108.900 Y32.100
G1 X109.000 Y32.100
G1 X109.100 Y32.100
G1 X109.200 Y32.100
G1 X109.300 Y32.100
G1 X109.400 Y32.100
G1 X109.500 Y32.100
G1 X109.600 Y32.100
G1 X109.700 Y32.100
G1 X109.800 Y32.100
G1 X109.900 Y32.100
G1 X110.000 Y32.100
G1 X110.100 Y32.100
G1 X110.200 Y32.100
G1 X110.300 Y32.100
G1 X110.400 Y32.100
G1 X110.500 Y32.100
G1 X110.600 Y32.100
G1 X110.700 Y32.100
G1 X110.800 Y32.100
G1 X110.900 Y32.100
G1 X111.000 Y32.100
G1 X111.100 Y32.100
G1 X111.200 Y32.100
G1 X111.300 Y32.100
G1 X111.400 Y32.100
G1 X111.500 Y32.100
G1 X111.600 Y32.100
G1 X111.700 Y32.100
G1 X111.800 Y32.100
G1 X111.900 Y32.100
G1 X112.000 Y32.100
G1 X112.100 Y32.100
G1 X112.200 Y32.100
G1 X112.300 Y32.100
G1 X112.400 Y32.100
G1 X112.500 Y32.100
G1 X112.600 Y32.100
G1 X112.700 Y32.100
G1 X112.800 Y32.100
G1 X112.900 Y32.100
G1 X113.000 Y32.100
G1 X113.100 Y32.100
G1 X113.200 Y32.100
G1 X113.300 Y32.100
G1 X113.400 Y32.100
G1 X113.500 Y32.100
G1 X113.600 Y32.100
G1 X113.700 Y32.100
G1 X113.800 Y32.100
G1 X113.900 Y32.100
G0 Z4.600 F3000
M400
M204 P12000 T12000
G1 F12000
G0 X114.200 Y30.800 Z4.600
M400
M204 P200 T200
G1 F400
G1 Z0.000 F2500
G1 X114.300 Y30.800
G1 X114.400 Y30.800
G1 X114.500 Y30.800
G1 X114.600 Y30.800
G1 X114.700 Y30.800
G1 X114.800 Y30.800
G1 X114.900 Y30.800
G1 X115.000 Y30.800
G1 X115.100 Y30.800
G1 X115.200 Y30.800
G1 X115.300 Y30.800
G1 X115.400 Y30.800
G1 X115.500 Y30.800
G1 X115.600 Y30.800
G1 X115.700 Y30.800
G1 X115.800 Y30.800
G1 X115.900 Y30.800
G1 X116.000 Y30.800
G1 X116.100 Y30.800
G1 X116.200 Y30.800
G1 X116.300 Y30.800
G1 X116.400 Y30.800
G1 X116.500 Y30.800
G1 X116.600 Y30.800
G1 X116.700 Y30.800
G1 X116.800 Y30.800
G1 X116.900 Y30.800
G1 X117.000 Y30.800
G1 X117.100 Y30.800
G1 X117.200 Y30.800
G1 X117.300 Y30.800
G1 X117.400 Y30.800
G1 X117.500 Y30.800
G1 X117.600 Y30.800
G1 X117.700 Y30.800
G1 X117.800 Y30.800
G1 X117.900 Y30.800
G1 X118.000 Y30.800
G1 X118.100 Y30.800
G1 X118.200 Y30.800
G1 X118.300 Y30.800
G1 X118.400 Y30.800
G1 X118.500 Y30.800
G1 X118.600 Y30.800
G1 X118.700 Y30.800
G1 X118.800 Y30.800
G1 X118.900 Y30.800
G0 Z4.600 F3000
M400
M204 P12000 T12000
G1 F12000
G0 X120.000 Y30.800 Z4.600
M400
M204 P200 T200
G1 F400
G1 Z0.000 F2500
G1 X120.100 Y30.800
G1 X120.200 Y30.800
G1 X120.300 Y30.800
G1 X120.400 Y30.800
G1 X120.500 Y30.800
G1 X120.600 Y30.800
G1 X120.700 Y30.800
G1 X120.800 Y30.800
G1 X120.900 Y30.800
G1 X121.000 Y30.800
G1 X121.100 Y30.800
G1 X121.200 Y30.800
G1 X121.300 Y30.800
G1 X121.400 Y30.800
G1 X121.500 Y30.800
G1 X121.600 Y30.800
G1 X121.700 Y30.800
G1 X121.800 Y30.800
G1 X121.900 Y30.800
G1 X122.000 Y30.800
G1 X122.100 Y30.800
G1 X122.200 Y30.800
G1 X122.300 Y30.800
G1 X122.400 Y30.800
G1 X122.500 Y30.800
G1 X122.600 Y30.800
G1 X122.700 Y30.800
G1 X122.800 Y30.800
G1 X122.900 Y30.800
G1 X123.000 Y30.800
G1 X123.100 Y30.800
G1 X123.200 Y30.800
G1 X123.300 Y30.800
G1 X123.400 Y30.800
G1 X123.500 Y30.800
G1 X123.600 Y30.800
G1 X123.700 Y30.800
G1 X123.800 Y30.800
G1 X123.900 Y30.800
G1 X124.000 Y30.800
G1 X124.100 Y30.800
G1 X124.200 Y30.800
G1 X124.300 Y30.800
G1 X124.400 Y30.800
G1 X124.500 Y30.800
G1 X124.600 Y30.800
G1 X124.700 Y30.800
G1 X124.800 Y30.800
G0 Z4.600 F3000
M400
M204 P12000 T12000
G1 F12000
G0 X126.200 Y30.800 Z4.600
M400
M204 P200 T200
G1 F400
G1 Z0.000 F2500
G1 X126.300 Y30.800
G1 X126.400 Y30.800
G1 X126.500 Y30.800
G1 X126.600 Y30.800
G1 X126.700 Y30.800
G1 X126.800 Y30.800
G1 X126.900 Y30.800
G1 X127.000 Y30.800
G1 X127.100 Y30.800
G1 X127.200 Y30.800
G1 X127.300 Y30.800
G1 X127.400 Y30.800
G1 X127.500 Y30.800
G1 X127.600 Y30.800
G1 X127.700 Y30.800
G1 X127.800 Y30.800
G1 X127.900 Y30.800
G1 X128.000 Y30.800
G1 X128.100 Y30.800
G1 X128.200 Y30.800
G1 X128.300 Y30.800
G1 X128.400 Y30.800
G1 X128.500 Y30.800
G1 X128.600 Y30.800
G1 X128.700 Y30.800
G1 X128.800 Y30.800
G1 X128.900 Y30.800
G1 X129.000 Y30.800
G1 X129.100 Y30.800
G1 X129.200 Y30.800
G1 X129.300 Y30.800
G1 X129.400 Y30.800
G0 Z4.600 F3000
M400
M204 P12000 T12000
G1 F12000
G0 X131.700 Y30.800 Z4.600
M400
M204 P200 T200
G1 F400
G1 Z0.000 F2500
G1 X131.800 Y30.800
G1 X131.900 Y30.800
G1 X132.000 Y30.800
G1 X132.100 Y30.800
G1 X132.200 Y30.800
G1 X132.300 Y30.800
G1 X132.400 Y30.800
G1 X132.500 Y30.800
G1 X132.600 Y30.800
G1 X132.700 Y30.800
G1 X132.800 Y30.800
G1 X132.900 Y30.800
G1 X133.000 Y30.800
G1 X133.100 Y30.800
G1 X133.200 Y30.800
G1 X133.300 Y30.800
G1 X133.400 Y30.800
G1 X133.500 Y30.800
G1 X133.600 Y30.800
G1 X133.700 Y30.800
G1 X133.800 Y30.800
G1 X133.900 Y30.800
G1 X134.000 Y30.800
G1 X134.100 Y30.800
G1 X134.200 Y30.800
G1 X134.300 Y30.800
G1 X134.400 Y30.800
G1 X134.500 Y30.800
G1 X134.600 Y30.800
G1 X134.700 Y30.800
G1 X134.800 Y30.800
G1 X134.900 Y30.800
G1 X135.000 Y30.800
G1 X135.100 Y30.800
G1 X135.200 Y30.800
G1 X135.300 Y30.800
G1 X135.400 Y30.800
G1 X135.500 Y30.800
G1 X135.600 Y30.800
G0 Z4.600 F3000
M400
M204 P12000 T12000
G1 F12000
G0 X137.700 Y33.400 Z4.600
M400
M204 P200 T200
G1 F400
G1 Z0.000 F2500
G1 X137.800 Y33.400
G1 X137.900 Y33.400
G1 X138.000 Y33.400
G1 X138.100 Y33.400
G1 X138.200 Y33.400
G1 X138.300 Y33.400
G1 X138.400 Y33.400
G1 X138.500 Y33.400
G1 X138.600 Y33.400
G1 X138.700 Y33.400
G1 X138.800 Y33.400
G1 X138.900 Y33.400
G1 X139.000 Y33.400
G1 X139.100 Y33.400
G1 X139.200 Y33.400
G1 X139.300 Y33.400
G1 X139.400 Y33.400
G1 X139.500 Y33.400
G1 X139.600 Y33.400
G1 X139.700 Y33.400
G1 X139.800 Y33.400
G1 X139.900 Y33.400
G1 X140.000 Y33.400
G1 X140.100 Y33.400
G1 X140.200 Y33.400
G1 X140.300 Y33.400
G1 X140.400 Y33.400
G1 X140.500 Y33.400
G1 X140.600 Y33.400
G1 X140.700 Y33.400
G1 X140.800 Y33.400
G0 Z4.600 F3000

; --- DIP → Color 3 — Yellow ---
G0 Z4.600 F3000
M400
M204 P12000 T12000
G1 F12000
G0 X78.837 Y13.373 Z31.000
G1 Z0.000 F3000
G1 X78.837 Y13.373 F2500
G1 X78.837 Y15.873 F2500
G1 X73.837 Y13.373 F2500
G1 X78.837 Y5.873 F2500
G0 Z16.000 F3000
G0 X102.541 Y8.229
G0 Z31.000 F3000
G0 X140.900 Y33.400 Z4.600
M400
M204 P200 T200
G1 F400
G1 Z0.000 F2500
G1 X140.900 Y33.400
G1 X141.000 Y33.400
G1 X141.100 Y33.400
G1 X141.200 Y33.400
G1 X141.300 Y33.400
G0 Z4.600 F3000
M400
M204 P12000 T12000
G1 F12000
G0 X143.500 Y32.100 Z4.600
M400
M204 P200 T200
G1 F400
G1 Z0.000 F2500
G1 X143.600 Y32.100
G1 X143.700 Y32.100
G1 X143.800 Y32.100
G1 X143.900 Y32.100
G1 X144.000 Y32.100
G1 X144.100 Y32.100
G1 X144.200 Y32.100
G1 X144.300 Y32.100
G1 X144.400 Y32.100
G1 X144.500 Y32.100
G1 X144.600 Y32.100
G1 X144.700 Y32.100
G1 X144.800 Y32.100
G1 X144.900 Y32.100
G1 X145.000 Y32.100
G1 X145.100 Y32.100
G1 X145.200 Y32.100
G1 X145.300 Y32.100
G1 X145.400 Y32.100
G1 X145.500 Y32.100
G1 X145.600 Y32.100
G1 X145.700 Y32.100
G1 X145.800 Y32.100
G1 X145.900 Y32.100
G1 X146.000 Y32.100
G1 X146.100 Y32.100
G1 X146.200 Y32.100
G0 Z4.600 F3000
M400
M204 P12000 T12000
G1 F12000
G0 X148.700 Y33.400 Z4.600
M400
M204 P200 T200
G1 F400
G1 Z0.000 F2500
G1 X148.800 Y33.400
G1 X148.900 Y33.400
G1 X149.000 Y33.400
G1 X149.100 Y33.400
G1 X149.200 Y33.400
G1 X149.300 Y33.400
G1 X149.400 Y33.400
G1 X149.500 Y33.400
G1 X149.600 Y33.400
G1 X149.700 Y33.400
G1 X149.800 Y33.400
G1 X149.900 Y33.400
G1 X150.000 Y33.400
G1 X150.100 Y33.400
G1 X150.200 Y33.400
G1 X150.300 Y33.400
G1 X150.400 Y33.400
G1 X150.500 Y33.400
G1 X150.600 Y33.400
G1 X150.700 Y33.400
G1 X150.800 Y33.400
G1 X150.900 Y33.400
G1 X151.000 Y33.400
G1 X151.100 Y33.400
G1 X151.200 Y33.400
G1 X151.300 Y33.400
G1 X151.400 Y33.400
G1 X151.500 Y33.400
G1 X151.600 Y33.400
G1 X151.700 Y33.400
G1 X151.800 Y33.400
G1 X151.900 Y33.400
G1 X152.000 Y33.400
G1 X152.100 Y33.400
G1 X152.200 Y33.400
G1 X152.300 Y33.400
G1 X152.400 Y33.400
G1 X152.500 Y33.400
G1 X152.600 Y33.400
G1 X152.700 Y33.400
G0 Z4.600 F3000
M400
M204 P12000 T12000
G1 F12000
G0 X155.200 Y34.700 Z4.600
M400
M204 P200 T200
G1 F400
G1 Z0.000 F2500
G1 X155.300 Y34.700
G1 X155.400 Y34.700
G1 X155.500 Y34.700
G1 X155.600 Y34.700
G1 X155.700 Y34.700
G1 X155.800 Y34.700
G1 X155.900 Y34.700
G1 X156.000 Y34.700
G1 X156.100 Y34.700
G1 X156.200 Y34.700
G1 X156.300 Y34.700
G1 X156.400 Y34.700
G1 X156.500 Y34.700
G1 X156.600 Y34.700
G1 X156.700 Y34.700
G1 X156.800 Y34.700
G1 X156.900 Y34.700
G1 X157.000 Y34.700
G1 X157.100 Y34.700
G1 X157.200 Y34.700
G1 X157.300 Y34.700
G1 X157.400 Y34.700
G1 X157.500 Y34.700
G1 X157.600 Y34.700
G1 X157.700 Y34.700
G1 X157.800 Y34.700
G0 Z4.600 F3000
M400
M204 P12000 T12000
G1 F12000
G0 X160.100 Y33.400 Z4.600
M400
M204 P200 T200
G1 F400
G1 Z0.000 F2500
G1 X160.200 Y33.400
G1 X160.300 Y33.400
G1 X160.400 Y33.400
G1 X160.500 Y33.400
G1 X160.600 Y33.400
G1 X160.700 Y33.400
G1 X160.800 Y33.400
G1 X160.900 Y33.400
G1 X161.000 Y33.400
G1 X161.100 Y33.400
G1 X161.200 Y33.400
G1 X161.300 Y33.400
G1 X161.400 Y33.400
G1 X161.500 Y33.400
G1 X161.600 Y33.400
G1 X161.700 Y33.400
G1 X161.800 Y33.400
G1 X161.900 Y33.400
G1 X162.000 Y33.400
G1 X162.100 Y33.400
G1 X162.200 Y33.400
G1 X162.300 Y33.400
G1 X162.400 Y33.400
G1 X162.500 Y33.400
G1 X162.600 Y33.400
G1 X162.700 Y33.400
G1 X162.800 Y33.400
G1 X162.900 Y33.400
G1 X163.000 Y33.400
G1 X163.100 Y33.400
G1 X163.200 Y33.400
G1 X163.300 Y33.400
G1 X163.400 Y33.400
G1 X163.500 Y33.400
G1 X163.600 Y33.400
G1 X163.700 Y33.400
G1 X163.800 Y33.400
G0 Z4.600 F3000
M400
M204 P12000 T12000
G1 F12000
G0 X165.900 Y34.700 Z4.600
M400
M204 P200 T200
G1 F400
G1 Z0.000 F2500
G1 X166.000 Y34.700
G1 X166.100 Y34.700
G1 X166.200 Y34.700
G1 X166.300 Y34.700
G1 X166.400 Y34.700
G1 X166.500 Y34.700
G1 X166.600 Y34.700
G1 X166.700 Y34.700
G1 X166.800 Y34.700
G1 X166.900 Y34.700
G1 X167.000 Y34.700
G1 X167.100 Y34.700
G1 X167.200 Y34.700
G1 X167.300 Y34.700
G1 X167.400 Y34.700
G1 X167.500 Y34.700
G1 X167.600 Y34.700
G1 X167.700 Y34.700
G1 X167.800 Y34.700
G1 X167.900 Y34.700
G1 X168.000 Y34.700
G1 X168.100 Y34.700
G1 X168.200 Y34.700
G1 X168.300 Y34.700
G1 X168.400 Y34.700
G1 X168.500 Y34.700
G1 X168.600 Y34.700
G1 X168.700 Y34.700
G1 X168.800 Y34.700
G1 X168.900 Y34.700
G1 X169.000 Y34.700
G1 X169.100 Y34.700
G1 X169.200 Y34.700
G1 X169.300 Y34.700
G1 X169.400 Y34.700
G1 X169.500 Y34.700
G1 X169.600 Y34.700
G0 Z4.600 F3000
M400
M204 P12000 T12000
G1 F12000
G0 X168.000 Y33.400 Z4.600
M400
M204 P200 T200
G1 F400
G1 Z0.000 F2500
G1 X167.900 Y33.400
G1 X167.800 Y33.400
G1 X167.700 Y33.400
G1 X167.600 Y33.400
G1 X167.500 Y33.400
G0 Z4.600 F3000
M400
M204 P12000 T12000
G1 F12000
G0 X168.300 Y30.800 Z4.600
M400
M204 P200 T200
G1 F400
G1 Z0.000 F2500
G1 X168.200 Y30.800
G1 X168.100 Y30.800
G1 X168.000 Y30.800
G1 X167.900 Y30.800
G1 X167.800 Y30.800
G1 X167.700 Y30.800
G1 X167.600 Y30.800
G1 X167.500 Y30.800
G1 X167.400 Y30.800
G1 X167.300 Y30.800
G1 X167.200 Y30.800
G1 X167.100 Y30.800
G1 X167.000 Y30.800
G1 X166.900 Y30.800
G1 X166.800 Y30.800
G1 X166.700 Y30.800
G1 X166.600 Y30.800
G1 X166.500 Y30.800
G1 X166.400 Y30.800
G1 X166.300 Y30.800
G0 Z4.600 F3000
M400
M204 P12000 T12000
G1 F12000
G0 X171.300 Y30.800 Z4.600
M400
M204 P200 T200
G1 F400
G1 Z0.000 F2500
G1 X171.400 Y30.800
G1 X171.500 Y30.800
G1 X171.600 Y30.800
G1 X171.700 Y30.800
G1 X171.800 Y30.800
G1 X171.900 Y30.800
G1 X172.000 Y30.800
G1 X172.100 Y30.800
G1 X172.200 Y30.800
G1 X172.300 Y30.800
G1 X172.400 Y30.800
G1 X172.500 Y30.800
G1 X172.600 Y30.800
G1 X172.700 Y30.800
G1 X172.800 Y30.800
G1 X172.900 Y30.800
G1 X173.000 Y30.800
G1 X173.100 Y30.800
G1 X173.200 Y30.800
G1 X173.300 Y30.800
G1 X173.400 Y30.800
G1 X173.500 Y30.800
G1 X173.600 Y30.800
G1 X173.700 Y30.800
G1 X173.800 Y30.800
G1 X173.900 Y30.800
G1 X174.000 Y30.800
G1 X174.100 Y30.800
G1 X174.200 Y30.800
G1 X174.300 Y30.800
G1 X174.400 Y30.800
G1 X174.500 Y30.800
G1 X174.600 Y30.800
G1 X174.700 Y30.800
G1 X174.800 Y30.800
G1 X174.900 Y30.800
G1 X175.000 Y30.800
G0 Z4.600 F3000
M400
M204 P12000 T12000
G1 F12000
G0 X177.300 Y33.400 Z4.600
M400
M204 P200 T200
G1 F400
G1 Z0.000 F2500
G1 X177.400 Y33.400
G1 X177.500 Y33.400
G1 X177.600 Y33.400
G1 X177.700 Y33.400
G1 X177.800 Y33.400
G1 X177.900 Y33.400
G1 X178.000 Y33.400
G1 X178.100 Y33.400
G1 X178.200 Y33.400
G1 X178.300 Y33.400
G1 X178.400 Y33.400
G1 X178.500 Y33.400
G1 X178.600 Y33.400
G1 X178.700 Y33.400
G1 X178.800 Y33.400
G1 X178.900 Y33.400
G1 X179.000 Y33.400
G1 X179.100 Y33.400
G1 X179.200 Y33.400
G1 X179.300 Y33.400
G1 X179.400 Y33.400
G1 X179.500 Y33.400
G1 X179.600 Y33.400
G1 X179.700 Y33.400
G1 X179.800 Y33.400
G1 X179.900 Y33.400
G0 Z4.600 F3000
M400
M204 P12000 T12000
G1 F12000
G0 X179.900 Y34.700 Z4.600
M400
M204 P200 T200
G1 F400
G1 Z0.000 F2500
G1 X179.800 Y34.700
G1 X179.700 Y34.700
G1 X179.600 Y34.700
G1 X179.500 Y34.700
G1 X179.400 Y34.700
G1 X179.300 Y34.700
G1 X179.200 Y34.700
G1 X179.100 Y34.700
G1 X179.000 Y34.700
G1 X178.900 Y34.700
G1 X178.800 Y34.700
G1 X178.700 Y34.700
G1 X178.600 Y34.700
G1 X178.500 Y34.700
G1 X178.400 Y34.700
G1 X178.300 Y34.700
G1 X178.200 Y34.700
G1 X178.100 Y34.700
G1 X178.000 Y34.700
G1 X177.900 Y34.700
G1 X177.800 Y34.700
G1 X177.700 Y34.700
G1 X177.600 Y34.700
G1 X177.500 Y34.700
G1 X177.400 Y34.700
G1 X177.300 Y34.700
G1 X177.200 Y34.700
G1 X177.100 Y34.700
G1 X177.000 Y34.700
G1 X176.900 Y34.700
G0 Z4.600 F3000
M400
M204 P12000 T12000
G1 F12000
G0 X177.400 Y36.000 Z4.600
M400
M204 P200 T200
G1 F400
G1 Z0.000 F2500
G1 X177.500 Y36.000
G1 X177.600 Y36.000
G1 X177.700 Y36.000
G1 X177.800 Y36.000
G1 X177.900 Y36.000
G1 X178.000 Y36.000
G1 X178.100 Y36.000
G1 X178.200 Y36.000
G1 X178.300 Y36.000
G1 X178.400 Y36.000
G1 X178.500 Y36.000
G1 X178.600 Y36.000
G1 X178.700 Y36.000
G1 X178.800 Y36.000
G1 X178.900 Y36.000
G1 X179.000 Y36.000
G1 X179.100 Y36.000
G1 X179.200 Y36.000
G1 X179.300 Y36.000
G1 X179.400 Y36.000
G1 X179.500 Y36.000
G1 X179.600 Y36.000
G1 X179.700 Y36.000
G1 X179.800 Y36.000
G1 X179.900 Y36.000
G0 Z4.600 F3000
M400
M204 P12000 T12000
G1 F12000
G0 X179.900 Y39.900 Z4.600
M400
M204 P200 T200
G1 F400
G1 Z0.000 F2500
G1 X179.800 Y39.900
G1 X179.700 Y39.900
G1 X179.600 Y39.900
G1 X179.500 Y39.900
G1 X179.400 Y39.900
G1 X179.300 Y39.900
G1 X179.200 Y39.900
G1 X179.100 Y39.900
G1 X179.000 Y39.900
G1 X178.900 Y39.900
G1 X178.800 Y39.900
G1 X178.700 Y39.900
G1 X178.600 Y39.900
G1 X178.500 Y39.900
G1 X178.400 Y39.900
G1 X178.300 Y39.900
G1 X178.200 Y39.900
G1 X178.100 Y39.900
G1 X178.000 Y39.900
G1 X177.900 Y39.900
G1 X177.800 Y39.900
G0 Z4.600 F3000
M400
M204 P12000 T12000
G1 F12000
G0 X177.400 Y41.200 Z4.600
M400
M204 P200 T200
G1 F400
G1 Z0.000 F2500
G1 X177.500 Y41.200
G1 X177.600 Y41.200
G1 X177.700 Y41.200
G1 X177.800 Y41.200
G1 X177.900 Y41.200
G1 X178.000 Y41.200
G1 X178.100 Y41.200
G1 X178.200 Y41.200
G1 X178.300 Y41.200
G1 X178.400 Y41.200
G1 X178.500 Y41.200
G1 X178.600 Y41.200
G1 X178.700 Y41.200
G1 X178.800 Y41.200
G1 X178.900 Y41.200
G1 X179.000 Y41.200
G1 X179.100 Y41.200
G1 X179.200 Y41.200
G1 X179.300 Y41.200
G1 X179.400 Y41.200
G1 X179.500 Y41.200
G1 X179.600 Y41.200
G1 X179.700 Y41.200
G1 X179.800 Y41.200
G1 X179.900 Y41.200
G0 Z4.600 F3000
M400
M204 P12000 T12000
G1 F12000
G0 X179.900 Y42.500 Z4.600
M400
M204 P200 T200
G1 F400
G1 Z0.000 F2500
G1 X179.800 Y42.500
G1 X179.700 Y42.500
G1 X179.600 Y42.500
G1 X179.500 Y42.500
G1 X179.400 Y42.500
G1 X179.300 Y42.500
G1 X179.200 Y42.500
G1 X179.100 Y42.500
G1 X179.000 Y42.500
G1 X178.900 Y42.500
G1 X178.800 Y42.500
G1 X178.700 Y42.500
G1 X178.600 Y42.500
G1 X178.500 Y42.500
G1 X178.400 Y42.500
G1 X178.300 Y42.500
G1 X178.200 Y42.500
G1 X178.100 Y42.500
G1 X178.000 Y42.500
G1 X177.900 Y42.500
G0 Z4.600 F3000
M400
M204 P12000 T12000
G1 F12000
G0 X178.300 Y46.400 Z4.600
M400
M204 P200 T200
G1 F400
G1 Z0.000 F2500
G1 X178.400 Y46.400
G1 X178.500 Y46.400
G1 X178.600 Y46.400
G1 X178.700 Y46.400
G1 X178.800 Y46.400
G1 X178.900 Y46.400
G1 X179.000 Y46.400
G1 X179.100 Y46.400
G1 X179.200 Y46.400
G1 X179.300 Y46.400
G1 X179.400 Y46.400
G1 X179.500 Y46.400
G1 X179.600 Y46.400
G1 X179.700 Y46.400
G1 X179.800 Y46.400
G1 X179.900 Y46.400
G0 Z4.600 F3000
M400
M204 P12000 T12000
G1 F12000
G0 X179.900 Y47.700 Z4.600
M400
M204 P200 T200
G1 F400
G1 Z0.000 F2500
G1 X179.800 Y47.700
G1 X179.700 Y47.700
G1 X179.600 Y47.700
G1 X179.500 Y47.700
G1 X179.400 Y47.700
G1 X179.300 Y47.700
G1 X179.200 Y47.700
G1 X179.100 Y47.700
G1 X179.000 Y47.700
G1 X178.900 Y47.700
G1 X178.800 Y47.700
G1 X178.700 Y47.700
G1 X178.600 Y47.700
G1 X178.500 Y47.700
G1 X178.400 Y47.700
G1 X178.300 Y47.700
G1 X178.200 Y47.700
G1 X178.100 Y47.700
G1 X178.000 Y47.700
G1 X177.900 Y47.700
G0 Z4.600 F3000
M400
M204 P12000 T12000
G1 F12000
G0 X178.500 Y49.000 Z4.600
M400
M204 P200 T200
G1 F400
G1 Z0.000 F2500
G1 X178.600 Y49.000
G1 X178.700 Y49.000
G1 X178.800 Y49.000
G1 X178.900 Y49.000
G1 X179.000 Y49.000
G1 X179.100 Y49.000
G1 X179.200 Y49.000
G1 X179.300 Y49.000
G1 X179.400 Y49.000
G1 X179.500 Y49.000
G1 X179.600 Y49.000
G1 X179.700 Y49.000
G1 X179.800 Y49.000
G1 X179.900 Y49.000
G0 Z4.600 F3000
M400
M204 P12000 T12000
G1 F12000
G0 X179.900 Y52.900 Z4.600
M400
M204 P200 T200
G1 F400
G1 Z0.000 F2500
G1 X179.800 Y52.900
G1 X179.700 Y52.900
G1 X179.600 Y52.900
G1 X179.500 Y52.900
G1 X179.400 Y52.900
G1 X179.300 Y52.900
G1 X179.200 Y52.900
G1 X179.100 Y52.900
G1 X179.000 Y52.900
G1 X178.900 Y52.900
G0 Z4.600 F3000
M400
M204 P12000 T12000
G1 F12000
G0 X178.500 Y54.200 Z4.600
M400
M204 P200 T200
G1 F400
G1 Z0.000 F2500
G1 X178.600 Y54.200
G1 X178.700 Y54.200
G1 X178.800 Y54.200
G1 X178.900 Y54.200
G1 X179.000 Y54.200
G1 X179.100 Y54.200
G1 X179.200 Y54.200
G1 X179.300 Y54.200
G1 X179.400 Y54.200
G1 X179.500 Y54.200
G1 X179.600 Y54.200
G1 X179.700 Y54.200
G1 X179.800 Y54.200
G1 X179.900 Y54.200
G0 Z4.600 F3000
M400
M204 P12000 T12000
G1 F12000
G0 X179.900 Y55.500 Z4.600
M400
M204 P200 T200
G1 F400
G1 Z0.000 F2500
G1 X179.800 Y55.500
G1 X179.700 Y55.500
G1 X179.600 Y55.500
G1 X179.500 Y55.500
G1 X179.400 Y55.500
G1 X179.300 Y55.500
G1 X179.200 Y55.500
G1 X179.100 Y55.500
G1 X179.000 Y55.500
G0 Z4.600 F3000
M400
M204 P12000 T12000
G1 F12000
G0 X179.400 Y59.400 Z4.600
M400
M204 P200 T200
G1 F400
G1 Z0.000 F2500
G1 X179.500 Y59.400
G1 X179.600 Y59.400
G1 X179.700 Y59.400
G1 X179.800 Y59.400
G1 X179.900 Y59.400
G0 Z4.600 F3000
M400
M204 P12000 T12000
G1 F12000
G0 X179.900 Y60.700 Z4.600
M400
M204 P200 T200
G1 F400
G1 Z0.000 F2500
G1 X179.800 Y60.700
G1 X179.700 Y60.700
G1 X179.600 Y60.700
G1 X179.500 Y60.700
G1 X179.400 Y60.700
G1 X179.300 Y60.700
G1 X179.200 Y60.700
G1 X179.100 Y60.700
G1 X179.000 Y60.700
G1 X178.900 Y60.700
G0 Z4.600 F3000
M400
M204 P12000 T12000
G1 F12000
G0 X179.600 Y62.000 Z4.600
M400
M204 P200 T200
G1 F400
G1 Z0.000 F2500
G1 X179.700 Y62.000
G1 X179.800 Y62.000
G1 X179.900 Y62.000
G0 Z4.600 F3000
M400
M204 P12000 T12000
G1 F12000
G0 X179.900 Y65.900 Z4.600
M400
M204 P200 T200
G1 F400
G1 Z0.000 F2500
G1 X179.800 Y65.900
G0 Z4.600 F3000
M400
M204 P12000 T12000
G1 F12000
G0 X179.900 Y67.200 Z4.600
M400
M204 P200 T200
G1 F400
G1 Z0.000 F2500
G1 X179.800 Y67.200
G1 X179.700 Y67.200
G1 X179.600 Y67.200
G1 X179.500 Y67.200
G1 X179.400 Y67.200
G0 Z4.600 F3000
M400
M204 P12000 T12000
G1 F12000
G0 X176.200 Y65.900 Z4.600
M400
M204 P200 T200
G1 F400
G1 Z0.000 F2500
G1 X176.100 Y65.900
G1 X176.000 Y65.900
G1 X175.900 Y65.900
G1 X175.800 Y65.900
G1 X175.700 Y65.900
G1 X175.600 Y65.900
G1 X175.500 Y65.900
G1 X175.400 Y65.900
G1 X175.300 Y65.900
G1 X175.200 Y65.900
G1 X175.100 Y65.900
G1 X175.000 Y65.900
G1 X174.900 Y65.900
G1 X174.800 Y65.900
G1 X174.700 Y65.900
G1 X174.600 Y65.900
G0 Z4.600 F3000
M400
M204 P12000 T12000
G1 F12000
G0 X173.600 Y64.600 Z4.600
M400
M204 P200 T200
G1 F400
G1 Z0.000 F2500
G1 X173.700 Y64.600
G1 X173.800 Y64.600
G1 X173.900 Y64.600
G1 X174.000 Y64.600
G1 X174.100 Y64.600
G1 X174.200 Y64.600
G1 X174.300 Y64.600
G1 X174.400 Y64.600
G1 X174.500 Y64.600
G1 X174.600 Y64.600
G1 X174.700 Y64.600
G1 X174.800 Y64.600
G1 X174.900 Y64.600
G1 X175.000 Y64.600
G1 X175.100 Y64.600
G1 X175.200 Y64.600
G1 X175.300 Y64.600
G1 X175.400 Y64.600
G1 X175.500 Y64.600
G1 X175.600 Y64.600
G1 X175.700 Y64.600
G1 X175.800 Y64.600
G1 X175.900 Y64.600
G1 X176.000 Y64.600
G1 X176.100 Y64.600
G1 X176.200 Y64.600
G1 X176.300 Y64.600
G1 X176.400 Y64.600
G1 X176.500 Y64.600
G1 X176.600 Y64.600
G1 X176.700 Y64.600
G1 X176.800 Y64.600
G1 X176.900 Y64.600
G1 X177.000 Y64.600
G1 X177.100 Y64.600
G1 X177.200 Y64.600
G0 Z4.600 F3000
M400
M204 P12000 T12000
G1 F12000
G0 X177.000 Y63.300 Z4.600
M400
M204 P200 T200
G1 F400
G1 Z0.000 F2500
G1 X176.900 Y63.300
G1 X176.800 Y63.300
G1 X176.700 Y63.300
G1 X176.600 Y63.300
G1 X176.500 Y63.300
G1 X176.400 Y63.300
G1 X176.300 Y63.300
G1 X176.200 Y63.300
G1 X176.100 Y63.300
G1 X176.000 Y63.300
G1 X175.900 Y63.300
G1 X175.800 Y63.300
G1 X175.700 Y63.300
G1 X175.600 Y63.300
G1 X175.500 Y63.300
G1 X175.400 Y63.300
G1 X175.300 Y63.300
G1 X175.200 Y63.300
G1 X175.100 Y63.300
G1 X175.000 Y63.300
G1 X174.900 Y63.300
G1 X174.800 Y63.300
G1 X174.700 Y63.300
G1 X174.600 Y63.300
G1 X174.500 Y63.300
G1 X174.400 Y63.300
G1 X174.300 Y63.300
G1 X174.200 Y63.300
G1 X174.100 Y63.300
G1 X174.000 Y63.300
G1 X173.900 Y63.300
G1 X173.800 Y63.300
G0 Z4.600 F3000
M400
M204 P12000 T12000
G1 F12000
G0 X174.100 Y59.400 Z4.600
M400
M204 P200 T200
G1 F400
G1 Z0.000 F2500
G1 X174.200 Y59.400
G1 X174.300 Y59.400
G1 X174.400 Y59.400
G1 X174.500 Y59.400
G1 X174.600 Y59.400
G1 X174.700 Y59.400
G1 X174.800 Y59.400
G1 X174.900 Y59.400
G1 X175.000 Y59.400
G1 X175.100 Y59.400
G1 X175.200 Y59.400
G1 X175.300 Y59.400
G1 X175.400 Y59.400
G1 X175.500 Y59.400
G1 X175.600 Y59.400
G1 X175.700 Y59.400
G1 X175.800 Y59.400
G0 Z4.600 F3000
M400
M204 P12000 T12000
G1 F12000
G0 X176.800 Y58.100 Z4.600
M400
M204 P200 T200
G1 F400
G1 Z0.000 F2500
G1 X176.700 Y58.100
G1 X176.600 Y58.100
G1 X176.500 Y58.100
G1 X176.400 Y58.100
G1 X176.300 Y58.100
G1 X176.200 Y58.100
G1 X176.100 Y58.100
G1 X176.000 Y58.100
G1 X175.900 Y58.100
G1 X175.800 Y58.100
G1 X175.700 Y58.100
G1 X175.600 Y58.100
G1 X175.500 Y58.100
G1 X175.400 Y58.100
G1 X175.300 Y58.100
G1 X175.200 Y58.100
G1 X175.100 Y58.100
G1 X175.000 Y58.100
G1 X174.900 Y58.100
G1 X174.800 Y58.100
G1 X174.700 Y58.100
G1 X174.600 Y58.100
G1 X174.500 Y58.100
G1 X174.400 Y58.100
G1 X174.300 Y58.100
G1 X174.200 Y58.100
G1 X174.100 Y58.100
G1 X174.000 Y58.100
G1 X173.900 Y58.100
G1 X173.800 Y58.100
G1 X173.700 Y58.100
G1 X173.600 Y58.100
G1 X173.500 Y58.100
G1 X173.400 Y58.100
G1 X173.300 Y58.100
G1 X173.200 Y58.100
G1 X173.100 Y58.100
G0 Z4.600 F3000
M400
M204 P12000 T12000
G1 F12000
G0 X173.300 Y56.800 Z4.600
M400
M204 P200 T200
G1 F400
G1 Z0.000 F2500
G1 X173.400 Y56.800
G1 X173.500 Y56.800
G1 X173.600 Y56.800
G1 X173.700 Y56.800
G1 X173.800 Y56.800
G1 X173.900 Y56.800
G1 X174.000 Y56.800
G1 X174.100 Y56.800
G1 X174.200 Y56.800
G1 X174.300 Y56.800
G1 X174.400 Y56.800
G1 X174.500 Y56.800
G1 X174.600 Y56.800
G1 X174.700 Y56.800
G1 X174.800 Y56.800
G1 X174.900 Y56.800
G1 X175.000 Y56.800
G1 X175.100 Y56.800
G1 X175.200 Y56.800
G1 X175.300 Y56.800
G1 X175.400 Y56.800
G1 X175.500 Y56.800
G1 X175.600 Y56.800
G1 X175.700 Y56.800
G1 X175.800 Y56.800
G1 X175.900 Y56.800
G1 X176.000 Y56.800
G1 X176.100 Y56.800
G1 X176.200 Y56.800
G1 X176.300 Y56.800
G1 X176.400 Y56.800
G1 X176.500 Y56.800
G1 X176.600 Y56.800
G0 Z4.600 F3000
M400
M204 P12000 T12000
G1 F12000
G0 X175.500 Y52.900 Z4.600
M400
M204 P200 T200
G1 F400
G1 Z0.000 F2500
G1 X175.400 Y52.900
G1 X175.300 Y52.900
G1 X175.200 Y52.900
G1 X175.100 Y52.900
G1 X175.000 Y52.900
G1 X174.900 Y52.900
G1 X174.800 Y52.900
G1 X174.700 Y52.900
G1 X174.600 Y52.900
G0 Z4.600 F3000

; --- DIP → Color 2 — Teal ---
G0 Z4.600 F3000
M400
M204 P12000 T12000
G1 F12000
G0 X44.899 Y0.000 Z31.000
G1 Z0.000 F3000
G1 X44.899 Y0.000 F2500
G1 X44.899 Y2.500 F2500
G1 X39.899 Y0.000 F2500
G1 X44.899 Y0.000 F2500
G0 Z16.000 F3000
G0 X73.617 Y6.291
G0 Z31.000 F3000
G0 X174.500 Y52.900 Z4.600
M400
M204 P200 T200
G1 F400
G1 Z0.000 F2500
G1 X174.500 Y52.900
G1 X174.400 Y52.900
G1 X174.300 Y52.900
G1 X174.200 Y52.900
G1 X174.100 Y52.900
G1 X174.000 Y52.900
G1 X173.900 Y52.900
G1 X173.800 Y52.900
G1 X173.700 Y52.900
G1 X173.600 Y52.900
G1 X173.500 Y52.900
G0 Z4.600 F3000
M400
M204 P12000 T12000
G1 F12000
G0 X172.600 Y51.600 Z4.600
M400
M204 P200 T200
G1 F400
G1 Z0.000 F2500
G1 X172.700 Y51.600
G1 X172.800 Y51.600
G1 X172.900 Y51.600
G1 X173.000 Y51.600
G1 X173.100 Y51.600
G1 X173.200 Y51.600
G1 X173.300 Y51.600
G1 X173.400 Y51.600
G1 X173.500 Y51.600
G1 X173.600 Y51.600
G1 X173.700 Y51.600
G1 X173.800 Y51.600
G1 X173.900 Y51.600
G1 X174.000 Y51.600
G1 X174.100 Y51.600
G1 X174.200 Y51.600
G1 X174.300 Y51.600
G1 X174.400 Y51.600
G1 X174.500 Y51.600
G1 X174.600 Y51.600
G1 X174.700 Y51.600
G1 X174.800 Y51.600
G1 X174.900 Y51.600
G1 X175.000 Y51.600
G1 X175.100 Y51.600
G1 X175.200 Y51.600
G1 X175.300 Y51.600
G1 X175.400 Y51.600
G1 X175.500 Y51.600
G1 X175.600 Y51.600
G1 X175.700 Y51.600
G1 X175.800 Y51.600
G1 X175.900 Y51.600
G1 X176.000 Y51.600
G1 X176.100 Y51.600
G1 X176.200 Y51.600
G1 X176.300 Y51.600
G1 X176.400 Y51.600
G0 Z4.600 F3000
M400
M204 P12000 T12000
G1 F12000
G0 X176.200 Y50.300 Z4.600
M400
M204 P200 T200
G1 F400
G1 Z0.000 F2500
G1 X176.100 Y50.300
G1 X176.000 Y50.300
G1 X175.900 Y50.300
G1 X175.800 Y50.300
G1 X175.700 Y50.300
G1 X175.600 Y50.300
G1 X175.500 Y50.300
G1 X175.400 Y50.300
G1 X175.300 Y50.300
G1 X175.200 Y50.300
G1 X175.100 Y50.300
G1 X175.000 Y50.300
G1 X174.900 Y50.300
G1 X174.800 Y50.300
G1 X174.700 Y50.300
G1 X174.600 Y50.300
G1 X174.500 Y50.300
G1 X174.400 Y50.300
G1 X174.300 Y50.300
G1 X174.200 Y50.300
G1 X174.100 Y50.300
G1 X174.000 Y50.300
G1 X173.900 Y50.300
G1 X173.800 Y50.300
G1 X173.700 Y50.300
G1 X173.600 Y50.300
G1 X173.500 Y50.300
G1 X173.400 Y50.300
G1 X173.300 Y50.300
G1 X173.200 Y50.300
G1 X173.100 Y50.300
G1 X173.000 Y50.300
G1 X172.900 Y50.300
G1 X172.800 Y50.300
G0 Z4.600 F3000
M400
M204 P12000 T12000
G1 F12000
G0 X172.900 Y46.400 Z4.600
M400
M204 P200 T200
G1 F400
G1 Z0.000 F2500
G1 X173.000 Y46.400
G1 X173.100 Y46.400
G1 X173.200 Y46.400
G1 X173.300 Y46.400
G1 X173.400 Y46.400
G1 X173.500 Y46.400
G1 X173.600 Y46.400
G1 X173.700 Y46.400
G1 X173.800 Y46.400
G1 X173.900 Y46.400
G1 X174.000 Y46.400
G1 X174.100 Y46.400
G1 X174.200 Y46.400
G1 X174.300 Y46.400
G1 X174.400 Y46.400
G1 X174.500 Y46.400
G1 X174.600 Y46.400
G1 X174.700 Y46.400
G1 X174.800 Y46.400
G1 X174.900 Y46.400
G1 X175.000 Y46.400
G1 X175.100 Y46.400
G1 X175.200 Y46.400
G0 Z4.600 F3000
M400
M204 P12000 T12000
G1 F12000
G0 X176.000 Y45.100 Z4.600
M400
M204 P200 T200
G1 F400
G1 Z0.000 F2500
G1 X175.900 Y45.100
G1 X175.800 Y45.100
G1 X175.700 Y45.100
G1 X175.600 Y45.100
G1 X175.500 Y45.100
G1 X175.400 Y45.100
G1 X175.300 Y45.100
G1 X175.200 Y45.100
G1 X175.100 Y45.100
G1 X175.000 Y45.100
G1 X174.900 Y45.100
G1 X174.800 Y45.100
G1 X174.700 Y45.100
G1 X174.600 Y45.100
G1 X174.500 Y45.100
G1 X174.400 Y45.100
G1 X174.300 Y45.100
G1 X174.200 Y45.100
G1 X174.100 Y45.100
G1 X174.000 Y45.100
G1 X173.900 Y45.100
G1 X173.800 Y45.100
G1 X173.700 Y45.100
G1 X173.600 Y45.100
G1 X173.500 Y45.100
G1 X173.400 Y45.100
G1 X173.300 Y45.100
G1 X173.200 Y45.100
G1 X173.100 Y45.100
G1 X173.000 Y45.100
G1 X172.900 Y45.100
G1 X172.800 Y45.100
G1 X172.700 Y45.100
G1 X172.600 Y45.100
G1 X172.500 Y45.100
G1 X172.400 Y45.100
G1 X172.300 Y45.100
G1 X172.200 Y45.100
G1 X172.100 Y45.100
G0 Z4.600 F3000
M400
M204 P12000 T12000
G1 F12000
G0 X172.300 Y43.800 Z4.600
M400
M204 P200 T200
G1 F400
G1 Z0.000 F2500
G1 X172.400 Y43.800
G1 X172.500 Y43.800
G1 X172.600 Y43.800
G1 X172.700 Y43.800
G1 X172.800 Y43.800
G1 X172.900 Y43.800
G1 X173.000 Y43.800
G1 X173.100 Y43.800
G1 X173.200 Y43.800
G1 X173.300 Y43.800
G1 X173.400 Y43.800
G1 X173.500 Y43.800
G1 X173.600 Y43.800
G1 X173.700 Y43.800
G1 X173.800 Y43.800
G1 X173.900 Y43.800
G1 X174.000 Y43.800
G1 X174.100 Y43.800
G1 X174.200 Y43.800
G1 X174.300 Y43.800
G1 X174.400 Y43.800
G1 X174.500 Y43.800
G1 X174.600 Y43.800
G1 X174.700 Y43.800
G1 X174.800 Y43.800
G1 X174.900 Y43.800
G1 X175.000 Y43.800
G1 X175.100 Y43.800
G1 X175.200 Y43.800
G1 X175.300 Y43.800
G1 X175.400 Y43.800
G1 X175.500 Y43.800
G1 X175.600 Y43.800
G1 X175.700 Y43.800
G1 X175.800 Y43.800
G0 Z4.600 F3000
M400
M204 P12000 T12000
G1 F12000
G0 X174.800 Y39.900 Z4.600
M400
M204 P200 T200
G1 F400
G1 Z0.000 F2500
G1 X174.700 Y39.900
G1 X174.600 Y39.900
G1 X174.500 Y39.900
G1 X174.400 Y39.900
G1 X174.300 Y39.900
G1 X174.200 Y39.900
G1 X174.100 Y39.900
G1 X174.000 Y39.900
G1 X173.900 Y39.900
G1 X173.800 Y39.900
G1 X173.700 Y39.900
G1 X173.600 Y39.900
G1 X173.500 Y39.900
G1 X173.400 Y39.900
G1 X173.300 Y39.900
G1 X173.200 Y39.900
G1 X173.100 Y39.900
G1 X173.000 Y39.900
G1 X172.900 Y39.900
G1 X172.800 Y39.900
G1 X172.700 Y39.900
G1 X172.600 Y39.900
G1 X172.500 Y39.900
G1 X172.400 Y39.900
G0 Z4.600 F3000
M400
M204 P12000 T12000
G1 F12000
G0 X171.600 Y38.600 Z4.600
M400
M204 P200 T200
G1 F400
G1 Z0.000 F2500
G1 X171.700 Y38.600
G1 X171.800 Y38.600
G1 X171.900 Y38.600
G1 X172.000 Y38.600
G1 X172.100 Y38.600
G1 X172.200 Y38.600
G1 X172.300 Y38.600
G1 X172.400 Y38.600
G1 X172.500 Y38.600
G1 X172.600 Y38.600
G1 X172.700 Y38.600
G1 X172.800 Y38.600
G1 X172.900 Y38.600
G1 X173.000 Y38.600
G1 X173.100 Y38.600
G1 X173.200 Y38.600
G1 X173.300 Y38.600
G1 X173.400 Y38.600
G1 X173.500 Y38.600
G1 X173.600 Y38.600
G1 X173.700 Y38.600
G1 X173.800 Y38.600
G1 X173.900 Y38.600
G1 X174.000 Y38.600
G1 X174.100 Y38.600
G1 X174.200 Y38.600
G1 X174.300 Y38.600
G1 X174.400 Y38.600
G1 X174.500 Y38.600
G1 X174.600 Y38.600
G1 X174.700 Y38.600
G1 X174.800 Y38.600
G1 X174.900 Y38.600
G1 X175.000 Y38.600
G1 X175.100 Y38.600
G1 X175.200 Y38.600
G1 X175.300 Y38.600
G1 X175.400 Y38.600
G1 X175.500 Y38.600
G1 X175.600 Y38.600
G0 Z4.600 F3000
M400
M204 P12000 T12000
G1 F12000
G0 X175.300 Y37.300 Z4.600
M400
M204 P200 T200
G1 F400
G1 Z0.000 F2500
G1 X175.200 Y37.300
G1 X175.100 Y37.300
G1 X175.000 Y37.300
G1 X174.900 Y37.300
G1 X174.800 Y37.300
G1 X174.700 Y37.300
G1 X174.600 Y37.300
G1 X174.500 Y37.300
G1 X174.400 Y37.300
G1 X174.300 Y37.300
G1 X174.200 Y37.300
G1 X174.100 Y37.300
G1 X174.000 Y37.300
G1 X173.900 Y37.300
G1 X173.800 Y37.300
G1 X173.700 Y37.300
G1 X173.600 Y37.300
G1 X173.500 Y37.300
G1 X173.400 Y37.300
G1 X173.300 Y37.300
G1 X173.200 Y37.300
G1 X173.100 Y37.300
G1 X173.000 Y37.300
G1 X172.900 Y37.300
G1 X172.800 Y37.300
G1 X172.700 Y37.300
G1 X172.600 Y37.300
G1 X172.500 Y37.300
G1 X172.400 Y37.300
G1 X172.300 Y37.300
G1 X172.200 Y37.300
G1 X172.100 Y37.300
G1 X172.000 Y37.300
G1 X171.900 Y37.300
G1 X171.800 Y37.300
G0 Z4.600 F3000
M400
M204 P12000 T12000
G1 F12000
G0 X171.800 Y33.400 Z4.600
M400
M204 P200 T200
G1 F400
G1 Z0.000 F2500
G1 X171.900 Y33.400
G1 X172.000 Y33.400
G1 X172.100 Y33.400
G1 X172.200 Y33.400
G1 X172.300 Y33.400
G1 X172.400 Y33.400
G1 X172.500 Y33.400
G1 X172.600 Y33.400
G1 X172.700 Y33.400
G1 X172.800 Y33.400
G1 X172.900 Y33.400
G1 X173.000 Y33.400
G1 X173.100 Y33.400
G1 X173.200 Y33.400
G1 X173.300 Y33.400
G1 X173.400 Y33.400
G1 X173.500 Y33.400
G1 X173.600 Y33.400
G1 X173.700 Y33.400
G1 X173.800 Y33.400
G1 X173.900 Y33.400
G1 X174.000 Y33.400
G1 X174.100 Y33.400
G1 X174.200 Y33.400
G1 X174.300 Y33.400
G1 X174.400 Y33.400
G1 X174.500 Y33.400
G0 Z4.600 F3000
M400
M204 P12000 T12000
G1 F12000
G0 X175.200 Y32.100 Z4.600
M400
M204 P200 T200
G1 F400
G1 Z0.000 F2500
G1 X175.100 Y32.100
G1 X175.000 Y32.100
G1 X174.900 Y32.100
G1 X174.800 Y32.100
G1 X174.700 Y32.100
G1 X174.600 Y32.100
G1 X174.500 Y32.100
G1 X174.400 Y32.100
G1 X174.300 Y32.100
G1 X174.200 Y32.100
G1 X174.100 Y32.100
G1 X174.000 Y32.100
G1 X173.900 Y32.100
G1 X173.800 Y32.100
G1 X173.700 Y32.100
G1 X173.600 Y32.100
G1 X173.500 Y32.100
G1 X173.400 Y32.100
G1 X173.300 Y32.100
G1 X173.200 Y32.100
G1 X173.100 Y32.100
G1 X173.000 Y32.100
G1 X172.900 Y32.100
G1 X172.800 Y32.100
G1 X172.700 Y32.100
G1 X172.600 Y32.100
G1 X172.500 Y32.100
G1 X172.400 Y32.100
G1 X172.300 Y32.100
G1 X172.200 Y32.100
G1 X172.100 Y32.100
G1 X172.000 Y32.100
G1 X171.900 Y32.100
G1 X171.800 Y32.100
G1 X171.700 Y32.100
G1 X171.600 Y32.100
G1 X171.500 Y32.100
G1 X171.400 Y32.100
G1 X171.300 Y32.100
G1 X171.200 Y32.100
G1 X171.100 Y32.100
G0 Z4.600 F3000
M400
M204 P12000 T12000
G1 F12000
G0 X168.600 Y37.300 Z4.600
M400
M204 P200 T200
G1 F400
G1 Z0.000 F2500
G1 X168.500 Y37.300
G1 X168.400 Y37.300
G1 X168.300 Y37.300
G1 X168.200 Y37.300
G1 X168.100 Y37.300
G1 X168.000 Y37.300
G1 X167.900 Y37.300
G1 X167.800 Y37.300
G1 X167.700 Y37.300
G1 X167.600 Y37.300
G1 X167.500 Y37.300
G1 X167.400 Y37.300
G1 X167.300 Y37.300
G1 X167.200 Y37.300
G1 X167.100 Y37.300
G1 X167.000 Y37.300
G1 X166.900 Y37.300
G0 Z4.600 F3000
M400
M204 P12000 T12000
G1 F12000
G0 X165.800 Y36.000 Z4.600
M400
M204 P200 T200
G1 F400
G1 Z0.000 F2500
G1 X165.900 Y36.000
G1 X166.000 Y36.000
G1 X166.100 Y36.000
G1 X166.200 Y36.000
G1 X166.300 Y36.000
G1 X166.400 Y36.000
G1 X166.500 Y36.000
G1 X166.600 Y36.000
G1 X166.700 Y36.000
G1 X166.800 Y36.000
G1 X166.900 Y36.000
G1 X167.000 Y36.000
G1 X167.100 Y36.000
G1 X167.200 Y36.000
G1 X167.300 Y36.000
G1 X167.400 Y36.000
G1 X167.500 Y36.000
G1 X167.600 Y36.000
G1 X167.700 Y36.000
G1 X167.800 Y36.000
G1 X167.900 Y36.000
G1 X168.000 Y36.000
G1 X168.100 Y36.000
G1 X168.200 Y36.000
G1 X168.300 Y36.000
G1 X168.400 Y36.000
G1 X168.500 Y36.000
G1 X168.600 Y36.000
G1 X168.700 Y36.000
G1 X168.800 Y36.000
G1 X168.900 Y36.000
G1 X169.000 Y36.000
G1 X169.100 Y36.000
G1 X169.200 Y36.000
G1 X169.300 Y36.000
G1 X169.400 Y36.000
G1 X169.500 Y36.000
G1 X169.600 Y36.000
G1 X169.700 Y36.000
G0 Z4.600 F3000
M400
M204 P12000 T12000
G1 F12000
G0 X170.000 Y41.200 Z4.600
M400
M204 P200 T200
G1 F400
G1 Z0.000 F2500
G1 X169.900 Y41.200
G1 X169.800 Y41.200
G1 X169.700 Y41.200
G1 X169.600 Y41.200
G1 X169.500 Y41.200
G1 X169.400 Y41.200
G1 X169.300 Y41.200
G1 X169.200 Y41.200
G1 X169.100 Y41.200
G1 X169.000 Y41.200
G1 X168.900 Y41.200
G1 X168.800 Y41.200
G1 X168.700 Y41.200
G1 X168.600 Y41.200
G1 X168.500 Y41.200
G1 X168.400 Y41.200
G1 X168.300 Y41.200
G1 X168.200 Y41.200
G1 X168.100 Y41.200
G1 X168.000 Y41.200
G1 X167.900 Y41.200
G1 X167.800 Y41.200
G1 X167.700 Y41.200
G1 X167.600 Y41.200
G1 X167.500 Y41.200
G1 X167.400 Y41.200
G1 X167.300 Y41.200
G1 X167.200 Y41.200
G1 X167.100 Y41.200
G1 X167.000 Y41.200
G1 X166.900 Y41.200
G1 X166.800 Y41.200
G1 X166.700 Y41.200
G1 X166.600 Y41.200
G1 X166.500 Y41.200
G1 X166.400 Y41.200
G0 Z4.600 F3000
M400
M204 P12000 T12000
G1 F12000
G0 X167.500 Y43.800 Z4.600
M400
M204 P200 T200
G1 F400
G1 Z0.000 F2500
G1 X167.600 Y43.800
G1 X167.700 Y43.800
G1 X167.800 Y43.800
G1 X167.900 Y43.800
G1 X168.000 Y43.800
G1 X168.100 Y43.800
G1 X168.200 Y43.800
G1 X168.300 Y43.800
G1 X168.400 Y43.800
G1 X168.500 Y43.800
G1 X168.600 Y43.800
G1 X168.700 Y43.800
G1 X168.800 Y43.800
G1 X168.900 Y43.800
G0 Z4.600 F3000
M400
M204 P12000 T12000
G1 F12000
G0 X170.100 Y42.500 Z4.600
M400
M204 P200 T200
G1 F400
G1 Z0.000 F2500
G1 X170.000 Y42.500
G1 X169.900 Y42.500
G1 X169.800 Y42.500
G1 X169.700 Y42.500
G1 X169.600 Y42.500
G1 X169.500 Y42.500
G1 X169.400 Y42.500
G1 X169.300 Y42.500
G1 X169.200 Y42.500
G1 X169.100 Y42.500
G1 X169.000 Y42.500
G1 X168.900 Y42.500
G1 X168.800 Y42.500
G1 X168.700 Y42.500
G1 X168.600 Y42.500
G1 X168.500 Y42.500
G1 X168.400 Y42.500
G1 X168.300 Y42.500
G1 X168.200 Y42.500
G1 X168.100 Y42.500
G1 X168.000 Y42.500
G1 X167.900 Y42.500
G1 X167.800 Y42.500
G1 X167.700 Y42.500
G1 X167.600 Y42.500
G1 X167.500 Y42.500
G1 X167.400 Y42.500
G1 X167.300 Y42.500
G1 X167.200 Y42.500
G1 X167.100 Y42.500
G1 X167.000 Y42.500
G1 X166.900 Y42.500
G1 X166.800 Y42.500
G1 X166.700 Y42.500
G1 X166.600 Y42.500
G1 X166.500 Y42.500
G1 X166.400 Y42.500
G1 X166.300 Y42.500
G0 Z4.600 F3000
M400
M204 P12000 T12000
G1 F12000
G0 X166.900 Y47.700 Z4.600
M400
M204 P200 T200
G1 F400
G1 Z0.000 F2500
G1 X167.000 Y47.700
G1 X167.100 Y47.700
G1 X167.200 Y47.700
G1 X167.300 Y47.700
G1 X167.400 Y47.700
G1 X167.500 Y47.700
G1 X167.600 Y47.700
G1 X167.700 Y47.700
G1 X167.800 Y47.700
G1 X167.900 Y47.700
G1 X168.000 Y47.700
G1 X168.100 Y47.700
G1 X168.200 Y47.700
G1 X168.300 Y47.700
G1 X168.400 Y47.700
G1 X168.500 Y47.700
G1 X168.600 Y47.700
G1 X168.700 Y47.700
G1 X168.800 Y47.700
G1 X168.900 Y47.700
G1 X169.000 Y47.700
G1 X169.100 Y47.700
G1 X169.200 Y47.700
G1 X169.300 Y47.700
G1 X169.400 Y47.700
G1 X169.500 Y47.700
G1 X169.600 Y47.700
G1 X169.700 Y47.700
G1 X169.800 Y47.700
G1 X169.900 Y47.700
G1 X170.000 Y47.700
G1 X170.100 Y47.700
G1 X170.200 Y47.700
G1 X170.300 Y47.700
G1 X170.400 Y47.700
G0 Z4.600 F3000
M400
M204 P12000 T12000
G1 F12000
G0 X169.100 Y50.300 Z4.600
M400
M204 P200 T200
G1 F400
G1 Z0.000 F2500
G1 X169.000 Y50.300
G1 X168.900 Y50.300
G1 X168.800 Y50.300
G1 X168.700 Y50.300
G1 X168.600 Y50.300
G1 X168.500 Y50.300
G1 X168.400 Y50.300
G1 X168.300 Y50.300
G1 X168.200 Y50.300
G0 Z4.600 F3000
M400
M204 P12000 T12000
G1 F12000
G0 X166.800 Y49.000 Z4.600
M400
M204 P200 T200
G1 F400
G1 Z0.000 F2500
G1 X166.900 Y49.000
G1 X167.000 Y49.000
G1 X167.100 Y49.000
G1 X167.200 Y49.000
G1 X167.300 Y49.000
G1 X167.400 Y49.000
G1 X167.500 Y49.000
G1 X167.600 Y49.000
G1 X167.700 Y49.000
G1 X167.800 Y49.000
G1 X167.900 Y49.000
G1 X168.000 Y49.000
G1 X168.100 Y49.000
G1 X168.200 Y49.000
G1 X168.300 Y49.000
G1 X168.400 Y49.000
G1 X168.500 Y49.000
G1 X168.600 Y49.000
G1 X168.700 Y49.000
G1 X168.800 Y49.000
G1 X168.900 Y49.000
G1 X169.000 Y49.000
G1 X169.100 Y49.000
G1 X169.200 Y49.000
G1 X169.300 Y49.000
G1 X169.400 Y49.000
G1 X169.500 Y49.000
G1 X169.600 Y49.000
G1 X169.700 Y49.000
G1 X169.800 Y49.000
G1 X169.900 Y49.000
G1 X170.000 Y49.000
G1 X170.100 Y49.000
G1 X170.200 Y49.000
G1 X170.300 Y49.000
G1 X170.400 Y49.000
G1 X170.500 Y49.000
G0 Z4.600 F3000
M400
M204 P12000 T12000
G1 F12000
G0 X170.900 Y54.200 Z4.600
M400
M204 P200 T200
G1 F400
G1 Z0.000 F2500
G1 X170.800 Y54.200
G1 X170.700 Y54.200
G1 X170.600 Y54.200
G1 X170.500 Y54.200
G1 X170.400 Y54.200
G1 X170.300 Y54.200
G1 X170.200 Y54.200
G1 X170.100 Y54.200
G1 X170.000 Y54.200
G1 X169.900 Y54.200
G1 X169.800 Y54.200
G1 X169.700 Y54.200
G1 X169.600 Y54.200
G1 X169.500 Y54.200
G1 X169.400 Y54.200
G1 X169.300 Y54.200
G1 X169.200 Y54.200
G1 X169.100 Y54.200
G1 X169.000 Y54.200
G1 X168.900 Y54.200
G1 X168.800 Y54.200
G1 X168.700 Y54.200
G1 X168.600 Y54.200
G1 X168.500 Y54.200
G1 X168.400 Y54.200
G1 X168.300 Y54.200
G1 X168.200 Y54.200
G1 X168.100 Y54.200
G1 X168.000 Y54.200
G1 X167.900 Y54.200
G1 X167.800 Y54.200
G1 X167.700 Y54.200
G1 X167.600 Y54.200
G1 X167.500 Y54.200
G1 X167.400 Y54.200
G0 Z4.600 F3000
M400
M204 P12000 T12000
G1 F12000
G0 X169.000 Y56.800 Z4.600
M400
M204 P200 T200
G1 F400
G1 Z0.000 F2500
G1 X169.100 Y56.800
G1 X169.200 Y56.800
G0 Z4.600 F3000
M400
M204 P12000 T12000
G1 F12000
G0 X170.900 Y55.500 Z4.600
M400
M204 P200 T200
G1 F400
G1 Z0.000 F2500
G1 X170.800 Y55.500
G1 X170.700 Y55.500
G1 X170.600 Y55.500
G1 X170.500 Y55.500
G1 X170.400 Y55.500
G1 X170.300 Y55.500
G1 X170.200 Y55.500
G1 X170.100 Y55.500
G1 X170.000 Y55.500
G1 X169.900 Y55.500
G1 X169.800 Y55.500
G1 X169.700 Y55.500
G1 X169.600 Y55.500
G1 X169.500 Y55.500
G1 X169.400 Y55.500
G1 X169.300 Y55.500
G1 X169.200 Y55.500
G1 X169.100 Y55.500
G1 X169.000 Y55.500
G1 X168.900 Y55.500
G1 X168.800 Y55.500
G1 X168.700 Y55.500
G1 X168.600 Y55.500
G1 X168.500 Y55.500
G1 X168.400 Y55.500
G1 X168.300 Y55.500
G1 X168.200 Y55.500
G1 X168.100 Y55.500
G1 X168.000 Y55.500
G1 X167.900 Y55.500
G1 X167.800 Y55.500
G1 X167.700 Y55.500
G1 X167.600 Y55.500
G1 X167.500 Y55.500
G1 X167.400 Y55.500
G1 X167.300 Y55.500
G0 Z4.600 F3000
M400
M204 P12000 T12000
G1 F12000
G0 X167.900 Y60.700 Z4.600
M400
M204 P200 T200
G1 F400
G1 Z0.000 F2500
G1 X168.000 Y60.700
G1 X168.100 Y60.700
G1 X168.200 Y60.700
G1 X168.300 Y60.700
G1 X168.400 Y60.700
G1 X168.500 Y60.700
G1 X168.600 Y60.700
G1 X168.700 Y60.700
G1 X168.800 Y60.700
G1 X168.900 Y60.700
G1 X169.000 Y60.700
G1 X169.100 Y60.700
G1 X169.200 Y60.700
G1 X169.300 Y60.700
G1 X169.400 Y60.700
G1 X169.500 Y60.700
G1 X169.600 Y60.700
G1 X169.700 Y60.700
G1 X169.800 Y60.700
G1 X169.900 Y60.700
G1 X170.000 Y60.700
G1 X170.100 Y60.700
G1 X170.200 Y60.700
G1 X170.300 Y60.700
G1 X170.400 Y60.700
G1 X170.500 Y60.700
G1 X170.600 Y60.700
G1 X170.700 Y60.700
G1 X170.800 Y60.700
G1 X170.900 Y60.700
G1 X171.000 Y60.700
G1 X171.100 Y60.700
G1 X171.200 Y60.700
G1 X171.300 Y60.700
G0 Z4.600 F3000
M400
M204 P12000 T12000
G1 F12000
G0 X171.300 Y62.000 Z4.600
M400
M204 P200 T200
G1 F400
G1 Z0.000 F2500
G1 X171.200 Y62.000
G1 X171.100 Y62.000
G1 X171.000 Y62.000
G1 X170.900 Y62.000
G1 X170.800 Y62.000
G1 X170.700 Y62.000
G1 X170.600 Y62.000
G1 X170.500 Y62.000
G1 X170.400 Y62.000
G1 X170.300 Y62.000
G1 X170.200 Y62.000
G1 X170.100 Y62.000
G1 X170.000 Y62.000
G1 X169.900 Y62.000
G1 X169.800 Y62.000
G1 X169.700 Y62.000
G1 X169.600 Y62.000
G1 X169.500 Y62.000
G1 X169.400 Y62.000
G1 X169.300 Y62.000
G1 X169.200 Y62.000
G1 X169.100 Y62.000
G1 X169.000 Y62.000
G1 X168.900 Y62.000
G1 X168.800 Y62.000
G1 X168.700 Y62.000
G1 X168.600 Y62.000
G1 X168.500 Y62.000
G1 X168.400 Y62.000
G1 X168.300 Y62.000
G1 X168.200 Y62.000
G1 X168.100 Y62.000
G1 X168.000 Y62.000
G1 X167.900 Y62.000
G0 Z4.600 F3000
M400
M204 P12000 T12000
G1 F12000
G0 X168.400 Y67.200 Z4.600
M400
M204 P200 T200
G1 F400
G1 Z0.000 F2500
G1 X168.500 Y67.200
G1 X168.600 Y67.200
G1 X168.700 Y67.200
G1 X168.800 Y67.200
G1 X168.900 Y67.200
G1 X169.000 Y67.200
G1 X169.100 Y67.200
G1 X169.200 Y67.200
G1 X169.300 Y67.200
G1 X169.400 Y67.200
G1 X169.500 Y67.200
G1 X169.600 Y67.200
G1 X169.700 Y67.200
G1 X169.800 Y67.200
G1 X169.900 Y67.200
G1 X170.000 Y67.200
G1 X170.100 Y67.200
G1 X170.200 Y67.200
G1 X170.300 Y67.200
G1 X170.400 Y67.200
G1 X170.500 Y67.200
G1 X170.600 Y67.200
G1 X170.700 Y67.200
G1 X170.800 Y67.200
G1 X170.900 Y67.200
G1 X171.000 Y67.200
G1 X171.100 Y67.200
G1 X171.200 Y67.200
G1 X171.300 Y67.200
G1 X171.400 Y67.200
G1 X171.500 Y67.200
G1 X171.600 Y67.200
G1 X171.700 Y67.200
G0 Z4.600 F3000
M400
M204 P12000 T12000
G1 F12000
G0 X171.700 Y68.500 Z4.600
M400
M204 P200 T200
G1 F400
G1 Z0.000 F2500
G1 X171.600 Y68.500
G1 X171.500 Y68.500
G1 X171.400 Y68.500
G1 X171.300 Y68.500
G1 X171.200 Y68.500
G1 X171.100 Y68.500
G1 X171.000 Y68.500
G1 X170.900 Y68.500
G1 X170.800 Y68.500
G1 X170.700 Y68.500
G1 X170.600 Y68.500
G1 X170.500 Y68.500
G1 X170.400 Y68.500
G1 X170.300 Y68.500
G1 X170.200 Y68.500
G1 X170.100 Y68.500
G1 X170.000 Y68.500
G1 X169.900 Y68.500
G1 X169.800 Y68.500
G1 X169.700 Y68.500
G1 X169.600 Y68.500
G1 X169.500 Y68.500
G1 X169.400 Y68.500
G1 X169.300 Y68.500
G1 X169.200 Y68.500
G1 X169.100 Y68.500
G1 X169.000 Y68.500
G1 X168.900 Y68.500
G1 X168.800 Y68.500
G1 X168.700 Y68.500
G1 X168.600 Y68.500
G1 X168.500 Y68.500
G1 X168.400 Y68.500
G0 Z4.600 F3000
M400
M204 P12000 T12000
G1 F12000
G0 X174.300 Y69.800 Z4.600
M400
M204 P200 T200
G1 F400
G1 Z0.000 F2500
G1 X174.400 Y69.800
G1 X174.500 Y69.800
G1 X174.600 Y69.800
G1 X174.700 Y69.800
G1 X174.800 Y69.800
G1 X174.900 Y69.800
G1 X175.000 Y69.800
G1 X175.100 Y69.800
G1 X175.200 Y69.800
G1 X175.300 Y69.800
G1 X175.400 Y69.800
G1 X175.500 Y69.800
G1 X175.600 Y69.800
G1 X175.700 Y69.800
G1 X175.800 Y69.800
G1 X175.900 Y69.800
G1 X176.000 Y69.800
G1 X176.100 Y69.800
G1 X176.200 Y69.800
G1 X176.300 Y69.800
G1 X176.400 Y69.800
G0 Z4.600 F3000

; --- DIP → Color 3 — Yellow ---
G0 Z4.600 F3000
M400
M204 P12000 T12000
G1 F12000
G0 X82.586 Y0.000 Z31.000
G1 Z0.000 F3000
G1 X82.586 Y0.000 F2500
G1 X82.586 Y2.500 F2500
G1 X77.586 Y0.000 F2500
G1 X82.586 Y0.000 F2500
G0 Z16.000 F3000
G0 X101.673 Y9.420
G0 Z31.000 F3000
G0 X176.500 Y69.800 Z4.600
M400
M204 P200 T200
G1 F400
G1 Z0.000 F2500
G1 X176.500 Y69.800
G1 X176.600 Y69.800
G1 X176.700 Y69.800
G1 X176.800 Y69.800
G1 X176.900 Y69.800
G1 X177.000 Y69.800
G1 X177.100 Y69.800
G1 X177.200 Y69.800
G1 X177.300 Y69.800
G1 X177.400 Y69.800
G0 Z4.600 F3000
M400
M204 P12000 T12000
G1 F12000
G0 X176.400 Y72.400 Z4.600
M400
M204 P200 T200
G1 F400
G1 Z0.000 F2500
G1 X176.300 Y72.400
G1 X176.200 Y72.400
G1 X176.100 Y72.400
G1 X176.000 Y72.400
G1 X175.900 Y72.400
G1 X175.800 Y72.400
G1 X175.700 Y72.400
G1 X175.600 Y72.400
G1 X175.500 Y72.400
G1 X175.400 Y72.400
G1 X175.300 Y72.400
G0 Z4.600 F3000
M400
M204 P12000 T12000
G1 F12000
G0 X174.100 Y71.100 Z4.600
M400
M204 P200 T200
G1 F400
G1 Z0.000 F2500
G1 X174.200 Y71.100
G1 X174.300 Y71.100
G1 X174.400 Y71.100
G1 X174.500 Y71.100
G1 X174.600 Y71.100
G1 X174.700 Y71.100
G1 X174.800 Y71.100
G1 X174.900 Y71.100
G1 X175.000 Y71.100
G1 X175.100 Y71.100
G1 X175.200 Y71.100
G1 X175.300 Y71.100
G1 X175.400 Y71.100
G1 X175.500 Y71.100
G1 X175.600 Y71.100
G1 X175.700 Y71.100
G1 X175.800 Y71.100
G1 X175.900 Y71.100
G1 X176.000 Y71.100
G1 X176.100 Y71.100
G1 X176.200 Y71.100
G1 X176.300 Y71.100
G1 X176.400 Y71.100
G1 X176.500 Y71.100
G1 X176.600 Y71.100
G1 X176.700 Y71.100
G1 X176.800 Y71.100
G1 X176.900 Y71.100
G1 X177.000 Y71.100
G1 X177.100 Y71.100
G1 X177.200 Y71.100
G1 X177.300 Y71.100
G1 X177.400 Y71.100
G1 X177.500 Y71.100
G1 X177.600 Y71.100
G0 Z4.600 F3000
M400
M204 P12000 T12000
G1 F12000
G0 X177.800 Y76.300 Z4.600
M400
M204 P200 T200
G1 F400
G1 Z0.000 F2500
G1 X177.700 Y76.300
G1 X177.600 Y76.300
G1 X177.500 Y76.300
G1 X177.400 Y76.300
G1 X177.300 Y76.300
G1 X177.200 Y76.300
G1 X177.100 Y76.300
G1 X177.000 Y76.300
G1 X176.900 Y76.300
G1 X176.800 Y76.300
G1 X176.700 Y76.300
G1 X176.600 Y76.300
G1 X176.500 Y76.300
G1 X176.400 Y76.300
G1 X176.300 Y76.300
G1 X176.200 Y76.300
G1 X176.100 Y76.300
G1 X176.000 Y76.300
G1 X175.900 Y76.300
G1 X175.800 Y76.300
G1 X175.700 Y76.300
G1 X175.600 Y76.300
G1 X175.500 Y76.300
G1 X175.400 Y76.300
G1 X175.300 Y76.300
G1 X175.200 Y76.300
G1 X175.100 Y76.300
G1 X175.000 Y76.300
G1 X174.900 Y76.300
G1 X174.800 Y76.300
G0 Z4.600 F3000
M400
M204 P12000 T12000
G1 F12000
G0 X176.000 Y78.900 Z4.600
M400
M204 P200 T200
G1 F400
G1 Z0.000 F2500
G1 X176.100 Y78.900
G1 X176.200 Y78.900
G1 X176.300 Y78.900
G1 X176.400 Y78.900
G1 X176.500 Y78.900
G1 X176.600 Y78.900
G0 Z4.600 F3000
M400
M204 P12000 T12000
G1 F12000
G0 X178.000 Y77.600 Z4.600
M400
M204 P200 T200
G1 F400
G1 Z0.000 F2500
G1 X177.900 Y77.600
G1 X177.800 Y77.600
G1 X177.700 Y77.600
G1 X177.600 Y77.600
G1 X177.500 Y77.600
G1 X177.400 Y77.600
G1 X177.300 Y77.600
G1 X177.200 Y77.600
G1 X177.100 Y77.600
G1 X177.000 Y77.600
G1 X176.900 Y77.600
G1 X176.800 Y77.600
G1 X176.700 Y77.600
G1 X176.600 Y77.600
G1 X176.500 Y77.600
G1 X176.400 Y77.600
G1 X176.300 Y77.600
G1 X176.200 Y77.600
G1 X176.100 Y77.600
G1 X176.000 Y77.600
G1 X175.900 Y77.600
G1 X175.800 Y77.600
G1 X175.700 Y77.600
G1 X175.600 Y77.600
G1 X175.500 Y77.600
G1 X175.400 Y77.600
G1 X175.300 Y77.600
G1 X175.200 Y77.600
G1 X175.100 Y77.600
G1 X175.000 Y77.600
G1 X174.900 Y77.600
G1 X174.800 Y77.600
G1 X174.700 Y77.600
G1 X174.600 Y77.600
G0 Z4.600 F3000
M400
M204 P12000 T12000
G1 F12000
G0 X175.300 Y82.800 Z4.600
M400
M204 P200 T200
G1 F400
G1 Z0.000 F2500
G1 X175.400 Y82.800
G1 X175.500 Y82.800
G1 X175.600 Y82.800
G1 X175.700 Y82.800
G1 X175.800 Y82.800
G1 X175.900 Y82.800
G1 X176.000 Y82.800
G1 X176.100 Y82.800
G1 X176.200 Y82.800
G1 X176.300 Y82.800
G1 X176.400 Y82.800
G1 X176.500 Y82.800
G1 X176.600 Y82.800
G1 X176.700 Y82.800
G1 X176.800 Y82.800
G1 X176.900 Y82.800
G1 X177.000 Y82.800
G1 X177.100 Y82.800
G1 X177.200 Y82.800
G1 X177.300 Y82.800
G1 X177.400 Y82.800
G1 X177.500 Y82.800
G1 X177.600 Y82.800
G1 X177.700 Y82.800
G1 X177.800 Y82.800
G1 X177.900 Y82.800
G1 X178.000 Y82.800
G1 X178.100 Y82.800
G1 X178.200 Y82.800
G0 Z4.600 F3000
M400
M204 P12000 T12000
G1 F12000
G0 X178.400 Y84.100 Z4.600
M400
M204 P200 T200
G1 F400
G1 Z0.000 F2500
G1 X178.300 Y84.100
G1 X178.200 Y84.100
G1 X178.100 Y84.100
G1 X178.000 Y84.100
G1 X177.900 Y84.100
G1 X177.800 Y84.100
G1 X177.700 Y84.100
G1 X177.600 Y84.100
G1 X177.500 Y84.100
G1 X177.400 Y84.100
G1 X177.300 Y84.100
G1 X177.200 Y84.100
G1 X177.100 Y84.100
G1 X177.000 Y84.100
G1 X176.900 Y84.100
G1 X176.800 Y84.100
G1 X176.700 Y84.100
G1 X176.600 Y84.100
G1 X176.500 Y84.100
G1 X176.400 Y84.100
G1 X176.300 Y84.100
G1 X176.200 Y84.100
G1 X176.100 Y84.100
G1 X176.000 Y84.100
G1 X175.900 Y84.100
G1 X175.800 Y84.100
G1 X175.700 Y84.100
G1 X175.600 Y84.100
G1 X175.500 Y84.100
G1 X175.400 Y84.100
G1 X175.300 Y84.100
G1 X175.200 Y84.100
G1 X175.100 Y84.100
G0 Z4.600 F3000
M400
M204 P12000 T12000
G1 F12000
G0 X175.700 Y89.300 Z4.600
M400
M204 P200 T200
G1 F400
G1 Z0.000 F2500
G1 X175.800 Y89.300
G1 X175.900 Y89.300
G1 X176.000 Y89.300
G1 X176.100 Y89.300
G1 X176.200 Y89.300
G1 X176.300 Y89.300
G1 X176.400 Y89.300
G1 X176.500 Y89.300
G1 X176.600 Y89.300
G1 X176.700 Y89.300
G1 X176.800 Y89.300
G1 X176.900 Y89.300
G1 X177.000 Y89.300
G1 X177.100 Y89.300
G1 X177.200 Y89.300
G1 X177.300 Y89.300
G1 X177.400 Y89.300
G1 X177.500 Y89.300
G1 X177.600 Y89.300
G1 X177.700 Y89.300
G1 X177.800 Y89.300
G1 X177.900 Y89.300
G1 X178.000 Y89.300
G1 X178.100 Y89.300
G1 X178.200 Y89.300
G1 X178.300 Y89.300
G1 X178.400 Y89.300
G1 X178.500 Y89.300
G1 X178.600 Y89.300
G1 X178.700 Y89.300
G0 Z4.600 F3000
M400
M204 P12000 T12000
G1 F12000
G0 X178.800 Y90.600 Z4.600
M400
M204 P200 T200
G1 F400
G1 Z0.000 F2500
G1 X178.700 Y90.600
G1 X178.600 Y90.600
G1 X178.500 Y90.600
G1 X178.400 Y90.600
G1 X178.300 Y90.600
G1 X178.200 Y90.600
G1 X178.100 Y90.600
G1 X178.000 Y90.600
G1 X177.900 Y90.600
G1 X177.800 Y90.600
G1 X177.700 Y90.600
G1 X177.600 Y90.600
G1 X177.500 Y90.600
G1 X177.400 Y90.600
G1 X177.300 Y90.600
G1 X177.200 Y90.600
G1 X177.100 Y90.600
G1 X177.000 Y90.600
G1 X176.900 Y90.600
G1 X176.800 Y90.600
G1 X176.700 Y90.600
G1 X176.600 Y90.600
G1 X176.500 Y90.600
G1 X176.400 Y90.600
G1 X176.300 Y90.600
G1 X176.200 Y90.600
G1 X176.100 Y90.600
G1 X176.000 Y90.600
G1 X175.900 Y90.600
G1 X175.800 Y90.600
G1 X175.700 Y90.600
G1 X175.600 Y90.600
G0 Z4.600 F3000
M400
M204 P12000 T12000
G1 F12000
G0 X176.300 Y95.800 Z4.600
M400
M204 P200 T200
G1 F400
G1 Z0.000 F2500
G1 X176.400 Y95.800
G1 X176.500 Y95.800
G1 X176.600 Y95.800
G1 X176.700 Y95.800
G1 X176.800 Y95.800
G1 X176.900 Y95.800
G1 X177.000 Y95.800
G1 X177.100 Y95.800
G1 X177.200 Y95.800
G1 X177.300 Y95.800
G1 X177.400 Y95.800
G1 X177.500 Y95.800
G1 X177.600 Y95.800
G1 X177.700 Y95.800
G1 X177.800 Y95.800
G1 X177.900 Y95.800
G1 X178.000 Y95.800
G1 X178.100 Y95.800
G1 X178.200 Y95.800
G1 X178.300 Y95.800
G1 X178.400 Y95.800
G1 X178.500 Y95.800
G1 X178.600 Y95.800
G1 X178.700 Y95.800
G1 X178.800 Y95.800
G1 X178.900 Y95.800
G1 X179.000 Y95.800
G1 X179.100 Y95.800
G0 Z4.600 F3000
M400
M204 P12000 T12000
G1 F12000
G0 X179.200 Y97.100 Z4.600
M400
M204 P200 T200
G1 F400
G1 Z0.000 F2500
G1 X179.100 Y97.100
G1 X179.000 Y97.100
G1 X178.900 Y97.100
G1 X178.800 Y97.100
G1 X178.700 Y97.100
G1 X178.600 Y97.100
G1 X178.500 Y97.100
G1 X178.400 Y97.100
G1 X178.300 Y97.100
G1 X178.200 Y97.100
G1 X178.100 Y97.100
G1 X178.000 Y97.100
G1 X177.900 Y97.100
G1 X177.800 Y97.100
G1 X177.700 Y97.100
G1 X177.600 Y97.100
G1 X177.500 Y97.100
G1 X177.400 Y97.100
G1 X177.300 Y97.100
G1 X177.200 Y97.100
G1 X177.100 Y97.100
G1 X177.000 Y97.100
G1 X176.900 Y97.100
G1 X176.800 Y97.100
G1 X176.700 Y97.100
G1 X176.600 Y97.100
G1 X176.500 Y97.100
G1 X176.400 Y97.100
G1 X176.300 Y97.100
G1 X176.200 Y97.100
G1 X176.100 Y97.100
G0 Z4.600 F3000
M400
M204 P12000 T12000
G1 F12000
G0 X176.800 Y102.300 Z4.600
M400
M204 P200 T200
G1 F400
G1 Z0.000 F2500
G1 X176.900 Y102.300
G1 X177.000 Y102.300
G1 X177.100 Y102.300
G1 X177.200 Y102.300
G1 X177.300 Y102.300
G1 X177.400 Y102.300
G1 X177.500 Y102.300
G1 X177.600 Y102.300
G1 X177.700 Y102.300
G1 X177.800 Y102.300
G1 X177.900 Y102.300
G1 X178.000 Y102.300
G1 X178.100 Y102.300
G1 X178.200 Y102.300
G1 X178.300 Y102.300
G1 X178.400 Y102.300
G1 X178.500 Y102.300
G1 X178.600 Y102.300
G1 X178.700 Y102.300
G1 X178.800 Y102.300
G1 X178.900 Y102.300
G1 X179.000 Y102.300
G1 X179.100 Y102.300
G1 X179.200 Y102.300
G1 X179.300 Y102.300
G1 X179.400 Y102.300
G1 X179.500 Y102.300
G0 Z4.600 F3000
M400
M204 P12000 T12000
G1 F12000
G0 X179.600 Y103.600 Z4.600
M400
M204 P200 T200
G1 F400
G1 Z0.000 F2500
G1 X179.500 Y103.600
G1 X179.400 Y103.600
G1 X179.300 Y103.600
G1 X179.200 Y103.600
G1 X179.100 Y103.600
G1 X179.000 Y103.600
G1 X178.900 Y103.600
G1 X178.800 Y103.600
G1 X178.700 Y103.600
G1 X178.600 Y103.600
G1 X178.500 Y103.600
G1 X178.400 Y103.600
G1 X178.300 Y103.600
G1 X178.200 Y103.600
G1 X178.100 Y103.600
G1 X178.000 Y103.600
G1 X177.900 Y103.600
G1 X177.800 Y103.600
G1 X177.700 Y103.600
G1 X177.600 Y103.600
G1 X177.500 Y103.600
G1 X177.400 Y103.600
G1 X177.300 Y103.600
G1 X177.200 Y103.600
G1 X177.100 Y103.600
G1 X177.000 Y103.600
G1 X176.900 Y103.600
G1 X176.800 Y103.600
G1 X176.700 Y103.600
G1 X176.600 Y103.600
G0 Z4.600 F3000
M400
M204 P12000 T12000
G1 F12000
G0 X177.200 Y108.800 Z4.600
M400
M204 P200 T200
G1 F400
G1 Z0.000 F2500
G1 X177.300 Y108.800
G1 X177.400 Y108.800
G1 X177.500 Y108.800
G1 X177.600 Y108.800
G1 X177.700 Y108.800
G1 X177.800 Y108.800
G1 X177.900 Y108.800
G1 X178.000 Y108.800
G1 X178.100 Y108.800
G1 X178.200 Y108.800
G1 X178.300 Y108.800
G1 X178.400 Y108.800
G1 X178.500 Y108.800
G1 X178.600 Y108.800
G1 X178.700 Y108.800
G1 X178.800 Y108.800
G1 X178.900 Y108.800
G1 X179.000 Y108.800
G1 X179.100 Y108.800
G1 X179.200 Y108.800
G1 X179.300 Y108.800
G1 X179.400 Y108.800
G1 X179.500 Y108.800
G1 X179.600 Y108.800
G1 X179.700 Y108.800
G1 X179.800 Y108.800
G1 X179.900 Y108.800
G0 Z4.600 F3000
M400
M204 P12000 T12000
G1 F12000
G0 X179.900 Y110.100 Z4.600
M400
M204 P200 T200
G1 F400
G1 Z0.000 F2500
G1 X179.800 Y110.100
G1 X179.700 Y110.100
G1 X179.600 Y110.100
G1 X179.500 Y110.100
G1 X179.400 Y110.100
G1 X179.300 Y110.100
G1 X179.200 Y110.100
G1 X179.100 Y110.100
G1 X179.000 Y110.100
G1 X178.900 Y110.100
G1 X178.800 Y110.100
G1 X178.700 Y110.100
G1 X178.600 Y110.100
G1 X178.500 Y110.100
G1 X178.400 Y110.100
G1 X178.300 Y110.100
G1 X178.200 Y110.100
G1 X178.100 Y110.100
G1 X178.000 Y110.100
G1 X177.900 Y110.100
G1 X177.800 Y110.100
G1 X177.700 Y110.100
G1 X177.600 Y110.100
G1 X177.500 Y110.100
G1 X177.400 Y110.100
G1 X177.300 Y110.100
G1 X177.200 Y110.100
G1 X177.100 Y110.100
G0 Z4.600 F3000
M400
M204 P12000 T12000
G1 F12000
G0 X177.600 Y115.300 Z4.600
M400
M204 P200 T200
G1 F400
G1 Z0.000 F2500
G1 X177.700 Y115.300
G1 X177.800 Y115.300
G1 X177.900 Y115.300
G1 X178.000 Y115.300
G1 X178.100 Y115.300
G1 X178.200 Y115.300
G1 X178.300 Y115.300
G1 X178.400 Y115.300
G1 X178.500 Y115.300
G1 X178.600 Y115.300
G1 X178.700 Y115.300
G1 X178.800 Y115.300
G1 X178.900 Y115.300
G1 X179.000 Y115.300
G1 X179.100 Y115.300
G1 X179.200 Y115.300
G1 X179.300 Y115.300
G1 X179.400 Y115.300
G1 X179.500 Y115.300
G1 X179.600 Y115.300
G1 X179.700 Y115.300
G1 X179.800 Y115.300
G1 X179.900 Y115.300
G0 Z4.600 F3000
M400
M204 P12000 T12000
G1 F12000
G0 X179.900 Y116.600 Z4.600
M400
M204 P200 T200
G1 F400
G1 Z0.000 F2500
G1 X179.800 Y116.600
G1 X179.700 Y116.600
G1 X179.600 Y116.600
G1 X179.500 Y116.600
G1 X179.400 Y116.600
G1 X179.300 Y116.600
G1 X179.200 Y116.600
G1 X179.100 Y116.600
G1 X179.000 Y116.600
G1 X178.900 Y116.600
G1 X178.800 Y116.600
G1 X178.700 Y116.600
G1 X178.600 Y116.600
G1 X178.500 Y116.600
G1 X178.400 Y116.600
G1 X178.300 Y116.600
G1 X178.200 Y116.600
G1 X178.100 Y116.600
G1 X178.000 Y116.600
G1 X177.900 Y116.600
G1 X177.800 Y116.600
G1 X177.700 Y116.600
G1 X177.600 Y116.600
G1 X177.500 Y116.600
G0 Z4.600 F3000
M400
M204 P12000 T12000
G1 F12000
G0 X178.200 Y121.800 Z4.600
M400
M204 P200 T200
G1 F400
G1 Z0.000 F2500
G1 X178.300 Y121.800
G1 X178.400 Y121.800
G1 X178.500 Y121.800
G1 X178.600 Y121.800
G1 X178.700 Y121.800
G1 X178.800 Y121.800
G1 X178.900 Y121.800
G1 X179.000 Y121.800
G1 X179.100 Y121.800
G1 X179.200 Y121.800
G1 X179.300 Y121.800
G1 X179.400 Y121.800
G1 X179.500 Y121.800
G1 X179.600 Y121.800
G1 X179.700 Y121.800
G1 X179.800 Y121.800
G1 X179.900 Y121.800
G0 Z4.600 F3000
M400
M204 P12000 T12000
G1 F12000
G0 X179.900 Y123.100 Z4.600
M400
M204 P200 T200
G1 F400
G1 Z0.000 F2500
G1 X179.800 Y123.100
G1 X179.700 Y123.100
G1 X179.600 Y123.100
G1 X179.500 Y123.100
G1 X179.400 Y123.100
G1 X179.300 Y123.100
G1 X179.200 Y123.100
G1 X179.100 Y123.100
G1 X179.000 Y123.100
G1 X178.900 Y123.100
G1 X178.800 Y123.100
G1 X178.700 Y123.100
G1 X178.600 Y123.100
G1 X178.500 Y123.100
G1 X178.400 Y123.100
G1 X178.300 Y123.100
G1 X178.200 Y123.100
G1 X178.100 Y123.100
G0 Z4.600 F3000
M400
M204 P12000 T12000
G1 F12000
G0 X178.600 Y128.300 Z4.600
M400
M204 P200 T200
G1 F400
G1 Z0.000 F2500
G1 X178.700 Y128.300
G1 X178.800 Y128.300
G1 X178.900 Y128.300
G1 X179.000 Y128.300
G1 X179.100 Y128.300
G1 X179.200 Y128.300
G1 X179.300 Y128.300
G1 X179.400 Y128.300
G1 X179.500 Y128.300
G1 X179.600 Y128.300
G1 X179.700 Y128.300
G1 X179.800 Y128.300
G1 X179.900 Y128.300
G0 Z4.600 F3000
M400
M204 P12000 T12000
G1 F12000
G0 X179.900 Y129.600 Z4.600
M400
M204 P200 T200
G1 F400
G1 Z0.000 F2500
G1 X179.800 Y129.600
G1 X179.700 Y129.600
G1 X179.600 Y129.600
G1 X179.500 Y129.600
G1 X179.400 Y129.600
G1 X179.300 Y129.600
G1 X179.200 Y129.600
G0 Z4.600 F3000

; --- DIP → Color 1 — Red ---
G0 Z4.600 F3000
M400
M204 P12000 T12000
G1 F12000
G0 X0.000 Y0.000 Z31.000
G1 Z0.000 F3000
G1 X0.000 Y0.000 F2500
G1 X0.000 Y2.500 F2500
G1 X0.000 Y0.000 F2500
G1 X0.000 Y0.000 F2500
G0 Z16.000 F3000
G0 X21.906 Y9.125
G0 Z31.000 F3000
G0 X179.100 Y129.600 Z4.600
M400
M204 P200 T200
G1 F400
G1 Z0.000 F2500
G1 X179.100 Y129.600
G1 X179.000 Y129.600
G1 X178.900 Y129.600
G1 X178.800 Y129.600
G1 X178.700 Y129.600
G1 X178.600 Y129.600
G1 X178.500 Y129.600
G0 Z4.600 F3000
M400
M204 P12000 T12000
G1 F12000
G0 X179.000 Y134.800 Z4.600
M400
M204 P200 T200
G1 F400
G1 Z0.000 F2500
G1 X179.100 Y134.800
G1 X179.200 Y134.800
G1 X179.300 Y134.800
G1 X179.400 Y134.800
G1 X179.500 Y134.800
G1 X179.600 Y134.800
G1 X179.700 Y134.800
G1 X179.800 Y134.800
G1 X179.900 Y134.800
G0 Z4.600 F3000
M400
M204 P12000 T12000
G1 F12000
G0 X179.900 Y136.100 Z4.600
M400
M204 P200 T200
G1 F400
G1 Z0.000 F2500
G1 X179.800 Y136.100
G1 X179.700 Y136.100
G1 X179.600 Y136.100
G1 X179.500 Y136.100
G1 X179.400 Y136.100
G1 X179.300 Y136.100
G1 X179.200 Y136.100
G1 X179.100 Y136.100
G1 X179.000 Y136.100
G0 Z4.600 F3000
M400
M204 P12000 T12000
G1 F12000
G0 X179.500 Y141.300 Z4.600
M400
M204 P200 T200
G1 F400
G1 Z0.000 F2500
G1 X179.600 Y141.300
G1 X179.700 Y141.300
G1 X179.800 Y141.300
G1 X179.900 Y141.300
G0 Z4.600 F3000
M400
M204 P12000 T12000
G1 F12000
G0 X179.900 Y142.600 Z4.600
M400
M204 P200 T200
G1 F400
G1 Z0.000 F2500
G1 X179.800 Y142.600
G1 X179.700 Y142.600
G1 X179.600 Y142.600
G1 X179.500 Y142.600
G0 Z4.600 F3000
M400
M204 P12000 T12000
G1 F12000
G0 X176.800 Y145.200 Z4.600
M400
M204 P200 T200
G1 F400
G1 Z0.000 F2500
G1 X176.700 Y145.200
G1 X176.600 Y145.200
G1 X176.500 Y145.200
G1 X176.400 Y145.200
G1 X176.300 Y145.200
G1 X176.200 Y145.200
G1 X176.100 Y145.200
G1 X176.000 Y145.200
G1 X175.900 Y145.200
G1 X175.800 Y145.200
G1 X175.700 Y145.200
G1 X175.600 Y145.200
G1 X175.500 Y145.200
G1 X175.400 Y145.200
G1 X175.300 Y145.200
G1 X175.200 Y145.200
G1 X175.100 Y145.200
G1 X175.000 Y145.200
G1 X174.900 Y145.200
G1 X174.800 Y145.200
G1 X174.700 Y145.200
G1 X174.600 Y145.200
G1 X174.500 Y145.200
G1 X174.400 Y145.200
G1 X174.300 Y145.200
G1 X174.200 Y145.200
G0 Z4.600 F3000
M400
M204 P12000 T12000
G1 F12000
G0 X174.400 Y146.500 Z4.600
M400
M204 P200 T200
G1 F400
G1 Z0.000 F2500
G1 X174.500 Y146.500
G1 X174.600 Y146.500
G1 X174.700 Y146.500
G1 X174.800 Y146.500
G1 X174.900 Y146.500
G1 X175.000 Y146.500
G1 X175.100 Y146.500
G1 X175.200 Y146.500
G1 X175.300 Y146.500
G1 X175.400 Y146.500
G1 X175.500 Y146.500
G1 X175.600 Y146.500
G1 X175.700 Y146.500
G1 X175.800 Y146.500
G1 X175.900 Y146.500
G1 X176.000 Y146.500
G1 X176.100 Y146.500
G1 X176.200 Y146.500
G1 X176.300 Y146.500
G1 X176.400 Y146.500
G1 X176.500 Y146.500
G0 Z4.600 F3000
M400
M204 P12000 T12000
G1 F12000
G0 X177.200 Y151.700 Z4.600
M400
M204 P200 T200
G1 F400
G1 Z0.000 F2500
G1 X177.100 Y151.700
G1 X177.000 Y151.700
G1 X176.900 Y151.700
G1 X176.800 Y151.700
G1 X176.700 Y151.700
G1 X176.600 Y151.700
G1 X176.500 Y151.700
G1 X176.400 Y151.700
G1 X176.300 Y151.700
G1 X176.200 Y151.700
G1 X176.100 Y151.700
G1 X176.000 Y151.700
G1 X175.900 Y151.700
G1 X175.800 Y151.700
G1 X175.700 Y151.700
G1 X175.600 Y151.700
G1 X175.500 Y151.700
G1 X175.400 Y151.700
G1 X175.300 Y151.700
G1 X175.200 Y151.700
G1 X175.100 Y151.700
G1 X175.000 Y151.700
G1 X174.900 Y151.700
G1 X174.800 Y151.700
G1 X174.700 Y151.700
G1 X174.600 Y151.700
G0 Z4.600 F3000
M400
M204 P12000 T12000
G1 F12000
G0 X174.900 Y153.000 Z4.600
M400
M204 P200 T200
G1 F400
G1 Z0.000 F2500
G1 X175.000 Y153.000
G1 X175.100 Y153.000
G1 X175.200 Y153.000
G1 X175.300 Y153.000
G1 X175.400 Y153.000
G1 X175.500 Y153.000
G1 X175.600 Y153.000
G1 X175.700 Y153.000
G1 X175.800 Y153.000
G1 X175.900 Y153.000
G1 X176.000 Y153.000
G1 X176.100 Y153.000
G1 X176.200 Y153.000
G1 X176.300 Y153.000
G1 X176.400 Y153.000
G1 X176.500 Y153.000
G1 X176.600 Y153.000
G1 X176.700 Y153.000
G1 X176.800 Y153.000
G1 X176.900 Y153.000
G0 Z4.600 F3000
M400
M204 P12000 T12000
G1 F12000
G0 X177.600 Y158.200 Z4.600
M400
M204 P200 T200
G1 F400
G1 Z0.000 F2500
G1 X177.500 Y158.200
G1 X177.400 Y158.200
G1 X177.300 Y158.200
G1 X177.200 Y158.200
G1 X177.100 Y158.200
G1 X177.000 Y158.200
G1 X176.900 Y158.200
G1 X176.800 Y158.200
G1 X176.700 Y158.200
G1 X176.600 Y158.200
G1 X176.500 Y158.200
G1 X176.400 Y158.200
G1 X176.300 Y158.200
G1 X176.200 Y158.200
G1 X176.100 Y158.200
G1 X176.000 Y158.200
G1 X175.900 Y158.200
G1 X175.800 Y158.200
G1 X175.700 Y158.200
G1 X175.600 Y158.200
G1 X175.500 Y158.200
G1 X175.400 Y158.200
G1 X175.300 Y158.200
G1 X175.200 Y158.200
G1 X175.100 Y158.200
G0 Z4.600 F3000
M400
M204 P12000 T12000
G1 F12000
G0 X175.400 Y159.500 Z4.600
M400
M204 P200 T200
G1 F400
G1 Z0.000 F2500
G1 X175.500 Y159.500
G1 X175.600 Y159.500
G1 X175.700 Y159.500
G1 X175.800 Y159.500
G1 X175.900 Y159.500
G1 X176.000 Y159.500
G1 X176.100 Y159.500
G1 X176.200 Y159.500
G1 X176.300 Y159.500
G1 X176.400 Y159.500
G1 X176.500 Y159.500
G1 X176.600 Y159.500
G1 X176.700 Y159.500
G1 X176.800 Y159.500
G1 X176.900 Y159.500
G1 X177.000 Y159.500
G1 X177.100 Y159.500
G1 X177.200 Y159.500
G1 X177.300 Y159.500
G0 Z4.600 F3000
M400
M204 P12000 T12000
G1 F12000
G0 X178.200 Y164.700 Z4.600
M400
M204 P200 T200
G1 F400
G1 Z0.000 F2500
G1 X178.100 Y164.700
G1 X178.000 Y164.700
G1 X177.900 Y164.700
G1 X177.800 Y164.700
G1 X177.700 Y164.700
G1 X177.600 Y164.700
G1 X177.500 Y164.700
G1 X177.400 Y164.700
G1 X177.300 Y164.700
G1 X177.200 Y164.700
G1 X177.100 Y164.700
G1 X177.000 Y164.700
G1 X176.900 Y164.700
G1 X176.800 Y164.700
G1 X176.700 Y164.700
G1 X176.600 Y164.700
G1 X176.500 Y164.700
G1 X176.400 Y164.700
G1 X176.300 Y164.700
G1 X176.200 Y164.700
G1 X176.100 Y164.700
G1 X176.000 Y164.700
G1 X175.900 Y164.700
G1 X175.800 Y164.700
G1 X175.700 Y164.700
G1 X175.600 Y164.700
G1 X175.500 Y164.700
G1 X175.400 Y164.700
G0 Z4.600 F3000
M400
M204 P12000 T12000
G1 F12000
G0 X175.800 Y166.000 Z4.600
M400
M204 P200 T200
G1 F400
G1 Z0.000 F2500
G1 X175.900 Y166.000
G1 X176.000 Y166.000
G1 X176.100 Y166.000
G1 X176.200 Y166.000
G1 X176.300 Y166.000
G1 X176.400 Y166.000
G1 X176.500 Y166.000
G1 X176.600 Y166.000
G1 X176.700 Y166.000
G1 X176.800 Y166.000
G1 X176.900 Y166.000
G1 X177.000 Y166.000
G1 X177.100 Y166.000
G1 X177.200 Y166.000
G1 X177.300 Y166.000
G1 X177.400 Y166.000
G1 X177.500 Y166.000
G1 X177.600 Y166.000
G1 X177.700 Y166.000
G1 X177.800 Y166.000
G1 X177.900 Y166.000
G0 Z4.600 F3000
M400
M204 P12000 T12000
G1 F12000
G0 X178.600 Y171.200 Z4.600
M400
M204 P200 T200
G1 F400
G1 Z0.000 F2500
G1 X178.500 Y171.200
G1 X178.400 Y171.200
G1 X178.300 Y171.200
G1 X178.200 Y171.200
G1 X178.100 Y171.200
G1 X178.000 Y171.200
G1 X177.900 Y171.200
G1 X177.800 Y171.200
G1 X177.700 Y171.200
G1 X177.600 Y171.200
G1 X177.500 Y171.200
G1 X177.400 Y171.200
G1 X177.300 Y171.200
G1 X177.200 Y171.200
G1 X177.100 Y171.200
G1 X177.000 Y171.200
G1 X176.900 Y171.200
G1 X176.800 Y171.200
G1 X176.700 Y171.200
G1 X176.600 Y171.200
G1 X176.500 Y171.200
G1 X176.400 Y171.200
G1 X176.300 Y171.200
G1 X176.200 Y171.200
G1 X176.100 Y171.200
G1 X176.000 Y171.200
G1 X175.900 Y171.200
G0 Z4.600 F3000
M400
M204 P12000 T12000
G1 F12000
G0 X176.300 Y172.500 Z4.600
M400
M204 P200 T200
G1 F400
G1 Z0.000 F2500
G1 X176.400 Y172.500
G1 X176.500 Y172.500
G1 X176.600 Y172.500
G1 X176.700 Y172.500
G1 X176.800 Y172.500
G1 X176.900 Y172.500
G1 X177.000 Y172.500
G1 X177.100 Y172.500
G1 X177.200 Y172.500
G1 X177.300 Y172.500
G1 X177.400 Y172.500
G1 X177.500 Y172.500
G1 X177.600 Y172.500
G1 X177.700 Y172.500
G1 X177.800 Y172.500
G1 X177.900 Y172.500
G1 X178.000 Y172.500
G1 X178.100 Y172.500
G1 X178.200 Y172.500
G1 X178.300 Y172.500
G0 Z4.600 F3000
M400
M204 P12000 T12000
G1 F12000
G0 X179.200 Y177.700 Z4.600
M400
M204 P200 T200
G1 F400
G1 Z0.000 F2500
G1 X179.100 Y177.700
G1 X179.000 Y177.700
G1 X178.900 Y177.700
G1 X178.800 Y177.700
G1 X178.700 Y177.700
G1 X178.600 Y177.700
G1 X178.500 Y177.700
G1 X178.400 Y177.700
G1 X178.300 Y177.700
G1 X178.200 Y177.700
G1 X178.100 Y177.700
G1 X178.000 Y177.700
G1 X177.900 Y177.700
G1 X177.800 Y177.700
G1 X177.700 Y177.700
G1 X177.600 Y177.700
G1 X177.500 Y177.700
G1 X177.400 Y177.700
G1 X177.300 Y177.700
G1 X177.200 Y177.700
G1 X177.100 Y177.700
G1 X177.000 Y177.700
G1 X176.900 Y177.700
G1 X176.800 Y177.700
G1 X176.700 Y177.700
G1 X176.600 Y177.700
G1 X176.500 Y177.700
G1 X176.400 Y177.700
G1 X176.300 Y177.700
G0 Z4.600 F3000
M400
M204 P12000 T12000
G1 F12000
G0 X176.600 Y179.000 Z4.600
M400
M204 P200 T200
G1 F400
G1 Z0.000 F2500
G1 X176.700 Y179.000
G1 X176.800 Y179.000
G1 X176.900 Y179.000
G1 X177.000 Y179.000
G1 X177.100 Y179.000
G1 X177.200 Y179.000
G1 X177.300 Y179.000
G1 X177.400 Y179.000
G1 X177.500 Y179.000
G1 X177.600 Y179.000
G1 X177.700 Y179.000
G1 X177.800 Y179.000
G1 X177.900 Y179.000
G1 X178.000 Y179.000
G1 X178.100 Y179.000
G1 X178.200 Y179.000
G1 X178.300 Y179.000
G1 X178.400 Y179.000
G1 X178.500 Y179.000
G1 X178.600 Y179.000
G1 X178.700 Y179.000
G1 X178.800 Y179.000
G0 Z4.600 F3000
M400
M204 P12000 T12000
G1 F12000
G0 X172.500 Y176.400 Z4.600
M400
M204 P200 T200
G1 F400
G1 Z0.000 F2500
G1 X172.400 Y176.400
G1 X172.300 Y176.400
G1 X172.200 Y176.400
G1 X172.100 Y176.400
G1 X172.000 Y176.400
G1 X171.900 Y176.400
G1 X171.800 Y176.400
G1 X171.700 Y176.400
G1 X171.600 Y176.400
G1 X171.500 Y176.400
G1 X171.400 Y176.400
G1 X171.300 Y176.400
G0 Z4.600 F3000
M400
M204 P12000 T12000
G1 F12000
G0 X170.500 Y175.100 Z4.600
M400
M204 P200 T200
G1 F400
G1 Z0.000 F2500
G1 X170.600 Y175.100
G1 X170.700 Y175.100
G1 X170.800 Y175.100
G1 X170.900 Y175.100
G1 X171.000 Y175.100
G1 X171.100 Y175.100
G1 X171.200 Y175.100
G1 X171.300 Y175.100
G1 X171.400 Y175.100
G1 X171.500 Y175.100
G1 X171.600 Y175.100
G1 X171.700 Y175.100
G1 X171.800 Y175.100
G1 X171.900 Y175.100
G1 X172.000 Y175.100
G1 X172.100 Y175.100
G1 X172.200 Y175.100
G1 X172.300 Y175.100
G1 X172.400 Y175.100
G1 X172.500 Y175.100
G1 X172.600 Y175.100
G1 X172.700 Y175.100
G1 X172.800 Y175.100
G1 X172.900 Y175.100
G1 X173.000 Y175.100
G1 X173.100 Y175.100
G1 X173.200 Y175.100
G0 Z4.600 F3000
M400
M204 P12000 T12000
G1 F12000
G0 X172.200 Y173.800 Z4.600
M400
M204 P200 T200
G1 F400
G1 Z0.000 F2500
G1 X172.100 Y173.800
G1 X172.000 Y173.800
G1 X171.900 Y173.800
G1 X171.800 Y173.800
G1 X171.700 Y173.800
G1 X171.600 Y173.800
G1 X171.500 Y173.800
G0 Z4.600 F3000
M400
M204 P12000 T12000
G1 F12000
G0 X172.000 Y169.900 Z4.600
M400
M204 P200 T200
G1 F400
G1 Z0.000 F2500
G1 X171.900 Y169.900
G1 X171.800 Y169.900
G1 X171.700 Y169.900
G1 X171.600 Y169.900
G1 X171.500 Y169.900
G1 X171.400 Y169.900
G1 X171.300 Y169.900
G1 X171.200 Y169.900
G1 X171.100 Y169.900
G1 X171.000 Y169.900
G1 X170.900 Y169.900
G0 Z4.600 F3000
M400
M204 P12000 T12000
G1 F12000
G0 X170.100 Y168.600 Z4.600
M400
M204 P200 T200
G1 F400
G1 Z0.000 F2500
G1 X170.200 Y168.600
G1 X170.300 Y168.600
G1 X170.400 Y168.600
G1 X170.500 Y168.600
G1 X170.600 Y168.600
G1 X170.700 Y168.600
G1 X170.800 Y168.600
G1 X170.900 Y168.600
G1 X171.000 Y168.600
G1 X171.100 Y168.600
G1 X171.200 Y168.600
G1 X171.300 Y168.600
G1 X171.400 Y168.600
G1 X171.500 Y168.600
G1 X171.600 Y168.600
G1 X171.700 Y168.600
G1 X171.800 Y168.600
G1 X171.900 Y168.600
G1 X172.000 Y168.600
G1 X172.100 Y168.600
G1 X172.200 Y168.600
G1 X172.300 Y168.600
G1 X172.400 Y168.600
G1 X172.500 Y168.600
G1 X172.600 Y168.600
G1 X172.700 Y168.600
G0 Z4.600 F3000
M400
M204 P12000 T12000
G1 F12000
G0 X171.600 Y163.400 Z4.600
M400
M204 P200 T200
G1 F400
G1 Z0.000 F2500
G1 X171.500 Y163.400
G1 X171.400 Y163.400
G1 X171.300 Y163.400
G1 X171.200 Y163.400
G1 X171.100 Y163.400
G1 X171.000 Y163.400
G1 X170.900 Y163.400
G1 X170.800 Y163.400
G1 X170.700 Y163.400
G1 X170.600 Y163.400
G1 X170.500 Y163.400
G1 X170.400 Y163.400
G1 X170.300 Y163.400
G0 Z4.600 F3000
M400
M204 P12000 T12000
G1 F12000
G0 X169.600 Y162.100 Z4.600
M400
M204 P200 T200
G1 F400
G1 Z0.000 F2500
G1 X169.700 Y162.100
G1 X169.800 Y162.100
G1 X169.900 Y162.100
G1 X170.000 Y162.100
G1 X170.100 Y162.100
G1 X170.200 Y162.100
G1 X170.300 Y162.100
G1 X170.400 Y162.100
G1 X170.500 Y162.100
G1 X170.600 Y162.100
G1 X170.700 Y162.100
G1 X170.800 Y162.100
G1 X170.900 Y162.100
G1 X171.000 Y162.100
G1 X171.100 Y162.100
G1 X171.200 Y162.100
G1 X171.300 Y162.100
G1 X171.400 Y162.100
G1 X171.500 Y162.100
G1 X171.600 Y162.100
G1 X171.700 Y162.100
G1 X171.800 Y162.100
G1 X171.900 Y162.100
G1 X172.000 Y162.100
G1 X172.100 Y162.100
G1 X172.200 Y162.100
G1 X172.300 Y162.100
G0 Z4.600 F3000
M400
M204 P12000 T12000
G1 F12000
G0 X171.100 Y160.800 Z4.600
M400
M204 P200 T200
G1 F400
G1 Z0.000 F2500
G1 X171.000 Y160.800
G1 X170.900 Y160.800
G1 X170.800 Y160.800
G0 Z4.600 F3000
M400
M204 P12000 T12000
G1 F12000
G0 X171.200 Y156.900 Z4.600
M400
M204 P200 T200
G1 F400
G1 Z0.000 F2500
G1 X171.100 Y156.900
G1 X171.000 Y156.900
G1 X170.900 Y156.900
G1 X170.800 Y156.900
G1 X170.700 Y156.900
G1 X170.600 Y156.900
G1 X170.500 Y156.900
G1 X170.400 Y156.900
G1 X170.300 Y156.900
G1 X170.200 Y156.900
G1 X170.100 Y156.900
G1 X170.000 Y156.900
G1 X169.900 Y156.900
G1 X169.800 Y156.900
G0 Z4.600 F3000
M400
M204 P12000 T12000
G1 F12000
G0 X169.200 Y155.600 Z4.600
M400
M204 P200 T200
G1 F400
G1 Z0.000 F2500
G1 X169.300 Y155.600
G1 X169.400 Y155.600
G1 X169.500 Y155.600
G1 X169.600 Y155.600
G1 X169.700 Y155.600
G1 X169.800 Y155.600
G1 X169.900 Y155.600
G1 X170.000 Y155.600
G1 X170.100 Y155.600
G1 X170.200 Y155.600
G1 X170.300 Y155.600
G1 X170.400 Y155.600
G1 X170.500 Y155.600
G1 X170.600 Y155.600
G1 X170.700 Y155.600
G1 X170.800 Y155.600
G1 X170.900 Y155.600
G1 X171.000 Y155.600
G1 X171.100 Y155.600
G1 X171.200 Y155.600
G1 X171.300 Y155.600
G1 X171.400 Y155.600
G1 X171.500 Y155.600
G1 X171.600 Y155.600
G1 X171.700 Y155.600
G1 X171.800 Y155.600
G1 X171.900 Y155.600
G0 Z4.600 F3000
M400
M204 P12000 T12000
G1 F12000
G0 X170.700 Y150.400 Z4.600
M400
M204 P200 T200
G1 F400
G1 Z0.000 F2500
G1 X170.600 Y150.400
G1 X170.500 Y150.400
G1 X170.400 Y150.400
G1 X170.300 Y150.400
G1 X170.200 Y150.400
G1 X170.100 Y150.400
G1 X170.000 Y150.400
G1 X169.900 Y150.400
G1 X169.800 Y150.400
G1 X169.700 Y150.400
G1 X169.600 Y150.400
G1 X169.500 Y150.400
G1 X169.400 Y150.400
G0 Z4.600 F3000
M400
M204 P12000 T12000
G1 F12000
G0 X168.800 Y149.100 Z4.600
M400
M204 P200 T200
G1 F400
G1 Z0.000 F2500
G1 X168.900 Y149.100
G1 X169.000 Y149.100
G1 X169.100 Y149.100
G1 X169.200 Y149.100
G1 X169.300 Y149.100
G1 X169.400 Y149.100
G1 X169.500 Y149.100
G1 X169.600 Y149.100
G1 X169.700 Y149.100
G1 X169.800 Y149.100
G1 X169.900 Y149.100
G1 X170.000 Y149.100
G1 X170.100 Y149.100
G1 X170.200 Y149.100
G1 X170.300 Y149.100
G1 X170.400 Y149.100
G1 X170.500 Y149.100
G1 X170.600 Y149.100
G1 X170.700 Y149.100
G1 X170.800 Y149.100
G1 X170.900 Y149.100
G1 X171.000 Y149.100
G1 X171.100 Y149.100
G1 X171.200 Y149.100
G1 X171.300 Y149.100
G1 X171.400 Y149.100
G0 Z4.600 F3000
M400
M204 P12000 T12000
G1 F12000
G0 X170.400 Y143.900 Z4.600
M400
M204 P200 T200
G1 F400
G1 Z0.000 F2500
G1 X170.300 Y143.900
G1 X170.200 Y143.900
G1 X170.100 Y143.900
G1 X170.000 Y143.900
G1 X169.900 Y143.900
G1 X169.800 Y143.900
G1 X169.700 Y143.900
G1 X169.600 Y143.900
G1 X169.500 Y143.900
G1 X169.400 Y143.900
G1 X169.300 Y143.900
G1 X169.200 Y143.900
G1 X169.100 Y143.900
G1 X169.000 Y143.900
G1 X168.900 Y143.900
G0 Z4.600 F3000
M400
M204 P12000 T12000
G1 F12000
G0 X168.300 Y142.600 Z4.600
M400
M204 P200 T200
G1 F400
G1 Z0.000 F2500
G1 X168.400 Y142.600
G1 X168.500 Y142.600
G1 X168.600 Y142.600
G1 X168.700 Y142.600
G1 X168.800 Y142.600
G1 X168.900 Y142.600
G1 X169.000 Y142.600
G1 X169.100 Y142.600
G1 X169.200 Y142.600
G1 X169.300 Y142.600
G1 X169.400 Y142.600
G1 X169.500 Y142.600
G1 X169.600 Y142.600
G1 X169.700 Y142.600
G1 X169.800 Y142.600
G1 X169.900 Y142.600
G1 X170.000 Y142.600
G1 X170.100 Y142.600
G1 X170.200 Y142.600
G1 X170.300 Y142.600
G1 X170.400 Y142.600
G1 X170.500 Y142.600
G1 X170.600 Y142.600
G1 X170.700 Y142.600
G1 X170.800 Y142.600
G1 X170.900 Y142.600
G1 X171.000 Y142.600
G0 Z4.600 F3000
M400
M204 P12000 T12000
G1 F12000
G0 X173.900 Y140.000 Z4.600
M400
M204 P200 T200
G1 F400
G1 Z0.000 F2500
G1 X174.000 Y140.000
G1 X174.100 Y140.000
G1 X174.200 Y140.000
G1 X174.300 Y140.000
G1 X174.400 Y140.000
G1 X174.500 Y140.000
G1 X174.600 Y140.000
G1 X174.700 Y140.000
G1 X174.800 Y140.000
G1 X174.900 Y140.000
G1 X175.000 Y140.000
G1 X175.100 Y140.000
G1 X175.200 Y140.000
G1 X175.300 Y140.000
G1 X175.400 Y140.000
G1 X175.500 Y140.000
G1 X175.600 Y140.000
G1 X175.700 Y140.000
G1 X175.800 Y140.000
G1 X175.900 Y140.000
G1 X176.000 Y140.000
G1 X176.100 Y140.000
G0 Z4.600 F3000
M400
M204 P12000 T12000
G1 F12000
G0 X176.300 Y138.700 Z4.600
M400
M204 P200 T200
G1 F400
G1 Z0.000 F2500
G1 X176.200 Y138.700
G1 X176.100 Y138.700
G1 X176.000 Y138.700
G1 X175.900 Y138.700
G1 X175.800 Y138.700
G1 X175.700 Y138.700
G1 X175.600 Y138.700
G1 X175.500 Y138.700
G1 X175.400 Y138.700
G1 X175.300 Y138.700
G1 X175.200 Y138.700
G1 X175.100 Y138.700
G1 X175.000 Y138.700
G1 X174.900 Y138.700
G1 X174.800 Y138.700
G1 X174.700 Y138.700
G1 X174.600 Y138.700
G1 X174.500 Y138.700
G1 X174.400 Y138.700
G1 X174.300 Y138.700
G1 X174.200 Y138.700
G1 X174.100 Y138.700
G1 X174.000 Y138.700
G1 X173.900 Y138.700
G1 X173.800 Y138.700
G1 X173.700 Y138.700
G0 Z4.600 F3000
M400
M204 P12000 T12000
G1 F12000
G0 X173.400 Y133.500 Z4.600
M400
M204 P200 T200
G1 F400
G1 Z0.000 F2500
G1 X173.500 Y133.500
G1 X173.600 Y133.500
G1 X173.700 Y133.500
G1 X173.800 Y133.500
G1 X173.900 Y133.500
G1 X174.000 Y133.500
G1 X174.100 Y133.500
G1 X174.200 Y133.500
G1 X174.300 Y133.500
G1 X174.400 Y133.500
G1 X174.500 Y133.500
G1 X174.600 Y133.500
G1 X174.700 Y133.500
G1 X174.800 Y133.500
G1 X174.900 Y133.500
G1 X175.000 Y133.500
G1 X175.100 Y133.500
G1 X175.200 Y133.500
G1 X175.300 Y133.500
G1 X175.400 Y133.500
G1 X175.500 Y133.500
G1 X175.600 Y133.500
G1 X175.700 Y133.500
G0 Z4.600 F3000
M400
M204 P12000 T12000
G1 F12000
G0 X175.900 Y132.200 Z4.600
M400
M204 P200 T200
G1 F400
G1 Z0.000 F2500
G1 X175.800 Y132.200
G1 X175.700 Y132.200
G1 X175.600 Y132.200
G1 X175.500 Y132.200
G1 X175.400 Y132.200
G1 X175.300 Y132.200
G1 X175.200 Y132.200
G1 X175.100 Y132.200
G1 X175.000 Y132.200
G1 X174.900 Y132.200
G1 X174.800 Y132.200
G1 X174.700 Y132.200
G1 X174.600 Y132.200
G1 X174.500 Y132.200
G1 X174.400 Y132.200
G1 X174.300 Y132.200
G1 X174.200 Y132.200
G1 X174.100 Y132.200
G1 X174.000 Y132.200
G1 X173.900 Y132.200
G1 X173.800 Y132.200
G1 X173.700 Y132.200
G1 X173.600 Y132.200
G1 X173.500 Y132.200
G1 X173.400 Y132.200
G1 X173.300 Y132.200
G1 X173.200 Y132.200
G0 Z4.600 F3000
M400
M204 P12000 T12000
G1 F12000
G0 X172.900 Y127.000 Z4.600
M400
M204 P200 T200
G1 F400
G1 Z0.000 F2500
G1 X173.000 Y127.000
G1 X173.100 Y127.000
G1 X173.200 Y127.000
G1 X173.300 Y127.000
G1 X173.400 Y127.000
G1 X173.500 Y127.000
G1 X173.600 Y127.000
G1 X173.700 Y127.000
G1 X173.800 Y127.000
G1 X173.900 Y127.000
G1 X174.000 Y127.000
G1 X174.100 Y127.000
G1 X174.200 Y127.000
G1 X174.300 Y127.000
G1 X174.400 Y127.000
G1 X174.500 Y127.000
G1 X174.600 Y127.000
G1 X174.700 Y127.000
G1 X174.800 Y127.000
G1 X174.900 Y127.000
G1 X175.000 Y127.000
G1 X175.100 Y127.000
G1 X175.200 Y127.000
G1 X175.300 Y127.000
G0 Z4.600 F3000
M400
M204 P12000 T12000
G1 F12000
G0 X175.500 Y125.700 Z4.600
M400
M204 P200 T200
G1 F400
G1 Z0.000 F2500
G1 X175.400 Y125.700
G1 X175.300 Y125.700
G1 X175.200 Y125.700
G1 X175.100 Y125.700
G1 X175.000 Y125.700
G1 X174.900 Y125.700
G1 X174.800 Y125.700
G1 X174.700 Y125.700
G1 X174.600 Y125.700
G1 X174.500 Y125.700
G1 X174.400 Y125.700
G1 X174.300 Y125.700
G1 X174.200 Y125.700
G1 X174.100 Y125.700
G1 X174.000 Y125.700
G1 X173.900 Y125.700
G1 X173.800 Y125.700
G1 X173.700 Y125.700
G1 X173.600 Y125.700
G1 X173.500 Y125.700
G1 X173.400 Y125.700
G1 X173.300 Y125.700
G1 X173.200 Y125.700
G1 X173.100 Y125.700
G1 X173.000 Y125.700
G1 X172.900 Y125.700
G1 X172.800 Y125.700
G1 X172.700 Y125.700
G0 Z4.600 F3000
M400
M204 P12000 T12000
G1 F12000
G0 X172.400 Y120.500 Z4.600
M400
M204 P200 T200
G1 F400
G1 Z0.000 F2500
G1 X172.500 Y120.500
G1 X172.600 Y120.500
G1 X172.700 Y120.500
G1 X172.800 Y120.500
G1 X172.900 Y120.500
G1 X173.000 Y120.500
G1 X173.100 Y120.500
G1 X173.200 Y120.500
G1 X173.300 Y120.500
G1 X173.400 Y120.500
G1 X173.500 Y120.500
G1 X173.600 Y120.500
G1 X173.700 Y120.500
G1 X173.800 Y120.500
G1 X173.900 Y120.500
G1 X174.000 Y120.500
G1 X174.100 Y120.500
G1 X174.200 Y120.500
G1 X174.300 Y120.500
G1 X174.400 Y120.500
G1 X174.500 Y120.500
G1 X174.600 Y120.500
G1 X174.700 Y120.500
G1 X174.800 Y120.500
G1 X174.900 Y120.500
G0 Z4.600 F3000
M400
M204 P12000 T12000
G1 F12000
G0 X175.100 Y119.200 Z4.600
M400
M204 P200 T200
G1 F400
G1 Z0.000 F2500
G1 X175.000 Y119.200
G1 X174.900 Y119.200
G1 X174.800 Y119.200
G1 X174.700 Y119.200
G1 X174.600 Y119.200
G1 X174.500 Y119.200
G1 X174.400 Y119.200
G1 X174.300 Y119.200
G1 X174.200 Y119.200
G1 X174.100 Y119.200
G1 X174.000 Y119.200
G1 X173.900 Y119.200
G1 X173.800 Y119.200
G1 X173.700 Y119.200
G1 X173.600 Y119.200
G1 X173.500 Y119.200
G1 X173.400 Y119.200
G1 X173.300 Y119.200
G1 X173.200 Y119.200
G1 X173.100 Y119.200
G1 X173.000 Y119.200
G1 X172.900 Y119.200
G1 X172.800 Y119.200
G1 X172.700 Y119.200
G1 X172.600 Y119.200
G1 X172.500 Y119.200
G1 X172.400 Y119.200
G1 X172.300 Y119.200
G1 X172.200 Y119.200
G0 Z4.600 F3000
M400
M204 P12000 T12000
G1 F12000
G0 X171.900 Y114.000 Z4.600
M400
M204 P200 T200
G1 F400
G1 Z0.000 F2500
G1 X172.000 Y114.000
G1 X172.100 Y114.000
G1 X172.200 Y114.000
G1 X172.300 Y114.000
G1 X172.400 Y114.000
G1 X172.500 Y114.000
G1 X172.600 Y114.000
G1 X172.700 Y114.000
G1 X172.800 Y114.000
G1 X172.900 Y114.000
G1 X173.000 Y114.000
G1 X173.100 Y114.000
G1 X173.200 Y114.000
G1 X173.300 Y114.000
G1 X173.400 Y114.000
G1 X173.500 Y114.000
G1 X173.600 Y114.000
G1 X173.700 Y114.000
G1 X173.800 Y114.000
G1 X173.900 Y114.000
G1 X174.000 Y114.000
G1 X174.100 Y114.000
G1 X174.200 Y114.000
G1 X174.300 Y114.000
G1 X174.400 Y114.000
G1 X174.500 Y114.000
G0 Z4.600 F3000
M400
M204 P12000 T12000
G1 F12000
G0 X174.700 Y112.700 Z4.600
M400
M204 P200 T200
G1 F400
G1 Z0.000 F2500
G1 X174.600 Y112.700
G1 X174.500 Y112.700
G1 X174.400 Y112.700
G1 X174.300 Y112.700
G1 X174.200 Y112.700
G1 X174.100 Y112.700
G1 X174.000 Y112.700
G1 X173.900 Y112.700
G1 X173.800 Y112.700
G1 X173.700 Y112.700
G1 X173.600 Y112.700
G1 X173.500 Y112.700
G1 X173.400 Y112.700
G1 X173.300 Y112.700
G1 X173.200 Y112.700
G1 X173.100 Y112.700
G1 X173.000 Y112.700
G1 X172.900 Y112.700
G1 X172.800 Y112.700
G1 X172.700 Y112.700
G1 X172.600 Y112.700
G1 X172.500 Y112.700
G1 X172.400 Y112.700
G1 X172.300 Y112.700
G1 X172.200 Y112.700
G1 X172.100 Y112.700
G1 X172.000 Y112.700
G1 X171.900 Y112.700
G1 X171.800 Y112.700
G1 X171.700 Y112.700
G0 Z4.600 F3000
M400
M204 P12000 T12000
G1 F12000
G0 X171.400 Y107.500 Z4.600
M400
M204 P200 T200
G1 F400
G1 Z0.000 F2500
G1 X171.500 Y107.500
G1 X171.600 Y107.500
G1 X171.700 Y107.500
G1 X171.800 Y107.500
G1 X171.900 Y107.500
G1 X172.000 Y107.500
G1 X172.100 Y107.500
G1 X172.200 Y107.500
G1 X172.300 Y107.500
G1 X172.400 Y107.500
G1 X172.500 Y107.500
G1 X172.600 Y107.500
G1 X172.700 Y107.500
G1 X172.800 Y107.500
G1 X172.900 Y107.500
G1 X173.000 Y107.500
G1 X173.100 Y107.500
G1 X173.200 Y107.500
G1 X173.300 Y107.500
G1 X173.400 Y107.500
G1 X173.500 Y107.500
G1 X173.600 Y107.500
G1 X173.700 Y107.500
G1 X173.800 Y107.500
G1 X173.900 Y107.500
G1 X174.000 Y107.500
G1 X174.100 Y107.500
G0 Z4.600 F3000
M400
M204 P12000 T12000
G1 F12000
G0 X174.200 Y106.200 Z4.600
M400
M204 P200 T200
G1 F400
G1 Z0.000 F2500
G1 X174.100 Y106.200
G1 X174.000 Y106.200
G1 X173.900 Y106.200
G1 X173.800 Y106.200
G1 X173.700 Y106.200
G1 X173.600 Y106.200
G1 X173.500 Y106.200
G1 X173.400 Y106.200
G1 X173.300 Y106.200
G1 X173.200 Y106.200
G1 X173.100 Y106.200
G1 X173.000 Y106.200
G1 X172.900 Y106.200
G1 X172.800 Y106.200
G1 X172.700 Y106.200
G1 X172.600 Y106.200
G1 X172.500 Y106.200
G1 X172.400 Y106.200
G1 X172.300 Y106.200
G1 X172.200 Y106.200
G1 X172.100 Y106.200
G1 X172.000 Y106.200
G1 X171.900 Y106.200
G1 X171.800 Y106.200
G1 X171.700 Y106.200
G1 X171.600 Y106.200
G1 X171.500 Y106.200
G1 X171.400 Y106.200
G1 X171.300 Y106.200
G0 Z4.600 F3000
M400
M204 P12000 T12000
G1 F12000
G0 X170.900 Y101.000 Z4.600
M400
M204 P200 T200
G1 F400
G1 Z0.000 F2500
G1 X171.000 Y101.000
G1 X171.100 Y101.000
G1 X171.200 Y101.000
G1 X171.300 Y101.000
G1 X171.400 Y101.000
G1 X171.500 Y101.000
G1 X171.600 Y101.000
G1 X171.700 Y101.000
G1 X171.800 Y101.000
G1 X171.900 Y101.000
G1 X172.000 Y101.000
G1 X172.100 Y101.000
G1 X172.200 Y101.000
G1 X172.300 Y101.000
G1 X172.400 Y101.000
G1 X172.500 Y101.000
G1 X172.600 Y101.000
G1 X172.700 Y101.000
G1 X172.800 Y101.000
G1 X172.900 Y101.000
G1 X173.000 Y101.000
G1 X173.100 Y101.000
G1 X173.200 Y101.000
G1 X173.300 Y101.000
G1 X173.400 Y101.000
G1 X173.500 Y101.000
G1 X173.600 Y101.000
G1 X173.700 Y101.000
G0 Z4.600 F3000
M400
M204 P12000 T12000
G1 F12000
G0 X173.800 Y99.700 Z4.600
M400
M204 P200 T200
G1 F400
G1 Z0.000 F2500
G1 X173.700 Y99.700
G1 X173.600 Y99.700
G1 X173.500 Y99.700
G1 X173.400 Y99.700
G1 X173.300 Y99.700
G1 X173.200 Y99.700
G1 X173.100 Y99.700
G1 X173.000 Y99.700
G1 X172.900 Y99.700
G1 X172.800 Y99.700
G1 X172.700 Y99.700
G1 X172.600 Y99.700
G1 X172.500 Y99.700
G1 X172.400 Y99.700
G1 X172.300 Y99.700
G1 X172.200 Y99.700
G1 X172.100 Y99.700
G1 X172.000 Y99.700
G1 X171.900 Y99.700
G1 X171.800 Y99.700
G1 X171.700 Y99.700
G1 X171.600 Y99.700
G1 X171.500 Y99.700
G1 X171.400 Y99.700
G1 X171.300 Y99.700
G1 X171.200 Y99.700
G1 X171.100 Y99.700
G1 X171.000 Y99.700
G1 X170.900 Y99.700
G1 X170.800 Y99.700
G0 Z4.600 F3000
M400
M204 P12000 T12000
G1 F12000
G0 X170.400 Y94.500 Z4.600
M400
M204 P200 T200
G1 F400
G1 Z0.000 F2500
G1 X170.500 Y94.500
G1 X170.600 Y94.500
G1 X170.700 Y94.500
G1 X170.800 Y94.500
G1 X170.900 Y94.500
G1 X171.000 Y94.500
G1 X171.100 Y94.500
G1 X171.200 Y94.500
G1 X171.300 Y94.500
G1 X171.400 Y94.500
G1 X171.500 Y94.500
G1 X171.600 Y94.500
G1 X171.700 Y94.500
G1 X171.800 Y94.500
G1 X171.900 Y94.500
G1 X172.000 Y94.500
G1 X172.100 Y94.500
G1 X172.200 Y94.500
G1 X172.300 Y94.500
G1 X172.400 Y94.500
G1 X172.500 Y94.500
G1 X172.600 Y94.500
G1 X172.700 Y94.500
G1 X172.800 Y94.500
G1 X172.900 Y94.500
G1 X173.000 Y94.500
G1 X173.100 Y94.500
G1 X173.200 Y94.500
G1 X173.300 Y94.500
G0 Z4.600 F3000
M400
M204 P12000 T12000
G1 F12000
G0 X173.400 Y93.200 Z4.600
M400
M204 P200 T200
G1 F400
G1 Z0.000 F2500
G1 X173.300 Y93.200
G1 X173.200 Y93.200
G1 X173.100 Y93.200
G1 X173.000 Y93.200
G1 X172.900 Y93.200
G1 X172.800 Y93.200
G1 X172.700 Y93.200
G1 X172.600 Y93.200
G1 X172.500 Y93.200
G1 X172.400 Y93.200
G1 X172.300 Y93.200
G1 X172.200 Y93.200
G1 X172.100 Y93.200
G1 X172.000 Y93.200
G1 X171.900 Y93.200
G1 X171.800 Y93.200
G1 X171.700 Y93.200
G1 X171.600 Y93.200
G1 X171.500 Y93.200
G1 X171.400 Y93.200
G1 X171.300 Y93.200
G1 X171.200 Y93.200
G1 X171.100 Y93.200
G1 X171.000 Y93.200
G0 Z4.600 F3000

; --- DIP → Color 2 — Teal ---
G0 Z4.600 F3000
M400
M204 P12000 T12000
G1 F12000
G0 X74.111 Y6.352 Z31.000
G1 Z0.000 F3000
G1 X74.111 Y6.352 F2500
G1 X74.111 Y8.852 F2500
G1 X69.111 Y6.352 F2500
G1 X74.111 Y0.000 F2500
G0 Z16.000 F3000
G0 X71.483 Y9.651
G0 Z31.000 F3000
G0 X170.900 Y93.200 Z4.600
M400
M204 P200 T200
G1 F400
G1 Z0.000 F2500
G1 X170.900 Y93.200
G1 X170.800 Y93.200
G1 X170.700 Y93.200
G1 X170.600 Y93.200
G1 X170.500 Y93.200
G1 X170.400 Y93.200
G1 X170.300 Y93.200
G0 Z4.600 F3000
M400
M204 P12000 T12000
G1 F12000
G0 X169.900 Y88.000 Z4.600
M400
M204 P200 T200
G1 F400
G1 Z0.000 F2500
G1 X170.000 Y88.000
G1 X170.100 Y88.000
G1 X170.200 Y88.000
G1 X170.300 Y88.000
G1 X170.400 Y88.000
G1 X170.500 Y88.000
G1 X170.600 Y88.000
G1 X170.700 Y88.000
G1 X170.800 Y88.000
G1 X170.900 Y88.000
G1 X171.000 Y88.000
G1 X171.100 Y88.000
G1 X171.200 Y88.000
G1 X171.300 Y88.000
G1 X171.400 Y88.000
G1 X171.500 Y88.000
G1 X171.600 Y88.000
G1 X171.700 Y88.000
G1 X171.800 Y88.000
G1 X171.900 Y88.000
G1 X172.000 Y88.000
G1 X172.100 Y88.000
G1 X172.200 Y88.000
G1 X172.300 Y88.000
G1 X172.400 Y88.000
G1 X172.500 Y88.000
G1 X172.600 Y88.000
G1 X172.700 Y88.000
G1 X172.800 Y88.000
G1 X172.900 Y88.000
G0 Z4.600 F3000
M400
M204 P12000 T12000
G1 F12000
G0 X173.000 Y86.700 Z4.600
M400
M204 P200 T200
G1 F400
G1 Z0.000 F2500
G1 X172.900 Y86.700
G1 X172.800 Y86.700
G1 X172.700 Y86.700
G1 X172.600 Y86.700
G1 X172.500 Y86.700
G1 X172.400 Y86.700
G1 X172.300 Y86.700
G1 X172.200 Y86.700
G1 X172.100 Y86.700
G1 X172.000 Y86.700
G1 X171.900 Y86.700
G1 X171.800 Y86.700
G1 X171.700 Y86.700
G1 X171.600 Y86.700
G1 X171.500 Y86.700
G1 X171.400 Y86.700
G1 X171.300 Y86.700
G1 X171.200 Y86.700
G1 X171.100 Y86.700
G1 X171.000 Y86.700
G1 X170.900 Y86.700
G1 X170.800 Y86.700
G1 X170.700 Y86.700
G1 X170.600 Y86.700
G1 X170.500 Y86.700
G1 X170.400 Y86.700
G1 X170.300 Y86.700
G1 X170.200 Y86.700
G1 X170.100 Y86.700
G1 X170.000 Y86.700
G1 X169.900 Y86.700
G1 X169.800 Y86.700
G0 Z4.600 F3000
M400
