G90
G21
; === MULTI-COLOR PAINTER GCODE ===
; Generated layers: 1


; ═══════════════════════════════
; LAYER 1: Color 1 — Red
; ═══════════════════════════════


; --- CIKEL NAMAKANJA ---
G0 Z4.600 F3000
M400
M204 P12000 T12000
G1 F12000
G0 X-17.093 Y-18.298 Z31.000
G1 Z0.000 F3000
G1 X-17.093 Y-18.298 F2500
G1 X-17.093 Y-15.798 F2500
G1 X-22.093 Y-18.298 F2500
G1 X-17.093 Y-25.798 F2500
G0 Z16.000 F3000
G0 X10.607 Y10.607
G0 Z31.000 F3000
G0 X30.000 Y30.000 Z4.600
M400
M204 P12000 T12000
G1 F12000
G0 X30.000 Y30.000 Z4.600
M400
M204 P200 T200
G1 F400
G1 Z0.000 F2500
G1 X31.000 Y30.000
G1 X32.000 Y30.000
G1 X33.000 Y30.000
G1 X34.000 Y30.000
G1 X35.000 Y30.000
G1 X36.000 Y30.000
G1 X37.000 Y30.000
G1 X38.000 Y30.000
G1 X39.000 Y30.000
G1 X40.000 Y30.000
G1 X41.000 Y30.000
G1 X42.000 Y30.000
G1 X43.000 Y30.000
G1 X44.000 Y30.000
G1 X45.000 Y30.000
G1 X46.000 Y30.000
G1 X47.000 Y30.000
G1 X48.000 Y30.000
G1 X49.000 Y30.000
G1 X50.000 Y30.000
G1 X51.000 Y30.000
G1 X52.000 Y30.000
G1 X53.000 Y30.000
G1 X54.000 Y30.000
G1 X55.000 Y30.000
G1 X56.000 Y30.000
G1 X57.000 Y30.000
G1 X58.000 Y30.000
G1 X59.000 Y30.000
G1 X60.000 Y30.000
G1 X61.000 Y30.000
G1 X62.000 Y30.000
G1 X63.000 Y30.000
G1 X64.000 Y30.000
G1 X65.000 Y30.000
G1 X66.000 Y30.000
G1 X67.000 Y30.000
G1 X68.000 Y30.000
G1 X69.000 Y30.000
G1 X70.000 Y30.000
G1 X71.000 Y30.000
G1 X72.000 Y30.000
G1 X73.000 Y30.000
G1 X74.000 Y30.000
G1 X75.000 Y30.000
G1 X76.000 Y30.000
G1 X77.000 Y30.000
G1 X78.000 Y30.000
G1 X79.000 Y30.000
G1 X80.000 Y30.000
G1 X81.000 Y30.000
G1 X82.000 Y30.000
G1 X83.000 Y30.000
G1 X84.000 Y30.000
G1 X85.000 Y30.000
G1 X86.000 Y30.000
G1 X87.000 Y30.000
G1 X88.000 Y30.000
G1 X89.000 Y30.000
G1 X90.000 Y30.000
G1 X91.000 Y30.000
G1 X92.000 Y30.000
G1 X93.000 Y30.000
G1 X94.000 Y30.000
G1 X95.000 Y30.000
G1 X96.000 Y30.000
G1 X97.000 Y30.000
G1 X98.000 Y30.000
G1 X99.000 Y30.000
G1 X100.000 Y30.000
G1 X101.000 Y30.000
G1 X102.000 Y30.000
G1 X103.000 Y30.000
G1 X104.000 Y30.000
G1 X105.000 Y30.000
G1 X106.000 Y30.000
G1 X107.000 Y30.000
G1 X108.000 Y30.000
G1 X109.000 Y30.000
G1 X110.000 Y30.000
G1 X111.000 Y30.000
G1 X112.000 Y30.000
G1 X113.000 Y30.000
G1 X114.000 Y30.000
G1 X115.000 Y30.000
G1 X116.000 Y30.000
G1 X117.000 Y30.000
G1 X118.000 Y30.000
G1 X119.000 Y30.000
G1 X120.000 Y30.000
G1 X121.000 Y30.000
G1 X122.000 Y30.000
G1 X123.000 Y30.000
G1 X124.000 Y30.000
G1 X125.000 Y30.000
G1 X126.000 Y30.000
G1 X127.000 Y30.000
G1 X128.000 Y30.000
G1 X129.000 Y30.000
G1 X130.000 Y30.000
G1 X131.000 Y30.000
G1 X132.000 Y30.000
G1 X133.000 Y30.000
G1 X134.000 Y30.000
G1 X135.000 Y30.000
G1 X136.000 Y30.000
G1 X137.000 Y30.000
G1 X138.000 Y30.000
G1 X139.000 Y30.000
G1 X140.000 Y30.000
G1 X141.000 Y30.000
G1 X142.000 Y30.000
G1 X143.000 Y30.000
G1 X144.000 Y30.000
G1 X145.000 Y30.000
G1 X146.000 Y30.000
G1 X147.000 Y30.000
G1 X148.000 Y30.000
G1 X149.000 Y30.000
G1 X150.000 Y30.000
G1 X151.000 Y30.000
G1 X152.000 Y30.000
G1 X153.000 Y30.000
G1 X154.000 Y30.000
G1 X155.000 Y30.000
G1 X156.000 Y30.000
G1 X157.000 Y30.000
G1 X158.000 Y30.000
G1 X159.000 Y30.000
G1 X160.000 Y30.000
G1 X161.000 Y30.000
G1 X162.000 Y30.000
G1 X163.000 Y30.000
G1 X164.000 Y30.000
G1 X165.000 Y30.000
G1 X166.000 Y30.000
G1 X167.000 Y30.000
G1 X168.000 Y30.000
G1 X169.000 Y30.000
G1 X170.000 Y30.000
G1 X171.000 Y30.000
G1 X172.000 Y30.000
G1 X173.000 Y30.000
G1 X174.000 Y30.000
G1 X175.000 Y30.000
G1 X176.000 Y30.000
G1 X177.000 Y30.000
G1 X178.000 Y30.000
G1 X179.000 Y30.000
G1 X180.000 Y30.000
G1 X181.000 Y30.000
G1 X182.000 Y30.000
G1 X183.000 Y30.000
G1 X184.000 Y30.000
G1 X185.000 Y30.000
G1 X186.000 Y30.000
G1 X187.000 Y30.000
G1 X188.000 Y30.000
G1 X189.000 Y30.000
G1 X190.000 Y30.000
G1 X191.000 Y30.000
G1 X192.000 Y30.000
G1 X193.000 Y30.000
G1 X194.000 Y30.000
G1 X195.000 Y30.000
G1 X196.000 Y30.000
G1 X197.000 Y30.000
G1 X198.000 Y30.000
G1 X199.000 Y30.000
G1 X200.000 Y30.000
G1 X201.000 Y30.000
G1 X202.000 Y30.000
G1 X203.000 Y30.000
G1 X204.000 Y30.000
G1 X205.000 Y30.000
G1 X206.000 Y30.000
G1 X207.000 Y30.000
G1 X208.000 Y30.000
G1 X209.000 Y30.000
G1 X210.000 Y30.000
G1 X211.000 Y30.000
G1 X212.000 Y30.000
G1 X213.000 Y30.000
G1 X214.000 Y30.000
G1 X215.000 Y30.000
G1 X216.000 Y30.000
G1 X217.000 Y30.000
G1 X218.000 Y30.000
G1 X219.000 Y30.000
G1 X220.000 Y30.000
G1 X221.000 Y30.000
G1 X222.000 Y30.000
G1 X223.000 Y30.000
G1 X224.000 Y30.000
G1 X225.000 Y30.000
G1 X226.000 Y30.000
G1 X227.000 Y30.000
G1 X228.000 Y30.000
G1 X229.000 Y30.000
G0 Z4.600 F3000
M400
M204 P12000 T12000
G1 F12000
G0 X229.000 Y31.000 Z4.600
M400
M204 P200 T200
G1 F400
G1 Z0.000 F2500
G1 X228.000 Y31.000
G1 X227.000 Y31.000
G1 X226.000 Y31.000
G1 X225.000 Y31.000
G1 X224.000 Y31.000
G1 X223.000 Y31.000
G1 X222.000 Y31.000
G1 X221.000 Y31.000
G1 X220.000 Y31.000
G1 X219.000 Y31.000
G1 X218.000 Y31.000
G1 X217.000 Y31.000
G1 X216.000 Y31.000
G1 X215.000 Y31.000
G1 X214.000 Y31.000
G1 X213.000 Y31.000
G1 X212.000 Y31.000
G1 X211.000 Y31.000
G1 X210.000 Y31.000
G1 X209.000 Y31.000
G1 X208.000 Y31.000
G1 X207.000 Y31.000
G1 X206.000 Y31.000
G1 X205.000 Y31.000
G1 X204.000 Y31.000
G1 X203.000 Y31.000
G1 X202.000 Y31.000
G1 X201.000 Y31.000
G1 X200.000 Y31.000
G1 X199.000 Y31.000
G1 X198.000 Y31.000
G1 X197.000 Y31.000
G1 X196.000 Y31.000
G1 X195.000 Y31.000
G1 X194.000 Y31.000
G1 X193.000 Y31.000
G1 X192.000 Y31.000
G1 X191.000 Y31.000
G1 X190.000 Y31.000
G1 X189.000 Y31.000
G1 X188.000 Y31.000
G1 X187.000 Y31.000
G1 X186.000 Y31.000
G1 X185.000 Y31.000
G1 X184.000 Y31.000
G1 X183.000 Y31.000
G1 X182.000 Y31.000
G1 X181.000 Y31.000
G1 X180.000 Y31.000
G1 X179.000 Y31.000
G1 X178.000 Y31.000
G1 X177.000 Y31.000
G1 X176.000 Y31.000
G1 X175.000 Y31.000
G1 X174.000 Y31.000
G1 X173.000 Y31.000
G1 X172.000 Y31.000
G1 X171.000 Y31.000
G1 X170.000 Y31.000
G1 X169.000 Y31.000
G1 X168.000 Y31.000
G1 X167.000 Y31.000
G1 X166.000 Y31.000
G1 X165.000 Y31.000
G1 X164.000 Y31.000
G1 X163.000 Y31.000
G1 X162.000 Y31.000
G1 X161.000 Y31.000
G1 X160.000 Y31.000
G1 X159.000 Y31.000
G0 Z4.600 F3000

; --- CIKEL NAMAKANJA ---
G0 Z4.600 F3000
M400
M204 P12000 T12000
G1 F12000
G0 X-11.918 Y1.941 Z31.000
G1 Z0.000 F3000
G1 X-11.918 Y1.941 F2500
G1 X-11.918 Y4.441 F2500
G1 X-16.918 Y1.941 F2500
G1 X-11.918 Y-5.559 F2500
G0 Z16.000 F3000
G0 X14.719 Y2.888
G0 Z31.000 F3000
G0 X158.000 Y31.000 Z4.600
M400
M204 P200 T200
G1 F400
G1 Z0.000 F2500
G1 X158.000 Y31.000
G1 X157.000 Y31.000
G1 X156.000 Y31.000
G1 X155.000 Y31.000
G1 X154.000 Y31.000
G1 X153.000 Y31.000
G1 X152.000 Y31.000
G1 X151.000 Y31.000
G1 X150.000 Y31.000
G1 X149.000 Y31.000
G1 X148.000 Y31.000
G1 X147.000 Y31.000
G1 X146.000 Y31.000
G1 X145.000 Y31.000
G1 X144.000 Y31.000
G1 X143.000 Y31.000
G1 X142.000 Y31.000
G1 X141.000 Y31.000
G1 X140.000 Y31.000
G1 X139.000 Y31.000
G1 X138.000 Y31.000
G1 X137.000 Y31.000
G1 X136.000 Y31.000
G1 X135.000 Y31.000
G1 X134.000 Y31.000
G1 X133.000 Y31.000
G1 X132.000 Y31.000
G1 X131.000 Y31.000
G1 X130.000 Y31.000
G1 X129.000 Y31.000
G1 X128.000 Y31.000
G1 X127.000 Y31.000
G1 X126.000 Y31.000
G1 X125.000 Y31.000
G1 X124.000 Y31.000
G1 X123.000 Y31.000
G1 X122.000 Y31.000
G1 X121.000 Y31.000
G1 X120.000 Y31.000
G1 X119.000 Y31.000
G1 X118.000 Y31.000
G1 X117.000 Y31.000
G1 X116.000 Y31.000
G1 X115.000 Y31.000
G1 X114.000 Y31.000
G1 X113.000 Y31.000
G1 X112.000 Y31.000
G1 X111.000 Y31.000
G1 X110.000 Y31.000
G1 X109.000 Y31.000
G1 X108.000 Y31.000
G1 X107.000 Y31.000
G1 X106.000 Y31.000
G1 X105.000 Y31.000
G1 X104.000 Y31.000
G1 X103.000 Y31.000
G1 X102.000 Y31.000
G1 X101.000 Y31.000
G1 X100.000 Y31.000
G1 X99.000 Y31.000
G1 X98.000 Y31.000
G1 X97.000 Y31.000
G1 X96.000 Y31.000
G1 X95.000 Y31.000
G1 X94.000 Y31.000
G1 X93.000 Y31.000
G1 X92.000 Y31.000
G1 X91.000 Y31.000
G1 X90.000 Y31.000
G1 X89.000 Y31.000
G1 X88.000 Y31.000
G1 X87.000 Y31.000
G1 X86.000 Y31.000
G1 X85.000 Y31.000
G1 X84.000 Y31.000
G1 X83.000 Y31.000
G1 X82.000 Y31.000
G1 X81.000 Y31.000
G1 X80.000 Y31.000
G1 X79.000 Y31.000
G1 X78.000 Y31.000
G1 X77.000 Y31.000
G1 X76.000 Y31.000
G1 X75.000 Y31.000
G1 X74.000 Y31.000
G1 X73.000 Y31.000
G1 X72.000 Y31.000
G1 X71.000 Y31.000
G1 X70.000 Y31.000
G1 X69.000 Y31.000
G1 X68.000 Y31.000
G1 X67.000 Y31.000
G1 X66.000 Y31.000
G1 X65.000 Y31.000
G1 X64.000 Y31.000
G1 X63.000 Y31.000
G1 X62.000 Y31.000
G1 X61.000 Y31.000
G1 X60.000 Y31.000
G1 X59.000 Y31.000
G1 X58.000 Y31.000
G1 X57.000 Y31.000
G1 X56.000 Y31.000
G1 X55.000 Y31.000
G1 X54.000 Y31.000
G1 X53.000 Y31.000
G1 X52.000 Y31.000
G1 X51.000 Y31.000
G1 X50.000 Y31.000
G1 X49.000 Y31.000
G1 X48.000 Y31.000
G1 X47.000 Y31.000
G1 X46.000 Y31.000
G1 X45.000 Y31.000
G1 X44.000 Y31.000
G1 X43.000 Y31.000
G1 X42.000 Y31.000
G1 X41.000 Y31.000
G1 X40.000 Y31.000
G1 X39.000 Y31.000
G1 X38.000 Y31.000
G1 X37.000 Y31.000
G1 X36.000 Y31.000
G1 X35.000 Y31.000
G1 X34.000 Y31.000
G1 X33.000 Y31.000
G1 X32.000 Y31.000
G1 X31.000 Y31.000
G1 X30.000 Y31.000
G0 Z4.600 F3000
M400
M204 P12000 T12000
G1 F12000
G0 X30.000 Y32.000 Z4.600
M400
M204 P200 T200
G1 F400
G1 Z0.000 F2500
G1 X31.000 Y32.000
G1 X32.000 Y32.000
G1 X33.000 Y32.000
G1 X34.000 Y32.000
G1 X35.000 Y32.000
G1 X36.000 Y32.000
G1 X37.000 Y32.000
G1 X38.000 Y32.000
G1 X39.000 Y32.000
G1 X40.000 Y32.000
G1 X41.000 Y32.000
G1 X42.000 Y32.000
G1 X43.000 Y32.000
G1 X44.000 Y32.000
G1 X45.000 Y32.000
G1 X46.000 Y32.000
G1 X47.000 Y32.000
G1 X48.000 Y32.000
G1 X49.000 Y32.000
G1 X50.000 Y32.000
G1 X51.000 Y32.000
G1 X52.000 Y32.000
G1 X53.000 Y32.000
G1 X54.000 Y32.000
G1 X55.000 Y32.000
G1 X56.000 Y32.000
G1 X57.000 Y32.000
G1 X58.000 Y32.000
G1 X59.000 Y32.000
G1 X60.000 Y32.000
G1 X61.000 Y32.000
G1 X62.000 Y32.000
G1 X63.000 Y32.000
G1 X64.000 Y32.000
G1 X65.000 Y32.000
G1 X66.000 Y32.000
G1 X67.000 Y32.000
G1 X68.000 Y32.000
G1 X69.000 Y32.000
G1 X70.000 Y32.000
G1 X71.000 Y32.000
G1 X72.000 Y32.000
G1 X73.000 Y32.000
G1 X74.000 Y32.000
G1 X75.000 Y32.000
G1 X76.000 Y32.000
G1 X77.000 Y32.000
G1 X78.000 Y32.000
G1 X79.000 Y32.000
G1 X80.000 Y32.000
G1 X81.000 Y32.000
G1 X82.000 Y32.000
G1 X83.000 Y32.000
G1 X84.000 Y32.000
G1 X85.000 Y32.000
G1 X86.000 Y32.000
G1 X87.000 Y32.000
G1 X88.000 Y32.000
G1 X89.000 Y32.000
G1 X90.000 Y32.000
G1 X91.000 Y32.000
G1 X92.000 Y32.000
G1 X93.000 Y32.000
G1 X94.000 Y32.000
G1 X95.000 Y32.000
G1 X96.000 Y32.000
G1 X97.000 Y32.000
G1 X98.000 Y32.000
G1 X99.000 Y32.000
G1 X100.000 Y32.000
G1 X101.000 Y32.000
G1 X102.000 Y32.000
G1 X103.000 Y32.000
G1 X104.000 Y32.000
G1 X105.000 Y32.000
G1 X106.000 Y32.000
G1 X107.000 Y32.000
G1 X108.000 Y32.000
G1 X109.000 Y32.000
G1 X110.000 Y32.000
G1 X111.000 Y32.000
G1 X112.000 Y32.000
G1 X113.000 Y32.000
G1 X114.000 Y32.000
G1 X115.000 Y32.000
G1 X116.000 Y32.000
G1 X117.000 Y32.000
G1 X118.000 Y32.000
G1 X119.000 Y32.000
G1 X120.000 Y32.000
G1 X121.000 Y32.000
G1 X122.000 Y32.000
G1 X123.000 Y32.000
G1 X124.000 Y32.000
G1 X125.000 Y32.000
G1 X126.000 Y32.000
G1 X127.000 Y32.000
G1 X128.000 Y32.000
G1 X129.000 Y32.000
G1 X130.000 Y32.000
G1 X131.000 Y32.000
G1 X132.000 Y32.000
G1 X133.000 Y32.000
G1 X134.000 Y32.000
G1 X135.000 Y32.000
G1 X136.000 Y32.000
G1 X137.000 Y32.000
G1 X138.000 Y32.000
G1 X139.000 Y32.000
G1 X140.000 Y32.000
G1 X141.000 Y32.000
G0 Z4.600 F3000

; --- CIKEL NAMAKANJA ---
G0 Z4.600 F3000
M400
M204 P12000 T12000
G1 F12000
G0 X-8.511 Y-2.848 Z31.000
G1 Z0.000 F3000
G1 X-8.511 Y-2.848 F2500
G1 X-8.511 Y-0.348 F2500
G1 X-13.511 Y-2.848 F2500
G1 X-8.511 Y-10.348 F2500
G0 Z16.000 F3000
G0 X14.633 Y3.298
G0 Z31.000 F3000
G0 X142.000 Y32.000 Z4.600
M400
M204 P200 T200
G1 F400
G1 Z0.000 F2500
G1 X142.000 Y32.000
G1 X143.000 Y32.000
G1 X144.000 Y32.000
G1 X145.000 Y32.000
G1 X146.000 Y32.000
G1 X147.000 Y32.000
G1 X148.000 Y32.000
G1 X149.000 Y32.000
G1 X150.000 Y32.000
G1 X151.000 Y32.000
G1 X152.000 Y32.000
G1 X153.000 Y32.000
G1 X154.000 Y32.000
G1 X155.000 Y32.000
G1 X156.000 Y32.000
G1 X157.000 Y32.000
G1 X158.000 Y32.000
G1 X159.000 Y32.000
G1 X160.000 Y32.000
G1 X161.000 Y32.000
G1 X162.000 Y32.000
G1 X163.000 Y32.000
G1 X164.000 Y32.000
G1 X165.000 Y32.000
G1 X166.000 Y32.000
G1 X167.000 Y32.000
G1 X168.000 Y32.000
G1 X169.000 Y32.000
G1 X170.000 Y32.000
G1 X171.000 Y32.000
G1 X172.000 Y32.000
G1 X173.000 Y32.000
G1 X174.000 Y32.000
G1 X175.000 Y32.000
G1 X176.000 Y32.000
G1 X177.000 Y32.000
G1 X178.000 Y32.000
G1 X179.000 Y32.000
G1 X180.000 Y32.000
G1 X181.000 Y32.000
G1 X182.000 Y32.000
G1 X183.000 Y32.000
G1 X184.000 Y32.000
G1 X185.000 Y32.000
G1 X186.000 Y32.000
G1 X187.000 Y32.000
G1 X188.000 Y32.000
G1 X189.000 Y32.000
G1 X190.000 Y32.000
G1 X191.000 Y32.000
G1 X192.000 Y32.000
G1 X193.000 Y32.000
G1 X194.000 Y32.000
G1 X195.000 Y32.000
G1 X196.000 Y32.000
G1 X197.000 Y32.000
G1 X198.000 Y32.000
G1 X199.000 Y32.000
G1 X200.000 Y32.000
G1 X201.000 Y32.000
G1 X202.000 Y32.000
G1 X203.000 Y32.000
G1 X204.000 Y32.000
G1 X205.000 Y32.000
G1 X206.000 Y32.000
G1 X207.000 Y32.000
G1 X208.000 Y32.000
G1 X209.000 Y32.000
G1 X210.000 Y32.000
G1 X211.000 Y32.000
G1 X212.000 Y32.000
G1 X213.000 Y32.000
G1 X214.000 Y32.000
G1 X215.000 Y32.000
G1 X216.000 Y32.000
G1 X217.000 Y32.000
G1 X218.000 Y32.000
G1 X219.000 Y32.000
G1 X220.000 Y32.000
G1 X221.000 Y32.000
G1 X222.000 Y32.000
G1 X223.000 Y32.000
G1 X224.000 Y32.000
G1 X225.000 Y32.000
G1 X226.000 Y32.000
G1 X227.000 Y32.000
G1 X228.000 Y32.000
G1 X229.000 Y32.000
G0 Z4.600 F3000
M400
M204 P12000 T12000
G1 F12000
G0 X229.000 Y33.000 Z4.600
M400
M204 P200 T200
G1 F400
G1 Z0.000 F2500
G1 X228.000 Y33.000
G1 X227.000 Y33.000
G1 X226.000 Y33.000
G1 X225.000 Y33.000
G1 X224.000 Y33.000
G1 X223.000 Y33.000
G1 X222.000 Y33.000
G1 X221.000 Y33.000
G1 X220.000 Y33.000
G1 X219.000 Y33.000
G1 X218.000 Y33.000
G1 X217.000 Y33.000
G1 X216.000 Y33.000
G1 X215.000 Y33.000
G1 X214.000 Y33.000
G1 X213.000 Y33.000
G1 X212.000 Y33.000
G1 X211.000 Y33.000
G1 X210.000 Y33.000
G1 X209.000 Y33.000
G1 X208.000 Y33.000
G1 X207.000 Y33.000
G1 X206.000 Y33.000
G1 X205.000 Y33.000
G1 X204.000 Y33.000
G1 X203.000 Y33.000
G1 X202.000 Y33.000
G1 X201.000 Y33.000
G1 X200.000 Y33.000
G1 X199.000 Y33.000
G1 X198.000 Y33.000
G1 X197.000 Y33.000
G1 X196.000 Y33.000
G1 X195.000 Y33.000
G1 X194.000 Y33.000
G1 X193.000 Y33.000
G1 X192.000 Y33.000
G1 X191.000 Y33.000
G1 X190.000 Y33.000
G1 X189.000 Y33.000
G1 X188.000 Y33.000
G1 X187.000 Y33.000
G1 X186.000 Y33.000
G1 X185.000 Y33.000
G1 X184.000 Y33.000
G1 X183.000 Y33.000
G1 X182.000 Y33.000
G1 X181.000 Y33.000
G1 X180.000 Y33.000
G1 X179.000 Y33.000
G1 X178.000 Y33.000
G1 X177.000 Y33.000
G1 X176.000 Y33.000
G1 X175.000 Y33.000
G1 X174.000 Y33.000
G1 X173.000 Y33.000
G1 X172.000 Y33.000
G1 X171.000 Y33.000
G1 X170.000 Y33.000
G1 X169.000 Y33.000
G1 X168.000 Y33.000
G1 X167.000 Y33.000
G1 X166.000 Y33.000
G1 X165.000 Y33.000
G1 X164.000 Y33.000
G1 X163.000 Y33.000
G1 X162.000 Y33.000
G1 X161.000 Y33.000
G1 X160.000 Y33.000
G1 X159.000 Y33.000
G1 X158.000 Y33.000
G1 X157.000 Y33.000
G1 X156.000 Y33.000
G1 X155.000 Y33.000
G1 X154.000 Y33.000
G1 X153.000 Y33.000
G1 X152.000 Y33.000
G1 X151.000 Y33.000
G1 X150.000 Y33.000
G1 X149.000 Y33.000
G1 X148.000 Y33.000
G1 X147.000 Y33.000
G1 X146.000 Y33.000
G1 X145.000 Y33.000
G1 X144.000 Y33.000
G1 X143.000 Y33.000
G1 X142.000 Y33.000
G1 X141.000 Y33.000
G1 X140.000 Y33.000
G1 X139.000 Y33.000
G1 X138.000 Y33.000
G1 X137.000 Y33.000
G1 X136.000 Y33.000
G1 X135.000 Y33.000
G1 X134.000 Y33.000
G1 X133.000 Y33.000
G1 X132.000 Y33.000
G1 X131.000 Y33.000
G1 X130.000 Y33.000
G1 X129.000 Y33.000
G1 X128.000 Y33.000
G1 X127.000 Y33.000
G1 X126.000 Y33.000
G1 X125.000 Y33.000
G1 X124.000 Y33.000
G1 X123.000 Y33.000
G1 X122.000 Y33.000
G1 X121.000 Y33.000
G1 X120.000 Y33.000
G1 X119.000 Y33.000
G1 X118.000 Y33.000
G1 X117.000 Y33.000
G1 X116.000 Y33.000
G1 X115.000 Y33.000
G1 X114.000 Y33.000
G1 X113.000 Y33.000
G1 X112.000 Y33.000
G1 X111.000 Y33.000
G1 X110.000 Y33.000
G1 X109.000 Y33.000
G1 X108.000 Y33.000
G1 X107.000 Y33.000
G1 X106.000 Y33.000
G1 X105.000 Y33.000
G1 X104.000 Y33.000
G1 X103.000 Y33.000
G1 X102.000 Y33.000
G1 X101.000 Y33.000
G1 X100.000 Y33.000
G1 X99.000 Y33.000
G1 X98.000 Y33.000
G1 X97.000 Y33.000
G1 X96.000 Y33.000
G1 X95.000 Y33.000
G1 X94.000 Y33.000
G1 X93.000 Y33.000
G1 X92.000 Y33.000
G1 X91.000 Y33.000
G1 X90.000 Y33.000
G1 X89.000 Y33.000
G1 X88.000 Y33.000
G1 X87.000 Y33.000
G1 X86.000 Y33.000
G1 X85.000 Y33.000
G1 X84.000 Y33.000
G1 X83.000 Y33.000
G1 X82.000 Y33.000
G1 X81.000 Y33.000
G1 X80.000 Y33.000
G1 X79.000 Y33.000
G1 X78.000 Y33.000
G1 X77.000 Y33.000
G1 X76.000 Y33.000
G1 X75.000 Y33.000
G1 X74.000 Y33.000
G1 X73.000 Y33.000
G1 X72.000 Y33.000
G1 X71.000 Y33.000
G1 X70.000 Y33.000
G1 X69.000 Y33.000
G1 X68.000 Y33.000
G1 X67.000 Y33.000
G1 X66.000 Y33.000
G1 X65.000 Y33.000
G1 X64.000 Y33.000
G1 X63.000 Y33.000
G1 X62.000 Y33.000
G1 X61.000 Y33.000
G1 X60.000 Y33.000
G0 Z4.600 F3000

; --- CIKEL NAMAKANJA ---
G0 Z4.600 F3000
M400
M204 P12000 T12000
G1 F12000
G0 X16.939 Y0.279 Z31.000
G1 Z0.000 F3000
G1 X16.939 Y0.279 F2500
G1 X16.939 Y2.779 F2500
G1 X11.939 Y0.279 F2500
G1 X16.939 Y-7.221 F2500
G0 Z16.000 F3000
G0 X13.091 Y7.322
G0 Z31.000 F3000
G0 X59.000 Y33.000 Z4.600
M400
M204 P200 T200
G1 F400
G1 Z0.000 F2500
G1 X59.000 Y33.000
G1 X58.000 Y33.000
G1 X57.000 Y33.000
G1 X56.000 Y33.000
G1 X55.000 Y33.000
G1 X54.000 Y33.000
G1 X53.000 Y33.000
G1 X52.000 Y33.000
G1 X51.000 Y33.000
G1 X50.000 Y33.000
G1 X49.000 Y33.000
G1 X48.000 Y33.000
G1 X47.000 Y33.000
G1 X46.000 Y33.000
G1 X45.000 Y33.000
G1 X44.000 Y33.000
G1 X43.000 Y33.000
G1 X42.000 Y33.000
G1 X41.000 Y33.000
G1 X40.000 Y33.000
G1 X39.000 Y33.000
G1 X38.000 Y33.000
G1 X37.000 Y33.000
G1 X36.000 Y33.000
G1 X35.000 Y33.000
G1 X34.000 Y33.000
G1 X33.000 Y33.000
G1 X32.000 Y33.000
G1 X31.000 Y33.000
G1 X30.000 Y33.000
G0 Z4.600 F3000
M400
M204 P12000 T12000
G1 F12000
G0 X30.000 Y34.000 Z4.600
M400
M204 P200 T200
G1 F400
G1 Z0.000 F2500
G1 X31.000 Y34.000
G1 X32.000 Y34.000
G1 X33.000 Y34.000
G1 X34.000 Y34.000
G1 X35.000 Y34.000
G1 X36.000 Y34.000
G1 X37.000 Y34.000
G1 X38.000 Y34.000
G1 X39.000 Y34.000
G1 X40.000 Y34.000
G1 X41.000 Y34.000
G1 X42.000 Y34.000
G1 X43.000 Y34.000
G1 X44.000 Y34.000
G1 X45.000 Y34.000
G1 X46.000 Y34.000
G1 X47.000 Y34.000
G1 X48.000 Y34.000
G1 X49.000 Y34.000
G1 X50.000 Y34.000
G1 X51.000 Y34.000
G1 X52.000 Y34.000
G1 X53.000 Y34.000
G1 X54.000 Y34.000
G1 X55.000 Y34.000
G1 X56.000 Y34.000
G1 X57.000 Y34.000
G1 X58.000 Y34.000
G1 X59.000 Y34.000
G1 X60.000 Y34.000
G1 X61.000 Y34.000
G1 X62.000 Y34.000
G1 X63.000 Y34.000
G1 X64.000 Y34.000
G1 X65.000 Y34.000
G1 X66.000 Y34.000
G1 X67.000 Y34.000
G1 X68.000 Y34.000
G1 X69.000 Y34.000
G1 X70.000 Y34.000
G1 X71.000 Y34.000
G1 X72.000 Y34.000
G1 X73.000 Y34.000
G1 X74.000 Y34.000
G1 X75.000 Y34.000
G1 X76.000 Y34.000
G1 X77.000 Y34.000
G1 X78.000 Y34.000
G1 X79.000 Y34.000
G1 X80.000 Y34.000
G1 X81.000 Y34.000
G1 X82.000 Y34.000
G1 X83.000 Y34.000
G1 X84.000 Y34.000
G1 X85.000 Y34.000
G1 X86.000 Y34.000
G1 X87.000 Y34.000
G1 X88.000 Y34.000
G1 X89.000 Y34.000
G1 X90.000 Y34.000
G1 X91.000 Y34.000
G1 X92.000 Y34.000
G1 X93.000 Y34.000
G1 X94.000 Y34.000
G1 X95.000 Y34.000
G1 X96.000 Y34.000
G1 X97.000 Y34.000
G1 X98.000 Y34.000
G1 X99.000 Y34.000
G1 X100.000 Y34.000
G1 X101.000 Y34.000
G1 X102.000 Y34.000
G1 X103.000 Y34.000
G1 X104.000 Y34.000
G1 X105.000 Y34.000
G1 X106.000 Y34.000
G1 X107.000 Y34.000
G1 X108.000 Y34.000
G1 X109.000 Y34.000
G1 X110.000 Y34.000
G1 X111.000 Y34.000
G1 X112.000 Y34.000
G1 X113.000 Y34.000
G1 X114.000 Y34.000
G1 X115.000 Y34.000
G1 X116.000 Y34.000
G1 X117.000 Y34.000
G1 X118.000 Y34.000
G1 X119.000 Y34.000
G1 X120.000 Y34.000
G1 X121.000 Y34.000
G1 X122.000 Y34.000
G1 X123.000 Y34.000
G1 X124.000 Y34.000
G1 X125.000 Y34.000
G1 X126.000 Y34.000
G1 X127.000 Y34.000
G1 X128.000 Y34.000
G1 X129.000 Y34.000
G1 X130.000 Y34.000
G1 X131.000 Y34.000
G1 X132.000 Y34.000
G1 X133.000 Y34.000
G1 X134.000 Y34.000
G1 X135.000 Y34.000
G1 X136.000 Y34.000
G1 X137.000 Y34.000
G1 X138.000 Y34.000
G1 X139.000 Y34.000
G1 X140.000 Y34.000
G1 X141.000 Y34.000
G1 X142.000 Y34.000
G1 X143.000 Y34.000
G1 X144.000 Y34.000
G1 X145.000 Y34.000
G1 X146.000 Y34.000
G1 X147.000 Y34.000
G1 X148.000 Y34.000
G1 X149.000 Y34.000
G1 X150.000 Y34.000
G1 X151.000 Y34.000
G1 X152.000 Y34.000
G1 X153.000 Y34.000
G1 X154.000 Y34.000
G1 X155.000 Y34.000
G1 X156.000 Y34.000
G1 X157.000 Y34.000
G1 X158.000 Y34.000
G1 X159.000 Y34.000
G1 X160.000 Y34.000
G1 X161.000 Y34.000
G1 X162.000 Y34.000
G1 X163.000 Y34.000
G1 X164.000 Y34.000
G1 X165.000 Y34.000
G1 X166.000 Y34.000
G1 X167.000 Y34.000
G1 X168.000 Y34.000
G1 X169.000 Y34.000
G1 X170.000 Y34.000
G1 X171.000 Y34.000
G1 X172.000 Y34.000
G1 X173.000 Y34.000
G1 X174.000 Y34.000
G1 X175.000 Y34.000
G1 X176.000 Y34.000
G1 X177.000 Y34.000
G1 X178.000 Y34.000
G1 X179.000 Y34.000
G1 X180.000 Y34.000
G1 X181.000 Y34.000
G1 X182.000 Y34.000
G1 X183.000 Y34.000
G1 X184.000 Y34.000
G1 X185.000 Y34.000
G1 X186.000 Y34.000
G1 X187.000 Y34.000
G1 X188.000 Y34.000
G1 X189.000 Y34.000
G1 X190.000 Y34.000
G1 X191.000 Y34.000
G1 X192.000 Y34.000
G1 X193.000 Y34.000
G1 X194.000 Y34.000
G1 X195.000 Y34.000
G1 X196.000 Y34.000
G1 X197.000 Y34.000
G1 X198.000 Y34.000
G1 X199.000 Y34.000
G1 X200.000 Y34.000
G1 X201.000 Y34.000
G1 X202.000 Y34.000
G1 X203.000 Y34.000
G1 X204.000 Y34.000
G1 X205.000 Y34.000
G1 X206.000 Y34.000
G1 X207.000 Y34.000
G1 X208.000 Y34.000
G1 X209.000 Y34.000
G1 X210.000 Y34.000
G1 X211.000 Y34.000
G1 X212.000 Y34.000
G1 X213.000 Y34.000
G1 X214.000 Y34.000
G1 X215.000 Y34.000
G1 X216.000 Y34.000
G1 X217.000 Y34.000
G1 X218.000 Y34.000
G1 X219.000 Y34.000
G1 X220.000 Y34.000
G1 X221.000 Y34.000
G1 X222.000 Y34.000
G1 X223.000 Y34.000
G1 X224.000 Y34.000
G1 X225.000 Y34.000
G1 X226.000 Y34.000
G1 X227.000 Y34.000
G1 X228.000 Y34.000
G1 X229.000 Y34.000
G0 Z4.600 F3000
M400
M204 P12000 T12000
G1 F12000
G0 X229.000 Y35.000 Z4.600
M400
M204 P200 T200
G1 F400
G1 Z0.000 F2500
G1 X228.000 Y35.000
G1 X227.000 Y35.000
G1 X226.000 Y35.000
G1 X225.000 Y35.000
G1 X224.000 Y35.000
G1 X223.000 Y35.000
G1 X222.000 Y35.000
G1 X221.000 Y35.000
G1 X220.000 Y35.000
G1 X219.000 Y35.000
G1 X218.000 Y35.000
G1 X217.000 Y35.000
G1 X216.000 Y35.000
G1 X215.000 Y35.000
G1 X214.000 Y35.000
G1 X213.000 Y35.000
G1 X212.000 Y35.000
G1 X211.000 Y35.000
G1 X210.000 Y35.000
G0 Z4.600 F3000

; --- CIKEL NAMAKANJA ---
G0 Z4.600 F3000
M400
M204 P12000 T12000
G1 F12000
G0 X14.956 Y2.817 Z31.000
G1 Z0.000 F3000
G1 X14.956 Y2.817 F2500
G1 X14.956 Y5.317 F2500
G1 X9.956 Y2.817 F2500
G1 X14.956 Y-4.683 F2500
G0 Z16.000 F3000
G0 X14.794 Y2.477
G0 Z31.000 F3000
G0 X209.000 Y35.000 Z4.600
M400
M204 P200 T200
G1 F400
G1 Z0.000 F2500
G1 X209.000 Y35.000
G1 X208.000 Y35.000
G1 X207.000 Y35.000
G1 X206.000 Y35.000
G1 X205.000 Y35.000
G1 X204.000 Y35.000
G1 X203.000 Y35.000
G1 X202.000 Y35.000
G1 X201.000 Y35.000
G1 X200.000 Y35.000
G1 X199.000 Y35.000
G1 X198.000 Y35.000
G1 X197.000 Y35.000
G1 X196.000 Y35.000
G1 X195.000 Y35.000
G1 X194.000 Y35.000
G1 X193.000 Y35.000
G1 X192.000 Y35.000
G1 X191.000 Y35.000
G1 X190.000 Y35.000
G1 X189.000 Y35.000
G1 X188.000 Y35.000
G1 X187.000 Y35.000
G1 X186.000 Y35.000
G1 X185.000 Y35.000
G1 X184.000 Y35.000
G1 X183.000 Y35.000
G1 X182.000 Y35.000
G1 X181.000 Y35.000
G1 X180.000 Y35.000
G1 X179.000 Y35.000
G1 X178.000 Y35.000
G1 X177.000 Y35.000
G1 X176.000 Y35.000
G1 X175.000 Y35.000
G1 X174.000 Y35.000
G1 X173.000 Y35.000
G1 X172.000 Y35.000
G1 X171.000 Y35.000
G1 X170.000 Y35.000
G1 X169.000 Y35.000
G1 X168.000 Y35.000
G1 X167.000 Y35.000
G1 X166.000 Y35.000
G1 X165.000 Y35.000
G1 X164.000 Y35.000
G1 X163.000 Y35.000
G1 X162.000 Y35.000
G1 X161.000 Y35.000
G1 X160.000 Y35.000
G1 X159.000 Y35.000
G1 X158.000 Y35.000
G1 X157.000 Y35.000
G1 X156.000 Y35.000
G1 X155.000 Y35.000
G1 X154.000 Y35.000
G1 X153.000 Y35.000
G1 X152.000 Y35.000
G1 X151.000 Y35.000
G1 X150.000 Y35.000
G1 X149.000 Y35.000
G1 X148.000 Y35.000
G1 X147.000 Y35.000
G1 X146.000 Y35.000
G1 X145.000 Y35.000
G1 X144.000 Y35.000
G1 X143.000 Y35.000
G1 X142.000 Y35.000
G1 X141.000 Y35.000
G1 X140.000 Y35.000
G1 X139.000 Y35.000
G1 X138.000 Y35.000
G1 X137.000 Y35.000
G1 X136.000 Y35.000
G1 X135.000 Y35.000
G1 X134.000 Y35.000
G1 X133.000 Y35.000
G1 X132.000 Y35.000
G1 X131.000 Y35.000
G1 X130.000 Y35.000
G1 X129.000 Y35.000
G1 X128.000 Y35.000
G1 X127.000 Y35.000
G1 X126.000 Y35.000
G1 X125.000 Y35.000
G1 X124.000 Y35.000
G1 X123.000 Y35.000
G1 X122.000 Y35.000
G1 X121.000 Y35.000
G1 X120.000 Y35.000
G1 X119.000 Y35.000
G1 X118.000 Y35.000
G1 X117.000 Y35.000
G1 X116.000 Y35.000
G1 X115.000 Y35.000
G1 X114.000 Y35.000
G1 X113.000 Y35.000
G1 X112.000 Y35.000
G1 X111.000 Y35.000
G1 X110.000 Y35.000
G1 X109.000 Y35.000
G1 X108.000 Y35.000
G1 X107.000 Y35.000
G1 X106.000 Y35.000
G1 X105.000 Y35.000
G1 X104.000 Y35.000
G1 X103.000 Y35.000
G1 X102.000 Y35.000
G1 X101.000 Y35.000
G1 X100.000 Y35.000
G1 X99.000 Y35.000
G1 X98.000 Y35.000
G1 X97.000 Y35.000
G1 X96.000 Y35.000
G1 X95.000 Y35.000
G1 X94.000 Y35.000
G1 X93.000 Y35.000
G1 X92.000 Y35.000
G1 X91.000 Y35.000
G1 X90.000 Y35.000
G1 X89.000 Y35.000
G1 X88.000 Y35.000
G1 X87.000 Y35.000
G1 X86.000 Y35.000
G1 X85.000 Y35.000
G1 X84.000 Y35.000
G1 X83.000 Y35.000
G1 X82.000 Y35.000
G1 X81.000 Y35.000
G1 X80.000 Y35.000
G1 X79.000 Y35.000
G1 X78.000 Y35.000
G1 X77.000 Y35.000
G1 X76.000 Y35.000
G1 X75.000 Y35.000
G1 X74.000 Y35.000
G1 X73.000 Y35.000
G1 X72.000 Y35.000
G1 X71.000 Y35.000
G1 X70.000 Y35.000
G1 X69.000 Y35.000
G1 X68.000 Y35.000
G1 X67.000 Y35.000
G1 X66.000 Y35.000
G1 X65.000 Y35.000
G1 X64.000 Y35.000
G1 X63.000 Y35.000
G1 X62.000 Y35.000
G1 X61.000 Y35.000
G1 X60.000 Y35.000
G1 X59.000 Y35.000
G1 X58.000 Y35.000
G1 X57.000 Y35.000
G1 X56.000 Y35.000
G1 X55.000 Y35.000
G1 X54.000 Y35.000
G1 X53.000 Y35.000
G1 X52.000 Y35.000
G1 X51.000 Y35.000
G1 X50.000 Y35.000
G1 X49.000 Y35.000
G1 X48.000 Y35.000
G1 X47.000 Y35.000
G1 X46.000 Y35.000
G1 X45.000 Y35.000
G1 X44.000 Y35.000
G1 X43.000 Y35.000
G1 X42.000 Y35.000
G1 X41.000 Y35.000
G1 X40.000 Y35.000
G1 X39.000 Y35.000
G1 X38.000 Y35.000
G1 X37.000 Y35.000
G1 X36.000 Y35.000
G1 X35.000 Y35.000
G1 X34.000 Y35.000
G1 X33.000 Y35.000
G1 X32.000 Y35.000
G1 X31.000 Y35.000
G1 X30.000 Y35.000
G0 Z4.600 F3000
M400
M204 P12000 T12000
G1 F12000
G0 X30.000 Y36.000 Z4.600
M400
M204 P200 T200
G1 F400
G1 Z0.000 F2500
G1 X31.000 Y36.000
G1 X32.000 Y36.000
G1 X33.000 Y36.000
G1 X34.000 Y36.000
G1 X35.000 Y36.000
G1 X36.000 Y36.000
G1 X37.000 Y36.000
G1 X38.000 Y36.000
G1 X39.000 Y36.000
G1 X40.000 Y36.000
G1 X41.000 Y36.000
G1 X42.000 Y36.000
G1 X43.000 Y36.000
G1 X44.000 Y36.000
G1 X45.000 Y36.000
G1 X46.000 Y36.000
G1 X47.000 Y36.000
G1 X48.000 Y36.000
G1 X49.000 Y36.000
G1 X50.000 Y36.000
G1 X51.000 Y36.000
G1 X52.000 Y36.000
G1 X53.000 Y36.000
G1 X54.000 Y36.000
G1 X55.000 Y36.000
G1 X56.000 Y36.000
G1 X57.000 Y36.000
G1 X58.000 Y36.000
G1 X59.000 Y36.000
G1 X60.000 Y36.000
G1 X61.000 Y36.000
G1 X62.000 Y36.000
G1 X63.000 Y36.000
G1 X64.000 Y36.000
G1 X65.000 Y36.000
G1 X66.000 Y36.000
G1 X67.000 Y36.000
G1 X68.000 Y36.000
G1 X69.000 Y36.000
G1 X70.000 Y36.000
G1 X71.000 Y36.000
G1 X72.000 Y36.000
G1 X73.000 Y36.000
G1 X74.000 Y36.000
G1 X75.000 Y36.000
G1 X76.000 Y36.000
G1 X77.000 Y36.000
G1 X78.000 Y36.000
G1 X79.000 Y36.000
G1 X80.000 Y36.000
G1 X81.000 Y36.000
G1 X82.000 Y36.000
G1 X83.000 Y36.000
G1 X84.000 Y36.000
G1 X85.000 Y36.000
G1 X86.000 Y36.000
G1 X87.000 Y36.000
G1 X88.000 Y36.000
G1 X89.000 Y36.000
G1 X90.000 Y36.000
G1 X91.000 Y36.000
G1 X92.000 Y36.000
G1 X93.000 Y36.000
G1 X94.000 Y36.000
G1 X95.000 Y36.000
G1 X96.000 Y36.000
G1 X97.000 Y36.000
G1 X98.000 Y36.000
G1 X99.000 Y36.000
G1 X100.000 Y36.000
G1 X101.000 Y36.000
G1 X102.000 Y36.000
G1 X103.000 Y36.000
G1 X104.000 Y36.000
G1 X105.000 Y36.000
G1 X106.000 Y36.000
G1 X107.000 Y36.000
G1 X108.000 Y36.000
G1 X109.000 Y36.000
G1 X110.000 Y36.000
G1 X111.000 Y36.000
G1 X112.000 Y36.000
G1 X113.000 Y36.000
G1 X114.000 Y36.000
G1 X115.000 Y36.000
G1 X116.000 Y36.000
G1 X117.000 Y36.000
G1 X118.000 Y36.000
G1 X119.000 Y36.000
G1 X120.000 Y36.000
G1 X121.000 Y36.000
G1 X122.000 Y36.000
G1 X123.000 Y36.000
G1 X124.000 Y36.000
G1 X125.000 Y36.000
G1 X126.000 Y36.000
G1 X127.000 Y36.000
G1 X128.000 Y36.000
G0 Z4.600 F3000

; --- CIKEL NAMAKANJA ---
G0 Z4.600 F3000
M400
M204 P12000 T12000
G1 F12000
G0 X-1.648 Y19.294 Z31.000
G1 Z0.000 F3000
G1 X-1.648 Y19.294 F2500
G1 X-1.648 Y21.794 F2500
G1 X-6.648 Y19.294 F2500
G1 X-1.648 Y11.794 F2500
G0 Z16.000 F3000
G0 X14.448 Y4.032
G0 Z31.000 F3000
G0 X129.000 Y36.000 Z4.600
M400
M204 P200 T200
G1 F400
G1 Z0.000 F2500
G1 X129.000 Y36.000
G1 X130.000 Y36.000
G1 X131.000 Y36.000
G1 X132.000 Y36.000
G1 X133.000 Y36.000
G1 X134.000 Y36.000
G1 X135.000 Y36.000
G1 X136.000 Y36.000
G1 X137.000 Y36.000
G1 X138.000 Y36.000
G1 X139.000 Y36.000
G1 X140.000 Y36.000
G1 X141.000 Y36.000
G1 X142.000 Y36.000
G1 X143.000 Y36.000
G1 X144.000 Y36.000
G1 X145.000 Y36.000
G1 X146.000 Y36.000
G1 X147.000 Y36.000
G1 X148.000 Y36.000
G1 X149.000 Y36.000
G1 X150.000 Y36.000
G1 X151.000 Y36.000
G1 X152.000 Y36.000
G1 X153.000 Y36.000
G1 X154.000 Y36.000
G1 X155.000 Y36.000
G1 X156.000 Y36.000
G1 X157.000 Y36.000
G1 X158.000 Y36.000
G1 X159.000 Y36.000
G1 X160.000 Y36.000
G1 X161.000 Y36.000
G1 X162.000 Y36.000
G1 X163.000 Y36.000
G1 X164.000 Y36.000
G1 X165.000 Y36.000
G1 X166.000 Y36.000
G1 X167.000 Y36.000
G1 X168.000 Y36.000
G1 X169.000 Y36.000
G1 X170.000 Y36.000
G1 X171.000 Y36.000
G1 X172.000 Y36.000
G1 X173.000 Y36.000
G1 X174.000 Y36.000
G1 X175.000 Y36.000
G1 X176.000 Y36.000
G1 X177.000 Y36.000
G1 X178.000 Y36.000
G1 X179.000 Y36.000
G1 X180.000 Y36.000
G1 X181.000 Y36.000
G1 X182.000 Y36.000
G1 X183.000 Y36.000
G1 X184.000 Y36.000
G1 X185.000 Y36.000
G1 X186.000 Y36.000
G1 X187.000 Y36.000
G1 X188.000 Y36.000
G1 X189.000 Y36.000
G1 X190.000 Y36.000
G1 X191.000 Y36.000
G1 X192.000 Y36.000
G1 X193.000 Y36.000
G1 X194.000 Y36.000
G1 X195.000 Y36.000
G1 X196.000 Y36.000
G1 X197.000 Y36.000
G1 X198.000 Y36.000
G1 X199.000 Y36.000
G1 X200.000 Y36.000
G1 X201.000 Y36.000
G1 X202.000 Y36.000
G1 X203.000 Y36.000
G1 X204.000 Y36.000
G1 X205.000 Y36.000
G1 X206.000 Y36.000
G1 X207.000 Y36.000
G1 X208.000 Y36.000
G1 X209.000 Y36.000
G1 X210.000 Y36.000
G1 X211.000 Y36.000
G1 X212.000 Y36.000
G1 X213.000 Y36.000
G1 X214.000 Y36.000
G1 X215.000 Y36.000
G1 X216.000 Y36.000
G1 X217.000 Y36.000
G1 X218.000 Y36.000
G1 X219.000 Y36.000
G1 X220.000 Y36.000
G1 X221.000 Y36.000
G1 X222.000 Y36.000
G1 X223.000 Y36.000
G1 X224.000 Y36.000
G1 X225.000 Y36.000
G1 X226.000 Y36.000
G1 X227.000 Y36.000
G1 X228.000 Y36.000
G1 X229.000 Y36.000
G0 Z4.600 F3000
M400
M204 P12000 T12000
G1 F12000
G0 X229.000 Y37.000 Z4.600
M400
M204 P200 T200
G1 F400
G1 Z0.000 F2500
G1 X228.000 Y37.000
G1 X227.000 Y37.000
G1 X226.000 Y37.000
G1 X225.000 Y37.000
G1 X224.000 Y37.000
G1 X223.000 Y37.000
G1 X222.000 Y37.000
G1 X221.000 Y37.000
G1 X220.000 Y37.000
G1 X219.000 Y37.000
G1 X218.000 Y37.000
G1 X217.000 Y37.000
G1 X216.000 Y37.000
G1 X215.000 Y37.000
G1 X214.000 Y37.000
G1 X213.000 Y37.000
G1 X212.000 Y37.000
G1 X211.000 Y37.000
G1 X210.000 Y37.000
G1 X209.000 Y37.000
G1 X208.000 Y37.000
G1 X207.000 Y37.000
G1 X206.000 Y37.000
G1 X205.000 Y37.000
G1 X204.000 Y37.000
G1 X203.000 Y37.000
G1 X202.000 Y37.000
G1 X201.000 Y37.000
G1 X200.000 Y37.000
G1 X199.000 Y37.000
G1 X198.000 Y37.000
G1 X197.000 Y37.000
G1 X196.000 Y37.000
G1 X195.000 Y37.000
G1 X194.000 Y37.000
G1 X193.000 Y37.000
G1 X192.000 Y37.000
G1 X191.000 Y37.000
G1 X190.000 Y37.000
G1 X189.000 Y37.000
G1 X188.000 Y37.000
G1 X187.000 Y37.000
G1 X186.000 Y37.000
G1 X185.000 Y37.000
G1 X184.000 Y37.000
G1 X183.000 Y37.000
G1 X182.000 Y37.000
G1 X181.000 Y37.000
G1 X180.000 Y37.000
G1 X179.000 Y37.000
G1 X178.000 Y37.000
G1 X177.000 Y37.000
G1 X176.000 Y37.000
G1 X175.000 Y37.000
G1 X174.000 Y37.000
G1 X173.000 Y37.000
G1 X172.000 Y37.000
G1 X171.000 Y37.000
G1 X170.000 Y37.000
G1 X169.000 Y37.000
G1 X168.000 Y37.000
G1 X167.000 Y37.000
G1 X166.000 Y37.000
G1 X165.000 Y37.000
G1 X164.000 Y37.000
G1 X163.000 Y37.000
G1 X162.000 Y37.000
G1 X161.000 Y37.000
G1 X160.000 Y37.000
G1 X159.000 Y37.000
G1 X158.000 Y37.000
G1 X157.000 Y37.000
G1 X156.000 Y37.000
G1 X155.000 Y37.000
G1 X154.000 Y37.000
G1 X153.000 Y37.000
G1 X152.000 Y37.000
G1 X151.000 Y37.000
G1 X150.000 Y37.000
G1 X149.000 Y37.000
G1 X148.000 Y37.000
G1 X147.000 Y37.000
G1 X146.000 Y37.000
G1 X145.000 Y37.000
G1 X144.000 Y37.000
G1 X143.000 Y37.000
G1 X142.000 Y37.000
G1 X141.000 Y37.000
G1 X140.000 Y37.000
G1 X139.000 Y37.000
G1 X138.000 Y37.000
G1 X137.000 Y37.000
G1 X136.000 Y37.000
G1 X135.000 Y37.000
G1 X134.000 Y37.000
G1 X133.000 Y37.000
G1 X132.000 Y37.000
G1 X131.000 Y37.000
G1 X130.000 Y37.000
G1 X129.000 Y37.000
G1 X128.000 Y37.000
G1 X127.000 Y37.000
G1 X126.000 Y37.000
G1 X125.000 Y37.000
G1 X124.000 Y37.000
G1 X123.000 Y37.000
G1 X122.000 Y37.000
G1 X121.000 Y37.000
G1 X120.000 Y37.000
G1 X119.000 Y37.000
G1 X118.000 Y37.000
G1 X117.000 Y37.000
G1 X116.000 Y37.000
G1 X115.000 Y37.000
G1 X114.000 Y37.000
G1 X113.000 Y37.000
G1 X112.000 Y37.000
G1 X111.000 Y37.000
G1 X110.000 Y37.000
G1 X109.000 Y37.000
G1 X108.000 Y37.000
G1 X107.000 Y37.000
G1 X106.000 Y37.000
G1 X105.000 Y37.000
G1 X104.000 Y37.000
G1 X103.000 Y37.000
G1 X102.000 Y37.000
G1 X101.000 Y37.000
G1 X100.000 Y37.000
G1 X99.000 Y37.000
G1 X98.000 Y37.000
G1 X97.000 Y37.000
G1 X96.000 Y37.000
G1 X95.000 Y37.000
G1 X94.000 Y37.000
G1 X93.000 Y37.000
G1 X92.000 Y37.000
G1 X91.000 Y37.000
G1 X90.000 Y37.000
G1 X89.000 Y37.000
G1 X88.000 Y37.000
G1 X87.000 Y37.000
G1 X86.000 Y37.000
G1 X85.000 Y37.000
G1 X84.000 Y37.000
G1 X83.000 Y37.000
G1 X82.000 Y37.000
G1 X81.000 Y37.000
G1 X80.000 Y37.000
G1 X79.000 Y37.000
G1 X78.000 Y37.000
G1 X77.000 Y37.000
G1 X76.000 Y37.000
G1 X75.000 Y37.000
G1 X74.000 Y37.000
G1 X73.000 Y37.000
G1 X72.000 Y37.000
G1 X71.000 Y37.000
G1 X70.000 Y37.000
G1 X69.000 Y37.000
G1 X68.000 Y37.000
G1 X67.000 Y37.000
G1 X66.000 Y37.000
G1 X65.000 Y37.000
G1 X64.000 Y37.000
G1 X63.000 Y37.000
G1 X62.000 Y37.000
G1 X61.000 Y37.000
G1 X60.000 Y37.000
G1 X59.000 Y37.000
G1 X58.000 Y37.000
G1 X57.000 Y37.000
G1 X56.000 Y37.000
G0 Z4.600 F3000

; --- CIKEL NAMAKANJA ---
G0 Z4.600 F3000
M400
M204 P12000 T12000
G1 F12000
G0 X-7.063 Y13.574 Z31.000
G1 Z0.000 F3000
G1 X-7.063 Y13.574 F2500
G1 X-7.063 Y16.074 F2500
G1 X-12.063 Y13.574 F2500
G1 X-7.063 Y6.074 F2500
G0 Z16.000 F3000
G0 X12.446 Y8.373
G0 Z31.000 F3000
G0 X55.000 Y37.000 Z4.600
M400
M204 P200 T200
G1 F400
G1 Z0.000 F2500
G1 X55.000 Y37.000
G1 X54.000 Y37.000
G1 X53.000 Y37.000
G1 X52.000 Y37.000
G1 X51.000 Y37.000
G1 X50.000 Y37.000
G1 X49.000 Y37.000
G1 X48.000 Y37.000
G1 X47.000 Y37.000
G1 X46.000 Y37.000
G1 X45.000 Y37.000
G1 X44.000 Y37.000
G1 X43.000 Y37.000
G1 X42.000 Y37.000
G1 X41.000 Y37.000
G1 X40.000 Y37.000
G1 X39.000 Y37.000
G1 X38.000 Y37.000
G1 X37.000 Y37.000
G1 X36.000 Y37.000
G1 X35.000 Y37.000
G1 X34.000 Y37.000
G1 X33.000 Y37.000
G1 X32.000 Y37.000
G1 X31.000 Y37.000
G1 X30.000 Y37.000
G0 Z4.600 F3000
M400
M204 P12000 T12000
G1 F12000
G0 X30.000 Y38.000 Z4.600
M400
M204 P200 T200
G1 F400
G1 Z0.000 F2500
G1 X31.000 Y38.000
G1 X32.000 Y38.000
G1 X33.000 Y38.000
G1 X34.000 Y38.000
G1 X35.000 Y38.000
G1 X36.000 Y38.000
G1 X37.000 Y38.000
G1 X38.000 Y38.000
G1 X39.000 Y38.000
G1 X40.000 Y38.000
G1 X41.000 Y38.000
G1 X42.000 Y38.000
G1 X43.000 Y38.000
G1 X44.000 Y38.000
G1 X45.000 Y38.000
G1 X46.000 Y38.000
G1 X47.000 Y38.000
G1 X48.000 Y38.000
G1 X49.000 Y38.000
G1 X50.000 Y38.000
G1 X51.000 Y38.000
G1 X52.000 Y38.000
G1 X53.000 Y38.000
G1 X54.000 Y38.000
G1 X55.000 Y38.000
G1 X56.000 Y38.000
G1 X57.000 Y38.000
G1 X58.000 Y38.000
G1 X59.000 Y38.000
G1 X60.000 Y38.000
G1 X61.000 Y38.000
G1 X62.000 Y38.000
G1 X63.000 Y38.000
G1 X64.000 Y38.000
G1 X65.000 Y38.000
G1 X66.000 Y38.000
G1 X67.000 Y38.000
G1 X68.000 Y38.000
G1 X69.000 Y38.000
G1 X70.000 Y38.000
G1 X71.000 Y38.000
G1 X72.000 Y38.000
G1 X73.000 Y38.000
G1 X74.000 Y38.000
G1 X75.000 Y38.000
G1 X76.000 Y38.000
G1 X77.000 Y38.000
G1 X78.000 Y38.000
G1 X79.000 Y38.000
G1 X80.000 Y38.000
G1 X81.000 Y38.000
G1 X82.000 Y38.000
G1 X83.000 Y38.000
G1 X84.000 Y38.000
G1 X85.000 Y38.000
G1 X86.000 Y38.000
G1 X87.000 Y38.000
G1 X88.000 Y38.000
G1 X89.000 Y38.000
G1 X90.000 Y38.000
G1 X91.000 Y38.000
G1 X92.000 Y38.000
G1 X93.000 Y38.000
G1 X94.000 Y38.000
G1 X95.000 Y38.000
G1 X96.000 Y38.000
G1 X97.000 Y38.000
G1 X98.000 Y38.000
G1 X99.000 Y38.000
G1 X100.000 Y38.000
G1 X101.000 Y38.000
G1 X102.000 Y38.000
G1 X103.000 Y38.000
G1 X104.000 Y38.000
G1 X105.000 Y38.000
G1 X106.000 Y38.000
G1 X107.000 Y38.000
G1 X108.000 Y38.000
G1 X109.000 Y38.000
G1 X110.000 Y38.000
G1 X111.000 Y38.000
G1 X112.000 Y38.000
G1 X113.000 Y38.000
G1 X114.000 Y38.000
G1 X115.000 Y38.000
G1 X116.000 Y38.000
G1 X117.000 Y38.000
G1 X118.000 Y38.000
G1 X119.000 Y38.000
G1 X120.000 Y38.000
G1 X121.000 Y38.000
G1 X122.000 Y38.000
G1 X123.000 Y38.000
G1 X124.000 Y38.000
G1 X125.000 Y38.000
G1 X126.000 Y38.000
G1 X127.000 Y38.000
G1 X128.000 Y38.000
G1 X129.000 Y38.000
G1 X130.000 Y38.000
G1 X131.000 Y38.000
G1 X132.000 Y38.000
G1 X133.000 Y38.000
G1 X134.000 Y38.000
G1 X135.000 Y38.000
G1 X136.000 Y38.000
G1 X137.000 Y38.000
G1 X138.000 Y38.000
G1 X139.000 Y38.000
G1 X140.000 Y38.000
G1 X141.000 Y38.000
G1 X142.000 Y38.000
G1 X143.000 Y38.000
G1 X144.000 Y38.000
G1 X145.000 Y38.000
G1 X146.000 Y38.000
G1 X147.000 Y38.000
G1 X148.000 Y38.000
G1 X149.000 Y38.000
G1 X150.000 Y38.000
G1 X151.000 Y38.000
G1 X152.000 Y38.000
G1 X153.000 Y38.000
G1 X154.000 Y38.000
G1 X155.000 Y38.000
G1 X156.000 Y38.000
G1 X157.000 Y38.000
G1 X158.000 Y38.000
G1 X159.000 Y38.000
G1 X160.000 Y38.000
G1 X161.000 Y38.000
G1 X162.000 Y38.000
G1 X163.000 Y38.000
G1 X164.000 Y38.000
G1 X165.000 Y38.000
G1 X166.000 Y38.000
G1 X167.000 Y38.000
G1 X168.000 Y38.000
G1 X169.000 Y38.000
G1 X170.000 Y38.000
G1 X171.000 Y38.000
G1 X172.000 Y38.000
G1 X173.000 Y38.000
G1 X174.000 Y38.000
G1 X175.000 Y38.000
G1 X176.000 Y38.000
G1 X177.000 Y38.000
G1 X178.000 Y38.000
G1 X179.000 Y38.000
G1 X180.000 Y38.000
G1 X181.000 Y38.000
G1 X182.000 Y38.000
G1 X183.000 Y38.000
G1 X184.000 Y38.000
G1 X185.000 Y38.000
G1 X186.000 Y38.000
G1 X187.000 Y38.000
G1 X188.000 Y38.000
G1 X189.000 Y38.000
G1 X190.000 Y38.000
G1 X191.000 Y38.000
G1 X192.000 Y38.000
G1 X193.000 Y38.000
G1 X194.000 Y38.000
G1 X195.000 Y38.000
G1 X196.000 Y38.000
G1 X197.000 Y38.000
G1 X198.000 Y38.000
G1 X199.000 Y38.000
G1 X200.000 Y38.000
G1 X201.000 Y38.000
G1 X202.000 Y38.000
G1 X203.000 Y38.000
G1 X204.000 Y38.000
G1 X205.000 Y38.000
G1 X206.000 Y38.000
G1 X207.000 Y38.000
G1 X208.000 Y38.000
G1 X209.000 Y38.000
G1 X210.000 Y38.000
G1 X211.000 Y38.000
G1 X212.000 Y38.000
G1 X213.000 Y38.000
G1 X214.000 Y38.000
G1 X215.000 Y38.000
G1 X216.000 Y38.000
G1 X217.000 Y38.000
G1 X218.000 Y38.000
G1 X219.000 Y38.000
G1 X220.000 Y38.000
G1 X221.000 Y38.000
G1 X222.000 Y38.000
G1 X223.000 Y38.000
G1 X224.000 Y38.000
G1 X225.000 Y38.000
G1 X226.000 Y38.000
G1 X227.000 Y38.000
G1 X228.000 Y38.000
G1 X229.000 Y38.000
G0 Z4.600 F3000
M400
M204 P12000 T12000
G1 F12000
G0 X229.000 Y39.000 Z4.600
M400
M204 P200 T200
G1 F400
G1 Z0.000 F2500
G1 X228.000 Y39.000
G1 X227.000 Y39.000
G1 X226.000 Y39.000
G1 X225.000 Y39.000
G1 X224.000 Y39.000
G1 X223.000 Y39.000
G1 X222.000 Y39.000
G1 X221.000 Y39.000
G1 X220.000 Y39.000
G1 X219.000 Y39.000
G1 X218.000 Y39.000
G1 X217.000 Y39.000
G1 X216.000 Y39.000
G1 X215.000 Y39.000
G1 X214.000 Y39.000
G1 X213.000 Y39.000
G1 X212.000 Y39.000
G1 X211.000 Y39.000
G1 X210.000 Y39.000
G1 X209.000 Y39.000
G1 X208.000 Y39.000
G1 X207.000 Y39.000
G1 X206.000 Y39.000
G1 X205.000 Y39.000
G1 X204.000 Y39.000
G1 X203.000 Y39.000
G1 X202.000 Y39.000
G1 X201.000 Y39.000
G1 X200.000 Y39.000
G1 X199.000 Y39.000
G1 X198.000 Y39.000
G1 X197.000 Y39.000
G0 Z4.600 F3000

; --- CIKEL NAMAKANJA ---
G0 Z4.600 F3000
M400
M204 P12000 T12000
G1 F12000
G0 X-8.674 Y4.798 Z31.000
G1 Z0.000 F3000
G1 X-8.674 Y4.798 F2500
G1 X-8.674 Y7.298 F2500
G1 X-13.674 Y4.798 F2500
G1 X-8.674 Y-2.702 F2500
G0 Z16.000 F3000
G0 X14.712 Y2.927
G0 Z31.000 F3000
G0 X196.000 Y39.000 Z4.600
M400
M204 P200 T200
G1 F400
G1 Z0.000 F2500
G1 X196.000 Y39.000
G1 X195.000 Y39.000
G1 X194.000 Y39.000
G1 X193.000 Y39.000
G1 X192.000 Y39.000
G1 X191.000 Y39.000
G1 X190.000 Y39.000
G1 X189.000 Y39.000
G1 X188.000 Y39.000
G1 X187.000 Y39.000
G1 X186.000 Y39.000
G1 X185.000 Y39.000
G1 X184.000 Y39.000
G1 X183.000 Y39.000
G1 X182.000 Y39.000
G1 X181.000 Y39.000
G1 X180.000 Y39.000
G1 X179.000 Y39.000
G1 X178.000 Y39.000
G1 X177.000 Y39.000
G1 X176.000 Y39.000
G1 X175.000 Y39.000
G1 X174.000 Y39.000
G1 X173.000 Y39.000
G1 X172.000 Y39.000
G1 X171.000 Y39.000
G1 X170.000 Y39.000
G1 X169.000 Y39.000
G1 X168.000 Y39.000
G1 X167.000 Y39.000
G1 X166.000 Y39.000
G1 X165.000 Y39.000
G1 X164.000 Y39.000
G1 X163.000 Y39.000
G1 X162.000 Y39.000
G1 X161.000 Y39.000
G1 X160.000 Y39.000
G1 X159.000 Y39.000
G1 X158.000 Y39.000
G1 X157.000 Y39.000
G1 X156.000 Y39.000
G1 X155.000 Y39.000
G1 X154.000 Y39.000
G1 X153.000 Y39.000
G1 X152.000 Y39.000
G1 X151.000 Y39.000
G1 X150.000 Y39.000
G1 X149.000 Y39.000
G1 X148.000 Y39.000
G1 X147.000 Y39.000
G1 X146.000 Y39.000
G1 X145.000 Y39.000
G1 X144.000 Y39.000
G1 X143.000 Y39.000
G1 X142.000 Y39.000
G1 X141.000 Y39.000
G1 X140.000 Y39.000
G1 X139.000 Y39.000
G1 X138.000 Y39.000
G1 X137.000 Y39.000
G1 X136.000 Y39.000
G1 X135.000 Y39.000
G1 X134.000 Y39.000
G1 X133.000 Y39.000
G1 X132.000 Y39.000
G1 X131.000 Y39.000
G1 X130.000 Y39.000
G1 X129.000 Y39.000
G1 X128.000 Y39.000
G1 X127.000 Y39.000
G1 X126.000 Y39.000
G1 X125.000 Y39.000
G1 X124.000 Y39.000
G1 X123.000 Y39.000
G1 X122.000 Y39.000
G1 X121.000 Y39.000
G1 X120.000 Y39.000
G1 X119.000 Y39.000
G1 X118.000 Y39.000
G1 X117.000 Y39.000
G1 X116.000 Y39.000
G1 X115.000 Y39.000
G1 X114.000 Y39.000
G1 X113.000 Y39.000
G1 X112.000 Y39.000
G1 X111.000 Y39.000
G1 X110.000 Y39.000
G1 X109.000 Y39.000
G1 X108.000 Y39.000
G1 X107.000 Y39.000
G1 X106.000 Y39.000
G1 X105.000 Y39.000
G1 X104.000 Y39.000
G1 X103.000 Y39.000
G1 X102.000 Y39.000
G1 X101.000 Y39.000
G1 X100.000 Y39.000
G1 X99.000 Y39.000
G1 X98.000 Y39.000
G1 X97.000 Y39.000
G1 X96.000 Y39.000
G1 X95.000 Y39.000
G1 X94.000 Y39.000
G1 X93.000 Y39.000
G1 X92.000 Y39.000
G1 X91.000 Y39.000
G1 X90.000 Y39.000
G1 X89.000 Y39.000
G1 X88.000 Y39.000
G1 X87.000 Y39.000
G1 X86.000 Y39.000
G1 X85.000 Y39.000
G1 X84.000 Y39.000
G1 X83.000 Y39.000
G1 X82.000 Y39.000
G1 X81.000 Y39.000
G1 X80.000 Y39.000
G1 X79.000 Y39.000
G1 X78.000 Y39.000
G1 X77.000 Y39.000
G1 X76.000 Y39.000
G1 X75.000 Y39.000
G1 X74.000 Y39.000
G1 X73.000 Y39.000
G1 X72.000 Y39.000
G1 X71.000 Y39.000
G1 X70.000 Y39.000
G1 X69.000 Y39.000
G1 X68.000 Y39.000
G1 X67.000 Y39.000
G1 X66.000 Y39.000
G1 X65.000 Y39.000
G1 X64.000 Y39.000
G1 X63.000 Y39.000
G1 X62.000 Y39.000
G1 X61.000 Y39.000
G1 X60.000 Y39.000
G1 X59.000 Y39.000
G1 X58.000 Y39.000
G1 X57.000 Y39.000
G1 X56.000 Y39.000
G1 X55.000 Y39.000
G1 X54.000 Y39.000
G1 X53.000 Y39.000
G1 X52.000 Y39.000
G1 X51.000 Y39.000
G1 X50.000 Y39.000
G1 X49.000 Y39.000
G1 X48.000 Y39.000
G1 X47.000 Y39.000
G1 X46.000 Y39.000
G1 X45.000 Y39.000
G1 X44.000 Y39.000
G1 X43.000 Y39.000
G1 X42.000 Y39.000
G1 X41.000 Y39.000
G1 X40.000 Y39.000
G1 X39.000 Y39.000
G1 X38.000 Y39.000
G1 X37.000 Y39.000
G1 X36.000 Y39.000
G1 X35.000 Y39.000
G1 X34.000 Y39.000
G1 X33.000 Y39.000
G1 X32.000 Y39.000
G1 X31.000 Y39.000
G1 X30.000 Y39.000
G0 Z4.600 F3000
M400
M204 P12000 T12000
G1 F12000
G0 X30.000 Y40.000 Z4.600
M400
M204 P200 T200
G1 F400
G1 Z0.000 F2500
G1 X31.000 Y40.000
G1 X32.000 Y40.000
G1 X33.000 Y40.000
G1 X34.000 Y40.000
G1 X35.000 Y40.000
G1 X36.000 Y40.000
G1 X37.000 Y40.000
G1 X38.000 Y40.000
G1 X39.000 Y40.000
G1 X40.000 Y40.000
G1 X41.000 Y40.000
G1 X42.000 Y40.000
G1 X43.000 Y40.000
G1 X44.000 Y40.000
G1 X45.000 Y40.000
G1 X46.000 Y40.000
G1 X47.000 Y40.000
G1 X48.000 Y40.000
G1 X49.000 Y40.000
G1 X50.000 Y40.000
G1 X51.000 Y40.000
G1 X52.000 Y40.000
G1 X53.000 Y40.000
G1 X54.000 Y40.000
G1 X55.000 Y40.000
G1 X56.000 Y40.000
G1 X57.000 Y40.000
G1 X58.000 Y40.000
G1 X59.000 Y40.000
G1 X60.000 Y40.000
G1 X61.000 Y40.000
G1 X62.000 Y40.000
G1 X63.000 Y40.000
G1 X64.000 Y40.000
G1 X65.000 Y40.000
G1 X66.000 Y40.000
G1 X67.000 Y40.000
G1 X68.000 Y40.000
G1 X69.000 Y40.000
G1 X70.000 Y40.000
G1 X71.000 Y40.000
G1 X72.000 Y40.000
G1 X73.000 Y40.000
G1 X74.000 Y40.000
G1 X75.000 Y40.000
G1 X76.000 Y40.000
G1 X77.000 Y40.000
G1 X78.000 Y40.000
G1 X79.000 Y40.000
G1 X80.000 Y40.000
G1 X81.000 Y40.000
G1 X82.000 Y40.000
G1 X83.000 Y40.000
G1 X84.000 Y40.000
G1 X85.000 Y40.000
G1 X86.000 Y40.000
G1 X87.000 Y40.000
G1 X88.000 Y40.000
G1 X89.000 Y40.000
G1 X90.000 Y40.000
G1 X91.000 Y40.000
G1 X92.000 Y40.000
G1 X93.000 Y40.000
G1 X94.000 Y40.000
G1 X95.000 Y40.000
G1 X96.000 Y40.000
G1 X97.000 Y40.000
G1 X98.000 Y40.000
G1 X99.000 Y40.000
G1 X100.000 Y40.000
G1 X101.000 Y40.000
G1 X102.000 Y40.000
G1 X103.000 Y40.000
G1 X104.000 Y40.000
G1 X105.000 Y40.000
G1 X106.000 Y40.000
G1 X107.000 Y40.000
G1 X108.000 Y40.000
G1 X109.000 Y40.000
G1 X110.000 Y40.000
G1 X111.000 Y40.000
G1 X112.000 Y40.000
G1 X113.000 Y40.000
G1 X114.000 Y40.000
G1 X115.000 Y40.000
G1 X116.000 Y40.000
G1 X117.000 Y40.000
G1 X118.000 Y40.000
G1 X119.000 Y40.000
G1 X120.000 Y40.000
G1 X121.000 Y40.000
G1 X122.000 Y40.000
G1 X123.000 Y40.000
G1 X124.000 Y40.000
G1 X125.000 Y40.000
G1 X126.000 Y40.000
G1 X127.000 Y40.000
G1 X128.000 Y40.000
G1 X129.000 Y40.000
G1 X130.000 Y40.000
G1 X131.000 Y40.000
G1 X132.000 Y40.000
G1 X133.000 Y40.000
G1 X134.000 Y40.000
G0 Z4.600 F3000

; --- CIKEL NAMAKANJA ---
G0 Z4.600 F3000
M400
M204 P12000 T12000
G1 F12000
G0 X-10.714 Y-0.435 Z31.000
G1 Z0.000 F3000
G1 X-10.714 Y-0.435 F2500
G1 X-10.714 Y2.065 F2500
G1 X-15.714 Y-0.435 F2500
G1 X-10.714 Y-7.935 F2500
G0 Z16.000 F3000
G0 X14.382 Y4.261
G0 Z31.000 F3000
G0 X135.000 Y40.000 Z4.600
M400
M204 P200 T200
G1 F400
G1 Z0.000 F2500
G1 X135.000 Y40.000
G1 X136.000 Y40.000
G1 X137.000 Y40.000
G1 X138.000 Y40.000
G1 X139.000 Y40.000
G1 X140.000 Y40.000
G1 X141.000 Y40.000
G1 X142.000 Y40.000
G1 X143.000 Y40.000
G1 X144.000 Y40.000
G1 X145.000 Y40.000
G1 X146.000 Y40.000
G1 X147.000 Y40.000
G1 X148.000 Y40.000
G1 X149.000 Y40.000
G1 X150.000 Y40.000
G1 X151.000 Y40.000
G1 X152.000 Y40.000
G1 X153.000 Y40.000
G1 X154.000 Y40.000
G1 X155.000 Y40.000
G1 X156.000 Y40.000
G1 X157.000 Y40.000
G1 X158.000 Y40.000
G1 X159.000 Y40.000
G1 X160.000 Y40.000
G1 X161.000 Y40.000
G1 X162.000 Y40.000
G1 X163.000 Y40.000
G1 X164.000 Y40.000
G1 X165.000 Y40.000
G1 X166.000 Y40.000
G1 X167.000 Y40.000
G1 X168.000 Y40.000
G1 X169.000 Y40.000
G1 X170.000 Y40.000
G1 X171.000 Y40.000
G1 X172.000 Y40.000
G1 X173.000 Y40.000
G1 X174.000 Y40.000
G1 X175.000 Y40.000
G1 X176.000 Y40.000
G1 X177.000 Y40.000
G1 X178.000 Y40.000
G1 X179.000 Y40.000
G1 X180.000 Y40.000
G1 X181.000 Y40.000
G1 X182.000 Y40.000
G1 X183.000 Y40.000
G1 X184.000 Y40.000
G1 X185.000 Y40.000
G1 X186.000 Y40.000
G1 X187.000 Y40.000
G1 X188.000 Y40.000
G1 X189.000 Y40.000
G1 X190.000 Y40.000
G1 X191.000 Y40.000
G1 X192.000 Y40.000
G1 X193.000 Y40.000
G1 X194.000 Y40.000
G1 X195.000 Y40.000
G1 X196.000 Y40.000
G1 X197.000 Y40.000
G1 X198.000 Y40.000
G1 X199.000 Y40.000
G1 X200.000 Y40.000
G1 X201.000 Y40.000
G1 X202.000 Y40.000
G1 X203.000 Y40.000
G1 X204.000 Y40.000
G1 X205.000 Y40.000
G1 X206.000 Y40.000
G1 X207.000 Y40.000
G1 X208.000 Y40.000
G1 X209.000 Y40.000
G1 X210.000 Y40.000
G1 X211.000 Y40.000
G1 X212.000 Y40.000
G1 X213.000 Y40.000
G1 X214.000 Y40.000
G1 X215.000 Y40.000
G1 X216.000 Y40.000
G1 X217.000 Y40.000
G1 X218.000 Y40.000
G1 X219.000 Y40.000
G1 X220.000 Y40.000
G1 X221.000 Y40.000
G1 X222.000 Y40.000
G1 X223.000 Y40.000
G1 X224.000 Y40.000
G1 X225.000 Y40.000
G1 X226.000 Y40.000
G1 X227.000 Y40.000
G1 X228.000 Y40.000
G1 X229.000 Y40.000
G0 Z4.600 F3000
M400
M204 P12000 T12000
G1 F12000
G0 X229.000 Y41.000 Z4.600
M400
M204 P200 T200
G1 F400
G1 Z0.000 F2500
G1 X228.000 Y41.000
G1 X227.000 Y41.000
G1 X226.000 Y41.000
G1 X225.000 Y41.000
G1 X224.000 Y41.000
G1 X223.000 Y41.000
G1 X222.000 Y41.000
G1 X221.000 Y41.000
G1 X220.000 Y41.000
G1 X219.000 Y41.000
G1 X218.000 Y41.000
G1 X217.000 Y41.000
G1 X216.000 Y41.000
G1 X215.000 Y41.000
G1 X214.000 Y41.000
G1 X213.000 Y41.000
G1 X212.000 Y41.000
G1 X211.000 Y41.000
G1 X210.000 Y41.000
G1 X209.000 Y41.000
G1 X208.000 Y41.000
G1 X207.000 Y41.000
G1 X206.000 Y41.000
G1 X205.000 Y41.000
G1 X204.000 Y41.000
G1 X203.000 Y41.000
G1 X202.000 Y41.000
G1 X201.000 Y41.000
G1 X200.000 Y41.000
G1 X199.000 Y41.000
G1 X198.000 Y41.000
G1 X197.000 Y41.000
G1 X196.000 Y41.000
G1 X195.000 Y41.000
G1 X194.000 Y41.000
G1 X193.000 Y41.000
G1 X192.000 Y41.000
G1 X191.000 Y41.000
G1 X190.000 Y41.000
G1 X189.000 Y41.000
G1 X188.000 Y41.000
G1 X187.000 Y41.000
G1 X186.000 Y41.000
G1 X185.000 Y41.000
G1 X184.000 Y41.000
G1 X183.000 Y41.000
G1 X182.000 Y41.000
G1 X181.000 Y41.000
G1 X180.000 Y41.000
G1 X179.000 Y41.000
G1 X178.000 Y41.000
G1 X177.000 Y41.000
G1 X176.000 Y41.000
G1 X175.000 Y41.000
G1 X174.000 Y41.000
G1 X173.000 Y41.000
G1 X172.000 Y41.000
G1 X171.000 Y41.000
G1 X170.000 Y41.000
G1 X169.000 Y41.000
G1 X168.000 Y41.000
G1 X167.000 Y41.000
G1 X166.000 Y41.000
G1 X165.000 Y41.000
G1 X164.000 Y41.000
G1 X163.000 Y41.000
G1 X162.000 Y41.000
G1 X161.000 Y41.000
G1 X160.000 Y41.000
G1 X159.000 Y41.000
G1 X158.000 Y41.000
G1 X157.000 Y41.000
G1 X156.000 Y41.000
G1 X155.000 Y41.000
G1 X154.000 Y41.000
G1 X153.000 Y41.000
G1 X152.000 Y41.000
G1 X151.000 Y41.000
G1 X150.000 Y41.000
G1 X149.000 Y41.000
G1 X148.000 Y41.000
G1 X147.000 Y41.000
G1 X146.000 Y41.000
G1 X145.000 Y41.000
G1 X144.000 Y41.000
G1 X143.000 Y41.000
G1 X142.000 Y41.000
G1 X141.000 Y41.000
G1 X140.000 Y41.000
G1 X139.000 Y41.000
G1 X138.000 Y41.000
G1 X137.000 Y41.000
G1 X136.000 Y41.000
G1 X135.000 Y41.000
G1 X134.000 Y41.000
G1 X133.000 Y41.000
G1 X132.000 Y41.000
G1 X131.000 Y41.000
G1 X130.000 Y41.000
G1 X129.000 Y41.000
G1 X128.000 Y41.000
G1 X127.000 Y41.000
G1 X126.000 Y41.000
G1 X125.000 Y41.000
G1 X124.000 Y41.000
G1 X123.000 Y41.000
G1 X122.000 Y41.000
G1 X121.000 Y41.000
G1 X120.000 Y41.000
G1 X119.000 Y41.000
G1 X118.000 Y41.000
G1 X117.000 Y41.000
G1 X116.000 Y41.000
G1 X115.000 Y41.000
G1 X114.000 Y41.000
G1 X113.000 Y41.000
G1 X112.000 Y41.000
G1 X111.000 Y41.000
G1 X110.000 Y41.000
G1 X109.000 Y41.000
G1 X108.000 Y41.000
G1 X107.000 Y41.000
G1 X106.000 Y41.000
G1 X105.000 Y41.000
G1 X104.000 Y41.000
G1 X103.000 Y41.000
G1 X102.000 Y41.000
G1 X101.000 Y41.000
G1 X100.000 Y41.000
G1 X99.000 Y41.000
G1 X98.000 Y41.000
G1 X97.000 Y41.000
G1 X96.000 Y41.000
G1 X95.000 Y41.000
G1 X94.000 Y41.000
G1 X93.000 Y41.000
G1 X92.000 Y41.000
G1 X91.000 Y41.000
G1 X90.000 Y41.000
G1 X89.000 Y41.000
G1 X88.000 Y41.000
G1 X87.000 Y41.000
G1 X86.000 Y41.000
G1 X85.000 Y41.000
G1 X84.000 Y41.000
G1 X83.000 Y41.000
G1 X82.000 Y41.000
G1 X81.000 Y41.000
G1 X80.000 Y41.000
G1 X79.000 Y41.000
G1 X78.000 Y41.000
G1 X77.000 Y41.000
G1 X76.000 Y41.000
G1 X75.000 Y41.000
G1 X74.000 Y41.000
G1 X73.000 Y41.000
G1 X72.000 Y41.000
G1 X71.000 Y41.000
G1 X70.000 Y41.000
G1 X69.000 Y41.000
G1 X68.000 Y41.000
G1 X67.000 Y41.000
G1 X66.000 Y41.000
G1 X65.000 Y41.000
G1 X64.000 Y41.000
G1 X63.000 Y41.000
G1 X62.000 Y41.000
G0 Z4.600 F3000

; --- CIKEL NAMAKANJA ---
G0 Z4.600 F3000
M400
M204 P12000 T12000
G1 F12000
G0 X-11.537 Y-10.857 Z31.000
G1 Z0.000 F3000
G1 X-11.537 Y-10.857 F2500
G1 X-11.537 Y-8.357 F2500
G1 X-16.537 Y-10.857 F2500
G1 X-11.537 Y-18.357 F2500
G0 Z16.000 F3000
G0 X12.449 Y8.368
G0 Z31.000 F3000
G0 X61.000 Y41.000 Z4.600
M400
M204 P200 T200
G1 F400
G1 Z0.000 F2500
G1 X61.000 Y41.000
G1 X60.000 Y41.000
G1 X59.000 Y41.000
G1 X58.000 Y41.000
G1 X57.000 Y41.000
G1 X56.000 Y41.000
G1 X55.000 Y41.000
G1 X54.000 Y41.000
G1 X53.000 Y41.000
G1 X52.000 Y41.000
G1 X51.000 Y41.000
G1 X50.000 Y41.000
G1 X49.000 Y41.000
G1 X48.000 Y41.000
G1 X47.000 Y41.000
G1 X46.000 Y41.000
G1 X45.000 Y41.000
G1 X44.000 Y41.000
G1 X43.000 Y41.000
G1 X42.000 Y41.000
G1 X41.000 Y41.000
G1 X40.000 Y41.000
G1 X39.000 Y41.000
G1 X38.000 Y41.000
G1 X37.000 Y41.000
G1 X36.000 Y41.000
G1 X35.000 Y41.000
G1 X34.000 Y41.000
G1 X33.000 Y41.000
G1 X32.000 Y41.000
G1 X31.000 Y41.000
G1 X30.000 Y41.000
G0 Z4.600 F3000
M400
M204 P12000 T12000
G1 F12000
G0 X30.000 Y42.000 Z4.600
M400
M204 P200 T200
G1 F400
G1 Z0.000 F2500
G1 X31.000 Y42.000
G1 X32.000 Y42.000
G1 X33.000 Y42.000
G1 X34.000 Y42.000
G1 X35.000 Y42.000
G1 X36.000 Y42.000
G1 X37.000 Y42.000
G1 X38.000 Y42.000
G1 X39.000 Y42.000
G1 X40.000 Y42.000
G1 X41.000 Y42.000
G1 X42.000 Y42.000
G1 X43.000 Y42.000
G1 X44.000 Y42.000
G1 X45.000 Y42.000
G1 X46.000 Y42.000
G1 X47.000 Y42.000
G1 X48.000 Y42.000
G1 X49.000 Y42.000
G1 X50.000 Y42.000
G1 X51.000 Y42.000
G1 X52.000 Y42.000
G1 X53.000 Y42.000
G1 X54.000 Y42.000
G1 X55.000 Y42.000
G1 X56.000 Y42.000
G1 X57.000 Y42.000
G1 X58.000 Y42.000
G1 X59.000 Y42.000
G1 X60.000 Y42.000
G1 X61.000 Y42.000
G1 X62.000 Y42.000
G1 X63.000 Y42.000
G1 X64.000 Y42.000
G1 X65.000 Y42.000
G1 X66.000 Y42.000
G1 X67.000 Y42.000
G1 X68.000 Y42.000
G1 X69.000 Y42.000
G1 X70.000 Y42.000
G1 X71.000 Y42.000
G1 X72.000 Y42.000
G1 X73.000 Y42.000
G1 X74.000 Y42.000
G1 X75.000 Y42.000
G1 X76.000 Y42.000
G1 X77.000 Y42.000
G1 X78.000 Y42.000
G1 X79.000 Y42.000
G1 X80.000 Y42.000
G1 X81.000 Y42.000
G1 X82.000 Y42.000
G1 X83.000 Y42.000
G1 X84.000 Y42.000
G1 X85.000 Y42.000
G1 X86.000 Y42.000
G1 X87.000 Y42.000
G1 X88.000 Y42.000
G1 X89.000 Y42.000
G1 X90.000 Y42.000
G1 X91.000 Y42.000
G1 X92.000 Y42.000
G1 X93.000 Y42.000
G1 X94.000 Y42.000
G1 X95.000 Y42.000
G1 X96.000 Y42.000
G1 X97.000 Y42.000
G1 X98.000 Y42.000
G1 X99.000 Y42.000
G1 X100.000 Y42.000
G1 X101.000 Y42.000
G1 X102.000 Y42.000
G1 X103.000 Y42.000
G1 X104.000 Y42.000
G1 X105.000 Y42.000
G1 X106.000 Y42.000
G1 X107.000 Y42.000
G1 X108.000 Y42.000
G1 X109.000 Y42.000
G1 X110.000 Y42.000
G1 X111.000 Y42.000
G1 X112.000 Y42.000
G1 X113.000 Y42.000
G1 X114.000 Y42.000
G1 X115.000 Y42.000
G1 X116.000 Y42.000
G1 X117.000 Y42.000
G1 X118.000 Y42.000
G1 X119.000 Y42.000
G1 X120.000 Y42.000
G1 X121.000 Y42.000
G1 X122.000 Y42.000
G1 X123.000 Y42.000
G1 X124.000 Y42.000
G1 X125.000 Y42.000
G1 X126.000 Y42.000
G1 X127.000 Y42.000
G1 X128.000 Y42.000
G1 X129.000 Y42.000
G1 X130.000 Y42.000
G1 X131.000 Y42.000
G1 X132.000 Y42.000
G1 X133.000 Y42.000
G1 X134.000 Y42.000
G1 X135.000 Y42.000
G1 X136.000 Y42.000
G1 X137.000 Y42.000
G1 X138.000 Y42.000
G1 X139.000 Y42.000
G1 X140.000 Y42.000
G1 X141.000 Y42.000
G1 X142.000 Y42.000
G1 X143.000 Y42.000
G1 X144.000 Y42.000
G1 X145.000 Y42.000
G1 X146.000 Y42.000
G1 X147.000 Y42.000
G1 X148.000 Y42.000
G1 X149.000 Y42.000
G1 X150.000 Y42.000
G1 X151.000 Y42.000
G1 X152.000 Y42.000
G1 X153.000 Y42.000
G1 X154.000 Y42.000
G1 X155.000 Y42.000
G1 X156.000 Y42.000
G1 X157.000 Y42.000
G1 X158.000 Y42.000
G1 X159.000 Y42.000
G1 X160.000 Y42.000
G1 X161.000 Y42.000
G1 X162.000 Y42.000
G1 X163.000 Y42.000
G1 X164.000 Y42.000
G1 X165.000 Y42.000
G1 X166.000 Y42.000
G1 X167.000 Y42.000
G1 X168.000 Y42.000
G1 X169.000 Y42.000
G1 X170.000 Y42.000
G1 X171.000 Y42.000
G1 X172.000 Y42.000
G1 X173.000 Y42.000
G1 X174.000 Y42.000
G1 X175.000 Y42.000
G1 X176.000 Y42.000
G1 X177.000 Y42.000
G1 X178.000 Y42.000
G1 X179.000 Y42.000
G1 X180.000 Y42.000
G1 X181.000 Y42.000
G1 X182.000 Y42.000
G1 X183.000 Y42.000
G1 X184.000 Y42.000
G1 X185.000 Y42.000
G1 X186.000 Y42.000
G1 X187.000 Y42.000
G1 X188.000 Y42.000
G1 X189.000 Y42.000
G1 X190.000 Y42.000
G1 X191.000 Y42.000
G1 X192.000 Y42.000
G1 X193.000 Y42.000
G1 X194.000 Y42.000
G1 X195.000 Y42.000
G1 X196.000 Y42.000
G1 X197.000 Y42.000
G1 X198.000 Y42.000
G1 X199.000 Y42.000
G1 X200.000 Y42.000
G1 X201.000 Y42.000
G1 X202.000 Y42.000
G1 X203.000 Y42.000
G1 X204.000 Y42.000
G1 X205.000 Y42.000
G1 X206.000 Y42.000
G1 X207.000 Y42.000
G1 X208.000 Y42.000
G1 X209.000 Y42.000
G1 X210.000 Y42.000
G1 X211.000 Y42.000
G1 X212.000 Y42.000
G1 X213.000 Y42.000
G1 X214.000 Y42.000
G1 X215.000 Y42.000
G1 X216.000 Y42.000
G1 X217.000 Y42.000
G1 X218.000 Y42.000
G1 X219.000 Y42.000
G1 X220.000 Y42.000
G1 X221.000 Y42.000
G1 X222.000 Y42.000
G1 X223.000 Y42.000
G1 X224.000 Y42.000
G1 X225.000 Y42.000
G1 X226.000 Y42.000
G1 X227.000 Y42.000
G1 X228.000 Y42.000
G1 X229.000 Y42.000
G0 Z4.600 F3000
M400
M204 P12000 T12000
G1 F12000
G0 X229.000 Y43.000 Z4.600
M400
M204 P200 T200
G1 F400
G1 Z0.000 F2500
G1 X228.000 Y43.000
G1 X227.000 Y43.000
G1 X226.000 Y43.000
G1 X225.000 Y43.000
G1 X224.000 Y43.000
G1 X223.000 Y43.000
G1 X222.000 Y43.000
G1 X221.000 Y43.000
G1 X220.000 Y43.000
G1 X219.000 Y43.000
G1 X218.000 Y43.000
G1 X217.000 Y43.000
G1 X216.000 Y43.000
G1 X215.000 Y43.000
G1 X214.000 Y43.000
G1 X213.000 Y43.000
G1 X212.000 Y43.000
G1 X211.000 Y43.000
G0 Z4.600 F3000

; --- CIKEL NAMAKANJA ---
G0 Z4.600 F3000
M400
M204 P12000 T12000
G1 F12000
G0 X-16.973 Y13.104 Z31.000
G1 Z0.000 F3000
G1 X-16.973 Y13.104 F2500
G1 X-16.973 Y15.604 F2500
G1 X-21.973 Y13.104 F2500
G1 X-16.973 Y5.604 F2500
G0 Z16.000 F3000
G0 X14.695 Y3.009
G0 Z31.000 F3000
G0 X210.000 Y43.000 Z4.600
M400
M204 P200 T200
G1 F400
G1 Z0.000 F2500
G1 X210.000 Y43.000
G1 X209.000 Y43.000
G1 X208.000 Y43.000
G1 X207.000 Y43.000
G1 X206.000 Y43.000
G1 X205.000 Y43.000
G1 X204.000 Y43.000
G1 X203.000 Y43.000
G1 X202.000 Y43.000
G1 X201.000 Y43.000
G1 X200.000 Y43.000
G1 X199.000 Y43.000
G1 X198.000 Y43.000
G1 X197.000 Y43.000
G1 X196.000 Y43.000
G1 X195.000 Y43.000
G1 X194.000 Y43.000
G1 X193.000 Y43.000
G1 X192.000 Y43.000
G1 X191.000 Y43.000
G1 X190.000 Y43.000
G1 X189.000 Y43.000
G1 X188.000 Y43.000
G1 X187.000 Y43.000
G1 X186.000 Y43.000
G1 X185.000 Y43.000
G1 X184.000 Y43.000
G1 X183.000 Y43.000
G1 X182.000 Y43.000
G1 X181.000 Y43.000
G1 X180.000 Y43.000
G1 X179.000 Y43.000
G1 X178.000 Y43.000
G1 X177.000 Y43.000
G1 X176.000 Y43.000
G1 X175.000 Y43.000
G1 X174.000 Y43.000
G1 X173.000 Y43.000
G1 X172.000 Y43.000
G1 X171.000 Y43.000
G1 X170.000 Y43.000
G1 X169.000 Y43.000
G1 X168.000 Y43.000
G1 X167.000 Y43.000
G1 X166.000 Y43.000
G1 X165.000 Y43.000
G1 X164.000 Y43.000
G1 X163.000 Y43.000
G1 X162.000 Y43.000
G1 X161.000 Y43.000
G1 X160.000 Y43.000
G1 X159.000 Y43.000
G1 X158.000 Y43.000
G1 X157.000 Y43.000
G1 X156.000 Y43.000
G1 X155.000 Y43.000
G1 X154.000 Y43.000
G1 X153.000 Y43.000
G1 X152.000 Y43.000
G1 X151.000 Y43.000
G1 X150.000 Y43.000
G1 X149.000 Y43.000
G1 X148.000 Y43.000
G1 X147.000 Y43.000
G1 X146.000 Y43.000
G1 X145.000 Y43.000
G1 X144.000 Y43.000
G1 X143.000 Y43.000
G1 X142.000 Y43.000
G1 X141.000 Y43.000
G1 X140.000 Y43.000
G1 X139.000 Y43.000
G1 X138.000 Y43.000
G1 X137.000 Y43.000
G1 X136.000 Y43.000
G1 X135.000 Y43.000
G1 X134.000 Y43.000
G1 X133.000 Y43.000
G1 X132.000 Y43.000
G1 X131.000 Y43.000
G1 X130.000 Y43.000
G1 X129.000 Y43.000
G1 X128.000 Y43.000
G1 X127.000 Y43.000
G1 X126.000 Y43.000
G1 X125.000 Y43.000
G1 X124.000 Y43.000
G1 X123.000 Y43.000
G1 X122.000 Y43.000
G1 X121.000 Y43.000
G1 X120.000 Y43.000
G1 X119.000 Y43.000
G1 X118.000 Y43.000
G1 X117.000 Y43.000
G1 X116.000 Y43.000
G1 X115.000 Y43.000
G1 X114.000 Y43.000
G1 X113.000 Y43.000
G1 X112.000 Y43.000
G1 X111.000 Y43.000
G1 X110.000 Y43.000
G1 X109.000 Y43.000
G1 X108.000 Y43.000
G1 X107.000 Y43.000
G1 X106.000 Y43.000
G1 X105.000 Y43.000
G1 X104.000 Y43.000
G1 X103.000 Y43.000
G1 X102.000 Y43.000
G1 X101.000 Y43.000
G1 X100.000 Y43.000
G1 X99.000 Y43.000
G1 X98.000 Y43.000
G1 X97.000 Y43.000
G1 X96.000 Y43.000
G1 X95.000 Y43.000
G1 X94.000 Y43.000
G1 X93.000 Y43.000
G1 X92.000 Y43.000
G1 X91.000 Y43.000
G1 X90.000 Y43.000
G1 X89.000 Y43.000
G1 X88.000 Y43.000
G1 X87.000 Y43.000
G1 X86.000 Y43.000
G1 X85.000 Y43.000
G1 X84.000 Y43.000
G1 X83.000 Y43.000
G1 X82.000 Y43.000
G1 X81.000 Y43.000
G1 X80.000 Y43.000
G1 X79.000 Y43.000
G1 X78.000 Y43.000
G1 X77.000 Y43.000
G1 X76.000 Y43.000
G1 X75.000 Y43.000
G1 X74.000 Y43.000
G1 X73.000 Y43.000
G1 X72.000 Y43.000
G1 X71.000 Y43.000
G1 X70.000 Y43.000
G1 X69.000 Y43.000
G1 X68.000 Y43.000
G1 X67.000 Y43.000
G1 X66.000 Y43.000
G1 X65.000 Y43.000
G1 X64.000 Y43.000
G1 X63.000 Y43.000
G1 X62.000 Y43.000
G1 X61.000 Y43.000
G1 X60.000 Y43.000
G1 X59.000 Y43.000
G1 X58.000 Y43.000
G1 X57.000 Y43.000
G1 X56.000 Y43.000
G1 X55.000 Y43.000
G1 X54.000 Y43.000
G1 X53.000 Y43.000
G1 X52.000 Y43.000
G1 X51.000 Y43.000
G1 X50.000 Y43.000
G1 X49.000 Y43.000
G1 X48.000 Y43.000
G1 X47.000 Y43.000
G1 X46.000 Y43.000
G1 X45.000 Y43.000
G1 X44.000 Y43.000
G1 X43.000 Y43.000
G1 X42.000 Y43.000
G1 X41.000 Y43.000
G1 X40.000 Y43.000
G1 X39.000 Y43.000
G1 X38.000 Y43.000
G1 X37.000 Y43.000
G1 X36.000 Y43.000
G1 X35.000 Y43.000
G1 X34.000 Y43.000
G1 X33.000 Y43.000
G1 X32.000 Y43.000
G1 X31.000 Y43.000
G1 X30.000 Y43.000
G0 Z4.600 F3000
M400
M204 P12000 T12000
G1 F12000
G0 X30.000 Y44.000 Z4.600
M400
M204 P200 T200
G1 F400
G1 Z0.000 F2500
G1 X31.000 Y44.000
G1 X32.000 Y44.000
G1 X33.000 Y44.000
G1 X34.000 Y44.000
G1 X35.000 Y44.000
G1 X36.000 Y44.000
G1 X37.000 Y44.000
G1 X38.000 Y44.000
G1 X39.000 Y44.000
G1 X40.000 Y44.000
G1 X41.000 Y44.000
G1 X42.000 Y44.000
G1 X43.000 Y44.000
G1 X44.000 Y44.000
G1 X45.000 Y44.000
G1 X46.000 Y44.000
G1 X47.000 Y44.000
G1 X48.000 Y44.000
G1 X49.000 Y44.000
G1 X50.000 Y44.000
G1 X51.000 Y44.000
G1 X52.000 Y44.000
G1 X53.000 Y44.000
G1 X54.000 Y44.000
G1 X55.000 Y44.000
G1 X56.000 Y44.000
G1 X57.000 Y44.000
G1 X58.000 Y44.000
G1 X59.000 Y44.000
G1 X60.000 Y44.000
G1 X61.000 Y44.000
G1 X62.000 Y44.000
G1 X63.000 Y44.000
G1 X64.000 Y44.000
G1 X65.000 Y44.000
G1 X66.000 Y44.000
G1 X67.000 Y44.000
G1 X68.000 Y44.000
G1 X69.000 Y44.000
G1 X70.000 Y44.000
G1 X71.000 Y44.000
G1 X72.000 Y44.000
G1 X73.000 Y44.000
G1 X74.000 Y44.000
G1 X75.000 Y44.000
G1 X76.000 Y44.000
G1 X77.000 Y44.000
G1 X78.000 Y44.000
G1 X79.000 Y44.000
G1 X80.000 Y44.000
G1 X81.000 Y44.000
G1 X82.000 Y44.000
G1 X83.000 Y44.000
G1 X84.000 Y44.000
G1 X85.000 Y44.000
G1 X86.000 Y44.000
G1 X87.000 Y44.000
G1 X88.000 Y44.000
G1 X89.000 Y44.000
G1 X90.000 Y44.000
G1 X91.000 Y44.000
G1 X92.000 Y44.000
G1 X93.000 Y44.000
G1 X94.000 Y44.000
G1 X95.000 Y44.000
G1 X96.000 Y44.000
G1 X97.000 Y44.000
G1 X98.000 Y44.000
G1 X99.000 Y44.000
G1 X100.000 Y44.000
G1 X101.000 Y44.000
G1 X102.000 Y44.000
G1 X103.000 Y44.000
G1 X104.000 Y44.000
G1 X105.000 Y44.000
G1 X106.000 Y44.000
G1 X107.000 Y44.000
G1 X108.000 Y44.000
G1 X109.000 Y44.000
G1 X110.000 Y44.000
G1 X111.000 Y44.000
G1 X112.000 Y44.000
G1 X113.000 Y44.000
G1 X114.000 Y44.000
G1 X115.000 Y44.000
G1 X116.000 Y44.000
G1 X117.000 Y44.000
G1 X118.000 Y44.000
G0 Z4.600 F3000

; --- CIKEL NAMAKANJA ---
G0 Z4.600 F3000
M400
M204 P12000 T12000
G1 F12000
G0 X18.376 Y-15.625 Z31.000
G1 Z0.000 F3000
G1 X18.376 Y-15.625 F2500
G1 X18.376 Y-13.125 F2500
G1 X13.376 Y-15.625 F2500
G1 X18.376 Y-23.125 F2500
G0 Z16.000 F3000
G0 X14.069 Y5.202
G0 Z31.000 F3000
G0 X119.000 Y44.000 Z4.600
M400
M204 P200 T200
G1 F400
G1 Z0.000 F2500
G1 X119.000 Y44.000
G1 X120.000 Y44.000
G1 X121.000 Y44.000
G1 X122.000 Y44.000
G1 X123.000 Y44.000
G1 X124.000 Y44.000
G1 X125.000 Y44.000
G1 X126.000 Y44.000
G1 X127.000 Y44.000
G1 X128.000 Y44.000
G1 X129.000 Y44.000
G1 X130.000 Y44.000
G1 X131.000 Y44.000
G1 X132.000 Y44.000
G1 X133.000 Y44.000
G1 X134.000 Y44.000
G1 X135.000 Y44.000
G1 X136.000 Y44.000
G1 X137.000 Y44.000
G1 X138.000 Y44.000
G1 X139.000 Y44.000
G1 X140.000 Y44.000
G1 X141.000 Y44.000
G1 X142.000 Y44.000
G1 X143.000 Y44.000
G1 X144.000 Y44.000
G1 X145.000 Y44.000
G1 X146.000 Y44.000
G1 X147.000 Y44.000
G1 X148.000 Y44.000
G1 X149.000 Y44.000
G1 X150.000 Y44.000
G1 X151.000 Y44.000
G1 X152.000 Y44.000
G1 X153.000 Y44.000
G1 X154.000 Y44.000
G1 X155.000 Y44.000
G1 X156.000 Y44.000
G1 X157.000 Y44.000
G1 X158.000 Y44.000
G1 X159.000 Y44.000
G1 X160.000 Y44.000
G1 X161.000 Y44.000
G1 X162.000 Y44.000
G1 X163.000 Y44.000
G1 X164.000 Y44.000
G1 X165.000 Y44.000
G1 X166.000 Y44.000
G1 X167.000 Y44.000
G1 X168.000 Y44.000
G1 X169.000 Y44.000
G1 X170.000 Y44.000
G1 X171.000 Y44.000
G1 X172.000 Y44.000
G1 X173.000 Y44.000
G1 X174.000 Y44.000
G1 X175.000 Y44.000
G1 X176.000 Y44.000
G1 X177.000 Y44.000
G1 X178.000 Y44.000
G1 X179.000 Y44.000
G1 X180.000 Y44.000
G1 X181.000 Y44.000
G1 X182.000 Y44.000
G1 X183.000 Y44.000
G1 X184.000 Y44.000
G1 X185.000 Y44.000
G1 X186.000 Y44.000
G1 X187.000 Y44.000
G1 X188.000 Y44.000
G1 X189.000 Y44.000
G1 X190.000 Y44.000
G1 X191.000 Y44.000
G1 X192.000 Y44.000
G1 X193.000 Y44.000
G1 X194.000 Y44.000
G1 X195.000 Y44.000
G1 X196.000 Y44.000
G1 X197.000 Y44.000
G1 X198.000 Y44.000
G1 X199.000 Y44.000
G1 X200.000 Y44.000
G1 X201.000 Y44.000
G1 X202.000 Y44.000
G1 X203.000 Y44.000
G1 X204.000 Y44.000
G1 X205.000 Y44.000
G1 X206.000 Y44.000
G1 X207.000 Y44.000
G1 X208.000 Y44.000
G1 X209.000 Y44.000
G1 X210.000 Y44.000
G1 X211.000 Y44.000
G1 X212.000 Y44.000
G1 X213.000 Y44.000
G1 X214.000 Y44.000
G1 X215.000 Y44.000
G1 X216.000 Y44.000
G1 X217.000 Y44.000
G1 X218.000 Y44.000
G1 X219.000 Y44.000
G1 X220.000 Y44.000
G1 X221.000 Y44.000
G1 X222.000 Y44.000
G1 X223.000 Y44.000
G1 X224.000 Y44.000
G1 X225.000 Y44.000
G1 X226.000 Y44.000
G1 X227.000 Y44.000
G1 X228.000 Y44.000
G1 X229.000 Y44.000
G0 Z4.600 F3000
M400
M204 P12000 T12000
G1 F12000
G0 X229.000 Y45.000 Z4.600
M400
M204 P200 T200
G1 F400
G1 Z0.000 F2500
G1 X228.000 Y45.000
G1 X227.000 Y45.000
G1 X226.000 Y45.000
G1 X225.000 Y45.000
G1 X224.000 Y45.000
G1 X223.000 Y45.000
G1 X222.000 Y45.000
G1 X221.000 Y45.000
G1 X220.000 Y45.000
G1 X219.000 Y45.000
G1 X218.000 Y45.000
G1 X217.000 Y45.000
G1 X216.000 Y45.000
G1 X215.000 Y45.000
G1 X214.000 Y45.000
G1 X213.000 Y45.000
G1 X212.000 Y45.000
G1 X211.000 Y45.000
G1 X210.000 Y45.000
G1 X209.000 Y45.000
G1 X208.000 Y45.000
G1 X207.000 Y45.000
G1 X206.000 Y45.000
G1 X205.000 Y45.000
G1 X204.000 Y45.000
G1 X203.000 Y45.000
G1 X202.000 Y45.000
G1 X201.000 Y45.000
G1 X200.000 Y45.000
G1 X199.000 Y45.000
G1 X198.000 Y45.000
G1 X197.000 Y45.000
G1 X196.000 Y45.000
G1 X195.000 Y45.000
G1 X194.000 Y45.000
G1 X193.000 Y45.000
G1 X192.000 Y45.000
G1 X191.000 Y45.000
G1 X190.000 Y45.000
G1 X189.000 Y45.000
G1 X188.000 Y45.000
G1 X187.000 Y45.000
G1 X186.000 Y45.000
G1 X185.000 Y45.000
G1 X184.000 Y45.000
G1 X183.000 Y45.000
G1 X182.000 Y45.000
G1 X181.000 Y45.000
G1 X180.000 Y45.000
G1 X179.000 Y45.000
G1 X178.000 Y45.000
G1 X177.000 Y45.000
G1 X176.000 Y45.000
G1 X175.000 Y45.000
G1 X174.000 Y45.000
G1 X173.000 Y45.000
G1 X172.000 Y45.000
G1 X171.000 Y45.000
G1 X170.000 Y45.000
G1 X169.000 Y45.000
G1 X168.000 Y45.000
G1 X167.000 Y45.000
G1 X166.000 Y45.000
G1 X165.000 Y45.000
G1 X164.000 Y45.000
G1 X163.000 Y45.000
G1 X162.000 Y45.000
G1 X161.000 Y45.000
G1 X160.000 Y45.000
G1 X159.000 Y45.000
G1 X158.000 Y45.000
G1 X157.000 Y45.000
G1 X156.000 Y45.000
G1 X155.000 Y45.000
G1 X154.000 Y45.000
G1 X153.000 Y45.000
G1 X152.000 Y45.000
G1 X151.000 Y45.000
G1 X150.000 Y45.000
G1 X149.000 Y45.000
G1 X148.000 Y45.000
G1 X147.000 Y45.000
G1 X146.000 Y45.000
G1 X145.000 Y45.000
G1 X144.000 Y45.000
G1 X143.000 Y45.000
G1 X142.000 Y45.000
G1 X141.000 Y45.000
G1 X140.000 Y45.000
G1 X139.000 Y45.000
G1 X138.000 Y45.000
G1 X137.000 Y45.000
G1 X136.000 Y45.000
G1 X135.000 Y45.000
G1 X134.000 Y45.000
G1 X133.000 Y45.000
G1 X132.000 Y45.000
G1 X131.000 Y45.000
G1 X130.000 Y45.000
G1 X129.000 Y45.000
G1 X128.000 Y45.000
G1 X127.000 Y45.000
G1 X126.000 Y45.000
G1 X125.000 Y45.000
G1 X124.000 Y45.000
G1 X123.000 Y45.000
G1 X122.000 Y45.000
G1 X121.000 Y45.000
G1 X120.000 Y45.000
G1 X119.000 Y45.000
G1 X118.000 Y45.000
G1 X117.000 Y45.000
G1 X116.000 Y45.000
G1 X115.000 Y45.000
G1 X114.000 Y45.000
G1 X113.000 Y45.000
G1 X112.000 Y45.000
G1 X111.000 Y45.000
G1 X110.000 Y45.000
G1 X109.000 Y45.000
G1 X108.000 Y45.000
G1 X107.000 Y45.000
G1 X106.000 Y45.000
G1 X105.000 Y45.000
G1 X104.000 Y45.000
G1 X103.000 Y45.000
G1 X102.000 Y45.000
G1 X101.000 Y45.000
G1 X100.000 Y45.000
G1 X99.000 Y45.000
G1 X98.000 Y45.000
G1 X97.000 Y45.000
G1 X96.000 Y45.000
G1 X95.000 Y45.000
G1 X94.000 Y45.000
G1 X93.000 Y45.000
G1 X92.000 Y45.000
G1 X91.000 Y45.000
G1 X90.000 Y45.000
G1 X89.000 Y45.000
G1 X88.000 Y45.000
G1 X87.000 Y45.000
G1 X86.000 Y45.000
G1 X85.000 Y45.000
G1 X84.000 Y45.000
G1 X83.000 Y45.000
G1 X82.000 Y45.000
G1 X81.000 Y45.000
G1 X80.000 Y45.000
G1 X79.000 Y45.000
G1 X78.000 Y45.000
G1 X77.000 Y45.000
G1 X76.000 Y45.000
G1 X75.000 Y45.000
G1 X74.000 Y45.000
G1 X73.000 Y45.000
G1 X72.000 Y45.000
G1 X71.000 Y45.000
G1 X70.000 Y45.000
G1 X69.000 Y45.000
G1 X68.000 Y45.000
G0 Z4.600 F3000

; --- CIKEL NAMAKANJA ---
G0 Z4.600 F3000
M400
M204 P12000 T12000
G1 F12000
G0 X-6.634 Y-1.636 Z31.000
G1 Z0.000 F3000
G1 X-6.634 Y-1.636 F2500
G1 X-6.634 Y0.864 F2500
G1 X-11.634 Y-1.636 F2500
G1 X-6.634 Y-9.136 F2500
G0 Z16.000 F3000
G0 X12.452 Y8.363
G0 Z31.000 F3000
G0 X67.000 Y45.000 Z4.600
M400
M204 P200 T200
G1 F400
G1 Z0.000 F2500
G1 X67.000 Y45.000
G1 X66.000 Y45.000
G1 X65.000 Y45.000
G1 X64.000 Y45.000
G1 X63.000 Y45.000
G1 X62.000 Y45.000
G1 X61.000 Y45.000
G1 X60.000 Y45.000
G1 X59.000 Y45.000
G1 X58.000 Y45.000
G1 X57.000 Y45.000
G1 X56.000 Y45.000
G1 X55.000 Y45.000
G1 X54.000 Y45.000
G1 X53.000 Y45.000
G1 X52.000 Y45.000
G1 X51.000 Y45.000
G1 X50.000 Y45.000
G1 X49.000 Y45.000
G1 X48.000 Y45.000
G1 X47.000 Y45.000
G1 X46.000 Y45.000
G1 X45.000 Y45.000
G1 X44.000 Y45.000
G1 X43.000 Y45.000
G1 X42.000 Y45.000
G1 X41.000 Y45.000
G1 X40.000 Y45.000
G1 X39.000 Y45.000
G1 X38.000 Y45.000
G1 X37.000 Y45.000
G1 X36.000 Y45.000
G1 X35.000 Y45.000
G1 X34.000 Y45.000
G1 X33.000 Y45.000
G1 X32.000 Y45.000
G1 X31.000 Y45.000
G1 X30.000 Y45.000
G0 Z4.600 F3000
M400
M204 P12000 T12000
G1 F12000
G0 X30.000 Y46.000 Z4.600
M400
M204 P200 T200
G1 F400
G1 Z0.000 F2500
G1 X31.000 Y46.000
G1 X32.000 Y46.000
G1 X33.000 Y46.000
G1 X34.000 Y46.000
G1 X35.000 Y46.000
G1 X36.000 Y46.000
G1 X37.000 Y46.000
G1 X38.000 Y46.000
G1 X39.000 Y46.000
G1 X40.000 Y46.000
G1 X41.000 Y46.000
G1 X42.000 Y46.000
G1 X43.000 Y46.000
G1 X44.000 Y46.000
G1 X45.000 Y46.000
G1 X46.000 Y46.000
G1 X47.000 Y46.000
G1 X48.000 Y46.000
G1 X49.000 Y46.000
G1 X50.000 Y46.000
G1 X51.000 Y46.000
G1 X52.000 Y46.000
G1 X53.000 Y46.000
G1 X54.000 Y46.000
G1 X55.000 Y46.000
G1 X56.000 Y46.000
G1 X57.000 Y46.000
G1 X58.000 Y46.000
G1 X59.000 Y46.000
G1 X60.000 Y46.000
G1 X61.000 Y46.000
G1 X62.000 Y46.000
G1 X63.000 Y46.000
G1 X64.000 Y46.000
G1 X65.000 Y46.000
G1 X66.000 Y46.000
G1 X67.000 Y46.000
G1 X68.000 Y46.000
G1 X69.000 Y46.000
G1 X70.000 Y46.000
G1 X71.000 Y46.000
G1 X72.000 Y46.000
G1 X73.000 Y46.000
G1 X74.000 Y46.000
G1 X75.000 Y46.000
G1 X76.000 Y46.000
G1 X77.000 Y46.000
G1 X78.000 Y46.000
G1 X79.000 Y46.000
G1 X80.000 Y46.000
G1 X81.000 Y46.000
G1 X82.000 Y46.000
G1 X83.000 Y46.000
G1 X84.000 Y46.000
G1 X85.000 Y46.000
G1 X86.000 Y46.000
G1 X87.000 Y46.000
G1 X88.000 Y46.000
G1 X89.000 Y46.000
G1 X90.000 Y46.000
G1 X91.000 Y46.000
G1 X92.000 Y46.000
G1 X93.000 Y46.000
G1 X94.000 Y46.000
G1 X95.000 Y46.000
G1 X96.000 Y46.000
G1 X97.000 Y46.000
G1 X98.000 Y46.000
G1 X99.000 Y46.000
G1 X100.000 Y46.000
G1 X101.000 Y46.000
G1 X102.000 Y46.000
G1 X103.000 Y46.000
G1 X104.000 Y46.000
G1 X105.000 Y46.000
G1 X106.000 Y46.000
G1 X107.000 Y46.000
G1 X108.000 Y46.000
G1 X109.000 Y46.000
G1 X110.000 Y46.000
G1 X111.000 Y46.000
G1 X112.000 Y46.000
G1 X113.000 Y46.000
G1 X114.000 Y46.000
G1 X115.000 Y46.000
G1 X116.000 Y46.000
G1 X117.000 Y46.000
G1 X118.000 Y46.000
G1 X119.000 Y46.000
G1 X120.000 Y46.000
G1 X121.000 Y46.000
G1 X122.000 Y46.000
G1 X123.000 Y46.000
G1 X124.000 Y46.000
G1 X125.000 Y46.000
G1 X126.000 Y46.000
G1 X127.000 Y46.000
G1 X128.000 Y46.000
G1 X129.000 Y46.000
G1 X130.000 Y46.000
G1 X131.000 Y46.000
G1 X132.000 Y46.000
G1 X133.000 Y46.000
G1 X134.000 Y46.000
G1 X135.000 Y46.000
G1 X136.000 Y46.000
G1 X137.000 Y46.000
G1 X138.000 Y46.000
G1 X139.000 Y46.000
G1 X140.000 Y46.000
G1 X141.000 Y46.000
G1 X142.000 Y46.000
G1 X143.000 Y46.000
G1 X144.000 Y46.000
G1 X145.000 Y46.000
G1 X146.000 Y46.000
G1 X147.000 Y46.000
G1 X148.000 Y46.000
G1 X149.000 Y46.000
G1 X150.000 Y46.000
G1 X151.000 Y46.000
G1 X152.000 Y46.000
G1 X153.000 Y46.000
G1 X154.000 Y46.000
G1 X155.000 Y46.000
G1 X156.000 Y46.000
G1 X157.000 Y46.000
G1 X158.000 Y46.000
G1 X159.000 Y46.000
G1 X160.000 Y46.000
G1 X161.000 Y46.000
G1 X162.000 Y46.000
G1 X163.000 Y46.000
G1 X164.000 Y46.000
G1 X165.000 Y46.000
G1 X166.000 Y46.000
G1 X167.000 Y46.000
G1 X168.000 Y46.000
G1 X169.000 Y46.000
G1 X170.000 Y46.000
G1 X171.000 Y46.000
G1 X172.000 Y46.000
G1 X173.000 Y46.000
G1 X174.000 Y46.000
G1 X175.000 Y46.000
G1 X176.000 Y46.000
G1 X177.000 Y46.000
G1 X178.000 Y46.000
G1 X179.000 Y46.000
G1 X180.000 Y46.000
G1 X181.000 Y46.000
G1 X182.000 Y46.000
G1 X183.000 Y46.000
G1 X184.000 Y46.000
G1 X185.000 Y46.000
G1 X186.000 Y46.000
G1 X187.000 Y46.000
G1 X188.000 Y46.000
G1 X189.000 Y46.000
G1 X190.000 Y46.000
G1 X191.000 Y46.000
G1 X192.000 Y46.000
G1 X193.000 Y46.000
G1 X194.000 Y46.000
G1 X195.000 Y46.000
G1 X196.000 Y46.000
G1 X197.000 Y46.000
G1 X198.000 Y46.000
G1 X199.000 Y46.000
G1 X200.000 Y46.000
G1 X201.000 Y46.000
G1 X202.000 Y46.000
G1 X203.000 Y46.000
G1 X204.000 Y46.000
G1 X205.000 Y46.000
G1 X206.000 Y46.000
G1 X207.000 Y46.000
G1 X208.000 Y46.000
G1 X209.000 Y46.000
G1 X210.000 Y46.000
G1 X211.000 Y46.000
G1 X212.000 Y46.000
G1 X213.000 Y46.000
G1 X214.000 Y46.000
G1 X215.000 Y46.000
G1 X216.000 Y46.000
G1 X217.000 Y46.000
G1 X218.000 Y46.000
G1 X219.000 Y46.000
G1 X220.000 Y46.000
G1 X221.000 Y46.000
G1 X222.000 Y46.000
G1 X223.000 Y46.000
G1 X224.000 Y46.000
G1 X225.000 Y46.000
G1 X226.000 Y46.000
G1 X227.000 Y46.000
G1 X228.000 Y46.000
G1 X229.000 Y46.000
G0 Z4.600 F3000
M400
M204 P12000 T12000
G1 F12000
G0 X229.000 Y47.000 Z4.600
M400
M204 P200 T200
G1 F400
G1 Z0.000 F2500
G1 X228.000 Y47.000
G1 X227.000 Y47.000
G1 X226.000 Y47.000
G1 X225.000 Y47.000
G1 X224.000 Y47.000
G1 X223.000 Y47.000
G1 X222.000 Y47.000
G1 X221.000 Y47.000
G1 X220.000 Y47.000
G0 Z4.600 F3000

; --- CIKEL NAMAKANJA ---
G0 Z4.600 F3000
M400
M204 P12000 T12000
G1 F12000
G0 X-18.204 Y12.991 Z31.000
G1 Z0.000 F3000
G1 X-18.204 Y12.991 F2500
G1 X-18.204 Y15.491 F2500
G1 X-23.204 Y12.991 F2500
G1 X-18.204 Y5.491 F2500
G0 Z16.000 F3000
G0 X14.666 Y3.148
G0 Z31.000 F3000
G0 X219.000 Y47.000 Z4.600
M400
M204 P200 T200
G1 F400
G1 Z0.000 F2500
G1 X219.000 Y47.000
G1 X218.000 Y47.000
G1 X217.000 Y47.000
G1 X216.000 Y47.000
G1 X215.000 Y47.000
G1 X214.000 Y47.000
G1 X213.000 Y47.000
G1 X212.000 Y47.000
G1 X211.000 Y47.000
G1 X210.000 Y47.000
G1 X209.000 Y47.000
G1 X208.000 Y47.000
G1 X207.000 Y47.000
G1 X206.000 Y47.000
G1 X205.000 Y47.000
G1 X204.000 Y47.000
G1 X203.000 Y47.000
G1 X202.000 Y47.000
G1 X201.000 Y47.000
G1 X200.000 Y47.000
G1 X199.000 Y47.000
G1 X198.000 Y47.000
G1 X197.000 Y47.000
G1 X196.000 Y47.000
G1 X195.000 Y47.000
G1 X194.000 Y47.000
G1 X193.000 Y47.000
G1 X192.000 Y47.000
G1 X191.000 Y47.000
G1 X190.000 Y47.000
G1 X189.000 Y47.000
G1 X188.000 Y47.000
G1 X187.000 Y47.000
G1 X186.000 Y47.000
G1 X185.000 Y47.000
G1 X184.000 Y47.000
G1 X183.000 Y47.000
G1 X182.000 Y47.000
G1 X181.000 Y47.000
G1 X180.000 Y47.000
G1 X179.000 Y47.000
G1 X178.000 Y47.000
G1 X177.000 Y47.000
G1 X176.000 Y47.000
G1 X175.000 Y47.000
G1 X174.000 Y47.000
G1 X173.000 Y47.000
G1 X172.000 Y47.000
G1 X171.000 Y47.000
G1 X170.000 Y47.000
G1 X169.000 Y47.000
G1 X168.000 Y47.000
G1 X167.000 Y47.000
G1 X166.000 Y47.000
G1 X165.000 Y47.000
G1 X164.000 Y47.000
G1 X163.000 Y47.000
G1 X162.000 Y47.000
G1 X161.000 Y47.000
G1 X160.000 Y47.000
G1 X159.000 Y47.000
G1 X158.000 Y47.000
G1 X157.000 Y47.000
G1 X156.000 Y47.000
G1 X155.000 Y47.000
G1 X154.000 Y47.000
G1 X153.000 Y47.000
G1 X152.000 Y47.000
G1 X151.000 Y47.000
G1 X150.000 Y47.000
G1 X149.000 Y47.000
G1 X148.000 Y47.000
G1 X147.000 Y47.000
G1 X146.000 Y47.000
G1 X145.000 Y47.000
G1 X144.000 Y47.000
G1 X143.000 Y47.000
G1 X142.000 Y47.000
G1 X141.000 Y47.000
G1 X140.000 Y47.000
G1 X139.000 Y47.000
G1 X138.000 Y47.000
G1 X137.000 Y47.000
G1 X136.000 Y47.000
G1 X135.000 Y47.000
G1 X134.000 Y47.000
G1 X133.000 Y47.000
G1 X132.000 Y47.000
G1 X131.000 Y47.000
G1 X130.000 Y47.000
G1 X129.000 Y47.000
G1 X128.000 Y47.000
G1 X127.000 Y47.000
G1 X126.000 Y47.000
G1 X125.000 Y47.000
G1 X124.000 Y47.000
G1 X123.000 Y47.000
G1 X122.000 Y47.000
G1 X121.000 Y47.000
G1 X120.000 Y47.000
G1 X119.000 Y47.000
G1 X118.000 Y47.000
G1 X117.000 Y47.000
G1 X116.000 Y47.000
G1 X115.000 Y47.000
G1 X114.000 Y47.000
G1 X113.000 Y47.000
G1 X112.000 Y47.000
G1 X111.000 Y47.000
G1 X110.000 Y47.000
G1 X109.000 Y47.000
G1 X108.000 Y47.000
G1 X107.000 Y47.000
G1 X106.000 Y47.000
G1 X105.000 Y47.000
G1 X104.000 Y47.000
G1 X103.000 Y47.000
G1 X102.000 Y47.000
G1 X101.000 Y47.000
G1 X100.000 Y47.000
G1 X99.000 Y47.000
G1 X98.000 Y47.000
G1 X97.000 Y47.000
G1 X96.000 Y47.000
G1 X95.000 Y47.000
G1 X94.000 Y47.000
G1 X93.000 Y47.000
G1 X92.000 Y47.000
G1 X91.000 Y47.000
G1 X90.000 Y47.000
G1 X89.000 Y47.000
G1 X88.000 Y47.000
G1 X87.000 Y47.000
G1 X86.000 Y47.000
G1 X85.000 Y47.000
G1 X84.000 Y47.000
G1 X83.000 Y47.000
G1 X82.000 Y47.000
G1 X81.000 Y47.000
G1 X80.000 Y47.000
G1 X79.000 Y47.000
G1 X78.000 Y47.000
G1 X77.000 Y47.000
G1 X76.000 Y47.000
G1 X75.000 Y47.000
G1 X74.000 Y47.000
G1 X73.000 Y47.000
G1 X72.000 Y47.000
G1 X71.000 Y47.000
G1 X70.000 Y47.000
G1 X69.000 Y47.000
G1 X68.000 Y47.000
G1 X67.000 Y47.000
G1 X66.000 Y47.000
G1 X65.000 Y47.000
G1 X64.000 Y47.000
G1 X63.000 Y47.000
G1 X62.000 Y47.000
G1 X61.000 Y47.000
G1 X60.000 Y47.000
G1 X59.000 Y47.000
G1 X58.000 Y47.000
G1 X57.000 Y47.000
G1 X56.000 Y47.000
G1 X55.000 Y47.000
G1 X54.000 Y47.000
G1 X53.000 Y47.000
G1 X52.000 Y47.000
G1 X51.000 Y47.000
G1 X50.000 Y47.000
G1 X49.000 Y47.000
G1 X48.000 Y47.000
G1 X47.000 Y47.000
G1 X46.000 Y47.000
G1 X45.000 Y47.000
G1 X44.000 Y47.000
G1 X43.000 Y47.000
G1 X42.000 Y47.000
G1 X41.000 Y47.000
G1 X40.000 Y47.000
G1 X39.000 Y47.000
G1 X38.000 Y47.000
G1 X37.000 Y47.000
G1 X36.000 Y47.000
G1 X35.000 Y47.000
G1 X34.000 Y47.000
G1 X33.000 Y47.000
G1 X32.000 Y47.000
G1 X31.000 Y47.000
G1 X30.000 Y47.000
G0 Z4.600 F3000
M400
M204 P12000 T12000
G1 F12000
G0 X30.000 Y48.000 Z4.600
M400
M204 P200 T200
G1 F400
G1 Z0.000 F2500
G1 X31.000 Y48.000
G1 X32.000 Y48.000
G1 X33.000 Y48.000
G1 X34.000 Y48.000
G1 X35.000 Y48.000
G1 X36.000 Y48.000
G1 X37.000 Y48.000
G1 X38.000 Y48.000
G1 X39.000 Y48.000
G1 X40.000 Y48.000
G1 X41.000 Y48.000
G1 X42.000 Y48.000
G1 X43.000 Y48.000
G1 X44.000 Y48.000
G1 X45.000 Y48.000
G1 X46.000 Y48.000
G1 X47.000 Y48.000
G1 X48.000 Y48.000
G1 X49.000 Y48.000
G1 X50.000 Y48.000
G1 X51.000 Y48.000
G1 X52.000 Y48.000
G1 X53.000 Y48.000
G1 X54.000 Y48.000
G1 X55.000 Y48.000
G1 X56.000 Y48.000
G1 X57.000 Y48.000
G1 X58.000 Y48.000
G1 X59.000 Y48.000
G1 X60.000 Y48.000
G1 X61.000 Y48.000
G1 X62.000 Y48.000
G1 X63.000 Y48.000
G1 X64.000 Y48.000
G1 X65.000 Y48.000
G1 X66.000 Y48.000
G1 X67.000 Y48.000
G1 X68.000 Y48.000
G1 X69.000 Y48.000
G1 X70.000 Y48.000
G1 X71.000 Y48.000
G1 X72.000 Y48.000
G1 X73.000 Y48.000
G1 X74.000 Y48.000
G1 X75.000 Y48.000
G1 X76.000 Y48.000
G1 X77.000 Y48.000
G1 X78.000 Y48.000
G1 X79.000 Y48.000
G1 X80.000 Y48.000
G1 X81.000 Y48.000
G1 X82.000 Y48.000
G1 X83.000 Y48.000
G1 X84.000 Y48.000
G1 X85.000 Y48.000
G1 X86.000 Y48.000
G1 X87.000 Y48.000
G1 X88.000 Y48.000
G1 X89.000 Y48.000
G1 X90.000 Y48.000
G1 X91.000 Y48.000
G1 X92.000 Y48.000
G1 X93.000 Y48.000
G1 X94.000 Y48.000
G1 X95.000 Y48.000
G0 Z4.600 F3000

; --- CIKEL NAMAKANJA ---
G0 Z4.600 F3000
M400
M204 P12000 T12000
G1 F12000
G0 X3.356 Y-2.131 Z31.000
G1 Z0.000 F3000
G1 X3.356 Y-2.131 F2500
G1 X3.356 Y0.369 F2500
G1 X-1.644 Y-2.131 F2500
G1 X3.356 Y-9.631 F2500
G0 Z16.000 F3000
G0 X13.416 Y6.708
G0 Z31.000 F3000
G0 X96.000 Y48.000 Z4.600
M400
M204 P200 T200
G1 F400
G1 Z0.000 F2500
G1 X96.000 Y48.000
G1 X97.000 Y48.000
G1 X98.000 Y48.000
G1 X99.000 Y48.000
G1 X100.000 Y48.000
G1 X101.000 Y48.000
G1 X102.000 Y48.000
G1 X103.000 Y48.000
G1 X104.000 Y48.000
G1 X105.000 Y48.000
G1 X106.000 Y48.000
G1 X107.000 Y48.000
G1 X108.000 Y48.000
G1 X109.000 Y48.000
G1 X110.000 Y48.000
G1 X111.000 Y48.000
G1 X112.000 Y48.000
G1 X113.000 Y48.000
G1 X114.000 Y48.000
G1 X115.000 Y48.000
G1 X116.000 Y48.000
G1 X117.000 Y48.000
G1 X118.000 Y48.000
G1 X119.000 Y48.000
G1 X120.000 Y48.000
G1 X121.000 Y48.000
G1 X122.000 Y48.000
G1 X123.000 Y48.000
G1 X124.000 Y48.000
G1 X125.000 Y48.000
G1 X126.000 Y48.000
G1 X127.000 Y48.000
G1 X128.000 Y48.000
G1 X129.000 Y48.000
G1 X130.000 Y48.000
G1 X131.000 Y48.000
G1 X132.000 Y48.000
G1 X133.000 Y48.000
G1 X134.000 Y48.000
G1 X135.000 Y48.000
G1 X136.000 Y48.000
G1 X137.000 Y48.000
G1 X138.000 Y48.000
G1 X139.000 Y48.000
G1 X140.000 Y48.000
G1 X141.000 Y48.000
G1 X142.000 Y48.000
G1 X143.000 Y48.000
G1 X144.000 Y48.000
G1 X145.000 Y48.000
G1 X146.000 Y48.000
G1 X147.000 Y48.000
G1 X148.000 Y48.000
G1 X149.000 Y48.000
G1 X150.000 Y48.000
G1 X151.000 Y48.000
G1 X152.000 Y48.000
G1 X153.000 Y48.000
G1 X154.000 Y48.000
G1 X155.000 Y48.000
G1 X156.000 Y48.000
G1 X157.000 Y48.000
G1 X158.000 Y48.000
G1 X159.000 Y48.000
G1 X160.000 Y48.000
G1 X161.000 Y48.000
G1 X162.000 Y48.000
G1 X163.000 Y48.000
G1 X164.000 Y48.000
G1 X165.000 Y48.000
G1 X166.000 Y48.000
G1 X167.000 Y48.000
G1 X168.000 Y48.000
G1 X169.000 Y48.000
G1 X170.000 Y48.000
G1 X171.000 Y48.000
G1 X172.000 Y48.000
G1 X173.000 Y48.000
G1 X174.000 Y48.000
G1 X175.000 Y48.000
G1 X176.000 Y48.000
G1 X177.000 Y48.000
G1 X178.000 Y48.000
G1 X179.000 Y48.000
G1 X180.000 Y48.000
G1 X181.000 Y48.000
G1 X182.000 Y48.000
G1 X183.000 Y48.000
G1 X184.000 Y48.000
G1 X185.000 Y48.000
G1 X186.000 Y48.000
G1 X187.000 Y48.000
G1 X188.000 Y48.000
G1 X189.000 Y48.000
G1 X190.000 Y48.000
G1 X191.000 Y48.000
G1 X192.000 Y48.000
G1 X193.000 Y48.000
G1 X194.000 Y48.000
G1 X195.000 Y48.000
G1 X196.000 Y48.000
G1 X197.000 Y48.000
G1 X198.000 Y48.000
G1 X199.000 Y48.000
G1 X200.000 Y48.000
G1 X201.000 Y48.000
G1 X202.000 Y48.000
G1 X203.000 Y48.000
G1 X204.000 Y48.000
G1 X205.000 Y48.000
G1 X206.000 Y48.000
G1 X207.000 Y48.000
G1 X208.000 Y48.000
G1 X209.000 Y48.000
G1 X210.000 Y48.000
G1 X211.000 Y48.000
G1 X212.000 Y48.000
G1 X213.000 Y48.000
G1 X214.000 Y48.000
G1 X215.000 Y48.000
G1 X216.000 Y48.000
G1 X217.000 Y48.000
G1 X218.000 Y48.000
G1 X219.000 Y48.000
G1 X220.000 Y48.000
G1 X221.000 Y48.000
G1 X222.000 Y48.000
G1 X223.000 Y48.000
G1 X224.000 Y48.000
G1 X225.000 Y48.000
G1 X226.000 Y48.000
G1 X227.000 Y48.000
G1 X228.000 Y48.000
G1 X229.000 Y48.000
G0 Z4.600 F3000
M400
M204 P12000 T12000
G1 F12000
G0 X229.000 Y49.000 Z4.600
M400
M204 P200 T200
G1 F400
G1 Z0.000 F2500
G1 X228.000 Y49.000
G1 X227.000 Y49.000
G1 X226.000 Y49.000
G1 X225.000 Y49.000
G1 X224.000 Y49.000
G1 X223.000 Y49.000
G1 X222.000 Y49.000
G1 X221.000 Y49.000
G1 X220.000 Y49.000
G1 X219.000 Y49.000
G1 X218.000 Y49.000
G1 X217.000 Y49.000
G1 X216.000 Y49.000
G1 X215.000 Y49.000
G1 X214.000 Y49.000
G1 X213.000 Y49.000
G1 X212.000 Y49.000
G1 X211.000 Y49.000
G1 X210.000 Y49.000
G1 X209.000 Y49.000
G1 X208.000 Y49.000
G1 X207.000 Y49.000
G1 X206.000 Y49.000
G1 X205.000 Y49.000
G1 X204.000 Y49.000
G1 X203.000 Y49.000
G1 X202.000 Y49.000
G1 X201.000 Y49.000
G1 X200.000 Y49.000
G1 X199.000 Y49.000
G1 X198.000 Y49.000
G1 X197.000 Y49.000
G1 X196.000 Y49.000
G1 X195.000 Y49.000
G1 X194.000 Y49.000
G1 X193.000 Y49.000
G1 X192.000 Y49.000
G1 X191.000 Y49.000
G1 X190.000 Y49.000
G1 X189.000 Y49.000
G1 X188.000 Y49.000
G1 X187.000 Y49.000
G1 X186.000 Y49.000
G1 X185.000 Y49.000
G1 X184.000 Y49.000
G1 X183.000 Y49.000
G1 X182.000 Y49.000
G1 X181.000 Y49.000
G1 X180.000 Y49.000
G1 X179.000 Y49.000
G1 X178.000 Y49.000
G1 X177.000 Y49.000
G1 X176.000 Y49.000
G1 X175.000 Y49.000
G1 X174.000 Y49.000
G1 X173.000 Y49.000
G1 X172.000 Y49.000
G1 X171.000 Y49.000
G1 X170.000 Y49.000
G1 X169.000 Y49.000
G1 X168.000 Y49.000
G1 X167.000 Y49.000
G1 X166.000 Y49.000
G1 X165.000 Y49.000
G1 X164.000 Y49.000
G1 X163.000 Y49.000
G1 X162.000 Y49.000
G1 X161.000 Y49.000
G1 X160.000 Y49.000
G1 X159.000 Y49.000
G1 X158.000 Y49.000
G1 X157.000 Y49.000
G1 X156.000 Y49.000
G1 X155.000 Y49.000
G1 X154.000 Y49.000
G1 X153.000 Y49.000
G1 X152.000 Y49.000
G1 X151.000 Y49.000
G1 X150.000 Y49.000
G1 X149.000 Y49.000
G1 X148.000 Y49.000
G1 X147.000 Y49.000
G1 X146.000 Y49.000
G1 X145.000 Y49.000
G1 X144.000 Y49.000
G1 X143.000 Y49.000
G1 X142.000 Y49.000
G1 X141.000 Y49.000
G1 X140.000 Y49.000
G1 X139.000 Y49.000
G1 X138.000 Y49.000
G1 X137.000 Y49.000
G1 X136.000 Y49.000
G1 X135.000 Y49.000
G1 X134.000 Y49.000
G1 X133.000 Y49.000
G1 X132.000 Y49.000
G1 X131.000 Y49.000
G1 X130.000 Y49.000
G1 X129.000 Y49.000
G1 X128.000 Y49.000
G1 X127.000 Y49.000
G1 X126.000 Y49.000
G1 X125.000 Y49.000
G1 X124.000 Y49.000
G1 X123.000 Y49.000
G1 X122.000 Y49.000
G1 X121.000 Y49.000
G1 X120.000 Y49.000
G1 X119.000 Y49.000
G1 X118.000 Y49.000
G1 X117.000 Y49.000
G1 X116.000 Y49.000
G0 Z4.600 F3000

; --- CIKEL NAMAKANJA ---
G0 Z4.600 F3000
M400
M204 P12000 T12000
G1 F12000
G0 X11.121 Y11.289 Z31.000
G1 Z0.000 F3000
G1 X11.121 Y11.289 F2500
G1 X11.121 Y13.789 F2500
G1 X6.121 Y11.289 F2500
G1 X11.121 Y3.789 F2500
G0 Z16.000 F3000
G0 X13.800 Y5.880
G0 Z31.000 F3000
G0 X115.000 Y49.000 Z4.600
M400
M204 P200 T200
G1 F400
G1 Z0.000 F2500
G1 X115.000 Y49.000
G1 X114.000 Y49.000
G1 X113.000 Y49.000
G1 X112.000 Y49.000
G1 X111.000 Y49.000
G1 X110.000 Y49.000
G1 X109.000 Y49.000
G1 X108.000 Y49.000
G1 X107.000 Y49.000
G1 X106.000 Y49.000
G1 X105.000 Y49.000
G1 X104.000 Y49.000
G1 X103.000 Y49.000
G1 X102.000 Y49.000
G1 X101.000 Y49.000
G1 X100.000 Y49.000
G1 X99.000 Y49.000
G1 X98.000 Y49.000
G1 X97.000 Y49.000
G1 X96.000 Y49.000
G1 X95.000 Y49.000
G1 X94.000 Y49.000
G1 X93.000 Y49.000
G1 X92.000 Y49.000
G1 X91.000 Y49.000
G1 X90.000 Y49.000
G1 X89.000 Y49.000
G1 X88.000 Y49.000
G1 X87.000 Y49.000
G1 X86.000 Y49.000
G1 X85.000 Y49.000
G1 X84.000 Y49.000
G1 X83.000 Y49.000
G1 X82.000 Y49.000
G1 X81.000 Y49.000
G1 X80.000 Y49.000
G1 X79.000 Y49.000
G1 X78.000 Y49.000
G1 X77.000 Y49.000
G1 X76.000 Y49.000
G1 X75.000 Y49.000
G1 X74.000 Y49.000
G1 X73.000 Y49.000
G1 X72.000 Y49.000
G1 X71.000 Y49.000
G1 X70.000 Y49.000
G1 X69.000 Y49.000
G1 X68.000 Y49.000
G1 X67.000 Y49.000
G1 X66.000 Y49.000
G1 X65.000 Y49.000
G1 X64.000 Y49.000
G1 X63.000 Y49.000
G1 X62.000 Y49.000
G1 X61.000 Y49.000
G1 X60.000 Y49.000
G1 X59.000 Y49.000
G1 X58.000 Y49.000
G1 X57.000 Y49.000
G1 X56.000 Y49.000
G1 X55.000 Y49.000
G1 X54.000 Y49.000
G1 X53.000 Y49.000
G1 X52.000 Y49.000
G1 X51.000 Y49.000
G1 X50.000 Y49.000
G1 X49.000 Y49.000
G1 X48.000 Y49.000
G1 X47.000 Y49.000
G1 X46.000 Y49.000
G1 X45.000 Y49.000
G1 X44.000 Y49.000
G1 X43.000 Y49.000
G1 X42.000 Y49.000
G1 X41.000 Y49.000
G1 X40.000 Y49.000
G1 X39.000 Y49.000
G1 X38.000 Y49.000
G1 X37.000 Y49.000
G1 X36.000 Y49.000
G1 X35.000 Y49.000
G1 X34.000 Y49.000
G1 X33.000 Y49.000
G1 X32.000 Y49.000
G1 X31.000 Y49.000
G1 X30.000 Y49.000
G0 Z4.600 F3000
M400
M204 P12000 T12000
G1 F12000
G0 X30.000 Y50.000 Z4.600
M400
M204 P200 T200
G1 F400
G1 Z0.000 F2500
G1 X31.000 Y50.000
G1 X32.000 Y50.000
G1 X33.000 Y50.000
G1 X34.000 Y50.000
G1 X35.000 Y50.000
G1 X36.000 Y50.000
G1 X37.000 Y50.000
G1 X38.000 Y50.000
G1 X39.000 Y50.000
G1 X40.000 Y50.000
G1 X41.000 Y50.000
G1 X42.000 Y50.000
G1 X43.000 Y50.000
G1 X44.000 Y50.000
G1 X45.000 Y50.000
G1 X46.000 Y50.000
G1 X47.000 Y50.000
G1 X48.000 Y50.000
G1 X49.000 Y50.000
G1 X50.000 Y50.000
G1 X51.000 Y50.000
G1 X52.000 Y50.000
G1 X53.000 Y50.000
G1 X54.000 Y50.000
G1 X55.000 Y50.000
G1 X56.000 Y50.000
G1 X57.000 Y50.000
G1 X58.000 Y50.000
G1 X59.000 Y50.000
G1 X60.000 Y50.000
G1 X61.000 Y50.000
G1 X62.000 Y50.000
G1 X63.000 Y50.000
G1 X64.000 Y50.000
G1 X65.000 Y50.000
G1 X66.000 Y50.000
G1 X67.000 Y50.000
G1 X68.000 Y50.000
G1 X69.000 Y50.000
G1 X70.000 Y50.000
G1 X71.000 Y50.000
G1 X72.000 Y50.000
G1 X73.000 Y50.000
G1 X74.000 Y50.000
G1 X75.000 Y50.000
G1 X76.000 Y50.000
G1 X77.000 Y50.000
G1 X78.000 Y50.000
G1 X79.000 Y50.000
G1 X80.000 Y50.000
G1 X81.000 Y50.000
G1 X82.000 Y50.000
G1 X83.000 Y50.000
G1 X84.000 Y50.000
G1 X85.000 Y50.000
G1 X86.000 Y50.000
G1 X87.000 Y50.000
G1 X88.000 Y50.000
G1 X89.000 Y50.000
G1 X90.000 Y50.000
G1 X91.000 Y50.000
G1 X92.000 Y50.000
G1 X93.000 Y50.000
G1 X94.000 Y50.000
G1 X95.000 Y50.000
G1 X96.000 Y50.000
G1 X97.000 Y50.000
G1 X98.000 Y50.000
G1 X99.000 Y50.000
G1 X100.000 Y50.000
G1 X101.000 Y50.000
G1 X102.000 Y50.000
G1 X103.000 Y50.000
G1 X104.000 Y50.000
G1 X105.000 Y50.000
G1 X106.000 Y50.000
G1 X107.000 Y50.000
G1 X108.000 Y50.000
G1 X109.000 Y50.000
G1 X110.000 Y50.000
G1 X111.000 Y50.000
G1 X112.000 Y50.000
G1 X113.000 Y50.000
G1 X114.000 Y50.000
G1 X115.000 Y50.000
G1 X116.000 Y50.000
G1 X117.000 Y50.000
G1 X118.000 Y50.000
G1 X119.000 Y50.000
G1 X120.000 Y50.000
G1 X121.000 Y50.000
G1 X122.000 Y50.000
G1 X123.000 Y50.000
G1 X124.000 Y50.000
G1 X125.000 Y50.000
G1 X126.000 Y50.000
G1 X127.000 Y50.000
G1 X128.000 Y50.000
G1 X129.000 Y50.000
G1 X130.000 Y50.000
G1 X131.000 Y50.000
G1 X132.000 Y50.000
G1 X133.000 Y50.000
G1 X134.000 Y50.000
G1 X135.000 Y50.000
G1 X136.000 Y50.000
G1 X137.000 Y50.000
G1 X138.000 Y50.000
G1 X139.000 Y50.000
G1 X140.000 Y50.000
G1 X141.000 Y50.000
G1 X142.000 Y50.000
G1 X143.000 Y50.000
G1 X144.000 Y50.000
G1 X145.000 Y50.000
G1 X146.000 Y50.000
G1 X147.000 Y50.000
G1 X148.000 Y50.000
G1 X149.000 Y50.000
G1 X150.000 Y50.000
G1 X151.000 Y50.000
G1 X152.000 Y50.000
G1 X153.000 Y50.000
G1 X154.000 Y50.000
G1 X155.000 Y50.000
G1 X156.000 Y50.000
G1 X157.000 Y50.000
G1 X158.000 Y50.000
G1 X159.000 Y50.000
G1 X160.000 Y50.000
G1 X161.000 Y50.000
G1 X162.000 Y50.000
G1 X163.000 Y50.000
G1 X164.000 Y50.000
G1 X165.000 Y50.000
G1 X166.000 Y50.000
G1 X167.000 Y50.000
G1 X168.000 Y50.000
G1 X169.000 Y50.000
G1 X170.000 Y50.000
G1 X171.000 Y50.000
G1 X172.000 Y50.000
G1 X173.000 Y50.000
G1 X174.000 Y50.000
G1 X175.000 Y50.000
G1 X176.000 Y50.000
G1 X177.000 Y50.000
G1 X178.000 Y50.000
G1 X179.000 Y50.000
G1 X180.000 Y50.000
G1 X181.000 Y50.000
G1 X182.000 Y50.000
G1 X183.000 Y50.000
G1 X184.000 Y50.000
G1 X185.000 Y50.000
G1 X186.000 Y50.000
G1 X187.000 Y50.000
G1 X188.000 Y50.000
G1 X189.000 Y50.000
G1 X190.000 Y50.000
G1 X191.000 Y50.000
G1 X192.000 Y50.000
G1 X193.000 Y50.000
G1 X194.000 Y50.000
G1 X195.000 Y50.000
G1 X196.000 Y50.000
G1 X197.000 Y50.000
G1 X198.000 Y50.000
G1 X199.000 Y50.000
G1 X200.000 Y50.000
G1 X201.000 Y50.000
G1 X202.000 Y50.000
G1 X203.000 Y50.000
G0 Z4.600 F3000

; --- CIKEL NAMAKANJA ---
G0 Z4.600 F3000
M400
M204 P12000 T12000
G1 F12000
G0 X-13.417 Y17.993 Z31.000
G1 Z0.000 F3000
G1 X-13.417 Y17.993 F2500
G1 X-13.417 Y20.493 F2500
G1 X-18.417 Y17.993 F2500
G1 X-13.417 Y10.493 F2500
G0 Z16.000 F3000
G0 X14.569 Y3.571
G0 Z31.000 F3000
G0 X204.000 Y50.000 Z4.600
M400
M204 P200 T200
G1 F400
G1 Z0.000 F2500
G1 X204.000 Y50.000
G1 X205.000 Y50.000
G1 X206.000 Y50.000
G1 X207.000 Y50.000
G1 X208.000 Y50.000
G1 X209.000 Y50.000
G1 X210.000 Y50.000
G1 X211.000 Y50.000
G1 X212.000 Y50.000
G1 X213.000 Y50.000
G1 X214.000 Y50.000
G1 X215.000 Y50.000
G1 X216.000 Y50.000
G1 X217.000 Y50.000
G1 X218.000 Y50.000
G1 X219.000 Y50.000
G1 X220.000 Y50.000
G1 X221.000 Y50.000
G1 X222.000 Y50.000
G1 X223.000 Y50.000
G1 X224.000 Y50.000
G1 X225.000 Y50.000
G1 X226.000 Y50.000
G1 X227.000 Y50.000
G1 X228.000 Y50.000
G1 X229.000 Y50.000
G0 Z4.600 F3000
M400
M204 P12000 T12000
G1 F12000
G0 X229.000 Y51.000 Z4.600
M400
M204 P200 T200
G1 F400
G1 Z0.000 F2500
G1 X228.000 Y51.000
G1 X227.000 Y51.000
G1 X226.000 Y51.000
G1 X225.000 Y51.000
G1 X224.000 Y51.000
G1 X223.000 Y51.000
G1 X222.000 Y51.000
G1 X221.000 Y51.000
G1 X220.000 Y51.000
G1 X219.000 Y51.000
G1 X218.000 Y51.000
G1 X217.000 Y51.000
G1 X216.000 Y51.000
G1 X215.000 Y51.000
G1 X214.000 Y51.000
G1 X213.000 Y51.000
G1 X212.000 Y51.000
G1 X211.000 Y51.000
G1 X210.000 Y51.000
G1 X209.000 Y51.000
G1 X208.000 Y51.000
G1 X207.000 Y51.000
G1 X206.000 Y51.000
G1 X205.000 Y51.000
G1 X204.000 Y51.000
G1 X203.000 Y51.000
G1 X202.000 Y51.000
G1 X201.000 Y51.000
G1 X200.000 Y51.000
G1 X199.000 Y51.000
G1 X198.000 Y51.000
G1 X197.000 Y51.000
G1 X196.000 Y51.000
G1 X195.000 Y51.000
G1 X194.000 Y51.000
G1 X193.000 Y51.000
G1 X192.000 Y51.000
G1 X191.000 Y51.000
G1 X190.000 Y51.000
G1 X189.000 Y51.000
G1 X188.000 Y51.000
G1 X187.000 Y51.000
G1 X186.000 Y51.000
G1 X185.000 Y51.000
G1 X184.000 Y51.000
G1 X183.000 Y51.000
G1 X182.000 Y51.000
G1 X181.000 Y51.000
G1 X180.000 Y51.000
G1 X179.000 Y51.000
G1 X178.000 Y51.000
G1 X177.000 Y51.000
G1 X176.000 Y51.000
G1 X175.000 Y51.000
G1 X174.000 Y51.000
G1 X173.000 Y51.000
G1 X172.000 Y51.000
G1 X171.000 Y51.000
G1 X170.000 Y51.000
G1 X169.000 Y51.000
G1 X168.000 Y51.000
G1 X167.000 Y51.000
G1 X166.000 Y51.000
G1 X165.000 Y51.000
G1 X164.000 Y51.000
G1 X163.000 Y51.000
G1 X162.000 Y51.000
G1 X161.000 Y51.000
G1 X160.000 Y51.000
G1 X159.000 Y51.000
G1 X158.000 Y51.000
G1 X157.000 Y51.000
G1 X156.000 Y51.000
G1 X155.000 Y51.000
G1 X154.000 Y51.000
G1 X153.000 Y51.000
G1 X152.000 Y51.000
G1 X151.000 Y51.000
G1 X150.000 Y51.000
G1 X149.000 Y51.000
G1 X148.000 Y51.000
G1 X147.000 Y51.000
G1 X146.000 Y51.000
G1 X145.000 Y51.000
G1 X144.000 Y51.000
G1 X143.000 Y51.000
G1 X142.000 Y51.000
G1 X141.000 Y51.000
G1 X140.000 Y51.000
G1 X139.000 Y51.000
G1 X138.000 Y51.000
G1 X137.000 Y51.000
G1 X136.000 Y51.000
G1 X135.000 Y51.000
G1 X134.000 Y51.000
G1 X133.000 Y51.000
G1 X132.000 Y51.000
G1 X131.000 Y51.000
G1 X130.000 Y51.000
G1 X129.000 Y51.000
G1 X128.000 Y51.000
G1 X127.000 Y51.000
G1 X126.000 Y51.000
G1 X125.000 Y51.000
G1 X124.000 Y51.000
G1 X123.000 Y51.000
G1 X122.000 Y51.000
G1 X121.000 Y51.000
G1 X120.000 Y51.000
G1 X119.000 Y51.000
G1 X118.000 Y51.000
G1 X117.000 Y51.000
G1 X116.000 Y51.000
G1 X115.000 Y51.000
G1 X114.000 Y51.000
G1 X113.000 Y51.000
G1 X112.000 Y51.000
G1 X111.000 Y51.000
G1 X110.000 Y51.000
G1 X109.000 Y51.000
G1 X108.000 Y51.000
G1 X107.000 Y51.000
G1 X106.000 Y51.000
G1 X105.000 Y51.000
G1 X104.000 Y51.000
G1 X103.000 Y51.000
G1 X102.000 Y51.000
G1 X101.000 Y51.000
G1 X100.000 Y51.000
G1 X99.000 Y51.000
G1 X98.000 Y51.000
G1 X97.000 Y51.000
G1 X96.000 Y51.000
G1 X95.000 Y51.000
G1 X94.000 Y51.000
G1 X93.000 Y51.000
G1 X92.000 Y51.000
G1 X91.000 Y51.000
G1 X90.000 Y51.000
G1 X89.000 Y51.000
G1 X88.000 Y51.000
G1 X87.000 Y51.000
G1 X86.000 Y51.000
G1 X85.000 Y51.000
G1 X84.000 Y51.000
G1 X83.000 Y51.000
G1 X82.000 Y51.000
G1 X81.000 Y51.000
G1 X80.000 Y51.000
G1 X79.000 Y51.000
G1 X78.000 Y51.000
G1 X77.000 Y51.000
G1 X76.000 Y51.000
G1 X75.000 Y51.000
G1 X74.000 Y51.000
G1 X73.000 Y51.000
G1 X72.000 Y51.000
G1 X71.000 Y51.000
G1 X70.000 Y51.000
G1 X69.000 Y51.000
G1 X68.000 Y51.000
G1 X67.000 Y51.000
G1 X66.000 Y51.000
G1 X65.000 Y51.000
G1 X64.000 Y51.000
G1 X63.000 Y51.000
G1 X62.000 Y51.000
G1 X61.000 Y51.000
G1 X60.000 Y51.000
G1 X59.000 Y51.000
G1 X58.000 Y51.000
G1 X57.000 Y51.000
G1 X56.000 Y51.000
G1 X55.000 Y51.000
G1 X54.000 Y51.000
G1 X53.000 Y51.000
G1 X52.000 Y51.000
G1 X51.000 Y51.000
G1 X50.000 Y51.000
G1 X49.000 Y51.000
G1 X48.000 Y51.000
G1 X47.000 Y51.000
G1 X46.000 Y51.000
G1 X45.000 Y51.000
G1 X44.000 Y51.000
G1 X43.000 Y51.000
G1 X42.000 Y51.000
G1 X41.000 Y51.000
G1 X40.000 Y51.000
G1 X39.000 Y51.000
G1 X38.000 Y51.000
G1 X37.000 Y51.000
G1 X36.000 Y51.000
G1 X35.000 Y51.000
G1 X34.000 Y51.000
G1 X33.000 Y51.000
G1 X32.000 Y51.000
G1 X31.000 Y51.000
G1 X30.000 Y51.000
G0 Z4.600 F3000
M400
M204 P12000 T12000
G1 F12000
G0 X30.000 Y52.000 Z4.600
M400
M204 P200 T200
G1 F400
G1 Z0.000 F2500
G1 X31.000 Y52.000
G1 X32.000 Y52.000
G1 X33.000 Y52.000
G1 X34.000 Y52.000
G1 X35.000 Y52.000
G1 X36.000 Y52.000
G1 X37.000 Y52.000
G1 X38.000 Y52.000
G1 X39.000 Y52.000
G1 X40.000 Y52.000
G1 X41.000 Y52.000
G1 X42.000 Y52.000
G1 X43.000 Y52.000
G1 X44.000 Y52.000
G1 X45.000 Y52.000
G1 X46.000 Y52.000
G1 X47.000 Y52.000
G1 X48.000 Y52.000
G1 X49.000 Y52.000
G1 X50.000 Y52.000
G1 X51.000 Y52.000
G1 X52.000 Y52.000
G1 X53.000 Y52.000
G1 X54.000 Y52.000
G1 X55.000 Y52.000
G1 X56.000 Y52.000
G1 X57.000 Y52.000
G1 X58.000 Y52.000
G1 X59.000 Y52.000
G1 X60.000 Y52.000
G1 X61.000 Y52.000
G1 X62.000 Y52.000
G1 X63.000 Y52.000
G1 X64.000 Y52.000
G1 X65.000 Y52.000
G1 X66.000 Y52.000
G1 X67.000 Y52.000
G1 X68.000 Y52.000
G1 X69.000 Y52.000
G1 X70.000 Y52.000
G1 X71.000 Y52.000
G1 X72.000 Y52.000
G1 X73.000 Y52.000
G1 X74.000 Y52.000
G1 X75.000 Y52.000
G1 X76.000 Y52.000
G0 Z4.600 F3000

; --- CIKEL NAMAKANJA ---
G0 Z4.600 F3000
M400
M204 P12000 T12000
G1 F12000
G0 X-12.025 Y-5.314 Z31.000
G1 Z0.000 F3000
G1 X-12.025 Y-5.314 F2500
G1 X-12.025 Y-2.814 F2500
G1 X-17.025 Y-5.314 F2500
G1 X-12.025 Y-12.814 F2500
G0 Z16.000 F3000
G0 X12.431 Y8.395
G0 Z31.000 F3000
G0 X77.000 Y52.000 Z4.600
M400
M204 P200 T200
G1 F400
G1 Z0.000 F2500
G1 X77.000 Y52.000
G1 X78.000 Y52.000
G1 X79.000 Y52.000
G1 X80.000 Y52.000
G1 X81.000 Y52.000
G1 X82.000 Y52.000
G1 X83.000 Y52.000
G1 X84.000 Y52.000
G1 X85.000 Y52.000
G1 X86.000 Y52.000
G1 X87.000 Y52.000
G1 X88.000 Y52.000
G1 X89.000 Y52.000
G1 X90.000 Y52.000
G1 X91.000 Y52.000
G1 X92.000 Y52.000
G1 X93.000 Y52.000
G1 X94.000 Y52.000
G1 X95.000 Y52.000
G1 X96.000 Y52.000
G1 X97.000 Y52.000
G1 X98.000 Y52.000
G1 X99.000 Y52.000
G1 X100.000 Y52.000
G1 X101.000 Y52.000
G1 X102.000 Y52.000
G1 X103.000 Y52.000
G1 X104.000 Y52.000
G1 X105.000 Y52.000
G1 X106.000 Y52.000
G1 X107.000 Y52.000
G1 X108.000 Y52.000
G1 X109.000 Y52.000
G1 X110.000 Y52.000
G1 X111.000 Y52.000
G1 X112.000 Y52.000
G1 X113.000 Y52.000
G1 X114.000 Y52.000
G1 X115.000 Y52.000
G1 X116.000 Y52.000
G1 X117.000 Y52.000
G1 X118.000 Y52.000
G1 X119.000 Y52.000
G1 X120.000 Y52.000
G1 X121.000 Y52.000
G1 X122.000 Y52.000
G1 X123.000 Y52.000
G1 X124.000 Y52.000
G1 X125.000 Y52.000
G1 X126.000 Y52.000
G1 X127.000 Y52.000
G1 X128.000 Y52.000
G1 X129.000 Y52.000
G1 X130.000 Y52.000
G1 X131.000 Y52.000
G1 X132.000 Y52.000
G1 X133.000 Y52.000
G1 X134.000 Y52.000
G1 X135.000 Y52.000
G1 X136.000 Y52.000
G1 X137.000 Y52.000
G1 X138.000 Y52.000
G1 X139.000 Y52.000
G1 X140.000 Y52.000
G1 X141.000 Y52.000
G1 X142.000 Y52.000
G1 X143.000 Y52.000
G1 X144.000 Y52.000
G1 X145.000 Y52.000
G1 X146.000 Y52.000
G1 X147.000 Y52.000
G1 X148.000 Y52.000
G1 X149.000 Y52.000
G1 X150.000 Y52.000
G1 X151.000 Y52.000
G1 X152.000 Y52.000
G1 X153.000 Y52.000
G1 X154.000 Y52.000
G1 X155.000 Y52.000
G1 X156.000 Y52.000
G1 X157.000 Y52.000
G1 X158.000 Y52.000
G1 X159.000 Y52.000
G1 X160.000 Y52.000
G1 X161.000 Y52.000
G1 X162.000 Y52.000
G1 X163.000 Y52.000
G1 X164.000 Y52.000
G1 X165.000 Y52.000
G1 X166.000 Y52.000
G1 X167.000 Y52.000
G1 X168.000 Y52.000
G1 X169.000 Y52.000
G1 X170.000 Y52.000
G1 X171.000 Y52.000
G1 X172.000 Y52.000
G1 X173.000 Y52.000
G1 X174.000 Y52.000
G1 X175.000 Y52.000
G1 X176.000 Y52.000
G1 X177.000 Y52.000
G1 X178.000 Y52.000
G1 X179.000 Y52.000
G1 X180.000 Y52.000
G1 X181.000 Y52.000
G1 X182.000 Y52.000
G1 X183.000 Y52.000
G1 X184.000 Y52.000
G1 X185.000 Y52.000
G1 X186.000 Y52.000
G1 X187.000 Y52.000
G1 X188.000 Y52.000
G1 X189.000 Y52.000
G1 X190.000 Y52.000
G1 X191.000 Y52.000
G1 X192.000 Y52.000
G1 X193.000 Y52.000
G1 X194.000 Y52.000
G1 X195.000 Y52.000
G1 X196.000 Y52.000
G1 X197.000 Y52.000
G1 X198.000 Y52.000
G1 X199.000 Y52.000
G1 X200.000 Y52.000
G1 X201.000 Y52.000
G1 X202.000 Y52.000
G1 X203.000 Y52.000
G1 X204.000 Y52.000
G1 X205.000 Y52.000
G1 X206.000 Y52.000
G1 X207.000 Y52.000
G1 X208.000 Y52.000
G1 X209.000 Y52.000
G1 X210.000 Y52.000
G1 X211.000 Y52.000
G1 X212.000 Y52.000
G1 X213.000 Y52.000
G1 X214.000 Y52.000
G1 X215.000 Y52.000
G1 X216.000 Y52.000
G1 X217.000 Y52.000
G1 X218.000 Y52.000
G1 X219.000 Y52.000
G1 X220.000 Y52.000
G1 X221.000 Y52.000
G1 X222.000 Y52.000
G1 X223.000 Y52.000
G1 X224.000 Y52.000
G1 X225.000 Y52.000
G1 X226.000 Y52.000
G1 X227.000 Y52.000
G1 X228.000 Y52.000
G1 X229.000 Y52.000
G0 Z4.600 F3000
M400
M204 P12000 T12000
G1 F12000
G0 X229.000 Y53.000 Z4.600
M400
M204 P200 T200
G1 F400
G1 Z0.000 F2500
G1 X228.000 Y53.000
G1 X227.000 Y53.000
G1 X226.000 Y53.000
G1 X225.000 Y53.000
G1 X224.000 Y53.000
G1 X223.000 Y53.000
G1 X222.000 Y53.000
G1 X221.000 Y53.000
G1 X220.000 Y53.000
G1 X219.000 Y53.000
G1 X218.000 Y53.000
G1 X217.000 Y53.000
G1 X216.000 Y53.000
G1 X215.000 Y53.000
G1 X214.000 Y53.000
G1 X213.000 Y53.000
G1 X212.000 Y53.000
G1 X211.000 Y53.000
G1 X210.000 Y53.000
G1 X209.000 Y53.000
G1 X208.000 Y53.000
G1 X207.000 Y53.000
G1 X206.000 Y53.000
G1 X205.000 Y53.000
G1 X204.000 Y53.000
G1 X203.000 Y53.000
G1 X202.000 Y53.000
G1 X201.000 Y53.000
G1 X200.000 Y53.000
