G90
G21
; === MULTI-COLOR PAINTER GCODE ===
; Generated layers: 1
; Backlash compensation: OFF
; Working area clamping: ON  X[0–290] Y[0–450]
; Tutti Frutti mode: OFF


; ═══════════════════════════════
; LAYER 2: Color 2 — Teal
; Infill: lines
; ═══════════════════════════════


; --- CIKEL NAMAKANJA ---
G0 Z2.000 F3000
M400
M204 P600 T600
G1 F1500
G0 X96.258 Y22.029 Z7.000
G1 Z1.000 F3000
G1 X96.258 Y22.029 F2500
G1 X96.258 Y24.529 F2500
G1 X91.258 Y22.029 F2500
G1 X96.258 Y14.529 F2500
G0 Z19.000 F3000
G0 X83.365 Y17.804
G0 Z7.000 F3000
G0 X75.000 Y40.250 Z2.000
M400
M204 P600 T600
G1 F1500
G0 X75.000 Y40.250 Z2.000
M400
M204 P200 T200
G1 F600
G1 Z0.000 F2500
G1 X75.250 Y40.000
G1 X75.250 Y40.000
G1 X75.500 Y39.750
G1 X75.750 Y39.500
G1 X75.750 Y39.500
G1 X76.000 Y39.250
G1 X76.250 Y39.000
G1 X76.500 Y38.750
G1 X76.500 Y38.750
G1 X76.750 Y38.500
G1 X77.000 Y38.250
G1 X77.000 Y38.250
G1 X77.250 Y38.000
G1 X77.500 Y37.750
G1 X77.750 Y37.750
G1 X77.750 Y37.500
G1 X78.000 Y37.250
G1 X78.250 Y37.000
G1 X78.250 Y37.000
G1 X78.500 Y36.750
G1 X78.750 Y36.500
G1 X78.750 Y36.500
G0 Z2.000 F3000
M400
M204 P600 T600
G1 F1500
G0 X79.000 Y39.500 Z2.000
M400
M204 P200 T200
G1 F600
G1 Z0.000 F2500
G1 X78.750 Y39.500
G1 X78.750 Y39.750
G1 X78.500 Y40.000
G1 X78.250 Y40.000
G1 X78.250 Y40.250
G1 X78.000 Y40.500
G1 X77.750 Y40.750
G1 X77.750 Y40.750
G1 X77.500 Y41.000
G1 X77.250 Y41.250
G1 X77.000 Y41.250
G1 X77.000 Y41.500
G1 X76.750 Y41.750
G0 Z2.000 F3000
M400
M204 P600 T600
G1 F1500
G0 X76.500 Y43.000 Z2.000
M400
M204 P200 T200
G1 F600
G1 Z0.000 F2500
G1 X76.500 Y43.000
G1 X76.750 Y42.750
G1 X77.000 Y42.500
G1 X77.000 Y42.500
G1 X77.250 Y42.250
G1 X77.500 Y42.000
G1 X77.750 Y42.000
G1 X77.750 Y41.750
G1 X78.000 Y41.500
G1 X78.250 Y41.250
G1 X78.250 Y41.250
G1 X78.500 Y41.000
G1 X78.750 Y40.750
G1 X78.750 Y40.750
G1 X79.000 Y40.500
G0 Z2.000 F3000
M400
M204 P600 T600
G1 F1500
G0 X79.000 Y41.500 Z2.000
M400
M204 P200 T200
G1 F600
G1 Z0.000 F2500
G1 X78.750 Y41.750
G1 X78.750 Y42.000
G1 X78.500 Y42.000
G1 X78.250 Y42.250
G1 X78.250 Y42.500
G1 X78.000 Y42.500
G1 X77.750 Y42.750
G1 X77.750 Y43.000
G1 X77.500 Y43.000
G1 X77.250 Y43.250
G1 X77.000 Y43.500
G1 X77.000 Y43.750
G1 X76.750 Y43.750
G1 X76.500 Y44.000
G1 X76.500 Y44.250
G0 Z2.000 F3000
M400
M204 P600 T600
G1 F1500
G0 X76.000 Y45.500 Z2.000
M400
M204 P200 T200
G1 F600
G1 Z0.000 F2500
G1 X76.250 Y45.500
G1 X76.500 Y45.250
G1 X76.500 Y45.000
G1 X76.750 Y45.000
G1 X77.000 Y44.750
G1 X77.000 Y44.500
G1 X77.250 Y44.250
G1 X77.500 Y44.250
G1 X77.750 Y44.000
G1 X77.750 Y43.750
G1 X78.000 Y43.750
G1 X78.250 Y43.500
G1 X78.250 Y43.250
G1 X78.500 Y43.000
G1 X78.750 Y43.000
G1 X78.750 Y42.750
G1 X79.000 Y42.500
G0 Z2.000 F3000
M400
M204 P600 T600
G1 F1500
G0 X79.000 Y43.750 Z2.000
M400
M204 P200 T200
G1 F600
G1 Z0.000 F2500
G1 X78.750 Y43.750
G1 X78.750 Y44.000
G1 X78.500 Y44.250
G1 X78.250 Y44.250
G1 X78.250 Y44.500
G1 X78.000 Y44.750
G1 X77.750 Y45.000
G1 X77.750 Y45.000
G1 X77.500 Y45.250
G1 X77.250 Y45.500
G1 X77.000 Y45.500
G1 X77.000 Y45.750
G1 X76.750 Y46.000
G1 X76.500 Y46.000
G1 X76.500 Y46.250
G1 X76.250 Y46.500
G1 X76.000 Y46.750
G1 X75.750 Y46.750
G1 X75.750 Y47.000
G1 X75.500 Y47.250
G0 Z2.000 F3000
M400
M204 P600 T600
G1 F1500
G0 X74.750 Y49.000 Z2.000
M400
M204 P200 T200
G1 F600
G1 Z0.000 F2500
G1 X75.000 Y48.750
G1 X75.250 Y48.500
G1 X75.250 Y48.500
G1 X75.500 Y48.250
G1 X75.750 Y48.000
G1 X75.750 Y48.000
G1 X76.000 Y47.750
G1 X76.250 Y47.500
G1 X76.500 Y47.250
G1 X76.500 Y47.250
G1 X76.750 Y47.000
G1 X77.000 Y46.750
G1 X77.000 Y46.750
G1 X77.250 Y46.500
G1 X77.500 Y46.250
G1 X77.750 Y46.000
G1 X77.750 Y46.000
G1 X78.000 Y45.750
G1 X78.250 Y45.500
G1 X78.250 Y45.500
G1 X78.500 Y45.250
G1 X78.750 Y45.000
G1 X78.750 Y45.000
G1 X79.000 Y44.750
G0 Z2.000 F3000
M400
M204 P600 T600
G1 F1500
G0 X72.500 Y41.750 Z2.000
M400
M204 P200 T200
G1 F600
G1 Z0.000 F2500
G1 X72.750 Y41.500
G1 X72.750 Y41.250
G1 X73.000 Y41.250
G1 X73.250 Y41.000
G1 X73.500 Y40.750
G1 X73.500 Y40.750
G1 X73.750 Y40.500
G1 X74.000 Y40.250
G1 X74.000 Y40.000
G1 X74.250 Y40.000
G1 X74.500 Y39.750
G1 X74.500 Y39.500
G1 X74.750 Y39.500
G1 X75.000 Y39.250
G1 X75.250 Y39.000
G1 X75.250 Y38.750
G1 X75.500 Y38.750
G1 X75.750 Y38.500
G1 X75.750 Y38.250
G1 X76.000 Y38.250
G1 X76.250 Y38.000
G1 X76.500 Y37.750
G1 X76.500 Y37.750
G1 X76.750 Y37.500
G1 X77.000 Y37.250
G1 X77.000 Y37.000
G1 X77.250 Y37.000
G1 X77.500 Y36.750
G1 X77.750 Y36.500
G1 X77.750 Y36.500
G1 X78.000 Y36.250
G0 Z2.000 F3000
M400
M204 P600 T600
G1 F1500
G0 X70.250 Y39.750 Z2.000
M400
M204 P200 T200
G1 F600
G1 Z0.000 F2500
G1 X70.000 Y40.000
G0 Z2.000 F3000
M400
M204 P600 T600
G1 F1500
G0 X69.500 Y46.750 Z2.000
M400
M204 P200 T200
G1 F600
G1 Z0.000 F2500
G1 X69.750 Y46.750
G1 X69.750 Y46.500
G1 X70.000 Y46.250
G1 X70.250 Y46.000
G1 X70.500 Y46.000
G1 X70.500 Y45.750
G1 X70.750 Y45.500
G1 X71.000 Y45.500
G1 X71.000 Y45.250
G1 X71.250 Y45.000
G1 X71.500 Y45.000
G1 X71.500 Y44.750
G1 X71.750 Y44.500
G1 X72.000 Y44.250
G1 X72.250 Y44.250
G1 X72.250 Y44.000
G1 X72.500 Y43.750
G1 X72.750 Y43.750
G1 X72.750 Y43.500
G1 X73.000 Y43.250
G1 X73.250 Y43.000
G1 X73.500 Y43.000
G1 X73.500 Y42.750
G1 X73.750 Y42.500
G1 X74.000 Y42.500
G1 X74.000 Y42.250
G1 X74.250 Y42.000
G1 X74.500 Y42.000
G1 X74.500 Y41.750
G1 X74.750 Y41.500
G1 X75.000 Y41.250
G1 X75.250 Y41.250
G1 X75.250 Y41.000
G1 X75.500 Y40.750
G1 X75.750 Y40.750
G1 X75.750 Y40.500
G1 X76.000 Y40.250
G1 X76.250 Y40.000
G1 X76.500 Y40.000
G1 X76.500 Y39.750
G1 X76.750 Y39.500
G1 X77.000 Y39.500
G1 X77.000 Y39.250
G1 X77.250 Y39.000
G1 X77.500 Y38.750
G1 X77.750 Y38.750
G1 X77.750 Y38.500
G1 X78.000 Y38.250
G1 X78.250 Y38.250
G1 X78.250 Y38.000
G1 X78.500 Y37.750
G1 X78.750 Y37.750
G1 X78.750 Y37.500
G0 Z2.000 F3000
M400
M204 P600 T600
G1 F1500
G0 X78.750 Y46.000 Z2.000
M400
M204 P200 T200
G1 F600
G1 Z0.000 F2500
G1 X78.750 Y46.000
G1 X78.500 Y46.250
G1 X78.250 Y46.500
G1 X78.250 Y46.750
G1 X78.000 Y46.750
G1 X77.750 Y47.000
G1 X77.750 Y47.250
G1 X77.500 Y47.250
G1 X77.250 Y47.500
G1 X77.000 Y47.750
G1 X77.000 Y48.000
G1 X76.750 Y48.000
G1 X76.500 Y48.250
G1 X76.500 Y48.500
G1 X76.250 Y48.500
G1 X76.000 Y48.750
G1 X75.750 Y49.000
G1 X75.750 Y49.000
G1 X75.500 Y49.250
G1 X75.250 Y49.500
G1 X75.250 Y49.750
G1 X75.000 Y49.750
G1 X74.750 Y50.000
G1 X74.500 Y50.250
G1 X74.500 Y50.250
G1 X74.250 Y50.500
G1 X74.000 Y50.750
G1 X74.000 Y51.000
G1 X73.750 Y51.000
G0 Z2.000 F3000
M400
M204 P600 T600
G1 F1500
G0 X72.000 Y54.000 Z2.000
M400
M204 P200 T200
G1 F600
G1 Z0.000 F2500
G1 X72.250 Y53.750
G1 X72.250 Y53.500
G1 X72.500 Y53.250
G1 X72.750 Y53.250
G1 X72.750 Y53.000
G1 X73.000 Y52.750
G1 X73.250 Y52.750
G1 X73.500 Y52.500
G1 X73.500 Y52.250
G1 X73.750 Y52.250
G1 X74.000 Y52.000
G1 X74.000 Y51.750
G1 X74.250 Y51.500
G1 X74.500 Y51.500
G1 X74.500 Y51.250
G1 X74.750 Y51.000
G1 X75.000 Y51.000
G1 X75.250 Y50.750
G1 X75.250 Y50.500
G1 X75.500 Y50.250
G1 X75.750 Y50.250
G1 X75.750 Y50.000
G1 X76.000 Y49.750
G1 X76.250 Y49.750
G1 X76.500 Y49.500
G1 X76.500 Y49.250
G1 X76.750 Y49.000
G1 X77.000 Y49.000
G1 X77.000 Y48.750
G1 X77.250 Y48.500
G1 X77.500 Y48.500
G1 X77.750 Y48.250
G1 X77.750 Y48.000
G1 X78.000 Y48.000
G1 X78.250 Y47.750
G1 X78.250 Y47.500
G1 X78.500 Y47.250
G0 Z2.000 F3000
M400
M204 P600 T600
G1 F1500
G0 X79.000 Y38.250 Z2.000
M400
M204 P200 T200
G1 F600
G1 Z0.000 F2500
G1 X78.750 Y38.500
G1 X78.750 Y38.750
G1 X78.500 Y38.750
G1 X78.250 Y39.000
G1 X78.250 Y39.250
G1 X78.000 Y39.500
G1 X77.750 Y39.500
G1 X77.750 Y39.750
G1 X77.500 Y40.000
G1 X77.250 Y40.000
G1 X77.000 Y40.250
G1 X77.000 Y40.500
G1 X76.750 Y40.750
G1 X76.500 Y40.750
G1 X76.500 Y41.000
G1 X76.250 Y41.250
G1 X76.000 Y41.250
G1 X75.750 Y41.500
G1 X75.750 Y41.750
G1 X75.500 Y42.000
G1 X75.250 Y42.000
G1 X75.250 Y42.250
G1 X75.000 Y42.500
G1 X74.750 Y42.500
G1 X74.500 Y42.750
G1 X74.500 Y43.000
G1 X74.250 Y43.000
G1 X74.000 Y43.250
G1 X74.000 Y43.500
G1 X73.750 Y43.750
G1 X73.500 Y43.750
G1 X73.500 Y44.000
G1 X73.250 Y44.250
G1 X73.000 Y44.250
G1 X72.750 Y44.500
G1 X72.750 Y44.750
G1 X72.500 Y45.000
G1 X72.250 Y45.000
G1 X72.250 Y45.250
G1 X72.000 Y45.500
G1 X71.750 Y45.500
G1 X71.500 Y45.750
G1 X71.500 Y46.000
G1 X71.250 Y46.000
G1 X71.000 Y46.250
G1 X71.000 Y46.500
G1 X70.750 Y46.750
G1 X70.500 Y46.750
G1 X70.500 Y47.000
G1 X70.250 Y47.250
G1 X70.000 Y47.250
G1 X69.750 Y47.500
G1 X69.750 Y47.750
G1 X69.500 Y48.000
G1 X69.250 Y48.000
G1 X69.250 Y48.250
G1 X69.000 Y48.500
G1 X68.750 Y48.500
G1 X68.500 Y48.750
G1 X68.500 Y49.000
G1 X68.250 Y49.000
G1 X68.000 Y49.250
G1 X68.000 Y49.500
G1 X67.750 Y49.750
G0 Z2.000 F3000
M400
M204 P600 T600
G1 F1500
G0 X64.000 Y46.000 Z2.000
M400
M204 P200 T200
G1 F600
G1 Z0.000 F2500
G0 Z2.000 F3000

; --- CIKEL NAMAKANJA ---
G0 Z2.000 F3000
M400
M204 P600 T600
G1 F1500
G0 X74.045 Y0.000 Z7.000
G1 Z1.000 F3000
G1 X74.045 Y0.000 F2500
G1 X74.045 Y2.500 F2500
G1 X69.045 Y0.000 F2500
G1 X74.045 Y0.000 F2500
G0 Z19.000 F3000
G0 X80.681 Y16.558
G0 Z7.000 F3000
G0 X64.250 Y45.750 Z2.000
M400
M204 P200 T200
G1 F600
G1 Z0.000 F2500
G1 X64.250 Y45.750
G1 X64.250 Y45.500
G1 X64.500 Y45.500
G1 X64.750 Y45.250
G1 X65.000 Y45.000
G1 X65.000 Y45.000
G1 X65.250 Y44.750
G1 X65.500 Y44.500
G1 X65.500 Y44.250
G1 X65.750 Y44.250
G1 X66.000 Y44.000
G1 X66.250 Y43.750
G1 X66.250 Y43.750
G1 X66.500 Y43.500
G1 X66.750 Y43.250
G1 X66.750 Y43.000
G1 X67.000 Y43.000
G1 X67.250 Y42.750
G1 X67.500 Y42.500
G1 X67.500 Y42.500
G1 X67.750 Y42.250
G1 X68.000 Y42.000
G1 X68.000 Y42.000
G1 X68.250 Y41.750
G1 X68.500 Y41.500
G1 X68.500 Y41.250
G1 X68.750 Y41.250
G1 X69.000 Y41.000
G1 X69.250 Y40.750
G1 X69.250 Y40.750
G1 X69.500 Y40.500
G1 X69.750 Y40.250
G0 Z2.000 F3000
M400
M204 P600 T600
G1 F1500
G0 X72.500 Y38.500 Z2.000
M400
M204 P200 T200
G1 F600
G1 Z0.000 F2500
G1 X72.250 Y38.750
G1 X72.250 Y38.750
G1 X72.000 Y39.000
G1 X71.750 Y39.250
G1 X71.500 Y39.500
G1 X71.500 Y39.500
G1 X71.250 Y39.750
G1 X71.000 Y40.000
G1 X71.000 Y40.000
G1 X70.750 Y40.250
G1 X70.500 Y40.500
G1 X70.500 Y40.750
G1 X70.250 Y40.750
G1 X70.000 Y41.000
G1 X69.750 Y41.250
G1 X69.750 Y41.250
G1 X69.500 Y41.500
G1 X69.250 Y41.750
G1 X69.250 Y42.000
G1 X69.000 Y42.000
G1 X68.750 Y42.250
G1 X68.500 Y42.500
G1 X68.500 Y42.500
G1 X68.250 Y42.750
G1 X68.000 Y43.000
G1 X68.000 Y43.000
G1 X67.750 Y43.250
G1 X67.500 Y43.500
G1 X67.500 Y43.750
G1 X67.250 Y43.750
G1 X67.000 Y44.000
G1 X66.750 Y44.250
G1 X66.750 Y44.250
G1 X66.500 Y44.500
G1 X66.250 Y44.750
G1 X66.250 Y45.000
G1 X66.000 Y45.000
G1 X65.750 Y45.250
G1 X65.500 Y45.500
G1 X65.500 Y45.500
G1 X65.250 Y45.750
G1 X65.000 Y46.000
G1 X65.000 Y46.000
G1 X64.750 Y46.250
G1 X64.500 Y46.500
G1 X64.250 Y46.750
G1 X64.250 Y46.750
G1 X64.000 Y47.000
G1 X63.750 Y47.250
G1 X63.750 Y47.250
G1 X63.500 Y47.500
G1 X63.250 Y47.750
G1 X63.250 Y48.000
G0 Z2.000 F3000
M400
M204 P600 T600
G1 F1500
G0 X63.000 Y49.000 Z2.000
M400
M204 P200 T200
G1 F600
G1 Z0.000 F2500
G1 X63.250 Y49.000
G1 X63.250 Y48.750
G1 X63.500 Y48.500
G1 X63.750 Y48.500
G1 X63.750 Y48.250
G1 X64.000 Y48.000
G1 X64.250 Y48.000
G1 X64.250 Y47.750
G1 X64.500 Y47.500
G1 X64.750 Y47.250
G1 X65.000 Y47.250
G1 X65.000 Y47.000
G1 X65.250 Y46.750
G1 X65.500 Y46.750
G1 X65.500 Y46.500
G1 X65.750 Y46.250
G1 X66.000 Y46.000
G1 X66.250 Y46.000
G1 X66.250 Y45.750
G1 X66.500 Y45.500
G1 X66.750 Y45.500
G1 X66.750 Y45.250
G1 X67.000 Y45.000
G1 X67.250 Y45.000
G1 X67.500 Y44.750
G1 X67.500 Y44.500
G1 X67.750 Y44.250
G1 X68.000 Y44.250
G1 X68.000 Y44.000
G1 X68.250 Y43.750
G1 X68.500 Y43.750
G1 X68.500 Y43.500
G1 X68.750 Y43.250
G1 X69.000 Y43.000
G1 X69.250 Y43.000
G1 X69.250 Y42.750
G1 X69.500 Y42.500
G1 X69.750 Y42.500
G1 X69.750 Y42.250
G1 X70.000 Y42.000
G1 X70.250 Y42.000
G1 X70.500 Y41.750
G1 X70.500 Y41.500
G1 X70.750 Y41.250
G1 X71.000 Y41.250
G1 X71.000 Y41.000
G1 X71.250 Y40.750
G1 X71.500 Y40.750
G1 X71.500 Y40.500
G1 X71.750 Y40.250
G1 X72.000 Y40.000
G1 X72.250 Y40.000
G1 X72.250 Y39.750
G1 X72.500 Y39.500
G1 X72.750 Y39.500
G1 X72.750 Y39.250
G1 X73.000 Y39.000
G1 X73.250 Y38.750
G1 X73.500 Y38.750
G1 X73.500 Y38.500
G1 X73.750 Y38.250
G1 X74.000 Y38.250
G1 X74.000 Y38.000
G1 X74.250 Y37.750
G1 X74.500 Y37.750
G0 Z2.000 F3000
M400
M204 P600 T600
G1 F1500
G0 X75.750 Y42.500 Z2.000
M400
M204 P200 T200
G1 F600
G1 Z0.000 F2500
G1 X75.750 Y42.750
G1 X75.500 Y43.000
G1 X75.250 Y43.000
G1 X75.250 Y43.250
G1 X75.000 Y43.500
G1 X74.750 Y43.750
G1 X74.500 Y43.750
G1 X74.500 Y44.000
G1 X74.250 Y44.250
G1 X74.000 Y44.250
G1 X74.000 Y44.500
G1 X73.750 Y44.750
G1 X73.500 Y45.000
G1 X73.500 Y45.000
G1 X73.250 Y45.250
G1 X73.000 Y45.500
G1 X72.750 Y45.500
G1 X72.750 Y45.750
G1 X72.500 Y46.000
G1 X72.250 Y46.000
G1 X72.250 Y46.250
G1 X72.000 Y46.500
G1 X71.750 Y46.750
G1 X71.500 Y46.750
G1 X71.500 Y47.000
G1 X71.250 Y47.250
G1 X71.000 Y47.250
G1 X71.000 Y47.500
G1 X70.750 Y47.750
G1 X70.500 Y48.000
G1 X70.500 Y48.000
G1 X70.250 Y48.250
G1 X70.000 Y48.500
G1 X69.750 Y48.500
G1 X69.750 Y48.750
G1 X69.500 Y49.000
G1 X69.250 Y49.000
G1 X69.250 Y49.250
G1 X69.000 Y49.500
G1 X68.750 Y49.750
G1 X68.500 Y49.750
G1 X68.500 Y50.000
G1 X68.250 Y50.250
G1 X68.000 Y50.250
G1 X68.000 Y50.500
G1 X67.750 Y50.750
G1 X67.500 Y51.000
G1 X67.500 Y51.000
G1 X67.250 Y51.250
G1 X67.000 Y51.500
G1 X66.750 Y51.500
G1 X66.750 Y51.750
G1 X66.500 Y52.000
G1 X66.250 Y52.250
G1 X66.250 Y52.250
G0 Z2.000 F3000
M400
M204 P600 T600
G1 F1500
G0 X72.250 Y56.750 Z2.000
M400
M204 P200 T200
G1 F600
G1 Z0.000 F2500
G1 X72.500 Y56.500
G1 X72.750 Y56.250
G1 X72.750 Y56.250
G1 X73.000 Y56.000
G1 X73.250 Y55.750
G1 X73.500 Y55.750
G1 X73.500 Y55.500
G1 X73.750 Y55.250
G1 X74.000 Y55.250
G1 X74.000 Y55.000
G1 X74.250 Y54.750
G1 X74.500 Y54.500
G1 X74.500 Y54.500
G1 X74.750 Y54.250
G1 X75.000 Y54.000
G1 X75.250 Y54.000
G1 X75.250 Y53.750
G1 X75.500 Y53.500
G1 X75.750 Y53.250
G1 X75.750 Y53.250
G1 X76.000 Y53.000
G1 X76.250 Y52.750
G1 X76.500 Y52.750
G1 X76.500 Y52.500
G1 X76.750 Y52.250
G0 Z2.000 F3000
M400
M204 P600 T600
G1 F1500
G0 X77.750 Y50.250 Z2.000
M400
M204 P200 T200
G1 F600
G1 Z0.000 F2500
G1 X77.750 Y50.250
G1 X77.500 Y50.500
G1 X77.250 Y50.750
G1 X77.000 Y51.000
G1 X77.000 Y51.000
G1 X76.750 Y51.250
G1 X76.500 Y51.500
G1 X76.500 Y51.500
G1 X76.250 Y51.750
G1 X76.000 Y52.000
G1 X75.750 Y52.250
G1 X75.750 Y52.250
G1 X75.500 Y52.500
G1 X75.250 Y52.750
G1 X75.250 Y52.750
G1 X75.000 Y53.000
G1 X74.750 Y53.250
G1 X74.500 Y53.250
G1 X74.500 Y53.500
G1 X74.250 Y53.750
G1 X74.000 Y54.000
G1 X74.000 Y54.000
G1 X73.750 Y54.250
G1 X73.500 Y54.500
G1 X73.500 Y54.500
G1 X73.250 Y54.750
G1 X73.000 Y55.000
G1 X72.750 Y55.250
G1 X72.750 Y55.250
G1 X72.500 Y55.500
G1 X72.250 Y55.750
G1 X72.250 Y55.750
G1 X72.000 Y56.000
G1 X71.750 Y56.250
G1 X71.500 Y56.250
G1 X71.500 Y56.500
G1 X71.250 Y56.750
G0 Z2.000 F3000
M400
M204 P600 T600
G1 F1500
G0 X75.000 Y59.500 Z2.000
M400
M204 P200 T200
G1 F600
G1 Z0.000 F2500
G1 X75.250 Y59.250
G0 Z2.000 F3000
M400
M204 P600 T600
G1 F1500
G0 X70.250 Y56.750 Z2.000
M400
M204 P200 T200
G1 F600
G1 Z0.000 F2500
G1 X70.500 Y56.500
G1 X70.500 Y56.250
G1 X70.750 Y56.250
G1 X71.000 Y56.000
G1 X71.000 Y55.750
G1 X71.250 Y55.750
G1 X71.500 Y55.500
G1 X71.500 Y55.250
G1 X71.750 Y55.250
G1 X72.000 Y55.000
G1 X72.250 Y54.750
G1 X72.250 Y54.500
G1 X72.500 Y54.500
G1 X72.750 Y54.250
G1 X72.750 Y54.000
G1 X73.000 Y54.000
G1 X73.250 Y53.750
G1 X73.500 Y53.500
G1 X73.500 Y53.250
G1 X73.750 Y53.250
G1 X74.000 Y53.000
G1 X74.000 Y52.750
G1 X74.250 Y52.750
G1 X74.500 Y52.500
G1 X74.500 Y52.250
G1 X74.750 Y52.250
G1 X75.000 Y52.000
G1 X75.250 Y51.750
G1 X75.250 Y51.500
G1 X75.500 Y51.500
G1 X75.750 Y51.250
G1 X75.750 Y51.000
G1 X76.000 Y51.000
G1 X76.250 Y50.750
G1 X76.500 Y50.500
G1 X76.500 Y50.250
G1 X76.750 Y50.250
G1 X77.000 Y50.000
G1 X77.000 Y49.750
G1 X77.250 Y49.750
G1 X77.500 Y49.500
G1 X77.750 Y49.250
G1 X77.750 Y49.000
G1 X78.000 Y49.000
G1 X78.250 Y48.750
G1 X78.250 Y48.500
G0 Z2.000 F3000
M400
M204 P600 T600
G1 F1500
G0 X68.750 Y55.000 Z2.000
M400
M204 P200 T200
G1 F600
G1 Z0.000 F2500
G1 X68.500 Y55.250
G1 X68.500 Y55.250
G1 X68.250 Y55.500
G1 X68.000 Y55.750
G1 X68.000 Y55.750
G1 X67.750 Y56.000
G0 Z2.000 F3000
M400
M204 P600 T600
G1 F1500
G0 X67.250 Y55.500 Z2.000
M400
M204 P200 T200
G1 F600
G1 Z0.000 F2500
G1 X67.500 Y55.250
G1 X67.500 Y55.250
G1 X67.750 Y55.000
G1 X68.000 Y54.750
G1 X68.000 Y54.500
G1 X68.250 Y54.500
G1 X68.500 Y54.250
G0 Z2.000 F3000

; --- CIKEL NAMAKANJA ---
G0 Z2.000 F3000
M400
M204 P600 T600
G1 F1500
G0 X109.519 Y5.380 Z7.000
G1 Z1.000 F3000
G1 X109.519 Y5.380 F2500
G1 X109.519 Y7.880 F2500
G1 X104.519 Y5.380 F2500
G1 X109.519 Y0.000 F2500
G0 Z19.000 F3000
G0 X82.972 Y17.652
G0 Z7.000 F3000
G0 X68.500 Y54.000 Z2.000
M400
M204 P200 T200
G1 F600
G1 Z0.000 F2500
G1 X68.500 Y54.000
G1 X68.750 Y54.000
G1 X69.000 Y53.750
G1 X69.250 Y53.500
G1 X69.250 Y53.250
G1 X69.500 Y53.250
G1 X69.750 Y53.000
G1 X69.750 Y52.750
G1 X70.000 Y52.750
G1 X70.250 Y52.500
G1 X70.500 Y52.250
G1 X70.500 Y52.250
G1 X70.750 Y52.000
G1 X71.000 Y51.750
G1 X71.000 Y51.500
G1 X71.250 Y51.500
G0 Z2.000 F3000
M400
M204 P600 T600
G1 F1500
G0 X65.750 Y53.750 Z2.000
M400
M204 P200 T200
G1 F600
G1 Z0.000 F2500
G1 X66.000 Y53.500
G1 X66.250 Y53.250
G1 X66.250 Y53.250
G1 X66.500 Y53.000
G1 X66.750 Y52.750
G1 X66.750 Y52.750
G1 X67.000 Y52.500
G1 X67.250 Y52.250
G1 X67.500 Y52.250
G1 X67.500 Y52.000
G1 X67.750 Y51.750
G1 X68.000 Y51.500
G1 X68.000 Y51.500
G1 X68.250 Y51.250
G1 X68.500 Y51.000
G1 X68.500 Y51.000
G1 X68.750 Y50.750
G1 X69.000 Y50.500
G1 X69.250 Y50.250
G1 X69.250 Y50.250
G1 X69.500 Y50.000
G1 X69.750 Y49.750
G1 X69.750 Y49.750
G1 X70.000 Y49.500
G1 X70.250 Y49.250
G1 X70.500 Y49.000
G1 X70.500 Y49.000
G1 X70.750 Y48.750
G1 X71.000 Y48.500
G1 X71.000 Y48.500
G1 X71.250 Y48.250
G1 X71.500 Y48.000
G1 X71.500 Y48.000
G1 X71.750 Y47.750
G1 X72.000 Y47.500
G1 X72.250 Y47.250
G1 X72.250 Y47.250
G1 X72.500 Y47.000
G1 X72.750 Y46.750
G1 X72.750 Y46.750
G1 X73.000 Y46.500
G1 X73.250 Y46.250
G1 X73.500 Y46.000
G1 X73.500 Y46.000
G1 X73.750 Y45.750
G1 X74.000 Y45.500
G1 X74.000 Y45.500
G1 X74.250 Y45.250
G1 X74.500 Y45.000
G1 X74.500 Y45.000
G1 X74.750 Y44.750
G1 X75.000 Y44.500
G0 Z2.000 F3000
M400
M204 P600 T600
G1 F1500
G0 X76.500 Y36.750 Z2.000
M400
M204 P200 T200
G1 F600
G1 Z0.000 F2500
G1 X76.250 Y37.000
G1 X76.000 Y37.000
G1 X75.750 Y37.250
G1 X75.750 Y37.500
G1 X75.500 Y37.750
G1 X75.250 Y37.750
G1 X75.250 Y38.000
G1 X75.000 Y38.250
G1 X74.750 Y38.250
G1 X74.500 Y38.500
G1 X74.500 Y38.750
G1 X74.250 Y38.750
G1 X74.000 Y39.000
G1 X74.000 Y39.250
G1 X73.750 Y39.500
G1 X73.500 Y39.500
G1 X73.500 Y39.750
G1 X73.250 Y40.000
G1 X73.000 Y40.000
G1 X72.750 Y40.250
G1 X72.750 Y40.500
G1 X72.500 Y40.750
G1 X72.250 Y40.750
G1 X72.250 Y41.000
G1 X72.000 Y41.250
G1 X71.750 Y41.250
G1 X71.500 Y41.500
G1 X71.500 Y41.750
G1 X71.250 Y42.000
G1 X71.000 Y42.000
G1 X71.000 Y42.250
G1 X70.750 Y42.500
G1 X70.500 Y42.500
G1 X70.500 Y42.750
G1 X70.250 Y43.000
G1 X70.000 Y43.000
G1 X69.750 Y43.250
G1 X69.750 Y43.500
G1 X69.500 Y43.750
G1 X69.250 Y43.750
G1 X69.250 Y44.000
G1 X69.000 Y44.250
G1 X68.750 Y44.250
G1 X68.500 Y44.500
G1 X68.500 Y44.750
G1 X68.250 Y45.000
G1 X68.000 Y45.000
G1 X68.000 Y45.250
G1 X67.750 Y45.500
G1 X67.500 Y45.500
G1 X67.500 Y45.750
G1 X67.250 Y46.000
G1 X67.000 Y46.000
G1 X66.750 Y46.250
G1 X66.750 Y46.500
G1 X66.500 Y46.750
G1 X66.250 Y46.750
G1 X66.250 Y47.000
G1 X66.000 Y47.250
G1 X65.750 Y47.250
G1 X65.500 Y47.500
G1 X65.500 Y47.750
G1 X65.250 Y48.000
G1 X65.000 Y48.000
G1 X65.000 Y48.250
G1 X64.750 Y48.500
G1 X64.500 Y48.500
G1 X64.250 Y48.750
G1 X64.250 Y49.000
G1 X64.000 Y49.000
G1 X63.750 Y49.250
G1 X63.750 Y49.500
G1 X63.500 Y49.750
G1 X63.250 Y49.750
G1 X63.250 Y50.000
G1 X63.000 Y50.250
G0 Z2.000 F3000
M400
M204 P600 T600
G1 F1500
G0 X63.250 Y51.000 Z2.000
M400
M204 P200 T200
G1 F600
G1 Z0.000 F2500
G1 X63.250 Y51.000
G1 X63.500 Y50.750
G1 X63.750 Y50.500
G1 X63.750 Y50.250
G1 X64.000 Y50.250
G1 X64.250 Y50.000
G1 X64.250 Y49.750
G1 X64.500 Y49.750
G1 X64.750 Y49.500
G1 X65.000 Y49.250
G1 X65.000 Y49.000
G1 X65.250 Y49.000
G1 X65.500 Y48.750
G1 X65.500 Y48.500
G1 X65.750 Y48.500
G1 X66.000 Y48.250
G1 X66.250 Y48.000
G1 X66.250 Y48.000
G1 X66.500 Y47.750
G1 X66.750 Y47.500
G1 X66.750 Y47.250
G1 X67.000 Y47.250
G0 Z2.000 F3000
M400
M204 P600 T600
G1 F1500
G0 X65.250 Y50.000 Z2.000
M400
M204 P200 T200
G1 F600
G1 Z0.000 F2500
G1 X65.000 Y50.250
G1 X65.000 Y50.250
G1 X64.750 Y50.500
G1 X64.500 Y50.750
G1 X64.250 Y51.000
G1 X64.250 Y51.000
G1 X64.000 Y51.250
G1 X63.750 Y51.500
G1 X63.750 Y51.500
G1 X63.500 Y51.750
G0 Z2.000 F3000
M400
M204 P600 T600
G1 F1500
G0 X64.500 Y51.750 Z2.000
M400
M204 P200 T200
G1 F600
G1 Z0.000 F2500
G1 X64.250 Y52.000
G1 X64.250 Y52.250
G1 X64.000 Y52.250
G1 X63.750 Y52.500
G1 X63.750 Y52.750
G0 Z2.000 F3000
M400
M204 P600 T600
G1 F1500
G0 X65.750 Y54.750 Z2.000
M400
M204 P200 T200
G1 F600
G1 Z0.000 F2500
G1 X66.000 Y54.500
G1 X66.250 Y54.500
G1 X66.250 Y54.250
G1 X66.500 Y54.000
G1 X66.750 Y54.000
G1 X66.750 Y53.750
G1 X67.000 Y53.500
G1 X67.250 Y53.250
G1 X67.500 Y53.250
G1 X67.500 Y53.000
G1 X67.750 Y52.750
G1 X68.000 Y52.750
G1 X68.000 Y52.500
G1 X68.250 Y52.250
G1 X68.500 Y52.250
G1 X68.500 Y52.000
G1 X68.750 Y51.750
G1 X69.000 Y51.500
G1 X69.250 Y51.500
G1 X69.250 Y51.250
G1 X69.500 Y51.000
G1 X69.750 Y51.000
G1 X69.750 Y50.750
G1 X70.000 Y50.500
G1 X70.250 Y50.250
G1 X70.500 Y50.250
G1 X70.500 Y50.000
G1 X70.750 Y49.750
G1 X71.000 Y49.750
G1 X71.000 Y49.500
G1 X71.250 Y49.250
G1 X71.500 Y49.000
G1 X71.500 Y49.000
G1 X71.750 Y48.750
G1 X72.000 Y48.500
G1 X72.250 Y48.500
G1 X72.250 Y48.250
G1 X72.500 Y48.000
G1 X72.750 Y48.000
G1 X72.750 Y47.750
G1 X73.000 Y47.500
G1 X73.250 Y47.250
G1 X73.500 Y47.250
G1 X73.500 Y47.000
G1 X73.750 Y46.750
G1 X74.000 Y46.750
G1 X74.000 Y46.500
G1 X74.250 Y46.250
G0 Z2.000 F3000
M400
M204 P600 T600
G1 F1500
G0 X73.000 Y48.500 Z2.000
M400
M204 P200 T200
G1 F600
G1 Z0.000 F2500
G1 X72.750 Y48.750
G1 X72.750 Y49.000
G1 X72.500 Y49.000
G1 X72.250 Y49.250
G1 X72.250 Y49.500
G1 X72.000 Y49.750
G1 X71.750 Y49.750
G1 X71.500 Y50.000
G1 X71.500 Y50.250
G1 X71.250 Y50.250
G1 X71.000 Y50.500
G1 X71.000 Y50.750
G1 X70.750 Y51.000
G1 X70.500 Y51.000
G1 X70.500 Y51.250
G1 X70.250 Y51.500
G1 X70.000 Y51.500
G1 X69.750 Y51.750
G1 X69.750 Y52.000
G1 X69.500 Y52.250
G1 X69.250 Y52.250
G1 X69.250 Y52.500
G1 X69.000 Y52.750
G1 X68.750 Y52.750
G1 X68.500 Y53.000
G1 X68.500 Y53.250
G1 X68.250 Y53.250
G1 X68.000 Y53.500
G1 X68.000 Y53.750
G1 X67.750 Y54.000
G1 X67.500 Y54.000
G1 X67.500 Y54.250
G1 X67.250 Y54.500
G1 X67.000 Y54.500
G1 X66.750 Y54.750
G1 X66.750 Y55.000
G1 X66.500 Y55.250
G0 Z2.000 F3000
M400
M204 P600 T600
G1 F1500
G0 X70.750 Y60.500 Z2.000
M400
M204 P200 T200
G1 F600
G1 Z0.000 F2500
G1 X70.500 Y60.500
G1 X70.500 Y60.750
G1 X70.250 Y61.000
G1 X70.000 Y61.250
G0 Z2.000 F3000
M400
M204 P600 T600
G1 F1500
G0 X71.250 Y61.000 Z2.000
M400
M204 P200 T200
G1 F600
G1 Z0.000 F2500
G1 X71.000 Y61.250
G1 X71.000 Y61.250
G1 X70.750 Y61.500
G1 X70.500 Y61.750
G1 X70.500 Y61.750
G1 X70.250 Y62.000
G1 X70.000 Y62.250
G1 X69.750 Y62.500
G1 X69.750 Y62.500
G1 X69.500 Y62.750
G1 X69.250 Y63.000
G1 X69.250 Y63.000
G1 X69.000 Y63.250
G0 Z2.000 F3000
M400
M204 P600 T600
G1 F1500
G0 X68.000 Y65.500 Z2.000
M400
M204 P200 T200
G1 F600
G1 Z0.000 F2500
G1 X68.000 Y65.250
G1 X68.250 Y65.000
G1 X68.500 Y64.750
G1 X68.500 Y64.750
G1 X68.750 Y64.500
G1 X69.000 Y64.250
G1 X69.250 Y64.250
G1 X69.250 Y64.000
G1 X69.500 Y63.750
G1 X69.750 Y63.500
G1 X69.750 Y63.500
G1 X70.000 Y63.250
G1 X70.250 Y63.000
G1 X70.500 Y63.000
G1 X70.500 Y62.750
G1 X70.750 Y62.500
G1 X71.000 Y62.500
G1 X71.000 Y62.250
G1 X71.250 Y62.000
G1 X71.500 Y61.750
G1 X71.500 Y61.750
G1 X71.750 Y61.500
G0 Z2.000 F3000
M400
M204 P600 T600
G1 F1500
G0 X69.250 Y66.250 Z2.000
M400
M204 P200 T200
G1 F600
G1 Z0.000 F2500
G1 X69.250 Y66.000
G1 X69.500 Y66.000
G1 X69.750 Y65.750
G1 X69.750 Y65.500
G1 X70.000 Y65.500
G1 X70.250 Y65.250
G1 X70.500 Y65.000
G1 X70.500 Y64.750
G1 X70.750 Y64.750
G1 X71.000 Y64.500
G1 X71.000 Y64.250
G1 X71.250 Y64.250
G1 X71.500 Y64.000
G1 X71.500 Y63.750
G1 X71.750 Y63.500
G1 X72.000 Y63.500
G1 X72.250 Y63.250
G1 X72.250 Y63.000
G1 X72.500 Y63.000
G1 X72.750 Y62.750
G1 X72.750 Y62.500
G1 X73.000 Y62.500
G1 X73.250 Y62.250
G0 Z2.000 F3000

; --- CIKEL NAMAKANJA ---
G0 Z2.000 F3000
M400
M204 P600 T600
G1 F1500
G0 X86.652 Y0.000 Z7.000
G1 Z1.000 F3000
G1 X86.652 Y0.000 F2500
G1 X86.652 Y2.500 F2500
G1 X81.652 Y0.000 F2500
G1 X86.652 Y0.000 F2500
G0 Z19.000 F3000
G0 X85.114 Y18.361
G0 Z7.000 F3000
G0 X73.500 Y62.000 Z2.000
M400
M204 P200 T200
G1 F600
G1 Z0.000 F2500
G1 X73.500 Y62.000
G1 X73.500 Y61.750
G1 X73.750 Y61.750
G1 X74.000 Y61.500
G1 X74.000 Y61.250
G1 X74.250 Y61.250
G1 X74.500 Y61.000
G1 X74.500 Y60.750
G1 X74.750 Y60.500
G1 X75.000 Y60.500
G1 X75.250 Y60.250
G1 X75.250 Y60.000
G1 X75.500 Y60.000
G1 X75.750 Y59.750
G1 X75.750 Y59.500
G1 X76.000 Y59.500
G1 X76.250 Y59.250
G1 X76.500 Y59.000
G1 X76.500 Y58.750
G1 X76.750 Y58.750
G1 X77.000 Y58.500
G1 X77.000 Y58.250
G1 X77.250 Y58.250
G1 X77.500 Y58.000
G0 Z2.000 F3000
M400
M204 P600 T600
G1 F1500
G0 X78.000 Y58.500 Z2.000
M400
M204 P200 T200
G1 F600
G1 Z0.000 F2500
G1 X77.750 Y58.750
G1 X77.750 Y58.750
G1 X77.500 Y59.000
G1 X77.250 Y59.250
G1 X77.000 Y59.500
G1 X77.000 Y59.500
G1 X76.750 Y59.750
G1 X76.500 Y60.000
G1 X76.500 Y60.000
G1 X76.250 Y60.250
G1 X76.000 Y60.500
G1 X75.750 Y60.500
G1 X75.750 Y60.750
G1 X75.500 Y61.000
G1 X75.250 Y61.250
G1 X75.250 Y61.250
G1 X75.000 Y61.500
G1 X74.750 Y61.750
G1 X74.500 Y61.750
G1 X74.500 Y62.000
G1 X74.250 Y62.250
G1 X74.000 Y62.500
G1 X74.000 Y62.500
G1 X73.750 Y62.750
G1 X73.500 Y63.000
G1 X73.500 Y63.000
G1 X73.250 Y63.250
G1 X73.000 Y63.500
G1 X72.750 Y63.500
G1 X72.750 Y63.750
G1 X72.500 Y64.000
G1 X72.250 Y64.250
G1 X72.250 Y64.250
G1 X72.000 Y64.500
G1 X71.750 Y64.750
G1 X71.500 Y64.750
G1 X71.500 Y65.000
G1 X71.250 Y65.250
G1 X71.000 Y65.500
G1 X71.000 Y65.500
G1 X70.750 Y65.750
G1 X70.500 Y66.000
G1 X70.500 Y66.000
G1 X70.250 Y66.250
G1 X70.000 Y66.500
G1 X69.750 Y66.500
G1 X69.750 Y66.750
G0 Z2.000 F3000
M400
M204 P600 T600
G1 F1500
G0 X70.250 Y67.250 Z2.000
M400
M204 P200 T200
G1 F600
G1 Z0.000 F2500
G1 X70.500 Y67.250
G1 X70.500 Y67.000
G1 X70.750 Y66.750
G1 X71.000 Y66.500
G1 X71.000 Y66.500
G1 X71.250 Y66.250
G1 X71.500 Y66.000
G1 X71.500 Y66.000
G1 X71.750 Y65.750
G1 X72.000 Y65.500
G1 X72.250 Y65.500
G1 X72.250 Y65.250
G1 X72.500 Y65.000
G1 X72.750 Y64.750
G1 X72.750 Y64.750
G1 X73.000 Y64.500
G1 X73.250 Y64.250
G1 X73.500 Y64.250
G1 X73.500 Y64.000
G1 X73.750 Y63.750
G1 X74.000 Y63.500
G1 X74.000 Y63.500
G1 X74.250 Y63.250
G1 X74.500 Y63.000
G1 X74.500 Y63.000
G1 X74.750 Y62.750
G1 X75.000 Y62.500
G1 X75.250 Y62.500
G1 X75.250 Y62.250
G1 X75.500 Y62.000
G1 X75.750 Y61.750
G1 X75.750 Y61.750
G1 X76.000 Y61.500
G1 X76.250 Y61.250
G1 X76.500 Y61.250
G1 X76.500 Y61.000
G1 X76.750 Y60.750
G1 X77.000 Y60.500
G1 X77.000 Y60.500
G1 X77.250 Y60.250
G1 X77.500 Y60.000
G1 X77.750 Y60.000
G1 X77.750 Y59.750
G1 X78.000 Y59.500
G1 X78.250 Y59.500
G1 X78.250 Y59.250
G1 X78.500 Y59.000
G0 Z2.000 F3000
M400
M204 P600 T600
G1 F1500
G0 X79.250 Y59.500 Z2.000
M400
M204 P200 T200
G1 F600
G1 Z0.000 F2500
G1 X79.000 Y59.500
G1 X78.750 Y59.750
G1 X78.750 Y60.000
G1 X78.500 Y60.000
G1 X78.250 Y60.250
G1 X78.250 Y60.500
G1 X78.000 Y60.500
G1 X77.750 Y60.750
G1 X77.750 Y61.000
G1 X77.500 Y61.250
G1 X77.250 Y61.250
G1 X77.000 Y61.500
G1 X77.000 Y61.750
G1 X76.750 Y61.750
G1 X76.500 Y62.000
G1 X76.500 Y62.250
G1 X76.250 Y62.500
G1 X76.000 Y62.500
G1 X75.750 Y62.750
G1 X75.750 Y63.000
G1 X75.500 Y63.000
G1 X75.250 Y63.250
G1 X75.250 Y63.500
G1 X75.000 Y63.500
G1 X74.750 Y63.750
G1 X74.500 Y64.000
G1 X74.500 Y64.250
G1 X74.250 Y64.250
G1 X74.000 Y64.500
G1 X74.000 Y64.750
G1 X73.750 Y64.750
G1 X73.500 Y65.000
G1 X73.500 Y65.250
G1 X73.250 Y65.500
G1 X73.000 Y65.500
G1 X72.750 Y65.750
G1 X72.750 Y66.000
G1 X72.500 Y66.000
G1 X72.250 Y66.250
G1 X72.250 Y66.500
G1 X72.000 Y66.500
G1 X71.750 Y66.750
G1 X71.500 Y67.000
G1 X71.500 Y67.250
G1 X71.250 Y67.250
G1 X71.000 Y67.500
G1 X71.000 Y67.750
G1 X70.750 Y67.750
G0 Z2.000 F3000
M400
M204 P600 T600
G1 F1500
G0 X71.250 Y68.500 Z2.000
M400
M204 P200 T200
G1 F600
G1 Z0.000 F2500
G1 X71.500 Y68.250
G1 X71.500 Y68.000
G1 X71.750 Y67.750
G1 X72.000 Y67.750
G1 X72.250 Y67.500
G1 X72.250 Y67.250
G1 X72.500 Y67.250
G1 X72.750 Y67.000
G1 X72.750 Y66.750
G1 X73.000 Y66.500
G1 X73.250 Y66.500
G1 X73.500 Y66.250
G1 X73.500 Y66.000
G1 X73.750 Y66.000
G1 X74.000 Y65.750
G1 X74.000 Y65.500
G1 X74.250 Y65.500
G1 X74.500 Y65.250
G1 X74.500 Y65.000
G1 X74.750 Y64.750
G1 X75.000 Y64.750
G1 X75.250 Y64.500
G1 X75.250 Y64.250
G1 X75.500 Y64.250
G1 X75.750 Y64.000
G1 X75.750 Y63.750
G1 X76.000 Y63.500
G1 X76.250 Y63.500
G1 X76.500 Y63.250
G1 X76.500 Y63.000
G1 X76.750 Y63.000
G1 X77.000 Y62.750
G1 X77.000 Y62.500
G1 X77.250 Y62.500
G1 X77.500 Y62.250
G1 X77.750 Y62.000
G1 X77.750 Y61.750
G1 X78.000 Y61.750
G1 X78.250 Y61.500
G1 X78.250 Y61.250
G1 X78.500 Y61.250
G1 X78.750 Y61.000
G1 X78.750 Y60.750
G1 X79.000 Y60.500
G1 X79.250 Y60.500
G1 X79.500 Y60.250
G1 X79.500 Y60.000
G1 X79.750 Y60.000
G0 Z2.000 F3000
M400
M204 P600 T600
G1 F1500
G0 X80.250 Y60.500 Z2.000
M400
M204 P200 T200
G1 F600
G1 Z0.000 F2500
G1 X80.000 Y60.500
G1 X80.000 Y60.750
G1 X79.750 Y61.000
G1 X79.500 Y61.250
G1 X79.500 Y61.250
G1 X79.250 Y61.500
G1 X79.000 Y61.750
G1 X78.750 Y61.750
G1 X78.750 Y62.000
G1 X78.500 Y62.250
G1 X78.250 Y62.500
G1 X78.250 Y62.500
G1 X78.000 Y62.750
G1 X77.750 Y63.000
G1 X77.750 Y63.000
G1 X77.500 Y63.250
G1 X77.250 Y63.500
G1 X77.000 Y63.500
G1 X77.000 Y63.750
G1 X76.750 Y64.000
G1 X76.500 Y64.250
G1 X76.500 Y64.250
G1 X76.250 Y64.500
G1 X76.000 Y64.750
G1 X75.750 Y64.750
G1 X75.750 Y65.000
G1 X75.500 Y65.250
G1 X75.250 Y65.500
G1 X75.250 Y65.500
G1 X75.000 Y65.750
G1 X74.750 Y66.000
G1 X74.500 Y66.000
G1 X74.500 Y66.250
G1 X74.250 Y66.500
G1 X74.000 Y66.500
G1 X74.000 Y66.750
G1 X73.750 Y67.000
G1 X73.500 Y67.250
G1 X73.500 Y67.250
G1 X73.250 Y67.500
G1 X73.000 Y67.750
G1 X72.750 Y67.750
G1 X72.750 Y68.000
G1 X72.500 Y68.250
G1 X72.250 Y68.500
G1 X72.250 Y68.500
G1 X72.000 Y68.750
G1 X71.750 Y69.000
G0 Z2.000 F3000
M400
M204 P600 T600
G1 F1500
G0 X72.250 Y69.750 Z2.000
M400
M204 P200 T200
G1 F600
G1 Z0.000 F2500
G1 X72.250 Y69.500
G1 X72.500 Y69.250
G1 X72.750 Y69.000
G1 X72.750 Y69.000
G1 X73.000 Y68.750
G1 X73.250 Y68.500
G1 X73.500 Y68.500
G1 X73.500 Y68.250
G1 X73.750 Y68.000
G1 X74.000 Y67.750
G1 X74.000 Y67.750
G1 X74.250 Y67.500
G1 X74.500 Y67.250
G1 X74.500 Y67.250
G1 X74.750 Y67.000
G1 X75.000 Y66.750
G1 X75.250 Y66.500
G1 X75.250 Y66.500
G1 X75.500 Y66.250
G1 X75.750 Y66.000
G1 X75.750 Y66.000
G1 X76.000 Y65.750
G1 X76.250 Y65.500
G1 X76.500 Y65.500
G1 X76.500 Y65.250
G1 X76.750 Y65.000
G1 X77.000 Y64.750
G1 X77.000 Y64.750
G1 X77.250 Y64.500
G1 X77.500 Y64.250
G1 X77.750 Y64.250
G1 X77.750 Y64.000
G1 X78.000 Y63.750
G1 X78.250 Y63.500
G1 X78.250 Y63.500
G1 X78.500 Y63.250
G1 X78.750 Y63.000
G1 X78.750 Y63.000
G1 X79.000 Y62.750
G1 X79.250 Y62.500
G0 Z2.000 F3000

; --- CIKEL NAMAKANJA ---
G0 Z2.000 F3000
M400
M204 P600 T600
G1 F1500
G0 X72.559 Y5.042 Z7.000
G1 Z1.000 F3000
G1 X72.559 Y5.042 F2500
G1 X72.559 Y7.542 F2500
G1 X67.559 Y5.042 F2500
G1 X72.559 Y0.000 F2500
G0 Z19.000 F3000
G0 X86.852 Y18.737
G0 Z7.000 F3000
G0 X79.500 Y62.500 Z2.000
M400
M204 P200 T200
G1 F600
G1 Z0.000 F2500
G1 X79.500 Y62.500
G1 X79.500 Y62.250
G1 X79.750 Y62.000
G1 X80.000 Y61.750
G1 X80.000 Y61.750
G1 X80.250 Y61.500
G1 X80.500 Y61.250
G1 X80.750 Y61.250
G1 X80.750 Y61.000
G0 Z2.000 F3000
M400
M204 P600 T600
G1 F1500
G0 X81.250 Y61.500 Z2.000
M400
M204 P200 T200
G1 F600
G1 Z0.000 F2500
G1 X81.250 Y61.750
G1 X81.000 Y61.750
G1 X80.750 Y62.000
G1 X80.750 Y62.250
G1 X80.500 Y62.500
G1 X80.250 Y62.500
G1 X80.000 Y62.750
G1 X80.000 Y63.000
G1 X79.750 Y63.000
G1 X79.500 Y63.250
G1 X79.500 Y63.500
G1 X79.250 Y63.500
G1 X79.000 Y63.750
G1 X78.750 Y64.000
G1 X78.750 Y64.250
G1 X78.500 Y64.250
G1 X78.250 Y64.500
G1 X78.250 Y64.750
G1 X78.000 Y64.750
G1 X77.750 Y65.000
G1 X77.750 Y65.250
G1 X77.500 Y65.500
G1 X77.250 Y65.500
G1 X77.000 Y65.750
G1 X77.000 Y66.000
G1 X76.750 Y66.000
G1 X76.500 Y66.250
G1 X76.500 Y66.500
G1 X76.250 Y66.500
G1 X76.000 Y66.750
G1 X75.750 Y67.000
G1 X75.750 Y67.250
G1 X75.500 Y67.250
G1 X75.250 Y67.500
G1 X75.250 Y67.750
G1 X75.000 Y67.750
G1 X74.750 Y68.000
G1 X74.500 Y68.250
G1 X74.500 Y68.500
G1 X74.250 Y68.500
G1 X74.000 Y68.750
G1 X74.000 Y69.000
G1 X73.750 Y69.000
G1 X73.500 Y69.250
G1 X73.500 Y69.500
G1 X73.250 Y69.750
G1 X73.000 Y69.750
G1 X72.750 Y70.000
G1 X72.750 Y70.250
G0 Z2.000 F3000
M400
M204 P600 T600
G1 F1500
G0 X73.250 Y70.750 Z2.000
M400
M204 P200 T200
G1 F600
G1 Z0.000 F2500
G1 X73.500 Y70.500
G1 X73.500 Y70.250
G1 X73.750 Y70.250
G1 X74.000 Y70.000
G1 X74.000 Y69.750
G1 X74.250 Y69.750
G1 X74.500 Y69.500
G1 X74.500 Y69.250
G1 X74.750 Y69.000
G1 X75.000 Y69.000
G1 X75.250 Y68.750
G1 X75.250 Y68.500
G1 X75.500 Y68.500
G1 X75.750 Y68.250
G1 X75.750 Y68.000
G1 X76.000 Y67.750
G1 X76.250 Y67.750
G1 X76.500 Y67.500
G1 X76.500 Y67.250
G1 X76.750 Y67.250
G1 X77.000 Y67.000
G1 X77.000 Y66.750
G1 X77.250 Y66.500
G1 X77.500 Y66.500
G1 X77.750 Y66.250
G1 X77.750 Y66.000
G1 X78.000 Y66.000
G1 X78.250 Y65.750
G1 X78.250 Y65.500
G1 X78.500 Y65.500
G1 X78.750 Y65.250
G1 X78.750 Y65.000
G1 X79.000 Y64.750
G1 X79.250 Y64.750
G1 X79.500 Y64.500
G1 X79.500 Y64.250
G1 X79.750 Y64.250
G1 X80.000 Y64.000
G1 X80.000 Y63.750
G1 X80.250 Y63.500
G1 X80.500 Y63.500
G1 X80.750 Y63.250
G1 X80.750 Y63.000
G1 X81.000 Y63.000
G1 X81.250 Y62.750
G1 X81.250 Y62.500
G1 X81.500 Y62.500
G1 X81.750 Y62.250
G1 X81.750 Y62.000
G0 Z2.000 F3000
M400
M204 P600 T600
G1 F1500
G0 X82.250 Y62.750 Z2.000
M400
M204 P200 T200
G1 F600
G1 Z0.000 F2500
G1 X82.000 Y63.000
G1 X81.750 Y63.000
G1 X81.750 Y63.250
G1 X81.500 Y63.500
G1 X81.250 Y63.500
G1 X81.250 Y63.750
G1 X81.000 Y64.000
G1 X80.750 Y64.250
G1 X80.750 Y64.250
G1 X80.500 Y64.500
G1 X80.250 Y64.750
G1 X80.000 Y64.750
G1 X80.000 Y65.000
G1 X79.750 Y65.250
G1 X79.500 Y65.500
G1 X79.500 Y65.500
G1 X79.250 Y65.750
G1 X79.000 Y66.000
G1 X78.750 Y66.000
G1 X78.750 Y66.250
G1 X78.500 Y66.500
G1 X78.250 Y66.500
G1 X78.250 Y66.750
G1 X78.000 Y67.000
G1 X77.750 Y67.250
G1 X77.750 Y67.250
G1 X77.500 Y67.500
G1 X77.250 Y67.750
G1 X77.000 Y67.750
G1 X77.000 Y68.000
G1 X76.750 Y68.250
G1 X76.500 Y68.500
G1 X76.500 Y68.500
G1 X76.250 Y68.750
G1 X76.000 Y69.000
G1 X75.750 Y69.000
G1 X75.750 Y69.250
G1 X75.500 Y69.500
G1 X75.250 Y69.750
G1 X75.250 Y69.750
G1 X75.000 Y70.000
G1 X74.750 Y70.250
G1 X74.500 Y70.250
G1 X74.500 Y70.500
G1 X74.250 Y70.750
G1 X74.000 Y70.750
G1 X74.000 Y71.000
G1 X73.750 Y71.250
G0 Z2.000 F3000
M400
M204 P600 T600
G1 F1500
G0 X74.250 Y71.750 Z2.000
M400
M204 P200 T200
G1 F600
G1 Z0.000 F2500
G1 X74.500 Y71.500
G1 X74.500 Y71.500
G1 X74.750 Y71.250
G1 X75.000 Y71.000
G1 X75.250 Y70.750
G1 X75.250 Y70.750
G1 X75.500 Y70.500
G1 X75.750 Y70.250
G1 X75.750 Y70.250
G1 X76.000 Y70.000
G1 X76.250 Y69.750
G1 X76.500 Y69.750
G1 X76.500 Y69.500
G1 X76.750 Y69.250
G1 X77.000 Y69.000
G1 X77.000 Y69.000
G1 X77.250 Y68.750
G1 X77.500 Y68.500
G1 X77.750 Y68.500
G1 X77.750 Y68.250
G1 X78.000 Y68.000
G1 X78.250 Y67.750
G1 X78.250 Y67.750
G1 X78.500 Y67.500
G1 X78.750 Y67.250
G1 X78.750 Y67.250
G1 X79.000 Y67.000
G1 X79.250 Y66.750
G1 X79.500 Y66.500
G1 X79.500 Y66.500
G1 X79.750 Y66.250
G1 X80.000 Y66.000
G1 X80.000 Y66.000
G1 X80.250 Y65.750
G1 X80.500 Y65.500
G1 X80.750 Y65.500
G1 X80.750 Y65.250
G1 X81.000 Y65.000
G1 X81.250 Y64.750
G1 X81.250 Y64.750
G1 X81.500 Y64.500
G1 X81.750 Y64.250
G1 X81.750 Y64.250
G1 X82.000 Y64.000
G1 X82.250 Y63.750
G1 X82.500 Y63.500
G1 X82.500 Y63.500
G1 X82.750 Y63.250
G0 Z2.000 F3000
M400
M204 P600 T600
G1 F1500
G0 X83.000 Y64.000 Z2.000
M400
M204 P200 T200
G1 F600
G1 Z0.000 F2500
G1 X83.000 Y64.250
G1 X82.750 Y64.250
G1 X82.500 Y64.500
G1 X82.500 Y64.750
G1 X82.250 Y64.750
G1 X82.000 Y65.000
G1 X81.750 Y65.250
G1 X81.750 Y65.500
G1 X81.500 Y65.500
G1 X81.250 Y65.750
G1 X81.250 Y66.000
G1 X81.000 Y66.000
G1 X80.750 Y66.250
G1 X80.750 Y66.500
G1 X80.500 Y66.500
G1 X80.250 Y66.750
G1 X80.000 Y67.000
G1 X80.000 Y67.250
G1 X79.750 Y67.250
G1 X79.500 Y67.500
G1 X79.500 Y67.750
G1 X79.250 Y67.750
G1 X79.000 Y68.000
G1 X78.750 Y68.250
G1 X78.750 Y68.500
G1 X78.500 Y68.500
G1 X78.250 Y68.750
G1 X78.250 Y69.000
G1 X78.000 Y69.000
G1 X77.750 Y69.250
G1 X77.750 Y69.500
G1 X77.500 Y69.750
G1 X77.250 Y69.750
G1 X77.000 Y70.000
G1 X77.000 Y70.250
G1 X76.750 Y70.250
G1 X76.500 Y70.500
G1 X76.500 Y70.750
G1 X76.250 Y70.750
G1 X76.000 Y71.000
G1 X75.750 Y71.250
G1 X75.750 Y71.500
G1 X75.500 Y71.500
G1 X75.250 Y71.750
G1 X75.250 Y72.000
G1 X75.000 Y72.000
G1 X74.750 Y72.250
G1 X74.500 Y72.500
G0 Z2.000 F3000
M400
M204 P600 T600
G1 F1500
G0 X75.000 Y73.250 Z2.000
M400
M204 P200 T200
G1 F600
G1 Z0.000 F2500
G1 X75.250 Y73.000
G1 X75.250 Y72.750
G1 X75.500 Y72.750
G1 X75.750 Y72.500
G1 X75.750 Y72.250
G1 X76.000 Y72.000
G1 X76.250 Y72.000
G1 X76.500 Y71.750
G1 X76.500 Y71.500
G1 X76.750 Y71.500
G1 X77.000 Y71.250
G1 X77.000 Y71.000
G1 X77.250 Y70.750
G1 X77.500 Y70.750
G1 X77.750 Y70.500
G1 X77.750 Y70.250
G1 X78.000 Y70.250
G1 X78.250 Y70.000
G1 X78.250 Y69.750
G1 X78.500 Y69.750
G1 X78.750 Y69.500
G1 X78.750 Y69.250
G1 X79.000 Y69.000
G1 X79.250 Y69.000
G1 X79.500 Y68.750
G1 X79.500 Y68.500
G1 X79.750 Y68.500
G1 X80.000 Y68.250
G1 X80.000 Y68.000
G1 X80.250 Y67.750
G1 X80.500 Y67.750
G1 X80.750 Y67.500
G1 X80.750 Y67.250
G1 X81.000 Y67.250
G1 X81.250 Y67.000
G1 X81.250 Y66.750
G1 X81.500 Y66.500
G0 Z2.000 F3000
M400
M204 P600 T600
G1 F1500
G0 X79.750 Y69.500 Z2.000
M400
M204 P200 T200
G1 F600
G1 Z0.000 F2500
G1 X79.500 Y69.750
G1 X79.500 Y69.750
G1 X79.250 Y70.000
G1 X79.000 Y70.250
G1 X78.750 Y70.250
G1 X78.750 Y70.500
G1 X78.500 Y70.750
G1 X78.250 Y70.750
G1 X78.250 Y71.000
G1 X78.000 Y71.250
G1 X77.750 Y71.500
G1 X77.750 Y71.500
G1 X77.500 Y71.750
G1 X77.250 Y72.000
G1 X77.000 Y72.000
G1 X77.000 Y72.250
G1 X76.750 Y72.500
G1 X76.500 Y72.750
G1 X76.500 Y72.750
G1 X76.250 Y73.000
G1 X76.000 Y73.250
G1 X75.750 Y73.250
G1 X75.750 Y73.500
G1 X75.500 Y73.750
G1 X75.250 Y73.750
G0 Z2.000 F3000
M400
M204 P600 T600
G1 F1500
G0 X75.750 Y74.500 Z2.000
M400
M204 P200 T200
G1 F600
G1 Z0.000 F2500
G1 X75.750 Y74.500
G1 X76.000 Y74.250
G1 X76.250 Y74.000
G1 X76.500 Y73.750
G1 X76.500 Y73.750
G1 X76.750 Y73.500
G1 X77.000 Y73.250
G1 X77.000 Y73.250
G1 X77.250 Y73.000
G1 X77.500 Y72.750
G1 X77.750 Y72.750
G1 X77.750 Y72.500
G1 X78.000 Y72.250
G1 X78.250 Y72.000
G1 X78.250 Y72.000
G1 X78.500 Y71.750
G1 X78.750 Y71.500
G1 X78.750 Y71.500
G1 X79.000 Y71.250
G1 X79.250 Y71.000
G1 X79.500 Y70.750
G1 X79.500 Y70.750
G1 X79.750 Y70.500
G1 X80.000 Y70.250
G1 X80.000 Y70.250
G1 X80.250 Y70.000
G0 Z2.000 F3000
M400
M204 P600 T600
G1 F1500
G0 X80.500 Y70.750 Z2.000
M400
M204 P200 T200
G1 F600
G1 Z0.000 F2500
G1 X80.250 Y71.000
G1 X80.000 Y71.250
G1 X80.000 Y71.500
G1 X79.750 Y71.500
G1 X79.500 Y71.750
G1 X79.500 Y72.000
G1 X79.250 Y72.000
G1 X79.000 Y72.250
G1 X78.750 Y72.500
G1 X78.750 Y72.750
G1 X78.500 Y72.750
G1 X78.250 Y73.000
G0 Z2.000 F3000

; --- CIKEL NAMAKANJA ---
G0 Z2.000 F3000
M400
M204 P600 T600
G1 F1500
G0 X110.703 Y0.000 Z7.000
G1 Z1.000 F3000
G1 X110.703 Y0.000 F2500
G1 X110.703 Y2.500 F2500
G1 X105.703 Y0.000 F2500
G1 X110.703 Y0.000 F2500
G0 Z19.000 F3000
G0 X86.991 Y18.760
G0 Z7.000 F3000
G0 X78.250 Y73.250 Z2.000
M400
M204 P200 T200
G1 F600
G1 Z0.000 F2500
G1 X78.250 Y73.250
G1 X78.000 Y73.250
G1 X77.750 Y73.500
G1 X77.750 Y73.750
G1 X77.500 Y73.750
G1 X77.250 Y74.000
G1 X77.000 Y74.250
G1 X77.000 Y74.500
G1 X76.750 Y74.500
G1 X76.500 Y74.750
G1 X76.500 Y75.000
G1 X76.250 Y75.000
G0 Z2.000 F3000
M400
M204 P600 T600
G1 F1500
G0 X76.500 Y76.000 Z2.000
M400
M204 P200 T200
G1 F600
G1 Z0.000 F2500
G1 X76.500 Y75.750
G1 X76.750 Y75.750
G1 X77.000 Y75.500
G1 X77.000 Y75.250
G1 X77.250 Y75.000
G1 X77.500 Y75.000
G1 X77.750 Y74.750
G1 X77.750 Y74.500
G1 X78.000 Y74.500
G1 X78.250 Y74.250
G1 X78.250 Y74.000
G1 X78.500 Y73.750
G1 X78.750 Y73.750
G1 X78.750 Y73.500
G1 X79.000 Y73.250
G1 X79.250 Y73.250
G1 X79.500 Y73.000
G1 X79.500 Y72.750
G1 X79.750 Y72.750
G1 X80.000 Y72.500
G1 X80.000 Y72.250
G1 X80.250 Y72.000
G1 X80.500 Y72.000
G1 X80.750 Y71.750
G1 X80.750 Y71.500
G1 X81.000 Y71.500
G0 Z2.000 F3000
M400
M204 P600 T600
G1 F1500
G0 X81.250 Y72.000 Z2.000
M400
M204 P200 T200
G1 F600
G1 Z0.000 F2500
G1 X81.250 Y72.250
G1 X81.000 Y72.500
G1 X80.750 Y72.750
G1 X80.750 Y72.750
G1 X80.500 Y73.000
G1 X80.250 Y73.250
G1 X80.000 Y73.250
G1 X80.000 Y73.500
G1 X79.750 Y73.750
G1 X79.500 Y73.750
G1 X79.500 Y74.000
G1 X79.250 Y74.250
G1 X79.000 Y74.500
G1 X78.750 Y74.500
G1 X78.750 Y74.750
G1 X78.500 Y75.000
G1 X78.250 Y75.000
G1 X78.250 Y75.250
G1 X78.000 Y75.500
G1 X77.750 Y75.750
G1 X77.750 Y75.750
G1 X77.500 Y76.000
G1 X77.250 Y76.250
G1 X77.000 Y76.250
G1 X77.000 Y76.500
G0 Z2.000 F3000
M400
M204 P600 T600
G1 F1500
G0 X77.250 Y77.250 Z2.000
M400
M204 P200 T200
G1 F600
G1 Z0.000 F2500
G1 X77.500 Y77.000
G1 X77.750 Y77.000
G1 X77.750 Y76.750
G1 X78.000 Y76.500
G1 X78.250 Y76.250
G1 X78.250 Y76.250
G1 X78.500 Y76.000
G1 X78.750 Y75.750
G1 X78.750 Y75.750
G1 X79.000 Y75.500
G1 X79.250 Y75.250
G1 X79.500 Y75.000
G1 X79.500 Y75.000
G1 X79.750 Y74.750
G1 X80.000 Y74.500
G1 X80.000 Y74.500
G1 X80.250 Y74.250
G1 X80.500 Y74.000
G1 X80.750 Y73.750
G1 X80.750 Y73.750
G1 X81.000 Y73.500
G1 X81.250 Y73.250
G1 X81.250 Y73.250
G1 X81.500 Y73.000
G1 X81.750 Y72.750
G1 X81.750 Y72.750
G0 Z2.000 F3000
M400
M204 P600 T600
G1 F1500
G0 X82.000 Y73.500 Z2.000
M400
M204 P200 T200
G1 F600
G1 Z0.000 F2500
G1 X81.750 Y73.750
G1 X81.750 Y73.750
G1 X81.500 Y74.000
G1 X81.250 Y74.250
G1 X81.250 Y74.500
G1 X81.000 Y74.500
G1 X80.750 Y74.750
G1 X80.750 Y75.000
G1 X80.500 Y75.000
G1 X80.250 Y75.250
G1 X80.000 Y75.500
G1 X80.000 Y75.750
G1 X79.750 Y75.750
G1 X79.500 Y76.000
G1 X79.500 Y76.250
G1 X79.250 Y76.250
G1 X79.000 Y76.500
G1 X78.750 Y76.750
G1 X78.750 Y77.000
G1 X78.500 Y77.000
G1 X78.250 Y77.250
G1 X78.250 Y77.500
G1 X78.000 Y77.500
G1 X77.750 Y77.750
G1 X77.750 Y78.000
G1 X77.500 Y78.000
G0 Z2.000 F3000
M400
M204 P600 T600
G1 F1500
G0 X77.750 Y78.750 Z2.000
M400
M204 P200 T200
G1 F600
G1 Z0.000 F2500
G1 X78.000 Y78.750
G1 X78.250 Y78.500
G1 X78.250 Y78.250
G1 X78.500 Y78.000
G1 X78.750 Y78.000
G1 X78.750 Y77.750
G1 X79.000 Y77.500
G1 X79.250 Y77.500
G1 X79.500 Y77.250
G1 X79.500 Y77.000
G1 X79.750 Y77.000
G1 X80.000 Y76.750
G1 X80.000 Y76.500
G1 X80.250 Y76.250
G1 X80.500 Y76.250
G1 X80.750 Y76.000
G1 X80.750 Y75.750
G1 X81.000 Y75.750
G1 X81.250 Y75.500
G1 X81.250 Y75.250
G1 X81.500 Y75.000
G1 X81.750 Y75.000
G1 X81.750 Y74.750
G1 X82.000 Y74.500
G1 X82.250 Y74.500
G1 X82.500 Y74.250
G1 X82.500 Y74.000
G1 X82.750 Y73.750
G1 X83.000 Y73.750
G0 Z2.000 F3000
M400
M204 P600 T600
G1 F1500
G0 X84.000 Y73.750 Z2.000
M400
M204 P200 T200
G1 F600
G1 Z0.000 F2500
G1 X83.750 Y73.750
G1 X83.750 Y74.000
G1 X83.500 Y74.250
G1 X83.250 Y74.500
G1 X83.000 Y74.500
G1 X83.000 Y74.750
G1 X82.750 Y75.000
G1 X82.500 Y75.000
G1 X82.500 Y75.250
G1 X82.250 Y75.500
G1 X82.000 Y75.750
G1 X81.750 Y75.750
G1 X81.750 Y76.000
G1 X81.500 Y76.250
G1 X81.250 Y76.250
G1 X81.250 Y76.500
G1 X81.000 Y76.750
G1 X80.750 Y77.000
G1 X80.750 Y77.000
G1 X80.500 Y77.250
G1 X80.250 Y77.500
G1 X80.000 Y77.500
G1 X80.000 Y77.750
G1 X79.750 Y78.000
G1 X79.500 Y78.000
G1 X79.500 Y78.250
G1 X79.250 Y78.500
G1 X79.000 Y78.750
G1 X78.750 Y78.750
G1 X78.750 Y79.000
G1 X78.500 Y79.250
G1 X78.250 Y79.250
G1 X78.250 Y79.500
G0 Z2.000 F3000
M400
M204 P600 T600
G1 F1500
G0 X78.500 Y80.250 Z2.000
M400
M204 P200 T200
G1 F600
G1 Z0.000 F2500
G1 X78.750 Y80.000
G1 X78.750 Y80.000
G1 X79.000 Y79.750
G1 X79.250 Y79.500
G1 X79.500 Y79.250
G1 X79.500 Y79.250
G1 X79.750 Y79.000
G1 X80.000 Y78.750
G1 X80.000 Y78.750
G1 X80.250 Y78.500
G1 X80.500 Y78.250
G1 X80.750 Y78.000
G1 X80.750 Y78.000
G1 X81.000 Y77.750
G1 X81.250 Y77.500
G1 X81.250 Y77.500
G1 X81.500 Y77.250
G1 X81.750 Y77.000
G1 X81.750 Y77.000
G1 X82.000 Y76.750
G1 X82.250 Y76.500
G1 X82.500 Y76.250
G1 X82.500 Y76.250
G1 X82.750 Y76.000
G1 X83.000 Y75.750
G1 X83.000 Y75.750
G1 X83.250 Y75.500
G1 X83.500 Y75.250
G1 X83.750 Y75.000
G1 X83.750 Y75.000
G1 X84.000 Y74.750
G1 X84.250 Y74.500
G1 X84.250 Y74.500
G1 X84.500 Y74.250
G1 X84.750 Y74.000
G1 X85.000 Y73.750
G1 X85.000 Y73.750
G1 X85.250 Y73.500
G0 Z2.000 F3000
M400
M204 P600 T600
G1 F1500
G0 X91.000 Y80.500 Z2.000
M400
M204 P200 T200
G1 F600
G1 Z0.000 F2500
G1 X91.000 Y80.500
G1 X90.750 Y80.750
G1 X90.500 Y81.000
G1 X90.250 Y81.000
G1 X90.250 Y81.250
G1 X90.000 Y81.500
G1 X89.750 Y81.750
G1 X89.750 Y81.750
G1 X89.500 Y82.000
G0 Z2.000 F3000
M400
M204 P600 T600
G1 F1500
G0 X87.250 Y83.250 Z2.000
M400
M204 P200 T200
G1 F600
G1 Z0.000 F2500
G1 X87.250 Y83.000
G1 X87.500 Y83.000
G1 X87.750 Y82.750
G1 X88.000 Y82.500
G1 X88.000 Y82.250
G1 X88.250 Y82.250
G1 X88.500 Y82.000
G1 X88.500 Y81.750
G1 X88.750 Y81.750
G1 X89.000 Y81.500
G1 X89.000 Y81.250
G1 X89.250 Y81.000
G1 X89.500 Y81.000
G1 X89.750 Y80.750
G1 X89.750 Y80.500
G1 X90.000 Y80.500
G1 X90.250 Y80.250
G1 X90.250 Y80.000
G1 X90.500 Y80.000
G1 X90.750 Y79.750
G0 Z2.000 F3000
M400
M204 P600 T600
G1 F1500
G0 X89.000 Y74.000 Z2.000
M400
M204 P200 T200
G1 F600
G1 Z0.000 F2500
G1 X88.750 Y74.250
G1 X88.500 Y74.500
G1 X88.500 Y74.500
G1 X88.250 Y74.750
G1 X88.000 Y75.000
G1 X88.000 Y75.000
G1 X87.750 Y75.250
G1 X87.500 Y75.500
G1 X87.250 Y75.750
G1 X87.250 Y75.750
G1 X87.000 Y76.000
G1 X86.750 Y76.250
G1 X86.750 Y76.250
G1 X86.500 Y76.500
G1 X86.250 Y76.750
G1 X86.000 Y77.000
G1 X86.000 Y77.000
G1 X85.750 Y77.250
G1 X85.500 Y77.500
G1 X85.500 Y77.500
G1 X85.250 Y77.750
G1 X85.000 Y78.000
G1 X85.000 Y78.000
G1 X84.750 Y78.250
G1 X84.500 Y78.500
G1 X84.250 Y78.750
G1 X84.250 Y78.750
G1 X84.000 Y79.000
G1 X83.750 Y79.250
G1 X83.750 Y79.250
G1 X83.500 Y79.500
G1 X83.250 Y79.750
G1 X83.000 Y80.000
G1 X83.000 Y80.000
G1 X82.750 Y80.250
G1 X82.500 Y80.500
G1 X82.500 Y80.500
G1 X82.250 Y80.750
G1 X82.000 Y81.000
G1 X81.750 Y81.000
G1 X81.750 Y81.250
G1 X81.500 Y81.500
G1 X81.250 Y81.750
G1 X81.250 Y81.750
G1 X81.000 Y82.000
G1 X80.750 Y82.250
G1 X80.750 Y82.250
G1 X80.500 Y82.500
G1 X80.250 Y82.750
G1 X80.000 Y83.000
G1 X80.000 Y83.000
G1 X79.750 Y83.250
G1 X79.500 Y83.500
G1 X79.500 Y83.500
G1 X79.250 Y83.750
G0 Z2.000 F3000
M400
M204 P600 T600
G1 F1500
G0 X78.500 Y81.250 Z2.000
M400
M204 P200 T200
G1 F600
G1 Z0.000 F2500
G1 X78.750 Y81.000
G1 X78.750 Y81.000
G1 X79.000 Y80.750
G1 X79.250 Y80.500
G1 X79.500 Y80.500
G1 X79.500 Y80.250
G1 X79.750 Y80.000
G1 X80.000 Y80.000
G1 X80.000 Y79.750
G1 X80.250 Y79.500
G1 X80.500 Y79.250
G1 X80.750 Y79.250
G1 X80.750 Y79.000
G1 X81.000 Y78.750
G1 X81.250 Y78.750
G1 X81.250 Y78.500
G1 X81.500 Y78.250
G1 X81.750 Y78.000
G1 X81.750 Y78.000
G1 X82.000 Y77.750
G1 X82.250 Y77.500
G1 X82.500 Y77.500
G1 X82.500 Y77.250
G1 X82.750 Y77.000
G1 X83.000 Y77.000
G1 X83.000 Y76.750
G1 X83.250 Y76.500
G0 Z2.000 F3000

; --- CIKEL NAMAKANJA ---
G0 Z2.000 F3000
M400
M204 P600 T600
G1 F1500
G0 X110.600 Y9.927 Z7.000
G1 Z1.000 F3000
G1 X110.600 Y9.927 F2500
G1 X110.600 Y12.427 F2500
G1 X105.600 Y9.927 F2500
G1 X110.600 Y2.427 F2500
G0 Z19.000 F3000
G0 X88.386 Y18.931
G0 Z7.000 F3000
G0 X83.500 Y76.250 Z2.000
M400
M204 P200 T200
G1 F600
G1 Z0.000 F2500
G1 X83.500 Y76.250
G1 X83.750 Y76.250
G1 X83.750 Y76.000
G1 X84.000 Y75.750
G1 X84.250 Y75.750
G1 X84.250 Y75.500
G1 X84.500 Y75.250
G1 X84.750 Y75.000
G1 X85.000 Y75.000
G1 X85.000 Y74.750
G1 X85.250 Y74.500
G1 X85.500 Y74.500
G1 X85.500 Y74.250
G1 X85.750 Y74.000
G1 X86.000 Y73.750
G1 X86.000 Y73.750
G1 X86.250 Y73.500
G0 Z2.000 F3000
M400
M204 P600 T600
G1 F1500
G0 X87.750 Y73.250 Z2.000
M400
M204 P200 T200
G1 F600
G1 Z0.000 F2500
G1 X87.500 Y73.250
G1 X87.250 Y73.500
G1 X87.250 Y73.750
G1 X87.000 Y73.750
G1 X86.750 Y74.000
G1 X86.750 Y74.250
G1 X86.500 Y74.500
G1 X86.250 Y74.500
G1 X86.000 Y74.750
G1 X86.000 Y75.000
G1 X85.750 Y75.000
G1 X85.500 Y75.250
G1 X85.500 Y75.500
G1 X85.250 Y75.750
G1 X85.000 Y75.750
G1 X85.000 Y76.000
G1 X84.750 Y76.250
G1 X84.500 Y76.250
G1 X84.250 Y76.500
G1 X84.250 Y76.750
G1 X84.000 Y77.000
G1 X83.750 Y77.000
G1 X83.750 Y77.250
G1 X83.500 Y77.500
G1 X83.250 Y77.500
G1 X83.000 Y77.750
G1 X83.000 Y78.000
G1 X82.750 Y78.000
G1 X82.500 Y78.250
G1 X82.500 Y78.500
G1 X82.250 Y78.750
G1 X82.000 Y78.750
G1 X81.750 Y79.000
G1 X81.750 Y79.250
G1 X81.500 Y79.250
G1 X81.250 Y79.500
G1 X81.250 Y79.750
G1 X81.000 Y80.000
G1 X80.750 Y80.000
G1 X80.750 Y80.250
G1 X80.500 Y80.500
G1 X80.250 Y80.500
G1 X80.000 Y80.750
G1 X80.000 Y81.000
G1 X79.750 Y81.000
G1 X79.500 Y81.250
G1 X79.500 Y81.500
G1 X79.250 Y81.750
G1 X79.000 Y81.750
G1 X78.750 Y82.000
G1 X78.750 Y82.250
G0 Z2.000 F3000
M400
M204 P600 T600
G1 F1500
G0 X79.000 Y83.000 Z2.000
M400
M204 P200 T200
G1 F600
G1 Z0.000 F2500
G1 X79.250 Y82.750
G1 X79.500 Y82.500
G1 X79.500 Y82.250
G1 X79.750 Y82.250
G1 X80.000 Y82.000
G1 X80.000 Y81.750
G1 X80.250 Y81.750
G1 X80.500 Y81.500
G1 X80.750 Y81.250
G1 X80.750 Y81.000
G1 X81.000 Y81.000
G1 X81.250 Y80.750
G1 X81.250 Y80.500
G1 X81.500 Y80.500
G1 X81.750 Y80.250
G1 X81.750 Y80.000
G1 X82.000 Y80.000
G1 X82.250 Y79.750
G1 X82.500 Y79.500
G1 X82.500 Y79.250
G1 X82.750 Y79.250
G1 X83.000 Y79.000
G1 X83.000 Y78.750
G1 X83.250 Y78.750
G1 X83.500 Y78.500
G1 X83.750 Y78.250
G1 X83.750 Y78.000
G1 X84.000 Y78.000
G1 X84.250 Y77.750
G1 X84.250 Y77.500
G1 X84.500 Y77.500
G1 X84.750 Y77.250
G1 X85.000 Y77.000
G1 X85.000 Y77.000
G1 X85.250 Y76.750
G1 X85.500 Y76.500
G1 X85.500 Y76.250
G1 X85.750 Y76.250
G1 X86.000 Y76.000
G1 X86.000 Y75.750
G1 X86.250 Y75.750
G1 X86.500 Y75.500
G1 X86.750 Y75.250
G1 X86.750 Y75.000
G1 X87.000 Y75.000
G1 X87.250 Y74.750
G1 X87.250 Y74.500
G1 X87.500 Y74.500
G1 X87.750 Y74.250
G1 X88.000 Y74.000
G1 X88.000 Y73.750
G1 X88.250 Y73.750
G1 X88.500 Y73.500
G1 X88.500 Y73.250
G0 Z2.000 F3000
M400
M204 P600 T600
G1 F1500
G0 X89.250 Y74.750 Z2.000
M400
M204 P200 T200
G1 F600
G1 Z0.000 F2500
G1 X89.000 Y75.000
G1 X89.000 Y75.000
G1 X88.750 Y75.250
G1 X88.500 Y75.500
G1 X88.500 Y75.750
G1 X88.250 Y75.750
G1 X88.000 Y76.000
G1 X88.000 Y76.250
G1 X87.750 Y76.250
G1 X87.500 Y76.500
G1 X87.250 Y76.750
G1 X87.250 Y77.000
G1 X87.000 Y77.000
G1 X86.750 Y77.250
G1 X86.750 Y77.500
G1 X86.500 Y77.500
G1 X86.250 Y77.750
G1 X86.000 Y78.000
G1 X86.000 Y78.000
G1 X85.750 Y78.250
G1 X85.500 Y78.500
G1 X85.500 Y78.750
G1 X85.250 Y78.750
G1 X85.000 Y79.000
G1 X85.000 Y79.250
G1 X84.750 Y79.250
G1 X84.500 Y79.500
G1 X84.250 Y79.750
G1 X84.250 Y80.000
G1 X84.000 Y80.000
G1 X83.750 Y80.250
G1 X83.750 Y80.500
G1 X83.500 Y80.500
G1 X83.250 Y80.750
G1 X83.000 Y81.000
G1 X83.000 Y81.000
G1 X82.750 Y81.250
G1 X82.500 Y81.500
G1 X82.500 Y81.750
G1 X82.250 Y81.750
G1 X82.000 Y82.000
G1 X81.750 Y82.250
G1 X81.750 Y82.250
G1 X81.500 Y82.500
G1 X81.250 Y82.750
G1 X81.250 Y83.000
G1 X81.000 Y83.000
G1 X80.750 Y83.250
G1 X80.750 Y83.500
G1 X80.500 Y83.500
G1 X80.250 Y83.750
G1 X80.000 Y84.000
G1 X80.000 Y84.250
G1 X79.750 Y84.250
G1 X79.500 Y84.500
G1 X79.500 Y84.750
G1 X79.250 Y84.750
G0 Z2.000 F3000
M400
M204 P600 T600
G1 F1500
G0 X79.500 Y85.750 Z2.000
M400
M204 P200 T200
G1 F600
G1 Z0.000 F2500
G1 X79.500 Y85.500
G1 X79.750 Y85.250
G1 X80.000 Y85.250
G1 X80.000 Y85.000
G1 X80.250 Y84.750
G1 X80.500 Y84.750
G1 X80.750 Y84.500
G1 X80.750 Y84.250
G1 X81.000 Y84.000
G1 X81.250 Y84.000
G1 X81.250 Y83.750
G1 X81.500 Y83.500
G1 X81.750 Y83.500
G1 X81.750 Y83.250
G1 X82.000 Y83.000
G1 X82.250 Y83.000
G1 X82.500 Y82.750
G1 X82.500 Y82.500
G1 X82.750 Y82.250
G1 X83.000 Y82.250
G1 X83.000 Y82.000
G1 X83.250 Y81.750
G1 X83.500 Y81.750
G1 X83.750 Y81.500
G1 X83.750 Y81.250
G1 X84.000 Y81.000
G1 X84.250 Y81.000
G1 X84.250 Y80.750
G1 X84.500 Y80.500
G1 X84.750 Y80.500
G1 X85.000 Y80.250
G1 X85.000 Y80.000
G1 X85.250 Y80.000
G1 X85.500 Y79.750
G1 X85.500 Y79.500
G1 X85.750 Y79.250
G1 X86.000 Y79.250
G1 X86.000 Y79.000
G1 X86.250 Y78.750
G1 X86.500 Y78.750
G1 X86.750 Y78.500
G1 X86.750 Y78.250
G1 X87.000 Y78.000
G1 X87.250 Y78.000
G1 X87.250 Y77.750
G1 X87.500 Y77.500
G1 X87.750 Y77.500
G1 X88.000 Y77.250
G1 X88.000 Y77.000
G1 X88.250 Y77.000
G1 X88.500 Y76.750
G1 X88.500 Y76.500
G1 X88.750 Y76.250
G1 X89.000 Y76.250
G1 X89.000 Y76.000
G1 X89.250 Y75.750
G1 X89.500 Y75.750
G0 Z2.000 F3000
M400
M204 P600 T600
G1 F1500
G0 X89.750 Y76.250 Z2.000
M400
M204 P200 T200
G1 F600
G1 Z0.000 F2500
G1 X89.750 Y76.500
G1 X89.500 Y76.750
G1 X89.250 Y77.000
G1 X89.000 Y77.000
G1 X89.000 Y77.250
G1 X88.750 Y77.500
G1 X88.500 Y77.500
G1 X88.500 Y77.750
G1 X88.250 Y78.000
G1 X88.000 Y78.000
G1 X88.000 Y78.250
G1 X87.750 Y78.500
G1 X87.500 Y78.750
G1 X87.250 Y78.750
G1 X87.250 Y79.000
G1 X87.000 Y79.250
G1 X86.750 Y79.250
G1 X86.750 Y79.500
G1 X86.500 Y79.750
G1 X86.250 Y80.000
G1 X86.000 Y80.000
G1 X86.000 Y80.250
G1 X85.750 Y80.500
G1 X85.500 Y80.500
G1 X85.500 Y80.750
G1 X85.250 Y81.000
G1 X85.000 Y81.000
G1 X85.000 Y81.250
G1 X84.750 Y81.500
G1 X84.500 Y81.750
G1 X84.250 Y81.750
G1 X84.250 Y82.000
G1 X84.000 Y82.250
G1 X83.750 Y82.250
G1 X83.750 Y82.500
G1 X83.500 Y82.750
G1 X83.250 Y83.000
G1 X83.000 Y83.000
G1 X83.000 Y83.250
G1 X82.750 Y83.500
G1 X82.500 Y83.500
G1 X82.500 Y83.750
G1 X82.250 Y84.000
G1 X82.000 Y84.000
G1 X81.750 Y84.250
G1 X81.750 Y84.500
G1 X81.500 Y84.750
G1 X81.250 Y84.750
G0 Z2.000 F3000

; --- CIKEL NAMAKANJA ---
G0 Z2.000 F3000
M400
M204 P600 T600
G1 F1500
G0 X92.620 Y0.000 Z7.000
G1 Z1.000 F3000
G1 X92.620 Y0.000 F2500
G1 X92.620 Y2.500 F2500
G1 X87.620 Y0.000 F2500
G1 X92.620 Y0.000 F2500
G0 Z19.000 F3000
G0 X88.054 Y18.900
G0 Z7.000 F3000
G0 X81.250 Y85.000 Z2.000
M400
M204 P200 T200
G1 F600
G1 Z0.000 F2500
G1 X81.250 Y85.000
G1 X81.000 Y85.250
G1 X80.750 Y85.250
G1 X80.750 Y85.500
G1 X80.500 Y85.750
G1 X80.250 Y86.000
G1 X80.000 Y86.000
G1 X80.000 Y86.250
G1 X79.750 Y86.500
G1 X79.500 Y86.500
G1 X79.500 Y86.750
G0 Z2.000 F3000
M400
M204 P600 T600
G1 F1500
G0 X79.500 Y87.750 Z2.000
M400
M204 P200 T200
G1 F600
G1 Z0.000 F2500
G1 X79.500 Y87.750
G1 X79.750 Y87.500
G1 X80.000 Y87.250
G1 X80.000 Y87.250
G1 X80.250 Y87.000
G1 X80.500 Y86.750
G1 X80.750 Y86.500
G1 X80.750 Y86.500
G1 X81.000 Y86.250
G1 X81.250 Y86.000
G1 X81.250 Y86.000
G1 X81.500 Y85.750
G1 X81.750 Y85.500
G1 X81.750 Y85.250
G1 X82.000 Y85.250
G1 X82.250 Y85.000
G1 X82.500 Y84.750
G1 X82.500 Y84.750
G1 X82.750 Y84.500
G1 X83.000 Y84.250
G1 X83.000 Y84.250
G1 X83.250 Y84.000
G1 X83.500 Y83.750
G1 X83.750 Y83.500
G1 X83.750 Y83.500
G1 X84.000 Y83.250
G1 X84.250 Y83.000
G1 X84.250 Y83.000
G1 X84.500 Y82.750
G1 X84.750 Y82.500
G1 X85.000 Y82.250
G1 X85.000 Y82.250
G1 X85.250 Y82.000
G1 X85.500 Y81.750
G1 X85.500 Y81.750
G1 X85.750 Y81.500
G1 X86.000 Y81.250
G1 X86.000 Y81.000
G1 X86.250 Y81.000
G1 X86.500 Y80.750
G1 X86.750 Y80.500
G1 X86.750 Y80.500
G1 X87.000 Y80.250
G1 X87.250 Y80.000
G1 X87.250 Y80.000
G1 X87.500 Y79.750
G1 X87.750 Y79.500
G1 X88.000 Y79.250
G1 X88.000 Y79.250
G1 X88.250 Y79.000
G1 X88.500 Y78.750
G1 X88.500 Y78.750
G1 X88.750 Y78.500
G1 X89.000 Y78.250
G1 X89.000 Y78.000
G1 X89.250 Y78.000
G1 X89.500 Y77.750
G1 X89.750 Y77.500
G1 X89.750 Y77.500
G1 X90.000 Y77.250
G0 Z2.000 F3000
M400
M204 P600 T600
G1 F1500
G0 X90.250 Y78.000 Z2.000
M400
M204 P200 T200
G1 F600
G1 Z0.000 F2500
G1 X90.250 Y78.000
G1 X90.000 Y78.250
G1 X89.750 Y78.500
G1 X89.750 Y78.750
G1 X89.500 Y78.750
G1 X89.250 Y79.000
G1 X89.000 Y79.250
G1 X89.000 Y79.250
G1 X88.750 Y79.500
G1 X88.500 Y79.750
G1 X88.500 Y80.000
G1 X88.250 Y80.000
G1 X88.000 Y80.250
G1 X88.000 Y80.500
G1 X87.750 Y80.500
G1 X87.500 Y80.750
G1 X87.250 Y81.000
G1 X87.250 Y81.000
G1 X87.000 Y81.250
G1 X86.750 Y81.500
G1 X86.750 Y81.750
G1 X86.500 Y81.750
G1 X86.250 Y82.000
G1 X86.000 Y82.250
G1 X86.000 Y82.250
G1 X85.750 Y82.500
G1 X85.500 Y82.750
G1 X85.500 Y83.000
G1 X85.250 Y83.000
G1 X85.000 Y83.250
G1 X85.000 Y83.500
G1 X84.750 Y83.500
G1 X84.500 Y83.750
G1 X84.250 Y84.000
G1 X84.250 Y84.000
G1 X84.000 Y84.250
G1 X83.750 Y84.500
G1 X83.750 Y84.750
G1 X83.500 Y84.750
G1 X83.250 Y85.000
G1 X83.000 Y85.250
G1 X83.000 Y85.250
G1 X82.750 Y85.500
G1 X82.500 Y85.750
G1 X82.500 Y86.000
G1 X82.250 Y86.000
G1 X82.000 Y86.250
G1 X81.750 Y86.500
G1 X81.750 Y86.500
G1 X81.500 Y86.750
G1 X81.250 Y87.000
G1 X81.250 Y87.250
G1 X81.000 Y87.250
G1 X80.750 Y87.500
G1 X80.750 Y87.750
G1 X80.500 Y87.750
G1 X80.250 Y88.000
G1 X80.000 Y88.250
G1 X80.000 Y88.250
G1 X79.750 Y88.500
G0 Z2.000 F3000
M400
M204 P600 T600
G1 F1500
G0 X79.750 Y89.500 Z2.000
M400
M204 P200 T200
G1 F600
G1 Z0.000 F2500
G1 X80.000 Y89.500
G1 X80.000 Y89.250
G1 X80.250 Y89.000
G1 X80.500 Y89.000
G1 X80.750 Y88.750
G1 X80.750 Y88.500
G1 X81.000 Y88.250
G1 X81.250 Y88.250
G1 X81.250 Y88.000
G1 X81.500 Y87.750
G1 X81.750 Y87.750
G1 X81.750 Y87.500
G1 X82.000 Y87.250
G1 X82.250 Y87.250
G1 X82.500 Y87.000
G1 X82.500 Y86.750
G1 X82.750 Y86.500
G1 X83.000 Y86.500
G1 X83.000 Y86.250
G1 X83.250 Y86.000
G1 X83.500 Y86.000
G1 X83.750 Y85.750
G1 X83.750 Y85.500
G1 X84.000 Y85.250
G1 X84.250 Y85.250
G1 X84.250 Y85.000
G1 X84.500 Y84.750
G1 X84.750 Y84.750
G1 X85.000 Y84.500
G1 X85.000 Y84.250
G1 X85.250 Y84.000
G1 X85.500 Y84.000
G1 X85.500 Y83.750
G1 X85.750 Y83.500
G1 X86.000 Y83.500
G1 X86.000 Y83.250
G1 X86.250 Y83.000
G1 X86.500 Y83.000
G1 X86.750 Y82.750
G1 X86.750 Y82.500
G1 X87.000 Y82.250
G1 X87.250 Y82.250
G1 X87.250 Y82.000
G1 X87.500 Y81.750
G1 X87.750 Y81.750
G1 X88.000 Y81.500
G1 X88.000 Y81.250
G1 X88.250 Y81.000
G1 X88.500 Y81.000
G1 X88.500 Y80.750
G1 X88.750 Y80.500
G1 X89.000 Y80.500
G1 X89.000 Y80.250
G1 X89.250 Y80.000
G1 X89.500 Y80.000
G1 X89.750 Y79.750
G1 X89.750 Y79.500
G1 X90.000 Y79.250
G1 X90.250 Y79.250
G1 X90.250 Y79.000
G1 X90.500 Y78.750
G0 Z2.000 F3000
M400
M204 P600 T600
G1 F1500
G0 X85.500 Y84.750 Z2.000
M400
M204 P200 T200
G1 F600
G1 Z0.000 F2500
G1 X85.500 Y85.000
G1 X85.250 Y85.250
G1 X85.000 Y85.250
G1 X85.000 Y85.500
G1 X84.750 Y85.750
G1 X84.500 Y86.000
G1 X84.250 Y86.000
G1 X84.250 Y86.250
G1 X84.000 Y86.500
G1 X83.750 Y86.500
G1 X83.750 Y86.750
G1 X83.500 Y87.000
G1 X83.250 Y87.250
G1 X83.000 Y87.250
G1 X83.000 Y87.500
G1 X82.750 Y87.750
G1 X82.500 Y87.750
G1 X82.500 Y88.000
G1 X82.250 Y88.250
G1 X82.000 Y88.250
G1 X81.750 Y88.500
G1 X81.750 Y88.750
G1 X81.500 Y89.000
G1 X81.250 Y89.000
G1 X81.250 Y89.250
G1 X81.000 Y89.500
G1 X80.750 Y89.500
G1 X80.750 Y89.750
G1 X80.500 Y90.000
G1 X80.250 Y90.250
G1 X80.000 Y90.250
G1 X80.000 Y90.500
G1 X79.750 Y90.750
G1 X79.500 Y90.750
G1 X79.500 Y91.000
G0 Z2.000 F3000
M400
M204 P600 T600
G1 F1500
G0 X79.500 Y92.000 Z2.000
M400
M204 P200 T200
G1 F600
G1 Z0.000 F2500
G1 X79.500 Y92.000
G1 X79.750 Y91.750
G1 X80.000 Y91.500
G1 X80.000 Y91.250
G1 X80.250 Y91.250
G1 X80.500 Y91.000
G1 X80.750 Y90.750
G1 X80.750 Y90.750
G1 X81.000 Y90.500
G1 X81.250 Y90.250
G1 X81.250 Y90.250
G1 X81.500 Y90.000
G1 X81.750 Y89.750
G1 X81.750 Y89.500
G1 X82.000 Y89.500
G1 X82.250 Y89.250
G1 X82.500 Y89.000
G1 X82.500 Y89.000
G1 X82.750 Y88.750
G1 X83.000 Y88.500
G1 X83.000 Y88.250
G1 X83.250 Y88.250
G1 X83.500 Y88.000
G1 X83.750 Y87.750
G1 X83.750 Y87.750
G1 X84.000 Y87.500
G1 X84.250 Y87.250
G1 X84.250 Y87.250
G1 X84.500 Y87.000
G1 X84.750 Y86.750
G1 X85.000 Y86.500
G1 X85.000 Y86.500
G1 X85.250 Y86.250
G1 X85.500 Y86.000
G1 X85.500 Y86.000
G0 Z2.000 F3000
M400
M204 P600 T600
G1 F1500
G0 X85.750 Y86.750 Z2.000
M400
M204 P200 T200
G1 F600
G1 Z0.000 F2500
G1 X85.500 Y87.000
G1 X85.500 Y87.250
G1 X85.250 Y87.250
G1 X85.000 Y87.500
G1 X85.000 Y87.750
G1 X84.750 Y87.750
G1 X84.500 Y88.000
G1 X84.250 Y88.250
G1 X84.250 Y88.250
G1 X84.000 Y88.500
G1 X83.750 Y88.750
G1 X83.750 Y89.000
G1 X83.500 Y89.000
G1 X83.250 Y89.250
G1 X83.000 Y89.500
G1 X83.000 Y89.500
G1 X82.750 Y89.750
G1 X82.500 Y90.000
G1 X82.500 Y90.250
G1 X82.250 Y90.250
G1 X82.000 Y90.500
G1 X81.750 Y90.750
G1 X81.750 Y90.750
G1 X81.500 Y91.000
G1 X81.250 Y91.250
G1 X81.250 Y91.250
G1 X81.000 Y91.500
G1 X80.750 Y91.750
G1 X80.750 Y92.000
G1 X80.500 Y92.000
G1 X80.250 Y92.250
G1 X80.000 Y92.500
G1 X80.000 Y92.500
G1 X79.750 Y92.750
G1 X79.500 Y93.000
G1 X79.500 Y93.250
G0 Z2.000 F3000
M400
M204 P600 T600
G1 F1500
G0 X79.250 Y94.500 Z2.000
M400
M204 P200 T200
G1 F600
G1 Z0.000 F2500
G1 X79.500 Y94.250
G1 X79.500 Y94.000
G1 X79.750 Y93.750
G1 X80.000 Y93.750
G1 X80.000 Y93.500
G1 X80.250 Y93.250
G1 X80.500 Y93.250
G1 X80.750 Y93.000
G1 X80.750 Y92.750
G1 X81.000 Y92.500
G1 X81.250 Y92.500
G1 X81.250 Y92.250
G1 X81.500 Y92.000
G1 X81.750 Y92.000
G1 X81.750 Y91.750
G1 X82.000 Y91.500
G1 X82.250 Y91.250
G1 X82.500 Y91.250
G1 X82.500 Y91.000
G1 X82.750 Y90.750
G1 X83.000 Y90.750
G1 X83.000 Y90.500
G1 X83.250 Y90.250
G1 X83.500 Y90.250
G1 X83.750 Y90.000
G0 Z2.000 F3000

; --- CIKEL NAMAKANJA ---
G0 Z2.000 F3000
M400
M204 P600 T600
G1 F1500
G0 X93.860 Y18.626 Z7.000
G1 Z1.000 F3000
G1 X93.860 Y18.626 F2500
G1 X93.860 Y21.126 F2500
G1 X88.860 Y18.626 F2500
G1 X93.860 Y11.126 F2500
G0 Z19.000 F3000
G0 X88.680 Y18.954
G0 Z7.000 F3000
G0 X83.750 Y89.750 Z2.000
M400
M204 P200 T200
G1 F600
G1 Z0.000 F2500
G1 X83.750 Y89.750
G1 X84.000 Y89.500
G1 X84.250 Y89.500
G1 X84.250 Y89.250
G1 X84.500 Y89.000
G1 X84.750 Y89.000
G1 X85.000 Y88.750
G1 X85.000 Y88.500
G1 X85.250 Y88.250
G1 X85.500 Y88.250
G1 X85.500 Y88.000
G1 X85.750 Y87.750
G0 Z2.000 F3000
M400
M204 P600 T600
G1 F1500
G0 X85.750 Y89.000 Z2.000
M400
M204 P200 T200
G1 F600
G1 Z0.000 F2500
G1 X85.500 Y89.000
G1 X85.500 Y89.250
G1 X85.250 Y89.500
G1 X85.000 Y89.500
G1 X85.000 Y89.750
G1 X84.750 Y90.000
G1 X84.500 Y90.250
G1 X84.250 Y90.250
G1 X84.250 Y90.500
G1 X84.000 Y90.750
G1 X83.750 Y90.750
G1 X83.750 Y91.000
G1 X83.500 Y91.250
G1 X83.250 Y91.250
G1 X83.000 Y91.500
G1 X83.000 Y91.750
G1 X82.750 Y92.000
G1 X82.500 Y92.000
G1 X82.500 Y92.250
G1 X82.250 Y92.500
G1 X82.000 Y92.500
G1 X81.750 Y92.750
G1 X81.750 Y93.000
G1 X81.500 Y93.250
G1 X81.250 Y93.250
G1 X81.250 Y93.500
G1 X81.000 Y93.750
G1 X80.750 Y93.750
G1 X80.750 Y94.000
G1 X80.500 Y94.250
G1 X80.250 Y94.500
G1 X80.000 Y94.500
G1 X80.000 Y94.750
G1 X79.750 Y95.000
G1 X79.500 Y95.000
G1 X79.500 Y95.250
G1 X79.250 Y95.500
G1 X79.000 Y95.500
G0 Z2.000 F3000
M400
M204 P600 T600
G1 F1500
G0 X78.500 Y97.250 Z2.000
M400
M204 P200 T200
G1 F600
G1 Z0.000 F2500
G1 X78.750 Y97.000
G1 X78.750 Y96.750
G1 X79.000 Y96.750
G1 X79.250 Y96.500
G1 X79.500 Y96.250
G1 X79.500 Y96.250
G1 X79.750 Y96.000
G1 X80.000 Y95.750
G1 X80.000 Y95.500
G1 X80.250 Y95.500
G1 X80.500 Y95.250
G1 X80.750 Y95.000
G1 X80.750 Y95.000
G1 X81.000 Y94.750
G1 X81.250 Y94.500
G1 X81.250 Y94.500
G1 X81.500 Y94.250
G1 X81.750 Y94.000
G1 X81.750 Y93.750
G1 X82.000 Y93.750
G1 X82.250 Y93.500
G1 X82.500 Y93.250
G1 X82.500 Y93.250
G1 X82.750 Y93.000
G1 X83.000 Y92.750
G1 X83.000 Y92.500
G1 X83.250 Y92.500
G1 X83.500 Y92.250
G1 X83.750 Y92.000
G1 X83.750 Y92.000
G1 X84.000 Y91.750
G1 X84.250 Y91.500
G1 X84.250 Y91.250
G1 X84.500 Y91.250
G1 X84.750 Y91.000
G1 X85.000 Y90.750
G1 X85.000 Y90.750
G1 X85.250 Y90.500
G1 X85.500 Y90.250
G1 X85.500 Y90.250
G1 X85.750 Y90.000
G1 X86.000 Y89.750
G1 X86.000 Y89.500
G0 Z2.000 F3000
M400
M204 P600 T600
G1 F1500
G0 X91.500 Y94.750 Z2.000
M400
M204 P200 T200
G1 F600
G1 Z0.000 F2500
G1 X91.500 Y95.000
G1 X91.250 Y95.000
G1 X91.000 Y95.250
G1 X91.000 Y95.500
G1 X90.750 Y95.500
G1 X90.500 Y95.750
G1 X90.250 Y96.000
G1 X90.250 Y96.250
G1 X90.000 Y96.250
G1 X89.750 Y96.500
G1 X89.750 Y96.750
G1 X89.500 Y96.750
G1 X89.250 Y97.000
G1 X89.000 Y97.250
G1 X89.000 Y97.500
G1 X88.750 Y97.500
G1 X88.500 Y97.750
G1 X88.500 Y98.000
G1 X88.250 Y98.000
G1 X88.000 Y98.250
G1 X88.000 Y98.500
G1 X87.750 Y98.500
G1 X87.500 Y98.750
G1 X87.250 Y99.000
G1 X87.250 Y99.250
G1 X87.000 Y99.250
G1 X86.750 Y99.500
G1 X86.750 Y99.750
G1 X86.500 Y99.750
G1 X86.250 Y100.000
G0 Z2.000 F3000
M400
M204 P600 T600
G1 F1500
G0 X89.500 Y100.000 Z2.000
M400
M204 P200 T200
G1 F600
G1 Z0.000 F2500
G1 X89.750 Y99.750
G1 X89.750 Y99.750
G1 X90.000 Y99.500
G1 X90.250 Y99.250
G1 X90.250 Y99.250
G1 X90.500 Y99.000
G1 X90.750 Y98.750
G0 Z2.000 F3000
M400
M204 P600 T600
G1 F1500
G0 X91.000 Y97.500 Z2.000
M400
M204 P200 T200
G1 F600
G1 Z0.000 F2500
G1 X91.000 Y97.500
G1 X90.750 Y97.750
G1 X90.500 Y98.000
G1 X90.250 Y98.000
G1 X90.250 Y98.250
G1 X90.000 Y98.500
G1 X89.750 Y98.500
G1 X89.750 Y98.750
G1 X89.500 Y99.000
G1 X89.250 Y99.250
G1 X89.000 Y99.250
G1 X89.000 Y99.500
G1 X88.750 Y99.750
G1 X88.500 Y99.750
G1 X88.500 Y100.000
G0 Z2.000 F3000
M400
M204 P600 T600
G1 F1500
G0 X87.250 Y100.000 Z2.000
M400
M204 P200 T200
G1 F600
G1 Z0.000 F2500
G1 X87.500 Y99.750
G1 X87.750 Y99.750
G1 X88.000 Y99.500
G1 X88.000 Y99.250
G1 X88.250 Y99.250
G1 X88.500 Y99.000
G1 X88.500 Y98.750
G1 X88.750 Y98.500
G1 X89.000 Y98.500
G1 X89.000 Y98.250
G1 X89.250 Y98.000
G1 X89.500 Y98.000
G1 X89.750 Y97.750
G1 X89.750 Y97.500
G1 X90.000 Y97.500
G1 X90.250 Y97.250
G1 X90.250 Y97.000
G1 X90.500 Y96.750
G1 X90.750 Y96.750
G1 X91.000 Y96.500
G1 X91.000 Y96.250
G1 X91.250 Y96.250
G0 Z2.000 F3000
M400
M204 P600 T600
G1 F1500
G0 X91.750 Y93.500 Z2.000
M400
M204 P200 T200
G1 F600
G1 Z0.000 F2500
G1 X91.500 Y93.750
G1 X91.500 Y93.750
G1 X91.250 Y94.000
G1 X91.000 Y94.250
G1 X91.000 Y94.500
G1 X90.750 Y94.500
G1 X90.500 Y94.750
G1 X90.250 Y95.000
G1 X90.250 Y95.000
G1 X90.000 Y95.250
G1 X89.750 Y95.500
G1 X89.750 Y95.500
G1 X89.500 Y95.750
G1 X89.250 Y96.000
G1 X89.000 Y96.250
G1 X89.000 Y96.250
G1 X88.750 Y96.500
G1 X88.500 Y96.750
G1 X88.500 Y96.750
G1 X88.250 Y97.000
G1 X88.000 Y97.250
G1 X88.000 Y97.500
G1 X87.750 Y97.500
G1 X87.500 Y97.750
G1 X87.250 Y98.000
G1 X87.250 Y98.000
G1 X87.000 Y98.250
G1 X86.750 Y98.500
G1 X86.750 Y98.500
G1 X86.500 Y98.750
G1 X86.250 Y99.000
G1 X86.000 Y99.250
G1 X86.000 Y99.250
G1 X85.750 Y99.500
G1 X85.500 Y99.750
G1 X85.500 Y99.750
G1 X85.250 Y100.000
G1 X85.000 Y100.250
G0 Z2.000 F3000
M400
M204 P600 T600
G1 F1500
G0 X78.000 Y98.750 Z2.000
M400
M204 P200 T200
G1 F600
G1 Z0.000 F2500
G1 X78.250 Y98.500
G1 X78.250 Y98.500
G1 X78.500 Y98.250
G1 X78.750 Y98.000
G1 X78.750 Y98.000
G1 X79.000 Y97.750
G1 X79.250 Y97.500
G1 X79.500 Y97.500
G1 X79.500 Y97.250
G1 X79.750 Y97.000
G1 X80.000 Y96.750
G1 X80.000 Y96.750
G1 X80.250 Y96.500
G1 X80.500 Y96.250
G1 X80.750 Y96.250
G1 X80.750 Y96.000
G1 X81.000 Y95.750
G1 X81.250 Y95.500
G1 X81.250 Y95.500
G1 X81.500 Y95.250
G1 X81.750 Y95.000
G1 X81.750 Y95.000
G1 X82.000 Y94.750
G1 X82.250 Y94.500
G1 X82.500 Y94.500
G1 X82.500 Y94.250
G1 X82.750 Y94.000
G1 X83.000 Y93.750
G1 X83.000 Y93.750
G1 X83.250 Y93.500
G1 X83.500 Y93.250
G1 X83.750 Y93.250
G1 X83.750 Y93.000
G1 X84.000 Y92.750
G1 X84.250 Y92.500
G1 X84.250 Y92.500
G1 X84.500 Y92.250
G1 X84.750 Y92.000
G1 X85.000 Y92.000
G1 X85.000 Y91.750
G1 X85.250 Y91.500
G1 X85.500 Y91.250
G1 X85.500 Y91.250
G1 X85.750 Y91.000
G1 X86.000 Y90.750
G1 X86.000 Y90.750
G1 X86.250 Y90.500
G1 X86.500 Y90.250
G1 X86.750 Y90.250
G1 X86.750 Y90.000
G0 Z2.000 F3000
M400
M204 P600 T600
G1 F1500
G0 X87.750 Y90.250 Z2.000
M400
M204 P200 T200
G1 F600
G1 Z0.000 F2500
G1 X87.500 Y90.250
G1 X87.250 Y90.500
G1 X87.250 Y90.750
G1 X87.000 Y90.750
G1 X86.750 Y91.000
G1 X86.750 Y91.250
G1 X86.500 Y91.250
G1 X86.250 Y91.500
G1 X86.000 Y91.750
G1 X86.000 Y92.000
G1 X85.750 Y92.000
G1 X85.500 Y92.250
G1 X85.500 Y92.500
G1 X85.250 Y92.500
G1 X85.000 Y92.750
G1 X85.000 Y93.000
G1 X84.750 Y93.250
G1 X84.500 Y93.250
G1 X84.250 Y93.500
G1 X84.250 Y93.750
G1 X84.000 Y93.750
G1 X83.750 Y94.000
G1 X83.750 Y94.250
G1 X83.500 Y94.500
G1 X83.250 Y94.500
G1 X83.000 Y94.750
G1 X83.000 Y95.000
G1 X82.750 Y95.000
G1 X82.500 Y95.250
G1 X82.500 Y95.500
G1 X82.250 Y95.500
G1 X82.000 Y95.750
G1 X81.750 Y96.000
G1 X81.750 Y96.250
G1 X81.500 Y96.250
G1 X81.250 Y96.500
G1 X81.250 Y96.750
G1 X81.000 Y96.750
G1 X80.750 Y97.000
G1 X80.750 Y97.250
G1 X80.500 Y97.500
G1 X80.250 Y97.500
G1 X80.000 Y97.750
G1 X80.000 Y98.000
G1 X79.750 Y98.000
G1 X79.500 Y98.250
G1 X79.500 Y98.500
G1 X79.250 Y98.500
G1 X79.000 Y98.750
G1 X78.750 Y99.000
G1 X78.750 Y99.250
G1 X78.500 Y99.250
G1 X78.250 Y99.500
G1 X78.250 Y99.750
G1 X78.000 Y99.750
G1 X77.750 Y100.000
G1 X77.750 Y100.250
G1 X77.500 Y100.500
G0 Z2.000 F3000
M400
M204 P600 T600
G1 F1500
G0 X76.750 Y102.250 Z2.000
M400
M204 P200 T200
G1 F600
G1 Z0.000 F2500
G1 X77.000 Y102.000
G1 X77.000 Y101.750
G1 X77.250 Y101.750
G1 X77.500 Y101.500
G1 X77.750 Y101.250
G1 X77.750 Y101.000
G1 X78.000 Y101.000
G1 X78.250 Y100.750
G1 X78.250 Y100.500
G1 X78.500 Y100.500
G1 X78.750 Y100.250
G1 X78.750 Y100.000
G1 X79.000 Y99.750
G1 X79.250 Y99.750
G1 X79.500 Y99.500
G1 X79.500 Y99.250
G1 X79.750 Y99.250
G1 X80.000 Y99.000
G1 X80.000 Y98.750
G1 X80.250 Y98.500
G1 X80.500 Y98.500
G1 X80.750 Y98.250
G1 X80.750 Y98.000
G1 X81.000 Y98.000
G1 X81.250 Y97.750
G1 X81.250 Y97.500
G1 X81.500 Y97.500
G1 X81.750 Y97.250
G1 X81.750 Y97.000
G1 X82.000 Y96.750
G1 X82.250 Y96.750
G1 X82.500 Y96.500
G1 X82.500 Y96.250
G0 Z2.000 F3000

; --- CIKEL NAMAKANJA ---
G0 Z2.000 F3000
M400
M204 P600 T600
G1 F1500
G0 X101.106 Y0.000 Z7.000
G1 Z1.000 F3000
G1 X101.106 Y0.000 F2500
G1 X101.106 Y2.500 F2500
G1 X96.106 Y0.000 F2500
G1 X101.106 Y0.000 F2500
G0 Z19.000 F3000
G0 X88.573 Y18.946
G0 Z7.000 F3000
G0 X82.750 Y96.250 Z2.000
M400
M204 P200 T200
G1 F600
G1 Z0.000 F2500
G1 X82.750 Y96.250
G1 X83.000 Y96.000
G1 X83.000 Y95.750
G1 X83.250 Y95.500
G1 X83.500 Y95.500
G1 X83.750 Y95.250
G1 X83.750 Y95.000
G1 X84.000 Y95.000
G1 X84.250 Y94.750
G1 X84.250 Y94.500
G1 X84.500 Y94.500
G1 X84.750 Y94.250
G1 X85.000 Y94.000
G1 X85.000 Y93.750
G1 X85.250 Y93.750
G1 X85.500 Y93.500
G1 X85.500 Y93.250
G1 X85.750 Y93.250
G1 X86.000 Y93.000
G1 X86.000 Y92.750
G1 X86.250 Y92.500
G1 X86.500 Y92.500
G1 X86.750 Y92.250
G1 X86.750 Y92.000
G1 X87.000 Y92.000
G1 X87.250 Y91.750
G1 X87.250 Y91.500
G1 X87.500 Y91.250
G1 X87.750 Y91.250
G1 X88.000 Y91.000
G1 X88.000 Y90.750
G1 X88.250 Y90.750
G1 X88.500 Y90.500
G0 Z2.000 F3000
M400
M204 P600 T600
G1 F1500
G0 X89.250 Y90.750 Z2.000
M400
M204 P200 T200
G1 F600
G1 Z0.000 F2500
G1 X89.000 Y90.750
G1 X89.000 Y91.000
G1 X88.750 Y91.250
G1 X88.500 Y91.250
G1 X88.500 Y91.500
G1 X88.250 Y91.750
G1 X88.000 Y92.000
G1 X88.000 Y92.000
G1 X87.750 Y92.250
G1 X87.500 Y92.500
G1 X87.250 Y92.500
G1 X87.250 Y92.750
G1 X87.000 Y93.000
G1 X86.750 Y93.250
G1 X86.750 Y93.250
G1 X86.500 Y93.500
G1 X86.250 Y93.750
G1 X86.000 Y93.750
G1 X86.000 Y94.000
G1 X85.750 Y94.250
G1 X85.500 Y94.500
G1 X85.500 Y94.500
G1 X85.250 Y94.750
G1 X85.000 Y95.000
G1 X85.000 Y95.000
G1 X84.750 Y95.250
G1 X84.500 Y95.500
G1 X84.250 Y95.500
G1 X84.250 Y95.750
G1 X84.000 Y96.000
G1 X83.750 Y96.250
G1 X83.750 Y96.250
G1 X83.500 Y96.500
G1 X83.250 Y96.750
G1 X83.000 Y96.750
G1 X83.000 Y97.000
G1 X82.750 Y97.250
G1 X82.500 Y97.500
G1 X82.500 Y97.500
G1 X82.250 Y97.750
G1 X82.000 Y98.000
G1 X81.750 Y98.000
G1 X81.750 Y98.250
G1 X81.500 Y98.500
G1 X81.250 Y98.500
G1 X81.250 Y98.750
G1 X81.000 Y99.000
G1 X80.750 Y99.250
G1 X80.750 Y99.250
G1 X80.500 Y99.500
G1 X80.250 Y99.750
G1 X80.000 Y99.750
G1 X80.000 Y100.000
G1 X79.750 Y100.250
G1 X79.500 Y100.500
G1 X79.500 Y100.500
G1 X79.250 Y100.750
G1 X79.000 Y101.000
G1 X78.750 Y101.000
G1 X78.750 Y101.250
G1 X78.500 Y101.500
G1 X78.250 Y101.750
G1 X78.250 Y101.750
G1 X78.000 Y102.000
G1 X77.750 Y102.250
G1 X77.750 Y102.250
G1 X77.500 Y102.500
G1 X77.250 Y102.750
G1 X77.000 Y102.750
G1 X77.000 Y103.000
G1 X76.750 Y103.250
G1 X76.500 Y103.500
G1 X76.500 Y103.500
G1 X76.250 Y103.750
G1 X76.000 Y104.000
G1 X75.750 Y104.000
G1 X75.750 Y104.250
G1 X75.500 Y104.500
G1 X75.250 Y104.750
G1 X75.250 Y104.750
G1 X75.000 Y105.000
G0 Z2.000 F3000
M400
M204 P600 T600
G1 F1500
G0 X71.500 Y109.500 Z2.000
M400
M204 P200 T200
G1 F600
G1 Z0.000 F2500
G1 X71.500 Y109.500
G1 X71.750 Y109.250
G1 X72.000 Y109.000
G1 X72.250 Y108.750
G1 X72.250 Y108.750
G1 X72.500 Y108.500
G1 X72.750 Y108.250
G1 X72.750 Y108.250
G1 X73.000 Y108.000
G1 X73.250 Y107.750
G1 X73.500 Y107.750
G1 X73.500 Y107.500
G1 X73.750 Y107.250
G1 X74.000 Y107.000
G1 X74.000 Y107.000
G1 X74.250 Y106.750
G1 X74.500 Y106.500
G1 X74.500 Y106.500
G1 X74.750 Y106.250
G1 X75.000 Y106.000
G1 X75.250 Y105.750
G1 X75.250 Y105.750
G1 X75.500 Y105.500
G1 X75.750 Y105.250
G1 X75.750 Y105.250
G1 X76.000 Y105.000
G1 X76.250 Y104.750
G1 X76.500 Y104.750
G1 X76.500 Y104.500
G1 X76.750 Y104.250
G1 X77.000 Y104.000
G1 X77.000 Y104.000
G1 X77.250 Y103.750
G1 X77.500 Y103.500
G1 X77.750 Y103.500
G1 X77.750 Y103.250
G1 X78.000 Y103.000
G1 X78.250 Y102.750
G1 X78.250 Y102.750
G1 X78.500 Y102.500
G1 X78.750 Y102.250
G1 X78.750 Y102.250
G1 X79.000 Y102.000
G1 X79.250 Y101.750
G1 X79.500 Y101.750
G1 X79.500 Y101.500
G1 X79.750 Y101.250
G1 X80.000 Y101.000
G1 X80.000 Y101.000
G1 X80.250 Y100.750
G1 X80.500 Y100.500
G1 X80.750 Y100.500
G1 X80.750 Y100.250
G1 X81.000 Y100.000
G1 X81.250 Y99.750
G1 X81.250 Y99.750
G1 X81.500 Y99.500
G1 X81.750 Y99.250
G1 X81.750 Y99.250
G1 X82.000 Y99.000
G1 X82.250 Y98.750
G1 X82.500 Y98.500
G1 X82.500 Y98.500
G1 X82.750 Y98.250
G1 X83.000 Y98.000
G1 X83.000 Y98.000
G1 X83.250 Y97.750
G1 X83.500 Y97.500
G1 X83.750 Y97.500
G1 X83.750 Y97.250
G1 X84.000 Y97.000
G1 X84.250 Y96.750
G1 X84.250 Y96.750
G1 X84.500 Y96.500
G1 X84.750 Y96.250
G1 X85.000 Y96.250
G1 X85.000 Y96.000
G1 X85.250 Y95.750
G1 X85.500 Y95.500
G1 X85.500 Y95.500
G1 X85.750 Y95.250
G1 X86.000 Y95.000
G1 X86.000 Y95.000
G1 X86.250 Y94.750
G1 X86.500 Y94.500
G1 X86.750 Y94.500
G1 X86.750 Y94.250
G1 X87.000 Y94.000
G1 X87.250 Y93.750
G1 X87.250 Y93.750
G1 X87.500 Y93.500
G1 X87.750 Y93.250
G1 X88.000 Y93.250
G1 X88.000 Y93.000
G1 X88.250 Y92.750
G1 X88.500 Y92.500
G1 X88.500 Y92.500
G1 X88.750 Y92.250
G1 X89.000 Y92.000
G1 X89.000 Y92.000
G1 X89.250 Y91.750
G1 X89.500 Y91.500
G1 X89.750 Y91.250
G1 X89.750 Y91.250
G1 X90.000 Y91.000
G0 Z2.000 F3000
M400
M204 P600 T600
G1 F1500
G0 X85.500 Y109.250 Z2.000
M400
M204 P200 T200
G1 F600
G1 Z0.000 F2500
G1 X85.500 Y109.500
G1 X85.250 Y109.500
G1 X85.000 Y109.750
G1 X85.000 Y110.000
G1 X84.750 Y110.000
G1 X84.500 Y110.250
G1 X84.250 Y110.500
G1 X84.250 Y110.750
G1 X84.000 Y110.750
G1 X83.750 Y111.000
G1 X83.750 Y111.250
G1 X83.500 Y111.250
G1 X83.250 Y111.500
G1 X83.000 Y111.750
G1 X83.000 Y112.000
G1 X82.750 Y112.000
G1 X82.500 Y112.250
G1 X82.500 Y112.500
G1 X82.250 Y112.500
G1 X82.000 Y112.750
G1 X81.750 Y113.000
G1 X81.750 Y113.000
G1 X81.500 Y113.250
G1 X81.250 Y113.500
G1 X81.250 Y113.750
G1 X81.000 Y113.750
G1 X80.750 Y114.000
G1 X80.750 Y114.250
G1 X80.500 Y114.250
G1 X80.250 Y114.500
G1 X80.000 Y114.750
G1 X80.000 Y115.000
G1 X79.750 Y115.000
G1 X79.500 Y115.250
G1 X79.500 Y115.500
G1 X79.250 Y115.500
G1 X79.000 Y115.750
G0 Z2.000 F3000
M400
M204 P600 T600
G1 F1500
G0 X81.250 Y116.750 Z2.000
M400
M204 P200 T200
G1 F600
G1 Z0.000 F2500
G1 X81.250 Y116.750
G1 X81.500 Y116.500
G1 X81.750 Y116.250
G1 X81.750 Y116.000
G1 X82.000 Y116.000
G1 X82.250 Y115.750
G1 X82.500 Y115.500
G1 X82.500 Y115.500
G1 X82.750 Y115.250
G0 Z2.000 F3000
M400
M204 P600 T600
G1 F1500
G0 X80.500 Y116.500 Z2.000
M400
M204 P200 T200
G1 F600
G1 Z0.000 F2500
G1 X80.750 Y116.250
G1 X80.750 Y116.000
G1 X81.000 Y116.000
G1 X81.250 Y115.750
G1 X81.250 Y115.500
G1 X81.500 Y115.500
G1 X81.750 Y115.250
G1 X81.750 Y115.000
G1 X82.000 Y115.000
G1 X82.250 Y114.750
G1 X82.500 Y114.500
G1 X82.500 Y114.250
G1 X82.750 Y114.250
G1 X83.000 Y114.000
G1 X83.000 Y113.750
G1 X83.250 Y113.750
G1 X83.500 Y113.500
G1 X83.750 Y113.250
G1 X83.750 Y113.000
G1 X84.000 Y113.000
G1 X84.250 Y112.750
G1 X84.250 Y112.500
G1 X84.500 Y112.500
G1 X84.750 Y112.250
G1 X85.000 Y112.000
G1 X85.000 Y112.000
G1 X85.250 Y111.750
G0 Z2.000 F3000
M400
M204 P600 T600
G1 F1500
G0 X86.000 Y109.750 Z2.000
M400
M204 P200 T200
G1 F600
G1 Z0.000 F2500
G1 X86.000 Y110.000
G1 X85.750 Y110.000
G1 X85.500 Y110.250
G1 X85.500 Y110.500
G1 X85.250 Y110.750
G1 X85.000 Y110.750
G1 X85.000 Y111.000
G1 X84.750 Y111.250
G1 X84.500 Y111.250
G1 X84.250 Y111.500
G1 X84.250 Y111.750
G1 X84.000 Y112.000
G1 X83.750 Y112.000
G1 X83.750 Y112.250
G1 X83.500 Y112.500
G1 X83.250 Y112.500
G1 X83.000 Y112.750
G1 X83.000 Y113.000
G1 X82.750 Y113.000
G1 X82.500 Y113.250
G1 X82.500 Y113.500
G1 X82.250 Y113.750
G1 X82.000 Y113.750
G1 X81.750 Y114.000
G1 X81.750 Y114.250
G1 X81.500 Y114.250
G1 X81.250 Y114.500
G1 X81.250 Y114.750
G1 X81.000 Y115.000
G1 X80.750 Y115.000
G1 X80.750 Y115.250
G1 X80.500 Y115.500
G1 X80.250 Y115.500
G1 X80.000 Y115.750
G1 X80.000 Y116.000
G1 X79.750 Y116.000
G1 X79.500 Y116.250
G0 Z2.000 F3000
M400
M204 P600 T600
G1 F1500
G0 X78.250 Y115.500 Z2.000
M400
M204 P200 T200
G1 F600
G1 Z0.000 F2500
G1 X78.250 Y115.500
G0 Z2.000 F3000

; --- CIKEL NAMAKANJA ---
G0 Z2.000 F3000
M400
M204 P600 T600
G1 F1500
G0 X70.927 Y5.892 Z7.000
G1 Z1.000 F3000
G1 X70.927 Y5.892 F2500
G1 X70.927 Y8.392 F2500
G1 X65.927 Y5.892 F2500
G1 X70.927 Y0.000 F2500
G0 Z19.000 F3000
G0 X88.113 Y18.906
G0 Z7.000 F3000
G0 X78.500 Y115.250 Z2.000
M400
M204 P200 T200
G1 F600
G1 Z0.000 F2500
G1 X78.500 Y115.250
G1 X78.750 Y115.000
G1 X78.750 Y115.000
G1 X79.000 Y114.750
G1 X79.250 Y114.500
G1 X79.500 Y114.250
G1 X79.500 Y114.250
G1 X79.750 Y114.000
G1 X80.000 Y113.750
G1 X80.000 Y113.750
G1 X80.250 Y113.500
G1 X80.500 Y113.250
G1 X80.750 Y113.000
G1 X80.750 Y113.000
G1 X81.000 Y112.750
G1 X81.250 Y112.500
G1 X81.250 Y112.500
G1 X81.500 Y112.250
G1 X81.750 Y112.000
G1 X81.750 Y112.000
G1 X82.000 Y111.750
G1 X82.250 Y111.500
G1 X82.500 Y111.250
G1 X82.500 Y111.250
G1 X82.750 Y111.000
G1 X83.000 Y110.750
G1 X83.000 Y110.750
G1 X83.250 Y110.500
G1 X83.500 Y110.250
G1 X83.750 Y110.000
G1 X83.750 Y110.000
G1 X84.000 Y109.750
G1 X84.250 Y109.500
G1 X84.250 Y109.500
G1 X84.500 Y109.250
G1 X84.750 Y109.000
G1 X85.000 Y108.750
G1 X85.000 Y108.750
G0 Z2.000 F3000
M400
M204 P600 T600
G1 F1500
G0 X84.500 Y108.250 Z2.000
M400
M204 P200 T200
G1 F600
G1 Z0.000 F2500
G1 X84.250 Y108.250
G1 X84.250 Y108.500
G1 X84.000 Y108.750
G1 X83.750 Y108.750
G1 X83.750 Y109.000
G1 X83.500 Y109.250
G1 X83.250 Y109.500
G1 X83.000 Y109.500
G1 X83.000 Y109.750
G1 X82.750 Y110.000
G1 X82.500 Y110.000
G1 X82.500 Y110.250
G1 X82.250 Y110.500
G1 X82.000 Y110.750
G1 X81.750 Y110.750
G1 X81.750 Y111.000
G1 X81.500 Y111.250
G1 X81.250 Y111.250
G1 X81.250 Y111.500
G1 X81.000 Y111.750
G1 X80.750 Y112.000
G1 X80.750 Y112.000
G1 X80.500 Y112.250
G1 X80.250 Y112.500
G1 X80.000 Y112.500
G1 X80.000 Y112.750
G1 X79.750 Y113.000
G1 X79.500 Y113.000
G1 X79.500 Y113.250
G1 X79.250 Y113.500
G1 X79.000 Y113.750
G1 X78.750 Y113.750
G1 X78.750 Y114.000
G1 X78.500 Y114.250
G1 X78.250 Y114.250
G1 X78.250 Y114.500
G1 X78.000 Y114.750
G1 X77.750 Y115.000
G1 X77.750 Y115.000
G1 X77.500 Y115.250
G0 Z2.000 F3000
M400
M204 P600 T600
G1 F1500
G0 X76.750 Y115.000 Z2.000
M400
M204 P200 T200
G1 F600
G1 Z0.000 F2500
G1 X77.000 Y114.750
G1 X77.000 Y114.500
G1 X77.250 Y114.250
G1 X77.500 Y114.250
G1 X77.750 Y114.000
G1 X77.750 Y113.750
G1 X78.000 Y113.750
G1 X78.250 Y113.500
G1 X78.250 Y113.250
G1 X78.500 Y113.000
G1 X78.750 Y113.000
G1 X78.750 Y112.750
G1 X79.000 Y112.500
G1 X79.250 Y112.500
G1 X79.500 Y112.250
G1 X79.500 Y112.000
G1 X79.750 Y112.000
G1 X80.000 Y111.750
G1 X80.000 Y111.500
G1 X80.250 Y111.250
G1 X80.500 Y111.250
G1 X80.750 Y111.000
G1 X80.750 Y110.750
G1 X81.000 Y110.750
G1 X81.250 Y110.500
G1 X81.250 Y110.250
G1 X81.500 Y110.000
G1 X81.750 Y110.000
G1 X81.750 Y109.750
G1 X82.000 Y109.500
G1 X82.250 Y109.500
G1 X82.500 Y109.250
G1 X82.500 Y109.000
G1 X82.750 Y108.750
G1 X83.000 Y108.750
G1 X83.000 Y108.500
G1 X83.250 Y108.250
G1 X83.500 Y108.250
G1 X83.750 Y108.000
G1 X83.750 Y107.750
G1 X84.000 Y107.750
G0 Z2.000 F3000
M400
M204 P600 T600
G1 F1500
G0 X83.500 Y107.000 Z2.000
M400
M204 P200 T200
G1 F600
G1 Z0.000 F2500
G1 X83.250 Y107.250
G1 X83.000 Y107.500
G1 X83.000 Y107.750
G1 X82.750 Y107.750
G1 X82.500 Y108.000
G1 X82.500 Y108.250
G1 X82.250 Y108.250
G1 X82.000 Y108.500
G1 X81.750 Y108.750
G1 X81.750 Y108.750
G1 X81.500 Y109.000
G1 X81.250 Y109.250
G1 X81.250 Y109.500
G1 X81.000 Y109.500
G1 X80.750 Y109.750
G1 X80.750 Y110.000
G1 X80.500 Y110.000
G1 X80.250 Y110.250
G1 X80.000 Y110.500
G1 X80.000 Y110.750
G1 X79.750 Y110.750
G1 X79.500 Y111.000
G1 X79.500 Y111.250
G1 X79.250 Y111.250
G1 X79.000 Y111.500
G1 X78.750 Y111.750
G1 X78.750 Y112.000
G1 X78.500 Y112.000
G1 X78.250 Y112.250
G1 X78.250 Y112.500
G1 X78.000 Y112.500
G1 X77.750 Y112.750
G1 X77.750 Y113.000
G1 X77.500 Y113.000
G1 X77.250 Y113.250
G1 X77.000 Y113.500
G1 X77.000 Y113.750
G1 X76.750 Y113.750
G1 X76.500 Y114.000
G1 X76.500 Y114.250
G1 X76.250 Y114.250
G1 X76.000 Y114.500
G0 Z2.000 F3000
M400
M204 P600 T600
G1 F1500
G0 X72.000 Y112.250 Z2.000
M400
M204 P200 T200
G1 F600
G1 Z0.000 F2500
G1 X72.250 Y112.000
G1 X72.250 Y112.000
G1 X72.500 Y111.750
G1 X72.750 Y111.500
G1 X72.750 Y111.250
G1 X73.000 Y111.250
G1 X73.250 Y111.000
G1 X73.500 Y110.750
G1 X73.500 Y110.750
G1 X73.750 Y110.500
G1 X74.000 Y110.250
G1 X74.000 Y110.000
G1 X74.250 Y110.000
G1 X74.500 Y109.750
G1 X74.500 Y109.500
G1 X74.750 Y109.500
G1 X75.000 Y109.250
G1 X75.250 Y109.000
G1 X75.250 Y108.750
G1 X75.500 Y108.750
G1 X75.750 Y108.500
G1 X75.750 Y108.250
G1 X76.000 Y108.250
G1 X76.250 Y108.000
G1 X76.500 Y107.750
G1 X76.500 Y107.750
G1 X76.750 Y107.500
G1 X77.000 Y107.250
G1 X77.000 Y107.000
G1 X77.250 Y107.000
G1 X77.500 Y106.750
G1 X77.750 Y106.500
G1 X77.750 Y106.500
G1 X78.000 Y106.250
G1 X78.250 Y106.000
G1 X78.250 Y105.750
G1 X78.500 Y105.750
G1 X78.750 Y105.500
G1 X78.750 Y105.250
G1 X79.000 Y105.250
G1 X79.250 Y105.000
G1 X79.500 Y104.750
G1 X79.500 Y104.750
G1 X79.750 Y104.500
G1 X80.000 Y104.250
G1 X80.000 Y104.000
G1 X80.250 Y104.000
G1 X80.500 Y103.750
G1 X80.750 Y103.500
G1 X80.750 Y103.500
G1 X81.000 Y103.250
G1 X81.250 Y103.000
G1 X81.250 Y102.750
G1 X81.500 Y102.750
G1 X81.750 Y102.500
G1 X81.750 Y102.250
G1 X82.000 Y102.250
G1 X82.250 Y102.000
G1 X82.500 Y101.750
G1 X82.500 Y101.750
G1 X82.750 Y101.500
G1 X83.000 Y101.250
G1 X83.000 Y101.000
G1 X83.250 Y101.000
G1 X83.500 Y100.750
G1 X83.750 Y100.500
G1 X83.750 Y100.500
G1 X84.000 Y100.250
G1 X84.250 Y100.000
G1 X84.250 Y99.750
G1 X84.500 Y99.750
G1 X84.750 Y99.500
G1 X85.000 Y99.250
G1 X85.000 Y99.250
G1 X85.250 Y99.000
G1 X85.500 Y98.750
G1 X85.500 Y98.500
G1 X85.750 Y98.500
G1 X86.000 Y98.250
G1 X86.000 Y98.000
G1 X86.250 Y98.000
G1 X86.500 Y97.750
G1 X86.750 Y97.500
G1 X86.750 Y97.500
G1 X87.000 Y97.250
G1 X87.250 Y97.000
G1 X87.250 Y96.750
G1 X87.500 Y96.750
G1 X87.750 Y96.500
G1 X88.000 Y96.250
G1 X88.000 Y96.250
G1 X88.250 Y96.000
G1 X88.500 Y95.750
G1 X88.500 Y95.500
G1 X88.750 Y95.500
G1 X89.000 Y95.250
G1 X89.000 Y95.000
G1 X89.250 Y95.000
G1 X89.500 Y94.750
G1 X89.750 Y94.500
G1 X89.750 Y94.500
G1 X90.000 Y94.250
G1 X90.250 Y94.000
G1 X90.250 Y93.750
G1 X90.500 Y93.750
G1 X90.750 Y93.500
G1 X91.000 Y93.250
G1 X91.000 Y93.250
G1 X91.250 Y93.000
G1 X91.500 Y92.750
G1 X91.500 Y92.500
G1 X91.750 Y92.500
G1 X92.000 Y92.250
G1 X92.000 Y92.000
G0 Z2.000 F3000
M400
M204 P600 T600
G1 F1500
G0 X90.500 Y91.500 Z2.000
M400
M204 P200 T200
G1 F600
G1 Z0.000 F2500
G1 X90.250 Y91.750
G1 X90.250 Y92.000
G1 X90.000 Y92.000
G1 X89.750 Y92.250
G1 X89.750 Y92.500
G1 X89.500 Y92.500
G1 X89.250 Y92.750
G1 X89.000 Y93.000
G1 X89.000 Y93.250
G1 X88.750 Y93.250
G1 X88.500 Y93.500
G1 X88.500 Y93.750
G1 X88.250 Y93.750
G1 X88.000 Y94.000
G1 X88.000 Y94.250
G1 X87.750 Y94.500
G1 X87.500 Y94.500
G1 X87.250 Y94.750
G1 X87.250 Y95.000
G1 X87.000 Y95.000
G1 X86.750 Y95.250
G1 X86.750 Y95.500
G1 X86.500 Y95.500
G1 X86.250 Y95.750
G1 X86.000 Y96.000
G1 X86.000 Y96.250
G1 X85.750 Y96.250
G1 X85.500 Y96.500
G1 X85.500 Y96.750
G1 X85.250 Y96.750
G1 X85.000 Y97.000
G1 X85.000 Y97.250
G1 X84.750 Y97.500
G1 X84.500 Y97.500
G1 X84.250 Y97.750
G1 X84.250 Y98.000
G1 X84.000 Y98.000
G0 Z2.000 F3000

; --- CIKEL NAMAKANJA ---
G0 Z2.000 F3000
M400
M204 P600 T600
G1 F1500
G0 X100.088 Y0.000 Z7.000
G1 Z1.000 F3000
G1 X100.088 Y0.000 F2500
G1 X100.088 Y2.500 F2500
G1 X95.088 Y0.000 F2500
G1 X100.088 Y0.000 F2500
G0 Z19.000 F3000
G0 X88.794 Y18.962
G0 Z7.000 F3000
G0 X83.750 Y98.250 Z2.000
M400
M204 P200 T200
G1 F600
G1 Z0.000 F2500
G1 X83.750 Y98.250
G1 X83.750 Y98.500
G1 X83.500 Y98.500
G1 X83.250 Y98.750
G1 X83.000 Y99.000
G1 X83.000 Y99.250
G1 X82.750 Y99.250
G1 X82.500 Y99.500
G1 X82.500 Y99.750
G1 X82.250 Y99.750
G1 X82.000 Y100.000
G1 X81.750 Y100.250
G1 X81.750 Y100.500
G1 X81.500 Y100.500
G1 X81.250 Y100.750
G1 X81.250 Y101.000
G1 X81.000 Y101.000
G1 X80.750 Y101.250
G1 X80.750 Y101.500
G1 X80.500 Y101.750
G1 X80.250 Y101.750
G1 X80.000 Y102.000
G1 X80.000 Y102.250
G1 X79.750 Y102.250
G1 X79.500 Y102.500
G1 X79.500 Y102.750
G1 X79.250 Y102.750
G1 X79.000 Y103.000
G1 X78.750 Y103.250
G1 X78.750 Y103.500
G1 X78.500 Y103.500
G1 X78.250 Y103.750
G1 X78.250 Y104.000
G1 X78.000 Y104.000
G1 X77.750 Y104.250
G1 X77.750 Y104.500
G1 X77.500 Y104.750
G1 X77.250 Y104.750
G1 X77.000 Y105.000
G1 X77.000 Y105.250
G1 X76.750 Y105.250
G1 X76.500 Y105.500
G1 X76.500 Y105.750
G1 X76.250 Y105.750
G1 X76.000 Y106.000
G1 X75.750 Y106.250
G1 X75.750 Y106.500
G1 X75.500 Y106.500
G1 X75.250 Y106.750
G1 X75.250 Y107.000
G1 X75.000 Y107.000
G1 X74.750 Y107.250
G1 X74.500 Y107.500
G1 X74.500 Y107.750
G1 X74.250 Y107.750
G1 X74.000 Y108.000
G1 X74.000 Y108.250
G1 X73.750 Y108.250
G1 X73.500 Y108.500
G1 X73.500 Y108.750
G1 X73.250 Y108.750
G1 X73.000 Y109.000
G1 X72.750 Y109.250
G1 X72.750 Y109.500
G1 X72.500 Y109.500
G1 X72.250 Y109.750
G1 X72.250 Y110.000
G1 X72.000 Y110.000
G1 X71.750 Y110.250
G1 X71.500 Y110.500
G1 X71.500 Y110.750
G1 X71.250 Y110.750
G0 Z2.000 F3000
M400
M204 P600 T600
G1 F1500
G0 X71.500 Y111.750 Z2.000
M400
M204 P200 T200
G1 F600
G1 Z0.000 F2500
G1 X71.500 Y111.500
G1 X71.750 Y111.250
G1 X72.000 Y111.250
G1 X72.250 Y111.000
G1 X72.250 Y110.750
G1 X72.500 Y110.750
G1 X72.750 Y110.500
G1 X72.750 Y110.250
G1 X73.000 Y110.000
G1 X73.250 Y110.000
G1 X73.500 Y109.750
G1 X73.500 Y109.500
G1 X73.750 Y109.500
G1 X74.000 Y109.250
G1 X74.000 Y109.000
G1 X74.250 Y108.750
G1 X74.500 Y108.750
G1 X74.500 Y108.500
G1 X74.750 Y108.250
G1 X75.000 Y108.250
G1 X75.250 Y108.000
G1 X75.250 Y107.750
G1 X75.500 Y107.750
G1 X75.750 Y107.500
G1 X75.750 Y107.250
G1 X76.000 Y107.000
G1 X76.250 Y107.000
G1 X76.500 Y106.750
G1 X76.500 Y106.500
G1 X76.750 Y106.500
G1 X77.000 Y106.250
G1 X77.000 Y106.000
G1 X77.250 Y105.750
G1 X77.500 Y105.750
G1 X77.750 Y105.500
G1 X77.750 Y105.250
G1 X78.000 Y105.250
G1 X78.250 Y105.000
G1 X78.250 Y104.750
G1 X78.500 Y104.750
G1 X78.750 Y104.500
G1 X78.750 Y104.250
G1 X79.000 Y104.000
G1 X79.250 Y104.000
G1 X79.500 Y103.750
G1 X79.500 Y103.500
G1 X79.750 Y103.500
G1 X80.000 Y103.250
G1 X80.000 Y103.000
G1 X80.250 Y102.750
G1 X80.500 Y102.750
G1 X80.750 Y102.500
G1 X80.750 Y102.250
G1 X81.000 Y102.250
G1 X81.250 Y102.000
G1 X81.250 Y101.750
G1 X81.500 Y101.750
G1 X81.750 Y101.500
G1 X81.750 Y101.250
G1 X82.000 Y101.000
G1 X82.250 Y101.000
G1 X82.500 Y100.750
G1 X82.500 Y100.500
G1 X82.750 Y100.500
G1 X83.000 Y100.250
G1 X83.000 Y100.000
G1 X83.250 Y99.750
G1 X83.500 Y99.750
G1 X83.750 Y99.500
G1 X83.750 Y99.250
G1 X84.000 Y99.250
G1 X84.250 Y99.000
G1 X84.250 Y98.750
G1 X84.500 Y98.500
G1 X84.750 Y98.500
G1 X85.000 Y98.250
G1 X85.000 Y98.000
G1 X85.250 Y98.000
G1 X85.500 Y97.750
G1 X85.500 Y97.500
G1 X85.750 Y97.500
G1 X86.000 Y97.250
G1 X86.000 Y97.000
G1 X86.250 Y96.750
G1 X86.500 Y96.750
G1 X86.750 Y96.500
G1 X86.750 Y96.250
G1 X87.000 Y96.250
G1 X87.250 Y96.000
G1 X87.250 Y95.750
G1 X87.500 Y95.500
G1 X87.750 Y95.500
G1 X88.000 Y95.250
G1 X88.000 Y95.000
G1 X88.250 Y95.000
G1 X88.500 Y94.750
G1 X88.500 Y94.500
G1 X88.750 Y94.500
G1 X89.000 Y94.250
G1 X89.000 Y94.000
G1 X89.250 Y93.750
G1 X89.500 Y93.750
G1 X89.750 Y93.500
G1 X89.750 Y93.250
G1 X90.000 Y93.250
G1 X90.250 Y93.000
G1 X90.250 Y92.750
G1 X90.500 Y92.500
G1 X90.750 Y92.500
G1 X91.000 Y92.250
G1 X91.000 Y92.000
G1 X91.250 Y92.000
G1 X91.500 Y91.750
G0 Z2.000 F3000
M400
M204 P600 T600
G1 F1500
G0 X83.500 Y101.750 Z2.000
M400
M204 P200 T200
G1 F600
G1 Z0.000 F2500
G1 X83.250 Y102.000
G1 X83.000 Y102.250
G1 X83.000 Y102.250
G1 X82.750 Y102.500
G1 X82.500 Y102.750
G1 X82.500 Y102.750
G1 X82.250 Y103.000
G1 X82.000 Y103.250
G1 X81.750 Y103.500
G1 X81.750 Y103.500
G1 X81.500 Y103.750
G1 X81.250 Y104.000
G1 X81.250 Y104.000
G1 X81.000 Y104.250
G1 X80.750 Y104.500
G1 X80.750 Y104.750
G1 X80.500 Y104.750
G1 X80.250 Y105.000
G1 X80.000 Y105.250
G1 X80.000 Y105.250
G1 X79.750 Y105.500
G1 X79.500 Y105.750
G1 X79.500 Y105.750
G1 X79.250 Y106.000
G1 X79.000 Y106.250
G1 X78.750 Y106.500
G1 X78.750 Y106.500
G1 X78.500 Y106.750
G1 X78.250 Y107.000
G1 X78.250 Y107.000
G1 X78.000 Y107.250
G1 X77.750 Y107.500
G1 X77.750 Y107.750
G1 X77.500 Y107.750
G1 X77.250 Y108.000
G1 X77.000 Y108.250
G1 X77.000 Y108.250
G1 X76.750 Y108.500
G1 X76.500 Y108.750
G1 X76.500 Y108.750
G1 X76.250 Y109.000
G1 X76.000 Y109.250
G1 X75.750 Y109.500
G1 X75.750 Y109.500
G1 X75.500 Y109.750
G1 X75.250 Y110.000
G1 X75.250 Y110.000
G1 X75.000 Y110.250
G1 X74.750 Y110.500
G1 X74.500 Y110.750
G1 X74.500 Y110.750
G1 X74.250 Y111.000
G1 X74.000 Y111.250
G1 X74.000 Y111.250
G1 X73.750 Y111.500
G1 X73.500 Y111.750
G1 X73.500 Y112.000
G1 X73.250 Y112.000
G1 X73.000 Y112.250
G1 X72.750 Y112.500
G1 X72.750 Y112.500
G1 X72.500 Y112.750
G1 X72.250 Y113.000
G1 X72.250 Y113.000
G0 Z2.000 F3000
M400
M204 P600 T600
G1 F1500
G0 X72.500 Y113.750 Z2.000
M400
M204 P200 T200
G1 F600
G1 Z0.000 F2500
G1 X72.750 Y113.750
G1 X72.750 Y113.500
G1 X73.000 Y113.250
G1 X73.250 Y113.000
G1 X73.500 Y113.000
G1 X73.500 Y112.750
G1 X73.750 Y112.500
G1 X74.000 Y112.500
G1 X74.000 Y112.250
G1 X74.250 Y112.000
G1 X74.500 Y112.000
G1 X74.500 Y111.750
G1 X74.750 Y111.500
G1 X75.000 Y111.250
G1 X75.250 Y111.250
G1 X75.250 Y111.000
G1 X75.500 Y110.750
G1 X75.750 Y110.750
G1 X75.750 Y110.500
G1 X76.000 Y110.250
G1 X76.250 Y110.000
G1 X76.500 Y110.000
G1 X76.500 Y109.750
G1 X76.750 Y109.500
G1 X77.000 Y109.500
G1 X77.000 Y109.250
G1 X77.250 Y109.000
G1 X77.500 Y108.750
G1 X77.750 Y108.750
G1 X77.750 Y108.500
G1 X78.000 Y108.250
G1 X78.250 Y108.250
G1 X78.250 Y108.000
G1 X78.500 Y107.750
G1 X78.750 Y107.750
G1 X78.750 Y107.500
G1 X79.000 Y107.250
G1 X79.250 Y107.000
G1 X79.500 Y107.000
G1 X79.500 Y106.750
G1 X79.750 Y106.500
G1 X80.000 Y106.500
G1 X80.000 Y106.250
G1 X80.250 Y106.000
G0 Z2.000 F3000

; --- CIKEL NAMAKANJA ---
G0 Z2.000 F3000
M400
M204 P600 T600
G1 F1500
G0 X74.944 Y16.433 Z7.000
G1 Z1.000 F3000
G1 X74.944 Y16.433 F2500
G1 X74.944 Y18.933 F2500
G1 X69.944 Y16.433 F2500
G1 X74.944 Y8.933 F2500
G0 Z19.000 F3000
G0 X88.300 Y18.924
G0 Z7.000 F3000
G0 X80.500 Y105.750 Z2.000
M400
M204 P200 T200
G1 F600
G1 Z0.000 F2500
G1 X80.500 Y105.750
G1 X80.750 Y105.750
G1 X80.750 Y105.500
G1 X81.000 Y105.250
G1 X81.250 Y105.250
G1 X81.250 Y105.000
G1 X81.500 Y104.750
G1 X81.750 Y104.750
G1 X81.750 Y104.500
G1 X82.000 Y104.250
G1 X82.250 Y104.000
G1 X82.500 Y104.000
G1 X82.500 Y103.750
G1 X82.750 Y103.500
G0 Z2.000 F3000
M400
M204 P600 T600
G1 F1500
G0 X82.000 Y105.250 Z2.000
M400
M204 P200 T200
G1 F600
G1 Z0.000 F2500
G1 X81.750 Y105.500
G1 X81.750 Y105.750
G1 X81.500 Y105.750
G1 X81.250 Y106.000
G1 X81.250 Y106.250
G1 X81.000 Y106.500
G1 X80.750 Y106.500
G1 X80.750 Y106.750
G1 X80.500 Y107.000
G1 X80.250 Y107.000
G1 X80.000 Y107.250
G1 X80.000 Y107.500
G1 X79.750 Y107.750
G1 X79.500 Y107.750
G1 X79.500 Y108.000
G1 X79.250 Y108.250
G1 X79.000 Y108.250
G1 X78.750 Y108.500
G1 X78.750 Y108.750
G1 X78.500 Y108.750
G1 X78.250 Y109.000
G1 X78.250 Y109.250
G1 X78.000 Y109.500
G1 X77.750 Y109.500
G1 X77.750 Y109.750
G1 X77.500 Y110.000
G1 X77.250 Y110.000
G1 X77.000 Y110.250
G1 X77.000 Y110.500
G1 X76.750 Y110.750
G1 X76.500 Y110.750
G1 X76.500 Y111.000
G1 X76.250 Y111.250
G1 X76.000 Y111.250
G1 X75.750 Y111.500
G1 X75.750 Y111.750
G1 X75.500 Y112.000
G1 X75.250 Y112.000
G1 X75.250 Y112.250
G1 X75.000 Y112.500
G1 X74.750 Y112.500
G1 X74.500 Y112.750
G1 X74.500 Y113.000
G1 X74.250 Y113.000
G1 X74.000 Y113.250
G1 X74.000 Y113.500
G1 X73.750 Y113.750
G1 X73.500 Y113.750
G1 X73.500 Y114.000
G1 X73.250 Y114.250
G1 X73.000 Y114.250
G1 X72.750 Y114.500
G0 Z2.000 F3000
M400
M204 P600 T600
G1 F1500
G0 X73.250 Y115.250 Z2.000
M400
M204 P200 T200
G1 F600
G1 Z0.000 F2500
G1 X73.500 Y115.000
G1 X73.500 Y115.000
G1 X73.750 Y114.750
G1 X74.000 Y114.500
G1 X74.000 Y114.250
G1 X74.250 Y114.250
G1 X74.500 Y114.000
G1 X74.500 Y113.750
G1 X74.750 Y113.750
G1 X75.000 Y113.500
G1 X75.250 Y113.250
G1 X75.250 Y113.000
G1 X75.500 Y113.000
G1 X75.750 Y112.750
G1 X75.750 Y112.500
G1 X76.000 Y112.500
G1 X76.250 Y112.250
G1 X76.500 Y112.000
G1 X76.500 Y112.000
G1 X76.750 Y111.750
G1 X77.000 Y111.500
G1 X77.000 Y111.250
G1 X77.250 Y111.250
G1 X77.500 Y111.000
G1 X77.750 Y110.750
G1 X77.750 Y110.750
G1 X78.000 Y110.500
G1 X78.250 Y110.250
G1 X78.250 Y110.000
G1 X78.500 Y110.000
G1 X78.750 Y109.750
G1 X78.750 Y109.500
G1 X79.000 Y109.500
G1 X79.250 Y109.250
G1 X79.500 Y109.000
G1 X79.500 Y108.750
G1 X79.750 Y108.750
G1 X80.000 Y108.500
G1 X80.000 Y108.250
G1 X80.250 Y108.250
G1 X80.500 Y108.000
G1 X80.750 Y107.750
G1 X80.750 Y107.750
G1 X81.000 Y107.500
G1 X81.250 Y107.250
G1 X81.250 Y107.000
G1 X81.500 Y107.000
G1 X81.750 Y106.750
G1 X81.750 Y106.500
G1 X82.000 Y106.500
G1 X82.250 Y106.250
G1 X82.500 Y106.000
G1 X82.500 Y105.750
G0 Z2.000 F3000
M400
M204 P600 T600
G1 F1500
G0 X83.000 Y106.500 Z2.000
M400
M204 P200 T200
G1 F600
G1 Z0.000 F2500
G1 X83.000 Y106.500
G1 X82.750 Y106.750
G1 X82.500 Y107.000
G1 X82.500 Y107.000
G1 X82.250 Y107.250
G1 X82.000 Y107.500
G1 X81.750 Y107.750
G1 X81.750 Y107.750
G1 X81.500 Y108.000
G1 X81.250 Y108.250
G1 X81.250 Y108.250
G1 X81.000 Y108.500
G1 X80.750 Y108.750
G1 X80.750 Y108.750
G1 X80.500 Y109.000
G1 X80.250 Y109.250
G1 X80.000 Y109.500
G1 X80.000 Y109.500
G1 X79.750 Y109.750
G1 X79.500 Y110.000
G1 X79.500 Y110.000
G1 X79.250 Y110.250
G1 X79.000 Y110.500
G1 X78.750 Y110.750
G1 X78.750 Y110.750
G1 X78.500 Y111.000
G1 X78.250 Y111.250
G1 X78.250 Y111.250
G1 X78.000 Y111.500
G1 X77.750 Y111.750
G1 X77.750 Y112.000
G1 X77.500 Y112.000
G1 X77.250 Y112.250
G1 X77.000 Y112.500
G1 X77.000 Y112.500
G1 X76.750 Y112.750
G1 X76.500 Y113.000
G1 X76.500 Y113.000
G1 X76.250 Y113.250
G1 X76.000 Y113.500
G1 X75.750 Y113.750
G1 X75.750 Y113.750
G1 X75.500 Y114.000
G1 X75.250 Y114.250
G1 X75.250 Y114.250
G1 X75.000 Y114.500
G1 X74.750 Y114.750
G1 X74.500 Y115.000
G1 X74.500 Y115.000
G1 X74.250 Y115.250
G1 X74.000 Y115.500
G1 X74.000 Y115.500
G1 X73.750 Y115.750
G1 X73.500 Y116.000
G1 X73.500 Y116.000
G0 Z2.000 F3000
M400
M204 P600 T600
G1 F1500
G0 X70.500 Y114.750 Z2.000
M400
M204 P200 T200
G1 F600
G1 Z0.000 F2500
G1 X70.500 Y115.000
G1 X70.250 Y115.000
G1 X70.000 Y115.250
G1 X69.750 Y115.500
G1 X69.750 Y115.500
G1 X69.500 Y115.750
G1 X69.250 Y116.000
G1 X69.250 Y116.000
G1 X69.000 Y116.250
G1 X68.750 Y116.500
G1 X68.500 Y116.750
G1 X68.500 Y116.750
G1 X68.250 Y117.000
G1 X68.000 Y117.250
G1 X68.000 Y117.250
G1 X67.750 Y117.500
G1 X67.500 Y117.750
G1 X67.500 Y118.000
G1 X67.250 Y118.000
G1 X67.000 Y118.250
G0 Z2.000 F3000
M400
M204 P600 T600
G1 F1500
G0 X66.500 Y117.750 Z2.000
M400
M204 P200 T200
G1 F600
G1 Z0.000 F2500
G1 X66.750 Y117.500
G1 X66.750 Y117.250
G1 X67.000 Y117.250
G1 X67.250 Y117.000
G1 X67.500 Y116.750
G1 X67.500 Y116.750
G1 X67.750 Y116.500
G1 X68.000 Y116.250
G1 X68.000 Y116.000
G1 X68.250 Y116.000
G1 X68.500 Y115.750
G1 X68.500 Y115.500
G1 X68.750 Y115.500
G1 X69.000 Y115.250
G1 X69.250 Y115.000
G1 X69.250 Y115.000
G1 X69.500 Y114.750
G1 X69.750 Y114.500
G1 X69.750 Y114.250
G1 X70.000 Y114.250
G1 X70.250 Y114.000
G0 Z2.000 F3000
M400
M204 P600 T600
G1 F1500
G0 X69.750 Y113.250 Z2.000
M400
M204 P200 T200
G1 F600
G1 Z0.000 F2500
G1 X69.750 Y113.500
G1 X69.500 Y113.750
G1 X69.250 Y113.750
G1 X69.250 Y114.000
G1 X69.000 Y114.250
G1 X68.750 Y114.250
G1 X68.500 Y114.500
G1 X68.500 Y114.750
G1 X68.250 Y115.000
G1 X68.000 Y115.000
G1 X68.000 Y115.250
G1 X67.750 Y115.500
G1 X67.500 Y115.500
G1 X67.500 Y115.750
G1 X67.250 Y116.000
G1 X67.000 Y116.000
G1 X66.750 Y116.250
G1 X66.750 Y116.500
G1 X66.500 Y116.750
G1 X66.250 Y116.750
G1 X66.250 Y117.000
G1 X66.000 Y117.250
G0 Z2.000 F3000
M400
M204 P600 T600
G1 F1500
G0 X65.500 Y116.500 Z2.000
M400
M204 P200 T200
G1 F600
G1 Z0.000 F2500
G1 X65.750 Y116.250
G1 X66.000 Y116.000
G1 X66.250 Y116.000
G1 X66.250 Y115.750
G1 X66.500 Y115.500
G1 X66.750 Y115.500
G1 X66.750 Y115.250
G1 X67.000 Y115.000
G1 X67.250 Y115.000
G1 X67.500 Y114.750
G1 X67.500 Y114.500
G1 X67.750 Y114.250
G1 X68.000 Y114.250
G1 X68.000 Y114.000
G1 X68.250 Y113.750
G1 X68.500 Y113.750
G1 X68.500 Y113.500
G1 X68.750 Y113.250
G1 X69.000 Y113.000
G1 X69.250 Y113.000
G1 X69.250 Y112.750
G1 X69.500 Y112.500
G0 Z2.000 F3000
M400
M204 P600 T600
G1 F1500
G0 X69.000 Y111.000 Z2.000
M400
M204 P200 T200
G1 F600
G1 Z0.000 F2500
G1 X68.750 Y111.250
G1 X68.500 Y111.250
G1 X68.500 Y111.500
G1 X68.250 Y111.750
G1 X68.000 Y112.000
G1 X68.000 Y112.000
G1 X67.750 Y112.250
G1 X67.500 Y112.500
G1 X67.500 Y112.500
G1 X67.250 Y112.750
G1 X67.000 Y113.000
G1 X66.750 Y113.000
G1 X66.750 Y113.250
G1 X66.500 Y113.500
G1 X66.250 Y113.750
G1 X66.250 Y113.750
G1 X66.000 Y114.000
G1 X65.750 Y114.250
G1 X65.500 Y114.250
G1 X65.500 Y114.500
G1 X65.250 Y114.750
G1 X65.000 Y115.000
G1 X65.000 Y115.000
G1 X64.750 Y115.250
G0 Z2.000 F3000
M400
M204 P600 T600
G1 F1500
G0 X63.750 Y114.000 Z2.000
M400
M204 P200 T200
G1 F600
G1 Z0.000 F2500
G1 X64.000 Y113.750
G1 X64.250 Y113.750
G1 X64.250 Y113.500
G1 X64.500 Y113.250
G1 X64.750 Y113.000
G1 X65.000 Y113.000
G0 Z2.000 F3000

; --- CIKEL NAMAKANJA ---
G0 Z2.000 F3000
M400
M204 P600 T600
G1 F1500
G0 X85.358 Y0.000 Z7.000
G1 Z1.000 F3000
G1 X85.358 Y0.000 F2500
G1 X85.358 Y2.500 F2500
G1 X80.358 Y0.000 F2500
G1 X85.358 Y0.000 F2500
G0 Z19.000 F3000
G0 X85.887 Y18.549
G0 Z7.000 F3000
G0 X65.000 Y112.750 Z2.000
M400
M204 P200 T200
G1 F600
G1 Z0.000 F2500
G1 X65.000 Y112.750
G1 X65.250 Y112.500
G1 X65.500 Y112.500
G1 X65.500 Y112.250
G1 X65.750 Y112.000
G1 X66.000 Y112.000
G1 X66.250 Y111.750
G1 X66.250 Y111.500
G1 X66.500 Y111.250
G1 X66.750 Y111.250
G1 X66.750 Y111.000
G1 X67.000 Y110.750
G1 X67.250 Y110.750
G1 X67.500 Y110.500
G1 X67.500 Y110.250
G1 X67.750 Y110.000
G1 X68.000 Y110.000
G1 X68.000 Y109.750
G1 X68.250 Y109.500
G0 Z2.000 F3000
M400
M204 P600 T600
G1 F1500
G0 X67.500 Y108.250 Z2.000
M400
M204 P200 T200
G1 F600
G1 Z0.000 F2500
G1 X67.500 Y108.250
G1 X67.250 Y108.500
G1 X67.000 Y108.750
G1 X66.750 Y108.750
G1 X66.750 Y109.000
G1 X66.500 Y109.250
G1 X66.250 Y109.500
G1 X66.250 Y109.500
G1 X66.000 Y109.750
G1 X65.750 Y110.000
G1 X65.500 Y110.000
G1 X65.500 Y110.250
G1 X65.250 Y110.500
G1 X65.000 Y110.750
G1 X65.000 Y110.750
G1 X64.750 Y111.000
G1 X64.500 Y111.250
G1 X64.250 Y111.250
G1 X64.250 Y111.500
G1 X64.000 Y111.750
G1 X63.750 Y112.000
G1 X63.750 Y112.000
G1 X63.500 Y112.250
G1 X63.250 Y112.500
G1 X63.250 Y112.500
G1 X63.000 Y112.750
G0 Z2.000 F3000
M400
M204 P600 T600
G1 F1500
G0 X62.500 Y112.250 Z2.000
M400
M204 P200 T200
G1 F600
G1 Z0.000 F2500
G1 X62.500 Y112.000
G1 X62.750 Y112.000
G1 X63.000 Y111.750
G1 X63.250 Y111.500
G1 X63.250 Y111.250
G1 X63.500 Y111.250
G1 X63.750 Y111.000
G1 X63.750 Y110.750
G1 X64.000 Y110.750
G1 X64.250 Y110.500
G1 X64.250 Y110.250
G1 X64.500 Y110.000
G1 X64.750 Y110.000
G1 X65.000 Y109.750
G1 X65.000 Y109.500
G1 X65.250 Y109.500
G1 X65.500 Y109.250
G1 X65.500 Y109.000
G1 X65.750 Y108.750
G1 X66.000 Y108.750
G1 X66.250 Y108.500
G1 X66.250 Y108.250
G1 X66.500 Y108.250
G1 X66.750 Y108.000
G1 X66.750 Y107.750
G1 X67.000 Y107.750
G1 X67.250 Y107.500
G0 Z2.000 F3000
M400
M204 P600 T600
G1 F1500
G0 X66.250 Y105.250 Z2.000
M400
M204 P200 T200
G1 F600
G1 Z0.000 F2500
G1 X66.250 Y105.250
G1 X66.000 Y105.500
G1 X65.750 Y105.750
G1 X65.500 Y105.750
G1 X65.500 Y106.000
G1 X65.250 Y106.250
G1 X65.000 Y106.500
G1 X65.000 Y106.500
G1 X64.750 Y106.750
G1 X64.500 Y107.000
G1 X64.250 Y107.000
G1 X64.250 Y107.250
G1 X64.000 Y107.500
G1 X63.750 Y107.750
G1 X63.750 Y107.750
G1 X63.500 Y108.000
G1 X63.250 Y108.250
G1 X63.250 Y108.250
G1 X63.000 Y108.500
G1 X62.750 Y108.750
G1 X62.500 Y108.750
G1 X62.500 Y109.000
G1 X62.250 Y109.250
G1 X62.000 Y109.500
G1 X62.000 Y109.500
G1 X61.750 Y109.750
G1 X61.500 Y110.000
G1 X61.250 Y110.000
G1 X61.250 Y110.250
G0 Z2.000 F3000
M400
M204 P600 T600
G1 F1500
G0 X60.750 Y109.750 Z2.000
M400
M204 P200 T200
G1 F600
G1 Z0.000 F2500
G1 X60.750 Y109.500
G1 X61.000 Y109.500
G1 X61.250 Y109.250
G1 X61.250 Y109.000
G1 X61.500 Y108.750
G1 X61.750 Y108.750
G1 X62.000 Y108.500
G1 X62.000 Y108.250
G1 X62.250 Y108.250
G1 X62.500 Y108.000
G1 X62.500 Y107.750
G1 X62.750 Y107.750
G1 X63.000 Y107.500
G1 X63.250 Y107.250
G1 X63.250 Y107.000
G1 X63.500 Y107.000
G1 X63.750 Y106.750
