G90
G21
; === MULTI-COLOR PAINTER GCODE ===
; Generated layers: 1
; Backlash compensation: OFF
; Working area clamping: ON  X[0–290] Y[0–450]
; Tutti Frutti mode: OFF


; ═══════════════════════════════
; LAYER 2: Color 2 — Teal
; Infill: lines
; ═══════════════════════════════


; --- CIKEL NAMAKANJA ---
G0 Z2.000 F3000
M400
M204 P300 T300
G1 F600
G0 X68.181 Y0.000 Z7.000
G1 Z1.000 F3000
G1 X68.181 Y0.000 F2500
G1 X68.181 Y2.500 F2500
G1 X63.181 Y0.000 F2500
G1 X68.181 Y0.000 F2500
G0 Z19.000 F3000
G0 X92.175 Y18.875
G0 Z7.000 F3000
G0 X97.750 Y67.250 Z2.000
M400
M204 P300 T300
G1 F600
G0 X97.750 Y67.250 Z2.000
M400
M204 P150 T150
G1 F120
G1 Z0.000 F2500
G1 X98.000 Y67.250
G1 X98.250 Y67.250
G1 X98.500 Y67.250
G1 X98.750 Y67.250
G0 Z2.000 F3000
M400
M204 P300 T300
G1 F600
G0 X98.750 Y68.000 Z2.000
M400
M204 P150 T150
G1 F120
G1 Z0.000 F2500
G1 X98.500 Y68.000
G1 X98.250 Y68.000
G1 X98.000 Y68.000
G1 X97.750 Y68.000
G1 X97.500 Y68.000
G1 X97.250 Y68.000
G1 X97.000 Y68.000
G1 X96.750 Y68.000
G1 X96.500 Y68.000
G1 X96.250 Y68.000
G1 X96.000 Y68.000
G1 X95.750 Y68.000
G0 Z2.000 F3000
M400
M204 P300 T300
G1 F600
G0 X94.250 Y68.750 Z2.000
M400
M204 P150 T150
G1 F120
G1 Z0.000 F2500
G1 X94.500 Y68.750
G1 X94.750 Y68.750
G1 X95.000 Y68.750
G1 X95.250 Y68.750
G1 X95.500 Y68.750
G1 X95.750 Y68.750
G1 X96.000 Y68.750
G1 X96.250 Y68.750
G1 X96.500 Y68.750
G1 X96.750 Y68.750
G1 X97.000 Y68.750
G1 X97.250 Y68.750
G1 X97.500 Y68.750
G1 X97.750 Y68.750
G1 X98.000 Y68.750
G1 X98.250 Y68.750
G1 X98.500 Y68.750
G1 X98.750 Y68.750
G0 Z2.000 F3000
M400
M204 P300 T300
G1 F600
G0 X99.000 Y72.500 Z2.000
M400
M204 P150 T150
G1 F120
G1 Z0.000 F2500
G1 X98.750 Y72.500
G1 X98.500 Y72.500
G1 X98.250 Y72.500
G1 X98.000 Y72.500
G1 X97.750 Y72.500
G1 X97.500 Y72.500
G1 X97.250 Y72.500
G1 X97.000 Y72.500
G1 X96.750 Y72.500
G0 Z2.000 F3000
M400
M204 P300 T300
G1 F600
G0 X96.750 Y73.250 Z2.000
M400
M204 P150 T150
G1 F120
G1 Z0.000 F2500
G1 X97.000 Y73.250
G1 X97.250 Y73.250
G1 X97.500 Y73.250
G1 X97.750 Y73.250
G1 X98.000 Y73.250
G1 X98.250 Y73.250
G1 X98.500 Y73.250
G1 X98.750 Y73.250
G1 X99.000 Y73.250
G0 Z2.000 F3000
M400
M204 P300 T300
G1 F600
G0 X99.000 Y74.000 Z2.000
M400
M204 P150 T150
G1 F120
G1 Z0.000 F2500
G1 X98.750 Y74.000
G1 X98.500 Y74.000
G1 X98.250 Y74.000
G1 X98.000 Y74.000
G1 X97.750 Y74.000
G1 X97.500 Y74.000
G1 X97.250 Y74.000
G1 X97.000 Y74.000
G1 X96.750 Y74.000
G1 X96.500 Y74.000
G0 Z2.000 F3000
M400
M204 P300 T300
G1 F600
G0 X96.500 Y74.750 Z2.000
M400
M204 P150 T150
G1 F120
G1 Z0.000 F2500
G1 X96.750 Y74.750
G1 X97.000 Y74.750
G1 X97.250 Y74.750
G1 X97.500 Y74.750
G1 X97.750 Y74.750
G1 X98.000 Y74.750
G1 X98.250 Y74.750
G1 X98.500 Y74.750
G1 X98.750 Y74.750
G1 X99.000 Y74.750
G0 Z2.000 F3000
M400
M204 P300 T300
G1 F600
G0 X99.000 Y75.500 Z2.000
M400
M204 P150 T150
G1 F120
G1 Z0.000 F2500
G1 X98.750 Y75.500
G1 X98.500 Y75.500
G1 X98.250 Y75.500
G1 X98.000 Y75.500
G1 X97.750 Y75.500
G1 X97.500 Y75.500
G1 X97.250 Y75.500
G1 X97.000 Y75.500
G1 X96.750 Y75.500
G1 X96.500 Y75.500
G1 X96.250 Y75.500
G0 Z2.000 F3000
M400
M204 P300 T300
G1 F600
G0 X96.250 Y76.250 Z2.000
M400
M204 P150 T150
G1 F120
G1 Z0.000 F2500
G1 X96.500 Y76.250
G1 X96.750 Y76.250
G1 X97.000 Y76.250
G1 X97.250 Y76.250
G1 X97.500 Y76.250
G1 X97.750 Y76.250
G1 X98.000 Y76.250
G1 X98.250 Y76.250
G1 X98.500 Y76.250
G1 X98.750 Y76.250
G1 X99.000 Y76.250
G0 Z2.000 F3000
M400
M204 P300 T300
G1 F600
G0 X98.750 Y77.000 Z2.000
M400
M204 P150 T150
G1 F120
G1 Z0.000 F2500
G1 X98.500 Y77.000
G1 X98.250 Y77.000
G1 X98.000 Y77.000
G1 X97.750 Y77.000
G1 X97.500 Y77.000
G1 X97.250 Y77.000
G1 X97.000 Y77.000
G1 X96.750 Y77.000
G1 X96.500 Y77.000
G1 X96.250 Y77.000
G1 X96.000 Y77.000
G0 Z2.000 F3000
M400
M204 P300 T300
G1 F600
G0 X95.750 Y77.750 Z2.000
M400
M204 P150 T150
G1 F120
G1 Z0.000 F2500
G1 X96.000 Y77.750
G1 X96.250 Y77.750
G1 X96.500 Y77.750
G1 X96.750 Y77.750
G1 X97.000 Y77.750
G1 X97.250 Y77.750
G1 X97.500 Y77.750
G1 X97.750 Y77.750
G1 X98.000 Y77.750
G1 X98.250 Y77.750
G1 X98.500 Y77.750
G1 X98.750 Y77.750
G0 Z2.000 F3000
M400
M204 P300 T300
G1 F600
G0 X98.500 Y78.500 Z2.000
M400
M204 P150 T150
G1 F120
G1 Z0.000 F2500
G1 X98.250 Y78.500
G1 X98.000 Y78.500
G1 X97.750 Y78.500
G1 X97.500 Y78.500
G1 X97.250 Y78.500
G1 X97.000 Y78.500
G1 X96.750 Y78.500
G1 X96.500 Y78.500
G1 X96.250 Y78.500
G1 X96.000 Y78.500
G1 X95.750 Y78.500
G1 X95.500 Y78.500
G0 Z2.000 F3000
M400
M204 P300 T300
G1 F600
G0 X95.250 Y79.250 Z2.000
M400
M204 P150 T150
G1 F120
G1 Z0.000 F2500
G1 X95.500 Y79.250
G1 X95.750 Y79.250
G1 X96.000 Y79.250
G1 X96.250 Y79.250
G1 X96.500 Y79.250
G1 X96.750 Y79.250
G1 X97.000 Y79.250
G1 X97.250 Y79.250
G1 X97.500 Y79.250
G1 X97.750 Y79.250
G1 X98.000 Y79.250
G1 X98.250 Y79.250
G1 X98.500 Y79.250
G0 Z2.000 F3000
M400
M204 P300 T300
G1 F600
G0 X98.250 Y80.000 Z2.000
M400
M204 P150 T150
G1 F120
G1 Z0.000 F2500
G1 X98.000 Y80.000
G1 X97.750 Y80.000
G1 X97.500 Y80.000
G1 X97.250 Y80.000
G1 X97.000 Y80.000
G1 X96.750 Y80.000
G1 X96.500 Y80.000
G1 X96.250 Y80.000
G1 X96.000 Y80.000
G1 X95.750 Y80.000
G1 X95.500 Y80.000
G1 X95.250 Y80.000
G1 X95.000 Y80.000
G1 X94.750 Y80.000
G0 Z2.000 F3000
M400
M204 P300 T300
G1 F600
G0 X94.500 Y80.750 Z2.000
M400
M204 P150 T150
G1 F120
G1 Z0.000 F2500
G1 X94.750 Y80.750
G1 X95.000 Y80.750
G1 X95.250 Y80.750
G1 X95.500 Y80.750
G1 X95.750 Y80.750
G1 X96.000 Y80.750
G1 X96.250 Y80.750
G1 X96.500 Y80.750
G1 X96.750 Y80.750
G1 X97.000 Y80.750
G1 X97.250 Y80.750
G1 X97.500 Y80.750
G1 X97.750 Y80.750
G1 X98.000 Y80.750
G0 Z2.000 F3000
M400
M204 P300 T300
G1 F600
G0 X97.750 Y81.500 Z2.000
M400
M204 P150 T150
G1 F120
G1 Z0.000 F2500
G1 X97.500 Y81.500
G1 X97.250 Y81.500
G1 X97.000 Y81.500
G1 X96.750 Y81.500
G1 X96.500 Y81.500
G1 X96.250 Y81.500
G1 X96.000 Y81.500
G1 X95.750 Y81.500
G1 X95.500 Y81.500
G1 X95.250 Y81.500
G1 X95.000 Y81.500
G1 X94.750 Y81.500
G1 X94.500 Y81.500
G1 X94.250 Y81.500
G1 X94.000 Y81.500
G0 Z2.000 F3000
M400
M204 P300 T300
G1 F600
G0 X93.750 Y82.250 Z2.000
M400
M204 P150 T150
G1 F120
G1 Z0.000 F2500
G1 X94.000 Y82.250
G1 X94.250 Y82.250
G1 X94.500 Y82.250
G1 X94.750 Y82.250
G1 X95.000 Y82.250
G1 X95.250 Y82.250
G1 X95.500 Y82.250
G1 X95.750 Y82.250
G1 X96.000 Y82.250
G1 X96.250 Y82.250
G1 X96.500 Y82.250
G1 X96.750 Y82.250
G1 X97.000 Y82.250
G1 X97.250 Y82.250
G0 Z2.000 F3000
M400
M204 P300 T300
G1 F600
G0 X97.000 Y83.000 Z2.000
M400
M204 P150 T150
G1 F120
G1 Z0.000 F2500
G1 X96.750 Y83.000
G1 X96.500 Y83.000
G1 X96.250 Y83.000
G1 X96.000 Y83.000
G1 X95.750 Y83.000
G1 X95.500 Y83.000
G1 X95.250 Y83.000
G1 X95.000 Y83.000
G1 X94.750 Y83.000
G1 X94.500 Y83.000
G1 X94.250 Y83.000
G1 X94.000 Y83.000
G1 X93.750 Y83.000
G1 X93.500 Y83.000
G1 X93.250 Y83.000
G0 Z2.000 F3000
M400
M204 P300 T300
G1 F600
G0 X92.750 Y83.750 Z2.000
M400
M204 P150 T150
G1 F120
G1 Z0.000 F2500
G1 X93.000 Y83.750
G1 X93.250 Y83.750
G1 X93.500 Y83.750
G1 X93.750 Y83.750
G1 X94.000 Y83.750
G1 X94.250 Y83.750
G1 X94.500 Y83.750
G1 X94.750 Y83.750
G1 X95.000 Y83.750
G1 X95.250 Y83.750
G1 X95.500 Y83.750
G1 X95.750 Y83.750
G1 X96.000 Y83.750
G1 X96.250 Y83.750
G1 X96.500 Y83.750
G0 Z2.000 F3000
M400
M204 P300 T300
G1 F600
G0 X96.000 Y84.500 Z2.000
M400
M204 P150 T150
G1 F120
G1 Z0.000 F2500
G1 X95.750 Y84.500
G1 X95.500 Y84.500
G1 X95.250 Y84.500
G1 X95.000 Y84.500
G1 X94.750 Y84.500
G1 X94.500 Y84.500
G1 X94.250 Y84.500
G1 X94.000 Y84.500
G1 X93.750 Y84.500
G1 X93.500 Y84.500
G1 X93.250 Y84.500
G1 X93.000 Y84.500
G1 X92.750 Y84.500
G1 X92.500 Y84.500
G1 X92.250 Y84.500
G0 Z2.000 F3000
M400
M204 P300 T300
G1 F600
G0 X91.750 Y85.250 Z2.000
M400
M204 P150 T150
G1 F120
G1 Z0.000 F2500
G1 X92.000 Y85.250
G1 X92.250 Y85.250
G1 X92.500 Y85.250
G1 X92.750 Y85.250
G1 X93.000 Y85.250
G1 X93.250 Y85.250
G1 X93.500 Y85.250
G1 X93.750 Y85.250
G1 X94.000 Y85.250
G1 X94.250 Y85.250
G1 X94.500 Y85.250
G1 X94.750 Y85.250
G1 X95.000 Y85.250
G1 X95.250 Y85.250
G1 X95.500 Y85.250
G0 Z2.000 F3000
M400
M204 P300 T300
G1 F600
G0 X97.250 Y89.000 Z2.000
M400
M204 P150 T150
G1 F120
G1 Z0.000 F2500
G1 X97.500 Y89.000
G0 Z2.000 F3000
M400
M204 P300 T300
G1 F600
G0 X98.500 Y89.750 Z2.000
M400
M204 P150 T150
G1 F120
G1 Z0.000 F2500
G1 X98.250 Y89.750
G1 X98.000 Y89.750
G1 X97.750 Y89.750
G1 X97.500 Y89.750
G1 X97.250 Y89.750
G1 X97.000 Y89.750
G1 X96.750 Y89.750
G1 X96.500 Y89.750
G1 X96.250 Y89.750
G1 X96.000 Y89.750
G0 Z2.000 F3000
M400
M204 P300 T300
G1 F600
G0 X95.000 Y90.500 Z2.000
M400
M204 P150 T150
G1 F120
G1 Z0.000 F2500
G1 X95.250 Y90.500
G1 X95.500 Y90.500
G1 X95.750 Y90.500
G1 X96.000 Y90.500
G1 X96.250 Y90.500
G1 X96.500 Y90.500
G1 X96.750 Y90.500
G1 X97.000 Y90.500
G1 X97.250 Y90.500
G1 X97.500 Y90.500
G1 X97.750 Y90.500
G1 X98.000 Y90.500
G1 X98.250 Y90.500
G1 X98.500 Y90.500
G1 X98.750 Y90.500
G1 X99.000 Y90.500
G1 X99.250 Y90.500
G0 Z2.000 F3000
M400
M204 P300 T300
G1 F600
G0 X100.000 Y91.250 Z2.000
M400
M204 P150 T150
G1 F120
G1 Z0.000 F2500
G1 X99.750 Y91.250
G1 X99.500 Y91.250
G1 X99.250 Y91.250
G1 X99.000 Y91.250
G1 X98.750 Y91.250
G1 X98.500 Y91.250
G1 X98.250 Y91.250
G1 X98.000 Y91.250
G1 X97.750 Y91.250
G1 X97.500 Y91.250
G1 X97.250 Y91.250
G1 X97.000 Y91.250
G1 X96.750 Y91.250
G1 X96.500 Y91.250
G1 X96.250 Y91.250
G1 X96.000 Y91.250
G1 X95.750 Y91.250
G1 X95.500 Y91.250
G1 X95.250 Y91.250
G1 X95.000 Y91.250
G1 X94.750 Y91.250
G1 X94.500 Y91.250
G1 X94.250 Y91.250
G1 X94.000 Y91.250
G1 X93.750 Y91.250
G0 Z2.000 F3000
M400
M204 P300 T300
G1 F600
G0 X92.750 Y92.000 Z2.000
M400
M204 P150 T150
G1 F120
G1 Z0.000 F2500
G1 X93.000 Y92.000
G1 X93.250 Y92.000
G1 X93.500 Y92.000
G1 X93.750 Y92.000
G1 X94.000 Y92.000
G1 X94.250 Y92.000
G1 X94.500 Y92.000
G1 X94.750 Y92.000
G1 X95.000 Y92.000
G1 X95.250 Y92.000
G1 X95.500 Y92.000
G1 X95.750 Y92.000
G1 X96.000 Y92.000
G1 X96.250 Y92.000
G1 X96.500 Y92.000
G1 X96.750 Y92.000
G1 X97.000 Y92.000
G1 X97.250 Y92.000
G1 X97.500 Y92.000
G1 X97.750 Y92.000
G1 X98.000 Y92.000
G1 X98.250 Y92.000
G1 X98.500 Y92.000
G1 X98.750 Y92.000
G1 X99.000 Y92.000
G1 X99.250 Y92.000
G1 X99.500 Y92.000
G1 X99.750 Y92.000
G1 X100.000 Y92.000
G1 X100.250 Y92.000
G1 X100.500 Y92.000
G1 X100.750 Y92.000
G0 Z2.000 F3000
M400
M204 P300 T300
G1 F600
G0 X91.500 Y92.000 Z2.000
M400
M204 P150 T150
G1 F120
G1 Z0.000 F2500
G1 X91.250 Y92.000
G1 X91.000 Y92.000
G1 X90.750 Y92.000
G1 X90.500 Y92.000
G1 X90.250 Y92.000
G0 Z2.000 F3000
M400
M204 P300 T300
G1 F600
G0 X89.750 Y92.750 Z2.000
M400
M204 P150 T150
G1 F120
G1 Z0.000 F2500
G1 X90.000 Y92.750
G1 X90.250 Y92.750
G1 X90.500 Y92.750
G1 X90.750 Y92.750
G1 X91.000 Y92.750
G1 X91.250 Y92.750
G1 X91.500 Y92.750
G1 X91.750 Y92.750
G1 X92.000 Y92.750
G1 X92.250 Y92.750
G1 X92.500 Y92.750
G1 X92.750 Y92.750
G1 X93.000 Y92.750
G1 X93.250 Y92.750
G1 X93.500 Y92.750
G1 X93.750 Y92.750
G1 X94.000 Y92.750
G1 X94.250 Y92.750
G1 X94.500 Y92.750
G1 X94.750 Y92.750
G1 X95.000 Y92.750
G0 Z2.000 F3000

; --- CIKEL NAMAKANJA ---
G0 Z2.000 F3000
M400
M204 P300 T300
G1 F600
G0 X81.077 Y11.948 Z7.000
G1 Z1.000 F3000
G1 X81.077 Y11.948 F2500
G1 X81.077 Y14.448 F2500
G1 X76.077 Y11.948 F2500
G1 X81.077 Y4.448 F2500
G0 Z19.000 F3000
G0 X91.074 Y18.970
G0 Z7.000 F3000
G0 X95.250 Y92.750 Z2.000
M400
M204 P150 T150
G1 F120
G1 Z0.000 F2500
G1 X95.250 Y92.750
G1 X95.500 Y92.750
G1 X95.750 Y92.750
G1 X96.000 Y92.750
G1 X96.250 Y92.750
G1 X96.500 Y92.750
G1 X96.750 Y92.750
G1 X97.000 Y92.750
G1 X97.250 Y92.750
G1 X97.500 Y92.750
G1 X97.750 Y92.750
G1 X98.000 Y92.750
G1 X98.250 Y92.750
G1 X98.500 Y92.750
G1 X98.750 Y92.750
G1 X99.000 Y92.750
G1 X99.250 Y92.750
G1 X99.500 Y92.750
G1 X99.750 Y92.750
G1 X100.000 Y92.750
G1 X100.250 Y92.750
G1 X100.500 Y92.750
G1 X100.750 Y92.750
G1 X101.000 Y92.750
G1 X101.250 Y92.750
G1 X101.500 Y92.750
G0 Z2.000 F3000
M400
M204 P300 T300
G1 F600
G0 X102.000 Y93.500 Z2.000
M400
M204 P150 T150
G1 F120
G1 Z0.000 F2500
G1 X101.750 Y93.500
G1 X101.500 Y93.500
G1 X101.250 Y93.500
G1 X101.000 Y93.500
G1 X100.750 Y93.500
G1 X100.500 Y93.500
G1 X100.250 Y93.500
G1 X100.000 Y93.500
G1 X99.750 Y93.500
G1 X99.500 Y93.500
G1 X99.250 Y93.500
G1 X99.000 Y93.500
G1 X98.750 Y93.500
G1 X98.500 Y93.500
G1 X98.250 Y93.500
G1 X98.000 Y93.500
G1 X97.750 Y93.500
G1 X97.500 Y93.500
G1 X97.250 Y93.500
G1 X97.000 Y93.500
G1 X96.750 Y93.500
G1 X96.500 Y93.500
G1 X96.250 Y93.500
G1 X96.000 Y93.500
G1 X95.750 Y93.500
G1 X95.500 Y93.500
G1 X95.250 Y93.500
G1 X95.000 Y93.500
G1 X94.750 Y93.500
G1 X94.500 Y93.500
G1 X94.250 Y93.500
G1 X94.000 Y93.500
G1 X93.750 Y93.500
G1 X93.500 Y93.500
G1 X93.250 Y93.500
G1 X93.000 Y93.500
G1 X92.750 Y93.500
G1 X92.500 Y93.500
G1 X92.250 Y93.500
G1 X92.000 Y93.500
G1 X91.750 Y93.500
G1 X91.500 Y93.500
G1 X91.250 Y93.500
G1 X91.000 Y93.500
G1 X90.750 Y93.500
G1 X90.500 Y93.500
G1 X90.250 Y93.500
G1 X90.000 Y93.500
G1 X89.750 Y93.500
G1 X89.500 Y93.500
G0 Z2.000 F3000
M400
M204 P300 T300
G1 F600
G0 X93.250 Y101.750 Z2.000
M400
M204 P150 T150
G1 F120
G1 Z0.000 F2500
G1 X93.500 Y101.750
G1 X93.750 Y101.750
G1 X94.000 Y101.750
G1 X94.250 Y101.750
G1 X94.500 Y101.750
G1 X94.750 Y101.750
G1 X95.000 Y101.750
G1 X95.250 Y101.750
G1 X95.500 Y101.750
G1 X95.750 Y101.750
G1 X96.000 Y101.750
G1 X96.250 Y101.750
G1 X96.500 Y101.750
G1 X96.750 Y101.750
G1 X97.000 Y101.750
G1 X97.250 Y101.750
G1 X97.500 Y101.750
G1 X97.750 Y101.750
G1 X98.000 Y101.750
G1 X98.250 Y101.750
G1 X98.500 Y101.750
G1 X98.750 Y101.750
G1 X99.000 Y101.750
G1 X99.250 Y101.750
G1 X99.500 Y101.750
G1 X99.750 Y101.750
G1 X100.000 Y101.750
G1 X100.250 Y101.750
G1 X100.500 Y101.750
G0 Z2.000 F3000
M400
M204 P300 T300
G1 F600
G0 X95.250 Y104.750 Z2.000
M400
M204 P150 T150
G1 F120
G1 Z0.000 F2500
G1 X95.500 Y104.750
G1 X95.750 Y104.750
G1 X96.000 Y104.750
G1 X96.250 Y104.750
G1 X96.500 Y104.750
G1 X96.750 Y104.750
G1 X97.000 Y104.750
G1 X97.250 Y104.750
G1 X97.500 Y104.750
G1 X97.750 Y104.750
G1 X98.000 Y104.750
G1 X98.250 Y104.750
G1 X98.500 Y104.750
G1 X98.750 Y104.750
G1 X99.000 Y104.750
G1 X99.250 Y104.750
G1 X99.500 Y104.750
G1 X99.750 Y104.750
G1 X100.000 Y104.750
G1 X100.250 Y104.750
G1 X100.500 Y104.750
G1 X100.750 Y104.750
G1 X101.000 Y104.750
G1 X101.250 Y104.750
G1 X101.500 Y104.750
G1 X101.750 Y104.750
G1 X102.000 Y104.750
G1 X102.250 Y104.750
G1 X102.500 Y104.750
G1 X102.750 Y104.750
G1 X103.000 Y104.750
G1 X103.250 Y104.750
G1 X103.500 Y104.750
G1 X103.750 Y104.750
G1 X104.000 Y104.750
G1 X104.250 Y104.750
G1 X104.500 Y104.750
G1 X104.750 Y104.750
G1 X105.000 Y104.750
G1 X105.250 Y104.750
G1 X105.500 Y104.750
G1 X105.750 Y104.750
G1 X106.000 Y104.750
G1 X106.250 Y104.750
G1 X106.500 Y104.750
G1 X106.750 Y104.750
G1 X107.000 Y104.750
G1 X107.250 Y104.750
G1 X107.500 Y104.750
G1 X107.750 Y104.750
G1 X108.000 Y104.750
G1 X108.250 Y104.750
G1 X108.500 Y104.750
G1 X108.750 Y104.750
G0 Z2.000 F3000
M400
M204 P300 T300
G1 F600
G0 X110.500 Y110.000 Z2.000
M400
M204 P150 T150
G1 F120
G1 Z0.000 F2500
G1 X110.250 Y110.000
G1 X110.000 Y110.000
G1 X109.750 Y110.000
G1 X109.500 Y110.000
G1 X109.250 Y110.000
G1 X109.000 Y110.000
G1 X108.750 Y110.000
G1 X108.500 Y110.000
G1 X108.250 Y110.000
G1 X108.000 Y110.000
G1 X107.750 Y110.000
G1 X107.500 Y110.000
G1 X107.250 Y110.000
G1 X107.000 Y110.000
G1 X106.750 Y110.000
G1 X106.500 Y110.000
G1 X106.250 Y110.000
G1 X106.000 Y110.000
G1 X105.750 Y110.000
G1 X105.500 Y110.000
G1 X105.250 Y110.000
G1 X105.000 Y110.000
G1 X104.750 Y110.000
G1 X104.500 Y110.000
G1 X104.250 Y110.000
G1 X104.000 Y110.000
G1 X103.750 Y110.000
G1 X103.500 Y110.000
G1 X103.250 Y110.000
G1 X103.000 Y110.000
G1 X102.750 Y110.000
G1 X102.500 Y110.000
G1 X102.250 Y110.000
G1 X102.000 Y110.000
G1 X101.750 Y110.000
G1 X101.500 Y110.000
G1 X101.250 Y110.000
G1 X101.000 Y110.000
G1 X100.750 Y110.000
G1 X100.500 Y110.000
G1 X100.250 Y110.000
G1 X100.000 Y110.000
G1 X99.750 Y110.000
G1 X99.500 Y110.000
G1 X99.250 Y110.000
G1 X99.000 Y110.000
G1 X98.750 Y110.000
G1 X98.500 Y110.000
G1 X98.250 Y110.000
G1 X98.000 Y110.000
G0 Z2.000 F3000
M400
M204 P300 T300
G1 F600
G0 X98.500 Y111.500 Z2.000
M400
M204 P150 T150
G1 F120
G1 Z0.000 F2500
G1 X98.750 Y111.500
G1 X99.000 Y111.500
G1 X99.250 Y111.500
G1 X99.500 Y111.500
G1 X99.750 Y111.500
G1 X100.000 Y111.500
G1 X100.250 Y111.500
G1 X100.500 Y111.500
G1 X100.750 Y111.500
G1 X101.000 Y111.500
G1 X101.250 Y111.500
G1 X101.500 Y111.500
G1 X101.750 Y111.500
G1 X102.000 Y111.500
G1 X102.250 Y111.500
G1 X102.500 Y111.500
G1 X102.750 Y111.500
G1 X103.000 Y111.500
G1 X103.250 Y111.500
G1 X103.500 Y111.500
G1 X103.750 Y111.500
G1 X104.000 Y111.500
G1 X104.250 Y111.500
G1 X104.500 Y111.500
G1 X104.750 Y111.500
G1 X105.000 Y111.500
G1 X105.250 Y111.500
G1 X105.500 Y111.500
G1 X105.750 Y111.500
G1 X106.000 Y111.500
G1 X106.250 Y111.500
G1 X106.500 Y111.500
G1 X106.750 Y111.500
G1 X107.000 Y111.500
G1 X107.250 Y111.500
G1 X107.500 Y111.500
G1 X107.750 Y111.500
G1 X108.000 Y111.500
G1 X108.250 Y111.500
G1 X108.500 Y111.500
G1 X108.750 Y111.500
G1 X109.000 Y111.500
G1 X109.250 Y111.500
G1 X109.500 Y111.500
G1 X109.750 Y111.500
G1 X110.000 Y111.500
G1 X110.250 Y111.500
G1 X110.500 Y111.500
G1 X110.750 Y111.500
G1 X111.000 Y111.500
G0 Z2.000 F3000
M400
M204 P300 T300
G1 F600
G0 X106.750 Y114.500 Z2.000
M400
M204 P150 T150
G1 F120
G1 Z0.000 F2500
G1 X106.500 Y114.500
G1 X106.250 Y114.500
G1 X106.000 Y114.500
G1 X105.750 Y114.500
G1 X105.500 Y114.500
G1 X105.250 Y114.500
G1 X105.000 Y114.500
G1 X104.750 Y114.500
G1 X104.500 Y114.500
G1 X104.250 Y114.500
G1 X104.000 Y114.500
G1 X103.750 Y114.500
G1 X103.500 Y114.500
G1 X103.250 Y114.500
G1 X103.000 Y114.500
G1 X102.750 Y114.500
G1 X102.500 Y114.500
G1 X102.250 Y114.500
G1 X102.000 Y114.500
G1 X101.750 Y114.500
G1 X101.500 Y114.500
G1 X101.250 Y114.500
G1 X101.000 Y114.500
G1 X100.750 Y114.500
G1 X100.500 Y114.500
G1 X100.250 Y114.500
G1 X100.000 Y114.500
G1 X99.750 Y114.500
G1 X99.500 Y114.500
G1 X99.250 Y114.500
G0 Z2.000 F3000
M400
M204 P300 T300
G1 F600
G0 X99.500 Y116.000 Z2.000
M400
M204 P150 T150
G1 F120
G1 Z0.000 F2500
G1 X99.750 Y116.000
G1 X100.000 Y116.000
G1 X100.250 Y116.000
G1 X100.500 Y116.000
G1 X100.750 Y116.000
G1 X101.000 Y116.000
G1 X101.250 Y116.000
G1 X101.500 Y116.000
G1 X101.750 Y116.000
G1 X102.000 Y116.000
G1 X102.250 Y116.000
G1 X102.500 Y116.000
G1 X102.750 Y116.000
G1 X103.000 Y116.000
G1 X103.250 Y116.000
G1 X103.500 Y116.000
G1 X103.750 Y116.000
G1 X104.000 Y116.000
G1 X104.250 Y116.000
G1 X104.500 Y116.000
G1 X104.750 Y116.000
G1 X105.000 Y116.000
G1 X105.250 Y116.000
G1 X105.500 Y116.000
G0 Z2.000 F3000
M400
M204 P300 T300
G1 F600
G0 X105.500 Y116.750 Z2.000
M400
M204 P150 T150
G1 F120
G1 Z0.000 F2500
G1 X105.250 Y116.750
G1 X105.000 Y116.750
G1 X104.750 Y116.750
G1 X104.500 Y116.750
G1 X104.250 Y116.750
G1 X104.000 Y116.750
G1 X103.750 Y116.750
G1 X103.500 Y116.750
G1 X103.250 Y116.750
G1 X103.000 Y116.750
G1 X102.750 Y116.750
G1 X102.500 Y116.750
G1 X102.250 Y116.750
G1 X102.000 Y116.750
G1 X101.750 Y116.750
G1 X101.500 Y116.750
G1 X101.250 Y116.750
G1 X101.000 Y116.750
G1 X100.750 Y116.750
G1 X100.500 Y116.750
G1 X100.250 Y116.750
G1 X100.000 Y116.750
G1 X99.750 Y116.750
G1 X99.500 Y116.750
G0 Z2.000 F3000
M400
M204 P300 T300
G1 F600
G0 X99.500 Y117.500 Z2.000
M400
M204 P150 T150
G1 F120
G1 Z0.000 F2500
G1 X99.750 Y117.500
G1 X100.000 Y117.500
G1 X100.250 Y117.500
G1 X100.500 Y117.500
G1 X100.750 Y117.500
G1 X101.000 Y117.500
G0 Z2.000 F3000

; --- CIKEL NAMAKANJA ---
G0 Z2.000 F3000
M400
M204 P300 T300
G1 F600
G0 X78.734 Y8.769 Z7.000
G1 Z1.000 F3000
G1 X78.734 Y8.769 F2500
G1 X78.734 Y11.269 F2500
G1 X73.734 Y8.769 F2500
G1 X78.734 Y1.269 F2500
G0 Z19.000 F3000
G0 X91.811 Y18.914
G0 Z7.000 F3000
G0 X101.250 Y117.500 Z2.000
M400
M204 P150 T150
G1 F120
G1 Z0.000 F2500
G1 X101.250 Y117.500
G1 X101.500 Y117.500
G1 X101.750 Y117.500
G1 X102.000 Y117.500
G1 X102.250 Y117.500
G1 X102.500 Y117.500
G1 X102.750 Y117.500
G1 X103.000 Y117.500
G1 X103.250 Y117.500
G1 X103.500 Y117.500
G1 X103.750 Y117.500
G1 X104.000 Y117.500
G1 X104.250 Y117.500
G1 X104.500 Y117.500
G1 X104.750 Y117.500
G1 X105.000 Y117.500
G1 X105.250 Y117.500
G1 X105.500 Y117.500
G1 X105.750 Y117.500
G0 Z2.000 F3000
M400
M204 P300 T300
G1 F600
G0 X105.750 Y119.000 Z2.000
M400
M204 P150 T150
G1 F120
G1 Z0.000 F2500
G1 X105.500 Y119.000
G1 X105.250 Y119.000
G1 X105.000 Y119.000
G1 X104.750 Y119.000
G1 X104.500 Y119.000
G1 X104.250 Y119.000
G1 X104.000 Y119.000
G1 X103.750 Y119.000
G1 X103.500 Y119.000
G1 X103.250 Y119.000
G1 X103.000 Y119.000
G1 X102.750 Y119.000
G1 X102.500 Y119.000
G1 X102.250 Y119.000
G1 X102.000 Y119.000
G1 X101.750 Y119.000
G1 X101.500 Y119.000
G1 X101.250 Y119.000
G1 X101.000 Y119.000
G1 X100.750 Y119.000
G1 X100.500 Y119.000
G1 X100.250 Y119.000
G1 X100.000 Y119.000
G1 X99.750 Y119.000
G0 Z2.000 F3000
M400
M204 P300 T300
G1 F600
G0 X99.750 Y119.750 Z2.000
M400
M204 P150 T150
G1 F120
G1 Z0.000 F2500
G1 X100.000 Y119.750
G1 X100.250 Y119.750
G1 X100.500 Y119.750
G1 X100.750 Y119.750
G1 X101.000 Y119.750
G1 X101.250 Y119.750
G1 X101.500 Y119.750
G1 X101.750 Y119.750
G1 X102.000 Y119.750
G1 X102.250 Y119.750
G1 X102.500 Y119.750
G1 X102.750 Y119.750
G1 X103.000 Y119.750
G1 X103.250 Y119.750
G1 X103.500 Y119.750
G1 X103.750 Y119.750
G1 X104.000 Y119.750
G1 X104.250 Y119.750
G1 X104.500 Y119.750
G1 X104.750 Y119.750
G1 X105.000 Y119.750
G1 X105.250 Y119.750
G1 X105.500 Y119.750
G1 X105.750 Y119.750
G0 Z2.000 F3000
M400
M204 P300 T300
G1 F600
G0 X106.000 Y120.500 Z2.000
M400
M204 P150 T150
G1 F120
G1 Z0.000 F2500
G1 X105.750 Y120.500
G1 X105.500 Y120.500
G1 X105.250 Y120.500
G1 X105.000 Y120.500
G1 X104.750 Y120.500
G1 X104.500 Y120.500
G1 X104.250 Y120.500
G1 X104.000 Y120.500
G1 X103.750 Y120.500
G1 X103.500 Y120.500
G1 X103.250 Y120.500
G1 X103.000 Y120.500
G1 X102.750 Y120.500
G1 X102.500 Y120.500
G1 X102.250 Y120.500
G1 X102.000 Y120.500
G1 X101.750 Y120.500
G1 X101.500 Y120.500
G1 X101.250 Y120.500
G1 X101.000 Y120.500
G1 X100.750 Y120.500
G1 X100.500 Y120.500
G1 X100.250 Y120.500
G1 X100.000 Y120.500
G1 X99.750 Y120.500
G0 Z2.000 F3000
M400
M204 P300 T300
G1 F600
G0 X99.750 Y121.250 Z2.000
M400
M204 P150 T150
G1 F120
G1 Z0.000 F2500
G1 X100.000 Y121.250
G1 X100.250 Y121.250
G1 X100.500 Y121.250
G1 X100.750 Y121.250
G1 X101.000 Y121.250
G1 X101.250 Y121.250
G1 X101.500 Y121.250
G1 X101.750 Y121.250
G1 X102.000 Y121.250
G1 X102.250 Y121.250
G1 X102.500 Y121.250
G1 X102.750 Y121.250
G1 X103.000 Y121.250
G1 X103.250 Y121.250
G1 X103.500 Y121.250
G1 X103.750 Y121.250
G1 X104.000 Y121.250
G1 X104.250 Y121.250
G1 X104.500 Y121.250
G1 X104.750 Y121.250
G1 X105.000 Y121.250
G1 X105.250 Y121.250
G1 X105.500 Y121.250
G1 X105.750 Y121.250
G1 X106.000 Y121.250
G1 X106.250 Y121.250
G1 X106.500 Y121.250
G1 X106.750 Y121.250
G1 X107.000 Y121.250
G1 X107.250 Y121.250
G1 X107.500 Y121.250
G1 X107.750 Y121.250
G0 Z2.000 F3000
M400
M204 P300 T300
G1 F600
G0 X110.000 Y122.000 Z2.000
M400
M204 P150 T150
G1 F120
G1 Z0.000 F2500
G1 X109.750 Y122.000
G1 X109.500 Y122.000
G1 X109.250 Y122.000
G1 X109.000 Y122.000
G1 X108.750 Y122.000
G1 X108.500 Y122.000
G1 X108.250 Y122.000
G1 X108.000 Y122.000
G1 X107.750 Y122.000
G1 X107.500 Y122.000
G1 X107.250 Y122.000
G1 X107.000 Y122.000
G1 X106.750 Y122.000
G1 X106.500 Y122.000
G1 X106.250 Y122.000
G1 X106.000 Y122.000
G1 X105.750 Y122.000
G1 X105.500 Y122.000
G1 X105.250 Y122.000
G1 X105.000 Y122.000
G1 X104.750 Y122.000
G1 X104.500 Y122.000
G1 X104.250 Y122.000
G1 X104.000 Y122.000
G1 X103.750 Y122.000
G1 X103.500 Y122.000
G1 X103.250 Y122.000
G1 X103.000 Y122.000
G1 X102.750 Y122.000
G1 X102.500 Y122.000
G1 X102.250 Y122.000
G1 X102.000 Y122.000
G1 X101.750 Y122.000
G1 X101.500 Y122.000
G1 X101.250 Y122.000
G1 X101.000 Y122.000
G1 X100.750 Y122.000
G1 X100.500 Y122.000
G1 X100.250 Y122.000
G1 X100.000 Y122.000
G1 X99.750 Y122.000
G1 X99.500 Y122.000
G0 Z2.000 F3000
M400
M204 P300 T300
G1 F600
G0 X99.500 Y122.750 Z2.000
M400
M204 P150 T150
G1 F120
G1 Z0.000 F2500
G1 X99.750 Y122.750
G1 X100.000 Y122.750
G1 X100.250 Y122.750
G1 X100.500 Y122.750
G1 X100.750 Y122.750
G1 X101.000 Y122.750
G1 X101.250 Y122.750
G1 X101.500 Y122.750
G1 X101.750 Y122.750
G1 X102.000 Y122.750
G1 X102.250 Y122.750
G1 X102.500 Y122.750
G1 X102.750 Y122.750
G1 X103.000 Y122.750
G1 X103.250 Y122.750
G1 X103.500 Y122.750
G1 X103.750 Y122.750
G1 X104.000 Y122.750
G1 X104.250 Y122.750
G1 X104.500 Y122.750
G1 X104.750 Y122.750
G1 X105.000 Y122.750
G1 X105.250 Y122.750
G1 X105.500 Y122.750
G1 X105.750 Y122.750
G1 X106.000 Y122.750
G1 X106.250 Y122.750
G1 X106.500 Y122.750
G1 X106.750 Y122.750
G1 X107.000 Y122.750
G1 X107.250 Y122.750
G1 X107.500 Y122.750
G1 X107.750 Y122.750
G1 X108.000 Y122.750
G1 X108.250 Y122.750
G1 X108.500 Y122.750
G1 X108.750 Y122.750
G1 X109.000 Y122.750
G1 X109.250 Y122.750
G1 X109.500 Y122.750
G1 X109.750 Y122.750
G1 X110.000 Y122.750
G1 X110.250 Y122.750
G1 X110.500 Y122.750
G1 X110.750 Y122.750
G1 X111.000 Y122.750
G1 X111.250 Y122.750
G1 X111.500 Y122.750
G1 X111.750 Y122.750
G0 Z2.000 F3000
M400
M204 P300 T300
G1 F600
G0 X112.000 Y123.500 Z2.000
M400
M204 P150 T150
G1 F120
G1 Z0.000 F2500
G1 X111.750 Y123.500
G1 X111.500 Y123.500
G1 X111.250 Y123.500
G1 X111.000 Y123.500
G1 X110.750 Y123.500
G1 X110.500 Y123.500
G1 X110.250 Y123.500
G1 X110.000 Y123.500
G1 X109.750 Y123.500
G1 X109.500 Y123.500
G1 X109.250 Y123.500
G1 X109.000 Y123.500
G1 X108.750 Y123.500
G1 X108.500 Y123.500
G1 X108.250 Y123.500
G1 X108.000 Y123.500
G1 X107.750 Y123.500
G1 X107.500 Y123.500
G1 X107.250 Y123.500
G1 X107.000 Y123.500
G1 X106.750 Y123.500
G1 X106.500 Y123.500
G1 X106.250 Y123.500
G1 X106.000 Y123.500
G1 X105.750 Y123.500
G1 X105.500 Y123.500
G1 X105.250 Y123.500
G1 X105.000 Y123.500
G1 X104.750 Y123.500
G1 X104.500 Y123.500
G1 X104.250 Y123.500
G1 X104.000 Y123.500
G1 X103.750 Y123.500
G1 X103.500 Y123.500
G1 X103.250 Y123.500
G1 X103.000 Y123.500
G1 X102.750 Y123.500
G1 X102.500 Y123.500
G1 X102.250 Y123.500
G1 X102.000 Y123.500
G1 X101.750 Y123.500
G1 X101.500 Y123.500
G1 X101.250 Y123.500
G1 X101.000 Y123.500
G1 X100.750 Y123.500
G1 X100.500 Y123.500
G1 X100.250 Y123.500
G1 X100.000 Y123.500
G1 X99.750 Y123.500
G1 X99.500 Y123.500
G0 Z2.000 F3000
M400
M204 P300 T300
G1 F600
G0 X99.500 Y124.250 Z2.000
M400
M204 P150 T150
G1 F120
G1 Z0.000 F2500
G1 X99.750 Y124.250
G1 X100.000 Y124.250
G1 X100.250 Y124.250
G1 X100.500 Y124.250
G1 X100.750 Y124.250
G1 X101.000 Y124.250
G1 X101.250 Y124.250
G1 X101.500 Y124.250
G1 X101.750 Y124.250
G1 X102.000 Y124.250
G1 X102.250 Y124.250
G1 X102.500 Y124.250
G1 X102.750 Y124.250
G1 X103.000 Y124.250
G1 X103.250 Y124.250
G1 X103.500 Y124.250
G1 X103.750 Y124.250
G1 X104.000 Y124.250
G1 X104.250 Y124.250
G1 X104.500 Y124.250
G1 X104.750 Y124.250
G1 X105.000 Y124.250
G1 X105.250 Y124.250
G1 X105.500 Y124.250
G1 X105.750 Y124.250
G1 X106.000 Y124.250
G1 X106.250 Y124.250
G1 X106.500 Y124.250
G1 X106.750 Y124.250
G1 X107.000 Y124.250
G1 X107.250 Y124.250
G1 X107.500 Y124.250
G1 X107.750 Y124.250
G1 X108.000 Y124.250
G1 X108.250 Y124.250
G1 X108.500 Y124.250
G1 X108.750 Y124.250
G1 X109.000 Y124.250
G1 X109.250 Y124.250
G1 X109.500 Y124.250
G1 X109.750 Y124.250
G1 X110.000 Y124.250
G1 X110.250 Y124.250
G1 X110.500 Y124.250
G1 X110.750 Y124.250
G1 X111.000 Y124.250
G1 X111.250 Y124.250
G1 X111.500 Y124.250
G1 X111.750 Y124.250
G0 Z2.000 F3000
M400
M204 P300 T300
G1 F600
G0 X111.750 Y125.000 Z2.000
M400
M204 P150 T150
G1 F120
G1 Z0.000 F2500
G1 X111.500 Y125.000
G1 X111.250 Y125.000
G1 X111.000 Y125.000
G1 X110.750 Y125.000
G1 X110.500 Y125.000
G1 X110.250 Y125.000
G1 X110.000 Y125.000
G1 X109.750 Y125.000
G1 X109.500 Y125.000
G1 X109.250 Y125.000
G1 X109.000 Y125.000
G1 X108.750 Y125.000
G1 X108.500 Y125.000
G1 X108.250 Y125.000
G1 X108.000 Y125.000
G1 X107.750 Y125.000
G1 X107.500 Y125.000
G1 X107.250 Y125.000
G1 X107.000 Y125.000
G1 X106.750 Y125.000
G1 X106.500 Y125.000
G1 X106.250 Y125.000
G1 X106.000 Y125.000
G1 X105.750 Y125.000
G1 X105.500 Y125.000
G1 X105.250 Y125.000
G1 X105.000 Y125.000
G1 X104.750 Y125.000
G1 X104.500 Y125.000
G1 X104.250 Y125.000
G1 X104.000 Y125.000
G1 X103.750 Y125.000
G0 Z2.000 F3000

; --- CIKEL NAMAKANJA ---
G0 Z2.000 F3000
M400
M204 P300 T300
G1 F600
G0 X93.515 Y0.000 Z7.000
G1 Z1.000 F3000
G1 X93.515 Y0.000 F2500
G1 X93.515 Y2.500 F2500
G1 X88.515 Y0.000 F2500
G1 X93.515 Y0.000 F2500
G0 Z19.000 F3000
G0 X92.040 Y18.890
G0 Z7.000 F3000
G0 X103.500 Y125.000 Z2.000
M400
M204 P150 T150
G1 F120
G1 Z0.000 F2500
G1 X103.500 Y125.000
G1 X103.250 Y125.000
G1 X103.000 Y125.000
G1 X102.750 Y125.000
G1 X102.500 Y125.000
G1 X102.250 Y125.000
G1 X102.000 Y125.000
G1 X101.750 Y125.000
G1 X101.500 Y125.000
G1 X101.250 Y125.000
G1 X101.000 Y125.000
G1 X100.750 Y125.000
G1 X100.500 Y125.000
G1 X100.250 Y125.000
G1 X100.000 Y125.000
G1 X99.750 Y125.000
G1 X99.500 Y125.000
G1 X99.250 Y125.000
G0 Z2.000 F3000
M400
M204 P300 T300
G1 F600
G0 X99.250 Y125.750 Z2.000
M400
M204 P150 T150
G1 F120
G1 Z0.000 F2500
G1 X99.500 Y125.750
G1 X99.750 Y125.750
G1 X100.000 Y125.750
G1 X100.250 Y125.750
G1 X100.500 Y125.750
G1 X100.750 Y125.750
G1 X101.000 Y125.750
G1 X101.250 Y125.750
G1 X101.500 Y125.750
G1 X101.750 Y125.750
G1 X102.000 Y125.750
G1 X102.250 Y125.750
G1 X102.500 Y125.750
G1 X102.750 Y125.750
G1 X103.000 Y125.750
G1 X103.250 Y125.750
G1 X103.500 Y125.750
G1 X103.750 Y125.750
G1 X104.000 Y125.750
G1 X104.250 Y125.750
G1 X104.500 Y125.750
G1 X104.750 Y125.750
G1 X105.000 Y125.750
G1 X105.250 Y125.750
G1 X105.500 Y125.750
G1 X105.750 Y125.750
G1 X106.000 Y125.750
G1 X106.250 Y125.750
G1 X106.500 Y125.750
G1 X106.750 Y125.750
G1 X107.000 Y125.750
G1 X107.250 Y125.750
G1 X107.500 Y125.750
G1 X107.750 Y125.750
G1 X108.000 Y125.750
G1 X108.250 Y125.750
G1 X108.500 Y125.750
G1 X108.750 Y125.750
G1 X109.000 Y125.750
G1 X109.250 Y125.750
G1 X109.500 Y125.750
G1 X109.750 Y125.750
G1 X110.000 Y125.750
G1 X110.250 Y125.750
G1 X110.500 Y125.750
G1 X110.750 Y125.750
G1 X111.000 Y125.750
G1 X111.250 Y125.750
G1 X111.500 Y125.750
G0 Z2.000 F3000
M400
M204 P300 T300
G1 F600
G0 X111.500 Y126.500 Z2.000
M400
M204 P150 T150
G1 F120
G1 Z0.000 F2500
G1 X111.250 Y126.500
G1 X111.000 Y126.500
G1 X110.750 Y126.500
G1 X110.500 Y126.500
G1 X110.250 Y126.500
G1 X110.000 Y126.500
G1 X109.750 Y126.500
G1 X109.500 Y126.500
G1 X109.250 Y126.500
G1 X109.000 Y126.500
G1 X108.750 Y126.500
G1 X108.500 Y126.500
G1 X108.250 Y126.500
G1 X108.000 Y126.500
G1 X107.750 Y126.500
G1 X107.500 Y126.500
G1 X107.250 Y126.500
G1 X107.000 Y126.500
G1 X106.750 Y126.500
G1 X106.500 Y126.500
G1 X106.250 Y126.500
G1 X106.000 Y126.500
G1 X105.750 Y126.500
G1 X105.500 Y126.500
G1 X105.250 Y126.500
G1 X105.000 Y126.500
G1 X104.750 Y126.500
G1 X104.500 Y126.500
G1 X104.250 Y126.500
G1 X104.000 Y126.500
G1 X103.750 Y126.500
G1 X103.500 Y126.500
G1 X103.250 Y126.500
G1 X103.000 Y126.500
G1 X102.750 Y126.500
G1 X102.500 Y126.500
G1 X102.250 Y126.500
G1 X102.000 Y126.500
G1 X101.750 Y126.500
G1 X101.500 Y126.500
G1 X101.250 Y126.500
G1 X101.000 Y126.500
G1 X100.750 Y126.500
G1 X100.500 Y126.500
G1 X100.250 Y126.500
G1 X100.000 Y126.500
G1 X99.750 Y126.500
G1 X99.500 Y126.500
G1 X99.250 Y126.500
G1 X99.000 Y126.500
G0 Z2.000 F3000
M400
M204 P300 T300
G1 F600
G0 X98.750 Y127.250 Z2.000
M400
M204 P150 T150
G1 F120
G1 Z0.000 F2500
G1 X99.000 Y127.250
G1 X99.250 Y127.250
G1 X99.500 Y127.250
G1 X99.750 Y127.250
G1 X100.000 Y127.250
G1 X100.250 Y127.250
G1 X100.500 Y127.250
G1 X100.750 Y127.250
G1 X101.000 Y127.250
G1 X101.250 Y127.250
G1 X101.500 Y127.250
G1 X101.750 Y127.250
G1 X102.000 Y127.250
G1 X102.250 Y127.250
G1 X102.500 Y127.250
G1 X102.750 Y127.250
G1 X103.000 Y127.250
G1 X103.250 Y127.250
G1 X103.500 Y127.250
G1 X103.750 Y127.250
G1 X104.000 Y127.250
G1 X104.250 Y127.250
G1 X104.500 Y127.250
G1 X104.750 Y127.250
G1 X105.000 Y127.250
G1 X105.250 Y127.250
G1 X105.500 Y127.250
G1 X105.750 Y127.250
G1 X106.000 Y127.250
G1 X106.250 Y127.250
G1 X106.500 Y127.250
G1 X106.750 Y127.250
G1 X107.000 Y127.250
G1 X107.250 Y127.250
G1 X107.500 Y127.250
G1 X107.750 Y127.250
G1 X108.000 Y127.250
G1 X108.250 Y127.250
G1 X108.500 Y127.250
G1 X108.750 Y127.250
G1 X109.000 Y127.250
G1 X109.250 Y127.250
G1 X109.500 Y127.250
G1 X109.750 Y127.250
G1 X110.000 Y127.250
G1 X110.250 Y127.250
G1 X110.500 Y127.250
G1 X110.750 Y127.250
G1 X111.000 Y127.250
G1 X111.250 Y127.250
G0 Z2.000 F3000
M400
M204 P300 T300
G1 F600
G0 X111.000 Y128.000 Z2.000
M400
M204 P150 T150
G1 F120
G1 Z0.000 F2500
G1 X110.750 Y128.000
G1 X110.500 Y128.000
G1 X110.250 Y128.000
G1 X110.000 Y128.000
G1 X109.750 Y128.000
G1 X109.500 Y128.000
G1 X109.250 Y128.000
G1 X109.000 Y128.000
G1 X108.750 Y128.000
G1 X108.500 Y128.000
G1 X108.250 Y128.000
G1 X108.000 Y128.000
G1 X107.750 Y128.000
G1 X107.500 Y128.000
G1 X107.250 Y128.000
G1 X107.000 Y128.000
G1 X106.750 Y128.000
G1 X106.500 Y128.000
G1 X106.250 Y128.000
G1 X106.000 Y128.000
G1 X105.750 Y128.000
G1 X105.500 Y128.000
G1 X105.250 Y128.000
G1 X105.000 Y128.000
G1 X104.750 Y128.000
G1 X104.500 Y128.000
G1 X104.250 Y128.000
G1 X104.000 Y128.000
G1 X103.750 Y128.000
G1 X103.500 Y128.000
G1 X103.250 Y128.000
G1 X103.000 Y128.000
G1 X102.750 Y128.000
G1 X102.500 Y128.000
G1 X102.250 Y128.000
G1 X102.000 Y128.000
G1 X101.750 Y128.000
G1 X101.500 Y128.000
G1 X101.250 Y128.000
G1 X101.000 Y128.000
G1 X100.750 Y128.000
G1 X100.500 Y128.000
G1 X100.250 Y128.000
G1 X100.000 Y128.000
G1 X99.750 Y128.000
G1 X99.500 Y128.000
G1 X99.250 Y128.000
G1 X99.000 Y128.000
G1 X98.750 Y128.000
G0 Z2.000 F3000
M400
M204 P300 T300
G1 F600
G0 X98.500 Y128.750 Z2.000
M400
M204 P150 T150
G1 F120
G1 Z0.000 F2500
G1 X98.750 Y128.750
G1 X99.000 Y128.750
G1 X99.250 Y128.750
G1 X99.500 Y128.750
G1 X99.750 Y128.750
G1 X100.000 Y128.750
G1 X100.250 Y128.750
G1 X100.500 Y128.750
G1 X100.750 Y128.750
G1 X101.000 Y128.750
G1 X101.250 Y128.750
G1 X101.500 Y128.750
G1 X101.750 Y128.750
G1 X102.000 Y128.750
G1 X102.250 Y128.750
G1 X102.500 Y128.750
G1 X102.750 Y128.750
G1 X103.000 Y128.750
G1 X103.250 Y128.750
G1 X103.500 Y128.750
G1 X103.750 Y128.750
G1 X104.000 Y128.750
G1 X104.250 Y128.750
G1 X104.500 Y128.750
G1 X104.750 Y128.750
G1 X105.000 Y128.750
G1 X105.250 Y128.750
G1 X105.500 Y128.750
G1 X105.750 Y128.750
G1 X106.000 Y128.750
G1 X106.250 Y128.750
G1 X106.500 Y128.750
G1 X106.750 Y128.750
G1 X107.000 Y128.750
G1 X107.250 Y128.750
G1 X107.500 Y128.750
G1 X107.750 Y128.750
G1 X108.000 Y128.750
G1 X108.250 Y128.750
G1 X108.500 Y128.750
G1 X108.750 Y128.750
G1 X109.000 Y128.750
G1 X109.250 Y128.750
G1 X109.500 Y128.750
G1 X109.750 Y128.750
G1 X110.000 Y128.750
G1 X110.250 Y128.750
G1 X110.500 Y128.750
G1 X110.750 Y128.750
G1 X111.000 Y128.750
G0 Z2.000 F3000
M400
M204 P300 T300
G1 F600
G0 X110.750 Y129.500 Z2.000
M400
M204 P150 T150
G1 F120
G1 Z0.000 F2500
G1 X110.500 Y129.500
G1 X110.250 Y129.500
G1 X110.000 Y129.500
G1 X109.750 Y129.500
G1 X109.500 Y129.500
G1 X109.250 Y129.500
G1 X109.000 Y129.500
G1 X108.750 Y129.500
G1 X108.500 Y129.500
G1 X108.250 Y129.500
G1 X108.000 Y129.500
G1 X107.750 Y129.500
G1 X107.500 Y129.500
G1 X107.250 Y129.500
G1 X107.000 Y129.500
G1 X106.750 Y129.500
G1 X106.500 Y129.500
G1 X106.250 Y129.500
G1 X106.000 Y129.500
G1 X105.750 Y129.500
G1 X105.500 Y129.500
G1 X105.250 Y129.500
G1 X105.000 Y129.500
G1 X104.750 Y129.500
G1 X104.500 Y129.500
G1 X104.250 Y129.500
G1 X104.000 Y129.500
G1 X103.750 Y129.500
G1 X103.500 Y129.500
G1 X103.250 Y129.500
G1 X103.000 Y129.500
G1 X102.750 Y129.500
G1 X102.500 Y129.500
G1 X102.250 Y129.500
G1 X102.000 Y129.500
G1 X101.750 Y129.500
G1 X101.500 Y129.500
G1 X101.250 Y129.500
G1 X101.000 Y129.500
G1 X100.750 Y129.500
G1 X100.500 Y129.500
G1 X100.250 Y129.500
G1 X100.000 Y129.500
G1 X99.750 Y129.500
G1 X99.500 Y129.500
G1 X99.250 Y129.500
G1 X99.000 Y129.500
G1 X98.750 Y129.500
G1 X98.500 Y129.500
G1 X98.250 Y129.500
G0 Z2.000 F3000
M400
M204 P300 T300
G1 F600
G0 X98.000 Y130.250 Z2.000
M400
M204 P150 T150
G1 F120
G1 Z0.000 F2500
G1 X98.250 Y130.250
G1 X98.500 Y130.250
G1 X98.750 Y130.250
G1 X99.000 Y130.250
G1 X99.250 Y130.250
G1 X99.500 Y130.250
G1 X99.750 Y130.250
G1 X100.000 Y130.250
G1 X100.250 Y130.250
G1 X100.500 Y130.250
G1 X100.750 Y130.250
G1 X101.000 Y130.250
G1 X101.250 Y130.250
G1 X101.500 Y130.250
G1 X101.750 Y130.250
G1 X102.000 Y130.250
G1 X102.250 Y130.250
G1 X102.500 Y130.250
G1 X102.750 Y130.250
G1 X103.000 Y130.250
G1 X103.250 Y130.250
G1 X103.500 Y130.250
G1 X103.750 Y130.250
G1 X104.000 Y130.250
G1 X104.250 Y130.250
G1 X104.500 Y130.250
G1 X104.750 Y130.250
G1 X105.000 Y130.250
G1 X105.250 Y130.250
G1 X105.500 Y130.250
G1 X105.750 Y130.250
G1 X106.000 Y130.250
G1 X106.250 Y130.250
G1 X106.500 Y130.250
G1 X106.750 Y130.250
G1 X107.000 Y130.250
G1 X107.250 Y130.250
G1 X107.500 Y130.250
G1 X107.750 Y130.250
G1 X108.000 Y130.250
G1 X108.250 Y130.250
G1 X108.500 Y130.250
G1 X108.750 Y130.250
G1 X109.000 Y130.250
G1 X109.250 Y130.250
G1 X109.500 Y130.250
G1 X109.750 Y130.250
G0 Z2.000 F3000

; --- CIKEL NAMAKANJA ---
G0 Z2.000 F3000
M400
M204 P300 T300
G1 F600
G0 X89.587 Y0.000 Z7.000
G1 Z1.000 F3000
G1 X89.587 Y0.000 F2500
G1 X89.587 Y2.500 F2500
G1 X84.587 Y0.000 F2500
G1 X89.587 Y0.000 F2500
G0 Z19.000 F3000
G0 X92.884 Y18.780
G0 Z7.000 F3000
G0 X110.000 Y130.250 Z2.000
M400
M204 P150 T150
G1 F120
G1 Z0.000 F2500
G1 X110.000 Y130.250
G1 X110.250 Y130.250
G1 X110.500 Y130.250
G1 X110.750 Y130.250
G0 Z2.000 F3000
M400
M204 P300 T300
G1 F600
G0 X110.250 Y131.000 Z2.000
M400
M204 P150 T150
G1 F120
G1 Z0.000 F2500
G1 X110.000 Y131.000
G1 X109.750 Y131.000
G1 X109.500 Y131.000
G1 X109.250 Y131.000
G1 X109.000 Y131.000
G1 X108.750 Y131.000
G1 X108.500 Y131.000
G1 X108.250 Y131.000
G1 X108.000 Y131.000
G1 X107.750 Y131.000
G1 X107.500 Y131.000
G1 X107.250 Y131.000
G1 X107.000 Y131.000
G1 X106.750 Y131.000
G1 X106.500 Y131.000
G1 X106.250 Y131.000
G1 X106.000 Y131.000
G1 X105.750 Y131.000
G1 X105.500 Y131.000
G1 X105.250 Y131.000
G1 X105.000 Y131.000
G1 X104.750 Y131.000
G1 X104.500 Y131.000
G1 X104.250 Y131.000
G1 X104.000 Y131.000
G1 X103.750 Y131.000
G1 X103.500 Y131.000
G1 X103.250 Y131.000
G1 X103.000 Y131.000
G1 X102.750 Y131.000
G1 X102.500 Y131.000
G1 X102.250 Y131.000
G1 X102.000 Y131.000
G1 X101.750 Y131.000
G1 X101.500 Y131.000
G1 X101.250 Y131.000
G1 X101.000 Y131.000
G1 X100.750 Y131.000
G1 X100.500 Y131.000
G1 X100.250 Y131.000
G1 X100.000 Y131.000
G1 X99.750 Y131.000
G1 X99.500 Y131.000
G1 X99.250 Y131.000
G1 X99.000 Y131.000
G1 X98.750 Y131.000
G1 X98.500 Y131.000
G1 X98.250 Y131.000
G1 X98.000 Y131.000
G1 X97.750 Y131.000
G0 Z2.000 F3000
M400
M204 P300 T300
G1 F600
G0 X97.250 Y131.750 Z2.000
M400
M204 P150 T150
G1 F120
G1 Z0.000 F2500
G1 X97.500 Y131.750
G1 X97.750 Y131.750
G1 X98.000 Y131.750
G1 X98.250 Y131.750
G1 X98.500 Y131.750
G1 X98.750 Y131.750
G1 X99.000 Y131.750
G1 X99.250 Y131.750
G1 X99.500 Y131.750
G1 X99.750 Y131.750
G1 X100.000 Y131.750
G1 X100.250 Y131.750
G1 X100.500 Y131.750
G1 X100.750 Y131.750
G1 X101.000 Y131.750
G1 X101.250 Y131.750
G1 X101.500 Y131.750
G1 X101.750 Y131.750
G1 X102.000 Y131.750
G1 X102.250 Y131.750
G1 X102.500 Y131.750
G1 X102.750 Y131.750
G1 X103.000 Y131.750
G1 X103.250 Y131.750
G1 X103.500 Y131.750
G1 X103.750 Y131.750
G0 Z2.000 F3000
M400
M204 P300 T300
G1 F600
G0 X103.500 Y132.500 Z2.000
M400
M204 P150 T150
G1 F120
G1 Z0.000 F2500
G1 X103.250 Y132.500
G1 X103.000 Y132.500
G1 X102.750 Y132.500
G1 X102.500 Y132.500
G1 X102.250 Y132.500
G1 X102.000 Y132.500
G1 X101.750 Y132.500
G1 X101.500 Y132.500
G1 X101.250 Y132.500
G1 X101.000 Y132.500
G1 X100.750 Y132.500
G1 X100.500 Y132.500
G1 X100.250 Y132.500
G1 X100.000 Y132.500
G1 X99.750 Y132.500
G1 X99.500 Y132.500
G1 X99.250 Y132.500
G1 X99.000 Y132.500
G1 X98.750 Y132.500
G1 X98.500 Y132.500
G1 X98.250 Y132.500
G1 X98.000 Y132.500
G1 X97.750 Y132.500
G1 X97.500 Y132.500
G1 X97.250 Y132.500
G1 X97.000 Y132.500
G0 Z2.000 F3000
M400
M204 P300 T300
G1 F600
G0 X96.750 Y133.250 Z2.000
M400
M204 P150 T150
G1 F120
G1 Z0.000 F2500
G1 X97.000 Y133.250
G1 X97.250 Y133.250
G1 X97.500 Y133.250
G1 X97.750 Y133.250
G1 X98.000 Y133.250
G1 X98.250 Y133.250
G1 X98.500 Y133.250
G1 X98.750 Y133.250
G1 X99.000 Y133.250
G1 X99.250 Y133.250
G1 X99.500 Y133.250
G1 X99.750 Y133.250
G1 X100.000 Y133.250
G1 X100.250 Y133.250
G1 X100.500 Y133.250
G1 X100.750 Y133.250
G1 X101.000 Y133.250
G1 X101.250 Y133.250
G1 X101.500 Y133.250
G1 X101.750 Y133.250
G1 X102.000 Y133.250
G1 X102.250 Y133.250
G1 X102.500 Y133.250
G1 X102.750 Y133.250
G1 X103.000 Y133.250
G1 X103.250 Y133.250
G0 Z2.000 F3000
M400
M204 P300 T300
G1 F600
G0 X103.000 Y134.000 Z2.000
M400
M204 P150 T150
G1 F120
G1 Z0.000 F2500
G1 X102.750 Y134.000
G1 X102.500 Y134.000
G1 X102.250 Y134.000
G1 X102.000 Y134.000
G1 X101.750 Y134.000
G1 X101.500 Y134.000
G1 X101.250 Y134.000
G1 X101.000 Y134.000
G1 X100.750 Y134.000
G1 X100.500 Y134.000
G1 X100.250 Y134.000
G1 X100.000 Y134.000
G1 X99.750 Y134.000
G1 X99.500 Y134.000
G1 X99.250 Y134.000
G1 X99.000 Y134.000
G1 X98.750 Y134.000
G1 X98.500 Y134.000
G1 X98.250 Y134.000
G1 X98.000 Y134.000
G1 X97.750 Y134.000
G1 X97.500 Y134.000
G1 X97.250 Y134.000
G1 X97.000 Y134.000
G1 X96.750 Y134.000
G1 X96.500 Y134.000
G1 X96.250 Y134.000
G0 Z2.000 F3000
M400
M204 P300 T300
G1 F600
G0 X95.750 Y134.750 Z2.000
M400
M204 P150 T150
G1 F120
G1 Z0.000 F2500
G1 X96.000 Y134.750
G1 X96.250 Y134.750
G1 X96.500 Y134.750
G1 X96.750 Y134.750
G1 X97.000 Y134.750
G1 X97.250 Y134.750
G1 X97.500 Y134.750
G1 X97.750 Y134.750
G1 X98.000 Y134.750
G1 X98.250 Y134.750
G1 X98.500 Y134.750
G1 X98.750 Y134.750
G1 X99.000 Y134.750
G1 X99.250 Y134.750
G1 X99.500 Y134.750
G1 X99.750 Y134.750
G1 X100.000 Y134.750
G1 X100.250 Y134.750
G1 X100.500 Y134.750
G1 X100.750 Y134.750
G1 X101.000 Y134.750
G1 X101.250 Y134.750
G1 X101.500 Y134.750
G1 X101.750 Y134.750
G1 X102.000 Y134.750
G1 X102.250 Y134.750
G1 X102.500 Y134.750
G0 Z2.000 F3000
M400
M204 P300 T300
G1 F600
G0 X102.250 Y135.500 Z2.000
M400
M204 P150 T150
G1 F120
G1 Z0.000 F2500
G1 X102.000 Y135.500
G1 X101.750 Y135.500
G1 X101.500 Y135.500
G1 X101.250 Y135.500
G1 X101.000 Y135.500
G1 X100.750 Y135.500
G1 X100.500 Y135.500
G1 X100.250 Y135.500
G1 X100.000 Y135.500
G1 X99.750 Y135.500
G1 X99.500 Y135.500
G1 X99.250 Y135.500
G1 X99.000 Y135.500
G1 X98.750 Y135.500
G1 X98.500 Y135.500
G1 X98.250 Y135.500
G1 X98.000 Y135.500
G1 X97.750 Y135.500
G1 X97.500 Y135.500
G1 X97.250 Y135.500
G1 X97.000 Y135.500
G1 X96.750 Y135.500
G1 X96.500 Y135.500
G1 X96.250 Y135.500
G1 X96.000 Y135.500
G1 X95.750 Y135.500
G1 X95.500 Y135.500
G0 Z2.000 F3000
M400
M204 P300 T300
G1 F600
G0 X95.000 Y136.250 Z2.000
M400
M204 P150 T150
G1 F120
G1 Z0.000 F2500
G1 X95.250 Y136.250
G1 X95.500 Y136.250
G1 X95.750 Y136.250
G1 X96.000 Y136.250
G1 X96.250 Y136.250
G1 X96.500 Y136.250
G1 X96.750 Y136.250
G1 X97.000 Y136.250
G1 X97.250 Y136.250
G1 X97.500 Y136.250
G1 X97.750 Y136.250
G1 X98.000 Y136.250
G1 X98.250 Y136.250
G1 X98.500 Y136.250
G1 X98.750 Y136.250
G1 X99.000 Y136.250
G1 X99.250 Y136.250
G1 X99.500 Y136.250
G1 X99.750 Y136.250
G1 X100.000 Y136.250
G1 X100.250 Y136.250
G1 X100.500 Y136.250
G1 X100.750 Y136.250
G1 X101.000 Y136.250
G1 X101.250 Y136.250
G1 X101.500 Y136.250
G1 X101.750 Y136.250
G1 X102.000 Y136.250
G0 Z2.000 F3000
M400
M204 P300 T300
G1 F600
G0 X102.750 Y137.000 Z2.000
M400
M204 P150 T150
G1 F120
G1 Z0.000 F2500
G1 X102.500 Y137.000
G1 X102.250 Y137.000
G1 X102.000 Y137.000
G1 X101.750 Y137.000
G1 X101.500 Y137.000
G1 X101.250 Y137.000
G1 X101.000 Y137.000
G1 X100.750 Y137.000
G1 X100.500 Y137.000
G1 X100.250 Y137.000
G1 X100.000 Y137.000
G1 X99.750 Y137.000
G1 X99.500 Y137.000
G1 X99.250 Y137.000
G1 X99.000 Y137.000
G1 X98.750 Y137.000
G1 X98.500 Y137.000
G1 X98.250 Y137.000
G1 X98.000 Y137.000
G1 X97.750 Y137.000
G1 X97.500 Y137.000
G1 X97.250 Y137.000
G1 X97.000 Y137.000
G1 X96.750 Y137.000
G1 X96.500 Y137.000
G1 X96.250 Y137.000
G1 X96.000 Y137.000
G1 X95.750 Y137.000
G1 X95.500 Y137.000
G1 X95.250 Y137.000
G1 X95.000 Y137.000
G1 X94.750 Y137.000
G1 X94.500 Y137.000
G0 Z2.000 F3000
M400
M204 P300 T300
G1 F600
G0 X93.750 Y137.750 Z2.000
M400
M204 P150 T150
G1 F120
G1 Z0.000 F2500
G1 X94.000 Y137.750
G1 X94.250 Y137.750
G1 X94.500 Y137.750
G1 X94.750 Y137.750
G1 X95.000 Y137.750
G1 X95.250 Y137.750
G1 X95.500 Y137.750
G1 X95.750 Y137.750
G1 X96.000 Y137.750
G1 X96.250 Y137.750
G1 X96.500 Y137.750
G1 X96.750 Y137.750
G1 X97.000 Y137.750
G1 X97.250 Y137.750
G1 X97.500 Y137.750
G1 X97.750 Y137.750
G1 X98.000 Y137.750
G1 X98.250 Y137.750
G1 X98.500 Y137.750
G1 X98.750 Y137.750
G1 X99.000 Y137.750
G1 X99.250 Y137.750
G1 X99.500 Y137.750
G1 X99.750 Y137.750
G1 X100.000 Y137.750
G1 X100.250 Y137.750
G1 X100.500 Y137.750
G1 X100.750 Y137.750
G1 X101.000 Y137.750
G1 X101.250 Y137.750
G1 X101.500 Y137.750
G1 X101.750 Y137.750
G1 X102.000 Y137.750
G1 X102.250 Y137.750
G1 X102.500 Y137.750
G1 X102.750 Y137.750
G1 X103.000 Y137.750
G1 X103.250 Y137.750
G0 Z2.000 F3000
M400
M204 P300 T300
G1 F600
G0 X104.000 Y138.500 Z2.000
M400
M204 P150 T150
G1 F120
G1 Z0.000 F2500
G1 X103.750 Y138.500
G1 X103.500 Y138.500
G1 X103.250 Y138.500
G1 X103.000 Y138.500
G1 X102.750 Y138.500
G1 X102.500 Y138.500
G1 X102.250 Y138.500
G1 X102.000 Y138.500
G1 X101.750 Y138.500
G1 X101.500 Y138.500
G1 X101.250 Y138.500
G1 X101.000 Y138.500
G1 X100.750 Y138.500
G1 X100.500 Y138.500
G1 X100.250 Y138.500
G1 X100.000 Y138.500
G1 X99.750 Y138.500
G1 X99.500 Y138.500
G1 X99.250 Y138.500
G1 X99.000 Y138.500
G1 X98.750 Y138.500
G1 X98.500 Y138.500
G1 X98.250 Y138.500
G1 X98.000 Y138.500
G1 X97.750 Y138.500
G1 X97.500 Y138.500
G1 X97.250 Y138.500
G1 X97.000 Y138.500
G1 X96.750 Y138.500
G1 X96.500 Y138.500
G1 X96.250 Y138.500
G1 X96.000 Y138.500
G1 X95.750 Y138.500
G1 X95.500 Y138.500
G1 X95.250 Y138.500
G1 X95.000 Y138.500
G1 X94.750 Y138.500
G1 X94.500 Y138.500
G1 X94.250 Y138.500
G1 X94.000 Y138.500
G1 X93.750 Y138.500
G1 X93.500 Y138.500
G1 X93.250 Y138.500
G0 Z2.000 F3000
M400
M204 P300 T300
G1 F600
G0 X100.250 Y147.500 Z2.000
M400
M204 P150 T150
G1 F120
G1 Z0.000 F2500
G0 Z2.000 F3000

; --- CIKEL NAMAKANJA ---
G0 Z2.000 F3000
M400
M204 P300 T300
G1 F600
G0 X104.166 Y8.469 Z7.000
G1 Z1.000 F3000
G1 X104.166 Y8.469 F2500
G1 X104.166 Y10.969 F2500
G1 X99.166 Y8.469 F2500
G1 X104.166 Y0.969 F2500
G0 Z19.000 F3000
G0 X91.349 Y18.952
G0 Z7.000 F3000
G0 X100.500 Y147.500 Z2.000
M400
M204 P150 T150
G1 F120
G1 Z0.000 F2500
G1 X100.500 Y147.500
G1 X100.750 Y147.500
G1 X101.000 Y147.500
G1 X101.250 Y147.500
G1 X101.500 Y147.500
G1 X101.750 Y147.500
G0 Z2.000 F3000
M400
M204 P300 T300
G1 F600
G0 X102.250 Y146.750 Z2.000
M400
M204 P150 T150
G1 F120
G1 Z0.000 F2500
G1 X102.000 Y146.750
G1 X101.750 Y146.750
G1 X101.500 Y146.750
G1 X101.250 Y146.750
G1 X101.000 Y146.750
G1 X100.750 Y146.750
G1 X100.500 Y146.750
G1 X100.250 Y146.750
G1 X100.000 Y146.750
G1 X99.750 Y146.750
G1 X99.500 Y146.750
G1 X99.250 Y146.750
G1 X99.000 Y146.750
G1 X98.750 Y146.750
G1 X98.500 Y146.750
G0 Z2.000 F3000
M400
M204 P300 T300
G1 F600
G0 X96.750 Y146.000 Z2.000
M400
M204 P150 T150
G1 F120
G1 Z0.000 F2500
G1 X97.000 Y146.000
G1 X97.250 Y146.000
G1 X97.500 Y146.000
G1 X97.750 Y146.000
G1 X98.000 Y146.000
G1 X98.250 Y146.000
G1 X98.500 Y146.000
G1 X98.750 Y146.000
G1 X99.000 Y146.000
G1 X99.250 Y146.000
G1 X99.500 Y146.000
G1 X99.750 Y146.000
G1 X100.000 Y146.000
G1 X100.250 Y146.000
G1 X100.500 Y146.000
G1 X100.750 Y146.000
G1 X101.000 Y146.000
G1 X101.250 Y146.000
G1 X101.500 Y146.000
G1 X101.750 Y146.000
G1 X102.000 Y146.000
G1 X102.250 Y146.000
G1 X102.500 Y146.000
G1 X102.750 Y146.000
G0 Z2.000 F3000
M400
M204 P300 T300
G1 F600
G0 X94.000 Y146.750 Z2.000
M400
M204 P150 T150
G1 F120
G1 Z0.000 F2500
G1 X93.750 Y146.750
G1 X93.500 Y146.750
G0 Z2.000 F3000
M400
M204 P300 T300
G1 F600
G0 X93.000 Y146.000 Z2.000
M400
M204 P150 T150
G1 F120
G1 Z0.000 F2500
G1 X93.250 Y146.000
G1 X93.500 Y146.000
G1 X93.750 Y146.000
G1 X94.000 Y146.000
G1 X94.250 Y146.000
G1 X94.500 Y146.000
G1 X94.750 Y146.000
G0 Z2.000 F3000
M400
M204 P300 T300
G1 F600
G0 X92.750 Y145.250 Z2.000
M400
M204 P150 T150
G1 F120
G1 Z0.000 F2500
G1 X93.000 Y145.250
G1 X93.250 Y145.250
G1 X93.500 Y145.250
G1 X93.750 Y145.250
G1 X94.000 Y145.250
G1 X94.250 Y145.250
G1 X94.500 Y145.250
G1 X94.750 Y145.250
G1 X95.000 Y145.250
G1 X95.250 Y145.250
G1 X95.500 Y145.250
G1 X95.750 Y145.250
G1 X96.000 Y145.250
G1 X96.250 Y145.250
G1 X96.500 Y145.250
G1 X96.750 Y145.250
G1 X97.000 Y145.250
G1 X97.250 Y145.250
G1 X97.500 Y145.250
G1 X97.750 Y145.250
G1 X98.000 Y145.250
G1 X98.250 Y145.250
G1 X98.500 Y145.250
G1 X98.750 Y145.250
G1 X99.000 Y145.250
G1 X99.250 Y145.250
G1 X99.500 Y145.250
G1 X99.750 Y145.250
G1 X100.000 Y145.250
G1 X100.250 Y145.250
G1 X100.500 Y145.250
G1 X100.750 Y145.250
G1 X101.000 Y145.250
G1 X101.250 Y145.250
G1 X101.500 Y145.250
G1 X101.750 Y145.250
G1 X102.000 Y145.250
G1 X102.250 Y145.250
G1 X102.500 Y145.250
G1 X102.750 Y145.250
G1 X103.000 Y145.250
G1 X103.250 Y145.250
G1 X103.500 Y145.250
G0 Z2.000 F3000
M400
M204 P300 T300
G1 F600
G0 X104.000 Y144.500 Z2.000
M400
M204 P150 T150
G1 F120
G1 Z0.000 F2500
G1 X103.750 Y144.500
G1 X103.500 Y144.500
G1 X103.250 Y144.500
G1 X103.000 Y144.500
G1 X102.750 Y144.500
G1 X102.500 Y144.500
G1 X102.250 Y144.500
G1 X102.000 Y144.500
G1 X101.750 Y144.500
G1 X101.500 Y144.500
G1 X101.250 Y144.500
G1 X101.000 Y144.500
G1 X100.750 Y144.500
G1 X100.500 Y144.500
G1 X100.250 Y144.500
G1 X100.000 Y144.500
G1 X99.750 Y144.500
G1 X99.500 Y144.500
G1 X99.250 Y144.500
G1 X99.000 Y144.500
G1 X98.750 Y144.500
G1 X98.500 Y144.500
G1 X98.250 Y144.500
G1 X98.000 Y144.500
G1 X97.750 Y144.500
G1 X97.500 Y144.500
G1 X97.250 Y144.500
G1 X97.000 Y144.500
G1 X96.750 Y144.500
G1 X96.500 Y144.500
G1 X96.250 Y144.500
G1 X96.000 Y144.500
G1 X95.750 Y144.500
G1 X95.500 Y144.500
G1 X95.250 Y144.500
G1 X95.000 Y144.500
G1 X94.750 Y144.500
G1 X94.500 Y144.500
G1 X94.250 Y144.500
G1 X94.000 Y144.500
G1 X93.750 Y144.500
G1 X93.500 Y144.500
G1 X93.250 Y144.500
G1 X93.000 Y144.500
G1 X92.750 Y144.500
G1 X92.500 Y144.500
G0 Z2.000 F3000
M400
M204 P300 T300
G1 F600
G0 X92.000 Y143.750 Z2.000
M400
M204 P150 T150
G1 F120
G1 Z0.000 F2500
G1 X92.250 Y143.750
G1 X92.500 Y143.750
G1 X92.750 Y143.750
G1 X93.000 Y143.750
G1 X93.250 Y143.750
G1 X93.500 Y143.750
G1 X93.750 Y143.750
G1 X94.000 Y143.750
G1 X94.250 Y143.750
G1 X94.500 Y143.750
G1 X94.750 Y143.750
G1 X95.000 Y143.750
G1 X95.250 Y143.750
G1 X95.500 Y143.750
G1 X95.750 Y143.750
G1 X96.000 Y143.750
G1 X96.250 Y143.750
G1 X96.500 Y143.750
G1 X96.750 Y143.750
G1 X97.000 Y143.750
G1 X97.250 Y143.750
G1 X97.500 Y143.750
G1 X97.750 Y143.750
G1 X98.000 Y143.750
G1 X98.250 Y143.750
G1 X98.500 Y143.750
G1 X98.750 Y143.750
G1 X99.000 Y143.750
G1 X99.250 Y143.750
G1 X99.500 Y143.750
G1 X99.750 Y143.750
G1 X100.000 Y143.750
G1 X100.250 Y143.750
G1 X100.500 Y143.750
G1 X100.750 Y143.750
G1 X101.000 Y143.750
G1 X101.250 Y143.750
G1 X101.500 Y143.750
G1 X101.750 Y143.750
G1 X102.000 Y143.750
G1 X102.250 Y143.750
G1 X102.500 Y143.750
G1 X102.750 Y143.750
G1 X103.000 Y143.750
G1 X103.250 Y143.750
G1 X103.500 Y143.750
G1 X103.750 Y143.750
G1 X104.000 Y143.750
G1 X104.250 Y143.750
G1 X104.500 Y143.750
G0 Z2.000 F3000
M400
M204 P300 T300
G1 F600
G0 X104.750 Y139.250 Z2.000
M400
M204 P150 T150
G1 F120
G1 Z0.000 F2500
G1 X104.500 Y139.250
G1 X104.250 Y139.250
G1 X104.000 Y139.250
G1 X103.750 Y139.250
G1 X103.500 Y139.250
G1 X103.250 Y139.250
G1 X103.000 Y139.250
G1 X102.750 Y139.250
G1 X102.500 Y139.250
G1 X102.250 Y139.250
G1 X102.000 Y139.250
G1 X101.750 Y139.250
G1 X101.500 Y139.250
G1 X101.250 Y139.250
G1 X101.000 Y139.250
G1 X100.750 Y139.250
G1 X100.500 Y139.250
G1 X100.250 Y139.250
G1 X100.000 Y139.250
G1 X99.750 Y139.250
G1 X99.500 Y139.250
G1 X99.250 Y139.250
G1 X99.000 Y139.250
G1 X98.750 Y139.250
G1 X98.500 Y139.250
G1 X98.250 Y139.250
G1 X98.000 Y139.250
G1 X97.750 Y139.250
G1 X97.500 Y139.250
G1 X97.250 Y139.250
G1 X97.000 Y139.250
G1 X96.750 Y139.250
G1 X96.500 Y139.250
G1 X96.250 Y139.250
G1 X96.000 Y139.250
G1 X95.750 Y139.250
G1 X95.500 Y139.250
G1 X95.250 Y139.250
G1 X95.000 Y139.250
G1 X94.750 Y139.250
G1 X94.500 Y139.250
G1 X94.250 Y139.250
G1 X94.000 Y139.250
G1 X93.750 Y139.250
G1 X93.500 Y139.250
G1 X93.250 Y139.250
G1 X93.000 Y139.250
G1 X92.750 Y139.250
G0 Z2.000 F3000
M400
M204 P300 T300
G1 F600
G0 X92.000 Y140.000 Z2.000
M400
M204 P150 T150
G1 F120
G1 Z0.000 F2500
G1 X92.250 Y140.000
G1 X92.500 Y140.000
G1 X92.750 Y140.000
G1 X93.000 Y140.000
G1 X93.250 Y140.000
G1 X93.500 Y140.000
G1 X93.750 Y140.000
G1 X94.000 Y140.000
G1 X94.250 Y140.000
G1 X94.500 Y140.000
G1 X94.750 Y140.000
G1 X95.000 Y140.000
G1 X95.250 Y140.000
G1 X95.500 Y140.000
G1 X95.750 Y140.000
G1 X96.000 Y140.000
G1 X96.250 Y140.000
G1 X96.500 Y140.000
G1 X96.750 Y140.000
G1 X97.000 Y140.000
G1 X97.250 Y140.000
G1 X97.500 Y140.000
G1 X97.750 Y140.000
G1 X98.000 Y140.000
G1 X98.250 Y140.000
G1 X98.500 Y140.000
G1 X98.750 Y140.000
G1 X99.000 Y140.000
G1 X99.250 Y140.000
G1 X99.500 Y140.000
G1 X99.750 Y140.000
G1 X100.000 Y140.000
G1 X100.250 Y140.000
G1 X100.500 Y140.000
G1 X100.750 Y140.000
G1 X101.000 Y140.000
G1 X101.250 Y140.000
G1 X101.500 Y140.000
G1 X101.750 Y140.000
G1 X102.000 Y140.000
G1 X102.250 Y140.000
G1 X102.500 Y140.000
G1 X102.750 Y140.000
G1 X103.000 Y140.000
G1 X103.250 Y140.000
G1 X103.500 Y140.000
G1 X103.750 Y140.000
G1 X104.000 Y140.000
G1 X104.250 Y140.000
G1 X104.500 Y140.000
G1 X104.750 Y140.000
G1 X105.000 Y140.000
G1 X105.250 Y140.000
G1 X105.500 Y140.000
G0 Z2.000 F3000
M400
M204 P300 T300
G1 F600
G0 X106.000 Y140.750 Z2.000
M400
M204 P150 T150
G1 F120
G1 Z0.000 F2500
G1 X105.750 Y140.750
G1 X105.500 Y140.750
G1 X105.250 Y140.750
G1 X105.000 Y140.750
G1 X104.750 Y140.750
G1 X104.500 Y140.750
G1 X104.250 Y140.750
G1 X104.000 Y140.750
G1 X103.750 Y140.750
G1 X103.500 Y140.750
G1 X103.250 Y140.750
G1 X103.000 Y140.750
G1 X102.750 Y140.750
G1 X102.500 Y140.750
G1 X102.250 Y140.750
G1 X102.000 Y140.750
G1 X101.750 Y140.750
G1 X101.500 Y140.750
G1 X101.250 Y140.750
G1 X101.000 Y140.750
G1 X100.750 Y140.750
G1 X100.500 Y140.750
G1 X100.250 Y140.750
G1 X100.000 Y140.750
G1 X99.750 Y140.750
G1 X99.500 Y140.750
G1 X99.250 Y140.750
G1 X99.000 Y140.750
G1 X98.750 Y140.750
G1 X98.500 Y140.750
G0 Z2.000 F3000

; --- CIKEL NAMAKANJA ---
G0 Z2.000 F3000
M400
M204 P300 T300
G1 F600
G0 X90.028 Y0.000 Z7.000
G1 Z1.000 F3000
G1 X90.028 Y0.000 F2500
G1 X90.028 Y2.500 F2500
G1 X85.028 Y0.000 F2500
G1 X90.028 Y0.000 F2500
G0 Z19.000 F3000
G0 X91.112 Y18.967
G0 Z7.000 F3000
G0 X98.250 Y140.750 Z2.000
M400
M204 P150 T150
G1 F120
G1 Z0.000 F2500
G1 X98.250 Y140.750
G1 X98.000 Y140.750
G1 X97.750 Y140.750
G1 X97.500 Y140.750
G1 X97.250 Y140.750
G1 X97.000 Y140.750
G1 X96.750 Y140.750
G1 X96.500 Y140.750
G1 X96.250 Y140.750
G1 X96.000 Y140.750
G1 X95.750 Y140.750
G1 X95.500 Y140.750
G1 X95.250 Y140.750
G1 X95.000 Y140.750
G1 X94.750 Y140.750
G1 X94.500 Y140.750
G1 X94.250 Y140.750
G1 X94.000 Y140.750
G1 X93.750 Y140.750
G1 X93.500 Y140.750
G1 X93.250 Y140.750
G1 X93.000 Y140.750
G1 X92.750 Y140.750
G1 X92.500 Y140.750
G1 X92.250 Y140.750
G1 X92.000 Y140.750
G1 X91.750 Y140.750
G1 X91.500 Y140.750
G0 Z2.000 F3000
M400
M204 P300 T300
G1 F600
G0 X91.750 Y143.000 Z2.000
M400
M204 P150 T150
G1 F120
G1 Z0.000 F2500
G1 X92.000 Y143.000
G1 X92.250 Y143.000
G1 X92.500 Y143.000
G1 X92.750 Y143.000
G1 X93.000 Y143.000
G1 X93.250 Y143.000
G1 X93.500 Y143.000
G1 X93.750 Y143.000
G1 X94.000 Y143.000
G1 X94.250 Y143.000
G1 X94.500 Y143.000
G1 X94.750 Y143.000
G1 X95.000 Y143.000
G1 X95.250 Y143.000
G1 X95.500 Y143.000
G1 X95.750 Y143.000
G1 X96.000 Y143.000
G1 X96.250 Y143.000
G1 X96.500 Y143.000
G1 X96.750 Y143.000
G1 X97.000 Y143.000
G1 X97.250 Y143.000
G1 X97.500 Y143.000
G1 X97.750 Y143.000
G1 X98.000 Y143.000
G1 X98.250 Y143.000
G1 X98.500 Y143.000
G1 X98.750 Y143.000
G1 X99.000 Y143.000
G1 X99.250 Y143.000
G1 X99.500 Y143.000
G1 X99.750 Y143.000
G1 X100.000 Y143.000
G1 X100.250 Y143.000
G1 X100.500 Y143.000
G1 X100.750 Y143.000
G1 X101.000 Y143.000
G1 X101.250 Y143.000
G1 X101.500 Y143.000
G1 X101.750 Y143.000
G1 X102.000 Y143.000
G1 X102.250 Y143.000
G1 X102.500 Y143.000
G1 X102.750 Y143.000
G1 X103.000 Y143.000
G1 X103.250 Y143.000
G1 X103.500 Y143.000
G1 X103.750 Y143.000
G1 X104.000 Y143.000
G1 X104.250 Y143.000
G1 X104.500 Y143.000
G1 X104.750 Y143.000
G1 X105.000 Y143.000
G0 Z2.000 F3000
M400
M204 P300 T300
G1 F600
G0 X105.500 Y142.250 Z2.000
M400
M204 P150 T150
G1 F120
G1 Z0.000 F2500
G1 X105.250 Y142.250
G1 X105.000 Y142.250
G1 X104.750 Y142.250
G1 X104.500 Y142.250
G1 X104.250 Y142.250
G1 X104.000 Y142.250
G1 X103.750 Y142.250
G1 X103.500 Y142.250
G1 X103.250 Y142.250
G1 X103.000 Y142.250
G1 X102.750 Y142.250
G1 X102.500 Y142.250
G1 X102.250 Y142.250
G1 X102.000 Y142.250
G1 X101.750 Y142.250
G1 X101.500 Y142.250
G1 X101.250 Y142.250
G1 X101.000 Y142.250
G1 X100.750 Y142.250
G1 X100.500 Y142.250
G1 X100.250 Y142.250
G1 X100.000 Y142.250
G1 X99.750 Y142.250
G1 X99.500 Y142.250
G1 X99.250 Y142.250
G1 X99.000 Y142.250
G1 X98.750 Y142.250
G1 X98.500 Y142.250
G1 X98.250 Y142.250
G1 X98.000 Y142.250
G1 X97.750 Y142.250
G1 X97.500 Y142.250
G1 X97.250 Y142.250
G1 X97.000 Y142.250
G1 X96.750 Y142.250
G1 X96.500 Y142.250
G1 X96.250 Y142.250
G1 X96.000 Y142.250
G1 X95.750 Y142.250
G1 X95.500 Y142.250
G1 X95.250 Y142.250
G1 X95.000 Y142.250
G1 X94.750 Y142.250
G1 X94.500 Y142.250
G1 X94.250 Y142.250
G1 X94.000 Y142.250
G1 X93.750 Y142.250
G1 X93.500 Y142.250
G1 X93.250 Y142.250
G1 X93.000 Y142.250
G1 X92.750 Y142.250
G1 X92.500 Y142.250
G1 X92.250 Y142.250
G1 X92.000 Y142.250
G1 X91.750 Y142.250
G1 X91.500 Y142.250
G0 Z2.000 F3000
M400
M204 P300 T300
G1 F600
G0 X91.000 Y141.500 Z2.000
M400
M204 P150 T150
G1 F120
G1 Z0.000 F2500
G1 X91.250 Y141.500
G1 X91.500 Y141.500
G1 X91.750 Y141.500
G1 X92.000 Y141.500
G1 X92.250 Y141.500
G1 X92.500 Y141.500
G1 X92.750 Y141.500
G1 X93.000 Y141.500
G1 X93.250 Y141.500
G1 X93.500 Y141.500
G1 X93.750 Y141.500
G1 X94.000 Y141.500
G1 X94.250 Y141.500
G1 X94.500 Y141.500
G1 X94.750 Y141.500
G1 X95.000 Y141.500
G1 X95.250 Y141.500
G1 X95.500 Y141.500
G1 X95.750 Y141.500
G1 X96.000 Y141.500
G1 X96.250 Y141.500
G1 X96.500 Y141.500
G1 X96.750 Y141.500
G1 X97.000 Y141.500
G1 X97.250 Y141.500
G1 X97.500 Y141.500
G1 X97.750 Y141.500
G1 X98.000 Y141.500
G1 X98.250 Y141.500
G1 X98.500 Y141.500
G1 X98.750 Y141.500
G1 X99.000 Y141.500
G1 X99.250 Y141.500
G1 X99.500 Y141.500
G1 X99.750 Y141.500
G1 X100.000 Y141.500
G1 X100.250 Y141.500
G1 X100.500 Y141.500
G1 X100.750 Y141.500
G1 X101.000 Y141.500
G1 X101.250 Y141.500
G1 X101.500 Y141.500
G1 X101.750 Y141.500
G1 X102.000 Y141.500
G1 X102.250 Y141.500
G1 X102.500 Y141.500
G1 X102.750 Y141.500
G1 X103.000 Y141.500
G1 X103.250 Y141.500
G1 X103.500 Y141.500
G1 X103.750 Y141.500
G1 X104.000 Y141.500
G1 X104.250 Y141.500
G1 X104.500 Y141.500
G1 X104.750 Y141.500
G1 X105.000 Y141.500
G1 X105.250 Y141.500
G1 X105.500 Y141.500
G1 X105.750 Y141.500
G1 X106.000 Y141.500
G0 Z2.000 F3000
M400
M204 P300 T300
G1 F600
G0 X93.750 Y152.750 Z2.000
M400
M204 P150 T150
G1 F120
G1 Z0.000 F2500
G1 X93.500 Y152.750
G1 X93.250 Y152.750
G1 X93.000 Y152.750
G1 X92.750 Y152.750
G1 X92.500 Y152.750
G1 X92.250 Y152.750
G1 X92.000 Y152.750
G1 X91.750 Y152.750
G1 X91.500 Y152.750
G1 X91.250 Y152.750
G1 X91.000 Y152.750
G1 X90.750 Y152.750
G1 X90.500 Y152.750
G1 X90.250 Y152.750
G1 X90.000 Y152.750
G1 X89.750 Y152.750
G1 X89.500 Y152.750
G1 X89.250 Y152.750
G0 Z2.000 F3000
M400
M204 P300 T300
G1 F600
G0 X90.750 Y155.000 Z2.000
M400
M204 P150 T150
G1 F120
G1 Z0.000 F2500
G1 X91.000 Y155.000
G1 X91.250 Y155.000
G1 X91.500 Y155.000
G1 X91.750 Y155.000
G1 X92.000 Y155.000
G1 X92.250 Y155.000
G1 X92.500 Y155.000
G1 X92.750 Y155.000
G1 X93.000 Y155.000
G1 X93.250 Y155.000
G1 X93.500 Y155.000
G1 X93.750 Y155.000
G1 X94.000 Y155.000
G1 X94.250 Y155.000
G1 X94.500 Y155.000
G0 Z2.000 F3000
M400
M204 P300 T300
G1 F600
G0 X95.250 Y156.500 Z2.000
M400
M204 P150 T150
G1 F120
G1 Z0.000 F2500
G1 X95.000 Y156.500
G1 X94.750 Y156.500
G1 X94.500 Y156.500
G1 X94.250 Y156.500
G1 X94.000 Y156.500
G1 X93.750 Y156.500
G1 X93.500 Y156.500
G1 X93.250 Y156.500
G1 X93.000 Y156.500
G1 X92.750 Y156.500
G1 X92.500 Y156.500
G1 X92.250 Y156.500
G1 X92.000 Y156.500
G1 X91.750 Y156.500
G0 Z2.000 F3000
M400
M204 P300 T300
G1 F600
G0 X92.750 Y158.000 Z2.000
M400
M204 P150 T150
G1 F120
G1 Z0.000 F2500
G1 X93.000 Y158.000
G1 X93.250 Y158.000
G1 X93.500 Y158.000
G1 X93.750 Y158.000
G1 X94.000 Y158.000
G1 X94.250 Y158.000
G1 X94.500 Y158.000
G1 X94.750 Y158.000
G1 X95.000 Y158.000
G1 X95.250 Y158.000
G1 X95.500 Y158.000
G1 X95.750 Y158.000
G1 X96.000 Y158.000
G0 Z2.000 F3000
M400
M204 P300 T300
G1 F600
G0 X96.500 Y159.500 Z2.000
M400
M204 P150 T150
G1 F120
G1 Z0.000 F2500
G1 X96.250 Y159.500
G1 X96.000 Y159.500
G1 X95.750 Y159.500
G1 X95.500 Y159.500
G1 X95.250 Y159.500
G1 X95.000 Y159.500
G1 X94.750 Y159.500
G1 X94.500 Y159.500
G1 X94.250 Y159.500
G1 X94.000 Y159.500
G1 X93.750 Y159.500
G0 Z2.000 F3000
M400
M204 P300 T300
G1 F600
G0 X94.750 Y161.000 Z2.000
M400
M204 P150 T150
G1 F120
G1 Z0.000 F2500
G1 X95.000 Y161.000
G1 X95.250 Y161.000
G1 X95.500 Y161.000
G1 X95.750 Y161.000
G1 X96.000 Y161.000
G1 X96.250 Y161.000
G1 X96.500 Y161.000
G1 X96.750 Y161.000
G1 X97.000 Y161.000
G1 X97.250 Y161.000
G0 Z2.000 F3000
M400
M204 P300 T300
G1 F600
G0 X97.500 Y161.750 Z2.000
M400
M204 P150 T150
G1 F120
G1 Z0.000 F2500
G1 X97.250 Y161.750
G1 X97.000 Y161.750
G1 X96.750 Y161.750
G1 X96.500 Y161.750
G1 X96.250 Y161.750
G1 X96.000 Y161.750
G1 X95.750 Y161.750
G1 X95.500 Y161.750
G0 Z2.000 F3000
M400
M204 P300 T300
G1 F600
G0 X96.000 Y162.500 Z2.000
M400
M204 P150 T150
G1 F120
G1 Z0.000 F2500
G1 X96.250 Y162.500
G1 X96.500 Y162.500
G1 X96.750 Y162.500
G1 X97.000 Y162.500
G1 X97.250 Y162.500
G1 X97.500 Y162.500
G1 X97.750 Y162.500
G0 Z2.000 F3000
M400
M204 P300 T300
G1 F600
G0 X98.000 Y163.250 Z2.000
M400
M204 P150 T150
G1 F120
G1 Z0.000 F2500
G1 X97.750 Y163.250
G1 X97.500 Y163.250
G1 X97.250 Y163.250
G1 X97.000 Y163.250
G1 X96.750 Y163.250
G1 X96.500 Y163.250
G0 Z2.000 F3000
M400
M204 P300 T300
G1 F600
G0 X97.250 Y164.000 Z2.000
M400
M204 P150 T150
G1 F120
G1 Z0.000 F2500
G1 X97.500 Y164.000
G1 X97.750 Y164.000
G0 Z2.000 F3000
M400
M204 P300 T300
G1 F600
G0 X96.750 Y160.250 Z2.000
M400
M204 P150 T150
G1 F120
G1 Z0.000 F2500
G1 X96.500 Y160.250
G1 X96.250 Y160.250
G1 X96.000 Y160.250
G1 X95.750 Y160.250
G1 X95.500 Y160.250
G1 X95.250 Y160.250
G1 X95.000 Y160.250
G1 X94.750 Y160.250
G1 X94.500 Y160.250
G1 X94.250 Y160.250
G0 Z2.000 F3000
M400
M204 P300 T300
G1 F600
G0 X93.250 Y158.750 Z2.000
M400
M204 P150 T150
G1 F120
G1 Z0.000 F2500
G1 X93.500 Y158.750
G1 X93.750 Y158.750
G1 X94.000 Y158.750
G1 X94.250 Y158.750
G1 X94.500 Y158.750
G1 X94.750 Y158.750
G1 X95.000 Y158.750
G1 X95.250 Y158.750
G1 X95.500 Y158.750
G1 X95.750 Y158.750
G1 X96.000 Y158.750
G1 X96.250 Y158.750
G0 Z2.000 F3000
M400
M204 P300 T300
G1 F600
G0 X95.500 Y157.250 Z2.000
M400
M204 P150 T150
G1 F120
G1 Z0.000 F2500
G1 X95.250 Y157.250
G1 X95.000 Y157.250
G1 X94.750 Y157.250
G1 X94.500 Y157.250
G1 X94.250 Y157.250
G1 X94.000 Y157.250
G1 X93.750 Y157.250
G1 X93.500 Y157.250
G1 X93.250 Y157.250
G1 X93.000 Y157.250
G1 X92.750 Y157.250
G1 X92.500 Y157.250
G1 X92.250 Y157.250
G0 Z2.000 F3000
M400
M204 P300 T300
G1 F600
G0 X91.250 Y155.750 Z2.000
M400
M204 P150 T150
G1 F120
G1 Z0.000 F2500
G1 X91.500 Y155.750
G1 X91.750 Y155.750
G1 X92.000 Y155.750
G1 X92.250 Y155.750
G1 X92.500 Y155.750
G1 X92.750 Y155.750
G1 X93.000 Y155.750
G1 X93.250 Y155.750
G1 X93.500 Y155.750
G1 X93.750 Y155.750
G1 X94.000 Y155.750
G1 X94.250 Y155.750
G1 X94.500 Y155.750
G1 X94.750 Y155.750
G1 X95.000 Y155.750
G0 Z2.000 F3000
M400
M204 P300 T300
G1 F600
G0 X94.250 Y154.250 Z2.000
M400
M204 P150 T150
G1 F120
G1 Z0.000 F2500
G1 X94.000 Y154.250
G1 X93.750 Y154.250
G1 X93.500 Y154.250
G1 X93.250 Y154.250
G1 X93.000 Y154.250
G1 X92.750 Y154.250
G1 X92.500 Y154.250
G1 X92.250 Y154.250
G1 X92.000 Y154.250
G1 X91.750 Y154.250
G1 X91.500 Y154.250
G1 X91.250 Y154.250
G1 X91.000 Y154.250
G1 X90.750 Y154.250
G1 X90.500 Y154.250
G1 X90.250 Y154.250
G0 Z2.000 F3000
M400
M204 P300 T300
G1 F600
G0 X89.750 Y153.500 Z2.000
M400
M204 P150 T150
G1 F120
G1 Z0.000 F2500
G1 X90.000 Y153.500
G1 X90.250 Y153.500
G1 X90.500 Y153.500
G1 X90.750 Y153.500
G1 X91.000 Y153.500
G1 X91.250 Y153.500
G1 X91.500 Y153.500
G1 X91.750 Y153.500
G1 X92.000 Y153.500
G1 X92.250 Y153.500
G0 Z2.000 F3000

; --- CIKEL NAMAKANJA ---
G0 Z2.000 F3000
M400
M204 P300 T300
G1 F600
G0 X98.908 Y0.000 Z7.000
G1 Z1.000 F3000
G1 X98.908 Y0.000 F2500
G1 X98.908 Y2.500 F2500
G1 X93.908 Y0.000 F2500
G1 X98.908 Y0.000 F2500
G0 Z19.000 F3000
G0 X90.309 Y18.997
G0 Z7.000 F3000
G0 X92.500 Y153.500 Z2.000
M400
M204 P150 T150
G1 F120
G1 Z0.000 F2500
G1 X92.500 Y153.500
G1 X92.750 Y153.500
G1 X93.000 Y153.500
G1 X93.250 Y153.500
G1 X93.500 Y153.500
G1 X93.750 Y153.500
G1 X94.000 Y153.500
G0 Z2.000 F3000
M400
M204 P300 T300
G1 F600
G0 X93.250 Y152.000 Z2.000
M400
M204 P150 T150
G1 F120
G1 Z0.000 F2500
G1 X93.000 Y152.000
G1 X92.750 Y152.000
G1 X92.500 Y152.000
G1 X92.250 Y152.000
G1 X92.000 Y152.000
G1 X91.750 Y152.000
G1 X91.500 Y152.000
G1 X91.250 Y152.000
G1 X91.000 Y152.000
G1 X90.750 Y152.000
G1 X90.500 Y152.000
G1 X90.250 Y152.000
G1 X90.000 Y152.000
G1 X89.750 Y152.000
G1 X89.500 Y152.000
G1 X89.250 Y152.000
G1 X89.000 Y152.000
G1 X88.750 Y152.000
G0 Z2.000 F3000
M400
M204 P300 T300
G1 F600
G0 X88.000 Y151.250 Z2.000
M400
M204 P150 T150
G1 F120
G1 Z0.000 F2500
G1 X88.250 Y151.250
G1 X88.500 Y151.250
G1 X88.750 Y151.250
G1 X89.000 Y151.250
G1 X89.250 Y151.250
G1 X89.500 Y151.250
G1 X89.750 Y151.250
G1 X90.000 Y151.250
G1 X90.250 Y151.250
G1 X90.500 Y151.250
G1 X90.750 Y151.250
G1 X91.000 Y151.250
G1 X91.250 Y151.250
G1 X91.500 Y151.250
G1 X91.750 Y151.250
G1 X92.000 Y151.250
G1 X92.250 Y151.250
G1 X92.500 Y151.250
G1 X92.750 Y151.250
G1 X93.000 Y151.250
G0 Z2.000 F3000
M400
M204 P300 T300
G1 F600
G0 X92.750 Y150.500 Z2.000
M400
M204 P150 T150
G1 F120
G1 Z0.000 F2500
G1 X92.500 Y150.500
G1 X92.250 Y150.500
G1 X92.000 Y150.500
G1 X91.750 Y150.500
G1 X91.500 Y150.500
G1 X91.250 Y150.500
G1 X91.000 Y150.500
G1 X90.750 Y150.500
G1 X90.500 Y150.500
G1 X90.250 Y150.500
G1 X90.000 Y150.500
G1 X89.750 Y150.500
G1 X89.500 Y150.500
G1 X89.250 Y150.500
G1 X89.000 Y150.500
G1 X88.750 Y150.500
G1 X88.500 Y150.500
G1 X88.250 Y150.500
G1 X88.000 Y150.500
G1 X87.750 Y150.500
G1 X87.500 Y150.500
G0 Z2.000 F3000
M400
M204 P300 T300
G1 F600
G0 X87.000 Y149.750 Z2.000
M400
M204 P150 T150
G1 F120
G1 Z0.000 F2500
G1 X87.250 Y149.750
G1 X87.500 Y149.750
G1 X87.750 Y149.750
G1 X88.000 Y149.750
G1 X88.250 Y149.750
G1 X88.500 Y149.750
G1 X88.750 Y149.750
G1 X89.000 Y149.750
G1 X89.250 Y149.750
G1 X89.500 Y149.750
G1 X89.750 Y149.750
G1 X90.000 Y149.750
G1 X90.250 Y149.750
G1 X90.500 Y149.750
G1 X90.750 Y149.750
G1 X91.000 Y149.750
G1 X91.250 Y149.750
G1 X91.500 Y149.750
G1 X91.750 Y149.750
G1 X92.000 Y149.750
G1 X92.250 Y149.750
G0 Z2.000 F3000
M400
M204 P300 T300
G1 F600
G0 X92.000 Y149.000 Z2.000
M400
M204 P150 T150
G1 F120
G1 Z0.000 F2500
G1 X91.750 Y149.000
G1 X91.500 Y149.000
G1 X91.250 Y149.000
G1 X91.000 Y149.000
G1 X90.750 Y149.000
G1 X90.500 Y149.000
G1 X90.250 Y149.000
G1 X90.000 Y149.000
G1 X89.750 Y149.000
G1 X89.500 Y149.000
G1 X89.250 Y149.000
G1 X89.000 Y149.000
G1 X88.750 Y149.000
G1 X88.500 Y149.000
G1 X88.250 Y149.000
G1 X88.000 Y149.000
G1 X87.750 Y149.000
G1 X87.500 Y149.000
G1 X87.250 Y149.000
G1 X87.000 Y149.000
G1 X86.750 Y149.000
G1 X86.500 Y149.000
G0 Z2.000 F3000
M400
M204 P300 T300
G1 F600
G0 X86.000 Y148.250 Z2.000
M400
M204 P150 T150
G1 F120
G1 Z0.000 F2500
G1 X86.250 Y148.250
G1 X86.500 Y148.250
G1 X86.750 Y148.250
G1 X87.000 Y148.250
G1 X87.250 Y148.250
G1 X87.500 Y148.250
G1 X87.750 Y148.250
G1 X88.000 Y148.250
G1 X88.250 Y148.250
G1 X88.500 Y148.250
G1 X88.750 Y148.250
G1 X89.000 Y148.250
G1 X89.250 Y148.250
G1 X89.500 Y148.250
G1 X89.750 Y148.250
G1 X90.000 Y148.250
G1 X90.250 Y148.250
G1 X90.500 Y148.250
G1 X90.750 Y148.250
G1 X91.000 Y148.250
G1 X91.250 Y148.250
G1 X91.500 Y148.250
G1 X91.750 Y148.250
G0 Z2.000 F3000
M400
M204 P300 T300
G1 F600
G0 X91.250 Y147.500 Z2.000
M400
M204 P150 T150
G1 F120
G1 Z0.000 F2500
G1 X91.000 Y147.500
G1 X90.750 Y147.500
G1 X90.500 Y147.500
G1 X90.250 Y147.500
G1 X90.000 Y147.500
G1 X89.750 Y147.500
G1 X89.500 Y147.500
G1 X89.250 Y147.500
G1 X89.000 Y147.500
G1 X88.750 Y147.500
G1 X88.500 Y147.500
G1 X88.250 Y147.500
G1 X88.000 Y147.500
G1 X87.750 Y147.500
G1 X87.500 Y147.500
G1 X87.250 Y147.500
G1 X87.000 Y147.500
G1 X86.750 Y147.500
G1 X86.500 Y147.500
G1 X86.250 Y147.500
G1 X86.000 Y147.500
G1 X85.750 Y147.500
G1 X85.500 Y147.500
G0 Z2.000 F3000
M400
M204 P300 T300
G1 F600
G0 X85.000 Y146.750 Z2.000
M400
M204 P150 T150
G1 F120
G1 Z0.000 F2500
G1 X85.250 Y146.750
G1 X85.500 Y146.750
G1 X85.750 Y146.750
G1 X86.000 Y146.750
G1 X86.250 Y146.750
G1 X86.500 Y146.750
G1 X86.750 Y146.750
G1 X87.000 Y146.750
G1 X87.250 Y146.750
G1 X87.500 Y146.750
G1 X87.750 Y146.750
G1 X88.000 Y146.750
G1 X88.250 Y146.750
G1 X88.500 Y146.750
G1 X88.750 Y146.750
G1 X89.000 Y146.750
G1 X89.250 Y146.750
G1 X89.500 Y146.750
G1 X89.750 Y146.750
G1 X90.000 Y146.750
G1 X90.250 Y146.750
G1 X90.500 Y146.750
G1 X90.750 Y146.750
G1 X91.000 Y146.750
G0 Z2.000 F3000
M400
M204 P300 T300
G1 F600
G0 X90.750 Y146.000 Z2.000
M400
M204 P150 T150
G1 F120
G1 Z0.000 F2500
G1 X90.500 Y146.000
G1 X90.250 Y146.000
G1 X90.000 Y146.000
G1 X89.750 Y146.000
G1 X89.500 Y146.000
G1 X89.250 Y146.000
G1 X89.000 Y146.000
G1 X88.750 Y146.000
G1 X88.500 Y146.000
G1 X88.250 Y146.000
G1 X88.000 Y146.000
G1 X87.750 Y146.000
G1 X87.500 Y146.000
G1 X87.250 Y146.000
G1 X87.000 Y146.000
G1 X86.750 Y146.000
G1 X86.500 Y146.000
G1 X86.250 Y146.000
G1 X86.000 Y146.000
G1 X85.750 Y146.000
G1 X85.500 Y146.000
G1 X85.250 Y146.000
G1 X85.000 Y146.000
G1 X84.750 Y146.000
G1 X84.500 Y146.000
G0 Z2.000 F3000
M400
M204 P300 T300
G1 F600
G0 X84.000 Y145.250 Z2.000
M400
M204 P150 T150
G1 F120
G1 Z0.000 F2500
G1 X84.250 Y145.250
G1 X84.500 Y145.250
G1 X84.750 Y145.250
G1 X85.000 Y145.250
G1 X85.250 Y145.250
G1 X85.500 Y145.250
G1 X85.750 Y145.250
G1 X86.000 Y145.250
G1 X86.250 Y145.250
G1 X86.500 Y145.250
G1 X86.750 Y145.250
G1 X87.000 Y145.250
G1 X87.250 Y145.250
G1 X87.500 Y145.250
G1 X87.750 Y145.250
G1 X88.000 Y145.250
G1 X88.250 Y145.250
G1 X88.500 Y145.250
G1 X88.750 Y145.250
G1 X89.000 Y145.250
G1 X89.250 Y145.250
G1 X89.500 Y145.250
G1 X89.750 Y145.250
G1 X90.000 Y145.250
G1 X90.250 Y145.250
G0 Z2.000 F3000
M400
M204 P300 T300
G1 F600
G0 X90.000 Y144.500 Z2.000
M400
M204 P150 T150
G1 F120
G1 Z0.000 F2500
G1 X89.750 Y144.500
G1 X89.500 Y144.500
G1 X89.250 Y144.500
G1 X89.000 Y144.500
G1 X88.750 Y144.500
G1 X88.500 Y144.500
G1 X88.250 Y144.500
G1 X88.000 Y144.500
G1 X87.750 Y144.500
G1 X87.500 Y144.500
G1 X87.250 Y144.500
G1 X87.000 Y144.500
G1 X86.750 Y144.500
G1 X86.500 Y144.500
G1 X86.250 Y144.500
G1 X86.000 Y144.500
G1 X85.750 Y144.500
G1 X85.500 Y144.500
G1 X85.250 Y144.500
G1 X85.000 Y144.500
G1 X84.750 Y144.500
G1 X84.500 Y144.500
G1 X84.250 Y144.500
G1 X84.000 Y144.500
G1 X83.750 Y144.500
G1 X83.500 Y144.500
G1 X83.250 Y144.500
G0 Z2.000 F3000
M400
M204 P300 T300
G1 F600
G0 X82.750 Y143.750 Z2.000
M400
M204 P150 T150
G1 F120
G1 Z0.000 F2500
G1 X83.000 Y143.750
G1 X83.250 Y143.750
G1 X83.500 Y143.750
G1 X83.750 Y143.750
G1 X84.000 Y143.750
G1 X84.250 Y143.750
G1 X84.500 Y143.750
G1 X84.750 Y143.750
G1 X85.000 Y143.750
G1 X85.250 Y143.750
G1 X85.500 Y143.750
G1 X85.750 Y143.750
G1 X86.000 Y143.750
G1 X86.250 Y143.750
G1 X86.500 Y143.750
G1 X86.750 Y143.750
G1 X87.000 Y143.750
G1 X87.250 Y143.750
G1 X87.500 Y143.750
G1 X87.750 Y143.750
G1 X88.000 Y143.750
G1 X88.250 Y143.750
G1 X88.500 Y143.750
G1 X88.750 Y143.750
G1 X89.000 Y143.750
G1 X89.250 Y143.750
G1 X89.500 Y143.750
G1 X89.750 Y143.750
G0 Z2.000 F3000
M400
M204 P300 T300
G1 F600
G0 X89.250 Y143.000 Z2.000
M400
M204 P150 T150
G1 F120
G1 Z0.000 F2500
G1 X89.000 Y143.000
G1 X88.750 Y143.000
G1 X88.500 Y143.000
G1 X88.250 Y143.000
G1 X88.000 Y143.000
G1 X87.750 Y143.000
G1 X87.500 Y143.000
G1 X87.250 Y143.000
G1 X87.000 Y143.000
G1 X86.750 Y143.000
G1 X86.500 Y143.000
G1 X86.250 Y143.000
G1 X86.000 Y143.000
G1 X85.750 Y143.000
G1 X85.500 Y143.000
G1 X85.250 Y143.000
G1 X85.000 Y143.000
G1 X84.750 Y143.000
G1 X84.500 Y143.000
G1 X84.250 Y143.000
G1 X84.000 Y143.000
G1 X83.750 Y143.000
G1 X83.500 Y143.000
G1 X83.250 Y143.000
G1 X83.000 Y143.000
G1 X82.750 Y143.000
G1 X82.500 Y143.000
G1 X82.250 Y143.000
G0 Z2.000 F3000
M400
M204 P300 T300
G1 F600
G0 X81.750 Y142.250 Z2.000
M400
M204 P150 T150
G1 F120
G1 Z0.000 F2500
G1 X82.000 Y142.250
G1 X82.250 Y142.250
G1 X82.500 Y142.250
G1 X82.750 Y142.250
G1 X83.000 Y142.250
G1 X83.250 Y142.250
G1 X83.500 Y142.250
G1 X83.750 Y142.250
G1 X84.000 Y142.250
G1 X84.250 Y142.250
G1 X84.500 Y142.250
G1 X84.750 Y142.250
G1 X85.000 Y142.250
G1 X85.250 Y142.250
G1 X85.500 Y142.250
G1 X85.750 Y142.250
G1 X86.000 Y142.250
G1 X86.250 Y142.250
G1 X86.500 Y142.250
G1 X86.750 Y142.250
G1 X87.000 Y142.250
G1 X87.250 Y142.250
G1 X87.500 Y142.250
G1 X87.750 Y142.250
G1 X88.000 Y142.250
G1 X88.250 Y142.250
G1 X88.500 Y142.250
G1 X88.750 Y142.250
G1 X89.000 Y142.250
G0 Z2.000 F3000
M400
M204 P300 T300
G1 F600
G0 X88.750 Y141.500 Z2.000
M400
M204 P150 T150
G1 F120
G1 Z0.000 F2500
G1 X88.500 Y141.500
G1 X88.250 Y141.500
G1 X88.000 Y141.500
G1 X87.750 Y141.500
G1 X87.500 Y141.500
G1 X87.250 Y141.500
G1 X87.000 Y141.500
G1 X86.750 Y141.500
G1 X86.500 Y141.500
G1 X86.250 Y141.500
G1 X86.000 Y141.500
G1 X85.750 Y141.500
G1 X85.500 Y141.500
G1 X85.250 Y141.500
G1 X85.000 Y141.500
G1 X84.750 Y141.500
G1 X84.500 Y141.500
G1 X84.250 Y141.500
G1 X84.000 Y141.500
G1 X83.750 Y141.500
G1 X83.500 Y141.500
G1 X83.250 Y141.500
G1 X83.000 Y141.500
G1 X82.750 Y141.500
G1 X82.500 Y141.500
G1 X82.250 Y141.500
G1 X82.000 Y141.500
G1 X81.750 Y141.500
G1 X81.500 Y141.500
G1 X81.250 Y141.500
G0 Z2.000 F3000
M400
M204 P300 T300
G1 F600
G0 X80.750 Y140.750 Z2.000
M400
M204 P150 T150
G1 F120
G1 Z0.000 F2500
G1 X81.000 Y140.750
G1 X81.250 Y140.750
G1 X81.500 Y140.750
G1 X81.750 Y140.750
G1 X82.000 Y140.750
G1 X82.250 Y140.750
G1 X82.500 Y140.750
G1 X82.750 Y140.750
G1 X83.000 Y140.750
G1 X83.250 Y140.750
G1 X83.500 Y140.750
G1 X83.750 Y140.750
G1 X84.000 Y140.750
G1 X84.250 Y140.750
G1 X84.500 Y140.750
G1 X84.750 Y140.750
G1 X85.000 Y140.750
G1 X85.250 Y140.750
G1 X85.500 Y140.750
G1 X85.750 Y140.750
G1 X86.000 Y140.750
G1 X86.250 Y140.750
G1 X86.500 Y140.750
G0 Z2.000 F3000

; --- CIKEL NAMAKANJA ---
G0 Z2.000 F3000
M400
M204 P300 T300
G1 F600
G0 X96.738 Y0.000 Z7.000
G1 Z1.000 F3000
G1 X96.738 Y0.000 F2500
G1 X96.738 Y2.500 F2500
G1 X91.738 Y0.000 F2500
G1 X96.738 Y0.000 F2500
G0 Z19.000 F3000
G0 X89.561 Y18.995
G0 Z7.000 F3000
G0 X86.750 Y140.750 Z2.000
M400
M204 P150 T150
G1 F120
G1 Z0.000 F2500
G1 X86.750 Y140.750
G1 X87.000 Y140.750
G1 X87.250 Y140.750
G1 X87.500 Y140.750
G1 X87.750 Y140.750
G1 X88.000 Y140.750
G1 X88.250 Y140.750
G1 X88.500 Y140.750
G0 Z2.000 F3000
M400
M204 P300 T300
G1 F600
G0 X88.000 Y140.000 Z2.000
M400
M204 P150 T150
G1 F120
G1 Z0.000 F2500
G1 X87.750 Y140.000
G1 X87.500 Y140.000
G1 X87.250 Y140.000
G1 X87.000 Y140.000
G1 X86.750 Y140.000
G1 X86.500 Y140.000
G1 X86.250 Y140.000
G1 X86.000 Y140.000
G1 X85.750 Y140.000
G1 X85.500 Y140.000
G1 X85.250 Y140.000
G1 X85.000 Y140.000
G1 X84.750 Y140.000
G1 X84.500 Y140.000
G1 X84.250 Y140.000
G1 X84.000 Y140.000
G1 X83.750 Y140.000
G1 X83.500 Y140.000
G1 X83.250 Y140.000
G1 X83.000 Y140.000
G1 X82.750 Y140.000
G1 X82.500 Y140.000
G1 X82.250 Y140.000
G1 X82.000 Y140.000
G1 X81.750 Y140.000
G1 X81.500 Y140.000
G1 X81.250 Y140.000
G1 X81.000 Y140.000
G1 X80.750 Y140.000
G1 X80.500 Y140.000
G1 X80.250 Y140.000
G0 Z2.000 F3000
M400
M204 P300 T300
G1 F600
G0 X79.500 Y139.250 Z2.000
M400
M204 P150 T150
G1 F120
G1 Z0.000 F2500
G1 X79.750 Y139.250
G1 X80.000 Y139.250
G1 X80.250 Y139.250
G1 X80.500 Y139.250
G1 X80.750 Y139.250
G1 X81.000 Y139.250
G1 X81.250 Y139.250
G1 X81.500 Y139.250
G1 X81.750 Y139.250
G1 X82.000 Y139.250
G1 X82.250 Y139.250
G1 X82.500 Y139.250
G1 X82.750 Y139.250
G1 X83.000 Y139.250
G1 X83.250 Y139.250
G1 X83.500 Y139.250
G1 X83.750 Y139.250
G1 X84.000 Y139.250
G1 X84.250 Y139.250
G1 X84.500 Y139.250
G1 X84.750 Y139.250
G1 X85.000 Y139.250
G1 X85.250 Y139.250
G1 X85.500 Y139.250
G1 X85.750 Y139.250
G1 X86.000 Y139.250
G1 X86.250 Y139.250
G1 X86.500 Y139.250
G1 X86.750 Y139.250
G1 X87.000 Y139.250
G1 X87.250 Y139.250
G1 X87.500 Y139.250
G1 X87.750 Y139.250
G0 Z2.000 F3000
M400
M204 P300 T300
G1 F600
G0 X87.500 Y138.500 Z2.000
M400
M204 P150 T150
G1 F120
G1 Z0.000 F2500
G1 X87.250 Y138.500
G1 X87.000 Y138.500
G1 X86.750 Y138.500
G1 X86.500 Y138.500
G1 X86.250 Y138.500
G1 X86.000 Y138.500
G1 X85.750 Y138.500
G1 X85.500 Y138.500
G1 X85.250 Y138.500
G1 X85.000 Y138.500
G1 X84.750 Y138.500
G1 X84.500 Y138.500
G1 X84.250 Y138.500
G1 X84.000 Y138.500
G1 X83.750 Y138.500
G1 X83.500 Y138.500
G1 X83.250 Y138.500
G1 X83.000 Y138.500
G1 X82.750 Y138.500
G1 X82.500 Y138.500
G1 X82.250 Y138.500
G1 X82.000 Y138.500
G1 X81.750 Y138.500
G1 X81.500 Y138.500
G1 X81.250 Y138.500
G1 X81.000 Y138.500
G1 X80.750 Y138.500
G1 X80.500 Y138.500
G1 X80.250 Y138.500
G1 X80.000 Y138.500
G1 X79.750 Y138.500
G1 X79.500 Y138.500
G1 X79.250 Y138.500
G1 X79.000 Y138.500
G0 Z2.000 F3000
M400
M204 P300 T300
G1 F600
G0 X78.500 Y137.750 Z2.000
M400
M204 P150 T150
G1 F120
G1 Z0.000 F2500
G1 X78.750 Y137.750
G1 X79.000 Y137.750
G1 X79.250 Y137.750
G1 X79.500 Y137.750
G1 X79.750 Y137.750
G1 X80.000 Y137.750
G1 X80.250 Y137.750
G1 X80.500 Y137.750
G1 X80.750 Y137.750
G1 X81.000 Y137.750
G1 X81.250 Y137.750
G1 X81.500 Y137.750
G1 X81.750 Y137.750
G1 X82.000 Y137.750
G1 X82.250 Y137.750
G1 X82.500 Y137.750
G1 X82.750 Y137.750
G1 X83.000 Y137.750
G1 X83.250 Y137.750
G1 X83.500 Y137.750
G1 X83.750 Y137.750
G1 X84.000 Y137.750
G1 X84.250 Y137.750
G1 X84.500 Y137.750
G1 X84.750 Y137.750
G1 X85.000 Y137.750
G1 X85.250 Y137.750
G1 X85.500 Y137.750
G1 X85.750 Y137.750
G1 X86.000 Y137.750
G1 X86.250 Y137.750
G1 X86.500 Y137.750
G1 X86.750 Y137.750
G1 X87.000 Y137.750
G0 Z2.000 F3000
M400
M204 P300 T300
G1 F600
G0 X86.750 Y137.000 Z2.000
M400
M204 P150 T150
G1 F120
G1 Z0.000 F2500
G1 X86.500 Y137.000
G1 X86.250 Y137.000
G1 X86.000 Y137.000
G1 X85.750 Y137.000
G1 X85.500 Y137.000
G1 X85.250 Y137.000
G1 X85.000 Y137.000
G1 X84.750 Y137.000
G1 X84.500 Y137.000
G1 X84.250 Y137.000
G1 X84.000 Y137.000
G1 X83.750 Y137.000
G1 X83.500 Y137.000
G1 X83.250 Y137.000
G1 X83.000 Y137.000
G1 X82.750 Y137.000
G1 X82.500 Y137.000
G1 X82.250 Y137.000
G1 X82.000 Y137.000
G1 X81.750 Y137.000
G1 X81.500 Y137.000
G1 X81.250 Y137.000
G1 X81.000 Y137.000
G1 X80.750 Y137.000
G1 X80.500 Y137.000
G1 X80.250 Y137.000
G1 X80.000 Y137.000
G1 X79.750 Y137.000
G1 X79.500 Y137.000
G1 X79.250 Y137.000
G1 X79.000 Y137.000
G1 X78.750 Y137.000
G1 X78.500 Y137.000
G1 X78.250 Y137.000
G1 X78.000 Y137.000
G0 Z2.000 F3000
M400
M204 P300 T300
G1 F600
G0 X77.500 Y136.250 Z2.000
M400
M204 P150 T150
G1 F120
G1 Z0.000 F2500
G1 X77.750 Y136.250
G1 X78.000 Y136.250
G1 X78.250 Y136.250
G1 X78.500 Y136.250
G1 X78.750 Y136.250
G1 X79.000 Y136.250
G1 X79.250 Y136.250
G1 X79.500 Y136.250
G1 X79.750 Y136.250
G1 X80.000 Y136.250
G1 X80.250 Y136.250
G1 X80.500 Y136.250
G1 X80.750 Y136.250
G1 X81.000 Y136.250
G1 X81.250 Y136.250
G1 X81.500 Y136.250
G1 X81.750 Y136.250
G1 X82.000 Y136.250
G1 X82.250 Y136.250
G1 X82.500 Y136.250
G1 X82.750 Y136.250
G1 X83.000 Y136.250
G1 X83.250 Y136.250
G1 X83.500 Y136.250
G1 X83.750 Y136.250
G1 X84.000 Y136.250
G1 X84.250 Y136.250
G1 X84.500 Y136.250
G1 X84.750 Y136.250
G1 X85.000 Y136.250
G1 X85.250 Y136.250
G1 X85.500 Y136.250
G1 X85.750 Y136.250
G1 X86.000 Y136.250
G1 X86.250 Y136.250
G1 X86.500 Y136.250
G0 Z2.000 F3000
M400
M204 P300 T300
G1 F600
G0 X86.000 Y135.500 Z2.000
M400
M204 P150 T150
G1 F120
G1 Z0.000 F2500
G1 X85.750 Y135.500
G1 X85.500 Y135.500
G1 X85.250 Y135.500
G1 X85.000 Y135.500
G1 X84.750 Y135.500
G1 X84.500 Y135.500
G1 X84.250 Y135.500
G1 X84.000 Y135.500
G1 X83.750 Y135.500
G1 X83.500 Y135.500
G1 X83.250 Y135.500
G1 X83.000 Y135.500
G1 X82.750 Y135.500
G1 X82.500 Y135.500
G1 X82.250 Y135.500
G1 X82.000 Y135.500
G1 X81.750 Y135.500
G1 X81.500 Y135.500
G1 X81.250 Y135.500
G1 X81.000 Y135.500
G1 X80.750 Y135.500
G1 X80.500 Y135.500
G1 X80.250 Y135.500
G1 X80.000 Y135.500
G1 X79.750 Y135.500
G1 X79.500 Y135.500
G1 X79.250 Y135.500
G1 X79.000 Y135.500
G1 X78.750 Y135.500
G1 X78.500 Y135.500
G1 X78.250 Y135.500
G1 X78.000 Y135.500
G1 X77.750 Y135.500
G1 X77.500 Y135.500
G1 X77.250 Y135.500
G1 X77.000 Y135.500
G0 Z2.000 F3000
M400
M204 P300 T300
G1 F600
G0 X76.500 Y134.750 Z2.000
M400
M204 P150 T150
G1 F120
G1 Z0.000 F2500
G1 X76.750 Y134.750
G1 X77.000 Y134.750
G1 X77.250 Y134.750
G1 X77.500 Y134.750
G1 X77.750 Y134.750
G1 X78.000 Y134.750
G1 X78.250 Y134.750
G1 X78.500 Y134.750
G1 X78.750 Y134.750
G1 X79.000 Y134.750
G1 X79.250 Y134.750
G1 X79.500 Y134.750
G1 X79.750 Y134.750
G1 X80.000 Y134.750
G1 X80.250 Y134.750
G1 X80.500 Y134.750
G1 X80.750 Y134.750
G1 X81.000 Y134.750
G1 X81.250 Y134.750
G1 X81.500 Y134.750
G1 X81.750 Y134.750
G1 X82.000 Y134.750
G1 X82.250 Y134.750
G1 X82.500 Y134.750
G1 X82.750 Y134.750
G1 X83.000 Y134.750
G1 X83.250 Y134.750
G1 X83.500 Y134.750
G1 X83.750 Y134.750
G1 X84.000 Y134.750
G1 X84.250 Y134.750
G1 X84.500 Y134.750
G1 X84.750 Y134.750
G1 X85.000 Y134.750
G1 X85.250 Y134.750
G1 X85.500 Y134.750
G1 X85.750 Y134.750
G0 Z2.000 F3000
M400
M204 P300 T300
G1 F600
G0 X85.500 Y134.000 Z2.000
M400
M204 P150 T150
G1 F120
G1 Z0.000 F2500
G1 X85.250 Y134.000
G1 X85.000 Y134.000
G1 X84.750 Y134.000
G1 X84.500 Y134.000
G1 X84.250 Y134.000
G1 X84.000 Y134.000
G1 X83.750 Y134.000
G1 X83.500 Y134.000
G1 X83.250 Y134.000
G1 X83.000 Y134.000
G1 X82.750 Y134.000
G1 X82.500 Y134.000
G1 X82.250 Y134.000
G1 X82.000 Y134.000
G1 X81.750 Y134.000
G1 X81.500 Y134.000
G1 X81.250 Y134.000
G1 X81.000 Y134.000
G1 X80.750 Y134.000
G1 X80.500 Y134.000
G1 X80.250 Y134.000
G1 X80.000 Y134.000
G1 X79.750 Y134.000
G1 X79.500 Y134.000
G1 X79.250 Y134.000
G1 X79.000 Y134.000
G1 X78.750 Y134.000
G1 X78.500 Y134.000
G1 X78.250 Y134.000
G1 X78.000 Y134.000
G1 X77.750 Y134.000
G1 X77.500 Y134.000
G1 X77.250 Y134.000
G1 X77.000 Y134.000
G1 X76.750 Y134.000
G1 X76.500 Y134.000
G1 X76.250 Y134.000
G1 X76.000 Y134.000
G1 X75.750 Y134.000
G0 Z2.000 F3000
M400
M204 P300 T300
G1 F600
G0 X75.250 Y133.250 Z2.000
M400
M204 P150 T150
G1 F120
G1 Z0.000 F2500
G1 X75.500 Y133.250
G1 X75.750 Y133.250
G1 X76.000 Y133.250
G1 X76.250 Y133.250
G1 X76.500 Y133.250
G1 X76.750 Y133.250
G1 X77.000 Y133.250
G1 X77.250 Y133.250
G1 X77.500 Y133.250
G1 X77.750 Y133.250
G1 X78.000 Y133.250
G1 X78.250 Y133.250
G1 X78.500 Y133.250
G1 X78.750 Y133.250
G1 X79.000 Y133.250
G1 X79.250 Y133.250
G1 X79.500 Y133.250
G1 X79.750 Y133.250
G1 X80.000 Y133.250
G1 X80.250 Y133.250
G1 X80.500 Y133.250
G1 X80.750 Y133.250
G1 X81.000 Y133.250
G1 X81.250 Y133.250
G1 X81.500 Y133.250
G1 X81.750 Y133.250
G1 X82.000 Y133.250
G1 X82.250 Y133.250
G1 X82.500 Y133.250
G1 X82.750 Y133.250
G1 X83.000 Y133.250
G1 X83.250 Y133.250
G1 X83.500 Y133.250
G1 X83.750 Y133.250
G1 X84.000 Y133.250
G1 X84.250 Y133.250
G1 X84.500 Y133.250
G1 X84.750 Y133.250
G1 X85.000 Y133.250
G0 Z2.000 F3000
M400
M204 P300 T300
G1 F600
G0 X84.750 Y132.500 Z2.000
M400
M204 P150 T150
G1 F120
G1 Z0.000 F2500
G1 X84.500 Y132.500
G1 X84.250 Y132.500
G1 X84.000 Y132.500
G1 X83.750 Y132.500
G1 X83.500 Y132.500
G1 X83.250 Y132.500
G1 X83.000 Y132.500
G1 X82.750 Y132.500
G1 X82.500 Y132.500
G1 X82.250 Y132.500
G1 X82.000 Y132.500
G1 X81.750 Y132.500
G1 X81.500 Y132.500
G1 X81.250 Y132.500
G1 X81.000 Y132.500
G1 X80.750 Y132.500
G1 X80.500 Y132.500
G1 X80.250 Y132.500
G1 X80.000 Y132.500
G1 X79.750 Y132.500
G1 X79.500 Y132.500
G1 X79.250 Y132.500
G1 X79.000 Y132.500
G1 X78.750 Y132.500
G1 X78.500 Y132.500
G1 X78.250 Y132.500
G1 X78.000 Y132.500
G1 X77.750 Y132.500
G1 X77.500 Y132.500
G1 X77.250 Y132.500
G1 X77.000 Y132.500
G0 Z2.000 F3000

; --- CIKEL NAMAKANJA ---
G0 Z2.000 F3000
M400
M204 P300 T300
G1 F600
G0 X71.552 Y16.062 Z7.000
G1 Z1.000 F3000
G1 X71.552 Y16.062 F2500
G1 X71.552 Y18.562 F2500
G1 X66.552 Y16.062 F2500
G1 X71.552 Y8.562 F2500
G0 Z19.000 F3000
G0 X88.109 Y18.906
G0 Z7.000 F3000
G0 X76.750 Y132.500 Z2.000
M400
M204 P150 T150
G1 F120
G1 Z0.000 F2500
G1 X76.750 Y132.500
G1 X76.500 Y132.500
G1 X76.250 Y132.500
G1 X76.000 Y132.500
G1 X75.750 Y132.500
G1 X75.500 Y132.500
G1 X75.250 Y132.500
G1 X75.000 Y132.500
G1 X74.750 Y132.500
G0 Z2.000 F3000
M400
M204 P300 T300
G1 F600
G0 X74.250 Y131.750 Z2.000
M400
M204 P150 T150
G1 F120
G1 Z0.000 F2500
G1 X74.500 Y131.750
G1 X74.750 Y131.750
G1 X75.000 Y131.750
G1 X75.250 Y131.750
G1 X75.500 Y131.750
G1 X75.750 Y131.750
G1 X76.000 Y131.750
G1 X76.250 Y131.750
G1 X76.500 Y131.750
G1 X76.750 Y131.750
G1 X77.000 Y131.750
G1 X77.250 Y131.750
G1 X77.500 Y131.750
G1 X77.750 Y131.750
G1 X78.000 Y131.750
G1 X78.250 Y131.750
G1 X78.500 Y131.750
G1 X78.750 Y131.750
G1 X79.000 Y131.750
G1 X79.250 Y131.750
G1 X79.500 Y131.750
G1 X79.750 Y131.750
G1 X80.000 Y131.750
G1 X80.250 Y131.750
G1 X80.500 Y131.750
G1 X80.750 Y131.750
G1 X81.000 Y131.750
G1 X81.250 Y131.750
G1 X81.500 Y131.750
G1 X81.750 Y131.750
G1 X82.000 Y131.750
G1 X82.250 Y131.750
G1 X82.500 Y131.750
G1 X82.750 Y131.750
G1 X83.000 Y131.750
G1 X83.250 Y131.750
G1 X83.500 Y131.750
G1 X83.750 Y131.750
G1 X84.000 Y131.750
G1 X84.250 Y131.750
G1 X84.500 Y131.750
G0 Z2.000 F3000
M400
M204 P300 T300
G1 F600
G0 X84.000 Y131.000 Z2.000
M400
M204 P150 T150
G1 F120
G1 Z0.000 F2500
G1 X83.750 Y131.000
G1 X83.500 Y131.000
G1 X83.250 Y131.000
G1 X83.000 Y131.000
G1 X82.750 Y131.000
G1 X82.500 Y131.000
G1 X82.250 Y131.000
G1 X82.000 Y131.000
G1 X81.750 Y131.000
G1 X81.500 Y131.000
G1 X81.250 Y131.000
G1 X81.000 Y131.000
G1 X80.750 Y131.000
G1 X80.500 Y131.000
G1 X80.250 Y131.000
G1 X80.000 Y131.000
G1 X79.750 Y131.000
G1 X79.500 Y131.000
G1 X79.250 Y131.000
G1 X79.000 Y131.000
G1 X78.750 Y131.000
G1 X78.500 Y131.000
G1 X78.250 Y131.000
G1 X78.000 Y131.000
G1 X77.750 Y131.000
G1 X77.500 Y131.000
G1 X77.250 Y131.000
G1 X77.000 Y131.000
G1 X76.750 Y131.000
G1 X76.500 Y131.000
G1 X76.250 Y131.000
G1 X76.000 Y131.000
G1 X75.750 Y131.000
G1 X75.500 Y131.000
G1 X75.250 Y131.000
G1 X75.000 Y131.000
G1 X74.750 Y131.000
G1 X74.500 Y131.000
G1 X74.250 Y131.000
G1 X74.000 Y131.000
G1 X73.750 Y131.000
G0 Z2.000 F3000
M400
M204 P300 T300
G1 F600
G0 X73.250 Y130.250 Z2.000
M400
M204 P150 T150
G1 F120
G1 Z0.000 F2500
G1 X73.500 Y130.250
G1 X73.750 Y130.250
G1 X74.000 Y130.250
G1 X74.250 Y130.250
G1 X74.500 Y130.250
G1 X74.750 Y130.250
G1 X75.000 Y130.250
G1 X75.250 Y130.250
G1 X75.500 Y130.250
G1 X75.750 Y130.250
G1 X76.000 Y130.250
G1 X76.250 Y130.250
G1 X76.500 Y130.250
G1 X76.750 Y130.250
G1 X77.000 Y130.250
G1 X77.250 Y130.250
G1 X77.500 Y130.250
G1 X77.750 Y130.250
G1 X78.000 Y130.250
G1 X78.250 Y130.250
G1 X78.500 Y130.250
G1 X78.750 Y130.250
G1 X79.000 Y130.250
G1 X79.250 Y130.250
G1 X79.500 Y130.250
G1 X79.750 Y130.250
G1 X80.000 Y130.250
G1 X80.250 Y130.250
G1 X80.500 Y130.250
G1 X80.750 Y130.250
G1 X81.000 Y130.250
G1 X81.250 Y130.250
G1 X81.500 Y130.250
G1 X81.750 Y130.250
G1 X82.000 Y130.250
G1 X82.250 Y130.250
G1 X82.500 Y130.250
G1 X82.750 Y130.250
G1 X83.000 Y130.250
G1 X83.250 Y130.250
G1 X83.500 Y130.250
G1 X83.750 Y130.250
G0 Z2.000 F3000
M400
M204 P300 T300
G1 F600
G0 X83.500 Y129.500 Z2.000
M400
M204 P150 T150
G1 F120
G1 Z0.000 F2500
G1 X83.250 Y129.500
G1 X83.000 Y129.500
G1 X82.750 Y129.500
G1 X82.500 Y129.500
G1 X82.250 Y129.500
G1 X82.000 Y129.500
G1 X81.750 Y129.500
G1 X81.500 Y129.500
G1 X81.250 Y129.500
G1 X81.000 Y129.500
G1 X80.750 Y129.500
G1 X80.500 Y129.500
G1 X80.250 Y129.500
G1 X80.000 Y129.500
G1 X79.750 Y129.500
G1 X79.500 Y129.500
G1 X79.250 Y129.500
G1 X79.000 Y129.500
G1 X78.750 Y129.500
G1 X78.500 Y129.500
G1 X78.250 Y129.500
G1 X78.000 Y129.500
G1 X77.750 Y129.500
G1 X77.500 Y129.500
G1 X77.250 Y129.500
G1 X77.000 Y129.500
G1 X76.750 Y129.500
G1 X76.500 Y129.500
G1 X76.250 Y129.500
G1 X76.000 Y129.500
G1 X75.750 Y129.500
G1 X75.500 Y129.500
G1 X75.250 Y129.500
G1 X75.000 Y129.500
G1 X74.750 Y129.500
G1 X74.500 Y129.500
G1 X74.250 Y129.500
G1 X74.000 Y129.500
G1 X73.750 Y129.500
G1 X73.500 Y129.500
G1 X73.250 Y129.500
G1 X73.000 Y129.500
G1 X72.750 Y129.500
G1 X72.500 Y129.500
G0 Z2.000 F3000
M400
M204 P300 T300
G1 F600
G0 X72.000 Y128.750 Z2.000
M400
M204 P150 T150
G1 F120
G1 Z0.000 F2500
G1 X72.250 Y128.750
G1 X72.500 Y128.750
G1 X72.750 Y128.750
G1 X73.000 Y128.750
G1 X73.250 Y128.750
G1 X73.500 Y128.750
G1 X73.750 Y128.750
G1 X74.000 Y128.750
G1 X74.250 Y128.750
G1 X74.500 Y128.750
G1 X74.750 Y128.750
G1 X75.000 Y128.750
G1 X75.250 Y128.750
G1 X75.500 Y128.750
G1 X75.750 Y128.750
G1 X76.000 Y128.750
G1 X76.250 Y128.750
G1 X76.500 Y128.750
G1 X76.750 Y128.750
G1 X77.000 Y128.750
G1 X77.250 Y128.750
G1 X77.500 Y128.750
G1 X77.750 Y128.750
G1 X78.000 Y128.750
G1 X78.250 Y128.750
G1 X78.500 Y128.750
G1 X78.750 Y128.750
G1 X79.000 Y128.750
G1 X79.250 Y128.750
G1 X79.500 Y128.750
G1 X79.750 Y128.750
G1 X80.000 Y128.750
G1 X80.250 Y128.750
G1 X80.500 Y128.750
G1 X80.750 Y128.750
G1 X81.000 Y128.750
G1 X81.250 Y128.750
G1 X81.500 Y128.750
G1 X81.750 Y128.750
G1 X82.000 Y128.750
G1 X82.250 Y128.750
G1 X82.500 Y128.750
G1 X82.750 Y128.750
G1 X83.000 Y128.750
G1 X83.250 Y128.750
G0 Z2.000 F3000
M400
M204 P300 T300
G1 F600
G0 X82.750 Y128.000 Z2.000
M400
M204 P150 T150
G1 F120
G1 Z0.000 F2500
G1 X82.500 Y128.000
G1 X82.250 Y128.000
G1 X82.000 Y128.000
G1 X81.750 Y128.000
G1 X81.500 Y128.000
G1 X81.250 Y128.000
G1 X81.000 Y128.000
G1 X80.750 Y128.000
G1 X80.500 Y128.000
G1 X80.250 Y128.000
G1 X80.000 Y128.000
G1 X79.750 Y128.000
G1 X79.500 Y128.000
G1 X79.250 Y128.000
G1 X79.000 Y128.000
G1 X78.750 Y128.000
G1 X78.500 Y128.000
G1 X78.250 Y128.000
G1 X78.000 Y128.000
G1 X77.750 Y128.000
G1 X77.500 Y128.000
G1 X77.250 Y128.000
G1 X77.000 Y128.000
G1 X76.750 Y128.000
G1 X76.500 Y128.000
G1 X76.250 Y128.000
G1 X76.000 Y128.000
G1 X75.750 Y128.000
G1 X75.500 Y128.000
G1 X75.250 Y128.000
G1 X75.000 Y128.000
G1 X74.750 Y128.000
G1 X74.500 Y128.000
G1 X74.250 Y128.000
G1 X74.000 Y128.000
G1 X73.750 Y128.000
G1 X73.500 Y128.000
G1 X73.250 Y128.000
G1 X73.000 Y128.000
G1 X72.750 Y128.000
G1 X72.500 Y128.000
G1 X72.250 Y128.000
G1 X72.000 Y128.000
G1 X71.750 Y128.000
G1 X71.500 Y128.000
G0 Z2.000 F3000
M400
M204 P300 T300
G1 F600
G0 X71.000 Y127.250 Z2.000
M400
M204 P150 T150
G1 F120
G1 Z0.000 F2500
G1 X71.250 Y127.250
G1 X71.500 Y127.250
G1 X71.750 Y127.250
G1 X72.000 Y127.250
G1 X72.250 Y127.250
G1 X72.500 Y127.250
G1 X72.750 Y127.250
G1 X73.000 Y127.250
G1 X73.250 Y127.250
G1 X73.500 Y127.250
G1 X73.750 Y127.250
G1 X74.000 Y127.250
G1 X74.250 Y127.250
G1 X74.500 Y127.250
G1 X74.750 Y127.250
G1 X75.000 Y127.250
G1 X75.250 Y127.250
G1 X75.500 Y127.250
G1 X75.750 Y127.250
G1 X76.000 Y127.250
G1 X76.250 Y127.250
G1 X76.500 Y127.250
G1 X76.750 Y127.250
G1 X77.000 Y127.250
G1 X77.250 Y127.250
G1 X77.500 Y127.250
G1 X77.750 Y127.250
G1 X78.000 Y127.250
G1 X78.250 Y127.250
G1 X78.500 Y127.250
G1 X78.750 Y127.250
G1 X79.000 Y127.250
G1 X79.250 Y127.250
G1 X79.500 Y127.250
G1 X79.750 Y127.250
G1 X80.000 Y127.250
G1 X80.250 Y127.250
G1 X80.500 Y127.250
G1 X80.750 Y127.250
G1 X81.000 Y127.250
G1 X81.250 Y127.250
G1 X81.500 Y127.250
G1 X81.750 Y127.250
G1 X82.000 Y127.250
G1 X82.250 Y127.250
G1 X82.500 Y127.250
G0 Z2.000 F3000
M400
M204 P300 T300
G1 F600
G0 X82.250 Y126.500 Z2.000
M400
M204 P150 T150
G1 F120
G1 Z0.000 F2500
G1 X82.000 Y126.500
G1 X81.750 Y126.500
G1 X81.500 Y126.500
G1 X81.250 Y126.500
G1 X81.000 Y126.500
G1 X80.750 Y126.500
G1 X80.500 Y126.500
G1 X80.250 Y126.500
G1 X80.000 Y126.500
G1 X79.750 Y126.500
G1 X79.500 Y126.500
G1 X79.250 Y126.500
G1 X79.000 Y126.500
G1 X78.750 Y126.500
G1 X78.500 Y126.500
G1 X78.250 Y126.500
G1 X78.000 Y126.500
G1 X77.750 Y126.500
G1 X77.500 Y126.500
G1 X77.250 Y126.500
G1 X77.000 Y126.500
G1 X76.750 Y126.500
G1 X76.500 Y126.500
G1 X76.250 Y126.500
G1 X76.000 Y126.500
G1 X75.750 Y126.500
G1 X75.500 Y126.500
G1 X75.250 Y126.500
G1 X75.000 Y126.500
G1 X74.750 Y126.500
G1 X74.500 Y126.500
G1 X74.250 Y126.500
G1 X74.000 Y126.500
G1 X73.750 Y126.500
G1 X73.500 Y126.500
G1 X73.250 Y126.500
G1 X73.000 Y126.500
G1 X72.750 Y126.500
G1 X72.500 Y126.500
G1 X72.250 Y126.500
G1 X72.000 Y126.500
G1 X71.750 Y126.500
G1 X71.500 Y126.500
G1 X71.250 Y126.500
G1 X71.000 Y126.500
G0 Z2.000 F3000

; --- CIKEL NAMAKANJA ---
G0 Z2.000 F3000
M400
M204 P300 T300
G1 F600
G0 X97.551 Y19.201 Z7.000
G1 Z1.000 F3000
G1 X97.551 Y19.201 F2500
G1 X97.551 Y21.701 F2500
G1 X92.551 Y19.201 F2500
G1 X97.551 Y11.701 F2500
G0 Z19.000 F3000
G0 X87.142 Y18.784
G0 Z7.000 F3000
G0 X70.750 Y126.500 Z2.000
M400
M204 P150 T150
G1 F120
G1 Z0.000 F2500
G1 X70.750 Y126.500
G1 X70.500 Y126.500
G0 Z2.000 F3000
M400
M204 P300 T300
G1 F600
G0 X70.000 Y125.750 Z2.000
M400
M204 P150 T150
G1 F120
G1 Z0.000 F2500
G1 X70.250 Y125.750
G1 X70.500 Y125.750
G1 X70.750 Y125.750
G1 X71.000 Y125.750
G1 X71.250 Y125.750
G1 X71.500 Y125.750
G1 X71.750 Y125.750
G1 X72.000 Y125.750
G1 X72.250 Y125.750
G1 X72.500 Y125.750
G1 X72.750 Y125.750
G1 X73.000 Y125.750
G1 X73.250 Y125.750
G1 X73.500 Y125.750
G1 X73.750 Y125.750
G1 X74.000 Y125.750
G1 X74.250 Y125.750
G1 X74.500 Y125.750
G1 X74.750 Y125.750
G1 X75.000 Y125.750
G1 X75.250 Y125.750
G1 X75.500 Y125.750
G1 X75.750 Y125.750
G1 X76.000 Y125.750
G1 X76.250 Y125.750
G1 X76.500 Y125.750
G1 X76.750 Y125.750
G1 X77.000 Y125.750
G1 X77.250 Y125.750
G1 X77.500 Y125.750
G1 X77.750 Y125.750
G1 X78.000 Y125.750
G1 X78.250 Y125.750
G1 X78.500 Y125.750
G1 X78.750 Y125.750
G1 X79.000 Y125.750
G1 X79.250 Y125.750
G1 X79.500 Y125.750
G1 X79.750 Y125.750
G1 X80.000 Y125.750
G1 X80.250 Y125.750
G1 X80.500 Y125.750
G1 X80.750 Y125.750
G1 X81.000 Y125.750
G1 X81.250 Y125.750
G1 X81.500 Y125.750
G1 X81.750 Y125.750
G0 Z2.000 F3000
M400
M204 P300 T300
G1 F600
G0 X81.500 Y125.000 Z2.000
M400
M204 P150 T150
G1 F120
G1 Z0.000 F2500
G1 X81.250 Y125.000
G1 X81.000 Y125.000
G1 X80.750 Y125.000
G1 X80.500 Y125.000
G1 X80.250 Y125.000
G1 X80.000 Y125.000
G1 X79.750 Y125.000
G1 X79.500 Y125.000
G1 X79.250 Y125.000
G1 X79.000 Y125.000
G1 X78.750 Y125.000
G1 X78.500 Y125.000
G1 X78.250 Y125.000
G1 X78.000 Y125.000
G1 X77.750 Y125.000
G1 X77.500 Y125.000
G1 X77.250 Y125.000
G1 X77.000 Y125.000
G1 X76.750 Y125.000
G1 X76.500 Y125.000
G1 X76.250 Y125.000
G1 X76.000 Y125.000
G1 X75.750 Y125.000
G1 X75.500 Y125.000
G1 X75.250 Y125.000
G1 X75.000 Y125.000
G1 X74.750 Y125.000
G1 X74.500 Y125.000
G1 X74.250 Y125.000
G1 X74.000 Y125.000
G1 X73.750 Y125.000
G1 X73.500 Y125.000
G1 X73.250 Y125.000
G1 X73.000 Y125.000
G1 X72.750 Y125.000
G1 X72.500 Y125.000
G1 X72.250 Y125.000
G1 X72.000 Y125.000
G1 X71.750 Y125.000
G1 X71.500 Y125.000
G1 X71.250 Y125.000
G1 X71.000 Y125.000
G1 X70.750 Y125.000
G1 X70.500 Y125.000
G1 X70.250 Y125.000
G1 X70.000 Y125.000
G1 X69.750 Y125.000
G1 X69.500 Y125.000
G0 Z2.000 F3000
M400
M204 P300 T300
G1 F600
G0 X69.000 Y124.250 Z2.000
M400
M204 P150 T150
G1 F120
G1 Z0.000 F2500
G1 X69.250 Y124.250
G1 X69.500 Y124.250
G1 X69.750 Y124.250
G1 X70.000 Y124.250
G1 X70.250 Y124.250
G1 X70.500 Y124.250
G1 X70.750 Y124.250
G1 X71.000 Y124.250
G1 X71.250 Y124.250
G1 X71.500 Y124.250
G1 X71.750 Y124.250
G1 X72.000 Y124.250
G1 X72.250 Y124.250
G1 X72.500 Y124.250
G1 X72.750 Y124.250
G1 X73.000 Y124.250
G1 X73.250 Y124.250
G1 X73.500 Y124.250
G1 X73.750 Y124.250
G1 X74.000 Y124.250
G1 X74.250 Y124.250
G1 X74.500 Y124.250
G1 X74.750 Y124.250
G1 X75.000 Y124.250
G1 X75.250 Y124.250
G1 X75.500 Y124.250
G1 X75.750 Y124.250
G1 X76.000 Y124.250
G1 X76.250 Y124.250
G1 X76.500 Y124.250
G1 X76.750 Y124.250
G1 X77.000 Y124.250
G1 X77.250 Y124.250
G1 X77.500 Y124.250
G1 X77.750 Y124.250
G1 X78.000 Y124.250
G1 X78.250 Y124.250
G1 X78.500 Y124.250
G1 X78.750 Y124.250
G1 X79.000 Y124.250
G1 X79.250 Y124.250
G1 X79.500 Y124.250
G1 X79.750 Y124.250
G1 X80.000 Y124.250
G1 X80.250 Y124.250
G1 X80.500 Y124.250
G1 X80.750 Y124.250
G1 X81.000 Y124.250
G1 X81.250 Y124.250
G0 Z2.000 F3000
M400
M204 P300 T300
G1 F600
G0 X79.000 Y112.250 Z2.000
M400
M204 P150 T150
G1 F120
G1 Z0.000 F2500
G1 X78.750 Y112.250
G1 X78.500 Y112.250
G1 X78.250 Y112.250
G1 X78.000 Y112.250
G0 Z2.000 F3000
M400
M204 P300 T300
G1 F600
G0 X77.750 Y111.500 Z2.000
M400
M204 P150 T150
G1 F120
G1 Z0.000 F2500
G1 X78.000 Y111.500
G1 X78.250 Y111.500
G1 X78.500 Y111.500
G1 X78.750 Y111.500
G1 X79.000 Y111.500
G1 X79.250 Y111.500
G0 Z2.000 F3000
M400
M204 P300 T300
G1 F600
G0 X79.500 Y110.750 Z2.000
M400
M204 P150 T150
G1 F120
G1 Z0.000 F2500
G1 X79.250 Y110.750
G1 X79.000 Y110.750
G1 X78.750 Y110.750
G1 X78.500 Y110.750
G1 X78.250 Y110.750
G1 X78.000 Y110.750
G1 X77.750 Y110.750
G1 X77.500 Y110.750
G1 X77.250 Y110.750
G0 Z2.000 F3000
M400
M204 P300 T300
G1 F600
G0 X77.000 Y110.000 Z2.000
M400
M204 P150 T150
G1 F120
G1 Z0.000 F2500
G1 X77.250 Y110.000
G1 X77.500 Y110.000
G1 X77.750 Y110.000
G1 X78.000 Y110.000
G1 X78.250 Y110.000
G1 X78.500 Y110.000
G1 X78.750 Y110.000
G1 X79.000 Y110.000
G1 X79.250 Y110.000
G1 X79.500 Y110.000
G1 X79.750 Y110.000
G0 Z2.000 F3000
M400
M204 P300 T300
G1 F600
G0 X80.000 Y109.250 Z2.000
M400
M204 P150 T150
G1 F120
G1 Z0.000 F2500
G1 X79.750 Y109.250
G1 X79.500 Y109.250
G1 X79.250 Y109.250
G1 X79.000 Y109.250
G1 X78.750 Y109.250
G1 X78.500 Y109.250
G1 X78.250 Y109.250
G1 X78.000 Y109.250
G1 X77.750 Y109.250
G1 X77.500 Y109.250
G1 X77.250 Y109.250
G1 X77.000 Y109.250
G1 X76.750 Y109.250
G1 X76.500 Y109.250
G0 Z2.000 F3000
M400
M204 P300 T300
G1 F600
G0 X76.000 Y108.500 Z2.000
M400
M204 P150 T150
G1 F120
G1 Z0.000 F2500
G1 X76.250 Y108.500
G1 X76.500 Y108.500
G1 X76.750 Y108.500
G1 X77.000 Y108.500
G1 X77.250 Y108.500
G1 X77.500 Y108.500
G1 X77.750 Y108.500
G1 X78.000 Y108.500
G1 X78.250 Y108.500
G1 X78.500 Y108.500
G1 X78.750 Y108.500
G1 X79.000 Y108.500
G1 X79.250 Y108.500
G1 X79.500 Y108.500
G1 X79.750 Y108.500
G1 X80.000 Y108.500
G1 X80.250 Y108.500
G1 X80.500 Y108.500
G0 Z2.000 F3000
M400
M204 P300 T300
G1 F600
G0 X80.750 Y107.750 Z2.000
M400
M204 P150 T150
G1 F120
G1 Z0.000 F2500
G1 X80.500 Y107.750
G1 X80.250 Y107.750
G1 X80.000 Y107.750
G1 X79.750 Y107.750
G1 X79.500 Y107.750
G1 X79.250 Y107.750
G1 X79.000 Y107.750
G1 X78.750 Y107.750
G1 X78.500 Y107.750
G1 X78.250 Y107.750
G1 X78.000 Y107.750
G1 X77.750 Y107.750
G1 X77.500 Y107.750
G1 X77.250 Y107.750
G1 X77.000 Y107.750
G1 X76.750 Y107.750
G1 X76.500 Y107.750
G1 X76.250 Y107.750
G1 X76.000 Y107.750
G1 X75.750 Y107.750
G0 Z2.000 F3000
M400
M204 P300 T300
G1 F600
G0 X75.250 Y107.000 Z2.000
M400
M204 P150 T150
G1 F120
G1 Z0.000 F2500
G1 X75.500 Y107.000
G1 X75.750 Y107.000
G1 X76.000 Y107.000
G1 X76.250 Y107.000
G1 X76.500 Y107.000
G1 X76.750 Y107.000
G1 X77.000 Y107.000
G1 X77.250 Y107.000
G1 X77.500 Y107.000
G1 X77.750 Y107.000
G1 X78.000 Y107.000
G1 X78.250 Y107.000
G1 X78.500 Y107.000
G1 X78.750 Y107.000
G1 X79.000 Y107.000
G1 X79.250 Y107.000
G1 X79.500 Y107.000
G1 X79.750 Y107.000
G1 X80.000 Y107.000
G1 X80.250 Y107.000
G1 X80.500 Y107.000
G1 X80.750 Y107.000
G1 X81.000 Y107.000
G0 Z2.000 F3000
M400
M204 P300 T300
G1 F600
G0 X81.750 Y101.000 Z2.000
M400
M204 P150 T150
G1 F120
G1 Z0.000 F2500
G1 X82.000 Y101.000
G1 X82.250 Y101.000
G1 X82.500 Y101.000
G1 X82.750 Y101.000
G1 X83.000 Y101.000
G0 Z2.000 F3000
M400
M204 P300 T300
G1 F600
G0 X83.500 Y100.250 Z2.000
M400
M204 P150 T150
G1 F120
G1 Z0.000 F2500
G1 X83.250 Y100.250
G1 X83.000 Y100.250
G1 X82.750 Y100.250
G1 X82.500 Y100.250
G1 X82.250 Y100.250
G1 X82.000 Y100.250
G1 X81.750 Y100.250
G1 X81.500 Y100.250
G1 X81.250 Y100.250
G1 X81.000 Y100.250
G1 X80.750 Y100.250
G1 X80.500 Y100.250
G0 Z2.000 F3000
M400
M204 P300 T300
G1 F600
G0 X79.250 Y99.500 Z2.000
M400
M204 P150 T150
G1 F120
G1 Z0.000 F2500
G1 X79.500 Y99.500
G1 X79.750 Y99.500
G1 X80.000 Y99.500
G1 X80.250 Y99.500
G1 X80.500 Y99.500
G1 X80.750 Y99.500
G1 X81.000 Y99.500
G1 X81.250 Y99.500
G1 X81.500 Y99.500
G1 X81.750 Y99.500
G1 X82.000 Y99.500
G1 X82.250 Y99.500
G1 X82.500 Y99.500
G1 X82.750 Y99.500
G1 X83.000 Y99.500
G1 X83.250 Y99.500
G1 X83.500 Y99.500
G1 X83.750 Y99.500
G0 Z2.000 F3000
M400
M204 P300 T300
G1 F600
G0 X88.000 Y96.500 Z2.000
M400
M204 P150 T150
G1 F120
G1 Z0.000 F2500
G1 X88.250 Y96.500
G1 X88.500 Y96.500
G1 X88.750 Y96.500
G1 X89.000 Y96.500
G1 X89.250 Y96.500
G1 X89.500 Y96.500
G1 X89.750 Y96.500
G1 X90.000 Y96.500
G1 X90.250 Y96.500
G1 X90.500 Y96.500
G1 X90.750 Y96.500
G1 X91.000 Y96.500
G1 X91.250 Y96.500
G1 X91.500 Y96.500
G1 X91.750 Y96.500
G1 X92.000 Y96.500
G1 X92.250 Y96.500
G1 X92.500 Y96.500
G1 X92.750 Y96.500
G1 X93.000 Y96.500
G1 X93.250 Y96.500
