G90
G21
; === MULTI-COLOR PAINTER GCODE ===
; Generated layers: 1
; Backlash compensation: ON  BX=0.5 BY=1.6
; Working area clamping: ON  X[0–150] Y[0–150]


; ═══════════════════════════════
; LAYER 1: Color 1 — Red
; Infill: concentric (outline only)
; ═══════════════════════════════


; --- CIKEL NAMAKANJA ---
G0 Z4.600 F3000
M400
M204 P12000 T12000
G1 F12000
G0 X54.623 Y13.047 Z31.000
G1 Z0.000 F3000
G1 X54.623 Y13.047 F2500
G1 X54.623 Y15.547 F2500
G1 X49.623 Y13.047 F2500
G1 X54.623 Y5.547 F2500
G0 Z16.000 F3000
G0 X66.873 Y19.981
G0 Z31.000 F3000
G0 X70.500 Y103.000 Z4.600
M400
M204 P12000 T12000
G1 F12000
G0 X70.500 Y103.000 Z4.600
M400
M204 P200 T200
G1 F400
G1 Z0.000 F2500
G1 X71.000 Y103.500
G1 X72.000 Y103.500
G1 X73.000 Y103.500
G1 X74.000 Y103.500
G1 X75.000 Y103.500
G1 X76.000 Y103.500
G1 X77.000 Y103.500
G1 X78.000 Y103.500
G1 X79.000 Y103.500
G1 X80.000 Y103.500
G1 X81.000 Y103.500
; --- Backlash Y fix: -1.600mm ---
G0 X81.000 Y101.900 F200
G1 X81.500 Y101.400
G1 X82.000 Y100.900
G1 X83.000 Y100.900
G1 X84.000 Y100.900
G1 X84.500 Y100.400
G1 X85.000 Y99.900
G1 X86.000 Y99.900
G1 X87.000 Y99.900
G1 X87.500 Y99.400
G1 X88.000 Y98.900
G1 X89.000 Y98.900
G1 X89.500 Y98.400
G1 X90.000 Y97.900
G1 X90.500 Y97.400
G1 X91.000 Y96.900
G1 X92.000 Y96.900
G1 X92.500 Y96.400
G1 X93.000 Y95.900
G1 X93.500 Y95.400
G1 X94.000 Y94.900
G1 X94.500 Y94.400
G1 X95.000 Y93.900
G1 X95.500 Y93.400
G1 X96.000 Y92.900
G1 X96.500 Y92.400
G1 X97.000 Y91.900
G1 X97.500 Y91.400
G1 X97.500 Y90.400
G1 X98.000 Y89.900
G1 X98.500 Y89.400
G1 X98.500 Y88.400
G1 X99.000 Y87.900
G1 X99.500 Y87.400
G1 X99.500 Y86.400
G1 X100.000 Y85.900
G1 X100.500 Y85.400
G1 X100.500 Y84.400
G1 X100.500 Y83.400
G1 X101.000 Y82.900
G1 X101.500 Y82.400
G1 X101.500 Y81.400
G1 X101.500 Y80.400
G1 X101.500 Y79.400
G1 X102.000 Y78.900
G1 X102.500 Y78.400
G1 X102.500 Y77.400
G1 X102.500 Y76.400
G1 X102.500 Y75.400
G1 X102.500 Y74.400
G1 X102.500 Y73.400
G1 X102.500 Y72.400
; --- Backlash X fix: -0.500mm ---
G0 X102.000 Y72.400 F200
G1 X101.500 Y71.900
G1 X101.000 Y71.400
G1 X101.000 Y70.400
G1 X101.000 Y69.400
G1 X101.000 Y68.400
G1 X101.000 Y67.400
G1 X100.500 Y66.900
G1 X100.000 Y66.400
G1 X100.000 Y65.400
G1 X99.500 Y64.900
G1 X99.000 Y64.400
G1 X99.000 Y63.400
G1 X98.500 Y62.900
G1 X98.000 Y62.400
G1 X98.000 Y61.400
G1 X97.500 Y60.900
G1 X97.000 Y60.400
G1 X96.500 Y59.900
G1 X96.000 Y59.400
G1 X96.000 Y58.400
G1 X95.500 Y57.900
G1 X95.000 Y57.400
G1 X94.500 Y56.900
G1 X94.000 Y56.400
G1 X93.500 Y55.900
G1 X93.000 Y55.400
G1 X92.500 Y54.900
G1 X91.500 Y54.900
G1 X91.000 Y54.400
G1 X90.500 Y53.900
G1 X90.000 Y53.400
G1 X89.500 Y52.900
G1 X89.000 Y52.400
G1 X88.500 Y51.900
G1 X87.500 Y51.900
G1 X86.500 Y51.900
G1 X86.000 Y51.400
G1 X85.500 Y50.900
G1 X84.500 Y50.900
G1 X83.500 Y50.900
G1 X83.000 Y50.400
G1 X82.500 Y49.900
G1 X81.500 Y49.900
G1 X80.500 Y49.900
G1 X79.500 Y49.900
G1 X79.000 Y49.400
G1 X78.500 Y48.900
G1 X77.500 Y48.900
G1 X76.500 Y48.900
G1 X75.500 Y48.900
G1 X74.500 Y48.900
G1 X73.500 Y48.900
G1 X72.500 Y48.900
; --- Backlash Y fix: 1.600mm ---
G0 X72.500 Y50.500 F200
G1 X72.000 Y51.000
G1 X71.500 Y51.500
G1 X70.500 Y51.500
G1 X69.500 Y51.500
G1 X68.500 Y51.500
G1 X67.500 Y51.500
G1 X67.000 Y52.000
G1 X66.500 Y52.500
G1 X65.500 Y52.500
G1 X64.500 Y52.500
G1 X64.000 Y53.000
G1 X63.500 Y53.500
G1 X62.500 Y53.500
G1 X62.000 Y54.000
G1 X61.500 Y54.500
G1 X61.000 Y55.000
G1 X60.500 Y55.500
G1 X59.500 Y55.500
G1 X59.000 Y56.000
G1 X58.500 Y56.500
G1 X58.000 Y57.000
G1 X57.500 Y57.500
G1 X57.000 Y58.000
G1 X56.500 Y58.500
G1 X56.000 Y59.000
G1 X55.500 Y59.500
G1 X55.000 Y60.000
G1 X54.500 Y60.500
G1 X54.000 Y61.000
G1 X54.000 Y62.000
G1 X53.500 Y62.500
G1 X53.000 Y63.000
G1 X52.500 Y63.500
G1 X52.000 Y64.000
G1 X52.000 Y65.000
G1 X52.000 Y66.000
G1 X51.500 Y66.500
G1 X51.000 Y67.000
G1 X51.000 Y68.000
G1 X50.500 Y68.500
G1 X50.000 Y69.000
G1 X50.000 Y70.000
G1 X50.000 Y71.000
G1 X50.000 Y72.000
G1 X50.000 Y73.000
G1 X49.500 Y73.500
G1 X49.000 Y74.000
G1 X49.000 Y75.000
G1 X49.000 Y76.000
G1 X49.000 Y77.000
G1 X49.000 Y78.000
G1 X49.000 Y79.000
G1 X49.000 Y80.000
; --- Backlash X fix: 0.500mm ---
G0 X49.500 Y80.000 F200
G1 X50.000 Y80.500
G1 X50.500 Y81.000
G1 X50.500 Y82.000
G1 X50.500 Y83.000
G1 X50.500 Y84.000
G1 X50.500 Y85.000
G1 X51.000 Y85.500
G1 X51.500 Y86.000
G1 X51.500 Y87.000
G1 X51.500 Y88.000
G1 X52.000 Y88.500
G1 X52.500 Y89.000
G1 X52.500 Y90.000
G1 X53.000 Y90.500
G1 X53.500 Y91.000
G1 X54.000 Y91.500
G1 X54.500 Y92.000
G1 X54.500 Y93.000
G1 X55.000 Y93.500
G1 X55.500 Y94.000
G1 X56.000 Y94.500
G1 X56.500 Y95.000
G1 X57.000 Y95.500
G1 X57.500 Y96.000
G1 X58.000 Y96.500
G1 X58.500 Y97.000
G1 X59.000 Y97.500
G1 X59.500 Y98.000
G1 X60.000 Y98.500
G1 X61.000 Y98.500
G1 X61.500 Y99.000
G1 X62.000 Y99.500
G1 X62.500 Y100.000
G1 X63.000 Y100.500
G1 X64.000 Y100.500
G1 X64.500 Y101.000
G1 X65.000 Y101.500
G1 X66.000 Y101.500
G1 X67.000 Y101.500
G1 X67.500 Y102.000
G1 X68.000 Y102.500
G1 X69.000 Y102.500
G1 X70.000 Y102.500
G1 X70.500 Y103.000
G0 Z4.600 F3000

M400
G0 Z31.000 F3000
M2