G90
G21
; === MULTI-COLOR PAINTER GCODE ===
; Generated layers: 1
; Backlash compensation: OFF
; Working area clamping: ON  X[0–1400] Y[0–1400]
; Tutti Frutti mode: ON  stroke 50–100mm  dishes: Color 1 — Red, Color 2 — Teal, Color 3 — Yellow, Color 4 — Purple


; ═══════════════════════════════
; LAYER 1: Color 1 — Red
; Infill: lines
; ═══════════════════════════════


; --- DIP → Color 4 — Purple ---
G0 Z4.600 F3000
M400
M204 P1200 T1200
G1 F1200
G0 X146.272 Y0.000 Z31.000
G1 Z0.000 F3000
G1 X146.272 Y0.000 F2500
G1 X146.272 Y2.500 F2500
G1 X141.272 Y0.000 F2500
G1 X146.272 Y0.000 F2500
G0 Z16.000 F3000
G0 X146.290 Y13.618
G0 Z31.000 F3000
G0 X263.000 Y266.300 Z4.600
M400
M204 P1200 T1200
G1 F1200
G0 X263.000 Y266.300 Z4.600
M400
M204 P200 T200
G1 F400
G1 Z0.000 F2500
G1 X263.100 Y266.300
G1 X263.200 Y266.300
G1 X263.300 Y266.300
G1 X263.400 Y266.300
G1 X263.500 Y266.300
G1 X263.600 Y266.300
G1 X263.700 Y266.300
G1 X263.800 Y266.300
G1 X263.900 Y266.300
G1 X264.000 Y266.300
G1 X264.100 Y266.300
G1 X264.200 Y266.300
G1 X264.300 Y266.300
G1 X264.400 Y266.300
G1 X264.500 Y266.300
G1 X264.600 Y266.300
G1 X264.700 Y266.300
G1 X264.800 Y266.300
G1 X264.900 Y266.300
G1 X265.000 Y266.300
G1 X265.100 Y266.300
G1 X265.200 Y266.300
G1 X265.300 Y266.300
G1 X265.400 Y266.300
G1 X265.500 Y266.300
G1 X265.600 Y266.300
G1 X265.700 Y266.300
G1 X265.800 Y266.300
G1 X265.900 Y266.300
G1 X266.000 Y266.300
G1 X266.100 Y266.300
G1 X266.200 Y266.300
G1 X266.300 Y266.300
G1 X266.400 Y266.300
G1 X266.500 Y266.300
G1 X266.600 Y266.300
G1 X266.700 Y266.300
G1 X266.800 Y266.300
G1 X266.900 Y266.300
G1 X267.000 Y266.300
G1 X267.100 Y266.300
G1 X267.200 Y266.300
G1 X267.300 Y266.300
G1 X267.400 Y266.300
G1 X267.500 Y266.300
G1 X267.600 Y266.300
G1 X267.700 Y266.300
G1 X267.800 Y266.300
G1 X267.900 Y266.300
G1 X268.000 Y266.300
G1 X268.100 Y266.300
G1 X268.200 Y266.300
G1 X268.300 Y266.300
G1 X268.400 Y266.300
G1 X268.500 Y266.300
G1 X268.600 Y266.300
G1 X268.700 Y266.300
G1 X268.800 Y266.300
G1 X268.900 Y266.300
G1 X269.000 Y266.300
G1 X269.100 Y266.300
G1 X269.200 Y266.300
G1 X269.300 Y266.300
G1 X269.400 Y266.300
G1 X269.500 Y266.300
G1 X269.600 Y266.300
G1 X269.700 Y266.300
G1 X269.800 Y266.300
G1 X269.900 Y266.300
G1 X270.000 Y266.300
G1 X270.100 Y266.300
G1 X270.200 Y266.300
G1 X270.300 Y266.300
G1 X270.400 Y266.300
G1 X270.500 Y266.300
G1 X270.600 Y266.300
G1 X270.700 Y266.300
G1 X270.800 Y266.300
G1 X270.900 Y266.300
G1 X271.000 Y266.300
G1 X271.100 Y266.300
G1 X271.200 Y266.300
G1 X271.300 Y266.300
G1 X271.400 Y266.300
G1 X271.500 Y266.300
G1 X271.600 Y266.300
G1 X271.700 Y266.300
G1 X271.800 Y266.300
G1 X271.900 Y266.300
G1 X272.000 Y266.300
G1 X272.100 Y266.300
G1 X272.200 Y266.300
G1 X272.300 Y266.300
G1 X272.400 Y266.300
G1 X272.500 Y266.300
G1 X272.600 Y266.300
G1 X272.700 Y266.300
G1 X272.800 Y266.300
G1 X272.900 Y266.300
G1 X273.000 Y266.300
G1 X273.100 Y266.300
G1 X273.200 Y266.300
G1 X273.300 Y266.300
G1 X273.400 Y266.300
G1 X273.500 Y266.300
G1 X273.600 Y266.300
G1 X273.700 Y266.300
G1 X273.800 Y266.300
G1 X273.900 Y266.300
G1 X274.000 Y266.300
G1 X274.100 Y266.300
G1 X274.200 Y266.300
G1 X274.300 Y266.300
G1 X274.400 Y266.300
G1 X274.500 Y266.300
G1 X274.600 Y266.300
G1 X274.700 Y266.300
G1 X274.800 Y266.300
G1 X274.900 Y266.300
G1 X275.000 Y266.300
G1 X275.100 Y266.300
G1 X275.200 Y266.300
G1 X275.300 Y266.300
G1 X275.400 Y266.300
G1 X275.500 Y266.300
G1 X275.600 Y266.300
G1 X275.700 Y266.300
G1 X275.800 Y266.300
G1 X275.900 Y266.300
G1 X276.000 Y266.300
G1 X276.100 Y266.300
G1 X276.200 Y266.300
G1 X276.300 Y266.300
G1 X276.400 Y266.300
G1 X276.500 Y266.300
G1 X276.600 Y266.300
G1 X276.700 Y266.300
G1 X276.800 Y266.300
G1 X276.900 Y266.300
G1 X277.000 Y266.300
G1 X277.100 Y266.300
G1 X277.200 Y266.300
G1 X277.300 Y266.300
G1 X277.400 Y266.300
G1 X277.500 Y266.300
G1 X277.600 Y266.300
G1 X277.700 Y266.300
G1 X277.800 Y266.300
G1 X277.900 Y266.300
G1 X278.000 Y266.300
G1 X278.100 Y266.300
G1 X278.200 Y266.300
G1 X278.300 Y266.300
G1 X278.400 Y266.300
G1 X278.500 Y266.300
G1 X278.600 Y266.300
G1 X278.700 Y266.300
G1 X278.800 Y266.300
G1 X278.900 Y266.300
G1 X279.000 Y266.300
G1 X279.100 Y266.300
G1 X279.200 Y266.300
G1 X279.300 Y266.300
G1 X279.400 Y266.300
G1 X279.500 Y266.300
G1 X279.600 Y266.300
G1 X279.700 Y266.300
G1 X279.800 Y266.300
G1 X279.900 Y266.300
G1 X280.000 Y266.300
G1 X280.100 Y266.300
G1 X280.200 Y266.300
G1 X280.300 Y266.300
G1 X280.400 Y266.300
G1 X280.500 Y266.300
G1 X280.600 Y266.300
G1 X280.700 Y266.300
G1 X280.800 Y266.300
G1 X280.900 Y266.300
G1 X281.000 Y266.300
G1 X281.100 Y266.300
G1 X281.200 Y266.300
G1 X281.300 Y266.300
G1 X281.400 Y266.300
G1 X281.500 Y266.300
G1 X281.600 Y266.300
G1 X281.700 Y266.300
G1 X281.800 Y266.300
G1 X281.900 Y266.300
G1 X282.000 Y266.300
G1 X282.100 Y266.300
G1 X282.200 Y266.300
G1 X282.300 Y266.300
G1 X282.400 Y266.300
G1 X282.500 Y266.300
G1 X282.600 Y266.300
G1 X282.700 Y266.300
G1 X282.800 Y266.300
G1 X282.900 Y266.300
G1 X283.000 Y266.300
G1 X283.100 Y266.300
G1 X283.200 Y266.300
G1 X283.300 Y266.300
G1 X283.400 Y266.300
G1 X283.500 Y266.300
G1 X283.600 Y266.300
G1 X283.700 Y266.300
G1 X283.800 Y266.300
G1 X283.900 Y266.300
G1 X284.000 Y266.300
G1 X284.100 Y266.300
G1 X284.200 Y266.300
G1 X284.300 Y266.300
G1 X284.400 Y266.300
G1 X284.500 Y266.300
G1 X284.600 Y266.300
G1 X284.700 Y266.300
G1 X284.800 Y266.300
G1 X284.900 Y266.300
G1 X285.000 Y266.300
G1 X285.100 Y266.300
G1 X285.200 Y266.300
G1 X285.300 Y266.300
G1 X285.400 Y266.300
G1 X285.500 Y266.300
G1 X285.600 Y266.300
G1 X285.700 Y266.300
G1 X285.800 Y266.300
G1 X285.900 Y266.300
G1 X286.000 Y266.300
G1 X286.100 Y266.300
G1 X286.200 Y266.300
G1 X286.300 Y266.300
G1 X286.400 Y266.300
G1 X286.500 Y266.300
G1 X286.600 Y266.300
G1 X286.700 Y266.300
G1 X286.800 Y266.300
G1 X286.900 Y266.300
G1 X287.000 Y266.300
G1 X287.100 Y266.300
G1 X287.200 Y266.300
G1 X287.300 Y266.300
G1 X287.400 Y266.300
G1 X287.500 Y266.300
G1 X287.600 Y266.300
G1 X287.700 Y266.300
G1 X287.800 Y266.300
G1 X287.900 Y266.300
G1 X288.000 Y266.300
G1 X288.100 Y266.300
G1 X288.200 Y266.300
G1 X288.300 Y266.300
G1 X288.400 Y266.300
G1 X288.500 Y266.300
G1 X288.600 Y266.300
G1 X288.700 Y266.300
G1 X288.800 Y266.300
G1 X288.900 Y266.300
G1 X289.000 Y266.300
G1 X289.100 Y266.300
G1 X289.200 Y266.300
G1 X289.300 Y266.300
G1 X289.400 Y266.300
G1 X289.500 Y266.300
G1 X289.600 Y266.300
G1 X289.700 Y266.300
G1 X289.800 Y266.300
G1 X289.900 Y266.300
G1 X290.000 Y266.300
G1 X290.100 Y266.300
G1 X290.200 Y266.300
G1 X290.300 Y266.300
G1 X290.400 Y266.300
G1 X290.500 Y266.300
G1 X290.600 Y266.300
G1 X290.700 Y266.300
G1 X290.800 Y266.300
G1 X290.900 Y266.300
G1 X291.000 Y266.300
G1 X291.100 Y266.300
G1 X291.200 Y266.300
G1 X291.300 Y266.300
G1 X291.400 Y266.300
G1 X291.500 Y266.300
G1 X291.600 Y266.300
G1 X291.700 Y266.300
G1 X291.800 Y266.300
G1 X291.900 Y266.300
G1 X292.000 Y266.300
G1 X292.100 Y266.300
G1 X292.200 Y266.300
G1 X292.300 Y266.300
G1 X292.400 Y266.300
G1 X292.500 Y266.300
G1 X292.600 Y266.300
G1 X292.700 Y266.300
G1 X292.800 Y266.300
G1 X292.900 Y266.300
G1 X293.000 Y266.300
G1 X293.100 Y266.300
G1 X293.200 Y266.300
G1 X293.300 Y266.300
G1 X293.400 Y266.300
G1 X293.500 Y266.300
G1 X293.600 Y266.300
G1 X293.700 Y266.300
G1 X293.800 Y266.300
G1 X293.900 Y266.300
G1 X294.000 Y266.300
G1 X294.100 Y266.300
G1 X294.200 Y266.300
G1 X294.300 Y266.300
G1 X294.400 Y266.300
G1 X294.500 Y266.300
G1 X294.600 Y266.300
G1 X294.700 Y266.300
G1 X294.800 Y266.300
G1 X294.900 Y266.300
G1 X295.000 Y266.300
G1 X295.100 Y266.300
G1 X295.200 Y266.300
G1 X295.300 Y266.300
G1 X295.400 Y266.300
G1 X295.500 Y266.300
G1 X295.600 Y266.300
G1 X295.700 Y266.300
G1 X295.800 Y266.300
G1 X295.900 Y266.300
G1 X296.000 Y266.300
G1 X296.100 Y266.300
G1 X296.200 Y266.300
G1 X296.300 Y266.300
G1 X296.400 Y266.300
G1 X296.500 Y266.300
G1 X296.600 Y266.300
G1 X296.700 Y266.300
G1 X296.800 Y266.300
G1 X296.900 Y266.300
G1 X297.000 Y266.300
G1 X297.100 Y266.300
G1 X297.200 Y266.300
G1 X297.300 Y266.300
G1 X297.400 Y266.300
G1 X297.500 Y266.300
G1 X297.600 Y266.300
G1 X297.700 Y266.300
G1 X297.800 Y266.300
G1 X297.900 Y266.300
G1 X298.000 Y266.300
G1 X298.100 Y266.300
G1 X298.200 Y266.300
G1 X298.300 Y266.300
G1 X298.400 Y266.300
G1 X298.500 Y266.300
G1 X298.600 Y266.300
G1 X298.700 Y266.300
G1 X298.800 Y266.300
G1 X298.900 Y266.300
G1 X299.000 Y266.300
G1 X299.100 Y266.300
G1 X299.200 Y266.300
G1 X299.300 Y266.300
G1 X299.400 Y266.300
G1 X299.500 Y266.300
G1 X299.600 Y266.300
G1 X299.700 Y266.300
G1 X299.800 Y266.300
G1 X299.900 Y266.300
G1 X300.000 Y266.300
G1 X300.100 Y266.300
G1 X300.200 Y266.300
G1 X300.300 Y266.300
G1 X300.400 Y266.300
G1 X300.500 Y266.300
G1 X300.600 Y266.300
G1 X300.700 Y266.300
G1 X300.800 Y266.300
G1 X300.900 Y266.300
G1 X301.000 Y266.300
G1 X301.100 Y266.300
G1 X301.200 Y266.300
G1 X301.300 Y266.300
G1 X301.400 Y266.300
G1 X301.500 Y266.300
G1 X301.600 Y266.300
G1 X301.700 Y266.300
G1 X301.800 Y266.300
G1 X301.900 Y266.300
G1 X302.000 Y266.300
G1 X302.100 Y266.300
G1 X302.200 Y266.300
G1 X302.300 Y266.300
G1 X302.400 Y266.300
G1 X302.500 Y266.300
G1 X302.600 Y266.300
G1 X302.700 Y266.300
G1 X302.800 Y266.300
G1 X302.900 Y266.300
G1 X303.000 Y266.300
G1 X303.100 Y266.300
G1 X303.200 Y266.300
G1 X303.300 Y266.300
G1 X303.400 Y266.300
G1 X303.500 Y266.300
G1 X303.600 Y266.300
G1 X303.700 Y266.300
G1 X303.800 Y266.300
G1 X303.900 Y266.300
G1 X304.000 Y266.300
G1 X304.100 Y266.300
G1 X304.200 Y266.300
G1 X304.300 Y266.300
G1 X304.400 Y266.300
G1 X304.500 Y266.300
G1 X304.600 Y266.300
G1 X304.700 Y266.300
G1 X304.800 Y266.300
G1 X304.900 Y266.300
G1 X305.000 Y266.300
G1 X305.100 Y266.300
G1 X305.200 Y266.300
G1 X305.300 Y266.300
G1 X305.400 Y266.300
G1 X305.500 Y266.300
G1 X305.600 Y266.300
G1 X305.700 Y266.300
G1 X305.800 Y266.300
G1 X305.900 Y266.300
G1 X306.000 Y266.300
G1 X306.100 Y266.300
G1 X306.200 Y266.300
G1 X306.300 Y266.300
G1 X306.400 Y266.300
G1 X306.500 Y266.300
G1 X306.600 Y266.300
G1 X306.700 Y266.300
G1 X306.800 Y266.300
G1 X306.900 Y266.300
G1 X307.000 Y266.300
G1 X307.100 Y266.300
G1 X307.200 Y266.300
G1 X307.300 Y266.300
G1 X307.400 Y266.300
G1 X307.500 Y266.300
G1 X307.600 Y266.300
G1 X307.700 Y266.300
G1 X307.800 Y266.300
G1 X307.900 Y266.300
G1 X308.000 Y266.300
G1 X308.100 Y266.300
G1 X308.200 Y266.300
G1 X308.300 Y266.300
G1 X308.400 Y266.300
G1 X308.500 Y266.300
G1 X308.600 Y266.300
G1 X308.700 Y266.300
G1 X308.800 Y266.300
G1 X308.900 Y266.300
G1 X309.000 Y266.300
G1 X309.100 Y266.300
G1 X309.200 Y266.300
G1 X309.300 Y266.300
G1 X309.400 Y266.300
G1 X309.500 Y266.300
G1 X309.600 Y266.300
G1 X309.700 Y266.300
G1 X309.800 Y266.300
G1 X309.900 Y266.300
G1 X310.000 Y266.300
G1 X310.100 Y266.300
G1 X310.200 Y266.300
G1 X310.300 Y266.300
G1 X310.400 Y266.300
G1 X310.500 Y266.300
G1 X310.600 Y266.300
G1 X310.700 Y266.300
G1 X310.800 Y266.300
G1 X310.900 Y266.300
G1 X311.000 Y266.300
G1 X311.100 Y266.300
G1 X311.200 Y266.300
G1 X311.300 Y266.300
G1 X311.400 Y266.300
G1 X311.500 Y266.300
G1 X311.600 Y266.300
G1 X311.700 Y266.300
G1 X311.800 Y266.300
G1 X311.900 Y266.300
G1 X312.000 Y266.300
G1 X312.100 Y266.300
G1 X312.200 Y266.300
G1 X312.300 Y266.300
G1 X312.400 Y266.300
G1 X312.500 Y266.300
G1 X312.600 Y266.300
G1 X312.700 Y266.300
G1 X312.800 Y266.300
G1 X312.900 Y266.300
G1 X313.000 Y266.300
G1 X313.100 Y266.300
G1 X313.200 Y266.300
G1 X313.300 Y266.300
G1 X313.400 Y266.300
G1 X313.500 Y266.300
G1 X313.600 Y266.300
G1 X313.700 Y266.300
G1 X313.800 Y266.300
G1 X313.900 Y266.300
G1 X314.000 Y266.300
G1 X314.100 Y266.300
G1 X314.200 Y266.300
G1 X314.300 Y266.300
G1 X314.400 Y266.300
G1 X314.500 Y266.300
G1 X314.600 Y266.300
G1 X314.700 Y266.300
G1 X314.800 Y266.300
G1 X314.900 Y266.300
G1 X315.000 Y266.300
G1 X315.100 Y266.300
G1 X315.200 Y266.300
G1 X315.300 Y266.300
G1 X315.400 Y266.300
G1 X315.500 Y266.300
G1 X315.600 Y266.300
G1 X315.700 Y266.300
G1 X315.800 Y266.300
G1 X315.900 Y266.300
G1 X316.000 Y266.300
G1 X316.100 Y266.300
G1 X316.200 Y266.300
G1 X316.300 Y266.300
G1 X316.400 Y266.300
G1 X316.500 Y266.300
G0 Z4.600 F3000

; --- DIP → Color 3 — Yellow ---
G0 Z4.600 F3000
M400
M204 P1200 T1200
G1 F1200
G0 X96.228 Y16.449 Z31.000
G1 Z0.000 F3000
G1 X96.228 Y16.449 F2500
G1 X96.228 Y18.949 F2500
G1 X91.228 Y16.449 F2500
G1 X96.228 Y8.949 F2500
G0 Z16.000 F3000
G0 X109.465 Y11.637
G0 Z31.000 F3000
G0 X316.600 Y266.300 Z4.600
M400
M204 P200 T200
G1 F400
G1 Z0.000 F2500
G1 X316.600 Y266.300
G1 X316.700 Y266.300
G1 X316.800 Y266.300
G1 X316.900 Y266.300
G1 X317.000 Y266.300
G1 X317.100 Y266.300
G1 X317.200 Y266.300
G1 X317.300 Y266.300
G1 X317.400 Y266.300
G1 X317.500 Y266.300
G1 X317.600 Y266.300
G1 X317.700 Y266.300
G1 X317.800 Y266.300
G1 X317.900 Y266.300
G1 X318.000 Y266.300
G1 X318.100 Y266.300
G1 X318.200 Y266.300
G1 X318.300 Y266.300
G1 X318.400 Y266.300
G1 X318.500 Y266.300
G1 X318.600 Y266.300
G1 X318.700 Y266.300
G1 X318.800 Y266.300
G1 X318.900 Y266.300
G1 X319.000 Y266.300
G1 X319.100 Y266.300
G1 X319.200 Y266.300
G1 X319.300 Y266.300
G1 X319.400 Y266.300
G1 X319.500 Y266.300
G1 X319.600 Y266.300
G1 X319.700 Y266.300
G1 X319.800 Y266.300
G1 X319.900 Y266.300
G1 X320.000 Y266.300
G1 X320.100 Y266.300
G1 X320.200 Y266.300
G1 X320.300 Y266.300
G1 X320.400 Y266.300
G1 X320.500 Y266.300
G1 X320.600 Y266.300
G1 X320.700 Y266.300
G1 X320.800 Y266.300
G1 X320.900 Y266.300
G1 X321.000 Y266.300
G1 X321.100 Y266.300
G1 X321.200 Y266.300
G1 X321.300 Y266.300
G1 X321.400 Y266.300
G1 X321.500 Y266.300
G1 X321.600 Y266.300
G1 X321.700 Y266.300
G1 X321.800 Y266.300
G1 X321.900 Y266.300
G1 X322.000 Y266.300
G1 X322.100 Y266.300
G1 X322.200 Y266.300
G1 X322.300 Y266.300
G1 X322.400 Y266.300
G1 X322.500 Y266.300
G1 X322.600 Y266.300
G1 X322.700 Y266.300
G1 X322.800 Y266.300
G1 X322.900 Y266.300
G1 X323.000 Y266.300
G1 X323.100 Y266.300
G1 X323.200 Y266.300
G1 X323.300 Y266.300
G1 X323.400 Y266.300
G1 X323.500 Y266.300
G1 X323.600 Y266.300
G1 X323.700 Y266.300
G1 X323.800 Y266.300
G1 X323.900 Y266.300
G1 X324.000 Y266.300
G1 X324.100 Y266.300
G1 X324.200 Y266.300
G1 X324.300 Y266.300
G1 X324.400 Y266.300
G1 X324.500 Y266.300
G1 X324.600 Y266.300
G1 X324.700 Y266.300
G1 X324.800 Y266.300
G1 X324.900 Y266.300
G1 X325.000 Y266.300
G1 X325.100 Y266.300
G1 X325.200 Y266.300
G1 X325.300 Y266.300
G1 X325.400 Y266.300
G1 X325.500 Y266.300
G1 X325.600 Y266.300
G1 X325.700 Y266.300
G1 X325.800 Y266.300
G1 X325.900 Y266.300
G1 X326.000 Y266.300
G1 X326.100 Y266.300
G1 X326.200 Y266.300
G1 X326.300 Y266.300
G1 X326.400 Y266.300
G1 X326.500 Y266.300
G1 X326.600 Y266.300
G1 X326.700 Y266.300
G1 X326.800 Y266.300
G1 X326.900 Y266.300
G1 X327.000 Y266.300
G1 X327.100 Y266.300
G1 X327.200 Y266.300
G1 X327.300 Y266.300
G1 X327.400 Y266.300
G1 X327.500 Y266.300
G1 X327.600 Y266.300
G1 X327.700 Y266.300
G1 X327.800 Y266.300
G1 X327.900 Y266.300
G1 X328.000 Y266.300
G1 X328.100 Y266.300
G1 X328.200 Y266.300
G1 X328.300 Y266.300
G1 X328.400 Y266.300
G1 X328.500 Y266.300
G1 X328.600 Y266.300
G1 X328.700 Y266.300
G1 X328.800 Y266.300
G1 X328.900 Y266.300
G1 X329.000 Y266.300
G1 X329.100 Y266.300
G1 X329.200 Y266.300
G1 X329.300 Y266.300
G1 X329.400 Y266.300
G1 X329.500 Y266.300
G1 X329.600 Y266.300
G1 X329.700 Y266.300
G1 X329.800 Y266.300
G1 X329.900 Y266.300
G1 X330.000 Y266.300
G1 X330.100 Y266.300
G1 X330.200 Y266.300
G1 X330.300 Y266.300
G1 X330.400 Y266.300
G1 X330.500 Y266.300
G1 X330.600 Y266.300
G1 X330.700 Y266.300
G1 X330.800 Y266.300
G1 X330.900 Y266.300
G1 X331.000 Y266.300
G1 X331.100 Y266.300
G1 X331.200 Y266.300
G1 X331.300 Y266.300
G1 X331.400 Y266.300
G1 X331.500 Y266.300
G1 X331.600 Y266.300
G1 X331.700 Y266.300
G1 X331.800 Y266.300
G1 X331.900 Y266.300
G1 X332.000 Y266.300
G1 X332.100 Y266.300
G1 X332.200 Y266.300
G1 X332.300 Y266.300
G1 X332.400 Y266.300
G1 X332.500 Y266.300
G1 X332.600 Y266.300
G1 X332.700 Y266.300
G1 X332.800 Y266.300
G1 X332.900 Y266.300
G1 X333.000 Y266.300
G1 X333.100 Y266.300
G1 X333.200 Y266.300
G1 X333.300 Y266.300
G1 X333.400 Y266.300
G1 X333.500 Y266.300
G1 X333.600 Y266.300
G1 X333.700 Y266.300
G1 X333.800 Y266.300
G1 X333.900 Y266.300
G1 X334.000 Y266.300
G1 X334.100 Y266.300
G1 X334.200 Y266.300
G1 X334.300 Y266.300
G1 X334.400 Y266.300
G1 X334.500 Y266.300
G1 X334.600 Y266.300
G1 X334.700 Y266.300
G1 X334.800 Y266.300
G1 X334.900 Y266.300
G1 X335.000 Y266.300
G1 X335.100 Y266.300
G1 X335.200 Y266.300
G1 X335.300 Y266.300
G1 X335.400 Y266.300
G1 X335.500 Y266.300
G1 X335.600 Y266.300
G1 X335.700 Y266.300
G1 X335.800 Y266.300
G1 X335.900 Y266.300
G1 X336.000 Y266.300
G1 X336.100 Y266.300
G1 X336.200 Y266.300
G1 X336.300 Y266.300
G1 X336.400 Y266.300
G1 X336.500 Y266.300
G1 X336.600 Y266.300
G1 X336.700 Y266.300
G1 X336.800 Y266.300
G1 X336.900 Y266.300
G1 X337.000 Y266.300
G1 X337.100 Y266.300
G1 X337.200 Y266.300
G1 X337.300 Y266.300
G1 X337.400 Y266.300
G1 X337.500 Y266.300
G1 X337.600 Y266.300
G1 X337.700 Y266.300
G1 X337.800 Y266.300
G1 X337.900 Y266.300
G1 X338.000 Y266.300
G1 X338.100 Y266.300
G1 X338.200 Y266.300
G1 X338.300 Y266.300
G1 X338.400 Y266.300
G1 X338.500 Y266.300
G1 X338.600 Y266.300
G1 X338.700 Y266.300
G1 X338.800 Y266.300
G1 X338.900 Y266.300
G1 X339.000 Y266.300
G1 X339.100 Y266.300
G1 X339.200 Y266.300
G1 X339.300 Y266.300
G1 X339.400 Y266.300
G1 X339.500 Y266.300
G1 X339.600 Y266.300
G1 X339.700 Y266.300
G1 X339.800 Y266.300
G1 X339.900 Y266.300
G1 X340.000 Y266.300
G1 X340.100 Y266.300
G1 X340.200 Y266.300
G1 X340.300 Y266.300
G1 X340.400 Y266.300
G1 X340.500 Y266.300
G1 X340.600 Y266.300
G1 X340.700 Y266.300
G1 X340.800 Y266.300
G1 X340.900 Y266.300
G1 X341.000 Y266.300
G1 X341.100 Y266.300
G1 X341.200 Y266.300
G1 X341.300 Y266.300
G1 X341.400 Y266.300
G1 X341.500 Y266.300
G1 X341.600 Y266.300
G1 X341.700 Y266.300
G1 X341.800 Y266.300
G1 X341.900 Y266.300
G1 X342.000 Y266.300
G1 X342.100 Y266.300
G1 X342.200 Y266.300
G1 X342.300 Y266.300
G1 X342.400 Y266.300
G1 X342.500 Y266.300
G1 X342.600 Y266.300
G1 X342.700 Y266.300
G1 X342.800 Y266.300
G1 X342.900 Y266.300
G1 X343.000 Y266.300
G1 X343.100 Y266.300
G1 X343.200 Y266.300
G1 X343.300 Y266.300
G1 X343.400 Y266.300
G1 X343.500 Y266.300
G1 X343.600 Y266.300
G1 X343.700 Y266.300
G1 X343.800 Y266.300
G1 X343.900 Y266.300
G1 X344.000 Y266.300
G1 X344.100 Y266.300
G1 X344.200 Y266.300
G1 X344.300 Y266.300
G1 X344.400 Y266.300
G1 X344.500 Y266.300
G1 X344.600 Y266.300
G1 X344.700 Y266.300
G1 X344.800 Y266.300
G1 X344.900 Y266.300
G1 X345.000 Y266.300
G1 X345.100 Y266.300
G1 X345.200 Y266.300
G1 X345.300 Y266.300
G1 X345.400 Y266.300
G1 X345.500 Y266.300
G1 X345.600 Y266.300
G1 X345.700 Y266.300
G1 X345.800 Y266.300
G1 X345.900 Y266.300
G1 X346.000 Y266.300
G1 X346.100 Y266.300
G1 X346.200 Y266.300
G1 X346.300 Y266.300
G1 X346.400 Y266.300
G1 X346.500 Y266.300
G1 X346.600 Y266.300
G1 X346.700 Y266.300
G1 X346.800 Y266.300
G1 X346.900 Y266.300
G1 X347.000 Y266.300
G1 X347.100 Y266.300
G1 X347.200 Y266.300
G1 X347.300 Y266.300
G1 X347.400 Y266.300
G1 X347.500 Y266.300
G1 X347.600 Y266.300
G1 X347.700 Y266.300
G1 X347.800 Y266.300
G1 X347.900 Y266.300
G1 X348.000 Y266.300
G1 X348.100 Y266.300
G1 X348.200 Y266.300
G1 X348.300 Y266.300
G1 X348.400 Y266.300
G1 X348.500 Y266.300
G1 X348.600 Y266.300
G1 X348.700 Y266.300
G1 X348.800 Y266.300
G1 X348.900 Y266.300
G1 X349.000 Y266.300
G1 X349.100 Y266.300
G1 X349.200 Y266.300
G1 X349.300 Y266.300
G1 X349.400 Y266.300
G1 X349.500 Y266.300
G1 X349.600 Y266.300
G1 X349.700 Y266.300
G1 X349.800 Y266.300
G1 X349.900 Y266.300
G1 X350.000 Y266.300
G1 X350.100 Y266.300
G1 X350.200 Y266.300
G1 X350.300 Y266.300
G1 X350.400 Y266.300
G1 X350.500 Y266.300
G1 X350.600 Y266.300
G1 X350.700 Y266.300
G1 X350.800 Y266.300
G1 X350.900 Y266.300
G1 X351.000 Y266.300
G1 X351.100 Y266.300
G1 X351.200 Y266.300
G1 X351.300 Y266.300
G1 X351.400 Y266.300
G1 X351.500 Y266.300
G1 X351.600 Y266.300
G1 X351.700 Y266.300
G1 X351.800 Y266.300
G1 X351.900 Y266.300
G1 X352.000 Y266.300
G1 X352.100 Y266.300
G1 X352.200 Y266.300
G1 X352.300 Y266.300
G1 X352.400 Y266.300
G1 X352.500 Y266.300
G1 X352.600 Y266.300
G1 X352.700 Y266.300
G1 X352.800 Y266.300
G1 X352.900 Y266.300
G1 X353.000 Y266.300
G1 X353.100 Y266.300
G1 X353.200 Y266.300
G1 X353.300 Y266.300
G1 X353.400 Y266.300
G1 X353.500 Y266.300
G1 X353.600 Y266.300
G1 X353.700 Y266.300
G1 X353.800 Y266.300
G1 X353.900 Y266.300
G1 X354.000 Y266.300
G1 X354.100 Y266.300
G1 X354.200 Y266.300
G1 X354.300 Y266.300
G1 X354.400 Y266.300
G1 X354.500 Y266.300
G1 X354.600 Y266.300
G1 X354.700 Y266.300
G1 X354.800 Y266.300
G1 X354.900 Y266.300
G1 X355.000 Y266.300
G1 X355.100 Y266.300
G1 X355.200 Y266.300
G1 X355.300 Y266.300
G1 X355.400 Y266.300
G1 X355.500 Y266.300
G1 X355.600 Y266.300
G1 X355.700 Y266.300
G1 X355.800 Y266.300
G1 X355.900 Y266.300
G1 X356.000 Y266.300
G1 X356.100 Y266.300
G1 X356.200 Y266.300
G1 X356.300 Y266.300
G1 X356.400 Y266.300
G1 X356.500 Y266.300
G1 X356.600 Y266.300
G1 X356.700 Y266.300
G1 X356.800 Y266.300
G1 X356.900 Y266.300
G1 X357.000 Y266.300
G1 X357.100 Y266.300
G1 X357.200 Y266.300
G1 X357.300 Y266.300
G1 X357.400 Y266.300
G1 X357.500 Y266.300
G1 X357.600 Y266.300
G1 X357.700 Y266.300
G1 X357.800 Y266.300
G1 X357.900 Y266.300
G1 X358.000 Y266.300
G1 X358.100 Y266.300
G1 X358.200 Y266.300
G1 X358.300 Y266.300
G1 X358.400 Y266.300
G1 X358.500 Y266.300
G1 X358.600 Y266.300
G1 X358.700 Y266.300
G1 X358.800 Y266.300
G1 X358.900 Y266.300
G1 X359.000 Y266.300
G1 X359.100 Y266.300
G1 X359.200 Y266.300
G1 X359.300 Y266.300
G1 X359.400 Y266.300
G1 X359.500 Y266.300
G1 X359.600 Y266.300
G1 X359.700 Y266.300
G1 X359.800 Y266.300
G1 X359.900 Y266.300
G1 X360.000 Y266.300
G1 X360.100 Y266.300
G1 X360.200 Y266.300
G1 X360.300 Y266.300
G1 X360.400 Y266.300
G1 X360.500 Y266.300
G1 X360.600 Y266.300
G1 X360.700 Y266.300
G1 X360.800 Y266.300
G1 X360.900 Y266.300
G1 X361.000 Y266.300
G1 X361.100 Y266.300
G1 X361.200 Y266.300
G1 X361.300 Y266.300
G1 X361.400 Y266.300
G1 X361.500 Y266.300
G1 X361.600 Y266.300
G1 X361.700 Y266.300
G1 X361.800 Y266.300
G1 X361.900 Y266.300
G1 X362.000 Y266.300
G1 X362.100 Y266.300
G1 X362.200 Y266.300
G1 X362.300 Y266.300
G1 X362.400 Y266.300
G1 X362.500 Y266.300
G1 X362.600 Y266.300
G1 X362.700 Y266.300
G1 X362.800 Y266.300
G1 X362.900 Y266.300
G1 X363.000 Y266.300
G1 X363.100 Y266.300
G1 X363.200 Y266.300
G1 X363.300 Y266.300
G1 X363.400 Y266.300
G1 X363.500 Y266.300
G1 X363.600 Y266.300
G1 X363.700 Y266.300
G1 X363.800 Y266.300
G1 X363.900 Y266.300
G1 X364.000 Y266.300
G1 X364.100 Y266.300
G1 X364.200 Y266.300
G1 X364.300 Y266.300
G1 X364.400 Y266.300
G1 X364.500 Y266.300
G1 X364.600 Y266.300
G1 X364.700 Y266.300
G1 X364.800 Y266.300
G1 X364.900 Y266.300
G1 X365.000 Y266.300
G1 X365.100 Y266.300
G1 X365.200 Y266.300
G1 X365.300 Y266.300
G1 X365.400 Y266.300
G1 X365.500 Y266.300
G1 X365.600 Y266.300
G1 X365.700 Y266.300
G1 X365.800 Y266.300
G1 X365.900 Y266.300
G1 X366.000 Y266.300
G1 X366.100 Y266.300
G1 X366.200 Y266.300
G1 X366.300 Y266.300
G1 X366.400 Y266.300
G1 X366.500 Y266.300
G1 X366.600 Y266.300
G1 X366.700 Y266.300
G1 X366.800 Y266.300
G1 X366.900 Y266.300
G1 X367.000 Y266.300
G1 X367.100 Y266.300
G1 X367.200 Y266.300
G1 X367.300 Y266.300
G1 X367.400 Y266.300
G1 X367.500 Y266.300
G1 X367.600 Y266.300
G1 X367.700 Y266.300
G1 X367.800 Y266.300
G1 X367.900 Y266.300
G1 X368.000 Y266.300
G1 X368.100 Y266.300
G1 X368.200 Y266.300
G1 X368.300 Y266.300
G1 X368.400 Y266.300
G1 X368.500 Y266.300
G1 X368.600 Y266.300
G1 X368.700 Y266.300
G1 X368.800 Y266.300
G1 X368.900 Y266.300
G1 X369.000 Y266.300
G1 X369.100 Y266.300
G1 X369.200 Y266.300
G1 X369.300 Y266.300
G1 X369.400 Y266.300
G1 X369.500 Y266.300
G1 X369.600 Y266.300
G1 X369.700 Y266.300
G1 X369.800 Y266.300
G1 X369.900 Y266.300
G1 X370.000 Y266.300
G1 X370.100 Y266.300
G1 X370.200 Y266.300
G1 X370.300 Y266.300
G1 X370.400 Y266.300
G1 X370.500 Y266.300
G1 X370.600 Y266.300
G1 X370.700 Y266.300
G1 X370.800 Y266.300
G1 X370.900 Y266.300
G1 X371.000 Y266.300
G1 X371.100 Y266.300
G1 X371.200 Y266.300
G1 X371.300 Y266.300
G1 X371.400 Y266.300
G1 X371.500 Y266.300
G1 X371.600 Y266.300
G1 X371.700 Y266.300
G1 X371.800 Y266.300
G1 X371.900 Y266.300
G1 X372.000 Y266.300
G1 X372.100 Y266.300
G1 X372.200 Y266.300
G1 X372.300 Y266.300
G1 X372.400 Y266.300
G1 X372.500 Y266.300
G1 X372.600 Y266.300
G1 X372.700 Y266.300
G1 X372.800 Y266.300
G1 X372.900 Y266.300
G1 X373.000 Y266.300
G1 X373.100 Y266.300
G1 X373.200 Y266.300
G1 X373.300 Y266.300
G1 X373.400 Y266.300
G1 X373.500 Y266.300
G1 X373.600 Y266.300
G1 X373.700 Y266.300
G1 X373.800 Y266.300
G1 X373.900 Y266.300
G1 X374.000 Y266.300
G1 X374.100 Y266.300
G1 X374.200 Y266.300
G1 X374.300 Y266.300
G1 X374.400 Y266.300
G1 X374.500 Y266.300
G1 X374.600 Y266.300
G1 X374.700 Y266.300
G1 X374.800 Y266.300
G1 X374.900 Y266.300
G1 X375.000 Y266.300
G1 X375.100 Y266.300
G1 X375.200 Y266.300
G1 X375.300 Y266.300
G1 X375.400 Y266.300
G1 X375.500 Y266.300
G1 X375.600 Y266.300
G1 X375.700 Y266.300
G1 X375.800 Y266.300
G1 X375.900 Y266.300
G1 X376.000 Y266.300
G1 X376.100 Y266.300
G1 X376.200 Y266.300
G1 X376.300 Y266.300
G1 X376.400 Y266.300
G1 X376.500 Y266.300
G1 X376.600 Y266.300
G1 X376.700 Y266.300
G1 X376.800 Y266.300
G1 X376.900 Y266.300
G1 X377.000 Y266.300
G1 X377.100 Y266.300
G1 X377.200 Y266.300
G1 X377.300 Y266.300
G1 X377.400 Y266.300
G1 X377.500 Y266.300
G1 X377.600 Y266.300
G1 X377.700 Y266.300
G1 X377.800 Y266.300
G1 X377.900 Y266.300
G1 X378.000 Y266.300
G1 X378.100 Y266.300
G1 X378.200 Y266.300
G1 X378.300 Y266.300
G1 X378.400 Y266.300
G1 X378.500 Y266.300
G1 X378.600 Y266.300
G1 X378.700 Y266.300
G1 X378.800 Y266.300
G1 X378.900 Y266.300
G1 X379.000 Y266.300
G1 X379.100 Y266.300
G1 X379.200 Y266.300
G1 X379.300 Y266.300
G1 X379.400 Y266.300
G1 X379.500 Y266.300
G1 X379.600 Y266.300
G1 X379.700 Y266.300
G1 X379.800 Y266.300
G1 X379.900 Y266.300
G1 X380.000 Y266.300
G1 X380.100 Y266.300
G1 X380.200 Y266.300
G1 X380.300 Y266.300
G1 X380.400 Y266.300
G1 X380.500 Y266.300
G1 X380.600 Y266.300
G1 X380.700 Y266.300
G1 X380.800 Y266.300
G1 X380.900 Y266.300
G1 X381.000 Y266.300
G1 X381.100 Y266.300
G1 X381.200 Y266.300
G1 X381.300 Y266.300
G1 X381.400 Y266.300
G1 X381.500 Y266.300
G1 X381.600 Y266.300
G1 X381.700 Y266.300
G1 X381.800 Y266.300
G1 X381.900 Y266.300
G1 X382.000 Y266.300
G1 X382.100 Y266.300
G1 X382.200 Y266.300
G1 X382.300 Y266.300
G1 X382.400 Y266.300
G1 X382.500 Y266.300
G1 X382.600 Y266.300
G1 X382.700 Y266.300
G1 X382.800 Y266.300
G1 X382.900 Y266.300
G1 X383.000 Y266.300
G1 X383.100 Y266.300
G1 X383.200 Y266.300
G1 X383.300 Y266.300
G1 X383.400 Y266.300
G1 X383.500 Y266.300
G1 X383.600 Y266.300
G1 X383.700 Y266.300
G1 X383.800 Y266.300
G1 X383.900 Y266.300
G1 X384.000 Y266.300
G1 X384.100 Y266.300
G1 X384.200 Y266.300
G1 X384.300 Y266.300
G1 X384.400 Y266.300
G1 X384.500 Y266.300
G1 X384.600 Y266.300
G1 X384.700 Y266.300
G1 X384.800 Y266.300
G1 X384.900 Y266.300
G1 X385.000 Y266.300
G1 X385.100 Y266.300
G1 X385.200 Y266.300
G1 X385.300 Y266.300
G1 X385.400 Y266.300
G1 X385.500 Y266.300
G1 X385.600 Y266.300
G1 X385.700 Y266.300
G1 X385.800 Y266.300
G1 X385.900 Y266.300
G1 X386.000 Y266.300
G1 X386.100 Y266.300
G1 X386.200 Y266.300
G1 X386.300 Y266.300
G1 X386.400 Y266.300
G1 X386.500 Y266.300
G1 X386.600 Y266.300
G1 X386.700 Y266.300
G1 X386.800 Y266.300
G1 X386.900 Y266.300
G1 X387.000 Y266.300
G1 X387.100 Y266.300
G1 X387.200 Y266.300
G1 X387.300 Y266.300
G1 X387.400 Y266.300
G1 X387.500 Y266.300
G1 X387.600 Y266.300
G1 X387.700 Y266.300
G1 X387.800 Y266.300
G1 X387.900 Y266.300
G1 X388.000 Y266.300
G1 X388.100 Y266.300
G1 X388.200 Y266.300
G1 X388.300 Y266.300
G1 X388.400 Y266.300
G1 X388.500 Y266.300
G1 X388.600 Y266.300
G1 X388.700 Y266.300
G1 X388.800 Y266.300
G1 X388.900 Y266.300
G1 X389.000 Y266.300
G1 X389.100 Y266.300
G1 X389.200 Y266.300
G1 X389.300 Y266.300
G1 X389.400 Y266.300
G1 X389.500 Y266.300
G1 X389.600 Y266.300
G1 X389.700 Y266.300
G1 X389.800 Y266.300
G1 X389.900 Y266.300
G1 X390.000 Y266.300
G1 X390.100 Y266.300
G1 X390.200 Y266.300
G1 X390.300 Y266.300
G1 X390.400 Y266.300
G1 X390.500 Y266.300
G1 X390.600 Y266.300
G1 X390.700 Y266.300
G1 X390.800 Y266.300
G1 X390.900 Y266.300
G1 X391.000 Y266.300
G1 X391.100 Y266.300
G1 X391.200 Y266.300
G1 X391.300 Y266.300
G0 Z4.600 F3000

; --- DIP → Color 1 — Red ---
G0 Z4.600 F3000
M400
M204 P1200 T1200
G1 F1200
G0 X26.447 Y5.293 Z31.000
G1 Z0.000 F3000
G1 X26.447 Y5.293 F2500
G1 X26.447 Y7.793 F2500
G1 X21.447 Y5.293 F2500
G1 X26.447 Y0.000 F2500
G0 Z16.000 F3000
G0 X32.190 Y8.741
G0 Z31.000 F3000
G0 X391.400 Y266.300 Z4.600
M400
M204 P200 T200
G1 F400
G1 Z0.000 F2500
G1 X391.400 Y266.300
G1 X391.500 Y266.300
G1 X391.600 Y266.300
G1 X391.700 Y266.300
G1 X391.800 Y266.300
G1 X391.900 Y266.300
G1 X392.000 Y266.300
G1 X392.100 Y266.300
G1 X392.200 Y266.300
G1 X392.300 Y266.300
G1 X392.400 Y266.300
G1 X392.500 Y266.300
G1 X392.600 Y266.300
G1 X392.700 Y266.300
G1 X392.800 Y266.300
G1 X392.900 Y266.300
G1 X393.000 Y266.300
G1 X393.100 Y266.300
G1 X393.200 Y266.300
G1 X393.300 Y266.300
G1 X393.400 Y266.300
G1 X393.500 Y266.300
G1 X393.600 Y266.300
G1 X393.700 Y266.300
G1 X393.800 Y266.300
G1 X393.900 Y266.300
G1 X394.000 Y266.300
G1 X394.100 Y266.300
G1 X394.200 Y266.300
G1 X394.300 Y266.300
G1 X394.400 Y266.300
G1 X394.500 Y266.300
G1 X394.600 Y266.300
G1 X394.700 Y266.300
G1 X394.800 Y266.300
G1 X394.900 Y266.300
G1 X395.000 Y266.300
G1 X395.100 Y266.300
G1 X395.200 Y266.300
G1 X395.300 Y266.300
G1 X395.400 Y266.300
G1 X395.500 Y266.300
G1 X395.600 Y266.300
G1 X395.700 Y266.300
G1 X395.800 Y266.300
G1 X395.900 Y266.300
G1 X396.000 Y266.300
G1 X396.100 Y266.300
G1 X396.200 Y266.300
G1 X396.300 Y266.300
G1 X396.400 Y266.300
G1 X396.500 Y266.300
G1 X396.600 Y266.300
G1 X396.700 Y266.300
G1 X396.800 Y266.300
G1 X396.900 Y266.300
G1 X397.000 Y266.300
G1 X397.100 Y266.300
G1 X397.200 Y266.300
G1 X397.300 Y266.300
G1 X397.400 Y266.300
G1 X397.500 Y266.300
G1 X397.600 Y266.300
G1 X397.700 Y266.300
G1 X397.800 Y266.300
G1 X397.900 Y266.300
G1 X398.000 Y266.300
G1 X398.100 Y266.300
G1 X398.200 Y266.300
G1 X398.300 Y266.300
G1 X398.400 Y266.300
G1 X398.500 Y266.300
G1 X398.600 Y266.300
G1 X398.700 Y266.300
G1 X398.800 Y266.300
G1 X398.900 Y266.300
G1 X399.000 Y266.300
G1 X399.100 Y266.300
G1 X399.200 Y266.300
G1 X399.300 Y266.300
G1 X399.400 Y266.300
G1 X399.500 Y266.300
G1 X399.600 Y266.300
G1 X399.700 Y266.300
G1 X399.800 Y266.300
G1 X399.900 Y266.300
G1 X400.000 Y266.300
G1 X400.100 Y266.300
G1 X400.200 Y266.300
G1 X400.300 Y266.300
G1 X400.400 Y266.300
G1 X400.500 Y266.300
G1 X400.600 Y266.300
G1 X400.700 Y266.300
G1 X400.800 Y266.300
G1 X400.900 Y266.300
G1 X401.000 Y266.300
G1 X401.100 Y266.300
G1 X401.200 Y266.300
G1 X401.300 Y266.300
G1 X401.400 Y266.300
G1 X401.500 Y266.300
G1 X401.600 Y266.300
G1 X401.700 Y266.300
G1 X401.800 Y266.300
G1 X401.900 Y266.300
G1 X402.000 Y266.300
G1 X402.100 Y266.300
G1 X402.200 Y266.300
G1 X402.300 Y266.300
G1 X402.400 Y266.300
G1 X402.500 Y266.300
G1 X402.600 Y266.300
G1 X402.700 Y266.300
G1 X402.800 Y266.300
G1 X402.900 Y266.300
G1 X403.000 Y266.300
G1 X403.100 Y266.300
G1 X403.200 Y266.300
G1 X403.300 Y266.300
G1 X403.400 Y266.300
G1 X403.500 Y266.300
G1 X403.600 Y266.300
G1 X403.700 Y266.300
G1 X403.800 Y266.300
G1 X403.900 Y266.300
G1 X404.000 Y266.300
G1 X404.100 Y266.300
G1 X404.200 Y266.300
G1 X404.300 Y266.300
G1 X404.400 Y266.300
G1 X404.500 Y266.300
G1 X404.600 Y266.300
G1 X404.700 Y266.300
G1 X404.800 Y266.300
G1 X404.900 Y266.300
G1 X405.000 Y266.300
G1 X405.100 Y266.300
G1 X405.200 Y266.300
G1 X405.300 Y266.300
G1 X405.400 Y266.300
G1 X405.500 Y266.300
G1 X405.600 Y266.300
G1 X405.700 Y266.300
G1 X405.800 Y266.300
G1 X405.900 Y266.300
G1 X406.000 Y266.300
G1 X406.100 Y266.300
G1 X406.200 Y266.300
G1 X406.300 Y266.300
G1 X406.400 Y266.300
G1 X406.500 Y266.300
G1 X406.600 Y266.300
G1 X406.700 Y266.300
G1 X406.800 Y266.300
G1 X406.900 Y266.300
G1 X407.000 Y266.300
G1 X407.100 Y266.300
G1 X407.200 Y266.300
G1 X407.300 Y266.300
G1 X407.400 Y266.300
G1 X407.500 Y266.300
G1 X407.600 Y266.300
G1 X407.700 Y266.300
G1 X407.800 Y266.300
G1 X407.900 Y266.300
G1 X408.000 Y266.300
G1 X408.100 Y266.300
G1 X408.200 Y266.300
G1 X408.300 Y266.300
G1 X408.400 Y266.300
G1 X408.500 Y266.300
G1 X408.600 Y266.300
G1 X408.700 Y266.300
G1 X408.800 Y266.300
G1 X408.900 Y266.300
G1 X409.000 Y266.300
G1 X409.100 Y266.300
G1 X409.200 Y266.300
G1 X409.300 Y266.300
G1 X409.400 Y266.300
G1 X409.500 Y266.300
G1 X409.600 Y266.300
G1 X409.700 Y266.300
G1 X409.800 Y266.300
G1 X409.900 Y266.300
G1 X410.000 Y266.300
G1 X410.100 Y266.300
G1 X410.200 Y266.300
G1 X410.300 Y266.300
G1 X410.400 Y266.300
G1 X410.500 Y266.300
G1 X410.600 Y266.300
G1 X410.700 Y266.300
G1 X410.800 Y266.300
G1 X410.900 Y266.300
G1 X411.000 Y266.300
G1 X411.100 Y266.300
G1 X411.200 Y266.300
G1 X411.300 Y266.300
G1 X411.400 Y266.300
G1 X411.500 Y266.300
G1 X411.600 Y266.300
G1 X411.700 Y266.300
G1 X411.800 Y266.300
G1 X411.900 Y266.300
G1 X412.000 Y266.300
G1 X412.100 Y266.300
G1 X412.200 Y266.300
G1 X412.300 Y266.300
G1 X412.400 Y266.300
G1 X412.500 Y266.300
G1 X412.600 Y266.300
G1 X412.700 Y266.300
G1 X412.800 Y266.300
G1 X412.900 Y266.300
G0 Z4.600 F3000
M400
M204 P1200 T1200
G1 F1200
G0 X412.900 Y278.000 Z4.600
M400
M204 P200 T200
G1 F400
G1 Z0.000 F2500
G1 X412.800 Y278.000
G1 X412.700 Y278.000
G1 X412.600 Y278.000
G1 X412.500 Y278.000
G1 X412.400 Y278.000
G1 X412.300 Y278.000
G1 X412.200 Y278.000
G1 X412.100 Y278.000
G1 X412.000 Y278.000
G1 X411.900 Y278.000
G1 X411.800 Y278.000
G1 X411.700 Y278.000
G1 X411.600 Y278.000
G1 X411.500 Y278.000
G1 X411.400 Y278.000
G1 X411.300 Y278.000
G1 X411.200 Y278.000
G1 X411.100 Y278.000
G1 X411.000 Y278.000
G1 X410.900 Y278.000
G1 X410.800 Y278.000
G1 X410.700 Y278.000
G1 X410.600 Y278.000
G1 X410.500 Y278.000
G1 X410.400 Y278.000
G1 X410.300 Y278.000
G1 X410.200 Y278.000
G1 X410.100 Y278.000
G1 X410.000 Y278.000
G1 X409.900 Y278.000
G1 X409.800 Y278.000
G1 X409.700 Y278.000
G1 X409.600 Y278.000
G1 X409.500 Y278.000
G1 X409.400 Y278.000
G1 X409.300 Y278.000
G1 X409.200 Y278.000
G1 X409.100 Y278.000
G1 X409.000 Y278.000
G1 X408.900 Y278.000
G1 X408.800 Y278.000
G1 X408.700 Y278.000
G1 X408.600 Y278.000
G1 X408.500 Y278.000
G1 X408.400 Y278.000
G1 X408.300 Y278.000
G1 X408.200 Y278.000
G1 X408.100 Y278.000
G1 X408.000 Y278.000
G1 X407.900 Y278.000
G1 X407.800 Y278.000
G1 X407.700 Y278.000
G1 X407.600 Y278.000
G1 X407.500 Y278.000
G1 X407.400 Y278.000
G1 X407.300 Y278.000
G1 X407.200 Y278.000
G1 X407.100 Y278.000
G1 X407.000 Y278.000
G1 X406.900 Y278.000
G1 X406.800 Y278.000
G1 X406.700 Y278.000
G1 X406.600 Y278.000
G1 X406.500 Y278.000
G1 X406.400 Y278.000
G1 X406.300 Y278.000
G1 X406.200 Y278.000
G1 X406.100 Y278.000
G1 X406.000 Y278.000
G1 X405.900 Y278.000
G1 X405.800 Y278.000
G1 X405.700 Y278.000
G1 X405.600 Y278.000
G1 X405.500 Y278.000
G1 X405.400 Y278.000
G1 X405.300 Y278.000
G1 X405.200 Y278.000
G1 X405.100 Y278.000
G1 X405.000 Y278.000
G1 X404.900 Y278.000
G1 X404.800 Y278.000
G1 X404.700 Y278.000
G1 X404.600 Y278.000
G1 X404.500 Y278.000
G1 X404.400 Y278.000
G1 X404.300 Y278.000
G1 X404.200 Y278.000
G1 X404.100 Y278.000
G1 X404.000 Y278.000
G1 X403.900 Y278.000
G1 X403.800 Y278.000
G1 X403.700 Y278.000
G1 X403.600 Y278.000
G1 X403.500 Y278.000
G1 X403.400 Y278.000
G1 X403.300 Y278.000
G1 X403.200 Y278.000
G1 X403.100 Y278.000
G1 X403.000 Y278.000
G1 X402.900 Y278.000
G1 X402.800 Y278.000
G1 X402.700 Y278.000
G1 X402.600 Y278.000
G1 X402.500 Y278.000
G1 X402.400 Y278.000
G1 X402.300 Y278.000
G1 X402.200 Y278.000
G1 X402.100 Y278.000
G1 X402.000 Y278.000
G1 X401.900 Y278.000
G1 X401.800 Y278.000
G1 X401.700 Y278.000
G1 X401.600 Y278.000
G1 X401.500 Y278.000
G1 X401.400 Y278.000
G1 X401.300 Y278.000
G1 X401.200 Y278.000
G1 X401.100 Y278.000
G1 X401.000 Y278.000
G1 X400.900 Y278.000
G1 X400.800 Y278.000
G1 X400.700 Y278.000
G1 X400.600 Y278.000
G1 X400.500 Y278.000
G1 X400.400 Y278.000
G1 X400.300 Y278.000
G1 X400.200 Y278.000
G1 X400.100 Y278.000
G1 X400.000 Y278.000
G1 X399.900 Y278.000
G1 X399.800 Y278.000
G1 X399.700 Y278.000
G1 X399.600 Y278.000
G1 X399.500 Y278.000
G1 X399.400 Y278.000
G1 X399.300 Y278.000
G1 X399.200 Y278.000
G1 X399.100 Y278.000
G1 X399.000 Y278.000
G1 X398.900 Y278.000
G1 X398.800 Y278.000
G1 X398.700 Y278.000
G1 X398.600 Y278.000
G1 X398.500 Y278.000
G1 X398.400 Y278.000
G1 X398.300 Y278.000
G1 X398.200 Y278.000
G1 X398.100 Y278.000
G1 X398.000 Y278.000
G1 X397.900 Y278.000
G1 X397.800 Y278.000
G1 X397.700 Y278.000
G1 X397.600 Y278.000
G1 X397.500 Y278.000
G1 X397.400 Y278.000
G1 X397.300 Y278.000
G1 X397.200 Y278.000
G1 X397.100 Y278.000
G1 X397.000 Y278.000
G1 X396.900 Y278.000
G1 X396.800 Y278.000
G1 X396.700 Y278.000
G1 X396.600 Y278.000
G1 X396.500 Y278.000
G1 X396.400 Y278.000
G1 X396.300 Y278.000
G1 X396.200 Y278.000
G1 X396.100 Y278.000
G1 X396.000 Y278.000
G1 X395.900 Y278.000
G1 X395.800 Y278.000
G1 X395.700 Y278.000
G1 X395.600 Y278.000
G1 X395.500 Y278.000
G1 X395.400 Y278.000
G1 X395.300 Y278.000
G1 X395.200 Y278.000
G1 X395.100 Y278.000
G1 X395.000 Y278.000
G1 X394.900 Y278.000
G1 X394.800 Y278.000
G1 X394.700 Y278.000
G1 X394.600 Y278.000
G1 X394.500 Y278.000
G1 X394.400 Y278.000
G1 X394.300 Y278.000
G1 X394.200 Y278.000
G1 X394.100 Y278.000
G1 X394.000 Y278.000
G1 X393.900 Y278.000
G1 X393.800 Y278.000
G1 X393.700 Y278.000
G1 X393.600 Y278.000
G1 X393.500 Y278.000
G1 X393.400 Y278.000
G1 X393.300 Y278.000
G1 X393.200 Y278.000
G1 X393.100 Y278.000
G1 X393.000 Y278.000
G1 X392.900 Y278.000
G1 X392.800 Y278.000
G1 X392.700 Y278.000
G1 X392.600 Y278.000
G1 X392.500 Y278.000
G1 X392.400 Y278.000
G1 X392.300 Y278.000
G1 X392.200 Y278.000
G1 X392.100 Y278.000
G1 X392.000 Y278.000
G1 X391.900 Y278.000
G1 X391.800 Y278.000
G1 X391.700 Y278.000
G1 X391.600 Y278.000
G1 X391.500 Y278.000
G1 X391.400 Y278.000
G1 X391.300 Y278.000
G1 X391.200 Y278.000
G1 X391.100 Y278.000
G1 X391.000 Y278.000
G1 X390.900 Y278.000
G1 X390.800 Y278.000
G1 X390.700 Y278.000
G1 X390.600 Y278.000
G1 X390.500 Y278.000
G1 X390.400 Y278.000
G1 X390.300 Y278.000
G1 X390.200 Y278.000
G1 X390.100 Y278.000
G1 X390.000 Y278.000
G1 X389.900 Y278.000
G1 X389.800 Y278.000
G1 X389.700 Y278.000
G1 X389.600 Y278.000
G1 X389.500 Y278.000
G1 X389.400 Y278.000
G1 X389.300 Y278.000
G1 X389.200 Y278.000
G1 X389.100 Y278.000
G1 X389.000 Y278.000
G1 X388.900 Y278.000
G1 X388.800 Y278.000
G1 X388.700 Y278.000
G1 X388.600 Y278.000
G1 X388.500 Y278.000
G1 X388.400 Y278.000
G1 X388.300 Y278.000
G1 X388.200 Y278.000
G1 X388.100 Y278.000
G1 X388.000 Y278.000
G1 X387.900 Y278.000
G1 X387.800 Y278.000
G1 X387.700 Y278.000
G1 X387.600 Y278.000
G1 X387.500 Y278.000
G1 X387.400 Y278.000
G1 X387.300 Y278.000
G1 X387.200 Y278.000
G1 X387.100 Y278.000
G1 X387.000 Y278.000
G1 X386.900 Y278.000
G1 X386.800 Y278.000
G1 X386.700 Y278.000
G1 X386.600 Y278.000
G1 X386.500 Y278.000
G1 X386.400 Y278.000
G1 X386.300 Y278.000
G1 X386.200 Y278.000
G1 X386.100 Y278.000
G1 X386.000 Y278.000
G1 X385.900 Y278.000
G1 X385.800 Y278.000
G1 X385.700 Y278.000
G1 X385.600 Y278.000
G1 X385.500 Y278.000
G1 X385.400 Y278.000
G1 X385.300 Y278.000
G1 X385.200 Y278.000
G1 X385.100 Y278.000
G1 X385.000 Y278.000
G1 X384.900 Y278.000
G1 X384.800 Y278.000
G1 X384.700 Y278.000
G1 X384.600 Y278.000
G1 X384.500 Y278.000
G1 X384.400 Y278.000
G1 X384.300 Y278.000
G1 X384.200 Y278.000
G1 X384.100 Y278.000
G1 X384.000 Y278.000
G1 X383.900 Y278.000
G1 X383.800 Y278.000
G1 X383.700 Y278.000
G1 X383.600 Y278.000
G1 X383.500 Y278.000
G1 X383.400 Y278.000
G1 X383.300 Y278.000
G1 X383.200 Y278.000
G1 X383.100 Y278.000
G1 X383.000 Y278.000
G1 X382.900 Y278.000
G1 X382.800 Y278.000
G1 X382.700 Y278.000
G1 X382.600 Y278.000
G1 X382.500 Y278.000
G1 X382.400 Y278.000
G1 X382.300 Y278.000
G1 X382.200 Y278.000
G1 X382.100 Y278.000
G1 X382.000 Y278.000
G1 X381.900 Y278.000
G1 X381.800 Y278.000
G1 X381.700 Y278.000
G1 X381.600 Y278.000
G1 X381.500 Y278.000
G1 X381.400 Y278.000
G0 Z4.600 F3000
M400
M204 P1200 T1200
G1 F1200
G0 X381.400 Y292.300 Z4.600
M400
M204 P200 T200
G1 F400
G1 Z0.000 F2500
G1 X381.500 Y292.300
G1 X381.600 Y292.300
G1 X381.700 Y292.300
G1 X381.800 Y292.300
G1 X381.900 Y292.300
G1 X382.000 Y292.300
G1 X382.100 Y292.300
G1 X382.200 Y292.300
G1 X382.300 Y292.300
G1 X382.400 Y292.300
G1 X382.500 Y292.300
G1 X382.600 Y292.300
G1 X382.700 Y292.300
G1 X382.800 Y292.300
G1 X382.900 Y292.300
G1 X383.000 Y292.300
G1 X383.100 Y292.300
G1 X383.200 Y292.300
G1 X383.300 Y292.300
G1 X383.400 Y292.300
G1 X383.500 Y292.300
G1 X383.600 Y292.300
G1 X383.700 Y292.300
G1 X383.800 Y292.300
G1 X383.900 Y292.300
G1 X384.000 Y292.300
G1 X384.100 Y292.300
G1 X384.200 Y292.300
G1 X384.300 Y292.300
G1 X384.400 Y292.300
G1 X384.500 Y292.300
G1 X384.600 Y292.300
G1 X384.700 Y292.300
G1 X384.800 Y292.300
G1 X384.900 Y292.300
G1 X385.000 Y292.300
G1 X385.100 Y292.300
G1 X385.200 Y292.300
G1 X385.300 Y292.300
G1 X385.400 Y292.300
G1 X385.500 Y292.300
G1 X385.600 Y292.300
G1 X385.700 Y292.300
G1 X385.800 Y292.300
G1 X385.900 Y292.300
G1 X386.000 Y292.300
G1 X386.100 Y292.300
G1 X386.200 Y292.300
G1 X386.300 Y292.300
G1 X386.400 Y292.300
G1 X386.500 Y292.300
G1 X386.600 Y292.300
G1 X386.700 Y292.300
G1 X386.800 Y292.300
G1 X386.900 Y292.300
G1 X387.000 Y292.300
G1 X387.100 Y292.300
G1 X387.200 Y292.300
G1 X387.300 Y292.300
G1 X387.400 Y292.300
G1 X387.500 Y292.300
G1 X387.600 Y292.300
G1 X387.700 Y292.300
G1 X387.800 Y292.300
G1 X387.900 Y292.300
G1 X388.000 Y292.300
G1 X388.100 Y292.300
G1 X388.200 Y292.300
G1 X388.300 Y292.300
G1 X388.400 Y292.300
G1 X388.500 Y292.300
G1 X388.600 Y292.300
G1 X388.700 Y292.300
G1 X388.800 Y292.300
G1 X388.900 Y292.300
G1 X389.000 Y292.300
G1 X389.100 Y292.300
G1 X389.200 Y292.300
G1 X389.300 Y292.300
G1 X389.400 Y292.300
G1 X389.500 Y292.300
G1 X389.600 Y292.300
G1 X389.700 Y292.300
G1 X389.800 Y292.300
G1 X389.900 Y292.300
G1 X390.000 Y292.300
G1 X390.100 Y292.300
G1 X390.200 Y292.300
G1 X390.300 Y292.300
G1 X390.400 Y292.300
G1 X390.500 Y292.300
G1 X390.600 Y292.300
G1 X390.700 Y292.300
G1 X390.800 Y292.300
G1 X390.900 Y292.300
G1 X391.000 Y292.300
G1 X391.100 Y292.300
G1 X391.200 Y292.300
G1 X391.300 Y292.300
G1 X391.400 Y292.300
G1 X391.500 Y292.300
G1 X391.600 Y292.300
G1 X391.700 Y292.300
G1 X391.800 Y292.300
G1 X391.900 Y292.300
G1 X392.000 Y292.300
G1 X392.100 Y292.300
G1 X392.200 Y292.300
G1 X392.300 Y292.300
G1 X392.400 Y292.300
G1 X392.500 Y292.300
G1 X392.600 Y292.300
G1 X392.700 Y292.300
G1 X392.800 Y292.300
G1 X392.900 Y292.300
G1 X393.000 Y292.300
G1 X393.100 Y292.300
G1 X393.200 Y292.300
G1 X393.300 Y292.300
G1 X393.400 Y292.300
G1 X393.500 Y292.300
G1 X393.600 Y292.300
G1 X393.700 Y292.300
G1 X393.800 Y292.300
G1 X393.900 Y292.300
G1 X394.000 Y292.300
G1 X394.100 Y292.300
G1 X394.200 Y292.300
G1 X394.300 Y292.300
G1 X394.400 Y292.300
G1 X394.500 Y292.300
G1 X394.600 Y292.300
G1 X394.700 Y292.300
G1 X394.800 Y292.300
G1 X394.900 Y292.300
G1 X395.000 Y292.300
G1 X395.100 Y292.300
G1 X395.200 Y292.300
G1 X395.300 Y292.300
G1 X395.400 Y292.300
G1 X395.500 Y292.300
G1 X395.600 Y292.300
G1 X395.700 Y292.300
G1 X395.800 Y292.300
G1 X395.900 Y292.300
G1 X396.000 Y292.300
G1 X396.100 Y292.300
G1 X396.200 Y292.300
G1 X396.300 Y292.300
G1 X396.400 Y292.300
G1 X396.500 Y292.300
G1 X396.600 Y292.300
G1 X396.700 Y292.300
G1 X396.800 Y292.300
G1 X396.900 Y292.300
G1 X397.000 Y292.300
G1 X397.100 Y292.300
G1 X397.200 Y292.300
G1 X397.300 Y292.300
G1 X397.400 Y292.300
G1 X397.500 Y292.300
G1 X397.600 Y292.300
G1 X397.700 Y292.300
G1 X397.800 Y292.300
G1 X397.900 Y292.300
G1 X398.000 Y292.300
G1 X398.100 Y292.300
G1 X398.200 Y292.300
G1 X398.300 Y292.300
G1 X398.400 Y292.300
G1 X398.500 Y292.300
G1 X398.600 Y292.300
G1 X398.700 Y292.300
G1 X398.800 Y292.300
G1 X398.900 Y292.300
G1 X399.000 Y292.300
G1 X399.100 Y292.300
G1 X399.200 Y292.300
G1 X399.300 Y292.300
G1 X399.400 Y292.300
G1 X399.500 Y292.300
G1 X399.600 Y292.300
G1 X399.700 Y292.300
G1 X399.800 Y292.300
G1 X399.900 Y292.300
G1 X400.000 Y292.300
G1 X400.100 Y292.300
G1 X400.200 Y292.300
G1 X400.300 Y292.300
G1 X400.400 Y292.300
G1 X400.500 Y292.300
G1 X400.600 Y292.300
G1 X400.700 Y292.300
G1 X400.800 Y292.300
G1 X400.900 Y292.300
G1 X401.000 Y292.300
G1 X401.100 Y292.300
G1 X401.200 Y292.300
G1 X401.300 Y292.300
G1 X401.400 Y292.300
G1 X401.500 Y292.300
G1 X401.600 Y292.300
G1 X401.700 Y292.300
G1 X401.800 Y292.300
G1 X401.900 Y292.300
G1 X402.000 Y292.300
G1 X402.100 Y292.300
G1 X402.200 Y292.300
G1 X402.300 Y292.300
G1 X402.400 Y292.300
G1 X402.500 Y292.300
G1 X402.600 Y292.300
G1 X402.700 Y292.300
G1 X402.800 Y292.300
G1 X402.900 Y292.300
G1 X403.000 Y292.300
G1 X403.100 Y292.300
G1 X403.200 Y292.300
G1 X403.300 Y292.300
G1 X403.400 Y292.300
G1 X403.500 Y292.300
G1 X403.600 Y292.300
G1 X403.700 Y292.300
G1 X403.800 Y292.300
G0 Z4.600 F3000

; --- DIP → Color 3 — Yellow ---
G0 Z4.600 F3000
M400
M204 P1200 T1200
G1 F1200
G0 X91.961 Y0.000 Z31.000
G1 Z0.000 F3000
G1 X91.961 Y0.000 F2500
G1 X91.961 Y2.500 F2500
G1 X86.961 Y0.000 F2500
G1 X91.961 Y0.000 F2500
G0 Z16.000 F3000
G0 X110.811 Y10.398
G0 Z31.000 F3000
G0 X403.900 Y292.300 Z4.600
M400
M204 P200 T200
G1 F400
G1 Z0.000 F2500
G1 X403.900 Y292.300
G1 X404.000 Y292.300
G1 X404.100 Y292.300
G1 X404.200 Y292.300
G1 X404.300 Y292.300
G1 X404.400 Y292.300
G1 X404.500 Y292.300
G1 X404.600 Y292.300
G1 X404.700 Y292.300
G1 X404.800 Y292.300
G1 X404.900 Y292.300
G1 X405.000 Y292.300
G1 X405.100 Y292.300
G1 X405.200 Y292.300
G1 X405.300 Y292.300
G1 X405.400 Y292.300
G1 X405.500 Y292.300
G1 X405.600 Y292.300
G1 X405.700 Y292.300
G1 X405.800 Y292.300
G1 X405.900 Y292.300
G1 X406.000 Y292.300
G1 X406.100 Y292.300
G1 X406.200 Y292.300
G1 X406.300 Y292.300
G1 X406.400 Y292.300
G1 X406.500 Y292.300
G1 X406.600 Y292.300
G1 X406.700 Y292.300
G1 X406.800 Y292.300
G1 X406.900 Y292.300
G1 X407.000 Y292.300
G1 X407.100 Y292.300
G1 X407.200 Y292.300
G1 X407.300 Y292.300
G1 X407.400 Y292.300
G1 X407.500 Y292.300
G1 X407.600 Y292.300
G1 X407.700 Y292.300
G1 X407.800 Y292.300
G1 X407.900 Y292.300
G1 X408.000 Y292.300
G1 X408.100 Y292.300
G1 X408.200 Y292.300
G1 X408.300 Y292.300
G1 X408.400 Y292.300
G1 X408.500 Y292.300
G1 X408.600 Y292.300
G1 X408.700 Y292.300
G1 X408.800 Y292.300
G1 X408.900 Y292.300
G1 X409.000 Y292.300
G1 X409.100 Y292.300
G1 X409.200 Y292.300
G1 X409.300 Y292.300
G1 X409.400 Y292.300
G1 X409.500 Y292.300
G1 X409.600 Y292.300
G1 X409.700 Y292.300
G1 X409.800 Y292.300
G1 X409.900 Y292.300
G1 X410.000 Y292.300
G1 X410.100 Y292.300
G1 X410.200 Y292.300
G1 X410.300 Y292.300
G1 X410.400 Y292.300
G1 X410.500 Y292.300
G1 X410.600 Y292.300
G1 X410.700 Y292.300
G1 X410.800 Y292.300
G1 X410.900 Y292.300
G1 X411.000 Y292.300
G1 X411.100 Y292.300
G1 X411.200 Y292.300
G1 X411.300 Y292.300
G1 X411.400 Y292.300
G1 X411.500 Y292.300
G1 X411.600 Y292.300
G1 X411.700 Y292.300
G1 X411.800 Y292.300
G1 X411.900 Y292.300
G1 X412.000 Y292.300
G1 X412.100 Y292.300
G1 X412.200 Y292.300
G1 X412.300 Y292.300
G1 X412.400 Y292.300
G1 X412.500 Y292.300
G1 X412.600 Y292.300
G1 X412.700 Y292.300
G1 X412.800 Y292.300
G1 X412.900 Y292.300
G0 Z4.600 F3000
M400
M204 P1200 T1200
G1 F1200
G0 X412.900 Y298.800 Z4.600
M400
M204 P200 T200
G1 F400
G1 Z0.000 F2500
G1 X412.800 Y298.800
G1 X412.700 Y298.800
G1 X412.600 Y298.800
G1 X412.500 Y298.800
G1 X412.400 Y298.800
G1 X412.300 Y298.800
G1 X412.200 Y298.800
G1 X412.100 Y298.800
G1 X412.000 Y298.800
G1 X411.900 Y298.800
G1 X411.800 Y298.800
G1 X411.700 Y298.800
G1 X411.600 Y298.800
G1 X411.500 Y298.800
G1 X411.400 Y298.800
G1 X411.300 Y298.800
G1 X411.200 Y298.800
G1 X411.100 Y298.800
G1 X411.000 Y298.800
G1 X410.900 Y298.800
G1 X410.800 Y298.800
G1 X410.700 Y298.800
G1 X410.600 Y298.800
G1 X410.500 Y298.800
G1 X410.400 Y298.800
G1 X410.300 Y298.800
G1 X410.200 Y298.800
G1 X410.100 Y298.800
G1 X410.000 Y298.800
G1 X409.900 Y298.800
G1 X409.800 Y298.800
G1 X409.700 Y298.800
G1 X409.600 Y298.800
G1 X409.500 Y298.800
G1 X409.400 Y298.800
G1 X409.300 Y298.800
G1 X409.200 Y298.800
G1 X409.100 Y298.800
G1 X409.000 Y298.800
G1 X408.900 Y298.800
G1 X408.800 Y298.800
G1 X408.700 Y298.800
G1 X408.600 Y298.800
G1 X408.500 Y298.800
G1 X408.400 Y298.800
G1 X408.300 Y298.800
G1 X408.200 Y298.800
G1 X408.100 Y298.800
G1 X408.000 Y298.800
G1 X407.900 Y298.800
G1 X407.800 Y298.800
G1 X407.700 Y298.800
G1 X407.600 Y298.800
G1 X407.500 Y298.800
G1 X407.400 Y298.800
G1 X407.300 Y298.800
G1 X407.200 Y298.800
G1 X407.100 Y298.800
G1 X407.000 Y298.800
G1 X406.900 Y298.800
G1 X406.800 Y298.800
G1 X406.700 Y298.800
G1 X406.600 Y298.800
G1 X406.500 Y298.800
G1 X406.400 Y298.800
G1 X406.300 Y298.800
G1 X406.200 Y298.800
G1 X406.100 Y298.800
G1 X406.000 Y298.800
G1 X405.900 Y298.800
G1 X405.800 Y298.800
G1 X405.700 Y298.800
G1 X405.600 Y298.800
G1 X405.500 Y298.800
G1 X405.400 Y298.800
G1 X405.300 Y298.800
G1 X405.200 Y298.800
G1 X405.100 Y298.800
G1 X405.000 Y298.800
G1 X404.900 Y298.800
G1 X404.800 Y298.800
G1 X404.700 Y298.800
G1 X404.600 Y298.800
G1 X404.500 Y298.800
G1 X404.400 Y298.800
G1 X404.300 Y298.800
G1 X404.200 Y298.800
G1 X404.100 Y298.800
G1 X404.000 Y298.800
G1 X403.900 Y298.800
G1 X403.800 Y298.800
G1 X403.700 Y298.800
G1 X403.600 Y298.800
G1 X403.500 Y298.800
G1 X403.400 Y298.800
G1 X403.300 Y298.800
G1 X403.200 Y298.800
G1 X403.100 Y298.800
G1 X403.000 Y298.800
G1 X402.900 Y298.800
G1 X402.800 Y298.800
G1 X402.700 Y298.800
G1 X402.600 Y298.800
G1 X402.500 Y298.800
G1 X402.400 Y298.800
G1 X402.300 Y298.800
G1 X402.200 Y298.800
G1 X402.100 Y298.800
G1 X402.000 Y298.800
G1 X401.900 Y298.800
G1 X401.800 Y298.800
G1 X401.700 Y298.800
G1 X401.600 Y298.800
G1 X401.500 Y298.800
G1 X401.400 Y298.800
G1 X401.300 Y298.800
G1 X401.200 Y298.800
G1 X401.100 Y298.800
G1 X401.000 Y298.800
G1 X400.900 Y298.800
G1 X400.800 Y298.800
G1 X400.700 Y298.800
G1 X400.600 Y298.800
G1 X400.500 Y298.800
G1 X400.400 Y298.800
G1 X400.300 Y298.800
G1 X400.200 Y298.800
G1 X400.100 Y298.800
G1 X400.000 Y298.800
G1 X399.900 Y298.800
G1 X399.800 Y298.800
G1 X399.700 Y298.800
G1 X399.600 Y298.800
G1 X399.500 Y298.800
G1 X399.400 Y298.800
G1 X399.300 Y298.800
G1 X399.200 Y298.800
G1 X399.100 Y298.800
G1 X399.000 Y298.800
G1 X398.900 Y298.800
G1 X398.800 Y298.800
G1 X398.700 Y298.800
G1 X398.600 Y298.800
G1 X398.500 Y298.800
G1 X398.400 Y298.800
G1 X398.300 Y298.800
G1 X398.200 Y298.800
G1 X398.100 Y298.800
G1 X398.000 Y298.800
G1 X397.900 Y298.800
G1 X397.800 Y298.800
G1 X397.700 Y298.800
G1 X397.600 Y298.800
G1 X397.500 Y298.800
G1 X397.400 Y298.800
G1 X397.300 Y298.800
G1 X397.200 Y298.800
G1 X397.100 Y298.800
G1 X397.000 Y298.800
G1 X396.900 Y298.800
G1 X396.800 Y298.800
G1 X396.700 Y298.800
G1 X396.600 Y298.800
G1 X396.500 Y298.800
G1 X396.400 Y298.800
G1 X396.300 Y298.800
G1 X396.200 Y298.800
G1 X396.100 Y298.800
G1 X396.000 Y298.800
G1 X395.900 Y298.800
G1 X395.800 Y298.800
G1 X395.700 Y298.800
G1 X395.600 Y298.800
G1 X395.500 Y298.800
G1 X395.400 Y298.800
G1 X395.300 Y298.800
G1 X395.200 Y298.800
G1 X395.100 Y298.800
G1 X395.000 Y298.800
G1 X394.900 Y298.800
G1 X394.800 Y298.800
G1 X394.700 Y298.800
G1 X394.600 Y298.800
G1 X394.500 Y298.800
G1 X394.400 Y298.800
G1 X394.300 Y298.800
G1 X394.200 Y298.800
G1 X394.100 Y298.800
G1 X394.000 Y298.800
G1 X393.900 Y298.800
G1 X393.800 Y298.800
G1 X393.700 Y298.800
G1 X393.600 Y298.800
G1 X393.500 Y298.800
G1 X393.400 Y298.800
G1 X393.300 Y298.800
G1 X393.200 Y298.800
G1 X393.100 Y298.800
G1 X393.000 Y298.800
G1 X392.900 Y298.800
G1 X392.800 Y298.800
G1 X392.700 Y298.800
G1 X392.600 Y298.800
G1 X392.500 Y298.800
G1 X392.400 Y298.800
G1 X392.300 Y298.800
G1 X392.200 Y298.800
G1 X392.100 Y298.800
G1 X392.000 Y298.800
G1 X391.900 Y298.800
G1 X391.800 Y298.800
G1 X391.700 Y298.800
G1 X391.600 Y298.800
G1 X391.500 Y298.800
G1 X391.400 Y298.800
G1 X391.300 Y298.800
G1 X391.200 Y298.800
G1 X391.100 Y298.800
G1 X391.000 Y298.800
G1 X390.900 Y298.800
G1 X390.800 Y298.800
G1 X390.700 Y298.800
G1 X390.600 Y298.800
G1 X390.500 Y298.800
G1 X390.400 Y298.800
G1 X390.300 Y298.800
G1 X390.200 Y298.800
G1 X390.100 Y298.800
G1 X390.000 Y298.800
G1 X389.900 Y298.800
G1 X389.800 Y298.800
G1 X389.700 Y298.800
G1 X389.600 Y298.800
G1 X389.500 Y298.800
G1 X389.400 Y298.800
G1 X389.300 Y298.800
G1 X389.200 Y298.800
G1 X389.100 Y298.800
G1 X389.000 Y298.800
G1 X388.900 Y298.800
G1 X388.800 Y298.800
G1 X388.700 Y298.800
G1 X388.600 Y298.800
G1 X388.500 Y298.800
G1 X388.400 Y298.800
G1 X388.300 Y298.800
G1 X388.200 Y298.800
G1 X388.100 Y298.800
G1 X388.000 Y298.800
G1 X387.900 Y298.800
G1 X387.800 Y298.800
G1 X387.700 Y298.800
G1 X387.600 Y298.800
G1 X387.500 Y298.800
G1 X387.400 Y298.800
G1 X387.300 Y298.800
G1 X387.200 Y298.800
G1 X387.100 Y298.800
G1 X387.000 Y298.800
G1 X386.900 Y298.800
G1 X386.800 Y298.800
G1 X386.700 Y298.800
G1 X386.600 Y298.800
G1 X386.500 Y298.800
G1 X386.400 Y298.800
G1 X386.300 Y298.800
G1 X386.200 Y298.800
G1 X386.100 Y298.800
G1 X386.000 Y298.800
G1 X385.900 Y298.800
G1 X385.800 Y298.800
G1 X385.700 Y298.800
G1 X385.600 Y298.800
G1 X385.500 Y298.800
G1 X385.400 Y298.800
G1 X385.300 Y298.800
G1 X385.200 Y298.800
G1 X385.100 Y298.800
G1 X385.000 Y298.800
G1 X384.900 Y298.800
G1 X384.800 Y298.800
G1 X384.700 Y298.800
G1 X384.600 Y298.800
G1 X384.500 Y298.800
G1 X384.400 Y298.800
G1 X384.300 Y298.800
G1 X384.200 Y298.800
G1 X384.100 Y298.800
G1 X384.000 Y298.800
G1 X383.900 Y298.800
G1 X383.800 Y298.800
G1 X383.700 Y298.800
G1 X383.600 Y298.800
G1 X383.500 Y298.800
G1 X383.400 Y298.800
G1 X383.300 Y298.800
G1 X383.200 Y298.800
G1 X383.100 Y298.800
G1 X383.000 Y298.800
G1 X382.900 Y298.800
G1 X382.800 Y298.800
G1 X382.700 Y298.800
G1 X382.600 Y298.800
G1 X382.500 Y298.800
G1 X382.400 Y298.800
G1 X382.300 Y298.800
G1 X382.200 Y298.800
G1 X382.100 Y298.800
G1 X382.000 Y298.800
G1 X381.900 Y298.800
G1 X381.800 Y298.800
G1 X381.700 Y298.800
G1 X381.600 Y298.800
G1 X381.500 Y298.800
G1 X381.400 Y298.800
G1 X381.300 Y298.800
G1 X381.200 Y298.800
G1 X381.100 Y298.800
G1 X381.000 Y298.800
G1 X380.900 Y298.800
G1 X380.800 Y298.800
G1 X380.700 Y298.800
G1 X380.600 Y298.800
G1 X380.500 Y298.800
G1 X380.400 Y298.800
G1 X380.300 Y298.800
G1 X380.200 Y298.800
G1 X380.100 Y298.800
G1 X380.000 Y298.800
G1 X379.900 Y298.800
G1 X379.800 Y298.800
G1 X379.700 Y298.800
G1 X379.600 Y298.800
G1 X379.500 Y298.800
G1 X379.400 Y298.800
G1 X379.300 Y298.800
G1 X379.200 Y298.800
G1 X379.100 Y298.800
G1 X379.000 Y298.800
G1 X378.900 Y298.800
G1 X378.800 Y298.800
G1 X378.700 Y298.800
G1 X378.600 Y298.800
G1 X378.500 Y298.800
G1 X378.400 Y298.800
G1 X378.300 Y298.800
G1 X378.200 Y298.800
G1 X378.100 Y298.800
G1 X378.000 Y298.800
G1 X377.900 Y298.800
G1 X377.800 Y298.800
G1 X377.700 Y298.800
G1 X377.600 Y298.800
G1 X377.500 Y298.800
G1 X377.400 Y298.800
G1 X377.300 Y298.800
G1 X377.200 Y298.800
G1 X377.100 Y298.800
G1 X377.000 Y298.800
G1 X376.900 Y298.800
G1 X376.800 Y298.800
G1 X376.700 Y298.800
G1 X376.600 Y298.800
G1 X376.500 Y298.800
G1 X376.400 Y298.800
G1 X376.300 Y298.800
G1 X376.200 Y298.800
G1 X376.100 Y298.800
G1 X376.000 Y298.800
G1 X375.900 Y298.800
G1 X375.800 Y298.800
G1 X375.700 Y298.800
G1 X375.600 Y298.800
G1 X375.500 Y298.800
G1 X375.400 Y298.800
G1 X375.300 Y298.800
G1 X375.200 Y298.800
G1 X375.100 Y298.800
G1 X375.000 Y298.800
G1 X374.900 Y298.800
G1 X374.800 Y298.800
G1 X374.700 Y298.800
G1 X374.600 Y298.800
G1 X374.500 Y298.800
G1 X374.400 Y298.800
G1 X374.300 Y298.800
G1 X374.200 Y298.800
G1 X374.100 Y298.800
G1 X374.000 Y298.800
G1 X373.900 Y298.800
G1 X373.800 Y298.800
G1 X373.700 Y298.800
G1 X373.600 Y298.800
G1 X373.500 Y298.800
G1 X373.400 Y298.800
G1 X373.300 Y298.800
G1 X373.200 Y298.800
G1 X373.100 Y298.800
G1 X373.000 Y298.800
G1 X372.900 Y298.800
G1 X372.800 Y298.800
G1 X372.700 Y298.800
G1 X372.600 Y298.800
G1 X372.500 Y298.800
G1 X372.400 Y298.800
G1 X372.300 Y298.800
G1 X372.200 Y298.800
G1 X372.100 Y298.800
G1 X372.000 Y298.800
G1 X371.900 Y298.800
G1 X371.800 Y298.800
G1 X371.700 Y298.800
G1 X371.600 Y298.800
G1 X371.500 Y298.800
G1 X371.400 Y298.800
G1 X371.300 Y298.800
G1 X371.200 Y298.800
G1 X371.100 Y298.800
G1 X371.000 Y298.800
G1 X370.900 Y298.800
G1 X370.800 Y298.800
G1 X370.700 Y298.800
G1 X370.600 Y298.800
G1 X370.500 Y298.800
G1 X370.400 Y298.800
G1 X370.300 Y298.800
G1 X370.200 Y298.800
G1 X370.100 Y298.800
G1 X370.000 Y298.800
G1 X369.900 Y298.800
G1 X369.800 Y298.800
G1 X369.700 Y298.800
G1 X369.600 Y298.800
G1 X369.500 Y298.800
G1 X369.400 Y298.800
G1 X369.300 Y298.800
G1 X369.200 Y298.800
G1 X369.100 Y298.800
G1 X369.000 Y298.800
G1 X368.900 Y298.800
G1 X368.800 Y298.800
G1 X368.700 Y298.800
G1 X368.600 Y298.800
G1 X368.500 Y298.800
G1 X368.400 Y298.800
G1 X368.300 Y298.800
G1 X368.200 Y298.800
G1 X368.100 Y298.800
G1 X368.000 Y298.800
G1 X367.900 Y298.800
G1 X367.800 Y298.800
G1 X367.700 Y298.800
G1 X367.600 Y298.800
G1 X367.500 Y298.800
G1 X367.400 Y298.800
G1 X367.300 Y298.800
G1 X367.200 Y298.800
G1 X367.100 Y298.800
G1 X367.000 Y298.800
G1 X366.900 Y298.800
G1 X366.800 Y298.800
G1 X366.700 Y298.800
G1 X366.600 Y298.800
G1 X366.500 Y298.800
G1 X366.400 Y298.800
G1 X366.300 Y298.800
G1 X366.200 Y298.800
G1 X366.100 Y298.800
G1 X366.000 Y298.800
G1 X365.900 Y298.800
G1 X365.800 Y298.800
G1 X365.700 Y298.800
G1 X365.600 Y298.800
G1 X365.500 Y298.800
G1 X365.400 Y298.800
G1 X365.300 Y298.800
G1 X365.200 Y298.800
G0 Z4.600 F3000

; --- DIP → Color 1 — Red ---
G0 Z4.600 F3000
M400
M204 P1200 T1200
G1 F1200
G0 X34.910 Y1.849 Z31.000
G1 Z0.000 F3000
G1 X34.910 Y1.849 F2500
G1 X34.910 Y4.349 F2500
G1 X29.910 Y1.849 F2500
G1 X34.910 Y0.000 F2500
G0 Z16.000 F3000
G0 X31.340 Y9.819
G0 Z31.000 F3000
G0 X365.100 Y298.800 Z4.600
M400
M204 P200 T200
G1 F400
G1 Z0.000 F2500
G1 X365.100 Y298.800
G1 X365.000 Y298.800
G1 X364.900 Y298.800
G1 X364.800 Y298.800
G1 X364.700 Y298.800
G1 X364.600 Y298.800
G1 X364.500 Y298.800
G1 X364.400 Y298.800
G1 X364.300 Y298.800
G1 X364.200 Y298.800
G1 X364.100 Y298.800
G1 X364.000 Y298.800
G1 X363.900 Y298.800
G1 X363.800 Y298.800
G1 X363.700 Y298.800
G1 X363.600 Y298.800
G1 X363.500 Y298.800
G1 X363.400 Y298.800
G1 X363.300 Y298.800
G1 X363.200 Y298.800
G1 X363.100 Y298.800
G1 X363.000 Y298.800
G1 X362.900 Y298.800
G1 X362.800 Y298.800
G1 X362.700 Y298.800
G1 X362.600 Y298.800
G1 X362.500 Y298.800
G1 X362.400 Y298.800
G1 X362.300 Y298.800
G1 X362.200 Y298.800
G1 X362.100 Y298.800
G1 X362.000 Y298.800
G1 X361.900 Y298.800
G1 X361.800 Y298.800
G1 X361.700 Y298.800
G1 X361.600 Y298.800
G1 X361.500 Y298.800
G1 X361.400 Y298.800
G1 X361.300 Y298.800
G1 X361.200 Y298.800
G1 X361.100 Y298.800
G1 X361.000 Y298.800
G1 X360.900 Y298.800
G1 X360.800 Y298.800
G1 X360.700 Y298.800
G1 X360.600 Y298.800
G1 X360.500 Y298.800
G1 X360.400 Y298.800
G1 X360.300 Y298.800
G1 X360.200 Y298.800
G1 X360.100 Y298.800
G1 X360.000 Y298.800
G1 X359.900 Y298.800
G1 X359.800 Y298.800
G1 X359.700 Y298.800
G1 X359.600 Y298.800
G1 X359.500 Y298.800
G1 X359.400 Y298.800
G1 X359.300 Y298.800
G1 X359.200 Y298.800
G1 X359.100 Y298.800
G1 X359.000 Y298.800
G1 X358.900 Y298.800
G1 X358.800 Y298.800
G1 X358.700 Y298.800
G1 X358.600 Y298.800
G1 X358.500 Y298.800
G1 X358.400 Y298.800
G1 X358.300 Y298.800
G1 X358.200 Y298.800
G1 X358.100 Y298.800
G1 X358.000 Y298.800
G1 X357.900 Y298.800
G1 X357.800 Y298.800
G1 X357.700 Y298.800
G1 X357.600 Y298.800
G1 X357.500 Y298.800
G1 X357.400 Y298.800
G1 X357.300 Y298.800
G1 X357.200 Y298.800
G1 X357.100 Y298.800
G1 X357.000 Y298.800
G1 X356.900 Y298.800
G1 X356.800 Y298.800
G1 X356.700 Y298.800
G1 X356.600 Y298.800
G1 X356.500 Y298.800
G1 X356.400 Y298.800
G1 X356.300 Y298.800
G1 X356.200 Y298.800
G1 X356.100 Y298.800
G1 X356.000 Y298.800
G1 X355.900 Y298.800
G1 X355.800 Y298.800
G1 X355.700 Y298.800
G1 X355.600 Y298.800
G1 X355.500 Y298.800
G1 X355.400 Y298.800
G1 X355.300 Y298.800
G1 X355.200 Y298.800
G1 X355.100 Y298.800
G1 X355.000 Y298.800
G1 X354.900 Y298.800
G1 X354.800 Y298.800
G1 X354.700 Y298.800
G1 X354.600 Y298.800
G1 X354.500 Y298.800
G1 X354.400 Y298.800
G1 X354.300 Y298.800
G1 X354.200 Y298.800
G1 X354.100 Y298.800
G1 X354.000 Y298.800
G1 X353.900 Y298.800
G1 X353.800 Y298.800
G1 X353.700 Y298.800
G1 X353.600 Y298.800
G1 X353.500 Y298.800
G1 X353.400 Y298.800
G1 X353.300 Y298.800
G1 X353.200 Y298.800
G1 X353.100 Y298.800
G1 X353.000 Y298.800
G1 X352.900 Y298.800
G1 X352.800 Y298.800
G1 X352.700 Y298.800
G1 X352.600 Y298.800
G1 X352.500 Y298.800
G1 X352.400 Y298.800
G1 X352.300 Y298.800
G1 X352.200 Y298.800
G1 X352.100 Y298.800
G1 X352.000 Y298.800
G1 X351.900 Y298.800
G1 X351.800 Y298.800
G1 X351.700 Y298.800
G1 X351.600 Y298.800
G1 X351.500 Y298.800
G1 X351.400 Y298.800
G1 X351.300 Y298.800
G1 X351.200 Y298.800
G1 X351.100 Y298.800
G1 X351.000 Y298.800
G1 X350.900 Y298.800
G1 X350.800 Y298.800
G1 X350.700 Y298.800
G1 X350.600 Y298.800
G1 X350.500 Y298.800
G1 X350.400 Y298.800
G1 X350.300 Y298.800
G1 X350.200 Y298.800
G1 X350.100 Y298.800
G1 X350.000 Y298.800
G1 X349.900 Y298.800
G1 X349.800 Y298.800
G1 X349.700 Y298.800
G1 X349.600 Y298.800
G1 X349.500 Y298.800
G1 X349.400 Y298.800
G1 X349.300 Y298.800
G1 X349.200 Y298.800
G1 X349.100 Y298.800
G1 X349.000 Y298.800
G1 X348.900 Y298.800
G1 X348.800 Y298.800
G1 X348.700 Y298.800
G1 X348.600 Y298.800
G1 X348.500 Y298.800
G1 X348.400 Y298.800
G1 X348.300 Y298.800
G1 X348.200 Y298.800
G1 X348.100 Y298.800
G1 X348.000 Y298.800
G1 X347.900 Y298.800
G1 X347.800 Y298.800
G1 X347.700 Y298.800
G1 X347.600 Y298.800
G1 X347.500 Y298.800
G1 X347.400 Y298.800
G1 X347.300 Y298.800
G1 X347.200 Y298.800
G1 X347.100 Y298.800
G1 X347.000 Y298.800
G1 X346.900 Y298.800
G1 X346.800 Y298.800
G1 X346.700 Y298.800
G1 X346.600 Y298.800
G1 X346.500 Y298.800
G1 X346.400 Y298.800
G1 X346.300 Y298.800
G1 X346.200 Y298.800
G1 X346.100 Y298.800
G1 X346.000 Y298.800
G1 X345.900 Y298.800
G1 X345.800 Y298.800
G1 X345.700 Y298.800
G1 X345.600 Y298.800
G1 X345.500 Y298.800
G1 X345.400 Y298.800
G1 X345.300 Y298.800
G1 X345.200 Y298.800
G1 X345.100 Y298.800
G1 X345.000 Y298.800
G1 X344.900 Y298.800
G1 X344.800 Y298.800
G1 X344.700 Y298.800
G1 X344.600 Y298.800
G1 X344.500 Y298.800
G1 X344.400 Y298.800
G1 X344.300 Y298.800
G1 X344.200 Y298.800
G1 X344.100 Y298.800
G1 X344.000 Y298.800
G1 X343.900 Y298.800
G1 X343.800 Y298.800
G1 X343.700 Y298.800
G1 X343.600 Y298.800
G1 X343.500 Y298.800
G1 X343.400 Y298.800
G1 X343.300 Y298.800
G1 X343.200 Y298.800
G1 X343.100 Y298.800
G1 X343.000 Y298.800
G1 X342.900 Y298.800
G1 X342.800 Y298.800
G1 X342.700 Y298.800
G1 X342.600 Y298.800
G1 X342.500 Y298.800
G1 X342.400 Y298.800
G1 X342.300 Y298.800
G1 X342.200 Y298.800
G1 X342.100 Y298.800
G1 X342.000 Y298.800
G1 X341.900 Y298.800
G1 X341.800 Y298.800
G1 X341.700 Y298.800
G1 X341.600 Y298.800
G1 X341.500 Y298.800
G1 X341.400 Y298.800
G1 X341.300 Y298.800
G1 X341.200 Y298.800
G1 X341.100 Y298.800
G1 X341.000 Y298.800
G1 X340.900 Y298.800
G1 X340.800 Y298.800
G1 X340.700 Y298.800
G1 X340.600 Y298.800
G1 X340.500 Y298.800
G1 X340.400 Y298.800
G1 X340.300 Y298.800
G1 X340.200 Y298.800
G1 X340.100 Y298.800
G1 X340.000 Y298.800
G1 X339.900 Y298.800
G1 X339.800 Y298.800
G1 X339.700 Y298.800
G1 X339.600 Y298.800
G1 X339.500 Y298.800
G1 X339.400 Y298.800
G1 X339.300 Y298.800
G1 X339.200 Y298.800
G1 X339.100 Y298.800
G1 X339.000 Y298.800
G1 X338.900 Y298.800
G1 X338.800 Y298.800
G1 X338.700 Y298.800
G1 X338.600 Y298.800
G1 X338.500 Y298.800
G1 X338.400 Y298.800
G1 X338.300 Y298.800
G1 X338.200 Y298.800
G1 X338.100 Y298.800
G1 X338.000 Y298.800
G1 X337.900 Y298.800
G1 X337.800 Y298.800
G1 X337.700 Y298.800
G1 X337.600 Y298.800
G1 X337.500 Y298.800
G1 X337.400 Y298.800
G1 X337.300 Y298.800
G1 X337.200 Y298.800
G1 X337.100 Y298.800
G1 X337.000 Y298.800
G1 X336.900 Y298.800
G1 X336.800 Y298.800
G1 X336.700 Y298.800
G1 X336.600 Y298.800
G1 X336.500 Y298.800
G1 X336.400 Y298.800
G1 X336.300 Y298.800
G1 X336.200 Y298.800
G1 X336.100 Y298.800
G1 X336.000 Y298.800
G1 X335.900 Y298.800
G1 X335.800 Y298.800
G1 X335.700 Y298.800
G1 X335.600 Y298.800
G1 X335.500 Y298.800
G1 X335.400 Y298.800
G1 X335.300 Y298.800
G1 X335.200 Y298.800
G1 X335.100 Y298.800
G1 X335.000 Y298.800
G1 X334.900 Y298.800
G1 X334.800 Y298.800
G1 X334.700 Y298.800
G1 X334.600 Y298.800
G1 X334.500 Y298.800
G1 X334.400 Y298.800
G1 X334.300 Y298.800
G1 X334.200 Y298.800
G1 X334.100 Y298.800
G1 X334.000 Y298.800
G1 X333.900 Y298.800
G1 X333.800 Y298.800
G1 X333.700 Y298.800
G1 X333.600 Y298.800
G1 X333.500 Y298.800
G1 X333.400 Y298.800
G1 X333.300 Y298.800
G1 X333.200 Y298.800
G1 X333.100 Y298.800
G1 X333.000 Y298.800
G1 X332.900 Y298.800
G1 X332.800 Y298.800
G1 X332.700 Y298.800
G1 X332.600 Y298.800
G1 X332.500 Y298.800
G1 X332.400 Y298.800
G1 X332.300 Y298.800
G1 X332.200 Y298.800
G1 X332.100 Y298.800
G1 X332.000 Y298.800
G1 X331.900 Y298.800
G1 X331.800 Y298.800
G1 X331.700 Y298.800
G1 X331.600 Y298.800
G1 X331.500 Y298.800
G1 X331.400 Y298.800
G1 X331.300 Y298.800
G1 X331.200 Y298.800
G1 X331.100 Y298.800
G1 X331.000 Y298.800
G1 X330.900 Y298.800
G1 X330.800 Y298.800
G1 X330.700 Y298.800
G1 X330.600 Y298.800
G1 X330.500 Y298.800
G1 X330.400 Y298.800
G1 X330.300 Y298.800
G1 X330.200 Y298.800
G1 X330.100 Y298.800
G1 X330.000 Y298.800
G1 X329.900 Y298.800
G1 X329.800 Y298.800
G1 X329.700 Y298.800
G1 X329.600 Y298.800
G1 X329.500 Y298.800
G1 X329.400 Y298.800
G1 X329.300 Y298.800
G1 X329.200 Y298.800
G1 X329.100 Y298.800
G1 X329.000 Y298.800
G1 X328.900 Y298.800
G1 X328.800 Y298.800
G1 X328.700 Y298.800
G1 X328.600 Y298.800
G1 X328.500 Y298.800
G1 X328.400 Y298.800
G1 X328.300 Y298.800
G1 X328.200 Y298.800
G1 X328.100 Y298.800
G1 X328.000 Y298.800
G1 X327.900 Y298.800
G1 X327.800 Y298.800
G1 X327.700 Y298.800
G1 X327.600 Y298.800
G1 X327.500 Y298.800
G1 X327.400 Y298.800
G1 X327.300 Y298.800
G1 X327.200 Y298.800
G1 X327.100 Y298.800
G1 X327.000 Y298.800
G1 X326.900 Y298.800
G1 X326.800 Y298.800
G1 X326.700 Y298.800
G1 X326.600 Y298.800
G1 X326.500 Y298.800
G1 X326.400 Y298.800
G1 X326.300 Y298.800
G1 X326.200 Y298.800
G1 X326.100 Y298.800
G1 X326.000 Y298.800
G1 X325.900 Y298.800
G1 X325.800 Y298.800
G1 X325.700 Y298.800
G1 X325.600 Y298.800
G1 X325.500 Y298.800
G1 X325.400 Y298.800
G1 X325.300 Y298.800
G1 X325.200 Y298.800
G1 X325.100 Y298.800
G1 X325.000 Y298.800
G1 X324.900 Y298.800
G1 X324.800 Y298.800
G1 X324.700 Y298.800
G1 X324.600 Y298.800
G1 X324.500 Y298.800
G1 X324.400 Y298.800
G1 X324.300 Y298.800
G1 X324.200 Y298.800
G1 X324.100 Y298.800
G1 X324.000 Y298.800
G1 X323.900 Y298.800
G1 X323.800 Y298.800
G1 X323.700 Y298.800
G1 X323.600 Y298.800
G1 X323.500 Y298.800
G1 X323.400 Y298.800
G1 X323.300 Y298.800
G1 X323.200 Y298.800
G1 X323.100 Y298.800
G1 X323.000 Y298.800
G1 X322.900 Y298.800
G1 X322.800 Y298.800
G1 X322.700 Y298.800
G1 X322.600 Y298.800
G1 X322.500 Y298.800
G1 X322.400 Y298.800
G1 X322.300 Y298.800
G1 X322.200 Y298.800
G1 X322.100 Y298.800
G1 X322.000 Y298.800
G1 X321.900 Y298.800
G1 X321.800 Y298.800
G1 X321.700 Y298.800
G1 X321.600 Y298.800
G1 X321.500 Y298.800
G1 X321.400 Y298.800
G1 X321.300 Y298.800
G1 X321.200 Y298.800
G1 X321.100 Y298.800
G1 X321.000 Y298.800
G1 X320.900 Y298.800
G1 X320.800 Y298.800
G1 X320.700 Y298.800
G1 X320.600 Y298.800
G1 X320.500 Y298.800
G1 X320.400 Y298.800
G1 X320.300 Y298.800
G1 X320.200 Y298.800
G1 X320.100 Y298.800
G1 X320.000 Y298.800
G1 X319.900 Y298.800
G1 X319.800 Y298.800
G1 X319.700 Y298.800
G1 X319.600 Y298.800
G1 X319.500 Y298.800
G1 X319.400 Y298.800
G1 X319.300 Y298.800
G1 X319.200 Y298.800
G1 X319.100 Y298.800
G1 X319.000 Y298.800
G1 X318.900 Y298.800
G1 X318.800 Y298.800
G1 X318.700 Y298.800
G1 X318.600 Y298.800
G1 X318.500 Y298.800
G1 X318.400 Y298.800
G0 Z4.600 F3000
M400
M204 P1200 T1200
G1 F1200
G0 X318.200 Y298.800 Z4.600
M400
M204 P200 T200
G1 F400
G1 Z0.000 F2500
G1 X318.100 Y298.800
G1 X318.000 Y298.800
G1 X317.900 Y298.800
G1 X317.800 Y298.800
G1 X317.700 Y298.800
G1 X317.600 Y298.800
G1 X317.500 Y298.800
G1 X317.400 Y298.800
G1 X317.300 Y298.800
G1 X317.200 Y298.800
G1 X317.100 Y298.800
G1 X317.000 Y298.800
G1 X316.900 Y298.800
G1 X316.800 Y298.800
G1 X316.700 Y298.800
G1 X316.600 Y298.800
G1 X316.500 Y298.800
G1 X316.400 Y298.800
G1 X316.300 Y298.800
G1 X316.200 Y298.800
G1 X316.100 Y298.800
G1 X316.000 Y298.800
G1 X315.900 Y298.800
G1 X315.800 Y298.800
G1 X315.700 Y298.800
G1 X315.600 Y298.800
G1 X315.500 Y298.800
G1 X315.400 Y298.800
G1 X315.300 Y298.800
G1 X315.200 Y298.800
G1 X315.100 Y298.800
G1 X315.000 Y298.800
G1 X314.900 Y298.800
G1 X314.800 Y298.800
G1 X314.700 Y298.800
G1 X314.600 Y298.800
G1 X314.500 Y298.800
G1 X314.400 Y298.800
G1 X314.300 Y298.800
G1 X314.200 Y298.800
G1 X314.100 Y298.800
G1 X314.000 Y298.800
G1 X313.900 Y298.800
G1 X313.800 Y298.800
G1 X313.700 Y298.800
G1 X313.600 Y298.800
G1 X313.500 Y298.800
G1 X313.400 Y298.800
G1 X313.300 Y298.800
G1 X313.200 Y298.800
G1 X313.100 Y298.800
G1 X313.000 Y298.800
G1 X312.900 Y298.800
G1 X312.800 Y298.800
G1 X312.700 Y298.800
G1 X312.600 Y298.800
G1 X312.500 Y298.800
G1 X312.400 Y298.800
G1 X312.300 Y298.800
G1 X312.200 Y298.800
G1 X312.100 Y298.800
G1 X312.000 Y298.800
G1 X311.900 Y298.800
G1 X311.800 Y298.800
G1 X311.700 Y298.800
G1 X311.600 Y298.800
G1 X311.500 Y298.800
G1 X311.400 Y298.800
G1 X311.300 Y298.800
G1 X311.200 Y298.800
G1 X311.100 Y298.800
G1 X311.000 Y298.800
G1 X310.900 Y298.800
G1 X310.800 Y298.800
G1 X310.700 Y298.800
G1 X310.600 Y298.800
G1 X310.500 Y298.800
G1 X310.400 Y298.800
G1 X310.300 Y298.800
G1 X310.200 Y298.800
G1 X310.100 Y298.800
G1 X310.000 Y298.800
G1 X309.900 Y298.800
G1 X309.800 Y298.800
G1 X309.700 Y298.800
G1 X309.600 Y298.800
G1 X309.500 Y298.800
G1 X309.400 Y298.800
G1 X309.300 Y298.800
G1 X309.200 Y298.800
G1 X309.100 Y298.800
G1 X309.000 Y298.800
G1 X308.900 Y298.800
G1 X308.800 Y298.800
G1 X308.700 Y298.800
G1 X308.600 Y298.800
G1 X308.500 Y298.800
G1 X308.400 Y298.800
G1 X308.300 Y298.800
G1 X308.200 Y298.800
G1 X308.100 Y298.800
G1 X308.000 Y298.800
G1 X307.900 Y298.800
G1 X307.800 Y298.800
G1 X307.700 Y298.800
G1 X307.600 Y298.800
G1 X307.500 Y298.800
G1 X307.400 Y298.800
G1 X307.300 Y298.800
G1 X307.200 Y298.800
G1 X307.100 Y298.800
G1 X307.000 Y298.800
G1 X306.900 Y298.800
G1 X306.800 Y298.800
G1 X306.700 Y298.800
G1 X306.600 Y298.800
G1 X306.500 Y298.800
G1 X306.400 Y298.800
G1 X306.300 Y298.800
G1 X306.200 Y298.800
G1 X306.100 Y298.800
G1 X306.000 Y298.800
G1 X305.900 Y298.800
G1 X305.800 Y298.800
G1 X305.700 Y298.800
G1 X305.600 Y298.800
G1 X305.500 Y298.800
G1 X305.400 Y298.800
G1 X305.300 Y298.800
G1 X305.200 Y298.800
G1 X305.100 Y298.800
G1 X305.000 Y298.800
G1 X304.900 Y298.800
G1 X304.800 Y298.800
G1 X304.700 Y298.800
G1 X304.600 Y298.800
G1 X304.500 Y298.800
G1 X304.400 Y298.800
G1 X304.300 Y298.800
G1 X304.200 Y298.800
G1 X304.100 Y298.800
G1 X304.000 Y298.800
G1 X303.900 Y298.800
G1 X303.800 Y298.800
G1 X303.700 Y298.800
G1 X303.600 Y298.800
G1 X303.500 Y298.800
G1 X303.400 Y298.800
G1 X303.300 Y298.800
G1 X303.200 Y298.800
G1 X303.100 Y298.800
G1 X303.000 Y298.800
G1 X302.900 Y298.800
G1 X302.800 Y298.800
G1 X302.700 Y298.800
G1 X302.600 Y298.800
G1 X302.500 Y298.800
G1 X302.400 Y298.800
G1 X302.300 Y298.800
G1 X302.200 Y298.800
G1 X302.100 Y298.800
G1 X302.000 Y298.800
G1 X301.900 Y298.800
G1 X301.800 Y298.800
G1 X301.700 Y298.800
G1 X301.600 Y298.800
G1 X301.500 Y298.800
G1 X301.400 Y298.800
G1 X301.300 Y298.800
G1 X301.200 Y298.800
G1 X301.100 Y298.800
G1 X301.000 Y298.800
G1 X300.900 Y298.800
G1 X300.800 Y298.800
G1 X300.700 Y298.800
G1 X300.600 Y298.800
G1 X300.500 Y298.800
G1 X300.400 Y298.800
G1 X300.300 Y298.800
G1 X300.200 Y298.800
G1 X300.100 Y298.800
G1 X300.000 Y298.800
G1 X299.900 Y298.800
G1 X299.800 Y298.800
G1 X299.700 Y298.800
G1 X299.600 Y298.800
G1 X299.500 Y298.800
G1 X299.400 Y298.800
G1 X299.300 Y298.800
G1 X299.200 Y298.800
G1 X299.100 Y298.800
G1 X299.000 Y298.800
G1 X298.900 Y298.800
G1 X298.800 Y298.800
G1 X298.700 Y298.800
G1 X298.600 Y298.800
G1 X298.500 Y298.800
G1 X298.400 Y298.800
G1 X298.300 Y298.800
G1 X298.200 Y298.800
G1 X298.100 Y298.800
G1 X298.000 Y298.800
G1 X297.900 Y298.800
G1 X297.800 Y298.800
G1 X297.700 Y298.800
G1 X297.600 Y298.800
G1 X297.500 Y298.800
G1 X297.400 Y298.800
G1 X297.300 Y298.800
G1 X297.200 Y298.800
G1 X297.100 Y298.800
G1 X297.000 Y298.800
G1 X296.900 Y298.800
G1 X296.800 Y298.800
G1 X296.700 Y298.800
G1 X296.600 Y298.800
G1 X296.500 Y298.800
G1 X296.400 Y298.800
G1 X296.300 Y298.800
G1 X296.200 Y298.800
G1 X296.100 Y298.800
G1 X296.000 Y298.800
G1 X295.900 Y298.800
G1 X295.800 Y298.800
G1 X295.700 Y298.800
G1 X295.600 Y298.800
G1 X295.500 Y298.800
G1 X295.400 Y298.800
G1 X295.300 Y298.800
G1 X295.200 Y298.800
G1 X295.100 Y298.800
G1 X295.000 Y298.800
G1 X294.900 Y298.800
G1 X294.800 Y298.800
G1 X294.700 Y298.800
G1 X294.600 Y298.800
G1 X294.500 Y298.800
G1 X294.400 Y298.800
G1 X294.300 Y298.800
G1 X294.200 Y298.800
G1 X294.100 Y298.800
G1 X294.000 Y298.800
G1 X293.900 Y298.800
G1 X293.800 Y298.800
G1 X293.700 Y298.800
G1 X293.600 Y298.800
G1 X293.500 Y298.800
G1 X293.400 Y298.800
G1 X293.300 Y298.800
G1 X293.200 Y298.800
G1 X293.100 Y298.800
G1 X293.000 Y298.800
G1 X292.900 Y298.800
G1 X292.800 Y298.800
G1 X292.700 Y298.800
G1 X292.600 Y298.800
G1 X292.500 Y298.800
G1 X292.400 Y298.800
G1 X292.300 Y298.800
G1 X292.200 Y298.800
G1 X292.100 Y298.800
G1 X292.000 Y298.800
G1 X291.900 Y298.800
G1 X291.800 Y298.800
G1 X291.700 Y298.800
G1 X291.600 Y298.800
G1 X291.500 Y298.800
G1 X291.400 Y298.800
G1 X291.300 Y298.800
G1 X291.200 Y298.800
G1 X291.100 Y298.800
G1 X291.000 Y298.800
G1 X290.900 Y298.800
G1 X290.800 Y298.800
G1 X290.700 Y298.800
G1 X290.600 Y298.800
G1 X290.500 Y298.800
G1 X290.400 Y298.800
G1 X290.300 Y298.800
G1 X290.200 Y298.800
G1 X290.100 Y298.800
G1 X290.000 Y298.800
G1 X289.900 Y298.800
G1 X289.800 Y298.800
G1 X289.700 Y298.800
G1 X289.600 Y298.800
G1 X289.500 Y298.800
G1 X289.400 Y298.800
G1 X289.300 Y298.800
G1 X289.200 Y298.800
G1 X289.100 Y298.800
G1 X289.000 Y298.800
G1 X288.900 Y298.800
G1 X288.800 Y298.800
G1 X288.700 Y298.800
G1 X288.600 Y298.800
G1 X288.500 Y298.800
G1 X288.400 Y298.800
G1 X288.300 Y298.800
G1 X288.200 Y298.800
G1 X288.100 Y298.800
G1 X288.000 Y298.800
G1 X287.900 Y298.800
G1 X287.800 Y298.800
G1 X287.700 Y298.800
G1 X287.600 Y298.800
G1 X287.500 Y298.800
G1 X287.400 Y298.800
G1 X287.300 Y298.800
G1 X287.200 Y298.800
G1 X287.100 Y298.800
G1 X287.000 Y298.800
G1 X286.900 Y298.800
G1 X286.800 Y298.800
G1 X286.700 Y298.800
G1 X286.600 Y298.800
G1 X286.500 Y298.800
G1 X286.400 Y298.800
G1 X286.300 Y298.800
G1 X286.200 Y298.800
G1 X286.100 Y298.800
G1 X286.000 Y298.800
G1 X285.900 Y298.800
G1 X285.800 Y298.800
G1 X285.700 Y298.800
G1 X285.600 Y298.800
G1 X285.500 Y298.800
G1 X285.400 Y298.800
G1 X285.300 Y298.800
G1 X285.200 Y298.800
G1 X285.100 Y298.800
G1 X285.000 Y298.800
G1 X284.900 Y298.800
G1 X284.800 Y298.800
G1 X284.700 Y298.800
G1 X284.600 Y298.800
G1 X284.500 Y298.800
G1 X284.400 Y298.800
G1 X284.300 Y298.800
G1 X284.200 Y298.800
G1 X284.100 Y298.800
G1 X284.000 Y298.800
G1 X283.900 Y298.800
G1 X283.800 Y298.800
G1 X283.700 Y298.800
G1 X283.600 Y298.800
G1 X283.500 Y298.800
G1 X283.400 Y298.800
G1 X283.300 Y298.800
G1 X283.200 Y298.800
G1 X283.100 Y298.800
G1 X283.000 Y298.800
G1 X282.900 Y298.800
G1 X282.800 Y298.800
G1 X282.700 Y298.800
G1 X282.600 Y298.800
G1 X282.500 Y298.800
G1 X282.400 Y298.800
G1 X282.300 Y298.800
G1 X282.200 Y298.800
G1 X282.100 Y298.800
G1 X282.000 Y298.800
G1 X281.900 Y298.800
G1 X281.800 Y298.800
G1 X281.700 Y298.800
G1 X281.600 Y298.800
G1 X281.500 Y298.800
G1 X281.400 Y298.800
G1 X281.300 Y298.800
G1 X281.200 Y298.800
G1 X281.100 Y298.800
G1 X281.000 Y298.800
G1 X280.900 Y298.800
G1 X280.800 Y298.800
G1 X280.700 Y298.800
G1 X280.600 Y298.800
G1 X280.500 Y298.800
G1 X280.400 Y298.800
G1 X280.300 Y298.800
G1 X280.200 Y298.800
G1 X280.100 Y298.800
G1 X280.000 Y298.800
G1 X279.900 Y298.800
G1 X279.800 Y298.800
G1 X279.700 Y298.800
G1 X279.600 Y298.800
G1 X279.500 Y298.800
G1 X279.400 Y298.800
G1 X279.300 Y298.800
G1 X279.200 Y298.800
G1 X279.100 Y298.800
G1 X279.000 Y298.800
G1 X278.900 Y298.800
G1 X278.800 Y298.800
G1 X278.700 Y298.800
G1 X278.600 Y298.800
G1 X278.500 Y298.800
G1 X278.400 Y298.800
G1 X278.300 Y298.800
G1 X278.200 Y298.800
G1 X278.100 Y298.800
G1 X278.000 Y298.800
G1 X277.900 Y298.800
G1 X277.800 Y298.800
G1 X277.700 Y298.800
G1 X277.600 Y298.800
G1 X277.500 Y298.800
G1 X277.400 Y298.800
G1 X277.300 Y298.800
G1 X277.200 Y298.800
G1 X277.100 Y298.800
G1 X277.000 Y298.800
G1 X276.900 Y298.800
G1 X276.800 Y298.800
G1 X276.700 Y298.800
G1 X276.600 Y298.800
G1 X276.500 Y298.800
G1 X276.400 Y298.800
G1 X276.300 Y298.800
G1 X276.200 Y298.800
G1 X276.100 Y298.800
G1 X276.000 Y298.800
G1 X275.900 Y298.800
G1 X275.800 Y298.800
G1 X275.700 Y298.800
G1 X275.600 Y298.800
G1 X275.500 Y298.800
G1 X275.400 Y298.800
G1 X275.300 Y298.800
G1 X275.200 Y298.800
G1 X275.100 Y298.800
G1 X275.000 Y298.800
G1 X274.900 Y298.800
G1 X274.800 Y298.800
G1 X274.700 Y298.800
G1 X274.600 Y298.800
G1 X274.500 Y298.800
G1 X274.400 Y298.800
G1 X274.300 Y298.800
G1 X274.200 Y298.800
G1 X274.100 Y298.800
G1 X274.000 Y298.800
G1 X273.900 Y298.800
G1 X273.800 Y298.800
G1 X273.700 Y298.800
G1 X273.600 Y298.800
G1 X273.500 Y298.800
G1 X273.400 Y298.800
G1 X273.300 Y298.800
G1 X273.200 Y298.800
G1 X273.100 Y298.800
G1 X273.000 Y298.800
G1 X272.900 Y298.800
G1 X272.800 Y298.800
G1 X272.700 Y298.800
G1 X272.600 Y298.800
G1 X272.500 Y298.800
G1 X272.400 Y298.800
G1 X272.300 Y298.800
G1 X272.200 Y298.800
G1 X272.100 Y298.800
G1 X272.000 Y298.800
G1 X271.900 Y298.800
G1 X271.800 Y298.800
G1 X271.700 Y298.800
G1 X271.600 Y298.800
G1 X271.500 Y298.800
G1 X271.400 Y298.800
G1 X271.300 Y298.800
G1 X271.200 Y298.800
G1 X271.100 Y298.800
G1 X271.000 Y298.800
G1 X270.900 Y298.800
G1 X270.800 Y298.800
G1 X270.700 Y298.800
G1 X270.600 Y298.800
G1 X270.500 Y298.800
G1 X270.400 Y298.800
G1 X270.300 Y298.800
G1 X270.200 Y298.800
G1 X270.100 Y298.800
G1 X270.000 Y298.800
G1 X269.900 Y298.800
G1 X269.800 Y298.800
G1 X269.700 Y298.800
G1 X269.600 Y298.800
G1 X269.500 Y298.800
G0 Z4.600 F3000

; --- DIP → Color 4 — Purple ---
G0 Z4.600 F3000
M400
M204 P1200 T1200
G1 F1200
G0 X141.521 Y9.385 Z31.000
G1 Z0.000 F3000
G1 X141.521 Y9.385 F2500
G1 X141.521 Y11.885 F2500
G1 X136.521 Y9.385 F2500
G1 X141.521 Y1.885 F2500
G0 Z16.000 F3000
G0 X145.961 Y13.765
G0 Z31.000 F3000
G0 X269.400 Y298.800 Z4.600
M400
M204 P200 T200
G1 F400
G1 Z0.000 F2500
G1 X269.400 Y298.800
G1 X269.300 Y298.800
G1 X269.200 Y298.800
G1 X269.100 Y298.800
G1 X269.000 Y298.800
G1 X268.900 Y298.800
G1 X268.800 Y298.800
G1 X268.700 Y298.800
G1 X268.600 Y298.800
G1 X268.500 Y298.800
G1 X268.400 Y298.800
G1 X268.300 Y298.800
G1 X268.200 Y298.800
G1 X268.100 Y298.800
G1 X268.000 Y298.800
G1 X267.900 Y298.800
G1 X267.800 Y298.800
G1 X267.700 Y298.800
G1 X267.600 Y298.800
G1 X267.500 Y298.800
G1 X267.400 Y298.800
G1 X267.300 Y298.800
G1 X267.200 Y298.800
G1 X267.100 Y298.800
G1 X267.000 Y298.800
G1 X266.900 Y298.800
G1 X266.800 Y298.800
G1 X266.700 Y298.800
G1 X266.600 Y298.800
G1 X266.500 Y298.800
G1 X266.400 Y298.800
G1 X266.300 Y298.800
G1 X266.200 Y298.800
G1 X266.100 Y298.800
G1 X266.000 Y298.800
G1 X265.900 Y298.800
G1 X265.800 Y298.800
G1 X265.700 Y298.800
G1 X265.600 Y298.800
G1 X265.500 Y298.800
G1 X265.400 Y298.800
G1 X265.300 Y298.800
G1 X265.200 Y298.800
G1 X265.100 Y298.800
G1 X265.000 Y298.800
G1 X264.900 Y298.800
G1 X264.800 Y298.800
G1 X264.700 Y298.800
G1 X264.600 Y298.800
G1 X264.500 Y298.800
G1 X264.400 Y298.800
G1 X264.300 Y298.800
G1 X264.200 Y298.800
G1 X264.100 Y298.800
G1 X264.000 Y298.800
G1 X263.900 Y298.800
G1 X263.800 Y298.800
G1 X263.700 Y298.800
G1 X263.600 Y298.800
G1 X263.500 Y298.800
G1 X263.400 Y298.800
G1 X263.300 Y298.800
G1 X263.200 Y298.800
G1 X263.100 Y298.800
G1 X263.000 Y298.800
G0 Z4.600 F3000
M400
M204 P1200 T1200
G1 F1200
G0 X263.000 Y300.100 Z4.600
M400
M204 P200 T200
G1 F400
G1 Z0.000 F2500
G1 X263.100 Y300.100
G1 X263.200 Y300.100
G1 X263.300 Y300.100
G1 X263.400 Y300.100
G1 X263.500 Y300.100
G1 X263.600 Y300.100
G1 X263.700 Y300.100
G1 X263.800 Y300.100
G1 X263.900 Y300.100
G1 X264.000 Y300.100
G1 X264.100 Y300.100
G1 X264.200 Y300.100
G1 X264.300 Y300.100
G1 X264.400 Y300.100
G1 X264.500 Y300.100
G1 X264.600 Y300.100
G1 X264.700 Y300.100
G1 X264.800 Y300.100
G1 X264.900 Y300.100
G1 X265.000 Y300.100
G1 X265.100 Y300.100
G1 X265.200 Y300.100
G1 X265.300 Y300.100
G1 X265.400 Y300.100
G1 X265.500 Y300.100
G1 X265.600 Y300.100
G1 X265.700 Y300.100
G1 X265.800 Y300.100
G1 X265.900 Y300.100
G1 X266.000 Y300.100
G1 X266.100 Y300.100
G1 X266.200 Y300.100
G1 X266.300 Y300.100
G1 X266.400 Y300.100
G1 X266.500 Y300.100
G1 X266.600 Y300.100
G1 X266.700 Y300.100
G1 X266.800 Y300.100
G1 X266.900 Y300.100
G1 X267.000 Y300.100
G1 X267.100 Y300.100
G1 X267.200 Y300.100
G1 X267.300 Y300.100
G1 X267.400 Y300.100
G1 X267.500 Y300.100
G1 X267.600 Y300.100
G1 X267.700 Y300.100
G1 X267.800 Y300.100
G1 X267.900 Y300.100
G1 X268.000 Y300.100
G1 X268.100 Y300.100
G1 X268.200 Y300.100
G1 X268.300 Y300.100
G1 X268.400 Y300.100
G1 X268.500 Y300.100
G1 X268.600 Y300.100
G1 X268.700 Y300.100
G1 X268.800 Y300.100
G1 X268.900 Y300.100
G1 X269.000 Y300.100
G1 X269.100 Y300.100
G1 X269.200 Y300.100
G1 X269.300 Y300.100
G1 X269.400 Y300.100
G1 X269.500 Y300.100
G1 X269.600 Y300.100
G1 X269.700 Y300.100
G1 X269.800 Y300.100
G1 X269.900 Y300.100
G1 X270.000 Y300.100
G1 X270.100 Y300.100
G1 X270.200 Y300.100
G1 X270.300 Y300.100
G1 X270.400 Y300.100
G1 X270.500 Y300.100
G1 X270.600 Y300.100
G1 X270.700 Y300.100
G1 X270.800 Y300.100
G1 X270.900 Y300.100
G1 X271.000 Y300.100
G1 X271.100 Y300.100
G1 X271.200 Y300.100
G1 X271.300 Y300.100
G1 X271.400 Y300.100
G1 X271.500 Y300.100
G1 X271.600 Y300.100
G1 X271.700 Y300.100
G1 X271.800 Y300.100
G1 X271.900 Y300.100
G1 X272.000 Y300.100
G1 X272.100 Y300.100
G1 X272.200 Y300.100
G1 X272.300 Y300.100
G1 X272.400 Y300.100
G1 X272.500 Y300.100
G1 X272.600 Y300.100
G1 X272.700 Y300.100
G1 X272.800 Y300.100
G1 X272.900 Y300.100
G1 X273.000 Y300.100
G1 X273.100 Y300.100
G1 X273.200 Y300.100
G1 X273.300 Y300.100
G1 X273.400 Y300.100
G1 X273.500 Y300.100
G1 X273.600 Y300.100
G1 X273.700 Y300.100
G1 X273.800 Y300.100
G1 X273.900 Y300.100
G1 X274.000 Y300.100
G1 X274.100 Y300.100
G1 X274.200 Y300.100
G1 X274.300 Y300.100
G1 X274.400 Y300.100
G1 X274.500 Y300.100
G1 X274.600 Y300.100
G1 X274.700 Y300.100
G1 X274.800 Y300.100
G1 X274.900 Y300.100
G1 X275.000 Y300.100
G1 X275.100 Y300.100
G1 X275.200 Y300.100
G1 X275.300 Y300.100
G1 X275.400 Y300.100
G1 X275.500 Y300.100
G1 X275.600 Y300.100
G1 X275.700 Y300.100
G1 X275.800 Y300.100
G1 X275.900 Y300.100
G1 X276.000 Y300.100
G1 X276.100 Y300.100
G1 X276.200 Y300.100
G1 X276.300 Y300.100
G1 X276.400 Y300.100
G1 X276.500 Y300.100
G1 X276.600 Y300.100
G1 X276.700 Y300.100
G1 X276.800 Y300.100
G1 X276.900 Y300.100
G1 X277.000 Y300.100
G1 X277.100 Y300.100
G1 X277.200 Y300.100
G1 X277.300 Y300.100
G1 X277.400 Y300.100
G1 X277.500 Y300.100
G1 X277.600 Y300.100
G1 X277.700 Y300.100
G1 X277.800 Y300.100
G1 X277.900 Y300.100
G1 X278.000 Y300.100
G1 X278.100 Y300.100
G1 X278.200 Y300.100
G1 X278.300 Y300.100
G1 X278.400 Y300.100
G1 X278.500 Y300.100
G1 X278.600 Y300.100
G1 X278.700 Y300.100
G1 X278.800 Y300.100
G1 X278.900 Y300.100
G1 X279.000 Y300.100
G1 X279.100 Y300.100
G1 X279.200 Y300.100
G1 X279.300 Y300.100
G1 X279.400 Y300.100
G1 X279.500 Y300.100
G1 X279.600 Y300.100
G1 X279.700 Y300.100
G1 X279.800 Y300.100
G1 X279.900 Y300.100
G1 X280.000 Y300.100
G1 X280.100 Y300.100
G1 X280.200 Y300.100
G1 X280.300 Y300.100
G1 X280.400 Y300.100
G1 X280.500 Y300.100
G1 X280.600 Y300.100
G1 X280.700 Y300.100
G1 X280.800 Y300.100
G1 X280.900 Y300.100
G1 X281.000 Y300.100
G1 X281.100 Y300.100
G1 X281.200 Y300.100
G1 X281.300 Y300.100
G1 X281.400 Y300.100
G1 X281.500 Y300.100
G1 X281.600 Y300.100
G1 X281.700 Y300.100
G1 X281.800 Y300.100
G1 X281.900 Y300.100
G1 X282.000 Y300.100
G1 X282.100 Y300.100
G1 X282.200 Y300.100
G1 X282.300 Y300.100
G1 X282.400 Y300.100
G1 X282.500 Y300.100
G1 X282.600 Y300.100
G1 X282.700 Y300.100
G1 X282.800 Y300.100
G1 X282.900 Y300.100
G1 X283.000 Y300.100
G1 X283.100 Y300.100
G1 X283.200 Y300.100
G1 X283.300 Y300.100
G1 X283.400 Y300.100
G1 X283.500 Y300.100
G1 X283.600 Y300.100
G1 X283.700 Y300.100
G1 X283.800 Y300.100
G1 X283.900 Y300.100
G1 X284.000 Y300.100
G1 X284.100 Y300.100
G1 X284.200 Y300.100
G1 X284.300 Y300.100
G1 X284.400 Y300.100
G1 X284.500 Y300.100
G1 X284.600 Y300.100
G1 X284.700 Y300.100
G1 X284.800 Y300.100
G1 X284.900 Y300.100
G1 X285.000 Y300.100
G1 X285.100 Y300.100
G1 X285.200 Y300.100
G1 X285.300 Y300.100
G1 X285.400 Y300.100
G1 X285.500 Y300.100
G1 X285.600 Y300.100
G1 X285.700 Y300.100
G1 X285.800 Y300.100
G1 X285.900 Y300.100
G1 X286.000 Y300.100
G1 X286.100 Y300.100
G1 X286.200 Y300.100
G1 X286.300 Y300.100
G1 X286.400 Y300.100
G1 X286.500 Y300.100
G1 X286.600 Y300.100
G1 X286.700 Y300.100
G1 X286.800 Y300.100
G1 X286.900 Y300.100
G1 X287.000 Y300.100
G1 X287.100 Y300.100
G1 X287.200 Y300.100
G1 X287.300 Y300.100
G1 X287.400 Y300.100
G1 X287.500 Y300.100
G1 X287.600 Y300.100
G1 X287.700 Y300.100
G1 X287.800 Y300.100
G1 X287.900 Y300.100
G1 X288.000 Y300.100
G1 X288.100 Y300.100
G1 X288.200 Y300.100
G1 X288.300 Y300.100
G1 X288.400 Y300.100
G1 X288.500 Y300.100
G1 X288.600 Y300.100
G1 X288.700 Y300.100
G1 X288.800 Y300.100
G1 X288.900 Y300.100
G1 X289.000 Y300.100
G1 X289.100 Y300.100
G1 X289.200 Y300.100
G1 X289.300 Y300.100
G1 X289.400 Y300.100
G1 X289.500 Y300.100
G1 X289.600 Y300.100
G1 X289.700 Y300.100
G1 X289.800 Y300.100
G1 X289.900 Y300.100
G1 X290.000 Y300.100
G1 X290.100 Y300.100
G1 X290.200 Y300.100
G1 X290.300 Y300.100
G1 X290.400 Y300.100
G1 X290.500 Y300.100
G1 X290.600 Y300.100
G1 X290.700 Y300.100
G1 X290.800 Y300.100
G1 X290.900 Y300.100
G1 X291.000 Y300.100
G1 X291.100 Y300.100
G1 X291.200 Y300.100
G1 X291.300 Y300.100
G1 X291.400 Y300.100
G1 X291.500 Y300.100
G1 X291.600 Y300.100
G1 X291.700 Y300.100
G1 X291.800 Y300.100
G1 X291.900 Y300.100
G1 X292.000 Y300.100
G1 X292.100 Y300.100
G1 X292.200 Y300.100
G1 X292.300 Y300.100
G1 X292.400 Y300.100
G1 X292.500 Y300.100
G1 X292.600 Y300.100
G1 X292.700 Y300.100
G1 X292.800 Y300.100
G1 X292.900 Y300.100
G1 X293.000 Y300.100
G1 X293.100 Y300.100
G1 X293.200 Y300.100
G1 X293.300 Y300.100
G1 X293.400 Y300.100
G1 X293.500 Y300.100
G1 X293.600 Y300.100
G1 X293.700 Y300.100
G1 X293.800 Y300.100
G1 X293.900 Y300.100
G1 X294.000 Y300.100
G1 X294.100 Y300.100
G1 X294.200 Y300.100
G1 X294.300 Y300.100
G1 X294.400 Y300.100
G1 X294.500 Y300.100
G1 X294.600 Y300.100
G1 X294.700 Y300.100
G1 X294.800 Y300.100
G1 X294.900 Y300.100
G1 X295.000 Y300.100
G1 X295.100 Y300.100
G1 X295.200 Y300.100
G1 X295.300 Y300.100
G1 X295.400 Y300.100
G1 X295.500 Y300.100
G1 X295.600 Y300.100
G1 X295.700 Y300.100
G1 X295.800 Y300.100
G1 X295.900 Y300.100
G1 X296.000 Y300.100
G1 X296.100 Y300.100
G1 X296.200 Y300.100
G1 X296.300 Y300.100
G1 X296.400 Y300.100
G1 X296.500 Y300.100
G1 X296.600 Y300.100
G1 X296.700 Y300.100
G1 X296.800 Y300.100
G1 X296.900 Y300.100
G1 X297.000 Y300.100
G1 X297.100 Y300.100
G1 X297.200 Y300.100
G1 X297.300 Y300.100
G1 X297.400 Y300.100
G1 X297.500 Y300.100
G1 X297.600 Y300.100
G1 X297.700 Y300.100
G1 X297.800 Y300.100
G1 X297.900 Y300.100
G1 X298.000 Y300.100
G1 X298.100 Y300.100
G1 X298.200 Y300.100
G1 X298.300 Y300.100
G1 X298.400 Y300.100
G1 X298.500 Y300.100
G1 X298.600 Y300.100
G1 X298.700 Y300.100
G1 X298.800 Y300.100
G1 X298.900 Y300.100
G1 X299.000 Y300.100
G1 X299.100 Y300.100
G1 X299.200 Y300.100
G1 X299.300 Y300.100
G1 X299.400 Y300.100
G1 X299.500 Y300.100
G1 X299.600 Y300.100
G1 X299.700 Y300.100
G1 X299.800 Y300.100
G1 X299.900 Y300.100
G1 X300.000 Y300.100
G1 X300.100 Y300.100
G1 X300.200 Y300.100
G1 X300.300 Y300.100
G1 X300.400 Y300.100
G1 X300.500 Y300.100
G1 X300.600 Y300.100
G1 X300.700 Y300.100
G1 X300.800 Y300.100
G1 X300.900 Y300.100
G1 X301.000 Y300.100
G1 X301.100 Y300.100
G1 X301.200 Y300.100
G1 X301.300 Y300.100
G1 X301.400 Y300.100
G1 X301.500 Y300.100
G1 X301.600 Y300.100
G1 X301.700 Y300.100
G1 X301.800 Y300.100
G1 X301.900 Y300.100
G1 X302.000 Y300.100
G1 X302.100 Y300.100
G1 X302.200 Y300.100
G1 X302.300 Y300.100
G1 X302.400 Y300.100
G1 X302.500 Y300.100
G1 X302.600 Y300.100
G1 X302.700 Y300.100
G1 X302.800 Y300.100
G1 X302.900 Y300.100
G1 X303.000 Y300.100
G1 X303.100 Y300.100
G1 X303.200 Y300.100
G1 X303.300 Y300.100
G1 X303.400 Y300.100
G1 X303.500 Y300.100
G1 X303.600 Y300.100
G1 X303.700 Y300.100
G1 X303.800 Y300.100
G1 X303.900 Y300.100
G1 X304.000 Y300.100
G1 X304.100 Y300.100
G1 X304.200 Y300.100
G1 X304.300 Y300.100
G1 X304.400 Y300.100
G1 X304.500 Y300.100
G1 X304.600 Y300.100
G1 X304.700 Y300.100
G1 X304.800 Y300.100
G1 X304.900 Y300.100
G1 X305.000 Y300.100
G1 X305.100 Y300.100
G1 X305.200 Y300.100
G1 X305.300 Y300.100
G1 X305.400 Y300.100
G1 X305.500 Y300.100
G1 X305.600 Y300.100
G1 X305.700 Y300.100
G1 X305.800 Y300.100
G1 X305.900 Y300.100
G1 X306.000 Y300.100
G1 X306.100 Y300.100
G1 X306.200 Y300.100
G1 X306.300 Y300.100
G1 X306.400 Y300.100
G1 X306.500 Y300.100
G1 X306.600 Y300.100
G1 X306.700 Y300.100
G1 X306.800 Y300.100
G1 X306.900 Y300.100
G1 X307.000 Y300.100
G1 X307.100 Y300.100
G1 X307.200 Y300.100
G1 X307.300 Y300.100
G1 X307.400 Y300.100
G1 X307.500 Y300.100
G1 X307.600 Y300.100
G1 X307.700 Y300.100
G1 X307.800 Y300.100
G1 X307.900 Y300.100
G1 X308.000 Y300.100
G1 X308.100 Y300.100
G1 X308.200 Y300.100
G1 X308.300 Y300.100
G1 X308.400 Y300.100
G1 X308.500 Y300.100
G1 X308.600 Y300.100
G1 X308.700 Y300.100
G1 X308.800 Y300.100
G1 X308.900 Y300.100
G1 X309.000 Y300.100
G1 X309.100 Y300.100
G1 X309.200 Y300.100
G1 X309.300 Y300.100
G1 X309.400 Y300.100
G1 X309.500 Y300.100
G1 X309.600 Y300.100
G1 X309.700 Y300.100
G1 X309.800 Y300.100
G1 X309.900 Y300.100
G1 X310.000 Y300.100
G1 X310.100 Y300.100
G1 X310.200 Y300.100
G1 X310.300 Y300.100
G1 X310.400 Y300.100
G1 X310.500 Y300.100
G1 X310.600 Y300.100
G1 X310.700 Y300.100
G1 X310.800 Y300.100
G1 X310.900 Y300.100
G1 X311.000 Y300.100
G1 X311.100 Y300.100
G1 X311.200 Y300.100
G1 X311.300 Y300.100
G1 X311.400 Y300.100
G1 X311.500 Y300.100
G1 X311.600 Y300.100
G1 X311.700 Y300.100
G1 X311.800 Y300.100
G1 X311.900 Y300.100
G1 X312.000 Y300.100
G1 X312.100 Y300.100
G1 X312.200 Y300.100
G1 X312.300 Y300.100
G1 X312.400 Y300.100
G1 X312.500 Y300.100
G1 X312.600 Y300.100
G1 X312.700 Y300.100
G1 X312.800 Y300.100
G1 X312.900 Y300.100
G1 X313.000 Y300.100
G1 X313.100 Y300.100
G1 X313.200 Y300.100
G1 X313.300 Y300.100
G1 X313.400 Y300.100
G1 X313.500 Y300.100
G1 X313.600 Y300.100
G1 X313.700 Y300.100
G1 X313.800 Y300.100
G1 X313.900 Y300.100
G1 X314.000 Y300.100
G1 X314.100 Y300.100
G1 X314.200 Y300.100
G1 X314.300 Y300.100
G1 X314.400 Y300.100
G1 X314.500 Y300.100
G1 X314.600 Y300.100
G1 X314.700 Y300.100
G1 X314.800 Y300.100
G1 X314.900 Y300.100
G1 X315.000 Y300.100
G1 X315.100 Y300.100
G1 X315.200 Y300.100
G1 X315.300 Y300.100
G1 X315.400 Y300.100
G1 X315.500 Y300.100
G1 X315.600 Y300.100
G1 X315.700 Y300.100
G1 X315.800 Y300.100
G1 X315.900 Y300.100
G1 X316.000 Y300.100
G1 X316.100 Y300.100
G1 X316.200 Y300.100
G1 X316.300 Y300.100
G1 X316.400 Y300.100
G1 X316.500 Y300.100
G1 X316.600 Y300.100
G1 X316.700 Y300.100
G1 X316.800 Y300.100
G1 X316.900 Y300.100
G1 X317.000 Y300.100
G1 X317.100 Y300.100
G1 X317.200 Y300.100
G1 X317.300 Y300.100
G1 X317.400 Y300.100
G1 X317.500 Y300.100
G1 X317.600 Y300.100
G1 X317.700 Y300.100
G1 X317.800 Y300.100
G1 X317.900 Y300.100
G1 X318.000 Y300.100
G1 X318.100 Y300.100
G1 X318.200 Y300.100
G1 X318.300 Y300.100
G1 X318.400 Y300.100
G1 X318.500 Y300.100
G1 X318.600 Y300.100
G1 X318.700 Y300.100
G1 X318.800 Y300.100
G1 X318.900 Y300.100
G1 X319.000 Y300.100
G1 X319.100 Y300.100
G1 X319.200 Y300.100
G1 X319.300 Y300.100
G1 X319.400 Y300.100
G1 X319.500 Y300.100
G1 X319.600 Y300.100
G1 X319.700 Y300.100
G1 X319.800 Y300.100
G1 X319.900 Y300.100
G1 X320.000 Y300.100
G1 X320.100 Y300.100
G1 X320.200 Y300.100
G1 X320.300 Y300.100
G1 X320.400 Y300.100
G1 X320.500 Y300.100
G1 X320.600 Y300.100
G1 X320.700 Y300.100
G1 X320.800 Y300.100
G1 X320.900 Y300.100
G1 X321.000 Y300.100
G1 X321.100 Y300.100
G1 X321.200 Y300.100
G1 X321.300 Y300.100
G1 X321.400 Y300.100
G1 X321.500 Y300.100
G1 X321.600 Y300.100
G1 X321.700 Y300.100
G1 X321.800 Y300.100
G1 X321.900 Y300.100
G1 X322.000 Y300.100
G1 X322.100 Y300.100
G1 X322.200 Y300.100
G1 X322.300 Y300.100
G1 X322.400 Y300.100
G1 X322.500 Y300.100
G1 X322.600 Y300.100
G1 X322.700 Y300.100
G1 X322.800 Y300.100
G1 X322.900 Y300.100
G1 X323.000 Y300.100
G1 X323.100 Y300.100
G1 X323.200 Y300.100
G1 X323.300 Y300.100
G1 X323.400 Y300.100
G1 X323.500 Y300.100
G1 X323.600 Y300.100
G1 X323.700 Y300.100
G1 X323.800 Y300.100
G1 X323.900 Y300.100
G1 X324.000 Y300.100
G1 X324.100 Y300.100
G1 X324.200 Y300.100
G1 X324.300 Y300.100
G1 X324.400 Y300.100
G1 X324.500 Y300.100
G1 X324.600 Y300.100
G1 X324.700 Y300.100
G1 X324.800 Y300.100
G1 X324.900 Y300.100
G1 X325.000 Y300.100
G1 X325.100 Y300.100
G1 X325.200 Y300.100
G1 X325.300 Y300.100
G1 X325.400 Y300.100
G1 X325.500 Y300.100
G1 X325.600 Y300.100
G1 X325.700 Y300.100
G1 X325.800 Y300.100
G1 X325.900 Y300.100
G1 X326.000 Y300.100
G1 X326.100 Y300.100
G1 X326.200 Y300.100
G1 X326.300 Y300.100
G1 X326.400 Y300.100
G1 X326.500 Y300.100
G1 X326.600 Y300.100
G1 X326.700 Y300.100
G1 X326.800 Y300.100
G1 X326.900 Y300.100
G1 X327.000 Y300.100
G1 X327.100 Y300.100
G1 X327.200 Y300.100
G1 X327.300 Y300.100
G1 X327.400 Y300.100
G1 X327.500 Y300.100
G1 X327.600 Y300.100
G1 X327.700 Y300.100
G1 X327.800 Y300.100
G1 X327.900 Y300.100
G1 X328.000 Y300.100
G1 X328.100 Y300.100
G1 X328.200 Y300.100
G1 X328.300 Y300.100
G1 X328.400 Y300.100
G1 X328.500 Y300.100
G1 X328.600 Y300.100
G1 X328.700 Y300.100
G1 X328.800 Y300.100
G1 X328.900 Y300.100
G1 X329.000 Y300.100
G1 X329.100 Y300.100
G1 X329.200 Y300.100
G1 X329.300 Y300.100
G1 X329.400 Y300.100
G1 X329.500 Y300.100
G1 X329.600 Y300.100
G1 X329.700 Y300.100
G1 X329.800 Y300.100
G1 X329.900 Y300.100
G1 X330.000 Y300.100
G1 X330.100 Y300.100
G1 X330.200 Y300.100
G1 X330.300 Y300.100
G1 X330.400 Y300.100
G1 X330.500 Y300.100
G1 X330.600 Y300.100
G1 X330.700 Y300.100
G1 X330.800 Y300.100
G1 X330.900 Y300.100
G1 X331.000 Y300.100
G1 X331.100 Y300.100
G1 X331.200 Y300.100
G1 X331.300 Y300.100
G1 X331.400 Y300.100
G1 X331.500 Y300.100
G1 X331.600 Y300.100
G1 X331.700 Y300.100
G1 X331.800 Y300.100
G1 X331.900 Y300.100
G1 X332.000 Y300.100
G1 X332.100 Y300.100
G1 X332.200 Y300.100
G1 X332.300 Y300.100
G1 X332.400 Y300.100
G1 X332.500 Y300.100
G1 X332.600 Y300.100
G1 X332.700 Y300.100
G1 X332.800 Y300.100
G1 X332.900 Y300.100
G1 X333.000 Y300.100
G1 X333.100 Y300.100
G1 X333.200 Y300.100
G1 X333.300 Y300.100
G1 X333.400 Y300.100
G1 X333.500 Y300.100
G1 X333.600 Y300.100
G1 X333.700 Y300.100
G1 X333.800 Y300.100
G1 X333.900 Y300.100
G1 X334.000 Y300.100
G1 X334.100 Y300.100
G1 X334.200 Y300.100
G1 X334.300 Y300.100
G1 X334.400 Y300.100
G1 X334.500 Y300.100
G1 X334.600 Y300.100
G1 X334.700 Y300.100
G1 X334.800 Y300.100
G1 X334.900 Y300.100
G1 X335.000 Y300.100
G1 X335.100 Y300.100
G1 X335.200 Y300.100
G1 X335.300 Y300.100
G1 X335.400 Y300.100
G1 X335.500 Y300.100
G1 X335.600 Y300.100
G1 X335.700 Y300.100
G1 X335.800 Y300.100
G1 X335.900 Y300.100
G1 X336.000 Y300.100
G1 X336.100 Y300.100
G1 X336.200 Y300.100
G1 X336.300 Y300.100
G1 X336.400 Y300.100
G1 X336.500 Y300.100
G1 X336.600 Y300.100
G1 X336.700 Y300.100
G1 X336.800 Y300.100
G1 X336.900 Y300.100
G1 X337.000 Y300.100
G1 X337.100 Y300.100
G1 X337.200 Y300.100
G1 X337.300 Y300.100
G1 X337.400 Y300.100
G1 X337.500 Y300.100
G1 X337.600 Y300.100
G1 X337.700 Y300.100
G1 X337.800 Y300.100
G1 X337.900 Y300.100
G1 X338.000 Y300.100
G1 X338.100 Y300.100
G1 X338.200 Y300.100
G1 X338.300 Y300.100
G1 X338.400 Y300.100
G1 X338.500 Y300.100
G1 X338.600 Y300.100
G1 X338.700 Y300.100
G1 X338.800 Y300.100
G1 X338.900 Y300.100
G1 X339.000 Y300.100
G1 X339.100 Y300.100
G1 X339.200 Y300.100
G1 X339.300 Y300.100
G1 X339.400 Y300.100
G1 X339.500 Y300.100
G1 X339.600 Y300.100
G1 X339.700 Y300.100
G1 X339.800 Y300.100
G1 X339.900 Y300.100
G1 X340.000 Y300.100
G1 X340.100 Y300.100
G1 X340.200 Y300.100
G1 X340.300 Y300.100
G1 X340.400 Y300.100
G1 X340.500 Y300.100
G1 X340.600 Y300.100
G1 X340.700 Y300.100
G1 X340.800 Y300.100
G1 X340.900 Y300.100
G1 X341.000 Y300.100
G1 X341.100 Y300.100
G1 X341.200 Y300.100
G1 X341.300 Y300.100
G1 X341.400 Y300.100
G1 X341.500 Y300.100
G1 X341.600 Y300.100
G1 X341.700 Y300.100
G1 X341.800 Y300.100
G1 X341.900 Y300.100
G1 X342.000 Y300.100
G1 X342.100 Y300.100
G1 X342.200 Y300.100
G1 X342.300 Y300.100
G1 X342.400 Y300.100
G1 X342.500 Y300.100
G1 X342.600 Y300.100
G1 X342.700 Y300.100
G1 X342.800 Y300.100
G1 X342.900 Y300.100
G1 X343.000 Y300.100
G1 X343.100 Y300.100
G1 X343.200 Y300.100
G1 X343.300 Y300.100
G1 X343.400 Y300.100
G1 X343.500 Y300.100
G1 X343.600 Y300.100
G1 X343.700 Y300.100
G1 X343.800 Y300.100
G1 X343.900 Y300.100
G1 X344.000 Y300.100
G1 X344.100 Y300.100
G1 X344.200 Y300.100
G1 X344.300 Y300.100
G1 X344.400 Y300.100
G1 X344.500 Y300.100
G1 X344.600 Y300.100
G1 X344.700 Y300.100
G1 X344.800 Y300.100
G1 X344.900 Y300.100
G1 X345.000 Y300.100
G1 X345.100 Y300.100
G1 X345.200 Y300.100
G1 X345.300 Y300.100
G1 X345.400 Y300.100
G1 X345.500 Y300.100
G1 X345.600 Y300.100
G1 X345.700 Y300.100
G1 X345.800 Y300.100
G1 X345.900 Y300.100
G1 X346.000 Y300.100
G1 X346.100 Y300.100
G1 X346.200 Y300.100
G1 X346.300 Y300.100
G1 X346.400 Y300.100
G1 X346.500 Y300.100
G1 X346.600 Y300.100
G1 X346.700 Y300.100
G1 X346.800 Y300.100
G1 X346.900 Y300.100
G1 X347.000 Y300.100
G1 X347.100 Y300.100
G1 X347.200 Y300.100
G1 X347.300 Y300.100
G1 X347.400 Y300.100
G1 X347.500 Y300.100
G1 X347.600 Y300.100
G1 X347.700 Y300.100
G1 X347.800 Y300.100
G1 X347.900 Y300.100
G1 X348.000 Y300.100
G1 X348.100 Y300.100
G1 X348.200 Y300.100
G1 X348.300 Y300.100
G1 X348.400 Y300.100
G1 X348.500 Y300.100
G1 X348.600 Y300.100
G1 X348.700 Y300.100
G1 X348.800 Y300.100
G1 X348.900 Y300.100
G1 X349.000 Y300.100
G1 X349.100 Y300.100
G1 X349.200 Y300.100
G1 X349.300 Y300.100
G1 X349.400 Y300.100
G1 X349.500 Y300.100
G1 X349.600 Y300.100
G1 X349.700 Y300.100
G1 X349.800 Y300.100
G1 X349.900 Y300.100
G1 X350.000 Y300.100
G1 X350.100 Y300.100
G1 X350.200 Y300.100
G1 X350.300 Y300.100
G1 X350.400 Y300.100
G1 X350.500 Y300.100
G1 X350.600 Y300.100
G1 X350.700 Y300.100
G1 X350.800 Y300.100
G1 X350.900 Y300.100
G1 X351.000 Y300.100
G1 X351.100 Y300.100
G1 X351.200 Y300.100
G1 X351.300 Y300.100
G1 X351.400 Y300.100
G1 X351.500 Y300.100
G1 X351.600 Y300.100
G1 X351.700 Y300.100
G1 X351.800 Y300.100
G1 X351.900 Y300.100
G1 X352.000 Y300.100
G1 X352.100 Y300.100
G1 X352.200 Y300.100
G1 X352.300 Y300.100
G1 X352.400 Y300.100
G1 X352.500 Y300.100
G1 X352.600 Y300.100
G1 X352.700 Y300.100
G1 X352.800 Y300.100
G1 X352.900 Y300.100
G1 X353.000 Y300.100
G1 X353.100 Y300.100
G1 X353.200 Y300.100
G1 X353.300 Y300.100
G1 X353.400 Y300.100
G1 X353.500 Y300.100
G1 X353.600 Y300.100
G1 X353.700 Y300.100
G1 X353.800 Y300.100
G1 X353.900 Y300.100
G1 X354.000 Y300.100
G1 X354.100 Y300.100
G1 X354.200 Y300.100
G1 X354.300 Y300.100
G1 X354.400 Y300.100
G1 X354.500 Y300.100
G1 X354.600 Y300.100
G1 X354.700 Y300.100
G1 X354.800 Y300.100
G1 X354.900 Y300.100
G1 X355.000 Y300.100
G1 X355.100 Y300.100
G1 X355.200 Y300.100
G1 X355.300 Y300.100
G1 X355.400 Y300.100
G1 X355.500 Y300.100
G1 X355.600 Y300.100
G1 X355.700 Y300.100
G1 X355.800 Y300.100
G1 X355.900 Y300.100
G1 X356.000 Y300.100
G1 X356.100 Y300.100
G1 X356.200 Y300.100
G1 X356.300 Y300.100
G1 X356.400 Y300.100
G0 Z4.600 F3000

; --- DIP → Color 1 — Red ---
G0 Z4.600 F3000
M400
M204 P1200 T1200
G1 F1200
G0 X30.458 Y0.000 Z31.000
G1 Z0.000 F3000
G1 X30.458 Y0.000 F2500
G1 X30.458 Y2.500 F2500
G1 X25.458 Y0.000 F2500
G1 X30.458 Y0.000 F2500
G0 Z16.000 F3000
G0 X31.195 Y9.984
G0 Z31.000 F3000
G0 X356.500 Y300.100 Z4.600
M400
M204 P200 T200
G1 F400
G1 Z0.000 F2500
G1 X356.500 Y300.100
G1 X356.600 Y300.100
G1 X356.700 Y300.100
G1 X356.800 Y300.100
G1 X356.900 Y300.100
G1 X357.000 Y300.100
G1 X357.100 Y300.100
G1 X357.200 Y300.100
G1 X357.300 Y300.100
G1 X357.400 Y300.100
G1 X357.500 Y300.100
G1 X357.600 Y300.100
G1 X357.700 Y300.100
G1 X357.800 Y300.100
G1 X357.900 Y300.100
G1 X358.000 Y300.100
G1 X358.100 Y300.100
G1 X358.200 Y300.100
G1 X358.300 Y300.100
G1 X358.400 Y300.100
G1 X358.500 Y300.100
G1 X358.600 Y300.100
G1 X358.700 Y300.100
G1 X358.800 Y300.100
G1 X358.900 Y300.100
G1 X359.000 Y300.100
G1 X359.100 Y300.100
G1 X359.200 Y300.100
G1 X359.300 Y300.100
G1 X359.400 Y300.100
G1 X359.500 Y300.100
G1 X359.600 Y300.100
G1 X359.700 Y300.100
