G90 ; Force absolute mode
;LightBurn 1.6.04
;Custom GCode device profile, absolute coords
;Bounds: X23.34 Y11.05 to X66.66 Y54.95
G00 G17 G40 G21 G54
M3
G1 Z10 F444
;Cut @ 333 mm/min, 80% power

M8
G0 Z3.5 F444
G0 X34.878 Y18.391 Z3.5
G1 Z0 F444
;Layer C3 Pass 1 of 2
; --- FIX X Backlash ---
G0 X34.178 Y18.391 F410
G1 X34.113 Z0 F444
G1 X33.531 Y18.65 Z0 F444
; --- FIX X Backlash ---
G0 X34.231 Y18.65 F410
G1 X35.266 Y19.557 Z0 F444
; --- FIX Y Backlash ---
G0 X35.266 Y19.057 F410
G1 X35.434 Y18.647 Z0 F444
G1 X35.534 Y18.393 Z0 F444
G1 X35.636 Y18.121 Z0 F444
G1 X35.731 Y17.855 Z0 F444
G1 X35.805 Y17.619 Z0 F444
G1 X35.849 Y17.438 Z0 F444
G1 X35.829 Y17.299 Z0 F444
; --- FIX X Backlash ---
G0 X35.129 Y17.299 F410
G1 X35.035 Y17.173 Z0 F444
G1 X34.891 Y17.063 Z0 F444
G1 X34.72 Y16.969 Z0 F444
G1 X34.547 Y16.893 Z0 F444
G1 X34.394 Y16.837 Z0 F444
G1 X34.243 Y16.791 Z0 F444
G1 X34.19 Y16.803 Z0 F444
G1 X34.049 Y16.839 Z0 F444
; --- FIX Y Backlash ---
G0 X34.049 Y17.339 F410
G1 X33.847 Y17.4 Z0 F444
G1 X33.612 Y17.485 Z0 F444
G1 X33.37 Y17.594 Z0 F444
G1 X33.15 Y17.728 Z0 F444
G1 X32.979 Y17.885 Z0 F444
G1 X32.883 Y18.068 Z0 F444
G1 X32.813 Y18.286 Z0 F444
G1 X32.707 Y18.539 Z0 F444
G1 X32.581 Y18.807 Z0 F444
G1 X32.446 Y19.071 Z0 F444
G1 X32.318 Y19.31 Z0 F444
G1 X32.21 Y19.506 Z0 F444
G1 X32.106 Y19.686 Z0 F444
; --- FIX X Backlash ---
G0 X32.806 Y19.686 F410
G1 X33.065 Y19.767 Z0 F444
G1 X33.339 Y19.85 Z0 F444
G1 X33.664 Y19.945 Z0 F444
G1 X34.008 Y20.04 Z0 F444
G1 X34.336 Y20.123 Z0 F444
G1 X34.616 Y20.182 Z0 F444
G1 X34.813 Y20.204 Z0 F444
G1 X36.367 Z0 F444
G1 X36.495 Y20.238 Z0 F444
G1 X36.592 Y20.331 Z0 F444
G1 X36.661 Y20.47 Z0 F444
G1 X36.707 Y20.641 Z0 F444
G1 X36.749 Y21.023 Z0 F444
G1 X36.755 Y21.369 Z0 F444
G1 X36.789 Y21.561 Z0 F444
G1 X36.877 Y21.826 Z0 F444
G1 X37.001 Y22.134 Z0 F444
G1 X37.144 Y22.454 Z0 F444
G1 X37.287 Y22.755 Z0 F444
G1 X37.461 Y23.107 Z0 F444
G1 X37.532 Y23.247 Z0 F444
G1 X37.662 Y23.318 Z0 F444
G1 X37.805 Y23.393 Z0 F444
G1 X37.985 Y23.481 Z0 F444
G1 X38.406 Y23.656 Z0 F444
G1 X38.827 Y23.764 Z0 F444
G1 X39.031 Y23.814 Z0 F444
G1 X39.248 Y23.903 Z0 F444
G1 X39.464 Y24.018 Z0 F444
G1 X39.669 Y24.145 Z0 F444
G1 X39.849 Y24.268 Z0 F444
G1 X39.992 Y24.374 Z0 F444
G1 X40.122 Y24.477 Z0 F444
G1 X40.64 Y25.642 Z0 F444
G1 X41.158 Y26.419 Z0 F444
; --- FIX X Backlash ---
G0 X40.458 Y26.419 F410
G1 X40.263 Y31.468 Z0 F444
;Layer C3 Pass 2 of 2
; --- FIX X Backlash ---
G0 X40.963 Y31.468 F410
; --- FIX Y Backlash ---
G0 X40.963 Y30.968 F410
G1 X41.158 Y25.919 Z0 F444
; --- FIX X Backlash ---
G0 X40.458 Y25.919 F410
G1 X39.94 Y25.142 Z0 F444
G1 X39.422 Y23.977 Z0 F444
G1 X39.292 Y23.874 Z0 F444
G1 X39.149 Y23.768 Z0 F444
G1 X38.969 Y23.645 Z0 F444
G1 X38.764 Y23.518 Z0 F444
G1 X38.548 Y23.403 Z0 F444
G1 X38.331 Y23.314 Z0 F444
G1 X38.127 Y23.264 Z0 F444
G1 X37.706 Y23.156 Z0 F444
G1 X37.285 Y22.981 Z0 F444
G1 X37.105 Y22.893 Z0 F444
G1 X36.962 Y22.818 Z0 F444
G1 X36.832 Y22.747 Z0 F444
G1 X36.761 Y22.607 Z0 F444
G1 X36.587 Y22.255 Z0 F444
G1 X36.444 Y21.954 Z0 F444
G1 X36.301 Y21.634 Z0 F444
G1 X36.177 Y21.326 Z0 F444
G1 X36.089 Y21.061 Z0 F444
G1 X36.055 Y20.869 Z0 F444
G1 X36.049 Y20.523 Z0 F444
G1 X36.007 Y20.141 Z0 F444
G1 X35.961 Y19.97 Z0 F444
G1 X35.892 Y19.831 Z0 F444
G1 X35.795 Y19.738 Z0 F444
G1 X35.667 Y19.704 Z0 F444
G1 X34.113 Z0 F444
G1 X33.916 Y19.682 Z0 F444
G1 X33.636 Y19.623 Z0 F444
G1 X33.308 Y19.54 Z0 F444
G1 X32.964 Y19.445 Z0 F444
G1 X32.639 Y19.35 Z0 F444
G1 X32.365 Y19.267 Z0 F444
G1 X32.106 Y19.186 Z0 F444
; --- FIX X Backlash ---
G0 X32.806 Y19.186 F410
G1 X32.91 Y19.006 Z0 F444
G1 X33.018 Y18.81 Z0 F444
G1 X33.146 Y18.571 Z0 F444
G1 X33.281 Y18.307 Z0 F444
G1 X33.407 Y18.039 Z0 F444
G1 X33.513 Y17.786 Z0 F444
G1 X33.583 Y17.568 Z0 F444
G1 X33.679 Y17.385 Z0 F444
G1 X33.85 Y17.228 Z0 F444
G1 X34.07 Y17.094 Z0 F444
G1 X34.312 Y16.985 Z0 F444
G1 X34.547 Y16.9 Z0 F444
G1 X34.749 Y16.839 Z0 F444
G1 X34.89 Y16.803 Z0 F444
G1 X34.943 Y16.791 Z0 F444
G1 X35.094 Y16.837 Z0 F444
; --- FIX Y Backlash ---
G0 X35.094 Y17.337 F410
G1 X35.247 Y17.393 Z0 F444
G1 X35.42 Y17.469 Z0 F444
G1 X35.591 Y17.563 Z0 F444
G1 X35.735 Y17.673 Z0 F444
G1 X35.829 Y17.799 Z0 F444
G1 X35.849 Y17.938 Z0 F444
G1 X35.805 Y18.119 Z0 F444
; --- FIX X Backlash ---
G0 X35.105 Y18.119 F410
G1 X35.031 Y18.355 Z0 F444
G1 X34.936 Y18.621 Z0 F444
G1 X34.834 Y18.893 Z0 F444
G1 X34.734 Y19.147 Z0 F444
G1 X34.566 Y19.557 Z0 F444
; --- FIX Y Backlash ---
G0 X34.566 Y19.057 F410
G1 X33.531 Y18.15 Z0 F444
; --- FIX X Backlash ---
G0 X34.231 Y18.15 F410
G1 X34.813 Y17.891 Z0 F444
G1 X34.878 Z0 F444
G0 Z3.5 F444
; --- FIX Y Backlash ---
G0 X34.878 Y18.391 F410
G0 X46.531 Y31.048 Z3.5 F444
G1 Z0 F444
;Layer C3 Pass 1 of 2
; --- FIX X Backlash ---
G0 X45.831 Y31.048 F410
; --- FIX Y Backlash ---
G0 X45.831 Y30.548 F410
G1 X45.766 Y26.534 Z0 F444
;Layer C3 Pass 2 of 2
; --- FIX X Backlash ---
G0 X46.466 Y26.534 F410
; --- FIX Y Backlash ---
G0 X46.466 Y27.034 F410
G1 X46.531 Y31.048 Z0 F444
G0 Z3.5 F444
; --- FIX Y Backlash ---
G0 X46.531 Y30.548 F410
G0 X49.023 Y26.534 Z3.5
G1 Z0 F444
;Layer C3 Pass 1 of 2
; --- FIX X Backlash ---
G0 X48.323 Y26.534 F410
; --- FIX Y Backlash ---
G0 X48.323 Y27.034 F410
G1 X48.097 Y31.145 Z0 F444
;Layer C3 Pass 2 of 2
; --- FIX X Backlash ---
G0 X48.797 Y31.145 F410
; --- FIX Y Backlash ---
G0 X48.797 Y30.645 F410
G1 X49.023 Y26.534 Z0 F444
G0 Z3.5 F444
; --- FIX Y Backlash ---
G0 X49.023 Y27.034 F410
G0 X51.386 Y30.95 Z3.5
G1 Z0 F444
;Layer C3 Pass 1 of 2
; --- FIX X Backlash ---
G0 X50.686 Y30.95 F410
; --- FIX Y Backlash ---
G0 X50.686 Y30.45 F410
G1 X50.622 Y26.178 Z0 F444
;Layer C3 Pass 2 of 2
; --- FIX X Backlash ---
G0 X51.322 Y26.178 F410
; --- FIX Y Backlash ---
G0 X51.322 Y26.678 F410
G1 X51.386 Y30.95 Z0 F444
G0 Z3.5 F444
; --- FIX Y Backlash ---
G0 X51.386 Y30.45 F410
G0 X52.726 Y19.52 Z3.5
G1 Z0 F444
;Layer C3 Pass 1 of 2
G1 X53.686 Y19.371 Z0 F444
; --- FIX Y Backlash ---
G0 X53.686 Y19.871 F410
G1 X53.643 Y20.556 Z0 F444
; --- FIX X Backlash ---
G0 X52.943 Y20.556 F410
G1 X52.521 Y21.513 Z0 F444
; --- FIX Y Backlash ---
G0 X52.521 Y21.013 F410
G1 X52.021 Y20.545 Z0 F444
G1 X51.006 Y18.906 Z0 F444
; --- FIX X Backlash ---
G0 X51.706 Y18.906 F410
G1 X54.179 Y18.015 Z0 F444
; --- FIX Y Backlash ---
G0 X54.179 Y18.515 F410
G1 X54.594 Y20.021 Z0 F444
; --- FIX X Backlash ---
G0 X53.894 Y20.021 F410
G1 X53.415 Y21.494 Z0 F444
G1 X52.531 Y22.936 Z0 F444
; --- FIX Y Backlash ---
G0 X52.531 Y22.436 F410
G1 X51.157 Y20.934 Z0 F444
G1 X49.989 Y19.228 Z0 F444
;Layer C3 Pass 2 of 2
; --- FIX X Backlash ---
G0 X50.689 Y19.228 F410
; --- FIX Y Backlash ---
G0 X50.689 Y19.728 F410
G1 X51.857 Y21.434 Z0 F444
G1 X53.231 Y22.936 Z0 F444
; --- FIX Y Backlash ---
G0 X53.231 Y22.436 F410
G1 X54.115 Y20.994 Z0 F444
G1 X54.594 Y19.521 Z0 F444
; --- FIX X Backlash ---
G0 X53.894 Y19.521 F410
G1 X53.479 Y18.015 Z0 F444
; --- FIX Y Backlash ---
G0 X53.479 Y18.515 F410
G1 X51.006 Y19.406 Z0 F444
; --- FIX X Backlash ---
G0 X51.706 Y19.406 F410
G1 X52.721 Y21.045 Z0 F444
G1 X53.221 Y21.513 Z0 F444
; --- FIX Y Backlash ---
G0 X53.221 Y21.013 F410
G1 X53.643 Y20.056 Z0 F444
G1 X53.686 Y19.371 Z0 F444
; --- FIX X Backlash ---
G0 X52.986 Y19.371 F410
; --- FIX Y Backlash ---
G0 X52.986 Y19.871 F410
G1 X52.026 Y20.02 Z0 F444
G0 Z3.5 F444
; --- FIX Y Backlash ---
G0 X52.026 Y19.52 F410
G0 X45.378 Y18.021 Z3.5
G1 Z0 F444
;Layer C3 Pass 1 of 2
G1 X45.29 Y17.996 Z0 F444
G1 X45.19 Y17.964 Z0 F444
G1 X45.062 Y17.92 Z0 F444
G1 X44.75 Y17.789 Z0 F444
G1 X44.407 Y17.6 Z0 F444
G1 X44.233 Y17.512 Z0 F444
G1 X44.057 Y17.462 Z0 F444
G1 X43.883 Y17.441 Z0 F444
G1 X43.719 Z0 F444
G1 X43.57 Y17.457 Z0 F444
G1 X43.442 Y17.477 Z0 F444
G1 X43.341 Y17.495 Z0 F444
G1 X43.274 Y17.503 Z0 F444
G1 X42.74 Y17.422 Z0 F444
G1 X42.303 Y17.341 Z0 F444
; --- FIX Y Backlash ---
G0 X42.303 Y17.841 F410
G1 X41.85 Y18.521 Z0 F444
; --- FIX X Backlash ---
G0 X42.55 Y18.521 F410
G1 X43.557 Y18.658 Z0 F444
G1 X43.939 Y18.714 Z0 F444
G1 X44.284 Y18.767 Z0 F444
G1 X44.548 Y18.812 Z0 F444
G1 X44.635 Y18.83 Z0 F444
G1 X44.686 Y18.844 Z0 F444
G1 X44.79 Y18.884 Z0 F444
G1 X44.968 Y18.948 Z0 F444
G1 X45.197 Y19.026 Z0 F444
G1 X45.459 Y19.111 Z0 F444
G1 X45.731 Y19.193 Z0 F444
G1 X45.992 Y19.263 Z0 F444
G1 X46.223 Y19.312 Z0 F444
G1 X46.401 Y19.33 Z0 F444
G1 X46.544 Y19.292 Z0 F444
; --- FIX Y Backlash ---
G0 X46.544 Y18.792 F410
G1 X46.677 Y18.69 Z0 F444
G1 X46.797 Y18.541 Z0 F444
G1 X46.903 Y18.365 Z0 F444
G1 X46.991 Y18.177 Z0 F444
G1 X47.057 Y17.997 Z0 F444
G1 X47.099 Y17.842 Z0 F444
G1 X47.114 Y17.729 Z0 F444
; --- FIX X Backlash ---
G0 X46.414 Y17.729 F410
G1 X46.358 Y17.512 Z0 F444
G1 X46.236 Y17.256 Z0 F444
G1 X46.17 Y17.139 Z0 F444
G1 X46.058 Y16.953 Z0 F444
G1 X45.107 Y16.774 Z0 F444
G1 X44.741 Y16.709 Z0 F444
G1 X44.405 Y16.652 Z0 F444
G1 X44.14 Y16.612 Z0 F444
G1 X44.046 Y16.6 Z0 F444
G1 X43.986 Y16.596 Z0 F444
G1 X43.759 Y16.63 Z0 F444
; --- FIX Y Backlash ---
G0 X43.759 Y17.13 F410
G1 X43.456 Y17.218 Z0 F444
G1 X43.135 Y17.342 Z0 F444
G1 X42.853 Y17.485 Z0 F444
G1 X42.691 Y17.563 Z0 F444
G1 X42.464 Y17.649 Z0 F444
G1 X42.194 Y17.738 Z0 F444
G1 X41.902 Y17.825 Z0 F444
G1 X41.612 Y17.906 Z0 F444
G1 X41.346 Y17.976 Z0 F444
G1 X41.127 Y18.032 Z0 F444
G1 X40.976 Y18.068 Z0 F444
G1 X40.738 Y18.173 Z0 F444
G1 X40.486 Y18.355 Z0 F444
G1 X40.252 Y18.555 Z0 F444
G1 X40.069 Y18.715 Z0 F444
G1 X40.02 Y18.788 Z0 F444
G1 X40.013 Y18.879 Z0 F444
G1 X40.035 Y18.981 Z0 F444
G1 X40.077 Y19.083 Z0 F444
; --- FIX X Backlash ---
G0 X40.777 Y19.083 F410
G1 X40.829 Y19.178 Z0 F444
G1 X40.878 Y19.257 Z0 F444
G1 X40.931 Y19.33 Z0 F444
; --- FIX Y Backlash ---
G0 X40.931 Y18.83 F410
G1 X41.574 Y18.725 Z0 F444
G1 X42.119 Y18.639 Z0 F444
G1 X42.582 Y18.571 Z0 F444
G1 X42.93 Y18.575 Z0 F444
; --- FIX Y Backlash ---
G0 X42.93 Y19.075 F410
G1 X43.233 Y19.152 Z0 F444
G1 X43.47 Y19.253 Z0 F444
G1 X43.618 Y19.33 Z0 F444
G1 X43.652 Y19.396 Z0 F444
G1 X43.662 Y19.529 Z0 F444
G1 X43.654 Y19.707 Z0 F444
G1 X43.634 Y19.904 Z0 F444
G1 X43.608 Y20.099 Z0 F444
G1 X43.581 Y20.268 Z0 F444
G1 X43.553 Y20.43 Z0 F444
G1 X43.535 Y20.629 Z0 F444
G1 X43.514 Y20.84 Z0 F444
G1 X43.484 Y21.094 Z0 F444
G1 X43.447 Y21.366 Z0 F444
G1 X43.403 Y21.632 Z0 F444
; --- FIX X Backlash ---
G0 X42.703 Y21.632 F410
G1 X42.652 Y21.868 Z0 F444
G1 X42.594 Y22.049 Z0 F444
G1 X42.521 Y22.39 Z0 F444
G1 X42.517 Y22.761 Z0 F444
G1 X42.529 Y22.926 Z0 F444
G1 X42.544 Y23.059 Z0 F444
G1 X42.562 Y23.182 Z0 F444
; --- FIX X Backlash ---
G0 X43.262 Y23.182 F410
G1 X44.168 Y23.538 Z0 F444
; --- FIX Y Backlash ---
G0 X44.168 Y23.038 F410
G1 X44.649 Y22.791 Z0 F444
G1 X45.056 Y22.587 Z0 F444
G1 X45.398 Y22.423 Z0 F444
G1 X45.546 Y22.39 Z0 F444
G1 X45.715 Y22.405 Z0 F444
G1 X45.892 Y22.454 Z0 F444
; --- FIX Y Backlash ---
G0 X45.892 Y22.954 F410
G1 X46.066 Y23.024 Z0 F444
G1 X46.222 Y23.101 Z0 F444
G1 X46.349 Y23.173 Z0 F444
G1 X46.466 Y23.247 Z0 F444
; --- FIX X Backlash ---
G0 X45.766 Y23.247 F410
G1 X45.292 Y23.325 Z0 F444
G1 X45.006 Y23.376 Z0 F444
G1 X44.707 Y23.433 Z0 F444
G1 X44.428 Y23.492 Z0 F444
G1 X44.199 Y23.55 Z0 F444
G1 X44.051 Y23.603 Z0 F444
G1 X43.935 Y23.627 Z0 F444
G1 X43.787 Y23.612 Z0 F444
G1 X43.612 Y23.567 Z0 F444
; --- FIX Y Backlash ---
G0 X43.612 Y23.067 F410
G1 X43.004 Y22.875 Z0 F444
G1 X42.594 Y22.811 Z0 F444
G1 X42.433 Y22.831 Z0 F444
; --- FIX Y Backlash ---
G0 X42.433 Y23.331 F410
G1 X42.33 Y23.388 Z0 F444
G1 X42.274 Y23.473 Z0 F444
G1 X42.254 Y23.582 Z0 F444
G1 X42.275 Y23.844 Z0 F444
G1 X42.303 Y24.121 Z0 F444
G1 X42.324 Y24.269 Z0 F444
; --- FIX X Backlash ---
G0 X43.024 Y24.269 F410
G1 X43.08 Y24.441 Z0 F444
G1 X43.161 Y24.627 Z0 F444
G1 X43.258 Y24.816 Z0 F444
G1 X43.358 Y25 Z0 F444
G1 X43.532 Y25.309 Z0 F444
G1 X43.585 Y25.415 Z0 F444
G1 X43.62 Y25.527 Z0 F444
G1 X43.652 Y25.681 Z0 F444
G1 X43.681 Y25.863 Z0 F444
G1 X43.707 Y26.059 Z0 F444
G1 X43.766 Y26.577 Z0 F444
G1 X43.78 Y26.678 Z0 F444
G1 X43.812 Y27.058 Z0 F444
G1 X43.844 Y27.39 Z0 F444
G1 X43.85 Y27.535 Z0 F444
G1 X43.82 Y27.754 Z0 F444
; --- FIX X Backlash ---
G0 X43.12 Y27.754 F410
G1 X43.053 Y28.009 Z0 F444
G1 X42.95 Y28.264 Z0 F444
G1 X42.897 Y28.406 Z0 F444
G1 X42.857 Y28.583 Z0 F444
G1 X42.829 Y28.783 Z0 F444
G1 X42.812 Y28.996 Z0 F444
G1 X42.804 Y29.415 Z0 F444
G1 X42.821 Y29.753 Z0 F444
; --- FIX X Backlash ---
G0 X43.521 Y29.753 F410
G1 X43.602 Y30.538 Z0 F444
G1 X43.682 Y31.274 Z0 F444
G1 X43.687 Y31.417 Z0 F444
G1 X43.68 Y31.619 Z0 F444
G1 X43.664 Y31.863 Z0 F444
G1 X43.642 Y32.136 Z0 F444
; --- FIX X Backlash ---
G0 X42.942 Y32.136 F410
G1 X42.891 Y32.708 Z0 F444
G1 X42.853 Y33.216 Z0 F444
G1 X42.784 Y33.629 Z0 F444
G1 X42.663 Y33.969 Z0 F444
G1 X42.601 Y34.1 Z0 F444
G1 X42.548 Y34.199 Z0 F444
G1 X42.497 Y34.284 Z0 F444
G1 X41.623 Z0 F444
; --- FIX Y Backlash ---
G0 X41.623 Y33.784 F410
G1 X41.04 Y33.704 Z0 F444
G1 X40.361 Y33.623 Z0 F444
; --- FIX Y Backlash ---
G0 X40.361 Y34.123 F410
G1 X40.225 Y34.188 Z0 F444
G1 X40.053 Y34.333 Z0 F444
G1 X39.972 Y34.41 Z0 F444
G1 X39.843 Y34.543 Z0 F444
; --- FIX X Backlash ---
G0 X40.543 Y34.543 F410
G1 X40.769 Y35.32 Z0 F444
G1 X40.996 Y36.356 Z0 F444
;Layer C3 Pass 2 of 2
; --- FIX X Backlash ---
G0 X40.296 Y36.356 F410
; --- FIX Y Backlash ---
G0 X40.296 Y35.856 F410
G1 X40.069 Y34.82 Z0 F444
G1 X39.843 Y34.043 Z0 F444
; --- FIX X Backlash ---
G0 X40.543 Y34.043 F410
G1 X40.672 Y33.91 Z0 F444
G1 X40.753 Y33.833 Z0 F444
G1 X40.925 Y33.688 Z0 F444
G1 X41.061 Y33.623 Z0 F444
; --- FIX Y Backlash ---
G0 X41.061 Y34.123 F410
G1 X41.74 Y34.204 Z0 F444
G1 X42.323 Y34.284 Z0 F444
G1 X43.197 Z0 F444
; --- FIX Y Backlash ---
G0 X43.197 Y33.784 F410
G1 X43.248 Y33.699 Z0 F444
G1 X43.301 Y33.6 Z0 F444
G1 X43.363 Y33.469 Z0 F444
G1 X43.484 Y33.129 Z0 F444
G1 X43.553 Y32.716 Z0 F444
G1 X43.591 Y32.208 Z0 F444
G1 X43.642 Y31.636 Z0 F444
G1 X43.664 Y31.363 Z0 F444
G1 X43.68 Y31.119 Z0 F444
G1 X43.687 Y30.917 Z0 F444
G1 X43.682 Y30.774 Z0 F444
; --- FIX X Backlash ---
G0 X42.982 Y30.774 F410
G1 X42.902 Y30.038 Z0 F444
G1 X42.821 Y29.253 Z0 F444
G1 X42.804 Y28.915 Z0 F444
G1 X42.812 Y28.496 Z0 F444
G1 X42.829 Y28.283 Z0 F444
G1 X42.857 Y28.083 Z0 F444
G1 X42.897 Y27.906 Z0 F444
; --- FIX X Backlash ---
G0 X43.597 Y27.906 F410
G1 X43.65 Y27.764 Z0 F444
G1 X43.753 Y27.509 Z0 F444
G1 X43.82 Y27.254 Z0 F444
G1 X43.85 Y27.035 Z0 F444
G1 X43.844 Y26.89 Z0 F444
G1 X43.812 Y26.558 Z0 F444
G1 X43.78 Y26.178 Z0 F444
G1 X43.766 Y26.077 Z0 F444
; --- FIX X Backlash ---
G0 X43.066 Y26.077 F410
G1 X43.007 Y25.559 Z0 F444
G1 X42.981 Y25.363 Z0 F444
G1 X42.952 Y25.181 Z0 F444
G1 X42.92 Y25.027 Z0 F444
G1 X42.885 Y24.915 Z0 F444
G1 X42.832 Y24.809 Z0 F444
G1 X42.658 Y24.5 Z0 F444
G1 X42.558 Y24.316 Z0 F444
G1 X42.461 Y24.127 Z0 F444
G1 X42.38 Y23.941 Z0 F444
G1 X42.324 Y23.769 Z0 F444
G1 X42.303 Y23.621 Z0 F444
G1 X42.275 Y23.344 Z0 F444
G1 X42.254 Y23.082 Z0 F444
G1 X42.274 Y22.973 Z0 F444
; --- FIX X Backlash ---
G0 X42.974 Y22.973 F410
G1 X43.03 Y22.888 Z0 F444
G1 X43.133 Y22.831 Z0 F444
G1 X43.294 Y22.811 Z0 F444
; --- FIX Y Backlash ---
G0 X43.294 Y23.311 F410
G1 X43.704 Y23.375 Z0 F444
G1 X44.312 Y23.567 Z0 F444
G1 X44.487 Y23.612 Z0 F444
G1 X44.635 Y23.627 Z0 F444
G1 X44.751 Y23.603 Z0 F444
; --- FIX Y Backlash ---
G0 X44.751 Y23.103 F410
G1 X44.899 Y23.05 Z0 F444
G1 X45.128 Y22.992 Z0 F444
G1 X45.407 Y22.933 Z0 F444
G1 X45.706 Y22.876 Z0 F444
G1 X45.992 Y22.825 Z0 F444
G1 X46.466 Y22.747 Z0 F444
; --- FIX X Backlash ---
G0 X45.766 Y22.747 F410
G1 X45.649 Y22.673 Z0 F444
G1 X45.522 Y22.601 Z0 F444
G1 X45.366 Y22.524 Z0 F444
G1 X45.192 Y22.454 Z0 F444
G1 X45.015 Y22.405 Z0 F444
G1 X44.846 Y22.39 Z0 F444
G1 X44.698 Y22.423 Z0 F444
; --- FIX Y Backlash ---
G0 X44.698 Y22.923 F410
G1 X44.356 Y23.087 Z0 F444
G1 X43.949 Y23.291 Z0 F444
G1 X43.468 Y23.538 Z0 F444
; --- FIX Y Backlash ---
G0 X43.468 Y23.038 F410
G1 X42.562 Y22.682 Z0 F444
G1 X42.544 Y22.559 Z0 F444
G1 X42.529 Y22.426 Z0 F444
G1 X42.517 Y22.261 Z0 F444
G1 X42.521 Y21.89 Z0 F444
; --- FIX X Backlash ---
G0 X43.221 Y21.89 F410
G1 X43.294 Y21.549 Z0 F444
G1 X43.352 Y21.368 Z0 F444
G1 X43.403 Y21.132 Z0 F444
G1 X43.447 Y20.866 Z0 F444
G1 X43.484 Y20.594 Z0 F444
G1 X43.514 Y20.34 Z0 F444
G1 X43.535 Y20.129 Z0 F444
G1 X43.553 Y19.93 Z0 F444
G1 X43.581 Y19.768 Z0 F444
G1 X43.608 Y19.599 Z0 F444
G1 X43.634 Y19.404 Z0 F444
G1 X43.654 Y19.207 Z0 F444
G1 X43.662 Y19.029 Z0 F444
G1 X43.652 Y18.896 Z0 F444
G1 X43.618 Y18.83 Z0 F444
; --- FIX X Backlash ---
G0 X42.918 Y18.83 F410
G1 X42.77 Y18.753 Z0 F444
G1 X42.533 Y18.652 Z0 F444
G1 X42.23 Y18.575 Z0 F444
G1 X41.882 Y18.571 Z0 F444
; --- FIX Y Backlash ---
G0 X41.882 Y19.071 F410
G1 X41.419 Y19.139 Z0 F444
G1 X40.874 Y19.225 Z0 F444
G1 X40.231 Y19.33 Z0 F444
; --- FIX Y Backlash ---
G0 X40.231 Y18.83 F410
G1 X40.178 Y18.757 Z0 F444
G1 X40.129 Y18.678 Z0 F444
G1 X40.077 Y18.583 Z0 F444
G1 X40.035 Y18.481 Z0 F444
G1 X40.013 Y18.379 Z0 F444
G1 X40.02 Y18.288 Z0 F444
G1 X40.069 Y18.215 Z0 F444
; --- FIX X Backlash ---
G0 X40.769 Y18.215 F410
G1 X40.952 Y18.055 Z0 F444
G1 X41.186 Y17.855 Z0 F444
G1 X41.438 Y17.673 Z0 F444
G1 X41.676 Y17.568 Z0 F444
G1 X41.827 Y17.532 Z0 F444
G1 X42.046 Y17.476 Z0 F444
G1 X42.312 Y17.406 Z0 F444
G1 X42.602 Y17.325 Z0 F444
G1 X42.894 Y17.238 Z0 F444
G1 X43.164 Y17.149 Z0 F444
G1 X43.391 Y17.063 Z0 F444
G1 X43.553 Y16.985 Z0 F444
G1 X43.835 Y16.842 Z0 F444
G1 X44.156 Y16.718 Z0 F444
G1 X44.459 Y16.63 Z0 F444
G1 X44.686 Y16.596 Z0 F444
G1 X44.746 Y16.6 Z0 F444
G1 X44.84 Y16.612 Z0 F444
G1 X45.105 Y16.652 Z0 F444
; --- FIX Y Backlash ---
G0 X45.105 Y17.152 F410
G1 X45.441 Y17.209 Z0 F444
G1 X45.807 Y17.274 Z0 F444
G1 X46.758 Y17.453 Z0 F444
G1 X46.87 Y17.639 Z0 F444
G1 X46.936 Y17.756 Z0 F444
G1 X47.058 Y18.012 Z0 F444
G1 X47.114 Y18.229 Z0 F444
G1 X47.099 Y18.342 Z0 F444
G1 X47.057 Y18.497 Z0 F444
; --- FIX X Backlash ---
G0 X46.357 Y18.497 F410
G1 X46.291 Y18.677 Z0 F444
G1 X46.203 Y18.865 Z0 F444
G1 X46.097 Y19.041 Z0 F444
G1 X45.977 Y19.19 Z0 F444
G1 X45.844 Y19.292 Z0 F444
G1 X45.701 Y19.33 Z0 F444
G1 X45.523 Y19.312 Z0 F444
G1 X45.292 Y19.263 Z0 F444
; --- FIX Y Backlash ---
G0 X45.292 Y18.763 F410
G1 X45.031 Y18.693 Z0 F444
G1 X44.759 Y18.611 Z0 F444
G1 X44.497 Y18.526 Z0 F444
G1 X44.268 Y18.448 Z0 F444
G1 X44.09 Y18.384 Z0 F444
G1 X43.986 Y18.344 Z0 F444
G1 X43.935 Y18.33 Z0 F444
G1 X43.848 Y18.312 Z0 F444
G1 X43.584 Y18.267 Z0 F444
G1 X43.239 Y18.214 Z0 F444
G1 X42.857 Y18.158 Z0 F444
G1 X41.85 Y18.021 Z0 F444
; --- FIX X Backlash ---
G0 X42.55 Y18.021 F410
G1 X43.003 Y17.341 Z0 F444
; --- FIX Y Backlash ---
G0 X43.003 Y17.841 F410
G1 X43.44 Y17.922 Z0 F444
G1 X43.974 Y18.003 Z0 F444
G1 X44.041 Y17.995 Z0 F444
G1 X44.142 Y17.977 Z0 F444
G1 X44.27 Y17.957 Z0 F444
G1 X44.419 Y17.942 Z0 F444
G1 X44.583 Z0 F444
G1 X44.757 Y17.962 Z0 F444
G1 X44.933 Y18.012 Z0 F444
G1 X45.107 Y18.1 Z0 F444
G1 X45.45 Y18.289 Z0 F444
G1 X45.762 Y18.42 Z0 F444
G1 X45.89 Y18.464 Z0 F444
G1 X45.99 Y18.496 Z0 F444
G1 X46.078 Y18.521 Z0 F444
G0 Z3.5 F444
; --- FIX X Backlash ---
G0 X45.378 Y18.521 F410
G0 X40.302 Y36.186 Z3.5
G1 Z0 F444
;Layer C3 Pass 1 of 2
G1 X40.165 Y41.313 Z0 F444
;Layer C3 Pass 2 of 2
; --- FIX X Backlash ---
G0 X40.865 Y41.313 F410
; --- FIX Y Backlash ---
G0 X40.865 Y40.813 F410
G1 X41.002 Y35.686 Z0 F444
G0 Z3.5 F444
; --- FIX Y Backlash ---
G0 X41.002 Y36.186 F410
G0 X40.956 Y41.176 Z3.5
G1 Z0 F444
;Layer C3 Pass 1 of 2
; --- FIX Y Backlash ---
G0 X40.956 Y40.676 F410
G1 X40.911 Y37.929 Z0 F444
G1 X41.185 Y36.418 Z0 F444
; --- FIX X Backlash ---
G0 X40.485 Y36.418 F410
G1 X40.165 Y34.725 Z0 F444
;Layer C3 Pass 2 of 2
; --- FIX X Backlash ---
G0 X40.865 Y34.725 F410
; --- FIX Y Backlash ---
G0 X40.865 Y35.225 F410
G1 X41.185 Y36.918 Z0 F444
; --- FIX X Backlash ---
G0 X40.485 Y36.918 F410
G1 X40.211 Y38.429 Z0 F444
G1 X40.256 Y41.176 Z0 F444
G0 Z3.5 F444
; --- FIX X Backlash ---
G0 X40.956 Y41.176 F410
; --- FIX Y Backlash ---
G0 X40.956 Y40.676 F410
G0 X43.52 Y36.418 Z3.5
G1 Z0 F444
;Layer C3 Pass 1 of 2
; --- FIX Y Backlash ---
G0 X43.52 Y36.918 F410
G1 X43.611 Y39.573 Z0 F444
; --- FIX X Backlash ---
G0 X42.911 Y39.573 F410
G1 X42.82 Y41.725 Z0 F444
G1 X42.815 Y41.956 Z0 F444
G1 X42.803 Y42.196 Z0 F444
G1 X42.78 Y42.475 Z0 F444
G1 X42.742 Y42.76 Z0 F444
G1 X42.685 Y43.019 Z0 F444
G1 X42.605 Y43.219 Z0 F444
G1 X42.499 Y43.327 Z0 F444
G1 X42.347 Y43.396 Z0 F444
G1 X42.143 Y43.492 Z0 F444
G1 X41.67 Y43.722 Z0 F444
G1 X41.08 Y44.014 Z0 F444
; --- FIX Y Backlash ---
G0 X41.08 Y43.514 F410
G1 X39.295 Y43.285 Z0 F444
; --- FIX Y Backlash ---
G0 X39.295 Y43.785 F410
G1 X37.83 Y44.197 Z0 F444
G1 X37.144 Y44.975 Z0 F444
G1 X37.098 Y46.12 Z0 F444
; --- FIX X Backlash ---
G0 X37.798 Y46.12 F410
G1 X39.585 Y46.707 Z0 F444
; --- FIX X Backlash ---
G0 X38.885 Y46.707 F410
G1 X37.098 Y46.989 Z0 F444
; --- FIX X Backlash ---
G0 X37.798 Y46.989 F410
G1 X38.329 Y48.27 Z0 F444
; --- FIX X Backlash ---
G0 X37.629 Y48.27 F410
; --- FIX Y Backlash ---
G0 X37.629 Y47.77 F410
G1 X36.32 Y46.169 Z0 F444
; --- FIX Y Backlash ---
G0 X36.32 Y46.669 F410
G1 X35.923 Y48.426 Z0 F444
; --- FIX Y Backlash ---
G0 X35.923 Y47.926 F410
G1 X35.725 Y46.032 Z0 F444
; --- FIX Y Backlash ---
G0 X35.725 Y46.532 F410
G1 X34.627 Y47.61 Z0 F444
; --- FIX X Backlash ---
G0 X35.327 Y47.61 F410
; --- FIX Y Backlash ---
G0 X35.327 Y47.11 F410
G1 X36.791 Y45.528 Z0 F444
; --- FIX X Backlash ---
G0 X36.091 Y45.528 F410
G1 X34.372 Y44.795 Z0 F444
; --- FIX X Backlash ---
G0 X35.072 Y44.795 F410
; --- FIX Y Backlash ---
G0 X35.072 Y45.295 F410
G1 X37.157 Y45.708 Z0 F444
; --- FIX X Backlash ---
G0 X36.457 Y45.708 F410
; --- FIX Y Backlash ---
G0 X36.457 Y45.208 F410
G1 X36.365 Y43.697 Z0 F444
; --- FIX X Backlash ---
G0 X37.065 Y43.697 F410
G1 X37.981 Y43.422 Z0 F444
;Layer C3 Pass 2 of 2
; --- FIX X Backlash ---
G0 X37.281 Y43.422 F410
; --- FIX Y Backlash ---
G0 X37.281 Y43.922 F410
G1 X36.365 Y44.197 Z0 F444
; --- FIX X Backlash ---
G0 X37.065 Y44.197 F410
G1 X37.157 Y45.708 Z0 F444
; --- FIX X Backlash ---
G0 X36.457 Y45.708 F410
; --- FIX Y Backlash ---
G0 X36.457 Y45.208 F410
G1 X34.372 Y44.795 Z0 F444
; --- FIX X Backlash ---
G0 X35.072 Y44.795 F410
; --- FIX Y Backlash ---
G0 X35.072 Y45.295 F410
G1 X36.791 Y46.028 Z0 F444
; --- FIX X Backlash ---
G0 X36.091 Y46.028 F410
G1 X34.627 Y47.61 Z0 F444
; --- FIX X Backlash ---
G0 X35.327 Y47.61 F410
; --- FIX Y Backlash ---
G0 X35.327 Y47.11 F410
G1 X36.425 Y46.032 Z0 F444
; --- FIX Y Backlash ---
G0 X36.425 Y46.532 F410
G1 X36.623 Y48.426 Z0 F444
; --- FIX Y Backlash ---
G0 X36.623 Y47.926 F410
G1 X37.02 Y46.169 Z0 F444
; --- FIX Y Backlash ---
G0 X37.02 Y46.669 F410
G1 X38.329 Y48.27 Z0 F444
; --- FIX X Backlash ---
G0 X37.629 Y48.27 F410
; --- FIX Y Backlash ---
G0 X37.629 Y47.77 F410
G1 X37.098 Y46.489 Z0 F444
; --- FIX X Backlash ---
G0 X37.798 Y46.489 F410
G1 X39.585 Y46.207 Z0 F444
; --- FIX X Backlash ---
G0 X38.885 Y46.207 F410
G1 X37.098 Y45.62 Z0 F444
G1 X37.144 Y44.475 Z0 F444
; --- FIX X Backlash ---
G0 X37.844 Y44.475 F410
G1 X38.53 Y43.697 Z0 F444
G1 X39.995 Y43.285 Z0 F444
; --- FIX Y Backlash ---
G0 X39.995 Y43.785 F410
G1 X41.78 Y44.014 Z0 F444
; --- FIX Y Backlash ---
G0 X41.78 Y43.514 F410
G1 X42.37 Y43.222 Z0 F444
G1 X42.843 Y42.992 Z0 F444
G1 X43.047 Y42.896 Z0 F444
G1 X43.199 Y42.827 Z0 F444
G1 X43.305 Y42.719 Z0 F444
G1 X43.385 Y42.519 Z0 F444
G1 X43.442 Y42.26 Z0 F444
G1 X43.48 Y41.975 Z0 F444
G1 X43.503 Y41.696 Z0 F444
G1 X43.515 Y41.456 Z0 F444
G1 X43.52 Y41.225 Z0 F444
G1 X43.611 Y39.073 Z0 F444
; --- FIX X Backlash ---
G0 X42.911 Y39.073 F410
G1 X42.82 Y36.418 Z0 F444
G0 Z3.5 F444
; --- FIX Y Backlash ---
G0 X42.82 Y36.918 F410
G0 X30.585 Y44.416 Z3.5
G1 Z0 F444
;Layer C3 Pass 1 of 2
; --- FIX X Backlash ---
G0 X31.285 Y44.416 F410
G1 X31.373 Y44.591 Z0 F444
G1 X31.467 Y44.766 Z0 F444
G1 X31.58 Y44.961 Z0 F444
G1 X31.701 Y45.148 Z0 F444
G1 X31.82 Y45.296 Z0 F444
G1 X31.926 Y45.378 Z0 F444
G1 X32.008 Y45.365 Z0 F444
; --- FIX Y Backlash ---
G0 X32.008 Y44.865 F410
G1 X32.154 Y44.708 Z0 F444
G1 X32.292 Y44.553 Z0 F444
G1 X32.407 Y44.413 Z0 F444
G1 X32.483 Y44.304 Z0 F444
G1 X32.503 Y44.168 Z0 F444
G1 X32.477 Y43.951 Z0 F444
; --- FIX X Backlash ---
G0 X31.777 Y43.951 F410
G1 X31.717 Y43.683 Z0 F444
G1 X31.637 Y43.394 Z0 F444
G1 X31.551 Y43.116 Z0 F444
G1 X31.441 Y42.787 Z0 F444
G1 X31.394 Y42.654 Z0 F444
; --- FIX Y Backlash ---
G0 X31.394 Y43.154 F410
G1 X31.188 Y43.228 Z0 F444
G1 X30.971 Y43.311 Z0 F444
G1 X30.715 Y43.413 Z0 F444
G1 X30.446 Y43.527 Z0 F444
G1 X30.193 Y43.645 Z0 F444
G1 X29.982 Y43.761 Z0 F444
G1 X29.841 Y43.866 Z0 F444
G1 X29.772 Y43.991 Z0 F444
G1 X29.753 Y44.164 Z0 F444
G1 X29.773 Y44.37 Z0 F444
G1 X29.82 Y44.598 Z0 F444
; --- FIX X Backlash ---
G0 X30.52 Y44.598 F410
G1 X30.767 Y45.452 Z0 F444
G1 X30.814 Y45.584 Z0 F444
G1 X30.878 Y45.674 Z0 F444
G1 X30.952 Y45.734 Z0 F444
G1 X31.026 Y45.775 Z0 F444
G1 X31.095 Y45.811 Z0 F444
G1 X31.15 Y45.852 Z0 F444
G1 X31.183 Y45.912 Z0 F444
G1 X31.188 Y46.002 Z0 F444
G1 X31.163 Y46.148 Z0 F444
G1 X31.114 Y46.358 Z0 F444
; --- FIX X Backlash ---
G0 X30.414 Y46.358 F410
G1 X30.346 Y46.617 Z0 F444
G1 X30.261 Y46.908 Z0 F444
G1 X30.06 Y47.531 Z0 F444
G1 X29.841 Y48.106 Z0 F444
G1 X29.727 Y48.345 Z0 F444
G1 X29.609 Y48.552 Z0 F444
G1 X29.489 Y48.731 Z0 F444
G1 X29.371 Y48.883 Z0 F444
G1 X29.158 Y49.117 Z0 F444
G1 X28.999 Y49.271 Z0 F444
G1 X28.554 Y49.85 Z0 F444
G1 X28.06 Y50.501 Z0 F444
G1 X27.909 Y50.744 Z0 F444
G1 X27.797 Y51.056 Z0 F444
G1 X27.728 Y51.398 Z0 F444
G1 X27.704 Y51.731 Z0 F444
G1 X27.738 Y52.093 Z0 F444
; --- FIX X Backlash ---
G0 X28.438 Y52.093 F410
G1 X28.505 Y52.512 Z0 F444
G1 X28.554 Y52.938 Z0 F444
G1 X28.534 Y53.317 Z0 F444
G1 X28.488 Y53.756 Z0 F444
G1 X28.481 Y54.28 Z0 F444
G1 X28.486 Y54.521 Z0 F444
G1 X28.501 Y54.904 Z0 F444
;Layer C3 Pass 2 of 2
; --- FIX Y Backlash ---
G0 X28.501 Y54.404 F410
G1 X28.486 Y54.021 Z0 F444
G1 X28.481 Y53.78 Z0 F444
G1 X28.488 Y53.256 Z0 F444
G1 X28.534 Y52.817 Z0 F444
G1 X28.554 Y52.438 Z0 F444
G1 X28.505 Y52.012 Z0 F444
; --- FIX X Backlash ---
G0 X27.805 Y52.012 F410
G1 X27.738 Y51.593 Z0 F444
G1 X27.704 Y51.231 Z0 F444
G1 X27.728 Y50.898 Z0 F444
; --- FIX X Backlash ---
G0 X28.428 Y50.898 F410
G1 X28.497 Y50.556 Z0 F444
G1 X28.609 Y50.244 Z0 F444
G1 X28.76 Y50.001 Z0 F444
G1 X29.254 Y49.35 Z0 F444
G1 X29.699 Y48.771 Z0 F444
G1 X29.858 Y48.617 Z0 F444
G1 X30.071 Y48.383 Z0 F444
G1 X30.189 Y48.231 Z0 F444
G1 X30.309 Y48.052 Z0 F444
G1 X30.427 Y47.845 Z0 F444
G1 X30.541 Y47.606 Z0 F444
G1 X30.76 Y47.031 Z0 F444
G1 X30.961 Y46.408 Z0 F444
G1 X31.046 Y46.117 Z0 F444
G1 X31.114 Y45.858 Z0 F444
G1 X31.163 Y45.648 Z0 F444
G1 X31.188 Y45.502 Z0 F444
G1 X31.183 Y45.412 Z0 F444
G1 X31.15 Y45.352 Z0 F444
; --- FIX X Backlash ---
G0 X30.45 Y45.352 F410
G1 X30.395 Y45.311 Z0 F444
G1 X30.326 Y45.275 Z0 F444
G1 X30.252 Y45.234 Z0 F444
G1 X30.178 Y45.174 Z0 F444
G1 X30.114 Y45.084 Z0 F444
G1 X30.067 Y44.952 Z0 F444
G1 X29.82 Y44.098 Z0 F444
G1 X29.773 Y43.87 Z0 F444
G1 X29.753 Y43.664 Z0 F444
G1 X29.772 Y43.491 Z0 F444
; --- FIX X Backlash ---
G0 X30.472 Y43.491 F410
G1 X30.541 Y43.366 Z0 F444
G1 X30.682 Y43.261 Z0 F444
G1 X30.893 Y43.145 Z0 F444
G1 X31.146 Y43.027 Z0 F444
G1 X31.415 Y42.913 Z0 F444
G1 X31.671 Y42.811 Z0 F444
G1 X31.888 Y42.728 Z0 F444
G1 X32.094 Y42.654 Z0 F444
; --- FIX Y Backlash ---
G0 X32.094 Y43.154 F410
G1 X32.141 Y43.287 Z0 F444
G1 X32.251 Y43.616 Z0 F444
G1 X32.337 Y43.894 Z0 F444
G1 X32.417 Y44.183 Z0 F444
G1 X32.477 Y44.451 Z0 F444
G1 X32.503 Y44.668 Z0 F444
G1 X32.483 Y44.804 Z0 F444
; --- FIX X Backlash ---
G0 X31.783 Y44.804 F410
G1 X31.707 Y44.913 Z0 F444
G1 X31.592 Y45.053 Z0 F444
G1 X31.454 Y45.208 Z0 F444
G1 X31.308 Y45.365 Z0 F444
G1 X31.226 Y45.378 Z0 F444
; --- FIX Y Backlash ---
G0 X31.226 Y44.878 F410
G1 X31.12 Y44.796 Z0 F444
G1 X31.001 Y44.648 Z0 F444
G1 X30.88 Y44.461 Z0 F444
G1 X30.767 Y44.266 Z0 F444
G1 X30.673 Y44.091 Z0 F444
G1 X30.585 Y43.916 Z0 F444
G0 Z3.5 F444
; --- FIX Y Backlash ---
G0 X30.585 Y44.416 F410
G0 X25.697 Y54.871 Z3.5
G1 Z0 F444
;Layer C3 Pass 1 of 2
; --- FIX Y Backlash ---
G0 X25.697 Y54.371 F410
G1 X25.653 Y53.347 Z0 F444
G1 X25.639 Y52.95 Z0 F444
G1 X25.629 Y52.582 Z0 F444
G1 X25.626 Y52.286 Z0 F444
G1 Y52.179 Z0 F444
G1 X25.633 Y52.105 Z0 F444
; --- FIX X Backlash ---
G0 X26.333 Y52.105 F410
G1 X26.396 Y51.556 Z0 F444
G1 X26.422 Y51.312 Z0 F444
G1 X26.46 Y50.822 Z0 F444
G1 Y50.422 Z0 F444
G1 X26.443 Y50.223 Z0 F444
G1 X26.413 Y49.961 Z0 F444
; --- FIX X Backlash ---
G0 X25.713 Y49.961 F410
G1 X25.637 Y49.358 Z0 F444
G1 X25.535 Y48.609 Z0 F444
G1 X25.492 Y48.431 Z0 F444
G1 X25.45 Y48.248 Z0 F444
G1 X25.406 Y48.035 Z0 F444
G1 X25.368 Y47.819 Z0 F444
G1 X25.344 Y47.626 Z0 F444
G1 Y47.482 Z0 F444
G1 X25.374 Y47.412 Z0 F444
; --- FIX X Backlash ---
G0 X26.074 Y47.412 F410
G1 X26.235 Y47.378 Z0 F444
G1 X26.49 Y47.359 Z0 F444
G1 X26.788 Y47.334 Z0 F444
G1 X27.077 Y47.282 Z0 F444
G1 X27.399 Y47.162 Z0 F444
G1 X27.761 Y46.975 Z0 F444
G1 X27.923 Y46.87 Z0 F444
G1 X28.056 Y46.763 Z0 F444
G1 X28.145 Y46.662 Z0 F444
G1 X28.178 Y46.57 Z0 F444
G1 X28.188 Y46.463 Z0 F444
G1 X28.215 Y46.319 Z0 F444
G1 X28.249 Y46.15 Z0 F444
G1 X28.283 Y45.967 Z0 F444
G1 X28.307 Y45.783 Z0 F444
G1 X28.314 Y45.61 Z0 F444
G1 X28.295 Y45.458 Z0 F444
; --- FIX X Backlash ---
G0 X27.595 Y45.458 F410
G1 X27.542 Y45.34 Z0 F444
G1 X27.438 Y45.245 Z0 F444
G1 X27.281 Y45.156 Z0 F444
G1 X27.092 Y45.076 Z0 F444
G1 X26.887 Y45.008 Z0 F444
G1 X26.685 Y44.956 Z0 F444
G1 X26.505 Y44.921 Z0 F444
G1 X26.363 Y44.908 Z0 F444
G1 X26.28 Y44.919 Z0 F444
; --- FIX Y Backlash ---
G0 X26.28 Y45.419 F410
G1 X25.92 Y45.634 Z0 F444
G1 X25.535 Y45.873 Z0 F444
G1 X25.446 Y45.942 Z0 F444
G1 X25.31 Y46.065 Z0 F444
G1 X25.147 Y46.222 Z0 F444
G1 X24.973 Y46.394 Z0 F444
G1 X24.666 Y46.706 Z0 F444
G1 X24.532 Y46.844 Z0 F444
; --- FIX X Backlash ---
G0 X25.232 Y46.844 F410
G1 X25.371 Y46.889 Z0 F444
G1 X25.685 Y46.985 Z0 F444
G1 X25.861 Y47.035 Z0 F444
G1 X26.024 Y47.076 Z0 F444
G1 X26.155 Y47.101 Z0 F444
G1 X26.235 Z0 F444
G1 X26.305 Y47.071 Z0 F444
; --- FIX Y Backlash ---
G0 X26.305 Y46.571 F410
G1 X26.406 Y46.508 Z0 F444
G1 X26.528 Y46.424 Z0 F444
G1 X26.656 Y46.331 Z0 F444
G1 X26.882 Y46.161 Z0 F444
G1 X26.98 Y46.085 Z0 F444
G1 X27.271 Y45.793 Z0 F444
;Layer C3 Pass 2 of 2
; --- FIX X Backlash ---
G0 X26.571 Y45.793 F410
; --- FIX Y Backlash ---
G0 X26.571 Y46.293 F410
G1 X26.28 Y46.585 Z0 F444
G1 X26.182 Y46.661 Z0 F444
G1 X25.956 Y46.831 Z0 F444
G1 X25.828 Y46.924 Z0 F444
G1 X25.706 Y47.008 Z0 F444
G1 X25.605 Y47.071 Z0 F444
G1 X25.535 Y47.103 Z0 F444
G1 X25.455 Z0 F444
G1 X25.324 Y47.076 Z0 F444
G1 X25.161 Y47.035 Z0 F444
G1 X24.985 Y46.985 Z0 F444
; --- FIX Y Backlash ---
G0 X24.985 Y46.485 F410
G1 X24.671 Y46.389 Z0 F444
G1 X24.532 Y46.344 Z0 F444
; --- FIX X Backlash ---
G0 X25.232 Y46.344 F410
G1 X25.366 Y46.206 Z0 F444
G1 X25.673 Y45.894 Z0 F444
G1 X25.847 Y45.722 Z0 F444
G1 X26.01 Y45.565 Z0 F444
G1 X26.146 Y45.442 Z0 F444
G1 X26.235 Y45.373 Z0 F444
G1 X26.62 Y45.134 Z0 F444
G1 X26.98 Y44.919 Z0 F444
G1 X27.063 Y44.908 Z0 F444
G1 X27.205 Y44.921 Z0 F444
G1 X27.385 Y44.956 Z0 F444
; --- FIX Y Backlash ---
G0 X27.385 Y45.456 F410
G1 X27.587 Y45.508 Z0 F444
G1 X27.792 Y45.576 Z0 F444
G1 X27.981 Y45.656 Z0 F444
G1 X28.138 Y45.745 Z0 F444
G1 X28.242 Y45.84 Z0 F444
G1 X28.295 Y45.958 Z0 F444
G1 X28.314 Y46.11 Z0 F444
G1 X28.307 Y46.283 Z0 F444
G1 X28.283 Y46.467 Z0 F444
G1 X28.249 Y46.65 Z0 F444
G1 X28.215 Y46.819 Z0 F444
G1 X28.188 Y46.963 Z0 F444
G1 X28.178 Y47.07 Z0 F444
G1 X28.145 Y47.162 Z0 F444
; --- FIX X Backlash ---
G0 X27.445 Y47.162 F410
G1 X27.356 Y47.263 Z0 F444
G1 X27.223 Y47.37 Z0 F444
G1 X27.061 Y47.475 Z0 F444
G1 X26.699 Y47.662 Z0 F444
G1 X26.377 Y47.782 Z0 F444
G1 X26.088 Y47.834 Z0 F444
G1 X25.79 Y47.859 Z0 F444
G1 X25.535 Y47.878 Z0 F444
G1 X25.374 Y47.912 Z0 F444
G1 X25.343 Y47.982 Z0 F444
G1 Y48.126 Z0 F444
G1 X25.368 Y48.319 Z0 F444
G1 X25.406 Y48.535 Z0 F444
G1 X25.45 Y48.748 Z0 F444
G1 X25.492 Y48.931 Z0 F444
G1 X25.535 Y49.109 Z0 F444
; --- FIX X Backlash ---
G0 X26.235 Y49.109 F410
G1 X26.337 Y49.858 Z0 F444
G1 X26.413 Y50.461 Z0 F444
G1 X26.443 Y50.723 Z0 F444
G1 X26.462 Y50.922 Z0 F444
G1 Y51.322 Z0 F444
G1 X26.422 Y51.812 Z0 F444
G1 X26.396 Y52.056 Z0 F444
; --- FIX X Backlash ---
G0 X25.696 Y52.056 F410
G1 X25.633 Y52.605 Z0 F444
G1 X25.628 Y52.679 Z0 F444
G1 Y52.786 Z0 F444
G1 Y53.082 Z0 F444
G1 X25.639 Y53.45 Z0 F444
G1 X25.653 Y53.847 Z0 F444
G1 X25.697 Y54.871 Z0 F444
G0 Z3.5 F444
; --- FIX X Backlash ---
G0 X26.397 Y54.871 F410
; --- FIX Y Backlash ---
G0 X26.397 Y54.371 F410
G0 X32.463 Y36.626 Z3.5
G1 Z0 F444
;Layer C3 Pass 1 of 2
; --- FIX X Backlash ---
G0 X31.763 Y36.626 F410
G1 X31.362 Y33.561 Z0 F444
; --- FIX Y Backlash ---
G0 X31.362 Y34.061 F410
G1 X31.118 Y34.446 Z0 F444
G1 X31.127 Y37.989 Z0 F444
G1 X30.65 Y38.222 Z0 F444
; --- FIX Y Backlash ---
G0 X30.65 Y37.722 F410
G1 X30.575 Y36.082 Z0 F444
G1 X30.552 Y34.358 Z0 F444
G1 X30.14 Y33.077 Z0 F444
; --- FIX Y Backlash ---
G0 X30.14 Y33.577 F410
G1 X29.819 Y37.285 Z0 F444
; --- FIX X Backlash ---
G0 X30.519 Y37.285 F410
G1 X30.657 Y40.077 Z0 F444
G1 X31.435 Y40.123 Z0 F444
; --- FIX Y Backlash ---
G0 X31.435 Y39.623 F410
G1 X32.076 Y38.661 Z0 F444
G1 X33.266 Y37.197 Z0 F444
G1 X34.914 Y36.739 Z0 F444
; --- FIX Y Backlash ---
G0 X34.914 Y37.239 F410
G1 X36.928 Y37.376 Z0 F444
; --- FIX Y Backlash ---
G0 X36.928 Y36.876 F410
G1 X38.118 Y36.052 Z0 F444
; --- FIX Y Backlash ---
G0 X38.118 Y36.552 F410
G1 Y41.267 Z0 F444
; --- FIX Y Backlash ---
G0 X38.118 Y40.767 F410
G1 X38.805 Y40.538 Z0 F444
; --- FIX X Backlash ---
G0 X38.105 Y40.538 F410
G1 X37.739 Y36.968 Z0 F444
; --- FIX X Backlash ---
G0 X38.439 Y36.968 F410
G1 X38.713 Y35.411 Z0 F444
; --- FIX X Backlash ---
G0 X38.013 Y35.411 F410
G1 X37.693 Y34.313 Z0 F444
G1 X37.647 Y34.13 Z0 F444
; --- FIX X Backlash ---
G0 X38.347 Y34.13 F410
G1 X38.622 Y33.031 Z0 F444
; --- FIX X Backlash ---
G0 X37.922 Y33.031 F410
G1 X37.784 Y31.52 Z0 F444
G1 Y26.21 Z0 F444
;Layer C3 Pass 2 of 2
; --- FIX Y Backlash ---
G0 X37.784 Y26.71 F410
G1 Y32.02 Z0 F444
; --- FIX X Backlash ---
G0 X38.484 Y32.02 F410
G1 X38.622 Y33.531 Z0 F444
; --- FIX X Backlash ---
G0 X37.922 Y33.531 F410
G1 X37.647 Y34.63 Z0 F444
G1 X37.693 Y34.813 Z0 F444
; --- FIX X Backlash ---
G0 X38.393 Y34.813 F410
G1 X38.713 Y35.911 Z0 F444
; --- FIX X Backlash ---
G0 X38.013 Y35.911 F410
G1 X37.739 Y37.468 Z0 F444
; --- FIX X Backlash ---
G0 X38.439 Y37.468 F410
G1 X38.805 Y41.038 Z0 F444
; --- FIX X Backlash ---
G0 X38.105 Y41.038 F410
G1 X37.418 Y41.267 Z0 F444
; --- FIX Y Backlash ---
G0 X37.418 Y40.767 F410
G1 Y36.052 Z0 F444
; --- FIX Y Backlash ---
G0 X37.418 Y36.552 F410
G1 X36.228 Y37.376 Z0 F444
; --- FIX Y Backlash ---
G0 X36.228 Y36.876 F410
G1 X34.214 Y36.739 Z0 F444
; --- FIX Y Backlash ---
G0 X34.214 Y37.239 F410
G1 X32.566 Y37.697 Z0 F444
G1 X31.376 Y39.161 Z0 F444
G1 X30.735 Y40.123 Z0 F444
G1 X29.957 Y40.077 Z0 F444
; --- FIX Y Backlash ---
G0 X29.957 Y39.577 F410
G1 X29.819 Y36.785 Z0 F444
; --- FIX X Backlash ---
G0 X30.519 Y36.785 F410
G1 X30.84 Y33.077 Z0 F444
; --- FIX Y Backlash ---
G0 X30.84 Y33.577 F410
G1 X31.252 Y34.858 Z0 F444
G1 X31.275 Y36.582 Z0 F444
G1 X31.35 Y38.222 Z0 F444
; --- FIX Y Backlash ---
G0 X31.35 Y37.722 F410
G1 X31.827 Y37.489 Z0 F444
G1 X31.818 Y33.946 Z0 F444
G1 X32.062 Y33.561 Z0 F444
; --- FIX Y Backlash ---
G0 X32.062 Y34.061 F410
G1 X32.463 Y37.126 Z0 F444
G0 Z3.5 F444
; --- FIX Y Backlash ---
G0 X32.463 Y36.626 F410
G0 X46.221 Y36.19 Z3.5
G1 Z0 F444
;Layer C3 Pass 1 of 2
; --- FIX Y Backlash ---
G0 X46.221 Y36.69 F410
G1 X46.358 Y39.894 Z0 F444
; --- FIX X Backlash ---
G0 X45.658 Y39.894 F410
G1 X45.383 Y41.771 Z0 F444
; --- FIX X Backlash ---
G0 X46.083 Y41.771 F410
G1 X46.495 Y43.007 Z0 F444
G1 X46.707 Y43.63 Z0 F444
G1 X46.837 Y44.03 Z0 F444
G1 X47.024 Y44.667 Z0 F444
G1 X47.36 Y45.753 Z0 F444
G1 X47.471 Y46.128 Z0 F444
G1 X47.56 Y46.455 Z0 F444
G1 X47.592 Y46.59 Z0 F444
G1 X47.615 Y46.701 Z0 F444
G1 X47.625 Y46.784 Z0 F444
G1 X47.622 Y46.834 Z0 F444
; --- FIX X Backlash ---
G0 X46.922 Y46.834 F410
G1 X46.436 Y48.363 Z0 F444
G1 X44.971 Y48.5 Z0 F444
; --- FIX Y Backlash ---
G0 X44.971 Y48 F410
G1 X44.841 Y47.89 Z0 F444
G1 X44.525 Y47.615 Z0 F444
G1 X44.266 Y47.38 Z0 F444
G1 X44.008 Y47.132 Z0 F444
G1 X43.782 Y46.895 Z0 F444
G1 X43.692 Y46.789 Z0 F444
G1 X43.622 Y46.694 Z0 F444
G1 X43.577 Y46.615 Z0 F444
G1 X43.562 Y46.553 Z0 F444
G1 Y46.457 Z0 F444
G1 X43.565 Y46.293 Z0 F444
G1 X43.575 Y46.083 Z0 F444
G1 X43.598 Y45.852 Z0 F444
G1 X43.637 Y45.624 Z0 F444
; --- FIX X Backlash ---
G0 X44.337 Y45.624 F410
G1 X44.398 Y45.423 Z0 F444
G1 X44.484 Y45.272 Z0 F444
G1 X44.6 Y45.197 Z0 F444
G1 X45.219 Y45.067 Z0 F444
G1 X45.722 Y44.958 Z0 F444
G1 X45.934 Y44.908 Z0 F444
G1 X46.091 Y44.865 Z0 F444
G1 X46.17 Y44.834 Z0 F444
G1 X46.206 Y44.847 Z0 F444
; --- FIX Y Backlash ---
G0 X46.206 Y45.347 F410
G1 X46.235 Y45.435 Z0 F444
G1 X46.258 Y45.587 Z0 F444
G1 X46.276 Y45.791 Z0 F444
G1 X46.298 Y46.304 Z0 F444
G1 X46.307 Y46.876 Z0 F444
G1 X46.297 Y46.973 Z0 F444
G1 X46.268 Y47.049 Z0 F444
G1 X46.221 Y47.106 Z0 F444
; --- FIX X Backlash ---
G0 X45.521 Y47.106 F410
G1 X45.461 Y47.146 Z0 F444
G1 X45.31 Y47.182 Z0 F444
G1 X45.136 Y47.174 Z0 F444
G1 X44.962 Y47.139 Z0 F444
G1 X44.811 Y47.093 Z0 F444
G1 X44.703 Y47.054 Z0 F444
G1 X44.662 Y47.037 Z0 F444
;Layer C3 Pass 2 of 2
G1 X44.703 Y47.054 Z0 F444
; --- FIX X Backlash ---
G0 X45.403 Y47.054 F410
G1 X45.511 Y47.093 Z0 F444
G1 X45.662 Y47.139 Z0 F444
G1 X45.836 Y47.174 Z0 F444
G1 X46.01 Y47.182 Z0 F444
G1 X46.161 Y47.146 Z0 F444
G1 X46.221 Y47.106 Z0 F444
; --- FIX Y Backlash ---
G0 X46.221 Y46.606 F410
G1 X46.268 Y46.549 Z0 F444
G1 X46.297 Y46.473 Z0 F444
G1 X46.307 Y46.376 Z0 F444
G1 X46.298 Y45.804 Z0 F444
G1 X46.276 Y45.291 Z0 F444
G1 X46.258 Y45.087 Z0 F444
G1 X46.235 Y44.935 Z0 F444
G1 X46.206 Y44.847 Z0 F444
G1 X46.17 Y44.834 Z0 F444
; --- FIX X Backlash ---
G0 X45.47 Y44.834 F410
G1 X45.391 Y44.865 Z0 F444
G1 X45.234 Y44.908 Z0 F444
G1 X45.022 Y44.958 Z0 F444
; --- FIX Y Backlash ---
G0 X45.022 Y45.458 F410
G1 X44.519 Y45.567 Z0 F444
G1 X43.9 Y45.697 Z0 F444
G1 X43.784 Y45.772 Z0 F444
G1 X43.698 Y45.923 Z0 F444
G1 X43.637 Y46.124 Z0 F444
G1 X43.598 Y46.352 Z0 F444
G1 X43.575 Y46.583 Z0 F444
G1 X43.565 Y46.793 Z0 F444
G1 X43.562 Y46.957 Z0 F444
G1 Y47.053 Z0 F444
G1 X43.577 Y47.115 Z0 F444
G1 X43.622 Y47.194 Z0 F444
; --- FIX X Backlash ---
G0 X44.322 Y47.194 F410
G1 X44.392 Y47.289 Z0 F444
G1 X44.482 Y47.395 Z0 F444
G1 X44.708 Y47.632 Z0 F444
G1 X44.966 Y47.88 Z0 F444
G1 X45.225 Y48.115 Z0 F444
G1 X45.541 Y48.39 Z0 F444
G1 X45.671 Y48.5 Z0 F444
; --- FIX Y Backlash ---
G0 X45.671 Y48 F410
G1 X47.136 Y47.863 Z0 F444
G1 X47.622 Y46.334 Z0 F444
G1 X47.625 Y46.284 Z0 F444
G1 X47.615 Y46.201 Z0 F444
G1 X47.592 Y46.09 Z0 F444
G1 X47.56 Y45.955 Z0 F444
; --- FIX X Backlash ---
G0 X46.86 Y45.955 F410
G1 X46.771 Y45.628 Z0 F444
G1 X46.66 Y45.253 Z0 F444
G1 X46.324 Y44.167 Z0 F444
G1 X46.137 Y43.53 Z0 F444
G1 X46.007 Y43.13 Z0 F444
G1 X45.795 Y42.507 Z0 F444
G1 X45.383 Y41.271 Z0 F444
; --- FIX X Backlash ---
G0 X46.083 Y41.271 F410
G1 X46.358 Y39.394 Z0 F444
; --- FIX X Backlash ---
G0 X45.658 Y39.394 F410
G1 X45.521 Y36.19 Z0 F444
G0 Z3.5 F444
; --- FIX X Backlash ---
G0 X46.221 Y36.19 F410
; --- FIX Y Backlash ---
G0 X46.221 Y36.69 F410
G0 X48.967 Y42.045 Z3.5
G1 Z0 F444
;Layer C3 Pass 1 of 2
; --- FIX X Backlash ---
G0 X48.267 Y42.045 F410
; --- FIX Y Backlash ---
G0 X48.267 Y41.545 F410
G1 X48.084 Y40.905 Z0 F444
G1 X47.855 Y37.013 Z0 F444
;Layer C3 Pass 2 of 2
; --- FIX X Backlash ---
G0 X48.555 Y37.013 F410
; --- FIX Y Backlash ---
G0 X48.555 Y37.513 F410
G1 X48.784 Y41.405 Z0 F444
G1 X48.967 Y42.045 Z0 F444
G0 Z3.5 F444
; --- FIX Y Backlash ---
G0 X48.967 Y41.545 F410
G0 X51.394 Y37.105 Z3.5
G1 Z0 F444
;Layer C3 Pass 1 of 2
; --- FIX X Backlash ---
G0 X50.694 Y37.105 F410
; --- FIX Y Backlash ---
G0 X50.694 Y37.605 F410
G1 X50.465 Y40.26 Z0 F444
; --- FIX X Backlash ---
G0 X51.165 Y40.26 F410
G1 X51.302 Y41.862 Z0 F444
;Layer C3 Pass 2 of 2
; --- FIX X Backlash ---
G0 X50.602 Y41.862 F410
; --- FIX Y Backlash ---
G0 X50.602 Y41.362 F410
G1 X50.465 Y39.76 Z0 F444
; --- FIX X Backlash ---
G0 X51.165 Y39.76 F410
G1 X51.394 Y37.105 Z0 F444
G0 Z3.5 F444
; --- FIX Y Backlash ---
G0 X51.394 Y37.605 F410
G0 X53.682 Y42.045 Z3.5
G1 Z0 F444
;Layer C3 Pass 1 of 2
; --- FIX Y Backlash ---
G0 X53.682 Y41.545 F410
G1 X53.741 Y41.205 Z0 F444
G1 X53.877 Y40.435 Z0 F444
G1 X53.955 Y40.008 Z0 F444
G1 X54.03 Y39.614 Z0 F444
G1 X54.094 Y39.302 Z0 F444
G1 X54.12 Y39.192 Z0 F444
G1 X54.14 Y39.119 Z0 F444
G1 X54.156 Y39.05 Z0 F444
G1 X54.168 Y38.948 Z0 F444
G1 X54.178 Y38.819 Z0 F444
G1 X54.186 Y38.667 Z0 F444
G1 X54.195 Y38.318 Z0 F444
G1 Y37.94 Z0 F444
G1 Y37.576 Z0 F444
G1 X54.186 Y36.968 Z0 F444
;Layer C3 Pass 2 of 2
; --- FIX Y Backlash ---
G0 X54.186 Y37.468 F410
G1 X54.196 Y38.076 Z0 F444
G1 Y38.44 Z0 F444
G1 Y38.818 Z0 F444
G1 X54.186 Y39.167 Z0 F444
G1 X54.178 Y39.319 Z0 F444
G1 X54.168 Y39.448 Z0 F444
G1 X54.156 Y39.55 Z0 F444
G1 X54.14 Y39.619 Z0 F444
G1 X54.12 Y39.692 Z0 F444
G1 X54.094 Y39.802 Z0 F444
; --- FIX X Backlash ---
G0 X53.394 Y39.802 F410
G1 X53.33 Y40.114 Z0 F444
G1 X53.255 Y40.508 Z0 F444
G1 X53.177 Y40.935 Z0 F444
G1 X53.041 Y41.705 Z0 F444
G1 X52.982 Y42.045 Z0 F444
G0 Z3.5 F444
; --- FIX X Backlash ---
G0 X53.682 Y42.045 F410
G0 X56.63 Y48.009 Z3.5
G1 Z0 F444
;Layer C3 Pass 1 of 2
; --- FIX Y Backlash ---
G0 X56.63 Y47.509 F410
G1 X56.902 Y47.172 Z0 F444
G1 X57.152 Y46.777 Z0 F444
G1 X57.255 Y46.596 Z0 F444
G1 X57.336 Y46.448 Z0 F444
G1 X57.407 Y46.311 Z0 F444
; --- FIX X Backlash ---
G0 X56.707 Y46.311 F410
G1 X56.577 Y45.243 Z0 F444
G1 X56.447 Y45.171 Z0 F444
G1 X56.321 Y45.095 Z0 F444
G1 X56.189 Y45.004 Z0 F444
G1 X56.075 Y44.91 Z0 F444
G1 X56.004 Y44.82 Z0 F444
G1 X56.001 Y44.744 Z0 F444
; --- FIX X Backlash ---
G0 X56.701 Y44.744 F410
G1 X56.792 Y44.693 Z0 F444
G1 X56.969 Y44.666 Z0 F444
G1 X57.194 Y44.657 Z0 F444
G1 X57.444 Y44.66 Z0 F444
G1 X57.698 Y44.673 Z0 F444
G1 X57.934 Y44.689 Z0 F444
G1 X58.13 Y44.707 Z0 F444
G1 X58.313 Y44.725 Z0 F444
; --- FIX Y Backlash ---
G0 X58.313 Y45.225 F410
G1 X58.532 Y45.451 Z0 F444
G1 X58.661 Y45.589 Z0 F444
G1 X58.794 Y45.737 Z0 F444
G1 X58.914 Y45.881 Z0 F444
G1 X59.007 Y46.006 Z0 F444
G1 X59.058 Y46.099 Z0 F444
G1 X59.113 Y46.26 Z0 F444
G1 X59.187 Y46.435 Z0 F444
G1 X59.285 Y46.604 Z0 F444
G1 X59.414 Y46.747 Z0 F444
G1 X59.521 Y46.786 Z0 F444
G1 X59.683 Y46.79 Z0 F444
G1 X59.878 Y46.766 Z0 F444
G1 X60.085 Y46.726 Z0 F444
G1 X60.284 Y46.679 Z0 F444
G1 X60.452 Y46.633 Z0 F444
G1 X60.611 Y46.585 Z0 F444
G1 X60.662 Y46.615 Z0 F444
G1 X60.745 Y46.702 Z0 F444
G1 X60.768 Y46.766 Z0 F444
G1 X60.762 Y46.844 Z0 F444
G1 X60.714 Y46.935 Z0 F444
; --- FIX X Backlash ---
G0 X60.014 Y46.935 F410
G1 X59.911 Y47.038 Z0 F444
G1 X59.625 Y47.291 Z0 F444
G1 X59.341 Y47.584 Z0 F444
G1 X59.22 Y47.731 Z0 F444
G1 X59.124 Y47.871 Z0 F444
G1 X59.06 Y47.998 Z0 F444
G1 X59.038 Y48.106 Z0 F444
G1 X59.011 Y48.342 Z0 F444
G1 X58.924 Y48.608 Z0 F444
G1 X58.854 Y48.728 Z0 F444
G1 X58.764 Y48.825 Z0 F444
G1 X58.653 Y48.891 Z0 F444
G1 X58.52 Y48.915 Z0 F444
G1 X58.153 Y48.875 Z0 F444
; --- FIX Y Backlash ---
G0 X58.153 Y48.375 F410
G1 X57.727 Y48.286 Z0 F444
G1 X57.532 Y48.238 Z0 F444
G1 X57.373 Y48.197 Z0 F444
G1 X57.225 Y48.156 Z0 F444
G1 X56.577 Y47.638 Z0 F444
; --- FIX X Backlash ---
G0 X57.277 Y47.638 F410
G1 X57.345 Y47.575 Z0 F444
G1 X57.504 Y47.42 Z0 F444
G1 X57.687 Y47.229 Z0 F444
G1 X57.828 Y47.056 Z0 F444
G1 X57.876 Y46.951 Z0 F444
G1 X57.923 Y46.797 Z0 F444
G1 X57.967 Y46.612 Z0 F444
G1 X58.006 Y46.416 Z0 F444
G1 X58.039 Y46.23 Z0 F444
G1 X58.064 Y46.073 Z0 F444
G1 X58.087 Y45.923 Z0 F444
; --- FIX Y Backlash ---
G0 X58.087 Y46.423 F410
G1 X58.637 Y47.167 Z0 F444
G1 X58.831 Y48.041 Z0 F444
; --- FIX X Backlash ---
G0 X58.131 Y48.041 F410
G1 X57.484 Y48.106 Z0 F444
; --- FIX Y Backlash ---
G0 X57.484 Y47.606 F410
G1 X57.419 Y47.509 Z0 F444
;Layer C3 Pass 2 of 2
; --- FIX X Backlash ---
G0 X58.119 Y47.509 F410
; --- FIX Y Backlash ---
G0 X58.119 Y48.009 F410
G1 X58.184 Y48.106 Z0 F444
; --- FIX Y Backlash ---
G0 X58.184 Y47.606 F410
G1 X58.831 Y47.541 Z0 F444
; --- FIX X Backlash ---
G0 X58.131 Y47.541 F410
G1 X57.937 Y46.667 Z0 F444
G1 X57.387 Y45.923 Z0 F444
; --- FIX Y Backlash ---
G0 X57.387 Y46.423 F410
G1 X57.364 Y46.573 Z0 F444
G1 X57.339 Y46.73 Z0 F444
G1 X57.306 Y46.916 Z0 F444
G1 X57.267 Y47.112 Z0 F444
G1 X57.223 Y47.297 Z0 F444
G1 X57.176 Y47.451 Z0 F444
G1 X57.128 Y47.556 Z0 F444
G1 X56.987 Y47.729 Z0 F444
G1 X56.804 Y47.92 Z0 F444
G1 X56.645 Y48.075 Z0 F444
G1 X56.577 Y48.138 Z0 F444
; --- FIX X Backlash ---
G0 X57.277 Y48.138 F410
G1 X57.925 Y48.656 Z0 F444
G1 X58.073 Y48.697 Z0 F444
G1 X58.232 Y48.738 Z0 F444
G1 X58.427 Y48.786 Z0 F444
G1 X58.853 Y48.875 Z0 F444
G1 X59.22 Y48.915 Z0 F444
G1 X59.353 Y48.891 Z0 F444
; --- FIX Y Backlash ---
G0 X59.353 Y48.391 F410
G1 X59.464 Y48.325 Z0 F444
G1 X59.554 Y48.228 Z0 F444
G1 X59.624 Y48.108 Z0 F444
G1 X59.711 Y47.842 Z0 F444
G1 X59.738 Y47.606 Z0 F444
G1 X59.76 Y47.498 Z0 F444
G1 X59.824 Y47.371 Z0 F444
G1 X59.92 Y47.231 Z0 F444
G1 X60.041 Y47.084 Z0 F444
G1 X60.325 Y46.791 Z0 F444
G1 X60.611 Y46.538 Z0 F444
G1 X60.714 Y46.435 Z0 F444
G1 X60.762 Y46.344 Z0 F444
G1 X60.768 Y46.266 Z0 F444
G1 X60.745 Y46.202 Z0 F444
; --- FIX X Backlash ---
G0 X60.045 Y46.202 F410
G1 X59.962 Y46.115 Z0 F444
G1 X59.911 Y46.085 Z0 F444
G1 X59.752 Y46.133 Z0 F444
G1 X59.584 Y46.179 Z0 F444
G1 X59.385 Y46.226 Z0 F444
G1 X59.178 Y46.266 Z0 F444
G1 X58.983 Y46.29 Z0 F444
G1 X58.821 Y46.286 Z0 F444
G1 X58.714 Y46.247 Z0 F444
G1 X58.585 Y46.104 Z0 F444
G1 X58.487 Y45.935 Z0 F444
G1 X58.413 Y45.76 Z0 F444
G1 X58.358 Y45.599 Z0 F444
G1 X58.307 Y45.506 Z0 F444
G1 X58.214 Y45.381 Z0 F444
G1 X58.094 Y45.237 Z0 F444
G1 X57.961 Y45.089 Z0 F444
G1 X57.832 Y44.951 Z0 F444
G1 X57.613 Y44.725 Z0 F444
G1 X57.43 Y44.707 Z0 F444
G1 X57.234 Y44.689 Z0 F444
G1 X56.998 Y44.673 Z0 F444
G1 X56.744 Y44.66 Z0 F444
G1 X56.494 Y44.657 Z0 F444
G1 X56.269 Y44.666 Z0 F444
G1 X56.092 Y44.693 Z0 F444
; --- FIX Y Backlash ---
G0 X56.092 Y45.193 F410
G1 X56.001 Y45.244 Z0 F444
G1 X56.004 Y45.32 Z0 F444
; --- FIX X Backlash ---
G0 X56.704 Y45.32 F410
G1 X56.775 Y45.41 Z0 F444
G1 X56.889 Y45.504 Z0 F444
G1 X57.021 Y45.595 Z0 F444
G1 X57.147 Y45.671 Z0 F444
G1 X57.277 Y45.743 Z0 F444
G1 X57.407 Y46.811 Z0 F444
; --- FIX X Backlash ---
G0 X56.707 Y46.811 F410
G1 X56.636 Y46.948 Z0 F444
G1 X56.555 Y47.096 Z0 F444
G1 X56.452 Y47.277 Z0 F444
G1 X56.202 Y47.672 Z0 F444
G1 X55.93 Y48.009 Z0 F444
;Offset @ 555 mm/min, 90% power

M8
G0 Z3.5 F444
G0 X40.524 Y49.136 Z3.5
G1 Z0 F444
;Layer C1
G1 X40.467 Y49.162 Z0 F444
G1 X40.343 Y49.145 Z0 F444
; --- FIX X Backlash ---
G0 X41.043 Y49.145 F410
G1 X41.124 Y49.131 Z0 F444
G1 X41.209 Y49.106 Z0 F444
G1 X41.298 Y49.084 Z0 F444
; --- FIX X Backlash ---
G0 X40.598 Y49.084 F410
G1 X40.524 Y49.136 Z0 F444
G0 Z3.5 F444
G0 X36.629 Y51.657 Z3.5 F444
G1 Z0 F444
G1 X36.571 Y51.664 Z0 F444
G1 X36.486 Y51.667 Z0 F444
G1 X36.415 Y51.676 Z0 F444
; --- FIX X Backlash ---
G0 X37.115 Y51.676 F410
G1 X37.214 Y51.653 Z0 F444
G1 X37.32 Y51.639 Z0 F444
G1 X37.329 Y51.657 Z0 F444
G0 Z3.5 F444
; --- FIX Y Backlash ---
G0 X37.329 Y51.157 F410
G0 X54.779 Y30.717 Z3.5
G1 Z0 F444
; --- FIX X Backlash ---
G0 X54.079 Y30.717 F410
G1 X53.977 Z0 F444
G1 X53.935 Y30.712 Z0 F444
G1 X53.939 Y30.709 Z0 F444
G1 X53.971 Y30.706 Z0 F444
; --- FIX X Backlash ---
G0 X54.671 Y30.706 F410
G1 X54.761 Z0 F444
G1 X54.779 Y30.717 Z0 F444
G0 Z3.5 F444
G0 X57.021 Y26.994 Z3.5
G1 Z0 F444
G1 X57.004 Y27.008 Z0 F444
G1 X56.984 Y27.021 Z0 F444
G1 X57.032 Y26.941 Z0 F444
G1 X57.072 Y26.855 Z0 F444
; --- FIX X Backlash ---
G0 X56.372 Y26.855 F410
; --- FIX Y Backlash ---
G0 X56.372 Y27.355 F410
G1 X56.321 Y27.494 Z0 F444
G0 Z3.5 F444
; --- FIX X Backlash ---
G0 X57.021 Y27.494 F410
G0 X62.127 Y30.735 Z3.5
G1 Z0 F444
G1 Y35.421 Z0 F444
; --- FIX X Backlash ---
G0 X61.427 Y35.421 F410
; --- FIX Y Backlash ---
G0 X61.427 Y34.921 F410
G1 X61.36 Y34.709 Z0 F444
G1 X60.853 Y33.693 Z0 F444
G1 X60.167 Y32.691 Z0 F444
G1 X60.114 Y32.636 Z0 F444
; --- FIX X Backlash ---
G0 X60.814 Y32.636 F410
G1 X60.994 Y31.9 Z0 F444
G1 X61.107 Y31.129 Z0 F444
G1 X61.154 Y30.28 Z0 F444
G1 X61.11 Y29.642 Z0 F444
G1 X61.697 Y28.638 Z0 F444
G1 X62.01 Y27.631 Z0 F444
G1 X62.11 Y26.756 Z0 F444
G1 X62.074 Y25.926 Z0 F444
; --- FIX X Backlash ---
G0 X61.374 Y25.926 F410
G1 X61.289 Y25.539 Z0 F444
G1 X61.254 Y25.172 Z0 F444
G1 X61.138 Y24.361 Z0 F444
G1 X60.994 Y23.583 Z0 F444
G1 X60.868 Y23.018 Z0 F444
G1 X60.905 Y22.961 Z0 F444
; --- FIX X Backlash ---
G0 X61.605 Y22.961 F410
G1 X62.017 Y22.178 Z0 F444
G1 X62.136 Y21.813 Z0 F444
; --- FIX Y Backlash ---
G0 X62.136 Y22.313 F410
G1 X62.127 Y30.735 Z0 F444
G0 Z3.5 F444
; --- FIX X Backlash ---
G0 X61.427 Y30.735 F410
; --- FIX Y Backlash ---
G0 X61.427 Y30.235 F410
G0 X27.211 Y26.469 Z3.5
G1 Z0 F444
G1 X27.127 Y26.516 Z0 F444
G1 Y26.409 Z0 F444
; --- FIX X Backlash ---
G0 X27.827 Y26.409 F410
; --- FIX Y Backlash ---
G0 X27.827 Y26.909 F410
G1 X27.911 Y26.969 Z0 F444
G0 Z3.5 F444
G0 X28.644 Y27.29 Z3.5
G1 Z0 F444
; --- FIX X Backlash ---
G0 X27.944 Y27.29 F410
G1 X27.32 Y27.642 Z0 F444
G1 X26.852 Y27.894 Z0 F444
G1 X26.715 Y27.997 Z0 F444
; --- FIX Y Backlash ---
G0 X26.715 Y27.497 F410
G1 X26.488 Y27.424 Z0 F444
G1 X26.485 Y24.89 Z0 F444
; --- FIX X Backlash ---
G0 X27.185 Y24.89 F410
; --- FIX Y Backlash ---
G0 X27.185 Y25.39 F410
G1 X27.397 Y25.666 Z0 F444
G1 X28.011 Y26.252 Z0 F444
G1 X28.64 Y26.705 Z0 F444
G1 X29.265 Y27.05 Z0 F444
; --- FIX X Backlash ---
G0 X28.565 Y27.05 F410
G1 X27.944 Y27.29 Z0 F444
G0 Z3.5 F444
G0 X25.849 Y28.22 Z3.5
G1 Z0 F444
; --- FIX Y Backlash ---
G0 X25.849 Y27.72 F410
G1 X25.842 Y22.456 Z0 F444
; --- FIX Y Backlash ---
G0 X25.842 Y22.956 F410
G1 X25.857 Y23.019 Z0 F444
; --- FIX X Backlash ---
G0 X26.557 Y23.019 F410
G1 X26.824 Y23.708 Z0 F444
G1 X27.217 Y24.401 Z0 F444
G1 X27.567 Y24.837 Z0 F444
G1 X27.875 Y25.237 Z0 F444
G1 X28.421 Y25.759 Z0 F444
G1 X28.983 Y26.164 Z0 F444
G1 X29.587 Y26.497 Z0 F444
G1 X29.856 Y26.599 Z0 F444
G1 X29.892 Y26.646 Z0 F444
G1 X30.45 Y27.114 Z0 F444
G1 X30.793 Y27.317 Z0 F444
; --- FIX X Backlash ---
G0 X30.093 Y27.317 F410
G1 X29.818 Y27.358 Z0 F444
G1 X29.043 Y27.552 Z0 F444
G1 X28.217 Y27.871 Z0 F444
G1 X27.641 Y28.195 Z0 F444
G1 X27.198 Y28.434 Z0 F444
G1 X26.835 Y28.708 Z0 F444
; --- FIX Y Backlash ---
G0 X26.835 Y28.208 F410
G1 X26.196 Y28.002 Z0 F444
; --- FIX Y Backlash ---
G0 X26.196 Y28.502 F410
G1 X25.848 Y29.405 Z0 F444
; --- FIX Y Backlash ---
G0 X25.848 Y28.905 F410
G1 Y27.72 Z0 F444
G0 Z3.5 F444
; --- FIX X Backlash ---
G0 X26.548 Y27.72 F410
G0 X61.316 Y15.032 Z3.5
G1 Z0 F444
G1 X62.14 Z0 F444
; --- FIX Y Backlash ---
G0 X62.14 Y15.532 F410
G1 Y18.023 Z0 F444
; --- FIX Y Backlash ---
G0 X62.14 Y17.523 F410
G1 X62.122 Y17.44 Z0 F444
; --- FIX X Backlash ---
G0 X61.422 Y17.44 F410
G1 X61.047 Y16.309 Z0 F444
G1 X60.69 Y15.436 Z0 F444
G1 X60.66 Y15.364 Z0 F444
G1 X60.616 Y15.032 Z0 F444
G0 Z3.5 F444
G0 X59.714 Y14.393 Z3.5
G1 Z0 F444
; --- FIX X Backlash ---
G0 X60.414 Y14.393 F410
G1 X62.78 Z0 F444
; --- FIX Y Backlash ---
G0 X62.78 Y14.893 F410
G1 Y21.205 Z0 F444
G1 X62.767 Y30.735 Z0 F444
G1 X62.77 Y37.303 Z0 F444
; --- FIX X Backlash ---
G0 X62.07 Y37.303 F410
G1 X61.962 Y37.257 Z0 F444
; --- FIX Y Backlash ---
G0 X61.962 Y36.757 F410
G1 X61.291 Y36.541 Z0 F444
G1 X61.093 Y36.495 Z0 F444
G1 X61.018 Y35.723 Z0 F444
G1 X60.766 Y34.953 Z0 F444
G1 X60.3 Y34.019 Z0 F444
G1 X59.668 Y33.095 Z0 F444
G1 X59.385 Y32.798 Z0 F444
; --- FIX X Backlash ---
G0 X60.085 Y32.798 F410
G1 X60.193 Y32.484 Z0 F444
G1 X60.365 Y31.777 Z0 F444
G1 X60.469 Y31.064 Z0 F444
G1 X60.513 Y30.284 Z0 F444
G1 X60.469 Y29.647 Z0 F444
G1 X60.42 Y29.445 Z0 F444
G1 X60.576 Y29.287 Z0 F444
G1 X61.107 Y28.378 Z0 F444
G1 X61.381 Y27.499 Z0 F444
G1 X61.468 Y26.733 Z0 F444
G1 X61.437 Y26.009 Z0 F444
; --- FIX X Backlash ---
G0 X60.737 Y26.009 F410
G1 X60.655 Y25.637 Z0 F444
G1 X60.618 Y25.248 Z0 F444
G1 X60.507 Y24.465 Z0 F444
G1 X60.366 Y23.71 Z0 F444
G1 X60.185 Y22.894 Z0 F444
; --- FIX X Backlash ---
G0 X60.885 Y22.894 F410
G1 X61.053 Y22.637 Z0 F444
G1 X61.425 Y21.928 Z0 F444
G1 X61.722 Y21.025 Z0 F444
G1 X61.834 Y20.331 Z0 F444
G1 X61.862 Y19.66 Z0 F444
; --- FIX X Backlash ---
G0 X61.162 Y19.66 F410
G1 X61.092 Y18.933 Z0 F444
G1 X60.996 Y18.543 Z0 F444
G1 X60.802 Y17.606 Z0 F444
G1 X60.446 Y16.531 Z0 F444
G1 X60.099 Y15.682 Z0 F444
G1 X60.037 Y15.537 Z0 F444
G1 X59.984 Y15.13 Z0 F444
G1 X59.714 Y14.393 Z0 F444
G0 Z3.5 F444
G0 X58.617 Y13.803 Z3.5
G1 Z0 F444
G1 X58.567 Y13.753 Z0 F444
; --- FIX X Backlash ---
G0 X59.267 Y13.753 F410
G1 X63.419 Z0 F444
; --- FIX Y Backlash ---
G0 X63.419 Y14.253 F410
G1 Y21.206 Z0 F444
G1 X63.407 Y30.735 Z0 F444
G1 X63.41 Y38.309 Z0 F444
; --- FIX X Backlash ---
G0 X62.71 Y38.309 F410
; --- FIX Y Backlash ---
G0 X62.71 Y37.809 F410
G1 X62.349 Y37.615 Z0 F444
G1 X61.738 Y37.357 Z0 F444
G1 X61.12 Y37.158 Z0 F444
G1 X60.495 Y37.014 Z0 F444
G1 X60.425 Y37.003 Z0 F444
G1 X60.466 Y36.65 Z0 F444
G1 X60.388 Y35.855 Z0 F444
G1 X60.172 Y35.196 Z0 F444
G1 X59.747 Y34.343 Z0 F444
G1 X59.17 Y33.499 Z0 F444
G1 X58.652 Y32.957 Z0 F444
G1 X58.659 Y32.942 Z0 F444
; --- FIX X Backlash ---
G0 X59.359 Y32.942 F410
G1 X59.578 Y32.304 Z0 F444
G1 X59.736 Y31.655 Z0 F444
G1 X59.832 Y31 Z0 F444
G1 X59.872 Y30.289 Z0 F444
G1 X59.834 Y29.745 Z0 F444
; --- FIX X Backlash ---
G0 X59.134 Y29.745 F410
G1 X59.015 Y29.249 Z0 F444
; --- FIX X Backlash ---
G0 X59.715 Y29.249 F410
G1 X60.064 Y28.895 Z0 F444
G1 X60.518 Y28.118 Z0 F444
G1 X60.751 Y27.366 Z0 F444
G1 X60.827 Y26.71 Z0 F444
G1 X60.8 Y26.092 Z0 F444
; --- FIX X Backlash ---
G0 X60.1 Y26.092 F410
G1 X60.022 Y25.735 Z0 F444
G1 X59.982 Y25.323 Z0 F444
G1 X59.875 Y24.568 Z0 F444
G1 X59.739 Y23.838 Z0 F444
G1 X59.549 Y22.982 Z0 F444
G1 X59.486 Y22.808 Z0 F444
G1 X59.513 Y22.75 Z0 F444
G1 X59.553 Y22.69 Z0 F444
; --- FIX X Backlash ---
G0 X60.253 Y22.69 F410
G1 X60.5 Y22.312 Z0 F444
G1 X60.834 Y21.678 Z0 F444
G1 X61.098 Y20.874 Z0 F444
G1 X61.197 Y20.266 Z0 F444
G1 X61.221 Y19.677 Z0 F444
; --- FIX X Backlash ---
G0 X60.521 Y19.677 F410
G1 X60.46 Y19.041 Z0 F444
G1 X60.372 Y18.686 Z0 F444
G1 X60.183 Y17.772 Z0 F444
G1 X59.845 Y16.753 Z0 F444
G1 X59.509 Y15.929 Z0 F444
G1 X59.414 Y15.706 Z0 F444
G1 X59.358 Y15.283 Z0 F444
G1 X59.077 Y14.516 Z0 F444
G1 X58.617 Y13.803 Z0 F444
G0 Z3.5 F444
G0 X57.623 Y13.717 Z3.5
G1 Z0 F444
G1 X57.005 Y13.341 Z0 F444
G1 X56.307 Y13.118 Z0 F444
G1 X56.253 Y13.114 Z0 F444
; --- FIX X Backlash ---
G0 X56.953 Y13.114 F410
G1 X64.06 Z0 F444
; --- FIX Y Backlash ---
G0 X64.06 Y13.614 F410
G1 Y21.206 Z0 F444
G1 X64.047 Y30.735 Z0 F444
G1 X64.05 Y39.508 Z0 F444
; --- FIX X Backlash ---
G0 X63.35 Y39.508 F410
; --- FIX Y Backlash ---
G0 X63.35 Y39.008 F410
G1 X63.141 Y38.835 Z0 F444
G1 X62.617 Y38.485 Z0 F444
G1 X62.072 Y38.193 Z0 F444
G1 X61.515 Y37.958 Z0 F444
G1 X60.949 Y37.775 Z0 F444
G1 X60.377 Y37.643 Z0 F444
G1 X59.803 Y37.561 Z0 F444
G1 X59.658 Y37.551 Z0 F444
; --- FIX X Backlash ---
G0 X60.358 Y37.551 F410
G1 X60.445 Y37.303 Z0 F444
G1 X60.522 Y36.644 Z0 F444
; --- FIX X Backlash ---
G0 X59.822 Y36.644 F410
G1 X59.758 Y35.987 Z0 F444
G1 X59.579 Y35.439 Z0 F444
G1 X59.194 Y34.668 Z0 F444
G1 X58.671 Y33.903 Z0 F444
G1 X58.207 Y33.417 Z0 F444
G1 X57.863 Y33.147 Z0 F444
; --- FIX X Backlash ---
G0 X58.563 Y33.147 F410
G1 X58.764 Y32.705 Z0 F444
G1 X58.963 Y32.124 Z0 F444
G1 X59.107 Y31.533 Z0 F444
G1 X59.195 Y30.935 Z0 F444
G1 X59.23 Y30.293 Z0 F444
G1 X59.199 Y29.843 Z0 F444
; --- FIX X Backlash ---
G0 X58.499 Y29.843 F410
G1 X58.391 Y29.391 Z0 F444
G1 X58.267 Y29.073 Z0 F444
; --- FIX X Backlash ---
G0 X58.967 Y29.073 F410
G1 X59.027 Y29.036 Z0 F444
G1 X59.552 Y28.502 Z0 F444
G1 X59.929 Y27.858 Z0 F444
G1 X60.123 Y27.233 Z0 F444
G1 X60.185 Y26.688 Z0 F444
G1 X60.163 Y26.175 Z0 F444
; --- FIX X Backlash ---
G0 X59.463 Y26.175 F410
G1 X59.388 Y25.835 Z0 F444
G1 X59.346 Y25.399 Z0 F444
G1 X59.243 Y24.672 Z0 F444
G1 X59.112 Y23.966 Z0 F444
G1 X58.933 Y23.161 Z0 F444
G1 X58.795 Y22.777 Z0 F444
; --- FIX X Backlash ---
G0 X59.495 Y22.777 F410
G1 X59.627 Y22.493 Z0 F444
G1 X59.637 Y22.458 Z0 F444
G1 X59.721 Y22.335 Z0 F444
G1 X59.948 Y21.988 Z0 F444
G1 X60.243 Y21.427 Z0 F444
G1 X60.474 Y20.721 Z0 F444
G1 X60.559 Y20.201 Z0 F444
G1 X60.58 Y19.694 Z0 F444
; --- FIX X Backlash ---
G0 X59.88 Y19.694 F410
G1 X59.827 Y19.149 Z0 F444
G1 X59.748 Y18.83 Z0 F444
G1 X59.564 Y17.938 Z0 F444
G1 X59.245 Y16.975 Z0 F444
G1 X58.918 Y16.175 Z0 F444
G1 X58.791 Y15.877 Z0 F444
G1 X58.733 Y15.437 Z0 F444
G1 X58.501 Y14.803 Z0 F444
G1 X58.117 Y14.208 Z0 F444
G1 X57.623 Y13.717 Z0 F444
G0 Z3.5 F444
; --- FIX Y Backlash ---
G0 X57.623 Y14.217 F410
G0 X26.569 Y14.938 Z3.5
G1 Z0 F444
G1 X26.529 Y15.014 Z0 F444
; --- FIX Y Backlash ---
G0 X26.529 Y14.514 F410
G1 Y14.438 Z0 F444
G1 X26.569 Z0 F444
G0 Z3.5 F444
; --- FIX X Backlash ---
G0 X27.269 Y14.438 F410
; --- FIX Y Backlash ---
G0 X27.269 Y14.938 F410
G0 X27.855 Y15.195 Z3.5
G1 Z0 F444
; --- FIX X Backlash ---
G0 X27.155 Y15.195 F410
G1 X27.017 Y15.464 Z0 F444
G1 X26.794 Y16.062 Z0 F444
G1 X26.758 Y16.217 Z0 F444
G1 X26.541 Y16.773 Z0 F444
G1 X26.173 Y17.656 Z0 F444
G1 X25.947 Y18.313 Z0 F444
G1 X25.852 Y18.677 Z0 F444
; --- FIX Y Backlash ---
G0 X25.852 Y18.177 F410
G1 X25.855 Y17.108 Z0 F444
G1 X25.898 Y13.8 Z0 F444
; --- FIX X Backlash ---
G0 X26.598 Y13.8 F410
G1 X28.207 Y13.794 Z0 F444
; --- FIX X Backlash ---
G0 X27.507 Y13.794 F410
; --- FIX Y Backlash ---
G0 X27.507 Y14.294 F410
G1 X27.155 Y15.195 Z0 F444
G0 Z3.5 F444
G0 X26.772 Y17.884 Z3.5
G1 Z0 F444
G1 X26.56 Y18.498 Z0 F444
G1 X26.381 Y19.189 Z0 F444
G1 X26.263 Y19.969 Z0 F444
G1 X26.232 Y21.315 Z0 F444
; --- FIX X Backlash ---
G0 X26.932 Y21.315 F410
G1 X27.017 Y22.206 Z0 F444
G1 X27.169 Y22.827 Z0 F444
G1 X27.403 Y23.433 Z0 F444
G1 X27.749 Y24.041 Z0 F444
G1 X28.055 Y24.421 Z0 F444
G1 X28.352 Y24.808 Z0 F444
G1 X28.831 Y25.265 Z0 F444
G1 X29.326 Y25.622 Z0 F444
G1 X29.857 Y25.915 Z0 F444
G1 X30.25 Y26.064 Z0 F444
G1 X30.354 Y26.198 Z0 F444
G1 X30.822 Y26.59 Z0 F444
G1 X31.295 Y26.872 Z0 F444
G1 X31.801 Y27.075 Z0 F444
G1 X32.302 Y27.191 Z0 F444
G1 X32.476 Y27.209 Z0 F444
G1 X32.451 Y27.275 Z0 F444
; --- FIX X Backlash ---
G0 X31.751 Y27.275 F410
G1 X31.652 Y27.832 Z0 F444
G1 X31.611 Z0 F444
G1 X30.615 Y27.887 Z0 F444
G1 X29.943 Y27.986 Z0 F444
G1 X29.236 Y28.164 Z0 F444
G1 X28.491 Y28.451 Z0 F444
G1 X27.917 Y28.774 Z0 F444
G1 X27.545 Y28.974 Z0 F444
G1 X27.029 Y29.365 Z0 F444
G1 X26.97 Y29.425 Z0 F444
; --- FIX Y Backlash ---
G0 X26.97 Y28.925 F410
G1 X26.575 Y28.797 Z0 F444
; --- FIX Y Backlash ---
G0 X26.575 Y29.297 F410
G1 X26.096 Y30.543 Z0 F444
G1 X25.967 Y30.772 Z0 F444
G1 X25.761 Y31.265 Z0 F444
G1 X25.615 Y31.76 Z0 F444
G1 X25.604 Y31.82 Z0 F444
G1 X25.381 Y32.4 Z0 F444
G1 X25.232 Y32.877 Z0 F444
G1 X25.206 Y32.874 Z0 F444
; --- FIX Y Backlash ---
G0 X25.206 Y32.374 F410
G1 X25.209 Y27.72 Z0 F444
G1 X25.201 Y22.416 Z0 F444
G1 X25.215 Y17.107 Z0 F444
; --- FIX X Backlash ---
G0 X25.915 Y17.107 F410
G1 X25.966 Y13.168 Z0 F444
G1 X26.167 Y13.162 Z0 F444
G1 X29.5 Y13.149 Z0 F444
; --- FIX X Backlash ---
G0 X28.8 Y13.149 F410
; --- FIX Y Backlash ---
G0 X28.8 Y13.649 F410
G1 X28.742 Y13.878 Z0 F444
G1 X28.713 Y14.131 Z0 F444
G1 X28.69 Y14.155 Z0 F444
; --- FIX Y Backlash ---
G0 X28.69 Y13.655 F410
G1 X28.295 Y13.535 Z0 F444
; --- FIX Y Backlash ---
G0 X28.295 Y14.035 F410
G1 X27.741 Y15.456 Z0 F444
G1 X27.604 Y15.723 Z0 F444
G1 X27.408 Y16.248 Z0 F444
G1 X27.37 Y16.409 Z0 F444
G1 X27.14 Y17 Z0 F444
G1 X26.772 Y17.884 Z0 F444
G0 Z3.5 F444
G0 X24.561 Y22.914 Z3.5
G1 Z0 F444
; --- FIX Y Backlash ---
G0 X24.561 Y22.414 F410
G1 X24.575 Y17.125 Z0 F444
; --- FIX X Backlash ---
G0 X25.275 Y17.125 F410
G1 X25.334 Y12.543 Z0 F444
G1 X25.472 Z0 F444
G1 X26.162 Y12.521 Z0 F444
G1 X30.271 Y12.506 Z0 F444
; --- FIX X Backlash ---
G0 X29.571 Y12.506 F410
; --- FIX Y Backlash ---
G0 X29.571 Y13.006 F410
G1 X29.5 Y13.515 Z0 F444
G1 X29.49 Y13.535 Z0 F444
G1 X29.373 Y13.994 Z0 F444
G1 X29.325 Y14.41 Z0 F444
G1 X29.306 Y14.432 Z0 F444
G1 X29.003 Y14.76 Z0 F444
G1 X28.9 Y14.888 Z0 F444
; --- FIX Y Backlash ---
G0 X28.9 Y14.388 F410
G1 X28.675 Y14.32 Z0 F444
; --- FIX Y Backlash ---
G0 X28.675 Y14.82 F410
G1 X28.325 Y15.72 Z0 F444
G1 X28.19 Y15.982 Z0 F444
G1 X28.022 Y16.434 Z0 F444
G1 X27.983 Y16.598 Z0 F444
G1 X27.731 Y17.245 Z0 F444
G1 X27.37 Y18.111 Z0 F444
G1 X27.173 Y18.683 Z0 F444
G1 X27.008 Y19.317 Z0 F444
G1 X26.903 Y20.025 Z0 F444
G1 X26.872 Y21.292 Z0 F444
; --- FIX X Backlash ---
G0 X27.572 Y21.292 F410
G1 X27.65 Y22.099 Z0 F444
G1 X27.781 Y22.635 Z0 F444
G1 X27.983 Y23.158 Z0 F444
G1 X28.28 Y23.68 Z0 F444
G1 X28.572 Y24.044 Z0 F444
G1 X28.83 Y24.379 Z0 F444
G1 X29.241 Y24.772 Z0 F444
G1 X29.669 Y25.08 Z0 F444
G1 X30.127 Y25.333 Z0 F444
G1 X30.644 Y25.53 Z0 F444
G1 X30.817 Y25.75 Z0 F444
G1 X31.193 Y26.066 Z0 F444
G1 X31.58 Y26.296 Z0 F444
G1 X31.994 Y26.463 Z0 F444
G1 X32.407 Y26.559 Z0 F444
G1 X32.95 Y26.613 Z0 F444
G1 X33.188 Y26.604 Z0 F444
G1 X33.208 Y26.74 Z0 F444
G1 X33.211 Y26.93 Z0 F444
G1 X33.192 Y27.08 Z0 F444
; --- FIX X Backlash ---
G0 X32.492 Y27.08 F410
G1 X32.425 Y27.3 Z0 F444
G1 X32.37 Y27.446 Z0 F444
G1 X32.269 Y28.019 Z0 F444
G1 X32.277 Y28.454 Z0 F444
G1 X31.637 Y28.472 Z0 F444
G1 X30.68 Y28.525 Z0 F444
G1 X30.068 Y28.615 Z0 F444
G1 X29.43 Y28.774 Z0 F444
G1 X28.764 Y29.031 Z0 F444
G1 X28.246 Y29.323 Z0 F444
G1 X27.892 Y29.514 Z0 F444
G1 X27.452 Y29.847 Z0 F444
G1 X27.15 Y30.155 Z0 F444
; --- FIX Y Backlash ---
G0 X27.15 Y29.655 F410
G1 X26.955 Y29.592 Z0 F444
; --- FIX Y Backlash ---
G0 X26.955 Y30.092 F410
G1 X26.677 Y30.814 Z0 F444
G1 X26.544 Y31.053 Z0 F444
G1 X26.365 Y31.48 Z0 F444
G1 X26.238 Y31.91 Z0 F444
G1 X26.222 Y31.995 Z0 F444
G1 X25.986 Y32.61 Z0 F444
G1 X25.7 Y33.528 Z0 F444
G1 X25.689 Y33.576 Z0 F444
G1 X25.684 Z0 F444
G1 X25.676 Y33.629 Z0 F444
G1 X25.575 Y34.053 Z0 F444
G1 X25.48 Y34.583 Z0 F444
G1 X25.416 Y35.135 Z0 F444
G1 X25.398 Y35.528 Z0 F444
G1 X25.338 Y35.938 Z0 F444
G1 X25.197 Y36.489 Z0 F444
G1 X25.002 Y37.272 Z0 F444
G1 X24.846 Y38.294 Z0 F444
G1 X24.868 Y38.813 Z0 F444
; --- FIX X Backlash ---
G0 X25.568 Y38.813 F410
G1 X25.692 Y39.261 Z0 F444
G1 X25.881 Y39.7 Z0 F444
G1 X25.918 Y39.784 Z0 F444
G1 X25.931 Y40.272 Z0 F444
G1 X25.951 Y40.817 Z0 F444
G1 Y40.893 Z0 F444
; --- FIX X Backlash ---
G0 X25.251 Y40.893 F410
G1 X25.145 Y41.003 Z0 F444
G1 X24.569 Y41.216 Z0 F444
; --- FIX Y Backlash ---
G0 X24.569 Y40.716 F410
G1 Y38.232 Z0 F444
G1 X24.565 Y33.04 Z0 F444
G1 X24.569 Y27.72 Z0 F444
G1 X24.561 Y22.414 Z0 F444
G0 Z3.5 F444
G0 X23.935 Y17.117 Z3.5
G1 Z0 F444
; --- FIX X Backlash ---
G0 X24.635 Y17.117 F410
G1 X24.702 Y11.905 Z0 F444
G1 X24.805 Z0 F444
G1 X25.462 Z0 F444
G1 X26.157 Y11.881 Z0 F444
G1 X31.859 Y11.86 Z0 F444
; --- FIX X Backlash ---
G0 X31.159 Y11.86 F410
; --- FIX Y Backlash ---
G0 X31.159 Y12.36 F410
G1 X30.973 Y12.507 Z0 F444
G1 X30.666 Y12.794 Z0 F444
G1 X30.338 Y13.224 Z0 F444
G1 X30.226 Y13.466 Z0 F444
G1 X30.152 Z0 F444
G1 X30.12 Y13.697 Z0 F444
G1 X30.095 Y13.75 Z0 F444
G1 X30.004 Y14.11 Z0 F444
G1 X29.964 Y14.459 Z0 F444
G1 X29.969 Y14.643 Z0 F444
G1 X29.954 Y14.665 Z0 F444
G1 X29.772 Y14.871 Z0 F444
G1 X29.488 Y15.179 Z0 F444
G1 X29.144 Y15.604 Z0 F444
G1 X29.129 Y15.627 Z0 F444
G1 X29.057 Y15.605 Z0 F444
G1 X28.909 Y15.984 Z0 F444
G1 X28.777 Y16.242 Z0 F444
G1 X28.635 Y16.62 Z0 F444
G1 X28.596 Y16.788 Z0 F444
G1 X28.323 Y17.488 Z0 F444
G1 X27.968 Y18.339 Z0 F444
G1 X27.786 Y18.868 Z0 F444
G1 X27.636 Y19.446 Z0 F444
G1 X27.541 Y20.08 Z0 F444
G1 X27.513 Y21.27 Z0 F444
; --- FIX X Backlash ---
G0 X28.213 Y21.27 F410
G1 X28.283 Y21.992 Z0 F444
G1 X28.393 Y22.442 Z0 F444
G1 X28.563 Y22.883 Z0 F444
G1 X28.811 Y23.319 Z0 F444
G1 X29.077 Y23.651 Z0 F444
G1 X29.307 Y23.95 Z0 F444
G1 X29.651 Y24.278 Z0 F444
G1 X30.012 Y24.538 Z0 F444
G1 X30.396 Y24.75 Z0 F444
G1 X31.037 Y24.994 Z0 F444
G1 X31.279 Y25.303 Z0 F444
G1 X31.565 Y25.543 Z0 F444
G1 X31.864 Y25.721 Z0 F444
G1 X32.187 Y25.851 Z0 F444
G1 X32.512 Y25.926 Z0 F444
G1 X32.969 Y25.972 Z0 F444
G1 X33.379 Y25.955 Z0 F444
G1 X33.689 Y25.913 Z0 F444
G1 X33.729 Y25.907 Z0 F444
G1 X33.753 Y26.065 Z0 F444
G1 X33.778 Y26.332 Z0 F444
G1 X33.806 Y26.413 Z0 F444
G1 X33.848 Y26.69 Z0 F444
G1 X33.853 Y26.964 Z0 F444
G1 X33.819 Y27.218 Z0 F444
; --- FIX X Backlash ---
G0 X33.119 Y27.218 F410
G1 X33.033 Y27.503 Z0 F444
G1 X32.99 Y27.617 Z0 F444
G1 X32.91 Y28.069 Z0 F444
G1 X32.919 Y28.52 Z0 F444
; --- FIX X Backlash ---
G0 X33.619 Y28.52 F410
G1 X33.707 Y28.949 Z0 F444
G1 X33.803 Y29.183 Z0 F444
; --- FIX X Backlash ---
G0 X33.103 Y29.183 F410
; --- FIX Y Backlash ---
G0 X33.103 Y28.683 F410
G1 X32.941 Y28.62 Z0 F444
G1 X32.544 Y28.586 Z0 F444
G1 X31.664 Y28.612 Z0 F444
; --- FIX Y Backlash ---
G0 X31.664 Y29.112 F410
G1 X30.744 Y29.162 Z0 F444
G1 X30.192 Y29.243 Z0 F444
G1 X29.624 Y29.386 Z0 F444
G1 X29.038 Y29.612 Z0 F444
G1 X28.561 Y29.88 Z0 F444
G1 X28.238 Y30.054 Z0 F444
G1 X27.876 Y30.329 Z0 F444
G1 X27.569 Y30.642 Z0 F444
G1 X27.377 Y30.901 Z0 F444
G1 X27.335 Y30.887 Z0 F444
G1 X27.258 Y31.086 Z0 F444
G1 X27.12 Y31.334 Z0 F444
G1 X26.969 Y31.695 Z0 F444
G1 X26.862 Y32.06 Z0 F444
G1 X26.841 Y32.172 Z0 F444
G1 X26.591 Y32.821 Z0 F444
G1 X26.317 Y33.697 Z0 F444
G1 X26.202 Y34.184 Z0 F444
G1 X26.113 Y34.676 Z0 F444
G1 X26.054 Y35.186 Z0 F444
G1 X26.036 Y35.591 Z0 F444
G1 X25.967 Y36.063 Z0 F444
G1 X25.818 Y36.646 Z0 F444
G1 X25.63 Y37.398 Z0 F444
G1 X25.488 Y38.329 Z0 F444
G1 X25.505 Y38.713 Z0 F444
; --- FIX X Backlash ---
G0 X26.205 Y38.713 F410
G1 X26.297 Y39.048 Z0 F444
G1 X26.468 Y39.444 Z0 F444
G1 X26.555 Y39.641 Z0 F444
G1 X26.571 Y40.252 Z0 F444
G1 X26.591 Y40.812 Z0 F444
G1 X26.596 Y41.146 Z0 F444
; --- FIX X Backlash ---
G0 X25.896 Y41.146 F410
G1 X25.547 Y41.51 Z0 F444
G1 X25.523 Y41.548 Z0 F444
G1 X25.367 Y41.604 Z0 F444
G1 X24.708 Y41.847 Z0 F444
G1 X23.978 Y42.178 Z0 F444
G1 X23.927 Y42.209 Z0 F444
; --- FIX Y Backlash ---
G0 X23.927 Y41.709 F410
G1 X23.93 Y38.232 Z0 F444
G1 X23.925 Y33.04 Z0 F444
G1 X23.929 Y27.72 Z0 F444
G1 X23.921 Y22.412 Z0 F444
G1 X23.935 Y17.117 Z0 F444
G0 Z3.5 F444
; --- FIX X Backlash ---
G0 X24.635 Y17.117 F410
; --- FIX Y Backlash ---
G0 X24.635 Y17.617 F410
G0 X51.154 Y51.976 Z3.5
G1 Z0 F444
G1 X51.312 Y52.193 Z0 F444
G1 X51.469 Y52.362 Z0 F444
; --- FIX X Backlash ---
G0 X50.769 Y52.362 F410
G1 X49.947 Z0 F444
; --- FIX X Backlash ---
G0 X50.647 Y52.362 F410
; --- FIX Y Backlash ---
G0 X50.647 Y51.862 F410
G1 X51.154 Y51.476 Z0 F444
G0 Z3.5 F444
G0 X51.807 Y51.286 Z3.5
G1 Z0 F444
; --- FIX Y Backlash ---
G0 X51.807 Y51.786 F410
G1 X52.12 Y52.124 Z0 F444
G1 X52.449 Y52.407 Z0 F444
G1 X52.81 Y52.659 Z0 F444
G1 X53.408 Y52.976 Z0 F444
G1 X53.479 Y53.002 Z0 F444
; --- FIX X Backlash ---
G0 X52.779 Y53.002 F410
G1 X48.053 Z0 F444
; --- FIX X Backlash ---
G0 X48.753 Y53.002 F410
; --- FIX Y Backlash ---
G0 X48.753 Y52.502 F410
G1 X48.887 Y52.4 Z0 F444
G1 X49.313 Y52.137 Z0 F444
G1 X49.455 Y52.026 Z0 F444
; --- FIX Y Backlash ---
G0 X49.455 Y52.526 F410
G1 X49.529 Y52.58 Z0 F444
; --- FIX Y Backlash ---
G0 X49.529 Y52.08 F410
G1 X49.812 Y51.749 Z0 F444
G1 X49.883 Y51.692 Z0 F444
G1 X50.139 Y51.445 Z0 F444
G1 X50.575 Y51.112 Z0 F444
; --- FIX X Backlash ---
G0 X49.875 Y51.112 F410
G1 X49.809 Y51.026 Z0 F444
; --- FIX X Backlash ---
G0 X50.509 Y51.026 F410
G1 X50.771 Y50.658 Z0 F444
G1 X50.829 Y50.553 Z0 F444
G1 X51.131 Y50.199 Z0 F444
G1 X51.208 Y50.108 Z0 F444
; --- FIX Y Backlash ---
G0 X51.208 Y50.608 F410
G1 X51.266 Y50.885 Z0 F444
G1 X51.495 Y51.357 Z0 F444
G1 X51.807 Y51.786 Z0 F444
G0 Z3.5 F444
; --- FIX Y Backlash ---
G0 X51.807 Y51.286 F410
G0 X55.92 Y13.114 Z3.5
G1 Z0 F444
; --- FIX X Backlash ---
G0 X55.22 Y13.114 F410
G1 X54.668 Y13.159 Z0 F444
; --- FIX Y Backlash ---
G0 X54.668 Y13.659 F410
G1 X53.889 Y13.751 Z0 F444
G1 X53.284 Y13.811 Z0 F444
G1 X52.798 Y13.819 Z0 F444
G1 X51.865 Y13.809 Z0 F444
G1 X51.09 Y13.794 Z0 F444
G1 X50.564 Y13.758 Z0 F444
; --- FIX Y Backlash ---
G0 X50.564 Y13.258 F410
G1 X50.34 Y13.114 Z0 F444
; --- FIX X Backlash ---
G0 X51.04 Y13.114 F410
G1 X55.92 Z0 F444
G0 Z3.5 F444
; --- FIX Y Backlash ---
G0 X55.92 Y13.614 F410
G0 X56.886 Y14.251 Z3.5
G1 Z0 F444
; --- FIX X Backlash ---
G0 X56.186 Y14.251 F410
G1 X55.694 Y14.218 Z0 F444
G1 X54.731 Y14.296 Z0 F444
G1 X53.953 Y14.388 Z0 F444
G1 X53.321 Y14.45 Z0 F444
G1 X52.811 Y14.459 Z0 F444
G1 X51.859 Y14.449 Z0 F444
G1 X51.072 Y14.435 Z0 F444
G1 X50.377 Y14.386 Z0 F444
G1 X50.344 Y14.381 Z0 F444
G1 X50.332 Y14.37 Z0 F444
; --- FIX Y Backlash ---
G0 X50.332 Y13.87 F410
G1 X49.97 Y13.638 Z0 F444
G1 X49.51 Y13.452 Z0 F444
G1 X49.013 Y13.366 Z0 F444
G1 X48.641 Y13.374 Z0 F444
G1 X48.505 Y13.289 Z0 F444
G1 X48.391 Y13.021 Z0 F444
G1 X48.02 Y12.536 Z0 F444
G1 X47.94 Y12.474 Z0 F444
; --- FIX X Backlash ---
G0 X48.64 Y12.474 F410
G1 X56.193 Z0 F444
G1 X64.7 Y12.471 Z0 F444
; --- FIX Y Backlash ---
G0 X64.7 Y12.971 F410
G1 Y21.207 Z0 F444
G1 X64.687 Y30.736 Z0 F444
G1 X64.691 Y40.269 Z0 F444
G1 X64.694 Y41.136 Z0 F444
; --- FIX X Backlash ---
G0 X63.994 Y41.136 F410
; --- FIX Y Backlash ---
G0 X63.994 Y40.636 F410
G1 X63.357 Y39.872 Z0 F444
G1 X63.196 Y39.71 Z0 F444
G1 X62.758 Y39.349 Z0 F444
G1 X62.287 Y39.034 Z0 F444
G1 X61.796 Y38.771 Z0 F444
G1 X61.292 Y38.559 Z0 F444
G1 X60.779 Y38.393 Z0 F444
G1 X60.259 Y38.273 Z0 F444
G1 X59.738 Y38.198 Z0 F444
G1 X59.115 Y38.158 Z0 F444
G1 X58.82 Y38.195 Z0 F444
G1 Y38.147 Z0 F444
G1 X58.841 Y37.988 Z0 F444
G1 X58.869 Y37.848 Z0 F444
G1 X58.902 Y37.735 Z0 F444
; --- FIX X Backlash ---
G0 X59.602 Y37.735 F410
G1 X59.695 Y37.509 Z0 F444
G1 X59.818 Y37.159 Z0 F444
G1 X59.878 Y36.638 Z0 F444
G1 X59.828 Y36.119 Z0 F444
; --- FIX X Backlash ---
G0 X59.128 Y36.119 F410
G1 X58.985 Y35.683 Z0 F444
G1 X58.641 Y34.994 Z0 F444
G1 X58.172 Y34.308 Z0 F444
G1 X57.776 Y33.893 Z0 F444
G1 X57.318 Y33.533 Z0 F444
G1 X57.011 Y33.365 Z0 F444
; --- FIX X Backlash ---
G0 X57.711 Y33.365 F410
G1 X57.935 Y32.98 Z0 F444
G1 X58.168 Y32.468 Z0 F444
G1 X58.348 Y31.944 Z0 F444
G1 X58.478 Y31.41 Z0 F444
G1 X58.557 Y30.871 Z0 F444
G1 X58.589 Y30.297 Z0 F444
G1 X58.564 Y29.94 Z0 F444
; --- FIX X Backlash ---
G0 X57.864 Y29.94 F410
G1 X57.779 Y29.583 Z0 F444
G1 X57.528 Y28.939 Z0 F444
G1 X57.46 Y28.821 Z0 F444
G1 X57.48 Y28.813 Z0 F444
; --- FIX X Backlash ---
G0 X58.18 Y28.813 F410
G1 X58.623 Y28.534 Z0 F444
G1 X59.04 Y28.11 Z0 F444
G1 X59.339 Y27.598 Z0 F444
G1 X59.494 Y27.101 Z0 F444
G1 X59.543 Y26.665 Z0 F444
G1 X59.526 Y26.257 Z0 F444
; --- FIX X Backlash ---
G0 X58.826 Y26.257 F410
G1 X58.755 Y25.935 Z0 F444
G1 X58.711 Y25.475 Z0 F444
G1 X58.611 Y24.775 Z0 F444
G1 X58.485 Y24.094 Z0 F444
G1 X58.317 Y23.339 Z0 F444
G1 X58.167 Y22.923 Z0 F444
G1 X58.075 Y22.778 Z0 F444
; --- FIX X Backlash ---
G0 X58.775 Y22.778 F410
G1 X58.825 Y22.699 Z0 F444
G1 X59.027 Y22.264 Z0 F444
G1 X59.053 Y22.179 Z0 F444
G1 X59.057 Y22.173 Z0 F444
G1 X59.188 Y21.98 Z0 F444
G1 X59.395 Y21.663 Z0 F444
G1 X59.651 Y21.177 Z0 F444
G1 X59.851 Y20.569 Z0 F444
G1 X59.921 Y20.136 Z0 F444
G1 X59.938 Y19.712 Z0 F444
G1 X59.895 Y19.257 Z0 F444
; --- FIX X Backlash ---
G0 X59.195 Y19.257 F410
G1 X59.125 Y18.974 Z0 F444
G1 X58.945 Y18.104 Z0 F444
G1 X58.644 Y17.197 Z0 F444
G1 X58.328 Y16.422 Z0 F444
G1 X58.16 Y16.028 Z0 F444
G1 X58.157 Y15.97 Z0 F444
G1 X58.108 Y15.59 Z0 F444
G1 X57.925 Y15.09 Z0 F444
G1 X57.616 Y14.613 Z0 F444
G1 X57.225 Y14.224 Z0 F444
G1 X56.738 Y13.927 Z0 F444
G1 X56.186 Y13.751 Z0 F444
G0 Z3.5 F444
; --- FIX Y Backlash ---
G0 X56.186 Y14.251 F410
G0 X41.644 Y51.368 Z3.5
G1 Z0 F444
; --- FIX X Backlash ---
G0 X42.344 Y51.368 F410
G1 X42.685 Y51.916 Z0 F444
G1 X43.153 Y52.448 Z0 F444
G1 X43.706 Y52.897 Z0 F444
G1 X43.892 Y53.002 Z0 F444
; --- FIX X Backlash ---
G0 X43.192 Y53.002 F410
G1 X40.483 Z0 F444
; --- FIX Y Backlash ---
G0 X40.483 Y52.502 F410
G1 X40.459 Y52.41 Z0 F444
G1 X40.423 Y52.334 Z0 F444
; --- FIX X Backlash ---
G0 X41.123 Y52.334 F410
G1 X41.437 Y52.114 Z0 F444
G1 X41.897 Y51.612 Z0 F444
G1 X42.202 Y51.147 Z0 F444
G1 X42.344 Y50.868 Z0 F444
G0 Z3.5 F444
G0 X42.653 Y49.966 Z3.5
G1 Z0 F444
; --- FIX Y Backlash ---
G0 X42.653 Y50.466 F410
G1 X42.883 Y51.023 Z0 F444
G1 X43.2 Y51.533 Z0 F444
G1 X43.598 Y51.985 Z0 F444
G1 X44.067 Y52.367 Z0 F444
G1 X44.603 Y52.669 Z0 F444
G1 X45.169 Y52.867 Z0 F444
G1 X45.392 Y52.913 Z0 F444
G1 X46.001 Y52.958 Z0 F444
G1 X46.648 Y52.993 Z0 F444
G1 X47.137 Y52.959 Z0 F444
G1 X47.327 Y52.916 Z0 F444
G1 X47.422 Y53.055 Z0 F444
; --- FIX Y Backlash ---
G0 X47.422 Y52.555 F410
G1 X48.024 Y52.182 Z0 F444
G1 X48.251 Y52.081 Z0 F444
G1 X48.526 Y51.872 Z0 F444
G1 X48.946 Y51.611 Z0 F444
G1 X49.463 Y51.208 Z0 F444
G1 X49.743 Y50.937 Z0 F444
G1 X49.996 Y50.645 Z0 F444
G1 X50.229 Y50.315 Z0 F444
G1 X50.301 Y50.187 Z0 F444
G1 X50.643 Y49.785 Z0 F444
G1 X51.141 Y49.193 Z0 F444
G1 X51.416 Y48.819 Z0 F444
G1 X51.679 Y48.404 Z0 F444
G1 X51.784 Y48.197 Z0 F444
; --- FIX Y Backlash ---
G0 X51.784 Y48.697 F410
G1 X51.763 Y49.091 Z0 F444
G1 X51.795 Y50.292 Z0 F444
G1 X51.876 Y50.676 Z0 F444
G1 X52.046 Y51.026 Z0 F444
G1 X52.302 Y51.379 Z0 F444
G1 X52.564 Y51.662 Z0 F444
G1 X52.842 Y51.901 Z0 F444
G1 X53.144 Y52.112 Z0 F444
G1 X53.671 Y52.391 Z0 F444
G1 X54.177 Y52.582 Z0 F444
G1 X54.609 Y52.713 Z0 F444
G1 X54.969 Y52.813 Z0 F444
G1 X55.23 Y52.893 Z0 F444
G1 X55.458 Y52.982 Z0 F444
G1 X56.029 Y53.233 Z0 F444
G1 X56.735 Y53.48 Z0 F444
G1 X57.17 Y53.585 Z0 F444
G1 X57.191 Y53.588 Z0 F444
G1 X57.195 Y53.643 Z0 F444
; --- FIX X Backlash ---
G0 X56.495 Y53.643 F410
G1 X39.967 Z0 F444
; --- FIX Y Backlash ---
G0 X39.967 Y53.143 F410
G1 X39.963 Y53.045 Z0 F444
G1 X39.856 Y52.631 Z0 F444
G1 X39.798 Y52.51 Z0 F444
G1 X39.774 Y52.392 Z0 F444
G1 X39.614 Y52.065 Z0 F444
; --- FIX X Backlash ---
G0 X40.314 Y52.065 F410
G1 X40.463 Y52.017 Z0 F444
G1 X41.012 Y51.63 Z0 F444
G1 X41.39 Y51.218 Z0 F444
G1 X41.647 Y50.825 Z0 F444
G1 X41.813 Y50.502 Z0 F444
G1 X41.921 Y50.271 Z0 F444
G1 X42.005 Y50.097 Z0 F444
G1 X42.045 Y50.023 Z0 F444
G1 X42.2 Y49.868 Z0 F444
G1 X42.335 Y49.611 Z0 F444
G1 X42.418 Y49.528 Z0 F444
; --- FIX Y Backlash ---
G0 X42.418 Y50.028 F410
G1 X42.527 Y50.088 Z0 F444
G1 X42.57 Y50.104 Z0 F444
G1 X42.653 Y50.466 Z0 F444
G0 Z3.5 F444
; --- FIX X Backlash ---
G0 X41.953 Y50.466 F410
G0 X32.467 Y52.997 Z3.5
G1 Z0 F444
G1 X31.637 Y53 Z0 F444
G1 Y52.986 Z0 F444
; --- FIX Y Backlash ---
G0 X31.637 Y52.486 F410
G1 X31.655 Y52.277 Z0 F444
; --- FIX X Backlash ---
G0 X32.355 Y52.277 F410
G1 X32.41 Y52.208 Z0 F444
G1 X32.562 Y52.037 Z0 F444
G1 X33.015 Y51.563 Z0 F444
; --- FIX Y Backlash ---
G0 X33.015 Y52.063 F410
G1 X33.246 Y52.277 Z0 F444
; --- FIX X Backlash ---
G0 X32.546 Y52.277 F410
G1 X32.474 Y52.802 Z0 F444
G1 X32.467 Y52.997 Z0 F444
G0 Z3.5 F444
; --- FIX X Backlash ---
G0 X33.167 Y52.997 F410
G0 X33.825 Y53.635 Z3.5
G1 Z0 F444
; --- FIX X Backlash ---
G0 X33.125 Y53.635 F410
G1 X31.379 Y53.64 Z0 F444
G1 X30.992 Y53.624 Z0 F444
; --- FIX Y Backlash ---
G0 X30.992 Y53.124 F410
G1 X30.988 Y53.031 Z0 F444
G1 X30.998 Y52.456 Z0 F444
G1 X31.032 Y52.052 Z0 F444
; --- FIX X Backlash ---
G0 X31.732 Y52.052 F410
G1 X31.792 Y51.958 Z0 F444
G1 X31.919 Y51.796 Z0 F444
G1 X32.103 Y51.591 Z0 F444
G1 X32.583 Y51.089 Z0 F444
G1 X32.939 Y50.685 Z0 F444
; --- FIX Y Backlash ---
G0 X32.939 Y51.185 F410
G1 X33.028 Y51.267 Z0 F444
G1 X33.315 Y51.47 Z0 F444
G1 X33.372 Y51.522 Z0 F444
G1 X33.38 Y51.516 Z0 F444
G1 X33.424 Y51.547 Z0 F444
G1 X33.824 Y51.771 Z0 F444
G1 X34.089 Y51.885 Z0 F444
; --- FIX X Backlash ---
G0 X33.389 Y51.885 F410
G1 X33.288 Y52.05 Z0 F444
G1 X33.173 Y52.417 Z0 F444
G1 X33.113 Y52.858 Z0 F444
G1 X33.097 Y53.281 Z0 F444
G1 X33.125 Y53.635 Z0 F444
G0 Z3.5 F444
; --- FIX X Backlash ---
G0 X33.825 Y53.635 F410
G0 X34.152 Y54.274 Z3.5
G1 Z0 F444
; --- FIX X Backlash ---
G0 X33.452 Y54.274 F410
G1 X31.369 Y54.28 Z0 F444
G1 X30.897 Y54.261 Z0 F444
G1 X30.432 Y54.268 Z0 F444
; --- FIX Y Backlash ---
G0 X30.432 Y53.768 F410
G1 X30.394 Y53.581 Z0 F444
G1 X30.363 Y53.318 Z0 F444
G1 X30.347 Y53.034 Z0 F444
G1 X30.358 Y52.427 Z0 F444
G1 X30.404 Y51.879 Z0 F444
; --- FIX X Backlash ---
G0 X31.104 Y51.879 F410
G1 X31.155 Y51.767 Z0 F444
G1 X31.273 Y51.582 Z0 F444
G1 X31.429 Y51.384 Z0 F444
G1 X31.619 Y51.171 Z0 F444
G1 X32.111 Y50.656 Z0 F444
G1 X32.645 Y50.051 Z0 F444
G1 X32.685 Y49.991 Z0 F444
G1 X32.751 Y49.909 Z0 F444
G1 X32.827 Y49.843 Z0 F444
G1 X32.913 Y49.791 Z0 F444
G1 X32.955 Y49.775 Z0 F444
; --- FIX Y Backlash ---
G0 X32.955 Y50.275 F410
G1 X33.111 Y50.472 Z0 F444
G1 X33.432 Y50.768 Z0 F444
G1 X33.766 Y51.005 Z0 F444
G1 X34.108 Y51.196 Z0 F444
G1 X34.718 Y51.459 Z0 F444
G1 X35.184 Y51.64 Z0 F444
; --- FIX X Backlash ---
G0 X34.484 Y51.64 F410
G1 X34.256 Y51.829 Z0 F444
G1 X34.01 Y52.095 Z0 F444
G1 X33.875 Y52.317 Z0 F444
G1 X33.8 Y52.557 Z0 F444
G1 X33.751 Y52.913 Z0 F444
G1 X33.738 Y53.268 Z0 F444
G1 X33.768 Y53.643 Z0 F444
; --- FIX X Backlash ---
G0 X34.468 Y53.643 F410
G1 X34.555 Y54.04 Z0 F444
G1 X34.651 Y54.27 Z0 F444
; --- FIX X Backlash ---
G0 X33.951 Y54.27 F410
G1 X33.452 Y54.274 Z0 F444
G0 Z3.5 F444
; --- FIX X Backlash ---
G0 X34.152 Y54.274 F410
; --- FIX Y Backlash ---
G0 X34.152 Y53.774 F410
G0 X38.907 Y13.046 Z3.5
G1 Z0 F444
; --- FIX X Backlash ---
G0 X38.207 Y13.046 F410
G1 X37.955 Y12.711 Z0 F444
G1 X37.771 Y12.482 Z0 F444
; --- FIX X Backlash ---
G0 X38.471 Y12.482 F410
G1 X42.283 Y12.479 Z0 F444
; --- FIX X Backlash ---
G0 X41.583 Y12.479 F410
; --- FIX Y Backlash ---
G0 X41.583 Y12.979 F410
G1 X40.921 Y13.163 Z0 F444
G1 X40.488 Y13.353 Z0 F444
G1 X40.086 Y13.588 Z0 F444
G1 X39.783 Y13.821 Z0 F444
; --- FIX Y Backlash ---
G0 X39.783 Y13.321 F410
G1 X39.287 Y13.148 Z0 F444
G1 X38.678 Y13.074 Z0 F444
G1 X38.291 Y13.083 Z0 F444
G1 X38.207 Y13.046 Z0 F444
G0 Z3.5 F444
G0 X36.945 Y12.534 Z3.5
G1 Z0 F444
G1 X36.566 Y12.232 Z0 F444
G1 X36.099 Y11.971 Z0 F444
G1 X35.754 Y11.855 Z0 F444
G1 X35.731 Y11.844 Z0 F444
; --- FIX X Backlash ---
G0 X36.431 Y11.844 F410
G1 X46.172 Y11.834 Z0 F444
G1 X56.192 Z0 F444
G1 X65.341 Y11.831 Z0 F444
; --- FIX Y Backlash ---
G0 X65.341 Y12.331 F410
G1 X65.338 Y21.208 Z0 F444
G1 X65.327 Y30.736 Z0 F444
G1 X65.331 Y40.267 Z0 F444
G1 X65.343 Y43.193 Z0 F444
; --- FIX X Backlash ---
G0 X64.643 Y43.193 F410
; --- FIX Y Backlash ---
G0 X64.643 Y42.693 F410
G1 X64.175 Y41.956 Z0 F444
G1 X63.56 Y41.115 Z0 F444
G1 X62.884 Y40.304 Z0 F444
G1 X62.765 Y40.185 Z0 F444
G1 X62.376 Y39.863 Z0 F444
G1 X61.957 Y39.584 Z0 F444
G1 X61.52 Y39.349 Z0 F444
G1 X61.069 Y39.159 Z0 F444
G1 X60.609 Y39.01 Z0 F444
G1 X60.141 Y38.902 Z0 F444
G1 X59.672 Y38.834 Z0 F444
G1 X59.134 Y38.801 Z0 F444
; --- FIX Y Backlash ---
G0 X59.134 Y39.301 F410
G1 X58.691 Y39.356 Z0 F444
G1 X58.285 Y39.534 Z0 F444
G1 X58.177 Y39.607 Z0 F444
; --- FIX Y Backlash ---
G0 X58.177 Y39.107 F410
G1 X58.163 Y38.644 Z0 F444
G1 X58.184 Y38.092 Z0 F444
G1 X58.209 Y37.884 Z0 F444
G1 X58.246 Y37.696 Z0 F444
; --- FIX X Backlash ---
G0 X58.946 Y37.696 F410
G1 X58.997 Y37.523 Z0 F444
G1 X59.097 Y37.281 Z0 F444
G1 X59.19 Y37.014 Z0 F444
G1 X59.234 Y36.632 Z0 F444
G1 X59.197 Y36.251 Z0 F444
; --- FIX X Backlash ---
G0 X58.497 Y36.251 F410
G1 X58.391 Y35.927 Z0 F444
G1 X58.088 Y35.319 Z0 F444
G1 X57.673 Y34.712 Z0 F444
G1 X57.344 Y34.368 Z0 F444
G1 X56.964 Y34.069 Z0 F444
G1 X56.509 Y33.819 Z0 F444
G1 X56.12 Y33.689 Z0 F444
G1 X56.008 Y33.647 Z0 F444
; --- FIX X Backlash ---
G0 X56.708 Y33.647 F410
G1 X56.809 Y33.538 Z0 F444
G1 X57.111 Y33.123 Z0 F444
G1 X57.366 Y32.686 Z0 F444
G1 X57.573 Y32.231 Z0 F444
G1 X57.733 Y31.764 Z0 F444
G1 X57.849 Y31.288 Z0 F444
G1 X57.92 Y30.806 Z0 F444
G1 X57.948 Y30.302 Z0 F444
G1 X57.93 Y30.038 Z0 F444
; --- FIX X Backlash ---
G0 X57.23 Y30.038 F410
G1 X57.166 Y29.775 Z0 F444
G1 X56.949 Y29.216 Z0 F444
G1 X56.639 Y28.676 Z0 F444
G1 X56.613 Y28.643 Z0 F444
; --- FIX X Backlash ---
G0 X57.313 Y28.643 F410
G1 X57.493 Y28.496 Z0 F444
G1 X57.626 Y28.344 Z0 F444
G1 X57.889 Y28.24 Z0 F444
G1 X58.219 Y28.032 Z0 F444
G1 X58.528 Y27.718 Z0 F444
G1 X58.75 Y27.338 Z0 F444
G1 X58.865 Y26.969 Z0 F444
G1 X58.902 Y26.643 Z0 F444
G1 X58.889 Y26.34 Z0 F444
; --- FIX X Backlash ---
G0 X58.189 Y26.34 F410
G1 X58.127 Y26.058 Z0 F444
G1 X58.123 Y26.047 Z0 F444
G1 X58.075 Y25.551 Z0 F444
G1 X57.98 Y24.879 Z0 F444
G1 X57.858 Y24.222 Z0 F444
G1 X57.701 Y23.518 Z0 F444
G1 X57.589 Y23.207 Z0 F444
G1 X57.38 Y22.878 Z0 F444
G1 X57.312 Y22.811 Z0 F444
; --- FIX X Backlash ---
G0 X58.012 Y22.811 F410
G1 X58.076 Y22.684 Z0 F444
G1 X58.263 Y22.391 Z0 F444
G1 X58.428 Y22.035 Z0 F444
G1 X58.467 Y21.907 Z0 F444
G1 X58.52 Y21.825 Z0 F444
G1 X58.656 Y21.625 Z0 F444
G1 X58.843 Y21.339 Z0 F444
G1 X59.06 Y20.926 Z0 F444
G1 X59.227 Y20.417 Z0 F444
G1 X59.283 Y20.072 Z0 F444
G1 X59.297 Y19.729 Z0 F444
G1 X59.262 Y19.365 Z0 F444
; --- FIX X Backlash ---
G0 X58.562 Y19.365 F410
G1 X58.498 Y19.104 Z0 F444
G1 X58.325 Y18.271 Z0 F444
G1 X58.043 Y17.418 Z0 F444
G1 X57.737 Y16.669 Z0 F444
G1 X57.525 Y16.172 Z0 F444
G1 X57.519 Y16.024 Z0 F444
G1 X57.482 Y15.744 Z0 F444
G1 X57.348 Y15.377 Z0 F444
G1 X57.116 Y15.019 Z0 F444
G1 X56.828 Y14.731 Z0 F444
G1 X56.47 Y14.513 Z0 F444
G1 X56.066 Y14.384 Z0 F444
G1 X55.698 Y14.359 Z0 F444
; --- FIX Y Backlash ---
G0 X55.698 Y14.859 F410
G1 X54.795 Y14.933 Z0 F444
G1 X54.039 Y15.022 Z0 F444
G1 X53.359 Y15.089 Z0 F444
G1 X52.793 Y15.1 Z0 F444
G1 X51.861 Y15.089 Z0 F444
G1 X51.035 Y15.074 Z0 F444
; --- FIX Y Backlash ---
G0 X51.035 Y14.574 F410
G1 X50.303 Y14.523 Z0 F444
G1 X50.056 Y14.481 Z0 F444
G1 X49.944 Y14.381 Z0 F444
G1 X49.675 Y14.208 Z0 F444
G1 X49.334 Y14.071 Z0 F444
G1 X48.966 Y14.007 Z0 F444
G1 X48.63 Y14.015 Z0 F444
G1 X48.5 Y14.04 Z0 F444
G1 X48.165 Y13.832 Z0 F444
G1 X47.999 Y13.738 Z0 F444
G1 X47.833 Y13.346 Z0 F444
G1 X47.561 Y12.99 Z0 F444
G1 X47.231 Y12.732 Z0 F444
G1 X46.725 Y12.481 Z0 F444
G1 X46.239 Y12.327 Z0 F444
G1 X45.769 Y12.246 Z0 F444
G1 X45.301 Y12.221 Z0 F444
; --- FIX Y Backlash ---
G0 X45.301 Y12.721 F410
G1 X44.55 Y12.779 Z0 F444
G1 X43.805 Y12.918 Z0 F444
G1 X43.333 Y13.109 Z0 F444
G1 X42.941 Y13.454 Z0 F444
G1 X42.917 Y13.486 Z0 F444
G1 X42.26 Y13.531 Z0 F444
G1 X41.727 Y13.603 Z0 F444
G1 X41.136 Y13.768 Z0 F444
G1 X40.779 Y13.924 Z0 F444
G1 X40.445 Y14.12 Z0 F444
G1 X40.122 Y14.368 Z0 F444
G1 X39.925 Y14.567 Z0 F444
G1 X39.901 Z0 F444
G1 X39.868 Y14.563 Z0 F444
G1 X39.849 Y14.557 Z0 F444
G1 X39.781 Y14.523 Z0 F444
; --- FIX Y Backlash ---
G0 X39.781 Y14.023 F410
G1 X39.667 Y13.958 Z0 F444
G1 X39.141 Y13.775 Z0 F444
G1 X38.646 Y13.715 Z0 F444
G1 X38.279 Y13.723 Z0 F444
G1 X38.178 Y13.731 Z0 F444
G1 X37.959 Y13.636 Z0 F444
G1 X37.828 Y13.591 Z0 F444
G1 X37.734 Y13.48 Z0 F444
G1 X37.451 Y13.105 Z0 F444
G1 X37.232 Y12.834 Z0 F444
G1 X36.945 Y12.534 Z0 F444
G0 Z3.5 F444
G0 X35.453 Y11.205 Z3.5
G1 Z0 F444
; --- FIX X Backlash ---
G0 X36.153 Y11.205 F410
G1 X46.171 Y11.194 Z0 F444
G1 X56.192 Z0 F444
G1 X65.98 Y11.191 Z0 F444
; --- FIX Y Backlash ---
G0 X65.98 Y11.691 F410
G1 Y21.208 Z0 F444
G1 X65.967 Y30.736 Z0 F444
G1 X65.971 Y40.266 Z0 F444
G1 X66.001 Y47.646 Z0 F444
; --- FIX X Backlash ---
G0 X65.301 Y47.646 F410
; --- FIX Y Backlash ---
G0 X65.301 Y47.146 F410
G1 X64.759 Y44.324 Z0 F444
G1 X64.726 Y44.191 Z0 F444
G1 X64.666 Y44.047 Z0 F444
G1 X64.182 Y43.161 Z0 F444
G1 X63.646 Y42.316 Z0 F444
G1 X63.056 Y41.509 Z0 F444
G1 X62.411 Y40.736 Z0 F444
G1 X62.334 Y40.659 Z0 F444
G1 X61.993 Y40.377 Z0 F444
G1 X61.628 Y40.133 Z0 F444
G1 X61.244 Y39.927 Z0 F444
G1 X60.846 Y39.759 Z0 F444
G1 X60.438 Y39.627 Z0 F444
G1 X60.023 Y39.532 Z0 F444
G1 X59.606 Y39.472 Z0 F444
G1 X59.154 Y39.443 Z0 F444
G1 X58.863 Y39.48 Z0 F444
; --- FIX Y Backlash ---
G0 X58.863 Y39.98 F410
G1 X58.595 Y40.097 Z0 F444
G1 X58.346 Y40.265 Z0 F444
G1 X58.105 Y40.448 Z0 F444
G1 X58.095 Y40.443 Z0 F444
; --- FIX Y Backlash ---
G0 X58.095 Y39.943 F410
G1 X57.91 Y39.831 Z0 F444
G1 X57.769 Y39.729 Z0 F444
G1 X57.654 Y39.621 Z0 F444
G1 X57.589 Y39.542 Z0 F444
G1 X57.558 Y39.487 Z0 F444
G1 X57.548 Y39.451 Z0 F444
G1 X57.544 Y39.354 Z0 F444
G1 Y39.332 Z0 F444
G1 X57.523 Y38.64 Z0 F444
G1 X57.545 Y38.042 Z0 F444
G1 X57.576 Y37.789 Z0 F444
G1 X57.626 Y37.539 Z0 F444
; --- FIX X Backlash ---
G0 X58.326 Y37.539 F410
G1 X58.392 Y37.312 Z0 F444
G1 X58.499 Y37.054 Z0 F444
G1 X58.563 Y36.87 Z0 F444
G1 X58.591 Y36.626 Z0 F444
G1 X58.567 Y36.383 Z0 F444
; --- FIX X Backlash ---
G0 X57.867 Y36.383 F410
G1 X57.798 Y36.17 Z0 F444
G1 X57.535 Y35.644 Z0 F444
G1 X57.174 Y35.116 Z0 F444
G1 X56.913 Y34.842 Z0 F444
G1 X56.61 Y34.604 Z0 F444
G1 X56.252 Y34.408 Z0 F444
G1 X55.918 Y34.297 Z0 F444
G1 X55.408 Y34.103 Z0 F444
G1 X54.864 Y33.968 Z0 F444
G1 X54.344 Y33.889 Z0 F444
G1 X53.913 Y33.85 Z0 F444
G1 X53.29 Y33.693 Z0 F444
G1 X52.602 Y33.593 Z0 F444
G1 X51.946 Y33.543 Z0 F444
G1 X51.402 Y33.521 Z0 F444
; --- FIX X Backlash ---
G0 X52.102 Y33.521 F410
G1 X52.279 Z0 F444
G1 X52.659 Y33.464 Z0 F444
G1 X53.231 Z0 F444
G1 X53.801 Y33.498 Z0 F444
; --- FIX Y Backlash ---
G0 X53.801 Y33.998 F410
G1 X54.341 Y34.08 Z0 F444
G1 X54.897 Y34.237 Z0 F444
G1 X55.142 Y34.289 Z0 F444
G1 X55.456 Y34.266 Z0 F444
; --- FIX Y Backlash ---
G0 X55.456 Y33.766 F410
G1 X55.753 Y33.658 Z0 F444
G1 X55.989 Y33.485 Z0 F444
G1 X56.313 Y33.131 Z0 F444
G1 X56.575 Y32.772 Z0 F444
G1 X56.797 Y32.392 Z0 F444
G1 X56.978 Y31.994 Z0 F444
G1 X57.118 Y31.584 Z0 F444
G1 X57.22 Y31.166 Z0 F444
G1 X57.282 Y30.742 Z0 F444
G1 X57.307 Y30.306 Z0 F444
G1 X57.295 Y30.136 Z0 F444
G1 X57.254 Y29.966 Z0 F444
; --- FIX X Backlash ---
G0 X56.554 Y29.966 F410
G1 X56.37 Y29.493 Z0 F444
G1 X56.106 Y29.033 Z0 F444
G1 X55.921 Y28.793 Z0 F444
G1 X55.712 Y28.577 Z0 F444
G1 X55.596 Y28.482 Z0 F444
; --- FIX X Backlash ---
G0 X56.296 Y28.482 F410
G1 X56.466 Y28.425 Z0 F444
G1 X56.769 Y28.261 Z0 F444
G1 X57.046 Y28.034 Z0 F444
G1 X57.274 Y27.774 Z0 F444
G1 X57.399 Y27.745 Z0 F444
G1 X57.599 Y27.667 Z0 F444
G1 X57.814 Y27.53 Z0 F444
G1 X58.016 Y27.326 Z0 F444
G1 X58.16 Y27.079 Z0 F444
G1 X58.235 Y26.836 Z0 F444
G1 X58.26 Y26.62 Z0 F444
G1 X58.252 Y26.423 Z0 F444
G1 X58.21 Y26.234 Z0 F444
G1 X58.194 Y26.188 Z0 F444
; --- FIX X Backlash ---
G0 X57.494 Y26.188 F410
G1 X57.44 Y25.627 Z0 F444
G1 X57.348 Y24.982 Z0 F444
G1 X57.231 Y24.349 Z0 F444
G1 X57.085 Y23.697 Z0 F444
G1 X57.011 Y23.49 Z0 F444
G1 X56.878 Y23.281 Z0 F444
G1 X56.703 Y23.106 Z0 F444
G1 X56.506 Y22.981 Z0 F444
G1 X56.3 Y22.896 Z0 F444
; --- FIX X Backlash ---
G0 X57 Y22.896 F410
G1 X57.063 Y22.842 Z0 F444
G1 X57.377 Y22.534 Z0 F444
G1 X57.548 Y22.321 Z0 F444
G1 X57.7 Y22.082 Z0 F444
G1 X57.829 Y21.806 Z0 F444
G1 X57.871 Y21.666 Z0 F444
G1 X57.906 Y21.597 Z0 F444
G1 X57.986 Y21.472 Z0 F444
G1 X58.124 Y21.27 Z0 F444
G1 X58.29 Y21.014 Z0 F444
G1 X58.468 Y20.676 Z0 F444
G1 X58.603 Y20.265 Z0 F444
G1 X58.645 Y20.007 Z0 F444
G1 X58.656 Y19.747 Z0 F444
G1 X58.63 Y19.473 Z0 F444
; --- FIX X Backlash ---
G0 X57.93 Y19.473 F410
G1 X57.877 Y19.261 Z0 F444
G1 X57.706 Y18.437 Z0 F444
G1 X57.443 Y17.641 Z0 F444
G1 X57.147 Y16.916 Z0 F444
G1 X56.889 Y16.312 Z0 F444
G1 Y16.286 Z0 F444
G1 X56.881 Y16.079 Z0 F444
G1 X56.857 Y15.897 Z0 F444
G1 X56.772 Y15.664 Z0 F444
G1 X56.616 Y15.423 Z0 F444
G1 X56.43 Y15.239 Z0 F444
G1 X56.202 Y15.1 Z0 F444
G1 X55.945 Y15.018 Z0 F444
G1 X55.703 Y15.001 Z0 F444
; --- FIX Y Backlash ---
G0 X55.703 Y15.501 F410
G1 X54.858 Y15.57 Z0 F444
G1 X54.09 Y15.661 Z0 F444
G1 X53.397 Y15.729 Z0 F444
G1 X52.788 Y15.74 Z0 F444
G1 X52.785 Z0 F444
G1 X51.844 Y15.729 Z0 F444
G1 X51.017 Y15.714 Z0 F444
; --- FIX Y Backlash ---
G0 X51.017 Y15.214 F410
G1 X50.224 Y15.159 Z0 F444
G1 X49.746 Y15.077 Z0 F444
G1 X49.694 Y15.016 Z0 F444
G1 X49.556 Y14.893 Z0 F444
G1 X49.379 Y14.779 Z0 F444
G1 X49.157 Y14.689 Z0 F444
G1 X48.918 Y14.648 Z0 F444
G1 X48.698 Y14.653 Z0 F444
G1 X48.504 Y14.69 Z0 F444
G1 X48.428 Y14.717 Z0 F444
G1 X48.365 Y14.695 Z0 F444
G1 X48.257 Y14.642 Z0 F444
G1 X47.839 Y14.382 Z0 F444
G1 X47.418 Y14.144 Z0 F444
G1 X47.387 Y13.933 Z0 F444
G1 X47.276 Y13.67 Z0 F444
G1 X47.102 Y13.444 Z0 F444
G1 X46.888 Y13.276 Z0 F444
G1 X46.485 Y13.076 Z0 F444
G1 X46.088 Y12.95 Z0 F444
G1 X45.697 Y12.883 Z0 F444
G1 X45.309 Y12.862 Z0 F444
; --- FIX Y Backlash ---
G0 X45.309 Y13.362 F410
G1 X44.633 Y13.415 Z0 F444
G1 X43.986 Y13.536 Z0 F444
G1 X43.674 Y13.662 Z0 F444
G1 X43.416 Y13.888 Z0 F444
G1 X43.267 Y14.093 Z0 F444
G1 X43.054 Y14.118 Z0 F444
G1 X42.325 Y14.168 Z0 F444
G1 X41.857 Y14.231 Z0 F444
G1 X41.352 Y14.372 Z0 F444
G1 X41.07 Y14.495 Z0 F444
G1 X40.803 Y14.651 Z0 F444
G1 X40.547 Y14.849 Z0 F444
G1 X40.355 Y15.042 Z0 F444
G1 X40.269 Y15.12 Z0 F444
G1 X40.205 Y15.155 Z0 F444
G1 X40.107 Y15.188 Z0 F444
G1 X39.989 Y15.206 Z0 F444
G1 X39.857 Z0 F444
G1 X39.726 Y15.188 Z0 F444
G1 X39.615 Y15.155 Z0 F444
; --- FIX Y Backlash ---
G0 X39.615 Y14.655 F410
G1 X39.478 Y14.587 Z0 F444
G1 X39.402 Y14.544 Z0 F444
G1 X38.995 Y14.402 Z0 F444
G1 X38.614 Y14.355 Z0 F444
G1 X38.312 Y14.362 Z0 F444
G1 X38.108 Y14.379 Z0 F444
G1 X38.046 Y14.382 Z0 F444
G1 X37.961 Y14.334 Z0 F444
G1 X37.726 Y14.233 Z0 F444
G1 X37.528 Y14.164 Z0 F444
G1 X37.44 Y14.137 Z0 F444
G1 X37.358 Y14.027 Z0 F444
G1 X37.232 Y13.878 Z0 F444
G1 X36.946 Y13.499 Z0 F444
G1 X36.751 Y13.257 Z0 F444
G1 X36.512 Y13.008 Z0 F444
G1 X36.208 Y12.766 Z0 F444
G1 X35.84 Y12.559 Z0 F444
G1 X35.511 Y12.45 Z0 F444
G1 X35.189 Y12.292 Z0 F444
G1 X34.797 Y12.146 Z0 F444
G1 X34.408 Y12.042 Z0 F444
G1 X34.024 Y11.968 Z0 F444
G1 X33.321 Y11.891 Z0 F444
G1 X32.614 Y11.85 Z0 F444
G1 X32.248 Y11.898 Z0 F444
; --- FIX Y Backlash ---
G0 X32.248 Y12.398 F410
G1 X31.937 Y12.573 Z0 F444
G1 X31.769 Y12.703 Z0 F444
G1 X31.606 Y12.823 Z0 F444
G1 X31.391 Y12.993 Z0 F444
G1 X31.142 Y13.226 Z0 F444
G1 X30.889 Y13.556 Z0 F444
G1 X30.701 Y13.965 Z0 F444
G1 X30.634 Y14.226 Z0 F444
G1 X30.605 Y14.486 Z0 F444
G1 X30.613 Y14.76 Z0 F444
G1 Y14.773 Z0 F444
G1 X30.61 Y14.815 Z0 F444
G1 X30.569 Y14.906 Z0 F444
G1 X30.455 Y15.063 Z0 F444
G1 X30.249 Y15.298 Z0 F444
G1 X29.972 Y15.598 Z0 F444
G1 X29.663 Y15.98 Z0 F444
G1 X29.503 Y16.228 Z0 F444
G1 X29.363 Y16.5 Z0 F444
G1 X29.249 Y16.805 Z0 F444
G1 X29.209 Y16.978 Z0 F444
G1 X28.923 Y17.713 Z0 F444
G1 X28.567 Y18.566 Z0 F444
G1 X28.4 Y19.052 Z0 F444
G1 X28.264 Y19.574 Z0 F444
G1 X28.18 Y20.135 Z0 F444
G1 X28.154 Y21.246 Z0 F444
; --- FIX X Backlash ---
G0 X28.854 Y21.246 F410
G1 X28.915 Y21.885 Z0 F444
G1 X29.004 Y22.25 Z0 F444
G1 X29.143 Y22.607 Z0 F444
G1 X29.342 Y22.958 Z0 F444
G1 X29.568 Y23.24 Z0 F444
G1 X29.784 Y23.521 Z0 F444
G1 X30.061 Y23.785 Z0 F444
G1 X30.354 Y23.997 Z0 F444
G1 X30.667 Y24.168 Z0 F444
G1 X31.235 Y24.385 Z0 F444
G1 X31.448 Y24.438 Z0 F444
G1 X31.522 Y24.576 Z0 F444
G1 X31.742 Y24.856 Z0 F444
G1 X31.937 Y25.019 Z0 F444
G1 X32.148 Y25.145 Z0 F444
G1 X32.38 Y25.238 Z0 F444
G1 X32.617 Y25.293 Z0 F444
G1 X32.988 Y25.331 Z0 F444
G1 X33.323 Y25.317 Z0 F444
G1 X33.594 Y25.28 Z0 F444
G1 X33.79 Y25.248 Z0 F444
G1 X33.927 Y25.23 Z0 F444
G1 X33.976 Z0 F444
G1 X34.284 Y25.389 Z0 F444
G1 X34.42 Y25.483 Z0 F444
G1 X34.408 Y25.52 Z0 F444
G1 X34.397 Y25.627 Z0 F444
; --- FIX X Backlash ---
G0 X33.697 Y25.627 F410
G1 X33.636 Y25.643 Z0 F444
; --- FIX X Backlash ---
G0 X34.336 Y25.643 F410
G1 X34.388 Y25.981 Z0 F444
G1 X34.408 Y26.196 Z0 F444
G1 X34.43 Y26.26 Z0 F444
G1 X34.487 Y26.634 Z0 F444
G1 X34.493 Y27.005 Z0 F444
G1 X34.447 Y27.351 Z0 F444
; --- FIX X Backlash ---
G0 X33.747 Y27.351 F410
G1 X33.64 Y27.709 Z0 F444
G1 X33.61 Y27.789 Z0 F444
G1 X33.551 Y28.119 Z0 F444
G1 X33.557 Y28.449 Z0 F444
; --- FIX X Backlash ---
G0 X34.257 Y28.449 F410
G1 X34.322 Y28.761 Z0 F444
G1 X34.443 Y29.058 Z0 F444
G1 X34.708 Y29.43 Z0 F444
G1 X34.735 Y29.456 Z0 F444
; --- FIX X Backlash ---
G0 X34.035 Y29.456 F410
G1 X33.785 Y29.687 Z0 F444
G1 X33.383 Y29.995 Z0 F444
G1 X33.334 Y30.028 Z0 F444
; --- FIX Y Backlash ---
G0 X33.334 Y29.528 F410
G1 X33.071 Y29.358 Z0 F444
G1 X32.795 Y29.25 Z0 F444
G1 X32.526 Y29.227 Z0 F444
G1 X31.691 Y29.251 Z0 F444
G1 X30.808 Y29.3 Z0 F444
; --- FIX Y Backlash ---
G0 X30.808 Y29.8 F410
G1 X30.317 Y29.872 Z0 F444
G1 X29.817 Y29.997 Z0 F444
G1 X29.312 Y30.192 Z0 F444
G1 X28.86 Y30.447 Z0 F444
G1 X28.585 Y30.595 Z0 F444
G1 X28.3 Y30.811 Z0 F444
G1 X28.057 Y31.058 Z0 F444
G1 X27.856 Y31.329 Z0 F444
G1 X27.696 Y31.615 Z0 F444
G1 X27.573 Y31.909 Z0 F444
G1 X27.485 Y32.209 Z0 F444
G1 X27.459 Y32.346 Z0 F444
G1 X27.195 Y33.031 Z0 F444
G1 X26.935 Y33.867 Z0 F444
G1 X26.828 Y34.314 Z0 F444
G1 X26.747 Y34.77 Z0 F444
G1 X26.693 Y35.237 Z0 F444
G1 X26.674 Y35.649 Z0 F444
G1 X26.595 Y36.188 Z0 F444
G1 X26.439 Y36.802 Z0 F444
G1 X26.258 Y37.524 Z0 F444
G1 X26.13 Y38.364 Z0 F444
G1 X26.141 Y38.613 Z0 F444
; --- FIX X Backlash ---
G0 X26.841 Y38.613 F410
G1 X26.902 Y38.835 Z0 F444
G1 X27.055 Y39.188 Z0 F444
G1 X27.158 Y39.422 Z0 F444
G1 X27.193 Y39.525 Z0 F444
G1 X27.198 Y39.587 Z0 F444
G1 X27.195 Y39.627 Z0 F444
G1 X27.21 Y40.233 Z0 F444
G1 X27.23 Y40.774 Z0 F444
G1 X27.238 Y41.29 Z0 F444
G1 X27.23 Y41.458 Z0 F444
; --- FIX X Backlash ---
G0 X26.53 Y41.458 F410
G1 X26.36 Y41.587 Z0 F444
G1 X26.057 Y41.902 Z0 F444
G1 X25.952 Y42.075 Z0 F444
G1 X25.585 Y42.206 Z0 F444
G1 X24.951 Y42.439 Z0 F444
G1 X24.279 Y42.744 Z0 F444
G1 X23.61 Y43.157 Z0 F444
G1 X23.498 Y43.249 Z0 F444
G1 X23.392 Y43.361 Z0 F444
G1 X23.287 Y43.517 Z0 F444
; --- FIX Y Backlash ---
G0 X23.287 Y43.017 F410
G1 X23.291 Y38.232 Z0 F444
G1 X23.285 Y33.039 Z0 F444
G1 X23.289 Y27.721 Z0 F444
G1 X23.281 Y22.41 Z0 F444
G1 X23.295 Y17.108 Z0 F444
; --- FIX X Backlash ---
G0 X23.995 Y17.108 F410
G1 X24.063 Y11.796 Z0 F444
G1 X24.097 Y11.417 Z0 F444
G1 Y11.282 Z0 F444
G1 X24.187 Y11.274 Z0 F444
G1 X24.782 Y11.263 Z0 F444
G1 X25.452 Z0 F444
G1 X26.135 Y11.242 Z0 F444
G1 X36.153 Y11.205 Z0 F444
G0 Z3.5 F444
; --- FIX Y Backlash ---
G0 X36.153 Y11.705 F410
G0 X65.343 Y52.583 Z3.5
G1 Z0 F444
G1 X65.317 Y53.461 Z0 F444
G1 X65.301 Y53.643 Z0 F444
; --- FIX X Backlash ---
G0 X64.601 Y53.643 F410
G1 X57.835 Z0 F444
; --- FIX X Backlash ---
G0 X58.535 Y53.643 F410
; --- FIX Y Backlash ---
G0 X58.535 Y53.143 F410
G1 X59.442 Y53.086 Z0 F444
G1 X60.384 Y53 Z0 F444
G1 X61.245 Y52.938 Z0 F444
G1 X62.748 Y52.934 Z0 F444
G1 X63.539 Y52.885 Z0 F444
G1 X64.064 Y52.777 Z0 F444
G1 X64.606 Y52.577 Z0 F444
G1 X65.148 Y52.259 Z0 F444
G1 X65.343 Y52.083 Z0 F444
G0 Z3.5 F444
G0 X65.992 Y51.804 Z3.5
G1 Z0 F444
; --- FIX Y Backlash ---
G0 X65.992 Y52.304 F410
G1 X65.957 Y53.495 Z0 F444
; --- FIX X Backlash ---
G0 X65.257 Y53.495 F410
G1 X65.186 Y54.284 Z0 F444
G1 X65.161 Z0 F444
G1 X39.257 Z0 F444
; --- FIX Y Backlash ---
G0 X39.257 Y53.784 F410
G1 X39.285 Y53.71 Z0 F444
G1 X39.314 Y53.555 Z0 F444
G1 X39.351 Y53.543 Z0 F444
G1 X39.333 Y53.453 Z0 F444
G1 X39.336 Y53.438 Z0 F444
G1 X39.326 Y53.138 Z0 F444
G1 X39.252 Y52.852 Z0 F444
G1 X39.186 Y52.714 Z0 F444
G1 X39.163 Y52.599 Z0 F444
G1 X38.978 Y52.224 Z0 F444
G1 X38.765 Y51.944 Z0 F444
G1 X38.576 Y51.75 Z0 F444
G1 X38.439 Y51.62 Z0 F444
G1 X38.336 Y51.519 Z0 F444
G1 X38.289 Y51.469 Z0 F444
G1 X38.285 Y51.463 Z0 F444
G1 X38.264 Y51.427 Z0 F444
; --- FIX X Backlash ---
G0 X38.964 Y51.427 F410
; --- FIX Y Backlash ---
G0 X38.964 Y51.927 F410
G1 X39.451 Y52.043 Z0 F444
G1 X39.804 Y52.059 Z0 F444
; --- FIX Y Backlash ---
G0 X39.804 Y51.559 F410
G1 X40.173 Y51.438 Z0 F444
G1 X40.587 Y51.146 Z0 F444
G1 X40.883 Y50.824 Z0 F444
G1 X41.093 Y50.503 Z0 F444
G1 X41.238 Y50.22 Z0 F444
G1 X41.345 Y49.993 Z0 F444
G1 X41.434 Y49.809 Z0 F444
G1 X41.5 Y49.686 Z0 F444
G1 X41.555 Y49.608 Z0 F444
G1 X41.679 Y49.484 Z0 F444
G1 X41.791 Y49.273 Z0 F444
G1 X41.891 Y49.13 Z0 F444
G1 X41.917 Y49.124 Z0 F444
G1 X42.256 Y48.781 Z0 F444
G1 X42.261 Y48.773 Z0 F444
; --- FIX Y Backlash ---
G0 X42.261 Y49.273 F410
G1 X42.499 Y49.376 Z0 F444
G1 X42.641 Y49.421 Z0 F444
G1 X42.797 Y49.506 Z0 F444
G1 X43.089 Y49.62 Z0 F444
G1 X43.145 Y49.638 Z0 F444
G1 X43.152 Y49.779 Z0 F444
G1 X43.265 Y50.271 Z0 F444
G1 X43.455 Y50.73 Z0 F444
G1 X43.716 Y51.15 Z0 F444
G1 X44.043 Y51.522 Z0 F444
G1 X44.429 Y51.836 Z0 F444
G1 X44.868 Y52.084 Z0 F444
G1 X45.34 Y52.249 Z0 F444
G1 X45.48 Y52.278 Z0 F444
G1 X46.042 Y52.319 Z0 F444
G1 X46.644 Y52.352 Z0 F444
G1 X47.042 Y52.324 Z0 F444
; --- FIX Y Backlash ---
G0 X47.042 Y51.824 F410
G1 X47.477 Y51.726 Z0 F444
G1 X47.594 Y51.673 Z0 F444
G1 X47.605 Y51.688 Z0 F444
G1 X47.722 Y51.616 Z0 F444
G1 X47.922 Y51.527 Z0 F444
G1 X48.162 Y51.344 Z0 F444
G1 X48.581 Y51.084 Z0 F444
G1 X49.042 Y50.725 Z0 F444
G1 X49.277 Y50.498 Z0 F444
G1 X49.491 Y50.25 Z0 F444
G1 X49.687 Y49.974 Z0 F444
G1 X49.773 Y49.819 Z0 F444
G1 X50.154 Y49.372 Z0 F444
G1 X50.638 Y48.797 Z0 F444
G1 X50.887 Y48.458 Z0 F444
G1 X51.122 Y48.087 Z0 F444
G1 X51.33 Y47.677 Z0 F444
G1 X51.508 Y47.205 Z0 F444
G1 X51.554 Y46.941 Z0 F444
G1 X51.536 Y46.72 Z0 F444
G1 X51.587 Y46.697 Z0 F444
G1 X51.86 Y46.535 Z0 F444
G1 X52.116 Y46.339 Z0 F444
G1 X52.348 Y46.107 Z0 F444
G1 X52.55 Y45.843 Z0 F444
G1 Y45.84 Z0 F444
G1 X52.557 Y45.847 Z0 F444
; --- FIX Y Backlash ---
G0 X52.557 Y46.347 F410
G1 X52.531 Y47.088 Z0 F444
; --- FIX X Backlash ---
G0 X51.831 Y47.088 F410
G1 X51.758 Y48.059 Z0 F444
G1 X51.703 Y49.099 Z0 F444
G1 X51.734 Y50.218 Z0 F444
; --- FIX X Backlash ---
G0 X52.434 Y50.218 F410
G1 X52.486 Y50.468 Z0 F444
G1 X52.597 Y50.696 Z0 F444
G1 X52.797 Y50.972 Z0 F444
G1 X53.009 Y51.2 Z0 F444
G1 X53.235 Y51.395 Z0 F444
G1 X53.478 Y51.565 Z0 F444
G1 X53.935 Y51.806 Z0 F444
G1 X54.383 Y51.976 Z0 F444
G1 X54.789 Y52.098 Z0 F444
G1 X55.141 Y52.197 Z0 F444
G1 X55.444 Y52.289 Z0 F444
G1 X55.694 Y52.388 Z0 F444
G1 X56.264 Y52.637 Z0 F444
G1 X56.917 Y52.866 Z0 F444
G1 X57.292 Y52.956 Z0 F444
G1 X57.682 Y53.014 Z0 F444
G1 X57.792 Y53.019 Z0 F444
G1 Y53.047 Z0 F444
G1 X58.058 Y53.031 Z0 F444
G1 X58.093 Z0 F444
G1 X58.407 Y53.009 Z0 F444
; --- FIX Y Backlash ---
G0 X58.407 Y52.509 F410
G1 X59.394 Y52.448 Z0 F444
G1 X60.331 Y52.362 Z0 F444
G1 X61.211 Y52.298 Z0 F444
G1 X62.727 Y52.294 Z0 F444
G1 X63.454 Y52.249 Z0 F444
G1 X63.888 Y52.16 Z0 F444
G1 X64.332 Y51.997 Z0 F444
G1 X64.768 Y51.74 Z0 F444
G1 X65.343 Y51.222 Z0 F444
G1 X65.584 Y50.978 Z0 F444
G1 X65.825 Y50.688 Z0 F444
G1 X65.998 Y50.419 Z0 F444
; --- FIX Y Backlash ---
G0 X65.998 Y50.919 F410
G1 Y51.054 Z0 F444
G1 X65.992 Y52.304 Z0 F444
G0 Z3.5 F444
; --- FIX X Backlash ---
G0 X65.292 Y52.304 F410
G0 X23.739 Y54.26 Z3.5
G1 Z0 F444
G1 X23.685 Z0 F444
G1 X23.507 Y54.276 Z0 F444
G1 X23.425 Z0 F444
G1 X23.371 Y54.264 Z0 F444
; --- FIX Y Backlash ---
G0 X23.371 Y53.764 F410
G1 X23.321 Y50.024 Z0 F444
G1 X23.37 Y50.071 Z0 F444
; --- FIX X Backlash ---
G0 X24.07 Y50.071 F410
; --- FIX Y Backlash ---
G0 X24.07 Y50.571 F410
G1 X24.168 Y50.685 Z0 F444
G1 X24.213 Y50.768 Z0 F444
G1 X24.255 Y50.908 Z0 F444
G1 X24.289 Y51.114 Z0 F444
G1 X24.325 Y51.728 Z0 F444
G1 X24.371 Y52.347 Z0 F444
G1 X24.394 Y53.063 Z0 F444
G1 X24.428 Y53.731 Z0 F444
G1 X24.439 Y54.26 Z0 F444
G0 Z3.5 F444
; --- FIX Y Backlash ---
G0 X24.439 Y53.76 F410
G0 X50.02 Y33.205 Z3.5
G1 Z0 F444
G1 X50.037 Y33.2 Z0 F444
G1 X50.178 Y33.183 Z0 F444
G1 X50.321 Z0 F444
G1 X50.331 Y33.187 Z0 F444
; --- FIX X Backlash ---
G0 X49.631 Y33.187 F410
G1 X49.478 Y33.204 Z0 F444
G1 X49.32 Z0 F444
G0 Z3.5 F444
; --- FIX X Backlash ---
G0 X50.02 Y33.204 F410
G0 X53.906 Y30.039 Z3.5
G1 Z0 F444
G1 X53.896 Y29.532 Z0 F444
G1 X53.888 Y28.444 Z0 F444
G1 X53.905 Y27.352 Z0 F444
G1 X53.927 Y26.929 Z0 F444
G1 X53.962 Y26.932 Z0 F444
; --- FIX Y Backlash ---
G0 X53.962 Y27.432 F410
G1 X53.987 Y27.619 Z0 F444
G1 X54.103 Y27.944 Z0 F444
G1 X54.222 Y28.215 Z0 F444
G1 X54.312 Y28.438 Z0 F444
G1 X54.367 Y28.609 Z0 F444
G1 X54.477 Y28.854 Z0 F444
; --- FIX X Backlash ---
G0 X53.777 Y28.854 F410
G1 X53.533 Y29.084 Z0 F444
G1 X53.363 Y29.388 Z0 F444
G1 X53.284 Y29.658 Z0 F444
G1 X53.264 Y29.878 Z0 F444
G1 X53.267 Y30.036 Z0 F444
G1 X53.28 Y30.242 Z0 F444
G1 X53.292 Y30.359 Z0 F444
G1 Y30.362 Z0 F444
G1 X53.257 Y30.541 Z0 F444
G1 X53.206 Z0 F444
G0 Z3.5 F444
; --- FIX Y Backlash ---
G0 X53.206 Y30.041 F410
G0 X52.556 Y29.537 Z3.5
G1 Z0 F444
G1 X52.548 Y28.434 Z0 F444
G1 X52.565 Y27.342 Z0 F444
; --- FIX X Backlash ---
G0 X53.265 Y27.342 F410
G1 X53.321 Y26.264 Z0 F444
G1 X53.957 Y26.29 Z0 F444
G1 X54.572 Y26.336 Z0 F444
; --- FIX Y Backlash ---
G0 X54.572 Y26.836 F410
G1 X54.579 Y27.026 Z0 F444
G1 X54.582 Y27.233 Z0 F444
G1 X54.613 Y27.468 Z0 F444
G1 X54.698 Y27.708 Z0 F444
G1 X54.808 Y27.958 Z0 F444
G1 X54.914 Y28.22 Z0 F444
G1 X54.965 Y28.379 Z0 F444
G1 X55.02 Y28.501 Z0 F444
G1 X55.104 Y28.57 Z0 F444
G1 X55.246 Y28.573 Z0 F444
; --- FIX Y Backlash ---
G0 X55.246 Y28.073 F410
G1 X55.684 Y27.991 Z0 F444
G1 X55.94 Y27.928 Z0 F444
G1 X56.208 Y27.836 Z0 F444
G1 X56.411 Y27.727 Z0 F444
G1 X56.6 Y27.572 Z0 F444
G1 X56.77 Y27.378 Z0 F444
G1 X56.914 Y27.151 Z0 F444
G1 X57.008 Y27.158 Z0 F444
G1 X57.126 Y27.151 Z0 F444
