
G0 Z10 F500;      ; Move to clearance level
; G0 X-10 Y-10 F1200; Homing
; G0 X-5 Y-5 F1200; go in
; G10 P0 L20 X0 Y0; set to zero
G1 F1200;           ; Set feed rate
G90 ; Force absolute mode
;LightBurn 1.6.04
;Custom GCode device profile, absolute coords
;Bounds: X37.55 Y32.95 to X98.45 Y102.3
G00 G17 G40 G21 G54
M3
G1 Z10 F1000

; Color picking sequence
G1 Z10 F1000;         ; Raise brush
G0 X41 Y5 F1200;    ; Rapid move to color 1
G1 Z10 F1000;         ; Raise brush
G0 X41 Y5 F1200;    ; Rapid move to color 1
G1 Z0 F1000;         ; Lower into color
G1 X40.102 Y7.295 Z0 S800 F1200
G1 X40.026 Y7.642 Z0 F1200
G1 X40 Y8 Z0 F1200
G1 X40.026 Y8.358 Z0 F1200
G1 X40.102 Y8.705 Z0 F1200
G1 X40.225 Y9.041 Z0 F1200
G1 X40.393 Y9.362 Z0 F1200
G1 X40.603 Y9.668 Z0 F1200
G1 X40.854 Y9.957 Z0 F1200
G1 X41.142 Y10.226 Z0 F1200
G1 X41.464 Y10.475 Z0 F1200
G1 X41.82 Y10.701 Z0 F1200
G1 X42.204 Y10.902 Z0 F1200
G1 X42.617 Y11.078 Z0 F1200
G1 X43.054 Y11.225 Z0 F1200
G1 X43.513 Y11.343 Z0 F1200
G1 X43.992 Y11.429 Z0 F1200
G1 X44.489 Y11.482 Z0 F1200
G1 X45 Y11.5 Z0 F1200
G1 X45.511 Y11.482 Z0 F1200
G1 X46.008 Y11.429 Z0 F1200
G1 X46.487 Y11.343 Z0 F1200
G1 X46.946 Y11.225 Z0 F1200
G1 X47.383 Y11.078 Z0 F1200
G1 X47.796 Y10.902 Z0 F1200
G1 X48.18 Y10.701 Z0 F1200
G1 X48.536 Y10.475 Z0 F1200
G1 X48.858 Y10.226 Z0 F1200
G1 X49.146 Y9.957 Z0 F1200
G1 X49.397 Y9.668 Z0 F1200
G1 X49.607 Y9.362 Z0 F1200
G1 X49.775 Y9.041 Z0 F1200
G1 X49.898 Y8.705 Z0 F1200
G1 X49.974 Y8.358 Z0 F1200
G1 X50 Y8 Z0 F1200
G1 X49.974 Y7.642 Z0 F1200
G1 X49.898 Y7.295 Z0 F1200
G1 X49.775 Y6.959 Z0 F1200
G1 X49.607 Y6.638 Z0 F1200
G1 X49.397 Y6.332 Z0 F1200
G1 X49.146 Y6.043 Z0 F1200
G1 X48.858 Y5.774 Z0 F1200
G1 X48.536 Y5.525 Z0 F1200
G1 X48.18 Y5.299 Z0 F1200
G1 X47.796 Y5.098 Z0 F1200
G1 X47.383 Y4.922 Z0 F1200
G1 X46.946 Y4.775 Z0 F1200
G1 X46.487 Y4.657 Z0 F1200
G1 X46.008 Y4.571 Z0 F1200
G1 X45.511 Y4.518 Z0 F1200
G1 X45 Y4.5 Z0 F1200
G1 X44.489 Y4.518 Z0 F1200
G1 X43.992 Y4.571 Z0 F1200
G1 X43.513 Y4.657 Z0 F1200
G1 X43.054 Y4.775 Z0 F1200
G1 X42.617 Y4.922 Z0 F1200
G1 X42.204 Y5.098 Z0 F1200
G1 X41.82 Y5.299 Z0 F1200
G1 X41.464 Y5.525 Z0 F1200
G1 X41.142 Y5.774 Z0 F1200
G1 X40.854 Y6.043 Z0 F1200
G1 X40.603 Y6.332 Z0 F1200
G1 X40.393 Y6.638 Z0 F1200
G1 X40.225 Y6.959 Z0 F1200
G1 Z7 F800;         ; Raise from color
G1 X34 Y8 Z1 F1200;     ; Movement in paint
G1 X24 Y18 Z8 F500;     ; Move in paint
G1 F1200;           ; Set feed rate
;Scan @ 1500 mm/min, 90% power

M8
G0 Z3.5 F1000
G0 X57.847 Y47.4 Z3.5
G1 Z0 F1000
;Layer C1
G1 X59.237 Z0 S900 F1600
G0 Z5 F500 ; Lift S=0
G1 X76.798 Z5 S0 F1600
G0 Z0 F500 ; Drop S>0
G1 X78.127 Z0 S900 F1600
G0 Z5 F500 ; Lift S=0
G1 X79.364 Y48.3 Z5 S0 F1600
G0 Z0 F500 ; Drop S>0
; --- FIX X Backlash ---
G0 X78.064 Y48.3 Z5 F1200
G1 X74.908 Z0 S900 F1600
G0 Z5 F500 ; Lift S=0
G1 X58.52 Z5 S0 F1600
G0 Z0 F500 ; Drop S>0
G1 X55.305 Z0 S900 F1600
G0 Z5 F500 ; Lift S=0
G1 X53.256 Y49.2 Z5 S0 F1600
G0 Z0 F500 ; Drop S>0
; --- FIX X Backlash ---
G0 X54.556 Y49.2 Z5 F1200
G1 X60.408 Z0 S900 F1600
G0 Z5 F500 ; Lift S=0
G1 X75.61 Z5 S0 F1600
G0 Z0 F500 ; Drop S>0
G1 X81.436 Z0 S900 F1600
G0 Z5 F500 ; Lift S=0
G1 X81.505 Y50.1 Z5 S0 F1600
G0 Z0 F500 ; Drop S>0
; --- FIX X Backlash ---
G0 X80.205 Y50.1 Z5 F1200
G1 X73.713 Z0 S900 F1600
G0 Z5 F500 ; Lift S=0
G1 X59.698 Z5 S0 F1600
G0 Z0 F500 ; Drop S>0
G1 X53.204 Z0 S900 F1600
G0 Z5 F500 ; Lift S=0
; --- FIX X Backlash ---
G0 X54.504 Y50.1 Z5 F1200
G1 X55.016 Y51 Z5 S0 F1600
G0 Z0 F500 ; Drop S>0
G1 X61.593 Z0 S900 F1600
G0 Z5 F500 ; Lift S=0
G1 X74.409 Z5 S0 F1600
G0 Z0 F500 ; Drop S>0
G1 X80.996 Z0 S900 F1600
G0 Z5 F500 ; Lift S=0
; --- FIX X Backlash ---
G0 X79.696 Y51 Z5 F1200
G1 X79.184 Y51.9 Z5 S0 F1600
G0 Z0 F500 ; Drop S>0
G1 X72.497 Z0 S900 F1600
G0 Z5 F500 ; Lift S=0
G1 X60.906 Z5 S0 F1600
G0 Z0 F500 ; Drop S>0
G1 X54.207 Z0 S900 F1600
G0 Z5 F500 ; Lift S=0
; --- FIX X Backlash ---
G0 X55.507 Y51.9 Z5 F1200
G1 X56.012 Y52.8 Z5 S0 F1600
G0 Z0 F500 ; Drop S>0
G1 X62.831 Z0 S900 F1600
G0 Z5 F500 ; Lift S=0
G1 X73.17 Z5 S0 F1600
G0 Z0 F500 ; Drop S>0
G1 X79.985 Z0 S900 F1600
G0 Z5 F500 ; Lift S=0
; --- FIX X Backlash ---
G0 X78.685 Y52.8 Z5 F1200
G1 X78.201 Y53.7 Z5 S0 F1600
G0 Z0 F500 ; Drop S>0
G1 X71.225 Z0 S900 F1600
G0 Z5 F500 ; Lift S=0
G1 X62.166 Z5 S0 F1600
G0 Z0 F500 ; Drop S>0
G1 X55.187 Z0 S900 F1600
G0 Z5 F500 ; Lift S=0
; --- FIX X Backlash ---
G0 X56.487 Y53.7 Z5 F1200
G1 X56.966 Y54.6 Z5 S0 F1600
G0 Z0 F500 ; Drop S>0
G1 X64.074 Z0 S900 F1600
G0 Z5 F500 ; Lift S=0
G1 X71.878 Z5 S0 F1600
G0 Z0 F500 ; Drop S>0
G1 X79.037 Z0 S900 F1600
G0 Z5 F500 ; Lift S=0
; --- FIX X Backlash ---
G0 X77.737 Y54.6 Z5 F1200
G1 X77.286 Y55.5 Z5 S0 F1600
G0 Z0 F500 ; Drop S>0
G1 X71.681 Z0 S900 F1600
G0 Z5 F500 ; Lift S=0
G1 X61.66 Z5 S0 F1600
G0 Z0 F500 ; Drop S>0
G1 X56.106 Z0 S900 F1600
G0 Z5 F500 ; Lift S=0
; --- FIX X Backlash ---
G0 X57.406 Y55.5 Z5 F1200
G1 X57.837 Y56.4 Z5 S0 F1600
G0 Z0 F500 ; Drop S>0
G1 X61.477 Z0 S900 F1600
G0 Z5 F500 ; Lift S=0
G1 X64.077 Z5 S0 F1600
G0 Z0 F500 ; Drop S>0
G1 X66.018 Z0 S900 F1600
G0 Z5 F500 ; Lift S=0
G1 X69.963 Z5 S0 F1600
G0 Z0 F500 ; Drop S>0
G1 X71.882 Z0 S900 F1600
G0 Z5 F500 ; Lift S=0
G1 X74.425 Z5 S0 F1600
G0 Z0 F500 ; Drop S>0
G1 X78.158 Z0 S900 F1600
G0 Z5 F500 ; Lift S=0
; --- FIX X Backlash ---
G0 X76.858 Y56.4 Z5 F1200
G1 X76.435 Y57.3 Z5 S0 F1600
G0 Z0 F500 ; Drop S>0
G1 X74.622 Z0 S900 F1600
G0 Z5 F500 ; Lift S=0
G1 X72.06 Z5 S0 F1600
G0 Z0 F500 ; Drop S>0
G1 X67.769 Z0 S900 F1600
G0 Z5 F500 ; Lift S=0
G1 X65.558 Z5 S0 F1600
G0 Z0 F500 ; Drop S>0
G1 X61.299 Z0 S900 F1600
G0 Z5 F500 ; Lift S=0
G1 X58.694 Z5 S0 F1600
G0 Z0 F500 ; Drop S>0
G1 X56.964 Z0 S900 F1600
G0 Z5 F500 ; Lift S=0
; --- FIX X Backlash ---
G0 X58.264 Y57.3 Z5 F1200
G1 X61.111 Y58.2 Z5 S0 F1600
G0 Z0 F500 ; Drop S>0
G1 X67.655 Z0 S900 F1600
G0 Z5 F500 ; Lift S=0
G1 X69.284 Z5 S0 F1600
G0 Z0 F500 ; Drop S>0
G1 X74.844 Z0 S900 F1600
G0 Z5 F500 ; Lift S=0
G1 X76.294 Y59.1 Z5 S0 F1600
G0 Z0 F500 ; Drop S>0
; --- FIX X Backlash ---
G0 X74.994 Y59.1 Z5 F1200
G1 X68.656 Z0 S900 F1600
G0 Z5 F500 ; Lift S=0
G1 X67.086 Z5 S0 F1600
G0 Z0 F500 ; Drop S>0
G1 X58.292 Z0 S900 F1600
G0 Z5 F500 ; Lift S=0
G1 X58.008 Y60 Z5 S0 F1600
G0 Z0 F500 ; Drop S>0
; --- FIX X Backlash ---
G0 X59.308 Y60 Z5 F1200
G1 X69.054 Z0 S900 F1600
G0 Z5 F500 ; Lift S=0
G1 X70.58 Z5 S0 F1600
G0 Z0 F500 ; Drop S>0
G1 X76.734 Z0 S900 F1600
G0 Z5 F500 ; Lift S=0
; --- FIX X Backlash ---
G0 X75.434 Y60 Z5 F1200
G1 X75.143 Y60.9 Z5 S0 F1600
G0 Z0 F500 ; Drop S>0
G1 X69.877 Z0 S900 F1600
G0 Z5 F500 ; Lift S=0
G1 X68.363 Z5 S0 F1600
G0 Z0 F500 ; Drop S>0
G1 X58.274 Z0 S900 F1600
G0 Z5 F500 ; Lift S=0
; --- FIX X Backlash ---
G0 X59.574 Y60.9 Z5 F1200
G1 X59.866 Y61.8 Z5 S0 F1600
G0 Z0 F500 ; Drop S>0
G1 X70.228 Z0 S900 F1600
G0 Z5 F500 ; Lift S=0
G1 X71.74 Z5 S0 F1600
G0 Z0 F500 ; Drop S>0
G1 X76.136 Z0 S900 F1600
G0 Z5 F500 ; Lift S=0
; --- FIX X Backlash ---
G0 X74.836 Y61.8 Z5 F1200
G1 X74.51 Y62.7 Z5 S0 F1600
G0 Z0 F500 ; Drop S>0
G1 X70.936 Z0 S900 F1600
G0 Z5 F500 ; Lift S=0
G1 X69.457 Z5 S0 F1600
G0 Z0 F500 ; Drop S>0
G1 X58.89 Z0 S900 F1600
G0 Z5 F500 ; Lift S=0
; --- FIX X Backlash ---
G0 X60.19 Y62.7 Z5 F1200
G1 X60.539 Y63.6 Z5 S0 F1600
G0 Z0 F500 ; Drop S>0
G1 X71.257 Z0 S900 F1600
G0 Z5 F500 ; Lift S=0
G1 X72.71 Z5 S0 F1600
G0 Z0 F500 ; Drop S>0
G1 X75.46 Z0 S900 F1600
G0 Z5 F500 ; Lift S=0
; --- FIX X Backlash ---
G0 X74.16 Y63.6 Z5 F1200
G1 X73.796 Y64.5 Z5 S0 F1600
G0 Z0 F500 ; Drop S>0
G1 X71.882 Z0 S900 F1600
G0 Z5 F500 ; Lift S=0
G1 X70.434 Z5 S0 F1600
G0 Z0 F500 ; Drop S>0
G1 X59.629 Z0 S900 F1600
G0 Z5 F500 ; Lift S=0
; --- FIX X Backlash ---
G0 X60.929 Y64.5 Z5 F1200
G1 X61.362 Y65.4 Z5 S0 F1600
G0 Z0 F500 ; Drop S>0
G1 X72.191 Z0 S900 F1600
G0 Z5 F500 ; Lift S=0
G1 X73.643 Z5 S0 F1600
G0 Z0 F500 ; Drop S>0
G1 X74.729 Z0 S900 F1600
G0 Z5 F500 ; Lift S=0
; --- FIX X Backlash ---
G0 X73.429 Y65.4 Z5 F1200
G1 X73.063 Y66.3 Z5 S0 F1600
G0 Z0 F500 ; Drop S>0
G1 X72.811 Z0 S900 F1600
G0 Z5 F500 ; Lift S=0
G1 X71.335 Z5 S0 F1600
G0 Z0 F500 ; Drop S>0
G1 X60.537 Z0 S900 F1600
G0 Z5 F500 ; Lift S=0
; --- FIX X Backlash ---
G0 X61.837 Y66.3 Z5 F1200
G1 X62.35 Y67.2 Z5 S0 F1600
G0 Z0 F500 ; Drop S>0
G1 X73.067 Z0 S900 F1600
G0 Z5 F500 ; Lift S=0
G1 X73.488 Y68.1 Z5 S0 F1600
G0 Z0 F500 ; Drop S>0
; --- FIX X Backlash ---
G0 X72.188 Y68.1 Z5 F1200
G1 X61.601 Z0 S900 F1600
G0 Z5 F500 ; Lift S=0
; --- FIX X Backlash ---
G0 X62.901 Y68.1 Z5 F1200
G1 X63.48 Y69 Z5 S0 F1600
G0 Z0 F500 ; Drop S>0
G1 X73.902 Z0 S900 F1600
G0 Z5 F500 ; Lift S=0
G1 X74.309 Y69.9 Z5 S0 F1600
G0 Z0 F500 ; Drop S>0
; --- FIX X Backlash ---
G0 X73.009 Y69.9 Z5 F1200
G1 X62.781 Z0 S900 F1600
G0 Z5 F500 ; Lift S=0
G1 X61.248 Z5 S0 F1600
G0 Z0 F500 ; Drop S>0
G1 X60.418 Z0 S900 F1600
G0 Z5 F500 ; Lift S=0
G1 X60.005 Y70.8 Z5 S0 F1600
G0 Z0 F500 ; Drop S>0
; --- FIX X Backlash ---
G0 X61.305 Y70.8 Z5 F1200
G1 X63.122 Z0 S900 F1600
G0 Z5 F500 ; Lift S=0
G1 X64.698 Z5 S0 F1600
G0 Z0 F500 ; Drop S>0
G1 X74.711 Z0 S900 F1600
G0 Z5 F500 ; Lift S=0
G1 X75.109 Y71.7 Z5 S0 F1600
G0 Z0 F500 ; Drop S>0
; --- FIX X Backlash ---
G0 X73.809 Y71.7 Z5 F1200
G1 X64.027 Z0 S900 F1600
G0 Z5 F500 ; Lift S=0
G1 X62.43 Z5 S0 F1600
G0 Z0 F500 ; Drop S>0
G1 X59.602 Z0 S900 F1600
G0 Z5 F500 ; Lift S=0
G1 X59.203 Y72.6 Z5 S0 F1600
G0 Z0 F500 ; Drop S>0
; --- FIX X Backlash ---
G0 X60.503 Y72.6 Z5 F1200
G1 X64.352 Z0 S900 F1600
G0 Z5 F500 ; Lift S=0
G1 X65.96 Z5 S0 F1600
G0 Z0 F500 ; Drop S>0
G1 X75.508 Z0 S900 F1600
G0 Z5 F500 ; Lift S=0
G1 X75.907 Y73.5 Z5 S0 F1600
G0 Z0 F500 ; Drop S>0
; --- FIX X Backlash ---
G0 X74.607 Y73.5 Z5 F1200
G1 X65.291 Z0 S900 F1600
G0 Z5 F500 ; Lift S=0
G1 X63.682 Z5 S0 F1600
G0 Z0 F500 ; Drop S>0
G1 X58.801 Z0 S900 F1600
G0 Z5 F500 ; Lift S=0
G1 X58.419 Y74.4 Z5 S0 F1600
G0 Z0 F500 ; Drop S>0
; --- FIX X Backlash ---
G0 X59.719 Y74.4 Z5 F1200
G1 X65.616 Z0 S900 F1600
G0 Z5 F500 ; Lift S=0
G1 X67.22 Z5 S0 F1600
G0 Z0 F500 ; Drop S>0
G1 X76.307 Z0 S900 F1600
G0 Z5 F500 ; Lift S=0
G1 X76.707 Y75.3 Z5 S0 F1600
G0 Z0 F500 ; Drop S>0
; --- FIX X Backlash ---
G0 X75.407 Y75.3 Z5 F1200
G1 X66.553 Z0 S900 F1600
G0 Z5 F500 ; Lift S=0
G1 X64.948 Z5 S0 F1600
G0 Z0 F500 ; Drop S>0
G1 X58.019 Z0 S900 F1600
G0 Z5 F500 ; Lift S=0
G1 X57.617 Y76.2 Z5 S0 F1600
G0 Z0 F500 ; Drop S>0
; --- FIX X Backlash ---
G0 X58.917 Y76.2 Z5 F1200
G1 X66.863 Z0 S900 F1600
G0 Z5 F500 ; Lift S=0
G1 X68.489 Z5 S0 F1600
G0 Z0 F500 ; Drop S>0
G1 X77.102 Z0 S900 F1600
G0 Z5 F500 ; Lift S=0
G1 X77.497 Y77.1 Z5 S0 F1600
G0 Z0 F500 ; Drop S>0
; --- FIX X Backlash ---
G0 X76.197 Y77.1 Z5 F1200
G1 X67.828 Z0 S900 F1600
G0 Z5 F500 ; Lift S=0
G1 X65.507 Z5 S0 F1600
G0 Z0 F500 ; Drop S>0
G1 X57.22 Z0 S900 F1600
G0 Z5 F500 ; Lift S=0
G1 X56.824 Y78 Z5 S0 F1600
G0 Z0 F500 ; Drop S>0
; --- FIX X Backlash ---
G0 X58.124 Y78 Z5 F1200
G1 X66.171 Z0 S900 F1600
G0 Z5 F500 ; Lift S=0
G1 X69.77 Z5 S0 F1600
G0 Z0 F500 ; Drop S>0
G1 X77.892 Z0 S900 F1600
G0 Z5 F500 ; Lift S=0
G1 X78.286 Y78.9 Z5 S0 F1600
G0 Z0 F500 ; Drop S>0
; --- FIX X Backlash ---
G0 X76.986 Y78.9 Z5 F1200
G1 X69.118 Z0 S900 F1600
G0 Z5 F500 ; Lift S=0
G1 X64.219 Z5 S0 F1600
G0 Z0 F500 ; Drop S>0
G1 X56.427 Z0 S900 F1600
G0 Z5 F500 ; Lift S=0
G1 X56.03 Y79.8 Z5 S0 F1600
G0 Z0 F500 ; Drop S>0
; --- FIX X Backlash ---
G0 X57.33 Y79.8 Z5 F1200
G1 X64.877 Z0 S900 F1600
G0 Z5 F500 ; Lift S=0
G1 X71.078 Z5 S0 F1600
G0 Z0 F500 ; Drop S>0
G1 X78.681 Z0 S900 F1600
G0 Z5 F500 ; Lift S=0
G1 X79.076 Y80.7 Z5 S0 F1600
G0 Z0 F500 ; Drop S>0
; --- FIX X Backlash ---
G0 X77.776 Y80.7 Z5 F1200
G1 X70.425 Z0 S900 F1600
G0 Z5 F500 ; Lift S=0
G1 X62.939 Z5 S0 F1600
G0 Z0 F500 ; Drop S>0
G1 X55.632 Z0 S900 F1600
G0 Z5 F500 ; Lift S=0
G1 X55.232 Y81.6 Z5 S0 F1600
G0 Z0 F500 ; Drop S>0
; --- FIX X Backlash ---
G0 X56.532 Y81.6 Z5 F1200
G1 X63.598 Z0 S900 F1600
G0 Z5 F500 ; Lift S=0
G1 X72.37 Z5 S0 F1600
G0 Z0 F500 ; Drop S>0
G1 X79.47 Z0 S900 F1600
G0 Z5 F500 ; Lift S=0
G1 X79.864 Y82.5 Z5 S0 F1600
G0 Z0 F500 ; Drop S>0
; --- FIX X Backlash ---
G0 X78.564 Y82.5 Z5 F1200
G1 X71.715 Z0 S900 F1600
G0 Z5 F500 ; Lift S=0
G1 X61.657 Z5 S0 F1600
G0 Z0 F500 ; Drop S>0
G1 X54.835 Z0 S900 F1600
G0 Z5 F500 ; Lift S=0
G1 X54.439 Y83.4 Z5 S0 F1600
G0 Z0 F500 ; Drop S>0
; --- FIX X Backlash ---
G0 X55.739 Y83.4 Z5 F1200
G1 X62.315 Z0 S900 F1600
G0 Z5 F500 ; Lift S=0
G1 X73.66 Z5 S0 F1600
G0 Z0 F500 ; Drop S>0
G1 X80.258 Z0 S900 F1600
G0 Z5 F500 ; Lift S=0
G1 X80.652 Y84.3 Z5 S0 F1600
G0 Z0 F500 ; Drop S>0
; --- FIX X Backlash ---
G0 X79.352 Y84.3 Z5 F1200
G1 X73.005 Z0 S900 F1600
G0 Z5 F500 ; Lift S=0
G1 X60.373 Z5 S0 F1600
G0 Z0 F500 ; Drop S>0
G1 X54.043 Z0 S900 F1600
G0 Z5 F500 ; Lift S=0
G1 X53.649 Y85.2 Z5 S0 F1600
G0 Z0 F500 ; Drop S>0
; --- FIX X Backlash ---
G0 X54.949 Y85.2 Z5 F1200
G1 X61.032 Z0 S900 F1600
G0 Z5 F500 ; Lift S=0
G1 X74.95 Z5 S0 F1600
G0 Z0 F500 ; Drop S>0
G1 X81.046 Z0 S900 F1600
G0 Z5 F500 ; Lift S=0
G1 X81.439 Y86.1 Z5 S0 F1600
G0 Z0 F500 ; Drop S>0
; --- FIX X Backlash ---
G0 X80.139 Y86.1 Z5 F1200
G1 X74.295 Z0 S900 F1600
G0 Z5 F500 ; Lift S=0
G1 X59.094 Z5 S0 F1600
G0 Z0 F500 ; Drop S>0
G1 X53.256 Z0 S900 F1600
G0 Z5 F500 ; Lift S=0
G1 X52.856 Y87 Z5 S0 F1600
G0 Z0 F500 ; Drop S>0
; --- FIX X Backlash ---
G0 X54.156 Y87 Z5 F1200
G1 X59.761 Z0 S900 F1600
G0 Z5 F500 ; Lift S=0
G1 X76.238 Z5 S0 F1600
G0 Z0 F500 ; Drop S>0
G1 X81.834 Z0 S900 F1600
G0 Z5 F500 ; Lift S=0
G1 X82.228 Y87.9 Z5 S0 F1600
G0 Z0 F500 ; Drop S>0
; --- FIX X Backlash ---
G0 X80.928 Y87.9 Z5 F1200
G1 X75.582 Z0 S900 F1600
G0 Z5 F500 ; Lift S=0
G1 X57.825 Z5 S0 F1600
G0 Z0 F500 ; Drop S>0
G1 X52.457 Z0 S900 F1600
G0 Z5 F500 ; Lift S=0
G1 X52.063 Y88.8 Z5 S0 F1600
G0 Z0 F500 ; Drop S>0
; --- FIX X Backlash ---
G0 X53.363 Y88.8 Z5 F1200
G1 X58.488 Z0 S900 F1600
G0 Z5 F500 ; Lift S=0
G1 X77.526 Z5 S0 F1600
G0 Z0 F500 ; Drop S>0
G1 X82.623 Z0 S900 F1600
G0 Z5 F500 ; Lift S=0
G1 X83.017 Y89.7 Z5 S0 F1600
G0 Z0 F500 ; Drop S>0
; --- FIX X Backlash ---
G0 X81.717 Y89.7 Z5 F1200
G1 X76.869 Z0 S900 F1600
G0 Z5 F500 ; Lift S=0
G1 X56.551 Z5 S0 F1600
G0 Z0 F500 ; Drop S>0
G1 X51.67 Z0 S900 F1600
G0 Z5 F500 ; Lift S=0
G1 X51.277 Y90.6 Z5 S0 F1600
G0 Z0 F500 ; Drop S>0
; --- FIX X Backlash ---
G0 X52.577 Y90.6 Z5 F1200
G1 X57.215 Z0 S900 F1600
G0 Z5 F500 ; Lift S=0
G1 X78.811 Z5 S0 F1600
G0 Z0 F500 ; Drop S>0
G1 X83.412 Z0 S900 F1600
G0 Z5 F500 ; Lift S=0
G1 X83.809 Y91.5 Z5 S0 F1600
G0 Z0 F500 ; Drop S>0
; --- FIX X Backlash ---
G0 X82.509 Y91.5 Z5 F1200
G1 X78.143 Z0 S900 F1600
G0 Z5 F500 ; Lift S=0
G1 X55.28 Z5 S0 F1600
G0 Z0 F500 ; Drop S>0
G1 X50.883 Z0 S900 F1600
G0 Z5 F500 ; Lift S=0
G1 X50.49 Y92.4 Z5 S0 F1600
G0 Z0 F500 ; Drop S>0
; --- FIX X Backlash ---
G0 X51.79 Y92.4 Z5 F1200
G1 X55.948 Z0 S900 F1600
G0 Z5 F500 ; Lift S=0
G1 X80.073 Z5 S0 F1600
G0 Z0 F500 ; Drop S>0
G1 X84.207 Z0 S900 F1600
G0 Z5 F500 ; Lift S=0
G1 X84.593 Y93.3 Z5 S0 F1600
G0 Z0 F500 ; Drop S>0
; --- FIX X Backlash ---
G0 X83.293 Y93.3 Z5 F1200
G1 X79.407 Z0 S900 F1600
G0 Z5 F500 ; Lift S=0
G1 X54.022 Z5 S0 F1600
G0 Z0 F500 ; Drop S>0
G1 X50.105 Z0 S900 F1600
G0 Z5 F500 ; Lift S=0
G1 X49.737 Y94.2 Z5 S0 F1600
G0 Z0 F500 ; Drop S>0
; --- FIX X Backlash ---
G0 X51.037 Y94.2 Z5 F1200
G1 X54.698 Z0 S900 F1600
G0 Z5 F500 ; Lift S=0
G1 X81.34 Z5 S0 F1600
G0 Z0 F500 ; Drop S>0
G1 X84.992 Z0 S900 F1600
G0 Z5 F500 ; Lift S=0
G1 X85.38 Y95.1 Z5 S0 F1600
G0 Z0 F500 ; Drop S>0
; --- FIX X Backlash ---
G0 X84.08 Y95.1 Z5 F1200
G1 X80.669 Z0 S900 F1600
G0 Z5 F500 ; Lift S=0
G1 X52.768 Z5 S0 F1600
G0 Z0 F500 ; Drop S>0
G1 X49.337 Z0 S900 F1600
G0 Z5 F500 ; Lift S=0
G1 X48.95 Y96 Z5 S0 F1600
G0 Z0 F500 ; Drop S>0
; --- FIX X Backlash ---
G0 X50.25 Y96 Z5 F1200
G1 X53.434 Z0 S900 F1600
G0 Z5 F500 ; Lift S=0
G1 X82.594 Z5 S0 F1600
G0 Z0 F500 ; Drop S>0
G1 X85.765 Z0 S900 F1600
G0 Z5 F500 ; Lift S=0
G1 X86.15 Y96.9 Z5 S0 F1600
G0 Z0 F500 ; Drop S>0
; --- FIX X Backlash ---
G0 X84.85 Y96.9 Z5 F1200
G1 X81.918 Z0 S900 F1600
G0 Z5 F500 ; Lift S=0
G1 X51.501 Z5 S0 F1600
G0 Z0 F500 ; Drop S>0
G1 X48.563 Z0 S900 F1600
G0 Z5 F500 ; Lift S=0
G1 X48.179 Y97.8 Z5 S0 F1600
G0 Z0 F500 ; Drop S>0
; --- FIX X Backlash ---
G0 X49.479 Y97.8 Z5 F1200
G1 X52.175 Z0 S900 F1600
G0 Z5 F500 ; Lift S=0
G1 X83.845 Z5 S0 F1600
G0 Z0 F500 ; Drop S>0
G1 X86.535 Z0 S900 F1600
G0 Z5 F500 ; Lift S=0
G1 X86.92 Y98.7 Z5 S0 F1600
G0 Z0 F500 ; Drop S>0
; --- FIX X Backlash ---
G0 X85.62 Y98.7 Z5 F1200
G1 X83.168 Z0 S900 F1600
G0 Z5 F500 ; Lift S=0
G1 X50.25 Z5 S0 F1600
G0 Z0 F500 ; Drop S>0
G1 X47.795 Z0 S900 F1600
G0 Z5 F500 ; Lift S=0
G1 X47.412 Y99.6 Z5 S0 F1600
G0 Z0 F500 ; Drop S>0
; --- FIX X Backlash ---
G0 X48.712 Y99.6 Z5 F1200
G1 X50.926 Z0 S900 F1600
G0 Z5 F500 ; Lift S=0
G1 X85.093 Z5 S0 F1600
G0 Z0 F500 ; Drop S>0
G1 X87.303 Z0 S900 F1600
G0 Z5 F500 ; Lift S=0
G1 X87.679 Y100.5 Z5 S0 F1600
G0 Z0 F500 ; Drop S>0
; --- FIX X Backlash ---
G0 X86.379 Y100.5 Z5 F1200
G1 X84.425 Z0 S900 F1600
G0 Z5 F500 ; Lift S=0
G1 X49.001 Z5 S0 F1600
G0 Z0 F500 ; Drop S>0
G1 X47.03 Z0 S900 F1600
G0 Z5 F500 ; Lift S=0
G1 X46.648 Y101.4 Z5 S0 F1600
G0 Z0 F500 ; Drop S>0
; --- FIX X Backlash ---
G0 X47.948 Y101.4 Z5 F1200
G1 X49.671 Z0 S900 F1600
G0 Z5 F500 ; Lift S=0
G1 X86.341 Z5 S0 F1600
G0 Z0 F500 ; Drop S>0
G1 X88.045 Z0 S900 F1600
G0 Z5 F500 ; Lift S=0
G1 X88.383 Y102.3 Z5 S0 F1600
G0 Z0 F500 ; Drop S>0
; --- FIX X Backlash ---
G0 X87.083 Y102.3 Z5 F1200
G1 X85.663 Z0 S900 F1600
G0 Z5 F500 ; Lift S=0
G1 X47.716 Z5 S0 F1600
G0 Z0 F500 ; Drop S>0
G1 X46.326 Z0 S900 F1600

; Washing sequence (no color)
G1 Z10 F1000;        ; Raise brush
G0 X5 Y5 F1200;     ; Rapid move to clean
G1 Z-1 F800;         ; Lower brush
G1 X10 Y12 Z8 F1200;     ; Move
G1 Z-1 F800;         ; Lower
G1 X25 Y14 Z6 F800;     ; Move
G1 Z8 F800;         ; Maintain
G0 X5 Y5 F1200;     ; Rapid
G1 Z-1 F800;         ; Lower
G1 X15 Y12 Z8 F1200;     ; Move
G1 Z-1 F800;         ; Lower
G1 X25 Y14 Z6 F800;     ; Move
G1 Z10 F800;         ; Maintain
G1 F1200;           ; Set feed

; Color picking sequence
G1 Z10 F1000;         ; Raise brush
G0 X86 Y5 F1200;    ; Rapid move to color 1
G1 Z10 F1000;         ; Raise brush
G0 X86 Y5 F1200;    ; Rapid move to color 1
G1 Z0 F1000;         ; Lower into color
G1 X85.102 Y7.295 Z0 S800 F1200
G1 X85.026 Y7.642 Z0 F1200
G1 X85 Y8 Z0 F1200
G1 X85.026 Y8.358 Z0 F1200
G1 X85.102 Y8.705 Z0 F1200
G1 X85.225 Y9.041 Z0 F1200
G1 X85.393 Y9.362 Z0 F1200
G1 X85.603 Y9.668 Z0 F1200
G1 X85.854 Y9.957 Z0 F1200
G1 X86.142 Y10.226 Z0 F1200
G1 X86.464 Y10.475 Z0 F1200
G1 X86.82 Y10.701 Z0 F1200
G1 X87.204 Y10.902 Z0 F1200
G1 X87.617 Y11.078 Z0 F1200
G1 X88.054 Y11.225 Z0 F1200
G1 X88.513 Y11.343 Z0 F1200
G1 X88.992 Y11.429 Z0 F1200
G1 X89.489 Y11.482 Z0 F1200
G1 X90 Y11.5 Z0 F1200
G1 X90.511 Y11.482 Z0 F1200
G1 X91.008 Y11.429 Z0 F1200
G1 X91.487 Y11.343 Z0 F1200
G1 X91.946 Y11.225 Z0 F1200
G1 X92.383 Y11.078 Z0 F1200
G1 X92.796 Y10.902 Z0 F1200
G1 X93.18 Y10.701 Z0 F1200
G1 X93.536 Y10.475 Z0 F1200
G1 X93.858 Y10.226 Z0 F1200
G1 X94.146 Y9.957 Z0 F1200
G1 X94.397 Y9.668 Z0 F1200
G1 X94.607 Y9.362 Z0 F1200
G1 X94.775 Y9.041 Z0 F1200
G1 X94.898 Y8.705 Z0 F1200
G1 X94.974 Y8.358 Z0 F1200
G1 X95 Y8 Z0 F1200
G1 X94.974 Y7.642 Z0 F1200
G1 X94.898 Y7.295 Z0 F1200
G1 X94.775 Y6.959 Z0 F1200
G1 X94.607 Y6.638 Z0 F1200
G1 X94.397 Y6.332 Z0 F1200
G1 X94.146 Y6.043 Z0 F1200
G1 X93.858 Y5.774 Z0 F1200
G1 X93.536 Y5.525 Z0 F1200
G1 X93.18 Y5.299 Z0 F1200
G1 X92.796 Y5.098 Z0 F1200
G1 X92.383 Y4.922 Z0 F1200
G1 X91.946 Y4.775 Z0 F1200
G1 X91.487 Y4.657 Z0 F1200
G1 X91.008 Y4.571 Z0 F1200
G1 X90.511 Y4.518 Z0 F1200
G1 X90 Y4.5 Z0 F1200
G1 X89.489 Y4.518 Z0 F1200
G1 X88.992 Y4.571 Z0 F1200
G1 X88.513 Y4.657 Z0 F1200
G1 X88.054 Y4.775 Z0 F1200
G1 X87.617 Y4.922 Z0 F1200
G1 X87.204 Y5.098 Z0 F1200
G1 X86.82 Y5.299 Z0 F1200
G1 X86.464 Y5.525 Z0 F1200
G1 X86.142 Y5.774 Z0 F1200
G1 X85.854 Y6.043 Z0 F1200
G1 X85.603 Y6.332 Z0 F1200
G1 X85.393 Y6.638 Z0 F1200
G1 X85.225 Y6.959 Z0 F1200
G1 Z7 F800;         ; Raise from color
G1 X79 Y8 Z1 F1200;     ; Movement in paint
G1 X69 Y18 Z8 F500;     ; Move in paint
G1 F1200;           ; Set feed rate
;Offset @ 1500 mm/min, 90% power

M8
G0 Z3.5 F1000
; --- FIX X Backlash ---
G0 X47.626 Y102.3 Z5 F1200
; --- FIX Y Backlash ---
G0 X47.626 Y100.9 Z5 F1200
G0 X48.258 Y32.883 Z3.5 F1500
G1 Z0 F1000
;Layer C2
; --- FIX Y Backlash ---
G0 X48.258 Y34.283 Z5 F1200
G1 X49.058 Y34.605 Z0 F1600
G1 X49.862 Y34.955 Z0 F1600
G1 X50.682 Y35.337 Z0 F1600
G1 X51.459 Y35.724 Z0 F1600
G1 X52.189 Y36.112 Z0 F1600
G1 X52.864 Y36.5 Z0 F1600
G1 X53.441 Y36.863 Z0 F1600
G1 X53.97 Y37.23 Z0 F1600
G1 X54.462 Y37.601 Z0 F1600
G1 X54.926 Y37.981 Z0 F1600
G1 X55.356 Y38.367 Z0 F1600
G1 X55.756 Y38.761 Z0 F1600
G1 X56.114 Y39.148 Z0 F1600
G1 X56.438 Y39.539 Z0 F1600
G1 X56.736 Y39.941 Z0 F1600
G1 X56.992 Y40.333 Z0 F1600
G1 X57.212 Y40.722 Z0 F1600
G1 X57.401 Y41.114 Z0 F1600
G1 X57.552 Y41.496 Z0 F1600
G1 X57.669 Y41.874 Z0 F1600
G1 X57.75 Y42.242 Z0 F1600
G1 X57.801 Y42.617 Z0 F1600
G1 X57.818 Y42.981 Z0 F1600
G1 X57.812 Y43.19 Z0 F1600
; --- FIX Y Backlash ---
G0 X57.812 Y41.79 Z5 F1200
G1 X57.763 Y41.687 Z0 F1600
; --- FIX X Backlash ---
G0 X56.463 Y41.687 Z5 F1200
G1 X56.153 Y41.095 Z0 F1600
G1 X55.819 Y40.504 Z0 F1600
G1 X55.465 Y39.927 Z0 F1600
G1 X55.098 Y39.374 Z0 F1600
G1 X54.724 Y38.858 Z0 F1600
G1 X54.187 Y38.187 Z0 F1600
G1 X53.619 Y37.545 Z0 F1600
G1 X53.025 Y36.933 Z0 F1600
G1 X52.407 Y36.356 Z0 F1600
G1 X51.768 Y35.814 Z0 F1600
G1 X51.111 Y35.313 Z0 F1600
G1 X50.439 Y34.854 Z0 F1600
G1 X49.763 Y34.445 Z0 F1600
G1 X49.463 Y34.279 Z0 F1600
G1 X49.205 Y34.149 Z0 F1600
G1 X48.644 Y33.95 Z0 F1600
; --- FIX Y Backlash ---
G0 X48.644 Y35.35 Z5 F1200
G1 X47.629 Y35.945 Z0 F1600
; --- FIX Y Backlash ---
G0 X47.629 Y34.545 Z5 F1200
G1 X46.808 Y34.476 Z0 F1600
; --- FIX Y Backlash ---
G0 X46.808 Y35.876 Z5 F1200
G1 X46.554 Y36.709 Z0 F1600
G1 X46.541 Y36.922 Z0 F1600
G1 X46.546 Y37.083 Z0 F1600
G1 X46.571 Y37.395 Z0 F1600
G1 X46.617 Y37.773 Z0 F1600
; --- FIX X Backlash ---
G0 X47.917 Y37.773 Z5 F1200
G1 X48.048 Y38.613 Z0 F1600
G1 X48.216 Y39.42 Z0 F1600
G1 X48.48 Y40.402 Z0 F1600
G1 X48.778 Y41.341 Z0 F1600
G1 X49.113 Y42.249 Z0 F1600
G1 X49.488 Y43.131 Z0 F1600
G1 X49.905 Y43.99 Z0 F1600
G1 X50.366 Y44.831 Z0 F1600
G1 X50.872 Y45.658 Z0 F1600
G1 X51.423 Y46.473 Z0 F1600
G1 X51.905 Y47.131 Z0 F1600
G1 X51.926 Y47.159 Z0 F1600
; --- FIX X Backlash ---
G0 X50.626 Y47.159 Z5 F1200
G1 X50.534 Y47.133 Z0 F1600
; --- FIX Y Backlash ---
G0 X50.534 Y45.733 Z5 F1200
G1 X50.358 Y45.658 Z0 F1600
G1 X50.155 Y45.543 Z0 F1600
G1 X49.925 Y45.384 Z0 F1600
G1 X49.67 Y45.177 Z0 F1600
G1 X49.378 Y44.907 Z0 F1600
G1 X49.074 Y44.598 Z0 F1600
G1 X48.735 Y44.225 Z0 F1600
G1 X48.654 Y44.121 Z0 F1600
G1 X48.529 Y43.944 Z0 F1600
G1 X48.377 Y43.711 Z0 F1600
G1 X48.216 Y43.453 Z0 F1600
G1 X47.887 Y42.885 Z0 F1600
G1 X47.6 Y42.339 Z0 F1600
G1 X47.431 Y41.968 Z0 F1600
G1 X47.276 Y41.574 Z0 F1600
G1 X47.134 Y41.153 Z0 F1600
G1 X47.001 Y40.686 Z0 F1600
G1 X46.885 Y40.201 Z0 F1600
G1 X46.768 Y39.625 Z0 F1600
G1 X46.665 Y39.018 Z0 F1600
G1 X46.572 Y38.369 Z0 F1600
G1 X46.557 Y38.23 Z0 F1600
G1 X46.542 Y38.013 Z0 F1600
G1 X46.529 Y37.748 Z0 F1600
G1 X46.517 Y37.434 Z0 F1600
G1 X46.498 Y36.702 Z0 F1600
G1 X46.486 Y35.9 Z0 F1600
G1 X46.483 Y35.111 Z0 F1600
G1 X46.489 Y34.386 Z0 F1600
G1 X46.495 Y34.067 Z0 F1600
G1 X46.503 Y33.82 Z0 F1600
G1 X46.514 Y33.605 Z0 F1600
G1 X46.525 Y33.493 Z0 F1600
; --- FIX X Backlash ---
G0 X47.825 Y33.493 Z5 F1200
G1 X47.919 Y32.759 Z0 F1600
; --- FIX Y Backlash ---
G0 X47.919 Y34.159 Z5 F1200
G1 X48.258 Y34.283 Z0 F1600
G0 Z3.5 F1000
G0 X50.261 Y37.979 Z3.5
G1 Z0 F1000
G1 X50.603 Y38.327 Z0 F1600
G1 X51.021 Y38.761 Z0 F1600
G1 X51.244 Y39.001 Z0 F1600
G1 X51.462 Y39.243 Z0 F1600
G1 X51.669 Y39.482 Z0 F1600
G1 X51.917 Y39.773 Z0 F1600
G1 X52.209 Y40.122 Z0 F1600
G1 X53.035 Y41.164 Z0 F1600
G1 X53.759 Y42.188 Z0 F1600
G1 X54.405 Y43.229 Z0 F1600
G1 X54.988 Y44.307 Z0 F1600
G1 X55.317 Y45.008 Z0 F1600
G1 X55.614 Y45.71 Z0 F1600
G1 X55.741 Y46.039 Z0 F1600
G1 X55.769 Y46.116 Z0 F1600
; --- FIX X Backlash ---
G0 X54.469 Y46.116 Z5 F1200
G1 X54.402 Y46.168 Z0 F1600
G1 X53.978 Y46.45 Z0 F1600
G1 X53.93 Y46.475 Z0 F1600
; --- FIX Y Backlash ---
G0 X53.93 Y45.075 Z5 F1200
G1 X53.789 Y44.9 Z0 F1600

; Color picking sequence
G1 Z10 F1000;         ; Raise brush
G0 X86 Y5 F1200;    ; Rapid move to color 1
G1 Z10 F1000;         ; Raise brush
G0 X86 Y5 F1200;    ; Rapid move to color 1
G1 Z0 F1000;         ; Lower into color
G1 X85.102 Y7.295 Z0 S800 F1200
G1 X85.026 Y7.642 Z0 F1200
G1 X85 Y8 Z0 F1200
G1 X85.026 Y8.358 Z0 F1200
G1 X85.102 Y8.705 Z0 F1200
G1 X85.225 Y9.041 Z0 F1200
G1 X85.393 Y9.362 Z0 F1200
G1 X85.603 Y9.668 Z0 F1200
G1 X85.854 Y9.957 Z0 F1200
G1 X86.142 Y10.226 Z0 F1200
G1 X86.464 Y10.475 Z0 F1200
G1 X86.82 Y10.701 Z0 F1200
G1 X87.204 Y10.902 Z0 F1200
G1 X87.617 Y11.078 Z0 F1200
G1 X88.054 Y11.225 Z0 F1200
G1 X88.513 Y11.343 Z0 F1200
G1 X88.992 Y11.429 Z0 F1200
G1 X89.489 Y11.482 Z0 F1200
G1 X90 Y11.5 Z0 F1200
G1 X90.511 Y11.482 Z0 F1200
G1 X91.008 Y11.429 Z0 F1200
G1 X91.487 Y11.343 Z0 F1200
G1 X91.946 Y11.225 Z0 F1200
G1 X92.383 Y11.078 Z0 F1200
G1 X92.796 Y10.902 Z0 F1200
G1 X93.18 Y10.701 Z0 F1200
G1 X93.536 Y10.475 Z0 F1200
G1 X93.858 Y10.226 Z0 F1200
G1 X94.146 Y9.957 Z0 F1200
G1 X94.397 Y9.668 Z0 F1200
G1 X94.607 Y9.362 Z0 F1200
G1 X94.775 Y9.041 Z0 F1200
G1 X94.898 Y8.705 Z0 F1200
G1 X94.974 Y8.358 Z0 F1200
G1 X95 Y8 Z0 F1200
G1 X94.974 Y7.642 Z0 F1200
G1 X94.898 Y7.295 Z0 F1200
G1 X94.775 Y6.959 Z0 F1200
G1 X94.607 Y6.638 Z0 F1200
G1 X94.397 Y6.332 Z0 F1200
G1 X94.146 Y6.043 Z0 F1200
G1 X93.858 Y5.774 Z0 F1200
G1 X93.536 Y5.525 Z0 F1200
G1 X93.18 Y5.299 Z0 F1200
G1 X92.796 Y5.098 Z0 F1200
G1 X92.383 Y4.922 Z0 F1200
G1 X91.946 Y4.775 Z0 F1200
G1 X91.487 Y4.657 Z0 F1200
G1 X91.008 Y4.571 Z0 F1200
G1 X90.511 Y4.518 Z0 F1200
G1 X90 Y4.5 Z0 F1200
G1 X89.489 Y4.518 Z0 F1200
G1 X88.992 Y4.571 Z0 F1200
G1 X88.513 Y4.657 Z0 F1200
G1 X88.054 Y4.775 Z0 F1200
G1 X87.617 Y4.922 Z0 F1200
G1 X87.204 Y5.098 Z0 F1200
G1 X86.82 Y5.299 Z0 F1200
G1 X86.464 Y5.525 Z0 F1200
G1 X86.142 Y5.774 Z0 F1200
G1 X85.854 Y6.043 Z0 F1200
G1 X85.603 Y6.332 Z0 F1200
G1 X85.393 Y6.638 Z0 F1200
G1 X85.225 Y6.959 Z0 F1200
G1 Z7 F800;         ; Raise from color
G1 X79 Y8 Z1 F1200;     ; Movement in paint
G1 X69 Y18 Z8 F500;     ; Move in paint
G1 F1200;           ; Set feed rate
G0 X53.789 Y44.9 F1200 ; Return
G1 Z0 F1000 ; Restore Z
G1 X53.603 Y44.663 Z0 F1600
G1 X53.406 Y44.402 Z0 F1600
G1 X52.966 Y43.802 Z0 F1600
G1 X52.523 Y43.173 Z0 F1600
G1 X52.086 Y42.53 Z0 F1600
G1 X51.686 Y41.917 Z0 F1600
G1 X51.324 Y41.335 Z0 F1600
G1 X51.022 Y40.818 Z0 F1600
G1 X50.479 Y39.804 Z0 F1600
G1 X49.933 Y38.713 Z0 F1600
G1 X49.404 Y37.587 Z0 F1600
G1 X48.961 Y36.579 Z0 F1600
G0 Z3.5 F1000
G0 X48.716 Y34.992 Z3.5
G1 Z0 F1000
G1 X48.749 Y35.041 Z0 F1600
; --- FIX X Backlash ---
G0 X50.049 Y35.041 Z5 F1200
; --- FIX Y Backlash ---
G0 X50.049 Y36.441 Z5 F1200
G1 X50.101 Y36.508 Z0 F1600
G1 X50.174 Y36.591 Z0 F1600
G1 X50.267 Y36.692 Z0 F1600
G1 X50.512 Y36.949 Z0 F1600
G1 X51.251 Y37.703 Z0 F1600
G1 X51.68 Y38.148 Z0 F1600
G1 X51.914 Y38.399 Z0 F1600
G1 X52.131 Y38.642 Z0 F1600
G1 X52.355 Y38.899 Z0 F1600
G1 X52.606 Y39.195 Z0 F1600
G1 X52.907 Y39.553 Z0 F1600
G1 X53.754 Y40.621 Z0 F1600
G1 X54.51 Y41.691 Z0 F1600
G1 X55.186 Y42.779 Z0 F1600
G1 X55.792 Y43.902 Z0 F1600
G1 X56.136 Y44.633 Z0 F1600
G1 X56.453 Y45.385 Z0 F1600
G1 X56.584 Y45.723 Z0 F1600
G1 X56.686 Y46.012 Z0 F1600
G1 X56.752 Y46.233 Z0 F1600
G1 X56.776 Y46.369 Z0 F1600
G1 X56.734 Y46.456 Z0 F1600
; --- FIX X Backlash ---
G0 X55.434 Y46.456 Z5 F1200
G1 X55.318 Y46.582 Z0 F1600
G1 X55.144 Y46.733 Z0 F1600
G1 X54.928 Y46.898 Z0 F1600
G1 X54.437 Y47.226 Z0 F1600
G1 X53.973 Y47.468 Z0 F1600
G1 X53.81 Y47.527 Z0 F1600
G1 X53.698 Z0 F1600
; --- FIX Y Backlash ---
G0 X53.698 Y46.127 Z5 F1200
G1 X53.591 Y46.057 Z0 F1600
G1 X53.445 Y45.897 Z0 F1600
G1 X53.274 Y45.695 Z0 F1600
G1 X53.088 Y45.464 Z0 F1600
G1 X52.889 Y45.21 Z0 F1600
G1 X52.68 Y44.934 Z0 F1600
G1 X52.24 Y44.334 Z0 F1600
G1 X51.787 Y43.692 Z0 F1600
G1 X51.342 Y43.036 Z0 F1600
G1 X50.922 Y42.393 Z0 F1600
G1 X50.548 Y41.792 Z0 F1600
G1 X50.238 Y41.261 Z0 F1600
G1 X49.685 Y40.229 Z0 F1600
G1 X49.123 Y39.106 Z0 F1600
G1 X48.581 Y37.952 Z0 F1600
G1 X48.088 Y36.828 Z0 F1600
G1 X47.863 Y36.3 Z0 F1600
G1 X47.673 Y35.862 Z0 F1600
G1 X47.536 Y35.558 Z0 F1600
G1 X47.495 Y35.471 Z0 F1600
G1 X47.474 Y35.435 Z0 F1600
G1 X47.457 Z0 F1600
G1 X47.446 Y35.469 Z0 F1600
; --- FIX Y Backlash ---
G0 X47.446 Y36.869 Z5 F1200
G1 X47.442 Y36.937 Z0 F1600
G1 X47.445 Y37.035 Z0 F1600
G1 X47.467 Y37.305 Z0 F1600
G1 X47.508 Y37.65 Z0 F1600
; --- FIX X Backlash ---
G0 X48.808 Y37.65 Z5 F1200
G1 X48.934 Y38.452 Z0 F1600
G1 X49.092 Y39.211 Z0 F1600
G1 X49.344 Y40.149 Z0 F1600
G1 X49.629 Y41.049 Z0 F1600
G1 X49.95 Y41.917 Z0 F1600
G1 X50.308 Y42.758 Z0 F1600
G1 X50.705 Y43.577 Z0 F1600
G1 X51.145 Y44.379 Z0 F1600
G1 X51.628 Y45.17 Z0 F1600
G1 X52.159 Y45.955 Z0 F1600
G1 X52.625 Y46.592 Z0 F1600
G1 X53.096 Y47.207 Z0 F1600
G1 X53.304 Y47.468 Z0 F1600
G1 X53.478 Y47.678 Z0 F1600
G1 X53.547 Y47.758 Z0 F1600
G1 X53.604 Y47.821 Z0 F1600
G1 X53.647 Y47.863 Z0 F1600
G1 X53.673 Y47.883 Z0 F1600
G1 X53.718 Y47.938 Z0 F1600
G1 X53.736 Y48.03 Z0 F1600
; --- FIX X Backlash ---
G0 X52.436 Y48.03 Z5 F1200
G1 X52.38 Y48.08 Z0 F1600
G1 X52.226 Y48.118 Z0 F1600
G1 X51.996 Y48.142 Z0 F1600
G1 X51.713 Y48.153 Z0 F1600
G1 X51.078 Y48.135 Z0 F1600
; --- FIX Y Backlash ---
G0 X51.078 Y46.735 Z5 F1200
G1 X50.502 Y46.659 Z0 F1600
G1 X50.233 Y46.583 Z0 F1600
G1 X49.959 Y46.466 Z0 F1600
G1 X49.678 Y46.308 Z0 F1600
G1 X49.385 Y46.105 Z0 F1600
G1 X49.079 Y45.856 Z0 F1600
G1 X48.756 Y45.558 Z0 F1600
G1 X48.414 Y45.209 Z0 F1600
G1 X48.05 Y44.808 Z0 F1600
G1 X47.931 Y44.659 Z0 F1600
G1 X47.786 Y44.453 Z0 F1600
G1 X47.623 Y44.204 Z0 F1600
G1 X47.449 Y43.923 Z0 F1600
G1 X47.098 Y43.318 Z0 F1600
G1 X46.794 Y42.739 Z0 F1600
G1 X46.603 Y42.32 Z0 F1600
G1 X46.43 Y41.883 Z0 F1600
G1 X46.274 Y41.418 Z0 F1600
G1 X46.132 Y40.922 Z0 F1600
G1 X46.004 Y40.386 Z0 F1600
G1 X45.886 Y39.804 Z0 F1600
G1 X45.778 Y39.169 Z0 F1600

; Color picking sequence
G1 Z10 F1000;         ; Raise brush
G0 X86 Y5 F1200;    ; Rapid move to color 1
G1 Z10 F1000;         ; Raise brush
G0 X86 Y5 F1200;    ; Rapid move to color 1
G1 Z0 F1000;         ; Lower into color
G1 X85.102 Y7.295 Z0 S800 F1200
G1 X85.026 Y7.642 Z0 F1200
G1 X85 Y8 Z0 F1200
G1 X85.026 Y8.358 Z0 F1200
G1 X85.102 Y8.705 Z0 F1200
G1 X85.225 Y9.041 Z0 F1200
G1 X85.393 Y9.362 Z0 F1200
G1 X85.603 Y9.668 Z0 F1200
G1 X85.854 Y9.957 Z0 F1200
G1 X86.142 Y10.226 Z0 F1200
G1 X86.464 Y10.475 Z0 F1200
G1 X86.82 Y10.701 Z0 F1200
G1 X87.204 Y10.902 Z0 F1200
G1 X87.617 Y11.078 Z0 F1200
G1 X88.054 Y11.225 Z0 F1200
G1 X88.513 Y11.343 Z0 F1200
G1 X88.992 Y11.429 Z0 F1200
G1 X89.489 Y11.482 Z0 F1200
G1 X90 Y11.5 Z0 F1200
G1 X90.511 Y11.482 Z0 F1200
G1 X91.008 Y11.429 Z0 F1200
G1 X91.487 Y11.343 Z0 F1200
G1 X91.946 Y11.225 Z0 F1200
G1 X92.383 Y11.078 Z0 F1200
G1 X92.796 Y10.902 Z0 F1200
G1 X93.18 Y10.701 Z0 F1200
G1 X93.536 Y10.475 Z0 F1200
G1 X93.858 Y10.226 Z0 F1200
G1 X94.146 Y9.957 Z0 F1200
G1 X94.397 Y9.668 Z0 F1200
G1 X94.607 Y9.362 Z0 F1200
G1 X94.775 Y9.041 Z0 F1200
G1 X94.898 Y8.705 Z0 F1200
G1 X94.974 Y8.358 Z0 F1200
G1 X95 Y8 Z0 F1200
G1 X94.974 Y7.642 Z0 F1200
G1 X94.898 Y7.295 Z0 F1200
G1 X94.775 Y6.959 Z0 F1200
G1 X94.607 Y6.638 Z0 F1200
G1 X94.397 Y6.332 Z0 F1200
G1 X94.146 Y6.043 Z0 F1200
G1 X93.858 Y5.774 Z0 F1200
G1 X93.536 Y5.525 Z0 F1200
G1 X93.18 Y5.299 Z0 F1200
G1 X92.796 Y5.098 Z0 F1200
G1 X92.383 Y4.922 Z0 F1200
G1 X91.946 Y4.775 Z0 F1200
G1 X91.487 Y4.657 Z0 F1200
G1 X91.008 Y4.571 Z0 F1200
G1 X90.511 Y4.518 Z0 F1200
G1 X90 Y4.5 Z0 F1200
G1 X89.489 Y4.518 Z0 F1200
G1 X88.992 Y4.571 Z0 F1200
G1 X88.513 Y4.657 Z0 F1200
G1 X88.054 Y4.775 Z0 F1200
G1 X87.617 Y4.922 Z0 F1200
G1 X87.204 Y5.098 Z0 F1200
G1 X86.82 Y5.299 Z0 F1200
G1 X86.464 Y5.525 Z0 F1200
G1 X86.142 Y5.774 Z0 F1200
G1 X85.854 Y6.043 Z0 F1200
G1 X85.603 Y6.332 Z0 F1200
G1 X85.393 Y6.638 Z0 F1200
G1 X85.225 Y6.959 Z0 F1200
G1 Z7 F800;         ; Raise from color
G1 X79 Y8 Z1 F1200;     ; Movement in paint
G1 X69 Y18 Z8 F500;     ; Move in paint
G1 F1200;           ; Set feed rate
G0 X45.778 Y39.169 F1200 ; Return
G1 Z0 F1000 ; Restore Z
G1 X45.678 Y38.475 Z0 F1600
G1 X45.66 Y38.306 Z0 F1600
G1 X45.644 Y38.076 Z0 F1600
G1 X45.63 Y37.794 Z0 F1600
G1 X45.617 Y37.469 Z0 F1600
G1 X45.598 Y36.725 Z0 F1600
G1 X45.586 Y35.913 Z0 F1600
G1 X45.583 Y35.104 Z0 F1600
G1 X45.589 Y34.367 Z0 F1600
G1 X45.596 Y34.048 Z0 F1600
G1 X45.604 Y33.773 Z0 F1600
G1 X45.616 Y33.551 Z0 F1600
G1 X45.631 Y33.392 Z0 F1600
; --- FIX X Backlash ---
G0 X46.931 Y33.392 Z5 F1200
G1 X47.072 Y32.289 Z0 F1600
G1 X47.11 Y32.002 Z0 F1600
G1 X47.159 Y31.677 Z0 F1600
G1 X47.181 Y31.566 Z0 F1600
G1 X47.186 Y31.551 Z0 F1600
G1 X47.24 Y31.566 Z0 F1600
; --- FIX Y Backlash ---
G0 X47.24 Y32.966 Z5 F1200
G1 X47.561 Y33.074 Z0 F1600
G1 X47.79 Y33.153 Z0 F1600
G1 X48.578 Y33.442 Z0 F1600
G1 X49.4 Y33.773 Z0 F1600
G1 X50.237 Y34.137 Z0 F1600
G1 X51.068 Y34.524 Z0 F1600
G1 X51.873 Y34.924 Z0 F1600
G1 X52.633 Y35.329 Z0 F1600
G1 X53.328 Y35.728 Z0 F1600
G1 X53.937 Y36.112 Z0 F1600
G1 X54.495 Y36.499 Z0 F1600
G1 X55.02 Y36.895 Z0 F1600
G1 X55.513 Y37.299 Z0 F1600
G1 X55.974 Y37.712 Z0 F1600
G1 X56.4 Y38.132 Z0 F1600
G1 X56.793 Y38.558 Z0 F1600
G1 X57.151 Y38.989 Z0 F1600
G1 X57.474 Y39.425 Z0 F1600
G1 X57.761 Y39.864 Z0 F1600
G1 X58.012 Y40.306 Z0 F1600
G1 X58.225 Y40.75 Z0 F1600
G1 X58.401 Y41.196 Z0 F1600
G1 X58.539 Y41.642 Z0 F1600
G1 X58.638 Y42.087 Z0 F1600
G1 X58.698 Y42.532 Z0 F1600
G1 X58.718 Y42.974 Z0 F1600
G1 X58.708 Y43.321 Z0 F1600
G1 X58.676 Y43.633 Z0 F1600
; --- FIX X Backlash ---
G0 X57.376 Y43.633 Z5 F1200
G1 X57.321 Y43.923 Z0 F1600
G1 X57.24 Y44.202 Z0 F1600
G1 X57.072 Y44.622 Z0 F1600
G1 X56.854 Y45.086 Z0 F1600
G1 X56.747 Y45.293 Z0 F1600
G1 X56.653 Y45.462 Z0 F1600
G1 X56.578 Y45.575 Z0 F1600
G1 X56.533 Y45.617 Z0 F1600
G1 X56.507 Y45.572 Z0 F1600
; --- FIX Y Backlash ---
G0 X56.507 Y44.172 Z5 F1200
G1 X56.457 Y44.049 Z0 F1600
G1 X56.392 Y43.868 Z0 F1600
G1 X56.317 Y43.647 Z0 F1600
G1 X56.141 Y43.163 Z0 F1600
G1 X55.919 Y42.639 Z0 F1600
G1 X55.657 Y42.089 Z0 F1600
G1 X55.363 Y41.525 Z0 F1600
G1 X55.043 Y40.961 Z0 F1600
G1 X54.706 Y40.411 Z0 F1600
G1 X54.359 Y39.887 Z0 F1600
G1 X54.008 Y39.404 Z0 F1600
G1 X53.498 Y38.767 Z0 F1600
G1 X52.959 Y38.157 Z0 F1600
G1 X52.395 Y37.577 Z0 F1600
G1 X51.808 Y37.029 Z0 F1600
G1 X51.203 Y36.516 Z0 F1600
G1 X50.583 Y36.043 Z0 F1600
G1 X49.952 Y35.611 Z0 F1600
G1 X49.312 Y35.225 Z0 F1600
G1 X49.042 Y35.075 Z0 F1600
G1 X48.85 Y34.978 Z0 F1600
G1 X48.738 Y34.938 Z0 F1600
G1 X48.703 Y34.958 Z0 F1600
G1 X48.716 Y34.992 Z0 F1600
G0 Z3.5 F1000
; --- FIX X Backlash ---
G0 X50.016 Y34.992 Z5 F1200
G0 X83.379 Y34.907 Z3.5
G1 Z0 F1000
G1 X83.563 Y34.782 Z0 F1600
G1 X83.596 Y34.758 Z0 F1600
G1 X83.663 Y34.713 Z0 F1600
G1 X83.783 Y34.645 Z0 F1600
G1 X84.003 Y34.529 Z0 F1600
G1 X84.251 Y34.405 Z0 F1600
G1 X84.568 Y34.251 Z0 F1600
G1 X84.903 Y34.094 Z0 F1600
G1 X85.279 Y33.921 Z0 F1600
G1 X85.659 Y33.749 Z0 F1600
G1 X86.468 Y33.394 Z0 F1600
G1 X87.242 Y33.067 Z0 F1600
G1 X87.587 Y32.927 Z0 F1600
G1 X87.917 Y32.797 Z0 F1600
G1 X88.072 Y32.738 Z0 F1600
; --- FIX Y Backlash ---
G0 X88.072 Y34.138 Z5 F1200
G1 X88.088 Y34.358 Z0 F1600
G1 X88.123 Y34.98 Z0 F1600
G1 X88.15 Y35.695 Z0 F1600
G1 X88.167 Y36.474 Z0 F1600
G1 X88.174 Y37.254 Z0 F1600
G1 Y37.689 Z0 F1600
G1 X88.168 Y38.092 Z0 F1600
G1 X88.162 Y38.465 Z0 F1600
G1 X88.152 Y38.82 Z0 F1600
G1 X88.125 Y39.421 Z0 F1600
G1 X88.082 Y39.971 Z0 F1600
; --- FIX X Backlash ---
G0 X86.782 Y39.971 Z5 F1200
G1 X86.645 Y40.95 Z0 F1600
G1 X86.43 Y41.906 Z0 F1600
G1 X86.168 Y42.759 Z0 F1600
G1 X85.837 Y43.576 Z0 F1600
G1 X85.442 Y44.359 Z0 F1600
G1 X84.993 Y45.09 Z0 F1600
G1 X84.764 Y45.413 Z0 F1600
G1 X84.518 Y45.728 Z0 F1600
G1 X84.276 Y46.01 Z0 F1600
G1 X84.028 Y46.267 Z0 F1600
G1 X83.778 Y46.498 Z0 F1600
G1 X83.536 Y46.693 Z0 F1600
G1 X83.303 Y46.855 Z0 F1600
G1 X83.072 Y46.988 Z0 F1600
G1 X82.792 Y47.123 Z0 F1600
G1 X82.769 Y47.13 Z0 F1600
; --- FIX X Backlash ---
G0 X84.069 Y47.13 Z5 F1200
; --- FIX Y Backlash ---
G0 X84.069 Y45.73 Z5 F1200
G1 X84.203 Y45.55 Z0 F1600
G1 X84.511 Y45.128 Z0 F1600
G1 X84.803 Y44.72 Z0 F1600
G1 X85.063 Y44.345 Z0 F1600

; Color picking sequence
G1 Z10 F1000;         ; Raise brush
G0 X86 Y5 F1200;    ; Rapid move to color 1
G1 Z10 F1000;         ; Raise brush
G0 X86 Y5 F1200;    ; Rapid move to color 1
G1 Z0 F1000;         ; Lower into color
G1 X85.102 Y7.295 Z0 S800 F1200
G1 X85.026 Y7.642 Z0 F1200
G1 X85 Y8 Z0 F1200
G1 X85.026 Y8.358 Z0 F1200
G1 X85.102 Y8.705 Z0 F1200
G1 X85.225 Y9.041 Z0 F1200
G1 X85.393 Y9.362 Z0 F1200
G1 X85.603 Y9.668 Z0 F1200
G1 X85.854 Y9.957 Z0 F1200
G1 X86.142 Y10.226 Z0 F1200
G1 X86.464 Y10.475 Z0 F1200
G1 X86.82 Y10.701 Z0 F1200
G1 X87.204 Y10.902 Z0 F1200
G1 X87.617 Y11.078 Z0 F1200
G1 X88.054 Y11.225 Z0 F1200
G1 X88.513 Y11.343 Z0 F1200
G1 X88.992 Y11.429 Z0 F1200
G1 X89.489 Y11.482 Z0 F1200
G1 X90 Y11.5 Z0 F1200
G1 X90.511 Y11.482 Z0 F1200
G1 X91.008 Y11.429 Z0 F1200
G1 X91.487 Y11.343 Z0 F1200
G1 X91.946 Y11.225 Z0 F1200
G1 X92.383 Y11.078 Z0 F1200
G1 X92.796 Y10.902 Z0 F1200
G1 X93.18 Y10.701 Z0 F1200
G1 X93.536 Y10.475 Z0 F1200
G1 X93.858 Y10.226 Z0 F1200
G1 X94.146 Y9.957 Z0 F1200
G1 X94.397 Y9.668 Z0 F1200
G1 X94.607 Y9.362 Z0 F1200
G1 X94.775 Y9.041 Z0 F1200
G1 X94.898 Y8.705 Z0 F1200
G1 X94.974 Y8.358 Z0 F1200
G1 X95 Y8 Z0 F1200
G1 X94.974 Y7.642 Z0 F1200
G1 X94.898 Y7.295 Z0 F1200
G1 X94.775 Y6.959 Z0 F1200
G1 X94.607 Y6.638 Z0 F1200
G1 X94.397 Y6.332 Z0 F1200
G1 X94.146 Y6.043 Z0 F1200
G1 X93.858 Y5.774 Z0 F1200
G1 X93.536 Y5.525 Z0 F1200
G1 X93.18 Y5.299 Z0 F1200
G1 X92.796 Y5.098 Z0 F1200
G1 X92.383 Y4.922 Z0 F1200
G1 X91.946 Y4.775 Z0 F1200
G1 X91.487 Y4.657 Z0 F1200
G1 X91.008 Y4.571 Z0 F1200
G1 X90.511 Y4.518 Z0 F1200
G1 X90 Y4.5 Z0 F1200
G1 X89.489 Y4.518 Z0 F1200
G1 X88.992 Y4.571 Z0 F1200
G1 X88.513 Y4.657 Z0 F1200
G1 X88.054 Y4.775 Z0 F1200
G1 X87.617 Y4.922 Z0 F1200
G1 X87.204 Y5.098 Z0 F1200
G1 X86.82 Y5.299 Z0 F1200
G1 X86.464 Y5.525 Z0 F1200
G1 X86.142 Y5.774 Z0 F1200
G1 X85.854 Y6.043 Z0 F1200
G1 X85.603 Y6.332 Z0 F1200
G1 X85.393 Y6.638 Z0 F1200
G1 X85.225 Y6.959 Z0 F1200
G1 Z7 F800;         ; Raise from color
G1 X79 Y8 Z1 F1200;     ; Movement in paint
G1 X69 Y18 Z8 F500;     ; Move in paint
G1 F1200;           ; Set feed rate
G0 X85.063 Y44.345 F1200 ; Return
G1 Z0 F1000 ; Restore Z
G1 X85.276 Y44.025 Z0 F1600
G1 X85.606 Y43.484 Z0 F1600
G1 X85.927 Y42.91 Z0 F1600
G1 X86.236 Y42.311 Z0 F1600
G1 X86.533 Y41.683 Z0 F1600
G1 X87.066 Y40.404 Z0 F1600
G1 X87.521 Y39.085 Z0 F1600
G1 X87.757 Y38.199 Z0 F1600
G1 X87.96 Y37.236 Z0 F1600
G1 X88.042 Y36.772 Z0 F1600
G1 X88.102 Y36.359 Z0 F1600
G1 X88.125 Y36.164 Z0 F1600
G1 X88.139 Y35.987 Z0 F1600
G1 X88.146 Y35.814 Z0 F1600
G1 X88.141 Y35.633 Z0 F1600
; --- FIX X Backlash ---
G0 X86.841 Y35.633 Z5 F1200
G1 X86.791 Y35.298 Z0 F1600
G1 X86.165 Y34.379 Z0 F1600
; --- FIX Y Backlash ---
G0 X86.165 Y35.779 Z5 F1200
G1 X85.603 Y36.131 Z0 F1600
; --- FIX X Backlash ---
G0 X86.903 Y36.131 Z5 F1200
; --- FIX Y Backlash ---
G0 X86.903 Y34.731 Z5 F1200
G1 X86.972 Y34.208 Z0 F1600
; --- FIX X Backlash ---
G0 X85.672 Y34.208 Z5 F1200
G1 X84.596 Y34.035 Z0 F1600
; --- FIX Y Backlash ---
G0 X84.596 Y35.435 Z5 F1200
G1 X84.306 Y35.51 Z0 F1600
G1 X84.154 Y35.57 Z0 F1600
G1 X84.014 Y35.635 Z0 F1600
G1 X83.735 Y35.781 Z0 F1600
G1 X83.41 Y35.967 Z0 F1600
G1 X82.714 Y36.401 Z0 F1600
G1 X82.054 Y36.86 Z0 F1600
G1 X81.658 Y37.174 Z0 F1600
G1 X81.23 Y37.542 Z0 F1600
G1 X80.791 Y37.94 Z0 F1600
G1 X80.366 Y38.344 Z0 F1600
G1 X79.98 Y38.727 Z0 F1600
G1 X79.663 Y39.063 Z0 F1600
G1 X79.527 Y39.221 Z0 F1600
G1 X79.404 Y39.377 Z0 F1600
G1 X79.327 Y39.5 Z0 F1600
G1 X79.227 Y39.586 Z0 F1600
G1 X79.03 Y39.791 Z0 F1600
G1 X78.83 Y40.022 Z0 F1600
G1 X78.443 Y40.52 Z0 F1600
G1 X78.071 Y41.045 Z0 F1600
G1 X77.716 Y41.593 Z0 F1600
G1 X77.38 Y42.159 Z0 F1600
G1 X77.067 Y42.738 Z0 F1600
G1 X76.938 Y42.999 Z0 F1600
; --- FIX Y Backlash ---
G0 X76.938 Y41.599 Z5 F1200
G1 Y41.314 Z0 F1600
G1 X76.945 Y41.074 Z0 F1600
G1 X76.955 Y40.874 Z0 F1600
G1 X76.967 Y40.752 Z0 F1600
G1 X77.012 Y40.508 Z0 F1600
; --- FIX X Backlash ---
G0 X78.312 Y40.508 Z5 F1200
G1 X78.392 Y40.24 Z0 F1600
G1 X78.577 Y39.754 Z0 F1600
G1 X78.799 Y39.284 Z0 F1600
G1 X79.064 Y38.821 Z0 F1600
G1 X79.374 Y38.363 Z0 F1600
G1 X79.741 Y37.895 Z0 F1600
G1 X80.158 Y37.425 Z0 F1600
G1 X80.646 Y36.933 Z0 F1600
G1 X81.192 Y36.433 Z0 F1600
G1 X81.474 Y36.192 Z0 F1600
G1 X81.729 Y35.996 Z0 F1600
G1 X81.889 Y35.883 Z0 F1600
G1 X82.064 Y35.765 Z0 F1600
G1 X82.301 Y35.609 Z0 F1600
G1 X82.95 Y35.188 Z0 F1600
G1 X83.379 Y34.907 Z0 F1600
G0 Z3.5 F1000
; --- FIX Y Backlash ---
G0 X83.379 Y36.307 Z5 F1200
G0 X85.764 Y37.933 Z3.5
G1 Z0 F1000
; --- FIX X Backlash ---
G0 X84.464 Y37.933 Z5 F1200
G1 X83.937 Y39.132 Z0 F1600
G1 X83.401 Y40.267 Z0 F1600
G1 X82.848 Y41.347 Z0 F1600
G1 X82.288 Y42.354 Z0 F1600
G1 X81.693 Y43.335 Z0 F1600
G1 X81.068 Y44.288 Z0 F1600
G1 X80.404 Y45.223 Z0 F1600
G1 X79.691 Y46.158 Z0 F1600
G1 X79.448 Y46.466 Z0 F1600
; --- FIX Y Backlash ---
G0 X79.448 Y45.066 Z5 F1200
G1 X79.229 Y44.934 Z0 F1600
G1 X78.945 Y44.745 Z0 F1600
G1 X78.866 Y44.685 Z0 F1600
G1 X78.877 Y44.655 Z0 F1600
; --- FIX X Backlash ---
G0 X80.177 Y44.655 Z5 F1200
G1 X80.288 Y44.378 Z0 F1600
G1 X80.438 Y44.031 Z0 F1600
G1 Y44.025 Z0 F1600
G1 X80.445 Y44.015 Z0 F1600
G1 X80.611 Y43.648 Z0 F1600
G1 X80.812 Y43.227 Z0 F1600
G1 X81.014 Y42.82 Z0 F1600
G1 X81.457 Y41.995 Z0 F1600
G1 X81.932 Y41.199 Z0 F1600
G1 X82.459 Y40.404 Z0 F1600
G1 X83.034 Y39.616 Z0 F1600
G1 X83.68 Y38.807 Z0 F1600
G1 X84.374 Y38.001 Z0 F1600
G1 X85.162 Y37.148 Z0 F1600
G1 X85.764 Y36.533 Z0 F1600
G0 Z3.5 F1000
G0 X87.173 Y35.625 Z3.5
G1 Z0 F1000
; --- FIX X Backlash ---
G0 X85.873 Y35.625 Z5 F1200
; --- FIX Y Backlash ---
G0 X85.873 Y37.025 Z5 F1200
G1 X85.816 Y37.112 Z0 F1600
G1 X85.735 Y37.272 Z0 F1600
G1 X85.624 Y37.515 Z0 F1600
G1 X85.479 Y37.848 Z0 F1600
G1 X85.294 Y38.28 Z0 F1600
G1 X84.751 Y39.517 Z0 F1600
G1 X84.202 Y40.676 Z0 F1600
G1 X83.642 Y41.771 Z0 F1600
G1 X83.062 Y42.813 Z0 F1600
G1 X82.455 Y43.815 Z0 F1600
G1 X81.814 Y44.792 Z0 F1600
G1 X81.13 Y45.754 Z0 F1600
G1 X80.398 Y46.714 Z0 F1600
G1 X79.741 Y47.55 Z0 F1600
G1 X79.7 Y47.565 Z0 F1600
G1 X79.625 Y47.553 Z0 F1600
G1 X79.521 Y47.518 Z0 F1600
; --- FIX Y Backlash ---
G0 X79.521 Y46.118 Z5 F1200
G1 X79.394 Y46.062 Z0 F1600

; Color picking sequence
G1 Z10 F1000;         ; Raise brush
G0 X86 Y5 F1200;    ; Rapid move to color 1
G1 Z10 F1000;         ; Raise brush
G0 X86 Y5 F1200;    ; Rapid move to color 1
G1 Z0 F1000;         ; Lower into color
G1 X85.102 Y7.295 Z0 S800 F1200
G1 X85.026 Y7.642 Z0 F1200
G1 X85 Y8 Z0 F1200
G1 X85.026 Y8.358 Z0 F1200
G1 X85.102 Y8.705 Z0 F1200
G1 X85.225 Y9.041 Z0 F1200
G1 X85.393 Y9.362 Z0 F1200
G1 X85.603 Y9.668 Z0 F1200
G1 X85.854 Y9.957 Z0 F1200
G1 X86.142 Y10.226 Z0 F1200
G1 X86.464 Y10.475 Z0 F1200
G1 X86.82 Y10.701 Z0 F1200
G1 X87.204 Y10.902 Z0 F1200
G1 X87.617 Y11.078 Z0 F1200
G1 X88.054 Y11.225 Z0 F1200
G1 X88.513 Y11.343 Z0 F1200
G1 X88.992 Y11.429 Z0 F1200
G1 X89.489 Y11.482 Z0 F1200
G1 X90 Y11.5 Z0 F1200
G1 X90.511 Y11.482 Z0 F1200
G1 X91.008 Y11.429 Z0 F1200
G1 X91.487 Y11.343 Z0 F1200
G1 X91.946 Y11.225 Z0 F1200
G1 X92.383 Y11.078 Z0 F1200
G1 X92.796 Y10.902 Z0 F1200
G1 X93.18 Y10.701 Z0 F1200
G1 X93.536 Y10.475 Z0 F1200
G1 X93.858 Y10.226 Z0 F1200
G1 X94.146 Y9.957 Z0 F1200
G1 X94.397 Y9.668 Z0 F1200
G1 X94.607 Y9.362 Z0 F1200
G1 X94.775 Y9.041 Z0 F1200
G1 X94.898 Y8.705 Z0 F1200
G1 X94.974 Y8.358 Z0 F1200
G1 X95 Y8 Z0 F1200
G1 X94.974 Y7.642 Z0 F1200
G1 X94.898 Y7.295 Z0 F1200
G1 X94.775 Y6.959 Z0 F1200
G1 X94.607 Y6.638 Z0 F1200
G1 X94.397 Y6.332 Z0 F1200
G1 X94.146 Y6.043 Z0 F1200
G1 X93.858 Y5.774 Z0 F1200
G1 X93.536 Y5.525 Z0 F1200
G1 X93.18 Y5.299 Z0 F1200
G1 X92.796 Y5.098 Z0 F1200
G1 X92.383 Y4.922 Z0 F1200
G1 X91.946 Y4.775 Z0 F1200
G1 X91.487 Y4.657 Z0 F1200
G1 X91.008 Y4.571 Z0 F1200
G1 X90.511 Y4.518 Z0 F1200
G1 X90 Y4.5 Z0 F1200
G1 X89.489 Y4.518 Z0 F1200
G1 X88.992 Y4.571 Z0 F1200
G1 X88.513 Y4.657 Z0 F1200
G1 X88.054 Y4.775 Z0 F1200
G1 X87.617 Y4.922 Z0 F1200
G1 X87.204 Y5.098 Z0 F1200
G1 X86.82 Y5.299 Z0 F1200
G1 X86.464 Y5.525 Z0 F1200
G1 X86.142 Y5.774 Z0 F1200
G1 X85.854 Y6.043 Z0 F1200
G1 X85.603 Y6.332 Z0 F1200
G1 X85.393 Y6.638 Z0 F1200
G1 X85.225 Y6.959 Z0 F1200
G1 Z7 F800;         ; Raise from color
G1 X79 Y8 Z1 F1200;     ; Movement in paint
G1 X69 Y18 Z8 F500;     ; Move in paint
G1 F1200;           ; Set feed rate
G0 X79.394 Y46.062 F1200 ; Return
G1 Z0 F1000 ; Restore Z
G1 X79.09 Y45.901 Z0 F1600
G1 X78.751 Y45.697 Z0 F1600
G1 X78.418 Y45.475 Z0 F1600
G1 X78.131 Y45.259 Z0 F1600
G1 X78.017 Y45.162 Z0 F1600
G1 X77.929 Y45.076 Z0 F1600
G1 X77.873 Y45.004 Z0 F1600
G1 X77.853 Y44.951 Z0 F1600
G1 X77.875 Y44.817 Z0 F1600
; --- FIX X Backlash ---
G0 X79.175 Y44.817 Z5 F1200
G1 X79.236 Y44.611 Z0 F1600
G1 X79.333 Y44.343 Z0 F1600
G1 X79.461 Y44.022 Z0 F1600
G1 X79.618 Y43.659 Z0 F1600
G1 X79.799 Y43.261 Z0 F1600
G1 X80 Y42.84 Z0 F1600
G1 X80.216 Y42.404 Z0 F1600
G1 X80.673 Y41.551 Z0 F1600
G1 X81.172 Y40.717 Z0 F1600
G1 X81.718 Y39.892 Z0 F1600
G1 X82.319 Y39.069 Z0 F1600
G1 X82.98 Y38.24 Z0 F1600
G1 X83.708 Y37.395 Z0 F1600
G1 X84.51 Y36.527 Z0 F1600
G1 X85.63 Y35.382 Z0 F1600
G1 X85.818 Y35.175 Z0 F1600
G1 X85.887 Y35.091 Z0 F1600
G1 X85.936 Y35.026 Z0 F1600
G1 X85.963 Y34.98 Z0 F1600
G1 X85.966 Y34.958 Z0 F1600
G1 X85.939 Y34.954 Z0 F1600
; --- FIX X Backlash ---
G0 X84.639 Y34.954 Z5 F1200
G1 X84.586 Y34.967 Z0 F1600
G1 X84.51 Y34.997 Z0 F1600
G1 X84.412 Y35.042 Z0 F1600
; --- FIX Y Backlash ---
G0 X84.412 Y36.442 Z5 F1200
G1 X84.168 Y36.571 Z0 F1600
G1 X83.871 Y36.74 Z0 F1600
G1 X83.209 Y37.153 Z0 F1600
G1 X82.591 Y37.583 Z0 F1600
G1 X82.232 Y37.868 Z0 F1600
G1 X81.826 Y38.217 Z0 F1600
G1 X81.403 Y38.601 Z0 F1600
G1 X80.992 Y38.99 Z0 F1600
G1 X80.625 Y39.354 Z0 F1600
G1 X80.331 Y39.667 Z0 F1600
G1 X80.221 Y39.793 Z0 F1600
G1 X80.141 Y39.896 Z0 F1600
G1 X80.094 Y39.971 Z0 F1600
G1 X80.084 Y40.014 Z0 F1600
G1 X80.094 Y40.056 Z0 F1600
G1 X80.087 Y40.087 Z0 F1600
G1 X80.067 Y40.105 Z0 F1600
G1 X80.033 Z0 F1600
G1 X79.965 Y40.138 Z0 F1600
G1 X79.846 Y40.241 Z0 F1600
G1 X79.695 Y40.397 Z0 F1600
G1 X79.527 Y40.592 Z0 F1600
G1 X79.166 Y41.056 Z0 F1600
G1 X78.816 Y41.55 Z0 F1600
G1 X78.481 Y42.067 Z0 F1600
G1 X78.163 Y42.603 Z0 F1600
G1 X77.867 Y43.151 Z0 F1600
G1 X77.594 Y43.704 Z0 F1600
G1 X77.35 Y44.257 Z0 F1600
G1 X77.138 Y44.804 Z0 F1600
G1 X76.867 Y45.553 Z0 F1600
; --- FIX Y Backlash ---
G0 X76.867 Y44.153 Z5 F1200
G1 X76.681 Y43.894 Z0 F1600
G1 X76.484 Y43.566 Z0 F1600
G1 X76.267 Y43.144 Z0 F1600
G1 X76.142 Y42.85 Z0 F1600
G1 X76.073 Y42.567 Z0 F1600
G1 X76.054 Y42.396 Z0 F1600
G1 X76.044 Y42.187 Z0 F1600
G1 X76.039 Y41.926 Z0 F1600
G1 Y41.599 Z0 F1600
G1 Y41.293 Z0 F1600
G1 X76.045 Y41.037 Z0 F1600
G1 X76.057 Y40.819 Z0 F1600
G1 X76.075 Y40.629 Z0 F1600
; --- FIX X Backlash ---
G0 X77.375 Y40.629 Z5 F1200
G1 X77.436 Y40.295 Z0 F1600
G1 X77.538 Y39.953 Z0 F1600
G1 X77.749 Y39.401 Z0 F1600
G1 X78.001 Y38.867 Z0 F1600
G1 X78.3 Y38.345 Z0 F1600
G1 X78.647 Y37.831 Z0 F1600
G1 X79.048 Y37.32 Z0 F1600
G1 X79.504 Y36.807 Z0 F1600
G1 X80.02 Y36.287 Z0 F1600
G1 X80.599 Y35.756 Z0 F1600
G1 X80.905 Y35.495 Z0 F1600
G1 X81.199 Y35.268 Z0 F1600
G1 X81.369 Y35.148 Z0 F1600
G1 X81.57 Y35.013 Z0 F1600
G1 X81.812 Y34.853 Z0 F1600
G1 X82.458 Y34.434 Z0 F1600
G1 X82.88 Y34.158 Z0 F1600
G1 X83.044 Y34.047 Z0 F1600
G1 X83.08 Y34.021 Z0 F1600
G1 X83.186 Y33.949 Z0 F1600
G1 X83.356 Y33.852 Z0 F1600
G1 X83.583 Y33.732 Z0 F1600
G1 X83.859 Y33.594 Z0 F1600
G1 X84.177 Y33.441 Z0 F1600
G1 X84.527 Y33.276 Z0 F1600
G1 X84.903 Y33.103 Z0 F1600
G1 X85.297 Y32.925 Z0 F1600
G1 X86.106 Y32.57 Z0 F1600
G1 X86.892 Y32.238 Z0 F1600
G1 X87.257 Y32.089 Z0 F1600
G1 X87.593 Y31.957 Z0 F1600
G1 X87.892 Y31.844 Z0 F1600
G1 X88.146 Y31.755 Z0 F1600
G1 X88.38 Y31.679 Z0 F1600
G1 X88.579 Y31.615 Z0 F1600
G1 X88.723 Y31.571 Z0 F1600
G1 X88.791 Y31.555 Z0 F1600
G1 X88.817 Y31.578 Z0 F1600
; --- FIX Y Backlash ---
G0 X88.817 Y32.978 Z5 F1200
G1 X88.844 Y33.048 Z0 F1600
G1 X88.87 Y33.163 Z0 F1600
G1 X88.895 Y33.319 Z0 F1600
G1 X88.919 Y33.514 Z0 F1600
G1 X88.943 Y33.743 Z0 F1600
G1 X88.965 Y34.004 Z0 F1600
G1 X88.986 Y34.294 Z0 F1600
G1 X89.022 Y34.946 Z0 F1600
G1 X89.05 Y35.675 Z0 F1600
G1 X89.067 Y36.453 Z0 F1600
G1 X89.074 Y37.257 Z0 F1600
G1 Y37.698 Z0 F1600
G1 X89.068 Y38.108 Z0 F1600
G1 X89.062 Y38.49 Z0 F1600
G1 X89.052 Y38.845 Z0 F1600
G1 X89.022 Y39.491 Z0 F1600
G1 X88.977 Y40.068 Z0 F1600
; --- FIX X Backlash ---
G0 X87.677 Y40.068 Z5 F1200
G1 X87.533 Y41.107 Z0 F1600
G1 X87.3 Y42.141 Z0 F1600
G1 X87.018 Y43.058 Z0 F1600
G1 X86.657 Y43.949 Z0 F1600
G1 X86.228 Y44.798 Z0 F1600
G1 X85.744 Y45.586 Z0 F1600
G1 X85.485 Y45.952 Z0 F1600
G1 X85.216 Y46.296 Z0 F1600
G1 X84.94 Y46.617 Z0 F1600
G1 X84.657 Y46.912 Z0 F1600

; Color picking sequence
G1 Z10 F1000;         ; Raise brush
G0 X86 Y5 F1200;    ; Rapid move to color 1
G1 Z10 F1000;         ; Raise brush
G0 X86 Y5 F1200;    ; Rapid move to color 1
G1 Z0 F1000;         ; Lower into color
G1 X85.102 Y7.295 Z0 S800 F1200
G1 X85.026 Y7.642 Z0 F1200
G1 X85 Y8 Z0 F1200
G1 X85.026 Y8.358 Z0 F1200
G1 X85.102 Y8.705 Z0 F1200
G1 X85.225 Y9.041 Z0 F1200
G1 X85.393 Y9.362 Z0 F1200
G1 X85.603 Y9.668 Z0 F1200
G1 X85.854 Y9.957 Z0 F1200
G1 X86.142 Y10.226 Z0 F1200
G1 X86.464 Y10.475 Z0 F1200
G1 X86.82 Y10.701 Z0 F1200
G1 X87.204 Y10.902 Z0 F1200
G1 X87.617 Y11.078 Z0 F1200
G1 X88.054 Y11.225 Z0 F1200
G1 X88.513 Y11.343 Z0 F1200
G1 X88.992 Y11.429 Z0 F1200
G1 X89.489 Y11.482 Z0 F1200
G1 X90 Y11.5 Z0 F1200
G1 X90.511 Y11.482 Z0 F1200
G1 X91.008 Y11.429 Z0 F1200
G1 X91.487 Y11.343 Z0 F1200
G1 X91.946 Y11.225 Z0 F1200
G1 X92.383 Y11.078 Z0 F1200
G1 X92.796 Y10.902 Z0 F1200
G1 X93.18 Y10.701 Z0 F1200
G1 X93.536 Y10.475 Z0 F1200
G1 X93.858 Y10.226 Z0 F1200
G1 X94.146 Y9.957 Z0 F1200
G1 X94.397 Y9.668 Z0 F1200
G1 X94.607 Y9.362 Z0 F1200
G1 X94.775 Y9.041 Z0 F1200
G1 X94.898 Y8.705 Z0 F1200
G1 X94.974 Y8.358 Z0 F1200
G1 X95 Y8 Z0 F1200
G1 X94.974 Y7.642 Z0 F1200
G1 X94.898 Y7.295 Z0 F1200
G1 X94.775 Y6.959 Z0 F1200
G1 X94.607 Y6.638 Z0 F1200
G1 X94.397 Y6.332 Z0 F1200
G1 X94.146 Y6.043 Z0 F1200
G1 X93.858 Y5.774 Z0 F1200
G1 X93.536 Y5.525 Z0 F1200
G1 X93.18 Y5.299 Z0 F1200
G1 X92.796 Y5.098 Z0 F1200
G1 X92.383 Y4.922 Z0 F1200
G1 X91.946 Y4.775 Z0 F1200
G1 X91.487 Y4.657 Z0 F1200
G1 X91.008 Y4.571 Z0 F1200
G1 X90.511 Y4.518 Z0 F1200
G1 X90 Y4.5 Z0 F1200
G1 X89.489 Y4.518 Z0 F1200
G1 X88.992 Y4.571 Z0 F1200
G1 X88.513 Y4.657 Z0 F1200
G1 X88.054 Y4.775 Z0 F1200
G1 X87.617 Y4.922 Z0 F1200
G1 X87.204 Y5.098 Z0 F1200
G1 X86.82 Y5.299 Z0 F1200
G1 X86.464 Y5.525 Z0 F1200
G1 X86.142 Y5.774 Z0 F1200
G1 X85.854 Y6.043 Z0 F1200
G1 X85.603 Y6.332 Z0 F1200
G1 X85.393 Y6.638 Z0 F1200
G1 X85.225 Y6.959 Z0 F1200
G1 Z7 F800;         ; Raise from color
G1 X79 Y8 Z1 F1200;     ; Movement in paint
G1 X69 Y18 Z8 F500;     ; Move in paint
G1 F1200;           ; Set feed rate
G0 X84.657 Y46.912 F1200 ; Return
G1 Z0 F1000 ; Restore Z
G1 X84.368 Y47.178 Z0 F1600
G1 X84.076 Y47.414 Z0 F1600
G1 X83.783 Y47.618 Z0 F1600
G1 X83.489 Y47.786 Z0 F1600
G1 X83.13 Y47.959 Z0 F1600
G1 X82.832 Y48.057 Z0 F1600
G1 X82.671 Y48.086 Z0 F1600
G1 X82.481 Y48.107 Z0 F1600
G1 X82.25 Y48.122 Z0 F1600
G1 X81.963 Y48.134 Z0 F1600
G1 X81.601 Y48.142 Z0 F1600
G1 X81.295 Y48.137 Z0 F1600
G1 X81.172 Y48.131 Z0 F1600
G1 X81.075 Y48.122 Z0 F1600
G1 X81.008 Y48.11 Z0 F1600
G1 X80.974 Y48.096 Z0 F1600
; --- FIX Y Backlash ---
G0 X80.974 Y46.696 Z5 F1200
G1 X80.966 Y46.644 Z0 F1600
G1 X80.997 Y46.558 Z0 F1600
; --- FIX X Backlash ---
G0 X82.297 Y46.558 Z5 F1200
G1 X82.364 Y46.45 Z0 F1600
G1 X82.461 Y46.328 Z0 F1600
G1 X82.548 Y46.226 Z0 F1600
G1 X82.65 Y46.1 Z0 F1600
G1 X82.896 Y45.79 Z0 F1600
G1 X83.178 Y45.42 Z0 F1600
G1 X83.479 Y45.016 Z0 F1600
G1 X83.782 Y44.601 Z0 F1600
G1 X84.067 Y44.202 Z0 F1600
G1 X84.318 Y43.84 Z0 F1600
G1 X84.517 Y43.541 Z0 F1600
G1 X84.83 Y43.029 Z0 F1600
G1 X85.134 Y42.484 Z0 F1600
G1 X85.429 Y41.913 Z0 F1600
G1 X85.71 Y41.318 Z0 F1600
G1 X86.225 Y40.083 Z0 F1600
G1 X86.66 Y38.823 Z0 F1600
G1 X86.881 Y37.99 Z0 F1600
G1 X87.077 Y37.066 Z0 F1600
G1 X87.153 Y36.63 Z0 F1600
G1 X87.209 Y36.243 Z0 F1600
G1 X87.229 Y36.076 Z0 F1600
G1 X87.241 Y35.93 Z0 F1600
G1 X87.246 Y35.808 Z0 F1600
G1 X87.243 Y35.713 Z0 F1600
G1 X87.231 Y35.634 Z0 F1600
G1 X87.209 Y35.602 Z0 F1600
G1 X87.173 Y35.625 Z0 F1600

; Washing sequence (no color)
G1 Z10 F1000;        ; Raise brush
G0 X5 Y5 F1200;     ; Rapid move to clean
G1 Z-1 F800;         ; Lower brush
G1 X10 Y12 Z8 F1200;     ; Move
G1 Z-1 F800;         ; Lower
G1 X25 Y14 Z6 F800;     ; Move
G1 Z8 F800;         ; Maintain
G0 X5 Y5 F1200;     ; Rapid
G1 Z-1 F800;         ; Lower
G1 X15 Y12 Z8 F1200;     ; Move
G1 Z-1 F800;         ; Lower
G1 X25 Y14 Z6 F800;     ; Move
G1 Z10 F800;         ; Maintain
G1 F1200;           ; Set feed

; Color picking sequence
G1 Z10 F1000;         ; Raise brush
G0 X131 Y5 F1200;    ; Rapid move to color 1
G1 Z10 F1000;         ; Raise brush
G0 X131 Y5 F1200;    ; Rapid move to color 1
G1 Z0 F1000;         ; Lower into color
G1 X130.102 Y7.295 Z0 S800 F1200
G1 X130.026 Y7.642 Z0 F1200
G1 X130 Y8 Z0 F1200
G1 X130.026 Y8.358 Z0 F1200
G1 X130.102 Y8.705 Z0 F1200
G1 X130.225 Y9.041 Z0 F1200
G1 X130.393 Y9.362 Z0 F1200
G1 X130.603 Y9.668 Z0 F1200
G1 X130.854 Y9.957 Z0 F1200
G1 X131.142 Y10.226 Z0 F1200
G1 X131.464 Y10.475 Z0 F1200
G1 X131.82 Y10.701 Z0 F1200
G1 X132.204 Y10.902 Z0 F1200
G1 X132.617 Y11.078 Z0 F1200
G1 X133.054 Y11.225 Z0 F1200
G1 X133.513 Y11.343 Z0 F1200
G1 X133.992 Y11.429 Z0 F1200
G1 X134.489 Y11.482 Z0 F1200
G1 X135 Y11.5 Z0 F1200
G1 X135.511 Y11.482 Z0 F1200
G1 X136.008 Y11.429 Z0 F1200
G1 X136.487 Y11.343 Z0 F1200
G1 X136.946 Y11.225 Z0 F1200
G1 X137.383 Y11.078 Z0 F1200
G1 X137.796 Y10.902 Z0 F1200
G1 X138.18 Y10.701 Z0 F1200
G1 X138.536 Y10.475 Z0 F1200
G1 X138.858 Y10.226 Z0 F1200
G1 X139.146 Y9.957 Z0 F1200
G1 X139.397 Y9.668 Z0 F1200
G1 X139.607 Y9.362 Z0 F1200
G1 X139.775 Y9.041 Z0 F1200
G1 X139.898 Y8.705 Z0 F1200
G1 X139.974 Y8.358 Z0 F1200
G1 X140 Y8 Z0 F1200
G1 X139.974 Y7.642 Z0 F1200
G1 X139.898 Y7.295 Z0 F1200
G1 X139.775 Y6.959 Z0 F1200
G1 X139.607 Y6.638 Z0 F1200
G1 X139.397 Y6.332 Z0 F1200
G1 X139.146 Y6.043 Z0 F1200
G1 X138.858 Y5.774 Z0 F1200
G1 X138.536 Y5.525 Z0 F1200
G1 X138.18 Y5.299 Z0 F1200
G1 X137.796 Y5.098 Z0 F1200
G1 X137.383 Y4.922 Z0 F1200
G1 X136.946 Y4.775 Z0 F1200
G1 X136.487 Y4.657 Z0 F1200
G1 X136.008 Y4.571 Z0 F1200
G1 X135.511 Y4.518 Z0 F1200
G1 X135 Y4.5 Z0 F1200
G1 X134.489 Y4.518 Z0 F1200
G1 X133.992 Y4.571 Z0 F1200
G1 X133.513 Y4.657 Z0 F1200
G1 X133.054 Y4.775 Z0 F1200
G1 X132.617 Y4.922 Z0 F1200
G1 X132.204 Y5.098 Z0 F1200
G1 X131.82 Y5.299 Z0 F1200
G1 X131.464 Y5.525 Z0 F1200
G1 X131.142 Y5.774 Z0 F1200
G1 X130.854 Y6.043 Z0 F1200
G1 X130.603 Y6.332 Z0 F1200
G1 X130.393 Y6.638 Z0 F1200
G1 X130.225 Y6.959 Z0 F1200
G1 Z7 F800;         ; Raise from color
G1 X124 Y8 Z1 F1200;     ; Movement in paint
G1 X114 Y18 Z8 F500;     ; Move in paint
G1 F1200;           ; Set feed rate
;Cut @ 1500 mm/min, 80% power

M8
G0 Z3.5 F1000
; --- FIX X Backlash ---
G0 X85.873 Y35.625 Z5 F1200
; --- FIX Y Backlash ---
G0 X85.873 Y37.025 Z5 F1200
G0 X70.091 Y40.998 Z3.5
G1 Z0 F1000
;Layer C3
G1 X70.064 Y40.958 Z0 S800 F1600
G1 X70.039 Y40.951 Z0 F1600
G1 X69.985 Y40.945 Z0 F1600
G1 X69.799 Y40.932 Z0 F1600
G1 X69.518 Y40.92 Z0 F1600
G1 X69.155 Y40.91 Z0 F1600
G1 X68.721 Y40.902 Z0 F1600
G1 X68.229 Y40.895 Z0 F1600
G1 X67.691 Y40.891 Z0 F1600
G1 X67.118 Z0 F1600
G1 X66.372 Z0 F1600
G1 X65.755 Y40.894 Z0 F1600
G1 X65.256 Y40.901 Z0 F1600
G1 X64.866 Y40.911 Z0 F1600
G1 X64.575 Y40.925 Z0 F1600
G1 X64.372 Y40.943 Z0 F1600
G1 X64.248 Y40.966 Z0 F1600
G1 X64.192 Y40.994 Z0 F1600
G1 X64.169 Y41.038 Z0 F1600
G1 X64.14 Y41.125 Z0 F1600
G1 X64.104 Y41.248 Z0 F1600
G1 X64.064 Y41.403 Z0 F1600
G1 X63.974 Y41.788 Z0 F1600
G1 X63.88 Y42.239 Z0 F1600
G1 X63.78 Y42.738 Z0 F1600
G1 X63.624 Y43.501 Z0 F1600
G1 X63.432 Y44.407 Z0 F1600
G1 X63.37 Y44.721 Z0 F1600
G1 X63.318 Y45.002 Z0 F1600
G1 X63.283 Y45.214 Z0 F1600
G1 X63.265 Y45.358 Z0 F1600
G1 X63.246 Y45.465 Z0 F1600
G1 X63.207 Y45.542 Z0 F1600
G1 X63.129 Y45.6 Z0 F1600
G1 X62.993 Y45.647 Z0 F1600
G1 X62.779 Y45.693 Z0 F1600
G1 X62.637 Y45.718 Z0 F1600
G1 X61.847 Y45.851 Z0 F1600
G1 X61.692 Y45.873 Z0 F1600
G1 X61.572 Y45.886 Z0 F1600
G1 X61.479 Y45.889 Z0 F1600
G1 X61.356 Y45.863 Z0 F1600
; --- FIX Y Backlash ---
G0 X61.356 Y44.463 Z5 F1200
G1 X61.274 Y44.394 Z0 F1600
G1 X61.238 Y44.348 Z0 F1600
G1 X61.106 Y44.164 Z0 F1600
G1 X60.791 Y43.702 Z0 F1600
G1 X60.527 Y43.308 Z0 F1600
G1 X59.944 Y42.426 Z0 F1600
G1 X59.236 Y41.331 Z0 F1600
G1 X59.092 Y41.12 Z0 F1600
G1 X59.034 Y41.038 Z0 F1600
G1 X58.988 Y40.977 Z0 F1600
G1 X58.956 Y40.938 Z0 F1600
G1 X58.938 Y40.924 Z0 F1600
G1 X58.93 Y40.946 Z0 F1600
; --- FIX Y Backlash ---
G0 X58.93 Y42.346 Z5 F1200
G1 X58.922 Y42.409 Z0 F1600
G1 X58.914 Y42.508 Z0 F1600
G1 X58.908 Y42.64 Z0 F1600
G1 X58.898 Y42.982 Z0 F1600
G1 X58.891 Y43.727 Z0 F1600
G1 X58.885 Y43.994 Z0 F1600
G1 X58.873 Y44.217 Z0 F1600
G1 X58.852 Y44.408 Z0 F1600
G1 X58.781 Y44.752 Z0 F1600
G1 X58.654 Y45.137 Z0 F1600
G1 X58.418 Y45.796 Z0 F1600
; --- FIX X Backlash ---
G0 X59.718 Y45.796 Z5 F1200
G1 X61.615 Y48.631 Z0 F1600
G1 X62.187 Y49.479 Z0 F1600
G1 X62.63 Y50.127 Z0 F1600
G1 X62.844 Y50.434 Z0 F1600
G1 X62.918 Y50.535 Z0 F1600
G1 X62.932 Y50.551 Z0 F1600
G1 X62.997 Z0 F1600
G1 X63.132 Y50.532 Z0 F1600
G1 X63.318 Y50.491 Z0 F1600
; --- FIX Y Backlash ---
G0 X63.318 Y49.091 Z5 F1200
G1 X63.535 Y49.035 Z0 F1600
G1 X63.973 Y48.927 Z0 F1600
G1 X64.455 Y48.834 Z0 F1600
G1 X64.975 Y48.755 Z0 F1600
G1 X65.527 Y48.69 Z0 F1600
G1 X66.698 Y48.604 Z0 F1600
G1 X67.919 Y48.575 Z0 F1600
G1 X69.139 Y48.603 Z0 F1600
; --- FIX Y Backlash ---
G0 X69.139 Y50.003 Z5 F1200
G1 X70.309 Y50.088 Z0 F1600
G1 X70.859 Y50.152 Z0 F1600
G1 X71.377 Y50.23 Z0 F1600
G1 X71.858 Y50.323 Z0 F1600
G1 X72.295 Y50.43 Z0 F1600
G1 X72.545 Y50.499 Z0 F1600
G1 X72.739 Y50.548 Z0 F1600
G1 X72.884 Y50.577 Z0 F1600
G1 X72.991 Y50.587 Z0 F1600
G1 X73.122 Y50.549 Z0 F1600
; --- FIX Y Backlash ---
G0 X73.122 Y49.149 Z5 F1200
G1 X73.201 Y49.033 Z0 F1600
G1 X73.238 Y48.971 Z0 F1600
G1 X73.31 Y48.858 Z0 F1600
G1 X73.545 Y48.502 Z0 F1600
G1 X73.872 Y48.018 Z0 F1600
G1 X74.256 Y47.458 Z0 F1600
G1 X75.547 Y45.583 Z0 F1600
G1 X75.666 Y45.398 Z0 F1600
G1 X75.753 Y45.236 Z0 F1600
G1 X75.801 Y45.115 Z0 F1600
G1 Y45.053 Z0 F1600
G1 X75.768 Y45.037 Z0 F1600
; --- FIX X Backlash ---
G0 X74.468 Y45.037 Z5 F1200
G1 X74.399 Y45.012 Z0 F1600
G1 X74.296 Y44.979 Z0 F1600
G1 X74.163 Y44.939 Z0 F1600
G1 X73.823 Y44.843 Z0 F1600
G1 X73.406 Y44.732 Z0 F1600
G1 X72.463 Y44.493 Z0 F1600
G1 X71.569 Y44.284 Z0 F1600
G1 X71.069 Y44.175 Z0 F1600
G1 X70.428 Y40.929 Z0 F1600
G1 X70.32 Y40.418 Z0 F1600
G1 X70.215 Y39.989 Z0 F1600
G1 X70.168 Y39.819 Z0 F1600
G1 X70.126 Y39.687 Z0 F1600
G1 X70.091 Y39.598 Z0 F1600
G0 Z3.5 F1000
; --- FIX X Backlash ---
G0 X71.391 Y39.598 Z5 F1200
; --- FIX Y Backlash ---
G0 X71.391 Y40.998 Z5 F1200
G0 X82.857 Y50.44 Z3.5
G1 Z0 F1000
; --- FIX X Backlash ---
G0 X81.557 Y50.44 Z5 F1200
G1 X80.514 Y52.492 Z0 F1600
G1 X80.186 Y53.13 Z0 F1600
G1 X79.92 Y53.644 Z0 F1600
G1 X79.746 Y53.971 Z0 F1600
G1 X79.668 Y54.11 Z0 F1600
G1 X79.652 Y54.168 Z0 F1600
G1 X79.661 Y54.23 Z0 F1600
G1 X79.701 Y54.303 Z0 F1600
; --- FIX X Backlash ---
G0 X81.001 Y54.303 Z5 F1200
G1 X81.079 Y54.397 Z0 F1600
G1 X81.201 Y54.519 Z0 F1600
G1 X81.374 Y54.679 Z0 F1600
G1 X81.602 Y54.885 Z0 F1600
G1 X82.563 Y55.782 Z0 F1600
G1 X83.449 Y56.679 Z0 F1600
G1 X84.262 Y57.581 Z0 F1600
G1 X85.006 Y58.492 Z0 F1600
G1 X85.684 Y59.415 Z0 F1600

; Color picking sequence
G1 Z10 F1000;         ; Raise brush
G0 X131 Y5 F1200;    ; Rapid move to color 1
G1 Z10 F1000;         ; Raise brush
G0 X131 Y5 F1200;    ; Rapid move to color 1
G1 Z0 F1000;         ; Lower into color
G1 X130.102 Y7.295 Z0 S800 F1200
G1 X130.026 Y7.642 Z0 F1200
G1 X130 Y8 Z0 F1200
G1 X130.026 Y8.358 Z0 F1200
G1 X130.102 Y8.705 Z0 F1200
G1 X130.225 Y9.041 Z0 F1200
G1 X130.393 Y9.362 Z0 F1200
G1 X130.603 Y9.668 Z0 F1200
G1 X130.854 Y9.957 Z0 F1200
G1 X131.142 Y10.226 Z0 F1200
G1 X131.464 Y10.475 Z0 F1200
G1 X131.82 Y10.701 Z0 F1200
G1 X132.204 Y10.902 Z0 F1200
G1 X132.617 Y11.078 Z0 F1200
G1 X133.054 Y11.225 Z0 F1200
G1 X133.513 Y11.343 Z0 F1200
G1 X133.992 Y11.429 Z0 F1200
G1 X134.489 Y11.482 Z0 F1200
G1 X135 Y11.5 Z0 F1200
G1 X135.511 Y11.482 Z0 F1200
G1 X136.008 Y11.429 Z0 F1200
G1 X136.487 Y11.343 Z0 F1200
G1 X136.946 Y11.225 Z0 F1200
G1 X137.383 Y11.078 Z0 F1200
G1 X137.796 Y10.902 Z0 F1200
G1 X138.18 Y10.701 Z0 F1200
G1 X138.536 Y10.475 Z0 F1200
G1 X138.858 Y10.226 Z0 F1200
G1 X139.146 Y9.957 Z0 F1200
G1 X139.397 Y9.668 Z0 F1200
G1 X139.607 Y9.362 Z0 F1200
G1 X139.775 Y9.041 Z0 F1200
G1 X139.898 Y8.705 Z0 F1200
G1 X139.974 Y8.358 Z0 F1200
G1 X140 Y8 Z0 F1200
G1 X139.974 Y7.642 Z0 F1200
G1 X139.898 Y7.295 Z0 F1200
G1 X139.775 Y6.959 Z0 F1200
G1 X139.607 Y6.638 Z0 F1200
G1 X139.397 Y6.332 Z0 F1200
G1 X139.146 Y6.043 Z0 F1200
G1 X138.858 Y5.774 Z0 F1200
G1 X138.536 Y5.525 Z0 F1200
G1 X138.18 Y5.299 Z0 F1200
G1 X137.796 Y5.098 Z0 F1200
G1 X137.383 Y4.922 Z0 F1200
G1 X136.946 Y4.775 Z0 F1200
G1 X136.487 Y4.657 Z0 F1200
G1 X136.008 Y4.571 Z0 F1200
G1 X135.511 Y4.518 Z0 F1200
G1 X135 Y4.5 Z0 F1200
G1 X134.489 Y4.518 Z0 F1200
G1 X133.992 Y4.571 Z0 F1200
G1 X133.513 Y4.657 Z0 F1200
G1 X133.054 Y4.775 Z0 F1200
G1 X132.617 Y4.922 Z0 F1200
G1 X132.204 Y5.098 Z0 F1200
G1 X131.82 Y5.299 Z0 F1200
G1 X131.464 Y5.525 Z0 F1200
G1 X131.142 Y5.774 Z0 F1200
G1 X130.854 Y6.043 Z0 F1200
G1 X130.603 Y6.332 Z0 F1200
G1 X130.393 Y6.638 Z0 F1200
G1 X130.225 Y6.959 Z0 F1200
G1 Z7 F800;         ; Raise from color
G1 X124 Y8 Z1 F1200;     ; Movement in paint
G1 X114 Y18 Z8 F500;     ; Move in paint
G1 F1200;           ; Set feed rate
G0 X85.684 Y59.415 F1200 ; Return
G1 Z0 F1000 ; Restore Z
G1 X86.298 Y60.353 Z0 F1600
G1 X86.852 Y61.312 Z0 F1600
G1 X87.348 Y62.294 Z0 F1600
G1 X87.546 Y62.74 Z0 F1600
G1 X87.753 Y63.252 Z0 F1600
G1 X87.963 Y63.809 Z0 F1600
G1 X88.168 Y64.392 Z0 F1600
G1 X88.362 Y64.982 Z0 F1600
G1 X88.539 Y65.56 Z0 F1600
G1 X88.691 Y66.106 Z0 F1600
G1 X88.813 Y66.6 Z0 F1600
G1 X89.035 Y67.745 Z0 F1600
G1 X89.195 Y68.926 Z0 F1600
G1 X89.293 Y70.13 Z0 F1600
G1 X89.329 Y71.34 Z0 F1600
G1 X89.303 Y72.544 Z0 F1600
; --- FIX X Backlash ---
G0 X88.003 Y72.544 Z5 F1200
G1 X87.914 Y73.728 Z0 F1600
G1 X87.763 Y74.875 Z0 F1600
G1 X87.55 Y75.973 Z0 F1600
G1 X87.466 Y76.319 Z0 F1600
G1 X87.361 Y76.714 Z0 F1600
G1 X87.243 Y77.137 Z0 F1600
G1 X87.117 Y77.567 Z0 F1600
G1 X86.99 Y77.983 Z0 F1600
G1 X86.869 Y78.362 Z0 F1600
G1 X86.758 Y78.685 Z0 F1600
G1 X86.666 Y78.929 Z0 F1600
G1 X86.405 Y79.562 Z0 F1600
G1 X86.357 Y79.673 Z0 F1600
G1 X86.293 Y79.812 Z0 F1600
G1 X86.128 Y80.158 Z0 F1600
G1 X85.926 Y80.565 Z0 F1600
G1 X85.707 Y80.999 Z0 F1600
G1 X85.486 Y81.425 Z0 F1600
G1 X85.283 Y81.81 Z0 F1600
G1 X85.114 Y82.118 Z0 F1600
G1 X85.048 Y82.232 Z0 F1600
G1 X84.997 Y82.314 Z0 F1600
G1 X84.845 Y82.543 Z0 F1600
G1 X84.639 Y82.844 Z0 F1600
G1 X84.4 Y83.188 Z0 F1600
G1 X83.912 Y83.885 Z0 F1600
G1 X83.619 Y84.294 Z0 F1600
G1 X83.498 Y84.457 Z0 F1600
G1 X83.468 Y84.494 Z0 F1600
G1 X83.297 Y84.695 Z0 F1600
G1 X83.004 Y85.047 Z0 F1600
G1 X82.624 Y85.494 Z0 F1600
G1 X82.244 Y85.921 Z0 F1600
G1 X82.092 Y86.089 Z0 F1600
G1 X81.96 Y86.241 Z0 F1600
G1 X81.861 Y86.361 Z0 F1600
G1 X81.81 Y86.431 Z0 F1600
G1 X81.807 Y86.489 Z0 F1600
G1 X81.833 Y86.601 Z0 F1600
; --- FIX X Backlash ---
G0 X83.133 Y86.601 Z5 F1200
G1 X83.189 Y86.769 Z0 F1600
G1 X83.275 Y86.994 Z0 F1600
G1 X83.393 Y87.279 Z0 F1600
G1 X83.542 Y87.625 Z0 F1600
G1 X83.724 Y88.033 Z0 F1600
G1 X84.009 Y88.661 Z0 F1600
G1 X84.204 Y89.111 Z0 F1600
G1 X84.451 Y89.691 Z0 F1600
G1 X84.584 Y89.994 Z0 F1600
G1 X84.703 Y90.256 Z0 F1600
G1 X84.808 Y90.474 Z0 F1600
G1 X84.897 Y90.648 Z0 F1600
G1 X84.97 Y90.774 Z0 F1600
G1 X85.026 Y90.851 Z0 F1600
G1 X85.063 Y90.877 Z0 F1600
G1 X85.129 Y90.84 Z0 F1600
; --- FIX Y Backlash ---
G0 X85.129 Y89.44 Z5 F1200
G1 X85.257 Y89.34 Z0 F1600
G1 X85.429 Y89.191 Z0 F1600
G1 X85.626 Y89.009 Z0 F1600
G1 X86.474 Y88.206 Z0 F1600
; --- FIX Y Backlash ---
G0 X86.474 Y89.606 Z5 F1200
G1 X87.31 Y89.995 Z0 F1600
G1 X88.235 Y90.423 Z0 F1600
G1 X88.765 Y90.661 Z0 F1600
G1 X89.286 Y90.899 Z0 F1600
G1 X89.696 Y91.08 Z0 F1600
G1 X90.038 Y91.215 Z0 F1600
G1 X90.32 Y91.306 Z0 F1600
G1 X90.547 Y91.354 Z0 F1600
G1 X90.728 Y91.359 Z0 F1600
G1 X90.869 Y91.322 Z0 F1600
; --- FIX Y Backlash ---
G0 X90.869 Y89.922 Z5 F1200
G1 X90.978 Y89.844 Z0 F1600
G1 X91.062 Y89.726 Z0 F1600
G1 X91.096 Y89.671 Z0 F1600
G1 X91.163 Y89.571 Z0 F1600
G1 X91.382 Y89.254 Z0 F1600
G1 X91.697 Y88.808 Z0 F1600
G1 X92.081 Y88.267 Z0 F1600
G1 X92.964 Y87.038 Z0 F1600
G1 X93.835 Y85.84 Z0 F1600
G1 X94.036 Y85.554 Z0 F1600
G1 X94.201 Y85.296 Z0 F1600
G1 X94.264 Y85.186 Z0 F1600
G1 X94.312 Y85.094 Z0 F1600
G1 X94.342 Y85.023 Z0 F1600
G1 X94.353 Y84.977 Z0 F1600
G1 X94.311 Y84.871 Z0 F1600
; --- FIX X Backlash ---
G0 X93.011 Y84.871 Z5 F1200
G1 X92.898 Y84.701 Z0 F1600
G1 X92.73 Y84.489 Z0 F1600
G1 X92.525 Y84.26 Z0 F1600
G1 X91.279 Y82.942 Z0 F1600
G1 X90.73 Y82.354 Z0 F1600
G1 X90.526 Y82.131 Z0 F1600
G1 X90.365 Y81.949 Z0 F1600
G1 X90.24 Y81.802 Z0 F1600
G1 X90.149 Y81.685 Z0 F1600
G1 X90.087 Y81.593 Z0 F1600
G1 X90.049 Y81.52 Z0 F1600
G1 X90.031 Y81.462 Z0 F1600
G1 X90.039 Y81.366 Z0 F1600
; --- FIX X Backlash ---
G0 X91.339 Y81.366 Z5 F1200
G1 X91.435 Y81.1 Z0 F1600
G1 X91.53 Y80.86 Z0 F1600
G1 X91.647 Y80.573 Z0 F1600
G1 X92.068 Y79.568 Z0 F1600
G1 X92.454 Y78.609 Z0 F1600
G1 X92.559 Y78.371 Z0 F1600
G1 X92.646 Y78.191 Z0 F1600
G1 X92.705 Y78.095 Z0 F1600
G1 X92.758 Y78.067 Z0 F1600
G1 X92.864 Y78.042 Z0 F1600
G1 X93.032 Y78.019 Z0 F1600
G1 X93.265 Y77.999 Z0 F1600
G1 X93.571 Y77.981 Z0 F1600
G1 X93.956 Y77.964 Z0 F1600
G1 X94.425 Y77.949 Z0 F1600
G1 X95.626 Y77.917 Z0 F1600
G1 X96.133 Y77.901 Z0 F1600
G1 X96.523 Y77.885 Z0 F1600
G1 X96.814 Y77.865 Z0 F1600
G1 X97.021 Y77.842 Z0 F1600
G1 X97.162 Y77.814 Z0 F1600
G1 X97.253 Y77.78 Z0 F1600
G1 X97.311 Y77.737 Z0 F1600
G1 X97.38 Y77.621 Z0 F1600

; Color picking sequence
G1 Z10 F1000;         ; Raise brush
G0 X131 Y5 F1200;    ; Rapid move to color 1
G1 Z10 F1000;         ; Raise brush
G0 X131 Y5 F1200;    ; Rapid move to color 1
G1 Z0 F1000;         ; Lower into color
G1 X130.102 Y7.295 Z0 S800 F1200
G1 X130.026 Y7.642 Z0 F1200
G1 X130 Y8 Z0 F1200
G1 X130.026 Y8.358 Z0 F1200
G1 X130.102 Y8.705 Z0 F1200
G1 X130.225 Y9.041 Z0 F1200
G1 X130.393 Y9.362 Z0 F1200
G1 X130.603 Y9.668 Z0 F1200
G1 X130.854 Y9.957 Z0 F1200
G1 X131.142 Y10.226 Z0 F1200
G1 X131.464 Y10.475 Z0 F1200
G1 X131.82 Y10.701 Z0 F1200
G1 X132.204 Y10.902 Z0 F1200
G1 X132.617 Y11.078 Z0 F1200
G1 X133.054 Y11.225 Z0 F1200
G1 X133.513 Y11.343 Z0 F1200
G1 X133.992 Y11.429 Z0 F1200
G1 X134.489 Y11.482 Z0 F1200
G1 X135 Y11.5 Z0 F1200
G1 X135.511 Y11.482 Z0 F1200
G1 X136.008 Y11.429 Z0 F1200
G1 X136.487 Y11.343 Z0 F1200
G1 X136.946 Y11.225 Z0 F1200
G1 X137.383 Y11.078 Z0 F1200
G1 X137.796 Y10.902 Z0 F1200
G1 X138.18 Y10.701 Z0 F1200
G1 X138.536 Y10.475 Z0 F1200
G1 X138.858 Y10.226 Z0 F1200
G1 X139.146 Y9.957 Z0 F1200
G1 X139.397 Y9.668 Z0 F1200
G1 X139.607 Y9.362 Z0 F1200
G1 X139.775 Y9.041 Z0 F1200
G1 X139.898 Y8.705 Z0 F1200
G1 X139.974 Y8.358 Z0 F1200
G1 X140 Y8 Z0 F1200
G1 X139.974 Y7.642 Z0 F1200
G1 X139.898 Y7.295 Z0 F1200
G1 X139.775 Y6.959 Z0 F1200
G1 X139.607 Y6.638 Z0 F1200
G1 X139.397 Y6.332 Z0 F1200
G1 X139.146 Y6.043 Z0 F1200
G1 X138.858 Y5.774 Z0 F1200
G1 X138.536 Y5.525 Z0 F1200
G1 X138.18 Y5.299 Z0 F1200
G1 X137.796 Y5.098 Z0 F1200
G1 X137.383 Y4.922 Z0 F1200
G1 X136.946 Y4.775 Z0 F1200
G1 X136.487 Y4.657 Z0 F1200
G1 X136.008 Y4.571 Z0 F1200
G1 X135.511 Y4.518 Z0 F1200
G1 X135 Y4.5 Z0 F1200
G1 X134.489 Y4.518 Z0 F1200
G1 X133.992 Y4.571 Z0 F1200
G1 X133.513 Y4.657 Z0 F1200
G1 X133.054 Y4.775 Z0 F1200
G1 X132.617 Y4.922 Z0 F1200
G1 X132.204 Y5.098 Z0 F1200
G1 X131.82 Y5.299 Z0 F1200
G1 X131.464 Y5.525 Z0 F1200
G1 X131.142 Y5.774 Z0 F1200
G1 X130.854 Y6.043 Z0 F1200
G1 X130.603 Y6.332 Z0 F1200
G1 X130.393 Y6.638 Z0 F1200
G1 X130.225 Y6.959 Z0 F1200
G1 Z7 F800;         ; Raise from color
G1 X124 Y8 Z1 F1200;     ; Movement in paint
G1 X114 Y18 Z8 F500;     ; Move in paint
G1 F1200;           ; Set feed rate
G0 X97.38 Y77.621 F1200 ; Return
G1 Z0 F1000 ; Restore Z
G1 X97.455 Y77.415 Z0 F1600
G1 X97.529 Y77.135 Z0 F1600
G1 X97.597 Y76.801 Z0 F1600
G1 X97.712 Y76.165 Z0 F1600
G1 X97.851 Y75.417 Z0 F1600
G1 X98.034 Y74.455 Z0 F1600
G1 X98.279 Y73.176 Z0 F1600
G1 X98.36 Y72.721 Z0 F1600
G1 X98.418 Y72.328 Z0 F1600
G1 X98.437 Y72.168 Z0 F1600
G1 X98.449 Y72.038 Z0 F1600
G1 X98.452 Y71.946 Z0 F1600
G1 X98.445 Y71.895 Z0 F1600
G1 X98.396 Y71.799 Z0 F1600
; --- FIX X Backlash ---
G0 X97.096 Y71.799 Z5 F1200
G1 X96.951 Y71.709 Z0 F1600
G1 X96.8 Y71.648 Z0 F1600
G1 X96.576 Y71.565 Z0 F1600
G1 X95.269 Y71.106 Z0 F1600
G1 X94.722 Y70.91 Z0 F1600
G1 X94.214 Y70.724 Z0 F1600
G1 X93.758 Y70.554 Z0 F1600
G1 X93.371 Y70.406 Z0 F1600
G1 X93.068 Y70.285 Z0 F1600
G1 X92.953 Y70.237 Z0 F1600
G1 X92.864 Y70.197 Z0 F1600
G1 X92.804 Y70.168 Z0 F1600
G1 X92.775 Y70.149 Z0 F1600
G1 X92.76 Y70.104 Z0 F1600
G1 X92.743 Y70.001 Z0 F1600
G1 X92.724 Y69.846 Z0 F1600
G1 X92.704 Y69.646 Z0 F1600
G1 X92.684 Y69.407 Z0 F1600
G1 X92.664 Y69.137 Z0 F1600
G1 X92.646 Y68.842 Z0 F1600
G1 X92.594 Y67.901 Z0 F1600
G1 X92.562 Y67.341 Z0 F1600
G1 X92.534 Y66.91 Z0 F1600
G1 X92.515 Y66.67 Z0 F1600
G1 X92.505 Y66.495 Z0 F1600
G1 X92.547 Y66.378 Z0 F1600
; --- FIX X Backlash ---
G0 X93.847 Y66.378 Z5 F1200
G1 X93.897 Y66.327 Z0 F1600
G1 X93.972 Y66.276 Z0 F1600
G1 X94.077 Y66.217 Z0 F1600
G1 X94.215 Y66.145 Z0 F1600
G1 X95.299 Y65.574 Z0 F1600
G1 X96.404 Y64.963 Z0 F1600
G1 X96.885 Y64.687 Z0 F1600
G1 X97.276 Y64.455 Z0 F1600
G1 X97.429 Y64.361 Z0 F1600
G1 X97.547 Y64.284 Z0 F1600
G1 X97.627 Y64.227 Z0 F1600
G1 X97.666 Y64.193 Z0 F1600
G1 X97.701 Y64.12 Z0 F1600
G1 X97.721 Y64.026 Z0 F1600
G1 X97.724 Y63.908 Z0 F1600
G1 X97.71 Y63.764 Z0 F1600
G1 X97.679 Y63.59 Z0 F1600
G1 X97.631 Y63.385 Z0 F1600
; --- FIX X Backlash ---
G0 X96.331 Y63.385 Z5 F1200
G1 X96.264 Y63.145 Z0 F1600
G1 X96.18 Y62.867 Z0 F1600
G1 X96.039 Y62.42 Z0 F1600
G1 X95.381 Y60.304 Z0 F1600
G1 X95.257 Y59.909 Z0 F1600
G1 X95.141 Y59.554 Z0 F1600
G1 X95.035 Y59.241 Z0 F1600
G1 X94.939 Y58.975 Z0 F1600
G1 X94.855 Y58.757 Z0 F1600
G1 X94.784 Y58.591 Z0 F1600
G1 X94.727 Y58.478 Z0 F1600
G1 X94.684 Y58.423 Z0 F1600
G1 X94.627 Y58.385 Z0 F1600
G1 X94.557 Y58.359 Z0 F1600
G1 X94.441 Y58.348 Z0 F1600
G1 X94.247 Y58.354 Z0 F1600
G1 X94.112 Y58.363 Z0 F1600
G1 X93.742 Y58.397 Z0 F1600
; --- FIX Y Backlash ---
G0 X93.742 Y59.797 Z5 F1200
G1 X93.215 Y59.853 Z0 F1600
G1 X91.068 Y60.09 Z0 F1600
G1 X90.828 Y60.113 Z0 F1600
G1 X90.627 Y60.128 Z0 F1600
G1 X90.459 Y60.133 Z0 F1600
G1 X90.321 Y60.127 Z0 F1600
G1 X90.208 Y60.111 Z0 F1600
; --- FIX Y Backlash ---
G0 X90.208 Y58.711 Z5 F1200
G1 X90.039 Y58.639 Z0 F1600
G1 X89.917 Y58.509 Z0 F1600
G1 X89.807 Y58.313 Z0 F1600
G1 X89.673 Y58.044 Z0 F1600
G1 X89.276 Y57.314 Z0 F1600
G1 X88.821 Y56.536 Z0 F1600
G1 X88.628 Y56.214 Z0 F1600
G1 X88.47 Y55.937 Z0 F1600
G1 X88.409 Y55.825 Z0 F1600
G1 X88.363 Y55.735 Z0 F1600
G1 X88.334 Y55.67 Z0 F1600
G1 X88.324 Y55.636 Z0 F1600
G1 X88.349 Y55.58 Z0 F1600
; --- FIX X Backlash ---
G0 X89.649 Y55.58 Z5 F1200
G1 X89.721 Y55.456 Z0 F1600
G1 X89.834 Y55.271 Z0 F1600
G1 X89.984 Y55.032 Z0 F1600
G1 X90.165 Y54.749 Z0 F1600
G1 X90.373 Y54.428 Z0 F1600
G1 X91.102 Y53.321 Z0 F1600
G1 X91.335 Y52.96 Z0 F1600
G1 X91.543 Y52.629 Z0 F1600
G1 X91.723 Y52.335 Z0 F1600
G1 X91.87 Y52.086 Z0 F1600
G1 X91.98 Y51.887 Z0 F1600
G1 X92.049 Y51.746 Z0 F1600
G1 X92.073 Y51.669 Z0 F1600
G1 X92.057 Y51.605 Z0 F1600
G1 X92.008 Y51.513 Z0 F1600
; --- FIX X Backlash ---
G0 X90.708 Y51.513 Z5 F1200
G1 X90.626 Y51.394 Z0 F1600
G1 X90.508 Y51.244 Z0 F1600
G1 X90.353 Y51.063 Z0 F1600
G1 X90.161 Y50.849 Z0 F1600
G1 X89.929 Y50.6 Z0 F1600
G1 X89.656 Y50.314 Z0 F1600
G1 X88.904 Y49.536 Z0 F1600
G1 X88.279 Y48.894 Z0 F1600
G1 X87.771 Y48.378 Z0 F1600
G1 X87.369 Y47.979 Z0 F1600
G1 X87.205 Y47.819 Z0 F1600
G1 X87.064 Y47.685 Z0 F1600
G1 X86.945 Y47.575 Z0 F1600
G1 X86.845 Y47.487 Z0 F1600
G1 X86.765 Y47.421 Z0 F1600
G1 X86.703 Y47.376 Z0 F1600
G1 X86.657 Y47.35 Z0 F1600
G1 X86.627 Y47.341 Z0 F1600
G1 X86.562 Y47.367 Z0 F1600
; --- FIX Y Backlash ---
G0 X86.562 Y48.767 Z5 F1200
G1 X86.427 Y48.842 Z0 F1600
G1 X86.229 Y48.959 Z0 F1600
G1 X85.976 Y49.115 Z0 F1600
G1 X85.678 Y49.304 Z0 F1600
G1 X85.342 Y49.521 Z0 F1600
G1 X84.977 Y49.76 Z0 F1600
G1 X84.59 Y50.016 Z0 F1600
G1 X82.68 Y51.29 Z0 F1600
; --- FIX Y Backlash ---
G0 X82.68 Y49.89 Z5 F1200
G1 X81.557 Y49.04 Z0 F1600
G0 Z3.5 F1000
; --- FIX Y Backlash ---
G0 X81.557 Y50.44 Z5 F1200
G0 X53.78 Y54.203 Z3.5
G1 Z0 F1000
; --- FIX Y Backlash ---
G0 X53.78 Y52.803 Z5 F1200
G1 X53.758 Y52.752 Z0 F1600
G1 X53.679 Y52.588 Z0 F1600
G1 X53.561 Y52.361 Z0 F1600
G1 X53.33 Y51.938 Z0 F1600
G1 X53.106 Y51.521 Z0 F1600
G1 X52.701 Y50.76 Z0 F1600
G1 X51.993 Y49.408 Z0 F1600
G1 X51.852 Y49.145 Z0 F1600
G1 X51.793 Y49.039 Z0 F1600
G1 X51.747 Y49.056 Z0 F1600
; --- FIX Y Backlash ---
G0 X51.747 Y50.456 Z5 F1200
G1 X51.642 Y50.526 Z0 F1600
G1 X51.495 Y50.639 Z0 F1600
G1 X51.138 Y50.934 Z0 F1600
G1 X50.974 Y51.067 Z0 F1600
G1 X50.844 Y51.168 Z0 F1600
G1 X50.768 Y51.223 Z0 F1600
G1 X50.726 Y51.218 Z0 F1600
G1 X50.641 Y51.182 Z0 F1600
; --- FIX Y Backlash ---
G0 X50.641 Y49.782 Z5 F1200
G1 X50.518 Y49.72 Z0 F1600
G1 X50.361 Y49.633 Z0 F1600
G1 X50.175 Y49.525 Z0 F1600
G1 X49.965 Y49.399 Z0 F1600
G1 X49.734 Y49.256 Z0 F1600
G1 X49.487 Y49.101 Z0 F1600
G1 X48.966 Y48.765 Z0 F1600
G1 X48.438 Y48.412 Z0 F1600
G1 X47.939 Y48.067 Z0 F1600
G1 X47.298 Y47.602 Z0 F1600
G1 X47.124 Y47.495 Z0 F1600
G1 X46.975 Y47.428 Z0 F1600
G1 X46.842 Y47.403 Z0 F1600
G1 X46.715 Y47.419 Z0 F1600
; --- FIX Y Backlash ---
G0 X46.715 Y48.819 Z5 F1200
G1 X46.587 Y48.876 Z0 F1600

; Color picking sequence
G1 Z10 F1000;         ; Raise brush
G0 X131 Y5 F1200;    ; Rapid move to color 1
G1 Z10 F1000;         ; Raise brush
G0 X131 Y5 F1200;    ; Rapid move to color 1
G1 Z0 F1000;         ; Lower into color
G1 X130.102 Y7.295 Z0 S800 F1200
G1 X130.026 Y7.642 Z0 F1200
G1 X130 Y8 Z0 F1200
G1 X130.026 Y8.358 Z0 F1200
G1 X130.102 Y8.705 Z0 F1200
G1 X130.225 Y9.041 Z0 F1200
G1 X130.393 Y9.362 Z0 F1200
G1 X130.603 Y9.668 Z0 F1200
G1 X130.854 Y9.957 Z0 F1200
G1 X131.142 Y10.226 Z0 F1200
G1 X131.464 Y10.475 Z0 F1200
G1 X131.82 Y10.701 Z0 F1200
G1 X132.204 Y10.902 Z0 F1200
G1 X132.617 Y11.078 Z0 F1200
G1 X133.054 Y11.225 Z0 F1200
G1 X133.513 Y11.343 Z0 F1200
G1 X133.992 Y11.429 Z0 F1200
G1 X134.489 Y11.482 Z0 F1200
G1 X135 Y11.5 Z0 F1200
G1 X135.511 Y11.482 Z0 F1200
G1 X136.008 Y11.429 Z0 F1200
G1 X136.487 Y11.343 Z0 F1200
G1 X136.946 Y11.225 Z0 F1200
G1 X137.383 Y11.078 Z0 F1200
G1 X137.796 Y10.902 Z0 F1200
G1 X138.18 Y10.701 Z0 F1200
G1 X138.536 Y10.475 Z0 F1200
G1 X138.858 Y10.226 Z0 F1200
G1 X139.146 Y9.957 Z0 F1200
G1 X139.397 Y9.668 Z0 F1200
G1 X139.607 Y9.362 Z0 F1200
G1 X139.775 Y9.041 Z0 F1200
G1 X139.898 Y8.705 Z0 F1200
G1 X139.974 Y8.358 Z0 F1200
G1 X140 Y8 Z0 F1200
G1 X139.974 Y7.642 Z0 F1200
G1 X139.898 Y7.295 Z0 F1200
G1 X139.775 Y6.959 Z0 F1200
G1 X139.607 Y6.638 Z0 F1200
G1 X139.397 Y6.332 Z0 F1200
G1 X139.146 Y6.043 Z0 F1200
G1 X138.858 Y5.774 Z0 F1200
G1 X138.536 Y5.525 Z0 F1200
G1 X138.18 Y5.299 Z0 F1200
G1 X137.796 Y5.098 Z0 F1200
G1 X137.383 Y4.922 Z0 F1200
G1 X136.946 Y4.775 Z0 F1200
G1 X136.487 Y4.657 Z0 F1200
G1 X136.008 Y4.571 Z0 F1200
G1 X135.511 Y4.518 Z0 F1200
G1 X135 Y4.5 Z0 F1200
G1 X134.489 Y4.518 Z0 F1200
G1 X133.992 Y4.571 Z0 F1200
G1 X133.513 Y4.657 Z0 F1200
G1 X133.054 Y4.775 Z0 F1200
G1 X132.617 Y4.922 Z0 F1200
G1 X132.204 Y5.098 Z0 F1200
G1 X131.82 Y5.299 Z0 F1200
G1 X131.464 Y5.525 Z0 F1200
G1 X131.142 Y5.774 Z0 F1200
G1 X130.854 Y6.043 Z0 F1200
G1 X130.603 Y6.332 Z0 F1200
G1 X130.393 Y6.638 Z0 F1200
G1 X130.225 Y6.959 Z0 F1200
G1 Z7 F800;         ; Raise from color
G1 X124 Y8 Z1 F1200;     ; Movement in paint
G1 X114 Y18 Z8 F500;     ; Move in paint
G1 F1200;           ; Set feed rate
G0 X46.587 Y48.876 F1200 ; Return
G1 Z0 F1000 ; Restore Z
G1 X46.448 Y48.973 Z0 F1600
G1 X46.291 Y49.109 Z0 F1600
G1 X46.18 Y49.215 Z0 F1600
G1 X46.01 Y49.383 Z0 F1600
G1 X45.528 Y49.871 Z0 F1600
G1 X44.912 Y50.503 Z0 F1600
G1 X44.228 Y51.211 Z0 F1600
G1 X43.745 Y51.716 Z0 F1600
G1 X43.362 Y52.121 Z0 F1600
G1 X43.071 Y52.438 Z0 F1600
G1 X42.956 Y52.567 Z0 F1600
G1 X42.86 Y52.68 Z0 F1600
G1 X42.718 Y52.859 Z0 F1600
G1 X42.635 Y52.989 Z0 F1600
G1 X42.601 Y53.081 Z0 F1600
G1 X42.604 Y53.149 Z0 F1600
G1 X42.628 Y53.204 Z0 F1600
G1 X42.673 Y53.29 Z0 F1600
; --- FIX X Backlash ---
G0 X43.973 Y53.29 Z5 F1200
G1 X44.037 Y53.403 Z0 F1600
G1 X44.116 Y53.539 Z0 F1600
G1 X44.314 Y53.859 Z0 F1600
G1 X44.543 Y54.216 Z0 F1600
G1 X44.769 Y54.56 Z0 F1600
G1 X45.024 Y54.958 Z0 F1600
G1 X45.112 Y55.1 Z0 F1600
G1 X45.136 Y55.148 Z0 F1600
G1 X45.232 Y55.297 Z0 F1600
G1 X45.509 Y55.716 Z0 F1600
G1 X46.385 Y57.008 Z0 F1600
; --- FIX X Backlash ---
G0 X45.085 Y57.008 Z5 F1200
G1 X44.729 Y57.553 Z0 F1600
G1 X44.646 Y57.683 Z0 F1600
G1 X44.547 Y57.845 Z0 F1600
G1 X44.436 Y58.031 Z0 F1600
G1 X44.316 Y58.237 Z0 F1600
G1 X44.065 Y58.678 Z0 F1600
G1 X43.678 Y59.385 Z0 F1600
G1 X43.553 Y59.605 Z0 F1600
G1 X43.446 Y59.783 Z0 F1600
G1 X43.356 Y59.92 Z0 F1600
G1 X43.279 Y60.021 Z0 F1600
G1 X43.213 Y60.089 Z0 F1600
G1 X43.156 Y60.127 Z0 F1600
G1 X43.106 Y60.139 Z0 F1600
G1 X43.03 Y60.135 Z0 F1600
G1 X42.659 Y60.104 Z0 F1600
; --- FIX Y Backlash ---
G0 X42.659 Y58.704 Z5 F1200
G1 X42.058 Y58.647 Z0 F1600
G1 X40.435 Y58.485 Z0 F1600
G1 X40.029 Y58.448 Z0 F1600
G1 X39.666 Y58.418 Z0 F1600
G1 X39.354 Y58.396 Z0 F1600
G1 X39.095 Y58.382 Z0 F1600
G1 X38.897 Y58.376 Z0 F1600
G1 X38.762 Y58.379 Z0 F1600
G1 X38.696 Y58.392 Z0 F1600
; --- FIX Y Backlash ---
G0 X38.696 Y59.792 Z5 F1200
G1 X38.642 Y59.849 Z0 F1600
G1 X38.574 Y59.973 Z0 F1600
G1 X38.49 Y60.169 Z0 F1600
G1 X38.388 Y60.443 Z0 F1600
G1 X38.265 Y60.804 Z0 F1600
G1 X38.119 Y61.256 Z0 F1600
G1 X38.037 Y61.519 Z0 F1600
G1 X37.853 Y62.121 Z0 F1600
G1 X37.63 Y62.86 Z0 F1600
G1 X37.4 Y63.602 Z0 F1600
G1 X37.218 Y64.168 Z0 F1600
G1 X37.131 Y64.457 Z0 F1600
G1 X37.057 Y64.719 Z0 F1600
G1 X36.998 Y64.95 Z0 F1600
G1 X36.955 Y65.147 Z0 F1600
G1 X36.928 Y65.306 Z0 F1600
G1 X36.918 Y65.423 Z0 F1600
G1 X36.926 Y65.494 Z0 F1600
G1 X36.954 Y65.539 Z0 F1600
; --- FIX X Backlash ---
G0 X38.254 Y65.539 Z5 F1200
G1 X38.306 Y65.595 Z0 F1600
G1 X38.383 Y65.661 Z0 F1600
G1 X38.483 Y65.737 Z0 F1600
G1 X38.754 Y65.92 Z0 F1600
G1 X39.115 Y66.14 Z0 F1600
G1 X39.563 Y66.396 Z0 F1600
G1 X40.095 Y66.686 Z0 F1600
G1 X40.708 Y67.009 Z0 F1600
G1 X41.399 Y67.361 Z0 F1600
G1 X42.193 Y67.761 Z0 F1600
; --- FIX X Backlash ---
G0 X40.893 Y67.761 Z5 F1200
G1 X40.771 Y69.813 Z0 F1600
G1 X40.722 Y70.555 Z0 F1600
G1 X40.694 Y70.926 Z0 F1600
G1 X40.671 Y71.205 Z0 F1600
G1 X40.65 Y71.4 Z0 F1600
G1 X40.631 Y71.519 Z0 F1600
G1 X40.615 Y71.566 Z0 F1600
G1 X40.578 Y71.587 Z0 F1600
G1 X40.496 Y71.623 Z0 F1600
G1 X40.217 Y71.735 Z0 F1600
G1 X39.816 Y71.888 Z0 F1600
G1 X39.332 Y72.069 Z0 F1600
G1 X38.804 Y72.262 Z0 F1600
G1 X38.272 Y72.453 Z0 F1600
G1 X37.773 Y72.628 Z0 F1600
G1 X37.346 Y72.773 Z0 F1600
G1 X36.984 Y72.901 Z0 F1600
G1 X36.67 Y73.027 Z0 F1600
G1 X36.542 Y73.085 Z0 F1600
G1 X36.438 Y73.137 Z0 F1600
G1 X36.364 Y73.181 Z0 F1600
G1 X36.323 Y73.215 Z0 F1600
G1 X36.283 Y73.284 Z0 F1600
G1 X36.257 Y73.378 Z0 F1600
G1 X36.248 Y73.51 Z0 F1600
G1 X36.256 Y73.69 Z0 F1600
G1 X36.282 Y73.931 Z0 F1600
G1 X36.327 Y74.243 Z0 F1600
; --- FIX X Backlash ---
G0 X37.627 Y74.243 Z5 F1200
G1 X37.692 Y74.638 Z0 F1600
G1 X38.203 Y77.535 Z0 F1600
G1 X38.267 Y77.89 Z0 F1600
G1 X38.327 Y78.2 Z0 F1600
G1 X38.383 Y78.465 Z0 F1600
G1 X38.434 Y78.686 Z0 F1600
G1 X38.482 Y78.864 Z0 F1600
G1 X38.527 Y79.001 Z0 F1600
G1 X38.568 Y79.096 Z0 F1600
G1 X38.606 Y79.151 Z0 F1600
G1 X38.662 Y79.191 Z0 F1600
G1 X38.751 Y79.224 Z0 F1600
G1 X38.884 Y79.251 Z0 F1600
G1 X39.073 Y79.273 Z0 F1600
G1 X39.332 Y79.292 Z0 F1600
G1 X39.672 Y79.309 Z0 F1600
G1 X40.107 Y79.324 Z0 F1600
G1 X40.648 Y79.34 Z0 F1600
G1 X42.094 Y79.377 Z0 F1600
G1 X42.614 Y79.388 Z0 F1600
G1 X42.901 Y79.392 Z0 F1600
G1 X43.107 Y79.401 Z0 F1600
G1 X43.232 Y79.454 Z0 F1600
G1 X43.279 Y79.512 Z0 F1600
G1 X43.325 Y79.599 Z0 F1600
G1 X43.375 Y79.719 Z0 F1600
G1 X43.596 Y80.296 Z0 F1600
G1 X43.729 Y80.618 Z0 F1600
G1 X44.099 Y81.484 Z0 F1600
G1 X44.714 Y82.94 Z0 F1600
; --- FIX X Backlash ---
G0 X43.414 Y82.94 Z5 F1200
G1 X42.373 Y84.056 Z0 F1600
G1 X41.507 Y84.981 Z0 F1600
G1 X40.886 Y85.638 Z0 F1600
G1 X40.708 Y85.834 Z0 F1600
G1 X40.556 Y86.023 Z0 F1600
G1 X40.445 Y86.183 Z0 F1600
G1 X40.391 Y86.294 Z0 F1600
G1 X40.375 Y86.375 Z0 F1600
G1 X40.383 Y86.464 Z0 F1600
; --- FIX X Backlash ---
G0 X41.683 Y86.464 Z5 F1200
G1 X41.735 Y86.593 Z0 F1600
G1 X41.848 Y86.791 Z0 F1600
G1 X41.935 Y86.926 Z0 F1600
G1 X42.043 Y87.09 Z0 F1600
G1 X42.339 Y87.52 Z0 F1600
G1 X42.754 Y88.112 Z0 F1600
G1 X43.848 Y89.663 Z0 F1600
G1 X44.669 Y90.835 Z0 F1600
G1 X44.85 Y91.097 Z0 F1600
G1 X44.951 Y91.231 Z0 F1600
G1 X45.055 Y91.325 Z0 F1600
G1 X45.175 Y91.378 Z0 F1600
G1 X45.322 Y91.389 Z0 F1600
G1 X45.51 Y91.357 Z0 F1600
; --- FIX Y Backlash ---
G0 X45.51 Y89.957 Z5 F1200
G1 X45.749 Y89.882 Z0 F1600
G1 X46.053 Y89.764 Z0 F1600
G1 X46.432 Y89.6 Z0 F1600
G1 X46.883 Y89.4 Z0 F1600
G1 X47.379 Y89.176 Z0 F1600
G1 X47.935 Y88.923 Z0 F1600
G1 X49.518 Y88.196 Z0 F1600
; --- FIX Y Backlash ---
G0 X49.518 Y89.596 Z5 F1200
G1 X49.833 Y89.869 Z0 F1600
G1 X50.166 Y90.17 Z0 F1600
G1 X50.677 Y90.652 Z0 F1600
G1 X50.811 Y90.769 Z0 F1600
G1 X50.914 Y90.848 Z0 F1600
G1 X50.97 Y90.877 Z0 F1600
; --- FIX Y Backlash ---
G0 X50.97 Y89.477 Z5 F1200
G1 X51.044 Y89.409 Z0 F1600

; Color picking sequence
G1 Z10 F1000;         ; Raise brush
G0 X131 Y5 F1200;    ; Rapid move to color 1
G1 Z10 F1000;         ; Raise brush
G0 X131 Y5 F1200;    ; Rapid move to color 1
G1 Z0 F1000;         ; Lower into color
G1 X130.102 Y7.295 Z0 S800 F1200
G1 X130.026 Y7.642 Z0 F1200
G1 X130 Y8 Z0 F1200
G1 X130.026 Y8.358 Z0 F1200
G1 X130.102 Y8.705 Z0 F1200
G1 X130.225 Y9.041 Z0 F1200
G1 X130.393 Y9.362 Z0 F1200
G1 X130.603 Y9.668 Z0 F1200
G1 X130.854 Y9.957 Z0 F1200
G1 X131.142 Y10.226 Z0 F1200
G1 X131.464 Y10.475 Z0 F1200
G1 X131.82 Y10.701 Z0 F1200
G1 X132.204 Y10.902 Z0 F1200
G1 X132.617 Y11.078 Z0 F1200
G1 X133.054 Y11.225 Z0 F1200
G1 X133.513 Y11.343 Z0 F1200
G1 X133.992 Y11.429 Z0 F1200
G1 X134.489 Y11.482 Z0 F1200
G1 X135 Y11.5 Z0 F1200
G1 X135.511 Y11.482 Z0 F1200
G1 X136.008 Y11.429 Z0 F1200
G1 X136.487 Y11.343 Z0 F1200
G1 X136.946 Y11.225 Z0 F1200
G1 X137.383 Y11.078 Z0 F1200
G1 X137.796 Y10.902 Z0 F1200
G1 X138.18 Y10.701 Z0 F1200
G1 X138.536 Y10.475 Z0 F1200
G1 X138.858 Y10.226 Z0 F1200
G1 X139.146 Y9.957 Z0 F1200
G1 X139.397 Y9.668 Z0 F1200
G1 X139.607 Y9.362 Z0 F1200
G1 X139.775 Y9.041 Z0 F1200
G1 X139.898 Y8.705 Z0 F1200
G1 X139.974 Y8.358 Z0 F1200
G1 X140 Y8 Z0 F1200
G1 X139.974 Y7.642 Z0 F1200
G1 X139.898 Y7.295 Z0 F1200
G1 X139.775 Y6.959 Z0 F1200
G1 X139.607 Y6.638 Z0 F1200
G1 X139.397 Y6.332 Z0 F1200
G1 X139.146 Y6.043 Z0 F1200
G1 X138.858 Y5.774 Z0 F1200
G1 X138.536 Y5.525 Z0 F1200
G1 X138.18 Y5.299 Z0 F1200
G1 X137.796 Y5.098 Z0 F1200
G1 X137.383 Y4.922 Z0 F1200
G1 X136.946 Y4.775 Z0 F1200
G1 X136.487 Y4.657 Z0 F1200
G1 X136.008 Y4.571 Z0 F1200
G1 X135.511 Y4.518 Z0 F1200
G1 X135 Y4.5 Z0 F1200
G1 X134.489 Y4.518 Z0 F1200
G1 X133.992 Y4.571 Z0 F1200
G1 X133.513 Y4.657 Z0 F1200
G1 X133.054 Y4.775 Z0 F1200
G1 X132.617 Y4.922 Z0 F1200
G1 X132.204 Y5.098 Z0 F1200
G1 X131.82 Y5.299 Z0 F1200
G1 X131.464 Y5.525 Z0 F1200
G1 X131.142 Y5.774 Z0 F1200
G1 X130.854 Y6.043 Z0 F1200
G1 X130.603 Y6.332 Z0 F1200
G1 X130.393 Y6.638 Z0 F1200
G1 X130.225 Y6.959 Z0 F1200
G1 Z7 F800;         ; Raise from color
G1 X124 Y8 Z1 F1200;     ; Movement in paint
G1 X114 Y18 Z8 F500;     ; Move in paint
G1 F1200;           ; Set feed rate
G0 X51.044 Y89.409 F1200 ; Return
G1 Z0 F1000 ; Restore Z
G1 X51.126 Y89.245 Z0 F1600
G1 X51.246 Y88.957 Z0 F1600
G1 X51.411 Y88.591 Z0 F1600
G1 X51.875 Y87.585 Z0 F1600
G1 X52.348 Y86.543 Z0 F1600
G1 X52.739 Y85.666 Z0 F1600
G1 X52.836 Y85.437 Z0 F1600
G1 X52.885 Y85.259 Z0 F1600
G1 X52.882 Y85.108 Z0 F1600
; --- FIX X Backlash ---
G0 X51.582 Y85.108 Z5 F1200
G1 X51.52 Y84.958 Z0 F1600
G1 X51.396 Y84.785 Z0 F1600
G1 X51.308 Y84.681 Z0 F1600
G1 X50.935 Y84.264 Z0 F1600
G1 X50.345 Y83.582 Z0 F1600
G1 X49.791 Y82.897 Z0 F1600
G1 X49.271 Y82.207 Z0 F1600
G1 X48.786 Y81.511 Z0 F1600
G1 X48.334 Y80.808 Z0 F1600
G1 X47.916 Y80.096 Z0 F1600
G1 X47.53 Y79.375 Z0 F1600
G1 X47.176 Y78.642 Z0 F1600
G1 X46.854 Y77.898 Z0 F1600
G1 X46.562 Y77.139 Z0 F1600
G1 X46.3 Y76.366 Z0 F1600
G1 X46.068 Y75.576 Z0 F1600
G1 X45.864 Y74.769 Z0 F1600
G1 X45.689 Y73.942 Z0 F1600
G1 X45.542 Y73.096 Z0 F1600
G1 X45.422 Y72.228 Z0 F1600
G1 X45.396 Y71.97 Z0 F1600
G1 X45.376 Y71.673 Z0 F1600
G1 X45.361 Y71.344 Z0 F1600
G1 X45.352 Y70.987 Z0 F1600
G1 X45.348 Y70.212 Z0 F1600
G1 X45.364 Y69.391 Z0 F1600
G1 X45.397 Y68.567 Z0 F1600
; --- FIX X Backlash ---
G0 X46.697 Y68.567 Z5 F1200
G1 X46.748 Y67.784 Z0 F1600
G1 X46.779 Y67.421 Z0 F1600
G1 X46.813 Y67.083 Z0 F1600
G1 X46.852 Y66.778 Z0 F1600
G1 X46.893 Y66.509 Z0 F1600
G1 X47.157 Y65.203 Z0 F1600
G1 X47.484 Y63.949 Z0 F1600
G1 X47.877 Y62.739 Z0 F1600
G1 X48.338 Y61.569 Z0 F1600
G1 X48.872 Y60.432 Z0 F1600
G1 X49.479 Y59.321 Z0 F1600
G1 X50.163 Y58.231 Z0 F1600
G1 X50.927 Y57.155 Z0 F1600
G1 X51.079 Y56.96 Z0 F1600
G1 X51.262 Y56.737 Z0 F1600
G1 X51.472 Y56.491 Z0 F1600
G1 X51.704 Y56.226 Z0 F1600
G1 X52.219 Y55.657 Z0 F1600
G1 X52.773 Y55.067 Z0 F1600
G1 X53.331 Y54.492 Z0 F1600
G1 X53.859 Y53.967 Z0 F1600
G1 X54.101 Y53.735 Z0 F1600
G1 X54.322 Y53.529 Z0 F1600
G1 X54.519 Y53.354 Z0 F1600
G1 X54.842 Y53.084 Z0 F1600
G1 X54.97 Y52.969 Z0 F1600
G1 X55.056 Y52.88 Z0 F1600
G1 X55.088 Y52.83 Z0 F1600
G1 X55.08 Y52.803 Z0 F1600
G0 Z3.5 F1000
; --- FIX Y Backlash ---
G0 X55.08 Y54.203 Z5 F1200
G0 X58.902 Y90.539 Z3.5
G1 Z0 F1000
G1 X58.878 Y90.555 Z0 F1600
G1 X58.835 Y90.601 Z0 F1600
; --- FIX X Backlash ---
G0 X57.535 Y90.601 Z5 F1200
G1 X57.475 Y90.673 Z0 F1600
G1 X57.401 Y90.769 Z0 F1600
G1 X57.218 Y91.017 Z0 F1600
G1 X57.008 Y91.321 Z0 F1600
G1 X56.791 Y91.64 Z0 F1600
G1 X56.502 Y92.061 Z0 F1600
G1 X56.271 Y92.389 Z0 F1600
G1 X55.701 Y93.215 Z0 F1600
G1 X54.554 Y94.895 Z0 F1600
G1 X53.786 Y96.012 Z0 F1600
G1 X52.88 Y97.319 Z0 F1600
G1 X52.647 Y97.668 Z0 F1600
G1 X52.559 Y97.804 Z0 F1600
G1 X52.494 Y97.909 Z0 F1600
G1 X52.456 Y97.977 Z0 F1600
G1 X52.447 Y98.004 Z0 F1600
; --- FIX X Backlash ---
G0 X53.747 Y98.004 Z5 F1200
G1 X53.816 Y98.051 Z0 F1600
G1 X53.941 Y98.122 Z0 F1600
G1 X54.113 Y98.214 Z0 F1600
G1 X54.326 Y98.324 Z0 F1600
G1 X54.838 Y98.578 Z0 F1600
G1 X55.413 Y98.855 Z0 F1600
G1 X55.987 Y99.124 Z0 F1600
G1 X56.494 Y99.354 Z0 F1600
G1 X56.702 Y99.445 Z0 F1600
G1 X56.87 Y99.514 Z0 F1600
G1 X56.989 Y99.559 Z0 F1600
G1 X57.051 Y99.575 Z0 F1600
G1 X57.177 Y99.55 Z0 F1600
; --- FIX Y Backlash ---
G0 X57.177 Y98.15 Z5 F1200
G1 X57.31 Y98.065 Z0 F1600
G1 X57.385 Y97.995 Z0 F1600
G1 X57.469 Y97.903 Z0 F1600
G1 X57.565 Y97.788 Z0 F1600
G1 X58.061 Y97.15 Z0 F1600
G1 X58.806 Y96.225 Z0 F1600
G1 X59.413 Y95.445 Z0 F1600
G1 X59.58 Y95.234 Z0 F1600
G1 X59.711 Y95.072 Z0 F1600
G1 X59.902 Y94.853 Z0 F1600
G1 X60.021 Y94.696 Z0 F1600
G1 X60.094 Y94.607 Z0 F1600
G1 X60.164 Y94.567 Z0 F1600
G1 X60.254 Y94.57 Z0 F1600
; --- FIX Y Backlash ---
G0 X60.254 Y95.97 Z5 F1200
G1 X60.611 Y96.092 Z0 F1600
G1 X60.933 Y96.185 Z0 F1600
G1 X61.318 Y96.287 Z0 F1600

; Color picking sequence
G1 Z10 F1000;         ; Raise brush
G0 X131 Y5 F1200;    ; Rapid move to color 1
G1 Z10 F1000;         ; Raise brush
G0 X131 Y5 F1200;    ; Rapid move to color 1
G1 Z0 F1000;         ; Lower into color
G1 X130.102 Y7.295 Z0 S800 F1200
G1 X130.026 Y7.642 Z0 F1200
G1 X130 Y8 Z0 F1200
G1 X130.026 Y8.358 Z0 F1200
G1 X130.102 Y8.705 Z0 F1200
G1 X130.225 Y9.041 Z0 F1200
G1 X130.393 Y9.362 Z0 F1200
G1 X130.603 Y9.668 Z0 F1200
G1 X130.854 Y9.957 Z0 F1200
G1 X131.142 Y10.226 Z0 F1200
G1 X131.464 Y10.475 Z0 F1200
G1 X131.82 Y10.701 Z0 F1200
G1 X132.204 Y10.902 Z0 F1200
G1 X132.617 Y11.078 Z0 F1200
G1 X133.054 Y11.225 Z0 F1200
G1 X133.513 Y11.343 Z0 F1200
G1 X133.992 Y11.429 Z0 F1200
G1 X134.489 Y11.482 Z0 F1200
G1 X135 Y11.5 Z0 F1200
G1 X135.511 Y11.482 Z0 F1200
G1 X136.008 Y11.429 Z0 F1200
G1 X136.487 Y11.343 Z0 F1200
G1 X136.946 Y11.225 Z0 F1200
G1 X137.383 Y11.078 Z0 F1200
G1 X137.796 Y10.902 Z0 F1200
G1 X138.18 Y10.701 Z0 F1200
G1 X138.536 Y10.475 Z0 F1200
G1 X138.858 Y10.226 Z0 F1200
G1 X139.146 Y9.957 Z0 F1200
G1 X139.397 Y9.668 Z0 F1200
G1 X139.607 Y9.362 Z0 F1200
G1 X139.775 Y9.041 Z0 F1200
G1 X139.898 Y8.705 Z0 F1200
G1 X139.974 Y8.358 Z0 F1200
G1 X140 Y8 Z0 F1200
G1 X139.974 Y7.642 Z0 F1200
G1 X139.898 Y7.295 Z0 F1200
G1 X139.775 Y6.959 Z0 F1200
G1 X139.607 Y6.638 Z0 F1200
G1 X139.397 Y6.332 Z0 F1200
G1 X139.146 Y6.043 Z0 F1200
G1 X138.858 Y5.774 Z0 F1200
G1 X138.536 Y5.525 Z0 F1200
G1 X138.18 Y5.299 Z0 F1200
G1 X137.796 Y5.098 Z0 F1200
G1 X137.383 Y4.922 Z0 F1200
G1 X136.946 Y4.775 Z0 F1200
G1 X136.487 Y4.657 Z0 F1200
G1 X136.008 Y4.571 Z0 F1200
G1 X135.511 Y4.518 Z0 F1200
G1 X135 Y4.5 Z0 F1200
G1 X134.489 Y4.518 Z0 F1200
G1 X133.992 Y4.571 Z0 F1200
G1 X133.513 Y4.657 Z0 F1200
G1 X133.054 Y4.775 Z0 F1200
G1 X132.617 Y4.922 Z0 F1200
G1 X132.204 Y5.098 Z0 F1200
G1 X131.82 Y5.299 Z0 F1200
G1 X131.464 Y5.525 Z0 F1200
G1 X131.142 Y5.774 Z0 F1200
G1 X130.854 Y6.043 Z0 F1200
G1 X130.603 Y6.332 Z0 F1200
G1 X130.393 Y6.638 Z0 F1200
G1 X130.225 Y6.959 Z0 F1200
G1 Z7 F800;         ; Raise from color
G1 X124 Y8 Z1 F1200;     ; Movement in paint
G1 X114 Y18 Z8 F500;     ; Move in paint
G1 F1200;           ; Set feed rate
G0 X61.318 Y96.287 F1200 ; Return
G1 Z0 F1000 ; Restore Z
G1 X61.737 Y96.39 Z0 F1600
G1 X62.16 Y96.487 Z0 F1600
G1 X62.557 Y96.57 Z0 F1600
G1 X62.899 Y96.634 Z0 F1600
G1 X63.155 Y96.671 Z0 F1600
G1 X63.418 Y96.706 Z0 F1600
G1 X63.602 Y96.749 Z0 F1600
G1 X63.722 Y96.806 Z0 F1600
G1 X63.789 Y96.88 Z0 F1600
G1 X63.814 Y96.953 Z0 F1600
G1 X63.853 Y97.104 Z0 F1600
G1 X63.906 Y97.323 Z0 F1600
G1 X63.968 Y97.6 Z0 F1600
G1 X64.04 Y97.928 Z0 F1600
G1 X64.117 Y98.296 Z0 F1600
G1 X64.2 Y98.695 Z0 F1600
G1 X64.376 Y99.568 Z0 F1600
G1 X64.462 Y99.977 Z0 F1600
G1 X64.543 Y100.339 Z0 F1600
G1 X64.616 Y100.649 Z0 F1600
G1 X64.681 Y100.903 Z0 F1600
G1 X64.736 Y101.095 Z0 F1600
G1 X64.78 Y101.22 Z0 F1600
G1 X64.812 Y101.274 Z0 F1600
G1 X64.839 Y101.281 Z0 F1600
G1 X64.897 Y101.288 Z0 F1600
G1 X64.983 Y101.295 Z0 F1600
G1 X65.097 Y101.302 Z0 F1600
G1 X65.399 Y101.314 Z0 F1600
G1 X65.79 Y101.325 Z0 F1600
G1 X66.257 Y101.334 Z0 F1600
G1 X66.787 Y101.34 Z0 F1600
G1 X67.367 Y101.345 Z0 F1600
G1 X67.984 Z0 F1600
G1 X71.043 Y101.348 Z0 F1600
; --- FIX Y Backlash ---
G0 X71.043 Y99.948 Z5 F1200
G1 X71.167 Y99.758 Z0 F1600
G1 X71.226 Y99.624 Z0 F1600
G1 X71.296 Y99.401 Z0 F1600
G1 X71.368 Y99.118 Z0 F1600
G1 X71.433 Y98.808 Z0 F1600
G1 X71.728 Y97.283 Z0 F1600
G1 X72.113 Y95.35 Z0 F1600
G1 X72.868 Y95.245 Z0 F1600
G1 X73.042 Y95.218 Z0 F1600
G1 X73.247 Y95.181 Z0 F1600
G1 X73.476 Y95.137 Z0 F1600
G1 X73.722 Y95.086 Z0 F1600
G1 X74.232 Y94.972 Z0 F1600
G1 X74.716 Y94.853 Z0 F1600
G1 X75.811 Y94.565 Z0 F1600
; --- FIX Y Backlash ---
G0 X75.811 Y95.965 Z5 F1200
G1 X76.093 Y96.327 Z0 F1600
G1 X76.704 Y97.098 Z0 F1600
G1 X77.229 Y97.765 Z0 F1600
G1 X77.983 Y98.744 Z0 F1600
G1 X78.197 Y99.015 Z0 F1600
G1 X78.368 Y99.222 Z0 F1600
G1 X78.505 Y99.372 Z0 F1600
G1 X78.616 Y99.473 Z0 F1600
G1 X78.71 Y99.535 Z0 F1600
G1 X78.795 Y99.566 Z0 F1600
G1 X78.879 Y99.575 Z0 F1600
G1 X78.957 Y99.558 Z0 F1600
G1 X79.092 Y99.509 Z0 F1600
; --- FIX Y Backlash ---
G0 X79.092 Y98.109 Z5 F1200
G1 X79.276 Y98.034 Z0 F1600
G1 X79.5 Y97.936 Z0 F1600
G1 X80.035 Y97.688 Z0 F1600
G1 X80.628 Y97.401 Z0 F1600
G1 X81.209 Y97.107 Z0 F1600
G1 X81.71 Y96.843 Z0 F1600
G1 X81.908 Y96.732 Z0 F1600
G1 X82.061 Y96.641 Z0 F1600
G1 X82.159 Y96.574 Z0 F1600
G1 X82.193 Y96.536 Z0 F1600
G1 X82.159 Y96.441 Z0 F1600
; --- FIX X Backlash ---
G0 X80.859 Y96.441 Z5 F1200
G1 X80.777 Y96.324 Z0 F1600
G1 X80.74 Y96.276 Z0 F1600
G1 X80.586 Y96.067 Z0 F1600
G1 X80.212 Y95.545 Z0 F1600
G1 X79.59 Y94.661 Z0 F1600
G1 X79.151 Y94.03 Z0 F1600
G1 X78.923 Y93.698 Z0 F1600
G1 X78.575 Y93.184 Z0 F1600
G1 X77.942 Y92.273 Z0 F1600
G1 X77.487 Y91.609 Z0 F1600
G1 X76.894 Y90.738 Z0 F1600
G1 X76.169 Y89.667 Z0 F1600
G1 X76.024 Y89.462 Z0 F1600
G1 X75.893 Y89.295 Z0 F1600
G1 X75.789 Y89.181 Z0 F1600
G1 X75.728 Y89.139 Z0 F1600
G1 X75.649 Y89.16 Z0 F1600
; --- FIX Y Backlash ---
G0 X75.649 Y90.56 Z5 F1200
G1 X75.494 Y90.616 Z0 F1600
G1 X75.287 Y90.699 Z0 F1600
G1 X75.049 Y90.801 Z0 F1600
G1 X74.43 Y91.051 Z0 F1600
G1 X73.735 Y91.295 Z0 F1600
G1 X72.985 Y91.527 Z0 F1600
G1 X72.203 Y91.741 Z0 F1600
G1 X71.412 Y91.932 Z0 F1600
G1 X70.633 Y92.094 Z0 F1600
G1 X69.89 Y92.221 Z0 F1600
G1 X69.204 Y92.307 Z0 F1600
G1 X68.663 Y92.348 Z0 F1600
G1 X68.044 Y92.376 Z0 F1600
G1 X67.374 Y92.391 Z0 F1600
G1 X66.677 Z0 F1600
G1 X65.978 Y92.381 Z0 F1600
G1 X65.302 Y92.356 Z0 F1600
G1 X64.674 Y92.319 Z0 F1600
G1 X64.119 Y92.269 Z0 F1600
; --- FIX Y Backlash ---
G0 X64.119 Y90.869 Z5 F1200
G1 X63.332 Y90.767 Z0 F1600
G1 X62.533 Y90.635 Z0 F1600
G1 X61.734 Y90.474 Z0 F1600
G1 X60.947 Y90.288 Z0 F1600
G1 X60.183 Y90.081 Z0 F1600
G1 X59.455 Y89.854 Z0 F1600
G1 X58.775 Y89.612 Z0 F1600
G1 X58.155 Y89.356 Z0 F1600
G1 X57.96 Y89.272 Z0 F1600
G1 X57.791 Y89.203 Z0 F1600
G1 X57.666 Y89.157 Z0 F1600
G1 X57.602 Y89.139 Z0 F1600
M9
M5
G1 Z10 F1000
G1 Z10 F800


; Return to 2,0 wash and park
G1 Z10 F1000;        ; Raise brush
G0 X5 Y5 F1200;     ; Rapid move to clean
G1 Z-1 F800;         ; Lower brush
G1 X10 Y12 Z8 F1200;     ; Move
G1 Z-1 F800;         ; Lower
G1 X25 Y14 Z6 F800;     ; Move
G0 X5 Y5 F1200;     ; Rapid
G1 Z-1 F800;         ; Lower
G1 X15 Y12 Z8 F1200;     ; Move
G1 Z-1 F800;         ; Lower
G1 X25 Y14 Z6 F800;     ; Move
G1 Z10 F800;         ; Maintain
G0 X20 Y130 Z10 F500;; Move to park
M2;                 ; End program
