
G0 Z10 F500;      ; Move to clearance level
; G0 X-10 Y-10 F1200; Homing
; G0 X-5 Y-5 F1200; go in
; G10 P0 L20 X0 Y0; set to zero
G1 F1200;           ; Set feed rate
G90 ; Force absolute mode
;LightBurn 1.6.04
;Custom GCode device profile, absolute coords
;Bounds: X8.71 Y35.21 to X73.94 Y129.14
G00 G17 G40 G21 G54
M3
G1 Z10 F1000

; Washing sequence (no color)
G1 Z10 F1000;        ; Raise brush
G0 X5 Y5 F1200;     ; Rapid move to clean
G1 Z-1 F800;         ; Lower brush
G1 X10 Y12 Z8 F1200;     ; Move
G1 Z-1 F800;         ; Lower
G1 X25 Y14 Z6 F800;     ; Move
G1 Z8 F800;         ; Maintain
G0 X5 Y5 F1200;     ; Rapid
G1 Z-1 F800;         ; Lower
G1 X15 Y12 Z8 F1200;     ; Move
G1 Z-1 F800;         ; Lower
G1 X25 Y14 Z6 F800;     ; Move
G1 Z10 F800;         ; Maintain
G1 F1200;           ; Set feed
G0 Z2.5 F1000 ; Safety Lift
;Scan @ 1500 mm/min, 80% power

M8
G0 Z3.5 F1000
G0 X9.034 Y35.693 Z3.5
G1 Z0 F1000
;Layer Wash
G1 X9.616 S800 F1600
G0 Z2.5 F500 ; Lift S=0
G1 X12.031 S0 F1600
G0 Z0 F500 ; Drop S>0
G1 X12.431 S800 F1600
G0 Z2.5 F500 ; Lift S=0
G1 X12.6 S0 F1600
G0 Z0 F500 ; Drop S>0
G1 X13.212 S800 F1600
G0 Z2.5 F500 ; Lift S=0
G1 X14.799 S0 F1600
G0 Z0 F500 ; Drop S>0
G1 X15.681 S800 F1600
G0 Z2.5 F500 ; Lift S=0
G1 X16.205 S0 F1600
G0 Z0 F500 ; Drop S>0
G1 X17.412 S800 F1600
G0 Z2.5 F500 ; Lift S=0
G1 X18.269 S0 F1600
G0 Z0 F500 ; Drop S>0
G1 X18.382 S800 F1600
G0 Z2.5 F500 ; Lift S=0
G1 X19.001 S0 F1600
G0 Z0 F500 ; Drop S>0
G1 X20.568 S800 F1600
G0 Z2.5 F500 ; Lift S=0
G1 X25.81 S0 F1600
G0 Z0 F500 ; Drop S>0
G1 X26.696 S800 F1600
G0 Z2.5 F500 ; Lift S=0
G1 X29.741 S0 F1600
G0 Z0 F500 ; Drop S>0
G1 X33.994 S800 F1600
G0 Z2.5 F500 ; Lift S=0
G1 X42.31 S0 F1600
G0 Z0 F500 ; Drop S>0
G1 X73.467 S800 F1600
G0 Z2.5 F500 ; Lift S=0
G1 X73.599 Y36.593 S0 F1600
G0 Z0 F500 ; Drop S>0
; --- FIX X Backlash ---
G0 X72.299 Y36.593 F1200
G1 X41.487 S800 F1600
G0 Z2.5 F500 ; Lift S=0
G1 X41.406 S0 F1600
G0 Z0 F500 ; Drop S>0
G1 X40.408 S800 F1600
G0 Z2.5 F500 ; Lift S=0
G1 X40.332 S0 F1600
G0 Z0 F500 ; Drop S>0
G1 X40.17 S800 F1600
G0 Z2.5 F500 ; Lift S=0
G1 X35.821 S0 F1600
G0 Z0 F500 ; Drop S>0
G1 X35.736 S800 F1600
G0 Z2.5 F500 ; Lift S=0
G1 X33.89 S0 F1600
G0 Z0 F500 ; Drop S>0
G1 X27.6 S800 F1600
G0 Z2.5 F500 ; Lift S=0
G1 X26.576 S0 F1600
G0 Z0 F500 ; Drop S>0
G1 X24.754 S800 F1600
G0 Z2.5 F500 ; Lift S=0
G1 X23.225 S0 F1600
G0 Z0 F500 ; Drop S>0
G1 X19.223 S800 F1600
G0 Z2.5 F500 ; Lift S=0
G1 X17.32 S0 F1600
G0 Z0 F500 ; Drop S>0
G1 X16.98 S800 F1600
G0 Z2.5 F500 ; Lift S=0
G1 X16.885 S0 F1600
G0 Z0 F500 ; Drop S>0
G1 X15.19 S800 F1600
G0 Z2.5 F500 ; Lift S=0
G1 X14.76 S0 F1600
G0 Z0 F500 ; Drop S>0
G1 X13.619 S800 F1600
G0 Z2.5 F500 ; Lift S=0
G1 X12.01 S0 F1600
G0 Z0 F500 ; Drop S>0
G1 X10.926 S800 F1600
G0 Z2.5 F500 ; Lift S=0
G1 X7.925 Y37.493 S0 F1600
G0 Z0 F500 ; Drop S>0
; --- FIX X Backlash ---
G0 X9.225 Y37.493 F1200
G1 X10.048 S800 F1600
G0 Z2.5 F500 ; Lift S=0
G1 X11.402 S0 F1600
G0 Z0 F500 ; Drop S>0
G1 X11.857 S800 F1600
G0 Z2.5 F500 ; Lift S=0
G1 X12.074 S0 F1600
G0 Z0 F500 ; Drop S>0
G1 X12.271 S800 F1600
G0 Z2.5 F500 ; Lift S=0
G1 X12.451 S0 F1600
G0 Z0 F500 ; Drop S>0
G1 X13.663 S800 F1600
G0 Z2.5 F500 ; Lift S=0
G1 X15.063 S0 F1600
G0 Z0 F500 ; Drop S>0
G1 X16.153 S800 F1600
G0 Z2.5 F500 ; Lift S=0
G1 X16.782 S0 F1600
G0 Z0 F500 ; Drop S>0
G1 X17.904 S800 F1600
G0 Z2.5 F500 ; Lift S=0
G1 X18.142 S0 F1600
G0 Z0 F500 ; Drop S>0
G1 X18.932 S800 F1600
G0 Z2.5 F500 ; Lift S=0
G1 X19.393 S0 F1600
G0 Z0 F500 ; Drop S>0
G1 X20.027 S800 F1600
G0 Z2.5 F500 ; Lift S=0
G1 X20.571 S0 F1600
G0 Z0 F500 ; Drop S>0
G1 X21.696 S800 F1600
G0 Z2.5 F500 ; Lift S=0
G1 X22.931 S0 F1600
G0 Z0 F500 ; Drop S>0
G1 X31.482 S800 F1600
G0 Z2.5 F500 ; Lift S=0
G1 X31.754 S0 F1600
G0 Z0 F500 ; Drop S>0
G1 X73.606 S800 F1600
G0 Z2.5 F500 ; Lift S=0
G1 X73.602 Y38.393 S0 F1600
G0 Z0 F500 ; Drop S>0
; --- FIX X Backlash ---
G0 X72.302 Y38.393 F1200
G1 X30.531 S800 F1600
G0 Z2.5 F500 ; Lift S=0
G1 X28.528 S0 F1600
G0 Z0 F500 ; Drop S>0
G1 X25.381 S800 F1600
G0 Z2.5 F500 ; Lift S=0
G1 X22.733 S0 F1600
G0 Z0 F500 ; Drop S>0
G1 X22.593 S800 F1600
G0 Z2.5 F500 ; Lift S=0
G1 X20.36 S0 F1600
G0 Z0 F500 ; Drop S>0
G1 X19.584 S800 F1600
G0 Z2.5 F500 ; Lift S=0
G1 X18.814 S0 F1600
G0 Z0 F500 ; Drop S>0
G1 X18.227 S800 F1600
G0 Z2.5 F500 ; Lift S=0
G1 X16.58 S0 F1600
G0 Z0 F500 ; Drop S>0
G1 X16.067 S800 F1600
G0 Z2.5 F500 ; Lift S=0
G1 X15.147 S0 F1600
G0 Z0 F500 ; Drop S>0
G1 X14.093 S800 F1600
G0 Z2.5 F500 ; Lift S=0
G1 X13.345 S0 F1600
G0 Z0 F500 ; Drop S>0
G1 X10.241 S800 F1600
G0 Z2.5 F500 ; Lift S=0
G1 X8.796 S0 F1600
G0 Z0 F500 ; Drop S>0
G1 X7.755 S800 F1600
G0 Z2.5 F500 ; Lift S=0
G1 X7.752 Y39.293 S0 F1600
G0 Z0 F500 ; Drop S>0
; --- FIX X Backlash ---
G0 X9.052 Y39.293 F1200
G1 X9.595 S800 F1600
G0 Z2.5 F500 ; Lift S=0
G1 X9.696 S0 F1600
G0 Z0 F500 ; Drop S>0
G1 X10.046 S800 F1600
G0 Z2.5 F500 ; Lift S=0
G1 X11.799 S0 F1600
G0 Z0 F500 ; Drop S>0
G1 X12.748 S800 F1600
G0 Z2.5 F500 ; Lift S=0
G1 X13.283 S0 F1600
G0 Z0 F500 ; Drop S>0
G1 X15.011 S800 F1600
G0 Z2.5 F500 ; Lift S=0
G1 X16.021 S0 F1600
G0 Z0 F500 ; Drop S>0
G1 X16.849 S800 F1600
G0 Z2.5 F500 ; Lift S=0
G1 X17.679 S0 F1600
G0 Z0 F500 ; Drop S>0
G1 X18.902 S800 F1600
G0 Z2.5 F500 ; Lift S=0
G1 X19.881 S0 F1600
G0 Z0 F500 ; Drop S>0
G1 X20.219 S800 F1600
G0 Z2.5 F500 ; Lift S=0
G1 X21.029 S0 F1600
G0 Z0 F500 ; Drop S>0
G1 X27.96 S800 F1600
G0 Z2.5 F500 ; Lift S=0
G1 X29.788 S0 F1600
G0 Z0 F500 ; Drop S>0
G1 X73.521 S800 F1600
G0 Z2.5 F500 ; Lift S=0
; --- FIX X Backlash ---
G0 X72.221 Y39.293 F1200
G1 X71.691 Y40.193 S0 F1600
G0 Z0 F500 ; Drop S>0
G1 X71.41 S800 F1600
G0 Z2.5 F500 ; Lift S=0
G1 X70.759 S0 F1600
G0 Z0 F500 ; Drop S>0
G1 X70.647 S800 F1600
G0 Z2.5 F500 ; Lift S=0
G1 X70.184 S0 F1600
G0 Z0 F500 ; Drop S>0
G1 X68.442 S800 F1600
G0 Z2.5 F500 ; Lift S=0
G1 X67.918 S0 F1600
G0 Z0 F500 ; Drop S>0
G1 X45.601 S800 F1600
G0 Z2.5 F500 ; Lift S=0
G1 X44.94 S0 F1600
G0 Z0 F500 ; Drop S>0
G1 X26.503 S800 F1600
G0 Z2.5 F500 ; Lift S=0
G1 X25.556 S0 F1600
G0 Z0 F500 ; Drop S>0
G1 X20.062 S800 F1600
G0 Z2.5 F500 ; Lift S=0

; Washing sequence (no color)
G1 Z10 F1000;        ; Raise brush
G0 X5 Y5 F1200;     ; Rapid move to clean
G1 Z-1 F800;         ; Lower brush
G1 X10 Y12 Z8 F1200;     ; Move
G1 Z-1 F800;         ; Lower
G1 X25 Y14 Z6 F800;     ; Move
G1 Z8 F800;         ; Maintain
G0 X5 Y5 F1200;     ; Rapid
G1 Z-1 F800;         ; Lower
G1 X15 Y12 Z8 F1200;     ; Move
G1 Z-1 F800;         ; Lower
G1 X25 Y14 Z6 F800;     ; Move
G1 Z10 F800;         ; Maintain
G1 F1200;           ; Set feed
G0 Z2.5 F1000 ; Safety Lift
G0 X20.062 Y40.193 F1200 ; Return to pos
G1 X19.086 S0 F1600
G0 Z0 F500 ; Drop S>0
G1 X18.637 S800 F1600
G0 Z2.5 F500 ; Lift S=0
G1 X18.021 S0 F1600
G0 Z0 F500 ; Drop S>0
G1 X17.834 S800 F1600
G0 Z2.5 F500 ; Lift S=0
G1 X15.966 S0 F1600
G0 Z0 F500 ; Drop S>0
G1 X14.966 S800 F1600
G0 Z2.5 F500 ; Lift S=0
G1 X13.9 S0 F1600
G0 Z0 F500 ; Drop S>0
G1 X12.449 S800 F1600
G0 Z2.5 F500 ; Lift S=0
G1 X11.531 S0 F1600
G0 Z0 F500 ; Drop S>0
G1 X10.795 S800 F1600
G0 Z2.5 F500 ; Lift S=0
G1 X7.742 Y41.093 S0 F1600
G0 Z0 F500 ; Drop S>0
; --- FIX X Backlash ---
G0 X9.042 Y41.093 F1200
G1 X9.794 S800 F1600
G0 Z2.5 F500 ; Lift S=0
G1 X12.37 S0 F1600
G0 Z0 F500 ; Drop S>0
G1 X13.192 S800 F1600
G0 Z2.5 F500 ; Lift S=0
G1 X14.349 S0 F1600
G0 Z0 F500 ; Drop S>0
G1 X15.452 S800 F1600
G0 Z2.5 F500 ; Lift S=0
G1 X16.39 S0 F1600
G0 Z0 F500 ; Drop S>0
G1 X17.731 S800 F1600
G0 Z2.5 F500 ; Lift S=0
G1 X18.581 S0 F1600
G0 Z0 F500 ; Drop S>0
G1 X19.46 S800 F1600
G0 Z2.5 F500 ; Lift S=0
G1 X21.516 S0 F1600
G0 Z0 F500 ; Drop S>0
G1 X21.888 S800 F1600
G0 Z2.5 F500 ; Lift S=0
G1 X23.139 S0 F1600
G0 Z0 F500 ; Drop S>0
G1 X23.814 S800 F1600
G0 Z2.5 F500 ; Lift S=0
G1 X25.458 S0 F1600
G0 Z0 F500 ; Drop S>0
G1 X29.479 S800 F1600
G0 Z2.5 F500 ; Lift S=0
G1 X35.704 S0 F1600
G0 Z0 F500 ; Drop S>0
G1 X38.967 S800 F1600
G0 Z2.5 F500 ; Lift S=0
G1 X39.545 S0 F1600
G0 Z0 F500 ; Drop S>0
G1 X67.959 S800 F1600
G0 Z2.5 F500 ; Lift S=0
G1 X68.488 S0 F1600
G0 Z0 F500 ; Drop S>0
G1 X68.93 S800 F1600
G0 Z2.5 F500 ; Lift S=0
G1 X69.514 S0 F1600
G0 Z0 F500 ; Drop S>0
G1 X69.943 S800 F1600
G0 Z2.5 F500 ; Lift S=0
G1 X70.761 S0 F1600
G0 Z0 F500 ; Drop S>0
G1 X71.136 S800 F1600
G0 Z2.5 F500 ; Lift S=0
G1 X71.421 S0 F1600
G0 Z0 F500 ; Drop S>0
G1 X71.663 S800 F1600
G0 Z2.5 F500 ; Lift S=0
G1 X71.988 S0 F1600
G0 Z0 F500 ; Drop S>0
G1 X72.204 S800 F1600
G0 Z2.5 F500 ; Lift S=0
G1 X72.668 S0 F1600
G0 Z0 F500 ; Drop S>0
G1 X73.591 S800 F1600
G0 Z2.5 F500 ; Lift S=0
; --- FIX X Backlash ---
G0 X72.291 Y41.093 F1200
G1 X72.025 Y41.993 S0 F1600
G0 Z0 F500 ; Drop S>0
G1 X36.227 S800 F1600
G0 Z2.5 F500 ; Lift S=0
G1 X35.93 S0 F1600
G0 Z0 F500 ; Drop S>0
G1 X33.261 S800 F1600
G0 Z2.5 F500 ; Lift S=0
G1 X32.917 S0 F1600
G0 Z0 F500 ; Drop S>0
G1 X29.629 S800 F1600
G0 Z2.5 F500 ; Lift S=0
G1 X26.943 S0 F1600
G0 Z0 F500 ; Drop S>0
G1 X24.263 S800 F1600
G0 Z2.5 F500 ; Lift S=0
G1 X22.55 S0 F1600
G0 Z0 F500 ; Drop S>0
G1 X21.788 S800 F1600
G0 Z2.5 F500 ; Lift S=0
G1 X21.516 S0 F1600
G0 Z0 F500 ; Drop S>0
G1 X20.676 S800 F1600
G0 Z2.5 F500 ; Lift S=0
G1 X19.824 S0 F1600
G0 Z0 F500 ; Drop S>0
G1 X19.327 S800 F1600
G0 Z2.5 F500 ; Lift S=0
G1 X19.076 S0 F1600
G0 Z0 F500 ; Drop S>0
G1 X18.858 S800 F1600
G0 Z2.5 F500 ; Lift S=0
G1 X18.597 S0 F1600
G0 Z0 F500 ; Drop S>0
G1 X17.79 S800 F1600
G0 Z2.5 F500 ; Lift S=0
G1 X16.921 S0 F1600
G0 Z0 F500 ; Drop S>0
G1 X13.661 S800 F1600
G0 Z2.5 F500 ; Lift S=0
G1 X12.282 S0 F1600
G0 Z0 F500 ; Drop S>0
G1 X11.313 S800 F1600
G0 Z2.5 F500 ; Lift S=0
; --- FIX X Backlash ---
G0 X12.613 Y41.993 F1200
G1 X12.771 Y42.893 S0 F1600
G0 Z0 F500 ; Drop S>0
G1 X13.965 S800 F1600
G0 Z2.5 F500 ; Lift S=0
G1 X15.58 S0 F1600
G0 Z0 F500 ; Drop S>0
G1 X16.319 S800 F1600
G0 Z2.5 F500 ; Lift S=0
G1 X17.419 S0 F1600
G0 Z0 F500 ; Drop S>0
G1 X18.677 S800 F1600
G0 Z2.5 F500 ; Lift S=0
G1 X19.526 S0 F1600
G0 Z0 F500 ; Drop S>0
G1 X20.244 S800 F1600
G0 Z2.5 F500 ; Lift S=0
G1 X21.152 S0 F1600
G0 Z0 F500 ; Drop S>0
G1 X21.499 S800 F1600
G0 Z2.5 F500 ; Lift S=0
G1 X22.961 S0 F1600
G0 Z0 F500 ; Drop S>0
G1 X27.977 S800 F1600
G0 Z2.5 F500 ; Lift S=0
G1 X30.68 S0 F1600
G0 Z0 F500 ; Drop S>0
G1 X33.255 S800 F1600
G0 Z2.5 F500 ; Lift S=0
G1 X34.259 S0 F1600
G0 Z0 F500 ; Drop S>0
G1 X34.698 S800 F1600
G0 Z2.5 F500 ; Lift S=0
G1 X36.269 S0 F1600
G0 Z0 F500 ; Drop S>0
G1 X37.052 S800 F1600
G0 Z2.5 F500 ; Lift S=0
G1 X38.403 S0 F1600
G0 Z0 F500 ; Drop S>0
G1 X49.802 S800 F1600
G0 Z2.5 F500 ; Lift S=0
G1 X50.405 S0 F1600
G0 Z0 F500 ; Drop S>0
G1 X54.254 S800 F1600
G0 Z2.5 F500 ; Lift S=0
G1 X54.698 S0 F1600
G0 Z0 F500 ; Drop S>0
G1 X73.501 S800 F1600
G0 Z2.5 F500 ; Lift S=0
G1 X73.555 Y43.793 S0 F1600
G0 Z0 F500 ; Drop S>0
; --- FIX X Backlash ---
G0 X72.255 Y43.793 F1200
G1 X48.785 S800 F1600
G0 Z2.5 F500 ; Lift S=0
G1 X46.838 S0 F1600
G0 Z0 F500 ; Drop S>0
G1 X37.351 S800 F1600
G0 Z2.5 F500 ; Lift S=0
G1 X37.071 S0 F1600
G0 Z0 F500 ; Drop S>0
G1 X35.394 S800 F1600
G0 Z2.5 F500 ; Lift S=0
G1 X26.982 S0 F1600
G0 Z0 F500 ; Drop S>0
G1 X24.897 S800 F1600
G0 Z2.5 F500 ; Lift S=0
G1 X24.39 S0 F1600
G0 Z0 F500 ; Drop S>0
G1 X23.956 S800 F1600
G0 Z2.5 F500 ; Lift S=0
G1 X20.832 S0 F1600
G0 Z0 F500 ; Drop S>0
G1 X20.533 S800 F1600
G0 Z2.5 F500 ; Lift S=0
G1 X19.389 S0 F1600
G0 Z0 F500 ; Drop S>0
G1 X18.89 S800 F1600
G0 Z2.5 F500 ; Lift S=0
G1 X17.605 S0 F1600
G0 Z0 F500 ; Drop S>0
G1 X16.65 S800 F1600
G0 Z2.5 F500 ; Lift S=0
G1 X16.303 S0 F1600
G0 Z0 F500 ; Drop S>0
G1 X16.019 S800 F1600
G0 Z2.5 F500 ; Lift S=0
G1 X15.287 S0 F1600
G0 Z0 F500 ; Drop S>0
G1 X15.001 S800 F1600
G0 Z2.5 F500 ; Lift S=0
G1 X14.32 S0 F1600
G0 Z0 F500 ; Drop S>0
G1 X14.107 S800 F1600
G0 Z2.5 F500 ; Lift S=0
G1 X13.015 S0 F1600
G0 Z0 F500 ; Drop S>0
G1 X11.834 S800 F1600
G0 Z2.5 F500 ; Lift S=0
G1 X10.859 Y44.693 S0 F1600
G0 Z0 F500 ; Drop S>0
; --- FIX X Backlash ---
G0 X12.159 Y44.693 F1200
G1 X12.449 S800 F1600
G0 Z2.5 F500 ; Lift S=0
G1 X13.82 S0 F1600
G0 Z0 F500 ; Drop S>0
G1 X14.634 S800 F1600
G0 Z2.5 F500 ; Lift S=0
G1 X15.753 S0 F1600
G0 Z0 F500 ; Drop S>0
G1 X16.293 S800 F1600
G0 Z2.5 F500 ; Lift S=0
G1 X18.567 S0 F1600
G0 Z0 F500 ; Drop S>0
G1 X19.486 S800 F1600
G0 Z2.5 F500 ; Lift S=0
G1 X20.144 S0 F1600
G0 Z0 F500 ; Drop S>0
G1 X20.487 S800 F1600
G0 Z2.5 F500 ; Lift S=0
G1 X22.081 S0 F1600
G0 Z0 F500 ; Drop S>0
G1 X22.726 S800 F1600
G0 Z2.5 F500 ; Lift S=0
G1 X23.686 S0 F1600
G0 Z0 F500 ; Drop S>0
G1 X27.472 S800 F1600
G0 Z2.5 F500 ; Lift S=0
G1 X30.157 S0 F1600
G0 Z0 F500 ; Drop S>0
G1 X45.676 S800 F1600
G0 Z2.5 F500 ; Lift S=0
G1 X47.416 S0 F1600
G0 Z0 F500 ; Drop S>0
G1 X73.579 S800 F1600
G0 Z2.5 F500 ; Lift S=0
G1 X73.592 Y45.593 S0 F1600
G0 Z0 F500 ; Drop S>0
; --- FIX X Backlash ---
G0 X72.292 Y45.593 F1200
G1 X43.17 S800 F1600
G0 Z2.5 F500 ; Lift S=0
G1 X41.963 S0 F1600
G0 Z0 F500 ; Drop S>0
G1 X38.352 S800 F1600
G0 Z2.5 F500 ; Lift S=0
G1 X37.5 S0 F1600
G0 Z0 F500 ; Drop S>0
G1 X36.033 S800 F1600
G0 Z2.5 F500 ; Lift S=0
G1 X35.249 S0 F1600
G0 Z0 F500 ; Drop S>0
G1 X34.073 S800 F1600
G0 Z2.5 F500 ; Lift S=0
G1 X33.837 S0 F1600
G0 Z0 F500 ; Drop S>0
G1 X33.375 S800 F1600
G0 Z2.5 F500 ; Lift S=0
G1 X30.775 S0 F1600
G0 Z0 F500 ; Drop S>0
G1 X23.446 S800 F1600
G0 Z2.5 F500 ; Lift S=0
G1 X21.519 S0 F1600
G0 Z0 F500 ; Drop S>0
G1 X20.174 S800 F1600
G0 Z2.5 F500 ; Lift S=0
G1 X19.674 S0 F1600
G0 Z0 F500 ; Drop S>0
G1 X19.257 S800 F1600
G0 Z2.5 F500 ; Lift S=0
G1 X18.644 S0 F1600
G0 Z0 F500 ; Drop S>0
G1 X17.957 S800 F1600
G0 Z2.5 F500 ; Lift S=0
G1 X17.43 S0 F1600
G0 Z0 F500 ; Drop S>0
G1 X16.845 S800 F1600
G0 Z2.5 F500 ; Lift S=0
G1 X15.509 S0 F1600
G0 Z0 F500 ; Drop S>0
G1 X14.762 S800 F1600
G0 Z2.5 F500 ; Lift S=0
G1 X11.509 S0 F1600
G0 Z0 F500 ; Drop S>0
G1 X11.051 S800 F1600
G0 Z2.5 F500 ; Lift S=0
G1 X8.053 Y46.493 S0 F1600
G0 Z0 F500 ; Drop S>0
; --- FIX X Backlash ---
G0 X9.353 Y46.493 F1200
G1 X9.673 S800 F1600
G0 Z2.5 F500 ; Lift S=0
G1 X12.534 S0 F1600
G0 Z0 F500 ; Drop S>0
G1 X13.185 S800 F1600
G0 Z2.5 F500 ; Lift S=0
G1 X14.107 S0 F1600
G0 Z0 F500 ; Drop S>0
G1 X15.178 S800 F1600
G0 Z2.5 F500 ; Lift S=0
G1 X16.275 S0 F1600
G0 Z0 F500 ; Drop S>0
G1 X17.194 S800 F1600
G0 Z2.5 F500 ; Lift S=0
G1 X19.085 S0 F1600
G0 Z0 F500 ; Drop S>0
G1 X19.405 S800 F1600
G0 Z2.5 F500 ; Lift S=0
G1 X19.908 S0 F1600
G0 Z0 F500 ; Drop S>0
G1 X20.34 S800 F1600
G0 Z2.5 F500 ; Lift S=0
G1 X21.368 S0 F1600
G0 Z0 F500 ; Drop S>0
G1 X23.307 S800 F1600
G0 Z2.5 F500 ; Lift S=0
G1 X24.22 S0 F1600
G0 Z0 F500 ; Drop S>0
G1 X25.792 S800 F1600
G0 Z2.5 F500 ; Lift S=0
G1 X28.075 S0 F1600
G0 Z0 F500 ; Drop S>0
G1 X31.699 S800 F1600
G0 Z2.5 F500 ; Lift S=0
G1 X32.823 S0 F1600
G0 Z0 F500 ; Drop S>0
G1 X32.994 S800 F1600
G0 Z2.5 F500 ; Lift S=0
G1 X33.146 S0 F1600
G0 Z0 F500 ; Drop S>0
G1 X33.975 S800 F1600
G0 Z2.5 F500 ; Lift S=0
G1 X34.184 S0 F1600
G0 Z0 F500 ; Drop S>0
G1 X38.104 S800 F1600
G0 Z2.5 F500 ; Lift S=0

; Washing sequence (no color)
G1 Z10 F1000;        ; Raise brush
G0 X5 Y5 F1200;     ; Rapid move to clean
G1 Z-1 F800;         ; Lower brush
G1 X10 Y12 Z8 F1200;     ; Move
G1 Z-1 F800;         ; Lower
G1 X25 Y14 Z6 F800;     ; Move
G1 Z8 F800;         ; Maintain
G0 X5 Y5 F1200;     ; Rapid
G1 Z-1 F800;         ; Lower
G1 X15 Y12 Z8 F1200;     ; Move
G1 Z-1 F800;         ; Lower
G1 X25 Y14 Z6 F800;     ; Move
G1 Z10 F800;         ; Maintain
G1 F1200;           ; Set feed
G0 Z2.5 F1000 ; Safety Lift
G0 X38.104 Y46.493 F1200 ; Return to pos
G1 X39.054 S0 F1600
G0 Z0 F500 ; Drop S>0
G1 X40.424 S800 F1600
G0 Z2.5 F500 ; Lift S=0
G1 X41.793 S0 F1600
G0 Z0 F500 ; Drop S>0
G1 X41.993 S800 F1600
G0 Z2.5 F500 ; Lift S=0
G1 X42.627 S0 F1600
G0 Z0 F500 ; Drop S>0
G1 X43.409 S800 F1600
G0 Z2.5 F500 ; Lift S=0
G1 X43.549 S0 F1600
G0 Z0 F500 ; Drop S>0
G1 X48.422 S800 F1600
G0 Z2.5 F500 ; Lift S=0
G1 X48.63 S0 F1600
G0 Z0 F500 ; Drop S>0
G1 X73.598 S800 F1600
G0 Z2.5 F500 ; Lift S=0
G1 X73.601 Y47.393 S0 F1600
G0 Z0 F500 ; Drop S>0
; --- FIX X Backlash ---
G0 X72.301 Y47.393 F1200
G1 X53.432 S800 F1600
G0 Z2.5 F500 ; Lift S=0
G1 X53.285 S0 F1600
G0 Z0 F500 ; Drop S>0
G1 X53.057 S800 F1600
G0 Z2.5 F500 ; Lift S=0
G1 X49.29 S0 F1600
G0 Z0 F500 ; Drop S>0
G1 X46.78 S800 F1600
G0 Z2.5 F500 ; Lift S=0
G1 X46.171 S0 F1600
G0 Z0 F500 ; Drop S>0
G1 X44.133 S800 F1600
G0 Z2.5 F500 ; Lift S=0
G1 X42.087 S0 F1600
G0 Z0 F500 ; Drop S>0
G1 X38.443 S800 F1600
G0 Z2.5 F500 ; Lift S=0
G1 X36.042 S0 F1600
G0 Z0 F500 ; Drop S>0
G1 X35.265 S800 F1600
G0 Z2.5 F500 ; Lift S=0
G1 X30.368 S0 F1600
G0 Z0 F500 ; Drop S>0
G1 X25.465 S800 F1600
G0 Z2.5 F500 ; Lift S=0
G1 X24.391 S0 F1600
G0 Z0 F500 ; Drop S>0
G1 X24.049 S800 F1600
G0 Z2.5 F500 ; Lift S=0
G1 X24.014 S0 F1600
G0 Z0 F500 ; Drop S>0
G1 X23.807 S800 F1600
G0 Z2.5 F500 ; Lift S=0
G1 X22.308 S0 F1600
G0 Z0 F500 ; Drop S>0
G1 X20.796 S800 F1600
G0 Z2.5 F500 ; Lift S=0
G1 X14.176 S0 F1600
G0 Z0 F500 ; Drop S>0
G1 X13.725 S800 F1600
G0 Z2.5 F500 ; Lift S=0
G1 X12.196 S0 F1600
G0 Z0 F500 ; Drop S>0
G1 X11.499 S800 F1600
G0 Z2.5 F500 ; Lift S=0
G1 X8.748 S0 F1600
G0 Z0 F500 ; Drop S>0
G1 X7.813 S800 F1600
G0 Z2.5 F500 ; Lift S=0
G1 X7.859 Y48.293 S0 F1600
G0 Z0 F500 ; Drop S>0
; --- FIX X Backlash ---
G0 X9.159 Y48.293 F1200
G1 X10.228 S800 F1600
G0 Z2.5 F500 ; Lift S=0
G1 X13.054 S0 F1600
G0 Z0 F500 ; Drop S>0
G1 X13.744 S800 F1600
G0 Z2.5 F500 ; Lift S=0
G1 X16.725 S0 F1600
G0 Z0 F500 ; Drop S>0
G1 X17.794 S800 F1600
G0 Z2.5 F500 ; Lift S=0
G1 X19.778 S0 F1600
G0 Z0 F500 ; Drop S>0
G1 X20.929 S800 F1600
G0 Z2.5 F500 ; Lift S=0
G1 X22.178 S0 F1600
G0 Z0 F500 ; Drop S>0
G1 X23.687 S800 F1600
G0 Z2.5 F500 ; Lift S=0
G1 X25.718 S0 F1600
G0 Z0 F500 ; Drop S>0
G1 X27.983 S800 F1600
G0 Z2.5 F500 ; Lift S=0
G1 X28.705 S0 F1600
G0 Z0 F500 ; Drop S>0
G1 X29.508 S800 F1600
G0 Z2.5 F500 ; Lift S=0
G1 X32.309 S0 F1600
G0 Z0 F500 ; Drop S>0
G1 X36.652 S800 F1600
G0 Z2.5 F500 ; Lift S=0
G1 X37.499 S0 F1600
G0 Z0 F500 ; Drop S>0
G1 X40.672 S800 F1600
G0 Z2.5 F500 ; Lift S=0
G1 X43.256 S0 F1600
G0 Z0 F500 ; Drop S>0
G1 X43.723 S800 F1600
G0 Z2.5 F500 ; Lift S=0
G1 X43.897 S0 F1600
G0 Z0 F500 ; Drop S>0
G1 X44.2 S800 F1600
G0 Z2.5 F500 ; Lift S=0
G1 X45.194 S0 F1600
G0 Z0 F500 ; Drop S>0
G1 X46.567 S800 F1600
G0 Z2.5 F500 ; Lift S=0
G1 X47.357 S0 F1600
G0 Z0 F500 ; Drop S>0
G1 X48.127 S800 F1600
G0 Z2.5 F500 ; Lift S=0
G1 X48.8 S0 F1600
G0 Z0 F500 ; Drop S>0
G1 X49.456 S800 F1600
G0 Z2.5 F500 ; Lift S=0
G1 X49.715 S0 F1600
G0 Z0 F500 ; Drop S>0
G1 X50.75 S800 F1600
G0 Z2.5 F500 ; Lift S=0
G1 X52.395 S0 F1600
G0 Z0 F500 ; Drop S>0
G1 X53.155 S800 F1600
G0 Z2.5 F500 ; Lift S=0
G1 X54.772 S0 F1600
G0 Z0 F500 ; Drop S>0
G1 X73.603 S800 F1600
G0 Z2.5 F500 ; Lift S=0
G1 Y49.193 S0 F1600
G0 Z0 F500 ; Drop S>0
; --- FIX X Backlash ---
G0 X72.303 Y49.193 F1200
G1 X60.38 S800 F1600
G0 Z2.5 F500 ; Lift S=0
G1 X58.885 S0 F1600
G0 Z0 F500 ; Drop S>0
G1 X53.034 S800 F1600
G0 Z2.5 F500 ; Lift S=0
G1 X49.462 S0 F1600
G0 Z0 F500 ; Drop S>0
G1 X48.977 S800 F1600
G0 Z2.5 F500 ; Lift S=0
G1 X48.246 S0 F1600
G0 Z0 F500 ; Drop S>0
G1 X47.967 S800 F1600
G0 Z2.5 F500 ; Lift S=0
G1 X47.157 S0 F1600
G0 Z0 F500 ; Drop S>0
G1 X45.536 S800 F1600
G0 Z2.5 F500 ; Lift S=0
G1 X44.683 S0 F1600
G0 Z0 F500 ; Drop S>0
G1 X41.592 S800 F1600
G0 Z2.5 F500 ; Lift S=0
G1 X40.033 S0 F1600
G0 Z0 F500 ; Drop S>0
G1 X39.192 S800 F1600
G0 Z2.5 F500 ; Lift S=0
G1 X37.439 S0 F1600
G0 Z0 F500 ; Drop S>0
G1 X35.57 S800 F1600
G0 Z2.5 F500 ; Lift S=0
G1 X34.963 S0 F1600
G0 Z0 F500 ; Drop S>0
G1 X30.495 S800 F1600
G0 Z2.5 F500 ; Lift S=0
G1 X30.156 S0 F1600
G0 Z0 F500 ; Drop S>0
G1 X26.208 S800 F1600
G0 Z2.5 F500 ; Lift S=0
G1 X19.965 S0 F1600
G0 Z0 F500 ; Drop S>0
G1 X18.912 S800 F1600
G0 Z2.5 F500 ; Lift S=0
G1 X16.742 S0 F1600
G0 Z0 F500 ; Drop S>0
G1 X15.997 S800 F1600
G0 Z2.5 F500 ; Lift S=0
G1 X12.645 S0 F1600
G0 Z0 F500 ; Drop S>0
G1 X11.801 S800 F1600
G0 Z2.5 F500 ; Lift S=0
G1 X9.092 S0 F1600
G0 Z0 F500 ; Drop S>0
G1 X8.191 S800 F1600
G0 Z2.5 F500 ; Lift S=0
; --- FIX X Backlash ---
G0 X9.491 Y49.193 F1200
G1 X10.203 Y50.093 S0 F1600
G0 Z0 F500 ; Drop S>0
G1 X10.523 S800 F1600
G0 Z2.5 F500 ; Lift S=0
G1 X13.327 S0 F1600
G0 Z0 F500 ; Drop S>0
G1 X14.099 S800 F1600
G0 Z2.5 F500 ; Lift S=0
G1 X15.159 S0 F1600
G0 Z0 F500 ; Drop S>0
G1 X15.441 S800 F1600
G0 Z2.5 F500 ; Lift S=0
G1 X19.487 S0 F1600
G0 Z0 F500 ; Drop S>0
G1 X19.803 S800 F1600
G0 Z2.5 F500 ; Lift S=0
G1 X20.635 S0 F1600
G0 Z0 F500 ; Drop S>0
G1 X21.134 S800 F1600
G0 Z2.5 F500 ; Lift S=0
G1 X21.286 S0 F1600
G0 Z0 F500 ; Drop S>0
G1 X21.579 S800 F1600
G0 Z2.5 F500 ; Lift S=0
G1 X21.816 S0 F1600
G0 Z0 F500 ; Drop S>0
G1 X22.427 S800 F1600
G0 Z2.5 F500 ; Lift S=0
G1 X23.034 S0 F1600
G0 Z0 F500 ; Drop S>0
G1 X24.267 S800 F1600
G0 Z2.5 F500 ; Lift S=0
G1 X25.424 S0 F1600
G0 Z0 F500 ; Drop S>0
G1 X27.158 S800 F1600
G0 Z2.5 F500 ; Lift S=0
G1 X28.395 S0 F1600
G0 Z0 F500 ; Drop S>0
G1 X30.262 S800 F1600
G0 Z2.5 F500 ; Lift S=0
G1 X31.365 S0 F1600
G0 Z0 F500 ; Drop S>0
G1 X35.955 S800 F1600
G0 Z2.5 F500 ; Lift S=0
G1 X36.556 S0 F1600
G0 Z0 F500 ; Drop S>0
G1 X36.745 S800 F1600
G0 Z2.5 F500 ; Lift S=0
G1 X38.766 S0 F1600
G0 Z0 F500 ; Drop S>0
G1 X38.906 S800 F1600
G0 Z2.5 F500 ; Lift S=0
G1 X39.183 S0 F1600
G0 Z0 F500 ; Drop S>0
G1 X39.273 S800 F1600
G0 Z2.5 F500 ; Lift S=0
G1 X40.005 S0 F1600
G0 Z0 F500 ; Drop S>0
G1 X45.297 S800 F1600
G0 Z2.5 F500 ; Lift S=0
G1 X46.364 S0 F1600
G0 Z0 F500 ; Drop S>0
G1 X47.166 S800 F1600
G0 Z2.5 F500 ; Lift S=0
G1 X47.336 S0 F1600
G0 Z0 F500 ; Drop S>0
G1 X48.44 S800 F1600
G0 Z2.5 F500 ; Lift S=0
G1 X49.576 S0 F1600
G0 Z0 F500 ; Drop S>0
G1 X49.695 S800 F1600
G0 Z2.5 F500 ; Lift S=0
G1 X49.892 S0 F1600
G0 Z0 F500 ; Drop S>0
G1 X50.057 S800 F1600
G0 Z2.5 F500 ; Lift S=0
G1 X50.299 S0 F1600
G0 Z0 F500 ; Drop S>0
G1 X57.974 S800 F1600
G0 Z2.5 F500 ; Lift S=0
G1 X59.943 S0 F1600
G0 Z0 F500 ; Drop S>0
G1 X71.998 S800 F1600
G0 Z2.5 F500 ; Lift S=0
G1 X72.176 S0 F1600
G0 Z0 F500 ; Drop S>0
G1 X73.604 S800 F1600
G0 Z2.5 F500 ; Lift S=0
G1 Y50.993 S0 F1600
G0 Z0 F500 ; Drop S>0
; --- FIX X Backlash ---
G0 X72.304 Y50.993 F1200
G1 X56.52 S800 F1600
G0 Z2.5 F500 ; Lift S=0
G1 X54.839 S0 F1600
G0 Z0 F500 ; Drop S>0
G1 X50.537 S800 F1600
G0 Z2.5 F500 ; Lift S=0
G1 X47.273 S0 F1600
G0 Z0 F500 ; Drop S>0
G1 X46.793 S800 F1600
G0 Z2.5 F500 ; Lift S=0
G1 X46.372 S0 F1600
G0 Z0 F500 ; Drop S>0
G1 X45.974 S800 F1600
G0 Z2.5 F500 ; Lift S=0
G1 X45.651 S0 F1600
G0 Z0 F500 ; Drop S>0
G1 X44.614 S800 F1600
G0 Z2.5 F500 ; Lift S=0
G1 X43.393 S0 F1600
G0 Z0 F500 ; Drop S>0
G1 X38.055 S800 F1600
G0 Z2.5 F500 ; Lift S=0
G1 X36.499 S0 F1600
G0 Z0 F500 ; Drop S>0
G1 X35.64 S800 F1600
G0 Z2.5 F500 ; Lift S=0
G1 X34.159 S0 F1600
G0 Z0 F500 ; Drop S>0
G1 X30.012 S800 F1600
G0 Z2.5 F500 ; Lift S=0
G1 X29.629 S0 F1600
G0 Z0 F500 ; Drop S>0
G1 X29.264 S800 F1600
G0 Z2.5 F500 ; Lift S=0
G1 X27.394 S0 F1600
G0 Z0 F500 ; Drop S>0
G1 X24.262 S800 F1600
G0 Z2.5 F500 ; Lift S=0
G1 X23.367 S0 F1600
G0 Z0 F500 ; Drop S>0
G1 X22.333 S800 F1600
G0 Z2.5 F500 ; Lift S=0
G1 X21.776 S0 F1600
G0 Z0 F500 ; Drop S>0
G1 X20.435 S800 F1600
G0 Z2.5 F500 ; Lift S=0
G1 X18.989 S0 F1600
G0 Z0 F500 ; Drop S>0
G1 X18.521 S800 F1600
G0 Z2.5 F500 ; Lift S=0
G1 X14.964 S0 F1600
G0 Z0 F500 ; Drop S>0
G1 X13.964 S800 F1600
G0 Z2.5 F500 ; Lift S=0
G1 X8.771 S0 F1600
G0 Z0 F500 ; Drop S>0
G1 X8.271 S800 F1600
G0 Z2.5 F500 ; Lift S=0
G1 X7.808 S0 F1600
G0 Z0 F500 ; Drop S>0
G1 X7.775 S800 F1600
G0 Z2.5 F500 ; Lift S=0
; --- FIX X Backlash ---
G0 X9.075 Y50.993 F1200
G1 X9.767 Y51.893 S0 F1600
G0 Z0 F500 ; Drop S>0
G1 X10.414 S800 F1600
G0 Z2.5 F500 ; Lift S=0
G1 X13.553 S0 F1600
G0 Z0 F500 ; Drop S>0
G1 X13.669 S800 F1600
G0 Z2.5 F500 ; Lift S=0
G1 X15.474 S0 F1600
G0 Z0 F500 ; Drop S>0
G1 X15.631 S800 F1600
G0 Z2.5 F500 ; Lift S=0
G1 X21.854 S0 F1600
G0 Z0 F500 ; Drop S>0
G1 X23.947 S800 F1600
G0 Z2.5 F500 ; Lift S=0
G1 X24.649 S0 F1600
G0 Z0 F500 ; Drop S>0
G1 X24.766 S800 F1600
G0 Z2.5 F500 ; Lift S=0
G1 X25.831 S0 F1600
G0 Z0 F500 ; Drop S>0
G1 X30.011 S800 F1600
G0 Z2.5 F500 ; Lift S=0
G1 X31.567 S0 F1600
G0 Z0 F500 ; Drop S>0
G1 X33.931 S800 F1600
G0 Z2.5 F500 ; Lift S=0
G1 X37.096 S0 F1600
G0 Z0 F500 ; Drop S>0
G1 X37.683 S800 F1600
G0 Z2.5 F500 ; Lift S=0
G1 X40.638 S0 F1600
G0 Z0 F500 ; Drop S>0
G1 X43.771 S800 F1600
G0 Z2.5 F500 ; Lift S=0
G1 X45.169 S0 F1600
G0 Z0 F500 ; Drop S>0
G1 X48.326 S800 F1600
G0 Z2.5 F500 ; Lift S=0
G1 X49.617 S0 F1600
G0 Z0 F500 ; Drop S>0
G1 X55.051 S800 F1600
G0 Z2.5 F500 ; Lift S=0
G1 X56.135 S0 F1600
G0 Z0 F500 ; Drop S>0
G1 X73.603 S800 F1600
G0 Z2.5 F500 ; Lift S=0
G1 Y52.793 S0 F1600
G0 Z0 F500 ; Drop S>0
; --- FIX X Backlash ---
G0 X72.303 Y52.793 F1200
G1 X53.638 S800 F1600
G0 Z2.5 F500 ; Lift S=0
G1 X52.463 S0 F1600
G0 Z0 F500 ; Drop S>0
G1 X47.144 S800 F1600
G0 Z2.5 F500 ; Lift S=0
G1 X46.203 S0 F1600
G0 Z0 F500 ; Drop S>0
G1 X42.865 S800 F1600
G0 Z2.5 F500 ; Lift S=0
G1 X41.521 S0 F1600
G0 Z0 F500 ; Drop S>0
G1 X37.075 S800 F1600
G0 Z2.5 F500 ; Lift S=0

; Washing sequence (no color)
G1 Z10 F1000;        ; Raise brush
G0 X5 Y5 F1200;     ; Rapid move to clean
G1 Z-1 F800;         ; Lower brush
G1 X10 Y12 Z8 F1200;     ; Move
G1 Z-1 F800;         ; Lower
G1 X25 Y14 Z6 F800;     ; Move
G1 Z8 F800;         ; Maintain
G0 X5 Y5 F1200;     ; Rapid
G1 Z-1 F800;         ; Lower
G1 X15 Y12 Z8 F1200;     ; Move
G1 Z-1 F800;         ; Lower
G1 X25 Y14 Z6 F800;     ; Move
G1 Z10 F800;         ; Maintain
G1 F1200;           ; Set feed
G0 Z2.5 F1000 ; Safety Lift
G0 X37.075 Y52.793 F1200 ; Return to pos
G1 X35.353 S0 F1600
G0 Z0 F500 ; Drop S>0
G1 X33.573 S800 F1600
G0 Z2.5 F500 ; Lift S=0
G1 X29.892 S0 F1600
G0 Z0 F500 ; Drop S>0
G1 X26.997 S800 F1600
G0 Z2.5 F500 ; Lift S=0
G1 X25.545 S0 F1600
G0 Z0 F500 ; Drop S>0
G1 X24.795 S800 F1600
G0 Z2.5 F500 ; Lift S=0
G1 X23.675 S0 F1600
G0 Z0 F500 ; Drop S>0
G1 X21.18 S800 F1600
G0 Z2.5 F500 ; Lift S=0
G1 X15.615 S0 F1600
G0 Z0 F500 ; Drop S>0
G1 X14.253 S800 F1600
G0 Z2.5 F500 ; Lift S=0
G1 X12.772 S0 F1600
G0 Z0 F500 ; Drop S>0
G1 X12.227 S800 F1600
G0 Z2.5 F500 ; Lift S=0
; --- FIX X Backlash ---
G0 X13.527 Y52.793 F1200
G1 X24.017 Y53.693 S0 F1600
G0 Z0 F500 ; Drop S>0
G1 X25.275 S800 F1600
G0 Z2.5 F500 ; Lift S=0
G1 X26.224 S0 F1600
G0 Z0 F500 ; Drop S>0
G1 X27.088 S800 F1600
G0 Z2.5 F500 ; Lift S=0
G1 X27.811 S0 F1600
G0 Z0 F500 ; Drop S>0
G1 X28.747 S800 F1600
G0 Z2.5 F500 ; Lift S=0
G1 X36.178 S0 F1600
G0 Z0 F500 ; Drop S>0
G1 X36.849 S800 F1600
G0 Z2.5 F500 ; Lift S=0
G1 X37.614 S0 F1600
G0 Z0 F500 ; Drop S>0
G1 X37.997 S800 F1600
G0 Z2.5 F500 ; Lift S=0
G1 X43.304 S0 F1600
G0 Z0 F500 ; Drop S>0
G1 X46.941 S800 F1600
G0 Z2.5 F500 ; Lift S=0
G1 X47.642 S0 F1600
G0 Z0 F500 ; Drop S>0
G1 X51.26 S800 F1600
G0 Z2.5 F500 ; Lift S=0
G1 X58.469 S0 F1600
G0 Z0 F500 ; Drop S>0
G1 X73.6 S800 F1600
G0 Z2.5 F500 ; Lift S=0
G1 X73.596 Y54.593 S0 F1600
G0 Z0 F500 ; Drop S>0
; --- FIX X Backlash ---
G0 X72.296 Y54.593 F1200
G1 X51.622 S800 F1600
G0 Z2.5 F500 ; Lift S=0
G1 X44.951 S0 F1600
G0 Z0 F500 ; Drop S>0
G1 X43.996 S800 F1600
G0 Z2.5 F500 ; Lift S=0
G1 X41.991 S0 F1600
G0 Z0 F500 ; Drop S>0
G1 X41.465 S800 F1600
G0 Z2.5 F500 ; Lift S=0
G1 X39.847 S0 F1600
G0 Z0 F500 ; Drop S>0
G1 X35.733 S800 F1600
G0 Z2.5 F500 ; Lift S=0
G1 X35.141 S0 F1600
G0 Z0 F500 ; Drop S>0
G1 X31.58 S800 F1600
G0 Z2.5 F500 ; Lift S=0
G1 X15.08 S0 F1600
G0 Z0 F500 ; Drop S>0
G1 X14.702 S800 F1600
G0 Z2.5 F500 ; Lift S=0
G1 X13.32 S0 F1600
G0 Z0 F500 ; Drop S>0
G1 X12.842 S800 F1600
G0 Z2.5 F500 ; Lift S=0
G1 X12.734 S0 F1600
G0 Z0 F500 ; Drop S>0
G1 X12.356 S800 F1600
G0 Z2.5 F500 ; Lift S=0
; --- FIX X Backlash ---
G0 X13.656 Y54.593 F1200
G1 X13.91 Y55.493 S0 F1600
G0 Z0 F500 ; Drop S>0
G1 X14.857 S800 F1600
G0 Z2.5 F500 ; Lift S=0
G1 X16.116 S0 F1600
G0 Z0 F500 ; Drop S>0
G1 X17.354 S800 F1600
G0 Z2.5 F500 ; Lift S=0
G1 X18.876 S0 F1600
G0 Z0 F500 ; Drop S>0
G1 X19.61 S800 F1600
G0 Z2.5 F500 ; Lift S=0
G1 X22.423 S0 F1600
G0 Z0 F500 ; Drop S>0
G1 X23.037 S800 F1600
G0 Z2.5 F500 ; Lift S=0
G1 X28.828 S0 F1600
G0 Z0 F500 ; Drop S>0
G1 X31.419 S800 F1600
G0 Z2.5 F500 ; Lift S=0
G1 X31.734 S0 F1600
G0 Z0 F500 ; Drop S>0
G1 X33.524 S800 F1600
G0 Z2.5 F500 ; Lift S=0
G1 X35.023 S0 F1600
G0 Z0 F500 ; Drop S>0
G1 X35.672 S800 F1600
G0 Z2.5 F500 ; Lift S=0
G1 X36.681 S0 F1600
G0 Z0 F500 ; Drop S>0
G1 X40.392 S800 F1600
G0 Z2.5 F500 ; Lift S=0
G1 X41.462 S0 F1600
G0 Z0 F500 ; Drop S>0
G1 X50.829 S800 F1600
G0 Z2.5 F500 ; Lift S=0
G1 X51.786 S0 F1600
G0 Z0 F500 ; Drop S>0
G1 X73.591 S800 F1600
G0 Z2.5 F500 ; Lift S=0
G1 X73.582 Y56.393 S0 F1600
G0 Z0 F500 ; Drop S>0
; --- FIX X Backlash ---
G0 X72.282 Y56.393 F1200
G1 X69.774 S800 F1600
G0 Z2.5 F500 ; Lift S=0
G1 X62.962 S0 F1600
G0 Z0 F500 ; Drop S>0
G1 X49.814 S800 F1600
G0 Z2.5 F500 ; Lift S=0
G1 X48.609 S0 F1600
G0 Z0 F500 ; Drop S>0
G1 X39.845 S800 F1600
G0 Z2.5 F500 ; Lift S=0
G1 X34.39 S0 F1600
G0 Z0 F500 ; Drop S>0
G1 X31.671 S800 F1600
G0 Z2.5 F500 ; Lift S=0
G1 X28.652 S0 F1600
G0 Z0 F500 ; Drop S>0
G1 X27.815 S800 F1600
G0 Z2.5 F500 ; Lift S=0
G1 X24.978 S0 F1600
G0 Z0 F500 ; Drop S>0
G1 X23.202 S800 F1600
G0 Z2.5 F500 ; Lift S=0
G1 X22.677 S0 F1600
G0 Z0 F500 ; Drop S>0
G1 X21.465 S800 F1600
G0 Z2.5 F500 ; Lift S=0
G1 X16.089 S0 F1600
G0 Z0 F500 ; Drop S>0
G1 X15.458 S800 F1600
G0 Z2.5 F500 ; Lift S=0
G1 X13.752 S0 F1600
G0 Z0 F500 ; Drop S>0
G1 X13.401 S800 F1600
G0 Z2.5 F500 ; Lift S=0
G1 X12.384 Y57.293 S0 F1600
G0 Z0 F500 ; Drop S>0
; --- FIX X Backlash ---
G0 X13.684 Y57.293 F1200
G1 X14.805 S800 F1600
G0 Z2.5 F500 ; Lift S=0
G1 X16.499 S0 F1600
G0 Z0 F500 ; Drop S>0
G1 X17.336 S800 F1600
G0 Z2.5 F500 ; Lift S=0
G1 X17.535 S0 F1600
G0 Z0 F500 ; Drop S>0
G1 X17.981 S800 F1600
G0 Z2.5 F500 ; Lift S=0
G1 X22.869 S0 F1600
G0 Z0 F500 ; Drop S>0
G1 X24.367 S800 F1600
G0 Z2.5 F500 ; Lift S=0
G1 X24.848 S0 F1600
G0 Z0 F500 ; Drop S>0
G1 X26.715 S800 F1600
G0 Z2.5 F500 ; Lift S=0
G1 X27.696 S0 F1600
G0 Z0 F500 ; Drop S>0
G1 X28.278 S800 F1600
G0 Z2.5 F500 ; Lift S=0
G1 X35.119 S0 F1600
G0 Z0 F500 ; Drop S>0
G1 X35.701 S800 F1600
G0 Z2.5 F500 ; Lift S=0
G1 X36.487 S0 F1600
G0 Z0 F500 ; Drop S>0
G1 X38.044 S800 F1600
G0 Z2.5 F500 ; Lift S=0
G1 X38.805 S0 F1600
G0 Z0 F500 ; Drop S>0
G1 X42.372 S800 F1600
G0 Z2.5 F500 ; Lift S=0
G1 X58.41 S0 F1600
G0 Z0 F500 ; Drop S>0
G1 X59.123 S800 F1600
G0 Z2.5 F500 ; Lift S=0
G1 X63.494 S0 F1600
G0 Z0 F500 ; Drop S>0
G1 X64.811 S800 F1600
G0 Z2.5 F500 ; Lift S=0
G1 X65.149 S0 F1600
G0 Z0 F500 ; Drop S>0
G1 X73.568 S800 F1600
G0 Z2.5 F500 ; Lift S=0
G1 X73.541 Y58.193 S0 F1600
G0 Z0 F500 ; Drop S>0
; --- FIX X Backlash ---
G0 X72.241 Y58.193 F1200
G1 X57.567 S800 F1600
G0 Z2.5 F500 ; Lift S=0
G1 X56.874 S0 F1600
G0 Z0 F500 ; Drop S>0
G1 X49.95 S800 F1600
G0 Z2.5 F500 ; Lift S=0
G1 X48.342 S0 F1600
G0 Z0 F500 ; Drop S>0
G1 X41.154 S800 F1600
G0 Z2.5 F500 ; Lift S=0
G1 X40.088 S0 F1600
G0 Z0 F500 ; Drop S>0
G1 X35.711 S800 F1600
G0 Z2.5 F500 ; Lift S=0
G1 X34.229 S0 F1600
G0 Z0 F500 ; Drop S>0
G1 X30.698 S800 F1600
G0 Z2.5 F500 ; Lift S=0
G1 X30.424 S0 F1600
G0 Z0 F500 ; Drop S>0
G1 X29.735 S800 F1600
G0 Z2.5 F500 ; Lift S=0
G1 X28.914 S0 F1600
G0 Z0 F500 ; Drop S>0
G1 X26.849 S800 F1600
G0 Z2.5 F500 ; Lift S=0
G1 X25.234 S0 F1600
G0 Z0 F500 ; Drop S>0
G1 X23.955 S800 F1600
G0 Z2.5 F500 ; Lift S=0
G1 X23.695 S0 F1600
G0 Z0 F500 ; Drop S>0
G1 X22.641 S800 F1600
G0 Z2.5 F500 ; Lift S=0
G1 X18.8 S0 F1600
G0 Z0 F500 ; Drop S>0
G1 X18.589 S800 F1600
G0 Z2.5 F500 ; Lift S=0
G1 X17.232 S0 F1600
G0 Z0 F500 ; Drop S>0
G1 X16.35 S800 F1600
G0 Z2.5 F500 ; Lift S=0
G1 X12.664 Y59.093 S0 F1600
G0 Z0 F500 ; Drop S>0
; --- FIX X Backlash ---
G0 X13.964 Y59.093 F1200
G1 X14.437 S800 F1600
G0 Z2.5 F500 ; Lift S=0
G1 X15.38 S0 F1600
G0 Z0 F500 ; Drop S>0
G1 X15.699 S800 F1600
G0 Z2.5 F500 ; Lift S=0
G1 X16.634 S0 F1600
G0 Z0 F500 ; Drop S>0
G1 X16.781 S800 F1600
G0 Z2.5 F500 ; Lift S=0
G1 X17.364 S0 F1600
G0 Z0 F500 ; Drop S>0
G1 X17.913 S800 F1600
G0 Z2.5 F500 ; Lift S=0
G1 X19.219 S0 F1600
G0 Z0 F500 ; Drop S>0
G1 X21.036 S800 F1600
G0 Z2.5 F500 ; Lift S=0
G1 X22.997 S0 F1600
G0 Z0 F500 ; Drop S>0
G1 X25.243 S800 F1600
G0 Z2.5 F500 ; Lift S=0
G1 X25.928 S0 F1600
G0 Z0 F500 ; Drop S>0
G1 X27.315 S800 F1600
G0 Z2.5 F500 ; Lift S=0
G1 X29.036 S0 F1600
G0 Z0 F500 ; Drop S>0
G1 X30.915 S800 F1600
G0 Z2.5 F500 ; Lift S=0
G1 X32.334 S0 F1600
G0 Z0 F500 ; Drop S>0
G1 X35.232 S800 F1600
G0 Z2.5 F500 ; Lift S=0
G1 X36.148 S0 F1600
G0 Z0 F500 ; Drop S>0
G1 X39.131 S800 F1600
G0 Z2.5 F500 ; Lift S=0
G1 X40.995 S0 F1600
G0 Z0 F500 ; Drop S>0
G1 X51.028 S800 F1600
G0 Z2.5 F500 ; Lift S=0
G1 X52.189 S0 F1600
G0 Z0 F500 ; Drop S>0
G1 X59.953 S800 F1600
G0 Z2.5 F500 ; Lift S=0
G1 X61.376 S0 F1600
G0 Z0 F500 ; Drop S>0
G1 X73.441 S800 F1600
G0 Z2.5 F500 ; Lift S=0
G1 X73.548 Y59.993 S0 F1600
G0 Z0 F500 ; Drop S>0
; --- FIX X Backlash ---
G0 X72.248 Y59.993 F1200
G1 X64.053 S800 F1600
G0 Z2.5 F500 ; Lift S=0
G1 X62.18 S0 F1600
G0 Z0 F500 ; Drop S>0
G1 X52.708 S800 F1600
G0 Z2.5 F500 ; Lift S=0
G1 X51.153 S0 F1600
G0 Z0 F500 ; Drop S>0
G1 X46.18 S800 F1600
G0 Z2.5 F500 ; Lift S=0
G1 X45.047 S0 F1600
G0 Z0 F500 ; Drop S>0
G1 X42.471 S800 F1600
G0 Z2.5 F500 ; Lift S=0
G1 X41.522 S0 F1600
G0 Z0 F500 ; Drop S>0
G1 X39.668 S800 F1600
G0 Z2.5 F500 ; Lift S=0
G1 X29.688 S0 F1600
G0 Z0 F500 ; Drop S>0
G1 X27.484 S800 F1600
G0 Z2.5 F500 ; Lift S=0
G1 X26.707 S0 F1600
G0 Z0 F500 ; Drop S>0
G1 X25.219 S800 F1600
G0 Z2.5 F500 ; Lift S=0
G1 X24.382 S0 F1600
G0 Z0 F500 ; Drop S>0
G1 X22.074 S800 F1600
G0 Z2.5 F500 ; Lift S=0
G1 X19.739 S0 F1600
G0 Z0 F500 ; Drop S>0
G1 X18.946 S800 F1600
G0 Z2.5 F500 ; Lift S=0
; --- FIX X Backlash ---
G0 X20.246 Y59.993 F1200
G1 X35.306 Y60.893 S0 F1600
G0 Z0 F500 ; Drop S>0
G1 X38.574 S800 F1600
G0 Z2.5 F500 ; Lift S=0
G1 X39.249 S0 F1600
G0 Z0 F500 ; Drop S>0
G1 X41.145 S800 F1600
G0 Z2.5 F500 ; Lift S=0
G1 X45.179 S0 F1600
G0 Z0 F500 ; Drop S>0
G1 X47.784 S800 F1600
G0 Z2.5 F500 ; Lift S=0
G1 X49.965 S0 F1600
G0 Z0 F500 ; Drop S>0
G1 X55.542 S800 F1600
G0 Z2.5 F500 ; Lift S=0
G1 X55.944 S0 F1600
G0 Z0 F500 ; Drop S>0
G1 X73.585 S800 F1600
G0 Z2.5 F500 ; Lift S=0

; Washing sequence (no color)
G1 Z10 F1000;        ; Raise brush
G0 X5 Y5 F1200;     ; Rapid move to clean
G1 Z-1 F800;         ; Lower brush
G1 X10 Y12 Z8 F1200;     ; Move
G1 Z-1 F800;         ; Lower
G1 X25 Y14 Z6 F800;     ; Move
G1 Z8 F800;         ; Maintain
G0 X5 Y5 F1200;     ; Rapid
G1 Z-1 F800;         ; Lower
G1 X15 Y12 Z8 F1200;     ; Move
G1 Z-1 F800;         ; Lower
G1 X25 Y14 Z6 F800;     ; Move
G1 Z10 F800;         ; Maintain
G1 F1200;           ; Set feed
G0 Z2.5 F1000 ; Safety Lift
G0 X73.585 Y60.893 F1200 ; Return to pos
G1 X73.6 Y61.793 S0 F1600
G0 Z0 F500 ; Drop S>0
; --- FIX X Backlash ---
G0 X72.3 Y61.793 F1200
G1 X57.648 S800 F1600
G0 Z2.5 F500 ; Lift S=0
G1 X57.206 S0 F1600
G0 Z0 F500 ; Drop S>0
G1 X43.459 S800 F1600
G0 Z2.5 F500 ; Lift S=0
G1 X42.477 S0 F1600
G0 Z0 F500 ; Drop S>0
G1 X39.739 S800 F1600
G0 Z2.5 F500 ; Lift S=0
G1 X38.423 S0 F1600
G0 Z0 F500 ; Drop S>0
G1 X36.146 S800 F1600
G0 Z2.5 F500 ; Lift S=0
G1 X34.797 S0 F1600
G0 Z0 F500 ; Drop S>0
G1 X33.478 S800 F1600
G0 Z2.5 F500 ; Lift S=0
G1 X32.63 S0 F1600
G0 Z0 F500 ; Drop S>0
G1 X32.034 S800 F1600
G0 Z2.5 F500 ; Lift S=0
G1 X30.428 S0 F1600
G0 Z0 F500 ; Drop S>0
G1 X28.903 S800 F1600
G0 Z2.5 F500 ; Lift S=0
G1 X28.641 S0 F1600
G0 Z0 F500 ; Drop S>0
G1 X26.417 S800 F1600
G0 Z2.5 F500 ; Lift S=0
G1 X25.279 S0 F1600
G0 Z0 F500 ; Drop S>0
G1 X22.7 S800 F1600
G0 Z2.5 F500 ; Lift S=0
G1 X19.989 S0 F1600
G0 Z0 F500 ; Drop S>0
G1 X17.513 S800 F1600
G0 Z2.5 F500 ; Lift S=0
G1 X16.757 S0 F1600
G0 Z0 F500 ; Drop S>0
G1 X15.951 S800 F1600
G0 Z2.5 F500 ; Lift S=0
G1 X15.672 Y62.693 S0 F1600
G0 Z0 F500 ; Drop S>0
; --- FIX X Backlash ---
G0 X16.972 Y62.693 F1200
G1 X18.167 S800 F1600
G0 Z2.5 F500 ; Lift S=0
G1 X19.019 S0 F1600
G0 Z0 F500 ; Drop S>0
G1 X21.633 S800 F1600
G0 Z2.5 F500 ; Lift S=0
G1 X22.98 S0 F1600
G0 Z0 F500 ; Drop S>0
G1 X23.334 S800 F1600
G0 Z2.5 F500 ; Lift S=0
G1 X25.37 S0 F1600
G0 Z0 F500 ; Drop S>0
G1 X27.482 S800 F1600
G0 Z2.5 F500 ; Lift S=0
G1 X28.338 S0 F1600
G0 Z0 F500 ; Drop S>0
G1 X32.356 S800 F1600
G0 Z2.5 F500 ; Lift S=0
G1 X33.202 S0 F1600
G0 Z0 F500 ; Drop S>0
G1 X33.499 S800 F1600
G0 Z2.5 F500 ; Lift S=0
G1 X34.211 S0 F1600
G0 Z0 F500 ; Drop S>0
G1 X34.707 S800 F1600
G0 Z2.5 F500 ; Lift S=0
G1 X36.604 S0 F1600
G0 Z0 F500 ; Drop S>0
G1 X37.57 S800 F1600
G0 Z2.5 F500 ; Lift S=0
G1 X39.402 S0 F1600
G0 Z0 F500 ; Drop S>0
G1 X44.955 S800 F1600
G0 Z2.5 F500 ; Lift S=0
G1 X46.797 S0 F1600
G0 Z0 F500 ; Drop S>0
G1 X54.222 S800 F1600
G0 Z2.5 F500 ; Lift S=0
G1 X55.297 S0 F1600
G0 Z0 F500 ; Drop S>0
G1 X73.566 S800 F1600
G0 Z2.5 F500 ; Lift S=0
; --- FIX X Backlash ---
G0 X72.266 Y62.693 F1200
G1 X72.103 Y63.593 S0 F1600
G0 Z0 F500 ; Drop S>0
G1 X51.744 S800 F1600
G0 Z2.5 F500 ; Lift S=0
G1 X50.281 S0 F1600
G0 Z0 F500 ; Drop S>0
G1 X41.503 S800 F1600
G0 Z2.5 F500 ; Lift S=0
G1 X39.666 S0 F1600
G0 Z0 F500 ; Drop S>0
G1 X37.117 S800 F1600
G0 Z2.5 F500 ; Lift S=0
G1 X35.028 S0 F1600
G0 Z0 F500 ; Drop S>0
G1 X32.15 S800 F1600
G0 Z2.5 F500 ; Lift S=0
G1 X31.106 S0 F1600
G0 Z0 F500 ; Drop S>0
G1 X27.963 S800 F1600
G0 Z2.5 F500 ; Lift S=0
G1 X26.439 S0 F1600
G0 Z0 F500 ; Drop S>0
G1 X25.131 S800 F1600
G0 Z2.5 F500 ; Lift S=0
G1 X22.941 S0 F1600
G0 Z0 F500 ; Drop S>0
G1 X22.471 S800 F1600
G0 Z2.5 F500 ; Lift S=0
G1 X22.208 S0 F1600
G0 Z0 F500 ; Drop S>0
G1 X21.591 S800 F1600
G0 Z2.5 F500 ; Lift S=0
G1 X20.493 S0 F1600
G0 Z0 F500 ; Drop S>0
G1 X18.243 S800 F1600
G0 Z2.5 F500 ; Lift S=0
G1 X16.884 S0 F1600
G0 Z0 F500 ; Drop S>0
G1 X15.881 S800 F1600
G0 Z2.5 F500 ; Lift S=0
; --- FIX X Backlash ---
G0 X17.181 Y63.593 F1200
G1 X19.997 Y64.493 S0 F1600
G0 Z0 F500 ; Drop S>0
G1 X21.705 S800 F1600
G0 Z2.5 F500 ; Lift S=0
G1 X23.255 S0 F1600
G0 Z0 F500 ; Drop S>0
G1 X23.42 S800 F1600
G0 Z2.5 F500 ; Lift S=0
G1 X23.749 S0 F1600
G0 Z0 F500 ; Drop S>0
G1 X25.303 S800 F1600
G0 Z2.5 F500 ; Lift S=0
G1 X26.904 S0 F1600
G0 Z0 F500 ; Drop S>0
G1 X27.119 S800 F1600
G0 Z2.5 F500 ; Lift S=0
G1 X30.983 S0 F1600
G0 Z0 F500 ; Drop S>0
G1 X32.325 S800 F1600
G0 Z2.5 F500 ; Lift S=0
G1 X33.079 S0 F1600
G0 Z0 F500 ; Drop S>0
G1 X34.527 S800 F1600
G0 Z2.5 F500 ; Lift S=0
G1 X36.027 S0 F1600
G0 Z0 F500 ; Drop S>0
G1 X37.266 S800 F1600
G0 Z2.5 F500 ; Lift S=0
G1 X38.167 S0 F1600
G0 Z0 F500 ; Drop S>0
G1 X40.437 S800 F1600
G0 Z2.5 F500 ; Lift S=0
G1 X43.333 S0 F1600
G0 Z0 F500 ; Drop S>0
G1 X46.19 S800 F1600
G0 Z2.5 F500 ; Lift S=0
G1 X47.43 S0 F1600
G0 Z0 F500 ; Drop S>0
G1 X49.934 S800 F1600
G0 Z2.5 F500 ; Lift S=0
G1 X50.674 S0 F1600
G0 Z0 F500 ; Drop S>0
G1 X72.998 S800 F1600
G0 Z2.5 F500 ; Lift S=0
G1 X73.597 Y65.393 S0 F1600
G0 Z0 F500 ; Drop S>0
; --- FIX X Backlash ---
G0 X72.297 Y65.393 F1200
G1 X71.603 S800 F1600
G0 Z2.5 F500 ; Lift S=0
G1 X70.607 S0 F1600
G0 Z0 F500 ; Drop S>0
G1 X69.882 S800 F1600
G0 Z2.5 F500 ; Lift S=0
G1 X69.554 S0 F1600
G0 Z0 F500 ; Drop S>0
G1 X69.194 S800 F1600
G0 Z2.5 F500 ; Lift S=0
G1 X68.725 S0 F1600
G0 Z0 F500 ; Drop S>0
G1 X67.828 S800 F1600
G0 Z2.5 F500 ; Lift S=0
G1 X67.752 S0 F1600
G0 Z0 F500 ; Drop S>0
G1 X67.007 S800 F1600
G0 Z2.5 F500 ; Lift S=0
G1 X66.744 S0 F1600
G0 Z0 F500 ; Drop S>0
G1 X66.395 S800 F1600
G0 Z2.5 F500 ; Lift S=0
G1 X66.18 S0 F1600
G0 Z0 F500 ; Drop S>0
G1 X54.437 S800 F1600
G0 Z2.5 F500 ; Lift S=0
G1 X52.647 S0 F1600
G0 Z0 F500 ; Drop S>0
G1 X48.591 S800 F1600
G0 Z2.5 F500 ; Lift S=0
G1 X48.207 S0 F1600
G0 Z0 F500 ; Drop S>0
G1 X43.917 S800 F1600
G0 Z2.5 F500 ; Lift S=0
G1 X41.652 S0 F1600
G0 Z0 F500 ; Drop S>0
G1 X39.868 S800 F1600
G0 Z2.5 F500 ; Lift S=0
G1 X39.227 S0 F1600
G0 Z0 F500 ; Drop S>0
G1 X32.164 S800 F1600
G0 Z2.5 F500 ; Lift S=0
G1 X31.607 S0 F1600
G0 Z0 F500 ; Drop S>0
G1 X31.394 S800 F1600
G0 Z2.5 F500 ; Lift S=0
G1 X30.323 S0 F1600
G0 Z0 F500 ; Drop S>0
G1 X30.107 S800 F1600
G0 Z2.5 F500 ; Lift S=0
G1 X29.185 S0 F1600
G0 Z0 F500 ; Drop S>0
G1 X26.363 S800 F1600
G0 Z2.5 F500 ; Lift S=0
G1 X24.775 S0 F1600
G0 Z0 F500 ; Drop S>0
G1 X22.888 S800 F1600
G0 Z2.5 F500 ; Lift S=0
G1 X20.648 S0 F1600
G0 Z0 F500 ; Drop S>0
G1 X20.232 S800 F1600
G0 Z2.5 F500 ; Lift S=0
G1 X19.855 S0 F1600
G0 Z0 F500 ; Drop S>0
G1 X19.322 S800 F1600
G0 Z2.5 F500 ; Lift S=0
G1 X18.264 S0 F1600
G0 Z0 F500 ; Drop S>0
G1 X18.056 S800 F1600
G0 Z2.5 F500 ; Lift S=0
G1 X9.17 S0 F1600
G0 Z0 F500 ; Drop S>0
G1 X8.86 S800 F1600
G0 Z2.5 F500 ; Lift S=0
; --- FIX X Backlash ---
G0 X10.16 Y65.393 F1200
G1 X19.528 Y66.293 S0 F1600
G0 Z0 F500 ; Drop S>0
G1 X20.492 S800 F1600
G0 Z2.5 F500 ; Lift S=0
G1 X21.678 S0 F1600
G0 Z0 F500 ; Drop S>0
G1 X22.172 S800 F1600
G0 Z2.5 F500 ; Lift S=0
G1 X23.266 S0 F1600
G0 Z0 F500 ; Drop S>0
G1 X24.031 S800 F1600
G0 Z2.5 F500 ; Lift S=0
G1 X25.136 S0 F1600
G0 Z0 F500 ; Drop S>0
G1 X26.301 S800 F1600
G0 Z2.5 F500 ; Lift S=0
G1 X26.773 S0 F1600
G0 Z0 F500 ; Drop S>0
G1 X27.681 S800 F1600
G0 Z2.5 F500 ; Lift S=0
G1 X28.54 S0 F1600
G0 Z0 F500 ; Drop S>0
G1 X30.942 S800 F1600
G0 Z2.5 F500 ; Lift S=0
G1 X38.287 S0 F1600
G0 Z0 F500 ; Drop S>0
G1 X40.035 S800 F1600
G0 Z2.5 F500 ; Lift S=0
G1 X40.623 S0 F1600
G0 Z0 F500 ; Drop S>0
G1 X41.134 S800 F1600
G0 Z2.5 F500 ; Lift S=0
G1 X42.519 S0 F1600
G0 Z0 F500 ; Drop S>0
G1 X46.629 S800 F1600
G0 Z2.5 F500 ; Lift S=0
G1 X47.669 S0 F1600
G0 Z0 F500 ; Drop S>0
G1 X49.081 S800 F1600
G0 Z2.5 F500 ; Lift S=0
G1 X49.464 S0 F1600
G0 Z0 F500 ; Drop S>0
G1 X51.14 S800 F1600
G0 Z2.5 F500 ; Lift S=0
G1 X62.627 S0 F1600
G0 Z0 F500 ; Drop S>0
G1 X67.149 S800 F1600
G0 Z2.5 F500 ; Lift S=0
G1 X68.383 S0 F1600
G0 Z0 F500 ; Drop S>0
G1 X68.655 S800 F1600
G0 Z2.5 F500 ; Lift S=0
G1 X69.02 S0 F1600
G0 Z0 F500 ; Drop S>0
G1 X71.781 S800 F1600
G0 Z2.5 F500 ; Lift S=0
G1 X73.204 S0 F1600
G0 Z0 F500 ; Drop S>0
G1 X73.291 S800 F1600
G0 Z2.5 F500 ; Lift S=0
; --- FIX X Backlash ---
G0 X71.991 Y66.293 F1200
G1 X71.064 Y67.193 S0 F1600
G0 Z0 F500 ; Drop S>0
G1 X70.63 S800 F1600
G0 Z2.5 F500 ; Lift S=0
G1 X70.614 S0 F1600
G0 Z0 F500 ; Drop S>0
G1 X69.29 S800 F1600
G0 Z2.5 F500 ; Lift S=0
G1 X68.839 S0 F1600
G0 Z0 F500 ; Drop S>0
G1 X68.652 S800 F1600
G0 Z2.5 F500 ; Lift S=0
G1 X67.502 S0 F1600
G0 Z0 F500 ; Drop S>0
G1 X48.948 S800 F1600
G0 Z2.5 F500 ; Lift S=0
G1 X46.423 S0 F1600
G0 Z0 F500 ; Drop S>0
G1 X45.297 S800 F1600
G0 Z2.5 F500 ; Lift S=0
G1 X43.366 S0 F1600
G0 Z0 F500 ; Drop S>0
G1 X39.818 S800 F1600
G0 Z2.5 F500 ; Lift S=0
G1 X38.018 S0 F1600
G0 Z0 F500 ; Drop S>0
G1 X33.146 S800 F1600
G0 Z2.5 F500 ; Lift S=0
G1 X31.219 S0 F1600
G0 Z0 F500 ; Drop S>0
G1 X30.114 S800 F1600
G0 Z2.5 F500 ; Lift S=0
G1 X29.086 S0 F1600
G0 Z0 F500 ; Drop S>0
G1 X28.189 S800 F1600
G0 Z2.5 F500 ; Lift S=0
G1 X27.289 S0 F1600
G0 Z0 F500 ; Drop S>0
G1 X25.694 S800 F1600
G0 Z2.5 F500 ; Lift S=0
G1 X24.056 S0 F1600
G0 Z0 F500 ; Drop S>0
G1 X22.181 S800 F1600
G0 Z2.5 F500 ; Lift S=0
G1 X20.255 S0 F1600
G0 Z0 F500 ; Drop S>0
G1 X19.496 S800 F1600
G0 Z2.5 F500 ; Lift S=0
G1 X18.803 S0 F1600
G0 Z0 F500 ; Drop S>0
G1 X18.493 S800 F1600
G0 Z2.5 F500 ; Lift S=0
; --- FIX X Backlash ---
G0 X19.793 Y67.193 F1200
G1 X20.578 Y68.093 S0 F1600
G0 Z0 F500 ; Drop S>0
G1 X22.428 S800 F1600
G0 Z2.5 F500 ; Lift S=0
G1 X28.949 S0 F1600
G0 Z0 F500 ; Drop S>0
G1 X29.299 S800 F1600
G0 Z2.5 F500 ; Lift S=0
G1 X30.232 S0 F1600
G0 Z0 F500 ; Drop S>0
G1 X38.619 S800 F1600
G0 Z2.5 F500 ; Lift S=0
G1 X39.949 S0 F1600
G0 Z0 F500 ; Drop S>0
G1 X42.341 S800 F1600
G0 Z2.5 F500 ; Lift S=0
G1 X44.271 S0 F1600
G0 Z0 F500 ; Drop S>0
G1 X45.998 S800 F1600
G0 Z2.5 F500 ; Lift S=0
G1 X46.358 S0 F1600
G0 Z0 F500 ; Drop S>0
G1 X48 S800 F1600
G0 Z2.5 F500 ; Lift S=0
G1 X48.11 S0 F1600
G0 Z0 F500 ; Drop S>0
G1 X49.122 S800 F1600
G0 Z2.5 F500 ; Lift S=0
G1 X51.983 S0 F1600
G0 Z0 F500 ; Drop S>0
G1 X55.809 S800 F1600
G0 Z2.5 F500 ; Lift S=0
G1 X56.038 S0 F1600
G0 Z0 F500 ; Drop S>0
G1 X56.215 S800 F1600
G0 Z2.5 F500 ; Lift S=0
G1 X57.172 S0 F1600
G0 Z0 F500 ; Drop S>0
G1 X57.567 S800 F1600
G0 Z2.5 F500 ; Lift S=0
G1 X57.671 S0 F1600
G0 Z0 F500 ; Drop S>0
G1 X65.765 S800 F1600
G0 Z2.5 F500 ; Lift S=0
G1 X66.218 S0 F1600
G0 Z0 F500 ; Drop S>0
G1 X66.573 S800 F1600
G0 Z2.5 F500 ; Lift S=0
G1 X66.679 S0 F1600
G0 Z0 F500 ; Drop S>0
G1 X66.792 S800 F1600
G0 Z2.5 F500 ; Lift S=0
G1 X73.205 S0 F1600
G0 Z0 F500 ; Drop S>0
G1 X73.29 S800 F1600
G0 Z2.5 F500 ; Lift S=0
; --- FIX X Backlash ---
G0 X71.99 Y68.093 F1200
G1 X71.734 Y68.993 S0 F1600
G0 Z0 F500 ; Drop S>0
G1 X71.27 S800 F1600
G0 Z2.5 F500 ; Lift S=0
G1 X69.733 S0 F1600
G0 Z0 F500 ; Drop S>0
G1 X69.493 S800 F1600
G0 Z2.5 F500 ; Lift S=0

; Washing sequence (no color)
G1 Z10 F1000;        ; Raise brush
G0 X5 Y5 F1200;     ; Rapid move to clean
G1 Z-1 F800;         ; Lower brush
G1 X10 Y12 Z8 F1200;     ; Move
G1 Z-1 F800;         ; Lower
G1 X25 Y14 Z6 F800;     ; Move
G1 Z8 F800;         ; Maintain
G0 X5 Y5 F1200;     ; Rapid
G1 Z-1 F800;         ; Lower
G1 X15 Y12 Z8 F1200;     ; Move
G1 Z-1 F800;         ; Lower
G1 X25 Y14 Z6 F800;     ; Move
G1 Z10 F800;         ; Maintain
G1 F1200;           ; Set feed
G0 Z2.5 F1000 ; Safety Lift
G0 X69.493 Y68.993 F1200 ; Return to pos
G1 X64.119 S0 F1600
G0 Z0 F500 ; Drop S>0
G1 X63.786 S800 F1600
G0 Z2.5 F500 ; Lift S=0
G1 X63.527 S0 F1600
G0 Z0 F500 ; Drop S>0
G1 X62.089 S800 F1600
G0 Z2.5 F500 ; Lift S=0
G1 X61.733 S0 F1600
G0 Z0 F500 ; Drop S>0
G1 X61.618 S800 F1600
G0 Z2.5 F500 ; Lift S=0
G1 X61.001 S0 F1600
G0 Z0 F500 ; Drop S>0
G1 X59.518 S800 F1600
G0 Z2.5 F500 ; Lift S=0
G1 X59.348 S0 F1600
G0 Z0 F500 ; Drop S>0
G1 X58.872 S800 F1600
G0 Z2.5 F500 ; Lift S=0
G1 X58.515 S0 F1600
G0 Z0 F500 ; Drop S>0
G1 X58.367 S800 F1600
G0 Z2.5 F500 ; Lift S=0
G1 X58.177 S0 F1600
G0 Z0 F500 ; Drop S>0
G1 X57.479 S800 F1600
G0 Z2.5 F500 ; Lift S=0
G1 X55.092 S0 F1600
G0 Z0 F500 ; Drop S>0
G1 X53.183 S800 F1600
G0 Z2.5 F500 ; Lift S=0
G1 X44.518 S0 F1600
G0 Z0 F500 ; Drop S>0
G1 X41.55 S800 F1600
G0 Z2.5 F500 ; Lift S=0
G1 X39.058 S0 F1600
G0 Z0 F500 ; Drop S>0
G1 X37.216 S800 F1600
G0 Z2.5 F500 ; Lift S=0
G1 X32.058 S0 F1600
G0 Z0 F500 ; Drop S>0
G1 X30.963 S800 F1600
G0 Z2.5 F500 ; Lift S=0
G1 X28.017 S0 F1600
G0 Z0 F500 ; Drop S>0
G1 X25.639 S800 F1600
G0 Z2.5 F500 ; Lift S=0
G1 X20.817 S0 F1600
G0 Z0 F500 ; Drop S>0
G1 X20.495 S800 F1600
G0 Z2.5 F500 ; Lift S=0
G1 X9.197 Y69.893 S0 F1600
G0 Z0 F500 ; Drop S>0
; --- FIX X Backlash ---
G0 X10.497 Y69.893 F1200
G1 X11.077 S800 F1600
G0 Z2.5 F500 ; Lift S=0
G1 X26.587 S0 F1600
G0 Z0 F500 ; Drop S>0
G1 X27.336 S800 F1600
G0 Z2.5 F500 ; Lift S=0
G1 X27.527 S0 F1600
G0 Z0 F500 ; Drop S>0
G1 X31.358 S800 F1600
G0 Z2.5 F500 ; Lift S=0
G1 X32.622 S0 F1600
G0 Z0 F500 ; Drop S>0
G1 X36.383 S800 F1600
G0 Z2.5 F500 ; Lift S=0
G1 X37.336 S0 F1600
G0 Z0 F500 ; Drop S>0
G1 X39.074 S800 F1600
G0 Z2.5 F500 ; Lift S=0
G1 X39.401 S0 F1600
G0 Z0 F500 ; Drop S>0
G1 X42.821 S800 F1600
G0 Z2.5 F500 ; Lift S=0
G1 X55.115 S0 F1600
G0 Z0 F500 ; Drop S>0
G1 X55.231 S800 F1600
G0 Z2.5 F500 ; Lift S=0
G1 X59.022 S0 F1600
G0 Z0 F500 ; Drop S>0
G1 X59.26 S800 F1600
G0 Z2.5 F500 ; Lift S=0
G1 X60.33 S0 F1600
G0 Z0 F500 ; Drop S>0
G1 X60.714 S800 F1600
G0 Z2.5 F500 ; Lift S=0
G1 X61.8 S0 F1600
G0 Z0 F500 ; Drop S>0
G1 X62.539 S800 F1600
G1 X62.8 Z0 F1600
G0 Z2.5 F500 ; Lift S=0
G1 X63.251 S0 F1600
G0 Z0 F500 ; Drop S>0
G1 X63.687 S800 F1600
G0 Z2.5 F500 ; Lift S=0
G1 X64.451 S0 F1600
G0 Z0 F500 ; Drop S>0
G1 X64.862 S800 F1600
G0 Z2.5 F500 ; Lift S=0
G1 X71.351 S0 F1600
G0 Z0 F500 ; Drop S>0
G1 X71.704 S800 F1600
G0 Z2.5 F500 ; Lift S=0
G1 X73.091 S0 F1600
G0 Z0 F500 ; Drop S>0
G1 X73.596 S800 F1600
G0 Z2.5 F500 ; Lift S=0
G1 X73.548 Y70.793 S0 F1600
G0 Z0 F500 ; Drop S>0
; --- FIX X Backlash ---
G0 X72.248 Y70.793 F1200
G1 X71.826 S800 F1600
G0 Z2.5 F500 ; Lift S=0
G1 X61.436 S0 F1600
G0 Z0 F500 ; Drop S>0
G1 X61.224 S800 F1600
G0 Z2.5 F500 ; Lift S=0
G1 X60.202 S0 F1600
G0 Z0 F500 ; Drop S>0
G1 X60.169 S800 F1600
G0 Z2.5 F500 ; Lift S=0
G1 X42.959 S0 F1600
G0 Z0 F500 ; Drop S>0
G1 X41.252 S800 F1600
G0 Z2.5 F500 ; Lift S=0
G1 X39.993 S0 F1600
G0 Z0 F500 ; Drop S>0
G1 X39.024 S800 F1600
G0 Z2.5 F500 ; Lift S=0
G1 X36.537 S0 F1600
G0 Z0 F500 ; Drop S>0
G1 X35.525 S800 F1600
G0 Z2.5 F500 ; Lift S=0
G1 X30.448 S0 F1600
G0 Z0 F500 ; Drop S>0
G1 X30.186 S800 F1600
G0 Z2.5 F500 ; Lift S=0
G1 X23.97 S0 F1600
G0 Z0 F500 ; Drop S>0
G1 X23.773 S800 F1600
G0 Z2.5 F500 ; Lift S=0
; --- FIX X Backlash ---
G0 X25.073 Y70.793 F1200
G1 X27.091 Y71.693 S0 F1600
G0 Z0 F500 ; Drop S>0
G1 X30.787 S800 F1600
G0 Z2.5 F500 ; Lift S=0
G1 X38.281 S0 F1600
G0 Z0 F500 ; Drop S>0
G1 X38.585 S800 F1600
G0 Z2.5 F500 ; Lift S=0
G1 X43.056 S0 F1600
G0 Z0 F500 ; Drop S>0
G1 X45.885 S800 F1600
G0 Z2.5 F500 ; Lift S=0
G1 X57.256 Y72.593 S0 F1600
G0 Z0 F500 ; Drop S>0
; --- FIX X Backlash ---
G0 X55.956 Y72.593 F1200
G1 X54.801 S800 F1600
G0 Z2.5 F500 ; Lift S=0
G1 X43.962 S0 F1600
G0 Z0 F500 ; Drop S>0
G1 X42.424 S800 F1600
G0 Z2.5 F500 ; Lift S=0
G1 X42.247 S0 F1600
G0 Z0 F500 ; Drop S>0
G1 X41.053 S800 F1600
G0 Z2.5 F500 ; Lift S=0
G1 X39.701 S0 F1600
G0 Z0 F500 ; Drop S>0
G1 X39.451 S800 F1600
G0 Z2.5 F500 ; Lift S=0
G1 X39.378 S0 F1600
G0 Z0 F500 ; Drop S>0
G1 X39.082 S800 F1600
G0 Z2.5 F500 ; Lift S=0
G1 X38.341 S0 F1600
G0 Z0 F500 ; Drop S>0
G1 X37.15 S800 F1600
G0 Z2.5 F500 ; Lift S=0
G1 X35.815 S0 F1600
G0 Z0 F500 ; Drop S>0
G1 X31.23 S800 F1600
G0 Z2.5 F500 ; Lift S=0
; --- FIX X Backlash ---
G0 X32.53 Y72.593 F1200
G1 X36.616 Y73.493 S0 F1600
G0 Z0 F500 ; Drop S>0
G1 X40.756 S800 F1600
G0 Z2.5 F500 ; Lift S=0
G1 X62.514 S0 F1600
G0 Z0 F500 ; Drop S>0
G1 X62.752 S800 F1600
G0 Z2.5 F500 ; Lift S=0
G1 X73.567 Y74.393 S0 F1600
G0 Z0 F500 ; Drop S>0
; --- FIX X Backlash ---
G0 X72.267 Y74.393 F1200
G1 X71.797 S800 F1600
G0 Z2.5 F500 ; Lift S=0
G1 X62.403 S0 F1600
G0 Z0 F500 ; Drop S>0
G1 X61.76 S800 F1600
G0 Z2.5 F500 ; Lift S=0
G1 X61.325 S0 F1600
G0 Z0 F500 ; Drop S>0
G1 X60.473 S800 F1600
G0 Z2.5 F500 ; Lift S=0
G1 X31.853 S0 F1600
G0 Z0 F500 ; Drop S>0
G1 X28.94 S800 F1600
G0 Z2.5 F500 ; Lift S=0
G1 X27.747 S0 F1600
G0 Z0 F500 ; Drop S>0
G1 X27.68 S800 F1600
G0 Z2.5 F500 ; Lift S=0
G1 X25.55 S0 F1600
G0 Z0 F500 ; Drop S>0
G1 X24.776 S800 F1600
G0 Z2.5 F500 ; Lift S=0
G1 X17.441 Y75.293 S0 F1600
G0 Z0 F500 ; Drop S>0
; --- FIX X Backlash ---
G0 X18.741 Y75.293 F1200
G1 X18.852 S800 F1600
G0 Z2.5 F500 ; Lift S=0
G1 X26.65 S0 F1600
G0 Z0 F500 ; Drop S>0
G1 X28.043 S800 F1600
G0 Z2.5 F500 ; Lift S=0
G1 X29.741 S0 F1600
G0 Z0 F500 ; Drop S>0
G1 X30.178 S800 F1600
G0 Z2.5 F500 ; Lift S=0
G1 X31.257 S0 F1600
G0 Z0 F500 ; Drop S>0
G1 X34.04 S800 F1600
G0 Z2.5 F500 ; Lift S=0
G1 X34.325 S0 F1600
G0 Z0 F500 ; Drop S>0
G1 X34.72 S800 F1600
G0 Z2.5 F500 ; Lift S=0
G1 X63.341 S0 F1600
G0 Z0 F500 ; Drop S>0
G1 X63.493 S800 F1600
G0 Z2.5 F500 ; Lift S=0
G1 X64.234 S0 F1600
G0 Z0 F500 ; Drop S>0
G1 X64.709 S800 F1600
G0 Z2.5 F500 ; Lift S=0
G1 X66.41 S0 F1600
G0 Z0 F500 ; Drop S>0
G1 X66.565 S800 F1600
G0 Z2.5 F500 ; Lift S=0
G1 X70.365 S0 F1600
G0 Z0 F500 ; Drop S>0
G1 X70.487 S800 F1600
G0 Z2.5 F500 ; Lift S=0
G1 X71.672 S0 F1600
G0 Z0 F500 ; Drop S>0
G1 X72.857 S800 F1600
G0 Z2.5 F500 ; Lift S=0
; --- FIX X Backlash ---
G0 X71.557 Y75.293 F1200
G1 X69.836 Y76.193 S0 F1600
G0 Z0 F500 ; Drop S>0
G1 X68.889 S800 F1600
G0 Z2.5 F500 ; Lift S=0
G1 X65.862 S0 F1600
G0 Z0 F500 ; Drop S>0
G1 X65.513 S800 F1600
G0 Z2.5 F500 ; Lift S=0
G1 X65.442 S0 F1600
G0 Z0 F500 ; Drop S>0
G1 X65.355 S800 F1600
G0 Z2.5 F500 ; Lift S=0
G1 X65.143 S0 F1600
G0 Z0 F500 ; Drop S>0
G1 X64.451 S800 F1600
G0 Z2.5 F500 ; Lift S=0
G1 X64.327 S0 F1600
G0 Z0 F500 ; Drop S>0
G1 X63.308 S800 F1600
G0 Z2.5 F500 ; Lift S=0
G1 X63.11 S0 F1600
G0 Z0 F500 ; Drop S>0
G1 X60.366 S800 F1600
G0 Z2.5 F500 ; Lift S=0
G1 X33.079 S0 F1600
G0 Z0 F500 ; Drop S>0
G1 X32.159 S800 F1600
G0 Z2.5 F500 ; Lift S=0
G1 X30.135 S0 F1600
G0 Z0 F500 ; Drop S>0
G1 X26.373 S800 F1600
G0 Z2.5 F500 ; Lift S=0
G1 X14.502 Y77.093 S0 F1600
G0 Z0 F500 ; Drop S>0
; --- FIX X Backlash ---
G0 X15.802 Y77.093 F1200
G1 X16.644 S800 F1600
G0 Z2.5 F500 ; Lift S=0
G1 X18.333 S0 F1600
G0 Z0 F500 ; Drop S>0
G1 X20.268 S800 F1600
G0 Z2.5 F500 ; Lift S=0
G1 X25.915 S0 F1600
G0 Z0 F500 ; Drop S>0
G1 X26.458 S800 F1600
G0 Z2.5 F500 ; Lift S=0
G1 X28.837 S0 F1600
G0 Z0 F500 ; Drop S>0
G1 X33.426 S800 F1600
G0 Z2.5 F500 ; Lift S=0
G1 X35.147 S0 F1600
G0 Z0 F500 ; Drop S>0
G1 X35.184 S800 F1600
G0 Z2.5 F500 ; Lift S=0
G1 X43.583 S0 F1600
G0 Z0 F500 ; Drop S>0
G1 X43.992 S800 F1600
G0 Z2.5 F500 ; Lift S=0
G1 X59.878 S0 F1600
G0 Z0 F500 ; Drop S>0
G1 X60.165 S800 F1600
G0 Z2.5 F500 ; Lift S=0
G1 X60.598 S0 F1600
G0 Z0 F500 ; Drop S>0
G1 X67.852 S800 F1600
G0 Z2.5 F500 ; Lift S=0
G1 X67.925 S0 F1600
G0 Z0 F500 ; Drop S>0
G1 X68.054 S800 F1600
G0 Z2.5 F500 ; Lift S=0
G1 X73.103 S0 F1600
G0 Z0 F500 ; Drop S>0
G1 X73.214 S800 F1600
G0 Z2.5 F500 ; Lift S=0
; --- FIX X Backlash ---
G0 X71.914 Y77.093 F1200
G1 X71.8 Y77.993 S0 F1600
G0 Z0 F500 ; Drop S>0
G1 X71.581 S800 F1600
G0 Z2.5 F500 ; Lift S=0
G1 X68.467 S0 F1600
G0 Z0 F500 ; Drop S>0
G1 X63.341 S800 F1600
G0 Z2.5 F500 ; Lift S=0
G1 X63.081 S0 F1600
G0 Z0 F500 ; Drop S>0
G1 X56.856 S800 F1600
G0 Z2.5 F500 ; Lift S=0
G1 X43.529 S0 F1600
G0 Z0 F500 ; Drop S>0
G1 X41.149 S800 F1600
G0 Z2.5 F500 ; Lift S=0
G1 X31.298 S0 F1600
G0 Z0 F500 ; Drop S>0
G1 X29.832 S800 F1600
G0 Z2.5 F500 ; Lift S=0
G1 X21.826 S0 F1600
G0 Z0 F500 ; Drop S>0
G1 X20.998 S800 F1600
G0 Z2.5 F500 ; Lift S=0
G1 X19.101 S0 F1600
G0 Z0 F500 ; Drop S>0
G1 X17.65 S800 F1600
G0 Z2.5 F500 ; Lift S=0
G1 X15.498 S0 F1600
G0 Z0 F500 ; Drop S>0
G1 X14.566 S800 F1600
G0 Z2.5 F500 ; Lift S=0
; --- FIX X Backlash ---
G0 X15.866 Y77.993 F1200
G1 X16.185 Y78.893 S0 F1600
G0 Z0 F500 ; Drop S>0
G1 X17.152 S800 F1600
G0 Z2.5 F500 ; Lift S=0
G1 X19.75 S0 F1600
G0 Z0 F500 ; Drop S>0
G1 X20.636 S800 F1600
G0 Z2.5 F500 ; Lift S=0
G1 X22.587 S0 F1600
G0 Z0 F500 ; Drop S>0
G1 X24.235 S800 F1600
G0 Z2.5 F500 ; Lift S=0
G1 X29.12 S0 F1600
G0 Z0 F500 ; Drop S>0
G1 X30.296 S800 F1600
G0 Z2.5 F500 ; Lift S=0
G1 X30.66 S0 F1600
G0 Z0 F500 ; Drop S>0
G1 X30.73 S800 F1600
G0 Z2.5 F500 ; Lift S=0
G1 X34.053 S0 F1600
G0 Z0 F500 ; Drop S>0
G1 X34.95 S800 F1600
G0 Z2.5 F500 ; Lift S=0
G1 X39.936 S0 F1600
G0 Z0 F500 ; Drop S>0
G1 X40.521 S800 F1600
G0 Z2.5 F500 ; Lift S=0
G1 X40.587 S0 F1600
G0 Z0 F500 ; Drop S>0
G1 X41.049 S800 F1600
G0 Z2.5 F500 ; Lift S=0
G1 X41.281 S0 F1600
G0 Z0 F500 ; Drop S>0
G1 X41.912 S800 F1600
G0 Z2.5 F500 ; Lift S=0
G1 X42.136 S0 F1600
G0 Z0 F500 ; Drop S>0
G1 X43.356 S800 F1600
G0 Z2.5 F500 ; Lift S=0
G1 X45.104 S0 F1600
G0 Z0 F500 ; Drop S>0
G1 X45.295 S800 F1600
G0 Z2.5 F500 ; Lift S=0
G1 X55.294 S0 F1600
G0 Z0 F500 ; Drop S>0
G1 X57.522 S800 F1600
G0 Z2.5 F500 ; Lift S=0
G1 X58.213 S0 F1600
G0 Z0 F500 ; Drop S>0
G1 X62.363 S800 F1600
G0 Z2.5 F500 ; Lift S=0
G1 X62.986 S0 F1600
G0 Z0 F500 ; Drop S>0
G1 X71.418 S800 F1600
G0 Z2.5 F500 ; Lift S=0
G1 X72.505 S0 F1600
G0 Z0 F500 ; Drop S>0
G1 X73.504 S800 F1600
G0 Z2.5 F500 ; Lift S=0
G1 X73.588 Y79.793 S0 F1600
G0 Z0 F500 ; Drop S>0
; --- FIX X Backlash ---
G0 X72.288 Y79.793 F1200
G1 X71.653 S800 F1600
G0 Z2.5 F500 ; Lift S=0
G1 X71.597 S0 F1600
G0 Z0 F500 ; Drop S>0
G1 X71.023 S800 F1600
G0 Z2.5 F500 ; Lift S=0
G1 X69.612 S0 F1600
G0 Z0 F500 ; Drop S>0
G1 X60.795 S800 F1600
G0 Z2.5 F500 ; Lift S=0
G1 X60.094 S0 F1600
G0 Z0 F500 ; Drop S>0
G1 X56.083 S800 F1600
G0 Z2.5 F500 ; Lift S=0
G1 X54.904 S0 F1600
G0 Z0 F500 ; Drop S>0
G1 X52.527 S800 F1600
G0 Z2.5 F500 ; Lift S=0
G1 X37.958 S0 F1600
G0 Z0 F500 ; Drop S>0
G1 X37.556 S800 F1600
G0 Z2.5 F500 ; Lift S=0
G1 X35.812 S0 F1600
G0 Z0 F500 ; Drop S>0
G1 X34.175 S800 F1600
G0 Z2.5 F500 ; Lift S=0
G1 X28.572 S0 F1600
G0 Z0 F500 ; Drop S>0
G1 X28.469 S800 F1600
G0 Z2.5 F500 ; Lift S=0
G1 X27.967 S0 F1600
G0 Z0 F500 ; Drop S>0
G1 X27.764 S800 F1600
G0 Z2.5 F500 ; Lift S=0
G1 X23.069 S0 F1600
G0 Z0 F500 ; Drop S>0
G1 X21.679 S800 F1600
G0 Z2.5 F500 ; Lift S=0
G1 X19.986 S0 F1600
G0 Z0 F500 ; Drop S>0
G1 X19.364 S800 F1600
G0 Z2.5 F500 ; Lift S=0
G1 X18.474 S0 F1600
G0 Z0 F500 ; Drop S>0
G1 X18.21 S800 F1600
G0 Z2.5 F500 ; Lift S=0
G1 X16.252 S0 F1600
G0 Z0 F500 ; Drop S>0
G1 X15.452 S800 F1600
G0 Z2.5 F500 ; Lift S=0
G1 X9.852 Y80.693 S0 F1600
G0 Z0 F500 ; Drop S>0
; --- FIX X Backlash ---
G0 X11.152 Y80.693 F1200
G1 X11.757 S800 F1600
G0 Z2.5 F500 ; Lift S=0
G1 X11.983 S0 F1600
G0 Z0 F500 ; Drop S>0
G1 X12.742 S800 F1600
G0 Z2.5 F500 ; Lift S=0
G1 X17.701 S0 F1600
G0 Z0 F500 ; Drop S>0
G1 X18.236 S800 F1600
G0 Z2.5 F500 ; Lift S=0
G1 X19.692 S0 F1600
G0 Z0 F500 ; Drop S>0
G1 X20.774 S800 F1600
G0 Z2.5 F500 ; Lift S=0
G1 X23.108 S0 F1600
G0 Z0 F500 ; Drop S>0
G1 X24.895 S800 F1600
G0 Z2.5 F500 ; Lift S=0
G1 X30.867 S0 F1600
G0 Z0 F500 ; Drop S>0
G1 X32.304 S800 F1600
G0 Z2.5 F500 ; Lift S=0
G1 X34.192 S0 F1600
G0 Z0 F500 ; Drop S>0
G1 X39.165 S800 F1600
G0 Z2.5 F500 ; Lift S=0
G1 X39.451 S0 F1600
G0 Z0 F500 ; Drop S>0
G1 X40.544 S800 F1600
G0 Z2.5 F500 ; Lift S=0
G1 X49.017 S0 F1600
G0 Z0 F500 ; Drop S>0
G1 X53.594 S800 F1600
G0 Z2.5 F500 ; Lift S=0
G1 X56.062 S0 F1600
G0 Z0 F500 ; Drop S>0
G1 X60.317 S800 F1600
G0 Z2.5 F500 ; Lift S=0
G1 X60.577 S0 F1600
G0 Z0 F500 ; Drop S>0
G1 X60.796 S800 F1600
G0 Z2.5 F500 ; Lift S=0
G1 X61.263 S0 F1600
G0 Z0 F500 ; Drop S>0
G1 X61.399 S800 F1600
G0 Z2.5 F500 ; Lift S=0
G1 X63.988 S0 F1600
G0 Z0 F500 ; Drop S>0
G1 X65.191 S800 F1600
G0 Z2.5 F500 ; Lift S=0
G1 X70.064 S0 F1600
G0 Z0 F500 ; Drop S>0
G1 X73.513 S800 F1600
G0 Z2.5 F500 ; Lift S=0
G1 X73.582 Y81.593 S0 F1600
G0 Z0 F500 ; Drop S>0
; --- FIX X Backlash ---
G0 X72.282 Y81.593 F1200
G1 X71.684 S800 F1600
G0 Z2.5 F500 ; Lift S=0
G1 X71.37 S0 F1600
G0 Z0 F500 ; Drop S>0
G1 X68.093 S800 F1600
G0 Z2.5 F500 ; Lift S=0
G1 X67.952 S0 F1600
G0 Z0 F500 ; Drop S>0
G1 X66.771 S800 F1600
G0 Z2.5 F500 ; Lift S=0
G1 X62.33 S0 F1600
G0 Z0 F500 ; Drop S>0
G1 X59.122 S800 F1600
G0 Z2.5 F500 ; Lift S=0
G1 X56.224 S0 F1600
G0 Z0 F500 ; Drop S>0
G1 X55.047 S800 F1600
G0 Z2.5 F500 ; Lift S=0
G1 X47.473 S0 F1600
G0 Z0 F500 ; Drop S>0
G1 X46.561 S800 F1600
G0 Z2.5 F500 ; Lift S=0
G1 X46.4 S0 F1600
G0 Z0 F500 ; Drop S>0
G1 X46.068 S800 F1600
G0 Z2.5 F500 ; Lift S=0
G1 X42.798 S0 F1600
G0 Z0 F500 ; Drop S>0
G1 X38.668 S800 F1600
G0 Z2.5 F500 ; Lift S=0
G1 X20.626 S0 F1600
G0 Z0 F500 ; Drop S>0
G1 X18.112 S800 F1600
G0 Z2.5 F500 ; Lift S=0
G1 X9.736 S0 F1600
G0 Z0 F500 ; Drop S>0
G1 X8.812 S800 F1600
G0 Z2.5 F500 ; Lift S=0
G1 X8.818 Y82.493 S0 F1600
G0 Z0 F500 ; Drop S>0
; --- FIX X Backlash ---
G0 X10.118 Y82.493 F1200
G1 X10.649 S800 F1600
G0 Z2.5 F500 ; Lift S=0
G1 X12.203 S0 F1600
G0 Z0 F500 ; Drop S>0
G1 X12.31 S800 F1600
G0 Z2.5 F500 ; Lift S=0
G1 X24.517 S0 F1600
G0 Z0 F500 ; Drop S>0
G1 X24.871 S800 F1600
G0 Z2.5 F500 ; Lift S=0
G1 X28.675 S0 F1600
G0 Z0 F500 ; Drop S>0
G1 X31.69 S800 F1600
G0 Z2.5 F500 ; Lift S=0
G1 X32.841 S0 F1600
G0 Z0 F500 ; Drop S>0
G1 X34.481 S800 F1600
G0 Z2.5 F500 ; Lift S=0
G1 X50.428 S0 F1600
G0 Z0 F500 ; Drop S>0
G1 X50.874 S800 F1600
G0 Z2.5 F500 ; Lift S=0
G1 X51.523 S0 F1600
G0 Z0 F500 ; Drop S>0
G1 X52.3 S800 F1600
G0 Z2.5 F500 ; Lift S=0
G1 X53.087 S0 F1600
G0 Z0 F500 ; Drop S>0
G1 X53.292 S800 F1600
G0 Z2.5 F500 ; Lift S=0
G1 X53.633 S0 F1600
G0 Z0 F500 ; Drop S>0
G1 X53.753 S800 F1600
G0 Z2.5 F500 ; Lift S=0
G1 X59.088 S0 F1600
G0 Z0 F500 ; Drop S>0
G1 X62.854 S800 F1600
G0 Z2.5 F500 ; Lift S=0
G1 X69.992 S0 F1600
G0 Z0 F500 ; Drop S>0
G1 X70.094 S800 F1600
G0 Z2.5 F500 ; Lift S=0
G1 X70.839 S0 F1600
G0 Z0 F500 ; Drop S>0
G1 X70.952 S800 F1600
G0 Z2.5 F500 ; Lift S=0
G1 X71.878 S0 F1600
G0 Z0 F500 ; Drop S>0
G1 X72.022 S800 F1600
G0 Z2.5 F500 ; Lift S=0
G1 X72.719 S0 F1600
G0 Z0 F500 ; Drop S>0
G1 X72.863 S800 F1600
G0 Z2.5 F500 ; Lift S=0
G1 X73.606 Y83.393 S0 F1600
G0 Z0 F500 ; Drop S>0
; --- FIX X Backlash ---
G0 X72.306 Y83.393 F1200
G1 X68.289 S800 F1600
G0 Z2.5 F500 ; Lift S=0
G1 X46.69 S0 F1600
G0 Z0 F500 ; Drop S>0
G1 X44.397 S800 F1600
G0 Z2.5 F500 ; Lift S=0
G1 X43.634 S0 F1600
G0 Z0 F500 ; Drop S>0
G1 X41.775 S800 F1600
G0 Z2.5 F500 ; Lift S=0
G1 X41.252 S0 F1600
G0 Z0 F500 ; Drop S>0
G1 X37.001 S800 F1600
G0 Z2.5 F500 ; Lift S=0
G1 X29.446 S0 F1600
G0 Z0 F500 ; Drop S>0
G1 X28.094 S800 F1600
G0 Z2.5 F500 ; Lift S=0
G1 X23.187 S0 F1600
G0 Z0 F500 ; Drop S>0
G1 X22.679 S800 F1600
G0 Z2.5 F500 ; Lift S=0
G1 X21.715 S0 F1600
G0 Z0 F500 ; Drop S>0
G1 X20.289 S800 F1600
G0 Z2.5 F500 ; Lift S=0
; --- FIX X Backlash ---
G0 X21.589 Y83.393 F1200
G1 X22.739 Y84.293 S0 F1600
G0 Z0 F500 ; Drop S>0
G1 X23.612 S800 F1600
G0 Z2.5 F500 ; Lift S=0
G1 X24.185 S0 F1600
G0 Z0 F500 ; Drop S>0
G1 X24.931 S800 F1600
G0 Z2.5 F500 ; Lift S=0
G1 X37.995 S0 F1600
G0 Z0 F500 ; Drop S>0
G1 X39.735 S800 F1600
G0 Z2.5 F500 ; Lift S=0
G1 X45.039 S0 F1600
G0 Z0 F500 ; Drop S>0
G1 X45.808 S800 F1600
G0 Z2.5 F500 ; Lift S=0
G1 X49.235 S0 F1600
G0 Z0 F500 ; Drop S>0
G1 X49.332 S800 F1600
G0 Z2.5 F500 ; Lift S=0
G1 X51.152 S0 F1600
G0 Z0 F500 ; Drop S>0
G1 X51.474 S800 F1600
G0 Z2.5 F500 ; Lift S=0
G1 X57.728 S0 F1600
G0 Z0 F500 ; Drop S>0
G1 X60.297 S800 F1600
G0 Z2.5 F500 ; Lift S=0
G1 X60.798 S0 F1600
G0 Z0 F500 ; Drop S>0
G1 X61.114 S800 F1600
G0 Z2.5 F500 ; Lift S=0
G1 X61.879 S0 F1600
G0 Z0 F500 ; Drop S>0
G1 X62.345 S800 F1600
G0 Z2.5 F500 ; Lift S=0
G1 X63.918 S0 F1600
G0 Z0 F500 ; Drop S>0
G1 X64.656 S800 F1600
G0 Z2.5 F500 ; Lift S=0
; --- FIX X Backlash ---
G0 X63.356 Y84.293 F1200
G1 X37.128 Y85.193 S0 F1600
G0 Z0 F500 ; Drop S>0
G1 X35.344 S800 F1600
G0 Z2.5 F500 ; Lift S=0
G1 X29.868 S0 F1600
G0 Z0 F500 ; Drop S>0
G1 X27.754 S800 F1600
G0 Z2.5 F500 ; Lift S=0
G1 X23.846 S0 F1600
G0 Z0 F500 ; Drop S>0
G1 X22.378 S800 F1600
G0 Z2.5 F500 ; Lift S=0
G1 X19.455 S0 F1600
G0 Z0 F500 ; Drop S>0
G1 X19.016 S800 F1600
G0 Z2.5 F500 ; Lift S=0
G1 X18.744 S0 F1600
G0 Z0 F500 ; Drop S>0
G1 X18.469 S800 F1600
G0 Z2.5 F500 ; Lift S=0
; --- FIX X Backlash ---
G0 X19.769 Y85.193 F1200
G1 X20.03 Y86.093 S0 F1600
G0 Z0 F500 ; Drop S>0
G1 X20.28 S800 F1600
G0 Z2.5 F500 ; Lift S=0
G1 X20.524 S0 F1600
G0 Z0 F500 ; Drop S>0
G1 X21 S800 F1600
G0 Z2.5 F500 ; Lift S=0
G1 X21.038 S0 F1600
G0 Z0 F500 ; Drop S>0
G1 X21.675 S800 F1600
G0 Z2.5 F500 ; Lift S=0
G1 X24.44 S0 F1600
G0 Z0 F500 ; Drop S>0
G1 X25.052 S800 F1600
G0 Z2.5 F500 ; Lift S=0
G1 X29.15 S0 F1600
G0 Z0 F500 ; Drop S>0
G1 X33.34 S800 F1600
G0 Z2.5 F500 ; Lift S=0
G1 X35.03 S0 F1600
G0 Z0 F500 ; Drop S>0
G1 X39.013 S800 F1600
G0 Z2.5 F500 ; Lift S=0
G1 X41.319 S0 F1600
G0 Z0 F500 ; Drop S>0
G1 X42.274 S800 F1600
G0 Z2.5 F500 ; Lift S=0
G1 X44.612 S0 F1600
G0 Z0 F500 ; Drop S>0
G1 X48.219 S800 F1600
G0 Z2.5 F500 ; Lift S=0
G1 X59.996 S0 F1600
G0 Z0 F500 ; Drop S>0
G1 X61.937 S800 F1600
G0 Z2.5 F500 ; Lift S=0
G1 X66.906 S0 F1600
G0 Z0 F500 ; Drop S>0
G1 X67.787 S800 F1600
G0 Z2.5 F500 ; Lift S=0
; --- FIX X Backlash ---
G0 X66.487 Y86.093 F1200
G1 X62.223 Y86.993 S0 F1600
G0 Z0 F500 ; Drop S>0
G1 X62.184 S800 F1600
G0 Z2.5 F500 ; Lift S=0
G1 X35.759 S0 F1600
G0 Z0 F500 ; Drop S>0
G1 X35.311 S800 F1600
G0 Z2.5 F500 ; Lift S=0
G1 X33.933 S0 F1600
G0 Z0 F500 ; Drop S>0
G1 X32.807 S800 F1600
G0 Z2.5 F500 ; Lift S=0
G1 X31.36 S0 F1600
G0 Z0 F500 ; Drop S>0
G1 X29.651 S800 F1600
G0 Z2.5 F500 ; Lift S=0
G1 X29.616 S0 F1600
G0 Z0 F500 ; Drop S>0
G1 X29.02 S800 F1600
G0 Z2.5 F500 ; Lift S=0
G1 X12.404 S0 F1600
G0 Z0 F500 ; Drop S>0
G1 X9.112 S800 F1600
G0 Z2.5 F500 ; Lift S=0
G1 X7.941 S0 F1600
G0 Z0 F500 ; Drop S>0
G1 X7.832 S800 F1600
G0 Z2.5 F500 ; Lift S=0
G1 X7.731 Y87.893 S0 F1600
G0 Z0 F500 ; Drop S>0
; --- FIX X Backlash ---
G0 X9.031 Y87.893 F1200
G1 X10.614 S800 F1600
G0 Z2.5 F500 ; Lift S=0
G1 X11.525 S0 F1600
G0 Z0 F500 ; Drop S>0
G1 X14.178 S800 F1600
G0 Z2.5 F500 ; Lift S=0
G1 X33.222 S0 F1600
G0 Z0 F500 ; Drop S>0
G1 X35.856 S800 F1600
G0 Z2.5 F500 ; Lift S=0
G1 X37.344 S0 F1600
G0 Z0 F500 ; Drop S>0
G1 X41.04 S800 F1600
G0 Z2.5 F500 ; Lift S=0
G1 X44.801 S0 F1600
G0 Z0 F500 ; Drop S>0
G1 X45.389 S800 F1600
G0 Z2.5 F500 ; Lift S=0
G1 X52.521 S0 F1600
G0 Z0 F500 ; Drop S>0
G1 X61.226 S800 F1600
G0 Z2.5 F500 ; Lift S=0
G1 X61.608 S0 F1600
G0 Z0 F500 ; Drop S>0
G1 X62.042 S800 F1600
G0 Z2.5 F500 ; Lift S=0
G1 X62.076 S0 F1600
G0 Z0 F500 ; Drop S>0
G1 X62.244 S800 F1600
G0 Z2.5 F500 ; Lift S=0
G1 X63.133 S0 F1600
G0 Z0 F500 ; Drop S>0
G1 X63.387 S800 F1600
G0 Z2.5 F500 ; Lift S=0
G1 X63.674 S0 F1600
G0 Z0 F500 ; Drop S>0
G1 X63.766 S800 F1600
G0 Z2.5 F500 ; Lift S=0
G1 X65.394 S0 F1600
G0 Z0 F500 ; Drop S>0
G1 X66.001 S800 F1600
G0 Z2.5 F500 ; Lift S=0
G1 X66.092 S0 F1600
G0 Z0 F500 ; Drop S>0
G1 X66.538 S800 F1600
G0 Z2.5 F500 ; Lift S=0
G1 X66.678 S0 F1600
G0 Z0 F500 ; Drop S>0
G1 X66.864 S800 F1600
G0 Z2.5 F500 ; Lift S=0
G1 X67.136 S0 F1600
G0 Z0 F500 ; Drop S>0
G1 X67.688 S800 F1600
G0 Z2.5 F500 ; Lift S=0
G1 X68.386 S0 F1600
G0 Z0 F500 ; Drop S>0
G1 X68.793 S800 F1600
G0 Z2.5 F500 ; Lift S=0
G1 X68.896 S0 F1600
G0 Z0 F500 ; Drop S>0
G1 X69.301 S800 F1600
G0 Z2.5 F500 ; Lift S=0
G1 X69.435 S0 F1600
G0 Z0 F500 ; Drop S>0
G1 X69.829 S800 F1600
G0 Z2.5 F500 ; Lift S=0
G1 X69.96 S0 F1600
G0 Z0 F500 ; Drop S>0
G1 X70.344 S800 F1600
G0 Z2.5 F500 ; Lift S=0
G1 X71.205 S0 F1600
G0 Z0 F500 ; Drop S>0
G1 X71.388 S800 F1600
G0 Z2.5 F500 ; Lift S=0
G1 X71.752 S0 F1600
G0 Z0 F500 ; Drop S>0
G1 X72.396 S800 F1600
G0 Z2.5 F500 ; Lift S=0
G1 X72.595 S0 F1600
G0 Z0 F500 ; Drop S>0
G1 X72.8 S800 F1600
G0 Z2.5 F500 ; Lift S=0
G1 X72.985 S0 F1600
G0 Z0 F500 ; Drop S>0
G1 X73.218 S800 F1600
G0 Z2.5 F500 ; Lift S=0

; Washing sequence (no color)
G1 Z10 F1000;        ; Raise brush
G0 X5 Y5 F1200;     ; Rapid move to clean
G1 Z-1 F800;         ; Lower brush
G1 X10 Y12 Z8 F1200;     ; Move
G1 Z-1 F800;         ; Lower
G1 X25 Y14 Z6 F800;     ; Move
G1 Z8 F800;         ; Maintain
G0 X5 Y5 F1200;     ; Rapid
G1 Z-1 F800;         ; Lower
G1 X15 Y12 Z8 F1200;     ; Move
G1 Z-1 F800;         ; Lower
G1 X25 Y14 Z6 F800;     ; Move
G1 Z10 F800;         ; Maintain
G1 F1200;           ; Set feed
G0 Z2.5 F1000 ; Safety Lift
G0 X73.218 Y87.893 F1200 ; Return to pos
G1 X73.33 S0 F1600
G0 Z0 F500 ; Drop S>0
G1 X73.567 S800 F1600
G0 Z2.5 F500 ; Lift S=0
; --- FIX X Backlash ---
G0 X72.267 Y87.893 F1200
G1 X71.948 Y88.793 S0 F1600
G0 Z0 F500 ; Drop S>0
G1 X70.431 S800 F1600
G0 Z2.5 F500 ; Lift S=0
G1 X59.839 S0 F1600
G0 Z0 F500 ; Drop S>0
G1 X58.736 S800 F1600
G0 Z2.5 F500 ; Lift S=0
G1 X56.089 S0 F1600
G0 Z0 F500 ; Drop S>0
G1 X54.45 S800 F1600
G0 Z2.5 F500 ; Lift S=0
G1 X54.228 S0 F1600
G0 Z0 F500 ; Drop S>0
G1 X53.855 S800 F1600
G0 Z2.5 F500 ; Lift S=0
G1 X53.517 S0 F1600
G0 Z0 F500 ; Drop S>0
G1 X53.153 S800 F1600
G0 Z2.5 F500 ; Lift S=0
G1 X48.637 S0 F1600
G0 Z0 F500 ; Drop S>0
G1 X46.798 S800 F1600
G0 Z2.5 F500 ; Lift S=0
G1 X44.382 S0 F1600
G0 Z0 F500 ; Drop S>0
G1 X43.205 S800 F1600
G0 Z2.5 F500 ; Lift S=0
G1 X42.673 S0 F1600
G0 Z0 F500 ; Drop S>0
G1 X42.252 S800 F1600
G0 Z2.5 F500 ; Lift S=0
G1 X38.188 S0 F1600
G0 Z0 F500 ; Drop S>0
G1 X36.829 S800 F1600
G0 Z2.5 F500 ; Lift S=0
G1 X35.5 S0 F1600
G0 Z0 F500 ; Drop S>0
G1 X32.9 S800 F1600
G0 Z2.5 F500 ; Lift S=0
G1 X31.139 S0 F1600
G0 Z0 F500 ; Drop S>0
G1 X30.744 S800 F1600
G0 Z2.5 F500 ; Lift S=0
G1 X30.517 S0 F1600
G0 Z0 F500 ; Drop S>0
G1 X30.328 S800 F1600
G0 Z2.5 F500 ; Lift S=0
G1 X13.152 S0 F1600
G0 Z0 F500 ; Drop S>0
G1 X11.219 S800 F1600
G0 Z2.5 F500 ; Lift S=0
G1 X10.732 S0 F1600
G0 Z0 F500 ; Drop S>0
G1 X7.734 S800 F1600
G0 Z2.5 F500 ; Lift S=0
G1 X7.774 Y89.693 S0 F1600
G0 Z0 F500 ; Drop S>0
; --- FIX X Backlash ---
G0 X9.074 Y89.693 F1200
G1 X12.935 S800 F1600
G0 Z2.5 F500 ; Lift S=0
G1 X13.468 S0 F1600
G0 Z0 F500 ; Drop S>0
G1 X14.595 S800 F1600
G0 Z2.5 F500 ; Lift S=0
G1 X19.803 S0 F1600
G0 Z0 F500 ; Drop S>0
G1 X20.044 S800 F1600
G0 Z2.5 F500 ; Lift S=0
G1 X48.359 S0 F1600
G0 Z0 F500 ; Drop S>0
G1 X48.875 S800 F1600
G0 Z2.5 F500 ; Lift S=0
G1 X49.81 S0 F1600
G0 Z0 F500 ; Drop S>0
G1 X50.394 S800 F1600
G0 Z2.5 F500 ; Lift S=0
G1 X50.547 S0 F1600
G0 Z0 F500 ; Drop S>0
G1 X51.497 S800 F1600
G0 Z2.5 F500 ; Lift S=0
G1 X52.864 S0 F1600
G0 Z0 F500 ; Drop S>0
G1 X54.438 S800 F1600
G0 Z2.5 F500 ; Lift S=0
G1 X57.701 S0 F1600
G0 Z0 F500 ; Drop S>0
G1 X73.448 S800 F1600
G0 Z2.5 F500 ; Lift S=0
G1 X73.505 Y90.593 S0 F1600
G0 Z0 F500 ; Drop S>0
; --- FIX X Backlash ---
G0 X72.205 Y90.593 F1200
G1 X69.292 S800 F1600
G0 Z2.5 F500 ; Lift S=0
G1 X58.5 S0 F1600
G0 Z0 F500 ; Drop S>0
G1 X49.644 S800 F1600
G0 Z2.5 F500 ; Lift S=0
G1 X13.402 S0 F1600
G0 Z0 F500 ; Drop S>0
G1 X13.108 S800 F1600
G0 Z2.5 F500 ; Lift S=0
G1 X12.349 S0 F1600
G0 Z0 F500 ; Drop S>0
G1 X8.297 S800 F1600
G0 Z2.5 F500 ; Lift S=0
; --- FIX X Backlash ---
G0 X9.597 Y90.593 F1200
G1 X11.256 Y91.493 S0 F1600
G0 Z0 F500 ; Drop S>0
G1 X12.935 S800 F1600
G0 Z2.5 F500 ; Lift S=0
G1 X20.814 S0 F1600
G0 Z0 F500 ; Drop S>0
G1 X20.899 S800 F1600
G0 Z2.5 F500 ; Lift S=0
G1 X42.079 S0 F1600
G0 Z0 F500 ; Drop S>0
G1 X47.043 S800 F1600
G0 Z2.5 F500 ; Lift S=0
G1 X48.654 S0 F1600
G0 Z0 F500 ; Drop S>0
G1 X51.753 S800 F1600
G0 Z2.5 F500 ; Lift S=0
G1 X56.662 S0 F1600
G0 Z0 F500 ; Drop S>0
G1 X73.536 S800 F1600
G0 Z2.5 F500 ; Lift S=0
G1 X73.556 Y92.393 S0 F1600
G0 Z0 F500 ; Drop S>0
; --- FIX X Backlash ---
G0 X72.256 Y92.393 F1200
G1 X58.523 S800 F1600
G0 Z2.5 F500 ; Lift S=0
G1 X57.786 S0 F1600
G0 Z0 F500 ; Drop S>0
G1 X53.897 S800 F1600
G0 Z2.5 F500 ; Lift S=0
G1 X52.695 S0 F1600
G0 Z0 F500 ; Drop S>0
G1 X49.823 S800 F1600
G0 Z2.5 F500 ; Lift S=0
G1 X49.742 S0 F1600
G0 Z0 F500 ; Drop S>0
G1 X48.462 S800 F1600
G0 Z2.5 F500 ; Lift S=0
G1 X47.292 S0 F1600
G0 Z0 F500 ; Drop S>0
G1 X43.974 S800 F1600
G0 Z2.5 F500 ; Lift S=0
G1 X41.006 S0 F1600
G0 Z0 F500 ; Drop S>0
G1 X37.612 S800 F1600
G0 Z2.5 F500 ; Lift S=0
G1 X12.978 S0 F1600
G0 Z0 F500 ; Drop S>0
G1 X11.748 S800 F1600
G0 Z2.5 F500 ; Lift S=0
G1 X8.489 S0 F1600
G0 Z0 F500 ; Drop S>0
G1 X7.732 S800 F1600
G0 Z2.5 F500 ; Lift S=0
; --- FIX X Backlash ---
G0 X9.032 Y92.393 F1200
G1 X9.189 Y93.293 S0 F1600
G0 Z0 F500 ; Drop S>0
G1 X9.658 S800 F1600
G0 Z2.5 F500 ; Lift S=0
G1 X10.857 S0 F1600
G0 Z0 F500 ; Drop S>0
G1 X10.941 S800 F1600
G0 Z2.5 F500 ; Lift S=0
G1 X40.356 S0 F1600
G0 Z0 F500 ; Drop S>0
G1 X40.752 S800 F1600
G0 Z2.5 F500 ; Lift S=0
G1 X40.87 S0 F1600
G0 Z0 F500 ; Drop S>0
G1 X44.657 S800 F1600
G0 Z2.5 F500 ; Lift S=0
G1 X44.797 S0 F1600
G0 Z0 F500 ; Drop S>0
G1 X49.897 S800 F1600
G0 Z2.5 F500 ; Lift S=0
G1 X50.468 S0 F1600
G0 Z0 F500 ; Drop S>0
G1 X50.572 S800 F1600
G0 Z2.5 F500 ; Lift S=0
G1 X51.71 S0 F1600
G0 Z0 F500 ; Drop S>0
G1 X51.96 S800 F1600
G0 Z2.5 F500 ; Lift S=0
G1 X52.958 S0 F1600
G0 Z0 F500 ; Drop S>0
G1 X55.147 S800 F1600
G0 Z2.5 F500 ; Lift S=0
G1 X56.886 S0 F1600
G0 Z0 F500 ; Drop S>0
G1 X58.086 S800 F1600
G0 Z2.5 F500 ; Lift S=0
G1 X59.088 S0 F1600
G0 Z0 F500 ; Drop S>0
G1 X73.569 S800 F1600
G0 Z2.5 F500 ; Lift S=0
G1 X73.578 Y94.193 S0 F1600
G0 Z0 F500 ; Drop S>0
; --- FIX X Backlash ---
G0 X72.278 Y94.193 F1200
G1 X56.78 S800 F1600
G0 Z2.5 F500 ; Lift S=0
G1 X55.596 S0 F1600
G0 Z0 F500 ; Drop S>0
G1 X53.952 S800 F1600
G0 Z2.5 F500 ; Lift S=0
G1 X52.878 S0 F1600
G0 Z0 F500 ; Drop S>0
G1 X52.27 S800 F1600
G0 Z2.5 F500 ; Lift S=0
G1 X51.954 S0 F1600
G0 Z0 F500 ; Drop S>0
G1 X51.603 S800 F1600
G0 Z2.5 F500 ; Lift S=0
G1 X47.891 S0 F1600
G0 Z0 F500 ; Drop S>0
G1 X45.741 S800 F1600
G0 Z2.5 F500 ; Lift S=0
G1 X41.66 Y95.093 S0 F1600
G0 Z0 F500 ; Drop S>0
; --- FIX X Backlash ---
G0 X42.96 Y95.093 F1200
G1 X43.741 S800 F1600
G0 Z2.5 F500 ; Lift S=0
G1 X44.329 S0 F1600
G0 Z0 F500 ; Drop S>0
G1 X45.748 S800 F1600
G0 Z2.5 F500 ; Lift S=0
G1 X46.687 S0 F1600
G0 Z0 F500 ; Drop S>0
G1 X50.054 S800 F1600
G0 Z2.5 F500 ; Lift S=0
G1 X54.664 S0 F1600
G0 Z0 F500 ; Drop S>0
G1 X56.112 S800 F1600
G0 Z2.5 F500 ; Lift S=0
G1 X58.181 S0 F1600
G0 Z0 F500 ; Drop S>0
G1 X73.586 S800 F1600
G0 Z2.5 F500 ; Lift S=0
G1 X73.591 Y95.993 S0 F1600
G0 Z0 F500 ; Drop S>0
; --- FIX X Backlash ---
G0 X72.291 Y95.993 F1200
G1 X55.377 S800 F1600
G0 Z2.5 F500 ; Lift S=0
G1 X53.195 S0 F1600
G0 Z0 F500 ; Drop S>0
G1 X49.507 S800 F1600
G0 Z2.5 F500 ; Lift S=0
G1 X47.994 S0 F1600
G0 Z0 F500 ; Drop S>0
G1 X44.506 S800 F1600
G0 Z2.5 F500 ; Lift S=0
G1 X41.483 S0 F1600
G0 Z0 F500 ; Drop S>0
G1 X39.575 S800 F1600
G0 Z2.5 F500 ; Lift S=0
G1 X38.045 S0 F1600
G0 Z0 F500 ; Drop S>0
G1 X37.666 S800 F1600
G0 Z2.5 F500 ; Lift S=0
G1 X36.405 S0 F1600
G0 Z0 F500 ; Drop S>0
G1 X36.167 S800 F1600
G0 Z2.5 F500 ; Lift S=0
G1 X34.96 Y96.893 S0 F1600
G0 Z0 F500 ; Drop S>0
; --- FIX X Backlash ---
G0 X36.26 Y96.893 F1200
G1 X39.271 S800 F1600
G0 Z2.5 F500 ; Lift S=0
G1 X40.68 S0 F1600
G0 Z0 F500 ; Drop S>0
G1 X43.72 S800 F1600
G0 Z2.5 F500 ; Lift S=0
G1 X44.676 S0 F1600
G0 Z0 F500 ; Drop S>0
G1 X45.43 S800 F1600
G0 Z2.5 F500 ; Lift S=0
G1 X47.828 S0 F1600
G0 Z0 F500 ; Drop S>0
G1 X52.32 S800 F1600
G0 Z2.5 F500 ; Lift S=0
G1 X54.221 S0 F1600
G0 Z0 F500 ; Drop S>0
G1 X73.595 S800 F1600
G0 Z2.5 F500 ; Lift S=0
G1 X73.598 Y97.793 S0 F1600
G0 Z0 F500 ; Drop S>0
; --- FIX X Backlash ---
G0 X72.298 Y97.793 F1200
G1 X53.991 S800 F1600
G0 Z2.5 F500 ; Lift S=0
G1 X52.962 S0 F1600
G0 Z0 F500 ; Drop S>0
G1 X50.354 S800 F1600
G0 Z2.5 F500 ; Lift S=0
G1 X48.954 S0 F1600
G0 Z0 F500 ; Drop S>0
G1 X44.489 S800 F1600
G0 Z2.5 F500 ; Lift S=0
G1 X37.517 S0 F1600
G0 Z0 F500 ; Drop S>0
G1 X36.296 S800 F1600
G0 Z2.5 F500 ; Lift S=0
G1 X34.002 S0 F1600
G0 Z0 F500 ; Drop S>0
G1 X31.788 S800 F1600
G0 Z2.5 F500 ; Lift S=0
G1 X8.246 S0 F1600
G0 Z0 F500 ; Drop S>0
G1 X8.013 S800 F1600
G0 Z2.5 F500 ; Lift S=0
; --- FIX X Backlash ---
G0 X9.313 Y97.793 F1200
G1 X32.593 Y98.693 S0 F1600
G0 Z0 F500 ; Drop S>0
G1 X32.72 S800 F1600
G0 Z2.5 F500 ; Lift S=0
G1 X41.194 S0 F1600
G0 Z0 F500 ; Drop S>0
G1 X46.166 S800 F1600
G0 Z2.5 F500 ; Lift S=0
G1 X52.331 S0 F1600
G0 Z0 F500 ; Drop S>0
G1 X60.017 S800 F1600
G0 Z2.5 F500 ; Lift S=0
G1 X63.912 S0 F1600
G0 Z0 F500 ; Drop S>0
G1 X73.601 S800 F1600
G0 Z2.5 F500 ; Lift S=0
G1 Y99.593 S0 F1600
G0 Z0 F500 ; Drop S>0
; --- FIX X Backlash ---
G0 X72.301 Y99.593 F1200
G1 X56.116 S800 F1600
G0 Z2.5 F500 ; Lift S=0

; Washing sequence (no color)
G1 Z10 F1000;        ; Raise brush
G0 X5 Y5 F1200;     ; Rapid move to clean
G1 Z-1 F800;         ; Lower brush
G1 X10 Y12 Z8 F1200;     ; Move
G1 Z-1 F800;         ; Lower
G1 X25 Y14 Z6 F800;     ; Move
G1 Z8 F800;         ; Maintain
G0 X5 Y5 F1200;     ; Rapid
G1 Z-1 F800;         ; Lower
G1 X15 Y12 Z8 F1200;     ; Move
G1 Z-1 F800;         ; Lower
G1 X25 Y14 Z6 F800;     ; Move
G1 Z10 F800;         ; Maintain
G1 F1200;           ; Set feed
G0 Z2.5 F1000 ; Safety Lift
G0 X56.116 Y99.593 F1200 ; Return to pos
G1 X53.73 S0 F1600
G0 Z0 F500 ; Drop S>0
G1 X49.981 S800 F1600
G0 Z2.5 F500 ; Lift S=0
G1 X47.224 S0 F1600
G0 Z0 F500 ; Drop S>0
G1 X41.767 S800 F1600
G0 Z2.5 F500 ; Lift S=0
G1 X36.639 S0 F1600
G0 Z0 F500 ; Drop S>0
G1 X36.534 S800 F1600
G0 Z2.5 F500 ; Lift S=0
G1 X35.229 S0 F1600
G0 Z0 F500 ; Drop S>0
G1 X34.012 S800 F1600
G0 Z2.5 F500 ; Lift S=0
G1 X33.443 S0 F1600
G0 Z0 F500 ; Drop S>0
G1 X33.279 S800 F1600
G0 Z2.5 F500 ; Lift S=0
; --- FIX X Backlash ---
G0 X34.579 Y99.593 F1200
G1 X35.091 Y100.493 S0 F1600
G0 Z0 F500 ; Drop S>0
G1 X36.673 S800 F1600
G0 Z2.5 F500 ; Lift S=0
G1 X47.055 S0 F1600
G0 Z0 F500 ; Drop S>0
G1 X52.285 S800 F1600
G0 Z2.5 F500 ; Lift S=0
G1 X53.758 S0 F1600
G0 Z0 F500 ; Drop S>0
G1 X59.843 S800 F1600
G0 Z2.5 F500 ; Lift S=0
G1 X61.492 S0 F1600
G0 Z0 F500 ; Drop S>0
G1 X73.603 S800 F1600
G0 Z2.5 F500 ; Lift S=0
G1 Y101.393 S0 F1600
G0 Z0 F500 ; Drop S>0
; --- FIX X Backlash ---
G0 X72.303 Y101.393 F1200
G1 X51.761 S800 F1600
G0 Z2.5 F500 ; Lift S=0
G1 X49.647 S0 F1600
G0 Z0 F500 ; Drop S>0
G1 X43.089 S800 F1600
G0 Z2.5 F500 ; Lift S=0
G1 X42.927 S0 F1600
G0 Z0 F500 ; Drop S>0
G1 X42.891 S800 F1600
G0 Z2.5 F500 ; Lift S=0
G1 X39.859 S0 F1600
G0 Z0 F500 ; Drop S>0
G1 X35.968 S800 F1600
G0 Z2.5 F500 ; Lift S=0
G1 X34.194 S0 F1600
G0 Z0 F500 ; Drop S>0
G1 X32.765 S800 F1600
G0 Z2.5 F500 ; Lift S=0
G1 X31.801 S0 F1600
G0 Z0 F500 ; Drop S>0
G1 X30.462 S800 F1600
G0 Z2.5 F500 ; Lift S=0
; --- FIX X Backlash ---
G0 X31.762 Y101.393 F1200
G1 X32.767 Y102.293 S0 F1600
G0 Z0 F500 ; Drop S>0
G1 X33.786 S800 F1600
G0 Z2.5 F500 ; Lift S=0
G1 X34.632 S0 F1600
G0 Z0 F500 ; Drop S>0
G1 X37.409 S800 F1600
G0 Z2.5 F500 ; Lift S=0
G1 X40.426 S0 F1600
G0 Z0 F500 ; Drop S>0
G1 X44.706 S800 F1600
G0 Z2.5 F500 ; Lift S=0
G1 X47.199 S0 F1600
G0 Z0 F500 ; Drop S>0
G1 X73.605 S800 F1600
G0 Z2.5 F500 ; Lift S=0
G1 Y103.193 S0 F1600
G0 Z0 F500 ; Drop S>0
; --- FIX X Backlash ---
G0 X72.305 Y103.193 F1200
G1 X66.867 S800 F1600
G0 Z2.5 F500 ; Lift S=0
G1 X66.456 S0 F1600
G0 Z0 F500 ; Drop S>0
G1 X63.842 S800 F1600
G0 Z2.5 F500 ; Lift S=0
G1 X63.141 S0 F1600
G0 Z0 F500 ; Drop S>0
G1 X62.424 S800 F1600
G0 Z2.5 F500 ; Lift S=0
G1 X62.193 S0 F1600
G0 Z0 F500 ; Drop S>0
G1 X61.911 S800 F1600
G0 Z2.5 F500 ; Lift S=0
G1 X61.5 S0 F1600
G0 Z0 F500 ; Drop S>0
G1 X60.504 S800 F1600
G0 Z2.5 F500 ; Lift S=0
G1 X59.89 S0 F1600
G0 Z0 F500 ; Drop S>0
G1 X50.351 S800 F1600
G0 Z2.5 F500 ; Lift S=0
G1 X48.286 S0 F1600
G0 Z0 F500 ; Drop S>0
G1 X34.195 S800 F1600
G0 Z2.5 F500 ; Lift S=0
G1 X33.281 S0 F1600
G0 Z0 F500 ; Drop S>0
G1 X32.529 S800 F1600
G0 Z2.5 F500 ; Lift S=0
G1 X31.953 S0 F1600
G0 Z0 F500 ; Drop S>0
G1 X31.1 S800 F1600
G0 Z2.5 F500 ; Lift S=0
G1 X29.025 Y104.093 S0 F1600
G0 Z0 F500 ; Drop S>0
; --- FIX X Backlash ---
G0 X30.325 Y104.093 F1200
G1 X31.096 S800 F1600
G0 Z2.5 F500 ; Lift S=0
G1 X33.169 S0 F1600
G0 Z0 F500 ; Drop S>0
G1 X35.926 S800 F1600
G0 Z2.5 F500 ; Lift S=0
G1 X36.808 S0 F1600
G0 Z0 F500 ; Drop S>0
G1 X42.403 S800 F1600
G0 Z2.5 F500 ; Lift S=0
G1 X43.875 S0 F1600
G0 Z0 F500 ; Drop S>0
G1 X61.733 S800 F1600
G0 Z2.5 F500 ; Lift S=0
G1 X62.228 S0 F1600
G0 Z0 F500 ; Drop S>0
G1 X66.617 S800 F1600
G0 Z2.5 F500 ; Lift S=0
G1 X66.903 S0 F1600
G0 Z0 F500 ; Drop S>0
G1 X67.285 S800 F1600
G0 Z2.5 F500 ; Lift S=0
G1 X67.541 S0 F1600
G0 Z0 F500 ; Drop S>0
G1 X73.606 S800 F1600
G0 Z2.5 F500 ; Lift S=0
G1 Y104.993 S0 F1600
G0 Z0 F500 ; Drop S>0
; --- FIX X Backlash ---
G0 X72.306 Y104.993 F1200
G1 X62.259 S800 F1600
G0 Z2.5 F500 ; Lift S=0
G1 X60.807 S0 F1600
G0 Z0 F500 ; Drop S>0
G1 X51.183 S800 F1600
G0 Z2.5 F500 ; Lift S=0
G1 X43.242 S0 F1600
G0 Z0 F500 ; Drop S>0
G1 X41.002 S800 F1600
G0 Z2.5 F500 ; Lift S=0
G1 X39.861 S0 F1600
G0 Z0 F500 ; Drop S>0
G1 X36.65 S800 F1600
G0 Z2.5 F500 ; Lift S=0
G1 X35.965 S0 F1600
G0 Z0 F500 ; Drop S>0
G1 X31.803 S800 F1600
G0 Z2.5 F500 ; Lift S=0
; --- FIX X Backlash ---
G0 X33.103 Y104.993 F1200
G1 X37.29 Y105.893 S0 F1600
G0 Z0 F500 ; Drop S>0
G1 X40.332 S800 F1600
G0 Z2.5 F500 ; Lift S=0
G1 X41.244 S0 F1600
G0 Z0 F500 ; Drop S>0
G1 X42.133 S800 F1600
G0 Z2.5 F500 ; Lift S=0
G1 X45.928 S0 F1600
G0 Z0 F500 ; Drop S>0
G1 X62.869 S800 F1600
G0 Z2.5 F500 ; Lift S=0
G1 X63.828 S0 F1600
G0 Z0 F500 ; Drop S>0
G1 X73.606 S800 F1600
G0 Z2.5 F500 ; Lift S=0
G1 Y106.793 S0 F1600
G0 Z0 F500 ; Drop S>0
; --- FIX X Backlash ---
G0 X72.306 Y106.793 F1200
G1 X61.057 S800 F1600
G0 Z2.5 F500 ; Lift S=0
G1 X60.766 S0 F1600
G0 Z0 F500 ; Drop S>0
G1 X47.131 S800 F1600
G0 Z2.5 F500 ; Lift S=0
G1 X42.645 S0 F1600
G0 Z0 F500 ; Drop S>0
G1 X39.726 S800 F1600
G0 Z2.5 F500 ; Lift S=0
G1 X38.133 S0 F1600
G0 Z0 F500 ; Drop S>0
G1 X35.834 S800 F1600
G0 Z2.5 F500 ; Lift S=0
; --- FIX X Backlash ---
G0 X37.134 Y106.793 F1200
G1 X56.448 Y107.693 S0 F1600
G0 Z0 F500 ; Drop S>0
G1 X56.796 S800 F1600
G0 Z2.5 F500 ; Lift S=0
G1 X57.787 S0 F1600
G0 Z0 F500 ; Drop S>0
G1 X73.606 S800 F1600
G0 Z2.5 F500 ; Lift S=0
G1 Y108.593 S0 F1600
G0 Z0 F500 ; Drop S>0
; --- FIX X Backlash ---
G0 X72.306 Y108.593 F1200
G1 X54.507 S800 F1600
G0 Z2.5 F500 ; Lift S=0

; Washing sequence (no color)
G1 Z10 F1000;        ; Raise brush
G0 X5 Y5 F1200;     ; Rapid move to clean
G1 Z-1 F800;         ; Lower brush
G1 X10 Y12 Z8 F1200;     ; Move
G1 Z-1 F800;         ; Lower
G1 X25 Y14 Z6 F800;     ; Move
G1 Z8 F800;         ; Maintain
G0 X5 Y5 F1200;     ; Rapid
G1 Z-1 F800;         ; Lower
G1 X15 Y12 Z8 F1200;     ; Move
G1 Z-1 F800;         ; Lower
G1 X25 Y14 Z6 F800;     ; Move
G1 Z10 F800;         ; Maintain
G1 F1200;           ; Set feed
G0 Z2.5 F1000 ; Safety Lift
G0 X54.507 Y108.593 F1200 ; Return to pos
G1 X49.473 S0 F1600
G0 Z0 F500 ; Drop S>0
G1 X48.145 S800 F1600
G0 Z2.5 F500 ; Lift S=0
G1 X37.584 S0 F1600
G0 Z0 F500 ; Drop S>0
G1 X37.132 S800 F1600
G0 Z2.5 F500 ; Lift S=0
; --- FIX X Backlash ---
G0 X38.432 Y108.593 F1200
G1 X49.489 Y109.493 S0 F1600
G0 Z0 F500 ; Drop S>0
G1 X73.606 S800 F1600
G0 Z2.5 F500 ; Lift S=0
G1 Y110.393 S0 F1600
G0 Z0 F500 ; Drop S>0
; --- FIX X Backlash ---
G0 X72.306 Y110.393 F1200
G1 X48.499 S800 F1600
G0 Z2.5 F500 ; Lift S=0
G1 X38.804 Y111.293 S0 F1600
G0 Z0 F500 ; Drop S>0
; --- FIX X Backlash ---
G0 X40.104 Y111.293 F1200
G1 X40.343 S800 F1600
G0 Z2.5 F500 ; Lift S=0
G1 X40.986 S0 F1600
G0 Z0 F500 ; Drop S>0
G1 X41.415 S800 F1600
G0 Z2.5 F500 ; Lift S=0
G1 X41.899 S0 F1600
G0 Z0 F500 ; Drop S>0
G1 X41.951 S800 F1600
G0 Z2.5 F500 ; Lift S=0
G1 X45.718 S0 F1600
G0 Z0 F500 ; Drop S>0
G1 X45.982 S800 F1600
G0 Z2.5 F500 ; Lift S=0
G1 X46.425 S0 F1600
G0 Z0 F500 ; Drop S>0
G1 X46.438 S800 F1600
G0 Z2.5 F500 ; Lift S=0
G1 X47.347 S0 F1600
G0 Z0 F500 ; Drop S>0
G1 X47.741 S800 F1600
G0 Z2.5 F500 ; Lift S=0
G1 X48.301 S0 F1600
G0 Z0 F500 ; Drop S>0
G1 X48.587 S800 F1600
G0 Z2.5 F500 ; Lift S=0
G1 X48.626 S0 F1600
G0 Z0 F500 ; Drop S>0
G1 X48.925 S800 F1600
G0 Z2.5 F500 ; Lift S=0
G1 X52.201 S0 F1600
G0 Z0 F500 ; Drop S>0
G1 X73.606 S800 F1600
G0 Z2.5 F500 ; Lift S=0
G1 Y112.193 S0 F1600
G0 Z0 F500 ; Drop S>0
; --- FIX X Backlash ---
G0 X72.306 Y112.193 F1200
G1 X51.462 S800 F1600
G0 Z2.5 F500 ; Lift S=0
G1 X48.88 S0 F1600
G0 Z0 F500 ; Drop S>0
G1 X40.817 S800 F1600
G0 Z2.5 F500 ; Lift S=0
; --- FIX X Backlash ---
G0 X42.117 Y112.193 F1200
G1 X44.738 Y113.093 S0 F1600
G0 Z0 F500 ; Drop S>0
G1 X44.91 S800 F1600
G0 Z2.5 F500 ; Lift S=0
G1 X45.077 S0 F1600
G0 Z0 F500 ; Drop S>0
G1 X45.803 S800 F1600
G0 Z2.5 F500 ; Lift S=0
G1 X46 S0 F1600
G0 Z0 F500 ; Drop S>0
G1 X46.412 S800 F1600
G0 Z2.5 F500 ; Lift S=0
G1 X46.814 S0 F1600
G0 Z0 F500 ; Drop S>0
G1 X46.968 S800 F1600
G0 Z2.5 F500 ; Lift S=0
G1 X47.511 S0 F1600
G0 Z0 F500 ; Drop S>0
G1 X47.839 S800 F1600
G0 Z2.5 F500 ; Lift S=0
G1 X48.057 S0 F1600
G0 Z0 F500 ; Drop S>0
G1 X48.625 S800 F1600
G0 Z2.5 F500 ; Lift S=0
G1 X48.714 S0 F1600
G0 Z0 F500 ; Drop S>0
G1 X49.745 S800 F1600
G0 Z2.5 F500 ; Lift S=0
G1 X55.601 S0 F1600
G0 Z0 F500 ; Drop S>0
G1 X59.884 S800 F1600
G0 Z2.5 F500 ; Lift S=0
G1 X60.297 S0 F1600
G0 Z0 F500 ; Drop S>0
G1 X73.606 S800 F1600
G0 Z2.5 F500 ; Lift S=0
G1 Y113.993 S0 F1600
G0 Z0 F500 ; Drop S>0
; --- FIX X Backlash ---
G0 X72.306 Y113.993 F1200
G1 X58.839 S800 F1600
G0 Z2.5 F500 ; Lift S=0
G1 X57.925 S0 F1600
G0 Z0 F500 ; Drop S>0
G1 X54.681 S800 F1600
G0 Z2.5 F500 ; Lift S=0
G1 X54.595 S0 F1600
G0 Z0 F500 ; Drop S>0
G1 X54.471 S800 F1600
G0 Z2.5 F500 ; Lift S=0
G1 X48.549 S0 F1600
G0 Z0 F500 ; Drop S>0
G1 X48.483 S800 F1600
G0 Z2.5 F500 ; Lift S=0
G1 X48.321 S0 F1600
G0 Z0 F500 ; Drop S>0
G1 X48.199 S800 F1600
G0 Z2.5 F500 ; Lift S=0
G1 X46.335 S0 F1600
G0 Z0 F500 ; Drop S>0
G1 X45.298 S800 F1600
G0 Z2.5 F500 ; Lift S=0
G1 X44.332 Y114.893 S0 F1600
G0 Z0 F500 ; Drop S>0
; --- FIX X Backlash ---
G0 X45.632 Y114.893 F1200
G1 X45.861 S800 F1600
G0 Z2.5 F500 ; Lift S=0
G1 X47.144 S0 F1600
G0 Z0 F500 ; Drop S>0
G1 X47.38 S800 F1600
G0 Z2.5 F500 ; Lift S=0
G1 X55.235 S0 F1600
G0 Z0 F500 ; Drop S>0
G1 X55.415 S800 F1600
G0 Z2.5 F500 ; Lift S=0
G1 X55.97 S0 F1600
G0 Z0 F500 ; Drop S>0
G1 X57.687 S800 F1600
G0 Z2.5 F500 ; Lift S=0
G1 X59.2 S0 F1600
G0 Z0 F500 ; Drop S>0
G1 X73.606 S800 F1600
G0 Z2.5 F500 ; Lift S=0
G1 Y115.793 S0 F1600
G0 Z0 F500 ; Drop S>0
; --- FIX X Backlash ---
G0 X72.306 Y115.793 F1200
G1 X58.086 S800 F1600
G0 Z2.5 F500 ; Lift S=0
G1 X41.924 S0 F1600
G0 Z0 F500 ; Drop S>0
G1 X41.614 S800 F1600
G0 Z2.5 F500 ; Lift S=0
G1 X40.218 S0 F1600
G0 Z0 F500 ; Drop S>0
G1 X39.842 S800 F1600
G0 Z2.5 F500 ; Lift S=0
G1 X39.536 S0 F1600
G0 Z0 F500 ; Drop S>0
G1 X36.525 S800 F1600
G0 Z2.5 F500 ; Lift S=0
G1 X24.074 S0 F1600
G0 Z0 F500 ; Drop S>0
G1 X23.76 S800 F1600
G0 Z2.5 F500 ; Lift S=0
G1 X23.534 S0 F1600
G0 Z0 F500 ; Drop S>0
G1 X22.959 S800 F1600
G0 Z2.5 F500 ; Lift S=0
G1 X22.671 S0 F1600
G0 Z0 F500 ; Drop S>0
G1 X22.268 S800 F1600
G0 Z2.5 F500 ; Lift S=0
G1 X21.472 S0 F1600
G0 Z0 F500 ; Drop S>0
G1 X20.359 S800 F1600
G0 Z2.5 F500 ; Lift S=0
G1 X8.073 Y116.693 S0 F1600
G0 Z0 F500 ; Drop S>0
; --- FIX X Backlash ---
G0 X9.373 Y116.693 F1200
G1 X9.721 S800 F1600
G0 Z2.5 F500 ; Lift S=0
G1 X9.967 S0 F1600
G0 Z0 F500 ; Drop S>0
G1 X10.325 S800 F1600
G0 Z2.5 F500 ; Lift S=0
G1 X12.613 S0 F1600
G0 Z0 F500 ; Drop S>0
G1 X12.735 S800 F1600
G0 Z2.5 F500 ; Lift S=0
G1 X20.671 S0 F1600
G0 Z0 F500 ; Drop S>0
G1 X22.862 S800 F1600
G0 Z2.5 F500 ; Lift S=0
G1 X23.93 S0 F1600
G0 Z0 F500 ; Drop S>0
G1 X25.534 S800 F1600
G0 Z2.5 F500 ; Lift S=0
G1 X26.805 S0 F1600
G0 Z0 F500 ; Drop S>0
G1 X27.057 S800 F1600
G0 Z2.5 F500 ; Lift S=0
G1 X35.973 S0 F1600
G0 Z0 F500 ; Drop S>0
G1 X38.484 S800 F1600
G0 Z2.5 F500 ; Lift S=0
G1 X38.887 S0 F1600
G0 Z0 F500 ; Drop S>0
G1 X40.178 S800 F1600
G0 Z2.5 F500 ; Lift S=0
G1 X40.408 S0 F1600
G0 Z0 F500 ; Drop S>0
G1 X42.217 S800 F1600
G0 Z2.5 F500 ; Lift S=0
G1 X53.188 S0 F1600
G0 Z0 F500 ; Drop S>0
G1 X73.606 S800 F1600
G0 Z2.5 F500 ; Lift S=0
G1 Y117.593 S0 F1600
G0 Z0 F500 ; Drop S>0
; --- FIX X Backlash ---
G0 X72.306 Y117.593 F1200
G1 X51.177 S800 F1600
G0 Z2.5 F500 ; Lift S=0
G1 X35.135 S0 F1600
G0 Z0 F500 ; Drop S>0
G1 X25.995 S800 F1600
G0 Z2.5 F500 ; Lift S=0
G1 X25.857 S0 F1600
G0 Z0 F500 ; Drop S>0
G1 X25.594 S800 F1600
G0 Z2.5 F500 ; Lift S=0
G1 X24.354 S0 F1600
G0 Z0 F500 ; Drop S>0
G1 X23.25 S800 F1600
G0 Z2.5 F500 ; Lift S=0
G1 X22.442 S0 F1600
G0 Z0 F500 ; Drop S>0
G1 X22.137 S800 F1600
G0 Z2.5 F500 ; Lift S=0
G1 X21.63 S0 F1600
G0 Z0 F500 ; Drop S>0
G1 X18.842 S800 F1600
G0 Z2.5 F500 ; Lift S=0
G1 X17.09 S0 F1600
G0 Z0 F500 ; Drop S>0
G1 X16.986 S800 F1600
G0 Z2.5 F500 ; Lift S=0
G1 X16.393 S0 F1600
G0 Z0 F500 ; Drop S>0
G1 X13.285 S800 F1600
G0 Z2.5 F500 ; Lift S=0
G1 X11.084 S0 F1600
G0 Z0 F500 ; Drop S>0
G1 X9.407 S800 F1600
G0 Z2.5 F500 ; Lift S=0
G1 X7.772 Y118.493 S0 F1600
G0 Z0 F500 ; Drop S>0
; --- FIX X Backlash ---
G0 X9.072 Y118.493 F1200
G1 X9.587 S800 F1600
G0 Z2.5 F500 ; Lift S=0
G1 X13.48 S0 F1600
G0 Z0 F500 ; Drop S>0
G1 X18.522 S800 F1600
G0 Z2.5 F500 ; Lift S=0
G1 X19.235 S0 F1600
G0 Z0 F500 ; Drop S>0
G1 X23.018 S800 F1600
G0 Z2.5 F500 ; Lift S=0
G1 X23.824 S0 F1600
G0 Z0 F500 ; Drop S>0
G1 X25.81 S800 F1600
G0 Z2.5 F500 ; Lift S=0
G1 X26.883 S0 F1600
G0 Z0 F500 ; Drop S>0
G1 X33.445 S800 F1600
G0 Z2.5 F500 ; Lift S=0
G1 X34.619 S0 F1600
G0 Z0 F500 ; Drop S>0
G1 X45.444 S800 F1600
G0 Z2.5 F500 ; Lift S=0
G1 X46.002 S0 F1600
G0 Z0 F500 ; Drop S>0
G1 X46.757 S800 F1600
G0 Z2.5 F500 ; Lift S=0
G1 X51.756 S0 F1600
G0 Z0 F500 ; Drop S>0
G1 X73.606 S800 F1600
G0 Z2.5 F500 ; Lift S=0
G1 Y119.393 S0 F1600
G0 Z0 F500 ; Drop S>0
; --- FIX X Backlash ---
G0 X72.306 Y119.393 F1200
G1 X50.59 S800 F1600
G0 Z2.5 F500 ; Lift S=0

; Washing sequence (no color)
G1 Z10 F1000;        ; Raise brush
G0 X5 Y5 F1200;     ; Rapid move to clean
G1 Z-1 F800;         ; Lower brush
G1 X10 Y12 Z8 F1200;     ; Move
G1 Z-1 F800;         ; Lower
G1 X25 Y14 Z6 F800;     ; Move
G1 Z8 F800;         ; Maintain
G0 X5 Y5 F1200;     ; Rapid
G1 Z-1 F800;         ; Lower
G1 X15 Y12 Z8 F1200;     ; Move
G1 Z-1 F800;         ; Lower
G1 X25 Y14 Z6 F800;     ; Move
G1 Z10 F800;         ; Maintain
G1 F1200;           ; Set feed
G0 Z2.5 F1000 ; Safety Lift
G0 X50.59 Y119.393 F1200 ; Return to pos
G1 X50.424 S0 F1600
G0 Z0 F500 ; Drop S>0
G1 X31.846 S800 F1600
G0 Z2.5 F500 ; Lift S=0
G1 X29.482 S0 F1600
G0 Z0 F500 ; Drop S>0
G1 X25.902 S800 F1600
G0 Z2.5 F500 ; Lift S=0
G1 X24.653 S0 F1600
G0 Z0 F500 ; Drop S>0
G1 X22.627 S800 F1600
G0 Z2.5 F500 ; Lift S=0
G1 X21.782 S0 F1600
G0 Z0 F500 ; Drop S>0
G1 X13.774 S800 F1600
G0 Z2.5 F500 ; Lift S=0
G1 X11.371 S0 F1600
G0 Z0 F500 ; Drop S>0
G1 X7.738 S800 F1600
G0 Z2.5 F500 ; Lift S=0
G1 X7.731 Y120.293 S0 F1600
G0 Z0 F500 ; Drop S>0
; --- FIX X Backlash ---
G0 X9.031 Y120.293 F1200
G1 X13.356 S800 F1600
G0 Z2.5 F500 ; Lift S=0
G1 X13.766 S0 F1600
G0 Z0 F500 ; Drop S>0
G1 X14.602 S800 F1600
G0 Z2.5 F500 ; Lift S=0
G1 X22.315 S0 F1600
G0 Z0 F500 ; Drop S>0
G1 X26.033 S800 F1600
G0 Z2.5 F500 ; Lift S=0
G1 X30.707 S0 F1600
G0 Z0 F500 ; Drop S>0
G1 X31.583 S800 F1600
G0 Z2.5 F500 ; Lift S=0
G1 X31.817 S0 F1600
G0 Z0 F500 ; Drop S>0
G1 X32.266 S800 F1600
G0 Z2.5 F500 ; Lift S=0
G1 X33.037 S0 F1600
G0 Z0 F500 ; Drop S>0
G1 X34.943 S800 F1600
G0 Z2.5 F500 ; Lift S=0
G1 X35.314 S0 F1600
G0 Z0 F500 ; Drop S>0
G1 X37.194 S800 F1600
G0 Z2.5 F500 ; Lift S=0
G1 X37.731 S0 F1600
G0 Z0 F500 ; Drop S>0
G1 X38.113 S800 F1600
G0 Z2.5 F500 ; Lift S=0
G1 X40.385 S0 F1600
G0 Z0 F500 ; Drop S>0
G1 X40.626 S800 F1600
G0 Z2.5 F500 ; Lift S=0
G1 X41.366 S0 F1600
G0 Z0 F500 ; Drop S>0
G1 X41.522 S800 F1600
G0 Z2.5 F500 ; Lift S=0
G1 X43.251 S0 F1600
G0 Z0 F500 ; Drop S>0
G1 X44.259 S800 F1600
G0 Z2.5 F500 ; Lift S=0
G1 X44.466 S0 F1600
G0 Z0 F500 ; Drop S>0
G1 X73.606 S800 F1600
G0 Z2.5 F500 ; Lift S=0
G1 Y121.193 S0 F1600
G0 Z0 F500 ; Drop S>0
; --- FIX X Backlash ---
G0 X72.306 Y121.193 F1200
G1 X41.975 S800 F1600
G0 Z2.5 F500 ; Lift S=0
G1 X33.122 S0 F1600
G0 Z0 F500 ; Drop S>0
G1 X33.013 S800 F1600
G0 Z2.5 F500 ; Lift S=0
G1 X24.289 S0 F1600
G0 Z0 F500 ; Drop S>0
G1 X23.945 S800 F1600
G0 Z2.5 F500 ; Lift S=0
G1 X23.725 S0 F1600
G0 Z0 F500 ; Drop S>0
G1 X22.543 S800 F1600
G0 Z2.5 F500 ; Lift S=0
G1 X22.212 S0 F1600
G0 Z0 F500 ; Drop S>0
G1 X21.236 S800 F1600
G0 Z2.5 F500 ; Lift S=0
G1 X15.169 S0 F1600
G0 Z0 F500 ; Drop S>0
G1 X13.194 S800 F1600
G0 Z2.5 F500 ; Lift S=0
G1 X12.655 S0 F1600
G0 Z0 F500 ; Drop S>0
G1 X7.748 S800 F1600
G0 Z2.5 F500 ; Lift S=0
; --- FIX X Backlash ---
G0 X9.048 Y121.193 F1200
G1 X9.174 Y122.093 S0 F1600
G0 Z0 F500 ; Drop S>0
G1 X15.189 S800 F1600
G0 Z2.5 F500 ; Lift S=0
G1 X16.488 S0 F1600
G0 Z0 F500 ; Drop S>0
G1 X17.251 S800 F1600
G0 Z2.5 F500 ; Lift S=0
G1 X17.357 S0 F1600
G0 Z0 F500 ; Drop S>0
G1 X19.628 S800 F1600
G0 Z2.5 F500 ; Lift S=0
G1 X25.789 S0 F1600
G0 Z0 F500 ; Drop S>0
G1 X26.385 S800 F1600
G0 Z2.5 F500 ; Lift S=0
G1 X27.353 S0 F1600
G0 Z0 F500 ; Drop S>0
G1 X30.147 S800 F1600
G0 Z2.5 F500 ; Lift S=0
G1 X42.645 S0 F1600
G0 Z0 F500 ; Drop S>0
G1 X43.866 S800 F1600
G0 Z2.5 F500 ; Lift S=0
G1 X44.216 S0 F1600
G0 Z0 F500 ; Drop S>0
G1 X47.676 S800 F1600
G0 Z2.5 F500 ; Lift S=0
G1 X49.449 S0 F1600
G0 Z0 F500 ; Drop S>0
G1 X73.606 S800 F1600
G0 Z2.5 F500 ; Lift S=0
G1 Y122.993 S0 F1600
G0 Z0 F500 ; Drop S>0
; --- FIX X Backlash ---
G0 X72.306 Y122.993 F1200
G1 X47.522 S800 F1600
G0 Z2.5 F500 ; Lift S=0
G1 X46.83 S0 F1600
G0 Z0 F500 ; Drop S>0
G1 X46.064 S800 F1600
G0 Z2.5 F500 ; Lift S=0
G1 X44.763 S0 F1600
G0 Z0 F500 ; Drop S>0
G1 X36.222 S800 F1600
G0 Z2.5 F500 ; Lift S=0
G1 X32.223 S0 F1600
G0 Z0 F500 ; Drop S>0
G1 X26.178 S800 F1600
G0 Z2.5 F500 ; Lift S=0
G1 X25.309 S0 F1600
G0 Z0 F500 ; Drop S>0
G1 X15.867 S800 F1600
G0 Z2.5 F500 ; Lift S=0
G1 X15.489 S0 F1600
G0 Z0 F500 ; Drop S>0
G1 X9.922 S800 F1600
G0 Z2.5 F500 ; Lift S=0
G1 X7.86 Y123.893 S0 F1600
G0 Z0 F500 ; Drop S>0
; --- FIX X Backlash ---
G0 X9.16 Y123.893 F1200
G1 X10.939 S800 F1600
G0 Z2.5 F500 ; Lift S=0
G1 X14.681 S0 F1600
G0 Z0 F500 ; Drop S>0
G1 X18.035 S800 F1600
G0 Z2.5 F500 ; Lift S=0
G1 X19.433 S0 F1600
G0 Z0 F500 ; Drop S>0
G1 X24.059 S800 F1600
G0 Z2.5 F500 ; Lift S=0
G1 X25 S0 F1600
G0 Z0 F500 ; Drop S>0
G1 X26.71 S800 F1600
G0 Z2.5 F500 ; Lift S=0
G1 X27.89 S0 F1600
G0 Z0 F500 ; Drop S>0
G1 X37.619 S800 F1600
G0 Z2.5 F500 ; Lift S=0
G1 X39.618 S0 F1600
G0 Z0 F500 ; Drop S>0
G1 X41.54 S800 F1600
G0 Z2.5 F500 ; Lift S=0
G1 X41.681 S0 F1600
G0 Z0 F500 ; Drop S>0
G1 X42.096 S800 F1600
G0 Z2.5 F500 ; Lift S=0
G1 X43.645 S0 F1600
G0 Z0 F500 ; Drop S>0
G1 X50.684 S800 F1600
G0 Z2.5 F500 ; Lift S=0
G1 X50.726 S0 F1600
G0 Z0 F500 ; Drop S>0
G1 X51.219 S800 F1600
G0 Z2.5 F500 ; Lift S=0
G1 X51.387 S0 F1600
G0 Z0 F500 ; Drop S>0
G1 X73.606 S800 F1600
G0 Z2.5 F500 ; Lift S=0
G1 Y124.793 S0 F1600
G0 Z0 F500 ; Drop S>0
; --- FIX X Backlash ---
G0 X72.306 Y124.793 F1200
G1 X42.846 S800 F1600
G0 Z2.5 F500 ; Lift S=0
G1 X40.328 S0 F1600
G0 Z0 F500 ; Drop S>0
G1 X34.547 S800 F1600
G0 Z2.5 F500 ; Lift S=0

; Washing sequence (no color)
G1 Z10 F1000;        ; Raise brush
G0 X5 Y5 F1200;     ; Rapid move to clean
G1 Z-1 F800;         ; Lower brush
G1 X10 Y12 Z8 F1200;     ; Move
G1 Z-1 F800;         ; Lower
G1 X25 Y14 Z6 F800;     ; Move
G1 Z8 F800;         ; Maintain
G0 X5 Y5 F1200;     ; Rapid
G1 Z-1 F800;         ; Lower
G1 X15 Y12 Z8 F1200;     ; Move
G1 Z-1 F800;         ; Lower
G1 X25 Y14 Z6 F800;     ; Move
G1 Z10 F800;         ; Maintain
G1 F1200;           ; Set feed
G0 Z2.5 F1000 ; Safety Lift
G0 X34.547 Y124.793 F1200 ; Return to pos
G1 X31.814 S0 F1600
G0 Z0 F500 ; Drop S>0
G1 X28.894 S800 F1600
G0 Z2.5 F500 ; Lift S=0
G1 X25.739 S0 F1600
G0 Z0 F500 ; Drop S>0
G1 X21.837 S800 F1600
G0 Z2.5 F500 ; Lift S=0
G1 X18.528 S0 F1600
G0 Z0 F500 ; Drop S>0
G1 X14.651 S800 F1600
G0 Z2.5 F500 ; Lift S=0
G1 X13.148 S0 F1600
G0 Z0 F500 ; Drop S>0
G1 X7.747 S800 F1600
G0 Z2.5 F500 ; Lift S=0
G1 X7.731 Y125.693 S0 F1600
G0 Z0 F500 ; Drop S>0
; --- FIX X Backlash ---
G0 X9.031 Y125.693 F1200
G1 X16.732 S800 F1600
G0 Z2.5 F500 ; Lift S=0
G1 X17.043 S0 F1600
G0 Z0 F500 ; Drop S>0
G1 X21.589 S800 F1600
G0 Z2.5 F500 ; Lift S=0
G1 X23.577 S0 F1600
G0 Z0 F500 ; Drop S>0
G1 X27.13 S800 F1600
G0 Z2.5 F500 ; Lift S=0
G1 X27.984 S0 F1600
G0 Z0 F500 ; Drop S>0
G1 X30.348 S800 F1600
G0 Z2.5 F500 ; Lift S=0
G1 X33.556 S0 F1600
G0 Z0 F500 ; Drop S>0
G1 X73.606 S800 F1600
G0 Z2.5 F500 ; Lift S=0
G1 Y126.593 S0 F1600
G0 Z0 F500 ; Drop S>0
; --- FIX X Backlash ---
G0 X72.306 Y126.593 F1200
G1 X33.816 S800 F1600
G0 Z2.5 F500 ; Lift S=0
G1 X33.126 S0 F1600
G0 Z0 F500 ; Drop S>0
G1 X27.072 S800 F1600
G0 Z2.5 F500 ; Lift S=0
G1 X25.891 S0 F1600
G0 Z0 F500 ; Drop S>0
G1 X24.064 S800 F1600
G0 Z2.5 F500 ; Lift S=0
G1 X21.88 S0 F1600
G0 Z0 F500 ; Drop S>0
G1 X7.731 S800 F1600
G0 Z2.5 F500 ; Lift S=0
G1 Y127.493 S0 F1600
G0 Z0 F500 ; Drop S>0
; --- FIX X Backlash ---
G0 X9.031 Y127.493 F1200
G1 X25.657 S800 F1600
G0 Z2.5 F500 ; Lift S=0
G1 X26.05 S0 F1600
G0 Z0 F500 ; Drop S>0
G1 X27.253 S800 F1600
G0 Z2.5 F500 ; Lift S=0
G1 X29 S0 F1600
G0 Z0 F500 ; Drop S>0
G1 X73.607 S800 F1600
G0 Z2.5 F500 ; Lift S=0
G1 Y128.393 S0 F1600
G0 Z0 F500 ; Drop S>0
; --- FIX X Backlash ---
G0 X72.307 Y128.393 F1200
G1 X28.474 S800 F1600
G0 Z2.5 F500 ; Lift S=0
G1 X28.201 S0 F1600
G0 Z0 F500 ; Drop S>0
G1 X26.857 S800 F1600
G0 Z2.5 F500 ; Lift S=0
G1 X25.796 S0 F1600
G0 Z0 F500 ; Drop S>0
G1 X7.731 S800 F1600

; Washing sequence (no color)
G1 Z10 F1000;        ; Raise brush
G0 X5 Y5 F1200;     ; Rapid move to clean
G1 Z-1 F800;         ; Lower brush
G1 X10 Y12 Z8 F1200;     ; Move
G1 Z-1 F800;         ; Lower
G1 X25 Y14 Z6 F800;     ; Move
G1 Z8 F800;         ; Maintain
G0 X5 Y5 F1200;     ; Rapid
G1 Z-1 F800;         ; Lower
G1 X15 Y12 Z8 F1200;     ; Move
G1 Z-1 F800;         ; Lower
G1 X25 Y14 Z6 F800;     ; Move
G1 Z10 F800;         ; Maintain
G1 F1200;           ; Set feed
G0 Z2.5 F1000 ; Safety Lift

; Color picking sequence
G1 Z10 F1000;         ; Raise brush
G0 X41 Y5 F1200;    ; Rapid move to color 1
G1 Z10 F1000;         ; Raise brush
G0 X41 Y5 F1200;    ; Rapid move to color 1
G1 Z0 F1000;         ; Lower into color
G1 X40.102 Y7.295 Z0 S800 F1200
G1 X40.026 Y7.642 Z0 F1200
G1 X40 Y8 Z0 F1200
G1 X40.026 Y8.358 Z0 F1200
G1 X40.102 Y8.705 Z0 F1200
G1 X40.225 Y9.041 Z0 F1200
G1 X40.393 Y9.362 Z0 F1200
G1 X40.603 Y9.668 Z0 F1200
G1 X40.854 Y9.957 Z0 F1200
G1 X41.142 Y10.226 Z0 F1200
G1 X41.464 Y10.475 Z0 F1200
G1 X41.82 Y10.701 Z0 F1200
G1 X42.204 Y10.902 Z0 F1200
G1 X42.617 Y11.078 Z0 F1200
G1 X43.054 Y11.225 Z0 F1200
G1 X43.513 Y11.343 Z0 F1200
G1 X43.992 Y11.429 Z0 F1200
G1 X44.489 Y11.482 Z0 F1200
G1 X45 Y11.5 Z0 F1200
G1 X45.511 Y11.482 Z0 F1200
G1 X46.008 Y11.429 Z0 F1200
G1 X46.487 Y11.343 Z0 F1200
G1 X46.946 Y11.225 Z0 F1200
G1 X47.383 Y11.078 Z0 F1200
G1 X47.796 Y10.902 Z0 F1200
G1 X48.18 Y10.701 Z0 F1200
G1 X48.536 Y10.475 Z0 F1200
G1 X48.858 Y10.226 Z0 F1200
G1 X49.146 Y9.957 Z0 F1200
G1 X49.397 Y9.668 Z0 F1200
G1 X49.607 Y9.362 Z0 F1200
G1 X49.775 Y9.041 Z0 F1200
G1 X49.898 Y8.705 Z0 F1200
G1 X49.974 Y8.358 Z0 F1200
G1 X50 Y8 Z0 F1200
G1 X49.974 Y7.642 Z0 F1200
G1 X49.898 Y7.295 Z0 F1200
G1 X49.775 Y6.959 Z0 F1200
G1 X49.607 Y6.638 Z0 F1200
G1 X49.397 Y6.332 Z0 F1200
G1 X49.146 Y6.043 Z0 F1200
G1 X48.858 Y5.774 Z0 F1200
G1 X48.536 Y5.525 Z0 F1200
G1 X48.18 Y5.299 Z0 F1200
G1 X47.796 Y5.098 Z0 F1200
G1 X47.383 Y4.922 Z0 F1200
G1 X46.946 Y4.775 Z0 F1200
G1 X46.487 Y4.657 Z0 F1200
G1 X46.008 Y4.571 Z0 F1200
G1 X45.511 Y4.518 Z0 F1200
G1 X45 Y4.5 Z0 F1200
G1 X44.489 Y4.518 Z0 F1200
G1 X43.992 Y4.571 Z0 F1200
G1 X43.513 Y4.657 Z0 F1200
G1 X43.054 Y4.775 Z0 F1200
G1 X42.617 Y4.922 Z0 F1200
G1 X42.204 Y5.098 Z0 F1200
G1 X41.82 Y5.299 Z0 F1200
G1 X41.464 Y5.525 Z0 F1200
G1 X41.142 Y5.774 Z0 F1200
G1 X40.854 Y6.043 Z0 F1200
G1 X40.603 Y6.332 Z0 F1200
G1 X40.393 Y6.638 Z0 F1200
G1 X40.225 Y6.959 Z0 F1200
G1 Z7 F800;         ; Raise from color
G1 X34 Y8 Z1 F1200;     ; Movement in paint
G1 X24 Y18 Z8 F500;     ; Move in paint
G1 F1200;           ; Set feed rate
G0 Z2.5 F1000 ; Safety Lift
;Offset @ 1500 mm/min, 90% power

M8
G0 Z3.5 F1000
; --- FIX X Backlash ---
G0 X9.031 Y128.393 F1200
; --- FIX Y Backlash ---
G0 X9.031 Y127.093 F1200
G0 X12.417 Y121.709 Z3.5 F1500
G1 Z0 F1000
;Layer C1
G1 X12.68 Y121.752 Z0 S900 F1600
; --- FIX Y Backlash ---
G0 X12.68 Y123.052 F1200
G1 X12.974 Y123.116 Z0 F1600
G1 X13.292 Y123.199 Z0 F1600
G1 X13.958 Y123.413 Z0 F1600
G1 X14.609 Y123.672 Z0 F1600
G1 X14.907 Y123.813 Z0 F1600
G1 X15.172 Y123.957 Z0 F1600
G1 X15.398 Y124.103 Z0 F1600
G1 X15.575 Y124.247 Z0 F1600
G1 X15.799 Y124.437 Z0 F1600
G1 X16.049 Y124.605 Z0 F1600
G1 X16.294 Y124.736 Z0 F1600
G1 X16.504 Y124.809 Z0 F1600
G1 X16.792 Y124.931 Z0 F1600
G1 X17.076 Y125.147 Z0 F1600
G1 X17.197 Y125.272 Z0 F1600
G1 X17.293 Y125.397 Z0 F1600
G1 X17.357 Y125.517 Z0 F1600
G1 X17.38 Y125.623 Z0 F1600
; --- FIX X Backlash ---
G0 X16.08 Y125.623 F1200
G1 X16.027 Y125.637 Z0 F1600
G1 X15.883 Y125.628 Z0 F1600
G1 X15.67 Y125.598 Z0 F1600
G1 X15.408 Y125.552 Z0 F1600
; --- FIX Y Backlash ---
G0 X15.408 Y124.252 F1200
G1 X14.832 Y124.13 Z0 F1600
G1 X14.33 Y123.992 Z0 F1600
G1 X14.141 Y123.914 Z0 F1600
G1 X13.948 Y123.806 Z0 F1600
G1 X13.772 Y123.682 Z0 F1600
G1 X13.45 Y123.382 Z0 F1600
G1 X13.215 Y123.221 Z0 F1600
G1 X12.935 Y123.075 Z0 F1600
G1 X12.614 Y122.946 Z0 F1600
G1 X12.253 Y122.834 Z0 F1600
G1 X11.856 Y122.741 Z0 F1600
G1 X11.426 Y122.667 Z0 F1600
G1 X10.471 Y122.56 Z0 F1600
G1 X10.003 Y122.488 Z0 F1600
G1 X9.796 Y122.449 Z0 F1600
G1 X9.615 Y122.409 Z0 F1600
G1 X9.467 Y122.37 Z0 F1600
G1 X9.174 Y122.266 Z0 F1600
G1 X8.975 Y122.217 Z0 F1600
G1 X8.787 Y122.188 Z0 F1600
G1 X8.634 Z0 F1600
G1 X8.476 Y122.192 Z0 F1600
G1 X8.34 Y122.179 Z0 F1600
G1 X8.23 Y122.152 Z0 F1600
G1 X8.153 Y122.113 Z0 F1600
G1 X8.112 Y122.066 Z0 F1600
G1 Y122.014 Z0 F1600
G1 X8.161 Y121.962 Z0 F1600
; --- FIX X Backlash ---
G0 X9.461 Y121.962 F1200
G1 X9.56 Y121.913 Z0 F1600
G1 X9.678 Y121.887 Z0 F1600
G1 X9.8 Z0 F1600
G1 X9.913 Y121.908 Z0 F1600
G1 X10.001 Y121.954 Z0 F1600
; --- FIX Y Backlash ---
G0 X10.001 Y123.254 F1200
G1 X10.079 Y123.307 Z0 F1600
G1 X10.132 Y123.319 Z0 F1600
G1 X10.164 Y123.293 Z0 F1600
; --- FIX Y Backlash ---
G0 X10.164 Y121.993 F1200
G1 X10.174 Y121.928 Z0 F1600
G1 X10.189 Y121.871 Z0 F1600
G1 X10.231 Y121.862 Z0 F1600
G1 X10.299 Y121.898 Z0 F1600
; --- FIX Y Backlash ---
G0 X10.299 Y123.198 F1200
G1 X10.392 Y123.28 Z0 F1600
G1 X10.495 Y123.373 Z0 F1600
G1 X10.587 Y123.439 Z0 F1600
G1 X10.668 Y123.477 Z0 F1600
G1 X10.737 Y123.487 Z0 F1600
G1 X10.794 Y123.47 Z0 F1600
G1 X10.837 Y123.426 Z0 F1600
; --- FIX Y Backlash ---
G0 X10.837 Y122.126 F1200
G1 X10.865 Y122.054 Z0 F1600
G1 X10.878 Y121.955 Z0 F1600
G1 X10.888 Y121.868 Z0 F1600
G1 X10.905 Y121.826 Z0 F1600
G1 X10.93 Y121.832 Z0 F1600
; --- FIX Y Backlash ---
G0 X10.93 Y123.132 F1200
G1 X10.959 Y123.187 Z0 F1600
G1 X10.997 Y123.248 Z0 F1600
G1 X11.046 Y123.287 Z0 F1600
G1 X11.102 Y123.299 Z0 F1600
G1 X11.156 Y123.282 Z0 F1600
G1 X11.206 Y123.275 Z0 F1600
G1 X11.246 Y123.313 Z0 F1600
G1 X11.273 Y123.389 Z0 F1600
G1 X11.283 Y123.496 Z0 F1600
G1 Y123.589 Z0 F1600
G1 X11.29 Y123.657 Z0 F1600
G1 X11.303 Y123.699 Z0 F1600
G1 X11.328 Y123.715 Z0 F1600
G1 X11.368 Y123.707 Z0 F1600
G1 X11.427 Y123.674 Z0 F1600
; --- FIX Y Backlash ---
