
G0 Z10 F500;      ; Move to clearance level
; G0 X-10 Y-10 F1200; Homing
; G0 X-5 Y-5 F1200; go in
; G10 P0 L20 X0 Y0; set to zero
G1 F1200;           ; Set feed rate
G90 ; Force absolute mode
;LightBurn 1.6.04
;Custom GCode device profile, absolute coords
;Bounds: X37.55 Y32.95 to X98.45 Y102.3
G00 G17 G40 G21 G54
M3
G1 Z10 F1000

; Color picking sequence
G1 Z10 F1000;         ; Raise brush
G0 X41 Y5 F1200;    ; Rapid move to color 1
G1 Z10 F1000;         ; Raise brush
G0 X41 Y5 F1200;    ; Rapid move to color 1
G1 Z0 F1000;         ; Lower into color
G1 X40.102 Y7.295 Z0 S800 F1200
G1 X40.026 Y7.642 Z0 F1200
G1 X40 Y8 Z0 F1200
G1 X40.026 Y8.358 Z0 F1200
G1 X40.102 Y8.705 Z0 F1200
G1 X40.225 Y9.041 Z0 F1200
G1 X40.393 Y9.362 Z0 F1200
G1 X40.603 Y9.668 Z0 F1200
G1 X40.854 Y9.957 Z0 F1200
G1 X41.142 Y10.226 Z0 F1200
G1 X41.464 Y10.475 Z0 F1200
G1 X41.82 Y10.701 Z0 F1200
G1 X42.204 Y10.902 Z0 F1200
G1 X42.617 Y11.078 Z0 F1200
G1 X43.054 Y11.225 Z0 F1200
G1 X43.513 Y11.343 Z0 F1200
G1 X43.992 Y11.429 Z0 F1200
G1 X44.489 Y11.482 Z0 F1200
G1 X45 Y11.5 Z0 F1200
G1 X45.511 Y11.482 Z0 F1200
G1 X46.008 Y11.429 Z0 F1200
G1 X46.487 Y11.343 Z0 F1200
G1 X46.946 Y11.225 Z0 F1200
G1 X47.383 Y11.078 Z0 F1200
G1 X47.796 Y10.902 Z0 F1200
G1 X48.18 Y10.701 Z0 F1200
G1 X48.536 Y10.475 Z0 F1200
G1 X48.858 Y10.226 Z0 F1200
G1 X49.146 Y9.957 Z0 F1200
G1 X49.397 Y9.668 Z0 F1200
G1 X49.607 Y9.362 Z0 F1200
G1 X49.775 Y9.041 Z0 F1200
G1 X49.898 Y8.705 Z0 F1200
G1 X49.974 Y8.358 Z0 F1200
G1 X50 Y8 Z0 F1200
G1 X49.974 Y7.642 Z0 F1200
G1 X49.898 Y7.295 Z0 F1200
G1 X49.775 Y6.959 Z0 F1200
G1 X49.607 Y6.638 Z0 F1200
G1 X49.397 Y6.332 Z0 F1200
G1 X49.146 Y6.043 Z0 F1200
G1 X48.858 Y5.774 Z0 F1200
G1 X48.536 Y5.525 Z0 F1200
G1 X48.18 Y5.299 Z0 F1200
G1 X47.796 Y5.098 Z0 F1200
G1 X47.383 Y4.922 Z0 F1200
G1 X46.946 Y4.775 Z0 F1200
G1 X46.487 Y4.657 Z0 F1200
G1 X46.008 Y4.571 Z0 F1200
G1 X45.511 Y4.518 Z0 F1200
G1 X45 Y4.5 Z0 F1200
G1 X44.489 Y4.518 Z0 F1200
G1 X43.992 Y4.571 Z0 F1200
G1 X43.513 Y4.657 Z0 F1200
G1 X43.054 Y4.775 Z0 F1200
G1 X42.617 Y4.922 Z0 F1200
G1 X42.204 Y5.098 Z0 F1200
G1 X41.82 Y5.299 Z0 F1200
G1 X41.464 Y5.525 Z0 F1200
G1 X41.142 Y5.774 Z0 F1200
G1 X40.854 Y6.043 Z0 F1200
G1 X40.603 Y6.332 Z0 F1200
G1 X40.393 Y6.638 Z0 F1200
G1 X40.225 Y6.959 Z0 F1200
G1 Z7 F800;         ; Raise from color
G1 X34 Y8 Z1 F1200;     ; Movement in paint
G1 X24 Y18 Z8 F500;     ; Move in paint
G1 F1200;           ; Set feed rate
;Scan @ 1500 mm/min, 90% power

M8
G0 Z3.5 F1000
G0 X57.847 Y47.4 Z3.5
G1 Z0 F1000
;Layer C1
G1 X59.237 Z0 S900 F1600
G0 Z5 F500 ; Lift S=0
G1 X76.798 Z5 S0 F1600
G0 Z0 F500 ; Drop S>0
G1 X78.127 Z0 S900 F1600
G0 Z5 F500 ; Lift S=0
G1 X79.364 Y48.3 Z5 S0 F1600
G0 Z0 F500 ; Drop S>0
; --- FIX X Backlash ---
G0 X78.064 Y48.3 F1200
G1 X74.908 Z0 S900 F1600
G0 Z5 F500 ; Lift S=0
G1 X58.52 Z5 S0 F1600
G0 Z0 F500 ; Drop S>0
G1 X55.305 Z0 S900 F1600
G0 Z5 F500 ; Lift S=0
G1 X53.256 Y49.2 Z5 S0 F1600
G0 Z0 F500 ; Drop S>0
; --- FIX X Backlash ---
G0 X54.556 Y49.2 F1200
G1 X60.408 Z0 S900 F1600
G0 Z5 F500 ; Lift S=0
G1 X75.61 Z5 S0 F1600
G0 Z0 F500 ; Drop S>0
G1 X81.436 Z0 S900 F1600
G0 Z5 F500 ; Lift S=0
G1 X81.505 Y50.1 Z5 S0 F1600
G0 Z0 F500 ; Drop S>0
; --- FIX X Backlash ---
G0 X80.205 Y50.1 F1200
G1 X73.713 Z0 S900 F1600
G0 Z5 F500 ; Lift S=0
G1 X59.698 Z5 S0 F1600
G0 Z0 F500 ; Drop S>0
G1 X53.204 Z0 S900 F1600
G0 Z5 F500 ; Lift S=0
; --- FIX X Backlash ---
G0 X54.504 Y50.1 F1200
G1 X55.016 Y51 Z5 S0 F1600
G0 Z0 F500 ; Drop S>0
G1 X61.593 Z0 S900 F1600
G0 Z5 F500 ; Lift S=0
G1 X74.409 Z5 S0 F1600
G0 Z0 F500 ; Drop S>0
G1 X80.996 Z0 S900 F1600
G0 Z5 F500 ; Lift S=0
; --- FIX X Backlash ---
G0 X79.696 Y51 F1200
G1 X79.184 Y51.9 Z5 S0 F1600
G0 Z0 F500 ; Drop S>0
G1 X72.497 Z0 S900 F1600
G0 Z5 F500 ; Lift S=0
G1 X60.906 Z5 S0 F1600
G0 Z0 F500 ; Drop S>0
G1 X54.207 Z0 S900 F1600
G0 Z5 F500 ; Lift S=0
; --- FIX X Backlash ---
G0 X55.507 Y51.9 F1200
G1 X56.012 Y52.8 Z5 S0 F1600
G0 Z0 F500 ; Drop S>0
G1 X62.831 Z0 S900 F1600
G0 Z5 F500 ; Lift S=0
G1 X73.17 Z5 S0 F1600
G0 Z0 F500 ; Drop S>0
G1 X79.985 Z0 S900 F1600
G0 Z5 F500 ; Lift S=0
; --- FIX X Backlash ---
G0 X78.685 Y52.8 F1200
G1 X78.201 Y53.7 Z5 S0 F1600
G0 Z0 F500 ; Drop S>0
G1 X71.225 Z0 S900 F1600
G0 Z5 F500 ; Lift S=0
G1 X62.166 Z5 S0 F1600
G0 Z0 F500 ; Drop S>0
G1 X55.187 Z0 S900 F1600
G0 Z5 F500 ; Lift S=0
; --- FIX X Backlash ---
G0 X56.487 Y53.7 F1200
G1 X56.966 Y54.6 Z5 S0 F1600
G0 Z0 F500 ; Drop S>0
G1 X64.074 Z0 S900 F1600
G0 Z5 F500 ; Lift S=0
G1 X71.878 Z5 S0 F1600
G0 Z0 F500 ; Drop S>0
G1 X79.037 Z0 S900 F1600
G0 Z5 F500 ; Lift S=0
; --- FIX X Backlash ---
G0 X77.737 Y54.6 F1200
G1 X77.286 Y55.5 Z5 S0 F1600
G0 Z0 F500 ; Drop S>0
G1 X71.681 Z0 S900 F1600
G0 Z5 F500 ; Lift S=0
G1 X61.66 Z5 S0 F1600
G0 Z0 F500 ; Drop S>0
G1 X56.106 Z0 S900 F1600
G0 Z5 F500 ; Lift S=0
; --- FIX X Backlash ---
G0 X57.406 Y55.5 F1200
G1 X57.837 Y56.4 Z5 S0 F1600
G0 Z0 F500 ; Drop S>0
G1 X61.477 Z0 S900 F1600
G0 Z5 F500 ; Lift S=0
G1 X64.077 Z5 S0 F1600
G0 Z0 F500 ; Drop S>0
G1 X66.018 Z0 S900 F1600
G0 Z5 F500 ; Lift S=0
G1 X69.963 Z5 S0 F1600
G0 Z0 F500 ; Drop S>0
G1 X71.882 Z0 S900 F1600
G0 Z5 F500 ; Lift S=0
G1 X74.425 Z5 S0 F1600
G0 Z0 F500 ; Drop S>0
G1 X78.158 Z0 S900 F1600
G0 Z5 F500 ; Lift S=0
; --- FIX X Backlash ---
G0 X76.858 Y56.4 F1200
G1 X76.435 Y57.3 Z5 S0 F1600
G0 Z0 F500 ; Drop S>0
G1 X74.622 Z0 S900 F1600
G0 Z5 F500 ; Lift S=0
G1 X72.06 Z5 S0 F1600
G0 Z0 F500 ; Drop S>0
G1 X67.769 Z0 S900 F1600
G0 Z5 F500 ; Lift S=0
G1 X65.558 Z5 S0 F1600
G0 Z0 F500 ; Drop S>0
G1 X61.299 Z0 S900 F1600
G0 Z5 F500 ; Lift S=0
G1 X58.694 Z5 S0 F1600
G0 Z0 F500 ; Drop S>0
G1 X56.964 Z0 S900 F1600
G0 Z5 F500 ; Lift S=0
; --- FIX X Backlash ---
G0 X58.264 Y57.3 F1200
G1 X61.111 Y58.2 Z5 S0 F1600
G0 Z0 F500 ; Drop S>0
G1 X67.655 Z0 S900 F1600
G0 Z5 F500 ; Lift S=0
G1 X69.284 Z5 S0 F1600
G0 Z0 F500 ; Drop S>0
G1 X74.844 Z0 S900 F1600
G0 Z5 F500 ; Lift S=0
G1 X76.294 Y59.1 Z5 S0 F1600
G0 Z0 F500 ; Drop S>0
; --- FIX X Backlash ---
G0 X74.994 Y59.1 F1200
G1 X68.656 Z0 S900 F1600
G0 Z5 F500 ; Lift S=0
G1 X67.086 Z5 S0 F1600
G0 Z0 F500 ; Drop S>0
G1 X58.292 Z0 S900 F1600
G0 Z5 F500 ; Lift S=0
G1 X58.008 Y60 Z5 S0 F1600
G0 Z0 F500 ; Drop S>0
; --- FIX X Backlash ---
G0 X59.308 Y60 F1200
G1 X69.054 Z0 S900 F1600
G0 Z5 F500 ; Lift S=0
G1 X70.58 Z5 S0 F1600
G0 Z0 F500 ; Drop S>0
G1 X76.734 Z0 S900 F1600
G0 Z5 F500 ; Lift S=0
; --- FIX X Backlash ---
G0 X75.434 Y60 F1200
G1 X75.143 Y60.9 Z5 S0 F1600
G0 Z0 F500 ; Drop S>0
G1 X69.877 Z0 S900 F1600
G0 Z5 F500 ; Lift S=0
G1 X68.363 Z5 S0 F1600
G0 Z0 F500 ; Drop S>0
G1 X58.274 Z0 S900 F1600
G0 Z5 F500 ; Lift S=0
; --- FIX X Backlash ---
G0 X59.574 Y60.9 F1200
G1 X59.866 Y61.8 Z5 S0 F1600
G0 Z0 F500 ; Drop S>0
G1 X70.228 Z0 S900 F1600
G0 Z5 F500 ; Lift S=0
G1 X71.74 Z5 S0 F1600
G0 Z0 F500 ; Drop S>0
G1 X76.136 Z0 S900 F1600
G0 Z5 F500 ; Lift S=0
; --- FIX X Backlash ---
G0 X74.836 Y61.8 F1200
G1 X74.51 Y62.7 Z5 S0 F1600
G0 Z0 F500 ; Drop S>0
G1 X70.936 Z0 S900 F1600
G0 Z5 F500 ; Lift S=0
G1 X69.457 Z5 S0 F1600
G0 Z0 F500 ; Drop S>0
G1 X58.89 Z0 S900 F1600
G0 Z5 F500 ; Lift S=0
; --- FIX X Backlash ---
G0 X60.19 Y62.7 F1200
G1 X60.539 Y63.6 Z5 S0 F1600
G0 Z0 F500 ; Drop S>0
G1 X71.257 Z0 S900 F1600
G0 Z5 F500 ; Lift S=0
G1 X72.71 Z5 S0 F1600
G0 Z0 F500 ; Drop S>0
G1 X75.46 Z0 S900 F1600
G0 Z5 F500 ; Lift S=0
; --- FIX X Backlash ---
G0 X74.16 Y63.6 F1200
G1 X73.796 Y64.5 Z5 S0 F1600
G0 Z0 F500 ; Drop S>0
G1 X71.882 Z0 S900 F1600
G0 Z5 F500 ; Lift S=0
G1 X70.434 Z5 S0 F1600
G0 Z0 F500 ; Drop S>0
G1 X59.629 Z0 S900 F1600
G0 Z5 F500 ; Lift S=0
; --- FIX X Backlash ---
G0 X60.929 Y64.5 F1200
G1 X61.362 Y65.4 Z5 S0 F1600
G0 Z0 F500 ; Drop S>0
G1 X72.191 Z0 S900 F1600
G0 Z5 F500 ; Lift S=0
G1 X73.643 Z5 S0 F1600
G0 Z0 F500 ; Drop S>0
G1 X74.729 Z0 S900 F1600
G0 Z5 F500 ; Lift S=0
; --- FIX X Backlash ---
G0 X73.429 Y65.4 F1200
G1 X73.063 Y66.3 Z5 S0 F1600
G0 Z0 F500 ; Drop S>0
G1 X72.811 Z0 S900 F1600
G0 Z5 F500 ; Lift S=0
G1 X71.335 Z5 S0 F1600
G0 Z0 F500 ; Drop S>0
G1 X60.537 Z0 S900 F1600
G0 Z5 F500 ; Lift S=0
; --- FIX X Backlash ---
G0 X61.837 Y66.3 F1200
G1 X62.35 Y67.2 Z5 S0 F1600
G0 Z0 F500 ; Drop S>0
G1 X73.067 Z0 S900 F1600
G0 Z5 F500 ; Lift S=0
G1 X73.488 Y68.1 Z5 S0 F1600
G0 Z0 F500 ; Drop S>0
; --- FIX X Backlash ---
G0 X72.188 Y68.1 F1200
G1 X61.601 Z0 S900 F1600
G0 Z5 F500 ; Lift S=0
; --- FIX X Backlash ---
G0 X62.901 Y68.1 F1200
G1 X63.48 Y69 Z5 S0 F1600
G0 Z0 F500 ; Drop S>0
G1 X73.902 Z0 S900 F1600
G0 Z5 F500 ; Lift S=0
G1 X74.309 Y69.9 Z5 S0 F1600
G0 Z0 F500 ; Drop S>0
; --- FIX X Backlash ---
G0 X73.009 Y69.9 F1200
G1 X62.781 Z0 S900 F1600
G0 Z5 F500 ; Lift S=0
G1 X61.248 Z5 S0 F1600
G0 Z0 F500 ; Drop S>0
G1 X60.418 Z0 S900 F1600
G0 Z5 F500 ; Lift S=0
G1 X60.005 Y70.8 Z5 S0 F1600
G0 Z0 F500 ; Drop S>0
; --- FIX X Backlash ---
G0 X61.305 Y70.8 F1200
G1 X63.122 Z0 S900 F1600
G0 Z5 F500 ; Lift S=0
G1 X64.698 Z5 S0 F1600
G0 Z0 F500 ; Drop S>0
G1 X74.711 Z0 S900 F1600
G0 Z5 F500 ; Lift S=0
G1 X75.109 Y71.7 Z5 S0 F1600
G0 Z0 F500 ; Drop S>0
; --- FIX X Backlash ---
G0 X73.809 Y71.7 F1200
G1 X64.027 Z0 S900 F1600
G0 Z5 F500 ; Lift S=0
G1 X62.43 Z5 S0 F1600
G0 Z0 F500 ; Drop S>0
G1 X59.602 Z0 S900 F1600
G0 Z5 F500 ; Lift S=0
G1 X59.203 Y72.6 Z5 S0 F1600
G0 Z0 F500 ; Drop S>0
; --- FIX X Backlash ---
G0 X60.503 Y72.6 F1200
G1 X64.352 Z0 S900 F1600
G0 Z5 F500 ; Lift S=0
G1 X65.96 Z5 S0 F1600
G0 Z0 F500 ; Drop S>0
G1 X75.508 Z0 S900 F1600
G0 Z5 F500 ; Lift S=0
G1 X75.907 Y73.5 Z5 S0 F1600
G0 Z0 F500 ; Drop S>0
; --- FIX X Backlash ---
G0 X74.607 Y73.5 F1200
G1 X65.291 Z0 S900 F1600
G0 Z5 F500 ; Lift S=0
G1 X63.682 Z5 S0 F1600
G0 Z0 F500 ; Drop S>0
G1 X58.801 Z0 S900 F1600
G0 Z5 F500 ; Lift S=0
G1 X58.419 Y74.4 Z5 S0 F1600
G0 Z0 F500 ; Drop S>0
; --- FIX X Backlash ---
G0 X59.719 Y74.4 F1200
G1 X65.616 Z0 S900 F1600
G0 Z5 F500 ; Lift S=0
G1 X67.22 Z5 S0 F1600
G0 Z0 F500 ; Drop S>0
G1 X76.307 Z0 S900 F1600
G0 Z5 F500 ; Lift S=0
G1 X76.707 Y75.3 Z5 S0 F1600
G0 Z0 F500 ; Drop S>0
; --- FIX X Backlash ---
G0 X75.407 Y75.3 F1200
G1 X66.553 Z0 S900 F1600
G0 Z5 F500 ; Lift S=0
G1 X64.948 Z5 S0 F1600
G0 Z0 F500 ; Drop S>0
G1 X58.019 Z0 S900 F1600
G0 Z5 F500 ; Lift S=0
G1 X57.617 Y76.2 Z5 S0 F1600
G0 Z0 F500 ; Drop S>0
; --- FIX X Backlash ---
G0 X58.917 Y76.2 F1200
G1 X66.863 Z0 S900 F1600
G0 Z5 F500 ; Lift S=0
G1 X68.489 Z5 S0 F1600
G0 Z0 F500 ; Drop S>0
G1 X77.102 Z0 S900 F1600
G0 Z5 F500 ; Lift S=0
G1 X77.497 Y77.1 Z5 S0 F1600
G0 Z0 F500 ; Drop S>0
; --- FIX X Backlash ---
G0 X76.197 Y77.1 F1200
G1 X67.828 Z0 S900 F1600
G0 Z5 F500 ; Lift S=0
G1 X65.507 Z5 S0 F1600
G0 Z0 F500 ; Drop S>0
G1 X57.22 Z0 S900 F1600
G0 Z5 F500 ; Lift S=0
G1 X56.824 Y78 Z5 S0 F1600
G0 Z0 F500 ; Drop S>0
; --- FIX X Backlash ---
G0 X58.124 Y78 F1200
G1 X66.171 Z0 S900 F1600
G0 Z5 F500 ; Lift S=0
G1 X69.77 Z5 S0 F1600
G0 Z0 F500 ; Drop S>0
G1 X77.892 Z0 S900 F1600
G0 Z5 F500 ; Lift S=0
G1 X78.286 Y78.9 Z5 S0 F1600
G0 Z0 F500 ; Drop S>0
; --- FIX X Backlash ---
G0 X76.986 Y78.9 F1200
G1 X69.118 Z0 S900 F1600
G0 Z5 F500 ; Lift S=0
G1 X64.219 Z5 S0 F1600
G0 Z0 F500 ; Drop S>0
G1 X56.427 Z0 S900 F1600
G0 Z5 F500 ; Lift S=0
G1 X56.03 Y79.8 Z5 S0 F1600
G0 Z0 F500 ; Drop S>0
; --- FIX X Backlash ---
G0 X57.33 Y79.8 F1200
G1 X64.877 Z0 S900 F1600
G0 Z5 F500 ; Lift S=0
G1 X71.078 Z5 S0 F1600
G0 Z0 F500 ; Drop S>0
G1 X78.681 Z0 S900 F1600
G0 Z5 F500 ; Lift S=0
G1 X79.076 Y80.7 Z5 S0 F1600
G0 Z0 F500 ; Drop S>0
; --- FIX X Backlash ---
G0 X77.776 Y80.7 F1200
G1 X70.425 Z0 S900 F1600
G0 Z5 F500 ; Lift S=0
G1 X62.939 Z5 S0 F1600
G0 Z0 F500 ; Drop S>0
G1 X55.632 Z0 S900 F1600
G0 Z5 F500 ; Lift S=0
G1 X55.232 Y81.6 Z5 S0 F1600
G0 Z0 F500 ; Drop S>0
; --- FIX X Backlash ---
G0 X56.532 Y81.6 F1200
G1 X63.598 Z0 S900 F1600
G0 Z5 F500 ; Lift S=0
G1 X72.37 Z5 S0 F1600
G0 Z0 F500 ; Drop S>0
G1 X79.47 Z0 S900 F1600
G0 Z5 F500 ; Lift S=0
G1 X79.864 Y82.5 Z5 S0 F1600
G0 Z0 F500 ; Drop S>0
; --- FIX X Backlash ---
G0 X78.564 Y82.5 F1200
G1 X71.715 Z0 S900 F1600
G0 Z5 F500 ; Lift S=0
G1 X61.657 Z5 S0 F1600
G0 Z0 F500 ; Drop S>0
G1 X54.835 Z0 S900 F1600
G0 Z5 F500 ; Lift S=0
G1 X54.439 Y83.4 Z5 S0 F1600
G0 Z0 F500 ; Drop S>0
; --- FIX X Backlash ---
G0 X55.739 Y83.4 F1200
G1 X62.315 Z0 S900 F1600
G0 Z5 F500 ; Lift S=0
G1 X73.66 Z5 S0 F1600
G0 Z0 F500 ; Drop S>0
G1 X80.258 Z0 S900 F1600
G0 Z5 F500 ; Lift S=0
G1 X80.652 Y84.3 Z5 S0 F1600
G0 Z0 F500 ; Drop S>0
; --- FIX X Backlash ---
G0 X79.352 Y84.3 F1200
G1 X73.005 Z0 S900 F1600
G0 Z5 F500 ; Lift S=0
G1 X60.373 Z5 S0 F1600
G0 Z0 F500 ; Drop S>0
G1 X54.043 Z0 S900 F1600
G0 Z5 F500 ; Lift S=0
G1 X53.649 Y85.2 Z5 S0 F1600
G0 Z0 F500 ; Drop S>0
; --- FIX X Backlash ---
G0 X54.949 Y85.2 F1200
G1 X61.032 Z0 S900 F1600
G0 Z5 F500 ; Lift S=0
G1 X74.95 Z5 S0 F1600
G0 Z0 F500 ; Drop S>0
G1 X81.046 Z0 S900 F1600
G0 Z5 F500 ; Lift S=0
G1 X81.439 Y86.1 Z5 S0 F1600
G0 Z0 F500 ; Drop S>0
; --- FIX X Backlash ---
G0 X80.139 Y86.1 F1200
G1 X74.295 Z0 S900 F1600
G0 Z5 F500 ; Lift S=0
G1 X59.094 Z5 S0 F1600
G0 Z0 F500 ; Drop S>0
G1 X53.256 Z0 S900 F1600
G0 Z5 F500 ; Lift S=0
G1 X52.856 Y87 Z5 S0 F1600
G0 Z0 F500 ; Drop S>0
; --- FIX X Backlash ---
G0 X54.156 Y87 F1200
G1 X59.761 Z0 S900 F1600
G0 Z5 F500 ; Lift S=0
G1 X76.238 Z5 S0 F1600
G0 Z0 F500 ; Drop S>0
G1 X81.834 Z0 S900 F1600
G0 Z5 F500 ; Lift S=0
G1 X82.228 Y87.9 Z5 S0 F1600
G0 Z0 F500 ; Drop S>0
; --- FIX X Backlash ---
G0 X80.928 Y87.9 F1200
G1 X75.582 Z0 S900 F1600
G0 Z5 F500 ; Lift S=0
G1 X57.825 Z5 S0 F1600
G0 Z0 F500 ; Drop S>0
G1 X52.457 Z0 S900 F1600
G0 Z5 F500 ; Lift S=0
G1 X52.063 Y88.8 Z5 S0 F1600
G0 Z0 F500 ; Drop S>0
; --- FIX X Backlash ---
G0 X53.363 Y88.8 F1200
G1 X58.488 Z0 S900 F1600
G0 Z5 F500 ; Lift S=0
G1 X77.526 Z5 S0 F1600
G0 Z0 F500 ; Drop S>0
G1 X82.623 Z0 S900 F1600
G0 Z5 F500 ; Lift S=0
G1 X83.017 Y89.7 Z5 S0 F1600
G0 Z0 F500 ; Drop S>0
; --- FIX X Backlash ---
G0 X81.717 Y89.7 F1200
G1 X76.869 Z0 S900 F1600
G0 Z5 F500 ; Lift S=0
G1 X56.551 Z5 S0 F1600
G0 Z0 F500 ; Drop S>0
G1 X51.67 Z0 S900 F1600
G0 Z5 F500 ; Lift S=0
G1 X51.277 Y90.6 Z5 S0 F1600
G0 Z0 F500 ; Drop S>0
; --- FIX X Backlash ---
G0 X52.577 Y90.6 F1200
G1 X57.215 Z0 S900 F1600
G0 Z5 F500 ; Lift S=0
G1 X78.811 Z5 S0 F1600
G0 Z0 F500 ; Drop S>0
G1 X83.412 Z0 S900 F1600
G0 Z5 F500 ; Lift S=0
G1 X83.809 Y91.5 Z5 S0 F1600
G0 Z0 F500 ; Drop S>0
; --- FIX X Backlash ---
G0 X82.509 Y91.5 F1200
G1 X78.143 Z0 S900 F1600
G0 Z5 F500 ; Lift S=0
G1 X55.28 Z5 S0 F1600
G0 Z0 F500 ; Drop S>0
G1 X50.883 Z0 S900 F1600
G0 Z5 F500 ; Lift S=0
G1 X50.49 Y92.4 Z5 S0 F1600
G0 Z0 F500 ; Drop S>0
; --- FIX X Backlash ---
G0 X51.79 Y92.4 F1200
G1 X55.948 Z0 S900 F1600
G0 Z5 F500 ; Lift S=0
G1 X80.073 Z5 S0 F1600
G0 Z0 F500 ; Drop S>0
G1 X84.207 Z0 S900 F1600
G0 Z5 F500 ; Lift S=0
G1 X84.593 Y93.3 Z5 S0 F1600
G0 Z0 F500 ; Drop S>0
; --- FIX X Backlash ---
G0 X83.293 Y93.3 F1200
G1 X79.407 Z0 S900 F1600
G0 Z5 F500 ; Lift S=0
G1 X54.022 Z5 S0 F1600
G0 Z0 F500 ; Drop S>0
G1 X50.105 Z0 S900 F1600
G0 Z5 F500 ; Lift S=0
G1 X49.737 Y94.2 Z5 S0 F1600
G0 Z0 F500 ; Drop S>0
; --- FIX X Backlash ---
G0 X51.037 Y94.2 F1200
G1 X54.698 Z0 S900 F1600
G0 Z5 F500 ; Lift S=0
G1 X81.34 Z5 S0 F1600
G0 Z0 F500 ; Drop S>0
G1 X84.992 Z0 S900 F1600
G0 Z5 F500 ; Lift S=0
G1 X85.38 Y95.1 Z5 S0 F1600
G0 Z0 F500 ; Drop S>0
; --- FIX X Backlash ---
G0 X84.08 Y95.1 F1200
G1 X80.669 Z0 S900 F1600
G0 Z5 F500 ; Lift S=0
G1 X52.768 Z5 S0 F1600
G0 Z0 F500 ; Drop S>0
G1 X49.337 Z0 S900 F1600
G0 Z5 F500 ; Lift S=0
G1 X48.95 Y96 Z5 S0 F1600
G0 Z0 F500 ; Drop S>0
; --- FIX X Backlash ---
G0 X50.25 Y96 F1200
G1 X53.434 Z0 S900 F1600
G0 Z5 F500 ; Lift S=0
G1 X82.594 Z5 S0 F1600
G0 Z0 F500 ; Drop S>0
G1 X85.765 Z0 S900 F1600
G0 Z5 F500 ; Lift S=0
G1 X86.15 Y96.9 Z5 S0 F1600
G0 Z0 F500 ; Drop S>0
; --- FIX X Backlash ---
G0 X84.85 Y96.9 F1200
G1 X81.918 Z0 S900 F1600
G0 Z5 F500 ; Lift S=0
G1 X51.501 Z5 S0 F1600
G0 Z0 F500 ; Drop S>0
G1 X48.563 Z0 S900 F1600
G0 Z5 F500 ; Lift S=0
G1 X48.179 Y97.8 Z5 S0 F1600
G0 Z0 F500 ; Drop S>0
; --- FIX X Backlash ---
G0 X49.479 Y97.8 F1200
G1 X52.175 Z0 S900 F1600
G0 Z5 F500 ; Lift S=0
G1 X83.845 Z5 S0 F1600
G0 Z0 F500 ; Drop S>0
G1 X86.535 Z0 S900 F1600
G0 Z5 F500 ; Lift S=0
G1 X86.92 Y98.7 Z5 S0 F1600
G0 Z0 F500 ; Drop S>0
; --- FIX X Backlash ---
G0 X85.62 Y98.7 F1200
G1 X83.168 Z0 S900 F1600
G0 Z5 F500 ; Lift S=0
G1 X50.25 Z5 S0 F1600
G0 Z0 F500 ; Drop S>0
G1 X47.795 Z0 S900 F1600
G0 Z5 F500 ; Lift S=0
G1 X47.412 Y99.6 Z5 S0 F1600
G0 Z0 F500 ; Drop S>0
; --- FIX X Backlash ---
G0 X48.712 Y99.6 F1200
G1 X50.926 Z0 S900 F1600
G0 Z5 F500 ; Lift S=0
G1 X85.093 Z5 S0 F1600
G0 Z0 F500 ; Drop S>0
G1 X87.303 Z0 S900 F1600
G0 Z5 F500 ; Lift S=0
G1 X87.679 Y100.5 Z5 S0 F1600
G0 Z0 F500 ; Drop S>0
; --- FIX X Backlash ---
G0 X86.379 Y100.5 F1200
G1 X84.425 Z0 S900 F1600
G0 Z5 F500 ; Lift S=0
G1 X49.001 Z5 S0 F1600
G0 Z0 F500 ; Drop S>0
G1 X47.03 Z0 S900 F1600
G0 Z5 F500 ; Lift S=0
G1 X46.648 Y101.4 Z5 S0 F1600
G0 Z0 F500 ; Drop S>0
; --- FIX X Backlash ---
G0 X47.948 Y101.4 F1200
G1 X49.671 Z0 S900 F1600
G0 Z5 F500 ; Lift S=0
G1 X86.341 Z5 S0 F1600
G0 Z0 F500 ; Drop S>0
G1 X88.045 Z0 S900 F1600
G0 Z5 F500 ; Lift S=0
G1 X88.383 Y102.3 Z5 S0 F1600
G0 Z0 F500 ; Drop S>0
; --- FIX X Backlash ---
G0 X87.083 Y102.3 F1200
G1 X85.663 Z0 S900 F1600
G0 Z5 F500 ; Lift S=0
G1 X47.716 Z5 S0 F1600
G0 Z0 F500 ; Drop S>0
G1 X46.326 Z0 S900 F1600

; Washing sequence (no color)
G1 Z10 F1000;        ; Raise brush
G0 X5 Y5 F1200;     ; Rapid move to clean
G1 Z-1 F800;         ; Lower brush
G1 X10 Y12 Z8 F1200;     ; Move
G1 Z-1 F800;         ; Lower
G1 X25 Y14 Z6 F800;     ; Move
G1 Z8 F800;         ; Maintain
G0 X5 Y5 F1200;     ; Rapid
G1 Z-1 F800;         ; Lower
G1 X15 Y12 Z8 F1200;     ; Move
G1 Z-1 F800;         ; Lower
G1 X25 Y14 Z6 F800;     ; Move
G1 Z10 F800;         ; Maintain
G1 F1200;           ; Set feed

; Color picking sequence
G1 Z10 F1000;         ; Raise brush
G0 X86 Y5 F1200;    ; Rapid move to color 1
G1 Z10 F1000;         ; Raise brush
G0 X86 Y5 F1200;    ; Rapid move to color 1
G1 Z0 F1000;         ; Lower into color
G1 X85.102 Y7.295 Z0 S800 F1200
G1 X85.026 Y7.642 Z0 F1200
G1 X85 Y8 Z0 F1200
G1 X85.026 Y8.358 Z0 F1200
G1 X85.102 Y8.705 Z0 F1200
G1 X85.225 Y9.041 Z0 F1200
G1 X85.393 Y9.362 Z0 F1200
G1 X85.603 Y9.668 Z0 F1200
G1 X85.854 Y9.957 Z0 F1200
G1 X86.142 Y10.226 Z0 F1200
G1 X86.464 Y10.475 Z0 F1200
G1 X86.82 Y10.701 Z0 F1200
G1 X87.204 Y10.902 Z0 F1200
G1 X87.617 Y11.078 Z0 F1200
G1 X88.054 Y11.225 Z0 F1200
G1 X88.513 Y11.343 Z0 F1200
G1 X88.992 Y11.429 Z0 F1200
G1 X89.489 Y11.482 Z0 F1200
G1 X90 Y11.5 Z0 F1200
G1 X90.511 Y11.482 Z0 F1200
G1 X91.008 Y11.429 Z0 F1200
G1 X91.487 Y11.343 Z0 F1200
G1 X91.946 Y11.225 Z0 F1200
G1 X92.383 Y11.078 Z0 F1200
G1 X92.796 Y10.902 Z0 F1200
G1 X93.18 Y10.701 Z0 F1200
G1 X93.536 Y10.475 Z0 F1200
G1 X93.858 Y10.226 Z0 F1200
G1 X94.146 Y9.957 Z0 F1200
G1 X94.397 Y9.668 Z0 F1200
G1 X94.607 Y9.362 Z0 F1200
G1 X94.775 Y9.041 Z0 F1200
G1 X94.898 Y8.705 Z0 F1200
G1 X94.974 Y8.358 Z0 F1200
G1 X95 Y8 Z0 F1200
G1 X94.974 Y7.642 Z0 F1200
G1 X94.898 Y7.295 Z0 F1200
G1 X94.775 Y6.959 Z0 F1200
G1 X94.607 Y6.638 Z0 F1200
G1 X94.397 Y6.332 Z0 F1200
G1 X94.146 Y6.043 Z0 F1200
G1 X93.858 Y5.774 Z0 F1200
G1 X93.536 Y5.525 Z0 F1200
G1 X93.18 Y5.299 Z0 F1200
G1 X92.796 Y5.098 Z0 F1200
G1 X92.383 Y4.922 Z0 F1200
G1 X91.946 Y4.775 Z0 F1200
G1 X91.487 Y4.657 Z0 F1200
G1 X91.008 Y4.571 Z0 F1200
G1 X90.511 Y4.518 Z0 F1200
G1 X90 Y4.5 Z0 F1200
G1 X89.489 Y4.518 Z0 F1200
G1 X88.992 Y4.571 Z0 F1200
G1 X88.513 Y4.657 Z0 F1200
G1 X88.054 Y4.775 Z0 F1200
G1 X87.617 Y4.922 Z0 F1200
G1 X87.204 Y5.098 Z0 F1200
G1 X86.82 Y5.299 Z0 F1200
G1 X86.464 Y5.525 Z0 F1200
G1 X86.142 Y5.774 Z0 F1200
G1 X85.854 Y6.043 Z0 F1200
G1 X85.603 Y6.332 Z0 F1200
G1 X85.393 Y6.638 Z0 F1200
G1 X85.225 Y6.959 Z0 F1200
G1 Z7 F800;         ; Raise from color
G1 X79 Y8 Z1 F1200;     ; Movement in paint
G1 X69 Y18 Z8 F500;     ; Move in paint
G1 F1200;           ; Set feed rate
;Offset @ 1500 mm/min, 90% power

M8
G0 Z3.5 F1000
; --- FIX X Backlash ---
G0 X47.626 Y102.3 F1200
; --- FIX Y Backlash ---
G0 X47.626 Y101 F1200
G0 X48.258 Y32.983 Z3.5 F1500
G1 Z0 F1000
;Layer C2
; --- FIX Y Backlash ---
G0 X48.258 Y34.283 F1200
G1 X49.058 Y34.605 Z0 F1600
G1 X49.862 Y34.955 Z0 F1600
G1 X50.682 Y35.337 Z0 F1600
G1 X51.459 Y35.724 Z0 F1600
G1 X52.189 Y36.112 Z0 F1600
G1 X52.864 Y36.5 Z0 F1600
G1 X53.441 Y36.863 Z0 F1600
G1 X53.97 Y37.23 Z0 F1600
G1 X54.462 Y37.601 Z0 F1600
G1 X54.926 Y37.981 Z0 F1600
G1 X55.356 Y38.367 Z0 F1600
G1 X55.756 Y38.761 Z0 F1600
G1 X56.114 Y39.148 Z0 F1600
G1 X56.438 Y39.539 Z0 F1600
G1 X56.736 Y39.941 Z0 F1600
G1 X56.992 Y40.333 Z0 F1600
G1 X57.212 Y40.722 Z0 F1600
G1 X57.401 Y41.114 Z0 F1600
G1 X57.552 Y41.496 Z0 F1600
G1 X57.669 Y41.874 Z0 F1600
G1 X57.75 Y42.242 Z0 F1600
G1 X57.801 Y42.617 Z0 F1600
G1 X57.818 Y42.981 Z0 F1600
G1 X57.812 Y43.19 Z0 F1600
; --- FIX Y Backlash ---
G0 X57.812 Y41.89 F1200
G1 X57.763 Y41.787 Z0 F1600
; --- FIX X Backlash ---
G0 X56.463 Y41.787 F1200
G1 X56.153 Y41.195 Z0 F1600
G1 X55.819 Y40.604 Z0 F1600
G1 X55.465 Y40.027 Z0 F1600
G1 X55.098 Y39.474 Z0 F1600
G1 X54.724 Y38.958 Z0 F1600
G1 X54.187 Y38.287 Z0 F1600
G1 X53.619 Y37.645 Z0 F1600
G1 X53.025 Y37.033 Z0 F1600
G1 X52.407 Y36.456 Z0 F1600
G1 X51.768 Y35.914 Z0 F1600
G1 X51.111 Y35.413 Z0 F1600
G1 X50.439 Y34.954 Z0 F1600
G1 X49.763 Y34.545 Z0 F1600
G1 X49.463 Y34.379 Z0 F1600
G1 X49.205 Y34.249 Z0 F1600
G1 X48.644 Y34.05 Z0 F1600
; --- FIX Y Backlash ---
G0 X48.644 Y35.35 F1200
G1 X47.629 Y35.945 Z0 F1600
; --- FIX Y Backlash ---
G0 X47.629 Y34.645 F1200
G1 X46.808 Y34.576 Z0 F1600
; --- FIX Y Backlash ---
G0 X46.808 Y35.876 F1200
G1 X46.554 Y36.709 Z0 F1600
G1 X46.541 Y36.922 Z0 F1600
G1 X46.546 Y37.083 Z0 F1600
G1 X46.571 Y37.395 Z0 F1600
G1 X46.617 Y37.773 Z0 F1600
; --- FIX X Backlash ---
G0 X47.917 Y37.773 F1200
G1 X48.048 Y38.613 Z0 F1600
G1 X48.216 Y39.42 Z0 F1600
G1 X48.48 Y40.402 Z0 F1600
G1 X48.778 Y41.341 Z0 F1600
G1 X49.113 Y42.249 Z0 F1600
G1 X49.488 Y43.131 Z0 F1600
G1 X49.905 Y43.99 Z0 F1600
G1 X50.366 Y44.831 Z0 F1600
G1 X50.872 Y45.658 Z0 F1600
G1 X51.423 Y46.473 Z0 F1600
G1 X51.905 Y47.131 Z0 F1600
G1 X51.926 Y47.159 Z0 F1600
; --- FIX X Backlash ---
G0 X50.626 Y47.159 F1200
G1 X50.534 Y47.133 Z0 F1600
; --- FIX Y Backlash ---
G0 X50.534 Y45.833 F1200
G1 X50.358 Y45.758 Z0 F1600
G1 X50.155 Y45.643 Z0 F1600
G1 X49.925 Y45.484 Z0 F1600
G1 X49.67 Y45.277 Z0 F1600
G1 X49.378 Y45.007 Z0 F1600
G1 X49.074 Y44.698 Z0 F1600
G1 X48.735 Y44.325 Z0 F1600
G1 X48.654 Y44.221 Z0 F1600
G1 X48.529 Y44.044 Z0 F1600
G1 X48.377 Y43.811 Z0 F1600
G1 X48.216 Y43.553 Z0 F1600
G1 X47.887 Y42.985 Z0 F1600
G1 X47.6 Y42.439 Z0 F1600
G1 X47.431 Y42.068 Z0 F1600
G1 X47.276 Y41.674 Z0 F1600
G1 X47.134 Y41.253 Z0 F1600
G1 X47.001 Y40.786 Z0 F1600
G1 X46.885 Y40.301 Z0 F1600
G1 X46.768 Y39.725 Z0 F1600
G1 X46.665 Y39.118 Z0 F1600
G1 X46.572 Y38.469 Z0 F1600
G1 X46.557 Y38.33 Z0 F1600
G1 X46.542 Y38.113 Z0 F1600
G1 X46.529 Y37.848 Z0 F1600
G1 X46.517 Y37.534 Z0 F1600
G1 X46.498 Y36.802 Z0 F1600
G1 X46.486 Y36 Z0 F1600
G1 X46.483 Y35.211 Z0 F1600
G1 X46.489 Y34.486 Z0 F1600
G1 X46.495 Y34.167 Z0 F1600
G1 X46.503 Y33.92 Z0 F1600
G1 X46.514 Y33.705 Z0 F1600
G1 X46.525 Y33.593 Z0 F1600
; --- FIX X Backlash ---
G0 X47.825 Y33.593 F1200
G1 X47.919 Y32.859 Z0 F1600
; --- FIX Y Backlash ---
G0 X47.919 Y34.159 F1200
G1 X48.258 Y34.283 Z0 F1600
G0 Z3.5 F1000
G0 X50.261 Y37.979 Z3.5
G1 Z0 F1000
G1 X50.603 Y38.327 Z0 F1600
G1 X51.021 Y38.761 Z0 F1600
G1 X51.244 Y39.001 Z0 F1600
G1 X51.462 Y39.243 Z0 F1600
G1 X51.669 Y39.482 Z0 F1600
G1 X51.917 Y39.773 Z0 F1600
G1 X52.209 Y40.122 Z0 F1600
G1 X53.035 Y41.164 Z0 F1600
G1 X53.759 Y42.188 Z0 F1600
G1 X54.405 Y43.229 Z0 F1600
G1 X54.988 Y44.307 Z0 F1600
G1 X55.317 Y45.008 Z0 F1600
G1 X55.614 Y45.71 Z0 F1600
G1 X55.741 Y46.039 Z0 F1600
G1 X55.769 Y46.116 Z0 F1600
; --- FIX X Backlash ---
G0 X54.469 Y46.116 F1200
G1 X54.402 Y46.168 Z0 F1600
G1 X53.978 Y46.45 Z0 F1600
G1 X53.93 Y46.475 Z0 F1600
; --- FIX Y Backlash ---
G0 X53.93 Y45.175 F1200
G1 X53.789 Y45 Z0 F1600
G1 X53.603 Y44.763 Z0 F1600
G1 X53.406 Y44.502 Z0 F1600
G1 X52.966 Y43.902 Z0 F1600
G1 X52.523 Y43.273 Z0 F1600
G1 X52.086 Y42.63 Z0 F1600
G1 X51.686 Y42.017 Z0 F1600
G1 X51.324 Y41.435 Z0 F1600
G1 X51.022 Y40.918 Z0 F1600
G1 X50.479 Y39.904 Z0 F1600
G1 X49.933 Y38.813 Z0 F1600
G1 X49.404 Y37.687 Z0 F1600
G1 X48.961 Y36.679 Z0 F1600
G0 Z3.5 F1000
G0 X48.716 Y35.092 Z3.5
G1 Z0 F1000
G1 X48.749 Y35.141 Z0 F1600
; --- FIX X Backlash ---
G0 X50.049 Y35.141 F1200
; --- FIX Y Backlash ---
G0 X50.049 Y36.441 F1200
G1 X50.101 Y36.508 Z0 F1600
G1 X50.174 Y36.591 Z0 F1600
G1 X50.267 Y36.692 Z0 F1600
G1 X50.512 Y36.949 Z0 F1600
G1 X51.251 Y37.703 Z0 F1600
G1 X51.68 Y38.148 Z0 F1600
G1 X51.914 Y38.399 Z0 F1600
G1 X52.131 Y38.642 Z0 F1600
G1 X52.355 Y38.899 Z0 F1600
G1 X52.606 Y39.195 Z0 F1600
G1 X52.907 Y39.553 Z0 F1600
G1 X53.754 Y40.621 Z0 F1600
G1 X54.51 Y41.691 Z0 F1600
G1 X55.186 Y42.779 Z0 F1600
G1 X55.792 Y43.902 Z0 F1600
G1 X56.136 Y44.633 Z0 F1600
G1 X56.453 Y45.385 Z0 F1600
G1 X56.584 Y45.723 Z0 F1600
G1 X56.686 Y46.012 Z0 F1600
G1 X56.752 Y46.233 Z0 F1600
G1 X56.776 Y46.369 Z0 F1600
G1 X56.734 Y46.456 Z0 F1600
; --- FIX X Backlash ---
G0 X55.434 Y46.456 F1200
G1 X55.318 Y46.582 Z0 F1600
G1 X55.144 Y46.733 Z0 F1600
G1 X54.928 Y46.898 Z0 F1600
G1 X54.437 Y47.226 Z0 F1600
G1 X53.973 Y47.468 Z0 F1600
G1 X53.81 Y47.527 Z0 F1600
G1 X53.698 Z0 F1600
; --- FIX Y Backlash ---
G0 X53.698 Y46.227 F1200
G1 X53.591 Y46.157 Z0 F1600
G1 X53.445 Y45.997 Z0 F1600
G1 X53.274 Y45.795 Z0 F1600
G1 X53.088 Y45.564 Z0 F1600
G1 X52.889 Y45.31 Z0 F1600
G1 X52.68 Y45.034 Z0 F1600
G1 X52.24 Y44.434 Z0 F1600
G1 X51.787 Y43.792 Z0 F1600
G1 X51.342 Y43.136 Z0 F1600
G1 X50.922 Y42.493 Z0 F1600
G1 X50.548 Y41.892 Z0 F1600
G1 X50.238 Y41.361 Z0 F1600
G1 X49.685 Y40.329 Z0 F1600
G1 X49.123 Y39.206 Z0 F1600
G1 X48.581 Y38.052 Z0 F1600
G1 X48.088 Y36.928 Z0 F1600
G1 X47.863 Y36.4 Z0 F1600

; Color picking sequence
G1 Z10 F1000;         ; Raise brush
G0 X86 Y5 F1200;    ; Rapid move to color 1
G1 Z10 F1000;         ; Raise brush
G0 X86 Y5 F1200;    ; Rapid move to color 1
G1 Z0 F1000;         ; Lower into color
G1 X85.102 Y7.295 Z0 S800 F1200
G1 X85.026 Y7.642 Z0 F1200
G1 X85 Y8 Z0 F1200
G1 X85.026 Y8.358 Z0 F1200
G1 X85.102 Y8.705 Z0 F1200
G1 X85.225 Y9.041 Z0 F1200
G1 X85.393 Y9.362 Z0 F1200
G1 X85.603 Y9.668 Z0 F1200
G1 X85.854 Y9.957 Z0 F1200
G1 X86.142 Y10.226 Z0 F1200
G1 X86.464 Y10.475 Z0 F1200
G1 X86.82 Y10.701 Z0 F1200
G1 X87.204 Y10.902 Z0 F1200
G1 X87.617 Y11.078 Z0 F1200
G1 X88.054 Y11.225 Z0 F1200
G1 X88.513 Y11.343 Z0 F1200
G1 X88.992 Y11.429 Z0 F1200
G1 X89.489 Y11.482 Z0 F1200
G1 X90 Y11.5 Z0 F1200
G1 X90.511 Y11.482 Z0 F1200
G1 X91.008 Y11.429 Z0 F1200
G1 X91.487 Y11.343 Z0 F1200
G1 X91.946 Y11.225 Z0 F1200
G1 X92.383 Y11.078 Z0 F1200
G1 X92.796 Y10.902 Z0 F1200
G1 X93.18 Y10.701 Z0 F1200
G1 X93.536 Y10.475 Z0 F1200
G1 X93.858 Y10.226 Z0 F1200
G1 X94.146 Y9.957 Z0 F1200
G1 X94.397 Y9.668 Z0 F1200
G1 X94.607 Y9.362 Z0 F1200
G1 X94.775 Y9.041 Z0 F1200
G1 X94.898 Y8.705 Z0 F1200
G1 X94.974 Y8.358 Z0 F1200
G1 X95 Y8 Z0 F1200
G1 X94.974 Y7.642 Z0 F1200
G1 X94.898 Y7.295 Z0 F1200
G1 X94.775 Y6.959 Z0 F1200
G1 X94.607 Y6.638 Z0 F1200
G1 X94.397 Y6.332 Z0 F1200
G1 X94.146 Y6.043 Z0 F1200
G1 X93.858 Y5.774 Z0 F1200
G1 X93.536 Y5.525 Z0 F1200
G1 X93.18 Y5.299 Z0 F1200
G1 X92.796 Y5.098 Z0 F1200
G1 X92.383 Y4.922 Z0 F1200
G1 X91.946 Y4.775 Z0 F1200
G1 X91.487 Y4.657 Z0 F1200
G1 X91.008 Y4.571 Z0 F1200
G1 X90.511 Y4.518 Z0 F1200
G1 X90 Y4.5 Z0 F1200
G1 X89.489 Y4.518 Z0 F1200
G1 X88.992 Y4.571 Z0 F1200
G1 X88.513 Y4.657 Z0 F1200
G1 X88.054 Y4.775 Z0 F1200
G1 X87.617 Y4.922 Z0 F1200
G1 X87.204 Y5.098 Z0 F1200
G1 X86.82 Y5.299 Z0 F1200
G1 X86.464 Y5.525 Z0 F1200
G1 X86.142 Y5.774 Z0 F1200
G1 X85.854 Y6.043 Z0 F1200
G1 X85.603 Y6.332 Z0 F1200
G1 X85.393 Y6.638 Z0 F1200
G1 X85.225 Y6.959 Z0 F1200
G1 Z7 F800;         ; Raise from color
G1 X79 Y8 Z1 F1200;     ; Movement in paint
G1 X69 Y18 Z8 F500;     ; Move in paint
G1 F1200;           ; Set feed rate
G0 X47.863 Y36.4 F1200 ; Return
G1 Z0 F1000 ; Restore Z
G1 X47.673 Y35.962 Z0 F1600
G1 X47.536 Y35.658 Z0 F1600
G1 X47.495 Y35.571 Z0 F1600
G1 X47.474 Y35.535 Z0 F1600
G1 X47.457 Z0 F1600
G1 X47.446 Y35.569 Z0 F1600
; --- FIX Y Backlash ---
G0 X47.446 Y36.869 F1200
G1 X47.442 Y36.937 Z0 F1600
G1 X47.445 Y37.035 Z0 F1600
G1 X47.467 Y37.305 Z0 F1600
G1 X47.508 Y37.65 Z0 F1600
; --- FIX X Backlash ---
G0 X48.808 Y37.65 F1200
G1 X48.934 Y38.452 Z0 F1600
G1 X49.092 Y39.211 Z0 F1600
G1 X49.344 Y40.149 Z0 F1600
G1 X49.629 Y41.049 Z0 F1600
G1 X49.95 Y41.917 Z0 F1600
G1 X50.308 Y42.758 Z0 F1600
G1 X50.705 Y43.577 Z0 F1600
G1 X51.145 Y44.379 Z0 F1600
G1 X51.628 Y45.17 Z0 F1600
G1 X52.159 Y45.955 Z0 F1600
G1 X52.625 Y46.592 Z0 F1600
G1 X53.096 Y47.207 Z0 F1600
G1 X53.304 Y47.468 Z0 F1600
G1 X53.478 Y47.678 Z0 F1600
G1 X53.547 Y47.758 Z0 F1600
G1 X53.604 Y47.821 Z0 F1600
G1 X53.647 Y47.863 Z0 F1600
G1 X53.673 Y47.883 Z0 F1600
G1 X53.718 Y47.938 Z0 F1600
G1 X53.736 Y48.03 Z0 F1600
; --- FIX X Backlash ---
G0 X52.436 Y48.03 F1200
G1 X52.38 Y48.08 Z0 F1600
G1 X52.226 Y48.118 Z0 F1600
G1 X51.996 Y48.142 Z0 F1600
G1 X51.713 Y48.153 Z0 F1600
G1 X51.078 Y48.135 Z0 F1600
; --- FIX Y Backlash ---
G0 X51.078 Y46.835 F1200
G1 X50.502 Y46.759 Z0 F1600
G1 X50.233 Y46.683 Z0 F1600
G1 X49.959 Y46.566 Z0 F1600
G1 X49.678 Y46.408 Z0 F1600
G1 X49.385 Y46.205 Z0 F1600
G1 X49.079 Y45.956 Z0 F1600
G1 X48.756 Y45.658 Z0 F1600
G1 X48.414 Y45.309 Z0 F1600
G1 X48.05 Y44.908 Z0 F1600
G1 X47.931 Y44.759 Z0 F1600
G1 X47.786 Y44.553 Z0 F1600
G1 X47.623 Y44.304 Z0 F1600
G1 X47.449 Y44.023 Z0 F1600
G1 X47.098 Y43.418 Z0 F1600
G1 X46.794 Y42.839 Z0 F1600
G1 X46.603 Y42.42 Z0 F1600
G1 X46.43 Y41.983 Z0 F1600
G1 X46.274 Y41.518 Z0 F1600
G1 X46.132 Y41.022 Z0 F1600
G1 X46.004 Y40.486 Z0 F1600
G1 X45.886 Y39.904 Z0 F1600
G1 X45.778 Y39.269 Z0 F1600
G1 X45.678 Y38.575 Z0 F1600
G1 X45.66 Y38.406 Z0 F1600
G1 X45.644 Y38.176 Z0 F1600
G1 X45.63 Y37.894 Z0 F1600
G1 X45.617 Y37.569 Z0 F1600
G1 X45.598 Y36.825 Z0 F1600
G1 X45.586 Y36.013 Z0 F1600
G1 X45.583 Y35.204 Z0 F1600
G1 X45.589 Y34.467 Z0 F1600
G1 X45.596 Y34.148 Z0 F1600
G1 X45.604 Y33.873 Z0 F1600
G1 X45.616 Y33.651 Z0 F1600
G1 X45.631 Y33.492 Z0 F1600
; --- FIX X Backlash ---
G0 X46.931 Y33.492 F1200
G1 X47.072 Y32.389 Z0 F1600
G1 X47.11 Y32.102 Z0 F1600
G1 X47.159 Y31.777 Z0 F1600
G1 X47.181 Y31.666 Z0 F1600
G1 X47.186 Y31.651 Z0 F1600
G1 X47.24 Y31.666 Z0 F1600
; --- FIX Y Backlash ---
G0 X47.24 Y32.966 F1200
G1 X47.561 Y33.074 Z0 F1600
G1 X47.79 Y33.153 Z0 F1600
G1 X48.578 Y33.442 Z0 F1600
G1 X49.4 Y33.773 Z0 F1600
G1 X50.237 Y34.137 Z0 F1600
G1 X51.068 Y34.524 Z0 F1600
G1 X51.873 Y34.924 Z0 F1600
G1 X52.633 Y35.329 Z0 F1600
G1 X53.328 Y35.728 Z0 F1600
G1 X53.937 Y36.112 Z0 F1600
G1 X54.495 Y36.499 Z0 F1600
G1 X55.02 Y36.895 Z0 F1600
G1 X55.513 Y37.299 Z0 F1600
G1 X55.974 Y37.712 Z0 F1600
G1 X56.4 Y38.132 Z0 F1600
G1 X56.793 Y38.558 Z0 F1600
G1 X57.151 Y38.989 Z0 F1600
G1 X57.474 Y39.425 Z0 F1600
G1 X57.761 Y39.864 Z0 F1600
G1 X58.012 Y40.306 Z0 F1600
G1 X58.225 Y40.75 Z0 F1600
G1 X58.401 Y41.196 Z0 F1600
G1 X58.539 Y41.642 Z0 F1600
G1 X58.638 Y42.087 Z0 F1600
G1 X58.698 Y42.532 Z0 F1600
G1 X58.718 Y42.974 Z0 F1600
G1 X58.708 Y43.321 Z0 F1600
G1 X58.676 Y43.633 Z0 F1600
; --- FIX X Backlash ---
G0 X57.376 Y43.633 F1200
G1 X57.321 Y43.923 Z0 F1600
G1 X57.24 Y44.202 Z0 F1600
G1 X57.072 Y44.622 Z0 F1600
G1 X56.854 Y45.086 Z0 F1600
G1 X56.747 Y45.293 Z0 F1600
G1 X56.653 Y45.462 Z0 F1600
G1 X56.578 Y45.575 Z0 F1600
G1 X56.533 Y45.617 Z0 F1600
G1 X56.507 Y45.572 Z0 F1600
; --- FIX Y Backlash ---
G0 X56.507 Y44.272 F1200
G1 X56.457 Y44.149 Z0 F1600
G1 X56.392 Y43.968 Z0 F1600
G1 X56.317 Y43.747 Z0 F1600
G1 X56.141 Y43.263 Z0 F1600
G1 X55.919 Y42.739 Z0 F1600
G1 X55.657 Y42.189 Z0 F1600
G1 X55.363 Y41.625 Z0 F1600
G1 X55.043 Y41.061 Z0 F1600
G1 X54.706 Y40.511 Z0 F1600
G1 X54.359 Y39.987 Z0 F1600
G1 X54.008 Y39.504 Z0 F1600
G1 X53.498 Y38.867 Z0 F1600
G1 X52.959 Y38.257 Z0 F1600
G1 X52.395 Y37.677 Z0 F1600
G1 X51.808 Y37.129 Z0 F1600
G1 X51.203 Y36.616 Z0 F1600
G1 X50.583 Y36.143 Z0 F1600
G1 X49.952 Y35.711 Z0 F1600
G1 X49.312 Y35.325 Z0 F1600
G1 X49.042 Y35.175 Z0 F1600
G1 X48.85 Y35.078 Z0 F1600
G1 X48.738 Y35.038 Z0 F1600
G1 X48.703 Y35.058 Z0 F1600
G1 X48.716 Y35.092 Z0 F1600
G0 Z3.5 F1000
; --- FIX X Backlash ---
G0 X50.016 Y35.092 F1200
G0 X83.379 Y35.007 Z3.5
G1 Z0 F1000
G1 X83.563 Y34.882 Z0 F1600
G1 X83.596 Y34.858 Z0 F1600
G1 X83.663 Y34.813 Z0 F1600
G1 X83.783 Y34.745 Z0 F1600
G1 X84.003 Y34.629 Z0 F1600
G1 X84.251 Y34.505 Z0 F1600
G1 X84.568 Y34.351 Z0 F1600
G1 X84.903 Y34.194 Z0 F1600
G1 X85.279 Y34.021 Z0 F1600
G1 X85.659 Y33.849 Z0 F1600
G1 X86.468 Y33.494 Z0 F1600
G1 X87.242 Y33.167 Z0 F1600
G1 X87.587 Y33.027 Z0 F1600
G1 X87.917 Y32.897 Z0 F1600
G1 X88.072 Y32.838 Z0 F1600
; --- FIX Y Backlash ---
G0 X88.072 Y34.138 F1200
G1 X88.088 Y34.358 Z0 F1600
G1 X88.123 Y34.98 Z0 F1600
G1 X88.15 Y35.695 Z0 F1600
G1 X88.167 Y36.474 Z0 F1600
G1 X88.174 Y37.254 Z0 F1600
G1 Y37.689 Z0 F1600
G1 X88.168 Y38.092 Z0 F1600
G1 X88.162 Y38.465 Z0 F1600
G1 X88.152 Y38.82 Z0 F1600
G1 X88.125 Y39.421 Z0 F1600
G1 X88.082 Y39.971 Z0 F1600
; --- FIX X Backlash ---
G0 X86.782 Y39.971 F1200
G1 X86.645 Y40.95 Z0 F1600
G1 X86.43 Y41.906 Z0 F1600
G1 X86.168 Y42.759 Z0 F1600
G1 X85.837 Y43.576 Z0 F1600
G1 X85.442 Y44.359 Z0 F1600
G1 X84.993 Y45.09 Z0 F1600
G1 X84.764 Y45.413 Z0 F1600
G1 X84.518 Y45.728 Z0 F1600
G1 X84.276 Y46.01 Z0 F1600
G1 X84.028 Y46.267 Z0 F1600
G1 X83.778 Y46.498 Z0 F1600
G1 X83.536 Y46.693 Z0 F1600
G1 X83.303 Y46.855 Z0 F1600
G1 X83.072 Y46.988 Z0 F1600
G1 X82.792 Y47.123 Z0 F1600
G1 X82.769 Y47.13 Z0 F1600
; --- FIX X Backlash ---
G0 X84.069 Y47.13 F1200
; --- FIX Y Backlash ---
G0 X84.069 Y45.83 F1200
G1 X84.203 Y45.65 Z0 F1600
G1 X84.511 Y45.228 Z0 F1600
G1 X84.803 Y44.82 Z0 F1600
G1 X85.063 Y44.445 Z0 F1600
G1 X85.276 Y44.125 Z0 F1600
G1 X85.606 Y43.584 Z0 F1600
G1 X85.927 Y43.01 Z0 F1600
G1 X86.236 Y42.411 Z0 F1600
G1 X86.533 Y41.783 Z0 F1600
G1 X87.066 Y40.504 Z0 F1600
G1 X87.521 Y39.185 Z0 F1600
G1 X87.757 Y38.299 Z0 F1600
G1 X87.96 Y37.336 Z0 F1600
G1 X88.042 Y36.872 Z0 F1600
G1 X88.102 Y36.459 Z0 F1600
G1 X88.125 Y36.264 Z0 F1600
G1 X88.139 Y36.087 Z0 F1600
G1 X88.146 Y35.914 Z0 F1600
G1 X88.141 Y35.733 Z0 F1600
; --- FIX X Backlash ---
G0 X86.841 Y35.733 F1200
G1 X86.791 Y35.398 Z0 F1600
G1 X86.165 Y34.479 Z0 F1600
; --- FIX Y Backlash ---
G0 X86.165 Y35.779 F1200
G1 X85.603 Y36.131 Z0 F1600
; --- FIX X Backlash ---
G0 X86.903 Y36.131 F1200
; --- FIX Y Backlash ---
G0 X86.903 Y34.831 F1200
G1 X86.972 Y34.308 Z0 F1600
; --- FIX X Backlash ---
G0 X85.672 Y34.308 F1200
G1 X84.596 Y34.135 Z0 F1600
; --- FIX Y Backlash ---
G0 X84.596 Y35.435 F1200
G1 X84.306 Y35.51 Z0 F1600
G1 X84.154 Y35.57 Z0 F1600
G1 X84.014 Y35.635 Z0 F1600
G1 X83.735 Y35.781 Z0 F1600
G1 X83.41 Y35.967 Z0 F1600
G1 X82.714 Y36.401 Z0 F1600

; Color picking sequence
G1 Z10 F1000;         ; Raise brush
G0 X86 Y5 F1200;    ; Rapid move to color 1
G1 Z10 F1000;         ; Raise brush
G0 X86 Y5 F1200;    ; Rapid move to color 1
G1 Z0 F1000;         ; Lower into color
G1 X85.102 Y7.295 Z0 S800 F1200
G1 X85.026 Y7.642 Z0 F1200
G1 X85 Y8 Z0 F1200
G1 X85.026 Y8.358 Z0 F1200
G1 X85.102 Y8.705 Z0 F1200
G1 X85.225 Y9.041 Z0 F1200
G1 X85.393 Y9.362 Z0 F1200
G1 X85.603 Y9.668 Z0 F1200
G1 X85.854 Y9.957 Z0 F1200
G1 X86.142 Y10.226 Z0 F1200
G1 X86.464 Y10.475 Z0 F1200
G1 X86.82 Y10.701 Z0 F1200
G1 X87.204 Y10.902 Z0 F1200
G1 X87.617 Y11.078 Z0 F1200
G1 X88.054 Y11.225 Z0 F1200
G1 X88.513 Y11.343 Z0 F1200
G1 X88.992 Y11.429 Z0 F1200
G1 X89.489 Y11.482 Z0 F1200
G1 X90 Y11.5 Z0 F1200
G1 X90.511 Y11.482 Z0 F1200
G1 X91.008 Y11.429 Z0 F1200
G1 X91.487 Y11.343 Z0 F1200
G1 X91.946 Y11.225 Z0 F1200
G1 X92.383 Y11.078 Z0 F1200
G1 X92.796 Y10.902 Z0 F1200
G1 X93.18 Y10.701 Z0 F1200
G1 X93.536 Y10.475 Z0 F1200
G1 X93.858 Y10.226 Z0 F1200
G1 X94.146 Y9.957 Z0 F1200
G1 X94.397 Y9.668 Z0 F1200
G1 X94.607 Y9.362 Z0 F1200
G1 X94.775 Y9.041 Z0 F1200
G1 X94.898 Y8.705 Z0 F1200
G1 X94.974 Y8.358 Z0 F1200
G1 X95 Y8 Z0 F1200
G1 X94.974 Y7.642 Z0 F1200
G1 X94.898 Y7.295 Z0 F1200
G1 X94.775 Y6.959 Z0 F1200
G1 X94.607 Y6.638 Z0 F1200
G1 X94.397 Y6.332 Z0 F1200
G1 X94.146 Y6.043 Z0 F1200
G1 X93.858 Y5.774 Z0 F1200
G1 X93.536 Y5.525 Z0 F1200
G1 X93.18 Y5.299 Z0 F1200
G1 X92.796 Y5.098 Z0 F1200
G1 X92.383 Y4.922 Z0 F1200
G1 X91.946 Y4.775 Z0 F1200
G1 X91.487 Y4.657 Z0 F1200
G1 X91.008 Y4.571 Z0 F1200
G1 X90.511 Y4.518 Z0 F1200
G1 X90 Y4.5 Z0 F1200
G1 X89.489 Y4.518 Z0 F1200
G1 X88.992 Y4.571 Z0 F1200
G1 X88.513 Y4.657 Z0 F1200
G1 X88.054 Y4.775 Z0 F1200
G1 X87.617 Y4.922 Z0 F1200
G1 X87.204 Y5.098 Z0 F1200
G1 X86.82 Y5.299 Z0 F1200
G1 X86.464 Y5.525 Z0 F1200
G1 X86.142 Y5.774 Z0 F1200
G1 X85.854 Y6.043 Z0 F1200
G1 X85.603 Y6.332 Z0 F1200
G1 X85.393 Y6.638 Z0 F1200
G1 X85.225 Y6.959 Z0 F1200
G1 Z7 F800;         ; Raise from color
G1 X79 Y8 Z1 F1200;     ; Movement in paint
G1 X69 Y18 Z8 F500;     ; Move in paint
G1 F1200;           ; Set feed rate
G0 X82.714 Y36.401 F1200 ; Return
G1 Z0 F1000 ; Restore Z
G1 X82.054 Y36.86 Z0 F1600
G1 X81.658 Y37.174 Z0 F1600
G1 X81.23 Y37.542 Z0 F1600
G1 X80.791 Y37.94 Z0 F1600
G1 X80.366 Y38.344 Z0 F1600
G1 X79.98 Y38.727 Z0 F1600
G1 X79.663 Y39.063 Z0 F1600
G1 X79.527 Y39.221 Z0 F1600
G1 X79.404 Y39.377 Z0 F1600
G1 X79.327 Y39.5 Z0 F1600
G1 X79.227 Y39.586 Z0 F1600
G1 X79.03 Y39.791 Z0 F1600
G1 X78.83 Y40.022 Z0 F1600
G1 X78.443 Y40.52 Z0 F1600
G1 X78.071 Y41.045 Z0 F1600
G1 X77.716 Y41.593 Z0 F1600
G1 X77.38 Y42.159 Z0 F1600
G1 X77.067 Y42.738 Z0 F1600
G1 X76.938 Y42.999 Z0 F1600
; --- FIX Y Backlash ---
G0 X76.938 Y41.699 F1200
G1 Y41.414 Z0 F1600
G1 X76.945 Y41.174 Z0 F1600
G1 X76.955 Y40.974 Z0 F1600
G1 X76.967 Y40.852 Z0 F1600
G1 X77.012 Y40.608 Z0 F1600
; --- FIX X Backlash ---
G0 X78.312 Y40.608 F1200
G1 X78.392 Y40.34 Z0 F1600
G1 X78.577 Y39.854 Z0 F1600
G1 X78.799 Y39.384 Z0 F1600
G1 X79.064 Y38.921 Z0 F1600
G1 X79.374 Y38.463 Z0 F1600
G1 X79.741 Y37.995 Z0 F1600
G1 X80.158 Y37.525 Z0 F1600
G1 X80.646 Y37.033 Z0 F1600
G1 X81.192 Y36.533 Z0 F1600
G1 X81.474 Y36.292 Z0 F1600
G1 X81.729 Y36.096 Z0 F1600
G1 X81.889 Y35.983 Z0 F1600
G1 X82.064 Y35.865 Z0 F1600
G1 X82.301 Y35.709 Z0 F1600
G1 X82.95 Y35.288 Z0 F1600
G1 X83.379 Y35.007 Z0 F1600
G0 Z3.5 F1000
; --- FIX Y Backlash ---
G0 X83.379 Y36.307 F1200
G0 X85.764 Y37.933 Z3.5
G1 Z0 F1000
; --- FIX X Backlash ---
G0 X84.464 Y37.933 F1200
G1 X83.937 Y39.132 Z0 F1600
G1 X83.401 Y40.267 Z0 F1600
G1 X82.848 Y41.347 Z0 F1600
G1 X82.288 Y42.354 Z0 F1600
G1 X81.693 Y43.335 Z0 F1600
G1 X81.068 Y44.288 Z0 F1600
G1 X80.404 Y45.223 Z0 F1600
G1 X79.691 Y46.158 Z0 F1600
G1 X79.448 Y46.466 Z0 F1600
; --- FIX Y Backlash ---
G0 X79.448 Y45.166 F1200
G1 X79.229 Y45.034 Z0 F1600
G1 X78.945 Y44.845 Z0 F1600
G1 X78.866 Y44.785 Z0 F1600
G1 X78.877 Y44.755 Z0 F1600
; --- FIX X Backlash ---
G0 X80.177 Y44.755 F1200
G1 X80.288 Y44.478 Z0 F1600
G1 X80.438 Y44.131 Z0 F1600
G1 Y44.125 Z0 F1600
G1 X80.445 Y44.115 Z0 F1600
G1 X80.611 Y43.748 Z0 F1600
G1 X80.812 Y43.327 Z0 F1600
G1 X81.014 Y42.92 Z0 F1600
G1 X81.457 Y42.095 Z0 F1600
G1 X81.932 Y41.299 Z0 F1600
G1 X82.459 Y40.504 Z0 F1600
G1 X83.034 Y39.716 Z0 F1600
G1 X83.68 Y38.907 Z0 F1600
G1 X84.374 Y38.101 Z0 F1600
G1 X85.162 Y37.248 Z0 F1600
G1 X85.764 Y36.633 Z0 F1600
G0 Z3.5 F1000
G0 X87.173 Y35.725 Z3.5
G1 Z0 F1000
; --- FIX X Backlash ---
G0 X85.873 Y35.725 F1200
; --- FIX Y Backlash ---
G0 X85.873 Y37.025 F1200
G1 X85.816 Y37.112 Z0 F1600
G1 X85.735 Y37.272 Z0 F1600
G1 X85.624 Y37.515 Z0 F1600
G1 X85.479 Y37.848 Z0 F1600
G1 X85.294 Y38.28 Z0 F1600
G1 X84.751 Y39.517 Z0 F1600
G1 X84.202 Y40.676 Z0 F1600
G1 X83.642 Y41.771 Z0 F1600
G1 X83.062 Y42.813 Z0 F1600
G1 X82.455 Y43.815 Z0 F1600
G1 X81.814 Y44.792 Z0 F1600
G1 X81.13 Y45.754 Z0 F1600
G1 X80.398 Y46.714 Z0 F1600
G1 X79.741 Y47.55 Z0 F1600
G1 X79.7 Y47.565 Z0 F1600
G1 X79.625 Y47.553 Z0 F1600
G1 X79.521 Y47.518 Z0 F1600
; --- FIX Y Backlash ---
G0 X79.521 Y46.218 F1200
G1 X79.394 Y46.162 Z0 F1600
G1 X79.09 Y46.001 Z0 F1600
G1 X78.751 Y45.797 Z0 F1600
G1 X78.418 Y45.575 Z0 F1600
G1 X78.131 Y45.359 Z0 F1600
G1 X78.017 Y45.262 Z0 F1600
G1 X77.929 Y45.176 Z0 F1600
G1 X77.873 Y45.104 Z0 F1600
G1 X77.853 Y45.051 Z0 F1600
G1 X77.875 Y44.917 Z0 F1600
; --- FIX X Backlash ---
G0 X79.175 Y44.917 F1200
G1 X79.236 Y44.711 Z0 F1600
G1 X79.333 Y44.443 Z0 F1600
G1 X79.461 Y44.122 Z0 F1600
G1 X79.618 Y43.759 Z0 F1600
G1 X79.799 Y43.361 Z0 F1600
G1 X80 Y42.94 Z0 F1600
G1 X80.216 Y42.504 Z0 F1600
G1 X80.673 Y41.651 Z0 F1600
G1 X81.172 Y40.817 Z0 F1600
G1 X81.718 Y39.992 Z0 F1600
G1 X82.319 Y39.169 Z0 F1600
G1 X82.98 Y38.34 Z0 F1600
G1 X83.708 Y37.495 Z0 F1600
G1 X84.51 Y36.627 Z0 F1600
G1 X85.63 Y35.482 Z0 F1600
G1 X85.818 Y35.275 Z0 F1600
G1 X85.887 Y35.191 Z0 F1600
G1 X85.936 Y35.126 Z0 F1600
G1 X85.963 Y35.08 Z0 F1600
G1 X85.966 Y35.058 Z0 F1600
G1 X85.939 Y35.054 Z0 F1600
; --- FIX X Backlash ---
G0 X84.639 Y35.054 F1200
G1 X84.586 Y35.067 Z0 F1600
G1 X84.51 Y35.097 Z0 F1600
G1 X84.412 Y35.142 Z0 F1600
; --- FIX Y Backlash ---
G0 X84.412 Y36.442 F1200
G1 X84.168 Y36.571 Z0 F1600
G1 X83.871 Y36.74 Z0 F1600
G1 X83.209 Y37.153 Z0 F1600
G1 X82.591 Y37.583 Z0 F1600
G1 X82.232 Y37.868 Z0 F1600
G1 X81.826 Y38.217 Z0 F1600
G1 X81.403 Y38.601 Z0 F1600
G1 X80.992 Y38.99 Z0 F1600
G1 X80.625 Y39.354 Z0 F1600
G1 X80.331 Y39.667 Z0 F1600
G1 X80.221 Y39.793 Z0 F1600
G1 X80.141 Y39.896 Z0 F1600
G1 X80.094 Y39.971 Z0 F1600
G1 X80.084 Y40.014 Z0 F1600
G1 X80.094 Y40.056 Z0 F1600
G1 X80.087 Y40.087 Z0 F1600
G1 X80.067 Y40.105 Z0 F1600
G1 X80.033 Z0 F1600
G1 X79.965 Y40.138 Z0 F1600
G1 X79.846 Y40.241 Z0 F1600
G1 X79.695 Y40.397 Z0 F1600
G1 X79.527 Y40.592 Z0 F1600
G1 X79.166 Y41.056 Z0 F1600
G1 X78.816 Y41.55 Z0 F1600
G1 X78.481 Y42.067 Z0 F1600
G1 X78.163 Y42.603 Z0 F1600
G1 X77.867 Y43.151 Z0 F1600
G1 X77.594 Y43.704 Z0 F1600
G1 X77.35 Y44.257 Z0 F1600
G1 X77.138 Y44.804 Z0 F1600
G1 X76.867 Y45.553 Z0 F1600
; --- FIX Y Backlash ---
G0 X76.867 Y44.253 F1200
G1 X76.681 Y43.994 Z0 F1600
G1 X76.484 Y43.666 Z0 F1600
G1 X76.267 Y43.244 Z0 F1600
G1 X76.142 Y42.95 Z0 F1600
G1 X76.073 Y42.667 Z0 F1600
G1 X76.054 Y42.496 Z0 F1600
G1 X76.044 Y42.287 Z0 F1600
G1 X76.039 Y42.026 Z0 F1600
G1 Y41.699 Z0 F1600
G1 Y41.393 Z0 F1600
G1 X76.045 Y41.137 Z0 F1600
G1 X76.057 Y40.919 Z0 F1600
G1 X76.075 Y40.729 Z0 F1600
; --- FIX X Backlash ---
G0 X77.375 Y40.729 F1200
G1 X77.436 Y40.395 Z0 F1600
G1 X77.538 Y40.053 Z0 F1600
G1 X77.749 Y39.501 Z0 F1600
G1 X78.001 Y38.967 Z0 F1600
G1 X78.3 Y38.445 Z0 F1600
G1 X78.647 Y37.931 Z0 F1600
G1 X79.048 Y37.42 Z0 F1600
G1 X79.504 Y36.907 Z0 F1600
G1 X80.02 Y36.387 Z0 F1600
G1 X80.599 Y35.856 Z0 F1600
G1 X80.905 Y35.595 Z0 F1600
G1 X81.199 Y35.368 Z0 F1600
G1 X81.369 Y35.248 Z0 F1600
G1 X81.57 Y35.113 Z0 F1600
G1 X81.812 Y34.953 Z0 F1600
G1 X82.458 Y34.534 Z0 F1600
G1 X82.88 Y34.258 Z0 F1600
G1 X83.044 Y34.147 Z0 F1600
G1 X83.08 Y34.121 Z0 F1600
G1 X83.186 Y34.049 Z0 F1600
G1 X83.356 Y33.952 Z0 F1600
G1 X83.583 Y33.832 Z0 F1600
G1 X83.859 Y33.694 Z0 F1600
G1 X84.177 Y33.541 Z0 F1600
G1 X84.527 Y33.376 Z0 F1600
G1 X84.903 Y33.203 Z0 F1600
G1 X85.297 Y33.025 Z0 F1600
G1 X86.106 Y32.67 Z0 F1600
G1 X86.892 Y32.338 Z0 F1600
G1 X87.257 Y32.189 Z0 F1600
G1 X87.593 Y32.057 Z0 F1600
G1 X87.892 Y31.944 Z0 F1600
G1 X88.146 Y31.855 Z0 F1600
G1 X88.38 Y31.779 Z0 F1600
G1 X88.579 Y31.715 Z0 F1600
G1 X88.723 Y31.671 Z0 F1600
G1 X88.791 Y31.655 Z0 F1600
G1 X88.817 Y31.678 Z0 F1600
; --- FIX Y Backlash ---
G0 X88.817 Y32.978 F1200
G1 X88.844 Y33.048 Z0 F1600
G1 X88.87 Y33.163 Z0 F1600
G1 X88.895 Y33.319 Z0 F1600
G1 X88.919 Y33.514 Z0 F1600
G1 X88.943 Y33.743 Z0 F1600
G1 X88.965 Y34.004 Z0 F1600
G1 X88.986 Y34.294 Z0 F1600
G1 X89.022 Y34.946 Z0 F1600
G1 X89.05 Y35.675 Z0 F1600
G1 X89.067 Y36.453 Z0 F1600
G1 X89.074 Y37.257 Z0 F1600

; Color picking sequence
G1 Z10 F1000;         ; Raise brush
G0 X86 Y5 F1200;    ; Rapid move to color 1
G1 Z10 F1000;         ; Raise brush
G0 X86 Y5 F1200;    ; Rapid move to color 1
G1 Z0 F1000;         ; Lower into color
G1 X85.102 Y7.295 Z0 S800 F1200
G1 X85.026 Y7.642 Z0 F1200
G1 X85 Y8 Z0 F1200
G1 X85.026 Y8.358 Z0 F1200
G1 X85.102 Y8.705 Z0 F1200
G1 X85.225 Y9.041 Z0 F1200
G1 X85.393 Y9.362 Z0 F1200
G1 X85.603 Y9.668 Z0 F1200
G1 X85.854 Y9.957 Z0 F1200
G1 X86.142 Y10.226 Z0 F1200
G1 X86.464 Y10.475 Z0 F1200
G1 X86.82 Y10.701 Z0 F1200
G1 X87.204 Y10.902 Z0 F1200
G1 X87.617 Y11.078 Z0 F1200
G1 X88.054 Y11.225 Z0 F1200
G1 X88.513 Y11.343 Z0 F1200
G1 X88.992 Y11.429 Z0 F1200
G1 X89.489 Y11.482 Z0 F1200
G1 X90 Y11.5 Z0 F1200
G1 X90.511 Y11.482 Z0 F1200
G1 X91.008 Y11.429 Z0 F1200
G1 X91.487 Y11.343 Z0 F1200
G1 X91.946 Y11.225 Z0 F1200
G1 X92.383 Y11.078 Z0 F1200
G1 X92.796 Y10.902 Z0 F1200
G1 X93.18 Y10.701 Z0 F1200
G1 X93.536 Y10.475 Z0 F1200
G1 X93.858 Y10.226 Z0 F1200
G1 X94.146 Y9.957 Z0 F1200
G1 X94.397 Y9.668 Z0 F1200
G1 X94.607 Y9.362 Z0 F1200
G1 X94.775 Y9.041 Z0 F1200
G1 X94.898 Y8.705 Z0 F1200
G1 X94.974 Y8.358 Z0 F1200
G1 X95 Y8 Z0 F1200
G1 X94.974 Y7.642 Z0 F1200
G1 X94.898 Y7.295 Z0 F1200
G1 X94.775 Y6.959 Z0 F1200
G1 X94.607 Y6.638 Z0 F1200
G1 X94.397 Y6.332 Z0 F1200
G1 X94.146 Y6.043 Z0 F1200
G1 X93.858 Y5.774 Z0 F1200
G1 X93.536 Y5.525 Z0 F1200
G1 X93.18 Y5.299 Z0 F1200
G1 X92.796 Y5.098 Z0 F1200
G1 X92.383 Y4.922 Z0 F1200
G1 X91.946 Y4.775 Z0 F1200
G1 X91.487 Y4.657 Z0 F1200
G1 X91.008 Y4.571 Z0 F1200
G1 X90.511 Y4.518 Z0 F1200
G1 X90 Y4.5 Z0 F1200
G1 X89.489 Y4.518 Z0 F1200
G1 X88.992 Y4.571 Z0 F1200
G1 X88.513 Y4.657 Z0 F1200
G1 X88.054 Y4.775 Z0 F1200
G1 X87.617 Y4.922 Z0 F1200
G1 X87.204 Y5.098 Z0 F1200
G1 X86.82 Y5.299 Z0 F1200
G1 X86.464 Y5.525 Z0 F1200
G1 X86.142 Y5.774 Z0 F1200
G1 X85.854 Y6.043 Z0 F1200
G1 X85.603 Y6.332 Z0 F1200
G1 X85.393 Y6.638 Z0 F1200
G1 X85.225 Y6.959 Z0 F1200
G1 Z7 F800;         ; Raise from color
G1 X79 Y8 Z1 F1200;     ; Movement in paint
G1 X69 Y18 Z8 F500;     ; Move in paint
G1 F1200;           ; Set feed rate
G0 X89.074 Y37.257 F1200 ; Return
G1 Z0 F1000 ; Restore Z
G1 Y37.698 Z0 F1600
G1 X89.068 Y38.108 Z0 F1600
G1 X89.062 Y38.49 Z0 F1600
G1 X89.052 Y38.845 Z0 F1600
G1 X89.022 Y39.491 Z0 F1600
G1 X88.977 Y40.068 Z0 F1600
; --- FIX X Backlash ---
G0 X87.677 Y40.068 F1200
G1 X87.533 Y41.107 Z0 F1600
G1 X87.3 Y42.141 Z0 F1600
G1 X87.018 Y43.058 Z0 F1600
G1 X86.657 Y43.949 Z0 F1600
G1 X86.228 Y44.798 Z0 F1600
G1 X85.744 Y45.586 Z0 F1600
G1 X85.485 Y45.952 Z0 F1600
G1 X85.216 Y46.296 Z0 F1600
G1 X84.94 Y46.617 Z0 F1600
G1 X84.657 Y46.912 Z0 F1600
G1 X84.368 Y47.178 Z0 F1600
G1 X84.076 Y47.414 Z0 F1600
G1 X83.783 Y47.618 Z0 F1600
G1 X83.489 Y47.786 Z0 F1600
G1 X83.13 Y47.959 Z0 F1600
G1 X82.832 Y48.057 Z0 F1600
G1 X82.671 Y48.086 Z0 F1600
G1 X82.481 Y48.107 Z0 F1600
G1 X82.25 Y48.122 Z0 F1600
G1 X81.963 Y48.134 Z0 F1600
G1 X81.601 Y48.142 Z0 F1600
G1 X81.295 Y48.137 Z0 F1600
G1 X81.172 Y48.131 Z0 F1600
G1 X81.075 Y48.122 Z0 F1600
G1 X81.008 Y48.11 Z0 F1600
G1 X80.974 Y48.096 Z0 F1600
; --- FIX Y Backlash ---
G0 X80.974 Y46.796 F1200
G1 X80.966 Y46.744 Z0 F1600
G1 X80.997 Y46.658 Z0 F1600
; --- FIX X Backlash ---
G0 X82.297 Y46.658 F1200
G1 X82.364 Y46.55 Z0 F1600
G1 X82.461 Y46.428 Z0 F1600
G1 X82.548 Y46.326 Z0 F1600
G1 X82.65 Y46.2 Z0 F1600
G1 X82.896 Y45.89 Z0 F1600
G1 X83.178 Y45.52 Z0 F1600
G1 X83.479 Y45.116 Z0 F1600
G1 X83.782 Y44.701 Z0 F1600
G1 X84.067 Y44.302 Z0 F1600
G1 X84.318 Y43.94 Z0 F1600
G1 X84.517 Y43.641 Z0 F1600
G1 X84.83 Y43.129 Z0 F1600
G1 X85.134 Y42.584 Z0 F1600
G1 X85.429 Y42.013 Z0 F1600
G1 X85.71 Y41.418 Z0 F1600
G1 X86.225 Y40.183 Z0 F1600
G1 X86.66 Y38.923 Z0 F1600
G1 X86.881 Y38.09 Z0 F1600
G1 X87.077 Y37.166 Z0 F1600
G1 X87.153 Y36.73 Z0 F1600
G1 X87.209 Y36.343 Z0 F1600
G1 X87.229 Y36.176 Z0 F1600
G1 X87.241 Y36.03 Z0 F1600
G1 X87.246 Y35.908 Z0 F1600
G1 X87.243 Y35.813 Z0 F1600
G1 X87.231 Y35.734 Z0 F1600
G1 X87.209 Y35.702 Z0 F1600
G1 X87.173 Y35.725 Z0 F1600

; Washing sequence (no color)
G1 Z10 F1000;        ; Raise brush
G0 X5 Y5 F1200;     ; Rapid move to clean
G1 Z-1 F800;         ; Lower brush
G1 X10 Y12 Z8 F1200;     ; Move
G1 Z-1 F800;         ; Lower
G1 X25 Y14 Z6 F800;     ; Move
G1 Z8 F800;         ; Maintain
G0 X5 Y5 F1200;     ; Rapid
G1 Z-1 F800;         ; Lower
G1 X15 Y12 Z8 F1200;     ; Move
G1 Z-1 F800;         ; Lower
G1 X25 Y14 Z6 F800;     ; Move
G1 Z10 F800;         ; Maintain
G1 F1200;           ; Set feed

; Color picking sequence
G1 Z10 F1000;         ; Raise brush
G0 X131 Y5 F1200;    ; Rapid move to color 1
G1 Z10 F1000;         ; Raise brush
G0 X131 Y5 F1200;    ; Rapid move to color 1
G1 Z0 F1000;         ; Lower into color
G1 X130.102 Y7.295 Z0 S800 F1200
G1 X130.026 Y7.642 Z0 F1200
G1 X130 Y8 Z0 F1200
G1 X130.026 Y8.358 Z0 F1200
G1 X130.102 Y8.705 Z0 F1200
G1 X130.225 Y9.041 Z0 F1200
G1 X130.393 Y9.362 Z0 F1200
G1 X130.603 Y9.668 Z0 F1200
G1 X130.854 Y9.957 Z0 F1200
G1 X131.142 Y10.226 Z0 F1200
G1 X131.464 Y10.475 Z0 F1200
G1 X131.82 Y10.701 Z0 F1200
G1 X132.204 Y10.902 Z0 F1200
G1 X132.617 Y11.078 Z0 F1200
G1 X133.054 Y11.225 Z0 F1200
G1 X133.513 Y11.343 Z0 F1200
G1 X133.992 Y11.429 Z0 F1200
G1 X134.489 Y11.482 Z0 F1200
G1 X135 Y11.5 Z0 F1200
G1 X135.511 Y11.482 Z0 F1200
G1 X136.008 Y11.429 Z0 F1200
G1 X136.487 Y11.343 Z0 F1200
G1 X136.946 Y11.225 Z0 F1200
G1 X137.383 Y11.078 Z0 F1200
G1 X137.796 Y10.902 Z0 F1200
G1 X138.18 Y10.701 Z0 F1200
G1 X138.536 Y10.475 Z0 F1200
G1 X138.858 Y10.226 Z0 F1200
G1 X139.146 Y9.957 Z0 F1200
G1 X139.397 Y9.668 Z0 F1200
G1 X139.607 Y9.362 Z0 F1200
G1 X139.775 Y9.041 Z0 F1200
G1 X139.898 Y8.705 Z0 F1200
G1 X139.974 Y8.358 Z0 F1200
G1 X140 Y8 Z0 F1200
G1 X139.974 Y7.642 Z0 F1200
G1 X139.898 Y7.295 Z0 F1200
G1 X139.775 Y6.959 Z0 F1200
G1 X139.607 Y6.638 Z0 F1200
G1 X139.397 Y6.332 Z0 F1200
G1 X139.146 Y6.043 Z0 F1200
G1 X138.858 Y5.774 Z0 F1200
G1 X138.536 Y5.525 Z0 F1200
G1 X138.18 Y5.299 Z0 F1200
G1 X137.796 Y5.098 Z0 F1200
G1 X137.383 Y4.922 Z0 F1200
G1 X136.946 Y4.775 Z0 F1200
G1 X136.487 Y4.657 Z0 F1200
G1 X136.008 Y4.571 Z0 F1200
G1 X135.511 Y4.518 Z0 F1200
G1 X135 Y4.5 Z0 F1200
G1 X134.489 Y4.518 Z0 F1200
G1 X133.992 Y4.571 Z0 F1200
G1 X133.513 Y4.657 Z0 F1200
G1 X133.054 Y4.775 Z0 F1200
G1 X132.617 Y4.922 Z0 F1200
G1 X132.204 Y5.098 Z0 F1200
G1 X131.82 Y5.299 Z0 F1200
G1 X131.464 Y5.525 Z0 F1200
G1 X131.142 Y5.774 Z0 F1200
G1 X130.854 Y6.043 Z0 F1200
G1 X130.603 Y6.332 Z0 F1200
G1 X130.393 Y6.638 Z0 F1200
G1 X130.225 Y6.959 Z0 F1200
G1 Z7 F800;         ; Raise from color
G1 X124 Y8 Z1 F1200;     ; Movement in paint
G1 X114 Y18 Z8 F500;     ; Move in paint
G1 F1200;           ; Set feed rate
;Cut @ 1500 mm/min, 80% power

M8
G0 Z3.5 F1000
; --- FIX X Backlash ---
G0 X85.873 Y35.725 F1200
; --- FIX Y Backlash ---
G0 X85.873 Y37.025 F1200
G0 X70.091 Y40.998 Z3.5
G1 Z0 F1000
;Layer C3
G1 X70.064 Y40.958 Z0 S800 F1600
G1 X70.039 Y40.951 Z0 F1600
G1 X69.985 Y40.945 Z0 F1600
G1 X69.799 Y40.932 Z0 F1600
G1 X69.518 Y40.92 Z0 F1600
G1 X69.155 Y40.91 Z0 F1600
G1 X68.721 Y40.902 Z0 F1600
G1 X68.229 Y40.895 Z0 F1600
G1 X67.691 Y40.891 Z0 F1600
G1 X67.118 Z0 F1600
G1 X66.372 Z0 F1600
G1 X65.755 Y40.894 Z0 F1600
G1 X65.256 Y40.901 Z0 F1600
G1 X64.866 Y40.911 Z0 F1600
G1 X64.575 Y40.925 Z0 F1600
G1 X64.372 Y40.943 Z0 F1600
G1 X64.248 Y40.966 Z0 F1600
G1 X64.192 Y40.994 Z0 F1600
G1 X64.169 Y41.038 Z0 F1600
G1 X64.14 Y41.125 Z0 F1600
G1 X64.104 Y41.248 Z0 F1600
G1 X64.064 Y41.403 Z0 F1600
G1 X63.974 Y41.788 Z0 F1600
G1 X63.88 Y42.239 Z0 F1600
G1 X63.78 Y42.738 Z0 F1600
G1 X63.624 Y43.501 Z0 F1600
G1 X63.432 Y44.407 Z0 F1600
G1 X63.37 Y44.721 Z0 F1600
G1 X63.318 Y45.002 Z0 F1600
G1 X63.283 Y45.214 Z0 F1600
G1 X63.265 Y45.358 Z0 F1600
G1 X63.246 Y45.465 Z0 F1600
G1 X63.207 Y45.542 Z0 F1600
G1 X63.129 Y45.6 Z0 F1600
G1 X62.993 Y45.647 Z0 F1600
G1 X62.779 Y45.693 Z0 F1600
G1 X62.637 Y45.718 Z0 F1600
G1 X61.847 Y45.851 Z0 F1600
G1 X61.692 Y45.873 Z0 F1600
G1 X61.572 Y45.886 Z0 F1600
G1 X61.479 Y45.889 Z0 F1600
G1 X61.356 Y45.863 Z0 F1600
; --- FIX Y Backlash ---
G0 X61.356 Y44.563 F1200
G1 X61.274 Y44.494 Z0 F1600
G1 X61.238 Y44.448 Z0 F1600
G1 X61.106 Y44.264 Z0 F1600
G1 X60.791 Y43.802 Z0 F1600
G1 X60.527 Y43.408 Z0 F1600
G1 X59.944 Y42.526 Z0 F1600
G1 X59.236 Y41.431 Z0 F1600
G1 X59.092 Y41.22 Z0 F1600
G1 X59.034 Y41.138 Z0 F1600
G1 X58.988 Y41.077 Z0 F1600
G1 X58.956 Y41.038 Z0 F1600
G1 X58.938 Y41.024 Z0 F1600
G1 X58.93 Y41.046 Z0 F1600
; --- FIX Y Backlash ---
G0 X58.93 Y42.346 F1200
G1 X58.922 Y42.409 Z0 F1600
G1 X58.914 Y42.508 Z0 F1600
G1 X58.908 Y42.64 Z0 F1600
G1 X58.898 Y42.982 Z0 F1600
G1 X58.891 Y43.727 Z0 F1600
G1 X58.885 Y43.994 Z0 F1600
G1 X58.873 Y44.217 Z0 F1600
G1 X58.852 Y44.408 Z0 F1600
G1 X58.781 Y44.752 Z0 F1600
G1 X58.654 Y45.137 Z0 F1600
G1 X58.418 Y45.796 Z0 F1600
; --- FIX X Backlash ---
G0 X59.718 Y45.796 F1200
G1 X61.615 Y48.631 Z0 F1600
G1 X62.187 Y49.479 Z0 F1600
G1 X62.63 Y50.127 Z0 F1600
G1 X62.844 Y50.434 Z0 F1600
G1 X62.918 Y50.535 Z0 F1600
G1 X62.932 Y50.551 Z0 F1600
G1 X62.997 Z0 F1600
G1 X63.132 Y50.532 Z0 F1600
G1 X63.318 Y50.491 Z0 F1600
; --- FIX Y Backlash ---
G0 X63.318 Y49.191 F1200
G1 X63.535 Y49.135 Z0 F1600
G1 X63.973 Y49.027 Z0 F1600
G1 X64.455 Y48.934 Z0 F1600
G1 X64.975 Y48.855 Z0 F1600
G1 X65.527 Y48.79 Z0 F1600
G1 X66.698 Y48.704 Z0 F1600
G1 X67.919 Y48.675 Z0 F1600
G1 X69.139 Y48.703 Z0 F1600
; --- FIX Y Backlash ---
G0 X69.139 Y50.003 F1200
G1 X70.309 Y50.088 Z0 F1600
G1 X70.859 Y50.152 Z0 F1600
G1 X71.377 Y50.23 Z0 F1600
G1 X71.858 Y50.323 Z0 F1600
G1 X72.295 Y50.43 Z0 F1600
G1 X72.545 Y50.499 Z0 F1600
G1 X72.739 Y50.548 Z0 F1600
G1 X72.884 Y50.577 Z0 F1600
G1 X72.991 Y50.587 Z0 F1600
G1 X73.122 Y50.549 Z0 F1600
; --- FIX Y Backlash ---
G0 X73.122 Y49.249 F1200
G1 X73.201 Y49.133 Z0 F1600
G1 X73.238 Y49.071 Z0 F1600
G1 X73.31 Y48.958 Z0 F1600
G1 X73.545 Y48.602 Z0 F1600
G1 X73.872 Y48.118 Z0 F1600
G1 X74.256 Y47.558 Z0 F1600
G1 X75.547 Y45.683 Z0 F1600
G1 X75.666 Y45.498 Z0 F1600
G1 X75.753 Y45.336 Z0 F1600
G1 X75.801 Y45.215 Z0 F1600
G1 Y45.153 Z0 F1600
G1 X75.768 Y45.137 Z0 F1600
; --- FIX X Backlash ---
G0 X74.468 Y45.137 F1200
G1 X74.399 Y45.112 Z0 F1600
G1 X74.296 Y45.079 Z0 F1600
G1 X74.163 Y45.039 Z0 F1600
G1 X73.823 Y44.943 Z0 F1600
G1 X73.406 Y44.832 Z0 F1600
G1 X72.463 Y44.593 Z0 F1600
G1 X71.569 Y44.384 Z0 F1600
G1 X71.069 Y44.275 Z0 F1600
G1 X70.428 Y41.029 Z0 F1600
G1 X70.32 Y40.518 Z0 F1600
G1 X70.215 Y40.089 Z0 F1600
G1 X70.168 Y39.919 Z0 F1600
G1 X70.126 Y39.787 Z0 F1600
G1 X70.091 Y39.698 Z0 F1600
G0 Z3.5 F1000
; --- FIX X Backlash ---
G0 X71.391 Y39.698 F1200
; --- FIX Y Backlash ---
G0 X71.391 Y40.998 F1200
G0 X82.857 Y50.44 Z3.5
G1 Z0 F1000
; --- FIX X Backlash ---
G0 X81.557 Y50.44 F1200
G1 X80.514 Y52.492 Z0 F1600
G1 X80.186 Y53.13 Z0 F1600
G1 X79.92 Y53.644 Z0 F1600
G1 X79.746 Y53.971 Z0 F1600
G1 X79.668 Y54.11 Z0 F1600
G1 X79.652 Y54.168 Z0 F1600
G1 X79.661 Y54.23 Z0 F1600
G1 X79.701 Y54.303 Z0 F1600
; --- FIX X Backlash ---
G0 X81.001 Y54.303 F1200
G1 X81.079 Y54.397 Z0 F1600
G1 X81.201 Y54.519 Z0 F1600
G1 X81.374 Y54.679 Z0 F1600
G1 X81.602 Y54.885 Z0 F1600
G1 X82.563 Y55.782 Z0 F1600
G1 X83.449 Y56.679 Z0 F1600
G1 X84.262 Y57.581 Z0 F1600
G1 X85.006 Y58.492 Z0 F1600
G1 X85.684 Y59.415 Z0 F1600
G1 X86.298 Y60.353 Z0 F1600
G1 X86.852 Y61.312 Z0 F1600
G1 X87.348 Y62.294 Z0 F1600
G1 X87.546 Y62.74 Z0 F1600
G1 X87.753 Y63.252 Z0 F1600
G1 X87.963 Y63.809 Z0 F1600
G1 X88.168 Y64.392 Z0 F1600
G1 X88.362 Y64.982 Z0 F1600
G1 X88.539 Y65.56 Z0 F1600
G1 X88.691 Y66.106 Z0 F1600
G1 X88.813 Y66.6 Z0 F1600
G1 X89.035 Y67.745 Z0 F1600
G1 X89.195 Y68.926 Z0 F1600
G1 X89.293 Y70.13 Z0 F1600
G1 X89.329 Y71.34 Z0 F1600
G1 X89.303 Y72.544 Z0 F1600
; --- FIX X Backlash ---
G0 X88.003 Y72.544 F1200
G1 X87.914 Y73.728 Z0 F1600
G1 X87.763 Y74.875 Z0 F1600
G1 X87.55 Y75.973 Z0 F1600
G1 X87.466 Y76.319 Z0 F1600
G1 X87.361 Y76.714 Z0 F1600
G1 X87.243 Y77.137 Z0 F1600
G1 X87.117 Y77.567 Z0 F1600
G1 X86.99 Y77.983 Z0 F1600
G1 X86.869 Y78.362 Z0 F1600
G1 X86.758 Y78.685 Z0 F1600
G1 X86.666 Y78.929 Z0 F1600
G1 X86.405 Y79.562 Z0 F1600
G1 X86.357 Y79.673 Z0 F1600
G1 X86.293 Y79.812 Z0 F1600
G1 X86.128 Y80.158 Z0 F1600
G1 X85.926 Y80.565 Z0 F1600
G1 X85.707 Y80.999 Z0 F1600
G1 X85.486 Y81.425 Z0 F1600
G1 X85.283 Y81.81 Z0 F1600
G1 X85.114 Y82.118 Z0 F1600
G1 X85.048 Y82.232 Z0 F1600
G1 X84.997 Y82.314 Z0 F1600
G1 X84.845 Y82.543 Z0 F1600
G1 X84.639 Y82.844 Z0 F1600
G1 X84.4 Y83.188 Z0 F1600
G1 X83.912 Y83.885 Z0 F1600
G1 X83.619 Y84.294 Z0 F1600
G1 X83.498 Y84.457 Z0 F1600
G1 X83.468 Y84.494 Z0 F1600
G1 X83.297 Y84.695 Z0 F1600
G1 X83.004 Y85.047 Z0 F1600
G1 X82.624 Y85.494 Z0 F1600
G1 X82.244 Y85.921 Z0 F1600
G1 X82.092 Y86.089 Z0 F1600
G1 X81.96 Y86.241 Z0 F1600
G1 X81.861 Y86.361 Z0 F1600
G1 X81.81 Y86.431 Z0 F1600
G1 X81.807 Y86.489 Z0 F1600
G1 X81.833 Y86.601 Z0 F1600
; --- FIX X Backlash ---
G0 X83.133 Y86.601 F1200
G1 X83.189 Y86.769 Z0 F1600
G1 X83.275 Y86.994 Z0 F1600
G1 X83.393 Y87.279 Z0 F1600
G1 X83.542 Y87.625 Z0 F1600
G1 X83.724 Y88.033 Z0 F1600
G1 X84.009 Y88.661 Z0 F1600
G1 X84.204 Y89.111 Z0 F1600
G1 X84.451 Y89.691 Z0 F1600
G1 X84.584 Y89.994 Z0 F1600
G1 X84.703 Y90.256 Z0 F1600
G1 X84.808 Y90.474 Z0 F1600
G1 X84.897 Y90.648 Z0 F1600
G1 X84.97 Y90.774 Z0 F1600
G1 X85.026 Y90.851 Z0 F1600
G1 X85.063 Y90.877 Z0 F1600
G1 X85.129 Y90.84 Z0 F1600
; --- FIX Y Backlash ---
G0 X85.129 Y89.54 F1200
G1 X85.257 Y89.44 Z0 F1600
G1 X85.429 Y89.291 Z0 F1600
G1 X85.626 Y89.109 Z0 F1600
G1 X86.474 Y88.306 Z0 F1600
; --- FIX Y Backlash ---
G0 X86.474 Y89.606 F1200
G1 X87.31 Y89.995 Z0 F1600
G1 X88.235 Y90.423 Z0 F1600
G1 X88.765 Y90.661 Z0 F1600
G1 X89.286 Y90.899 Z0 F1600

; Color picking sequence
G1 Z10 F1000;         ; Raise brush
G0 X131 Y5 F1200;    ; Rapid move to color 1
G1 Z10 F1000;         ; Raise brush
G0 X131 Y5 F1200;    ; Rapid move to color 1
G1 Z0 F1000;         ; Lower into color
G1 X130.102 Y7.295 Z0 S800 F1200
G1 X130.026 Y7.642 Z0 F1200
G1 X130 Y8 Z0 F1200
G1 X130.026 Y8.358 Z0 F1200
G1 X130.102 Y8.705 Z0 F1200
G1 X130.225 Y9.041 Z0 F1200
G1 X130.393 Y9.362 Z0 F1200
G1 X130.603 Y9.668 Z0 F1200
G1 X130.854 Y9.957 Z0 F1200
G1 X131.142 Y10.226 Z0 F1200
G1 X131.464 Y10.475 Z0 F1200
G1 X131.82 Y10.701 Z0 F1200
G1 X132.204 Y10.902 Z0 F1200
G1 X132.617 Y11.078 Z0 F1200
G1 X133.054 Y11.225 Z0 F1200
G1 X133.513 Y11.343 Z0 F1200
G1 X133.992 Y11.429 Z0 F1200
G1 X134.489 Y11.482 Z0 F1200
G1 X135 Y11.5 Z0 F1200
G1 X135.511 Y11.482 Z0 F1200
G1 X136.008 Y11.429 Z0 F1200
G1 X136.487 Y11.343 Z0 F1200
G1 X136.946 Y11.225 Z0 F1200
G1 X137.383 Y11.078 Z0 F1200
G1 X137.796 Y10.902 Z0 F1200
G1 X138.18 Y10.701 Z0 F1200
G1 X138.536 Y10.475 Z0 F1200
G1 X138.858 Y10.226 Z0 F1200
G1 X139.146 Y9.957 Z0 F1200
G1 X139.397 Y9.668 Z0 F1200
G1 X139.607 Y9.362 Z0 F1200
G1 X139.775 Y9.041 Z0 F1200
G1 X139.898 Y8.705 Z0 F1200
G1 X139.974 Y8.358 Z0 F1200
G1 X140 Y8 Z0 F1200
G1 X139.974 Y7.642 Z0 F1200
G1 X139.898 Y7.295 Z0 F1200
G1 X139.775 Y6.959 Z0 F1200
G1 X139.607 Y6.638 Z0 F1200
G1 X139.397 Y6.332 Z0 F1200
G1 X139.146 Y6.043 Z0 F1200
G1 X138.858 Y5.774 Z0 F1200
G1 X138.536 Y5.525 Z0 F1200
G1 X138.18 Y5.299 Z0 F1200
G1 X137.796 Y5.098 Z0 F1200
G1 X137.383 Y4.922 Z0 F1200
G1 X136.946 Y4.775 Z0 F1200
G1 X136.487 Y4.657 Z0 F1200
G1 X136.008 Y4.571 Z0 F1200
G1 X135.511 Y4.518 Z0 F1200
G1 X135 Y4.5 Z0 F1200
G1 X134.489 Y4.518 Z0 F1200
G1 X133.992 Y4.571 Z0 F1200
G1 X133.513 Y4.657 Z0 F1200
G1 X133.054 Y4.775 Z0 F1200
G1 X132.617 Y4.922 Z0 F1200
G1 X132.204 Y5.098 Z0 F1200
G1 X131.82 Y5.299 Z0 F1200
G1 X131.464 Y5.525 Z0 F1200
G1 X131.142 Y5.774 Z0 F1200
G1 X130.854 Y6.043 Z0 F1200
G1 X130.603 Y6.332 Z0 F1200
G1 X130.393 Y6.638 Z0 F1200
G1 X130.225 Y6.959 Z0 F1200
G1 Z7 F800;         ; Raise from color
G1 X124 Y8 Z1 F1200;     ; Movement in paint
G1 X114 Y18 Z8 F500;     ; Move in paint
G1 F1200;           ; Set feed rate
G0 X89.286 Y90.899 F1200 ; Return
G1 Z0 F1000 ; Restore Z
G1 X89.696 Y91.08 Z0 F1600
G1 X90.038 Y91.215 Z0 F1600
G1 X90.32 Y91.306 Z0 F1600
G1 X90.547 Y91.354 Z0 F1600
G1 X90.728 Y91.359 Z0 F1600
G1 X90.869 Y91.322 Z0 F1600
; --- FIX Y Backlash ---
G0 X90.869 Y90.022 F1200
G1 X90.978 Y89.944 Z0 F1600
G1 X91.062 Y89.826 Z0 F1600
G1 X91.096 Y89.771 Z0 F1600
G1 X91.163 Y89.671 Z0 F1600
G1 X91.382 Y89.354 Z0 F1600
G1 X91.697 Y88.908 Z0 F1600
G1 X92.081 Y88.367 Z0 F1600
G1 X92.964 Y87.138 Z0 F1600
G1 X93.835 Y85.94 Z0 F1600
G1 X94.036 Y85.654 Z0 F1600
G1 X94.201 Y85.396 Z0 F1600
G1 X94.264 Y85.286 Z0 F1600
G1 X94.312 Y85.194 Z0 F1600
G1 X94.342 Y85.123 Z0 F1600
G1 X94.353 Y85.077 Z0 F1600
G1 X94.311 Y84.971 Z0 F1600
; --- FIX X Backlash ---
G0 X93.011 Y84.971 F1200
G1 X92.898 Y84.801 Z0 F1600
G1 X92.73 Y84.589 Z0 F1600
G1 X92.525 Y84.36 Z0 F1600
G1 X91.279 Y83.042 Z0 F1600
G1 X90.73 Y82.454 Z0 F1600
G1 X90.526 Y82.231 Z0 F1600
G1 X90.365 Y82.049 Z0 F1600
G1 X90.24 Y81.902 Z0 F1600
G1 X90.149 Y81.785 Z0 F1600
G1 X90.087 Y81.693 Z0 F1600
G1 X90.049 Y81.62 Z0 F1600
G1 X90.031 Y81.562 Z0 F1600
G1 X90.039 Y81.466 Z0 F1600
; --- FIX X Backlash ---
G0 X91.339 Y81.466 F1200
G1 X91.435 Y81.2 Z0 F1600
G1 X91.53 Y80.96 Z0 F1600
G1 X91.647 Y80.673 Z0 F1600
G1 X92.068 Y79.668 Z0 F1600
G1 X92.454 Y78.709 Z0 F1600
G1 X92.559 Y78.471 Z0 F1600
G1 X92.646 Y78.291 Z0 F1600
G1 X92.705 Y78.195 Z0 F1600
G1 X92.758 Y78.167 Z0 F1600
G1 X92.864 Y78.142 Z0 F1600
G1 X93.032 Y78.119 Z0 F1600
G1 X93.265 Y78.099 Z0 F1600
G1 X93.571 Y78.081 Z0 F1600
G1 X93.956 Y78.064 Z0 F1600
G1 X94.425 Y78.049 Z0 F1600
G1 X95.626 Y78.017 Z0 F1600
G1 X96.133 Y78.001 Z0 F1600
G1 X96.523 Y77.985 Z0 F1600
G1 X96.814 Y77.965 Z0 F1600
G1 X97.021 Y77.942 Z0 F1600
G1 X97.162 Y77.914 Z0 F1600
G1 X97.253 Y77.88 Z0 F1600
G1 X97.311 Y77.837 Z0 F1600
G1 X97.38 Y77.721 Z0 F1600
G1 X97.455 Y77.515 Z0 F1600
G1 X97.529 Y77.235 Z0 F1600
G1 X97.597 Y76.901 Z0 F1600
G1 X97.712 Y76.265 Z0 F1600
G1 X97.851 Y75.517 Z0 F1600
G1 X98.034 Y74.555 Z0 F1600
G1 X98.279 Y73.276 Z0 F1600
G1 X98.36 Y72.821 Z0 F1600
G1 X98.418 Y72.428 Z0 F1600
G1 X98.437 Y72.268 Z0 F1600
G1 X98.449 Y72.138 Z0 F1600
G1 X98.452 Y72.046 Z0 F1600
G1 X98.445 Y71.995 Z0 F1600
G1 X98.396 Y71.899 Z0 F1600
; --- FIX X Backlash ---
G0 X97.096 Y71.899 F1200
G1 X96.951 Y71.809 Z0 F1600
G1 X96.8 Y71.748 Z0 F1600
G1 X96.576 Y71.665 Z0 F1600
G1 X95.269 Y71.206 Z0 F1600
G1 X94.722 Y71.01 Z0 F1600
G1 X94.214 Y70.824 Z0 F1600
G1 X93.758 Y70.654 Z0 F1600
G1 X93.371 Y70.506 Z0 F1600
G1 X93.068 Y70.385 Z0 F1600
G1 X92.953 Y70.337 Z0 F1600
G1 X92.864 Y70.297 Z0 F1600
G1 X92.804 Y70.268 Z0 F1600
G1 X92.775 Y70.249 Z0 F1600
G1 X92.76 Y70.204 Z0 F1600
G1 X92.743 Y70.101 Z0 F1600
G1 X92.724 Y69.946 Z0 F1600
G1 X92.704 Y69.746 Z0 F1600
G1 X92.684 Y69.507 Z0 F1600
G1 X92.664 Y69.237 Z0 F1600
G1 X92.646 Y68.942 Z0 F1600
G1 X92.594 Y68.001 Z0 F1600
G1 X92.562 Y67.441 Z0 F1600
G1 X92.534 Y67.01 Z0 F1600
G1 X92.515 Y66.77 Z0 F1600
G1 X92.505 Y66.595 Z0 F1600
G1 X92.547 Y66.478 Z0 F1600
; --- FIX X Backlash ---
G0 X93.847 Y66.478 F1200
G1 X93.897 Y66.427 Z0 F1600
G1 X93.972 Y66.376 Z0 F1600
G1 X94.077 Y66.317 Z0 F1600
G1 X94.215 Y66.245 Z0 F1600
G1 X95.299 Y65.674 Z0 F1600
G1 X96.404 Y65.063 Z0 F1600
G1 X96.885 Y64.787 Z0 F1600
G1 X97.276 Y64.555 Z0 F1600
G1 X97.429 Y64.461 Z0 F1600
G1 X97.547 Y64.384 Z0 F1600
G1 X97.627 Y64.327 Z0 F1600
G1 X97.666 Y64.293 Z0 F1600
G1 X97.701 Y64.22 Z0 F1600
G1 X97.721 Y64.126 Z0 F1600
G1 X97.724 Y64.008 Z0 F1600
G1 X97.71 Y63.864 Z0 F1600
G1 X97.679 Y63.69 Z0 F1600
G1 X97.631 Y63.485 Z0 F1600
; --- FIX X Backlash ---
G0 X96.331 Y63.485 F1200
G1 X96.264 Y63.245 Z0 F1600
G1 X96.18 Y62.967 Z0 F1600
G1 X96.039 Y62.52 Z0 F1600
G1 X95.381 Y60.404 Z0 F1600
G1 X95.257 Y60.009 Z0 F1600
G1 X95.141 Y59.654 Z0 F1600
G1 X95.035 Y59.341 Z0 F1600
G1 X94.939 Y59.075 Z0 F1600
G1 X94.855 Y58.857 Z0 F1600
G1 X94.784 Y58.691 Z0 F1600
G1 X94.727 Y58.578 Z0 F1600
G1 X94.684 Y58.523 Z0 F1600
G1 X94.627 Y58.485 Z0 F1600
G1 X94.557 Y58.459 Z0 F1600
G1 X94.441 Y58.448 Z0 F1600
G1 X94.247 Y58.454 Z0 F1600
G1 X94.112 Y58.463 Z0 F1600
G1 X93.742 Y58.497 Z0 F1600
; --- FIX Y Backlash ---
G0 X93.742 Y59.797 F1200
G1 X93.215 Y59.853 Z0 F1600
G1 X91.068 Y60.09 Z0 F1600
G1 X90.828 Y60.113 Z0 F1600
G1 X90.627 Y60.128 Z0 F1600
G1 X90.459 Y60.133 Z0 F1600
G1 X90.321 Y60.127 Z0 F1600
G1 X90.208 Y60.111 Z0 F1600
; --- FIX Y Backlash ---
G0 X90.208 Y58.811 F1200
G1 X90.039 Y58.739 Z0 F1600
G1 X89.917 Y58.609 Z0 F1600
G1 X89.807 Y58.413 Z0 F1600
G1 X89.673 Y58.144 Z0 F1600
G1 X89.276 Y57.414 Z0 F1600
G1 X88.821 Y56.636 Z0 F1600
G1 X88.628 Y56.314 Z0 F1600
G1 X88.47 Y56.037 Z0 F1600
G1 X88.409 Y55.925 Z0 F1600
G1 X88.363 Y55.835 Z0 F1600
G1 X88.334 Y55.77 Z0 F1600
G1 X88.324 Y55.736 Z0 F1600
G1 X88.349 Y55.68 Z0 F1600
; --- FIX X Backlash ---
G0 X89.649 Y55.68 F1200
G1 X89.721 Y55.556 Z0 F1600
G1 X89.834 Y55.371 Z0 F1600
G1 X89.984 Y55.132 Z0 F1600
G1 X90.165 Y54.849 Z0 F1600
G1 X90.373 Y54.528 Z0 F1600
G1 X91.102 Y53.421 Z0 F1600
G1 X91.335 Y53.06 Z0 F1600
G1 X91.543 Y52.729 Z0 F1600
G1 X91.723 Y52.435 Z0 F1600
G1 X91.87 Y52.186 Z0 F1600
G1 X91.98 Y51.987 Z0 F1600
G1 X92.049 Y51.846 Z0 F1600
G1 X92.073 Y51.769 Z0 F1600
G1 X92.057 Y51.705 Z0 F1600
G1 X92.008 Y51.613 Z0 F1600
; --- FIX X Backlash ---
G0 X90.708 Y51.613 F1200
G1 X90.626 Y51.494 Z0 F1600
G1 X90.508 Y51.344 Z0 F1600
G1 X90.353 Y51.163 Z0 F1600
G1 X90.161 Y50.949 Z0 F1600
G1 X89.929 Y50.7 Z0 F1600
G1 X89.656 Y50.414 Z0 F1600
G1 X88.904 Y49.636 Z0 F1600
G1 X88.279 Y48.994 Z0 F1600
G1 X87.771 Y48.478 Z0 F1600
G1 X87.369 Y48.079 Z0 F1600
G1 X87.205 Y47.919 Z0 F1600
G1 X87.064 Y47.785 Z0 F1600
G1 X86.945 Y47.675 Z0 F1600
G1 X86.845 Y47.587 Z0 F1600
G1 X86.765 Y47.521 Z0 F1600
G1 X86.703 Y47.476 Z0 F1600
G1 X86.657 Y47.45 Z0 F1600
G1 X86.627 Y47.441 Z0 F1600
G1 X86.562 Y47.467 Z0 F1600
; --- FIX Y Backlash ---
G0 X86.562 Y48.767 F1200
G1 X86.427 Y48.842 Z0 F1600
G1 X86.229 Y48.959 Z0 F1600
G1 X85.976 Y49.115 Z0 F1600
G1 X85.678 Y49.304 Z0 F1600
G1 X85.342 Y49.521 Z0 F1600
G1 X84.977 Y49.76 Z0 F1600
G1 X84.59 Y50.016 Z0 F1600
G1 X82.68 Y51.29 Z0 F1600
; --- FIX Y Backlash ---
G0 X82.68 Y49.99 F1200
G1 X81.557 Y49.14 Z0 F1600
G0 Z3.5 F1000
; --- FIX Y Backlash ---
G0 X81.557 Y50.44 F1200
G0 X53.78 Y54.203 Z3.5
G1 Z0 F1000
; --- FIX Y Backlash ---
G0 X53.78 Y52.903 F1200
G1 X53.758 Y52.852 Z0 F1600
G1 X53.679 Y52.688 Z0 F1600
G1 X53.561 Y52.461 Z0 F1600
G1 X53.33 Y52.038 Z0 F1600
G1 X53.106 Y51.621 Z0 F1600
G1 X52.701 Y50.86 Z0 F1600
G1 X51.993 Y49.508 Z0 F1600
G1 X51.852 Y49.245 Z0 F1600
G1 X51.793 Y49.139 Z0 F1600
G1 X51.747 Y49.156 Z0 F1600
; --- FIX Y Backlash ---
G0 X51.747 Y50.456 F1200
G1 X51.642 Y50.526 Z0 F1600
G1 X51.495 Y50.639 Z0 F1600
G1 X51.138 Y50.934 Z0 F1600
G1 X50.974 Y51.067 Z0 F1600
G1 X50.844 Y51.168 Z0 F1600
G1 X50.768 Y51.223 Z0 F1600
G1 X50.726 Y51.218 Z0 F1600
G1 X50.641 Y51.182 Z0 F1600
; --- FIX Y Backlash ---
G0 X50.641 Y49.882 F1200
G1 X50.518 Y49.82 Z0 F1600
G1 X50.361 Y49.733 Z0 F1600
G1 X50.175 Y49.625 Z0 F1600
G1 X49.965 Y49.499 Z0 F1600
G1 X49.734 Y49.356 Z0 F1600
G1 X49.487 Y49.201 Z0 F1600
G1 X48.966 Y48.865 Z0 F1600
G1 X48.438 Y48.512 Z0 F1600
G1 X47.939 Y48.167 Z0 F1600
G1 X47.298 Y47.702 Z0 F1600
G1 X47.124 Y47.595 Z0 F1600
G1 X46.975 Y47.528 Z0 F1600
G1 X46.842 Y47.503 Z0 F1600
G1 X46.715 Y47.519 Z0 F1600
; --- FIX Y Backlash ---
G0 X46.715 Y48.819 F1200
G1 X46.587 Y48.876 Z0 F1600
G1 X46.448 Y48.973 Z0 F1600
G1 X46.291 Y49.109 Z0 F1600
G1 X46.18 Y49.215 Z0 F1600
G1 X46.01 Y49.383 Z0 F1600
G1 X45.528 Y49.871 Z0 F1600
G1 X44.912 Y50.503 Z0 F1600
G1 X44.228 Y51.211 Z0 F1600
G1 X43.745 Y51.716 Z0 F1600
G1 X43.362 Y52.121 Z0 F1600
G1 X43.071 Y52.438 Z0 F1600
G1 X42.956 Y52.567 Z0 F1600
G1 X42.86 Y52.68 Z0 F1600
G1 X42.718 Y52.859 Z0 F1600
G1 X42.635 Y52.989 Z0 F1600
G1 X42.601 Y53.081 Z0 F1600
G1 X42.604 Y53.149 Z0 F1600
G1 X42.628 Y53.204 Z0 F1600
G1 X42.673 Y53.29 Z0 F1600
; --- FIX X Backlash ---
G0 X43.973 Y53.29 F1200
G1 X44.037 Y53.403 Z0 F1600
G1 X44.116 Y53.539 Z0 F1600
G1 X44.314 Y53.859 Z0 F1600
G1 X44.543 Y54.216 Z0 F1600
G1 X44.769 Y54.56 Z0 F1600
G1 X45.024 Y54.958 Z0 F1600
G1 X45.112 Y55.1 Z0 F1600
G1 X45.136 Y55.148 Z0 F1600
G1 X45.232 Y55.297 Z0 F1600
G1 X45.509 Y55.716 Z0 F1600
G1 X46.385 Y57.008 Z0 F1600
; --- FIX X Backlash ---
G0 X45.085 Y57.008 F1200
G1 X44.729 Y57.553 Z0 F1600
G1 X44.646 Y57.683 Z0 F1600
G1 X44.547 Y57.845 Z0 F1600
G1 X44.436 Y58.031 Z0 F1600
G1 X44.316 Y58.237 Z0 F1600
G1 X44.065 Y58.678 Z0 F1600
G1 X43.678 Y59.385 Z0 F1600
G1 X43.553 Y59.605 Z0 F1600
G1 X43.446 Y59.783 Z0 F1600
G1 X43.356 Y59.92 Z0 F1600
G1 X43.279 Y60.021 Z0 F1600
G1 X43.213 Y60.089 Z0 F1600
G1 X43.156 Y60.127 Z0 F1600
G1 X43.106 Y60.139 Z0 F1600
G1 X43.03 Y60.135 Z0 F1600
G1 X42.659 Y60.104 Z0 F1600
; --- FIX Y Backlash ---
G0 X42.659 Y58.804 F1200
G1 X42.058 Y58.747 Z0 F1600
G1 X40.435 Y58.585 Z0 F1600
G1 X40.029 Y58.548 Z0 F1600
G1 X39.666 Y58.518 Z0 F1600
G1 X39.354 Y58.496 Z0 F1600
G1 X39.095 Y58.482 Z0 F1600
G1 X38.897 Y58.476 Z0 F1600
G1 X38.762 Y58.479 Z0 F1600
G1 X38.696 Y58.492 Z0 F1600
; --- FIX Y Backlash ---
G0 X38.696 Y59.792 F1200
G1 X38.642 Y59.849 Z0 F1600
G1 X38.574 Y59.973 Z0 F1600
G1 X38.49 Y60.169 Z0 F1600

; Color picking sequence
G1 Z10 F1000;         ; Raise brush
G0 X131 Y5 F1200;    ; Rapid move to color 1
G1 Z10 F1000;         ; Raise brush
G0 X131 Y5 F1200;    ; Rapid move to color 1
G1 Z0 F1000;         ; Lower into color
G1 X130.102 Y7.295 Z0 S800 F1200
G1 X130.026 Y7.642 Z0 F1200
G1 X130 Y8 Z0 F1200
G1 X130.026 Y8.358 Z0 F1200
G1 X130.102 Y8.705 Z0 F1200
G1 X130.225 Y9.041 Z0 F1200
G1 X130.393 Y9.362 Z0 F1200
G1 X130.603 Y9.668 Z0 F1200
G1 X130.854 Y9.957 Z0 F1200
G1 X131.142 Y10.226 Z0 F1200
G1 X131.464 Y10.475 Z0 F1200
G1 X131.82 Y10.701 Z0 F1200
G1 X132.204 Y10.902 Z0 F1200
G1 X132.617 Y11.078 Z0 F1200
G1 X133.054 Y11.225 Z0 F1200
G1 X133.513 Y11.343 Z0 F1200
G1 X133.992 Y11.429 Z0 F1200
G1 X134.489 Y11.482 Z0 F1200
G1 X135 Y11.5 Z0 F1200
G1 X135.511 Y11.482 Z0 F1200
G1 X136.008 Y11.429 Z0 F1200
G1 X136.487 Y11.343 Z0 F1200
G1 X136.946 Y11.225 Z0 F1200
G1 X137.383 Y11.078 Z0 F1200
G1 X137.796 Y10.902 Z0 F1200
G1 X138.18 Y10.701 Z0 F1200
G1 X138.536 Y10.475 Z0 F1200
G1 X138.858 Y10.226 Z0 F1200
G1 X139.146 Y9.957 Z0 F1200
G1 X139.397 Y9.668 Z0 F1200
G1 X139.607 Y9.362 Z0 F1200
G1 X139.775 Y9.041 Z0 F1200
G1 X139.898 Y8.705 Z0 F1200
G1 X139.974 Y8.358 Z0 F1200
G1 X140 Y8 Z0 F1200
G1 X139.974 Y7.642 Z0 F1200
G1 X139.898 Y7.295 Z0 F1200
G1 X139.775 Y6.959 Z0 F1200
G1 X139.607 Y6.638 Z0 F1200
G1 X139.397 Y6.332 Z0 F1200
G1 X139.146 Y6.043 Z0 F1200
G1 X138.858 Y5.774 Z0 F1200
G1 X138.536 Y5.525 Z0 F1200
G1 X138.18 Y5.299 Z0 F1200
G1 X137.796 Y5.098 Z0 F1200
G1 X137.383 Y4.922 Z0 F1200
G1 X136.946 Y4.775 Z0 F1200
G1 X136.487 Y4.657 Z0 F1200
G1 X136.008 Y4.571 Z0 F1200
G1 X135.511 Y4.518 Z0 F1200
G1 X135 Y4.5 Z0 F1200
G1 X134.489 Y4.518 Z0 F1200
G1 X133.992 Y4.571 Z0 F1200
G1 X133.513 Y4.657 Z0 F1200
G1 X133.054 Y4.775 Z0 F1200
G1 X132.617 Y4.922 Z0 F1200
G1 X132.204 Y5.098 Z0 F1200
G1 X131.82 Y5.299 Z0 F1200
G1 X131.464 Y5.525 Z0 F1200
G1 X131.142 Y5.774 Z0 F1200
G1 X130.854 Y6.043 Z0 F1200
G1 X130.603 Y6.332 Z0 F1200
G1 X130.393 Y6.638 Z0 F1200
G1 X130.225 Y6.959 Z0 F1200
G1 Z7 F800;         ; Raise from color
G1 X124 Y8 Z1 F1200;     ; Movement in paint
G1 X114 Y18 Z8 F500;     ; Move in paint
G1 F1200;           ; Set feed rate
G0 X38.49 Y60.169 F1200 ; Return
G1 Z0 F1000 ; Restore Z
G1 X38.388 Y60.443 Z0 F1600
G1 X38.265 Y60.804 Z0 F1600
G1 X38.119 Y61.256 Z0 F1600
G1 X38.037 Y61.519 Z0 F1600
G1 X37.853 Y62.121 Z0 F1600
G1 X37.63 Y62.86 Z0 F1600
G1 X37.4 Y63.602 Z0 F1600
G1 X37.218 Y64.168 Z0 F1600
G1 X37.131 Y64.457 Z0 F1600
G1 X37.057 Y64.719 Z0 F1600
G1 X36.998 Y64.95 Z0 F1600
G1 X36.955 Y65.147 Z0 F1600
G1 X36.928 Y65.306 Z0 F1600
G1 X36.918 Y65.423 Z0 F1600
G1 X36.926 Y65.494 Z0 F1600
G1 X36.954 Y65.539 Z0 F1600
; --- FIX X Backlash ---
G0 X38.254 Y65.539 F1200
G1 X38.306 Y65.595 Z0 F1600
G1 X38.383 Y65.661 Z0 F1600
G1 X38.483 Y65.737 Z0 F1600
G1 X38.754 Y65.92 Z0 F1600
G1 X39.115 Y66.14 Z0 F1600
G1 X39.563 Y66.396 Z0 F1600
G1 X40.095 Y66.686 Z0 F1600
G1 X40.708 Y67.009 Z0 F1600
G1 X41.399 Y67.361 Z0 F1600
G1 X42.193 Y67.761 Z0 F1600
; --- FIX X Backlash ---
G0 X40.893 Y67.761 F1200
G1 X40.771 Y69.813 Z0 F1600
G1 X40.722 Y70.555 Z0 F1600
G1 X40.694 Y70.926 Z0 F1600
G1 X40.671 Y71.205 Z0 F1600
G1 X40.65 Y71.4 Z0 F1600
G1 X40.631 Y71.519 Z0 F1600
G1 X40.615 Y71.566 Z0 F1600
G1 X40.578 Y71.587 Z0 F1600
G1 X40.496 Y71.623 Z0 F1600
G1 X40.217 Y71.735 Z0 F1600
G1 X39.816 Y71.888 Z0 F1600
G1 X39.332 Y72.069 Z0 F1600
G1 X38.804 Y72.262 Z0 F1600
G1 X38.272 Y72.453 Z0 F1600
G1 X37.773 Y72.628 Z0 F1600
G1 X37.346 Y72.773 Z0 F1600
G1 X36.984 Y72.901 Z0 F1600
G1 X36.67 Y73.027 Z0 F1600
G1 X36.542 Y73.085 Z0 F1600
G1 X36.438 Y73.137 Z0 F1600
G1 X36.364 Y73.181 Z0 F1600
G1 X36.323 Y73.215 Z0 F1600
G1 X36.283 Y73.284 Z0 F1600
G1 X36.257 Y73.378 Z0 F1600
G1 X36.248 Y73.51 Z0 F1600
G1 X36.256 Y73.69 Z0 F1600
G1 X36.282 Y73.931 Z0 F1600
G1 X36.327 Y74.243 Z0 F1600
; --- FIX X Backlash ---
G0 X37.627 Y74.243 F1200
G1 X37.692 Y74.638 Z0 F1600
G1 X38.203 Y77.535 Z0 F1600
G1 X38.267 Y77.89 Z0 F1600
G1 X38.327 Y78.2 Z0 F1600
G1 X38.383 Y78.465 Z0 F1600
G1 X38.434 Y78.686 Z0 F1600
G1 X38.482 Y78.864 Z0 F1600
G1 X38.527 Y79.001 Z0 F1600
G1 X38.568 Y79.096 Z0 F1600
G1 X38.606 Y79.151 Z0 F1600
G1 X38.662 Y79.191 Z0 F1600
G1 X38.751 Y79.224 Z0 F1600
G1 X38.884 Y79.251 Z0 F1600
G1 X39.073 Y79.273 Z0 F1600
G1 X39.332 Y79.292 Z0 F1600
G1 X39.672 Y79.309 Z0 F1600
G1 X40.107 Y79.324 Z0 F1600
G1 X40.648 Y79.34 Z0 F1600
G1 X42.094 Y79.377 Z0 F1600
G1 X42.614 Y79.388 Z0 F1600
G1 X42.901 Y79.392 Z0 F1600
G1 X43.107 Y79.401 Z0 F1600
G1 X43.232 Y79.454 Z0 F1600
G1 X43.279 Y79.512 Z0 F1600
G1 X43.325 Y79.599 Z0 F1600
G1 X43.375 Y79.719 Z0 F1600
G1 X43.596 Y80.296 Z0 F1600
G1 X43.729 Y80.618 Z0 F1600
G1 X44.099 Y81.484 Z0 F1600
G1 X44.714 Y82.94 Z0 F1600
; --- FIX X Backlash ---
G0 X43.414 Y82.94 F1200
G1 X42.373 Y84.056 Z0 F1600
G1 X41.507 Y84.981 Z0 F1600
G1 X40.886 Y85.638 Z0 F1600
G1 X40.708 Y85.834 Z0 F1600
G1 X40.556 Y86.023 Z0 F1600
G1 X40.445 Y86.183 Z0 F1600
G1 X40.391 Y86.294 Z0 F1600
G1 X40.375 Y86.375 Z0 F1600
G1 X40.383 Y86.464 Z0 F1600
; --- FIX X Backlash ---
G0 X41.683 Y86.464 F1200
G1 X41.735 Y86.593 Z0 F1600
G1 X41.848 Y86.791 Z0 F1600
G1 X41.935 Y86.926 Z0 F1600
G1 X42.043 Y87.09 Z0 F1600
G1 X42.339 Y87.52 Z0 F1600
G1 X42.754 Y88.112 Z0 F1600
G1 X43.848 Y89.663 Z0 F1600
G1 X44.669 Y90.835 Z0 F1600
G1 X44.85 Y91.097 Z0 F1600
G1 X44.951 Y91.231 Z0 F1600
G1 X45.055 Y91.325 Z0 F1600
G1 X45.175 Y91.378 Z0 F1600
G1 X45.322 Y91.389 Z0 F1600
G1 X45.51 Y91.357 Z0 F1600
; --- FIX Y Backlash ---
G0 X45.51 Y90.057 F1200
G1 X45.749 Y89.982 Z0 F1600
G1 X46.053 Y89.864 Z0 F1600
G1 X46.432 Y89.7 Z0 F1600
G1 X46.883 Y89.5 Z0 F1600
G1 X47.379 Y89.276 Z0 F1600
G1 X47.935 Y89.023 Z0 F1600
G1 X49.518 Y88.296 Z0 F1600
; --- FIX Y Backlash ---
G0 X49.518 Y89.596 F1200
G1 X49.833 Y89.869 Z0 F1600
G1 X50.166 Y90.17 Z0 F1600
G1 X50.677 Y90.652 Z0 F1600
G1 X50.811 Y90.769 Z0 F1600
G1 X50.914 Y90.848 Z0 F1600
G1 X50.97 Y90.877 Z0 F1600
; --- FIX Y Backlash ---
G0 X50.97 Y89.577 F1200
G1 X51.044 Y89.509 Z0 F1600
G1 X51.126 Y89.345 Z0 F1600
G1 X51.246 Y89.057 Z0 F1600
G1 X51.411 Y88.691 Z0 F1600
G1 X51.875 Y87.685 Z0 F1600
G1 X52.348 Y86.643 Z0 F1600
G1 X52.739 Y85.766 Z0 F1600
G1 X52.836 Y85.537 Z0 F1600
G1 X52.885 Y85.359 Z0 F1600
G1 X52.882 Y85.208 Z0 F1600
; --- FIX X Backlash ---
G0 X51.582 Y85.208 F1200
G1 X51.52 Y85.058 Z0 F1600
G1 X51.396 Y84.885 Z0 F1600
G1 X51.308 Y84.781 Z0 F1600
G1 X50.935 Y84.364 Z0 F1600
G1 X50.345 Y83.682 Z0 F1600
G1 X49.791 Y82.997 Z0 F1600
G1 X49.271 Y82.307 Z0 F1600
G1 X48.786 Y81.611 Z0 F1600
G1 X48.334 Y80.908 Z0 F1600
G1 X47.916 Y80.196 Z0 F1600
G1 X47.53 Y79.475 Z0 F1600
G1 X47.176 Y78.742 Z0 F1600
G1 X46.854 Y77.998 Z0 F1600
G1 X46.562 Y77.239 Z0 F1600
G1 X46.3 Y76.466 Z0 F1600
G1 X46.068 Y75.676 Z0 F1600
G1 X45.864 Y74.869 Z0 F1600
G1 X45.689 Y74.042 Z0 F1600
G1 X45.542 Y73.196 Z0 F1600
G1 X45.422 Y72.328 Z0 F1600
G1 X45.396 Y72.07 Z0 F1600
G1 X45.376 Y71.773 Z0 F1600
G1 X45.361 Y71.444 Z0 F1600
G1 X45.352 Y71.087 Z0 F1600
G1 X45.348 Y70.312 Z0 F1600
G1 X45.364 Y69.491 Z0 F1600
G1 X45.397 Y68.667 Z0 F1600
; --- FIX X Backlash ---
G0 X46.697 Y68.667 F1200
G1 X46.748 Y67.884 Z0 F1600
G1 X46.779 Y67.521 Z0 F1600
G1 X46.813 Y67.183 Z0 F1600
G1 X46.852 Y66.878 Z0 F1600
G1 X46.893 Y66.609 Z0 F1600
G1 X47.157 Y65.303 Z0 F1600
G1 X47.484 Y64.049 Z0 F1600
G1 X47.877 Y62.839 Z0 F1600
G1 X48.338 Y61.669 Z0 F1600
G1 X48.872 Y60.532 Z0 F1600
G1 X49.479 Y59.421 Z0 F1600
G1 X50.163 Y58.331 Z0 F1600
G1 X50.927 Y57.255 Z0 F1600
G1 X51.079 Y57.06 Z0 F1600
G1 X51.262 Y56.837 Z0 F1600
G1 X51.472 Y56.591 Z0 F1600
G1 X51.704 Y56.326 Z0 F1600
G1 X52.219 Y55.757 Z0 F1600
G1 X52.773 Y55.167 Z0 F1600
G1 X53.331 Y54.592 Z0 F1600
G1 X53.859 Y54.067 Z0 F1600
G1 X54.101 Y53.835 Z0 F1600
G1 X54.322 Y53.629 Z0 F1600
G1 X54.519 Y53.454 Z0 F1600
G1 X54.842 Y53.184 Z0 F1600
G1 X54.97 Y53.069 Z0 F1600
G1 X55.056 Y52.98 Z0 F1600
G1 X55.088 Y52.93 Z0 F1600
G1 X55.08 Y52.903 Z0 F1600
G0 Z3.5 F1000
; --- FIX Y Backlash ---
G0 X55.08 Y54.203 F1200
G0 X58.902 Y90.539 Z3.5
G1 Z0 F1000
G1 X58.878 Y90.555 Z0 F1600
G1 X58.835 Y90.601 Z0 F1600
; --- FIX X Backlash ---
G0 X57.535 Y90.601 F1200
G1 X57.475 Y90.673 Z0 F1600
G1 X57.401 Y90.769 Z0 F1600
G1 X57.218 Y91.017 Z0 F1600
G1 X57.008 Y91.321 Z0 F1600
G1 X56.791 Y91.64 Z0 F1600
G1 X56.502 Y92.061 Z0 F1600
G1 X56.271 Y92.389 Z0 F1600
G1 X55.701 Y93.215 Z0 F1600
G1 X54.554 Y94.895 Z0 F1600
G1 X53.786 Y96.012 Z0 F1600
G1 X52.88 Y97.319 Z0 F1600

; Color picking sequence
G1 Z10 F1000;         ; Raise brush
G0 X131 Y5 F1200;    ; Rapid move to color 1
G1 Z10 F1000;         ; Raise brush
G0 X131 Y5 F1200;    ; Rapid move to color 1
G1 Z0 F1000;         ; Lower into color
G1 X130.102 Y7.295 Z0 S800 F1200
G1 X130.026 Y7.642 Z0 F1200
G1 X130 Y8 Z0 F1200
G1 X130.026 Y8.358 Z0 F1200
G1 X130.102 Y8.705 Z0 F1200
G1 X130.225 Y9.041 Z0 F1200
G1 X130.393 Y9.362 Z0 F1200
G1 X130.603 Y9.668 Z0 F1200
G1 X130.854 Y9.957 Z0 F1200
G1 X131.142 Y10.226 Z0 F1200
G1 X131.464 Y10.475 Z0 F1200
G1 X131.82 Y10.701 Z0 F1200
G1 X132.204 Y10.902 Z0 F1200
G1 X132.617 Y11.078 Z0 F1200
G1 X133.054 Y11.225 Z0 F1200
G1 X133.513 Y11.343 Z0 F1200
G1 X133.992 Y11.429 Z0 F1200
G1 X134.489 Y11.482 Z0 F1200
G1 X135 Y11.5 Z0 F1200
G1 X135.511 Y11.482 Z0 F1200
G1 X136.008 Y11.429 Z0 F1200
G1 X136.487 Y11.343 Z0 F1200
G1 X136.946 Y11.225 Z0 F1200
G1 X137.383 Y11.078 Z0 F1200
G1 X137.796 Y10.902 Z0 F1200
G1 X138.18 Y10.701 Z0 F1200
G1 X138.536 Y10.475 Z0 F1200
G1 X138.858 Y10.226 Z0 F1200
G1 X139.146 Y9.957 Z0 F1200
G1 X139.397 Y9.668 Z0 F1200
G1 X139.607 Y9.362 Z0 F1200
G1 X139.775 Y9.041 Z0 F1200
G1 X139.898 Y8.705 Z0 F1200
G1 X139.974 Y8.358 Z0 F1200
G1 X140 Y8 Z0 F1200
G1 X139.974 Y7.642 Z0 F1200
G1 X139.898 Y7.295 Z0 F1200
G1 X139.775 Y6.959 Z0 F1200
G1 X139.607 Y6.638 Z0 F1200
G1 X139.397 Y6.332 Z0 F1200
G1 X139.146 Y6.043 Z0 F1200
G1 X138.858 Y5.774 Z0 F1200
G1 X138.536 Y5.525 Z0 F1200
G1 X138.18 Y5.299 Z0 F1200
G1 X137.796 Y5.098 Z0 F1200
G1 X137.383 Y4.922 Z0 F1200
G1 X136.946 Y4.775 Z0 F1200
G1 X136.487 Y4.657 Z0 F1200
G1 X136.008 Y4.571 Z0 F1200
G1 X135.511 Y4.518 Z0 F1200
G1 X135 Y4.5 Z0 F1200
G1 X134.489 Y4.518 Z0 F1200
G1 X133.992 Y4.571 Z0 F1200
G1 X133.513 Y4.657 Z0 F1200
G1 X133.054 Y4.775 Z0 F1200
G1 X132.617 Y4.922 Z0 F1200
G1 X132.204 Y5.098 Z0 F1200
G1 X131.82 Y5.299 Z0 F1200
G1 X131.464 Y5.525 Z0 F1200
G1 X131.142 Y5.774 Z0 F1200
G1 X130.854 Y6.043 Z0 F1200
G1 X130.603 Y6.332 Z0 F1200
G1 X130.393 Y6.638 Z0 F1200
G1 X130.225 Y6.959 Z0 F1200
G1 Z7 F800;         ; Raise from color
G1 X124 Y8 Z1 F1200;     ; Movement in paint
G1 X114 Y18 Z8 F500;     ; Move in paint
G1 F1200;           ; Set feed rate
G0 X52.88 Y97.319 F1200 ; Return
G1 Z0 F1000 ; Restore Z
G1 X52.647 Y97.668 Z0 F1600
G1 X52.559 Y97.804 Z0 F1600
G1 X52.494 Y97.909 Z0 F1600
G1 X52.456 Y97.977 Z0 F1600
G1 X52.447 Y98.004 Z0 F1600
; --- FIX X Backlash ---
G0 X53.747 Y98.004 F1200
G1 X53.816 Y98.051 Z0 F1600
G1 X53.941 Y98.122 Z0 F1600
G1 X54.113 Y98.214 Z0 F1600
G1 X54.326 Y98.324 Z0 F1600
G1 X54.838 Y98.578 Z0 F1600
G1 X55.413 Y98.855 Z0 F1600
G1 X55.987 Y99.124 Z0 F1600
G1 X56.494 Y99.354 Z0 F1600
G1 X56.702 Y99.445 Z0 F1600
G1 X56.87 Y99.514 Z0 F1600
G1 X56.989 Y99.559 Z0 F1600
G1 X57.051 Y99.575 Z0 F1600
G1 X57.177 Y99.55 Z0 F1600
; --- FIX Y Backlash ---
G0 X57.177 Y98.25 F1200
G1 X57.31 Y98.165 Z0 F1600
G1 X57.385 Y98.095 Z0 F1600
G1 X57.469 Y98.003 Z0 F1600
G1 X57.565 Y97.888 Z0 F1600
G1 X58.061 Y97.25 Z0 F1600
G1 X58.806 Y96.325 Z0 F1600
G1 X59.413 Y95.545 Z0 F1600
G1 X59.58 Y95.334 Z0 F1600
G1 X59.711 Y95.172 Z0 F1600
G1 X59.902 Y94.953 Z0 F1600
G1 X60.021 Y94.796 Z0 F1600
G1 X60.094 Y94.707 Z0 F1600
G1 X60.164 Y94.667 Z0 F1600
G1 X60.254 Y94.67 Z0 F1600
; --- FIX Y Backlash ---
G0 X60.254 Y95.97 F1200
G1 X60.611 Y96.092 Z0 F1600
G1 X60.933 Y96.185 Z0 F1600
G1 X61.318 Y96.287 Z0 F1600
G1 X61.737 Y96.39 Z0 F1600
G1 X62.16 Y96.487 Z0 F1600
G1 X62.557 Y96.57 Z0 F1600
G1 X62.899 Y96.634 Z0 F1600
G1 X63.155 Y96.671 Z0 F1600
G1 X63.418 Y96.706 Z0 F1600
G1 X63.602 Y96.749 Z0 F1600
G1 X63.722 Y96.806 Z0 F1600
G1 X63.789 Y96.88 Z0 F1600
G1 X63.814 Y96.953 Z0 F1600
G1 X63.853 Y97.104 Z0 F1600
G1 X63.906 Y97.323 Z0 F1600
G1 X63.968 Y97.6 Z0 F1600
G1 X64.04 Y97.928 Z0 F1600
G1 X64.117 Y98.296 Z0 F1600
G1 X64.2 Y98.695 Z0 F1600
G1 X64.376 Y99.568 Z0 F1600
G1 X64.462 Y99.977 Z0 F1600
G1 X64.543 Y100.339 Z0 F1600
G1 X64.616 Y100.649 Z0 F1600
G1 X64.681 Y100.903 Z0 F1600
G1 X64.736 Y101.095 Z0 F1600
G1 X64.78 Y101.22 Z0 F1600
G1 X64.812 Y101.274 Z0 F1600
G1 X64.839 Y101.281 Z0 F1600
G1 X64.897 Y101.288 Z0 F1600
G1 X64.983 Y101.295 Z0 F1600
G1 X65.097 Y101.302 Z0 F1600
G1 X65.399 Y101.314 Z0 F1600
G1 X65.79 Y101.325 Z0 F1600
G1 X66.257 Y101.334 Z0 F1600
G1 X66.787 Y101.34 Z0 F1600
G1 X67.367 Y101.345 Z0 F1600
G1 X67.984 Z0 F1600
G1 X71.043 Y101.348 Z0 F1600
; --- FIX Y Backlash ---
G0 X71.043 Y100.048 F1200
G1 X71.167 Y99.858 Z0 F1600
G1 X71.226 Y99.724 Z0 F1600
G1 X71.296 Y99.501 Z0 F1600
G1 X71.368 Y99.218 Z0 F1600
G1 X71.433 Y98.908 Z0 F1600
G1 X71.728 Y97.383 Z0 F1600
G1 X72.113 Y95.45 Z0 F1600
G1 X72.868 Y95.345 Z0 F1600
G1 X73.042 Y95.318 Z0 F1600
G1 X73.247 Y95.281 Z0 F1600
G1 X73.476 Y95.237 Z0 F1600
G1 X73.722 Y95.186 Z0 F1600
G1 X74.232 Y95.072 Z0 F1600
G1 X74.716 Y94.953 Z0 F1600
G1 X75.811 Y94.665 Z0 F1600
; --- FIX Y Backlash ---
G0 X75.811 Y95.965 F1200
G1 X76.093 Y96.327 Z0 F1600
G1 X76.704 Y97.098 Z0 F1600
G1 X77.229 Y97.765 Z0 F1600
G1 X77.983 Y98.744 Z0 F1600
G1 X78.197 Y99.015 Z0 F1600
G1 X78.368 Y99.222 Z0 F1600
G1 X78.505 Y99.372 Z0 F1600
G1 X78.616 Y99.473 Z0 F1600
G1 X78.71 Y99.535 Z0 F1600
G1 X78.795 Y99.566 Z0 F1600
G1 X78.879 Y99.575 Z0 F1600
G1 X78.957 Y99.558 Z0 F1600
G1 X79.092 Y99.509 Z0 F1600
; --- FIX Y Backlash ---
G0 X79.092 Y98.209 F1200
G1 X79.276 Y98.134 Z0 F1600
G1 X79.5 Y98.036 Z0 F1600
G1 X80.035 Y97.788 Z0 F1600
G1 X80.628 Y97.501 Z0 F1600
G1 X81.209 Y97.207 Z0 F1600
G1 X81.71 Y96.943 Z0 F1600
G1 X81.908 Y96.832 Z0 F1600
G1 X82.061 Y96.741 Z0 F1600
G1 X82.159 Y96.674 Z0 F1600
G1 X82.193 Y96.636 Z0 F1600
G1 X82.159 Y96.541 Z0 F1600
; --- FIX X Backlash ---
G0 X80.859 Y96.541 F1200
G1 X80.777 Y96.424 Z0 F1600
G1 X80.74 Y96.376 Z0 F1600
G1 X80.586 Y96.167 Z0 F1600
G1 X80.212 Y95.645 Z0 F1600
G1 X79.59 Y94.761 Z0 F1600
G1 X79.151 Y94.13 Z0 F1600
G1 X78.923 Y93.798 Z0 F1600
G1 X78.575 Y93.284 Z0 F1600
G1 X77.942 Y92.373 Z0 F1600
G1 X77.487 Y91.709 Z0 F1600
G1 X76.894 Y90.838 Z0 F1600
G1 X76.169 Y89.767 Z0 F1600
G1 X76.024 Y89.562 Z0 F1600
G1 X75.893 Y89.395 Z0 F1600
G1 X75.789 Y89.281 Z0 F1600
G1 X75.728 Y89.239 Z0 F1600
G1 X75.649 Y89.26 Z0 F1600
; --- FIX Y Backlash ---
G0 X75.649 Y90.56 F1200
G1 X75.494 Y90.616 Z0 F1600
G1 X75.287 Y90.699 Z0 F1600
G1 X75.049 Y90.801 Z0 F1600
G1 X74.43 Y91.051 Z0 F1600
G1 X73.735 Y91.295 Z0 F1600
G1 X72.985 Y91.527 Z0 F1600
G1 X72.203 Y91.741 Z0 F1600
G1 X71.412 Y91.932 Z0 F1600
G1 X70.633 Y92.094 Z0 F1600
G1 X69.89 Y92.221 Z0 F1600
G1 X69.204 Y92.307 Z0 F1600
G1 X68.663 Y92.348 Z0 F1600
G1 X68.044 Y92.376 Z0 F1600
G1 X67.374 Y92.391 Z0 F1600
G1 X66.677 Z0 F1600
G1 X65.978 Y92.381 Z0 F1600
G1 X65.302 Y92.356 Z0 F1600
G1 X64.674 Y92.319 Z0 F1600
G1 X64.119 Y92.269 Z0 F1600
; --- FIX Y Backlash ---
G0 X64.119 Y90.969 F1200
G1 X63.332 Y90.867 Z0 F1600
G1 X62.533 Y90.735 Z0 F1600
G1 X61.734 Y90.574 Z0 F1600
G1 X60.947 Y90.388 Z0 F1600
G1 X60.183 Y90.181 Z0 F1600
G1 X59.455 Y89.954 Z0 F1600
G1 X58.775 Y89.712 Z0 F1600
G1 X58.155 Y89.456 Z0 F1600
G1 X57.96 Y89.372 Z0 F1600
G1 X57.791 Y89.303 Z0 F1600
G1 X57.666 Y89.257 Z0 F1600
G1 X57.602 Y89.239 Z0 F1600
M9
M5
G1 Z10 F1000
G1 Z10 F800


; Return to 2,0 wash and park
G1 Z10 F1000;        ; Raise brush
G0 X5 Y5 F1200;     ; Rapid move to clean
G1 Z-1 F800;         ; Lower brush
G1 X10 Y12 Z8 F1200;     ; Move
G1 Z-1 F800;         ; Lower
G1 X25 Y14 Z6 F800;     ; Move
G0 X5 Y5 F1200;     ; Rapid
G1 Z-1 F800;         ; Lower
G1 X15 Y12 Z8 F1200;     ; Move
G1 Z-1 F800;         ; Lower
G1 X25 Y14 Z6 F800;     ; Move
G1 Z10 F800;         ; Maintain
G0 X20 Y130 Z10 F500;; Move to park
M2;                 ; End program
