
G0 Z10 F500;      ; Move to clearance level
; G0 X-10 Y-10 F1200; Homing
; G0 X-5 Y-5 F1200; go in
; G10 P0 L20 X0 Y0; set to zero
G1 F1200;           ; Set feed rate
G90 ; Force absolute mode
;LightBurn 1.6.04
;Custom GCode device profile, absolute coords
;Bounds: X45.67 Y39.24 to X104.33 Y106.15
G00 G17 G40 G21 G54
M3
G1 Z10 F1000

; Color picking sequence
G1 Z10 F1000;         ; Raise brush
G0 X41 Y5 F1200;    ; Rapid move to color 1
G1 Z10 F1000;         ; Raise brush
G0 X41 Y5 F1200;    ; Rapid move to color 1
G1 Z0 F1000;         ; Lower into color
G1 X40.102 Y7.295 Z0 S800 F1200
G1 X40.026 Y7.642 Z0 F1200
G1 X40 Y8 Z0 F1200
G1 X40.026 Y8.358 Z0 F1200
G1 X40.102 Y8.705 Z0 F1200
G1 X40.225 Y9.041 Z0 F1200
G1 X40.393 Y9.362 Z0 F1200
G1 X40.603 Y9.668 Z0 F1200
G1 X40.854 Y9.957 Z0 F1200
G1 X41.142 Y10.226 Z0 F1200
G1 X41.464 Y10.475 Z0 F1200
G1 X41.82 Y10.701 Z0 F1200
G1 X42.204 Y10.902 Z0 F1200
G1 X42.617 Y11.078 Z0 F1200
G1 X43.054 Y11.225 Z0 F1200
G1 X43.513 Y11.343 Z0 F1200
G1 X43.992 Y11.429 Z0 F1200
G1 X44.489 Y11.482 Z0 F1200
G1 X45 Y11.5 Z0 F1200
G1 X45.511 Y11.482 Z0 F1200
G1 X46.008 Y11.429 Z0 F1200
G1 X46.487 Y11.343 Z0 F1200
G1 X46.946 Y11.225 Z0 F1200
G1 X47.383 Y11.078 Z0 F1200
G1 X47.796 Y10.902 Z0 F1200
G1 X48.18 Y10.701 Z0 F1200
G1 X48.536 Y10.475 Z0 F1200
G1 X48.858 Y10.226 Z0 F1200
G1 X49.146 Y9.957 Z0 F1200
G1 X49.397 Y9.668 Z0 F1200
G1 X49.607 Y9.362 Z0 F1200
G1 X49.775 Y9.041 Z0 F1200
G1 X49.898 Y8.705 Z0 F1200
G1 X49.974 Y8.358 Z0 F1200
G1 X50 Y8 Z0 F1200
G1 X49.974 Y7.642 Z0 F1200
G1 X49.898 Y7.295 Z0 F1200
G1 X49.775 Y6.959 Z0 F1200
G1 X49.607 Y6.638 Z0 F1200
G1 X49.397 Y6.332 Z0 F1200
G1 X49.146 Y6.043 Z0 F1200
G1 X48.858 Y5.774 Z0 F1200
G1 X48.536 Y5.525 Z0 F1200
G1 X48.18 Y5.299 Z0 F1200
G1 X47.796 Y5.098 Z0 F1200
G1 X47.383 Y4.922 Z0 F1200
G1 X46.946 Y4.775 Z0 F1200
G1 X46.487 Y4.657 Z0 F1200
G1 X46.008 Y4.571 Z0 F1200
G1 X45.511 Y4.518 Z0 F1200
G1 X45 Y4.5 Z0 F1200
G1 X44.489 Y4.518 Z0 F1200
G1 X43.992 Y4.571 Z0 F1200
G1 X43.513 Y4.657 Z0 F1200
G1 X43.054 Y4.775 Z0 F1200
G1 X42.617 Y4.922 Z0 F1200
G1 X42.204 Y5.098 Z0 F1200
G1 X41.82 Y5.299 Z0 F1200
G1 X41.464 Y5.525 Z0 F1200
G1 X41.142 Y5.774 Z0 F1200
G1 X40.854 Y6.043 Z0 F1200
G1 X40.603 Y6.332 Z0 F1200
G1 X40.393 Y6.638 Z0 F1200
G1 X40.225 Y6.959 Z0 F1200
G1 Z7 F800;         ; Raise from color
G1 X34 Y8 Z1 F1200;     ; Movement in paint
G1 X24 Y18 Z8 F500;     ; Move in paint
G1 F1200;           ; Set feed rate
G0 Z2.5 F1000 ; Safety Lift
;Scan @ 1500 mm/min, 90% power

M8
G0 Z3.5 F1000
G0 X63.584 Y53.048 Z3.5
G1 Z0 F1000
;Layer C1
G0 Z2.5 F800 ; Lift S=0
G1 X65.334 S0 F1500
G0 Z0 F800 ; Drop S>0
G1 X66.488 S900 F1500
G0 Z2.5 F800 ; Lift S=0
G1 X83.544 S0 F1500
G0 Z0 F800 ; Drop S>0
G1 X84.628 S900 F1500
G0 Z2.5 F800 ; Lift S=0
G1 X86.378 S0 F1500
G1 X87.57 Y53.948 Z2.5 F1500
; --- FIX X Backlash ---
G0 X86.27 Y53.948 F1200
G1 X84.52 Z2.5 F1500
G0 Z0 F800 ; Drop S>0
G1 X81.657 S900 F1500
G0 Z2.5 F800 ; Lift S=0
G1 X65.771 S0 F1500
G0 Z0 F800 ; Drop S>0
G1 X62.849 S900 F1500
G0 Z2.5 F800 ; Lift S=0
G1 X61.099 S0 F1500
G1 X59.165 Y54.848 Z2.5 F1500
; --- FIX X Backlash ---
G0 X60.465 Y54.848 F1200
G1 X62.215 Z2.5 F1500
G0 Z0 F800 ; Drop S>0
G1 X67.658 S900 F1500
G0 Z2.5 F800 ; Lift S=0
G1 X82.359 S0 F1500
G0 Z0 F800 ; Drop S>0
G1 X87.792 S900 F1500
G0 Z2.5 F800 ; Lift S=0
G1 X89.542 S0 F1500
G1 X89.764 Y55.748 Z2.5 F1500
; --- FIX X Backlash ---
G0 X88.464 Y55.748 F1200
G1 X86.714 Z2.5 F1500
G0 Z0 F800 ; Drop S>0
G1 X80.462 S900 F1500
G0 Z2.5 F800 ; Lift S=0
G1 X66.948 S0 F1500
G0 Z0 F800 ; Drop S>0
G1 X60.695 S900 F1500
G0 Z2.5 F800 ; Lift S=0
G1 X58.945 S0 F1500
; --- FIX X Backlash ---
G0 X60.245 Y55.748 F1200
G1 X60.756 Y56.648 Z2.5 F1500
G1 X62.506 Z2.5 F1500
G0 Z0 F800 ; Drop S>0
G1 X68.843 S900 F1500
G0 Z2.5 F800 ; Lift S=0
G1 X81.158 S0 F1500
G0 Z0 F800 ; Drop S>0
G1 X87.505 S900 F1500
G0 Z2.5 F800 ; Lift S=0
G1 X89.255 S0 F1500
; --- FIX X Backlash ---
G0 X87.955 Y56.648 F1200
G1 X87.444 Y57.548 Z2.5 F1500
G1 X85.694 Z2.5 F1500
G0 Z0 F800 ; Drop S>0
G1 X79.245 S900 F1500
G0 Z2.5 F800 ; Lift S=0
G1 X68.157 S0 F1500
G0 Z0 F800 ; Drop S>0
G1 X61.696 S900 F1500
G0 Z2.5 F800 ; Lift S=0
G1 X59.946 S0 F1500
; --- FIX X Backlash ---
G0 X61.246 Y57.548 F1200
G1 X61.752 Y58.448 Z2.5 F1500
G1 X63.502 Z2.5 F1500
G0 Z0 F800 ; Drop S>0
G1 X70.083 S900 F1500
G0 Z2.5 F800 ; Lift S=0
G1 X79.917 S0 F1500
G0 Z0 F800 ; Drop S>0
G1 X86.496 S900 F1500
G0 Z2.5 F800 ; Lift S=0
G1 X88.246 S0 F1500
; --- FIX X Backlash ---
G0 X86.946 Y58.448 F1200
G1 X86.464 Y59.348 Z2.5 F1500
G1 X84.714 Z2.5 F1500
G0 Z0 F800 ; Drop S>0
G1 X77.968 S900 F1500
G0 Z2.5 F800 ; Lift S=0
G1 X69.42 S0 F1500
G0 Z0 F800 ; Drop S>0
G1 X62.674 S900 F1500
G0 Z2.5 F800 ; Lift S=0
G1 X60.924 S0 F1500
; --- FIX X Backlash ---
G0 X62.224 Y59.348 F1200
G1 X62.7 Y60.248 Z2.5 F1500
G1 X64.45 Z2.5 F1500
G0 Z0 F800 ; Drop S>0
G1 X71.222 S900 F1500
G0 Z2.5 F800 ; Lift S=0
G1 X78.692 S0 F1500
G0 Z0 F800 ; Drop S>0
G1 X85.554 S900 F1500
G0 Z2.5 F800 ; Lift S=0
G1 X87.304 S0 F1500
; --- FIX X Backlash ---
G0 X86.004 Y60.248 F1200
G1 X85.553 Y61.148 Z2.5 F1500
G1 X83.803 Z2.5 F1500
G0 Z0 F800 ; Drop S>0
G1 X78.799 S900 F1500
G0 Z2.5 F800 ; Lift S=0

; Color picking sequence
G1 Z10 F1000;         ; Raise brush
G0 X41 Y5 F1200;    ; Rapid move to color 1
G1 Z10 F1000;         ; Raise brush
G0 X41 Y5 F1200;    ; Rapid move to color 1
G1 Z0 F1000;         ; Lower into color
G1 X40.102 Y7.295 Z0 S800 F1200
G1 X40.026 Y7.642 Z0 F1200
G1 X40 Y8 Z0 F1200
G1 X40.026 Y8.358 Z0 F1200
G1 X40.102 Y8.705 Z0 F1200
G1 X40.225 Y9.041 Z0 F1200
G1 X40.393 Y9.362 Z0 F1200
G1 X40.603 Y9.668 Z0 F1200
G1 X40.854 Y9.957 Z0 F1200
G1 X41.142 Y10.226 Z0 F1200
G1 X41.464 Y10.475 Z0 F1200
G1 X41.82 Y10.701 Z0 F1200
G1 X42.204 Y10.902 Z0 F1200
G1 X42.617 Y11.078 Z0 F1200
G1 X43.054 Y11.225 Z0 F1200
G1 X43.513 Y11.343 Z0 F1200
G1 X43.992 Y11.429 Z0 F1200
G1 X44.489 Y11.482 Z0 F1200
G1 X45 Y11.5 Z0 F1200
G1 X45.511 Y11.482 Z0 F1200
G1 X46.008 Y11.429 Z0 F1200
G1 X46.487 Y11.343 Z0 F1200
G1 X46.946 Y11.225 Z0 F1200
G1 X47.383 Y11.078 Z0 F1200
G1 X47.796 Y10.902 Z0 F1200
G1 X48.18 Y10.701 Z0 F1200
G1 X48.536 Y10.475 Z0 F1200
G1 X48.858 Y10.226 Z0 F1200
G1 X49.146 Y9.957 Z0 F1200
G1 X49.397 Y9.668 Z0 F1200
G1 X49.607 Y9.362 Z0 F1200
G1 X49.775 Y9.041 Z0 F1200
G1 X49.898 Y8.705 Z0 F1200
G1 X49.974 Y8.358 Z0 F1200
G1 X50 Y8 Z0 F1200
G1 X49.974 Y7.642 Z0 F1200
G1 X49.898 Y7.295 Z0 F1200
G1 X49.775 Y6.959 Z0 F1200
G1 X49.607 Y6.638 Z0 F1200
G1 X49.397 Y6.332 Z0 F1200
G1 X49.146 Y6.043 Z0 F1200
G1 X48.858 Y5.774 Z0 F1200
G1 X48.536 Y5.525 Z0 F1200
G1 X48.18 Y5.299 Z0 F1200
G1 X47.796 Y5.098 Z0 F1200
G1 X47.383 Y4.922 Z0 F1200
G1 X46.946 Y4.775 Z0 F1200
G1 X46.487 Y4.657 Z0 F1200
G1 X46.008 Y4.571 Z0 F1200
G1 X45.511 Y4.518 Z0 F1200
G1 X45 Y4.5 Z0 F1200
G1 X44.489 Y4.518 Z0 F1200
G1 X43.992 Y4.571 Z0 F1200
G1 X43.513 Y4.657 Z0 F1200
G1 X43.054 Y4.775 Z0 F1200
G1 X42.617 Y4.922 Z0 F1200
G1 X42.204 Y5.098 Z0 F1200
G1 X41.82 Y5.299 Z0 F1200
G1 X41.464 Y5.525 Z0 F1200
G1 X41.142 Y5.774 Z0 F1200
G1 X40.854 Y6.043 Z0 F1200
G1 X40.603 Y6.332 Z0 F1200
G1 X40.393 Y6.638 Z0 F1200
G1 X40.225 Y6.959 Z0 F1200
G1 Z7 F800;         ; Raise from color
G1 X34 Y8 Z1 F1200;     ; Movement in paint
G1 X24 Y18 Z8 F500;     ; Move in paint
G1 F1200;           ; Set feed rate
G0 Z2.5 F1000 ; Safety Lift
G0 X78.799 Y61.148 F1200 ; Return to pos
G1 X68.537 S0 F1500
G0 Z0 F800 ; Drop S>0
G1 X63.586 S900 F1500
G0 Z2.5 F800 ; Lift S=0
G1 X61.836 S0 F1500
; --- FIX X Backlash ---
G0 X63.136 Y61.148 F1200
G1 X63.567 Y62.048 Z2.5 F1500
G1 X65.317 Z2.5 F1500
G0 Z0 F800 ; Drop S>0
G1 X68.354 S900 F1500
G0 Z2.5 F800 ; Lift S=0
G1 X70.856 S0 F1500
G0 Z0 F800 ; Drop S>0
G1 X73.305 S900 F1500
G0 Z2.5 F800 ; Lift S=0
G1 X76.655 S0 F1500
G0 Z0 F800 ; Drop S>0
G1 X79.102 S900 F1500
G0 Z2.5 F800 ; Lift S=0
G1 X81.552 S0 F1500
G0 Z0 F800 ; Drop S>0
G1 X84.68 S900 F1500
G0 Z2.5 F800 ; Lift S=0
G1 X86.43 S0 F1500
; --- FIX X Backlash ---
G0 X85.13 Y62.048 F1200
G1 X84.703 Y62.948 Z2.5 F1500
G1 X82.953 Z2.5 F1500
G0 Z0 F800 ; Drop S>0
G1 X81.763 S900 F1500
G0 Z2.5 F800 ; Lift S=0
G1 X79.281 S0 F1500
G0 Z0 F800 ; Drop S>0
G1 X74.557 S900 F1500
G0 Z2.5 F800 ; Lift S=0
G1 X72.832 S0 F1500
G0 Z0 F800 ; Drop S>0
G1 X68.08 S900 F1500
G0 Z2.5 F800 ; Lift S=0
G1 X65.57 S0 F1500
G0 Z0 F800 ; Drop S>0
G1 X64.443 S900 F1500
G0 Z2.5 F800 ; Lift S=0
G1 X62.693 S0 F1500
; --- FIX X Backlash ---
G0 X63.993 Y62.948 F1200
G1 X66.135 Y63.848 Z2.5 F1500
G1 X67.885 Z2.5 F1500
G0 Z0 F800 ; Drop S>0
G1 X74.901 S900 F1500
G0 Z2.5 F800 ; Lift S=0
G1 X76.459 S0 F1500
G0 Z0 F800 ; Drop S>0
G1 X82.065 S900 F1500
G0 Z2.5 F800 ; Lift S=0
G1 X83.815 S0 F1500
G1 X85.213 Y64.748 Z2.5 F1500
; --- FIX X Backlash ---
G0 X83.913 Y64.748 F1200
G1 X82.163 Z2.5 F1500
G0 Z0 F800 ; Drop S>0
G1 X75.81 S900 F1500
G0 Z2.5 F800 ; Lift S=0
G1 X74.317 S0 F1500
G0 Z0 F800 ; Drop S>0
G1 X65.207 S900 F1500
G0 Z2.5 F800 ; Lift S=0
G1 X63.457 S0 F1500
; --- FIX X Backlash ---
G0 X64.757 Y64.748 F1200
G1 X64.976 Y65.648 Z2.5 F1500
G1 X66.726 Z2.5 F1500
G0 Z0 F800 ; Drop S>0
G1 X76.259 S900 F1500
G0 Z2.5 F800 ; Lift S=0
G1 X77.724 S0 F1500
G0 Z0 F800 ; Drop S>0
G1 X83.301 S900 F1500
G0 Z2.5 F800 ; Lift S=0
G1 X85.051 S0 F1500
; --- FIX X Backlash ---
G0 X83.751 Y65.648 F1200
G1 X83.452 Y66.548 Z2.5 F1500
G1 X81.702 Z2.5 F1500
G0 Z0 F800 ; Drop S>0
G1 X77.008 S900 F1500
G0 Z2.5 F800 ; Lift S=0
G1 X75.552 S0 F1500
G0 Z0 F800 ; Drop S>0
G1 X65.71 S900 F1500
G0 Z2.5 F800 ; Lift S=0
G1 X63.96 S0 F1500
; --- FIX X Backlash ---
G0 X65.26 Y66.548 F1200
G1 X65.564 Y67.448 Z2.5 F1500
G1 X67.314 Z2.5 F1500
G0 Z0 F800 ; Drop S>0
G1 X77.399 S900 F1500
G0 Z2.5 F800 ; Lift S=0
G1 X78.842 S0 F1500
G0 Z0 F800 ; Drop S>0
G1 X82.688 S900 F1500
G0 Z2.5 F800 ; Lift S=0
G1 X84.438 S0 F1500
; --- FIX X Backlash ---
G0 X83.138 Y67.448 F1200
G1 X82.799 Y68.348 Z2.5 F1500
G1 X81.049 Z2.5 F1500
G0 Z0 F800 ; Drop S>0
G1 X78.019 S900 F1500
G0 Z2.5 F800 ; Lift S=0

; Color picking sequence
G1 Z10 F1000;         ; Raise brush
G0 X41 Y5 F1200;    ; Rapid move to color 1
G1 Z10 F1000;         ; Raise brush
G0 X41 Y5 F1200;    ; Rapid move to color 1
G1 Z0 F1000;         ; Lower into color
G1 X40.102 Y7.295 Z0 S800 F1200
G1 X40.026 Y7.642 Z0 F1200
G1 X40 Y8 Z0 F1200
G1 X40.026 Y8.358 Z0 F1200
G1 X40.102 Y8.705 Z0 F1200
G1 X40.225 Y9.041 Z0 F1200
G1 X40.393 Y9.362 Z0 F1200
G1 X40.603 Y9.668 Z0 F1200
G1 X40.854 Y9.957 Z0 F1200
G1 X41.142 Y10.226 Z0 F1200
G1 X41.464 Y10.475 Z0 F1200
G1 X41.82 Y10.701 Z0 F1200
G1 X42.204 Y10.902 Z0 F1200
G1 X42.617 Y11.078 Z0 F1200
G1 X43.054 Y11.225 Z0 F1200
G1 X43.513 Y11.343 Z0 F1200
G1 X43.992 Y11.429 Z0 F1200
G1 X44.489 Y11.482 Z0 F1200
G1 X45 Y11.5 Z0 F1200
G1 X45.511 Y11.482 Z0 F1200
G1 X46.008 Y11.429 Z0 F1200
G1 X46.487 Y11.343 Z0 F1200
G1 X46.946 Y11.225 Z0 F1200
G1 X47.383 Y11.078 Z0 F1200
G1 X47.796 Y10.902 Z0 F1200
G1 X48.18 Y10.701 Z0 F1200
G1 X48.536 Y10.475 Z0 F1200
G1 X48.858 Y10.226 Z0 F1200
G1 X49.146 Y9.957 Z0 F1200
G1 X49.397 Y9.668 Z0 F1200
G1 X49.607 Y9.362 Z0 F1200
G1 X49.775 Y9.041 Z0 F1200
G1 X49.898 Y8.705 Z0 F1200
G1 X49.974 Y8.358 Z0 F1200
G1 X50 Y8 Z0 F1200
G1 X49.974 Y7.642 Z0 F1200
G1 X49.898 Y7.295 Z0 F1200
G1 X49.775 Y6.959 Z0 F1200
G1 X49.607 Y6.638 Z0 F1200
G1 X49.397 Y6.332 Z0 F1200
G1 X49.146 Y6.043 Z0 F1200
G1 X48.858 Y5.774 Z0 F1200
G1 X48.536 Y5.525 Z0 F1200
G1 X48.18 Y5.299 Z0 F1200
G1 X47.796 Y5.098 Z0 F1200
G1 X47.383 Y4.922 Z0 F1200
G1 X46.946 Y4.775 Z0 F1200
G1 X46.487 Y4.657 Z0 F1200
G1 X46.008 Y4.571 Z0 F1200
G1 X45.511 Y4.518 Z0 F1200
G1 X45 Y4.5 Z0 F1200
G1 X44.489 Y4.518 Z0 F1200
G1 X43.992 Y4.571 Z0 F1200
G1 X43.513 Y4.657 Z0 F1200
G1 X43.054 Y4.775 Z0 F1200
G1 X42.617 Y4.922 Z0 F1200
G1 X42.204 Y5.098 Z0 F1200
G1 X41.82 Y5.299 Z0 F1200
G1 X41.464 Y5.525 Z0 F1200
G1 X41.142 Y5.774 Z0 F1200
G1 X40.854 Y6.043 Z0 F1200
G1 X40.603 Y6.332 Z0 F1200
G1 X40.393 Y6.638 Z0 F1200
G1 X40.225 Y6.959 Z0 F1200
G1 Z7 F800;         ; Raise from color
G1 X34 Y8 Z1 F1200;     ; Movement in paint
G1 X24 Y18 Z8 F500;     ; Move in paint
G1 F1200;           ; Set feed rate
G0 Z2.5 F1000 ; Safety Lift
G0 X78.019 Y68.348 F1200 ; Return to pos
G1 X76.612 S0 F1500
G0 Z0 F800 ; Drop S>0
G1 X66.343 S900 F1500
G0 Z2.5 F800 ; Lift S=0
G1 X64.593 S0 F1500
; --- FIX X Backlash ---
G0 X65.893 Y68.348 F1200
G1 X66.265 Y69.248 Z2.5 F1500
G1 X68.015 Z2.5 F1500
G0 Z0 F800 ; Drop S>0
G1 X78.398 S900 F1500
G0 Z2.5 F800 ; Lift S=0
G1 X79.792 S0 F1500
G0 Z0 F800 ; Drop S>0
G1 X81.99 S900 F1500
G0 Z2.5 F800 ; Lift S=0
G1 X83.74 S0 F1500
; --- FIX X Backlash ---
G0 X82.44 Y69.248 F1200
G1 X82.073 Y70.148 Z2.5 F1500
G1 X80.323 Z2.5 F1500
G0 Z0 F800 ; Drop S>0
G1 X78.959 S900 F1500
G0 Z2.5 F800 ; Lift S=0
G1 X77.564 S0 F1500
G0 Z0 F800 ; Drop S>0
G1 X67.129 S900 F1500
G0 Z2.5 F800 ; Lift S=0
G1 X65.379 S0 F1500
; --- FIX X Backlash ---
G0 X66.679 Y70.148 F1200
G1 X67.139 Y71.048 Z2.5 F1500
G1 X68.889 Z2.5 F1500
G0 Z0 F800 ; Drop S>0
G1 X79.313 S900 F1500
G0 Z2.5 F800 ; Lift S=0
G1 X80.717 S0 F1500
G0 Z0 F800 ; Drop S>0
G1 X81.257 S900 F1500
G0 Z2.5 F800 ; Lift S=0
G1 X83.007 S0 F1500
; --- FIX X Backlash ---
G0 X81.707 Y71.048 F1200
G1 X80.196 Y71.948 Z2.5 F1500
G1 X78.446 Z2.5 F1500
G0 Z0 F800 ; Drop S>0
G1 X68.091 S900 F1500
G0 Z2.5 F800 ; Lift S=0
G1 X66.341 S0 F1500
; --- FIX X Backlash ---
G0 X67.641 Y71.948 F1200
G1 X68.183 Y72.848 Z2.5 F1500
G1 X69.933 Z2.5 F1500
G0 Z0 F800 ; Drop S>0
G1 X80.17 S900 F1500
G0 Z2.5 F800 ; Lift S=0
G1 X81.92 S0 F1500
G1 X82.336 Y73.748 Z2.5 F1500
; --- FIX X Backlash ---
G0 X81.036 Y73.748 F1200
G1 X79.286 Z2.5 F1500
G0 Z0 F800 ; Drop S>0
G1 X69.206 S900 F1500
G0 Z2.5 F800 ; Lift S=0
G1 X67.456 S0 F1500
G1 X65.986 Y74.648 Z2.5 F1500
; --- FIX X Backlash ---
G0 X67.286 Y74.648 F1200
G1 X69.036 Z2.5 F1500
G0 Z0 F800 ; Drop S>0
G1 X69.642 S900 F1500
G0 Z2.5 F800 ; Lift S=0
G1 X71.102 S0 F1500
G0 Z0 F800 ; Drop S>0
G1 X80.995 S900 F1500
G0 Z2.5 F800 ; Lift S=0
G1 X82.745 S0 F1500
G1 X83.147 Y75.548 Z2.5 F1500
; --- FIX X Backlash ---
G0 X81.847 Y75.548 F1200
G1 X80.097 Z2.5 F1500
G0 Z0 F800 ; Drop S>0
G1 X70.417 S900 F1500
G0 Z2.5 F800 ; Lift S=0
G1 X68.904 S0 F1500
G0 Z0 F800 ; Drop S>0
G1 X67.319 S900 F1500
G0 Z2.5 F800 ; Lift S=0
G1 X65.569 S0 F1500
G1 X65.165 Y76.448 Z2.5 F1500
; --- FIX X Backlash ---
G0 X66.465 Y76.448 F1200
G1 X68.215 Z2.5 F1500
G0 Z0 F800 ; Drop S>0
G1 X70.808 S900 F1500
G0 Z2.5 F800 ; Lift S=0

; Color picking sequence
G1 Z10 F1000;         ; Raise brush
G0 X41 Y5 F1200;    ; Rapid move to color 1
G1 Z10 F1000;         ; Raise brush
G0 X41 Y5 F1200;    ; Rapid move to color 1
G1 Z0 F1000;         ; Lower into color
G1 X40.102 Y7.295 Z0 S800 F1200
G1 X40.026 Y7.642 Z0 F1200
G1 X40 Y8 Z0 F1200
G1 X40.026 Y8.358 Z0 F1200
G1 X40.102 Y8.705 Z0 F1200
G1 X40.225 Y9.041 Z0 F1200
G1 X40.393 Y9.362 Z0 F1200
G1 X40.603 Y9.668 Z0 F1200
G1 X40.854 Y9.957 Z0 F1200
G1 X41.142 Y10.226 Z0 F1200
G1 X41.464 Y10.475 Z0 F1200
G1 X41.82 Y10.701 Z0 F1200
G1 X42.204 Y10.902 Z0 F1200
G1 X42.617 Y11.078 Z0 F1200
G1 X43.054 Y11.225 Z0 F1200
G1 X43.513 Y11.343 Z0 F1200
G1 X43.992 Y11.429 Z0 F1200
G1 X44.489 Y11.482 Z0 F1200
G1 X45 Y11.5 Z0 F1200
G1 X45.511 Y11.482 Z0 F1200
G1 X46.008 Y11.429 Z0 F1200
G1 X46.487 Y11.343 Z0 F1200
G1 X46.946 Y11.225 Z0 F1200
G1 X47.383 Y11.078 Z0 F1200
G1 X47.796 Y10.902 Z0 F1200
G1 X48.18 Y10.701 Z0 F1200
G1 X48.536 Y10.475 Z0 F1200
G1 X48.858 Y10.226 Z0 F1200
G1 X49.146 Y9.957 Z0 F1200
G1 X49.397 Y9.668 Z0 F1200
G1 X49.607 Y9.362 Z0 F1200
G1 X49.775 Y9.041 Z0 F1200
G1 X49.898 Y8.705 Z0 F1200
G1 X49.974 Y8.358 Z0 F1200
G1 X50 Y8 Z0 F1200
G1 X49.974 Y7.642 Z0 F1200
G1 X49.898 Y7.295 Z0 F1200
G1 X49.775 Y6.959 Z0 F1200
G1 X49.607 Y6.638 Z0 F1200
G1 X49.397 Y6.332 Z0 F1200
G1 X49.146 Y6.043 Z0 F1200
G1 X48.858 Y5.774 Z0 F1200
G1 X48.536 Y5.525 Z0 F1200
G1 X48.18 Y5.299 Z0 F1200
G1 X47.796 Y5.098 Z0 F1200
G1 X47.383 Y4.922 Z0 F1200
G1 X46.946 Y4.775 Z0 F1200
G1 X46.487 Y4.657 Z0 F1200
G1 X46.008 Y4.571 Z0 F1200
G1 X45.511 Y4.518 Z0 F1200
G1 X45 Y4.5 Z0 F1200
G1 X44.489 Y4.518 Z0 F1200
G1 X43.992 Y4.571 Z0 F1200
G1 X43.513 Y4.657 Z0 F1200
G1 X43.054 Y4.775 Z0 F1200
G1 X42.617 Y4.922 Z0 F1200
G1 X42.204 Y5.098 Z0 F1200
G1 X41.82 Y5.299 Z0 F1200
G1 X41.464 Y5.525 Z0 F1200
G1 X41.142 Y5.774 Z0 F1200
G1 X40.854 Y6.043 Z0 F1200
G1 X40.603 Y6.332 Z0 F1200
G1 X40.393 Y6.638 Z0 F1200
G1 X40.225 Y6.959 Z0 F1200
G1 Z7 F800;         ; Raise from color
G1 X34 Y8 Z1 F1200;     ; Movement in paint
G1 X24 Y18 Z8 F500;     ; Move in paint
G1 F1200;           ; Set feed rate
G0 Z2.5 F1000 ; Safety Lift
G0 X70.808 Y76.448 F1200 ; Return to pos
G1 X72.344 S0 F1500
G0 Z0 F800 ; Drop S>0
G1 X81.796 S900 F1500
G0 Z2.5 F800 ; Lift S=0
G1 X83.546 S0 F1500
G1 X83.945 Y77.348 Z2.5 F1500
; --- FIX X Backlash ---
G0 X82.645 Y77.348 F1200
G1 X80.895 Z2.5 F1500
G0 Z0 F800 ; Drop S>0
G1 X71.676 S900 F1500
G0 Z2.5 F800 ; Lift S=0
G1 X70.128 S0 F1500
G0 Z0 F800 ; Drop S>0
G1 X66.515 S900 F1500
G0 Z2.5 F800 ; Lift S=0
G1 X64.765 S0 F1500
G1 X64.364 Y78.248 Z2.5 F1500
; --- FIX X Backlash ---
G0 X65.664 Y78.248 F1200
G1 X67.414 Z2.5 F1500
G0 Z0 F800 ; Drop S>0
G1 X72.058 S900 F1500
G0 Z2.5 F800 ; Lift S=0
G1 X73.608 S0 F1500
G0 Z0 F800 ; Drop S>0
G1 X82.594 S900 F1500
G0 Z2.5 F800 ; Lift S=0
G1 X84.344 S0 F1500
G1 X84.743 Y79.148 Z2.5 F1500
; --- FIX X Backlash ---
G0 X83.443 Y79.148 F1200
G1 X81.693 Z2.5 F1500
G0 Z0 F800 ; Drop S>0
G1 X72.939 S900 F1500
G0 Z2.5 F800 ; Lift S=0
G1 X71.392 S0 F1500
G0 Z0 F800 ; Drop S>0
G1 X65.729 S900 F1500
G0 Z2.5 F800 ; Lift S=0
G1 X63.979 S0 F1500
G1 X63.581 Y80.048 Z2.5 F1500
; --- FIX X Backlash ---
G0 X64.881 Y80.048 F1200
G1 X66.631 Z2.5 F1500
G0 Z0 F800 ; Drop S>0
G1 X73.324 S900 F1500
G0 Z2.5 F800 ; Lift S=0
G1 X74.87 S0 F1500
G0 Z0 F800 ; Drop S>0
G1 X83.394 S900 F1500
G0 Z2.5 F800 ; Lift S=0
G1 X85.144 S0 F1500
G1 X85.539 Y80.948 Z2.5 F1500
; --- FIX X Backlash ---
G0 X84.239 Y80.948 F1200
G1 X82.489 Z2.5 F1500
G0 Z0 F800 ; Drop S>0
G1 X74.207 S900 F1500
G0 Z2.5 F800 ; Lift S=0
G1 X72.636 S0 F1500
G0 Z0 F800 ; Drop S>0
G1 X64.929 S900 F1500
G0 Z2.5 F800 ; Lift S=0
G1 X63.179 S0 F1500
G1 X62.783 Y81.848 Z2.5 F1500
; --- FIX X Backlash ---
G0 X64.083 Y81.848 F1200
G1 X65.833 Z2.5 F1500
G0 Z0 F800 ; Drop S>0
G1 X73.794 S900 F1500
G0 Z2.5 F800 ; Lift S=0
G1 X76.145 S0 F1500
G0 Z0 F800 ; Drop S>0
G1 X84.184 S900 F1500
G0 Z2.5 F800 ; Lift S=0
G1 X85.934 S0 F1500
G1 X86.328 Y82.748 Z2.5 F1500
; --- FIX X Backlash ---
G0 X85.028 Y82.748 F1200
G1 X83.278 Z2.5 F1500
G0 Z0 F800 ; Drop S>0
G1 X75.488 S900 F1500
G0 Z2.5 F800 ; Lift S=0

; Color picking sequence
G1 Z10 F1000;         ; Raise brush
G0 X41 Y5 F1200;    ; Rapid move to color 1
G1 Z10 F1000;         ; Raise brush
G0 X41 Y5 F1200;    ; Rapid move to color 1
G1 Z0 F1000;         ; Lower into color
G1 X40.102 Y7.295 Z0 S800 F1200
G1 X40.026 Y7.642 Z0 F1200
G1 X40 Y8 Z0 F1200
G1 X40.026 Y8.358 Z0 F1200
G1 X40.102 Y8.705 Z0 F1200
G1 X40.225 Y9.041 Z0 F1200
G1 X40.393 Y9.362 Z0 F1200
G1 X40.603 Y9.668 Z0 F1200
G1 X40.854 Y9.957 Z0 F1200
G1 X41.142 Y10.226 Z0 F1200
G1 X41.464 Y10.475 Z0 F1200
G1 X41.82 Y10.701 Z0 F1200
G1 X42.204 Y10.902 Z0 F1200
G1 X42.617 Y11.078 Z0 F1200
G1 X43.054 Y11.225 Z0 F1200
G1 X43.513 Y11.343 Z0 F1200
G1 X43.992 Y11.429 Z0 F1200
G1 X44.489 Y11.482 Z0 F1200
G1 X45 Y11.5 Z0 F1200
G1 X45.511 Y11.482 Z0 F1200
G1 X46.008 Y11.429 Z0 F1200
G1 X46.487 Y11.343 Z0 F1200
G1 X46.946 Y11.225 Z0 F1200
G1 X47.383 Y11.078 Z0 F1200
G1 X47.796 Y10.902 Z0 F1200
G1 X48.18 Y10.701 Z0 F1200
G1 X48.536 Y10.475 Z0 F1200
G1 X48.858 Y10.226 Z0 F1200
G1 X49.146 Y9.957 Z0 F1200
G1 X49.397 Y9.668 Z0 F1200
G1 X49.607 Y9.362 Z0 F1200
G1 X49.775 Y9.041 Z0 F1200
G1 X49.898 Y8.705 Z0 F1200
G1 X49.974 Y8.358 Z0 F1200
G1 X50 Y8 Z0 F1200
G1 X49.974 Y7.642 Z0 F1200
G1 X49.898 Y7.295 Z0 F1200
G1 X49.775 Y6.959 Z0 F1200
G1 X49.607 Y6.638 Z0 F1200
G1 X49.397 Y6.332 Z0 F1200
G1 X49.146 Y6.043 Z0 F1200
G1 X48.858 Y5.774 Z0 F1200
G1 X48.536 Y5.525 Z0 F1200
G1 X48.18 Y5.299 Z0 F1200
G1 X47.796 Y5.098 Z0 F1200
G1 X47.383 Y4.922 Z0 F1200
G1 X46.946 Y4.775 Z0 F1200
G1 X46.487 Y4.657 Z0 F1200
G1 X46.008 Y4.571 Z0 F1200
G1 X45.511 Y4.518 Z0 F1200
G1 X45 Y4.5 Z0 F1200
G1 X44.489 Y4.518 Z0 F1200
G1 X43.992 Y4.571 Z0 F1200
G1 X43.513 Y4.657 Z0 F1200
G1 X43.054 Y4.775 Z0 F1200
G1 X42.617 Y4.922 Z0 F1200
G1 X42.204 Y5.098 Z0 F1200
G1 X41.82 Y5.299 Z0 F1200
G1 X41.464 Y5.525 Z0 F1200
G1 X41.142 Y5.774 Z0 F1200
G1 X40.854 Y6.043 Z0 F1200
G1 X40.603 Y6.332 Z0 F1200
G1 X40.393 Y6.638 Z0 F1200
G1 X40.225 Y6.959 Z0 F1200
G1 Z7 F800;         ; Raise from color
G1 X34 Y8 Z1 F1200;     ; Movement in paint
G1 X24 Y18 Z8 F500;     ; Move in paint
G1 F1200;           ; Set feed rate
G0 Z2.5 F1000 ; Safety Lift
G0 X75.488 Y82.748 F1200 ; Return to pos
G1 X71.854 S0 F1500
G0 Z0 F800 ; Drop S>0
G1 X64.136 S900 F1500
G0 Z2.5 F800 ; Lift S=0
G1 X62.386 S0 F1500
G1 X61.989 Y83.648 Z2.5 F1500
; --- FIX X Backlash ---
G0 X63.289 Y83.648 F1200
G1 X65.039 Z2.5 F1500
G0 Z0 F800 ; Drop S>0
G1 X72.504 S900 F1500
G0 Z2.5 F800 ; Lift S=0
G1 X77.439 S0 F1500
G0 Z0 F800 ; Drop S>0
G1 X84.973 S900 F1500
G0 Z2.5 F800 ; Lift S=0
G1 X86.723 S0 F1500
G1 X87.118 Y84.548 Z2.5 F1500
; --- FIX X Backlash ---
G0 X85.818 Y84.548 F1200
G1 X84.068 Z2.5 F1500
G0 Z0 F800 ; Drop S>0
G1 X76.795 S900 F1500
G0 Z2.5 F800 ; Lift S=0
G1 X70.563 S0 F1500
G0 Z0 F800 ; Drop S>0
G1 X63.343 S900 F1500
G0 Z2.5 F800 ; Lift S=0
G1 X61.593 S0 F1500
G1 X61.194 Y85.448 Z2.5 F1500
; --- FIX X Backlash ---
G0 X62.494 Y85.448 F1200
G1 X64.244 Z2.5 F1500
G0 Z0 F800 ; Drop S>0
G1 X71.225 S900 F1500
G0 Z2.5 F800 ; Lift S=0
G1 X78.743 S0 F1500
G0 Z0 F800 ; Drop S>0
G1 X85.762 S900 F1500
G0 Z2.5 F800 ; Lift S=0
G1 X87.512 S0 F1500
G1 X87.907 Y86.348 Z2.5 F1500
; --- FIX X Backlash ---
G0 X86.607 Y86.348 F1200
G1 X84.857 Z2.5 F1500
G0 Z0 F800 ; Drop S>0
G1 X78.087 S900 F1500
G0 Z2.5 F800 ; Lift S=0
G1 X69.283 S0 F1500
G0 Z0 F800 ; Drop S>0
G1 X62.544 S900 F1500
G0 Z2.5 F800 ; Lift S=0
G1 X60.794 S0 F1500
G1 X60.398 Y87.248 Z2.5 F1500
; --- FIX X Backlash ---
G0 X61.698 Y87.248 F1200
G1 X63.448 Z2.5 F1500
G0 Z0 F800 ; Drop S>0
G1 X69.942 S900 F1500
G0 Z2.5 F800 ; Lift S=0
G1 X80.032 S0 F1500
G0 Z0 F800 ; Drop S>0
G1 X86.551 S900 F1500
G0 Z2.5 F800 ; Lift S=0
G1 X88.301 S0 F1500
G1 X88.694 Y88.148 Z2.5 F1500
; --- FIX X Backlash ---
G0 X87.394 Y88.148 F1200
G1 X85.644 Z2.5 F1500
G0 Z0 F800 ; Drop S>0
G1 X79.377 S900 F1500
G0 Z2.5 F800 ; Lift S=0
G1 X68 S0 F1500
G0 Z0 F800 ; Drop S>0
G1 X61.752 S900 F1500
G0 Z2.5 F800 ; Lift S=0
G1 X60.002 S0 F1500
G1 X59.606 Y89.048 Z2.5 F1500
; --- FIX X Backlash ---
G0 X60.906 Y89.048 F1200
G1 X62.656 Z2.5 F1500
G0 Z0 F800 ; Drop S>0
G1 X68.658 S900 F1500
G0 Z2.5 F800 ; Lift S=0
G1 X81.322 S0 F1500
G0 Z0 F800 ; Drop S>0
G1 X87.338 S900 F1500
G0 Z2.5 F800 ; Lift S=0

; Color picking sequence
G1 Z10 F1000;         ; Raise brush
G0 X41 Y5 F1200;    ; Rapid move to color 1
G1 Z10 F1000;         ; Raise brush
G0 X41 Y5 F1200;    ; Rapid move to color 1
G1 Z0 F1000;         ; Lower into color
G1 X40.102 Y7.295 Z0 S800 F1200
G1 X40.026 Y7.642 Z0 F1200
G1 X40 Y8 Z0 F1200
G1 X40.026 Y8.358 Z0 F1200
G1 X40.102 Y8.705 Z0 F1200
G1 X40.225 Y9.041 Z0 F1200
G1 X40.393 Y9.362 Z0 F1200
G1 X40.603 Y9.668 Z0 F1200
G1 X40.854 Y9.957 Z0 F1200
G1 X41.142 Y10.226 Z0 F1200
G1 X41.464 Y10.475 Z0 F1200
G1 X41.82 Y10.701 Z0 F1200
G1 X42.204 Y10.902 Z0 F1200
G1 X42.617 Y11.078 Z0 F1200
G1 X43.054 Y11.225 Z0 F1200
G1 X43.513 Y11.343 Z0 F1200
G1 X43.992 Y11.429 Z0 F1200
G1 X44.489 Y11.482 Z0 F1200
G1 X45 Y11.5 Z0 F1200
G1 X45.511 Y11.482 Z0 F1200
G1 X46.008 Y11.429 Z0 F1200
G1 X46.487 Y11.343 Z0 F1200
G1 X46.946 Y11.225 Z0 F1200
G1 X47.383 Y11.078 Z0 F1200
G1 X47.796 Y10.902 Z0 F1200
G1 X48.18 Y10.701 Z0 F1200
G1 X48.536 Y10.475 Z0 F1200
G1 X48.858 Y10.226 Z0 F1200
G1 X49.146 Y9.957 Z0 F1200
G1 X49.397 Y9.668 Z0 F1200
G1 X49.607 Y9.362 Z0 F1200
G1 X49.775 Y9.041 Z0 F1200
G1 X49.898 Y8.705 Z0 F1200
G1 X49.974 Y8.358 Z0 F1200
G1 X50 Y8 Z0 F1200
G1 X49.974 Y7.642 Z0 F1200
G1 X49.898 Y7.295 Z0 F1200
G1 X49.775 Y6.959 Z0 F1200
G1 X49.607 Y6.638 Z0 F1200
G1 X49.397 Y6.332 Z0 F1200
G1 X49.146 Y6.043 Z0 F1200
G1 X48.858 Y5.774 Z0 F1200
G1 X48.536 Y5.525 Z0 F1200
G1 X48.18 Y5.299 Z0 F1200
G1 X47.796 Y5.098 Z0 F1200
G1 X47.383 Y4.922 Z0 F1200
G1 X46.946 Y4.775 Z0 F1200
G1 X46.487 Y4.657 Z0 F1200
G1 X46.008 Y4.571 Z0 F1200
G1 X45.511 Y4.518 Z0 F1200
G1 X45 Y4.5 Z0 F1200
G1 X44.489 Y4.518 Z0 F1200
G1 X43.992 Y4.571 Z0 F1200
G1 X43.513 Y4.657 Z0 F1200
G1 X43.054 Y4.775 Z0 F1200
G1 X42.617 Y4.922 Z0 F1200
G1 X42.204 Y5.098 Z0 F1200
G1 X41.82 Y5.299 Z0 F1200
G1 X41.464 Y5.525 Z0 F1200
G1 X41.142 Y5.774 Z0 F1200
G1 X40.854 Y6.043 Z0 F1200
G1 X40.603 Y6.332 Z0 F1200
G1 X40.393 Y6.638 Z0 F1200
G1 X40.225 Y6.959 Z0 F1200
G1 Z7 F800;         ; Raise from color
G1 X34 Y8 Z1 F1200;     ; Movement in paint
G1 X24 Y18 Z8 F500;     ; Move in paint
G1 F1200;           ; Set feed rate
G0 Z2.5 F1000 ; Safety Lift
G0 X87.338 Y89.048 F1200 ; Return to pos
G1 X89.088 S0 F1500
G1 X89.482 Y89.948 Z2.5 F1500
; --- FIX X Backlash ---
G0 X88.182 Y89.948 F1200
G1 X86.432 Z2.5 F1500
G0 Z0 F800 ; Drop S>0
G1 X80.667 S900 F1500
G0 Z2.5 F800 ; Lift S=0
G1 X66.718 S0 F1500
G0 Z0 F800 ; Drop S>0
G1 X60.964 S900 F1500
G0 Z2.5 F800 ; Lift S=0
G1 X59.214 S0 F1500
G1 X58.819 Y90.848 Z2.5 F1500
; --- FIX X Backlash ---
G0 X60.119 Y90.848 F1200
G1 X61.869 Z2.5 F1500
G0 Z0 F800 ; Drop S>0
G1 X67.384 S900 F1500
G0 Z2.5 F800 ; Lift S=0
G1 X82.611 S0 F1500
G0 Z0 F800 ; Drop S>0
G1 X88.126 S900 F1500
G0 Z2.5 F800 ; Lift S=0
G1 X89.876 S0 F1500
G1 X90.27 Y91.748 Z2.5 F1500
; --- FIX X Backlash ---
G0 X88.97 Y91.748 F1200
G1 X87.22 Z2.5 F1500
G0 Z0 F800 ; Drop S>0
G1 X81.955 S900 F1500
G0 Z2.5 F800 ; Lift S=0
G1 X65.449 S0 F1500
G0 Z0 F800 ; Drop S>0
G1 X60.166 S900 F1500
G0 Z2.5 F800 ; Lift S=0
G1 X58.416 S0 F1500
G1 X58.02 Y92.648 Z2.5 F1500
; --- FIX X Backlash ---
G0 X59.32 Y92.648 F1200
G1 X61.07 Z2.5 F1500
G0 Z0 F800 ; Drop S>0
G1 X66.112 S900 F1500
G0 Z2.5 F800 ; Lift S=0
G1 X83.899 S0 F1500
G0 Z0 F800 ; Drop S>0
G1 X88.915 S900 F1500
G0 Z2.5 F800 ; Lift S=0
G1 X90.665 S0 F1500
G1 X91.059 Y93.548 Z2.5 F1500
; --- FIX X Backlash ---
G0 X89.759 Y93.548 F1200
G1 X88.009 Z2.5 F1500
G0 Z0 F800 ; Drop S>0
G1 X83.242 S900 F1500
G0 Z2.5 F800 ; Lift S=0
G1 X64.175 S0 F1500
G0 Z0 F800 ; Drop S>0
G1 X59.378 S900 F1500
G0 Z2.5 F800 ; Lift S=0
G1 X57.628 S0 F1500
G1 X57.235 Y94.448 Z2.5 F1500
; --- FIX X Backlash ---
G0 X58.535 Y94.448 F1200
G1 X60.285 Z2.5 F1500
G0 Z0 F800 ; Drop S>0
G1 X64.838 S900 F1500
G0 Z2.5 F800 ; Lift S=0
G1 X85.185 S0 F1500
G0 Z0 F800 ; Drop S>0
G1 X89.704 S900 F1500
G0 Z2.5 F800 ; Lift S=0
G1 X91.454 S0 F1500
G1 X91.851 Y95.348 Z2.5 F1500
; --- FIX X Backlash ---
G0 X90.551 Y95.348 F1200
G1 X88.801 Z2.5 F1500
G0 Z0 F800 ; Drop S>0
G1 X84.521 S900 F1500
G0 Z2.5 F800 ; Lift S=0
G1 X62.902 S0 F1500
G0 Z0 F800 ; Drop S>0
G1 X58.592 S900 F1500
G0 Z2.5 F800 ; Lift S=0
G1 X56.842 S0 F1500
G1 X56.445 Y96.248 Z2.5 F1500
; --- FIX X Backlash ---
G0 X57.745 Y96.248 F1200
G1 X59.495 Z2.5 F1500
G0 Z0 F800 ; Drop S>0
G1 X63.57 S900 F1500
G0 Z2.5 F800 ; Lift S=0
G1 X86.45 S0 F1500
G0 Z0 F800 ; Drop S>0
G1 X90.5 S900 F1500
G0 Z2.5 F800 ; Lift S=0
G1 X92.25 S0 F1500
G1 X92.636 Y97.148 Z2.5 F1500
; --- FIX X Backlash ---
G0 X91.336 Y97.148 F1200
G1 X89.586 Z2.5 F1500
G0 Z0 F800 ; Drop S>0
G1 X85.784 S900 F1500
G0 Z2.5 F800 ; Lift S=0
G1 X61.642 S0 F1500
G0 Z0 F800 ; Drop S>0
G1 X57.816 S900 F1500
G0 Z2.5 F800 ; Lift S=0
G1 X56.066 S0 F1500
G1 X55.695 Y98.048 Z2.5 F1500
; --- FIX X Backlash ---
G0 X56.995 Y98.048 F1200
G1 X58.745 Z2.5 F1500
G0 Z0 F800 ; Drop S>0
G1 X62.318 S900 F1500
G0 Z2.5 F800 ; Lift S=0
G1 X87.717 S0 F1500
G0 Z0 F800 ; Drop S>0
G1 X91.284 S900 F1500
G0 Z2.5 F800 ; Lift S=0
G1 X93.034 S0 F1500
G1 X93.424 Y98.948 Z2.5 F1500
; --- FIX X Backlash ---
G0 X92.124 Y98.948 F1200
G1 X90.374 Z2.5 F1500
G0 Z0 F800 ; Drop S>0
G1 X87.047 S900 F1500
G0 Z2.5 F800 ; Lift S=0
G1 X60.389 S0 F1500
G0 Z0 F800 ; Drop S>0
G1 X57.044 S900 F1500
G0 Z2.5 F800 ; Lift S=0
G1 X55.294 S0 F1500
G1 X54.906 Y99.848 Z2.5 F1500
; --- FIX X Backlash ---
G0 X56.206 Y99.848 F1200
G1 X57.956 Z2.5 F1500
G0 Z0 F800 ; Drop S>0
G1 X61.056 S900 F1500
G0 Z2.5 F800 ; Lift S=0

; Color picking sequence
G1 Z10 F1000;         ; Raise brush
G0 X41 Y5 F1200;    ; Rapid move to color 1
G1 Z10 F1000;         ; Raise brush
G0 X41 Y5 F1200;    ; Rapid move to color 1
G1 Z0 F1000;         ; Lower into color
G1 X40.102 Y7.295 Z0 S800 F1200
G1 X40.026 Y7.642 Z0 F1200
G1 X40 Y8 Z0 F1200
G1 X40.026 Y8.358 Z0 F1200
G1 X40.102 Y8.705 Z0 F1200
G1 X40.225 Y9.041 Z0 F1200
G1 X40.393 Y9.362 Z0 F1200
G1 X40.603 Y9.668 Z0 F1200
G1 X40.854 Y9.957 Z0 F1200
G1 X41.142 Y10.226 Z0 F1200
G1 X41.464 Y10.475 Z0 F1200
G1 X41.82 Y10.701 Z0 F1200
G1 X42.204 Y10.902 Z0 F1200
G1 X42.617 Y11.078 Z0 F1200
G1 X43.054 Y11.225 Z0 F1200
G1 X43.513 Y11.343 Z0 F1200
G1 X43.992 Y11.429 Z0 F1200
G1 X44.489 Y11.482 Z0 F1200
G1 X45 Y11.5 Z0 F1200
G1 X45.511 Y11.482 Z0 F1200
G1 X46.008 Y11.429 Z0 F1200
G1 X46.487 Y11.343 Z0 F1200
G1 X46.946 Y11.225 Z0 F1200
G1 X47.383 Y11.078 Z0 F1200
G1 X47.796 Y10.902 Z0 F1200
G1 X48.18 Y10.701 Z0 F1200
G1 X48.536 Y10.475 Z0 F1200
G1 X48.858 Y10.226 Z0 F1200
G1 X49.146 Y9.957 Z0 F1200
G1 X49.397 Y9.668 Z0 F1200
G1 X49.607 Y9.362 Z0 F1200
G1 X49.775 Y9.041 Z0 F1200
G1 X49.898 Y8.705 Z0 F1200
G1 X49.974 Y8.358 Z0 F1200
G1 X50 Y8 Z0 F1200
G1 X49.974 Y7.642 Z0 F1200
G1 X49.898 Y7.295 Z0 F1200
G1 X49.775 Y6.959 Z0 F1200
G1 X49.607 Y6.638 Z0 F1200
G1 X49.397 Y6.332 Z0 F1200
G1 X49.146 Y6.043 Z0 F1200
G1 X48.858 Y5.774 Z0 F1200
G1 X48.536 Y5.525 Z0 F1200
G1 X48.18 Y5.299 Z0 F1200
G1 X47.796 Y5.098 Z0 F1200
G1 X47.383 Y4.922 Z0 F1200
G1 X46.946 Y4.775 Z0 F1200
G1 X46.487 Y4.657 Z0 F1200
G1 X46.008 Y4.571 Z0 F1200
G1 X45.511 Y4.518 Z0 F1200
G1 X45 Y4.5 Z0 F1200
G1 X44.489 Y4.518 Z0 F1200
G1 X43.992 Y4.571 Z0 F1200
G1 X43.513 Y4.657 Z0 F1200
G1 X43.054 Y4.775 Z0 F1200
G1 X42.617 Y4.922 Z0 F1200
G1 X42.204 Y5.098 Z0 F1200
G1 X41.82 Y5.299 Z0 F1200
G1 X41.464 Y5.525 Z0 F1200
G1 X41.142 Y5.774 Z0 F1200
G1 X40.854 Y6.043 Z0 F1200
G1 X40.603 Y6.332 Z0 F1200
G1 X40.393 Y6.638 Z0 F1200
G1 X40.225 Y6.959 Z0 F1200
G1 Z7 F800;         ; Raise from color
G1 X34 Y8 Z1 F1200;     ; Movement in paint
G1 X24 Y18 Z8 F500;     ; Move in paint
G1 F1200;           ; Set feed rate
G0 Z2.5 F1000 ; Safety Lift
G0 X61.056 Y99.848 F1200 ; Return to pos
G1 X88.972 S0 F1500
G0 Z0 F800 ; Drop S>0
G1 X92.059 S900 F1500
G0 Z2.5 F800 ; Lift S=0
G1 X93.809 S0 F1500
G1 X94.194 Y100.748 Z2.5 F1500
; --- FIX X Backlash ---
G0 X92.894 Y100.748 F1200
G1 X91.144 Z2.5 F1500
G0 Z0 F800 ; Drop S>0
G1 X88.296 S900 F1500
G0 Z2.5 F800 ; Lift S=0
G1 X59.122 S0 F1500
G0 Z0 F800 ; Drop S>0
G1 X56.268 S900 F1500
G0 Z2.5 F800 ; Lift S=0
G1 X54.518 S0 F1500
G1 X54.134 Y101.648 Z2.5 F1500
; --- FIX X Backlash ---
G0 X55.434 Y101.648 F1200
G1 X57.184 Z2.5 F1500
G0 Z0 F800 ; Drop S>0
G1 X59.795 S900 F1500
G0 Z2.5 F800 ; Lift S=0
G1 X90.223 S0 F1500
G0 Z0 F800 ; Drop S>0
G1 X92.829 S900 F1500
G0 Z2.5 F800 ; Lift S=0
G1 X94.579 S0 F1500
G1 X94.964 Y102.548 Z2.5 F1500
; --- FIX X Backlash ---
G0 X93.664 Y102.548 F1200
G1 X91.914 Z2.5 F1500
G0 Z0 F800 ; Drop S>0
G1 X89.547 S900 F1500
G0 Z2.5 F800 ; Lift S=0
G1 X57.871 S0 F1500
G0 Z0 F800 ; Drop S>0
G1 X55.5 S900 F1500
G0 Z2.5 F800 ; Lift S=0
G1 X53.75 S0 F1500
G1 X53.368 Y103.448 Z2.5 F1500
; --- FIX X Backlash ---
G0 X54.668 Y103.448 F1200
G1 X56.418 Z2.5 F1500
G0 Z0 F800 ; Drop S>0
G1 X58.547 S900 F1500
G0 Z2.5 F800 ; Lift S=0
G1 X91.472 S0 F1500
G0 Z0 F800 ; Drop S>0
G1 X93.597 S900 F1500
G0 Z2.5 F800 ; Lift S=0
G1 X95.347 S0 F1500
G1 X95.723 Y104.348 Z2.5 F1500
; --- FIX X Backlash ---
G0 X94.423 Y104.348 F1200
G1 X92.673 Z2.5 F1500
G0 Z0 F800 ; Drop S>0
G1 X90.802 S900 F1500
G0 Z2.5 F800 ; Lift S=0
G1 X56.621 S0 F1500
G0 Z0 F800 ; Drop S>0
G1 X54.736 S900 F1500
G0 Z2.5 F800 ; Lift S=0
G1 X52.986 S0 F1500
G1 X52.604 Y105.248 Z2.5 F1500
; --- FIX X Backlash ---
G0 X53.904 Y105.248 F1200
G1 X55.654 Z2.5 F1500
G0 Z0 F800 ; Drop S>0
G1 X57.291 S900 F1500
G0 Z2.5 F800 ; Lift S=0
G1 X92.719 S0 F1500
G0 Z0 F800 ; Drop S>0
G1 X94.338 S900 F1500
G0 Z2.5 F800 ; Lift S=0
G1 X96.088 S0 F1500
G1 X96.416 Y106.148 Z2.5 F1500
; --- FIX X Backlash ---
G0 X95.116 Y106.148 F1200
G1 X93.366 Z2.5 F1500
G0 Z0 F800 ; Drop S>0
G1 X92.043 S900 F1500
G0 Z2.5 F800 ; Lift S=0
G1 X55.329 S0 F1500
G0 Z0 F800 ; Drop S>0
G1 X54.06 S900 F1500
G0 Z2.5 F800 ; Lift S=0
G1 X52.31 S0 F1500

; Washing sequence (no color)
G1 Z10 F1000;        ; Raise brush
G0 X5 Y5 F1200;     ; Rapid move to clean
G1 Z0 F800;         ; Lower brush
G1 X10 Y12 Z8 F1200;     ; Move
G1 Z0 F800;         ; Lower
G1 X25 Y14 Z6 F800;     ; Move
G1 Z8 F800;         ; Maintain
G0 X5 Y5 F1200;     ; Rapid
G1 Z0 F800;         ; Lower
G1 X15 Y12 Z8 F1200;     ; Move
G1 Z0 F800;         ; Lower
G1 X25 Y14 Z6 F800;     ; Move
G1 Z10 F800;         ; Maintain
G1 F1200;           ; Set feed
G0 Z2.5 F1000 ; Safety Lift

; Color picking sequence
G1 Z10 F1000;         ; Raise brush
G0 X86 Y5 F1200;    ; Rapid move to color 1
G1 Z10 F1000;         ; Raise brush
G0 X86 Y5 F1200;    ; Rapid move to color 1
G1 Z0 F1000;         ; Lower into color
G1 X85.102 Y7.295 Z0 S800 F1200
G1 X85.026 Y7.642 Z0 F1200
G1 X85 Y8 Z0 F1200
G1 X85.026 Y8.358 Z0 F1200
G1 X85.102 Y8.705 Z0 F1200
G1 X85.225 Y9.041 Z0 F1200
G1 X85.393 Y9.362 Z0 F1200
G1 X85.603 Y9.668 Z0 F1200
G1 X85.854 Y9.957 Z0 F1200
G1 X86.142 Y10.226 Z0 F1200
G1 X86.464 Y10.475 Z0 F1200
G1 X86.82 Y10.701 Z0 F1200
G1 X87.204 Y10.902 Z0 F1200
G1 X87.617 Y11.078 Z0 F1200
G1 X88.054 Y11.225 Z0 F1200
G1 X88.513 Y11.343 Z0 F1200
G1 X88.992 Y11.429 Z0 F1200
G1 X89.489 Y11.482 Z0 F1200
G1 X90 Y11.5 Z0 F1200
G1 X90.511 Y11.482 Z0 F1200
G1 X91.008 Y11.429 Z0 F1200
G1 X91.487 Y11.343 Z0 F1200
G1 X91.946 Y11.225 Z0 F1200
G1 X92.383 Y11.078 Z0 F1200
G1 X92.796 Y10.902 Z0 F1200
G1 X93.18 Y10.701 Z0 F1200
G1 X93.536 Y10.475 Z0 F1200
G1 X93.858 Y10.226 Z0 F1200
G1 X94.146 Y9.957 Z0 F1200
G1 X94.397 Y9.668 Z0 F1200
G1 X94.607 Y9.362 Z0 F1200
G1 X94.775 Y9.041 Z0 F1200
G1 X94.898 Y8.705 Z0 F1200
G1 X94.974 Y8.358 Z0 F1200
G1 X95 Y8 Z0 F1200
G1 X94.974 Y7.642 Z0 F1200
G1 X94.898 Y7.295 Z0 F1200
G1 X94.775 Y6.959 Z0 F1200
G1 X94.607 Y6.638 Z0 F1200
G1 X94.397 Y6.332 Z0 F1200
G1 X94.146 Y6.043 Z0 F1200
G1 X93.858 Y5.774 Z0 F1200
G1 X93.536 Y5.525 Z0 F1200
G1 X93.18 Y5.299 Z0 F1200
G1 X92.796 Y5.098 Z0 F1200
G1 X92.383 Y4.922 Z0 F1200
G1 X91.946 Y4.775 Z0 F1200
G1 X91.487 Y4.657 Z0 F1200
G1 X91.008 Y4.571 Z0 F1200
G1 X90.511 Y4.518 Z0 F1200
G1 X90 Y4.5 Z0 F1200
G1 X89.489 Y4.518 Z0 F1200
G1 X88.992 Y4.571 Z0 F1200
G1 X88.513 Y4.657 Z0 F1200
G1 X88.054 Y4.775 Z0 F1200
G1 X87.617 Y4.922 Z0 F1200
G1 X87.204 Y5.098 Z0 F1200
G1 X86.82 Y5.299 Z0 F1200
G1 X86.464 Y5.525 Z0 F1200
G1 X86.142 Y5.774 Z0 F1200
G1 X85.854 Y6.043 Z0 F1200
G1 X85.603 Y6.332 Z0 F1200
G1 X85.393 Y6.638 Z0 F1200
G1 X85.225 Y6.959 Z0 F1200
G1 Z7 F800;         ; Raise from color
G1 X79 Y8 Z1 F1200;     ; Movement in paint
G1 X69 Y18 Z8 F500;     ; Move in paint
G1 F1200;           ; Set feed rate
G0 Z2.5 F1000 ; Safety Lift
;Offset @ 1500 mm/min, 90% power

M8
G0 Z3.5 F1000
; --- FIX X Backlash ---
G0 X53.61 Y106.148 F1200
; --- FIX Y Backlash ---
G0 X53.61 Y104.848 F1200
G0 X55.579 Y42.224 Z3.5 F1500
G1 Z0 F1000
;Layer C2
; --- FIX Y Backlash ---
G0 X55.579 Y43.524 F1200
G1 X55.623 Y43.891 Z0 S900 F1500
G1 X55.75 Y44.701 Z0 F1500
G1 X55.912 Y45.48 Z0 F1500
G1 X56.167 Y46.427 Z0 F1500
G1 X56.454 Y47.333 Z0 F1500
G1 X56.777 Y48.209 Z0 F1500
G1 X57.14 Y49.061 Z0 F1500
G1 X57.542 Y49.889 Z0 F1500
G1 X57.986 Y50.7 Z0 F1500
G1 X58.475 Y51.498 Z0 F1500
G1 X59.006 Y52.284 Z0 F1500
G1 X59.431 Y52.866 Z0 F1500
; --- FIX X Backlash ---
G0 X58.131 Y52.866 F1200
; --- FIX Y Backlash ---
G0 X58.131 Y51.566 F1200
G1 X57.971 Y51.498 Z0 F1500
G1 X57.786 Y51.393 Z0 F1500
G1 X57.563 Y51.239 Z0 F1500
G1 X57.315 Y51.037 Z0 F1500
G1 X57.046 Y50.789 Z0 F1500
G1 X56.739 Y50.476 Z0 F1500
G1 X56.419 Y50.123 Z0 F1500
G1 X56.348 Y50.033 Z0 F1500
G1 X56.222 Y49.856 Z0 F1500
G1 X56.084 Y49.644 Z0 F1500
G1 X55.934 Y49.403 Z0 F1500
G1 X55.607 Y48.838 Z0 F1500
G1 X55.335 Y48.321 Z0 F1500
G1 X55.171 Y47.961 Z0 F1500
G1 X55.022 Y47.583 Z0 F1500
G1 X54.887 Y47.183 Z0 F1500
G1 X54.759 Y46.734 Z0 F1500
G1 X54.645 Y46.262 Z0 F1500
G1 X54.534 Y45.712 Z0 F1500
G1 X54.435 Y45.128 Z0 F1500
G1 X54.346 Y44.506 Z0 F1500
G1 X54.332 Y44.368 Z0 F1500
G1 X54.318 Y44.164 Z0 F1500
G1 X54.305 Y43.909 Z0 F1500
G1 X54.293 Y43.606 Z0 F1500
G1 X54.275 Y42.901 Z0 F1500
G1 X54.263 Y42.13 Z0 F1500
G1 Y42.022 Z0 F1500
; --- FIX Y Backlash ---
G0 X54.263 Y43.322 F1200
G1 X54.279 Y43.524 Z0 F1500
G0 Z3.5 F1000
; --- FIX X Backlash ---
G0 X55.579 Y43.524 F1200
G0 X58.881 Y46.127 Z3.5
G1 Z0 F1000
; --- FIX X Backlash ---
G0 X57.581 Y46.127 F1200
; --- FIX Y Backlash ---
G0 X57.581 Y44.827 F1200
G1 X57.071 Y43.742 Z0 F1500
G1 X56.717 Y42.936 Z0 F1500
; --- FIX X Backlash ---
G0 X58.017 Y42.936 F1200
; --- FIX Y Backlash ---
G0 X58.017 Y44.236 F1200
G1 X58.22 Y44.443 Z0 F1500
G1 X58.622 Y44.86 Z0 F1500
G1 X58.837 Y45.091 Z0 F1500
G1 X59.037 Y45.313 Z0 F1500
G1 X59.252 Y45.561 Z0 F1500
G1 X59.483 Y45.834 Z0 F1500
G1 X59.763 Y46.168 Z0 F1500
G1 X60.558 Y47.169 Z0 F1500
G1 X61.259 Y48.161 Z0 F1500
G1 X61.876 Y49.155 Z0 F1500
G1 X62.439 Y50.197 Z0 F1500
G1 X62.75 Y50.859 Z0 F1500
G1 X63.042 Y51.552 Z0 F1500
G1 X63.159 Y51.853 Z0 F1500
G1 X63.179 Y51.911 Z0 F1500
G1 X63.134 Y51.946 Z0 F1500
; --- FIX X Backlash ---
G0 X61.834 Y51.946 F1200
G1 X61.432 Y52.213 Z0 F1500
G1 X61.409 Y52.225 Z0 F1500
; --- FIX Y Backlash ---
G0 X61.409 Y50.925 F1200
G1 X61.289 Y50.777 Z0 F1500
G1 X61.108 Y50.544 Z0 F1500
G1 X60.922 Y50.3 Z0 F1500
G1 X60.498 Y49.721 Z0 F1500
G1 X60.081 Y49.129 Z0 F1500
G1 X59.651 Y48.497 Z0 F1500
G1 X59.257 Y47.892 Z0 F1500
G1 X58.912 Y47.339 Z0 F1500
G1 X58.63 Y46.855 Z0 F1500
G1 X58.105 Y45.875 Z0 F1500
G1 X57.581 Y44.827 Z0 F1500
G0 Z3.5 F1000
G0 X55.32 Y40.791 Z3.5
G1 Z0 F1000
G1 X54.516 Y40.722 Z0 F1500
; --- FIX Y Backlash ---
G0 X54.516 Y42.022 F1200
G1 X54.263 Y42.855 Z0 F1500
G1 Y42.882 Z0 F1500
; --- FIX Y Backlash ---
G0 X54.263 Y41.582 F1200
G1 Y41.37 Z0 F1500
G1 X54.266 Y40.672 Z0 F1500
G1 X54.272 Y40.365 Z0 F1500
G1 X54.28 Y40.129 Z0 F1500
G1 X54.291 Y39.927 Z0 F1500
G1 X54.301 Y39.809 Z0 F1500
; --- FIX X Backlash ---
G0 X55.601 Y39.809 F1200
G1 X55.686 Y39.15 Z0 F1500
; --- FIX Y Backlash ---
G0 X55.686 Y40.45 F1200
G1 X55.974 Y40.556 Z0 F1500
G1 X56.743 Y40.866 Z0 F1500
G1 X57.524 Y41.205 Z0 F1500
G1 X58.296 Y41.565 Z0 F1500
G1 X59.053 Y41.941 Z0 F1500
G1 X59.766 Y42.321 Z0 F1500
G1 X60.402 Y42.687 Z0 F1500
G1 X60.956 Y43.036 Z0 F1500
G1 X61.461 Y43.385 Z0 F1500
G1 X61.946 Y43.751 Z0 F1500
G1 X62.392 Y44.117 Z0 F1500
G1 X62.799 Y44.482 Z0 F1500
G1 X63.175 Y44.852 Z0 F1500
G1 X63.527 Y45.234 Z0 F1500
G1 X63.841 Y45.612 Z0 F1500
G1 X64.125 Y45.995 Z0 F1500
G1 X64.368 Y46.367 Z0 F1500
G1 X64.58 Y46.741 Z0 F1500
G1 X64.762 Y47.119 Z0 F1500
G1 X64.905 Y47.481 Z0 F1500
G1 X65.018 Y47.845 Z0 F1500
G1 X65.096 Y48.2 Z0 F1500
G1 X65.144 Y48.55 Z0 F1500
G1 X65.16 Y48.903 Z0 F1500
G1 Y48.968 Z0 F1500
; --- FIX X Backlash ---
G0 X63.86 Y48.968 F1200
; --- FIX Y Backlash ---
G0 X63.86 Y47.668 F1200
G1 X63.571 Y47.118 Z0 F1500
G1 X63.248 Y46.548 Z0 F1500
G1 X62.907 Y45.991 Z0 F1500
G1 X62.553 Y45.457 Z0 F1500
G1 X62.191 Y44.959 Z0 F1500
G1 X61.673 Y44.312 Z0 F1500
G1 X61.125 Y43.692 Z0 F1500
G1 X60.552 Y43.102 Z0 F1500
G1 X59.955 Y42.544 Z0 F1500
G1 X59.339 Y42.022 Z0 F1500
G1 X58.704 Y41.538 Z0 F1500
G1 X58.056 Y41.095 Z0 F1500
G1 X57.403 Y40.7 Z0 F1500
G1 X57.112 Y40.539 Z0 F1500
G1 X56.861 Y40.413 Z0 F1500
G1 X56.306 Y40.217 Z0 F1500
; --- FIX Y Backlash ---
G0 X56.306 Y41.517 F1200
G1 X55.32 Y42.091 Z0 F1500
G0 Z3.5 F1000
G0 X53.364 Y43.443 Z3.5
G1 Z0 F1000
; --- FIX Y Backlash ---
G0 X53.364 Y42.143 F1200
G1 X53.361 Y41.363 Z0 F1500
G1 X53.366 Y40.654 Z0 F1500
G1 X53.372 Y40.346 Z0 F1500
G1 X53.381 Y40.081 Z0 F1500
G1 X53.392 Y39.868 Z0 F1500
G1 X53.406 Y39.714 Z0 F1500
; --- FIX X Backlash ---
G0 X54.706 Y39.714 F1200
G1 X54.842 Y38.653 Z0 F1500
G1 X54.879 Y38.376 Z0 F1500
G1 X54.913 Y38.15 Z0 F1500
G1 X54.938 Y37.997 Z0 F1500
G1 X54.953 Y37.941 Z0 F1500
G1 X55.004 Y37.956 Z0 F1500
; --- FIX Y Backlash ---
G0 X55.004 Y39.256 F1200
G1 X55.313 Y39.36 Z0 F1500
G1 X55.534 Y39.436 Z0 F1500
G1 X56.293 Y39.714 Z0 F1500
G1 X57.085 Y40.033 Z0 F1500
G1 X57.891 Y40.383 Z0 F1500
G1 X58.691 Y40.756 Z0 F1500
G1 X59.467 Y41.142 Z0 F1500
G1 X60.199 Y41.532 Z0 F1500
G1 X60.868 Y41.916 Z0 F1500
G1 X61.455 Y42.286 Z0 F1500
G1 X61.992 Y42.658 Z0 F1500
G1 X62.498 Y43.04 Z0 F1500
G1 X62.973 Y43.43 Z0 F1500
G1 X63.417 Y43.827 Z0 F1500
G1 X63.828 Y44.231 Z0 F1500
G1 X64.206 Y44.642 Z0 F1500
G1 X64.55 Y45.057 Z0 F1500
G1 X64.861 Y45.477 Z0 F1500
G1 X65.138 Y45.9 Z0 F1500
G1 X65.379 Y46.326 Z0 F1500
G1 X65.585 Y46.754 Z0 F1500
G1 X65.754 Y47.183 Z0 F1500
G1 X65.888 Y47.612 Z0 F1500
G1 X65.983 Y48.042 Z0 F1500
G1 X66.041 Y48.469 Z0 F1500
G1 X66.06 Y48.896 Z0 F1500
G1 X66.05 Y49.229 Z0 F1500
G1 X66.02 Y49.53 Z0 F1500
; --- FIX X Backlash ---
G0 X64.72 Y49.53 F1200
G1 X64.666 Y49.809 Z0 F1500
G1 X64.588 Y50.078 Z0 F1500
G1 X64.427 Y50.482 Z0 F1500
G1 X64.217 Y50.93 Z0 F1500
G1 X64.114 Y51.129 Z0 F1500
G1 X64.022 Y51.292 Z0 F1500
G1 X63.951 Y51.401 Z0 F1500
G1 X63.907 Y51.441 Z0 F1500
G1 X63.882 Y51.397 Z0 F1500
; --- FIX Y Backlash ---
G0 X63.882 Y50.097 F1200
G1 X63.834 Y49.979 Z0 F1500
G1 X63.771 Y49.805 Z0 F1500
G1 X63.7 Y49.592 Z0 F1500
G1 X63.53 Y49.126 Z0 F1500
G1 X63.316 Y48.621 Z0 F1500
G1 X63.063 Y48.091 Z0 F1500
G1 X62.78 Y47.548 Z0 F1500
G1 X62.472 Y47.005 Z0 F1500
G1 X62.148 Y46.475 Z0 F1500
G1 X61.813 Y45.971 Z0 F1500
G1 X61.475 Y45.505 Z0 F1500
G1 X60.984 Y44.892 Z0 F1500
G1 X60.465 Y44.304 Z0 F1500
G1 X59.922 Y43.745 Z0 F1500
G1 X59.357 Y43.217 Z0 F1500
G1 X58.774 Y42.724 Z0 F1500
G1 X58.177 Y42.268 Z0 F1500
G1 X57.569 Y41.852 Z0 F1500
G1 X56.952 Y41.479 Z0 F1500
G1 X56.692 Y41.336 Z0 F1500
G1 X56.508 Y41.243 Z0 F1500
G1 X56.399 Y41.204 Z0 F1500
G1 X56.366 Y41.223 Z0 F1500
G1 X56.378 Y41.256 Z0 F1500
G1 X56.409 Y41.304 Z0 F1500
; --- FIX X Backlash ---
G0 X57.709 Y41.304 F1200
; --- FIX Y Backlash ---
G0 X57.709 Y42.604 F1200
G1 X57.76 Y42.667 Z0 F1500
G1 X57.83 Y42.748 Z0 F1500
G1 X57.919 Y42.845 Z0 F1500
G1 X58.156 Y43.092 Z0 F1500
G1 X58.868 Y43.819 Z0 F1500
G1 X59.28 Y44.247 Z0 F1500
G1 X59.506 Y44.489 Z0 F1500
G1 X59.716 Y44.723 Z0 F1500
G1 X59.931 Y44.97 Z0 F1500
G1 X60.173 Y45.255 Z0 F1500
G1 X60.462 Y45.601 Z0 F1500
G1 X61.278 Y46.629 Z0 F1500
G1 X62.006 Y47.66 Z0 F1500
G1 X62.658 Y48.708 Z0 F1500
G1 X63.242 Y49.789 Z0 F1500
G1 X63.573 Y50.494 Z0 F1500
G1 X63.878 Y51.217 Z0 F1500
G1 X64.004 Y51.543 Z0 F1500
G1 X64.103 Y51.821 Z0 F1500
G1 X64.167 Y52.034 Z0 F1500
G1 X64.189 Y52.165 Z0 F1500
G1 X64.149 Y52.25 Z0 F1500
; --- FIX X Backlash ---
G0 X62.849 Y52.25 F1200
G1 X62.737 Y52.37 Z0 F1500
G1 X62.569 Y52.516 Z0 F1500
G1 X62.362 Y52.675 Z0 F1500
G1 X61.888 Y52.99 Z0 F1500
G1 X61.441 Y53.224 Z0 F1500
G1 X61.284 Y53.281 Z0 F1500
G1 X61.177 Z0 F1500
; --- FIX Y Backlash ---
G0 X61.177 Y51.981 F1200
G1 X61.074 Y51.913 Z0 F1500
G1 X60.933 Y51.759 Z0 F1500
G1 X60.768 Y51.564 Z0 F1500
G1 X60.589 Y51.343 Z0 F1500
G1 X60.398 Y51.097 Z0 F1500
G1 X60.196 Y50.832 Z0 F1500
G1 X59.772 Y50.254 Z0 F1500
G1 X59.337 Y49.635 Z0 F1500
G1 X58.907 Y49.003 Z0 F1500
G1 X58.503 Y48.384 Z0 F1500
G1 X58.142 Y47.805 Z0 F1500
G1 X57.844 Y47.294 Z0 F1500
G1 X57.312 Y46.3 Z0 F1500
G1 X56.77 Y45.218 Z0 F1500
G1 X56.248 Y44.107 Z0 F1500
G1 X55.773 Y43.024 Z0 F1500
G1 X55.556 Y42.516 Z0 F1500
G1 X55.373 Y42.093 Z0 F1500
G1 X55.242 Y41.801 Z0 F1500
G1 X55.202 Y41.717 Z0 F1500
G1 X55.182 Y41.682 Z0 F1500
G1 X55.165 Z0 F1500
G1 X55.155 Y41.715 Z0 F1500
; --- FIX Y Backlash ---
G0 X55.155 Y43.015 F1200
G1 X55.151 Y43.081 Z0 F1500
G1 X55.154 Y43.175 Z0 F1500
G1 X55.175 Y43.435 Z0 F1500
G1 X55.215 Y43.767 Z0 F1500
; --- FIX X Backlash ---
G0 X56.515 Y43.767 F1200
G1 X56.636 Y44.54 Z0 F1500
G1 X56.788 Y45.271 Z0 F1500
G1 X57.031 Y46.174 Z0 F1500
G1 X57.306 Y47.042 Z0 F1500
G1 X57.614 Y47.877 Z0 F1500
G1 X57.959 Y48.688 Z0 F1500
G1 X58.342 Y49.476 Z0 F1500
G1 X58.765 Y50.249 Z0 F1500
G1 X59.231 Y51.011 Z0 F1500
G1 X59.742 Y51.766 Z0 F1500
G1 X60.191 Y52.38 Z0 F1500
G1 X60.645 Y52.973 Z0 F1500
G1 X60.845 Y53.224 Z0 F1500
G1 X61.012 Y53.426 Z0 F1500
G1 X61.134 Y53.564 Z0 F1500
G1 X61.201 Y53.623 Z0 F1500
G1 X61.244 Y53.676 Z0 F1500
G1 X61.262 Y53.766 Z0 F1500
; --- FIX X Backlash ---
G0 X59.962 Y53.766 F1200
G1 X59.907 Y53.813 Z0 F1500
G1 X59.759 Y53.85 Z0 F1500
G1 X59.537 Y53.873 Z0 F1500
G1 X59.265 Y53.884 Z0 F1500
G1 X58.654 Y53.866 Z0 F1500
; --- FIX Y Backlash ---
G0 X58.654 Y52.566 F1200
G1 X58.098 Y52.493 Z0 F1500
G1 X57.839 Y52.42 Z0 F1500
G1 X57.575 Y52.307 Z0 F1500
G1 X57.304 Y52.155 Z0 F1500
G1 X57.023 Y51.959 Z0 F1500
G1 X56.728 Y51.72 Z0 F1500
G1 X56.417 Y51.432 Z0 F1500
G1 X56.087 Y51.097 Z0 F1500
G1 X55.736 Y50.71 Z0 F1500
G1 X55.622 Y50.566 Z0 F1500
G1 X55.483 Y50.368 Z0 F1500
G1 X55.325 Y50.128 Z0 F1500
G1 X55.158 Y49.858 Z0 F1500
G1 X54.82 Y49.275 Z0 F1500
G1 X54.527 Y48.718 Z0 F1500
G1 X54.343 Y48.314 Z0 F1500

; Color picking sequence
G1 Z10 F1000;         ; Raise brush
G0 X86 Y5 F1200;    ; Rapid move to color 1
G1 Z10 F1000;         ; Raise brush
G0 X86 Y5 F1200;    ; Rapid move to color 1
G1 Z0 F1000;         ; Lower into color
G1 X85.102 Y7.295 Z0 S800 F1200
G1 X85.026 Y7.642 Z0 F1200
G1 X85 Y8 Z0 F1200
G1 X85.026 Y8.358 Z0 F1200
G1 X85.102 Y8.705 Z0 F1200
G1 X85.225 Y9.041 Z0 F1200
G1 X85.393 Y9.362 Z0 F1200
G1 X85.603 Y9.668 Z0 F1200
G1 X85.854 Y9.957 Z0 F1200
G1 X86.142 Y10.226 Z0 F1200
G1 X86.464 Y10.475 Z0 F1200
G1 X86.82 Y10.701 Z0 F1200
G1 X87.204 Y10.902 Z0 F1200
G1 X87.617 Y11.078 Z0 F1200
G1 X88.054 Y11.225 Z0 F1200
G1 X88.513 Y11.343 Z0 F1200
G1 X88.992 Y11.429 Z0 F1200
G1 X89.489 Y11.482 Z0 F1200
G1 X90 Y11.5 Z0 F1200
G1 X90.511 Y11.482 Z0 F1200
G1 X91.008 Y11.429 Z0 F1200
G1 X91.487 Y11.343 Z0 F1200
G1 X91.946 Y11.225 Z0 F1200
G1 X92.383 Y11.078 Z0 F1200
G1 X92.796 Y10.902 Z0 F1200
G1 X93.18 Y10.701 Z0 F1200
G1 X93.536 Y10.475 Z0 F1200
G1 X93.858 Y10.226 Z0 F1200
G1 X94.146 Y9.957 Z0 F1200
G1 X94.397 Y9.668 Z0 F1200
G1 X94.607 Y9.362 Z0 F1200
G1 X94.775 Y9.041 Z0 F1200
G1 X94.898 Y8.705 Z0 F1200
G1 X94.974 Y8.358 Z0 F1200
G1 X95 Y8 Z0 F1200
G1 X94.974 Y7.642 Z0 F1200
G1 X94.898 Y7.295 Z0 F1200
G1 X94.775 Y6.959 Z0 F1200
G1 X94.607 Y6.638 Z0 F1200
G1 X94.397 Y6.332 Z0 F1200
G1 X94.146 Y6.043 Z0 F1200
G1 X93.858 Y5.774 Z0 F1200
G1 X93.536 Y5.525 Z0 F1200
G1 X93.18 Y5.299 Z0 F1200
G1 X92.796 Y5.098 Z0 F1200
G1 X92.383 Y4.922 Z0 F1200
G1 X91.946 Y4.775 Z0 F1200
G1 X91.487 Y4.657 Z0 F1200
G1 X91.008 Y4.571 Z0 F1200
G1 X90.511 Y4.518 Z0 F1200
G1 X90 Y4.5 Z0 F1200
G1 X89.489 Y4.518 Z0 F1200
G1 X88.992 Y4.571 Z0 F1200
G1 X88.513 Y4.657 Z0 F1200
G1 X88.054 Y4.775 Z0 F1200
G1 X87.617 Y4.922 Z0 F1200
G1 X87.204 Y5.098 Z0 F1200
G1 X86.82 Y5.299 Z0 F1200
G1 X86.464 Y5.525 Z0 F1200
G1 X86.142 Y5.774 Z0 F1200
G1 X85.854 Y6.043 Z0 F1200
G1 X85.603 Y6.332 Z0 F1200
G1 X85.393 Y6.638 Z0 F1200
G1 X85.225 Y6.959 Z0 F1200
G1 Z7 F800;         ; Raise from color
G1 X79 Y8 Z1 F1200;     ; Movement in paint
G1 X69 Y18 Z8 F500;     ; Move in paint
G1 F1200;           ; Set feed rate
G0 Z2.5 F1000 ; Safety Lift
G0 X54.343 Y48.314 F1200 ; Return
G1 Z0 F1000 ; Restore Z
G1 X54.177 Y47.892 Z0 F1500
G1 X54.026 Y47.446 Z0 F1500
G1 X53.889 Y46.967 Z0 F1500
G1 X53.765 Y46.451 Z0 F1500
G1 X53.652 Y45.89 Z0 F1500
G1 X53.548 Y45.279 Z0 F1500
G1 X53.451 Y44.61 Z0 F1500
G1 X53.435 Y44.447 Z0 F1500
G1 X53.42 Y44.226 Z0 F1500
G1 X53.406 Y43.954 Z0 F1500
G1 X53.394 Y43.641 Z0 F1500
G1 X53.375 Y42.925 Z0 F1500
G1 X53.364 Y42.143 Z0 F1500
G0 Z3.5 F1000
; --- FIX X Backlash ---
G0 X54.664 Y42.143 F1200
; --- FIX Y Backlash ---
G0 X54.664 Y43.443 F1200
G0 X94.393 Y44.193 Z3.5
G1 Z0 F1000
G1 X94.386 Y44.552 Z0 F1500
G1 X94.377 Y44.894 Z0 F1500
G1 X94.351 Y45.472 Z0 F1500
G1 X94.31 Y45.998 Z0 F1500
; --- FIX X Backlash ---
G0 X93.01 Y45.998 F1200
G1 X92.878 Y46.941 Z0 F1500
G1 X92.672 Y47.858 Z0 F1500
G1 X92.421 Y48.675 Z0 F1500
G1 X92.101 Y49.463 Z0 F1500
G1 X91.725 Y50.209 Z0 F1500
G1 X91.296 Y50.908 Z0 F1500
G1 X90.838 Y51.523 Z0 F1500
G1 X90.353 Y52.057 Z0 F1500
G1 X90.132 Y52.261 Z0 F1500
G1 X89.895 Y52.453 Z0 F1500
G1 X89.676 Y52.604 Z0 F1500
G1 X89.453 Y52.732 Z0 F1500
G1 X89.282 Y52.814 Z0 F1500
; --- FIX X Backlash ---
G0 X90.582 Y52.814 F1200
; --- FIX Y Backlash ---
G0 X90.582 Y51.514 F1200
G1 X90.633 Y51.446 Z0 F1500
G1 X90.931 Y51.038 Z0 F1500
G1 X91.212 Y50.644 Z0 F1500
G1 X91.462 Y50.283 Z0 F1500
G1 X91.668 Y49.973 Z0 F1500
G1 X91.987 Y49.451 Z0 F1500
G1 X92.296 Y48.898 Z0 F1500
G1 X92.594 Y48.32 Z0 F1500
G1 X92.881 Y47.715 Z0 F1500
G1 X93.396 Y46.48 Z0 F1500
G1 X93.834 Y45.208 Z0 F1500
G1 X94.062 Y44.352 Z0 F1500
G1 X94.258 Y43.424 Z0 F1500
G1 X94.336 Y42.976 Z0 F1500
G1 X94.396 Y42.571 Z0 F1500
G1 Y42.568 Z0 F1500
; --- FIX Y Backlash ---
G0 X94.396 Y43.868 F1200
G1 X94.393 Y44.193 Z0 F1500
G0 Z3.5 F1000
; --- FIX X Backlash ---
G0 X93.093 Y44.193 F1200
G0 X89.757 Y46.272 Z3.5
G1 Z0 F1000
G1 X89.227 Y47.308 Z0 F1500
G1 X88.682 Y48.286 Z0 F1500
G1 X88.108 Y49.234 Z0 F1500
G1 X87.518 Y50.133 Z0 F1500
G1 X86.872 Y51.042 Z0 F1500
G1 X86.187 Y51.941 Z0 F1500
G1 X85.971 Y52.216 Z0 F1500
; --- FIX Y Backlash ---
G0 X85.971 Y50.916 F1200
G1 X85.793 Y50.809 Z0 F1500
G1 X85.51 Y50.619 Z0 F1500
G1 X85.458 Y50.58 Z0 F1500
; --- FIX X Backlash ---
G0 X86.758 Y50.58 F1200
G1 X86.872 Y50.297 Z0 F1500
G1 X87.017 Y49.959 Z0 F1500
G1 X87.178 Y49.606 Z0 F1500
G1 X87.371 Y49.2 Z0 F1500
G1 X87.564 Y48.811 Z0 F1500
G1 X87.99 Y48.017 Z0 F1500
G1 X88.452 Y47.244 Z0 F1500
G1 X88.947 Y46.497 Z0 F1500
G1 X89.512 Y45.724 Z0 F1500
G1 X90.118 Y44.963 Z0 F1500
G1 X90.812 Y44.158 Z0 F1500
G1 X91.546 Y43.364 Z0 F1500
G1 X92.006 Y42.893 Z0 F1500
; --- FIX X Backlash ---
G0 X90.706 Y42.893 F1200
; --- FIX Y Backlash ---
G0 X90.706 Y44.193 F1200
G1 X90.263 Y45.201 Z0 F1500
G1 X89.757 Y46.272 Z0 F1500
G0 Z3.5 F1000
G0 X83.595 Y48.776 Z3.5
G1 Z0 F1000
; --- FIX Y Backlash ---
G0 X83.595 Y47.476 F1200
G1 Y47.347 Z0 F1500
G1 X83.601 Y47.109 Z0 F1500
G1 X83.61 Y46.935 Z0 F1500
G1 X83.622 Y46.805 Z0 F1500
G1 X83.664 Y46.575 Z0 F1500
; --- FIX X Backlash ---
G0 X84.964 Y46.575 F1200
G1 X85.04 Y46.322 Z0 F1500
G1 X85.217 Y45.858 Z0 F1500
G1 X85.434 Y45.4 Z0 F1500
G1 X85.682 Y44.966 Z0 F1500
G1 X85.986 Y44.516 Z0 F1500
G1 X86.331 Y44.075 Z0 F1500
G1 X86.734 Y43.623 Z0 F1500
G1 X87.205 Y43.149 Z0 F1500
G1 X87.735 Y42.662 Z0 F1500
G1 X87.994 Y42.441 Z0 F1500
G1 X88.25 Y42.244 Z0 F1500
G1 X88.389 Y42.146 Z0 F1500
G1 X88.565 Y42.027 Z0 F1500
G1 X88.792 Y41.878 Z0 F1500
G1 X89.418 Y41.473 Z0 F1500
G1 X89.832 Y41.201 Z0 F1500
G1 X90.007 Y41.082 Z0 F1500
G1 X90.042 Y41.057 Z0 F1500
G1 X90.104 Y41.015 Z0 F1500
G1 X90.224 Y40.947 Z0 F1500
G1 X90.429 Y40.839 Z0 F1500
G1 X90.667 Y40.72 Z0 F1500
G1 X90.964 Y40.576 Z0 F1500
G1 X91.295 Y40.42 Z0 F1500
G1 X91.658 Y40.253 Z0 F1500
G1 X92.021 Y40.089 Z0 F1500
G1 X92.801 Y39.747 Z0 F1500
G1 X93.535 Y39.437 Z0 F1500
G1 X93.887 Y39.294 Z0 F1500
G1 X94.202 Y39.17 Z0 F1500
G1 X94.304 Y39.131 Z0 F1500
; --- FIX Y Backlash ---
G0 X94.304 Y40.431 F1200
G1 X94.315 Y40.585 Z0 F1500
G1 X94.349 Y41.198 Z0 F1500
G1 X94.375 Y41.885 Z0 F1500
G1 X94.392 Y42.635 Z0 F1500
G1 Y42.91 Z0 F1500
; --- FIX Y Backlash ---
G0 X94.392 Y41.61 F1200
G1 X94.384 Y41.541 Z0 F1500
; --- FIX X Backlash ---
G0 X93.084 Y41.541 F1200
G1 X92.467 Y40.623 Z0 F1500
; --- FIX Y Backlash ---
G0 X92.467 Y41.923 F1200
G1 X91.941 Y42.247 Z0 F1500
; --- FIX X Backlash ---
G0 X93.241 Y42.247 F1200
; --- FIX Y Backlash ---
G0 X93.241 Y40.947 F1200
G1 X93.295 Y40.459 Z0 F1500
; --- FIX X Backlash ---
G0 X91.995 Y40.459 F1200
G1 X90.929 Y40.302 Z0 F1500
; --- FIX Y Backlash ---
G0 X90.929 Y41.602 F1200
G1 X90.647 Y41.675 Z0 F1500
G1 X90.497 Y41.734 Z0 F1500
G1 X90.362 Y41.797 Z0 F1500
G1 X90.093 Y41.938 Z0 F1500
G1 X89.778 Y42.118 Z0 F1500
G1 X89.106 Y42.537 Z0 F1500
G1 X88.468 Y42.979 Z0 F1500
G1 X88.086 Y43.283 Z0 F1500
G1 X87.673 Y43.639 Z0 F1500
G1 X87.25 Y44.022 Z0 F1500
G1 X86.839 Y44.412 Z0 F1500
G1 X86.468 Y44.781 Z0 F1500
G1 X86.161 Y45.106 Z0 F1500
G1 X86.029 Y45.259 Z0 F1500
G1 X85.908 Y45.412 Z0 F1500
G1 X85.836 Y45.528 Z0 F1500
G1 X85.743 Y45.608 Z0 F1500
G1 X85.551 Y45.807 Z0 F1500
G1 X85.358 Y46.032 Z0 F1500
G1 X84.985 Y46.511 Z0 F1500
G1 X84.625 Y47.018 Z0 F1500
G1 X84.282 Y47.547 Z0 F1500
G1 X83.958 Y48.094 Z0 F1500
G1 X83.656 Y48.652 Z0 F1500
G1 X83.595 Y48.776 Z0 F1500
G0 Z3.5 F1000
G0 X82.795 Y50.124 Z3.5
G1 Z0 F1000
; --- FIX Y Backlash ---
G0 X82.795 Y48.824 F1200
G1 X82.728 Y48.552 Z0 F1500
G1 X82.71 Y48.388 Z0 F1500
G1 X82.7 Y48.186 Z0 F1500
G1 X82.695 Y47.934 Z0 F1500
G1 Y47.619 Z0 F1500
G1 Y47.325 Z0 F1500
G1 X82.701 Y47.078 Z0 F1500
G1 X82.712 Y46.868 Z0 F1500
G1 X82.73 Y46.685 Z0 F1500
; --- FIX X Backlash ---
G0 X84.03 Y46.685 F1200
G1 X84.088 Y46.363 Z0 F1500
G1 X84.187 Y46.033 Z0 F1500
G1 X84.39 Y45.502 Z0 F1500
G1 X84.633 Y44.988 Z0 F1500
G1 X84.92 Y44.485 Z0 F1500
G1 X85.255 Y43.99 Z0 F1500
G1 X85.641 Y43.497 Z0 F1500
G1 X86.081 Y43.003 Z0 F1500
G1 X86.578 Y42.503 Z0 F1500
G1 X87.135 Y41.992 Z0 F1500
G1 X87.43 Y41.74 Z0 F1500
G1 X87.713 Y41.522 Z0 F1500
G1 X87.877 Y41.406 Z0 F1500
G1 X88.07 Y41.275 Z0 F1500
G1 X88.303 Y41.122 Z0 F1500
G1 X88.926 Y40.719 Z0 F1500
G1 X89.333 Y40.452 Z0 F1500
G1 X89.491 Y40.345 Z0 F1500
G1 X89.524 Y40.321 Z0 F1500
G1 X89.626 Y40.251 Z0 F1500
G1 X89.791 Y40.158 Z0 F1500
G1 X90.01 Y40.042 Z0 F1500
G1 X90.275 Y39.909 Z0 F1500
G1 X90.581 Y39.762 Z0 F1500
G1 X90.918 Y39.603 Z0 F1500
G1 X91.281 Y39.436 Z0 F1500
G1 X91.66 Y39.265 Z0 F1500
G1 X92.439 Y38.923 Z0 F1500
G1 X93.196 Y38.603 Z0 F1500
G1 X93.548 Y38.46 Z0 F1500
G1 X93.872 Y38.332 Z0 F1500
G1 X94.16 Y38.224 Z0 F1500
G1 X94.405 Y38.138 Z0 F1500
G1 X94.63 Y38.064 Z0 F1500
G1 X94.822 Y38.003 Z0 F1500
G1 X94.96 Y37.961 Z0 F1500
G1 X95.025 Y37.945 Z0 F1500
G1 X95.051 Y37.967 Z0 F1500
; --- FIX Y Backlash ---
G0 X95.051 Y39.267 F1200
G1 X95.076 Y39.335 Z0 F1500
G1 X95.102 Y39.446 Z0 F1500
G1 X95.126 Y39.596 Z0 F1500
G1 X95.149 Y39.784 Z0 F1500
G1 X95.172 Y40.004 Z0 F1500
G1 X95.193 Y40.256 Z0 F1500
G1 X95.213 Y40.535 Z0 F1500
G1 X95.248 Y41.164 Z0 F1500
G1 X95.275 Y41.865 Z0 F1500
G1 X95.292 Y42.615 Z0 F1500
G1 X95.298 Y43.389 Z0 F1500
G1 Y43.814 Z0 F1500
G1 X95.292 Y44.208 Z0 F1500
G1 X95.286 Y44.576 Z0 F1500
G1 X95.277 Y44.918 Z0 F1500
G1 X95.248 Y45.541 Z0 F1500
G1 X95.205 Y46.097 Z0 F1500
; --- FIX X Backlash ---
G0 X93.905 Y46.097 F1200
G1 X93.765 Y47.097 Z0 F1500
G1 X93.542 Y48.093 Z0 F1500
G1 X93.27 Y48.976 Z0 F1500
G1 X92.922 Y49.834 Z0 F1500
G1 X92.509 Y50.652 Z0 F1500
G1 X92.043 Y51.411 Z0 F1500
G1 X91.534 Y52.096 Z0 F1500
G1 X90.995 Y52.688 Z0 F1500
G1 X90.718 Y52.945 Z0 F1500
G1 X90.437 Y53.172 Z0 F1500
G1 X90.154 Y53.368 Z0 F1500
G1 X89.87 Y53.53 Z0 F1500
G1 X89.525 Y53.697 Z0 F1500
G1 X89.238 Y53.792 Z0 F1500
G1 X89.083 Y53.819 Z0 F1500
G1 X88.9 Y53.839 Z0 F1500
G1 X88.678 Y53.854 Z0 F1500
G1 X88.401 Y53.865 Z0 F1500
G1 X88.053 Y53.873 Z0 F1500
G1 X87.758 Y53.869 Z0 F1500
G1 X87.639 Y53.862 Z0 F1500
G1 X87.546 Y53.854 Z0 F1500
G1 X87.481 Y53.842 Z0 F1500
G1 X87.449 Y53.829 Z0 F1500
G1 X87.44 Y53.779 Z0 F1500
; --- FIX Y Backlash ---
G0 X87.44 Y52.479 F1200
G1 X87.471 Y52.397 Z0 F1500
; --- FIX X Backlash ---
G0 X88.771 Y52.397 F1200
G1 X88.835 Y52.291 Z0 F1500
G1 X88.929 Y52.174 Z0 F1500
G1 X89.111 Y51.955 Z0 F1500
G1 X89.347 Y51.656 Z0 F1500
G1 X89.619 Y51.3 Z0 F1500
G1 X89.909 Y50.911 Z0 F1500
G1 X90.201 Y50.512 Z0 F1500
G1 X90.476 Y50.126 Z0 F1500
G1 X90.718 Y49.778 Z0 F1500
G1 X90.909 Y49.49 Z0 F1500
G1 X91.21 Y48.997 Z0 F1500
G1 X91.503 Y48.472 Z0 F1500
G1 X91.787 Y47.921 Z0 F1500
G1 X92.058 Y47.349 Z0 F1500
G1 X92.554 Y46.16 Z0 F1500
G1 X92.973 Y44.945 Z0 F1500
G1 X93.186 Y44.143 Z0 F1500
G1 X93.374 Y43.253 Z0 F1500
G1 X93.448 Y42.833 Z0 F1500
G1 X93.502 Y42.461 Z0 F1500
G1 X93.533 Y42.159 Z0 F1500
G1 Y41.95 Z0 F1500
G1 X93.523 Y41.874 Z0 F1500
G1 X93.502 Y41.843 Z0 F1500
G1 X93.467 Y41.865 Z0 F1500
; --- FIX X Backlash ---
G0 X92.167 Y41.865 F1200
; --- FIX Y Backlash ---
G0 X92.167 Y43.165 F1200
G1 X92.112 Y43.249 Z0 F1500
G1 X92.034 Y43.404 Z0 F1500
G1 X91.928 Y43.637 Z0 F1500
G1 X91.787 Y43.958 Z0 F1500
G1 X91.61 Y44.374 Z0 F1500
G1 X91.086 Y45.565 Z0 F1500
G1 X90.558 Y46.682 Z0 F1500
G1 X90.018 Y47.736 Z0 F1500
G1 X89.46 Y48.74 Z0 F1500
G1 X88.875 Y49.706 Z0 F1500
G1 X88.257 Y50.646 Z0 F1500
G1 X87.599 Y51.573 Z0 F1500
G1 X86.894 Y52.498 Z0 F1500
G1 X86.261 Y53.303 Z0 F1500
G1 X86.221 Y53.317 Z0 F1500
G1 X86.149 Y53.306 Z0 F1500
G1 X86.049 Y53.271 Z0 F1500
; --- FIX Y Backlash ---
G0 X86.049 Y51.971 F1200
G1 X85.927 Y51.918 Z0 F1500
G1 X85.634 Y51.763 Z0 F1500
G1 X85.307 Y51.567 Z0 F1500
G1 X84.987 Y51.352 Z0 F1500
G1 X84.71 Y51.145 Z0 F1500
G1 X84.6 Y51.051 Z0 F1500
G1 X84.516 Y50.969 Z0 F1500
G1 X84.462 Y50.9 Z0 F1500
G1 X84.443 Y50.847 Z0 F1500
G1 X84.463 Y50.719 Z0 F1500
; --- FIX X Backlash ---
G0 X85.763 Y50.719 F1200
G1 X85.822 Y50.52 Z0 F1500
G1 X85.916 Y50.263 Z0 F1500
G1 X86.04 Y49.953 Z0 F1500
G1 X86.19 Y49.603 Z0 F1500
G1 X86.365 Y49.22 Z0 F1500
G1 X86.558 Y48.814 Z0 F1500
G1 X86.767 Y48.394 Z0 F1500
G1 X87.207 Y47.573 Z0 F1500
G1 X87.687 Y46.769 Z0 F1500
G1 X88.213 Y45.975 Z0 F1500
G1 X88.792 Y45.183 Z0 F1500
G1 X89.429 Y44.384 Z0 F1500
G1 X90.13 Y43.571 Z0 F1500
G1 X90.902 Y42.734 Z0 F1500
G1 X91.981 Y41.632 Z0 F1500
G1 X92.162 Y41.431 Z0 F1500
G1 X92.228 Y41.351 Z0 F1500
G1 X92.276 Y41.288 Z0 F1500
G1 X92.302 Y41.244 Z0 F1500
G1 X92.305 Y41.222 Z0 F1500
G1 X92.278 Y41.219 Z0 F1500
; --- FIX X Backlash ---
G0 X90.978 Y41.219 F1200
G1 X90.928 Y41.232 Z0 F1500
G1 X90.854 Y41.261 Z0 F1500
G1 X90.761 Y41.304 Z0 F1500
; --- FIX Y Backlash ---
G0 X90.761 Y42.604 F1200
G1 X90.525 Y42.728 Z0 F1500
G1 X90.239 Y42.891 Z0 F1500
G1 X89.601 Y43.289 Z0 F1500
G1 X89.006 Y43.702 Z0 F1500

; Color picking sequence
G1 Z10 F1000;         ; Raise brush
G0 X86 Y5 F1200;    ; Rapid move to color 1
G1 Z10 F1000;         ; Raise brush
G0 X86 Y5 F1200;    ; Rapid move to color 1
G1 Z0 F1000;         ; Lower into color
G1 X85.102 Y7.295 Z0 S800 F1200
G1 X85.026 Y7.642 Z0 F1200
G1 X85 Y8 Z0 F1200
G1 X85.026 Y8.358 Z0 F1200
G1 X85.102 Y8.705 Z0 F1200
G1 X85.225 Y9.041 Z0 F1200
G1 X85.393 Y9.362 Z0 F1200
G1 X85.603 Y9.668 Z0 F1200
G1 X85.854 Y9.957 Z0 F1200
G1 X86.142 Y10.226 Z0 F1200
G1 X86.464 Y10.475 Z0 F1200
G1 X86.82 Y10.701 Z0 F1200
G1 X87.204 Y10.902 Z0 F1200
G1 X87.617 Y11.078 Z0 F1200
G1 X88.054 Y11.225 Z0 F1200
G1 X88.513 Y11.343 Z0 F1200
G1 X88.992 Y11.429 Z0 F1200
G1 X89.489 Y11.482 Z0 F1200
G1 X90 Y11.5 Z0 F1200
G1 X90.511 Y11.482 Z0 F1200
G1 X91.008 Y11.429 Z0 F1200
G1 X91.487 Y11.343 Z0 F1200
G1 X91.946 Y11.225 Z0 F1200
G1 X92.383 Y11.078 Z0 F1200
G1 X92.796 Y10.902 Z0 F1200
G1 X93.18 Y10.701 Z0 F1200
G1 X93.536 Y10.475 Z0 F1200
G1 X93.858 Y10.226 Z0 F1200
G1 X94.146 Y9.957 Z0 F1200
G1 X94.397 Y9.668 Z0 F1200
G1 X94.607 Y9.362 Z0 F1200
G1 X94.775 Y9.041 Z0 F1200
G1 X94.898 Y8.705 Z0 F1200
G1 X94.974 Y8.358 Z0 F1200
G1 X95 Y8 Z0 F1200
G1 X94.974 Y7.642 Z0 F1200
G1 X94.898 Y7.295 Z0 F1200
G1 X94.775 Y6.959 Z0 F1200
G1 X94.607 Y6.638 Z0 F1200
G1 X94.397 Y6.332 Z0 F1200
G1 X94.146 Y6.043 Z0 F1200
G1 X93.858 Y5.774 Z0 F1200
G1 X93.536 Y5.525 Z0 F1200
G1 X93.18 Y5.299 Z0 F1200
G1 X92.796 Y5.098 Z0 F1200
G1 X92.383 Y4.922 Z0 F1200
G1 X91.946 Y4.775 Z0 F1200
G1 X91.487 Y4.657 Z0 F1200
G1 X91.008 Y4.571 Z0 F1200
G1 X90.511 Y4.518 Z0 F1200
G1 X90 Y4.5 Z0 F1200
G1 X89.489 Y4.518 Z0 F1200
G1 X88.992 Y4.571 Z0 F1200
G1 X88.513 Y4.657 Z0 F1200
G1 X88.054 Y4.775 Z0 F1200
G1 X87.617 Y4.922 Z0 F1200
G1 X87.204 Y5.098 Z0 F1200
G1 X86.82 Y5.299 Z0 F1200
G1 X86.464 Y5.525 Z0 F1200
G1 X86.142 Y5.774 Z0 F1200
G1 X85.854 Y6.043 Z0 F1200
G1 X85.603 Y6.332 Z0 F1200
G1 X85.393 Y6.638 Z0 F1200
G1 X85.225 Y6.959 Z0 F1200
G1 Z7 F800;         ; Raise from color
G1 X79 Y8 Z1 F1200;     ; Movement in paint
G1 X69 Y18 Z8 F500;     ; Move in paint
G1 F1200;           ; Set feed rate
G0 Z2.5 F1000 ; Safety Lift
G0 X89.006 Y43.702 F1200 ; Return
G1 Z0 F1000 ; Restore Z
G1 X88.66 Y43.977 Z0 F1500
G1 X88.269 Y44.313 Z0 F1500
G1 X87.862 Y44.683 Z0 F1500
G1 X87.466 Y45.058 Z0 F1500
G1 X87.113 Y45.409 Z0 F1500
G1 X86.829 Y45.709 Z0 F1500
G1 X86.723 Y45.832 Z0 F1500
G1 X86.646 Y45.931 Z0 F1500
G1 X86.601 Y46.002 Z0 F1500
G1 X86.591 Y46.044 Z0 F1500
G1 X86.594 Y46.115 Z0 F1500
G1 X86.543 Y46.133 Z0 F1500
G1 X86.476 Y46.164 Z0 F1500
G1 X86.362 Y46.263 Z0 F1500
G1 X86.216 Y46.414 Z0 F1500
G1 X86.054 Y46.602 Z0 F1500
G1 X85.707 Y47.048 Z0 F1500
G1 X85.37 Y47.523 Z0 F1500
G1 X85.047 Y48.022 Z0 F1500
G1 X84.741 Y48.538 Z0 F1500
G1 X84.455 Y49.065 Z0 F1500
G1 X84.193 Y49.599 Z0 F1500
G1 X83.958 Y50.131 Z0 F1500
G1 X83.753 Y50.658 Z0 F1500
G1 X83.492 Y51.38 Z0 F1500
; --- FIX Y Backlash ---
G0 X83.492 Y50.08 F1200
G1 X83.314 Y49.83 Z0 F1500
G1 X83.123 Y49.514 Z0 F1500
G1 X82.915 Y49.108 Z0 F1500
G1 X82.795 Y48.824 Z0 F1500

; Washing sequence (no color)
G1 Z10 F1000;        ; Raise brush
G0 X5 Y5 F1200;     ; Rapid move to clean
G1 Z0 F800;         ; Lower brush
G1 X10 Y12 Z8 F1200;     ; Move
G1 Z0 F800;         ; Lower
G1 X25 Y14 Z6 F800;     ; Move
G1 Z8 F800;         ; Maintain
G0 X5 Y5 F1200;     ; Rapid
G1 Z0 F800;         ; Lower
G1 X15 Y12 Z8 F1200;     ; Move
G1 Z0 F800;         ; Lower
G1 X25 Y14 Z6 F800;     ; Move
G1 Z10 F800;         ; Maintain
G1 F1200;           ; Set feed
G0 Z2.5 F1000 ; Safety Lift

; Color picking sequence
G1 Z10 F1000;         ; Raise brush
G0 X131 Y5 F1200;    ; Rapid move to color 1
G1 Z10 F1000;         ; Raise brush
G0 X131 Y5 F1200;    ; Rapid move to color 1
G1 Z0 F1000;         ; Lower into color
G1 X130.102 Y7.295 Z0 S800 F1200
G1 X130.026 Y7.642 Z0 F1200
G1 X130 Y8 Z0 F1200
G1 X130.026 Y8.358 Z0 F1200
G1 X130.102 Y8.705 Z0 F1200
G1 X130.225 Y9.041 Z0 F1200
G1 X130.393 Y9.362 Z0 F1200
G1 X130.603 Y9.668 Z0 F1200
G1 X130.854 Y9.957 Z0 F1200
G1 X131.142 Y10.226 Z0 F1200
G1 X131.464 Y10.475 Z0 F1200
G1 X131.82 Y10.701 Z0 F1200
G1 X132.204 Y10.902 Z0 F1200
G1 X132.617 Y11.078 Z0 F1200
G1 X133.054 Y11.225 Z0 F1200
G1 X133.513 Y11.343 Z0 F1200
G1 X133.992 Y11.429 Z0 F1200
G1 X134.489 Y11.482 Z0 F1200
G1 X135 Y11.5 Z0 F1200
G1 X135.511 Y11.482 Z0 F1200
G1 X136.008 Y11.429 Z0 F1200
G1 X136.487 Y11.343 Z0 F1200
G1 X136.946 Y11.225 Z0 F1200
G1 X137.383 Y11.078 Z0 F1200
G1 X137.796 Y10.902 Z0 F1200
G1 X138.18 Y10.701 Z0 F1200
G1 X138.536 Y10.475 Z0 F1200
G1 X138.858 Y10.226 Z0 F1200
G1 X139.146 Y9.957 Z0 F1200
G1 X139.397 Y9.668 Z0 F1200
G1 X139.607 Y9.362 Z0 F1200
G1 X139.775 Y9.041 Z0 F1200
G1 X139.898 Y8.705 Z0 F1200
G1 X139.974 Y8.358 Z0 F1200
G1 X140 Y8 Z0 F1200
G1 X139.974 Y7.642 Z0 F1200
G1 X139.898 Y7.295 Z0 F1200
G1 X139.775 Y6.959 Z0 F1200
G1 X139.607 Y6.638 Z0 F1200
G1 X139.397 Y6.332 Z0 F1200
G1 X139.146 Y6.043 Z0 F1200
G1 X138.858 Y5.774 Z0 F1200
G1 X138.536 Y5.525 Z0 F1200
G1 X138.18 Y5.299 Z0 F1200
G1 X137.796 Y5.098 Z0 F1200
G1 X137.383 Y4.922 Z0 F1200
G1 X136.946 Y4.775 Z0 F1200
G1 X136.487 Y4.657 Z0 F1200
G1 X136.008 Y4.571 Z0 F1200
G1 X135.511 Y4.518 Z0 F1200
G1 X135 Y4.5 Z0 F1200
G1 X134.489 Y4.518 Z0 F1200
G1 X133.992 Y4.571 Z0 F1200
G1 X133.513 Y4.657 Z0 F1200
G1 X133.054 Y4.775 Z0 F1200
G1 X132.617 Y4.922 Z0 F1200
G1 X132.204 Y5.098 Z0 F1200
G1 X131.82 Y5.299 Z0 F1200
G1 X131.464 Y5.525 Z0 F1200
G1 X131.142 Y5.774 Z0 F1200
G1 X130.854 Y6.043 Z0 F1200
G1 X130.603 Y6.332 Z0 F1200
G1 X130.393 Y6.638 Z0 F1200
G1 X130.225 Y6.959 Z0 F1200
G1 Z7 F800;         ; Raise from color
G1 X124 Y8 Z1 F1200;     ; Movement in paint
G1 X114 Y18 Z8 F500;     ; Move in paint
G1 F1200;           ; Set feed rate
G0 Z2.5 F1000 ; Safety Lift
;Cut @ 1500 mm/min, 80% power

M8
G0 Z3.5 F1000
; --- FIX Y Backlash ---
G0 X82.795 Y50.124 F1200
G0 X81.116 Y52.207 Z3.5
G1 Z0 F1000
;Layer C3
G1 X81.017 Y52.175 Z0 S800 F1500
G1 X80.889 Y52.137 Z0 F1500
; --- FIX Y Backlash ---
G0 X80.889 Y50.837 F1200
G1 X80.56 Y50.744 Z0 F1500
G1 X80.159 Y50.637 Z0 F1500
G1 X79.251 Y50.407 Z0 F1500
G1 X78.39 Y50.206 Z0 F1500
G1 X77.909 Y50.1 Z0 F1500
G1 X77.291 Y46.974 Z0 F1500
G1 X77.187 Y46.482 Z0 F1500
G1 X77.086 Y46.068 Z0 F1500
G1 X77.04 Y45.905 Z0 F1500
G1 X77 Y45.778 Z0 F1500
G1 X76.966 Y45.692 Z0 F1500
G1 X76.94 Y45.654 Z0 F1500
G1 X76.916 Y45.647 Z0 F1500
G1 X76.864 Y45.641 Z0 F1500
G1 X76.685 Y45.628 Z0 F1500
G1 X76.415 Y45.617 Z0 F1500
G1 X76.065 Y45.608 Z0 F1500
G1 X75.647 Y45.599 Z0 F1500
G1 X75.173 Y45.593 Z0 F1500
G1 X74.655 Y45.589 Z0 F1500
G1 X74.103 Z0 F1500
G1 X73.384 Z0 F1500
G1 X72.79 Y45.592 Z0 F1500
G1 X72.309 Y45.598 Z0 F1500
G1 X71.934 Y45.608 Z0 F1500
G1 X71.653 Y45.622 Z0 F1500
G1 X71.458 Y45.639 Z0 F1500
G1 X71.338 Y45.661 Z0 F1500
G1 X71.284 Y45.688 Z0 F1500
G1 X71.263 Y45.731 Z0 F1500
; --- FIX Y Backlash ---
G0 X71.263 Y47.031 F1200
G1 X71.234 Y47.114 Z0 F1500
G1 X71.2 Y47.233 Z0 F1500
G1 X71.161 Y47.382 Z0 F1500
G1 X71.074 Y47.753 Z0 F1500
G1 X70.984 Y48.187 Z0 F1500
G1 X70.888 Y48.668 Z0 F1500
G1 X70.737 Y49.403 Z0 F1500
G1 X70.552 Y50.276 Z0 F1500
G1 X70.492 Y50.578 Z0 F1500
G1 X70.442 Y50.849 Z0 F1500
G1 X70.409 Y51.052 Z0 F1500
G1 X70.392 Y51.192 Z0 F1500
G1 X70.374 Y51.295 Z0 F1500
G1 X70.336 Y51.369 Z0 F1500
G1 X70.261 Y51.424 Z0 F1500
G1 X70.129 Y51.47 Z0 F1500
G1 X69.924 Y51.514 Z0 F1500
G1 X69.787 Y51.539 Z0 F1500
G1 X69.026 Y51.666 Z0 F1500
G1 X68.877 Y51.688 Z0 F1500
G1 X68.76 Y51.7 Z0 F1500
G1 X68.672 Y51.703 Z0 F1500
G1 X68.553 Y51.678 Z0 F1500
; --- FIX Y Backlash ---
G0 X68.553 Y50.378 F1200
G1 X68.474 Y50.312 Z0 F1500
G1 X68.439 Y50.268 Z0 F1500
G1 X68.312 Y50.09 Z0 F1500
G1 X68.009 Y49.645 Z0 F1500
G1 X67.754 Y49.265 Z0 F1500
G1 X67.193 Y48.416 Z0 F1500
G1 X66.51 Y47.361 Z0 F1500
G1 X66.372 Y47.158 Z0 F1500
G1 X66.317 Y47.079 Z0 F1500
G1 X66.272 Y47.02 Z0 F1500
G1 X66.241 Y46.983 Z0 F1500
G1 X66.224 Y46.97 Z0 F1500
G1 X66.216 Y46.991 Z0 F1500
; --- FIX Y Backlash ---
G0 X66.216 Y48.291 F1200
G1 X66.208 Y48.351 Z0 F1500
G1 X66.201 Y48.447 Z0 F1500
G1 X66.195 Y48.574 Z0 F1500
G1 X66.185 Y48.903 Z0 F1500
G1 X66.179 Y49.62 Z0 F1500
G1 X66.173 Y49.878 Z0 F1500
G1 X66.161 Y50.092 Z0 F1500
G1 X66.141 Y50.277 Z0 F1500
G1 X66.072 Y50.608 Z0 F1500
G1 X65.951 Y50.978 Z0 F1500
G1 X65.723 Y51.614 Z0 F1500
; --- FIX X Backlash ---
G0 X67.023 Y51.614 F1200
G1 X68.85 Y54.344 Z0 F1500
G1 X69.401 Y55.161 Z0 F1500
G1 X69.828 Y55.785 Z0 F1500
G1 X70.034 Y56.081 Z0 F1500
G1 X70.105 Y56.178 Z0 F1500
G1 X70.119 Y56.194 Z0 F1500
G1 X70.181 Z0 F1500
G1 X70.312 Y56.175 Z0 F1500
G1 X70.49 Y56.136 Z0 F1500
; --- FIX Y Backlash ---
G0 X70.49 Y54.836 F1200
G1 X70.699 Y54.782 Z0 F1500
G1 X71.121 Y54.678 Z0 F1500
G1 X71.586 Y54.588 Z0 F1500
G1 X72.087 Y54.512 Z0 F1500
G1 X72.618 Y54.45 Z0 F1500
G1 X73.746 Y54.366 Z0 F1500
G1 X74.922 Y54.338 Z0 F1500
G1 X76.097 Y54.365 Z0 F1500
; --- FIX Y Backlash ---
G0 X76.097 Y55.665 F1200
G1 X77.224 Y55.747 Z0 F1500
G1 X77.754 Y55.809 Z0 F1500
G1 X78.253 Y55.885 Z0 F1500
G1 X78.716 Y55.974 Z0 F1500
G1 X79.137 Y56.077 Z0 F1500
G1 X79.378 Y56.143 Z0 F1500
G1 X79.564 Y56.19 Z0 F1500
G1 X79.705 Y56.218 Z0 F1500
G1 X79.807 Y56.228 Z0 F1500
G1 X79.933 Y56.191 Z0 F1500
; --- FIX Y Backlash ---
G0 X79.933 Y54.891 F1200
G1 X80.01 Y54.78 Z0 F1500
G1 X80.045 Y54.72 Z0 F1500
G1 X80.115 Y54.611 Z0 F1500
G1 X80.341 Y54.269 Z0 F1500
G1 X80.656 Y53.802 Z0 F1500
G1 X81.025 Y53.263 Z0 F1500
G1 X82.269 Y51.457 Z0 F1500
G1 X82.384 Y51.278 Z0 F1500
G1 X82.468 Y51.122 Z0 F1500
G1 X82.514 Y51.006 Z0 F1500
G1 Y50.947 Z0 F1500
G1 X82.482 Y50.931 Z0 F1500
; --- FIX X Backlash ---
G0 X81.182 Y50.931 F1200
G1 X81.116 Y50.907 Z0 F1500
G0 Z3.5 F1000
; --- FIX X Backlash ---
G0 X82.416 Y50.907 F1200
; --- FIX Y Backlash ---
G0 X82.416 Y52.207 F1200
G0 X89.31 Y56.087 Z3.5
G1 Z0 F1000
; --- FIX X Backlash ---
G0 X88.01 Y56.087 F1200
G1 X86.842 Y58.381 Z0 F1500
G1 X86.433 Y59.172 Z0 F1500
G1 X86.266 Y59.488 Z0 F1500
G1 X86.225 Y59.559 Z0 F1500
G1 X86.175 Y59.678 Z0 F1500
G1 X86.223 Y59.807 Z0 F1500
; --- FIX X Backlash ---
G0 X87.523 Y59.807 F1200
G1 X87.598 Y59.897 Z0 F1500
G1 X87.715 Y60.015 Z0 F1500
G1 X87.881 Y60.169 Z0 F1500
G1 X88.101 Y60.368 Z0 F1500
G1 X89.027 Y61.231 Z0 F1500
G1 X89.88 Y62.096 Z0 F1500
G1 X90.664 Y62.965 Z0 F1500
G1 X91.38 Y63.842 Z0 F1500
G1 X92.033 Y64.731 Z0 F1500
G1 X92.625 Y65.635 Z0 F1500
G1 X93.158 Y66.558 Z0 F1500
G1 X93.636 Y67.504 Z0 F1500
G1 X93.827 Y67.934 Z0 F1500
G1 X94.026 Y68.426 Z0 F1500
G1 X94.228 Y68.963 Z0 F1500
G1 X94.425 Y69.525 Z0 F1500
G1 X94.613 Y70.094 Z0 F1500
G1 X94.783 Y70.65 Z0 F1500
G1 X94.93 Y71.176 Z0 F1500
G1 X95.047 Y71.652 Z0 F1500
G1 X95.261 Y72.755 Z0 F1500
G1 X95.415 Y73.892 Z0 F1500
G1 X95.509 Y75.051 Z0 F1500
G1 X95.544 Y76.217 Z0 F1500
G1 X95.518 Y77.377 Z0 F1500
; --- FIX X Backlash ---
G0 X94.218 Y77.377 F1200
G1 X94.133 Y78.517 Z0 F1500
G1 X93.988 Y79.622 Z0 F1500
G1 X93.782 Y80.68 Z0 F1500
G1 X93.701 Y81.013 Z0 F1500
G1 X93.601 Y81.394 Z0 F1500
G1 X93.487 Y81.801 Z0 F1500
G1 X93.366 Y82.215 Z0 F1500
G1 X93.243 Y82.615 Z0 F1500
G1 X93.126 Y82.981 Z0 F1500
G1 X93.02 Y83.291 Z0 F1500
G1 X92.931 Y83.526 Z0 F1500
G1 X92.68 Y84.136 Z0 F1500
G1 X92.633 Y84.243 Z0 F1500
G1 X92.572 Y84.377 Z0 F1500
G1 X92.413 Y84.71 Z0 F1500
G1 X92.219 Y85.102 Z0 F1500
G1 X92.007 Y85.521 Z0 F1500
G1 X91.795 Y85.931 Z0 F1500
G1 X91.599 Y86.301 Z0 F1500
G1 X91.436 Y86.598 Z0 F1500
G1 X91.372 Y86.708 Z0 F1500
G1 X91.323 Y86.787 Z0 F1500
G1 X91.177 Y87.007 Z0 F1500
G1 X90.978 Y87.298 Z0 F1500
G1 X90.749 Y87.629 Z0 F1500
G1 X90.278 Y88.3 Z0 F1500
G1 X89.996 Y88.695 Z0 F1500
G1 X89.88 Y88.851 Z0 F1500
G1 X89.686 Y89.08 Z0 F1500
G1 X89.404 Y89.42 Z0 F1500
G1 X89.038 Y89.85 Z0 F1500
G1 X88.672 Y90.261 Z0 F1500
G1 X88.526 Y90.423 Z0 F1500
G1 X88.398 Y90.569 Z0 F1500
G1 X88.303 Y90.685 Z0 F1500
G1 X88.253 Y90.753 Z0 F1500
G1 X88.25 Y90.808 Z0 F1500
G1 X88.276 Y90.916 Z0 F1500
; --- FIX X Backlash ---
G0 X89.576 Y90.916 F1200
G1 X89.63 Y91.078 Z0 F1500
G1 X89.713 Y91.295 Z0 F1500
G1 X89.826 Y91.569 Z0 F1500
G1 X89.97 Y91.902 Z0 F1500
G1 X90.145 Y92.295 Z0 F1500
G1 X90.42 Y92.9 Z0 F1500
G1 X90.607 Y93.333 Z0 F1500
G1 X90.845 Y93.893 Z0 F1500
G1 X90.973 Y94.184 Z0 F1500
G1 X91.088 Y94.436 Z0 F1500
G1 X91.189 Y94.647 Z0 F1500
G1 X91.275 Y94.814 Z0 F1500
G1 X91.345 Y94.935 Z0 F1500
G1 X91.399 Y95.01 Z0 F1500
G1 X91.434 Y95.035 Z0 F1500
G1 X91.498 Y94.999 Z0 F1500
; --- FIX Y Backlash ---
G0 X91.498 Y93.699 F1200
G1 X91.622 Y93.603 Z0 F1500
G1 X91.788 Y93.459 Z0 F1500
G1 X91.978 Y93.284 Z0 F1500
G1 X92.793 Y92.51 Z0 F1500
; --- FIX Y Backlash ---
G0 X92.793 Y93.81 F1200
G1 X94.24 Y94.482 Z0 F1500
G1 X95.503 Y95.055 Z0 F1500
G1 X95.898 Y95.23 Z0 F1500
G1 X96.227 Y95.361 Z0 F1500
G1 X96.498 Y95.448 Z0 F1500
G1 X96.717 Y95.494 Z0 F1500
G1 X96.891 Y95.499 Z0 F1500
G1 X97.027 Y95.463 Z0 F1500
; --- FIX Y Backlash ---
G0 X97.027 Y94.163 F1200
G1 X97.132 Y94.088 Z0 F1500
G1 X97.213 Y93.975 Z0 F1500
G1 X97.246 Y93.922 Z0 F1500
G1 X97.31 Y93.826 Z0 F1500
G1 X97.522 Y93.52 Z0 F1500
G1 X97.824 Y93.09 Z0 F1500
G1 X98.195 Y92.569 Z0 F1500
G1 X99.045 Y91.385 Z0 F1500
G1 X99.884 Y90.232 Z0 F1500
G1 X100.078 Y89.956 Z0 F1500
G1 X100.236 Y89.708 Z0 F1500
G1 X100.297 Y89.602 Z0 F1500
G1 X100.343 Y89.513 Z0 F1500
G1 X100.372 Y89.445 Z0 F1500
G1 X100.382 Y89.4 Z0 F1500
G1 X100.342 Y89.299 Z0 F1500
; --- FIX X Backlash ---
G0 X99.042 Y89.299 F1200
G1 X98.933 Y89.134 Z0 F1500
G1 X98.772 Y88.931 Z0 F1500
G1 X98.574 Y88.71 Z0 F1500
G1 X97.375 Y87.44 Z0 F1500
G1 X96.845 Y86.874 Z0 F1500
G1 X96.649 Y86.659 Z0 F1500
G1 X96.493 Y86.484 Z0 F1500
G1 X96.374 Y86.343 Z0 F1500
G1 X96.286 Y86.23 Z0 F1500
G1 X96.226 Y86.141 Z0 F1500
G1 X96.189 Y86.071 Z0 F1500
G1 X96.172 Y86.014 Z0 F1500
G1 X96.18 Y85.922 Z0 F1500
; --- FIX X Backlash ---
G0 X97.48 Y85.922 F1200
G1 X97.572 Y85.667 Z0 F1500
G1 X97.663 Y85.435 Z0 F1500
G1 X97.776 Y85.159 Z0 F1500
G1 X98.182 Y84.19 Z0 F1500
G1 X98.554 Y83.267 Z0 F1500
G1 X98.655 Y83.037 Z0 F1500
G1 X98.739 Y82.864 Z0 F1500
G1 X98.796 Y82.772 Z0 F1500
G1 X98.846 Y82.745 Z0 F1500
G1 X98.949 Y82.72 Z0 F1500
G1 X99.11 Y82.699 Z0 F1500
G1 X99.335 Y82.679 Z0 F1500
G1 X99.63 Y82.662 Z0 F1500
G1 X100 Y82.646 Z0 F1500
G1 X100.452 Y82.631 Z0 F1500
G1 X101.609 Y82.601 Z0 F1500
G1 X102.097 Y82.585 Z0 F1500
G1 X102.473 Y82.569 Z0 F1500
G1 X102.753 Y82.551 Z0 F1500
G1 X102.953 Y82.529 Z0 F1500
G1 X103.088 Y82.501 Z0 F1500
G1 X103.176 Y82.468 Z0 F1500
G1 X103.232 Y82.427 Z0 F1500
G1 X103.299 Y82.315 Z0 F1500
G1 X103.37 Y82.116 Z0 F1500
G1 X103.442 Y81.848 Z0 F1500
G1 X103.507 Y81.525 Z0 F1500
G1 X103.618 Y80.913 Z0 F1500
G1 X103.752 Y80.193 Z0 F1500
G1 X104.164 Y78.034 Z0 F1500
G1 X104.242 Y77.596 Z0 F1500
G1 X104.298 Y77.217 Z0 F1500
G1 X104.317 Y77.063 Z0 F1500
G1 X104.328 Y76.938 Z0 F1500
G1 Y76.849 Z0 F1500
G1 X104.325 Y76.8 Z0 F1500
G1 X104.277 Y76.708 Z0 F1500
; --- FIX X Backlash ---
G0 X102.977 Y76.708 F1200
G1 X102.837 Y76.621 Z0 F1500
G1 X102.692 Y76.562 Z0 F1500
G1 X102.476 Y76.482 Z0 F1500
G1 X101.218 Y76.04 Z0 F1500
G1 X100.691 Y75.851 Z0 F1500
G1 X100.201 Y75.672 Z0 F1500
G1 X99.762 Y75.508 Z0 F1500
G1 X99.389 Y75.366 Z0 F1500
G1 X99.098 Y75.249 Z0 F1500
G1 X98.986 Y75.203 Z0 F1500
G1 X98.901 Y75.165 Z0 F1500
G1 X98.843 Y75.137 Z0 F1500
G1 X98.815 Y75.118 Z0 F1500
G1 X98.8 Y75.075 Z0 F1500
G1 X98.784 Y74.975 Z0 F1500
G1 X98.766 Y74.826 Z0 F1500
G1 X98.747 Y74.633 Z0 F1500
G1 X98.709 Y74.144 Z0 F1500
G1 X98.674 Y73.557 Z0 F1500
G1 X98.641 Y72.953 Z0 F1500
G1 X98.61 Y72.414 Z0 F1500
G1 X98.583 Y71.999 Z0 F1500
G1 X98.564 Y71.767 Z0 F1500
G1 X98.555 Y71.599 Z0 F1500
G1 X98.595 Y71.486 Z0 F1500
G1 X98.643 Y71.437 Z0 F1500
; --- FIX X Backlash ---
G0 X99.943 Y71.437 F1200
G1 X100.016 Y71.387 Z0 F1500
G1 X100.117 Y71.331 Z0 F1500
G1 X101.294 Y70.712 Z0 F1500
G1 X102.358 Y70.123 Z0 F1500
G1 X102.821 Y69.858 Z0 F1500
G1 X103.199 Y69.634 Z0 F1500
G1 X103.345 Y69.543 Z0 F1500
G1 X103.459 Y69.47 Z0 F1500
G1 X103.537 Y69.415 Z0 F1500
G1 X103.574 Y69.381 Z0 F1500
G1 X103.608 Y69.311 Z0 F1500
G1 X103.627 Y69.221 Z0 F1500
G1 X103.63 Y69.107 Z0 F1500
G1 X103.617 Y68.968 Z0 F1500
G1 X103.587 Y68.801 Z0 F1500
G1 X103.54 Y68.603 Z0 F1500
; --- FIX X Backlash ---
G0 X102.24 Y68.603 F1200
G1 X102.176 Y68.372 Z0 F1500
G1 X102.094 Y68.105 Z0 F1500
G1 X101.959 Y67.674 Z0 F1500
G1 X101.325 Y65.636 Z0 F1500
G1 X101.205 Y65.255 Z0 F1500
G1 X101.094 Y64.913 Z0 F1500
G1 X100.992 Y64.612 Z0 F1500
G1 X100.9 Y64.356 Z0 F1500
G1 X100.819 Y64.146 Z0 F1500
G1 X100.75 Y63.985 Z0 F1500
G1 X100.695 Y63.877 Z0 F1500
G1 X100.654 Y63.824 Z0 F1500
G1 X100.599 Y63.787 Z0 F1500
G1 X100.531 Y63.763 Z0 F1500
G1 X100.42 Y63.752 Z0 F1500
G1 X100.233 Y63.757 Z0 F1500
G1 X100.103 Y63.767 Z0 F1500
G1 X99.747 Y63.799 Z0 F1500
; --- FIX Y Backlash ---
G0 X99.747 Y65.099 F1200
G1 X99.239 Y65.153 Z0 F1500
G1 X97.171 Y65.381 Z0 F1500
G1 X96.94 Y65.403 Z0 F1500
G1 X96.746 Y65.418 Z0 F1500
G1 X96.585 Y65.422 Z0 F1500
G1 X96.452 Y65.417 Z0 F1500
G1 X96.342 Y65.401 Z0 F1500
; --- FIX Y Backlash ---
G0 X96.342 Y64.101 F1200
G1 X96.18 Y64.032 Z0 F1500
G1 X96.062 Y63.907 Z0 F1500
G1 X95.956 Y63.718 Z0 F1500
G1 X95.827 Y63.459 Z0 F1500
G1 X95.445 Y62.756 Z0 F1500
G1 X95.007 Y62.007 Z0 F1500
G1 X94.821 Y61.697 Z0 F1500
G1 X94.669 Y61.43 Z0 F1500
G1 X94.61 Y61.322 Z0 F1500
G1 X94.566 Y61.235 Z0 F1500
G1 X94.538 Y61.173 Z0 F1500
G1 X94.528 Y61.14 Z0 F1500
G1 X94.552 Y61.086 Z0 F1500
; --- FIX X Backlash ---
G0 X95.852 Y61.086 F1200
G1 X95.921 Y60.966 Z0 F1500
G1 X96.03 Y60.788 Z0 F1500
G1 X96.174 Y60.558 Z0 F1500
G1 X96.349 Y60.285 Z0 F1500
G1 X96.77 Y59.639 Z0 F1500
G1 X97.252 Y58.91 Z0 F1500

; Color picking sequence
G1 Z10 F1000;         ; Raise brush
G0 X131 Y5 F1200;    ; Rapid move to color 1
G1 Z10 F1000;         ; Raise brush
G0 X131 Y5 F1200;    ; Rapid move to color 1
G1 Z0 F1000;         ; Lower into color
G1 X130.102 Y7.295 Z0 S800 F1200
G1 X130.026 Y7.642 Z0 F1200
G1 X130 Y8 Z0 F1200
G1 X130.026 Y8.358 Z0 F1200
G1 X130.102 Y8.705 Z0 F1200
G1 X130.225 Y9.041 Z0 F1200
G1 X130.393 Y9.362 Z0 F1200
G1 X130.603 Y9.668 Z0 F1200
G1 X130.854 Y9.957 Z0 F1200
G1 X131.142 Y10.226 Z0 F1200
G1 X131.464 Y10.475 Z0 F1200
G1 X131.82 Y10.701 Z0 F1200
G1 X132.204 Y10.902 Z0 F1200
G1 X132.617 Y11.078 Z0 F1200
G1 X133.054 Y11.225 Z0 F1200
G1 X133.513 Y11.343 Z0 F1200
G1 X133.992 Y11.429 Z0 F1200
G1 X134.489 Y11.482 Z0 F1200
G1 X135 Y11.5 Z0 F1200
G1 X135.511 Y11.482 Z0 F1200
G1 X136.008 Y11.429 Z0 F1200
G1 X136.487 Y11.343 Z0 F1200
G1 X136.946 Y11.225 Z0 F1200
G1 X137.383 Y11.078 Z0 F1200
G1 X137.796 Y10.902 Z0 F1200
G1 X138.18 Y10.701 Z0 F1200
G1 X138.536 Y10.475 Z0 F1200
G1 X138.858 Y10.226 Z0 F1200
G1 X139.146 Y9.957 Z0 F1200
G1 X139.397 Y9.668 Z0 F1200
G1 X139.607 Y9.362 Z0 F1200
G1 X139.775 Y9.041 Z0 F1200
G1 X139.898 Y8.705 Z0 F1200
G1 X139.974 Y8.358 Z0 F1200
G1 X140 Y8 Z0 F1200
G1 X139.974 Y7.642 Z0 F1200
G1 X139.898 Y7.295 Z0 F1200
G1 X139.775 Y6.959 Z0 F1200
G1 X139.607 Y6.638 Z0 F1200
G1 X139.397 Y6.332 Z0 F1200
G1 X139.146 Y6.043 Z0 F1200
G1 X138.858 Y5.774 Z0 F1200
G1 X138.536 Y5.525 Z0 F1200
G1 X138.18 Y5.299 Z0 F1200
G1 X137.796 Y5.098 Z0 F1200
G1 X137.383 Y4.922 Z0 F1200
G1 X136.946 Y4.775 Z0 F1200
G1 X136.487 Y4.657 Z0 F1200
G1 X136.008 Y4.571 Z0 F1200
G1 X135.511 Y4.518 Z0 F1200
G1 X135 Y4.5 Z0 F1200
G1 X134.489 Y4.518 Z0 F1200
G1 X133.992 Y4.571 Z0 F1200
G1 X133.513 Y4.657 Z0 F1200
G1 X133.054 Y4.775 Z0 F1200
G1 X132.617 Y4.922 Z0 F1200
G1 X132.204 Y5.098 Z0 F1200
G1 X131.82 Y5.299 Z0 F1200
G1 X131.464 Y5.525 Z0 F1200
G1 X131.142 Y5.774 Z0 F1200
G1 X130.854 Y6.043 Z0 F1200
G1 X130.603 Y6.332 Z0 F1200
G1 X130.393 Y6.638 Z0 F1200
G1 X130.225 Y6.959 Z0 F1200
G1 Z7 F800;         ; Raise from color
G1 X124 Y8 Z1 F1200;     ; Movement in paint
G1 X114 Y18 Z8 F500;     ; Move in paint
G1 F1200;           ; Set feed rate
G0 Z2.5 F1000 ; Safety Lift
G0 X97.252 Y58.91 F1200 ; Return
G1 Z0 F1000 ; Restore Z
G1 X97.476 Y58.562 Z0 F1500
G1 X97.677 Y58.243 Z0 F1500
G1 X97.85 Y57.96 Z0 F1500
G1 X97.991 Y57.72 Z0 F1500
G1 X98.097 Y57.529 Z0 F1500
G1 X98.163 Y57.393 Z0 F1500
G1 X98.187 Y57.319 Z0 F1500
G1 X98.171 Y57.257 Z0 F1500
G1 X98.124 Y57.169 Z0 F1500
; --- FIX X Backlash ---
G0 X96.824 Y57.169 F1200
G1 X96.745 Y57.053 Z0 F1500
G1 X96.631 Y56.909 Z0 F1500
G1 X96.483 Y56.735 Z0 F1500
G1 X96.297 Y56.529 Z0 F1500
G1 X96.074 Y56.289 Z0 F1500
G1 X95.811 Y56.014 Z0 F1500
G1 X94.771 Y54.94 Z0 F1500
G1 X94.227 Y54.383 Z0 F1500
G1 X93.79 Y53.943 Z0 F1500
G1 X93.45 Y53.61 Z0 F1500
G1 X93.314 Y53.481 Z0 F1500
G1 X93.199 Y53.375 Z0 F1500
G1 X93.104 Y53.291 Z0 F1500
G1 X92.966 Y53.184 Z0 F1500
G1 X92.893 Y53.15 Z0 F1500
G1 X92.831 Y53.175 Z0 F1500
; --- FIX Y Backlash ---
G0 X92.831 Y54.475 F1200
G1 X92.701 Y54.547 Z0 F1500
G1 X92.51 Y54.66 Z0 F1500
G1 X92.267 Y54.811 Z0 F1500
G1 X91.979 Y54.993 Z0 F1500
G1 X91.656 Y55.201 Z0 F1500
G1 X91.304 Y55.431 Z0 F1500
G1 X90.932 Y55.678 Z0 F1500
G1 X89.092 Y56.906 Z0 F1500
; --- FIX Y Backlash ---
G0 X89.092 Y55.606 F1200
G1 X88.01 Y54.787 Z0 F1500
G0 Z3.5 F1000
; --- FIX Y Backlash ---
G0 X88.01 Y56.087 F1200
G0 X61.263 Y59.737 Z3.5
G1 Z0 F1000
; --- FIX Y Backlash ---
G0 X61.263 Y58.437 F1200
G1 X61.235 Y58.362 Z0 F1500
G1 X61.158 Y58.204 Z0 F1500
G1 X61.045 Y57.986 Z0 F1500
G1 X60.606 Y57.176 Z0 F1500
G1 X60.217 Y56.443 Z0 F1500
G1 X59.534 Y55.141 Z0 F1500
G1 X59.399 Y54.887 Z0 F1500
G1 X59.342 Y54.785 Z0 F1500
G1 X59.298 Y54.802 Z0 F1500
; --- FIX Y Backlash ---
G0 X59.298 Y56.102 F1200
G1 X59.197 Y56.17 Z0 F1500
G1 X59.055 Y56.278 Z0 F1500
G1 X58.711 Y56.562 Z0 F1500
G1 X58.553 Y56.691 Z0 F1500
G1 X58.428 Y56.788 Z0 F1500
G1 X58.354 Y56.84 Z0 F1500
G1 X58.314 Y56.835 Z0 F1500
G1 X58.232 Y56.802 Z0 F1500
; --- FIX Y Backlash ---
G0 X58.232 Y55.502 F1200
G1 X58.114 Y55.442 Z0 F1500
G1 X57.963 Y55.358 Z0 F1500
G1 X57.581 Y55.132 Z0 F1500
G1 X57.121 Y54.846 Z0 F1500
G1 X56.619 Y54.522 Z0 F1500
G1 X56.11 Y54.182 Z0 F1500
G1 X55.629 Y53.849 Z0 F1500
G1 X55.013 Y53.402 Z0 F1500
G1 X54.845 Y53.298 Z0 F1500
G1 X54.701 Y53.234 Z0 F1500
G1 X54.573 Y53.21 Z0 F1500
G1 X54.451 Y53.225 Z0 F1500
; --- FIX Y Backlash ---
G0 X54.451 Y54.525 F1200
G1 X54.327 Y54.58 Z0 F1500
G1 X54.194 Y54.673 Z0 F1500
G1 X54.042 Y54.805 Z0 F1500
G1 X53.936 Y54.907 Z0 F1500
G1 X53.772 Y55.069 Z0 F1500
G1 X53.308 Y55.538 Z0 F1500
G1 X52.714 Y56.147 Z0 F1500
G1 X52.055 Y56.829 Z0 F1500
G1 X51.59 Y57.315 Z0 F1500
G1 X51.222 Y57.705 Z0 F1500
G1 X50.941 Y58.011 Z0 F1500
G1 X50.83 Y58.136 Z0 F1500
G1 X50.737 Y58.244 Z0 F1500
G1 X50.601 Y58.417 Z0 F1500
G1 X50.521 Y58.541 Z0 F1500
G1 X50.488 Y58.63 Z0 F1500
G1 X50.491 Y58.695 Z0 F1500
G1 X50.514 Y58.749 Z0 F1500
G1 X50.558 Y58.832 Z0 F1500
; --- FIX X Backlash ---
G0 X51.858 Y58.832 F1200
G1 X51.919 Y58.941 Z0 F1500
G1 X51.996 Y59.071 Z0 F1500
G1 X52.186 Y59.38 Z0 F1500
G1 X52.407 Y59.724 Z0 F1500
G1 X52.624 Y60.055 Z0 F1500
G1 X52.87 Y60.438 Z0 F1500
G1 X52.954 Y60.575 Z0 F1500
G1 X52.978 Y60.621 Z0 F1500
G1 X53.07 Y60.765 Z0 F1500
G1 X53.337 Y61.168 Z0 F1500
G1 X54.181 Y62.412 Z0 F1500
; --- FIX X Backlash ---
G0 X52.881 Y62.412 F1200
G1 X52.538 Y62.937 Z0 F1500
G1 X52.458 Y63.063 Z0 F1500
G1 X52.363 Y63.218 Z0 F1500
G1 X52.14 Y63.596 Z0 F1500
G1 X51.898 Y64.022 Z0 F1500
G1 X51.525 Y64.702 Z0 F1500
G1 X51.405 Y64.914 Z0 F1500
G1 X51.302 Y65.085 Z0 F1500
G1 X51.215 Y65.217 Z0 F1500
G1 X51.141 Y65.315 Z0 F1500
G1 X51.078 Y65.38 Z0 F1500
G1 X51.023 Y65.417 Z0 F1500
G1 X50.974 Y65.429 Z0 F1500
G1 X50.901 Y65.425 Z0 F1500
G1 X50.544 Y65.395 Z0 F1500
; --- FIX Y Backlash ---
G0 X50.544 Y64.095 F1200
G1 X49.965 Y64.04 Z0 F1500
G1 X48.402 Y63.884 Z0 F1500
G1 X48.01 Y63.848 Z0 F1500
G1 X47.662 Y63.819 Z0 F1500
G1 X47.361 Y63.798 Z0 F1500
G1 X47.112 Y63.784 Z0 F1500
G1 X46.92 Y63.779 Z0 F1500
G1 X46.79 Y63.782 Z0 F1500
G1 X46.727 Y63.794 Z0 F1500
; --- FIX Y Backlash ---
G0 X46.727 Y65.094 F1200
G1 X46.675 Y65.149 Z0 F1500
G1 X46.609 Y65.268 Z0 F1500
G1 X46.528 Y65.457 Z0 F1500
G1 X46.43 Y65.722 Z0 F1500
G1 X46.312 Y66.069 Z0 F1500
G1 X46.172 Y66.504 Z0 F1500
G1 X46.092 Y66.757 Z0 F1500
G1 X45.915 Y67.338 Z0 F1500
G1 X45.7 Y68.049 Z0 F1500
G1 X45.478 Y68.764 Z0 F1500
G1 X45.303 Y69.309 Z0 F1500
G1 X45.219 Y69.587 Z0 F1500
G1 X45.148 Y69.84 Z0 F1500
G1 X45.092 Y70.063 Z0 F1500
G1 X45.05 Y70.252 Z0 F1500
G1 X45.024 Y70.405 Z0 F1500
G1 X45.014 Y70.518 Z0 F1500
G1 X45.023 Y70.586 Z0 F1500
G1 X45.049 Y70.63 Z0 F1500
; --- FIX X Backlash ---
G0 X46.349 Y70.63 F1200
G1 X46.4 Y70.683 Z0 F1500
G1 X46.473 Y70.747 Z0 F1500
G1 X46.57 Y70.821 Z0 F1500
G1 X46.83 Y70.996 Z0 F1500
G1 X47.178 Y71.208 Z0 F1500
G1 X47.61 Y71.455 Z0 F1500
G1 X48.123 Y71.734 Z0 F1500
G1 X48.713 Y72.045 Z0 F1500
G1 X49.379 Y72.385 Z0 F1500
G1 X50.143 Y72.77 Z0 F1500
; --- FIX X Backlash ---
G0 X48.843 Y72.77 F1200
G1 X48.725 Y74.747 Z0 F1500
G1 X48.678 Y75.461 Z0 F1500
G1 X48.652 Y75.818 Z0 F1500
G1 X48.629 Y76.087 Z0 F1500
G1 X48.609 Y76.275 Z0 F1500
G1 X48.591 Y76.389 Z0 F1500
G1 X48.575 Y76.435 Z0 F1500
G1 X48.54 Y76.455 Z0 F1500
G1 X48.461 Y76.489 Z0 F1500
G1 X48.192 Y76.597 Z0 F1500
G1 X47.806 Y76.745 Z0 F1500
G1 X47.34 Y76.919 Z0 F1500
G1 X46.831 Y77.105 Z0 F1500
G1 X46.318 Y77.289 Z0 F1500
G1 X45.838 Y77.458 Z0 F1500
G1 X45.427 Y77.597 Z0 F1500
G1 X45.078 Y77.721 Z0 F1500
G1 X44.775 Y77.842 Z0 F1500
G1 X44.652 Y77.898 Z0 F1500
G1 X44.552 Y77.948 Z0 F1500
G1 X44.481 Y77.99 Z0 F1500
G1 X44.441 Y78.023 Z0 F1500
G1 X44.403 Y78.089 Z0 F1500
G1 X44.378 Y78.18 Z0 F1500
G1 X44.37 Y78.307 Z0 F1500
G1 X44.377 Y78.481 Z0 F1500
G1 X44.402 Y78.712 Z0 F1500
G1 X44.445 Y79.013 Z0 F1500
; --- FIX X Backlash ---
G0 X45.745 Y79.013 F1200
G1 X45.808 Y79.394 Z0 F1500
G1 X46.3 Y82.184 Z0 F1500
G1 X46.362 Y82.526 Z0 F1500
G1 X46.419 Y82.824 Z0 F1500
G1 X46.473 Y83.079 Z0 F1500
G1 X46.523 Y83.292 Z0 F1500
G1 X46.569 Y83.464 Z0 F1500
G1 X46.612 Y83.596 Z0 F1500
G1 X46.651 Y83.688 Z0 F1500
G1 X46.688 Y83.741 Z0 F1500
G1 X46.742 Y83.779 Z0 F1500
G1 X46.828 Y83.81 Z0 F1500
G1 X46.956 Y83.836 Z0 F1500
G1 X47.138 Y83.858 Z0 F1500
G1 X47.387 Y83.876 Z0 F1500
G1 X47.715 Y83.892 Z0 F1500
G1 X48.134 Y83.908 Z0 F1500
G1 X48.655 Y83.923 Z0 F1500
G1 X50.047 Y83.958 Z0 F1500
G1 X50.549 Y83.969 Z0 F1500
G1 X50.825 Y83.973 Z0 F1500
G1 X51.024 Y83.981 Z0 F1500
G1 X51.144 Y84.033 Z0 F1500
G1 X51.189 Y84.088 Z0 F1500
G1 X51.233 Y84.172 Z0 F1500
G1 X51.281 Y84.287 Z0 F1500
G1 X51.494 Y84.843 Z0 F1500
G1 X51.622 Y85.153 Z0 F1500
G1 X51.979 Y85.987 Z0 F1500
G1 X52.571 Y87.39 Z0 F1500
; --- FIX X Backlash ---
G0 X51.271 Y87.39 F1200
G1 X50.269 Y88.465 Z0 F1500
G1 X49.434 Y89.356 Z0 F1500
G1 X48.836 Y89.989 Z0 F1500
G1 X48.665 Y90.178 Z0 F1500
G1 X48.519 Y90.36 Z0 F1500
G1 X48.412 Y90.514 Z0 F1500
G1 X48.36 Y90.62 Z0 F1500
G1 X48.344 Y90.698 Z0 F1500
G1 X48.352 Y90.784 Z0 F1500
G1 X48.402 Y90.908 Z0 F1500
; --- FIX X Backlash ---
G0 X49.702 Y90.908 F1200
G1 X49.811 Y91.099 Z0 F1500
G1 X49.894 Y91.229 Z0 F1500
G1 X49.999 Y91.387 Z0 F1500
G1 X50.284 Y91.801 Z0 F1500
G1 X50.684 Y92.372 Z0 F1500
G1 X51.737 Y93.865 Z0 F1500
G1 X52.528 Y94.994 Z0 F1500
G1 X52.703 Y95.247 Z0 F1500
G1 X52.799 Y95.376 Z0 F1500
G1 X52.9 Y95.466 Z0 F1500
G1 X53.015 Y95.517 Z0 F1500
G1 X53.157 Y95.528 Z0 F1500
G1 X53.338 Y95.497 Z0 F1500
; --- FIX Y Backlash ---
G0 X53.338 Y94.197 F1200
G1 X53.568 Y94.125 Z0 F1500
G1 X53.861 Y94.011 Z0 F1500
G1 X54.226 Y93.853 Z0 F1500
G1 X54.66 Y93.66 Z0 F1500
G1 X55.138 Y93.445 Z0 F1500
G1 X55.673 Y93.201 Z0 F1500
G1 X57.198 Y92.501 Z0 F1500
; --- FIX Y Backlash ---
G0 X57.198 Y93.801 F1200
G1 X57.502 Y94.064 Z0 F1500
G1 X57.823 Y94.353 Z0 F1500
G1 X58.315 Y94.818 Z0 F1500
G1 X58.444 Y94.931 Z0 F1500
G1 X58.543 Y95.007 Z0 F1500
G1 X58.597 Y95.035 Z0 F1500
; --- FIX Y Backlash ---
G0 X58.597 Y93.735 F1200
G1 X58.668 Y93.669 Z0 F1500
G1 X58.747 Y93.511 Z0 F1500
G1 X58.862 Y93.234 Z0 F1500
G1 X59.022 Y92.881 Z0 F1500
G1 X59.469 Y91.912 Z0 F1500
G1 X59.924 Y90.909 Z0 F1500
G1 X60.301 Y90.064 Z0 F1500
G1 X60.394 Y89.843 Z0 F1500
G1 X60.441 Y89.672 Z0 F1500
G1 X60.438 Y89.527 Z0 F1500
; --- FIX X Backlash ---
G0 X59.138 Y89.527 F1200
G1 X59.079 Y89.382 Z0 F1500
G1 X58.959 Y89.215 Z0 F1500
G1 X58.875 Y89.115 Z0 F1500
G1 X58.515 Y88.714 Z0 F1500
G1 X57.947 Y88.057 Z0 F1500
G1 X57.413 Y87.397 Z0 F1500
G1 X56.913 Y86.732 Z0 F1500
G1 X56.446 Y86.062 Z0 F1500
G1 X56.011 Y85.385 Z0 F1500
G1 X55.608 Y84.699 Z0 F1500
G1 X55.236 Y84.005 Z0 F1500
G1 X54.895 Y83.299 Z0 F1500
G1 X54.584 Y82.582 Z0 F1500
G1 X54.303 Y81.851 Z0 F1500
G1 X54.051 Y81.106 Z0 F1500
G1 X53.827 Y80.345 Z0 F1500
G1 X53.631 Y79.568 Z0 F1500
G1 X53.463 Y78.772 Z0 F1500
G1 X53.321 Y77.957 Z0 F1500
G1 X53.206 Y77.121 Z0 F1500
G1 X53.181 Y76.872 Z0 F1500
G1 X53.161 Y76.586 Z0 F1500
G1 X53.147 Y76.269 Z0 F1500
G1 X53.138 Y75.925 Z0 F1500
G1 X53.134 Y75.179 Z0 F1500
G1 X53.149 Y74.388 Z0 F1500
G1 X53.181 Y73.595 Z0 F1500
G1 X53.23 Y72.84 Z0 F1500
G1 X53.26 Y72.49 Z0 F1500
G1 X53.293 Y72.166 Z0 F1500
G1 X53.33 Y71.871 Z0 F1500
G1 X53.37 Y71.613 Z0 F1500
; --- FIX X Backlash ---
G0 X54.67 Y71.613 F1200
G1 X54.924 Y70.355 Z0 F1500
G1 X55.239 Y69.146 Z0 F1500
G1 X55.618 Y67.982 Z0 F1500
G1 X56.062 Y66.854 Z0 F1500
G1 X56.576 Y65.759 Z0 F1500
G1 X57.161 Y64.689 Z0 F1500
G1 X57.82 Y63.639 Z0 F1500
G1 X58.556 Y62.603 Z0 F1500
G1 X58.702 Y62.415 Z0 F1500
G1 X58.878 Y62.2 Z0 F1500
G1 X59.08 Y61.963 Z0 F1500
G1 X59.304 Y61.708 Z0 F1500
G1 X59.8 Y61.16 Z0 F1500
G1 X60.334 Y60.592 Z0 F1500
G1 X60.871 Y60.037 Z0 F1500
G1 X61.379 Y59.532 Z0 F1500
G1 X61.612 Y59.308 Z0 F1500
G1 X61.826 Y59.11 Z0 F1500
G1 X62.015 Y58.941 Z0 F1500
G1 X62.327 Y58.682 Z0 F1500
G1 X62.449 Y58.571 Z0 F1500
G1 X62.532 Y58.485 Z0 F1500
G1 X62.563 Y58.437 Z0 F1500
G0 Z3.5 F1000

; Color picking sequence
G1 Z10 F1000;         ; Raise brush
G0 X131 Y5 F1200;    ; Rapid move to color 1
G1 Z10 F1000;         ; Raise brush
G0 X131 Y5 F1200;    ; Rapid move to color 1
G1 Z0 F1000;         ; Lower into color
G1 X130.102 Y7.295 Z0 S800 F1200
G1 X130.026 Y7.642 Z0 F1200
G1 X130 Y8 Z0 F1200
G1 X130.026 Y8.358 Z0 F1200
G1 X130.102 Y8.705 Z0 F1200
G1 X130.225 Y9.041 Z0 F1200
G1 X130.393 Y9.362 Z0 F1200
G1 X130.603 Y9.668 Z0 F1200
G1 X130.854 Y9.957 Z0 F1200
G1 X131.142 Y10.226 Z0 F1200
G1 X131.464 Y10.475 Z0 F1200
G1 X131.82 Y10.701 Z0 F1200
G1 X132.204 Y10.902 Z0 F1200
G1 X132.617 Y11.078 Z0 F1200
G1 X133.054 Y11.225 Z0 F1200
G1 X133.513 Y11.343 Z0 F1200
G1 X133.992 Y11.429 Z0 F1200
G1 X134.489 Y11.482 Z0 F1200
G1 X135 Y11.5 Z0 F1200
G1 X135.511 Y11.482 Z0 F1200
G1 X136.008 Y11.429 Z0 F1200
G1 X136.487 Y11.343 Z0 F1200
G1 X136.946 Y11.225 Z0 F1200
G1 X137.383 Y11.078 Z0 F1200
G1 X137.796 Y10.902 Z0 F1200
G1 X138.18 Y10.701 Z0 F1200
G1 X138.536 Y10.475 Z0 F1200
G1 X138.858 Y10.226 Z0 F1200
G1 X139.146 Y9.957 Z0 F1200
G1 X139.397 Y9.668 Z0 F1200
G1 X139.607 Y9.362 Z0 F1200
G1 X139.775 Y9.041 Z0 F1200
G1 X139.898 Y8.705 Z0 F1200
G1 X139.974 Y8.358 Z0 F1200
G1 X140 Y8 Z0 F1200
G1 X139.974 Y7.642 Z0 F1200
G1 X139.898 Y7.295 Z0 F1200
G1 X139.775 Y6.959 Z0 F1200
G1 X139.607 Y6.638 Z0 F1200
G1 X139.397 Y6.332 Z0 F1200
G1 X139.146 Y6.043 Z0 F1200
G1 X138.858 Y5.774 Z0 F1200
G1 X138.536 Y5.525 Z0 F1200
G1 X138.18 Y5.299 Z0 F1200
G1 X137.796 Y5.098 Z0 F1200
G1 X137.383 Y4.922 Z0 F1200
G1 X136.946 Y4.775 Z0 F1200
G1 X136.487 Y4.657 Z0 F1200
G1 X136.008 Y4.571 Z0 F1200
G1 X135.511 Y4.518 Z0 F1200
G1 X135 Y4.5 Z0 F1200
G1 X134.489 Y4.518 Z0 F1200
G1 X133.992 Y4.571 Z0 F1200
G1 X133.513 Y4.657 Z0 F1200
G1 X133.054 Y4.775 Z0 F1200
G1 X132.617 Y4.922 Z0 F1200
G1 X132.204 Y5.098 Z0 F1200
G1 X131.82 Y5.299 Z0 F1200
G1 X131.464 Y5.525 Z0 F1200
G1 X131.142 Y5.774 Z0 F1200
G1 X130.854 Y6.043 Z0 F1200
G1 X130.603 Y6.332 Z0 F1200
G1 X130.393 Y6.638 Z0 F1200
G1 X130.225 Y6.959 Z0 F1200
G1 Z7 F800;         ; Raise from color
G1 X124 Y8 Z1 F1200;     ; Movement in paint
G1 X114 Y18 Z8 F500;     ; Move in paint
G1 F1200;           ; Set feed rate
G0 Z2.5 F1000 ; Safety Lift
G0 X62.563 Y58.437 F1200 ; Return to pos
; --- FIX Y Backlash ---
G0 X62.563 Y59.737 F1200
G0 X66.237 Y94.71 Z3.5
G1 Z0 F1000
G1 X66.214 Y94.725 Z0 F1500
G1 X66.172 Y94.769 Z0 F1500
; --- FIX X Backlash ---
G0 X64.872 Y94.769 F1200
G1 X64.814 Y94.839 Z0 F1500
G1 X64.743 Y94.931 Z0 F1500
G1 X64.568 Y95.17 Z0 F1500
G1 X64.365 Y95.462 Z0 F1500
G1 X64.156 Y95.77 Z0 F1500
G1 X63.878 Y96.175 Z0 F1500
G1 X63.655 Y96.491 Z0 F1500
G1 X63.106 Y97.287 Z0 F1500
G1 X62.001 Y98.905 Z0 F1500
G1 X61.261 Y99.981 Z0 F1500
G1 X60.389 Y101.239 Z0 F1500
G1 X60.164 Y101.576 Z0 F1500
G1 X60.079 Y101.707 Z0 F1500
G1 X60.017 Y101.807 Z0 F1500
G1 X59.98 Y101.873 Z0 F1500
G1 X59.972 Y101.9 Z0 F1500
; --- FIX X Backlash ---
G0 X61.272 Y101.9 F1200
G1 X61.338 Y101.945 Z0 F1500
G1 X61.458 Y102.013 Z0 F1500
G1 X61.625 Y102.102 Z0 F1500
G1 X61.829 Y102.207 Z0 F1500
G1 X62.323 Y102.452 Z0 F1500
G1 X62.877 Y102.719 Z0 F1500
G1 X63.429 Y102.978 Z0 F1500
G1 X63.917 Y103.2 Z0 F1500
G1 X64.118 Y103.287 Z0 F1500
G1 X64.28 Y103.354 Z0 F1500
G1 X64.394 Y103.397 Z0 F1500
G1 X64.454 Y103.412 Z0 F1500
G1 X64.576 Y103.389 Z0 F1500
; --- FIX Y Backlash ---
G0 X64.576 Y102.089 F1200
G1 X64.704 Y102.007 Z0 F1500
G1 X64.776 Y101.939 Z0 F1500
G1 X64.857 Y101.851 Z0 F1500
G1 X64.949 Y101.74 Z0 F1500
G1 X65.427 Y101.125 Z0 F1500
G1 X66.145 Y100.234 Z0 F1500
G1 X66.729 Y99.483 Z0 F1500
G1 X66.89 Y99.28 Z0 F1500
G1 X67.017 Y99.124 Z0 F1500
G1 X67.2 Y98.913 Z0 F1500
G1 X67.315 Y98.762 Z0 F1500
G1 X67.385 Y98.676 Z0 F1500
G1 X67.453 Y98.637 Z0 F1500
G1 X67.539 Y98.641 Z0 F1500
; --- FIX Y Backlash ---
G0 X67.539 Y99.941 F1200
G1 X67.883 Y100.057 Z0 F1500
G1 X68.193 Y100.148 Z0 F1500
G1 X68.564 Y100.246 Z0 F1500
G1 X68.968 Y100.345 Z0 F1500
G1 X69.375 Y100.438 Z0 F1500
G1 X69.757 Y100.519 Z0 F1500
G1 X70.086 Y100.58 Z0 F1500
G1 X70.334 Y100.616 Z0 F1500
G1 X70.586 Y100.649 Z0 F1500
G1 X70.764 Y100.691 Z0 F1500
G1 X70.879 Y100.745 Z0 F1500
G1 X70.944 Y100.817 Z0 F1500
G1 X70.968 Y100.888 Z0 F1500
G1 X71.006 Y101.033 Z0 F1500
G1 X71.056 Y101.243 Z0 F1500
G1 X71.117 Y101.511 Z0 F1500
G1 X71.185 Y101.826 Z0 F1500
G1 X71.34 Y102.565 Z0 F1500
G1 X71.509 Y103.406 Z0 F1500
G1 X71.593 Y103.8 Z0 F1500
G1 X71.67 Y104.149 Z0 F1500
G1 X71.74 Y104.447 Z0 F1500
G1 X71.803 Y104.692 Z0 F1500
G1 X71.856 Y104.876 Z0 F1500
G1 X71.898 Y104.997 Z0 F1500
G1 X71.929 Y105.049 Z0 F1500
G1 X71.955 Y105.056 Z0 F1500
G1 X72.011 Y105.062 Z0 F1500
G1 X72.094 Y105.069 Z0 F1500
G1 X72.204 Y105.075 Z0 F1500
G1 X72.495 Y105.087 Z0 F1500
G1 X72.872 Y105.098 Z0 F1500
G1 X73.321 Y105.106 Z0 F1500
G1 X73.832 Y105.113 Z0 F1500
G1 X74.39 Y105.117 Z0 F1500
G1 X74.985 Z0 F1500
G1 X77.931 Y105.12 Z0 F1500
; --- FIX Y Backlash ---
G0 X77.931 Y103.82 F1200
G1 X78.05 Y103.637 Z0 F1500
G1 X78.107 Y103.508 Z0 F1500
G1 X78.175 Y103.293 Z0 F1500
G1 X78.244 Y103.021 Z0 F1500
G1 X78.306 Y102.722 Z0 F1500
G1 X78.591 Y101.253 Z0 F1500
G1 X78.962 Y99.392 Z0 F1500
G1 X79.689 Y99.29 Z0 F1500
G1 X80.054 Y99.229 Z0 F1500
G1 X80.511 Y99.137 Z0 F1500
G1 X81.003 Y99.028 Z0 F1500
G1 X81.469 Y98.912 Z0 F1500
G1 X82.523 Y98.636 Z0 F1500
; --- FIX Y Backlash ---
G0 X82.523 Y99.936 F1200
G1 X82.689 Y100.149 Z0 F1500
G1 X83.384 Y101.027 Z0 F1500
G1 X83.889 Y101.669 Z0 F1500
G1 X84.615 Y102.612 Z0 F1500
G1 X84.821 Y102.874 Z0 F1500
G1 X84.986 Y103.072 Z0 F1500
G1 X85.118 Y103.217 Z0 F1500
G1 X85.225 Y103.315 Z0 F1500
G1 X85.315 Y103.374 Z0 F1500
G1 X85.397 Y103.404 Z0 F1500
G1 X85.479 Y103.412 Z0 F1500
G1 X85.553 Y103.396 Z0 F1500
G1 X85.684 Y103.349 Z0 F1500
; --- FIX Y Backlash ---
G0 X85.684 Y102.049 F1200
G1 X85.861 Y101.977 Z0 F1500
G1 X86.077 Y101.882 Z0 F1500
G1 X86.592 Y101.643 Z0 F1500
G1 X87.163 Y101.367 Z0 F1500
G1 X87.723 Y101.084 Z0 F1500
G1 X88.205 Y100.829 Z0 F1500
G1 X88.396 Y100.723 Z0 F1500
G1 X88.543 Y100.635 Z0 F1500
G1 X88.637 Y100.571 Z0 F1500
G1 X88.671 Y100.534 Z0 F1500
G1 X88.638 Y100.442 Z0 F1500
; --- FIX X Backlash ---
G0 X87.338 Y100.442 F1200
G1 X87.259 Y100.329 Z0 F1500
G1 X87.223 Y100.283 Z0 F1500
G1 X87.075 Y100.083 Z0 F1500
G1 X86.715 Y99.579 Z0 F1500
G1 X86.115 Y98.728 Z0 F1500
G1 X85.692 Y98.12 Z0 F1500
G1 X85.473 Y97.8 Z0 F1500
G1 X85.138 Y97.305 Z0 F1500
G1 X84.528 Y96.428 Z0 F1500
G1 X84.09 Y95.788 Z0 F1500
G1 X83.519 Y94.949 Z0 F1500
G1 X82.821 Y93.918 Z0 F1500
G1 X82.681 Y93.721 Z0 F1500
G1 X82.554 Y93.559 Z0 F1500
G1 X82.455 Y93.45 Z0 F1500
G1 X82.396 Y93.41 Z0 F1500
G1 X82.319 Y93.429 Z0 F1500
; --- FIX Y Backlash ---
G0 X82.319 Y94.729 F1200
G1 X82.17 Y94.784 Z0 F1500
G1 X81.97 Y94.864 Z0 F1500
G1 X81.741 Y94.961 Z0 F1500
G1 X81.146 Y95.202 Z0 F1500
G1 X80.476 Y95.437 Z0 F1500
G1 X79.754 Y95.661 Z0 F1500
G1 X79.001 Y95.867 Z0 F1500
G1 X78.238 Y96.051 Z0 F1500
G1 X77.488 Y96.207 Z0 F1500
G1 X76.772 Y96.329 Z0 F1500
G1 X76.112 Y96.412 Z0 F1500
G1 X75.59 Y96.452 Z0 F1500
G1 X74.995 Y96.479 Z0 F1500
G1 X74.349 Y96.493 Z0 F1500
G1 X73.678 Z0 F1500
G1 X73.005 Y96.483 Z0 F1500
G1 X72.353 Y96.459 Z0 F1500
G1 X71.748 Y96.423 Z0 F1500
G1 X71.214 Y96.376 Z0 F1500
; --- FIX Y Backlash ---
G0 X71.214 Y95.076 F1200
G1 X70.456 Y94.978 Z0 F1500
G1 X69.687 Y94.85 Z0 F1500
G1 X68.917 Y94.695 Z0 F1500
G1 X68.159 Y94.516 Z0 F1500
G1 X67.423 Y94.316 Z0 F1500
G1 X66.722 Y94.098 Z0 F1500
G1 X66.067 Y93.864 Z0 F1500
G1 X65.47 Y93.619 Z0 F1500
G1 X65.282 Y93.537 Z0 F1500
G1 X65.119 Y93.471 Z0 F1500
G1 X64.998 Y93.426 Z0 F1500
G1 X64.937 Y93.41 Z0 F1500
M9
M5
G1 Z10 F1000
G1 Z10 F800


; Return to 2,0 wash and park
G1 Z10 F1000;        ; Raise brush
G0 X5 Y5 F1200;     ; Rapid move to clean
G1 Z-1 F800;         ; Lower brush
G1 X10 Y12 Z8 F1200;     ; Move
G1 Z-1 F800;         ; Lower
G1 X25 Y14 Z6 F800;     ; Move
G0 X5 Y5 F1200;     ; Rapid
G1 Z-1 F800;         ; Lower
G1 X15 Y12 Z8 F1200;     ; Move
G1 Z-1 F800;         ; Lower
G1 X25 Y14 Z6 F800;     ; Move
G1 Z10 F800;         ; Maintain
G0 X20 Y130 Z10 F500;; Move to park
M2;                 ; End program
