;LightBurn 1.6.04
;Custom GCode device profile, absolute coords
;Bounds: X13.34 Y10.05 to X56.66 Y53.95
G00 G17 G40 G21 G54
G90
M3
G1 Z10 F500
;Offset @ 555 mm/min, 90% power

M8
G0 Z3.5 F500
G0 X47.021 Y26.494 Z3.5 
G1 Z0 F500
;Layer C1
G1 X47.004 Y26.508 Z0 S900 F800
G1 X46.984 Y26.521 Z0 F800
G1 X47.032 Y26.441 Z0 F800
G1 X47.072 Y26.355 Z0 F800
G1 X47.021 Y26.494 Z0 F800
G0 Z3.5 F500
G0 X44.779 Y30.217 Z3.5 F555
G1 Z0 F500
G1 X44.677 Z0 F800
G1 X44.635 Y30.212 Z0 F800
G1 X44.639 Y30.209 Z0 F800
G1 X44.671 Y30.206 Z0 F800
G1 X44.761 Z0 F800
G1 X44.779 Y30.217 Z0 F800
G0 Z3.5 F500
G0 X51.807 Y29.734 Z3.5 
G1 Z0 F500
G1 Y33 Z0 F800
G1 X51.163 Y32.057 Z0 F800
G1 X51.308 Y31.461 Z0 F800
G1 X51.425 Y30.661 Z0 F800
G1 X51.475 Y29.778 Z0 F800
G1 X51.436 Y29.218 Z0 F800
G1 X51.809 Y28.581 Z0 F800
G1 Y29.734 Z0 F800
G0 Z3.5 F500
G0 X51.819 Y15.141 Z3.5 
G1 Z0 F500
G1 X51.702 Y14.852 Z0 F800
G1 X51.819 Z0 F800
G1 Y15.141 Z0 F800
G0 Z3.5 F500
G0 X51.851 Y17.013 Z3.5 
G1 Z0 F500
G1 X51.484 Y15.906 Z0 F800
G1 X51.131 Y15.043 Z0 F800
G1 X51.087 Y14.941 Z0 F800
G1 X51.035 Y14.543 Z0 F800
G1 X50.929 Y14.253 Z0 F800
G1 X52.419 Z0 F800
G1 Y20.204 Z0 F800
G1 X52.407 Y29.735 Z0 F800
G1 Y35.797 Z0 F800
G1 X52.126 Y35.706 Z0 F800
G1 X52.072 Y35.148 Z0 F800
G1 X51.8 Y34.315 Z0 F800
G1 X51.311 Y33.335 Z0 F800
G1 X50.649 Y32.368 Z0 F800
G1 X50.497 Y32.208 Z0 F800
G1 X50.539 Y32.085 Z0 F800
G1 X50.718 Y31.346 Z0 F800
G1 X50.828 Y30.601 Z0 F800
G1 X50.874 Y29.782 Z0 F800
G1 X50.826 Y29.093 Z0 F800
G1 X50.817 Y29.055 Z0 F800
G1 X50.864 Y29.007 Z0 F800
G1 X51.439 Y28.024 Z0 F800
G1 X51.734 Y27.073 Z0 F800
G1 X51.829 Y26.246 Z0 F800
G1 X51.795 Y25.462 Z0 F800
G1 X51.711 Y25.079 Z0 F800
G1 X51.675 Y24.705 Z0 F800
G1 X51.562 Y23.907 Z0 F800
G1 X51.419 Y23.138 Z0 F800
G1 X51.269 Y22.464 Z0 F800
G1 X51.363 Y22.319 Z0 F800
G1 X51.758 Y21.569 Z0 F800
G1 X52.072 Y20.611 Z0 F800
G1 X52.193 Y19.868 Z0 F800
G1 X52.223 Y19.15 Z0 F800
G1 X52.148 Y18.372 Z0 F800
G1 X52.046 Y17.959 Z0 F800
G1 X51.851 Y17.013 Z0 F800
G0 Z3.5 F500
G0 X50.449 Y14.688 Z3.5 
G1 Z0 F500
G1 X50.138 Y13.837 Z0 F800
G1 X50.019 Y13.653 Z0 F800
G1 X53.02 Z0 F800
G1 Y20.205 Z0 F800
G1 X53.007 Y29.735 Z0 F800
G1 Y36.664 Z0 F800
G1 X52.578 Y36.482 Z0 F800
G1 X51.927 Y36.272 Z0 F800
G1 X51.564 Y36.188 Z0 F800
G1 X51.568 Y36.154 Z0 F800
G1 X51.481 Y35.272 Z0 F800
G1 X51.243 Y34.544 Z0 F800
G1 X50.792 Y33.64 Z0 F800
G1 X50.181 Y32.747 Z0 F800
G1 X49.811 Y32.358 Z0 F800
G1 X49.962 Y31.917 Z0 F800
G1 X50.129 Y31.231 Z0 F800
G1 X50.23 Y30.54 Z0 F800
G1 X50.272 Y29.786 Z0 F800
G1 X50.23 Y29.184 Z0 F800
G1 X50.155 Y28.872 Z0 F800
G1 X50.384 Y28.639 Z0 F800
G1 X50.887 Y27.78 Z0 F800
G1 X51.145 Y26.949 Z0 F800
G1 X51.228 Y26.225 Z0 F800
G1 X51.198 Y25.54 Z0 F800
G1 X51.118 Y25.173 Z0 F800
G1 X51.08 Y24.776 Z0 F800
G1 X50.969 Y24.004 Z0 F800
G1 X50.832 Y23.258 Z0 F800
G1 X50.634 Y22.37 Z0 F800
G1 X50.626 Y22.35 Z0 F800
G1 X50.846 Y22.015 Z0 F800
G1 X51.204 Y21.334 Z0 F800
G1 X51.488 Y20.468 Z0 F800
G1 X51.595 Y19.807 Z0 F800
G1 X51.622 Y19.167 Z0 F800
G1 X51.555 Y18.474 Z0 F800
G1 X51.462 Y18.098 Z0 F800
G1 X51.27 Y17.169 Z0 F800
G1 X50.921 Y16.114 Z0 F800
G1 X50.578 Y15.275 Z0 F800
G1 X50.503 Y15.099 Z0 F800
G1 X50.449 Y14.688 Z0 F800
G0 Z3.5 F500
G0 X49.597 Y14.106 Z3.5 
G1 Z0 F500
G1 X49.161 Y13.43 Z0 F800
G1 X48.782 Y13.053 Z0 F800
G1 X53.62 Z0 F800
G1 Y20.206 Z0 F800
G1 X53.607 Y29.735 Z0 F800
G1 X53.61 Y37.652 Z0 F800
G1 X53.543 Y37.607 Z0 F800
G1 X52.962 Y37.295 Z0 F800
G1 X52.369 Y37.045 Z0 F800
G1 X51.767 Y36.851 Z0 F800
G1 X51.158 Y36.71 Z0 F800
G1 X50.903 Y36.674 Z0 F800
G1 X50.964 Y36.148 Z0 F800
G1 X50.891 Y35.396 Z0 F800
G1 X50.687 Y34.772 Z0 F800
G1 X50.274 Y33.945 Z0 F800
G1 X49.713 Y33.125 Z0 F800
G1 X49.203 Y32.591 Z0 F800
G1 X49.106 Y32.515 Z0 F800
G1 X49.173 Y32.368 Z0 F800
G1 X49.386 Y31.748 Z0 F800
G1 X49.539 Y31.117 Z0 F800
G1 X49.633 Y30.479 Z0 F800
G1 X49.671 Y29.79 Z0 F800
G1 X49.636 Y29.276 Z0 F800
G1 X49.512 Y28.759 Z0 F800
G1 X49.487 Y28.696 Z0 F800
G1 X49.904 Y28.272 Z0 F800
G1 X50.334 Y27.537 Z0 F800
G1 X50.555 Y26.825 Z0 F800
G1 X50.626 Y26.204 Z0 F800
G1 X50.601 Y25.618 Z0 F800
G1 X50.524 Y25.268 Z0 F800
G1 X50.483 Y24.847 Z0 F800
G1 X50.377 Y24.101 Z0 F800
G1 X50.243 Y23.378 Z0 F800
G1 X50.056 Y22.538 Z0 F800
G1 X49.97 Y22.298 Z0 F800
G1 X50.039 Y22.15 Z0 F800
G1 X50.087 Y22.08 Z0 F800
G1 X50.328 Y21.711 Z0 F800
G1 X50.649 Y21.099 Z0 F800
G1 X50.903 Y20.326 Z0 F800
G1 X50.998 Y19.746 Z0 F800
G1 X51.021 Y19.183 Z0 F800
G1 X50.962 Y18.575 Z0 F800
G1 X50.878 Y18.234 Z0 F800
G1 X50.689 Y17.325 Z0 F800
G1 X50.358 Y16.322 Z0 F800
G1 X50.024 Y15.506 Z0 F800
G1 X49.919 Y15.26 Z0 F800
G1 X49.863 Y14.832 Z0 F800
G1 X49.597 Y14.106 Z0 F800
G0 Z3.5 F500
G0 X48.692 Y13.81 Z3.5 
G1 Z0 F500
G1 X48.224 Y13.344 Z0 F800
G1 X47.638 Y12.987 Z0 F800
G1 X46.977 Y12.776 Z0 F800
G1 X46.391 Y12.736 Z0 F800
G1 X45.383 Y12.818 Z0 F800
G1 X44.624 Y12.908 Z0 F800
G1 X43.99 Y12.971 Z0 F800
G1 X43.508 Y12.979 Z0 F800
G1 X42.564 Y12.969 Z0 F800
G1 X41.785 Y12.955 Z0 F800
G1 X41.212 Y12.915 Z0 F800
G1 X40.892 Y12.709 Z0 F800
G1 X40.343 Y12.487 Z0 F800
G1 X40.15 Y12.454 Z0 F800
G1 X46.193 Z0 F800
G1 X54.22 Y12.451 Z0 F800
G1 Y20.206 Z0 F800
G1 X54.207 Y29.735 Z0 F800
G1 X54.21 Y38.848 Z0 F800
G1 X53.745 Y38.463 Z0 F800
G1 X53.234 Y38.122 Z0 F800
G1 X52.704 Y37.837 Z0 F800
G1 X52.16 Y37.608 Z0 F800
G1 X51.607 Y37.43 Z0 F800
G1 X51.047 Y37.3 Z0 F800
G1 X50.487 Y37.22 Z0 F800
G1 X50.137 Y37.198 Z0 F800
G1 X50.144 Y37.18 Z0 F800
G1 X50.288 Y36.767 Z0 F800
G1 X50.361 Y36.143 Z0 F800
G1 X50.3 Y35.52 Z0 F800
G1 X50.13 Y35 Z0 F800
G1 X49.755 Y34.25 Z0 F800
G1 X49.246 Y33.504 Z0 F800
G1 X48.799 Y33.036 Z0 F800
G1 X48.365 Y32.695 Z0 F800
G1 X48.615 Y32.146 Z0 F800
G1 X48.809 Y31.579 Z0 F800
G1 X48.95 Y31.002 Z0 F800
G1 X49.035 Y30.419 Z0 F800
G1 X49.07 Y29.794 Z0 F800
G1 X49.041 Y29.367 Z0 F800
G1 X48.938 Y28.939 Z0 F800
G1 X48.77 Y28.508 Z0 F800
G1 X48.926 Y28.41 Z0 F800
G1 X49.424 Y27.904 Z0 F800
G1 X49.781 Y27.293 Z0 F800
G1 X49.965 Y26.701 Z0 F800
G1 X50.024 Y26.182 Z0 F800
G1 X50.003 Y25.695 Z0 F800
G1 X49.931 Y25.363 Z0 F800
G1 X49.888 Y24.918 Z0 F800
G1 X49.785 Y24.198 Z0 F800
G1 X49.655 Y23.498 Z0 F800
G1 X49.479 Y22.705 Z0 F800
G1 X49.322 Y22.269 Z0 F800
G1 X49.477 Y21.935 Z0 F800
G1 X49.491 Y21.888 Z0 F800
G1 X49.588 Y21.747 Z0 F800
G1 X49.81 Y21.407 Z0 F800
G1 X50.095 Y20.864 Z0 F800
G1 X50.318 Y20.183 Z0 F800
G1 X50.399 Y19.685 Z0 F800
G1 X50.419 Y19.199 Z0 F800
G1 X50.369 Y18.676 Z0 F800
G1 X50.292 Y18.364 Z0 F800
G1 X50.109 Y17.48 Z0 F800
G1 X49.794 Y16.53 Z0 F800
G1 X49.471 Y15.737 Z0 F800
G1 X49.335 Y15.419 Z0 F800
G1 X49.276 Y14.975 Z0 F800
G1 X49.057 Y14.375 Z0 F800
G1 X48.692 Y13.81 Z0 F800
G0 Z3.5 F500
G0 X46.193 Y11.854 Z3.5 
G1 Z0 F500
G1 X54.82 Y11.851 Z0 F800
G1 Y20.207 Z0 F800
G1 X54.807 Y29.736 Z0 F800
G1 X54.811 Y39.268 Z0 F800
G1 X54.815 Y40.493 Z0 F800
G1 X54.67 Y40.294 Z0 F800
G1 X53.968 Y39.453 Z0 F800
G1 X53.815 Y39.299 Z0 F800
G1 X53.387 Y38.945 Z0 F800
G1 X52.925 Y38.637 Z0 F800
G1 X52.444 Y38.379 Z0 F800
G1 X51.95 Y38.171 Z0 F800
G1 X51.447 Y38.008 Z0 F800
G1 X50.937 Y37.891 Z0 F800
G1 X50.425 Y37.817 Z0 F800
G1 X49.818 Y37.779 Z0 F800
G1 X49.395 Y37.832 Z0 F800
G1 X49.402 Y37.634 Z0 F800
G1 X49.423 Y37.469 Z0 F800
G1 X49.453 Y37.319 Z0 F800
G1 X49.488 Y37.197 Z0 F800
G1 X49.583 Y36.966 Z0 F800
G1 X49.7 Y36.631 Z0 F800
G1 X49.757 Y36.137 Z0 F800
G1 X49.709 Y35.644 Z0 F800
G1 X49.574 Y35.229 Z0 F800
G1 X49.237 Y34.555 Z0 F800
G1 X48.778 Y33.884 Z0 F800
G1 X48.395 Y33.481 Z0 F800
G1 X47.952 Y33.134 Z0 F800
G1 X47.545 Y32.91 Z0 F800
G1 X47.829 Y32.425 Z0 F800
G1 X48.057 Y31.923 Z0 F800
G1 X48.233 Y31.411 Z0 F800
G1 X48.36 Y30.887 Z0 F800
G1 X48.438 Y30.358 Z0 F800
G1 X48.469 Y29.798 Z0 F800
G1 X48.445 Y29.459 Z0 F800
G1 X48.364 Y29.119 Z0 F800
G1 X48.119 Y28.491 Z0 F800
G1 X47.987 Y28.26 Z0 F800
G1 X48.125 Y28.206 Z0 F800
G1 X48.547 Y27.94 Z0 F800
G1 X48.944 Y27.537 Z0 F800
G1 X49.229 Y27.05 Z0 F800
G1 X49.375 Y26.577 Z0 F800
G1 X49.423 Y26.161 Z0 F800
G1 X49.406 Y25.773 Z0 F800
G1 X49.336 Y25.454 Z0 F800
G1 X49.292 Y24.989 Z0 F800
G1 X49.193 Y24.295 Z0 F800
G1 X49.067 Y23.618 Z0 F800
G1 X48.901 Y22.873 Z0 F800
G1 X48.759 Y22.476 Z0 F800
G1 X48.632 Y22.278 Z0 F800
G1 X48.72 Y22.141 Z0 F800
G1 X48.915 Y21.721 Z0 F800
G1 X48.943 Y21.629 Z0 F800
G1 X48.962 Y21.599 Z0 F800
G1 X49.089 Y21.414 Z0 F800
G1 X49.292 Y21.103 Z0 F800
G1 X49.54 Y20.63 Z0 F800
G1 X49.733 Y20.041 Z0 F800
G1 X49.801 Y19.625 Z0 F800
G1 X49.818 Y19.215 Z0 F800
G1 X49.776 Y18.777 Z0 F800
G1 X49.706 Y18.491 Z0 F800
G1 X49.529 Y17.636 Z0 F800
G1 X49.231 Y16.738 Z0 F800
G1 X48.917 Y15.968 Z0 F800
G1 X48.741 Y15.556 Z0 F800
G1 X48.738 Y15.48 Z0 F800
G1 X48.69 Y15.119 Z0 F800
G1 X48.517 Y14.644 Z0 F800
G1 X48.223 Y14.189 Z0 F800
G1 X47.851 Y13.819 Z0 F800
G1 X47.387 Y13.537 Z0 F800
G1 X46.864 Y13.37 Z0 F800
G1 X46.395 Y13.338 Z0 F800
G1 X45.443 Y13.416 Z0 F800
G1 X44.679 Y13.506 Z0 F800
G1 X44.029 Y13.57 Z0 F800
G1 X43.491 Y13.58 Z0 F800
G1 X42.571 Y13.569 Z0 F800
G1 X41.762 Y13.554 Z0 F800
G1 X41.063 Y13.505 Z0 F800
G1 X40.99 Y13.493 Z0 F800
G1 X40.959 Y13.466 Z0 F800
G1 X40.615 Y13.245 Z0 F800
G1 X40.178 Y13.068 Z0 F800
G1 X39.704 Y12.986 Z0 F800
G1 X39.309 Y12.995 Z0 F800
G1 X39.131 Y12.885 Z0 F800
G1 X39.109 Y12.872 Z0 F800
G1 X38.986 Y12.583 Z0 F800
G1 X38.634 Y12.121 Z0 F800
G1 X38.292 Y11.854 Z0 F800
G1 X46.193 Z0 F800
G0 Z3.5 F500
G0 X18.43 Y25.997 Z3.5 
G1 Z0 F500
G1 X17.827 Y26.337 Z0 F800
G1 X17.548 Y26.487 Z0 F800
G1 Y25.307 Z0 F800
G1 X17.78 Y25.53 Z0 F800
G1 X18.43 Y25.997 Z0 F800
G0 Z3.5 F500
G0 X18.746 Y26.508 Z3.5 
G1 Z0 F500
G1 X18.126 Y26.857 Z0 F800
G1 X17.682 Y27.096 Z0 F800
G1 X17.459 Y27.264 Z0 F800
G1 X16.949 Y27.099 Z0 F800
G1 X16.944 Y23.7 Z0 F800
G1 X17.245 Y24.074 Z0 F800
G1 X17.576 Y24.505 Z0 F800
G1 X18.165 Y25.067 Z0 F800
G1 X18.769 Y25.502 Z0 F800
G1 X19.418 Y25.861 Z0 F800
G1 X19.617 Y25.936 Z0 F800
G1 X19.832 Y26.117 Z0 F800
G1 X19.622 Y26.17 Z0 F800
G1 X18.746 Y26.508 Z0 F800
G0 Z3.5 F500
G0 X16.971 Y15.364 Z3.5 
G1 Z0 F500
G1 X16.993 Y13.699 Z0 F800
G1 X17.621 Y13.696 Z0 F800
G1 X17.49 Y14.031 Z0 F800
G1 X17.351 Y14.302 Z0 F800
G1 X17.111 Y14.945 Z0 F800
G1 X17.075 Y15.097 Z0 F800
G1 X16.971 Y15.364 Z0 F800
G0 Z3.5 F500
G0 X16.355 Y16.608 Z3.5 
G1 Z0 F500
G1 X16.4 Y13.101 Z0 F800
G1 X18.5 Y13.093 Z0 F800
G1 X18.039 Y14.276 Z0 F800
G1 X17.9 Y14.545 Z0 F800
G1 X17.686 Y15.12 Z0 F800
G1 X17.649 Y15.277 Z0 F800
G1 X17.432 Y15.834 Z0 F800
G1 X17.06 Y16.728 Z0 F800
G1 X16.838 Y17.371 Z0 F800
G1 X16.649 Y18.101 Z0 F800
G1 X16.524 Y18.932 Z0 F800
G1 X16.491 Y20.332 Z0 F800
G1 X16.582 Y21.28 Z0 F800
G1 X16.748 Y21.959 Z0 F800
G1 X17.005 Y22.622 Z0 F800
G1 X17.383 Y23.289 Z0 F800
G1 X17.718 Y23.705 Z0 F800
G1 X18.024 Y24.103 Z0 F800
G1 X18.549 Y24.604 Z0 F800
G1 X19.09 Y24.994 Z0 F800
G1 X19.671 Y25.315 Z0 F800
G1 X19.979 Y25.432 Z0 F800
G1 X20.037 Y25.505 Z0 F800
G1 X20.566 Y25.95 Z0 F800
G1 X21.1 Y26.267 Z0 F800
G1 X21.519 Y26.436 Z0 F800
G1 X21.271 Y26.449 Z0 F800
G1 X20.557 Y26.554 Z0 F800
G1 X19.803 Y26.743 Z0 F800
G1 X19.002 Y27.052 Z0 F800
G1 X18.422 Y27.379 Z0 F800
G1 X18.007 Y27.603 Z0 F800
G1 X17.573 Y27.931 Z0 F800
G1 X17.015 Y27.75 Z0 F800
G1 X16.396 Y29.356 Z0 F800
G1 X16.348 Y29.443 Z0 F800
G1 Y27.22 Z0 F800
G1 X16.341 Y21.917 Z0 F800
G1 X16.355 Y16.608 Z0 F800
G0 Z3.5 F500
G0 X16.178 Y12.501 Z3.5 
G1 Z0 F500
G1 X19.706 Y12.488 Z0 F800
G1 X19.6 Y12.907 Z0 F800
G1 X19.566 Y13.202 Z0 F800
G1 X19.44 Y13.338 Z0 F800
G1 X19.09 Y13.231 Z0 F800
G1 X18.587 Y14.521 Z0 F800
G1 X18.45 Y14.788 Z0 F800
G1 X18.261 Y15.294 Z0 F800
G1 X18.223 Y15.456 Z0 F800
G1 X17.989 Y16.057 Z0 F800
G1 X17.621 Y16.941 Z0 F800
G1 X17.414 Y17.544 Z0 F800
G1 X17.237 Y18.222 Z0 F800
G1 X17.123 Y18.983 Z0 F800
G1 X17.092 Y20.31 Z0 F800
G1 X17.175 Y21.179 Z0 F800
G1 X17.322 Y21.779 Z0 F800
G1 X17.548 Y22.364 Z0 F800
G1 X17.881 Y22.95 Z0 F800
G1 X18.191 Y23.337 Z0 F800
G1 X18.471 Y23.701 Z0 F800
G1 X18.933 Y24.142 Z0 F800
G1 X19.412 Y24.486 Z0 F800
G1 X19.924 Y24.77 Z0 F800
G1 X20.349 Y24.931 Z0 F800
G1 X20.47 Y25.086 Z0 F800
G1 X20.915 Y25.459 Z0 F800
G1 X21.367 Y25.728 Z0 F800
G1 X21.85 Y25.922 Z0 F800
G1 X22.329 Y26.033 Z0 F800
G1 X22.694 Y26.07 Z0 F800
G1 X22.671 Y26.145 Z0 F800
G1 X22.605 Y26.318 Z0 F800
G1 X22.488 Y26.981 Z0 F800
G1 Y26.988 Z0 F800
G1 X22.317 Y26.993 Z0 F800
G1 X21.332 Y27.046 Z0 F800
G1 X20.674 Y27.144 Z0 F800
G1 X19.985 Y27.316 Z0 F800
G1 X19.259 Y27.596 Z0 F800
G1 X18.717 Y27.901 Z0 F800
G1 X18.332 Y28.109 Z0 F800
G1 X17.834 Y28.485 Z0 F800
G1 X17.715 Y28.607 Z0 F800
G1 X17.371 Y28.496 Z0 F800
G1 X16.941 Y29.611 Z0 F800
G1 X16.812 Y29.843 Z0 F800
G1 X16.612 Y30.319 Z0 F800
G1 X16.471 Y30.797 Z0 F800
G1 X16.458 Y30.864 Z0 F800
G1 X16.232 Y31.453 Z0 F800
G1 X16.045 Y32.052 Z0 F800
G1 X15.976 Y32.043 Z0 F800
G1 X15.904 Y32.539 Z0 F800
G1 X15.805 Y32.955 Z0 F800
G1 X15.746 Y33.284 Z0 F800
G1 Y32.541 Z0 F800
G1 X15.749 Y27.22 Z0 F800
G1 X15.741 Y21.915 Z0 F800
G1 X15.755 Y16.631 Z0 F800
G1 X15.808 Y12.513 Z0 F800
G1 X16.178 Y12.501 Z0 F800
G0 Z3.5 F500
G0 X20.316 Y12.548 Z3.5 
G1 Z0 F500
G1 X20.303 Y12.576 Z0 F800
G1 X20.191 Y13.016 Z0 F800
G1 X20.143 Y13.437 Z0 F800
G1 Y13.458 Z0 F800
G1 X20.102 Y13.505 Z0 F800
G1 X19.794 Y13.839 Z0 F800
G1 X19.642 Y14.026 Z0 F800
G1 X19.447 Y13.967 Z0 F800
G1 X19.136 Y14.767 Z0 F800
G1 X19 Y15.031 Z0 F800
G1 X18.837 Y15.468 Z0 F800
G1 X18.798 Y15.634 Z0 F800
G1 X18.542 Y16.289 Z0 F800
G1 X18.182 Y17.154 Z0 F800
G1 X17.988 Y17.717 Z0 F800
G1 X17.826 Y18.342 Z0 F800
G1 X17.722 Y19.035 Z0 F800
G1 X17.692 Y20.288 Z0 F800
G1 X17.769 Y21.079 Z0 F800
G1 X17.896 Y21.599 Z0 F800
G1 X18.092 Y22.106 Z0 F800
G1 X18.379 Y22.612 Z0 F800
G1 X18.665 Y22.967 Z0 F800
G1 X18.919 Y23.298 Z0 F800
G1 X19.317 Y23.679 Z0 F800
G1 X19.733 Y23.979 Z0 F800
G1 X20.177 Y24.224 Z0 F800
G1 X20.717 Y24.429 Z0 F800
G1 X20.904 Y24.667 Z0 F800
G1 X21.263 Y24.968 Z0 F800
G1 X21.633 Y25.188 Z0 F800
G1 X22.03 Y25.348 Z0 F800
G1 X22.427 Y25.44 Z0 F800
G1 X22.953 Y25.493 Z0 F800
G1 X23.279 Y25.479 Z0 F800
G1 X23.299 Y25.538 Z0 F800
G1 X23.329 Y25.734 Z0 F800
G1 X23.332 Y25.934 Z0 F800
G1 X23.309 Y26.109 Z0 F800
G1 X23.24 Y26.336 Z0 F800
G1 X23.187 Y26.478 Z0 F800
G1 X23.089 Y27.028 Z0 F800
G1 X23.1 Y27.57 Z0 F800
G1 X22.342 Y27.592 Z0 F800
G1 X21.392 Y27.644 Z0 F800
G1 X20.791 Y27.733 Z0 F800
G1 X20.166 Y27.889 Z0 F800
G1 X19.516 Y28.14 Z0 F800
G1 X18.998 Y28.432 Z0 F800
G1 X18.657 Y28.615 Z0 F800
G1 X18.231 Y28.937 Z0 F800
G1 X17.883 Y29.292 Z0 F800
G1 X17.727 Y29.241 Z0 F800
G1 X17.485 Y29.867 Z0 F800
G1 X17.352 Y30.106 Z0 F800
G1 X17.178 Y30.52 Z0 F800
G1 X17.055 Y30.938 Z0 F800
G1 X17.038 Y31.028 Z0 F800
G1 X16.799 Y31.65 Z0 F800
G1 X16.516 Y32.56 Z0 F800
G1 X16.393 Y33.078 Z0 F800
G1 X16.298 Y33.601 Z0 F800
G1 X16.236 Y34.145 Z0 F800
G1 X16.218 Y34.539 Z0 F800
G1 X16.156 Y34.962 Z0 F800
G1 X16.014 Y35.519 Z0 F800
G1 X15.82 Y36.295 Z0 F800
G1 X15.667 Y37.301 Z0 F800
G1 X15.688 Y37.794 Z0 F800
G1 X15.806 Y38.221 Z0 F800
G1 X15.992 Y38.652 Z0 F800
G1 X16.038 Y38.756 Z0 F800
G1 X16.051 Y39.269 Z0 F800
G1 X16.071 Y39.812 Z0 F800
G1 Y39.94 Z0 F800
G1 X15.912 Y40.107 Z0 F800
G1 X15.89 Y40.115 Z0 F800
G1 X15.21 Y40.365 Z0 F800
G1 X15.148 Y40.394 Z0 F800
G1 Y37.732 Z0 F800
G1 X15.145 Y32.54 Z0 F800
G1 X15.149 Y27.22 Z0 F800
G1 X15.141 Y21.913 Z0 F800
G1 X15.155 Y16.623 Z0 F800
G1 X15.215 Y11.923 Z0 F800
G1 X15.47 Z0 F800
G1 X16.175 Y11.901 Z0 F800
G1 X20.643 Y11.885 Z0 F800
G1 X20.594 Y11.948 Z0 F800
G1 X20.4 Z0 F800
G1 X20.316 Y12.548 Z0 F800
G0 Z3.5 F500
G0 X20.248 Y14.231 Z3.5 
G1 Z0 F500
G1 X19.909 Y14.652 Z0 F800
G1 X19.864 Y14.721 Z0 F800
G1 X19.804 Y14.703 Z0 F800
G1 X19.682 Y15.018 Z0 F800
G1 X19.55 Y15.274 Z0 F800
G1 X19.412 Y15.643 Z0 F800
G1 X19.373 Y15.811 Z0 F800
G1 X19.105 Y16.498 Z0 F800
G1 X18.744 Y17.367 Z0 F800
G1 X18.563 Y17.891 Z0 F800
G1 X18.415 Y18.462 Z0 F800
G1 X18.321 Y19.087 Z0 F800
G1 X18.293 Y20.267 Z0 F800
G1 X18.362 Y20.979 Z0 F800
G1 X18.469 Y21.418 Z0 F800
G1 X18.636 Y21.848 Z0 F800
G1 X18.877 Y22.274 Z0 F800
G1 X19.125 Y22.582 Z0 F800
G1 X19.367 Y22.896 Z0 F800
G1 X19.702 Y23.217 Z0 F800
G1 X20.054 Y23.47 Z0 F800
G1 X20.43 Y23.678 Z0 F800
G1 X21.066 Y23.92 Z0 F800
G1 X21.084 Y23.924 Z0 F800
G1 X21.337 Y24.248 Z0 F800
G1 X21.611 Y24.478 Z0 F800
G1 X21.9 Y24.649 Z0 F800
G1 X22.211 Y24.774 Z0 F800
G1 X22.525 Y24.847 Z0 F800
G1 X22.971 Y24.892 Z0 F800
G1 X23.372 Y24.875 Z0 F800
G1 X23.677 Y24.834 Z0 F800
G1 X23.796 Y24.814 Z0 F800
G1 X23.832 Y25.052 Z0 F800
G1 X23.857 Y25.315 Z0 F800
G1 X23.884 Y25.395 Z0 F800
G1 X23.928 Y25.684 Z0 F800
G1 X23.933 Y25.97 Z0 F800
G1 X23.898 Y26.231 Z0 F800
G1 X23.808 Y26.531 Z0 F800
G1 X23.767 Y26.639 Z0 F800
G1 X23.69 Y27.075 Z0 F800
G1 X23.698 Y27.511 Z0 F800
G1 X23.784 Y27.925 Z0 F800
G1 X23.948 Y28.326 Z0 F800
G1 X23.623 Y28.198 Z0 F800
G1 X23.241 Y28.166 Z0 F800
G1 X22.368 Y28.191 Z0 F800
G1 X21.452 Y28.242 Z0 F800
G1 X20.908 Y28.322 Z0 F800
G1 X20.348 Y28.462 Z0 F800
G1 X19.772 Y28.684 Z0 F800
G1 X19.282 Y28.96 Z0 F800
G1 X18.982 Y29.122 Z0 F800
G1 X18.629 Y29.389 Z0 F800
G1 X18.33 Y29.694 Z0 F800
G1 X18.107 Y29.994 Z0 F800
G1 X18.083 Y29.986 Z0 F800
G1 X18.03 Y30.122 Z0 F800
G1 X17.892 Y30.369 Z0 F800
G1 X17.745 Y30.722 Z0 F800
G1 X17.639 Y31.079 Z0 F800
G1 X17.617 Y31.195 Z0 F800
G1 X17.366 Y31.847 Z0 F800
G1 X17.094 Y32.719 Z0 F800
G1 X16.98 Y33.2 Z0 F800
G1 X16.892 Y33.688 Z0 F800
G1 X16.834 Y34.192 Z0 F800
G1 X16.816 Y34.596 Z0 F800
G1 X16.746 Y35.076 Z0 F800
G1 X16.596 Y35.666 Z0 F800
G1 X16.409 Y36.414 Z0 F800
G1 X16.268 Y37.333 Z0 F800
G1 X16.284 Y37.701 Z0 F800
G1 X16.373 Y38.021 Z0 F800
G1 X16.542 Y38.412 Z0 F800
G1 X16.632 Y38.619 Z0 F800
G1 Y38.625 Z0 F800
G1 X16.651 Y39.25 Z0 F800
G1 X16.671 Y39.809 Z0 F800
G1 X16.676 Y40.178 Z0 F800
G1 X16.31 Y40.559 Z0 F800
G1 X16.276 Y40.614 Z0 F800
G1 X16.094 Y40.679 Z0 F800
G1 X15.438 Y40.921 Z0 F800
G1 X14.715 Y41.249 Z0 F800
G1 X14.548 Y41.352 Z0 F800
G1 X14.551 Y37.732 Z0 F800
G1 X14.545 Y32.54 Z0 F800
G1 X14.549 Y27.22 Z0 F800
G1 X14.542 Y21.912 Z0 F800
G1 X14.555 Y16.603 Z0 F800
G1 X14.623 Y11.327 Z0 F800
G1 X14.782 Y11.324 Z0 F800
G1 X15.46 Z0 F800
G1 X16.138 Y11.302 Z0 F800
G1 X22.099 Y11.28 Z0 F800
G1 X21.966 Y11.378 Z0 F800
G1 X21.726 Y11.568 Z0 F800
G1 X21.425 Y11.848 Z0 F800
G1 X21.107 Y12.266 Z0 F800
G1 X20.978 Y12.546 Z0 F800
G1 X20.922 Z0 F800
G1 X20.897 Y12.719 Z0 F800
G1 X20.871 Y12.777 Z0 F800
G1 X20.782 Y13.125 Z0 F800
G1 X20.744 Y13.462 Z0 F800
G1 X20.75 Y13.667 Z0 F800
G1 X20.713 Y13.719 Z0 F800
G1 X20.545 Y13.909 Z0 F800
G1 X20.248 Y14.231 Z0 F800
G0 Z3.5 F500
G0 X32.172 Y51.522 Z3.5 
G1 Z0 F500
G1 X32.277 Y51.408 Z0 F800
G1 X32.363 Y51.277 Z0 F800
G1 X32.579 Y51.522 Z0 F800
G1 X32.172 Z0 F800
G0 Z3.5 F500
G0 X31.357 Z3.5 
G1 Z0 F500
G1 X31.802 Y51.039 Z0 F800
G1 X32.098 Y50.586 Z0 F800
G1 X32.28 Y50.231 Z0 F800
G1 X32.347 Y50.087 Z0 F800
G1 X32.419 Y50.261 Z0 F800
G1 X32.782 Y50.844 Z0 F800
G1 X33.236 Y51.361 Z0 F800
G1 X33.773 Y51.798 Z0 F800
G1 X34.348 Y52.123 Z0 F800
G1 X31.09 Z0 F800
G1 X31.046 Y51.952 Z0 F800
G1 X30.995 Y51.844 Z0 F800
G1 X30.983 Y51.786 Z0 F800
G1 X31.357 Y51.523 Z0 F800
G0 Z3.5 F500
G0 X41.187 Y50.749 Z3.5 
G1 Z0 F500
G1 X41.435 Y51.091 Z0 F800
G1 X41.786 Y51.47 Z0 F800
G1 X41.847 Y51.522 Z0 F800
G1 X40.232 Z0 F800
G1 X40.45 Y51.312 Z0 F800
G1 X41.187 Y50.749 Z0 F800
G0 Z3.5 F500
G0 X41.599 Y50.295 Z3.5 
G1 Z0 F500
G1 X41.9 Y50.709 Z0 F800
G1 X42.203 Y51.037 Z0 F800
G1 X42.522 Y51.312 Z0 F800
G1 X42.872 Y51.557 Z0 F800
G1 X43.458 Y51.866 Z0 F800
G1 X44.01 Y52.074 Z0 F800
G1 X44.169 Y52.123 Z0 F800
G1 X38.313 Z0 F800
G1 X38.518 Y52.031 Z0 F800
G1 X38.821 Y51.8 Z0 F800
G1 X39.244 Y51.538 Z0 F800
G1 X39.453 Y51.375 Z0 F800
G1 X39.51 Y51.417 Z0 F800
G1 X39.728 Y51.161 Z0 F800
G1 X39.805 Y51.102 Z0 F800
G1 X40.059 Y50.855 Z0 F800
G1 X40.407 Y50.589 Z0 F800
G1 X40.356 Y50.522 Z0 F800
G1 X40.406 Y50.465 Z0 F800
G1 X40.669 Y50.093 Z0 F800
G1 X40.729 Y49.985 Z0 F800
G1 X41.04 Y49.621 Z0 F800
G1 X41.276 Y49.34 Z0 F800
G1 Y49.354 Z0 F800
G1 X41.38 Y49.846 Z0 F800
G1 X41.599 Y50.295 Z0 F800
G0 Z3.5 F500
G0 X42.62 Y50.604 Z3.5 
G1 Z0 F500
G1 X42.891 Y50.837 Z0 F800
G1 X43.186 Y51.043 Z0 F800
G1 X43.705 Y51.318 Z0 F800
G1 X44.203 Y51.506 Z0 F800
G1 X44.632 Y51.636 Z0 F800
G1 X44.989 Y51.736 Z0 F800
G1 X45.263 Y51.82 Z0 F800
G1 X45.479 Y51.904 Z0 F800
G1 X46.059 Y52.159 Z0 F800
G1 X46.758 Y52.403 Z0 F800
G1 X47.186 Y52.506 Z0 F800
G1 X47.267 Y52.519 Z0 F800
G1 X47.275 Y52.64 Z0 F800
G1 X48.063 Y52.592 Z0 F800
G1 X48.101 Z0 F800
G1 X48.438 Y52.568 Z0 F800
G1 X49.437 Y52.507 Z0 F800
G1 X50.372 Y52.421 Z0 F800
G1 X51.232 Y52.358 Z0 F800
G1 X52.745 Y52.354 Z0 F800
G1 X53.528 Y52.306 Z0 F800
G1 X54.042 Y52.2 Z0 F800
G1 X54.572 Y52.004 Z0 F800
G1 X55.1 Y51.694 Z0 F800
G1 X55.428 Y51.398 Z0 F800
G1 X55.397 Y52.47 Z0 F800
G1 X55.375 Y52.722 Z0 F800
G1 X30.589 Z0 F800
G1 X30.583 Y52.557 Z0 F800
G1 X30.48 Y52.159 Z0 F800
G1 X30.421 Y52.035 Z0 F800
G1 X30.397 Y51.917 Z0 F800
G1 X30.201 Y51.518 Z0 F800
G1 X30.427 Y51.444 Z0 F800
G1 X30.959 Y51.069 Z0 F800
G1 X31.327 Y50.669 Z0 F800
G1 X31.578 Y50.285 Z0 F800
G1 X31.741 Y49.967 Z0 F800
G1 X31.855 Y49.724 Z0 F800
G1 X31.932 Y49.564 Z0 F800
G1 X31.978 Y49.479 Z0 F800
G1 X31.984 Y49.47 Z0 F800
G1 X32.135 Y49.32 Z0 F800
G1 X32.27 Y49.063 Z0 F800
G1 X32.4 Y48.932 Z0 F800
G1 X32.419 Y48.938 Z0 F800
G1 X32.561 Y49.015 Z0 F800
G1 X32.639 Y49.045 Z0 F800
G1 X32.729 Y49.441 Z0 F800
G1 X32.955 Y49.986 Z0 F800
G1 X33.265 Y50.485 Z0 F800
G1 X33.653 Y50.927 Z0 F800
G1 X34.113 Y51.3 Z0 F800
G1 X34.636 Y51.596 Z0 F800
G1 X35.191 Y51.79 Z0 F800
G1 X35.403 Y51.833 Z0 F800
G1 X36.006 Y51.878 Z0 F800
G1 X36.648 Y51.913 Z0 F800
G1 X37.125 Y51.879 Z0 F800
G1 X37.362 Y51.826 Z0 F800
G1 X37.444 Y51.947 Z0 F800
G1 X37.985 Y51.612 Z0 F800
G1 X38.21 Y51.512 Z0 F800
G1 X38.48 Y51.305 Z0 F800
G1 X38.901 Y51.045 Z0 F800
G1 X39.411 Y50.648 Z0 F800
G1 X39.685 Y50.382 Z0 F800
G1 X39.933 Y50.095 Z0 F800
G1 X40.161 Y49.773 Z0 F800
G1 X40.235 Y49.641 Z0 F800
G1 X40.582 Y49.233 Z0 F800
G1 X41.078 Y48.644 Z0 F800
G1 X41.35 Y48.274 Z0 F800
G1 X41.609 Y47.865 Z0 F800
G1 X41.843 Y47.403 Z0 F800
G1 X41.885 Y47.292 Z0 F800
G1 X41.843 Y48.092 Z0 F800
G1 X41.875 Y49.283 Z0 F800
G1 X41.952 Y49.65 Z0 F800
G1 X42.115 Y49.985 Z0 F800
G1 X42.364 Y50.328 Z0 F800
G1 X42.62 Y50.604 Z0 F800
G0 Z3.5 F500
G0 X43.952 Y50.77 Z3.5 
G1 Z0 F500
G1 X44.396 Y50.938 Z0 F800
G1 X44.8 Y51.06 Z0 F800
G1 X45.155 Y51.159 Z0 F800
G1 X45.454 Y51.25 Z0 F800
G1 X45.709 Y51.351 Z0 F800
G1 X46.279 Y51.6 Z0 F800
G1 X46.928 Y51.827 Z0 F800
G1 X47.3 Y51.917 Z0 F800
G1 X47.686 Y51.974 Z0 F800
G1 X47.83 Y51.98 Z0 F800
G1 Y52.005 Z0 F800
G1 X48.06 Y51.991 Z0 F800
G1 X48.093 Z0 F800
G1 X48.413 Y51.969 Z0 F800
G1 X49.391 Y51.908 Z0 F800
G1 X50.325 Y51.823 Z0 F800
G1 X51.215 Y51.758 Z0 F800
G1 X52.726 Y51.754 Z0 F800
G1 X53.448 Y51.709 Z0 F800
G1 X53.877 Y51.621 Z0 F800
G1 X54.314 Y51.46 Z0 F800
G1 X54.744 Y51.208 Z0 F800
G1 X55.315 Y50.693 Z0 F800
G1 X55.555 Y50.451 Z0 F800
G1 X55.792 Y50.165 Z0 F800
G1 X56.012 Y49.825 Z0 F800
G1 X56.04 Y49.762 Z0 F800
G1 X56.037 Y50.054 Z0 F800
G1 X56.032 Y51.306 Z0 F800
G1 X55.997 Y52.5 Z0 F800
G1 X55.923 Y53.326 Z0 F800
G1 X55.86 Y53.322 Z0 F800
G1 X29.899 Z0 F800
G1 X29.946 Y53.2 Z0 F800
G1 X29.979 Y53.024 Z0 F800
G1 X30.005 Y53.016 Z0 F800
G1 X29.993 Y52.954 Z0 F800
G1 X29.996 Y52.935 Z0 F800
G1 X29.986 Y52.643 Z0 F800
G1 X29.914 Y52.365 Z0 F800
G1 X29.848 Y52.228 Z0 F800
G1 X29.825 Y52.112 Z0 F800
G1 X29.644 Y51.745 Z0 F800
G1 X29.435 Y51.47 Z0 F800
G1 X29.248 Y51.279 Z0 F800
G1 X29.111 Y51.148 Z0 F800
G1 X29.007 Y51.046 Z0 F800
G1 X28.958 Y50.994 Z0 F800
G1 X28.951 Y50.984 Z0 F800
G1 X28.928 Y50.945 Z0 F800
G1 X28.903 Y50.912 Z0 F800
G1 X28.877 Y50.865 Z0 F800
G1 X29.457 Y51.003 Z0 F800
G1 X29.799 Y51.019 Z0 F800
G1 X30.154 Y50.902 Z0 F800
G1 X30.561 Y50.616 Z0 F800
G1 X30.852 Y50.299 Z0 F800
G1 X31.059 Y49.983 Z0 F800
G1 X31.202 Y49.702 Z0 F800
G1 X31.309 Y49.475 Z0 F800
G1 X31.398 Y49.29 Z0 F800
G1 X31.466 Y49.165 Z0 F800
G1 X31.524 Y49.083 Z0 F800
G1 X31.646 Y48.96 Z0 F800
G1 X31.756 Y48.751 Z0 F800
G1 X31.844 Y48.626 Z0 F800
G1 X31.828 Y48.612 Z0 F800
G1 Y48.604 Z0 F800
G1 X31.897 Y48.587 Z0 F800
G1 X32.225 Y48.256 Z0 F800
G1 X32.246 Y48.222 Z0 F800
G1 X32.267 Y48.232 Z0 F800
G1 X32.513 Y48.338 Z0 F800
G1 X32.656 Y48.384 Z0 F800
G1 X32.814 Y48.47 Z0 F800
G1 X33.103 Y48.582 Z0 F800
G1 X33.183 Y48.607 Z0 F800
G1 X33.191 Y48.774 Z0 F800
G1 X33.303 Y49.258 Z0 F800
G1 X33.49 Y49.711 Z0 F800
G1 X33.748 Y50.126 Z0 F800
G1 X34.071 Y50.493 Z0 F800
G1 X34.452 Y50.803 Z0 F800
G1 X34.885 Y51.047 Z0 F800
G1 X35.351 Y51.21 Z0 F800
G1 X35.485 Y51.238 Z0 F800
G1 X36.044 Y51.279 Z0 F800
G1 X36.643 Y51.312 Z0 F800
G1 X37.037 Y51.284 Z0 F800
G1 X37.464 Y51.188 Z0 F800
G1 X37.609 Y51.123 Z0 F800
G1 X37.617 Y51.134 Z0 F800
G1 X37.704 Y51.081 Z0 F800
G1 X37.901 Y50.992 Z0 F800
G1 X38.138 Y50.812 Z0 F800
G1 X38.558 Y50.552 Z0 F800
G1 X39.016 Y50.195 Z0 F800
G1 X39.248 Y49.97 Z0 F800
G1 X39.46 Y49.725 Z0 F800
G1 X39.653 Y49.452 Z0 F800
G1 X39.74 Y49.297 Z0 F800
G1 X40.124 Y48.846 Z0 F800
G1 X40.606 Y48.272 Z0 F800
G1 X40.854 Y47.936 Z0 F800
G1 X41.086 Y47.568 Z0 F800
G1 X41.293 Y47.161 Z0 F800
G1 X41.469 Y46.694 Z0 F800
G1 X41.514 Y46.44 Z0 F800
G1 X41.494 Y46.195 Z0 F800
G1 X41.569 Y46.162 Z0 F800
G1 X41.838 Y46.002 Z0 F800
G1 X42.09 Y45.809 Z0 F800
G1 X42.318 Y45.581 Z0 F800
G1 X42.517 Y45.321 Z0 F800
G1 X42.551 Y45.261 Z0 F800
G1 X42.597 Y45.336 Z0 F800
G1 X42.571 Y46.088 Z0 F800
G1 X42.499 Y47.062 Z0 F800
G1 X42.443 Y48.1 Z0 F800
G1 X42.474 Y49.213 Z0 F800
G1 X42.524 Y49.455 Z0 F800
G1 X42.631 Y49.675 Z0 F800
G1 X42.829 Y49.946 Z0 F800
G1 X43.037 Y50.171 Z0 F800
G1 X43.26 Y50.363 Z0 F800
G1 X43.499 Y50.531 Z0 F800
G1 X43.952 Y50.77 Z0 F800
G0 Z3.5 F500
G0 X23.283 Y52.117 Z3.5 
G1 Z0 F500
G1 X22.215 Y52.12 Z0 F800
G1 X22.218 Y51.979 Z0 F800
G1 X22.239 Y51.731 Z0 F800
G1 X22.318 Y51.63 Z0 F800
G1 X22.478 Y51.452 Z0 F800
G1 X22.966 Y50.941 Z0 F800
G1 X23.007 Y50.894 Z0 F800
G1 X23.365 Y51.224 Z0 F800
G1 X23.397 Y51.195 Z0 F800
G1 X23.364 Y51.302 Z0 F800
G1 X23.294 Y51.813 Z0 F800
G1 X23.283 Y52.117 Z0 F800
G0 Z3.5 F500
G0 X23.912 Y52.714 Z3.5 
G1 Z0 F500
G1 X22.077 Y52.72 Z0 F800
G1 X21.617 Y52.701 Z0 F800
G1 X21.607 Y52.527 Z0 F800
G1 X21.618 Y51.955 Z0 F800
G1 X21.654 Y51.525 Z0 F800
G1 X21.73 Y51.407 Z0 F800
G1 X21.854 Y51.25 Z0 F800
G1 X22.042 Y51.039 Z0 F800
G1 X22.524 Y50.535 Z0 F800
G1 X22.934 Y50.07 Z0 F800
G1 X23.078 Y50.204 Z0 F800
G1 X23.366 Y50.408 Z0 F800
G1 X23.373 Y50.415 Z0 F800
G1 X23.466 Y50.479 Z0 F800
G1 X23.859 Y50.699 Z0 F800
G1 X24.206 Y50.848 Z0 F800
G1 X24.062 Y51.084 Z0 F800
G1 X23.951 Y51.434 Z0 F800
G1 X23.893 Y51.865 Z0 F800
G1 X23.877 Y52.28 Z0 F800
G1 X23.912 Y52.714 Z0 F800
G0 Z3.5 F500
G0 X24.153 Y53.314 Z3.5 
G1 Z0 F500
G1 X22.07 Y53.32 Z0 F800
G1 X21.596 Y53.301 Z0 F800
G1 X21.128 Y53.308 Z0 F800
G1 X21.099 Y53.305 Z0 F800
G1 X21.055 Y53.086 Z0 F800
G1 X21.022 Y52.817 Z0 F800
G1 X21.007 Y52.542 Z0 F800
G1 X21.019 Y51.916 Z0 F800
G1 X21.065 Y51.368 Z0 F800
G1 X21.12 Y51.247 Z0 F800
G1 X21.236 Y51.064 Z0 F800
G1 X21.4 Y50.857 Z0 F800
G1 X21.601 Y50.632 Z0 F800
G1 X22.082 Y50.129 Z0 F800
G1 X22.613 Y49.527 Z0 F800
G1 X22.651 Y49.469 Z0 F800
G1 X22.722 Y49.381 Z0 F800
G1 X22.805 Y49.31 Z0 F800
G1 X22.894 Y49.256 Z0 F800
G1 X22.968 Y49.228 Z0 F800
G1 X23.141 Y49.445 Z0 F800
G1 X23.457 Y49.737 Z0 F800
G1 X23.787 Y49.971 Z0 F800
G1 X24.125 Y50.16 Z0 F800
G1 X24.733 Y50.423 Z0 F800
G1 X25.269 Y50.629 Z0 F800
G1 X25.228 Y50.656 Z0 F800
G1 X24.983 Y50.858 Z0 F800
G1 X24.743 Y51.12 Z0 F800
G1 X24.612 Y51.334 Z0 F800
G1 X24.539 Y51.565 Z0 F800
G1 X24.491 Y51.917 Z0 F800
G1 X24.478 Y52.267 Z0 F800
G1 X24.507 Y52.637 Z0 F800
G1 X24.593 Y53.028 Z0 F800
G1 X24.711 Y53.31 Z0 F800
G1 X24.153 Y53.314 Z0 F800
G0 Z3.5 F500
G0 X28.833 Y12.646 Z3.5 
G1 Z0 F500
G1 X28.561 Y12.285 Z0 F800
G1 X28.323 Y11.99 Z0 F800
G1 X28.201 Y11.863 Z0 F800
G1 X33.533 Y11.857 Z0 F800
G1 X33.392 Y11.98 Z0 F800
G1 X32.908 Y12.013 Z0 F800
G1 X32.322 Y12.092 Z0 F800
G1 X31.661 Y12.276 Z0 F800
G1 X31.243 Y12.459 Z0 F800
G1 X30.853 Y12.688 Z0 F800
G1 X30.505 Y12.956 Z0 F800
G1 X29.959 Y12.766 Z0 F800
G1 X29.372 Y12.694 Z0 F800
G1 X28.967 Y12.703 Z0 F800
G1 X28.848 Y12.651 Z0 F800
G1 X28.833 Y12.646 Z0 F800
G0 Z3.5 F500
G0 X27.872 Y12.387 Z3.5 
G1 Z0 F500
G1 X27.59 Y12.093 Z0 F800
G1 X27.221 Y11.799 Z0 F800
G1 X26.767 Y11.544 Z0 F800
G1 X26.425 Y11.431 Z0 F800
G1 X26.11 Y11.277 Z0 F800
G1 X26.08 Y11.266 Z0 F800
G1 X26.155 Z0 F800
G1 X36.172 Y11.254 Z0 F800
G1 X46.192 Z0 F800
G1 X55.42 Y11.251 Z0 F800
G1 X55.417 Y20.208 Z0 F800
G1 X55.407 Y29.736 Z0 F800
G1 X55.41 Y39.267 Z0 F800
G1 X55.423 Y42.483 Z0 F800
G1 X55.365 Y42.376 Z0 F800
G1 X54.809 Y41.501 Z0 F800
G1 X54.197 Y40.664 Z0 F800
G1 X53.525 Y39.858 Z0 F800
G1 X53.411 Y39.744 Z0 F800
G1 X53.028 Y39.428 Z0 F800
G1 X52.616 Y39.152 Z0 F800
G1 X52.186 Y38.921 Z0 F800
G1 X51.741 Y38.734 Z0 F800
G1 X51.287 Y38.587 Z0 F800
G1 X50.826 Y38.481 Z0 F800
G1 X50.363 Y38.414 Z0 F800
G1 X49.837 Y38.381 Z0 F800
G1 X49.413 Y38.435 Z0 F800
G1 X49.024 Y38.604 Z0 F800
G1 X48.802 Y38.754 Z0 F800
G1 X48.783 Y38.143 Z0 F800
G1 X48.804 Y37.591 Z0 F800
G1 X48.831 Y37.372 Z0 F800
G1 X48.871 Y37.169 Z0 F800
G1 X48.92 Y36.999 Z0 F800
G1 X49.022 Y36.753 Z0 F800
G1 X49.112 Y36.496 Z0 F800
G1 X49.154 Y36.132 Z0 F800
G1 X49.119 Y35.768 Z0 F800
G1 X49.017 Y35.458 Z0 F800
G1 X48.719 Y34.859 Z0 F800
G1 X48.311 Y34.263 Z0 F800
G1 X47.99 Y33.927 Z0 F800
G1 X47.62 Y33.636 Z0 F800
G1 X47.177 Y33.393 Z0 F800
G1 X46.801 Y33.268 Z0 F800
G1 X46.57 Y33.179 Z0 F800
G1 X46.747 Y32.987 Z0 F800
G1 X47.044 Y32.579 Z0 F800
G1 X47.295 Y32.149 Z0 F800
G1 X47.499 Y31.701 Z0 F800
G1 X47.656 Y31.242 Z0 F800
G1 X47.771 Y30.772 Z0 F800
G1 X47.84 Y30.298 Z0 F800
G1 X47.868 Y29.802 Z0 F800
G1 X47.85 Y29.55 Z0 F800
G1 X47.79 Y29.299 Z0 F800
G1 X47.576 Y28.75 Z0 F800
G1 X47.272 Y28.221 Z0 F800
G1 X47.202 Y28.13 Z0 F800
G1 X47.437 Y27.938 Z0 F800
G1 X47.578 Y27.776 Z0 F800
G1 X47.853 Y27.668 Z0 F800
G1 X48.168 Y27.469 Z0 F800
G1 X48.464 Y27.169 Z0 F800
G1 X48.676 Y26.806 Z0 F800
G1 X48.786 Y26.452 Z0 F800
G1 X48.822 Y26.14 Z0 F800
G1 X48.809 Y25.851 Z0 F800
G1 X48.75 Y25.58 Z0 F800
G1 X48.744 Y25.563 Z0 F800
G1 X48.696 Y25.061 Z0 F800
G1 X48.601 Y24.392 Z0 F800
G1 X48.479 Y23.737 Z0 F800
G1 X48.324 Y23.041 Z0 F800
G1 X48.217 Y22.742 Z0 F800
G1 X48.018 Y22.429 Z0 F800
G1 X47.915 Y22.326 Z0 F800
G1 X48.008 Y22.142 Z0 F800
G1 X48.192 Y21.852 Z0 F800
G1 X48.354 Y21.506 Z0 F800
G1 X48.394 Y21.373 Z0 F800
G1 X48.459 Y21.272 Z0 F800
G1 X48.589 Y21.081 Z0 F800
G1 X48.774 Y20.798 Z0 F800
G1 X48.986 Y20.395 Z0 F800
G1 X49.149 Y19.898 Z0 F800
G1 X49.203 Y19.563 Z0 F800
G1 X49.217 Y19.231 Z0 F800
G1 X49.183 Y18.878 Z0 F800
G1 X49.122 Y18.629 Z0 F800
G1 X48.948 Y17.792 Z0 F800
G1 X48.668 Y16.946 Z0 F800
G1 X48.363 Y16.2 Z0 F800
G1 X48.146 Y15.69 Z0 F800
G1 X48.139 Y15.531 Z0 F800
G1 X48.104 Y15.263 Z0 F800
G1 X47.976 Y14.913 Z0 F800
G1 X47.754 Y14.569 Z0 F800
G1 X47.478 Y14.295 Z0 F800
G1 X47.136 Y14.087 Z0 F800
G1 X46.75 Y13.963 Z0 F800
G1 X46.399 Y13.94 Z0 F800
G1 X45.502 Y14.013 Z0 F800
G1 X44.731 Y14.104 Z0 F800
G1 X44.063 Y14.169 Z0 F800
G1 X43.506 Y14.18 Z0 F800
G1 X42.56 Y14.169 Z0 F800
G1 X41.737 Y14.154 Z0 F800
G1 X40.994 Y14.103 Z0 F800
G1 X40.719 Y14.055 Z0 F800
G1 X40.595 Y13.945 Z0 F800
G1 X40.337 Y13.78 Z0 F800
G1 X40.012 Y13.648 Z0 F800
G1 X39.66 Y13.587 Z0 F800
G1 X39.339 Y13.595 Z0 F800
G1 X39.184 Y13.624 Z0 F800
G1 X38.825 Y13.401 Z0 F800
G1 X38.632 Y13.292 Z0 F800
G1 Y13.281 Z0 F800
G1 X38.463 Y12.887 Z0 F800
G1 X38.204 Y12.546 Z0 F800
G1 X37.888 Y12.3 Z0 F800
G1 X37.395 Y12.055 Z0 F800
G1 X36.92 Y11.904 Z0 F800
G1 X36.459 Y11.826 Z0 F800
G1 X36.002 Y11.801 Z0 F800
G1 X35.26 Y11.858 Z0 F800
G1 X34.528 Y11.996 Z0 F800
G1 X34.076 Y12.178 Z0 F800
G1 X33.7 Y12.508 Z0 F800
G1 X33.66 Y12.563 Z0 F800
G1 X32.969 Y12.611 Z0 F800
G1 X32.443 Y12.681 Z0 F800
G1 X31.863 Y12.843 Z0 F800
G1 X31.516 Y12.995 Z0 F800
G1 X31.189 Y13.186 Z0 F800
G1 X30.875 Y13.428 Z0 F800
G1 X30.664 Y13.641 Z0 F800
G1 X30.66 Y13.644 Z0 F800
G1 X30.645 Z0 F800
G1 X30.593 Z0 F800
G1 X30.55 Y13.641 Z0 F800
G1 X30.519 Y13.631 Z0 F800
G1 X30.442 Y13.593 Z0 F800
G1 X30.334 Y13.532 Z0 F800
G1 X29.823 Y13.354 Z0 F800
G1 X29.342 Y13.295 Z0 F800
G1 X28.983 Y13.303 Z0 F800
G1 X28.865 Y13.313 Z0 F800
G1 X28.63 Y13.21 Z0 F800
G1 X28.48 Y13.159 Z0 F800
G1 X28.37 Y13.029 Z0 F800
G1 X28.087 Y12.654 Z0 F800
G1 X27.872 Y12.387 Z0 F800
G0 Z3.5 F500
G0 X26.152 Y10.665 Z3.5 
G1 Z0 F500
G1 X36.171 Y10.654 Z0 F800
G1 X46.192 Z0 F800
G1 X56.021 Y10.651 Z0 F800
G1 Y10.659 Z0 F800
G1 X56.018 Y20.208 Z0 F800
G1 X56.007 Y29.736 Z0 F800
G1 X56.01 Y39.266 Z0 F800
G1 X56.042 Y47.075 Z0 F800
G1 X55.42 Y43.833 Z0 F800
G1 X55.388 Y43.704 Z0 F800
G1 X55.33 Y43.564 Z0 F800
G1 X54.848 Y42.681 Z0 F800
G1 X54.313 Y41.839 Z0 F800
G1 X53.724 Y41.033 Z0 F800
G1 X53.082 Y40.263 Z0 F800
G1 X53.007 Y40.188 Z0 F800
G1 X52.669 Y39.91 Z0 F800
G1 X52.307 Y39.667 Z0 F800
G1 X51.926 Y39.463 Z0 F800
G1 X51.532 Y39.297 Z0 F800
G1 X51.127 Y39.166 Z0 F800
G1 X50.716 Y39.071 Z0 F800
G1 X50.301 Y39.012 Z0 F800
G1 X49.856 Y38.983 Z0 F800
G1 X49.573 Y39.019 Z0 F800
G1 X49.314 Y39.132 Z0 F800
G1 X49.069 Y39.298 Z0 F800
G1 X48.81 Y39.495 Z0 F800
G1 X48.767 Y39.473 Z0 F800
G1 X48.594 Y39.369 Z0 F800
G1 X48.442 Y39.258 Z0 F800
G1 X48.326 Y39.149 Z0 F800
G1 X48.254 Y39.063 Z0 F800
G1 X48.221 Y39.003 Z0 F800
G1 X48.208 Y38.958 Z0 F800
G1 X48.203 Y38.855 Z0 F800
G1 Y38.832 Z0 F800
G1 X48.182 Y38.139 Z0 F800
G1 X48.205 Y37.542 Z0 F800
G1 X48.237 Y37.276 Z0 F800
G1 X48.286 Y37.031 Z0 F800
G1 X48.354 Y36.799 Z0 F800
G1 X48.461 Y36.54 Z0 F800
G1 X48.523 Y36.361 Z0 F800
G1 X48.551 Y36.126 Z0 F800
G1 X48.528 Y35.892 Z0 F800
G1 X48.46 Y35.686 Z0 F800
G1 X48.2 Y35.164 Z0 F800
G1 X47.843 Y34.642 Z0 F800
G1 X47.585 Y34.372 Z0 F800
G1 X47.288 Y34.138 Z0 F800
G1 X46.936 Y33.944 Z0 F800
G1 X46.591 Y33.83 Z0 F800
G1 X46.096 Y33.641 Z0 F800
G1 X45.557 Y33.507 Z0 F800
G1 X45.04 Y33.429 Z0 F800
G1 X44.606 Y33.389 Z0 F800
G1 X43.982 Y33.232 Z0 F800
G1 X43.297 Y33.133 Z0 F800
G1 X42.644 Y33.083 Z0 F800
G1 X42.097 Y33.062 Z0 F800
G1 X41.827 Y32.984 Z0 F800
G1 X42.276 Y32.98 Z0 F800
G1 X42.656 Y32.924 Z0 F800
G1 X43.225 Z0 F800
G1 X43.81 Y32.958 Z0 F800
G1 X44.35 Y33.041 Z0 F800
G1 X44.907 Y33.198 Z0 F800
G1 X45.145 Y33.248 Z0 F800
G1 X45.447 Y33.226 Z0 F800
G1 X45.734 Y33.122 Z0 F800
G1 X45.962 Y32.955 Z0 F800
G1 X46.281 Y32.606 Z0 F800
G1 X46.542 Y32.25 Z0 F800
G1 X46.761 Y31.873 Z0 F800
G1 X46.94 Y31.479 Z0 F800
G1 X47.08 Y31.073 Z0 F800
G1 X47.181 Y30.658 Z0 F800
G1 X47.243 Y30.238 Z0 F800
G1 X47.267 Y29.807 Z0 F800
G1 X47.255 Y29.642 Z0 F800
G1 X47.216 Y29.479 Z0 F800
G1 X47.034 Y29.01 Z0 F800
G1 X46.773 Y28.555 Z0 F800
G1 X46.59 Y28.319 Z0 F800
G1 X46.385 Y28.106 Z0 F800
G1 X46.215 Y27.968 Z0 F800
G1 X46.45 Y27.888 Z0 F800
G1 X46.746 Y27.728 Z0 F800
G1 X47.019 Y27.505 Z0 F800
G1 X47.252 Y27.238 Z0 F800
G1 X47.387 Y27.207 Z0 F800
G1 X47.581 Y27.131 Z0 F800
G1 X47.789 Y26.999 Z0 F800
G1 X47.983 Y26.802 Z0 F800
G1 X48.124 Y26.563 Z0 F800
G1 X48.196 Y26.328 Z0 F800
G1 X48.22 Y26.119 Z0 F800
G1 X48.212 Y25.929 Z0 F800
G1 X48.172 Y25.746 Z0 F800
G1 X48.154 Y25.695 Z0 F800
G1 X48.1 Y25.131 Z0 F800
G1 X48.008 Y24.489 Z0 F800
G1 X47.891 Y23.857 Z0 F800
G1 X47.747 Y23.208 Z0 F800
G1 X47.675 Y23.008 Z0 F800
G1 X47.546 Y22.807 Z0 F800
G1 X47.378 Y22.638 Z0 F800
G1 X47.188 Y22.517 Z0 F800
G1 X46.923 Y22.407 Z0 F800
G1 X47.037 Y22.313 Z0 F800
G1 X47.348 Y22.007 Z0 F800
G1 X47.515 Y21.798 Z0 F800
G1 X47.665 Y21.563 Z0 F800
G1 X47.792 Y21.292 Z0 F800
G1 X47.835 Y21.147 Z0 F800
G1 X47.869 Y21.081 Z0 F800
G1 X47.961 Y20.937 Z0 F800
G1 X48.09 Y20.748 Z0 F800
G1 X48.256 Y20.494 Z0 F800
G1 X48.431 Y20.16 Z0 F800
G1 X48.564 Y19.755 Z0 F800
G1 X48.605 Y19.503 Z0 F800
G1 X48.616 Y19.248 Z0 F800
G1 X48.59 Y18.979 Z0 F800
G1 X48.533 Y18.749 Z0 F800
G1 X48.368 Y17.947 Z0 F800
G1 X48.105 Y17.154 Z0 F800
G1 X47.81 Y16.431 Z0 F800
G1 X47.549 Y15.819 Z0 F800
G1 Y15.786 Z0 F800
G1 X47.541 Y15.582 Z0 F800
G1 X47.518 Y15.407 Z0 F800
G1 X47.436 Y15.182 Z0 F800
G1 X47.285 Y14.949 Z0 F800
G1 X47.105 Y14.771 Z0 F800
G1 X46.885 Y14.636 Z0 F800
G1 X46.638 Y14.557 Z0 F800
G1 X46.403 Y14.542 Z0 F800
G1 X45.562 Y14.61 Z0 F800
G1 X44.806 Y14.699 Z0 F800
G1 X44.102 Y14.769 Z0 F800
G1 X43.481 Y14.78 Z0 F800
G1 X42.548 Y14.769 Z0 F800
G1 X41.704 Y14.753 Z0 F800
G1 X40.92 Y14.699 Z0 F800
G1 X40.425 Y14.614 Z0 F800
G1 X40.366 Y14.543 Z0 F800
G1 X40.232 Y14.425 Z0 F800
G1 X40.061 Y14.315 Z0 F800
G1 X39.847 Y14.229 Z0 F800
G1 X39.615 Y14.188 Z0 F800
G1 X39.402 Y14.193 Z0 F800
G1 X39.214 Y14.229 Z0 F800
G1 X39.13 Y14.259 Z0 F800
G1 X39.123 Z0 F800
G1 X39.054 Y14.234 Z0 F800
G1 X38.934 Y14.175 Z0 F800
G1 X38.518 Y13.917 Z0 F800
G1 X38.081 Y13.668 Z0 F800
G1 Y13.654 Z0 F800
G1 X38.048 Y13.444 Z0 F800
G1 X37.941 Y13.19 Z0 F800
G1 X37.774 Y12.972 Z0 F800
G1 X37.567 Y12.811 Z0 F800
G1 X37.169 Y12.613 Z0 F800
G1 X36.778 Y12.489 Z0 F800
G1 X36.393 Y12.423 Z0 F800
G1 X36.01 Y12.402 Z0 F800
G1 X35.338 Y12.454 Z0 F800
G1 X34.697 Y12.574 Z0 F800
G1 X34.396 Y12.696 Z0 F800
G1 X34.146 Y12.916 Z0 F800
G1 X34 Y13.114 Z0 F800
G1 X33.991 Y13.131 Z0 F800
G1 X33.761 Y13.158 Z0 F800
G1 X33.029 Y13.208 Z0 F800
G1 X32.564 Y13.27 Z0 F800
G1 X32.065 Y13.41 Z0 F800
G1 X31.788 Y13.531 Z0 F800
G1 X31.525 Y13.685 Z0 F800
G1 X31.273 Y13.879 Z0 F800
G1 X31.076 Y14.077 Z0 F800
G1 X30.994 Y14.151 Z0 F800
G1 X30.919 Y14.193 Z0 F800
G1 X30.816 Y14.227 Z0 F800
G1 X30.692 Y14.246 Z0 F800
G1 X30.555 Z0 F800
G1 X30.418 Y14.228 Z0 F800
G1 X30.297 Y14.191 Z0 F800
G1 X30.169 Y14.127 Z0 F800
G1 X30.085 Y14.081 Z0 F800
G1 X29.687 Y13.941 Z0 F800
G1 X29.313 Y13.896 Z0 F800
G1 X29.014 Y13.902 Z0 F800
G1 X28.798 Y13.92 Z0 F800
G1 X28.737 Y13.923 Z0 F800
G1 X28.643 Y13.87 Z0 F800
G1 X28.412 Y13.77 Z0 F800
G1 X28.216 Y13.702 Z0 F800
G1 X28.115 Y13.671 Z0 F800
G1 X28.027 Y13.552 Z0 F800
G1 X27.895 Y13.395 Z0 F800
G1 X27.614 Y13.023 Z0 F800
G1 X27.421 Y12.784 Z0 F800
G1 X27.185 Y12.537 Z0 F800
G1 X26.886 Y12.299 Z0 F800
G1 X26.523 Y12.096 Z0 F800
G1 X26.196 Y11.987 Z0 F800
G1 X25.874 Y11.829 Z0 F800
G1 X25.484 Y11.685 Z0 F800
G1 X25.1 Y11.581 Z0 F800
G1 X24.718 Y11.508 Z0 F800
G1 X24.018 Y11.431 Z0 F800
G1 X23.316 Y11.391 Z0 F800
G1 X22.961 Y11.437 Z0 F800
G1 X22.659 Y11.607 Z0 F800
G1 X22.492 Y11.736 Z0 F800
G1 X22.33 Y11.855 Z0 F800
G1 X22.117 Y12.023 Z0 F800
G1 X21.872 Y12.252 Z0 F800
G1 X21.624 Y12.577 Z0 F800
G1 X21.439 Y12.979 Z0 F800
G1 X21.374 Y13.233 Z0 F800
G1 X21.345 Y13.487 Z0 F800
G1 X21.353 Y13.756 Z0 F800
G1 X21.356 Y13.772 Z0 F800
G1 X21.349 Y13.826 Z0 F800
G1 X21.302 Y13.928 Z0 F800
G1 X21.185 Y14.091 Z0 F800
G1 X20.986 Y14.316 Z0 F800
G1 X20.703 Y14.624 Z0 F800
G1 X20.396 Y15.004 Z0 F800
G1 X20.238 Y15.248 Z0 F800
G1 X20.1 Y15.517 Z0 F800
G1 X19.988 Y15.817 Z0 F800
G1 X19.947 Y15.989 Z0 F800
G1 X19.654 Y16.741 Z0 F800
G1 X19.305 Y17.581 Z0 F800
G1 X19.138 Y18.064 Z0 F800
G1 X19.003 Y18.582 Z0 F800
G1 X18.92 Y19.139 Z0 F800
G1 X18.894 Y20.245 Z0 F800
G1 X18.955 Y20.878 Z0 F800
G1 X19.042 Y21.238 Z0 F800
G1 X19.179 Y21.59 Z0 F800
G1 X19.375 Y21.936 Z0 F800
G1 X19.6 Y22.216 Z0 F800
G1 X19.814 Y22.494 Z0 F800
G1 X20.086 Y22.754 Z0 F800
G1 X20.376 Y22.962 Z0 F800
G1 X20.683 Y23.132 Z0 F800
G1 X21.247 Y23.347 Z0 F800
G1 X21.475 Y23.404 Z0 F800
G1 X21.556 Y23.554 Z0 F800
G1 X21.771 Y23.828 Z0 F800
G1 X21.96 Y23.986 Z0 F800
G1 X22.167 Y24.109 Z0 F800
G1 X22.392 Y24.2 Z0 F800
G1 X22.624 Y24.254 Z0 F800
G1 X22.989 Y24.291 Z0 F800
G1 X23.319 Y24.277 Z0 F800
G1 X23.588 Y24.241 Z0 F800
G1 X23.794 Y24.207 Z0 F800
G1 X23.92 Y24.19 Z0 F800
G1 X23.983 Z0 F800
G1 X23.989 Z0 F800
G1 X24.304 Y24.354 Z0 F800
G1 X24.468 Y24.468 Z0 F800
G1 X24.447 Y24.529 Z0 F800
G1 X24.435 Y24.659 Z0 F800
G1 X24.381 Y24.673 Z0 F800
G1 X24.428 Y24.979 Z0 F800
G1 X24.447 Y25.188 Z0 F800
G1 X24.469 Y25.251 Z0 F800
G1 X24.527 Y25.631 Z0 F800
G1 X24.533 Y26.006 Z0 F800
G1 X24.486 Y26.358 Z0 F800
G1 X24.375 Y26.729 Z0 F800
G1 X24.348 Y26.799 Z0 F800
G1 X24.291 Y27.123 Z0 F800
G1 X24.297 Y27.444 Z0 F800
G1 X24.36 Y27.75 Z0 F800
G1 X24.479 Y28.038 Z0 F800
G1 X24.739 Y28.404 Z0 F800
G1 X24.793 Y28.456 Z0 F800
G1 X24.511 Y28.717 Z0 F800
G1 X24.109 Y29.025 Z0 F800
G1 X24.031 Y29.077 Z0 F800
G1 X24.014 Y29.062 Z0 F800
G1 X23.753 Y28.894 Z0 F800
G1 X23.485 Y28.789 Z0 F800
G1 X23.225 Y28.767 Z0 F800
G1 X22.393 Y28.791 Z0 F800
G1 X21.513 Y28.839 Z0 F800
G1 X21.025 Y28.911 Z0 F800
G1 X20.529 Y29.035 Z0 F800
G1 X20.029 Y29.229 Z0 F800
G1 X19.576 Y29.483 Z0 F800
G1 X19.307 Y29.628 Z0 F800
G1 X19.026 Y29.841 Z0 F800
G1 X18.787 Y30.084 Z0 F800
G1 X18.59 Y30.351 Z0 F800
G1 X18.433 Y30.632 Z0 F800
G1 X18.311 Y30.923 Z0 F800
G1 X18.224 Y31.219 Z0 F800
G1 X18.198 Y31.357 Z0 F800
G1 X17.933 Y32.044 Z0 F800
G1 X17.673 Y32.877 Z0 F800
G1 X17.568 Y33.323 Z0 F800
G1 X17.486 Y33.775 Z0 F800
G1 X17.433 Y34.241 Z0 F800
G1 X17.414 Y34.655 Z0 F800
G1 X17.334 Y35.195 Z0 F800
G1 X17.178 Y35.812 Z0 F800
G1 X16.998 Y36.532 Z0 F800
G1 X16.87 Y37.366 Z0 F800
G1 X16.88 Y37.606 Z0 F800
G1 X16.94 Y37.821 Z0 F800
G1 X17.092 Y38.172 Z0 F800
G1 X17.193 Y38.404 Z0 F800
G1 X17.232 Y38.519 Z0 F800
G1 X17.238 Y38.586 Z0 F800
G1 X17.235 Y38.628 Z0 F800
G1 X17.25 Y39.231 Z0 F800
G1 X17.27 Y39.774 Z0 F800
G1 X17.277 Y40.283 Z0 F800
G1 X17.269 Y40.479 Z0 F800
G1 X17.086 Y40.617 Z0 F800
G1 X16.789 Y40.926 Z0 F800
G1 X16.679 Y41.108 Z0 F800
G1 X16.298 Y41.243 Z0 F800
G1 X15.666 Y41.476 Z0 F800
G1 X14.998 Y41.779 Z0 F800
G1 X14.333 Y42.189 Z0 F800
G1 X14.225 Y42.278 Z0 F800
G1 X14.124 Y42.386 Z0 F800
G1 X13.946 Y42.648 Z0 F800
G1 X13.951 Y37.732 Z0 F800
G1 X13.945 Y32.539 Z0 F800
G1 X13.949 Y27.221 Z0 F800
G1 X13.941 Y21.91 Z0 F800
G1 X13.955 Y16.608 Z0 F800
G1 X14.023 Y11.292 Z0 F800
G1 X14.057 Y10.916 Z0 F800
G1 Y10.746 Z0 F800
G1 X14.183 Y10.735 Z0 F800
G1 X14.792 Y10.724 Z0 F800
G1 X15.451 Z0 F800
G1 X16.134 Y10.702 Z0 F800
G1 X26.152 Y10.665 Z0 F800
G0 Z3.5 F500
G0 X14.201 Y49.661 Z3.5 
G1 Z0 F500
G1 X14.251 Y49.756 Z0 F800
G1 X14.294 Y49.897 Z0 F800
G1 X14.328 Y50.104 Z0 F800
G1 X14.365 Y50.726 Z0 F800
G1 X14.411 Y51.343 Z0 F800
G1 X14.434 Y52.061 Z0 F800
G1 X14.467 Y52.71 Z0 F800
G1 X14.479 Y53.301 Z0 F800
G1 X14.386 Z0 F800
G1 X14.212 Y53.316 Z0 F800
G1 X14.12 Z0 F800
G1 X14.055 Y53.302 Z0 F800
G1 X14.031 Y53.293 Z0 F800
G1 X13.98 Y49.428 Z0 F800
G1 X14.098 Y49.542 Z0 F800
G1 X14.201 Y49.661 Z0 F800
G0 Z3.5 F500
G0 X39.729 Y32.747 Z3.5 
G1 Z0 F500
G1 X40.029 Y32.66 Z0 F800
G1 X40.174 Y32.643 Z0 F800
G1 X40.325 Z0 F800
G1 X40.455 Y32.666 Z0 F800
G1 X40.623 Y32.722 Z0 F800
G1 X40.414 Y32.717 Z0 F800
G1 X40.18 Y32.744 Z0 F800
G1 X39.729 Y32.747 Z0 F800
G0 Z3.5 F500
G0 X43.867 Y29.577 Z3.5 
G1 Z0 F500
G1 X43.856 Y29.025 Z0 F800
G1 X43.848 Y27.943 Z0 F800
G1 X43.865 Y26.851 Z0 F800
G1 X43.889 Y26.387 Z0 F800
G1 X43.928 Z0 F800
G1 X43.998 Y26.394 Z0 F800
G1 X44.026 Y26.609 Z0 F800
G1 X44.14 Y26.93 Z0 F800
G1 X44.256 Y27.192 Z0 F800
G1 X44.349 Y27.425 Z0 F800
G1 X44.404 Y27.595 Z0 F800
G1 X44.524 Y27.864 Z0 F800
G1 X44.265 Y28.109 Z0 F800
G1 X44.1 Y28.404 Z0 F800
G1 X44.024 Y28.665 Z0 F800
G1 X44.004 Y28.88 Z0 F800
G1 X44.007 Y29.035 Z0 F800
G1 X44.021 Y29.239 Z0 F800
G1 X44.032 Y29.359 Z0 F800
G1 Y29.365 Z0 F800
G1 X43.989 Y29.582 Z0 F800
G1 X43.867 Y29.577 Z0 F800
G0 Z3.5 F500
G0 X43.256 Y29.037 Z3.5 
G1 Z0 F500
G1 X43.248 Y27.934 Z0 F800
G1 X43.265 Y26.842 Z0 F800
G1 X43.321 Y25.764 Z0 F800
G1 X43.957 Y25.79 Z0 F800
G1 X44.572 Y25.836 Z0 F800
G1 X44.579 Y26.026 Z0 F800
G1 X44.582 Y26.233 Z0 F800
G1 X44.613 Y26.468 Z0 F800
G1 X44.698 Y26.708 Z0 F800
G1 X44.808 Y26.958 Z0 F800
G1 X44.914 Y27.22 Z0 F800
G1 X44.965 Y27.379 Z0 F800
G1 X45.02 Y27.501 Z0 F800
G1 X45.104 Y27.57 Z0 F800
G1 X45.246 Y27.573 Z0 F800
G1 X45.684 Y27.491 Z0 F800
G1 X45.94 Y27.428 Z0 F800
G1 X46.208 Y27.336 Z0 F800
G1 X46.411 Y27.227 Z0 F800
G1 X46.6 Y27.072 Z0 F800
G1 X46.77 Y26.878 Z0 F800
G1 X46.914 Y26.651 Z0 F800
G1 X47.008 Y26.658 Z0 F800
G1 X47.126 Y26.651 Z0 F800
G1 X47.21 Y26.632 Z0 F800
G1 X47.308 Y26.593 Z0 F800
G1 X47.41 Y26.529 Z0 F800
G1 X47.503 Y26.434 Z0 F800
G1 X47.571 Y26.319 Z0 F800
G1 X47.606 Y26.204 Z0 F800
G1 X47.619 Y26.097 Z0 F800
G1 X47.615 Y26.006 Z0 F800
G1 X47.594 Y25.911 Z0 F800
G1 X47.564 Y25.827 Z0 F800
G1 X47.504 Y25.203 Z0 F800
G1 X47.416 Y24.586 Z0 F800
G1 X47.303 Y23.977 Z0 F800
G1 X47.169 Y23.375 Z0 F800
G1 X47.133 Y23.274 Z0 F800
G1 X47.076 Y23.184 Z0 F800
G1 X47 Y23.109 Z0 F800
G1 X46.91 Y23.051 Z0 F800
G1 X46.664 Y22.949 Z0 F800
G1 X46.436 Y22.883 Z0 F800
G1 X46.233 Y22.834 Z0 F800
G1 X46.064 Y22.787 Z0 F800
G1 X45.96 Y22.743 Z0 F800
G1 X45.908 Y22.709 Z0 F800
G1 X45.954 Y22.551 Z0 F800
G1 X46.044 Y22.404 Z0 F800
G1 X46.183 Y22.253 Z0 F800
G1 X46.376 Y22.083 Z0 F800
G1 X46.633 Y21.868 Z0 F800
G1 X46.902 Y21.604 Z0 F800
G1 X47.026 Y21.449 Z0 F800
G1 X47.138 Y21.274 Z0 F800
G1 X47.229 Y21.077 Z0 F800
G1 X47.296 Y20.856 Z0 F800
G1 X47.277 Y20.922 Z0 F800
G1 X47.348 Y20.78 Z0 F800
G1 X47.457 Y20.611 Z0 F800
G1 X47.591 Y20.415 Z0 F800
G1 X47.738 Y20.19 Z0 F800
G1 X47.877 Y19.925 Z0 F800
G1 X47.979 Y19.613 Z0 F800
G1 X48.007 Y19.442 Z0 F800
G1 X48.015 Y19.264 Z0 F800
G1 X47.997 Y19.081 Z0 F800
G1 X47.951 Y18.893 Z0 F800
G1 X47.787 Y18.103 Z0 F800
G1 X47.542 Y17.362 Z0 F800
G1 X47.256 Y16.662 Z0 F800
G1 X46.97 Y15.993 Z0 F800
G1 X46.949 Y15.949 Z0 F800
G1 X46.923 Y15.909 Z0 F800
G1 X46.954 Y15.956 Z0 F800
G1 X46.96 Y15.962 Z0 F800
G1 X46.954 Y15.933 Z0 F800
G1 X46.949 Y15.875 Z0 F800
G1 Y15.798 Z0 F800
G1 X46.942 Y15.633 Z0 F800
G1 X46.932 Y15.551 Z0 F800
G1 X46.895 Y15.451 Z0 F800
G1 X46.816 Y15.329 Z0 F800
G1 X46.733 Y15.246 Z0 F800
G1 X46.634 Y15.186 Z0 F800
G1 X46.524 Y15.151 Z0 F800
G1 X46.408 Y15.143 Z0 F800
G1 X45.622 Y15.207 Z0 F800
G1 X44.865 Y15.296 Z0 F800
G1 X44.135 Y15.368 Z0 F800
G1 X43.427 Y15.381 Z0 F800
G1 X43.416 Z0 F800
G1 X42.537 Y15.369 Z0 F800
G1 X41.68 Y15.353 Z0 F800
G1 X40.851 Y15.295 Z0 F800
G1 X40.058 Y15.16 Z0 F800
G1 X40.032 Y15.1 Z0 F800
G1 X39.982 Y15.02 Z0 F800
G1 X39.935 Y14.963 Z0 F800
G1 X39.868 Y14.904 Z0 F800
G1 X39.784 Y14.85 Z0 F800
G1 X39.681 Y14.809 Z0 F800
G1 X39.571 Y14.79 Z0 F800
G1 X39.465 Z0 F800
G1 X39.37 Y14.81 Z0 F800
G1 X39.291 Y14.838 Z0 F800
G1 X39.263 Y14.855 Z0 F800
G1 X39.125 Y14.864 Z0 F800
G1 X38.98 Y14.843 Z0 F800
G1 X38.823 Y14.789 Z0 F800
G1 X38.644 Y14.701 Z0 F800
G1 X38.211 Y14.433 Z0 F800
G1 X37.705 Y14.145 Z0 F800
G1 X37.671 Y14.129 Z0 F800
G1 X37.591 Y14.083 Z0 F800
G1 X37.542 Y14.014 Z0 F800
G1 X37.502 Y13.895 Z0 F800
G1 X37.484 Y13.731 Z0 F800
G1 X37.466 Y13.607 Z0 F800
G1 X37.418 Y13.495 Z0 F800
G1 X37.344 Y13.397 Z0 F800
G1 X37.246 Y13.321 Z0 F800
G1 X36.944 Y13.171 Z0 F800
G1 X36.636 Y13.073 Z0 F800
G1 X36.326 Y13.02 Z0 F800
G1 X36.017 Y13.003 Z0 F800
G1 X35.417 Y13.05 Z0 F800
G1 X34.867 Y13.153 Z0 F800
G1 X34.715 Y13.214 Z0 F800
G1 X34.591 Y13.323 Z0 F800
G1 X34.505 Y13.44 Z0 F800
G1 X34.452 Y13.534 Z0 F800
G1 X34.4 Y13.651 Z0 F800
G1 X34.12 Y13.72 Z0 F800
G1 X33.812 Y13.756 Z0 F800
G1 X33.089 Y13.805 Z0 F800
G1 X32.686 Y13.859 Z0 F800
G1 X32.267 Y13.976 Z0 F800
G1 X32.061 Y14.066 Z0 F800
G1 X31.861 Y14.183 Z0 F800
G1 X31.671 Y14.33 Z0 F800
G1 X31.494 Y14.508 Z0 F800
G1 X31.344 Y14.643 Z0 F800
G1 X31.163 Y14.744 Z0 F800
G1 X30.958 Y14.812 Z0 F800
G1 X30.739 Y14.846 Z0 F800
G1 X30.513 Z0 F800
G1 X30.29 Y14.815 Z0 F800
G1 X30.077 Y14.751 Z0 F800
G1 X29.882 Y14.655 Z0 F800
G1 X29.837 Y14.629 Z0 F800
G1 X29.55 Y14.529 Z0 F800
G1 X29.283 Y14.497 Z0 F800
G1 X29.045 Y14.502 Z0 F800
G1 X28.847 Y14.518 Z0 F800
G1 X28.7 Y14.525 Z0 F800
G1 X28.598 Y14.521 Z0 F800
G1 X28.527 Y14.503 Z0 F800
G1 X28.47 Y14.469 Z0 F800
G1 X28.425 Y14.436 Z0 F800
G1 X28.376 Y14.409 Z0 F800
G1 X28.194 Y14.33 Z0 F800
G1 X28.029 Y14.272 Z0 F800
G1 X27.889 Y14.229 Z0 F800
G1 X27.779 Y14.192 Z0 F800
G1 X27.682 Y14.153 Z0 F800
G1 X27.628 Y14.021 Z0 F800
G1 X27.556 Y13.924 Z0 F800
G1 X27.429 Y13.774 Z0 F800
G1 X27.141 Y13.392 Z0 F800
G1 X26.97 Y13.18 Z0 F800
G1 X26.78 Y12.981 Z0 F800
G1 X26.55 Y12.798 Z0 F800
G1 X26.28 Y12.647 Z0 F800
G1 X25.968 Y12.543 Z0 F800
G1 X25.637 Y12.381 Z0 F800
G1 X25.302 Y12.257 Z0 F800
G1 X24.965 Y12.166 Z0 F800
G1 X24.629 Y12.102 Z0 F800
G1 X23.968 Y12.029 Z0 F800
G1 X23.337 Y11.993 Z0 F800
G1 X23.154 Y12.017 Z0 F800
G1 X22.992 Y12.108 Z0 F800
G1 X22.859 Y12.21 Z0 F800
G1 X22.694 Y12.332 Z0 F800
G1 X22.509 Y12.479 Z0 F800
G1 X22.318 Y12.657 Z0 F800
G1 X22.141 Y12.888 Z0 F800
G1 X22.007 Y13.18 Z0 F800
G1 X21.965 Y13.342 Z0 F800
G1 X21.946 Y13.513 Z0 F800
G1 X21.951 Y13.689 Z0 F800
G1 X21.964 Y13.756 Z0 F800
G1 X21.931 Y13.995 Z0 F800
G1 X21.824 Y14.229 Z0 F800
G1 X21.654 Y14.465 Z0 F800
G1 X21.427 Y14.723 Z0 F800
G1 X21.157 Y15.016 Z0 F800
G1 X20.882 Y15.356 Z0 F800
G1 X20.758 Y15.549 Z0 F800
G1 X20.649 Y15.76 Z0 F800
G1 X20.563 Y15.991 Z0 F800
G1 X20.503 Y16.245 Z0 F800
G1 X20.519 Y16.174 Z0 F800
G1 X20.213 Y16.959 Z0 F800
G1 X19.866 Y17.794 Z0 F800
G1 X19.713 Y18.237 Z0 F800
G1 X19.592 Y18.702 Z0 F800
G1 X19.519 Y19.19 Z0 F800
G1 X19.495 Y20.223 Z0 F800
G1 X19.548 Y20.778 Z0 F800
G1 X19.616 Y21.058 Z0 F800
G1 X19.723 Y21.333 Z0 F800
G1 X19.874 Y21.598 Z0 F800
G1 X20.076 Y21.85 Z0 F800
G1 X20.262 Y22.092 Z0 F800
G1 X20.471 Y22.292 Z0 F800
G1 X20.697 Y22.455 Z0 F800
G1 X20.936 Y22.586 Z0 F800
G1 X21.428 Y22.773 Z0 F800
G1 X21.886 Y22.889 Z0 F800
G1 X21.89 Y22.904 Z0 F800
G1 X21.972 Y23.063 Z0 F800
G1 X22.059 Y23.223 Z0 F800
G1 X22.205 Y23.409 Z0 F800
G1 X22.308 Y23.496 Z0 F800
G1 X22.433 Y23.57 Z0 F800
G1 X22.573 Y23.626 Z0 F800
G1 X22.722 Y23.661 Z0 F800
G1 X23.007 Y23.689 Z0 F800
G1 X23.267 Y23.679 Z0 F800
G1 X23.499 Y23.647 Z0 F800
G1 X23.701 Y23.614 Z0 F800
G1 X23.873 Y23.591 Z0 F800
G1 X24.012 Y23.586 Z0 F800
G1 X24.128 Y23.602 Z0 F800
G1 X24.234 Y23.641 Z0 F800
G1 X24.617 Y23.841 Z0 F800
G1 X24.941 Y24.065 Z0 F800
G1 X25.039 Y24.162 Z0 F800
G1 X25.099 Y24.251 Z0 F800
G1 X25.13 Y24.337 Z0 F800
G1 X25.14 Y24.426 Z0 F800
G1 X25.128 Y24.438 Z0 F800
G1 X25.089 Y24.504 Z0 F800
G1 X25.038 Y24.656 Z0 F800
G1 X25.019 Y24.852 Z0 F800
G1 X25.038 Y25.06 Z0 F800
G1 X25.103 Y25.249 Z0 F800
G1 X25.056 Y25.12 Z0 F800
G1 X25.126 Y25.582 Z0 F800
G1 X25.134 Y26.039 Z0 F800
G1 X25.075 Y26.486 Z0 F800
G1 X24.945 Y26.918 Z0 F800
G1 X24.929 Y26.959 Z0 F800
G1 X24.892 Y27.169 Z0 F800
G1 X24.896 Y27.377 Z0 F800
G1 X24.937 Y27.574 Z0 F800
G1 X25.007 Y27.747 Z0 F800
G1 X25.195 Y28.01 Z0 F800
G1 X25.39 Y28.198 Z0 F800
G1 X25.528 Y28.321 Z0 F800
G1 X25.628 Y28.418 Z0 F800
G1 X25.292 Y28.813 Z0 F800
G1 X24.896 Y29.178 Z0 F800
G1 X24.456 Y29.516 Z0 F800
G1 X23.982 Y29.829 Z0 F800
G1 X23.976 Y29.826 Z0 F800
G1 X23.96 Y29.815 Z0 F800
G1 X23.885 Y29.749 Z0 F800
G1 X23.788 Y29.655 Z0 F800
G1 X23.657 Y29.546 Z0 F800
G1 X23.478 Y29.43 Z0 F800
G1 X23.348 Y29.379 Z0 F800
G1 X23.208 Y29.368 Z0 F800
G1 X22.418 Y29.391 Z0 F800
G1 X21.573 Y29.437 Z0 F800
G1 X21.142 Y29.5 Z0 F800
G1 X20.711 Y29.608 Z0 F800
G1 X20.286 Y29.772 Z0 F800
G1 X19.871 Y30.006 Z0 F800
G1 X19.632 Y30.135 Z0 F800
G1 X19.423 Y30.292 Z0 F800
G1 X19.245 Y30.475 Z0 F800
G1 X19.095 Y30.677 Z0 F800
G1 X18.973 Y30.896 Z0 F800
G1 X18.877 Y31.124 Z0 F800
G1 X18.808 Y31.359 Z0 F800
G1 X18.777 Y31.522 Z0 F800
G1 X18.5 Y32.242 Z0 F800
G1 X18.252 Y33.036 Z0 F800
G1 X18.155 Y33.445 Z0 F800
G1 X18.08 Y33.863 Z0 F800
G1 X18.031 Y34.289 Z0 F800
G1 X18.012 Y34.711 Z0 F800
G1 X17.924 Y35.313 Z0 F800
G1 X17.759 Y35.959 Z0 F800
G1 X17.586 Y36.65 Z0 F800
G1 X17.472 Y37.399 Z0 F800
G1 X17.477 Y37.512 Z0 F800
G1 X17.507 Y37.622 Z0 F800
G1 X17.642 Y37.933 Z0 F800
G1 X17.753 Y38.186 Z0 F800
G1 X17.825 Y38.397 Z0 F800
G1 X17.839 Y38.584 Z0 F800
G1 X17.835 Y38.641 Z0 F800
G1 X17.85 Y39.213 Z0 F800
G1 X17.87 Y39.765 Z0 F800
G1 X17.878 Y40.293 Z0 F800
G1 X17.855 Y40.795 Z0 F800
G1 X17.69 Y40.913 Z0 F800
G1 X17.486 Y41.067 Z0 F800
G1 X17.268 Y41.294 Z0 F800
G1 X17.082 Y41.602 Z0 F800
G1 X16.502 Y41.808 Z0 F800
G1 X15.894 Y42.032 Z0 F800
G1 X15.28 Y42.31 Z0 F800
G1 X14.683 Y42.678 Z0 F800
G1 X14.636 Y42.717 Z0 F800
G1 X14.593 Y42.762 Z0 F800
G1 X14.318 Y43.169 Z0 F800
G1 X14.128 Y43.596 Z0 F800
G1 X14.006 Y44.033 Z0 F800
G1 X13.936 Y44.473 Z0 F800
G1 X13.887 Y45.326 Z0 F800
G1 X13.849 Y46.088 Z0 F800
G1 Y46.116 Z0 F800
G1 X13.838 Y46.461 Z0 F800
G1 X13.822 Y46.813 Z0 F800
G1 X13.814 Y47.19 Z0 F800
G1 X13.83 Y47.584 Z0 F800
G1 X13.89 Y47.994 Z0 F800
G1 X14.02 Y48.405 Z0 F800
G1 X14.116 Y48.605 Z0 F800
G1 X14.235 Y48.798 Z0 F800
G1 X14.382 Y48.981 Z0 F800
G1 X14.556 Y49.151 Z0 F800
G1 X14.542 Y49.139 Z0 F800
G1 X14.699 Y49.319 Z0 F800
G1 X14.809 Y49.526 Z0 F800
G1 X14.88 Y49.764 Z0 F800
G1 X14.925 Y50.04 Z0 F800
G1 X14.963 Y50.686 Z0 F800
G1 X15.017 Y51.407 Z0 F800
G1 X15.011 Y51.344 Z0 F800
G1 X15.033 Y52.036 Z0 F800
G1 X15.067 Y52.698 Z0 F800
G1 X15.08 Y53.329 Z0 F800
G1 X15.039 Y53.926 Z0 F800
G1 X15.021 Y53.931 Z0 F800
G1 X14.939 Z0 F800
G1 X14.791 Y53.92 Z0 F800
G1 X14.614 Y53.904 Z0 F800
G1 X14.408 Y53.899 Z0 F800
G1 X14.173 Y53.922 Z0 F800
G1 X14.216 Y53.916 Z0 F800
G1 X14.06 Y53.913 Z0 F800
G1 X13.897 Y53.883 Z0 F800
G1 X13.744 Y53.829 Z0 F800
G1 X13.615 Y53.754 Z0 F800
G1 X13.519 Y53.672 Z0 F800
G1 X13.457 Y53.586 Z0 F800
G1 X13.426 Y53.485 Z0 F800
G1 Y53.359 Z0 F800
G1 X13.431 Y53.326 Z0 F800
G1 Y53.293 Z0 F800
G1 X13.363 Y48.109 Z0 F800
G1 X13.346 Y42.922 Z0 F800
G1 X13.351 Y37.732 Z0 F800
G1 X13.345 Y32.539 Z0 F800
G1 X13.349 Y27.221 Z0 F800
G1 X13.341 Y21.909 Z0 F800
G1 X13.355 Y16.6 Z0 F800
G1 X13.423 Y11.295 Z0 F800
G1 X13.414 Y11.377 Z0 F800
G1 X13.458 Y10.885 Z0 F800
G1 X13.462 Y10.48 Z0 F800
G1 X13.498 Y10.294 Z0 F800
G1 X13.554 Y10.189 Z0 F800
G1 X14.151 Y10.135 Z0 F800
G1 X14.781 Y10.124 Z0 F800
G1 X15.441 Z0 F800
G1 X16.13 Y10.102 Z0 F800
G1 X26.15 Y10.065 Z0 F800
G1 X36.171 Y10.054 Z0 F800
G1 X46.192 Z0 F800
G1 X56.214 Y10.051 Z0 F800
G1 X56.425 Y10.201 Z0 F800
G1 X56.578 Y10.334 Z0 F800
G1 X56.63 Y10.395 Z0 F800
G1 X56.656 Y10.436 Z0 F800
G1 X56.659 Y10.479 Z0 F800
G1 X56.626 Y10.613 Z0 F800
G1 X56.621 Y10.684 Z0 F800
G1 X56.618 Y20.209 Z0 F800
G1 X56.607 Y29.736 Z0 F800
G1 X56.61 Y39.264 Z0 F800
G1 X56.65 Y48.795 Z0 F800
G1 X56.637 Y50.059 Z0 F800
G1 X56.632 Y51.308 Z0 F800
G1 X56.596 Y52.539 Z0 F800
G1 X56.488 Y53.746 Z0 F800
G1 X56.426 Y53.847 Z0 F800
G1 X56.328 Y53.912 Z0 F800
G1 X56.156 Y53.949 Z0 F800
G1 X55.947 Y53.934 Z0 F800
G1 X55.896 Y53.925 Z0 F800
G1 X55.843 Y53.922 Z0 F800
G1 X28.535 Z0 F800
G1 X28.582 Y53.865 Z0 F800
G1 X28.619 Y53.829 Z0 F800
G1 X28.686 Y53.794 Z0 F800
G1 X28.748 Y53.75 Z0 F800
G1 X28.933 Y53.608 Z0 F800
G1 X29.059 Y53.497 Z0 F800
G1 X29.191 Y53.354 Z0 F800
G1 X29.257 Y53.266 Z0 F800
G1 X29.318 Y53.16 Z0 F800
G1 X29.367 Y53.035 Z0 F800
G1 X29.394 Y52.889 Z0 F800
G1 X29.389 Y52.73 Z0 F800
G1 X29.348 Y52.572 Z0 F800
G1 X29.277 Y52.425 Z0 F800
G1 X29.274 Y52.421 Z0 F800
G1 X29.251 Y52.306 Z0 F800
G1 X29.131 Y52.062 Z0 F800
G1 X28.98 Y51.863 Z0 F800
G1 X28.826 Y51.706 Z0 F800
G1 X28.69 Y51.576 Z0 F800
G1 X28.579 Y51.467 Z0 F800
G1 X28.497 Y51.379 Z0 F800
G1 X28.451 Y51.317 Z0 F800
G1 X28.426 Y51.275 Z0 F800
G1 X28.398 Y51.237 Z0 F800
G1 X28.322 Y51.104 Z0 F800
G1 X28.243 Y50.982 Z0 F800
G1 X28.128 Y50.838 Z0 F800
G1 X28.05 Y50.76 Z0 F800
G1 X27.951 Y50.684 Z0 F800
G1 X27.83 Y50.619 Z0 F800
G1 X27.689 Y50.575 Z0 F800
G1 X27.54 Y50.585 Z0 F800
G1 X27.392 Y50.627 Z0 F800
G1 X27.33 Y50.583 Z0 F800
G1 X27.252 Y50.541 Z0 F800
G1 X27.148 Y50.504 Z0 F800
G1 X27.015 Y50.486 Z0 F800
G1 X26.871 Y50.5 Z0 F800
G1 X26.738 Y50.547 Z0 F800
G1 X26.622 Y50.613 Z0 F800
G1 X26.609 Y50.624 Z0 F800
G1 X26.331 Y50.755 Z0 F800
G1 X25.969 Y50.914 Z0 F800
G1 X25.776 Y51.016 Z0 F800
G1 X25.583 Y51.141 Z0 F800
G1 X25.397 Y51.294 Z0 F800
G1 X25.224 Y51.482 Z0 F800
G1 X25.162 Y51.584 Z0 F800
G1 X25.126 Y51.697 Z0 F800
G1 X25.089 Y51.969 Z0 F800
G1 X25.079 Y52.254 Z0 F800
G1 X25.102 Y52.548 Z0 F800
G1 X25.167 Y52.846 Z0 F800
G1 X25.292 Y53.141 Z0 F800
G1 X25.483 Y53.416 Z0 F800
G1 X25.741 Y53.649 Z0 F800
G1 X26.066 Y53.816 Z0 F800
G1 X26.021 Y53.799 Z0 F800
G1 X26.214 Y53.898 Z0 F800
G1 X24.157 Y53.914 Z0 F800
G1 X22.08 Y53.92 Z0 F800
G1 X22.146 Y53.924 Z0 F800
G1 X21.588 Y53.901 Z0 F800
G1 X21.107 Y53.908 Z0 F800
G1 X20.943 Y53.895 Z0 F800
G1 X20.812 Y53.865 Z0 F800
G1 X20.702 Y53.822 Z0 F800
G1 X20.607 Y53.768 Z0 F800
G1 X20.522 Y53.481 Z0 F800
G1 X20.462 Y53.181 Z0 F800
G1 X20.424 Y52.871 Z0 F800
G1 X20.407 Y52.551 Z0 F800
G1 X20.419 Y51.891 Z0 F800
G1 X20.476 Y51.215 Z0 F800
G1 X20.591 Y50.96 Z0 F800
G1 X20.748 Y50.714 Z0 F800
G1 X20.939 Y50.472 Z0 F800
G1 X21.156 Y50.229 Z0 F800
G1 X21.64 Y49.723 Z0 F800
G1 X22.136 Y49.16 Z0 F800
G1 X22.167 Y49.113 Z0 F800
G1 X22.289 Y48.962 Z0 F800
G1 X22.449 Y48.824 Z0 F800
G1 X22.63 Y48.714 Z0 F800
G1 X22.818 Y48.643 Z0 F800
G1 X22.989 Y48.613 Z0 F800
G1 X23.136 Y48.625 Z0 F800
G1 X23.267 Y48.683 Z0 F800
G1 X23.388 Y48.795 Z0 F800
G1 X23.357 Y48.752 Z0 F800
G1 X23.582 Y49.036 Z0 F800
G1 X23.835 Y49.27 Z0 F800
G1 X24.108 Y49.463 Z0 F800
G1 X24.392 Y49.622 Z0 F800
G1 X24.96 Y49.867 Z0 F800
G1 X25.476 Y50.066 Z0 F800
G1 X25.563 Y50.094 Z0 F800
G1 X25.654 Y50.105 Z0 F800
G1 X26.312 Y50.096 Z0 F800
G1 X26.933 Y50.064 Z0 F800
G1 X27.515 Y50.056 Z0 F800
G1 X28.058 Y50.117 Z0 F800
G1 X28.095 Y50.124 Z0 F800
G1 X28.463 Y50.165 Z0 F800
G1 X28.808 Y50.232 Z0 F800
G1 X29.541 Y50.407 Z0 F800
G1 X29.716 Y50.415 Z0 F800
G1 X29.882 Y50.36 Z0 F800
G1 X30.163 Y50.163 Z0 F800
G1 X30.376 Y49.93 Z0 F800
G1 X30.539 Y49.681 Z0 F800
G1 X30.664 Y49.438 Z0 F800
G1 X30.769 Y49.214 Z0 F800
G1 X30.864 Y49.016 Z0 F800
G1 X30.955 Y48.849 Z0 F800
G1 X31.044 Y48.721 Z0 F800
G1 X30.96 Y48.797 Z0 F800
G1 X31.158 Y48.6 Z0 F800
G1 X31.265 Y48.398 Z0 F800
G1 X31.313 Y48.22 Z0 F800
G1 X31.337 Y48.094 Z0 F800
G1 Y48.081 Z0 F800
G1 X31.476 Y48.071 Z0 F800
G1 X31.591 Y48.043 Z0 F800
G1 X31.749 Y47.884 Z0 F800
G1 X31.83 Y47.752 Z0 F800
G1 X31.886 Y47.669 Z0 F800
G1 X31.917 Y47.633 Z0 F800
G1 X31.903 Z0 F800
G1 X31.83 Y47.663 Z0 F800
G1 X31.938 Y47.608 Z0 F800
G1 X32.031 Y47.53 Z0 F800
G1 X32.051 Y47.507 Z0 F800
G1 X32.054 Y47.51 Z0 F800
G1 X32.099 Y47.514 Z0 F800
G1 X32.201 Y47.542 Z0 F800
G1 X32.344 Y47.603 Z0 F800
G1 X32.517 Y47.687 Z0 F800
G1 X32.723 Y47.775 Z0 F800
G1 X32.892 Y47.829 Z0 F800
G1 X33.068 Y47.925 Z0 F800
G1 X33.302 Y48.016 Z0 F800
G1 X33.505 Y48.081 Z0 F800
G1 X33.664 Y48.137 Z0 F800
G1 X33.756 Y48.188 Z0 F800
G1 X33.777 Y48.204 Z0 F800
G1 X33.771 Y48.234 Z0 F800
G1 X33.767 Y48.289 Z0 F800
G1 X33.788 Y48.69 Z0 F800
G1 X33.876 Y49.075 Z0 F800
G1 X34.026 Y49.437 Z0 F800
G1 X34.231 Y49.767 Z0 F800
G1 X34.488 Y50.059 Z0 F800
G1 X34.791 Y50.305 Z0 F800
G1 X35.133 Y50.499 Z0 F800
G1 X35.511 Y50.631 Z0 F800
G1 X35.568 Y50.643 Z0 F800
G1 X36.083 Y50.681 Z0 F800
G1 X36.638 Y50.711 Z0 F800
G1 X36.949 Y50.689 Z0 F800
G1 X37.273 Y50.615 Z0 F800
G1 X37.593 Y50.473 Z0 F800
G1 X37.798 Y50.316 Z0 F800
G1 X38.214 Y50.059 Z0 F800
G1 X38.622 Y49.741 Z0 F800
G1 X38.812 Y49.558 Z0 F800
G1 X38.987 Y49.354 Z0 F800
G1 X39.145 Y49.131 Z0 F800
G1 X39.245 Y48.953 Z0 F800
G1 X39.666 Y48.458 Z0 F800
G1 X40.135 Y47.901 Z0 F800
G1 X40.358 Y47.597 Z0 F800
G1 X40.564 Y47.271 Z0 F800
G1 X40.744 Y46.918 Z0 F800
G1 X40.888 Y46.535 Z0 F800
G1 X40.91 Y46.413 Z0 F800
G1 X40.899 Y46.29 Z0 F800
G1 X40.859 Y46.174 Z0 F800
G1 X40.791 Y46.07 Z0 F800
G1 X40.74 Y45.967 Z0 F800
G1 X40.736 Y45.867 Z0 F800
G1 X40.745 Y45.822 Z0 F800
G1 X40.806 Y45.805 Z0 F800
G1 X40.843 Y45.797 Z0 F800
G1 X41.073 Y45.725 Z0 F800
G1 X41.293 Y45.627 Z0 F800
G1 X41.501 Y45.504 Z0 F800
G1 X41.693 Y45.356 Z0 F800
G1 X41.866 Y45.185 Z0 F800
G1 X42.015 Y44.989 Z0 F800
G1 X42.139 Y44.771 Z0 F800
G1 X42.232 Y44.531 Z0 F800
G1 X42.254 Y44.391 Z0 F800
G1 X42.236 Y44.25 Z0 F800
G1 X42.146 Y43.997 Z0 F800
G1 X42.042 Y43.77 Z0 F800
G1 X41.938 Y43.565 Z0 F800
G1 X41.847 Y43.381 Z0 F800
G1 X41.806 Y43.233 Z0 F800
G1 X41.798 Y43.119 Z0 F800
G1 X41.859 Y43.105 Z0 F800
G1 X41.916 Y43.1 Z0 F800
G1 X42.048 Y43.139 Z0 F800
G1 X42.103 Y43.203 Z0 F800
G1 X42.122 Y43.242 Z0 F800
G1 X42.391 Y43.705 Z0 F800
G1 X42.633 Y44.178 Z0 F800
G1 X42.896 Y44.676 Z0 F800
G1 X43.203 Y45.176 Z0 F800
G1 X43.17 Y46.122 Z0 F800
G1 X43.097 Y47.1 Z0 F800
G1 X43.044 Y48.107 Z0 F800
G1 X43.072 Y49.143 Z0 F800
G1 X43.096 Y49.259 Z0 F800
G1 X43.148 Y49.365 Z0 F800
G1 X43.293 Y49.565 Z0 F800
G1 X43.454 Y49.739 Z0 F800
G1 X43.628 Y49.889 Z0 F800
G1 X43.813 Y50.018 Z0 F800
G1 X44.199 Y50.222 Z0 F800
G1 X44.589 Y50.369 Z0 F800
G1 X44.968 Y50.484 Z0 F800
G1 X45.327 Y50.584 Z0 F800
G1 X45.655 Y50.685 Z0 F800
G1 X45.941 Y50.797 Z0 F800
G1 X46.499 Y51.041 Z0 F800
G1 X47.098 Y51.251 Z0 F800
G1 X47.415 Y51.327 Z0 F800
G1 X47.743 Y51.376 Z0 F800
G1 X48.084 Y51.391 Z0 F800
G1 X48.437 Y51.365 Z0 F800
G1 X48.388 Y51.369 Z0 F800
G1 X49.345 Y51.31 Z0 F800
G1 X50.279 Y51.225 Z0 F800
G1 X51.191 Y51.158 Z0 F800
G1 X52.707 Y51.154 Z0 F800
G1 X53.369 Y51.113 Z0 F800
G1 X53.712 Y51.042 Z0 F800
G1 X54.057 Y50.916 Z0 F800
G1 X54.388 Y50.721 Z0 F800
G1 X54.9 Y50.259 Z0 F800
G1 X55.11 Y50.047 Z0 F800
G1 X55.308 Y49.809 Z0 F800
G1 X55.482 Y49.539 Z0 F800
G1 X55.623 Y49.22 Z0 F800
G1 X55.706 Y48.865 Z0 F800
G1 X55.711 Y48.487 Z0 F800
G1 X55.623 Y48.098 Z0 F800
G1 X55.644 Y48.18 Z0 F800
G1 X54.833 Y43.961 Z0 F800
G1 X54.816 Y43.891 Z0 F800
G1 X54.789 Y43.824 Z0 F800
G1 X54.331 Y42.986 Z0 F800
G1 X53.816 Y42.177 Z0 F800
G1 X53.251 Y41.403 Z0 F800
G1 X52.638 Y40.668 Z0 F800
G1 X52.603 Y40.633 Z0 F800
G1 X52.311 Y40.392 Z0 F800
G1 X51.998 Y40.183 Z0 F800
G1 X51.667 Y40.005 Z0 F800
G1 X51.323 Y39.86 Z0 F800
G1 X50.967 Y39.745 Z0 F800
G1 X50.605 Y39.662 Z0 F800
G1 X50.24 Y39.609 Z0 F800
G1 X49.875 Y39.586 Z0 F800
G1 X49.734 Y39.604 Z0 F800
G1 X49.605 Y39.66 Z0 F800
G1 X49.418 Y39.786 Z0 F800
G1 X49.115 Y40.016 Z0 F800
G1 X48.994 Y40.096 Z0 F800
G1 X48.907 Y40.146 Z0 F800
G1 X48.852 Y40.168 Z0 F800
G1 X48.806 Y40.164 Z0 F800
G1 X48.481 Y40.001 Z0 F800
G1 X48.26 Y39.868 Z0 F800
G1 X48.059 Y39.721 Z0 F800
G1 X47.888 Y39.563 Z0 F800
G1 X47.756 Y39.401 Z0 F800
G1 X47.664 Y39.235 Z0 F800
G1 X47.612 Y39.056 Z0 F800
G1 X47.603 Y38.857 Z0 F800
G1 Y38.83 Z0 F800
G1 X47.582 Y38.135 Z0 F800
G1 X47.606 Y37.493 Z0 F800
G1 X47.644 Y37.185 Z0 F800
G1 X47.703 Y36.887 Z0 F800
G1 X47.787 Y36.6 Z0 F800
G1 X47.9 Y36.326 Z0 F800
G1 X47.935 Y36.226 Z0 F800
G1 X47.947 Y36.121 Z0 F800
G1 X47.937 Y36.016 Z0 F800
G1 X47.904 Y35.914 Z0 F800
G1 X47.682 Y35.469 Z0 F800
G1 X47.375 Y35.021 Z0 F800
G1 X47.181 Y34.817 Z0 F800
G1 X46.956 Y34.64 Z0 F800
G1 X46.694 Y34.497 Z0 F800
G1 X46.394 Y34.396 Z0 F800
G1 X45.917 Y34.214 Z0 F800
G1 X45.439 Y34.096 Z0 F800
G1 X44.967 Y34.024 Z0 F800
G1 X44.505 Y33.982 Z0 F800
G1 X43.865 Y33.822 Z0 F800
G1 X43.231 Y33.729 Z0 F800
G1 X42.609 Y33.683 Z0 F800
G1 X42.001 Y33.658 Z0 F800
G1 X41.639 Y33.554 Z0 F800
G1 X41.212 Y33.417 Z0 F800
G1 X40.973 Y33.36 Z0 F800
G1 X40.716 Y33.324 Z0 F800
G1 X40.441 Y33.318 Z0 F800
G1 X40.214 Y33.344 Z0 F800
G1 X39.64 Y33.347 Z0 F800
G1 X39.072 Y33.368 Z0 F800
G1 X38.552 Z0 F800
G1 X38.083 Y33.311 Z0 F800
G1 X38.071 Y33.27 Z0 F800
G1 X38.066 Y33.211 Z0 F800
G1 X38.1 Y32.978 Z0 F800
G1 X38.16 Y32.73 Z0 F800
G1 X38.167 Y32.674 Z0 F800
G1 X38.193 Y32.668 Z0 F800
G1 X38.34 Y32.648 Z0 F800
G1 X38.537 Y32.62 Z0 F800
G1 X38.77 Y32.545 Z0 F800
G1 X39.027 Y32.391 Z0 F800
G1 X38.964 Y32.432 Z0 F800
G1 X39.436 Y32.207 Z0 F800
G1 X39.91 Y32.07 Z0 F800
G1 X40.144 Y32.042 Z0 F800
G1 X40.375 Y32.045 Z0 F800
G1 X40.6 Y32.082 Z0 F800
G1 X40.818 Y32.154 Z0 F800
G1 X40.808 Y32.15 Z0 F800
G1 X41.279 Y32.312 Z0 F800
G1 X41.756 Y32.384 Z0 F800
G1 X42.23 Y32.38 Z0 F800
G1 X42.613 Y32.324 Z0 F800
G1 X43.244 Z0 F800
G1 X43.871 Y32.361 Z0 F800
G1 X44.476 Y32.453 Z0 F800
G1 X45.05 Y32.615 Z0 F800
G1 X45.186 Y32.644 Z0 F800
G1 X45.321 Y32.634 Z0 F800
G1 X45.449 Y32.587 Z0 F800
G1 X45.56 Y32.506 Z0 F800
G1 X45.816 Y32.226 Z0 F800
G1 X46.039 Y31.921 Z0 F800
G1 X46.228 Y31.597 Z0 F800
G1 X46.382 Y31.257 Z0 F800
G1 X46.503 Y30.904 Z0 F800
G1 X46.591 Y30.543 Z0 F800
G1 X46.645 Y30.177 Z0 F800
G1 X46.666 Y29.811 Z0 F800
G1 X46.66 Y29.733 Z0 F800
G1 X46.642 Y29.658 Z0 F800
G1 X46.491 Y29.27 Z0 F800
G1 X46.273 Y28.89 Z0 F800
G1 X46.136 Y28.712 Z0 F800
G1 X45.978 Y28.548 Z0 F800
G1 X45.797 Y28.401 Z0 F800
G1 X45.593 Y28.275 Z0 F800
G1 X45.523 Y28.244 Z0 F800
G1 X45.449 Y28.225 Z0 F800
G1 X45.269 Y28.218 Z0 F800
G1 X45.073 Y28.258 Z0 F800
G1 X44.888 Y28.346 Z0 F800
G1 X44.744 Y28.482 Z0 F800
G1 X44.657 Y28.637 Z0 F800
G1 X44.616 Y28.777 Z0 F800
G1 X44.605 Y28.901 Z0 F800
G1 Y29.01 Z0 F800
G1 X44.619 Y29.19 Z0 F800
G1 X44.632 Y29.328 Z0 F800
G1 Y29.408 Z0 F800
G1 X44.646 Y29.371 Z0 F800
G1 X44.638 Y29.396 Z0 F800
G1 X44.584 Y29.665 Z0 F800
G1 X44.581 Y29.888 Z0 F800
G1 X44.619 Y30.219 Z0 F800
G1 X44.01 Y30.183 Z0 F800
G1 X43.456 Y30.162 Z0 F800
G1 X43.344 Z0 F800
G1 X43.278 Y30.146 Z0 F800
G1 X43.256 Y29.037 Z0 F800
G0 Z3.5 F500
G0 X31.224 Y48.136 Z3.5 
G1 Z0 F500
G1 X31.167 Y48.162 Z0 F800
G1 X31.043 Y48.145 Z0 F800
G1 X31.124 Y48.131 Z0 F800
G1 X31.209 Y48.106 Z0 F800
G1 X31.298 Y48.084 Z0 F800
G1 X31.224 Y48.136 Z0 F800
G0 Z3.5 F500
G0 X27.329 Y50.657 Z3.5 
G1 Z0 F500
G1 X27.271 Y50.664 Z0 F800
G1 X27.186 Y50.667 Z0 F800
G1 X27.115 Y50.676 Z0 F800
G1 X27.214 Y50.653 Z0 F800
G1 X27.32 Y50.639 Z0 F800
G1 X27.329 Y50.657 Z0 F800
;Cut @ 444 mm/min, 80% power

M8
G0 Z3.5 F500
G0 X18.501 Y53.904 Z3.5 
G1 Z0 F500
;Layer C3 Pass 1 of 2
G1 X18.486 Y53.521 Z0 S800 F800
G1 X18.481 Y53.28 Z0 F800
G1 X18.488 Y52.756 Z0 F800
G1 X18.534 Y52.317 Z0 F800
G1 X18.554 Y51.938 Z0 F800
G1 X18.505 Y51.512 Z0 F800
G1 X18.438 Y51.093 Z0 F800
G1 X18.404 Y50.731 Z0 F800
G1 X18.428 Y50.398 Z0 F800
G1 X18.497 Y50.056 Z0 F800
G1 X18.609 Y49.744 Z0 F800
G1 X18.76 Y49.501 Z0 F800
G1 X19.254 Y48.85 Z0 F800
G1 X19.699 Y48.271 Z0 F800
G1 X19.858 Y48.117 Z0 F800
G1 X20.071 Y47.883 Z0 F800
G1 X20.189 Y47.731 Z0 F800
G1 X20.309 Y47.552 Z0 F800
G1 X20.427 Y47.345 Z0 F800
G1 X20.541 Y47.106 Z0 F800
G1 X20.76 Y46.532 Z0 F800
G1 X20.961 Y45.908 Z0 F800
G1 X21.046 Y45.617 Z0 F800
G1 X21.114 Y45.358 Z0 F800
G1 X21.163 Y45.148 Z0 F800
G1 X21.188 Y45.002 Z0 F800
G1 X21.183 Y44.912 Z0 F800
G1 X21.15 Y44.852 Z0 F800
G1 X21.095 Y44.811 Z0 F800
G1 X21.026 Y44.775 Z0 F800
G1 X20.952 Y44.734 Z0 F800
G1 X20.878 Y44.674 Z0 F800
G1 X20.814 Y44.584 Z0 F800
G1 X20.767 Y44.452 Z0 F800
G1 X20.52 Y43.598 Z0 F800
G1 X20.473 Y43.37 Z0 F800
G1 X20.453 Y43.164 Z0 F800
G1 X20.472 Y42.991 Z0 F800
G1 X20.541 Y42.866 Z0 F800
G1 X20.682 Y42.761 Z0 F800
G1 X20.893 Y42.645 Z0 F800
G1 X21.146 Y42.527 Z0 F800
G1 X21.415 Y42.413 Z0 F800
G1 X21.671 Y42.311 Z0 F800
G1 X21.888 Y42.228 Z0 F800
G1 X22.094 Y42.154 Z0 F800
G1 X22.141 Y42.287 Z0 F800
G1 X22.251 Y42.616 Z0 F800
G1 X22.337 Y42.894 Z0 F800
G1 X22.417 Y43.183 Z0 F800
G1 X22.477 Y43.451 Z0 F800
G1 X22.503 Y43.668 Z0 F800
G1 X22.483 Y43.804 Z0 F800
G1 X22.407 Y43.913 Z0 F800
G1 X22.292 Y44.053 Z0 F800
G1 X22.154 Y44.208 Z0 F800
G1 X22.008 Y44.365 Z0 F800
G1 X21.926 Y44.378 Z0 F800
G1 X21.82 Y44.296 Z0 F800
G1 X21.701 Y44.148 Z0 F800
G1 X21.58 Y43.961 Z0 F800
G1 X21.467 Y43.766 Z0 F800
G1 X21.373 Y43.591 Z0 F800
G1 X21.285 Y43.416 Z0 F800
;Layer C3 Pass 2 of 2
G1 X21.373 Y43.591 Z0 F800
G1 X21.467 Y43.766 Z0 F800
G1 X21.58 Y43.961 Z0 F800
G1 X21.701 Y44.148 Z0 F800
G1 X21.82 Y44.296 Z0 F800
G1 X21.926 Y44.378 Z0 F800
G1 X22.008 Y44.365 Z0 F800
G1 X22.154 Y44.208 Z0 F800
G1 X22.292 Y44.053 Z0 F800
G1 X22.407 Y43.913 Z0 F800
G1 X22.483 Y43.804 Z0 F800
G1 X22.503 Y43.668 Z0 F800
G1 X22.477 Y43.451 Z0 F800
G1 X22.417 Y43.183 Z0 F800
G1 X22.337 Y42.894 Z0 F800
G1 X22.251 Y42.616 Z0 F800
G1 X22.141 Y42.287 Z0 F800
G1 X22.094 Y42.154 Z0 F800
G1 X21.888 Y42.228 Z0 F800
G1 X21.671 Y42.311 Z0 F800
G1 X21.415 Y42.413 Z0 F800
G1 X21.146 Y42.527 Z0 F800
G1 X20.893 Y42.645 Z0 F800
G1 X20.682 Y42.761 Z0 F800
G1 X20.541 Y42.866 Z0 F800
G1 X20.472 Y42.991 Z0 F800
G1 X20.453 Y43.164 Z0 F800
G1 X20.473 Y43.37 Z0 F800
G1 X20.52 Y43.598 Z0 F800
G1 X20.767 Y44.452 Z0 F800
G1 X20.814 Y44.584 Z0 F800
G1 X20.878 Y44.674 Z0 F800
G1 X20.952 Y44.734 Z0 F800
G1 X21.026 Y44.775 Z0 F800
G1 X21.095 Y44.811 Z0 F800
G1 X21.15 Y44.852 Z0 F800
G1 X21.183 Y44.912 Z0 F800
G1 X21.188 Y45.002 Z0 F800
G1 X21.163 Y45.148 Z0 F800
G1 X21.114 Y45.358 Z0 F800
G1 X21.046 Y45.617 Z0 F800
G1 X20.961 Y45.908 Z0 F800
G1 X20.76 Y46.532 Z0 F800
G1 X20.541 Y47.106 Z0 F800
G1 X20.427 Y47.345 Z0 F800
G1 X20.309 Y47.552 Z0 F800
G1 X20.189 Y47.731 Z0 F800
G1 X20.071 Y47.883 Z0 F800
G1 X19.858 Y48.117 Z0 F800
G1 X19.699 Y48.271 Z0 F800
G1 X19.254 Y48.85 Z0 F800
G1 X18.76 Y49.501 Z0 F800
G1 X18.609 Y49.744 Z0 F800
G1 X18.497 Y50.056 Z0 F800
G1 X18.428 Y50.398 Z0 F800
G1 X18.404 Y50.731 Z0 F800
G1 X18.438 Y51.093 Z0 F800
G1 X18.505 Y51.512 Z0 F800
G1 X18.554 Y51.938 Z0 F800
G1 X18.534 Y52.317 Z0 F800
G1 X18.488 Y52.756 Z0 F800
G1 X18.481 Y53.28 Z0 F800
G1 X18.486 Y53.521 Z0 F800
G1 X18.501 Y53.904 Z0 F800
G0 Z3.5 F500
G0 X17.271 Y45.293 Z3.5 F444
G1 Z0 F500
;Layer C3 Pass 1 of 2
G1 X16.98 Y45.585 Z0 F800
G1 X16.882 Y45.661 Z0 F800
G1 X16.656 Y45.831 Z0 F800
G1 X16.528 Y45.924 Z0 F800
G1 X16.406 Y46.008 Z0 F800
G1 X16.305 Y46.071 Z0 F800
G1 X16.235 Y46.103 Z0 F800
G1 X16.155 Z0 F800
G1 X16.024 Y46.076 Z0 F800
G1 X15.861 Y46.035 Z0 F800
G1 X15.685 Y45.985 Z0 F800
G1 X15.371 Y45.889 Z0 F800
G1 X15.232 Y45.844 Z0 F800
G1 X15.366 Y45.706 Z0 F800
G1 X15.673 Y45.395 Z0 F800
G1 X15.847 Y45.222 Z0 F800
G1 X16.01 Y45.065 Z0 F800
G1 X16.146 Y44.942 Z0 F800
G1 X16.235 Y44.873 Z0 F800
G1 X16.62 Y44.634 Z0 F800
G1 X16.98 Y44.419 Z0 F800
G1 X17.063 Y44.408 Z0 F800
G1 X17.205 Y44.421 Z0 F800
G1 X17.385 Y44.456 Z0 F800
G1 X17.587 Y44.508 Z0 F800
G1 X17.792 Y44.576 Z0 F800
G1 X17.981 Y44.656 Z0 F800
G1 X18.138 Y44.745 Z0 F800
G1 X18.242 Y44.84 Z0 F800
G1 X18.295 Y44.958 Z0 F800
G1 X18.314 Y45.11 Z0 F800
G1 X18.307 Y45.283 Z0 F800
G1 X18.283 Y45.467 Z0 F800
G1 X18.249 Y45.65 Z0 F800
G1 X18.215 Y45.819 Z0 F800
G1 X18.188 Y45.963 Z0 F800
G1 X18.178 Y46.07 Z0 F800
G1 X18.145 Y46.162 Z0 F800
G1 X18.056 Y46.263 Z0 F800
G1 X17.923 Y46.37 Z0 F800
G1 X17.761 Y46.475 Z0 F800
G1 X17.399 Y46.662 Z0 F800
G1 X17.077 Y46.782 Z0 F800
G1 X16.788 Y46.834 Z0 F800
G1 X16.49 Y46.859 Z0 F800
G1 X16.235 Y46.878 Z0 F800
G1 X16.074 Y46.912 Z0 F800
G1 X16.043 Y46.982 Z0 F800
G1 Y47.126 Z0 F800
G1 X16.068 Y47.319 Z0 F800
G1 X16.106 Y47.535 Z0 F800
G1 X16.15 Y47.748 Z0 F800
G1 X16.192 Y47.931 Z0 F800
G1 X16.235 Y48.109 Z0 F800
G1 X16.337 Y48.858 Z0 F800
G1 X16.413 Y49.461 Z0 F800
G1 X16.443 Y49.723 Z0 F800
G1 X16.462 Y49.922 Z0 F800
G1 Y50.322 Z0 F800
G1 X16.422 Y50.812 Z0 F800
G1 X16.396 Y51.056 Z0 F800
G1 X16.333 Y51.605 Z0 F800
G1 X16.328 Y51.679 Z0 F800
G1 Y51.786 Z0 F800
G1 Y52.082 Z0 F800
G1 X16.339 Y52.45 Z0 F800
G1 X16.353 Y52.848 Z0 F800
G1 X16.397 Y53.871 Z0 F800
;Layer C3 Pass 2 of 2
G1 X16.353 Y52.848 Z0 F800
G1 X16.339 Y52.45 Z0 F800
G1 X16.329 Y52.082 Z0 F800
G1 X16.326 Y51.786 Z0 F800
G1 Y51.679 Z0 F800
G1 X16.333 Y51.605 Z0 F800
G1 X16.396 Y51.056 Z0 F800
G1 X16.422 Y50.812 Z0 F800
G1 X16.46 Y50.322 Z0 F800
G1 Y49.922 Z0 F800
G1 X16.443 Y49.723 Z0 F800
G1 X16.413 Y49.461 Z0 F800
G1 X16.337 Y48.858 Z0 F800
G1 X16.235 Y48.109 Z0 F800
G1 X16.192 Y47.931 Z0 F800
G1 X16.15 Y47.748 Z0 F800
G1 X16.106 Y47.535 Z0 F800
G1 X16.068 Y47.319 Z0 F800
G1 X16.044 Y47.126 Z0 F800
G1 Y46.982 Z0 F800
G1 X16.074 Y46.912 Z0 F800
G1 X16.235 Y46.878 Z0 F800
G1 X16.49 Y46.859 Z0 F800
G1 X16.788 Y46.834 Z0 F800
G1 X17.077 Y46.782 Z0 F800
G1 X17.399 Y46.662 Z0 F800
G1 X17.761 Y46.475 Z0 F800
G1 X17.923 Y46.37 Z0 F800
G1 X18.056 Y46.263 Z0 F800
G1 X18.145 Y46.162 Z0 F800
G1 X18.178 Y46.07 Z0 F800
G1 X18.188 Y45.963 Z0 F800
G1 X18.215 Y45.819 Z0 F800
G1 X18.249 Y45.65 Z0 F800
G1 X18.283 Y45.467 Z0 F800
G1 X18.307 Y45.283 Z0 F800
G1 X18.314 Y45.11 Z0 F800
G1 X18.295 Y44.958 Z0 F800
G1 X18.242 Y44.84 Z0 F800
G1 X18.138 Y44.745 Z0 F800
G1 X17.981 Y44.656 Z0 F800
G1 X17.792 Y44.576 Z0 F800
G1 X17.587 Y44.508 Z0 F800
G1 X17.385 Y44.456 Z0 F800
G1 X17.205 Y44.421 Z0 F800
G1 X17.063 Y44.408 Z0 F800
G1 X16.98 Y44.419 Z0 F800
G1 X16.62 Y44.634 Z0 F800
G1 X16.235 Y44.873 Z0 F800
G1 X16.146 Y44.942 Z0 F800
G1 X16.01 Y45.065 Z0 F800
G1 X15.847 Y45.222 Z0 F800
G1 X15.673 Y45.395 Z0 F800
G1 X15.366 Y45.706 Z0 F800
G1 X15.232 Y45.844 Z0 F800
G1 X15.371 Y45.889 Z0 F800
G1 X15.685 Y45.985 Z0 F800
G1 X15.861 Y46.035 Z0 F800
G1 X16.024 Y46.076 Z0 F800
G1 X16.155 Y46.101 Z0 F800
G1 X16.235 Z0 F800
G1 X16.305 Y46.071 Z0 F800
G1 X16.406 Y46.008 Z0 F800
G1 X16.528 Y45.924 Z0 F800
G1 X16.656 Y45.831 Z0 F800
G1 X16.882 Y45.661 Z0 F800
G1 X16.98 Y45.585 Z0 F800
G1 X17.271 Y45.293 Z0 F800
G0 Z3.5 F500
G0 X27.981 Y42.922 Z3.5 
G1 Z0 F500
;Layer C3 Pass 1 of 2
G1 X27.065 Y43.197 Z0 F800
G1 X27.157 Y44.708 Z0 F800
G1 X25.072 Y44.295 Z0 F800
G1 X26.791 Y45.028 Z0 F800
G1 X25.327 Y46.61 Z0 F800
G1 X26.425 Y45.532 Z0 F800
G1 X26.623 Y47.426 Z0 F800
G1 X27.02 Y45.669 Z0 F800
G1 X28.329 Y47.27 Z0 F800
G1 X27.798 Y45.989 Z0 F800
G1 X29.585 Y45.707 Z0 F800
G1 X27.798 Y45.12 Z0 F800
G1 X27.844 Y43.975 Z0 F800
G1 X28.53 Y43.197 Z0 F800
G1 X29.995 Y42.785 Z0 F800
G1 X31.78 Y43.014 Z0 F800
G1 X32.37 Y42.722 Z0 F800
G1 X32.843 Y42.492 Z0 F800
G1 X33.046 Y42.396 Z0 F800
G1 X33.199 Y42.327 Z0 F800
G1 X33.305 Y42.219 Z0 F800
G1 X33.385 Y42.019 Z0 F800
G1 X33.442 Y41.76 Z0 F800
G1 X33.48 Y41.475 Z0 F800
G1 X33.503 Y41.196 Z0 F800
G1 X33.515 Y40.956 Z0 F800
G1 X33.52 Y40.725 Z0 F800
G1 X33.611 Y38.573 Z0 F800
G1 X33.52 Y35.918 Z0 F800
;Layer C3 Pass 2 of 2
G1 X33.611 Y38.573 Z0 F800
G1 X33.52 Y40.725 Z0 F800
G1 X33.515 Y40.956 Z0 F800
G1 X33.503 Y41.196 Z0 F800
G1 X33.48 Y41.475 Z0 F800
G1 X33.442 Y41.76 Z0 F800
G1 X33.385 Y42.019 Z0 F800
G1 X33.305 Y42.219 Z0 F800
G1 X33.199 Y42.327 Z0 F800
G1 X33.046 Y42.396 Z0 F800
G1 X32.843 Y42.492 Z0 F800
G1 X32.37 Y42.722 Z0 F800
G1 X31.78 Y43.014 Z0 F800
G1 X29.995 Y42.785 Z0 F800
G1 X28.53 Y43.197 Z0 F800
G1 X27.844 Y43.975 Z0 F800
G1 X27.798 Y45.12 Z0 F800
G1 X29.585 Y45.707 Z0 F800
G1 X27.798 Y45.989 Z0 F800
G1 X28.329 Y47.27 Z0 F800
G1 X27.02 Y45.669 Z0 F800
G1 X26.623 Y47.426 Z0 F800
G1 X26.425 Y45.532 Z0 F800
G1 X25.327 Y46.61 Z0 F800
G1 X26.791 Y45.028 Z0 F800
G1 X25.072 Y44.295 Z0 F800
G1 X27.157 Y44.708 Z0 F800
G1 X27.065 Y43.197 Z0 F800
G1 X27.981 Y42.922 Z0 F800
G0 Z3.5 F500
G0 X36.221 Y35.69 Z3.5 
G1 Z0 F500
;Layer C3 Pass 1 of 2
G1 X36.358 Y38.894 Z0 F800
G1 X36.083 Y40.771 Z0 F800
G1 X36.495 Y42.007 Z0 F800
G1 X36.707 Y42.63 Z0 F800
G1 X36.837 Y43.03 Z0 F800
G1 X37.024 Y43.667 Z0 F800
G1 X37.36 Y44.753 Z0 F800
G1 X37.471 Y45.128 Z0 F800
G1 X37.56 Y45.455 Z0 F800
G1 X37.592 Y45.59 Z0 F800
G1 X37.615 Y45.701 Z0 F800
G1 X37.625 Y45.784 Z0 F800
G1 X37.622 Y45.834 Z0 F800
G1 X37.136 Y47.363 Z0 F800
G1 X35.671 Y47.5 Z0 F800
G1 X35.541 Y47.39 Z0 F800
G1 X35.225 Y47.115 Z0 F800
G1 X34.966 Y46.88 Z0 F800
G1 X34.708 Y46.632 Z0 F800
G1 X34.482 Y46.395 Z0 F800
G1 X34.392 Y46.289 Z0 F800
G1 X34.322 Y46.194 Z0 F800
G1 X34.277 Y46.115 Z0 F800
G1 X34.262 Y46.053 Z0 F800
G1 Y45.957 Z0 F800
G1 X34.265 Y45.793 Z0 F800
G1 X34.275 Y45.583 Z0 F800
G1 X34.298 Y45.352 Z0 F800
G1 X34.337 Y45.124 Z0 F800
G1 X34.398 Y44.923 Z0 F800
G1 X34.484 Y44.772 Z0 F800
G1 X34.6 Y44.697 Z0 F800
G1 X35.219 Y44.567 Z0 F800
G1 X35.722 Y44.458 Z0 F800
G1 X35.934 Y44.408 Z0 F800
G1 X36.091 Y44.365 Z0 F800
G1 X36.17 Y44.334 Z0 F800
G1 X36.206 Y44.347 Z0 F800
G1 X36.235 Y44.435 Z0 F800
G1 X36.258 Y44.587 Z0 F800
G1 X36.276 Y44.791 Z0 F800
G1 X36.298 Y45.304 Z0 F800
G1 X36.307 Y45.876 Z0 F800
G1 X36.297 Y45.973 Z0 F800
G1 X36.268 Y46.049 Z0 F800
G1 X36.221 Y46.106 Z0 F800
G1 X36.161 Y46.146 Z0 F800
G1 X36.01 Y46.182 Z0 F800
G1 X35.836 Y46.174 Z0 F800
G1 X35.662 Y46.139 Z0 F800
G1 X35.511 Y46.093 Z0 F800
G1 X35.403 Y46.054 Z0 F800
G1 X35.362 Y46.037 Z0 F800
;Layer C3 Pass 2 of 2
G1 X35.403 Y46.054 Z0 F800
G1 X35.511 Y46.093 Z0 F800
G1 X35.662 Y46.139 Z0 F800
G1 X35.836 Y46.174 Z0 F800
G1 X36.01 Y46.182 Z0 F800
G1 X36.161 Y46.146 Z0 F800
G1 X36.221 Y46.106 Z0 F800
G1 X36.268 Y46.049 Z0 F800
G1 X36.297 Y45.973 Z0 F800
G1 X36.307 Y45.876 Z0 F800
G1 X36.298 Y45.304 Z0 F800
G1 X36.276 Y44.791 Z0 F800
G1 X36.258 Y44.587 Z0 F800
G1 X36.235 Y44.435 Z0 F800
G1 X36.206 Y44.347 Z0 F800
G1 X36.17 Y44.334 Z0 F800
G1 X36.091 Y44.365 Z0 F800
G1 X35.934 Y44.408 Z0 F800
G1 X35.722 Y44.458 Z0 F800
G1 X35.219 Y44.567 Z0 F800
G1 X34.6 Y44.697 Z0 F800
G1 X34.484 Y44.772 Z0 F800
G1 X34.398 Y44.923 Z0 F800
G1 X34.337 Y45.124 Z0 F800
G1 X34.298 Y45.352 Z0 F800
G1 X34.275 Y45.583 Z0 F800
G1 X34.265 Y45.793 Z0 F800
G1 X34.262 Y45.957 Z0 F800
G1 Y46.053 Z0 F800
G1 X34.277 Y46.115 Z0 F800
G1 X34.322 Y46.194 Z0 F800
G1 X34.392 Y46.289 Z0 F800
G1 X34.482 Y46.395 Z0 F800
G1 X34.708 Y46.632 Z0 F800
G1 X34.966 Y46.88 Z0 F800
G1 X35.225 Y47.115 Z0 F800
G1 X35.541 Y47.39 Z0 F800
G1 X35.671 Y47.5 Z0 F800
G1 X37.136 Y47.363 Z0 F800
G1 X37.622 Y45.834 Z0 F800
G1 X37.625 Y45.784 Z0 F800
G1 X37.615 Y45.701 Z0 F800
G1 X37.592 Y45.59 Z0 F800
G1 X37.56 Y45.455 Z0 F800
G1 X37.471 Y45.128 Z0 F800
G1 X37.36 Y44.753 Z0 F800
G1 X37.024 Y43.667 Z0 F800
G1 X36.837 Y43.03 Z0 F800
G1 X36.707 Y42.63 Z0 F800
G1 X36.495 Y42.007 Z0 F800
G1 X36.083 Y40.771 Z0 F800
G1 X36.358 Y38.894 Z0 F800
G1 X36.221 Y35.69 Z0 F800
G0 Z3.5 F500
G0 X38.967 Y41.045 Z3.5 
G1 Z0 F500
;Layer C3 Pass 1 of 2
G1 X38.784 Y40.405 Z0 F800
G1 X38.555 Y36.513 Z0 F800
;Layer C3 Pass 2 of 2
G1 X38.784 Y40.405 Z0 F800
G1 X38.967 Y41.045 Z0 F800
G0 Z3.5 F500
G0 X41.394 Y36.605 Z3.5 
G1 Z0 F500
;Layer C3 Pass 1 of 2
G1 X41.165 Y39.26 Z0 F800
G1 X41.302 Y40.862 Z0 F800
;Layer C3 Pass 2 of 2
G1 X41.165 Y39.26 Z0 F800
G1 X41.394 Y36.605 Z0 F800
G0 Z3.5 F500
G0 X43.682 Y41.045 Z3.5 
G1 Z0 F500
;Layer C3 Pass 1 of 2
G1 X43.741 Y40.705 Z0 F800
G1 X43.877 Y39.935 Z0 F800
G1 X43.955 Y39.508 Z0 F800
G1 X44.03 Y39.114 Z0 F800
G1 X44.094 Y38.802 Z0 F800
G1 X44.12 Y38.692 Z0 F800
G1 X44.14 Y38.619 Z0 F800
G1 X44.156 Y38.55 Z0 F800
G1 X44.168 Y38.448 Z0 F800
G1 X44.178 Y38.319 Z0 F800
G1 X44.186 Y38.167 Z0 F800
G1 X44.195 Y37.818 Z0 F800
G1 Y37.44 Z0 F800
G1 Y37.076 Z0 F800
G1 X44.186 Y36.468 Z0 F800
;Layer C3 Pass 2 of 2
G1 X44.196 Y37.076 Z0 F800
G1 Y37.44 Z0 F800
G1 Y37.818 Z0 F800
G1 X44.186 Y38.167 Z0 F800
G1 X44.178 Y38.319 Z0 F800
G1 X44.168 Y38.448 Z0 F800
G1 X44.156 Y38.55 Z0 F800
G1 X44.14 Y38.619 Z0 F800
G1 X44.12 Y38.692 Z0 F800
G1 X44.094 Y38.802 Z0 F800
G1 X44.03 Y39.114 Z0 F800
G1 X43.955 Y39.508 Z0 F800
G1 X43.877 Y39.935 Z0 F800
G1 X43.741 Y40.705 Z0 F800
G1 X43.682 Y41.045 Z0 F800
G0 Z3.5 F500
G0 X41.386 Y29.95 Z3.5 
G1 Z0 F500
;Layer C3 Pass 1 of 2
G1 X41.322 Y25.678 Z0 F800
;Layer C3 Pass 2 of 2
G1 X41.386 Y29.95 Z0 F800
G0 Z3.5 F500
G0 X39.023 Y26.034 Z3.5 
G1 Z0 F500
;Layer C3 Pass 1 of 2
G1 X38.797 Y30.145 Z0 F800
;Layer C3 Pass 2 of 2
G1 X39.023 Y26.034 Z0 F800
G0 Z3.5 F500
G0 X36.531 Y30.048 Z3.5 
G1 Z0 F500
;Layer C3 Pass 1 of 2
G1 X36.466 Y26.034 Z0 F800
;Layer C3 Pass 2 of 2
G1 X36.531 Y30.048 Z0 F800
G0 Z3.5 F500
G0 X28.484 Y25.71 Z3.5 
G1 Z0 F500
;Layer C3 Pass 1 of 2
G1 Y31.02 Z0 F800
G1 X28.622 Y32.531 Z0 F800
G1 X28.347 Y33.63 Z0 F800
G1 X28.393 Y33.813 Z0 F800
G1 X28.713 Y34.911 Z0 F800
G1 X28.439 Y36.468 Z0 F800
G1 X28.805 Y40.038 Z0 F800
G1 X28.118 Y40.267 Z0 F800
G1 Y35.552 Z0 F800
G1 X26.928 Y36.376 Z0 F800
G1 X24.914 Y36.239 Z0 F800
G1 X23.266 Y36.697 Z0 F800
G1 X22.076 Y38.161 Z0 F800
G1 X21.435 Y39.123 Z0 F800
G1 X20.657 Y39.077 Z0 F800
G1 X20.519 Y36.285 Z0 F800
G1 X20.84 Y32.577 Z0 F800
G1 X21.252 Y33.858 Z0 F800
G1 X21.275 Y35.582 Z0 F800
G1 X21.35 Y37.222 Z0 F800
G1 X21.827 Y36.989 Z0 F800
G1 X21.818 Y33.446 Z0 F800
G1 X22.062 Y33.061 Z0 F800
G1 X22.463 Y36.126 Z0 F800
;Layer C3 Pass 2 of 2
G1 X22.062 Y33.061 Z0 F800
G1 X21.818 Y33.446 Z0 F800
G1 X21.827 Y36.989 Z0 F800
G1 X21.35 Y37.222 Z0 F800
G1 X21.275 Y35.582 Z0 F800
G1 X21.252 Y33.858 Z0 F800
G1 X20.84 Y32.577 Z0 F800
G1 X20.519 Y36.285 Z0 F800
G1 X20.657 Y39.077 Z0 F800
G1 X21.435 Y39.123 Z0 F800
G1 X22.076 Y38.161 Z0 F800
G1 X23.266 Y36.697 Z0 F800
G1 X24.914 Y36.239 Z0 F800
G1 X26.928 Y36.376 Z0 F800
G1 X28.118 Y35.552 Z0 F800
G1 Y40.267 Z0 F800
G1 X28.805 Y40.038 Z0 F800
G1 X28.439 Y36.468 Z0 F800
G1 X28.713 Y34.911 Z0 F800
G1 X28.393 Y33.813 Z0 F800
G1 X28.347 Y33.63 Z0 F800
G1 X28.622 Y32.531 Z0 F800
G1 X28.484 Y31.02 Z0 F800
G1 Y25.71 Z0 F800
G0 Z3.5 F500
G0 X30.996 Y35.356 Z3.5 
G1 Z0 F500
;Layer C3 Pass 1 of 2
G1 X30.769 Y34.32 Z0 F800
G1 X30.543 Y33.543 Z0 F800
G1 X30.672 Y33.41 Z0 F800
G1 X30.753 Y33.333 Z0 F800
G1 X30.925 Y33.188 Z0 F800
G1 X31.061 Y33.123 Z0 F800
G1 X31.74 Y33.204 Z0 F800
G1 X32.323 Y33.284 Z0 F800
G1 X33.197 Z0 F800
G1 X33.248 Y33.199 Z0 F800
G1 X33.301 Y33.1 Z0 F800
G1 X33.363 Y32.969 Z0 F800
G1 X33.484 Y32.629 Z0 F800
G1 X33.553 Y32.216 Z0 F800
G1 X33.591 Y31.708 Z0 F800
G1 X33.642 Y31.136 Z0 F800
G1 X33.664 Y30.863 Z0 F800
G1 X33.68 Y30.619 Z0 F800
G1 X33.687 Y30.417 Z0 F800
G1 X33.682 Y30.274 Z0 F800
G1 X33.602 Y29.538 Z0 F800
G1 X33.521 Y28.753 Z0 F800
G1 X33.504 Y28.415 Z0 F800
G1 X33.512 Y27.996 Z0 F800
G1 X33.529 Y27.783 Z0 F800
G1 X33.557 Y27.583 Z0 F800
G1 X33.597 Y27.406 Z0 F800
G1 X33.65 Y27.264 Z0 F800
G1 X33.753 Y27.009 Z0 F800
G1 X33.82 Y26.754 Z0 F800
G1 X33.85 Y26.535 Z0 F800
G1 X33.844 Y26.39 Z0 F800
G1 X33.812 Y26.058 Z0 F800
G1 X33.78 Y25.678 Z0 F800
G1 X33.766 Y25.577 Z0 F800
G1 X33.707 Y25.059 Z0 F800
G1 X33.681 Y24.863 Z0 F800
G1 X33.652 Y24.681 Z0 F800
G1 X33.62 Y24.527 Z0 F800
G1 X33.585 Y24.415 Z0 F800
G1 X33.532 Y24.309 Z0 F800
G1 X33.358 Y24 Z0 F800
G1 X33.258 Y23.816 Z0 F800
G1 X33.161 Y23.627 Z0 F800
G1 X33.08 Y23.441 Z0 F800
G1 X33.024 Y23.269 Z0 F800
G1 X33.003 Y23.121 Z0 F800
G1 X32.975 Y22.844 Z0 F800
G1 X32.954 Y22.582 Z0 F800
G1 X32.974 Y22.473 Z0 F800
G1 X33.03 Y22.388 Z0 F800
G1 X33.133 Y22.331 Z0 F800
G1 X33.294 Y22.311 Z0 F800
G1 X33.704 Y22.375 Z0 F800
G1 X34.312 Y22.567 Z0 F800
G1 X34.487 Y22.612 Z0 F800
G1 X34.635 Y22.627 Z0 F800
G1 X34.751 Y22.603 Z0 F800
G1 X34.899 Y22.55 Z0 F800
G1 X35.128 Y22.492 Z0 F800
G1 X35.407 Y22.433 Z0 F800
G1 X35.706 Y22.376 Z0 F800
G1 X35.992 Y22.325 Z0 F800
G1 X36.466 Y22.247 Z0 F800
G1 X36.349 Y22.173 Z0 F800
G1 X36.222 Y22.101 Z0 F800
G1 X36.066 Y22.024 Z0 F800
G1 X35.892 Y21.954 Z0 F800
G1 X35.715 Y21.905 Z0 F800
G1 X35.546 Y21.89 Z0 F800
G1 X35.398 Y21.923 Z0 F800
G1 X35.056 Y22.087 Z0 F800
G1 X34.649 Y22.291 Z0 F800
G1 X34.168 Y22.538 Z0 F800
G1 X33.262 Y22.182 Z0 F800
G1 X33.244 Y22.059 Z0 F800
G1 X33.229 Y21.926 Z0 F800
G1 X33.217 Y21.761 Z0 F800
G1 X33.221 Y21.39 Z0 F800
G1 X33.294 Y21.049 Z0 F800
G1 X33.352 Y20.868 Z0 F800
G1 X33.403 Y20.632 Z0 F800
G1 X33.447 Y20.366 Z0 F800
G1 X33.484 Y20.094 Z0 F800
G1 X33.514 Y19.84 Z0 F800
G1 X33.535 Y19.629 Z0 F800
G1 X33.553 Y19.43 Z0 F800
G1 X33.581 Y19.268 Z0 F800
G1 X33.608 Y19.099 Z0 F800
G1 X33.634 Y18.904 Z0 F800
G1 X33.654 Y18.707 Z0 F800
G1 X33.662 Y18.529 Z0 F800
G1 X33.652 Y18.396 Z0 F800
G1 X33.618 Y18.33 Z0 F800
G1 X33.47 Y18.253 Z0 F800
G1 X33.233 Y18.152 Z0 F800
G1 X32.93 Y18.075 Z0 F800
G1 X32.582 Y18.071 Z0 F800
G1 X32.119 Y18.139 Z0 F800
G1 X31.574 Y18.225 Z0 F800
G1 X30.931 Y18.33 Z0 F800
G1 X30.878 Y18.257 Z0 F800
G1 X30.829 Y18.178 Z0 F800
G1 X30.777 Y18.083 Z0 F800
G1 X30.735 Y17.981 Z0 F800
G1 X30.713 Y17.879 Z0 F800
G1 X30.72 Y17.788 Z0 F800
G1 X30.769 Y17.715 Z0 F800
G1 X30.952 Y17.555 Z0 F800
G1 X31.186 Y17.355 Z0 F800
G1 X31.438 Y17.173 Z0 F800
G1 X31.676 Y17.068 Z0 F800
G1 X31.827 Y17.032 Z0 F800
G1 X32.046 Y16.977 Z0 F800
G1 X32.312 Y16.906 Z0 F800
G1 X32.602 Y16.825 Z0 F800
G1 X32.894 Y16.738 Z0 F800
G1 X33.164 Y16.649 Z0 F800
G1 X33.391 Y16.563 Z0 F800
G1 X33.553 Y16.485 Z0 F800
G1 X33.835 Y16.342 Z0 F800
G1 X34.156 Y16.218 Z0 F800
G1 X34.459 Y16.13 Z0 F800
G1 X34.686 Y16.096 Z0 F800
G1 X34.746 Y16.1 Z0 F800
G1 X34.84 Y16.112 Z0 F800
G1 X35.105 Y16.152 Z0 F800
G1 X35.441 Y16.209 Z0 F800
G1 X35.807 Y16.274 Z0 F800
G1 X36.757 Y16.453 Z0 F800
G1 X36.87 Y16.639 Z0 F800
G1 X36.936 Y16.756 Z0 F800
G1 X37.058 Y17.012 Z0 F800
G1 X37.114 Y17.229 Z0 F800
G1 X37.099 Y17.342 Z0 F800
G1 X37.057 Y17.497 Z0 F800
G1 X36.991 Y17.677 Z0 F800
G1 X36.903 Y17.865 Z0 F800
G1 X36.797 Y18.041 Z0 F800
G1 X36.677 Y18.19 Z0 F800
G1 X36.544 Y18.292 Z0 F800
G1 X36.401 Y18.33 Z0 F800
G1 X36.223 Y18.312 Z0 F800
G1 X35.992 Y18.263 Z0 F800
G1 X35.731 Y18.193 Z0 F800
G1 X35.459 Y18.111 Z0 F800
G1 X35.197 Y18.026 Z0 F800
G1 X34.968 Y17.948 Z0 F800
G1 X34.79 Y17.884 Z0 F800
G1 X34.686 Y17.844 Z0 F800
G1 X34.635 Y17.83 Z0 F800
G1 X34.548 Y17.812 Z0 F800
G1 X34.284 Y17.767 Z0 F800
G1 X33.939 Y17.714 Z0 F800
G1 X33.557 Y17.658 Z0 F800
G1 X32.55 Y17.521 Z0 F800
G1 X33.003 Y16.841 Z0 F800
G1 X33.44 Y16.922 Z0 F800
G1 X33.974 Y17.003 Z0 F800
G1 X34.041 Y16.995 Z0 F800
G1 X34.142 Y16.977 Z0 F800
G1 X34.27 Y16.957 Z0 F800
G1 X34.419 Y16.942 Z0 F800
G1 X34.583 Z0 F800
G1 X34.757 Y16.962 Z0 F800
G1 X34.933 Y17.012 Z0 F800
G1 X35.107 Y17.1 Z0 F800
G1 X35.45 Y17.289 Z0 F800
G1 X35.762 Y17.42 Z0 F800
G1 X35.89 Y17.464 Z0 F800
G1 X35.99 Y17.496 Z0 F800
G1 X36.078 Y17.521 Z0 F800
;Layer C3 Pass 2 of 2
G1 X35.99 Y17.496 Z0 F800
G1 X35.89 Y17.464 Z0 F800
G1 X35.762 Y17.42 Z0 F800
G1 X35.45 Y17.289 Z0 F800
G1 X35.107 Y17.1 Z0 F800
G1 X34.933 Y17.012 Z0 F800
G1 X34.757 Y16.962 Z0 F800
G1 X34.583 Y16.941 Z0 F800
G1 X34.419 Z0 F800
G1 X34.27 Y16.957 Z0 F800
G1 X34.142 Y16.977 Z0 F800
G1 X34.041 Y16.995 Z0 F800
G1 X33.974 Y17.003 Z0 F800
G1 X33.44 Y16.922 Z0 F800
G1 X33.003 Y16.841 Z0 F800
G1 X32.55 Y17.521 Z0 F800
G1 X33.557 Y17.658 Z0 F800
G1 X33.939 Y17.714 Z0 F800
G1 X34.284 Y17.767 Z0 F800
G1 X34.548 Y17.812 Z0 F800
G1 X34.635 Y17.83 Z0 F800
G1 X34.686 Y17.844 Z0 F800
G1 X34.79 Y17.884 Z0 F800
G1 X34.968 Y17.948 Z0 F800
G1 X35.197 Y18.026 Z0 F800
G1 X35.459 Y18.111 Z0 F800
G1 X35.731 Y18.193 Z0 F800
G1 X35.992 Y18.263 Z0 F800
G1 X36.223 Y18.312 Z0 F800
G1 X36.401 Y18.33 Z0 F800
G1 X36.544 Y18.292 Z0 F800
G1 X36.677 Y18.19 Z0 F800
G1 X36.797 Y18.041 Z0 F800
G1 X36.903 Y17.865 Z0 F800
G1 X36.991 Y17.677 Z0 F800
G1 X37.057 Y17.497 Z0 F800
G1 X37.099 Y17.342 Z0 F800
G1 X37.114 Y17.229 Z0 F800
G1 X37.058 Y17.012 Z0 F800
G1 X36.936 Y16.756 Z0 F800
G1 X36.87 Y16.639 Z0 F800
G1 X36.757 Y16.453 Z0 F800
G1 X35.807 Y16.274 Z0 F800
G1 X35.441 Y16.209 Z0 F800
G1 X35.105 Y16.152 Z0 F800
G1 X34.84 Y16.112 Z0 F800
G1 X34.746 Y16.1 Z0 F800
G1 X34.686 Y16.096 Z0 F800
G1 X34.459 Y16.13 Z0 F800
G1 X34.156 Y16.218 Z0 F800
G1 X33.835 Y16.342 Z0 F800
G1 X33.553 Y16.485 Z0 F800
G1 X33.391 Y16.563 Z0 F800
G1 X33.164 Y16.649 Z0 F800
G1 X32.894 Y16.738 Z0 F800
G1 X32.602 Y16.825 Z0 F800
G1 X32.312 Y16.906 Z0 F800
G1 X32.046 Y16.977 Z0 F800
G1 X31.827 Y17.032 Z0 F800
G1 X31.676 Y17.068 Z0 F800
G1 X31.438 Y17.173 Z0 F800
G1 X31.186 Y17.355 Z0 F800
G1 X30.952 Y17.555 Z0 F800
G1 X30.769 Y17.715 Z0 F800
G1 X30.72 Y17.788 Z0 F800
G1 X30.713 Y17.879 Z0 F800
G1 X30.735 Y17.981 Z0 F800
G1 X30.777 Y18.083 Z0 F800
G1 X30.829 Y18.178 Z0 F800
G1 X30.878 Y18.257 Z0 F800
G1 X30.931 Y18.33 Z0 F800
G1 X31.574 Y18.225 Z0 F800
G1 X32.119 Y18.139 Z0 F800
G1 X32.582 Y18.071 Z0 F800
G1 X32.93 Y18.075 Z0 F800
G1 X33.233 Y18.152 Z0 F800
G1 X33.47 Y18.253 Z0 F800
G1 X33.618 Y18.33 Z0 F800
G1 X33.652 Y18.396 Z0 F800
G1 X33.662 Y18.529 Z0 F800
G1 X33.654 Y18.707 Z0 F800
G1 X33.634 Y18.904 Z0 F800
G1 X33.608 Y19.099 Z0 F800
G1 X33.581 Y19.268 Z0 F800
G1 X33.553 Y19.43 Z0 F800
G1 X33.535 Y19.629 Z0 F800
G1 X33.514 Y19.84 Z0 F800
G1 X33.484 Y20.094 Z0 F800
G1 X33.447 Y20.366 Z0 F800
G1 X33.403 Y20.632 Z0 F800
G1 X33.352 Y20.868 Z0 F800
G1 X33.294 Y21.049 Z0 F800
G1 X33.221 Y21.39 Z0 F800
G1 X33.217 Y21.761 Z0 F800
G1 X33.229 Y21.926 Z0 F800
G1 X33.244 Y22.059 Z0 F800
G1 X33.262 Y22.182 Z0 F800
G1 X34.168 Y22.538 Z0 F800
G1 X34.649 Y22.291 Z0 F800
G1 X35.056 Y22.087 Z0 F800
G1 X35.398 Y21.923 Z0 F800
G1 X35.546 Y21.89 Z0 F800
G1 X35.715 Y21.905 Z0 F800
G1 X35.892 Y21.954 Z0 F800
G1 X36.066 Y22.024 Z0 F800
G1 X36.222 Y22.101 Z0 F800
G1 X36.349 Y22.173 Z0 F800
G1 X36.466 Y22.247 Z0 F800
G1 X35.992 Y22.325 Z0 F800
G1 X35.706 Y22.376 Z0 F800
G1 X35.407 Y22.433 Z0 F800
G1 X35.128 Y22.492 Z0 F800
G1 X34.899 Y22.55 Z0 F800
G1 X34.751 Y22.603 Z0 F800
G1 X34.635 Y22.627 Z0 F800
G1 X34.487 Y22.612 Z0 F800
G1 X34.312 Y22.567 Z0 F800
G1 X33.704 Y22.375 Z0 F800
G1 X33.294 Y22.311 Z0 F800
G1 X33.133 Y22.331 Z0 F800
G1 X33.03 Y22.388 Z0 F800
G1 X32.974 Y22.473 Z0 F800
G1 X32.954 Y22.582 Z0 F800
G1 X32.975 Y22.844 Z0 F800
G1 X33.003 Y23.121 Z0 F800
G1 X33.024 Y23.269 Z0 F800
G1 X33.08 Y23.441 Z0 F800
G1 X33.161 Y23.627 Z0 F800
G1 X33.258 Y23.816 Z0 F800
G1 X33.358 Y24 Z0 F800
G1 X33.532 Y24.309 Z0 F800
G1 X33.585 Y24.415 Z0 F800
G1 X33.62 Y24.527 Z0 F800
G1 X33.652 Y24.681 Z0 F800
G1 X33.681 Y24.863 Z0 F800
G1 X33.707 Y25.059 Z0 F800
G1 X33.766 Y25.577 Z0 F800
G1 X33.78 Y25.678 Z0 F800
G1 X33.812 Y26.058 Z0 F800
G1 X33.844 Y26.39 Z0 F800
G1 X33.85 Y26.535 Z0 F800
G1 X33.82 Y26.754 Z0 F800
G1 X33.753 Y27.009 Z0 F800
G1 X33.65 Y27.264 Z0 F800
G1 X33.597 Y27.406 Z0 F800
G1 X33.557 Y27.583 Z0 F800
G1 X33.529 Y27.783 Z0 F800
G1 X33.512 Y27.996 Z0 F800
G1 X33.504 Y28.415 Z0 F800
G1 X33.521 Y28.753 Z0 F800
G1 X33.602 Y29.538 Z0 F800
G1 X33.682 Y30.274 Z0 F800
G1 X33.687 Y30.417 Z0 F800
G1 X33.68 Y30.619 Z0 F800
G1 X33.664 Y30.863 Z0 F800
G1 X33.642 Y31.136 Z0 F800
G1 X33.591 Y31.708 Z0 F800
G1 X33.553 Y32.216 Z0 F800
G1 X33.484 Y32.629 Z0 F800
G1 X33.363 Y32.969 Z0 F800
G1 X33.301 Y33.1 Z0 F800
G1 X33.248 Y33.199 Z0 F800
G1 X33.197 Y33.284 Z0 F800
G1 X32.323 Z0 F800
G1 X31.74 Y33.204 Z0 F800
G1 X31.061 Y33.123 Z0 F800
G1 X30.925 Y33.188 Z0 F800
G1 X30.753 Y33.333 Z0 F800
G1 X30.672 Y33.41 Z0 F800
G1 X30.543 Y33.543 Z0 F800
G1 X30.769 Y34.32 Z0 F800
G1 X30.996 Y35.356 Z0 F800
G0 Z3.5 F500
G0 X40.689 Y18.728 Z3.5 
G1 Z0 F500
;Layer C3 Pass 1 of 2
G1 X41.857 Y20.434 Z0 F800
G1 X43.231 Y21.936 Z0 F800
G1 X44.115 Y20.494 Z0 F800
G1 X44.594 Y19.021 Z0 F800
G1 X44.179 Y17.515 Z0 F800
G1 X41.706 Y18.406 Z0 F800
G1 X42.721 Y20.045 Z0 F800
G1 X43.221 Y20.513 Z0 F800
G1 X43.643 Y19.556 Z0 F800
G1 X43.686 Y18.871 Z0 F800
G1 X42.726 Y19.02 Z0 F800
;Layer C3 Pass 2 of 2
G1 X43.686 Y18.871 Z0 F800
G1 X43.643 Y19.556 Z0 F800
G1 X43.221 Y20.513 Z0 F800
G1 X42.721 Y20.045 Z0 F800
G1 X41.706 Y18.406 Z0 F800
G1 X44.179 Y17.515 Z0 F800
G1 X44.594 Y19.021 Z0 F800
G1 X44.115 Y20.494 Z0 F800
G1 X43.231 Y21.936 Z0 F800
G1 X41.857 Y20.434 Z0 F800
G1 X40.689 Y18.728 Z0 F800
G0 Z3.5 F500
G0 X24.878 Y17.391 Z3.5 
G1 Z0 F500
;Layer C3 Pass 1 of 2
G1 X24.813 Z0 F800
G1 X24.231 Y17.65 Z0 F800
G1 X25.266 Y18.557 Z0 F800
G1 X25.434 Y18.147 Z0 F800
G1 X25.534 Y17.893 Z0 F800
G1 X25.636 Y17.621 Z0 F800
G1 X25.731 Y17.355 Z0 F800
G1 X25.805 Y17.119 Z0 F800
G1 X25.849 Y16.938 Z0 F800
G1 X25.829 Y16.799 Z0 F800
G1 X25.735 Y16.673 Z0 F800
G1 X25.591 Y16.563 Z0 F800
G1 X25.42 Y16.469 Z0 F800
G1 X25.247 Y16.393 Z0 F800
G1 X25.094 Y16.337 Z0 F800
G1 X24.943 Y16.291 Z0 F800
G1 X24.89 Y16.303 Z0 F800
G1 X24.749 Y16.339 Z0 F800
G1 X24.547 Y16.4 Z0 F800
G1 X24.312 Y16.485 Z0 F800
G1 X24.07 Y16.594 Z0 F800
G1 X23.85 Y16.728 Z0 F800
G1 X23.679 Y16.885 Z0 F800
G1 X23.583 Y17.068 Z0 F800
G1 X23.513 Y17.286 Z0 F800
G1 X23.407 Y17.539 Z0 F800
G1 X23.281 Y17.807 Z0 F800
G1 X23.146 Y18.071 Z0 F800
G1 X23.018 Y18.31 Z0 F800
G1 X22.91 Y18.506 Z0 F800
G1 X22.806 Y18.686 Z0 F800
G1 X23.065 Y18.767 Z0 F800
G1 X23.339 Y18.85 Z0 F800
G1 X23.664 Y18.945 Z0 F800
G1 X24.008 Y19.04 Z0 F800
G1 X24.336 Y19.123 Z0 F800
G1 X24.616 Y19.182 Z0 F800
G1 X24.813 Y19.204 Z0 F800
G1 X26.367 Z0 F800
G1 X26.495 Y19.238 Z0 F800
G1 X26.592 Y19.331 Z0 F800
G1 X26.661 Y19.47 Z0 F800
G1 X26.707 Y19.641 Z0 F800
G1 X26.749 Y20.023 Z0 F800
G1 X26.755 Y20.369 Z0 F800
G1 X26.789 Y20.561 Z0 F800
G1 X26.877 Y20.826 Z0 F800
G1 X27.001 Y21.134 Z0 F800
G1 X27.144 Y21.454 Z0 F800
G1 X27.287 Y21.755 Z0 F800
G1 X27.461 Y22.107 Z0 F800
G1 X27.532 Y22.247 Z0 F800
G1 X27.662 Y22.318 Z0 F800
G1 X27.805 Y22.393 Z0 F800
G1 X27.985 Y22.481 Z0 F800
G1 X28.406 Y22.656 Z0 F800
G1 X28.827 Y22.765 Z0 F800
G1 X29.031 Y22.814 Z0 F800
G1 X29.248 Y22.903 Z0 F800
G1 X29.464 Y23.018 Z0 F800
G1 X29.669 Y23.145 Z0 F800
G1 X29.849 Y23.268 Z0 F800
G1 X29.992 Y23.374 Z0 F800
G1 X30.122 Y23.477 Z0 F800
G1 X30.64 Y24.642 Z0 F800
G1 X31.158 Y25.419 Z0 F800
G1 X30.963 Y30.468 Z0 F800
;Layer C3 Pass 2 of 2
G1 X31.158 Y25.419 Z0 F800
G1 X30.64 Y24.642 Z0 F800
G1 X30.122 Y23.477 Z0 F800
G1 X29.992 Y23.374 Z0 F800
G1 X29.849 Y23.268 Z0 F800
G1 X29.669 Y23.145 Z0 F800
G1 X29.464 Y23.018 Z0 F800
G1 X29.248 Y22.903 Z0 F800
G1 X29.031 Y22.814 Z0 F800
G1 X28.827 Y22.765 Z0 F800
G1 X28.406 Y22.656 Z0 F800
G1 X27.985 Y22.481 Z0 F800
G1 X27.805 Y22.393 Z0 F800
G1 X27.662 Y22.318 Z0 F800
G1 X27.532 Y22.247 Z0 F800
G1 X27.461 Y22.107 Z0 F800
G1 X27.287 Y21.755 Z0 F800
G1 X27.144 Y21.454 Z0 F800
G1 X27.001 Y21.134 Z0 F800
G1 X26.877 Y20.826 Z0 F800
G1 X26.789 Y20.561 Z0 F800
G1 X26.755 Y20.369 Z0 F800
G1 X26.749 Y20.023 Z0 F800
G1 X26.707 Y19.641 Z0 F800
G1 X26.661 Y19.47 Z0 F800
G1 X26.592 Y19.331 Z0 F800
G1 X26.495 Y19.238 Z0 F800
G1 X26.367 Y19.204 Z0 F800
G1 X24.813 Z0 F800
G1 X24.616 Y19.182 Z0 F800
G1 X24.336 Y19.123 Z0 F800
G1 X24.008 Y19.04 Z0 F800
G1 X23.664 Y18.945 Z0 F800
G1 X23.339 Y18.85 Z0 F800
G1 X23.065 Y18.767 Z0 F800
G1 X22.806 Y18.686 Z0 F800
G1 X22.91 Y18.506 Z0 F800
G1 X23.018 Y18.31 Z0 F800
G1 X23.146 Y18.071 Z0 F800
G1 X23.281 Y17.807 Z0 F800
G1 X23.407 Y17.539 Z0 F800
G1 X23.513 Y17.286 Z0 F800
G1 X23.583 Y17.068 Z0 F800
G1 X23.679 Y16.885 Z0 F800
G1 X23.85 Y16.728 Z0 F800
G1 X24.07 Y16.594 Z0 F800
G1 X24.312 Y16.485 Z0 F800
G1 X24.547 Y16.4 Z0 F800
G1 X24.749 Y16.339 Z0 F800
G1 X24.89 Y16.303 Z0 F800
G1 X24.943 Y16.291 Z0 F800
G1 X25.094 Y16.337 Z0 F800
G1 X25.247 Y16.393 Z0 F800
G1 X25.42 Y16.469 Z0 F800
G1 X25.591 Y16.563 Z0 F800
G1 X25.735 Y16.673 Z0 F800
G1 X25.829 Y16.799 Z0 F800
G1 X25.849 Y16.938 Z0 F800
G1 X25.805 Y17.119 Z0 F800
G1 X25.731 Y17.355 Z0 F800
G1 X25.636 Y17.621 Z0 F800
G1 X25.534 Y17.893 Z0 F800
G1 X25.434 Y18.147 Z0 F800
G1 X25.266 Y18.557 Z0 F800
G1 X24.231 Y17.65 Z0 F800
G1 X24.813 Y17.391 Z0 F800
G1 X24.878 Z0 F800
G0 Z3.5 F500
G0 X30.865 Y34.225 Z3.5 
G1 Z0 F500
;Layer C3 Pass 1 of 2
G1 X31.185 Y35.918 Z0 F800
G1 X30.911 Y37.429 Z0 F800
G1 X30.956 Y40.176 Z0 F800
;Layer C3 Pass 2 of 2
G1 X30.911 Y37.429 Z0 F800
G1 X31.185 Y35.918 Z0 F800
G1 X30.865 Y34.225 Z0 F800
G0 Z3.5 F500
G0 Y40.313 Z3.5 
G1 Z0 F500
;Layer C3 Pass 1 of 2
G1 X31.002 Y35.186 Z0 F800
;Layer C3 Pass 2 of 2
G1 X30.865 Y40.313 Z0 F800
G0 Z3.5 F500
G0 X46.63 Y47.009 Z3.5 
G1 Z0 F500
;Layer C3 Pass 1 of 2
G1 X46.902 Y46.672 Z0 F800
G1 X47.152 Y46.277 Z0 F800
G1 X47.255 Y46.096 Z0 F800
G1 X47.336 Y45.948 Z0 F800
G1 X47.407 Y45.811 Z0 F800
G1 X47.277 Y44.743 Z0 F800
G1 X47.147 Y44.671 Z0 F800
G1 X47.021 Y44.595 Z0 F800
G1 X46.889 Y44.504 Z0 F800
G1 X46.775 Y44.41 Z0 F800
G1 X46.704 Y44.32 Z0 F800
G1 X46.701 Y44.244 Z0 F800
G1 X46.792 Y44.193 Z0 F800
G1 X46.969 Y44.166 Z0 F800
G1 X47.194 Y44.157 Z0 F800
G1 X47.444 Y44.16 Z0 F800
G1 X47.698 Y44.173 Z0 F800
G1 X47.934 Y44.189 Z0 F800
G1 X48.13 Y44.207 Z0 F800
G1 X48.313 Y44.225 Z0 F800
G1 X48.532 Y44.451 Z0 F800
G1 X48.661 Y44.589 Z0 F800
G1 X48.794 Y44.737 Z0 F800
G1 X48.914 Y44.881 Z0 F800
G1 X49.007 Y45.006 Z0 F800
G1 X49.058 Y45.099 Z0 F800
G1 X49.113 Y45.26 Z0 F800
G1 X49.187 Y45.435 Z0 F800
G1 X49.285 Y45.604 Z0 F800
G1 X49.414 Y45.747 Z0 F800
G1 X49.521 Y45.786 Z0 F800
G1 X49.683 Y45.79 Z0 F800
G1 X49.878 Y45.766 Z0 F800
G1 X50.085 Y45.726 Z0 F800
G1 X50.284 Y45.679 Z0 F800
G1 X50.452 Y45.633 Z0 F800
G1 X50.611 Y45.585 Z0 F800
G1 X50.662 Y45.615 Z0 F800
G1 X50.745 Y45.702 Z0 F800
G1 X50.768 Y45.766 Z0 F800
G1 X50.762 Y45.844 Z0 F800
G1 X50.714 Y45.935 Z0 F800
G1 X50.611 Y46.038 Z0 F800
G1 X50.325 Y46.291 Z0 F800
G1 X50.041 Y46.584 Z0 F800
G1 X49.92 Y46.731 Z0 F800
G1 X49.824 Y46.871 Z0 F800
G1 X49.76 Y46.998 Z0 F800
G1 X49.738 Y47.106 Z0 F800
G1 X49.711 Y47.342 Z0 F800
G1 X49.624 Y47.608 Z0 F800
G1 X49.554 Y47.728 Z0 F800
G1 X49.464 Y47.825 Z0 F800
G1 X49.353 Y47.891 Z0 F800
G1 X49.22 Y47.915 Z0 F800
G1 X48.853 Y47.875 Z0 F800
G1 X48.427 Y47.786 Z0 F800
G1 X48.232 Y47.738 Z0 F800
G1 X48.073 Y47.697 Z0 F800
G1 X47.925 Y47.656 Z0 F800
G1 X47.277 Y47.138 Z0 F800
G1 X47.345 Y47.075 Z0 F800
G1 X47.504 Y46.92 Z0 F800
G1 X47.687 Y46.729 Z0 F800
G1 X47.828 Y46.556 Z0 F800
G1 X47.876 Y46.451 Z0 F800
G1 X47.923 Y46.297 Z0 F800
G1 X47.967 Y46.112 Z0 F800
G1 X48.006 Y45.916 Z0 F800
G1 X48.039 Y45.73 Z0 F800
G1 X48.064 Y45.573 Z0 F800
G1 X48.087 Y45.423 Z0 F800
G1 X48.637 Y46.167 Z0 F800
G1 X48.831 Y47.041 Z0 F800
G1 X48.184 Y47.106 Z0 F800
G1 X48.119 Y47.009 Z0 F800
;Layer C3 Pass 2 of 2
G1 X48.184 Y47.106 Z0 F800
G1 X48.831 Y47.041 Z0 F800
G1 X48.637 Y46.167 Z0 F800
G1 X48.087 Y45.423 Z0 F800
G1 X48.064 Y45.573 Z0 F800
G1 X48.039 Y45.73 Z0 F800
G1 X48.006 Y45.916 Z0 F800
G1 X47.967 Y46.112 Z0 F800
G1 X47.923 Y46.297 Z0 F800
G1 X47.876 Y46.451 Z0 F800
G1 X47.828 Y46.556 Z0 F800
G1 X47.687 Y46.729 Z0 F800
G1 X47.504 Y46.92 Z0 F800
G1 X47.345 Y47.075 Z0 F800
G1 X47.277 Y47.138 Z0 F800
G1 X47.925 Y47.656 Z0 F800
G1 X48.073 Y47.697 Z0 F800
G1 X48.232 Y47.738 Z0 F800
G1 X48.427 Y47.786 Z0 F800
G1 X48.853 Y47.875 Z0 F800
G1 X49.22 Y47.915 Z0 F800
G1 X49.353 Y47.891 Z0 F800
G1 X49.464 Y47.825 Z0 F800
G1 X49.554 Y47.728 Z0 F800
G1 X49.624 Y47.608 Z0 F800
G1 X49.711 Y47.342 Z0 F800
G1 X49.738 Y47.106 Z0 F800
G1 X49.76 Y46.998 Z0 F800
G1 X49.824 Y46.871 Z0 F800
G1 X49.92 Y46.731 Z0 F800
G1 X50.041 Y46.584 Z0 F800
G1 X50.325 Y46.291 Z0 F800
G1 X50.611 Y46.038 Z0 F800
G1 X50.714 Y45.935 Z0 F800
G1 X50.762 Y45.844 Z0 F800
G1 X50.768 Y45.766 Z0 F800
G1 X50.745 Y45.702 Z0 F800
G1 X50.662 Y45.615 Z0 F800
G1 X50.611 Y45.585 Z0 F800
G1 X50.452 Y45.633 Z0 F800
G1 X50.284 Y45.679 Z0 F800
G1 X50.085 Y45.726 Z0 F800
G1 X49.878 Y45.766 Z0 F800
G1 X49.683 Y45.79 Z0 F800
G1 X49.521 Y45.786 Z0 F800
G1 X49.414 Y45.747 Z0 F800
G1 X49.285 Y45.604 Z0 F800
G1 X49.187 Y45.435 Z0 F800
G1 X49.113 Y45.26 Z0 F800
G1 X49.058 Y45.099 Z0 F800
G1 X49.007 Y45.006 Z0 F800
G1 X48.914 Y44.881 Z0 F800
G1 X48.794 Y44.737 Z0 F800
G1 X48.661 Y44.589 Z0 F800
G1 X48.532 Y44.451 Z0 F800
G1 X48.313 Y44.225 Z0 F800
G1 X48.13 Y44.207 Z0 F800
G1 X47.934 Y44.189 Z0 F800
G1 X47.698 Y44.173 Z0 F800
G1 X47.444 Y44.16 Z0 F800
G1 X47.194 Y44.157 Z0 F800
G1 X46.969 Y44.166 Z0 F800
G1 X46.792 Y44.193 Z0 F800
G1 X46.701 Y44.244 Z0 F800
G1 X46.704 Y44.32 Z0 F800
G1 X46.775 Y44.41 Z0 F800
G1 X46.889 Y44.504 Z0 F800
G1 X47.021 Y44.595 Z0 F800
G1 X47.147 Y44.671 Z0 F800
G1 X47.277 Y44.743 Z0 F800
G1 X47.407 Y45.811 Z0 F800
G1 X47.336 Y45.948 Z0 F800
G1 X47.255 Y46.096 Z0 F800
G1 X47.152 Y46.277 Z0 F800
G1 X46.902 Y46.672 Z0 F800
G1 X46.63 Y47.009 Z0 F800
M9
M5
G1 Z10 F500
G90
G1 Z10 F800
