G90 ; Force absolute mode
;LightBurn 1.6.04
;Custom GCode device profile, absolute coords
;Bounds: X16.11 Y15.16 to X56.05 Y46.54
G00 G17 G40 G21 G54
M3
G1 Z10 F800
;Cut @ 333 mm/min, 80% power

M8
G0 Z3.5 F800
G0 X18.468 Y15.207 Z3.5
G1 Z0 F800
;Layer C3 Pass 1 of 2
G1 X21.123 Y15.161 Z0 F800
G1 X22.588 Y15.939 Z0 F800
G1 X22.712 Y16.037 Z0 F800
G1 X22.834 Y16.142 Z0 F800
G1 X22.965 Y16.271 Z0 F800
G1 X23.084 Y16.413 Z0 F800
G1 X23.167 Y16.557 Z0 F800
G1 X23.192 Y16.693 Z0 F800
; --- FIX X Backlash ---
G0 X22.492 Y16.693 F410
G1 X22.437 Y16.809 Z0 F800
G1 X22.317 Y16.937 Z0 F800
G1 X22.171 Y17.104 Z0 F800
G1 X22.012 Y17.292 Z0 F800
G1 X21.853 Y17.484 Z0 F800
G1 X21.476 Y17.954 Z0 F800
G1 X19.232 Y17.999 Z0 F800
; --- FIX X Backlash ---
G0 X19.932 Y17.999 F410
G1 X20.344 Y19.281 Z0 F800
; --- FIX X Backlash ---
G0 X19.644 Y19.281 F410
G1 X18.958 Y19.739 Z0 F800
; --- FIX X Backlash ---
G0 X19.658 Y19.739 F410
G1 X20.482 Y21.021 Z0 F800
; --- FIX X Backlash ---
G0 X19.782 Y21.021 F410
G1 X18.912 Y21.89 Z0 F800
; --- FIX X Backlash ---
G0 X19.612 Y21.89 F410
G1 X20.528 Y22.898 Z0 F800
; --- FIX Y Backlash ---
G0 X20.528 Y22.398 F410
G1 X21.352 Y20.75 Z0 F800
; --- FIX X Backlash ---
G0 X20.652 Y20.75 F410
G1 X20.194 Y19.788 Z0 F800
; --- FIX X Backlash ---
G0 X20.894 Y19.788 F410
G1 X21.075 Y19.699 Z0 F800
G1 X21.256 Y19.602 Z0 F800
G1 X21.455 Y19.485 Z0 F800
G1 X21.64 Y19.357 Z0 F800
G1 X21.782 Y19.228 Z0 F800
G1 X21.827 Y19.167 Z0 F800
G1 X21.849 Y19.109 Z0 F800
G1 X21.844 Y19.057 Z0 F800
G1 X21.809 Y19.01 Z0 F800
; --- FIX X Backlash ---
G0 X21.109 Y19.01 F410
G1 X20.893 Y18.813 Z0 F800
G1 X20.686 Y18.604 Z0 F800
G1 X20.53 Y18.437 Z0 F800
G1 X20.468 Y18.369 Z0 F800
; --- FIX X Backlash ---
G0 X21.168 Y18.369 F410
G1 X22.908 Y17.82 Z0 F800
G1 X24.052 Y16.721 Z0 F800
; --- FIX X Backlash ---
G0 X23.352 Y16.721 F410
G1 X23.261 Y15.623 Z0 F800
G1 X22.208 Y14.844 Z0 F800
; --- FIX X Backlash ---
G0 X22.908 Y14.844 F410
; --- FIX Y Backlash ---
G0 X22.908 Y15.344 F410
G1 X24.51 Y15.573 Z0 F800
G1 X25.105 Y16.626 Z0 F800
G1 X25.159 Y16.836 Z0 F800
G1 X25.209 Y17.056 Z0 F800
G1 X25.26 Y17.313 Z0 F800
G1 X25.3 Y17.578 Z0 F800
G1 X25.318 Y17.824 Z0 F800
G1 X25.302 Y18.019 Z0 F800
; --- FIX X Backlash ---
G0 X24.602 Y18.019 F410
G1 X24.543 Y18.137 Z0 F800
G1 X24.426 Y18.225 Z0 F800
G1 X24.26 Y18.343 Z0 F800
G1 X23.862 Y18.617 Z0 F800
G1 X23.352 Y18.961 Z0 F800
G1 X21.109 Y20.014 Z0 F800
; --- FIX X Backlash ---
G0 X21.809 Y20.014 F410
G1 X22.404 Y20.838 Z0 F800
G1 X23.732 Y20.792 Z0 F800
G1 X24.063 Y20.811 Z0 F800
G1 X24.264 Y20.826 Z0 F800
G1 X24.476 Y20.846 Z0 F800
G1 X24.678 Y20.869 Z0 F800
G1 X24.849 Y20.897 Z0 F800
G1 X24.968 Y20.929 Z0 F800
G1 X25.065 Y20.926 Z0 F800
; --- FIX Y Backlash ---
G0 X25.065 Y20.426 F410
G1 X25.179 Y20.361 Z0 F800
G1 X25.3 Y20.252 Z0 F800
G1 X25.42 Y20.12 Z0 F800
G1 X25.529 Y19.984 Z0 F800
G1 X25.618 Y19.863 Z0 F800
G1 X25.7 Y19.743 Z0 F800
; --- FIX X Backlash ---
G0 X25 Y19.743 F410
G1 X24.858 Y19.673 Z0 F800
G1 X24.703 Y19.605 Z0 F800
G1 X24.514 Y19.531 Z0 F800
G1 X24.305 Y19.463 Z0 F800
G1 X24.093 Y19.414 Z0 F800
G1 X23.892 Y19.396 Z0 F800
G1 X23.719 Y19.422 Z0 F800
; --- FIX Y Backlash ---
G0 X23.719 Y19.922 F410
G1 X23.341 Y19.986 Z0 F800
G1 X22.929 Z0 F800
G1 X22.758 Y19.967 Z0 F800
G1 X22.637 Y19.941 Z0 F800
G1 X22.585 Y19.91 Z0 F800
G1 X22.62 Y19.876 Z0 F800
; --- FIX X Backlash ---
G0 X23.32 Y19.876 F410
G1 X23.381 Y19.848 Z0 F800
G1 X23.474 Y19.801 Z0 F800
; --- FIX Y Backlash ---
G0 X23.474 Y19.301 F410
G1 X23.595 Y19.237 Z0 F800
G1 X24.072 Y18.974 Z0 F800
G1 X24.436 Y18.77 Z0 F800
G1 X25.38 Y18.232 Z0 F800
; --- FIX Y Backlash ---
G0 X25.38 Y18.732 F410
G1 X26.57 Y19.281 Z0 F800
; --- FIX Y Backlash ---
G0 X26.57 Y18.781 F410
G1 X26.69 Y18.691 Z0 F800
G1 X26.812 Y18.593 Z0 F800
G1 X26.948 Y18.472 Z0 F800
G1 X27.08 Y18.339 Z0 F800
G1 X27.188 Y18.202 Z0 F800
G1 X27.254 Y18.071 Z0 F800
G1 X27.257 Y17.957 Z0 F800
; --- FIX X Backlash ---
G0 X26.557 Y17.957 F410
G1 X26.491 Y17.833 Z0 F800
G1 X26.375 Y17.677 Z0 F800
G1 X26.227 Y17.503 Z0 F800
G1 X26.065 Y17.328 Z0 F800
G1 X25.907 Y17.165 Z0 F800
G1 X25.771 Y17.03 Z0 F800
G1 X25.641 Y16.904 Z0 F800
G1 X25.229 Y15.76 Z0 F800
G1 X25 Y14.982 Z0 F800
; --- FIX X Backlash ---
G0 X25.7 Y14.982 F410
G1 X26.433 Y14.936 Z0 F800
; --- FIX Y Backlash ---
G0 X26.433 Y15.436 F410
G1 X26.652 Y15.68 Z0 F800
G1 X26.782 Y15.831 Z0 F800
G1 X26.913 Y15.992 Z0 F800
G1 X27.031 Y16.15 Z0 F800
G1 X27.121 Y16.29 Z0 F800
G1 X27.165 Y16.397 Z0 F800
G1 X27.204 Y16.508 Z0 F800
G1 X27.278 Y16.658 Z0 F800
G1 X27.374 Y16.831 Z0 F800
G1 X27.48 Y17.01 Z0 F800
G1 X27.584 Y17.177 Z0 F800
G1 X27.76 Y17.45 Z0 F800
; --- FIX Y Backlash ---
G0 X27.76 Y16.95 F410
G1 X30.415 Y15.623 Z0 F800
; --- FIX X Backlash ---
G0 X29.715 Y15.623 F410
G1 X28.754 Y14.982 Z0 F800
; --- FIX Y Backlash ---
G0 X28.754 Y15.482 F410
G1 X27.243 Y16.031 Z0 F800
G1 X27.289 Y16.58 Z0 F800
; --- FIX X Backlash ---
G0 X27.989 Y16.58 F410
; --- FIX Y Backlash ---
G0 X27.989 Y16.08 F410
G1 X28.2 Y16.029 Z0 F800
G1 X28.676 Y15.909 Z0 F800
G1 X28.941 Y15.839 Z0 F800
G1 X29.187 Y15.771 Z0 F800
G1 X29.382 Y15.712 Z0 F800
G1 X29.5 Y15.668 Z0 F800
G1 X29.637 Y15.605 Z0 F800
G1 X29.885 Y15.494 Z0 F800
G1 X31.468 Y14.799 Z0 F800
G1 X33.803 Y14.707 Z0 F800
; --- FIX Y Backlash ---
G0 X33.803 Y15.207 F410
G1 X38.06 Y15.344 Z0 F800
; --- FIX Y Backlash ---
G0 X38.06 Y14.844 F410
G1 X41.768 Y14.661 Z0 F800
; --- FIX Y Backlash ---
G0 X41.768 Y15.161 F410
G1 X42.638 Y15.894 Z0 F800
; --- FIX X Backlash ---
G0 X41.938 Y15.894 F410
G1 X41.709 Y19.876 Z0 F800
; --- FIX X Backlash ---
G0 X42.409 Y19.876 F410
G1 X43.736 Y20.654 Z0 F800
; --- FIX X Backlash ---
G0 X43.036 Y20.654 F410
G1 X42.945 Y25.919 Z0 F800
G1 Y32.373 Z0 F800
; --- FIX X Backlash ---
G0 X43.645 Y32.373 F410
G1 X44.927 Y32.877 Z0 F800
; --- FIX Y Backlash ---
G0 X44.927 Y32.377 F410
G1 X45.384 Y28.944 Z0 F800
; --- FIX X Backlash ---
G0 X44.684 Y28.944 F410
G1 X43.449 Y26.06 Z0 F800
; --- FIX X Backlash ---
G0 X44.149 Y26.06 F410
G1 X44.307 Y25.611 Z0 F800
G1 X44.658 Y24.601 Z0 F800
G1 X44.848 Y24.041 Z0 F800
G1 X45.018 Y23.53 Z0 F800
G1 X45.087 Y23.312 Z0 F800
G1 X45.143 Y23.129 Z0 F800
G1 X45.182 Y22.989 Z0 F800
G1 X45.201 Y22.901 Z0 F800
G1 Y22.822 Z0 F800
G1 X45.179 Y22.709 Z0 F800
G1 X45.142 Y22.567 Z0 F800
; --- FIX X Backlash ---
G0 X44.442 Y22.567 F410
G1 X44.392 Y22.401 Z0 F800
G1 X44.261 Y22.022 Z0 F800
G1 X44.107 Y21.614 Z0 F800
G1 X43.95 Y21.221 Z0 F800
G1 X43.813 Y20.886 Z0 F800
G1 X43.677 Y20.566 Z0 F800
; --- FIX X Backlash ---
G0 X44.377 Y20.566 F410
G1 X45.201 Y20.109 Z0 F800
; --- FIX Y Backlash ---
G0 X45.201 Y20.609 F410
G1 X46.483 Y21.753 Z0 F800
G1 X46.529 Y24.133 Z0 F800
; --- FIX X Backlash ---
G0 X45.829 Y24.133 F410
G1 X44.822 Y26.377 Z0 F800
; --- FIX X Backlash ---
G0 X45.522 Y26.377 F410
G1 X45.812 Y26.823 Z0 F800
G1 X45.98 Y27.092 Z0 F800
G1 X46.148 Y27.371 Z0 F800
G1 X46.294 Y27.632 Z0 F800
G1 X46.353 Y27.746 Z0 F800
G1 X46.398 Y27.844 Z0 F800
G1 X46.427 Y27.923 Z0 F800
G1 X46.437 Y27.979 Z0 F800
G1 X46.43 Y28.462 Z0 F800
G1 X46.392 Y30.451 Z0 F800
G1 X46.62 Y32.19 Z0 F800
G1 X46.824 Y32.193 Z0 F800
G1 X47.026 Y32.19 Z0 F800
G1 X47.25 Y32.179 Z0 F800
G1 X47.461 Y32.154 Z0 F800
G1 X47.625 Y32.113 Z0 F800
G1 X47.678 Y32.084 Z0 F800
G1 X47.707 Y32.05 Z0 F800
G1 Y32.009 Z0 F800
G1 X47.673 Y31.961 Z0 F800
; --- FIX X Backlash ---
G0 X46.973 Y31.961 F410
; --- FIX Y Backlash ---
G0 X46.973 Y31.461 F410
G1 X46.919 Y31.374 Z0 F800
G1 X46.859 Y31.221 Z0 F800
G1 X46.795 Y31.013 Z0 F800
G1 X46.729 Y30.759 Z0 F800
G1 X46.592 Y30.153 Z0 F800
G1 X46.458 Y29.481 Z0 F800
G1 X46.338 Y28.823 Z0 F800
G1 X46.239 Y28.255 Z0 F800
G1 X46.149 Y27.708 Z0 F800
G1 X45.92 Y24.457 Z0 F800
; --- FIX X Backlash ---
G0 X46.62 Y24.457 F410
G1 X46.849 Y23.37 Z0 F800
G1 X46.933 Y22.951 Z0 F800
G1 X47.007 Y22.565 Z0 F800
G1 X47.036 Y22.399 Z0 F800
G1 X47.059 Y22.258 Z0 F800
G1 X47.073 Y22.149 Z0 F800
G1 X47.078 Y22.077 Z0 F800
G1 Y22.009 Z0 F800
G1 X47.057 Y21.789 Z0 F800
; --- FIX X Backlash ---
G0 X46.357 Y21.789 F410
G1 X46.306 Y21.319 Z0 F800
G1 X46.264 Y20.967 Z0 F800
G1 X46.149 Y20.063 Z0 F800
; --- FIX X Backlash ---
G0 X46.849 Y20.063 F410
; --- FIX Y Backlash ---
G0 X46.849 Y20.563 F410
G1 X47.673 Y20.929 Z0 F800
G1 Y31.732 Z0 F800
G1 X48.909 Y32.785 Z0 F800
G1 X55.272 Y32.831 Z0 F800
; --- FIX X Backlash ---
G0 X54.572 Y32.831 F410
; --- FIX Y Backlash ---
G0 X54.572 Y32.331 F410
G1 X54.206 Y28.898 Z0 F800
; --- FIX X Backlash ---
G0 X54.906 Y28.898 F410
G1 X55.455 Y27.341 Z0 F800
; --- FIX X Backlash ---
G0 X54.755 Y27.341 F410
G1 X53.657 Y27.021 Z0 F800
; --- FIX X Backlash ---
G0 X54.357 Y27.021 F410
; --- FIX Y Backlash ---
G0 X54.357 Y27.521 F410
G1 X55.455 Y27.658 Z0 F800
G1 X55.913 Y29.123 Z0 F800
G1 Y30.817 Z0 F800
G1 X56.05 Y31.961 Z0 F800
; --- FIX X Backlash ---
G0 X55.35 Y31.961 F410
G1 X55.213 Y33.243 Z0 F800
G1 X54.48 Y34.113 Z0 F800
; --- FIX Y Backlash ---
G0 X54.48 Y33.613 F410
G1 X53.473 Y32.88 Z0 F800
; --- FIX X Backlash ---
G0 X54.173 Y32.88 F410
G1 X54.814 Y31.736 Z0 F800
; --- FIX X Backlash ---
G0 X54.114 Y31.736 F410
G1 X53.977 Y29.767 Z0 F800
G1 X53.84 Y27.936 Z0 F800
; --- FIX Y Backlash ---
G0 X53.84 Y28.436 F410
G1 X53.473 Y29.535 Z0 F800
; --- FIX X Backlash ---
G0 X54.173 Y29.535 F410
G1 X54.356 Y31.732 Z0 F800
; --- FIX X Backlash ---
G0 X53.656 Y31.732 F410
G1 X53.061 Y32.785 Z0 F800
G1 X46.744 Y32.831 Z0 F800
G1 X45.462 Y32.922 Z0 F800
G1 X43.677 Y33.334 Z0 F800
; --- FIX Y Backlash ---
G0 X43.677 Y32.834 F410
G1 X42.67 Y32.194 Z0 F800
; --- FIX X Backlash ---
G0 X43.37 Y32.194 F410
G1 X43.736 Y30.958 Z0 F800
; --- FIX Y Backlash ---
G0 X43.736 Y31.458 F410
G1 X46.529 Y32.236 Z0 F800
; --- FIX Y Backlash ---
G0 X46.529 Y31.736 F410
G1 X47.536 Y30.912 Z0 F800
G1 X47.593 Y30.812 Z0 F800
G1 X47.642 Y30.709 Z0 F800
G1 X47.685 Y30.591 Z0 F800
G1 X47.706 Y30.474 Z0 F800
G1 X47.69 Y30.371 Z0 F800
; --- FIX X Backlash ---
G0 X46.99 Y30.371 F410
G1 X46.923 Y30.298 Z0 F800
G1 X46.79 Y30.271 Z0 F800
G1 X46.182 Y30.278 Z0 F800
G1 X44.135 Y30.317 Z0 F800
G1 X42.99 Y30.179 Z0 F800
G1 X43.03 Y30.001 Z0 F800
G1 X43.075 Y29.817 Z0 F800
; --- FIX X Backlash ---
G0 X43.775 Y29.817 F410
G1 X43.834 Y29.607 Z0 F800
G1 X43.903 Y29.397 Z0 F800
G1 X43.98 Y29.214 Z0 F800
G1 X44.063 Y29.084 Z0 F800
G1 X44.148 Y29.035 Z0 F800
G1 X44.209 Y29.042 Z0 F800
G1 X44.302 Y29.063 Z0 F800
G1 X44.423 Y29.094 Z0 F800
G1 X44.567 Y29.135 Z0 F800
; --- FIX Y Backlash ---
G0 X44.567 Y29.635 F410
G1 X44.901 Y29.738 Z0 F800
G1 X45.264 Y29.855 Z0 F800
G1 X45.617 Y29.973 Z0 F800
G1 X46.208 Y30.176 Z0 F800
; --- FIX Y Backlash ---
G0 X46.208 Y29.676 F410
G1 X47.902 Y28.989 Z0 F800
G1 X47.897 Y28.853 Z0 F800
G1 X47.885 Y28.712 Z0 F800
G1 X47.862 Y28.549 Z0 F800
G1 X47.824 Y28.383 Z0 F800
; --- FIX X Backlash ---
G0 X47.124 Y28.383 F410
G1 X47.067 Y28.236 Z0 F800
G1 X46.987 Y28.126 Z0 F800
G1 X46.882 Y28.074 Z0 F800
G1 X46.804 Y28.068 Z0 F800
G1 X46.695 Z0 F800
G1 X46.56 Y28.074 Z0 F800
G1 X46.403 Y28.083 Z0 F800
G1 X46.045 Y28.111 Z0 F800
G1 X45.663 Y28.148 Z0 F800
G1 X45.295 Y28.187 Z0 F800
; --- FIX Y Backlash ---
G0 X45.295 Y28.687 F410
G1 X44.684 Y28.757 Z0 F800
G1 X44.487 Y28.787 Z0 F800
G1 X44.279 Y28.81 Z0 F800
G1 X44.032 Y28.825 Z0 F800
G1 X43.772 Z0 F800
G1 X43.525 Y28.795 Z0 F800
; --- FIX Y Backlash ---
G0 X43.525 Y28.295 F410
G1 X43.317 Y28.23 Z0 F800
G1 X43.174 Y28.119 Z0 F800
G1 X42.913 Y27.896 Z0 F800
G1 X42.636 Y27.742 Z0 F800
G1 X42.533 Y27.674 Z0 F800
G1 X42.478 Y27.604 Z0 F800
G1 X42.488 Y27.526 Z0 F800
; --- FIX X Backlash ---
G0 X43.188 Y27.526 F410
G1 X43.278 Y27.433 Z0 F800
G1 X43.47 Y27.334 Z0 F800
G1 X43.748 Y27.245 Z0 F800
G1 X44.077 Y27.167 Z0 F800
G1 X44.423 Y27.101 Z0 F800
G1 X44.752 Y27.047 Z0 F800
G1 X45.029 Y27.008 Z0 F800
G1 X45.293 Y26.975 Z0 F800
; --- FIX Y Backlash ---
G0 X45.293 Y27.475 F410
G1 X46.895 Y27.933 Z0 F800
; --- FIX Y Backlash ---
G0 X46.895 Y27.433 F410
G1 X47.993 Y26.7 Z0 F800
G1 X47.969 Y26.675 Z0 F800
; --- FIX X Backlash ---
G0 X47.269 Y26.675 F410
G1 X47.197 Y26.607 Z0 F800
G1 X47.083 Y26.51 Z0 F800
G1 X46.933 Y26.397 Z0 F800
G1 X46.75 Y26.282 Z0 F800
G1 X46.54 Y26.179 Z0 F800
G1 X46.308 Y26.1 Z0 F800
G1 X46.057 Y26.059 Z0 F800
G1 X45.758 Y26.064 Z0 F800
G1 X45.392 Y26.105 Z0 F800
; --- FIX Y Backlash ---
G0 X45.392 Y26.605 F410
G1 X44.991 Y26.67 Z0 F800
G1 X44.581 Y26.748 Z0 F800
G1 X43.856 Y26.901 Z0 F800
G1 X43.598 Y26.952 Z0 F800
G1 X43.508 Y26.966 Z0 F800
G1 X43.448 Y26.971 Z0 F800
G1 X43.296 Y26.975 Z0 F800
G1 X43.037 Y26.986 Z0 F800
G1 X42.355 Y27.017 Z0 F800
G1 X41.434 Y27.063 Z0 F800
G1 X40.747 Y27.658 Z0 F800
; --- FIX Y Backlash ---
G0 X40.747 Y27.158 F410
G1 X40.427 Y26.746 Z0 F800
; --- FIX X Backlash ---
G0 X41.127 Y26.746 F410
G1 X41.356 Y25.831 Z0 F800
G1 X41.402 Y25.144 Z0 F800
G1 X42.409 Y24.549 Z0 F800
; --- FIX Y Backlash ---
G0 X42.409 Y25.049 F410
G1 X42.729 Y26.056 Z0 F800
; --- FIX Y Backlash ---
G0 X42.729 Y25.556 F410
G1 X44.835 Y25.144 Z0 F800
G1 X46.071 Y24.915 Z0 F800
; --- FIX Y Backlash ---
G0 X46.071 Y25.415 F410
G1 X47.902 Y25.919 Z0 F800
; --- FIX Y Backlash ---
G0 X47.902 Y25.419 F410
G1 X48.36 Y23.862 Z0 F800
; --- FIX X Backlash ---
G0 X47.66 Y23.862 F410
G1 X47.504 Y23.823 Z0 F800
G1 X47.336 Y23.787 Z0 F800
G1 X47.133 Y23.754 Z0 F800
G1 X46.913 Y23.73 Z0 F800
G1 X46.694 Y23.727 Z0 F800
G1 X46.494 Y23.753 Z0 F800
; --- FIX Y Backlash ---
G0 X46.494 Y24.253 F410
G1 X46.332 Y24.316 Z0 F800
G1 X45.691 Y24.723 Z0 F800
G1 X45.325 Y24.957 Z0 F800
; --- FIX Y Backlash ---
G0 X45.325 Y24.457 F410
G1 X43.677 Y23.816 Z0 F800
; --- FIX Y Backlash ---
G0 X43.677 Y24.316 F410
G1 X43.548 Y24.375 Z0 F800
G1 X43.416 Y24.427 Z0 F800
G1 X43.265 Y24.477 Z0 F800
G1 X43.114 Y24.509 Z0 F800
G1 X42.982 Z0 F800
G1 X42.889 Y24.465 Z0 F800
; --- FIX Y Backlash ---
G0 X42.889 Y23.965 F410
G1 X42.853 Y23.862 Z0 F800
G1 X42.83 Y23.37 Z0 F800
G1 X42.853 Y23.193 Z0 F800
; --- FIX X Backlash ---
G0 X43.553 Y23.193 F410
G1 X43.645 Y23.084 Z0 F800
G1 X43.703 Y23.063 Z0 F800
G1 X43.806 Y23.036 Z0 F800
G1 X43.945 Y23.004 Z0 F800
G1 X44.115 Y22.967 Z0 F800
G1 X44.522 Y22.884 Z0 F800
G1 X44.972 Y22.798 Z0 F800
G1 X45.795 Y22.646 Z0 F800
G1 X46.162 Y22.581 Z0 F800
G1 X46.18 Y22.63 Z0 F800
; --- FIX Y Backlash ---
G0 X46.18 Y23.13 F410
G1 X46.231 Y23.235 Z0 F800
G1 X46.317 Y23.332 Z0 F800
G1 X46.437 Y23.355 Z0 F800
G1 X46.545 Y23.324 Z0 F800
; --- FIX Y Backlash ---
G0 X46.545 Y22.824 F410
G1 X46.715 Y22.771 Z0 F800
G1 X47.147 Y22.632 Z0 F800
G1 X47.719 Y22.443 Z0 F800
G1 X48.085 Y20.933 Z0 F800
; --- FIX X Backlash ---
G0 X47.385 Y20.933 F410
G1 X46.47 Y20.978 Z0 F800
; --- FIX Y Backlash ---
G0 X46.47 Y21.478 F410
G1 X45.096 Y22.302 Z0 F800
G1 X43.494 Y22.257 Z0 F800
; --- FIX Y Backlash ---
G0 X43.494 Y21.757 F410
G1 X42.853 Y21.116 Z0 F800
G1 X42.736 Y20.971 Z0 F800
G1 X42.621 Y20.821 Z0 F800
G1 X42.498 Y20.646 Z0 F800
G1 X42.388 Y20.468 Z0 F800
G1 X42.312 Y20.305 Z0 F800
G1 X42.292 Y20.178 Z0 F800
; --- FIX X Backlash ---
G0 X42.992 Y20.178 F410
G1 X43.05 Y20.109 Z0 F800
G1 X43.195 Y20.086 Z0 F800
G1 X43.409 Z0 F800
G1 X43.663 Y20.097 Z0 F800
G1 X43.931 Y20.12 Z0 F800
G1 X44.186 Y20.147 Z0 F800
G1 X44.402 Y20.173 Z0 F800
G1 X44.606 Y20.2 Z0 F800
; --- FIX Y Backlash ---
G0 X44.606 Y20.7 F410
G1 X46.208 Y20.792 Z0 F800
; --- FIX Y Backlash ---
G0 X46.208 Y20.292 F410
G1 X47.673 Y19.971 Z0 F800
; --- FIX X Backlash ---
G0 X46.973 Y19.971 F410
; --- FIX Y Backlash ---
G0 X46.973 Y20.471 F410
G1 X44.318 Y21.387 Z0 F800
; --- FIX Y Backlash ---
G0 X44.318 Y20.887 F410
G1 X42.121 Y19.102 Z0 F800
G1 X41.938 Y15.485 Z0 F800
G1 X41.159 Y14.936 Z0 F800
G1 X36.811 Y14.844 Z0 F800
; --- FIX Y Backlash ---
G0 X36.811 Y15.344 F410
G1 X32.782 Y15.802 Z0 F800
; --- FIX Y Backlash ---
G0 X32.782 Y15.302 F410
G1 X30.677 Y14.753 Z0 F800
; --- FIX Y Backlash ---
G0 X30.677 Y15.253 F410
G1 X30.036 Y17.725 Z0 F800
; --- FIX Y Backlash ---
G0 X30.036 Y17.225 F410
G1 X27.793 Y17.087 Z0 F800
; --- FIX Y Backlash ---
G0 X27.793 Y17.587 F410
G1 X26.831 Y18.64 Z0 F800
G1 X25.916 Y19.968 Z0 F800
G1 X25.962 Y21.478 Z0 F800
G1 X24.222 Y21.799 Z0 F800
G1 X22.437 Z0 F800
; --- FIX Y Backlash ---
G0 X22.437 Y21.299 F410
G1 X21.796 Y20.933 Z0 F800
; --- FIX Y Backlash ---
G0 X21.796 Y21.433 F410
G1 X20.377 Y22.165 Z0 F800
G1 X19.736 Y23.905 Z0 F800
G1 X19.553 Y25.095 Z0 F800
; --- FIX X Backlash ---
G0 X20.253 Y25.095 F410
G1 X20.527 Y26.148 Z0 F800
G1 X20.573 Y26.789 Z0 F800
; --- FIX X Backlash ---
G0 X19.873 Y26.789 F410
G1 X18.683 Y26.972 Z0 F800
; --- FIX Y Backlash ---
G0 X18.683 Y26.472 F410
G1 X16.806 Y26.243 Z0 F800
G1 X15.936 Y25.693 Z0 F800
G1 X15.982 Y25.098 Z0 F800
; --- FIX X Backlash ---
G0 X16.682 Y25.098 F410
G1 X18.056 Y25.007 Z0 F800
; --- FIX Y Backlash ---
G0 X18.056 Y25.507 F410
G1 X18.33 Y25.919 Z0 F800
G1 X20.253 Y26.193 Z0 F800
; --- FIX X Backlash ---
G0 X19.553 Y26.193 F410
; --- FIX Y Backlash ---
G0 X19.553 Y25.693 F410
G1 X18.5 Y24.915 Z0 F800
G1 X18.319 Y24.895 Z0 F800
G1 X18.14 Y24.867 Z0 F800
G1 X17.945 Y24.824 Z0 F800
G1 X17.765 Y24.763 Z0 F800
G1 X17.631 Y24.683 Z0 F800
G1 X17.592 Y24.636 Z0 F800
G1 X17.576 Y24.582 Z0 F800
G1 X17.587 Y24.523 Z0 F800
G1 X17.63 Y24.457 Z0 F800
; --- FIX X Backlash ---
G0 X18.33 Y24.457 F410
G1 X18.477 Y24.327 Z0 F800
G1 X18.666 Y24.21 Z0 F800
G1 X18.877 Y24.108 Z0 F800
G1 X19.091 Y24.023 Z0 F800
G1 X19.291 Y23.954 Z0 F800
G1 X19.457 Y23.904 Z0 F800
G1 X19.612 Y23.862 Z0 F800
; --- FIX X Backlash ---
G0 X18.912 Y23.862 F410
; --- FIX Y Backlash ---
G0 X18.912 Y24.362 F410
G1 X17.859 Y27.429 Z0 F800
; --- FIX Y Backlash ---
G0 X17.859 Y26.929 F410
G1 X16.394 Y25.51 Z0 F800
; --- FIX X Backlash ---
G0 X17.094 Y25.51 F410
G1 X20.161 Y22.993 Z0 F800
; --- FIX X Backlash ---
G0 X19.461 Y22.993 F410
; --- FIX Y Backlash ---
G0 X19.461 Y23.493 F410
G1 X17.859 Y23.676 Z0 F800
; --- FIX X Backlash ---
G0 X18.559 Y23.676 F410
; --- FIX Y Backlash ---
G0 X18.559 Y23.176 F410
G1 X18.971 Y21.619 Z0 F800
; --- FIX X Backlash ---
G0 X18.271 Y21.619 F410
G1 X17.859 Y20.795 Z0 F800
; --- FIX X Backlash ---
G0 X18.559 Y20.795 F410
G1 X19.383 Y19.651 Z0 F800
; --- FIX X Backlash ---
G0 X18.683 Y19.651 F410
G1 X18.18 Y18.598 Z0 F800
; --- FIX X Backlash ---
G0 X18.88 Y18.598 F410
G1 X19.612 Y17.82 Z0 F800
; --- FIX X Backlash ---
G0 X18.912 Y17.82 F410
G1 X18.271 Y17.499 Z0 F800
G1 X17.63 Y16.904 Z0 F800
G1 X17.218 Y15.897 Z0 F800
; --- FIX X Backlash ---
G0 X17.918 Y15.897 F410
G1 X18.468 Y14.707 Z0 F800
;Layer C3 Pass 2 of 2
G1 X21.123 Y14.661 Z0 F800
; --- FIX Y Backlash ---
G0 X21.123 Y15.161 F410
G1 X22.588 Y15.939 Z0 F800
G1 X22.712 Y16.037 Z0 F800
G1 X22.834 Y16.142 Z0 F800
G1 X22.965 Y16.271 Z0 F800
G1 X23.084 Y16.413 Z0 F800
G1 X23.167 Y16.557 Z0 F800
G1 X23.192 Y16.693 Z0 F800
; --- FIX X Backlash ---
G0 X22.492 Y16.693 F410
G1 X22.437 Y16.809 Z0 F800
G1 X22.317 Y16.937 Z0 F800
G1 X22.171 Y17.104 Z0 F800
G1 X22.012 Y17.292 Z0 F800
G1 X21.853 Y17.484 Z0 F800
G1 X21.476 Y17.954 Z0 F800
G1 X19.232 Y17.999 Z0 F800
; --- FIX X Backlash ---
G0 X19.932 Y17.999 F410
G1 X20.344 Y19.281 Z0 F800
; --- FIX X Backlash ---
G0 X19.644 Y19.281 F410
G1 X18.958 Y19.739 Z0 F800
; --- FIX X Backlash ---
G0 X19.658 Y19.739 F410
G1 X20.482 Y21.021 Z0 F800
; --- FIX X Backlash ---
G0 X19.782 Y21.021 F410
G1 X18.912 Y21.89 Z0 F800
; --- FIX X Backlash ---
G0 X19.612 Y21.89 F410
G1 X20.528 Y22.898 Z0 F800
; --- FIX Y Backlash ---
G0 X20.528 Y22.398 F410
G1 X21.352 Y20.75 Z0 F800
; --- FIX X Backlash ---
G0 X20.652 Y20.75 F410
G1 X20.194 Y19.788 Z0 F800
; --- FIX X Backlash ---
G0 X20.894 Y19.788 F410
G1 X21.075 Y19.699 Z0 F800
G1 X21.256 Y19.602 Z0 F800
G1 X21.455 Y19.485 Z0 F800
G1 X21.64 Y19.357 Z0 F800
G1 X21.782 Y19.228 Z0 F800
G1 X21.827 Y19.167 Z0 F800
G1 X21.849 Y19.109 Z0 F800
G1 X21.844 Y19.057 Z0 F800
G1 X21.809 Y19.01 Z0 F800
; --- FIX X Backlash ---
G0 X21.109 Y19.01 F410
G1 X20.893 Y18.813 Z0 F800
G1 X20.686 Y18.604 Z0 F800
G1 X20.53 Y18.437 Z0 F800
G1 X20.468 Y18.369 Z0 F800
; --- FIX X Backlash ---
G0 X21.168 Y18.369 F410
G1 X22.908 Y17.82 Z0 F800
G1 X24.052 Y16.721 Z0 F800
; --- FIX X Backlash ---
G0 X23.352 Y16.721 F410
G1 X23.261 Y15.623 Z0 F800
G1 X22.208 Y14.844 Z0 F800
; --- FIX X Backlash ---
G0 X22.908 Y14.844 F410
; --- FIX Y Backlash ---
G0 X22.908 Y15.344 F410
G1 X24.51 Y15.573 Z0 F800
G1 X25.105 Y16.626 Z0 F800
G1 X25.159 Y16.836 Z0 F800
G1 X25.209 Y17.056 Z0 F800
G1 X25.26 Y17.313 Z0 F800
G1 X25.3 Y17.578 Z0 F800
G1 X25.318 Y17.824 Z0 F800
G1 X25.302 Y18.019 Z0 F800
; --- FIX X Backlash ---
G0 X24.602 Y18.019 F410
G1 X24.543 Y18.137 Z0 F800
G1 X24.426 Y18.225 Z0 F800
G1 X24.26 Y18.343 Z0 F800
G1 X23.862 Y18.617 Z0 F800
G1 X23.352 Y18.961 Z0 F800
G1 X21.109 Y20.014 Z0 F800
; --- FIX X Backlash ---
G0 X21.809 Y20.014 F410
G1 X22.404 Y20.838 Z0 F800
G1 X23.732 Y20.792 Z0 F800
G1 X24.063 Y20.811 Z0 F800
G1 X24.264 Y20.826 Z0 F800
G1 X24.476 Y20.846 Z0 F800
G1 X24.678 Y20.869 Z0 F800
G1 X24.849 Y20.897 Z0 F800
G1 X24.968 Y20.929 Z0 F800
G1 X25.065 Y20.926 Z0 F800
; --- FIX Y Backlash ---
G0 X25.065 Y20.426 F410
G1 X25.179 Y20.361 Z0 F800
G1 X25.3 Y20.252 Z0 F800
G1 X25.42 Y20.12 Z0 F800
G1 X25.529 Y19.984 Z0 F800
G1 X25.618 Y19.863 Z0 F800
G1 X25.7 Y19.743 Z0 F800
; --- FIX X Backlash ---
G0 X25 Y19.743 F410
G1 X24.858 Y19.673 Z0 F800
G1 X24.703 Y19.605 Z0 F800
G1 X24.514 Y19.531 Z0 F800
G1 X24.305 Y19.463 Z0 F800
G1 X24.093 Y19.414 Z0 F800
G1 X23.892 Y19.396 Z0 F800
G1 X23.719 Y19.422 Z0 F800
; --- FIX Y Backlash ---
G0 X23.719 Y19.922 F410
G1 X23.341 Y19.986 Z0 F800
G1 X22.929 Z0 F800
G1 X22.758 Y19.967 Z0 F800
G1 X22.637 Y19.941 Z0 F800
G1 X22.585 Y19.91 Z0 F800
G1 X22.62 Y19.876 Z0 F800
; --- FIX X Backlash ---
G0 X23.32 Y19.876 F410
G1 X23.381 Y19.848 Z0 F800
G1 X23.474 Y19.801 Z0 F800
; --- FIX Y Backlash ---
G0 X23.474 Y19.301 F410
G1 X23.595 Y19.237 Z0 F800
G1 X24.072 Y18.974 Z0 F800
G1 X24.436 Y18.77 Z0 F800
G1 X25.38 Y18.232 Z0 F800
; --- FIX Y Backlash ---
G0 X25.38 Y18.732 F410
G1 X26.57 Y19.281 Z0 F800
; --- FIX Y Backlash ---
G0 X26.57 Y18.781 F410
G1 X26.69 Y18.691 Z0 F800
G1 X26.812 Y18.593 Z0 F800
G1 X26.948 Y18.472 Z0 F800
G1 X27.08 Y18.339 Z0 F800
G1 X27.188 Y18.202 Z0 F800
G1 X27.254 Y18.071 Z0 F800
G1 X27.257 Y17.957 Z0 F800
; --- FIX X Backlash ---
G0 X26.557 Y17.957 F410
G1 X26.491 Y17.833 Z0 F800
G1 X26.375 Y17.677 Z0 F800
G1 X26.227 Y17.503 Z0 F800
G1 X26.065 Y17.328 Z0 F800
G1 X25.907 Y17.165 Z0 F800
G1 X25.771 Y17.03 Z0 F800
G1 X25.641 Y16.904 Z0 F800
G1 X25.229 Y15.76 Z0 F800
G1 X25 Y14.982 Z0 F800
; --- FIX X Backlash ---
G0 X25.7 Y14.982 F410
G1 X26.433 Y14.936 Z0 F800
; --- FIX Y Backlash ---
G0 X26.433 Y15.436 F410
G1 X26.652 Y15.68 Z0 F800
G1 X26.782 Y15.831 Z0 F800
G1 X26.913 Y15.992 Z0 F800
G1 X27.031 Y16.15 Z0 F800
G1 X27.121 Y16.29 Z0 F800
G1 X27.165 Y16.397 Z0 F800
G1 X27.204 Y16.508 Z0 F800
G1 X27.278 Y16.658 Z0 F800
G1 X27.374 Y16.831 Z0 F800
G1 X27.48 Y17.01 Z0 F800
G1 X27.584 Y17.177 Z0 F800
G1 X27.76 Y17.45 Z0 F800
; --- FIX Y Backlash ---
G0 X27.76 Y16.95 F410
G1 X30.415 Y15.623 Z0 F800
; --- FIX X Backlash ---
G0 X29.715 Y15.623 F410
G1 X28.754 Y14.982 Z0 F800
; --- FIX Y Backlash ---
G0 X28.754 Y15.482 F410
G1 X27.243 Y16.031 Z0 F800
G1 X27.289 Y16.58 Z0 F800
; --- FIX X Backlash ---
G0 X27.989 Y16.58 F410
; --- FIX Y Backlash ---
G0 X27.989 Y16.08 F410
G1 X28.2 Y16.029 Z0 F800
G1 X28.676 Y15.909 Z0 F800
G1 X28.941 Y15.839 Z0 F800
G1 X29.187 Y15.771 Z0 F800
G1 X29.382 Y15.712 Z0 F800
G1 X29.5 Y15.668 Z0 F800
G1 X29.637 Y15.605 Z0 F800
G1 X29.885 Y15.494 Z0 F800
G1 X31.468 Y14.799 Z0 F800
G1 X33.803 Y14.707 Z0 F800
; --- FIX Y Backlash ---
G0 X33.803 Y15.207 F410
G1 X38.06 Y15.344 Z0 F800
; --- FIX Y Backlash ---
G0 X38.06 Y14.844 F410
G1 X41.768 Y14.661 Z0 F800
; --- FIX Y Backlash ---
G0 X41.768 Y15.161 F410
G1 X42.638 Y15.894 Z0 F800
; --- FIX X Backlash ---
G0 X41.938 Y15.894 F410
G1 X41.709 Y19.876 Z0 F800
; --- FIX X Backlash ---
G0 X42.409 Y19.876 F410
G1 X43.736 Y20.654 Z0 F800
; --- FIX X Backlash ---
G0 X43.036 Y20.654 F410
G1 X42.945 Y25.919 Z0 F800
G1 Y32.373 Z0 F800
; --- FIX X Backlash ---
G0 X43.645 Y32.373 F410
G1 X44.927 Y32.877 Z0 F800
; --- FIX Y Backlash ---
G0 X44.927 Y32.377 F410
G1 X45.384 Y28.944 Z0 F800
; --- FIX X Backlash ---
G0 X44.684 Y28.944 F410
G1 X43.449 Y26.06 Z0 F800
; --- FIX X Backlash ---
G0 X44.149 Y26.06 F410
G1 X44.307 Y25.611 Z0 F800
G1 X44.658 Y24.601 Z0 F800
G1 X44.848 Y24.041 Z0 F800
G1 X45.018 Y23.53 Z0 F800
G1 X45.087 Y23.312 Z0 F800
G1 X45.143 Y23.129 Z0 F800
G1 X45.182 Y22.989 Z0 F800
G1 X45.201 Y22.901 Z0 F800
G1 Y22.822 Z0 F800
G1 X45.179 Y22.709 Z0 F800
G1 X45.142 Y22.567 Z0 F800
; --- FIX X Backlash ---
G0 X44.442 Y22.567 F410
G1 X44.392 Y22.401 Z0 F800
G1 X44.261 Y22.022 Z0 F800
G1 X44.107 Y21.614 Z0 F800
G1 X43.95 Y21.221 Z0 F800
G1 X43.813 Y20.886 Z0 F800
G1 X43.677 Y20.566 Z0 F800
; --- FIX X Backlash ---
G0 X44.377 Y20.566 F410
G1 X45.201 Y20.109 Z0 F800
; --- FIX Y Backlash ---
G0 X45.201 Y20.609 F410
G1 X46.483 Y21.753 Z0 F800
G1 X46.529 Y24.133 Z0 F800
; --- FIX X Backlash ---
G0 X45.829 Y24.133 F410
G1 X44.822 Y26.377 Z0 F800
; --- FIX X Backlash ---
G0 X45.522 Y26.377 F410
G1 X45.812 Y26.823 Z0 F800
G1 X45.98 Y27.092 Z0 F800
G1 X46.148 Y27.371 Z0 F800
G1 X46.294 Y27.632 Z0 F800
G1 X46.353 Y27.746 Z0 F800
G1 X46.398 Y27.844 Z0 F800
G1 X46.427 Y27.923 Z0 F800
G1 X46.437 Y27.979 Z0 F800
G1 X46.43 Y28.462 Z0 F800
G1 X46.392 Y30.451 Z0 F800
G1 X46.62 Y32.19 Z0 F800
G1 X46.824 Y32.193 Z0 F800
G1 X47.026 Y32.19 Z0 F800
G1 X47.25 Y32.179 Z0 F800
G1 X47.461 Y32.154 Z0 F800
G1 X47.625 Y32.113 Z0 F800
G1 X47.678 Y32.084 Z0 F800
G1 X47.707 Y32.05 Z0 F800
G1 Y32.009 Z0 F800
G1 X47.673 Y31.961 Z0 F800
; --- FIX X Backlash ---
G0 X46.973 Y31.961 F410
; --- FIX Y Backlash ---
G0 X46.973 Y31.461 F410
G1 X46.919 Y31.374 Z0 F800
G1 X46.859 Y31.221 Z0 F800
G1 X46.795 Y31.013 Z0 F800
G1 X46.729 Y30.759 Z0 F800
G1 X46.592 Y30.153 Z0 F800
G1 X46.458 Y29.481 Z0 F800
G1 X46.338 Y28.823 Z0 F800
G1 X46.239 Y28.255 Z0 F800
G1 X46.149 Y27.708 Z0 F800
G1 X45.92 Y24.457 Z0 F800
; --- FIX X Backlash ---
G0 X46.62 Y24.457 F410
G1 X46.849 Y23.37 Z0 F800
G1 X46.933 Y22.951 Z0 F800
G1 X47.007 Y22.565 Z0 F800
G1 X47.036 Y22.399 Z0 F800
G1 X47.059 Y22.258 Z0 F800
G1 X47.073 Y22.149 Z0 F800
G1 X47.078 Y22.077 Z0 F800
G1 Y22.009 Z0 F800
G1 X47.057 Y21.789 Z0 F800
; --- FIX X Backlash ---
G0 X46.357 Y21.789 F410
G1 X46.306 Y21.319 Z0 F800
G1 X46.264 Y20.967 Z0 F800
G1 X46.149 Y20.063 Z0 F800
; --- FIX X Backlash ---
G0 X46.849 Y20.063 F410
; --- FIX Y Backlash ---
G0 X46.849 Y20.563 F410
G1 X47.673 Y20.929 Z0 F800
G1 Y31.732 Z0 F800
G1 X48.909 Y32.785 Z0 F800
G1 X55.272 Y32.831 Z0 F800
; --- FIX X Backlash ---
G0 X54.572 Y32.831 F410
; --- FIX Y Backlash ---
G0 X54.572 Y32.331 F410
G1 X54.206 Y28.898 Z0 F800
; --- FIX X Backlash ---
G0 X54.906 Y28.898 F410
G1 X55.455 Y27.341 Z0 F800
; --- FIX X Backlash ---
G0 X54.755 Y27.341 F410
G1 X53.657 Y27.021 Z0 F800
; --- FIX X Backlash ---
G0 X54.357 Y27.021 F410
; --- FIX Y Backlash ---
G0 X54.357 Y27.521 F410
G1 X55.455 Y27.658 Z0 F800
G1 X55.913 Y29.123 Z0 F800
G1 Y30.817 Z0 F800
G1 X56.05 Y31.961 Z0 F800
; --- FIX X Backlash ---
G0 X55.35 Y31.961 F410
G1 X55.213 Y33.243 Z0 F800
G1 X54.48 Y34.113 Z0 F800
; --- FIX Y Backlash ---
G0 X54.48 Y33.613 F410
G1 X53.473 Y32.88 Z0 F800
; --- FIX X Backlash ---
G0 X54.173 Y32.88 F410
G1 X54.814 Y31.736 Z0 F800
; --- FIX X Backlash ---
G0 X54.114 Y31.736 F410
G1 X53.977 Y29.767 Z0 F800
G1 X53.84 Y27.936 Z0 F800
; --- FIX Y Backlash ---
G0 X53.84 Y28.436 F410
G1 X53.473 Y29.535 Z0 F800
; --- FIX X Backlash ---
G0 X54.173 Y29.535 F410
G1 X54.356 Y31.732 Z0 F800
; --- FIX X Backlash ---
G0 X53.656 Y31.732 F410
G1 X53.061 Y32.785 Z0 F800
G1 X46.744 Y32.831 Z0 F800
G1 X45.462 Y32.922 Z0 F800
G1 X43.677 Y33.334 Z0 F800
; --- FIX Y Backlash ---
G0 X43.677 Y32.834 F410
G1 X42.67 Y32.194 Z0 F800
; --- FIX X Backlash ---
G0 X43.37 Y32.194 F410
G1 X43.736 Y30.958 Z0 F800
; --- FIX Y Backlash ---
G0 X43.736 Y31.458 F410
G1 X46.529 Y32.236 Z0 F800
; --- FIX Y Backlash ---
G0 X46.529 Y31.736 F410
G1 X47.536 Y30.912 Z0 F800
G1 X47.593 Y30.812 Z0 F800
G1 X47.642 Y30.709 Z0 F800
G1 X47.685 Y30.591 Z0 F800
G1 X47.706 Y30.474 Z0 F800
G1 X47.69 Y30.371 Z0 F800
; --- FIX X Backlash ---
G0 X46.99 Y30.371 F410
G1 X46.923 Y30.298 Z0 F800
G1 X46.79 Y30.271 Z0 F800
G1 X46.182 Y30.278 Z0 F800
G1 X44.135 Y30.317 Z0 F800
G1 X42.99 Y30.179 Z0 F800
G1 X43.03 Y30.001 Z0 F800
G1 X43.075 Y29.817 Z0 F800
; --- FIX X Backlash ---
G0 X43.775 Y29.817 F410
G1 X43.834 Y29.607 Z0 F800
G1 X43.903 Y29.397 Z0 F800
G1 X43.98 Y29.214 Z0 F800
G1 X44.063 Y29.084 Z0 F800
G1 X44.148 Y29.035 Z0 F800
G1 X44.209 Y29.042 Z0 F800
G1 X44.302 Y29.063 Z0 F800
G1 X44.423 Y29.094 Z0 F800
G1 X44.567 Y29.135 Z0 F800
; --- FIX Y Backlash ---
G0 X44.567 Y29.635 F410
G1 X44.901 Y29.738 Z0 F800
G1 X45.264 Y29.855 Z0 F800
G1 X45.617 Y29.973 Z0 F800
G1 X46.208 Y30.176 Z0 F800
; --- FIX Y Backlash ---
G0 X46.208 Y29.676 F410
G1 X47.902 Y28.989 Z0 F800
G1 X47.897 Y28.853 Z0 F800
G1 X47.885 Y28.712 Z0 F800
G1 X47.862 Y28.549 Z0 F800
G1 X47.824 Y28.383 Z0 F800
; --- FIX X Backlash ---
G0 X47.124 Y28.383 F410
G1 X47.067 Y28.236 Z0 F800
G1 X46.987 Y28.126 Z0 F800
G1 X46.882 Y28.074 Z0 F800
G1 X46.804 Y28.068 Z0 F800
G1 X46.695 Z0 F800
G1 X46.56 Y28.074 Z0 F800
G1 X46.403 Y28.083 Z0 F800
G1 X46.045 Y28.111 Z0 F800
G1 X45.663 Y28.148 Z0 F800
G1 X45.295 Y28.187 Z0 F800
; --- FIX Y Backlash ---
G0 X45.295 Y28.687 F410
G1 X44.684 Y28.757 Z0 F800
G1 X44.487 Y28.787 Z0 F800
G1 X44.279 Y28.81 Z0 F800
G1 X44.032 Y28.825 Z0 F800
G1 X43.772 Z0 F800
G1 X43.525 Y28.795 Z0 F800
; --- FIX Y Backlash ---
G0 X43.525 Y28.295 F410
G1 X43.317 Y28.23 Z0 F800
G1 X43.174 Y28.119 Z0 F800
G1 X42.913 Y27.896 Z0 F800
G1 X42.636 Y27.742 Z0 F800
G1 X42.533 Y27.674 Z0 F800
G1 X42.478 Y27.604 Z0 F800
G1 X42.488 Y27.526 Z0 F800
; --- FIX X Backlash ---
G0 X43.188 Y27.526 F410
G1 X43.278 Y27.433 Z0 F800
G1 X43.47 Y27.334 Z0 F800
G1 X43.748 Y27.245 Z0 F800
G1 X44.077 Y27.167 Z0 F800
G1 X44.423 Y27.101 Z0 F800
G1 X44.752 Y27.047 Z0 F800
G1 X45.029 Y27.008 Z0 F800
G1 X45.293 Y26.975 Z0 F800
; --- FIX Y Backlash ---
G0 X45.293 Y27.475 F410
G1 X46.895 Y27.933 Z0 F800
; --- FIX Y Backlash ---
G0 X46.895 Y27.433 F410
G1 X47.993 Y26.7 Z0 F800
G1 X47.969 Y26.675 Z0 F800
; --- FIX X Backlash ---
G0 X47.269 Y26.675 F410
G1 X47.197 Y26.607 Z0 F800
G1 X47.083 Y26.51 Z0 F800
G1 X46.933 Y26.397 Z0 F800
G1 X46.75 Y26.282 Z0 F800
G1 X46.54 Y26.179 Z0 F800
G1 X46.308 Y26.1 Z0 F800
G1 X46.057 Y26.059 Z0 F800
G1 X45.758 Y26.064 Z0 F800
G1 X45.392 Y26.105 Z0 F800
; --- FIX Y Backlash ---
G0 X45.392 Y26.605 F410
G1 X44.991 Y26.67 Z0 F800
G1 X44.581 Y26.748 Z0 F800
G1 X43.856 Y26.901 Z0 F800
G1 X43.598 Y26.952 Z0 F800
G1 X43.508 Y26.966 Z0 F800
G1 X43.448 Y26.971 Z0 F800
G1 X43.296 Y26.975 Z0 F800
G1 X43.037 Y26.986 Z0 F800
G1 X42.355 Y27.017 Z0 F800
G1 X41.434 Y27.063 Z0 F800
G1 X40.747 Y27.658 Z0 F800
; --- FIX Y Backlash ---
G0 X40.747 Y27.158 F410
G1 X40.427 Y26.746 Z0 F800
; --- FIX X Backlash ---
G0 X41.127 Y26.746 F410
G1 X41.356 Y25.831 Z0 F800
G1 X41.402 Y25.144 Z0 F800
G1 X42.409 Y24.549 Z0 F800
; --- FIX Y Backlash ---
G0 X42.409 Y25.049 F410
G1 X42.729 Y26.056 Z0 F800
; --- FIX Y Backlash ---
G0 X42.729 Y25.556 F410
G1 X44.835 Y25.144 Z0 F800
G1 X46.071 Y24.915 Z0 F800
; --- FIX Y Backlash ---
G0 X46.071 Y25.415 F410
G1 X47.902 Y25.919 Z0 F800
; --- FIX Y Backlash ---
G0 X47.902 Y25.419 F410
G1 X48.36 Y23.862 Z0 F800
; --- FIX X Backlash ---
G0 X47.66 Y23.862 F410
G1 X47.504 Y23.823 Z0 F800
G1 X47.336 Y23.787 Z0 F800
G1 X47.133 Y23.754 Z0 F800
G1 X46.913 Y23.73 Z0 F800
G1 X46.694 Y23.727 Z0 F800
G1 X46.494 Y23.753 Z0 F800
; --- FIX Y Backlash ---
G0 X46.494 Y24.253 F410
G1 X46.332 Y24.316 Z0 F800
G1 X45.691 Y24.723 Z0 F800
G1 X45.325 Y24.957 Z0 F800
; --- FIX Y Backlash ---
G0 X45.325 Y24.457 F410
G1 X43.677 Y23.816 Z0 F800
; --- FIX Y Backlash ---
G0 X43.677 Y24.316 F410
G1 X43.548 Y24.375 Z0 F800
G1 X43.416 Y24.427 Z0 F800
G1 X43.265 Y24.477 Z0 F800
G1 X43.114 Y24.509 Z0 F800
G1 X42.982 Z0 F800
G1 X42.889 Y24.465 Z0 F800
; --- FIX Y Backlash ---
G0 X42.889 Y23.965 F410
G1 X42.853 Y23.862 Z0 F800
G1 X42.83 Y23.37 Z0 F800
G1 X42.853 Y23.193 Z0 F800
; --- FIX X Backlash ---
G0 X43.553 Y23.193 F410
G1 X43.645 Y23.084 Z0 F800
G1 X43.703 Y23.063 Z0 F800
G1 X43.806 Y23.036 Z0 F800
G1 X43.945 Y23.004 Z0 F800
G1 X44.115 Y22.967 Z0 F800
G1 X44.522 Y22.884 Z0 F800
G1 X44.972 Y22.798 Z0 F800
G1 X45.795 Y22.646 Z0 F800
G1 X46.162 Y22.581 Z0 F800
G1 X46.18 Y22.63 Z0 F800
; --- FIX Y Backlash ---
G0 X46.18 Y23.13 F410
G1 X46.231 Y23.235 Z0 F800
G1 X46.317 Y23.332 Z0 F800
G1 X46.437 Y23.355 Z0 F800
G1 X46.545 Y23.324 Z0 F800
; --- FIX Y Backlash ---
G0 X46.545 Y22.824 F410
G1 X46.715 Y22.771 Z0 F800
G1 X47.147 Y22.632 Z0 F800
G1 X47.719 Y22.443 Z0 F800
G1 X48.085 Y20.933 Z0 F800
; --- FIX X Backlash ---
G0 X47.385 Y20.933 F410
G1 X46.47 Y20.978 Z0 F800
; --- FIX Y Backlash ---
G0 X46.47 Y21.478 F410
G1 X45.096 Y22.302 Z0 F800
G1 X43.494 Y22.257 Z0 F800
; --- FIX Y Backlash ---
G0 X43.494 Y21.757 F410
G1 X42.853 Y21.116 Z0 F800
G1 X42.736 Y20.971 Z0 F800
G1 X42.621 Y20.821 Z0 F800
G1 X42.498 Y20.646 Z0 F800
G1 X42.388 Y20.468 Z0 F800
G1 X42.312 Y20.305 Z0 F800
G1 X42.292 Y20.178 Z0 F800
; --- FIX X Backlash ---
G0 X42.992 Y20.178 F410
G1 X43.05 Y20.109 Z0 F800
G1 X43.195 Y20.086 Z0 F800
G1 X43.409 Z0 F800
G1 X43.663 Y20.097 Z0 F800
G1 X43.931 Y20.12 Z0 F800
G1 X44.186 Y20.147 Z0 F800
G1 X44.402 Y20.173 Z0 F800
G1 X44.606 Y20.2 Z0 F800
; --- FIX Y Backlash ---
G0 X44.606 Y20.7 F410
G1 X46.208 Y20.792 Z0 F800
; --- FIX Y Backlash ---
G0 X46.208 Y20.292 F410
G1 X47.673 Y19.971 Z0 F800
; --- FIX X Backlash ---
G0 X46.973 Y19.971 F410
; --- FIX Y Backlash ---
G0 X46.973 Y20.471 F410
G1 X44.318 Y21.387 Z0 F800
; --- FIX Y Backlash ---
G0 X44.318 Y20.887 F410
G1 X42.121 Y19.102 Z0 F800
G1 X41.938 Y15.485 Z0 F800
G1 X41.159 Y14.936 Z0 F800
G1 X36.811 Y14.844 Z0 F800
; --- FIX Y Backlash ---
G0 X36.811 Y15.344 F410
G1 X32.782 Y15.802 Z0 F800
; --- FIX Y Backlash ---
G0 X32.782 Y15.302 F410
G1 X30.677 Y14.753 Z0 F800
; --- FIX Y Backlash ---
G0 X30.677 Y15.253 F410
G1 X30.036 Y17.725 Z0 F800
; --- FIX Y Backlash ---
G0 X30.036 Y17.225 F410
G1 X27.793 Y17.087 Z0 F800
; --- FIX Y Backlash ---
G0 X27.793 Y17.587 F410
G1 X26.831 Y18.64 Z0 F800
G1 X25.916 Y19.968 Z0 F800
G1 X25.962 Y21.478 Z0 F800
G1 X24.222 Y21.799 Z0 F800
G1 X22.437 Z0 F800
; --- FIX Y Backlash ---
G0 X22.437 Y21.299 F410
G1 X21.796 Y20.933 Z0 F800
; --- FIX Y Backlash ---
G0 X21.796 Y21.433 F410
G1 X20.377 Y22.165 Z0 F800
G1 X19.736 Y23.905 Z0 F800
G1 X19.553 Y25.095 Z0 F800
; --- FIX X Backlash ---
G0 X20.253 Y25.095 F410
G1 X20.527 Y26.148 Z0 F800
G1 X20.573 Y26.789 Z0 F800
; --- FIX X Backlash ---
G0 X19.873 Y26.789 F410
G1 X18.683 Y26.972 Z0 F800
; --- FIX Y Backlash ---
G0 X18.683 Y26.472 F410
G1 X16.806 Y26.243 Z0 F800
G1 X15.936 Y25.693 Z0 F800
G1 X15.982 Y25.098 Z0 F800
; --- FIX X Backlash ---
G0 X16.682 Y25.098 F410
G1 X18.056 Y25.007 Z0 F800
; --- FIX Y Backlash ---
G0 X18.056 Y25.507 F410
G1 X18.33 Y25.919 Z0 F800
G1 X20.253 Y26.193 Z0 F800
; --- FIX X Backlash ---
G0 X19.553 Y26.193 F410
; --- FIX Y Backlash ---
G0 X19.553 Y25.693 F410
G1 X18.5 Y24.915 Z0 F800
G1 X18.319 Y24.895 Z0 F800
G1 X18.14 Y24.867 Z0 F800
G1 X17.945 Y24.824 Z0 F800
G1 X17.765 Y24.763 Z0 F800
G1 X17.631 Y24.683 Z0 F800
G1 X17.592 Y24.636 Z0 F800
G1 X17.576 Y24.582 Z0 F800
G1 X17.587 Y24.523 Z0 F800
G1 X17.63 Y24.457 Z0 F800
; --- FIX X Backlash ---
G0 X18.33 Y24.457 F410
G1 X18.477 Y24.327 Z0 F800
G1 X18.666 Y24.21 Z0 F800
G1 X18.877 Y24.108 Z0 F800
G1 X19.091 Y24.023 Z0 F800
G1 X19.291 Y23.954 Z0 F800
G1 X19.457 Y23.904 Z0 F800
G1 X19.612 Y23.862 Z0 F800
; --- FIX X Backlash ---
G0 X18.912 Y23.862 F410
; --- FIX Y Backlash ---
G0 X18.912 Y24.362 F410
G1 X17.859 Y27.429 Z0 F800
; --- FIX Y Backlash ---
G0 X17.859 Y26.929 F410
G1 X16.394 Y25.51 Z0 F800
; --- FIX X Backlash ---
G0 X17.094 Y25.51 F410
G1 X20.161 Y22.993 Z0 F800
; --- FIX X Backlash ---
G0 X19.461 Y22.993 F410
; --- FIX Y Backlash ---
G0 X19.461 Y23.493 F410
G1 X17.859 Y23.676 Z0 F800
; --- FIX X Backlash ---
G0 X18.559 Y23.676 F410
; --- FIX Y Backlash ---
G0 X18.559 Y23.176 F410
G1 X18.971 Y21.619 Z0 F800
; --- FIX X Backlash ---
G0 X18.271 Y21.619 F410
G1 X17.859 Y20.795 Z0 F800
; --- FIX X Backlash ---
G0 X18.559 Y20.795 F410
G1 X19.383 Y19.651 Z0 F800
; --- FIX X Backlash ---
G0 X18.683 Y19.651 F410
G1 X18.18 Y18.598 Z0 F800
; --- FIX X Backlash ---
G0 X18.88 Y18.598 F410
G1 X19.612 Y17.82 Z0 F800
; --- FIX X Backlash ---
G0 X18.912 Y17.82 F410
G1 X18.271 Y17.499 Z0 F800
G1 X17.63 Y16.904 Z0 F800
G1 X17.218 Y15.897 Z0 F800
; --- FIX X Backlash ---
G0 X17.918 Y15.897 F410
G1 X18.468 Y14.707 Z0 F800
G0 Z3.5 F800
; --- FIX X Backlash ---
G0 X17.768 Y14.707 F410
; --- FIX Y Backlash ---
G0 X17.768 Y15.207 F410
G0 X17.607 Y15.505 Z3.5 F800
G1 Z0 F800
;Layer C3 Pass 1 of 2
; --- FIX X Backlash ---
G0 X18.307 Y15.505 F410
G1 X20.962 Y15.459 Z0 F800
G1 X22.427 Y16.237 Z0 F800
G1 X22.552 Y16.334 Z0 F800
G1 X22.674 Y16.44 Z0 F800
G1 X22.805 Y16.569 Z0 F800
G1 X22.923 Y16.711 Z0 F800
G1 X23.007 Y16.855 Z0 F800
G1 X23.032 Y16.991 Z0 F800
; --- FIX X Backlash ---
G0 X22.332 Y16.991 F410
G1 X22.277 Y17.107 Z0 F800
G1 X22.156 Y17.235 Z0 F800
G1 X22.011 Y17.402 Z0 F800
G1 X21.852 Y17.59 Z0 F800
G1 X21.693 Y17.782 Z0 F800
G1 X21.315 Y18.251 Z0 F800
G1 X19.072 Y18.297 Z0 F800
; --- FIX X Backlash ---
G0 X19.772 Y18.297 F410
G1 X20.184 Y19.579 Z0 F800
; --- FIX X Backlash ---
G0 X19.484 Y19.579 F410
G1 X18.798 Y20.037 Z0 F800
; --- FIX X Backlash ---
G0 X19.498 Y20.037 F410
G1 X20.322 Y21.318 Z0 F800
; --- FIX X Backlash ---
G0 X19.622 Y21.318 F410
G1 X18.752 Y22.188 Z0 F800
; --- FIX X Backlash ---
G0 X19.452 Y22.188 F410
G1 X20.367 Y23.195 Z0 F800
; --- FIX Y Backlash ---
G0 X20.367 Y22.695 F410
G1 X21.191 Y21.047 Z0 F800
; --- FIX X Backlash ---
G0 X20.491 Y21.047 F410
G1 X20.034 Y20.086 Z0 F800
; --- FIX X Backlash ---
G0 X20.734 Y20.086 F410
G1 X20.915 Y19.997 Z0 F800
G1 X21.096 Y19.9 Z0 F800
G1 X21.294 Y19.783 Z0 F800
G1 X21.48 Y19.655 Z0 F800
G1 X21.622 Y19.526 Z0 F800
G1 X21.667 Y19.465 Z0 F800
G1 X21.689 Y19.407 Z0 F800
G1 X21.684 Y19.354 Z0 F800
G1 X21.649 Y19.308 Z0 F800
; --- FIX X Backlash ---
G0 X20.949 Y19.308 F410
G1 X20.733 Y19.111 Z0 F800
G1 X20.526 Y18.902 Z0 F800
G1 X20.37 Y18.735 Z0 F800
G1 X20.308 Y18.667 Z0 F800
; --- FIX X Backlash ---
G0 X21.008 Y18.667 F410
G1 X22.748 Y18.118 Z0 F800
G1 X23.892 Y17.019 Z0 F800
; --- FIX X Backlash ---
G0 X23.192 Y17.019 F410
G1 X23.101 Y15.92 Z0 F800
G1 X22.048 Y15.142 Z0 F800
; --- FIX X Backlash ---
G0 X22.748 Y15.142 F410
; --- FIX Y Backlash ---
G0 X22.748 Y15.642 F410
G1 X24.35 Y15.871 Z0 F800
G1 X24.945 Y16.924 Z0 F800
G1 X24.999 Y17.134 Z0 F800
G1 X25.049 Y17.354 Z0 F800
G1 X25.1 Y17.611 Z0 F800
G1 X25.139 Y17.876 Z0 F800
G1 X25.157 Y18.121 Z0 F800
G1 X25.142 Y18.317 Z0 F800
; --- FIX X Backlash ---
G0 X24.442 Y18.317 F410
G1 X24.382 Y18.435 Z0 F800
G1 X24.265 Y18.522 Z0 F800
G1 X24.1 Y18.641 Z0 F800
G1 X23.701 Y18.915 Z0 F800
G1 X23.192 Y19.258 Z0 F800
G1 X20.949 Y20.311 Z0 F800
; --- FIX X Backlash ---
G0 X21.649 Y20.311 F410
G1 X22.244 Y21.135 Z0 F800
G1 X23.572 Y21.09 Z0 F800
G1 X23.902 Y21.109 Z0 F800
G1 X24.104 Y21.124 Z0 F800
G1 X24.316 Y21.143 Z0 F800
G1 X24.518 Y21.167 Z0 F800
G1 X24.689 Y21.195 Z0 F800
G1 X24.808 Y21.227 Z0 F800
G1 X24.905 Y21.224 Z0 F800
; --- FIX Y Backlash ---
G0 X24.905 Y20.724 F410
G1 X25.019 Y20.658 Z0 F800
G1 X25.14 Y20.55 Z0 F800
G1 X25.26 Y20.418 Z0 F800
G1 X25.369 Y20.282 Z0 F800
G1 X25.458 Y20.16 Z0 F800
G1 X25.54 Y20.04 Z0 F800
; --- FIX X Backlash ---
G0 X24.84 Y20.04 F410
G1 X24.698 Y19.971 Z0 F800
G1 X24.543 Y19.903 Z0 F800
G1 X24.354 Y19.829 Z0 F800
G1 X24.145 Y19.761 Z0 F800
G1 X23.932 Y19.712 Z0 F800
G1 X23.732 Y19.694 Z0 F800
G1 X23.558 Y19.72 Z0 F800
; --- FIX Y Backlash ---
G0 X23.558 Y20.22 F410
G1 X23.181 Y20.283 Z0 F800
G1 X22.769 Z0 F800
G1 X22.598 Y20.265 Z0 F800
G1 X22.477 Y20.239 Z0 F800
G1 X22.424 Y20.208 Z0 F800
G1 X22.46 Y20.174 Z0 F800
; --- FIX X Backlash ---
G0 X23.16 Y20.174 F410
G1 X23.221 Y20.146 Z0 F800
G1 X23.314 Y20.099 Z0 F800
; --- FIX Y Backlash ---
G0 X23.314 Y19.599 F410
G1 X23.435 Y19.534 Z0 F800
G1 X23.912 Y19.272 Z0 F800
G1 X24.276 Y19.067 Z0 F800
G1 X25.22 Y18.53 Z0 F800
; --- FIX Y Backlash ---
G0 X25.22 Y19.03 F410
G1 X26.41 Y19.579 Z0 F800
; --- FIX Y Backlash ---
G0 X26.41 Y19.079 F410
G1 X26.53 Y18.989 Z0 F800
G1 X26.651 Y18.891 Z0 F800
G1 X26.788 Y18.77 Z0 F800
G1 X26.92 Y18.636 Z0 F800
G1 X27.028 Y18.5 Z0 F800
G1 X27.093 Y18.369 Z0 F800
G1 X27.097 Y18.255 Z0 F800
; --- FIX X Backlash ---
G0 X26.397 Y18.255 F410
G1 X26.331 Y18.131 Z0 F800
G1 X26.215 Y17.975 Z0 F800
G1 X26.067 Y17.801 Z0 F800
G1 X25.904 Y17.625 Z0 F800
G1 X25.747 Y17.463 Z0 F800
G1 X25.611 Y17.328 Z0 F800
G1 X25.481 Y17.202 Z0 F800
G1 X25.069 Y16.058 Z0 F800
G1 X24.84 Y15.279 Z0 F800
; --- FIX X Backlash ---
G0 X25.54 Y15.279 F410
G1 X26.273 Y15.234 Z0 F800
; --- FIX Y Backlash ---
G0 X26.273 Y15.734 F410
G1 X26.492 Y15.977 Z0 F800
G1 X26.622 Y16.128 Z0 F800
G1 X26.753 Y16.29 Z0 F800
G1 X26.871 Y16.448 Z0 F800
G1 X26.96 Y16.588 Z0 F800
G1 X27.005 Y16.695 Z0 F800
G1 X27.044 Y16.806 Z0 F800
G1 X27.117 Y16.956 Z0 F800
G1 X27.213 Y17.129 Z0 F800
G1 X27.32 Y17.307 Z0 F800
G1 X27.424 Y17.475 Z0 F800
G1 X27.6 Y17.748 Z0 F800
; --- FIX Y Backlash ---
G0 X27.6 Y17.248 F410
G1 X30.255 Y15.92 Z0 F800
; --- FIX X Backlash ---
G0 X29.555 Y15.92 F410
G1 X28.594 Y15.279 Z0 F800
; --- FIX Y Backlash ---
G0 X28.594 Y15.779 F410
G1 X27.083 Y16.329 Z0 F800
G1 X27.129 Y16.878 Z0 F800
; --- FIX X Backlash ---
G0 X27.829 Y16.878 F410
; --- FIX Y Backlash ---
G0 X27.829 Y16.378 F410
G1 X28.039 Y16.327 Z0 F800
G1 X28.516 Y16.206 Z0 F800
G1 X28.781 Y16.137 Z0 F800
G1 X29.026 Y16.069 Z0 F800
G1 X29.222 Y16.01 Z0 F800
G1 X29.34 Y15.966 Z0 F800
G1 X29.477 Y15.902 Z0 F800
G1 X29.724 Y15.792 Z0 F800
G1 X31.308 Y15.096 Z0 F800
G1 X33.643 Y15.005 Z0 F800
; --- FIX Y Backlash ---
G0 X33.643 Y15.505 F410
G1 X37.9 Y15.642 Z0 F800
; --- FIX Y Backlash ---
G0 X37.9 Y15.142 F410
G1 X41.608 Y14.959 Z0 F800
; --- FIX Y Backlash ---
G0 X41.608 Y15.459 F410
G1 X42.478 Y16.191 Z0 F800
; --- FIX X Backlash ---
G0 X41.778 Y16.191 F410
G1 X41.549 Y20.174 Z0 F800
; --- FIX X Backlash ---
G0 X42.249 Y20.174 F410
G1 X43.576 Y20.952 Z0 F800
; --- FIX X Backlash ---
G0 X42.876 Y20.952 F410
G1 X42.785 Y26.216 Z0 F800
G1 Y32.671 Z0 F800
; --- FIX X Backlash ---
G0 X43.485 Y32.671 F410
G1 X44.766 Y33.175 Z0 F800
; --- FIX Y Backlash ---
G0 X44.766 Y32.675 F410
G1 X45.224 Y29.241 Z0 F800
; --- FIX X Backlash ---
G0 X44.524 Y29.241 F410
G1 X43.288 Y26.357 Z0 F800
; --- FIX X Backlash ---
G0 X43.988 Y26.357 F410
G1 X44.146 Y25.909 Z0 F800
G1 X44.498 Y24.898 Z0 F800
G1 X44.688 Y24.339 Z0 F800
G1 X44.857 Y23.827 Z0 F800
G1 X44.927 Y23.609 Z0 F800
G1 X44.983 Y23.426 Z0 F800
G1 X45.022 Y23.287 Z0 F800
G1 X45.041 Y23.199 Z0 F800
G1 Y23.12 Z0 F800
G1 X45.019 Y23.006 Z0 F800
G1 X44.982 Y22.864 Z0 F800
G1 X44.932 Y22.699 Z0 F800
; --- FIX X Backlash ---
G0 X44.232 Y22.699 F410
G1 X44.101 Y22.319 Z0 F800
G1 X43.946 Y21.911 Z0 F800
G1 X43.79 Y21.518 Z0 F800
G1 X43.652 Y21.184 Z0 F800
G1 X43.517 Y20.864 Z0 F800
; --- FIX X Backlash ---
G0 X44.217 Y20.864 F410
G1 X45.041 Y20.406 Z0 F800
; --- FIX Y Backlash ---
G0 X45.041 Y20.906 F410
G1 X46.323 Y22.051 Z0 F800
G1 X46.369 Y24.431 Z0 F800
; --- FIX X Backlash ---
G0 X45.669 Y24.431 F410
G1 X44.662 Y26.674 Z0 F800
; --- FIX X Backlash ---
G0 X45.362 Y26.674 F410
G1 X45.651 Y27.121 Z0 F800
G1 X45.819 Y27.389 Z0 F800
G1 X45.987 Y27.669 Z0 F800
G1 X46.134 Y27.929 Z0 F800
G1 X46.193 Y28.044 Z0 F800
G1 X46.238 Y28.142 Z0 F800
G1 X46.267 Y28.221 Z0 F800
G1 X46.277 Y28.276 Z0 F800
G1 X46.27 Y28.759 Z0 F800
G1 X46.231 Y30.748 Z0 F800
G1 X46.46 Y32.488 Z0 F800
G1 X46.663 Y32.491 Z0 F800
G1 X46.866 Y32.488 Z0 F800
G1 X47.09 Y32.476 Z0 F800
G1 X47.301 Y32.452 Z0 F800
G1 X47.464 Y32.411 Z0 F800
G1 X47.518 Y32.382 Z0 F800
G1 X47.547 Y32.348 Z0 F800
G1 Y32.307 Z0 F800
G1 X47.513 Y32.259 Z0 F800
; --- FIX X Backlash ---
G0 X46.813 Y32.259 F410
; --- FIX Y Backlash ---
G0 X46.813 Y31.759 F410
G1 X46.759 Y31.672 Z0 F800
G1 X46.699 Y31.519 Z0 F800
G1 X46.635 Y31.311 Z0 F800
G1 X46.568 Y31.057 Z0 F800
G1 X46.432 Y30.451 Z0 F800
G1 X46.298 Y29.779 Z0 F800
G1 X46.177 Y29.121 Z0 F800
G1 X46.079 Y28.553 Z0 F800
G1 X45.989 Y28.005 Z0 F800
G1 X45.76 Y24.755 Z0 F800
; --- FIX X Backlash ---
G0 X46.46 Y24.755 F410
G1 X46.689 Y23.668 Z0 F800
G1 X46.773 Y23.249 Z0 F800
G1 X46.846 Y22.863 Z0 F800
G1 X46.876 Y22.696 Z0 F800
G1 X46.898 Y22.556 Z0 F800
G1 X46.913 Y22.447 Z0 F800
G1 X46.918 Y22.375 Z0 F800
G1 X46.915 Y22.307 Z0 F800
G1 X46.897 Y22.087 Z0 F800
; --- FIX X Backlash ---
G0 X46.197 Y22.087 F410
G1 X46.146 Y21.617 Z0 F800
G1 X46.104 Y21.265 Z0 F800
G1 X45.989 Y20.361 Z0 F800
; --- FIX X Backlash ---
G0 X46.689 Y20.361 F410
; --- FIX Y Backlash ---
G0 X46.689 Y20.861 F410
G1 X47.513 Y21.227 Z0 F800
G1 Y32.03 Z0 F800
G1 X48.749 Y33.083 Z0 F800
G1 X55.112 Y33.129 Z0 F800
; --- FIX X Backlash ---
G0 X54.412 Y33.129 F410
; --- FIX Y Backlash ---
G0 X54.412 Y32.629 F410
G1 X54.046 Y29.195 Z0 F800
; --- FIX X Backlash ---
G0 X54.746 Y29.195 F410
G1 X55.295 Y27.639 Z0 F800
; --- FIX X Backlash ---
G0 X54.595 Y27.639 F410
G1 X53.496 Y27.318 Z0 F800
; --- FIX X Backlash ---
G0 X54.196 Y27.318 F410
; --- FIX Y Backlash ---
G0 X54.196 Y27.818 F410
G1 X55.295 Y27.956 Z0 F800
G1 X55.753 Y29.421 Z0 F800
G1 Y31.114 Z0 F800
G1 X55.89 Y32.259 Z0 F800
; --- FIX X Backlash ---
G0 X55.19 Y32.259 F410
G1 X55.053 Y33.54 Z0 F800
G1 X54.32 Y34.41 Z0 F800
; --- FIX Y Backlash ---
G0 X54.32 Y33.91 F410
G1 X53.313 Y33.178 Z0 F800
; --- FIX X Backlash ---
G0 X54.013 Y33.178 F410
G1 X54.654 Y32.033 Z0 F800
; --- FIX X Backlash ---
G0 X53.954 Y32.033 F410
G1 X53.817 Y30.065 Z0 F800
G1 X53.679 Y28.234 Z0 F800
; --- FIX Y Backlash ---
G0 X53.679 Y28.734 F410
G1 X53.313 Y29.833 Z0 F800
; --- FIX X Backlash ---
G0 X54.013 Y29.833 F410
G1 X54.196 Y32.03 Z0 F800
; --- FIX X Backlash ---
G0 X53.496 Y32.03 F410
G1 X52.901 Y33.083 Z0 F800
G1 X46.584 Y33.129 Z0 F800
G1 X45.302 Y33.22 Z0 F800
G1 X43.517 Y33.632 Z0 F800
; --- FIX Y Backlash ---
G0 X43.517 Y33.132 F410
G1 X42.51 Y32.491 Z0 F800
; --- FIX X Backlash ---
G0 X43.21 Y32.491 F410
G1 X43.576 Y31.255 Z0 F800
; --- FIX Y Backlash ---
G0 X43.576 Y31.755 F410
G1 X46.368 Y32.533 Z0 F800
; --- FIX Y Backlash ---
G0 X46.368 Y32.033 F410
G1 X47.376 Y31.209 Z0 F800
G1 X47.433 Y31.109 Z0 F800
G1 X47.482 Y31.007 Z0 F800
G1 X47.524 Y30.889 Z0 F800
G1 X47.545 Y30.771 Z0 F800
G1 X47.53 Y30.669 Z0 F800
; --- FIX X Backlash ---
G0 X46.83 Y30.669 F410
G1 X46.763 Y30.596 Z0 F800
G1 X46.63 Y30.569 Z0 F800
G1 X46.022 Y30.576 Z0 F800
G1 X43.975 Y30.614 Z0 F800
G1 X42.83 Y30.477 Z0 F800
G1 X42.87 Y30.298 Z0 F800
G1 X42.915 Y30.115 Z0 F800
; --- FIX X Backlash ---
G0 X43.615 Y30.115 F410
G1 X43.673 Y29.905 Z0 F800
G1 X43.743 Y29.695 Z0 F800
G1 X43.82 Y29.511 Z0 F800
G1 X43.903 Y29.382 Z0 F800
G1 X43.988 Y29.333 Z0 F800
G1 X44.049 Y29.34 Z0 F800
G1 X44.142 Y29.36 Z0 F800
G1 X44.263 Y29.392 Z0 F800
G1 X44.406 Y29.433 Z0 F800
; --- FIX Y Backlash ---
G0 X44.406 Y29.933 F410
G1 X44.74 Y30.035 Z0 F800
G1 X45.104 Y30.153 Z0 F800
G1 X45.457 Y30.271 Z0 F800
G1 X46.048 Y30.474 Z0 F800
; --- FIX Y Backlash ---
G0 X46.048 Y29.974 F410
G1 X47.742 Y29.287 Z0 F800
G1 X47.737 Y29.15 Z0 F800
G1 X47.725 Y29.009 Z0 F800
G1 X47.702 Y28.846 Z0 F800
G1 X47.663 Y28.681 Z0 F800
; --- FIX X Backlash ---
G0 X46.963 Y28.681 F410
G1 X46.907 Y28.534 Z0 F800
G1 X46.827 Y28.424 Z0 F800
G1 X46.721 Y28.371 Z0 F800
G1 X46.644 Y28.366 Z0 F800
G1 X46.535 Z0 F800
G1 X46.399 Y28.371 Z0 F800
G1 X46.243 Y28.381 Z0 F800
G1 X45.885 Y28.409 Z0 F800
G1 X45.502 Y28.446 Z0 F800
G1 X45.135 Y28.484 Z0 F800
; --- FIX Y Backlash ---
G0 X45.135 Y28.984 F410
G1 X44.524 Y29.054 Z0 F800
G1 X44.327 Y29.084 Z0 F800
G1 X44.118 Y29.108 Z0 F800
G1 X43.872 Y29.123 Z0 F800
G1 X43.612 Z0 F800
G1 X43.365 Y29.093 Z0 F800
; --- FIX Y Backlash ---
G0 X43.365 Y28.593 F410
G1 X43.157 Y28.528 Z0 F800
G1 X43.013 Y28.417 Z0 F800
G1 X42.753 Y28.194 Z0 F800
G1 X42.475 Y28.039 Z0 F800
G1 X42.373 Y27.972 Z0 F800
G1 X42.318 Y27.902 Z0 F800
G1 X42.327 Y27.824 Z0 F800
; --- FIX X Backlash ---
G0 X43.027 Y27.824 F410
G1 X43.118 Y27.73 Z0 F800
G1 X43.31 Y27.632 Z0 F800
G1 X43.587 Y27.543 Z0 F800
G1 X43.916 Y27.465 Z0 F800
G1 X44.263 Y27.399 Z0 F800
G1 X44.592 Y27.345 Z0 F800
G1 X44.869 Y27.306 Z0 F800
G1 X45.132 Y27.273 Z0 F800
; --- FIX Y Backlash ---
G0 X45.132 Y27.773 F410
G1 X46.735 Y28.23 Z0 F800
; --- FIX Y Backlash ---
G0 X46.735 Y27.73 F410
G1 X47.833 Y26.998 Z0 F800
G1 X47.808 Y26.972 Z0 F800
; --- FIX X Backlash ---
G0 X47.108 Y26.972 F410
G1 X47.037 Y26.904 Z0 F800
G1 X46.923 Y26.807 Z0 F800
G1 X46.773 Y26.695 Z0 F800
G1 X46.59 Y26.58 Z0 F800
G1 X46.38 Y26.477 Z0 F800
G1 X46.148 Y26.398 Z0 F800
G1 X45.897 Y26.357 Z0 F800
G1 X45.597 Y26.362 Z0 F800
G1 X45.232 Y26.402 Z0 F800
; --- FIX Y Backlash ---
G0 X45.232 Y26.902 F410
G1 X44.83 Y26.967 Z0 F800
G1 X44.421 Y27.046 Z0 F800
G1 X43.696 Y27.198 Z0 F800
G1 X43.438 Y27.25 Z0 F800
G1 X43.347 Y27.264 Z0 F800
G1 X43.288 Y27.269 Z0 F800
G1 X43.136 Y27.273 Z0 F800
G1 X42.877 Y27.283 Z0 F800
G1 X42.195 Y27.315 Z0 F800
G1 X41.274 Y27.361 Z0 F800
G1 X40.587 Y27.956 Z0 F800
; --- FIX Y Backlash ---
G0 X40.587 Y27.456 F410
G1 X40.267 Y27.044 Z0 F800
; --- FIX X Backlash ---
G0 X40.967 Y27.044 F410
G1 X41.196 Y26.128 Z0 F800
G1 X41.241 Y25.442 Z0 F800
G1 X42.249 Y24.847 Z0 F800
; --- FIX Y Backlash ---
G0 X42.249 Y25.347 F410
G1 X42.569 Y26.354 Z0 F800
; --- FIX Y Backlash ---
G0 X42.569 Y25.854 F410
G1 X44.675 Y25.442 Z0 F800
G1 X45.911 Y25.213 Z0 F800
; --- FIX Y Backlash ---
G0 X45.911 Y25.713 F410
G1 X47.742 Y26.216 Z0 F800
; --- FIX Y Backlash ---
G0 X47.742 Y25.716 F410
G1 X48.199 Y24.16 Z0 F800
; --- FIX X Backlash ---
G0 X47.499 Y24.16 F410
G1 X47.344 Y24.121 Z0 F800
G1 X47.176 Y24.085 Z0 F800
G1 X46.973 Y24.051 Z0 F800
G1 X46.753 Y24.028 Z0 F800
G1 X46.534 Y24.025 Z0 F800
G1 X46.334 Y24.05 Z0 F800
; --- FIX Y Backlash ---
G0 X46.334 Y24.55 F410
G1 X46.172 Y24.614 Z0 F800
G1 X45.531 Y25.02 Z0 F800
G1 X45.165 Y25.255 Z0 F800
; --- FIX Y Backlash ---
G0 X45.165 Y24.755 F410
G1 X43.517 Y24.114 Z0 F800
; --- FIX Y Backlash ---
G0 X43.517 Y24.614 F410
G1 X43.388 Y24.673 Z0 F800
G1 X43.256 Y24.725 Z0 F800
G1 X43.105 Y24.774 Z0 F800
G1 X42.954 Y24.806 Z0 F800
G1 X42.822 Z0 F800
G1 X42.728 Y24.763 Z0 F800
; --- FIX Y Backlash ---
G0 X42.728 Y24.263 F410
G1 X42.693 Y24.16 Z0 F800
G1 X42.67 Y23.668 Z0 F800
G1 X42.693 Y23.49 Z0 F800
; --- FIX X Backlash ---
G0 X43.393 Y23.49 F410
G1 X43.485 Y23.382 Z0 F800
G1 X43.543 Y23.361 Z0 F800
G1 X43.645 Y23.334 Z0 F800
G1 X43.785 Y23.301 Z0 F800
G1 X43.955 Y23.264 Z0 F800
G1 X44.362 Y23.182 Z0 F800
G1 X44.812 Y23.096 Z0 F800
G1 X45.635 Y22.944 Z0 F800
G1 X46.002 Y22.878 Z0 F800
; --- FIX Y Backlash ---
G0 X46.002 Y23.378 F410
G1 X46.019 Y23.428 Z0 F800
G1 X46.071 Y23.533 Z0 F800
G1 X46.157 Y23.629 Z0 F800
G1 X46.277 Y23.653 Z0 F800
G1 X46.385 Y23.622 Z0 F800
; --- FIX Y Backlash ---
G0 X46.385 Y23.122 F410
G1 X46.554 Y23.069 Z0 F800
G1 X46.986 Y22.93 Z0 F800
G1 X47.559 Y22.741 Z0 F800
G1 X47.925 Y21.23 Z0 F800
; --- FIX X Backlash ---
G0 X47.225 Y21.23 F410
G1 X46.309 Y21.276 Z0 F800
; --- FIX Y Backlash ---
G0 X46.309 Y21.776 F410
G1 X44.936 Y22.6 Z0 F800
G1 X43.334 Y22.554 Z0 F800
; --- FIX Y Backlash ---
G0 X43.334 Y22.054 F410
G1 X42.693 Y21.413 Z0 F800
G1 X42.576 Y21.269 Z0 F800
G1 X42.461 Y21.119 Z0 F800
G1 X42.338 Y20.944 Z0 F800
G1 X42.228 Y20.765 Z0 F800
G1 X42.152 Y20.602 Z0 F800
G1 X42.132 Y20.476 Z0 F800
; --- FIX X Backlash ---
G0 X42.832 Y20.476 F410
G1 X42.889 Y20.406 Z0 F800
G1 X43.035 Y20.384 Z0 F800
G1 X43.248 Z0 F800
G1 X43.503 Y20.395 Z0 F800
G1 X43.771 Y20.418 Z0 F800
G1 X44.026 Y20.445 Z0 F800
G1 X44.241 Y20.471 Z0 F800
G1 X44.446 Y20.498 Z0 F800
; --- FIX Y Backlash ---
G0 X44.446 Y20.998 F410
G1 X46.048 Y21.089 Z0 F800
; --- FIX Y Backlash ---
G0 X46.048 Y20.589 F410
G1 X47.513 Y20.269 Z0 F800
; --- FIX X Backlash ---
G0 X46.813 Y20.269 F410
; --- FIX Y Backlash ---
G0 X46.813 Y20.769 F410
G1 X44.158 Y21.685 Z0 F800
; --- FIX Y Backlash ---
G0 X44.158 Y21.185 F410
G1 X41.961 Y19.399 Z0 F800
G1 X41.777 Y15.783 Z0 F800
G1 X40.999 Y15.234 Z0 F800
G1 X36.65 Y15.142 Z0 F800
; --- FIX Y Backlash ---
G0 X36.65 Y15.642 F410
G1 X32.622 Y16.1 Z0 F800
; --- FIX Y Backlash ---
G0 X32.622 Y15.6 F410
G1 X30.516 Y15.05 Z0 F800
; --- FIX Y Backlash ---
G0 X30.516 Y15.55 F410
G1 X29.875 Y18.022 Z0 F800
; --- FIX Y Backlash ---
G0 X29.875 Y17.522 F410
G1 X27.632 Y17.385 Z0 F800
; --- FIX Y Backlash ---
G0 X27.632 Y17.885 F410
G1 X26.671 Y18.938 Z0 F800
G1 X25.756 Y20.266 Z0 F800
G1 X25.801 Y21.776 Z0 F800
G1 X24.062 Y22.097 Z0 F800
G1 X22.277 Z0 F800
; --- FIX Y Backlash ---
G0 X22.277 Y21.597 F410
G1 X21.636 Y21.23 Z0 F800
; --- FIX Y Backlash ---
G0 X21.636 Y21.73 F410
G1 X20.217 Y22.463 Z0 F800
G1 X19.576 Y24.202 Z0 F800
G1 X19.393 Y25.392 Z0 F800
; --- FIX X Backlash ---
G0 X20.093 Y25.392 F410
G1 X20.367 Y26.445 Z0 F800
G1 X20.413 Y27.086 Z0 F800
; --- FIX X Backlash ---
G0 X19.713 Y27.086 F410
G1 X18.523 Y27.269 Z0 F800
; --- FIX Y Backlash ---
G0 X18.523 Y26.769 F410
G1 X16.646 Y26.54 Z0 F800
G1 X15.776 Y25.991 Z0 F800
G1 X15.822 Y25.396 Z0 F800
; --- FIX X Backlash ---
G0 X16.522 Y25.396 F410
G1 X17.895 Y25.304 Z0 F800
; --- FIX Y Backlash ---
G0 X17.895 Y25.804 F410
G1 X18.17 Y26.216 Z0 F800
G1 X20.093 Y26.491 Z0 F800
; --- FIX X Backlash ---
G0 X19.393 Y26.491 F410
; --- FIX Y Backlash ---
G0 X19.393 Y25.991 F410
G1 X18.34 Y25.213 Z0 F800
G1 X18.159 Y25.193 Z0 F800
G1 X17.98 Y25.165 Z0 F800
G1 X17.785 Y25.121 Z0 F800
G1 X17.604 Y25.061 Z0 F800
G1 X17.471 Y24.981 Z0 F800
G1 X17.431 Y24.933 Z0 F800
G1 X17.415 Y24.88 Z0 F800
G1 X17.427 Y24.821 Z0 F800
G1 X17.47 Y24.755 Z0 F800
; --- FIX X Backlash ---
G0 X18.17 Y24.755 F410
G1 X18.317 Y24.624 Z0 F800
G1 X18.505 Y24.508 Z0 F800
G1 X18.716 Y24.406 Z0 F800
G1 X18.931 Y24.32 Z0 F800
G1 X19.131 Y24.252 Z0 F800
G1 X19.297 Y24.202 Z0 F800
G1 X19.452 Y24.16 Z0 F800
; --- FIX X Backlash ---
G0 X18.752 Y24.16 F410
; --- FIX Y Backlash ---
G0 X18.752 Y24.66 F410
G1 X17.699 Y27.727 Z0 F800
; --- FIX Y Backlash ---
G0 X17.699 Y27.227 F410
G1 X16.234 Y25.808 Z0 F800
; --- FIX X Backlash ---
G0 X16.934 Y25.808 F410
G1 X20.001 Y23.29 Z0 F800
; --- FIX X Backlash ---
G0 X19.301 Y23.29 F410
; --- FIX Y Backlash ---
G0 X19.301 Y23.79 F410
G1 X17.699 Y23.973 Z0 F800
; --- FIX X Backlash ---
G0 X18.399 Y23.973 F410
; --- FIX Y Backlash ---
G0 X18.399 Y23.473 F410
G1 X18.811 Y21.917 Z0 F800
; --- FIX X Backlash ---
G0 X18.111 Y21.917 F410
G1 X17.699 Y21.093 Z0 F800
; --- FIX X Backlash ---
G0 X18.399 Y21.093 F410
G1 X19.223 Y19.949 Z0 F800
; --- FIX X Backlash ---
G0 X18.523 Y19.949 F410
G1 X18.019 Y18.896 Z0 F800
; --- FIX X Backlash ---
G0 X18.719 Y18.896 F410
G1 X19.452 Y18.118 Z0 F800
; --- FIX X Backlash ---
G0 X18.752 Y18.118 F410
G1 X18.111 Y17.797 Z0 F800
G1 X17.47 Y17.202 Z0 F800
G1 X17.058 Y16.195 Z0 F800
; --- FIX X Backlash ---
G0 X17.758 Y16.195 F410
G1 X18.307 Y15.005 Z0 F800
;Layer C3 Pass 2 of 2
G1 X20.962 Y14.959 Z0 F800
; --- FIX Y Backlash ---
G0 X20.962 Y15.459 F410
G1 X22.427 Y16.237 Z0 F800
G1 X22.552 Y16.334 Z0 F800
G1 X22.674 Y16.44 Z0 F800
G1 X22.805 Y16.569 Z0 F800
G1 X22.923 Y16.711 Z0 F800
G1 X23.007 Y16.855 Z0 F800
G1 X23.032 Y16.991 Z0 F800
; --- FIX X Backlash ---
G0 X22.332 Y16.991 F410
G1 X22.277 Y17.107 Z0 F800
G1 X22.156 Y17.235 Z0 F800
G1 X22.011 Y17.402 Z0 F800
G1 X21.852 Y17.59 Z0 F800
G1 X21.693 Y17.782 Z0 F800
G1 X21.315 Y18.251 Z0 F800
G1 X19.072 Y18.297 Z0 F800
; --- FIX X Backlash ---
G0 X19.772 Y18.297 F410
G1 X20.184 Y19.579 Z0 F800
; --- FIX X Backlash ---
G0 X19.484 Y19.579 F410
G1 X18.798 Y20.037 Z0 F800
; --- FIX X Backlash ---
G0 X19.498 Y20.037 F410
G1 X20.322 Y21.318 Z0 F800
; --- FIX X Backlash ---
G0 X19.622 Y21.318 F410
G1 X18.752 Y22.188 Z0 F800
; --- FIX X Backlash ---
G0 X19.452 Y22.188 F410
G1 X20.367 Y23.195 Z0 F800
; --- FIX Y Backlash ---
G0 X20.367 Y22.695 F410
G1 X21.191 Y21.047 Z0 F800
; --- FIX X Backlash ---
G0 X20.491 Y21.047 F410
G1 X20.034 Y20.086 Z0 F800
; --- FIX X Backlash ---
G0 X20.734 Y20.086 F410
G1 X20.915 Y19.997 Z0 F800
G1 X21.096 Y19.9 Z0 F800
G1 X21.294 Y19.783 Z0 F800
G1 X21.48 Y19.655 Z0 F800
G1 X21.622 Y19.526 Z0 F800
G1 X21.667 Y19.465 Z0 F800
G1 X21.689 Y19.407 Z0 F800
G1 X21.684 Y19.354 Z0 F800
G1 X21.649 Y19.308 Z0 F800
; --- FIX X Backlash ---
G0 X20.949 Y19.308 F410
G1 X20.733 Y19.111 Z0 F800
G1 X20.526 Y18.902 Z0 F800
G1 X20.37 Y18.735 Z0 F800
G1 X20.308 Y18.667 Z0 F800
; --- FIX X Backlash ---
G0 X21.008 Y18.667 F410
G1 X22.748 Y18.118 Z0 F800
G1 X23.892 Y17.019 Z0 F800
; --- FIX X Backlash ---
G0 X23.192 Y17.019 F410
G1 X23.101 Y15.92 Z0 F800
G1 X22.048 Y15.142 Z0 F800
; --- FIX X Backlash ---
G0 X22.748 Y15.142 F410
; --- FIX Y Backlash ---
G0 X22.748 Y15.642 F410
G1 X24.35 Y15.871 Z0 F800
G1 X24.945 Y16.924 Z0 F800
G1 X24.999 Y17.134 Z0 F800
G1 X25.049 Y17.354 Z0 F800
G1 X25.1 Y17.611 Z0 F800
G1 X25.139 Y17.876 Z0 F800
G1 X25.157 Y18.121 Z0 F800
G1 X25.142 Y18.317 Z0 F800
; --- FIX X Backlash ---
G0 X24.442 Y18.317 F410
G1 X24.382 Y18.435 Z0 F800
G1 X24.265 Y18.522 Z0 F800
G1 X24.1 Y18.641 Z0 F800
G1 X23.701 Y18.915 Z0 F800
G1 X23.192 Y19.258 Z0 F800
G1 X20.949 Y20.311 Z0 F800
; --- FIX X Backlash ---
G0 X21.649 Y20.311 F410
G1 X22.244 Y21.135 Z0 F800
G1 X23.572 Y21.09 Z0 F800
G1 X23.902 Y21.109 Z0 F800
G1 X24.104 Y21.124 Z0 F800
G1 X24.316 Y21.143 Z0 F800
G1 X24.518 Y21.167 Z0 F800
G1 X24.689 Y21.195 Z0 F800
G1 X24.808 Y21.227 Z0 F800
G1 X24.905 Y21.224 Z0 F800
; --- FIX Y Backlash ---
G0 X24.905 Y20.724 F410
G1 X25.019 Y20.658 Z0 F800
G1 X25.14 Y20.55 Z0 F800
G1 X25.26 Y20.418 Z0 F800
G1 X25.369 Y20.282 Z0 F800
G1 X25.458 Y20.16 Z0 F800
G1 X25.54 Y20.04 Z0 F800
; --- FIX X Backlash ---
G0 X24.84 Y20.04 F410
G1 X24.698 Y19.971 Z0 F800
G1 X24.543 Y19.903 Z0 F800
G1 X24.354 Y19.829 Z0 F800
G1 X24.145 Y19.761 Z0 F800
G1 X23.932 Y19.712 Z0 F800
G1 X23.732 Y19.694 Z0 F800
G1 X23.558 Y19.72 Z0 F800
; --- FIX Y Backlash ---
G0 X23.558 Y20.22 F410
G1 X23.181 Y20.283 Z0 F800
G1 X22.769 Z0 F800
G1 X22.598 Y20.265 Z0 F800
G1 X22.477 Y20.239 Z0 F800
G1 X22.424 Y20.208 Z0 F800
G1 X22.46 Y20.174 Z0 F800
; --- FIX X Backlash ---
G0 X23.16 Y20.174 F410
G1 X23.221 Y20.146 Z0 F800
G1 X23.314 Y20.099 Z0 F800
; --- FIX Y Backlash ---
G0 X23.314 Y19.599 F410
G1 X23.435 Y19.534 Z0 F800
G1 X23.912 Y19.272 Z0 F800
G1 X24.276 Y19.067 Z0 F800
G1 X25.22 Y18.53 Z0 F800
; --- FIX Y Backlash ---
G0 X25.22 Y19.03 F410
G1 X26.41 Y19.579 Z0 F800
; --- FIX Y Backlash ---
G0 X26.41 Y19.079 F410
G1 X26.53 Y18.989 Z0 F800
G1 X26.651 Y18.891 Z0 F800
G1 X26.788 Y18.77 Z0 F800
G1 X26.92 Y18.636 Z0 F800
G1 X27.028 Y18.5 Z0 F800
G1 X27.093 Y18.369 Z0 F800
G1 X27.097 Y18.255 Z0 F800
; --- FIX X Backlash ---
G0 X26.397 Y18.255 F410
G1 X26.331 Y18.131 Z0 F800
G1 X26.215 Y17.975 Z0 F800
G1 X26.067 Y17.801 Z0 F800
G1 X25.904 Y17.625 Z0 F800
G1 X25.747 Y17.463 Z0 F800
G1 X25.611 Y17.328 Z0 F800
G1 X25.481 Y17.202 Z0 F800
G1 X25.069 Y16.058 Z0 F800
G1 X24.84 Y15.279 Z0 F800
; --- FIX X Backlash ---
G0 X25.54 Y15.279 F410
G1 X26.273 Y15.234 Z0 F800
; --- FIX Y Backlash ---
G0 X26.273 Y15.734 F410
G1 X26.492 Y15.977 Z0 F800
G1 X26.622 Y16.128 Z0 F800
G1 X26.753 Y16.29 Z0 F800
G1 X26.871 Y16.448 Z0 F800
G1 X26.96 Y16.588 Z0 F800
G1 X27.005 Y16.695 Z0 F800
G1 X27.044 Y16.806 Z0 F800
G1 X27.117 Y16.956 Z0 F800
G1 X27.213 Y17.129 Z0 F800
G1 X27.32 Y17.307 Z0 F800
G1 X27.424 Y17.475 Z0 F800
G1 X27.6 Y17.748 Z0 F800
; --- FIX Y Backlash ---
G0 X27.6 Y17.248 F410
G1 X30.255 Y15.92 Z0 F800
; --- FIX X Backlash ---
G0 X29.555 Y15.92 F410
G1 X28.594 Y15.279 Z0 F800
; --- FIX Y Backlash ---
G0 X28.594 Y15.779 F410
G1 X27.083 Y16.329 Z0 F800
G1 X27.129 Y16.878 Z0 F800
; --- FIX X Backlash ---
G0 X27.829 Y16.878 F410
; --- FIX Y Backlash ---
G0 X27.829 Y16.378 F410
G1 X28.039 Y16.327 Z0 F800
G1 X28.516 Y16.206 Z0 F800
G1 X28.781 Y16.137 Z0 F800
G1 X29.026 Y16.069 Z0 F800
G1 X29.222 Y16.01 Z0 F800
G1 X29.34 Y15.966 Z0 F800
G1 X29.477 Y15.902 Z0 F800
G1 X29.724 Y15.792 Z0 F800
G1 X31.308 Y15.096 Z0 F800
G1 X33.643 Y15.005 Z0 F800
; --- FIX Y Backlash ---
G0 X33.643 Y15.505 F410
G1 X37.9 Y15.642 Z0 F800
; --- FIX Y Backlash ---
G0 X37.9 Y15.142 F410
G1 X41.608 Y14.959 Z0 F800
; --- FIX Y Backlash ---
G0 X41.608 Y15.459 F410
G1 X42.478 Y16.191 Z0 F800
; --- FIX X Backlash ---
G0 X41.778 Y16.191 F410
G1 X41.549 Y20.174 Z0 F800
; --- FIX X Backlash ---
G0 X42.249 Y20.174 F410
G1 X43.576 Y20.952 Z0 F800
; --- FIX X Backlash ---
G0 X42.876 Y20.952 F410
G1 X42.785 Y26.216 Z0 F800
G1 Y32.671 Z0 F800
; --- FIX X Backlash ---
G0 X43.485 Y32.671 F410
G1 X44.766 Y33.175 Z0 F800
; --- FIX Y Backlash ---
G0 X44.766 Y32.675 F410
G1 X45.224 Y29.241 Z0 F800
; --- FIX X Backlash ---
G0 X44.524 Y29.241 F410
G1 X43.288 Y26.357 Z0 F800
; --- FIX X Backlash ---
G0 X43.988 Y26.357 F410
G1 X44.146 Y25.909 Z0 F800
G1 X44.498 Y24.898 Z0 F800
G1 X44.688 Y24.339 Z0 F800
G1 X44.857 Y23.827 Z0 F800
G1 X44.927 Y23.609 Z0 F800
G1 X44.983 Y23.426 Z0 F800
G1 X45.022 Y23.287 Z0 F800
G1 X45.041 Y23.199 Z0 F800
G1 Y23.12 Z0 F800
G1 X45.019 Y23.006 Z0 F800
G1 X44.982 Y22.864 Z0 F800
G1 X44.932 Y22.699 Z0 F800
; --- FIX X Backlash ---
G0 X44.232 Y22.699 F410
G1 X44.101 Y22.319 Z0 F800
G1 X43.946 Y21.911 Z0 F800
G1 X43.79 Y21.518 Z0 F800
G1 X43.652 Y21.184 Z0 F800
G1 X43.517 Y20.864 Z0 F800
; --- FIX X Backlash ---
G0 X44.217 Y20.864 F410
G1 X45.041 Y20.406 Z0 F800
; --- FIX Y Backlash ---
G0 X45.041 Y20.906 F410
G1 X46.323 Y22.051 Z0 F800
G1 X46.369 Y24.431 Z0 F800
; --- FIX X Backlash ---
G0 X45.669 Y24.431 F410
G1 X44.662 Y26.674 Z0 F800
; --- FIX X Backlash ---
G0 X45.362 Y26.674 F410
G1 X45.651 Y27.121 Z0 F800
G1 X45.819 Y27.389 Z0 F800
G1 X45.987 Y27.669 Z0 F800
G1 X46.134 Y27.929 Z0 F800
G1 X46.193 Y28.044 Z0 F800
G1 X46.238 Y28.142 Z0 F800
G1 X46.267 Y28.221 Z0 F800
G1 X46.277 Y28.276 Z0 F800
G1 X46.27 Y28.759 Z0 F800
G1 X46.231 Y30.748 Z0 F800
G1 X46.46 Y32.488 Z0 F800
G1 X46.663 Y32.491 Z0 F800
G1 X46.866 Y32.488 Z0 F800
G1 X47.09 Y32.476 Z0 F800
G1 X47.301 Y32.452 Z0 F800
G1 X47.464 Y32.411 Z0 F800
G1 X47.518 Y32.382 Z0 F800
G1 X47.547 Y32.348 Z0 F800
G1 Y32.307 Z0 F800
G1 X47.513 Y32.259 Z0 F800
; --- FIX X Backlash ---
G0 X46.813 Y32.259 F410
; --- FIX Y Backlash ---
G0 X46.813 Y31.759 F410
G1 X46.759 Y31.672 Z0 F800
G1 X46.699 Y31.519 Z0 F800
G1 X46.635 Y31.311 Z0 F800
G1 X46.568 Y31.057 Z0 F800
G1 X46.432 Y30.451 Z0 F800
G1 X46.298 Y29.779 Z0 F800
G1 X46.177 Y29.121 Z0 F800
G1 X46.079 Y28.553 Z0 F800
G1 X45.989 Y28.005 Z0 F800
G1 X45.76 Y24.755 Z0 F800
; --- FIX X Backlash ---
G0 X46.46 Y24.755 F410
G1 X46.689 Y23.668 Z0 F800
G1 X46.773 Y23.249 Z0 F800
G1 X46.846 Y22.863 Z0 F800
G1 X46.876 Y22.696 Z0 F800
G1 X46.898 Y22.556 Z0 F800
G1 X46.913 Y22.447 Z0 F800
G1 X46.918 Y22.375 Z0 F800
G1 X46.915 Y22.307 Z0 F800
G1 X46.897 Y22.087 Z0 F800
; --- FIX X Backlash ---
G0 X46.197 Y22.087 F410
G1 X46.146 Y21.617 Z0 F800
G1 X46.104 Y21.265 Z0 F800
G1 X45.989 Y20.361 Z0 F800
; --- FIX X Backlash ---
G0 X46.689 Y20.361 F410
; --- FIX Y Backlash ---
G0 X46.689 Y20.861 F410
G1 X47.513 Y21.227 Z0 F800
G1 Y32.03 Z0 F800
G1 X48.749 Y33.083 Z0 F800
G1 X55.112 Y33.129 Z0 F800
; --- FIX X Backlash ---
G0 X54.412 Y33.129 F410
; --- FIX Y Backlash ---
G0 X54.412 Y32.629 F410
G1 X54.046 Y29.195 Z0 F800
; --- FIX X Backlash ---
G0 X54.746 Y29.195 F410
G1 X55.295 Y27.639 Z0 F800
; --- FIX X Backlash ---
G0 X54.595 Y27.639 F410
G1 X53.496 Y27.318 Z0 F800
; --- FIX X Backlash ---
G0 X54.196 Y27.318 F410
; --- FIX Y Backlash ---
G0 X54.196 Y27.818 F410
G1 X55.295 Y27.956 Z0 F800
G1 X55.753 Y29.421 Z0 F800
G1 Y31.114 Z0 F800
G1 X55.89 Y32.259 Z0 F800
; --- FIX X Backlash ---
G0 X55.19 Y32.259 F410
G1 X55.053 Y33.54 Z0 F800
G1 X54.32 Y34.41 Z0 F800
; --- FIX Y Backlash ---
G0 X54.32 Y33.91 F410
G1 X53.313 Y33.178 Z0 F800
; --- FIX X Backlash ---
G0 X54.013 Y33.178 F410
G1 X54.654 Y32.033 Z0 F800
; --- FIX X Backlash ---
G0 X53.954 Y32.033 F410
G1 X53.817 Y30.065 Z0 F800
G1 X53.679 Y28.234 Z0 F800
; --- FIX Y Backlash ---
G0 X53.679 Y28.734 F410
G1 X53.313 Y29.833 Z0 F800
; --- FIX X Backlash ---
G0 X54.013 Y29.833 F410
G1 X54.196 Y32.03 Z0 F800
; --- FIX X Backlash ---
G0 X53.496 Y32.03 F410
G1 X52.901 Y33.083 Z0 F800
G1 X46.584 Y33.129 Z0 F800
G1 X45.302 Y33.22 Z0 F800
G1 X43.517 Y33.632 Z0 F800
; --- FIX Y Backlash ---
G0 X43.517 Y33.132 F410
G1 X42.51 Y32.491 Z0 F800
; --- FIX X Backlash ---
G0 X43.21 Y32.491 F410
G1 X43.576 Y31.255 Z0 F800
; --- FIX Y Backlash ---
G0 X43.576 Y31.755 F410
G1 X46.368 Y32.533 Z0 F800
; --- FIX Y Backlash ---
G0 X46.368 Y32.033 F410
G1 X47.376 Y31.209 Z0 F800
G1 X47.433 Y31.109 Z0 F800
G1 X47.482 Y31.007 Z0 F800
G1 X47.524 Y30.889 Z0 F800
G1 X47.545 Y30.771 Z0 F800
G1 X47.53 Y30.669 Z0 F800
; --- FIX X Backlash ---
G0 X46.83 Y30.669 F410
G1 X46.763 Y30.596 Z0 F800
G1 X46.63 Y30.569 Z0 F800
G1 X46.022 Y30.576 Z0 F800
G1 X43.975 Y30.614 Z0 F800
G1 X42.83 Y30.477 Z0 F800
G1 X42.87 Y30.298 Z0 F800
G1 X42.915 Y30.115 Z0 F800
; --- FIX X Backlash ---
G0 X43.615 Y30.115 F410
G1 X43.673 Y29.905 Z0 F800
G1 X43.743 Y29.695 Z0 F800
G1 X43.82 Y29.511 Z0 F800
G1 X43.903 Y29.382 Z0 F800
G1 X43.988 Y29.333 Z0 F800
G1 X44.049 Y29.34 Z0 F800
G1 X44.142 Y29.36 Z0 F800
G1 X44.263 Y29.392 Z0 F800
G1 X44.406 Y29.433 Z0 F800
; --- FIX Y Backlash ---
G0 X44.406 Y29.933 F410
G1 X44.74 Y30.035 Z0 F800
G1 X45.104 Y30.153 Z0 F800
G1 X45.457 Y30.271 Z0 F800
G1 X46.048 Y30.474 Z0 F800
; --- FIX Y Backlash ---
G0 X46.048 Y29.974 F410
G1 X47.742 Y29.287 Z0 F800
G1 X47.737 Y29.15 Z0 F800
G1 X47.725 Y29.009 Z0 F800
G1 X47.702 Y28.846 Z0 F800
G1 X47.663 Y28.681 Z0 F800
; --- FIX X Backlash ---
G0 X46.963 Y28.681 F410
G1 X46.907 Y28.534 Z0 F800
G1 X46.827 Y28.424 Z0 F800
G1 X46.721 Y28.371 Z0 F800
G1 X46.644 Y28.366 Z0 F800
G1 X46.535 Z0 F800
G1 X46.399 Y28.371 Z0 F800
G1 X46.243 Y28.381 Z0 F800
G1 X45.885 Y28.409 Z0 F800
G1 X45.502 Y28.446 Z0 F800
G1 X45.135 Y28.484 Z0 F800
; --- FIX Y Backlash ---
G0 X45.135 Y28.984 F410
G1 X44.524 Y29.054 Z0 F800
G1 X44.327 Y29.084 Z0 F800
G1 X44.118 Y29.108 Z0 F800
G1 X43.872 Y29.123 Z0 F800
G1 X43.612 Z0 F800
G1 X43.365 Y29.093 Z0 F800
; --- FIX Y Backlash ---
G0 X43.365 Y28.593 F410
G1 X43.157 Y28.528 Z0 F800
G1 X43.013 Y28.417 Z0 F800
G1 X42.753 Y28.194 Z0 F800
G1 X42.475 Y28.039 Z0 F800
G1 X42.373 Y27.972 Z0 F800
G1 X42.318 Y27.902 Z0 F800
G1 X42.327 Y27.824 Z0 F800
; --- FIX X Backlash ---
G0 X43.027 Y27.824 F410
G1 X43.118 Y27.73 Z0 F800
G1 X43.31 Y27.632 Z0 F800
G1 X43.587 Y27.543 Z0 F800
G1 X43.916 Y27.465 Z0 F800
G1 X44.263 Y27.399 Z0 F800
G1 X44.592 Y27.345 Z0 F800
G1 X44.869 Y27.306 Z0 F800
G1 X45.132 Y27.273 Z0 F800
; --- FIX Y Backlash ---
G0 X45.132 Y27.773 F410
G1 X46.735 Y28.23 Z0 F800
; --- FIX Y Backlash ---
G0 X46.735 Y27.73 F410
G1 X47.833 Y26.998 Z0 F800
G1 X47.808 Y26.972 Z0 F800
; --- FIX X Backlash ---
G0 X47.108 Y26.972 F410
G1 X47.037 Y26.904 Z0 F800
G1 X46.923 Y26.807 Z0 F800
G1 X46.773 Y26.695 Z0 F800
G1 X46.59 Y26.58 Z0 F800
G1 X46.38 Y26.477 Z0 F800
G1 X46.148 Y26.398 Z0 F800
G1 X45.897 Y26.357 Z0 F800
G1 X45.597 Y26.362 Z0 F800
G1 X45.232 Y26.402 Z0 F800
; --- FIX Y Backlash ---
G0 X45.232 Y26.902 F410
G1 X44.83 Y26.967 Z0 F800
G1 X44.421 Y27.046 Z0 F800
G1 X43.696 Y27.198 Z0 F800
G1 X43.438 Y27.25 Z0 F800
G1 X43.347 Y27.264 Z0 F800
G1 X43.288 Y27.269 Z0 F800
G1 X43.136 Y27.273 Z0 F800
G1 X42.877 Y27.283 Z0 F800
G1 X42.195 Y27.315 Z0 F800
G1 X41.274 Y27.361 Z0 F800
G1 X40.587 Y27.956 Z0 F800
; --- FIX Y Backlash ---
G0 X40.587 Y27.456 F410
G1 X40.267 Y27.044 Z0 F800
; --- FIX X Backlash ---
G0 X40.967 Y27.044 F410
G1 X41.196 Y26.128 Z0 F800
G1 X41.241 Y25.442 Z0 F800
G1 X42.249 Y24.847 Z0 F800
; --- FIX Y Backlash ---
G0 X42.249 Y25.347 F410
G1 X42.569 Y26.354 Z0 F800
; --- FIX Y Backlash ---
G0 X42.569 Y25.854 F410
G1 X44.675 Y25.442 Z0 F800
G1 X45.911 Y25.213 Z0 F800
; --- FIX Y Backlash ---
G0 X45.911 Y25.713 F410
G1 X47.742 Y26.216 Z0 F800
; --- FIX Y Backlash ---
G0 X47.742 Y25.716 F410
G1 X48.199 Y24.16 Z0 F800
; --- FIX X Backlash ---
G0 X47.499 Y24.16 F410
G1 X47.344 Y24.121 Z0 F800
G1 X47.176 Y24.085 Z0 F800
G1 X46.973 Y24.051 Z0 F800
G1 X46.753 Y24.028 Z0 F800
G1 X46.534 Y24.025 Z0 F800
G1 X46.334 Y24.05 Z0 F800
; --- FIX Y Backlash ---
G0 X46.334 Y24.55 F410
G1 X46.172 Y24.614 Z0 F800
G1 X45.531 Y25.02 Z0 F800
G1 X45.165 Y25.255 Z0 F800
; --- FIX Y Backlash ---
G0 X45.165 Y24.755 F410
G1 X43.517 Y24.114 Z0 F800
; --- FIX Y Backlash ---
G0 X43.517 Y24.614 F410
G1 X43.388 Y24.673 Z0 F800
G1 X43.256 Y24.725 Z0 F800
G1 X43.105 Y24.774 Z0 F800
G1 X42.954 Y24.806 Z0 F800
G1 X42.822 Z0 F800
G1 X42.728 Y24.763 Z0 F800
; --- FIX Y Backlash ---
G0 X42.728 Y24.263 F410
G1 X42.693 Y24.16 Z0 F800
G1 X42.67 Y23.668 Z0 F800
G1 X42.693 Y23.49 Z0 F800
; --- FIX X Backlash ---
G0 X43.393 Y23.49 F410
G1 X43.485 Y23.382 Z0 F800
G1 X43.543 Y23.361 Z0 F800
G1 X43.645 Y23.334 Z0 F800
G1 X43.785 Y23.301 Z0 F800
G1 X43.955 Y23.264 Z0 F800
G1 X44.362 Y23.182 Z0 F800
G1 X44.812 Y23.096 Z0 F800
G1 X45.635 Y22.944 Z0 F800
G1 X46.002 Y22.878 Z0 F800
; --- FIX Y Backlash ---
G0 X46.002 Y23.378 F410
G1 X46.019 Y23.428 Z0 F800
G1 X46.071 Y23.533 Z0 F800
G1 X46.157 Y23.629 Z0 F800
G1 X46.277 Y23.653 Z0 F800
G1 X46.385 Y23.622 Z0 F800
; --- FIX Y Backlash ---
G0 X46.385 Y23.122 F410
G1 X46.554 Y23.069 Z0 F800
G1 X46.986 Y22.93 Z0 F800
G1 X47.559 Y22.741 Z0 F800
G1 X47.925 Y21.23 Z0 F800
; --- FIX X Backlash ---
G0 X47.225 Y21.23 F410
G1 X46.309 Y21.276 Z0 F800
; --- FIX Y Backlash ---
G0 X46.309 Y21.776 F410
G1 X44.936 Y22.6 Z0 F800
G1 X43.334 Y22.554 Z0 F800
; --- FIX Y Backlash ---
G0 X43.334 Y22.054 F410
G1 X42.693 Y21.413 Z0 F800
G1 X42.576 Y21.269 Z0 F800
G1 X42.461 Y21.119 Z0 F800
G1 X42.338 Y20.944 Z0 F800
G1 X42.228 Y20.765 Z0 F800
G1 X42.152 Y20.602 Z0 F800
G1 X42.132 Y20.476 Z0 F800
; --- FIX X Backlash ---
G0 X42.832 Y20.476 F410
G1 X42.889 Y20.406 Z0 F800
G1 X43.035 Y20.384 Z0 F800
G1 X43.248 Z0 F800
G1 X43.503 Y20.395 Z0 F800
G1 X43.771 Y20.418 Z0 F800
G1 X44.026 Y20.445 Z0 F800
G1 X44.241 Y20.471 Z0 F800
G1 X44.446 Y20.498 Z0 F800
; --- FIX Y Backlash ---
G0 X44.446 Y20.998 F410
G1 X46.048 Y21.089 Z0 F800
; --- FIX Y Backlash ---
G0 X46.048 Y20.589 F410
G1 X47.513 Y20.269 Z0 F800
; --- FIX X Backlash ---
G0 X46.813 Y20.269 F410
; --- FIX Y Backlash ---
G0 X46.813 Y20.769 F410
G1 X44.158 Y21.685 Z0 F800
; --- FIX Y Backlash ---
G0 X44.158 Y21.185 F410
G1 X41.961 Y19.399 Z0 F800
G1 X41.777 Y15.783 Z0 F800
G1 X40.999 Y15.234 Z0 F800
G1 X36.65 Y15.142 Z0 F800
; --- FIX Y Backlash ---
G0 X36.65 Y15.642 F410
G1 X32.622 Y16.1 Z0 F800
; --- FIX Y Backlash ---
G0 X32.622 Y15.6 F410
G1 X30.516 Y15.05 Z0 F800
; --- FIX Y Backlash ---
G0 X30.516 Y15.55 F410
G1 X29.875 Y18.022 Z0 F800
; --- FIX Y Backlash ---
G0 X29.875 Y17.522 F410
G1 X27.632 Y17.385 Z0 F800
; --- FIX Y Backlash ---
G0 X27.632 Y17.885 F410
G1 X26.671 Y18.938 Z0 F800
G1 X25.756 Y20.266 Z0 F800
G1 X25.801 Y21.776 Z0 F800
G1 X24.062 Y22.097 Z0 F800
G1 X22.277 Z0 F800
; --- FIX Y Backlash ---
G0 X22.277 Y21.597 F410
G1 X21.636 Y21.23 Z0 F800
; --- FIX Y Backlash ---
G0 X21.636 Y21.73 F410
G1 X20.217 Y22.463 Z0 F800
G1 X19.576 Y24.202 Z0 F800
G1 X19.393 Y25.392 Z0 F800
; --- FIX X Backlash ---
G0 X20.093 Y25.392 F410
G1 X20.367 Y26.445 Z0 F800
G1 X20.413 Y27.086 Z0 F800
; --- FIX X Backlash ---
G0 X19.713 Y27.086 F410
G1 X18.523 Y27.269 Z0 F800
; --- FIX Y Backlash ---
G0 X18.523 Y26.769 F410
G1 X16.646 Y26.54 Z0 F800
G1 X15.776 Y25.991 Z0 F800
G1 X15.822 Y25.396 Z0 F800
; --- FIX X Backlash ---
G0 X16.522 Y25.396 F410
G1 X17.895 Y25.304 Z0 F800
; --- FIX Y Backlash ---
G0 X17.895 Y25.804 F410
G1 X18.17 Y26.216 Z0 F800
G1 X20.093 Y26.491 Z0 F800
; --- FIX X Backlash ---
G0 X19.393 Y26.491 F410
; --- FIX Y Backlash ---
G0 X19.393 Y25.991 F410
G1 X18.34 Y25.213 Z0 F800
G1 X18.159 Y25.193 Z0 F800
G1 X17.98 Y25.165 Z0 F800
G1 X17.785 Y25.121 Z0 F800
G1 X17.604 Y25.061 Z0 F800
G1 X17.471 Y24.981 Z0 F800
G1 X17.431 Y24.933 Z0 F800
G1 X17.415 Y24.88 Z0 F800
G1 X17.427 Y24.821 Z0 F800
G1 X17.47 Y24.755 Z0 F800
; --- FIX X Backlash ---
G0 X18.17 Y24.755 F410
G1 X18.317 Y24.624 Z0 F800
G1 X18.505 Y24.508 Z0 F800
G1 X18.716 Y24.406 Z0 F800
G1 X18.931 Y24.32 Z0 F800
G1 X19.131 Y24.252 Z0 F800
G1 X19.297 Y24.202 Z0 F800
G1 X19.452 Y24.16 Z0 F800
; --- FIX X Backlash ---
G0 X18.752 Y24.16 F410
; --- FIX Y Backlash ---
G0 X18.752 Y24.66 F410
G1 X17.699 Y27.727 Z0 F800
; --- FIX Y Backlash ---
G0 X17.699 Y27.227 F410
G1 X16.234 Y25.808 Z0 F800
; --- FIX X Backlash ---
G0 X16.934 Y25.808 F410
G1 X20.001 Y23.29 Z0 F800
; --- FIX X Backlash ---
G0 X19.301 Y23.29 F410
; --- FIX Y Backlash ---
G0 X19.301 Y23.79 F410
G1 X17.699 Y23.973 Z0 F800
; --- FIX X Backlash ---
G0 X18.399 Y23.973 F410
; --- FIX Y Backlash ---
G0 X18.399 Y23.473 F410
G1 X18.811 Y21.917 Z0 F800
; --- FIX X Backlash ---
G0 X18.111 Y21.917 F410
G1 X17.699 Y21.093 Z0 F800
; --- FIX X Backlash ---
G0 X18.399 Y21.093 F410
G1 X19.223 Y19.949 Z0 F800
; --- FIX X Backlash ---
G0 X18.523 Y19.949 F410
G1 X18.019 Y18.896 Z0 F800
; --- FIX X Backlash ---
G0 X18.719 Y18.896 F410
G1 X19.452 Y18.118 Z0 F800
; --- FIX X Backlash ---
G0 X18.752 Y18.118 F410
G1 X18.111 Y17.797 Z0 F800
G1 X17.47 Y17.202 Z0 F800
G1 X17.058 Y16.195 Z0 F800
; --- FIX X Backlash ---
G0 X17.758 Y16.195 F410
G1 X18.307 Y15.005 Z0 F800
G0 Z3.5 F800
; --- FIX Y Backlash ---
G0 X18.307 Y15.505 F410
G0 X29.912 Y20.563 Z3.5
G1 Z0 F800
;Layer C3 Pass 1 of 2
G1 X31.285 Y20.7 Z0 F800
G1 X33.345 Y20.654 Z0 F800
G1 X33.62 Y21.066 Z0 F800
G1 X33.711 Y22.439 Z0 F800
; --- FIX X Backlash ---
G0 X33.011 Y22.439 F410
G1 X32.828 Y23.035 Z0 F800
; --- FIX Y Backlash ---
G0 X32.828 Y22.535 F410
G1 X30.951 Y22.214 Z0 F800
G1 X29.486 Y22.122 Z0 F800
; --- FIX Y Backlash ---
G0 X29.486 Y22.622 F410
G1 X29.029 Y22.806 Z0 F800
; --- FIX X Backlash ---
G0 X29.729 Y22.806 F410
G1 X30.324 Y23.08 Z0 F800
G1 X31.972 Z0 F800
G1 X33.574 Y23.263 Z0 F800
G1 X34.077 Y24.591 Z0 F800
G1 X34.032 Y25.827 Z0 F800
G1 Y27.154 Z0 F800
; --- FIX X Backlash ---
G0 X33.332 Y27.154 F410
G1 X32.828 Y27.612 Z0 F800
; --- FIX Y Backlash ---
G0 X32.828 Y27.112 F410
G1 X32.645 Y17.179 Z0 F800
; --- FIX X Backlash ---
G0 X33.345 Y17.179 F410
G1 X37.053 Z0 F800
G1 X38.792 Y16.858 Z0 F800
G1 X40.486 Z0 F800
; --- FIX Y Backlash ---
G0 X40.486 Y17.358 F410
G1 X41.035 Y17.816 Z0 F800
; --- FIX X Backlash ---
G0 X40.335 Y17.816 F410
G1 X39.191 Y18.274 Z0 F800
; --- FIX Y Backlash ---
G0 X39.191 Y17.774 F410
G1 X38.001 Y17.545 Z0 F800
G1 X35.895 Y17.224 Z0 F800
G1 X33.835 Y17.087 Z0 F800
; --- FIX Y Backlash ---
G0 X33.835 Y17.587 F410
G1 X32.874 Y18.32 Z0 F800
G1 X32.782 Y19.601 Z0 F800
; --- FIX X Backlash ---
G0 X33.482 Y19.601 F410
G1 X33.62 Y20.196 Z0 F800
; --- FIX X Backlash ---
G0 X32.92 Y20.196 F410
G1 X32.324 Y20.38 Z0 F800
; --- FIX Y Backlash ---
G0 X32.324 Y19.88 F410
G1 X29.99 Y19.559 Z0 F800
; --- FIX Y Backlash ---
G0 X29.99 Y20.059 F410
G1 X29.212 Y20.563 Z0 F800
;Layer C3 Pass 2 of 2
; --- FIX X Backlash ---
G0 X29.912 Y20.563 F410
G1 X31.285 Y20.7 Z0 F800
G1 X33.345 Y20.654 Z0 F800
G1 X33.62 Y21.066 Z0 F800
G1 X33.711 Y22.439 Z0 F800
; --- FIX X Backlash ---
G0 X33.011 Y22.439 F410
G1 X32.828 Y23.035 Z0 F800
; --- FIX Y Backlash ---
G0 X32.828 Y22.535 F410
G1 X30.951 Y22.214 Z0 F800
G1 X29.486 Y22.122 Z0 F800
; --- FIX Y Backlash ---
G0 X29.486 Y22.622 F410
G1 X29.029 Y22.806 Z0 F800
; --- FIX X Backlash ---
G0 X29.729 Y22.806 F410
G1 X30.324 Y23.08 Z0 F800
G1 X31.972 Z0 F800
G1 X33.574 Y23.263 Z0 F800
G1 X34.077 Y24.591 Z0 F800
G1 X34.032 Y25.827 Z0 F800
G1 Y27.154 Z0 F800
; --- FIX X Backlash ---
G0 X33.332 Y27.154 F410
G1 X32.828 Y27.612 Z0 F800
; --- FIX Y Backlash ---
G0 X32.828 Y27.112 F410
G1 X32.645 Y17.179 Z0 F800
; --- FIX X Backlash ---
G0 X33.345 Y17.179 F410
G1 X37.053 Z0 F800
G1 X38.792 Y16.858 Z0 F800
G1 X40.486 Z0 F800
; --- FIX Y Backlash ---
G0 X40.486 Y17.358 F410
G1 X41.035 Y17.816 Z0 F800
; --- FIX X Backlash ---
G0 X40.335 Y17.816 F410
G1 X39.191 Y18.274 Z0 F800
; --- FIX Y Backlash ---
G0 X39.191 Y17.774 F410
G1 X38.001 Y17.545 Z0 F800
G1 X35.895 Y17.224 Z0 F800
G1 X33.835 Y17.087 Z0 F800
; --- FIX Y Backlash ---
G0 X33.835 Y17.587 F410
G1 X32.874 Y18.32 Z0 F800
G1 X32.782 Y19.601 Z0 F800
; --- FIX X Backlash ---
G0 X33.482 Y19.601 F410
G1 X33.62 Y20.196 Z0 F800
; --- FIX X Backlash ---
G0 X32.92 Y20.196 F410
G1 X32.324 Y20.38 Z0 F800
; --- FIX Y Backlash ---
G0 X32.324 Y19.88 F410
G1 X29.99 Y19.559 Z0 F800
; --- FIX Y Backlash ---
G0 X29.99 Y20.059 F410
G1 X29.212 Y20.563 Z0 F800
G0 Z3.5 F800
G0 X29.051 Y20.86 Z3.5
G1 Z0 F800
;Layer C3 Pass 1 of 2
; --- FIX X Backlash ---
G0 X29.751 Y20.86 F410
G1 X31.125 Y20.998 Z0 F800
G1 X33.185 Y20.952 Z0 F800
G1 X33.459 Y21.364 Z0 F800
G1 X33.551 Y22.737 Z0 F800
; --- FIX X Backlash ---
G0 X32.851 Y22.737 F410
G1 X32.668 Y23.332 Z0 F800
; --- FIX Y Backlash ---
G0 X32.668 Y22.832 F410
G1 X30.791 Y22.512 Z0 F800
G1 X29.326 Y22.42 Z0 F800
; --- FIX Y Backlash ---
G0 X29.326 Y22.92 F410
G1 X28.868 Y23.103 Z0 F800
; --- FIX X Backlash ---
G0 X29.568 Y23.103 F410
G1 X30.163 Y23.378 Z0 F800
G1 X31.811 Z0 F800
G1 X33.414 Y23.561 Z0 F800
G1 X33.917 Y24.889 Z0 F800
G1 X33.871 Y26.125 Z0 F800
G1 Y27.452 Z0 F800
; --- FIX X Backlash ---
G0 X33.171 Y27.452 F410
G1 X32.668 Y27.91 Z0 F800
; --- FIX Y Backlash ---
G0 X32.668 Y27.41 F410
G1 X32.485 Y17.476 Z0 F800
; --- FIX X Backlash ---
G0 X33.185 Y17.476 F410
G1 X36.893 Z0 F800
G1 X38.632 Y17.156 Z0 F800
G1 X40.326 Z0 F800
; --- FIX Y Backlash ---
G0 X40.326 Y17.656 F410
G1 X40.875 Y18.114 Z0 F800
; --- FIX X Backlash ---
G0 X40.175 Y18.114 F410
G1 X39.031 Y18.571 Z0 F800
; --- FIX Y Backlash ---
G0 X39.031 Y18.071 F410
G1 X37.841 Y17.843 Z0 F800
G1 X35.735 Y17.522 Z0 F800
G1 X33.675 Y17.385 Z0 F800
; --- FIX Y Backlash ---
G0 X33.675 Y17.885 F410
G1 X32.714 Y18.617 Z0 F800
G1 X32.622 Y19.899 Z0 F800
; --- FIX X Backlash ---
G0 X33.322 Y19.899 F410
G1 X33.459 Y20.494 Z0 F800
; --- FIX X Backlash ---
G0 X32.759 Y20.494 F410
G1 X32.164 Y20.677 Z0 F800
; --- FIX Y Backlash ---
G0 X32.164 Y20.177 F410
G1 X29.83 Y19.857 Z0 F800
; --- FIX Y Backlash ---
G0 X29.83 Y20.357 F410
G1 X29.051 Y20.86 Z0 F800
;Layer C3 Pass 2 of 2
; --- FIX X Backlash ---
G0 X29.751 Y20.86 F410
G1 X31.125 Y20.998 Z0 F800
G1 X33.185 Y20.952 Z0 F800
G1 X33.459 Y21.364 Z0 F800
G1 X33.551 Y22.737 Z0 F800
; --- FIX X Backlash ---
G0 X32.851 Y22.737 F410
G1 X32.668 Y23.332 Z0 F800
; --- FIX Y Backlash ---
G0 X32.668 Y22.832 F410
G1 X30.791 Y22.512 Z0 F800
G1 X29.326 Y22.42 Z0 F800
; --- FIX Y Backlash ---
G0 X29.326 Y22.92 F410
G1 X28.868 Y23.103 Z0 F800
; --- FIX X Backlash ---
G0 X29.568 Y23.103 F410
G1 X30.163 Y23.378 Z0 F800
G1 X31.811 Z0 F800
G1 X33.414 Y23.561 Z0 F800
G1 X33.917 Y24.889 Z0 F800
G1 X33.871 Y26.125 Z0 F800
G1 Y27.452 Z0 F800
; --- FIX X Backlash ---
G0 X33.171 Y27.452 F410
G1 X32.668 Y27.91 Z0 F800
; --- FIX Y Backlash ---
G0 X32.668 Y27.41 F410
G1 X32.485 Y17.476 Z0 F800
; --- FIX X Backlash ---
G0 X33.185 Y17.476 F410
G1 X36.893 Z0 F800
G1 X38.632 Y17.156 Z0 F800
G1 X40.326 Z0 F800
; --- FIX Y Backlash ---
G0 X40.326 Y17.656 F410
G1 X40.875 Y18.114 Z0 F800
; --- FIX X Backlash ---
G0 X40.175 Y18.114 F410
G1 X39.031 Y18.571 Z0 F800
; --- FIX Y Backlash ---
G0 X39.031 Y18.071 F410
G1 X37.841 Y17.843 Z0 F800
G1 X35.735 Y17.522 Z0 F800
G1 X33.675 Y17.385 Z0 F800
; --- FIX Y Backlash ---
G0 X33.675 Y17.885 F410
G1 X32.714 Y18.617 Z0 F800
G1 X32.622 Y19.899 Z0 F800
; --- FIX X Backlash ---
G0 X33.322 Y19.899 F410
G1 X33.459 Y20.494 Z0 F800
; --- FIX X Backlash ---
G0 X32.759 Y20.494 F410
G1 X32.164 Y20.677 Z0 F800
; --- FIX Y Backlash ---
G0 X32.164 Y20.177 F410
G1 X29.83 Y19.857 Z0 F800
; --- FIX Y Backlash ---
G0 X29.83 Y20.357 F410
G1 X29.051 Y20.86 Z0 F800
G0 Z3.5 F800
; --- FIX X Backlash ---
G0 X29.751 Y20.86 F410
; --- FIX Y Backlash ---
G0 X29.751 Y20.36 F410
G0 X36.069 Y20.223 Z3.5
G1 Z0 F800
;Layer C3 Pass 1 of 2
G1 X38.22 Y20.177 Z0 F800
G1 X39.685 Y20.223 Z0 F800
; --- FIX Y Backlash ---
G0 X39.685 Y20.723 F410
G1 X39.868 Y21.043 Z0 F800
; --- FIX X Backlash ---
G0 X39.168 Y21.043 F410
G1 X37.658 Y21.135 Z0 F800
; --- FIX Y Backlash ---
G0 X37.658 Y20.635 F410
G1 X35.918 Y20.543 Z0 F800
; --- FIX Y Backlash ---
G0 X35.918 Y21.043 F410
G1 X35.552 Y21.41 Z0 F800
G1 X35.094 Y22.829 Z0 F800
; --- FIX X Backlash ---
G0 X35.794 Y22.829 F410
G1 X36.618 Y23.058 Z0 F800
G1 X38.724 Z0 F800
; --- FIX Y Backlash ---
G0 X38.724 Y22.558 F410
G1 X40.143 Y22.329 Z0 F800
; --- FIX Y Backlash ---
G0 X40.143 Y22.829 F410
G1 X40.097 Y23.378 Z0 F800
; --- FIX X Backlash ---
G0 X39.397 Y23.378 F410
G1 X37.474 Y23.561 Z0 F800
; --- FIX Y Backlash ---
G0 X37.474 Y23.061 F410
G1 X35.46 Y22.878 Z0 F800
; --- FIX Y Backlash ---
G0 X35.46 Y23.378 F410
G1 Y25.346 Z0 F800
G1 X35.506 Y27.727 Z0 F800
; --- FIX X Backlash ---
G0 X36.206 Y27.727 F410
G1 X36.343 Y28.917 Z0 F800
G1 X36.349 Y29.099 Z0 F800
G1 X36.334 Y29.35 Z0 F800
G1 X36.306 Y29.643 Z0 F800
G1 X36.269 Y29.947 Z0 F800
G1 X36.23 Y30.234 Z0 F800
G1 X36.195 Y30.475 Z0 F800
G1 X36.16 Y30.702 Z0 F800
; --- FIX X Backlash ---
G0 X35.46 Y30.702 F410
G1 X35.271 Y30.708 Z0 F800
G1 X35.016 Y30.722 Z0 F800
G1 X34.636 Y30.748 Z0 F800
G1 X34.359 Y30.755 Z0 F800
G1 X33.999 Y30.746 Z0 F800
G1 X33.593 Y30.725 Z0 F800
G1 X33.177 Y30.697 Z0 F800
G1 X32.79 Y30.666 Z0 F800
G1 X32.467 Y30.639 Z0 F800
G1 X32.164 Y30.611 Z0 F800
; --- FIX Y Backlash ---
G0 X32.164 Y30.111 F410
G1 X30.745 Y29.378 Z0 F800
G1 X30.242 Y28.554 Z0 F800
G1 X30.202 Y28.371 Z0 F800
G1 X30.164 Y28.166 Z0 F800
G1 X30.127 Y27.908 Z0 F800
G1 X30.099 Y27.613 Z0 F800
G1 X30.087 Y27.299 Z0 F800
G1 X30.101 Y26.982 Z0 F800
G1 X30.15 Y26.678 Z0 F800
; --- FIX X Backlash ---
G0 X30.85 Y26.678 F410
G1 X30.907 Y26.395 Z0 F800
G1 X30.942 Y26.135 Z0 F800
G1 X30.96 Y25.901 Z0 F800
G1 X30.965 Y25.699 Z0 F800
G1 X30.961 Y25.534 Z0 F800
G1 X30.953 Y25.409 Z0 F800
G1 X30.942 Y25.304 Z0 F800
; --- FIX X Backlash ---
G0 X30.242 Y25.304 F410
G1 X29.601 Y25.03 Z0 F800
; --- FIX Y Backlash ---
G0 X29.601 Y25.53 F410
G1 X29.326 Y26.445 Z0 F800
; --- FIX X Backlash ---
G0 X30.026 Y26.445 F410
G1 X30.118 Y27.91 Z0 F800
; --- FIX X Backlash ---
G0 X29.418 Y27.91 F410
; --- FIX Y Backlash ---
G0 X29.418 Y27.41 F410
G1 X28.868 Y27.044 Z0 F800
G1 X28.502 Y25.442 Z0 F800
; --- FIX X Backlash ---
G0 X29.202 Y25.442 F410
; --- FIX Y Backlash ---
G0 X29.202 Y25.942 F410
G1 X30.347 Y26.582 Z0 F800
; --- FIX X Backlash ---
G0 X29.647 Y26.582 F410
G1 X29.372 Y29.375 Z0 F800
; --- FIX X Backlash ---
G0 X30.072 Y29.375 F410
G1 X31.445 Y29.421 Z0 F800
G1 X32.132 Y30.565 Z0 F800
G1 X33.734 Y31.023 Z0 F800
; --- FIX Y Backlash ---
G0 X33.734 Y30.523 F410
G1 X36.343 Y29.653 Z0 F800
G1 X36.481 Y23.382 Z0 F800
; --- FIX X Backlash ---
G0 X35.781 Y23.382 F410
G1 X35.369 Y20.223 Z0 F800
;Layer C3 Pass 2 of 2
; --- FIX X Backlash ---
G0 X36.069 Y20.223 F410
G1 X38.22 Y20.177 Z0 F800
G1 X39.685 Y20.223 Z0 F800
; --- FIX Y Backlash ---
G0 X39.685 Y20.723 F410
G1 X39.868 Y21.043 Z0 F800
; --- FIX X Backlash ---
G0 X39.168 Y21.043 F410
G1 X37.658 Y21.135 Z0 F800
; --- FIX Y Backlash ---
G0 X37.658 Y20.635 F410
G1 X35.918 Y20.543 Z0 F800
; --- FIX Y Backlash ---
G0 X35.918 Y21.043 F410
G1 X35.552 Y21.41 Z0 F800
G1 X35.094 Y22.829 Z0 F800
; --- FIX X Backlash ---
G0 X35.794 Y22.829 F410
G1 X36.618 Y23.058 Z0 F800
G1 X38.724 Z0 F800
; --- FIX Y Backlash ---
G0 X38.724 Y22.558 F410
G1 X40.143 Y22.329 Z0 F800
; --- FIX Y Backlash ---
G0 X40.143 Y22.829 F410
G1 X40.097 Y23.378 Z0 F800
; --- FIX X Backlash ---
G0 X39.397 Y23.378 F410
G1 X37.474 Y23.561 Z0 F800
; --- FIX Y Backlash ---
G0 X37.474 Y23.061 F410
G1 X35.46 Y22.878 Z0 F800
; --- FIX Y Backlash ---
G0 X35.46 Y23.378 F410
G1 Y25.346 Z0 F800
G1 X35.506 Y27.727 Z0 F800
; --- FIX X Backlash ---
G0 X36.206 Y27.727 F410
G1 X36.343 Y28.917 Z0 F800
G1 X36.349 Y29.099 Z0 F800
G1 X36.334 Y29.35 Z0 F800
G1 X36.306 Y29.643 Z0 F800
G1 X36.269 Y29.947 Z0 F800
G1 X36.23 Y30.234 Z0 F800
G1 X36.195 Y30.475 Z0 F800
G1 X36.16 Y30.702 Z0 F800
; --- FIX X Backlash ---
G0 X35.46 Y30.702 F410
G1 X35.271 Y30.708 Z0 F800
G1 X35.016 Y30.722 Z0 F800
G1 X34.636 Y30.748 Z0 F800
G1 X34.359 Y30.755 Z0 F800
G1 X33.999 Y30.746 Z0 F800
G1 X33.593 Y30.725 Z0 F800
G1 X33.177 Y30.697 Z0 F800
G1 X32.79 Y30.666 Z0 F800
G1 X32.467 Y30.639 Z0 F800
G1 X32.164 Y30.611 Z0 F800
; --- FIX Y Backlash ---
G0 X32.164 Y30.111 F410
G1 X30.745 Y29.378 Z0 F800
G1 X30.242 Y28.554 Z0 F800
G1 X30.202 Y28.371 Z0 F800
G1 X30.164 Y28.166 Z0 F800
G1 X30.127 Y27.908 Z0 F800
G1 X30.099 Y27.613 Z0 F800
G1 X30.087 Y27.299 Z0 F800
G1 X30.101 Y26.982 Z0 F800
G1 X30.15 Y26.678 Z0 F800
; --- FIX X Backlash ---
G0 X30.85 Y26.678 F410
G1 X30.907 Y26.395 Z0 F800
G1 X30.942 Y26.135 Z0 F800
G1 X30.96 Y25.901 Z0 F800
G1 X30.965 Y25.699 Z0 F800
G1 X30.961 Y25.534 Z0 F800
G1 X30.953 Y25.409 Z0 F800
G1 X30.942 Y25.304 Z0 F800
; --- FIX X Backlash ---
G0 X30.242 Y25.304 F410
G1 X29.601 Y25.03 Z0 F800
; --- FIX Y Backlash ---
G0 X29.601 Y25.53 F410
G1 X29.326 Y26.445 Z0 F800
; --- FIX X Backlash ---
G0 X30.026 Y26.445 F410
G1 X30.118 Y27.91 Z0 F800
; --- FIX X Backlash ---
G0 X29.418 Y27.91 F410
; --- FIX Y Backlash ---
G0 X29.418 Y27.41 F410
G1 X28.868 Y27.044 Z0 F800
G1 X28.502 Y25.442 Z0 F800
; --- FIX X Backlash ---
G0 X29.202 Y25.442 F410
; --- FIX Y Backlash ---
G0 X29.202 Y25.942 F410
G1 X30.347 Y26.582 Z0 F800
; --- FIX X Backlash ---
G0 X29.647 Y26.582 F410
G1 X29.372 Y29.375 Z0 F800
; --- FIX X Backlash ---
G0 X30.072 Y29.375 F410
G1 X31.445 Y29.421 Z0 F800
G1 X32.132 Y30.565 Z0 F800
G1 X33.734 Y31.023 Z0 F800
; --- FIX Y Backlash ---
G0 X33.734 Y30.523 F410
G1 X36.343 Y29.653 Z0 F800
G1 X36.481 Y23.382 Z0 F800
; --- FIX X Backlash ---
G0 X35.781 Y23.382 F410
G1 X35.369 Y20.223 Z0 F800
G0 Z3.5 F800
; --- FIX X Backlash ---
G0 X36.069 Y20.223 F410
G0 X36.229 Y19.925 Z3.5
G1 Z0 F800
;Layer C3 Pass 1 of 2
G1 X38.38 Y19.88 Z0 F800
G1 X39.845 Y19.925 Z0 F800
; --- FIX Y Backlash ---
G0 X39.845 Y20.425 F410
G1 X40.028 Y20.746 Z0 F800
; --- FIX X Backlash ---
G0 X39.328 Y20.746 F410
G1 X37.818 Y20.837 Z0 F800
; --- FIX Y Backlash ---
G0 X37.818 Y20.337 F410
G1 X36.078 Y20.246 Z0 F800
; --- FIX Y Backlash ---
G0 X36.078 Y20.746 F410
G1 X35.712 Y21.112 Z0 F800
G1 X35.254 Y22.531 Z0 F800
; --- FIX X Backlash ---
G0 X35.954 Y22.531 F410
G1 X36.778 Y22.76 Z0 F800
G1 X38.884 Z0 F800
; --- FIX Y Backlash ---
G0 X38.884 Y22.26 F410
G1 X40.303 Y22.031 Z0 F800
; --- FIX Y Backlash ---
G0 X40.303 Y22.531 F410
G1 X40.257 Y23.08 Z0 F800
; --- FIX X Backlash ---
G0 X39.557 Y23.08 F410
G1 X37.635 Y23.263 Z0 F800
; --- FIX Y Backlash ---
G0 X37.635 Y22.763 F410
G1 X35.62 Y22.58 Z0 F800
; --- FIX Y Backlash ---
G0 X35.62 Y23.08 F410
G1 Y25.049 Z0 F800
G1 X35.666 Y27.429 Z0 F800
; --- FIX X Backlash ---
G0 X36.366 Y27.429 F410
G1 X36.504 Y28.619 Z0 F800
G1 X36.509 Y28.801 Z0 F800
G1 X36.494 Y29.053 Z0 F800
G1 X36.466 Y29.345 Z0 F800
G1 X36.429 Y29.649 Z0 F800
G1 X36.39 Y29.936 Z0 F800
G1 X36.356 Y30.177 Z0 F800
G1 X36.32 Y30.405 Z0 F800
; --- FIX X Backlash ---
G0 X35.62 Y30.405 F410
G1 X35.432 Y30.41 Z0 F800
G1 X35.176 Y30.424 Z0 F800
G1 X34.796 Y30.45 Z0 F800
G1 X34.519 Y30.458 Z0 F800
G1 X34.159 Y30.448 Z0 F800
G1 X33.753 Y30.427 Z0 F800
G1 X33.337 Y30.399 Z0 F800
G1 X32.95 Y30.369 Z0 F800
G1 X32.627 Y30.341 Z0 F800
G1 X32.325 Y30.313 Z0 F800
; --- FIX Y Backlash ---
G0 X32.325 Y29.813 F410
G1 X30.905 Y29.081 Z0 F800
G1 X30.402 Y28.257 Z0 F800
G1 X30.362 Y28.073 Z0 F800
G1 X30.325 Y27.868 Z0 F800
G1 X30.287 Y27.61 Z0 F800
G1 X30.259 Y27.316 Z0 F800
G1 X30.247 Y27.001 Z0 F800
G1 X30.262 Y26.684 Z0 F800
G1 X30.31 Y26.38 Z0 F800
; --- FIX X Backlash ---
G0 X31.01 Y26.38 F410
G1 X31.067 Y26.097 Z0 F800
G1 X31.102 Y25.837 Z0 F800
G1 X31.12 Y25.603 Z0 F800
G1 X31.125 Y25.401 Z0 F800
G1 X31.121 Y25.236 Z0 F800
G1 X31.113 Y25.112 Z0 F800
G1 X31.102 Y25.007 Z0 F800
; --- FIX X Backlash ---
G0 X30.402 Y25.007 F410
G1 X29.761 Y24.732 Z0 F800
; --- FIX Y Backlash ---
G0 X29.761 Y25.232 F410
G1 X29.486 Y26.147 Z0 F800
; --- FIX X Backlash ---
G0 X30.186 Y26.147 F410
G1 X30.278 Y27.612 Z0 F800
; --- FIX X Backlash ---
G0 X29.578 Y27.612 F410
; --- FIX Y Backlash ---
G0 X29.578 Y27.112 F410
G1 X29.029 Y26.746 Z0 F800
G1 X28.662 Y25.144 Z0 F800
; --- FIX X Backlash ---
G0 X29.362 Y25.144 F410
; --- FIX Y Backlash ---
G0 X29.362 Y25.644 F410
G1 X30.507 Y26.285 Z0 F800
; --- FIX X Backlash ---
G0 X29.807 Y26.285 F410
G1 X29.532 Y29.077 Z0 F800
; --- FIX X Backlash ---
G0 X30.232 Y29.077 F410
G1 X31.605 Y29.123 Z0 F800
G1 X32.292 Y30.267 Z0 F800
G1 X33.894 Y30.725 Z0 F800
; --- FIX Y Backlash ---
G0 X33.894 Y30.225 F410
G1 X36.504 Y29.355 Z0 F800
G1 X36.641 Y23.084 Z0 F800
; --- FIX X Backlash ---
G0 X35.941 Y23.084 F410
G1 X35.529 Y19.925 Z0 F800
;Layer C3 Pass 2 of 2
; --- FIX X Backlash ---
G0 X36.229 Y19.925 F410
G1 X38.38 Y19.88 Z0 F800
G1 X39.845 Y19.925 Z0 F800
; --- FIX Y Backlash ---
G0 X39.845 Y20.425 F410
G1 X40.028 Y20.746 Z0 F800
; --- FIX X Backlash ---
G0 X39.328 Y20.746 F410
G1 X37.818 Y20.837 Z0 F800
; --- FIX Y Backlash ---
G0 X37.818 Y20.337 F410
G1 X36.078 Y20.246 Z0 F800
; --- FIX Y Backlash ---
G0 X36.078 Y20.746 F410
G1 X35.712 Y21.112 Z0 F800
G1 X35.254 Y22.531 Z0 F800
; --- FIX X Backlash ---
G0 X35.954 Y22.531 F410
G1 X36.778 Y22.76 Z0 F800
G1 X38.884 Z0 F800
; --- FIX Y Backlash ---
G0 X38.884 Y22.26 F410
G1 X40.303 Y22.031 Z0 F800
; --- FIX Y Backlash ---
G0 X40.303 Y22.531 F410
G1 X40.257 Y23.08 Z0 F800
; --- FIX X Backlash ---
G0 X39.557 Y23.08 F410
G1 X37.635 Y23.263 Z0 F800
; --- FIX Y Backlash ---
G0 X37.635 Y22.763 F410
G1 X35.62 Y22.58 Z0 F800
; --- FIX Y Backlash ---
G0 X35.62 Y23.08 F410
G1 Y25.049 Z0 F800
G1 X35.666 Y27.429 Z0 F800
; --- FIX X Backlash ---
G0 X36.366 Y27.429 F410
G1 X36.504 Y28.619 Z0 F800
G1 X36.509 Y28.801 Z0 F800
G1 X36.494 Y29.053 Z0 F800
G1 X36.466 Y29.345 Z0 F800
G1 X36.429 Y29.649 Z0 F800
G1 X36.39 Y29.936 Z0 F800
G1 X36.356 Y30.177 Z0 F800
G1 X36.32 Y30.405 Z0 F800
; --- FIX X Backlash ---
G0 X35.62 Y30.405 F410
G1 X35.432 Y30.41 Z0 F800
G1 X35.176 Y30.424 Z0 F800
G1 X34.796 Y30.45 Z0 F800
G1 X34.519 Y30.458 Z0 F800
G1 X34.159 Y30.448 Z0 F800
G1 X33.753 Y30.427 Z0 F800
G1 X33.337 Y30.399 Z0 F800
G1 X32.95 Y30.369 Z0 F800
G1 X32.627 Y30.341 Z0 F800
G1 X32.325 Y30.313 Z0 F800
; --- FIX Y Backlash ---
G0 X32.325 Y29.813 F410
G1 X30.905 Y29.081 Z0 F800
G1 X30.402 Y28.257 Z0 F800
G1 X30.362 Y28.073 Z0 F800
G1 X30.325 Y27.868 Z0 F800
G1 X30.287 Y27.61 Z0 F800
G1 X30.259 Y27.316 Z0 F800
G1 X30.247 Y27.001 Z0 F800
G1 X30.262 Y26.684 Z0 F800
G1 X30.31 Y26.38 Z0 F800
; --- FIX X Backlash ---
G0 X31.01 Y26.38 F410
G1 X31.067 Y26.097 Z0 F800
G1 X31.102 Y25.837 Z0 F800
G1 X31.12 Y25.603 Z0 F800
G1 X31.125 Y25.401 Z0 F800
G1 X31.121 Y25.236 Z0 F800
G1 X31.113 Y25.112 Z0 F800
G1 X31.102 Y25.007 Z0 F800
; --- FIX X Backlash ---
G0 X30.402 Y25.007 F410
G1 X29.761 Y24.732 Z0 F800
; --- FIX Y Backlash ---
G0 X29.761 Y25.232 F410
G1 X29.486 Y26.147 Z0 F800
; --- FIX X Backlash ---
G0 X30.186 Y26.147 F410
G1 X30.278 Y27.612 Z0 F800
; --- FIX X Backlash ---
G0 X29.578 Y27.612 F410
; --- FIX Y Backlash ---
G0 X29.578 Y27.112 F410
G1 X29.029 Y26.746 Z0 F800
G1 X28.662 Y25.144 Z0 F800
; --- FIX X Backlash ---
G0 X29.362 Y25.144 F410
; --- FIX Y Backlash ---
G0 X29.362 Y25.644 F410
G1 X30.507 Y26.285 Z0 F800
; --- FIX X Backlash ---
G0 X29.807 Y26.285 F410
G1 X29.532 Y29.077 Z0 F800
; --- FIX X Backlash ---
G0 X30.232 Y29.077 F410
G1 X31.605 Y29.123 Z0 F800
G1 X32.292 Y30.267 Z0 F800
G1 X33.894 Y30.725 Z0 F800
; --- FIX Y Backlash ---
G0 X33.894 Y30.225 F410
G1 X36.504 Y29.355 Z0 F800
G1 X36.641 Y23.084 Z0 F800
; --- FIX X Backlash ---
G0 X35.941 Y23.084 F410
G1 X35.529 Y19.925 Z0 F800
G0 Z3.5 F800
; --- FIX X Backlash ---
G0 X36.229 Y19.925 F410
; --- FIX Y Backlash ---
G0 X36.229 Y20.425 F410
G0 X38.884 Y25.14 Z3.5
G1 Z0 F800
;Layer C3 Pass 1 of 2
; --- FIX X Backlash ---
G0 X38.184 Y25.14 F410
G1 X37.955 Y33.289 Z0 F800
; --- FIX Y Backlash ---
G0 X37.955 Y32.789 F410
G1 X35.392 Y32.605 Z0 F800
; --- FIX Y Backlash ---
G0 X35.392 Y33.105 F410
G1 X33.377 Y33.563 Z0 F800
; --- FIX Y Backlash ---
G0 X33.377 Y33.063 F410
G1 X31.638 Y32.651 Z0 F800
G1 X30.081 Y32.148 Z0 F800
G1 X29.212 Y31.736 Z0 F800
G1 X28.433 Y31.461 Z0 F800
; --- FIX Y Backlash ---
G0 X28.433 Y31.961 F410
G1 X27.701 Y33.38 Z0 F800
G1 X27.655 Y35.486 Z0 F800
; --- FIX X Backlash ---
G0 X28.355 Y35.486 F410
G1 X29.774 Y35.44 Z0 F800
; --- FIX X Backlash ---
G0 X29.074 Y35.44 F410
; --- FIX Y Backlash ---
G0 X29.074 Y34.94 F410
G1 X28.388 Y33.155 Z0 F800
G1 X27.884 Y31.369 Z0 F800
; --- FIX X Backlash ---
G0 X28.584 Y31.369 F410
; --- FIX Y Backlash ---
G0 X28.584 Y31.869 F410
G1 X30.049 Y33.426 Z0 F800
; --- FIX Y Backlash ---
G0 X30.049 Y32.926 F410
G1 X31.88 Y32.514 Z0 F800
G1 X34.398 Y32.239 Z0 F800
; --- FIX Y Backlash ---
G0 X34.398 Y32.739 F410
G1 X36.778 Y33.609 Z0 F800
; --- FIX Y Backlash ---
G0 X36.778 Y33.109 F410
G1 X39.113 Y32.972 Z0 F800
G1 X39.799 Y31.553 Z0 F800
G1 X39.891 Y30.454 Z0 F800
; --- FIX Y Backlash ---
G0 X39.891 Y30.954 F410
G1 X40.99 Y31.595 Z0 F800
; --- FIX X Backlash ---
G0 X40.29 Y31.595 F410
G1 X39.832 Y33.655 Z0 F800
; --- FIX X Backlash ---
G0 X40.532 Y33.655 F410
G1 X41.127 Y35.44 Z0 F800
G1 X41.219 Y37.18 Z0 F800
; --- FIX X Backlash ---
G0 X40.519 Y37.18 F410
G1 X40.29 Y38.599 Z0 F800
; --- FIX X Backlash ---
G0 X40.99 Y38.599 F410
G1 X41.309 Y38.652 Z0 F800
G1 X41.641 Y38.7 Z0 F800
G1 X42.031 Y38.747 Z0 F800
G1 X42.434 Y38.782 Z0 F800
G1 X42.805 Y38.792 Z0 F800
G1 X42.965 Y38.784 Z0 F800
G1 X43.101 Y38.765 Z0 F800
G1 X43.207 Y38.735 Z0 F800
G1 X43.278 Y38.69 Z0 F800
; --- FIX Y Backlash ---
G0 X43.278 Y38.19 F410
G1 X43.42 Y38.121 Z0 F800
G1 X43.623 Y38.11 Z0 F800
G1 X43.863 Y38.142 Z0 F800
; --- FIX Y Backlash ---
G0 X43.863 Y38.642 F410
G1 X44.114 Y38.702 Z0 F800
G1 X44.352 Y38.774 Z0 F800
G1 X44.553 Y38.845 Z0 F800
G1 X44.743 Y38.919 Z0 F800
G1 X45.201 Y40.247 Z0 F800
G1 X45.43 Y41.208 Z0 F800
; --- FIX Y Backlash ---
G0 X45.43 Y40.708 F410
G1 X48.039 Y40.433 Z0 F800
; --- FIX X Backlash ---
G0 X47.339 Y40.433 F410
G1 X46.927 Y37.504 Z0 F800
; --- FIX X Backlash ---
G0 X47.627 Y37.504 F410
G1 X47.902 Y35.535 Z0 F800
; --- FIX X Backlash ---
G0 X47.202 Y35.535 F410
G1 X45.234 Y35.489 Z0 F800
G1 X42.716 Z0 F800
; --- FIX Y Backlash ---
G0 X42.716 Y35.989 F410
G1 X41.571 Y37.042 Z0 F800
; --- FIX X Backlash ---
G0 X42.271 Y37.042 F410
G1 X46.666 Z0 F800
G1 X47.169 Y37.958 Z0 F800
; --- FIX X Backlash ---
G0 X46.469 Y37.958 F410
; --- FIX Y Backlash ---
G0 X46.469 Y37.458 F410
G1 X43.86 Y37.366 Z0 F800
G1 X41.938 Y37.183 Z0 F800
; --- FIX Y Backlash ---
G0 X41.938 Y37.683 F410
G1 X41.297 Y38.416 Z0 F800
; --- FIX X Backlash ---
G0 X41.997 Y38.416 F410
G1 X45.522 Y38.644 Z0 F800
G1 X47.307 Y39.148 Z0 F800
; --- FIX X Backlash ---
G0 X46.607 Y39.148 F410
G1 X45.6 Y40.567 Z0 F800
; --- FIX Y Backlash ---
G0 X45.6 Y40.067 F410
G1 X45.005 Y39.152 Z0 F800
G1 X40.747 Y36.725 Z0 F800
G1 X40.29 Y34.62 Z0 F800
; --- FIX X Backlash ---
G0 X40.99 Y34.62 F410
G1 X41.356 Y32.926 Z0 F800
; --- FIX X Backlash ---
G0 X40.656 Y32.926 F410
G1 X38.916 Y32.514 Z0 F800
G1 X38.138 Y30.134 Z0 F800
G1 X37.726 Y24.961 Z0 F800
; --- FIX X Backlash ---
G0 X38.426 Y24.961 F410
G1 X38.884 Y24.64 Z0 F800
;Layer C3 Pass 2 of 2
; --- FIX X Backlash ---
G0 X38.184 Y24.64 F410
; --- FIX Y Backlash ---
G0 X38.184 Y25.14 F410
G1 X37.955 Y33.289 Z0 F800
; --- FIX Y Backlash ---
G0 X37.955 Y32.789 F410
G1 X35.392 Y32.605 Z0 F800
; --- FIX Y Backlash ---
G0 X35.392 Y33.105 F410
G1 X33.377 Y33.563 Z0 F800
; --- FIX Y Backlash ---
G0 X33.377 Y33.063 F410
G1 X31.638 Y32.651 Z0 F800
G1 X30.081 Y32.148 Z0 F800
G1 X29.212 Y31.736 Z0 F800
G1 X28.433 Y31.461 Z0 F800
; --- FIX Y Backlash ---
G0 X28.433 Y31.961 F410
G1 X27.701 Y33.38 Z0 F800
G1 X27.655 Y35.486 Z0 F800
; --- FIX X Backlash ---
G0 X28.355 Y35.486 F410
G1 X29.774 Y35.44 Z0 F800
; --- FIX X Backlash ---
G0 X29.074 Y35.44 F410
; --- FIX Y Backlash ---
G0 X29.074 Y34.94 F410
G1 X28.388 Y33.155 Z0 F800
G1 X27.884 Y31.369 Z0 F800
; --- FIX X Backlash ---
G0 X28.584 Y31.369 F410
; --- FIX Y Backlash ---
G0 X28.584 Y31.869 F410
G1 X30.049 Y33.426 Z0 F800
; --- FIX Y Backlash ---
G0 X30.049 Y32.926 F410
G1 X31.88 Y32.514 Z0 F800
G1 X34.398 Y32.239 Z0 F800
; --- FIX Y Backlash ---
G0 X34.398 Y32.739 F410
G1 X36.778 Y33.609 Z0 F800
; --- FIX Y Backlash ---
G0 X36.778 Y33.109 F410
G1 X39.113 Y32.972 Z0 F800
G1 X39.799 Y31.553 Z0 F800
G1 X39.891 Y30.454 Z0 F800
; --- FIX Y Backlash ---
G0 X39.891 Y30.954 F410
G1 X40.99 Y31.595 Z0 F800
; --- FIX X Backlash ---
G0 X40.29 Y31.595 F410
G1 X39.832 Y33.655 Z0 F800
; --- FIX X Backlash ---
G0 X40.532 Y33.655 F410
G1 X41.127 Y35.44 Z0 F800
G1 X41.219 Y37.18 Z0 F800
; --- FIX X Backlash ---
G0 X40.519 Y37.18 F410
G1 X40.29 Y38.599 Z0 F800
; --- FIX X Backlash ---
G0 X40.99 Y38.599 F410
G1 X41.309 Y38.652 Z0 F800
G1 X41.641 Y38.7 Z0 F800
G1 X42.031 Y38.747 Z0 F800
G1 X42.434 Y38.782 Z0 F800
G1 X42.805 Y38.792 Z0 F800
G1 X42.965 Y38.784 Z0 F800
G1 X43.101 Y38.765 Z0 F800
G1 X43.207 Y38.735 Z0 F800
G1 X43.278 Y38.69 Z0 F800
; --- FIX Y Backlash ---
G0 X43.278 Y38.19 F410
G1 X43.42 Y38.121 Z0 F800
G1 X43.623 Y38.11 Z0 F800
G1 X43.863 Y38.142 Z0 F800
; --- FIX Y Backlash ---
G0 X43.863 Y38.642 F410
G1 X44.114 Y38.702 Z0 F800
G1 X44.352 Y38.774 Z0 F800
G1 X44.553 Y38.845 Z0 F800
G1 X44.743 Y38.919 Z0 F800
G1 X45.201 Y40.247 Z0 F800
G1 X45.43 Y41.208 Z0 F800
; --- FIX Y Backlash ---
G0 X45.43 Y40.708 F410
G1 X48.039 Y40.433 Z0 F800
; --- FIX X Backlash ---
G0 X47.339 Y40.433 F410
G1 X46.927 Y37.504 Z0 F800
; --- FIX X Backlash ---
G0 X47.627 Y37.504 F410
G1 X47.902 Y35.535 Z0 F800
; --- FIX X Backlash ---
G0 X47.202 Y35.535 F410
G1 X45.234 Y35.489 Z0 F800
G1 X42.716 Z0 F800
; --- FIX Y Backlash ---
G0 X42.716 Y35.989 F410
G1 X41.571 Y37.042 Z0 F800
; --- FIX X Backlash ---
G0 X42.271 Y37.042 F410
G1 X46.666 Z0 F800
G1 X47.169 Y37.958 Z0 F800
; --- FIX X Backlash ---
G0 X46.469 Y37.958 F410
; --- FIX Y Backlash ---
G0 X46.469 Y37.458 F410
G1 X43.86 Y37.366 Z0 F800
G1 X41.938 Y37.183 Z0 F800
; --- FIX Y Backlash ---
G0 X41.938 Y37.683 F410
G1 X41.297 Y38.416 Z0 F800
; --- FIX X Backlash ---
G0 X41.997 Y38.416 F410
G1 X45.522 Y38.644 Z0 F800
G1 X47.307 Y39.148 Z0 F800
; --- FIX X Backlash ---
G0 X46.607 Y39.148 F410
G1 X45.6 Y40.567 Z0 F800
; --- FIX Y Backlash ---
G0 X45.6 Y40.067 F410
G1 X45.005 Y39.152 Z0 F800
G1 X40.747 Y36.725 Z0 F800
G1 X40.29 Y34.62 Z0 F800
; --- FIX X Backlash ---
G0 X40.99 Y34.62 F410
G1 X41.356 Y32.926 Z0 F800
; --- FIX X Backlash ---
G0 X40.656 Y32.926 F410
G1 X38.916 Y32.514 Z0 F800
G1 X38.138 Y30.134 Z0 F800
G1 X37.726 Y24.961 Z0 F800
; --- FIX X Backlash ---
G0 X38.426 Y24.961 F410
G1 X38.884 Y24.64 Z0 F800
G0 Z3.5 F800
; --- FIX X Backlash ---
G0 X38.184 Y24.64 F410
; --- FIX Y Backlash ---
G0 X38.184 Y25.14 F410
G0 X38.024 Y25.438 Z3.5
G1 Z0 F800
;Layer C3 Pass 1 of 2
G1 X37.795 Y33.586 Z0 F800
; --- FIX Y Backlash ---
G0 X37.795 Y33.086 F410
G1 X35.231 Y32.903 Z0 F800
; --- FIX Y Backlash ---
G0 X35.231 Y33.403 F410
G1 X33.217 Y33.861 Z0 F800
; --- FIX Y Backlash ---
G0 X33.217 Y33.361 F410
G1 X31.478 Y32.949 Z0 F800
G1 X29.921 Y32.445 Z0 F800
G1 X29.051 Y32.033 Z0 F800
G1 X28.273 Y31.759 Z0 F800
; --- FIX Y Backlash ---
G0 X28.273 Y32.259 F410
G1 X27.541 Y33.678 Z0 F800
G1 X27.495 Y35.784 Z0 F800
; --- FIX X Backlash ---
G0 X28.195 Y35.784 F410
G1 X29.614 Y35.738 Z0 F800
; --- FIX X Backlash ---
G0 X28.914 Y35.738 F410
; --- FIX Y Backlash ---
G0 X28.914 Y35.238 F410
G1 X28.227 Y33.452 Z0 F800
G1 X27.724 Y31.667 Z0 F800
; --- FIX X Backlash ---
G0 X28.424 Y31.667 F410
; --- FIX Y Backlash ---
G0 X28.424 Y32.167 F410
G1 X29.889 Y33.724 Z0 F800
; --- FIX Y Backlash ---
G0 X29.889 Y33.224 F410
G1 X31.72 Y32.812 Z0 F800
G1 X34.238 Y32.537 Z0 F800
; --- FIX Y Backlash ---
G0 X34.238 Y33.037 F410
G1 X36.618 Y33.907 Z0 F800
; --- FIX Y Backlash ---
G0 X36.618 Y33.407 F410
G1 X38.953 Y33.269 Z0 F800
G1 X39.639 Y31.85 Z0 F800
G1 X39.731 Y30.752 Z0 F800
; --- FIX Y Backlash ---
G0 X39.731 Y31.252 F410
G1 X40.829 Y31.893 Z0 F800
; --- FIX X Backlash ---
G0 X40.129 Y31.893 F410
G1 X39.672 Y33.952 Z0 F800
; --- FIX X Backlash ---
G0 X40.372 Y33.952 F410
G1 X40.967 Y35.738 Z0 F800
G1 X41.058 Y37.477 Z0 F800
; --- FIX X Backlash ---
G0 X40.358 Y37.477 F410
