
G0 Z10 F500;      ; Move to clearance level - Z motion limited to 500
; G0 X-10 Y-10 F1200; Homing
; G0 X-5 Y-5 F1200; go in
; G10 P0 L20 X0 Y0; set to zero
G1 F1200;           ; Set feed rate to 1000
;LightBurn 1.6.04
;Custom GCode device profile, absolute coords
;Bounds: X12 Y46.94 to X73.99 Y115.99
G00 G17 G40 G21 G54
G90
M4
;Cut @ 1500 mm/min, 90% power

M8

; Washing sequence (no color)
G1 Z10 F1000;        ; Raise brush to safe height
G0 X5 Y5 F1200;     ; Rapid move to brush cleaning position
G1 Z-1 F800;         ; Lower brush for cleaning - controlled movement
G1 X10 Y12 Z8 F1200;     ; Rapid move to brush cleaning position
G1 Z-1 F800;         ; Lower brush for cleaning - controlled movement
G1 X25 Y14 Z6 F800;     ; Move across cleaning area - controlled movement
G1 Z8 F800;         ; Maintain brush height - controlled movement
G0 X5 Y5 F1200;     ; Rapid move to brush cleaning position
G1 Z-1 F800;         ; Lower brush for cleaning - controlled movement
G1 X15 Y12 Z8 F1200;     ; Rapid move to brush cleaning position
G1 Z-1 F800;         ; Lower brush for cleaning - controlled movement
G1 X25 Y14 Z6 F800;     ; Move across cleaning area - controlled movement
G1 Z10 F800;         ; Maintain brush height - controlled movement
G1 F1200;           ; Set feed rate to 1000

; Color picking sequence
G1 Z10 F1000;         ; Raise brush to safe height
G0 X86 Y5 F1200;    ; Rapid move to color 1 position
G1 Z0 F1000;         ; Lower into color - controlled movement
G1 X85.102Y7.295Z0S800F1200
G1 X85.026Y7.642Z0F1200
G1 X85Y8Z0F1200
G1 X85.026Y8.358Z0F1200
G1 X85.102Y8.705Z0F1200
G1 X85.225Y9.041Z0F1200
G1 X85.393Y9.362Z0F1200
G1 X85.603Y9.668Z0F1200
G1 X85.854Y9.957Z0F1200
G1 X86.142Y10.226Z0F1200
G1 X86.464Y10.475Z0F1200
G1 X86.82Y10.701Z0F1200
G1 X87.204Y10.902Z0F1200
G1 X87.617Y11.078Z0F1200
G1 X88.054Y11.225Z0F1200
G1 X88.513Y11.343Z0F1200
G1 X88.992Y11.429Z0F1200
G1 X89.489Y11.482Z0F1200
G1 X90Y11.5Z0F1200
G1 X90.511Y11.482Z0F1200
G1 X91.008Y11.429Z0F1200
G1 X91.487Y11.343Z0F1200
G1 X91.946Y11.225Z0F1200
G1 X92.383Y11.078Z0F1200
G1 X92.796Y10.902Z0F1200
G1 X93.18Y10.701Z0F1200
G1 X93.536Y10.475Z0F1200
G1 X93.858Y10.226Z0F1200
G1 X94.146Y9.957Z0F1200
G1 X94.397Y9.668Z0F1200
G1 X94.607Y9.362Z0F1200
G1 X94.775Y9.041Z0F1200
G1 X94.898Y8.705Z0F1200
G1 X94.974Y8.358Z0F1200
G1 X95Y8Z0F1200
G1 X94.974Y7.642Z0F1200
G1 X94.898Y7.295Z0F1200
G1 X94.775Y6.959Z0F1200
G1 X94.607Y6.638Z0F1200
G1 X94.397Y6.332Z0F1200
G1 X94.146Y6.043Z0F1200
G1 X93.858Y5.774Z0F1200
G1 X93.536Y5.525Z0F1200
G1 X93.18Y5.299Z0F1200
G1 X92.796Y5.098Z0F1200
G1 X92.383Y4.922Z0F1200
G1 X91.946Y4.775Z0F1200
G1 X91.487Y4.657Z0F1200
G1 X91.008Y4.571Z0F1200
G1 X90.511Y4.518Z0F1200
G1 X90Y4.5Z0F1200
G1 X89.489Y4.518Z0F1200
G1 X88.992Y4.571Z0F1200
G1 X88.513Y4.657Z0F1200
G1 X88.054Y4.775Z0F1200
G1 X87.617Y4.922Z0F1200
G1 X87.204Y5.098Z0F1200
G1 X86.82Y5.299Z0F1200
G1 X86.464Y5.525Z0F1200
G1 X86.142Y5.774Z0F1200
G1 X85.854Y6.043Z0F1200
G1 X85.603Y6.332Z0F1200
G1 X85.393Y6.638Z0F1200
G1 X85.225Y6.959Z0F1200
G1 Z7 F800;         ; Raise from color - controlled movement
G1 X79 Y8 Z1 F1200;     ; Movement in paint - controlled movement
G1 X69 Y18 Z8 F500;     ; Move in paint - controlled movement
G1 F1200;           ; Set feed rate to 1000
G0 Z3.5 F1000
G0 X29.25 Y46.938 Z3.5 
G1 Z0 F1000
;Layer C2
G1 X23 Y53 Z0 S900 F1000
G1 X29.25 Y59.062 Z0 F1000
G1 X41.75 Z0 F1000
G1 X48 Y53 Z0 F1000
G1 X41.75 Y46.938 Z0 F1000
G1 X29.25 Z0 F1000
;Cut @ 1500 mm/min, 80% power

M8

; Washing sequence (no color)
G1 Z10 F1000;        ; Raise brush to safe height
G0 X5 Y5 F1200;     ; Rapid move to brush cleaning position
G1 Z-1 F800;         ; Lower brush for cleaning - controlled movement
G1 X10 Y12 Z8 F1200;     ; Rapid move to brush cleaning position
G1 Z-1 F800;         ; Lower brush for cleaning - controlled movement
G1 X25 Y14 Z6 F800;     ; Move across cleaning area - controlled movement
G1 Z8 F800;         ; Maintain brush height - controlled movement
G0 X5 Y5 F1200;     ; Rapid move to brush cleaning position
G1 Z-1 F800;         ; Lower brush for cleaning - controlled movement
G1 X15 Y12 Z8 F1200;     ; Rapid move to brush cleaning position
G1 Z-1 F800;         ; Lower brush for cleaning - controlled movement
G1 X25 Y14 Z6 F800;     ; Move across cleaning area - controlled movement
G1 Z10 F800;         ; Maintain brush height - controlled movement
G1 F1200;           ; Set feed rate to 1000

; Color picking sequence
G1 Z10 F1000;         ; Raise brush to safe height
G0 X41 Y5 F1200;    ; Rapid move to color 1 position
G1 Z0 F1000;         ; Lower into color - controlled movement
G1 X40.102Y7.295Z0S800F1200
G1 X40.026Y7.642Z0F1200
G1 X40Y8Z0F1200
G1 X40.026Y8.358Z0F1200
G1 X40.102Y8.705Z0F1200
G1 X40.225Y9.041Z0F1200
G1 X40.393Y9.362Z0F1200
G1 X40.603Y9.668Z0F1200
G1 X40.854Y9.957Z0F1200
G1 X41.142Y10.226Z0F1200
G1 X41.464Y10.475Z0F1200
G1 X41.82Y10.701Z0F1200
G1 X42.204Y10.902Z0F1200
G1 X42.617Y11.078Z0F1200
G1 X43.054Y11.225Z0F1200
G1 X43.513Y11.343Z0F1200
G1 X43.992Y11.429Z0F1200
G1 X44.489Y11.482Z0F1200
G1 X45Y11.5Z0F1200
G1 X45.511Y11.482Z0F1200
G1 X46.008Y11.429Z0F1200
G1 X46.487Y11.343Z0F1200
G1 X46.946Y11.225Z0F1200
G1 X47.383Y11.078Z0F1200
G1 X47.796Y10.902Z0F1200
G1 X48.18Y10.701Z0F1200
G1 X48.536Y10.475Z0F1200
G1 X48.858Y10.226Z0F1200
G1 X49.146Y9.957Z0F1200
G1 X49.397Y9.668Z0F1200
G1 X49.607Y9.362Z0F1200
G1 X49.775Y9.041Z0F1200
G1 X49.898Y8.705Z0F1200
G1 X49.974Y8.358Z0F1200
G1 X50Y8Z0F1200
G1 X49.974Y7.642Z0F1200
G1 X49.898Y7.295Z0F1200
G1 X49.775Y6.959Z0F1200
G1 X49.607Y6.638Z0F1200
G1 X49.397Y6.332Z0F1200
G1 X49.146Y6.043Z0F1200
G1 X48.858Y5.774Z0F1200
G1 X48.536Y5.525Z0F1200
G1 X48.18Y5.299Z0F1200
G1 X47.796Y5.098Z0F1200
G1 X47.383Y4.922Z0F1200
G1 X46.946Y4.775Z0F1200
G1 X46.487Y4.657Z0F1200
G1 X46.008Y4.571Z0F1200
G1 X45.511Y4.518Z0F1200
G1 X45Y4.5Z0F1200
G1 X44.489Y4.518Z0F1200
G1 X43.992Y4.571Z0F1200
G1 X43.513Y4.657Z0F1200
G1 X43.054Y4.775Z0F1200
G1 X42.617Y4.922Z0F1200
G1 X42.204Y5.098Z0F1200
G1 X41.82Y5.299Z0F1200
G1 X41.464Y5.525Z0F1200
G1 X41.142Y5.774Z0F1200
G1 X40.854Y6.043Z0F1200
G1 X40.603Y6.332Z0F1200
G1 X40.393Y6.638Z0F1200
G1 X40.225Y6.959Z0F1200
G1 Z7 F800;         ; Raise from color - controlled movement
G1 X34 Y8 Z1 F1200;     ; Movement in paint - controlled movement
G1 X24 Y18 Z8 F500;     ; Move in paint - controlled movement
G1 F1200;           ; Set feed rate to 1000
G0 Z3.5 F1000
G0 X50.745 Y76.051 Z3.5 F1500
G1 Z0 F1000
;Layer C1
G1 X34.197 Y85.009 Z0 S800 F1000
G1 X34.174 Y99.179 Z0 F1000
G0 Z3.5 F1000
G0 X34.128 Y99.176 Z3.5 
G1 Z0 F1000
G1 X48.769 Y106.767 Z0 F1000
G1 X63.434 Y100.833 Z0 F1000
G1 X51.004 Y91.457 Z0 F1000
G1 X34.128 Y99.176 Z0 F1000
G0 Z3.5 F1000
G0 X50.905 Y91.616 Z3.5 
G1 Z0 F1000
G1 Y76.06 Z0 F1000
G1 X63.363 Y86.726 Z0 F1000
G1 X63.383 Y100.777 Z0 F1000
G0 Z3.5 F1000
G0 X70.97 Y102.91 Z3.5 
G1 Z0 F1000
G1 X70.369 Y103.956 Z0 F1000
G1 X69.719 Y104.97 Z0 F1000
G1 X69.022 Y105.95 Z0 F1000
G1 X68.28 Y106.893 Z0 F1000
G1 X67.495 Y107.8 Z0 F1000
G1 X66.668 Y108.668 Z0 F1000
G1 X65.8 Y109.495 Z0 F1000
G1 X64.893 Y110.28 Z0 F1000
G1 X63.95 Y111.022 Z0 F1000
G1 X62.97 Y111.719 Z0 F1000
G1 X61.956 Y112.369 Z0 F1000
G1 X60.91 Y112.97 Z0 F1000
G1 X59.832 Y113.522 Z0 F1000
G1 X58.726 Y114.023 Z0 F1000
G1 X57.591 Y114.47 Z0 F1000
G1 X56.43 Y114.863 Z0 F1000
G1 X55.244 Y115.199 Z0 F1000
G1 X54.036 Y115.478 Z0 F1000
G1 X52.805 Y115.698 Z0 F1000
G1 X51.555 Y115.857 Z0 F1000
G1 X50.286 Y115.954 Z0 F1000
G1 X49 Y115.986 Z0 F1000
G1 X47.714 Y115.954 Z0 F1000
G1 X46.445 Y115.857 Z0 F1000
G1 X45.195 Y115.698 Z0 F1000
G1 X43.964 Y115.478 Z0 F1000
G1 X42.756 Y115.199 Z0 F1000
G1 X41.57 Y114.863 Z0 F1000
G1 X40.409 Y114.47 Z0 F1000
G1 X39.274 Y114.023 Z0 F1000
G1 X38.168 Y113.522 Z0 F1000
G1 X37.09 Y112.97 Z0 F1000
G1 X36.044 Y112.369 Z0 F1000
G1 X35.03 Y111.719 Z0 F1000
G1 X34.05 Y111.022 Z0 F1000
G1 X33.107 Y110.28 Z0 F1000
G1 X32.2 Y109.495 Z0 F1000
G1 X31.332 Y108.668 Z0 F1000
G1 X30.505 Y107.8 Z0 F1000
G1 X29.72 Y106.893 Z0 F1000
G1 X28.978 Y105.95 Z0 F1000
G1 X28.281 Y104.97 Z0 F1000
G1 X27.631 Y103.956 Z0 F1000
G1 X27.03 Y102.91 Z0 F1000
G1 X26.478 Y101.832 Z0 F1000
G1 X25.977 Y100.726 Z0 F1000
G1 X25.53 Y99.591 Z0 F1000
G1 X25.137 Y98.43 Z0 F1000
G1 X24.801 Y97.244 Z0 F1000
G1 X24.522 Y96.036 Z0 F1000
G1 X24.302 Y94.805 Z0 F1000
G1 X24.143 Y93.555 Z0 F1000
G1 X24.046 Y92.286 Z0 F1000
G1 X24.014 Y91 Z0 F1000
G1 X24.046 Y89.714 Z0 F1000
G1 X24.143 Y88.445 Z0 F1000
G1 X24.302 Y87.195 Z0 F1000
G1 X24.522 Y85.964 Z0 F1000
G1 X24.801 Y84.756 Z0 F1000
G1 X25.137 Y83.57 Z0 F1000
G1 X25.53 Y82.409 Z0 F1000
G1 X25.977 Y81.274 Z0 F1000
G1 X26.478 Y80.168 Z0 F1000
G1 X27.03 Y79.09 Z0 F1000
G1 X27.631 Y78.044 Z0 F1000
G1 X28.281 Y77.03 Z0 F1000
G1 X28.978 Y76.05 Z0 F1000
G1 X29.72 Y75.107 Z0 F1000
G1 X30.505 Y74.2 Z0 F1000
G1 X31.332 Y73.332 Z0 F1000
G1 X32.2 Y72.505 Z0 F1000
G1 X33.107 Y71.72 Z0 F1000
G1 X34.05 Y70.978 Z0 F1000
G1 X35.03 Y70.281 Z0 F1000
G1 X36.044 Y69.631 Z0 F1000
G1 X37.09 Y69.03 Z0 F1000
G1 X38.168 Y68.478 Z0 F1000
G1 X39.274 Y67.977 Z0 F1000
G1 X40.409 Y67.53 Z0 F1000
G1 X41.57 Y67.137 Z0 F1000
G1 X42.756 Y66.801 Z0 F1000
G1 X43.964 Y66.522 Z0 F1000
G1 X45.195 Y66.302 Z0 F1000
G1 X46.445 Y66.143 Z0 F1000
G1 X47.714 Y66.046 Z0 F1000
G1 X49 Y66.014 Z0 F1000
G1 X50.286 Y66.046 Z0 F1000
G1 X51.555 Y66.143 Z0 F1000
G1 X52.805 Y66.302 Z0 F1000
G1 X54.036 Y66.522 Z0 F1000
G1 X55.244 Y66.801 Z0 F1000
G1 X56.43 Y67.137 Z0 F1000
G1 X57.591 Y67.53 Z0 F1000
G1 X58.726 Y67.977 Z0 F1000
G1 X59.832 Y68.478 Z0 F1000
G1 X60.91 Y69.03 Z0 F1000
G1 X61.956 Y69.631 Z0 F1000
G1 X62.97 Y70.281 Z0 F1000
G1 X63.95 Y70.978 Z0 F1000
G1 X64.893 Y71.72 Z0 F1000
G1 X65.8 Y72.505 Z0 F1000
G1 X66.668 Y73.332 Z0 F1000
G1 X67.495 Y74.2 Z0 F1000
G1 X68.28 Y75.107 Z0 F1000
G1 X69.022 Y76.05 Z0 F1000
G1 X69.719 Y77.03 Z0 F1000
G1 X70.369 Y78.044 Z0 F1000
G1 X70.97 Y79.09 Z0 F1000
G1 X71.522 Y80.168 Z0 F1000
G1 X72.023 Y81.274 Z0 F1000
G1 X72.47 Y82.409 Z0 F1000
G1 X72.863 Y83.57 Z0 F1000
G1 X73.199 Y84.756 Z0 F1000
G1 X73.478 Y85.964 Z0 F1000
G1 X73.698 Y87.195 Z0 F1000
G1 X73.857 Y88.445 Z0 F1000
G1 X73.954 Y89.714 Z0 F1000
G1 X73.986 Y91 Z0 F1000
G1 X73.954 Y92.286 Z0 F1000
G1 X73.857 Y93.555 Z0 F1000
G1 X73.698 Y94.805 Z0 F1000
G1 X73.478 Y96.036 Z0 F1000
G1 X73.199 Y97.244 Z0 F1000
G1 X72.863 Y98.43 Z0 F1000
G1 X72.47 Y99.591 Z0 F1000
G1 X72.023 Y100.726 Z0 F1000
G1 X71.522 Y101.832 Z0 F1000
G1 X70.97 Y102.91 Z0 F1000
;Cut @ 1500 mm/min, 90% power

M8

; Washing sequence (no color)
G1 Z10 F1000;        ; Raise brush to safe height
G0 X5 Y5 F1200;     ; Rapid move to brush cleaning position
G1 Z-1 F800;         ; Lower brush for cleaning - controlled movement
G1 X10 Y12 Z8 F1200;     ; Rapid move to brush cleaning position
G1 Z-1 F800;         ; Lower brush for cleaning - controlled movement
G1 X25 Y14 Z6 F800;     ; Move across cleaning area - controlled movement
G1 Z8 F800;         ; Maintain brush height - controlled movement
G0 X5 Y5 F1200;     ; Rapid move to brush cleaning position
G1 Z-1 F800;         ; Lower brush for cleaning - controlled movement
G1 X15 Y12 Z8 F1200;     ; Rapid move to brush cleaning position
G1 Z-1 F800;         ; Lower brush for cleaning - controlled movement
G1 X25 Y14 Z6 F800;     ; Move across cleaning area - controlled movement
G1 Z10 F800;         ; Maintain brush height - controlled movement
G1 F1200;           ; Set feed rate to 1000

; Color picking sequence
G1 Z10 F1000;         ; Raise brush to safe height
G0 X131 Y5 F1200;    ; Rapid move to color 1 position
G1 Z0 F1000;         ; Lower into color - controlled movement
G1 X130.102Y7.295Z0S800F1200
G1 X130.026Y7.642Z0F1200
G1 X130Y8Z0F1200
G1 X130.026Y8.358Z0F1200
G1 X130.102Y8.705Z0F1200
G1 X130.225Y9.041Z0F1200
G1 X130.393Y9.362Z0F1200
G1 X130.603Y9.668Z0F1200
G1 X130.854Y9.957Z0F1200
G1 X131.142Y10.226Z0F1200
G1 X131.464Y10.475Z0F1200
G1 X131.82Y10.701Z0F1200
G1 X132.204Y10.902Z0F1200
G1 X132.617Y11.078Z0F1200
G1 X133.054Y11.225Z0F1200
G1 X133.513Y11.343Z0F1200
G1 X133.992Y11.429Z0F1200
G1 X134.489Y11.482Z0F1200
G1 X135Y11.5Z0F1200
G1 X135.511Y11.482Z0F1200
G1 X136.008Y11.429Z0F1200
G1 X136.487Y11.343Z0F1200
G1 X136.946Y11.225Z0F1200
G1 X137.383Y11.078Z0F1200
G1 X137.796Y10.902Z0F1200
G1 X138.18Y10.701Z0F1200
G1 X138.536Y10.475Z0F1200
G1 X138.858Y10.226Z0F1200
G1 X139.146Y9.957Z0F1200
G1 X139.397Y9.668Z0F1200
G1 X139.607Y9.362Z0F1200
G1 X139.775Y9.041Z0F1200
G1 X139.898Y8.705Z0F1200
G1 X139.974Y8.358Z0F1200
G1 X140Y8Z0F1200
G1 X139.974Y7.642Z0F1200
G1 X139.898Y7.295Z0F1200
G1 X139.775Y6.959Z0F1200
G1 X139.607Y6.638Z0F1200
G1 X139.397Y6.332Z0F1200
G1 X139.146Y6.043Z0F1200
G1 X138.858Y5.774Z0F1200
G1 X138.536Y5.525Z0F1200
G1 X138.18Y5.299Z0F1200
G1 X137.796Y5.098Z0F1200
G1 X137.383Y4.922Z0F1200
G1 X136.946Y4.775Z0F1200
G1 X136.487Y4.657Z0F1200
G1 X136.008Y4.571Z0F1200
G1 X135.511Y4.518Z0F1200
G1 X135Y4.5Z0F1200
G1 X134.489Y4.518Z0F1200
G1 X133.992Y4.571Z0F1200
G1 X133.513Y4.657Z0F1200
G1 X133.054Y4.775Z0F1200
G1 X132.617Y4.922Z0F1200
G1 X132.204Y5.098Z0F1200
G1 X131.82Y5.299Z0F1200
G1 X131.464Y5.525Z0F1200
G1 X131.142Y5.774Z0F1200
G1 X130.854Y6.043Z0F1200
G1 X130.603Y6.332Z0F1200
G1 X130.393Y6.638Z0F1200
G1 X130.225Y6.959Z0F1200
G1 Z7 F800;         ; Raise from color - controlled movement
G1 X124 Y8 Z1 F1200;     ; Movement in paint - controlled movement
G1 X114 Y18 Z8 F500;     ; Move in paint - controlled movement
G1 F1200;           ; Set feed rate to 1000
G0 Z3.5 F1000
G0 X21 Y82.321 Z3.5 
G1 Z0 F1000
;Layer C3
G1 X24 Y65 Z0 S900 F1000
G1 X21 Y47.679 Z0 F1000
G1 X15 Z0 F1000
G1 X12 Y65 Z0 F1000
G1 X15 Y82.321 Z0 F1000
G1 X21 Z0 F1000
M9

G90
G1 Z10 F800


; Return to 2,0 wash and park
G1 Z10 F1000;        ; Raise brush to safe height
G0 X5 Y5 F1200;     ; Rapid move to brush cleaning position
G1 Z-1 F800;         ; Lower brush for cleaning - controlled movement
G1 X10 Y12 Z8 F1200;     ; Rapid move to brush cleaning position
G1 Z-1 F800;         ; Lower brush for cleaning - controlled movement
G1 X25 Y14 Z6 F800;     ; Move across cleaning area - controlled movement
G0 X5 Y5 F1200;     ; Rapid move to brush cleaning position
G1 Z-1 F800;         ; Lower brush for cleaning - controlled movement
G1 X15 Y12 Z8 F1200;     ; Rapid move to brush cleaning position
G1 Z-1 F800;         ; Lower brush for cleaning - controlled movement
G1 X25 Y14 Z6 F800;     ; Move across cleaning area - controlled movement
G1 Z10 F800;         ; Maintain brush height - controlled movement
G0 X20 Y130 Z10 F500;; Move to parking position with Z at safe height
M2;                 ; End program
