
G0 Z10 F500;      ; Move to clearance level
; G0 X-10 Y-10 F1200; Homing
; G0 X-5 Y-5 F1200; go in
; G10 P0 L20 X0 Y0; set to zero
G1 F1200;           ; Set feed rate
G90 ; Force absolute mode
;LightBurn 1.6.04
;Custom GCode device profile, absolute coords
;Bounds: X37.55 Y32.95 to X98.45 Y102.3
G00 G17 G40 G21 G54
M3
G1 Z10 F1000

; Color picking sequence
G1 Z10 F1000;         ; Raise brush
G0 X41 Y5 F1200;    ; Rapid move to color 1
G1 Z10 F1000;         ; Raise brush
G0 X41 Y5 F1200;    ; Rapid move to color 1
G1 Z0 F1000;         ; Lower into color
G1 X40.102 Y7.295 Z0 S800 F1200
G1 X40.026 Y7.642 Z0 F1200
G1 X40 Y8 Z0 F1200
G1 X40.026 Y8.358 Z0 F1200
G1 X40.102 Y8.705 Z0 F1200
G1 X40.225 Y9.041 Z0 F1200
G1 X40.393 Y9.362 Z0 F1200
G1 X40.603 Y9.668 Z0 F1200
G1 X40.854 Y9.957 Z0 F1200
G1 X41.142 Y10.226 Z0 F1200
G1 X41.464 Y10.475 Z0 F1200
G1 X41.82 Y10.701 Z0 F1200
G1 X42.204 Y10.902 Z0 F1200
G1 X42.617 Y11.078 Z0 F1200
G1 X43.054 Y11.225 Z0 F1200
G1 X43.513 Y11.343 Z0 F1200
G1 X43.992 Y11.429 Z0 F1200
G1 X44.489 Y11.482 Z0 F1200
G1 X45 Y11.5 Z0 F1200
G1 X45.511 Y11.482 Z0 F1200
G1 X46.008 Y11.429 Z0 F1200
G1 X46.487 Y11.343 Z0 F1200
G1 X46.946 Y11.225 Z0 F1200
G1 X47.383 Y11.078 Z0 F1200
G1 X47.796 Y10.902 Z0 F1200
G1 X48.18 Y10.701 Z0 F1200
G1 X48.536 Y10.475 Z0 F1200
G1 X48.858 Y10.226 Z0 F1200
G1 X49.146 Y9.957 Z0 F1200
G1 X49.397 Y9.668 Z0 F1200
G1 X49.607 Y9.362 Z0 F1200
G1 X49.775 Y9.041 Z0 F1200
G1 X49.898 Y8.705 Z0 F1200
G1 X49.974 Y8.358 Z0 F1200
G1 X50 Y8 Z0 F1200
G1 X49.974 Y7.642 Z0 F1200
G1 X49.898 Y7.295 Z0 F1200
G1 X49.775 Y6.959 Z0 F1200
G1 X49.607 Y6.638 Z0 F1200
G1 X49.397 Y6.332 Z0 F1200
G1 X49.146 Y6.043 Z0 F1200
G1 X48.858 Y5.774 Z0 F1200
G1 X48.536 Y5.525 Z0 F1200
G1 X48.18 Y5.299 Z0 F1200
G1 X47.796 Y5.098 Z0 F1200
G1 X47.383 Y4.922 Z0 F1200
G1 X46.946 Y4.775 Z0 F1200
G1 X46.487 Y4.657 Z0 F1200
G1 X46.008 Y4.571 Z0 F1200
G1 X45.511 Y4.518 Z0 F1200
G1 X45 Y4.5 Z0 F1200
G1 X44.489 Y4.518 Z0 F1200
G1 X43.992 Y4.571 Z0 F1200
G1 X43.513 Y4.657 Z0 F1200
G1 X43.054 Y4.775 Z0 F1200
G1 X42.617 Y4.922 Z0 F1200
G1 X42.204 Y5.098 Z0 F1200
G1 X41.82 Y5.299 Z0 F1200
G1 X41.464 Y5.525 Z0 F1200
G1 X41.142 Y5.774 Z0 F1200
G1 X40.854 Y6.043 Z0 F1200
G1 X40.603 Y6.332 Z0 F1200
G1 X40.393 Y6.638 Z0 F1200
G1 X40.225 Y6.959 Z0 F1200
G1 Z7 F800;         ; Raise from color
G1 X34 Y8 Z1 F1200;     ; Movement in paint
G1 X24 Y18 Z8 F500;     ; Move in paint
G1 F1200;           ; Set feed rate
;Scan @ 1500 mm/min, 90% power

M8
G0 Z3.5 F1000
G0 X57.847 Y47.4 Z3.5
G1 Z0 F1000
;Layer C1
G1 X59.237 Z0 S900 F1600
G0 Z5 F500 ; Lift S=0
G1 X76.798 Z5 S0 F1600
G0 Z0 F500 ; Drop S>0
G1 X78.127 Z0 S900 F1600
G0 Z5 F500 ; Lift S=0
G1 X79.364 Y48.3 Z5 S0 F1600
G0 Z0 F500 ; Drop S>0
; --- FIX X Backlash ---
G0 X78.864 Y48.3 Z5 F1200
G1 X75.708 Z0 S900 F1600
G0 Z5 F500 ; Lift S=0
G1 X59.32 Z5 S0 F1600
G0 Z0 F500 ; Drop S>0
G1 X56.105 Z0 S900 F1600
G0 Z5 F500 ; Lift S=0
G1 X54.056 Y49.2 Z5 S0 F1600
G0 Z0 F500 ; Drop S>0
; --- FIX X Backlash ---
G0 X54.556 Y49.2 Z5 F1200
G1 X60.408 Z0 S900 F1600
G0 Z5 F500 ; Lift S=0
G1 X75.61 Z5 S0 F1600
G0 Z0 F500 ; Drop S>0
G1 X81.436 Z0 S900 F1600
G0 Z5 F500 ; Lift S=0
G1 X81.505 Y50.1 Z5 S0 F1600
G0 Z0 F500 ; Drop S>0
; --- FIX X Backlash ---
G0 X81.005 Y50.1 Z5 F1200
G1 X74.513 Z0 S900 F1600
G0 Z5 F500 ; Lift S=0
G1 X60.498 Z5 S0 F1600
G0 Z0 F500 ; Drop S>0
G1 X54.004 Z0 S900 F1600
G0 Z5 F500 ; Lift S=0
; --- FIX X Backlash ---
G0 X54.504 Y50.1 Z5 F1200
G1 X55.016 Y51 Z5 S0 F1600
G0 Z0 F500 ; Drop S>0
G1 X61.593 Z0 S900 F1600
G0 Z5 F500 ; Lift S=0
G1 X74.409 Z5 S0 F1600
G0 Z0 F500 ; Drop S>0
G1 X80.996 Z0 S900 F1600
G0 Z5 F500 ; Lift S=0
; --- FIX X Backlash ---
G0 X80.496 Y51 Z5 F1200
G1 X79.984 Y51.9 Z5 S0 F1600
G0 Z0 F500 ; Drop S>0
G1 X73.297 Z0 S900 F1600
G0 Z5 F500 ; Lift S=0
G1 X61.706 Z5 S0 F1600
G0 Z0 F500 ; Drop S>0
G1 X55.007 Z0 S900 F1600
G0 Z5 F500 ; Lift S=0
; --- FIX X Backlash ---
G0 X55.507 Y51.9 Z5 F1200
G1 X56.012 Y52.8 Z5 S0 F1600
G0 Z0 F500 ; Drop S>0
G1 X62.831 Z0 S900 F1600
G0 Z5 F500 ; Lift S=0
G1 X73.17 Z5 S0 F1600
G0 Z0 F500 ; Drop S>0
G1 X79.985 Z0 S900 F1600
G0 Z5 F500 ; Lift S=0
; --- FIX X Backlash ---
G0 X79.485 Y52.8 Z5 F1200
G1 X79.001 Y53.7 Z5 S0 F1600
G0 Z0 F500 ; Drop S>0
G1 X72.025 Z0 S900 F1600
G0 Z5 F500 ; Lift S=0
G1 X62.966 Z5 S0 F1600
G0 Z0 F500 ; Drop S>0
G1 X55.987 Z0 S900 F1600
G0 Z5 F500 ; Lift S=0
; --- FIX X Backlash ---
G0 X56.487 Y53.7 Z5 F1200
G1 X56.966 Y54.6 Z5 S0 F1600
G0 Z0 F500 ; Drop S>0
G1 X64.074 Z0 S900 F1600
G0 Z5 F500 ; Lift S=0
G1 X71.878 Z5 S0 F1600
G0 Z0 F500 ; Drop S>0
G1 X79.037 Z0 S900 F1600
G0 Z5 F500 ; Lift S=0
; --- FIX X Backlash ---
G0 X78.537 Y54.6 Z5 F1200
G1 X78.086 Y55.5 Z5 S0 F1600
G0 Z0 F500 ; Drop S>0
G1 X72.481 Z0 S900 F1600
G0 Z5 F500 ; Lift S=0
G1 X62.46 Z5 S0 F1600
G0 Z0 F500 ; Drop S>0
G1 X56.906 Z0 S900 F1600
G0 Z5 F500 ; Lift S=0
; --- FIX X Backlash ---
G0 X57.406 Y55.5 Z5 F1200
G1 X57.837 Y56.4 Z5 S0 F1600
G0 Z0 F500 ; Drop S>0
G1 X61.477 Z0 S900 F1600
G0 Z5 F500 ; Lift S=0
G1 X64.077 Z5 S0 F1600
G0 Z0 F500 ; Drop S>0
G1 X66.018 Z0 S900 F1600
G0 Z5 F500 ; Lift S=0
G1 X69.963 Z5 S0 F1600
G0 Z0 F500 ; Drop S>0
G1 X71.882 Z0 S900 F1600
G0 Z5 F500 ; Lift S=0
G1 X74.425 Z5 S0 F1600
G0 Z0 F500 ; Drop S>0
G1 X78.158 Z0 S900 F1600
G0 Z5 F500 ; Lift S=0
; --- FIX X Backlash ---
G0 X77.658 Y56.4 Z5 F1200
G1 X77.235 Y57.3 Z5 S0 F1600
G0 Z0 F500 ; Drop S>0
G1 X75.422 Z0 S900 F1600
G0 Z5 F500 ; Lift S=0
G1 X72.86 Z5 S0 F1600
G0 Z0 F500 ; Drop S>0
G1 X68.569 Z0 S900 F1600
G0 Z5 F500 ; Lift S=0
G1 X66.358 Z5 S0 F1600
G0 Z0 F500 ; Drop S>0
G1 X62.099 Z0 S900 F1600
G0 Z5 F500 ; Lift S=0
G1 X59.494 Z5 S0 F1600
G0 Z0 F500 ; Drop S>0
G1 X57.764 Z0 S900 F1600
G0 Z5 F500 ; Lift S=0
; --- FIX X Backlash ---
G0 X58.264 Y57.3 Z5 F1200
G1 X61.111 Y58.2 Z5 S0 F1600
G0 Z0 F500 ; Drop S>0
G1 X67.655 Z0 S900 F1600
G0 Z5 F500 ; Lift S=0
G1 X69.284 Z5 S0 F1600
G0 Z0 F500 ; Drop S>0
G1 X74.844 Z0 S900 F1600
G0 Z5 F500 ; Lift S=0
G1 X76.294 Y59.1 Z5 S0 F1600
G0 Z0 F500 ; Drop S>0
; --- FIX X Backlash ---
G0 X75.794 Y59.1 Z5 F1200
G1 X69.456 Z0 S900 F1600
G0 Z5 F500 ; Lift S=0
G1 X67.886 Z5 S0 F1600
G0 Z0 F500 ; Drop S>0
G1 X59.092 Z0 S900 F1600
G0 Z5 F500 ; Lift S=0
G1 X58.808 Y60 Z5 S0 F1600
G0 Z0 F500 ; Drop S>0
; --- FIX X Backlash ---
G0 X59.308 Y60 Z5 F1200
G1 X69.054 Z0 S900 F1600
G0 Z5 F500 ; Lift S=0
G1 X70.58 Z5 S0 F1600
G0 Z0 F500 ; Drop S>0
G1 X76.734 Z0 S900 F1600
G0 Z5 F500 ; Lift S=0
; --- FIX X Backlash ---
G0 X76.234 Y60 Z5 F1200
G1 X75.943 Y60.9 Z5 S0 F1600
G0 Z0 F500 ; Drop S>0
G1 X70.677 Z0 S900 F1600
G0 Z5 F500 ; Lift S=0
G1 X69.163 Z5 S0 F1600
G0 Z0 F500 ; Drop S>0
G1 X59.074 Z0 S900 F1600
G0 Z5 F500 ; Lift S=0
; --- FIX X Backlash ---
G0 X59.574 Y60.9 Z5 F1200
G1 X59.866 Y61.8 Z5 S0 F1600
G0 Z0 F500 ; Drop S>0
G1 X70.228 Z0 S900 F1600
G0 Z5 F500 ; Lift S=0
G1 X71.74 Z5 S0 F1600
G0 Z0 F500 ; Drop S>0
G1 X76.136 Z0 S900 F1600
G0 Z5 F500 ; Lift S=0
; --- FIX X Backlash ---
G0 X75.636 Y61.8 Z5 F1200
G1 X75.31 Y62.7 Z5 S0 F1600
G0 Z0 F500 ; Drop S>0
G1 X71.736 Z0 S900 F1600
G0 Z5 F500 ; Lift S=0
G1 X70.257 Z5 S0 F1600
G0 Z0 F500 ; Drop S>0
G1 X59.69 Z0 S900 F1600
G0 Z5 F500 ; Lift S=0
; --- FIX X Backlash ---
G0 X60.19 Y62.7 Z5 F1200
G1 X60.539 Y63.6 Z5 S0 F1600
G0 Z0 F500 ; Drop S>0
G1 X71.257 Z0 S900 F1600
G0 Z5 F500 ; Lift S=0
G1 X72.71 Z5 S0 F1600
G0 Z0 F500 ; Drop S>0
G1 X75.46 Z0 S900 F1600
G0 Z5 F500 ; Lift S=0
; --- FIX X Backlash ---
G0 X74.96 Y63.6 Z5 F1200
G1 X74.596 Y64.5 Z5 S0 F1600
G0 Z0 F500 ; Drop S>0
G1 X72.682 Z0 S900 F1600
G0 Z5 F500 ; Lift S=0
G1 X71.234 Z5 S0 F1600
G0 Z0 F500 ; Drop S>0
G1 X60.429 Z0 S900 F1600
G0 Z5 F500 ; Lift S=0
; --- FIX X Backlash ---
G0 X60.929 Y64.5 Z5 F1200
G1 X61.362 Y65.4 Z5 S0 F1600
G0 Z0 F500 ; Drop S>0
G1 X72.191 Z0 S900 F1600
G0 Z5 F500 ; Lift S=0
G1 X73.643 Z5 S0 F1600
G0 Z0 F500 ; Drop S>0
G1 X74.729 Z0 S900 F1600
G0 Z5 F500 ; Lift S=0
; --- FIX X Backlash ---
G0 X74.229 Y65.4 Z5 F1200
G1 X73.863 Y66.3 Z5 S0 F1600
G0 Z0 F500 ; Drop S>0
G1 X73.611 Z0 S900 F1600
G0 Z5 F500 ; Lift S=0
G1 X72.135 Z5 S0 F1600
G0 Z0 F500 ; Drop S>0
G1 X61.337 Z0 S900 F1600
G0 Z5 F500 ; Lift S=0
; --- FIX X Backlash ---
G0 X61.837 Y66.3 Z5 F1200
G1 X62.35 Y67.2 Z5 S0 F1600
G0 Z0 F500 ; Drop S>0
G1 X73.067 Z0 S900 F1600
G0 Z5 F500 ; Lift S=0
G1 X73.488 Y68.1 Z5 S0 F1600
G0 Z0 F500 ; Drop S>0
; --- FIX X Backlash ---
G0 X72.988 Y68.1 Z5 F1200
G1 X62.401 Z0 S900 F1600
G0 Z5 F500 ; Lift S=0
; --- FIX X Backlash ---
G0 X62.901 Y68.1 Z5 F1200
G1 X63.48 Y69 Z5 S0 F1600
G0 Z0 F500 ; Drop S>0
G1 X73.902 Z0 S900 F1600
G0 Z5 F500 ; Lift S=0
G1 X74.309 Y69.9 Z5 S0 F1600
G0 Z0 F500 ; Drop S>0
; --- FIX X Backlash ---
G0 X73.809 Y69.9 Z5 F1200
G1 X63.581 Z0 S900 F1600
G0 Z5 F500 ; Lift S=0
G1 X62.048 Z5 S0 F1600
G0 Z0 F500 ; Drop S>0
G1 X61.218 Z0 S900 F1600
G0 Z5 F500 ; Lift S=0
G1 X60.805 Y70.8 Z5 S0 F1600
G0 Z0 F500 ; Drop S>0
; --- FIX X Backlash ---
G0 X61.305 Y70.8 Z5 F1200
G1 X63.122 Z0 S900 F1600
G0 Z5 F500 ; Lift S=0
G1 X64.698 Z5 S0 F1600
G0 Z0 F500 ; Drop S>0
G1 X74.711 Z0 S900 F1600
G0 Z5 F500 ; Lift S=0
G1 X75.109 Y71.7 Z5 S0 F1600
G0 Z0 F500 ; Drop S>0
; --- FIX X Backlash ---
G0 X74.609 Y71.7 Z5 F1200
G1 X64.827 Z0 S900 F1600
G0 Z5 F500 ; Lift S=0
G1 X63.23 Z5 S0 F1600
G0 Z0 F500 ; Drop S>0
G1 X60.402 Z0 S900 F1600
G0 Z5 F500 ; Lift S=0
G1 X60.003 Y72.6 Z5 S0 F1600
G0 Z0 F500 ; Drop S>0
; --- FIX X Backlash ---
G0 X60.503 Y72.6 Z5 F1200
G1 X64.352 Z0 S900 F1600
G0 Z5 F500 ; Lift S=0
G1 X65.96 Z5 S0 F1600
G0 Z0 F500 ; Drop S>0
G1 X75.508 Z0 S900 F1600
G0 Z5 F500 ; Lift S=0
G1 X75.907 Y73.5 Z5 S0 F1600
G0 Z0 F500 ; Drop S>0
; --- FIX X Backlash ---
G0 X75.407 Y73.5 Z5 F1200
G1 X66.091 Z0 S900 F1600
G0 Z5 F500 ; Lift S=0
G1 X64.482 Z5 S0 F1600
G0 Z0 F500 ; Drop S>0
G1 X59.601 Z0 S900 F1600
G0 Z5 F500 ; Lift S=0
G1 X59.219 Y74.4 Z5 S0 F1600
G0 Z0 F500 ; Drop S>0
; --- FIX X Backlash ---
G0 X59.719 Y74.4 Z5 F1200
G1 X65.616 Z0 S900 F1600
G0 Z5 F500 ; Lift S=0
G1 X67.22 Z5 S0 F1600
G0 Z0 F500 ; Drop S>0
G1 X76.307 Z0 S900 F1600
G0 Z5 F500 ; Lift S=0
G1 X76.707 Y75.3 Z5 S0 F1600
G0 Z0 F500 ; Drop S>0
; --- FIX X Backlash ---
G0 X76.207 Y75.3 Z5 F1200
G1 X67.353 Z0 S900 F1600
G0 Z5 F500 ; Lift S=0
G1 X65.748 Z5 S0 F1600
G0 Z0 F500 ; Drop S>0
G1 X58.819 Z0 S900 F1600
G0 Z5 F500 ; Lift S=0
G1 X58.417 Y76.2 Z5 S0 F1600
G0 Z0 F500 ; Drop S>0
; --- FIX X Backlash ---
G0 X58.917 Y76.2 Z5 F1200
G1 X66.863 Z0 S900 F1600
G0 Z5 F500 ; Lift S=0
G1 X68.489 Z5 S0 F1600
G0 Z0 F500 ; Drop S>0
G1 X77.102 Z0 S900 F1600
G0 Z5 F500 ; Lift S=0
G1 X77.497 Y77.1 Z5 S0 F1600
G0 Z0 F500 ; Drop S>0
; --- FIX X Backlash ---
G0 X76.997 Y77.1 Z5 F1200
G1 X68.628 Z0 S900 F1600
G0 Z5 F500 ; Lift S=0
G1 X66.307 Z5 S0 F1600
G0 Z0 F500 ; Drop S>0
G1 X58.02 Z0 S900 F1600
G0 Z5 F500 ; Lift S=0
G1 X57.624 Y78 Z5 S0 F1600
G0 Z0 F500 ; Drop S>0
; --- FIX X Backlash ---
G0 X58.124 Y78 Z5 F1200
G1 X66.171 Z0 S900 F1600
G0 Z5 F500 ; Lift S=0
G1 X69.77 Z5 S0 F1600
G0 Z0 F500 ; Drop S>0
G1 X77.892 Z0 S900 F1600
G0 Z5 F500 ; Lift S=0
G1 X78.286 Y78.9 Z5 S0 F1600
G0 Z0 F500 ; Drop S>0
; --- FIX X Backlash ---
G0 X77.786 Y78.9 Z5 F1200
G1 X69.918 Z0 S900 F1600
G0 Z5 F500 ; Lift S=0
G1 X65.019 Z5 S0 F1600
G0 Z0 F500 ; Drop S>0
G1 X57.227 Z0 S900 F1600
G0 Z5 F500 ; Lift S=0
G1 X56.83 Y79.8 Z5 S0 F1600
G0 Z0 F500 ; Drop S>0
; --- FIX X Backlash ---
G0 X57.33 Y79.8 Z5 F1200
G1 X64.877 Z0 S900 F1600
G0 Z5 F500 ; Lift S=0
G1 X71.078 Z5 S0 F1600
G0 Z0 F500 ; Drop S>0
G1 X78.681 Z0 S900 F1600
G0 Z5 F500 ; Lift S=0
G1 X79.076 Y80.7 Z5 S0 F1600
G0 Z0 F500 ; Drop S>0
; --- FIX X Backlash ---
G0 X78.576 Y80.7 Z5 F1200
G1 X71.225 Z0 S900 F1600
G0 Z5 F500 ; Lift S=0
G1 X63.739 Z5 S0 F1600
G0 Z0 F500 ; Drop S>0
G1 X56.432 Z0 S900 F1600
G0 Z5 F500 ; Lift S=0
G1 X56.032 Y81.6 Z5 S0 F1600
G0 Z0 F500 ; Drop S>0
; --- FIX X Backlash ---
G0 X56.532 Y81.6 Z5 F1200
G1 X63.598 Z0 S900 F1600
G0 Z5 F500 ; Lift S=0
G1 X72.37 Z5 S0 F1600
G0 Z0 F500 ; Drop S>0
G1 X79.47 Z0 S900 F1600
G0 Z5 F500 ; Lift S=0
G1 X79.864 Y82.5 Z5 S0 F1600
G0 Z0 F500 ; Drop S>0
; --- FIX X Backlash ---
G0 X79.364 Y82.5 Z5 F1200
G1 X72.515 Z0 S900 F1600
G0 Z5 F500 ; Lift S=0
G1 X62.457 Z5 S0 F1600
G0 Z0 F500 ; Drop S>0
G1 X55.635 Z0 S900 F1600
G0 Z5 F500 ; Lift S=0
G1 X55.239 Y83.4 Z5 S0 F1600
G0 Z0 F500 ; Drop S>0
; --- FIX X Backlash ---
G0 X55.739 Y83.4 Z5 F1200
G1 X62.315 Z0 S900 F1600
G0 Z5 F500 ; Lift S=0
G1 X73.66 Z5 S0 F1600
G0 Z0 F500 ; Drop S>0
G1 X80.258 Z0 S900 F1600
G0 Z5 F500 ; Lift S=0
G1 X80.652 Y84.3 Z5 S0 F1600
G0 Z0 F500 ; Drop S>0
; --- FIX X Backlash ---
G0 X80.152 Y84.3 Z5 F1200
G1 X73.805 Z0 S900 F1600
G0 Z5 F500 ; Lift S=0
G1 X61.173 Z5 S0 F1600
G0 Z0 F500 ; Drop S>0
G1 X54.843 Z0 S900 F1600
G0 Z5 F500 ; Lift S=0
G1 X54.449 Y85.2 Z5 S0 F1600
G0 Z0 F500 ; Drop S>0
; --- FIX X Backlash ---
G0 X54.949 Y85.2 Z5 F1200
G1 X61.032 Z0 S900 F1600
G0 Z5 F500 ; Lift S=0
G1 X74.95 Z5 S0 F1600
G0 Z0 F500 ; Drop S>0
G1 X81.046 Z0 S900 F1600
G0 Z5 F500 ; Lift S=0
G1 X81.439 Y86.1 Z5 S0 F1600
G0 Z0 F500 ; Drop S>0
; --- FIX X Backlash ---
G0 X80.939 Y86.1 Z5 F1200
G1 X75.095 Z0 S900 F1600
G0 Z5 F500 ; Lift S=0
G1 X59.894 Z5 S0 F1600
G0 Z0 F500 ; Drop S>0
G1 X54.056 Z0 S900 F1600
G0 Z5 F500 ; Lift S=0
G1 X53.656 Y87 Z5 S0 F1600
G0 Z0 F500 ; Drop S>0
; --- FIX X Backlash ---
G0 X54.156 Y87 Z5 F1200
G1 X59.761 Z0 S900 F1600
G0 Z5 F500 ; Lift S=0
G1 X76.238 Z5 S0 F1600
G0 Z0 F500 ; Drop S>0
G1 X81.834 Z0 S900 F1600
G0 Z5 F500 ; Lift S=0
G1 X82.228 Y87.9 Z5 S0 F1600
G0 Z0 F500 ; Drop S>0
; --- FIX X Backlash ---
G0 X81.728 Y87.9 Z5 F1200
G1 X76.382 Z0 S900 F1600
G0 Z5 F500 ; Lift S=0
G1 X58.625 Z5 S0 F1600
G0 Z0 F500 ; Drop S>0
G1 X53.257 Z0 S900 F1600
G0 Z5 F500 ; Lift S=0
G1 X52.863 Y88.8 Z5 S0 F1600
G0 Z0 F500 ; Drop S>0
; --- FIX X Backlash ---
G0 X53.363 Y88.8 Z5 F1200
G1 X58.488 Z0 S900 F1600
G0 Z5 F500 ; Lift S=0
G1 X77.526 Z5 S0 F1600
G0 Z0 F500 ; Drop S>0
G1 X82.623 Z0 S900 F1600
G0 Z5 F500 ; Lift S=0
G1 X83.017 Y89.7 Z5 S0 F1600
G0 Z0 F500 ; Drop S>0
; --- FIX X Backlash ---
G0 X82.517 Y89.7 Z5 F1200
G1 X77.669 Z0 S900 F1600
G0 Z5 F500 ; Lift S=0
G1 X57.351 Z5 S0 F1600
G0 Z0 F500 ; Drop S>0
G1 X52.47 Z0 S900 F1600
G0 Z5 F500 ; Lift S=0
G1 X52.077 Y90.6 Z5 S0 F1600
G0 Z0 F500 ; Drop S>0
; --- FIX X Backlash ---
G0 X52.577 Y90.6 Z5 F1200
G1 X57.215 Z0 S900 F1600
G0 Z5 F500 ; Lift S=0
G1 X78.811 Z5 S0 F1600
G0 Z0 F500 ; Drop S>0
G1 X83.412 Z0 S900 F1600
G0 Z5 F500 ; Lift S=0
G1 X83.809 Y91.5 Z5 S0 F1600
G0 Z0 F500 ; Drop S>0
; --- FIX X Backlash ---
G0 X83.309 Y91.5 Z5 F1200
G1 X78.943 Z0 S900 F1600
G0 Z5 F500 ; Lift S=0
G1 X56.08 Z5 S0 F1600
G0 Z0 F500 ; Drop S>0
G1 X51.683 Z0 S900 F1600
G0 Z5 F500 ; Lift S=0
G1 X51.29 Y92.4 Z5 S0 F1600
G0 Z0 F500 ; Drop S>0
; --- FIX X Backlash ---
G0 X51.79 Y92.4 Z5 F1200
G1 X55.948 Z0 S900 F1600
G0 Z5 F500 ; Lift S=0
G1 X80.073 Z5 S0 F1600
G0 Z0 F500 ; Drop S>0
G1 X84.207 Z0 S900 F1600
G0 Z5 F500 ; Lift S=0
G1 X84.593 Y93.3 Z5 S0 F1600
G0 Z0 F500 ; Drop S>0
; --- FIX X Backlash ---
G0 X84.093 Y93.3 Z5 F1200
G1 X80.207 Z0 S900 F1600
G0 Z5 F500 ; Lift S=0
G1 X54.822 Z5 S0 F1600
G0 Z0 F500 ; Drop S>0
G1 X50.905 Z0 S900 F1600
G0 Z5 F500 ; Lift S=0
G1 X50.537 Y94.2 Z5 S0 F1600
G0 Z0 F500 ; Drop S>0
; --- FIX X Backlash ---
G0 X51.037 Y94.2 Z5 F1200
G1 X54.698 Z0 S900 F1600
G0 Z5 F500 ; Lift S=0
G1 X81.34 Z5 S0 F1600
G0 Z0 F500 ; Drop S>0
G1 X84.992 Z0 S900 F1600
G0 Z5 F500 ; Lift S=0
G1 X85.38 Y95.1 Z5 S0 F1600
G0 Z0 F500 ; Drop S>0
; --- FIX X Backlash ---
G0 X84.88 Y95.1 Z5 F1200
G1 X81.469 Z0 S900 F1600
G0 Z5 F500 ; Lift S=0
G1 X53.568 Z5 S0 F1600
G0 Z0 F500 ; Drop S>0
G1 X50.137 Z0 S900 F1600
G0 Z5 F500 ; Lift S=0
G1 X49.75 Y96 Z5 S0 F1600
G0 Z0 F500 ; Drop S>0
; --- FIX X Backlash ---
G0 X50.25 Y96 Z5 F1200
G1 X53.434 Z0 S900 F1600
G0 Z5 F500 ; Lift S=0
G1 X82.594 Z5 S0 F1600
G0 Z0 F500 ; Drop S>0
G1 X85.765 Z0 S900 F1600
G0 Z5 F500 ; Lift S=0
G1 X86.15 Y96.9 Z5 S0 F1600
G0 Z0 F500 ; Drop S>0
; --- FIX X Backlash ---
G0 X85.65 Y96.9 Z5 F1200
G1 X82.718 Z0 S900 F1600
G0 Z5 F500 ; Lift S=0
G1 X52.301 Z5 S0 F1600
G0 Z0 F500 ; Drop S>0
G1 X49.363 Z0 S900 F1600
G0 Z5 F500 ; Lift S=0
G1 X48.979 Y97.8 Z5 S0 F1600
G0 Z0 F500 ; Drop S>0
; --- FIX X Backlash ---
G0 X49.479 Y97.8 Z5 F1200
G1 X52.175 Z0 S900 F1600
G0 Z5 F500 ; Lift S=0
G1 X83.845 Z5 S0 F1600
G0 Z0 F500 ; Drop S>0
G1 X86.535 Z0 S900 F1600
G0 Z5 F500 ; Lift S=0
G1 X86.92 Y98.7 Z5 S0 F1600
G0 Z0 F500 ; Drop S>0
; --- FIX X Backlash ---
G0 X86.42 Y98.7 Z5 F1200
G1 X83.968 Z0 S900 F1600
G0 Z5 F500 ; Lift S=0
G1 X51.05 Z5 S0 F1600
G0 Z0 F500 ; Drop S>0
G1 X48.595 Z0 S900 F1600
G0 Z5 F500 ; Lift S=0
G1 X48.212 Y99.6 Z5 S0 F1600
G0 Z0 F500 ; Drop S>0
; --- FIX X Backlash ---
G0 X48.712 Y99.6 Z5 F1200
G1 X50.926 Z0 S900 F1600
G0 Z5 F500 ; Lift S=0
G1 X85.093 Z5 S0 F1600
G0 Z0 F500 ; Drop S>0
G1 X87.303 Z0 S900 F1600
G0 Z5 F500 ; Lift S=0
G1 X87.679 Y100.5 Z5 S0 F1600
G0 Z0 F500 ; Drop S>0
; --- FIX X Backlash ---
G0 X87.179 Y100.5 Z5 F1200
G1 X85.225 Z0 S900 F1600
G0 Z5 F500 ; Lift S=0
G1 X49.801 Z5 S0 F1600
G0 Z0 F500 ; Drop S>0
G1 X47.83 Z0 S900 F1600
G0 Z5 F500 ; Lift S=0
G1 X47.448 Y101.4 Z5 S0 F1600
G0 Z0 F500 ; Drop S>0
; --- FIX X Backlash ---
G0 X47.948 Y101.4 Z5 F1200
G1 X49.671 Z0 S900 F1600
G0 Z5 F500 ; Lift S=0
G1 X86.341 Z5 S0 F1600
G0 Z0 F500 ; Drop S>0
G1 X88.045 Z0 S900 F1600
G0 Z5 F500 ; Lift S=0
G1 X88.383 Y102.3 Z5 S0 F1600
G0 Z0 F500 ; Drop S>0
; --- FIX X Backlash ---
G0 X87.883 Y102.3 Z5 F1200
G1 X86.463 Z0 S900 F1600
G0 Z5 F500 ; Lift S=0
G1 X48.516 Z5 S0 F1600
G0 Z0 F500 ; Drop S>0
G1 X47.126 Z0 S900 F1600

; Washing sequence (no color)
G1 Z10 F1000;        ; Raise brush
G0 X5 Y5 F1200;     ; Rapid move to clean
G1 Z-1 F800;         ; Lower brush
G1 X10 Y12 Z8 F1200;     ; Move
G1 Z-1 F800;         ; Lower
G1 X25 Y14 Z6 F800;     ; Move
G1 Z8 F800;         ; Maintain
G0 X5 Y5 F1200;     ; Rapid
G1 Z-1 F800;         ; Lower
G1 X15 Y12 Z8 F1200;     ; Move
G1 Z-1 F800;         ; Lower
G1 X25 Y14 Z6 F800;     ; Move
G1 Z10 F800;         ; Maintain
G1 F1200;           ; Set feed

; Color picking sequence
G1 Z10 F1000;         ; Raise brush
G0 X86 Y5 F1200;    ; Rapid move to color 1
G1 Z10 F1000;         ; Raise brush
G0 X86 Y5 F1200;    ; Rapid move to color 1
G1 Z0 F1000;         ; Lower into color
G1 X85.102 Y7.295 Z0 S800 F1200
G1 X85.026 Y7.642 Z0 F1200
G1 X85 Y8 Z0 F1200
G1 X85.026 Y8.358 Z0 F1200
G1 X85.102 Y8.705 Z0 F1200
G1 X85.225 Y9.041 Z0 F1200
G1 X85.393 Y9.362 Z0 F1200
G1 X85.603 Y9.668 Z0 F1200
G1 X85.854 Y9.957 Z0 F1200
G1 X86.142 Y10.226 Z0 F1200
G1 X86.464 Y10.475 Z0 F1200
G1 X86.82 Y10.701 Z0 F1200
G1 X87.204 Y10.902 Z0 F1200
G1 X87.617 Y11.078 Z0 F1200
G1 X88.054 Y11.225 Z0 F1200
G1 X88.513 Y11.343 Z0 F1200
G1 X88.992 Y11.429 Z0 F1200
G1 X89.489 Y11.482 Z0 F1200
G1 X90 Y11.5 Z0 F1200
G1 X90.511 Y11.482 Z0 F1200
G1 X91.008 Y11.429 Z0 F1200
G1 X91.487 Y11.343 Z0 F1200
G1 X91.946 Y11.225 Z0 F1200
G1 X92.383 Y11.078 Z0 F1200
G1 X92.796 Y10.902 Z0 F1200
G1 X93.18 Y10.701 Z0 F1200
G1 X93.536 Y10.475 Z0 F1200
G1 X93.858 Y10.226 Z0 F1200
G1 X94.146 Y9.957 Z0 F1200
G1 X94.397 Y9.668 Z0 F1200
G1 X94.607 Y9.362 Z0 F1200
G1 X94.775 Y9.041 Z0 F1200
G1 X94.898 Y8.705 Z0 F1200
G1 X94.974 Y8.358 Z0 F1200
G1 X95 Y8 Z0 F1200
G1 X94.974 Y7.642 Z0 F1200
G1 X94.898 Y7.295 Z0 F1200
G1 X94.775 Y6.959 Z0 F1200
G1 X94.607 Y6.638 Z0 F1200
G1 X94.397 Y6.332 Z0 F1200
G1 X94.146 Y6.043 Z0 F1200
G1 X93.858 Y5.774 Z0 F1200
G1 X93.536 Y5.525 Z0 F1200
G1 X93.18 Y5.299 Z0 F1200
G1 X92.796 Y5.098 Z0 F1200
G1 X92.383 Y4.922 Z0 F1200
G1 X91.946 Y4.775 Z0 F1200
G1 X91.487 Y4.657 Z0 F1200
G1 X91.008 Y4.571 Z0 F1200
G1 X90.511 Y4.518 Z0 F1200
G1 X90 Y4.5 Z0 F1200
G1 X89.489 Y4.518 Z0 F1200
G1 X88.992 Y4.571 Z0 F1200
G1 X88.513 Y4.657 Z0 F1200
G1 X88.054 Y4.775 Z0 F1200
G1 X87.617 Y4.922 Z0 F1200
G1 X87.204 Y5.098 Z0 F1200
G1 X86.82 Y5.299 Z0 F1200
G1 X86.464 Y5.525 Z0 F1200
G1 X86.142 Y5.774 Z0 F1200
G1 X85.854 Y6.043 Z0 F1200
G1 X85.603 Y6.332 Z0 F1200
G1 X85.393 Y6.638 Z0 F1200
G1 X85.225 Y6.959 Z0 F1200
G1 Z7 F800;         ; Raise from color
G1 X79 Y8 Z1 F1200;     ; Movement in paint
G1 X69 Y18 Z8 F500;     ; Move in paint
G1 F1200;           ; Set feed rate
;Offset @ 1500 mm/min, 90% power

M8
G0 Z3.5 F1000
; --- FIX X Backlash ---
G0 X47.626 Y102.3 Z5 F1200
; --- FIX Y Backlash ---
G0 X47.626 Y101.8 Z5 F1200
G0 X48.258 Y33.783 Z3.5 F1500
G1 Z0 F1000
;Layer C2
; --- FIX Y Backlash ---
G0 X48.258 Y34.283 Z5 F1200
G1 X49.058 Y34.605 Z0 F1600
G1 X49.862 Y34.955 Z0 F1600
G1 X50.682 Y35.337 Z0 F1600
G1 X51.459 Y35.724 Z0 F1600
G1 X52.189 Y36.112 Z0 F1600
G1 X52.864 Y36.5 Z0 F1600
G1 X53.441 Y36.863 Z0 F1600
G1 X53.97 Y37.23 Z0 F1600
G1 X54.462 Y37.601 Z0 F1600
G1 X54.926 Y37.981 Z0 F1600
G1 X55.356 Y38.367 Z0 F1600
G1 X55.756 Y38.761 Z0 F1600
G1 X56.114 Y39.148 Z0 F1600
G1 X56.438 Y39.539 Z0 F1600
G1 X56.736 Y39.941 Z0 F1600
G1 X56.992 Y40.333 Z0 F1600
G1 X57.212 Y40.722 Z0 F1600
G1 X57.401 Y41.114 Z0 F1600
G1 X57.552 Y41.496 Z0 F1600
G1 X57.669 Y41.874 Z0 F1600
G1 X57.75 Y42.242 Z0 F1600
G1 X57.801 Y42.617 Z0 F1600
G1 X57.818 Y42.981 Z0 F1600
G1 X57.812 Y43.19 Z0 F1600
; --- FIX Y Backlash ---
G0 X57.812 Y42.69 Z5 F1200
G1 X57.763 Y42.587 Z0 F1600
; --- FIX X Backlash ---
G0 X57.263 Y42.587 Z5 F1200
G1 X56.953 Y41.995 Z0 F1600
G1 X56.619 Y41.404 Z0 F1600
G1 X56.265 Y40.827 Z0 F1600
G1 X55.898 Y40.274 Z0 F1600
G1 X55.524 Y39.758 Z0 F1600
G1 X54.987 Y39.087 Z0 F1600
G1 X54.419 Y38.445 Z0 F1600
G1 X53.825 Y37.833 Z0 F1600
G1 X53.207 Y37.256 Z0 F1600
G1 X52.568 Y36.714 Z0 F1600
G1 X51.911 Y36.213 Z0 F1600
G1 X51.239 Y35.754 Z0 F1600
G1 X50.563 Y35.345 Z0 F1600
G1 X50.263 Y35.179 Z0 F1600
G1 X50.005 Y35.049 Z0 F1600
G1 X49.444 Y34.85 Z0 F1600
; --- FIX Y Backlash ---
G0 X49.444 Y35.35 Z5 F1200
G1 X48.429 Y35.945 Z0 F1600
; --- FIX Y Backlash ---
G0 X48.429 Y35.445 Z5 F1200
G1 X47.608 Y35.376 Z0 F1600
; --- FIX Y Backlash ---
G0 X47.608 Y35.876 Z5 F1200
G1 X47.354 Y36.709 Z0 F1600
G1 X47.341 Y36.922 Z0 F1600
G1 X47.346 Y37.083 Z0 F1600
G1 X47.371 Y37.395 Z0 F1600
G1 X47.417 Y37.773 Z0 F1600
; --- FIX X Backlash ---
G0 X47.917 Y37.773 Z5 F1200
G1 X48.048 Y38.613 Z0 F1600
G1 X48.216 Y39.42 Z0 F1600
G1 X48.48 Y40.402 Z0 F1600
G1 X48.778 Y41.341 Z0 F1600
G1 X49.113 Y42.249 Z0 F1600
G1 X49.488 Y43.131 Z0 F1600
G1 X49.905 Y43.99 Z0 F1600
G1 X50.366 Y44.831 Z0 F1600
G1 X50.872 Y45.658 Z0 F1600
G1 X51.423 Y46.473 Z0 F1600
G1 X51.905 Y47.131 Z0 F1600
G1 X51.926 Y47.159 Z0 F1600
; --- FIX X Backlash ---
G0 X51.426 Y47.159 Z5 F1200
G1 X51.334 Y47.133 Z0 F1600
; --- FIX Y Backlash ---
G0 X51.334 Y46.633 Z5 F1200
G1 X51.158 Y46.558 Z0 F1600
G1 X50.955 Y46.443 Z0 F1600
G1 X50.725 Y46.284 Z0 F1600
G1 X50.47 Y46.077 Z0 F1600
G1 X50.178 Y45.807 Z0 F1600
G1 X49.874 Y45.498 Z0 F1600
G1 X49.535 Y45.125 Z0 F1600
G1 X49.454 Y45.021 Z0 F1600
G1 X49.329 Y44.844 Z0 F1600
G1 X49.177 Y44.611 Z0 F1600
G1 X49.016 Y44.353 Z0 F1600
G1 X48.687 Y43.785 Z0 F1600
G1 X48.4 Y43.239 Z0 F1600
G1 X48.231 Y42.868 Z0 F1600
G1 X48.076 Y42.474 Z0 F1600
G1 X47.934 Y42.053 Z0 F1600
G1 X47.801 Y41.586 Z0 F1600
G1 X47.685 Y41.101 Z0 F1600
G1 X47.568 Y40.525 Z0 F1600
G1 X47.465 Y39.918 Z0 F1600
G1 X47.372 Y39.269 Z0 F1600
G1 X47.357 Y39.13 Z0 F1600
G1 X47.342 Y38.913 Z0 F1600
G1 X47.329 Y38.648 Z0 F1600
G1 X47.317 Y38.334 Z0 F1600
G1 X47.298 Y37.602 Z0 F1600
G1 X47.286 Y36.8 Z0 F1600
G1 X47.283 Y36.011 Z0 F1600
G1 X47.289 Y35.286 Z0 F1600
G1 X47.295 Y34.967 Z0 F1600
G1 X47.303 Y34.72 Z0 F1600
G1 X47.314 Y34.505 Z0 F1600
G1 X47.325 Y34.393 Z0 F1600
; --- FIX X Backlash ---
G0 X47.825 Y34.393 Z5 F1200
G1 X47.919 Y33.659 Z0 F1600
; --- FIX Y Backlash ---
G0 X47.919 Y34.159 Z5 F1200
G1 X48.258 Y34.283 Z0 F1600
G0 Z3.5 F1000
G0 X50.261 Y37.979 Z3.5
G1 Z0 F1000
G1 X50.603 Y38.327 Z0 F1600
G1 X51.021 Y38.761 Z0 F1600
G1 X51.244 Y39.001 Z0 F1600
G1 X51.462 Y39.243 Z0 F1600
G1 X51.669 Y39.482 Z0 F1600
G1 X51.917 Y39.773 Z0 F1600
G1 X52.209 Y40.122 Z0 F1600
G1 X53.035 Y41.164 Z0 F1600
G1 X53.759 Y42.188 Z0 F1600
G1 X54.405 Y43.229 Z0 F1600
G1 X54.988 Y44.307 Z0 F1600
G1 X55.317 Y45.008 Z0 F1600
G1 X55.614 Y45.71 Z0 F1600
G1 X55.741 Y46.039 Z0 F1600
G1 X55.769 Y46.116 Z0 F1600
; --- FIX X Backlash ---
G0 X55.269 Y46.116 Z5 F1200
G1 X55.202 Y46.168 Z0 F1600
G1 X54.778 Y46.45 Z0 F1600
G1 X54.73 Y46.475 Z0 F1600
; --- FIX Y Backlash ---
G0 X54.73 Y45.975 Z5 F1200
G1 X54.589 Y45.8 Z0 F1600
G1 X54.403 Y45.563 Z0 F1600
G1 X54.206 Y45.302 Z0 F1600
G1 X53.766 Y44.702 Z0 F1600
G1 X53.323 Y44.073 Z0 F1600
G1 X52.886 Y43.43 Z0 F1600
G1 X52.486 Y42.817 Z0 F1600
G1 X52.124 Y42.235 Z0 F1600
G1 X51.822 Y41.718 Z0 F1600
G1 X51.279 Y40.704 Z0 F1600
G1 X50.733 Y39.613 Z0 F1600
G1 X50.204 Y38.487 Z0 F1600
G1 X49.761 Y37.479 Z0 F1600
G0 Z3.5 F1000
G0 X49.516 Y35.892 Z3.5
G1 Z0 F1000
G1 X49.549 Y35.941 Z0 F1600
; --- FIX X Backlash ---
G0 X50.049 Y35.941 Z5 F1200
; --- FIX Y Backlash ---
G0 X50.049 Y36.441 Z5 F1200
G1 X50.101 Y36.508 Z0 F1600
G1 X50.174 Y36.591 Z0 F1600
G1 X50.267 Y36.692 Z0 F1600
G1 X50.512 Y36.949 Z0 F1600
G1 X51.251 Y37.703 Z0 F1600
G1 X51.68 Y38.148 Z0 F1600
G1 X51.914 Y38.399 Z0 F1600
G1 X52.131 Y38.642 Z0 F1600
G1 X52.355 Y38.899 Z0 F1600
G1 X52.606 Y39.195 Z0 F1600
G1 X52.907 Y39.553 Z0 F1600
G1 X53.754 Y40.621 Z0 F1600
G1 X54.51 Y41.691 Z0 F1600
G1 X55.186 Y42.779 Z0 F1600
G1 X55.792 Y43.902 Z0 F1600
G1 X56.136 Y44.633 Z0 F1600
G1 X56.453 Y45.385 Z0 F1600
G1 X56.584 Y45.723 Z0 F1600
G1 X56.686 Y46.012 Z0 F1600
G1 X56.752 Y46.233 Z0 F1600
G1 X56.776 Y46.369 Z0 F1600
G1 X56.734 Y46.456 Z0 F1600
; --- FIX X Backlash ---
G0 X56.234 Y46.456 Z5 F1200
G1 X56.118 Y46.582 Z0 F1600
G1 X55.944 Y46.733 Z0 F1600
G1 X55.728 Y46.898 Z0 F1600
G1 X55.237 Y47.226 Z0 F1600
G1 X54.773 Y47.468 Z0 F1600
G1 X54.61 Y47.527 Z0 F1600
G1 X54.498 Z0 F1600
; --- FIX Y Backlash ---
G0 X54.498 Y47.027 Z5 F1200
G1 X54.391 Y46.957 Z0 F1600
G1 X54.245 Y46.797 Z0 F1600
G1 X54.074 Y46.595 Z0 F1600
G1 X53.888 Y46.364 Z0 F1600
G1 X53.689 Y46.11 Z0 F1600
G1 X53.48 Y45.834 Z0 F1600
G1 X53.04 Y45.234 Z0 F1600
G1 X52.587 Y44.592 Z0 F1600
G1 X52.142 Y43.936 Z0 F1600
G1 X51.722 Y43.293 Z0 F1600
G1 X51.348 Y42.692 Z0 F1600
G1 X51.038 Y42.161 Z0 F1600
G1 X50.485 Y41.129 Z0 F1600
G1 X49.923 Y40.006 Z0 F1600
G1 X49.381 Y38.852 Z0 F1600
G1 X48.888 Y37.728 Z0 F1600
G1 X48.663 Y37.2 Z0 F1600
G1 X48.473 Y36.762 Z0 F1600
G1 X48.336 Y36.458 Z0 F1600
G1 X48.295 Y36.371 Z0 F1600
G1 X48.274 Y36.335 Z0 F1600
G1 X48.257 Z0 F1600
G1 X48.246 Y36.369 Z0 F1600
; --- FIX Y Backlash ---
G0 X48.246 Y36.869 Z5 F1200
G1 X48.242 Y36.937 Z0 F1600
G1 X48.245 Y37.035 Z0 F1600
G1 X48.267 Y37.305 Z0 F1600
G1 X48.308 Y37.65 Z0 F1600
; --- FIX X Backlash ---
G0 X48.808 Y37.65 Z5 F1200
G1 X48.934 Y38.452 Z0 F1600
G1 X49.092 Y39.211 Z0 F1600
G1 X49.344 Y40.149 Z0 F1600
G1 X49.629 Y41.049 Z0 F1600
G1 X49.95 Y41.917 Z0 F1600
G1 X50.308 Y42.758 Z0 F1600
G1 X50.705 Y43.577 Z0 F1600
G1 X51.145 Y44.379 Z0 F1600
G1 X51.628 Y45.17 Z0 F1600
G1 X52.159 Y45.955 Z0 F1600
G1 X52.625 Y46.592 Z0 F1600
G1 X53.096 Y47.207 Z0 F1600
G1 X53.304 Y47.468 Z0 F1600
G1 X53.478 Y47.678 Z0 F1600
G1 X53.547 Y47.758 Z0 F1600
G1 X53.604 Y47.821 Z0 F1600
G1 X53.647 Y47.863 Z0 F1600
G1 X53.673 Y47.883 Z0 F1600
G1 X53.718 Y47.938 Z0 F1600
G1 X53.736 Y48.03 Z0 F1600
; --- FIX X Backlash ---
G0 X53.236 Y48.03 Z5 F1200
G1 X53.18 Y48.08 Z0 F1600
G1 X53.026 Y48.118 Z0 F1600
G1 X52.796 Y48.142 Z0 F1600
G1 X52.513 Y48.153 Z0 F1600
G1 X51.878 Y48.135 Z0 F1600
; --- FIX Y Backlash ---
G0 X51.878 Y47.635 Z5 F1200
G1 X51.302 Y47.559 Z0 F1600
G1 X51.033 Y47.483 Z0 F1600
G1 X50.759 Y47.366 Z0 F1600
G1 X50.478 Y47.208 Z0 F1600
G1 X50.185 Y47.005 Z0 F1600
G1 X49.879 Y46.756 Z0 F1600
G1 X49.556 Y46.458 Z0 F1600
G1 X49.214 Y46.109 Z0 F1600
G1 X48.85 Y45.708 Z0 F1600
G1 X48.731 Y45.559 Z0 F1600
G1 X48.586 Y45.353 Z0 F1600
G1 X48.423 Y45.104 Z0 F1600
G1 X48.249 Y44.823 Z0 F1600
G1 X47.898 Y44.218 Z0 F1600
G1 X47.594 Y43.639 Z0 F1600
G1 X47.403 Y43.22 Z0 F1600
G1 X47.23 Y42.783 Z0 F1600
G1 X47.074 Y42.318 Z0 F1600
G1 X46.932 Y41.822 Z0 F1600
G1 X46.804 Y41.286 Z0 F1600
G1 X46.686 Y40.704 Z0 F1600
G1 X46.578 Y40.069 Z0 F1600
G1 X46.478 Y39.375 Z0 F1600
G1 X46.46 Y39.206 Z0 F1600
G1 X46.444 Y38.976 Z0 F1600
G1 X46.43 Y38.694 Z0 F1600
G1 X46.417 Y38.369 Z0 F1600
G1 X46.398 Y37.625 Z0 F1600
G1 X46.386 Y36.813 Z0 F1600
G1 X46.383 Y36.004 Z0 F1600
G1 X46.389 Y35.267 Z0 F1600
G1 X46.396 Y34.948 Z0 F1600
G1 X46.404 Y34.673 Z0 F1600
G1 X46.416 Y34.451 Z0 F1600
G1 X46.431 Y34.292 Z0 F1600
; --- FIX X Backlash ---
G0 X46.931 Y34.292 Z5 F1200
G1 X47.072 Y33.189 Z0 F1600
G1 X47.11 Y32.902 Z0 F1600
G1 X47.159 Y32.577 Z0 F1600
G1 X47.181 Y32.466 Z0 F1600
G1 X47.186 Y32.451 Z0 F1600
G1 X47.24 Y32.466 Z0 F1600
; --- FIX Y Backlash ---
G0 X47.24 Y32.966 Z5 F1200
G1 X47.561 Y33.074 Z0 F1600
G1 X47.79 Y33.153 Z0 F1600
G1 X48.578 Y33.442 Z0 F1600
G1 X49.4 Y33.773 Z0 F1600
G1 X50.237 Y34.137 Z0 F1600
G1 X51.068 Y34.524 Z0 F1600
G1 X51.873 Y34.924 Z0 F1600
G1 X52.633 Y35.329 Z0 F1600
G1 X53.328 Y35.728 Z0 F1600
G1 X53.937 Y36.112 Z0 F1600
G1 X54.495 Y36.499 Z0 F1600
G1 X55.02 Y36.895 Z0 F1600
G1 X55.513 Y37.299 Z0 F1600
G1 X55.974 Y37.712 Z0 F1600
G1 X56.4 Y38.132 Z0 F1600
G1 X56.793 Y38.558 Z0 F1600
G1 X57.151 Y38.989 Z0 F1600
G1 X57.474 Y39.425 Z0 F1600
G1 X57.761 Y39.864 Z0 F1600
G1 X58.012 Y40.306 Z0 F1600
G1 X58.225 Y40.75 Z0 F1600
G1 X58.401 Y41.196 Z0 F1600
G1 X58.539 Y41.642 Z0 F1600
G1 X58.638 Y42.087 Z0 F1600
G1 X58.698 Y42.532 Z0 F1600
G1 X58.718 Y42.974 Z0 F1600
G1 X58.708 Y43.321 Z0 F1600
G1 X58.676 Y43.633 Z0 F1600
; --- FIX X Backlash ---
G0 X58.176 Y43.633 Z5 F1200
G1 X58.121 Y43.923 Z0 F1600
G1 X58.04 Y44.202 Z0 F1600
G1 X57.872 Y44.622 Z0 F1600
G1 X57.654 Y45.086 Z0 F1600
G1 X57.547 Y45.293 Z0 F1600
G1 X57.453 Y45.462 Z0 F1600
G1 X57.378 Y45.575 Z0 F1600
G1 X57.333 Y45.617 Z0 F1600
G1 X57.307 Y45.572 Z0 F1600
; --- FIX Y Backlash ---
G0 X57.307 Y45.072 Z5 F1200
G1 X57.257 Y44.949 Z0 F1600
G1 X57.192 Y44.768 Z0 F1600
G1 X57.117 Y44.547 Z0 F1600
G1 X56.941 Y44.063 Z0 F1600
G1 X56.719 Y43.539 Z0 F1600
G1 X56.457 Y42.989 Z0 F1600
G1 X56.163 Y42.425 Z0 F1600
G1 X55.843 Y41.861 Z0 F1600
G1 X55.506 Y41.311 Z0 F1600
G1 X55.159 Y40.787 Z0 F1600
G1 X54.808 Y40.304 Z0 F1600
G1 X54.298 Y39.667 Z0 F1600
G1 X53.759 Y39.057 Z0 F1600
G1 X53.195 Y38.477 Z0 F1600
G1 X52.608 Y37.929 Z0 F1600
G1 X52.003 Y37.416 Z0 F1600
G1 X51.383 Y36.943 Z0 F1600
G1 X50.752 Y36.511 Z0 F1600
G1 X50.112 Y36.125 Z0 F1600
G1 X49.842 Y35.975 Z0 F1600
G1 X49.65 Y35.878 Z0 F1600
G1 X49.538 Y35.838 Z0 F1600
G1 X49.503 Y35.858 Z0 F1600
G1 X49.516 Y35.892 Z0 F1600
G0 Z3.5 F1000
; --- FIX X Backlash ---
G0 X50.016 Y35.892 Z5 F1200
G0 X83.379 Y35.807 Z3.5
G1 Z0 F1000
G1 X83.563 Y35.682 Z0 F1600
G1 X83.596 Y35.658 Z0 F1600
G1 X83.663 Y35.613 Z0 F1600
G1 X83.783 Y35.545 Z0 F1600
G1 X84.003 Y35.429 Z0 F1600
G1 X84.251 Y35.305 Z0 F1600
G1 X84.568 Y35.151 Z0 F1600
G1 X84.903 Y34.994 Z0 F1600
G1 X85.279 Y34.821 Z0 F1600
G1 X85.659 Y34.649 Z0 F1600
G1 X86.468 Y34.294 Z0 F1600
G1 X87.242 Y33.967 Z0 F1600
G1 X87.587 Y33.827 Z0 F1600
G1 X87.917 Y33.697 Z0 F1600
G1 X88.072 Y33.638 Z0 F1600
; --- FIX Y Backlash ---
G0 X88.072 Y34.138 Z5 F1200
G1 X88.088 Y34.358 Z0 F1600
G1 X88.123 Y34.98 Z0 F1600
G1 X88.15 Y35.695 Z0 F1600
G1 X88.167 Y36.474 Z0 F1600
G1 X88.174 Y37.254 Z0 F1600
G1 Y37.689 Z0 F1600
G1 X88.168 Y38.092 Z0 F1600
G1 X88.162 Y38.465 Z0 F1600
G1 X88.152 Y38.82 Z0 F1600
G1 X88.125 Y39.421 Z0 F1600
G1 X88.082 Y39.971 Z0 F1600
; --- FIX X Backlash ---
G0 X87.582 Y39.971 Z5 F1200
G1 X87.445 Y40.95 Z0 F1600
G1 X87.23 Y41.906 Z0 F1600
G1 X86.968 Y42.759 Z0 F1600
G1 X86.637 Y43.576 Z0 F1600
G1 X86.242 Y44.359 Z0 F1600
G1 X85.793 Y45.09 Z0 F1600
G1 X85.564 Y45.413 Z0 F1600
G1 X85.318 Y45.728 Z0 F1600
G1 X85.076 Y46.01 Z0 F1600
G1 X84.828 Y46.267 Z0 F1600
G1 X84.578 Y46.498 Z0 F1600
G1 X84.336 Y46.693 Z0 F1600
G1 X84.103 Y46.855 Z0 F1600
G1 X83.872 Y46.988 Z0 F1600
G1 X83.592 Y47.123 Z0 F1600
G1 X83.569 Y47.13 Z0 F1600
; --- FIX X Backlash ---
G0 X84.069 Y47.13 Z5 F1200
; --- FIX Y Backlash ---
G0 X84.069 Y46.63 Z5 F1200
G1 X84.203 Y46.45 Z0 F1600
G1 X84.511 Y46.028 Z0 F1600
G1 X84.803 Y45.62 Z0 F1600
G1 X85.063 Y45.245 Z0 F1600
G1 X85.276 Y44.925 Z0 F1600
G1 X85.606 Y44.384 Z0 F1600
G1 X85.927 Y43.81 Z0 F1600
G1 X86.236 Y43.211 Z0 F1600
G1 X86.533 Y42.583 Z0 F1600
G1 X87.066 Y41.304 Z0 F1600
G1 X87.521 Y39.985 Z0 F1600
G1 X87.757 Y39.099 Z0 F1600
G1 X87.96 Y38.136 Z0 F1600
G1 X88.042 Y37.672 Z0 F1600
G1 X88.102 Y37.259 Z0 F1600
G1 X88.125 Y37.064 Z0 F1600
G1 X88.139 Y36.887 Z0 F1600
G1 X88.146 Y36.714 Z0 F1600
G1 X88.141 Y36.533 Z0 F1600
; --- FIX X Backlash ---
G0 X87.641 Y36.533 Z5 F1200
G1 X87.591 Y36.198 Z0 F1600
G1 X86.965 Y35.279 Z0 F1600
; --- FIX Y Backlash ---
G0 X86.965 Y35.779 Z5 F1200
G1 X86.403 Y36.131 Z0 F1600
; --- FIX X Backlash ---
G0 X86.903 Y36.131 Z5 F1200
; --- FIX Y Backlash ---
G0 X86.903 Y35.631 Z5 F1200
G1 X86.972 Y35.108 Z0 F1600
; --- FIX X Backlash ---
G0 X86.472 Y35.108 Z5 F1200
G1 X85.396 Y34.935 Z0 F1600
; --- FIX Y Backlash ---
G0 X85.396 Y35.435 Z5 F1200
G1 X85.106 Y35.51 Z0 F1600
G1 X84.954 Y35.57 Z0 F1600
G1 X84.814 Y35.635 Z0 F1600
G1 X84.535 Y35.781 Z0 F1600
G1 X84.21 Y35.967 Z0 F1600
G1 X83.514 Y36.401 Z0 F1600

; Color picking sequence
G1 Z10 F1000;         ; Raise brush
G0 X86 Y5 F1200;    ; Rapid move to color 1
G1 Z10 F1000;         ; Raise brush
G0 X86 Y5 F1200;    ; Rapid move to color 1
G1 Z0 F1000;         ; Lower into color
G1 X85.102 Y7.295 Z0 S800 F1200
G1 X85.026 Y7.642 Z0 F1200
G1 X85 Y8 Z0 F1200
G1 X85.026 Y8.358 Z0 F1200
G1 X85.102 Y8.705 Z0 F1200
G1 X85.225 Y9.041 Z0 F1200
G1 X85.393 Y9.362 Z0 F1200
G1 X85.603 Y9.668 Z0 F1200
G1 X85.854 Y9.957 Z0 F1200
G1 X86.142 Y10.226 Z0 F1200
G1 X86.464 Y10.475 Z0 F1200
G1 X86.82 Y10.701 Z0 F1200
G1 X87.204 Y10.902 Z0 F1200
G1 X87.617 Y11.078 Z0 F1200
G1 X88.054 Y11.225 Z0 F1200
G1 X88.513 Y11.343 Z0 F1200
G1 X88.992 Y11.429 Z0 F1200
G1 X89.489 Y11.482 Z0 F1200
G1 X90 Y11.5 Z0 F1200
G1 X90.511 Y11.482 Z0 F1200
G1 X91.008 Y11.429 Z0 F1200
G1 X91.487 Y11.343 Z0 F1200
G1 X91.946 Y11.225 Z0 F1200
G1 X92.383 Y11.078 Z0 F1200
G1 X92.796 Y10.902 Z0 F1200
G1 X93.18 Y10.701 Z0 F1200
G1 X93.536 Y10.475 Z0 F1200
G1 X93.858 Y10.226 Z0 F1200
G1 X94.146 Y9.957 Z0 F1200
G1 X94.397 Y9.668 Z0 F1200
G1 X94.607 Y9.362 Z0 F1200
G1 X94.775 Y9.041 Z0 F1200
G1 X94.898 Y8.705 Z0 F1200
G1 X94.974 Y8.358 Z0 F1200
G1 X95 Y8 Z0 F1200
G1 X94.974 Y7.642 Z0 F1200
G1 X94.898 Y7.295 Z0 F1200
G1 X94.775 Y6.959 Z0 F1200
G1 X94.607 Y6.638 Z0 F1200
G1 X94.397 Y6.332 Z0 F1200
G1 X94.146 Y6.043 Z0 F1200
G1 X93.858 Y5.774 Z0 F1200
G1 X93.536 Y5.525 Z0 F1200
G1 X93.18 Y5.299 Z0 F1200
G1 X92.796 Y5.098 Z0 F1200
G1 X92.383 Y4.922 Z0 F1200
G1 X91.946 Y4.775 Z0 F1200
G1 X91.487 Y4.657 Z0 F1200
G1 X91.008 Y4.571 Z0 F1200
G1 X90.511 Y4.518 Z0 F1200
G1 X90 Y4.5 Z0 F1200
G1 X89.489 Y4.518 Z0 F1200
G1 X88.992 Y4.571 Z0 F1200
G1 X88.513 Y4.657 Z0 F1200
G1 X88.054 Y4.775 Z0 F1200
G1 X87.617 Y4.922 Z0 F1200
G1 X87.204 Y5.098 Z0 F1200
G1 X86.82 Y5.299 Z0 F1200
G1 X86.464 Y5.525 Z0 F1200
G1 X86.142 Y5.774 Z0 F1200
G1 X85.854 Y6.043 Z0 F1200
G1 X85.603 Y6.332 Z0 F1200
G1 X85.393 Y6.638 Z0 F1200
G1 X85.225 Y6.959 Z0 F1200
G1 Z7 F800;         ; Raise from color
G1 X79 Y8 Z1 F1200;     ; Movement in paint
G1 X69 Y18 Z8 F500;     ; Move in paint
G1 F1200;           ; Set feed rate
G0 X83.514 Y36.401 F1200 ; Return
G1 Z0 F1000 ; Restore Z
G1 X82.854 Y36.86 Z0 F1600
G1 X82.458 Y37.174 Z0 F1600
G1 X82.03 Y37.542 Z0 F1600
G1 X81.591 Y37.94 Z0 F1600
G1 X81.166 Y38.344 Z0 F1600
G1 X80.78 Y38.727 Z0 F1600
G1 X80.463 Y39.063 Z0 F1600
G1 X80.327 Y39.221 Z0 F1600
G1 X80.204 Y39.377 Z0 F1600
G1 X80.127 Y39.5 Z0 F1600
G1 X80.027 Y39.586 Z0 F1600
G1 X79.83 Y39.791 Z0 F1600
G1 X79.63 Y40.022 Z0 F1600
G1 X79.243 Y40.52 Z0 F1600
G1 X78.871 Y41.045 Z0 F1600
G1 X78.516 Y41.593 Z0 F1600
G1 X78.18 Y42.159 Z0 F1600
G1 X77.867 Y42.738 Z0 F1600
G1 X77.738 Y42.999 Z0 F1600
; --- FIX Y Backlash ---
G0 X77.738 Y42.499 Z5 F1200
G1 Y42.214 Z0 F1600
G1 X77.745 Y41.974 Z0 F1600
G1 X77.755 Y41.774 Z0 F1600
G1 X77.767 Y41.652 Z0 F1600
G1 X77.812 Y41.408 Z0 F1600
; --- FIX X Backlash ---
G0 X78.312 Y41.408 Z5 F1200
G1 X78.392 Y41.14 Z0 F1600
G1 X78.577 Y40.654 Z0 F1600
G1 X78.799 Y40.184 Z0 F1600
G1 X79.064 Y39.721 Z0 F1600
G1 X79.374 Y39.263 Z0 F1600
G1 X79.741 Y38.795 Z0 F1600
G1 X80.158 Y38.325 Z0 F1600
G1 X80.646 Y37.833 Z0 F1600
G1 X81.192 Y37.333 Z0 F1600
G1 X81.474 Y37.092 Z0 F1600
G1 X81.729 Y36.896 Z0 F1600
G1 X81.889 Y36.783 Z0 F1600
G1 X82.064 Y36.665 Z0 F1600
G1 X82.301 Y36.509 Z0 F1600
G1 X82.95 Y36.088 Z0 F1600
G1 X83.379 Y35.807 Z0 F1600
G0 Z3.5 F1000
; --- FIX Y Backlash ---
G0 X83.379 Y36.307 Z5 F1200
G0 X85.764 Y37.933 Z3.5
G1 Z0 F1000
; --- FIX X Backlash ---
G0 X85.264 Y37.933 Z5 F1200
G1 X84.737 Y39.132 Z0 F1600
G1 X84.201 Y40.267 Z0 F1600
G1 X83.648 Y41.347 Z0 F1600
G1 X83.088 Y42.354 Z0 F1600
G1 X82.493 Y43.335 Z0 F1600
G1 X81.868 Y44.288 Z0 F1600
G1 X81.204 Y45.223 Z0 F1600
G1 X80.491 Y46.158 Z0 F1600
G1 X80.248 Y46.466 Z0 F1600
; --- FIX Y Backlash ---
G0 X80.248 Y45.966 Z5 F1200
G1 X80.029 Y45.834 Z0 F1600
G1 X79.745 Y45.645 Z0 F1600
G1 X79.666 Y45.585 Z0 F1600
G1 X79.677 Y45.555 Z0 F1600
; --- FIX X Backlash ---
G0 X80.177 Y45.555 Z5 F1200
G1 X80.288 Y45.278 Z0 F1600
G1 X80.438 Y44.931 Z0 F1600
G1 Y44.925 Z0 F1600
G1 X80.445 Y44.915 Z0 F1600
G1 X80.611 Y44.548 Z0 F1600
G1 X80.812 Y44.127 Z0 F1600
G1 X81.014 Y43.72 Z0 F1600
G1 X81.457 Y42.895 Z0 F1600
G1 X81.932 Y42.099 Z0 F1600
G1 X82.459 Y41.304 Z0 F1600
G1 X83.034 Y40.516 Z0 F1600
G1 X83.68 Y39.707 Z0 F1600
G1 X84.374 Y38.901 Z0 F1600
G1 X85.162 Y38.048 Z0 F1600
G1 X85.764 Y37.433 Z0 F1600
G0 Z3.5 F1000
G0 X87.173 Y36.525 Z3.5
G1 Z0 F1000
; --- FIX X Backlash ---
G0 X86.673 Y36.525 Z5 F1200
; --- FIX Y Backlash ---
G0 X86.673 Y37.025 Z5 F1200
G1 X86.616 Y37.112 Z0 F1600
G1 X86.535 Y37.272 Z0 F1600
G1 X86.424 Y37.515 Z0 F1600
G1 X86.279 Y37.848 Z0 F1600
G1 X86.094 Y38.28 Z0 F1600
G1 X85.551 Y39.517 Z0 F1600
G1 X85.002 Y40.676 Z0 F1600
G1 X84.442 Y41.771 Z0 F1600
G1 X83.862 Y42.813 Z0 F1600
G1 X83.255 Y43.815 Z0 F1600
G1 X82.614 Y44.792 Z0 F1600
G1 X81.93 Y45.754 Z0 F1600
G1 X81.198 Y46.714 Z0 F1600
G1 X80.541 Y47.55 Z0 F1600
G1 X80.5 Y47.565 Z0 F1600
G1 X80.425 Y47.553 Z0 F1600
G1 X80.321 Y47.518 Z0 F1600
; --- FIX Y Backlash ---
G0 X80.321 Y47.018 Z5 F1200
G1 X80.194 Y46.962 Z0 F1600
G1 X79.89 Y46.801 Z0 F1600
G1 X79.551 Y46.597 Z0 F1600
G1 X79.218 Y46.375 Z0 F1600
G1 X78.931 Y46.159 Z0 F1600
G1 X78.817 Y46.062 Z0 F1600
G1 X78.729 Y45.976 Z0 F1600
G1 X78.673 Y45.904 Z0 F1600
G1 X78.653 Y45.851 Z0 F1600
G1 X78.675 Y45.717 Z0 F1600
; --- FIX X Backlash ---
G0 X79.175 Y45.717 Z5 F1200
G1 X79.236 Y45.511 Z0 F1600
G1 X79.333 Y45.243 Z0 F1600
G1 X79.461 Y44.922 Z0 F1600
G1 X79.618 Y44.559 Z0 F1600
G1 X79.799 Y44.161 Z0 F1600
G1 X80 Y43.74 Z0 F1600
G1 X80.216 Y43.304 Z0 F1600
G1 X80.673 Y42.451 Z0 F1600
G1 X81.172 Y41.617 Z0 F1600
G1 X81.718 Y40.792 Z0 F1600
G1 X82.319 Y39.969 Z0 F1600
G1 X82.98 Y39.14 Z0 F1600
G1 X83.708 Y38.295 Z0 F1600
G1 X84.51 Y37.427 Z0 F1600
G1 X85.63 Y36.282 Z0 F1600
G1 X85.818 Y36.075 Z0 F1600
G1 X85.887 Y35.991 Z0 F1600
G1 X85.936 Y35.926 Z0 F1600
G1 X85.963 Y35.88 Z0 F1600
G1 X85.966 Y35.858 Z0 F1600
G1 X85.939 Y35.854 Z0 F1600
; --- FIX X Backlash ---
G0 X85.439 Y35.854 Z5 F1200
G1 X85.386 Y35.867 Z0 F1600
G1 X85.31 Y35.897 Z0 F1600
G1 X85.212 Y35.942 Z0 F1600
; --- FIX Y Backlash ---
G0 X85.212 Y36.442 Z5 F1200
G1 X84.968 Y36.571 Z0 F1600
G1 X84.671 Y36.74 Z0 F1600
G1 X84.009 Y37.153 Z0 F1600
G1 X83.391 Y37.583 Z0 F1600
G1 X83.032 Y37.868 Z0 F1600
G1 X82.626 Y38.217 Z0 F1600
G1 X82.203 Y38.601 Z0 F1600
G1 X81.792 Y38.99 Z0 F1600
G1 X81.425 Y39.354 Z0 F1600
G1 X81.131 Y39.667 Z0 F1600
G1 X81.021 Y39.793 Z0 F1600
G1 X80.941 Y39.896 Z0 F1600
G1 X80.894 Y39.971 Z0 F1600
G1 X80.884 Y40.014 Z0 F1600
G1 X80.894 Y40.056 Z0 F1600
G1 X80.887 Y40.087 Z0 F1600
G1 X80.867 Y40.105 Z0 F1600
G1 X80.833 Z0 F1600
G1 X80.765 Y40.138 Z0 F1600
G1 X80.646 Y40.241 Z0 F1600
G1 X80.495 Y40.397 Z0 F1600
G1 X80.327 Y40.592 Z0 F1600
G1 X79.966 Y41.056 Z0 F1600
G1 X79.616 Y41.55 Z0 F1600
G1 X79.281 Y42.067 Z0 F1600
G1 X78.963 Y42.603 Z0 F1600
G1 X78.667 Y43.151 Z0 F1600
G1 X78.394 Y43.704 Z0 F1600
G1 X78.15 Y44.257 Z0 F1600
G1 X77.938 Y44.804 Z0 F1600
G1 X77.667 Y45.553 Z0 F1600
; --- FIX Y Backlash ---
G0 X77.667 Y45.053 Z5 F1200
G1 X77.481 Y44.794 Z0 F1600
G1 X77.284 Y44.466 Z0 F1600
G1 X77.067 Y44.044 Z0 F1600
G1 X76.942 Y43.75 Z0 F1600
G1 X76.873 Y43.467 Z0 F1600
G1 X76.854 Y43.296 Z0 F1600
G1 X76.844 Y43.087 Z0 F1600
G1 X76.839 Y42.826 Z0 F1600
G1 Y42.499 Z0 F1600
G1 Y42.193 Z0 F1600
G1 X76.845 Y41.937 Z0 F1600
G1 X76.857 Y41.719 Z0 F1600
G1 X76.875 Y41.529 Z0 F1600
; --- FIX X Backlash ---
G0 X77.375 Y41.529 Z5 F1200
G1 X77.436 Y41.195 Z0 F1600
G1 X77.538 Y40.853 Z0 F1600
G1 X77.749 Y40.301 Z0 F1600
G1 X78.001 Y39.767 Z0 F1600
G1 X78.3 Y39.245 Z0 F1600
G1 X78.647 Y38.731 Z0 F1600
G1 X79.048 Y38.22 Z0 F1600
G1 X79.504 Y37.707 Z0 F1600
G1 X80.02 Y37.187 Z0 F1600
G1 X80.599 Y36.656 Z0 F1600
G1 X80.905 Y36.395 Z0 F1600
G1 X81.199 Y36.168 Z0 F1600
G1 X81.369 Y36.048 Z0 F1600
G1 X81.57 Y35.913 Z0 F1600
G1 X81.812 Y35.753 Z0 F1600
G1 X82.458 Y35.334 Z0 F1600
G1 X82.88 Y35.058 Z0 F1600
G1 X83.044 Y34.947 Z0 F1600
G1 X83.08 Y34.921 Z0 F1600
G1 X83.186 Y34.849 Z0 F1600
G1 X83.356 Y34.752 Z0 F1600
G1 X83.583 Y34.632 Z0 F1600
G1 X83.859 Y34.494 Z0 F1600
G1 X84.177 Y34.341 Z0 F1600
G1 X84.527 Y34.176 Z0 F1600
G1 X84.903 Y34.003 Z0 F1600
G1 X85.297 Y33.825 Z0 F1600
G1 X86.106 Y33.47 Z0 F1600
G1 X86.892 Y33.138 Z0 F1600
G1 X87.257 Y32.989 Z0 F1600
G1 X87.593 Y32.857 Z0 F1600
G1 X87.892 Y32.744 Z0 F1600
G1 X88.146 Y32.655 Z0 F1600
G1 X88.38 Y32.579 Z0 F1600
G1 X88.579 Y32.515 Z0 F1600
G1 X88.723 Y32.471 Z0 F1600
G1 X88.791 Y32.455 Z0 F1600
G1 X88.817 Y32.478 Z0 F1600
; --- FIX Y Backlash ---
G0 X88.817 Y32.978 Z5 F1200
G1 X88.844 Y33.048 Z0 F1600
G1 X88.87 Y33.163 Z0 F1600
G1 X88.895 Y33.319 Z0 F1600
G1 X88.919 Y33.514 Z0 F1600
G1 X88.943 Y33.743 Z0 F1600
G1 X88.965 Y34.004 Z0 F1600
G1 X88.986 Y34.294 Z0 F1600
G1 X89.022 Y34.946 Z0 F1600
G1 X89.05 Y35.675 Z0 F1600
G1 X89.067 Y36.453 Z0 F1600
G1 X89.074 Y37.257 Z0 F1600
G1 Y37.698 Z0 F1600
G1 X89.068 Y38.108 Z0 F1600
G1 X89.062 Y38.49 Z0 F1600
G1 X89.052 Y38.845 Z0 F1600
G1 X89.022 Y39.491 Z0 F1600
G1 X88.977 Y40.068 Z0 F1600
; --- FIX X Backlash ---
G0 X88.477 Y40.068 Z5 F1200
G1 X88.333 Y41.107 Z0 F1600
G1 X88.1 Y42.141 Z0 F1600
G1 X87.818 Y43.058 Z0 F1600
G1 X87.457 Y43.949 Z0 F1600
G1 X87.028 Y44.798 Z0 F1600
G1 X86.544 Y45.586 Z0 F1600
G1 X86.285 Y45.952 Z0 F1600
G1 X86.016 Y46.296 Z0 F1600
G1 X85.74 Y46.617 Z0 F1600
G1 X85.457 Y46.912 Z0 F1600
G1 X85.168 Y47.178 Z0 F1600
G1 X84.876 Y47.414 Z0 F1600
G1 X84.583 Y47.618 Z0 F1600
G1 X84.289 Y47.786 Z0 F1600
G1 X83.93 Y47.959 Z0 F1600
G1 X83.632 Y48.057 Z0 F1600
G1 X83.471 Y48.086 Z0 F1600
G1 X83.281 Y48.107 Z0 F1600
G1 X83.05 Y48.122 Z0 F1600
G1 X82.763 Y48.134 Z0 F1600
G1 X82.401 Y48.142 Z0 F1600
G1 X82.095 Y48.137 Z0 F1600
G1 X81.972 Y48.131 Z0 F1600
G1 X81.875 Y48.122 Z0 F1600
G1 X81.808 Y48.11 Z0 F1600
G1 X81.774 Y48.096 Z0 F1600
; --- FIX Y Backlash ---
G0 X81.774 Y47.596 Z5 F1200
G1 X81.766 Y47.544 Z0 F1600
G1 X81.797 Y47.458 Z0 F1600
; --- FIX X Backlash ---
G0 X82.297 Y47.458 Z5 F1200
G1 X82.364 Y47.35 Z0 F1600
G1 X82.461 Y47.228 Z0 F1600
G1 X82.548 Y47.126 Z0 F1600
G1 X82.65 Y47 Z0 F1600
G1 X82.896 Y46.69 Z0 F1600
G1 X83.178 Y46.32 Z0 F1600
G1 X83.479 Y45.916 Z0 F1600
G1 X83.782 Y45.501 Z0 F1600
G1 X84.067 Y45.102 Z0 F1600
G1 X84.318 Y44.74 Z0 F1600
G1 X84.517 Y44.441 Z0 F1600
G1 X84.83 Y43.929 Z0 F1600
G1 X85.134 Y43.384 Z0 F1600
G1 X85.429 Y42.813 Z0 F1600
G1 X85.71 Y42.218 Z0 F1600
G1 X86.225 Y40.983 Z0 F1600
G1 X86.66 Y39.723 Z0 F1600
G1 X86.881 Y38.89 Z0 F1600
G1 X87.077 Y37.966 Z0 F1600
G1 X87.153 Y37.53 Z0 F1600
G1 X87.209 Y37.143 Z0 F1600
G1 X87.229 Y36.976 Z0 F1600
G1 X87.241 Y36.83 Z0 F1600
G1 X87.246 Y36.708 Z0 F1600
G1 X87.243 Y36.613 Z0 F1600
G1 X87.231 Y36.534 Z0 F1600
G1 X87.209 Y36.502 Z0 F1600
G1 X87.173 Y36.525 Z0 F1600

; Washing sequence (no color)
G1 Z10 F1000;        ; Raise brush
G0 X5 Y5 F1200;     ; Rapid move to clean
G1 Z-1 F800;         ; Lower brush
G1 X10 Y12 Z8 F1200;     ; Move
G1 Z-1 F800;         ; Lower
G1 X25 Y14 Z6 F800;     ; Move
G1 Z8 F800;         ; Maintain
G0 X5 Y5 F1200;     ; Rapid
G1 Z-1 F800;         ; Lower
G1 X15 Y12 Z8 F1200;     ; Move
G1 Z-1 F800;         ; Lower
G1 X25 Y14 Z6 F800;     ; Move
G1 Z10 F800;         ; Maintain
G1 F1200;           ; Set feed

; Color picking sequence
G1 Z10 F1000;         ; Raise brush
G0 X131 Y5 F1200;    ; Rapid move to color 1
G1 Z10 F1000;         ; Raise brush
G0 X131 Y5 F1200;    ; Rapid move to color 1
G1 Z0 F1000;         ; Lower into color
G1 X130.102 Y7.295 Z0 S800 F1200
G1 X130.026 Y7.642 Z0 F1200
G1 X130 Y8 Z0 F1200
G1 X130.026 Y8.358 Z0 F1200
G1 X130.102 Y8.705 Z0 F1200
G1 X130.225 Y9.041 Z0 F1200
G1 X130.393 Y9.362 Z0 F1200
G1 X130.603 Y9.668 Z0 F1200
G1 X130.854 Y9.957 Z0 F1200
G1 X131.142 Y10.226 Z0 F1200
G1 X131.464 Y10.475 Z0 F1200
G1 X131.82 Y10.701 Z0 F1200
G1 X132.204 Y10.902 Z0 F1200
G1 X132.617 Y11.078 Z0 F1200
G1 X133.054 Y11.225 Z0 F1200
G1 X133.513 Y11.343 Z0 F1200
G1 X133.992 Y11.429 Z0 F1200
G1 X134.489 Y11.482 Z0 F1200
G1 X135 Y11.5 Z0 F1200
G1 X135.511 Y11.482 Z0 F1200
G1 X136.008 Y11.429 Z0 F1200
G1 X136.487 Y11.343 Z0 F1200
G1 X136.946 Y11.225 Z0 F1200
G1 X137.383 Y11.078 Z0 F1200
G1 X137.796 Y10.902 Z0 F1200
G1 X138.18 Y10.701 Z0 F1200
G1 X138.536 Y10.475 Z0 F1200
G1 X138.858 Y10.226 Z0 F1200
G1 X139.146 Y9.957 Z0 F1200
G1 X139.397 Y9.668 Z0 F1200
G1 X139.607 Y9.362 Z0 F1200
G1 X139.775 Y9.041 Z0 F1200
G1 X139.898 Y8.705 Z0 F1200
G1 X139.974 Y8.358 Z0 F1200
G1 X140 Y8 Z0 F1200
G1 X139.974 Y7.642 Z0 F1200
G1 X139.898 Y7.295 Z0 F1200
G1 X139.775 Y6.959 Z0 F1200
G1 X139.607 Y6.638 Z0 F1200
G1 X139.397 Y6.332 Z0 F1200
G1 X139.146 Y6.043 Z0 F1200
G1 X138.858 Y5.774 Z0 F1200
G1 X138.536 Y5.525 Z0 F1200
G1 X138.18 Y5.299 Z0 F1200
G1 X137.796 Y5.098 Z0 F1200
G1 X137.383 Y4.922 Z0 F1200
G1 X136.946 Y4.775 Z0 F1200
G1 X136.487 Y4.657 Z0 F1200
G1 X136.008 Y4.571 Z0 F1200
G1 X135.511 Y4.518 Z0 F1200
G1 X135 Y4.5 Z0 F1200
G1 X134.489 Y4.518 Z0 F1200
G1 X133.992 Y4.571 Z0 F1200
G1 X133.513 Y4.657 Z0 F1200
G1 X133.054 Y4.775 Z0 F1200
G1 X132.617 Y4.922 Z0 F1200
G1 X132.204 Y5.098 Z0 F1200
G1 X131.82 Y5.299 Z0 F1200
G1 X131.464 Y5.525 Z0 F1200
G1 X131.142 Y5.774 Z0 F1200
G1 X130.854 Y6.043 Z0 F1200
G1 X130.603 Y6.332 Z0 F1200
G1 X130.393 Y6.638 Z0 F1200
G1 X130.225 Y6.959 Z0 F1200
G1 Z7 F800;         ; Raise from color
G1 X124 Y8 Z1 F1200;     ; Movement in paint
G1 X114 Y18 Z8 F500;     ; Move in paint
G1 F1200;           ; Set feed rate
;Cut @ 1500 mm/min, 80% power

M8
G0 Z3.5 F1000
; --- FIX X Backlash ---
G0 X86.673 Y36.525 Z5 F1200
; --- FIX Y Backlash ---
G0 X86.673 Y37.025 Z5 F1200
G0 X70.891 Y40.998 Z3.5
G1 Z0 F1000
;Layer C3
G1 X70.864 Y40.958 Z0 S800 F1600
G1 X70.839 Y40.951 Z0 F1600
G1 X70.785 Y40.945 Z0 F1600
G1 X70.599 Y40.932 Z0 F1600
G1 X70.318 Y40.92 Z0 F1600
G1 X69.955 Y40.91 Z0 F1600
G1 X69.521 Y40.902 Z0 F1600
G1 X69.029 Y40.895 Z0 F1600
G1 X68.491 Y40.891 Z0 F1600
G1 X67.918 Z0 F1600
G1 X67.172 Z0 F1600
G1 X66.555 Y40.894 Z0 F1600
G1 X66.056 Y40.901 Z0 F1600
G1 X65.666 Y40.911 Z0 F1600
G1 X65.375 Y40.925 Z0 F1600
G1 X65.172 Y40.943 Z0 F1600
G1 X65.048 Y40.966 Z0 F1600
G1 X64.992 Y40.994 Z0 F1600
G1 X64.969 Y41.038 Z0 F1600
G1 X64.94 Y41.125 Z0 F1600
G1 X64.904 Y41.248 Z0 F1600
G1 X64.864 Y41.403 Z0 F1600
G1 X64.774 Y41.788 Z0 F1600
G1 X64.68 Y42.239 Z0 F1600
G1 X64.58 Y42.738 Z0 F1600
G1 X64.424 Y43.501 Z0 F1600
G1 X64.232 Y44.407 Z0 F1600
G1 X64.17 Y44.721 Z0 F1600
G1 X64.118 Y45.002 Z0 F1600
G1 X64.083 Y45.214 Z0 F1600
G1 X64.065 Y45.358 Z0 F1600
G1 X64.046 Y45.465 Z0 F1600
G1 X64.007 Y45.542 Z0 F1600
G1 X63.929 Y45.6 Z0 F1600
G1 X63.793 Y45.647 Z0 F1600
G1 X63.579 Y45.693 Z0 F1600
G1 X63.437 Y45.718 Z0 F1600
G1 X62.647 Y45.851 Z0 F1600
G1 X62.492 Y45.873 Z0 F1600
G1 X62.372 Y45.886 Z0 F1600
G1 X62.279 Y45.889 Z0 F1600
G1 X62.156 Y45.863 Z0 F1600
; --- FIX Y Backlash ---
G0 X62.156 Y45.363 Z5 F1200
G1 X62.074 Y45.294 Z0 F1600
G1 X62.038 Y45.248 Z0 F1600
G1 X61.906 Y45.064 Z0 F1600
G1 X61.591 Y44.602 Z0 F1600
G1 X61.327 Y44.208 Z0 F1600
G1 X60.744 Y43.326 Z0 F1600
G1 X60.036 Y42.231 Z0 F1600
G1 X59.892 Y42.02 Z0 F1600
G1 X59.834 Y41.938 Z0 F1600
G1 X59.788 Y41.877 Z0 F1600
G1 X59.756 Y41.838 Z0 F1600
G1 X59.738 Y41.824 Z0 F1600
G1 X59.73 Y41.846 Z0 F1600
; --- FIX Y Backlash ---
G0 X59.73 Y42.346 Z5 F1200
G1 X59.722 Y42.409 Z0 F1600
G1 X59.714 Y42.508 Z0 F1600
G1 X59.708 Y42.64 Z0 F1600
G1 X59.698 Y42.982 Z0 F1600
G1 X59.691 Y43.727 Z0 F1600
G1 X59.685 Y43.994 Z0 F1600
G1 X59.673 Y44.217 Z0 F1600
G1 X59.652 Y44.408 Z0 F1600
G1 X59.581 Y44.752 Z0 F1600
G1 X59.454 Y45.137 Z0 F1600
G1 X59.218 Y45.796 Z0 F1600
; --- FIX X Backlash ---
G0 X59.718 Y45.796 Z5 F1200
G1 X61.615 Y48.631 Z0 F1600
G1 X62.187 Y49.479 Z0 F1600
G1 X62.63 Y50.127 Z0 F1600
G1 X62.844 Y50.434 Z0 F1600
G1 X62.918 Y50.535 Z0 F1600
G1 X62.932 Y50.551 Z0 F1600
G1 X62.997 Z0 F1600
G1 X63.132 Y50.532 Z0 F1600
G1 X63.318 Y50.491 Z0 F1600
; --- FIX Y Backlash ---
G0 X63.318 Y49.991 Z5 F1200
G1 X63.535 Y49.935 Z0 F1600
G1 X63.973 Y49.827 Z0 F1600
G1 X64.455 Y49.734 Z0 F1600
G1 X64.975 Y49.655 Z0 F1600
G1 X65.527 Y49.59 Z0 F1600
G1 X66.698 Y49.504 Z0 F1600
G1 X67.919 Y49.475 Z0 F1600
G1 X69.139 Y49.503 Z0 F1600
; --- FIX Y Backlash ---
G0 X69.139 Y50.003 Z5 F1200
G1 X70.309 Y50.088 Z0 F1600
G1 X70.859 Y50.152 Z0 F1600
G1 X71.377 Y50.23 Z0 F1600
G1 X71.858 Y50.323 Z0 F1600
G1 X72.295 Y50.43 Z0 F1600
G1 X72.545 Y50.499 Z0 F1600
G1 X72.739 Y50.548 Z0 F1600
G1 X72.884 Y50.577 Z0 F1600
G1 X72.991 Y50.587 Z0 F1600
G1 X73.122 Y50.549 Z0 F1600
; --- FIX Y Backlash ---
G0 X73.122 Y50.049 Z5 F1200
G1 X73.201 Y49.933 Z0 F1600
G1 X73.238 Y49.871 Z0 F1600
G1 X73.31 Y49.758 Z0 F1600
G1 X73.545 Y49.402 Z0 F1600
G1 X73.872 Y48.918 Z0 F1600
G1 X74.256 Y48.358 Z0 F1600
G1 X75.547 Y46.483 Z0 F1600
G1 X75.666 Y46.298 Z0 F1600
G1 X75.753 Y46.136 Z0 F1600
G1 X75.801 Y46.015 Z0 F1600
G1 Y45.953 Z0 F1600
G1 X75.768 Y45.937 Z0 F1600
; --- FIX X Backlash ---
G0 X75.268 Y45.937 Z5 F1200
G1 X75.199 Y45.912 Z0 F1600
G1 X75.096 Y45.879 Z0 F1600
G1 X74.963 Y45.839 Z0 F1600
G1 X74.623 Y45.743 Z0 F1600
G1 X74.206 Y45.632 Z0 F1600
G1 X73.263 Y45.393 Z0 F1600
G1 X72.369 Y45.184 Z0 F1600
G1 X71.869 Y45.075 Z0 F1600
G1 X71.228 Y41.829 Z0 F1600
G1 X71.12 Y41.318 Z0 F1600
G1 X71.015 Y40.889 Z0 F1600
G1 X70.968 Y40.719 Z0 F1600
G1 X70.926 Y40.587 Z0 F1600
G1 X70.891 Y40.498 Z0 F1600
G0 Z3.5 F1000
; --- FIX X Backlash ---
G0 X71.391 Y40.498 Z5 F1200
; --- FIX Y Backlash ---
G0 X71.391 Y40.998 Z5 F1200
G0 X82.857 Y50.44 Z3.5
G1 Z0 F1000
; --- FIX X Backlash ---
G0 X82.357 Y50.44 Z5 F1200
G1 X81.314 Y52.492 Z0 F1600
G1 X80.986 Y53.13 Z0 F1600
G1 X80.72 Y53.644 Z0 F1600
G1 X80.546 Y53.971 Z0 F1600
G1 X80.468 Y54.11 Z0 F1600
G1 X80.452 Y54.168 Z0 F1600
G1 X80.461 Y54.23 Z0 F1600
G1 X80.501 Y54.303 Z0 F1600
; --- FIX X Backlash ---
G0 X81.001 Y54.303 Z5 F1200
G1 X81.079 Y54.397 Z0 F1600
G1 X81.201 Y54.519 Z0 F1600
G1 X81.374 Y54.679 Z0 F1600
G1 X81.602 Y54.885 Z0 F1600
G1 X82.563 Y55.782 Z0 F1600
G1 X83.449 Y56.679 Z0 F1600
G1 X84.262 Y57.581 Z0 F1600
G1 X85.006 Y58.492 Z0 F1600
G1 X85.684 Y59.415 Z0 F1600
G1 X86.298 Y60.353 Z0 F1600
G1 X86.852 Y61.312 Z0 F1600
G1 X87.348 Y62.294 Z0 F1600
G1 X87.546 Y62.74 Z0 F1600
G1 X87.753 Y63.252 Z0 F1600
G1 X87.963 Y63.809 Z0 F1600
G1 X88.168 Y64.392 Z0 F1600
G1 X88.362 Y64.982 Z0 F1600
G1 X88.539 Y65.56 Z0 F1600
G1 X88.691 Y66.106 Z0 F1600
G1 X88.813 Y66.6 Z0 F1600
G1 X89.035 Y67.745 Z0 F1600
G1 X89.195 Y68.926 Z0 F1600
G1 X89.293 Y70.13 Z0 F1600
G1 X89.329 Y71.34 Z0 F1600
G1 X89.303 Y72.544 Z0 F1600
; --- FIX X Backlash ---
G0 X88.803 Y72.544 Z5 F1200
G1 X88.714 Y73.728 Z0 F1600
G1 X88.563 Y74.875 Z0 F1600
G1 X88.35 Y75.973 Z0 F1600
G1 X88.266 Y76.319 Z0 F1600
G1 X88.161 Y76.714 Z0 F1600
G1 X88.043 Y77.137 Z0 F1600
G1 X87.917 Y77.567 Z0 F1600
G1 X87.79 Y77.983 Z0 F1600
G1 X87.669 Y78.362 Z0 F1600
G1 X87.558 Y78.685 Z0 F1600
G1 X87.466 Y78.929 Z0 F1600
G1 X87.205 Y79.562 Z0 F1600
G1 X87.157 Y79.673 Z0 F1600
G1 X87.093 Y79.812 Z0 F1600
G1 X86.928 Y80.158 Z0 F1600
G1 X86.726 Y80.565 Z0 F1600
G1 X86.507 Y80.999 Z0 F1600
G1 X86.286 Y81.425 Z0 F1600
G1 X86.083 Y81.81 Z0 F1600
G1 X85.914 Y82.118 Z0 F1600
G1 X85.848 Y82.232 Z0 F1600
G1 X85.797 Y82.314 Z0 F1600
G1 X85.645 Y82.543 Z0 F1600
G1 X85.439 Y82.844 Z0 F1600
G1 X85.2 Y83.188 Z0 F1600
G1 X84.712 Y83.885 Z0 F1600
G1 X84.419 Y84.294 Z0 F1600
G1 X84.298 Y84.457 Z0 F1600
G1 X84.268 Y84.494 Z0 F1600
G1 X84.097 Y84.695 Z0 F1600
G1 X83.804 Y85.047 Z0 F1600
G1 X83.424 Y85.494 Z0 F1600
G1 X83.044 Y85.921 Z0 F1600
G1 X82.892 Y86.089 Z0 F1600
G1 X82.76 Y86.241 Z0 F1600
G1 X82.661 Y86.361 Z0 F1600
G1 X82.61 Y86.431 Z0 F1600
G1 X82.607 Y86.489 Z0 F1600
G1 X82.633 Y86.601 Z0 F1600
; --- FIX X Backlash ---
G0 X83.133 Y86.601 Z5 F1200
G1 X83.189 Y86.769 Z0 F1600
G1 X83.275 Y86.994 Z0 F1600
G1 X83.393 Y87.279 Z0 F1600
G1 X83.542 Y87.625 Z0 F1600
G1 X83.724 Y88.033 Z0 F1600
G1 X84.009 Y88.661 Z0 F1600
G1 X84.204 Y89.111 Z0 F1600
G1 X84.451 Y89.691 Z0 F1600
G1 X84.584 Y89.994 Z0 F1600
G1 X84.703 Y90.256 Z0 F1600
G1 X84.808 Y90.474 Z0 F1600
G1 X84.897 Y90.648 Z0 F1600
G1 X84.97 Y90.774 Z0 F1600
G1 X85.026 Y90.851 Z0 F1600
G1 X85.063 Y90.877 Z0 F1600
G1 X85.129 Y90.84 Z0 F1600
; --- FIX Y Backlash ---
G0 X85.129 Y90.34 Z5 F1200
G1 X85.257 Y90.24 Z0 F1600
G1 X85.429 Y90.091 Z0 F1600
G1 X85.626 Y89.909 Z0 F1600
G1 X86.474 Y89.106 Z0 F1600
; --- FIX Y Backlash ---
G0 X86.474 Y89.606 Z5 F1200
G1 X87.31 Y89.995 Z0 F1600
G1 X88.235 Y90.423 Z0 F1600
G1 X88.765 Y90.661 Z0 F1600
G1 X89.286 Y90.899 Z0 F1600
G1 X89.696 Y91.08 Z0 F1600
G1 X90.038 Y91.215 Z0 F1600
G1 X90.32 Y91.306 Z0 F1600
G1 X90.547 Y91.354 Z0 F1600
G1 X90.728 Y91.359 Z0 F1600
G1 X90.869 Y91.322 Z0 F1600
; --- FIX Y Backlash ---
G0 X90.869 Y90.822 Z5 F1200
G1 X90.978 Y90.744 Z0 F1600
G1 X91.062 Y90.626 Z0 F1600
G1 X91.096 Y90.571 Z0 F1600
G1 X91.163 Y90.471 Z0 F1600
G1 X91.382 Y90.154 Z0 F1600
G1 X91.697 Y89.708 Z0 F1600
G1 X92.081 Y89.167 Z0 F1600
G1 X92.964 Y87.938 Z0 F1600
G1 X93.835 Y86.74 Z0 F1600
G1 X94.036 Y86.454 Z0 F1600
G1 X94.201 Y86.196 Z0 F1600
G1 X94.264 Y86.086 Z0 F1600
G1 X94.312 Y85.994 Z0 F1600
G1 X94.342 Y85.923 Z0 F1600
G1 X94.353 Y85.877 Z0 F1600
G1 X94.311 Y85.771 Z0 F1600
; --- FIX X Backlash ---
G0 X93.811 Y85.771 Z5 F1200
G1 X93.698 Y85.601 Z0 F1600
G1 X93.53 Y85.389 Z0 F1600
G1 X93.325 Y85.16 Z0 F1600
G1 X92.079 Y83.842 Z0 F1600
G1 X91.53 Y83.254 Z0 F1600
G1 X91.326 Y83.031 Z0 F1600
G1 X91.165 Y82.849 Z0 F1600
G1 X91.04 Y82.702 Z0 F1600
G1 X90.949 Y82.585 Z0 F1600
G1 X90.887 Y82.493 Z0 F1600
G1 X90.849 Y82.42 Z0 F1600
G1 X90.831 Y82.362 Z0 F1600
G1 X90.839 Y82.266 Z0 F1600
; --- FIX X Backlash ---
G0 X91.339 Y82.266 Z5 F1200
G1 X91.435 Y82 Z0 F1600
G1 X91.53 Y81.76 Z0 F1600
G1 X91.647 Y81.473 Z0 F1600
G1 X92.068 Y80.468 Z0 F1600
G1 X92.454 Y79.509 Z0 F1600
G1 X92.559 Y79.271 Z0 F1600
G1 X92.646 Y79.091 Z0 F1600
G1 X92.705 Y78.995 Z0 F1600
G1 X92.758 Y78.967 Z0 F1600
G1 X92.864 Y78.942 Z0 F1600
G1 X93.032 Y78.919 Z0 F1600
G1 X93.265 Y78.899 Z0 F1600
G1 X93.571 Y78.881 Z0 F1600
G1 X93.956 Y78.864 Z0 F1600
G1 X94.425 Y78.849 Z0 F1600
G1 X95.626 Y78.817 Z0 F1600
G1 X96.133 Y78.801 Z0 F1600
G1 X96.523 Y78.785 Z0 F1600
G1 X96.814 Y78.765 Z0 F1600
G1 X97.021 Y78.742 Z0 F1600
G1 X97.162 Y78.714 Z0 F1600
G1 X97.253 Y78.68 Z0 F1600
G1 X97.311 Y78.637 Z0 F1600
G1 X97.38 Y78.521 Z0 F1600
G1 X97.455 Y78.315 Z0 F1600
G1 X97.529 Y78.035 Z0 F1600
G1 X97.597 Y77.701 Z0 F1600
G1 X97.712 Y77.065 Z0 F1600
G1 X97.851 Y76.317 Z0 F1600
G1 X98.034 Y75.355 Z0 F1600
G1 X98.279 Y74.076 Z0 F1600
G1 X98.36 Y73.621 Z0 F1600
G1 X98.418 Y73.228 Z0 F1600
G1 X98.437 Y73.068 Z0 F1600
G1 X98.449 Y72.938 Z0 F1600
G1 X98.452 Y72.846 Z0 F1600
G1 X98.445 Y72.795 Z0 F1600
G1 X98.396 Y72.699 Z0 F1600
; --- FIX X Backlash ---
G0 X97.896 Y72.699 Z5 F1200
G1 X97.751 Y72.609 Z0 F1600
G1 X97.6 Y72.548 Z0 F1600
G1 X97.376 Y72.465 Z0 F1600
G1 X96.069 Y72.006 Z0 F1600
G1 X95.522 Y71.81 Z0 F1600
G1 X95.014 Y71.624 Z0 F1600
G1 X94.558 Y71.454 Z0 F1600
G1 X94.171 Y71.306 Z0 F1600
G1 X93.868 Y71.185 Z0 F1600
G1 X93.753 Y71.137 Z0 F1600
G1 X93.664 Y71.097 Z0 F1600
G1 X93.604 Y71.068 Z0 F1600
G1 X93.575 Y71.049 Z0 F1600
G1 X93.56 Y71.004 Z0 F1600
G1 X93.543 Y70.901 Z0 F1600
G1 X93.524 Y70.746 Z0 F1600
G1 X93.504 Y70.546 Z0 F1600
G1 X93.484 Y70.307 Z0 F1600
G1 X93.464 Y70.037 Z0 F1600
G1 X93.446 Y69.742 Z0 F1600
G1 X93.394 Y68.801 Z0 F1600
G1 X93.362 Y68.241 Z0 F1600
G1 X93.334 Y67.81 Z0 F1600
G1 X93.315 Y67.57 Z0 F1600
G1 X93.305 Y67.395 Z0 F1600
G1 X93.347 Y67.278 Z0 F1600
; --- FIX X Backlash ---
G0 X93.847 Y67.278 Z5 F1200
G1 X93.897 Y67.227 Z0 F1600
G1 X93.972 Y67.176 Z0 F1600
G1 X94.077 Y67.117 Z0 F1600
G1 X94.215 Y67.045 Z0 F1600
G1 X95.299 Y66.474 Z0 F1600
G1 X96.404 Y65.863 Z0 F1600
G1 X96.885 Y65.587 Z0 F1600
G1 X97.276 Y65.355 Z0 F1600
G1 X97.429 Y65.261 Z0 F1600
G1 X97.547 Y65.184 Z0 F1600
G1 X97.627 Y65.127 Z0 F1600
G1 X97.666 Y65.093 Z0 F1600
G1 X97.701 Y65.02 Z0 F1600
G1 X97.721 Y64.926 Z0 F1600
G1 X97.724 Y64.808 Z0 F1600
G1 X97.71 Y64.664 Z0 F1600
G1 X97.679 Y64.49 Z0 F1600
G1 X97.631 Y64.285 Z0 F1600
; --- FIX X Backlash ---
G0 X97.131 Y64.285 Z5 F1200
G1 X97.064 Y64.045 Z0 F1600
G1 X96.98 Y63.767 Z0 F1600
G1 X96.839 Y63.32 Z0 F1600
G1 X96.181 Y61.204 Z0 F1600
G1 X96.057 Y60.809 Z0 F1600
G1 X95.941 Y60.454 Z0 F1600
G1 X95.835 Y60.141 Z0 F1600
G1 X95.739 Y59.875 Z0 F1600
G1 X95.655 Y59.657 Z0 F1600
G1 X95.584 Y59.491 Z0 F1600
G1 X95.527 Y59.378 Z0 F1600
G1 X95.484 Y59.323 Z0 F1600
G1 X95.427 Y59.285 Z0 F1600
G1 X95.357 Y59.259 Z0 F1600
G1 X95.241 Y59.248 Z0 F1600
G1 X95.047 Y59.254 Z0 F1600
G1 X94.912 Y59.263 Z0 F1600
G1 X94.542 Y59.297 Z0 F1600
; --- FIX Y Backlash ---
G0 X94.542 Y59.797 Z5 F1200
G1 X94.015 Y59.853 Z0 F1600
G1 X91.868 Y60.09 Z0 F1600
G1 X91.628 Y60.113 Z0 F1600
G1 X91.427 Y60.128 Z0 F1600
G1 X91.259 Y60.133 Z0 F1600
G1 X91.121 Y60.127 Z0 F1600
G1 X91.008 Y60.111 Z0 F1600
; --- FIX Y Backlash ---
G0 X91.008 Y59.611 Z5 F1200
G1 X90.839 Y59.539 Z0 F1600
G1 X90.717 Y59.409 Z0 F1600
G1 X90.607 Y59.213 Z0 F1600
G1 X90.473 Y58.944 Z0 F1600
G1 X90.076 Y58.214 Z0 F1600
G1 X89.621 Y57.436 Z0 F1600
G1 X89.428 Y57.114 Z0 F1600
G1 X89.27 Y56.837 Z0 F1600
G1 X89.209 Y56.725 Z0 F1600
G1 X89.163 Y56.635 Z0 F1600
G1 X89.134 Y56.57 Z0 F1600
G1 X89.124 Y56.536 Z0 F1600
G1 X89.149 Y56.48 Z0 F1600
; --- FIX X Backlash ---
G0 X89.649 Y56.48 Z5 F1200
G1 X89.721 Y56.356 Z0 F1600
G1 X89.834 Y56.171 Z0 F1600
G1 X89.984 Y55.932 Z0 F1600
G1 X90.165 Y55.649 Z0 F1600
G1 X90.373 Y55.328 Z0 F1600
G1 X91.102 Y54.221 Z0 F1600
G1 X91.335 Y53.86 Z0 F1600
G1 X91.543 Y53.529 Z0 F1600
G1 X91.723 Y53.235 Z0 F1600
G1 X91.87 Y52.986 Z0 F1600
G1 X91.98 Y52.787 Z0 F1600
G1 X92.049 Y52.646 Z0 F1600
G1 X92.073 Y52.569 Z0 F1600
G1 X92.057 Y52.505 Z0 F1600
G1 X92.008 Y52.413 Z0 F1600
; --- FIX X Backlash ---
G0 X91.508 Y52.413 Z5 F1200
G1 X91.426 Y52.294 Z0 F1600
G1 X91.308 Y52.144 Z0 F1600
G1 X91.153 Y51.963 Z0 F1600
G1 X90.961 Y51.749 Z0 F1600
G1 X90.729 Y51.5 Z0 F1600
G1 X90.456 Y51.214 Z0 F1600
G1 X89.704 Y50.436 Z0 F1600
G1 X89.079 Y49.794 Z0 F1600
G1 X88.571 Y49.278 Z0 F1600
G1 X88.169 Y48.879 Z0 F1600
G1 X88.005 Y48.719 Z0 F1600
G1 X87.864 Y48.585 Z0 F1600
G1 X87.745 Y48.475 Z0 F1600
G1 X87.645 Y48.387 Z0 F1600
G1 X87.565 Y48.321 Z0 F1600
G1 X87.503 Y48.276 Z0 F1600
G1 X87.457 Y48.25 Z0 F1600
G1 X87.427 Y48.241 Z0 F1600
G1 X87.362 Y48.267 Z0 F1600
; --- FIX Y Backlash ---
G0 X87.362 Y48.767 Z5 F1200
G1 X87.227 Y48.842 Z0 F1600
G1 X87.029 Y48.959 Z0 F1600
G1 X86.776 Y49.115 Z0 F1600
G1 X86.478 Y49.304 Z0 F1600
G1 X86.142 Y49.521 Z0 F1600
G1 X85.777 Y49.76 Z0 F1600
G1 X85.39 Y50.016 Z0 F1600
G1 X83.48 Y51.29 Z0 F1600
; --- FIX Y Backlash ---
G0 X83.48 Y50.79 Z5 F1200
G1 X82.357 Y49.94 Z0 F1600
G0 Z3.5 F1000
; --- FIX Y Backlash ---
G0 X82.357 Y50.44 Z5 F1200
G0 X54.58 Y54.203 Z3.5
G1 Z0 F1000
; --- FIX Y Backlash ---
G0 X54.58 Y53.703 Z5 F1200
G1 X54.558 Y53.652 Z0 F1600
G1 X54.479 Y53.488 Z0 F1600
G1 X54.361 Y53.261 Z0 F1600
G1 X54.13 Y52.838 Z0 F1600
G1 X53.906 Y52.421 Z0 F1600
G1 X53.501 Y51.66 Z0 F1600
G1 X52.793 Y50.308 Z0 F1600
G1 X52.652 Y50.045 Z0 F1600
G1 X52.593 Y49.939 Z0 F1600
G1 X52.547 Y49.956 Z0 F1600
; --- FIX Y Backlash ---
G0 X52.547 Y50.456 Z5 F1200
G1 X52.442 Y50.526 Z0 F1600
G1 X52.295 Y50.639 Z0 F1600
G1 X51.938 Y50.934 Z0 F1600
G1 X51.774 Y51.067 Z0 F1600
G1 X51.644 Y51.168 Z0 F1600
G1 X51.568 Y51.223 Z0 F1600
G1 X51.526 Y51.218 Z0 F1600
G1 X51.441 Y51.182 Z0 F1600
; --- FIX Y Backlash ---
G0 X51.441 Y50.682 Z5 F1200
G1 X51.318 Y50.62 Z0 F1600
G1 X51.161 Y50.533 Z0 F1600
G1 X50.975 Y50.425 Z0 F1600
G1 X50.765 Y50.299 Z0 F1600
G1 X50.534 Y50.156 Z0 F1600
G1 X50.287 Y50.001 Z0 F1600
G1 X49.766 Y49.665 Z0 F1600
G1 X49.238 Y49.312 Z0 F1600
G1 X48.739 Y48.967 Z0 F1600
G1 X48.098 Y48.502 Z0 F1600
G1 X47.924 Y48.395 Z0 F1600
G1 X47.775 Y48.328 Z0 F1600
G1 X47.642 Y48.303 Z0 F1600
G1 X47.515 Y48.319 Z0 F1600
; --- FIX Y Backlash ---
G0 X47.515 Y48.819 Z5 F1200
G1 X47.387 Y48.876 Z0 F1600
G1 X47.248 Y48.973 Z0 F1600
G1 X47.091 Y49.109 Z0 F1600
G1 X46.98 Y49.215 Z0 F1600
G1 X46.81 Y49.383 Z0 F1600
G1 X46.328 Y49.871 Z0 F1600
G1 X45.712 Y50.503 Z0 F1600
G1 X45.028 Y51.211 Z0 F1600
G1 X44.545 Y51.716 Z0 F1600
G1 X44.162 Y52.121 Z0 F1600
G1 X43.871 Y52.438 Z0 F1600
G1 X43.756 Y52.567 Z0 F1600
G1 X43.66 Y52.68 Z0 F1600
G1 X43.518 Y52.859 Z0 F1600
G1 X43.435 Y52.989 Z0 F1600
G1 X43.401 Y53.081 Z0 F1600
G1 X43.404 Y53.149 Z0 F1600
G1 X43.428 Y53.204 Z0 F1600
G1 X43.473 Y53.29 Z0 F1600
; --- FIX X Backlash ---
G0 X43.973 Y53.29 Z5 F1200
G1 X44.037 Y53.403 Z0 F1600
G1 X44.116 Y53.539 Z0 F1600
G1 X44.314 Y53.859 Z0 F1600
G1 X44.543 Y54.216 Z0 F1600
G1 X44.769 Y54.56 Z0 F1600
G1 X45.024 Y54.958 Z0 F1600
G1 X45.112 Y55.1 Z0 F1600
G1 X45.136 Y55.148 Z0 F1600
G1 X45.232 Y55.297 Z0 F1600
G1 X45.509 Y55.716 Z0 F1600
G1 X46.385 Y57.008 Z0 F1600
; --- FIX X Backlash ---
G0 X45.885 Y57.008 Z5 F1200
G1 X45.529 Y57.553 Z0 F1600
G1 X45.446 Y57.683 Z0 F1600
G1 X45.347 Y57.845 Z0 F1600
G1 X45.236 Y58.031 Z0 F1600
G1 X45.116 Y58.237 Z0 F1600
G1 X44.865 Y58.678 Z0 F1600
G1 X44.478 Y59.385 Z0 F1600
G1 X44.353 Y59.605 Z0 F1600
G1 X44.246 Y59.783 Z0 F1600
G1 X44.156 Y59.92 Z0 F1600
G1 X44.079 Y60.021 Z0 F1600
G1 X44.013 Y60.089 Z0 F1600
G1 X43.956 Y60.127 Z0 F1600
G1 X43.906 Y60.139 Z0 F1600
G1 X43.83 Y60.135 Z0 F1600
G1 X43.459 Y60.104 Z0 F1600
; --- FIX Y Backlash ---
G0 X43.459 Y59.604 Z5 F1200
G1 X42.858 Y59.547 Z0 F1600
G1 X41.235 Y59.385 Z0 F1600
G1 X40.829 Y59.348 Z0 F1600
G1 X40.466 Y59.318 Z0 F1600
G1 X40.154 Y59.296 Z0 F1600
G1 X39.895 Y59.282 Z0 F1600
G1 X39.697 Y59.276 Z0 F1600
G1 X39.562 Y59.279 Z0 F1600
G1 X39.496 Y59.292 Z0 F1600
; --- FIX Y Backlash ---
G0 X39.496 Y59.792 Z5 F1200
G1 X39.442 Y59.849 Z0 F1600
G1 X39.374 Y59.973 Z0 F1600
G1 X39.29 Y60.169 Z0 F1600

; Color picking sequence
G1 Z10 F1000;         ; Raise brush
G0 X131 Y5 F1200;    ; Rapid move to color 1
G1 Z10 F1000;         ; Raise brush
G0 X131 Y5 F1200;    ; Rapid move to color 1
G1 Z0 F1000;         ; Lower into color
G1 X130.102 Y7.295 Z0 S800 F1200
G1 X130.026 Y7.642 Z0 F1200
G1 X130 Y8 Z0 F1200
G1 X130.026 Y8.358 Z0 F1200
G1 X130.102 Y8.705 Z0 F1200
G1 X130.225 Y9.041 Z0 F1200
G1 X130.393 Y9.362 Z0 F1200
G1 X130.603 Y9.668 Z0 F1200
G1 X130.854 Y9.957 Z0 F1200
G1 X131.142 Y10.226 Z0 F1200
G1 X131.464 Y10.475 Z0 F1200
G1 X131.82 Y10.701 Z0 F1200
G1 X132.204 Y10.902 Z0 F1200
G1 X132.617 Y11.078 Z0 F1200
G1 X133.054 Y11.225 Z0 F1200
G1 X133.513 Y11.343 Z0 F1200
G1 X133.992 Y11.429 Z0 F1200
G1 X134.489 Y11.482 Z0 F1200
G1 X135 Y11.5 Z0 F1200
G1 X135.511 Y11.482 Z0 F1200
G1 X136.008 Y11.429 Z0 F1200
G1 X136.487 Y11.343 Z0 F1200
G1 X136.946 Y11.225 Z0 F1200
G1 X137.383 Y11.078 Z0 F1200
G1 X137.796 Y10.902 Z0 F1200
G1 X138.18 Y10.701 Z0 F1200
G1 X138.536 Y10.475 Z0 F1200
G1 X138.858 Y10.226 Z0 F1200
G1 X139.146 Y9.957 Z0 F1200
G1 X139.397 Y9.668 Z0 F1200
G1 X139.607 Y9.362 Z0 F1200
G1 X139.775 Y9.041 Z0 F1200
G1 X139.898 Y8.705 Z0 F1200
G1 X139.974 Y8.358 Z0 F1200
G1 X140 Y8 Z0 F1200
G1 X139.974 Y7.642 Z0 F1200
G1 X139.898 Y7.295 Z0 F1200
G1 X139.775 Y6.959 Z0 F1200
G1 X139.607 Y6.638 Z0 F1200
G1 X139.397 Y6.332 Z0 F1200
G1 X139.146 Y6.043 Z0 F1200
G1 X138.858 Y5.774 Z0 F1200
G1 X138.536 Y5.525 Z0 F1200
G1 X138.18 Y5.299 Z0 F1200
G1 X137.796 Y5.098 Z0 F1200
G1 X137.383 Y4.922 Z0 F1200
G1 X136.946 Y4.775 Z0 F1200
G1 X136.487 Y4.657 Z0 F1200
G1 X136.008 Y4.571 Z0 F1200
G1 X135.511 Y4.518 Z0 F1200
G1 X135 Y4.5 Z0 F1200
G1 X134.489 Y4.518 Z0 F1200
G1 X133.992 Y4.571 Z0 F1200
G1 X133.513 Y4.657 Z0 F1200
G1 X133.054 Y4.775 Z0 F1200
G1 X132.617 Y4.922 Z0 F1200
G1 X132.204 Y5.098 Z0 F1200
G1 X131.82 Y5.299 Z0 F1200
G1 X131.464 Y5.525 Z0 F1200
G1 X131.142 Y5.774 Z0 F1200
G1 X130.854 Y6.043 Z0 F1200
G1 X130.603 Y6.332 Z0 F1200
G1 X130.393 Y6.638 Z0 F1200
G1 X130.225 Y6.959 Z0 F1200
G1 Z7 F800;         ; Raise from color
G1 X124 Y8 Z1 F1200;     ; Movement in paint
G1 X114 Y18 Z8 F500;     ; Move in paint
G1 F1200;           ; Set feed rate
G0 X39.29 Y60.169 F1200 ; Return
G1 Z0 F1000 ; Restore Z
G1 X39.188 Y60.443 Z0 F1600
G1 X39.065 Y60.804 Z0 F1600
G1 X38.919 Y61.256 Z0 F1600
G1 X38.837 Y61.519 Z0 F1600
G1 X38.653 Y62.121 Z0 F1600
G1 X38.43 Y62.86 Z0 F1600
G1 X38.2 Y63.602 Z0 F1600
G1 X38.018 Y64.168 Z0 F1600
G1 X37.931 Y64.457 Z0 F1600
G1 X37.857 Y64.719 Z0 F1600
G1 X37.798 Y64.95 Z0 F1600
G1 X37.755 Y65.147 Z0 F1600
G1 X37.728 Y65.306 Z0 F1600
G1 X37.718 Y65.423 Z0 F1600
G1 X37.726 Y65.494 Z0 F1600
G1 X37.754 Y65.539 Z0 F1600
; --- FIX X Backlash ---
G0 X38.254 Y65.539 Z5 F1200
G1 X38.306 Y65.595 Z0 F1600
G1 X38.383 Y65.661 Z0 F1600
G1 X38.483 Y65.737 Z0 F1600
G1 X38.754 Y65.92 Z0 F1600
G1 X39.115 Y66.14 Z0 F1600
G1 X39.563 Y66.396 Z0 F1600
G1 X40.095 Y66.686 Z0 F1600
G1 X40.708 Y67.009 Z0 F1600
G1 X41.399 Y67.361 Z0 F1600
G1 X42.193 Y67.761 Z0 F1600
; --- FIX X Backlash ---
G0 X41.693 Y67.761 Z5 F1200
G1 X41.571 Y69.813 Z0 F1600
G1 X41.522 Y70.555 Z0 F1600
G1 X41.494 Y70.926 Z0 F1600
G1 X41.471 Y71.205 Z0 F1600
G1 X41.45 Y71.4 Z0 F1600
G1 X41.431 Y71.519 Z0 F1600
G1 X41.415 Y71.566 Z0 F1600
G1 X41.378 Y71.587 Z0 F1600
G1 X41.296 Y71.623 Z0 F1600
G1 X41.017 Y71.735 Z0 F1600
G1 X40.616 Y71.888 Z0 F1600
G1 X40.132 Y72.069 Z0 F1600
G1 X39.604 Y72.262 Z0 F1600
G1 X39.072 Y72.453 Z0 F1600
G1 X38.573 Y72.628 Z0 F1600
G1 X38.146 Y72.773 Z0 F1600
G1 X37.784 Y72.901 Z0 F1600
G1 X37.47 Y73.027 Z0 F1600
G1 X37.342 Y73.085 Z0 F1600
G1 X37.238 Y73.137 Z0 F1600
G1 X37.164 Y73.181 Z0 F1600
G1 X37.123 Y73.215 Z0 F1600
G1 X37.083 Y73.284 Z0 F1600
G1 X37.057 Y73.378 Z0 F1600
G1 X37.048 Y73.51 Z0 F1600
G1 X37.056 Y73.69 Z0 F1600
G1 X37.082 Y73.931 Z0 F1600
G1 X37.127 Y74.243 Z0 F1600
; --- FIX X Backlash ---
G0 X37.627 Y74.243 Z5 F1200
G1 X37.692 Y74.638 Z0 F1600
G1 X38.203 Y77.535 Z0 F1600
G1 X38.267 Y77.89 Z0 F1600
G1 X38.327 Y78.2 Z0 F1600
G1 X38.383 Y78.465 Z0 F1600
G1 X38.434 Y78.686 Z0 F1600
G1 X38.482 Y78.864 Z0 F1600
G1 X38.527 Y79.001 Z0 F1600
G1 X38.568 Y79.096 Z0 F1600
G1 X38.606 Y79.151 Z0 F1600
G1 X38.662 Y79.191 Z0 F1600
G1 X38.751 Y79.224 Z0 F1600
G1 X38.884 Y79.251 Z0 F1600
G1 X39.073 Y79.273 Z0 F1600
G1 X39.332 Y79.292 Z0 F1600
G1 X39.672 Y79.309 Z0 F1600
G1 X40.107 Y79.324 Z0 F1600
G1 X40.648 Y79.34 Z0 F1600
G1 X42.094 Y79.377 Z0 F1600
G1 X42.614 Y79.388 Z0 F1600
G1 X42.901 Y79.392 Z0 F1600
G1 X43.107 Y79.401 Z0 F1600
G1 X43.232 Y79.454 Z0 F1600
G1 X43.279 Y79.512 Z0 F1600
G1 X43.325 Y79.599 Z0 F1600
G1 X43.375 Y79.719 Z0 F1600
G1 X43.596 Y80.296 Z0 F1600
G1 X43.729 Y80.618 Z0 F1600
G1 X44.099 Y81.484 Z0 F1600
G1 X44.714 Y82.94 Z0 F1600
; --- FIX X Backlash ---
G0 X44.214 Y82.94 Z5 F1200
G1 X43.173 Y84.056 Z0 F1600
G1 X42.307 Y84.981 Z0 F1600
G1 X41.686 Y85.638 Z0 F1600
G1 X41.508 Y85.834 Z0 F1600
G1 X41.356 Y86.023 Z0 F1600
G1 X41.245 Y86.183 Z0 F1600
G1 X41.191 Y86.294 Z0 F1600
G1 X41.175 Y86.375 Z0 F1600
G1 X41.183 Y86.464 Z0 F1600
; --- FIX X Backlash ---
G0 X41.683 Y86.464 Z5 F1200
G1 X41.735 Y86.593 Z0 F1600
G1 X41.848 Y86.791 Z0 F1600
G1 X41.935 Y86.926 Z0 F1600
G1 X42.043 Y87.09 Z0 F1600
G1 X42.339 Y87.52 Z0 F1600
G1 X42.754 Y88.112 Z0 F1600
G1 X43.848 Y89.663 Z0 F1600
G1 X44.669 Y90.835 Z0 F1600
G1 X44.85 Y91.097 Z0 F1600
G1 X44.951 Y91.231 Z0 F1600
G1 X45.055 Y91.325 Z0 F1600
G1 X45.175 Y91.378 Z0 F1600
G1 X45.322 Y91.389 Z0 F1600
G1 X45.51 Y91.357 Z0 F1600
; --- FIX Y Backlash ---
G0 X45.51 Y90.857 Z5 F1200
G1 X45.749 Y90.782 Z0 F1600
G1 X46.053 Y90.664 Z0 F1600
G1 X46.432 Y90.5 Z0 F1600
G1 X46.883 Y90.3 Z0 F1600
G1 X47.379 Y90.076 Z0 F1600
G1 X47.935 Y89.823 Z0 F1600
G1 X49.518 Y89.096 Z0 F1600
; --- FIX Y Backlash ---
G0 X49.518 Y89.596 Z5 F1200
G1 X49.833 Y89.869 Z0 F1600
G1 X50.166 Y90.17 Z0 F1600
G1 X50.677 Y90.652 Z0 F1600
G1 X50.811 Y90.769 Z0 F1600
G1 X50.914 Y90.848 Z0 F1600
G1 X50.97 Y90.877 Z0 F1600
; --- FIX Y Backlash ---
G0 X50.97 Y90.377 Z5 F1200
G1 X51.044 Y90.309 Z0 F1600
G1 X51.126 Y90.145 Z0 F1600
G1 X51.246 Y89.857 Z0 F1600
G1 X51.411 Y89.491 Z0 F1600
G1 X51.875 Y88.485 Z0 F1600
G1 X52.348 Y87.443 Z0 F1600
G1 X52.739 Y86.566 Z0 F1600
G1 X52.836 Y86.337 Z0 F1600
G1 X52.885 Y86.159 Z0 F1600
G1 X52.882 Y86.008 Z0 F1600
; --- FIX X Backlash ---
G0 X52.382 Y86.008 Z5 F1200
G1 X52.32 Y85.858 Z0 F1600
G1 X52.196 Y85.685 Z0 F1600
G1 X52.108 Y85.581 Z0 F1600
G1 X51.735 Y85.164 Z0 F1600
G1 X51.145 Y84.482 Z0 F1600
G1 X50.591 Y83.797 Z0 F1600
G1 X50.071 Y83.107 Z0 F1600
G1 X49.586 Y82.411 Z0 F1600
G1 X49.134 Y81.708 Z0 F1600
G1 X48.716 Y80.996 Z0 F1600
G1 X48.33 Y80.275 Z0 F1600
G1 X47.976 Y79.542 Z0 F1600
G1 X47.654 Y78.798 Z0 F1600
G1 X47.362 Y78.039 Z0 F1600
G1 X47.1 Y77.266 Z0 F1600
G1 X46.868 Y76.476 Z0 F1600
G1 X46.664 Y75.669 Z0 F1600
G1 X46.489 Y74.842 Z0 F1600
G1 X46.342 Y73.996 Z0 F1600
G1 X46.222 Y73.128 Z0 F1600
G1 X46.196 Y72.87 Z0 F1600
G1 X46.176 Y72.573 Z0 F1600
G1 X46.161 Y72.244 Z0 F1600
G1 X46.152 Y71.887 Z0 F1600
G1 X46.148 Y71.112 Z0 F1600
G1 X46.164 Y70.291 Z0 F1600
G1 X46.197 Y69.467 Z0 F1600
; --- FIX X Backlash ---
G0 X46.697 Y69.467 Z5 F1200
G1 X46.748 Y68.684 Z0 F1600
G1 X46.779 Y68.321 Z0 F1600
G1 X46.813 Y67.983 Z0 F1600
G1 X46.852 Y67.678 Z0 F1600
G1 X46.893 Y67.409 Z0 F1600
G1 X47.157 Y66.103 Z0 F1600
G1 X47.484 Y64.849 Z0 F1600
G1 X47.877 Y63.639 Z0 F1600
G1 X48.338 Y62.469 Z0 F1600
G1 X48.872 Y61.332 Z0 F1600
G1 X49.479 Y60.221 Z0 F1600
G1 X50.163 Y59.131 Z0 F1600
G1 X50.927 Y58.055 Z0 F1600
G1 X51.079 Y57.86 Z0 F1600
G1 X51.262 Y57.637 Z0 F1600
G1 X51.472 Y57.391 Z0 F1600
G1 X51.704 Y57.126 Z0 F1600
G1 X52.219 Y56.557 Z0 F1600
G1 X52.773 Y55.967 Z0 F1600
G1 X53.331 Y55.392 Z0 F1600
G1 X53.859 Y54.867 Z0 F1600
G1 X54.101 Y54.635 Z0 F1600
G1 X54.322 Y54.429 Z0 F1600
G1 X54.519 Y54.254 Z0 F1600
G1 X54.842 Y53.984 Z0 F1600
G1 X54.97 Y53.869 Z0 F1600
G1 X55.056 Y53.78 Z0 F1600
G1 X55.088 Y53.73 Z0 F1600
G1 X55.08 Y53.703 Z0 F1600
G0 Z3.5 F1000
; --- FIX Y Backlash ---
G0 X55.08 Y54.203 Z5 F1200
G0 X58.902 Y90.539 Z3.5
G1 Z0 F1000
G1 X58.878 Y90.555 Z0 F1600
G1 X58.835 Y90.601 Z0 F1600
; --- FIX X Backlash ---
G0 X58.335 Y90.601 Z5 F1200
G1 X58.275 Y90.673 Z0 F1600
G1 X58.201 Y90.769 Z0 F1600
G1 X58.018 Y91.017 Z0 F1600
G1 X57.808 Y91.321 Z0 F1600
G1 X57.591 Y91.64 Z0 F1600
G1 X57.302 Y92.061 Z0 F1600
G1 X57.071 Y92.389 Z0 F1600
G1 X56.501 Y93.215 Z0 F1600
G1 X55.354 Y94.895 Z0 F1600
G1 X54.586 Y96.012 Z0 F1600
G1 X53.68 Y97.319 Z0 F1600
G1 X53.447 Y97.668 Z0 F1600
G1 X53.359 Y97.804 Z0 F1600
G1 X53.294 Y97.909 Z0 F1600
G1 X53.256 Y97.977 Z0 F1600
G1 X53.247 Y98.004 Z0 F1600
; --- FIX X Backlash ---
G0 X53.747 Y98.004 Z5 F1200
G1 X53.816 Y98.051 Z0 F1600
G1 X53.941 Y98.122 Z0 F1600
G1 X54.113 Y98.214 Z0 F1600
G1 X54.326 Y98.324 Z0 F1600
G1 X54.838 Y98.578 Z0 F1600
G1 X55.413 Y98.855 Z0 F1600
G1 X55.987 Y99.124 Z0 F1600
G1 X56.494 Y99.354 Z0 F1600
G1 X56.702 Y99.445 Z0 F1600
G1 X56.87 Y99.514 Z0 F1600
G1 X56.989 Y99.559 Z0 F1600
G1 X57.051 Y99.575 Z0 F1600
G1 X57.177 Y99.55 Z0 F1600
; --- FIX Y Backlash ---
G0 X57.177 Y99.05 Z5 F1200
G1 X57.31 Y98.965 Z0 F1600
G1 X57.385 Y98.895 Z0 F1600
G1 X57.469 Y98.803 Z0 F1600
G1 X57.565 Y98.688 Z0 F1600
G1 X58.061 Y98.05 Z0 F1600
G1 X58.806 Y97.125 Z0 F1600
G1 X59.413 Y96.345 Z0 F1600
G1 X59.58 Y96.134 Z0 F1600
G1 X59.711 Y95.972 Z0 F1600
G1 X59.902 Y95.753 Z0 F1600
G1 X60.021 Y95.596 Z0 F1600
G1 X60.094 Y95.507 Z0 F1600
G1 X60.164 Y95.467 Z0 F1600
G1 X60.254 Y95.47 Z0 F1600
; --- FIX Y Backlash ---
G0 X60.254 Y95.97 Z5 F1200
G1 X60.611 Y96.092 Z0 F1600
G1 X60.933 Y96.185 Z0 F1600
G1 X61.318 Y96.287 Z0 F1600
G1 X61.737 Y96.39 Z0 F1600
G1 X62.16 Y96.487 Z0 F1600
G1 X62.557 Y96.57 Z0 F1600
G1 X62.899 Y96.634 Z0 F1600
G1 X63.155 Y96.671 Z0 F1600
G1 X63.418 Y96.706 Z0 F1600
G1 X63.602 Y96.749 Z0 F1600
G1 X63.722 Y96.806 Z0 F1600
G1 X63.789 Y96.88 Z0 F1600
G1 X63.814 Y96.953 Z0 F1600
G1 X63.853 Y97.104 Z0 F1600
G1 X63.906 Y97.323 Z0 F1600
G1 X63.968 Y97.6 Z0 F1600
G1 X64.04 Y97.928 Z0 F1600
G1 X64.117 Y98.296 Z0 F1600
G1 X64.2 Y98.695 Z0 F1600
G1 X64.376 Y99.568 Z0 F1600
G1 X64.462 Y99.977 Z0 F1600
G1 X64.543 Y100.339 Z0 F1600
G1 X64.616 Y100.649 Z0 F1600
G1 X64.681 Y100.903 Z0 F1600
G1 X64.736 Y101.095 Z0 F1600
G1 X64.78 Y101.22 Z0 F1600
G1 X64.812 Y101.274 Z0 F1600
G1 X64.839 Y101.281 Z0 F1600
G1 X64.897 Y101.288 Z0 F1600
G1 X64.983 Y101.295 Z0 F1600
G1 X65.097 Y101.302 Z0 F1600
G1 X65.399 Y101.314 Z0 F1600
G1 X65.79 Y101.325 Z0 F1600
G1 X66.257 Y101.334 Z0 F1600
G1 X66.787 Y101.34 Z0 F1600
G1 X67.367 Y101.345 Z0 F1600
G1 X67.984 Z0 F1600
G1 X71.043 Y101.348 Z0 F1600
; --- FIX Y Backlash ---
G0 X71.043 Y100.848 Z5 F1200
G1 X71.167 Y100.658 Z0 F1600
G1 X71.226 Y100.524 Z0 F1600
G1 X71.296 Y100.301 Z0 F1600
G1 X71.368 Y100.018 Z0 F1600
G1 X71.433 Y99.708 Z0 F1600
G1 X71.728 Y98.183 Z0 F1600
G1 X72.113 Y96.25 Z0 F1600
G1 X72.868 Y96.145 Z0 F1600
G1 X73.042 Y96.118 Z0 F1600
G1 X73.247 Y96.081 Z0 F1600
G1 X73.476 Y96.037 Z0 F1600
G1 X73.722 Y95.986 Z0 F1600
G1 X74.232 Y95.872 Z0 F1600
G1 X74.716 Y95.753 Z0 F1600
G1 X75.811 Y95.465 Z0 F1600
; --- FIX Y Backlash ---
G0 X75.811 Y95.965 Z5 F1200
G1 X76.093 Y96.327 Z0 F1600
G1 X76.704 Y97.098 Z0 F1600
G1 X77.229 Y97.765 Z0 F1600
G1 X77.983 Y98.744 Z0 F1600
G1 X78.197 Y99.015 Z0 F1600
G1 X78.368 Y99.222 Z0 F1600
G1 X78.505 Y99.372 Z0 F1600
G1 X78.616 Y99.473 Z0 F1600
G1 X78.71 Y99.535 Z0 F1600
G1 X78.795 Y99.566 Z0 F1600
G1 X78.879 Y99.575 Z0 F1600
G1 X78.957 Y99.558 Z0 F1600
G1 X79.092 Y99.509 Z0 F1600
; --- FIX Y Backlash ---
G0 X79.092 Y99.009 Z5 F1200
G1 X79.276 Y98.934 Z0 F1600
G1 X79.5 Y98.836 Z0 F1600
G1 X80.035 Y98.588 Z0 F1600
G1 X80.628 Y98.301 Z0 F1600
G1 X81.209 Y98.007 Z0 F1600
G1 X81.71 Y97.743 Z0 F1600
G1 X81.908 Y97.632 Z0 F1600
G1 X82.061 Y97.541 Z0 F1600
G1 X82.159 Y97.474 Z0 F1600
G1 X82.193 Y97.436 Z0 F1600
G1 X82.159 Y97.341 Z0 F1600
; --- FIX X Backlash ---
G0 X81.659 Y97.341 Z5 F1200
G1 X81.577 Y97.224 Z0 F1600
G1 X81.54 Y97.176 Z0 F1600
G1 X81.386 Y96.967 Z0 F1600
G1 X81.012 Y96.445 Z0 F1600
G1 X80.39 Y95.561 Z0 F1600
G1 X79.951 Y94.93 Z0 F1600
G1 X79.723 Y94.598 Z0 F1600
G1 X79.375 Y94.084 Z0 F1600
G1 X78.742 Y93.173 Z0 F1600
G1 X78.287 Y92.509 Z0 F1600
G1 X77.694 Y91.638 Z0 F1600
G1 X76.969 Y90.567 Z0 F1600
G1 X76.824 Y90.362 Z0 F1600
G1 X76.693 Y90.195 Z0 F1600
G1 X76.589 Y90.081 Z0 F1600
G1 X76.528 Y90.039 Z0 F1600
G1 X76.449 Y90.06 Z0 F1600
; --- FIX Y Backlash ---
G0 X76.449 Y90.56 Z5 F1200
G1 X76.294 Y90.616 Z0 F1600
G1 X76.087 Y90.699 Z0 F1600
G1 X75.849 Y90.801 Z0 F1600
G1 X75.23 Y91.051 Z0 F1600
G1 X74.535 Y91.295 Z0 F1600
G1 X73.785 Y91.527 Z0 F1600
G1 X73.003 Y91.741 Z0 F1600
G1 X72.212 Y91.932 Z0 F1600
G1 X71.433 Y92.094 Z0 F1600
G1 X70.69 Y92.221 Z0 F1600
G1 X70.004 Y92.307 Z0 F1600
G1 X69.463 Y92.348 Z0 F1600
G1 X68.844 Y92.376 Z0 F1600
G1 X68.174 Y92.391 Z0 F1600
G1 X67.477 Z0 F1600
G1 X66.778 Y92.381 Z0 F1600
G1 X66.102 Y92.356 Z0 F1600
G1 X65.474 Y92.319 Z0 F1600
G1 X64.919 Y92.269 Z0 F1600
; --- FIX Y Backlash ---
G0 X64.919 Y91.769 Z5 F1200
G1 X64.132 Y91.667 Z0 F1600
G1 X63.333 Y91.535 Z0 F1600
G1 X62.534 Y91.374 Z0 F1600
G1 X61.747 Y91.188 Z0 F1600
G1 X60.983 Y90.981 Z0 F1600
G1 X60.255 Y90.754 Z0 F1600
G1 X59.575 Y90.512 Z0 F1600
G1 X58.955 Y90.256 Z0 F1600
G1 X58.76 Y90.172 Z0 F1600
G1 X58.591 Y90.103 Z0 F1600
G1 X58.466 Y90.057 Z0 F1600
G1 X58.402 Y90.039 Z0 F1600
M9
M5
G1 Z10 F1000
G1 Z10 F800


; Return to 2,0 wash and park
G1 Z10 F1000;        ; Raise brush
G0 X5 Y5 F1200;     ; Rapid move to clean
G1 Z-1 F800;         ; Lower brush
G1 X10 Y12 Z8 F1200;     ; Move
G1 Z-1 F800;         ; Lower
G1 X25 Y14 Z6 F800;     ; Move
G0 X5 Y5 F1200;     ; Rapid
G1 Z-1 F800;         ; Lower
G1 X15 Y12 Z8 F1200;     ; Move
G1 Z-1 F800;         ; Lower
G1 X25 Y14 Z6 F800;     ; Move
G1 Z10 F800;         ; Maintain
G0 X20 Y130 Z10 F500;; Move to park
M2;                 ; End program
