
G0 Z10 F500;      ; Move to clearance level - Z motion limited to 500
; G0 X-10 Y-10 F1200; Homing
; G0 X-5 Y-5 F1200; go in
; G10 P0 L20 X0 Y0; set to zero
G1 F1200;           ; Set feed rate to 1000
G90 ; Absolute positioning
G21 ; Millimeters
;LightBurn 1.6.04
;Custom GCode device profile, absolute coords
;Bounds: X24.84 Y34.56 to X97.17 Y77.44
G00 G17 G40 G21 G54
G90
M4
;Cut @ 1200 mm/min, 80% power

M8

; Washing sequence (no color)
G1 Z10 F1000;        ; Raise brush to safe height
G0 X5 Y5 F1200;     ; Rapid move to brush cleaning position
G1 Z-1 F800;         ; Lower brush for cleaning - controlled movement
G1 X10 Y12 Z8 F1200;     ; Rapid move to brush cleaning position
G1 Z-1 F800;         ; Lower brush for cleaning - controlled movement
G1 X25 Y14 Z6 F800;     ; Move across cleaning area - controlled movement
G1 Z8 F800;         ; Maintain brush height - controlled movement
G0 X5 Y5 F1200;     ; Rapid move to brush cleaning position
G1 Z-1 F800;         ; Lower brush for cleaning - controlled movement
G1 X15 Y12 Z8 F1200;     ; Rapid move to brush cleaning position
G1 Z-1 F800;         ; Lower brush for cleaning - controlled movement
G1 X25 Y14 Z6 F800;     ; Move across cleaning area - controlled movement
G1 Z10 F800;         ; Maintain brush height - controlled movement
G1 F1200;           ; Set feed rate to 1000
G0 Z3.5 F1000
G0 X34.347 Y39.909 Z3.500
G1 Z0 F1000
;Layer Wash
G1 X34.312 Y40.025 Z0.000 F1600
G1 X34.331 Y40.105 Z0.000 F1600
G1 X34.393 Y40.156 Z0.000 F1600
G1 X34.485 Y40.185 Z0.000 F1600
G1 X34.710 Y40.200 Z0.000 F1600
G1 X34.907 Y40.206 Z0.000 F1600
G1 X37.261 Y40.355 Z0.000 F1600
G1 X39.618 Y40.465 Z0.000 F1600
G1 X39.823 Y40.465 Z0.000 F1600
G1 X40.060 Y40.455 Z0.000 F1600
G1 X40.165 Y40.430 Z0.000 F1600
G1 X40.246 Y40.382 Z0.000 F1600
; --- FIX Y Backlash: -0.800mm ---
G0 X40.246 Y39.582 F600
G1 X40.294 Y39.504 Z0.000 F1600
G1 X40.297 Y39.388 Z0.000 F1600
; --- FIX X Backlash: -0.600mm ---
G0 X39.697 Y39.388 F600
G1 X39.420 Y39.184 Z0.000 F1600
G1 X39.098 Y39.041 Z0.000 F1600
G1 X38.426 Y38.818 Z0.000 F1600
G1 X37.991 Y38.733 Z0.000 F1600
G1 X37.553 Y38.700 Z0.000 F1600
G1 X37.115 Y38.706 Z0.000 F1600
G1 X36.675 Y38.741 Z0.000 F1600
; --- FIX Y Backlash: 0.800mm ---
G0 X36.675 Y39.541 F600
G1 X35.795 Y39.648 Z0.000 F1600
G1 X34.916 Y39.727 Z0.000 F1600
G1 X34.622 Y39.763 Z0.000 F1600
G1 X34.323 Y39.787 Z0.000 F1600
G1 X34.028 Y39.826 Z0.000 F1600
G1 X33.747 Y39.909 Z0.000 F1600
G0 Z3.5 F1000
; --- FIX X Backlash: 0.600mm ---
G0 X34.347 Y39.909 F600
G0 X34.714 Y40.904 Z3.500
G1 Z0 F1000
; --- FIX X Backlash: -0.600mm ---
G0 X34.114 Y40.904 F600
G1 X32.451 Y40.870 Z0.000 F1600
G1 X32.199 Y40.910 Z0.000 F1600
G1 X31.959 Y41.006 Z0.000 F1600
G1 X31.740 Y41.143 Z0.000 F1600
G1 X31.553 Y41.308 Z0.000 F1600
G1 X31.587 Y41.417 Z0.000 F1600
; --- FIX X Backlash: 0.600mm ---
G0 X32.187 Y41.417 F600
G1 X32.255 Y41.487 Z0.000 F1600
G1 X32.349 Y41.525 Z0.000 F1600
G1 X32.462 Y41.540 Z0.000 F1600
G1 X32.707 Y41.540 Z0.000 F1600
G1 X32.924 Y41.549 Z0.000 F1600
G1 X34.104 Y41.563 Z0.000 F1600
G1 X35.285 Y41.566 Z0.000 F1600
G1 X36.460 Y41.563 Z0.000 F1600
G1 X37.637 Y41.567 Z0.000 F1600
G1 X38.813 Y41.559 Z0.000 F1600
G1 X39.986 Y41.519 Z0.000 F1600
; --- FIX Y Backlash: -0.800mm ---
G0 X39.986 Y40.719 F600
G1 X40.059 Y40.648 Z0.000 F1600
G1 X40.082 Y40.579 Z0.000 F1600
G1 X40.065 Y40.516 Z0.000 F1600
G1 X40.017 Y40.461 Z0.000 F1600
; --- FIX X Backlash: -0.600mm ---
G0 X39.417 Y40.461 F600
G1 X39.264 Y40.390 Z0.000 F1600
G1 X39.096 Y40.393 Z0.000 F1600
G1 X37.435 Y40.300 Z0.000 F1600
G1 X35.775 Y40.192 Z0.000 F1600
G1 X34.114 Y40.104 Z0.000 F1600
G0 Z3.5 F1000
; --- FIX Y Backlash: 0.800mm ---
G0 X34.114 Y40.904 F600
G0 X32.630 Y44.453 Z3.500
G1 Z0 F1000
; --- FIX Y Backlash: -0.800mm ---
G0 X32.630 Y43.653 F600
G1 X31.676 Y43.470 Z0.000 F1600
G1 X30.716 Y43.307 Z0.000 F1600
G1 X29.751 Y43.194 Z0.000 F1600
G1 X28.782 Y43.164 Z0.000 F1600
; --- FIX Y Backlash: 0.800mm ---
G0 X28.782 Y43.964 F600
G1 X28.687 Y44.032 Z0.000 F1600
G1 X28.650 Y44.111 Z0.000 F1600
G1 X28.659 Y44.197 Z0.000 F1600
G1 X28.704 Y44.285 Z0.000 F1600
; --- FIX X Backlash: 0.600mm ---
G0 X29.304 Y44.285 F600
G1 X29.453 Y44.455 Z0.000 F1600
G1 X29.600 Y44.592 Z0.000 F1600
G1 X29.737 Y44.751 Z0.000 F1600
G1 X29.897 Y44.852 Z0.000 F1600
G1 X30.075 Y44.907 Z0.000 F1600
G1 X30.265 Y44.928 Z0.000 F1600
G1 X30.666 Y44.918 Z0.000 F1600
G1 X31.844 Y44.918 Z0.000 F1600
G1 X32.293 Y44.912 Z0.000 F1600
G1 X32.743 Y44.912 Z0.000 F1600
G1 X33.192 Y44.898 Z0.000 F1600
; --- FIX Y Backlash: -0.800mm ---
G0 X33.192 Y44.098 F600
G1 X33.636 Y44.047 Z0.000 F1600
G1 X33.703 Y43.955 Z0.000 F1600
G1 X33.712 Y43.876 Z0.000 F1600
G1 X33.676 Y43.811 Z0.000 F1600
; --- FIX X Backlash: -0.600mm ---
G0 X33.076 Y43.811 F600
G1 X33.006 Y43.758 Z0.000 F1600
G1 X32.813 Y43.685 Z0.000 F1600
G1 X32.630 Y43.653 Z0.000 F1600
G0 Z3.5 F1000
; --- FIX X Backlash: 0.600mm ---
G0 X33.230 Y43.653 F600
G0 X33.441 Y42.966 Z3.500
G1 Z0 F1000
; --- FIX Y Backlash: 0.800mm ---
G0 X33.441 Y43.766 F600
G1 X34.221 Y43.866 Z0.000 F1600
G1 X35.005 Y43.923 Z0.000 F1600
G1 X35.791 Y43.941 Z0.000 F1600
; --- FIX Y Backlash: -0.800mm ---
G0 X35.791 Y43.141 F600
G1 X37.364 Y43.088 Z0.000 F1600
G1 X38.930 Y42.953 Z0.000 F1600
G1 X42.050 Y42.834 Z0.000 F1600
G1 X48.299 Y42.732 Z0.000 F1600
G1 X51.418 Y42.608 Z0.000 F1600
G1 X54.118 Y42.545 Z0.000 F1600
G1 X56.821 Y42.501 Z0.000 F1600
; --- FIX Y Backlash: 0.800mm ---
G0 X56.821 Y43.301 F600
G1 X56.808 Y43.533 Z0.000 F1600
G1 X56.843 Y43.765 Z0.000 F1600
G1 X56.888 Y43.866 Z0.000 F1600
G1 X56.956 Y43.948 Z0.000 F1600
G1 X57.051 Y44.005 Z0.000 F1600
G1 X57.178 Y44.030 Z0.000 F1600
G1 X57.393 Y44.070 Z0.000 F1600
G1 X57.612 Y44.060 Z0.000 F1600
G1 X57.718 Y44.060 Z0.000 F1600
G1 X57.817 Y44.076 Z0.000 F1600
G1 X57.906 Y44.117 Z0.000 F1600
G1 X57.985 Y44.193 Z0.000 F1600
G1 X58.113 Y44.261 Z0.000 F1600
G1 X58.280 Y44.318 Z0.000 F1600
G1 X58.352 Y44.351 Z0.000 F1600
G1 X58.404 Y44.391 Z0.000 F1600
G1 X58.425 Y44.441 Z0.000 F1600
G1 X58.405 Y44.504 Z0.000 F1600
; --- FIX X Backlash: -0.600mm ---
G0 X57.805 Y44.504 F600
G1 X57.549 Y44.496 Z0.000 F1600
G1 X57.302 Y44.547 Z0.000 F1600
G1 X57.192 Y44.600 Z0.000 F1600
G1 X57.097 Y44.675 Z0.000 F1600
G1 X57.021 Y44.774 Z0.000 F1600
G1 X56.969 Y44.899 Z0.000 F1600
G1 X56.877 Y45.097 Z0.000 F1600
G1 X56.824 Y45.330 Z0.000 F1600
G1 X56.830 Y45.437 Z0.000 F1600
G1 X56.868 Y45.526 Z0.000 F1600
; --- FIX X Backlash: 0.600mm ---
G0 X57.468 Y45.526 F600
G1 X57.545 Y45.588 Z0.000 F1600
G1 X57.668 Y45.614 Z0.000 F1600
; --- FIX X Backlash: -0.600mm ---
G0 X57.068 Y45.614 F600
G1 X56.950 Y45.795 Z0.000 F1600
G1 X56.864 Y45.992 Z0.000 F1600
G1 X56.809 Y46.199 Z0.000 F1600
G1 X56.781 Y46.406 Z0.000 F1600
G1 X56.602 Y46.429 Z0.000 F1600
G1 X56.403 Y46.460 Z0.000 F1600
G1 X56.220 Y46.460 Z0.000 F1600
; --- FIX Y Backlash: -0.800mm ---
G0 X56.220 Y45.660 F600
G1 X56.086 Y45.600 Z0.000 F1600
G1 X56.057 Y45.447 Z0.000 F1600
G1 X55.998 Y45.310 Z0.000 F1600
G1 X55.913 Y45.191 Z0.000 F1600
G1 X55.806 Y45.093 Z0.000 F1600
G1 X55.682 Y45.020 Z0.000 F1600
G1 X55.543 Y44.973 Z0.000 F1600
G1 X55.394 Y44.957 Z0.000 F1600
G1 X55.240 Y44.974 Z0.000 F1600
G1 X55.143 Y44.812 Z0.000 F1600
G1 X55.008 Y44.658 Z0.000 F1600
G1 X54.887 Y44.500 Z0.000 F1600
G1 X54.828 Y44.331 Z0.000 F1600
; --- FIX X Backlash: 0.600mm ---
G0 X55.428 Y44.331 F600
; --- FIX Y Backlash: 0.800mm ---
G0 X55.428 Y45.131 F600
G1 X55.728 Y45.196 Z0.000 F1600
G1 X56.035 Y45.302 Z0.000 F1600
G1 X56.187 Y45.340 Z0.000 F1600
G1 X56.335 Y45.350 Z0.000 F1600
G1 X56.477 Y45.321 Z0.000 F1600
; --- FIX Y Backlash: -0.800mm ---
G0 X56.477 Y44.521 F600
G1 X56.612 Y44.439 Z0.000 F1600
G1 X56.749 Y44.200 Z0.000 F1600
G1 X56.873 Y43.945 Z0.000 F1600
G1 X56.954 Y43.680 Z0.000 F1600
G1 X56.965 Y43.407 Z0.000 F1600
; --- FIX X Backlash: -0.600mm ---
G0 X56.365 Y43.407 F600
G1 X56.259 Y43.334 Z0.000 F1600
G1 X56.140 Y43.292 Z0.000 F1600
G1 X56.011 Y43.273 Z0.000 F1600
G1 X55.875 Y43.270 Z0.000 F1600
G1 X55.598 Y43.281 Z0.000 F1600
G1 X55.336 Y43.266 Z0.000 F1600
G1 X53.482 Y43.259 Z0.000 F1600
G1 X51.628 Y43.278 Z0.000 F1600
; --- FIX Y Backlash: 0.800mm ---
G0 X51.628 Y44.078 F600
G1 X49.776 Y44.152 Z0.000 F1600
G1 X47.931 Y44.315 Z0.000 F1600
G1 X47.849 Y44.372 Z0.000 F1600
G1 X47.814 Y44.437 Z0.000 F1600
G1 X47.818 Y44.504 Z0.000 F1600
G1 X47.853 Y44.568 Z0.000 F1600
; --- FIX X Backlash: 0.600mm ---
G0 X48.453 Y44.568 F600
G1 X48.586 Y44.670 Z0.000 F1600
G1 X48.749 Y44.705 Z0.000 F1600
G1 X49.651 Y44.922 Z0.000 F1600
G1 X50.563 Y45.119 Z0.000 F1600
G1 X51.480 Y45.264 Z0.000 F1600
G1 X52.397 Y45.326 Z0.000 F1600
G1 X52.363 Y45.424 Z0.000 F1600
; --- FIX X Backlash: -0.600mm ---
G0 X51.763 Y45.424 F600
G1 X51.696 Y45.482 Z0.000 F1600
G1 X51.604 Y45.510 Z0.000 F1600
G1 X51.498 Y45.520 Z0.000 F1600
G1 X51.269 Y45.526 Z0.000 F1600
G1 X51.077 Y45.579 Z0.000 F1600
G1 X50.879 Y45.672 Z0.000 F1600
G1 X50.710 Y45.812 Z0.000 F1600
G1 X50.626 Y45.868 Z0.000 F1600
G1 X50.538 Y45.899 Z0.000 F1600
G1 X50.442 Y45.890 Z0.000 F1600
; --- FIX Y Backlash: -0.800mm ---
G0 X50.442 Y45.090 F600
G1 X50.334 Y45.030 Z0.000 F1600
G1 X50.076 Y44.936 Z0.000 F1600
G1 X49.810 Y44.909 Z0.000 F1600
G1 X49.542 Y44.932 Z0.000 F1600
G1 X49.275 Y44.982 Z0.000 F1600
G1 X48.858 Y44.939 Z0.000 F1600
G1 X48.438 Y44.884 Z0.000 F1600
G1 X48.020 Y44.840 Z0.000 F1600
G1 X47.607 Y44.829 Z0.000 F1600
G1 X47.595 Y44.690 Z0.000 F1600
G1 X47.536 Y44.590 Z0.000 F1600
G1 X47.441 Y44.521 Z0.000 F1600
G1 X47.320 Y44.475 Z0.000 F1600
G1 X46.797 Y44.380 Z0.000 F1600
G1 X45.988 Y44.262 Z0.000 F1600
G1 X45.177 Y44.180 Z0.000 F1600
G1 X44.366 Y44.129 Z0.000 F1600
G1 X43.555 Y44.107 Z0.000 F1600
G1 X41.930 Y44.134 Z0.000 F1600
; --- FIX Y Backlash: 0.800mm ---
G0 X41.930 Y44.934 F600
G1 X40.304 Y45.033 Z0.000 F1600
G1 X37.057 Y45.332 Z0.000 F1600
G1 X33.822 Y45.578 Z0.000 F1600
G1 X33.003 Y45.592 Z0.000 F1600
G1 X32.182 Y45.603 Z0.000 F1600
G1 X31.364 Y45.636 Z0.000 F1600
G1 X30.551 Y45.717 Z0.000 F1600
G1 X30.471 Y45.810 Z0.000 F1600
G1 X30.453 Y45.902 Z0.000 F1600
G1 X30.486 Y45.990 Z0.000 F1600
; --- FIX X Backlash: 0.600mm ---
G0 X31.086 Y45.990 F600
G1 X31.158 Y46.070 Z0.000 F1600
G1 X31.367 Y46.188 Z0.000 F1600
G1 X31.581 Y46.226 Z0.000 F1600
G1 X31.779 Y46.241 Z0.000 F1600
G1 X31.989 Y46.238 Z0.000 F1600
G1 X32.191 Y46.238 Z0.000 F1600
G1 X32.363 Y46.270 Z0.000 F1600
; --- FIX X Backlash: -0.600mm ---
G0 X31.763 Y46.270 F600
G1 X31.651 Y46.415 Z0.000 F1600
G1 X31.503 Y46.498 Z0.000 F1600
G1 X31.334 Y46.537 Z0.000 F1600
G1 X31.162 Y46.552 Z0.000 F1600
G1 X30.978 Y46.687 Z0.000 F1600
G1 X30.784 Y46.801 Z0.000 F1600
G1 X30.582 Y46.903 Z0.000 F1600
G1 X30.376 Y47.002 Z0.000 F1600
G1 X30.226 Y47.115 Z0.000 F1600
G1 X30.104 Y47.260 Z0.000 F1600
G1 X30.000 Y47.416 Z0.000 F1600
G1 X29.903 Y47.567 Z0.000 F1600
G1 X29.503 Y47.641 Z0.000 F1600
G1 X29.090 Y47.672 Z0.000 F1600
G1 X28.683 Y47.724 Z0.000 F1600
G1 X28.303 Y47.858 Z0.000 F1600
G1 X28.262 Y47.949 Z0.000 F1600
G1 X28.253 Y48.045 Z0.000 F1600
G1 X28.225 Y48.129 Z0.000 F1600
G1 X28.128 Y48.183 Z0.000 F1600
G1 X27.942 Y48.363 Z0.000 F1600
G1 X27.800 Y48.584 Z0.000 F1600
G1 X27.702 Y48.823 Z0.000 F1600
G1 X27.644 Y49.057 Z0.000 F1600
G1 X27.419 Y49.049 Z0.000 F1600
G1 X27.183 Y49.067 Z0.000 F1600
G1 X26.949 Y49.114 Z0.000 F1600
G1 X26.728 Y49.193 Z0.000 F1600
G1 X26.532 Y49.307 Z0.000 F1600
G1 X26.372 Y49.460 Z0.000 F1600
G1 X26.261 Y49.654 Z0.000 F1600
G1 X26.210 Y49.893 Z0.000 F1600
G1 X26.203 Y49.957 Z0.000 F1600
G1 X26.210 Y50.034 Z0.000 F1600
G1 X26.200 Y50.093 Z0.000 F1600
G1 X26.143 Y50.103 Z0.000 F1600
; --- FIX Y Backlash: -0.800mm ---
G0 X26.143 Y49.303 F600
G1 X26.021 Y49.252 Z0.000 F1600
G1 X25.950 Y49.169 Z0.000 F1600
G1 X25.917 Y49.064 Z0.000 F1600
G1 X25.908 Y48.943 Z0.000 F1600
G1 X25.913 Y48.687 Z0.000 F1600
G1 X25.859 Y48.464 Z0.000 F1600
G1 X25.741 Y48.331 Z0.000 F1600
G1 X25.625 Y48.192 Z0.000 F1600
G1 X25.490 Y48.075 Z0.000 F1600
G1 X25.320 Y48.008 Z0.000 F1600
G1 X25.255 Y47.914 Z0.000 F1600
G1 X25.218 Y47.812 Z0.000 F1600
G1 X25.206 Y47.706 Z0.000 F1600
G1 X25.218 Y47.601 Z0.000 F1600
; --- FIX X Backlash: 0.600mm ---
G0 X25.818 Y47.601 F600
G1 X25.910 Y47.411 Z0.000 F1600
G1 X26.081 Y47.279 Z0.000 F1600
G1 X26.088 Y47.155 Z0.000 F1600
G1 X26.043 Y47.077 Z0.000 F1600
; --- FIX X Backlash: -0.600mm ---
G0 X25.443 Y47.077 F600
G1 X25.361 Y47.033 Z0.000 F1600
G1 X25.253 Y47.014 Z0.000 F1600
G1 X25.006 Y47.006 Z0.000 F1600
G1 X24.798 Y46.966 Z0.000 F1600
G1 X24.698 Y46.918 Z0.000 F1600
G1 X24.626 Y46.845 Z0.000 F1600
G1 X24.575 Y46.754 Z0.000 F1600
G1 X24.537 Y46.651 Z0.000 F1600
G1 X24.472 Y46.434 Z0.000 F1600
G1 X24.370 Y46.243 Z0.000 F1600
G1 X24.305 Y46.138 Z0.000 F1600
G1 X24.264 Y46.019 Z0.000 F1600
G1 X24.249 Y45.895 Z0.000 F1600
G1 X24.262 Y45.775 Z0.000 F1600
G1 X24.303 Y45.668 Z0.000 F1600
; --- FIX X Backlash: 0.600mm ---
G0 X24.903 Y45.668 F600
G1 X24.974 Y45.582 Z0.000 F1600
G1 X25.078 Y45.527 Z0.000 F1600
G1 X25.214 Y45.510 Z0.000 F1600
G1 X25.493 Y45.486 Z0.000 F1600
G1 X25.779 Y45.500 Z0.000 F1600
G1 X26.059 Y45.495 Z0.000 F1600
G1 X26.320 Y45.413 Z0.000 F1600
G1 X26.346 Y45.290 Z0.000 F1600
G1 X26.314 Y45.198 Z0.000 F1600
; --- FIX X Backlash: -0.600mm ---
G0 X25.714 Y45.198 F600
G1 X25.639 Y45.133 Z0.000 F1600
G1 X25.532 Y45.087 Z0.000 F1600
G1 X25.278 Y45.034 Z0.000 F1600
G1 X25.057 Y44.992 Z0.000 F1600
G1 X24.870 Y44.943 Z0.000 F1600
G1 X24.660 Y44.892 Z0.000 F1600
G1 X24.475 Y44.811 Z0.000 F1600
G1 X24.365 Y44.669 Z0.000 F1600
; --- FIX X Backlash: 0.600mm ---
G0 X24.965 Y44.669 F600
G1 X25.040 Y44.452 Z0.000 F1600
G1 X25.184 Y44.285 Z0.000 F1600
G1 X25.276 Y44.232 Z0.000 F1600
G1 X25.379 Y44.204 Z0.000 F1600
G1 X25.491 Y44.208 Z0.000 F1600
G1 X25.609 Y44.246 Z0.000 F1600
G1 X25.877 Y44.277 Z0.000 F1600
G1 X26.140 Y44.251 Z0.000 F1600
G1 X26.398 Y44.190 Z0.000 F1600
G1 X26.652 Y44.115 Z0.000 F1600
G1 X27.111 Y44.073 Z0.000 F1600
G1 X27.578 Y44.065 Z0.000 F1600
G1 X28.039 Y44.047 Z0.000 F1600
G1 X28.479 Y43.979 Z0.000 F1600
G1 X28.521 Y43.873 Z0.000 F1600
G1 X28.511 Y43.770 Z0.000 F1600
; --- FIX X Backlash: -0.600mm ---
G0 X27.911 Y43.770 F600
G1 X27.861 Y43.673 Z0.000 F1600
G1 X27.782 Y43.580 Z0.000 F1600
G1 X27.577 Y43.413 Z0.000 F1600
G1 X27.383 Y43.275 Z0.000 F1600
G1 X27.195 Y43.189 Z0.000 F1600
G1 X26.995 Y43.163 Z0.000 F1600
G1 X26.793 Y43.182 Z0.000 F1600
G1 X26.599 Y43.228 Z0.000 F1600
G1 X26.552 Y43.030 Z0.000 F1600
G1 X26.472 Y42.850 Z0.000 F1600
G1 X26.365 Y42.685 Z0.000 F1600
G1 X26.238 Y42.532 Z0.000 F1600
G1 X26.180 Y42.347 Z0.000 F1600
G1 X26.162 Y42.134 Z0.000 F1600
G1 X26.183 Y42.044 Z0.000 F1600
G1 X26.231 Y41.980 Z0.000 F1600
; --- FIX X Backlash: 0.600mm ---
G0 X26.831 Y41.980 F600
G1 X26.912 Y41.953 Z0.000 F1600
G1 X27.032 Y41.973 Z0.000 F1600
; --- FIX Y Backlash: 0.800mm ---
G0 X27.032 Y42.773 F600
G1 X28.446 Y42.953 Z0.000 F1600
G1 X29.860 Y43.136 Z0.000 F1600
G1 X31.268 Y43.348 Z0.000 F1600
G1 X33.441 Y43.766 Z0.000 F1600
G0 Z3.5 F1000
; --- FIX Y Backlash: -0.800mm ---
G0 X33.441 Y42.966 F600
G0 X46.171 Y36.028 Z3.500
G1 Z0 F1000
; --- FIX Y Backlash: 0.800mm ---
G0 X46.171 Y36.828 F600
G1 X46.335 Y36.890 Z0.000 F1600
G1 X46.506 Y36.882 Z0.000 F1600
G1 X47.303 Y36.859 Z0.000 F1600
G1 X48.092 Y36.876 Z0.000 F1600
G1 X48.877 Y36.951 Z0.000 F1600
G1 X49.659 Y37.106 Z0.000 F1600
G1 X50.826 Y37.319 Z0.000 F1600
G1 X52.000 Y37.486 Z0.000 F1600
G1 X53.179 Y37.592 Z0.000 F1600
G1 X54.365 Y37.621 Z0.000 F1600
G1 X54.760 Y37.613 Z0.000 F1600
G1 X55.163 Y37.620 Z0.000 F1600
G1 X55.559 Y37.600 Z0.000 F1600
; --- FIX Y Backlash: -0.800mm ---
G0 X55.559 Y36.800 F600
G1 X55.938 Y36.709 Z0.000 F1600
G1 X55.968 Y36.591 Z0.000 F1600
G1 X55.942 Y36.506 Z0.000 F1600
; --- FIX X Backlash: -0.600mm ---
G0 X55.342 Y36.506 F600
G1 X55.272 Y36.449 Z0.000 F1600
G1 X55.172 Y36.414 Z0.000 F1600
G1 X54.932 Y36.386 Z0.000 F1600
G1 X54.724 Y36.374 Z0.000 F1600
G1 X53.444 Y36.315 Z0.000 F1600
G1 X52.172 Y36.204 Z0.000 F1600
G1 X50.908 Y36.031 Z0.000 F1600
G1 X49.652 Y35.785 Z0.000 F1600
G1 X48.636 Y35.632 Z0.000 F1600
G1 X47.608 Y35.548 Z0.000 F1600
G1 X47.094 Y35.548 Z0.000 F1600
G1 X46.582 Y35.577 Z0.000 F1600
; --- FIX Y Backlash: 0.800mm ---
G0 X46.582 Y36.377 F600
G1 X46.074 Y36.448 Z0.000 F1600
G1 X45.572 Y36.562 Z0.000 F1600
G1 X45.506 Y36.641 Z0.000 F1600
G1 X45.490 Y36.713 Z0.000 F1600
G1 X45.515 Y36.777 Z0.000 F1600
; --- FIX X Backlash: 0.600mm ---
G0 X46.115 Y36.777 F600
G1 X46.171 Y36.828 Z0.000 F1600
G0 Z3.5 F1000
; --- FIX X Backlash: -0.600mm ---
G0 X45.571 Y36.828 F600
; --- FIX Y Backlash: -0.800mm ---
G0 X45.571 Y36.028 F600
G0 X44.803 Y35.155 Z3.500
G1 Z0 F1000
; --- FIX X Backlash: 0.600mm ---
G0 X45.403 Y35.155 F600
G1 X45.480 Y35.121 Z0.000 F1600
G1 X45.542 Y35.066 Z0.000 F1600
G1 X45.583 Y34.999 Z0.000 F1600
G1 X45.599 Y34.928 Z0.000 F1600
G1 X45.584 Y34.861 Z0.000 F1600
; --- FIX X Backlash: -0.600mm ---
G0 X44.984 Y34.861 F600
G1 X44.933 Y34.808 Z0.000 F1600
G1 X44.842 Y34.778 Z0.000 F1600
G1 X43.639 Y34.622 Z0.000 F1600
G1 X42.447 Y34.431 Z0.000 F1600
G1 X42.435 Y34.212 Z0.000 F1600
G1 X42.462 Y33.965 Z0.000 F1600
G1 X42.503 Y33.861 Z0.000 F1600
; --- FIX X Backlash: 0.600mm ---
G0 X43.103 Y33.861 F600
G1 X43.168 Y33.788 Z0.000 F1600
G1 X43.264 Y33.758 Z0.000 F1600
G1 X43.395 Y33.783 Z0.000 F1600
; --- FIX Y Backlash: 0.800mm ---
G0 X43.395 Y34.583 F600
G1 X44.892 Y34.836 Z0.000 F1600
G1 X46.395 Y35.054 Z0.000 F1600
G1 X47.905 Y35.209 Z0.000 F1600
G1 X49.422 Y35.276 Z0.000 F1600
G1 X52.233 Y35.444 Z0.000 F1600
G1 X55.047 Y35.597 Z0.000 F1600
G1 X56.454 Y35.645 Z0.000 F1600
G1 X57.862 Y35.663 Z0.000 F1600
G1 X59.271 Y35.641 Z0.000 F1600
; --- FIX Y Backlash: -0.800mm ---
G0 X59.271 Y34.841 F600
G1 X60.679 Y34.771 Z0.000 F1600
G1 X61.348 Y34.730 Z0.000 F1600
G1 X62.021 Y34.709 Z0.000 F1600
G1 X62.691 Y34.671 Z0.000 F1600
G1 X63.354 Y34.578 Z0.000 F1600
G1 X63.435 Y34.511 Z0.000 F1600
G1 X63.485 Y34.422 Z0.000 F1600
G1 X63.547 Y34.352 Z0.000 F1600
G1 X63.662 Y34.342 Z0.000 F1600
G1 X64.128 Y34.350 Z0.000 F1600
; --- FIX Y Backlash: 0.800mm ---
G0 X64.128 Y35.150 F600
G1 X64.601 Y35.210 Z0.000 F1600
G1 X64.834 Y35.226 Z0.000 F1600
G1 X65.062 Y35.214 Z0.000 F1600
; --- FIX Y Backlash: -0.800mm ---
G0 X65.062 Y34.414 F600
G1 X65.284 Y34.362 Z0.000 F1600
G1 X65.497 Y34.256 Z0.000 F1600
; --- FIX Y Backlash: 0.800mm ---
G0 X65.497 Y35.056 F600
G1 X65.792 Y35.243 Z0.000 F1600
G1 X66.100 Y35.466 Z0.000 F1600
G1 X66.258 Y35.549 Z0.000 F1600
G1 X66.420 Y35.590 Z0.000 F1600
G1 X66.584 Y35.573 Z0.000 F1600
; --- FIX Y Backlash: -0.800mm ---
G0 X66.584 Y34.773 F600
G1 X66.751 Y34.681 Z0.000 F1600
G1 X66.843 Y34.614 Z0.000 F1600
G1 X66.937 Y34.599 Z0.000 F1600
G1 X67.032 Y34.622 Z0.000 F1600
G1 X67.129 Y34.669 Z0.000 F1600
; --- FIX Y Backlash: 0.800mm ---
G0 X67.129 Y35.469 F600
G1 X67.329 Y35.579 Z0.000 F1600
G1 X67.534 Y35.614 Z0.000 F1600
G1 X67.870 Y35.627 Z0.000 F1600
G1 X68.213 Y35.608 Z0.000 F1600
G1 X68.551 Y35.608 Z0.000 F1600
G1 X68.872 Y35.675 Z0.000 F1600
G1 X68.973 Y35.733 Z0.000 F1600
G1 X69.093 Y35.763 Z0.000 F1600
G1 X69.132 Y35.774 Z0.000 F1600
G1 X69.144 Y35.787 Z0.000 F1600
G1 X69.116 Y35.804 Z0.000 F1600
; --- FIX X Backlash: -0.600mm ---
G0 X68.516 Y35.804 F600
G1 X68.439 Y35.827 Z0.000 F1600
G1 X68.359 Y35.881 Z0.000 F1600
G1 X68.319 Y35.960 Z0.000 F1600
G1 X68.305 Y36.052 Z0.000 F1600
G1 X68.301 Y36.146 Z0.000 F1600
G1 X68.294 Y36.230 Z0.000 F1600
G1 X68.267 Y36.291 Z0.000 F1600
G1 X68.207 Y36.318 Z0.000 F1600
G1 X68.099 Y36.298 Z0.000 F1600
G1 X61.205 Y36.261 Z0.000 F1600
G1 X61.124 Y36.339 Z0.000 F1600
G1 X61.079 Y36.434 Z0.000 F1600
G1 X61.065 Y36.539 Z0.000 F1600
G1 X61.076 Y36.651 Z0.000 F1600
; --- FIX X Backlash: 0.600mm ---
G0 X61.676 Y36.651 F600
G1 X61.751 Y36.873 Z0.000 F1600
G1 X61.861 Y37.064 Z0.000 F1600
G1 X62.403 Y37.121 Z0.000 F1600
G1 X62.954 Y37.107 Z0.000 F1600
G1 X63.507 Y37.064 Z0.000 F1600
G1 X64.056 Y37.036 Z0.000 F1600
G1 X64.336 Y37.020 Z0.000 F1600
G1 X64.608 Y36.973 Z0.000 F1600
; --- FIX Y Backlash: -0.800mm ---
G0 X64.608 Y36.173 F600
G1 X64.866 Y36.083 Z0.000 F1600
G1 X65.100 Y35.935 Z0.000 F1600
G1 X65.207 Y35.912 Z0.000 F1600
G1 X65.311 Y35.917 Z0.000 F1600
; --- FIX Y Backlash: 0.800mm ---
G0 X65.311 Y36.717 F600
G1 X65.382 Y36.769 Z0.000 F1600
G1 X65.391 Y36.888 Z0.000 F1600
G1 X65.414 Y37.101 Z0.000 F1600
G1 X65.457 Y37.331 Z0.000 F1600
G1 X65.457 Y37.434 Z0.000 F1600
G1 X65.435 Y37.518 Z0.000 F1600
; --- FIX X Backlash: -0.600mm ---
G0 X64.835 Y37.518 F600
G1 X64.774 Y37.576 Z0.000 F1600
G1 X64.666 Y37.600 Z0.000 F1600
G1 X64.016 Y37.681 Z0.000 F1600
G1 X63.361 Y37.723 Z0.000 F1600
G1 X62.709 Y37.775 Z0.000 F1600
G1 X62.066 Y37.884 Z0.000 F1600
G1 X62.005 Y37.978 Z0.000 F1600
G1 X62.000 Y38.056 Z0.000 F1600
G1 X62.038 Y38.119 Z0.000 F1600
; --- FIX X Backlash: 0.600mm ---
G0 X62.638 Y38.119 F600
G1 X62.708 Y38.168 Z0.000 F1600
G1 X62.899 Y38.222 Z0.000 F1600
G1 X63.081 Y38.222 Z0.000 F1600
G1 X63.695 Y38.240 Z0.000 F1600
G1 X64.310 Y38.272 Z0.000 F1600
G1 X64.920 Y38.331 Z0.000 F1600
G1 X65.521 Y38.432 Z0.000 F1600
G1 X65.593 Y38.789 Z0.000 F1600
G1 X65.633 Y39.152 Z0.000 F1600
; --- FIX X Backlash: -0.600mm ---
G0 X65.033 Y39.152 F600
; --- FIX Y Backlash: -0.800mm ---
G0 X65.033 Y38.352 F600
G1 X63.661 Y38.190 Z0.000 F1600
G1 X62.281 Y38.124 Z0.000 F1600
G1 X60.897 Y38.103 Z0.000 F1600
G1 X59.516 Y38.075 Z0.000 F1600
G1 X52.406 Y37.989 Z0.000 F1600
G1 X45.298 Y37.848 Z0.000 F1600
G1 X42.713 Y37.828 Z0.000 F1600
G1 X41.422 Y37.828 Z0.000 F1600
G1 X40.136 Y37.858 Z0.000 F1600
; --- FIX Y Backlash: 0.800mm ---
G0 X40.136 Y38.658 F600
G1 X40.046 Y38.898 Z0.000 F1600
G1 X40.039 Y39.175 Z0.000 F1600
; --- FIX X Backlash: 0.600mm ---
G0 X40.639 Y39.175 F600
G1 X40.706 Y39.452 Z0.000 F1600
G1 X40.837 Y39.694 Z0.000 F1600
G1 X40.816 Y39.916 Z0.000 F1600
; --- FIX X Backlash: -0.600mm ---
G0 X40.216 Y39.916 F600
G1 X40.107 Y40.149 Z0.000 F1600
G1 X40.067 Y40.259 Z0.000 F1600
G1 X40.061 Y40.357 Z0.000 F1600
G1 X40.108 Y40.439 Z0.000 F1600
; --- FIX X Backlash: 0.600mm ---
G0 X40.708 Y40.439 F600
G1 X40.827 Y40.501 Z0.000 F1600
G1 X41.372 Y40.529 Z0.000 F1600
G1 X41.920 Y40.547 Z0.000 F1600
G1 X42.465 Y40.538 Z0.000 F1600
G1 X43.001 Y40.488 Z0.000 F1600
; --- FIX Y Backlash: -0.800mm ---
G0 X43.001 Y39.688 F600
G1 X43.035 Y39.505 Z0.000 F1600
G1 X43.046 Y39.300 Z0.000 F1600
G1 X43.067 Y39.209 Z0.000 F1600
G1 X43.109 Y39.137 Z0.000 F1600
G1 X43.184 Y39.091 Z0.000 F1600
G1 X43.300 Y39.080 Z0.000 F1600
G1 X44.260 Y38.944 Z0.000 F1600
G1 X45.225 Y38.840 Z0.000 F1600
G1 X46.192 Y38.761 Z0.000 F1600
G1 X47.163 Y38.700 Z0.000 F1600
G1 X49.107 Y38.609 Z0.000 F1600
G1 X51.050 Y38.515 Z0.000 F1600
G1 X51.888 Y38.469 Z0.000 F1600
G1 X52.715 Y38.434 Z0.000 F1600
; --- FIX Y Backlash: 0.800mm ---
G0 X52.715 Y39.234 F600
G1 X52.765 Y39.478 Z0.000 F1600
G1 X52.774 Y39.750 Z0.000 F1600
G1 X52.795 Y39.868 Z0.000 F1600
G1 X52.844 Y39.958 Z0.000 F1600
G1 X52.935 Y40.010 Z0.000 F1600
G1 X53.080 Y40.010 Z0.000 F1600
; --- FIX Y Backlash: -0.800mm ---
G0 X53.080 Y39.210 F600
G1 X56.285 Y39.051 Z0.000 F1600
G1 X59.490 Y38.872 Z0.000 F1600
; --- FIX Y Backlash: 0.800mm ---
G0 X59.490 Y39.672 F600
G1 X59.477 Y39.743 Z0.000 F1600
G1 X59.433 Y39.792 Z0.000 F1600
; --- FIX X Backlash: -0.600mm ---
G0 X58.833 Y39.792 F600
G1 X58.768 Y39.824 Z0.000 F1600
G1 X58.690 Y39.847 Z0.000 F1600
G1 X58.523 Y39.890 Z0.000 F1600
G1 X58.394 Y39.973 Z0.000 F1600
G1 X58.224 Y40.089 Z0.000 F1600
G1 X58.090 Y40.239 Z0.000 F1600
G1 X57.968 Y40.398 Z0.000 F1600
G1 X57.830 Y40.543 Z0.000 F1600
G1 X57.793 Y40.706 Z0.000 F1600
G1 X57.707 Y40.837 Z0.000 F1600
G1 X57.590 Y40.947 Z0.000 F1600
G1 X57.458 Y41.050 Z0.000 F1600
G1 X57.229 Y41.350 Z0.000 F1600
G1 X57.065 Y41.691 Z0.000 F1600
G1 X56.963 Y42.054 Z0.000 F1600
G1 X56.924 Y42.417 Z0.000 F1600
G1 X56.055 Y42.544 Z0.000 F1600
G1 X55.174 Y42.621 Z0.000 F1600
G1 X54.289 Y42.676 Z0.000 F1600
G1 X53.407 Y42.740 Z0.000 F1600
G1 X52.357 Y42.785 Z0.000 F1600
G1 X51.304 Y42.796 Z0.000 F1600
; --- FIX Y Backlash: -0.800mm ---
G0 X51.304 Y41.996 F600
G1 X48.983 Y41.904 Z0.000 F1600
G1 X46.660 Y41.776 Z0.000 F1600
G1 X44.337 Y41.654 Z0.000 F1600
G1 X42.011 Y41.578 Z0.000 F1600
G1 X37.897 Y41.499 Z0.000 F1600
G1 X29.666 Y41.416 Z0.000 F1600
G1 X25.553 Y41.334 Z0.000 F1600
G1 X25.263 Y41.310 Z0.000 F1600
G1 X24.955 Y41.299 Z0.000 F1600
G1 X24.805 Y41.282 Z0.000 F1600
G1 X24.662 Y41.247 Z0.000 F1600
G1 X24.531 Y41.189 Z0.000 F1600
G1 X24.416 Y41.100 Z0.000 F1600
G1 X24.348 Y40.895 Z0.000 F1600
G1 X24.333 Y40.668 Z0.000 F1600
G1 X24.358 Y40.567 Z0.000 F1600
; --- FIX X Backlash: 0.600mm ---
G0 X24.958 Y40.567 F600
G1 X25.010 Y40.485 Z0.000 F1600
G1 X25.094 Y40.430 Z0.000 F1600
G1 X25.215 Y40.410 Z0.000 F1600
G1 X25.759 Y40.366 Z0.000 F1600
G1 X26.307 Y40.337 Z0.000 F1600
G1 X26.851 Y40.282 Z0.000 F1600
G1 X27.382 Y40.164 Z0.000 F1600
G1 X27.435 Y40.060 Z0.000 F1600
G1 X27.431 Y39.980 Z0.000 F1600
G1 X27.383 Y39.922 Z0.000 F1600
; --- FIX X Backlash: -0.600mm ---
G0 X26.783 Y39.922 F600
G1 X26.702 Y39.882 Z0.000 F1600
G1 X26.492 Y39.847 Z0.000 F1600
G1 X26.302 Y39.847 Z0.000 F1600
G1 X25.856 Y39.836 Z0.000 F1600
G1 X25.408 Y39.836 Z0.000 F1600
G1 X24.965 Y39.818 Z0.000 F1600
G1 X24.535 Y39.760 Z0.000 F1600
G1 X24.505 Y39.557 Z0.000 F1600
G1 X24.512 Y39.348 Z0.000 F1600
G1 X24.541 Y39.259 Z0.000 F1600
; --- FIX X Backlash: 0.600mm ---
G0 X25.141 Y39.259 F600
G1 X25.196 Y39.191 Z0.000 F1600
G1 X25.280 Y39.151 Z0.000 F1600
G1 X25.400 Y39.146 Z0.000 F1600
G1 X25.506 Y39.101 Z0.000 F1600
G1 X25.574 Y39.021 Z0.000 F1600
G1 X25.617 Y38.920 Z0.000 F1600
G1 X25.649 Y38.812 Z0.000 F1600
G1 X25.683 Y38.711 Z0.000 F1600
G1 X25.732 Y38.630 Z0.000 F1600
G1 X25.811 Y38.585 Z0.000 F1600
G1 X25.931 Y38.588 Z0.000 F1600
G1 X28.441 Y38.484 Z0.000 F1600
G1 X30.957 Y38.410 Z0.000 F1600
G1 X33.475 Y38.313 Z0.000 F1600
G1 X35.986 Y38.140 Z0.000 F1600
G1 X36.088 Y38.140 Z0.000 F1600
G1 X36.174 Y38.104 Z0.000 F1600
G1 X36.238 Y38.040 Z0.000 F1600
G1 X36.277 Y37.961 Z0.000 F1600
G1 X36.287 Y37.878 Z0.000 F1600
G1 X36.263 Y37.801 Z0.000 F1600
; --- FIX X Backlash: -0.600mm ---
G0 X35.663 Y37.801 F600
G1 X35.602 Y37.741 Z0.000 F1600
G1 X35.498 Y37.709 Z0.000 F1600
G1 X33.044 Y37.717 Z0.000 F1600
; --- FIX Y Backlash: 0.800mm ---
G0 X33.044 Y38.517 F600
G1 X28.137 Y38.610 Z0.000 F1600
G1 X25.684 Y38.615 Z0.000 F1600
G1 X25.613 Y38.586 Z0.000 F1600
; --- FIX Y Backlash: -0.800mm ---
G0 X25.613 Y37.786 F600
G1 X25.571 Y37.734 Z0.000 F1600
G1 X25.553 Y37.664 Z0.000 F1600
G1 X25.553 Y37.584 Z0.000 F1600
G1 X25.593 Y37.417 Z0.000 F1600
G1 X25.643 Y37.282 Z0.000 F1600
G1 X25.681 Y37.199 Z0.000 F1600
G1 X25.688 Y37.111 Z0.000 F1600
G1 X25.669 Y37.026 Z0.000 F1600
G1 X25.629 Y36.955 Z0.000 F1600
G1 X25.572 Y36.904 Z0.000 F1600
G1 X25.503 Y36.884 Z0.000 F1600
G1 X25.427 Y36.902 Z0.000 F1600
; --- FIX Y Backlash: 0.800mm ---
G0 X25.427 Y37.702 F600
G1 X25.348 Y37.769 Z0.000 F1600
G1 X25.209 Y37.971 Z0.000 F1600
G1 X25.118 Y38.211 Z0.000 F1600
G1 X25.023 Y38.440 Z0.000 F1600
G1 X24.869 Y38.613 Z0.000 F1600
G1 X24.781 Y38.617 Z0.000 F1600
G1 X24.717 Y38.582 Z0.000 F1600
; --- FIX Y Backlash: -0.800mm ---
G0 X24.717 Y37.782 F600
G1 X24.670 Y37.718 Z0.000 F1600
G1 X24.636 Y37.635 Z0.000 F1600
G1 X24.585 Y37.449 Z0.000 F1600
G1 X24.522 Y37.303 Z0.000 F1600
G1 X24.411 Y36.920 Z0.000 F1600
G1 X24.304 Y36.528 Z0.000 F1600
G1 X24.235 Y36.134 Z0.000 F1600
G1 X24.241 Y35.743 Z0.000 F1600
; --- FIX X Backlash: 0.600mm ---
G0 X24.841 Y35.743 F600
G1 X25.066 Y35.671 Z0.000 F1600
G1 X25.295 Y35.693 Z0.000 F1600
G1 X25.396 Y35.739 Z0.000 F1600
; --- FIX Y Backlash: 0.800mm ---
G0 X25.396 Y36.539 F600
G1 X25.481 Y36.610 Z0.000 F1600
G1 X25.544 Y36.705 Z0.000 F1600
G1 X25.579 Y36.826 Z0.000 F1600
G1 X25.667 Y36.935 Z0.000 F1600
G1 X25.781 Y36.996 Z0.000 F1600
G1 X25.915 Y37.021 Z0.000 F1600
G1 X26.062 Y37.021 Z0.000 F1600
G1 X26.371 Y36.990 Z0.000 F1600
G1 X26.656 Y36.998 Z0.000 F1600
G1 X27.230 Y36.998 Z0.000 F1600
G1 X27.796 Y37.075 Z0.000 F1600
G1 X28.359 Y37.189 Z0.000 F1600
G1 X28.924 Y37.292 Z0.000 F1600
G1 X29.172 Y37.277 Z0.000 F1600
G1 X29.434 Y37.252 Z0.000 F1600
G1 X29.558 Y37.223 Z0.000 F1600
G1 X29.671 Y37.176 Z0.000 F1600
; --- FIX Y Backlash: -0.800mm ---
G0 X29.671 Y36.376 F600
G1 X29.769 Y36.307 Z0.000 F1600
G1 X29.847 Y36.211 Z0.000 F1600
G1 X29.816 Y35.995 Z0.000 F1600
G1 X29.786 Y35.757 Z0.000 F1600
G1 X29.752 Y35.654 Z0.000 F1600
; --- FIX X Backlash: -0.600mm ---
G0 X29.152 Y35.654 F600
G1 X29.094 Y35.573 Z0.000 F1600
G1 X29.006 Y35.524 Z0.000 F1600
G1 X28.880 Y35.517 Z0.000 F1600
G1 X28.517 Y35.567 Z0.000 F1600
G1 X28.152 Y35.581 Z0.000 F1600
G1 X27.972 Y35.565 Z0.000 F1600
G1 X27.795 Y35.528 Z0.000 F1600
G1 X27.622 Y35.467 Z0.000 F1600
G1 X27.456 Y35.377 Z0.000 F1600
G1 X27.199 Y35.272 Z0.000 F1600
G1 X26.925 Y35.208 Z0.000 F1600
G1 X26.656 Y35.142 Z0.000 F1600
G1 X26.411 Y35.032 Z0.000 F1600
G1 X26.305 Y34.914 Z0.000 F1600
G1 X26.081 Y34.835 Z0.000 F1600
G1 X26.022 Y34.796 Z0.000 F1600
G1 X25.984 Y34.734 Z0.000 F1600
G1 X25.956 Y34.463 Z0.000 F1600
G1 X25.960 Y34.275 Z0.000 F1600
G1 X25.985 Y34.196 Z0.000 F1600
G1 X26.033 Y34.138 Z0.000 F1600
; --- FIX X Backlash: 0.600mm ---
G0 X26.633 Y34.138 F600
G1 X26.708 Y34.108 Z0.000 F1600
G1 X26.818 Y34.114 Z0.000 F1600
G1 X28.123 Y34.164 Z0.000 F1600
; --- FIX Y Backlash: 0.800mm ---
G0 X28.123 Y34.964 F600
G1 X29.425 Y35.052 Z0.000 F1600
G1 X30.726 Y35.168 Z0.000 F1600
G1 X32.026 Y35.298 Z0.000 F1600
G1 X34.628 Y35.553 Z0.000 F1600
G1 X37.237 Y35.724 Z0.000 F1600
G1 X37.525 Y35.751 Z0.000 F1600
G1 X37.816 Y35.800 Z0.000 F1600
G1 X37.949 Y35.847 Z0.000 F1600
G1 X38.066 Y35.917 Z0.000 F1600
G1 X38.162 Y36.016 Z0.000 F1600
G1 X38.230 Y36.149 Z0.000 F1600
G1 X38.574 Y36.249 Z0.000 F1600
G1 X38.940 Y36.256 Z0.000 F1600
G1 X39.313 Y36.232 Z0.000 F1600
G1 X39.677 Y36.236 Z0.000 F1600
G1 X40.245 Y36.236 Z0.000 F1600
G1 X40.813 Y36.272 Z0.000 F1600
G1 X41.381 Y36.310 Z0.000 F1600
G1 X41.948 Y36.316 Z0.000 F1600
; --- FIX Y Backlash: -0.800mm ---
G0 X41.948 Y35.516 F600
G1 X42.288 Y35.285 Z0.000 F1600
G1 X42.473 Y35.195 Z0.000 F1600
G1 X42.683 Y35.157 Z0.000 F1600
G1 X42.941 Y35.107 Z0.000 F1600
G1 X43.204 Y35.090 Z0.000 F1600
G1 X43.332 Y35.105 Z0.000 F1600
G1 X43.452 Y35.142 Z0.000 F1600
; --- FIX Y Backlash: 0.800mm ---
G0 X43.452 Y35.942 F600
G1 X43.564 Y36.004 Z0.000 F1600
G1 X43.664 Y36.097 Z0.000 F1600
G1 X44.074 Y36.140 Z0.000 F1600
G1 X44.490 Y36.105 Z0.000 F1600
; --- FIX Y Backlash: -0.800mm ---
G0 X44.490 Y35.305 F600
G1 X45.316 Y35.159 Z0.000 F1600
G1 X45.403 Y35.155 Z0.000 F1600
G0 Z3.5 F1000
; --- FIX Y Backlash: 0.800mm ---
G0 X45.403 Y35.955 F600
G0 X71.300 Y37.022 Z3.500
G1 Z0 F1000
G1 X71.336 Y37.095 Z0.000 F1600
G1 X71.428 Y37.161 Z0.000 F1600
G1 X71.598 Y37.188 Z0.000 F1600
G1 X71.771 Y37.192 Z0.000 F1600
; --- FIX Y Backlash: -0.800mm ---
G0 X71.771 Y36.392 F600
G1 X74.322 Y36.293 Z0.000 F1600
G1 X75.596 Y36.222 Z0.000 F1600
G1 X76.866 Y36.109 Z0.000 F1600
G1 X76.947 Y36.022 Z0.000 F1600
G1 X76.966 Y35.935 Z0.000 F1600
G1 X76.937 Y35.850 Z0.000 F1600
; --- FIX X Backlash: -0.600mm ---
G0 X76.337 Y35.850 F600
G1 X76.272 Y35.768 Z0.000 F1600
G1 X76.085 Y35.623 Z0.000 F1600
G1 X75.904 Y35.519 Z0.000 F1600
G1 X75.722 Y35.434 Z0.000 F1600
G1 X75.531 Y35.382 Z0.000 F1600
G1 X75.336 Y35.361 Z0.000 F1600
G1 X75.141 Y35.372 Z0.000 F1600
G1 X74.949 Y35.413 Z0.000 F1600
; --- FIX Y Backlash: 0.800mm ---
G0 X74.949 Y36.213 F600
G1 X74.765 Y36.283 Z0.000 F1600
G1 X74.593 Y36.381 Z0.000 F1600
G1 X74.438 Y36.505 Z0.000 F1600
G1 X73.605 Y36.574 Z0.000 F1600
G1 X72.763 Y36.574 Z0.000 F1600
G1 X71.921 Y36.583 Z0.000 F1600
G1 X71.089 Y36.687 Z0.000 F1600
G1 X70.911 Y36.748 Z0.000 F1600
G1 X70.755 Y36.872 Z0.000 F1600
G1 X70.710 Y36.946 Z0.000 F1600
G1 X70.700 Y37.022 Z0.000 F1600
G0 Z3.5 F1000
; --- FIX X Backlash: 0.600mm ---
G0 X71.300 Y37.022 F600
G0 X71.467 Y37.794 Z3.500
G1 Z0 F1000
; --- FIX X Backlash: -0.600mm ---
G0 X70.867 Y37.794 F600
G1 X68.993 Y37.892 Z0.000 F1600
G1 X68.876 Y37.927 Z0.000 F1600
G1 X68.784 Y37.927 Z0.000 F1600
G1 X68.715 Y37.901 Z0.000 F1600
; --- FIX Y Backlash: -0.800mm ---
G0 X68.715 Y37.101 F600
G1 X68.665 Y37.049 Z0.000 F1600
G1 X68.612 Y36.888 Z0.000 F1600
G1 X68.600 Y36.679 Z0.000 F1600
G1 X68.540 Y36.165 Z0.000 F1600
G1 X68.505 Y35.650 Z0.000 F1600
; --- FIX X Backlash: 0.600mm ---
G0 X69.105 Y35.650 F600
G1 X69.541 Y35.546 Z0.000 F1600
G1 X69.985 Y35.494 Z0.000 F1600
G1 X70.429 Y35.445 Z0.000 F1600
G1 X70.862 Y35.347 Z0.000 F1600
G1 X70.927 Y35.270 Z0.000 F1600
G1 X70.943 Y35.195 Z0.000 F1600
G1 X70.920 Y35.127 Z0.000 F1600
; --- FIX X Backlash: -0.600mm ---
G0 X70.320 Y35.127 F600
G1 X70.267 Y35.068 Z0.000 F1600
G1 X70.106 Y34.995 Z0.000 F1600
G1 X69.933 Y35.003 Z0.000 F1600
G1 X69.635 Y35.019 Z0.000 F1600
; --- FIX Y Backlash: 0.800mm ---
G0 X69.635 Y35.819 F600
G1 X69.338 Y35.870 Z0.000 F1600
G1 X69.044 Y35.923 Z0.000 F1600
G1 X68.754 Y35.949 Z0.000 F1600
G1 X68.669 Y35.903 Z0.000 F1600
; --- FIX Y Backlash: -0.800mm ---
G0 X68.669 Y35.103 F600
G1 X68.620 Y35.040 Z0.000 F1600
G1 X68.601 Y34.964 Z0.000 F1600
G1 X68.606 Y34.880 Z0.000 F1600
; --- FIX X Backlash: 0.600mm ---
G0 X69.206 Y34.880 F600
G1 X69.265 Y34.704 Z0.000 F1600
G1 X69.349 Y34.546 Z0.000 F1600
G1 X69.626 Y34.429 Z0.000 F1600
G1 X69.915 Y34.354 Z0.000 F1600
G1 X70.212 Y34.316 Z0.000 F1600
G1 X70.514 Y34.313 Z0.000 F1600
; --- FIX Y Backlash: 0.800mm ---
G0 X70.514 Y35.113 F600
G1 X71.116 Y35.193 Z0.000 F1600
G1 X71.692 Y35.364 Z0.000 F1600
G1 X72.027 Y35.499 Z0.000 F1600
G1 X72.346 Y35.682 Z0.000 F1600
G1 X72.507 Y35.758 Z0.000 F1600
G1 X72.672 Y35.809 Z0.000 F1600
G1 X72.845 Y35.820 Z0.000 F1600
G1 X73.029 Y35.779 Z0.000 F1600
; --- FIX Y Backlash: -0.800mm ---
G0 X73.029 Y34.979 F600
G1 X73.924 Y34.859 Z0.000 F1600
G1 X74.829 Y34.743 Z0.000 F1600
G1 X75.282 Y34.710 Z0.000 F1600
G1 X75.734 Y34.710 Z0.000 F1600
G1 X76.184 Y34.746 Z0.000 F1600
; --- FIX Y Backlash: 0.800mm ---
G0 X76.184 Y35.546 F600
G1 X76.630 Y35.634 Z0.000 F1600
G1 X76.897 Y35.764 Z0.000 F1600
G1 X77.167 Y35.916 Z0.000 F1600
G1 X77.304 Y35.972 Z0.000 F1600
G1 X77.444 Y35.998 Z0.000 F1600
G1 X77.587 Y35.984 Z0.000 F1600
; --- FIX Y Backlash: -0.800mm ---
G0 X77.587 Y35.184 F600
G1 X77.735 Y35.118 Z0.000 F1600
G1 X78.314 Y34.910 Z0.000 F1600
G1 X78.911 Y34.783 Z0.000 F1600
G1 X79.213 Y34.759 Z0.000 F1600
G1 X79.516 Y34.765 Z0.000 F1600
G1 X79.819 Y34.805 Z0.000 F1600
; --- FIX Y Backlash: 0.800mm ---
G0 X79.819 Y35.605 F600
G1 X80.121 Y35.682 Z0.000 F1600
G1 X80.667 Y35.636 Z0.000 F1600
; --- FIX Y Backlash: -0.800mm ---
G0 X80.667 Y34.836 F600
G1 X81.202 Y34.703 Z0.000 F1600
G1 X81.470 Y34.634 Z0.000 F1600
G1 X81.740 Y34.580 Z0.000 F1600
G1 X82.014 Y34.552 Z0.000 F1600
G1 X82.294 Y34.563 Z0.000 F1600
G1 X82.525 Y34.563 Z0.000 F1600
; --- FIX Y Backlash: 0.800mm ---
G0 X82.525 Y35.363 F600
G1 X82.745 Y35.415 Z0.000 F1600
G1 X82.956 Y35.501 Z0.000 F1600
G1 X83.161 Y35.606 Z0.000 F1600
G1 X83.365 Y35.715 Z0.000 F1600
G1 X83.569 Y35.814 Z0.000 F1600
G1 X83.777 Y35.887 Z0.000 F1600
G1 X83.993 Y35.920 Z0.000 F1600
; --- FIX Y Backlash: -0.800mm ---
G0 X83.993 Y35.120 F600
G1 X84.374 Y35.022 Z0.000 F1600
G1 X84.761 Y34.965 Z0.000 F1600
G1 X85.151 Y34.937 Z0.000 F1600
G1 X85.545 Y34.927 Z0.000 F1600
G1 X86.334 Y34.922 Z0.000 F1600
G1 X87.121 Y34.863 Z0.000 F1600
G1 X88.548 Y34.718 Z0.000 F1600
G1 X89.969 Y34.563 Z0.000 F1600
G1 X90.679 Y34.501 Z0.000 F1600
G1 X91.392 Y34.460 Z0.000 F1600
G1 X92.106 Y34.447 Z0.000 F1600
G1 X92.823 Y34.472 Z0.000 F1600
G1 X93.886 Y34.500 Z0.000 F1600
; --- FIX Y Backlash: 0.800mm ---
G0 X93.886 Y35.300 F600
G1 X94.960 Y35.359 Z0.000 F1600
G1 X95.489 Y35.431 Z0.000 F1600
G1 X96.005 Y35.550 Z0.000 F1600
G1 X96.503 Y35.726 Z0.000 F1600
G1 X96.977 Y35.974 Z0.000 F1600
G1 X97.030 Y36.077 Z0.000 F1600
G1 X97.033 Y36.178 Z0.000 F1600
G1 X96.997 Y36.274 Z0.000 F1600
; --- FIX X Backlash: -0.600mm ---
G0 X96.397 Y36.274 F600
G1 X96.331 Y36.363 Z0.000 F1600
G1 X96.143 Y36.511 Z0.000 F1600
G1 X95.943 Y36.602 Z0.000 F1600
G1 X95.836 Y36.783 Z0.000 F1600
G1 X95.732 Y36.965 Z0.000 F1600
G1 X95.602 Y37.125 Z0.000 F1600
G1 X95.418 Y37.238 Z0.000 F1600
G1 X95.327 Y37.324 Z0.000 F1600
G1 X95.269 Y37.429 Z0.000 F1600
G1 X95.238 Y37.471 Z0.000 F1600
G1 X95.199 Y37.497 Z0.000 F1600
G1 X95.146 Y37.500 Z0.000 F1600
G1 X95.074 Y37.473 Z0.000 F1600
G1 X94.784 Y37.462 Z0.000 F1600
G1 X94.506 Y37.536 Z0.000 F1600
G1 X94.394 Y37.610 Z0.000 F1600
G1 X94.314 Y37.712 Z0.000 F1600
G1 X94.274 Y37.842 Z0.000 F1600
G1 X94.284 Y38.003 Z0.000 F1600
G1 X94.232 Y38.134 Z0.000 F1600
G1 X94.153 Y38.252 Z0.000 F1600
G1 X94.053 Y38.351 Z0.000 F1600
G1 X93.936 Y38.426 Z0.000 F1600
G1 X93.807 Y38.473 Z0.000 F1600
G1 X93.672 Y38.486 Z0.000 F1600
G1 X93.535 Y38.460 Z0.000 F1600
; --- FIX Y Backlash: -0.800mm ---
G0 X93.535 Y37.660 F600
G1 X93.402 Y37.592 Z0.000 F1600
G1 X93.049 Y37.592 Z0.000 F1600
G1 X92.701 Y37.634 Z0.000 F1600
; --- FIX Y Backlash: 0.800mm ---
G0 X92.701 Y38.434 F600
G1 X92.356 Y38.504 Z0.000 F1600
G1 X92.014 Y38.596 Z0.000 F1600
G1 X91.334 Y38.808 Z0.000 F1600
G1 X90.658 Y39.005 Z0.000 F1600
G1 X90.573 Y39.110 Z0.000 F1600
G1 X90.527 Y39.237 Z0.000 F1600
G1 X90.509 Y39.377 Z0.000 F1600
G1 X90.501 Y39.673 Z0.000 F1600
G1 X90.485 Y39.816 Z0.000 F1600
G1 X90.444 Y39.945 Z0.000 F1600
G1 X90.366 Y40.056 Z0.000 F1600
G1 X90.186 Y40.098 Z0.000 F1600
G1 X90.002 Y40.113 Z0.000 F1600
G1 X89.631 Y40.113 Z0.000 F1600
G1 X88.619 Y40.080 Z0.000 F1600
G1 X87.604 Y40.056 Z0.000 F1600
; --- FIX Y Backlash: -0.800mm ---
G0 X87.604 Y39.256 F600
G1 X86.592 Y39.195 Z0.000 F1600
G1 X85.591 Y39.054 Z0.000 F1600
G1 X85.477 Y39.027 Z0.000 F1600
G1 X85.398 Y38.954 Z0.000 F1600
G1 X85.353 Y38.853 Z0.000 F1600
G1 X85.342 Y38.741 Z0.000 F1600
G1 X85.364 Y38.634 Z0.000 F1600
; --- FIX X Backlash: 0.600mm ---
G0 X85.964 Y38.634 F600
G1 X86.019 Y38.548 Z0.000 F1600
G1 X86.107 Y38.501 Z0.000 F1600
G1 X86.227 Y38.509 Z0.000 F1600
G1 X87.232 Y38.509 Z0.000 F1600
G1 X88.239 Y38.540 Z0.000 F1600
G1 X89.244 Y38.557 Z0.000 F1600
G1 X90.247 Y38.518 Z0.000 F1600
G1 X90.350 Y38.449 Z0.000 F1600
G1 X90.422 Y38.354 Z0.000 F1600
G1 X90.475 Y38.242 Z0.000 F1600
G1 X90.565 Y38.001 Z0.000 F1600
G1 X90.623 Y37.889 Z0.000 F1600
G1 X90.703 Y37.795 Z0.000 F1600
G1 X90.817 Y37.726 Z0.000 F1600
G1 X91.274 Y37.505 Z0.000 F1600
G1 X91.764 Y37.356 Z0.000 F1600
G1 X92.253 Y37.210 Z0.000 F1600
G1 X92.709 Y36.999 Z0.000 F1600
G1 X92.729 Y36.882 Z0.000 F1600
G1 X92.701 Y36.803 Z0.000 F1600
; --- FIX X Backlash: -0.600mm ---
G0 X92.101 Y36.803 F600
G1 X92.036 Y36.755 Z0.000 F1600
G1 X91.945 Y36.733 Z0.000 F1600
G1 X91.728 Y36.738 Z0.000 F1600
G1 X91.535 Y36.766 Z0.000 F1600
; --- FIX Y Backlash: 0.800mm ---
G0 X91.535 Y37.566 F600
G1 X90.167 Y37.692 Z0.000 F1600
G1 X88.799 Y37.823 Z0.000 F1600
G1 X87.432 Y37.943 Z0.000 F1600
G1 X86.065 Y38.038 Z0.000 F1600
; --- FIX Y Backlash: -0.800mm ---
G0 X86.065 Y37.238 F600
G1 X85.313 Y36.981 Z0.000 F1600
G1 X84.572 Y36.681 Z0.000 F1600
G1 X83.823 Y36.408 Z0.000 F1600
G1 X83.049 Y36.231 Z0.000 F1600
G1 X82.954 Y36.249 Z0.000 F1600
G1 X82.894 Y36.291 Z0.000 F1600
; --- FIX Y Backlash: 0.800mm ---
G0 X82.894 Y37.091 F600
G1 X82.863 Y37.151 Z0.000 F1600
G1 X82.857 Y37.224 Z0.000 F1600
G1 X82.901 Y37.382 Z0.000 F1600
; --- FIX X Backlash: 0.600mm ---
G0 X83.501 Y37.382 F600
G1 X83.588 Y37.518 Z0.000 F1600
G1 X83.624 Y37.625 Z0.000 F1600
G1 X83.627 Y37.728 Z0.000 F1600
G1 X83.602 Y37.823 Z0.000 F1600
G1 X83.552 Y37.904 Z0.000 F1600
; --- FIX X Backlash: -0.600mm ---
G0 X82.952 Y37.904 F600
G1 X82.880 Y37.968 Z0.000 F1600
G1 X82.792 Y38.007 Z0.000 F1600
G1 X82.689 Y38.019 Z0.000 F1600
G1 X82.576 Y37.997 Z0.000 F1600
; --- FIX Y Backlash: -0.800mm ---
G0 X82.576 Y37.197 F600
G1 X81.750 Y36.984 Z0.000 F1600
G1 X80.913 Y36.794 Z0.000 F1600
G1 X80.491 Y36.730 Z0.000 F1600
G1 X80.067 Y36.698 Z0.000 F1600
G1 X79.641 Y36.707 Z0.000 F1600
; --- FIX Y Backlash: 0.800mm ---
G0 X79.641 Y37.507 F600
G1 X79.213 Y37.564 Z0.000 F1600
G1 X78.990 Y37.585 Z0.000 F1600
G1 X78.769 Y37.645 Z0.000 F1600
G1 X78.677 Y37.699 Z0.000 F1600
G1 X78.607 Y37.772 Z0.000 F1600
G1 X78.565 Y37.869 Z0.000 F1600
G1 X78.560 Y37.994 Z0.000 F1600
G1 X78.494 Y38.115 Z0.000 F1600
G1 X78.400 Y38.201 Z0.000 F1600
G1 X78.289 Y38.252 Z0.000 F1600
G1 X78.167 Y38.268 Z0.000 F1600
G1 X78.044 Y38.250 Z0.000 F1600
; --- FIX Y Backlash: -0.800mm ---
G0 X78.044 Y37.450 F600
G1 X77.929 Y37.399 Z0.000 F1600
G1 X77.829 Y37.316 Z0.000 F1600
G1 X77.754 Y37.200 Z0.000 F1600
G1 X77.648 Y37.062 Z0.000 F1600
G1 X77.514 Y36.975 Z0.000 F1600
G1 X77.358 Y36.927 Z0.000 F1600
G1 X77.188 Y36.908 Z0.000 F1600
G1 X76.831 Y36.913 Z0.000 F1600
G1 X76.498 Y36.901 Z0.000 F1600
G1 X74.621 Y36.916 Z0.000 F1600
G1 X72.743 Y36.941 Z0.000 F1600
; --- FIX Y Backlash: 0.800mm ---
G0 X72.743 Y37.741 F600
G1 X70.867 Y37.794 Z0.000 F1600
;Offset @ 900 mm/min, 80% power

M8

; Washing sequence (no color)
G1 Z10 F1000;        ; Raise brush to safe height
G0 X5 Y5 F1200;     ; Rapid move to brush cleaning position
G1 Z-1 F800;         ; Lower brush for cleaning - controlled movement
G1 X10 Y12 Z8 F1200;     ; Rapid move to brush cleaning position
G1 Z-1 F800;         ; Lower brush for cleaning - controlled movement
G1 X25 Y14 Z6 F800;     ; Move across cleaning area - controlled movement
G1 Z8 F800;         ; Maintain brush height - controlled movement
G0 X5 Y5 F1200;     ; Rapid move to brush cleaning position
G1 Z-1 F800;         ; Lower brush for cleaning - controlled movement
G1 X15 Y12 Z8 F1200;     ; Rapid move to brush cleaning position
G1 Z-1 F800;         ; Lower brush for cleaning - controlled movement
G1 X25 Y14 Z6 F800;     ; Move across cleaning area - controlled movement
G1 Z10 F800;         ; Maintain brush height - controlled movement
G1 F1200;           ; Set feed rate to 1000

; Color picking sequence
G1 Z10 F1000;         ; Raise brush to safe height
G0 X131 Y5 F1200;    ; Rapid move to color 1 position
G1 Z0 F1000;         ; Lower into color - controlled movement
G1 X130.102Y7.295Z0S800F1200
G1 X130.026Y7.642Z0F1200
G1 X130Y8Z0F1200
G1 X130.026Y8.358Z0F1200
G1 X130.102Y8.705Z0F1200
G1 X130.225Y9.041Z0F1200
G1 X130.393Y9.362Z0F1200
G1 X130.603Y9.668Z0F1200
G1 X130.854Y9.957Z0F1200
G1 X131.142Y10.226Z0F1200
G1 X131.464Y10.475Z0F1200
G1 X131.82Y10.701Z0F1200
G1 X132.204Y10.902Z0F1200
G1 X132.617Y11.078Z0F1200
G1 X133.054Y11.225Z0F1200
G1 X133.513Y11.343Z0F1200
G1 X133.992Y11.429Z0F1200
G1 X134.489Y11.482Z0F1200
G1 X135Y11.5Z0F1200
G1 X135.511Y11.482Z0F1200
G1 X136.008Y11.429Z0F1200
G1 X136.487Y11.343Z0F1200
G1 X136.946Y11.225Z0F1200
G1 X137.383Y11.078Z0F1200
G1 X137.796Y10.902Z0F1200
G1 X138.18Y10.701Z0F1200
G1 X138.536Y10.475Z0F1200
G1 X138.858Y10.226Z0F1200
G1 X139.146Y9.957Z0F1200
G1 X139.397Y9.668Z0F1200
G1 X139.607Y9.362Z0F1200
G1 X139.775Y9.041Z0F1200
G1 X139.898Y8.705Z0F1200
G1 X139.974Y8.358Z0F1200
G1 X140Y8Z0F1200
G1 X139.974Y7.642Z0F1200
G1 X139.898Y7.295Z0F1200
G1 X139.775Y6.959Z0F1200
G1 X139.607Y6.638Z0F1200
G1 X139.397Y6.332Z0F1200
G1 X139.146Y6.043Z0F1200
G1 X138.858Y5.774Z0F1200
G1 X138.536Y5.525Z0F1200
G1 X138.18Y5.299Z0F1200
G1 X137.796Y5.098Z0F1200
G1 X137.383Y4.922Z0F1200
G1 X136.946Y4.775Z0F1200
G1 X136.487Y4.657Z0F1200
G1 X136.008Y4.571Z0F1200
G1 X135.511Y4.518Z0F1200
G1 X135Y4.5Z0F1200
G1 X134.489Y4.518Z0F1200
G1 X133.992Y4.571Z0F1200
G1 X133.513Y4.657Z0F1200
G1 X133.054Y4.775Z0F1200
G1 X132.617Y4.922Z0F1200
G1 X132.204Y5.098Z0F1200
G1 X131.82Y5.299Z0F1200
G1 X131.464Y5.525Z0F1200
G1 X131.142Y5.774Z0F1200
G1 X130.854Y6.043Z0F1200
G1 X130.603Y6.332Z0F1200
G1 X130.393Y6.638Z0F1200
G1 X130.225Y6.959Z0F1200
G1 Z7 F800;         ; Raise from color - controlled movement
G1 X124 Y8 Z1 F1200;     ; Movement in paint - controlled movement
G1 X114 Y18 Z8 F500;     ; Move in paint - controlled movement
G1 F1200;           ; Set feed rate to 1000
G0 Z3.5 F1000
; --- FIX X Backlash: 0.600mm ---
G0 X71.467 Y37.794 F600
G0 X86.045 Y49.898 Z3.500
G1 Z0 F1000
;Layer Red
G1 X86.061 Y49.902 Z0.000 F1600
G1 X86.099 Y49.913 Z0.000 F1600
G1 X86.110 Y49.917 Z0.000 F1600
G1 X86.764 Y50.256 Z0.000 F1600
G1 X86.936 Y50.995 Z0.000 F1600
G1 X87.231 Y51.589 Z0.000 F1600
; --- FIX X Backlash: -0.600mm ---
G0 X86.631 Y51.589 F600
; --- FIX Y Backlash: -0.800mm ---
G0 X86.631 Y50.789 F600
G1 X86.173 Y50.554 Z0.000 F1600
G1 X84.501 Y50.586 Z0.000 F1600
G1 X84.384 Y50.635 Z0.000 F1600
; --- FIX X Backlash: 0.600mm ---
G0 X84.984 Y50.635 F600
G1 X85.247 Y49.711 Z0.000 F1600
G1 X85.275 Y49.140 Z0.000 F1600
G1 X85.516 Y49.114 Z0.000 F1600
G1 X85.674 Y49.072 Z0.000 F1600
G1 X85.745 Y49.072 Z0.000 F1600
G1 X86.045 Y49.098 Z0.000 F1600
G0 Z3.5 F1000
; --- FIX Y Backlash: 0.800mm ---
G0 X86.045 Y49.898 F600
G0 X87.624 Y49.982 Z3.500
G1 Z0 F1000
G1 X87.789 Y50.688 Z0.000 F1600
G1 X88.172 Y51.460 Z0.000 F1600
G1 X88.948 Y52.233 Z0.000 F1600
G1 X89.886 Y52.693 Z0.000 F1600
G1 X90.987 Y52.893 Z0.000 F1600
G1 X91.667 Y52.887 Z0.000 F1600
G1 X92.131 Y52.887 Z0.000 F1600
G1 X92.879 Y52.863 Z0.000 F1600
; --- FIX Y Backlash: -0.800mm ---
G0 X92.879 Y52.063 F600
G1 X93.657 Y51.887 Z0.000 F1600
G1 X93.704 Y51.864 Z0.000 F1600
; --- FIX Y Backlash: 0.800mm ---
G0 X93.704 Y52.664 F600
G1 X93.794 Y52.719 Z0.000 F1600
G1 X94.464 Y52.860 Z0.000 F1600
G1 X94.464 Y53.038 Z0.000 F1600
G1 X94.455 Y53.821 Z0.000 F1600
G1 X94.426 Y55.496 Z0.000 F1600
G1 X94.452 Y57.123 Z0.000 F1600
G1 X94.449 Y58.507 Z0.000 F1600
G1 X94.452 Y59.196 Z0.000 F1600
; --- FIX X Backlash: -0.600mm ---
G0 X93.852 Y59.196 F600
G1 X93.098 Y60.073 Z0.000 F1600
; --- FIX Y Backlash: -0.800mm ---
G0 X93.098 Y59.273 F600
G1 X93.055 Y59.198 Z0.000 F1600
G1 X93.049 Y59.052 Z0.000 F1600
G1 X92.743 Y58.171 Z0.000 F1600
G1 X92.710 Y58.127 Z0.000 F1600
; --- FIX X Backlash: 0.600mm ---
G0 X93.310 Y58.127 F600
G1 X93.423 Y57.955 Z0.000 F1600
G1 X93.660 Y57.492 Z0.000 F1600
G1 X93.906 Y56.827 Z0.000 F1600
G1 X94.378 Y55.028 Z0.000 F1600
; --- FIX X Backlash: -0.600mm ---
G0 X93.778 Y55.028 F600
G1 X92.376 Y53.226 Z0.000 F1600
G1 X90.779 Y52.629 Z0.000 F1600
; --- FIX Y Backlash: 0.800mm ---
G0 X90.779 Y53.429 F600
G1 X89.370 Y53.746 Z0.000 F1600
G1 X88.501 Y54.326 Z0.000 F1600
G1 X88.126 Y54.770 Z0.000 F1600
; --- FIX Y Backlash: -0.800mm ---
G0 X88.126 Y53.970 F600
G1 X88.071 Y53.446 Z0.000 F1600
G1 X87.359 Y52.172 Z0.000 F1600
G1 X85.964 Y51.459 Z0.000 F1600
G1 X84.691 Y51.482 Z0.000 F1600
; --- FIX Y Backlash: 0.800mm ---
G0 X84.691 Y52.282 F600
G1 X84.160 Y52.505 Z0.000 F1600
G1 X83.337 Y52.685 Z0.000 F1600
G1 X83.044 Y52.834 Z0.000 F1600
; --- FIX X Backlash: 0.600mm ---
G0 X83.644 Y52.834 F600
; --- FIX Y Backlash: -0.800mm ---
G0 X83.644 Y52.034 F600
G1 X83.738 Y51.421 Z0.000 F1600
G1 X83.717 Y51.036 Z0.000 F1600
G1 X84.099 Y50.458 Z0.000 F1600
G1 X84.353 Y49.563 Z0.000 F1600
G1 X84.391 Y48.798 Z0.000 F1600
; --- FIX X Backlash: -0.600mm ---
G0 X83.791 Y48.798 F600
G1 X83.726 Y48.295 Z0.000 F1600
; --- FIX X Backlash: 0.600mm ---
G0 X84.326 Y48.295 F600
G1 X84.679 Y48.299 Z0.000 F1600
G1 X85.351 Y48.226 Z0.000 F1600
G1 X85.546 Y48.174 Z0.000 F1600
G1 X85.777 Y48.168 Z0.000 F1600
G1 X86.182 Y48.207 Z0.000 F1600
G1 X86.278 Y48.227 Z0.000 F1600
G1 X86.393 Y48.262 Z0.000 F1600
G1 X86.485 Y48.298 Z0.000 F1600
; --- FIX Y Backlash: 0.800mm ---
G0 X86.485 Y49.098 F600
G1 X87.227 Y49.482 Z0.000 F1600
G1 X87.621 Y49.494 Z0.000 F1600
G1 X87.624 Y49.982 Z0.000 F1600
G0 Z3.5 F1000
; --- FIX X Backlash: -0.600mm ---
G0 X87.024 Y49.982 F600
G0 X81.534 Y57.694 Z3.500
G1 Z0 F1000
G1 X81.293 Y57.779 Z0.000 F1600
G1 X80.778 Y58.080 Z0.000 F1600
G1 X80.364 Y58.407 Z0.000 F1600
G1 X80.063 Y58.721 Z0.000 F1600
G1 X79.888 Y58.731 Z0.000 F1600
G1 X79.292 Y58.912 Z0.000 F1600
; --- FIX X Backlash: 0.600mm ---
G0 X79.892 Y58.912 F600
; --- FIX Y Backlash: -0.800mm ---
G0 X79.892 Y58.112 F600
G1 X80.030 Y57.858 Z0.000 F1600
G1 X80.473 Y56.556 Z0.000 F1600
; --- FIX X Backlash: -0.600mm ---
G0 X79.873 Y56.556 F600
G1 X79.426 Y55.407 Z0.000 F1600
G1 X79.473 Y55.383 Z0.000 F1600
; --- FIX X Backlash: 0.600mm ---
G0 X80.073 Y55.383 F600
G1 X80.534 Y55.334 Z0.000 F1600
G1 X81.243 Y55.133 Z0.000 F1600
G1 X81.725 Y54.878 Z0.000 F1600
; --- FIX Y Backlash: 0.800mm ---
G0 X81.725 Y55.678 F600
G1 X81.714 Y55.731 Z0.000 F1600
G1 X81.701 Y56.351 Z0.000 F1600
G1 X81.837 Y57.119 Z0.000 F1600
G1 X82.134 Y57.694 Z0.000 F1600
G0 Z3.5 F1000
G0 X82.761 Y58.428 Z3.500
G1 Z0 F1000
; --- FIX X Backlash: -0.600mm ---
G0 X82.161 Y58.428 F600
G1 X81.673 Y58.599 Z0.000 F1600
G1 X81.287 Y58.825 Z0.000 F1600
G1 X80.971 Y59.075 Z0.000 F1600
G1 X80.616 Y59.446 Z0.000 F1600
G1 X80.489 Y59.599 Z0.000 F1600
G1 X80.046 Y59.624 Z0.000 F1600
G1 X79.495 Y59.791 Z0.000 F1600
G1 X78.912 Y60.180 Z0.000 F1600
G1 X78.505 Y60.647 Z0.000 F1600
G1 X78.288 Y61.016 Z0.000 F1600
G1 X78.079 Y60.970 Z0.000 F1600
; --- FIX Y Backlash: -0.800mm ---
G0 X78.079 Y60.170 F600
G1 X77.608 Y60.117 Z0.000 F1600
G1 X77.250 Y60.092 Z0.000 F1600
G1 X76.977 Y60.069 Z0.000 F1600
G1 X76.956 Y60.050 Z0.000 F1600
G1 X76.842 Y59.915 Z0.000 F1600
G1 X76.758 Y59.798 Z0.000 F1600
G1 X76.556 Y59.431 Z0.000 F1600
G1 X76.447 Y59.145 Z0.000 F1600
G1 X76.450 Y59.145 Z0.000 F1600
; --- FIX X Backlash: 0.600mm ---
G0 X77.050 Y59.145 F600
G1 X77.721 Y58.948 Z0.000 F1600
G1 X78.339 Y58.590 Z0.000 F1600
G1 X78.702 Y58.258 Z0.000 F1600
G1 X78.982 Y57.904 Z0.000 F1600
G1 X79.202 Y57.497 Z0.000 F1600
G1 X79.516 Y56.576 Z0.000 F1600
; --- FIX X Backlash: -0.600mm ---
G0 X78.916 Y56.576 F600
G1 X78.355 Y55.135 Z0.000 F1600
G1 X78.323 Y55.043 Z0.000 F1600
; --- FIX X Backlash: 0.600mm ---
G0 X78.923 Y55.043 F600
G1 X79.344 Y54.772 Z0.000 F1600
G1 X79.459 Y54.653 Z0.000 F1600
G1 X79.589 Y54.619 Z0.000 F1600
G1 X79.825 Y54.501 Z0.000 F1600
G1 X79.853 Y54.501 Z0.000 F1600
G1 X80.362 Y54.447 Z0.000 F1600
G1 X80.906 Y54.293 Z0.000 F1600
G1 X81.481 Y53.988 Z0.000 F1600
G1 X82.026 Y53.470 Z0.000 F1600
G1 X82.406 Y52.742 Z0.000 F1600
G1 X82.417 Y52.662 Z0.000 F1600
G1 X82.454 Y52.614 Z0.000 F1600
G1 X82.749 Y51.930 Z0.000 F1600
G1 X82.834 Y51.376 Z0.000 F1600
G1 X82.805 Y50.832 Z0.000 F1600
G1 X82.789 Y50.780 Z0.000 F1600
G1 X82.825 Y50.754 Z0.000 F1600
G1 X83.271 Y50.078 Z0.000 F1600
G1 X83.459 Y49.416 Z0.000 F1600
G1 X83.488 Y48.833 Z0.000 F1600
; --- FIX X Backlash: -0.600mm ---
G0 X82.888 Y48.833 F600
G1 X82.821 Y48.314 Z0.000 F1600
G1 X82.685 Y47.843 Z0.000 F1600
G1 X82.483 Y47.392 Z0.000 F1600
G1 X82.385 Y47.246 Z0.000 F1600
; --- FIX X Backlash: 0.600mm ---
G0 X82.985 Y47.246 F600
G1 X83.108 Y47.259 Z0.000 F1600
; --- FIX Y Backlash: 0.800mm ---
G0 X83.108 Y48.059 F600
G1 X83.721 Y48.151 Z0.000 F1600
G1 X84.147 Y48.192 Z0.000 F1600
G1 X84.636 Y48.199 Z0.000 F1600
; --- FIX Y Backlash: -0.800mm ---
G0 X84.636 Y47.399 F600
G1 X85.185 Y47.339 Z0.000 F1600
G1 X85.417 Y47.277 Z0.000 F1600
G1 X85.810 Y47.267 Z0.000 F1600
G1 X86.314 Y47.316 Z0.000 F1600
G1 X86.496 Y47.354 Z0.000 F1600
; --- FIX Y Backlash: 0.800mm ---
G0 X86.496 Y48.154 F600
G1 X86.688 Y48.210 Z0.000 F1600
G1 X86.858 Y48.278 Z0.000 F1600
G1 X87.458 Y48.589 Z0.000 F1600
G1 X88.656 Y48.624 Z0.000 F1600
; --- FIX X Backlash: -0.600mm ---
G0 X88.056 Y48.624 F600
G1 X87.920 Y49.386 Z0.000 F1600
G1 X87.923 Y49.875 Z0.000 F1600
; --- FIX X Backlash: 0.600mm ---
G0 X88.523 Y49.875 F600
G1 X88.641 Y50.382 Z0.000 F1600
G1 X88.913 Y50.927 Z0.000 F1600
G1 X89.478 Y51.491 Z0.000 F1600
G1 X90.169 Y51.830 Z0.000 F1600
G1 X91.064 Y51.992 Z0.000 F1600
G1 X91.685 Y51.986 Z0.000 F1600
G1 X92.118 Y51.986 Z0.000 F1600
G1 X92.763 Y51.967 Z0.000 F1600
; --- FIX Y Backlash: -0.800mm ---
G0 X92.763 Y51.167 F600
G1 X93.349 Y51.034 Z0.000 F1600
G1 X93.744 Y50.833 Z0.000 F1600
; --- FIX Y Backlash: 0.800mm ---
G0 X93.744 Y51.633 F600
G1 X94.131 Y51.871 Z0.000 F1600
G1 X95.049 Y52.063 Z0.000 F1600
; --- FIX Y Backlash: -0.800mm ---
G0 X95.049 Y51.263 F600
G1 X95.349 Y51.209 Z0.000 F1600
; --- FIX Y Backlash: 0.800mm ---
G0 X95.349 Y52.009 F600
G1 X95.360 Y52.288 Z0.000 F1600
G1 X95.365 Y53.043 Z0.000 F1600
G1 X95.355 Y53.836 Z0.000 F1600
G1 X95.326 Y55.497 Z0.000 F1600
G1 X95.352 Y57.154 Z0.000 F1600
G1 X95.349 Y58.506 Z0.000 F1600
G1 X95.355 Y59.859 Z0.000 F1600
G1 X95.350 Y60.180 Z0.000 F1600
; --- FIX X Backlash: -0.600mm ---
G0 X94.750 Y60.180 F600
; --- FIX Y Backlash: -0.800mm ---
G0 X94.750 Y59.380 F600
G1 X94.448 Y59.082 Z0.000 F1600
; --- FIX Y Backlash: 0.800mm ---
G0 X94.448 Y59.882 F600
G1 X92.907 Y61.676 Z0.000 F1600
G1 X92.641 Y62.142 Z0.000 F1600
G1 X92.445 Y62.560 Z0.000 F1600
G1 X92.384 Y62.567 Z0.000 F1600
G1 X92.377 Y62.552 Z0.000 F1600
; --- FIX X Backlash: 0.600mm ---
G0 X92.977 Y62.552 F600
; --- FIX Y Backlash: -0.800mm ---
G0 X92.977 Y61.752 F600
G1 X93.230 Y61.070 Z0.000 F1600
G1 X93.192 Y60.208 Z0.000 F1600
; --- FIX X Backlash: -0.600mm ---
G0 X92.592 Y60.208 F600
G1 X92.187 Y59.491 Z0.000 F1600
G1 X92.166 Y59.470 Z0.000 F1600
G1 X92.155 Y59.222 Z0.000 F1600
G1 X91.940 Y58.601 Z0.000 F1600
G1 X91.574 Y58.120 Z0.000 F1600
; --- FIX X Backlash: 0.600mm ---
G0 X92.174 Y58.120 F600
G1 X92.406 Y57.861 Z0.000 F1600
G1 X92.645 Y57.500 Z0.000 F1600
G1 X92.834 Y57.130 Z0.000 F1600
G1 X93.046 Y56.556 Z0.000 F1600
G1 X93.395 Y55.229 Z0.000 F1600
; --- FIX X Backlash: -0.600mm ---
G0 X92.795 Y55.229 F600
G1 X91.822 Y53.980 Z0.000 F1600
G1 X90.715 Y53.566 Z0.000 F1600
; --- FIX Y Backlash: 0.800mm ---
G0 X90.715 Y54.366 F600
G1 X89.731 Y54.587 Z0.000 F1600
G1 X89.107 Y55.004 Z0.000 F1600
G1 X88.691 Y55.496 Z0.000 F1600
G1 X88.444 Y55.661 Z0.000 F1600
G1 X87.977 Y56.261 Z0.000 F1600
G1 X87.775 Y57.147 Z0.000 F1600
; --- FIX X Backlash: 0.600mm ---
G0 X88.375 Y57.147 F600
G1 X88.509 Y57.899 Z0.000 F1600
G1 X88.765 Y58.449 Z0.000 F1600
G1 X89.118 Y58.916 Z0.000 F1600
G1 X89.193 Y58.978 Z0.000 F1600
; --- FIX X Backlash: -0.600mm ---
G0 X88.593 Y58.978 F600
; --- FIX Y Backlash: -0.800mm ---
G0 X88.593 Y58.178 F600
G1 X87.891 Y58.085 Z0.000 F1600
; --- FIX Y Backlash: 0.800mm ---
G0 X87.891 Y58.885 F600
G1 X87.035 Y59.972 Z0.000 F1600
G1 X86.796 Y60.564 Z0.000 F1600
G1 X86.759 Y61.209 Z0.000 F1600
; --- FIX X Backlash: 0.600mm ---
G0 X87.359 Y61.209 F600
G1 X87.505 Y61.800 Z0.000 F1600
G1 X87.656 Y62.059 Z0.000 F1600
; --- FIX X Backlash: -0.600mm ---
G0 X87.056 Y62.059 F600
G1 X86.938 Y62.542 Z0.000 F1600
; --- FIX Y Backlash: -0.800mm ---
G0 X86.938 Y61.742 F600
G1 X86.921 Y61.463 Z0.000 F1600
G1 X86.800 Y60.943 Z0.000 F1600
G1 X86.666 Y60.550 Z0.000 F1600
G1 X86.559 Y60.271 Z0.000 F1600
G1 X86.498 Y60.097 Z0.000 F1600
G1 X86.493 Y60.075 Z0.000 F1600
; --- FIX X Backlash: 0.600mm ---
G0 X87.093 Y60.075 F600
G1 X87.155 Y59.632 Z0.000 F1600
; --- FIX X Backlash: -0.600mm ---
G0 X86.555 Y59.632 F600
G1 X86.368 Y58.914 Z0.000 F1600
G1 X86.047 Y58.364 Z0.000 F1600
G1 X85.585 Y57.940 Z0.000 F1600
G1 X85.452 Y57.871 Z0.000 F1600
; --- FIX X Backlash: 0.600mm ---
G0 X86.052 Y57.871 F600
G1 X86.939 Y57.308 Z0.000 F1600
G1 X87.415 Y56.696 Z0.000 F1600
G1 X87.653 Y56.110 Z0.000 F1600
G1 X87.759 Y55.608 Z0.000 F1600
G1 X87.807 Y55.022 Z0.000 F1600
G1 X87.865 Y54.393 Z0.000 F1600
; --- FIX X Backlash: -0.600mm ---
G0 X87.265 Y54.393 F600
G1 X87.195 Y53.723 Z0.000 F1600
G1 X86.707 Y52.849 Z0.000 F1600
G1 X85.755 Y52.363 Z0.000 F1600
G1 X84.880 Y52.379 Z0.000 F1600
; --- FIX Y Backlash: 0.800mm ---
G0 X84.880 Y53.179 F600
G1 X84.397 Y53.382 Z0.000 F1600
G1 X84.355 Y53.382 Z0.000 F1600
G1 X83.642 Y53.539 Z0.000 F1600
G1 X83.067 Y53.833 Z0.000 F1600
G1 X82.547 Y54.315 Z0.000 F1600
G1 X82.189 Y54.988 Z0.000 F1600
G1 X82.135 Y55.309 Z0.000 F1600
G1 X82.095 Y55.417 Z0.000 F1600
G1 X82.012 Y55.831 Z0.000 F1600
G1 X82.003 Y56.281 Z0.000 F1600
; --- FIX X Backlash: 0.600mm ---
G0 X82.603 Y56.281 F600
G1 X82.699 Y56.827 Z0.000 F1600
G1 X83.057 Y57.520 Z0.000 F1600
G1 X83.631 Y58.058 Z0.000 F1600
G1 X84.241 Y58.354 Z0.000 F1600
; --- FIX X Backlash: -0.600mm ---
G0 X83.641 Y58.354 F600
G1 X83.131 Y58.408 Z0.000 F1600
G1 X83.076 Y58.408 Z0.000 F1600
G1 X82.750 Y58.359 Z0.000 F1600
G1 X82.161 Y58.428 Z0.000 F1600
G0 Z3.5 F1000
; --- FIX X Backlash: 0.600mm ---
G0 X82.761 Y58.428 F600
; --- FIX Y Backlash: -0.800mm ---
G0 X82.761 Y57.628 F600
G0 X90.211 Y56.391 Z3.500
G1 Z0 F1000
; --- FIX Y Backlash: 0.800mm ---
G0 X90.211 Y57.191 F600
G1 X90.240 Y57.352 Z0.000 F1600
G1 X90.316 Y57.516 Z0.000 F1600
G1 X90.426 Y57.662 Z0.000 F1600
G1 X90.557 Y57.770 Z0.000 F1600
G1 X90.695 Y57.820 Z0.000 F1600
; --- FIX Y Backlash: -0.800mm ---
G0 X90.695 Y57.020 F600
G1 X90.847 Y56.903 Z0.000 F1600
G1 X90.978 Y56.758 Z0.000 F1600
G1 X91.089 Y56.590 Z0.000 F1600
G1 X91.183 Y56.406 Z0.000 F1600
G1 X91.328 Y56.014 Z0.000 F1600
G1 X91.428 Y55.633 Z0.000 F1600
; --- FIX X Backlash: -0.600mm ---
G0 X90.828 Y55.633 F600
G1 X90.714 Y55.488 Z0.000 F1600
G1 X90.587 Y55.440 Z0.000 F1600
G1 X90.452 Y55.470 Z0.000 F1600
; --- FIX Y Backlash: 0.800mm ---
G0 X90.452 Y56.270 F600
G1 X90.318 Y56.359 Z0.000 F1600
G1 X90.083 Y56.638 Z0.000 F1600
G1 X89.942 Y56.919 Z0.000 F1600
G1 X89.834 Y56.928 Z0.000 F1600
G1 X89.749 Y56.955 Z0.000 F1600
G1 X89.686 Y56.997 Z0.000 F1600
G1 X89.643 Y57.052 Z0.000 F1600
G1 X89.611 Y57.191 Z0.000 F1600
G0 Z3.5 F1000
G0 X89.172 Y58.289 Z3.500
G1 Z0 F1000
; --- FIX X Backlash: 0.600mm ---
G0 X89.772 Y58.289 F600
G1 X90.104 Y58.563 Z0.000 F1600
G1 X90.852 Y58.834 Z0.000 F1600
; --- FIX Y Backlash: -0.800mm ---
G0 X90.852 Y58.034 F600
G1 X91.462 Y57.566 Z0.000 F1600
G1 X91.691 Y57.309 Z0.000 F1600
G1 X91.867 Y57.045 Z0.000 F1600
G1 X92.009 Y56.768 Z0.000 F1600
G1 X92.187 Y56.285 Z0.000 F1600
G1 X92.411 Y55.431 Z0.000 F1600
; --- FIX X Backlash: -0.600mm ---
G0 X91.811 Y55.431 F600
G1 X91.268 Y54.734 Z0.000 F1600
G1 X90.651 Y54.503 Z0.000 F1600
; --- FIX Y Backlash: 0.800mm ---
G0 X90.651 Y55.303 F600
G1 X90.091 Y55.429 Z0.000 F1600
G1 X89.712 Y55.682 Z0.000 F1600
G1 X89.326 Y56.139 Z0.000 F1600
G1 X89.315 Y56.162 Z0.000 F1600
G1 X89.065 Y56.329 Z0.000 F1600
G1 X88.810 Y56.657 Z0.000 F1600
G1 X88.693 Y57.169 Z0.000 F1600
; --- FIX X Backlash: 0.600mm ---
G0 X89.293 Y57.169 F600
G1 X89.375 Y57.626 Z0.000 F1600
G1 X89.541 Y57.982 Z0.000 F1600
G1 X89.772 Y58.289 Z0.000 F1600
G0 Z3.5 F1000
; --- FIX X Backlash: -0.600mm ---
G0 X89.172 Y58.289 F600
; --- FIX Y Backlash: -0.800mm ---
G0 X89.172 Y57.489 F600
G0 X85.241 Y55.787 Z3.500
G1 Z0 F1000
; --- FIX X Backlash: 0.600mm ---
G0 X85.841 Y55.787 F600
G1 X85.925 Y55.580 Z0.000 F1600
G1 X85.974 Y55.348 Z0.000 F1600
G1 X86.015 Y54.855 Z0.000 F1600
G1 X86.057 Y54.404 Z0.000 F1600
G1 X86.043 Y54.279 Z0.000 F1600
G1 X86.001 Y54.203 Z0.000 F1600
; --- FIX X Backlash: -0.600mm ---
G0 X85.401 Y54.203 F600
G1 X85.338 Y54.171 Z0.000 F1600
G1 X85.259 Y54.171 Z0.000 F1600
; --- FIX Y Backlash: 0.800mm ---
G0 X85.259 Y54.971 F600
G1 X85.085 Y55.045 Z0.000 F1600
G1 X84.932 Y55.159 Z0.000 F1600
G1 X84.590 Y55.175 Z0.000 F1600
G1 X84.254 Y55.248 Z0.000 F1600
G1 X84.109 Y55.322 Z0.000 F1600
G1 X83.994 Y55.429 Z0.000 F1600
G1 X83.915 Y55.577 Z0.000 F1600
G1 X83.882 Y55.771 Z0.000 F1600
G1 X83.833 Y55.906 Z0.000 F1600
G1 X83.808 Y56.029 Z0.000 F1600
G1 X83.808 Y56.142 Z0.000 F1600
G1 X83.824 Y56.243 Z0.000 F1600
; --- FIX X Backlash: 0.600mm ---
G0 X84.424 Y56.243 F600
G1 X84.514 Y56.418 Z0.000 F1600
G1 X84.663 Y56.558 Z0.000 F1600
G1 X85.071 Y56.755 Z0.000 F1600
G1 X85.520 Y56.877 Z0.000 F1600
; --- FIX Y Backlash: -0.800mm ---
G0 X85.520 Y56.077 F600
G1 X85.709 Y55.957 Z0.000 F1600
G1 X85.841 Y55.787 Z0.000 F1600
G0 Z3.5 F1000
G0 X86.961 Y54.399 Z3.500
G1 Z0 F1000
G1 X86.919 Y54.001 Z0.000 F1600
; --- FIX X Backlash: -0.600mm ---
G0 X86.319 Y54.001 F600
G1 X86.054 Y53.526 Z0.000 F1600
G1 X85.546 Y53.267 Z0.000 F1600
G1 X85.069 Y53.276 Z0.000 F1600
; --- FIX Y Backlash: 0.800mm ---
G0 X85.069 Y54.076 F600
G1 X84.635 Y54.258 Z0.000 F1600
G1 X84.615 Y54.272 Z0.000 F1600
G1 X84.473 Y54.279 Z0.000 F1600
G1 X83.948 Y54.394 Z0.000 F1600
G1 X83.588 Y54.578 Z0.000 F1600
G1 X83.271 Y54.873 Z0.000 F1600
G1 X83.052 Y55.283 Z0.000 F1600
G1 X83.009 Y55.539 Z0.000 F1600
G1 X82.964 Y55.661 Z0.000 F1600
G1 X82.910 Y55.930 Z0.000 F1600
G1 X82.904 Y56.211 Z0.000 F1600
; --- FIX X Backlash: 0.600mm ---
G0 X83.504 Y56.211 F600
G1 X83.562 Y56.535 Z0.000 F1600
G1 X83.786 Y56.969 Z0.000 F1600
G1 X84.147 Y57.308 Z0.000 F1600
G1 X84.753 Y57.602 Z0.000 F1600
G1 X85.667 Y57.850 Z0.000 F1600
; --- FIX Y Backlash: -0.800mm ---
G0 X85.667 Y57.050 F600
G1 X86.325 Y56.633 Z0.000 F1600
G1 X86.627 Y56.242 Z0.000 F1600
G1 X86.790 Y55.845 Z0.000 F1600
G1 X86.867 Y55.478 Z0.000 F1600
G1 X86.911 Y54.938 Z0.000 F1600
G1 X86.961 Y54.399 Z0.000 F1600
G0 Z3.5 F1000
G0 X87.690 Y46.895 Z3.500
G1 Z0 F1000
G1 X88.678 Y46.925 Z0.000 F1600
G1 X89.498 Y46.910 Z0.000 F1600
G1 X89.932 Y46.876 Z0.000 F1600
G1 X90.365 Y46.819 Z0.000 F1600
G1 X90.801 Y46.731 Z0.000 F1600
G1 X91.497 Y46.533 Z0.000 F1600
G1 X91.650 Y46.323 Z0.000 F1600
G1 X92.134 Y46.361 Z0.000 F1600
G1 X92.703 Y46.326 Z0.000 F1600
G1 X93.121 Y46.231 Z0.000 F1600
G1 X93.491 Y46.069 Z0.000 F1600
G1 X93.782 Y45.904 Z0.000 F1600
G1 X94.009 Y45.767 Z0.000 F1600
G1 X94.171 Y45.681 Z0.000 F1600
G1 X94.249 Y45.654 Z0.000 F1600
; --- FIX Y Backlash: 0.800mm ---
G0 X94.249 Y46.454 F600
G1 X94.500 Y46.672 Z0.000 F1600
G1 X94.970 Y47.145 Z0.000 F1600
G1 X95.269 Y47.413 Z0.000 F1600
G1 X95.622 Y47.673 Z0.000 F1600
G1 X96.043 Y47.899 Z0.000 F1600
G1 X96.249 Y47.966 Z0.000 F1600
G1 X96.254 Y47.987 Z0.000 F1600
G1 X96.263 Y48.124 Z0.000 F1600
G1 X96.226 Y48.596 Z0.000 F1600
; --- FIX X Backlash: -0.600mm ---
G0 X95.626 Y48.596 F600
; --- FIX Y Backlash: -0.800mm ---
G0 X95.626 Y47.796 F600
G1 X95.525 Y47.735 Z0.000 F1600
G1 X95.242 Y47.548 Z0.000 F1600
G1 X94.856 Y47.170 Z0.000 F1600
G1 X94.428 Y46.999 Z0.000 F1600
G1 X94.094 Y46.929 Z0.000 F1600
G1 X93.772 Y46.915 Z0.000 F1600
G1 X93.452 Y46.947 Z0.000 F1600
; --- FIX Y Backlash: 0.800mm ---
G0 X93.452 Y47.747 F600
G1 X92.966 Y47.877 Z0.000 F1600
G1 X92.544 Y48.049 Z0.000 F1600
G1 X92.197 Y48.200 Z0.000 F1600
G1 X91.909 Y48.305 Z0.000 F1600
G1 X91.824 Y48.325 Z0.000 F1600
G1 X91.744 Y48.335 Z0.000 F1600
G1 X91.687 Y48.335 Z0.000 F1600
G1 X91.490 Y48.302 Z0.000 F1600
G1 X91.044 Y48.302 Z0.000 F1600
; --- FIX Y Backlash: -0.800mm ---
G0 X91.044 Y47.502 F600
G1 X90.590 Y47.449 Z0.000 F1600
G1 X90.249 Y47.437 Z0.000 F1600
; --- FIX Y Backlash: 0.800mm ---
G0 X90.249 Y48.237 F600
G1 X89.838 Y48.292 Z0.000 F1600
G1 X89.380 Y48.492 Z0.000 F1600
G1 X88.910 Y48.963 Z0.000 F1600
G1 X88.820 Y49.462 Z0.000 F1600
G1 X88.820 Y49.769 Z0.000 F1600
; --- FIX X Backlash: 0.600mm ---
G0 X89.420 Y49.769 F600
G1 X89.494 Y50.075 Z0.000 F1600
G1 X89.652 Y50.394 Z0.000 F1600
G1 X90.008 Y50.748 Z0.000 F1600
G1 X90.453 Y50.966 Z0.000 F1600
G1 X91.142 Y51.091 Z0.000 F1600
G1 X91.682 Y51.086 Z0.000 F1600
G1 X92.104 Y51.086 Z0.000 F1600
G1 X92.648 Y51.070 Z0.000 F1600
; --- FIX Y Backlash: -0.800mm ---
G0 X92.648 Y50.270 F600
G1 X93.041 Y50.181 Z0.000 F1600
G1 X93.457 Y49.969 Z0.000 F1600
G1 X93.718 Y49.684 Z0.000 F1600
G1 X93.733 Y49.697 Z0.000 F1600
; --- FIX Y Backlash: 0.800mm ---
G0 X93.733 Y50.497 F600
G1 X94.028 Y50.751 Z0.000 F1600
G1 X94.469 Y51.021 Z0.000 F1600
G1 X95.062 Y51.146 Z0.000 F1600
; --- FIX Y Backlash: -0.800mm ---
G0 X95.062 Y50.346 F600
G1 X95.578 Y50.253 Z0.000 F1600
G1 X95.978 Y50.189 Z0.000 F1600
G1 X96.185 Y50.137 Z0.000 F1600
; --- FIX Y Backlash: 0.800mm ---
G0 X96.185 Y50.937 F600
G1 X96.229 Y51.479 Z0.000 F1600
G1 X96.259 Y52.264 Z0.000 F1600
G1 X96.265 Y53.042 Z0.000 F1600
G1 X96.255 Y53.852 Z0.000 F1600
G1 X96.227 Y55.498 Z0.000 F1600
G1 X96.252 Y57.141 Z0.000 F1600
G1 X96.249 Y58.505 Z0.000 F1600
G1 X96.255 Y59.872 Z0.000 F1600
G1 X96.235 Y61.229 Z0.000 F1600
; --- FIX X Backlash: -0.600mm ---
G0 X95.635 Y61.229 F600
G1 X95.582 Y62.134 Z0.000 F1600
G1 X95.513 Y62.199 Z0.000 F1600
G1 X95.499 Y62.182 Z0.000 F1600
; --- FIX Y Backlash: -0.800mm ---
G0 X95.499 Y61.382 F600
G1 X94.503 Y60.400 Z0.000 F1600
; --- FIX Y Backlash: 0.800mm ---
G0 X94.503 Y61.200 F600
G1 X93.646 Y62.197 Z0.000 F1600
G1 X93.440 Y62.557 Z0.000 F1600
G1 X93.174 Y63.126 Z0.000 F1600
G1 X93.075 Y63.300 Z0.000 F1600
G1 X92.993 Y63.399 Z0.000 F1600
G1 X92.940 Y63.409 Z0.000 F1600
G1 X92.411 Y63.470 Z0.000 F1600
G1 X91.935 Y63.459 Z0.000 F1600
G1 X91.845 Y63.437 Z0.000 F1600
G1 X91.784 Y63.404 Z0.000 F1600
G1 X91.775 Y63.390 Z0.000 F1600
; --- FIX Y Backlash: -0.800mm ---
G0 X91.775 Y62.590 F600
G1 X91.721 Y62.456 Z0.000 F1600
G1 X91.484 Y61.976 Z0.000 F1600
G1 X91.303 Y61.622 Z0.000 F1600
; --- FIX X Backlash: 0.600mm ---
G0 X91.903 Y61.622 F600
G1 X91.959 Y61.579 Z0.000 F1600
G1 X92.181 Y61.312 Z0.000 F1600
G1 X92.323 Y60.928 Z0.000 F1600
G1 X92.303 Y60.463 Z0.000 F1600
; --- FIX X Backlash: -0.600mm ---
G0 X91.703 Y60.463 F600
G1 X91.463 Y60.039 Z0.000 F1600
G1 X91.262 Y59.837 Z0.000 F1600
G1 X91.278 Y59.777 Z0.000 F1600
G1 X91.262 Y59.393 Z0.000 F1600
G1 X91.136 Y59.032 Z0.000 F1600
G1 X90.889 Y58.706 Z0.000 F1600
G1 X90.494 Y58.462 Z0.000 F1600
G1 X89.981 Y58.407 Z0.000 F1600
; --- FIX Y Backlash: 0.800mm ---
G0 X89.981 Y59.207 F600
G1 X89.514 Y59.389 Z0.000 F1600
G1 X89.292 Y59.601 Z0.000 F1600
G1 X89.081 Y59.793 Z0.000 F1600
G1 X88.908 Y59.911 Z0.000 F1600
G1 X88.888 Y59.920 Z0.000 F1600
G1 X88.878 Y59.923 Z0.000 F1600
; --- FIX Y Backlash: -0.800mm ---
G0 X88.878 Y59.123 F600
G1 X88.281 Y59.044 Z0.000 F1600
; --- FIX Y Backlash: 0.800mm ---
G0 X88.281 Y59.844 F600
G1 X87.821 Y60.428 Z0.000 F1600
G1 X87.686 Y60.763 Z0.000 F1600
G1 X87.666 Y61.125 Z0.000 F1600
; --- FIX X Backlash: 0.600mm ---
G0 X88.266 Y61.125 F600
G1 X88.348 Y61.459 Z0.000 F1600
G1 X88.541 Y61.789 Z0.000 F1600
G1 X88.675 Y61.950 Z0.000 F1600
; --- FIX X Backlash: -0.600mm ---
G0 X88.075 Y61.950 F600
G1 X87.918 Y62.324 Z0.000 F1600
G1 X87.823 Y62.711 Z0.000 F1600
G1 X87.786 Y63.096 Z0.000 F1600
G1 X87.799 Y63.475 Z0.000 F1600
; --- FIX X Backlash: 0.600mm ---
G0 X88.399 Y63.475 F600
G1 X88.458 Y63.844 Z0.000 F1600
G1 X88.558 Y64.199 Z0.000 F1600
G1 X88.562 Y64.208 Z0.000 F1600
G1 X88.535 Y64.271 Z0.000 F1600
; --- FIX X Backlash: -0.600mm ---
G0 X87.935 Y64.271 F600
G1 X87.841 Y64.423 Z0.000 F1600
G1 X87.714 Y64.581 Z0.000 F1600
G1 X87.567 Y64.724 Z0.000 F1600
G1 X87.467 Y64.799 Z0.000 F1600
; --- FIX Y Backlash: -0.800mm ---
G0 X87.467 Y63.999 F600
G1 X87.220 Y63.832 Z0.000 F1600
G1 X86.843 Y63.582 Z0.000 F1600
G1 X86.693 Y63.499 Z0.000 F1600
G1 X86.607 Y63.332 Z0.000 F1600
G1 X86.287 Y62.903 Z0.000 F1600
G1 X85.908 Y62.544 Z0.000 F1600
; --- FIX X Backlash: 0.600mm ---
G0 X86.508 Y62.544 F600
G1 X86.675 Y62.395 Z0.000 F1600
G1 X86.627 Y61.593 Z0.000 F1600
; --- FIX X Backlash: -0.600mm ---
G0 X86.027 Y61.593 F600
G1 X85.934 Y61.192 Z0.000 F1600
G1 X85.819 Y60.857 Z0.000 F1600
G1 X85.709 Y60.567 Z0.000 F1600
G1 X85.636 Y60.359 Z0.000 F1600
G1 X85.594 Y60.188 Z0.000 F1600
G1 X85.585 Y60.068 Z0.000 F1600
; --- FIX X Backlash: 0.600mm ---
G0 X86.185 Y60.068 F600
G1 X86.239 Y59.685 Z0.000 F1600
; --- FIX X Backlash: -0.600mm ---
G0 X85.639 Y59.685 F600
G1 X85.528 Y59.261 Z0.000 F1600
G1 X85.338 Y58.935 Z0.000 F1600
G1 X85.066 Y58.685 Z0.000 F1600
G1 X84.742 Y58.518 Z0.000 F1600
G1 X84.271 Y58.429 Z0.000 F1600
G1 X83.842 Y58.437 Z0.000 F1600
; --- FIX Y Backlash: 0.800mm ---
G0 X83.842 Y59.237 F600
G1 X83.196 Y59.306 Z0.000 F1600
G1 X83.020 Y59.312 Z0.000 F1600
G1 X82.733 Y59.267 Z0.000 F1600
G1 X82.365 Y59.310 Z0.000 F1600
G1 X82.052 Y59.420 Z0.000 F1600
G1 X81.796 Y59.569 Z0.000 F1600
G1 X81.579 Y59.742 Z0.000 F1600
G1 X81.288 Y60.045 Z0.000 F1600
G1 X81.063 Y60.317 Z0.000 F1600
G1 X80.892 Y60.510 Z0.000 F1600
G1 X80.832 Y60.560 Z0.000 F1600
G1 X80.813 Y60.552 Z0.000 F1600
; --- FIX Y Backlash: -0.800mm ---
G0 X80.813 Y59.752 F600
G1 X80.514 Y59.699 Z0.000 F1600
G1 X80.205 Y59.716 Z0.000 F1600
; --- FIX Y Backlash: 0.800mm ---
G0 X80.205 Y60.516 F600
G1 X79.884 Y60.614 Z0.000 F1600
G1 X79.512 Y60.862 Z0.000 F1600
G1 X79.239 Y61.176 Z0.000 F1600
G1 X78.958 Y61.651 Z0.000 F1600
G1 X78.731 Y62.047 Z0.000 F1600
G1 X78.709 Y62.093 Z0.000 F1600
; --- FIX Y Backlash: -0.800mm ---
G0 X78.709 Y61.293 F600
G1 X78.378 Y61.158 Z0.000 F1600
G1 X77.931 Y61.058 Z0.000 F1600
G1 X77.526 Y61.013 Z0.000 F1600
G1 X77.166 Y60.988 Z0.000 F1600
G1 X76.873 Y60.964 Z0.000 F1600
G1 X76.633 Y60.926 Z0.000 F1600
G1 X76.550 Y60.901 Z0.000 F1600
G1 X76.464 Y60.830 Z0.000 F1600
G1 X76.295 Y60.662 Z0.000 F1600
G1 X76.131 Y60.469 Z0.000 F1600
G1 X75.997 Y60.281 Z0.000 F1600
G1 X75.738 Y59.811 Z0.000 F1600
G1 X75.371 Y58.846 Z0.000 F1600
G1 X74.603 Y58.615 Z0.000 F1600
; --- FIX Y Backlash: 0.800mm ---
G0 X74.603 Y59.415 F600
G1 X74.117 Y59.495 Z0.000 F1600
G1 X73.795 Y59.663 Z0.000 F1600
G1 X73.595 Y59.810 Z0.000 F1600
G1 X73.476 Y59.904 Z0.000 F1600
G1 X73.469 Y59.908 Z0.000 F1600
G1 X73.363 Y59.918 Z0.000 F1600
G1 X73.103 Y60.019 Z0.000 F1600
G1 X73.050 Y60.033 Z0.000 F1600
; --- FIX Y Backlash: -0.800mm ---
G0 X73.050 Y59.233 F600
G1 X73.004 Y59.149 Z0.000 F1600
; --- FIX X Backlash: 0.600mm ---
G0 X73.604 Y59.149 F600
G1 X73.704 Y59.121 Z0.000 F1600
G1 X74.045 Y58.967 Z0.000 F1600
G1 X74.370 Y58.747 Z0.000 F1600
G1 X74.658 Y58.453 Z0.000 F1600
G1 X74.884 Y58.085 Z0.000 F1600
G1 X74.928 Y57.946 Z0.000 F1600
; --- FIX Y Backlash: 0.800mm ---
G0 X74.928 Y58.746 F600
G1 X75.055 Y58.826 Z0.000 F1600
G1 X75.489 Y58.986 Z0.000 F1600
G1 X75.934 Y59.078 Z0.000 F1600
G1 X76.398 Y59.104 Z0.000 F1600
G1 X76.877 Y59.057 Z0.000 F1600
; --- FIX Y Backlash: -0.800mm ---
G0 X76.877 Y58.257 F600
G1 X77.364 Y58.114 Z0.000 F1600
G1 X77.804 Y57.860 Z0.000 F1600
G1 X78.041 Y57.643 Z0.000 F1600
G1 X78.227 Y57.407 Z0.000 F1600
G1 X78.375 Y57.135 Z0.000 F1600
G1 X78.558 Y56.596 Z0.000 F1600
; --- FIX X Backlash: -0.600mm ---
G0 X77.958 Y56.596 F600
G1 X77.511 Y55.448 Z0.000 F1600
G1 X77.181 Y54.514 Z0.000 F1600
; --- FIX X Backlash: 0.600mm ---
G0 X77.781 Y54.514 F600
G1 X78.092 Y54.433 Z0.000 F1600
G1 X78.431 Y54.289 Z0.000 F1600
G1 X78.769 Y54.072 Z0.000 F1600
G1 X78.988 Y53.844 Z0.000 F1600
G1 X79.271 Y53.771 Z0.000 F1600
G1 X79.627 Y53.593 Z0.000 F1600
G1 X79.822 Y53.600 Z0.000 F1600
G1 X80.190 Y53.560 Z0.000 F1600
G1 X80.569 Y53.453 Z0.000 F1600
G1 X80.951 Y53.251 Z0.000 F1600
G1 X81.298 Y52.921 Z0.000 F1600
G1 X81.536 Y52.463 Z0.000 F1600
G1 X81.558 Y52.306 Z0.000 F1600
G1 X81.670 Y52.158 Z0.000 F1600
G1 X81.877 Y51.679 Z0.000 F1600
G1 X81.931 Y51.331 Z0.000 F1600
G1 X81.912 Y50.987 Z0.000 F1600
; --- FIX X Backlash: -0.600mm ---
G0 X81.312 Y50.987 F600
G1 X81.209 Y50.640 Z0.000 F1600
G1 X81.162 Y50.558 Z0.000 F1600
G1 X81.143 Y50.420 Z0.000 F1600
; --- FIX X Backlash: 0.600mm ---
G0 X81.743 Y50.420 F600
G1 X82.166 Y50.118 Z0.000 F1600
G1 X82.443 Y49.698 Z0.000 F1600
G1 X82.565 Y49.268 Z0.000 F1600
G1 X82.585 Y48.869 Z0.000 F1600
G1 X82.538 Y48.498 Z0.000 F1600
; --- FIX X Backlash: -0.600mm ---
G0 X81.938 Y48.498 F600
G1 X81.838 Y48.154 Z0.000 F1600
G1 X81.692 Y47.830 Z0.000 F1600
G1 X81.428 Y47.434 Z0.000 F1600
G1 X80.953 Y47.152 Z0.000 F1600
G1 X80.531 Y47.055 Z0.000 F1600
G1 X80.194 Y47.050 Z0.000 F1600
G1 X79.797 Y47.079 Z0.000 F1600
G1 X79.790 Y47.079 Z0.000 F1600
G1 X79.655 Y46.986 Z0.000 F1600
G1 X79.234 Y46.851 Z0.000 F1600
G1 X79.027 Y46.840 Z0.000 F1600
; --- FIX X Backlash: 0.600mm ---
G0 X79.627 Y46.840 F600
G1 X79.712 Y46.696 Z0.000 F1600
G1 X79.865 Y46.320 Z0.000 F1600
G1 X79.943 Y46.304 Z0.000 F1600
G1 X80.211 Y46.189 Z0.000 F1600
G1 X80.442 Y46.063 Z0.000 F1600
; --- FIX Y Backlash: 0.800mm ---
G0 X80.442 Y46.863 F600
G1 X80.922 Y46.988 Z0.000 F1600
G1 X81.546 Y47.076 Z0.000 F1600
G1 X82.153 Y47.111 Z0.000 F1600
G1 X82.676 Y47.111 Z0.000 F1600
G1 X83.218 Y47.165 Z0.000 F1600
G1 X83.832 Y47.258 Z0.000 F1600
G1 X84.196 Y47.293 Z0.000 F1600
G1 X84.592 Y47.298 Z0.000 F1600
G1 X85.020 Y47.251 Z0.000 F1600
; --- FIX Y Backlash: -0.800mm ---
G0 X85.020 Y46.451 F600
G1 X85.288 Y46.380 Z0.000 F1600
G1 X85.842 Y46.367 Z0.000 F1600
; --- FIX Y Backlash: 0.800mm ---
G0 X85.842 Y47.167 F600
G1 X86.455 Y47.226 Z0.000 F1600
G1 X86.712 Y47.279 Z0.000 F1600
G1 X86.983 Y47.359 Z0.000 F1600
G1 X87.233 Y47.458 Z0.000 F1600
G1 X87.690 Y47.695 Z0.000 F1600
G0 Z3.5 F1000
G0 X90.497 Y49.249 Z3.500
G1 Z0 F1000
; --- FIX X Backlash: -0.600mm ---
G0 X89.897 Y49.249 F600
G1 X89.746 Y49.399 Z0.000 F1600
G1 X89.721 Y49.539 Z0.000 F1600
G1 X89.721 Y49.662 Z0.000 F1600
G1 X89.747 Y49.769 Z0.000 F1600
G1 X89.793 Y49.861 Z0.000 F1600
; --- FIX X Backlash: 0.600mm ---
G0 X90.393 Y49.861 F600
G1 X90.538 Y50.005 Z0.000 F1600
G1 X90.737 Y50.103 Z0.000 F1600
G1 X91.219 Y50.190 Z0.000 F1600
G1 X91.677 Y50.187 Z0.000 F1600
G1 X92.091 Y50.187 Z0.000 F1600
G1 X92.532 Y50.173 Z0.000 F1600
G1 X92.732 Y50.128 Z0.000 F1600
; --- FIX Y Backlash: -0.800mm ---
G0 X92.732 Y49.328 F600
G1 X92.903 Y49.241 Z0.000 F1600
G1 X93.033 Y49.099 Z0.000 F1600
G1 X93.108 Y48.890 Z0.000 F1600
G1 X93.250 Y48.743 Z0.000 F1600
G1 X93.385 Y48.647 Z0.000 F1600
G1 X93.514 Y48.596 Z0.000 F1600
G1 X93.638 Y48.585 Z0.000 F1600
; --- FIX Y Backlash: 0.800mm ---
G0 X93.638 Y49.385 F600
G1 X93.874 Y49.458 Z0.000 F1600
G1 X94.102 Y49.618 Z0.000 F1600
G1 X94.328 Y49.822 Z0.000 F1600
G1 X94.560 Y50.022 Z0.000 F1600
G1 X94.806 Y50.173 Z0.000 F1600
G1 X95.074 Y50.229 Z0.000 F1600
; --- FIX Y Backlash: -0.800mm ---
G0 X95.074 Y49.429 F600
G1 X95.424 Y49.366 Z0.000 F1600
G1 X95.796 Y49.307 Z0.000 F1600
G1 X95.972 Y49.262 Z0.000 F1600
G1 X96.132 Y49.198 Z0.000 F1600
G1 X96.267 Y49.107 Z0.000 F1600
G1 X96.372 Y48.982 Z0.000 F1600
; --- FIX X Backlash: -0.600mm ---
G0 X95.772 Y48.982 F600
G1 X95.431 Y48.728 Z0.000 F1600
G1 X95.049 Y48.499 Z0.000 F1600
G1 X94.674 Y48.251 Z0.000 F1600
G1 X94.355 Y47.939 Z0.000 F1600
G1 X94.167 Y47.864 Z0.000 F1600
G1 X93.981 Y47.825 Z0.000 F1600
G1 X93.796 Y47.817 Z0.000 F1600
G1 X93.614 Y47.835 Z0.000 F1600
; --- FIX Y Backlash: 0.800mm ---
G0 X93.614 Y48.635 F600
G1 X93.253 Y48.732 Z0.000 F1600
G1 X92.894 Y48.878 Z0.000 F1600
G1 X92.533 Y49.036 Z0.000 F1600
G1 X92.170 Y49.167 Z0.000 F1600
G1 X91.985 Y49.212 Z0.000 F1600
G1 X91.798 Y49.235 Z0.000 F1600
G1 X91.609 Y49.235 Z0.000 F1600
G1 X91.418 Y49.202 Z0.000 F1600
G1 X90.991 Y49.202 Z0.000 F1600
; --- FIX Y Backlash: -0.800mm ---
G0 X90.991 Y48.402 F600
G1 X90.522 Y48.347 Z0.000 F1600
G1 X90.294 Y48.339 Z0.000 F1600
G1 X90.082 Y48.367 Z0.000 F1600
; --- FIX Y Backlash: 0.800mm ---
G0 X90.082 Y49.167 F600
G1 X89.897 Y49.249 Z0.000 F1600
G0 Z3.5 F1000
G0 X79.969 Y53.172 Z3.500
G1 Z0 F1000
; --- FIX X Backlash: 0.600mm ---
G0 X80.569 Y53.172 F600
; --- FIX Y Backlash: -0.800mm ---
G0 X80.569 Y52.372 F600
G1 X80.666 Y52.185 Z0.000 F1600
G1 X80.699 Y51.950 Z0.000 F1600
G1 X80.887 Y51.701 Z0.000 F1600
G1 X81.005 Y51.428 Z0.000 F1600
G1 X81.027 Y51.286 Z0.000 F1600
G1 X81.019 Y51.142 Z0.000 F1600
G1 X80.976 Y50.997 Z0.000 F1600
; --- FIX X Backlash: -0.600mm ---
G0 X80.376 Y50.997 F600
G1 X80.294 Y50.854 Z0.000 F1600
G1 X80.242 Y50.471 Z0.000 F1600
G1 X80.235 Y50.051 Z0.000 F1600
G1 X80.279 Y49.866 Z0.000 F1600
; --- FIX X Backlash: 0.600mm ---
G0 X80.879 Y49.866 F600
G1 X80.970 Y49.720 Z0.000 F1600
G1 X81.119 Y49.627 Z0.000 F1600
G1 X81.339 Y49.603 Z0.000 F1600
G1 X81.507 Y49.483 Z0.000 F1600
G1 X81.616 Y49.318 Z0.000 F1600
G1 X81.672 Y49.121 Z0.000 F1600
G1 X81.683 Y48.905 Z0.000 F1600
G1 X81.654 Y48.681 Z0.000 F1600
; --- FIX X Backlash: -0.600mm ---
G0 X81.054 Y48.681 F600
G1 X80.991 Y48.465 Z0.000 F1600
G1 X80.902 Y48.268 Z0.000 F1600
G1 X80.793 Y48.103 Z0.000 F1600
G1 X80.614 Y47.997 Z0.000 F1600
G1 X80.422 Y47.953 Z0.000 F1600
G1 X80.220 Y47.950 Z0.000 F1600
G1 X79.811 Y47.981 Z0.000 F1600
G1 X79.612 Y47.972 Z0.000 F1600
G1 X79.425 Y47.920 Z0.000 F1600
G1 X79.254 Y47.803 Z0.000 F1600
G1 X79.069 Y47.743 Z0.000 F1600
G1 X78.851 Y47.731 Z0.000 F1600
G1 X78.396 Y47.755 Z0.000 F1600
G1 X78.199 Y47.743 Z0.000 F1600
G1 X78.050 Y47.685 Z0.000 F1600
G1 X78.001 Y47.630 Z0.000 F1600
G1 X77.970 Y47.555 Z0.000 F1600
G1 X77.962 Y47.456 Z0.000 F1600
G1 X77.978 Y47.331 Z0.000 F1600
G1 X77.951 Y47.132 Z0.000 F1600
G1 X77.974 Y46.950 Z0.000 F1600
; --- FIX X Backlash: 0.600mm ---
G0 X78.574 Y46.950 F600
G1 X78.632 Y46.779 Z0.000 F1600
G1 X78.715 Y46.616 Z0.000 F1600
G1 X78.903 Y46.296 Z0.000 F1600
G1 X79.041 Y45.957 Z0.000 F1600
G1 X79.019 Y45.709 Z0.000 F1600
G1 X79.006 Y45.504 Z0.000 F1600
G1 X79.029 Y45.435 Z0.000 F1600
G1 X79.087 Y45.400 Z0.000 F1600
G1 X79.191 Y45.404 Z0.000 F1600
; --- FIX Y Backlash: 0.800mm ---
G0 X79.191 Y46.204 F600
G1 X79.350 Y46.256 Z0.000 F1600
G1 X79.520 Y46.271 Z0.000 F1600
G1 X79.673 Y46.241 Z0.000 F1600
; --- FIX Y Backlash: -0.800mm ---
G0 X79.673 Y45.441 F600
G1 X79.817 Y45.379 Z0.000 F1600
G1 X80.097 Y45.226 Z0.000 F1600
G1 X80.244 Y45.169 Z0.000 F1600
G1 X80.403 Y45.144 Z0.000 F1600
G1 X80.581 Y45.169 Z0.000 F1600
; --- FIX Y Backlash: 0.800mm ---
G0 X80.581 Y45.969 F600
G1 X81.099 Y46.104 Z0.000 F1600
G1 X81.635 Y46.180 Z0.000 F1600
G1 X82.179 Y46.211 Z0.000 F1600
G1 X82.722 Y46.211 Z0.000 F1600
G1 X83.334 Y46.272 Z0.000 F1600
G1 X83.942 Y46.364 Z0.000 F1600
G1 X84.246 Y46.394 Z0.000 F1600
G1 X84.549 Y46.397 Z0.000 F1600
G1 X84.854 Y46.364 Z0.000 F1600
; --- FIX Y Backlash: -0.800mm ---
G0 X84.854 Y45.564 F600
G1 X85.160 Y45.483 Z0.000 F1600
G1 X85.874 Y45.465 Z0.000 F1600
; --- FIX Y Backlash: 0.800mm ---
G0 X85.874 Y46.265 F600
G1 X86.587 Y46.334 Z0.000 F1600
G1 X86.936 Y46.407 Z0.000 F1600
G1 X87.277 Y46.507 Z0.000 F1600
G1 X87.606 Y46.638 Z0.000 F1600
G1 X87.922 Y46.802 Z0.000 F1600
G1 X88.684 Y46.824 Z0.000 F1600
G1 X89.455 Y46.811 Z0.000 F1600
G1 X89.838 Y46.781 Z0.000 F1600
; --- FIX Y Backlash: -0.800mm ---
G0 X89.838 Y45.981 F600
G1 X90.217 Y45.930 Z0.000 F1600
G1 X90.589 Y45.855 Z0.000 F1600
G1 X90.953 Y45.752 Z0.000 F1600
G1 X91.083 Y45.573 Z0.000 F1600
G1 X91.254 Y45.471 Z0.000 F1600
G1 X91.455 Y45.427 Z0.000 F1600
G1 X91.676 Y45.422 Z0.000 F1600
G1 X92.142 Y45.459 Z0.000 F1600
G1 X92.574 Y45.432 Z0.000 F1600
G1 X92.838 Y45.372 Z0.000 F1600
G1 X93.087 Y45.263 Z0.000 F1600
G1 X93.328 Y45.127 Z0.000 F1600
G1 X93.566 Y44.984 Z0.000 F1600
G1 X93.808 Y44.856 Z0.000 F1600
G1 X94.059 Y44.764 Z0.000 F1600
G1 X94.326 Y44.732 Z0.000 F1600
G1 X94.614 Y44.779 Z0.000 F1600
; --- FIX Y Backlash: 0.800mm ---
G0 X94.614 Y45.579 F600
G1 X95.118 Y46.017 Z0.000 F1600
G1 X95.591 Y46.492 Z0.000 F1600
G1 X95.838 Y46.714 Z0.000 F1600
G1 X96.104 Y46.910 Z0.000 F1600
G1 X96.397 Y47.068 Z0.000 F1600
G1 X96.728 Y47.175 Z0.000 F1600
G1 X96.948 Y47.360 Z0.000 F1600
G1 X97.082 Y47.588 Z0.000 F1600
G1 X97.148 Y47.850 Z0.000 F1600
G1 X97.165 Y48.133 Z0.000 F1600
G1 X97.119 Y48.723 Z0.000 F1600
G1 X97.088 Y49.270 Z0.000 F1600
; --- FIX X Backlash: -0.600mm ---
G0 X96.488 Y49.270 F600
G1 X96.417 Y49.610 Z0.000 F1600
G1 X96.340 Y49.943 Z0.000 F1600
G1 X96.323 Y50.110 Z0.000 F1600
G1 X96.332 Y50.277 Z0.000 F1600
G1 X96.376 Y50.446 Z0.000 F1600
; --- FIX X Backlash: 0.600mm ---
G0 X96.976 Y50.446 F600
G1 X97.062 Y50.617 Z0.000 F1600
G1 X97.128 Y51.427 Z0.000 F1600
G1 X97.159 Y52.239 Z0.000 F1600
G1 X97.165 Y53.053 Z0.000 F1600
G1 X97.155 Y53.868 Z0.000 F1600
G1 X97.126 Y55.499 Z0.000 F1600
G1 X97.152 Y57.126 Z0.000 F1600
G1 X97.149 Y58.504 Z0.000 F1600
G1 X97.155 Y59.885 Z0.000 F1600
G1 X97.135 Y61.263 Z0.000 F1600
; --- FIX X Backlash: -0.600mm ---
G0 X96.535 Y61.263 F600
G1 X96.454 Y62.632 Z0.000 F1600
G1 X96.250 Y62.741 Z0.000 F1600
G1 X96.092 Y62.891 Z0.000 F1600
G1 X95.973 Y63.074 Z0.000 F1600
G1 X95.886 Y63.281 Z0.000 F1600
G1 X95.773 Y63.351 Z0.000 F1600
G1 X95.666 Y63.390 Z0.000 F1600
G1 X95.564 Y63.400 Z0.000 F1600
G1 X95.468 Y63.386 Z0.000 F1600
; --- FIX Y Backlash: -0.800mm ---
G0 X95.468 Y62.586 F600
G1 X95.289 Y62.497 Z0.000 F1600
G1 X95.126 Y62.349 Z0.000 F1600
G1 X94.832 Y61.988 Z0.000 F1600
G1 X94.557 Y61.718 Z0.000 F1600
; --- FIX Y Backlash: 0.800mm ---
G0 X94.557 Y62.518 F600
G1 X94.384 Y62.719 Z0.000 F1600
G1 X94.240 Y62.972 Z0.000 F1600
G1 X93.972 Y63.543 Z0.000 F1600
G1 X93.817 Y63.816 Z0.000 F1600
G1 X93.625 Y64.048 Z0.000 F1600
G1 X93.511 Y64.142 Z0.000 F1600
G1 X93.381 Y64.217 Z0.000 F1600
G1 X93.235 Y64.271 Z0.000 F1600
G1 X93.070 Y64.300 Z0.000 F1600
G1 X92.452 Y64.371 Z0.000 F1600
G1 X91.814 Y64.357 Z0.000 F1600
; --- FIX Y Backlash: -0.800mm ---
G0 X91.814 Y63.557 F600
G1 X91.521 Y63.483 Z0.000 F1600
G1 X91.261 Y63.346 Z0.000 F1600
G1 X91.149 Y63.249 Z0.000 F1600
G1 X91.050 Y63.131 Z0.000 F1600
G1 X90.966 Y62.991 Z0.000 F1600
G1 X90.900 Y62.825 Z0.000 F1600
G1 X90.680 Y62.380 Z0.000 F1600
G1 X90.429 Y61.889 Z0.000 F1600
G1 X90.353 Y61.645 Z0.000 F1600
G1 X90.345 Y61.411 Z0.000 F1600
G1 X90.374 Y61.301 Z0.000 F1600
; --- FIX X Backlash: 0.600mm ---
G0 X90.974 Y61.301 F600
G1 X91.029 Y61.195 Z0.000 F1600
G1 X91.113 Y61.096 Z0.000 F1600
G1 X91.330 Y60.928 Z0.000 F1600
G1 X91.390 Y60.855 Z0.000 F1600
G1 X91.416 Y60.785 Z0.000 F1600
G1 X91.413 Y60.718 Z0.000 F1600
; --- FIX X Backlash: -0.600mm ---
G0 X90.813 Y60.718 F600
G1 X90.739 Y60.588 Z0.000 F1600
G1 X90.609 Y60.457 Z0.000 F1600
G1 X90.464 Y60.319 Z0.000 F1600
G1 X90.343 Y60.168 Z0.000 F1600
G1 X90.306 Y60.085 Z0.000 F1600
G1 X90.289 Y59.996 Z0.000 F1600
G1 X90.299 Y59.901 Z0.000 F1600
G1 X90.341 Y59.798 Z0.000 F1600
G1 X90.373 Y59.678 Z0.000 F1600
G1 X90.368 Y59.563 Z0.000 F1600
G1 X90.333 Y59.462 Z0.000 F1600
G1 X90.273 Y59.383 Z0.000 F1600
G1 X90.195 Y59.335 Z0.000 F1600
G1 X90.104 Y59.325 Z0.000 F1600
G1 X90.006 Y59.363 Z0.000 F1600
; --- FIX Y Backlash: 0.800mm ---
G0 X90.006 Y60.163 F600
G1 X89.907 Y60.257 Z0.000 F1600
G1 X89.641 Y60.500 Z0.000 F1600
G1 X89.349 Y60.700 Z0.000 F1600
G1 X89.192 Y60.771 Z0.000 F1600
G1 X89.027 Y60.814 Z0.000 F1600
G1 X88.854 Y60.827 Z0.000 F1600
G1 X88.671 Y60.803 Z0.000 F1600
G1 X88.608 Y60.884 Z0.000 F1600
G1 X88.576 Y60.962 Z0.000 F1600
G1 X88.572 Y61.041 Z0.000 F1600
G1 X88.591 Y61.118 Z0.000 F1600
; --- FIX X Backlash: 0.600mm ---
G0 X89.191 Y61.118 F600
G1 X89.280 Y61.271 Z0.000 F1600
G1 X89.543 Y61.587 Z0.000 F1600
G1 X89.647 Y61.755 Z0.000 F1600
G1 X89.677 Y61.844 Z0.000 F1600
G1 X89.686 Y61.936 Z0.000 F1600
G1 X89.669 Y62.031 Z0.000 F1600
G1 X89.624 Y62.130 Z0.000 F1600
; --- FIX X Backlash: -0.600mm ---
G0 X89.024 Y62.130 F600
G1 X88.878 Y62.361 Z0.000 F1600
G1 X88.775 Y62.606 Z0.000 F1600
G1 X88.713 Y62.862 Z0.000 F1600
G1 X88.687 Y63.124 Z0.000 F1600
G1 X88.696 Y63.388 Z0.000 F1600
G1 X88.738 Y63.651 Z0.000 F1600
; --- FIX X Backlash: 0.600mm ---
G0 X89.338 Y63.651 F600
G1 X89.411 Y63.908 Z0.000 F1600
G1 X89.510 Y64.155 Z0.000 F1600
; --- FIX X Backlash: -0.600mm ---
G0 X88.910 Y64.155 F600
G1 X88.851 Y64.418 Z0.000 F1600
G1 X88.736 Y64.685 Z0.000 F1600
G1 X88.577 Y64.945 Z0.000 F1600
G1 X88.380 Y65.189 Z0.000 F1600
G1 X88.155 Y65.407 Z0.000 F1600
G1 X87.912 Y65.590 Z0.000 F1600
G1 X87.659 Y65.729 Z0.000 F1600
G1 X87.405 Y65.812 Z0.000 F1600
; --- FIX Y Backlash: -0.800mm ---
G0 X87.405 Y65.012 F600
G1 X87.058 Y64.809 Z0.000 F1600
G1 X86.719 Y64.580 Z0.000 F1600
G1 X86.377 Y64.352 Z0.000 F1600
G1 X86.020 Y64.156 Z0.000 F1600
G1 X85.841 Y63.810 Z0.000 F1600
G1 X85.612 Y63.504 Z0.000 F1600
G1 X85.334 Y63.240 Z0.000 F1600
G1 X85.005 Y63.024 Z0.000 F1600
G1 X84.921 Y62.897 Z0.000 F1600
G1 X84.871 Y62.762 Z0.000 F1600
G1 X84.852 Y62.621 Z0.000 F1600
G1 X84.861 Y62.482 Z0.000 F1600
G1 X84.899 Y62.346 Z0.000 F1600
; --- FIX X Backlash: 0.600mm ---
G0 X85.499 Y62.346 F600
G1 X85.561 Y62.221 Z0.000 F1600
G1 X85.646 Y62.108 Z0.000 F1600
G1 X85.751 Y62.014 Z0.000 F1600
G1 X85.733 Y61.722 Z0.000 F1600
; --- FIX X Backlash: -0.600mm ---
G0 X85.133 Y61.722 F600
G1 X85.068 Y61.440 Z0.000 F1600
G1 X84.973 Y61.163 Z0.000 F1600
G1 X84.868 Y60.889 Z0.000 F1600
G1 X84.772 Y60.613 Z0.000 F1600
G1 X84.702 Y60.332 Z0.000 F1600
G1 X84.680 Y60.041 Z0.000 F1600
G1 X84.722 Y59.738 Z0.000 F1600
G1 X84.688 Y59.607 Z0.000 F1600
G1 X84.629 Y59.506 Z0.000 F1600
G1 X84.547 Y59.430 Z0.000 F1600
G1 X84.445 Y59.378 Z0.000 F1600
G1 X84.194 Y59.330 Z0.000 F1600
G1 X83.899 Y59.336 Z0.000 F1600
; --- FIX Y Backlash: 0.800mm ---
G0 X83.899 Y60.136 F600
G1 X83.261 Y60.204 Z0.000 F1600
G1 X82.966 Y60.214 Z0.000 F1600
G1 X82.715 Y60.175 Z0.000 F1600
G1 X82.568 Y60.192 Z0.000 F1600
G1 X82.432 Y60.240 Z0.000 F1600
G1 X82.305 Y60.314 Z0.000 F1600
G1 X82.186 Y60.409 Z0.000 F1600
G1 X81.961 Y60.644 Z0.000 F1600
G1 X81.744 Y60.906 Z0.000 F1600
G1 X81.521 Y61.157 Z0.000 F1600
G1 X81.278 Y61.360 Z0.000 F1600
G1 X81.145 Y61.431 Z0.000 F1600
G1 X81.001 Y61.476 Z0.000 F1600
G1 X80.846 Y61.489 Z0.000 F1600
G1 X80.676 Y61.467 Z0.000 F1600
G1 X80.564 Y61.422 Z0.000 F1600
G1 X80.460 Y61.403 Z0.000 F1600
G1 X80.363 Y61.409 Z0.000 F1600
G1 X80.273 Y61.436 Z0.000 F1600
G1 X80.112 Y61.543 Z0.000 F1600
G1 X79.972 Y61.705 Z0.000 F1600
G1 X79.736 Y62.104 Z0.000 F1600
G1 X79.529 Y62.464 Z0.000 F1600
G1 X79.242 Y63.070 Z0.000 F1600
G1 X79.149 Y63.185 Z0.000 F1600
G1 X79.033 Y63.248 Z0.000 F1600
G1 X78.888 Y63.241 Z0.000 F1600
; --- FIX Y Backlash: -0.800mm ---
G0 X78.888 Y62.441 F600
G1 X78.705 Y62.346 Z0.000 F1600
G1 X78.419 Y62.146 Z0.000 F1600
G1 X78.108 Y62.020 Z0.000 F1600
G1 X77.782 Y61.948 Z0.000 F1600
G1 X77.444 Y61.909 Z0.000 F1600
G1 X77.103 Y61.886 Z0.000 F1600
G1 X76.764 Y61.858 Z0.000 F1600
G1 X76.433 Y61.805 Z0.000 F1600
G1 X76.117 Y61.710 Z0.000 F1600
G1 X75.863 Y61.501 Z0.000 F1600
G1 X75.631 Y61.271 Z0.000 F1600
G1 X75.421 Y61.023 Z0.000 F1600
G1 X75.233 Y60.759 Z0.000 F1600
G1 X74.919 Y60.190 Z0.000 F1600
G1 X74.687 Y59.580 Z0.000 F1600
G1 X74.543 Y59.537 Z0.000 F1600
G1 X74.405 Y59.559 Z0.000 F1600
; --- FIX Y Backlash: 0.800mm ---
G0 X74.405 Y60.359 F600
G1 X74.273 Y60.429 Z0.000 F1600
G1 X74.141 Y60.525 Z0.000 F1600
G1 X74.008 Y60.630 Z0.000 F1600
G1 X73.871 Y60.724 Z0.000 F1600
G1 X73.727 Y60.788 Z0.000 F1600
G1 X73.571 Y60.803 Z0.000 F1600
G1 X73.385 Y60.875 Z0.000 F1600
G1 X73.189 Y60.928 Z0.000 F1600
G1 X72.989 Y60.957 Z0.000 F1600
G1 X72.796 Y60.952 Z0.000 F1600
G1 X72.618 Y60.907 Z0.000 F1600
; --- FIX Y Backlash: -0.800mm ---
G0 X72.618 Y60.107 F600
G1 X72.463 Y60.015 Z0.000 F1600
G1 X72.339 Y59.867 Z0.000 F1600
G1 X72.256 Y59.657 Z0.000 F1600
G1 X72.145 Y59.453 Z0.000 F1600
G1 X71.975 Y59.306 Z0.000 F1600
G1 X71.778 Y59.201 Z0.000 F1600
G1 X71.583 Y59.127 Z0.000 F1600
G1 X71.549 Y58.943 Z0.000 F1600
G1 X71.567 Y58.784 Z0.000 F1600
; --- FIX X Backlash: 0.600mm ---
G0 X72.167 Y58.784 F600
G1 X72.229 Y58.650 Z0.000 F1600
G1 X72.328 Y58.541 Z0.000 F1600
G1 X72.455 Y58.459 Z0.000 F1600
G1 X72.603 Y58.403 Z0.000 F1600
G1 X72.764 Y58.373 Z0.000 F1600
G1 X72.931 Y58.370 Z0.000 F1600
G1 X73.167 Y58.338 Z0.000 F1600
G1 X73.394 Y58.274 Z0.000 F1600
G1 X73.604 Y58.179 Z0.000 F1600
G1 X73.790 Y58.053 Z0.000 F1600
G1 X73.944 Y57.895 Z0.000 F1600
G1 X74.060 Y57.707 Z0.000 F1600
G1 X74.129 Y57.489 Z0.000 F1600
G1 X74.145 Y57.239 Z0.000 F1600
G1 X74.179 Y57.116 Z0.000 F1600
G1 X74.228 Y57.017 Z0.000 F1600
G1 X74.288 Y56.942 Z0.000 F1600
G1 X74.358 Y56.888 Z0.000 F1600
G1 X74.524 Y56.838 Z0.000 F1600
G1 X74.713 Y56.849 Z0.000 F1600
; --- FIX Y Backlash: 0.800mm ---
G0 X74.713 Y57.649 F600
G1 X75.111 Y57.798 Z0.000 F1600
G1 X75.455 Y58.014 Z0.000 F1600
G1 X75.737 Y58.118 Z0.000 F1600
G1 X76.052 Y58.183 Z0.000 F1600
G1 X76.380 Y58.202 Z0.000 F1600
G1 X76.705 Y58.170 Z0.000 F1600
; --- FIX Y Backlash: -0.800mm ---
G0 X76.705 Y57.370 F600
G1 X77.007 Y57.281 Z0.000 F1600
G1 X77.269 Y57.130 Z0.000 F1600
G1 X77.379 Y57.029 Z0.000 F1600
G1 X77.473 Y56.910 Z0.000 F1600
G1 X77.547 Y56.773 Z0.000 F1600
G1 X77.600 Y56.617 Z0.000 F1600
; --- FIX X Backlash: -0.600mm ---
G0 X77.000 Y56.617 F600
G1 X76.668 Y55.762 Z0.000 F1600
G1 X76.361 Y54.895 Z0.000 F1600
G1 X76.150 Y54.611 Z0.000 F1600
G1 X75.981 Y54.263 Z0.000 F1600
G1 X75.953 Y54.097 Z0.000 F1600
G1 X75.987 Y53.955 Z0.000 F1600
G1 X76.032 Y53.897 Z0.000 F1600
; --- FIX X Backlash: 0.600mm ---
G0 X76.632 Y53.897 F600
G1 X76.698 Y53.849 Z0.000 F1600
G1 X76.789 Y53.815 Z0.000 F1600
G1 X76.904 Y53.794 Z0.000 F1600
G1 X77.350 Y53.697 Z0.000 F1600
G1 X77.801 Y53.579 Z0.000 F1600
G1 X78.009 Y53.491 Z0.000 F1600
G1 X78.193 Y53.372 Z0.000 F1600
G1 X78.345 Y53.214 Z0.000 F1600
G1 X78.458 Y53.008 Z0.000 F1600
G1 X78.711 Y52.986 Z0.000 F1600
G1 X78.954 Y52.924 Z0.000 F1600
G1 X79.171 Y52.814 Z0.000 F1600
G1 X79.350 Y52.650 Z0.000 F1600
G1 X79.564 Y52.689 Z0.000 F1600
G1 X79.791 Y52.698 Z0.000 F1600
G1 X80.018 Y52.674 Z0.000 F1600
G1 X80.232 Y52.613 Z0.000 F1600
G1 X80.420 Y52.513 Z0.000 F1600
G1 X80.569 Y52.372 Z0.000 F1600
G0 Z3.5 F1000
; --- FIX X Backlash: -0.600mm ---
G0 X79.969 Y52.372 F600
; --- FIX Y Backlash: 0.800mm ---
G0 X79.969 Y53.172 F600
G0 X50.749 Y54.566 Z3.500
G1 Z0 F1000
; --- FIX X Backlash: 0.600mm ---
G0 X51.349 Y54.566 F600
G1 X51.704 Y54.833 Z0.000 F1600
G1 X52.030 Y55.407 Z0.000 F1600
G1 X52.381 Y55.798 Z0.000 F1600
; --- FIX X Backlash: -0.600mm ---
G0 X51.781 Y55.798 F600
; --- FIX Y Backlash: -0.800mm ---
G0 X51.781 Y54.998 F600
G1 X51.024 Y54.879 Z0.000 F1600
G1 X50.527 Y53.480 Z0.000 F1600
; --- FIX X Backlash: 0.600mm ---
G0 X51.127 Y53.480 F600
; --- FIX Y Backlash: 0.800mm ---
G0 X51.127 Y54.280 F600
G1 X51.349 Y54.566 Z0.000 F1600
G0 Z3.5 F1000
; --- FIX X Backlash: -0.600mm ---
G0 X50.749 Y54.566 F600
; --- FIX Y Backlash: -0.800mm ---
G0 X50.749 Y53.766 F600
G0 X49.612 Y52.062 Z3.500
G1 Z0 F1000
G1 X48.821 Y51.287 Z0.000 F1600
G1 X48.615 Y51.191 Z0.000 F1600
G1 X48.490 Y50.925 Z0.000 F1600
G1 X48.190 Y49.996 Z0.000 F1600
; --- FIX X Backlash: 0.600mm ---
G0 X48.790 Y49.996 F600
G1 X49.140 Y49.996 Z0.000 F1600
; --- FIX Y Backlash: 0.800mm ---
G0 X49.140 Y50.796 F600
G1 X49.833 Y50.856 Z0.000 F1600
; --- FIX X Backlash: -0.600mm ---
G0 X49.233 Y50.856 F600
G1 X49.170 Y51.241 Z0.000 F1600
; --- FIX X Backlash: 0.600mm ---
G0 X49.770 Y51.241 F600
G1 X50.212 Y52.862 Z0.000 F1600
G0 Z3.5 F1000
G0 X50.708 Y55.790 Z3.500
G1 Z0 F1000
; --- FIX X Backlash: -0.600mm ---
G0 X50.108 Y55.790 F600
; --- FIX Y Backlash: -0.800mm ---
G0 X50.108 Y54.990 F600
G1 X49.464 Y53.178 Z0.000 F1600
G1 X48.301 Y52.037 Z0.000 F1600
G1 X47.963 Y51.880 Z0.000 F1600
G1 X47.813 Y51.600 Z0.000 F1600
G1 X47.651 Y51.257 Z0.000 F1600
G1 X47.202 Y49.866 Z0.000 F1600
G1 X46.721 Y49.443 Z0.000 F1600
; --- FIX X Backlash: 0.600mm ---
G0 X47.321 Y49.443 F600
G1 X47.747 Y49.397 Z0.000 F1600
G1 X47.884 Y49.214 Z0.000 F1600
G1 X48.012 Y49.206 Z0.000 F1600
G1 X48.537 Y49.108 Z0.000 F1600
G1 X48.663 Y49.096 Z0.000 F1600
G1 X49.179 Y49.096 Z0.000 F1600
; --- FIX Y Backlash: 0.800mm ---
G0 X49.179 Y49.896 F600
G1 X49.920 Y49.960 Z0.000 F1600
G1 X50.522 Y49.995 Z0.000 F1600
G1 X50.752 Y49.992 Z0.000 F1600
G1 X50.806 Y50.482 Z0.000 F1600
; --- FIX X Backlash: -0.600mm ---
G0 X50.206 Y50.482 F600
G1 X50.089 Y51.192 Z0.000 F1600
; --- FIX X Backlash: 0.600mm ---
G0 X50.689 Y51.192 F600
G1 X51.135 Y52.825 Z0.000 F1600
G1 X51.986 Y53.920 Z0.000 F1600
G1 X52.394 Y54.227 Z0.000 F1600
G1 X52.764 Y54.878 Z0.000 F1600
G1 X53.520 Y55.718 Z0.000 F1600
G1 X53.737 Y55.871 Z0.000 F1600
G1 X53.693 Y55.899 Z0.000 F1600
; --- FIX X Backlash: -0.600mm ---
G0 X53.093 Y55.899 F600
G1 X52.524 Y56.329 Z0.000 F1600
G1 X52.168 Y56.789 Z0.000 F1600
G1 X52.114 Y56.762 Z0.000 F1600
; --- FIX Y Backlash: -0.800mm ---
G0 X52.114 Y55.962 F600
G1 X50.780 Y55.752 Z0.000 F1600
; --- FIX Y Backlash: 0.800mm ---
G0 X50.780 Y56.552 F600
G1 X49.985 Y56.665 Z0.000 F1600
; --- FIX X Backlash: 0.600mm ---
G0 X50.585 Y56.665 F600
; --- FIX Y Backlash: -0.800mm ---
G0 X50.585 Y55.865 F600
G1 X50.708 Y54.990 Z0.000 F1600
G0 Z3.5 F1000
; --- FIX X Backlash: -0.600mm ---
G0 X50.108 Y54.990 F600
G0 X29.129 Y53.689 Z3.500
G1 Z0 F1000
; --- FIX Y Backlash: 0.800mm ---
G0 X29.129 Y54.489 F600
G1 X29.058 Y54.801 Z0.000 F1600
; --- FIX X Backlash: 0.600mm ---
G0 X29.658 Y54.801 F600
G1 X29.831 Y55.703 Z0.000 F1600
; --- FIX X Backlash: -0.600mm ---
G0 X29.231 Y55.703 F600
G1 X28.931 Y56.034 Z0.000 F1600
G1 X28.647 Y56.552 Z0.000 F1600
G1 X28.467 Y56.863 Z0.000 F1600
; --- FIX Y Backlash: -0.800mm ---
G0 X28.467 Y56.063 F600
G1 X28.467 Y54.807 Z0.000 F1600
G1 X28.475 Y54.202 Z0.000 F1600
; --- FIX X Backlash: 0.600mm ---
G0 X29.075 Y54.202 F600
G1 X29.438 Y53.871 Z0.000 F1600
G1 X29.729 Y53.689 Z0.000 F1600
G0 Z3.5 F1000
G0 X30.909 Y52.575 Z3.500
G1 Z0 F1000
; --- FIX X Backlash: -0.600mm ---
G0 X30.309 Y52.575 F600
; --- FIX Y Backlash: 0.800mm ---
G0 X30.309 Y53.375 F600
G1 X29.978 Y54.817 Z0.000 F1600
; --- FIX X Backlash: 0.600mm ---
G0 X30.578 Y54.817 F600
G1 X30.771 Y55.825 Z0.000 F1600
G1 X30.824 Y55.952 Z0.000 F1600
G1 X30.815 Y55.958 Z0.000 F1600
; --- FIX X Backlash: -0.600mm ---
G0 X30.215 Y55.958 F600
G1 X29.669 Y56.560 Z0.000 F1600
G1 X29.429 Y56.998 Z0.000 F1600
G1 X29.233 Y57.337 Z0.000 F1600
G1 X29.021 Y57.975 Z0.000 F1600
G1 X28.943 Y58.609 Z0.000 F1600
G1 X28.982 Y59.243 Z0.000 F1600
; --- FIX X Backlash: 0.600mm ---
G0 X29.582 Y59.243 F600
G1 X29.668 Y59.569 Z0.000 F1600
; --- FIX X Backlash: -0.600mm ---
G0 X29.068 Y59.569 F600
G1 X27.627 Y59.645 Z0.000 F1600
; --- FIX Y Backlash: -0.800mm ---
G0 X27.627 Y58.845 F600
G1 X27.630 Y58.553 Z0.000 F1600
G1 X27.586 Y57.942 Z0.000 F1600
G1 X27.568 Y56.425 Z0.000 F1600
G1 X27.568 Y54.788 Z0.000 F1600
G1 X27.582 Y53.696 Z0.000 F1600
; --- FIX X Backlash: 0.600mm ---
G0 X28.182 Y53.696 F600
G1 X28.408 Y53.593 Z0.000 F1600
G1 X28.948 Y53.100 Z0.000 F1600
G1 X29.021 Y53.071 Z0.000 F1600
G1 X29.728 Y52.631 Z0.000 F1600
G1 X30.558 Y51.619 Z0.000 F1600
G1 X30.686 Y50.838 Z0.000 F1600
; --- FIX Y Backlash: 0.800mm ---
G0 X30.686 Y51.638 F600
G1 X32.151 Y52.014 Z0.000 F1600
; --- FIX Y Backlash: -0.800mm ---
G0 X32.151 Y51.214 F600
G1 X32.431 Y50.986 Z0.000 F1600
; --- FIX X Backlash: -0.600mm ---
G0 X31.831 Y50.986 F600
; --- FIX Y Backlash: 0.800mm ---
G0 X31.831 Y51.786 F600
G1 X30.309 Y53.375 Z0.000 F1600
G0 Z3.5 F1000
; --- FIX X Backlash: 0.600mm ---
G0 X30.909 Y53.375 F600
; --- FIX Y Backlash: -0.800mm ---
G0 X30.909 Y52.575 F600
G0 X38.997 Y49.446 Z3.500
G1 Z0 F1000
G1 X39.152 Y49.460 Z0.000 F1600
; --- FIX Y Backlash: 0.800mm ---
G0 X39.152 Y50.260 F600
G1 X39.107 Y50.319 Z0.000 F1600
; --- FIX X Backlash: -0.600mm ---
G0 X38.507 Y50.319 F600
; --- FIX Y Backlash: -0.800mm ---
G0 X38.507 Y49.519 F600
G1 X38.397 Y49.446 Z0.000 F1600
G0 Z3.5 F1000
G0 X37.337 Y48.851 Z3.500
G1 Z0 F1000
; --- FIX X Backlash: 0.600mm ---
G0 X37.937 Y48.851 F600
G1 X38.598 Y48.482 Z0.000 F1600
; --- FIX Y Backlash: 0.800mm ---
G0 X38.598 Y49.282 F600
G1 X38.919 Y49.335 Z0.000 F1600
G1 X39.803 Y49.415 Z0.000 F1600
G1 X40.721 Y49.420 Z0.000 F1600
; --- FIX Y Backlash: -0.800mm ---
G0 X40.721 Y48.620 F600
G1 X41.344 Y48.561 Z0.000 F1600
G1 X42.229 Y48.592 Z0.000 F1600
; --- FIX Y Backlash: 0.800mm ---
G0 X42.229 Y49.392 F600
G1 X43.318 Y49.488 Z0.000 F1600
G1 X43.959 Y49.535 Z0.000 F1600
G1 X44.660 Y49.561 Z0.000 F1600
G1 X45.420 Y49.542 Z0.000 F1600
; --- FIX Y Backlash: -0.800mm ---
G0 X45.420 Y48.742 F600
G1 X47.261 Y48.544 Z0.000 F1600
G1 X47.415 Y48.340 Z0.000 F1600
G1 X47.901 Y48.311 Z0.000 F1600
G1 X48.418 Y48.215 Z0.000 F1600
G1 X48.620 Y48.197 Z0.000 F1600
G1 X49.217 Y48.197 Z0.000 F1600
; --- FIX Y Backlash: 0.800mm ---
G0 X49.217 Y48.997 F600
G1 X49.986 Y49.063 Z0.000 F1600
G1 X50.542 Y49.094 Z0.000 F1600
G1 X51.207 Y49.087 Z0.000 F1600
G1 X51.458 Y49.056 Z0.000 F1600
G1 X51.530 Y49.090 Z0.000 F1600
G1 X51.678 Y49.267 Z0.000 F1600
G1 X51.652 Y49.423 Z0.000 F1600
G1 X51.662 Y49.549 Z0.000 F1600
G1 X51.629 Y49.734 Z0.000 F1600
G1 X51.713 Y50.502 Z0.000 F1600
G1 X51.713 Y50.505 Z0.000 F1600
; --- FIX X Backlash: -0.600mm ---
G0 X51.113 Y50.505 F600
G1 X51.009 Y51.145 Z0.000 F1600
; --- FIX X Backlash: 0.600mm ---
G0 X51.609 Y51.145 F600
G1 X51.956 Y52.415 Z0.000 F1600
G1 X52.624 Y53.273 Z0.000 F1600
G1 X53.084 Y53.621 Z0.000 F1600
G1 X53.499 Y54.349 Z0.000 F1600
G1 X54.121 Y55.041 Z0.000 F1600
G1 X54.934 Y55.611 Z0.000 F1600
G1 X55.302 Y55.744 Z0.000 F1600
G1 X55.302 Y56.024 Z0.000 F1600
; --- FIX X Backlash: -0.600mm ---
G0 X54.702 Y56.024 F600
G1 X54.181 Y56.256 Z0.000 F1600
G1 X53.614 Y56.634 Z0.000 F1600
G1 X53.162 Y56.975 Z0.000 F1600
G1 X52.630 Y57.663 Z0.000 F1600
G1 X52.511 Y57.975 Z0.000 F1600
; --- FIX Y Backlash: -0.800mm ---
G0 X52.511 Y57.175 F600
G1 X51.833 Y56.828 Z0.000 F1600
G1 X50.774 Y56.662 Z0.000 F1600
; --- FIX Y Backlash: 0.800mm ---
G0 X50.774 Y57.462 F600
G1 X49.964 Y57.576 Z0.000 F1600
G1 X49.315 Y57.819 Z0.000 F1600
G1 X49.297 Y57.809 Z0.000 F1600
G1 X48.895 Y57.870 Z0.000 F1600
; --- FIX X Backlash: 0.600mm ---
G0 X49.495 Y57.870 F600
; --- FIX Y Backlash: -0.800mm ---
G0 X49.495 Y57.070 F600
G1 X49.573 Y56.596 Z0.000 F1600
G1 X49.786 Y55.083 Z0.000 F1600
; --- FIX X Backlash: -0.600mm ---
G0 X49.186 Y55.083 F600
G1 X48.685 Y53.675 Z0.000 F1600
G1 X47.782 Y52.788 Z0.000 F1600
G1 X47.311 Y52.569 Z0.000 F1600
G1 X47.010 Y52.008 Z0.000 F1600
G1 X46.813 Y51.588 Z0.000 F1600
G1 X46.422 Y50.379 Z0.000 F1600
G1 X45.301 Y49.394 Z0.000 F1600
G1 X44.306 Y48.971 Z0.000 F1600
G1 X43.429 Y48.843 Z0.000 F1600
G1 X42.709 Y48.863 Z0.000 F1600
; --- FIX Y Backlash: 0.800mm ---
G0 X42.709 Y49.663 F600
G1 X41.904 Y49.788 Z0.000 F1600
G1 X41.383 Y49.859 Z0.000 F1600
G1 X41.056 Y49.892 Z0.000 F1600
G1 X40.463 Y50.057 Z0.000 F1600
G1 X39.861 Y50.348 Z0.000 F1600
G1 X39.255 Y50.821 Z0.000 F1600
G1 X38.713 Y51.536 Z0.000 F1600
G1 X38.567 Y51.947 Z0.000 F1600
; --- FIX Y Backlash: -0.800mm ---
G0 X38.567 Y51.147 F600
G1 X37.878 Y50.182 Z0.000 F1600
G1 X36.959 Y49.578 Z0.000 F1600
G1 X36.093 Y49.317 Z0.000 F1600
G1 X35.308 Y49.259 Z0.000 F1600
; --- FIX Y Backlash: 0.800mm ---
G0 X35.308 Y50.059 F600
G1 X34.553 Y50.151 Z0.000 F1600
G1 X33.780 Y50.409 Z0.000 F1600
G1 X32.623 Y51.143 Z0.000 F1600
; --- FIX X Backlash: 0.600mm ---
G0 X33.223 Y51.143 F600
; --- FIX Y Backlash: -0.800mm ---
G0 X33.223 Y50.343 F600
G1 X33.568 Y50.063 Z0.000 F1600
G1 X34.094 Y49.340 Z0.000 F1600
G1 X34.102 Y49.315 Z0.000 F1600
G1 X34.335 Y49.328 Z0.000 F1600
G1 X34.722 Y49.280 Z0.000 F1600
G1 X35.235 Y49.245 Z0.000 F1600
G1 X35.940 Y49.245 Z0.000 F1600
G1 X36.504 Y49.207 Z0.000 F1600
G1 X37.171 Y49.097 Z0.000 F1600
G1 X37.937 Y48.851 Z0.000 F1600
G0 Z3.5 F1000
G0 X40.682 Y47.720 Z3.500
G1 Z0 F1000
G1 X41.316 Y47.660 Z0.000 F1600
G1 X42.284 Y47.694 Z0.000 F1600
; --- FIX Y Backlash: 0.800mm ---
G0 X42.284 Y48.494 F600
G1 X43.391 Y48.591 Z0.000 F1600
G1 X44.008 Y48.637 Z0.000 F1600
G1 X44.666 Y48.660 Z0.000 F1600
G1 X45.361 Y48.644 Z0.000 F1600
; --- FIX Y Backlash: -0.800mm ---
G0 X45.361 Y47.844 F600
G1 X46.776 Y47.691 Z0.000 F1600
G1 X46.990 Y47.407 Z0.000 F1600
G1 X47.265 Y47.448 Z0.000 F1600
G1 X47.792 Y47.416 Z0.000 F1600
G1 X48.290 Y47.323 Z0.000 F1600
G1 X48.588 Y47.296 Z0.000 F1600
G1 X49.256 Y47.296 Z0.000 F1600
; --- FIX Y Backlash: 0.800mm ---
G0 X49.256 Y48.096 F600
G1 X50.051 Y48.165 Z0.000 F1600
G1 X50.563 Y48.194 Z0.000 F1600
G1 X51.146 Y48.188 Z0.000 F1600
; --- FIX Y Backlash: -0.800mm ---
G0 X51.146 Y47.388 F600
G1 X51.676 Y47.322 Z0.000 F1600
; --- FIX Y Backlash: 0.800mm ---
G0 X51.676 Y48.122 F600
G1 X51.803 Y48.222 Z0.000 F1600
G1 X52.183 Y48.405 Z0.000 F1600
G1 X52.271 Y48.573 Z0.000 F1600
G1 X52.628 Y48.997 Z0.000 F1600
G1 X52.636 Y49.003 Z0.000 F1600
; --- FIX X Backlash: -0.600mm ---
G0 X52.036 Y49.003 F600
G1 X51.958 Y49.461 Z0.000 F1600
G1 X51.969 Y49.594 Z0.000 F1600
G1 X51.938 Y49.766 Z0.000 F1600
; --- FIX X Backlash: 0.600mm ---
G0 X52.538 Y49.766 F600
G1 X52.599 Y50.325 Z0.000 F1600
G1 X52.635 Y50.448 Z0.000 F1600
; --- FIX X Backlash: -0.600mm ---
G0 X52.035 Y50.448 F600
G1 X51.929 Y51.097 Z0.000 F1600
; --- FIX X Backlash: 0.600mm ---
G0 X52.529 Y51.097 F600
G1 X52.776 Y52.004 Z0.000 F1600
G1 X53.260 Y52.626 Z0.000 F1600
G1 X53.742 Y52.989 Z0.000 F1600
G1 X53.825 Y53.031 Z0.000 F1600
G1 X53.874 Y53.188 Z0.000 F1600
G1 X54.232 Y53.819 Z0.000 F1600
G1 X54.721 Y54.363 Z0.000 F1600
G1 X55.352 Y54.805 Z0.000 F1600
G1 X56.071 Y55.063 Z0.000 F1600
G1 X56.317 Y55.092 Z0.000 F1600
; --- FIX X Backlash: -0.600mm ---
G0 X55.717 Y55.092 F600
G1 X55.604 Y55.551 Z0.000 F1600
G1 X55.600 Y56.200 Z0.000 F1600
; --- FIX X Backlash: 0.600mm ---
G0 X56.200 Y56.200 F600
G1 X56.335 Y56.645 Z0.000 F1600
; --- FIX X Backlash: -0.600mm ---
G0 X55.735 Y56.645 F600
G1 X55.326 Y56.730 Z0.000 F1600
G1 X54.618 Y57.047 Z0.000 F1600
G1 X54.134 Y57.369 Z0.000 F1600
G1 X53.800 Y57.621 Z0.000 F1600
G1 X53.424 Y58.108 Z0.000 F1600
G1 X53.256 Y58.548 Z0.000 F1600
G1 X53.191 Y58.601 Z0.000 F1600
G1 X52.834 Y59.036 Z0.000 F1600
G1 X52.724 Y59.268 Z0.000 F1600
; --- FIX Y Backlash: -0.800mm ---
G0 X52.724 Y58.468 F600
G1 X52.226 Y58.040 Z0.000 F1600
G1 X51.551 Y57.695 Z0.000 F1600
G1 X50.766 Y57.572 Z0.000 F1600
; --- FIX Y Backlash: 0.800mm ---
G0 X50.766 Y58.372 F600
G1 X50.188 Y58.454 Z0.000 F1600
G1 X49.699 Y58.637 Z0.000 F1600
G1 X49.331 Y58.879 Z0.000 F1600
; --- FIX Y Backlash: -0.800mm ---
G0 X49.331 Y58.079 F600
G1 X49.112 Y57.948 Z0.000 F1600
; --- FIX Y Backlash: 0.800mm ---
