G90 ; Force absolute mode
;LightBurn 1.6.04
;Custom GCode device profile, absolute coords
;Bounds: X13.34 Y10.05 to X56.66 Y53.95
G00 G17 G40 G21 G54
M3
G1 Z10 F600
;Offset @ 555 mm/min, 90% power

M8
G0 Z3.5 F600
G0 X47.021 Y26.494 Z3.5
G1 Z0 F600
;Layer C1
G1 X47.004 Y26.508 Z0 F600
G1 X46.984 Y26.521 Z0 F600
; --- FIX Y Backlash ---
G0 X46.984 Y26.021 F410
G1 X47.032 Y25.941 Z0 F600
G1 X47.072 Y25.855 Z0 F600
; --- FIX X Backlash ---
G0 X46.372 Y25.855 F410
; --- FIX Y Backlash ---
G0 X46.372 Y26.355 F410
G1 X46.321 Y26.494 Z0 F600
G0 Z3.5 F600
G0 X44.079 Y30.217 Z3.5 F600
G1 Z0 F600
G1 X43.977 Z0 F600
G1 X43.935 Y30.212 Z0 F600
G1 X43.939 Y30.209 Z0 F600
G1 X43.971 Y30.206 Z0 F600
; --- FIX X Backlash ---
G0 X44.671 Y30.206 F410
G1 X44.761 Z0 F600
G1 X44.779 Y30.217 Z0 F600
G0 Z3.5 F600
; --- FIX Y Backlash ---
G0 X44.779 Y29.717 F410
G0 X51.807 Y29.234 Z3.5
G1 Z0 F600
; --- FIX Y Backlash ---
G0 X51.807 Y29.734 F410
G1 Y33 Z0 F600
; --- FIX X Backlash ---
G0 X51.107 Y33 F410
; --- FIX Y Backlash ---
G0 X51.107 Y32.5 F410
G1 X50.463 Y31.557 Z0 F600
; --- FIX X Backlash ---
G0 X51.163 Y31.557 F410
G1 X51.308 Y30.961 Z0 F600
G1 X51.425 Y30.161 Z0 F600
G1 X51.475 Y29.278 Z0 F600
G1 X51.436 Y28.718 Z0 F600
G1 X51.809 Y28.081 Z0 F600
; --- FIX Y Backlash ---
G0 X51.809 Y28.581 F410
G1 Y29.734 Z0 F600
G0 Z3.5 F600
; --- FIX Y Backlash ---
G0 X51.809 Y29.234 F410
G0 X51.819 Y14.641 Z3.5
G1 Z0 F600
; --- FIX X Backlash ---
G0 X51.119 Y14.641 F410
G1 X51.002 Y14.352 Z0 F600
; --- FIX X Backlash ---
G0 X51.702 Y14.352 F410
G1 X51.819 Z0 F600
; --- FIX Y Backlash ---
G0 X51.819 Y14.852 F410
G1 Y15.141 Z0 F600
G0 Z3.5 F600
G0 X51.851 Y17.013 Z3.5
G1 Z0 F600
; --- FIX X Backlash ---
G0 X51.151 Y17.013 F410
; --- FIX Y Backlash ---
G0 X51.151 Y16.513 F410
G1 X50.784 Y15.406 Z0 F600
G1 X50.431 Y14.543 Z0 F600
G1 X50.387 Y14.441 Z0 F600
G1 X50.335 Y14.043 Z0 F600
G1 X50.229 Y13.753 Z0 F600
; --- FIX X Backlash ---
G0 X50.929 Y13.753 F410
G1 X52.419 Z0 F600
; --- FIX Y Backlash ---
G0 X52.419 Y14.253 F410
G1 Y20.204 Z0 F600
G1 X52.407 Y29.735 Z0 F600
G1 Y35.797 Z0 F600
; --- FIX X Backlash ---
G0 X51.707 Y35.797 F410
; --- FIX Y Backlash ---
G0 X51.707 Y35.297 F410
G1 X51.426 Y35.206 Z0 F600
G1 X51.372 Y34.648 Z0 F600
G1 X51.1 Y33.815 Z0 F600
G1 X50.611 Y32.835 Z0 F600
G1 X49.949 Y31.868 Z0 F600
G1 X49.797 Y31.708 Z0 F600
G1 X49.839 Y31.585 Z0 F600
; --- FIX X Backlash ---
G0 X50.539 Y31.585 F410
G1 X50.718 Y30.846 Z0 F600
G1 X50.828 Y30.101 Z0 F600
G1 X50.874 Y29.282 Z0 F600
G1 X50.826 Y28.593 Z0 F600
G1 X50.817 Y28.555 Z0 F600
G1 X50.864 Y28.507 Z0 F600
G1 X51.439 Y27.524 Z0 F600
G1 X51.734 Y26.573 Z0 F600
G1 X51.829 Y25.746 Z0 F600
G1 X51.795 Y24.962 Z0 F600
; --- FIX X Backlash ---
G0 X51.095 Y24.962 F410
G1 X51.011 Y24.579 Z0 F600
G1 X50.975 Y24.205 Z0 F600
G1 X50.862 Y23.407 Z0 F600
G1 X50.719 Y22.638 Z0 F600
G1 X50.569 Y21.964 Z0 F600
; --- FIX X Backlash ---
G0 X51.269 Y21.964 F410
G1 X51.363 Y21.819 Z0 F600
G1 X51.758 Y21.069 Z0 F600
G1 X52.072 Y20.111 Z0 F600
G1 X52.193 Y19.368 Z0 F600
G1 X52.223 Y18.65 Z0 F600
; --- FIX X Backlash ---
G0 X51.523 Y18.65 F410
G1 X51.448 Y17.872 Z0 F600
G1 X51.346 Y17.459 Z0 F600
G1 X51.151 Y16.513 Z0 F600
G0 Z3.5 F600
G0 X49.749 Y14.188 Z3.5
G1 Z0 F600
G1 X49.438 Y13.337 Z0 F600
G1 X49.319 Y13.153 Z0 F600
; --- FIX X Backlash ---
G0 X50.019 Y13.153 F410
G1 X53.02 Z0 F600
; --- FIX Y Backlash ---
G0 X53.02 Y13.653 F410
G1 Y20.205 Z0 F600
G1 X53.007 Y29.735 Z0 F600
G1 Y36.664 Z0 F600
; --- FIX X Backlash ---
G0 X52.307 Y36.664 F410
; --- FIX Y Backlash ---
G0 X52.307 Y36.164 F410
G1 X51.878 Y35.982 Z0 F600
G1 X51.227 Y35.772 Z0 F600
G1 X50.864 Y35.688 Z0 F600
G1 X50.868 Y35.654 Z0 F600
G1 X50.781 Y34.772 Z0 F600
G1 X50.543 Y34.044 Z0 F600
G1 X50.092 Y33.14 Z0 F600
G1 X49.481 Y32.247 Z0 F600
G1 X49.111 Y31.858 Z0 F600
; --- FIX X Backlash ---
G0 X49.811 Y31.858 F410
G1 X49.962 Y31.417 Z0 F600
G1 X50.129 Y30.731 Z0 F600
G1 X50.23 Y30.04 Z0 F600
G1 X50.272 Y29.286 Z0 F600
G1 X50.23 Y28.684 Z0 F600
; --- FIX X Backlash ---
G0 X49.53 Y28.684 F410
G1 X49.455 Y28.372 Z0 F600
; --- FIX X Backlash ---
G0 X50.155 Y28.372 F410
G1 X50.384 Y28.139 Z0 F600
G1 X50.887 Y27.28 Z0 F600
G1 X51.145 Y26.449 Z0 F600
G1 X51.228 Y25.725 Z0 F600
G1 X51.198 Y25.04 Z0 F600
; --- FIX X Backlash ---
G0 X50.498 Y25.04 F410
G1 X50.418 Y24.673 Z0 F600
G1 X50.38 Y24.276 Z0 F600
G1 X50.269 Y23.504 Z0 F600
G1 X50.132 Y22.758 Z0 F600
G1 X49.934 Y21.87 Z0 F600
G1 X49.926 Y21.85 Z0 F600
; --- FIX X Backlash ---
G0 X50.626 Y21.85 F410
G1 X50.846 Y21.515 Z0 F600
G1 X51.204 Y20.834 Z0 F600
G1 X51.488 Y19.968 Z0 F600
G1 X51.595 Y19.307 Z0 F600
G1 X51.622 Y18.667 Z0 F600
; --- FIX X Backlash ---
G0 X50.922 Y18.667 F410
G1 X50.855 Y17.974 Z0 F600
G1 X50.762 Y17.598 Z0 F600
G1 X50.57 Y16.669 Z0 F600
G1 X50.221 Y15.614 Z0 F600
G1 X49.878 Y14.775 Z0 F600
G1 X49.803 Y14.599 Z0 F600
G1 X49.749 Y14.188 Z0 F600
G0 Z3.5 F600
G0 X48.897 Y13.606 Z3.5
G1 Z0 F600
G1 X48.461 Y12.93 Z0 F600
G1 X48.082 Y12.553 Z0 F600
; --- FIX X Backlash ---
G0 X48.782 Y12.553 F410
G1 X53.62 Z0 F600
; --- FIX Y Backlash ---
G0 X53.62 Y13.053 F410
G1 Y20.206 Z0 F600
G1 X53.607 Y29.735 Z0 F600
G1 X53.61 Y37.652 Z0 F600
; --- FIX X Backlash ---
G0 X52.91 Y37.652 F410
G1 X52.843 Y37.607 Z0 F600
; --- FIX Y Backlash ---
G0 X52.843 Y37.107 F410
G1 X52.262 Y36.795 Z0 F600
G1 X51.669 Y36.545 Z0 F600
G1 X51.067 Y36.351 Z0 F600
G1 X50.458 Y36.21 Z0 F600
G1 X50.203 Y36.174 Z0 F600
; --- FIX X Backlash ---
G0 X50.903 Y36.174 F410
G1 X50.964 Y35.648 Z0 F600
; --- FIX X Backlash ---
G0 X50.264 Y35.648 F410
G1 X50.191 Y34.896 Z0 F600
G1 X49.987 Y34.272 Z0 F600
G1 X49.574 Y33.445 Z0 F600
G1 X49.013 Y32.625 Z0 F600
G1 X48.503 Y32.091 Z0 F600
G1 X48.406 Y32.015 Z0 F600
; --- FIX X Backlash ---
G0 X49.106 Y32.015 F410
G1 X49.173 Y31.868 Z0 F600
G1 X49.386 Y31.248 Z0 F600
G1 X49.539 Y30.617 Z0 F600
G1 X49.633 Y29.979 Z0 F600
G1 X49.671 Y29.29 Z0 F600
G1 X49.636 Y28.776 Z0 F600
; --- FIX X Backlash ---
G0 X48.936 Y28.776 F410
G1 X48.812 Y28.259 Z0 F600
G1 X48.787 Y28.196 Z0 F600
; --- FIX X Backlash ---
G0 X49.487 Y28.196 F410
G1 X49.904 Y27.772 Z0 F600
G1 X50.334 Y27.037 Z0 F600
G1 X50.555 Y26.325 Z0 F600
G1 X50.626 Y25.704 Z0 F600
G1 X50.601 Y25.118 Z0 F600
; --- FIX X Backlash ---
G0 X49.901 Y25.118 F410
G1 X49.824 Y24.768 Z0 F600
G1 X49.783 Y24.347 Z0 F600
G1 X49.677 Y23.601 Z0 F600
G1 X49.543 Y22.878 Z0 F600
G1 X49.356 Y22.038 Z0 F600
G1 X49.27 Y21.798 Z0 F600
; --- FIX X Backlash ---
G0 X49.97 Y21.798 F410
G1 X50.039 Y21.65 Z0 F600
G1 X50.087 Y21.58 Z0 F600
G1 X50.328 Y21.211 Z0 F600
G1 X50.649 Y20.599 Z0 F600
G1 X50.903 Y19.826 Z0 F600
G1 X50.998 Y19.246 Z0 F600
G1 X51.021 Y18.683 Z0 F600
; --- FIX X Backlash ---
G0 X50.321 Y18.683 F410
G1 X50.262 Y18.075 Z0 F600
G1 X50.178 Y17.734 Z0 F600
G1 X49.989 Y16.825 Z0 F600
G1 X49.658 Y15.822 Z0 F600
G1 X49.324 Y15.006 Z0 F600
G1 X49.219 Y14.76 Z0 F600
G1 X49.163 Y14.332 Z0 F600
G1 X48.897 Y13.606 Z0 F600
G0 Z3.5 F600
G0 X47.992 Y13.31 Z3.5
G1 Z0 F600
G1 X47.524 Y12.844 Z0 F600
G1 X46.938 Y12.487 Z0 F600
G1 X46.277 Y12.276 Z0 F600
G1 X45.691 Y12.236 Z0 F600
; --- FIX Y Backlash ---
G0 X45.691 Y12.736 F410
G1 X44.683 Y12.818 Z0 F600
G1 X43.924 Y12.908 Z0 F600
G1 X43.29 Y12.971 Z0 F600
G1 X42.808 Y12.979 Z0 F600
G1 X41.864 Y12.969 Z0 F600
G1 X41.085 Y12.955 Z0 F600
G1 X40.512 Y12.915 Z0 F600
; --- FIX Y Backlash ---
G0 X40.512 Y12.415 F410
G1 X40.192 Y12.209 Z0 F600
G1 X39.643 Y11.987 Z0 F600
G1 X39.45 Y11.954 Z0 F600
; --- FIX X Backlash ---
G0 X40.15 Y11.954 F410
G1 X46.193 Z0 F600
G1 X54.22 Y11.951 Z0 F600
; --- FIX Y Backlash ---
G0 X54.22 Y12.451 F410
G1 Y20.206 Z0 F600
G1 X54.207 Y29.735 Z0 F600
G1 X54.21 Y38.848 Z0 F600
; --- FIX X Backlash ---
G0 X53.51 Y38.848 F410
; --- FIX Y Backlash ---
G0 X53.51 Y38.348 F410
G1 X53.045 Y37.963 Z0 F600
G1 X52.534 Y37.622 Z0 F600
G1 X52.004 Y37.337 Z0 F600
G1 X51.46 Y37.108 Z0 F600
G1 X50.907 Y36.93 Z0 F600
G1 X50.347 Y36.8 Z0 F600
G1 X49.787 Y36.72 Z0 F600
G1 X49.437 Y36.698 Z0 F600
G1 X49.444 Y36.68 Z0 F600
; --- FIX X Backlash ---
G0 X50.144 Y36.68 F410
G1 X50.288 Y36.267 Z0 F600
G1 X50.361 Y35.643 Z0 F600
; --- FIX X Backlash ---
G0 X49.661 Y35.643 F410
G1 X49.6 Y35.02 Z0 F600
G1 X49.43 Y34.5 Z0 F600
G1 X49.055 Y33.75 Z0 F600
G1 X48.546 Y33.004 Z0 F600
G1 X48.099 Y32.536 Z0 F600
G1 X47.665 Y32.195 Z0 F600
; --- FIX X Backlash ---
G0 X48.365 Y32.195 F410
G1 X48.615 Y31.646 Z0 F600
G1 X48.809 Y31.079 Z0 F600
G1 X48.95 Y30.502 Z0 F600
G1 X49.035 Y29.919 Z0 F600
G1 X49.07 Y29.294 Z0 F600
G1 X49.041 Y28.867 Z0 F600
; --- FIX X Backlash ---
G0 X48.341 Y28.867 F410
G1 X48.238 Y28.439 Z0 F600
G1 X48.07 Y28.008 Z0 F600
; --- FIX X Backlash ---
G0 X48.77 Y28.008 F410
G1 X48.926 Y27.91 Z0 F600
G1 X49.424 Y27.404 Z0 F600
G1 X49.781 Y26.793 Z0 F600
G1 X49.965 Y26.201 Z0 F600
G1 X50.024 Y25.682 Z0 F600
G1 X50.003 Y25.195 Z0 F600
; --- FIX X Backlash ---
G0 X49.303 Y25.195 F410
G1 X49.231 Y24.863 Z0 F600
G1 X49.188 Y24.418 Z0 F600
G1 X49.085 Y23.698 Z0 F600
G1 X48.955 Y22.998 Z0 F600
G1 X48.779 Y22.205 Z0 F600
G1 X48.622 Y21.769 Z0 F600
; --- FIX X Backlash ---
G0 X49.322 Y21.769 F410
G1 X49.477 Y21.435 Z0 F600
G1 X49.491 Y21.388 Z0 F600
G1 X49.588 Y21.247 Z0 F600
G1 X49.81 Y20.907 Z0 F600
G1 X50.095 Y20.364 Z0 F600
G1 X50.318 Y19.683 Z0 F600
G1 X50.399 Y19.185 Z0 F600
G1 X50.419 Y18.699 Z0 F600
G1 X50.369 Y18.176 Z0 F600
; --- FIX X Backlash ---
G0 X49.669 Y18.176 F410
G1 X49.592 Y17.864 Z0 F600
G1 X49.409 Y16.98 Z0 F600
G1 X49.094 Y16.03 Z0 F600
G1 X48.771 Y15.237 Z0 F600
G1 X48.635 Y14.919 Z0 F600
G1 X48.576 Y14.475 Z0 F600
G1 X48.357 Y13.875 Z0 F600
G1 X47.992 Y13.31 Z0 F600
G0 Z3.5 F600
G0 X45.493 Y11.354 Z3.5
G1 Z0 F600
; --- FIX X Backlash ---
G0 X46.193 Y11.354 F410
G1 X54.82 Y11.351 Z0 F600
; --- FIX Y Backlash ---
G0 X54.82 Y11.851 F410
G1 Y20.207 Z0 F600
G1 X54.807 Y29.736 Z0 F600
G1 X54.811 Y39.268 Z0 F600
G1 X54.815 Y40.493 Z0 F600
; --- FIX X Backlash ---
G0 X54.115 Y40.493 F410
; --- FIX Y Backlash ---
G0 X54.115 Y39.993 F410
G1 X53.97 Y39.794 Z0 F600
G1 X53.268 Y38.953 Z0 F600
G1 X53.115 Y38.799 Z0 F600
G1 X52.687 Y38.445 Z0 F600
G1 X52.225 Y38.137 Z0 F600
G1 X51.744 Y37.879 Z0 F600
G1 X51.25 Y37.671 Z0 F600
G1 X50.747 Y37.508 Z0 F600
G1 X50.237 Y37.391 Z0 F600
G1 X49.725 Y37.317 Z0 F600
G1 X49.118 Y37.279 Z0 F600
; --- FIX Y Backlash ---
G0 X49.118 Y37.779 F410
G1 X48.695 Y37.832 Z0 F600
; --- FIX Y Backlash ---
G0 X48.695 Y37.332 F410
G1 X48.702 Y37.134 Z0 F600
G1 X48.723 Y36.969 Z0 F600
G1 X48.753 Y36.819 Z0 F600
G1 X48.788 Y36.697 Z0 F600
; --- FIX X Backlash ---
G0 X49.488 Y36.697 F410
G1 X49.583 Y36.466 Z0 F600
G1 X49.7 Y36.131 Z0 F600
G1 X49.757 Y35.637 Z0 F600
G1 X49.709 Y35.144 Z0 F600
; --- FIX X Backlash ---
G0 X49.009 Y35.144 F410
G1 X48.874 Y34.729 Z0 F600
G1 X48.537 Y34.055 Z0 F600
G1 X48.078 Y33.384 Z0 F600
G1 X47.695 Y32.981 Z0 F600
G1 X47.252 Y32.634 Z0 F600
G1 X46.845 Y32.41 Z0 F600
; --- FIX X Backlash ---
G0 X47.545 Y32.41 F410
G1 X47.829 Y31.925 Z0 F600
G1 X48.057 Y31.423 Z0 F600
G1 X48.233 Y30.911 Z0 F600
G1 X48.36 Y30.387 Z0 F600
G1 X48.438 Y29.858 Z0 F600
G1 X48.469 Y29.298 Z0 F600
G1 X48.445 Y28.959 Z0 F600
; --- FIX X Backlash ---
G0 X47.745 Y28.959 F410
G1 X47.664 Y28.619 Z0 F600
G1 X47.419 Y27.991 Z0 F600
G1 X47.287 Y27.76 Z0 F600
; --- FIX X Backlash ---
G0 X47.987 Y27.76 F410
G1 X48.125 Y27.706 Z0 F600
G1 X48.547 Y27.44 Z0 F600
G1 X48.944 Y27.037 Z0 F600
G1 X49.229 Y26.55 Z0 F600
G1 X49.375 Y26.077 Z0 F600
G1 X49.423 Y25.661 Z0 F600
G1 X49.406 Y25.273 Z0 F600
; --- FIX X Backlash ---
G0 X48.706 Y25.273 F410
G1 X48.636 Y24.954 Z0 F600
G1 X48.592 Y24.489 Z0 F600
G1 X48.493 Y23.795 Z0 F600
G1 X48.367 Y23.118 Z0 F600
G1 X48.201 Y22.373 Z0 F600
G1 X48.059 Y21.976 Z0 F600
G1 X47.932 Y21.778 Z0 F600
; --- FIX X Backlash ---
G0 X48.632 Y21.778 F410
G1 X48.72 Y21.641 Z0 F600
G1 X48.915 Y21.221 Z0 F600
G1 X48.943 Y21.129 Z0 F600
G1 X48.962 Y21.099 Z0 F600
G1 X49.089 Y20.914 Z0 F600
G1 X49.292 Y20.603 Z0 F600
G1 X49.54 Y20.13 Z0 F600
G1 X49.733 Y19.541 Z0 F600
G1 X49.801 Y19.125 Z0 F600
G1 X49.818 Y18.715 Z0 F600
G1 X49.776 Y18.277 Z0 F600
; --- FIX X Backlash ---
G0 X49.076 Y18.277 F410
G1 X49.006 Y17.991 Z0 F600
G1 X48.829 Y17.136 Z0 F600
G1 X48.531 Y16.238 Z0 F600
G1 X48.217 Y15.468 Z0 F600
G1 X48.041 Y15.056 Z0 F600
G1 X48.038 Y14.98 Z0 F600
G1 X47.99 Y14.619 Z0 F600
G1 X47.817 Y14.144 Z0 F600
G1 X47.523 Y13.689 Z0 F600
G1 X47.151 Y13.319 Z0 F600
G1 X46.687 Y13.037 Z0 F600
G1 X46.164 Y12.87 Z0 F600
G1 X45.695 Y12.838 Z0 F600
; --- FIX Y Backlash ---
G0 X45.695 Y13.338 F410
G1 X44.743 Y13.416 Z0 F600
G1 X43.979 Y13.506 Z0 F600
G1 X43.329 Y13.57 Z0 F600
G1 X42.791 Y13.58 Z0 F600
G1 X41.871 Y13.569 Z0 F600
G1 X41.062 Y13.554 Z0 F600
G1 X40.363 Y13.505 Z0 F600
G1 X40.29 Y13.493 Z0 F600
G1 X40.259 Y13.466 Z0 F600
; --- FIX Y Backlash ---
G0 X40.259 Y12.966 F410
G1 X39.915 Y12.745 Z0 F600
G1 X39.478 Y12.568 Z0 F600
G1 X39.004 Y12.486 Z0 F600
G1 X38.609 Y12.495 Z0 F600
G1 X38.431 Y12.385 Z0 F600
G1 X38.409 Y12.372 Z0 F600
G1 X38.286 Y12.083 Z0 F600
G1 X37.934 Y11.621 Z0 F600
G1 X37.592 Y11.354 Z0 F600
; --- FIX X Backlash ---
G0 X38.292 Y11.354 F410
G1 X46.193 Z0 F600
G0 Z3.5 F600
; --- FIX X Backlash ---
G0 X45.493 Y11.354 F410
; --- FIX Y Backlash ---
G0 X45.493 Y11.854 F410
G0 X17.73 Y25.997 Z3.5
G1 Z0 F600
G1 X17.127 Y26.337 Z0 F600
G1 X16.848 Y26.487 Z0 F600
; --- FIX Y Backlash ---
G0 X16.848 Y25.987 F410
G1 Y24.807 Z0 F600
; --- FIX X Backlash ---
G0 X17.548 Y24.807 F410
; --- FIX Y Backlash ---
G0 X17.548 Y25.307 F410
G1 X17.78 Y25.53 Z0 F600
G1 X18.43 Y25.997 Z0 F600
G0 Z3.5 F600
G0 X18.746 Y26.508 Z3.5
G1 Z0 F600
; --- FIX X Backlash ---
G0 X18.046 Y26.508 F410
G1 X17.426 Y26.857 Z0 F600
G1 X16.982 Y27.096 Z0 F600
G1 X16.759 Y27.264 Z0 F600
; --- FIX Y Backlash ---
G0 X16.759 Y26.764 F410
G1 X16.249 Y26.599 Z0 F600
G1 X16.244 Y23.2 Z0 F600
; --- FIX X Backlash ---
G0 X16.944 Y23.2 F410
; --- FIX Y Backlash ---
G0 X16.944 Y23.7 F410
G1 X17.245 Y24.074 Z0 F600
G1 X17.576 Y24.505 Z0 F600
G1 X18.165 Y25.067 Z0 F600
G1 X18.769 Y25.502 Z0 F600
G1 X19.418 Y25.861 Z0 F600
G1 X19.617 Y25.936 Z0 F600
G1 X19.832 Y26.117 Z0 F600
; --- FIX X Backlash ---
G0 X19.132 Y26.117 F410
G1 X18.922 Y26.17 Z0 F600
G1 X18.046 Y26.508 Z0 F600
G0 Z3.5 F600
; --- FIX Y Backlash ---
G0 X18.046 Y26.008 F410
G0 X16.271 Y14.864 Z3.5
G1 Z0 F600
G1 X16.293 Y13.199 Z0 F600
; --- FIX X Backlash ---
G0 X16.993 Y13.199 F410
G1 X17.621 Y13.196 Z0 F600
; --- FIX X Backlash ---
G0 X16.921 Y13.196 F410
; --- FIX Y Backlash ---
G0 X16.921 Y13.696 F410
G1 X16.79 Y14.031 Z0 F600
G1 X16.651 Y14.302 Z0 F600
G1 X16.411 Y14.945 Z0 F600
G1 X16.375 Y15.097 Z0 F600
G1 X16.271 Y15.364 Z0 F600
G0 Z3.5 F600
G0 X15.655 Y16.608 Z3.5
G1 Z0 F600
; --- FIX Y Backlash ---
G0 X15.655 Y16.108 F410
G1 X15.7 Y12.601 Z0 F600
; --- FIX X Backlash ---
G0 X16.4 Y12.601 F410
G1 X18.5 Y12.593 Z0 F600
; --- FIX X Backlash ---
G0 X17.8 Y12.593 F410
; --- FIX Y Backlash ---
G0 X17.8 Y13.093 F410
G1 X17.339 Y14.276 Z0 F600
G1 X17.2 Y14.545 Z0 F600
G1 X16.986 Y15.12 Z0 F600
G1 X16.949 Y15.277 Z0 F600
G1 X16.732 Y15.834 Z0 F600
G1 X16.36 Y16.728 Z0 F600
G1 X16.138 Y17.371 Z0 F600
G1 X15.949 Y18.101 Z0 F600
G1 X15.824 Y18.932 Z0 F600
G1 X15.791 Y20.332 Z0 F600
; --- FIX X Backlash ---
G0 X16.491 Y20.332 F410
G1 X16.582 Y21.28 Z0 F600
G1 X16.748 Y21.959 Z0 F600
G1 X17.005 Y22.622 Z0 F600
G1 X17.383 Y23.289 Z0 F600
G1 X17.718 Y23.705 Z0 F600
G1 X18.024 Y24.103 Z0 F600
G1 X18.549 Y24.604 Z0 F600
G1 X19.09 Y24.994 Z0 F600
G1 X19.671 Y25.315 Z0 F600
G1 X19.979 Y25.432 Z0 F600
G1 X20.037 Y25.505 Z0 F600
G1 X20.566 Y25.95 Z0 F600
G1 X21.1 Y26.267 Z0 F600
G1 X21.519 Y26.436 Z0 F600
; --- FIX X Backlash ---
G0 X20.819 Y26.436 F410
G1 X20.571 Y26.449 Z0 F600
G1 X19.857 Y26.554 Z0 F600
G1 X19.103 Y26.743 Z0 F600
G1 X18.302 Y27.052 Z0 F600
G1 X17.722 Y27.379 Z0 F600
G1 X17.307 Y27.603 Z0 F600
G1 X16.873 Y27.931 Z0 F600
; --- FIX Y Backlash ---
G0 X16.873 Y27.431 F410
G1 X16.315 Y27.25 Z0 F600
; --- FIX Y Backlash ---
G0 X16.315 Y27.75 F410
G1 X15.696 Y29.356 Z0 F600
G1 X15.648 Y29.443 Z0 F600
; --- FIX Y Backlash ---
G0 X15.648 Y28.943 F410
G1 Y26.72 Z0 F600
G1 X15.641 Y21.417 Z0 F600
G1 X15.655 Y16.108 Z0 F600
G0 Z3.5 F600
G0 X15.478 Y12.001 Z3.5
G1 Z0 F600
; --- FIX X Backlash ---
G0 X16.178 Y12.001 F410
G1 X19.706 Y11.988 Z0 F600
; --- FIX X Backlash ---
G0 X19.006 Y11.988 F410
; --- FIX Y Backlash ---
G0 X19.006 Y12.488 F410
G1 X18.9 Y12.907 Z0 F600
G1 X18.866 Y13.202 Z0 F600
G1 X18.74 Y13.338 Z0 F600
; --- FIX Y Backlash ---
G0 X18.74 Y12.838 F410
G1 X18.39 Y12.731 Z0 F600
; --- FIX Y Backlash ---
G0 X18.39 Y13.231 F410
G1 X17.887 Y14.521 Z0 F600
G1 X17.75 Y14.788 Z0 F600
G1 X17.561 Y15.294 Z0 F600
G1 X17.523 Y15.456 Z0 F600
G1 X17.289 Y16.057 Z0 F600
G1 X16.921 Y16.941 Z0 F600
G1 X16.714 Y17.544 Z0 F600
G1 X16.537 Y18.222 Z0 F600
G1 X16.423 Y18.983 Z0 F600
G1 X16.392 Y20.31 Z0 F600
; --- FIX X Backlash ---
G0 X17.092 Y20.31 F410
G1 X17.175 Y21.179 Z0 F600
G1 X17.322 Y21.779 Z0 F600
G1 X17.548 Y22.364 Z0 F600
G1 X17.881 Y22.95 Z0 F600
G1 X18.191 Y23.337 Z0 F600
G1 X18.471 Y23.701 Z0 F600
G1 X18.933 Y24.142 Z0 F600
G1 X19.412 Y24.486 Z0 F600
G1 X19.924 Y24.77 Z0 F600
G1 X20.349 Y24.931 Z0 F600
G1 X20.47 Y25.086 Z0 F600
G1 X20.915 Y25.459 Z0 F600
G1 X21.367 Y25.728 Z0 F600
G1 X21.85 Y25.922 Z0 F600
G1 X22.329 Y26.033 Z0 F600
G1 X22.694 Y26.07 Z0 F600
G1 X22.671 Y26.145 Z0 F600
; --- FIX X Backlash ---
G0 X21.971 Y26.145 F410
G1 X21.905 Y26.318 Z0 F600
G1 X21.788 Y26.981 Z0 F600
G1 Y26.988 Z0 F600
G1 X21.617 Y26.993 Z0 F600
G1 X20.632 Y27.046 Z0 F600
G1 X19.974 Y27.144 Z0 F600
G1 X19.285 Y27.316 Z0 F600
G1 X18.559 Y27.596 Z0 F600
G1 X18.017 Y27.901 Z0 F600
G1 X17.632 Y28.109 Z0 F600
G1 X17.134 Y28.485 Z0 F600
G1 X17.015 Y28.607 Z0 F600
; --- FIX Y Backlash ---
G0 X17.015 Y28.107 F410
G1 X16.671 Y27.996 Z0 F600
; --- FIX Y Backlash ---
G0 X16.671 Y28.496 F410
G1 X16.241 Y29.611 Z0 F600
G1 X16.112 Y29.843 Z0 F600
G1 X15.912 Y30.319 Z0 F600
G1 X15.771 Y30.797 Z0 F600
G1 X15.758 Y30.864 Z0 F600
G1 X15.532 Y31.453 Z0 F600
G1 X15.345 Y32.052 Z0 F600
G1 X15.276 Y32.043 Z0 F600
G1 X15.204 Y32.539 Z0 F600
G1 X15.105 Y32.955 Z0 F600
G1 X15.046 Y33.284 Z0 F600
; --- FIX Y Backlash ---
G0 X15.046 Y32.784 F410
G1 Y32.041 Z0 F600
G1 X15.049 Y26.72 Z0 F600
G1 X15.041 Y21.415 Z0 F600
G1 X15.055 Y16.131 Z0 F600
; --- FIX X Backlash ---
G0 X15.755 Y16.131 F410
G1 X15.808 Y12.013 Z0 F600
G1 X16.178 Y12.001 Z0 F600
G0 Z3.5 F600
G0 X20.316 Y12.048 Z3.5
G1 Z0 F600
G1 X20.303 Y12.076 Z0 F600
; --- FIX X Backlash ---
G0 X19.603 Y12.076 F410
; --- FIX Y Backlash ---
G0 X19.603 Y12.576 F410
G1 X19.491 Y13.016 Z0 F600
G1 X19.443 Y13.437 Z0 F600
G1 Y13.458 Z0 F600
G1 X19.402 Y13.505 Z0 F600
G1 X19.094 Y13.839 Z0 F600
G1 X18.942 Y14.026 Z0 F600
; --- FIX Y Backlash ---
G0 X18.942 Y13.526 F410
G1 X18.747 Y13.467 Z0 F600
; --- FIX Y Backlash ---
G0 X18.747 Y13.967 F410
G1 X18.436 Y14.767 Z0 F600
G1 X18.3 Y15.031 Z0 F600
G1 X18.137 Y15.468 Z0 F600
G1 X18.098 Y15.634 Z0 F600
G1 X17.842 Y16.289 Z0 F600
G1 X17.482 Y17.154 Z0 F600
G1 X17.288 Y17.717 Z0 F600
G1 X17.126 Y18.342 Z0 F600
G1 X17.022 Y19.035 Z0 F600
G1 X16.992 Y20.288 Z0 F600
; --- FIX X Backlash ---
G0 X17.692 Y20.288 F410
G1 X17.769 Y21.079 Z0 F600
G1 X17.896 Y21.599 Z0 F600
G1 X18.092 Y22.106 Z0 F600
G1 X18.379 Y22.612 Z0 F600
G1 X18.665 Y22.967 Z0 F600
G1 X18.919 Y23.298 Z0 F600
G1 X19.317 Y23.679 Z0 F600
G1 X19.733 Y23.979 Z0 F600
G1 X20.177 Y24.224 Z0 F600
G1 X20.717 Y24.429 Z0 F600
G1 X20.904 Y24.667 Z0 F600
G1 X21.263 Y24.968 Z0 F600
G1 X21.633 Y25.188 Z0 F600
G1 X22.03 Y25.348 Z0 F600
G1 X22.427 Y25.44 Z0 F600
G1 X22.953 Y25.493 Z0 F600
G1 X23.279 Y25.479 Z0 F600
G1 X23.299 Y25.538 Z0 F600
G1 X23.329 Y25.734 Z0 F600
G1 X23.332 Y25.934 Z0 F600
G1 X23.309 Y26.109 Z0 F600
; --- FIX X Backlash ---
G0 X22.609 Y26.109 F410
G1 X22.54 Y26.336 Z0 F600
G1 X22.487 Y26.478 Z0 F600
G1 X22.389 Y27.028 Z0 F600
G1 X22.4 Y27.57 Z0 F600
G1 X21.642 Y27.592 Z0 F600
G1 X20.692 Y27.644 Z0 F600
G1 X20.091 Y27.733 Z0 F600
G1 X19.466 Y27.889 Z0 F600
G1 X18.816 Y28.14 Z0 F600
G1 X18.298 Y28.432 Z0 F600
G1 X17.957 Y28.615 Z0 F600
G1 X17.531 Y28.937 Z0 F600
G1 X17.183 Y29.292 Z0 F600
; --- FIX Y Backlash ---
G0 X17.183 Y28.792 F410
G1 X17.027 Y28.741 Z0 F600
; --- FIX Y Backlash ---
G0 X17.027 Y29.241 F410
G1 X16.785 Y29.867 Z0 F600
G1 X16.652 Y30.106 Z0 F600
G1 X16.478 Y30.52 Z0 F600
G1 X16.355 Y30.938 Z0 F600
G1 X16.338 Y31.028 Z0 F600
G1 X16.099 Y31.65 Z0 F600
G1 X15.816 Y32.56 Z0 F600
G1 X15.693 Y33.078 Z0 F600
G1 X15.598 Y33.601 Z0 F600
G1 X15.536 Y34.145 Z0 F600
G1 X15.518 Y34.539 Z0 F600
G1 X15.456 Y34.962 Z0 F600
G1 X15.314 Y35.519 Z0 F600
G1 X15.12 Y36.295 Z0 F600
G1 X14.967 Y37.301 Z0 F600
G1 X14.988 Y37.794 Z0 F600
; --- FIX X Backlash ---
G0 X15.688 Y37.794 F410
G1 X15.806 Y38.221 Z0 F600
G1 X15.992 Y38.652 Z0 F600
G1 X16.038 Y38.756 Z0 F600
G1 X16.051 Y39.269 Z0 F600
G1 X16.071 Y39.812 Z0 F600
G1 Y39.94 Z0 F600
; --- FIX X Backlash ---
G0 X15.371 Y39.94 F410
G1 X15.212 Y40.107 Z0 F600
G1 X15.19 Y40.115 Z0 F600
G1 X14.51 Y40.365 Z0 F600
G1 X14.448 Y40.394 Z0 F600
; --- FIX Y Backlash ---
G0 X14.448 Y39.894 F410
G1 Y37.232 Z0 F600
G1 X14.445 Y32.04 Z0 F600
G1 X14.449 Y26.72 Z0 F600
G1 X14.441 Y21.413 Z0 F600
G1 X14.455 Y16.123 Z0 F600
; --- FIX X Backlash ---
G0 X15.155 Y16.123 F410
G1 X15.215 Y11.423 Z0 F600
G1 X15.47 Z0 F600
G1 X16.175 Y11.401 Z0 F600
G1 X20.643 Y11.385 Z0 F600
; --- FIX Y Backlash ---
G0 X20.643 Y11.885 F410
G1 X20.594 Y11.948 Z0 F600
; --- FIX X Backlash ---
G0 X19.894 Y11.948 F410
G1 X19.7 Z0 F600
G1 X19.616 Y12.548 Z0 F600
G0 Z3.5 F600
G0 X19.548 Y14.231 Z3.5
G1 Z0 F600
G1 X19.209 Y14.652 Z0 F600
G1 X19.164 Y14.721 Z0 F600
G1 X19.104 Y14.703 Z0 F600
G1 X18.982 Y15.018 Z0 F600
G1 X18.85 Y15.274 Z0 F600
G1 X18.712 Y15.643 Z0 F600
G1 X18.673 Y15.811 Z0 F600
G1 X18.405 Y16.498 Z0 F600
G1 X18.044 Y17.367 Z0 F600
G1 X17.863 Y17.891 Z0 F600
G1 X17.715 Y18.462 Z0 F600
G1 X17.621 Y19.087 Z0 F600
G1 X17.593 Y20.267 Z0 F600
; --- FIX X Backlash ---
G0 X18.293 Y20.267 F410
G1 X18.362 Y20.979 Z0 F600
G1 X18.469 Y21.418 Z0 F600
G1 X18.636 Y21.848 Z0 F600
G1 X18.877 Y22.274 Z0 F600
G1 X19.125 Y22.582 Z0 F600
G1 X19.367 Y22.896 Z0 F600
G1 X19.702 Y23.217 Z0 F600
G1 X20.054 Y23.47 Z0 F600
G1 X20.43 Y23.678 Z0 F600
G1 X21.066 Y23.92 Z0 F600
G1 X21.084 Y23.924 Z0 F600
G1 X21.337 Y24.248 Z0 F600
G1 X21.611 Y24.478 Z0 F600
G1 X21.9 Y24.649 Z0 F600
G1 X22.211 Y24.774 Z0 F600
G1 X22.525 Y24.847 Z0 F600
G1 X22.971 Y24.892 Z0 F600
G1 X23.372 Y24.875 Z0 F600
G1 X23.677 Y24.834 Z0 F600
G1 X23.796 Y24.814 Z0 F600
G1 X23.832 Y25.052 Z0 F600
G1 X23.857 Y25.315 Z0 F600
G1 X23.884 Y25.395 Z0 F600
G1 X23.928 Y25.684 Z0 F600
G1 X23.933 Y25.97 Z0 F600
G1 X23.898 Y26.231 Z0 F600
; --- FIX X Backlash ---
G0 X23.198 Y26.231 F410
G1 X23.108 Y26.531 Z0 F600
G1 X23.067 Y26.639 Z0 F600
G1 X22.99 Y27.075 Z0 F600
G1 X22.998 Y27.511 Z0 F600
; --- FIX X Backlash ---
G0 X23.698 Y27.511 F410
G1 X23.784 Y27.925 Z0 F600
G1 X23.948 Y28.326 Z0 F600
; --- FIX X Backlash ---
G0 X23.248 Y28.326 F410
; --- FIX Y Backlash ---
G0 X23.248 Y27.826 F410
G1 X22.923 Y27.698 Z0 F600
G1 X22.541 Y27.666 Z0 F600
G1 X21.668 Y27.691 Z0 F600
; --- FIX Y Backlash ---
G0 X21.668 Y28.191 F410
G1 X20.752 Y28.242 Z0 F600
G1 X20.208 Y28.322 Z0 F600
G1 X19.648 Y28.462 Z0 F600
G1 X19.072 Y28.684 Z0 F600
G1 X18.582 Y28.96 Z0 F600
G1 X18.282 Y29.122 Z0 F600
G1 X17.929 Y29.389 Z0 F600
G1 X17.63 Y29.694 Z0 F600
G1 X17.407 Y29.994 Z0 F600
G1 X17.383 Y29.986 Z0 F600
G1 X17.33 Y30.122 Z0 F600
G1 X17.192 Y30.369 Z0 F600
G1 X17.045 Y30.722 Z0 F600
G1 X16.939 Y31.079 Z0 F600
G1 X16.917 Y31.195 Z0 F600
G1 X16.666 Y31.847 Z0 F600
G1 X16.394 Y32.719 Z0 F600
G1 X16.28 Y33.2 Z0 F600
G1 X16.192 Y33.688 Z0 F600
G1 X16.134 Y34.192 Z0 F600
G1 X16.116 Y34.596 Z0 F600
G1 X16.046 Y35.076 Z0 F600
G1 X15.896 Y35.666 Z0 F600
G1 X15.709 Y36.414 Z0 F600
G1 X15.568 Y37.333 Z0 F600
G1 X15.584 Y37.701 Z0 F600
; --- FIX X Backlash ---
G0 X16.284 Y37.701 F410
G1 X16.373 Y38.021 Z0 F600
G1 X16.542 Y38.412 Z0 F600
G1 X16.632 Y38.619 Z0 F600
G1 Y38.625 Z0 F600
G1 X16.651 Y39.25 Z0 F600
G1 X16.671 Y39.809 Z0 F600
G1 X16.676 Y40.178 Z0 F600
; --- FIX X Backlash ---
G0 X15.976 Y40.178 F410
G1 X15.61 Y40.559 Z0 F600
G1 X15.576 Y40.614 Z0 F600
G1 X15.394 Y40.679 Z0 F600
G1 X14.738 Y40.921 Z0 F600
G1 X14.015 Y41.249 Z0 F600
G1 X13.848 Y41.352 Z0 F600
; --- FIX Y Backlash ---
G0 X13.848 Y40.852 F410
G1 X13.851 Y37.232 Z0 F600
G1 X13.845 Y32.04 Z0 F600
G1 X13.849 Y26.72 Z0 F600
G1 X13.842 Y21.412 Z0 F600
G1 X13.855 Y16.103 Z0 F600
; --- FIX X Backlash ---
G0 X14.555 Y16.103 F410
G1 X14.623 Y10.827 Z0 F600
G1 X14.782 Y10.824 Z0 F600
G1 X15.46 Z0 F600
G1 X16.138 Y10.802 Z0 F600
G1 X22.099 Y10.78 Z0 F600
; --- FIX X Backlash ---
G0 X21.399 Y10.78 F410
; --- FIX Y Backlash ---
G0 X21.399 Y11.28 F410
G1 X21.266 Y11.378 Z0 F600
G1 X21.026 Y11.568 Z0 F600
G1 X20.725 Y11.848 Z0 F600
G1 X20.407 Y12.266 Z0 F600
G1 X20.278 Y12.546 Z0 F600
G1 X20.222 Z0 F600
G1 X20.197 Y12.719 Z0 F600
G1 X20.171 Y12.777 Z0 F600
G1 X20.082 Y13.125 Z0 F600
G1 X20.044 Y13.462 Z0 F600
G1 X20.05 Y13.667 Z0 F600
G1 X20.013 Y13.719 Z0 F600
G1 X19.845 Y13.909 Z0 F600
G1 X19.548 Y14.231 Z0 F600
G0 Z3.5 F600
; --- FIX X Backlash ---
G0 X20.248 Y14.231 F410
G0 X32.172 Y51.522 Z3.5
G1 Z0 F600
; --- FIX Y Backlash ---
G0 X32.172 Y51.022 F410
G1 X32.277 Y50.908 Z0 F600
G1 X32.363 Y50.777 Z0 F600
; --- FIX Y Backlash ---
G0 X32.363 Y51.277 F410
G1 X32.579 Y51.522 Z0 F600
; --- FIX X Backlash ---
G0 X31.879 Y51.522 F410
G1 X31.472 Z0 F600
G0 Z3.5 F600
G0 X30.657 Z3.5
G1 Z0 F600
; --- FIX X Backlash ---
G0 X31.357 Y51.522 F410
; --- FIX Y Backlash ---
G0 X31.357 Y51.022 F410
G1 X31.802 Y50.539 Z0 F600
G1 X32.098 Y50.086 Z0 F600
G1 X32.28 Y49.731 Z0 F600
G1 X32.347 Y49.587 Z0 F600
; --- FIX Y Backlash ---
G0 X32.347 Y50.087 F410
G1 X32.419 Y50.261 Z0 F600
G1 X32.782 Y50.844 Z0 F600
G1 X33.236 Y51.361 Z0 F600
G1 X33.773 Y51.798 Z0 F600
G1 X34.348 Y52.123 Z0 F600
; --- FIX X Backlash ---
G0 X33.648 Y52.123 F410
G1 X30.39 Z0 F600
; --- FIX Y Backlash ---
G0 X30.39 Y51.623 F410
G1 X30.346 Y51.452 Z0 F600
G1 X30.295 Y51.344 Z0 F600
G1 X30.283 Y51.286 Z0 F600
; --- FIX X Backlash ---
G0 X30.983 Y51.286 F410
G1 X31.357 Y51.023 Z0 F600
G0 Z3.5 F600
G0 X41.187 Y50.249 Z3.5
G1 Z0 F600
; --- FIX Y Backlash ---
G0 X41.187 Y50.749 F410
G1 X41.435 Y51.091 Z0 F600
G1 X41.786 Y51.47 Z0 F600
G1 X41.847 Y51.522 Z0 F600
; --- FIX X Backlash ---
G0 X41.147 Y51.522 F410
G1 X39.532 Z0 F600
; --- FIX X Backlash ---
G0 X40.232 Y51.522 F410
; --- FIX Y Backlash ---
G0 X40.232 Y51.022 F410
G1 X40.45 Y50.812 Z0 F600
G1 X41.187 Y50.249 Z0 F600
G0 Z3.5 F600
G0 X41.599 Y49.795 Z3.5
G1 Z0 F600
; --- FIX Y Backlash ---
G0 X41.599 Y50.295 F410
G1 X41.9 Y50.709 Z0 F600
G1 X42.203 Y51.037 Z0 F600
G1 X42.522 Y51.312 Z0 F600
G1 X42.872 Y51.557 Z0 F600
G1 X43.458 Y51.866 Z0 F600
G1 X44.01 Y52.074 Z0 F600
G1 X44.169 Y52.123 Z0 F600
; --- FIX X Backlash ---
G0 X43.469 Y52.123 F410
G1 X37.613 Z0 F600
; --- FIX X Backlash ---
G0 X38.313 Y52.123 F410
; --- FIX Y Backlash ---
G0 X38.313 Y51.623 F410
G1 X38.518 Y51.531 Z0 F600
G1 X38.821 Y51.3 Z0 F600
G1 X39.244 Y51.038 Z0 F600
G1 X39.453 Y50.875 Z0 F600
G1 X39.51 Y50.917 Z0 F600
G1 X39.728 Y50.661 Z0 F600
G1 X39.805 Y50.602 Z0 F600
G1 X40.059 Y50.355 Z0 F600
G1 X40.407 Y50.089 Z0 F600
; --- FIX X Backlash ---
G0 X39.707 Y50.089 F410
G1 X39.656 Y50.022 Z0 F600
G1 X39.706 Y49.965 Z0 F600
; --- FIX X Backlash ---
G0 X40.406 Y49.965 F410
G1 X40.669 Y49.593 Z0 F600
G1 X40.729 Y49.485 Z0 F600
G1 X41.04 Y49.121 Z0 F600
G1 X41.276 Y48.84 Z0 F600
G1 Y48.854 Z0 F600
; --- FIX Y Backlash ---
G0 X41.276 Y49.354 F410
G1 X41.38 Y49.846 Z0 F600
G1 X41.599 Y50.295 Z0 F600
G0 Z3.5 F600
G0 X42.62 Y50.604 Z3.5
G1 Z0 F600
G1 X42.891 Y50.837 Z0 F600
G1 X43.186 Y51.043 Z0 F600
G1 X43.705 Y51.318 Z0 F600
G1 X44.203 Y51.506 Z0 F600
G1 X44.632 Y51.636 Z0 F600
G1 X44.989 Y51.736 Z0 F600
G1 X45.263 Y51.82 Z0 F600
G1 X45.479 Y51.904 Z0 F600
G1 X46.059 Y52.159 Z0 F600
G1 X46.758 Y52.403 Z0 F600
G1 X47.186 Y52.506 Z0 F600
G1 X47.267 Y52.519 Z0 F600
G1 X47.275 Y52.64 Z0 F600
G1 X48.063 Y52.592 Z0 F600
G1 X48.101 Z0 F600
G1 X48.438 Y52.568 Z0 F600
; --- FIX Y Backlash ---
G0 X48.438 Y52.068 F410
G1 X49.437 Y52.007 Z0 F600
G1 X50.372 Y51.921 Z0 F600
G1 X51.232 Y51.858 Z0 F600
G1 X52.745 Y51.854 Z0 F600
G1 X53.528 Y51.806 Z0 F600
G1 X54.042 Y51.7 Z0 F600
G1 X54.572 Y51.504 Z0 F600
G1 X55.1 Y51.194 Z0 F600
G1 X55.428 Y50.898 Z0 F600
; --- FIX Y Backlash ---
G0 X55.428 Y51.398 F410
G1 X55.397 Y52.47 Z0 F600
G1 X55.375 Y52.722 Z0 F600
; --- FIX X Backlash ---
G0 X54.675 Y52.722 F410
G1 X29.889 Z0 F600
; --- FIX Y Backlash ---
G0 X29.889 Y52.222 F410
G1 X29.883 Y52.057 Z0 F600
G1 X29.78 Y51.659 Z0 F600
G1 X29.721 Y51.535 Z0 F600
G1 X29.697 Y51.417 Z0 F600
G1 X29.501 Y51.018 Z0 F600
; --- FIX X Backlash ---
G0 X30.201 Y51.018 F410
G1 X30.427 Y50.944 Z0 F600
G1 X30.959 Y50.569 Z0 F600
G1 X31.327 Y50.169 Z0 F600
G1 X31.578 Y49.785 Z0 F600
G1 X31.741 Y49.467 Z0 F600
G1 X31.855 Y49.224 Z0 F600
G1 X31.932 Y49.064 Z0 F600
G1 X31.978 Y48.979 Z0 F600
G1 X31.984 Y48.97 Z0 F600
G1 X32.135 Y48.82 Z0 F600
G1 X32.27 Y48.563 Z0 F600
G1 X32.4 Y48.432 Z0 F600
G1 X32.419 Y48.438 Z0 F600
; --- FIX Y Backlash ---
G0 X32.419 Y48.938 F410
G1 X32.561 Y49.015 Z0 F600
G1 X32.639 Y49.045 Z0 F600
G1 X32.729 Y49.441 Z0 F600
G1 X32.955 Y49.986 Z0 F600
G1 X33.265 Y50.485 Z0 F600
G1 X33.653 Y50.927 Z0 F600
G1 X34.113 Y51.3 Z0 F600
G1 X34.636 Y51.596 Z0 F600
G1 X35.191 Y51.79 Z0 F600
G1 X35.403 Y51.833 Z0 F600
G1 X36.006 Y51.878 Z0 F600
G1 X36.648 Y51.913 Z0 F600
G1 X37.125 Y51.879 Z0 F600
; --- FIX Y Backlash ---
G0 X37.125 Y51.379 F410
G1 X37.362 Y51.326 Z0 F600
; --- FIX Y Backlash ---
G0 X37.362 Y51.826 F410
G1 X37.444 Y51.947 Z0 F600
; --- FIX Y Backlash ---
G0 X37.444 Y51.447 F410
G1 X37.985 Y51.112 Z0 F600
G1 X38.21 Y51.012 Z0 F600
G1 X38.48 Y50.805 Z0 F600
G1 X38.901 Y50.545 Z0 F600
G1 X39.411 Y50.148 Z0 F600
G1 X39.685 Y49.882 Z0 F600
G1 X39.933 Y49.595 Z0 F600
G1 X40.161 Y49.273 Z0 F600
G1 X40.235 Y49.141 Z0 F600
G1 X40.582 Y48.733 Z0 F600
G1 X41.078 Y48.144 Z0 F600
G1 X41.35 Y47.774 Z0 F600
G1 X41.609 Y47.365 Z0 F600
G1 X41.843 Y46.903 Z0 F600
G1 X41.885 Y46.792 Z0 F600
; --- FIX Y Backlash ---
G0 X41.885 Y47.292 F410
G1 X41.843 Y48.092 Z0 F600
G1 X41.875 Y49.283 Z0 F600
G1 X41.952 Y49.65 Z0 F600
G1 X42.115 Y49.985 Z0 F600
G1 X42.364 Y50.328 Z0 F600
G1 X42.62 Y50.604 Z0 F600
G0 Z3.5 F600
G0 X43.952 Y50.77 Z3.5
G1 Z0 F600
G1 X44.396 Y50.938 Z0 F600
G1 X44.8 Y51.06 Z0 F600
G1 X45.155 Y51.159 Z0 F600
G1 X45.454 Y51.25 Z0 F600
G1 X45.709 Y51.351 Z0 F600
G1 X46.279 Y51.6 Z0 F600
G1 X46.928 Y51.827 Z0 F600
G1 X47.3 Y51.917 Z0 F600
G1 X47.686 Y51.974 Z0 F600
G1 X47.83 Y51.98 Z0 F600
G1 Y52.005 Z0 F600
G1 X48.06 Y51.991 Z0 F600
G1 X48.093 Z0 F600
G1 X48.413 Y51.969 Z0 F600
; --- FIX Y Backlash ---
G0 X48.413 Y51.469 F410
G1 X49.391 Y51.408 Z0 F600
G1 X50.325 Y51.323 Z0 F600
G1 X51.215 Y51.258 Z0 F600
G1 X52.726 Y51.254 Z0 F600
G1 X53.448 Y51.209 Z0 F600
G1 X53.877 Y51.121 Z0 F600
G1 X54.314 Y50.96 Z0 F600
G1 X54.744 Y50.708 Z0 F600
G1 X55.315 Y50.193 Z0 F600
G1 X55.555 Y49.951 Z0 F600
G1 X55.792 Y49.665 Z0 F600
G1 X56.012 Y49.325 Z0 F600
G1 X56.04 Y49.262 Z0 F600
; --- FIX Y Backlash ---
G0 X56.04 Y49.762 F410
G1 X56.037 Y50.054 Z0 F600
G1 X56.032 Y51.306 Z0 F600
G1 X55.997 Y52.5 Z0 F600
; --- FIX X Backlash ---
G0 X55.297 Y52.5 F410
G1 X55.223 Y53.326 Z0 F600
G1 X55.16 Y53.322 Z0 F600
G1 X29.199 Z0 F600
; --- FIX Y Backlash ---
G0 X29.199 Y52.822 F410
G1 X29.246 Y52.7 Z0 F600
G1 X29.279 Y52.524 Z0 F600
G1 X29.305 Y52.516 Z0 F600
G1 X29.293 Y52.454 Z0 F600
G1 X29.296 Y52.435 Z0 F600
G1 X29.286 Y52.143 Z0 F600
G1 X29.214 Y51.865 Z0 F600
G1 X29.148 Y51.728 Z0 F600
G1 X29.125 Y51.612 Z0 F600
G1 X28.944 Y51.245 Z0 F600
G1 X28.735 Y50.97 Z0 F600
G1 X28.548 Y50.779 Z0 F600
G1 X28.411 Y50.648 Z0 F600
G1 X28.307 Y50.546 Z0 F600
G1 X28.258 Y50.494 Z0 F600
G1 X28.251 Y50.484 Z0 F600
G1 X28.228 Y50.445 Z0 F600
G1 X28.203 Y50.412 Z0 F600
G1 X28.177 Y50.365 Z0 F600
; --- FIX X Backlash ---
G0 X28.877 Y50.365 F410
; --- FIX Y Backlash ---
G0 X28.877 Y50.865 F410
G1 X29.457 Y51.003 Z0 F600
G1 X29.799 Y51.019 Z0 F600
; --- FIX Y Backlash ---
G0 X29.799 Y50.519 F410
G1 X30.154 Y50.402 Z0 F600
G1 X30.561 Y50.116 Z0 F600
G1 X30.852 Y49.799 Z0 F600
G1 X31.059 Y49.483 Z0 F600
G1 X31.202 Y49.202 Z0 F600
G1 X31.309 Y48.975 Z0 F600
G1 X31.398 Y48.79 Z0 F600
G1 X31.466 Y48.665 Z0 F600
G1 X31.524 Y48.583 Z0 F600
G1 X31.646 Y48.46 Z0 F600
G1 X31.756 Y48.251 Z0 F600
G1 X31.844 Y48.126 Z0 F600
G1 X31.828 Y48.112 Z0 F600
G1 Y48.104 Z0 F600
G1 X31.897 Y48.087 Z0 F600
G1 X32.225 Y47.756 Z0 F600
G1 X32.246 Y47.722 Z0 F600
G1 X32.267 Y47.732 Z0 F600
; --- FIX Y Backlash ---
G0 X32.267 Y48.232 F410
G1 X32.513 Y48.338 Z0 F600
G1 X32.656 Y48.384 Z0 F600
G1 X32.814 Y48.47 Z0 F600
G1 X33.103 Y48.582 Z0 F600
G1 X33.183 Y48.607 Z0 F600
G1 X33.191 Y48.774 Z0 F600
G1 X33.303 Y49.258 Z0 F600
G1 X33.49 Y49.711 Z0 F600
G1 X33.748 Y50.126 Z0 F600
G1 X34.071 Y50.493 Z0 F600
G1 X34.452 Y50.803 Z0 F600
G1 X34.885 Y51.047 Z0 F600
G1 X35.351 Y51.21 Z0 F600
G1 X35.485 Y51.238 Z0 F600
G1 X36.044 Y51.279 Z0 F600
G1 X36.643 Y51.312 Z0 F600
G1 X37.037 Y51.284 Z0 F600
; --- FIX Y Backlash ---
G0 X37.037 Y50.784 F410
G1 X37.464 Y50.688 Z0 F600
G1 X37.609 Y50.623 Z0 F600
G1 X37.617 Y50.634 Z0 F600
G1 X37.704 Y50.581 Z0 F600
G1 X37.901 Y50.492 Z0 F600
G1 X38.138 Y50.312 Z0 F600
G1 X38.558 Y50.052 Z0 F600
G1 X39.016 Y49.695 Z0 F600
G1 X39.248 Y49.47 Z0 F600
G1 X39.46 Y49.225 Z0 F600
G1 X39.653 Y48.952 Z0 F600
G1 X39.74 Y48.797 Z0 F600
G1 X40.124 Y48.346 Z0 F600
G1 X40.606 Y47.772 Z0 F600
G1 X40.854 Y47.436 Z0 F600
G1 X41.086 Y47.068 Z0 F600
G1 X41.293 Y46.661 Z0 F600
G1 X41.469 Y46.194 Z0 F600
G1 X41.514 Y45.94 Z0 F600
G1 X41.494 Y45.695 Z0 F600
G1 X41.569 Y45.662 Z0 F600
G1 X41.838 Y45.502 Z0 F600
G1 X42.09 Y45.309 Z0 F600
G1 X42.318 Y45.081 Z0 F600
G1 X42.517 Y44.821 Z0 F600
G1 X42.551 Y44.761 Z0 F600
; --- FIX Y Backlash ---
G0 X42.551 Y45.261 F410
G1 X42.597 Y45.336 Z0 F600
G1 X42.571 Y46.088 Z0 F600
; --- FIX X Backlash ---
G0 X41.871 Y46.088 F410
G1 X41.799 Y47.062 Z0 F600
G1 X41.743 Y48.1 Z0 F600
G1 X41.774 Y49.213 Z0 F600
; --- FIX X Backlash ---
G0 X42.474 Y49.213 F410
G1 X42.524 Y49.455 Z0 F600
G1 X42.631 Y49.675 Z0 F600
G1 X42.829 Y49.946 Z0 F600
G1 X43.037 Y50.171 Z0 F600
G1 X43.26 Y50.363 Z0 F600
G1 X43.499 Y50.531 Z0 F600
G1 X43.952 Y50.77 Z0 F600
G0 Z3.5 F600
; --- FIX X Backlash ---
G0 X43.252 Y50.77 F410
G0 X22.583 Y52.117 Z3.5
G1 Z0 F600
G1 X21.515 Y52.12 Z0 F600
; --- FIX Y Backlash ---
G0 X21.515 Y51.62 F410
G1 X21.518 Y51.479 Z0 F600
G1 X21.539 Y51.231 Z0 F600
; --- FIX X Backlash ---
G0 X22.239 Y51.231 F410
G1 X22.318 Y51.13 Z0 F600
G1 X22.478 Y50.952 Z0 F600
G1 X22.966 Y50.441 Z0 F600
G1 X23.007 Y50.394 Z0 F600
; --- FIX Y Backlash ---
G0 X23.007 Y50.894 F410
G1 X23.365 Y51.224 Z0 F600
G1 X23.397 Y51.195 Z0 F600
G1 X23.364 Y51.302 Z0 F600
; --- FIX X Backlash ---
G0 X22.664 Y51.302 F410
G1 X22.594 Y51.813 Z0 F600
G1 X22.583 Y52.117 Z0 F600
G0 Z3.5 F600
; --- FIX X Backlash ---
G0 X23.283 Y52.117 F410
G0 X23.912 Y52.714 Z3.5
G1 Z0 F600
; --- FIX X Backlash ---
G0 X23.212 Y52.714 F410
G1 X21.377 Y52.72 Z0 F600
G1 X20.917 Y52.701 Z0 F600
; --- FIX Y Backlash ---
G0 X20.917 Y52.201 F410
G1 X20.907 Y52.027 Z0 F600
G1 X20.918 Y51.455 Z0 F600
G1 X20.954 Y51.025 Z0 F600
; --- FIX X Backlash ---
G0 X21.654 Y51.025 F410
G1 X21.73 Y50.907 Z0 F600
G1 X21.854 Y50.75 Z0 F600
G1 X22.042 Y50.539 Z0 F600
G1 X22.524 Y50.035 Z0 F600
G1 X22.934 Y49.57 Z0 F600
; --- FIX Y Backlash ---
G0 X22.934 Y50.07 F410
G1 X23.078 Y50.204 Z0 F600
G1 X23.366 Y50.408 Z0 F600
G1 X23.373 Y50.415 Z0 F600
G1 X23.466 Y50.479 Z0 F600
G1 X23.859 Y50.699 Z0 F600
G1 X24.206 Y50.848 Z0 F600
; --- FIX X Backlash ---
G0 X23.506 Y50.848 F410
G1 X23.362 Y51.084 Z0 F600
G1 X23.251 Y51.434 Z0 F600
G1 X23.193 Y51.865 Z0 F600
G1 X23.177 Y52.28 Z0 F600
G1 X23.212 Y52.714 Z0 F600
G0 Z3.5 F600
; --- FIX X Backlash ---
G0 X23.912 Y52.714 F410
G0 X24.153 Y53.314 Z3.5
G1 Z0 F600
; --- FIX X Backlash ---
G0 X23.453 Y53.314 F410
G1 X21.37 Y53.32 Z0 F600
G1 X20.896 Y53.301 Z0 F600
G1 X20.428 Y53.308 Z0 F600
G1 X20.399 Y53.305 Z0 F600
; --- FIX Y Backlash ---
G0 X20.399 Y52.805 F410
G1 X20.355 Y52.586 Z0 F600
G1 X20.322 Y52.317 Z0 F600
G1 X20.307 Y52.042 Z0 F600
G1 X20.319 Y51.416 Z0 F600
G1 X20.365 Y50.868 Z0 F600
; --- FIX X Backlash ---
G0 X21.065 Y50.868 F410
G1 X21.12 Y50.747 Z0 F600
G1 X21.236 Y50.564 Z0 F600
G1 X21.4 Y50.357 Z0 F600
G1 X21.601 Y50.132 Z0 F600
G1 X22.082 Y49.629 Z0 F600
G1 X22.613 Y49.027 Z0 F600
G1 X22.651 Y48.969 Z0 F600
G1 X22.722 Y48.881 Z0 F600
G1 X22.805 Y48.81 Z0 F600
G1 X22.894 Y48.756 Z0 F600
G1 X22.968 Y48.728 Z0 F600
; --- FIX Y Backlash ---
G0 X22.968 Y49.228 F410
G1 X23.141 Y49.445 Z0 F600
G1 X23.457 Y49.737 Z0 F600
G1 X23.787 Y49.971 Z0 F600
G1 X24.125 Y50.16 Z0 F600
G1 X24.733 Y50.423 Z0 F600
G1 X25.269 Y50.629 Z0 F600
G1 X25.228 Y50.656 Z0 F600
; --- FIX X Backlash ---
G0 X24.528 Y50.656 F410
G1 X24.283 Y50.858 Z0 F600
G1 X24.043 Y51.12 Z0 F600
G1 X23.912 Y51.334 Z0 F600
G1 X23.839 Y51.565 Z0 F600
G1 X23.791 Y51.917 Z0 F600
G1 X23.778 Y52.267 Z0 F600
G1 X23.807 Y52.637 Z0 F600
; --- FIX X Backlash ---
G0 X24.507 Y52.637 F410
G1 X24.593 Y53.028 Z0 F600
G1 X24.711 Y53.31 Z0 F600
; --- FIX X Backlash ---
G0 X24.011 Y53.31 F410
G1 X23.453 Y53.314 Z0 F600
G0 Z3.5 F600
; --- FIX X Backlash ---
G0 X24.153 Y53.314 F410
; --- FIX Y Backlash ---
G0 X24.153 Y52.814 F410
G0 X28.833 Y12.146 Z3.5
G1 Z0 F600
; --- FIX X Backlash ---
G0 X28.133 Y12.146 F410
G1 X27.861 Y11.785 Z0 F600
G1 X27.623 Y11.49 Z0 F600
G1 X27.501 Y11.363 Z0 F600
; --- FIX X Backlash ---
G0 X28.201 Y11.363 F410
G1 X33.533 Y11.357 Z0 F600
; --- FIX X Backlash ---
G0 X32.833 Y11.357 F410
; --- FIX Y Backlash ---
G0 X32.833 Y11.857 F410
G1 X32.692 Y11.98 Z0 F600
G1 X32.208 Y12.013 Z0 F600
G1 X31.622 Y12.092 Z0 F600
G1 X30.961 Y12.276 Z0 F600
G1 X30.543 Y12.459 Z0 F600
G1 X30.153 Y12.688 Z0 F600
G1 X29.805 Y12.956 Z0 F600
; --- FIX Y Backlash ---
G0 X29.805 Y12.456 F410
G1 X29.259 Y12.266 Z0 F600
G1 X28.672 Y12.194 Z0 F600
G1 X28.267 Y12.203 Z0 F600
G1 X28.148 Y12.151 Z0 F600
G1 X28.133 Y12.146 Z0 F600
G0 Z3.5 F600
G0 X27.172 Y11.887 Z3.5
G1 Z0 F600
G1 X26.89 Y11.593 Z0 F600
G1 X26.521 Y11.299 Z0 F600
G1 X26.067 Y11.044 Z0 F600
G1 X25.725 Y10.931 Z0 F600
G1 X25.41 Y10.777 Z0 F600
G1 X25.38 Y10.766 Z0 F600
; --- FIX X Backlash ---
G0 X26.08 Y10.766 F410
G1 X26.155 Z0 F600
G1 X36.172 Y10.754 Z0 F600
G1 X46.192 Z0 F600
G1 X55.42 Y10.751 Z0 F600
; --- FIX Y Backlash ---
G0 X55.42 Y11.251 F410
G1 X55.417 Y20.208 Z0 F600
G1 X55.407 Y29.736 Z0 F600
G1 X55.41 Y39.267 Z0 F600
G1 X55.423 Y42.483 Z0 F600
; --- FIX X Backlash ---
G0 X54.723 Y42.483 F410
; --- FIX Y Backlash ---
G0 X54.723 Y41.983 F410
G1 X54.665 Y41.876 Z0 F600
G1 X54.109 Y41.001 Z0 F600
G1 X53.497 Y40.164 Z0 F600
G1 X52.825 Y39.358 Z0 F600
G1 X52.711 Y39.244 Z0 F600
G1 X52.328 Y38.928 Z0 F600
G1 X51.916 Y38.652 Z0 F600
G1 X51.486 Y38.421 Z0 F600
G1 X51.041 Y38.234 Z0 F600
G1 X50.587 Y38.087 Z0 F600
G1 X50.126 Y37.981 Z0 F600
G1 X49.663 Y37.914 Z0 F600
G1 X49.137 Y37.881 Z0 F600
; --- FIX Y Backlash ---
G0 X49.137 Y38.381 F410
G1 X48.713 Y38.435 Z0 F600
G1 X48.324 Y38.604 Z0 F600
G1 X48.102 Y38.754 Z0 F600
; --- FIX Y Backlash ---
G0 X48.102 Y38.254 F410
G1 X48.083 Y37.643 Z0 F600
G1 X48.104 Y37.091 Z0 F600
G1 X48.131 Y36.872 Z0 F600
G1 X48.171 Y36.669 Z0 F600
G1 X48.22 Y36.499 Z0 F600
; --- FIX X Backlash ---
G0 X48.92 Y36.499 F410
G1 X49.022 Y36.253 Z0 F600
G1 X49.112 Y35.996 Z0 F600
G1 X49.154 Y35.632 Z0 F600
G1 X49.119 Y35.268 Z0 F600
; --- FIX X Backlash ---
G0 X48.419 Y35.268 F410
G1 X48.317 Y34.958 Z0 F600
G1 X48.019 Y34.359 Z0 F600
G1 X47.611 Y33.763 Z0 F600
G1 X47.29 Y33.427 Z0 F600
G1 X46.92 Y33.136 Z0 F600
G1 X46.477 Y32.893 Z0 F600
G1 X46.101 Y32.768 Z0 F600
G1 X45.87 Y32.679 Z0 F600
; --- FIX X Backlash ---
G0 X46.57 Y32.679 F410
G1 X46.747 Y32.487 Z0 F600
G1 X47.044 Y32.079 Z0 F600
G1 X47.295 Y31.649 Z0 F600
G1 X47.499 Y31.201 Z0 F600
G1 X47.656 Y30.742 Z0 F600
G1 X47.771 Y30.272 Z0 F600
G1 X47.84 Y29.798 Z0 F600
G1 X47.868 Y29.302 Z0 F600
G1 X47.85 Y29.05 Z0 F600
; --- FIX X Backlash ---
G0 X47.15 Y29.05 F410
G1 X47.09 Y28.799 Z0 F600
G1 X46.876 Y28.25 Z0 F600
G1 X46.572 Y27.721 Z0 F600
G1 X46.502 Y27.63 Z0 F600
; --- FIX X Backlash ---
G0 X47.202 Y27.63 F410
G1 X47.437 Y27.438 Z0 F600
G1 X47.578 Y27.276 Z0 F600
G1 X47.853 Y27.168 Z0 F600
G1 X48.168 Y26.969 Z0 F600
G1 X48.464 Y26.669 Z0 F600
G1 X48.676 Y26.306 Z0 F600
G1 X48.786 Y25.952 Z0 F600
G1 X48.822 Y25.64 Z0 F600
G1 X48.809 Y25.351 Z0 F600
; --- FIX X Backlash ---
G0 X48.109 Y25.351 F410
G1 X48.05 Y25.08 Z0 F600
G1 X48.044 Y25.063 Z0 F600
G1 X47.996 Y24.561 Z0 F600
G1 X47.901 Y23.892 Z0 F600
G1 X47.779 Y23.237 Z0 F600
G1 X47.624 Y22.541 Z0 F600
G1 X47.517 Y22.242 Z0 F600
G1 X47.318 Y21.929 Z0 F600
G1 X47.215 Y21.826 Z0 F600
; --- FIX X Backlash ---
G0 X47.915 Y21.826 F410
G1 X48.008 Y21.642 Z0 F600
G1 X48.192 Y21.352 Z0 F600
G1 X48.354 Y21.006 Z0 F600
G1 X48.394 Y20.873 Z0 F600
G1 X48.459 Y20.772 Z0 F600
G1 X48.589 Y20.581 Z0 F600
G1 X48.774 Y20.298 Z0 F600
G1 X48.986 Y19.895 Z0 F600
G1 X49.149 Y19.398 Z0 F600
G1 X49.203 Y19.063 Z0 F600
G1 X49.217 Y18.731 Z0 F600
G1 X49.183 Y18.378 Z0 F600
; --- FIX X Backlash ---
G0 X48.483 Y18.378 F410
G1 X48.422 Y18.129 Z0 F600
G1 X48.248 Y17.292 Z0 F600
G1 X47.968 Y16.446 Z0 F600
G1 X47.663 Y15.7 Z0 F600
G1 X47.446 Y15.19 Z0 F600
G1 X47.439 Y15.031 Z0 F600
G1 X47.404 Y14.763 Z0 F600
G1 X47.276 Y14.413 Z0 F600
G1 X47.054 Y14.069 Z0 F600
G1 X46.778 Y13.795 Z0 F600
G1 X46.436 Y13.587 Z0 F600
G1 X46.05 Y13.463 Z0 F600
G1 X45.699 Y13.44 Z0 F600
; --- FIX Y Backlash ---
G0 X45.699 Y13.94 F410
G1 X44.802 Y14.013 Z0 F600
G1 X44.031 Y14.104 Z0 F600
G1 X43.363 Y14.169 Z0 F600
G1 X42.806 Y14.18 Z0 F600
G1 X41.86 Y14.169 Z0 F600
G1 X41.037 Y14.154 Z0 F600
; --- FIX Y Backlash ---
G0 X41.037 Y13.654 F410
G1 X40.294 Y13.603 Z0 F600
G1 X40.019 Y13.555 Z0 F600
G1 X39.895 Y13.445 Z0 F600
G1 X39.637 Y13.28 Z0 F600
G1 X39.312 Y13.148 Z0 F600
G1 X38.96 Y13.087 Z0 F600
G1 X38.639 Y13.095 Z0 F600
G1 X38.484 Y13.124 Z0 F600
G1 X38.125 Y12.901 Z0 F600
G1 X37.932 Y12.792 Z0 F600
G1 Y12.781 Z0 F600
G1 X37.763 Y12.387 Z0 F600
G1 X37.504 Y12.046 Z0 F600
G1 X37.188 Y11.8 Z0 F600
G1 X36.695 Y11.555 Z0 F600
G1 X36.22 Y11.404 Z0 F600
G1 X35.759 Y11.326 Z0 F600
G1 X35.302 Y11.301 Z0 F600
; --- FIX Y Backlash ---
G0 X35.302 Y11.801 F410
G1 X34.56 Y11.858 Z0 F600
G1 X33.828 Y11.996 Z0 F600
G1 X33.376 Y12.178 Z0 F600
G1 X33 Y12.508 Z0 F600
G1 X32.96 Y12.563 Z0 F600
G1 X32.269 Y12.611 Z0 F600
G1 X31.743 Y12.681 Z0 F600
G1 X31.163 Y12.843 Z0 F600
G1 X30.816 Y12.995 Z0 F600
G1 X30.489 Y13.186 Z0 F600
G1 X30.175 Y13.428 Z0 F600
G1 X29.964 Y13.641 Z0 F600
G1 X29.96 Y13.644 Z0 F600
G1 X29.945 Z0 F600
G1 X29.893 Z0 F600
G1 X29.85 Y13.641 Z0 F600
G1 X29.819 Y13.631 Z0 F600
G1 X29.742 Y13.593 Z0 F600
; --- FIX Y Backlash ---
G0 X29.742 Y13.093 F410
G1 X29.634 Y13.032 Z0 F600
G1 X29.123 Y12.854 Z0 F600
G1 X28.642 Y12.795 Z0 F600
G1 X28.283 Y12.803 Z0 F600
G1 X28.165 Y12.813 Z0 F600
G1 X27.93 Y12.71 Z0 F600
G1 X27.78 Y12.659 Z0 F600
G1 X27.67 Y12.529 Z0 F600
G1 X27.387 Y12.154 Z0 F600
G1 X27.172 Y11.887 Z0 F600
G0 Z3.5 F600
G0 X25.452 Y10.165 Z3.5
G1 Z0 F600
; --- FIX X Backlash ---
G0 X26.152 Y10.165 F410
G1 X36.171 Y10.154 Z0 F600
G1 X46.192 Z0 F600
G1 X56.021 Y10.151 Z0 F600
G1 Y10.159 Z0 F600
; --- FIX Y Backlash ---
G0 X56.021 Y10.659 F410
G1 X56.018 Y20.208 Z0 F600
G1 X56.007 Y29.736 Z0 F600
G1 X56.01 Y39.266 Z0 F600
G1 X56.042 Y47.075 Z0 F600
; --- FIX X Backlash ---
G0 X55.342 Y47.075 F410
; --- FIX Y Backlash ---
G0 X55.342 Y46.575 F410
G1 X54.72 Y43.333 Z0 F600
G1 X54.688 Y43.204 Z0 F600
G1 X54.63 Y43.064 Z0 F600
G1 X54.148 Y42.181 Z0 F600
G1 X53.613 Y41.339 Z0 F600
G1 X53.024 Y40.533 Z0 F600
G1 X52.382 Y39.763 Z0 F600
G1 X52.307 Y39.688 Z0 F600
G1 X51.969 Y39.41 Z0 F600
G1 X51.607 Y39.167 Z0 F600
G1 X51.226 Y38.963 Z0 F600
G1 X50.832 Y38.797 Z0 F600
G1 X50.427 Y38.666 Z0 F600
G1 X50.016 Y38.571 Z0 F600
G1 X49.601 Y38.512 Z0 F600
G1 X49.156 Y38.483 Z0 F600
G1 X48.873 Y38.519 Z0 F600
; --- FIX Y Backlash ---
G0 X48.873 Y39.019 F410
G1 X48.614 Y39.132 Z0 F600
G1 X48.369 Y39.298 Z0 F600
G1 X48.11 Y39.495 Z0 F600
G1 X48.067 Y39.473 Z0 F600
; --- FIX Y Backlash ---
G0 X48.067 Y38.973 F410
G1 X47.894 Y38.869 Z0 F600
G1 X47.742 Y38.758 Z0 F600
G1 X47.626 Y38.649 Z0 F600
G1 X47.554 Y38.563 Z0 F600
G1 X47.521 Y38.503 Z0 F600
G1 X47.508 Y38.458 Z0 F600
G1 X47.503 Y38.355 Z0 F600
G1 Y38.332 Z0 F600
G1 X47.482 Y37.639 Z0 F600
G1 X47.505 Y37.042 Z0 F600
G1 X47.537 Y36.776 Z0 F600
G1 X47.586 Y36.531 Z0 F600
; --- FIX X Backlash ---
G0 X48.286 Y36.531 F410
G1 X48.354 Y36.299 Z0 F600
G1 X48.461 Y36.04 Z0 F600
G1 X48.523 Y35.861 Z0 F600
G1 X48.551 Y35.626 Z0 F600
G1 X48.528 Y35.392 Z0 F600
; --- FIX X Backlash ---
G0 X47.828 Y35.392 F410
G1 X47.76 Y35.186 Z0 F600
G1 X47.5 Y34.664 Z0 F600
G1 X47.143 Y34.142 Z0 F600
G1 X46.885 Y33.872 Z0 F600
G1 X46.588 Y33.638 Z0 F600
G1 X46.236 Y33.444 Z0 F600
G1 X45.891 Y33.33 Z0 F600
G1 X45.396 Y33.141 Z0 F600
G1 X44.857 Y33.007 Z0 F600
G1 X44.34 Y32.929 Z0 F600
G1 X43.906 Y32.889 Z0 F600
G1 X43.282 Y32.732 Z0 F600
G1 X42.597 Y32.633 Z0 F600
G1 X41.944 Y32.583 Z0 F600
G1 X41.397 Y32.562 Z0 F600
G1 X41.127 Y32.484 Z0 F600
; --- FIX X Backlash ---
G0 X41.827 Y32.484 F410
G1 X42.276 Y32.48 Z0 F600
G1 X42.656 Y32.424 Z0 F600
G1 X43.225 Z0 F600
G1 X43.81 Y32.458 Z0 F600
; --- FIX Y Backlash ---
G0 X43.81 Y32.958 F410
G1 X44.35 Y33.041 Z0 F600
G1 X44.907 Y33.198 Z0 F600
G1 X45.145 Y33.248 Z0 F600
G1 X45.447 Y33.226 Z0 F600
; --- FIX Y Backlash ---
G0 X45.447 Y32.726 F410
G1 X45.734 Y32.622 Z0 F600
G1 X45.962 Y32.455 Z0 F600
G1 X46.281 Y32.106 Z0 F600
G1 X46.542 Y31.75 Z0 F600
G1 X46.761 Y31.373 Z0 F600
G1 X46.94 Y30.979 Z0 F600
G1 X47.08 Y30.573 Z0 F600
G1 X47.181 Y30.158 Z0 F600
G1 X47.243 Y29.738 Z0 F600
G1 X47.267 Y29.307 Z0 F600
G1 X47.255 Y29.142 Z0 F600
G1 X47.216 Y28.979 Z0 F600
; --- FIX X Backlash ---
G0 X46.516 Y28.979 F410
G1 X46.334 Y28.51 Z0 F600
G1 X46.073 Y28.055 Z0 F600
G1 X45.89 Y27.819 Z0 F600
G1 X45.685 Y27.606 Z0 F600
G1 X45.515 Y27.468 Z0 F600
; --- FIX X Backlash ---
G0 X46.215 Y27.468 F410
G1 X46.45 Y27.388 Z0 F600
G1 X46.746 Y27.228 Z0 F600
G1 X47.019 Y27.005 Z0 F600
G1 X47.252 Y26.738 Z0 F600
G1 X47.387 Y26.707 Z0 F600
G1 X47.581 Y26.631 Z0 F600
G1 X47.789 Y26.499 Z0 F600
G1 X47.983 Y26.302 Z0 F600
G1 X48.124 Y26.063 Z0 F600
G1 X48.196 Y25.828 Z0 F600
G1 X48.22 Y25.619 Z0 F600
G1 X48.212 Y25.429 Z0 F600
G1 X48.172 Y25.246 Z0 F600
G1 X48.154 Y25.195 Z0 F600
; --- FIX X Backlash ---
G0 X47.454 Y25.195 F410
G1 X47.4 Y24.631 Z0 F600
G1 X47.308 Y23.989 Z0 F600
G1 X47.191 Y23.357 Z0 F600
G1 X47.047 Y22.708 Z0 F600
G1 X46.975 Y22.508 Z0 F600
G1 X46.846 Y22.307 Z0 F600
G1 X46.678 Y22.138 Z0 F600
G1 X46.488 Y22.017 Z0 F600
G1 X46.223 Y21.907 Z0 F600
; --- FIX X Backlash ---
G0 X46.923 Y21.907 F410
G1 X47.037 Y21.813 Z0 F600
G1 X47.348 Y21.507 Z0 F600
G1 X47.515 Y21.298 Z0 F600
G1 X47.665 Y21.063 Z0 F600
G1 X47.792 Y20.792 Z0 F600
G1 X47.835 Y20.647 Z0 F600
G1 X47.869 Y20.581 Z0 F600
G1 X47.961 Y20.437 Z0 F600
G1 X48.09 Y20.248 Z0 F600
G1 X48.256 Y19.994 Z0 F600
G1 X48.431 Y19.66 Z0 F600
G1 X48.564 Y19.255 Z0 F600
G1 X48.605 Y19.003 Z0 F600
G1 X48.616 Y18.748 Z0 F600
G1 X48.59 Y18.479 Z0 F600
; --- FIX X Backlash ---
G0 X47.89 Y18.479 F410
G1 X47.833 Y18.249 Z0 F600
G1 X47.668 Y17.447 Z0 F600
G1 X47.405 Y16.654 Z0 F600
G1 X47.11 Y15.931 Z0 F600
G1 X46.849 Y15.319 Z0 F600
G1 Y15.286 Z0 F600
G1 X46.841 Y15.082 Z0 F600
G1 X46.818 Y14.907 Z0 F600
G1 X46.736 Y14.682 Z0 F600
G1 X46.585 Y14.449 Z0 F600
G1 X46.405 Y14.271 Z0 F600
G1 X46.185 Y14.136 Z0 F600
G1 X45.938 Y14.057 Z0 F600
G1 X45.703 Y14.042 Z0 F600
; --- FIX Y Backlash ---
G0 X45.703 Y14.542 F410
G1 X44.862 Y14.61 Z0 F600
G1 X44.106 Y14.699 Z0 F600
G1 X43.402 Y14.769 Z0 F600
G1 X42.781 Y14.78 Z0 F600
G1 X41.848 Y14.769 Z0 F600
G1 X41.004 Y14.753 Z0 F600
; --- FIX Y Backlash ---
G0 X41.004 Y14.253 F410
G1 X40.22 Y14.199 Z0 F600
G1 X39.725 Y14.114 Z0 F600
G1 X39.666 Y14.043 Z0 F600
G1 X39.532 Y13.925 Z0 F600
G1 X39.361 Y13.815 Z0 F600
G1 X39.147 Y13.729 Z0 F600
G1 X38.915 Y13.688 Z0 F600
G1 X38.702 Y13.693 Z0 F600
G1 X38.514 Y13.729 Z0 F600
G1 X38.43 Y13.759 Z0 F600
G1 X38.423 Z0 F600
G1 X38.354 Y13.734 Z0 F600
G1 X38.234 Y13.675 Z0 F600
G1 X37.818 Y13.417 Z0 F600
G1 X37.381 Y13.168 Z0 F600
G1 Y13.154 Z0 F600
G1 X37.348 Y12.944 Z0 F600
G1 X37.241 Y12.69 Z0 F600
G1 X37.074 Y12.472 Z0 F600
G1 X36.867 Y12.311 Z0 F600
G1 X36.469 Y12.113 Z0 F600
G1 X36.078 Y11.989 Z0 F600
G1 X35.693 Y11.923 Z0 F600
G1 X35.31 Y11.902 Z0 F600
; --- FIX Y Backlash ---
G0 X35.31 Y12.402 F410
G1 X34.638 Y12.454 Z0 F600
G1 X33.997 Y12.574 Z0 F600
G1 X33.696 Y12.696 Z0 F600
G1 X33.446 Y12.916 Z0 F600
G1 X33.3 Y13.114 Z0 F600
G1 X33.291 Y13.131 Z0 F600
G1 X33.061 Y13.158 Z0 F600
G1 X32.329 Y13.208 Z0 F600
G1 X31.864 Y13.27 Z0 F600
G1 X31.365 Y13.41 Z0 F600
G1 X31.088 Y13.531 Z0 F600
G1 X30.825 Y13.685 Z0 F600
G1 X30.573 Y13.879 Z0 F600
G1 X30.376 Y14.077 Z0 F600
G1 X30.294 Y14.151 Z0 F600
G1 X30.219 Y14.193 Z0 F600
G1 X30.116 Y14.227 Z0 F600
G1 X29.992 Y14.246 Z0 F600
G1 X29.855 Z0 F600
G1 X29.718 Y14.228 Z0 F600
G1 X29.597 Y14.191 Z0 F600
; --- FIX Y Backlash ---
G0 X29.597 Y13.691 F410
G1 X29.469 Y13.627 Z0 F600
G1 X29.385 Y13.581 Z0 F600
G1 X28.987 Y13.441 Z0 F600
G1 X28.613 Y13.396 Z0 F600
G1 X28.314 Y13.402 Z0 F600
G1 X28.098 Y13.42 Z0 F600
G1 X28.037 Y13.423 Z0 F600
G1 X27.943 Y13.37 Z0 F600
G1 X27.712 Y13.27 Z0 F600
G1 X27.516 Y13.202 Z0 F600
G1 X27.415 Y13.171 Z0 F600
G1 X27.327 Y13.052 Z0 F600
G1 X27.195 Y12.895 Z0 F600
G1 X26.914 Y12.523 Z0 F600
G1 X26.721 Y12.284 Z0 F600
G1 X26.485 Y12.037 Z0 F600
G1 X26.186 Y11.799 Z0 F600
G1 X25.823 Y11.596 Z0 F600
G1 X25.496 Y11.487 Z0 F600
G1 X25.174 Y11.329 Z0 F600
G1 X24.784 Y11.185 Z0 F600
G1 X24.4 Y11.081 Z0 F600
G1 X24.018 Y11.008 Z0 F600
G1 X23.318 Y10.931 Z0 F600
G1 X22.616 Y10.891 Z0 F600
G1 X22.261 Y10.937 Z0 F600
; --- FIX Y Backlash ---
G0 X22.261 Y11.437 F410
G1 X21.959 Y11.607 Z0 F600
G1 X21.792 Y11.736 Z0 F600
G1 X21.63 Y11.855 Z0 F600
G1 X21.417 Y12.023 Z0 F600
G1 X21.172 Y12.252 Z0 F600
G1 X20.924 Y12.577 Z0 F600
G1 X20.739 Y12.979 Z0 F600
G1 X20.674 Y13.233 Z0 F600
G1 X20.645 Y13.487 Z0 F600
G1 X20.653 Y13.756 Z0 F600
G1 X20.656 Y13.772 Z0 F600
G1 X20.649 Y13.826 Z0 F600
G1 X20.602 Y13.928 Z0 F600
G1 X20.485 Y14.091 Z0 F600
G1 X20.286 Y14.316 Z0 F600
G1 X20.003 Y14.624 Z0 F600
G1 X19.696 Y15.004 Z0 F600
G1 X19.538 Y15.248 Z0 F600
G1 X19.4 Y15.517 Z0 F600
G1 X19.288 Y15.817 Z0 F600
G1 X19.247 Y15.989 Z0 F600
G1 X18.954 Y16.741 Z0 F600
G1 X18.605 Y17.581 Z0 F600
G1 X18.438 Y18.064 Z0 F600
G1 X18.303 Y18.582 Z0 F600
G1 X18.22 Y19.139 Z0 F600
G1 X18.194 Y20.245 Z0 F600
; --- FIX X Backlash ---
G0 X18.894 Y20.245 F410
G1 X18.955 Y20.878 Z0 F600
G1 X19.042 Y21.238 Z0 F600
G1 X19.179 Y21.59 Z0 F600
G1 X19.375 Y21.936 Z0 F600
G1 X19.6 Y22.216 Z0 F600
G1 X19.814 Y22.494 Z0 F600
G1 X20.086 Y22.754 Z0 F600
G1 X20.376 Y22.962 Z0 F600
G1 X20.683 Y23.132 Z0 F600
G1 X21.247 Y23.347 Z0 F600
G1 X21.475 Y23.404 Z0 F600
G1 X21.556 Y23.554 Z0 F600
G1 X21.771 Y23.828 Z0 F600
G1 X21.96 Y23.986 Z0 F600
G1 X22.167 Y24.109 Z0 F600
G1 X22.392 Y24.2 Z0 F600
G1 X22.624 Y24.254 Z0 F600
G1 X22.989 Y24.291 Z0 F600
G1 X23.319 Y24.277 Z0 F600
G1 X23.588 Y24.241 Z0 F600
G1 X23.794 Y24.207 Z0 F600
G1 X23.92 Y24.19 Z0 F600
G1 X23.983 Z0 F600
G1 X23.989 Z0 F600
G1 X24.304 Y24.354 Z0 F600
G1 X24.468 Y24.468 Z0 F600
G1 X24.447 Y24.529 Z0 F600
G1 X24.435 Y24.659 Z0 F600
; --- FIX X Backlash ---
G0 X23.735 Y24.659 F410
G1 X23.681 Y24.673 Z0 F600
G1 X23.728 Y24.979 Z0 F600
G1 X23.747 Y25.188 Z0 F600
G1 X23.769 Y25.251 Z0 F600
; --- FIX X Backlash ---
G0 X24.469 Y25.251 F410
G1 X24.527 Y25.631 Z0 F600
G1 X24.533 Y26.006 Z0 F600
G1 X24.486 Y26.358 Z0 F600
; --- FIX X Backlash ---
G0 X23.786 Y26.358 F410
G1 X23.675 Y26.729 Z0 F600
G1 X23.648 Y26.799 Z0 F600
G1 X23.591 Y27.123 Z0 F600
G1 X23.597 Y27.444 Z0 F600
; --- FIX X Backlash ---
G0 X24.297 Y27.444 F410
G1 X24.36 Y27.75 Z0 F600
G1 X24.479 Y28.038 Z0 F600
G1 X24.739 Y28.404 Z0 F600
G1 X24.793 Y28.456 Z0 F600
; --- FIX X Backlash ---
G0 X24.093 Y28.456 F410
G1 X23.811 Y28.717 Z0 F600
G1 X23.409 Y29.025 Z0 F600
G1 X23.331 Y29.077 Z0 F600
G1 X23.314 Y29.062 Z0 F600
; --- FIX Y Backlash ---
G0 X23.314 Y28.562 F410
G1 X23.053 Y28.394 Z0 F600
G1 X22.785 Y28.289 Z0 F600
G1 X22.525 Y28.267 Z0 F600
G1 X21.693 Y28.291 Z0 F600
G1 X20.813 Y28.339 Z0 F600
; --- FIX Y Backlash ---
G0 X20.813 Y28.839 F410
G1 X20.325 Y28.911 Z0 F600
G1 X19.829 Y29.035 Z0 F600
G1 X19.329 Y29.229 Z0 F600
G1 X18.876 Y29.483 Z0 F600
G1 X18.607 Y29.628 Z0 F600
G1 X18.326 Y29.841 Z0 F600
G1 X18.087 Y30.084 Z0 F600
G1 X17.89 Y30.351 Z0 F600
G1 X17.733 Y30.632 Z0 F600
G1 X17.611 Y30.923 Z0 F600
G1 X17.524 Y31.219 Z0 F600
G1 X17.498 Y31.357 Z0 F600
G1 X17.233 Y32.044 Z0 F600
G1 X16.973 Y32.877 Z0 F600
G1 X16.868 Y33.323 Z0 F600
G1 X16.786 Y33.775 Z0 F600
G1 X16.733 Y34.241 Z0 F600
G1 X16.714 Y34.655 Z0 F600
G1 X16.634 Y35.195 Z0 F600
G1 X16.478 Y35.812 Z0 F600
G1 X16.298 Y36.532 Z0 F600
G1 X16.17 Y37.366 Z0 F600
G1 X16.18 Y37.606 Z0 F600
; --- FIX X Backlash ---
G0 X16.88 Y37.606 F410
G1 X16.94 Y37.821 Z0 F600
G1 X17.092 Y38.172 Z0 F600
G1 X17.193 Y38.404 Z0 F600
G1 X17.232 Y38.519 Z0 F600
G1 X17.238 Y38.586 Z0 F600
G1 X17.235 Y38.628 Z0 F600
G1 X17.25 Y39.231 Z0 F600
G1 X17.27 Y39.774 Z0 F600
G1 X17.277 Y40.283 Z0 F600
G1 X17.269 Y40.479 Z0 F600
; --- FIX X Backlash ---
G0 X16.569 Y40.479 F410
G1 X16.386 Y40.617 Z0 F600
G1 X16.089 Y40.926 Z0 F600
G1 X15.979 Y41.108 Z0 F600
G1 X15.598 Y41.243 Z0 F600
G1 X14.966 Y41.476 Z0 F600
G1 X14.298 Y41.779 Z0 F600
G1 X13.633 Y42.189 Z0 F600
G1 X13.525 Y42.278 Z0 F600
G1 X13.424 Y42.386 Z0 F600
G1 X13.246 Y42.648 Z0 F600
; --- FIX Y Backlash ---
G0 X13.246 Y42.148 F410
G1 X13.251 Y37.232 Z0 F600
G1 X13.245 Y32.039 Z0 F600
G1 X13.249 Y26.721 Z0 F600
G1 X13.241 Y21.41 Z0 F600
G1 X13.255 Y16.108 Z0 F600
; --- FIX X Backlash ---
G0 X13.955 Y16.108 F410
G1 X14.023 Y10.792 Z0 F600
G1 X14.057 Y10.416 Z0 F600
G1 Y10.246 Z0 F600
G1 X14.183 Y10.235 Z0 F600
G1 X14.792 Y10.224 Z0 F600
G1 X15.451 Z0 F600
G1 X16.134 Y10.202 Z0 F600
G1 X26.152 Y10.165 Z0 F600
G0 Z3.5 F600
; --- FIX X Backlash ---
G0 X25.452 Y10.165 F410
; --- FIX Y Backlash ---
G0 X25.452 Y10.665 F410
G0 X13.501 Y49.661 Z3.5
G1 Z0 F600
G1 X13.551 Y49.756 Z0 F600
G1 X13.594 Y49.897 Z0 F600
G1 X13.628 Y50.104 Z0 F600
G1 X13.665 Y50.726 Z0 F600
G1 X13.711 Y51.343 Z0 F600
G1 X13.734 Y52.061 Z0 F600
G1 X13.767 Y52.71 Z0 F600
G1 X13.779 Y53.301 Z0 F600
G1 X13.686 Z0 F600
G1 X13.512 Y53.316 Z0 F600
G1 X13.42 Z0 F600
G1 X13.355 Y53.302 Z0 F600
G1 X13.331 Y53.293 Z0 F600
; --- FIX Y Backlash ---
G0 X13.331 Y52.793 F410
G1 X13.28 Y48.928 Z0 F600
; --- FIX X Backlash ---
G0 X13.98 Y48.928 F410
; --- FIX Y Backlash ---
G0 X13.98 Y49.428 F410
G1 X14.098 Y49.542 Z0 F600
G1 X14.201 Y49.661 Z0 F600
G0 Z3.5 F600
; --- FIX Y Backlash ---
G0 X14.201 Y49.161 F410
G0 X39.729 Y32.247 Z3.5
G1 Z0 F600
G1 X40.029 Y32.16 Z0 F600
G1 X40.174 Y32.143 Z0 F600
G1 X40.325 Z0 F600
G1 X40.455 Y32.166 Z0 F600
; --- FIX Y Backlash ---
G0 X40.455 Y32.666 F410
G1 X40.623 Y32.722 Z0 F600
; --- FIX X Backlash ---
G0 X39.923 Y32.722 F410
G1 X39.714 Y32.717 Z0 F600
G1 X39.48 Y32.744 Z0 F600
G1 X39.029 Y32.747 Z0 F600
G0 Z3.5 F600
; --- FIX X Backlash ---
G0 X39.729 Y32.747 F410
; --- FIX Y Backlash ---
G0 X39.729 Y32.247 F410
G0 X43.867 Y29.077 Z3.5
G1 Z0 F600
G1 X43.856 Y28.525 Z0 F600
G1 X43.848 Y27.443 Z0 F600
G1 X43.865 Y26.351 Z0 F600
G1 X43.889 Y25.887 Z0 F600
G1 X43.928 Z0 F600
G1 X43.998 Y25.894 Z0 F600
; --- FIX Y Backlash ---
G0 X43.998 Y26.394 F410
G1 X44.026 Y26.609 Z0 F600
G1 X44.14 Y26.93 Z0 F600
G1 X44.256 Y27.192 Z0 F600
G1 X44.349 Y27.425 Z0 F600
G1 X44.404 Y27.595 Z0 F600
G1 X44.524 Y27.864 Z0 F600
; --- FIX X Backlash ---
G0 X43.824 Y27.864 F410
G1 X43.565 Y28.109 Z0 F600
G1 X43.4 Y28.404 Z0 F600
G1 X43.324 Y28.665 Z0 F600
G1 X43.304 Y28.88 Z0 F600
G1 X43.307 Y29.035 Z0 F600
G1 X43.321 Y29.239 Z0 F600
G1 X43.332 Y29.359 Z0 F600
G1 Y29.365 Z0 F600
G1 X43.289 Y29.582 Z0 F600
G1 X43.167 Y29.577 Z0 F600
G0 Z3.5 F600
; --- FIX Y Backlash ---
G0 X43.167 Y29.077 F410
G0 X42.556 Y28.537 Z3.5
G1 Z0 F600
G1 X42.548 Y27.434 Z0 F600
G1 X42.565 Y26.342 Z0 F600
; --- FIX X Backlash ---
G0 X43.265 Y26.342 F410
G1 X43.321 Y25.264 Z0 F600
G1 X43.957 Y25.29 Z0 F600
G1 X44.572 Y25.336 Z0 F600
; --- FIX Y Backlash ---
G0 X44.572 Y25.836 F410
G1 X44.579 Y26.026 Z0 F600
G1 X44.582 Y26.233 Z0 F600
G1 X44.613 Y26.468 Z0 F600
G1 X44.698 Y26.708 Z0 F600
G1 X44.808 Y26.958 Z0 F600
G1 X44.914 Y27.22 Z0 F600
G1 X44.965 Y27.379 Z0 F600
G1 X45.02 Y27.501 Z0 F600
G1 X45.104 Y27.57 Z0 F600
G1 X45.246 Y27.573 Z0 F600
; --- FIX Y Backlash ---
G0 X45.246 Y27.073 F410
G1 X45.684 Y26.991 Z0 F600
G1 X45.94 Y26.928 Z0 F600
G1 X46.208 Y26.836 Z0 F600
G1 X46.411 Y26.727 Z0 F600
G1 X46.6 Y26.572 Z0 F600
G1 X46.77 Y26.378 Z0 F600
G1 X46.914 Y26.151 Z0 F600
G1 X47.008 Y26.158 Z0 F600
G1 X47.126 Y26.151 Z0 F600
G1 X47.21 Y26.132 Z0 F600
G1 X47.308 Y26.093 Z0 F600
G1 X47.41 Y26.029 Z0 F600
G1 X47.503 Y25.934 Z0 F600
G1 X47.571 Y25.819 Z0 F600
G1 X47.606 Y25.704 Z0 F600
G1 X47.619 Y25.597 Z0 F600
G1 X47.615 Y25.506 Z0 F600
G1 X47.594 Y25.411 Z0 F600
G1 X47.564 Y25.327 Z0 F600
; --- FIX X Backlash ---
G0 X46.864 Y25.327 F410
G1 X46.804 Y24.703 Z0 F600
G1 X46.716 Y24.086 Z0 F600
G1 X46.603 Y23.477 Z0 F600
G1 X46.469 Y22.875 Z0 F600
G1 X46.433 Y22.774 Z0 F600
G1 X46.376 Y22.684 Z0 F600
G1 X46.3 Y22.609 Z0 F600
G1 X46.21 Y22.551 Z0 F600
G1 X45.964 Y22.449 Z0 F600
G1 X45.736 Y22.383 Z0 F600
G1 X45.533 Y22.334 Z0 F600
G1 X45.364 Y22.287 Z0 F600
G1 X45.26 Y22.243 Z0 F600
G1 X45.208 Y22.209 Z0 F600
G1 X45.254 Y22.051 Z0 F600
; --- FIX X Backlash ---
G0 X45.954 Y22.051 F410
G1 X46.044 Y21.904 Z0 F600
G1 X46.183 Y21.753 Z0 F600
G1 X46.376 Y21.583 Z0 F600
G1 X46.633 Y21.368 Z0 F600
G1 X46.902 Y21.104 Z0 F600
G1 X47.026 Y20.949 Z0 F600
G1 X47.138 Y20.774 Z0 F600
G1 X47.229 Y20.577 Z0 F600
G1 X47.296 Y20.356 Z0 F600
; --- FIX Y Backlash ---
G0 X47.296 Y20.856 F410
G1 X47.277 Y20.922 Z0 F600
; --- FIX Y Backlash ---
G0 X47.277 Y20.422 F410
G1 X47.348 Y20.28 Z0 F600
G1 X47.457 Y20.111 Z0 F600
G1 X47.591 Y19.915 Z0 F600
G1 X47.738 Y19.69 Z0 F600
G1 X47.877 Y19.425 Z0 F600
G1 X47.979 Y19.113 Z0 F600
G1 X48.007 Y18.942 Z0 F600
G1 X48.015 Y18.764 Z0 F600
G1 X47.997 Y18.581 Z0 F600
G1 X47.951 Y18.393 Z0 F600
; --- FIX X Backlash ---
G0 X47.251 Y18.393 F410
G1 X47.087 Y17.603 Z0 F600
G1 X46.842 Y16.862 Z0 F600
G1 X46.556 Y16.162 Z0 F600
G1 X46.27 Y15.493 Z0 F600
G1 X46.249 Y15.449 Z0 F600
G1 X46.223 Y15.409 Z0 F600
G1 X46.254 Y15.456 Z0 F600
G1 X46.26 Y15.462 Z0 F600
G1 X46.254 Y15.433 Z0 F600
G1 X46.249 Y15.375 Z0 F600
G1 Y15.298 Z0 F600
G1 X46.242 Y15.133 Z0 F600
G1 X46.232 Y15.051 Z0 F600
G1 X46.195 Y14.951 Z0 F600
G1 X46.116 Y14.829 Z0 F600
G1 X46.033 Y14.746 Z0 F600
G1 X45.934 Y14.686 Z0 F600
G1 X45.824 Y14.651 Z0 F600
G1 X45.708 Y14.643 Z0 F600
; --- FIX Y Backlash ---
G0 X45.708 Y15.143 F410
G1 X44.922 Y15.207 Z0 F600
G1 X44.165 Y15.296 Z0 F600
G1 X43.435 Y15.368 Z0 F600
G1 X42.727 Y15.381 Z0 F600
G1 X42.716 Z0 F600
G1 X41.837 Y15.369 Z0 F600
G1 X40.98 Y15.353 Z0 F600
; --- FIX Y Backlash ---
G0 X40.98 Y14.853 F410
G1 X40.151 Y14.795 Z0 F600
G1 X39.358 Y14.66 Z0 F600
G1 X39.332 Y14.6 Z0 F600
G1 X39.282 Y14.52 Z0 F600
G1 X39.235 Y14.463 Z0 F600
G1 X39.168 Y14.404 Z0 F600
G1 X39.084 Y14.35 Z0 F600
G1 X38.981 Y14.309 Z0 F600
G1 X38.871 Y14.29 Z0 F600
G1 X38.765 Z0 F600
G1 X38.67 Y14.31 Z0 F600
G1 X38.591 Y14.338 Z0 F600
G1 X38.563 Y14.355 Z0 F600
G1 X38.425 Y14.364 Z0 F600
G1 X38.28 Y14.343 Z0 F600
G1 X38.123 Y14.289 Z0 F600
G1 X37.944 Y14.201 Z0 F600
G1 X37.511 Y13.933 Z0 F600
G1 X37.005 Y13.645 Z0 F600
G1 X36.971 Y13.629 Z0 F600
G1 X36.891 Y13.583 Z0 F600
G1 X36.842 Y13.514 Z0 F600
G1 X36.802 Y13.395 Z0 F600
G1 X36.784 Y13.231 Z0 F600
G1 X36.766 Y13.107 Z0 F600
G1 X36.718 Y12.995 Z0 F600
G1 X36.644 Y12.897 Z0 F600
G1 X36.546 Y12.821 Z0 F600
G1 X36.244 Y12.671 Z0 F600
G1 X35.936 Y12.573 Z0 F600
G1 X35.626 Y12.52 Z0 F600
G1 X35.317 Y12.503 Z0 F600
G1 X34.717 Y12.55 Z0 F600
; --- FIX Y Backlash ---
G0 X34.717 Y13.05 F410
G1 X34.167 Y13.153 Z0 F600
G1 X34.015 Y13.214 Z0 F600
G1 X33.891 Y13.323 Z0 F600
G1 X33.805 Y13.44 Z0 F600
G1 X33.752 Y13.534 Z0 F600
G1 X33.7 Y13.651 Z0 F600
G1 X33.42 Y13.72 Z0 F600
G1 X33.112 Y13.756 Z0 F600
G1 X32.389 Y13.805 Z0 F600
G1 X31.986 Y13.859 Z0 F600
G1 X31.567 Y13.976 Z0 F600
G1 X31.361 Y14.066 Z0 F600
G1 X31.161 Y14.183 Z0 F600
G1 X30.971 Y14.33 Z0 F600
G1 X30.794 Y14.508 Z0 F600
G1 X30.644 Y14.643 Z0 F600
G1 X30.463 Y14.744 Z0 F600
G1 X30.258 Y14.812 Z0 F600
G1 X30.039 Y14.846 Z0 F600
G1 X29.813 Z0 F600
G1 X29.59 Y14.815 Z0 F600
; --- FIX Y Backlash ---
G0 X29.59 Y14.315 F410
G1 X29.377 Y14.251 Z0 F600
G1 X29.182 Y14.155 Z0 F600
G1 X29.137 Y14.129 Z0 F600
G1 X28.85 Y14.029 Z0 F600
G1 X28.583 Y13.997 Z0 F600
G1 X28.345 Y14.002 Z0 F600
G1 X28.147 Y14.018 Z0 F600
G1 X28 Y14.025 Z0 F600
G1 X27.898 Y14.021 Z0 F600
G1 X27.827 Y14.003 Z0 F600
G1 X27.77 Y13.969 Z0 F600
G1 X27.725 Y13.936 Z0 F600
G1 X27.676 Y13.909 Z0 F600
G1 X27.494 Y13.83 Z0 F600
G1 X27.329 Y13.772 Z0 F600
G1 X27.189 Y13.729 Z0 F600
G1 X27.079 Y13.692 Z0 F600
G1 X26.982 Y13.653 Z0 F600
G1 X26.928 Y13.521 Z0 F600
G1 X26.856 Y13.424 Z0 F600
G1 X26.729 Y13.274 Z0 F600
G1 X26.441 Y12.892 Z0 F600
G1 X26.27 Y12.68 Z0 F600
G1 X26.08 Y12.481 Z0 F600
G1 X25.85 Y12.298 Z0 F600
G1 X25.58 Y12.147 Z0 F600
G1 X25.268 Y12.043 Z0 F600
G1 X24.937 Y11.881 Z0 F600
G1 X24.602 Y11.757 Z0 F600
G1 X24.265 Y11.666 Z0 F600
G1 X23.929 Y11.602 Z0 F600
G1 X23.268 Y11.529 Z0 F600
G1 X22.637 Y11.493 Z0 F600
G1 X22.454 Y11.517 Z0 F600
; --- FIX Y Backlash ---
G0 X22.454 Y12.017 F410
G1 X22.292 Y12.108 Z0 F600
G1 X22.159 Y12.21 Z0 F600
G1 X21.994 Y12.332 Z0 F600
G1 X21.809 Y12.479 Z0 F600
G1 X21.618 Y12.657 Z0 F600
G1 X21.441 Y12.888 Z0 F600
G1 X21.307 Y13.18 Z0 F600
G1 X21.265 Y13.342 Z0 F600
G1 X21.246 Y13.513 Z0 F600
G1 X21.251 Y13.689 Z0 F600
G1 X21.264 Y13.756 Z0 F600
G1 X21.231 Y13.995 Z0 F600
G1 X21.124 Y14.229 Z0 F600
G1 X20.954 Y14.465 Z0 F600
G1 X20.727 Y14.723 Z0 F600
G1 X20.457 Y15.016 Z0 F600
G1 X20.182 Y15.356 Z0 F600
G1 X20.058 Y15.549 Z0 F600
G1 X19.949 Y15.76 Z0 F600
G1 X19.863 Y15.991 Z0 F600
G1 X19.803 Y16.245 Z0 F600
; --- FIX Y Backlash ---
G0 X19.803 Y15.745 F410
G1 X19.819 Y15.674 Z0 F600
; --- FIX Y Backlash ---
G0 X19.819 Y16.174 F410
G1 X19.513 Y16.959 Z0 F600
G1 X19.166 Y17.794 Z0 F600
G1 X19.013 Y18.237 Z0 F600
G1 X18.892 Y18.702 Z0 F600
G1 X18.819 Y19.19 Z0 F600
G1 X18.795 Y20.223 Z0 F600
; --- FIX X Backlash ---
G0 X19.495 Y20.223 F410
G1 X19.548 Y20.778 Z0 F600
G1 X19.616 Y21.058 Z0 F600
G1 X19.723 Y21.333 Z0 F600
G1 X19.874 Y21.598 Z0 F600
G1 X20.076 Y21.85 Z0 F600
G1 X20.262 Y22.092 Z0 F600
G1 X20.471 Y22.292 Z0 F600
G1 X20.697 Y22.455 Z0 F600
G1 X20.936 Y22.586 Z0 F600
G1 X21.428 Y22.773 Z0 F600
G1 X21.886 Y22.889 Z0 F600
G1 X21.89 Y22.904 Z0 F600
G1 X21.972 Y23.063 Z0 F600
G1 X22.059 Y23.223 Z0 F600
G1 X22.205 Y23.409 Z0 F600
G1 X22.308 Y23.496 Z0 F600
G1 X22.433 Y23.57 Z0 F600
G1 X22.573 Y23.626 Z0 F600
G1 X22.722 Y23.661 Z0 F600
G1 X23.007 Y23.689 Z0 F600
G1 X23.267 Y23.679 Z0 F600
G1 X23.499 Y23.647 Z0 F600
G1 X23.701 Y23.614 Z0 F600
G1 X23.873 Y23.591 Z0 F600
G1 X24.012 Y23.586 Z0 F600
G1 X24.128 Y23.602 Z0 F600
G1 X24.234 Y23.641 Z0 F600
G1 X24.617 Y23.841 Z0 F600
G1 X24.941 Y24.065 Z0 F600
G1 X25.039 Y24.162 Z0 F600
G1 X25.099 Y24.251 Z0 F600
G1 X25.13 Y24.337 Z0 F600
G1 X25.14 Y24.426 Z0 F600
G1 X25.128 Y24.438 Z0 F600
G1 X25.089 Y24.504 Z0 F600
; --- FIX X Backlash ---
G0 X24.389 Y24.504 F410
G1 X24.338 Y24.656 Z0 F600
G1 X24.319 Y24.852 Z0 F600
G1 X24.338 Y25.06 Z0 F600
; --- FIX X Backlash ---
G0 X25.038 Y25.06 F410
G1 X25.103 Y25.249 Z0 F600
; --- FIX Y Backlash ---
G0 X25.103 Y24.749 F410
G1 X25.056 Y24.62 Z0 F600
; --- FIX Y Backlash ---
G0 X25.056 Y25.12 F410
G1 X25.126 Y25.582 Z0 F600
G1 X25.134 Y26.039 Z0 F600
; --- FIX X Backlash ---
G0 X24.434 Y26.039 F410
G1 X24.375 Y26.486 Z0 F600
G1 X24.245 Y26.918 Z0 F600
G1 X24.229 Y26.959 Z0 F600
G1 X24.192 Y27.169 Z0 F600
G1 X24.196 Y27.377 Z0 F600
G1 X24.237 Y27.574 Z0 F600
; --- FIX X Backlash ---
G0 X24.937 Y27.574 F410
G1 X25.007 Y27.747 Z0 F600
G1 X25.195 Y28.01 Z0 F600
G1 X25.39 Y28.198 Z0 F600
G1 X25.528 Y28.321 Z0 F600
G1 X25.628 Y28.418 Z0 F600
; --- FIX X Backlash ---
G0 X24.928 Y28.418 F410
G1 X24.592 Y28.813 Z0 F600
G1 X24.196 Y29.178 Z0 F600
G1 X23.756 Y29.516 Z0 F600
G1 X23.282 Y29.829 Z0 F600
G1 X23.276 Y29.826 Z0 F600
G1 X23.26 Y29.815 Z0 F600
; --- FIX Y Backlash ---
G0 X23.26 Y29.315 F410
G1 X23.185 Y29.249 Z0 F600
G1 X23.088 Y29.155 Z0 F600
G1 X22.957 Y29.046 Z0 F600
G1 X22.778 Y28.93 Z0 F600
G1 X22.648 Y28.879 Z0 F600
G1 X22.508 Y28.868 Z0 F600
G1 X21.718 Y28.891 Z0 F600
G1 X20.873 Y28.937 Z0 F600
; --- FIX Y Backlash ---
G0 X20.873 Y29.437 F410
G1 X20.442 Y29.5 Z0 F600
G1 X20.011 Y29.608 Z0 F600
G1 X19.586 Y29.772 Z0 F600
G1 X19.171 Y30.006 Z0 F600
G1 X18.932 Y30.135 Z0 F600
G1 X18.723 Y30.292 Z0 F600
G1 X18.545 Y30.475 Z0 F600
G1 X18.395 Y30.677 Z0 F600
G1 X18.273 Y30.896 Z0 F600
G1 X18.177 Y31.124 Z0 F600
G1 X18.108 Y31.359 Z0 F600
G1 X18.077 Y31.522 Z0 F600
G1 X17.8 Y32.242 Z0 F600
G1 X17.552 Y33.036 Z0 F600
G1 X17.455 Y33.445 Z0 F600
G1 X17.38 Y33.863 Z0 F600
G1 X17.331 Y34.289 Z0 F600
G1 X17.312 Y34.711 Z0 F600
G1 X17.224 Y35.313 Z0 F600
G1 X17.059 Y35.959 Z0 F600
G1 X16.886 Y36.65 Z0 F600
G1 X16.772 Y37.399 Z0 F600
G1 X16.777 Y37.512 Z0 F600
G1 X16.807 Y37.622 Z0 F600
; --- FIX X Backlash ---
G0 X17.507 Y37.622 F410
G1 X17.642 Y37.933 Z0 F600
G1 X17.753 Y38.186 Z0 F600
G1 X17.825 Y38.397 Z0 F600
G1 X17.839 Y38.584 Z0 F600
G1 X17.835 Y38.641 Z0 F600
G1 X17.85 Y39.213 Z0 F600
G1 X17.87 Y39.765 Z0 F600
G1 X17.878 Y40.293 Z0 F600
G1 X17.855 Y40.795 Z0 F600
; --- FIX X Backlash ---
G0 X17.155 Y40.795 F410
G1 X16.99 Y40.913 Z0 F600
G1 X16.786 Y41.067 Z0 F600
G1 X16.568 Y41.294 Z0 F600
G1 X16.382 Y41.602 Z0 F600
G1 X15.802 Y41.808 Z0 F600
G1 X15.194 Y42.032 Z0 F600
G1 X14.58 Y42.31 Z0 F600
G1 X13.983 Y42.678 Z0 F600
G1 X13.936 Y42.717 Z0 F600
G1 X13.893 Y42.762 Z0 F600
G1 X13.618 Y43.169 Z0 F600
G1 X13.428 Y43.596 Z0 F600
G1 X13.306 Y44.033 Z0 F600
G1 X13.236 Y44.473 Z0 F600
G1 X13.187 Y45.326 Z0 F600
G1 X13.149 Y46.088 Z0 F600
G1 Y46.116 Z0 F600
G1 X13.138 Y46.461 Z0 F600
G1 X13.122 Y46.813 Z0 F600
G1 X13.114 Y47.19 Z0 F600
G1 X13.13 Y47.584 Z0 F600
; --- FIX X Backlash ---
G0 X13.83 Y47.584 F410
G1 X13.89 Y47.994 Z0 F600
G1 X14.02 Y48.405 Z0 F600
G1 X14.116 Y48.605 Z0 F600
G1 X14.235 Y48.798 Z0 F600
G1 X14.382 Y48.981 Z0 F600
G1 X14.556 Y49.151 Z0 F600
G1 X14.542 Y49.139 Z0 F600
G1 X14.699 Y49.319 Z0 F600
G1 X14.809 Y49.526 Z0 F600
G1 X14.88 Y49.764 Z0 F600
G1 X14.925 Y50.04 Z0 F600
G1 X14.963 Y50.686 Z0 F600
G1 X15.017 Y51.407 Z0 F600
; --- FIX Y Backlash ---
G0 X15.017 Y50.907 F410
G1 X15.011 Y50.844 Z0 F600
; --- FIX Y Backlash ---
G0 X15.011 Y51.344 F410
G1 X15.033 Y52.036 Z0 F600
G1 X15.067 Y52.698 Z0 F600
G1 X15.08 Y53.329 Z0 F600
G1 X15.039 Y53.926 Z0 F600
G1 X15.021 Y53.931 Z0 F600
; --- FIX X Backlash ---
G0 X14.321 Y53.931 F410
G1 X14.239 Z0 F600
G1 X14.091 Y53.92 Z0 F600
G1 X13.914 Y53.904 Z0 F600
G1 X13.708 Y53.899 Z0 F600
G1 X13.473 Y53.922 Z0 F600
G1 X13.516 Y53.916 Z0 F600
G1 X13.36 Y53.913 Z0 F600
G1 X13.197 Y53.883 Z0 F600
; --- FIX Y Backlash ---
G0 X13.197 Y53.383 F410
G1 X13.044 Y53.329 Z0 F600
G1 X12.915 Y53.254 Z0 F600
G1 X12.819 Y53.172 Z0 F600
G1 X12.757 Y53.086 Z0 F600
G1 X12.726 Y52.985 Z0 F600
G1 Y52.859 Z0 F600
G1 X12.731 Y52.826 Z0 F600
G1 Y52.793 Z0 F600
G1 X12.663 Y47.609 Z0 F600
G1 X12.646 Y42.422 Z0 F600
G1 X12.651 Y37.232 Z0 F600
G1 X12.645 Y32.039 Z0 F600
G1 X12.649 Y26.721 Z0 F600
G1 X12.641 Y21.409 Z0 F600
G1 X12.655 Y16.1 Z0 F600
; --- FIX X Backlash ---
G0 X13.355 Y16.1 F410
G1 X13.423 Y10.795 Z0 F600
; --- FIX Y Backlash ---
G0 X13.423 Y11.295 F410
G1 X13.414 Y11.377 Z0 F600
; --- FIX Y Backlash ---
G0 X13.414 Y10.877 F410
G1 X13.458 Y10.385 Z0 F600
G1 X13.462 Y9.98 Z0 F600
G1 X13.498 Y9.794 Z0 F600
G1 X13.554 Y9.689 Z0 F600
G1 X14.151 Y9.635 Z0 F600
G1 X14.781 Y9.624 Z0 F600
G1 X15.441 Z0 F600
G1 X16.13 Y9.602 Z0 F600
G1 X26.15 Y9.565 Z0 F600
G1 X36.171 Y9.554 Z0 F600
G1 X46.192 Z0 F600
G1 X56.214 Y9.551 Z0 F600
; --- FIX Y Backlash ---
G0 X56.214 Y10.051 F410
G1 X56.425 Y10.201 Z0 F600
G1 X56.578 Y10.334 Z0 F600
G1 X56.63 Y10.395 Z0 F600
G1 X56.656 Y10.436 Z0 F600
G1 X56.659 Y10.479 Z0 F600
G1 X56.626 Y10.613 Z0 F600
G1 X56.621 Y10.684 Z0 F600
G1 X56.618 Y20.209 Z0 F600
G1 X56.607 Y29.736 Z0 F600
G1 X56.61 Y39.264 Z0 F600
G1 X56.65 Y48.795 Z0 F600
G1 X56.637 Y50.059 Z0 F600
G1 X56.632 Y51.308 Z0 F600
G1 X56.596 Y52.539 Z0 F600
; --- FIX X Backlash ---
G0 X55.896 Y52.539 F410
G1 X55.788 Y53.746 Z0 F600
G1 X55.726 Y53.847 Z0 F600
G1 X55.628 Y53.912 Z0 F600
G1 X55.456 Y53.949 Z0 F600
G1 X55.247 Y53.934 Z0 F600
G1 X55.196 Y53.925 Z0 F600
G1 X55.143 Y53.922 Z0 F600
G1 X27.835 Z0 F600
; --- FIX Y Backlash ---
G0 X27.835 Y53.422 F410
G1 X27.882 Y53.365 Z0 F600
G1 X27.919 Y53.329 Z0 F600
; --- FIX X Backlash ---
G0 X28.619 Y53.329 F410
G1 X28.686 Y53.294 Z0 F600
G1 X28.748 Y53.25 Z0 F600
G1 X28.933 Y53.108 Z0 F600
G1 X29.059 Y52.997 Z0 F600
G1 X29.191 Y52.854 Z0 F600
G1 X29.257 Y52.766 Z0 F600
G1 X29.318 Y52.66 Z0 F600
G1 X29.367 Y52.535 Z0 F600
G1 X29.394 Y52.389 Z0 F600
G1 X29.389 Y52.23 Z0 F600
G1 X29.348 Y52.072 Z0 F600
; --- FIX X Backlash ---
G0 X28.648 Y52.072 F410
G1 X28.577 Y51.925 Z0 F600
G1 X28.574 Y51.921 Z0 F600
G1 X28.551 Y51.806 Z0 F600
G1 X28.431 Y51.562 Z0 F600
G1 X28.28 Y51.363 Z0 F600
G1 X28.126 Y51.206 Z0 F600
G1 X27.99 Y51.076 Z0 F600
G1 X27.879 Y50.967 Z0 F600
G1 X27.797 Y50.879 Z0 F600
G1 X27.751 Y50.817 Z0 F600
G1 X27.726 Y50.775 Z0 F600
G1 X27.698 Y50.737 Z0 F600
G1 X27.622 Y50.604 Z0 F600
G1 X27.543 Y50.482 Z0 F600
G1 X27.428 Y50.338 Z0 F600
G1 X27.35 Y50.26 Z0 F600
G1 X27.251 Y50.184 Z0 F600
G1 X27.13 Y50.119 Z0 F600
G1 X26.989 Y50.075 Z0 F600
G1 X26.84 Y50.085 Z0 F600
G1 X26.692 Y50.127 Z0 F600
G1 X26.63 Y50.083 Z0 F600
G1 X26.552 Y50.041 Z0 F600
G1 X26.448 Y50.004 Z0 F600
G1 X26.315 Y49.986 Z0 F600
G1 X26.171 Y50 Z0 F600
G1 X26.038 Y50.047 Z0 F600
; --- FIX Y Backlash ---
G0 X26.038 Y50.547 F410
G1 X25.922 Y50.613 Z0 F600
G1 X25.909 Y50.624 Z0 F600
G1 X25.631 Y50.755 Z0 F600
G1 X25.269 Y50.914 Z0 F600
G1 X25.076 Y51.016 Z0 F600
G1 X24.883 Y51.141 Z0 F600
G1 X24.697 Y51.294 Z0 F600
G1 X24.524 Y51.482 Z0 F600
G1 X24.462 Y51.584 Z0 F600
G1 X24.426 Y51.697 Z0 F600
G1 X24.389 Y51.969 Z0 F600
G1 X24.379 Y52.254 Z0 F600
G1 X24.402 Y52.548 Z0 F600
; --- FIX X Backlash ---
G0 X25.102 Y52.548 F410
G1 X25.167 Y52.846 Z0 F600
G1 X25.292 Y53.141 Z0 F600
G1 X25.483 Y53.416 Z0 F600
G1 X25.741 Y53.649 Z0 F600
G1 X26.066 Y53.816 Z0 F600
G1 X26.021 Y53.799 Z0 F600
G1 X26.214 Y53.898 Z0 F600
; --- FIX X Backlash ---
G0 X25.514 Y53.898 F410
G1 X23.457 Y53.914 Z0 F600
G1 X21.38 Y53.92 Z0 F600
; --- FIX X Backlash ---
G0 X22.08 Y53.92 F410
G1 X22.146 Y53.924 Z0 F600
; --- FIX X Backlash ---
G0 X21.446 Y53.924 F410
G1 X20.888 Y53.901 Z0 F600
G1 X20.407 Y53.908 Z0 F600
G1 X20.243 Y53.895 Z0 F600
G1 X20.112 Y53.865 Z0 F600
G1 X20.002 Y53.822 Z0 F600
; --- FIX Y Backlash ---
G0 X20.002 Y53.322 F410
G1 X19.907 Y53.268 Z0 F600
G1 X19.822 Y52.981 Z0 F600
G1 X19.762 Y52.681 Z0 F600
G1 X19.724 Y52.371 Z0 F600
G1 X19.707 Y52.051 Z0 F600
G1 X19.719 Y51.391 Z0 F600
; --- FIX X Backlash ---
G0 X20.419 Y51.391 F410
G1 X20.476 Y50.715 Z0 F600
G1 X20.591 Y50.46 Z0 F600
G1 X20.748 Y50.214 Z0 F600
G1 X20.939 Y49.972 Z0 F600
G1 X21.156 Y49.729 Z0 F600
G1 X21.64 Y49.223 Z0 F600
G1 X22.136 Y48.66 Z0 F600
G1 X22.167 Y48.613 Z0 F600
G1 X22.289 Y48.462 Z0 F600
G1 X22.449 Y48.324 Z0 F600
G1 X22.63 Y48.214 Z0 F600
G1 X22.818 Y48.143 Z0 F600
G1 X22.989 Y48.113 Z0 F600
G1 X23.136 Y48.125 Z0 F600
; --- FIX Y Backlash ---
G0 X23.136 Y48.625 F410
G1 X23.267 Y48.683 Z0 F600
G1 X23.388 Y48.795 Z0 F600
G1 X23.357 Y48.752 Z0 F600
G1 X23.582 Y49.036 Z0 F600
G1 X23.835 Y49.27 Z0 F600
G1 X24.108 Y49.463 Z0 F600
G1 X24.392 Y49.622 Z0 F600
G1 X24.96 Y49.867 Z0 F600
G1 X25.476 Y50.066 Z0 F600
G1 X25.563 Y50.094 Z0 F600
G1 X25.654 Y50.105 Z0 F600
G1 X26.312 Y50.096 Z0 F600
G1 X26.933 Y50.064 Z0 F600
G1 X27.515 Y50.056 Z0 F600
G1 X28.058 Y50.117 Z0 F600
G1 X28.095 Y50.124 Z0 F600
G1 X28.463 Y50.165 Z0 F600
G1 X28.808 Y50.232 Z0 F600
G1 X29.541 Y50.407 Z0 F600
G1 X29.716 Y50.415 Z0 F600
; --- FIX Y Backlash ---
G0 X29.716 Y49.915 F410
G1 X29.882 Y49.86 Z0 F600
G1 X30.163 Y49.663 Z0 F600
G1 X30.376 Y49.43 Z0 F600
G1 X30.539 Y49.181 Z0 F600
G1 X30.664 Y48.938 Z0 F600
G1 X30.769 Y48.714 Z0 F600
G1 X30.864 Y48.516 Z0 F600
G1 X30.955 Y48.349 Z0 F600
G1 X31.044 Y48.221 Z0 F600
; --- FIX X Backlash ---
G0 X30.344 Y48.221 F410
; --- FIX Y Backlash ---
G0 X30.344 Y48.721 F410
G1 X30.26 Y48.797 Z0 F600
; --- FIX X Backlash ---
G0 X30.96 Y48.797 F410
; --- FIX Y Backlash ---
G0 X30.96 Y48.297 F410
G1 X31.158 Y48.1 Z0 F600
G1 X31.265 Y47.898 Z0 F600
G1 X31.313 Y47.72 Z0 F600
G1 X31.337 Y47.594 Z0 F600
G1 Y47.581 Z0 F600
G1 X31.476 Y47.571 Z0 F600
G1 X31.591 Y47.543 Z0 F600
G1 X31.749 Y47.384 Z0 F600
G1 X31.83 Y47.252 Z0 F600
G1 X31.886 Y47.169 Z0 F600
G1 X31.917 Y47.133 Z0 F600
G1 X31.903 Z0 F600
; --- FIX X Backlash ---
G0 X31.203 Y47.133 F410
G1 X31.13 Y47.163 Z0 F600
; --- FIX X Backlash ---
G0 X31.83 Y47.163 F410
G1 X31.938 Y47.108 Z0 F600
G1 X32.031 Y47.03 Z0 F600
G1 X32.051 Y47.007 Z0 F600
G1 X32.054 Y47.01 Z0 F600
G1 X32.099 Y47.014 Z0 F600
G1 X32.201 Y47.042 Z0 F600
; --- FIX Y Backlash ---
G0 X32.201 Y47.542 F410
G1 X32.344 Y47.603 Z0 F600
G1 X32.517 Y47.687 Z0 F600
G1 X32.723 Y47.775 Z0 F600
G1 X32.892 Y47.829 Z0 F600
G1 X33.068 Y47.925 Z0 F600
G1 X33.302 Y48.016 Z0 F600
G1 X33.505 Y48.081 Z0 F600
G1 X33.664 Y48.137 Z0 F600
G1 X33.756 Y48.188 Z0 F600
G1 X33.777 Y48.204 Z0 F600
G1 X33.771 Y48.234 Z0 F600
G1 X33.767 Y48.289 Z0 F600
G1 X33.788 Y48.69 Z0 F600
G1 X33.876 Y49.075 Z0 F600
G1 X34.026 Y49.437 Z0 F600
G1 X34.231 Y49.767 Z0 F600
G1 X34.488 Y50.059 Z0 F600
G1 X34.791 Y50.305 Z0 F600
G1 X35.133 Y50.499 Z0 F600
G1 X35.511 Y50.631 Z0 F600
G1 X35.568 Y50.643 Z0 F600
G1 X36.083 Y50.681 Z0 F600
G1 X36.638 Y50.711 Z0 F600
G1 X36.949 Y50.689 Z0 F600
; --- FIX Y Backlash ---
G0 X36.949 Y50.189 F410
G1 X37.273 Y50.115 Z0 F600
G1 X37.593 Y49.973 Z0 F600
G1 X37.798 Y49.816 Z0 F600
G1 X38.214 Y49.559 Z0 F600
G1 X38.622 Y49.241 Z0 F600
G1 X38.812 Y49.058 Z0 F600
G1 X38.987 Y48.854 Z0 F600
G1 X39.145 Y48.631 Z0 F600
G1 X39.245 Y48.453 Z0 F600
G1 X39.666 Y47.958 Z0 F600
G1 X40.135 Y47.401 Z0 F600
G1 X40.358 Y47.097 Z0 F600
G1 X40.564 Y46.771 Z0 F600
G1 X40.744 Y46.418 Z0 F600
G1 X40.888 Y46.035 Z0 F600
G1 X40.91 Y45.913 Z0 F600
G1 X40.899 Y45.79 Z0 F600
G1 X40.859 Y45.674 Z0 F600
; --- FIX X Backlash ---
G0 X40.159 Y45.674 F410
G1 X40.091 Y45.57 Z0 F600
G1 X40.04 Y45.467 Z0 F600
G1 X40.036 Y45.367 Z0 F600
G1 X40.045 Y45.322 Z0 F600
; --- FIX X Backlash ---
G0 X40.745 Y45.322 F410
G1 X40.806 Y45.305 Z0 F600
G1 X40.843 Y45.297 Z0 F600
G1 X41.073 Y45.225 Z0 F600
G1 X41.293 Y45.127 Z0 F600
G1 X41.501 Y45.004 Z0 F600
G1 X41.693 Y44.856 Z0 F600
G1 X41.866 Y44.685 Z0 F600
G1 X42.015 Y44.489 Z0 F600
G1 X42.139 Y44.271 Z0 F600
G1 X42.232 Y44.031 Z0 F600
G1 X42.254 Y43.891 Z0 F600
G1 X42.236 Y43.75 Z0 F600
; --- FIX X Backlash ---
G0 X41.536 Y43.75 F410
G1 X41.446 Y43.497 Z0 F600
G1 X41.342 Y43.27 Z0 F600
G1 X41.238 Y43.065 Z0 F600
G1 X41.147 Y42.881 Z0 F600
G1 X41.106 Y42.733 Z0 F600
G1 X41.098 Y42.619 Z0 F600
; --- FIX X Backlash ---
G0 X41.798 Y42.619 F410
G1 X41.859 Y42.605 Z0 F600
G1 X41.916 Y42.6 Z0 F600
G1 X42.048 Y42.639 Z0 F600
; --- FIX Y Backlash ---
G0 X42.048 Y43.139 F410
G1 X42.103 Y43.203 Z0 F600
G1 X42.122 Y43.242 Z0 F600
G1 X42.391 Y43.705 Z0 F600
G1 X42.633 Y44.178 Z0 F600
G1 X42.896 Y44.676 Z0 F600
G1 X43.203 Y45.176 Z0 F600
G1 X43.17 Y46.122 Z0 F600
; --- FIX X Backlash ---
G0 X42.47 Y46.122 F410
G1 X42.397 Y47.1 Z0 F600
G1 X42.344 Y48.107 Z0 F600
G1 X42.372 Y49.143 Z0 F600
G1 X42.396 Y49.259 Z0 F600
; --- FIX X Backlash ---
G0 X43.096 Y49.259 F410
G1 X43.148 Y49.365 Z0 F600
G1 X43.293 Y49.565 Z0 F600
G1 X43.454 Y49.739 Z0 F600
G1 X43.628 Y49.889 Z0 F600
G1 X43.813 Y50.018 Z0 F600
G1 X44.199 Y50.222 Z0 F600
G1 X44.589 Y50.369 Z0 F600
G1 X44.968 Y50.484 Z0 F600
G1 X45.327 Y50.584 Z0 F600
G1 X45.655 Y50.685 Z0 F600
G1 X45.941 Y50.797 Z0 F600
G1 X46.499 Y51.041 Z0 F600
G1 X47.098 Y51.251 Z0 F600
G1 X47.415 Y51.327 Z0 F600
G1 X47.743 Y51.376 Z0 F600
G1 X48.084 Y51.391 Z0 F600
G1 X48.437 Y51.365 Z0 F600
G1 X48.388 Y51.369 Z0 F600
; --- FIX Y Backlash ---
G0 X48.388 Y50.869 F410
G1 X49.345 Y50.81 Z0 F600
G1 X50.279 Y50.725 Z0 F600
G1 X51.191 Y50.658 Z0 F600
G1 X52.707 Y50.654 Z0 F600
G1 X53.369 Y50.613 Z0 F600
G1 X53.712 Y50.542 Z0 F600
G1 X54.057 Y50.416 Z0 F600
G1 X54.388 Y50.221 Z0 F600
G1 X54.9 Y49.759 Z0 F600
G1 X55.11 Y49.547 Z0 F600
G1 X55.308 Y49.309 Z0 F600
G1 X55.482 Y49.039 Z0 F600
G1 X55.623 Y48.72 Z0 F600
G1 X55.706 Y48.365 Z0 F600
G1 X55.711 Y47.987 Z0 F600
; --- FIX X Backlash ---
G0 X55.011 Y47.987 F410
G1 X54.923 Y47.598 Z0 F600
; --- FIX Y Backlash ---
G0 X54.923 Y48.098 F410
G1 X54.944 Y48.18 Z0 F600
; --- FIX Y Backlash ---
G0 X54.944 Y47.68 F410
G1 X54.133 Y43.461 Z0 F600
G1 X54.116 Y43.391 Z0 F600
G1 X54.089 Y43.324 Z0 F600
G1 X53.631 Y42.486 Z0 F600
G1 X53.116 Y41.677 Z0 F600
G1 X52.551 Y40.903 Z0 F600
G1 X51.938 Y40.168 Z0 F600
G1 X51.903 Y40.133 Z0 F600
G1 X51.611 Y39.892 Z0 F600
G1 X51.298 Y39.683 Z0 F600
G1 X50.967 Y39.505 Z0 F600
G1 X50.623 Y39.36 Z0 F600
G1 X50.267 Y39.245 Z0 F600
G1 X49.905 Y39.162 Z0 F600
G1 X49.54 Y39.109 Z0 F600
G1 X49.175 Y39.086 Z0 F600
G1 X49.034 Y39.104 Z0 F600
; --- FIX Y Backlash ---
G0 X49.034 Y39.604 F410
G1 X48.905 Y39.66 Z0 F600
G1 X48.718 Y39.786 Z0 F600
G1 X48.415 Y40.016 Z0 F600
G1 X48.294 Y40.096 Z0 F600
G1 X48.207 Y40.146 Z0 F600
G1 X48.152 Y40.168 Z0 F600
G1 X48.106 Y40.164 Z0 F600
; --- FIX Y Backlash ---
G0 X48.106 Y39.664 F410
G1 X47.781 Y39.501 Z0 F600
G1 X47.56 Y39.368 Z0 F600
G1 X47.359 Y39.221 Z0 F600
G1 X47.188 Y39.063 Z0 F600
G1 X47.056 Y38.901 Z0 F600
G1 X46.964 Y38.735 Z0 F600
G1 X46.912 Y38.556 Z0 F600
G1 X46.903 Y38.357 Z0 F600
G1 Y38.33 Z0 F600
G1 X46.882 Y37.635 Z0 F600
G1 X46.906 Y36.993 Z0 F600
G1 X46.944 Y36.685 Z0 F600
; --- FIX X Backlash ---
G0 X47.644 Y36.685 F410
G1 X47.703 Y36.387 Z0 F600
G1 X47.787 Y36.1 Z0 F600
G1 X47.9 Y35.826 Z0 F600
G1 X47.935 Y35.726 Z0 F600
G1 X47.947 Y35.621 Z0 F600
G1 X47.937 Y35.516 Z0 F600
G1 X47.904 Y35.414 Z0 F600
; --- FIX X Backlash ---
G0 X47.204 Y35.414 F410
G1 X46.982 Y34.969 Z0 F600
G1 X46.675 Y34.521 Z0 F600
G1 X46.481 Y34.317 Z0 F600
G1 X46.256 Y34.14 Z0 F600
G1 X45.994 Y33.997 Z0 F600
G1 X45.694 Y33.896 Z0 F600
G1 X45.217 Y33.714 Z0 F600
G1 X44.739 Y33.596 Z0 F600
G1 X44.267 Y33.524 Z0 F600
G1 X43.805 Y33.482 Z0 F600
G1 X43.165 Y33.322 Z0 F600
G1 X42.531 Y33.229 Z0 F600
G1 X41.909 Y33.183 Z0 F600
G1 X41.301 Y33.158 Z0 F600
G1 X40.939 Y33.054 Z0 F600
G1 X40.512 Y32.917 Z0 F600
G1 X40.273 Y32.86 Z0 F600
G1 X40.016 Y32.824 Z0 F600
G1 X39.741 Y32.818 Z0 F600
G1 X39.514 Y32.844 Z0 F600
G1 X38.94 Y32.847 Z0 F600
G1 X38.372 Y32.868 Z0 F600
G1 X37.852 Z0 F600
G1 X37.383 Y32.811 Z0 F600
G1 X37.371 Y32.77 Z0 F600
G1 X37.366 Y32.711 Z0 F600
G1 X37.4 Y32.478 Z0 F600
; --- FIX X Backlash ---
G0 X38.1 Y32.478 F410
G1 X38.16 Y32.23 Z0 F600
G1 X38.167 Y32.174 Z0 F600
G1 X38.193 Y32.168 Z0 F600
G1 X38.34 Y32.148 Z0 F600
G1 X38.537 Y32.12 Z0 F600
G1 X38.77 Y32.045 Z0 F600
G1 X39.027 Y31.891 Z0 F600
; --- FIX X Backlash ---
G0 X38.327 Y31.891 F410
G1 X38.264 Y31.932 Z0 F600
; --- FIX X Backlash ---
G0 X38.964 Y31.932 F410
G1 X39.436 Y31.707 Z0 F600
G1 X39.91 Y31.57 Z0 F600
G1 X40.144 Y31.542 Z0 F600
G1 X40.375 Y31.545 Z0 F600
G1 X40.6 Y31.582 Z0 F600
; --- FIX Y Backlash ---
G0 X40.6 Y32.082 F410
G1 X40.818 Y32.154 Z0 F600
G1 X40.808 Y32.15 Z0 F600
G1 X41.279 Y32.312 Z0 F600
G1 X41.756 Y32.384 Z0 F600
G1 X42.23 Y32.38 Z0 F600
; --- FIX Y Backlash ---
G0 X42.23 Y31.88 F410
G1 X42.613 Y31.824 Z0 F600
G1 X43.244 Z0 F600
G1 X43.871 Y31.861 Z0 F600
; --- FIX Y Backlash ---
G0 X43.871 Y32.361 F410
G1 X44.476 Y32.453 Z0 F600
G1 X45.05 Y32.615 Z0 F600
G1 X45.186 Y32.644 Z0 F600
G1 X45.321 Y32.634 Z0 F600
G1 X45.449 Y32.587 Z0 F600
; --- FIX Y Backlash ---
G0 X45.449 Y32.087 F410
G1 X45.56 Y32.006 Z0 F600
G1 X45.816 Y31.726 Z0 F600
G1 X46.039 Y31.421 Z0 F600
G1 X46.228 Y31.097 Z0 F600
G1 X46.382 Y30.757 Z0 F600
G1 X46.503 Y30.404 Z0 F600
G1 X46.591 Y30.043 Z0 F600
G1 X46.645 Y29.677 Z0 F600
G1 X46.666 Y29.311 Z0 F600
G1 X46.66 Y29.233 Z0 F600
G1 X46.642 Y29.158 Z0 F600
; --- FIX X Backlash ---
G0 X45.942 Y29.158 F410
G1 X45.791 Y28.77 Z0 F600
G1 X45.573 Y28.39 Z0 F600
G1 X45.436 Y28.212 Z0 F600
G1 X45.278 Y28.048 Z0 F600
G1 X45.097 Y27.901 Z0 F600
G1 X44.893 Y27.775 Z0 F600
G1 X44.823 Y27.744 Z0 F600
G1 X44.749 Y27.725 Z0 F600
G1 X44.569 Y27.718 Z0 F600
G1 X44.373 Y27.758 Z0 F600
; --- FIX Y Backlash ---
G0 X44.373 Y28.258 F410
G1 X44.188 Y28.346 Z0 F600
G1 X44.044 Y28.482 Z0 F600
G1 X43.957 Y28.637 Z0 F600
G1 X43.916 Y28.777 Z0 F600
G1 X43.905 Y28.901 Z0 F600
G1 Y29.01 Z0 F600
G1 X43.919 Y29.19 Z0 F600
G1 X43.932 Y29.328 Z0 F600
G1 Y29.408 Z0 F600
G1 X43.946 Y29.371 Z0 F600
G1 X43.938 Y29.396 Z0 F600
G1 X43.884 Y29.665 Z0 F600
G1 X43.881 Y29.888 Z0 F600
G1 X43.919 Y30.219 Z0 F600
G1 X43.31 Y30.183 Z0 F600
G1 X42.756 Y30.162 Z0 F600
G1 X42.644 Z0 F600
G1 X42.578 Y30.146 Z0 F600
; --- FIX Y Backlash ---
G0 X42.578 Y29.646 F410
G1 X42.556 Y28.537 Z0 F600
G0 Z3.5 F600
; --- FIX Y Backlash ---
G0 X42.556 Y29.037 F410
G0 X30.524 Y48.136 Z3.5
G1 Z0 F600
G1 X30.467 Y48.162 Z0 F600
G1 X30.343 Y48.145 Z0 F600
; --- FIX X Backlash ---
G0 X31.043 Y48.145 F410
G1 X31.124 Y48.131 Z0 F600
G1 X31.209 Y48.106 Z0 F600
G1 X31.298 Y48.084 Z0 F600
; --- FIX X Backlash ---
G0 X30.598 Y48.084 F410
G1 X30.524 Y48.136 Z0 F600
G0 Z3.5 F600
G0 X26.629 Y50.657 Z3.5
G1 Z0 F600
G1 X26.571 Y50.664 Z0 F600
G1 X26.486 Y50.667 Z0 F600
G1 X26.415 Y50.676 Z0 F600
; --- FIX X Backlash ---
G0 X27.115 Y50.676 F410
G1 X27.214 Y50.653 Z0 F600
G1 X27.32 Y50.639 Z0 F600
G1 X27.329 Y50.657 Z0 F600
;Cut @ 444 mm/min, 80% power

M8
G0 Z3.5 F600
; --- FIX X Backlash ---
G0 X26.629 Y50.657 F410
G0 X17.801 Y53.904 Z3.5
G1 Z0 F600
;Layer C3 Pass 1 of 2
; --- FIX Y Backlash ---
G0 X17.801 Y53.404 F410
G1 X17.786 Y53.021 Z0 F600
G1 X17.781 Y52.78 Z0 F600
G1 X17.788 Y52.256 Z0 F600
G1 X17.834 Y51.817 Z0 F600
G1 X17.854 Y51.438 Z0 F600
G1 X17.805 Y51.012 Z0 F600
G1 X17.738 Y50.593 Z0 F600
G1 X17.704 Y50.231 Z0 F600
G1 X17.728 Y49.898 Z0 F600
; --- FIX X Backlash ---
G0 X18.428 Y49.898 F410
G1 X18.497 Y49.556 Z0 F600
G1 X18.609 Y49.244 Z0 F600
G1 X18.76 Y49.001 Z0 F600
G1 X19.254 Y48.35 Z0 F600
G1 X19.699 Y47.771 Z0 F600
G1 X19.858 Y47.617 Z0 F600
G1 X20.071 Y47.383 Z0 F600
G1 X20.189 Y47.231 Z0 F600
G1 X20.309 Y47.052 Z0 F600
G1 X20.427 Y46.845 Z0 F600
G1 X20.541 Y46.606 Z0 F600
G1 X20.76 Y46.032 Z0 F600
G1 X20.961 Y45.408 Z0 F600
G1 X21.046 Y45.117 Z0 F600
G1 X21.114 Y44.858 Z0 F600
G1 X21.163 Y44.648 Z0 F600
G1 X21.188 Y44.502 Z0 F600
G1 X21.183 Y44.412 Z0 F600
G1 X21.15 Y44.352 Z0 F600
; --- FIX X Backlash ---
G0 X20.45 Y44.352 F410
G1 X20.395 Y44.311 Z0 F600
G1 X20.326 Y44.275 Z0 F600
G1 X20.252 Y44.234 Z0 F600
G1 X20.178 Y44.174 Z0 F600
G1 X20.114 Y44.084 Z0 F600
G1 X20.067 Y43.952 Z0 F600
G1 X19.82 Y43.098 Z0 F600
G1 X19.773 Y42.87 Z0 F600
G1 X19.753 Y42.664 Z0 F600
G1 X19.772 Y42.491 Z0 F600
; --- FIX X Backlash ---
G0 X20.472 Y42.491 F410
G1 X20.541 Y42.366 Z0 F600
G1 X20.682 Y42.261 Z0 F600
G1 X20.893 Y42.145 Z0 F600
G1 X21.146 Y42.027 Z0 F600
G1 X21.415 Y41.913 Z0 F600
G1 X21.671 Y41.811 Z0 F600
G1 X21.888 Y41.728 Z0 F600
G1 X22.094 Y41.654 Z0 F600
; --- FIX Y Backlash ---
G0 X22.094 Y42.154 F410
G1 X22.141 Y42.287 Z0 F600
G1 X22.251 Y42.616 Z0 F600
G1 X22.337 Y42.894 Z0 F600
G1 X22.417 Y43.183 Z0 F600
G1 X22.477 Y43.451 Z0 F600
G1 X22.503 Y43.668 Z0 F600
G1 X22.483 Y43.804 Z0 F600
; --- FIX X Backlash ---
G0 X21.783 Y43.804 F410
G1 X21.707 Y43.913 Z0 F600
G1 X21.592 Y44.053 Z0 F600
G1 X21.454 Y44.208 Z0 F600
G1 X21.308 Y44.365 Z0 F600
G1 X21.226 Y44.378 Z0 F600
; --- FIX Y Backlash ---
G0 X21.226 Y43.878 F410
G1 X21.12 Y43.796 Z0 F600
G1 X21.001 Y43.648 Z0 F600
G1 X20.88 Y43.461 Z0 F600
G1 X20.767 Y43.266 Z0 F600
G1 X20.673 Y43.091 Z0 F600
G1 X20.585 Y42.916 Z0 F600
;Layer C3 Pass 2 of 2
; --- FIX X Backlash ---
G0 X21.285 Y42.916 F410
; --- FIX Y Backlash ---
G0 X21.285 Y43.416 F410
G1 X21.373 Y43.591 Z0 F600
G1 X21.467 Y43.766 Z0 F600
G1 X21.58 Y43.961 Z0 F600
G1 X21.701 Y44.148 Z0 F600
G1 X21.82 Y44.296 Z0 F600
G1 X21.926 Y44.378 Z0 F600
G1 X22.008 Y44.365 Z0 F600
; --- FIX Y Backlash ---
G0 X22.008 Y43.865 F410
G1 X22.154 Y43.708 Z0 F600
G1 X22.292 Y43.553 Z0 F600
G1 X22.407 Y43.413 Z0 F600
G1 X22.483 Y43.304 Z0 F600
G1 X22.503 Y43.168 Z0 F600
G1 X22.477 Y42.951 Z0 F600
; --- FIX X Backlash ---
G0 X21.777 Y42.951 F410
G1 X21.717 Y42.683 Z0 F600
G1 X21.637 Y42.394 Z0 F600
G1 X21.551 Y42.116 Z0 F600
G1 X21.441 Y41.787 Z0 F600
G1 X21.394 Y41.654 Z0 F600
; --- FIX Y Backlash ---
G0 X21.394 Y42.154 F410
G1 X21.188 Y42.228 Z0 F600
G1 X20.971 Y42.311 Z0 F600
G1 X20.715 Y42.413 Z0 F600
G1 X20.446 Y42.527 Z0 F600
G1 X20.193 Y42.645 Z0 F600
G1 X19.982 Y42.761 Z0 F600
G1 X19.841 Y42.866 Z0 F600
G1 X19.772 Y42.991 Z0 F600
G1 X19.753 Y43.164 Z0 F600
G1 X19.773 Y43.37 Z0 F600
G1 X19.82 Y43.598 Z0 F600
; --- FIX X Backlash ---
G0 X20.52 Y43.598 F410
G1 X20.767 Y44.452 Z0 F600
G1 X20.814 Y44.584 Z0 F600
G1 X20.878 Y44.674 Z0 F600
G1 X20.952 Y44.734 Z0 F600
G1 X21.026 Y44.775 Z0 F600
G1 X21.095 Y44.811 Z0 F600
G1 X21.15 Y44.852 Z0 F600
G1 X21.183 Y44.912 Z0 F600
G1 X21.188 Y45.002 Z0 F600
G1 X21.163 Y45.148 Z0 F600
G1 X21.114 Y45.358 Z0 F600
; --- FIX X Backlash ---
G0 X20.414 Y45.358 F410
G1 X20.346 Y45.617 Z0 F600
G1 X20.261 Y45.908 Z0 F600
G1 X20.06 Y46.532 Z0 F600
G1 X19.841 Y47.106 Z0 F600
G1 X19.727 Y47.345 Z0 F600
G1 X19.609 Y47.552 Z0 F600
G1 X19.489 Y47.731 Z0 F600
G1 X19.371 Y47.883 Z0 F600
G1 X19.158 Y48.117 Z0 F600
G1 X18.999 Y48.271 Z0 F600
G1 X18.554 Y48.85 Z0 F600
G1 X18.06 Y49.501 Z0 F600
G1 X17.909 Y49.744 Z0 F600
G1 X17.797 Y50.056 Z0 F600
G1 X17.728 Y50.398 Z0 F600
G1 X17.704 Y50.731 Z0 F600
G1 X17.738 Y51.093 Z0 F600
; --- FIX X Backlash ---
G0 X18.438 Y51.093 F410
G1 X18.505 Y51.512 Z0 F600
G1 X18.554 Y51.938 Z0 F600
G1 X18.534 Y52.317 Z0 F600
G1 X18.488 Y52.756 Z0 F600
G1 X18.481 Y53.28 Z0 F600
G1 X18.486 Y53.521 Z0 F600
G1 X18.501 Y53.904 Z0 F600
G0 Z3.5 F600
; --- FIX X Backlash ---
G0 X17.801 Y53.904 F410
; --- FIX Y Backlash ---
G0 X17.801 Y53.404 F410
G0 X16.571 Y44.793 Z3.5 F600
G1 Z0 F600
;Layer C3 Pass 1 of 2
; --- FIX Y Backlash ---
G0 X16.571 Y45.293 F410
G1 X16.28 Y45.585 Z0 F600
G1 X16.182 Y45.661 Z0 F600
G1 X15.956 Y45.831 Z0 F600
G1 X15.828 Y45.924 Z0 F600
G1 X15.706 Y46.008 Z0 F600
G1 X15.605 Y46.071 Z0 F600
G1 X15.535 Y46.103 Z0 F600
G1 X15.455 Z0 F600
G1 X15.324 Y46.076 Z0 F600
G1 X15.161 Y46.035 Z0 F600
G1 X14.985 Y45.985 Z0 F600
; --- FIX Y Backlash ---
G0 X14.985 Y45.485 F410
G1 X14.671 Y45.389 Z0 F600
G1 X14.532 Y45.344 Z0 F600
; --- FIX X Backlash ---
G0 X15.232 Y45.344 F410
G1 X15.366 Y45.206 Z0 F600
G1 X15.673 Y44.895 Z0 F600
G1 X15.847 Y44.722 Z0 F600
G1 X16.01 Y44.565 Z0 F600
G1 X16.146 Y44.442 Z0 F600
G1 X16.235 Y44.373 Z0 F600
G1 X16.62 Y44.134 Z0 F600
G1 X16.98 Y43.919 Z0 F600
G1 X17.063 Y43.908 Z0 F600
G1 X17.205 Y43.921 Z0 F600
G1 X17.385 Y43.956 Z0 F600
; --- FIX Y Backlash ---
G0 X17.385 Y44.456 F410
G1 X17.587 Y44.508 Z0 F600
G1 X17.792 Y44.576 Z0 F600
G1 X17.981 Y44.656 Z0 F600
G1 X18.138 Y44.745 Z0 F600
G1 X18.242 Y44.84 Z0 F600
G1 X18.295 Y44.958 Z0 F600
G1 X18.314 Y45.11 Z0 F600
G1 X18.307 Y45.283 Z0 F600
G1 X18.283 Y45.467 Z0 F600
G1 X18.249 Y45.65 Z0 F600
G1 X18.215 Y45.819 Z0 F600
G1 X18.188 Y45.963 Z0 F600
G1 X18.178 Y46.07 Z0 F600
G1 X18.145 Y46.162 Z0 F600
; --- FIX X Backlash ---
G0 X17.445 Y46.162 F410
G1 X17.356 Y46.263 Z0 F600
G1 X17.223 Y46.37 Z0 F600
G1 X17.061 Y46.475 Z0 F600
G1 X16.699 Y46.662 Z0 F600
G1 X16.377 Y46.782 Z0 F600
G1 X16.088 Y46.834 Z0 F600
G1 X15.79 Y46.859 Z0 F600
G1 X15.535 Y46.878 Z0 F600
G1 X15.374 Y46.912 Z0 F600
G1 X15.343 Y46.982 Z0 F600
G1 Y47.126 Z0 F600
G1 X15.368 Y47.319 Z0 F600
G1 X15.406 Y47.535 Z0 F600
G1 X15.45 Y47.748 Z0 F600
G1 X15.492 Y47.931 Z0 F600
G1 X15.535 Y48.109 Z0 F600
; --- FIX X Backlash ---
G0 X16.235 Y48.109 F410
G1 X16.337 Y48.858 Z0 F600
G1 X16.413 Y49.461 Z0 F600
G1 X16.443 Y49.723 Z0 F600
G1 X16.462 Y49.922 Z0 F600
G1 Y50.322 Z0 F600
G1 X16.422 Y50.812 Z0 F600
G1 X16.396 Y51.056 Z0 F600
; --- FIX X Backlash ---
G0 X15.696 Y51.056 F410
G1 X15.633 Y51.605 Z0 F600
G1 X15.628 Y51.679 Z0 F600
G1 Y51.786 Z0 F600
G1 Y52.082 Z0 F600
G1 X15.639 Y52.45 Z0 F600
G1 X15.653 Y52.848 Z0 F600
G1 X15.697 Y53.871 Z0 F600
;Layer C3 Pass 2 of 2
; --- FIX Y Backlash ---
G0 X15.697 Y53.371 F410
G1 X15.653 Y52.348 Z0 F600
G1 X15.639 Y51.95 Z0 F600
G1 X15.629 Y51.582 Z0 F600
G1 X15.626 Y51.286 Z0 F600
G1 Y51.179 Z0 F600
G1 X15.633 Y51.105 Z0 F600
; --- FIX X Backlash ---
G0 X16.333 Y51.105 F410
G1 X16.396 Y50.556 Z0 F600
G1 X16.422 Y50.312 Z0 F600
G1 X16.46 Y49.822 Z0 F600
G1 Y49.422 Z0 F600
G1 X16.443 Y49.223 Z0 F600
G1 X16.413 Y48.961 Z0 F600
; --- FIX X Backlash ---
G0 X15.713 Y48.961 F410
G1 X15.637 Y48.358 Z0 F600
G1 X15.535 Y47.609 Z0 F600
G1 X15.492 Y47.431 Z0 F600
G1 X15.45 Y47.248 Z0 F600
G1 X15.406 Y47.035 Z0 F600
G1 X15.368 Y46.819 Z0 F600
G1 X15.344 Y46.626 Z0 F600
G1 Y46.482 Z0 F600
G1 X15.374 Y46.412 Z0 F600
; --- FIX X Backlash ---
G0 X16.074 Y46.412 F410
G1 X16.235 Y46.378 Z0 F600
G1 X16.49 Y46.359 Z0 F600
G1 X16.788 Y46.334 Z0 F600
G1 X17.077 Y46.282 Z0 F600
G1 X17.399 Y46.162 Z0 F600
G1 X17.761 Y45.975 Z0 F600
G1 X17.923 Y45.87 Z0 F600
G1 X18.056 Y45.763 Z0 F600
G1 X18.145 Y45.662 Z0 F600
G1 X18.178 Y45.57 Z0 F600
G1 X18.188 Y45.463 Z0 F600
G1 X18.215 Y45.319 Z0 F600
G1 X18.249 Y45.15 Z0 F600
G1 X18.283 Y44.967 Z0 F600
G1 X18.307 Y44.783 Z0 F600
G1 X18.314 Y44.61 Z0 F600
G1 X18.295 Y44.458 Z0 F600
; --- FIX X Backlash ---
G0 X17.595 Y44.458 F410
G1 X17.542 Y44.34 Z0 F600
G1 X17.438 Y44.245 Z0 F600
G1 X17.281 Y44.156 Z0 F600
G1 X17.092 Y44.076 Z0 F600
G1 X16.887 Y44.008 Z0 F600
G1 X16.685 Y43.956 Z0 F600
G1 X16.505 Y43.921 Z0 F600
G1 X16.363 Y43.908 Z0 F600
G1 X16.28 Y43.919 Z0 F600
; --- FIX Y Backlash ---
G0 X16.28 Y44.419 F410
G1 X15.92 Y44.634 Z0 F600
G1 X15.535 Y44.873 Z0 F600
G1 X15.446 Y44.942 Z0 F600
G1 X15.31 Y45.065 Z0 F600
G1 X15.147 Y45.222 Z0 F600
G1 X14.973 Y45.395 Z0 F600
G1 X14.666 Y45.706 Z0 F600
G1 X14.532 Y45.844 Z0 F600
; --- FIX X Backlash ---
G0 X15.232 Y45.844 F410
G1 X15.371 Y45.889 Z0 F600
G1 X15.685 Y45.985 Z0 F600
G1 X15.861 Y46.035 Z0 F600
G1 X16.024 Y46.076 Z0 F600
G1 X16.155 Y46.101 Z0 F600
G1 X16.235 Z0 F600
G1 X16.305 Y46.071 Z0 F600
; --- FIX Y Backlash ---
G0 X16.305 Y45.571 F410
G1 X16.406 Y45.508 Z0 F600
G1 X16.528 Y45.424 Z0 F600
G1 X16.656 Y45.331 Z0 F600
G1 X16.882 Y45.161 Z0 F600
G1 X16.98 Y45.085 Z0 F600
G1 X17.271 Y44.793 Z0 F600
G0 Z3.5 F600
G0 X27.981 Y42.422 Z3.5
G1 Z0 F600
;Layer C3 Pass 1 of 2
; --- FIX X Backlash ---
G0 X27.281 Y42.422 F410
; --- FIX Y Backlash ---
G0 X27.281 Y42.922 F410
G1 X26.365 Y43.197 Z0 F600
; --- FIX X Backlash ---
G0 X27.065 Y43.197 F410
G1 X27.157 Y44.708 Z0 F600
; --- FIX X Backlash ---
G0 X26.457 Y44.708 F410
; --- FIX Y Backlash ---
G0 X26.457 Y44.208 F410
G1 X24.372 Y43.795 Z0 F600
; --- FIX X Backlash ---
G0 X25.072 Y43.795 F410
; --- FIX Y Backlash ---
G0 X25.072 Y44.295 F410
G1 X26.791 Y45.028 Z0 F600
; --- FIX X Backlash ---
G0 X26.091 Y45.028 F410
G1 X24.627 Y46.61 Z0 F600
; --- FIX X Backlash ---
G0 X25.327 Y46.61 F410
; --- FIX Y Backlash ---
G0 X25.327 Y46.11 F410
G1 X26.425 Y45.032 Z0 F600
; --- FIX Y Backlash ---
G0 X26.425 Y45.532 F410
G1 X26.623 Y47.426 Z0 F600
; --- FIX Y Backlash ---
G0 X26.623 Y46.926 F410
G1 X27.02 Y45.169 Z0 F600
; --- FIX Y Backlash ---
G0 X27.02 Y45.669 F410
G1 X28.329 Y47.27 Z0 F600
; --- FIX X Backlash ---
G0 X27.629 Y47.27 F410
; --- FIX Y Backlash ---
G0 X27.629 Y46.77 F410
G1 X27.098 Y45.489 Z0 F600
; --- FIX X Backlash ---
G0 X27.798 Y45.489 F410
G1 X29.585 Y45.207 Z0 F600
; --- FIX X Backlash ---
G0 X28.885 Y45.207 F410
G1 X27.098 Y44.62 Z0 F600
G1 X27.144 Y43.475 Z0 F600
; --- FIX X Backlash ---
G0 X27.844 Y43.475 F410
G1 X28.53 Y42.697 Z0 F600
G1 X29.995 Y42.285 Z0 F600
; --- FIX Y Backlash ---
G0 X29.995 Y42.785 F410
G1 X31.78 Y43.014 Z0 F600
; --- FIX Y Backlash ---
G0 X31.78 Y42.514 F410
G1 X32.37 Y42.222 Z0 F600
G1 X32.843 Y41.992 Z0 F600
G1 X33.046 Y41.896 Z0 F600
G1 X33.199 Y41.827 Z0 F600
G1 X33.305 Y41.719 Z0 F600
G1 X33.385 Y41.519 Z0 F600
G1 X33.442 Y41.26 Z0 F600
G1 X33.48 Y40.975 Z0 F600
G1 X33.503 Y40.696 Z0 F600
G1 X33.515 Y40.456 Z0 F600
G1 X33.52 Y40.225 Z0 F600
G1 X33.611 Y38.073 Z0 F600
; --- FIX X Backlash ---
G0 X32.911 Y38.073 F410
G1 X32.82 Y35.418 Z0 F600
;Layer C3 Pass 2 of 2
; --- FIX X Backlash ---
G0 X33.52 Y35.418 F410
; --- FIX Y Backlash ---
G0 X33.52 Y35.918 F410
G1 X33.611 Y38.573 Z0 F600
; --- FIX X Backlash ---
G0 X32.911 Y38.573 F410
G1 X32.82 Y40.725 Z0 F600
G1 X32.815 Y40.956 Z0 F600
G1 X32.803 Y41.196 Z0 F600
G1 X32.78 Y41.475 Z0 F600
G1 X32.742 Y41.76 Z0 F600
G1 X32.685 Y42.019 Z0 F600
G1 X32.605 Y42.219 Z0 F600
G1 X32.499 Y42.327 Z0 F600
G1 X32.346 Y42.396 Z0 F600
G1 X32.143 Y42.492 Z0 F600
G1 X31.67 Y42.722 Z0 F600
G1 X31.08 Y43.014 Z0 F600
; --- FIX Y Backlash ---
G0 X31.08 Y42.514 F410
G1 X29.295 Y42.285 Z0 F600
; --- FIX Y Backlash ---
G0 X29.295 Y42.785 F410
G1 X27.83 Y43.197 Z0 F600
G1 X27.144 Y43.975 Z0 F600
G1 X27.098 Y45.12 Z0 F600
; --- FIX X Backlash ---
G0 X27.798 Y45.12 F410
G1 X29.585 Y45.707 Z0 F600
; --- FIX X Backlash ---
G0 X28.885 Y45.707 F410
G1 X27.098 Y45.989 Z0 F600
; --- FIX X Backlash ---
G0 X27.798 Y45.989 F410
G1 X28.329 Y47.27 Z0 F600
; --- FIX X Backlash ---
G0 X27.629 Y47.27 F410
; --- FIX Y Backlash ---
G0 X27.629 Y46.77 F410
G1 X26.32 Y45.169 Z0 F600
; --- FIX Y Backlash ---
G0 X26.32 Y45.669 F410
G1 X25.923 Y47.426 Z0 F600
; --- FIX Y Backlash ---
G0 X25.923 Y46.926 F410
G1 X25.725 Y45.032 Z0 F600
; --- FIX Y Backlash ---
G0 X25.725 Y45.532 F410
G1 X24.627 Y46.61 Z0 F600
; --- FIX X Backlash ---
G0 X25.327 Y46.61 F410
; --- FIX Y Backlash ---
G0 X25.327 Y46.11 F410
G1 X26.791 Y44.528 Z0 F600
; --- FIX X Backlash ---
G0 X26.091 Y44.528 F410
G1 X24.372 Y43.795 Z0 F600
; --- FIX X Backlash ---
G0 X25.072 Y43.795 F410
; --- FIX Y Backlash ---
G0 X25.072 Y44.295 F410
G1 X27.157 Y44.708 Z0 F600
; --- FIX X Backlash ---
G0 X26.457 Y44.708 F410
; --- FIX Y Backlash ---
G0 X26.457 Y44.208 F410
G1 X26.365 Y42.697 Z0 F600
; --- FIX X Backlash ---
G0 X27.065 Y42.697 F410
G1 X27.981 Y42.422 Z0 F600
G0 Z3.5 F600
G0 X36.221 Y35.19 Z3.5
G1 Z0 F600
;Layer C3 Pass 1 of 2
; --- FIX Y Backlash ---
G0 X36.221 Y35.69 F410
G1 X36.358 Y38.894 Z0 F600
; --- FIX X Backlash ---
G0 X35.658 Y38.894 F410
G1 X35.383 Y40.771 Z0 F600
; --- FIX X Backlash ---
G0 X36.083 Y40.771 F410
G1 X36.495 Y42.007 Z0 F600
G1 X36.707 Y42.63 Z0 F600
G1 X36.837 Y43.03 Z0 F600
G1 X37.024 Y43.667 Z0 F600
G1 X37.36 Y44.753 Z0 F600
G1 X37.471 Y45.128 Z0 F600
G1 X37.56 Y45.455 Z0 F600
G1 X37.592 Y45.59 Z0 F600
G1 X37.615 Y45.701 Z0 F600
G1 X37.625 Y45.784 Z0 F600
G1 X37.622 Y45.834 Z0 F600
; --- FIX X Backlash ---
G0 X36.922 Y45.834 F410
G1 X36.436 Y47.363 Z0 F600
G1 X34.971 Y47.5 Z0 F600
; --- FIX Y Backlash ---
G0 X34.971 Y47 F410
G1 X34.841 Y46.89 Z0 F600
G1 X34.525 Y46.615 Z0 F600
G1 X34.266 Y46.38 Z0 F600
G1 X34.008 Y46.132 Z0 F600
G1 X33.782 Y45.895 Z0 F600
G1 X33.692 Y45.789 Z0 F600
G1 X33.622 Y45.694 Z0 F600
G1 X33.577 Y45.615 Z0 F600
G1 X33.562 Y45.553 Z0 F600
G1 Y45.457 Z0 F600
G1 X33.565 Y45.293 Z0 F600
G1 X33.575 Y45.083 Z0 F600
G1 X33.598 Y44.852 Z0 F600
G1 X33.637 Y44.624 Z0 F600
; --- FIX X Backlash ---
G0 X34.337 Y44.624 F410
G1 X34.398 Y44.423 Z0 F600
G1 X34.484 Y44.272 Z0 F600
G1 X34.6 Y44.197 Z0 F600
G1 X35.219 Y44.067 Z0 F600
G1 X35.722 Y43.958 Z0 F600
G1 X35.934 Y43.908 Z0 F600
G1 X36.091 Y43.865 Z0 F600
G1 X36.17 Y43.834 Z0 F600
G1 X36.206 Y43.847 Z0 F600
; --- FIX Y Backlash ---
G0 X36.206 Y44.347 F410
G1 X36.235 Y44.435 Z0 F600
G1 X36.258 Y44.587 Z0 F600
G1 X36.276 Y44.791 Z0 F600
G1 X36.298 Y45.304 Z0 F600
G1 X36.307 Y45.876 Z0 F600
G1 X36.297 Y45.973 Z0 F600
G1 X36.268 Y46.049 Z0 F600
G1 X36.221 Y46.106 Z0 F600
; --- FIX X Backlash ---
G0 X35.521 Y46.106 F410
G1 X35.461 Y46.146 Z0 F600
G1 X35.31 Y46.182 Z0 F600
G1 X35.136 Y46.174 Z0 F600
G1 X34.962 Y46.139 Z0 F600
G1 X34.811 Y46.093 Z0 F600
G1 X34.703 Y46.054 Z0 F600
G1 X34.662 Y46.037 Z0 F600
;Layer C3 Pass 2 of 2
G1 X34.703 Y46.054 Z0 F600
; --- FIX X Backlash ---
G0 X35.403 Y46.054 F410
G1 X35.511 Y46.093 Z0 F600
G1 X35.662 Y46.139 Z0 F600
G1 X35.836 Y46.174 Z0 F600
G1 X36.01 Y46.182 Z0 F600
G1 X36.161 Y46.146 Z0 F600
G1 X36.221 Y46.106 Z0 F600
; --- FIX Y Backlash ---
G0 X36.221 Y45.606 F410
G1 X36.268 Y45.549 Z0 F600
G1 X36.297 Y45.473 Z0 F600
G1 X36.307 Y45.376 Z0 F600
G1 X36.298 Y44.804 Z0 F600
G1 X36.276 Y44.291 Z0 F600
G1 X36.258 Y44.087 Z0 F600
G1 X36.235 Y43.935 Z0 F600
G1 X36.206 Y43.847 Z0 F600
G1 X36.17 Y43.834 Z0 F600
; --- FIX X Backlash ---
G0 X35.47 Y43.834 F410
G1 X35.391 Y43.865 Z0 F600
G1 X35.234 Y43.908 Z0 F600
G1 X35.022 Y43.958 Z0 F600
; --- FIX Y Backlash ---
G0 X35.022 Y44.458 F410
G1 X34.519 Y44.567 Z0 F600
G1 X33.9 Y44.697 Z0 F600
G1 X33.784 Y44.772 Z0 F600
G1 X33.698 Y44.923 Z0 F600
G1 X33.637 Y45.124 Z0 F600
G1 X33.598 Y45.352 Z0 F600
G1 X33.575 Y45.583 Z0 F600
G1 X33.565 Y45.793 Z0 F600
G1 X33.562 Y45.957 Z0 F600
G1 Y46.053 Z0 F600
G1 X33.577 Y46.115 Z0 F600
G1 X33.622 Y46.194 Z0 F600
; --- FIX X Backlash ---
G0 X34.322 Y46.194 F410
G1 X34.392 Y46.289 Z0 F600
G1 X34.482 Y46.395 Z0 F600
G1 X34.708 Y46.632 Z0 F600
G1 X34.966 Y46.88 Z0 F600
G1 X35.225 Y47.115 Z0 F600
G1 X35.541 Y47.39 Z0 F600
G1 X35.671 Y47.5 Z0 F600
; --- FIX Y Backlash ---
G0 X35.671 Y47 F410
G1 X37.136 Y46.863 Z0 F600
G1 X37.622 Y45.334 Z0 F600
G1 X37.625 Y45.284 Z0 F600
G1 X37.615 Y45.201 Z0 F600
G1 X37.592 Y45.09 Z0 F600
G1 X37.56 Y44.955 Z0 F600
; --- FIX X Backlash ---
G0 X36.86 Y44.955 F410
G1 X36.771 Y44.628 Z0 F600
G1 X36.66 Y44.253 Z0 F600
G1 X36.324 Y43.167 Z0 F600
G1 X36.137 Y42.53 Z0 F600
G1 X36.007 Y42.13 Z0 F600
G1 X35.795 Y41.507 Z0 F600
G1 X35.383 Y40.271 Z0 F600
; --- FIX X Backlash ---
G0 X36.083 Y40.271 F410
G1 X36.358 Y38.394 Z0 F600
; --- FIX X Backlash ---
G0 X35.658 Y38.394 F410
G1 X35.521 Y35.19 Z0 F600
G0 Z3.5 F600
; --- FIX X Backlash ---
G0 X36.221 Y35.19 F410
; --- FIX Y Backlash ---
G0 X36.221 Y35.69 F410
G0 X38.967 Y41.045 Z3.5
G1 Z0 F600
;Layer C3 Pass 1 of 2
; --- FIX X Backlash ---
G0 X38.267 Y41.045 F410
; --- FIX Y Backlash ---
G0 X38.267 Y40.545 F410
G1 X38.084 Y39.905 Z0 F600
G1 X37.855 Y36.013 Z0 F600
;Layer C3 Pass 2 of 2
; --- FIX X Backlash ---
G0 X38.555 Y36.013 F410
; --- FIX Y Backlash ---
G0 X38.555 Y36.513 F410
G1 X38.784 Y40.405 Z0 F600
G1 X38.967 Y41.045 Z0 F600
G0 Z3.5 F600
; --- FIX Y Backlash ---
G0 X38.967 Y40.545 F410
G0 X41.394 Y36.105 Z3.5
G1 Z0 F600
;Layer C3 Pass 1 of 2
; --- FIX X Backlash ---
G0 X40.694 Y36.105 F410
; --- FIX Y Backlash ---
G0 X40.694 Y36.605 F410
G1 X40.465 Y39.26 Z0 F600
; --- FIX X Backlash ---
G0 X41.165 Y39.26 F410
G1 X41.302 Y40.862 Z0 F600
;Layer C3 Pass 2 of 2
; --- FIX X Backlash ---
G0 X40.602 Y40.862 F410
; --- FIX Y Backlash ---
G0 X40.602 Y40.362 F410
G1 X40.465 Y38.76 Z0 F600
; --- FIX X Backlash ---
G0 X41.165 Y38.76 F410
G1 X41.394 Y36.105 Z0 F600
G0 Z3.5 F600
; --- FIX Y Backlash ---
G0 X41.394 Y36.605 F410
G0 X43.682 Y41.045 Z3.5
G1 Z0 F600
;Layer C3 Pass 1 of 2
; --- FIX Y Backlash ---
G0 X43.682 Y40.545 F410
G1 X43.741 Y40.205 Z0 F600
G1 X43.877 Y39.435 Z0 F600
G1 X43.955 Y39.008 Z0 F600
G1 X44.03 Y38.614 Z0 F600
G1 X44.094 Y38.302 Z0 F600
G1 X44.12 Y38.192 Z0 F600
G1 X44.14 Y38.119 Z0 F600
G1 X44.156 Y38.05 Z0 F600
G1 X44.168 Y37.948 Z0 F600
G1 X44.178 Y37.819 Z0 F600
G1 X44.186 Y37.667 Z0 F600
G1 X44.195 Y37.318 Z0 F600
G1 Y36.94 Z0 F600
G1 Y36.576 Z0 F600
G1 X44.186 Y35.968 Z0 F600
;Layer C3 Pass 2 of 2
; --- FIX Y Backlash ---
G0 X44.186 Y36.468 F410
G1 X44.196 Y37.076 Z0 F600
G1 Y37.44 Z0 F600
G1 Y37.818 Z0 F600
G1 X44.186 Y38.167 Z0 F600
G1 X44.178 Y38.319 Z0 F600
G1 X44.168 Y38.448 Z0 F600
G1 X44.156 Y38.55 Z0 F600
G1 X44.14 Y38.619 Z0 F600
G1 X44.12 Y38.692 Z0 F600
G1 X44.094 Y38.802 Z0 F600
; --- FIX X Backlash ---
