G90 ; Force absolute mode
;LightBurn 1.6.04
;Custom GCode device profile, absolute coords
;Bounds: X22.86 Y33.34 to X63.14 Y64.66
G00 G17 G40 G21 G54
M3
G1 Z10 F600
;Offset @ 555 mm/min, 90% power

M8
G0 Z3.5 F600
G0 X31.137 Y37.607 Z3.5
G1 Z0 F600
;Layer C1 Pass 1 of 2
; --- FIX X Backlash ---
G0 X30.437 Y37.607 F410
G1 X30.355 Y37.601 Z0 F600
; --- FIX X Backlash ---
G0 X31.055 Y37.601 F410
; --- FIX Y Backlash ---
G0 X31.055 Y37.101 F410
G1 X31.145 Y36.934 Z0 F600
; --- FIX Y Backlash ---
G0 X31.145 Y37.434 F410
G1 X31.137 Y37.607 Z0 F600
G0 Z3.5 F600
G0 X31.283 Y38.019 Z3.5 F600
G1 Z0 F600
; --- FIX X Backlash ---
G0 X30.583 Y38.019 F410
; --- FIX Y Backlash ---
G0 X30.583 Y37.519 F410
G1 X29.743 Y37.457 Z0 F600
G1 X29.228 Y37.451 Z0 F600
G1 X29.168 Y37.454 Z0 F600
; --- FIX X Backlash ---
G0 X29.868 Y37.454 F410
G1 X30.644 Y37.018 Z0 F600
G1 X31.319 Y35.779 Z0 F600
G1 Y35.772 Z0 F600
G1 X31.816 Z0 F600
; --- FIX X Backlash ---
G0 X31.116 Y35.772 F410
; --- FIX Y Backlash ---
G0 X31.116 Y36.272 F410
G1 X31.005 Y36.55 Z0 F600
G1 X30.852 Y37.299 Z0 F600
G1 X30.819 Y38.002 Z0 F600
G1 X30.823 Y38.05 Z0 F600
G1 X30.583 Y38.019 Z0 F600
G0 Z3.5 F600
; --- FIX Y Backlash ---
G0 X30.583 Y37.519 F410
G0 X28.669 Y37.276 Z3.5
G1 Z0 F600
; --- FIX X Backlash ---
G0 X29.369 Y37.276 F410
G1 X30.348 Y36.726 Z0 F600
G1 X30.933 Y35.651 Z0 F600
G1 X30.973 Y35.374 Z0 F600
G1 X31.192 Z0 F600
G1 X32.439 Y35.37 Z0 F600
; --- FIX X Backlash ---
G0 X31.739 Y35.37 F410
; --- FIX Y Backlash ---
G0 X31.739 Y35.87 F410
G1 X31.662 Y35.987 Z0 F600
G1 X31.389 Y36.665 Z0 F600
G1 X31.25 Y37.349 Z0 F600
G1 X31.22 Y37.997 Z0 F600
G1 X31.259 Y38.511 Z0 F600
G1 X31.22 Y38.506 Z0 F600
; --- FIX Y Backlash ---
G0 X31.22 Y38.006 F410
G1 X30.542 Y37.917 Z0 F600
G1 X29.727 Y37.856 Z0 F600
G1 X29.236 Y37.852 Z0 F600
G1 X28.74 Y37.875 Z0 F600
; --- FIX Y Backlash ---
G0 X28.74 Y38.375 F410
G1 X28.217 Y38.439 Z0 F600
G1 X27.657 Y38.559 Z0 F600
G1 X27.051 Y38.765 Z0 F600
G1 X26.91 Y38.839 Z0 F600
; --- FIX Y Backlash ---
G0 X26.91 Y38.339 F410
G1 Y37.633 Z0 F600
; --- FIX X Backlash ---
G0 X27.61 Y37.633 F410
G1 X27.731 Y37.621 Z0 F600
G1 X28.23 Y37.538 Z0 F600
G1 X28.671 Y37.444 Z0 F600
G1 X29.369 Y37.276 Z0 F600
G0 Z3.5 F600
G0 X32.474 Y36.281 Z3.5
G1 Z0 F600
; --- FIX X Backlash ---
G0 X31.774 Y36.281 F410
; --- FIX Y Backlash ---
G0 X31.774 Y36.781 F410
G1 X31.648 Y37.398 Z0 F600
G1 X31.621 Y37.991 Z0 F600
G1 X31.664 Y38.563 Z0 F600
; --- FIX X Backlash ---
G0 X32.364 Y38.563 F410
G1 X32.436 Y38.971 Z0 F600
; --- FIX X Backlash ---
G0 X31.736 Y38.971 F410
G1 X31.61 Y38.958 Z0 F600
; --- FIX Y Backlash ---
G0 X31.61 Y38.458 F410
G1 X31.168 Y38.403 Z0 F600
G1 X30.501 Y38.315 Z0 F600
G1 X29.71 Y38.256 Z0 F600
G1 X29.244 Y38.251 Z0 F600
G1 X28.774 Y38.274 Z0 F600
; --- FIX Y Backlash ---
G0 X28.774 Y38.774 F410
G1 X28.283 Y38.834 Z0 F600
G1 X27.764 Y38.945 Z0 F600
G1 X27.209 Y39.134 Z0 F600
G1 X26.633 Y39.436 Z0 F600
G1 X26.51 Y39.534 Z0 F600
; --- FIX Y Backlash ---
G0 X26.51 Y39.034 F410
G1 Y37.271 Z0 F600
; --- FIX X Backlash ---
G0 X27.21 Y37.271 F410
G1 X27.678 Y37.224 Z0 F600
G1 X28.156 Y37.145 Z0 F600
G1 X28.583 Y37.054 Z0 F600
G1 X29.221 Y36.9 Z0 F600
G1 X30.052 Y36.434 Z0 F600
G1 X30.547 Y35.523 Z0 F600
G1 X30.625 Y34.975 Z0 F600
G1 X31.191 Z0 F600
G1 X33.236 Y34.968 Z0 F600
; --- FIX X Backlash ---
G0 X32.536 Y34.968 F410
; --- FIX Y Backlash ---
G0 X32.536 Y35.468 F410
G1 X32.386 Y35.615 Z0 F600
G1 X32.018 Y36.173 Z0 F600
G1 X31.774 Y36.781 Z0 F600
G0 Z3.5 F600
G0 X31.105 Y39.298 Z3.5
G1 Z0 F600
; --- FIX Y Backlash ---
G0 X31.105 Y38.798 F410
G1 X30.46 Y38.713 Z0 F600
G1 X29.693 Y38.656 Z0 F600
G1 X29.252 Y38.651 Z0 F600
G1 X28.808 Y38.673 Z0 F600
; --- FIX Y Backlash ---
G0 X28.808 Y39.173 F410
G1 X28.349 Y39.229 Z0 F600
G1 X27.87 Y39.331 Z0 F600
G1 X27.367 Y39.502 Z0 F600
G1 X26.852 Y39.772 Z0 F600
G1 X26.353 Y40.173 Z0 F600
G1 X26.11 Y40.485 Z0 F600
; --- FIX Y Backlash ---
G0 X26.11 Y39.985 F410
G1 Y36.882 Z0 F600
; --- FIX X Backlash ---
G0 X26.81 Y36.882 F410
G1 X27.131 Y36.877 Z0 F600
G1 X27.625 Y36.828 Z0 F600
G1 X28.081 Y36.751 Z0 F600
G1 X28.495 Y36.664 Z0 F600
G1 X29.074 Y36.524 Z0 F600
G1 X29.755 Y36.141 Z0 F600
G1 X30.162 Y35.396 Z0 F600
G1 X30.246 Y34.806 Z0 F600
G1 X30.241 Y34.576 Z0 F600
G1 X31.189 Y34.573 Z0 F600
G1 X34.503 Y34.565 Z0 F600
; --- FIX X Backlash ---
G0 X33.803 Y34.565 F410
; --- FIX Y Backlash ---
G0 X33.803 Y35.065 F410
G1 X33.569 Y35.166 Z0 F600
G1 X33.11 Y35.464 Z0 F600
G1 X32.697 Y35.87 Z0 F600
G1 X32.374 Y36.36 Z0 F600
G1 X32.159 Y36.896 Z0 F600
G1 X32.046 Y37.447 Z0 F600
G1 X32.021 Y37.985 Z0 F600
G1 X32.062 Y38.513 Z0 F600
; --- FIX X Backlash ---
G0 X32.762 Y38.513 F410
G1 X32.854 Y39.041 Z0 F600
G1 X32.924 Y39.315 Z0 F600
G1 X32.921 Y39.414 Z0 F600
; --- FIX X Backlash ---
G0 X32.221 Y39.414 F410
G1 X31.97 Y39.396 Z0 F600
G1 X31.6 Y39.36 Z0 F600
; --- FIX Y Backlash ---
G0 X31.6 Y38.86 F410
G1 X31.105 Y38.798 Z0 F600
G0 Z3.5 F600
; --- FIX Y Backlash ---
G0 X31.105 Y39.298 F410
G0 X29.676 Y39.556 Z3.5
G1 Z0 F600
G1 X29.259 Y39.552 Z0 F600
G1 X28.842 Y39.572 Z0 F600
G1 X28.415 Y39.624 Z0 F600
G1 X27.977 Y39.717 Z0 F600
G1 X27.526 Y39.871 Z0 F600
G1 X27.072 Y40.108 Z0 F600
G1 X26.64 Y40.455 Z0 F600
G1 X26.274 Y40.926 Z0 F600
G1 X26.038 Y41.478 Z0 F600
G1 X25.94 Y42.063 Z0 F600
G1 X25.961 Y42.649 Z0 F600
; --- FIX X Backlash ---
G0 X26.661 Y42.649 F410
G1 X26.738 Y43.037 Z0 F600
G1 Y44.619 Z0 F600
G1 X26.706 Z0 F600
; --- FIX X Backlash ---
G0 X26.006 Y44.619 F410
G1 X25.592 Y44.625 Z0 F600
G1 X25.193 Y44.62 Z0 F600
G1 X24.814 Y44.602 Z0 F600
G1 X24.806 Z0 F600
; --- FIX X Backlash ---
G0 X25.506 Y44.602 F410
G1 X25.574 Y44.573 Z0 F600
; --- FIX Y Backlash ---
G0 X25.574 Y44.073 F410
G1 X26.016 Y43.72 Z0 F600
G1 X26.326 Y43.185 Z0 F600
G1 X26.41 Y42.69 Z0 F600
G1 Y36.467 Z0 F600
G1 X26.615 Y36.485 Z0 F600
G1 X27.108 Y36.478 Z0 F600
G1 X27.573 Y36.431 Z0 F600
G1 X28.006 Y36.358 Z0 F600
G1 X28.406 Y36.273 Z0 F600
G1 X28.926 Y36.148 Z0 F600
G1 X29.459 Y35.849 Z0 F600
G1 X29.775 Y35.268 Z0 F600
G1 X29.845 Y34.782 Z0 F600
G1 X29.837 Y34.413 Z0 F600
G1 X29.791 Y34.178 Z0 F600
G1 X31.188 Y34.173 Z0 F600
G1 X37.158 Y34.16 Z0 F600
G1 X37.184 Z0 F600
; --- FIX Y Backlash ---
G0 X37.184 Y34.66 F410
G1 X37.135 Y34.917 Z0 F600
G1 X37.087 Y35.257 Z0 F600
; --- FIX X Backlash ---
G0 X36.387 Y35.257 F410
; --- FIX Y Backlash ---
G0 X36.387 Y34.757 F410
G1 X35.754 Y34.681 Z0 F600
G1 X35.005 Z0 F600
; --- FIX Y Backlash ---
G0 X35.005 Y35.181 F410
G1 X34.578 Y35.237 Z0 F600
G1 X34.168 Y35.345 Z0 F600
G1 X33.758 Y35.52 Z0 F600
G1 X33.362 Y35.777 Z0 F600
G1 X33.008 Y36.126 Z0 F600
G1 X32.73 Y36.546 Z0 F600
G1 X32.543 Y37.012 Z0 F600
G1 X32.445 Y37.497 Z0 F600
G1 X32.422 Y37.979 Z0 F600
G1 X32.459 Y38.463 Z0 F600
; --- FIX X Backlash ---
G0 X33.159 Y38.463 F410
G1 X33.246 Y38.957 Z0 F600
G1 X33.326 Y39.271 Z0 F600
G1 X33.321 Y39.434 Z0 F600
G1 X33.305 Y39.705 Z0 F600
G1 X33.292 Y39.823 Z0 F600
; --- FIX X Backlash ---
G0 X32.592 Y39.823 F410
G1 X32.539 Z0 F600
G1 X32.28 Y39.819 Z0 F600
G1 X31.934 Y39.795 Z0 F600
G1 X31.55 Y39.757 Z0 F600
; --- FIX Y Backlash ---
G0 X31.55 Y39.257 F410
G1 X31.055 Y39.195 Z0 F600
G1 X30.419 Y39.111 Z0 F600
G1 X29.676 Y39.056 Z0 F600
G0 Z3.5 F600
; --- FIX Y Backlash ---
G0 X29.676 Y39.556 F410
G0 X28.481 Y40.019 Z3.5
G1 Z0 F600
G1 X28.084 Y40.104 Z0 F600
G1 X27.684 Y40.24 Z0 F600
G1 X27.292 Y40.445 Z0 F600
G1 X26.927 Y40.738 Z0 F600
G1 X26.622 Y41.13 Z0 F600
G1 X26.425 Y41.592 Z0 F600
G1 X26.341 Y42.089 Z0 F600
G1 X26.359 Y42.602 Z0 F600
; --- FIX X Backlash ---
G0 X27.059 Y42.602 F410
G1 X27.139 Y43 Z0 F600
G1 Y45.005 Z0 F600
G1 X27.114 Z0 F600
; --- FIX X Backlash ---
G0 X26.414 Y45.005 F410
G1 X26.008 Y45.02 Z0 F600
G1 X25.592 Y45.025 Z0 F600
G1 X25.169 Y45.02 Z0 F600
G1 X24.793 Y45.001 Z0 F600
G1 X24.446 Y44.964 Z0 F600
; --- FIX Y Backlash ---
G0 X24.446 Y44.464 F410
G1 X23.873 Y44.398 Z0 F600
G1 X23.346 Y44.327 Z0 F600
G1 X23.183 Y44.286 Z0 F600
G1 X23.073 Y44.243 Z0 F600
G1 X23.024 Y44.211 Z0 F600
G1 X23.001 Y44.188 Z0 F600
G1 X22.984 Y44.145 Z0 F600
G1 X22.97 Y44.076 Z0 F600
G1 X22.965 Y44 Z0 F600
G1 X22.968 Y43.946 Z0 F600
; --- FIX X Backlash ---
G0 X23.668 Y43.946 F410
G1 X23.802 Y43.938 Z0 F600
G1 X24.131 Y43.941 Z0 F600
G1 X24.547 Z0 F600
G1 X25.025 Y43.865 Z0 F600
G1 X25.369 Y43.724 Z0 F600
G1 X25.708 Y43.454 Z0 F600
G1 X25.944 Y43.047 Z0 F600
G1 X26.01 Y42.656 Z0 F600
G1 Y36.009 Z0 F600
G1 X26.156 Y36.042 Z0 F600
G1 X26.63 Y36.085 Z0 F600
G1 X27.084 Y36.078 Z0 F600
G1 X27.52 Y36.034 Z0 F600
G1 X27.932 Y35.965 Z0 F600
G1 X28.317 Y35.883 Z0 F600
G1 X28.778 Y35.772 Z0 F600
G1 X29.163 Y35.556 Z0 F600
G1 X29.39 Y35.14 Z0 F600
G1 X29.444 Y34.757 Z0 F600
G1 X29.438 Y34.456 Z0 F600
; --- FIX X Backlash ---
G0 X28.738 Y34.456 F410
G1 X28.679 Y34.159 Z0 F600
G1 X28.567 Y33.877 Z0 F600
G1 X28.505 Y33.779 Z0 F600
; --- FIX X Backlash ---
G0 X29.205 Y33.779 F410
G1 X31.187 Y33.772 Z0 F600
G1 X37.158 Y33.759 Z0 F600
G1 X37.714 Z0 F600
; --- FIX Y Backlash ---
G0 X37.714 Y34.259 F410
G1 X37.666 Y34.387 Z0 F600
; --- FIX X Backlash ---
G0 X36.966 Y34.387 F410
G1 X36.885 Y34.693 Z0 F600
G1 X36.83 Y34.982 Z0 F600
G1 X36.764 Y35.455 Z0 F600
G1 X36.714 Y35.738 Z0 F600
; --- FIX Y Backlash ---
G0 X36.714 Y35.238 F410
G1 X36.491 Y35.172 Z0 F600
G1 X35.73 Y35.081 Z0 F600
G1 X35.032 Z0 F600
G1 X34.656 Y35.13 Z0 F600
; --- FIX Y Backlash ---
G0 X34.656 Y35.63 F410
G1 X34.298 Y35.724 Z0 F600
G1 X33.947 Y35.875 Z0 F600
G1 X33.614 Y36.091 Z0 F600
G1 X33.319 Y36.381 Z0 F600
G1 X33.086 Y36.733 Z0 F600
G1 X32.928 Y37.127 Z0 F600
G1 X32.842 Y37.546 Z0 F600
G1 X32.823 Y37.973 Z0 F600
G1 X32.856 Y38.413 Z0 F600
; --- FIX X Backlash ---
G0 X33.556 Y38.413 F410
G1 X33.637 Y38.873 Z0 F600
G1 X33.727 Y39.226 Z0 F600
G1 X33.72 Y39.459 Z0 F600
G1 X33.703 Y39.75 Z0 F600
G1 X33.68 Y39.967 Z0 F600
G1 X33.65 Y40.124 Z0 F600
G1 X33.63 Y40.19 Z0 F600
G1 X33.605 Y40.197 Z0 F600
; --- FIX X Backlash ---
G0 X32.905 Y40.197 F410
G1 X32.762 Y40.216 Z0 F600
G1 X32.546 Y40.225 Z0 F600
G1 X32.266 Y40.219 Z0 F600
G1 X31.897 Y40.193 Z0 F600
G1 X31.503 Y40.154 Z0 F600
; --- FIX Y Backlash ---
G0 X31.503 Y39.654 F410
G1 X31.006 Y39.592 Z0 F600
G1 X30.378 Y39.509 Z0 F600
G1 X29.659 Y39.456 Z0 F600
G1 X29.267 Y39.452 Z0 F600
G1 X28.876 Y39.471 Z0 F600
G1 X28.481 Y39.519 Z0 F600
G0 Z3.5 F600
; --- FIX Y Backlash ---
G0 X28.481 Y40.019 F410
G0 X27.842 Y40.608 Z3.5
G1 Z0 F600
G1 X27.512 Y40.781 Z0 F600
G1 X27.214 Y41.021 Z0 F600
G1 X26.969 Y41.335 Z0 F600
G1 X26.811 Y41.705 Z0 F600
G1 X26.742 Y42.115 Z0 F600
G1 X26.758 Y42.556 Z0 F600
; --- FIX X Backlash ---
G0 X27.458 Y42.556 F410
G1 X27.539 Y42.958 Z0 F600
G1 Y45.387 Z0 F600
; --- FIX X Backlash ---
G0 X26.839 Y45.387 F410
G1 X26.434 Y45.406 Z0 F600
G1 X26.021 Y45.419 Z0 F600
G1 X25.592 Y45.425 Z0 F600
G1 X25.158 Y45.419 Z0 F600
G1 X24.755 Y45.4 Z0 F600
G1 X24.401 Y45.362 Z0 F600
; --- FIX Y Backlash ---
G0 X24.401 Y44.862 F410
G1 X23.821 Y44.795 Z0 F600
G1 X23.27 Y44.721 Z0 F600
G1 X23.058 Y44.667 Z0 F600
G1 X22.893 Y44.602 Z0 F600
G1 X22.771 Y44.525 Z0 F600
G1 X22.679 Y44.43 Z0 F600
G1 X22.639 Y44.361 Z0 F600
G1 X22.598 Y44.253 Z0 F600
G1 X22.573 Y44.135 Z0 F600
G1 X22.563 Y43.999 Z0 F600
G1 X22.572 Y43.868 Z0 F600
G1 X22.598 Y43.747 Z0 F600
G1 X22.637 Y43.642 Z0 F600
G1 X22.67 Y43.587 Z0 F600
G1 X22.718 Y43.571 Z0 F600
; --- FIX X Backlash ---
G0 X23.418 Y43.571 F410
G1 X23.501 Y43.555 Z0 F600
G1 X23.79 Y43.538 Z0 F600
G1 X24.131 Y43.542 Z0 F600
G1 X24.516 Y43.539 Z0 F600
G1 X24.917 Y43.477 Z0 F600
G1 X25.165 Y43.376 Z0 F600
G1 X25.399 Y43.188 Z0 F600
G1 X25.562 Y42.909 Z0 F600
G1 X25.61 Y42.623 Z0 F600
G1 Y35.475 Z0 F600
; --- FIX Y Backlash ---
G0 X25.61 Y35.975 F410
G1 X25.791 Y36.048 Z0 F600
G1 X26.219 Y36.146 Z0 F600
G1 X26.645 Y36.185 Z0 F600
G1 X27.062 Y36.178 Z0 F600
G1 X27.467 Y36.137 Z0 F600
; --- FIX Y Backlash ---
G0 X27.467 Y35.637 F410
G1 X27.857 Y35.572 Z0 F600
G1 X28.229 Y35.493 Z0 F600
G1 X28.631 Y35.396 Z0 F600
G1 X28.867 Y35.264 Z0 F600
G1 X29.004 Y35.012 Z0 F600
G1 X29.043 Y34.733 Z0 F600
G1 X29.039 Y34.5 Z0 F600
G1 X28.994 Y34.273 Z0 F600
; --- FIX X Backlash ---
G0 X28.294 Y34.273 F410
G1 X28.21 Y34.06 Z0 F600
G1 X28.091 Y33.873 Z0 F600
G1 X27.947 Y33.714 Z0 F600
G1 X27.787 Y33.583 Z0 F600
G1 X27.61 Y33.472 Z0 F600
G1 X27.403 Y33.383 Z0 F600
; --- FIX X Backlash ---
G0 X28.103 Y33.383 F410
G1 X31.186 Y33.373 Z0 F600
G1 X37.158 Y33.359 Z0 F600
G1 X38.398 Y33.362 Z0 F600
; --- FIX X Backlash ---
G0 X37.698 Y33.362 F410
; --- FIX Y Backlash ---
G0 X37.698 Y33.862 F410
G1 X37.61 Y33.943 Z0 F600
G1 X37.45 Y34.237 Z0 F600
G1 X37.347 Y34.509 Z0 F600
G1 X37.276 Y34.781 Z0 F600
G1 X37.225 Y35.047 Z0 F600
G1 X37.157 Y35.528 Z0 F600
G1 X37.088 Y35.92 Z0 F600
G1 X37.048 Y36.048 Z0 F600
G1 X37.01 Y36.131 Z0 F600
G1 X36.983 Y36.168 Z0 F600
G1 X36.978 Y36.172 Z0 F600
G1 X36.965 Y36.177 Z0 F600
G1 X36.891 Y36.183 Z0 F600
G1 X36.735 Y36.162 Z0 F600
; --- FIX Y Backlash ---
G0 X36.735 Y35.662 F410
G1 X36.409 Y35.565 Z0 F600
G1 X35.706 Y35.48 Z0 F600
G1 X35.058 Z0 F600
G1 X34.734 Y35.523 Z0 F600
; --- FIX Y Backlash ---
G0 X34.734 Y36.023 F410
G1 X34.428 Y36.104 Z0 F600
G1 X34.136 Y36.229 Z0 F600
G1 X33.865 Y36.404 Z0 F600
G1 X33.629 Y36.637 Z0 F600
G1 X33.443 Y36.92 Z0 F600
G1 X33.313 Y37.243 Z0 F600
G1 X33.241 Y37.596 Z0 F600
G1 X33.223 Y37.967 Z0 F600
G1 X33.254 Y38.363 Z0 F600
; --- FIX X Backlash ---
G0 X33.954 Y38.363 F410
G1 X34.029 Y38.789 Z0 F600
G1 X34.129 Y39.182 Z0 F600
G1 X34.12 Y39.472 Z0 F600
G1 X34.102 Y39.776 Z0 F600
G1 X34.075 Y40.032 Z0 F600
G1 X34.04 Y40.218 Z0 F600
G1 X33.997 Y40.36 Z0 F600
G1 X33.957 Y40.442 Z0 F600
G1 X33.922 Y40.488 Z0 F600
G1 X33.878 Y40.523 Z0 F600
; --- FIX X Backlash ---
G0 X33.178 Y40.523 F410
G1 X33.111 Y40.556 Z0 F600
G1 X32.982 Y40.591 Z0 F600
G1 X32.8 Y40.615 Z0 F600
G1 X32.546 Y40.625 Z0 F600
G1 X32.239 Y40.618 Z0 F600
G1 X31.879 Y40.593 Z0 F600
G1 X31.451 Y40.551 Z0 F600
; --- FIX Y Backlash ---
G0 X31.451 Y40.051 F410
G1 X30.956 Y39.989 Z0 F600
G1 X30.337 Y39.907 Z0 F600
G1 X29.642 Y39.855 Z0 F600
G1 X29.275 Y39.852 Z0 F600
G1 X28.91 Y39.87 Z0 F600
G1 X28.547 Y39.914 Z0 F600
; --- FIX Y Backlash ---
G0 X28.547 Y40.414 F410
G1 X28.191 Y40.49 Z0 F600
G1 X27.842 Y40.608 Z0 F600
G0 Z3.5 F600
; --- FIX X Backlash ---
G0 X28.542 Y40.608 F410
G0 X52.414 Y44.006 Z3.5
G1 Z0 F600
; --- FIX Y Backlash ---
G0 X52.414 Y43.506 F410
G1 X52.551 Y43.261 Z0 F600
; --- FIX Y Backlash ---
G0 X52.551 Y43.761 F410
G1 Y44.036 Z0 F600
; --- FIX X Backlash ---
G0 X51.851 Y44.036 F410
G1 X51.714 Y44.006 Z0 F600
G0 Z3.5 F600
G0 X51.101 Y44.282 Z3.5
G1 Z0 F600
; --- FIX X Backlash ---
G0 X51.801 Y44.282 F410
; --- FIX Y Backlash ---
G0 X51.801 Y43.782 F410
G1 X52.228 Y43.019 Z0 F600
G1 X52.428 Y42.185 Z0 F600
G1 X52.454 Y41.77 Z0 F600
; --- FIX X Backlash ---
G0 X51.754 Y41.77 F410
G1 X51.696 Y41.132 Z0 F600
G1 X51.688 Y40.713 Z0 F600
G1 X51.684 Y40.344 Z0 F600
; --- FIX X Backlash ---
G0 X52.384 Y40.344 F410
G1 X52.522 Y40.338 Z0 F600
G1 X52.943 Z0 F600
; --- FIX Y Backlash ---
G0 X52.943 Y40.838 F410
G1 X52.953 Y44.533 Z0 F600
; --- FIX X Backlash ---
G0 X52.253 Y44.533 F410
; --- FIX Y Backlash ---
G0 X52.253 Y44.033 F410
G1 X51.101 Y43.782 Z0 F600
G0 Z3.5 F600
; --- FIX X Backlash ---
G0 X51.801 Y43.782 F410
; --- FIX Y Backlash ---
G0 X51.801 Y44.282 F410
G0 X52.188 Y46.412 Z3.5
G1 Z0 F600
; --- FIX Y Backlash ---
G0 X52.188 Y45.912 F410
G1 X52.956 Y45.144 Z0 F600
; --- FIX Y Backlash ---
G0 X52.956 Y45.644 F410
G1 X52.965 Y49.135 Z0 F600
; --- FIX X Backlash ---
G0 X52.265 Y49.135 F410
G1 X52.196 Y49.143 Z0 F600
G1 X51.708 Y49.195 Z0 F600
; --- FIX Y Backlash ---
G0 X51.708 Y48.695 F410
G1 X51.72 Y48.502 Z0 F600
G1 X51.737 Y48.023 Z0 F600
G1 X51.733 Y47.507 Z0 F600
G1 X51.696 Y46.953 Z0 F600
G1 X51.606 Y46.358 Z0 F600
G1 X51.488 Y45.912 Z0 F600
G0 Z3.5 F600
G0 X50.742 Y43.604 Z3.5
G1 Z0 F600
; --- FIX X Backlash ---
G0 X51.442 Y43.604 F410
G1 X51.852 Y42.872 Z0 F600
G1 X52.031 Y42.125 Z0 F600
G1 X52.053 Y41.775 Z0 F600
; --- FIX X Backlash ---
G0 X51.353 Y41.775 F410
G1 X51.297 Y41.155 Z0 F600
G1 X51.288 Y40.721 Z0 F600
G1 X51.282 Y40.147 Z0 F600
G1 X51.272 Y39.963 Z0 F600
; --- FIX X Backlash ---
G0 X51.972 Y39.963 F410
G1 X52.515 Y39.938 Z0 F600
G1 X53.297 Y39.942 Z0 F600
G1 X53.342 Z0 F600
; --- FIX Y Backlash ---
G0 X53.342 Y40.442 F410
G1 X53.366 Y49.495 Z0 F600
; --- FIX X Backlash ---
G0 X52.666 Y49.495 F410
G1 X52.238 Y49.54 Z0 F600
G1 X51.281 Y49.644 Z0 F600
; --- FIX Y Backlash ---
G0 X51.281 Y49.144 F410
G1 X51.321 Y48.483 Z0 F600
G1 X51.336 Y48.017 Z0 F600
G1 X51.333 Y47.522 Z0 F600
G1 X51.298 Y46.997 Z0 F600
G1 X51.214 Y46.44 Z0 F600
G1 X51.058 Y45.853 Z0 F600
G1 X51.035 Y45.799 Z0 F600
; --- FIX X Backlash ---
G0 X51.735 Y45.799 F410
G1 X53.066 Y44.467 Z0 F600
; --- FIX X Backlash ---
G0 X52.366 Y44.467 F410
G1 X50.321 Y44.021 Z0 F600
; --- FIX X Backlash ---
G0 X51.021 Y44.021 F410
G1 X51.442 Y43.604 Z0 F600
G0 Z3.5 F600
G0 X51.476 Y42.725 Z3.5
G1 Z0 F600
G1 X51.634 Y42.065 Z0 F600
G1 X51.652 Y41.781 Z0 F600
; --- FIX X Backlash ---
G0 X50.952 Y41.781 F410
G1 X50.897 Y41.179 Z0 F600
G1 X50.888 Y40.725 Z0 F600
G1 X50.883 Y40.161 Z0 F600
G1 X50.85 Y39.578 Z0 F600
; --- FIX X Backlash ---
G0 X51.55 Y39.578 F410
G1 X51.657 Z0 F600
G1 X52.499 Y39.538 Z0 F600
G1 X53.298 Y39.542 Z0 F600
G1 X53.741 Z0 F600
; --- FIX Y Backlash ---
G0 X53.741 Y40.042 F410
G1 X53.767 Y49.855 Z0 F600
; --- FIX X Backlash ---
G0 X53.067 Y49.855 F410
G1 X52.28 Y49.938 Z0 F600
G1 X50.855 Y50.092 Z0 F600
; --- FIX Y Backlash ---
G0 X50.855 Y49.592 F410
G1 X50.874 Y49.251 Z0 F600
G1 X50.921 Y48.465 Z0 F600
G1 X50.936 Y48.012 Z0 F600
G1 X50.933 Y47.537 Z0 F600
G1 X50.9 Y47.04 Z0 F600
G1 X50.821 Y46.521 Z0 F600
G1 X50.678 Y45.982 Z0 F600
G1 X50.562 Y45.706 Z0 F600
; --- FIX X Backlash ---
G0 X51.262 Y45.706 F410
G1 X52.266 Y44.702 Z0 F600
; --- FIX X Backlash ---
G0 X51.566 Y44.702 F410
G1 X49.34 Y44.217 Z0 F600
G1 X49.291 Y44.189 Z0 F600
; --- FIX X Backlash ---
G0 X49.991 Y44.189 F410
G1 X50.059 Y44.168 Z0 F600
G1 X50.62 Y43.855 Z0 F600
G1 X51.12 Y43.36 Z0 F600
G1 X51.476 Y42.725 Z0 F600
G0 Z3.5 F600
G0 X53.299 Y39.143 Z3.5
G1 Z0 F600
G1 X54.14 Z0 F600
; --- FIX Y Backlash ---
G0 X54.14 Y39.643 F410
G1 X54.167 Y50.215 Z0 F600
; --- FIX X Backlash ---
G0 X53.467 Y50.215 F410
G1 X52.323 Y50.335 Z0 F600
G1 X50.773 Y50.503 Z0 F600
G1 X50.434 Y50.521 Z0 F600
; --- FIX Y Backlash ---
G0 X50.434 Y50.021 F410
G1 Y49.945 Z0 F600
G1 X50.474 Y49.227 Z0 F600
G1 X50.521 Y48.446 Z0 F600
G1 X50.536 Y48.006 Z0 F600
G1 X50.533 Y47.551 Z0 F600
G1 X50.502 Y47.083 Z0 F600
G1 X50.429 Y46.603 Z0 F600
G1 X50.299 Y46.112 Z0 F600
G1 X50.092 Y45.621 Z0 F600
G1 X50.088 Y45.615 Z0 F600
; --- FIX X Backlash ---
G0 X50.788 Y45.615 F410
G1 X51.465 Y44.937 Z0 F600
; --- FIX X Backlash ---
G0 X50.765 Y44.937 F410
G1 X49.195 Y44.595 Z0 F600
G1 X48.915 Y44.436 Z0 F600
G1 X48.353 Y44.371 Z0 F600
G1 X48.311 Y44.384 Z0 F600
G1 X48.23 Y44.367 Z0 F600
G1 X48.238 Y44.162 Z0 F600
G1 X48.248 Y43.999 Z0 F600
; --- FIX X Backlash ---
G0 X48.948 Y43.999 F410
G1 X49.086 Y43.99 Z0 F600
G1 X49.462 Y43.931 Z0 F600
G1 X49.902 Y43.798 Z0 F600
G1 X50.377 Y43.533 Z0 F600
G1 X50.799 Y43.115 Z0 F600
G1 X51.1 Y42.578 Z0 F600
G1 X51.237 Y42.006 Z0 F600
G1 X51.251 Y41.787 Z0 F600
; --- FIX X Backlash ---
G0 X50.551 Y41.787 F410
G1 X50.497 Y41.195 Z0 F600
G1 X50.488 Y40.715 Z0 F600
G1 X50.483 Y40.173 Z0 F600
G1 X50.448 Y39.555 Z0 F600
G1 X50.38 Y39.177 Z0 F600
; --- FIX X Backlash ---
G0 X51.08 Y39.177 F410
G1 X51.148 Y39.181 Z0 F600
G1 X51.646 Y39.177 Z0 F600
G1 X52.492 Y39.138 Z0 F600
G1 X53.299 Y39.143 Z0 F600
G0 Z3.5 F600
G0 X54.539 Y38.742 Z3.5
G1 Z0 F600
; --- FIX Y Backlash ---
G0 X54.539 Y39.242 F410
G1 X54.568 Y50.575 Z0 F600
; --- FIX X Backlash ---
G0 X53.868 Y50.575 F410
G1 X52.365 Y50.733 Z0 F600
G1 X50.801 Y50.902 Z0 F600
G1 X50.031 Y50.944 Z0 F600
; --- FIX Y Backlash ---
G0 X50.031 Y50.444 F410
G1 X50.034 Y49.94 Z0 F600
G1 X50.075 Y49.2 Z0 F600
G1 X50.122 Y48.427 Z0 F600
G1 X50.136 Y48 Z0 F600
G1 X50.133 Y47.566 Z0 F600
G1 X50.104 Y47.126 Z0 F600
G1 X50.037 Y46.684 Z0 F600
G1 X49.92 Y46.242 Z0 F600
G1 X49.736 Y45.808 Z0 F600
G1 X49.577 Y45.559 Z0 F600
; --- FIX X Backlash ---
G0 X50.277 Y45.559 F410
G1 X50.665 Y45.172 Z0 F600
; --- FIX X Backlash ---
G0 X49.965 Y45.172 F410
G1 X49.049 Y44.972 Z0 F600
G1 X48.788 Y44.824 Z0 F600
G1 X48.39 Y44.778 Z0 F600
G1 X48.326 Y44.797 Z0 F600
G1 X48.163 Y44.762 Z0 F600
G1 X47.905 Z0 F600
G1 X47.818 Y44.785 Z0 F600
G1 X47.824 Y44.49 Z0 F600
G1 Y44.484 Z0 F600
G1 Y44.474 Z0 F600
G1 X47.838 Y44.16 Z0 F600
G1 X47.856 Y43.852 Z0 F600
G1 X47.875 Y43.617 Z0 F600
; --- FIX X Backlash ---
G0 X48.575 Y43.617 F410
G1 X48.749 Y43.612 Z0 F600
G1 X49.041 Y43.592 Z0 F600
G1 X49.373 Y43.54 Z0 F600
G1 X49.745 Y43.427 Z0 F600
G1 X50.135 Y43.21 Z0 F600
G1 X50.478 Y42.871 Z0 F600
G1 X50.724 Y42.431 Z0 F600
G1 X50.84 Y41.946 Z0 F600
G1 X50.85 Y41.792 Z0 F600
; --- FIX X Backlash ---
G0 X50.15 Y41.792 F410
G1 X50.098 Y41.219 Z0 F600
G1 X50.088 Y40.724 Z0 F600
G1 X50.083 Y40.187 Z0 F600
G1 X50.05 Y39.601 Z0 F600
G1 X49.943 Y39.003 Z0 F600
G1 X49.837 Y38.73 Z0 F600
; --- FIX X Backlash ---
G0 X50.537 Y38.73 F410
G1 X50.661 Y38.75 Z0 F600
G1 X51.159 Y38.781 Z0 F600
G1 X51.635 Y38.777 Z0 F600
G1 X52.494 Y38.737 Z0 F600
G1 X53.3 Y38.742 Z0 F600
G1 X54.539 Z0 F600
G0 Z3.5 F600
G0 X54.938 Y38.342 Z3.5
G1 Z0 F600
; --- FIX Y Backlash ---
G0 X54.938 Y38.842 F410
G1 X54.968 Y50.522 Z0 F600
G1 X55.065 Y50.817 Z0 F600
G1 X55.236 Y50.938 Z0 F600
; --- FIX X Backlash ---
G0 X54.536 Y50.938 F410
G1 X54.014 Y50.962 Z0 F600
G1 X52.408 Y51.131 Z0 F600
G1 X50.839 Y51.301 Z0 F600
G1 X49.657 Y51.364 Z0 F600
; --- FIX Y Backlash ---
G0 X49.657 Y50.864 F410
G1 X49.631 Y50.608 Z0 F600
G1 X49.634 Y49.925 Z0 F600
G1 X49.676 Y49.179 Z0 F600
G1 X49.722 Y48.408 Z0 F600
G1 X49.736 Y47.995 Z0 F600
G1 Y47.581 Z0 F600
G1 X49.706 Y47.17 Z0 F600
G1 X49.645 Y46.766 Z0 F600
G1 X49.54 Y46.372 Z0 F600
G1 X49.381 Y45.995 Z0 F600
G1 X49.156 Y45.644 Z0 F600
G1 X49.045 Y45.526 Z0 F600
; --- FIX X Backlash ---
G0 X49.745 Y45.526 F410
G1 X49.864 Y45.407 Z0 F600
; --- FIX X Backlash ---
G0 X49.164 Y45.407 F410
G1 X48.872 Y45.343 Z0 F600
G1 X48.847 Y45.317 Z0 F600
G1 X48.661 Y45.211 Z0 F600
G1 X48.426 Y45.185 Z0 F600
G1 X48.332 Y45.213 Z0 F600
G1 X48.291 Y45.198 Z0 F600
G1 X48.121 Y45.162 Z0 F600
G1 X47.958 Z0 F600
; --- FIX Y Backlash ---
G0 X47.958 Y45.662 F410
G1 X47.758 Y45.716 Z0 F600
G1 X47.565 Y45.854 Z0 F600
G1 X47.453 Y46.016 Z0 F600
G1 X47.429 Y46.069 Z0 F600
G1 Y46.046 Z0 F600
; --- FIX Y Backlash ---
G0 X47.429 Y45.546 F410
G1 X47.418 Y45.184 Z0 F600
G1 Y44.831 Z0 F600
G1 X47.425 Y44.474 Z0 F600
G1 X47.439 Y44.136 Z0 F600
G1 X47.457 Y43.828 Z0 F600
G1 X47.478 Y43.567 Z0 F600
G1 Y43.479 Z0 F600
G1 X47.463 Y43.391 Z0 F600
G1 X47.428 Y43.256 Z0 F600
G1 X47.425 Y43.245 Z0 F600
; --- FIX X Backlash ---
G0 X48.125 Y43.245 F410
G1 X48.288 Y43.229 Z0 F600
G1 X48.487 Y43.219 Z0 F600
G1 X48.729 Y43.212 Z0 F600
G1 X48.997 Y43.194 Z0 F600
G1 X49.284 Y43.149 Z0 F600
G1 X49.588 Y43.057 Z0 F600
G1 X49.892 Y42.887 Z0 F600
G1 X50.156 Y42.626 Z0 F600
G1 X50.348 Y42.283 Z0 F600
G1 X50.443 Y41.887 Z0 F600
G1 X50.449 Y41.798 Z0 F600
; --- FIX X Backlash ---
G0 X49.749 Y41.798 F410
G1 X49.698 Y41.242 Z0 F600
G1 X49.688 Y40.731 Z0 F600
G1 X49.683 Y40.199 Z0 F600
G1 X49.652 Y39.648 Z0 F600
G1 X49.556 Y39.111 Z0 F600
G1 X49.357 Y38.598 Z0 F600
G1 X49.197 Y38.338 Z0 F600
G1 X49.015 Y38.115 Z0 F600
G1 X49.033 Y38.126 Z0 F600
; --- FIX X Backlash ---
G0 X49.733 Y38.126 F410
; --- FIX Y Backlash ---
G0 X49.733 Y38.626 F410
G1 X50.231 Y38.775 Z0 F600
G1 X50.705 Y38.852 Z0 F600
G1 X51.17 Y38.88 Z0 F600
G1 X51.625 Y38.877 Z0 F600
G1 X52.478 Y38.837 Z0 F600
G1 X53.302 Y38.842 Z0 F600
G1 X54.938 Z0 F600
G0 Z3.5 F600
G0 X61.922 Y50.544 Z3.5
G1 Z0 F600
G1 Y51.451 Z0 F600
G1 X61.915 Y51.445 Z0 F600
; --- FIX X Backlash ---
G0 X61.215 Y51.445 F410
; --- FIX Y Backlash ---
G0 X61.215 Y50.945 F410
G1 X61.066 Y50.762 Z0 F600
G1 X61.026 Y50.7 Z0 F600
; --- FIX X Backlash ---
G0 X61.726 Y50.7 F410
G1 X61.868 Y50.414 Z0 F600
G1 X61.922 Y50.044 Z0 F600
G0 Z3.5 F600
G0 X62.322 Y45.803 Z3.5
G1 Z0 F600
; --- FIX Y Backlash ---
G0 X62.322 Y46.303 F410
G1 Y52.125 Z0 F600
G1 X62.303 Z0 F600
; --- FIX X Backlash ---
G0 X61.603 Y52.125 F410
G1 X61.493 Y52.112 Z0 F600
G1 X61.384 Y52.075 Z0 F600
; --- FIX Y Backlash ---
G0 X61.384 Y51.575 F410
G1 X61.256 Y51.507 Z0 F600
G1 X61.121 Y51.408 Z0 F600
G1 X60.921 Y51.217 Z0 F600
G1 X60.741 Y50.996 Z0 F600
G1 X60.591 Y50.764 Z0 F600
G1 X60.565 Y50.712 Z0 F600
G1 X60.576 Y50.706 Z0 F600
; --- FIX X Backlash ---
G0 X61.276 Y50.706 F410
G1 X61.481 Y50.293 Z0 F600
G1 X61.577 Y49.636 Z0 F600
G1 X61.621 Y49.082 Z0 F600
G1 X61.636 Y48.541 Z0 F600
G1 X61.632 Y48.012 Z0 F600
G1 X61.608 Y46.996 Z0 F600
G1 X61.615 Y46.017 Z0 F600
G1 X61.612 Y45.803 Z0 F600
G1 X62.322 Z0 F600
G0 Z3.5 F600
G0 X62.722 Y45.403 Z3.5
G1 Z0 F600
; --- FIX Y Backlash ---
G0 X62.722 Y45.903 F410
G1 Y52.478 Z0 F600
; --- FIX X Backlash ---
G0 X62.022 Y52.478 F410
G1 X61.966 Z0 F600
G1 X61.904 Y52.482 Z0 F600
G1 X61.699 Y52.522 Z0 F600
G1 X61.588 Y52.527 Z0 F600
G1 X61.401 Y52.503 Z0 F600
; --- FIX Y Backlash ---
G0 X61.401 Y52.003 F410
G1 X61.225 Y51.944 Z0 F600
G1 X61.044 Y51.847 Z0 F600
G1 X60.862 Y51.714 Z0 F600
G1 X60.626 Y51.489 Z0 F600
G1 X60.419 Y51.233 Z0 F600
G1 X60.244 Y50.965 Z0 F600
G1 X60.086 Y50.654 Z0 F600
G1 X60.018 Y50.573 Z0 F600
G1 X60.029 Y50.57 Z0 F600
; --- FIX X Backlash ---
G0 X60.729 Y50.57 F410
G1 X60.97 Y50.424 Z0 F600
G1 X61.095 Y50.172 Z0 F600
G1 X61.179 Y49.591 Z0 F600
G1 X61.221 Y49.061 Z0 F600
G1 X61.235 Y48.536 Z0 F600
G1 X61.232 Y48.018 Z0 F600
G1 X61.208 Y47.005 Z0 F600
G1 X61.215 Y46.019 Z0 F600
G1 X61.211 Y45.749 Z0 F600
G1 X61.201 Y45.496 Z0 F600
G1 Y45.385 Z0 F600
G1 X61.25 Y45.397 Z0 F600
G1 X61.327 Y45.403 Z0 F600
G1 X62.722 Z0 F600
G0 Z3.5 F600
; --- FIX X Backlash ---
G0 X62.022 Y45.403 F410
G0 X48.765 Y37.885 Z3.5
G1 Z0 F600
G1 X48.748 Y37.873 Z0 F600
G1 X48.752 Y37.866 Z0 F600
G1 X48.765 Y37.885 Z0 F600
G0 Z3.5 F600
G0 X25.212 Y33.391 Z3.5
G1 Z0 F600
; --- FIX Y Backlash ---
G0 X25.212 Y33.891 F410
G1 X25.039 Y33.956 Z0 F600
G1 X24.91 Y34.032 Z0 F600
; --- FIX Y Backlash ---
G0 X24.91 Y33.532 F410
G1 Y33.392 Z0 F600
; --- FIX X Backlash ---
G0 X25.61 Y33.392 F410
G1 X25.912 Z0 F600
G0 Z3.5 F600
; --- FIX Y Backlash ---
G0 X25.912 Y33.892 F410
G0 X26.849 Y34.099 Z3.5
G1 Z0 F600
; --- FIX X Backlash ---
G0 X26.149 Y34.099 F410
G1 X25.816 Y34.137 Z0 F600
G1 X25.5 Y34.209 Z0 F600
G1 X25.213 Y34.318 Z0 F600
G1 X24.965 Y34.464 Z0 F600
G1 X24.86 Y34.553 Z0 F600
G1 X24.769 Y34.655 Z0 F600
G1 X24.699 Y34.77 Z0 F600
G1 X24.654 Y34.897 Z0 F600
G1 X24.64 Y35.036 Z0 F600
G1 X24.658 Y35.178 Z0 F600
G1 X24.707 Y35.32 Z0 F600
; --- FIX X Backlash ---
G0 X25.407 Y35.32 F410
G1 X25.485 Y35.46 Z0 F600
G1 X25.516 Y35.495 Z0 F600
G1 X25.554 Y35.521 Z0 F600
G1 X25.912 Y35.666 Z0 F600
G1 X26.282 Y35.75 Z0 F600
G1 X26.659 Y35.785 Z0 F600
G1 X27.038 Y35.778 Z0 F600
G1 X27.414 Y35.741 Z0 F600
; --- FIX Y Backlash ---
G0 X27.414 Y35.241 F410
G1 X27.783 Y35.179 Z0 F600
G1 X28.141 Y35.103 Z0 F600
G1 X28.483 Y35.021 Z0 F600
G1 X28.57 Y34.972 Z0 F600
G1 X28.618 Y34.884 Z0 F600
G1 X28.643 Y34.709 Z0 F600
G1 X28.64 Y34.542 Z0 F600
G1 X28.609 Y34.387 Z0 F600
; --- FIX X Backlash ---
G0 X27.909 Y34.387 F410
G1 X27.852 Y34.243 Z0 F600
G1 X27.771 Y34.116 Z0 F600
G1 X27.67 Y34.004 Z0 F600
G1 X27.553 Y33.908 Z0 F600
G1 X27.424 Y33.827 Z0 F600
G1 X27.137 Y33.705 Z0 F600
G1 X26.821 Y33.628 Z0 F600
G1 X26.488 Y33.595 Z0 F600
G1 X26.149 Y33.599 Z0 F600
G0 Z3.5 F600
G0 X24.51 Y32.993 Z3.5
G1 Z0 F600
; --- FIX X Backlash ---
G0 X25.21 Y32.993 F410
G1 X31.184 Y32.973 Z0 F600
G1 X37.158 Y32.959 Z0 F600
G1 X43.131 Y32.973 Z0 F600
; --- FIX Y Backlash ---
G0 X43.131 Y33.473 F410
G1 X49.103 Y33.532 Z0 F600
G1 X49.305 Y33.723 Z0 F600
G1 X49.459 Y33.929 Z0 F600
G1 X49.572 Y34.152 Z0 F600
G1 X49.647 Y34.394 Z0 F600
G1 X49.693 Y34.666 Z0 F600
G1 X49.712 Y34.955 Z0 F600
G1 X49.708 Y35.259 Z0 F600
G1 X49.688 Y35.573 Z0 F600
; --- FIX X Backlash ---
G0 X48.988 Y35.573 F410
G1 X48.925 Y36.224 Z0 F600
G1 X48.881 Y36.887 Z0 F600
G1 X48.885 Y37.217 Z0 F600
G1 X48.918 Y37.541 Z0 F600
; --- FIX X Backlash ---
G0 X49.618 Y37.541 F410
G1 X49.687 Y37.858 Z0 F600
G1 X49.8 Y38.165 Z0 F600
G1 X49.84 Y38.222 Z0 F600
G1 X49.899 Y38.259 Z0 F600
G1 X50.321 Y38.385 Z0 F600
G1 X50.749 Y38.454 Z0 F600
G1 X51.181 Y38.48 Z0 F600
G1 X51.614 Z0 F600
G1 X52.471 Y38.438 Z0 F600
G1 X53.303 Y38.442 Z0 F600
G1 X55.337 Z0 F600
G1 X55.368 Y50.458 Z0 F600
G1 X55.404 Y50.566 Z0 F600
G1 X55.497 Y50.632 Z0 F600
G1 X56.099 Y50.786 Z0 F600
G1 X56.739 Y50.895 Z0 F600
G1 X57.402 Y50.959 Z0 F600
G1 X58.076 Y50.983 Z0 F600
G1 X58.744 Y50.967 Z0 F600
; --- FIX Y Backlash ---
G0 X58.744 Y50.467 F410
G1 X59.394 Y50.412 Z0 F600
G1 X60.009 Y50.321 Z0 F600
G1 X60.577 Y50.194 Z0 F600
G1 X60.663 Y50.142 Z0 F600
G1 X60.708 Y50.052 Z0 F600
G1 X60.781 Y49.547 Z0 F600
G1 X60.821 Y49.04 Z0 F600
G1 X60.835 Y48.532 Z0 F600
G1 Y48.024 Z0 F600
G1 X60.809 Y47.015 Z0 F600
G1 X60.815 Y46.021 Z0 F600
G1 X60.811 Y45.76 Z0 F600
G1 X60.801 Y45.511 Z0 F600
G1 Y45.29 Z0 F600
G1 X60.819 Y45.114 Z0 F600
G1 X60.859 Y45.01 Z0 F600
G1 X60.917 Y44.962 Z0 F600
G1 X60.966 Y44.949 Z0 F600
G1 X61.042 Y44.946 Z0 F600
G1 X61.147 Y44.959 Z0 F600
G1 X61.313 Y45.001 Z0 F600
G1 X61.341 Z0 F600
G1 X63.122 Z0 F600
; --- FIX Y Backlash ---
G0 X63.122 Y45.501 F410
G1 Y52.878 Z0 F600
; --- FIX X Backlash ---
G0 X62.422 Y52.878 F410
G1 X61.979 Z0 F600
G1 X61.955 Z0 F600
G1 X61.749 Y52.92 Z0 F600
G1 X61.571 Y52.929 Z0 F600
G1 X61.312 Y52.896 Z0 F600
; --- FIX Y Backlash ---
G0 X61.312 Y52.396 F410
G1 X61.065 Y52.312 Z0 F600
G1 X60.829 Y52.186 Z0 F600
G1 X60.606 Y52.022 Z0 F600
G1 X60.332 Y51.761 Z0 F600
G1 X60.093 Y51.467 Z0 F600
G1 X59.898 Y51.165 Z0 F600
G1 X59.75 Y50.876 Z0 F600
G1 X59.685 Y50.798 Z0 F600
G1 X59.588 Y50.767 Z0 F600
G1 X57.612 Z0 F600
G1 X55.643 Y50.786 Z0 F600
; --- FIX Y Backlash ---
G0 X55.643 Y51.286 F410
G1 X54.044 Y51.361 Z0 F600
G1 X52.45 Y51.529 Z0 F600
G1 X50.867 Y51.7 Z0 F600
G1 X49.299 Y51.784 Z0 F600
; --- FIX Y Backlash ---
G0 X49.299 Y51.284 F410
G1 X49.231 Y50.629 Z0 F600
G1 X49.235 Y49.911 Z0 F600
G1 X49.277 Y49.155 Z0 F600
G1 X49.322 Y48.39 Z0 F600
G1 X49.336 Y47.989 Z0 F600
G1 Y47.596 Z0 F600
G1 X49.308 Y47.213 Z0 F600
G1 X49.253 Y46.847 Z0 F600
G1 X49.161 Y46.502 Z0 F600
G1 X49.026 Y46.182 Z0 F600
G1 X48.84 Y45.892 Z0 F600
G1 X48.598 Y45.636 Z0 F600
G1 X48.534 Y45.6 Z0 F600
G1 X48.462 Y45.591 Z0 F600
G1 X48.392 Y45.612 Z0 F600
G1 X48.359 Y45.641 Z0 F600
G1 X48.325 Y45.633 Z0 F600
G1 X48.26 Y45.612 Z0 F600
G1 X48.18 Y45.583 Z0 F600
G1 X48.078 Y45.562 Z0 F600
G1 X48.011 Z0 F600
G1 X47.932 Y45.583 Z0 F600
; --- FIX Y Backlash ---
G0 X47.932 Y46.083 F410
G1 X47.855 Y46.138 Z0 F600
G1 X47.803 Y46.214 Z0 F600
G1 X47.689 Y46.465 Z0 F600
G1 X47.583 Y46.677 Z0 F600
G1 X47.487 Y46.849 Z0 F600
G1 X47.401 Y46.983 Z0 F600
G1 X47.331 Y47.073 Z0 F600
G1 X47.276 Y47.127 Z0 F600
G1 X47.229 Y47.163 Z0 F600
G1 X47.216 Y47.147 Z0 F600
G1 X47.197 Y47.114 Z0 F600
; --- FIX Y Backlash ---
G0 X47.197 Y46.614 F410
G1 X47.138 Y46.447 Z0 F600
G1 X47.086 Y46.2 Z0 F600
G1 X47.05 Y45.898 Z0 F600
G1 X47.028 Y45.558 Z0 F600
G1 X47.018 Y45.195 Z0 F600
G1 Y44.823 Z0 F600
G1 X47.025 Y44.457 Z0 F600
G1 X47.039 Y44.113 Z0 F600
G1 X47.057 Y43.805 Z0 F600
G1 X47.078 Y43.548 Z0 F600
G1 Y43.513 Z0 F600
G1 X47.072 Y43.478 Z0 F600
G1 X47.037 Y43.342 Z0 F600
G1 X47.017 Y43.229 Z0 F600
G1 X47.012 Y43.138 Z0 F600
G1 X47.018 Y43.067 Z0 F600
G1 X47.049 Y42.978 Z0 F600
; --- FIX X Backlash ---
G0 X47.749 Y42.978 F410
G1 X47.808 Y42.923 Z0 F600
G1 X47.913 Y42.879 Z0 F600
G1 X48.067 Y42.849 Z0 F600
G1 X48.258 Y42.83 Z0 F600
G1 X48.476 Y42.819 Z0 F600
G1 X48.709 Y42.813 Z0 F600
G1 X48.952 Y42.796 Z0 F600
G1 X49.194 Y42.758 Z0 F600
G1 X49.431 Y42.687 Z0 F600
G1 X49.649 Y42.564 Z0 F600
G1 X49.834 Y42.381 Z0 F600
G1 X49.972 Y42.136 Z0 F600
G1 X50.046 Y41.827 Z0 F600
G1 Y41.804 Z0 F600
G1 X49.999 Y41.266 Z0 F600
G1 X49.988 Y40.74 Z0 F600
G1 X49.983 Y40.212 Z0 F600
G1 X49.954 Y39.694 Z0 F600
; --- FIX X Backlash ---
G0 X49.254 Y39.694 F410
G1 X49.169 Y39.22 Z0 F600
G1 X48.997 Y38.776 Z0 F600
G1 X48.87 Y38.571 Z0 F600
G1 X48.714 Y38.379 Z0 F600
G1 X48.525 Y38.205 Z0 F600
G1 X48.299 Y38.048 Z0 F600
G1 Y37.966 Z0 F600
G1 X48.32 Y37.863 Z0 F600
G1 X48.367 Y37.739 Z0 F600
; --- FIX X Backlash ---
G0 X49.067 Y37.739 F410
G1 X49.142 Y37.593 Z0 F600
G1 X49.24 Y37.417 Z0 F600
G1 X49.339 Y37.227 Z0 F600
G1 X49.42 Y37.02 Z0 F600
G1 X49.468 Y36.796 Z0 F600
G1 X49.594 Y35.776 Z0 F600
G1 X49.629 Y35.272 Z0 F600
G1 X49.606 Y34.792 Z0 F600
G1 X49.564 Y34.565 Z0 F600
; --- FIX X Backlash ---
G0 X48.864 Y34.565 F410
G1 X48.794 Y34.351 Z0 F600
G1 X48.692 Y34.152 Z0 F600
G1 X48.553 Y33.974 Z0 F600
G1 X48.375 Y33.823 Z0 F600
G1 X48.159 Y33.704 Z0 F600
G1 X47.905 Y33.618 Z0 F600
G1 X47.599 Y33.566 Z0 F600
G1 X46.445 Y33.596 Z0 F600
G1 X45.265 Y33.612 Z0 F600
G1 X44.06 Y33.618 Z0 F600
G1 X42.84 Z0 F600
G1 X40.411 Y33.606 Z0 F600
G1 X38.08 Y33.61 Z0 F600
G1 X37.995 Y33.632 Z0 F600
; --- FIX Y Backlash ---
G0 X37.995 Y34.132 F410
G1 X37.93 Y34.192 Z0 F600
G1 X37.815 Y34.404 Z0 F600
G1 X37.729 Y34.631 Z0 F600
G1 X37.666 Y34.87 Z0 F600
G1 X37.62 Y35.112 Z0 F600
G1 X37.553 Y35.588 Z0 F600
G1 X37.477 Y36.015 Z0 F600
G1 X37.423 Y36.191 Z0 F600
G1 X37.356 Y36.336 Z0 F600
G1 X37.276 Y36.447 Z0 F600
G1 X37.178 Y36.524 Z0 F600
G1 X37.051 Y36.572 Z0 F600
G1 X36.879 Y36.585 Z0 F600
G1 X36.653 Y36.554 Z0 F600
; --- FIX Y Backlash ---
G0 X36.653 Y36.054 F410
G1 X36.328 Y35.958 Z0 F600
G1 X35.681 Y35.88 Z0 F600
G1 X35.085 Z0 F600
G1 X34.812 Y35.917 Z0 F600
; --- FIX Y Backlash ---
G0 X34.812 Y36.417 F410
G1 X34.558 Y36.483 Z0 F600
G1 X34.325 Y36.583 Z0 F600
G1 X34.117 Y36.718 Z0 F600
G1 X33.94 Y36.893 Z0 F600
G1 X33.799 Y37.106 Z0 F600
G1 X33.697 Y37.358 Z0 F600
G1 X33.639 Y37.646 Z0 F600
G1 X33.624 Y37.961 Z0 F600
G1 X33.651 Y38.313 Z0 F600
; --- FIX X Backlash ---
G0 X34.351 Y38.313 F410
G1 X34.42 Y38.705 Z0 F600
G1 X34.53 Y39.138 Z0 F600
G1 X34.52 Y39.496 Z0 F600
G1 X34.501 Y39.812 Z0 F600
G1 X34.472 Y40.085 Z0 F600
G1 X34.429 Y40.315 Z0 F600
; --- FIX X Backlash ---
G0 X33.729 Y40.315 F410
G1 X33.671 Y40.505 Z0 F600
G1 X33.599 Y40.654 Z0 F600
G1 X33.508 Y40.771 Z0 F600
G1 X33.395 Y40.862 Z0 F600
G1 X33.25 Y40.933 Z0 F600
G1 X33.063 Y40.983 Z0 F600
G1 X32.831 Y41.014 Z0 F600
G1 X32.553 Y41.025 Z0 F600
G1 X32.224 Y41.018 Z0 F600
G1 X31.842 Y40.992 Z0 F600
G1 X31.404 Y40.948 Z0 F600
; --- FIX Y Backlash ---
G0 X31.404 Y40.448 F410
G1 X30.906 Y40.386 Z0 F600
G1 X30.296 Y40.305 Z0 F600
G1 X29.626 Y40.255 Z0 F600
G1 X29.283 Y40.252 Z0 F600
G1 X28.944 Y40.269 Z0 F600
G1 X28.613 Y40.309 Z0 F600
; --- FIX Y Backlash ---
G0 X28.613 Y40.809 F410
G1 X28.297 Y40.876 Z0 F600
G1 X28.001 Y40.977 Z0 F600
G1 X27.732 Y41.118 Z0 F600
G1 X27.501 Y41.303 Z0 F600
G1 X27.317 Y41.54 Z0 F600
G1 X27.197 Y41.818 Z0 F600
G1 X27.143 Y42.142 Z0 F600
G1 X27.156 Y42.509 Z0 F600
; --- FIX X Backlash ---
G0 X27.856 Y42.509 F410
G1 X27.938 Y42.919 Z0 F600
G1 Y45.765 Z0 F600
; --- FIX X Backlash ---
G0 X27.238 Y45.765 F410
G1 X26.951 Y45.782 Z0 F600
G1 X26.446 Y45.806 Z0 F600
G1 X26.034 Y45.819 Z0 F600
G1 X25.592 Y45.825 Z0 F600
G1 X25.147 Y45.819 Z0 F600
G1 X24.726 Y45.799 Z0 F600
G1 X24.356 Y45.759 Z0 F600
; --- FIX Y Backlash ---
G0 X24.356 Y45.259 F410
G1 X23.769 Y45.192 Z0 F600
G1 X23.196 Y45.114 Z0 F600
G1 X22.937 Y45.05 Z0 F600
G1 X22.71 Y44.959 Z0 F600
G1 X22.515 Y44.837 Z0 F600
G1 X22.36 Y44.675 Z0 F600
G1 X22.276 Y44.534 Z0 F600
G1 X22.214 Y44.369 Z0 F600
G1 X22.176 Y44.189 Z0 F600
G1 X22.162 Y44.001 Z0 F600
G1 X22.175 Y43.813 Z0 F600
G1 X22.213 Y43.633 Z0 F600
; --- FIX X Backlash ---
G0 X22.913 Y43.633 F410
G1 X22.974 Y43.469 Z0 F600
G1 X23.058 Y43.329 Z0 F600
G1 X23.12 Y43.268 Z0 F600
G1 X23.208 Y43.219 Z0 F600
G1 X23.319 Y43.183 Z0 F600
G1 X23.454 Y43.157 Z0 F600
G1 X23.777 Y43.138 Z0 F600
G1 X24.132 Y43.142 Z0 F600
G1 X24.483 Y43.139 Z0 F600
G1 X24.81 Y43.089 Z0 F600
G1 X24.96 Y43.027 Z0 F600
G1 X25.091 Y42.923 Z0 F600
G1 X25.179 Y42.771 Z0 F600
G1 X25.21 Y42.589 Z0 F600
G1 Y32.993 Z0 F600
;Layer C1 Pass 2 of 2
G0 Z3.5 F600
; --- FIX Y Backlash ---
G0 X25.21 Y33.493 F410
G0 X31.137 Y37.607 Z3.5
G1 Z0 F600
; --- FIX X Backlash ---
G0 X30.437 Y37.607 F410
G1 X30.355 Y37.601 Z0 F600
; --- FIX X Backlash ---
G0 X31.055 Y37.601 F410
; --- FIX Y Backlash ---
G0 X31.055 Y37.101 F410
G1 X31.145 Y36.934 Z0 F600
; --- FIX Y Backlash ---
G0 X31.145 Y37.434 F410
G1 X31.137 Y37.607 Z0 F600
G0 Z3.5 F600
G0 X31.283 Y38.019 Z3.5
G1 Z0 F600
; --- FIX X Backlash ---
G0 X30.583 Y38.019 F410
; --- FIX Y Backlash ---
G0 X30.583 Y37.519 F410
G1 X29.743 Y37.457 Z0 F600
G1 X29.228 Y37.451 Z0 F600
G1 X29.168 Y37.454 Z0 F600
; --- FIX X Backlash ---
G0 X29.868 Y37.454 F410
G1 X30.644 Y37.018 Z0 F600
G1 X31.319 Y35.779 Z0 F600
G1 Y35.772 Z0 F600
G1 X31.816 Z0 F600
; --- FIX X Backlash ---
G0 X31.116 Y35.772 F410
; --- FIX Y Backlash ---
G0 X31.116 Y36.272 F410
G1 X31.005 Y36.55 Z0 F600
G1 X30.852 Y37.299 Z0 F600
G1 X30.819 Y38.002 Z0 F600
G1 X30.823 Y38.05 Z0 F600
G1 X30.583 Y38.019 Z0 F600
G0 Z3.5 F600
; --- FIX Y Backlash ---
G0 X30.583 Y37.519 F410
G0 X28.669 Y37.276 Z3.5
G1 Z0 F600
; --- FIX X Backlash ---
G0 X29.369 Y37.276 F410
G1 X30.348 Y36.726 Z0 F600
G1 X30.933 Y35.651 Z0 F600
G1 X30.973 Y35.374 Z0 F600
G1 X31.192 Z0 F600
G1 X32.439 Y35.37 Z0 F600
; --- FIX X Backlash ---
G0 X31.739 Y35.37 F410
; --- FIX Y Backlash ---
G0 X31.739 Y35.87 F410
G1 X31.662 Y35.987 Z0 F600
G1 X31.389 Y36.665 Z0 F600
G1 X31.25 Y37.349 Z0 F600
G1 X31.22 Y37.997 Z0 F600
G1 X31.259 Y38.511 Z0 F600
G1 X31.22 Y38.506 Z0 F600
; --- FIX Y Backlash ---
G0 X31.22 Y38.006 F410
G1 X30.542 Y37.917 Z0 F600
G1 X29.727 Y37.856 Z0 F600
G1 X29.236 Y37.852 Z0 F600
G1 X28.74 Y37.875 Z0 F600
; --- FIX Y Backlash ---
G0 X28.74 Y38.375 F410
G1 X28.217 Y38.439 Z0 F600
G1 X27.657 Y38.559 Z0 F600
G1 X27.051 Y38.765 Z0 F600
G1 X26.91 Y38.839 Z0 F600
; --- FIX Y Backlash ---
G0 X26.91 Y38.339 F410
G1 Y37.633 Z0 F600
; --- FIX X Backlash ---
G0 X27.61 Y37.633 F410
G1 X27.731 Y37.621 Z0 F600
G1 X28.23 Y37.538 Z0 F600
G1 X28.671 Y37.444 Z0 F600
G1 X29.369 Y37.276 Z0 F600
G0 Z3.5 F600
G0 X32.474 Y36.281 Z3.5
G1 Z0 F600
; --- FIX X Backlash ---
G0 X31.774 Y36.281 F410
; --- FIX Y Backlash ---
G0 X31.774 Y36.781 F410
G1 X31.648 Y37.398 Z0 F600
G1 X31.621 Y37.991 Z0 F600
G1 X31.664 Y38.563 Z0 F600
; --- FIX X Backlash ---
G0 X32.364 Y38.563 F410
G1 X32.436 Y38.971 Z0 F600
; --- FIX X Backlash ---
G0 X31.736 Y38.971 F410
G1 X31.61 Y38.958 Z0 F600
; --- FIX Y Backlash ---
G0 X31.61 Y38.458 F410
G1 X31.168 Y38.403 Z0 F600
G1 X30.501 Y38.315 Z0 F600
G1 X29.71 Y38.256 Z0 F600
G1 X29.244 Y38.251 Z0 F600
G1 X28.774 Y38.274 Z0 F600
; --- FIX Y Backlash ---
G0 X28.774 Y38.774 F410
G1 X28.283 Y38.834 Z0 F600
G1 X27.764 Y38.945 Z0 F600
G1 X27.209 Y39.134 Z0 F600
G1 X26.633 Y39.436 Z0 F600
G1 X26.51 Y39.534 Z0 F600
; --- FIX Y Backlash ---
G0 X26.51 Y39.034 F410
G1 Y37.271 Z0 F600
; --- FIX X Backlash ---
G0 X27.21 Y37.271 F410
G1 X27.678 Y37.224 Z0 F600
G1 X28.156 Y37.145 Z0 F600
G1 X28.583 Y37.054 Z0 F600
G1 X29.221 Y36.9 Z0 F600
G1 X30.052 Y36.434 Z0 F600
G1 X30.547 Y35.523 Z0 F600
G1 X30.625 Y34.975 Z0 F600
G1 X31.191 Z0 F600
G1 X33.236 Y34.968 Z0 F600
; --- FIX X Backlash ---
G0 X32.536 Y34.968 F410
; --- FIX Y Backlash ---
G0 X32.536 Y35.468 F410
G1 X32.386 Y35.615 Z0 F600
G1 X32.018 Y36.173 Z0 F600
G1 X31.774 Y36.781 Z0 F600
G0 Z3.5 F600
G0 X31.105 Y39.298 Z3.5
G1 Z0 F600
; --- FIX Y Backlash ---
G0 X31.105 Y38.798 F410
G1 X30.46 Y38.713 Z0 F600
G1 X29.693 Y38.656 Z0 F600
G1 X29.252 Y38.651 Z0 F600
G1 X28.808 Y38.673 Z0 F600
; --- FIX Y Backlash ---
G0 X28.808 Y39.173 F410
G1 X28.349 Y39.229 Z0 F600
G1 X27.87 Y39.331 Z0 F600
G1 X27.367 Y39.502 Z0 F600
G1 X26.852 Y39.772 Z0 F600
G1 X26.353 Y40.173 Z0 F600
G1 X26.11 Y40.485 Z0 F600
; --- FIX Y Backlash ---
G0 X26.11 Y39.985 F410
G1 Y36.882 Z0 F600
; --- FIX X Backlash ---
G0 X26.81 Y36.882 F410
G1 X27.131 Y36.877 Z0 F600
G1 X27.625 Y36.828 Z0 F600
G1 X28.081 Y36.751 Z0 F600
G1 X28.495 Y36.664 Z0 F600
G1 X29.074 Y36.524 Z0 F600
G1 X29.755 Y36.141 Z0 F600
G1 X30.162 Y35.396 Z0 F600
G1 X30.246 Y34.806 Z0 F600
G1 X30.241 Y34.576 Z0 F600
G1 X31.189 Y34.573 Z0 F600
G1 X34.503 Y34.565 Z0 F600
; --- FIX X Backlash ---
G0 X33.803 Y34.565 F410
; --- FIX Y Backlash ---
G0 X33.803 Y35.065 F410
G1 X33.569 Y35.166 Z0 F600
G1 X33.11 Y35.464 Z0 F600
G1 X32.697 Y35.87 Z0 F600
G1 X32.374 Y36.36 Z0 F600
G1 X32.159 Y36.896 Z0 F600
G1 X32.046 Y37.447 Z0 F600
G1 X32.021 Y37.985 Z0 F600
G1 X32.062 Y38.513 Z0 F600
; --- FIX X Backlash ---
G0 X32.762 Y38.513 F410
G1 X32.854 Y39.041 Z0 F600
G1 X32.924 Y39.315 Z0 F600
G1 X32.921 Y39.414 Z0 F600
; --- FIX X Backlash ---
G0 X32.221 Y39.414 F410
G1 X31.97 Y39.396 Z0 F600
G1 X31.6 Y39.36 Z0 F600
; --- FIX Y Backlash ---
G0 X31.6 Y38.86 F410
G1 X31.105 Y38.798 Z0 F600
G0 Z3.5 F600
; --- FIX Y Backlash ---
G0 X31.105 Y39.298 F410
G0 X29.676 Y39.556 Z3.5
G1 Z0 F600
G1 X29.259 Y39.552 Z0 F600
G1 X28.842 Y39.572 Z0 F600
G1 X28.415 Y39.624 Z0 F600
G1 X27.977 Y39.717 Z0 F600
G1 X27.526 Y39.871 Z0 F600
G1 X27.072 Y40.108 Z0 F600
G1 X26.64 Y40.455 Z0 F600
G1 X26.274 Y40.926 Z0 F600
G1 X26.038 Y41.478 Z0 F600
G1 X25.94 Y42.063 Z0 F600
G1 X25.961 Y42.649 Z0 F600
; --- FIX X Backlash ---
G0 X26.661 Y42.649 F410
G1 X26.738 Y43.037 Z0 F600
G1 Y44.619 Z0 F600
G1 X26.706 Z0 F600
; --- FIX X Backlash ---
G0 X26.006 Y44.619 F410
G1 X25.592 Y44.625 Z0 F600
G1 X25.193 Y44.62 Z0 F600
G1 X24.814 Y44.602 Z0 F600
G1 X24.806 Z0 F600
; --- FIX X Backlash ---
G0 X25.506 Y44.602 F410
G1 X25.574 Y44.573 Z0 F600
; --- FIX Y Backlash ---
G0 X25.574 Y44.073 F410
G1 X26.016 Y43.72 Z0 F600
G1 X26.326 Y43.185 Z0 F600
G1 X26.41 Y42.69 Z0 F600
G1 Y36.467 Z0 F600
G1 X26.615 Y36.485 Z0 F600
G1 X27.108 Y36.478 Z0 F600
G1 X27.573 Y36.431 Z0 F600
G1 X28.006 Y36.358 Z0 F600
G1 X28.406 Y36.273 Z0 F600
G1 X28.926 Y36.148 Z0 F600
G1 X29.459 Y35.849 Z0 F600
G1 X29.775 Y35.268 Z0 F600
G1 X29.845 Y34.782 Z0 F600
G1 X29.837 Y34.413 Z0 F600
G1 X29.791 Y34.178 Z0 F600
G1 X31.188 Y34.173 Z0 F600
G1 X37.158 Y34.16 Z0 F600
G1 X37.184 Z0 F600
; --- FIX Y Backlash ---
G0 X37.184 Y34.66 F410
G1 X37.135 Y34.917 Z0 F600
G1 X37.087 Y35.257 Z0 F600
; --- FIX X Backlash ---
G0 X36.387 Y35.257 F410
; --- FIX Y Backlash ---
G0 X36.387 Y34.757 F410
G1 X35.754 Y34.681 Z0 F600
G1 X35.005 Z0 F600
; --- FIX Y Backlash ---
G0 X35.005 Y35.181 F410
G1 X34.578 Y35.237 Z0 F600
G1 X34.168 Y35.345 Z0 F600
G1 X33.758 Y35.52 Z0 F600
G1 X33.362 Y35.777 Z0 F600
G1 X33.008 Y36.126 Z0 F600
G1 X32.73 Y36.546 Z0 F600
G1 X32.543 Y37.012 Z0 F600
G1 X32.445 Y37.497 Z0 F600
G1 X32.422 Y37.979 Z0 F600
G1 X32.459 Y38.463 Z0 F600
; --- FIX X Backlash ---
G0 X33.159 Y38.463 F410
G1 X33.246 Y38.957 Z0 F600
G1 X33.326 Y39.271 Z0 F600
G1 X33.321 Y39.434 Z0 F600
G1 X33.305 Y39.705 Z0 F600
G1 X33.292 Y39.823 Z0 F600
; --- FIX X Backlash ---
G0 X32.592 Y39.823 F410
G1 X32.539 Z0 F600
G1 X32.28 Y39.819 Z0 F600
G1 X31.934 Y39.795 Z0 F600
G1 X31.55 Y39.757 Z0 F600
; --- FIX Y Backlash ---
G0 X31.55 Y39.257 F410
G1 X31.055 Y39.195 Z0 F600
G1 X30.419 Y39.111 Z0 F600
G1 X29.676 Y39.056 Z0 F600
G0 Z3.5 F600
; --- FIX Y Backlash ---
G0 X29.676 Y39.556 F410
G0 X28.481 Y40.019 Z3.5
G1 Z0 F600
G1 X28.084 Y40.104 Z0 F600
G1 X27.684 Y40.24 Z0 F600
G1 X27.292 Y40.445 Z0 F600
G1 X26.927 Y40.738 Z0 F600
G1 X26.622 Y41.13 Z0 F600
G1 X26.425 Y41.592 Z0 F600
G1 X26.341 Y42.089 Z0 F600
G1 X26.359 Y42.602 Z0 F600
; --- FIX X Backlash ---
G0 X27.059 Y42.602 F410
G1 X27.139 Y43 Z0 F600
G1 Y45.005 Z0 F600
G1 X27.114 Z0 F600
; --- FIX X Backlash ---
G0 X26.414 Y45.005 F410
G1 X26.008 Y45.02 Z0 F600
G1 X25.592 Y45.025 Z0 F600
G1 X25.169 Y45.02 Z0 F600
G1 X24.793 Y45.001 Z0 F600
G1 X24.446 Y44.964 Z0 F600
; --- FIX Y Backlash ---
G0 X24.446 Y44.464 F410
G1 X23.873 Y44.398 Z0 F600
G1 X23.346 Y44.327 Z0 F600
G1 X23.183 Y44.286 Z0 F600
G1 X23.073 Y44.243 Z0 F600
G1 X23.024 Y44.211 Z0 F600
G1 X23.001 Y44.188 Z0 F600
G1 X22.984 Y44.145 Z0 F600
G1 X22.97 Y44.076 Z0 F600
G1 X22.965 Y44 Z0 F600
G1 X22.968 Y43.946 Z0 F600
; --- FIX X Backlash ---
G0 X23.668 Y43.946 F410
G1 X23.802 Y43.938 Z0 F600
G1 X24.131 Y43.941 Z0 F600
G1 X24.547 Z0 F600
G1 X25.025 Y43.865 Z0 F600
G1 X25.369 Y43.724 Z0 F600
G1 X25.708 Y43.454 Z0 F600
G1 X25.944 Y43.047 Z0 F600
G1 X26.01 Y42.656 Z0 F600
G1 Y36.009 Z0 F600
G1 X26.156 Y36.042 Z0 F600
G1 X26.63 Y36.085 Z0 F600
G1 X27.084 Y36.078 Z0 F600
G1 X27.52 Y36.034 Z0 F600
G1 X27.932 Y35.965 Z0 F600
G1 X28.317 Y35.883 Z0 F600
G1 X28.778 Y35.772 Z0 F600
G1 X29.163 Y35.556 Z0 F600
G1 X29.39 Y35.14 Z0 F600
G1 X29.444 Y34.757 Z0 F600
G1 X29.438 Y34.456 Z0 F600
; --- FIX X Backlash ---
G0 X28.738 Y34.456 F410
G1 X28.679 Y34.159 Z0 F600
G1 X28.567 Y33.877 Z0 F600
G1 X28.505 Y33.779 Z0 F600
; --- FIX X Backlash ---
G0 X29.205 Y33.779 F410
G1 X31.187 Y33.772 Z0 F600
G1 X37.158 Y33.759 Z0 F600
G1 X37.714 Z0 F600
; --- FIX Y Backlash ---
G0 X37.714 Y34.259 F410
G1 X37.666 Y34.387 Z0 F600
; --- FIX X Backlash ---
G0 X36.966 Y34.387 F410
G1 X36.885 Y34.693 Z0 F600
G1 X36.83 Y34.982 Z0 F600
G1 X36.764 Y35.455 Z0 F600
G1 X36.714 Y35.738 Z0 F600
; --- FIX Y Backlash ---
G0 X36.714 Y35.238 F410
G1 X36.491 Y35.172 Z0 F600
G1 X35.73 Y35.081 Z0 F600
G1 X35.032 Z0 F600
G1 X34.656 Y35.13 Z0 F600
; --- FIX Y Backlash ---
G0 X34.656 Y35.63 F410
G1 X34.298 Y35.724 Z0 F600
G1 X33.947 Y35.875 Z0 F600
G1 X33.614 Y36.091 Z0 F600
G1 X33.319 Y36.381 Z0 F600
G1 X33.086 Y36.733 Z0 F600
G1 X32.928 Y37.127 Z0 F600
G1 X32.842 Y37.546 Z0 F600
G1 X32.823 Y37.973 Z0 F600
G1 X32.856 Y38.413 Z0 F600
; --- FIX X Backlash ---
G0 X33.556 Y38.413 F410
G1 X33.637 Y38.873 Z0 F600
G1 X33.727 Y39.226 Z0 F600
G1 X33.72 Y39.459 Z0 F600
G1 X33.703 Y39.75 Z0 F600
G1 X33.68 Y39.967 Z0 F600
G1 X33.65 Y40.124 Z0 F600
G1 X33.63 Y40.19 Z0 F600
G1 X33.605 Y40.197 Z0 F600
; --- FIX X Backlash ---
G0 X32.905 Y40.197 F410
G1 X32.762 Y40.216 Z0 F600
G1 X32.546 Y40.225 Z0 F600
G1 X32.266 Y40.219 Z0 F600
G1 X31.897 Y40.193 Z0 F600
G1 X31.503 Y40.154 Z0 F600
; --- FIX Y Backlash ---
G0 X31.503 Y39.654 F410
G1 X31.006 Y39.592 Z0 F600
G1 X30.378 Y39.509 Z0 F600
G1 X29.659 Y39.456 Z0 F600
G1 X29.267 Y39.452 Z0 F600
G1 X28.876 Y39.471 Z0 F600
G1 X28.481 Y39.519 Z0 F600
G0 Z3.5 F600
; --- FIX Y Backlash ---
G0 X28.481 Y40.019 F410
G0 X27.842 Y40.608 Z3.5
G1 Z0 F600
G1 X27.512 Y40.781 Z0 F600
G1 X27.214 Y41.021 Z0 F600
G1 X26.969 Y41.335 Z0 F600
G1 X26.811 Y41.705 Z0 F600
G1 X26.742 Y42.115 Z0 F600
G1 X26.758 Y42.556 Z0 F600
; --- FIX X Backlash ---
G0 X27.458 Y42.556 F410
G1 X27.539 Y42.958 Z0 F600
G1 Y45.387 Z0 F600
; --- FIX X Backlash ---
G0 X26.839 Y45.387 F410
G1 X26.434 Y45.406 Z0 F600
G1 X26.021 Y45.419 Z0 F600
G1 X25.592 Y45.425 Z0 F600
G1 X25.158 Y45.419 Z0 F600
G1 X24.755 Y45.4 Z0 F600
G1 X24.401 Y45.362 Z0 F600
; --- FIX Y Backlash ---
G0 X24.401 Y44.862 F410
G1 X23.821 Y44.795 Z0 F600
G1 X23.27 Y44.721 Z0 F600
G1 X23.058 Y44.667 Z0 F600
G1 X22.893 Y44.602 Z0 F600
G1 X22.771 Y44.525 Z0 F600
G1 X22.679 Y44.43 Z0 F600
G1 X22.639 Y44.361 Z0 F600
G1 X22.598 Y44.253 Z0 F600
G1 X22.573 Y44.135 Z0 F600
G1 X22.563 Y43.999 Z0 F600
G1 X22.572 Y43.868 Z0 F600
G1 X22.598 Y43.747 Z0 F600
G1 X22.637 Y43.642 Z0 F600
G1 X22.67 Y43.587 Z0 F600
G1 X22.718 Y43.571 Z0 F600
; --- FIX X Backlash ---
G0 X23.418 Y43.571 F410
G1 X23.501 Y43.555 Z0 F600
G1 X23.79 Y43.538 Z0 F600
G1 X24.131 Y43.542 Z0 F600
G1 X24.516 Y43.539 Z0 F600
G1 X24.917 Y43.477 Z0 F600
G1 X25.165 Y43.376 Z0 F600
G1 X25.399 Y43.188 Z0 F600
G1 X25.562 Y42.909 Z0 F600
G1 X25.61 Y42.623 Z0 F600
G1 Y35.475 Z0 F600
; --- FIX Y Backlash ---
G0 X25.61 Y35.975 F410
G1 X25.791 Y36.048 Z0 F600
G1 X26.219 Y36.146 Z0 F600
G1 X26.645 Y36.185 Z0 F600
G1 X27.062 Y36.178 Z0 F600
G1 X27.467 Y36.137 Z0 F600
; --- FIX Y Backlash ---
G0 X27.467 Y35.637 F410
G1 X27.857 Y35.572 Z0 F600
G1 X28.229 Y35.493 Z0 F600
G1 X28.631 Y35.396 Z0 F600
G1 X28.867 Y35.264 Z0 F600
G1 X29.004 Y35.012 Z0 F600
G1 X29.043 Y34.733 Z0 F600
G1 X29.039 Y34.5 Z0 F600
G1 X28.994 Y34.273 Z0 F600
; --- FIX X Backlash ---
G0 X28.294 Y34.273 F410
G1 X28.21 Y34.06 Z0 F600
G1 X28.091 Y33.873 Z0 F600
G1 X27.947 Y33.714 Z0 F600
G1 X27.787 Y33.583 Z0 F600
G1 X27.61 Y33.472 Z0 F600
G1 X27.403 Y33.383 Z0 F600
; --- FIX X Backlash ---
G0 X28.103 Y33.383 F410
G1 X31.186 Y33.373 Z0 F600
G1 X37.158 Y33.359 Z0 F600
G1 X38.398 Y33.362 Z0 F600
; --- FIX X Backlash ---
G0 X37.698 Y33.362 F410
; --- FIX Y Backlash ---
G0 X37.698 Y33.862 F410
G1 X37.61 Y33.943 Z0 F600
G1 X37.45 Y34.237 Z0 F600
G1 X37.347 Y34.509 Z0 F600
G1 X37.276 Y34.781 Z0 F600
G1 X37.225 Y35.047 Z0 F600
G1 X37.157 Y35.528 Z0 F600
G1 X37.088 Y35.92 Z0 F600
G1 X37.048 Y36.048 Z0 F600
G1 X37.01 Y36.131 Z0 F600
G1 X36.983 Y36.168 Z0 F600
G1 X36.978 Y36.172 Z0 F600
G1 X36.965 Y36.177 Z0 F600
G1 X36.891 Y36.183 Z0 F600
G1 X36.735 Y36.162 Z0 F600
; --- FIX Y Backlash ---
G0 X36.735 Y35.662 F410
G1 X36.409 Y35.565 Z0 F600
G1 X35.706 Y35.48 Z0 F600
G1 X35.058 Z0 F600
G1 X34.734 Y35.523 Z0 F600
; --- FIX Y Backlash ---
G0 X34.734 Y36.023 F410
G1 X34.428 Y36.104 Z0 F600
G1 X34.136 Y36.229 Z0 F600
G1 X33.865 Y36.404 Z0 F600
G1 X33.629 Y36.637 Z0 F600
G1 X33.443 Y36.92 Z0 F600
G1 X33.313 Y37.243 Z0 F600
G1 X33.241 Y37.596 Z0 F600
G1 X33.223 Y37.967 Z0 F600
G1 X33.254 Y38.363 Z0 F600
; --- FIX X Backlash ---
G0 X33.954 Y38.363 F410
G1 X34.029 Y38.789 Z0 F600
G1 X34.129 Y39.182 Z0 F600
G1 X34.12 Y39.472 Z0 F600
G1 X34.102 Y39.776 Z0 F600
G1 X34.075 Y40.032 Z0 F600
G1 X34.04 Y40.218 Z0 F600
G1 X33.997 Y40.36 Z0 F600
G1 X33.957 Y40.442 Z0 F600
G1 X33.922 Y40.488 Z0 F600
G1 X33.878 Y40.523 Z0 F600
; --- FIX X Backlash ---
G0 X33.178 Y40.523 F410
G1 X33.111 Y40.556 Z0 F600
G1 X32.982 Y40.591 Z0 F600
G1 X32.8 Y40.615 Z0 F600
G1 X32.546 Y40.625 Z0 F600
G1 X32.239 Y40.618 Z0 F600
G1 X31.879 Y40.593 Z0 F600
G1 X31.451 Y40.551 Z0 F600
; --- FIX Y Backlash ---
G0 X31.451 Y40.051 F410
G1 X30.956 Y39.989 Z0 F600
G1 X30.337 Y39.907 Z0 F600
G1 X29.642 Y39.855 Z0 F600
G1 X29.275 Y39.852 Z0 F600
G1 X28.91 Y39.87 Z0 F600
G1 X28.547 Y39.914 Z0 F600
; --- FIX Y Backlash ---
G0 X28.547 Y40.414 F410
G1 X28.191 Y40.49 Z0 F600
G1 X27.842 Y40.608 Z0 F600
G0 Z3.5 F600
; --- FIX X Backlash ---
G0 X28.542 Y40.608 F410
G0 X52.414 Y44.006 Z3.5
G1 Z0 F600
; --- FIX Y Backlash ---
G0 X52.414 Y43.506 F410
G1 X52.551 Y43.261 Z0 F600
; --- FIX Y Backlash ---
G0 X52.551 Y43.761 F410
G1 Y44.036 Z0 F600
; --- FIX X Backlash ---
G0 X51.851 Y44.036 F410
G1 X51.714 Y44.006 Z0 F600
G0 Z3.5 F600
G0 X51.101 Y44.282 Z3.5
G1 Z0 F600
; --- FIX X Backlash ---
G0 X51.801 Y44.282 F410
; --- FIX Y Backlash ---
G0 X51.801 Y43.782 F410
G1 X52.228 Y43.019 Z0 F600
G1 X52.428 Y42.185 Z0 F600
G1 X52.454 Y41.77 Z0 F600
; --- FIX X Backlash ---
G0 X51.754 Y41.77 F410
G1 X51.696 Y41.132 Z0 F600
G1 X51.688 Y40.713 Z0 F600
G1 X51.684 Y40.344 Z0 F600
; --- FIX X Backlash ---
G0 X52.384 Y40.344 F410
G1 X52.522 Y40.338 Z0 F600
G1 X52.943 Z0 F600
; --- FIX Y Backlash ---
G0 X52.943 Y40.838 F410
G1 X52.953 Y44.533 Z0 F600
; --- FIX X Backlash ---
G0 X52.253 Y44.533 F410
; --- FIX Y Backlash ---
G0 X52.253 Y44.033 F410
G1 X51.101 Y43.782 Z0 F600
G0 Z3.5 F600
; --- FIX X Backlash ---
G0 X51.801 Y43.782 F410
; --- FIX Y Backlash ---
G0 X51.801 Y44.282 F410
G0 X52.188 Y46.412 Z3.5
G1 Z0 F600
; --- FIX Y Backlash ---
G0 X52.188 Y45.912 F410
G1 X52.956 Y45.144 Z0 F600
; --- FIX Y Backlash ---
G0 X52.956 Y45.644 F410
G1 X52.965 Y49.135 Z0 F600
; --- FIX X Backlash ---
G0 X52.265 Y49.135 F410
G1 X52.196 Y49.143 Z0 F600
G1 X51.708 Y49.195 Z0 F600
; --- FIX Y Backlash ---
G0 X51.708 Y48.695 F410
G1 X51.72 Y48.502 Z0 F600
G1 X51.737 Y48.023 Z0 F600
G1 X51.733 Y47.507 Z0 F600
G1 X51.696 Y46.953 Z0 F600
G1 X51.606 Y46.358 Z0 F600
G1 X51.488 Y45.912 Z0 F600
G0 Z3.5 F600
G0 X50.742 Y43.604 Z3.5
G1 Z0 F600
; --- FIX X Backlash ---
G0 X51.442 Y43.604 F410
G1 X51.852 Y42.872 Z0 F600
G1 X52.031 Y42.125 Z0 F600
G1 X52.053 Y41.775 Z0 F600
; --- FIX X Backlash ---
G0 X51.353 Y41.775 F410
G1 X51.297 Y41.155 Z0 F600
G1 X51.288 Y40.721 Z0 F600
G1 X51.282 Y40.147 Z0 F600
G1 X51.272 Y39.963 Z0 F600
; --- FIX X Backlash ---
G0 X51.972 Y39.963 F410
G1 X52.515 Y39.938 Z0 F600
G1 X53.297 Y39.942 Z0 F600
G1 X53.342 Z0 F600
; --- FIX Y Backlash ---
G0 X53.342 Y40.442 F410
G1 X53.366 Y49.495 Z0 F600
; --- FIX X Backlash ---
G0 X52.666 Y49.495 F410
G1 X52.238 Y49.54 Z0 F600
G1 X51.281 Y49.644 Z0 F600
; --- FIX Y Backlash ---
G0 X51.281 Y49.144 F410
G1 X51.321 Y48.483 Z0 F600
G1 X51.336 Y48.017 Z0 F600
G1 X51.333 Y47.522 Z0 F600
G1 X51.298 Y46.997 Z0 F600
G1 X51.214 Y46.44 Z0 F600
G1 X51.058 Y45.853 Z0 F600
G1 X51.035 Y45.799 Z0 F600
; --- FIX X Backlash ---
G0 X51.735 Y45.799 F410
G1 X53.066 Y44.467 Z0 F600
; --- FIX X Backlash ---
G0 X52.366 Y44.467 F410
G1 X50.321 Y44.021 Z0 F600
; --- FIX X Backlash ---
G0 X51.021 Y44.021 F410
G1 X51.442 Y43.604 Z0 F600
G0 Z3.5 F600
G0 X51.476 Y42.725 Z3.5
G1 Z0 F600
G1 X51.634 Y42.065 Z0 F600
G1 X51.652 Y41.781 Z0 F600
; --- FIX X Backlash ---
G0 X50.952 Y41.781 F410
G1 X50.897 Y41.179 Z0 F600
G1 X50.888 Y40.725 Z0 F600
G1 X50.883 Y40.161 Z0 F600
G1 X50.85 Y39.578 Z0 F600
; --- FIX X Backlash ---
G0 X51.55 Y39.578 F410
G1 X51.657 Z0 F600
G1 X52.499 Y39.538 Z0 F600
G1 X53.298 Y39.542 Z0 F600
G1 X53.741 Z0 F600
; --- FIX Y Backlash ---
G0 X53.741 Y40.042 F410
G1 X53.767 Y49.855 Z0 F600
; --- FIX X Backlash ---
G0 X53.067 Y49.855 F410
G1 X52.28 Y49.938 Z0 F600
G1 X50.855 Y50.092 Z0 F600
; --- FIX Y Backlash ---
G0 X50.855 Y49.592 F410
G1 X50.874 Y49.251 Z0 F600
G1 X50.921 Y48.465 Z0 F600
G1 X50.936 Y48.012 Z0 F600
G1 X50.933 Y47.537 Z0 F600
G1 X50.9 Y47.04 Z0 F600
G1 X50.821 Y46.521 Z0 F600
G1 X50.678 Y45.982 Z0 F600
G1 X50.562 Y45.706 Z0 F600
; --- FIX X Backlash ---
G0 X51.262 Y45.706 F410
G1 X52.266 Y44.702 Z0 F600
; --- FIX X Backlash ---
G0 X51.566 Y44.702 F410
G1 X49.34 Y44.217 Z0 F600
G1 X49.291 Y44.189 Z0 F600
; --- FIX X Backlash ---
G0 X49.991 Y44.189 F410
G1 X50.059 Y44.168 Z0 F600
G1 X50.62 Y43.855 Z0 F600
G1 X51.12 Y43.36 Z0 F600
G1 X51.476 Y42.725 Z0 F600
G0 Z3.5 F600
G0 X53.299 Y39.143 Z3.5
G1 Z0 F600
G1 X54.14 Z0 F600
; --- FIX Y Backlash ---
G0 X54.14 Y39.643 F410
G1 X54.167 Y50.215 Z0 F600
; --- FIX X Backlash ---
G0 X53.467 Y50.215 F410
G1 X52.323 Y50.335 Z0 F600
G1 X50.773 Y50.503 Z0 F600
G1 X50.434 Y50.521 Z0 F600
; --- FIX Y Backlash ---
G0 X50.434 Y50.021 F410
G1 Y49.945 Z0 F600
G1 X50.474 Y49.227 Z0 F600
G1 X50.521 Y48.446 Z0 F600
G1 X50.536 Y48.006 Z0 F600
G1 X50.533 Y47.551 Z0 F600
G1 X50.502 Y47.083 Z0 F600
G1 X50.429 Y46.603 Z0 F600
G1 X50.299 Y46.112 Z0 F600
G1 X50.092 Y45.621 Z0 F600
G1 X50.088 Y45.615 Z0 F600
; --- FIX X Backlash ---
G0 X50.788 Y45.615 F410
G1 X51.465 Y44.937 Z0 F600
; --- FIX X Backlash ---
G0 X50.765 Y44.937 F410
G1 X49.195 Y44.595 Z0 F600
G1 X48.915 Y44.436 Z0 F600
G1 X48.353 Y44.371 Z0 F600
G1 X48.311 Y44.384 Z0 F600
G1 X48.23 Y44.367 Z0 F600
G1 X48.238 Y44.162 Z0 F600
G1 X48.248 Y43.999 Z0 F600
; --- FIX X Backlash ---
G0 X48.948 Y43.999 F410
G1 X49.086 Y43.99 Z0 F600
G1 X49.462 Y43.931 Z0 F600
G1 X49.902 Y43.798 Z0 F600
G1 X50.377 Y43.533 Z0 F600
G1 X50.799 Y43.115 Z0 F600
G1 X51.1 Y42.578 Z0 F600
G1 X51.237 Y42.006 Z0 F600
G1 X51.251 Y41.787 Z0 F600
; --- FIX X Backlash ---
G0 X50.551 Y41.787 F410
G1 X50.497 Y41.195 Z0 F600
G1 X50.488 Y40.715 Z0 F600
G1 X50.483 Y40.173 Z0 F600
G1 X50.448 Y39.555 Z0 F600
G1 X50.38 Y39.177 Z0 F600
; --- FIX X Backlash ---
G0 X51.08 Y39.177 F410
G1 X51.148 Y39.181 Z0 F600
G1 X51.646 Y39.177 Z0 F600
G1 X52.492 Y39.138 Z0 F600
G1 X53.299 Y39.143 Z0 F600
G0 Z3.5 F600
G0 X54.539 Y38.742 Z3.5
G1 Z0 F600
; --- FIX Y Backlash ---
G0 X54.539 Y39.242 F410
G1 X54.568 Y50.575 Z0 F600
; --- FIX X Backlash ---
G0 X53.868 Y50.575 F410
G1 X52.365 Y50.733 Z0 F600
G1 X50.801 Y50.902 Z0 F600
G1 X50.031 Y50.944 Z0 F600
; --- FIX Y Backlash ---
G0 X50.031 Y50.444 F410
G1 X50.034 Y49.94 Z0 F600
G1 X50.075 Y49.2 Z0 F600
G1 X50.122 Y48.427 Z0 F600
G1 X50.136 Y48 Z0 F600
G1 X50.133 Y47.566 Z0 F600
G1 X50.104 Y47.126 Z0 F600
G1 X50.037 Y46.684 Z0 F600
G1 X49.92 Y46.242 Z0 F600
G1 X49.736 Y45.808 Z0 F600
G1 X49.577 Y45.559 Z0 F600
; --- FIX X Backlash ---
G0 X50.277 Y45.559 F410
G1 X50.665 Y45.172 Z0 F600
; --- FIX X Backlash ---
G0 X49.965 Y45.172 F410
G1 X49.049 Y44.972 Z0 F600
G1 X48.788 Y44.824 Z0 F600
G1 X48.39 Y44.778 Z0 F600
G1 X48.326 Y44.797 Z0 F600
G1 X48.163 Y44.762 Z0 F600
G1 X47.905 Z0 F600
G1 X47.818 Y44.785 Z0 F600
G1 X47.824 Y44.49 Z0 F600
G1 Y44.484 Z0 F600
G1 Y44.474 Z0 F600
G1 X47.838 Y44.16 Z0 F600
G1 X47.856 Y43.852 Z0 F600
G1 X47.875 Y43.617 Z0 F600
; --- FIX X Backlash ---
G0 X48.575 Y43.617 F410
G1 X48.749 Y43.612 Z0 F600
G1 X49.041 Y43.592 Z0 F600
G1 X49.373 Y43.54 Z0 F600
G1 X49.745 Y43.427 Z0 F600
G1 X50.135 Y43.21 Z0 F600
G1 X50.478 Y42.871 Z0 F600
G1 X50.724 Y42.431 Z0 F600
G1 X50.84 Y41.946 Z0 F600
G1 X50.85 Y41.792 Z0 F600
; --- FIX X Backlash ---
G0 X50.15 Y41.792 F410
G1 X50.098 Y41.219 Z0 F600
G1 X50.088 Y40.724 Z0 F600
G1 X50.083 Y40.187 Z0 F600
G1 X50.05 Y39.601 Z0 F600
G1 X49.943 Y39.003 Z0 F600
G1 X49.837 Y38.73 Z0 F600
; --- FIX X Backlash ---
G0 X50.537 Y38.73 F410
G1 X50.661 Y38.75 Z0 F600
G1 X51.159 Y38.781 Z0 F600
G1 X51.635 Y38.777 Z0 F600
G1 X52.494 Y38.737 Z0 F600
G1 X53.3 Y38.742 Z0 F600
G1 X54.539 Z0 F600
G0 Z3.5 F600
G0 X54.938 Y38.342 Z3.5
G1 Z0 F600
; --- FIX Y Backlash ---
G0 X54.938 Y38.842 F410
G1 X54.968 Y50.522 Z0 F600
G1 X55.065 Y50.817 Z0 F600
G1 X55.236 Y50.938 Z0 F600
; --- FIX X Backlash ---
G0 X54.536 Y50.938 F410
G1 X54.014 Y50.962 Z0 F600
G1 X52.408 Y51.131 Z0 F600
G1 X50.839 Y51.301 Z0 F600
G1 X49.657 Y51.364 Z0 F600
; --- FIX Y Backlash ---
G0 X49.657 Y50.864 F410
G1 X49.631 Y50.608 Z0 F600
G1 X49.634 Y49.925 Z0 F600
G1 X49.676 Y49.179 Z0 F600
G1 X49.722 Y48.408 Z0 F600
G1 X49.736 Y47.995 Z0 F600
G1 Y47.581 Z0 F600
G1 X49.706 Y47.17 Z0 F600
G1 X49.645 Y46.766 Z0 F600
G1 X49.54 Y46.372 Z0 F600
G1 X49.381 Y45.995 Z0 F600
G1 X49.156 Y45.644 Z0 F600
G1 X49.045 Y45.526 Z0 F600
; --- FIX X Backlash ---
G0 X49.745 Y45.526 F410
G1 X49.864 Y45.407 Z0 F600
; --- FIX X Backlash ---
G0 X49.164 Y45.407 F410
G1 X48.872 Y45.343 Z0 F600
G1 X48.847 Y45.317 Z0 F600
G1 X48.661 Y45.211 Z0 F600
G1 X48.426 Y45.185 Z0 F600
G1 X48.332 Y45.213 Z0 F600
G1 X48.291 Y45.198 Z0 F600
G1 X48.121 Y45.162 Z0 F600
G1 X47.958 Z0 F600
; --- FIX Y Backlash ---
G0 X47.958 Y45.662 F410
G1 X47.758 Y45.716 Z0 F600
G1 X47.565 Y45.854 Z0 F600
G1 X47.453 Y46.016 Z0 F600
G1 X47.429 Y46.069 Z0 F600
G1 Y46.046 Z0 F600
; --- FIX Y Backlash ---
G0 X47.429 Y45.546 F410
G1 X47.418 Y45.184 Z0 F600
G1 Y44.831 Z0 F600
G1 X47.425 Y44.474 Z0 F600
G1 X47.439 Y44.136 Z0 F600
G1 X47.457 Y43.828 Z0 F600
G1 X47.478 Y43.567 Z0 F600
G1 Y43.479 Z0 F600
G1 X47.463 Y43.391 Z0 F600
G1 X47.428 Y43.256 Z0 F600
G1 X47.425 Y43.245 Z0 F600
; --- FIX X Backlash ---
G0 X48.125 Y43.245 F410
G1 X48.288 Y43.229 Z0 F600
G1 X48.487 Y43.219 Z0 F600
G1 X48.729 Y43.212 Z0 F600
G1 X48.997 Y43.194 Z0 F600
G1 X49.284 Y43.149 Z0 F600
G1 X49.588 Y43.057 Z0 F600
G1 X49.892 Y42.887 Z0 F600
G1 X50.156 Y42.626 Z0 F600
G1 X50.348 Y42.283 Z0 F600
G1 X50.443 Y41.887 Z0 F600
G1 X50.449 Y41.798 Z0 F600
; --- FIX X Backlash ---
G0 X49.749 Y41.798 F410
G1 X49.698 Y41.242 Z0 F600
G1 X49.688 Y40.731 Z0 F600
G1 X49.683 Y40.199 Z0 F600
G1 X49.652 Y39.648 Z0 F600
G1 X49.556 Y39.111 Z0 F600
G1 X49.357 Y38.598 Z0 F600
G1 X49.197 Y38.338 Z0 F600
G1 X49.015 Y38.115 Z0 F600
G1 X49.033 Y38.126 Z0 F600
; --- FIX X Backlash ---
G0 X49.733 Y38.126 F410
; --- FIX Y Backlash ---
G0 X49.733 Y38.626 F410
G1 X50.231 Y38.775 Z0 F600
G1 X50.705 Y38.852 Z0 F600
G1 X51.17 Y38.88 Z0 F600
G1 X51.625 Y38.877 Z0 F600
G1 X52.478 Y38.837 Z0 F600
G1 X53.302 Y38.842 Z0 F600
G1 X54.938 Z0 F600
G0 Z3.5 F600
G0 X61.922 Y50.544 Z3.5
G1 Z0 F600
G1 Y51.451 Z0 F600
G1 X61.915 Y51.445 Z0 F600
; --- FIX X Backlash ---
G0 X61.215 Y51.445 F410
; --- FIX Y Backlash ---
G0 X61.215 Y50.945 F410
G1 X61.066 Y50.762 Z0 F600
G1 X61.026 Y50.7 Z0 F600
; --- FIX X Backlash ---
G0 X61.726 Y50.7 F410
G1 X61.868 Y50.414 Z0 F600
G1 X61.922 Y50.044 Z0 F600
G0 Z3.5 F600
G0 X62.322 Y45.803 Z3.5
G1 Z0 F600
; --- FIX Y Backlash ---
G0 X62.322 Y46.303 F410
G1 Y52.125 Z0 F600
G1 X62.303 Z0 F600
; --- FIX X Backlash ---
G0 X61.603 Y52.125 F410
G1 X61.493 Y52.112 Z0 F600
G1 X61.384 Y52.075 Z0 F600
; --- FIX Y Backlash ---
G0 X61.384 Y51.575 F410
G1 X61.256 Y51.507 Z0 F600
G1 X61.121 Y51.408 Z0 F600
G1 X60.921 Y51.217 Z0 F600
G1 X60.741 Y50.996 Z0 F600
G1 X60.591 Y50.764 Z0 F600
G1 X60.565 Y50.712 Z0 F600
G1 X60.576 Y50.706 Z0 F600
; --- FIX X Backlash ---
G0 X61.276 Y50.706 F410
G1 X61.481 Y50.293 Z0 F600
G1 X61.577 Y49.636 Z0 F600
G1 X61.621 Y49.082 Z0 F600
G1 X61.636 Y48.541 Z0 F600
G1 X61.632 Y48.012 Z0 F600
G1 X61.608 Y46.996 Z0 F600
G1 X61.615 Y46.017 Z0 F600
G1 X61.612 Y45.803 Z0 F600
G1 X62.322 Z0 F600
G0 Z3.5 F600
G0 X62.722 Y45.403 Z3.5
G1 Z0 F600
; --- FIX Y Backlash ---
G0 X62.722 Y45.903 F410
G1 Y52.478 Z0 F600
; --- FIX X Backlash ---
G0 X62.022 Y52.478 F410
G1 X61.966 Z0 F600
G1 X61.904 Y52.482 Z0 F600
G1 X61.699 Y52.522 Z0 F600
G1 X61.588 Y52.527 Z0 F600
G1 X61.401 Y52.503 Z0 F600
; --- FIX Y Backlash ---
G0 X61.401 Y52.003 F410
G1 X61.225 Y51.944 Z0 F600
G1 X61.044 Y51.847 Z0 F600
G1 X60.862 Y51.714 Z0 F600
G1 X60.626 Y51.489 Z0 F600
G1 X60.419 Y51.233 Z0 F600
G1 X60.244 Y50.965 Z0 F600
G1 X60.086 Y50.654 Z0 F600
G1 X60.018 Y50.573 Z0 F600
G1 X60.029 Y50.57 Z0 F600
; --- FIX X Backlash ---
G0 X60.729 Y50.57 F410
G1 X60.97 Y50.424 Z0 F600
G1 X61.095 Y50.172 Z0 F600
G1 X61.179 Y49.591 Z0 F600
G1 X61.221 Y49.061 Z0 F600
G1 X61.235 Y48.536 Z0 F600
G1 X61.232 Y48.018 Z0 F600
G1 X61.208 Y47.005 Z0 F600
G1 X61.215 Y46.019 Z0 F600
G1 X61.211 Y45.749 Z0 F600
G1 X61.201 Y45.496 Z0 F600
G1 Y45.385 Z0 F600
G1 X61.25 Y45.397 Z0 F600
G1 X61.327 Y45.403 Z0 F600
G1 X62.722 Z0 F600
G0 Z3.5 F600
; --- FIX X Backlash ---
G0 X62.022 Y45.403 F410
G0 X48.765 Y37.885 Z3.5
G1 Z0 F600
G1 X48.748 Y37.873 Z0 F600
G1 X48.752 Y37.866 Z0 F600
G1 X48.765 Y37.885 Z0 F600
G0 Z3.5 F600
G0 X25.212 Y33.391 Z3.5
G1 Z0 F600
; --- FIX Y Backlash ---
G0 X25.212 Y33.891 F410
G1 X25.039 Y33.956 Z0 F600
G1 X24.91 Y34.032 Z0 F600
; --- FIX Y Backlash ---
G0 X24.91 Y33.532 F410
G1 Y33.392 Z0 F600
; --- FIX X Backlash ---
G0 X25.61 Y33.392 F410
G1 X25.912 Z0 F600
G0 Z3.5 F600
; --- FIX Y Backlash ---
G0 X25.912 Y33.892 F410
G0 X26.849 Y34.099 Z3.5
G1 Z0 F600
; --- FIX X Backlash ---
G0 X26.149 Y34.099 F410
G1 X25.816 Y34.137 Z0 F600
G1 X25.5 Y34.209 Z0 F600
G1 X25.213 Y34.318 Z0 F600
G1 X24.965 Y34.464 Z0 F600
G1 X24.86 Y34.553 Z0 F600
G1 X24.769 Y34.655 Z0 F600
G1 X24.699 Y34.77 Z0 F600
G1 X24.654 Y34.897 Z0 F600
G1 X24.64 Y35.036 Z0 F600
G1 X24.658 Y35.178 Z0 F600
G1 X24.707 Y35.32 Z0 F600
; --- FIX X Backlash ---
G0 X25.407 Y35.32 F410
G1 X25.485 Y35.46 Z0 F600
G1 X25.516 Y35.495 Z0 F600
G1 X25.554 Y35.521 Z0 F600
G1 X25.912 Y35.666 Z0 F600
G1 X26.282 Y35.75 Z0 F600
G1 X26.659 Y35.785 Z0 F600
G1 X27.038 Y35.778 Z0 F600
G1 X27.414 Y35.741 Z0 F600
; --- FIX Y Backlash ---
G0 X27.414 Y35.241 F410
G1 X27.783 Y35.179 Z0 F600
G1 X28.141 Y35.103 Z0 F600
G1 X28.483 Y35.021 Z0 F600
G1 X28.57 Y34.972 Z0 F600
G1 X28.618 Y34.884 Z0 F600
G1 X28.643 Y34.709 Z0 F600
G1 X28.64 Y34.542 Z0 F600
G1 X28.609 Y34.387 Z0 F600
; --- FIX X Backlash ---
G0 X27.909 Y34.387 F410
G1 X27.852 Y34.243 Z0 F600
G1 X27.771 Y34.116 Z0 F600
G1 X27.67 Y34.004 Z0 F600
G1 X27.553 Y33.908 Z0 F600
G1 X27.424 Y33.827 Z0 F600
G1 X27.137 Y33.705 Z0 F600
G1 X26.821 Y33.628 Z0 F600
G1 X26.488 Y33.595 Z0 F600
G1 X26.149 Y33.599 Z0 F600
G0 Z3.5 F600
G0 X24.51 Y32.993 Z3.5
G1 Z0 F600
; --- FIX X Backlash ---
G0 X25.21 Y32.993 F410
G1 X31.184 Y32.973 Z0 F600
G1 X37.158 Y32.959 Z0 F600
G1 X43.131 Y32.973 Z0 F600
; --- FIX Y Backlash ---
G0 X43.131 Y33.473 F410
G1 X49.103 Y33.532 Z0 F600
G1 X49.305 Y33.723 Z0 F600
G1 X49.459 Y33.929 Z0 F600
G1 X49.572 Y34.152 Z0 F600
G1 X49.647 Y34.394 Z0 F600
G1 X49.693 Y34.666 Z0 F600
G1 X49.712 Y34.955 Z0 F600
G1 X49.708 Y35.259 Z0 F600
G1 X49.688 Y35.573 Z0 F600
; --- FIX X Backlash ---
G0 X48.988 Y35.573 F410
G1 X48.925 Y36.224 Z0 F600
G1 X48.881 Y36.887 Z0 F600
G1 X48.885 Y37.217 Z0 F600
G1 X48.918 Y37.541 Z0 F600
; --- FIX X Backlash ---
G0 X49.618 Y37.541 F410
G1 X49.687 Y37.858 Z0 F600
G1 X49.8 Y38.165 Z0 F600
G1 X49.84 Y38.222 Z0 F600
G1 X49.899 Y38.259 Z0 F600
G1 X50.321 Y38.385 Z0 F600
G1 X50.749 Y38.454 Z0 F600
G1 X51.181 Y38.48 Z0 F600
G1 X51.614 Z0 F600
G1 X52.471 Y38.438 Z0 F600
G1 X53.303 Y38.442 Z0 F600
G1 X55.337 Z0 F600
G1 X55.368 Y50.458 Z0 F600
G1 X55.404 Y50.566 Z0 F600
G1 X55.497 Y50.632 Z0 F600
G1 X56.099 Y50.786 Z0 F600
G1 X56.739 Y50.895 Z0 F600
G1 X57.402 Y50.959 Z0 F600
G1 X58.076 Y50.983 Z0 F600
G1 X58.744 Y50.967 Z0 F600
; --- FIX Y Backlash ---
G0 X58.744 Y50.467 F410
G1 X59.394 Y50.412 Z0 F600
G1 X60.009 Y50.321 Z0 F600
G1 X60.577 Y50.194 Z0 F600
G1 X60.663 Y50.142 Z0 F600
G1 X60.708 Y50.052 Z0 F600
G1 X60.781 Y49.547 Z0 F600
G1 X60.821 Y49.04 Z0 F600
G1 X60.835 Y48.532 Z0 F600
G1 Y48.024 Z0 F600
G1 X60.809 Y47.015 Z0 F600
G1 X60.815 Y46.021 Z0 F600
G1 X60.811 Y45.76 Z0 F600
G1 X60.801 Y45.511 Z0 F600
G1 Y45.29 Z0 F600
G1 X60.819 Y45.114 Z0 F600
G1 X60.859 Y45.01 Z0 F600
G1 X60.917 Y44.962 Z0 F600
G1 X60.966 Y44.949 Z0 F600
G1 X61.042 Y44.946 Z0 F600
G1 X61.147 Y44.959 Z0 F600
G1 X61.313 Y45.001 Z0 F600
G1 X61.341 Z0 F600
G1 X63.122 Z0 F600
; --- FIX Y Backlash ---
G0 X63.122 Y45.501 F410
G1 Y52.878 Z0 F600
; --- FIX X Backlash ---
G0 X62.422 Y52.878 F410
G1 X61.979 Z0 F600
G1 X61.955 Z0 F600
G1 X61.749 Y52.92 Z0 F600
G1 X61.571 Y52.929 Z0 F600
G1 X61.312 Y52.896 Z0 F600
; --- FIX Y Backlash ---
G0 X61.312 Y52.396 F410
G1 X61.065 Y52.312 Z0 F600
G1 X60.829 Y52.186 Z0 F600
G1 X60.606 Y52.022 Z0 F600
G1 X60.332 Y51.761 Z0 F600
G1 X60.093 Y51.467 Z0 F600
G1 X59.898 Y51.165 Z0 F600
G1 X59.75 Y50.876 Z0 F600
G1 X59.685 Y50.798 Z0 F600
G1 X59.588 Y50.767 Z0 F600
G1 X57.612 Z0 F600
G1 X55.643 Y50.786 Z0 F600
; --- FIX Y Backlash ---
G0 X55.643 Y51.286 F410
G1 X54.044 Y51.361 Z0 F600
G1 X52.45 Y51.529 Z0 F600
G1 X50.867 Y51.7 Z0 F600
G1 X49.299 Y51.784 Z0 F600
; --- FIX Y Backlash ---
G0 X49.299 Y51.284 F410
G1 X49.231 Y50.629 Z0 F600
G1 X49.235 Y49.911 Z0 F600
G1 X49.277 Y49.155 Z0 F600
G1 X49.322 Y48.39 Z0 F600
G1 X49.336 Y47.989 Z0 F600
G1 Y47.596 Z0 F600
G1 X49.308 Y47.213 Z0 F600
G1 X49.253 Y46.847 Z0 F600
G1 X49.161 Y46.502 Z0 F600
G1 X49.026 Y46.182 Z0 F600
G1 X48.84 Y45.892 Z0 F600
G1 X48.598 Y45.636 Z0 F600
G1 X48.534 Y45.6 Z0 F600
G1 X48.462 Y45.591 Z0 F600
G1 X48.392 Y45.612 Z0 F600
G1 X48.359 Y45.641 Z0 F600
G1 X48.325 Y45.633 Z0 F600
G1 X48.26 Y45.612 Z0 F600
G1 X48.18 Y45.583 Z0 F600
G1 X48.078 Y45.562 Z0 F600
G1 X48.011 Z0 F600
G1 X47.932 Y45.583 Z0 F600
; --- FIX Y Backlash ---
G0 X47.932 Y46.083 F410
G1 X47.855 Y46.138 Z0 F600
G1 X47.803 Y46.214 Z0 F600
G1 X47.689 Y46.465 Z0 F600
G1 X47.583 Y46.677 Z0 F600
G1 X47.487 Y46.849 Z0 F600
G1 X47.401 Y46.983 Z0 F600
G1 X47.331 Y47.073 Z0 F600
G1 X47.276 Y47.127 Z0 F600
G1 X47.229 Y47.163 Z0 F600
G1 X47.216 Y47.147 Z0 F600
G1 X47.197 Y47.114 Z0 F600
; --- FIX Y Backlash ---
G0 X47.197 Y46.614 F410
G1 X47.138 Y46.447 Z0 F600
G1 X47.086 Y46.2 Z0 F600
G1 X47.05 Y45.898 Z0 F600
G1 X47.028 Y45.558 Z0 F600
G1 X47.018 Y45.195 Z0 F600
G1 Y44.823 Z0 F600
G1 X47.025 Y44.457 Z0 F600
G1 X47.039 Y44.113 Z0 F600
G1 X47.057 Y43.805 Z0 F600
G1 X47.078 Y43.548 Z0 F600
G1 Y43.513 Z0 F600
G1 X47.072 Y43.478 Z0 F600
G1 X47.037 Y43.342 Z0 F600
G1 X47.017 Y43.229 Z0 F600
G1 X47.012 Y43.138 Z0 F600
G1 X47.018 Y43.067 Z0 F600
G1 X47.049 Y42.978 Z0 F600
; --- FIX X Backlash ---
G0 X47.749 Y42.978 F410
G1 X47.808 Y42.923 Z0 F600
G1 X47.913 Y42.879 Z0 F600
G1 X48.067 Y42.849 Z0 F600
G1 X48.258 Y42.83 Z0 F600
G1 X48.476 Y42.819 Z0 F600
G1 X48.709 Y42.813 Z0 F600
G1 X48.952 Y42.796 Z0 F600
G1 X49.194 Y42.758 Z0 F600
G1 X49.431 Y42.687 Z0 F600
G1 X49.649 Y42.564 Z0 F600
G1 X49.834 Y42.381 Z0 F600
G1 X49.972 Y42.136 Z0 F600
G1 X50.046 Y41.827 Z0 F600
G1 Y41.804 Z0 F600
G1 X49.999 Y41.266 Z0 F600
G1 X49.988 Y40.74 Z0 F600
G1 X49.983 Y40.212 Z0 F600
G1 X49.954 Y39.694 Z0 F600
; --- FIX X Backlash ---
G0 X49.254 Y39.694 F410
G1 X49.169 Y39.22 Z0 F600
G1 X48.997 Y38.776 Z0 F600
G1 X48.87 Y38.571 Z0 F600
G1 X48.714 Y38.379 Z0 F600
G1 X48.525 Y38.205 Z0 F600
G1 X48.299 Y38.048 Z0 F600
G1 Y37.966 Z0 F600
G1 X48.32 Y37.863 Z0 F600
G1 X48.367 Y37.739 Z0 F600
; --- FIX X Backlash ---
G0 X49.067 Y37.739 F410
G1 X49.142 Y37.593 Z0 F600
G1 X49.24 Y37.417 Z0 F600
G1 X49.339 Y37.227 Z0 F600
G1 X49.42 Y37.02 Z0 F600
G1 X49.468 Y36.796 Z0 F600
G1 X49.594 Y35.776 Z0 F600
G1 X49.629 Y35.272 Z0 F600
G1 X49.606 Y34.792 Z0 F600
G1 X49.564 Y34.565 Z0 F600
; --- FIX X Backlash ---
G0 X48.864 Y34.565 F410
G1 X48.794 Y34.351 Z0 F600
G1 X48.692 Y34.152 Z0 F600
G1 X48.553 Y33.974 Z0 F600
G1 X48.375 Y33.823 Z0 F600
G1 X48.159 Y33.704 Z0 F600
G1 X47.905 Y33.618 Z0 F600
G1 X47.599 Y33.566 Z0 F600
G1 X46.445 Y33.596 Z0 F600
G1 X45.265 Y33.612 Z0 F600
G1 X44.06 Y33.618 Z0 F600
G1 X42.84 Z0 F600
G1 X40.411 Y33.606 Z0 F600
G1 X38.08 Y33.61 Z0 F600
G1 X37.995 Y33.632 Z0 F600
; --- FIX Y Backlash ---
G0 X37.995 Y34.132 F410
G1 X37.93 Y34.192 Z0 F600
G1 X37.815 Y34.404 Z0 F600
G1 X37.729 Y34.631 Z0 F600
G1 X37.666 Y34.87 Z0 F600
G1 X37.62 Y35.112 Z0 F600
G1 X37.553 Y35.588 Z0 F600
G1 X37.477 Y36.015 Z0 F600
G1 X37.423 Y36.191 Z0 F600
G1 X37.356 Y36.336 Z0 F600
G1 X37.276 Y36.447 Z0 F600
G1 X37.178 Y36.524 Z0 F600
G1 X37.051 Y36.572 Z0 F600
G1 X36.879 Y36.585 Z0 F600
G1 X36.653 Y36.554 Z0 F600
; --- FIX Y Backlash ---
G0 X36.653 Y36.054 F410
G1 X36.328 Y35.958 Z0 F600
G1 X35.681 Y35.88 Z0 F600
G1 X35.085 Z0 F600
G1 X34.812 Y35.917 Z0 F600
; --- FIX Y Backlash ---
G0 X34.812 Y36.417 F410
G1 X34.558 Y36.483 Z0 F600
G1 X34.325 Y36.583 Z0 F600
G1 X34.117 Y36.718 Z0 F600
G1 X33.94 Y36.893 Z0 F600
G1 X33.799 Y37.106 Z0 F600
G1 X33.697 Y37.358 Z0 F600
G1 X33.639 Y37.646 Z0 F600
G1 X33.624 Y37.961 Z0 F600
G1 X33.651 Y38.313 Z0 F600
; --- FIX X Backlash ---
G0 X34.351 Y38.313 F410
G1 X34.42 Y38.705 Z0 F600
G1 X34.53 Y39.138 Z0 F600
G1 X34.52 Y39.496 Z0 F600
G1 X34.501 Y39.812 Z0 F600
G1 X34.472 Y40.085 Z0 F600
G1 X34.429 Y40.315 Z0 F600
; --- FIX X Backlash ---
G0 X33.729 Y40.315 F410
G1 X33.671 Y40.505 Z0 F600
G1 X33.599 Y40.654 Z0 F600
G1 X33.508 Y40.771 Z0 F600
G1 X33.395 Y40.862 Z0 F600
G1 X33.25 Y40.933 Z0 F600
G1 X33.063 Y40.983 Z0 F600
G1 X32.831 Y41.014 Z0 F600
G1 X32.553 Y41.025 Z0 F600
G1 X32.224 Y41.018 Z0 F600
G1 X31.842 Y40.992 Z0 F600
G1 X31.404 Y40.948 Z0 F600
; --- FIX Y Backlash ---
G0 X31.404 Y40.448 F410
G1 X30.906 Y40.386 Z0 F600
G1 X30.296 Y40.305 Z0 F600
G1 X29.626 Y40.255 Z0 F600
G1 X29.283 Y40.252 Z0 F600
G1 X28.944 Y40.269 Z0 F600
G1 X28.613 Y40.309 Z0 F600
; --- FIX Y Backlash ---
G0 X28.613 Y40.809 F410
G1 X28.297 Y40.876 Z0 F600
G1 X28.001 Y40.977 Z0 F600
G1 X27.732 Y41.118 Z0 F600
G1 X27.501 Y41.303 Z0 F600
G1 X27.317 Y41.54 Z0 F600
G1 X27.197 Y41.818 Z0 F600
G1 X27.143 Y42.142 Z0 F600
G1 X27.156 Y42.509 Z0 F600
; --- FIX X Backlash ---
G0 X27.856 Y42.509 F410
G1 X27.938 Y42.919 Z0 F600
G1 Y45.765 Z0 F600
; --- FIX X Backlash ---
G0 X27.238 Y45.765 F410
G1 X26.951 Y45.782 Z0 F600
G1 X26.446 Y45.806 Z0 F600
G1 X26.034 Y45.819 Z0 F600
G1 X25.592 Y45.825 Z0 F600
G1 X25.147 Y45.819 Z0 F600
G1 X24.726 Y45.799 Z0 F600
G1 X24.356 Y45.759 Z0 F600
; --- FIX Y Backlash ---
G0 X24.356 Y45.259 F410
G1 X23.769 Y45.192 Z0 F600
G1 X23.196 Y45.114 Z0 F600
G1 X22.937 Y45.05 Z0 F600
G1 X22.71 Y44.959 Z0 F600
G1 X22.515 Y44.837 Z0 F600
G1 X22.36 Y44.675 Z0 F600
G1 X22.276 Y44.534 Z0 F600
G1 X22.214 Y44.369 Z0 F600
G1 X22.176 Y44.189 Z0 F600
G1 X22.162 Y44.001 Z0 F600
G1 X22.175 Y43.813 Z0 F600
G1 X22.213 Y43.633 Z0 F600
; --- FIX X Backlash ---
G0 X22.913 Y43.633 F410
G1 X22.974 Y43.469 Z0 F600
G1 X23.058 Y43.329 Z0 F600
G1 X23.12 Y43.268 Z0 F600
G1 X23.208 Y43.219 Z0 F600
G1 X23.319 Y43.183 Z0 F600
G1 X23.454 Y43.157 Z0 F600
G1 X23.777 Y43.138 Z0 F600
G1 X24.132 Y43.142 Z0 F600
G1 X24.483 Y43.139 Z0 F600
G1 X24.81 Y43.089 Z0 F600
G1 X24.96 Y43.027 Z0 F600
G1 X25.091 Y42.923 Z0 F600
G1 X25.179 Y42.771 Z0 F600
G1 X25.21 Y42.589 Z0 F600
G1 Y32.993 Z0 F600
G0 Z3.5 F600
; --- FIX Y Backlash ---
G0 X25.21 Y33.493 F410
G0 X32.577 Y44.868 Z3.5
G1 Z0 F600
;Layer C1 Pass 1 of 2
G1 Y46.468 Z0 F600
; --- FIX X Backlash ---
G0 X31.877 Y46.468 F410
G1 X31.402 Y46.81 Z0 F600
G1 X31.222 Y47.049 Z0 F600
; --- FIX Y Backlash ---
G0 X31.222 Y46.549 F410
G1 X31.243 Y46.383 Z0 F600
G1 Y45.86 Z0 F600
G1 X31.222 Y45.452 Z0 F600
G1 X31.203 Y45.148 Z0 F600
G1 X31.199 Y44.957 Z0 F600
G1 X31.218 Y44.675 Z0 F600
G1 Y44.363 Z0 F600
; --- FIX X Backlash ---
G0 X31.918 Y44.363 F410
G1 X32.577 Y44.368 Z0 F600
G0 Z3.5 F600
G0 X32.977 Y43.97 Z3.5
G1 Z0 F600
; --- FIX Y Backlash ---
G0 X32.977 Y44.47 F410
G1 Y46.681 Z0 F600
G1 X32.954 Y46.69 Z0 F600
; --- FIX X Backlash ---
G0 X32.254 Y46.69 F410
G1 X31.685 Y47.099 Z0 F600
G1 X31.255 Y47.673 Z0 F600
G1 X31.02 Y48.258 Z0 F600
G1 X30.923 Y48.784 Z0 F600
G1 X30.898 Y49.252 Z0 F600
G1 X30.934 Y49.96 Z0 F600
; --- FIX X Backlash ---
G0 X31.634 Y49.96 F410
G1 X31.692 Y50.586 Z0 F600
G1 X31.709 Y50.821 Z0 F600
G1 Y50.907 Z0 F600
; --- FIX X Backlash ---
G0 X31.009 Y50.907 F410
G1 X30.832 Z0 F600
; --- FIX Y Backlash ---
G0 X30.832 Y50.407 F410
G1 Y50.344 Z0 F600
G1 X30.821 Y49.531 Z0 F600
G1 X30.653 Y48.474 Z0 F600
G1 X30.347 Y47.949 Z0 F600
; --- FIX X Backlash ---
G0 X31.047 Y47.949 F410
G1 X31.263 Y47.603 Z0 F600
G1 X31.472 Y46.942 Z0 F600
G1 X31.543 Y46.358 Z0 F600
G1 Y45.87 Z0 F600
G1 X31.523 Y45.475 Z0 F600
G1 X31.504 Y45.17 Z0 F600
G1 X31.499 Y44.949 Z0 F600
G1 X31.519 Y44.662 Z0 F600
G1 Y43.961 Z0 F600
G1 X32.977 Y43.97 Z0 F600
G0 Z3.5 F600
G0 X33.377 Y43.956 Z3.5
G1 Z0 F600
; --- FIX Y Backlash ---
G0 X33.377 Y44.456 F410
G1 Y46.961 Z0 F600
; --- FIX X Backlash ---
G0 X32.677 Y46.961 F410
G1 X32.443 Y47.046 Z0 F600
G1 X31.969 Y47.388 Z0 F600
G1 X31.607 Y47.871 Z0 F600
G1 X31.406 Y48.371 Z0 F600
G1 X31.321 Y48.832 Z0 F600
G1 X31.299 Y49.252 Z0 F600
G1 X31.333 Y49.931 Z0 F600
; --- FIX X Backlash ---
G0 X32.033 Y49.931 F410
G1 X32.09 Y50.535 Z0 F600
G1 X32.108 Y50.805 Z0 F600
G1 X32.112 Y51.005 Z0 F600
G1 X32.104 Y51.148 Z0 F600
G1 X32.073 Y51.307 Z0 F600
; --- FIX X Backlash ---
G0 X31.373 Y51.307 F410
G1 X30.418 Z0 F600
; --- FIX Y Backlash ---
G0 X30.418 Y50.807 F410
G1 X30.434 Y50.34 Z0 F600
G1 X30.421 Y49.566 Z0 F600
G1 X30.269 Y48.611 Z0 F600
G1 X29.94 Y48.043 Z0 F600
G1 X29.848 Y47.994 Z0 F600
; --- FIX X Backlash ---
G0 X30.548 Y47.994 F410
G1 X30.896 Y47.434 Z0 F600
G1 X31.079 Y46.856 Z0 F600
G1 X31.143 Y46.333 Z0 F600
G1 Y45.88 Z0 F600
G1 X31.124 Y45.498 Z0 F600
G1 X31.104 Y45.18 Z0 F600
G1 X31.098 Y44.941 Z0 F600
G1 X31.119 Y44.647 Z0 F600
G1 Y43.559 Z0 F600
G1 X33.433 Y43.573 Z0 F600
G1 X33.445 Y43.594 Z0 F600
G1 X33.44 Y43.61 Z0 F600
; --- FIX Y Backlash ---
G0 X33.44 Y44.11 F410
G1 X33.397 Y44.267 Z0 F600
G1 X33.377 Y44.456 Z0 F600
G0 Z3.5 F600
; --- FIX X Backlash ---
G0 X32.677 Y44.456 F410
G0 X32.252 Y47.677 Z3.5
G1 Z0 F600
G1 X31.958 Y48.068 Z0 F600
G1 X31.792 Y48.482 Z0 F600
G1 X31.718 Y48.878 Z0 F600
G1 X31.699 Y49.252 Z0 F600
G1 X31.732 Y49.902 Z0 F600
; --- FIX X Backlash ---
G0 X32.432 Y49.902 F410
G1 X32.491 Y50.526 Z0 F600
G1 X32.508 Y50.779 Z0 F600
G1 X32.513 Y51.016 Z0 F600
G1 X32.502 Y51.194 Z0 F600
G1 X32.458 Y51.425 Z0 F600
G1 X32.427 Y51.71 Z0 F600
G1 X32.377 Y51.707 Z0 F600
; --- FIX X Backlash ---
G0 X31.677 Y51.707 F410
G1 X30.014 Z0 F600
; --- FIX Y Backlash ---
G0 X30.014 Y51.207 F410
G1 X30.011 Y50.989 Z0 F600
G1 X30.034 Y50.337 Z0 F600
G1 X30.022 Y49.601 Z0 F600
G1 X29.886 Y48.748 Z0 F600
G1 X29.65 Y48.341 Z0 F600
G1 X29.256 Y48.126 Z0 F600
G1 X28.965 Y48.072 Z0 F600
; --- FIX X Backlash ---
G0 X29.665 Y48.072 F410
G1 X29.902 Y48.018 Z0 F600
G1 X30.215 Y47.771 Z0 F600
G1 X30.53 Y47.265 Z0 F600
G1 X30.687 Y46.771 Z0 F600
G1 X30.743 Y46.308 Z0 F600
G1 Y45.891 Z0 F600
G1 X30.725 Y45.521 Z0 F600
G1 X30.704 Y45.201 Z0 F600
G1 X30.698 Y44.929 Z0 F600
G1 X30.718 Y44.633 Z0 F600
G1 Y43.156 Z0 F600
G1 X33.657 Y43.174 Z0 F600
; --- FIX Y Backlash ---
G0 X33.657 Y43.674 F410
G1 X33.773 Y43.864 Z0 F600
G1 X33.906 Y43.978 Z0 F600
; --- FIX X Backlash ---
G0 X33.206 Y43.978 F410
G1 X33.123 Y44.226 Z0 F600
G1 X33.092 Y44.341 Z0 F600
G1 X33.077 Y44.478 Z0 F600
G1 Y47.245 Z0 F600
G1 X33.055 Y47.249 Z0 F600
G1 X32.632 Y47.403 Z0 F600
G1 X32.252 Y47.677 Z0 F600
G0 Z3.5 F600
G0 X29.503 Y49.384 Z3.5
G1 Z0 F600
; --- FIX Y Backlash ---
G0 X29.503 Y48.884 F410
G1 X29.36 Y48.639 Z0 F600
G1 X29.12 Y48.508 Z0 F600
G1 X28.794 Y48.448 Z0 F600
G1 X28.481 Y48.41 Z0 F600
G1 X28.138 Y48.382 Z0 F600
G1 X27.768 Y48.364 Z0 F600
G1 X26.974 Y48.347 Z0 F600
G1 X26.131 Z0 F600
G1 X24.143 Y48.368 Z0 F600
G1 X23.825 Z0 F600
G1 X23.548 Y48.365 Z0 F600
G1 X23.298 Y48.357 Z0 F600
G1 X23.023 Y48.361 Z0 F600
G1 X22.77 Y48.371 Z0 F600
G1 X22.656 Z0 F600
G1 X22.67 Y48.318 Z0 F600
G1 X22.674 Y48.232 Z0 F600
G1 X22.656 Y47.733 Z0 F600
G1 Y47.677 Z0 F600
G1 X22.701 Y47.689 Z0 F600
; --- FIX X Backlash ---
G0 X23.401 Y47.689 F410
G1 X23.482 Y47.696 Z0 F600
G1 X29.517 Z0 F600
G1 X29.725 Y47.648 Z0 F600
G1 X29.913 Y47.5 Z0 F600
G1 X30.164 Y47.097 Z0 F600
G1 X30.294 Y46.686 Z0 F600
G1 X30.343 Y46.283 Z0 F600
G1 Y45.901 Z0 F600
G1 X30.325 Y45.544 Z0 F600
G1 X30.304 Y45.208 Z0 F600
G1 X30.297 Y44.921 Z0 F600
G1 X30.318 Y44.62 Z0 F600
G1 Y42.753 Z0 F600
G1 X33.893 Y42.776 Z0 F600
G1 X33.904 Y42.812 Z0 F600
; --- FIX Y Backlash ---
G0 X33.904 Y43.312 F410
G1 X34.082 Y43.602 Z0 F600
G1 X34.321 Y43.807 Z0 F600
G1 X34.355 Y43.83 Z0 F600
G1 X34.34 Y43.91 Z0 F600
G1 X34.293 Y44.083 Z0 F600
; --- FIX X Backlash ---
G0 X33.593 Y44.083 F410
G1 X33.506 Y44.342 Z0 F600
G1 X33.486 Y44.415 Z0 F600
G1 X33.477 Y44.499 Z0 F600
G1 Y47.59 Z0 F600
G1 X33.154 Y47.638 Z0 F600
G1 X32.821 Y47.76 Z0 F600
G1 X32.535 Y47.966 Z0 F600
G1 X32.31 Y48.267 Z0 F600
G1 X32.178 Y48.595 Z0 F600
G1 X32.117 Y48.926 Z0 F600
G1 X32.1 Y49.253 Z0 F600
G1 X32.132 Y49.874 Z0 F600
; --- FIX X Backlash ---
G0 X32.832 Y49.874 F410
G1 X32.889 Y50.489 Z0 F600
G1 X32.908 Y50.764 Z0 F600
G1 X32.913 Y51.02 Z0 F600
G1 X32.899 Y51.247 Z0 F600
G1 X32.854 Y51.484 Z0 F600
G1 X32.806 Y51.93 Z0 F600
G1 X32.82 Y52.207 Z0 F600
G1 X32.773 Y52.196 Z0 F600
; --- FIX X Backlash ---
G0 X32.073 Y52.196 F410
; --- FIX Y Backlash ---
G0 X32.073 Y51.696 F410
G1 X31.787 Y51.622 Z0 F600
G1 X31.726 Y51.611 Z0 F600
G1 X31.665 Y51.607 Z0 F600
G1 X29.619 Z0 F600
G1 X29.612 Y50.996 Z0 F600
G1 X29.633 Y50.333 Z0 F600
G1 X29.622 Y49.636 Z0 F600
G1 X29.503 Y48.884 Z0 F600
G0 Z3.5 F600
G0 X29.098 Y46.928 Z3.5
G1 Z0 F600
; --- FIX X Backlash ---
G0 X29.798 Y46.928 F410
G1 X29.901 Y46.601 Z0 F600
G1 X29.943 Y46.258 Z0 F600
G1 Y45.911 Z0 F600
G1 X29.926 Y45.568 Z0 F600
G1 X29.905 Y45.232 Z0 F600
G1 X29.897 Y44.913 Z0 F600
G1 X29.918 Y44.605 Z0 F600
G1 Y42.351 Z0 F600
G1 X34.188 Y42.378 Z0 F600
; --- FIX Y Backlash ---
G0 X34.188 Y42.878 F410
G1 X34.271 Y43.146 Z0 F600
G1 X34.39 Y43.339 Z0 F600
G1 X34.562 Y43.487 Z0 F600
G1 X34.69 Y43.571 Z0 F600
G1 X34.75 Y43.626 Z0 F600
G1 X34.767 Y43.733 Z0 F600
G1 X34.76 Y43.842 Z0 F600
G1 X34.731 Y43.996 Z0 F600
; --- FIX X Backlash ---
G0 X34.031 Y43.996 F410
G1 X33.976 Y44.2 Z0 F600
G1 X33.889 Y44.458 Z0 F600
G1 X33.881 Y44.489 Z0 F600
G1 X33.877 Y44.521 Z0 F600
G1 Y47.983 Z0 F600
G1 X33.543 Z0 F600
G1 X33.253 Y48.028 Z0 F600
G1 X33.01 Y48.117 Z0 F600
G1 X32.819 Y48.255 Z0 F600
G1 X32.661 Y48.464 Z0 F600
G1 X32.564 Y48.707 Z0 F600
G1 X32.515 Y48.973 Z0 F600
G1 X32.5 Y49.253 Z0 F600
G1 X32.53 Y49.845 Z0 F600
; --- FIX X Backlash ---
G0 X33.23 Y49.845 F410
G1 X33.287 Y50.452 Z0 F600
G1 X33.308 Y50.748 Z0 F600
G1 X33.313 Y51.031 Z0 F600
G1 X33.297 Y51.296 Z0 F600
G1 X33.25 Y51.543 Z0 F600
G1 X33.207 Y51.941 Z0 F600
G1 X33.224 Y52.271 Z0 F600
G1 X33.25 Y52.523 Z0 F600
G1 X33.257 Y52.61 Z0 F600
G1 Y52.661 Z0 F600
G1 X33.245 Y52.666 Z0 F600
; --- FIX X Backlash ---
G0 X32.545 Y52.666 F410
G1 X32.492 Y52.671 Z0 F600
G1 X32.376 Y52.663 Z0 F600
G1 X32.205 Y52.635 Z0 F600
G1 X31.981 Y52.585 Z0 F600
; --- FIX Y Backlash ---
G0 X31.981 Y52.085 F410
G1 X31.699 Y52.013 Z0 F600
G1 X31.676 Y52.008 Z0 F600
G1 X31.653 Z0 F600
G1 X29.112 Z0 F600
; --- FIX X Backlash ---
G0 X29.812 Y52.008 F410
G1 X29.885 Y51.835 Z0 F600
G1 X29.919 Y51.612 Z0 F600
G1 X29.912 Y50.982 Z0 F600
G1 X29.934 Y50.33 Z0 F600
G1 X29.923 Y49.67 Z0 F600
; --- FIX X Backlash ---
G0 X29.223 Y49.67 F410
G1 X29.119 Y49.021 Z0 F600
G1 X29.071 Y48.937 Z0 F600
G1 X28.985 Y48.89 Z0 F600
G1 X28.734 Y48.843 Z0 F600
G1 X28.441 Y48.808 Z0 F600
G1 X28.112 Y48.782 Z0 F600
G1 X27.754 Y48.764 Z0 F600
G1 X26.969 Y48.747 Z0 F600
G1 X26.133 Z0 F600
G1 X24.147 Y48.768 Z0 F600
G1 X23.821 Z0 F600
G1 X23.535 Y48.765 Z0 F600
G1 X23.295 Y48.757 Z0 F600
G1 X23.034 Y48.761 Z0 F600
G1 X22.785 Y48.771 Z0 F600
G1 X22.563 Z0 F600
G1 X22.387 Y48.753 Z0 F600
G1 X22.281 Y48.714 Z0 F600
G1 X22.233 Y48.657 Z0 F600
G1 X22.219 Y48.609 Z0 F600
G1 Y48.533 Z0 F600
G1 X22.23 Y48.427 Z0 F600
G1 X22.272 Y48.259 Z0 F600
G1 Y48.229 Z0 F600
G1 X22.256 Y47.748 Z0 F600
G1 Y47.54 Z0 F600
G1 X22.278 Y47.38 Z0 F600
G1 X22.316 Y47.289 Z0 F600
; --- FIX X Backlash ---
G0 X23.016 Y47.289 F410
G1 X23.073 Y47.247 Z0 F600
G1 X23.123 Y47.236 Z0 F600
G1 X23.2 Z0 F600
G1 X23.306 Y47.25 Z0 F600
G1 X23.47 Y47.293 Z0 F600
G1 X23.499 Y47.296 Z0 F600
G1 X29.472 Z0 F600
G1 X29.548 Y47.278 Z0 F600
G1 X29.61 Y47.229 Z0 F600
G1 X29.798 Y46.928 Z0 F600
;Layer C1 Pass 2 of 2
G0 Z3.5 F600
G0 X32.577 Y44.368 Z3.5
G1 Z0 F600
; --- FIX Y Backlash ---
G0 X32.577 Y44.868 F410
G1 Y46.468 Z0 F600
; --- FIX X Backlash ---
G0 X31.877 Y46.468 F410
G1 X31.402 Y46.81 Z0 F600
G1 X31.222 Y47.049 Z0 F600
; --- FIX Y Backlash ---
G0 X31.222 Y46.549 F410
G1 X31.243 Y46.383 Z0 F600
G1 Y45.86 Z0 F600
G1 X31.222 Y45.452 Z0 F600
G1 X31.203 Y45.148 Z0 F600
G1 X31.199 Y44.957 Z0 F600
G1 X31.218 Y44.675 Z0 F600
G1 Y44.363 Z0 F600
; --- FIX X Backlash ---
G0 X31.918 Y44.363 F410
G1 X32.577 Y44.368 Z0 F600
G0 Z3.5 F600
G0 X32.977 Y43.97 Z3.5
G1 Z0 F600
; --- FIX Y Backlash ---
G0 X32.977 Y44.47 F410
G1 Y46.681 Z0 F600
G1 X32.954 Y46.69 Z0 F600
; --- FIX X Backlash ---
G0 X32.254 Y46.69 F410
G1 X31.685 Y47.099 Z0 F600
G1 X31.255 Y47.673 Z0 F600
G1 X31.02 Y48.258 Z0 F600
G1 X30.923 Y48.784 Z0 F600
G1 X30.898 Y49.252 Z0 F600
G1 X30.934 Y49.96 Z0 F600
; --- FIX X Backlash ---
G0 X31.634 Y49.96 F410
G1 X31.692 Y50.586 Z0 F600
G1 X31.709 Y50.821 Z0 F600
G1 Y50.907 Z0 F600
; --- FIX X Backlash ---
G0 X31.009 Y50.907 F410
G1 X30.832 Z0 F600
; --- FIX Y Backlash ---
G0 X30.832 Y50.407 F410
G1 Y50.344 Z0 F600
G1 X30.821 Y49.531 Z0 F600
G1 X30.653 Y48.474 Z0 F600
G1 X30.347 Y47.949 Z0 F600
; --- FIX X Backlash ---
G0 X31.047 Y47.949 F410
G1 X31.263 Y47.603 Z0 F600
G1 X31.472 Y46.942 Z0 F600
G1 X31.543 Y46.358 Z0 F600
G1 Y45.87 Z0 F600
G1 X31.523 Y45.475 Z0 F600
G1 X31.504 Y45.17 Z0 F600
G1 X31.499 Y44.949 Z0 F600
G1 X31.519 Y44.662 Z0 F600
G1 Y43.961 Z0 F600
G1 X32.977 Y43.97 Z0 F600
G0 Z3.5 F600
G0 X33.377 Y43.956 Z3.5
G1 Z0 F600
; --- FIX Y Backlash ---
G0 X33.377 Y44.456 F410
G1 Y46.961 Z0 F600
; --- FIX X Backlash ---
G0 X32.677 Y46.961 F410
G1 X32.443 Y47.046 Z0 F600
G1 X31.969 Y47.388 Z0 F600
G1 X31.607 Y47.871 Z0 F600
G1 X31.406 Y48.371 Z0 F600
G1 X31.321 Y48.832 Z0 F600
G1 X31.299 Y49.252 Z0 F600
G1 X31.333 Y49.931 Z0 F600
; --- FIX X Backlash ---
G0 X32.033 Y49.931 F410
G1 X32.09 Y50.535 Z0 F600
G1 X32.108 Y50.805 Z0 F600
G1 X32.112 Y51.005 Z0 F600
G1 X32.104 Y51.148 Z0 F600
G1 X32.073 Y51.307 Z0 F600
; --- FIX X Backlash ---
G0 X31.373 Y51.307 F410
G1 X30.418 Z0 F600
; --- FIX Y Backlash ---
G0 X30.418 Y50.807 F410
G1 X30.434 Y50.34 Z0 F600
G1 X30.421 Y49.566 Z0 F600
G1 X30.269 Y48.611 Z0 F600
G1 X29.94 Y48.043 Z0 F600
G1 X29.848 Y47.994 Z0 F600
; --- FIX X Backlash ---
G0 X30.548 Y47.994 F410
G1 X30.896 Y47.434 Z0 F600
G1 X31.079 Y46.856 Z0 F600
G1 X31.143 Y46.333 Z0 F600
G1 Y45.88 Z0 F600
G1 X31.124 Y45.498 Z0 F600
G1 X31.104 Y45.18 Z0 F600
G1 X31.098 Y44.941 Z0 F600
G1 X31.119 Y44.647 Z0 F600
G1 Y43.559 Z0 F600
G1 X33.433 Y43.573 Z0 F600
G1 X33.445 Y43.594 Z0 F600
G1 X33.44 Y43.61 Z0 F600
; --- FIX Y Backlash ---
G0 X33.44 Y44.11 F410
G1 X33.397 Y44.267 Z0 F600
G1 X33.377 Y44.456 Z0 F600
G0 Z3.5 F600
; --- FIX X Backlash ---
G0 X32.677 Y44.456 F410
G0 X32.252 Y47.677 Z3.5
G1 Z0 F600
G1 X31.958 Y48.068 Z0 F600
G1 X31.792 Y48.482 Z0 F600
G1 X31.718 Y48.878 Z0 F600
G1 X31.699 Y49.252 Z0 F600
G1 X31.732 Y49.902 Z0 F600
; --- FIX X Backlash ---
G0 X32.432 Y49.902 F410
G1 X32.491 Y50.526 Z0 F600
G1 X32.508 Y50.779 Z0 F600
G1 X32.513 Y51.016 Z0 F600
G1 X32.502 Y51.194 Z0 F600
G1 X32.458 Y51.425 Z0 F600
G1 X32.427 Y51.71 Z0 F600
G1 X32.377 Y51.707 Z0 F600
; --- FIX X Backlash ---
G0 X31.677 Y51.707 F410
G1 X30.014 Z0 F600
; --- FIX Y Backlash ---
G0 X30.014 Y51.207 F410
G1 X30.011 Y50.989 Z0 F600
G1 X30.034 Y50.337 Z0 F600
G1 X30.022 Y49.601 Z0 F600
G1 X29.886 Y48.748 Z0 F600
G1 X29.65 Y48.341 Z0 F600
G1 X29.256 Y48.126 Z0 F600
G1 X28.965 Y48.072 Z0 F600
; --- FIX X Backlash ---
G0 X29.665 Y48.072 F410
G1 X29.902 Y48.018 Z0 F600
G1 X30.215 Y47.771 Z0 F600
G1 X30.53 Y47.265 Z0 F600
G1 X30.687 Y46.771 Z0 F600
G1 X30.743 Y46.308 Z0 F600
G1 Y45.891 Z0 F600
G1 X30.725 Y45.521 Z0 F600
G1 X30.704 Y45.201 Z0 F600
G1 X30.698 Y44.929 Z0 F600
G1 X30.718 Y44.633 Z0 F600
G1 Y43.156 Z0 F600
G1 X33.657 Y43.174 Z0 F600
; --- FIX Y Backlash ---
G0 X33.657 Y43.674 F410
G1 X33.773 Y43.864 Z0 F600
G1 X33.906 Y43.978 Z0 F600
; --- FIX X Backlash ---
G0 X33.206 Y43.978 F410
G1 X33.123 Y44.226 Z0 F600
G1 X33.092 Y44.341 Z0 F600
G1 X33.077 Y44.478 Z0 F600
G1 Y47.245 Z0 F600
G1 X33.055 Y47.249 Z0 F600
G1 X32.632 Y47.403 Z0 F600
G1 X32.252 Y47.677 Z0 F600
G0 Z3.5 F600
G0 X29.503 Y49.384 Z3.5
G1 Z0 F600
; --- FIX Y Backlash ---
G0 X29.503 Y48.884 F410
G1 X29.36 Y48.639 Z0 F600
G1 X29.12 Y48.508 Z0 F600
G1 X28.794 Y48.448 Z0 F600
G1 X28.481 Y48.41 Z0 F600
G1 X28.138 Y48.382 Z0 F600
G1 X27.768 Y48.364 Z0 F600
G1 X26.974 Y48.347 Z0 F600
G1 X26.131 Z0 F600
G1 X24.143 Y48.368 Z0 F600
G1 X23.825 Z0 F600
G1 X23.548 Y48.365 Z0 F600
G1 X23.298 Y48.357 Z0 F600
G1 X23.023 Y48.361 Z0 F600
G1 X22.77 Y48.371 Z0 F600
G1 X22.656 Z0 F600
G1 X22.67 Y48.318 Z0 F600
G1 X22.674 Y48.232 Z0 F600
G1 X22.656 Y47.733 Z0 F600
G1 Y47.677 Z0 F600
G1 X22.701 Y47.689 Z0 F600
; --- FIX X Backlash ---
G0 X23.401 Y47.689 F410
G1 X23.482 Y47.696 Z0 F600
G1 X29.517 Z0 F600
G1 X29.725 Y47.648 Z0 F600
G1 X29.913 Y47.5 Z0 F600
G1 X30.164 Y47.097 Z0 F600
G1 X30.294 Y46.686 Z0 F600
G1 X30.343 Y46.283 Z0 F600
G1 Y45.901 Z0 F600
G1 X30.325 Y45.544 Z0 F600
G1 X30.304 Y45.208 Z0 F600
G1 X30.297 Y44.921 Z0 F600
G1 X30.318 Y44.62 Z0 F600
G1 Y42.753 Z0 F600
G1 X33.893 Y42.776 Z0 F600
G1 X33.904 Y42.812 Z0 F600
; --- FIX Y Backlash ---
G0 X33.904 Y43.312 F410
G1 X34.082 Y43.602 Z0 F600
G1 X34.321 Y43.807 Z0 F600
G1 X34.355 Y43.83 Z0 F600
G1 X34.34 Y43.91 Z0 F600
G1 X34.293 Y44.083 Z0 F600
; --- FIX X Backlash ---
G0 X33.593 Y44.083 F410
G1 X33.506 Y44.342 Z0 F600
G1 X33.486 Y44.415 Z0 F600
G1 X33.477 Y44.499 Z0 F600
G1 Y47.59 Z0 F600
G1 X33.154 Y47.638 Z0 F600
G1 X32.821 Y47.76 Z0 F600
G1 X32.535 Y47.966 Z0 F600
G1 X32.31 Y48.267 Z0 F600
G1 X32.178 Y48.595 Z0 F600
G1 X32.117 Y48.926 Z0 F600
G1 X32.1 Y49.253 Z0 F600
G1 X32.132 Y49.874 Z0 F600
; --- FIX X Backlash ---
G0 X32.832 Y49.874 F410
G1 X32.889 Y50.489 Z0 F600
G1 X32.908 Y50.764 Z0 F600
G1 X32.913 Y51.02 Z0 F600
G1 X32.899 Y51.247 Z0 F600
G1 X32.854 Y51.484 Z0 F600
G1 X32.806 Y51.93 Z0 F600
G1 X32.82 Y52.207 Z0 F600
G1 X32.773 Y52.196 Z0 F600
; --- FIX X Backlash ---
G0 X32.073 Y52.196 F410
; --- FIX Y Backlash ---
G0 X32.073 Y51.696 F410
G1 X31.787 Y51.622 Z0 F600
G1 X31.726 Y51.611 Z0 F600
G1 X31.665 Y51.607 Z0 F600
G1 X29.619 Z0 F600
G1 X29.612 Y50.996 Z0 F600
G1 X29.633 Y50.333 Z0 F600
G1 X29.622 Y49.636 Z0 F600
G1 X29.503 Y48.884 Z0 F600
G0 Z3.5 F600
G0 X29.098 Y46.928 Z3.5
G1 Z0 F600
; --- FIX X Backlash ---
G0 X29.798 Y46.928 F410
G1 X29.901 Y46.601 Z0 F600
G1 X29.943 Y46.258 Z0 F600
G1 Y45.911 Z0 F600
G1 X29.926 Y45.568 Z0 F600
G1 X29.905 Y45.232 Z0 F600
G1 X29.897 Y44.913 Z0 F600
G1 X29.918 Y44.605 Z0 F600
G1 Y42.351 Z0 F600
G1 X34.188 Y42.378 Z0 F600
; --- FIX Y Backlash ---
G0 X34.188 Y42.878 F410
G1 X34.271 Y43.146 Z0 F600
G1 X34.39 Y43.339 Z0 F600
G1 X34.562 Y43.487 Z0 F600
G1 X34.69 Y43.571 Z0 F600
G1 X34.75 Y43.626 Z0 F600
G1 X34.767 Y43.733 Z0 F600
G1 X34.76 Y43.842 Z0 F600
G1 X34.731 Y43.996 Z0 F600
; --- FIX X Backlash ---
G0 X34.031 Y43.996 F410
G1 X33.976 Y44.2 Z0 F600
G1 X33.889 Y44.458 Z0 F600
G1 X33.881 Y44.489 Z0 F600
G1 X33.877 Y44.521 Z0 F600
G1 Y47.983 Z0 F600
G1 X33.543 Z0 F600
G1 X33.253 Y48.028 Z0 F600
G1 X33.01 Y48.117 Z0 F600
G1 X32.819 Y48.255 Z0 F600
G1 X32.661 Y48.464 Z0 F600
G1 X32.564 Y48.707 Z0 F600
G1 X32.515 Y48.973 Z0 F600
G1 X32.5 Y49.253 Z0 F600
G1 X32.53 Y49.845 Z0 F600
; --- FIX X Backlash ---
G0 X33.23 Y49.845 F410
G1 X33.287 Y50.452 Z0 F600
G1 X33.308 Y50.748 Z0 F600
G1 X33.313 Y51.031 Z0 F600
G1 X33.297 Y51.296 Z0 F600
G1 X33.25 Y51.543 Z0 F600
G1 X33.207 Y51.941 Z0 F600
G1 X33.224 Y52.271 Z0 F600
G1 X33.25 Y52.523 Z0 F600
G1 X33.257 Y52.61 Z0 F600
G1 Y52.661 Z0 F600
G1 X33.245 Y52.666 Z0 F600
; --- FIX X Backlash ---
G0 X32.545 Y52.666 F410
G1 X32.492 Y52.671 Z0 F600
G1 X32.376 Y52.663 Z0 F600
G1 X32.205 Y52.635 Z0 F600
G1 X31.981 Y52.585 Z0 F600
; --- FIX Y Backlash ---
G0 X31.981 Y52.085 F410
G1 X31.699 Y52.013 Z0 F600
G1 X31.676 Y52.008 Z0 F600
G1 X31.653 Z0 F600
G1 X29.112 Z0 F600
; --- FIX X Backlash ---
G0 X29.812 Y52.008 F410
G1 X29.885 Y51.835 Z0 F600
G1 X29.919 Y51.612 Z0 F600
G1 X29.912 Y50.982 Z0 F600
G1 X29.934 Y50.33 Z0 F600
G1 X29.923 Y49.67 Z0 F600
; --- FIX X Backlash ---
G0 X29.223 Y49.67 F410
G1 X29.119 Y49.021 Z0 F600
G1 X29.071 Y48.937 Z0 F600
G1 X28.985 Y48.89 Z0 F600
G1 X28.734 Y48.843 Z0 F600
G1 X28.441 Y48.808 Z0 F600
G1 X28.112 Y48.782 Z0 F600
G1 X27.754 Y48.764 Z0 F600
G1 X26.969 Y48.747 Z0 F600
G1 X26.133 Z0 F600
G1 X24.147 Y48.768 Z0 F600
G1 X23.821 Z0 F600
G1 X23.535 Y48.765 Z0 F600
G1 X23.295 Y48.757 Z0 F600
G1 X23.034 Y48.761 Z0 F600
G1 X22.785 Y48.771 Z0 F600
G1 X22.563 Z0 F600
G1 X22.387 Y48.753 Z0 F600
G1 X22.281 Y48.714 Z0 F600
G1 X22.233 Y48.657 Z0 F600
G1 X22.219 Y48.609 Z0 F600
G1 Y48.533 Z0 F600
G1 X22.23 Y48.427 Z0 F600
G1 X22.272 Y48.259 Z0 F600
G1 Y48.229 Z0 F600
G1 X22.256 Y47.748 Z0 F600
G1 Y47.54 Z0 F600
G1 X22.278 Y47.38 Z0 F600
G1 X22.316 Y47.289 Z0 F600
; --- FIX X Backlash ---
G0 X23.016 Y47.289 F410
G1 X23.073 Y47.247 Z0 F600
G1 X23.123 Y47.236 Z0 F600
G1 X23.2 Z0 F600
G1 X23.306 Y47.25 Z0 F600
G1 X23.47 Y47.293 Z0 F600
G1 X23.499 Y47.296 Z0 F600
G1 X29.472 Z0 F600
G1 X29.548 Y47.278 Z0 F600
G1 X29.61 Y47.229 Z0 F600
G1 X29.798 Y46.928 Z0 F600
G0 Z3.5 F600
G0 X37.555 Y44.412 Z3.5
G1 Z0 F600
;Layer C1 Pass 1 of 2
; --- FIX Y Backlash ---
G0 X37.555 Y44.912 F410
G1 X37.538 Y45.62 Z0 F600
G1 X37.571 Y46.37 Z0 F600
G1 X37.682 Y47.063 Z0 F600
; --- FIX X Backlash ---
G0 X36.982 Y47.063 F410
G1 X36.806 Y47.097 Z0 F600
G1 X36.514 Y47.172 Z0 F600
; --- FIX Y Backlash ---
G0 X36.514 Y46.672 F410
G1 X36.494 Y46.495 Z0 F600
G1 X36.49 Y46.264 Z0 F600
G1 X36.508 Y46.041 Z0 F600
; --- FIX X Backlash ---
G0 X37.208 Y46.041 F410
G1 X37.313 Y45.526 Z0 F600
G1 X37.33 Y45.203 Z0 F600
G1 X37.317 Y44.904 Z0 F600
G1 X37.29 Y44.623 Z0 F600
; --- FIX X Backlash ---
G0 X36.59 Y44.623 F410
G1 X36.527 Y44.126 Z0 F600
G1 X36.494 Y43.811 Z0 F600
; --- FIX X Backlash ---
G0 X37.194 Y43.811 F410
G1 X37.396 Z0 F600
G1 X37.585 Y43.802 Z0 F600
; --- FIX Y Backlash ---
G0 X37.585 Y44.302 F410
G1 X37.555 Y44.912 Z0 F600
G0 Z3.5 F600
G0 X37.594 Y47.488 Z3.5
G1 Z0 F600
; --- FIX X Backlash ---
G0 X36.894 Y47.488 F410
G1 X36.589 Y47.566 Z0 F600
G1 X36.341 Y47.628 Z0 F600
G1 X36.225 Y47.641 Z0 F600
; --- FIX Y Backlash ---
G0 X36.225 Y47.141 F410
G1 X36.173 Y46.997 Z0 F600
G1 X36.124 Y46.78 Z0 F600
G1 X36.094 Y46.521 Z0 F600
G1 X36.09 Y46.248 Z0 F600
G1 X36.112 Y45.986 Z0 F600
; --- FIX X Backlash ---
G0 X36.812 Y45.986 F410
G1 X36.915 Y45.476 Z0 F600
G1 X36.929 Y45.2 Z0 F600
G1 X36.918 Y44.932 Z0 F600
G1 X36.893 Y44.667 Z0 F600
; --- FIX X Backlash ---
G0 X36.193 Y44.667 F410
G1 X36.128 Y44.159 Z0 F600
G1 X36.081 Y43.709 Z0 F600
G1 Y43.542 Z0 F600
G1 X36.09 Y43.402 Z0 F600
G1 X36.094 Y43.382 Z0 F600
; --- FIX X Backlash ---
G0 X36.794 Y43.382 F410
G1 X37.023 Y43.413 Z0 F600
G1 X37.387 Y43.409 Z0 F600
G1 X37.717 Y43.397 Z0 F600
G1 X37.97 Z0 F600
G1 X38.071 Y43.409 Z0 F600
; --- FIX Y Backlash ---
G0 X38.071 Y43.909 F410
G1 X38.063 Y43.964 Z0 F600
; --- FIX X Backlash ---
G0 X37.363 Y43.964 F410
G1 X37.297 Y44.196 Z0 F600
G1 X37.287 Y44.268 Z0 F600
G1 X37.255 Y44.927 Z0 F600
G1 X37.238 Y45.616 Z0 F600
G1 X37.27 Y46.33 Z0 F600
; --- FIX X Backlash ---
G0 X37.97 Y46.33 F410
G1 X38.083 Y47.035 Z0 F600
G1 X38.188 Y47.394 Z0 F600
G1 X38.206 Y47.436 Z0 F600
G1 X38.194 Z0 F600
; --- FIX X Backlash ---
G0 X37.494 Y47.436 F410
G1 X37.277 Y47.43 Z0 F600
G1 X37.077 Y47.452 Z0 F600
G1 X36.894 Y47.488 Z0 F600
G0 Z3.5 F600
; --- FIX X Backlash ---
G0 X37.594 Y47.488 F410
; --- FIX Y Backlash ---
G0 X37.594 Y46.988 F410
G0 X43.183 Y42.06 Z3.5
G1 Z0 F600
G1 X43.189 Y41.135 Z0 F600
G1 X43.172 Y39.271 Z0 F600
G1 X43.166 Y39.213 Z0 F600
G1 X43.116 Y38.976 Z0 F600
G1 X43.092 Y38.818 Z0 F600
G1 X43.082 Y38.677 Z0 F600
G1 Y38.579 Z0 F600
G1 X43.111 Y38.432 Z0 F600
G1 X43.14 Y38.379 Z0 F600
G1 X43.145 Y38.376 Z0 F600
G1 X43.178 Y38.363 Z0 F600
G1 X43.234 Y38.35 Z0 F600
G1 X43.327 Y38.342 Z0 F600
G1 X43.442 Z0 F600
G1 X43.595 Y38.36 Z0 F600
G1 X43.773 Y38.391 Z0 F600
; --- FIX X Backlash ---
G0 X43.073 Y38.391 F410
G1 X43.011 Y38.408 Z0 F600
; --- FIX Y Backlash ---
G0 X43.011 Y38.908 F410
G1 X42.827 Y39.098 Z0 F600
G1 X42.694 Y39.362 Z0 F600
G1 X42.607 Y39.581 Z0 F600
G1 X42.549 Y39.8 Z0 F600
G1 X42.523 Y40.024 Z0 F600
G1 X42.538 Y40.253 Z0 F600
; --- FIX X Backlash ---
G0 X43.238 Y40.253 F410
G1 X43.3 Y40.474 Z0 F600
G1 X43.407 Y40.675 Z0 F600
G1 X43.562 Y40.856 Z0 F600
G1 X43.882 Y41.068 Z0 F600
G1 X44.241 Y41.187 Z0 F600
G1 X44.286 Y41.193 Z0 F600
; --- FIX X Backlash ---
G0 X43.586 Y41.193 F410
G1 X43.259 Z0 F600
G1 X43.002 Y41.266 Z0 F600
G1 X42.807 Y41.478 Z0 F600
G1 X42.58 Y42.063 Z0 F600
G1 X42.483 Y42.56 Z0 F600
G0 Z3.5 F600
; --- FIX X Backlash ---
G0 X43.183 Y42.56 F410
; --- FIX Y Backlash ---
G0 X43.183 Y42.06 F410
G0 X46.291 Y40.693 Z3.5
G1 Z0 F600
G1 X46.455 Y40.682 Z0 F600
G1 X46.788 Y40.665 Z0 F600
G1 X47.078 Y40.66 Z0 F600
G1 X47.299 Y40.671 Z0 F600
G1 X47.444 Y40.695 Z0 F600
G1 Y40.699 Z0 F600
G1 X47.397 Y40.693 Z0 F600
; --- FIX X Backlash ---
G0 X46.697 Y40.693 F410
G1 X45.591 Z0 F600
G0 Z3.5 F600
G0 X44.281 Y40.354 Z3.5
G1 Z0 F600
; --- FIX X Backlash ---
G0 X44.981 Y40.354 F410
G1 X45.707 Y40.332 Z0 F600
G1 X46.435 Y40.282 Z0 F600
G1 X46.775 Y40.265 Z0 F600
G1 X47.083 Y40.26 Z0 F600
G1 X47.342 Y40.272 Z0 F600
G1 X47.586 Y40.313 Z0 F600
G1 X47.675 Y40.302 Z0 F600
G1 X47.702 Y40.312 Z0 F600
G1 X47.736 Y40.339 Z0 F600
; --- FIX Y Backlash ---
G0 X47.736 Y40.839 F410
G1 X47.774 Y40.894 Z0 F600
G1 X47.836 Y41.076 Z0 F600
G1 X47.853 Y41.302 Z0 F600
G1 X47.811 Y41.505 Z0 F600
; --- FIX X Backlash ---
G0 X47.111 Y41.505 F410
G1 X47.035 Y41.632 Z0 F600
G1 X46.993 Y41.663 Z0 F600
G1 X46.94 Y41.676 Z0 F600
G1 X46.864 Y41.663 Z0 F600
G1 X46.754 Y41.614 Z0 F600
G1 X46.714 Y41.599 Z0 F600
G1 X46.67 Y41.593 Z0 F600
G1 X43.315 Z0 F600
G1 X43.219 Y41.62 Z0 F600
G1 X43.153 Y41.692 Z0 F600
G1 X42.966 Y42.175 Z0 F600
G1 X42.867 Y42.683 Z0 F600
G1 X42.833 Y43.207 Z0 F600
G1 X42.84 Y43.739 Z0 F600
; --- FIX X Backlash ---
G0 X43.54 Y43.739 F410
G1 X43.593 Y44.798 Z0 F600
G1 X43.6 Y45.309 Z0 F600
G1 X43.566 Y45.807 Z0 F600
G1 X43.58 Y46.396 Z0 F600
G1 X43.598 Y47.037 Z0 F600
G1 X43.583 Y47.684 Z0 F600
; --- FIX X Backlash ---
G0 X42.883 Y47.684 F410
G1 X42.801 Y48.278 Z0 F600
G1 X42.724 Y48.536 Z0 F600
G1 X42.622 Y48.758 Z0 F600
G1 X42.49 Y48.94 Z0 F600
G1 X42.328 Y49.079 Z0 F600
G1 X42.126 Y49.175 Z0 F600
G1 X41.871 Y49.224 Z0 F600
G1 X41.556 Y49.214 Z0 F600
; --- FIX Y Backlash ---
G0 X41.556 Y48.714 F410
G1 X41.17 Y48.636 Z0 F600
G1 X41.133 Y48.63 Z0 F600
G1 X40.706 Y48.62 Z0 F600
G1 X40.274 Z0 F600
G1 X39.846 Y48.615 Z0 F600
G1 X39.434 Y48.581 Z0 F600
G1 X39.05 Y48.504 Z0 F600
G1 X38.704 Y48.367 Z0 F600
G1 X38.546 Y48.269 Z0 F600
G1 X38.398 Y48.149 Z0 F600
G1 X38.262 Y48.005 Z0 F600
G1 X38.137 Y47.833 Z0 F600
G1 X38.149 Y47.854 Z0 F600
G1 X38.043 Y47.673 Z0 F600
G1 X37.916 Y47.531 Z0 F600
G1 X37.772 Y47.427 Z0 F600
G1 X37.615 Y47.362 Z0 F600
G1 X37.455 Y47.333 Z0 F600
G1 X37.295 Z0 F600
G1 X37.137 Y47.348 Z0 F600
G1 X36.983 Y47.378 Z0 F600
; --- FIX Y Backlash ---
G0 X36.983 Y47.878 F410
G1 X36.685 Y47.955 Z0 F600
G1 X36.412 Y48.022 Z0 F600
G1 X36.184 Y48.048 Z0 F600
G1 X36.014 Y48.017 Z0 F600
; --- FIX Y Backlash ---
G0 X36.014 Y47.517 F410
G1 X35.951 Y47.46 Z0 F600
G1 X35.865 Y47.321 Z0 F600
G1 X35.788 Y47.109 Z0 F600
G1 X35.729 Y46.845 Z0 F600
G1 X35.695 Y46.548 Z0 F600
G1 X35.69 Y46.236 Z0 F600
G1 X35.715 Y45.928 Z0 F600
; --- FIX X Backlash ---
G0 X36.415 Y45.928 F410
G1 X36.517 Y45.425 Z0 F600
G1 X36.529 Y45.198 Z0 F600
G1 X36.519 Y44.959 Z0 F600
G1 X36.495 Y44.712 Z0 F600
; --- FIX X Backlash ---
G0 X35.795 Y44.712 F410
G1 X35.731 Y44.209 Z0 F600
G1 X35.682 Y43.735 Z0 F600
G1 X35.678 Y43.526 Z0 F600
G1 X35.693 Y43.346 Z0 F600
G1 X35.725 Y43.2 Z0 F600
G1 X35.774 Y43.097 Z0 F600
; --- FIX X Backlash ---
G0 X36.474 Y43.097 F410
G1 X36.538 Y43.031 Z0 F600
G1 X36.634 Y42.991 Z0 F600
G1 X36.789 Y42.978 Z0 F600
G1 X37.048 Y43.013 Z0 F600
G1 X37.377 Y43.009 Z0 F600
G1 X37.703 Y42.997 Z0 F600
G1 X37.997 Z0 F600
G1 X38.233 Y43.026 Z0 F600
G1 X38.32 Y43.054 Z0 F600
G1 X38.384 Y43.088 Z0 F600
G1 X38.429 Y43.132 Z0 F600
; --- FIX Y Backlash ---
G0 X38.429 Y43.632 F410
G1 X38.46 Y43.69 Z0 F600
G1 X38.479 Y43.774 Z0 F600
G1 Y43.894 Z0 F600
G1 X38.454 Y44.052 Z0 F600
; --- FIX X Backlash ---
G0 X37.754 Y44.052 F410
G1 X37.689 Y44.278 Z0 F600
G1 X37.686 Y44.304 Z0 F600
G1 X37.654 Y44.941 Z0 F600
G1 X37.638 Y45.612 Z0 F600
G1 X37.668 Y46.289 Z0 F600
; --- FIX X Backlash ---
G0 X38.368 Y46.289 F410
G1 X38.474 Y46.946 Z0 F600
G1 X38.566 Y47.26 Z0 F600
G1 X38.691 Y47.558 Z0 F600
G1 X38.853 Y47.837 Z0 F600
G1 X39.053 Y48.091 Z0 F600
G1 X39.294 Y48.316 Z0 F600
G1 X39.58 Y48.507 Z0 F600
G1 X39.912 Y48.66 Z0 F600
G1 X40.294 Y48.769 Z0 F600
G1 X40.313 Z0 F600
G1 X40.793 Y48.786 Z0 F600
G1 X41.308 Y48.807 Z0 F600
G1 X41.833 Y48.801 Z0 F600
; --- FIX Y Backlash ---
G0 X41.833 Y48.301 F410
G1 X42.331 Y48.233 Z0 F600
G1 X42.56 Y48.163 Z0 F600
G1 X42.769 Y48.058 Z0 F600
G1 X42.946 Y47.913 Z0 F600
G1 X43.081 Y47.722 Z0 F600
G1 X43.16 Y47.492 Z0 F600
G1 X43.181 Y47.226 Z0 F600
G1 X43.143 Y46.922 Z0 F600
; --- FIX X Backlash ---
G0 X42.443 Y46.922 F410
G1 X42.348 Y46.581 Z0 F600
G1 X42.214 Y45.692 Z0 F600
G1 X42.132 Y44.793 Z0 F600
G1 X42.091 Y43.887 Z0 F600
G1 X42.077 Y42.974 Z0 F600
G1 X42.09 Y41.136 Z0 F600
G1 X42.072 Y39.294 Z0 F600
G1 Y39.275 Z0 F600
G1 X42.022 Y39.048 Z0 F600
G1 X41.994 Y38.859 Z0 F600
G1 X41.982 Y38.689 Z0 F600
G1 Y38.539 Z0 F600
G1 X42.029 Y38.296 Z0 F600
; --- FIX X Backlash ---
G0 X42.729 Y38.296 F410
G1 X42.821 Y38.128 Z0 F600
G1 X42.884 Y38.067 Z0 F600
G1 X42.962 Y38.018 Z0 F600
G1 X43.058 Y37.98 Z0 F600
G1 X43.173 Y37.954 Z0 F600
G1 X43.311 Y37.941 Z0 F600
G1 X43.469 Y37.944 Z0 F600
G1 X43.649 Y37.963 Z0 F600
G1 X43.869 Y38.002 Z0 F600
G1 X46.958 Z0 F600
; --- FIX Y Backlash ---
G0 X46.958 Y38.502 F410
G1 X46.969 Y38.707 Z0 F600
G1 Y38.892 Z0 F600
G1 X46.956 Y39.046 Z0 F600
G1 X46.925 Y39.161 Z0 F600
; --- FIX X Backlash ---
G0 X46.225 Y39.161 F410
G1 X46.172 Y39.243 Z0 F600
G1 X46.088 Y39.286 Z0 F600
G1 X46.021 Y39.297 Z0 F600
G1 X45.93 Z0 F600
G1 X45.815 Y39.282 Z0 F600
G1 X45.649 Y39.241 Z0 F600
G1 X45.623 Z0 F600
G1 X43.315 Z0 F600
G1 X43.223 Y39.265 Z0 F600
G1 X43.156 Y39.333 Z0 F600
G1 X43.059 Y39.526 Z0 F600
G1 X42.988 Y39.707 Z0 F600
G1 X42.943 Y39.875 Z0 F600
G1 X42.924 Y40.034 Z0 F600
G1 X42.934 Y40.185 Z0 F600
G1 X42.973 Y40.325 Z0 F600
; --- FIX X Backlash ---
G0 X43.673 Y40.325 F410
G1 X43.739 Y40.449 Z0 F600
G1 X43.829 Y40.554 Z0 F600
G1 X44.058 Y40.705 Z0 F600
G1 X44.333 Y40.795 Z0 F600
G1 X44.644 Y40.84 Z0 F600
G1 X44.981 Y40.854 Z0 F600
;Layer C1 Pass 2 of 2
G0 Z3.5 F600
; --- FIX X Backlash ---
G0 X44.281 Y40.854 F410
G0 X36.855 Y44.912 Z3.5
G1 Z0 F600
G1 X36.838 Y45.62 Z0 F600
G1 X36.871 Y46.37 Z0 F600
; --- FIX X Backlash ---
G0 X37.571 Y46.37 F410
G1 X37.682 Y47.063 Z0 F600
; --- FIX X Backlash ---
G0 X36.982 Y47.063 F410
G1 X36.806 Y47.097 Z0 F600
G1 X36.514 Y47.172 Z0 F600
; --- FIX Y Backlash ---
