%
(Batak Toba 'Horas' Single Stroke)
(Generated with Graph Tracing)
G21 G90
G0 Z5.0
G0 X88.338 Y42.696
G1 Z0.0 F1000.0
; --- FIX X Backlash ---
G0 X86.638 Y42.696 F1200
G1 X86.368 Y42.696
G1 X85.962 Y42.899
G1 X85.76 Y42.899
G1 X85.692 Y42.966
G1 X85.49 Y42.966
G1 X85.422 Y43.034
G1 X85.287 Y43.034
G1 X85.219 Y43.101
G1 X84.949 Y43.101
G1 X84.882 Y43.169
G1 X84.477 Y43.169
G1 X84.409 Y43.236
G1 X83.734 Y43.304
G1 X83.666 Y43.371
G1 X83.194 Y43.371
G1 X83.126 Y43.439
G1 X82.383 Y43.439
G1 X82.316 Y43.506
G1 X81.775 Y43.506
G1 X81.708 Y43.574
G1 X81.1 Y43.574
G1 X81.032 Y43.642
G1 X80.155 Y43.642
G1 X80.087 Y43.709
G1 X78.736 Y43.709
G1 X78.669 Y43.777
G1 X76.778 Y43.777
G1 X76.71 Y43.844
G1 X73.536 Y43.844
; --- FIX Y Backlash ---
G0 X73.536 Y42.094 F1200
G1 X73.469 Y42.027
G1 X71.443 Y42.027
G1 X71.375 Y41.959
G1 X70.497 Y41.959
G1 X70.43 Y41.892
G1 X69.484 Y41.892
G1 X69.417 Y41.824
G1 X68.877 Y41.824
G1 X68.809 Y41.756
G1 X68.336 Y41.756
G1 X68.269 Y41.689
G1 X67.864 Y41.689
G1 X67.796 Y41.621
G1 X67.323 Y41.621
G1 X67.256 Y41.554
G1 X66.31 Y41.486
G1 X66.243 Y41.419
G1 X65.5 Y41.351
G1 X65.432 Y41.284
G1 X65.23 Y41.284
G1 X65.162 Y41.216
G1 X64.892 Y41.216
G1 X64.825 Y41.149
G1 X64.217 Y41.081
G1 X64.149 Y41.014
G1 X63.947 Y41.014
G1 X63.879 Y40.946
G1 X63.609 Y40.946
G1 X63.542 Y40.879
G1 X63.406 Y40.879
G1 X63.339 Y40.811
G1 X63.204 Y40.811
G1 X63.136 Y40.744
G1 X63.001 Y40.744
G1 X62.731 Y40.608
G1 X62.529 Y40.608
G1 X61.988 Y40.338
G0 Z5.0
; --- FIX X Backlash ---
G0 X63.688 Y40.338 F1200
G0 X140 Y28.858
G1 Z0.0 F1000.0
; --- FIX Y Backlash ---
G0 X140 Y30.608 F1200
G1 X140 Y30.675
; --- FIX X Backlash ---
G0 X138.3 Y30.675 F1200
G1 X137.827 Y31.148
G1 X137.827 Y31.216
G1 X136.071 Y32.904
G1 X136.004 Y32.904
G1 X135.126 Y33.714
G1 X135.058 Y33.714
G1 X133.775 Y34.795
G1 X133.708 Y34.795
G1 X133.505 Y34.997
G1 X133.438 Y34.997
G1 X133.168 Y35.268
G1 X133.1 Y35.268
G1 X132.897 Y35.47
G1 X132.83 Y35.47
G1 X132.56 Y35.74
G1 X132.492 Y35.74
G1 X131.209 Y36.753
G1 X131.142 Y36.753
G1 X130.736 Y37.091
G1 X130.466 Y37.226
G1 X130.264 Y37.429
G1 X129.791 Y37.699
G1 X129.588 Y37.901
G1 X129.521 Y37.901
G1 X128.17 Y38.847
G1 X127.968 Y38.914
G1 X127.63 Y39.184
G1 X127.427 Y39.252
G1 X127.09 Y39.522
G1 X126.752 Y39.657
G1 X126.617 Y39.792
G1 X126.279 Y39.927
G1 X126.144 Y40.062
G1 X125.401 Y40.4
G1 X125.266 Y40.535
G1 X124.861 Y40.738
G1 X124.726 Y40.738
G0 Z5.0
; --- FIX Y Backlash ---
G0 X124.726 Y38.988 F1200
G0 X85.557 Y34.26
G1 Z0.0 F1000.0
G1 X85.422 Y34.058
G1 X85.422 Y33.923
G1 X85.287 Y33.72
G1 X85.287 Y33.585
G1 X85.152 Y33.382
G1 X85.152 Y33.247
G1 X85.017 Y33.045
G1 X84.949 Y32.775
G1 X84.814 Y32.707
G1 X84.139 Y32.099
G1 X84.071 Y32.099
G1 X82.653 Y30.816
G1 X82.586 Y30.816
G1 X81.505 Y29.736
G1 X81.505 Y29.668
G1 X80.425 Y28.453
G0 Z5.0
; --- FIX X Backlash ---
G0 X82.125 Y28.453 F1200
; --- FIX Y Backlash ---
G0 X82.125 Y30.203 F1200
G0 X100.561 Y33.579
G1 Z0.0 F1000.0
; --- FIX Y Backlash ---
G0 X100.561 Y31.829 F1200
G1 X100.629 Y31.762
G1 X100.629 Y31.627
G1 X100.764 Y31.356
G1 X101.034 Y31.086
G1 X101.169 Y31.086
G1 X101.371 Y30.951
G1 X101.506 Y30.951
G1 X101.574 Y30.884
G1 X102.114 Y30.749
G1 X102.317 Y30.614
G1 X102.857 Y30.479
G1 X103.06 Y30.344
G1 X103.397 Y30.276
G1 X103.6 Y30.141
G1 X103.735 Y30.141
G1 X103.803 Y30.073
G1 X103.938 Y30.073
G1 X104.005 Y30.006
G1 X104.14 Y30.006
G1 X104.208 Y29.938
G1 X104.748 Y29.803
G1 X104.951 Y29.668
G1 X105.086 Y29.668
G1 X105.491 Y29.466
G1 X106.031 Y29.331
G1 X106.234 Y29.195
G1 X106.774 Y29.06
G1 X106.977 Y28.925
G1 X107.112 Y28.925
G1 X107.517 Y28.723
G1 X107.652 Y28.723
G1 X108.26 Y28.385
G1 X108.732 Y28.385
; --- FIX Y Backlash ---
G0 X108.732 Y30.135 F1200
G1 X108.868 Y30.203
G0 Z5.0
; --- FIX X Backlash ---
G0 X107.168 Y30.203 F1200
G0 X22.887 Y41.548
G1 Z0.0 F1000.0
; --- FIX Y Backlash ---
G0 X22.887 Y39.798 F1200
G1 X22.347 Y38.38
G1 X21.806 Y37.907
G1 X21.739 Y37.907
G1 X21.064 Y37.232
G1 X20.996 Y37.232
G1 X19.173 Y35.341
G1 X19.173 Y35.273
G1 X18.227 Y34.26
G1 X18.227 Y34.193
G1 X17.687 Y33.585
G1 X17.687 Y33.518
G1 X17.484 Y33.315
G1 X17.484 Y33.247
G1 X17.147 Y32.91
G1 X17.079 Y32.707
G1 X16.336 Y31.829
G1 X16.201 Y31.559
G1 X15.729 Y31.019
G1 X15.729 Y30.951
G1 X15.594 Y30.816
G1 X15.594 Y30.749
G1 X15.458 Y30.614
G1 X15.188 Y30.141
G1 X14.986 Y29.938
G1 X14.716 Y29.466
G1 X14.513 Y29.263
G1 X14.243 Y28.79
G1 X14.04 Y28.588
G1 X14.04 Y28.318
; --- FIX X Backlash ---
G0 X15.74 Y28.318 F1200
G1 X15.808 Y28.25
G0 Z5.0
; --- FIX Y Backlash ---
G0 X15.808 Y30 F1200
G0 X121.699 Y44.182
G1 Z0.0 F1000.0
; --- FIX X Backlash ---
G0 X119.999 Y44.182 F1200
; --- FIX Y Backlash ---
G0 X119.999 Y42.432 F1200
G1 X119.931 Y42.364
G1 X119.323 Y42.364
G1 X119.256 Y42.297
G1 X118.581 Y42.297
G1 X118.513 Y42.229
G1 X118.108 Y42.229
G1 X118.04 Y42.162
G1 X117.703 Y42.162
G1 X117.635 Y42.094
G1 X116.892 Y42.027
G1 X116.825 Y41.959
G1 X116.555 Y41.959
G1 X116.487 Y41.892
G1 X116.217 Y41.892
G1 X116.149 Y41.824
G1 X115.879 Y41.824
G1 X115.812 Y41.756
G1 X115.136 Y41.689
G1 X115.069 Y41.621
G1 X114.596 Y41.554
G1 X114.326 Y41.419
G1 X114.123 Y41.419
G1 X114.056 Y41.351
G1 X113.583 Y41.284
G1 X113.313 Y41.149
G1 X113.11 Y41.149
G1 X113.043 Y41.081
G1 X112.908 Y41.081
G1 X112.638 Y40.946
G1 X112.435 Y40.946
G1 X112.232 Y40.811
G1 X112.097 Y40.811
G1 X112.03 Y40.744
G1 X111.895 Y40.744
G1 X111.827 Y40.676
G1 X111.287 Y40.541
G1 X111.084 Y40.406
G1 X110.747 Y40.338
G1 X110.544 Y40.203
G1 X110.409 Y40.203
G1 X110.342 Y40.136
G1 X110.206 Y40.136
G1 X109.936 Y40.001
G1 X109.599 Y40.001
G1 X109.531 Y39.933
G1 X109.194 Y39.933
G1 X109.126 Y39.866
G1 X108.788 Y39.866
G1 X108.721 Y39.798
G1 X108.383 Y39.798
G1 X108.316 Y39.731
G1 X107.978 Y39.731
G1 X107.91 Y39.663
G1 X107.64 Y39.663
G1 X107.573 Y39.595
G1 X107.235 Y39.595
G1 X107.168 Y39.528
G1 X106.965 Y39.528
G0 Z5.0
; --- FIX Y Backlash ---
G0 X106.965 Y41.278 F1200
G0 X106.897 Y41.345
G1 Z0.0 F1000.0
G1 X106.492 Y42.223
G1 X106.357 Y42.358
G1 X106.087 Y42.426
G1 X105.884 Y42.561
G1 X105.749 Y42.561
G1 X105.547 Y42.696
G1 X105.412 Y42.696
G1 X105.209 Y42.831
G1 X105.074 Y42.831
G1 X104.871 Y42.966
G1 X104.331 Y43.101
G1 X104.129 Y43.236
G1 X103.994 Y43.236
G1 X103.926 Y43.304
G1 X103.791 Y43.304
G1 X103.723 Y43.371
G1 X103.588 Y43.371
G1 X103.318 Y43.506
G1 X103.116 Y43.506
G1 X103.048 Y43.574
G1 X102.913 Y43.574
G1 X102.643 Y43.709
G1 X102.44 Y43.709
G1 X102.17 Y43.844
G1 X101.968 Y43.844
G1 X101.9 Y43.912
G1 X101.697 Y43.912
G1 X101.63 Y43.979
G1 X101.427 Y43.979
G1 X101.36 Y44.047
G1 X101.09 Y44.047
G1 X101.022 Y44.114
G1 X100.819 Y44.114
G1 X100.752 Y44.182
G1 X100.482 Y44.182
G1 X100.414 Y44.249
G1 X100.212 Y44.249
G1 X100.144 Y44.317
G1 X99.942 Y44.317
G1 X99.874 Y44.384
G1 X99.266 Y44.452
G1 X99.199 Y44.519
G1 X98.861 Y44.519
G1 X98.794 Y44.587
G1 X98.321 Y44.587
G1 X98.253 Y44.655
G1 X97.781 Y44.655
G1 X97.713 Y44.722
G1 X97.308 Y44.722
G1 X97.24 Y44.79
G1 X96.835 Y44.79
G1 X96.768 Y44.857
G1 X96.16 Y44.857
G1 X96.092 Y44.925
G1 X95.012 Y44.925
G1 X94.944 Y44.992
G1 X94.742 Y44.992
; --- FIX Y Backlash ---
G0 X94.742 Y43.242 F1200
G1 X94.674 Y43.175
G1 X93.594 Y43.175
G0 Z5.0
G0 X22.955 Y39.866
G1 Z0.0 F1000.0
; --- FIX X Backlash ---
G0 X24.655 Y39.866 F1200
G1 X24.857 Y39.866
; --- FIX Y Backlash ---
G0 X24.857 Y41.616 F1200
G1 X24.925 Y41.683
G1 X25.127 Y41.683
G1 X25.195 Y41.751
G1 X25.397 Y41.751
G1 X25.465 Y41.818
G1 X25.735 Y41.818
G1 X25.803 Y41.886
G1 X26.005 Y41.886
G1 X26.073 Y41.953
G1 X26.275 Y41.953
G1 X26.343 Y42.021
G1 X26.883 Y42.088
G1 X27.558 Y42.494
G1 X27.694 Y42.494
G1 X28.301 Y42.831
G1 X28.639 Y42.899
G1 X28.842 Y43.034
G1 X29.179 Y43.101
G1 X29.382 Y43.236
G1 X29.584 Y43.236
G1 X29.652 Y43.304
G1 X30.125 Y43.371
G1 X30.395 Y43.506
G1 X30.868 Y43.506
G1 X30.935 Y43.574
G1 X31.138 Y43.574
G1 X31.205 Y43.642
G1 X31.745 Y43.642
G1 X31.813 Y43.709
G1 X32.556 Y43.709
G1 X32.623 Y43.777
G1 X34.042 Y43.777
; --- FIX Y Backlash ---
G0 X34.042 Y42.027 F1200
G1 X34.109 Y41.959
G1 X34.717 Y41.959
G1 X34.784 Y41.892
G1 X35.122 Y41.892
G1 X35.19 Y41.824
G1 X35.46 Y41.824
G1 X35.73 Y41.689
G1 X35.932 Y41.689
G1 X36.81 Y41.284
G1 X37.081 Y41.014
G1 X37.148 Y41.014
G1 X37.688 Y40.406
G1 X37.756 Y40.136
G1 X37.823 Y40.068
G1 X37.823 Y39.866
G1 X37.891 Y39.798
G1 X37.891 Y39.528
G1 X37.958 Y39.46
G1 X37.958 Y39.123
G1 X38.026 Y39.055
G1 X38.026 Y38.853
; --- FIX X Backlash ---
G0 X36.326 Y38.853 F1200
G1 X36.258 Y38.785
G1 X36.258 Y38.312
G1 X36.191 Y38.245
G1 X36.191 Y37.907
G1 X36.123 Y37.84
G1 X36.056 Y37.164
G1 X35.988 Y37.097
G1 X35.988 Y36.894
G1 X35.786 Y36.489
G1 X35.786 Y36.354
G1 X35.718 Y36.286
G1 X35.651 Y36.016
G1 X35.516 Y35.881
G1 X35.11 Y35.071
G1 X34.908 Y34.868
G1 X34.638 Y34.395
G1 X34.165 Y33.855
G1 X34.165 Y33.788
G1 X33.962 Y33.585
G1 X33.962 Y33.518
G1 X33.287 Y32.775
G1 X33.287 Y32.707
G1 X32.747 Y32.167
G1 X32.747 Y32.099
G1 X30.653 Y29.938
G1 X30.653 Y29.871
G1 X30.383 Y29.601
G1 X30.383 Y29.533
G1 X30.045 Y29.195
G1 X29.978 Y28.993
G1 X29.505 Y28.453
; --- FIX X Backlash ---
G0 X31.205 Y28.453 F1200
G1 X31.273 Y28.318
G0 Z5.0
; --- FIX X Backlash ---
G0 X29.573 Y28.318 F1200
; --- FIX Y Backlash ---
G0 X29.573 Y30.068 F1200
G0 X22.887 Y41.616
G1 Z0.0 F1000.0
G1 X22.617 Y41.886
G1 X22.482 Y42.156
G1 X22.482 Y42.291
G1 X22.414 Y42.358
G1 X21.874 Y42.629
G1 X21.739 Y42.629
G1 X21.131 Y42.966
G1 X20.996 Y42.966
G1 X20.794 Y43.101
G1 X20.658 Y43.101
G1 X20.591 Y43.169
G1 X20.456 Y43.169
G1 X20.186 Y43.304
G1 X19.916 Y43.304
G1 X19.848 Y43.371
G1 X19.645 Y43.371
G1 X19.375 Y43.506
G1 X18.835 Y43.506
G1 X18.768 Y43.574
G1 X18.565 Y43.574
G1 X18.497 Y43.642
G1 X17.012 Y43.709
G1 X16.944 Y43.777
G1 X15.661 Y43.777
; --- FIX Y Backlash ---
G0 X15.661 Y42.027 F1200
G1 X15.594 Y41.959
G1 X14.783 Y41.959
G1 X14.716 Y41.892
G1 X14.04 Y41.892
G1 X13.973 Y41.824
G1 X13.703 Y41.824
G1 X13.635 Y41.756
G1 X12.825 Y41.689
G1 X12.555 Y41.554
G1 X12.352 Y41.554
G1 X12.284 Y41.486
G1 X12.082 Y41.486
G1 X11.812 Y41.351
G1 X11.609 Y41.351
G1 X11.271 Y41.149
G1 X11.136 Y41.149
G1 X10.731 Y40.946
G1 X10.596 Y40.946
G1 X10.461 Y40.811
G1 X10.326 Y40.811
G1 X9.245 Y40.271
G1 X9.11 Y40.136
G1 X8.773 Y40.001
G1 X8.638 Y39.866
G1 X8.3 Y39.731
G0 Z5.0
; --- FIX X Backlash ---
G0 X10 Y39.731 F1200
; --- FIX Y Backlash ---
G0 X10 Y41.481 F1200
G0 X56.665 Y41.953
G1 Z0.0 F1000.0
; --- FIX X Backlash ---
G0 X54.965 Y41.953 F1200
; --- FIX Y Backlash ---
G0 X54.965 Y40.203 F1200
G1 X54.56 Y39.798
G1 X54.56 Y39.731
G1 X54.357 Y39.528
G1 X54.357 Y39.46
G1 X54.019 Y39.123
G1 X54.019 Y39.055
G1 X53.682 Y38.718
G1 X53.682 Y38.65
G1 X53.142 Y38.11
G1 X53.142 Y38.042
G1 X50.575 Y35.408
G1 X50.508 Y35.206
G1 X49.63 Y34.328
G0 Z5.0
; --- FIX X Backlash ---
G0 X51.33 Y34.328 F1200
; --- FIX Y Backlash ---
G0 X51.33 Y36.078 F1200
G0 X108.597 Y41.21
G1 Z0.0 F1000.0
; --- FIX X Backlash ---
G0 X106.897 Y41.21 F1200
; --- FIX Y Backlash ---
G0 X106.897 Y39.46 F1200
G1 X106.29 Y38.312
G1 X105.817 Y38.11
G1 X105.682 Y37.975
G1 X105.344 Y37.84
G1 X105.209 Y37.705
G1 X104.871 Y37.569
G1 X104.736 Y37.434
G1 X104.399 Y37.299
G1 X104.264 Y37.164
G1 X103.723 Y36.894
G1 X103.588 Y36.759
G1 X103.521 Y36.759
G1 X103.386 Y36.624
G1 X103.318 Y36.624
G1 X103.183 Y36.489
G1 X103.116 Y36.489
G1 X102.981 Y36.354
G1 X102.913 Y36.354
G1 X102.778 Y36.219
G1 X102.305 Y35.949
G1 X101.832 Y35.544
G1 X101.562 Y35.408
G1 X101.292 Y35.138
G1 X101.225 Y35.138
G1 X100.955 Y34.868
G1 X100.887 Y34.868
G1 X100.549 Y34.531
G1 X100.482 Y34.531
G1 X99.266 Y33.315
G1 X99.199 Y33.045
G1 X99.131 Y32.977
G1 X99.131 Y32.775
G1 X99.064 Y32.707
G1 X99.064 Y32.572
G1 X98.996 Y32.505
G1 X98.996 Y32.369
G1 X98.861 Y32.099
G1 X98.861 Y31.964
G0 Z5.0
; --- FIX Y Backlash ---
G0 X98.861 Y33.714 F1200
G0 X49.09 Y36.01
G1 Z0.0 F1000.0
; --- FIX Y Backlash ---
G0 X49.09 Y34.26 F1200
G1 X48.279 Y33.45
G1 X48.212 Y33.18
G1 X47.469 Y32.437
G1 X47.401 Y32.437
G1 X46.523 Y31.627
G1 X46.456 Y31.627
G1 X45.781 Y31.019
G1 X45.713 Y31.019
G1 X45.173 Y30.546
G1 X44.903 Y30.411
G1 X44.16 Y29.803
G1 X44.092 Y29.803
G1 X43.957 Y29.668
G1 X43.687 Y29.533
G1 X43.484 Y29.331
G1 X43.282 Y29.263
G1 X43.147 Y29.128
G1 X43.079 Y29.128
G1 X42.944 Y28.993
G1 X42.471 Y28.723
G0 Z5.0
; --- FIX X Backlash ---
G0 X44.171 Y28.723 F1200
; --- FIX Y Backlash ---
G0 X44.171 Y30.473 F1200
G0 X87.257 Y36.078
G1 Z0.0 F1000.0
; --- FIX X Backlash ---
G0 X85.557 Y36.078 F1200
G1 X85.152 Y36.821
G1 X84.747 Y36.888
G1 X84.679 Y36.956
G1 X84.477 Y36.956
G1 X84.409 Y37.023
G1 X84.206 Y37.023
G1 X84.139 Y37.091
G1 X83.936 Y37.091
G1 X83.869 Y37.158
G1 X83.194 Y37.226
G1 X83.126 Y37.294
G1 X82.451 Y37.294
G1 X82.383 Y37.361
G1 X81.978 Y37.361
G1 X81.91 Y37.429
G1 X81.505 Y37.429
G1 X81.438 Y37.496
G1 X80.357 Y37.496
G1 X80.29 Y37.564
G1 X79.547 Y37.564
G1 X79.479 Y37.631
G1 X78.399 Y37.631
G1 X78.331 Y37.699
G1 X75.63 Y37.699
G1 X75.562 Y37.766
G1 X74.347 Y37.766
; --- FIX Y Backlash ---
G0 X74.347 Y36.016 F1200
G1 X74.279 Y35.949
G1 X72.253 Y35.949
G1 X72.186 Y35.881
G1 X71.51 Y35.881
G1 X71.443 Y35.814
G1 X70.497 Y35.814
G1 X70.43 Y35.746
G1 X69.755 Y35.746
G1 X69.687 Y35.679
G1 X68.742 Y35.611
G1 X68.674 Y35.544
G1 X67.864 Y35.476
G1 X67.796 Y35.408
G1 X67.458 Y35.408
G1 X67.391 Y35.341
G1 X66.918 Y35.341
G1 X66.851 Y35.273
G1 X66.108 Y35.206
G1 X66.04 Y35.138
G1 X65.77 Y35.138
G1 X65.703 Y35.071
G1 X65.5 Y35.071
G1 X65.432 Y35.003
G1 X65.23 Y35.003
G1 X65.162 Y34.936
G1 X64.892 Y34.936
G1 X64.825 Y34.868
G1 X64.622 Y34.868
G1 X64.555 Y34.801
G1 X64.284 Y34.801
G1 X64.217 Y34.733
G1 X63.744 Y34.666
G1 X63.677 Y34.598
G1 X63.542 Y34.598
G1 X63.474 Y34.531
G1 X63.339 Y34.531
G1 X63.271 Y34.463
G1 X63.136 Y34.463
G1 X63.069 Y34.395
G1 X62.934 Y34.395
G1 X62.866 Y34.328
G1 X62.326 Y34.193
G1 X61.988 Y33.99
G0 Z5.0
; --- FIX Y Backlash ---
G0 X61.988 Y35.74 F1200
G0 X49.09 Y36.01
G1 Z0.0 F1000.0
G1 X47.942 Y37.158
G1 X47.874 Y37.158
G1 X47.604 Y37.429
G1 X47.536 Y37.429
G1 X47.334 Y37.631
G1 X47.266 Y37.631
G1 X45.983 Y38.644
G1 X45.713 Y38.779
G1 X44.7 Y39.59
G1 X44.632 Y39.59
G1 X43.484 Y40.4
G1 X43.282 Y40.468
G1 X43.147 Y40.603
G1 X42.606 Y40.873
G1 X42.471 Y41.008
G1 X42.336 Y41.008
G0 Z5.0
; --- FIX X Backlash ---
G0 X44.036 Y41.008 F1200
; --- FIX Y Backlash ---
G0 X44.036 Y39.258 F1200
G0 X88.068 Y34.328
G1 Z0.0 F1000.0
; --- FIX X Backlash ---
G0 X86.368 Y34.328 F1200
G1 X85.625 Y34.328
G0 Z5.0
G0 X49.562 Y34.26
G1 Z0.0 F1000.0
G1 X49.09 Y34.26
G0 Z5.0
; --- FIX X Backlash ---
G0 X50.79 Y34.26 F1200
G0 X57.003 Y28.79
G1 Z0.0 F1000.0
; --- FIX X Backlash ---
G0 X55.303 Y28.79 F1200
; --- FIX Y Backlash ---
G0 X55.303 Y30.54 F1200
G1 X52.736 Y33.106
G1 X52.669 Y33.106
G1 X51.994 Y33.782
G1 X51.926 Y33.782
G1 X51.386 Y34.322
G1 X51.318 Y34.322
G1 X50.778 Y34.862
G1 X50.71 Y34.862
G1 X49.63 Y35.943
G0 Z5.0
; --- FIX X Backlash ---
G0 X51.33 Y35.943 F1200
; --- FIX Y Backlash ---
G0 X51.33 Y34.193 F1200
G0 X100.223 Y31.829
G1 Z0.0 F1000.0
; --- FIX Y Backlash ---
G0 X100.223 Y33.579 F1200
G1 X100.291 Y33.647
G1 X100.494 Y33.647
G0 Z5.0
; --- FIX X Backlash ---
G0 X98.794 Y33.647 F1200
; --- FIX Y Backlash ---
G0 X98.794 Y31.897 F1200
G0 X0 Y0
M30
%
