
G0 Z10 F500;      ; Move to clearance level
; G0 X-10 Y-10 F1200; Homing
; G0 X-5 Y-5 F1200; go in
; G10 P0 L20 X0 Y0; set to zero
G1 F1200;           ; Set feed rate
G90 ; Force absolute mode
%
(Batak Toba 'Horas' Single Stroke)
(Generated with Graph Tracing)
G21
G0 Z5
G0 X53.208 Y117.813
G1 Z0 F1600.0
; --- FIX X Backlash ---
G0 X51.908 Y117.813 F1200
G1 X51.742 Y117.813
G1 X51.492 Y117.938
G1 X51.368 Y117.938
G1 X51.326 Y117.979
G1 X51.201 Y117.979
G1 X51.16 Y118.021
G1 X51.077 Y118.021
G1 X51.035 Y118.062
G1 X50.869 Y118.062
G1 X50.827 Y118.104
G1 X50.578 Y118.104
G1 X50.536 Y118.145
G1 X50.121 Y118.187
G1 X50.079 Y118.229
G1 X49.788 Y118.229
G1 X49.747 Y118.27
G1 X49.29 Y118.27
G1 X49.248 Y118.312
G1 X48.916 Y118.312
G1 X48.874 Y118.353
G1 X48.5 Y118.353
G1 X48.458 Y118.395
G1 X47.918 Y118.395
G1 X47.877 Y118.436
G1 X47.045 Y118.436
G1 X47.004 Y118.478
G1 X45.84 Y118.478
G1 X45.799 Y118.519
G1 X43.845 Y118.519
G1 X43.804 Y118.478
G1 X42.557 Y118.478
G1 X42.516 Y118.436
G1 X41.975 Y118.436
G1 X41.934 Y118.395
G1 X41.352 Y118.395
G1 X41.31 Y118.353
G1 X40.978 Y118.353
G1 X40.936 Y118.312
G1 X40.645 Y118.312
G1 X40.604 Y118.27
G1 X40.355 Y118.27
G1 X40.313 Y118.229
G1 X40.022 Y118.229
G1 X39.981 Y118.187
G1 X39.399 Y118.145
G1 X39.357 Y118.104
G1 X38.9 Y118.062
G1 X38.858 Y118.021
G1 X38.734 Y118.021
G1 X38.692 Y117.979
G1 X38.526 Y117.979
G1 X38.484 Y117.938
G1 X38.11 Y117.896
G1 X38.069 Y117.855
G1 X37.944 Y117.855
G1 X37.903 Y117.813
G1 X37.736 Y117.813
G1 X37.695 Y117.771
G1 X37.612 Y117.771
G1 X37.57 Y117.73
G1 X37.487 Y117.73
G1 X37.445 Y117.688
G1 X37.362 Y117.688
; --- FIX Y Backlash ---
G0 X37.362 Y116.388 F1200
G1 X37.196 Y116.305
G1 X37.071 Y116.305
G1 X36.739 Y116.139
G0 Z5
; --- FIX X Backlash ---
G0 X38.039 Y116.139 F1200
G0 X85 Y109.074
G1 Z0 F1600.0
G1 X85 Y109.116
; --- FIX X Backlash ---
G0 X83.7 Y109.116 F1200
; --- FIX Y Backlash ---
G0 X83.7 Y110.416 F1200
G1 X83.409 Y110.706
G1 X83.409 Y110.748
G1 X82.329 Y111.787
G1 X82.287 Y111.787
G1 X81.747 Y112.286
G1 X81.705 Y112.286
G1 X80.916 Y112.951
G1 X80.874 Y112.951
G1 X80.749 Y113.075
G1 X80.708 Y113.075
G1 X80.542 Y113.242
G1 X80.5 Y113.242
G1 X80.375 Y113.366
G1 X80.334 Y113.366
G1 X80.168 Y113.532
G1 X80.126 Y113.532
G1 X79.336 Y114.156
G1 X79.295 Y114.156
G1 X79.045 Y114.364
G1 X78.879 Y114.447
G1 X78.755 Y114.571
G1 X78.464 Y114.738
G1 X78.339 Y114.862
G1 X78.297 Y114.862
G1 X77.466 Y115.444
G1 X77.342 Y115.486
G1 X77.134 Y115.652
G1 X77.009 Y115.694
G1 X76.801 Y115.86
G1 X76.594 Y115.943
G1 X76.51 Y116.026
G1 X76.303 Y116.109
G1 X76.219 Y116.192
G1 X75.762 Y116.4
G1 X75.679 Y116.483
G1 X75.43 Y116.608
G1 X75.347 Y116.608
G0 Z5
; --- FIX Y Backlash ---
G0 X75.347 Y115.308 F1200
G0 X51.243 Y112.399
G1 Z0 F1600.0
G1 X51.16 Y112.274
G1 X51.16 Y112.191
G1 X51.077 Y112.066
G1 X51.077 Y111.983
G1 X50.994 Y111.858
G1 X50.994 Y111.775
G1 X50.91 Y111.651
G1 X50.869 Y111.484
G1 X50.786 Y111.443
G1 X50.37 Y111.069
G1 X50.329 Y111.069
G1 X49.456 Y110.279
G1 X49.414 Y110.279
G1 X48.749 Y109.614
G1 X48.749 Y109.573
G1 X48.084 Y108.825
G0 Z5
; --- FIX X Backlash ---
G0 X49.384 Y108.825 F1200
; --- FIX Y Backlash ---
G0 X49.384 Y110.125 F1200
G0 X60.73 Y112.203
G1 Z0 F1600.0
G1 X60.771 Y112.161
; --- FIX Y Backlash ---
G0 X60.771 Y110.861 F1200
G1 X60.771 Y110.778
G1 X60.855 Y110.612
G1 X61.021 Y110.445
G1 X61.104 Y110.445
G1 X61.229 Y110.362
G1 X61.312 Y110.362
G1 X61.353 Y110.321
G1 X61.686 Y110.238
G1 X61.81 Y110.155
G1 X62.143 Y110.071
G1 X62.268 Y109.988
G1 X62.475 Y109.947
G1 X62.6 Y109.864
G1 X62.683 Y109.864
G1 X62.725 Y109.822
G1 X62.808 Y109.822
G1 X62.849 Y109.781
G1 X62.932 Y109.781
G1 X62.974 Y109.739
G1 X63.306 Y109.656
G1 X63.431 Y109.573
G1 X63.514 Y109.573
G1 X63.764 Y109.448
G1 X64.096 Y109.365
G1 X64.221 Y109.282
G1 X64.553 Y109.199
G1 X64.678 Y109.116
G1 X64.761 Y109.116
G1 X65.01 Y108.991
G1 X65.094 Y108.991
G1 X65.468 Y108.783
G1 X65.758 Y108.783
G1 X65.842 Y108.825
G0 Z5
; --- FIX X Backlash ---
G0 X64.542 Y108.825 F1200
; --- FIX Y Backlash ---
G0 X64.542 Y110.125 F1200
G0 X12.677 Y117.106
G1 Z0 F1600.0
; --- FIX Y Backlash ---
G0 X12.677 Y115.806 F1200
G1 X12.344 Y114.934
G1 X12.012 Y114.643
G1 X11.97 Y114.643
G1 X11.555 Y114.227
G1 X11.513 Y114.227
G1 X10.391 Y113.064
G1 X10.391 Y113.022
G1 X9.809 Y112.399
G1 X9.809 Y112.357
G1 X9.477 Y111.983
G1 X9.477 Y111.942
G1 X9.352 Y111.817
G1 X9.352 Y111.775
G1 X9.144 Y111.568
G1 X9.103 Y111.443
G1 X8.645 Y110.903
G1 X8.562 Y110.736
G1 X8.271 Y110.404
G1 X8.271 Y110.362
G1 X8.188 Y110.279
G1 X8.188 Y110.238
G1 X8.105 Y110.155
G1 X7.939 Y109.864
G1 X7.814 Y109.739
G1 X7.648 Y109.448
G1 X7.523 Y109.323
G1 X7.357 Y109.032
G1 X7.232 Y108.908
G1 X7.232 Y108.742
G1 X7.274 Y108.7
G0 Z5
; --- FIX X Backlash ---
G0 X8.574 Y108.7 F1200
; --- FIX Y Backlash ---
G0 X8.574 Y110 F1200
G0 X73.738 Y118.727
G1 Z0 F1600.0
G1 X73.696 Y118.686
; --- FIX X Backlash ---
G0 X72.396 Y118.686 F1200
G1 X72.022 Y118.686
G1 X71.981 Y118.644
G1 X71.565 Y118.644
G1 X71.523 Y118.603
G1 X71.274 Y118.603
G1 X71.232 Y118.561
G1 X71.025 Y118.561
G1 X70.983 Y118.519
G1 X70.526 Y118.478
G1 X70.484 Y118.436
G1 X70.318 Y118.436
G1 X70.277 Y118.395
G1 X70.11 Y118.395
G1 X70.069 Y118.353
G1 X69.903 Y118.353
G1 X69.861 Y118.312
G1 X69.445 Y118.27
G1 X69.404 Y118.229
G1 X69.113 Y118.187
; --- FIX Y Backlash ---
G0 X69.113 Y116.887 F1200
G1 X68.947 Y116.804
G1 X68.822 Y116.804
G1 X68.781 Y116.762
G1 X68.49 Y116.721
G1 X68.323 Y116.638
G1 X68.199 Y116.638
G1 X68.157 Y116.596
G1 X68.074 Y116.596
G1 X67.908 Y116.513
G1 X67.783 Y116.513
G1 X67.658 Y116.43
G1 X67.575 Y116.43
G1 X67.534 Y116.388
G1 X67.451 Y116.388
G1 X67.409 Y116.347
G1 X67.077 Y116.264
G1 X66.952 Y116.181
G1 X66.744 Y116.139
G1 X66.619 Y116.056
G1 X66.536 Y116.056
G1 X66.495 Y116.014
G1 X66.412 Y116.014
G1 X66.245 Y115.931
G1 X66.038 Y115.931
G1 X65.996 Y115.89
G1 X65.788 Y115.89
G1 X65.747 Y115.848
G1 X65.539 Y115.848
G1 X65.497 Y115.806
G1 X65.29 Y115.806
G1 X65.248 Y115.765
G1 X65.04 Y115.765
G1 X64.999 Y115.723
G1 X64.832 Y115.723
G1 X64.791 Y115.682
G1 X64.583 Y115.682
G1 X64.542 Y115.64
G1 X64.417 Y115.64
G0 Z5
G0 X64.375 Y115.682
G1 Z0 F1600.0
; --- FIX Y Backlash ---
G0 X64.375 Y116.982 F1200
G1 X64.126 Y117.522
G1 X64.043 Y117.605
G1 X63.877 Y117.647
G1 X63.752 Y117.73
G1 X63.669 Y117.73
G1 X63.544 Y117.813
G1 X63.461 Y117.813
G1 X63.336 Y117.896
G1 X63.253 Y117.896
G1 X63.129 Y117.979
G1 X62.796 Y118.062
G1 X62.671 Y118.145
G1 X62.588 Y118.145
G1 X62.547 Y118.187
G1 X62.464 Y118.187
G1 X62.422 Y118.229
G1 X62.339 Y118.229
G1 X62.173 Y118.312
G1 X62.048 Y118.312
G1 X62.006 Y118.353
G1 X61.923 Y118.353
G1 X61.757 Y118.436
G1 X61.632 Y118.436
G1 X61.466 Y118.519
G1 X61.342 Y118.519
G1 X61.3 Y118.561
G1 X61.175 Y118.561
G1 X61.134 Y118.603
G1 X61.009 Y118.603
G1 X60.968 Y118.644
G1 X60.801 Y118.644
G1 X60.76 Y118.686
G1 X60.635 Y118.686
G1 X60.594 Y118.727
G1 X60.427 Y118.727
G1 X60.386 Y118.769
G1 X60.261 Y118.769
G1 X60.219 Y118.81
G1 X60.095 Y118.81
G1 X60.053 Y118.852
G1 X59.679 Y118.894
G1 X59.638 Y118.935
G1 X59.43 Y118.935
G1 X59.388 Y118.977
G1 X59.097 Y118.977
G1 X59.056 Y119.018
G1 X58.765 Y119.018
G1 X58.723 Y119.06
G1 X58.474 Y119.06
G1 X58.432 Y119.101
G1 X58.183 Y119.101
G1 X58.142 Y119.143
G1 X57.768 Y119.143
G1 X57.726 Y119.184
G1 X57.061 Y119.184
G1 X57.019 Y119.226
G1 X56.895 Y119.226
G1 X56.853 Y119.184
G1 X56.188 Y119.184
G0 Z5
; --- FIX Y Backlash ---
G0 X56.188 Y117.884 F1200
G0 X12.718 Y115.848
G1 Z0 F1600.0
; --- FIX X Backlash ---
G0 X14.018 Y115.848 F1200
G1 X14.143 Y115.848
G1 X14.184 Y115.89
G1 X14.309 Y115.89
G1 X14.351 Y115.931
G1 X14.475 Y115.931
G1 X14.517 Y115.973
G1 X14.683 Y115.973
G1 X14.725 Y116.014
G1 X14.849 Y116.014
G1 X14.891 Y116.056
G1 X15.016 Y116.056
G1 X15.057 Y116.097
G1 X15.39 Y116.139
; --- FIX Y Backlash ---
G0 X15.39 Y117.439 F1200
G1 X15.805 Y117.688
G1 X15.888 Y117.688
G1 X16.262 Y117.896
G1 X16.47 Y117.938
G1 X16.595 Y118.021
G1 X16.803 Y118.062
G1 X16.927 Y118.145
G1 X17.052 Y118.145
G1 X17.094 Y118.187
G1 X17.384 Y118.229
G1 X17.551 Y118.312
G1 X17.842 Y118.312
G1 X17.883 Y118.353
G1 X18.008 Y118.353
G1 X18.049 Y118.395
G1 X18.382 Y118.395
G1 X18.423 Y118.436
G1 X18.881 Y118.436
G1 X18.922 Y118.478
G1 X19.795 Y118.478
G1 X19.836 Y118.436
G1 X20.21 Y118.436
G1 X20.252 Y118.395
G1 X20.46 Y118.395
G1 X20.501 Y118.353
G1 X20.668 Y118.353
; --- FIX Y Backlash ---
G0 X20.668 Y117.053 F1200
G1 X20.834 Y116.97
G1 X20.958 Y116.97
G1 X21.499 Y116.721
G1 X21.665 Y116.555
G1 X21.706 Y116.555
G1 X22.039 Y116.181
G1 X22.081 Y116.014
G1 X22.122 Y115.973
G1 X22.122 Y115.848
G1 X22.164 Y115.806
G1 X22.164 Y115.64
G1 X22.205 Y115.599
G1 X22.205 Y115.391
G1 X22.247 Y115.349
G1 X22.247 Y115.225
G1 X22.205 Y115.183
G1 X22.205 Y114.892
G1 X22.164 Y114.851
G1 X22.164 Y114.643
G1 X22.122 Y114.601
G1 X22.081 Y114.186
G1 X22.039 Y114.144
G1 X22.039 Y114.019
; --- FIX X Backlash ---
G0 X20.739 Y114.019 F1200
G1 X20.614 Y113.77
G1 X20.614 Y113.687
G1 X20.573 Y113.645
G1 X20.531 Y113.479
G1 X20.448 Y113.396
G1 X20.199 Y112.897
G1 X20.074 Y112.773
G1 X19.908 Y112.482
G1 X19.617 Y112.149
G1 X19.617 Y112.108
G1 X19.492 Y111.983
G1 X19.492 Y111.942
G1 X19.077 Y111.484
G1 X19.077 Y111.443
G1 X18.744 Y111.11
G1 X18.744 Y111.069
G1 X17.456 Y109.739
G1 X17.456 Y109.697
G1 X17.29 Y109.531
G1 X17.29 Y109.49
G1 X17.082 Y109.282
G1 X17.04 Y109.157
G1 X16.749 Y108.825
G1 X16.791 Y108.742
G0 Z5
; --- FIX Y Backlash ---
G0 X16.791 Y110.042 F1200
G0 X12.677 Y117.148
G1 Z0 F1600.0
G1 X12.51 Y117.314
G1 X12.427 Y117.481
G1 X12.427 Y117.564
G1 X12.386 Y117.605
G1 X12.053 Y117.771
G1 X11.97 Y117.771
G1 X11.596 Y117.979
G1 X11.513 Y117.979
G1 X11.388 Y118.062
G1 X11.305 Y118.062
G1 X11.264 Y118.104
G1 X11.181 Y118.104
G1 X11.014 Y118.187
G1 X10.848 Y118.187
G1 X10.806 Y118.229
G1 X10.682 Y118.229
G1 X10.516 Y118.312
G1 X10.183 Y118.312
G1 X10.142 Y118.353
G1 X10.017 Y118.353
G1 X9.975 Y118.395
G1 X9.061 Y118.436
G1 X9.019 Y118.478
G1 X8.23 Y118.478
G1 X8.188 Y118.436
G1 X7.69 Y118.436
G1 X7.648 Y118.395
G1 X7.232 Y118.395
G1 X7.191 Y118.353
G1 X7.025 Y118.353
G1 X6.983 Y118.312
G1 X6.484 Y118.27
; --- FIX Y Backlash ---
G0 X6.484 Y116.97 F1200
G1 X6.318 Y116.887
G1 X6.194 Y116.887
G1 X6.152 Y116.845
G1 X6.027 Y116.845
G1 X5.861 Y116.762
G1 X5.736 Y116.762
G1 X5.529 Y116.638
G1 X5.445 Y116.638
G1 X5.196 Y116.513
G1 X5.113 Y116.513
G1 X5.03 Y116.43
G1 X4.947 Y116.43
G1 X4.282 Y116.097
G1 X4.199 Y116.014
G1 X3.991 Y115.931
G1 X3.908 Y115.848
G1 X3.7 Y115.765
G0 Z5
; --- FIX X Backlash ---
G0 X5 Y115.765 F1200
; --- FIX Y Backlash ---
G0 X5 Y117.065 F1200
G0 X33.717 Y117.356
G1 Z0 F1600.0
; --- FIX X Backlash ---
G0 X32.417 Y117.356 F1200
; --- FIX Y Backlash ---
G0 X32.417 Y116.056 F1200
G1 X32.168 Y115.806
G1 X32.168 Y115.765
G1 X32.043 Y115.64
G1 X32.043 Y115.599
G1 X31.835 Y115.391
G1 X31.835 Y115.349
G1 X31.627 Y115.142
G1 X31.627 Y115.1
G1 X31.295 Y114.768
G1 X31.295 Y114.726
G1 X29.716 Y113.105
G1 X29.674 Y112.981
G1 X29.134 Y112.44
G0 Z5
; --- FIX X Backlash ---
G0 X30.434 Y112.44 F1200
; --- FIX Y Backlash ---
G0 X30.434 Y113.74 F1200
G0 X65.675 Y116.899
G1 Z0 F1600.0
; --- FIX X Backlash ---
G0 X64.375 Y116.899 F1200
; --- FIX Y Backlash ---
G0 X64.375 Y115.599 F1200
G1 X64.001 Y114.892
G1 X63.71 Y114.768
G1 X63.627 Y114.684
G1 X63.419 Y114.601
G1 X63.336 Y114.518
G1 X63.129 Y114.435
G1 X63.045 Y114.352
G1 X62.838 Y114.269
G1 X62.755 Y114.186
G1 X62.422 Y114.019
G1 X62.339 Y113.936
G1 X62.297 Y113.936
G1 X62.214 Y113.853
G1 X62.173 Y113.853
G1 X62.09 Y113.77
G1 X62.048 Y113.77
G1 X61.965 Y113.687
G1 X61.923 Y113.687
G1 X61.84 Y113.604
G1 X61.549 Y113.438
G1 X61.258 Y113.188
G1 X61.092 Y113.105
G1 X60.926 Y112.939
G1 X60.884 Y112.939
G1 X60.718 Y112.773
G1 X60.677 Y112.773
G1 X60.469 Y112.565
G1 X60.427 Y112.565
G1 X59.679 Y111.817
G1 X59.638 Y111.651
G1 X59.596 Y111.609
G1 X59.596 Y111.484
G1 X59.555 Y111.443
G1 X59.555 Y111.36
G1 X59.513 Y111.318
G1 X59.513 Y111.235
G1 X59.43 Y111.069
G1 X59.43 Y110.986
G0 Z5

; Washing sequence (no color)
G1 Z10 F1000;        ; Raise brush
G0 X5 Y5 F1200;     ; Rapid move to clean
G1 Z0 F800;         ; Lower brush
G1 X10 Y12 Z8 F1200;     ; Move
G1 Z0 F800;         ; Lower
G1 X25 Y14 Z6 F800;     ; Move
G1 Z8 F800;         ; Maintain
G0 X5 Y5 F1200;     ; Rapid
G1 Z0 F800;         ; Lower
G1 X15 Y12 Z8 F1200;     ; Move
G1 Z0 F800;         ; Lower
G1 X25 Y14 Z6 F800;     ; Move
G1 Z10 F800;         ; Maintain
G1 F1200;           ; Set feed
G0 Z2.5 F1000 ; Safety Lift
G0 X59.43 Y110.986 F1200 ; Return to pos
; --- FIX Y Backlash ---
G0 X59.43 Y112.286 F1200
G0 X28.801 Y113.699
G1 Z0 F1600.0
; --- FIX Y Backlash ---
G0 X28.801 Y112.399 F1200
G1 X28.303 Y111.9
G1 X28.261 Y111.734
G1 X27.804 Y111.277
G1 X27.762 Y111.277
G1 X27.222 Y110.778
G1 X27.181 Y110.778
G1 X26.765 Y110.404
G1 X26.723 Y110.404
G1 X26.391 Y110.113
G1 X26.225 Y110.03
G1 X25.768 Y109.656
G1 X25.726 Y109.656
G1 X25.643 Y109.573
G1 X25.477 Y109.49
G1 X25.352 Y109.365
G1 X25.227 Y109.323
G1 X25.144 Y109.24
G1 X25.103 Y109.24
G1 X25.019 Y109.157
G1 X24.729 Y108.991
G0 Z5
; --- FIX X Backlash ---
G0 X26.029 Y108.991 F1200
; --- FIX Y Backlash ---
G0 X26.029 Y110.291 F1200
G0 X52.543 Y113.74
G1 Z0 F1600.0
; --- FIX X Backlash ---
G0 X51.243 Y113.74 F1200
G1 X50.994 Y114.197
G1 X50.744 Y114.239
G1 X50.703 Y114.281
G1 X50.578 Y114.281
G1 X50.536 Y114.322
G1 X50.412 Y114.322
G1 X50.37 Y114.364
G1 X50.245 Y114.364
G1 X50.204 Y114.405
G1 X49.788 Y114.447
G1 X49.747 Y114.488
G1 X49.331 Y114.488
G1 X49.29 Y114.53
G1 X49.04 Y114.53
G1 X48.999 Y114.571
G1 X48.749 Y114.571
G1 X48.708 Y114.613
G1 X48.043 Y114.613
G1 X48.001 Y114.655
G1 X47.544 Y114.655
G1 X47.503 Y114.696
G1 X46.838 Y114.696
G1 X46.796 Y114.738
G1 X45.134 Y114.738
G1 X45.092 Y114.779
G1 X44.344 Y114.779
G1 X44.303 Y114.738
G1 X43.056 Y114.738
G1 X43.014 Y114.696
G1 X42.599 Y114.696
G1 X42.557 Y114.655
G1 X41.975 Y114.655
G1 X41.934 Y114.613
G1 X41.518 Y114.613
G1 X41.477 Y114.571
G1 X40.895 Y114.53
G1 X40.853 Y114.488
G1 X40.355 Y114.447
G1 X40.313 Y114.405
G1 X40.105 Y114.405
G1 X40.064 Y114.364
G1 X39.773 Y114.364
G1 X39.731 Y114.322
G1 X39.274 Y114.281
G1 X39.232 Y114.239
G1 X39.066 Y114.239
G1 X39.025 Y114.197
G1 X38.9 Y114.197
G1 X38.858 Y114.156
G1 X38.734 Y114.156
G1 X38.692 Y114.114
G1 X38.526 Y114.114
G1 X38.484 Y114.073
G1 X38.36 Y114.073
G1 X38.318 Y114.031
G1 X38.152 Y114.031
G1 X38.11 Y113.99
G1 X37.819 Y113.948
G1 X37.778 Y113.906
G1 X37.695 Y113.906
G1 X37.653 Y113.865
G1 X37.57 Y113.865
G1 X37.529 Y113.823
G1 X37.445 Y113.823
G1 X37.404 Y113.782
G1 X37.321 Y113.782
G1 X37.279 Y113.74
; --- FIX Y Backlash ---
G0 X37.279 Y112.44 F1200
G1 X36.947 Y112.357
G1 X36.739 Y112.232
G0 Z5
; --- FIX Y Backlash ---
G0 X36.739 Y113.532 F1200
G0 X28.801 Y113.699
G1 Z0 F1600.0
G1 X28.095 Y114.405
G1 X28.053 Y114.405
G1 X27.887 Y114.571
G1 X27.845 Y114.571
G1 X27.721 Y114.696
G1 X27.679 Y114.696
G1 X26.89 Y115.319
G1 X26.723 Y115.403
G1 X26.1 Y115.901
G1 X26.058 Y115.901
G1 X25.352 Y116.4
G1 X25.227 Y116.442
G1 X25.144 Y116.525
G1 X24.812 Y116.691
G1 X24.729 Y116.774
G1 X24.645 Y116.774
G0 Z5
; --- FIX X Backlash ---
G0 X25.945 Y116.774 F1200
; --- FIX Y Backlash ---
G0 X25.945 Y115.474 F1200
G0 X53.042 Y112.44
G1 Z0 F1600.0
; --- FIX X Backlash ---
G0 X51.742 Y112.44 F1200
G1 X51.284 Y112.44
G0 Z5
G0 X29.092 Y112.399
G1 Z0 F1600.0
G1 X28.801 Y112.399
G0 Z5
; --- FIX X Backlash ---
G0 X30.101 Y112.399 F1200
G0 X33.925 Y109.032
G1 Z0 F1600.0
; --- FIX X Backlash ---
G0 X32.625 Y109.032 F1200
; --- FIX Y Backlash ---
G0 X32.625 Y110.332 F1200
G1 X31.045 Y111.912
G1 X31.004 Y111.912
G1 X30.588 Y112.327
G1 X30.547 Y112.327
G1 X30.214 Y112.66
G1 X30.173 Y112.66
G1 X29.84 Y112.992
G1 X29.799 Y112.992
G1 X29.134 Y113.657
G0 Z5
; --- FIX X Backlash ---
G0 X30.434 Y113.657 F1200
; --- FIX Y Backlash ---
G0 X30.434 Y112.357 F1200
G0 X60.522 Y110.903
G1 Z0 F1600.0
G1 X60.564 Y110.944
G1 X60.688 Y110.944
G0 Z5
; --- FIX X Backlash ---
G0 X59.388 Y110.944 F1200
G0 X0 Y0
M30
%

; Return to 2,0 wash and park
G1 Z10 F1000;        ; Raise brush
G0 X5 Y5 F1200;     ; Rapid move to clean
G1 Z-1 F800;         ; Lower brush
G1 X10 Y12 Z8 F1200;     ; Move
G1 Z-1 F800;         ; Lower
G1 X25 Y14 Z6 F800;     ; Move
G0 X5 Y5 F1200;     ; Rapid
G1 Z-1 F800;         ; Lower
G1 X15 Y12 Z8 F1200;     ; Move
G1 Z-1 F800;         ; Lower
G1 X25 Y14 Z6 F800;     ; Move
G1 Z10 F800;         ; Maintain
G0 X20 Y130 Z10 F500;; Move to park
M2;                 ; End program
