
G0 Z10 F500;      ; Move to clearance level
; G0 X-10 Y-10 F1200; Homing
; G0 X-5 Y-5 F1200; go in
; G10 P0 L20 X0 Y0; set to zero
G1 F1200;           ; Set feed rate
G90 ; Force absolute mode
;LightBurn 1.6.04
;Custom GCode device profile, absolute coords
;Bounds: X9.04 Y33.42 to X56.96 Y88.44
G00 G17 G40 G21 G54
M3
G1 Z10 F1000

; Color picking sequence
G1 Z10 F1000;         ; Raise brush
G0 X41 Y5 F1200;    ; Rapid move to color 1
G1 Z10 F1000;         ; Raise brush
G0 X41 Y5 F1200;    ; Rapid move to color 1
G1 Z0 F1000;         ; Lower into color
G1 X40.102 Y7.295 Z0 S800 F1200
G1 X40.026 Y7.642 Z0 F1200
G1 X40 Y8 Z0 F1200
G1 X40.026 Y8.358 Z0 F1200
G1 X40.102 Y8.705 Z0 F1200
G1 X40.225 Y9.041 Z0 F1200
G1 X40.393 Y9.362 Z0 F1200
G1 X40.603 Y9.668 Z0 F1200
G1 X40.854 Y9.957 Z0 F1200
G1 X41.142 Y10.226 Z0 F1200
G1 X41.464 Y10.475 Z0 F1200
G1 X41.82 Y10.701 Z0 F1200
G1 X42.204 Y10.902 Z0 F1200
G1 X42.617 Y11.078 Z0 F1200
G1 X43.054 Y11.225 Z0 F1200
G1 X43.513 Y11.343 Z0 F1200
G1 X43.992 Y11.429 Z0 F1200
G1 X44.489 Y11.482 Z0 F1200
G1 X45 Y11.5 Z0 F1200
G1 X45.511 Y11.482 Z0 F1200
G1 X46.008 Y11.429 Z0 F1200
G1 X46.487 Y11.343 Z0 F1200
G1 X46.946 Y11.225 Z0 F1200
G1 X47.383 Y11.078 Z0 F1200
G1 X47.796 Y10.902 Z0 F1200
G1 X48.18 Y10.701 Z0 F1200
G1 X48.536 Y10.475 Z0 F1200
G1 X48.858 Y10.226 Z0 F1200
G1 X49.146 Y9.957 Z0 F1200
G1 X49.397 Y9.668 Z0 F1200
G1 X49.607 Y9.362 Z0 F1200
G1 X49.775 Y9.041 Z0 F1200
G1 X49.898 Y8.705 Z0 F1200
G1 X49.974 Y8.358 Z0 F1200
G1 X50 Y8 Z0 F1200
G1 X49.974 Y7.642 Z0 F1200
G1 X49.898 Y7.295 Z0 F1200
G1 X49.775 Y6.959 Z0 F1200
G1 X49.607 Y6.638 Z0 F1200
G1 X49.397 Y6.332 Z0 F1200
G1 X49.146 Y6.043 Z0 F1200
G1 X48.858 Y5.774 Z0 F1200
G1 X48.536 Y5.525 Z0 F1200
G1 X48.18 Y5.299 Z0 F1200
G1 X47.796 Y5.098 Z0 F1200
G1 X47.383 Y4.922 Z0 F1200
G1 X46.946 Y4.775 Z0 F1200
G1 X46.487 Y4.657 Z0 F1200
G1 X46.008 Y4.571 Z0 F1200
G1 X45.511 Y4.518 Z0 F1200
G1 X45 Y4.5 Z0 F1200
G1 X44.489 Y4.518 Z0 F1200
G1 X43.992 Y4.571 Z0 F1200
G1 X43.513 Y4.657 Z0 F1200
G1 X43.054 Y4.775 Z0 F1200
G1 X42.617 Y4.922 Z0 F1200
G1 X42.204 Y5.098 Z0 F1200
G1 X41.82 Y5.299 Z0 F1200
G1 X41.464 Y5.525 Z0 F1200
G1 X41.142 Y5.774 Z0 F1200
G1 X40.854 Y6.043 Z0 F1200
G1 X40.603 Y6.332 Z0 F1200
G1 X40.393 Y6.638 Z0 F1200
G1 X40.225 Y6.959 Z0 F1200
G1 Z7 F800;         ; Raise from color
G1 X34 Y8 Z1 F1200;     ; Movement in paint
G1 X24 Y18 Z8 F500;     ; Move in paint
G1 F1200;           ; Set feed rate
G0 Z2 F1000 ; Safety Lift
;Scan @ 1500 mm/min, 90% power

M8
G0 Z3.5 F1000
G0 X23.719 Y44.344 Z3.5
G1 Z0 F1000
;Layer C1
G0 Z2 F500 ; Lift S=0
G1 X25.469 S0 F1600
G0 Z0 F500 ; Drop S>0
G1 X25.821 S900 F1600
G0 Z2 F500 ; Lift S=0
G1 X40.204 S0 F1600
G0 Z0 F500 ; Drop S>0
G1 X40.47 S900 F1600
G0 Z2 F500 ; Lift S=0
G1 X42.22 S0 F1600
G1 X43.313 Y45.244 Z2 F1600
; --- FIX X Backlash ---
G0 X42.013 Y45.244 F1200
G1 X40.263 Z2 F1600
G0 Z0 F500 ; Drop S>0
G1 X38.327 S900 F1600
G0 Z2 F500 ; Lift S=0
G1 X25.098 S0 F1600
G0 Z0 F500 ; Drop S>0
G1 X23.13 S900 F1600
G0 Z2 F500 ; Lift S=0
G1 X21.38 S0 F1600
G1 X19.585 Y46.144 Z2 F1600
; --- FIX X Backlash ---
G0 X20.885 Y46.144 F1200
G1 X22.635 Z2 F1600
G0 Z0 F500 ; Drop S>0
G1 X26.985 S900 F1600
G0 Z2 F500 ; Lift S=0
G1 X39.029 S0 F1600
G0 Z0 F500 ; Drop S>0
G1 X43.364 S900 F1600
G0 Z2 F500 ; Lift S=0
G1 X45.114 S0 F1600
G1 X45.304 Y47.044 Z2 F1600
; --- FIX X Backlash ---
G0 X44.004 Y47.044 F1200
G1 X42.254 Z2 F1600
G0 Z0 F500 ; Drop S>0
G1 X37.132 S900 F1600
G0 Z2 F500 ; Lift S=0
G1 X26.276 S0 F1600
G0 Z0 F500 ; Drop S>0
G1 X21.156 S900 F1600
G0 Z2 F500 ; Lift S=0
G1 X19.406 S0 F1600
; --- FIX X Backlash ---
G0 X20.706 Y47.044 F1200
G1 X21.21 Y47.944 Z2 F1600
G1 X22.96 Z2 F1600
G0 Z0 F500 ; Drop S>0
G1 X28.173 S900 F1600
G0 Z2 F500 ; Lift S=0
G1 X37.824 S0 F1600
G0 Z0 F500 ; Drop S>0
G1 X43.043 S900 F1600
G0 Z2 F500 ; Lift S=0
G1 X44.793 S0 F1600
; --- FIX X Backlash ---
G0 X43.493 Y47.944 F1200
G1 X42.988 Y48.844 Z2 F1600
G1 X41.238 Z2 F1600
G0 Z0 F500 ; Drop S>0
G1 X35.905 S900 F1600
G0 Z2 F500 ; Lift S=0
G1 X27.496 S0 F1600
G0 Z0 F500 ; Drop S>0
G1 X22.151 S900 F1600
G0 Z2 F500 ; Lift S=0
G1 X20.401 S0 F1600
; --- FIX X Backlash ---
G0 X21.701 Y48.844 F1200
G1 X22.189 Y49.744 Z2 F1600
G1 X23.939 Z2 F1600
G0 Z0 F500 ; Drop S>0
G1 X29.43 S900 F1600
G0 Z2 F500 ; Lift S=0
G1 X36.563 S0 F1600
G0 Z0 F500 ; Drop S>0
G1 X42.052 S900 F1600
G0 Z2 F500 ; Lift S=0
G1 X43.802 S0 F1600
; --- FIX X Backlash ---
G0 X42.502 Y49.744 F1200
G1 X42.041 Y50.644 Z2 F1600
G1 X40.291 Z2 F1600
G0 Z0 F500 ; Drop S>0
G1 X34.788 S900 F1600
G0 Z2 F500 ; Lift S=0
G1 X28.539 S0 F1600
G0 Z0 F500 ; Drop S>0
G1 X23.111 S900 F1600
G0 Z2 F500 ; Lift S=0
G1 X21.361 S0 F1600
; --- FIX X Backlash ---
G0 X22.661 Y50.644 F1200
G1 X23.096 Y51.544 Z2 F1600
G1 X24.846 Z2 F1600
G0 Z0 F500 ; Drop S>0
G1 X28.408 S900 F1600
G0 Z2 F500 ; Lift S=0
G1 X30.477 S0 F1600
G0 Z0 F500 ; Drop S>0
G1 X31.115 S900 F1600
G0 Z2 F500 ; Lift S=0
G1 X34.91 S0 F1600
G0 Z0 F500 ; Drop S>0
G1 X35.503 S900 F1600
G0 Z2 F500 ; Lift S=0
G1 X37.526 S0 F1600
G0 Z0 F500 ; Drop S>0
G1 X41.147 S900 F1600
G0 Z2 F500 ; Lift S=0
G1 X42.897 S0 F1600
; --- FIX X Backlash ---
G0 X41.597 Y51.544 F1200
G1 X41.174 Y52.444 Z2 F1600
G1 X39.424 Z2 F1600
G0 Z0 F500 ; Drop S>0
G1 X37.704 S900 F1600
G0 Z2 F500 ; Lift S=0
G1 X35.693 S0 F1600
G0 Z0 F500 ; Drop S>0
G1 X32.662 S900 F1600
G0 Z2 F500 ; Lift S=0
G1 X30.677 S0 F1600
G0 Z0 F500 ; Drop S>0
G1 X27.674 S900 F1600
G0 Z2 F500 ; Lift S=0
G1 X25.625 S0 F1600
G0 Z0 F500 ; Drop S>0
G1 X23.975 S900 F1600
G0 Z2 F500 ; Lift S=0
G1 X22.225 S0 F1600
; --- FIX X Backlash ---
G0 X23.525 Y52.444 F1200
G1 X25.736 Y53.344 Z2 F1600
G1 X27.486 Z2 F1600
G0 Z0 F500 ; Drop S>0
G1 X32.774 S900 F1600
G0 Z2 F500 ; Lift S=0
G1 X34.054 S0 F1600
G0 Z0 F500 ; Drop S>0
G1 X38.477 S900 F1600
G0 Z2 F500 ; Lift S=0
G1 X40.227 S0 F1600
G1 X41.644 Y54.244 Z2 F1600
; --- FIX X Backlash ---
G0 X40.344 Y54.244 F1200
G1 X38.594 Z2 F1600
G0 Z0 F500 ; Drop S>0
G1 X33.412 S900 F1600
G0 Z2 F500 ; Lift S=0
G1 X32.193 S0 F1600
G0 Z0 F500 ; Drop S>0
G1 X24.761 S900 F1600
G0 Z2 F500 ; Lift S=0

; Color picking sequence
G1 Z10 F1000;         ; Raise brush
G0 X41 Y5 F1200;    ; Rapid move to color 1
G1 Z10 F1000;         ; Raise brush
G0 X41 Y5 F1200;    ; Rapid move to color 1
G1 Z0 F1000;         ; Lower into color
G1 X40.102 Y7.295 Z0 S800 F1200
G1 X40.026 Y7.642 Z0 F1200
G1 X40 Y8 Z0 F1200
G1 X40.026 Y8.358 Z0 F1200
G1 X40.102 Y8.705 Z0 F1200
G1 X40.225 Y9.041 Z0 F1200
G1 X40.393 Y9.362 Z0 F1200
G1 X40.603 Y9.668 Z0 F1200
G1 X40.854 Y9.957 Z0 F1200
G1 X41.142 Y10.226 Z0 F1200
G1 X41.464 Y10.475 Z0 F1200
G1 X41.82 Y10.701 Z0 F1200
G1 X42.204 Y10.902 Z0 F1200
G1 X42.617 Y11.078 Z0 F1200
G1 X43.054 Y11.225 Z0 F1200
G1 X43.513 Y11.343 Z0 F1200
G1 X43.992 Y11.429 Z0 F1200
G1 X44.489 Y11.482 Z0 F1200
G1 X45 Y11.5 Z0 F1200
G1 X45.511 Y11.482 Z0 F1200
G1 X46.008 Y11.429 Z0 F1200
G1 X46.487 Y11.343 Z0 F1200
G1 X46.946 Y11.225 Z0 F1200
G1 X47.383 Y11.078 Z0 F1200
G1 X47.796 Y10.902 Z0 F1200
G1 X48.18 Y10.701 Z0 F1200
G1 X48.536 Y10.475 Z0 F1200
G1 X48.858 Y10.226 Z0 F1200
G1 X49.146 Y9.957 Z0 F1200
G1 X49.397 Y9.668 Z0 F1200
G1 X49.607 Y9.362 Z0 F1200
G1 X49.775 Y9.041 Z0 F1200
G1 X49.898 Y8.705 Z0 F1200
G1 X49.974 Y8.358 Z0 F1200
G1 X50 Y8 Z0 F1200
G1 X49.974 Y7.642 Z0 F1200
G1 X49.898 Y7.295 Z0 F1200
G1 X49.775 Y6.959 Z0 F1200
G1 X49.607 Y6.638 Z0 F1200
G1 X49.397 Y6.332 Z0 F1200
G1 X49.146 Y6.043 Z0 F1200
G1 X48.858 Y5.774 Z0 F1200
G1 X48.536 Y5.525 Z0 F1200
G1 X48.18 Y5.299 Z0 F1200
G1 X47.796 Y5.098 Z0 F1200
G1 X47.383 Y4.922 Z0 F1200
G1 X46.946 Y4.775 Z0 F1200
G1 X46.487 Y4.657 Z0 F1200
G1 X46.008 Y4.571 Z0 F1200
G1 X45.511 Y4.518 Z0 F1200
G1 X45 Y4.5 Z0 F1200
G1 X44.489 Y4.518 Z0 F1200
G1 X43.992 Y4.571 Z0 F1200
G1 X43.513 Y4.657 Z0 F1200
G1 X43.054 Y4.775 Z0 F1200
G1 X42.617 Y4.922 Z0 F1200
G1 X42.204 Y5.098 Z0 F1200
G1 X41.82 Y5.299 Z0 F1200
G1 X41.464 Y5.525 Z0 F1200
G1 X41.142 Y5.774 Z0 F1200
G1 X40.854 Y6.043 Z0 F1200
G1 X40.603 Y6.332 Z0 F1200
G1 X40.393 Y6.638 Z0 F1200
G1 X40.225 Y6.959 Z0 F1200
G1 Z7 F800;         ; Raise from color
G1 X34 Y8 Z1 F1200;     ; Movement in paint
G1 X24 Y18 Z8 F500;     ; Move in paint
G1 F1200;           ; Set feed rate
G0 Z2 F1000 ; Safety Lift
G0 X24.761 Y54.244 F1200 ; Return to pos
G1 X23.011 S0 F1600
; --- FIX X Backlash ---
G0 X24.311 Y54.244 F1200
G1 X24.536 Y55.144 Z2 F1600
G1 X26.286 Z2 F1600
G0 Z0 F500 ; Drop S>0
G1 X34.133 S900 F1600
G0 Z2 F500 ; Lift S=0
G1 X35.324 S0 F1600
G0 Z0 F500 ; Drop S>0
G1 X39.732 S900 F1600
G0 Z2 F500 ; Lift S=0
G1 X41.482 S0 F1600
; --- FIX X Backlash ---
G0 X40.182 Y55.144 F1200
G1 X39.879 Y56.044 Z2 F1600
G1 X38.129 Z2 F1600
G0 Z0 F500 ; Drop S>0
G1 X34.597 S900 F1600
G0 Z2 F500 ; Lift S=0
G1 X33.406 S0 F1600
G0 Z0 F500 ; Drop S>0
G1 X25.275 S900 F1600
G0 Z2 F500 ; Lift S=0
G1 X23.525 S0 F1600
; --- FIX X Backlash ---
G0 X24.825 Y56.044 F1200
G1 X25.147 Y56.944 Z2 F1600
G1 X26.897 Z2 F1600
G0 Z0 F500 ; Drop S>0
G1 X35.236 S900 F1600
G0 Z2 F500 ; Lift S=0
G1 X36.393 S0 F1600
G0 Z0 F500 ; Drop S>0
G1 X39.102 S900 F1600
G0 Z2 F500 ; Lift S=0
G1 X40.852 S0 F1600
; --- FIX X Backlash ---
G0 X39.552 Y56.944 F1200
G1 X39.197 Y57.844 Z2 F1600
G1 X37.447 Z2 F1600
G0 Z0 F500 ; Drop S>0
G1 X35.568 S900 F1600
G0 Z2 F500 ; Lift S=0
G1 X34.429 S0 F1600
G0 Z0 F500 ; Drop S>0
G1 X25.956 S900 F1600
G0 Z2 F500 ; Lift S=0
G1 X24.206 S0 F1600
; --- FIX X Backlash ---
G0 X25.506 Y57.844 F1200
G1 X25.92 Y58.744 Z2 F1600
G1 X27.67 Z2 F1600
G0 Z0 F500 ; Drop S>0
G1 X36.193 S900 F1600
G0 Z2 F500 ; Lift S=0
G1 X37.334 S0 F1600
G0 Z0 F500 ; Drop S>0
G1 X38.38 S900 F1600
G0 Z2 F500 ; Lift S=0
G1 X40.13 S0 F1600
; --- FIX X Backlash ---
G0 X38.83 Y58.744 F1200
G1 X38.464 Y59.644 Z2 F1600
G1 X36.714 Z2 F1600
G0 Z0 F500 ; Drop S>0
G1 X36.499 S900 F1600
G0 Z2 F500 ; Lift S=0
G1 X35.338 S0 F1600
G0 Z0 F500 ; Drop S>0
G1 X26.841 S900 F1600
G0 Z2 F500 ; Lift S=0
G1 X25.091 S0 F1600
; --- FIX X Backlash ---
G0 X26.391 Y59.644 F1200
G1 X26.908 Y60.544 Z2 F1600
G1 X28.658 Z2 F1600
G0 Z0 F500 ; Drop S>0
G1 X37.068 S900 F1600
G0 Z2 F500 ; Lift S=0
G1 X38.818 S0 F1600
G1 X39.237 Y61.444 Z2 F1600
; --- FIX X Backlash ---
G0 X37.937 Y61.444 F1200
G1 X36.187 Z2 F1600
G0 Z0 F500 ; Drop S>0
G1 X27.921 S900 F1600
G0 Z2 F500 ; Lift S=0
G1 X26.171 S0 F1600
G1 X25.079 Y62.344 Z2 F1600
; --- FIX X Backlash ---
G0 X26.379 Y62.344 F1200
G1 X28.129 Z2 F1600
G0 Z0 F500 ; Drop S>0
G1 X28.623 S900 F1600
G0 Z2 F500 ; Lift S=0
G1 X29.814 S0 F1600
G0 Z0 F500 ; Drop S>0
G1 X37.897 S900 F1600
G0 Z2 F500 ; Lift S=0
G1 X39.647 S0 F1600
G1 X40.048 Y63.244 Z2 F1600
; --- FIX X Backlash ---
G0 X38.748 Y63.244 F1200
G1 X36.998 Z2 F1600
G0 Z0 F500 ; Drop S>0
G1 X29.13 S900 F1600
G0 Z2 F500 ; Lift S=0
G1 X27.89 S0 F1600
G0 Z0 F500 ; Drop S>0
G1 X26.414 S900 F1600
G0 Z2 F500 ; Lift S=0
G1 X24.664 S0 F1600
G1 X24.26 Y64.144 Z2 F1600
; --- FIX X Backlash ---
G0 X25.56 Y64.144 F1200
G1 X27.31 Z2 F1600
G0 Z0 F500 ; Drop S>0
G1 X29.8 S900 F1600
G0 Z2 F500 ; Lift S=0

; Color picking sequence
G1 Z10 F1000;         ; Raise brush
G0 X41 Y5 F1200;    ; Rapid move to color 1
G1 Z10 F1000;         ; Raise brush
G0 X41 Y5 F1200;    ; Rapid move to color 1
G1 Z0 F1000;         ; Lower into color
G1 X40.102 Y7.295 Z0 S800 F1200
G1 X40.026 Y7.642 Z0 F1200
G1 X40 Y8 Z0 F1200
G1 X40.026 Y8.358 Z0 F1200
G1 X40.102 Y8.705 Z0 F1200
G1 X40.225 Y9.041 Z0 F1200
G1 X40.393 Y9.362 Z0 F1200
G1 X40.603 Y9.668 Z0 F1200
G1 X40.854 Y9.957 Z0 F1200
G1 X41.142 Y10.226 Z0 F1200
G1 X41.464 Y10.475 Z0 F1200
G1 X41.82 Y10.701 Z0 F1200
G1 X42.204 Y10.902 Z0 F1200
G1 X42.617 Y11.078 Z0 F1200
G1 X43.054 Y11.225 Z0 F1200
G1 X43.513 Y11.343 Z0 F1200
G1 X43.992 Y11.429 Z0 F1200
G1 X44.489 Y11.482 Z0 F1200
G1 X45 Y11.5 Z0 F1200
G1 X45.511 Y11.482 Z0 F1200
G1 X46.008 Y11.429 Z0 F1200
G1 X46.487 Y11.343 Z0 F1200
G1 X46.946 Y11.225 Z0 F1200
G1 X47.383 Y11.078 Z0 F1200
G1 X47.796 Y10.902 Z0 F1200
G1 X48.18 Y10.701 Z0 F1200
G1 X48.536 Y10.475 Z0 F1200
G1 X48.858 Y10.226 Z0 F1200
G1 X49.146 Y9.957 Z0 F1200
G1 X49.397 Y9.668 Z0 F1200
G1 X49.607 Y9.362 Z0 F1200
G1 X49.775 Y9.041 Z0 F1200
G1 X49.898 Y8.705 Z0 F1200
G1 X49.974 Y8.358 Z0 F1200
G1 X50 Y8 Z0 F1200
G1 X49.974 Y7.642 Z0 F1200
G1 X49.898 Y7.295 Z0 F1200
G1 X49.775 Y6.959 Z0 F1200
G1 X49.607 Y6.638 Z0 F1200
G1 X49.397 Y6.332 Z0 F1200
G1 X49.146 Y6.043 Z0 F1200
G1 X48.858 Y5.774 Z0 F1200
G1 X48.536 Y5.525 Z0 F1200
G1 X48.18 Y5.299 Z0 F1200
G1 X47.796 Y5.098 Z0 F1200
G1 X47.383 Y4.922 Z0 F1200
G1 X46.946 Y4.775 Z0 F1200
G1 X46.487 Y4.657 Z0 F1200
G1 X46.008 Y4.571 Z0 F1200
G1 X45.511 Y4.518 Z0 F1200
G1 X45 Y4.5 Z0 F1200
G1 X44.489 Y4.518 Z0 F1200
G1 X43.992 Y4.571 Z0 F1200
G1 X43.513 Y4.657 Z0 F1200
G1 X43.054 Y4.775 Z0 F1200
G1 X42.617 Y4.922 Z0 F1200
G1 X42.204 Y5.098 Z0 F1200
G1 X41.82 Y5.299 Z0 F1200
G1 X41.464 Y5.525 Z0 F1200
G1 X41.142 Y5.774 Z0 F1200
G1 X40.854 Y6.043 Z0 F1200
G1 X40.603 Y6.332 Z0 F1200
G1 X40.393 Y6.638 Z0 F1200
G1 X40.225 Y6.959 Z0 F1200
G1 Z7 F800;         ; Raise from color
G1 X34 Y8 Z1 F1200;     ; Movement in paint
G1 X24 Y18 Z8 F500;     ; Move in paint
G1 F1200;           ; Set feed rate
G0 Z2 F1000 ; Safety Lift
G0 X29.8 Y64.144 F1200 ; Return to pos
G1 X31.061 S0 F1600
G0 Z0 F500 ; Drop S>0
G1 X38.697 S900 F1600
G0 Z2 F500 ; Lift S=0
G1 X40.447 S0 F1600
G1 X40.846 Y65.044 Z2 F1600
; --- FIX X Backlash ---
G0 X39.546 Y65.044 F1200
G1 X37.796 Z2 F1600
G0 Z0 F500 ; Drop S>0
G1 X30.392 S900 F1600
G0 Z2 F500 ; Lift S=0
G1 X29.126 S0 F1600
G0 Z0 F500 ; Drop S>0
G1 X25.611 S900 F1600
G0 Z2 F500 ; Lift S=0
G1 X23.861 S0 F1600
G1 X23.467 Y65.944 Z2 F1600
; --- FIX X Backlash ---
G0 X24.767 Y65.944 F1200
G1 X26.517 Z2 F1600
G0 Z0 F500 ; Drop S>0
G1 X31.059 S900 F1600
G0 Z2 F500 ; Lift S=0
G1 X32.323 S0 F1600
G0 Z0 F500 ; Drop S>0
G1 X39.496 S900 F1600
G0 Z2 F500 ; Lift S=0
G1 X41.246 S0 F1600
G1 X41.645 Y66.844 Z2 F1600
; --- FIX X Backlash ---
G0 X40.345 Y66.844 F1200
G1 X38.595 Z2 F1600
G0 Z0 F500 ; Drop S>0
G1 X31.655 S900 F1600
G0 Z2 F500 ; Lift S=0
G1 X30.391 S0 F1600
G0 Z0 F500 ; Drop S>0
G1 X24.824 S900 F1600
G0 Z2 F500 ; Lift S=0
G1 X23.074 S0 F1600
G1 X22.674 Y67.744 Z2 F1600
; --- FIX X Backlash ---
G0 X23.974 Y67.744 F1200
G1 X25.724 Z2 F1600
G0 Z0 F500 ; Drop S>0
G1 X32.266 S900 F1600
G0 Z2 F500 ; Lift S=0
G1 X33.593 S0 F1600
G0 Z0 F500 ; Drop S>0
G1 X40.29 S900 F1600
G0 Z2 F500 ; Lift S=0
G1 X42.04 S0 F1600
G1 X42.435 Y68.644 Z2 F1600
; --- FIX X Backlash ---
G0 X41.135 Y68.644 F1200
G1 X39.385 Z2 F1600
G0 Z0 F500 ; Drop S>0
G1 X32.932 S900 F1600
G0 Z2 F500 ; Lift S=0
G1 X30.422 S0 F1600
G0 Z0 F500 ; Drop S>0
G1 X24.027 S900 F1600
G0 Z2 F500 ; Lift S=0
G1 X22.277 S0 F1600
G1 X21.881 Y69.544 Z2 F1600
; --- FIX X Backlash ---
G0 X23.181 Y69.544 F1200
G1 X24.931 Z2 F1600
G0 Z0 F500 ; Drop S>0
G1 X31.07 S900 F1600
G0 Z2 F500 ; Lift S=0
G1 X34.879 S0 F1600
G0 Z0 F500 ; Drop S>0
G1 X41.08 S900 F1600
G0 Z2 F500 ; Lift S=0
G1 X42.83 S0 F1600
G1 X43.224 Y70.444 Z2 F1600
; --- FIX X Backlash ---
G0 X41.924 Y70.444 F1200
G1 X40.174 Z2 F1600
G0 Z0 F500 ; Drop S>0
G1 X34.236 S900 F1600
G0 Z2 F500 ; Lift S=0
G1 X29.13 S0 F1600
G0 Z0 F500 ; Drop S>0
G1 X23.234 S900 F1600
G0 Z2 F500 ; Lift S=0
G1 X21.484 S0 F1600
G1 X21.085 Y71.344 Z2 F1600
; --- FIX X Backlash ---
G0 X22.385 Y71.344 F1200
G1 X24.135 Z2 F1600
G0 Z0 F500 ; Drop S>0
G1 X29.791 S900 F1600
G0 Z2 F500 ; Lift S=0
G1 X36.181 S0 F1600
G0 Z0 F500 ; Drop S>0
G1 X41.869 S900 F1600
G0 Z2 F500 ; Lift S=0

; Color picking sequence
G1 Z10 F1000;         ; Raise brush
G0 X41 Y5 F1200;    ; Rapid move to color 1
G1 Z10 F1000;         ; Raise brush
G0 X41 Y5 F1200;    ; Rapid move to color 1
G1 Z0 F1000;         ; Lower into color
G1 X40.102 Y7.295 Z0 S800 F1200
G1 X40.026 Y7.642 Z0 F1200
G1 X40 Y8 Z0 F1200
G1 X40.026 Y8.358 Z0 F1200
G1 X40.102 Y8.705 Z0 F1200
G1 X40.225 Y9.041 Z0 F1200
G1 X40.393 Y9.362 Z0 F1200
G1 X40.603 Y9.668 Z0 F1200
G1 X40.854 Y9.957 Z0 F1200
G1 X41.142 Y10.226 Z0 F1200
G1 X41.464 Y10.475 Z0 F1200
G1 X41.82 Y10.701 Z0 F1200
G1 X42.204 Y10.902 Z0 F1200
G1 X42.617 Y11.078 Z0 F1200
G1 X43.054 Y11.225 Z0 F1200
G1 X43.513 Y11.343 Z0 F1200
G1 X43.992 Y11.429 Z0 F1200
G1 X44.489 Y11.482 Z0 F1200
G1 X45 Y11.5 Z0 F1200
G1 X45.511 Y11.482 Z0 F1200
G1 X46.008 Y11.429 Z0 F1200
G1 X46.487 Y11.343 Z0 F1200
G1 X46.946 Y11.225 Z0 F1200
G1 X47.383 Y11.078 Z0 F1200
G1 X47.796 Y10.902 Z0 F1200
G1 X48.18 Y10.701 Z0 F1200
G1 X48.536 Y10.475 Z0 F1200
G1 X48.858 Y10.226 Z0 F1200
G1 X49.146 Y9.957 Z0 F1200
G1 X49.397 Y9.668 Z0 F1200
G1 X49.607 Y9.362 Z0 F1200
G1 X49.775 Y9.041 Z0 F1200
G1 X49.898 Y8.705 Z0 F1200
G1 X49.974 Y8.358 Z0 F1200
G1 X50 Y8 Z0 F1200
G1 X49.974 Y7.642 Z0 F1200
G1 X49.898 Y7.295 Z0 F1200
G1 X49.775 Y6.959 Z0 F1200
G1 X49.607 Y6.638 Z0 F1200
G1 X49.397 Y6.332 Z0 F1200
G1 X49.146 Y6.043 Z0 F1200
G1 X48.858 Y5.774 Z0 F1200
G1 X48.536 Y5.525 Z0 F1200
G1 X48.18 Y5.299 Z0 F1200
G1 X47.796 Y5.098 Z0 F1200
G1 X47.383 Y4.922 Z0 F1200
G1 X46.946 Y4.775 Z0 F1200
G1 X46.487 Y4.657 Z0 F1200
G1 X46.008 Y4.571 Z0 F1200
G1 X45.511 Y4.518 Z0 F1200
G1 X45 Y4.5 Z0 F1200
G1 X44.489 Y4.518 Z0 F1200
G1 X43.992 Y4.571 Z0 F1200
G1 X43.513 Y4.657 Z0 F1200
G1 X43.054 Y4.775 Z0 F1200
G1 X42.617 Y4.922 Z0 F1200
G1 X42.204 Y5.098 Z0 F1200
G1 X41.82 Y5.299 Z0 F1200
G1 X41.464 Y5.525 Z0 F1200
G1 X41.142 Y5.774 Z0 F1200
G1 X40.854 Y6.043 Z0 F1200
G1 X40.603 Y6.332 Z0 F1200
G1 X40.393 Y6.638 Z0 F1200
G1 X40.225 Y6.959 Z0 F1200
G1 Z7 F800;         ; Raise from color
G1 X34 Y8 Z1 F1200;     ; Movement in paint
G1 X24 Y18 Z8 F500;     ; Move in paint
G1 F1200;           ; Set feed rate
G0 Z2 F1000 ; Safety Lift
G0 X41.869 Y71.344 F1200 ; Return to pos
G1 X43.619 S0 F1600
G1 X44.013 Y72.244 Z2 F1600
; --- FIX X Backlash ---
G0 X42.713 Y72.244 F1200
G1 X40.963 Z2 F1600
G0 Z0 F500 ; Drop S>0
G1 X35.527 S900 F1600
G0 Z2 F500 ; Lift S=0
G1 X27.849 S0 F1600
G0 Z0 F500 ; Drop S>0
G1 X22.437 S900 F1600
G0 Z2 F500 ; Lift S=0
G1 X20.687 S0 F1600
G1 X20.29 Y73.144 Z2 F1600
; --- FIX X Backlash ---
G0 X21.59 Y73.144 F1200
G1 X23.34 Z2 F1600
G0 Z0 F500 ; Drop S>0
G1 X28.508 S900 F1600
G0 Z2 F500 ; Lift S=0
G1 X37.473 S0 F1600
G0 Z0 F500 ; Drop S>0
G1 X42.657 S900 F1600
G0 Z2 F500 ; Lift S=0
G1 X44.407 S0 F1600
G1 X44.801 Y74.044 Z2 F1600
; --- FIX X Backlash ---
G0 X43.501 Y74.044 F1200
G1 X41.751 Z2 F1600
G0 Z0 F500 ; Drop S>0
G1 X36.818 S900 F1600
G0 Z2 F500 ; Lift S=0
G1 X26.566 S0 F1600
G0 Z0 F500 ; Drop S>0
G1 X21.645 S900 F1600
G0 Z2 F500 ; Lift S=0
G1 X19.895 S0 F1600
G1 X19.502 Y74.944 Z2 F1600
; --- FIX X Backlash ---
G0 X20.802 Y74.944 F1200
G1 X22.552 Z2 F1600
G0 Z0 F500 ; Drop S>0
G1 X27.227 S900 F1600
G0 Z2 F500 ; Lift S=0
G1 X38.762 S0 F1600
G0 Z0 F500 ; Drop S>0
G1 X43.445 S900 F1600
G0 Z2 F500 ; Lift S=0
G1 X45.195 S0 F1600
G1 X45.589 Y75.844 Z2 F1600
; --- FIX X Backlash ---
G0 X44.289 Y75.844 F1200
G1 X42.539 Z2 F1600
G0 Z0 F500 ; Drop S>0
G1 X38.107 S900 F1600
G0 Z2 F500 ; Lift S=0
G1 X25.292 S0 F1600
G0 Z0 F500 ; Drop S>0
G1 X20.854 S900 F1600
G0 Z2 F500 ; Lift S=0
G1 X19.104 S0 F1600
G1 X18.705 Y76.744 Z2 F1600
; --- FIX X Backlash ---
G0 X20.005 Y76.744 F1200
G1 X21.755 Z2 F1600
G0 Z0 F500 ; Drop S>0
G1 X25.956 S900 F1600
G0 Z2 F500 ; Lift S=0
G1 X40.051 S0 F1600
G0 Z0 F500 ; Drop S>0
G1 X44.234 S900 F1600
G0 Z2 F500 ; Lift S=0
G1 X45.984 S0 F1600
G1 X46.378 Y77.644 Z2 F1600
; --- FIX X Backlash ---
G0 X45.078 Y77.644 F1200
G1 X43.328 Z2 F1600
G0 Z0 F500 ; Drop S>0
G1 X39.394 S900 F1600
G0 Z2 F500 ; Lift S=0
G1 X24.019 S0 F1600
G0 Z0 F500 ; Drop S>0
G1 X20.061 S900 F1600
G0 Z2 F500 ; Lift S=0
G1 X18.311 S0 F1600
G1 X17.919 Y78.544 Z2 F1600
; --- FIX X Backlash ---
G0 X19.219 Y78.544 F1200
G1 X20.969 Z2 F1600
G0 Z0 F500 ; Drop S>0
G1 X24.682 S900 F1600
G0 Z2 F500 ; Lift S=0
G1 X41.336 S0 F1600
G0 Z0 F500 ; Drop S>0
G1 X45.023 S900 F1600
G0 Z2 F500 ; Lift S=0
G1 X46.773 S0 F1600
G1 X47.169 Y79.444 Z2 F1600
; --- FIX X Backlash ---
G0 X45.869 Y79.444 F1200
G1 X44.119 Z2 F1600
G0 Z0 F500 ; Drop S>0
G1 X40.671 S900 F1600
G0 Z2 F500 ; Lift S=0
G1 X22.746 S0 F1600
G0 Z0 F500 ; Drop S>0
G1 X19.274 S900 F1600
G0 Z2 F500 ; Lift S=0
G1 X17.524 S0 F1600
G1 X17.137 Y80.344 Z2 F1600
; --- FIX X Backlash ---
G0 X18.437 Y80.344 F1200
G1 X20.187 Z2 F1600
G0 Z0 F500 ; Drop S>0
G1 X23.416 S900 F1600
G0 Z2 F500 ; Lift S=0
G1 X42.602 S0 F1600
G0 Z0 F500 ; Drop S>0
G1 X45.815 S900 F1600
G0 Z2 F500 ; Lift S=0
G1 X47.565 S0 F1600
G1 X47.956 Y81.244 Z2 F1600
; --- FIX X Backlash ---
G0 X46.656 Y81.244 F1200
G1 X44.906 Z2 F1600
G0 Z0 F500 ; Drop S>0
G1 X41.936 S900 F1600
G0 Z2 F500 ; Lift S=0
G1 X21.491 S0 F1600
G0 Z0 F500 ; Drop S>0
G1 X18.499 S900 F1600
G0 Z2 F500 ; Lift S=0
G1 X16.749 S0 F1600
G1 X16.366 Y82.144 Z2 F1600
; --- FIX X Backlash ---
G0 X17.666 Y82.144 F1200
G1 X19.416 Z2 F1600
G0 Z0 F500 ; Drop S>0
G1 X22.162 S900 F1600
G0 Z2 F500 ; Lift S=0
G1 X43.866 S0 F1600
G0 Z0 F500 ; Drop S>0
G1 X46.598 S900 F1600
G0 Z2 F500 ; Lift S=0
G1 X48.348 S0 F1600
G1 X48.733 Y83.044 Z2 F1600
; --- FIX X Backlash ---
G0 X47.433 Y83.044 F1200
G1 X45.683 Z2 F1600
G0 Z0 F500 ; Drop S>0
G1 X43.191 S900 F1600
G0 Z2 F500 ; Lift S=0

; Color picking sequence
G1 Z10 F1000;         ; Raise brush
G0 X41 Y5 F1200;    ; Rapid move to color 1
G1 Z10 F1000;         ; Raise brush
G0 X41 Y5 F1200;    ; Rapid move to color 1
G1 Z0 F1000;         ; Lower into color
G1 X40.102 Y7.295 Z0 S800 F1200
G1 X40.026 Y7.642 Z0 F1200
G1 X40 Y8 Z0 F1200
G1 X40.026 Y8.358 Z0 F1200
G1 X40.102 Y8.705 Z0 F1200
G1 X40.225 Y9.041 Z0 F1200
G1 X40.393 Y9.362 Z0 F1200
G1 X40.603 Y9.668 Z0 F1200
G1 X40.854 Y9.957 Z0 F1200
G1 X41.142 Y10.226 Z0 F1200
G1 X41.464 Y10.475 Z0 F1200
G1 X41.82 Y10.701 Z0 F1200
G1 X42.204 Y10.902 Z0 F1200
G1 X42.617 Y11.078 Z0 F1200
G1 X43.054 Y11.225 Z0 F1200
G1 X43.513 Y11.343 Z0 F1200
G1 X43.992 Y11.429 Z0 F1200
G1 X44.489 Y11.482 Z0 F1200
G1 X45 Y11.5 Z0 F1200
G1 X45.511 Y11.482 Z0 F1200
G1 X46.008 Y11.429 Z0 F1200
G1 X46.487 Y11.343 Z0 F1200
G1 X46.946 Y11.225 Z0 F1200
G1 X47.383 Y11.078 Z0 F1200
G1 X47.796 Y10.902 Z0 F1200
G1 X48.18 Y10.701 Z0 F1200
G1 X48.536 Y10.475 Z0 F1200
G1 X48.858 Y10.226 Z0 F1200
G1 X49.146 Y9.957 Z0 F1200
G1 X49.397 Y9.668 Z0 F1200
G1 X49.607 Y9.362 Z0 F1200
G1 X49.775 Y9.041 Z0 F1200
G1 X49.898 Y8.705 Z0 F1200
G1 X49.974 Y8.358 Z0 F1200
G1 X50 Y8 Z0 F1200
G1 X49.974 Y7.642 Z0 F1200
G1 X49.898 Y7.295 Z0 F1200
G1 X49.775 Y6.959 Z0 F1200
G1 X49.607 Y6.638 Z0 F1200
G1 X49.397 Y6.332 Z0 F1200
G1 X49.146 Y6.043 Z0 F1200
G1 X48.858 Y5.774 Z0 F1200
G1 X48.536 Y5.525 Z0 F1200
G1 X48.18 Y5.299 Z0 F1200
G1 X47.796 Y5.098 Z0 F1200
G1 X47.383 Y4.922 Z0 F1200
G1 X46.946 Y4.775 Z0 F1200
G1 X46.487 Y4.657 Z0 F1200
G1 X46.008 Y4.571 Z0 F1200
G1 X45.511 Y4.518 Z0 F1200
G1 X45 Y4.5 Z0 F1200
G1 X44.489 Y4.518 Z0 F1200
G1 X43.992 Y4.571 Z0 F1200
G1 X43.513 Y4.657 Z0 F1200
G1 X43.054 Y4.775 Z0 F1200
G1 X42.617 Y4.922 Z0 F1200
G1 X42.204 Y5.098 Z0 F1200
G1 X41.82 Y5.299 Z0 F1200
G1 X41.464 Y5.525 Z0 F1200
G1 X41.142 Y5.774 Z0 F1200
G1 X40.854 Y6.043 Z0 F1200
G1 X40.603 Y6.332 Z0 F1200
G1 X40.393 Y6.638 Z0 F1200
G1 X40.225 Y6.959 Z0 F1200
G1 Z7 F800;         ; Raise from color
G1 X34 Y8 Z1 F1200;     ; Movement in paint
G1 X24 Y18 Z8 F500;     ; Move in paint
G1 F1200;           ; Set feed rate
G0 Z2 F1000 ; Safety Lift
G0 X43.191 Y83.044 F1200 ; Return to pos
G1 X20.229 S0 F1600
G0 Z0 F500 ; Drop S>0
G1 X17.728 S900 F1600
G0 Z2 F500 ; Lift S=0
G1 X15.978 S0 F1600
G1 X15.592 Y83.944 Z2 F1600
; --- FIX X Backlash ---
G0 X16.892 Y83.944 F1200
G1 X18.642 Z2 F1600
G0 Z0 F500 ; Drop S>0
G1 X20.899 S900 F1600
G0 Z2 F500 ; Lift S=0
G1 X45.116 S0 F1600
G0 Z0 F500 ; Drop S>0
G1 X47.368 S900 F1600
G0 Z2 F500 ; Lift S=0
G1 X49.118 S0 F1600
G1 X49.503 Y84.844 Z2 F1600
; --- FIX X Backlash ---
G0 X48.203 Y84.844 F1200
G1 X46.453 Z2 F1600
G0 Z0 F500 ; Drop S>0
G1 X44.442 S900 F1600
G0 Z2 F500 ; Lift S=0
G1 X18.973 S0 F1600
G0 Z0 F500 ; Drop S>0
G1 X16.958 S900 F1600
G0 Z2 F500 ; Lift S=0
G1 X15.208 S0 F1600
G1 X14.824 Y85.744 Z2 F1600
; --- FIX X Backlash ---
G0 X16.124 Y85.744 F1200
G1 X17.874 Z2 F1600
G0 Z0 F500 ; Drop S>0
G1 X19.649 S900 F1600
G0 Z2 F500 ; Lift S=0
G1 X46.365 S0 F1600
G0 Z0 F500 ; Drop S>0
G1 X48.137 S900 F1600
G0 Z2 F500 ; Lift S=0
G1 X49.887 S0 F1600
G1 X50.264 Y86.644 Z2 F1600
; --- FIX X Backlash ---
G0 X48.964 Y86.644 F1200
G1 X47.214 Z2 F1600
G0 Z0 F500 ; Drop S>0
G1 X45.696 S900 F1600
G0 Z2 F500 ; Lift S=0
G1 X17.723 S0 F1600
G0 Z0 F500 ; Drop S>0
G1 X16.193 S900 F1600
G0 Z2 F500 ; Lift S=0
G1 X14.443 S0 F1600
G1 X14.062 Y87.544 Z2 F1600
; --- FIX X Backlash ---
G0 X15.362 Y87.544 F1200
G1 X17.112 Z2 F1600
G0 Z0 F500 ; Drop S>0
G1 X18.39 S900 F1600
G0 Z2 F500 ; Lift S=0
G1 X47.612 S0 F1600
G0 Z0 F500 ; Drop S>0
G1 X48.876 S900 F1600
G0 Z2 F500 ; Lift S=0
G1 X50.626 S0 F1600
G1 X50.671 Y88.444 Z2 F1600
; --- FIX X Backlash ---
G0 X49.371 Y88.444 F1200
G1 X47.621 Z2 F1600
G0 Z0 F500 ; Drop S>0
G1 X46.951 S900 F1600
G0 Z2 F500 ; Lift S=0
G1 X16.366 S0 F1600
G0 Z0 F500 ; Drop S>0
G1 X15.722 S900 F1600
G0 Z2 F500 ; Lift S=0
G1 X13.972 S0 F1600

; Washing sequence (no color)
G1 Z10 F1000;        ; Raise brush
G0 X5 Y5 F1200;     ; Rapid move to clean
G1 Z-1 F800;         ; Lower brush
G1 X10 Y12 Z8 F1200;     ; Move
G1 Z-1 F800;         ; Lower
G1 X25 Y14 Z6 F800;     ; Move
G1 Z8 F800;         ; Maintain
G0 X5 Y5 F1200;     ; Rapid
G1 Z-1 F800;         ; Lower
G1 X15 Y12 Z8 F1200;     ; Move
G1 Z-1 F800;         ; Lower
G1 X25 Y14 Z6 F800;     ; Move
G1 Z10 F800;         ; Maintain
G1 F1200;           ; Set feed
G0 Z2 F1000 ; Safety Lift

; Color picking sequence
G1 Z10 F1000;         ; Raise brush
G0 X86 Y5 F1200;    ; Rapid move to color 1
G1 Z10 F1000;         ; Raise brush
G0 X86 Y5 F1200;    ; Rapid move to color 1
G1 Z0 F1000;         ; Lower into color
G1 X85.102 Y7.295 Z0 S800 F1200
G1 X85.026 Y7.642 Z0 F1200
G1 X85 Y8 Z0 F1200
G1 X85.026 Y8.358 Z0 F1200
G1 X85.102 Y8.705 Z0 F1200
G1 X85.225 Y9.041 Z0 F1200
G1 X85.393 Y9.362 Z0 F1200
G1 X85.603 Y9.668 Z0 F1200
G1 X85.854 Y9.957 Z0 F1200
G1 X86.142 Y10.226 Z0 F1200
G1 X86.464 Y10.475 Z0 F1200
G1 X86.82 Y10.701 Z0 F1200
G1 X87.204 Y10.902 Z0 F1200
G1 X87.617 Y11.078 Z0 F1200
G1 X88.054 Y11.225 Z0 F1200
G1 X88.513 Y11.343 Z0 F1200
G1 X88.992 Y11.429 Z0 F1200
G1 X89.489 Y11.482 Z0 F1200
G1 X90 Y11.5 Z0 F1200
G1 X90.511 Y11.482 Z0 F1200
G1 X91.008 Y11.429 Z0 F1200
G1 X91.487 Y11.343 Z0 F1200
G1 X91.946 Y11.225 Z0 F1200
G1 X92.383 Y11.078 Z0 F1200
G1 X92.796 Y10.902 Z0 F1200
G1 X93.18 Y10.701 Z0 F1200
G1 X93.536 Y10.475 Z0 F1200
G1 X93.858 Y10.226 Z0 F1200
G1 X94.146 Y9.957 Z0 F1200
G1 X94.397 Y9.668 Z0 F1200
G1 X94.607 Y9.362 Z0 F1200
G1 X94.775 Y9.041 Z0 F1200
G1 X94.898 Y8.705 Z0 F1200
G1 X94.974 Y8.358 Z0 F1200
G1 X95 Y8 Z0 F1200
G1 X94.974 Y7.642 Z0 F1200
G1 X94.898 Y7.295 Z0 F1200
G1 X94.775 Y6.959 Z0 F1200
G1 X94.607 Y6.638 Z0 F1200
G1 X94.397 Y6.332 Z0 F1200
G1 X94.146 Y6.043 Z0 F1200
G1 X93.858 Y5.774 Z0 F1200
G1 X93.536 Y5.525 Z0 F1200
G1 X93.18 Y5.299 Z0 F1200
G1 X92.796 Y5.098 Z0 F1200
G1 X92.383 Y4.922 Z0 F1200
G1 X91.946 Y4.775 Z0 F1200
G1 X91.487 Y4.657 Z0 F1200
G1 X91.008 Y4.571 Z0 F1200
G1 X90.511 Y4.518 Z0 F1200
G1 X90 Y4.5 Z0 F1200
G1 X89.489 Y4.518 Z0 F1200
G1 X88.992 Y4.571 Z0 F1200
G1 X88.513 Y4.657 Z0 F1200
G1 X88.054 Y4.775 Z0 F1200
G1 X87.617 Y4.922 Z0 F1200
G1 X87.204 Y5.098 Z0 F1200
G1 X86.82 Y5.299 Z0 F1200
G1 X86.464 Y5.525 Z0 F1200
G1 X86.142 Y5.774 Z0 F1200
G1 X85.854 Y6.043 Z0 F1200
G1 X85.603 Y6.332 Z0 F1200
G1 X85.393 Y6.638 Z0 F1200
G1 X85.225 Y6.959 Z0 F1200
G1 Z7 F800;         ; Raise from color
G1 X79 Y8 Z1 F1200;     ; Movement in paint
G1 X69 Y18 Z8 F500;     ; Move in paint
G1 F1200;           ; Set feed rate
G0 Z2 F1000 ; Safety Lift
;Offset @ 1500 mm/min, 90% power

M8
G0 Z3.5 F1000
; --- FIX X Backlash ---
G0 X15.272 Y88.444 F1200
; --- FIX Y Backlash ---
G0 X15.272 Y87.144 F1200
G0 X17.457 Y38.038 Z3.5 F1500
G1 Z0 F1000
;Layer C2
; --- FIX Y Backlash ---
G0 X17.457 Y39.338 F1200
G1 X17.693 Y40.085 Z0 S900 F1600
G1 X17.96 Y40.809 Z0 F1600
G1 X18.259 Y41.511 Z0 F1600
G1 X18.591 Y42.196 Z0 F1600
G1 X18.958 Y42.866 Z0 F1600
G1 X19.361 Y43.523 Z0 F1600
G1 X19.611 Y43.892 Z0 F1600
; --- FIX X Backlash ---
G0 X18.311 Y43.892 F1200
; --- FIX Y Backlash ---
G0 X18.311 Y42.592 F1200
G1 X18.213 Y42.502 Z0 F1600
G1 X17.966 Y42.25 Z0 F1600
G1 X17.708 Y41.966 Z0 F1600
G1 X17.653 Y41.897 Z0 F1600
G1 X17.567 Y41.775 Z0 F1600
G1 X17.447 Y41.591 Z0 F1600
G1 X17.318 Y41.383 Z0 F1600
G1 X17.066 Y40.949 Z0 F1600
G1 X16.849 Y40.537 Z0 F1600
G1 X16.598 Y39.944 Z0 F1600
G1 X16.383 Y39.25 Z0 F1600
G1 X16.293 Y38.875 Z0 F1600
G1 X16.207 Y38.448 Z0 F1600
G1 X16.125 Y37.965 Z0 F1600
G1 X16.111 Y37.867 Z0 F1600
; --- FIX Y Backlash ---
G0 X16.111 Y39.167 F1200
G1 X16.157 Y39.338 Z0 F1600
G0 Z3.5 F1000
; --- FIX X Backlash ---
G0 X17.457 Y39.338 F1200
G0 X21.669 Y41.965 Z3.5
G1 Z0 F1000
; --- FIX X Backlash ---
G0 X20.369 Y41.965 F1200
; --- FIX Y Backlash ---
G0 X20.369 Y40.665 F1200
G1 X20.038 Y40.16 Z0 F1600
G1 X19.759 Y39.711 Z0 F1600
G1 X19.536 Y39.329 Z0 F1600
G1 X19.113 Y38.539 Z0 F1600
G1 X18.675 Y37.664 Z0 F1600
G1 X18.363 Y36.999 Z0 F1600
G1 X18.372 Y37.01 Z0 F1600
; --- FIX X Backlash ---
G0 X19.672 Y37.01 F1200
; --- FIX Y Backlash ---
G0 X19.672 Y38.31 F1200
G1 X19.844 Y38.5 Z0 F1600
G1 X20.003 Y38.683 Z0 F1600
G1 X20.198 Y38.913 Z0 F1600
G1 X20.425 Y39.184 Z0 F1600
G1 X21.072 Y39.999 Z0 F1600
G1 X21.634 Y40.795 Z0 F1600
G1 X22.137 Y41.604 Z0 F1600
G1 X22.59 Y42.443 Z0 F1600
G1 X22.844 Y42.984 Z0 F1600
G1 X23.077 Y43.536 Z0 F1600
G1 X23.144 Y43.709 Z0 F1600
; --- FIX X Backlash ---
G0 X21.844 Y43.709 F1200
G1 X21.695 Y43.809 Z0 F1600
G1 X21.69 Y43.804 Z0 F1600
; --- FIX Y Backlash ---
G0 X21.69 Y42.504 F1200
G1 X21.381 Y42.103 Z0 F1600
G1 X21.055 Y41.658 Z0 F1600
G1 X20.702 Y41.157 Z0 F1600
G1 X20.369 Y40.665 Z0 F1600
G0 Z3.5 F1000
G0 X19.998 Y35.271 Z3.5
G1 Z0 F1000
; --- FIX X Backlash ---
G0 X21.298 Y35.271 F1200
; --- FIX Y Backlash ---
G0 X21.298 Y36.571 F1200
G1 X21.441 Y36.662 Z0 F1600
G1 X21.848 Y36.944 Z0 F1600
G1 X22.227 Y37.23 Z0 F1600
G1 X22.587 Y37.525 Z0 F1600
G1 X22.92 Y37.823 Z0 F1600
G1 X23.226 Y38.125 Z0 F1600
G1 X23.508 Y38.431 Z0 F1600
G1 X23.754 Y38.727 Z0 F1600
G1 X23.978 Y39.029 Z0 F1600
G1 X24.173 Y39.329 Z0 F1600
G1 X24.345 Y39.63 Z0 F1600
G1 X24.482 Y39.916 Z0 F1600
G1 X24.598 Y40.208 Z0 F1600
G1 X24.685 Y40.491 Z0 F1600
G1 X24.697 Y40.546 Z0 F1600
; --- FIX X Backlash ---
G0 X23.397 Y40.546 F1200
; --- FIX Y Backlash ---
G0 X23.397 Y39.246 F1200
G1 X23.021 Y38.608 Z0 F1600
G1 X22.435 Y37.763 Z0 F1600
G1 X22.001 Y37.22 Z0 F1600
G1 X21.548 Y36.708 Z0 F1600
G1 X21.075 Y36.22 Z0 F1600
G1 X20.581 Y35.759 Z0 F1600
G1 X20.071 Y35.327 Z0 F1600
G1 X19.998 Y35.271 Z0 F1600
G0 Z3.5 F1000
G0 X17.347 Y33.873 Z3.5
G1 Z0 F1000
; --- FIX Y Backlash ---
G0 X17.347 Y35.173 F1200
G1 X16.647 Y35.581 Z0 F1600
G1 X15.991 Y35.535 Z0 F1600
; --- FIX Y Backlash ---
G0 X15.991 Y34.235 F1200
G1 Y34.117 Z0 F1600
G1 X16 Y33.918 Z0 F1600
G1 X16.009 Y33.756 Z0 F1600
G1 X16.017 Y33.661 Z0 F1600
G1 X16.058 Y33.335 Z0 F1600
G1 X16.093 Y33.347 Z0 F1600
; --- FIX X Backlash ---
G0 X17.393 Y33.347 F1200
; --- FIX Y Backlash ---
G0 X17.393 Y34.647 F1200
G1 X18.028 Y34.903 Z0 F1600
G1 X18.643 Y35.17 Z0 F1600
G1 X18.647 Y35.173 Z0 F1600
G0 Z3.5 F1000
G0 X23.537 Y37.168 Z3.5
G1 Z0 F1000
G1 X23.873 Y37.498 Z0 F1600
G1 X24.182 Y37.833 Z0 F1600
G1 X24.463 Y38.172 Z0 F1600
G1 X24.717 Y38.515 Z0 F1600
G1 X24.943 Y38.861 Z0 F1600
G1 X25.141 Y39.209 Z0 F1600
G1 X25.309 Y39.559 Z0 F1600
G1 X25.447 Y39.909 Z0 F1600
G1 X25.556 Y40.26 Z0 F1600
G1 X25.634 Y40.611 Z0 F1600
G1 X25.681 Y40.96 Z0 F1600
G1 X25.697 Y41.308 Z0 F1600
G1 X25.688 Y41.581 Z0 F1600
G1 X25.664 Y41.827 Z0 F1600
G1 X25.62 Y42.055 Z0 F1600
; --- FIX X Backlash ---
G0 X24.32 Y42.055 F1200
G1 X24.256 Y42.274 Z0 F1600
G1 X24.124 Y42.605 Z0 F1600
G1 X23.953 Y42.97 Z0 F1600
G1 X23.868 Y43.133 Z0 F1600
G1 X23.794 Y43.266 Z0 F1600
G1 X23.736 Y43.355 Z0 F1600
G1 X23.7 Y43.388 Z0 F1600
G1 X23.679 Y43.352 Z0 F1600
; --- FIX Y Backlash ---
G0 X23.679 Y42.052 F1200
G1 X23.64 Y41.956 Z0 F1600
G1 X23.589 Y41.813 Z0 F1600
G1 X23.531 Y41.639 Z0 F1600
G1 X23.392 Y41.259 Z0 F1600
G1 X23.217 Y40.846 Z0 F1600
G1 X23.011 Y40.413 Z0 F1600
G1 X22.779 Y39.97 Z0 F1600
G1 X22.263 Y39.093 Z0 F1600
G1 X21.713 Y38.301 Z0 F1600
G1 X21.312 Y37.8 Z0 F1600
G1 X20.888 Y37.32 Z0 F1600
G1 X20.444 Y36.863 Z0 F1600
G1 X19.983 Y36.431 Z0 F1600
G1 X19.507 Y36.029 Z0 F1600
G1 X19.019 Y35.656 Z0 F1600
G1 X18.522 Y35.316 Z0 F1600
G1 X18.018 Y35.012 Z0 F1600
G1 X17.806 Y34.894 Z0 F1600
G1 X17.655 Y34.819 Z0 F1600
G1 X17.566 Y34.787 Z0 F1600
G1 X17.539 Y34.803 Z0 F1600
; --- FIX Y Backlash ---
G0 X17.539 Y36.103 F1200
G1 X17.575 Y36.168 Z0 F1600
; --- FIX X Backlash ---
G0 X18.875 Y36.168 F1200
G1 X18.974 Y36.286 Z0 F1600
G1 X19.135 Y36.459 Z0 F1600
G1 X19.944 Y37.288 Z0 F1600
G1 X20.158 Y37.511 Z0 F1600
G1 X20.342 Y37.708 Z0 F1600
G1 X20.514 Y37.899 Z0 F1600
G1 X20.69 Y38.102 Z0 F1600
G1 X20.887 Y38.334 Z0 F1600
G1 X21.124 Y38.616 Z0 F1600
G1 X21.791 Y39.457 Z0 F1600
G1 X22.385 Y40.298 Z0 F1600
G1 X22.917 Y41.155 Z0 F1600
G1 X23.394 Y42.038 Z0 F1600
G1 X23.665 Y42.614 Z0 F1600
G1 X23.915 Y43.205 Z0 F1600
G1 X24.017 Y43.471 Z0 F1600
G1 X24.098 Y43.698 Z0 F1600
G1 X24.15 Y43.873 Z0 F1600
G1 X24.168 Y43.979 Z0 F1600
G1 X24.135 Y44.048 Z0 F1600
; --- FIX X Backlash ---
G0 X22.835 Y44.048 F1200
G1 X22.744 Y44.147 Z0 F1600
G1 X22.607 Y44.266 Z0 F1600
G1 X22.437 Y44.396 Z0 F1600
G1 X22.051 Y44.653 Z0 F1600
G1 X21.685 Y44.844 Z0 F1600
G1 X21.557 Y44.891 Z0 F1600
G1 X21.469 Z0 F1600
; --- FIX Y Backlash ---
G0 X21.469 Y43.591 F1200
G1 X21.385 Y43.535 Z0 F1600
G1 X21.27 Y43.409 Z0 F1600
G1 X20.99 Y43.069 Z0 F1600
G1 X20.668 Y42.652 Z0 F1600
G1 X20.322 Y42.18 Z0 F1600
G1 X19.966 Y41.675 Z0 F1600
G1 X19.616 Y41.158 Z0 F1600
G1 X19.285 Y40.653 Z0 F1600
G1 X18.991 Y40.18 Z0 F1600
G1 X18.747 Y39.762 Z0 F1600
G1 X18.312 Y38.95 Z0 F1600
G1 X17.87 Y38.066 Z0 F1600
G1 X17.443 Y37.158 Z0 F1600
G1 X17.055 Y36.274 Z0 F1600
G1 X16.878 Y35.859 Z0 F1600
G1 X16.668 Y35.378 Z0 F1600
G1 X16.589 Y35.206 Z0 F1600
G1 X16.573 Y35.178 Z0 F1600
G1 X16.558 Z0 F1600
G1 X16.55 Y35.204 Z0 F1600
; --- FIX Y Backlash ---
G0 X16.55 Y36.504 F1200
G1 X16.547 Y36.558 Z0 F1600
G1 Y36.635 Z0 F1600
G1 X16.566 Y36.847 Z0 F1600
G1 X16.599 Y37.119 Z0 F1600
; --- FIX X Backlash ---
G0 X17.899 Y37.119 F1200
G1 X17.998 Y37.75 Z0 F1600
G1 X18.122 Y38.348 Z0 F1600
G1 X18.321 Y39.085 Z0 F1600
G1 X18.545 Y39.793 Z0 F1600
G1 X18.797 Y40.477 Z0 F1600
G1 X19.079 Y41.138 Z0 F1600
G1 X19.391 Y41.783 Z0 F1600
G1 X19.737 Y42.414 Z0 F1600
G1 X20.118 Y43.036 Z0 F1600
G1 X20.536 Y43.653 Z0 F1600
G1 X20.902 Y44.155 Z0 F1600
G1 X21.273 Y44.639 Z0 F1600
G1 X21.437 Y44.844 Z0 F1600
G1 X21.573 Y45.009 Z0 F1600
G1 X21.673 Y45.122 Z0 F1600
G1 X21.727 Y45.17 Z0 F1600
G1 X21.762 Y45.214 Z0 F1600
G1 X21.777 Y45.287 Z0 F1600
G1 X21.732 Y45.326 Z0 F1600
; --- FIX X Backlash ---
G0 X20.432 Y45.326 F1200
G1 X20.311 Y45.355 Z0 F1600
G1 X20.13 Y45.375 Z0 F1600
G1 X19.908 Y45.383 Z0 F1600
G1 X19.408 Y45.369 Z0 F1600
; --- FIX Y Backlash ---
G0 X19.408 Y44.069 F1200
G1 X18.954 Y44.01 Z0 F1600
G1 X18.743 Y43.95 Z0 F1600
G1 X18.528 Y43.858 Z0 F1600
G1 X18.306 Y43.733 Z0 F1600
G1 X18.075 Y43.574 Z0 F1600
G1 X17.835 Y43.377 Z0 F1600
G1 X17.581 Y43.143 Z0 F1600
G1 X17.311 Y42.868 Z0 F1600
G1 X17.025 Y42.553 Z0 F1600
G1 X16.932 Y42.435 Z0 F1600
G1 X16.818 Y42.274 Z0 F1600
G1 X16.689 Y42.077 Z0 F1600
G1 X16.553 Y41.857 Z0 F1600
G1 X16.276 Y41.381 Z0 F1600
G1 X16.037 Y40.925 Z0 F1600
G1 X15.75 Y40.251 Z0 F1600
G1 X15.516 Y39.495 Z0 F1600
G1 X15.415 Y39.074 Z0 F1600
G1 X15.323 Y38.616 Z0 F1600
G1 X15.238 Y38.116 Z0 F1600
G1 X15.158 Y37.57 Z0 F1600
G1 X15.145 Y37.436 Z0 F1600
G1 X15.132 Y37.256 Z0 F1600
G1 X15.121 Y37.034 Z0 F1600
G1 X15.111 Y36.778 Z0 F1600
G1 X15.096 Y36.193 Z0 F1600
G1 X15.087 Y35.554 Z0 F1600
G1 X15.084 Y34.917 Z0 F1600
G1 X15.089 Y34.337 Z0 F1600
G1 X15.094 Y34.086 Z0 F1600
G1 X15.101 Y33.87 Z0 F1600
G1 X15.11 Y33.696 Z0 F1600
G1 X15.121 Y33.57 Z0 F1600
; --- FIX X Backlash ---
G0 X16.421 Y33.57 F1200
G1 X16.532 Y32.702 Z0 F1600
G1 X16.563 Y32.477 Z0 F1600
G1 X16.59 Y32.292 Z0 F1600
G1 X16.611 Y32.167 Z0 F1600
G1 X16.623 Y32.121 Z0 F1600
G1 X16.768 Y32.168 Z0 F1600
; --- FIX Y Backlash ---
G0 X16.768 Y33.468 F1200
G1 X17.098 Y33.581 Z0 F1600
G1 X17.718 Y33.808 Z0 F1600
G1 X18.365 Y34.068 Z0 F1600
G1 X19.023 Y34.354 Z0 F1600
G1 X19.677 Y34.659 Z0 F1600
G1 X20.311 Y34.974 Z0 F1600
G1 X20.908 Y35.292 Z0 F1600
G1 X21.455 Y35.606 Z0 F1600
G1 X21.935 Y35.909 Z0 F1600
G1 X22.373 Y36.213 Z0 F1600
G1 X22.787 Y36.525 Z0 F1600
G1 X23.175 Y36.843 Z0 F1600
G1 X23.537 Y37.168 Z0 F1600
G0 Z3.5 F1000

; Color picking sequence
G1 Z10 F1000;         ; Raise brush
G0 X86 Y5 F1200;    ; Rapid move to color 1
G1 Z10 F1000;         ; Raise brush
G0 X86 Y5 F1200;    ; Rapid move to color 1
G1 Z0 F1000;         ; Lower into color
G1 X85.102 Y7.295 Z0 S800 F1200
G1 X85.026 Y7.642 Z0 F1200
G1 X85 Y8 Z0 F1200
G1 X85.026 Y8.358 Z0 F1200
G1 X85.102 Y8.705 Z0 F1200
G1 X85.225 Y9.041 Z0 F1200
G1 X85.393 Y9.362 Z0 F1200
G1 X85.603 Y9.668 Z0 F1200
G1 X85.854 Y9.957 Z0 F1200
G1 X86.142 Y10.226 Z0 F1200
G1 X86.464 Y10.475 Z0 F1200
G1 X86.82 Y10.701 Z0 F1200
G1 X87.204 Y10.902 Z0 F1200
G1 X87.617 Y11.078 Z0 F1200
G1 X88.054 Y11.225 Z0 F1200
G1 X88.513 Y11.343 Z0 F1200
G1 X88.992 Y11.429 Z0 F1200
G1 X89.489 Y11.482 Z0 F1200
G1 X90 Y11.5 Z0 F1200
G1 X90.511 Y11.482 Z0 F1200
G1 X91.008 Y11.429 Z0 F1200
G1 X91.487 Y11.343 Z0 F1200
G1 X91.946 Y11.225 Z0 F1200
G1 X92.383 Y11.078 Z0 F1200
G1 X92.796 Y10.902 Z0 F1200
G1 X93.18 Y10.701 Z0 F1200
G1 X93.536 Y10.475 Z0 F1200
G1 X93.858 Y10.226 Z0 F1200
G1 X94.146 Y9.957 Z0 F1200
G1 X94.397 Y9.668 Z0 F1200
G1 X94.607 Y9.362 Z0 F1200
G1 X94.775 Y9.041 Z0 F1200
G1 X94.898 Y8.705 Z0 F1200
G1 X94.974 Y8.358 Z0 F1200
G1 X95 Y8 Z0 F1200
G1 X94.974 Y7.642 Z0 F1200
G1 X94.898 Y7.295 Z0 F1200
G1 X94.775 Y6.959 Z0 F1200
G1 X94.607 Y6.638 Z0 F1200
G1 X94.397 Y6.332 Z0 F1200
G1 X94.146 Y6.043 Z0 F1200
G1 X93.858 Y5.774 Z0 F1200
G1 X93.536 Y5.525 Z0 F1200
G1 X93.18 Y5.299 Z0 F1200
G1 X92.796 Y5.098 Z0 F1200
G1 X92.383 Y4.922 Z0 F1200
G1 X91.946 Y4.775 Z0 F1200
G1 X91.487 Y4.657 Z0 F1200
G1 X91.008 Y4.571 Z0 F1200
G1 X90.511 Y4.518 Z0 F1200
G1 X90 Y4.5 Z0 F1200
G1 X89.489 Y4.518 Z0 F1200
G1 X88.992 Y4.571 Z0 F1200
G1 X88.513 Y4.657 Z0 F1200
G1 X88.054 Y4.775 Z0 F1200
G1 X87.617 Y4.922 Z0 F1200
G1 X87.204 Y5.098 Z0 F1200
G1 X86.82 Y5.299 Z0 F1200
G1 X86.464 Y5.525 Z0 F1200
G1 X86.142 Y5.774 Z0 F1200
G1 X85.854 Y6.043 Z0 F1200
G1 X85.603 Y6.332 Z0 F1200
G1 X85.393 Y6.638 Z0 F1200
G1 X85.225 Y6.959 Z0 F1200
G1 Z7 F800;         ; Raise from color
G1 X79 Y8 Z1 F1200;     ; Movement in paint
G1 X69 Y18 Z8 F500;     ; Move in paint
G1 F1200;           ; Set feed rate
G0 Z2 F1000 ; Safety Lift
G0 X23.537 Y37.168 F1200 ; Return to pos
G0 X48.505 Y39.681 Z3.5
G1 Z0 F1000
; --- FIX X Backlash ---
G0 X47.205 Y39.681 F1200
G1 X47.04 Y40.416 Z0 F1600
G1 X46.837 Y41.077 Z0 F1600
G1 X46.583 Y41.702 Z0 F1600
G1 X46.281 Y42.3 Z0 F1600
G1 X45.937 Y42.86 Z0 F1600
G1 X45.574 Y43.349 Z0 F1600
G1 X45.187 Y43.775 Z0 F1600
G1 X45.114 Y43.842 Z0 F1600
; --- FIX X Backlash ---
G0 X46.414 Y43.842 F1200
; --- FIX Y Backlash ---
G0 X46.414 Y42.542 F1200
G1 X46.585 Y42.296 Z0 F1600
G1 X46.76 Y42.032 Z0 F1600
G1 X47.275 Y41.151 Z0 F1600
G1 X47.755 Y40.179 Z0 F1600
G1 X48.182 Y39.156 Z0 F1600
G1 X48.543 Y38.106 Z0 F1600
; --- FIX Y Backlash ---
G0 X48.543 Y39.406 F1200
G1 X48.505 Y39.681 Z0 F1600
G0 Z3.5 F1000
; --- FIX X Backlash ---
G0 X47.205 Y39.681 F1200
G0 X42.853 Y42.225 Z3.5
G1 Z0 F1000
G1 X42.328 Y42.964 Z0 F1600
G1 X41.771 Y43.695 Z0 F1600
G1 X41.685 Y43.804 Z0 F1600
G1 X41.667 Y43.793 Z0 F1600
; --- FIX Y Backlash ---
G0 X41.667 Y42.493 F1200
G1 X41.507 Y42.387 Z0 F1600
G1 X41.546 Y42.289 Z0 F1600
; --- FIX X Backlash ---
G0 X42.846 Y42.289 F1200
G1 X43.101 Y41.715 Z0 F1600
G1 X43.418 Y41.063 Z0 F1600
G1 X43.753 Y40.437 Z0 F1600
G1 X44.129 Y39.809 Z0 F1600
G1 X44.532 Y39.202 Z0 F1600
G1 X44.986 Y38.58 Z0 F1600
G1 X45.478 Y37.962 Z0 F1600
G1 X46.032 Y37.319 Z0 F1600
G1 X46.361 Y36.963 Z0 F1600
; --- FIX X Backlash ---
G0 X45.061 Y36.963 F1200
; --- FIX Y Backlash ---
G0 X45.061 Y38.263 F1200
G1 X44.671 Y39.09 Z0 F1600
G1 X44.234 Y39.943 Z0 F1600
G1 X43.797 Y40.728 Z0 F1600
G1 X43.333 Y41.494 Z0 F1600
G1 X42.853 Y42.225 Z0 F1600
G0 Z3.5 F1000
; --- FIX Y Backlash ---
G0 X42.853 Y40.925 F1200
G0 X40.027 Y39.125 Z3.5
G1 Z0 F1000
G1 X40.058 Y39.022 Z0 F1600
; --- FIX X Backlash ---
G0 X41.358 Y39.022 F1200
G1 X41.5 Y38.651 Z0 F1600
G1 X41.667 Y38.296 Z0 F1600
G1 X41.87 Y37.943 Z0 F1600
G1 X42.107 Y37.591 Z0 F1600
G1 X42.383 Y37.239 Z0 F1600
G1 X42.705 Y36.876 Z0 F1600
G1 X43.084 Y36.494 Z0 F1600
G1 X43.508 Y36.106 Z0 F1600
G1 X43.722 Y35.923 Z0 F1600
G1 X43.926 Y35.766 Z0 F1600
G1 X44.024 Y35.697 Z0 F1600
G1 X44.168 Y35.599 Z0 F1600
G1 X44.711 Y35.246 Z0 F1600
; --- FIX X Backlash ---
G0 X43.411 Y35.246 F1200
; --- FIX Y Backlash ---
G0 X43.411 Y36.546 F1200
G1 X43.347 Y36.597 Z0 F1600
G1 X43.006 Y36.89 Z0 F1600
G1 X42.657 Y37.207 Z0 F1600
G1 X42.319 Y37.527 Z0 F1600
G1 X42.012 Y37.833 Z0 F1600
G1 X41.759 Y38.102 Z0 F1600
G1 X41.644 Y38.233 Z0 F1600
G1 X41.54 Y38.367 Z0 F1600
G1 X41.489 Y38.448 Z0 F1600
G1 X41.426 Y38.502 Z0 F1600
G1 X41.26 Y38.674 Z0 F1600
G1 X41.089 Y38.872 Z0 F1600
G1 X40.489 Y39.681 Z0 F1600
G1 X40.027 Y40.425 Z0 F1600
G0 Z3.5 F1000
; --- FIX X Backlash ---
G0 X41.327 Y40.425 F1200
; --- FIX Y Backlash ---
G0 X41.327 Y39.125 F1200
G0 X47.324 Y33.872 Z3.5
G1 Z0 F1000
G1 X47.597 Y33.752 Z0 F1600
G1 X48.204 Y33.496 Z0 F1600
G1 X48.491 Y33.379 Z0 F1600
G1 X48.62 Y33.328 Z0 F1600
; --- FIX Y Backlash ---
G0 X48.62 Y34.628 F1200
G1 X48.642 Y35.025 Z0 F1600
G1 X48.663 Y35.585 Z0 F1600
G1 X48.668 Y35.819 Z0 F1600
; --- FIX X Backlash ---
G0 X47.368 Y35.819 F1200
; --- FIX Y Backlash ---
G0 X47.368 Y34.519 F1200
G1 X47.11 Y34.135 Z0 F1600
; --- FIX X Backlash ---
G0 X48.41 Y34.135 F1200
G1 X48.593 Y33.716 Z0 F1600
; --- FIX X Backlash ---
G0 X47.293 Y33.716 F1200
; --- FIX Y Backlash ---
G0 X47.293 Y35.016 F1200
G1 X46.024 Y35.172 Z0 F1600
G0 Z3.5 F1000
G0 X43.649 Y35.309 Z3.5
G1 Z0 F1000
; --- FIX X Backlash ---
G0 X44.949 Y35.309 F1200
; --- FIX Y Backlash ---
G0 X44.949 Y34.009 F1200
G1 X45.083 Y33.932 Z0 F1600
G1 X45.262 Y33.838 Z0 F1600
G1 X45.479 Y33.729 Z0 F1600
G1 X46.004 Y33.479 Z0 F1600
G1 X46.61 Y33.203 Z0 F1600
G1 X47.247 Y32.923 Z0 F1600
G1 X47.865 Y32.662 Z0 F1600
G1 X48.152 Y32.545 Z0 F1600
G1 X48.417 Y32.441 Z0 F1600
G1 X48.652 Y32.352 Z0 F1600
G1 X48.852 Y32.282 Z0 F1600
G1 X49.193 Y32.172 Z0 F1600
G1 X49.306 Y32.138 Z0 F1600
G1 X49.359 Y32.124 Z0 F1600
G1 X49.38 Y32.142 Z0 F1600
; --- FIX Y Backlash ---
G0 X49.38 Y33.442 F1200
G1 X49.401 Y33.498 Z0 F1600
G1 X49.421 Y33.588 Z0 F1600
G1 X49.441 Y33.711 Z0 F1600
G1 X49.479 Y34.045 Z0 F1600
G1 X49.513 Y34.479 Z0 F1600
G1 X49.542 Y34.992 Z0 F1600
G1 X49.563 Y35.564 Z0 F1600
G1 X49.577 Y36.177 Z0 F1600
G1 X49.582 Y36.81 Z0 F1600
G1 X49.578 Y37.479 Z0 F1600
G1 X49.564 Y38.06 Z0 F1600
G1 X49.542 Y38.568 Z0 F1600
G1 X49.506 Y39.022 Z0 F1600
; --- FIX X Backlash ---
G0 X48.206 Y39.022 F1200
G1 X48.092 Y39.839 Z0 F1600
G1 X47.909 Y40.653 Z0 F1600
G1 X47.687 Y41.374 Z0 F1600
G1 X47.403 Y42.075 Z0 F1600
G1 X47.066 Y42.743 Z0 F1600
G1 X46.685 Y43.363 Z0 F1600
G1 X46.269 Y43.922 Z0 F1600
G1 X45.829 Y44.407 Z0 F1600
G1 X45.602 Y44.616 Z0 F1600
G1 X45.373 Y44.802 Z0 F1600
G1 X45.142 Y44.962 Z0 F1600
G1 X44.91 Y45.095 Z0 F1600
G1 X44.628 Y45.23 Z0 F1600
G1 X44.393 Y45.308 Z0 F1600
G1 X44.266 Y45.331 Z0 F1600
G1 X44.117 Y45.347 Z0 F1600
G1 X43.936 Y45.358 Z0 F1600
G1 X43.709 Y45.368 Z0 F1600
G1 X43.425 Y45.375 Z0 F1600
G1 X43.184 Y45.371 Z0 F1600
G1 X43.011 Y45.358 Z0 F1600
G1 X42.932 Y45.338 Z0 F1600
G1 X42.925 Y45.298 Z0 F1600
; --- FIX Y Backlash ---
G0 X42.925 Y43.998 F1200
G1 X42.95 Y43.93 Z0 F1600
; --- FIX X Backlash ---
G0 X44.25 Y43.93 F1200
G1 X44.303 Y43.845 Z0 F1600
G1 X44.379 Y43.748 Z0 F1600
G1 X44.528 Y43.57 Z0 F1600
G1 X44.721 Y43.325 Z0 F1600
G1 X44.942 Y43.035 Z0 F1600
G1 X45.18 Y42.717 Z0 F1600
G1 X45.418 Y42.39 Z0 F1600
G1 X45.643 Y42.075 Z0 F1600
G1 X45.84 Y41.791 Z0 F1600
G1 X45.996 Y41.556 Z0 F1600
G1 X46.482 Y40.724 Z0 F1600
G1 X46.935 Y39.807 Z0 F1600
G1 X47.34 Y38.835 Z0 F1600
G1 X47.682 Y37.843 Z0 F1600
G1 X47.857 Y37.188 Z0 F1600
G1 X48.01 Y36.461 Z0 F1600
G1 X48.071 Y36.118 Z0 F1600
G1 X48.115 Y35.814 Z0 F1600
G1 X48.14 Y35.567 Z0 F1600
G1 Y35.397 Z0 F1600
G1 X48.132 Y35.334 Z0 F1600
G1 X48.115 Y35.309 Z0 F1600
G1 X48.086 Y35.327 Z0 F1600
; --- FIX Y Backlash ---
G0 X48.086 Y36.627 F1200
G1 X48.042 Y36.696 Z0 F1600
; --- FIX X Backlash ---
G0 X46.742 Y36.696 F1200
G1 X46.678 Y36.822 Z0 F1600
G1 X46.591 Y37.012 Z0 F1600
G1 X46.476 Y37.274 Z0 F1600
G1 X46.331 Y37.615 Z0 F1600
G1 X45.903 Y38.588 Z0 F1600
G1 X45.472 Y39.5 Z0 F1600
G1 X45.031 Y40.361 Z0 F1600
G1 X44.575 Y41.181 Z0 F1600
G1 X44.097 Y41.97 Z0 F1600
G1 X43.592 Y42.738 Z0 F1600
G1 X43.054 Y43.496 Z0 F1600
G1 X42.478 Y44.251 Z0 F1600
G1 X41.961 Y44.909 Z0 F1600
G1 X41.929 Y44.92 Z0 F1600
G1 X41.87 Y44.911 Z0 F1600
G1 X41.788 Y44.883 Z0 F1600
G1 X41.689 Y44.839 Z0 F1600
; --- FIX Y Backlash ---
G0 X41.689 Y43.539 F1200
G1 X41.449 Y43.413 Z0 F1600
G1 X41.182 Y43.252 Z0 F1600
G1 X40.921 Y43.077 Z0 F1600
G1 X40.695 Y42.908 Z0 F1600
G1 X40.605 Y42.831 Z0 F1600
G1 X40.536 Y42.763 Z0 F1600
G1 X40.492 Y42.707 Z0 F1600
G1 X40.476 Y42.665 Z0 F1600
G1 X40.493 Y42.56 Z0 F1600
G1 X40.541 Y42.398 Z0 F1600
; --- FIX X Backlash ---
G0 X41.841 Y42.398 F1200
G1 X41.917 Y42.187 Z0 F1600
G1 X42.019 Y41.934 Z0 F1600
G1 X42.284 Y41.336 Z0 F1600
G1 X42.612 Y40.661 Z0 F1600
G1 X42.972 Y39.99 Z0 F1600
G1 X43.364 Y39.333 Z0 F1600
G1 X43.794 Y38.685 Z0 F1600
G1 X44.267 Y38.037 Z0 F1600
G1 X44.787 Y37.385 Z0 F1600
G1 X45.36 Y36.72 Z0 F1600
G1 X45.991 Y36.037 Z0 F1600
G1 X46.873 Y35.136 Z0 F1600
G1 X47.02 Y34.973 Z0 F1600
G1 X47.113 Y34.856 Z0 F1600
G1 X47.137 Y34.802 Z0 F1600
; --- FIX X Backlash ---
G0 X45.837 Y34.802 F1200
G1 X45.773 Y34.81 Z0 F1600
; --- FIX Y Backlash ---
G0 X45.773 Y36.11 F1200
G1 X45.637 Y36.169 Z0 F1600
G1 X45.445 Y36.27 Z0 F1600
G1 X45.211 Y36.403 Z0 F1600
G1 X44.69 Y36.728 Z0 F1600
G1 X44.203 Y37.066 Z0 F1600
G1 X43.921 Y37.291 Z0 F1600
G1 X43.602 Y37.565 Z0 F1600
G1 X43.269 Y37.867 Z0 F1600
G1 X42.946 Y38.173 Z0 F1600
G1 X42.657 Y38.46 Z0 F1600
G1 X42.426 Y38.706 Z0 F1600
G1 X42.339 Y38.806 Z0 F1600
G1 X42.276 Y38.886 Z0 F1600
G1 X42.239 Y38.945 Z0 F1600
G1 X42.231 Y38.979 Z0 F1600
G1 X42.234 Y39.037 Z0 F1600
G1 X42.192 Y39.051 Z0 F1600
G1 X42.138 Y39.077 Z0 F1600
G1 X42.044 Y39.157 Z0 F1600
G1 X41.925 Y39.281 Z0 F1600
G1 X41.793 Y39.434 Z0 F1600
G1 X41.234 Y40.188 Z0 F1600
G1 X40.72 Y41.017 Z0 F1600
G1 X40.272 Y41.883 Z0 F1600
G1 X39.913 Y42.748 Z0 F1600
G1 X39.7 Y43.338 Z0 F1600
; --- FIX Y Backlash ---
G0 X39.7 Y42.038 F1200
G1 X39.554 Y41.833 Z0 F1600
G1 X39.398 Y41.576 Z0 F1600
G1 X39.228 Y41.244 Z0 F1600
G1 X39.13 Y41.012 Z0 F1600
G1 X39.075 Y40.79 Z0 F1600
G1 X39.061 Y40.655 Z0 F1600
G1 X39.052 Y40.491 Z0 F1600
G1 X39.049 Y40.285 Z0 F1600
G1 Y40.028 Z0 F1600
G1 Y39.787 Z0 F1600
G1 X39.054 Y39.586 Z0 F1600
G1 X39.062 Y39.414 Z0 F1600
G1 X39.076 Y39.265 Z0 F1600
G1 X39.124 Y39.002 Z0 F1600
; --- FIX X Backlash ---
G0 X40.424 Y39.002 F1200
G1 X40.505 Y38.732 Z0 F1600
G1 X40.671 Y38.299 Z0 F1600
G1 X40.87 Y37.878 Z0 F1600
G1 X41.104 Y37.468 Z0 F1600
G1 X41.378 Y37.063 Z0 F1600
G1 X41.693 Y36.66 Z0 F1600
G1 X42.052 Y36.257 Z0 F1600
G1 X42.458 Y35.848 Z0 F1600
G1 X42.914 Y35.43 Z0 F1600
G1 X43.154 Y35.224 Z0 F1600
G1 X43.386 Y35.047 Z0 F1600
G1 X43.52 Y34.952 Z0 F1600
G1 X43.677 Y34.845 Z0 F1600
G1 X44.613 Y34.236 Z0 F1600
G1 X44.785 Y34.122 Z0 F1600
G1 X44.949 Y34.009 Z0 F1600

; Washing sequence (no color)
G1 Z10 F1000;        ; Raise brush
G0 X5 Y5 F1200;     ; Rapid move to clean
G1 Z-1 F800;         ; Lower brush
G1 X10 Y12 Z8 F1200;     ; Move
G1 Z-1 F800;         ; Lower
G1 X25 Y14 Z6 F800;     ; Move
G1 Z8 F800;         ; Maintain
G0 X5 Y5 F1200;     ; Rapid
G1 Z-1 F800;         ; Lower
G1 X15 Y12 Z8 F1200;     ; Move
G1 Z-1 F800;         ; Lower
G1 X25 Y14 Z6 F800;     ; Move
G1 Z10 F800;         ; Maintain
G1 F1200;           ; Set feed
G0 Z2 F1000 ; Safety Lift

; Color picking sequence
G1 Z10 F1000;         ; Raise brush
G0 X131 Y5 F1200;    ; Rapid move to color 1
G1 Z10 F1000;         ; Raise brush
G0 X131 Y5 F1200;    ; Rapid move to color 1
G1 Z0 F1000;         ; Lower into color
G1 X130.102 Y7.295 Z0 S800 F1200
G1 X130.026 Y7.642 Z0 F1200
G1 X130 Y8 Z0 F1200
G1 X130.026 Y8.358 Z0 F1200
G1 X130.102 Y8.705 Z0 F1200
G1 X130.225 Y9.041 Z0 F1200
G1 X130.393 Y9.362 Z0 F1200
G1 X130.603 Y9.668 Z0 F1200
G1 X130.854 Y9.957 Z0 F1200
G1 X131.142 Y10.226 Z0 F1200
G1 X131.464 Y10.475 Z0 F1200
G1 X131.82 Y10.701 Z0 F1200
G1 X132.204 Y10.902 Z0 F1200
G1 X132.617 Y11.078 Z0 F1200
G1 X133.054 Y11.225 Z0 F1200
G1 X133.513 Y11.343 Z0 F1200
G1 X133.992 Y11.429 Z0 F1200
G1 X134.489 Y11.482 Z0 F1200
G1 X135 Y11.5 Z0 F1200
G1 X135.511 Y11.482 Z0 F1200
G1 X136.008 Y11.429 Z0 F1200
G1 X136.487 Y11.343 Z0 F1200
G1 X136.946 Y11.225 Z0 F1200
G1 X137.383 Y11.078 Z0 F1200
G1 X137.796 Y10.902 Z0 F1200
G1 X138.18 Y10.701 Z0 F1200
G1 X138.536 Y10.475 Z0 F1200
G1 X138.858 Y10.226 Z0 F1200
G1 X139.146 Y9.957 Z0 F1200
G1 X139.397 Y9.668 Z0 F1200
G1 X139.607 Y9.362 Z0 F1200
G1 X139.775 Y9.041 Z0 F1200
G1 X139.898 Y8.705 Z0 F1200
G1 X139.974 Y8.358 Z0 F1200
G1 X140 Y8 Z0 F1200
G1 X139.974 Y7.642 Z0 F1200
G1 X139.898 Y7.295 Z0 F1200
G1 X139.775 Y6.959 Z0 F1200
G1 X139.607 Y6.638 Z0 F1200
G1 X139.397 Y6.332 Z0 F1200
G1 X139.146 Y6.043 Z0 F1200
G1 X138.858 Y5.774 Z0 F1200
G1 X138.536 Y5.525 Z0 F1200
G1 X138.18 Y5.299 Z0 F1200
G1 X137.796 Y5.098 Z0 F1200
G1 X137.383 Y4.922 Z0 F1200
G1 X136.946 Y4.775 Z0 F1200
G1 X136.487 Y4.657 Z0 F1200
G1 X136.008 Y4.571 Z0 F1200
G1 X135.511 Y4.518 Z0 F1200
G1 X135 Y4.5 Z0 F1200
G1 X134.489 Y4.518 Z0 F1200
G1 X133.992 Y4.571 Z0 F1200
G1 X133.513 Y4.657 Z0 F1200
G1 X133.054 Y4.775 Z0 F1200
G1 X132.617 Y4.922 Z0 F1200
G1 X132.204 Y5.098 Z0 F1200
G1 X131.82 Y5.299 Z0 F1200
G1 X131.464 Y5.525 Z0 F1200
G1 X131.142 Y5.774 Z0 F1200
G1 X130.854 Y6.043 Z0 F1200
G1 X130.603 Y6.332 Z0 F1200
G1 X130.393 Y6.638 Z0 F1200
G1 X130.225 Y6.959 Z0 F1200
G1 Z7 F800;         ; Raise from color
G1 X124 Y8 Z1 F1200;     ; Movement in paint
G1 X114 Y18 Z8 F500;     ; Move in paint
G1 F1200;           ; Set feed rate
G0 Z2 F1000 ; Safety Lift
;Cut @ 1500 mm/min, 80% power

M8
G0 Z3.5 F1000
; --- FIX X Backlash ---
G0 X43.649 Y34.009 F1200
; --- FIX Y Backlash ---
G0 X43.649 Y35.309 F1200
G0 X34.347 Y39.722 Z3.5
G1 Z0 F1000
;Layer C3
G1 X34.285 Y39.711 Z0 S800 F1600
G1 X34.138 Y39.701 Z0 F1600
G1 X33.918 Y39.692 Z0 F1600
G1 X33.632 Y39.684 Z0 F1600
G1 X33.291 Y39.678 Z0 F1600
G1 X32.903 Y39.673 Z0 F1600
G1 X32.48 Y39.669 Z0 F1600
G1 X31.723 Z0 F1600
G1 X31.187 Z0 F1600
G1 X30.564 Y39.677 Z0 F1600
G1 X30.257 Y39.685 Z0 F1600
G1 X30.028 Y39.696 Z0 F1600
G1 X29.868 Y39.71 Z0 F1600
G1 X29.77 Y39.728 Z0 F1600
G1 X29.726 Y39.75 Z0 F1600
G1 X29.709 Y39.785 Z0 F1600
G1 X29.686 Y39.853 Z0 F1600
G1 X29.658 Y39.95 Z0 F1600
G1 X29.626 Y40.072 Z0 F1600
G1 X29.555 Y40.375 Z0 F1600
G1 X29.481 Y40.73 Z0 F1600
G1 X29.402 Y41.123 Z0 F1600
G1 X29.242 Y41.902 Z0 F1600
G1 X29.129 Y42.436 Z0 F1600
G1 X29.08 Y42.683 Z0 F1600
G1 X29.039 Y42.904 Z0 F1600
G1 X29.012 Y43.07 Z0 F1600
G1 X28.997 Y43.184 Z0 F1600
G1 X28.983 Y43.268 Z0 F1600
G1 X28.952 Y43.329 Z0 F1600
G1 X28.89 Y43.374 Z0 F1600
G1 X28.783 Y43.411 Z0 F1600
G1 X28.615 Y43.447 Z0 F1600
G1 X28.371 Y43.49 Z0 F1600
G1 X27.882 Y43.572 Z0 F1600
G1 X27.76 Y43.59 Z0 F1600
G1 X27.665 Y43.6 Z0 F1600
G1 X27.592 Z0 F1600
G1 X27.495 Y43.581 Z0 F1600
; --- FIX Y Backlash ---
G0 X27.495 Y42.281 F1200
G1 X27.43 Y42.227 Z0 F1600
G1 X27.402 Y42.191 Z0 F1600
G1 X27.299 Y42.046 Z0 F1600
G1 X27.051 Y41.683 Z0 F1600
G1 X26.843 Y41.372 Z0 F1600
G1 X26.384 Y40.678 Z0 F1600
G1 X25.827 Y39.817 Z0 F1600
G1 X25.714 Y39.651 Z0 F1600
G1 X25.632 Y39.538 Z0 F1600
G1 X25.593 Y39.497 Z0 F1600
G1 X25.586 Y39.514 Z0 F1600
G1 X25.58 Y39.564 Z0 F1600
; --- FIX Y Backlash ---
G0 X25.58 Y40.864 F1200
G1 X25.574 Y40.942 Z0 F1600
G1 X25.569 Y41.045 Z0 F1600
G1 X25.561 Y41.315 Z0 F1600
G1 X25.556 Y41.901 Z0 F1600
G1 X25.551 Y42.111 Z0 F1600
G1 X25.541 Y42.286 Z0 F1600
G1 X25.525 Y42.437 Z0 F1600
G1 X25.469 Y42.707 Z0 F1600
G1 X25.369 Y43.01 Z0 F1600
G1 X25.183 Y43.529 Z0 F1600
; --- FIX X Backlash ---
G0 X26.483 Y43.529 F1200
G1 X27.725 Y45.386 Z0 F1600
G1 X28.211 Y46.109 Z0 F1600
G1 X28.616 Y46.705 Z0 F1600
G1 X28.897 Y47.113 Z0 F1600
G1 X28.978 Y47.227 Z0 F1600
G1 X29.012 Y47.27 Z0 F1600
G1 X29.063 Z0 F1600
G1 X29.17 Y47.255 Z0 F1600
G1 X29.316 Y47.223 Z0 F1600
G1 X29.486 Y47.179 Z0 F1600
; --- FIX Y Backlash ---
G0 X29.486 Y45.879 F1200
G1 X29.831 Y45.794 Z0 F1600
G1 X30.211 Y45.721 Z0 F1600
G1 X30.62 Y45.659 Z0 F1600
G1 X31.054 Y45.608 Z0 F1600
G1 X31.975 Y45.54 Z0 F1600
G1 X32.936 Y45.517 Z0 F1600
G1 X33.896 Y45.539 Z0 F1600
; --- FIX Y Backlash ---
G0 X33.896 Y46.839 F1200
G1 X34.817 Y46.906 Z0 F1600
G1 X35.249 Y46.956 Z0 F1600
G1 X35.657 Y47.018 Z0 F1600
G1 X36.036 Y47.091 Z0 F1600
G1 X36.379 Y47.175 Z0 F1600
G1 X36.576 Y47.229 Z0 F1600
G1 X36.729 Y47.267 Z0 F1600
G1 X36.843 Y47.291 Z0 F1600
G1 X36.927 Y47.298 Z0 F1600
G1 X37.03 Y47.268 Z0 F1600
; --- FIX Y Backlash ---
G0 X37.03 Y45.968 F1200
G1 X37.093 Y45.878 Z0 F1600
G1 X37.121 Y45.829 Z0 F1600
G1 X37.26 Y45.615 Z0 F1600
G1 X37.62 Y45.079 Z0 F1600
G1 X37.922 Y44.638 Z0 F1600
G1 X38.938 Y43.163 Z0 F1600
G1 X39.032 Y43.017 Z0 F1600
G1 X39.101 Y42.89 Z0 F1600
G1 X39.138 Y42.795 Z0 F1600
G1 Y42.746 Z0 F1600
G1 X39.112 Y42.733 Z0 F1600
; --- FIX X Backlash ---
G0 X37.812 Y42.733 F1200
G1 X37.758 Y42.713 Z0 F1600
G1 X37.573 Y42.656 Z0 F1600
G1 X37.304 Y42.581 Z0 F1600
G1 X36.977 Y42.493 Z0 F1600
G1 X36.234 Y42.305 Z0 F1600
G1 X35.531 Y42.141 Z0 F1600
G1 X35.138 Y42.055 Z0 F1600
G1 X34.634 Y39.501 Z0 F1600
G1 X34.548 Y39.098 Z0 F1600
G1 X34.466 Y38.761 Z0 F1600
G1 X34.429 Y38.628 Z0 F1600
G1 X34.396 Y38.524 Z0 F1600
G1 X34.368 Y38.454 Z0 F1600
G1 X34.347 Y38.422 Z0 F1600
G0 Z3.5 F1000
; --- FIX X Backlash ---
G0 X35.647 Y38.422 F1200
; --- FIX Y Backlash ---
G0 X35.647 Y39.722 F1200
G0 X44.691 Y47.183 Z3.5
G1 Z0 F1000
; --- FIX X Backlash ---
G0 X43.391 Y47.183 F1200
G1 X42.436 Y49.057 Z0 F1600
G1 X42.199 Y49.517 Z0 F1600
G1 X42.023 Y49.854 Z0 F1600
G1 X41.932 Y50.02 Z0 F1600
G1 X41.891 Y50.117 Z0 F1600
G1 X41.93 Y50.223 Z0 F1600
; --- FIX X Backlash ---
G0 X43.23 Y50.223 F1200
G1 X43.292 Y50.296 Z0 F1600
G1 X43.388 Y50.392 Z0 F1600
G1 X43.523 Y50.518 Z0 F1600
G1 X43.703 Y50.68 Z0 F1600
G1 X44.459 Y51.386 Z0 F1600
G1 X45.156 Y52.092 Z0 F1600
G1 X45.796 Y52.802 Z0 F1600
G1 X46.382 Y53.519 Z0 F1600
G1 X46.915 Y54.245 Z0 F1600
G1 X47.398 Y54.983 Z0 F1600
G1 X47.834 Y55.737 Z0 F1600
G1 X48.224 Y56.51 Z0 F1600
G1 X48.38 Y56.861 Z0 F1600
G1 X48.543 Y57.264 Z0 F1600
G1 X48.708 Y57.702 Z0 F1600
G1 X48.869 Y58.161 Z0 F1600
G1 X49.022 Y58.626 Z0 F1600
G1 X49.161 Y59.08 Z0 F1600
G1 X49.281 Y59.51 Z0 F1600
G1 X49.377 Y59.899 Z0 F1600
G1 X49.552 Y60.8 Z0 F1600
G1 X49.678 Y61.729 Z0 F1600
G1 X49.755 Y62.676 Z0 F1600
G1 X49.783 Y63.628 Z0 F1600
G1 X49.762 Y64.576 Z0 F1600
; --- FIX X Backlash ---
G0 X48.462 Y64.576 F1200
G1 X48.392 Y65.507 Z0 F1600
G1 X48.273 Y66.41 Z0 F1600
G1 X48.106 Y67.274 Z0 F1600
G1 X47.957 Y67.857 Z0 F1600
G1 X47.765 Y68.528 Z0 F1600
G1 X47.666 Y68.855 Z0 F1600
G1 X47.57 Y69.154 Z0 F1600
G1 X47.483 Y69.407 Z0 F1600
G1 X47.411 Y69.599 Z0 F1600
G1 X47.205 Y70.098 Z0 F1600
G1 X46.655 Y71.228 Z0 F1600
G1 X46.097 Y72.263 Z0 F1600
G1 X45.977 Y72.443 Z0 F1600
G1 X45.815 Y72.68 Z0 F1600
G1 X45.431 Y73.232 Z0 F1600
G1 X45.08 Y73.728 Z0 F1600
G1 X44.958 Y73.896 Z0 F1600
G1 X44.894 Y73.978 Z0 F1600
G1 X44.759 Y74.136 Z0 F1600
G1 X44.529 Y74.414 Z0 F1600
G1 X44.23 Y74.765 Z0 F1600
G1 X43.931 Y75.101 Z0 F1600
G1 X43.812 Y75.233 Z0 F1600
G1 X43.707 Y75.353 Z0 F1600
G1 X43.629 Y75.447 Z0 F1600
G1 X43.589 Y75.503 Z0 F1600
G1 Y75.548 Z0 F1600
G1 X43.607 Y75.636 Z0 F1600
G1 X43.651 Y75.768 Z0 F1600
; --- FIX X Backlash ---
G0 X44.951 Y75.768 F1200
G1 X45.019 Y75.946 Z0 F1600
G1 X45.112 Y76.17 Z0 F1600
G1 X45.23 Y76.442 Z0 F1600
G1 X45.373 Y76.763 Z0 F1600
G1 X45.542 Y77.134 Z0 F1600
G1 X45.669 Y77.423 Z0 F1600
G1 X45.944 Y78.068 Z0 F1600
G1 X46.049 Y78.306 Z0 F1600
G1 X46.143 Y78.512 Z0 F1600
G1 X46.225 Y78.684 Z0 F1600
G1 X46.296 Y78.82 Z0 F1600
G1 X46.353 Y78.92 Z0 F1600
G1 X46.397 Y78.98 Z0 F1600
G1 X46.426 Y79.001 Z0 F1600
G1 X46.478 Y78.972 Z0 F1600
; --- FIX Y Backlash ---
G0 X46.478 Y77.672 F1200
G1 X46.579 Y77.593 Z0 F1600
G1 X46.714 Y77.476 Z0 F1600
G1 X46.869 Y77.333 Z0 F1600
G1 X47.536 Y76.7 Z0 F1600
; --- FIX Y Backlash ---
G0 X47.536 Y78 F1200
G1 X48.717 Y78.55 Z0 F1600
G1 X49.749 Y79.018 Z0 F1600
G1 X50.072 Y79.16 Z0 F1600
G1 X50.341 Y79.267 Z0 F1600
G1 X50.562 Y79.339 Z0 F1600
G1 X50.741 Y79.376 Z0 F1600
G1 X50.883 Y79.38 Z0 F1600
G1 X50.995 Y79.351 Z0 F1600
; --- FIX Y Backlash ---
G0 X50.995 Y78.051 F1200
G1 X51.08 Y77.99 Z0 F1600
G1 X51.146 Y77.897 Z0 F1600
G1 X51.173 Y77.854 Z0 F1600
G1 X51.302 Y77.665 Z0 F1600
G1 X51.646 Y77.174 Z0 F1600
G1 X51.949 Y76.748 Z0 F1600
G1 X52.643 Y75.782 Z0 F1600
G1 X53.329 Y74.839 Z0 F1600
G1 X53.487 Y74.614 Z0 F1600
G1 X53.616 Y74.411 Z0 F1600
G1 X53.704 Y74.252 Z0 F1600
G1 X53.736 Y74.16 Z0 F1600
G1 X53.703 Y74.077 Z0 F1600
; --- FIX X Backlash ---
G0 X52.403 Y74.077 F1200
G1 X52.314 Y73.943 Z0 F1600
G1 X52.182 Y73.776 Z0 F1600
G1 X52.02 Y73.596 Z0 F1600
G1 X51.04 Y72.559 Z0 F1600
G1 X50.608 Y72.096 Z0 F1600
G1 X50.448 Y71.921 Z0 F1600
G1 X50.321 Y71.777 Z0 F1600
G1 X50.223 Y71.662 Z0 F1600
G1 X50.102 Y71.497 Z0 F1600
G1 X50.058 Y71.394 Z0 F1600
G1 X50.064 Y71.318 Z0 F1600
; --- FIX X Backlash ---
G0 X51.364 Y71.318 F1200
G1 X51.44 Y71.11 Z0 F1600
G1 X51.514 Y70.92 Z0 F1600
G1 X51.606 Y70.695 Z0 F1600
G1 X51.938 Y69.904 Z0 F1600
G1 X52.242 Y69.149 Z0 F1600
G1 X52.324 Y68.962 Z0 F1600
G1 X52.393 Y68.82 Z0 F1600
G1 X52.439 Y68.745 Z0 F1600
G1 X52.481 Y68.723 Z0 F1600
G1 X52.565 Y68.703 Z0 F1600
G1 X52.696 Y68.685 Z0 F1600
G1 X52.88 Y68.669 Z0 F1600
G1 X53.121 Y68.655 Z0 F1600
G1 X53.423 Y68.642 Z0 F1600
G1 X53.793 Y68.63 Z0 F1600
G1 X54.737 Y68.605 Z0 F1600
G1 X55.136 Y68.593 Z0 F1600
G1 X55.444 Y68.579 Z0 F1600
G1 X55.672 Y68.564 Z0 F1600
G1 X55.835 Y68.546 Z0 F1600
G1 X55.946 Y68.524 Z0 F1600
G1 X56.018 Y68.497 Z0 F1600
G1 X56.064 Y68.463 Z0 F1600
G1 X56.118 Y68.372 Z0 F1600
G1 X56.177 Y68.21 Z0 F1600
G1 X56.235 Y67.99 Z0 F1600
G1 X56.288 Y67.726 Z0 F1600
G1 X56.379 Y67.226 Z0 F1600
G1 X56.489 Y66.638 Z0 F1600
G1 X56.825 Y64.874 Z0 F1600
G1 X56.889 Y64.516 Z0 F1600
G1 X56.935 Y64.207 Z0 F1600
G1 X56.95 Y64.081 Z0 F1600
G1 X56.959 Y63.979 Z0 F1600
G1 Y63.906 Z0 F1600
G1 X56.956 Y63.866 Z0 F1600
G1 X56.917 Y63.791 Z0 F1600
; --- FIX X Backlash ---
G0 X55.617 Y63.791 F1200
G1 X55.503 Y63.72 Z0 F1600
G1 X55.384 Y63.672 Z0 F1600
G1 X55.208 Y63.607 Z0 F1600
G1 X54.18 Y63.246 Z0 F1600
G1 X53.75 Y63.091 Z0 F1600
G1 X53.349 Y62.945 Z0 F1600
G1 X52.991 Y62.811 Z0 F1600
G1 X52.686 Y62.694 Z0 F1600
G1 X52.448 Y62.599 Z0 F1600
G1 X52.288 Y62.531 Z0 F1600
G1 X52.217 Y62.492 Z0 F1600
G1 X52.205 Y62.457 Z0 F1600
G1 X52.192 Y62.376 Z0 F1600
G1 X52.177 Y62.254 Z0 F1600
G1 X52.162 Y62.096 Z0 F1600
G1 X52.13 Y61.696 Z0 F1600
G1 X52.102 Y61.217 Z0 F1600
G1 X52.075 Y60.723 Z0 F1600
G1 X52.049 Y60.283 Z0 F1600
G1 X52.027 Y59.944 Z0 F1600
G1 X52.012 Y59.755 Z0 F1600
G1 X52.005 Y59.617 Z0 F1600
G1 X52.037 Y59.525 Z0 F1600
; --- FIX X Backlash ---
G0 X53.337 Y59.525 F1200
G1 X53.436 Y59.445 Z0 F1600
G1 X53.627 Y59.342 Z0 F1600
G1 X54.481 Y58.893 Z0 F1600
G1 X55.35 Y58.412 Z0 F1600
G1 X55.728 Y58.195 Z0 F1600
G1 X56.036 Y58.012 Z0 F1600
G1 X56.156 Y57.938 Z0 F1600
G1 X56.249 Y57.878 Z0 F1600
G1 X56.312 Y57.833 Z0 F1600
G1 X56.343 Y57.806 Z0 F1600
G1 X56.386 Y57.675 Z0 F1600
G1 X56.378 Y57.468 Z0 F1600
G1 X56.353 Y57.332 Z0 F1600
G1 X56.315 Y57.17 Z0 F1600
; --- FIX X Backlash ---
G0 X55.015 Y57.17 F1200
G1 X54.963 Y56.981 Z0 F1600
G1 X54.17 Y54.435 Z0 F1600
G1 X54.079 Y54.156 Z0 F1600
G1 X53.995 Y53.91 Z0 F1600
G1 X53.92 Y53.7 Z0 F1600
G1 X53.854 Y53.529 Z0 F1600
G1 X53.798 Y53.398 Z0 F1600
G1 X53.753 Y53.309 Z0 F1600
G1 X53.719 Y53.266 Z0 F1600
G1 X53.675 Y53.236 Z0 F1600
G1 X53.619 Y53.216 Z0 F1600
G1 X53.528 Y53.207 Z0 F1600
G1 X53.376 Y53.211 Z0 F1600
G1 X53.269 Y53.219 Z0 F1600
G1 X52.978 Y53.246 Z0 F1600
G1 X52.564 Y53.289 Z0 F1600
; --- FIX Y Backlash ---
G0 X52.564 Y54.589 F1200
G1 X50.874 Y54.776 Z0 F1600
G1 X50.686 Y54.794 Z0 F1600
G1 X50.395 Y54.81 Z0 F1600
G1 X50.197 Y54.792 Z0 F1600
; --- FIX Y Backlash ---
G0 X50.197 Y53.492 F1200
G1 X50.064 Y53.435 Z0 F1600
G1 X49.968 Y53.333 Z0 F1600
G1 X49.882 Y53.179 Z0 F1600
G1 X49.776 Y52.968 Z0 F1600
G1 X49.464 Y52.393 Z0 F1600
G1 X49.106 Y51.781 Z0 F1600
G1 X48.954 Y51.528 Z0 F1600
G1 X48.83 Y51.31 Z0 F1600
G1 X48.746 Y51.151 Z0 F1600
G1 X48.715 Y51.073 Z0 F1600
G1 X48.735 Y51.029 Z0 F1600
; --- FIX X Backlash ---
G0 X50.035 Y51.029 F1200
G1 X50.091 Y50.931 Z0 F1600
G1 X50.18 Y50.785 Z0 F1600
G1 X50.441 Y50.375 Z0 F1600
G1 X50.785 Y49.847 Z0 F1600
G1 X51.178 Y49.251 Z0 F1600
G1 X51.361 Y48.967 Z0 F1600
G1 X51.525 Y48.707 Z0 F1600
G1 X51.667 Y48.476 Z0 F1600
G1 X51.782 Y48.279 Z0 F1600
G1 X51.869 Y48.123 Z0 F1600
G1 X51.923 Y48.012 Z0 F1600
G1 X51.942 Y47.952 Z0 F1600
G1 X51.929 Y47.901 Z0 F1600
G1 X51.891 Y47.829 Z0 F1600
; --- FIX X Backlash ---
G0 X50.591 Y47.829 F1200
G1 X50.526 Y47.735 Z0 F1600
G1 X50.433 Y47.617 Z0 F1600
G1 X50.312 Y47.475 Z0 F1600
G1 X50.16 Y47.306 Z0 F1600
G1 X49.978 Y47.11 Z0 F1600
G1 X49.763 Y46.886 Z0 F1600
G1 X49.172 Y46.273 Z0 F1600
G1 X48.68 Y45.768 Z0 F1600
G1 X48.28 Y45.362 Z0 F1600
G1 X47.964 Y45.048 Z0 F1600
G1 X47.724 Y44.816 Z0 F1600
G1 X47.629 Y44.73 Z0 F1600
G1 X47.551 Y44.661 Z0 F1600
G1 X47.439 Y44.573 Z0 F1600
G1 X47.379 Y44.546 Z0 F1600
G1 X47.329 Y44.566 Z0 F1600
; --- FIX Y Backlash ---
G0 X47.329 Y45.866 F1200
G1 X47.222 Y45.925 Z0 F1600
G1 X47.066 Y46.018 Z0 F1600
G1 X46.868 Y46.141 Z0 F1600
G1 X46.633 Y46.289 Z0 F1600
G1 X46.369 Y46.46 Z0 F1600
G1 X46.081 Y46.648 Z0 F1600
G1 X45.777 Y46.849 Z0 F1600
G1 X44.274 Y47.852 Z0 F1600
; --- FIX Y Backlash ---
G0 X44.274 Y46.552 F1200
G1 X43.391 Y45.883 Z0 F1600
G0 Z3.5 F1000

; Color picking sequence
G1 Z10 F1000;         ; Raise brush
G0 X131 Y5 F1200;    ; Rapid move to color 1
G1 Z10 F1000;         ; Raise brush
G0 X131 Y5 F1200;    ; Rapid move to color 1
G1 Z0 F1000;         ; Lower into color
G1 X130.102 Y7.295 Z0 S800 F1200
G1 X130.026 Y7.642 Z0 F1200
G1 X130 Y8 Z0 F1200
G1 X130.026 Y8.358 Z0 F1200
G1 X130.102 Y8.705 Z0 F1200
G1 X130.225 Y9.041 Z0 F1200
G1 X130.393 Y9.362 Z0 F1200
G1 X130.603 Y9.668 Z0 F1200
G1 X130.854 Y9.957 Z0 F1200
G1 X131.142 Y10.226 Z0 F1200
G1 X131.464 Y10.475 Z0 F1200
G1 X131.82 Y10.701 Z0 F1200
G1 X132.204 Y10.902 Z0 F1200
G1 X132.617 Y11.078 Z0 F1200
G1 X133.054 Y11.225 Z0 F1200
G1 X133.513 Y11.343 Z0 F1200
G1 X133.992 Y11.429 Z0 F1200
G1 X134.489 Y11.482 Z0 F1200
G1 X135 Y11.5 Z0 F1200
G1 X135.511 Y11.482 Z0 F1200
G1 X136.008 Y11.429 Z0 F1200
G1 X136.487 Y11.343 Z0 F1200
G1 X136.946 Y11.225 Z0 F1200
G1 X137.383 Y11.078 Z0 F1200
G1 X137.796 Y10.902 Z0 F1200
G1 X138.18 Y10.701 Z0 F1200
G1 X138.536 Y10.475 Z0 F1200
G1 X138.858 Y10.226 Z0 F1200
G1 X139.146 Y9.957 Z0 F1200
G1 X139.397 Y9.668 Z0 F1200
G1 X139.607 Y9.362 Z0 F1200
G1 X139.775 Y9.041 Z0 F1200
G1 X139.898 Y8.705 Z0 F1200
G1 X139.974 Y8.358 Z0 F1200
G1 X140 Y8 Z0 F1200
G1 X139.974 Y7.642 Z0 F1200
G1 X139.898 Y7.295 Z0 F1200
G1 X139.775 Y6.959 Z0 F1200
G1 X139.607 Y6.638 Z0 F1200
G1 X139.397 Y6.332 Z0 F1200
G1 X139.146 Y6.043 Z0 F1200
G1 X138.858 Y5.774 Z0 F1200
G1 X138.536 Y5.525 Z0 F1200
G1 X138.18 Y5.299 Z0 F1200
G1 X137.796 Y5.098 Z0 F1200
G1 X137.383 Y4.922 Z0 F1200
G1 X136.946 Y4.775 Z0 F1200
G1 X136.487 Y4.657 Z0 F1200
G1 X136.008 Y4.571 Z0 F1200
G1 X135.511 Y4.518 Z0 F1200
G1 X135 Y4.5 Z0 F1200
G1 X134.489 Y4.518 Z0 F1200
G1 X133.992 Y4.571 Z0 F1200
G1 X133.513 Y4.657 Z0 F1200
G1 X133.054 Y4.775 Z0 F1200
G1 X132.617 Y4.922 Z0 F1200
G1 X132.204 Y5.098 Z0 F1200
G1 X131.82 Y5.299 Z0 F1200
G1 X131.464 Y5.525 Z0 F1200
G1 X131.142 Y5.774 Z0 F1200
G1 X130.854 Y6.043 Z0 F1200
G1 X130.603 Y6.332 Z0 F1200
G1 X130.393 Y6.638 Z0 F1200
G1 X130.225 Y6.959 Z0 F1200
G1 Z7 F800;         ; Raise from color
G1 X124 Y8 Z1 F1200;     ; Movement in paint
G1 X114 Y18 Z8 F500;     ; Move in paint
G1 F1200;           ; Set feed rate
G0 Z2 F1000 ; Safety Lift
G0 X43.391 Y45.883 F1200 ; Return to pos
; --- FIX Y Backlash ---
G0 X43.391 Y47.183 F1200
G0 X21.54 Y50.165 Z3.5
G1 Z0 F1000
; --- FIX Y Backlash ---
G0 X21.54 Y48.865 F1200
G1 X21.517 Y48.804 Z0 F1600
G1 X21.454 Y48.675 Z0 F1600
G1 X21.362 Y48.496 Z0 F1600
G1 X21.097 Y48.01 Z0 F1600
G1 X20.685 Y47.236 Z0 F1600
G1 X20.128 Y46.173 Z0 F1600
G1 X20.017 Y45.965 Z0 F1600
G1 X19.97 Y45.882 Z0 F1600
G1 X19.934 Y45.895 Z0 F1600
; --- FIX Y Backlash ---
G0 X19.934 Y47.195 F1200
G1 X19.852 Y47.251 Z0 F1600
G1 X19.736 Y47.339 Z0 F1600
G1 X19.455 Y47.572 Z0 F1600
G1 X19.326 Y47.676 Z0 F1600
G1 X19.224 Y47.756 Z0 F1600
G1 X19.164 Y47.799 Z0 F1600
G1 X19.131 Y47.795 Z0 F1600
G1 X19.064 Y47.767 Z0 F1600
G1 X18.967 Y47.718 Z0 F1600
; --- FIX Y Backlash ---
G0 X18.967 Y46.418 F1200
G1 X18.844 Y46.35 Z0 F1600
G1 X18.532 Y46.165 Z0 F1600
G1 X18.156 Y45.931 Z0 F1600
G1 X17.33 Y45.389 Z0 F1600
G1 X16.597 Y44.869 Z0 F1600
G1 X16.434 Y44.752 Z0 F1600
G1 X16.297 Y44.667 Z0 F1600
G1 X16.179 Y44.615 Z0 F1600
G1 X16.074 Y44.595 Z0 F1600
G1 X15.975 Y44.608 Z0 F1600
G1 X15.874 Y44.652 Z0 F1600
; --- FIX Y Backlash ---
G0 X15.874 Y45.952 F1200
G1 X15.765 Y46.028 Z0 F1600
G1 X15.641 Y46.136 Z0 F1600
G1 X15.554 Y46.219 Z0 F1600
G1 X15.42 Y46.351 Z0 F1600
G1 X15.041 Y46.735 Z0 F1600
G1 X14.556 Y47.232 Z0 F1600
G1 X14.018 Y47.789 Z0 F1600
G1 X13.638 Y48.187 Z0 F1600
G1 X13.337 Y48.505 Z0 F1600
G1 X13.107 Y48.755 Z0 F1600
G1 X12.941 Y48.945 Z0 F1600
G1 X12.83 Y49.086 Z0 F1600
G1 X12.765 Y49.188 Z0 F1600
G1 X12.737 Y49.261 Z0 F1600
G1 X12.74 Y49.314 Z0 F1600
G1 X12.759 Y49.358 Z0 F1600
G1 X12.794 Y49.426 Z0 F1600
; --- FIX X Backlash ---
G0 X14.094 Y49.426 F1200
G1 X14.144 Y49.515 Z0 F1600
G1 X14.207 Y49.621 Z0 F1600
G1 X14.362 Y49.873 Z0 F1600
G1 X14.543 Y50.154 Z0 F1600
G1 X14.72 Y50.425 Z0 F1600
G1 X14.921 Y50.738 Z0 F1600
G1 X14.99 Y50.85 Z0 F1600
G1 X15.01 Y50.887 Z0 F1600
G1 X15.085 Y51.005 Z0 F1600
G1 X15.303 Y51.334 Z0 F1600
G1 X15.992 Y52.351 Z0 F1600
; --- FIX X Backlash ---
G0 X14.692 Y52.351 F1200
G1 X14.412 Y52.779 Z0 F1600
G1 X14.269 Y53.009 Z0 F1600
G1 X14.087 Y53.318 Z0 F1600
G1 X13.889 Y53.665 Z0 F1600
G1 X13.585 Y54.221 Z0 F1600
G1 X13.487 Y54.395 Z0 F1600
G1 X13.403 Y54.534 Z0 F1600
G1 X13.332 Y54.642 Z0 F1600
G1 X13.219 Y54.775 Z0 F1600
G1 X13.135 Y54.815 Z0 F1600
G1 X13.075 Y54.812 Z0 F1600
G1 X12.783 Y54.787 Z0 F1600
; --- FIX Y Backlash ---
G0 X12.783 Y53.487 F1200
G1 X12.023 Y53.414 Z0 F1600
G1 X11.034 Y53.315 Z0 F1600
G1 X10.713 Y53.285 Z0 F1600
G1 X10.428 Y53.262 Z0 F1600
G1 X10.182 Y53.245 Z0 F1600
G1 X9.979 Y53.234 Z0 F1600
G1 X9.823 Y53.229 Z0 F1600
G1 X9.717 Y53.232 Z0 F1600
G1 X9.665 Y53.241 Z0 F1600
G1 X9.622 Y53.287 Z0 F1600
; --- FIX Y Backlash ---
G0 X9.622 Y54.587 F1200
G1 X9.569 Y54.684 Z0 F1600
G1 X9.503 Y54.838 Z0 F1600
G1 X9.422 Y55.054 Z0 F1600
G1 X9.326 Y55.338 Z0 F1600
G1 X9.211 Y55.693 Z0 F1600
G1 X9.077 Y56.127 Z0 F1600
G1 X8.73 Y57.267 Z0 F1600
G1 X8.433 Y58.212 Z0 F1600
G1 X8.329 Y58.6 Z0 F1600
G1 X8.295 Y58.755 Z0 F1600
G1 X8.273 Y58.88 Z0 F1600
G1 X8.266 Y58.972 Z0 F1600
G1 X8.273 Y59.028 Z0 F1600
; --- FIX X Backlash ---
G0 X9.573 Y59.028 F1200
G1 X9.636 Y59.107 Z0 F1600
G1 X9.775 Y59.22 Z0 F1600
G1 X9.987 Y59.363 Z0 F1600
G1 X10.271 Y59.536 Z0 F1600
G1 X10.624 Y59.738 Z0 F1600
G1 X11.043 Y59.966 Z0 F1600
G1 X11.526 Y60.22 Z0 F1600
G1 X12.069 Y60.497 Z0 F1600
G1 X12.694 Y60.812 Z0 F1600
; --- FIX X Backlash ---
G0 X11.394 Y60.812 F1200
G1 X11.312 Y62.191 Z0 F1600
G1 X11.259 Y63.011 Z0 F1600
G1 X11.237 Y63.302 Z0 F1600
G1 X11.219 Y63.522 Z0 F1600
G1 X11.202 Y63.676 Z0 F1600
G1 X11.188 Y63.769 Z0 F1600
G1 X11.175 Y63.806 Z0 F1600
G1 X11.146 Y63.822 Z0 F1600
G1 X11.082 Y63.85 Z0 F1600
G1 X10.862 Y63.939 Z0 F1600
G1 X10.546 Y64.059 Z0 F1600
G1 X10.166 Y64.201 Z0 F1600
G1 X9.75 Y64.353 Z0 F1600
G1 X9.331 Y64.504 Z0 F1600
G1 X8.938 Y64.642 Z0 F1600
G1 X8.603 Y64.756 Z0 F1600
G1 X8.318 Y64.856 Z0 F1600
G1 X8.071 Y64.956 Z0 F1600
G1 X7.889 Y65.042 Z0 F1600
G1 X7.798 Y65.103 Z0 F1600
G1 X7.766 Y65.158 Z0 F1600
G1 X7.746 Y65.232 Z0 F1600
G1 X7.739 Y65.335 Z0 F1600
G1 X7.745 Y65.477 Z0 F1600
G1 X7.766 Y65.667 Z0 F1600
G1 X7.801 Y65.912 Z0 F1600
; --- FIX X Backlash ---
G0 X9.101 Y65.912 F1200
G1 X9.152 Y66.223 Z0 F1600
G1 X9.326 Y67.217 Z0 F1600
G1 X9.604 Y68.782 Z0 F1600
G1 X9.652 Y69.026 Z0 F1600
G1 X9.696 Y69.234 Z0 F1600
G1 X9.736 Y69.408 Z0 F1600
G1 X9.774 Y69.549 Z0 F1600
G1 X9.809 Y69.656 Z0 F1600
G1 X9.841 Y69.731 Z0 F1600
G1 X9.871 Y69.774 Z0 F1600
G1 X9.916 Y69.805 Z0 F1600
G1 X9.985 Y69.831 Z0 F1600
G1 X10.09 Y69.853 Z0 F1600
G1 X10.239 Y69.87 Z0 F1600
G1 X10.442 Y69.885 Z0 F1600
G1 X10.71 Y69.898 Z0 F1600
G1 X11.052 Y69.911 Z0 F1600
G1 X11.478 Y69.923 Z0 F1600
G1 X12.615 Y69.952 Z0 F1600
G1 X13.251 Y69.964 Z0 F1600
G1 X13.413 Y69.971 Z0 F1600
G1 X13.511 Y70.013 Z0 F1600
G1 X13.548 Y70.058 Z0 F1600
G1 X13.584 Y70.126 Z0 F1600
G1 X13.623 Y70.221 Z0 F1600
G1 X13.798 Y70.675 Z0 F1600
G1 X13.902 Y70.928 Z0 F1600
G1 X14.01 Y71.179 Z0 F1600
G1 X14.677 Y72.756 Z0 F1600
; --- FIX X Backlash ---
G0 X13.377 Y72.756 F1200
G1 X12.558 Y73.634 Z0 F1600
G1 X11.877 Y74.361 Z0 F1600
G1 X11.388 Y74.879 Z0 F1600
G1 X11.248 Y75.033 Z0 F1600
G1 X11.129 Y75.182 Z0 F1600
G1 X11.041 Y75.308 Z0 F1600
G1 X10.999 Y75.394 Z0 F1600
G1 X10.986 Y75.458 Z0 F1600
G1 X10.993 Y75.529 Z0 F1600
G1 X11.033 Y75.63 Z0 F1600
; --- FIX X Backlash ---
G0 X12.333 Y75.63 F1200
G1 X12.422 Y75.786 Z0 F1600
G1 X12.49 Y75.892 Z0 F1600
G1 X12.576 Y76.021 Z0 F1600
G1 X12.809 Y76.359 Z0 F1600
G1 X13.135 Y76.825 Z0 F1600
G1 X14.366 Y78.572 Z0 F1600
G1 X14.642 Y78.968 Z0 F1600
G1 X14.785 Y79.174 Z0 F1600
G1 X14.864 Y79.28 Z0 F1600
G1 X14.946 Y79.353 Z0 F1600
G1 X15.04 Y79.395 Z0 F1600
G1 X15.156 Y79.404 Z0 F1600
G1 X15.303 Y79.379 Z0 F1600
; --- FIX Y Backlash ---
G0 X15.303 Y78.079 F1200
G1 X15.492 Y78.02 Z0 F1600
G1 X15.731 Y77.926 Z0 F1600
G1 X16.029 Y77.798 Z0 F1600
G1 X16.384 Y77.64 Z0 F1600
G1 X17.212 Y77.265 Z0 F1600
G1 X18.457 Y76.693 Z0 F1600
; --- FIX Y Backlash ---
G0 X18.457 Y77.993 F1200
G1 X18.705 Y78.208 Z0 F1600
G1 X18.967 Y78.444 Z0 F1600
G1 X19.369 Y78.824 Z0 F1600
G1 X19.475 Y78.916 Z0 F1600
G1 X19.556 Y78.978 Z0 F1600
G1 X19.6 Y79.001 Z0 F1600
; --- FIX Y Backlash ---
G0 X19.6 Y77.701 F1200
G1 X19.658 Y77.647 Z0 F1600
G1 X19.722 Y77.518 Z0 F1600
G1 X19.817 Y77.292 Z0 F1600
G1 X19.947 Y77.003 Z0 F1600
G1 X20.312 Y76.212 Z0 F1600
G1 X20.684 Y75.392 Z0 F1600
G1 X20.992 Y74.702 Z0 F1600
G1 X21.068 Y74.522 Z0 F1600
G1 X21.107 Y74.382 Z0 F1600
G1 X21.104 Y74.263 Z0 F1600
G1 X21.056 Y74.145 Z0 F1600
; --- FIX X Backlash ---
G0 X19.756 Y74.145 F1200
G1 X19.658 Y74.009 Z0 F1600
G1 X19.506 Y73.833 Z0 F1600
G1 X19.295 Y73.599 Z0 F1600
G1 X18.831 Y73.062 Z0 F1600
G1 X18.395 Y72.523 Z0 F1600
G1 X17.986 Y71.98 Z0 F1600
G1 X17.604 Y71.433 Z0 F1600
G1 X17.249 Y70.879 Z0 F1600
G1 X16.92 Y70.32 Z0 F1600
G1 X16.616 Y69.752 Z0 F1600
G1 X16.338 Y69.176 Z0 F1600
G1 X16.084 Y68.59 Z0 F1600
G1 X15.854 Y67.993 Z0 F1600
G1 X15.648 Y67.384 Z0 F1600
G1 X15.465 Y66.763 Z0 F1600
G1 X15.305 Y66.127 Z0 F1600
G1 X15.168 Y65.477 Z0 F1600
G1 X15.052 Y64.811 Z0 F1600
G1 X14.957 Y64.128 Z0 F1600
G1 X14.937 Y63.925 Z0 F1600
G1 X14.921 Y63.692 Z0 F1600
G1 X14.909 Y63.433 Z0 F1600
G1 X14.902 Y63.152 Z0 F1600
G1 X14.899 Y62.542 Z0 F1600
G1 X14.911 Y61.896 Z0 F1600
G1 X14.938 Y61.248 Z0 F1600
G1 X14.977 Y60.631 Z0 F1600
; --- FIX X Backlash ---
G0 X16.277 Y60.631 F1200
G1 X16.329 Y60.08 Z0 F1600
G1 X16.392 Y59.629 Z0 F1600
G1 X16.599 Y58.601 Z0 F1600
G1 X16.857 Y57.614 Z0 F1600
G1 X17.166 Y56.662 Z0 F1600
G1 X17.529 Y55.742 Z0 F1600
G1 X17.949 Y54.847 Z0 F1600
G1 X18.427 Y53.973 Z0 F1600
G1 X18.965 Y53.115 Z0 F1600
G1 X19.566 Y52.268 Z0 F1600
G1 X19.686 Y52.115 Z0 F1600
G1 X19.829 Y51.94 Z0 F1600
G1 X19.995 Y51.746 Z0 F1600
G1 X20.177 Y51.537 Z0 F1600
G1 X20.583 Y51.09 Z0 F1600
G1 X21.019 Y50.625 Z0 F1600
G1 X21.458 Y50.173 Z0 F1600
G1 X21.873 Y49.76 Z0 F1600
G1 X22.063 Y49.577 Z0 F1600
G1 X22.238 Y49.415 Z0 F1600
G1 X22.392 Y49.277 Z0 F1600
G1 X22.647 Y49.065 Z0 F1600
G1 X22.747 Y48.974 Z0 F1600
G1 X22.815 Y48.904 Z0 F1600
G1 X22.84 Y48.865 Z0 F1600
G0 Z3.5 F1000
; --- FIX Y Backlash ---
G0 X22.84 Y50.165 F1200
G0 X25.841 Y78.735 Z3.5
G1 Z0 F1000
; --- FIX X Backlash ---
G0 X24.541 Y78.735 F1200
G1 X24.488 Y78.784 Z0 F1600
G1 X24.383 Y78.916 Z0 F1600
G1 X24.239 Y79.111 Z0 F1600
G1 X24.074 Y79.35 Z0 F1600
G1 X23.903 Y79.602 Z0 F1600
G1 X23.617 Y80.018 Z0 F1600
G1 X23.494 Y80.19 Z0 F1600
G1 X23.317 Y80.445 Z0 F1600
G1 X22.885 Y81.076 Z0 F1600
G1 X22.143 Y82.162 Z0 F1600
G1 X21.538 Y83.041 Z0 F1600
G1 X20.826 Y84.069 Z0 F1600
G1 X20.642 Y84.344 Z0 F1600
G1 X20.573 Y84.451 Z0 F1600
G1 X20.522 Y84.534 Z0 F1600
G1 X20.492 Y84.587 Z0 F1600
G1 X20.485 Y84.609 Z0 F1600
; --- FIX X Backlash ---
G0 X21.785 Y84.609 F1200
G1 X21.839 Y84.646 Z0 F1600
G1 X21.937 Y84.702 Z0 F1600
G1 X22.073 Y84.774 Z0 F1600
G1 X22.241 Y84.86 Z0 F1600
G1 X22.644 Y85.061 Z0 F1600
G1 X23.096 Y85.279 Z0 F1600
G1 X23.547 Y85.49 Z0 F1600
G1 X23.946 Y85.671 Z0 F1600
G1 X24.11 Y85.742 Z0 F1600
G1 X24.242 Y85.797 Z0 F1600
G1 X24.336 Y85.832 Z0 F1600
G1 X24.385 Y85.845 Z0 F1600
G1 X24.484 Y85.825 Z0 F1600
; --- FIX Y Backlash ---
G0 X24.484 Y84.525 F1200
G1 X24.589 Y84.459 Z0 F1600
G1 X24.714 Y84.331 Z0 F1600
G1 X24.875 Y84.129 Z0 F1600
G1 X25.179 Y83.738 Z0 F1600
G1 X25.766 Y83.011 Z0 F1600
G1 X26.243 Y82.397 Z0 F1600
G1 X26.375 Y82.231 Z0 F1600
G1 X26.478 Y82.103 Z0 F1600
G1 X26.628 Y81.931 Z0 F1600
G1 X26.722 Y81.808 Z0 F1600
G1 X26.779 Y81.738 Z0 F1600
G1 X26.835 Y81.706 Z0 F1600
G1 X26.905 Y81.709 Z0 F1600
; --- FIX Y Backlash ---
G0 X26.905 Y83.009 F1200
G1 X27.186 Y83.104 Z0 F1600
G1 X27.439 Y83.178 Z0 F1600
G1 X27.743 Y83.258 Z0 F1600
G1 X28.072 Y83.339 Z0 F1600
G1 X28.405 Y83.415 Z0 F1600
G1 X28.717 Y83.481 Z0 F1600
G1 X28.986 Y83.531 Z0 F1600
G1 X29.188 Y83.56 Z0 F1600
G1 X29.394 Y83.587 Z0 F1600
G1 X29.54 Y83.621 Z0 F1600
G1 X29.634 Y83.666 Z0 F1600
G1 X29.687 Y83.725 Z0 F1600
G1 X29.706 Y83.782 Z0 F1600
G1 X29.737 Y83.901 Z0 F1600
G1 X29.778 Y84.073 Z0 F1600
G1 X29.884 Y84.549 Z0 F1600
G1 X30.01 Y85.153 Z0 F1600
G1 X30.148 Y85.84 Z0 F1600
G1 X30.216 Y86.161 Z0 F1600
G1 X30.28 Y86.446 Z0 F1600
G1 X30.337 Y86.69 Z0 F1600
G1 X30.388 Y86.89 Z0 F1600
G1 X30.431 Y87.041 Z0 F1600
G1 X30.466 Y87.139 Z0 F1600
G1 X30.491 Y87.181 Z0 F1600
G1 X30.558 Y87.193 Z0 F1600
G1 X30.716 Y87.203 Z0 F1600
G1 X30.954 Y87.213 Z0 F1600
G1 X31.261 Y87.222 Z0 F1600
G1 X31.629 Y87.229 Z0 F1600
G1 X32.046 Y87.234 Z0 F1600
G1 X32.502 Y87.238 Z0 F1600
G1 X35.394 Z0 F1600
; --- FIX Y Backlash ---
G0 X35.394 Y85.938 F1200
G1 X35.492 Y85.79 Z0 F1600
G1 X35.538 Y85.685 Z0 F1600
G1 X35.593 Y85.509 Z0 F1600
G1 X35.65 Y85.287 Z0 F1600
G1 X35.701 Y85.043 Z0 F1600
G1 X35.933 Y83.843 Z0 F1600
G1 X36.236 Y82.322 Z0 F1600
G1 X36.83 Y82.239 Z0 F1600
G1 X37.129 Y82.189 Z0 F1600
G1 X37.502 Y82.114 Z0 F1600
G1 X37.904 Y82.025 Z0 F1600
G1 X38.285 Y81.931 Z0 F1600
G1 X39.146 Y81.705 Z0 F1600
; --- FIX Y Backlash ---
G0 X39.146 Y83.005 F1200
G1 X39.282 Y83.179 Z0 F1600
G1 X39.849 Y83.896 Z0 F1600
G1 X40.261 Y84.42 Z0 F1600
G1 X40.855 Y85.191 Z0 F1600
G1 X41.023 Y85.405 Z0 F1600
G1 X41.158 Y85.567 Z0 F1600
G1 X41.266 Y85.685 Z0 F1600
G1 X41.353 Y85.765 Z0 F1600
G1 X41.427 Y85.814 Z0 F1600
G1 X41.494 Y85.838 Z0 F1600
G1 X41.56 Y85.845 Z0 F1600
G1 X41.621 Y85.831 Z0 F1600
G1 X41.728 Y85.793 Z0 F1600
; --- FIX Y Backlash ---
G0 X41.728 Y84.493 F1200
G1 X41.872 Y84.434 Z0 F1600
G1 X42.049 Y84.357 Z0 F1600
G1 X42.47 Y84.162 Z0 F1600
G1 X42.936 Y83.936 Z0 F1600
G1 X43.394 Y83.705 Z0 F1600
G1 X43.788 Y83.497 Z0 F1600
G1 X43.944 Y83.409 Z0 F1600
G1 X44.064 Y83.338 Z0 F1600
G1 X44.141 Y83.285 Z0 F1600
G1 X44.168 Y83.255 Z0 F1600
G1 X44.141 Y83.18 Z0 F1600
; --- FIX X Backlash ---
G0 X42.841 Y83.18 F1200
G1 X42.777 Y83.088 Z0 F1600
G1 X42.747 Y83.051 Z0 F1600
G1 X42.626 Y82.887 Z0 F1600
G1 X42.332 Y82.475 Z0 F1600
G1 X41.842 Y81.78 Z0 F1600
G1 X41.4 Y81.143 Z0 F1600
G1 X41.044 Y80.618 Z0 F1600
G1 X40.546 Y79.901 Z0 F1600
G1 X40.188 Y79.378 Z0 F1600
G1 X39.151 Y77.851 Z0 F1600
G1 X39.037 Y77.689 Z0 F1600
G1 X38.933 Y77.557 Z0 F1600
G1 X38.852 Y77.468 Z0 F1600
G1 X38.804 Y77.435 Z0 F1600
G1 X38.741 Y77.451 Z0 F1600
G1 X38.619 Y77.496 Z0 F1600
; --- FIX Y Backlash ---
G0 X38.619 Y78.796 F1200
G1 X38.456 Y78.861 Z0 F1600
G1 X38.269 Y78.941 Z0 F1600
G1 X37.783 Y79.138 Z0 F1600
G1 X37.236 Y79.33 Z0 F1600
G1 X36.646 Y79.512 Z0 F1600
G1 X36.03 Y79.681 Z0 F1600
G1 X35.407 Y79.831 Z0 F1600
G1 X34.795 Y79.959 Z0 F1600
G1 X34.21 Y80.058 Z0 F1600
G1 X33.671 Y80.126 Z0 F1600
G1 X33.244 Y80.159 Z0 F1600
G1 X32.758 Y80.181 Z0 F1600
G1 X32.23 Y80.192 Z0 F1600
G1 X31.682 Z0 F1600
G1 X31.132 Y80.184 Z0 F1600
G1 X30.6 Y80.165 Z0 F1600
G1 X30.106 Y80.135 Z0 F1600
G1 X29.669 Y80.096 Z0 F1600
; --- FIX Y Backlash ---
G0 X29.669 Y78.796 F1200
G1 X28.421 Y78.612 Z0 F1600
G1 X27.173 Y78.339 Z0 F1600
G1 X26.572 Y78.176 Z0 F1600
G1 X26 Y77.997 Z0 F1600
G1 X25.464 Y77.807 Z0 F1600
G1 X24.976 Y77.606 Z0 F1600
G1 X24.823 Y77.54 Z0 F1600
G1 X24.69 Y77.485 Z0 F1600
G1 X24.591 Y77.449 Z0 F1600
G1 X24.541 Y77.435 Z0 F1600
M9
M5
G1 Z10 F1000

; Color picking sequence
G1 Z10 F1000;         ; Raise brush
G0 X131 Y5 F1200;    ; Rapid move to color 1
G1 Z10 F1000;         ; Raise brush
G0 X131 Y5 F1200;    ; Rapid move to color 1
G1 Z0 F1000;         ; Lower into color
G1 X130.102 Y7.295 Z0 S800 F1200
G1 X130.026 Y7.642 Z0 F1200
G1 X130 Y8 Z0 F1200
G1 X130.026 Y8.358 Z0 F1200
G1 X130.102 Y8.705 Z0 F1200
G1 X130.225 Y9.041 Z0 F1200
G1 X130.393 Y9.362 Z0 F1200
G1 X130.603 Y9.668 Z0 F1200
G1 X130.854 Y9.957 Z0 F1200
G1 X131.142 Y10.226 Z0 F1200
G1 X131.464 Y10.475 Z0 F1200
G1 X131.82 Y10.701 Z0 F1200
G1 X132.204 Y10.902 Z0 F1200
G1 X132.617 Y11.078 Z0 F1200
G1 X133.054 Y11.225 Z0 F1200
G1 X133.513 Y11.343 Z0 F1200
G1 X133.992 Y11.429 Z0 F1200
G1 X134.489 Y11.482 Z0 F1200
G1 X135 Y11.5 Z0 F1200
G1 X135.511 Y11.482 Z0 F1200
G1 X136.008 Y11.429 Z0 F1200
G1 X136.487 Y11.343 Z0 F1200
G1 X136.946 Y11.225 Z0 F1200
G1 X137.383 Y11.078 Z0 F1200
G1 X137.796 Y10.902 Z0 F1200
G1 X138.18 Y10.701 Z0 F1200
G1 X138.536 Y10.475 Z0 F1200
G1 X138.858 Y10.226 Z0 F1200
G1 X139.146 Y9.957 Z0 F1200
G1 X139.397 Y9.668 Z0 F1200
G1 X139.607 Y9.362 Z0 F1200
G1 X139.775 Y9.041 Z0 F1200
G1 X139.898 Y8.705 Z0 F1200
G1 X139.974 Y8.358 Z0 F1200
G1 X140 Y8 Z0 F1200
G1 X139.974 Y7.642 Z0 F1200
G1 X139.898 Y7.295 Z0 F1200
G1 X139.775 Y6.959 Z0 F1200
G1 X139.607 Y6.638 Z0 F1200
G1 X139.397 Y6.332 Z0 F1200
G1 X139.146 Y6.043 Z0 F1200
G1 X138.858 Y5.774 Z0 F1200
G1 X138.536 Y5.525 Z0 F1200
G1 X138.18 Y5.299 Z0 F1200
G1 X137.796 Y5.098 Z0 F1200
G1 X137.383 Y4.922 Z0 F1200
G1 X136.946 Y4.775 Z0 F1200
G1 X136.487 Y4.657 Z0 F1200
G1 X136.008 Y4.571 Z0 F1200
G1 X135.511 Y4.518 Z0 F1200
G1 X135 Y4.5 Z0 F1200
G1 X134.489 Y4.518 Z0 F1200
G1 X133.992 Y4.571 Z0 F1200
G1 X133.513 Y4.657 Z0 F1200
G1 X133.054 Y4.775 Z0 F1200
G1 X132.617 Y4.922 Z0 F1200
G1 X132.204 Y5.098 Z0 F1200
G1 X131.82 Y5.299 Z0 F1200
G1 X131.464 Y5.525 Z0 F1200
G1 X131.142 Y5.774 Z0 F1200
G1 X130.854 Y6.043 Z0 F1200
G1 X130.603 Y6.332 Z0 F1200
G1 X130.393 Y6.638 Z0 F1200
G1 X130.225 Y6.959 Z0 F1200
G1 Z7 F800;         ; Raise from color
G1 X124 Y8 Z1 F1200;     ; Movement in paint
G1 X114 Y18 Z8 F500;     ; Move in paint
G1 F1200;           ; Set feed rate
G0 Z2 F1000 ; Safety Lift
G0 X24.541 Y77.435 F1200 ; Return to pos
G1 Z10 F800


; Return to 2,0 wash and park
G1 Z10 F1000;        ; Raise brush
G0 X5 Y5 F1200;     ; Rapid move to clean
G1 Z-1 F800;         ; Lower brush
G1 X10 Y12 Z8 F1200;     ; Move
G1 Z-1 F800;         ; Lower
G1 X25 Y14 Z6 F800;     ; Move
G0 X5 Y5 F1200;     ; Rapid
G1 Z-1 F800;         ; Lower
G1 X15 Y12 Z8 F1200;     ; Move
G1 Z-1 F800;         ; Lower
G1 X25 Y14 Z6 F800;     ; Move
G1 Z10 F800;         ; Maintain
G0 X20 Y130 Z10 F500;; Move to park
M2;                 ; End program
