G90 ; Force absolute mode
;LightBurn 1.6.04
;Custom GCode device profile, absolute coords
;Bounds: X33.61 Y14.24 to X103.78 Y59.26
G00 G17 G40 G21 G54
M3
G1 Z10 F600
;Cut @ 444 mm/min, 80% power

M8
G0 Z3.5 F600
G0 X58.226 Y30.889 Z3.5
G1 Z0 F600
;Layer C3 Pass 1 of 2
G1 X58.938 Y31.634 Z0 F600
; --- FIX X Backlash ---
G0 X58.238 Y31.634 F410
G1 X57.785 Y32.378 Z0 F600
; --- FIX X Backlash ---
G0 X58.485 Y32.378 F410
G1 X58.743 Y34.773 Z0 F600
G1 X59.035 Y35.032 Z0 F600
; --- FIX X Backlash ---
G0 X58.335 Y35.032 F410
G1 X58.173 Y39.079 Z0 F600
G1 X57.623 Y39.208 Z0 F600
; --- FIX X Backlash ---
G0 X58.323 Y39.208 F410
; --- FIX Y Backlash ---
G0 X58.323 Y38.708 F410
G1 X58.452 Y35.083 Z0 F600
G1 X58.42 Y34.047 Z0 F600
G1 X58.582 Y33.205 Z0 F600
; --- FIX X Backlash ---
G0 X57.882 Y33.205 F410
G1 X57.785 Y32.169 Z0 F600
G1 X57.17 Y31.198 Z0 F600
; --- FIX X Backlash ---
G0 X57.87 Y31.198 F410
G1 X58.226 Y30.389 Z0 F600
;Layer C3 Pass 2 of 2
; --- FIX Y Backlash ---
G0 X58.226 Y30.889 F410
G1 X58.938 Y31.634 Z0 F600
; --- FIX X Backlash ---
G0 X58.238 Y31.634 F410
G1 X57.785 Y32.378 Z0 F600
; --- FIX X Backlash ---
G0 X58.485 Y32.378 F410
G1 X58.743 Y34.773 Z0 F600
G1 X59.035 Y35.032 Z0 F600
; --- FIX X Backlash ---
G0 X58.335 Y35.032 F410
G1 X58.173 Y39.079 Z0 F600
G1 X57.623 Y39.208 Z0 F600
; --- FIX X Backlash ---
G0 X58.323 Y39.208 F410
; --- FIX Y Backlash ---
G0 X58.323 Y38.708 F410
G1 X58.452 Y35.083 Z0 F600
G1 X58.42 Y34.047 Z0 F600
G1 X58.582 Y33.205 Z0 F600
; --- FIX X Backlash ---
G0 X57.882 Y33.205 F410
G1 X57.785 Y32.169 Z0 F600
G1 X57.17 Y31.198 Z0 F600
; --- FIX X Backlash ---
G0 X57.87 Y31.198 F410
G1 X58.226 Y30.389 Z0 F600
G0 Z3.5 F600
; --- FIX Y Backlash ---
G0 X58.226 Y30.889 F410
G0 X61.721 Y31.666 Z3.5 F600
G1 Z0 F600
;Layer C3 Pass 1 of 2
G1 X62.595 Y31.698 Z0 F600
G1 X62.628 Y31.957 Z0 F600
; --- FIX X Backlash ---
G0 X61.928 Y31.957 F410
G1 X61.151 Y32.216 Z0 F600
G1 X60.504 Y34.547 Z0 F600
; --- FIX X Backlash ---
G0 X61.204 Y34.547 F410
G1 X61.43 Y39.338 Z0 F600
; --- FIX X Backlash ---
G0 X60.73 Y39.338 F410
G1 X60.374 Y41.053 Z0 F600
G1 X60.309 Y41.992 Z0 F600
G1 X57.979 Z0 F600
; --- FIX X Backlash ---
G0 X58.679 Y41.992 F410
G1 X58.776 Y44.419 Z0 F600
; --- FIX X Backlash ---
G0 X58.076 Y44.419 F410
G1 X57.979 Y49.081 Z0 F600
G1 X57.558 Y49.242 Z0 F600
; --- FIX Y Backlash ---
G0 X57.558 Y48.742 F410
G1 Y43.887 Z0 F600
; --- FIX X Backlash ---
G0 X58.258 Y43.887 F410
G1 X58.549 Y43.758 Z0 F600
G1 X58.711 Y41.427 Z0 F600
G1 X61.009 Y41.298 Z0 F600
G1 X61.171 Y39.355 Z0 F600
; --- FIX X Backlash ---
G0 X60.471 Y39.355 F410
G1 X60.18 Y38.87 Z0 F600
G1 X60.212 Y33.982 Z0 F600
; --- FIX X Backlash ---
G0 X60.912 Y33.982 F410
G1 X61.236 Y32.979 Z0 F600
G1 X61.721 Y31.166 Z0 F600
;Layer C3 Pass 2 of 2
G1 X62.595 Y31.198 Z0 F600
; --- FIX Y Backlash ---
G0 X62.595 Y31.698 F410
G1 X62.628 Y31.957 Z0 F600
; --- FIX X Backlash ---
G0 X61.928 Y31.957 F410
G1 X61.151 Y32.216 Z0 F600
G1 X60.504 Y34.547 Z0 F600
; --- FIX X Backlash ---
G0 X61.204 Y34.547 F410
G1 X61.43 Y39.338 Z0 F600
; --- FIX X Backlash ---
G0 X60.73 Y39.338 F410
G1 X60.374 Y41.053 Z0 F600
G1 X60.309 Y41.992 Z0 F600
G1 X57.979 Z0 F600
; --- FIX X Backlash ---
G0 X58.679 Y41.992 F410
G1 X58.776 Y44.419 Z0 F600
; --- FIX X Backlash ---
G0 X58.076 Y44.419 F410
G1 X57.979 Y49.081 Z0 F600
G1 X57.558 Y49.242 Z0 F600
; --- FIX Y Backlash ---
G0 X57.558 Y48.742 F410
G1 Y43.887 Z0 F600
; --- FIX X Backlash ---
G0 X58.258 Y43.887 F410
G1 X58.549 Y43.758 Z0 F600
G1 X58.711 Y41.427 Z0 F600
G1 X61.009 Y41.298 Z0 F600
G1 X61.171 Y39.355 Z0 F600
; --- FIX X Backlash ---
G0 X60.471 Y39.355 F410
G1 X60.18 Y38.87 Z0 F600
G1 X60.212 Y33.982 Z0 F600
; --- FIX X Backlash ---
G0 X60.912 Y33.982 F410
G1 X61.236 Y32.979 Z0 F600
G1 X61.721 Y31.166 Z0 F600
G0 Z3.5 F600
; --- FIX Y Backlash ---
G0 X61.721 Y31.666 F410
G0 X64.149 Y34.353 Z3.5
G1 Z0 F600
;Layer C3 Pass 1 of 2
; --- FIX X Backlash ---
G0 X63.449 Y34.353 F410
G1 X63.19 Y35.518 Z0 F600
; --- FIX X Backlash ---
G0 X63.89 Y35.518 F410
G1 X64.084 Y37.848 Z0 F600
; --- FIX X Backlash ---
G0 X63.384 Y37.848 F410
G1 X63.255 Y39.273 Z0 F600
G1 X62.737 Y39.499 Z0 F600
; --- FIX X Backlash ---
G0 X63.437 Y39.499 F410
; --- FIX Y Backlash ---
G0 X63.437 Y38.999 F410
G1 X63.599 Y34.176 Z0 F600
G1 X64.149 Y33.853 Z0 F600
;Layer C3 Pass 2 of 2
; --- FIX X Backlash ---
G0 X63.449 Y33.853 F410
; --- FIX Y Backlash ---
G0 X63.449 Y34.353 F410
G1 X63.19 Y35.518 Z0 F600
; --- FIX X Backlash ---
G0 X63.89 Y35.518 F410
G1 X64.084 Y37.848 Z0 F600
; --- FIX X Backlash ---
G0 X63.384 Y37.848 F410
G1 X63.255 Y39.273 Z0 F600
G1 X62.737 Y39.499 Z0 F600
; --- FIX X Backlash ---
G0 X63.437 Y39.499 F410
; --- FIX Y Backlash ---
G0 X63.437 Y38.999 F410
G1 X63.599 Y34.176 Z0 F600
G1 X64.149 Y33.853 Z0 F600
G0 Z3.5 F600
G0 X66.091 Y33.885 Z3.5
G1 Z0 F600
;Layer C3 Pass 1 of 2
; --- FIX Y Backlash ---
G0 X66.091 Y34.385 F410
G1 X66.609 Y34.547 Z0 F600
; --- FIX X Backlash ---
G0 X65.909 Y34.547 F410
G1 X65.844 Y36.845 Z0 F600
G1 X65.877 Y39.435 Z0 F600
; --- FIX Y Backlash ---
G0 X65.877 Y38.935 F410
G1 X65.424 Y38.837 Z0 F600
; --- FIX X Backlash ---
G0 X66.124 Y38.837 F410
G1 X66.35 Y35.277 Z0 F600
; --- FIX X Backlash ---
G0 X65.65 Y35.277 F410
G1 X65.391 Y33.885 Z0 F600
;Layer C3 Pass 2 of 2
; --- FIX X Backlash ---
G0 X66.091 Y33.885 F410
; --- FIX Y Backlash ---
G0 X66.091 Y34.385 F410
G1 X66.609 Y34.547 Z0 F600
; --- FIX X Backlash ---
G0 X65.909 Y34.547 F410
G1 X65.844 Y36.845 Z0 F600
G1 X65.877 Y39.435 Z0 F600
; --- FIX Y Backlash ---
G0 X65.877 Y38.935 F410
G1 X65.424 Y38.837 Z0 F600
; --- FIX X Backlash ---
G0 X66.124 Y38.837 F410
G1 X66.35 Y35.277 Z0 F600
; --- FIX X Backlash ---
G0 X65.65 Y35.277 F410
G1 X65.391 Y33.885 Z0 F600
G0 Z3.5 F600
; --- FIX X Backlash ---
G0 X66.091 Y33.885 F410
; --- FIX Y Backlash ---
G0 X66.091 Y34.385 F410
G0 X68.681 Y35.097 Z3.5
G1 Z0 F600
;Layer C3 Pass 1 of 2
; --- FIX Y Backlash ---
G0 X68.681 Y34.597 F410
G1 X69.231 Y34.112 Z0 F600
; --- FIX Y Backlash ---
G0 X69.231 Y34.612 F410
G1 X69.211 Y35.065 Z0 F600
G1 X69.19 Y35.404 Z0 F600
G1 X69.178 Y35.535 Z0 F600
G1 X69.16 Y35.66 Z0 F600
G1 X69.145 Y35.854 Z0 F600
G1 X69.121 Y36.327 Z0 F600
G1 X69.106 Y36.699 Z0 F600
G1 X69.069 Y37.687 Z0 F600
G1 X69.231 Y38.82 Z0 F600
G1 X69.328 Y39.564 Z0 F600
; --- FIX X Backlash ---
G0 X68.628 Y39.564 F410
; --- FIX Y Backlash ---
G0 X68.628 Y39.064 F410
G1 X67.948 Y38.805 Z0 F600
G1 X67.916 Y36.118 Z0 F600
; --- FIX X Backlash ---
G0 X68.616 Y36.118 F410
G1 X68.681 Y34.597 Z0 F600
;Layer C3 Pass 2 of 2
G1 X69.231 Y34.112 Z0 F600
; --- FIX Y Backlash ---
G0 X69.231 Y34.612 F410
G1 X69.211 Y35.065 Z0 F600
G1 X69.19 Y35.404 Z0 F600
G1 X69.178 Y35.535 Z0 F600
G1 X69.16 Y35.66 Z0 F600
G1 X69.145 Y35.854 Z0 F600
G1 X69.121 Y36.327 Z0 F600
G1 X69.106 Y36.699 Z0 F600
G1 X69.069 Y37.687 Z0 F600
G1 X69.231 Y38.82 Z0 F600
G1 X69.328 Y39.564 Z0 F600
; --- FIX X Backlash ---
G0 X68.628 Y39.564 F410
; --- FIX Y Backlash ---
G0 X68.628 Y39.064 F410
G1 X67.948 Y38.805 Z0 F600
G1 X67.916 Y36.118 Z0 F600
; --- FIX X Backlash ---
G0 X68.616 Y36.118 F410
G1 X68.681 Y34.597 Z0 F600
G0 Z3.5 F600
; --- FIX X Backlash ---
G0 X67.981 Y34.597 F410
G0 X55.454 Y34.015 Z3.5
G1 Z0 F600
;Layer C3 Pass 1 of 2
; --- FIX X Backlash ---
G0 X56.154 Y34.015 F410
; --- FIX Y Backlash ---
G0 X56.154 Y34.515 F410
G1 X56.283 Y39.208 Z0 F600
; --- FIX X Backlash ---
G0 X55.583 Y39.208 F410
G1 X55.357 Y39.499 Z0 F600
G1 X55.13 Y48.951 Z0 F600
G1 X54.936 Y49.145 Z0 F600
; --- FIX Y Backlash ---
G0 X54.936 Y48.645 F410
G1 X54.968 Y43.822 Z0 F600
; --- FIX X Backlash ---
G0 X55.668 Y43.822 F410
G1 X56.089 Y43.758 Z0 F600
; --- FIX Y Backlash ---
G0 X56.089 Y44.258 F410
G1 X56.122 Y49.275 Z0 F600
; --- FIX X Backlash ---
G0 X55.422 Y49.275 F410
; --- FIX Y Backlash ---
G0 X55.422 Y48.775 F410
G1 X55.195 Y47.901 Z0 F600
G1 X55.163 Y38.902 Z0 F600
G1 X54.904 Y38.773 Z0 F600
G1 Y33.982 Z0 F600
; --- FIX X Backlash ---
G0 X55.604 Y33.982 F410
G1 X56.154 Y34.015 Z0 F600
;Layer C3 Pass 2 of 2
; --- FIX Y Backlash ---
G0 X56.154 Y34.515 F410
G1 X56.283 Y39.208 Z0 F600
; --- FIX X Backlash ---
G0 X55.583 Y39.208 F410
G1 X55.357 Y39.499 Z0 F600
G1 X55.13 Y48.951 Z0 F600
G1 X54.936 Y49.145 Z0 F600
; --- FIX Y Backlash ---
G0 X54.936 Y48.645 F410
G1 X54.968 Y43.822 Z0 F600
; --- FIX X Backlash ---
G0 X55.668 Y43.822 F410
G1 X56.089 Y43.758 Z0 F600
; --- FIX Y Backlash ---
G0 X56.089 Y44.258 F410
G1 X56.122 Y49.275 Z0 F600
; --- FIX X Backlash ---
G0 X55.422 Y49.275 F410
; --- FIX Y Backlash ---
G0 X55.422 Y48.775 F410
G1 X55.195 Y47.901 Z0 F600
G1 X55.163 Y38.902 Z0 F600
G1 X54.904 Y38.773 Z0 F600
G1 Y33.982 Z0 F600
; --- FIX X Backlash ---
G0 X55.604 Y33.982 F410
G1 X56.154 Y34.015 Z0 F600
G0 Z3.5 F600
; --- FIX Y Backlash ---
G0 X56.154 Y34.515 F410
G0 X60.847 Y44.484 Z3.5
G1 Z0 F600
;Layer C3 Pass 1 of 2
G1 X61.268 Z0 F600
G1 X61.365 Y46.103 Z0 F600
; --- FIX X Backlash ---
G0 X60.665 Y46.103 F410
G1 X60.601 Y49.372 Z0 F600
G1 X60.406 Y49.825 Z0 F600
G1 Y52.156 Z0 F600
G1 X59.921 Y52.285 Z0 F600
; --- FIX X Backlash ---
G0 X60.621 Y52.285 F410
; --- FIX Y Backlash ---
G0 X60.621 Y51.785 F410
G1 X60.945 Y50.846 Z0 F600
G1 X61.171 Y48.84 Z0 F600
; --- FIX X Backlash ---
G0 X60.471 Y48.84 F410
G1 X60.147 Y48.71 Z0 F600
G1 Y43.984 Z0 F600
;Layer C3 Pass 2 of 2
; --- FIX X Backlash ---
G0 X60.847 Y43.984 F410
G1 X61.268 Z0 F600
; --- FIX Y Backlash ---
G0 X61.268 Y44.484 F410
G1 X61.365 Y46.103 Z0 F600
; --- FIX X Backlash ---
G0 X60.665 Y46.103 F410
G1 X60.601 Y49.372 Z0 F600
G1 X60.406 Y49.825 Z0 F600
G1 Y52.156 Z0 F600
G1 X59.921 Y52.285 Z0 F600
; --- FIX X Backlash ---
G0 X60.621 Y52.285 F410
; --- FIX Y Backlash ---
G0 X60.621 Y51.785 F410
G1 X60.945 Y50.846 Z0 F600
G1 X61.171 Y48.84 Z0 F600
; --- FIX X Backlash ---
G0 X60.471 Y48.84 F410
G1 X60.147 Y48.71 Z0 F600
G1 Y43.984 Z0 F600
G0 Z3.5 F600
; --- FIX X Backlash ---
G0 X60.847 Y43.984 F410
; --- FIX Y Backlash ---
G0 X60.847 Y44.484 F410
G0 X63.566 Y44.581 Z3.5
G1 Z0 F600
;Layer C3 Pass 1 of 2
G1 X64.02 Y44.549 Z0 F600
; --- FIX X Backlash ---
G0 X63.32 Y44.549 F410
G1 X63.028 Y47.915 Z0 F600
; --- FIX X Backlash ---
G0 X63.728 Y47.915 F410
G1 X63.89 Y49.631 Z0 F600
G1 X64.182 Y50.375 Z0 F600
G1 X65.865 Y51.605 Z0 F600
G1 X66.027 Y52.285 Z0 F600
; --- FIX X Backlash ---
G0 X65.327 Y52.285 F410
G1 X64.873 Y52.447 Z0 F600
; --- FIX Y Backlash ---
G0 X64.873 Y51.947 F410
G1 X63.935 Y50.652 Z0 F600
G1 X62.996 Y49.098 Z0 F600
G1 X62.737 Y49.034 Z0 F600
; --- FIX X Backlash ---
G0 X63.437 Y49.034 F410
G1 X63.566 Y44.081 Z0 F600
;Layer C3 Pass 2 of 2
G1 X64.02 Y44.049 Z0 F600
; --- FIX X Backlash ---
G0 X63.32 Y44.049 F410
; --- FIX Y Backlash ---
G0 X63.32 Y44.549 F410
G1 X63.028 Y47.915 Z0 F600
; --- FIX X Backlash ---
G0 X63.728 Y47.915 F410
G1 X63.89 Y49.631 Z0 F600
G1 X64.182 Y50.375 Z0 F600
G1 X65.865 Y51.605 Z0 F600
G1 X66.027 Y52.285 Z0 F600
; --- FIX X Backlash ---
G0 X65.327 Y52.285 F410
G1 X64.873 Y52.447 Z0 F600
; --- FIX Y Backlash ---
G0 X64.873 Y51.947 F410
G1 X63.935 Y50.652 Z0 F600
G1 X62.996 Y49.098 Z0 F600
G1 X62.737 Y49.034 Z0 F600
; --- FIX X Backlash ---
G0 X63.437 Y49.034 F410
G1 X63.566 Y44.081 Z0 F600
G0 Z3.5 F600
G0 X66.027 Y43.919 Z3.5
G1 Z0 F600
;Layer C3 Pass 1 of 2
; --- FIX Y Backlash ---
G0 X66.027 Y44.419 F410
G1 X66.48 Y44.516 Z0 F600
G1 X66.512 Y48.336 Z0 F600
G1 X66.544 Y49.307 Z0 F600
; --- FIX X Backlash ---
G0 X65.844 Y49.307 F410
G1 X65.262 Y49.275 Z0 F600
; --- FIX X Backlash ---
G0 X65.962 Y49.275 F410
; --- FIX Y Backlash ---
G0 X65.962 Y48.775 F410
G1 X66.027 Y43.919 Z0 F600
;Layer C3 Pass 2 of 2
; --- FIX Y Backlash ---
G0 X66.027 Y44.419 F410
G1 X66.48 Y44.516 Z0 F600
G1 X66.512 Y48.336 Z0 F600
G1 X66.544 Y49.307 Z0 F600
; --- FIX X Backlash ---
G0 X65.844 Y49.307 F410
G1 X65.262 Y49.275 Z0 F600
; --- FIX X Backlash ---
G0 X65.962 Y49.275 F410
; --- FIX Y Backlash ---
G0 X65.962 Y48.775 F410
G1 X66.027 Y43.919 Z0 F600
G0 Z3.5 F600
G0 X68.681 Y43.952 Z3.5
G1 Z0 F600
;Layer C3 Pass 1 of 2
G1 X69.069 Y43.919 Z0 F600
; --- FIX X Backlash ---
G0 X68.369 Y43.919 F410
; --- FIX Y Backlash ---
G0 X68.369 Y44.419 F410
G1 X68.24 Y49.113 Z0 F600
G1 X67.916 Z0 F600
; --- FIX X Backlash ---
G0 X68.616 Y49.113 F410
; --- FIX Y Backlash ---
G0 X68.616 Y48.613 F410
G1 X68.681 Y43.952 Z0 F600
;Layer C3 Pass 2 of 2
G1 X69.069 Y43.919 Z0 F600
; --- FIX X Backlash ---
G0 X68.369 Y43.919 F410
; --- FIX Y Backlash ---
G0 X68.369 Y44.419 F410
G1 X68.24 Y49.113 Z0 F600
G1 X67.916 Z0 F600
; --- FIX X Backlash ---
G0 X68.616 Y49.113 F410
; --- FIX Y Backlash ---
G0 X68.616 Y48.613 F410
G1 X68.681 Y43.952 Z0 F600
G0 Z3.5 F600
G0 X71.238 Y43.887 Z3.5
G1 Z0 F600
;Layer C3 Pass 1 of 2
; --- FIX Y Backlash ---
G0 X71.238 Y44.387 F410
G1 X71.691 Y44.517 Z0 F600
G1 X71.756 Y46.297 Z0 F600
; --- FIX X Backlash ---
G0 X71.056 Y46.297 F410
G1 X70.894 Y48.077 Z0 F600
; --- FIX X Backlash ---
G0 X71.594 Y48.077 F410
G1 X71.756 Y48.854 Z0 F600
; --- FIX X Backlash ---
G0 X71.056 Y48.854 F410
G1 X70.473 Y49.048 Z0 F600
; --- FIX X Backlash ---
G0 X71.173 Y49.048 F410
; --- FIX Y Backlash ---
G0 X71.173 Y48.548 F410
G1 X71.238 Y43.887 Z0 F600
;Layer C3 Pass 2 of 2
; --- FIX Y Backlash ---
G0 X71.238 Y44.387 F410
G1 X71.691 Y44.517 Z0 F600
G1 X71.756 Y46.297 Z0 F600
; --- FIX X Backlash ---
G0 X71.056 Y46.297 F410
G1 X70.894 Y48.077 Z0 F600
; --- FIX X Backlash ---
G0 X71.594 Y48.077 F410
G1 X71.756 Y48.854 Z0 F600
; --- FIX X Backlash ---
G0 X71.056 Y48.854 F410
G1 X70.473 Y49.048 Z0 F600
; --- FIX X Backlash ---
G0 X71.173 Y49.048 F410
; --- FIX Y Backlash ---
G0 X71.173 Y48.548 F410
G1 X71.238 Y43.887 Z0 F600
;Cut @ 444 mm/min, 90% power

M8
G0 Z3.5 F600
; --- FIX Y Backlash ---
G0 X71.238 Y44.387 F410
G0 X91.645 Y45.238 Z3.5
G1 Z0 F600
;Layer C2 Pass 1 of 3
G1 X95 Y46.95 Z0 F600
; --- FIX Y Backlash ---
G0 X95 Y46.45 F410
G1 X96.675 Y43.399 Z0 F600
; --- FIX X Backlash ---
G0 X95.975 Y43.399 F410
; --- FIX Y Backlash ---
G0 X95.975 Y43.899 F410
G1 X93.164 Y49.417 Z0 F600
; --- FIX X Backlash ---
G0 X93.864 Y49.417 F410
; --- FIX Y Backlash ---
G0 X93.864 Y48.917 F410
G1 X94.103 Y48.073 Z0 F600
; --- FIX X Backlash ---
G0 X93.403 Y48.073 F410
G1 X90.138 Y46.461 Z0 F600
; --- FIX X Backlash ---
G0 X90.838 Y46.461 F410
; --- FIX Y Backlash ---
G0 X90.838 Y46.961 F410
G1 X91.407 Y47.382 Z0 F600
; --- FIX X Backlash ---
G0 X90.707 Y47.382 F410
G1 X90.542 Y47.814 Z0 F600
G1 X90.345 Y48.464 Z0 F600
G1 X90.009 Y48.961 Z0 F600
G1 X89.654 Y49.701 Z0 F600
G1 X89.472 Y50.135 Z0 F600
G1 X89.17 Y50.349 Z0 F600
G1 X88.788 Y50.593 Z0 F600
G1 X88.523 Y50.616 Z0 F600
G1 X88.337 Y50.61 Z0 F600
; --- FIX Y Backlash ---
G0 X88.337 Y50.11 F410
G1 X87.977 Y49.773 Z0 F600
G1 X87.884 Y49.204 Z0 F600
; --- FIX X Backlash ---
G0 X88.584 Y49.204 F410
G1 X88.653 Y48.818 Z0 F600
G1 X88.879 Y48.563 Z0 F600
G1 X89.143 Y48.258 Z0 F600
G1 X89.443 Y48.069 Z0 F600
G1 X89.768 Y47.876 Z0 F600
G1 X90.083 Y47.749 Z0 F600
G1 X90.413 Y47.646 Z0 F600
G1 X90.713 Y47.656 Z0 F600
G1 X90.933 Y47.697 Z0 F600
; --- FIX Y Backlash ---
G0 X90.933 Y48.197 F410
G1 X91.078 Y48.302 Z0 F600
G1 X91.247 Y48.437 Z0 F600
G1 X91.675 Y48.962 Z0 F600
G1 Y49.398 Z0 F600
; --- FIX X Backlash ---
G0 X90.975 Y49.398 F410
G1 X90.717 Y50.048 Z0 F600
; --- FIX X Backlash ---
G0 X91.417 Y50.048 F410
; --- FIX Y Backlash ---
G0 X91.417 Y49.548 F410
G1 X91.523 Y49.252 Z0 F600
G1 X91.934 Y48.932 Z0 F600
G1 X92.399 Y48.7 Z0 F600
G1 X92.771 Y48.728 Z0 F600
; --- FIX Y Backlash ---
G0 X92.771 Y49.228 F410
G1 X93.19 Y49.685 Z0 F600
G1 X93.268 Y50.214 Z0 F600
; --- FIX X Backlash ---
G0 X92.568 Y50.214 F410
G1 X92.434 Y50.685 Z0 F600
G1 X92.15 Y51.192 Z0 F600
G1 X91.594 Y51.702 Z0 F600
G1 X91.042 Y51.732 Z0 F600
; --- FIX Y Backlash ---
G0 X91.042 Y51.232 F410
G1 X90.668 Y51.05 Z0 F600
G1 X90.487 Y50.655 Z0 F600
;Layer C2 Pass 2 of 3
; --- FIX X Backlash ---
G0 X91.187 Y50.655 F410
; --- FIX Y Backlash ---
G0 X91.187 Y51.155 F410
G1 X91.368 Y51.55 Z0 F600
G1 X91.742 Y51.732 Z0 F600
G1 X92.294 Y51.702 Z0 F600
; --- FIX Y Backlash ---
G0 X92.294 Y51.202 F410
G1 X92.85 Y50.692 Z0 F600
G1 X93.134 Y50.185 Z0 F600
G1 X93.268 Y49.714 Z0 F600
; --- FIX X Backlash ---
G0 X92.568 Y49.714 F410
G1 X92.49 Y49.185 Z0 F600
G1 X92.071 Y48.728 Z0 F600
G1 X91.699 Y48.7 Z0 F600
; --- FIX Y Backlash ---
G0 X91.699 Y49.2 F410
G1 X91.234 Y49.432 Z0 F600
G1 X90.823 Y49.752 Z0 F600
G1 X90.717 Y50.048 Z0 F600
; --- FIX X Backlash ---
G0 X91.417 Y50.048 F410
; --- FIX Y Backlash ---
G0 X91.417 Y49.548 F410
G1 X91.673 Y48.898 Z0 F600
G1 Y48.462 Z0 F600
; --- FIX X Backlash ---
G0 X90.973 Y48.462 F410
G1 X90.547 Y47.937 Z0 F600
G1 X90.378 Y47.802 Z0 F600
G1 X90.233 Y47.697 Z0 F600
G1 X90.013 Y47.656 Z0 F600
G1 X89.713 Y47.646 Z0 F600
; --- FIX Y Backlash ---
G0 X89.713 Y48.146 F410
G1 X89.383 Y48.249 Z0 F600
G1 X89.068 Y48.376 Z0 F600
G1 X88.743 Y48.569 Z0 F600
G1 X88.443 Y48.758 Z0 F600
G1 X88.179 Y49.063 Z0 F600
G1 X87.953 Y49.318 Z0 F600
G1 X87.884 Y49.704 Z0 F600
; --- FIX X Backlash ---
G0 X88.584 Y49.704 F410
G1 X88.677 Y50.273 Z0 F600
G1 X89.037 Y50.61 Z0 F600
G1 X89.223 Y50.616 Z0 F600
G1 X89.488 Y50.593 Z0 F600
; --- FIX Y Backlash ---
G0 X89.488 Y50.093 F410
G1 X89.87 Y49.849 Z0 F600
G1 X90.172 Y49.635 Z0 F600
G1 X90.354 Y49.201 Z0 F600
G1 X90.709 Y48.461 Z0 F600
G1 X91.045 Y47.964 Z0 F600
G1 X91.242 Y47.314 Z0 F600
G1 X91.407 Y46.882 Z0 F600
; --- FIX X Backlash ---
G0 X90.707 Y46.882 F410
G1 X90.138 Y46.461 Z0 F600
; --- FIX X Backlash ---
G0 X90.838 Y46.461 F410
; --- FIX Y Backlash ---
G0 X90.838 Y46.961 F410
G1 X94.103 Y48.573 Z0 F600
; --- FIX X Backlash ---
G0 X93.403 Y48.573 F410
G1 X93.164 Y49.417 Z0 F600
; --- FIX X Backlash ---
G0 X93.864 Y49.417 F410
; --- FIX Y Backlash ---
G0 X93.864 Y48.917 F410
G1 X96.675 Y43.399 Z0 F600
; --- FIX X Backlash ---
G0 X95.975 Y43.399 F410
; --- FIX Y Backlash ---
G0 X95.975 Y43.899 F410
G1 X94.3 Y46.95 Z0 F600
; --- FIX Y Backlash ---
G0 X94.3 Y46.45 F410
G1 X90.945 Y44.738 Z0 F600
;Layer C2 Pass 3 of 3
; --- FIX X Backlash ---
G0 X91.645 Y44.738 F410
; --- FIX Y Backlash ---
G0 X91.645 Y45.238 F410
G1 X95 Y46.95 Z0 F600
; --- FIX Y Backlash ---
G0 X95 Y46.45 F410
G1 X96.675 Y43.399 Z0 F600
; --- FIX X Backlash ---
G0 X95.975 Y43.399 F410
; --- FIX Y Backlash ---
G0 X95.975 Y43.899 F410
G1 X93.164 Y49.417 Z0 F600
; --- FIX X Backlash ---
G0 X93.864 Y49.417 F410
; --- FIX Y Backlash ---
G0 X93.864 Y48.917 F410
G1 X94.103 Y48.073 Z0 F600
; --- FIX X Backlash ---
G0 X93.403 Y48.073 F410
G1 X90.138 Y46.461 Z0 F600
; --- FIX X Backlash ---
G0 X90.838 Y46.461 F410
; --- FIX Y Backlash ---
G0 X90.838 Y46.961 F410
G1 X91.407 Y47.382 Z0 F600
; --- FIX X Backlash ---
G0 X90.707 Y47.382 F410
G1 X90.542 Y47.814 Z0 F600
G1 X90.345 Y48.464 Z0 F600
G1 X90.009 Y48.961 Z0 F600
G1 X89.654 Y49.701 Z0 F600
G1 X89.472 Y50.135 Z0 F600
G1 X89.17 Y50.349 Z0 F600
G1 X88.788 Y50.593 Z0 F600
G1 X88.523 Y50.616 Z0 F600
G1 X88.337 Y50.61 Z0 F600
; --- FIX Y Backlash ---
G0 X88.337 Y50.11 F410
G1 X87.977 Y49.773 Z0 F600
G1 X87.884 Y49.204 Z0 F600
; --- FIX X Backlash ---
G0 X88.584 Y49.204 F410
G1 X88.653 Y48.818 Z0 F600
G1 X88.879 Y48.563 Z0 F600
G1 X89.143 Y48.258 Z0 F600
G1 X89.443 Y48.069 Z0 F600
G1 X89.768 Y47.876 Z0 F600
G1 X90.083 Y47.749 Z0 F600
G1 X90.413 Y47.646 Z0 F600
G1 X90.713 Y47.656 Z0 F600
G1 X90.933 Y47.697 Z0 F600
; --- FIX Y Backlash ---
G0 X90.933 Y48.197 F410
G1 X91.078 Y48.302 Z0 F600
G1 X91.247 Y48.437 Z0 F600
G1 X91.675 Y48.962 Z0 F600
G1 Y49.398 Z0 F600
; --- FIX X Backlash ---
G0 X90.975 Y49.398 F410
G1 X90.717 Y50.048 Z0 F600
; --- FIX X Backlash ---
G0 X91.417 Y50.048 F410
; --- FIX Y Backlash ---
G0 X91.417 Y49.548 F410
G1 X91.523 Y49.252 Z0 F600
G1 X91.934 Y48.932 Z0 F600
G1 X92.399 Y48.7 Z0 F600
G1 X92.771 Y48.728 Z0 F600
; --- FIX Y Backlash ---
G0 X92.771 Y49.228 F410
G1 X93.19 Y49.685 Z0 F600
G1 X93.268 Y50.214 Z0 F600
; --- FIX X Backlash ---
G0 X92.568 Y50.214 F410
G1 X92.434 Y50.685 Z0 F600
G1 X92.15 Y51.192 Z0 F600
G1 X91.594 Y51.702 Z0 F600
G1 X91.042 Y51.732 Z0 F600
; --- FIX Y Backlash ---
G0 X91.042 Y51.232 F410
G1 X90.668 Y51.05 Z0 F600
G1 X90.487 Y50.655 Z0 F600
G0 Z3.5 F600
; --- FIX X Backlash ---
G0 X91.187 Y50.655 F410
; --- FIX Y Backlash ---
G0 X91.187 Y51.155 F410
G0 X92.108 Y52.752 Z3.5
G1 Z0 F600
;Layer C2 Pass 1 of 3
; --- FIX X Backlash ---
G0 X91.408 Y52.752 F410
G1 X88.232 Y59.259 Z0 F600
; --- FIX X Backlash ---
G0 X88.932 Y59.259 F410
; --- FIX Y Backlash ---
G0 X88.932 Y58.759 F410
G1 X92.108 Y52.252 Z0 F600
;Layer C2 Pass 2 of 3
; --- FIX X Backlash ---
G0 X91.408 Y52.252 F410
; --- FIX Y Backlash ---
G0 X91.408 Y52.752 F410
G1 X88.232 Y59.259 Z0 F600
; --- FIX X Backlash ---
G0 X88.932 Y59.259 F410
; --- FIX Y Backlash ---
G0 X88.932 Y58.759 F410
G1 X92.108 Y52.252 Z0 F600
;Layer C2 Pass 3 of 3
; --- FIX X Backlash ---
G0 X91.408 Y52.252 F410
; --- FIX Y Backlash ---
G0 X91.408 Y52.752 F410
G1 X88.232 Y59.259 Z0 F600
; --- FIX X Backlash ---
G0 X88.932 Y59.259 F410
; --- FIX Y Backlash ---
G0 X88.932 Y58.759 F410
G1 X92.108 Y52.252 Z0 F600
G0 Z3.5 F600
; --- FIX X Backlash ---
G0 X91.408 Y52.252 F410
; --- FIX Y Backlash ---
G0 X91.408 Y52.752 F410
G0 X90.605 Y53.405 Z3.5
G1 Z0 F600
;Layer C2 Pass 1 of 3
; --- FIX Y Backlash ---
G0 X90.605 Y52.905 F410
G1 X87.705 Y51.407 Z0 F600
;Layer C2 Pass 2 of 3
; --- FIX X Backlash ---
G0 X88.405 Y51.407 F410
; --- FIX Y Backlash ---
G0 X88.405 Y51.907 F410
G1 X91.305 Y53.405 Z0 F600
;Layer C2 Pass 3 of 3
; --- FIX X Backlash ---
G0 X90.605 Y53.405 F410
; --- FIX Y Backlash ---
G0 X90.605 Y52.905 F410
G1 X87.705 Y51.407 Z0 F600
G0 Z3.5 F600
; --- FIX X Backlash ---
G0 X88.405 Y51.407 F410
; --- FIX Y Backlash ---
G0 X88.405 Y51.907 F410
G0 X91.663 Y54.042 Z3.5
G1 Z0 F600
;Layer C2 Pass 1 of 3
G1 X91.836 Y53.993 Z0 F600
G1 X92.188 Y54.263 Z0 F600
G1 X92.476 Y54.635 Z0 F600
G1 X92.812 Y55.301 Z0 F600
G1 X92.803 Y55.943 Z0 F600
; --- FIX X Backlash ---
G0 X92.103 Y55.943 F410
G1 X91.702 Y56.406 Z0 F600
G1 X91.236 Y56.699 Z0 F600
G1 X90.467 Z0 F600
; --- FIX Y Backlash ---
G0 X90.467 Y56.199 F410
G1 X89.942 Y55.977 Z0 F600
G1 X89.486 Y55.507 Z0 F600
; --- FIX Y Backlash ---
G0 X89.486 Y56.007 F410
G1 X89.003 Y56.361 Z0 F600
G1 X88.589 Y56.98 Z0 F600
G1 X88.173 Y57.129 Z0 F600
; --- FIX Y Backlash ---
G0 X88.173 Y56.629 F410
G1 X87.875 Y56.446 Z0 F600
G1 X87.749 Y56.078 Z0 F600
; --- FIX X Backlash ---
G0 X88.449 Y56.078 F410
G1 X88.507 Y55.831 Z0 F600
G1 X88.582 Y55.53 Z0 F600
G1 X88.703 Y55.309 Z0 F600
G1 X88.804 Y55.142 Z0 F600
G1 X88.789 Y54.375 Z0 F600
; --- FIX X Backlash ---
G0 X88.089 Y54.375 F410
G1 X88.024 Y53.947 Z0 F600
G1 X87.598 Y53.576 Z0 F600
; --- FIX Y Backlash ---
G0 X87.598 Y54.076 F410
G1 X87.061 Y54.147 Z0 F600
G1 X86.48 Y54.608 Z0 F600
G1 X85.997 Y55.159 Z0 F600
G1 X85.693 Y55.832 Z0 F600
G1 X85.544 Y56.322 Z0 F600
G1 X85.523 Y56.684 Z0 F600
; --- FIX X Backlash ---
G0 X86.223 Y56.684 F410
G1 X86.432 Y57.101 Z0 F600
G1 X86.608 Y57.266 Z0 F600
G1 X86.937 Y57.231 Z0 F600
; --- FIX Y Backlash ---
G0 X86.937 Y56.731 F410
G1 X87.266 Y56.44 Z0 F600
;Layer C2 Pass 2 of 3
; --- FIX X Backlash ---
G0 X86.566 Y56.44 F410
; --- FIX Y Backlash ---
G0 X86.566 Y56.94 F410
G1 X86.237 Y57.231 Z0 F600
G1 X85.908 Y57.266 Z0 F600
; --- FIX Y Backlash ---
G0 X85.908 Y56.766 F410
G1 X85.732 Y56.601 Z0 F600
G1 X85.523 Y56.184 Z0 F600
G1 X85.544 Y55.822 Z0 F600
; --- FIX X Backlash ---
G0 X86.244 Y55.822 F410
G1 X86.393 Y55.332 Z0 F600
G1 X86.697 Y54.659 Z0 F600
G1 X87.18 Y54.108 Z0 F600
G1 X87.761 Y53.647 Z0 F600
G1 X88.298 Y53.576 Z0 F600
; --- FIX Y Backlash ---
G0 X88.298 Y54.076 F410
G1 X88.724 Y54.447 Z0 F600
G1 X88.789 Y54.875 Z0 F600
G1 X88.804 Y55.642 Z0 F600
; --- FIX X Backlash ---
G0 X88.104 Y55.642 F410
G1 X88.003 Y55.809 Z0 F600
G1 X87.882 Y56.03 Z0 F600
G1 X87.807 Y56.331 Z0 F600
G1 X87.749 Y56.578 Z0 F600
; --- FIX X Backlash ---
G0 X88.449 Y56.578 F410
G1 X88.575 Y56.946 Z0 F600
G1 X88.873 Y57.129 Z0 F600
; --- FIX Y Backlash ---
G0 X88.873 Y56.629 F410
G1 X89.289 Y56.48 Z0 F600
G1 X89.703 Y55.861 Z0 F600
G1 X90.186 Y55.507 Z0 F600
; --- FIX Y Backlash ---
G0 X90.186 Y56.007 F410
G1 X90.642 Y56.477 Z0 F600
G1 X91.167 Y56.698 Z0 F600
G1 X91.936 Z0 F600
; --- FIX Y Backlash ---
G0 X91.936 Y56.198 F410
G1 X92.402 Y55.906 Z0 F600
G1 X92.803 Y55.443 Z0 F600
G1 X92.812 Y54.801 Z0 F600
; --- FIX X Backlash ---
G0 X92.112 Y54.801 F410
G1 X91.776 Y54.135 Z0 F600
G1 X91.488 Y53.763 Z0 F600
G1 X91.136 Y53.493 Z0 F600
G1 X90.963 Y53.542 Z0 F600
;Layer C2 Pass 3 of 3
; --- FIX X Backlash ---
G0 X91.663 Y53.542 F410
G1 X91.836 Y53.493 Z0 F600
; --- FIX Y Backlash ---
G0 X91.836 Y53.993 F410
G1 X92.188 Y54.263 Z0 F600
G1 X92.476 Y54.635 Z0 F600
G1 X92.812 Y55.301 Z0 F600
G1 X92.803 Y55.943 Z0 F600
; --- FIX X Backlash ---
G0 X92.103 Y55.943 F410
G1 X91.702 Y56.406 Z0 F600
G1 X91.236 Y56.699 Z0 F600
G1 X90.467 Z0 F600
; --- FIX Y Backlash ---
G0 X90.467 Y56.199 F410
G1 X89.942 Y55.977 Z0 F600
G1 X89.486 Y55.507 Z0 F600
; --- FIX Y Backlash ---
G0 X89.486 Y56.007 F410
G1 X89.003 Y56.361 Z0 F600
G1 X88.589 Y56.98 Z0 F600
G1 X88.173 Y57.129 Z0 F600
; --- FIX Y Backlash ---
G0 X88.173 Y56.629 F410
G1 X87.875 Y56.446 Z0 F600
G1 X87.749 Y56.078 Z0 F600
; --- FIX X Backlash ---
G0 X88.449 Y56.078 F410
G1 X88.507 Y55.831 Z0 F600
G1 X88.582 Y55.53 Z0 F600
G1 X88.703 Y55.309 Z0 F600
G1 X88.804 Y55.142 Z0 F600
G1 X88.789 Y54.375 Z0 F600
; --- FIX X Backlash ---
G0 X88.089 Y54.375 F410
G1 X88.024 Y53.947 Z0 F600
G1 X87.598 Y53.576 Z0 F600
; --- FIX Y Backlash ---
G0 X87.598 Y54.076 F410
G1 X87.061 Y54.147 Z0 F600
G1 X86.48 Y54.608 Z0 F600
G1 X85.997 Y55.159 Z0 F600
G1 X85.693 Y55.832 Z0 F600
G1 X85.544 Y56.322 Z0 F600
G1 X85.523 Y56.684 Z0 F600
; --- FIX X Backlash ---
G0 X86.223 Y56.684 F410
G1 X86.432 Y57.101 Z0 F600
G1 X86.608 Y57.266 Z0 F600
G1 X86.937 Y57.231 Z0 F600
; --- FIX Y Backlash ---
G0 X86.937 Y56.731 F410
G1 X87.266 Y56.44 Z0 F600
G0 Z3.5 F600
G0 X97.316 Y41.971 Z3.5
G1 Z0 F600
;Layer C2 Pass 1 of 3
G1 X98.521 Y39.572 Z0 F600
;Layer C2 Pass 2 of 3
; --- FIX X Backlash ---
G0 X97.821 Y39.572 F410
; --- FIX Y Backlash ---
G0 X97.821 Y40.072 F410
G1 X96.616 Y42.471 Z0 F600
;Layer C2 Pass 3 of 3
; --- FIX X Backlash ---
G0 X97.316 Y42.471 F410
; --- FIX Y Backlash ---
G0 X97.316 Y41.971 F410
G1 X98.521 Y39.572 Z0 F600
G0 Z3.5 F600
; --- FIX Y Backlash ---
G0 X98.521 Y40.072 F410
G0 X99.616 Y42.151 Z3.5
G1 Z0 F600
;Layer C2 Pass 1 of 3
G1 X99.651 Y42.223 Z0 F600
; --- FIX X Backlash ---
G0 X98.951 Y42.223 F410
G1 X98.873 Y42.857 Z0 F600
G1 X98.472 Y43.124 Z0 F600
G1 X97.724 Y43.291 Z0 F600
G1 X97.171 Y43.245 Z0 F600
; --- FIX Y Backlash ---
G0 X97.171 Y42.745 F410
G1 X96.909 Y42.121 Z0 F600
G1 X96.759 Z0 F600
G1 X96.537 Y42.153 Z0 F600
; --- FIX Y Backlash ---
G0 X96.537 Y42.653 F410
G1 X96.29 Y42.795 Z0 F600
G1 X96.086 Y42.926 Z0 F600
G1 X95.819 Y43.197 Z0 F600
G1 X95.582 Y43.446 Z0 F600
G1 X95.213 Y43.747 Z0 F600
G1 X94.782 Y44.056 Z0 F600
; --- FIX Y Backlash ---
G0 X94.782 Y43.556 F410
G1 X94.587 Y43.487 Z0 F600
G1 X94.455 Y43.411 Z0 F600
; --- FIX X Backlash ---
G0 X95.155 Y43.411 F410
G1 X95.211 Y42.805 Z0 F600
G1 X95.385 Y42.047 Z0 F600
G1 X95.614 Y41.452 Z0 F600
; --- FIX X Backlash ---
G0 X94.914 Y41.452 F410
G1 X94.813 Y41.143 Z0 F600
G1 X94.679 Y40.774 Z0 F600
G1 X94.466 Y40.599 Z0 F600
G1 X94.22 Y40.467 Z0 F600
; --- FIX Y Backlash ---
G0 X94.22 Y40.967 F410
G1 X93.883 Y41.02 Z0 F600
G1 X93.612 Y41.09 Z0 F600
G1 X93.367 Y41.253 Z0 F600
G1 X93.069 Y41.444 Z0 F600
G1 X92.831 Y41.741 Z0 F600
G1 X92.648 Y42.012 Z0 F600
G1 X92.252 Y42.706 Z0 F600
G1 X92.135 Y43.371 Z0 F600
; --- FIX X Backlash ---
G0 X92.835 Y43.371 F410
G1 X93.24 Y43.848 Z0 F600
; --- FIX Y Backlash ---
G0 X93.24 Y43.348 F410
G1 X93.7 Y43.141 Z0 F600
G1 X94.095 Y42.764 Z0 F600
G1 X94.254 Y42.222 Z0 F600
G1 X94.219 Y41.44 Z0 F600
; --- FIX X Backlash ---
G0 X93.519 Y41.44 F410
G1 X93.234 Y40.708 Z0 F600
G1 X92.728 Y39.792 Z0 F600
;Layer C2 Pass 2 of 3
; --- FIX X Backlash ---
G0 X93.428 Y39.792 F410
; --- FIX Y Backlash ---
G0 X93.428 Y40.292 F410
G1 X93.934 Y41.208 Z0 F600
G1 X94.219 Y41.94 Z0 F600
G1 X94.254 Y42.722 Z0 F600
; --- FIX X Backlash ---
G0 X93.554 Y42.722 F410
G1 X93.395 Y43.264 Z0 F600
G1 X93 Y43.641 Z0 F600
G1 X92.54 Y43.848 Z0 F600
; --- FIX Y Backlash ---
G0 X92.54 Y43.348 F410
G1 X92.135 Y42.871 Z0 F600
; --- FIX X Backlash ---
G0 X92.835 Y42.871 F410
G1 X92.952 Y42.206 Z0 F600
G1 X93.348 Y41.512 Z0 F600
G1 X93.531 Y41.241 Z0 F600
G1 X93.769 Y40.944 Z0 F600
G1 X94.067 Y40.753 Z0 F600
G1 X94.312 Y40.59 Z0 F600
G1 X94.583 Y40.52 Z0 F600
G1 X94.92 Y40.467 Z0 F600
; --- FIX Y Backlash ---
G0 X94.92 Y40.967 F410
G1 X95.166 Y41.099 Z0 F600
G1 X95.379 Y41.274 Z0 F600
G1 X95.513 Y41.643 Z0 F600
G1 X95.614 Y41.952 Z0 F600
; --- FIX X Backlash ---
G0 X94.914 Y41.952 F410
G1 X94.685 Y42.547 Z0 F600
G1 X94.511 Y43.305 Z0 F600
G1 X94.455 Y43.911 Z0 F600
; --- FIX X Backlash ---
G0 X95.155 Y43.911 F410
G1 X95.287 Y43.987 Z0 F600
G1 X95.482 Y44.056 Z0 F600
; --- FIX Y Backlash ---
G0 X95.482 Y43.556 F410
G1 X95.913 Y43.247 Z0 F600
G1 X96.282 Y42.946 Z0 F600
G1 X96.519 Y42.697 Z0 F600
G1 X96.786 Y42.426 Z0 F600
G1 X96.99 Y42.295 Z0 F600
G1 X97.237 Y42.153 Z0 F600
G1 X97.459 Y42.119 Z0 F600
G1 X97.609 Z0 F600
; --- FIX Y Backlash ---
G0 X97.609 Y42.619 F410
G1 X97.871 Y43.245 Z0 F600
G1 X98.424 Y43.291 Z0 F600
; --- FIX Y Backlash ---
G0 X98.424 Y42.791 F410
G1 X99.172 Y42.624 Z0 F600
G1 X99.573 Y42.357 Z0 F600
G1 X99.651 Y41.723 Z0 F600
G1 X99.616 Y41.651 Z0 F600
;Layer C2 Pass 3 of 3
; --- FIX Y Backlash ---
G0 X99.616 Y42.151 F410
G1 X99.651 Y42.223 Z0 F600
; --- FIX X Backlash ---
G0 X98.951 Y42.223 F410
G1 X98.873 Y42.857 Z0 F600
G1 X98.472 Y43.124 Z0 F600
G1 X97.724 Y43.291 Z0 F600
G1 X97.171 Y43.245 Z0 F600
; --- FIX Y Backlash ---
G0 X97.171 Y42.745 F410
G1 X96.909 Y42.121 Z0 F600
G1 X96.759 Z0 F600
G1 X96.537 Y42.153 Z0 F600
; --- FIX Y Backlash ---
G0 X96.537 Y42.653 F410
G1 X96.29 Y42.795 Z0 F600
G1 X96.086 Y42.926 Z0 F600
G1 X95.819 Y43.197 Z0 F600
G1 X95.582 Y43.446 Z0 F600
G1 X95.213 Y43.747 Z0 F600
G1 X94.782 Y44.056 Z0 F600
; --- FIX Y Backlash ---
G0 X94.782 Y43.556 F410
G1 X94.587 Y43.487 Z0 F600
G1 X94.455 Y43.411 Z0 F600
; --- FIX X Backlash ---
G0 X95.155 Y43.411 F410
G1 X95.211 Y42.805 Z0 F600
G1 X95.385 Y42.047 Z0 F600
G1 X95.614 Y41.452 Z0 F600
; --- FIX X Backlash ---
G0 X94.914 Y41.452 F410
G1 X94.813 Y41.143 Z0 F600
G1 X94.679 Y40.774 Z0 F600
G1 X94.466 Y40.599 Z0 F600
G1 X94.22 Y40.467 Z0 F600
; --- FIX Y Backlash ---
G0 X94.22 Y40.967 F410
G1 X93.883 Y41.02 Z0 F600
G1 X93.612 Y41.09 Z0 F600
G1 X93.367 Y41.253 Z0 F600
G1 X93.069 Y41.444 Z0 F600
G1 X92.831 Y41.741 Z0 F600
G1 X92.648 Y42.012 Z0 F600
G1 X92.252 Y42.706 Z0 F600
G1 X92.135 Y43.371 Z0 F600
; --- FIX X Backlash ---
G0 X92.835 Y43.371 F410
G1 X93.24 Y43.848 Z0 F600
; --- FIX Y Backlash ---
G0 X93.24 Y43.348 F410
G1 X93.7 Y43.141 Z0 F600
G1 X94.095 Y42.764 Z0 F600
G1 X94.254 Y42.222 Z0 F600
G1 X94.219 Y41.44 Z0 F600
; --- FIX X Backlash ---
G0 X93.519 Y41.44 F410
G1 X93.234 Y40.708 Z0 F600
G1 X92.728 Y39.792 Z0 F600
G0 Z3.5 F600
; --- FIX X Backlash ---
G0 X93.428 Y39.792 F410
G0 X97.862 Y36.787 Z3.5
G1 Z0 F600
;Layer C2 Pass 1 of 3
; --- FIX Y Backlash ---
G0 X97.862 Y37.287 F410
G1 X98.41 Y37.359 Z0 F600
G1 X99.095 Y37.825 Z0 F600
G1 X99.241 Y38.147 Z0 F600
G1 X99.235 Y38.747 Z0 F600
; --- FIX X Backlash ---
G0 X98.535 Y38.747 F410
G1 X97.958 Y39.302 Z0 F600
G1 X97.197 Y39.624 Z0 F600
; --- FIX Y Backlash ---
G0 X97.197 Y39.124 F410
G1 X96.668 Y39.066 Z0 F600
G1 X96.089 Y38.955 Z0 F600
G1 X95.513 Y38.543 Z0 F600
G1 X94.929 Y38.005 Z0 F600
G1 X94.838 Y37.316 Z0 F600
; --- FIX X Backlash ---
G0 X95.538 Y37.316 F410
G1 X96.082 Y36.645 Z0 F600
G1 X96.508 Y36.307 Z0 F600
G1 X97.153 Y36.077 Z0 F600
G1 X97.747 Y36.109 Z0 F600
G1 X98.259 Y35.973 Z0 F600
; --- FIX Y Backlash ---
G0 X98.259 Y36.473 F410
G1 X99.146 Y36.715 Z0 F600
G1 X99.6 Y36.852 Z0 F600
; --- FIX X Backlash ---
G0 X98.9 Y36.852 F410
; --- FIX Y Backlash ---
G0 X98.9 Y36.352 F410
G1 X96.005 Y34.887 Z0 F600
;Layer C2 Pass 2 of 3
; --- FIX X Backlash ---
G0 X96.705 Y34.887 F410
; --- FIX Y Backlash ---
G0 X96.705 Y35.387 F410
G1 X99.6 Y36.852 Z0 F600
; --- FIX X Backlash ---
G0 X98.9 Y36.852 F410
; --- FIX Y Backlash ---
G0 X98.9 Y36.352 F410
G1 X98.446 Y36.215 Z0 F600
G1 X97.559 Y35.973 Z0 F600
; --- FIX Y Backlash ---
G0 X97.559 Y36.473 F410
G1 X97.047 Y36.609 Z0 F600
G1 X96.453 Y36.577 Z0 F600
G1 X95.808 Y36.807 Z0 F600
G1 X95.382 Y37.145 Z0 F600
G1 X94.838 Y37.816 Z0 F600
; --- FIX X Backlash ---
G0 X95.538 Y37.816 F410
G1 X95.629 Y38.505 Z0 F600
G1 X96.213 Y39.043 Z0 F600
G1 X96.789 Y39.455 Z0 F600
G1 X97.368 Y39.566 Z0 F600
G1 X97.897 Y39.624 Z0 F600
; --- FIX Y Backlash ---
G0 X97.897 Y39.124 F410
G1 X98.658 Y38.802 Z0 F600
G1 X99.235 Y38.247 Z0 F600
G1 X99.241 Y37.647 Z0 F600
; --- FIX X Backlash ---
G0 X98.541 Y37.647 F410
G1 X98.395 Y37.325 Z0 F600
G1 X97.71 Y36.859 Z0 F600
G1 X97.162 Y36.787 Z0 F600
;Layer C2 Pass 3 of 3
; --- FIX X Backlash ---
G0 X97.862 Y36.787 F410
; --- FIX Y Backlash ---
G0 X97.862 Y37.287 F410
G1 X98.41 Y37.359 Z0 F600
G1 X99.095 Y37.825 Z0 F600
G1 X99.241 Y38.147 Z0 F600
G1 X99.235 Y38.747 Z0 F600
; --- FIX X Backlash ---
G0 X98.535 Y38.747 F410
G1 X97.958 Y39.302 Z0 F600
G1 X97.197 Y39.624 Z0 F600
; --- FIX Y Backlash ---
G0 X97.197 Y39.124 F410
G1 X96.668 Y39.066 Z0 F600
G1 X96.089 Y38.955 Z0 F600
G1 X95.513 Y38.543 Z0 F600
G1 X94.929 Y38.005 Z0 F600
G1 X94.838 Y37.316 Z0 F600
; --- FIX X Backlash ---
G0 X95.538 Y37.316 F410
G1 X96.082 Y36.645 Z0 F600
G1 X96.508 Y36.307 Z0 F600
G1 X97.153 Y36.077 Z0 F600
G1 X97.747 Y36.109 Z0 F600
G1 X98.259 Y35.973 Z0 F600
; --- FIX Y Backlash ---
G0 X98.259 Y36.473 F410
G1 X99.146 Y36.715 Z0 F600
G1 X99.6 Y36.852 Z0 F600
; --- FIX X Backlash ---
G0 X98.9 Y36.852 F410
; --- FIX Y Backlash ---
G0 X98.9 Y36.352 F410
G1 X96.005 Y34.887 Z0 F600
G0 Z3.5 F600
; --- FIX X Backlash ---
G0 X96.705 Y34.887 F410
G0 X97.474 Y33.076 Z3.5
G1 Z0 F600
;Layer C2 Pass 1 of 3
; --- FIX Y Backlash ---
G0 X97.474 Y33.576 F410
G1 X100.942 Y35.298 Z0 F600
; --- FIX X Backlash ---
G0 X100.242 Y35.298 F410
G1 X99.089 Y37.571 Z0 F600
;Layer C2 Pass 2 of 3
; --- FIX X Backlash ---
G0 X99.789 Y37.571 F410
; --- FIX Y Backlash ---
G0 X99.789 Y37.071 F410
G1 X100.942 Y34.798 Z0 F600
; --- FIX X Backlash ---
G0 X100.242 Y34.798 F410
G1 X96.774 Y33.076 Z0 F600
;Layer C2 Pass 3 of 3
; --- FIX X Backlash ---
G0 X97.474 Y33.076 F410
; --- FIX Y Backlash ---
G0 X97.474 Y33.576 F410
G1 X100.942 Y35.298 Z0 F600
; --- FIX X Backlash ---
G0 X100.242 Y35.298 F410
G1 X99.089 Y37.571 Z0 F600
G0 Z3.5 F600
; --- FIX X Backlash ---
G0 X99.789 Y37.571 F410
; --- FIX Y Backlash ---
G0 X99.789 Y37.071 F410
G0 X101.162 Y34.325 Z3.5
G1 Z0 F600
;Layer C2 Pass 1 of 3
G1 X103.777 Y29.132 Z0 F600
;Layer C2 Pass 2 of 3
; --- FIX X Backlash ---
G0 X103.077 Y29.132 F410
; --- FIX Y Backlash ---
G0 X103.077 Y29.632 F410
G1 X100.462 Y34.825 Z0 F600
;Layer C2 Pass 3 of 3
; --- FIX X Backlash ---
G0 X101.162 Y34.825 F410
; --- FIX Y Backlash ---
G0 X101.162 Y34.325 F410
G1 X103.777 Y29.132 Z0 F600
G0 Z3.5 F600
; --- FIX X Backlash ---
G0 X103.077 Y29.132 F410
; --- FIX Y Backlash ---
G0 X103.077 Y29.632 F410
G0 X102.497 Y30.276 Z3.5
G1 Z0 F600
;Layer C2 Pass 1 of 3
; --- FIX Y Backlash ---
G0 X102.497 Y29.776 F410
G1 X99.38 Y28.241 Z0 F600
;Layer C2 Pass 2 of 3
; --- FIX X Backlash ---
G0 X100.08 Y28.241 F410
; --- FIX Y Backlash ---
G0 X100.08 Y28.741 F410
G1 X103.197 Y30.276 Z0 F600
;Layer C2 Pass 3 of 3
; --- FIX X Backlash ---
G0 X102.497 Y30.276 F410
; --- FIX Y Backlash ---
G0 X102.497 Y29.776 F410
G1 X99.38 Y28.241 Z0 F600
G0 Z3.5 F600
; --- FIX X Backlash ---
G0 X100.08 Y28.241 F410
; --- FIX Y Backlash ---
G0 X100.08 Y28.741 F410
G0 X101.032 Y29.45 Z3.5
G1 Z0 F600
;Layer C2 Pass 1 of 3
; --- FIX X Backlash ---
G0 X100.332 Y29.45 F410
G1 X100.026 Y29.493 Z0 F600
G1 X99.67 Y29.562 Z0 F600
G1 X99.059 Y29.884 Z0 F600
G1 X98.89 Y30.216 Z0 F600
G1 X98.682 Y30.599 Z0 F600
G1 X98.553 Y30.935 Z0 F600
G1 X98.462 Y31.22 Z0 F600
; --- FIX X Backlash ---
G0 X99.162 Y31.22 F410
G1 X99.395 Y31.976 Z0 F600
G1 X99.801 Y32.309 Z0 F600
; --- FIX Y Backlash ---
G0 X99.801 Y31.809 F410
G1 X100.321 Y31.716 Z0 F600
G1 X100.525 Y31.338 Z0 F600
G1 X100.714 Y31.131 Z0 F600
G1 X100.858 Y30.963 Z0 F600
G1 X100.954 Y30.834 Z0 F600
G1 X101.08 Y30.745 Z0 F600
G1 X101.29 Y30.665 Z0 F600
G1 X101.396 Y30.632 Z0 F600
G1 X101.574 Y30.583 Z0 F600
; --- FIX Y Backlash ---
G0 X101.574 Y31.083 F410
G1 X102.071 Y31.272 Z0 F600
G1 X102.297 Y32.257 Z0 F600
;Layer C2 Pass 2 of 3
; --- FIX X Backlash ---
G0 X101.597 Y32.257 F410
; --- FIX Y Backlash ---
G0 X101.597 Y31.757 F410
G1 X101.371 Y30.772 Z0 F600
G1 X100.874 Y30.583 Z0 F600
G1 X100.696 Y30.632 Z0 F600
G1 X100.59 Y30.665 Z0 F600
; --- FIX Y Backlash ---
G0 X100.59 Y31.165 F410
G1 X100.38 Y31.245 Z0 F600
G1 X100.254 Y31.334 Z0 F600
G1 X100.158 Y31.463 Z0 F600
G1 X100.014 Y31.631 Z0 F600
G1 X99.825 Y31.838 Z0 F600
G1 X99.621 Y32.216 Z0 F600
G1 X99.101 Y32.309 Z0 F600
; --- FIX Y Backlash ---
G0 X99.101 Y31.809 F410
G1 X98.695 Y31.476 Z0 F600
G1 X98.462 Y30.72 Z0 F600
; --- FIX X Backlash ---
G0 X99.162 Y30.72 F410
G1 X99.253 Y30.435 Z0 F600
G1 X99.382 Y30.099 Z0 F600
G1 X99.59 Y29.716 Z0 F600
G1 X99.759 Y29.384 Z0 F600
G1 X100.37 Y29.062 Z0 F600
G1 X100.726 Y28.993 Z0 F600
G1 X101.032 Y28.95 Z0 F600
;Layer C2 Pass 3 of 3
; --- FIX X Backlash ---
G0 X100.332 Y28.95 F410
G1 X100.026 Y28.993 Z0 F600
; --- FIX Y Backlash ---
G0 X100.026 Y29.493 F410
G1 X99.67 Y29.562 Z0 F600
G1 X99.059 Y29.884 Z0 F600
G1 X98.89 Y30.216 Z0 F600
G1 X98.682 Y30.599 Z0 F600
G1 X98.553 Y30.935 Z0 F600
G1 X98.462 Y31.22 Z0 F600
; --- FIX X Backlash ---
G0 X99.162 Y31.22 F410
G1 X99.395 Y31.976 Z0 F600
G1 X99.801 Y32.309 Z0 F600
; --- FIX Y Backlash ---
G0 X99.801 Y31.809 F410
G1 X100.321 Y31.716 Z0 F600
G1 X100.525 Y31.338 Z0 F600
G1 X100.714 Y31.131 Z0 F600
G1 X100.858 Y30.963 Z0 F600
G1 X100.954 Y30.834 Z0 F600
G1 X101.08 Y30.745 Z0 F600
G1 X101.29 Y30.665 Z0 F600
G1 X101.396 Y30.632 Z0 F600
G1 X101.574 Y30.583 Z0 F600
; --- FIX Y Backlash ---
G0 X101.574 Y31.083 F410
G1 X102.071 Y31.272 Z0 F600
G1 X102.297 Y32.257 Z0 F600
;Offset @ 555 mm/min, 90% power

M8
G0 Z3.5 F600
; --- FIX X Backlash ---
G0 X101.597 Y32.257 F410
G0 X85.252 Y33.371 Z3.5
G1 Z0 F600
;Layer C1
; --- FIX X Backlash ---
G0 X85.952 Y33.371 F410
G1 X87.163 Y33.703 Z0 F600
; --- FIX X Backlash ---
G0 X86.463 Y33.703 F410
G1 X86.409 Y33.943 Z0 F600
; --- FIX Y Backlash ---
G0 X86.409 Y33.443 F410
G1 X83.13 Y33.215 Z0 F600
G1 X82.151 Y33.154 Z0 F600
; --- FIX X Backlash ---
G0 X82.851 Y33.154 F410
G1 X83.205 Y32.888 Z0 F600
G1 X83.655 Y32.473 Z0 F600
G1 X83.848 Y32.27 Z0 F600
; --- FIX Y Backlash ---
G0 X83.848 Y32.77 F410
G1 X85.952 Y33.371 Z0 F600
G0 Z3.5 F600
G0 X87.65 Y34.459 Z3.5 F600
G1 Z0 F600
G1 X87.609 Y34.563 Z0 F600
G1 X87.6 Y34.619 Z0 F600
; --- FIX X Backlash ---
G0 X86.9 Y34.619 F410
; --- FIX Y Backlash ---
G0 X86.9 Y34.119 F410
G1 X83.088 Y33.854 Z0 F600
G1 X80.082 Y33.666 Z0 F600
G1 X80.096 Y33.441 Z0 F600
; --- FIX X Backlash ---
G0 X80.796 Y33.441 F410
G1 X81.539 Y33.203 Z0 F600
G1 X82.266 Y32.792 Z0 F600
G1 X82.795 Y32.396 Z0 F600
G1 X83.205 Y32.017 Z0 F600
G1 X83.52 Y31.685 Z0 F600
G1 X83.642 Y31.545 Z0 F600
; --- FIX Y Backlash ---
G0 X83.642 Y32.045 F410
G1 X86.124 Y32.754 Z0 F600
G1 X87.92 Y33.248 Z0 F600
; --- FIX X Backlash ---
G0 X87.22 Y33.248 F410
G1 X86.95 Y34.459 Z0 F600
G0 Z3.5 F600
; --- FIX X Backlash ---
G0 X87.65 Y34.459 F410
G0 X88.119 Y35.297 Z3.5
G1 Z0 F600
; --- FIX X Backlash ---
G0 X87.419 Y35.297 F410
; --- FIX Y Backlash ---
G0 X87.419 Y34.797 F410
G1 X83.046 Y34.492 Z0 F600
G1 X79.331 Y34.26 Z0 F600
; --- FIX X Backlash ---
G0 X80.031 Y34.26 F410
G1 X80.121 Y33.979 Z0 F600
G1 X80.167 Y33.268 Z0 F600
; --- FIX X Backlash ---
G0 X79.467 Y33.268 F410
G1 X79.405 Y32.842 Z0 F600
; --- FIX X Backlash ---
G0 X80.105 Y32.842 F410
G1 X80.629 Y32.823 Z0 F600
G1 X81.281 Y32.614 Z0 F600
G1 X81.915 Y32.255 Z0 F600
G1 X82.385 Y31.903 Z0 F600
G1 X82.755 Y31.561 Z0 F600
G1 X83.047 Y31.254 Z0 F600
G1 X83.391 Y30.86 Z0 F600
G1 X83.431 Y30.819 Z0 F600
; --- FIX Y Backlash ---
G0 X83.431 Y31.319 F410
G1 X86.297 Y32.138 Z0 F600
G1 X88.678 Y32.792 Z0 F600
; --- FIX X Backlash ---
G0 X87.978 Y32.792 F410
G1 X87.565 Y34.644 Z0 F600
G1 X87.529 Y34.736 Z0 F600
G1 X87.472 Y35.058 Z0 F600
G1 X87.419 Y35.297 Z0 F600
G0 Z3.5 F600
; --- FIX X Backlash ---
G0 X88.119 Y35.297 F410
G0 X88.624 Y35.974 Z3.5
G1 Z0 F600
; --- FIX X Backlash ---
G0 X87.924 Y35.974 F410
; --- FIX Y Backlash ---
G0 X87.924 Y35.474 F410
G1 X83.003 Y35.13 Z0 F600
G1 X79.195 Y34.893 Z0 F600
G1 X78.349 Y34.844 Z0 F600
; --- FIX X Backlash ---
G0 X79.049 Y34.844 F410
G1 X79.298 Y34.452 Z0 F600
G1 X79.487 Y33.859 Z0 F600
G1 X79.523 Y33.293 Z0 F600
; --- FIX X Backlash ---
G0 X78.823 Y33.293 F410
G1 X78.755 Y32.817 Z0 F600
G1 X78.634 Y32.437 Z0 F600
G1 X78.491 Y32.126 Z0 F600
; --- FIX X Backlash ---
G0 X79.191 Y32.126 F410
; --- FIX Y Backlash ---
G0 X79.191 Y32.626 F410
G1 X80.066 Y32.703 Z0 F600
G1 X80.518 Y32.687 Z0 F600
; --- FIX Y Backlash ---
G0 X80.518 Y32.187 F410
G1 X81.023 Y32.024 Z0 F600
G1 X81.563 Y31.719 Z0 F600
G1 X81.975 Y31.41 Z0 F600
G1 X82.306 Y31.105 Z0 F600
G1 X82.573 Y30.823 Z0 F600
G1 X82.924 Y30.421 Z0 F600
G1 X83.201 Y30.141 Z0 F600
G1 X83.245 Y30.1 Z0 F600
; --- FIX Y Backlash ---
G0 X83.245 Y30.6 F410
G1 X86.469 Y31.521 Z0 F600
G1 X90.135 Y32.528 Z0 F600
G1 X90.192 Y32.614 Z0 F600
G1 X90.604 Y33.022 Z0 F600
; --- FIX X Backlash ---
G0 X89.904 Y33.022 F410
G1 X89.826 Y33.047 Z0 F600
G1 X89.416 Y33.251 Z0 F600
G1 X89.148 Y33.444 Z0 F600
; --- FIX Y Backlash ---
G0 X89.148 Y32.944 F410
G1 X88.515 Y32.821 Z0 F600
; --- FIX Y Backlash ---
G0 X88.515 Y33.321 F410
G1 X88.178 Y34.833 Z0 F600
G1 X88.148 Y34.91 Z0 F600
G1 X88.101 Y35.179 Z0 F600
G1 X87.924 Y35.974 Z0 F600
G0 Z3.5 F600
; --- FIX X Backlash ---
G0 X88.624 Y35.974 F410
G0 X88.707 Y36.621 Z3.5
G1 Z0 F600
; --- FIX X Backlash ---
G0 X88.007 Y36.621 F410
; --- FIX Y Backlash ---
G0 X88.007 Y36.121 F410
G1 X82.961 Y35.769 Z0 F600
G1 X79.156 Y35.531 Z0 F600
G1 X75.354 Y35.311 Z0 F600
G1 X75.325 Z0 F600
; --- FIX X Backlash ---
G0 X76.025 Y35.311 F410
G1 X77.281 Y35.246 Z0 F600
G1 X77.543 Y35.198 Z0 F600
G1 X77.837 Y35.08 Z0 F600
G1 X78.179 Y34.851 Z0 F600
G1 X78.474 Y34.557 Z0 F600
G1 X78.713 Y34.178 Z0 F600
G1 X78.854 Y33.739 Z0 F600
G1 X78.88 Y33.319 Z0 F600
; --- FIX X Backlash ---
G0 X78.18 Y33.319 F410
G1 X78.129 Y32.96 Z0 F600
G1 X78.036 Y32.669 Z0 F600
G1 X77.924 Y32.425 Z0 F600
G1 X77.738 Y32.12 Z0 F600
G1 X77.556 Y31.877 Z0 F600
G1 X77.428 Y31.722 Z0 F600
G1 X77.345 Y31.619 Z0 F600
G1 X77.166 Y31.385 Z0 F600
; --- FIX X Backlash ---
G0 X77.866 Y31.385 F410
; --- FIX Y Backlash ---
G0 X77.866 Y31.885 F410
G1 X78.768 Y31.948 Z0 F600
G1 X80.083 Y32.062 Z0 F600
G1 X80.406 Y32.05 Z0 F600
; --- FIX Y Backlash ---
G0 X80.406 Y31.55 F410
G1 X80.765 Y31.435 Z0 F600
G1 X81.212 Y31.182 Z0 F600
G1 X81.565 Y30.918 Z0 F600
G1 X81.856 Y30.649 Z0 F600
G1 X82.1 Y30.393 Z0 F600
G1 X82.45 Y29.99 Z0 F600
G1 X82.753 Y29.683 Z0 F600
G1 X83.01 Y29.446 Z0 F600
G1 X83.071 Y29.385 Z0 F600
; --- FIX Y Backlash ---
G0 X83.071 Y29.885 F410
G1 X86.642 Y30.905 Z0 F600
G1 X90.534 Y31.974 Z0 F600
G1 X90.689 Y32.205 Z0 F600
G1 X91.061 Y32.574 Z0 F600
G1 X91.528 Y32.826 Z0 F600
G1 X92.248 Y33.063 Z0 F600
G1 X92.748 Y33.15 Z0 F600
G1 Y33.19 Z0 F600
G1 X92.817 Y33.602 Z0 F600
G1 X92.843 Y33.695 Z0 F600
; --- FIX X Backlash ---
G0 X92.143 Y33.695 F410
; --- FIX Y Backlash ---
G0 X92.143 Y33.195 F410
G1 X91.894 Y33.08 Z0 F600
G1 X91.295 Y32.961 Z0 F600
G1 X90.73 Y32.972 Z0 F600
; --- FIX Y Backlash ---
G0 X90.73 Y33.472 F410
G1 X90.388 Y33.538 Z0 F600
G1 X90.069 Y33.641 Z0 F600
G1 X89.747 Y33.801 Z0 F600
G1 X89.433 Y34.028 Z0 F600
G1 X89.333 Y34.133 Z0 F600
; --- FIX Y Backlash ---
G0 X89.333 Y33.633 F410
G1 X89.004 Y33.568 Z0 F600
; --- FIX Y Backlash ---
G0 X89.004 Y34.068 F410
G1 X88.792 Y35.021 Z0 F600
G1 X88.767 Y35.083 Z0 F600
G1 X88.729 Y35.303 Z0 F600
G1 X88.506 Y36.303 Z0 F600
G1 X88.323 Y37.265 Z0 F600
G1 X88.302 Y37.348 Z0 F600
G1 X88.287 Y37.322 Z0 F600
; --- FIX Y Backlash ---
G0 X88.287 Y36.822 F410
G1 X87.988 Y36.53 Z0 F600
G1 X88.007 Y36.121 Z0 F600
G0 Z3.5 F600
; --- FIX X Backlash ---
G0 X88.707 Y36.121 F410
G0 X90.955 Y30.926 Z3.5
G1 Z0 F600
; --- FIX Y Backlash ---
G0 X90.955 Y31.426 F410
G1 X91.027 Y31.559 Z0 F600
G1 X91.185 Y31.796 Z0 F600
G1 X91.445 Y32.054 Z0 F600
G1 X91.782 Y32.235 Z0 F600
G1 X92.404 Y32.44 Z0 F600
G1 X92.993 Y32.544 Z0 F600
G1 X93.372 Y32.584 Z0 F600
G1 X93.387 Y33.128 Z0 F600
G1 X93.443 Y33.463 Z0 F600
G1 X93.532 Y33.782 Z0 F600
G1 X93.658 Y34.096 Z0 F600
G1 X93.72 Y34.208 Z0 F600
G1 X93.711 Y34.381 Z0 F600
G1 X93.664 Y34.73 Z0 F600
G1 X93.623 Y34.957 Z0 F600
; --- FIX X Backlash ---
G0 X92.923 Y34.957 F410
G1 X92.811 Y34.943 Z0 F600
G1 X92.705 Y34.917 Z0 F600
G1 X92.65 Y34.892 Z0 F600
G1 X92.628 Y34.875 Z0 F600
; --- FIX Y Backlash ---
G0 X92.628 Y34.375 F410
G1 X92.556 Y34.286 Z0 F600
G1 X92.498 Y34.207 Z0 F600
G1 X92.132 Y33.895 Z0 F600
G1 X91.695 Y33.693 Z0 F600
G1 X91.239 Y33.603 Z0 F600
G1 X90.797 Y33.611 Z0 F600
G1 X90.548 Y33.659 Z0 F600
; --- FIX Y Backlash ---
G0 X90.548 Y34.159 F410
G1 X90.312 Y34.235 Z0 F600
G1 X90.079 Y34.351 Z0 F600
G1 X89.856 Y34.512 Z0 F600
G1 X89.656 Y34.723 Z0 F600
G1 X89.585 Y34.834 Z0 F600
G1 X89.493 Y34.816 Z0 F600
G1 X89.406 Y35.206 Z0 F600
G1 X89.387 Y35.256 Z0 F600
G1 X89.356 Y35.433 Z0 F600
G1 X89.133 Y36.433 Z0 F600
G1 X88.946 Y37.413 Z0 F600
G1 X88.845 Y37.827 Z0 F600
G1 X88.714 Y38.226 Z0 F600
G1 X88.556 Y38.567 Z0 F600
G1 X88.304 Y38.951 Z0 F600
G1 X87.148 Y40.98 Z0 F600
; --- FIX Y Backlash ---
G0 X87.148 Y40.48 F410
G1 X86.945 Y40.387 Z0 F600
G1 X86.717 Y40.329 Z0 F600
G1 X86.393 Y40.323 Z0 F600
G1 Y40.32 Z0 F600
; --- FIX X Backlash ---
G0 X87.093 Y40.32 F410
G1 X87.148 Y40.059 Z0 F600
G1 X87.144 Y39.785 Z0 F600
; --- FIX X Backlash ---
G0 X86.444 Y39.785 F410
G1 X86.372 Y39.51 Z0 F600
G1 X86.259 Y39.31 Z0 F600
; --- FIX X Backlash ---
G0 X86.959 Y39.31 F410
G1 X87.691 Y39.303 Z0 F600
G1 X87.823 Y39.285 Z0 F600
G1 X87.968 Y39.242 Z0 F600
G1 X88.203 Y39.121 Z0 F600
G1 X88.412 Y38.955 Z0 F600
G1 X88.585 Y38.745 Z0 F600
G1 X88.709 Y38.498 Z0 F600
G1 X88.77 Y38.243 Z0 F600
G1 X88.778 Y37.999 Z0 F600
G1 X88.743 Y37.772 Z0 F600
; --- FIX X Backlash ---
G0 X88.043 Y37.772 F410
G1 X87.97 Y37.55 Z0 F600
G1 X87.778 Y37.219 Z0 F600
G1 X87.481 Y36.929 Z0 F600
G1 X87.333 Y36.853 Z0 F600
G1 X87.339 Y36.716 Z0 F600
G1 X82.919 Y36.408 Z0 F600
G1 X79.118 Y36.17 Z0 F600
G1 X75.318 Y35.95 Z0 F600
G1 X71.474 Y35.733 Z0 F600
G1 X71.267 Y35.751 Z0 F600
G1 X71.169 Y35.789 Z0 F600
G1 Y35.125 Z0 F600
G1 Y34.7 Z0 F600
; --- FIX X Backlash ---
G0 X71.869 Y34.7 F410
G1 X72.697 Z0 F600
G1 X74.177 Y34.706 Z0 F600
G1 X75.674 Y34.686 Z0 F600
G1 X77.208 Y34.608 Z0 F600
G1 X77.365 Y34.58 Z0 F600
G1 X77.536 Y34.511 Z0 F600
G1 X77.771 Y34.354 Z0 F600
G1 X77.971 Y34.154 Z0 F600
G1 X78.129 Y33.905 Z0 F600
G1 X78.22 Y33.62 Z0 F600
G1 X78.238 Y33.344 Z0 F600
G1 X78.203 Y33.104 Z0 F600
; --- FIX X Backlash ---
G0 X77.503 Y33.104 F410
G1 X77.439 Y32.901 Z0 F600
G1 X77.358 Y32.727 Z0 F600
G1 X77.207 Y32.479 Z0 F600
G1 X77.053 Y32.273 Z0 F600
G1 X76.926 Y32.119 Z0 F600
G1 X76.848 Y32.022 Z0 F600
G1 X76.366 Y31.391 Z0 F600
G1 X75.875 Y30.778 Z0 F600
G1 X75.782 Y30.66 Z0 F600
; --- FIX X Backlash ---
G0 X76.482 Y30.66 F410
; --- FIX Y Backlash ---
G0 X76.482 Y31.16 F410
G1 X77.602 Y31.225 Z0 F600
G1 X78.834 Y31.311 Z0 F600
G1 X80.099 Y31.421 Z0 F600
G1 X80.295 Y31.414 Z0 F600
; --- FIX Y Backlash ---
G0 X80.295 Y30.914 F410
G1 X80.507 Y30.846 Z0 F600
G1 X80.862 Y30.645 Z0 F600
G1 X81.155 Y30.425 Z0 F600
G1 X81.407 Y30.193 Z0 F600
G1 X81.626 Y29.962 Z0 F600
G1 X81.987 Y29.548 Z0 F600
G1 X82.311 Y29.221 Z0 F600
G1 X82.567 Y28.984 Z0 F600
G1 X82.797 Y28.755 Z0 F600
G1 X82.892 Y28.668 Z0 F600
; --- FIX Y Backlash ---
G0 X82.892 Y29.168 F410
G1 X86.814 Y30.289 Z0 F600
G1 X90.955 Y31.426 Z0 F600
G0 Z3.5 F600
; --- FIX X Backlash ---
G0 X90.255 Y31.426 F410
G0 X51.808 Y56.137 Z3.5
G1 Z0 F600
G1 X51.451 Y56.125 Z0 F600
; --- FIX Y Backlash ---
G0 X51.451 Y55.625 F410
G1 X51.471 Y55.001 Z0 F600
; --- FIX X Backlash ---
G0 X52.171 Y55.001 F410
; --- FIX Y Backlash ---
G0 X52.171 Y55.501 F410
G1 X52.311 Y55.828 Z0 F600
G1 X52.508 Y56.137 Z0 F600
G0 Z3.5 F600
G0 X53.463 Y56.282 Z3.5
G1 Z0 F600
G1 X53.836 Y56.564 Z0 F600
G1 X54.282 Y56.792 Z0 F600
G1 X54.484 Y56.846 Z0 F600
; --- FIX X Backlash ---
G0 X53.784 Y56.846 F410
; --- FIX Y Backlash ---
G0 X53.784 Y56.346 F410
G1 X50.803 Y56.242 Z0 F600
G1 Y55.795 Z0 F600
G1 X50.843 Y54.635 Z0 F600
G1 X50.855 Y53.613 Z0 F600
; --- FIX X Backlash ---
G0 X51.555 Y53.613 F410
G1 X51.72 Y53.484 Z0 F600
G1 X52.093 Y53.046 Z0 F600
G1 X52.284 Y52.682 Z0 F600
G1 X52.41 Y52.675 Z0 F600
G1 X52.413 Y52.689 Z0 F600
; --- FIX Y Backlash ---
G0 X52.413 Y53.189 F410
G1 X52.535 Y53.978 Z0 F600
G1 X52.667 Y54.901 Z0 F600
G1 X52.732 Y55.184 Z0 F600
G1 X52.878 Y55.528 Z0 F600
G1 X53.136 Y55.931 Z0 F600
G1 X53.463 Y56.282 Z0 F600
G0 Z3.5 F600
; --- FIX Y Backlash ---
G0 X53.463 Y55.782 F410
G0 X54.512 Y55.69 Z3.5
G1 Z0 F600
; --- FIX Y Backlash ---
G0 X54.512 Y56.19 F410
G1 X54.994 Y56.319 Z0 F600
G1 X55.397 Y56.346 Z0 F600
G1 X55.681 Y56.341 Z0 F600
G1 X55.876 Y56.333 Z0 F600
G1 X55.952 Z0 F600
G1 X55.97 Z0 F600
G1 X56.019 Y56.342 Z0 F600
G1 X56.144 Y56.349 Z0 F600
G1 X67.684 Y56.494 Z0 F600
G1 X79.128 Y56.606 Z0 F600
G1 X79.329 Y56.626 Z0 F600
G1 X79.632 Y56.611 Z0 F600
G1 X80.427 Y56.619 Z0 F600
; --- FIX Y Backlash ---
G0 X80.427 Y56.119 F410
G1 X80.437 Y55.901 Z0 F600
G1 X80.553 Y55.854 Z0 F600
G1 X80.821 Y55.691 Z0 F600
G1 X81.073 Y55.48 Z0 F600
G1 X81.317 Y55.187 Z0 F600
G1 X81.481 Y54.862 Z0 F600
; --- FIX X Backlash ---
G0 X80.781 Y54.862 F410
; --- FIX Y Backlash ---
G0 X80.781 Y55.362 F410
G1 X80.667 Y55.935 Z0 F600
G1 X80.468 Y56.717 Z0 F600
G1 X80.244 Y57.384 Z0 F600
G1 X80.187 Y57.482 Z0 F600
G1 X80.135 Y57.535 Z0 F600
G1 X80.034 Y57.599 Z0 F600
G1 X79.859 Y57.671 Z0 F600
G1 X79.601 Y57.737 Z0 F600
G1 X79.286 Y57.785 Z0 F600
G1 X78.945 Y57.81 Z0 F600
G1 X78.545 Y57.818 Z0 F600
G1 X76.877 Y57.843 Z0 F600
G1 X75.218 Z0 F600
; --- FIX Y Backlash ---
G0 X75.218 Y57.343 F410
G1 X68.877 Y57.292 Z0 F600
G1 X62.541 Y57.209 Z0 F600
G1 X56.201 Y57.07 Z0 F600
G1 X50.161 Y56.86 Z0 F600
G1 X50.165 Y55.79 Z0 F600
G1 X50.203 Y54.621 Z0 F600
G1 X50.216 Y53.457 Z0 F600
G1 X50.225 Y53.293 Z0 F600
; --- FIX X Backlash ---
G0 X50.925 Y53.293 F410
G1 X51.275 Y53.02 Z0 F600
G1 X51.56 Y52.686 Z0 F600
G1 X51.812 Y52.207 Z0 F600
G1 X51.86 Y52.069 Z0 F600
G1 X51.96 Y52.058 Z0 F600
G1 X52.594 Y52.025 Z0 F600
G1 X52.937 Y52.019 Z0 F600
; --- FIX Y Backlash ---
G0 X52.937 Y52.519 F410
G1 X53.044 Y53.084 Z0 F600
G1 X53.168 Y53.887 Z0 F600
G1 X53.297 Y54.784 Z0 F600
G1 X53.344 Y54.986 Z0 F600
G1 X53.446 Y55.229 Z0 F600
G1 X53.644 Y55.537 Z0 F600
G1 X53.894 Y55.805 Z0 F600
G1 X54.178 Y56.02 Z0 F600
G1 X54.512 Y56.19 Z0 F600
G0 Z3.5 F600
G0 X56.889 Y58.21 Z3.5
G1 Z0 F600
; --- FIX X Backlash ---
G0 X56.189 Y58.21 F410
; --- FIX Y Backlash ---
G0 X56.189 Y57.71 F410
G1 X49.917 Y57.492 Z0 F600
G1 X49.785 Y57.465 Z0 F600
G1 X49.566 Y57.454 Z0 F600
G1 X49.521 Y56.885 Z0 F600
G1 X49.526 Y55.762 Z0 F600
G1 X49.563 Y54.607 Z0 F600
G1 X49.577 Y53.43 Z0 F600
G1 X49.598 Y53.007 Z0 F600
G1 X49.594 Y52.885 Z0 F600
; --- FIX X Backlash ---
G0 X50.294 Y52.885 F410
G1 X50.584 Y52.747 Z0 F600
G1 X50.83 Y52.555 Z0 F600
G1 X51.026 Y52.325 Z0 F600
G1 X51.224 Y51.949 Z0 F600
G1 X51.333 Y51.642 Z0 F600
G1 X51.393 Y51.478 Z0 F600
G1 X51.913 Y51.42 Z0 F600
G1 X52.564 Y51.386 Z0 F600
G1 X53.255 Y51.374 Z0 F600
G1 X53.448 Z0 F600
; --- FIX Y Backlash ---
G0 X53.448 Y51.874 F410
G1 X53.522 Y52.171 Z0 F600
G1 X53.677 Y52.987 Z0 F600
G1 X53.802 Y53.796 Z0 F600
G1 X53.927 Y54.667 Z0 F600
G1 X53.955 Y54.788 Z0 F600
G1 X54.015 Y54.929 Z0 F600
G1 X54.152 Y55.144 Z0 F600
G1 X54.324 Y55.328 Z0 F600
G1 X54.519 Y55.475 Z0 F600
G1 X54.743 Y55.59 Z0 F600
G1 X55.099 Y55.685 Z0 F600
G1 X55.413 Y55.706 Z0 F600
G1 X55.662 Y55.701 Z0 F600
G1 X55.857 Y55.693 Z0 F600
G1 X55.984 Z0 F600
G1 X56.051 Y55.698 Z0 F600
G1 X56.09 Y55.705 Z0 F600
G1 X56.166 Y55.709 Z0 F600
G1 X67.69 Y55.854 Z0 F600
G1 X79.163 Y55.966 Z0 F600
G1 X79.345 Y55.984 Z0 F600
G1 X79.619 Y55.971 Z0 F600
G1 X79.816 Z0 F600
G1 Y55.934 Z0 F600
G1 X79.962 Y55.903 Z0 F600
; --- FIX Y Backlash ---
G0 X79.962 Y55.403 F410
G1 X80.265 Y55.28 Z0 F600
G1 X80.447 Y55.169 Z0 F600
G1 X80.618 Y55.026 Z0 F600
G1 X80.779 Y54.833 Z0 F600
G1 X80.904 Y54.586 Z0 F600
G1 X80.97 Y54.306 Z0 F600
G1 X80.966 Y54.025 Z0 F600
G1 X80.924 Y53.843 Z0 F600
G1 X80.963 Y53.877 Z0 F600
; --- FIX Y Backlash ---
G0 X80.963 Y54.377 F410
G1 X81.378 Y54.536 Z0 F600
G1 X81.785 Y54.542 Z0 F600
; --- FIX Y Backlash ---
G0 X81.785 Y54.042 F410
G1 X82.021 Y53.982 Z0 F600
G1 X82.216 Y53.894 Z0 F600
G1 X82.313 Y53.829 Z0 F600
G1 X82.31 Y53.845 Z0 F600
; --- FIX X Backlash ---
G0 X81.61 Y53.845 F410
; --- FIX Y Backlash ---
G0 X81.61 Y54.345 F410
G1 X81.464 Y55.213 Z0 F600
G1 X81.292 Y56.078 Z0 F600
G1 X81.084 Y56.896 Z0 F600
G1 X80.83 Y57.651 Z0 F600
G1 X80.699 Y57.874 Z0 F600
G1 X80.541 Y58.036 Z0 F600
G1 X80.332 Y58.169 Z0 F600
G1 X80.057 Y58.281 Z0 F600
G1 X79.73 Y58.366 Z0 F600
G1 X79.362 Y58.421 Z0 F600
G1 X78.967 Y58.45 Z0 F600
G1 X78.564 Y58.458 Z0 F600
G1 X76.886 Y58.482 Z0 F600
G1 X75.213 Z0 F600
G1 X68.868 Y58.432 Z0 F600
; --- FIX Y Backlash ---
G0 X68.868 Y57.932 F410
G1 X62.521 Y57.849 Z0 F600
G1 X56.189 Y57.71 Z0 F600
G0 Z3.5 F600
; --- FIX X Backlash ---
G0 X56.889 Y57.71 F410
G0 X78.801 Y43.2 Z3.5
G1 Z0 F600
G1 X79.168 Y39.747 Z0 F600
G1 X79.709 Y39.757 Z0 F600
G1 X80.557 Y39.79 Z0 F600
G1 X80.547 Y39.805 Z0 F600
; --- FIX X Backlash ---
G0 X79.847 Y39.805 F410
; --- FIX Y Backlash ---
G0 X79.847 Y40.305 F410
G1 X79.295 Y41.238 Z0 F600
G1 X78.781 Y42.2 Z0 F600
G1 X78.312 Y43.189 Z0 F600
G1 X78.101 Y43.7 Z0 F600
G0 Z3.5 F600
G0 X77.408 Y44.165 Z3.5
G1 Z0 F600
; --- FIX X Backlash ---
G0 X78.108 Y44.165 F410
; --- FIX Y Backlash ---
G0 X78.108 Y43.665 F410
G1 X78.592 Y39.114 Z0 F600
G1 X78.883 Y39.101 Z0 F600
G1 X79.733 Y39.118 Z0 F600
G1 X80.644 Y39.152 Z0 F600
G1 X81.566 Y39.165 Z0 F600
G1 X81.722 Y39.169 Z0 F600
; --- FIX X Backlash ---
G0 X81.022 Y39.169 F410
; --- FIX Y Backlash ---
G0 X81.022 Y39.669 F410
G1 X80.391 Y40.642 Z0 F600
G1 X79.853 Y41.552 Z0 F600
G1 X79.353 Y42.488 Z0 F600
G1 X78.897 Y43.449 Z0 F600
G1 X78.49 Y44.435 Z0 F600
G1 X78.136 Y45.443 Z0 F600
G1 X77.842 Y46.474 Z0 F600
G1 X77.605 Y47.564 Z0 F600
G1 X77.593 Y47.8 Z0 F600
G1 X77.62 Y48.031 Z0 F600
; --- FIX X Backlash ---
G0 X78.32 Y48.031 F410
G1 X78.392 Y48.265 Z0 F600
G1 X78.519 Y48.498 Z0 F600
G1 X78.705 Y48.707 Z0 F600
; --- FIX X Backlash ---
G0 X78.005 Y48.707 F410
; --- FIX Y Backlash ---
G0 X78.005 Y48.207 F410
G1 X77.268 Y48.147 Z0 F600
G1 X76.941 Y48.119 Z0 F600
; --- FIX X Backlash ---
G0 X77.641 Y48.119 F410
G1 X78.108 Y43.665 Z0 F600
G0 Z3.5 F600
; --- FIX X Backlash ---
G0 X77.408 Y43.665 F410
; --- FIX Y Backlash ---
G0 X77.408 Y44.165 F410
G0 X77.124 Y52.196 Z3.5
G1 Z0 F600
; --- FIX X Backlash ---
G0 X77.824 Y52.196 F410
G1 X79.584 Y52.309 Z0 F600
G1 X79.645 Y52.342 Z0 F600
G1 X79.773 Y52.444 Z0 F600
G1 X79.897 Y52.579 Z0 F600
G1 X80.012 Y52.74 Z0 F600
G1 X80.167 Y53.038 Z0 F600
; --- FIX X Backlash ---
G0 X79.467 Y53.038 F410
; --- FIX Y Backlash ---
G0 X79.467 Y52.538 F410
G1 X79.205 Y52.282 Z0 F600
G1 X78.844 Y52.06 Z0 F600
G1 X78.649 Y51.987 Z0 F600
G1 Y51.949 Z0 F600
G1 X78.462 Y51.941 Z0 F600
G1 X78.359 Y51.919 Z0 F600
G1 X78.099 Y51.905 Z0 F600
G1 X77.971 Y51.919 Z0 F600
G1 X76.46 Y51.854 Z0 F600
G1 X74.877 Y51.83 Z0 F600
G1 X72.242 Z0 F600
G1 X72.176 Y51.563 Z0 F600
; --- FIX X Backlash ---
G0 X72.876 Y51.563 F410
G1 X73.986 Y51.578 Z0 F600
G1 X75.901 Y51.621 Z0 F600
; --- FIX Y Backlash ---
G0 X75.901 Y52.121 F410
G1 X77.824 Y52.196 Z0 F600
G0 Z3.5 F600
; --- FIX Y Backlash ---
G0 X77.824 Y51.696 F410
G0 X82.784 Y51.272 Z3.5
G1 Z0 F600
; --- FIX X Backlash ---
G0 X82.084 Y51.272 F410
G1 X81.996 Y50.801 Z0 F600
G1 X81.816 Y50.257 Z0 F600
G1 X81.657 Y49.961 Z0 F600
; --- FIX X Backlash ---
G0 X82.357 Y49.961 F410
G1 X82.422 Y49.966 Z0 F600
G1 X82.608 Y49.924 Z0 F600
G1 X82.813 Y49.866 Z0 F600
G1 X83.179 Y49.599 Z0 F600
G1 X83.413 Y49.358 Z0 F600
; --- FIX X Backlash ---
G0 X82.713 Y49.358 F410
; --- FIX Y Backlash ---
G0 X82.713 Y49.858 F410
G1 X82.39 Y50.643 Z0 F600
G1 X82.123 Y51.595 Z0 F600
G1 X82.084 Y51.772 Z0 F600
G0 Z3.5 F600
; --- FIX X Backlash ---
G0 X82.784 Y51.772 F410
; --- FIX Y Backlash ---
G0 X82.784 Y51.272 F410
G0 X83.831 Y40.378 Z3.5
G1 Z0 F600
G1 X83.86 Y40.318 Z0 F600
G1 X83.863 Y40.305 Z0 F600
G1 X84.051 Y39.894 Z0 F600
; --- FIX X Backlash ---
G0 X83.351 Y39.894 F410
G1 X83.232 Y39.833 Z0 F600
G1 Y39.794 Z0 F600
G1 X83.181 Y39.533 Z0 F600
G1 X83.077 Y39.302 Z0 F600
G1 X83.029 Y39.235 Z0 F600
; --- FIX X Backlash ---
G0 X83.729 Y39.235 F410
G1 X84.573 Y39.271 Z0 F600
G1 X84.896 Y39.281 Z0 F600
; --- FIX X Backlash ---
G0 X84.196 Y39.281 F410
; --- FIX Y Backlash ---
G0 X84.196 Y39.781 F410
G1 X83.434 Y40.535 Z0 F600
G1 X83.131 Y40.878 Z0 F600
G0 Z3.5 F600
G0 X82.099 Y47.143 Z3.5
G1 Z0 F600
G1 X81.593 Y48.126 Z0 F600
G1 X81.126 Y49.125 Z0 F600
G1 X81.113 Y49.16 Z0 F600
G1 X81.106 Y49.195 Z0 F600
G1 Y49.321 Z0 F600
G1 X81.132 Y49.437 Z0 F600
G1 X81.181 Y49.542 Z0 F600
; --- FIX X Backlash ---
G0 X81.881 Y49.542 F410
G1 X81.949 Y49.633 Z0 F600
G1 X82.033 Y49.711 Z0 F600
G1 X82.134 Y49.772 Z0 F600
G1 X82.249 Y49.811 Z0 F600
G1 X82.376 Y49.82 Z0 F600
G1 X82.451 Y49.804 Z0 F600
G1 X82.528 Y49.782 Z0 F600
; --- FIX Y Backlash ---
G0 X82.528 Y49.282 F410
G1 X82.758 Y49.114 Z0 F600
G1 X82.948 Y48.917 Z0 F600
G1 X83.108 Y48.703 Z0 F600
G1 X83.246 Y48.481 Z0 F600
G1 X83.49 Y48.051 Z0 F600
G1 X83.733 Y47.685 Z0 F600
G1 X83.744 Y47.671 Z0 F600
G1 X84.707 Y46.154 Z0 F600
G1 X85.697 Y44.679 Z0 F600
G1 X86.707 Y43.212 Z0 F600
G1 X87.72 Y41.738 Z0 F600
G1 X87.739 Y41.704 Z0 F600
G1 X87.753 Y41.666 Z0 F600
G1 X87.777 Y41.54 Z0 F600
G1 Y41.415 Z0 F600
G1 X87.748 Y41.295 Z0 F600
; --- FIX X Backlash ---
G0 X87.048 Y41.295 F410
G1 X86.994 Y41.189 Z0 F600
G1 X86.918 Y41.102 Z0 F600
G1 X86.829 Y41.038 Z0 F600
G1 X86.732 Y40.993 Z0 F600
G1 X86.631 Y40.968 Z0 F600
G1 X86.427 Y40.964 Z0 F600
; --- FIX Y Backlash ---
G0 X86.427 Y41.464 F410
G1 X86.228 Y41.52 Z0 F600
G1 X86.052 Y41.638 Z0 F600
G1 X85.918 Y41.82 Z0 F600
; --- FIX Y Backlash ---
G0 X85.918 Y41.32 F410
G1 X85.962 Y41.257 Z0 F600
; --- FIX Y Backlash ---
G0 X85.962 Y41.757 F410
G1 X85.217 Y42.578 Z0 F600
G1 X84.513 Y43.434 Z0 F600
G1 X83.85 Y44.321 Z0 F600
G1 X83.227 Y45.237 Z0 F600
G1 X82.643 Y46.179 Z0 F600
G1 X82.099 Y47.143 Z0 F600
G0 Z3.5 F600
G0 X80.764 Y48.577 Z3.5
G1 Z0 F600
; --- FIX X Backlash ---
G0 X81.464 Y48.577 F410
; --- FIX Y Backlash ---
G0 X81.464 Y48.077 F410
G1 X81.574 Y47.875 Z0 F600
G1 X81.753 Y47.492 Z0 F600
G1 X81.921 Y47.189 Z0 F600
G1 X81.933 Y47.171 Z0 F600
G1 X82.42 Y46.246 Z0 F600
G1 X82.928 Y45.357 Z0 F600
G1 X83.463 Y44.484 Z0 F600
G1 X84.022 Y43.625 Z0 F600
G1 X85.194 Y41.937 Z0 F600
G1 X86.41 Y40.276 Z0 F600
G1 X86.428 Y40.249 Z0 F600
G1 X86.481 Y40.126 Z0 F600
G1 X86.507 Y39.999 Z0 F600
G1 Y39.872 Z0 F600
G1 X86.474 Y39.753 Z0 F600
; --- FIX X Backlash ---
G0 X85.774 Y39.753 F410
G1 X85.716 Y39.649 Z0 F600
G1 X85.639 Y39.565 Z0 F600
G1 X85.55 Y39.501 Z0 F600
G1 X85.452 Y39.455 Z0 F600
G1 X85.242 Y39.414 Z0 F600
G1 X85.025 Y39.443 Z0 F600
; --- FIX Y Backlash ---
G0 X85.025 Y39.943 F410
G1 X84.824 Y40.046 Z0 F600
G1 X84.667 Y40.229 Z0 F600
; --- FIX Y Backlash ---
G0 X84.667 Y39.729 F410
G1 X84.715 Y39.667 Z0 F600
; --- FIX Y Backlash ---
G0 X84.715 Y40.167 F410
G1 X83.899 Y40.975 Z0 F600
G1 X83.141 Y41.833 Z0 F600
G1 X82.439 Y42.737 Z0 F600
G1 X81.791 Y43.682 Z0 F600
G1 X81.197 Y44.662 Z0 F600
G1 X80.656 Y45.671 Z0 F600
G1 X80.167 Y46.705 Z0 F600
G1 X79.728 Y47.756 Z0 F600
G1 X79.632 Y48.044 Z0 F600
G1 X79.583 Y48.221 Z0 F600
G1 X79.551 Y48.414 Z0 F600
G1 X79.547 Y48.517 Z0 F600
G1 X79.556 Y48.625 Z0 F600
G1 X79.586 Y48.735 Z0 F600
; --- FIX X Backlash ---
G0 X80.286 Y48.735 F410
G1 X80.342 Y48.843 Z0 F600
G1 X80.427 Y48.938 Z0 F600
G1 X80.536 Y49.011 Z0 F600
G1 X80.662 Y49.062 Z0 F600
G1 X80.799 Y49.087 Z0 F600
G1 X80.859 Z0 F600
G1 X80.918 Y49.07 Z0 F600
; --- FIX Y Backlash ---
G0 X80.918 Y48.57 F410
G1 X81.146 Y48.441 Z0 F600
G1 X81.325 Y48.271 Z0 F600
G1 X81.464 Y48.077 Z0 F600
G0 Z3.5 F600
G0 X82.525 Y41.692 Z3.5
G1 Z0 F600
G1 X83.214 Y40.185 Z0 F600
G1 X83.197 Y40.215 Z0 F600
G1 X83.256 Y40.097 Z0 F600
G1 X83.287 Y39.972 Z0 F600
G1 X83.291 Y39.847 Z0 F600
G1 X83.268 Y39.729 Z0 F600
G1 X83.22 Y39.623 Z0 F600
; --- FIX X Backlash ---
G0 X82.52 Y39.623 F410
G1 X82.455 Y39.533 Z0 F600
G1 X82.376 Y39.458 Z0 F600
G1 X82.287 Y39.398 Z0 F600
G1 X82.189 Y39.355 Z0 F600
G1 X82.084 Y39.329 Z0 F600
G1 X81.973 Y39.321 Z0 F600
G1 X81.86 Y39.336 Z0 F600
G1 X81.748 Y39.377 Z0 F600
; --- FIX Y Backlash ---
G0 X81.748 Y39.877 F410
G1 X81.643 Y39.943 Z0 F600
G1 X81.551 Y40.033 Z0 F600
G1 X81.479 Y40.144 Z0 F600
G1 X81.493 Y40.118 Z0 F600
G1 X80.935 Y40.979 Z0 F600
G1 X80.411 Y41.866 Z0 F600
G1 X79.925 Y42.776 Z0 F600
G1 X79.482 Y43.708 Z0 F600
G1 X79.088 Y44.663 Z0 F600
G1 X78.747 Y45.637 Z0 F600
G1 X78.463 Y46.63 Z0 F600
G1 X78.241 Y47.648 Z0 F600
G1 X78.235 Y47.778 Z0 F600
G1 X78.249 Y47.899 Z0 F600
G1 X78.285 Y48.017 Z0 F600
; --- FIX X Backlash ---
G0 X78.985 Y48.017 F410
G1 X79.045 Y48.127 Z0 F600
G1 X79.132 Y48.224 Z0 F600
G1 X79.244 Y48.3 Z0 F600
G1 X79.373 Y48.35 Z0 F600
G1 X79.513 Y48.368 Z0 F600
G1 X79.604 Y48.35 Z0 F600
G1 X79.705 Y48.322 Z0 F600
; --- FIX Y Backlash ---
G0 X79.705 Y47.822 F410
G1 X79.903 Y47.65 Z0 F600
G1 X80.052 Y47.45 Z0 F600
G1 X80.162 Y47.234 Z0 F600
G1 X80.247 Y47.016 Z0 F600
G1 X80.383 Y46.605 Z0 F600
G1 X80.528 Y46.271 Z0 F600
G1 X80.537 Y46.253 Z0 F600
G1 X81.178 Y44.715 Z0 F600
G1 X81.842 Y43.202 Z0 F600
G1 X82.525 Y41.692 Z0 F600
G0 Z3.5 F600
G0 X84.597 Y38.631 Z3.5
G1 Z0 F600
G1 X86.118 Y38.678 Z0 F600
G1 X87.645 Y38.664 Z0 F600
G1 X87.687 Y38.658 Z0 F600
G1 X87.728 Y38.646 Z0 F600
G1 X87.854 Y38.581 Z0 F600
G1 X87.961 Y38.495 Z0 F600
G1 X88.046 Y38.393 Z0 F600
G1 X88.104 Y38.278 Z0 F600
G1 X88.132 Y38.157 Z0 F600
G1 X88.136 Y38.038 Z0 F600
G1 X88.118 Y37.922 Z0 F600
G1 X88.083 Y37.813 Z0 F600
; --- FIX X Backlash ---
G0 X87.383 Y37.813 F410
G1 X87.268 Y37.616 Z0 F600
G1 X87.103 Y37.455 Z0 F600
G1 X86.894 Y37.347 Z0 F600
G1 X86.648 Y37.311 Z0 F600
G1 X86.672 Z0 F600
G1 X82.877 Y37.046 Z0 F600
G1 X79.079 Y36.809 Z0 F600
G1 X75.281 Y36.589 Z0 F600
G1 X71.484 Y36.375 Z0 F600
G1 X71.413 Y36.381 Z0 F600
G1 X71.346 Y36.406 Z0 F600
; --- FIX Y Backlash ---
G0 X71.346 Y36.906 F410
G1 X71.216 Y36.995 Z0 F600
G1 X71.107 Y37.1 Z0 F600
G1 X71.021 Y37.216 Z0 F600
G1 X70.959 Y37.341 Z0 F600
G1 X70.896 Y37.596 Z0 F600
G1 X70.885 Y37.845 Z0 F600
G1 X70.896 Y38.082 Z0 F600
G1 X70.913 Y38.303 Z0 F600
G1 X70.922 Y38.496 Z0 F600
G1 X70.91 Y38.651 Z0 F600
G1 X70.893 Y38.941 Z0 F600
G1 X70.904 Y39.148 Z0 F600
G1 X70.868 Y39.144 Z0 F600
G1 X70.832 Z0 F600
G1 X70.674 Y39.158 Z0 F600
G1 X70.544 Z0 F600
G1 X70.455 Y39.148 Z0 F600
G1 X70.415 Y39.139 Z0 F600
G1 Y39.142 Z0 F600
; --- FIX Y Backlash ---
G0 X70.415 Y38.642 F410
G1 X70.418 Y38.552 Z0 F600
; --- FIX X Backlash ---
G0 X71.118 Y38.552 F410
G1 X71.168 Y38.364 Z0 F600
G1 X71.173 Y38.327 Z0 F600
G1 X71.212 Y37.257 Z0 F600
G1 X71.228 Y36.19 Z0 F600
G1 X71.231 Y35.124 Z0 F600
G1 Y34.06 Z0 F600
G1 X72.699 Z0 F600
G1 X74.174 Y34.065 Z0 F600
G1 X75.653 Y34.046 Z0 F600
G1 X77.135 Y33.971 Z0 F600
G1 X77.187 Y33.962 Z0 F600
G1 X77.235 Y33.942 Z0 F600
G1 X77.363 Y33.857 Z0 F600
G1 X77.468 Y33.752 Z0 F600
G1 X77.544 Y33.632 Z0 F600
G1 X77.586 Y33.5 Z0 F600
G1 X77.595 Y33.37 Z0 F600
G1 X77.577 Y33.247 Z0 F600
G1 X77.541 Y33.133 Z0 F600
G1 X77.493 Y33.029 Z0 F600
; --- FIX X Backlash ---
G0 X76.793 Y33.029 F410
G1 X76.676 Y32.838 Z0 F600
G1 X76.55 Y32.668 Z0 F600
G1 X76.432 Y32.526 Z0 F600
G1 X76.344 Y32.417 Z0 F600
G1 X75.862 Y31.785 Z0 F600
G1 X75.371 Y31.173 Z0 F600
G1 X74.895 Y30.566 Z0 F600
G1 X74.458 Y29.947 Z0 F600
; --- FIX X Backlash ---
G0 X75.158 Y29.947 F410
; --- FIX Y Backlash ---
G0 X75.158 Y30.447 F410
G1 X76.4 Y30.514 Z0 F600
G1 X77.641 Y30.586 Z0 F600
G1 X78.879 Y30.672 Z0 F600
G1 X80.115 Y30.78 Z0 F600
G1 X80.184 Y30.777 Z0 F600
G1 X80.249 Y30.756 Z0 F600
; --- FIX Y Backlash ---
G0 X80.249 Y30.256 F410
G1 X80.511 Y30.108 Z0 F600
G1 X80.745 Y29.933 Z0 F600
G1 X80.957 Y29.737 Z0 F600
G1 X81.152 Y29.531 Z0 F600
G1 X81.513 Y29.118 Z0 F600
G1 X81.868 Y28.758 Z0 F600
G1 X82.124 Y28.522 Z0 F600
G1 X82.354 Y28.293 Z0 F600
G1 X82.566 Y28.099 Z0 F600
G1 X82.769 Y27.967 Z0 F600
; --- FIX Y Backlash ---
G0 X82.769 Y28.467 F410
G1 X86.987 Y29.673 Z0 F600
G1 X91.216 Y30.833 Z0 F600
G1 X91.258 Y30.841 Z0 F600
G1 X91.326 Y30.857 Z0 F600
G1 X91.374 Y30.895 Z0 F600
G1 X91.43 Y30.97 Z0 F600
G1 X91.497 Y31.083 Z0 F600
G1 X91.575 Y31.228 Z0 F600
G1 X91.682 Y31.387 Z0 F600
G1 X91.831 Y31.535 Z0 F600
G1 X92.036 Y31.645 Z0 F600
G1 X92.561 Y31.818 Z0 F600
G1 X93.083 Y31.91 Z0 F600
G1 X93.592 Y31.964 Z0 F600
G1 X94.078 Y32.025 Z0 F600
; --- FIX X Backlash ---
G0 X93.378 Y32.025 F410
G1 X93.311 Y32.545 Z0 F600
G1 X93.325 Y33.066 Z0 F600
G1 X93.368 Y33.324 Z0 F600
; --- FIX X Backlash ---
G0 X94.068 Y33.324 F410
G1 X94.139 Y33.576 Z0 F600
G1 X94.238 Y33.822 Z0 F600
G1 X94.368 Y34.061 Z0 F600
G1 X94.349 Y34.439 Z0 F600
; --- FIX X Backlash ---
G0 X93.649 Y34.439 F410
G1 X93.596 Y34.831 Z0 F600
G1 X93.523 Y35.231 Z0 F600
G1 X93.44 Y35.639 Z0 F600
G1 X93.051 Y35.616 Z0 F600
G1 X92.696 Y35.574 Z0 F600
G1 X92.496 Y35.524 Z0 F600
; --- FIX Y Backlash ---
G0 X92.496 Y35.024 F410
G1 X92.324 Y34.948 Z0 F600
G1 X92.177 Y34.837 Z0 F600
G1 X92.051 Y34.679 Z0 F600
G1 X92.027 Y34.646 Z0 F600
G1 X91.783 Y34.439 Z0 F600
G1 X91.495 Y34.306 Z0 F600
G1 X91.182 Y34.244 Z0 F600
G1 X90.863 Y34.25 Z0 F600
G1 X90.707 Y34.28 Z0 F600
G1 X90.555 Y34.329 Z0 F600
; --- FIX Y Backlash ---
G0 X90.555 Y34.829 F410
G1 X90.411 Y34.901 Z0 F600
G1 X90.279 Y34.996 Z0 F600
G1 X90.163 Y35.118 Z0 F600
G1 X90.071 Y35.263 Z0 F600
G1 X90.006 Y35.43 Z0 F600
G1 X89.974 Y35.613 Z0 F600
G1 X89.982 Y35.564 Z0 F600
G1 X89.759 Y36.562 Z0 F600
G1 X89.573 Y37.54 Z0 F600
G1 X89.459 Y38.009 Z0 F600
G1 X89.311 Y38.457 Z0 F600
G1 X89.116 Y38.88 Z0 F600
G1 X88.85 Y39.286 Z0 F600
G1 X87.241 Y42.108 Z0 F600
G1 X85.705 Y44.958 Z0 F600
G1 X84.974 Y46.402 Z0 F600
G1 X84.276 Y47.864 Z0 F600
G1 X83.615 Y49.344 Z0 F600
G1 X82.996 Y50.852 Z0 F600
G1 X82.744 Y51.75 Z0 F600
G1 X82.549 Y52.648 Z0 F600
G1 X82.388 Y53.549 Z0 F600
G1 X82.242 Y54.447 Z0 F600
G1 X82.092 Y55.338 Z0 F600
G1 X81.916 Y56.217 Z0 F600
G1 X81.697 Y57.079 Z0 F600
G1 X81.415 Y57.918 Z0 F600
G1 X81.211 Y58.266 Z0 F600
G1 X80.946 Y58.536 Z0 F600
G1 X80.627 Y58.74 Z0 F600
G1 X80.261 Y58.89 Z0 F600
G1 X79.857 Y58.994 Z0 F600
G1 X79.432 Y59.057 Z0 F600
G1 X79 Y59.089 Z0 F600
G1 X78.573 Y59.098 Z0 F600
G1 X76.895 Y59.123 Z0 F600
G1 X75.208 Z0 F600
; --- FIX Y Backlash ---
G0 X75.208 Y58.623 F410
G1 X68.86 Y58.572 Z0 F600
G1 X62.512 Y58.489 Z0 F600
G1 X56.167 Y58.35 Z0 F600
G1 X49.839 Y58.13 Z0 F600
G1 X49.704 Y58.102 Z0 F600
G1 X49.528 Y58.093 Z0 F600
G1 X49.22 Y58.102 Z0 F600
G1 X49.1 Y58.093 Z0 F600
G1 X49.016 Y58.074 Z0 F600
G1 X48.987 Y58.055 Z0 F600
G1 X48.969 Y58.034 Z0 F600
G1 X48.881 Y56.909 Z0 F600
G1 X48.885 Y55.76 Z0 F600
G1 X48.924 Y54.593 Z0 F600
G1 X48.937 Y53.415 Z0 F600
G1 X48.958 Y53.001 Z0 F600
G1 X48.943 Y52.555 Z0 F600
G1 X48.921 Y52.487 Z0 F600
G1 X48.874 Y52.39 Z0 F600
G1 X48.808 Y52.274 Z0 F600
G1 X48.734 Y52.15 Z0 F600
G1 X48.586 Y51.91 Z0 F600
G1 X48.493 Y51.745 Z0 F600
; --- FIX X Backlash ---
G0 X49.193 Y51.745 F410
; --- FIX Y Backlash ---
G0 X49.193 Y52.245 F410
G1 X49.474 Y52.527 Z0 F600
G1 X49.765 Y52.798 Z0 F600
G1 X49.826 Y52.816 Z0 F600
G1 X49.889 Y52.819 Z0 F600
G1 X50.08 Y52.778 Z0 F600
; --- FIX Y Backlash ---
G0 X50.08 Y52.278 F410
G1 X50.246 Y52.199 Z0 F600
G1 X50.385 Y52.091 Z0 F600
G1 X50.493 Y51.964 Z0 F600
G1 X50.636 Y51.691 Z0 F600
G1 X50.732 Y51.422 Z0 F600
G1 X50.819 Y51.185 Z0 F600
G1 X50.911 Y51.007 Z0 F600
G1 X50.959 Y50.947 Z0 F600
G1 X51.01 Y50.904 Z0 F600
G1 X51.075 Y50.875 Z0 F600
G1 X51.169 Y50.859 Z0 F600
G1 X51.857 Y50.782 Z0 F600
G1 X52.547 Y50.746 Z0 F600
G1 X53.244 Y50.733 Z0 F600
G1 X53.948 Y50.727 Z0 F600
; --- FIX Y Backlash ---
G0 X53.948 Y51.227 F410
G1 X54.149 Y52.041 Z0 F600
G1 X54.306 Y52.868 Z0 F600
G1 X54.435 Y53.705 Z0 F600
G1 X54.557 Y54.549 Z0 F600
G1 X54.566 Y54.59 Z0 F600
G1 X54.583 Y54.629 Z0 F600
G1 X54.66 Y54.75 Z0 F600
G1 X54.754 Y54.851 Z0 F600
G1 X54.86 Y54.931 Z0 F600
G1 X54.974 Y54.989 Z0 F600
G1 X55.204 Y55.05 Z0 F600
G1 X55.429 Y55.065 Z0 F600
G1 X55.643 Y55.062 Z0 F600
G1 X55.839 Y55.053 Z0 F600
G1 X56.008 Z0 F600
G1 X56.136 Y55.063 Z0 F600
G1 X56.162 Y55.068 Z0 F600
G1 X56.188 Z0 F600
G1 X67.698 Y55.214 Z0 F600
G1 X79.198 Y55.327 Z0 F600
G1 X79.361 Y55.343 Z0 F600
G1 X79.566 Y55.333 Z0 F600
G1 X79.774 Y55.289 Z0 F600
; --- FIX Y Backlash ---
G0 X79.774 Y54.789 F410
G1 X79.976 Y54.707 Z0 F600
G1 X80.073 Y54.647 Z0 F600
G1 X80.163 Y54.572 Z0 F600
G1 X80.241 Y54.479 Z0 F600
G1 X80.298 Y54.365 Z0 F600
G1 X80.329 Y54.236 Z0 F600
G1 Y54.101 Z0 F600
G1 X80.295 Y53.963 Z0 F600
; --- FIX X Backlash ---
G0 X79.595 Y53.963 F410
G1 X79.533 Y53.821 Z0 F600
G1 X79.299 Y53.418 Z0 F600
G1 X79.006 Y52.983 Z0 F600
G1 X78.808 Y52.789 Z0 F600
G1 X78.563 Y52.638 Z0 F600
G1 X78.425 Y52.587 Z0 F600
G1 X78.276 Y52.556 Z0 F600
G1 X78.117 Y52.547 Z0 F600
G1 X77.993 Y52.561 Z0 F600
G1 X76.442 Y52.494 Z0 F600
G1 X74.872 Y52.47 Z0 F600
G1 X71.742 Y52.467 Z0 F600
G1 X71.548 Y51.688 Z0 F600
G1 X71.366 Y50.912 Z0 F600
; --- FIX X Backlash ---
G0 X72.066 Y50.912 F410
G1 X73.995 Y50.938 Z0 F600
G1 X75.926 Y50.981 Z0 F600
; --- FIX Y Backlash ---
G0 X75.926 Y51.481 F410
G1 X77.851 Y51.557 Z0 F600
G1 X79.764 Y51.679 Z0 F600
G1 X80.001 Y51.807 Z0 F600
G1 X80.21 Y51.974 Z0 F600
G1 X80.396 Y52.176 Z0 F600
G1 X80.559 Y52.405 Z0 F600
G1 X80.827 Y52.922 Z0 F600
G1 X81.036 Y53.479 Z0 F600
G1 X81.03 Y53.461 Z0 F600
G1 X81.133 Y53.673 Z0 F600
G1 X81.3 Y53.82 Z0 F600
G1 X81.501 Y53.897 Z0 F600
G1 X81.709 Y53.901 Z0 F600
G1 X81.809 Y53.875 Z0 F600
G1 X81.903 Y53.833 Z0 F600
; --- FIX Y Backlash ---
G0 X81.903 Y53.333 F410
G1 X81.991 Y53.274 Z0 F600
G1 X82.068 Y53.197 Z0 F600
G1 X82.131 Y53.104 Z0 F600
G1 X82.174 Y52.995 Z0 F600
G1 X82.197 Y52.877 Z0 F600
G1 Y52.753 Z0 F600
G1 Y52.794 Z0 F600
G1 X82.21 Y52.354 Z0 F600
G1 X82.203 Y51.895 Z0 F600
G1 X82.162 Y51.427 Z0 F600
; --- FIX X Backlash ---
G0 X81.462 Y51.427 F410
G1 X81.375 Y50.962 Z0 F600
G1 X81.225 Y50.511 Z0 F600
G1 X81 Y50.089 Z0 F600
G1 X80.855 Y49.896 Z0 F600
G1 X80.687 Y49.717 Z0 F600
G1 X80.494 Y49.555 Z0 F600
G1 X80.269 Y49.408 Z0 F600
G1 X79.768 Y49.194 Z0 F600
G1 X79.262 Y49.042 Z0 F600
G1 X78.748 Y48.937 Z0 F600
G1 X78.233 Y48.867 Z0 F600
G1 X77.212 Y48.785 Z0 F600
G1 X76.236 Y48.7 Z0 F600
; --- FIX X Backlash ---
G0 X76.936 Y48.7 F410
G1 X77.471 Y43.598 Z0 F600
G1 X78.014 Y38.5 Z0 F600
G1 X78.873 Y38.461 Z0 F600
G1 X79.757 Y38.478 Z0 F600
G1 X80.66 Y38.513 Z0 F600
G1 X81.575 Y38.525 Z0 F600
G1 X83.082 Y38.566 Z0 F600
; --- FIX Y Backlash ---
G0 X83.082 Y39.066 F410
G1 X84.597 Y39.131 Z0 F600
G0 Z3.5 F600
; --- FIX X Backlash ---
G0 X83.897 Y39.131 F410
G0 X74.283 Y39.573 Z3.5
G1 Z0 F600
; --- FIX X Backlash ---
G0 X74.983 Y39.573 F410
G1 X75.105 Y39.583 Z0 F600
; --- FIX X Backlash ---
G0 X74.405 Y39.583 F410
G1 X73.923 Y44.021 Z0 F600
G1 X73.879 Y44.388 Z0 F600
; --- FIX Y Backlash ---
G0 X73.879 Y43.888 F410
G1 X73.913 Y43.099 Z0 F600
; --- FIX X Backlash ---
G0 X74.613 Y43.099 F410
G1 X74.798 Y39.063 Z0 F600
G1 X74.983 Y39.073 Z0 F600
G0 Z3.5 F600
G0 X75.812 Y38.502 Z3.5
G1 Z0 F600
; --- FIX X Backlash ---
G0 X75.112 Y38.502 F410
; --- FIX Y Backlash ---
G0 X75.112 Y39.002 F410
G1 X74.558 Y44.098 Z0 F600
G1 X73.948 Y49.186 Z0 F600
G1 X73.826 Y49.176 Z0 F600
G1 X73.704 Z0 F600
G1 X73.469 Y49.198 Z0 F600
G1 X73.257 Y49.215 Z0 F600
G1 X73.098 Y49.207 Z0 F600
G1 X73.024 Y49.187 Z0 F600
G1 Y49.178 Z0 F600
G1 X73.02 Y49.138 Z0 F600
; --- FIX Y Backlash ---
G0 X73.02 Y48.638 F410
G1 X73.038 Y48.521 Z0 F600
G1 X73.069 Y47.748 Z0 F600
; --- FIX X Backlash ---
G0 X73.769 Y47.748 F410
G1 X73.974 Y43.069 Z0 F600
G1 X74.188 Y38.391 Z0 F600
G1 X75.029 Y38.435 Z0 F600
; --- FIX Y Backlash ---
G0 X75.029 Y38.935 F410
G1 X75.812 Y39.002 Z0 F600
G0 Z3.5 F600
; --- FIX X Backlash ---
G0 X75.112 Y39.002 F410
; --- FIX Y Backlash ---
G0 X75.112 Y38.502 F410
G0 X66.778 Y28.187 Z3.5
G1 Z0 F600
G1 X66.489 Z0 F600
G1 X66.499 Y27.807 Z0 F600
; --- FIX X Backlash ---
G0 X67.199 Y27.807 F410
; --- FIX Y Backlash ---
G0 X67.199 Y28.307 F410
G1 X67.478 Y28.687 Z0 F600
G0 Z3.5 F600
G0 X67.712 Y29.328 Z3.5
G1 Z0 F600
; --- FIX X Backlash ---
G0 X67.012 Y29.328 F410
G1 X65.833 Y29.32 Z0 F600
; --- FIX Y Backlash ---
G0 X65.833 Y28.82 F410
G1 X65.869 Y27.406 Z0 F600
G1 X65.888 Y25.9 Z0 F600
; --- FIX X Backlash ---
G0 X66.588 Y25.9 F410
; --- FIX Y Backlash ---
G0 X66.588 Y26.4 F410
G1 X66.73 Y26.585 Z0 F600
G1 X68.381 Y28.836 Z0 F600
G1 X68.736 Y29.329 Z0 F600
; --- FIX X Backlash ---
G0 X68.036 Y29.329 F410
G1 X67.012 Z0 F600
G0 Z3.5 F600
G0 X65.184 Y29.676 Z3.5
G1 Z0 F600
; --- FIX Y Backlash ---
G0 X65.184 Y29.176 F410
G1 X65.229 Y27.394 Z0 F600
G1 X65.25 Y25.758 Z0 F600
G1 X65.287 Y24.154 Z0 F600
G1 X65.292 Y24.07 Z0 F600
; --- FIX X Backlash ---
G0 X65.992 Y24.07 F410
; --- FIX Y Backlash ---
G0 X65.992 Y24.57 F410
G1 X67.248 Y26.208 Z0 F600
G1 X68.887 Y28.443 Z0 F600
G1 X69.986 Y29.971 Z0 F600
; --- FIX X Backlash ---
G0 X69.286 Y29.971 F410
G1 X67.008 Y29.968 Z0 F600
G1 X65.169 Y29.956 Z0 F600
G1 Y29.914 Z0 F600
; --- FIX Y Backlash ---
G0 X65.169 Y29.414 F410
G1 X65.178 Y29.217 Z0 F600
G1 X65.184 Y29.176 Z0 F600
G0 Z3.5 F600
; --- FIX X Backlash ---
G0 X65.884 Y29.176 F410
G0 X66.031 Y23.069 Z3.5
G1 Z0 F600
; --- FIX Y Backlash ---
G0 X66.031 Y23.569 F410
G1 X67.749 Y25.81 Z0 F600
G1 X69.406 Y28.069 Z0 F600
G1 X71.053 Y30.359 Z0 F600
G1 X71.237 Y30.612 Z0 F600
; --- FIX X Backlash ---
G0 X70.537 Y30.612 F410
G1 X67.004 Y30.608 Z0 F600
G1 X64.53 Y30.592 Z0 F600
; --- FIX Y Backlash ---
G0 X64.53 Y30.092 F410
G1 X64.54 Y29.814 Z0 F600
G1 X64.528 Y29.405 Z0 F600
G1 X64.541 Y29.159 Z0 F600
G1 X64.545 Y29.125 Z0 F600
G1 X64.589 Y27.382 Z0 F600
G1 X64.611 Y25.744 Z0 F600
G1 X64.648 Y24.118 Z0 F600
; --- FIX X Backlash ---
G0 X65.348 Y24.118 F410
G1 X65.407 Y23.065 Z0 F600
G1 X65.443 Y23.062 Z0 F600
G1 X65.672 Y23.057 Z0 F600
G1 X65.895 Y23.061 Z0 F600
G1 X66.031 Y23.069 Z0 F600
G0 Z3.5 F600
G0 X66.534 Y22.673 Z3.5
G1 Z0 F600
; --- FIX Y Backlash ---
G0 X66.534 Y23.173 F410
G1 X68.265 Y25.431 Z0 F600
G1 X69.926 Y27.695 Z0 F600
G1 X71.572 Y29.984 Z0 F600
G1 X72.491 Y31.254 Z0 F600
; --- FIX X Backlash ---
G0 X71.791 Y31.254 F410
G1 X67 Y31.248 Z0 F600
G1 X63.728 Y31.227 Z0 F600
; --- FIX X Backlash ---
G0 X64.428 Y31.227 F410
; --- FIX Y Backlash ---
G0 X64.428 Y30.727 F410
G1 X64.534 Y30.442 Z0 F600
G1 X64.59 Y30.105 Z0 F600
G1 X64.6 Y29.813 Z0 F600
G1 X64.587 Y29.397 Z0 F600
G1 X64.603 Y29.099 Z0 F600
G1 X64.606 Y29.074 Z0 F600
G1 X64.649 Y27.37 Z0 F600
G1 X64.671 Y25.722 Z0 F600
G1 X64.708 Y24.113 Z0 F600
G1 X64.793 Y22.589 Z0 F600
G1 X64.805 Y22.559 Z0 F600
G1 X64.812 Y22.551 Z0 F600
G1 X64.855 Y22.524 Z0 F600
G1 X64.981 Y22.479 Z0 F600
G1 X65.174 Y22.442 Z0 F600
G1 X65.413 Y22.422 Z0 F600
G1 X65.656 Y22.417 Z0 F600
G1 X65.924 Y22.421 Z0 F600
G1 X66.19 Y22.438 Z0 F600
G1 X66.372 Y22.486 Z0 F600
G1 X66.399 Y22.5 Z0 F600
G1 X66.431 Y22.523 Z0 F600
G1 X66.454 Y22.547 Z0 F600
; --- FIX Y Backlash ---
G0 X66.454 Y23.047 F410
G1 X66.534 Y23.173 Z0 F600
G0 Z3.5 F600
G0 X68.781 Y25.053 Z3.5
G1 Z0 F600
G1 X70.445 Y27.322 Z0 F600
G1 X72.091 Y29.61 Z0 F600
G1 X73.745 Y31.896 Z0 F600
; --- FIX X Backlash ---
G0 X73.045 Y31.896 F410
G1 X66.996 Y31.888 Z0 F600
G1 X60.944 Y31.849 Z0 F600
G1 X60.903 Y31.853 Z0 F600
G1 X60.748 Y31.892 Z0 F600
G1 X60.713 Z0 F600
G1 X60.709 Y31.888 Z0 F600
G1 X60.694 Y31.849 Z0 F600
; --- FIX Y Backlash ---
G0 X60.694 Y31.349 F410
G1 X60.686 Y31.175 Z0 F600
G1 X60.701 Y30.926 Z0 F600
; --- FIX X Backlash ---
G0 X61.401 Y30.926 F410
G1 X61.921 Y30.934 Z0 F600
G1 X62.466 Y30.948 Z0 F600
G1 X62.745 Y30.94 Z0 F600
G1 X63.025 Y30.913 Z0 F600
G1 X63.307 Y30.861 Z0 F600
G1 X63.589 Y30.776 Z0 F600
G1 X63.637 Y30.752 Z0 F600
G1 X63.677 Y30.717 Z0 F600
G1 X63.827 Y30.505 Z0 F600
G1 X63.913 Y30.276 Z0 F600
G1 X63.952 Y30.042 Z0 F600
G1 X63.959 Y29.813 Z0 F600
G1 X63.946 Y29.389 Z0 F600
G1 X63.965 Y29.041 Z0 F600
G1 Y29.022 Z0 F600
G1 X64.009 Y27.357 Z0 F600
G1 X64.031 Y25.714 Z0 F600
G1 X64.069 Y24.077 Z0 F600
G1 X64.16 Y22.45 Z0 F600
G1 X64.25 Y22.224 Z0 F600
G1 X64.39 Y22.059 Z0 F600
G1 X64.579 Y21.942 Z0 F600
G1 X64.813 Y21.86 Z0 F600
G1 X65.085 Y21.808 Z0 F600
G1 X65.375 Y21.783 Z0 F600
G1 X65.667 Y21.777 Z0 F600
G1 X65.943 Y21.781 Z0 F600
G1 X66.293 Y21.803 Z0 F600
; --- FIX Y Backlash ---
G0 X66.293 Y22.303 F410
G1 X66.599 Y22.384 Z0 F600
G1 X66.735 Y22.452 Z0 F600
G1 X66.856 Y22.541 Z0 F600
G1 X66.961 Y22.652 Z0 F600
G1 X67.059 Y22.806 Z0 F600
G1 X68.781 Y25.053 Z0 F600
G0 Z3.5 F600
G0 X73.347 Y25.503 Z3.5
G1 Z0 F600
G1 X73.516 Y25.598 Z0 F600
; --- FIX X Backlash ---
G0 X72.816 Y25.598 F410
G1 X72.704 Y25.806 Z0 F600
; --- FIX Y Backlash ---
G0 X72.704 Y25.306 F410
G1 X72.589 Y25.134 Z0 F600
G1 X72.37 Y24.817 Z0 F600
; --- FIX X Backlash ---
G0 X73.07 Y24.817 F410
; --- FIX Y Backlash ---
G0 X73.07 Y25.317 F410
G1 X73.347 Y25.503 Z0 F600
G0 Z3.5 F600
G0 X74.101 Y25.86 Z3.5
G1 Z0 F600
; --- FIX X Backlash ---
G0 X73.401 Y25.86 F410
G1 X73.262 Y26.119 Z0 F600
G1 X73.164 Y26.46 Z0 F600
G1 X73.145 Y26.824 Z0 F600
; --- FIX X Backlash ---
G0 X73.845 Y26.824 F410
G1 X73.923 Y27.199 Z0 F600
G1 X74.118 Y27.564 Z0 F600
G1 X74.143 Y27.591 Z0 F600
; --- FIX X Backlash ---
G0 X73.443 Y27.591 F410
G1 X73.186 Y27.569 Z0 F600
; --- FIX Y Backlash ---
G0 X73.186 Y27.069 F410
G1 X73.139 Y27.016 Z0 F600
G1 X72.918 Y26.709 Z0 F600
G1 X72.66 Y26.339 Z0 F600
G1 X72.397 Y25.995 Z0 F600
G1 X72.06 Y25.495 Z0 F600
G1 X71.719 Y25.001 Z0 F600
G1 X71.452 Y24.597 Z0 F600
G1 X71.483 Y24.58 Z0 F600
; --- FIX X Backlash ---
G0 X72.183 Y24.58 F410
G1 X72.489 Y24.406 Z0 F600
G1 X72.832 Y24.158 Z0 F600
G1 X73.007 Y23.978 Z0 F600
; --- FIX Y Backlash ---
G0 X73.007 Y24.478 F410
G1 X73.238 Y24.66 Z0 F600
G1 X73.682 Y24.957 Z0 F600
G1 X74.149 Y25.219 Z0 F600
G1 X74.442 Y25.353 Z0 F600
; --- FIX X Backlash ---
G0 X73.742 Y25.353 F410
G1 X73.612 Y25.484 Z0 F600
G1 X73.401 Y25.86 Z0 F600
G0 Z3.5 F600
G0 X72.399 Y27.583 Z3.5
G1 Z0 F600
; --- FIX Y Backlash ---
G0 X72.399 Y27.083 F410
G1 X72.143 Y26.716 Z0 F600
G1 X71.873 Y26.363 Z0 F600
G1 X71.531 Y25.856 Z0 F600
G1 X71.185 Y25.354 Z0 F600
G1 X70.86 Y24.861 Z0 F600
G1 X70.572 Y24.369 Z0 F600
; --- FIX X Backlash ---
G0 X71.272 Y24.369 F410
G1 X71.548 Y24.202 Z0 F600
G1 X71.869 Y24.023 Z0 F600
G1 X72.142 Y23.867 Z0 F600
G1 X72.412 Y23.671 Z0 F600
G1 X72.656 Y23.422 Z0 F600
G1 X72.854 Y23.106 Z0 F600
G1 X72.865 Y23.079 Z0 F600
G1 X72.874 Y23.051 Z0 F600
G1 Y23.015 Z0 F600
; --- FIX Y Backlash ---
G0 X72.874 Y23.515 F410
G1 X73.233 Y23.842 Z0 F600
G1 X73.615 Y24.142 Z0 F600
G1 X74.017 Y24.411 Z0 F600
G1 X74.439 Y24.648 Z0 F600
G1 X74.881 Y24.85 Z0 F600
G1 X75.339 Y25.014 Z0 F600
G1 X75.815 Y25.137 Z0 F600
G1 X76.306 Y25.217 Z0 F600
G1 X76.586 Y25.237 Z0 F600
G1 X76.861 Z0 F600
; --- FIX X Backlash ---
G0 X76.161 Y25.237 F410
G1 X76.027 Y25.286 Z0 F600
G1 X75.885 Y25.312 Z0 F600
G1 X75.406 Y25.327 Z0 F600
G1 X75.149 Y25.348 Z0 F600
G1 X74.876 Y25.395 Z0 F600
G1 X74.609 Y25.488 Z0 F600
G1 X74.351 Y25.647 Z0 F600
G1 X74.127 Y25.874 Z0 F600
G1 X73.962 Y26.167 Z0 F600
G1 X73.859 Y26.361 Z0 F600
G1 X73.8 Y26.566 Z0 F600
G1 X73.789 Y26.775 Z0 F600
G1 X73.831 Y26.979 Z0 F600
; --- FIX X Backlash ---
G0 X74.531 Y26.979 F410
G1 X74.642 Y27.187 Z0 F600
G1 X74.807 Y27.361 Z0 F600
G1 X75.017 Y27.489 Z0 F600
G1 X75.26 Y27.559 Z0 F600
; --- FIX X Backlash ---
G0 X74.56 Y27.559 F410
G1 X74.481 Y27.54 Z0 F600
; --- FIX X Backlash ---
G0 X75.181 Y27.54 F410
G1 X76.067 Y27.839 Z0 F600
G1 X76.963 Y28.119 Z0 F600
G1 X77.863 Y28.378 Z0 F600
G1 X78.764 Y28.615 Z0 F600
; --- FIX X Backlash ---
G0 X78.064 Y28.615 F410
; --- FIX Y Backlash ---
G0 X78.064 Y28.115 F410
G1 X75.458 Y27.906 Z0 F600
G1 X72.879 Y27.685 Z0 F600
G1 X72.637 Y27.415 Z0 F600
G1 X72.399 Y27.083 Z0 F600
G0 Z3.5 F600
; --- FIX X Backlash ---
G0 X73.099 Y27.083 F410
G0 X80.496 Y27.105 Z3.5
G1 Z0 F600
G1 X80.464 Y27.097 Z0 F600
G1 X80.561 Y27.122 Z0 F600
G1 X80.654 Y27.142 Z0 F600
; --- FIX X Backlash ---
G0 X79.954 Y27.142 F410
; --- FIX Y Backlash ---
G0 X79.954 Y27.642 F410
G1 X79.677 Y27.937 Z0 F600
G1 X79.398 Y28.212 Z0 F600
G1 X79.115 Y28.462 Z0 F600
G1 X78.826 Y28.678 Z0 F600
G1 X78.295 Y28.634 Z0 F600
G1 X78.334 Z0 F600
G1 X78.372 Y28.631 Z0 F600
; --- FIX X Backlash ---
G0 X79.072 Y28.631 F410
; --- FIX Y Backlash ---
G0 X79.072 Y28.131 F410
G1 X79.392 Y27.979 Z0 F600
G1 X79.639 Y27.777 Z0 F600
G1 X79.836 Y27.561 Z0 F600
G1 X80.004 Y27.366 Z0 F600
G1 X80.155 Y27.22 Z0 F600
G1 X80.28 Y27.131 Z0 F600
G1 X80.377 Y27.096 Z0 F600
G1 X80.496 Y27.105 Z0 F600
G0 Z3.5 F600
; --- FIX X Backlash ---
G0 X79.796 Y27.105 F410
G0 X70.193 Y21.318 Z3.5
G1 Z0 F600
; --- FIX Y Backlash ---
G0 X70.193 Y21.818 F410
G1 X70.241 Y21.917 Z0 F600
G1 X70.122 Y21.962 Z0 F600
G1 X69.7 Y22.163 Z0 F600
G1 X69.53 Y22.249 Z0 F600
; --- FIX Y Backlash ---
G0 X69.53 Y21.749 F410
G1 X69.455 Y21.637 Z0 F600
G1 X69.448 Y21.625 Z0 F600
; --- FIX X Backlash ---
G0 X70.148 Y21.625 F410
G1 X70.544 Y21.385 Z0 F600
G1 X70.845 Y21.2 Z0 F600
; --- FIX Y Backlash ---
G0 X70.845 Y21.7 F410
G1 X70.893 Y21.818 Z0 F600
G0 Z3.5 F600
G0 X71.075 Y22.551 Z3.5
G1 Z0 F600
; --- FIX X Backlash ---
G0 X70.375 Y22.551 F410
G1 X69.982 Y22.737 Z0 F600
G1 X69.628 Y22.917 Z0 F600
G1 X69.311 Y23.063 Z0 F600
; --- FIX Y Backlash ---
G0 X69.311 Y22.563 F410
G1 X68.911 Y21.975 Z0 F600
G1 X68.583 Y21.401 Z0 F600
; --- FIX X Backlash ---
G0 X69.283 Y21.401 F410
G1 X70.21 Y20.839 Z0 F600
G1 X71.177 Y20.246 Z0 F600
; --- FIX Y Backlash ---
G0 X71.177 Y20.746 F410
G1 X71.315 Y21.157 Z0 F600
G1 X71.478 Y21.558 Z0 F600
G1 X71.667 Y21.947 Z0 F600
G1 X71.883 Y22.321 Z0 F600
; --- FIX X Backlash ---
G0 X71.183 Y22.321 F410
G1 X70.996 Y22.331 Z0 F600
G1 X70.813 Y22.381 Z0 F600
G1 X70.375 Y22.551 Z0 F600
G0 Z3.5 F600
; --- FIX X Backlash ---
G0 X71.075 Y22.551 F410
; --- FIX Y Backlash ---
G0 X71.075 Y22.051 F410
G0 X77.452 Y18.187 Z3.5
G1 Z0 F600
G1 X77.47 Y18.198 Z0 F600
; --- FIX Y Backlash ---
G0 X77.47 Y18.698 F410
G1 X77.465 Y18.845 Z0 F600
G1 X77.452 Y18.881 Z0 F600
; --- FIX X Backlash ---
G0 X76.752 Y18.881 F410
G1 X76.698 Z0 F600
G1 X76.677 Y18.876 Z0 F600
G1 X76.652 Y18.862 Z0 F600
G1 X76.632 Y18.843 Z0 F600
G1 X76.619 Y18.823 Z0 F600
G1 X76.615 Y18.809 Z0 F600
G1 Y18.797 Z0 F600
; --- FIX Y Backlash ---
G0 X76.615 Y18.297 F410
G1 X76.642 Y18.204 Z0 F600
G1 X76.651 Y18.175 Z0 F600
G1 X76.701 Z0 F600
; --- FIX X Backlash ---
G0 X77.401 Y18.175 F410
G1 X77.452 Y18.187 Z0 F600
G0 Z3.5 F600
; --- FIX Y Backlash ---
G0 X77.452 Y18.687 F410
G0 X78.102 Y18.968 Z3.5
G1 Z0 F600
; --- FIX X Backlash ---
G0 X77.402 Y18.968 F410
G1 X77.298 Y19.249 Z0 F600
G1 X77.212 Y19.366 Z0 F600
G1 X77.103 Y19.456 Z0 F600
G1 X76.973 Y19.51 Z0 F600
G1 X76.823 Y19.521 Z0 F600
G1 X76.62 Z0 F600
G1 X76.432 Y19.474 Z0 F600
; --- FIX Y Backlash ---
G0 X76.432 Y18.974 F410
G1 X76.266 Y18.879 Z0 F600
G1 X76.13 Y18.748 Z0 F600
G1 X76.031 Y18.588 Z0 F600
G1 X75.977 Y18.408 Z0 F600
G1 X75.973 Y18.215 Z0 F600
; --- FIX X Backlash ---
G0 X76.673 Y18.215 F410
G1 X76.729 Y18.019 Z0 F600
G1 X76.769 Y17.888 Z0 F600
G1 X76.83 Y17.778 Z0 F600
G1 X76.911 Y17.688 Z0 F600
G1 X77.007 Y17.619 Z0 F600
G1 X77.232 Y17.537 Z0 F600
G1 X77.478 Y17.531 Z0 F600
; --- FIX Y Backlash ---
G0 X77.478 Y18.031 F410
G1 X77.716 Y18.095 Z0 F600
G1 X77.919 Y18.227 Z0 F600
G1 X77.999 Y18.317 Z0 F600
G1 X78.06 Y18.424 Z0 F600
G1 X78.098 Y18.545 Z0 F600
G1 X78.11 Y18.681 Z0 F600
G1 X78.102 Y18.968 Z0 F600
G0 Z3.5 F600
; --- FIX X Backlash ---
G0 X77.402 Y18.968 F410
G0 X77.197 Y22.297 Z3.5
G1 Z0 F600
; --- FIX X Backlash ---
G0 X77.897 Y22.297 F410
; --- FIX Y Backlash ---
G0 X77.897 Y21.797 F410
G1 X78.25 Y21.736 Z0 F600
G1 X78.589 Y21.635 Z0 F600
G1 X78.915 Y21.5 Z0 F600
G1 X79.224 Y21.331 Z0 F600
G1 X79.514 Y21.131 Z0 F600
G1 X79.783 Y20.904 Z0 F600
G1 X80.03 Y20.651 Z0 F600
G1 X80.252 Y20.376 Z0 F600
G1 X80.447 Y20.082 Z0 F600
G1 X80.614 Y19.77 Z0 F600
G1 X80.75 Y19.442 Z0 F600
G1 X80.853 Y19.104 Z0 F600
G1 X80.921 Y18.755 Z0 F600
G1 X80.953 Y18.4 Z0 F600
G1 X80.945 Y18.041 Z0 F600
; --- FIX X Backlash ---
G0 X80.245 Y18.041 F410
G1 X80.189 Y17.541 Z0 F600
G1 X80.05 Y17.068 Z0 F600
G1 X79.839 Y16.626 Z0 F600
G1 X79.568 Y16.217 Z0 F600
G1 X79.245 Y15.846 Z0 F600
G1 X78.883 Y15.515 Z0 F600
G1 X78.489 Y15.228 Z0 F600
G1 X78.077 Y14.989 Z0 F600
G1 X78.045 Y14.976 Z0 F600
G1 X77.735 Y14.882 Z0 F600
G1 X77.419 Y14.815 Z0 F600
G1 X77.099 Y14.775 Z0 F600
G1 X76.776 Y14.763 Z0 F600
G1 X76.454 Y14.776 Z0 F600
G1 X76.134 Y14.816 Z0 F600
; --- FIX Y Backlash ---
G0 X76.134 Y15.316 F410
G1 X75.82 Y15.382 Z0 F600
G1 X75.512 Y15.473 Z0 F600
G1 X75.214 Y15.59 Z0 F600
G1 X74.926 Y15.732 Z0 F600
G1 X74.654 Y15.899 Z0 F600
G1 X74.397 Y16.091 Z0 F600
G1 X74.159 Y16.307 Z0 F600
G1 X73.942 Y16.546 Z0 F600
G1 X73.748 Y16.81 Z0 F600
G1 X73.579 Y17.097 Z0 F600
G1 X73.386 Y17.515 Z0 F600
G1 X73.259 Y17.951 Z0 F600
G1 X73.194 Y18.398 Z0 F600
G1 X73.186 Y18.852 Z0 F600
G1 X73.232 Y19.303 Z0 F600
; --- FIX X Backlash ---
G0 X73.932 Y19.303 F410
G1 X74.026 Y19.746 Z0 F600
G1 X74.165 Y20.173 Z0 F600
G1 X74.347 Y20.584 Z0 F600
G1 X74.622 Y20.987 Z0 F600
G1 X74.944 Y21.335 Z0 F600
G1 X75.311 Y21.634 Z0 F600
G1 X75.714 Y21.88 Z0 F600
G1 X76.146 Y22.074 Z0 F600
G1 X76.598 Y22.212 Z0 F600
G1 X77.063 Y22.294 Z0 F600
G1 X77.534 Y22.319 Z0 F600
G1 X77.897 Y22.297 Z0 F600
G0 Z3.5 F600
; --- FIX Y Backlash ---
G0 X77.897 Y21.797 F410
G0 X80.615 Y21.535 Z3.5
G1 Z0 F600
; --- FIX X Backlash ---
G0 X79.915 Y21.535 F410
; --- FIX Y Backlash ---
G0 X79.915 Y22.035 F410
G1 X79.489 Y22.405 Z0 F600
G1 X79.021 Y22.72 Z0 F600
G1 X78.519 Y22.973 Z0 F600
G1 X77.985 Y23.16 Z0 F600
G1 X77.666 Y23.248 Z0 F600
G1 X77.346 Y23.308 Z0 F600
G1 X77.024 Y23.342 Z0 F600
G1 X76.689 Y23.349 Z0 F600
G1 X76.095 Y23.316 Z0 F600
; --- FIX Y Backlash ---
G0 X76.095 Y22.816 F410
G1 X75.512 Y22.7 Z0 F600
G1 X74.95 Y22.505 Z0 F600
G1 X74.417 Y22.237 Z0 F600
G1 X73.921 Y21.902 Z0 F600
G1 X73.471 Y21.507 Z0 F600
G1 X73.075 Y21.056 Z0 F600
G1 X72.737 Y20.549 Z0 F600
G1 X72.505 Y20.142 Z0 F600
G1 X72.337 Y19.718 Z0 F600
G1 X72.223 Y19.276 Z0 F600
G1 X72.159 Y18.821 Z0 F600
G1 X72.141 Y18.357 Z0 F600
G1 X72.164 Y17.889 Z0 F600
; --- FIX X Backlash ---
G0 X72.864 Y17.889 F410
G1 X72.924 Y17.42 Z0 F600
G1 X73.015 Y16.958 Z0 F600
G1 X73.178 Y16.507 Z0 F600
G1 X73.393 Y16.076 Z0 F600
G1 X73.654 Y15.668 Z0 F600
G1 X73.958 Y15.288 Z0 F600
G1 X74.298 Y14.938 Z0 F600
G1 X74.67 Y14.623 Z0 F600
G1 X75.069 Y14.346 Z0 F600
G1 X75.49 Y14.111 Z0 F600
G1 X76.057 Y13.926 Z0 F600
G1 X76.647 Y13.802 Z0 F600
G1 X77.249 Y13.744 Z0 F600
G1 X77.853 Y13.755 Z0 F600
; --- FIX Y Backlash ---
G0 X77.853 Y14.255 F410
G1 X78.448 Y14.338 Z0 F600
G1 X79.023 Y14.499 Z0 F600
G1 X79.569 Y14.738 Z0 F600
G1 X80.075 Y15.062 Z0 F600
G1 X80.362 Y15.286 Z0 F600
G1 X80.624 Y15.528 Z0 F600
G1 X80.864 Y15.791 Z0 F600
G1 X81.083 Y16.072 Z0 F600
G1 X81.281 Y16.369 Z0 F600
G1 X81.455 Y16.681 Z0 F600
G1 X81.605 Y17.004 Z0 F600
G1 X81.73 Y17.338 Z0 F600
G1 X81.831 Y17.68 Z0 F600
G1 X81.905 Y18.028 Z0 F600
G1 X81.953 Y18.38 Z0 F600
G1 X81.972 Y18.734 Z0 F600
G1 X81.964 Y19.088 Z0 F600
G1 X81.926 Y19.441 Z0 F600
; --- FIX X Backlash ---
G0 X81.226 Y19.441 F410
G1 X81.158 Y19.789 Z0 F600
G1 X81.058 Y20.138 Z0 F600
G1 X80.87 Y20.666 Z0 F600
G1 X80.613 Y21.159 Z0 F600
G1 X80.292 Y21.618 Z0 F600
G1 X79.915 Y22.035 Z0 F600
G0 Z3.5 F600
G0 X56.177 Y26.834 Z3.5
G1 Z0 F600
G1 X55.523 Y27.761 Z0 F600
G1 X55.469 Y27.889 Z0 F600
G1 X54.917 Z0 F600
; --- FIX Y Backlash ---
G0 X54.917 Y27.389 F410
G1 X54.898 Y26.893 Z0 F600
G1 X54.878 Y25.982 Z0 F600
; --- FIX X Backlash ---
G0 X55.578 Y25.982 F410
G1 X56.802 Y25.917 Z0 F600
G1 X57.468 Y25.897 Z0 F600
; --- FIX X Backlash ---
G0 X56.768 Y25.897 F410
; --- FIX Y Backlash ---
G0 X56.768 Y26.397 F410
G1 X56.177 Y26.834 Z0 F600
G0 Z3.5 F600
G0 X54.3 Y28.531 Z3.5
G1 Z0 F600
; --- FIX Y Backlash ---
G0 X54.3 Y28.031 F410
G1 X54.259 Y26.939 Z0 F600
G1 X54.238 Y25.965 Z0 F600
G1 Y25.375 Z0 F600
; --- FIX X Backlash ---
G0 X54.938 Y25.375 F410
G1 X56.769 Y25.277 Z0 F600
G1 X58.704 Y25.219 Z0 F600
; --- FIX Y Backlash ---
G0 X58.704 Y25.719 F410
G1 X58.697 Y26.151 Z0 F600
G1 X58.688 Y26.464 Z0 F600
; --- FIX X Backlash ---
G0 X57.988 Y26.464 F410
G1 X57.457 Y26.683 Z0 F600
G1 X56.641 Y27.288 Z0 F600
G1 X56.086 Y28.074 Z0 F600
G1 X55.893 Y28.527 Z0 F600
G1 X54.3 Y28.531 Z0 F600
G0 Z3.5 F600
G0 X53.684 Y29.173 Z3.5
G1 Z0 F600
; --- FIX Y Backlash ---
G0 X53.684 Y28.673 F410
G1 X53.62 Y26.977 Z0 F600
G1 X53.598 Y25.956 Z0 F600
G1 X53.595 Y24.972 Z0 F600
G1 X53.6 Y24.778 Z0 F600
; --- FIX X Backlash ---
G0 X54.3 Y24.778 F410
G1 X54.696 Y24.748 Z0 F600
G1 X56.736 Y24.638 Z0 F600
G1 X58.829 Y24.576 Z0 F600
G1 X59.354 Y24.572 Z0 F600
; --- FIX Y Backlash ---
G0 X59.354 Y25.072 F410
G1 X59.337 Y26.15 Z0 F600
G1 X59.314 Y26.903 Z0 F600
G1 X59.285 Y26.91 Z0 F600
; --- FIX X Backlash ---
G0 X58.585 Y26.91 F410
G1 X57.774 Y27.244 Z0 F600
G1 X57.104 Y27.741 Z0 F600
G1 X56.648 Y28.387 Z0 F600
G1 X56.377 Y29.027 Z0 F600
G1 X56.339 Y29.157 Z0 F600
G1 X56.274 Y29.167 Z0 F600
G1 X53.845 Y29.172 Z0 F600
G1 X53.684 Z0 F600
G0 Z3.5 F600
G0 X53.059 Y29.567 Z3.5
G1 Z0 F600
; --- FIX Y Backlash ---
G0 X53.059 Y29.067 F410
G1 X52.98 Y26.984 Z0 F600
G1 X52.958 Y25.972 Z0 F600
G1 X52.955 Y24.977 Z0 F600
G1 X52.974 Y24.185 Z0 F600
; --- FIX X Backlash ---
G0 X53.674 Y24.185 F410
G1 X54.632 Y24.11 Z0 F600
G1 X56.746 Y23.998 Z0 F600
G1 X58.805 Y23.936 Z0 F600
G1 X60.001 Y23.927 Z0 F600
; --- FIX Y Backlash ---
G0 X60.001 Y24.427 F410
G1 Y24.678 Z0 F600
G1 X59.976 Y26.195 Z0 F600
G1 X59.94 Y27.418 Z0 F600
; --- FIX X Backlash ---
G0 X59.24 Y27.418 F410
G1 X58.778 Y27.522 Z0 F600
G1 X58.092 Y27.806 Z0 F600
G1 X57.568 Y28.194 Z0 F600
G1 X57.211 Y28.7 Z0 F600
G1 X56.98 Y29.243 Z0 F600
G1 X56.848 Y29.692 Z0 F600
G1 X56.838 Y29.749 Z0 F600
G1 X56.459 Y29.786 Z0 F600
G1 X56.323 Y29.807 Z0 F600
G1 X53.847 Y29.813 Z0 F600
G1 X53.068 Y29.817 Z0 F600
; --- FIX Y Backlash ---
G0 X53.068 Y29.317 F410
G1 X53.059 Y29.067 Z0 F600
G0 Z3.5 F600
G0 X52.318 Y25.965 Z3.5
G1 Z0 F600
G1 X52.315 Y24.985 Z0 F600
G1 X52.339 Y23.97 Z0 F600
G1 X52.361 Y23.591 Z0 F600
; --- FIX X Backlash ---
G0 X53.061 Y23.591 F410
G1 X54.609 Y23.471 Z0 F600
G1 X56.713 Y23.358 Z0 F600
G1 X58.802 Y23.295 Z0 F600
G1 X60.643 Y23.283 Z0 F600
; --- FIX Y Backlash ---
G0 X60.643 Y23.783 F410
G1 X60.64 Y24.688 Z0 F600
G1 X60.617 Y26.188 Z0 F600
G1 X60.572 Y27.686 Z0 F600
G1 X60.559 Y27.986 Z0 F600
; --- FIX X Backlash ---
G0 X59.859 Y27.986 F410
G1 X59.475 Y28.022 Z0 F600
G1 X58.971 Y28.135 Z0 F600
G1 X58.409 Y28.367 Z0 F600
G1 X58.031 Y28.646 Z0 F600
G1 X57.773 Y29.013 Z0 F600
G1 X57.584 Y29.458 Z0 F600
G1 X57.471 Y29.842 Z0 F600
G1 X57.403 Y30.205 Z0 F600
G1 X57.387 Y30.353 Z0 F600
G1 X57.293 Y30.358 Z0 F600
G1 X56.912 Y30.384 Z0 F600
G1 X56.539 Y30.421 Z0 F600
G1 X56.372 Y30.447 Z0 F600
G1 X53.85 Y30.453 Z0 F600
G1 X52.451 Y30.46 Z0 F600
; --- FIX Y Backlash ---
G0 X52.451 Y29.96 F410
G1 X52.42 Y29.091 Z0 F600
G1 X52.34 Y26.99 Z0 F600
G1 X52.318 Y25.965 Z0 F600
G0 Z3.5 F600
G0 X51.755 Y22.996 Z3.5
G1 Z0 F600
; --- FIX X Backlash ---
G0 X52.455 Y22.996 F410
G1 X54.565 Y22.832 Z0 F600
G1 X56.681 Y22.719 Z0 F600
G1 X58.78 Y22.656 Z0 F600
G1 X60.897 Y22.642 Z0 F600
G1 X61.051 Y22.645 Z0 F600
G1 X61.16 Y22.662 Z0 F600
G1 X61.259 Y22.691 Z0 F600
G1 X61.285 Y22.704 Z0 F600
; --- FIX Y Backlash ---
G0 X61.285 Y23.204 F410
G1 X61.28 Y24.698 Z0 F600
G1 X61.256 Y26.215 Z0 F600
G1 X61.212 Y27.715 Z0 F600
G1 X61.171 Y28.617 Z0 F600
; --- FIX X Backlash ---
G0 X60.471 Y28.617 F410
G1 X60.294 Z0 F600
G1 X59.957 Z0 F600
G1 X59.575 Y28.655 Z0 F600
G1 X59.165 Y28.748 Z0 F600
G1 X58.726 Y28.928 Z0 F600
G1 X58.495 Y29.1 Z0 F600
G1 X58.335 Y29.326 Z0 F600
G1 X58.188 Y29.674 Z0 F600
G1 X58.094 Y29.992 Z0 F600
G1 X58.037 Y30.298 Z0 F600
G1 X58.006 Y30.593 Z0 F600
G1 X57.993 Y30.96 Z0 F600
G1 X57.972 Z0 F600
G1 X57.333 Y30.997 Z0 F600
G1 X56.966 Y31.022 Z0 F600
G1 X56.618 Y31.056 Z0 F600
G1 X56.424 Y31.086 Z0 F600
G1 X53.853 Y31.092 Z0 F600
G1 X51.833 Y31.104 Z0 F600
; --- FIX Y Backlash ---
G0 X51.833 Y30.604 F410
G1 X51.78 Y29.115 Z0 F600
G1 X51.7 Y27.014 Z0 F600
G1 X51.678 Y25.992 Z0 F600
G1 X51.675 Y24.952 Z0 F600
G1 X51.699 Y23.946 Z0 F600
; --- FIX X Backlash ---
G0 X52.399 Y23.946 F410
G1 X52.455 Y22.996 Z0 F600
G0 Z3.5 F600
G0 X52.417 Y22.357 Z3.5
G1 Z0 F600
G1 X54.523 Y22.193 Z0 F600
G1 X56.648 Y22.08 Z0 F600
G1 X58.776 Y22.016 Z0 F600
G1 X60.903 Y22.001 Z0 F600
G1 X61.105 Y22.005 Z0 F600
G1 X61.303 Y22.037 Z0 F600
; --- FIX Y Backlash ---
G0 X61.303 Y22.537 F410
G1 X61.494 Y22.594 Z0 F600
G1 X61.659 Y22.675 Z0 F600
G1 X61.787 Y22.769 Z0 F600
G1 X61.875 Y22.874 Z0 F600
G1 X61.922 Y23.002 Z0 F600
G1 X61.927 Y23.165 Z0 F600
G1 Y23.181 Z0 F600
G1 X61.92 Y24.708 Z0 F600
G1 X61.896 Y26.226 Z0 F600
G1 X61.851 Y27.743 Z0 F600
; --- FIX X Backlash ---
G0 X61.151 Y27.743 F410
G1 X61.084 Y29.251 Z0 F600
G1 X60.707 Y29.258 Z0 F600
G1 X60.295 Z0 F600
G1 X59.99 Z0 F600
G1 X59.676 Y29.289 Z0 F600
G1 X59.359 Y29.36 Z0 F600
G1 X59.044 Y29.49 Z0 F600
G1 X58.959 Y29.553 Z0 F600
G1 X58.898 Y29.639 Z0 F600
G1 X58.791 Y29.89 Z0 F600
G1 X58.717 Y30.141 Z0 F600
G1 X58.671 Y30.391 Z0 F600
G1 X58.644 Y30.637 Z0 F600
G1 X58.629 Y31.115 Z0 F600
G1 X58.623 Y31.56 Z0 F600
G1 X58.44 Y31.573 Z0 F600
G1 X58.007 Y31.601 Z0 F600
G1 X57.372 Y31.636 Z0 F600
G1 X57.019 Y31.66 Z0 F600
G1 X56.698 Y31.691 Z0 F600
G1 X56.473 Y31.726 Z0 F600
G1 X53.855 Y31.732 Z0 F600
G1 X51.216 Y31.747 Z0 F600
; --- FIX Y Backlash ---
G0 X51.216 Y31.247 F410
G1 X51.14 Y29.138 Z0 F600
G1 X51.061 Y27.038 Z0 F600
G1 X51.038 Y25.994 Z0 F600
G1 X51.035 Y24.954 Z0 F600
G1 X51.06 Y23.921 Z0 F600
; --- FIX X Backlash ---
G0 X51.76 Y23.921 F410
G1 X51.82 Y22.895 Z0 F600
G1 Y22.858 Z0 F600
G1 X51.855 Y22.641 Z0 F600
G1 X51.964 Y22.476 Z0 F600
G1 X52.133 Y22.376 Z0 F600
G1 X52.35 Y22.356 Z0 F600
G1 X52.383 Z0 F600
G1 X52.417 Z0 F600
G0 Z3.5 F600
; --- FIX X Backlash ---
G0 X51.717 Y22.356 F410
; --- FIX Y Backlash ---
G0 X51.717 Y22.856 F410
G0 X37.417 Y23.943 Z3.5
G1 Z0 F600
G1 X37.457 Y23.955 Z0 F600
G1 X37.499 Y23.981 Z0 F600
G1 X37.528 Y24.011 Z0 F600
G1 X37.537 Y24.028 Z0 F600
G1 X37.515 Y24.069 Z0 F600
G1 X37.468 Y24.117 Z0 F600
G1 X37.392 Y24.11 Z0 F600
G1 X37.32 Y24.113 Z0 F600
G1 X37.316 Y24.107 Z0 F600
; --- FIX Y Backlash ---
G0 X37.316 Y23.607 F410
G1 X37.297 Y23.55 Z0 F600
G1 Y23.484 Z0 F600
G1 X37.3 Y23.465 Z0 F600
; --- FIX X Backlash ---
G0 X38 Y23.465 F410
G1 X38.087 Y23.441 Z0 F600
G1 X38.117 Z0 F600
G0 Z3.5 F600
; --- FIX Y Backlash ---
G0 X38.117 Y23.941 F410
G0 X38.887 Y24.008 Z3.5
G1 Z0 F600
G1 X38.859 Y24.223 Z0 F600
; --- FIX X Backlash ---
G0 X38.159 Y24.223 F410
G1 X38.034 Y24.455 Z0 F600
G1 X37.852 Y24.639 Z0 F600
G1 X37.745 Y24.704 Z0 F600
G1 X37.628 Y24.747 Z0 F600
G1 X37.504 Y24.763 Z0 F600
G1 X37.374 Y24.751 Z0 F600
G1 X37.231 Y24.756 Z0 F600
G1 X37.102 Y24.731 Z0 F600
; --- FIX Y Backlash ---
G0 X37.102 Y24.231 F410
G1 X36.988 Y24.181 Z0 F600
G1 X36.89 Y24.107 Z0 F600
G1 X36.741 Y23.908 Z0 F600
G1 X36.66 Y23.664 Z0 F600
G1 X36.652 Y23.406 Z0 F600
; --- FIX X Backlash ---
G0 X37.352 Y23.406 F410
G1 X37.42 Y23.165 Z0 F600
G1 X37.484 Y23.06 Z0 F600
G1 X37.57 Y22.97 Z0 F600
G1 X37.676 Y22.9 Z0 F600
G1 X37.805 Y22.854 Z0 F600
G1 X38.015 Y22.798 Z0 F600
G1 X38.226 Y22.806 Z0 F600
; --- FIX Y Backlash ---
G0 X38.226 Y23.306 F410
G1 X38.426 Y23.369 Z0 F600
G1 X38.604 Y23.479 Z0 F600
G1 X38.747 Y23.627 Z0 F600
G1 X38.846 Y23.807 Z0 F600
G1 X38.887 Y24.008 Z0 F600
G0 Z3.5 F600
G0 X39.271 Y26.228 Z3.5
G1 Z0 F600
; --- FIX Y Backlash ---
G0 X39.271 Y25.728 F410
G1 X39.659 Y25.432 Z0 F600
G1 X39.989 Y25.079 Z0 F600
G1 X40.258 Y24.679 Z0 F600
G1 X40.463 Y24.241 Z0 F600
G1 X40.663 Y24.231 Z0 F600
G1 X40.857 Y24.197 Z0 F600
G1 X41.042 Y24.132 Z0 F600
G1 X41.211 Y24.034 Z0 F600
G1 X41.405 Y23.852 Z0 F600
G1 X41.549 Y23.62 Z0 F600
G1 X41.629 Y23.35 Z0 F600
G1 Y23.054 Z0 F600
G1 X41.582 Y22.729 Z0 F600
; --- FIX X Backlash ---
G0 X40.882 Y22.729 F410
G1 X40.801 Y22.413 Z0 F600
G1 X40.692 Y22.108 Z0 F600
G1 X40.554 Y21.817 Z0 F600
G1 X40.39 Y21.541 Z0 F600
G1 X40.202 Y21.28 Z0 F600
G1 X39.991 Y21.037 Z0 F600
G1 X39.76 Y20.814 Z0 F600
G1 X39.51 Y20.612 Z0 F600
G1 X39.244 Y20.433 Z0 F600
G1 X38.962 Y20.278 Z0 F600
G1 X38.667 Y20.149 Z0 F600
G1 X38.361 Y20.048 Z0 F600
G1 X38.045 Y19.977 Z0 F600
G1 X37.72 Y19.937 Z0 F600
G1 X37.391 Y19.929 Z0 F600
G1 X37.025 Y19.944 Z0 F600
; --- FIX Y Backlash ---
G0 X37.025 Y20.444 F410
G1 X36.666 Y20.498 Z0 F600
G1 X36.318 Y20.589 Z0 F600
G1 X35.982 Y20.716 Z0 F600
G1 X35.661 Y20.875 Z0 F600
G1 X35.358 Y21.065 Z0 F600
G1 X35.075 Y21.283 Z0 F600
G1 X34.814 Y21.527 Z0 F600
G1 X34.577 Y21.795 Z0 F600
G1 X34.368 Y22.085 Z0 F600
G1 X34.188 Y22.393 Z0 F600
G1 X34.04 Y22.718 Z0 F600
G1 X33.926 Y23.058 Z0 F600
G1 X33.849 Y23.41 Z0 F600
G1 X33.81 Y23.772 Z0 F600
G1 X33.814 Y24.142 Z0 F600
; --- FIX X Backlash ---
G0 X34.514 Y24.142 F410
G1 X34.57 Y24.576 Z0 F600
G1 X34.671 Y25.003 Z0 F600
G1 X34.819 Y25.421 Z0 F600
G1 X35.011 Y25.822 Z0 F600
G1 X35.247 Y26.197 Z0 F600
G1 X35.527 Y26.542 Z0 F600
G1 X35.85 Y26.847 Z0 F600
G1 X36.216 Y27.105 Z0 F600
G1 X36.248 Y27.123 Z0 F600
G1 X36.668 Y27.304 Z0 F600
G1 X37.11 Y27.462 Z0 F600
G1 X37.572 Y27.58 Z0 F600
G1 X38.055 Y27.639 Z0 F600
G1 X38.096 Z0 F600
; --- FIX Y Backlash ---
G0 X38.096 Y27.139 F410
G1 X38.389 Y27.073 Z0 F600
G1 X38.643 Y26.94 Z0 F600
G1 X38.853 Y26.757 Z0 F600
G1 X39.018 Y26.542 Z0 F600
G1 X39.12 Y26.346 Z0 F600
G1 X39.194 Y26.142 Z0 F600
G1 X39.244 Y25.935 Z0 F600
G1 X39.271 Y25.728 Z0 F600
G0 Z3.5 F600
G0 X41.323 Y25.39 Z3.5
G1 Z0 F600
G1 X41.578 Y25.301 Z0 F600
G1 X41.607 Y25.284 Z0 F600
; --- FIX X Backlash ---
G0 X40.907 Y25.284 F410
; --- FIX Y Backlash ---
G0 X40.907 Y25.784 F410
G1 X40.641 Y26.363 Z0 F600
G1 X40.27 Y27.002 Z0 F600
G1 X40.07 Y27.29 Z0 F600
G1 X39.86 Y27.558 Z0 F600
G1 X39.632 Y27.814 Z0 F600
G1 X39.393 Y28.049 Z0 F600
G1 X39.146 Y28.261 Z0 F600
G1 X38.883 Y28.454 Z0 F600
G1 X38.611 Y28.623 Z0 F600
G1 X38.367 Y28.748 Z0 F600
G1 X38.036 Y28.855 Z0 F600
G1 X37.664 Y28.938 Z0 F600
G1 X37.439 Y28.964 Z0 F600
G1 Y28.917 Z0 F600
; --- FIX X Backlash ---
G0 X38.139 Y28.917 F410
G1 X38.251 Z0 F600
; --- FIX Y Backlash ---
G0 X38.251 Y28.417 F410
G1 X38.833 Y28.286 Z0 F600
G1 X39.37 Y28.003 Z0 F600
G1 X39.791 Y27.637 Z0 F600
G1 X40.101 Y27.232 Z0 F600
G1 X40.293 Y26.864 Z0 F600
G1 X40.422 Y26.511 Z0 F600
G1 X40.438 Y26.448 Z0 F600
G1 X40.521 Y26.384 Z0 F600
G1 X40.994 Y25.879 Z0 F600
G1 X41.323 Y25.39 Z0 F600
G0 Z3.5 F600
G0 X41.905 Y24.26 Z3.5
G1 Z0 F600
G1 X42.138 Y23.884 Z0 F600
G1 X42.269 Y23.443 Z0 F600
G1 Y23.27 Z0 F600
; --- FIX Y Backlash ---
G0 X42.269 Y23.77 F410
G1 X42.429 Y23.93 Z0 F600
G1 X42.775 Y24.134 Z0 F600
G1 X42.79 Y24.138 Z0 F600
G1 X42.744 Y24.348 Z0 F600
; --- FIX X Backlash ---
G0 X42.044 Y24.348 F410
G1 X41.824 Y25.152 Z0 F600
G1 X41.549 Y25.92 Z0 F600
G1 X41.212 Y26.654 Z0 F600
G1 X40.807 Y27.351 Z0 F600
G1 X40.589 Y27.666 Z0 F600
G1 X40.352 Y27.968 Z0 F600
G1 X40.092 Y28.259 Z0 F600
G1 X39.832 Y28.516 Z0 F600
G1 X39.539 Y28.767 Z0 F600
G1 X39.24 Y28.985 Z0 F600
G1 X38.928 Y29.179 Z0 F600
G1 X38.614 Y29.34 Z0 F600
G1 X38.204 Y29.474 Z0 F600
G1 X37.768 Y29.57 Z0 F600
G1 X37.324 Y29.623 Z0 F600
G1 X36.867 Y29.636 Z0 F600
G1 X36.627 Y29.613 Z0 F600
; --- FIX X Backlash ---
G0 X37.327 Y29.613 F410
; --- FIX Y Backlash ---
G0 X37.327 Y29.113 F410
G1 X37.407 Y28.974 Z0 F600
G1 X37.491 Y28.685 Z0 F600
G1 X37.501 Y28.391 Z0 F600
G1 X37.454 Y28.115 Z0 F600
; --- FIX X Backlash ---
G0 X36.754 Y28.115 F410
G1 X36.654 Y27.852 Z0 F600
G1 X36.544 Y27.68 Z0 F600
G1 X36.512 Y27.648 Z0 F600
; --- FIX X Backlash ---
G0 X37.212 Y27.648 F410
; --- FIX Y Backlash ---
G0 X37.212 Y28.148 F410
G1 X37.454 Y28.21 Z0 F600
G1 X38.023 Y28.28 Z0 F600
G1 X38.174 Y28.276 Z0 F600
