
G0 Z10 F500;      ; Move to clearance level
; G0 X-10 Y-10 F1200; Homing
; G0 X-5 Y-5 F1200; go in
; G10 P0 L20 X0 Y0; set to zero
G1 F1200;           ; Set feed rate
G90 ; Force absolute mode
;LightBurn 1.6.04
;Custom GCode device profile, absolute coords
;Bounds: X14.14 Y21.5 to X109.51 Y107.68
G00 G17 G40 G21 G54
M3
G1 Z10 F1000

; Color picking sequence
G1 Z10 F1000;         ; Raise brush
G0 X41 Y5 F1200;    ; Rapid move to color 1
G1 Z10 F1000;         ; Raise brush
G0 X41 Y5 F1200;    ; Rapid move to color 1
G1 Z0 F1000;         ; Lower into color
G1 X40.102 Y7.295 Z0 S800 F1200
G1 X40.026 Y7.642 Z0 F1200
G1 X40 Y8 Z0 F1200
G1 X40.026 Y8.358 Z0 F1200
G1 X40.102 Y8.705 Z0 F1200
G1 X40.225 Y9.041 Z0 F1200
G1 X40.393 Y9.362 Z0 F1200
G1 X40.603 Y9.668 Z0 F1200
G1 X40.854 Y9.957 Z0 F1200
G1 X41.142 Y10.226 Z0 F1200
G1 X41.464 Y10.475 Z0 F1200
G1 X41.82 Y10.701 Z0 F1200
G1 X42.204 Y10.902 Z0 F1200
G1 X42.617 Y11.078 Z0 F1200
G1 X43.054 Y11.225 Z0 F1200
G1 X43.513 Y11.343 Z0 F1200
G1 X43.992 Y11.429 Z0 F1200
G1 X44.489 Y11.482 Z0 F1200
G1 X45 Y11.5 Z0 F1200
G1 X45.511 Y11.482 Z0 F1200
G1 X46.008 Y11.429 Z0 F1200
G1 X46.487 Y11.343 Z0 F1200
G1 X46.946 Y11.225 Z0 F1200
G1 X47.383 Y11.078 Z0 F1200
G1 X47.796 Y10.902 Z0 F1200
G1 X48.18 Y10.701 Z0 F1200
G1 X48.536 Y10.475 Z0 F1200
G1 X48.858 Y10.226 Z0 F1200
G1 X49.146 Y9.957 Z0 F1200
G1 X49.397 Y9.668 Z0 F1200
G1 X49.607 Y9.362 Z0 F1200
G1 X49.775 Y9.041 Z0 F1200
G1 X49.898 Y8.705 Z0 F1200
G1 X49.974 Y8.358 Z0 F1200
G1 X50 Y8 Z0 F1200
G1 X49.974 Y7.642 Z0 F1200
G1 X49.898 Y7.295 Z0 F1200
G1 X49.775 Y6.959 Z0 F1200
G1 X49.607 Y6.638 Z0 F1200
G1 X49.397 Y6.332 Z0 F1200
G1 X49.146 Y6.043 Z0 F1200
G1 X48.858 Y5.774 Z0 F1200
G1 X48.536 Y5.525 Z0 F1200
G1 X48.18 Y5.299 Z0 F1200
G1 X47.796 Y5.098 Z0 F1200
G1 X47.383 Y4.922 Z0 F1200
G1 X46.946 Y4.775 Z0 F1200
G1 X46.487 Y4.657 Z0 F1200
G1 X46.008 Y4.571 Z0 F1200
G1 X45.511 Y4.518 Z0 F1200
G1 X45 Y4.5 Z0 F1200
G1 X44.489 Y4.518 Z0 F1200
G1 X43.992 Y4.571 Z0 F1200
G1 X43.513 Y4.657 Z0 F1200
G1 X43.054 Y4.775 Z0 F1200
G1 X42.617 Y4.922 Z0 F1200
G1 X42.204 Y5.098 Z0 F1200
G1 X41.82 Y5.299 Z0 F1200
G1 X41.464 Y5.525 Z0 F1200
G1 X41.142 Y5.774 Z0 F1200
G1 X40.854 Y6.043 Z0 F1200
G1 X40.603 Y6.332 Z0 F1200
G1 X40.393 Y6.638 Z0 F1200
G1 X40.225 Y6.959 Z0 F1200
G1 Z7 F800;         ; Raise from color
G1 X34 Y8 Z1 F1200;     ; Movement in paint
G1 X24 Y18 Z8 F500;     ; Move in paint
G1 F1200;           ; Set feed rate
G0 Z3.5 F1000 ; Safety Lift
;Cut @ 1299 mm/min, 90% power

M8
G0 Z4.8 F800
G0 X44.394 Y44.225 Z4.8 F1500
G1 Z0 F1500
;Layer C2
; --- FIX X Backlash ---
G0 X43.594 Y44.225 F1200
G1 X39.831 Y44.299 Z0 F1299
; --- FIX X Backlash ---
G0 X40.631 Y44.299 F1200
G1 X42.402 Y45.996 Z0 F1299
; --- FIX X Backlash ---
G0 X41.602 Y45.996 F1200
G1 X40.569 Y55.219 Z0 F1299
; --- FIX Y Backlash ---
G0 X40.569 Y54.419 F1200
G1 X35.109 Y52.796 Z0 F1299
; --- FIX X Backlash ---
G0 X35.909 Y52.796 F1200
; --- FIX Y Backlash ---
G0 X35.909 Y53.596 F1200
G1 X46.46 Y60.532 Z0 F1299
; --- FIX X Backlash ---
G0 X45.66 Y60.532 F1200
; --- FIX Y Backlash ---
G0 X45.66 Y59.732 F1200
G1 X43.889 Y44.68 Z0 F1299
G0 Z4.8 F800
; --- FIX X Backlash ---
G0 X44.689 Y44.68 F1200
; --- FIX Y Backlash ---
G0 X44.689 Y45.48 F1200
G0 X53.248 Y50.128 Z4.8 F1500
G1 Z0 F1500
G1 X53.395 Y54.408 Z0 F1299
; --- FIX Y Backlash ---
G0 X53.395 Y53.608 F1200
G1 X55.461 Y52.87 Z0 F1299
G1 X55.756 Y51.984 Z0 F1299
; --- FIX X Backlash ---
G0 X54.956 Y51.984 F1200
G1 X53.186 Y49.992 Z0 F1299
G0 Z4.8 F800
; --- FIX X Backlash ---
G0 X53.986 Y49.992 F1200
G0 X68.447 Y47.041 Z4.8 F1500
G1 Z0 F1500
G1 X70.439 Y41.433 Z0 F1299
; --- FIX X Backlash ---
G0 X69.639 Y41.433 F1200
G1 X65.803 Y35.309 Z0 F1299
; --- FIX Y Backlash ---
G0 X65.803 Y36.109 F1200
G1 X64.032 Y38.028 Z0 F1299
; --- FIX X Backlash ---
G0 X64.832 Y38.028 F1200
G1 X68.078 Y47.029 Z0 F1299
G0 Z4.8 F800
; --- FIX X Backlash ---
G0 X67.278 Y47.029 F1200
G0 X39.978 Y62.45 Z4.8 F1500
G1 Z0 F1500
; --- FIX X Backlash ---
G0 X40.778 Y62.45 F1200
G1 X47.05 Y63.04 Z0 F1299
G1 X48.378 Y74.034 Z0 F1299
; --- FIX X Backlash ---
G0 X47.578 Y74.034 F1200
; --- FIX Y Backlash ---
G0 X47.578 Y73.234 F1200
G1 X39.757 Y70.873 Z0 F1299
; --- FIX X Backlash ---
G0 X40.557 Y70.873 F1200
G1 X42.623 Y63.864 Z0 F1299
; --- FIX X Backlash ---
G0 X41.823 Y63.864 F1200
G1 X40.716 Y62.388 Z0 F1299
G0 Z4.8 F800
; --- FIX Y Backlash ---
G0 X40.716 Y63.188 F1200
G0 X33.707 Y103.548 Z4.8 F1500
G1 Z0 F1500
; --- FIX X Backlash ---
G0 X34.507 Y103.548 F1200
; --- FIX Y Backlash ---
G0 X34.507 Y102.748 F1200
G1 X34.654 Y76.185 Z0 F1299
; --- FIX X Backlash ---
G0 X33.854 Y76.185 F1200
G1 X29.28 Y69.988 Z0 F1299
; --- FIX Y Backlash ---
G0 X29.28 Y70.788 F1200
G1 X25.591 Y82.593 Z0 F1299
; --- FIX Y Backlash ---
G0 X25.591 Y81.793 F1200
G1 X19.983 Y79.727 Z0 F1299
; --- FIX Y Backlash ---
G0 X19.983 Y80.527 F1200
G1 X19.045 Y80.759 Z0 F1299
G1 X18.127 Y81.058 Z0 F1299
G1 X17.676 Y81.239 Z0 F1299
G1 X17.233 Y81.444 Z0 F1299
G1 X16.798 Y81.677 Z0 F1299
G1 X16.37 Y81.939 Z0 F1299
G1 X15.952 Y82.233 Z0 F1299
G1 X15.544 Y82.561 Z0 F1299
G1 X15.147 Y82.926 Z0 F1299
G1 X14.76 Y83.331 Z0 F1299
G1 X14.386 Y83.778 Z0 F1299
G1 X14.024 Y84.27 Z0 F1299
G1 X13.676 Y84.808 Z0 F1299
G1 X13.342 Y85.397 Z0 F1299
; --- FIX X Backlash ---
G0 X14.142 Y85.397 F1200
; --- FIX Y Backlash ---
G0 X14.142 Y84.597 F1200
G1 X16.061 Y64.823 Z0 F1299
; --- FIX Y Backlash ---
G0 X16.061 Y65.623 F1200
G1 X20.045 Y68.722 Z0 F1299
; --- FIX X Backlash ---
G0 X19.245 Y68.722 F1200
; --- FIX Y Backlash ---
G0 X19.245 Y67.922 F1200
G1 X16.884 Y65.561 Z0 F1299
G1 X16.441 Y59.363 Z0 F1299
; --- FIX Y Backlash ---
G0 X16.441 Y60.163 F1200
G1 X14.375 Y63.262 Z0 F1299
; --- FIX Y Backlash ---
G0 X14.375 Y62.462 F1200
G1 X14.273 Y60.968 Z0 F1299
G1 X14.215 Y59.528 Z0 F1299
G1 X14.2 Y58.141 Z0 F1299
G1 X14.226 Y56.806 Z0 F1299
; --- FIX X Backlash ---
G0 X15.026 Y56.806 F1200
G1 X15.09 Y55.523 Z0 F1299
G1 X15.192 Y54.29 Z0 F1299
G1 X15.327 Y53.107 Z0 F1299
G1 X15.495 Y51.972 Z0 F1299
G1 X15.694 Y50.885 Z0 F1299
G1 X15.92 Y49.845 Z0 F1299
G1 X16.172 Y48.851 Z0 F1299
G1 X16.449 Y47.901 Z0 F1299
G1 X16.747 Y46.996 Z0 F1299
G1 X17.065 Y46.133 Z0 F1299
G1 X17.4 Y45.313 Z0 F1299
G1 X17.751 Y44.534 Z0 F1299
G1 X18.115 Y43.795 Z0 F1299
G1 X18.49 Y43.096 Z0 F1299
G1 X18.874 Y42.435 Z0 F1299
G1 X19.266 Y41.812 Z0 F1299
G1 X19.662 Y41.226 Z0 F1299
G1 X20.061 Y40.675 Z0 F1299
G1 X20.46 Y40.159 Z0 F1299
G1 X20.858 Y39.677 Z0 F1299
G1 X21.252 Y39.228 Z0 F1299
G1 X21.641 Y38.811 Z0 F1299
G1 X22.022 Y38.426 Z0 F1299
G1 X22.393 Y38.07 Z0 F1299
G1 X22.752 Y37.744 Z0 F1299
G1 X23.096 Y37.446 Z0 F1299
G1 X23.424 Y37.176 Z0 F1299
G1 X23.734 Y36.933 Z0 F1299
; --- FIX Y Backlash ---
G0 X23.734 Y37.733 F1200
G1 X31.998 Y48.21 Z0 F1299
; --- FIX X Backlash ---
G0 X31.198 Y48.21 F1200
; --- FIX Y Backlash ---
G0 X31.198 Y47.41 F1200
G1 X30.165 Y33.538 Z0 F1299
; --- FIX X Backlash ---
G0 X30.965 Y33.538 F1200
; --- FIX Y Backlash ---
G0 X30.965 Y34.338 F1200
G1 X32.58 Y34.827 Z0 F1299
G1 X34.213 Y35.395 Z0 F1299
G1 X35.863 Y36.043 Z0 F1299
G1 X37.532 Y36.773 Z0 F1299
G1 X39.219 Y37.587 Z0 F1299
G1 X40.925 Y38.484 Z0 F1299
G1 X42.65 Y39.467 Z0 F1299
G1 X44.394 Y40.536 Z0 F1299
; --- FIX X Backlash ---
G0 X43.594 Y40.536 F1200
; --- FIX Y Backlash ---
G0 X43.594 Y39.736 F1200
G1 X42.561 Y36.342 Z0 F1299
; --- FIX X Backlash ---
G0 X43.361 Y36.342 F1200
G1 X54.133 Y27.193 Z0 F1299

; Color picking sequence
G1 Z10 F1000;         ; Raise brush
G0 X41 Y5 F1200;    ; Rapid move to color 1
G1 Z10 F1000;         ; Raise brush
G0 X41 Y5 F1200;    ; Rapid move to color 1
G1 Z0 F1000;         ; Lower into color
G1 X40.102 Y7.295 Z0 S800 F1200
G1 X40.026 Y7.642 Z0 F1200
G1 X40 Y8 Z0 F1200
G1 X40.026 Y8.358 Z0 F1200
G1 X40.102 Y8.705 Z0 F1200
G1 X40.225 Y9.041 Z0 F1200
G1 X40.393 Y9.362 Z0 F1200
G1 X40.603 Y9.668 Z0 F1200
G1 X40.854 Y9.957 Z0 F1200
G1 X41.142 Y10.226 Z0 F1200
G1 X41.464 Y10.475 Z0 F1200
G1 X41.82 Y10.701 Z0 F1200
G1 X42.204 Y10.902 Z0 F1200
G1 X42.617 Y11.078 Z0 F1200
G1 X43.054 Y11.225 Z0 F1200
G1 X43.513 Y11.343 Z0 F1200
G1 X43.992 Y11.429 Z0 F1200
G1 X44.489 Y11.482 Z0 F1200
G1 X45 Y11.5 Z0 F1200
G1 X45.511 Y11.482 Z0 F1200
G1 X46.008 Y11.429 Z0 F1200
G1 X46.487 Y11.343 Z0 F1200
G1 X46.946 Y11.225 Z0 F1200
G1 X47.383 Y11.078 Z0 F1200
G1 X47.796 Y10.902 Z0 F1200
G1 X48.18 Y10.701 Z0 F1200
G1 X48.536 Y10.475 Z0 F1200
G1 X48.858 Y10.226 Z0 F1200
G1 X49.146 Y9.957 Z0 F1200
G1 X49.397 Y9.668 Z0 F1200
G1 X49.607 Y9.362 Z0 F1200
G1 X49.775 Y9.041 Z0 F1200
G1 X49.898 Y8.705 Z0 F1200
G1 X49.974 Y8.358 Z0 F1200
G1 X50 Y8 Z0 F1200
G1 X49.974 Y7.642 Z0 F1200
G1 X49.898 Y7.295 Z0 F1200
G1 X49.775 Y6.959 Z0 F1200
G1 X49.607 Y6.638 Z0 F1200
G1 X49.397 Y6.332 Z0 F1200
G1 X49.146 Y6.043 Z0 F1200
G1 X48.858 Y5.774 Z0 F1200
G1 X48.536 Y5.525 Z0 F1200
G1 X48.18 Y5.299 Z0 F1200
G1 X47.796 Y5.098 Z0 F1200
G1 X47.383 Y4.922 Z0 F1200
G1 X46.946 Y4.775 Z0 F1200
G1 X46.487 Y4.657 Z0 F1200
G1 X46.008 Y4.571 Z0 F1200
G1 X45.511 Y4.518 Z0 F1200
G1 X45 Y4.5 Z0 F1200
G1 X44.489 Y4.518 Z0 F1200
G1 X43.992 Y4.571 Z0 F1200
G1 X43.513 Y4.657 Z0 F1200
G1 X43.054 Y4.775 Z0 F1200
G1 X42.617 Y4.922 Z0 F1200
G1 X42.204 Y5.098 Z0 F1200
G1 X41.82 Y5.299 Z0 F1200
G1 X41.464 Y5.525 Z0 F1200
G1 X41.142 Y5.774 Z0 F1200
G1 X40.854 Y6.043 Z0 F1200
G1 X40.603 Y6.332 Z0 F1200
G1 X40.393 Y6.638 Z0 F1200
G1 X40.225 Y6.959 Z0 F1200
G1 Z7 F800;         ; Raise from color
G1 X34 Y8 Z1 F1200;     ; Movement in paint
G1 X24 Y18 Z8 F500;     ; Move in paint
G1 F1200;           ; Set feed rate
G0 Z3.5 F1000 ; Safety Lift
G0 X54.133 Y27.193 F1200 ; Return
G1 Z0 F1000 ; Restore Z
; --- FIX Y Backlash ---
G0 X54.133 Y27.993 F1200
G1 X55.756 Y33.453 Z0 F1299
; --- FIX Y Backlash ---
G0 X55.756 Y32.653 F1200
G1 X60.774 Y20.7 Z0 F1299
G1 X60.82 Z0 F1299
G1 X60.915 Y20.73 Z0 F1299
; --- FIX Y Backlash ---
G0 X60.915 Y21.53 F1200
G1 X61.055 Y21.584 Z0 F1299
G1 X61.239 Y21.662 Z0 F1299
G1 X61.464 Y21.763 Z0 F1299
G1 X61.727 Y21.886 Z0 F1299
G1 X62.361 Y22.188 Z0 F1299
G1 X63.123 Y22.559 Z0 F1299
G1 X65.988 Y23.964 Z0 F1299
G1 X68.198 Y25.031 Z0 F1299
G1 X70.476 Y26.095 Z0 F1299
G1 X71.594 Y26.597 Z0 F1299
G1 X72.674 Y27.063 Z0 F1299
G1 X73.697 Y27.483 Z0 F1299
G1 X75.808 Y28.288 Z0 F1299
G1 X77.027 Y28.785 Z0 F1299
G1 X78.283 Y29.327 Z0 F1299
G1 X79.56 Y29.9 Z0 F1299
G1 X80.838 Y30.494 Z0 F1299
G1 X82.1 Y31.096 Z0 F1299
G1 X83.327 Y31.697 Z0 F1299
G1 X84.502 Y32.283 Z0 F1299
G1 X85.607 Y32.843 Z0 F1299
G1 X86.623 Y33.366 Z0 F1299
G1 X87.532 Y33.841 Z0 F1299
G1 X88.316 Y34.255 Z0 F1299
G1 X88.958 Y34.597 Z0 F1299
G1 X89.845 Y35.076 Z0 F1299
G1 X95.009 Y50.866 Z0 F1299
; --- FIX Y Backlash ---
G0 X95.009 Y50.066 F1200
G1 X96.338 Y40.474 Z0 F1299
; --- FIX Y Backlash ---
G0 X96.338 Y41.274 F1200
G1 X101.945 Y61.934 Z0 F1299
; --- FIX X Backlash ---
G0 X101.145 Y61.934 F1200
G1 X98.932 Y70.197 Z0 F1299
; --- FIX X Backlash ---
G0 X99.732 Y70.197 F1200
G1 X103.273 Y72.706 Z0 F1299
; --- FIX X Backlash ---
G0 X102.473 Y72.706 F1200
; --- FIX Y Backlash ---
G0 X102.473 Y71.906 F1200
G1 X100.112 Y44.163 Z0 F1299
; --- FIX X Backlash ---
G0 X100.912 Y44.163 F1200
; --- FIX Y Backlash ---
G0 X100.912 Y44.963 F1200
G1 X102.546 Y46.519 Z0 F1299
G1 X104.151 Y48.108 Z0 F1299
G1 X104.922 Y48.94 Z0 F1299
G1 X105.661 Y49.808 Z0 F1299
G1 X106.359 Y50.724 Z0 F1299
G1 X107.009 Y51.697 Z0 F1299
G1 X107.602 Y52.735 Z0 F1299
G1 X108.131 Y53.85 Z0 F1299
G1 X108.368 Y54.439 Z0 F1299
G1 X108.585 Y55.05 Z0 F1299
G1 X108.783 Y55.686 Z0 F1299
G1 X108.959 Y56.346 Z0 F1299
G1 X109.112 Y57.032 Z0 F1299
G1 X109.242 Y57.746 Z0 F1299
G1 X109.348 Y58.488 Z0 F1299
G1 X109.428 Y59.26 Z0 F1299
G1 X109.481 Y60.064 Z0 F1299
G1 X109.507 Y60.899 Z0 F1299
G1 X109.504 Y61.768 Z0 F1299
G1 X109.471 Y62.671 Z0 F1299
; --- FIX X Backlash ---
G0 X108.671 Y62.671 F1200
; --- FIX Y Backlash ---
G0 X108.671 Y61.871 F1200
G1 X107.195 Y61.281 Z0 F1299
; --- FIX X Backlash ---
G0 X107.995 Y61.281 F1200
; --- FIX Y Backlash ---
G0 X107.995 Y62.081 F1200
G1 X108.733 Y80.379 Z0 F1299
; --- FIX X Backlash ---
G0 X107.933 Y80.379 F1200
G1 X102.916 Y85.397 Z0 F1299
; --- FIX Y Backlash ---
G0 X102.916 Y84.597 F1200
G1 X98.046 Y80.465 Z0 F1299
; --- FIX X Backlash ---
G0 X98.846 Y80.465 F1200
; --- FIX Y Backlash ---
G0 X98.846 Y81.265 F1200
G1 X100.765 Y97.645 Z0 F1299
; --- FIX X Backlash ---
G0 X99.965 Y97.645 F1200
; --- FIX Y Backlash ---
G0 X99.965 Y96.845 F1200
G1 X90.373 Y73.972 Z0 F1299
; --- FIX Y Backlash ---
G0 X90.373 Y74.772 F1200
G1 X89.192 Y92.628 Z0 F1299
G1 X79.453 Y107.679 Z0 F1299
; --- FIX X Backlash ---
G0 X80.253 Y107.679 F1200
; --- FIX Y Backlash ---
G0 X80.253 Y106.879 F1200
G1 X84.975 Y89.909 Z0 F1299
G1 X85.27 Y88.434 Z0 F1299
; --- FIX X Backlash ---
G0 X84.47 Y88.434 F1200
; --- FIX Y Backlash ---
G0 X84.47 Y89.234 F1200
G1 X78.42 Y94.398 Z0 F1299
; --- FIX X Backlash ---
G0 X79.22 Y94.398 F1200
; --- FIX Y Backlash ---
G0 X79.22 Y93.598 F1200
G1 X82.319 Y77.218 Z0 F1299

; Color picking sequence
G1 Z10 F1000;         ; Raise brush
G0 X41 Y5 F1200;    ; Rapid move to color 1
G1 Z10 F1000;         ; Raise brush
G0 X41 Y5 F1200;    ; Rapid move to color 1
G1 Z0 F1000;         ; Lower into color
G1 X40.102 Y7.295 Z0 S800 F1200
G1 X40.026 Y7.642 Z0 F1200
G1 X40 Y8 Z0 F1200
G1 X40.026 Y8.358 Z0 F1200
G1 X40.102 Y8.705 Z0 F1200
G1 X40.225 Y9.041 Z0 F1200
G1 X40.393 Y9.362 Z0 F1200
G1 X40.603 Y9.668 Z0 F1200
G1 X40.854 Y9.957 Z0 F1200
G1 X41.142 Y10.226 Z0 F1200
G1 X41.464 Y10.475 Z0 F1200
G1 X41.82 Y10.701 Z0 F1200
G1 X42.204 Y10.902 Z0 F1200
G1 X42.617 Y11.078 Z0 F1200
G1 X43.054 Y11.225 Z0 F1200
G1 X43.513 Y11.343 Z0 F1200
G1 X43.992 Y11.429 Z0 F1200
G1 X44.489 Y11.482 Z0 F1200
G1 X45 Y11.5 Z0 F1200
G1 X45.511 Y11.482 Z0 F1200
G1 X46.008 Y11.429 Z0 F1200
G1 X46.487 Y11.343 Z0 F1200
G1 X46.946 Y11.225 Z0 F1200
G1 X47.383 Y11.078 Z0 F1200
G1 X47.796 Y10.902 Z0 F1200
G1 X48.18 Y10.701 Z0 F1200
G1 X48.536 Y10.475 Z0 F1200
G1 X48.858 Y10.226 Z0 F1200
G1 X49.146 Y9.957 Z0 F1200
G1 X49.397 Y9.668 Z0 F1200
G1 X49.607 Y9.362 Z0 F1200
G1 X49.775 Y9.041 Z0 F1200
G1 X49.898 Y8.705 Z0 F1200
G1 X49.974 Y8.358 Z0 F1200
G1 X50 Y8 Z0 F1200
G1 X49.974 Y7.642 Z0 F1200
G1 X49.898 Y7.295 Z0 F1200
G1 X49.775 Y6.959 Z0 F1200
G1 X49.607 Y6.638 Z0 F1200
G1 X49.397 Y6.332 Z0 F1200
G1 X49.146 Y6.043 Z0 F1200
G1 X48.858 Y5.774 Z0 F1200
G1 X48.536 Y5.525 Z0 F1200
G1 X48.18 Y5.299 Z0 F1200
G1 X47.796 Y5.098 Z0 F1200
G1 X47.383 Y4.922 Z0 F1200
G1 X46.946 Y4.775 Z0 F1200
G1 X46.487 Y4.657 Z0 F1200
G1 X46.008 Y4.571 Z0 F1200
G1 X45.511 Y4.518 Z0 F1200
G1 X45 Y4.5 Z0 F1200
G1 X44.489 Y4.518 Z0 F1200
G1 X43.992 Y4.571 Z0 F1200
G1 X43.513 Y4.657 Z0 F1200
G1 X43.054 Y4.775 Z0 F1200
G1 X42.617 Y4.922 Z0 F1200
G1 X42.204 Y5.098 Z0 F1200
G1 X41.82 Y5.299 Z0 F1200
G1 X41.464 Y5.525 Z0 F1200
G1 X41.142 Y5.774 Z0 F1200
G1 X40.854 Y6.043 Z0 F1200
G1 X40.603 Y6.332 Z0 F1200
G1 X40.393 Y6.638 Z0 F1200
G1 X40.225 Y6.959 Z0 F1200
G1 Z7 F800;         ; Raise from color
G1 X34 Y8 Z1 F1200;     ; Movement in paint
G1 X24 Y18 Z8 F500;     ; Move in paint
G1 F1200;           ; Set feed rate
G0 Z3.5 F1000 ; Safety Lift
G0 X82.319 Y77.218 F1200 ; Return
G1 Z0 F1000 ; Restore Z
; --- FIX X Backlash ---
G0 X81.519 Y77.218 F1200
; --- FIX Y Backlash ---
G0 X81.519 Y78.018 F1200
G1 X79.748 Y79.642 Z0 F1299
; --- FIX Y Backlash ---
G0 X79.748 Y78.842 F1200
G1 X70.599 Y63.642 Z0 F1299
; --- FIX Y Backlash ---
G0 X70.599 Y64.442 F1200
G1 X68.68 Y66.213 Z0 F1299
; --- FIX X Backlash ---
G0 X69.48 Y66.213 F1200
G1 X74.202 Y85.102 Z0 F1299
; --- FIX X Backlash ---
G0 X73.402 Y85.102 F1200
; --- FIX Y Backlash ---
G0 X73.402 Y84.302 F1200
G1 X72.354 Y82.495 Z0 F1299
G1 X71.281 Y80.702 Z0 F1299
G1 X70.181 Y78.925 Z0 F1299
G1 X69.054 Y77.163 Z0 F1299
G1 X67.898 Y75.418 Z0 F1299
G1 X66.713 Y73.689 Z0 F1299
G1 X65.498 Y71.977 Z0 F1299
G1 X64.252 Y70.284 Z0 F1299
G1 X62.973 Y68.608 Z0 F1299
G1 X61.661 Y66.952 Z0 F1299
G1 X60.315 Y65.315 Z0 F1299
G1 X58.934 Y63.699 Z0 F1299
G1 X57.517 Y62.103 Z0 F1299
G1 X56.062 Y60.528 Z0 F1299
G1 X54.57 Y58.975 Z0 F1299
G1 X53.038 Y57.444 Z0 F1299
; --- FIX X Backlash ---
G0 X53.838 Y57.444 F1200
; --- FIX Y Backlash ---
G0 X53.838 Y58.244 F1200
G1 X54.871 Y79.199 Z0 F1299
; --- FIX X Backlash ---
G0 X54.071 Y79.199 F1200
G1 X51.12 Y88.496 Z0 F1299
; --- FIX Y Backlash ---
G0 X51.12 Y87.696 F1200
G1 X39.462 Y79.875 Z0 F1299
; --- FIX Y Backlash ---
G0 X39.462 Y80.675 F1200
G1 X34.149 Y105.318 Z0 F1299

; Washing sequence (no color)
G1 Z10 F1000;        ; Raise brush
G0 X5 Y5 F1200;     ; Rapid move to clean
G1 Z0 F800;         ; Lower brush
G1 X10 Y12 Z8 F1200;     ; Move
G1 Z0 F800;         ; Lower
G1 X25 Y14 Z6 F800;     ; Move
G1 Z8 F800;         ; Maintain
G0 X5 Y5 F1200;     ; Rapid
G1 Z0 F800;         ; Lower
G1 X15 Y12 Z8 F1200;     ; Move
G1 Z0 F800;         ; Lower
G1 X25 Y14 Z6 F800;     ; Move
G1 Z10 F800;         ; Maintain
G1 F1200;           ; Set feed
G0 Z3.5 F1000 ; Safety Lift

; Color picking sequence
G1 Z10 F1000;         ; Raise brush
G0 X86 Y5 F1200;    ; Rapid move to color 1
G1 Z10 F1000;         ; Raise brush
G0 X86 Y5 F1200;    ; Rapid move to color 1
G1 Z0 F1000;         ; Lower into color
G1 X85.102 Y7.295 Z0 S800 F1200
G1 X85.026 Y7.642 Z0 F1200
G1 X85 Y8 Z0 F1200
G1 X85.026 Y8.358 Z0 F1200
G1 X85.102 Y8.705 Z0 F1200
G1 X85.225 Y9.041 Z0 F1200
G1 X85.393 Y9.362 Z0 F1200
G1 X85.603 Y9.668 Z0 F1200
G1 X85.854 Y9.957 Z0 F1200
G1 X86.142 Y10.226 Z0 F1200
G1 X86.464 Y10.475 Z0 F1200
G1 X86.82 Y10.701 Z0 F1200
G1 X87.204 Y10.902 Z0 F1200
G1 X87.617 Y11.078 Z0 F1200
G1 X88.054 Y11.225 Z0 F1200
G1 X88.513 Y11.343 Z0 F1200
G1 X88.992 Y11.429 Z0 F1200
G1 X89.489 Y11.482 Z0 F1200
G1 X90 Y11.5 Z0 F1200
G1 X90.511 Y11.482 Z0 F1200
G1 X91.008 Y11.429 Z0 F1200
G1 X91.487 Y11.343 Z0 F1200
G1 X91.946 Y11.225 Z0 F1200
G1 X92.383 Y11.078 Z0 F1200
G1 X92.796 Y10.902 Z0 F1200
G1 X93.18 Y10.701 Z0 F1200
G1 X93.536 Y10.475 Z0 F1200
G1 X93.858 Y10.226 Z0 F1200
G1 X94.146 Y9.957 Z0 F1200
G1 X94.397 Y9.668 Z0 F1200
G1 X94.607 Y9.362 Z0 F1200
G1 X94.775 Y9.041 Z0 F1200
G1 X94.898 Y8.705 Z0 F1200
G1 X94.974 Y8.358 Z0 F1200
G1 X95 Y8 Z0 F1200
G1 X94.974 Y7.642 Z0 F1200
G1 X94.898 Y7.295 Z0 F1200
G1 X94.775 Y6.959 Z0 F1200
G1 X94.607 Y6.638 Z0 F1200
G1 X94.397 Y6.332 Z0 F1200
G1 X94.146 Y6.043 Z0 F1200
G1 X93.858 Y5.774 Z0 F1200
G1 X93.536 Y5.525 Z0 F1200
G1 X93.18 Y5.299 Z0 F1200
G1 X92.796 Y5.098 Z0 F1200
G1 X92.383 Y4.922 Z0 F1200
G1 X91.946 Y4.775 Z0 F1200
G1 X91.487 Y4.657 Z0 F1200
G1 X91.008 Y4.571 Z0 F1200
G1 X90.511 Y4.518 Z0 F1200
G1 X90 Y4.5 Z0 F1200
G1 X89.489 Y4.518 Z0 F1200
G1 X88.992 Y4.571 Z0 F1200
G1 X88.513 Y4.657 Z0 F1200
G1 X88.054 Y4.775 Z0 F1200
G1 X87.617 Y4.922 Z0 F1200
G1 X87.204 Y5.098 Z0 F1200
G1 X86.82 Y5.299 Z0 F1200
G1 X86.464 Y5.525 Z0 F1200
G1 X86.142 Y5.774 Z0 F1200
G1 X85.854 Y6.043 Z0 F1200
G1 X85.603 Y6.332 Z0 F1200
G1 X85.393 Y6.638 Z0 F1200
G1 X85.225 Y6.959 Z0 F1200
G1 Z7 F800;         ; Raise from color
G1 X79 Y8 Z1 F1200;     ; Movement in paint
G1 X69 Y18 Z8 F500;     ; Move in paint
G1 F1200;           ; Set feed rate
G0 Z3.5 F1000 ; Safety Lift
;Offset @ 1500 mm/min, 80% power

M8
G0 Z4.8 F800
; --- FIX X Backlash ---
G0 X34.949 Y105.318 F1200
; --- FIX Y Backlash ---
G0 X34.949 Y104.518 F1200
G0 X47.575 Y77.91 Z4.8 F1500
G1 Z0 F1500
;Layer C3
; --- FIX Y Backlash ---
G0 X47.575 Y78.71 F1200
G1 X50.053 Y79.601 Z0 F1500
; --- FIX X Backlash ---
G0 X49.253 Y79.601 F1200
G1 X48.923 Y80.541 Z0 F1500
; --- FIX Y Backlash ---
G0 X48.923 Y79.741 F1200
G1 X47.967 Y79.064 Z0 F1500
G1 X46.428 Y78.026 Z0 F1500
G1 X45.682 Y77.548 Z0 F1500
; --- FIX X Backlash ---
G0 X46.482 Y77.548 F1200
; --- FIX Y Backlash ---
G0 X46.482 Y78.348 F1200
G1 X47.575 Y78.71 Z0 F1500
G0 Z4.8 F800
G0 X51.071 Y79.117 Z4.8 F1500
G1 Z0 F1500
; --- FIX X Backlash ---
G0 X50.271 Y79.117 F1200
G1 X49.402 Y81.589 Z0 F1500
G1 X49.326 Y81.816 Z0 F1500
; --- FIX Y Backlash ---
G0 X49.326 Y81.016 F1200
G1 X49.027 Y80.795 Z0 F1500
G1 X47.512 Y79.722 Z0 F1500
G1 X45.989 Y78.695 Z0 F1500
G1 X44.459 Y77.715 Z0 F1500
G1 X42.924 Y76.787 Z0 F1500
G1 X41.387 Y75.917 Z0 F1500
G1 X40.018 Y75.195 Z0 F1500
; --- FIX X Backlash ---
G0 X40.818 Y75.195 F1200
; --- FIX Y Backlash ---
G0 X40.818 Y75.995 F1200
G1 X41.259 Y76.083 Z0 F1500
G1 X42.87 Y76.461 Z0 F1500
G1 X44.511 Y76.902 Z0 F1500
G1 X46.164 Y77.4 Z0 F1500
G1 X47.827 Y77.95 Z0 F1500
G1 X51.071 Y79.117 Z0 F1500
G0 Z4.8 F800
; --- FIX Y Backlash ---
G0 X51.071 Y78.317 F1200
G0 X52.048 Y77.95 Z4.8 F1500
G1 Z0 F1500
; --- FIX X Backlash ---
G0 X51.248 Y77.95 F1200
; --- FIX Y Backlash ---
G0 X51.248 Y78.75 F1200
G1 X50.158 Y81.85 Z0 F1500
G1 X49.734 Y83.114 Z0 F1500
; --- FIX Y Backlash ---
G0 X49.734 Y82.314 F1200
G1 X48.557 Y81.443 Z0 F1500
G1 X47.057 Y80.38 Z0 F1500
G1 X45.549 Y79.363 Z0 F1500
G1 X44.036 Y78.394 Z0 F1500
G1 X42.52 Y77.478 Z0 F1500
G1 X41.003 Y76.618 Z0 F1500
G1 X37.651 Y74.851 Z0 F1500
; --- FIX Y Backlash ---
G0 X37.651 Y75.651 F1200
G1 X37.591 Y75.923 Z0 F1500
; --- FIX Y Backlash ---
G0 X37.591 Y75.123 F1200
G1 Y73.95 Z0 F1500
; --- FIX X Backlash ---
G0 X38.391 Y73.95 F1200
; --- FIX Y Backlash ---
G0 X38.391 Y74.75 F1200
G1 X39.795 Y74.976 Z0 F1500
G1 X41.428 Y75.301 Z0 F1500
G1 X43.073 Y75.687 Z0 F1500
G1 X44.721 Y76.13 Z0 F1500
G1 X46.398 Y76.635 Z0 F1500
G1 X48.079 Y77.191 Z0 F1500
G1 X52.04 Y78.615 Z0 F1500
G1 X52.048 Y78.75 Z0 F1500
G0 Z4.8 F800
; --- FIX Y Backlash ---
G0 X52.048 Y77.95 F1200
G0 X54.252 Y45.159 Z4.8 F1500
G1 Z0 F1500
; --- FIX X Backlash ---
G0 X53.452 Y45.159 F1200
G1 X52.021 Y43.715 Z0 F1500
; --- FIX X Backlash ---
G0 X52.821 Y43.715 F1200
; --- FIX Y Backlash ---
G0 X52.821 Y44.515 F1200
G1 X53.379 Y44.702 Z0 F1500
G1 X54.544 Y45.121 Z0 F1500
; --- FIX X Backlash ---
G0 X53.744 Y45.121 F1200
G1 X53.66 Y45.356 Z0 F1500
G1 X53.452 Y45.959 Z0 F1500
G0 Z4.8 F800
; --- FIX X Backlash ---
G0 X54.252 Y45.959 F1200
G0 X54.576 Y47.421 Z4.8 F1500
G1 Z0 F1500
; --- FIX X Backlash ---
G0 X53.776 Y47.421 F1200
; --- FIX Y Backlash ---
G0 X53.776 Y46.621 F1200
G1 X49.212 Y42.017 Z0 F1500
; --- FIX X Backlash ---
G0 X50.012 Y42.017 F1200
; --- FIX Y Backlash ---
G0 X50.012 Y42.817 F1200
G1 X51.784 Y43.345 Z0 F1500
G1 X52.728 Y43.641 Z0 F1500
G1 X53.65 Y43.949 Z0 F1500
G1 X55.566 Y44.639 Z0 F1500
; --- FIX X Backlash ---
G0 X54.766 Y44.639 F1200
G1 X54.415 Y45.622 Z0 F1500
G1 X53.789 Y47.436 Z0 F1500
G1 X53.776 Y47.421 Z0 F1500
G0 Z4.8 F800
; --- FIX Y Backlash ---
G0 X53.776 Y46.621 F1200
G0 X48.062 Y39.721 Z4.8 F1500
G1 Z0 F1500
G1 X47.957 Y39.616 Z0 F1500
; --- FIX X Backlash ---
G0 X48.757 Y39.616 F1200
; --- FIX Y Backlash ---
G0 X48.757 Y40.416 F1200
G1 X49.075 Y45.221 Z0 F1500
; --- FIX X Backlash ---
G0 X48.275 Y45.221 F1200
; --- FIX Y Backlash ---
G0 X48.275 Y44.421 F1200
G1 X47.534 Y38.609 Z0 F1500
; --- FIX X Backlash ---
G0 X48.334 Y38.609 F1200
G1 X48.789 Y38.136 Z0 F1500
; --- FIX Y Backlash ---
G0 X48.789 Y38.936 F1200
G1 X48.862 Y40.521 Z0 F1500
G0 Z4.8 F800
G0 X49.697 Y42.5 Z4.8 F1500
G1 Z0 F1500
G1 X51.043 Y62.906 Z0 F1500
G1 X51.83 Y75.305 Z0 F1500
; --- FIX X Backlash ---
G0 X51.03 Y75.305 F1200
; --- FIX Y Backlash ---
G0 X51.03 Y74.505 F1200
G1 X50.05 Y65.799 Z0 F1500
G1 X48.938 Y56.326 Z0 F1500
G1 X47.786 Y46.913 Z0 F1500
G1 X46.692 Y38.329 Z0 F1500
; --- FIX X Backlash ---
G0 X47.492 Y38.329 F1200
G1 X48.78 Y36.992 Z0 F1500
G1 X49.505 Y36.281 Z0 F1500
; --- FIX Y Backlash ---
G0 X49.505 Y37.081 F1200
G1 X49.756 Y42.56 Z0 F1500
; --- FIX X Backlash ---
G0 X48.956 Y42.56 F1200
; --- FIX Y Backlash ---
G0 X48.956 Y41.76 F1200
G1 X48.897 Y41.7 Z0 F1500
G0 Z4.8 F800
; --- FIX X Backlash ---
G0 X49.697 Y41.7 F1200
G0 X52.186 Y34.822 Z4.8 F1500
G1 Z0 F1500
G1 X52.631 Y34.408 Z0 F1500
; --- FIX Y Backlash ---
G0 X52.631 Y35.208 F1200
G1 X53.558 Y37.161 Z0 F1500
; --- FIX X Backlash ---
G0 X52.758 Y37.161 F1200
; --- FIX Y Backlash ---
G0 X52.758 Y36.361 F1200
G1 X51.386 Y34.822 Z0 F1500
G0 Z4.8 F800
G0 X50.268 Y34.769 Z4.8 F1500
G1 Z0 F1500
; --- FIX X Backlash ---
G0 X51.068 Y34.769 F1200
G1 X52.509 Y33.43 Z0 F1500
G1 X52.885 Y33.1 Z0 F1500
; --- FIX Y Backlash ---
G0 X52.885 Y33.9 F1200
G1 X53.215 Y34.571 Z0 F1500
G1 X54.452 Y37.18 Z0 F1500
G1 X55.647 Y39.789 Z0 F1500
G1 X56.57 Y41.879 Z0 F1500
G1 X56.533 Y41.981 Z0 F1500
; --- FIX X Backlash ---
G0 X55.733 Y41.981 F1200
; --- FIX Y Backlash ---
G0 X55.733 Y41.181 F1200
G1 X54.585 Y39.749 Z0 F1500
G1 X53.581 Y38.534 Z0 F1500
G1 X52.564 Y37.346 Z0 F1500
G1 X50.268 Y34.769 Z0 F1500
G0 Z4.8 F800

; Color picking sequence
G1 Z10 F1000;         ; Raise brush
G0 X86 Y5 F1200;    ; Rapid move to color 1
G1 Z10 F1000;         ; Raise brush
G0 X86 Y5 F1200;    ; Rapid move to color 1
G1 Z0 F1000;         ; Lower into color
G1 X85.102 Y7.295 Z0 S800 F1200
G1 X85.026 Y7.642 Z0 F1200
G1 X85 Y8 Z0 F1200
G1 X85.026 Y8.358 Z0 F1200
G1 X85.102 Y8.705 Z0 F1200
G1 X85.225 Y9.041 Z0 F1200
G1 X85.393 Y9.362 Z0 F1200
G1 X85.603 Y9.668 Z0 F1200
G1 X85.854 Y9.957 Z0 F1200
G1 X86.142 Y10.226 Z0 F1200
G1 X86.464 Y10.475 Z0 F1200
G1 X86.82 Y10.701 Z0 F1200
G1 X87.204 Y10.902 Z0 F1200
G1 X87.617 Y11.078 Z0 F1200
G1 X88.054 Y11.225 Z0 F1200
G1 X88.513 Y11.343 Z0 F1200
G1 X88.992 Y11.429 Z0 F1200
G1 X89.489 Y11.482 Z0 F1200
G1 X90 Y11.5 Z0 F1200
G1 X90.511 Y11.482 Z0 F1200
G1 X91.008 Y11.429 Z0 F1200
G1 X91.487 Y11.343 Z0 F1200
G1 X91.946 Y11.225 Z0 F1200
G1 X92.383 Y11.078 Z0 F1200
G1 X92.796 Y10.902 Z0 F1200
G1 X93.18 Y10.701 Z0 F1200
G1 X93.536 Y10.475 Z0 F1200
G1 X93.858 Y10.226 Z0 F1200
G1 X94.146 Y9.957 Z0 F1200
G1 X94.397 Y9.668 Z0 F1200
G1 X94.607 Y9.362 Z0 F1200
G1 X94.775 Y9.041 Z0 F1200
G1 X94.898 Y8.705 Z0 F1200
G1 X94.974 Y8.358 Z0 F1200
G1 X95 Y8 Z0 F1200
G1 X94.974 Y7.642 Z0 F1200
G1 X94.898 Y7.295 Z0 F1200
G1 X94.775 Y6.959 Z0 F1200
G1 X94.607 Y6.638 Z0 F1200
G1 X94.397 Y6.332 Z0 F1200
G1 X94.146 Y6.043 Z0 F1200
G1 X93.858 Y5.774 Z0 F1200
G1 X93.536 Y5.525 Z0 F1200
G1 X93.18 Y5.299 Z0 F1200
G1 X92.796 Y5.098 Z0 F1200
G1 X92.383 Y4.922 Z0 F1200
G1 X91.946 Y4.775 Z0 F1200
G1 X91.487 Y4.657 Z0 F1200
G1 X91.008 Y4.571 Z0 F1200
G1 X90.511 Y4.518 Z0 F1200
G1 X90 Y4.5 Z0 F1200
G1 X89.489 Y4.518 Z0 F1200
G1 X88.992 Y4.571 Z0 F1200
G1 X88.513 Y4.657 Z0 F1200
G1 X88.054 Y4.775 Z0 F1200
G1 X87.617 Y4.922 Z0 F1200
G1 X87.204 Y5.098 Z0 F1200
G1 X86.82 Y5.299 Z0 F1200
G1 X86.464 Y5.525 Z0 F1200
G1 X86.142 Y5.774 Z0 F1200
G1 X85.854 Y6.043 Z0 F1200
G1 X85.603 Y6.332 Z0 F1200
G1 X85.393 Y6.638 Z0 F1200
G1 X85.225 Y6.959 Z0 F1200
G1 Z7 F800;         ; Raise from color
G1 X79 Y8 Z1 F1200;     ; Movement in paint
G1 X69 Y18 Z8 F500;     ; Move in paint
G1 F1200;           ; Set feed rate
G0 Z3.5 F1000 ; Safety Lift
G0 X50.268 Y34.769 F1200 ; Return to pos
; --- FIX X Backlash ---
G0 X51.068 Y34.769 F1200
; --- FIX Y Backlash ---
G0 X51.068 Y35.569 F1200
G0 X51.152 Y38.068 Z4.8 F1500
G1 Z0 F1500
G1 X51.311 Y41.535 Z0 F1500
G1 X52.263 Y41.818 Z0 F1500
G1 X53.216 Y42.117 Z0 F1500
G1 X54.168 Y42.435 Z0 F1500
G1 X55.121 Y42.778 Z0 F1500
; --- FIX X Backlash ---
G0 X54.321 Y42.778 F1200
; --- FIX Y Backlash ---
G0 X54.321 Y41.978 F1200
G1 X53.344 Y40.759 Z0 F1500
G1 X52.356 Y39.564 Z0 F1500
G1 X51.359 Y38.399 Z0 F1500
G1 X50.352 Y37.268 Z0 F1500
G0 Z4.8 F800
G0 X49.45 Y35.053 Z4.8 F1500
G1 Z0 F1500
; --- FIX X Backlash ---
G0 X50.25 Y35.053 F1200
; --- FIX Y Backlash ---
G0 X50.25 Y35.853 F1200
G1 X50.538 Y42.139 Z0 F1500
G1 X52.029 Y42.583 Z0 F1500
G1 X52.962 Y42.875 Z0 F1500
G1 X53.897 Y43.188 Z0 F1500
G1 X55.419 Y43.736 Z0 F1500
; --- FIX Y Backlash ---
G0 X55.419 Y42.936 F1200
G1 X56.124 Y41.95 Z0 F1500
; --- FIX X Backlash ---
G0 X55.324 Y41.95 F1200
G1 X53.964 Y40.254 Z0 F1500
G1 X52.969 Y39.049 Z0 F1500
G1 X51.962 Y37.872 Z0 F1500
G1 X49.45 Y35.053 Z0 F1500
G0 Z4.8 F800
G0 X49.276 Y34.598 Z4.8 F1500
G1 Z0 F1500
; --- FIX X Backlash ---
G0 X50.076 Y34.598 F1200
G1 X51.969 Y32.84 Z0 F1500
G1 X53.143 Y31.811 Z0 F1500
; --- FIX Y Backlash ---
G0 X53.143 Y32.611 F1200
G1 X53.938 Y34.229 Z0 F1500
G1 X55.17 Y36.827 Z0 F1500
G1 X56.378 Y39.466 Z0 F1500
G1 X57.433 Y41.853 Z0 F1500
; --- FIX X Backlash ---
G0 X56.633 Y41.853 F1200
G1 X55.945 Y43.715 Z0 F1500
G1 X55.17 Y45.886 Z0 F1500
G1 X54.421 Y48.057 Z0 F1500
G1 X54.119 Y48.955 Z0 F1500
; --- FIX Y Backlash ---
G0 X54.119 Y48.155 F1200
G1 X53.2 Y47.177 Z0 F1500
G1 X49.836 Y43.783 Z0 F1500
; --- FIX X Backlash ---
G0 X50.636 Y43.783 F1200
; --- FIX Y Backlash ---
G0 X50.636 Y44.583 F1200
G1 X51.842 Y62.851 Z0 F1500
G1 X52.857 Y78.861 Z0 F1500
; --- FIX X Backlash ---
G0 X52.057 Y78.861 F1200
G1 X50.915 Y82.109 Z0 F1500
G1 X50.137 Y84.427 Z0 F1500
; --- FIX Y Backlash ---
G0 X50.137 Y83.627 F1200
G1 X49.565 Y83.185 Z0 F1500
G1 X48.088 Y82.091 Z0 F1500
G1 X46.602 Y81.038 Z0 F1500
G1 X45.11 Y80.032 Z0 F1500
G1 X43.614 Y79.074 Z0 F1500
G1 X42.116 Y78.169 Z0 F1500
G1 X40.619 Y77.321 Z0 F1500
G1 X38.207 Y76.049 Z0 F1500
; --- FIX Y Backlash ---
G0 X38.207 Y76.849 F1200
G1 X37.281 Y81.071 Z0 F1500
G1 X36.823 Y83.173 Z0 F1500
; --- FIX Y Backlash ---
G0 X36.823 Y82.373 F1200
G1 X36.815 Y80.97 Z0 F1500
G1 X36.794 Y76.587 Z0 F1500
G1 X36.787 Y73.042 Z0 F1500
; --- FIX X Backlash ---
G0 X37.587 Y73.042 F1200
; --- FIX Y Backlash ---
G0 X37.587 Y73.842 F1200
G1 X38.311 Y73.928 Z0 F1500
G1 X39.946 Y74.19 Z0 F1500
G1 X41.596 Y74.519 Z0 F1500
G1 X43.27 Y74.912 Z0 F1500
G1 X44.941 Y75.361 Z0 F1500
G1 X46.649 Y75.875 Z0 F1500
G1 X48.335 Y76.433 Z0 F1500
G1 X51.271 Y77.488 Z0 F1500
; --- FIX X Backlash ---
G0 X50.471 Y77.488 F1200
; --- FIX Y Backlash ---
G0 X50.471 Y76.688 F1200
G1 X49.255 Y65.89 Z0 F1500
G1 X48.143 Y56.422 Z0 F1500
G1 X46.992 Y47.013 Z0 F1500
G1 X45.849 Y38.051 Z0 F1500
; --- FIX X Backlash ---
G0 X46.649 Y38.051 F1200
G1 X48.209 Y36.432 Z0 F1500
G1 X50.076 Y34.598 Z0 F1500
G0 Z4.8 F800
G0 X53.401 Y30.522 Z4.8 F1500
G1 Z0 F1500
; --- FIX Y Backlash ---
G0 X53.401 Y31.322 F1200
G1 X54.661 Y33.886 Z0 F1500
G1 X55.898 Y36.494 Z0 F1500
G1 X57.11 Y39.143 Z0 F1500
G1 X58.296 Y41.826 Z0 F1500
; --- FIX X Backlash ---
G0 X57.496 Y41.826 F1200
G1 X56.697 Y43.988 Z0 F1500
G1 X55.925 Y46.151 Z0 F1500
G1 X55.178 Y48.314 Z0 F1500
G1 X54.453 Y50.478 Z0 F1500
; --- FIX Y Backlash ---
G0 X54.453 Y49.678 F1200
G1 X52.624 Y47.733 Z0 F1500
G1 X50.775 Y45.867 Z0 F1500
; --- FIX X Backlash ---
G0 X51.575 Y45.867 F1200
; --- FIX Y Backlash ---
G0 X51.575 Y46.667 F1200
G1 X52.64 Y62.8 Z0 F1500
G1 X53.666 Y78.973 Z0 F1500
; --- FIX X Backlash ---
G0 X52.866 Y78.973 F1200
G1 X51.672 Y82.37 Z0 F1500
G1 X50.537 Y85.747 Z0 F1500
; --- FIX Y Backlash ---
G0 X50.537 Y84.947 F1200
G1 X49.083 Y83.824 Z0 F1500
G1 X47.618 Y82.739 Z0 F1500
G1 X46.147 Y81.696 Z0 F1500
G1 X44.67 Y80.7 Z0 F1500
G1 X43.191 Y79.753 Z0 F1500
G1 X41.712 Y78.859 Z0 F1500
G1 X40.235 Y78.023 Z0 F1500
G1 X38.763 Y77.247 Z0 F1500
; --- FIX Y Backlash ---
G0 X38.763 Y78.047 F1200
G1 X38.063 Y81.242 Z0 F1500
G1 X37.384 Y84.357 Z0 F1500
G1 X36.721 Y87.394 Z0 F1500
G1 X36.065 Y90.35 Z0 F1500
; --- FIX Y Backlash ---
G0 X36.065 Y89.55 F1200
G1 X36.041 Y85.293 Z0 F1500
G1 X36.015 Y80.974 Z0 F1500
G1 X35.994 Y76.591 Z0 F1500
G1 X35.985 Y72.14 Z0 F1500

; Color picking sequence
G1 Z10 F1000;         ; Raise brush
G0 X86 Y5 F1200;    ; Rapid move to color 1
G1 Z10 F1000;         ; Raise brush
G0 X86 Y5 F1200;    ; Rapid move to color 1
G1 Z0 F1000;         ; Lower into color
G1 X85.102 Y7.295 Z0 S800 F1200
G1 X85.026 Y7.642 Z0 F1200
G1 X85 Y8 Z0 F1200
G1 X85.026 Y8.358 Z0 F1200
G1 X85.102 Y8.705 Z0 F1200
G1 X85.225 Y9.041 Z0 F1200
G1 X85.393 Y9.362 Z0 F1200
G1 X85.603 Y9.668 Z0 F1200
G1 X85.854 Y9.957 Z0 F1200
G1 X86.142 Y10.226 Z0 F1200
G1 X86.464 Y10.475 Z0 F1200
G1 X86.82 Y10.701 Z0 F1200
G1 X87.204 Y10.902 Z0 F1200
G1 X87.617 Y11.078 Z0 F1200
G1 X88.054 Y11.225 Z0 F1200
G1 X88.513 Y11.343 Z0 F1200
G1 X88.992 Y11.429 Z0 F1200
G1 X89.489 Y11.482 Z0 F1200
G1 X90 Y11.5 Z0 F1200
G1 X90.511 Y11.482 Z0 F1200
G1 X91.008 Y11.429 Z0 F1200
G1 X91.487 Y11.343 Z0 F1200
G1 X91.946 Y11.225 Z0 F1200
G1 X92.383 Y11.078 Z0 F1200
G1 X92.796 Y10.902 Z0 F1200
G1 X93.18 Y10.701 Z0 F1200
G1 X93.536 Y10.475 Z0 F1200
G1 X93.858 Y10.226 Z0 F1200
G1 X94.146 Y9.957 Z0 F1200
G1 X94.397 Y9.668 Z0 F1200
G1 X94.607 Y9.362 Z0 F1200
G1 X94.775 Y9.041 Z0 F1200
G1 X94.898 Y8.705 Z0 F1200
G1 X94.974 Y8.358 Z0 F1200
G1 X95 Y8 Z0 F1200
G1 X94.974 Y7.642 Z0 F1200
G1 X94.898 Y7.295 Z0 F1200
G1 X94.775 Y6.959 Z0 F1200
G1 X94.607 Y6.638 Z0 F1200
G1 X94.397 Y6.332 Z0 F1200
G1 X94.146 Y6.043 Z0 F1200
G1 X93.858 Y5.774 Z0 F1200
G1 X93.536 Y5.525 Z0 F1200
G1 X93.18 Y5.299 Z0 F1200
G1 X92.796 Y5.098 Z0 F1200
G1 X92.383 Y4.922 Z0 F1200
G1 X91.946 Y4.775 Z0 F1200
G1 X91.487 Y4.657 Z0 F1200
G1 X91.008 Y4.571 Z0 F1200
G1 X90.511 Y4.518 Z0 F1200
G1 X90 Y4.5 Z0 F1200
G1 X89.489 Y4.518 Z0 F1200
G1 X88.992 Y4.571 Z0 F1200
G1 X88.513 Y4.657 Z0 F1200
G1 X88.054 Y4.775 Z0 F1200
G1 X87.617 Y4.922 Z0 F1200
G1 X87.204 Y5.098 Z0 F1200
G1 X86.82 Y5.299 Z0 F1200
G1 X86.464 Y5.525 Z0 F1200
G1 X86.142 Y5.774 Z0 F1200
G1 X85.854 Y6.043 Z0 F1200
G1 X85.603 Y6.332 Z0 F1200
G1 X85.393 Y6.638 Z0 F1200
G1 X85.225 Y6.959 Z0 F1200
G1 Z7 F800;         ; Raise from color
G1 X79 Y8 Z1 F1200;     ; Movement in paint
G1 X69 Y18 Z8 F500;     ; Move in paint
G1 F1200;           ; Set feed rate
G0 Z3.5 F1000 ; Safety Lift
G0 X35.985 Y72.14 F1200 ; Return
G1 Z0 F1000 ; Restore Z
; --- FIX X Backlash ---
G0 X36.785 Y72.14 F1200
; --- FIX Y Backlash ---
G0 X36.785 Y72.94 F1200
G1 X38.424 Y73.136 Z0 F1500
G1 X40.085 Y73.402 Z0 F1500
G1 X41.765 Y73.736 Z0 F1500
G1 X43.459 Y74.134 Z0 F1500
G1 X45.167 Y74.593 Z0 F1500
G1 X46.883 Y75.11 Z0 F1500
G1 X48.606 Y75.68 Z0 F1500
G1 X50.332 Y76.301 Z0 F1500
; --- FIX X Backlash ---
G0 X49.532 Y76.301 F1200
; --- FIX Y Backlash ---
G0 X49.532 Y75.501 F1200
G1 X48.46 Y65.982 Z0 F1500
G1 X47.349 Y56.517 Z0 F1500
G1 X46.198 Y47.112 Z0 F1500
G1 X45.008 Y37.771 Z0 F1500
; --- FIX X Backlash ---
G0 X45.808 Y37.771 F1200
G1 X47.638 Y35.872 Z0 F1500
G1 X49.515 Y34.027 Z0 F1500
G1 X51.437 Y32.242 Z0 F1500
G1 X53.401 Y30.522 Z0 F1500
G0 Z4.8 F800
; --- FIX X Backlash ---
G0 X52.601 Y30.522 F1200
; --- FIX Y Backlash ---
G0 X52.601 Y31.322 F1200
G0 X35.537 Y41.117 Z4.8 F1500
G1 Z0 F1500
; --- FIX X Backlash ---
G0 X36.337 Y41.117 F1200
G1 X36.7 Y41.291 Z0 F1500
; --- FIX X Backlash ---
G0 X35.9 Y41.291 F1200
G1 X35.289 Y41.399 Z0 F1500
; --- FIX Y Backlash ---
G0 X35.289 Y40.599 F1200
G1 X35.242 Y40.19 Z0 F1500
; --- FIX X Backlash ---
G0 X36.042 Y40.19 F1200
; --- FIX Y Backlash ---
G0 X36.042 Y40.99 F1200
G1 X36.337 Y41.117 Z0 F1500
G0 Z4.8 F800
G0 X37.913 Y41.89 Z4.8 F1500
G1 Z0 F1500
; --- FIX X Backlash ---
G0 X37.113 Y41.89 F1200
G1 X34.591 Y42.334 Z0 F1500
; --- FIX Y Backlash ---
G0 X34.591 Y41.534 F1200
G1 X34.292 Y38.922 Z0 F1500
; --- FIX X Backlash ---
G0 X35.092 Y38.922 F1200
; --- FIX Y Backlash ---
G0 X35.092 Y39.722 F1200
G1 X35.325 Y39.81 Z0 F1500
G1 X36.666 Y40.387 Z0 F1500
G1 X38.023 Y41.041 Z0 F1500
G1 X39.276 Y41.706 Z0 F1500
; --- FIX X Backlash ---
G0 X38.476 Y41.706 F1200
G1 X38.048 Y41.754 Z0 F1500
G1 X37.113 Y41.89 Z0 F1500
G0 Z4.8 F800
; --- FIX X Backlash ---
G0 X37.913 Y41.89 F1200
G0 X38.144 Y50.895 Z4.8 F1500
G1 Z0 F1500
; --- FIX Y Backlash ---
G0 X38.144 Y50.095 F1200
G1 X38.38 Y50.027 Z0 F1500
G1 X38.923 Y49.895 Z0 F1500
; --- FIX X Backlash ---
G0 X38.123 Y49.895 F1200
; --- FIX Y Backlash ---
G0 X38.123 Y50.695 F1200
G1 X38.062 Y51.127 Z0 F1500
; --- FIX Y Backlash ---
G0 X38.062 Y50.327 F1200
G1 X37.344 Y50.095 Z0 F1500
G0 Z4.8 F800
G0 X35.345 Y49.835 Z4.8 F1500
G1 Z0 F1500
; --- FIX X Backlash ---
G0 X36.145 Y49.835 F1200
G1 X38.173 Y49.254 Z0 F1500
G1 X39.881 Y48.839 Z0 F1500
; --- FIX X Backlash ---
G0 X39.081 Y48.839 F1200
; --- FIX Y Backlash ---
G0 X39.081 Y49.639 F1200
G1 X39.016 Y50.097 Z0 F1500
G1 X38.718 Y52.196 Z0 F1500
; --- FIX Y Backlash ---
G0 X38.718 Y51.396 F1200
G1 X38.271 Y51.235 Z0 F1500
G1 X36.904 Y50.793 Z0 F1500
G1 X35.55 Y50.415 Z0 F1500
G1 X34.784 Y50.241 Z0 F1500
G1 X33.349 Y37.721 Z0 F1500
; --- FIX X Backlash ---
G0 X34.149 Y37.721 F1200
G1 X34.293 Y37.766 Z0 F1500
; --- FIX Y Backlash ---
G0 X34.293 Y38.566 F1200
G1 X35.63 Y39.07 Z0 F1500
G1 X37.005 Y39.662 Z0 F1500
G1 X38.382 Y40.325 Z0 F1500
G1 X39.784 Y41.069 Z0 F1500
G1 X41.226 Y41.902 Z0 F1500
G1 X41.887 Y42.315 Z0 F1500
; --- FIX X Backlash ---
G0 X41.087 Y42.315 F1200
G1 X40.001 Y42.363 Z0 F1500
G1 X39.07 Y42.443 Z0 F1500
G1 X38.15 Y42.548 Z0 F1500
G1 X37.239 Y42.68 Z0 F1500
G1 X34.697 Y43.128 Z0 F1500
; --- FIX X Backlash ---
G0 X35.497 Y43.128 F1200
G1 X37.7 Y45.042 Z0 F1500
G1 X38.623 Y45.878 Z0 F1500
G1 X39.549 Y46.757 Z0 F1500
G1 X40.197 Y47.402 Z0 F1500
; --- FIX X Backlash ---
G0 X39.397 Y47.402 F1200
G1 X39.21 Y48.729 Z0 F1500
; --- FIX Y Backlash ---
G0 X39.21 Y47.929 F1200
G1 X37.574 Y46.322 Z0 F1500
G1 X34.724 Y43.654 Z0 F1500
; --- FIX X Backlash ---
G0 X35.524 Y43.654 F1200
; --- FIX Y Backlash ---
G0 X35.524 Y44.454 F1200
G1 X35.874 Y48.134 Z0 F1500
G1 X36.145 Y50.635 Z0 F1500
G0 Z4.8 F800
; --- FIX Y Backlash ---
G0 X36.145 Y49.835 F1200
G0 X36.838 Y48.804 Z4.8 F1500
G1 Z0 F1500
G1 X37.969 Y48.48 Z0 F1500
G1 X39.14 Y48.196 Z0 F1500
; --- FIX X Backlash ---
G0 X38.34 Y48.196 F1200
G1 X37.02 Y46.899 Z0 F1500
G1 X35.721 Y45.682 Z0 F1500
; --- FIX X Backlash ---
G0 X36.521 Y45.682 F1200
; --- FIX Y Backlash ---
G0 X36.521 Y46.482 F1200
G1 X36.669 Y48.053 Z0 F1500
G1 X36.838 Y49.604 Z0 F1500
G0 Z4.8 F800
G0 X37.473 Y52.359 Z4.8 F1500
G1 Z0 F1500
; --- FIX X Backlash ---
G0 X36.673 Y52.359 F1200
; --- FIX Y Backlash ---
G0 X36.673 Y51.559 F1200
G1 X35.353 Y51.191 Z0 F1500
G1 X34.054 Y50.894 Z0 F1500
G1 X32.413 Y36.58 Z0 F1500
; --- FIX X Backlash ---
G0 X33.213 Y36.58 F1200
; --- FIX Y Backlash ---
G0 X33.213 Y37.38 F1200
G1 X34.558 Y37.812 Z0 F1500
G1 X35.932 Y38.329 Z0 F1500
G1 X37.329 Y38.931 Z0 F1500
G1 X38.747 Y39.613 Z0 F1500
G1 X40.18 Y40.374 Z0 F1500
G1 X41.626 Y41.209 Z0 F1500
G1 X43.08 Y42.118 Z0 F1500
G1 X44.538 Y43.096 Z0 F1500
; --- FIX X Backlash ---
G0 X43.738 Y43.096 F1200
G1 X41.883 Y43.082 Z0 F1500
G1 X40.053 Y43.162 Z0 F1500
G1 X39.149 Y43.239 Z0 F1500
G1 X38.253 Y43.341 Z0 F1500
G1 X37.366 Y43.47 Z0 F1500
G1 X36.488 Y43.625 Z0 F1500
; --- FIX X Backlash ---
G0 X37.288 Y43.625 F1200
G1 X38.225 Y44.438 Z0 F1500
G1 X39.167 Y45.292 Z0 F1500
G1 X40.108 Y46.185 Z0 F1500
G1 X41.045 Y47.117 Z0 F1500
; --- FIX X Backlash ---
G0 X40.245 Y47.117 F1200
G1 X39.808 Y50.209 Z0 F1500
G1 X39.372 Y53.282 Z0 F1500
; --- FIX Y Backlash ---
G0 X39.372 Y52.482 F1200
G1 X38.013 Y51.992 Z0 F1500
G1 X36.673 Y51.559 Z0 F1500
G0 Z4.8 F800
; --- FIX Y Backlash ---
G0 X36.673 Y52.359 F1200
G0 X35.849 Y58.483 Z4.8 F1500
G1 Z0 F1500
; --- FIX X Backlash ---
G0 X36.649 Y58.483 F1200
G1 X36.792 Y58.568 Z0 F1500
; --- FIX X Backlash ---
G0 X35.992 Y58.568 F1200
G1 X35.81 Y58.571 Z0 F1500
; --- FIX Y Backlash ---
G0 X35.81 Y57.771 F1200
G1 X35.796 Y57.654 Z0 F1500
; --- FIX X Backlash ---
G0 X36.596 Y57.654 F1200
G1 X36.649 Y57.683 Z0 F1500
G0 Z4.8 F800
; --- FIX Y Backlash ---
G0 X36.649 Y58.483 F1200
G0 X39.443 Y59.324 Z4.8 F1500
G1 Z0 F1500
; --- FIX X Backlash ---
G0 X38.643 Y59.324 F1200
G1 X35.101 Y59.383 Z0 F1500
; --- FIX Y Backlash ---
G0 X35.101 Y58.583 F1200
G1 X34.819 Y56.209 Z0 F1500
; --- FIX X Backlash ---
G0 X35.619 Y56.209 F1200
G1 X35.691 Y56.245 Z0 F1500
; --- FIX Y Backlash ---
G0 X35.691 Y57.045 F1200
G1 X37.046 Y57.789 Z0 F1500
G1 X38.43 Y58.617 Z0 F1500
G1 X39.53 Y59.327 Z0 F1500
; --- FIX X Backlash ---
G0 X38.73 Y59.327 F1200
G1 X38.643 Y59.324 Z0 F1500
G0 Z4.8 F800

; Color picking sequence
G1 Z10 F1000;         ; Raise brush
G0 X86 Y5 F1200;    ; Rapid move to color 1
G1 Z10 F1000;         ; Raise brush
G0 X86 Y5 F1200;    ; Rapid move to color 1
G1 Z0 F1000;         ; Lower into color
G1 X85.102 Y7.295 Z0 S800 F1200
G1 X85.026 Y7.642 Z0 F1200
G1 X85 Y8 Z0 F1200
G1 X85.026 Y8.358 Z0 F1200
G1 X85.102 Y8.705 Z0 F1200
G1 X85.225 Y9.041 Z0 F1200
G1 X85.393 Y9.362 Z0 F1200
G1 X85.603 Y9.668 Z0 F1200
G1 X85.854 Y9.957 Z0 F1200
G1 X86.142 Y10.226 Z0 F1200
G1 X86.464 Y10.475 Z0 F1200
G1 X86.82 Y10.701 Z0 F1200
G1 X87.204 Y10.902 Z0 F1200
G1 X87.617 Y11.078 Z0 F1200
G1 X88.054 Y11.225 Z0 F1200
G1 X88.513 Y11.343 Z0 F1200
G1 X88.992 Y11.429 Z0 F1200
G1 X89.489 Y11.482 Z0 F1200
G1 X90 Y11.5 Z0 F1200
G1 X90.511 Y11.482 Z0 F1200
G1 X91.008 Y11.429 Z0 F1200
G1 X91.487 Y11.343 Z0 F1200
G1 X91.946 Y11.225 Z0 F1200
G1 X92.383 Y11.078 Z0 F1200
G1 X92.796 Y10.902 Z0 F1200
G1 X93.18 Y10.701 Z0 F1200
G1 X93.536 Y10.475 Z0 F1200
G1 X93.858 Y10.226 Z0 F1200
G1 X94.146 Y9.957 Z0 F1200
G1 X94.397 Y9.668 Z0 F1200
G1 X94.607 Y9.362 Z0 F1200
G1 X94.775 Y9.041 Z0 F1200
G1 X94.898 Y8.705 Z0 F1200
G1 X94.974 Y8.358 Z0 F1200
G1 X95 Y8 Z0 F1200
G1 X94.974 Y7.642 Z0 F1200
G1 X94.898 Y7.295 Z0 F1200
G1 X94.775 Y6.959 Z0 F1200
G1 X94.607 Y6.638 Z0 F1200
G1 X94.397 Y6.332 Z0 F1200
G1 X94.146 Y6.043 Z0 F1200
G1 X93.858 Y5.774 Z0 F1200
G1 X93.536 Y5.525 Z0 F1200
G1 X93.18 Y5.299 Z0 F1200
G1 X92.796 Y5.098 Z0 F1200
G1 X92.383 Y4.922 Z0 F1200
G1 X91.946 Y4.775 Z0 F1200
G1 X91.487 Y4.657 Z0 F1200
G1 X91.008 Y4.571 Z0 F1200
G1 X90.511 Y4.518 Z0 F1200
G1 X90 Y4.5 Z0 F1200
G1 X89.489 Y4.518 Z0 F1200
G1 X88.992 Y4.571 Z0 F1200
G1 X88.513 Y4.657 Z0 F1200
G1 X88.054 Y4.775 Z0 F1200
G1 X87.617 Y4.922 Z0 F1200
G1 X87.204 Y5.098 Z0 F1200
G1 X86.82 Y5.299 Z0 F1200
G1 X86.464 Y5.525 Z0 F1200
G1 X86.142 Y5.774 Z0 F1200
G1 X85.854 Y6.043 Z0 F1200
G1 X85.603 Y6.332 Z0 F1200
G1 X85.393 Y6.638 Z0 F1200
G1 X85.225 Y6.959 Z0 F1200
G1 Z7 F800;         ; Raise from color
G1 X79 Y8 Z1 F1200;     ; Movement in paint
G1 X69 Y18 Z8 F500;     ; Move in paint
G1 F1200;           ; Set feed rate
G0 Z3.5 F1000 ; Safety Lift
G0 X38.643 Y59.324 F1200 ; Return to pos
G0 X35.388 Y61.794 Z4.8 F1500
G1 Z0 F1500
; --- FIX X Backlash ---
G0 X36.188 Y61.794 F1200
G1 X36.429 Y62.041 Z0 F1500
; --- FIX X Backlash ---
G0 X35.629 Y62.041 F1200
G1 X35.428 Y62.132 Z0 F1500
; --- FIX Y Backlash ---
G0 X35.428 Y61.332 F1200
G1 X35.388 Y60.994 Z0 F1500
G0 Z4.8 F800
G0 X34.933 Y59.387 Z4.8 F1500
G1 Z0 F1500
; --- FIX X Backlash ---
G0 X35.733 Y59.387 F1200
; --- FIX Y Backlash ---
G0 X35.733 Y60.187 F1200
G1 X37.916 Y62.415 Z0 F1500
G1 X38.799 Y63.354 Z0 F1500
G1 X39.691 Y64.339 Z0 F1500
G1 X40.29 Y65.02 Z0 F1500
; --- FIX X Backlash ---
G0 X39.49 Y65.02 F1200
G1 X39.233 Y65.938 Z0 F1500
; --- FIX Y Backlash ---
G0 X39.233 Y65.138 F1200
G1 X37.917 Y63.639 Z0 F1500
G1 X36.262 Y61.831 Z0 F1500
; --- FIX Y Backlash ---
G0 X36.262 Y62.631 F1200
G1 X35.202 Y63.116 Z0 F1500
; --- FIX X Backlash ---
G0 X36.002 Y63.116 F1200
G1 X36.251 Y65.229 Z0 F1500
G1 X36.5 Y67.571 Z0 F1500
; --- FIX Y Backlash ---
G0 X36.5 Y66.771 F1200
G1 X38.381 Y66.522 Z0 F1500
G1 X39.686 Y66.376 Z0 F1500
; --- FIX Y Backlash ---
G0 X39.686 Y67.176 F1200
G1 X39.654 Y67.291 Z0 F1500
; --- FIX X Backlash ---
G0 X38.854 Y67.291 F1200
G1 X38.358 Y69.036 Z0 F1500
; --- FIX Y Backlash ---
G0 X38.358 Y68.236 F1200
G1 X38.11 Y68.118 Z0 F1500
G1 X37.001 Y67.635 Z0 F1500
G1 X35.901 Y67.197 Z0 F1500
G1 X35.293 Y66.978 Z0 F1500
G1 X34.517 Y60.448 Z0 F1500
G1 X33.849 Y54.838 Z0 F1500
; --- FIX X Backlash ---
G0 X34.649 Y54.838 F1200
G1 X34.714 Y54.866 Z0 F1500
; --- FIX Y Backlash ---
G0 X34.714 Y55.666 F1200
G1 X36.069 Y56.34 Z0 F1500
G1 X37.443 Y57.094 Z0 F1500
G1 X38.845 Y57.932 Z0 F1500
G1 X40.266 Y58.849 Z0 F1500
G1 X41.69 Y59.833 Z0 F1500
G1 X42.281 Y60.266 Z0 F1500
; --- FIX X Backlash ---
G0 X41.481 Y60.266 F1200
; --- FIX Y Backlash ---
G0 X41.481 Y59.466 F1200
G1 X40.533 Y59.389 Z0 F1500
G1 X38.637 Y59.324 Z0 F1500
; --- FIX Y Backlash ---
G0 X38.637 Y60.124 F1200
G1 X34.933 Y60.187 Z0 F1500
G0 Z4.8 F800
; --- FIX X Backlash ---
G0 X35.733 Y60.187 F1200
G0 X36.865 Y63.601 Z4.8 F1500
G1 Z0 F1500
G1 X37.046 Y65.145 Z0 F1500
G1 X37.208 Y66.67 Z0 F1500
; --- FIX Y Backlash ---
G0 X37.208 Y65.87 F1200
G1 X38.283 Y65.728 Z0 F1500
G1 X39.378 Y65.605 Z0 F1500
; --- FIX X Backlash ---
G0 X38.578 Y65.605 F1200
G1 X37.322 Y64.173 Z0 F1500
G1 X36.065 Y62.801 Z0 F1500
G0 Z4.8 F800
G0 X33.723 Y60.542 Z4.8 F1500
G1 Z0 F1500
G1 X32.889 Y53.54 Z0 F1500
; --- FIX X Backlash ---
G0 X33.689 Y53.54 F1200
; --- FIX Y Backlash ---
G0 X33.689 Y54.34 F1200
G1 X35.052 Y54.941 Z0 F1500
G1 X36.438 Y55.63 Z0 F1500
G1 X37.845 Y56.402 Z0 F1500
G1 X39.269 Y57.254 Z0 F1500
G1 X40.707 Y58.182 Z0 F1500
G1 X42.154 Y59.181 Z0 F1500
G1 X43.609 Y60.248 Z0 F1500
G1 X45.067 Y61.378 Z0 F1500
; --- FIX X Backlash ---
G0 X44.267 Y61.378 F1200
; --- FIX Y Backlash ---
G0 X44.267 Y60.578 F1200
G1 X42.368 Y60.341 Z0 F1500
G1 X40.487 Y60.188 Z0 F1500
G1 X38.63 Y60.124 Z0 F1500
G1 X36.805 Y60.155 Z0 F1500
; --- FIX X Backlash ---
G0 X37.605 Y60.155 F1200
; --- FIX Y Backlash ---
G0 X37.605 Y60.955 F1200
G1 X38.499 Y61.867 Z0 F1500
G1 X39.392 Y62.817 Z0 F1500
G1 X40.284 Y63.801 Z0 F1500
G1 X41.177 Y64.818 Z0 F1500
; --- FIX X Backlash ---
G0 X40.377 Y64.818 F1200
G1 X39.623 Y67.51 Z0 F1500
G1 X38.869 Y70.163 Z0 F1500
; --- FIX Y Backlash ---
G0 X38.869 Y69.363 F1200
G1 X37.779 Y68.847 Z0 F1500
G1 X36.693 Y68.373 Z0 F1500
G1 X35.617 Y67.945 Z0 F1500
G1 X34.556 Y67.563 Z0 F1500
G1 X33.723 Y60.542 Z0 F1500
G0 Z4.8 F800
G0 X23.646 Y46.169 Z4.8 F1500
G1 Z0 F1500
G1 X23.518 Y46.056 Z0 F1500
G1 X23.212 Y45.803 Z0 F1500
; --- FIX X Backlash ---
G0 X24.012 Y45.803 F1200
G1 X24.077 Y45.696 Z0 F1500
; --- FIX Y Backlash ---
G0 X24.077 Y46.496 F1200
G1 X24.446 Y46.969 Z0 F1500
G0 Z4.8 F800
G0 X25.675 Y49.23 Z4.8 F1500
G1 Z0 F1500
; --- FIX X Backlash ---
G0 X24.875 Y49.23 F1200
; --- FIX Y Backlash ---
G0 X24.875 Y48.43 F1200
G1 X24.398 Y47.952 Z0 F1500
G1 X23.927 Y47.499 Z0 F1500
G1 X23.46 Y47.07 Z0 F1500
G1 X22.999 Y46.665 Z0 F1500
G1 X22.179 Y45.984 Z0 F1500
; --- FIX X Backlash ---
G0 X22.979 Y45.984 F1200
G1 X23.093 Y45.772 Z0 F1500
G1 X23.539 Y45.042 Z0 F1500
G1 X24.018 Y44.348 Z0 F1500
; --- FIX Y Backlash ---
G0 X24.018 Y45.148 F1200
G1 X24.638 Y45.915 Z0 F1500
G1 X25.416 Y46.911 Z0 F1500
G1 X26.209 Y47.965 Z0 F1500
G1 X27.036 Y49.1 Z0 F1500
G1 X27.401 Y49.616 Z0 F1500
G1 X27.593 Y51.319 Z0 F1500
; --- FIX X Backlash ---
G0 X26.793 Y51.319 F1200
; --- FIX Y Backlash ---
G0 X26.793 Y50.519 F1200
G1 X26.345 Y50.008 Z0 F1500
G1 X25.848 Y49.458 Z0 F1500
G1 X25.359 Y48.932 Z0 F1500
G1 X24.875 Y48.43 Z0 F1500
G0 Z4.8 F800
G0 X21.598 Y45.374 Z4.8 F1500
G1 Z0 F1500
; --- FIX X Backlash ---
G0 X22.398 Y45.374 F1200
G1 X22.87 Y44.603 Z0 F1500
G1 X23.371 Y43.878 Z0 F1500
G1 X23.909 Y43.184 Z0 F1500
G1 X24 Y43.079 Z0 F1500
; --- FIX Y Backlash ---
G0 X24 Y43.879 F1200
G1 X24.501 Y44.474 Z0 F1500
G1 X25.282 Y45.439 Z0 F1500
G1 X26.052 Y46.427 Z0 F1500
G1 X26.859 Y47.498 Z0 F1500
G1 X27.671 Y48.613 Z0 F1500
G1 X28.173 Y49.322 Z0 F1500
G1 X28.688 Y53.892 Z0 F1500
; --- FIX X Backlash ---
G0 X27.888 Y53.892 F1200
; --- FIX Y Backlash ---
G0 X27.888 Y53.092 F1200
G1 X27.775 Y52.948 Z0 F1500
G1 X27.254 Y52.306 Z0 F1500
G1 X26.744 Y51.694 Z0 F1500
G1 X26.242 Y51.105 Z0 F1500
G1 X25.747 Y50.539 Z0 F1500
G1 X25.258 Y49.998 Z0 F1500
G1 X24.778 Y49.483 Z0 F1500
G1 X24.304 Y48.991 Z0 F1500
G1 X23.838 Y48.524 Z0 F1500
G1 X23.379 Y48.082 Z0 F1500
G1 X22.926 Y47.665 Z0 F1500
G1 X22.479 Y47.274 Z0 F1500
G1 X21.163 Y46.181 Z0 F1500
; --- FIX X Backlash ---
G0 X21.963 Y46.181 F1200
G1 X22.398 Y45.374 Z0 F1500
G0 Z4.8 F800
G0 X24.369 Y42.275 Z4.8 F1500
G1 Z0 F1500
; --- FIX Y Backlash ---
G0 X24.369 Y43.075 F1200
G1 X25.123 Y43.97 Z0 F1500
G1 X25.886 Y44.913 Z0 F1500
G1 X26.682 Y45.933 Z0 F1500
G1 X27.51 Y47.033 Z0 F1500
G1 X28.325 Y48.151 Z0 F1500
G1 X28.944 Y49.028 Z0 F1500
G1 X29.804 Y56.654 Z0 F1500
; --- FIX X Backlash ---
G0 X29.004 Y56.654 F1200
; --- FIX Y Backlash ---
G0 X29.004 Y55.854 F1200
G1 X28.188 Y54.77 Z0 F1500
G1 X27.149 Y53.447 Z0 F1500
G1 X26.636 Y52.814 Z0 F1500
G1 X26.133 Y52.209 Z0 F1500
G1 X25.637 Y51.628 Z0 F1500
G1 X25.149 Y51.071 Z0 F1500
G1 X24.668 Y50.539 Z0 F1500
G1 X24.197 Y50.033 Z0 F1500
G1 X23.733 Y49.551 Z0 F1500
G1 X23.277 Y49.095 Z0 F1500
G1 X22.83 Y48.665 Z0 F1500
G1 X22.391 Y48.26 Z0 F1500
G1 X21.96 Y47.883 Z0 F1500
G1 X20.173 Y46.399 Z0 F1500
; --- FIX X Backlash ---
G0 X20.973 Y46.399 F1200
G1 X21.237 Y45.84 Z0 F1500
G1 X21.703 Y44.978 Z0 F1500
G1 X22.199 Y44.167 Z0 F1500
G1 X22.727 Y43.403 Z0 F1500
G1 X23.288 Y42.679 Z0 F1500
G1 X23.874 Y42.006 Z0 F1500
G1 X24.009 Y41.867 Z0 F1500
; --- FIX Y Backlash ---
G0 X24.009 Y42.667 F1200
G1 X24.369 Y43.075 Z0 F1500
G0 Z4.8 F800
; --- FIX X Backlash ---
G0 X23.569 Y43.075 F1200
G0 X20.336 Y75.868 Z4.8 F1500
G1 Z0 F1500
G1 X20.185 Y75.865 Z0 F1500
; --- FIX Y Backlash ---
G0 X20.185 Y75.065 F1200
G1 X20.201 Y74.9 Z0 F1500
; --- FIX X Backlash ---
G0 X21.001 Y74.9 F1200
; --- FIX Y Backlash ---
G0 X21.001 Y75.7 F1200
G1 X21.136 Y75.868 Z0 F1500
G0 Z4.8 F800
G0 X21.86 Y76.734 Z4.8 F1500
G1 Z0 F1500
; --- FIX X Backlash ---
G0 X21.06 Y76.734 F1200
; --- FIX Y Backlash ---
G0 X21.06 Y75.934 F1200
G1 X20.326 Y75.868 Z0 F1500
G1 X19.597 Y75.852 Z0 F1500
G1 X19.295 Y75.868 Z0 F1500
G1 X19.338 Y75.48 Z0 F1500
; --- FIX X Backlash ---
G0 X20.138 Y75.48 F1200
G1 X20.286 Y74.035 Z0 F1500
G1 X20.391 Y72.919 Z0 F1500
; --- FIX Y Backlash ---
G0 X20.391 Y73.719 F1200
G1 X20.626 Y73.99 Z0 F1500
G1 X21.033 Y74.473 Z0 F1500
G1 X21.435 Y74.961 Z0 F1500
G1 X21.884 Y75.522 Z0 F1500
G1 X22.986 Y76.926 Z0 F1500
; --- FIX X Backlash ---
G0 X22.186 Y76.926 F1200
; --- FIX Y Backlash ---
G0 X22.186 Y76.126 F1200
G1 X21.799 Y76.045 Z0 F1500
G1 X21.06 Y75.934 Z0 F1500
G0 Z4.8 F800

; Color picking sequence
G1 Z10 F1000;         ; Raise brush
G0 X86 Y5 F1200;    ; Rapid move to color 1
G1 Z10 F1000;         ; Raise brush
G0 X86 Y5 F1200;    ; Rapid move to color 1
G1 Z0 F1000;         ; Lower into color
G1 X85.102 Y7.295 Z0 S800 F1200
G1 X85.026 Y7.642 Z0 F1200
G1 X85 Y8 Z0 F1200
G1 X85.026 Y8.358 Z0 F1200
G1 X85.102 Y8.705 Z0 F1200
G1 X85.225 Y9.041 Z0 F1200
G1 X85.393 Y9.362 Z0 F1200
G1 X85.603 Y9.668 Z0 F1200
G1 X85.854 Y9.957 Z0 F1200
G1 X86.142 Y10.226 Z0 F1200
G1 X86.464 Y10.475 Z0 F1200
G1 X86.82 Y10.701 Z0 F1200
G1 X87.204 Y10.902 Z0 F1200
G1 X87.617 Y11.078 Z0 F1200
G1 X88.054 Y11.225 Z0 F1200
G1 X88.513 Y11.343 Z0 F1200
G1 X88.992 Y11.429 Z0 F1200
G1 X89.489 Y11.482 Z0 F1200
G1 X90 Y11.5 Z0 F1200
G1 X90.511 Y11.482 Z0 F1200
G1 X91.008 Y11.429 Z0 F1200
G1 X91.487 Y11.343 Z0 F1200
G1 X91.946 Y11.225 Z0 F1200
G1 X92.383 Y11.078 Z0 F1200
G1 X92.796 Y10.902 Z0 F1200
G1 X93.18 Y10.701 Z0 F1200
G1 X93.536 Y10.475 Z0 F1200
G1 X93.858 Y10.226 Z0 F1200
G1 X94.146 Y9.957 Z0 F1200
G1 X94.397 Y9.668 Z0 F1200
G1 X94.607 Y9.362 Z0 F1200
G1 X94.775 Y9.041 Z0 F1200
G1 X94.898 Y8.705 Z0 F1200
G1 X94.974 Y8.358 Z0 F1200
G1 X95 Y8 Z0 F1200
G1 X94.974 Y7.642 Z0 F1200
G1 X94.898 Y7.295 Z0 F1200
G1 X94.775 Y6.959 Z0 F1200
G1 X94.607 Y6.638 Z0 F1200
G1 X94.397 Y6.332 Z0 F1200
G1 X94.146 Y6.043 Z0 F1200
G1 X93.858 Y5.774 Z0 F1200
G1 X93.536 Y5.525 Z0 F1200
G1 X93.18 Y5.299 Z0 F1200
G1 X92.796 Y5.098 Z0 F1200
G1 X92.383 Y4.922 Z0 F1200
G1 X91.946 Y4.775 Z0 F1200
G1 X91.487 Y4.657 Z0 F1200
G1 X91.008 Y4.571 Z0 F1200
G1 X90.511 Y4.518 Z0 F1200
G1 X90 Y4.5 Z0 F1200
G1 X89.489 Y4.518 Z0 F1200
G1 X88.992 Y4.571 Z0 F1200
G1 X88.513 Y4.657 Z0 F1200
G1 X88.054 Y4.775 Z0 F1200
G1 X87.617 Y4.922 Z0 F1200
G1 X87.204 Y5.098 Z0 F1200
G1 X86.82 Y5.299 Z0 F1200
G1 X86.464 Y5.525 Z0 F1200
G1 X86.142 Y5.774 Z0 F1200
G1 X85.854 Y6.043 Z0 F1200
G1 X85.603 Y6.332 Z0 F1200
G1 X85.393 Y6.638 Z0 F1200
G1 X85.225 Y6.959 Z0 F1200
G1 Z7 F800;         ; Raise from color
G1 X79 Y8 Z1 F1200;     ; Movement in paint
G1 X69 Y18 Z8 F500;     ; Move in paint
G1 F1200;           ; Set feed rate
G0 Z3.5 F1000 ; Safety Lift
G0 X21.06 Y75.934 F1200 ; Return to pos
; --- FIX X Backlash ---
G0 X21.86 Y75.934 F1200
G0 X29.498 Y63.63 Z4.8 F1500
G1 Z0 F1500
G1 X29.764 Y62.643 Z0 F1500
; --- FIX Y Backlash ---
G0 X29.764 Y63.443 F1200
G1 X29.932 Y64.934 Z0 F1500
; --- FIX X Backlash ---
G0 X29.132 Y64.934 F1200
; --- FIX Y Backlash ---
G0 X29.132 Y64.134 F1200
G1 X28.698 Y63.63 Z0 F1500
G0 Z4.8 F800
; --- FIX X Backlash ---
G0 X29.498 Y63.63 F1200
G0 X29.713 Y59.765 Z4.8 F1500
G1 Z0 F1500
G1 X30.089 Y58.382 Z0 F1500
; --- FIX Y Backlash ---
G0 X30.089 Y59.182 F1200
G1 X31.017 Y67.417 Z0 F1500
; --- FIX X Backlash ---
G0 X30.217 Y67.417 F1200
; --- FIX Y Backlash ---
G0 X30.217 Y66.617 F1200
G1 X28.388 Y64.495 Z0 F1500
; --- FIX Y Backlash ---
G0 X28.388 Y65.295 F1200
G1 X26.605 Y71.216 Z0 F1500
G1 X25.677 Y74.264 Z0 F1500
G1 X25.221 Y75.741 Z0 F1500
G1 X24.764 Y77.198 Z0 F1500
G1 X24.384 Y78.396 Z0 F1500
; --- FIX Y Backlash ---
G0 X24.384 Y77.596 F1200
G1 X23.802 Y77.389 Z0 F1500
G1 X23.076 Y77.165 Z0 F1500
G1 X22.362 Y76.979 Z0 F1500
G1 X21.658 Y76.833 Z0 F1500
G1 X20.965 Y76.728 Z0 F1500
G1 X20.282 Y76.667 Z0 F1500
G1 X19.61 Y76.652 Z0 F1500
G1 X18.951 Y76.687 Z0 F1500
; --- FIX Y Backlash ---
G0 X18.951 Y77.487 F1200
G1 X18.391 Y77.563 Z0 F1500
; --- FIX X Backlash ---
G0 X19.191 Y77.563 F1200
; --- FIX Y Backlash ---
G0 X19.191 Y76.763 F1200
G1 X19.342 Y75.395 Z0 F1500
G1 X19.49 Y73.957 Z0 F1500
G1 X19.627 Y72.493 Z0 F1500
G1 X19.754 Y71.033 Z0 F1500
; --- FIX Y Backlash ---
G0 X19.754 Y71.833 F1200
G1 X20.078 Y72.172 Z0 F1500
G1 X20.43 Y72.555 Z0 F1500
G1 X20.832 Y73.005 Z0 F1500
G1 X21.217 Y73.451 Z0 F1500
G1 X21.632 Y73.942 Z0 F1500
G1 X22.059 Y74.461 Z0 F1500
G1 X22.498 Y75.008 Z0 F1500
G1 X24.904 Y78.075 Z0 F1500
; --- FIX Y Backlash ---
G0 X24.904 Y77.275 F1200
G1 X26.306 Y72.291 Z0 F1500
G1 X26.858 Y70.296 Z0 F1500
G1 X27.415 Y68.261 Z0 F1500
G1 X27.978 Y66.189 Z0 F1500
G1 X29.713 Y59.765 Z0 F1500
G0 Z4.8 F800
; --- FIX X Backlash ---
G0 X28.913 Y59.765 F1200
G0 X21.221 Y56.901 Z4.8 F1500
G1 Z0 F1500
; --- FIX X Backlash ---
G0 X22.021 Y56.901 F1200
; --- FIX Y Backlash ---
G0 X22.021 Y57.701 F1200
G1 X22.339 Y60.654 Z0 F1500
G1 X22.656 Y63.627 Z0 F1500
; --- FIX Y Backlash ---
G0 X22.656 Y62.827 F1200
G1 X23.163 Y61.554 Z0 F1500
G1 X23.688 Y60.261 Z0 F1500
; --- FIX X Backlash ---
G0 X22.888 Y60.261 F1200
G1 X22.457 Y59.379 Z0 F1500
G1 X22.035 Y58.521 Z0 F1500
G1 X21.623 Y57.694 Z0 F1500
G1 X21.221 Y56.901 Z0 F1500
G0 Z4.8 F800
G0 X20.355 Y56.323 Z4.8 F1500
G1 Z0 F1500
; --- FIX X Backlash ---
G0 X21.155 Y56.323 F1200
; --- FIX Y Backlash ---
G0 X21.155 Y57.123 F1200
G1 X21.543 Y60.739 Z0 F1500
G1 X21.927 Y64.334 Z0 F1500
G1 X23.168 Y64.504 Z0 F1500
; --- FIX Y Backlash ---
G0 X23.168 Y63.704 F1200
G1 X23.904 Y61.855 Z0 F1500
G1 X24.564 Y60.23 Z0 F1500
; --- FIX X Backlash ---
G0 X23.764 Y60.23 F1200
G1 X23.175 Y59.026 Z0 F1500
G1 X22.752 Y58.167 Z0 F1500
G1 X22.338 Y57.335 Z0 F1500
G1 X21.634 Y55.944 Z0 F1500
; --- FIX Y Backlash ---
G0 X21.634 Y56.744 F1200
G1 X20.355 Y57.123 Z0 F1500
G0 Z4.8 F800
; --- FIX X Backlash ---
G0 X21.155 Y57.123 F1200
G0 X21.406 Y65.07 Z4.8 F1500
G1 Z0 F1500
G1 X23.043 Y65.295 Z0 F1500
G1 X22.999 Y65.52 Z0 F1500
; --- FIX X Backlash ---
G0 X22.199 Y65.52 F1200
G1 X21.948 Y66.791 Z0 F1500
; --- FIX Y Backlash ---
G0 X21.948 Y65.991 F1200
G1 X21.505 Y65.402 Z0 F1500
G1 X21.036 Y64.801 Z0 F1500
G1 X20.606 Y64.27 Z0 F1500
G0 Z4.8 F800
; --- FIX X Backlash ---
G0 X21.406 Y64.27 F1200
G0 X23.667 Y56.608 Z4.8 F1500
G1 Z0 F1500
G1 X23.707 Y56.628 Z0 F1500
; --- FIX Y Backlash ---
G0 X23.707 Y57.428 F1200
G1 X24.246 Y57.72 Z0 F1500
G1 X24.498 Y57.869 Z0 F1500
; --- FIX X Backlash ---
G0 X23.698 Y57.869 F1200
G1 X23.528 Y58.732 Z0 F1500
; --- FIX Y Backlash ---
G0 X23.528 Y57.932 F1200
G1 X23.469 Y57.812 Z0 F1500
G1 X23.053 Y56.976 Z0 F1500
G1 X22.867 Y56.608 Z0 F1500
G0 Z4.8 F800
G0 X19.982 Y55.599 Z4.8 F1500
G1 Z0 F1500
; --- FIX Y Backlash ---
G0 X19.982 Y56.399 F1200
G1 X19.789 Y56.456 Z0 F1500
; --- FIX Y Backlash ---
G0 X19.789 Y55.656 F1200
G1 X19.78 Y55.551 Z0 F1500
; --- FIX X Backlash ---
G0 X20.58 Y55.551 F1200
G1 X20.782 Y55.599 Z0 F1500
G0 Z4.8 F800
; --- FIX X Backlash ---
G0 X19.982 Y55.599 F1200
G0 X19.341 Y54.784 Z4.8 F1500
G1 Z0 F1500
G1 X18.909 Y54.427 Z0 F1500
G1 X18.427 Y54.16 Z0 F1500
G1 X18.158 Y54.07 Z0 F1500
; --- FIX X Backlash ---
G0 X18.958 Y54.07 F1200
G1 X19.045 Y53.286 Z0 F1500
G1 X19.233 Y52.067 Z0 F1500
G1 X19.466 Y50.899 Z0 F1500
G1 X19.743 Y49.779 Z0 F1500
G1 X19.79 Y49.621 Z0 F1500
; --- FIX Y Backlash ---
G0 X19.79 Y50.421 F1200
G1 X19.932 Y52.401 Z0 F1500
G1 X20.141 Y55.584 Z0 F1500
G0 Z4.8 F800
; --- FIX X Backlash ---
G0 X19.341 Y55.584 F1200
G0 X18.974 Y56.32 Z4.8 F1500
G1 Z0 F1500
; --- FIX Y Backlash ---
G0 X18.974 Y55.52 F1200
G1 X18.456 Y55.091 Z0 F1500
G1 X18.103 Y54.895 Z0 F1500
G1 X17.726 Y54.768 Z0 F1500
G1 X17.335 Y54.712 Z0 F1500
G1 X17.288 Z0 F1500
G1 X17.303 Y54.51 Z0 F1500
; --- FIX X Backlash ---
G0 X18.103 Y54.51 F1200
G1 X18.25 Y53.191 Z0 F1500
G1 X18.444 Y51.934 Z0 F1500
G1 X18.686 Y50.721 Z0 F1500
G1 X18.972 Y49.565 Z0 F1500
G1 X19.3 Y48.465 Z0 F1500
G1 X19.668 Y47.422 Z0 F1500
G1 X20.08 Y46.417 Z0 F1500
G1 X20.523 Y45.479 Z0 F1500
G1 X21.009 Y44.58 Z0 F1500
G1 X21.531 Y43.726 Z0 F1500
G1 X22.081 Y42.93 Z0 F1500
G1 X22.671 Y42.169 Z0 F1500
G1 X23.287 Y41.461 Z0 F1500
G1 X23.93 Y40.8 Z0 F1500
G1 X24.039 Y40.7 Z0 F1500
; --- FIX Y Backlash ---
G0 X24.039 Y41.5 F1200
G1 X24.22 Y41.695 Z0 F1500
G1 X24.976 Y42.554 Z0 F1500
G1 X25.731 Y43.45 Z0 F1500
G1 X26.526 Y44.433 Z0 F1500
G1 X27.321 Y45.452 Z0 F1500
G1 X28.149 Y46.552 Z0 F1500
G1 X28.978 Y47.689 Z0 F1500
G1 X29.716 Y48.734 Z0 F1500
G1 X32.102 Y69.901 Z0 F1500
; --- FIX X Backlash ---
G0 X31.302 Y69.901 F1200
; --- FIX Y Backlash ---
G0 X31.302 Y69.101 F1200
G1 X28.734 Y66.122 Z0 F1500
; --- FIX Y Backlash ---
G0 X28.734 Y66.922 F1200
G1 X27.371 Y71.45 Z0 F1500
G1 X26.444 Y74.494 Z0 F1500
G1 X25.984 Y75.979 Z0 F1500
G1 X25.526 Y77.44 Z0 F1500
G1 X25.071 Y78.875 Z0 F1500
G1 X24.885 Y79.449 Z0 F1500
; --- FIX Y Backlash ---
G0 X24.885 Y78.649 F1200
G1 X24.257 Y78.399 Z0 F1500
G1 X23.55 Y78.149 Z0 F1500
G1 X22.858 Y77.935 Z0 F1500
G1 X22.179 Y77.759 Z0 F1500
G1 X21.516 Y77.621 Z0 F1500
G1 X20.869 Y77.523 Z0 F1500
G1 X20.237 Y77.466 Z0 F1500
G1 X19.622 Y77.453 Z0 F1500
G1 X19.027 Y77.484 Z0 F1500
; --- FIX Y Backlash ---
G0 X19.027 Y78.284 F1200
G1 X18.449 Y78.362 Z0 F1500
G1 X17.891 Y78.491 Z0 F1500
G1 X17.457 Y78.637 Z0 F1500
; --- FIX X Backlash ---
G0 X18.257 Y78.637 F1200
; --- FIX Y Backlash ---
G0 X18.257 Y77.837 F1200
G1 X18.392 Y76.715 Z0 F1500
G1 X18.547 Y75.311 Z0 F1500
G1 X18.694 Y73.879 Z0 F1500
G1 X18.831 Y72.421 Z0 F1500
G1 X18.96 Y70.935 Z0 F1500
G1 X19.082 Y69.423 Z0 F1500
G1 X19.09 Y69.302 Z0 F1500
; --- FIX Y Backlash ---
G0 X19.09 Y70.102 F1200
G1 X19.281 Y70.266 Z0 F1500
G1 X19.604 Y70.561 Z0 F1500
G1 X19.945 Y70.889 Z0 F1500
G1 X20.293 Y71.239 Z0 F1500
G1 X20.647 Y71.61 Z0 F1500
G1 X21.027 Y72.022 Z0 F1500
G1 X21.421 Y72.464 Z0 F1500
G1 X21.829 Y72.935 Z0 F1500
G1 X22.256 Y73.441 Z0 F1500
G1 X22.683 Y73.96 Z0 F1500
G1 X23.127 Y74.514 Z0 F1500
G1 X24.561 Y76.341 Z0 F1500
; --- FIX Y Backlash ---
G0 X24.561 Y75.541 F1200
G1 X25.535 Y72.075 Z0 F1500
G1 X26.087 Y70.083 Z0 F1500
G1 X26.644 Y68.051 Z0 F1500
G1 X27.206 Y65.98 Z0 F1500
G1 X28.941 Y59.555 Z0 F1500
G1 X29.643 Y56.97 Z0 F1500
; --- FIX X Backlash ---
G0 X28.843 Y56.97 F1200
G1 X27.554 Y55.258 Z0 F1500
G1 X26.524 Y53.946 Z0 F1500
G1 X26.018 Y53.322 Z0 F1500
G1 X25.521 Y52.724 Z0 F1500
G1 X25.032 Y52.151 Z0 F1500
G1 X24.551 Y51.603 Z0 F1500
G1 X24.079 Y51.08 Z0 F1500
G1 X23.616 Y50.583 Z0 F1500
G1 X23.162 Y50.111 Z0 F1500
G1 X22.717 Y49.666 Z0 F1500
G1 X22.282 Y49.247 Z0 F1500
G1 X21.856 Y48.855 Z0 F1500
G1 X21.441 Y48.491 Z0 F1500
G1 X19.601 Y46.964 Z0 F1500
; --- FIX X Backlash ---
G0 X20.401 Y46.964 F1200
; --- FIX Y Backlash ---
G0 X20.401 Y47.764 F1200
G1 X20.73 Y52.349 Z0 F1500
G1 X20.944 Y55.616 Z0 F1500
G1 X21.999 Y55.869 Z0 F1500
G1 X22.474 Y56.016 Z0 F1500
G1 X22.987 Y56.21 Z0 F1500
G1 X23.515 Y56.441 Z0 F1500
G1 X24.07 Y56.715 Z0 F1500
G1 X24.645 Y57.026 Z0 F1500
G1 X25.24 Y57.378 Z0 F1500
G1 X25.391 Y57.474 Z0 F1500
; --- FIX X Backlash ---
G0 X24.591 Y57.474 F1200
G1 X23.995 Y60.504 Z0 F1500
G1 X22.984 Y65.675 Z0 F1500
G1 X22.655 Y67.346 Z0 F1500
G1 X22.374 Y68.752 Z0 F1500
G1 X22.363 Y68.736 Z0 F1500
; --- FIX Y Backlash ---
G0 X22.363 Y67.936 F1200
G1 X21.846 Y67.207 Z0 F1500
G1 X21.348 Y66.524 Z0 F1500
G1 X20.869 Y65.888 Z0 F1500
G1 X20.41 Y65.298 Z0 F1500
G1 X19.97 Y64.756 Z0 F1500
G1 X19.722 Y64.463 Z0 F1500
G1 X18.974 Y55.52 Z0 F1500
G0 Z4.8 F800

; Color picking sequence
G1 Z10 F1000;         ; Raise brush
G0 X86 Y5 F1200;    ; Rapid move to color 1
G1 Z10 F1000;         ; Raise brush
G0 X86 Y5 F1200;    ; Rapid move to color 1
G1 Z0 F1000;         ; Lower into color
G1 X85.102 Y7.295 Z0 S800 F1200
G1 X85.026 Y7.642 Z0 F1200
G1 X85 Y8 Z0 F1200
G1 X85.026 Y8.358 Z0 F1200
G1 X85.102 Y8.705 Z0 F1200
G1 X85.225 Y9.041 Z0 F1200
G1 X85.393 Y9.362 Z0 F1200
G1 X85.603 Y9.668 Z0 F1200
G1 X85.854 Y9.957 Z0 F1200
G1 X86.142 Y10.226 Z0 F1200
G1 X86.464 Y10.475 Z0 F1200
G1 X86.82 Y10.701 Z0 F1200
G1 X87.204 Y10.902 Z0 F1200
G1 X87.617 Y11.078 Z0 F1200
G1 X88.054 Y11.225 Z0 F1200
G1 X88.513 Y11.343 Z0 F1200
G1 X88.992 Y11.429 Z0 F1200
G1 X89.489 Y11.482 Z0 F1200
G1 X90 Y11.5 Z0 F1200
G1 X90.511 Y11.482 Z0 F1200
G1 X91.008 Y11.429 Z0 F1200
G1 X91.487 Y11.343 Z0 F1200
G1 X91.946 Y11.225 Z0 F1200
G1 X92.383 Y11.078 Z0 F1200
G1 X92.796 Y10.902 Z0 F1200
G1 X93.18 Y10.701 Z0 F1200
G1 X93.536 Y10.475 Z0 F1200
G1 X93.858 Y10.226 Z0 F1200
G1 X94.146 Y9.957 Z0 F1200
G1 X94.397 Y9.668 Z0 F1200
G1 X94.607 Y9.362 Z0 F1200
G1 X94.775 Y9.041 Z0 F1200
G1 X94.898 Y8.705 Z0 F1200
G1 X94.974 Y8.358 Z0 F1200
G1 X95 Y8 Z0 F1200
G1 X94.974 Y7.642 Z0 F1200
G1 X94.898 Y7.295 Z0 F1200
G1 X94.775 Y6.959 Z0 F1200
G1 X94.607 Y6.638 Z0 F1200
G1 X94.397 Y6.332 Z0 F1200
G1 X94.146 Y6.043 Z0 F1200
G1 X93.858 Y5.774 Z0 F1200
G1 X93.536 Y5.525 Z0 F1200
G1 X93.18 Y5.299 Z0 F1200
G1 X92.796 Y5.098 Z0 F1200
G1 X92.383 Y4.922 Z0 F1200
G1 X91.946 Y4.775 Z0 F1200
G1 X91.487 Y4.657 Z0 F1200
G1 X91.008 Y4.571 Z0 F1200
G1 X90.511 Y4.518 Z0 F1200
G1 X90 Y4.5 Z0 F1200
G1 X89.489 Y4.518 Z0 F1200
G1 X88.992 Y4.571 Z0 F1200
G1 X88.513 Y4.657 Z0 F1200
G1 X88.054 Y4.775 Z0 F1200
G1 X87.617 Y4.922 Z0 F1200
G1 X87.204 Y5.098 Z0 F1200
G1 X86.82 Y5.299 Z0 F1200
G1 X86.464 Y5.525 Z0 F1200
G1 X86.142 Y5.774 Z0 F1200
G1 X85.854 Y6.043 Z0 F1200
G1 X85.603 Y6.332 Z0 F1200
G1 X85.393 Y6.638 Z0 F1200
G1 X85.225 Y6.959 Z0 F1200
G1 Z7 F800;         ; Raise from color
G1 X79 Y8 Z1 F1200;     ; Movement in paint
G1 X69 Y18 Z8 F500;     ; Move in paint
G1 F1200;           ; Set feed rate
G0 Z3.5 F1000 ; Safety Lift
G0 X18.974 Y55.52 F1200 ; Return to pos
G0 X17.739 Y48.22 Z4.8 F1500
G1 Z0 F1500
; --- FIX X Backlash ---
G0 X18.539 Y48.22 F1200
G1 X18.921 Y47.134 Z0 F1500
G1 X19.346 Y46.099 Z0 F1500
G1 X19.811 Y45.115 Z0 F1500
G1 X20.316 Y44.179 Z0 F1500
G1 X20.858 Y43.293 Z0 F1500
G1 X21.437 Y42.455 Z0 F1500
G1 X22.05 Y41.664 Z0 F1500
G1 X22.697 Y40.921 Z0 F1500
G1 X23.375 Y40.223 Z0 F1500
G1 X24.085 Y39.57 Z0 F1500
; --- FIX Y Backlash ---
G0 X24.085 Y40.37 F1200
G1 X24.82 Y41.167 Z0 F1500
G1 X25.577 Y42.025 Z0 F1500
G1 X26.353 Y42.947 Z0 F1500
G1 X27.148 Y43.929 Z0 F1500
G1 X27.96 Y44.971 Z0 F1500
G1 X28.788 Y46.07 Z0 F1500
G1 X29.631 Y47.228 Z0 F1500
G1 X30.488 Y48.44 Z0 F1500
G1 X33.187 Y72.385 Z0 F1500
; --- FIX X Backlash ---
G0 X32.387 Y72.385 F1200
; --- FIX Y Backlash ---
G0 X32.387 Y71.585 F1200
G1 X29.079 Y67.748 Z0 F1500
; --- FIX Y Backlash ---
G0 X29.079 Y68.548 F1200
G1 X28.136 Y71.683 Z0 F1500
G1 X27.208 Y74.73 Z0 F1500
G1 X26.747 Y76.219 Z0 F1500
G1 X26.289 Y77.683 Z0 F1500
G1 X25.832 Y79.122 Z0 F1500
G1 X25.375 Y80.534 Z0 F1500
; --- FIX Y Backlash ---
G0 X25.375 Y79.734 F1200
G1 X24.668 Y79.424 Z0 F1500
G1 X23.975 Y79.148 Z0 F1500
G1 X23.299 Y78.908 Z0 F1500
G1 X22.639 Y78.705 Z0 F1500
G1 X21.997 Y78.538 Z0 F1500
G1 X21.375 Y78.408 Z0 F1500
G1 X20.773 Y78.318 Z0 F1500
G1 X20.193 Y78.265 Z0 F1500
G1 X19.635 Y78.253 Z0 F1500
G1 X19.101 Y78.282 Z0 F1500
; --- FIX Y Backlash ---
G0 X19.101 Y79.082 F1200
G1 X18.592 Y79.15 Z0 F1500
G1 X18.109 Y79.262 Z0 F1500
G1 X17.653 Y79.415 Z0 F1500
G1 X17.225 Y79.612 Z0 F1500
G1 X16.827 Y79.852 Z0 F1500
G1 X16.459 Y80.137 Z0 F1500
; --- FIX X Backlash ---
G0 X17.259 Y80.137 F1200
; --- FIX Y Backlash ---
G0 X17.259 Y79.337 F1200
G1 X17.433 Y77.994 Z0 F1500
G1 X17.597 Y76.623 Z0 F1500
G1 X17.751 Y75.226 Z0 F1500
G1 X17.897 Y73.801 Z0 F1500
G1 X18.034 Y72.348 Z0 F1500
G1 X18.163 Y70.869 Z0 F1500
G1 X18.284 Y69.362 Z0 F1500
G1 X18.396 Y67.828 Z0 F1500
; --- FIX Y Backlash ---
G0 X18.396 Y68.628 F1200
G1 X18.648 Y68.773 Z0 F1500
G1 X18.917 Y68.951 Z0 F1500
G1 X19.202 Y69.161 Z0 F1500
G1 X19.503 Y69.402 Z0 F1500
G1 X19.82 Y69.675 Z0 F1500
G1 X20.152 Y69.978 Z0 F1500
G1 X20.5 Y70.312 Z0 F1500
G1 X20.861 Y70.675 Z0 F1500
G1 X21.236 Y71.068 Z0 F1500
G1 X21.625 Y71.49 Z0 F1500
G1 X22.026 Y71.94 Z0 F1500
G1 X22.441 Y72.419 Z0 F1500
G1 X22.868 Y72.926 Z0 F1500
G1 X23.307 Y73.459 Z0 F1500
G1 X23.756 Y74.02 Z0 F1500
G1 X24.217 Y74.607 Z0 F1500
; --- FIX Y Backlash ---
G0 X24.217 Y73.807 F1200
G1 X24.765 Y71.861 Z0 F1500
G1 X25.315 Y69.871 Z0 F1500
G1 X25.872 Y67.84 Z0 F1500
G1 X26.434 Y65.771 Z0 F1500
G1 X28.169 Y59.346 Z0 F1500
G1 X28.769 Y57.138 Z0 F1500
; --- FIX X Backlash ---
G0 X27.969 Y57.138 F1200
G1 X26.92 Y55.745 Z0 F1500
G1 X25.899 Y54.445 Z0 F1500
G1 X25.4 Y53.83 Z0 F1500
G1 X24.909 Y53.24 Z0 F1500
G1 X24.427 Y52.675 Z0 F1500
G1 X23.953 Y52.135 Z0 F1500
G1 X23.489 Y51.62 Z0 F1500
G1 X23.035 Y51.133 Z0 F1500
G1 X22.591 Y50.671 Z0 F1500
G1 X22.157 Y50.237 Z0 F1500
G1 X21.734 Y49.83 Z0 F1500
G1 X21.322 Y49.45 Z0 F1500
G1 X20.922 Y49.1 Z0 F1500
G1 X20.533 Y48.778 Z0 F1500
; --- FIX X Backlash ---
G0 X21.333 Y48.778 F1200
; --- FIX Y Backlash ---
G0 X21.333 Y49.578 F1200
G1 X21.529 Y52.296 Z0 F1500
G1 X21.704 Y54.975 Z0 F1500
G1 X22.211 Y55.097 Z0 F1500
G1 X22.739 Y55.261 Z0 F1500
G1 X23.287 Y55.468 Z0 F1500
G1 X23.854 Y55.716 Z0 F1500
G1 X24.438 Y56.004 Z0 F1500
G1 X25.038 Y56.33 Z0 F1500
G1 X25.653 Y56.693 Z0 F1500
G1 X26.281 Y57.092 Z0 F1500
; --- FIX X Backlash ---
G0 X25.481 Y57.092 F1200
G1 X24.781 Y60.658 Z0 F1500
G1 X23.769 Y65.829 Z0 F1500
G1 X23.439 Y67.502 Z0 F1500
G1 X23.11 Y69.15 Z0 F1500
G1 X22.783 Y70.771 Z0 F1500
; --- FIX Y Backlash ---
G0 X22.783 Y69.971 F1200
G1 X22.236 Y69.16 Z0 F1500
G1 X21.707 Y68.394 Z0 F1500
G1 X21.197 Y67.674 Z0 F1500
G1 X20.705 Y67.001 Z0 F1500
G1 X20.234 Y66.375 Z0 F1500
G1 X19.783 Y65.796 Z0 F1500
G1 X19.354 Y65.266 Z0 F1500
G1 X18.946 Y64.785 Z0 F1500
G1 X18.205 Y55.922 Z0 F1500
G1 X18.003 Y55.754 Z0 F1500
G1 X17.779 Y55.63 Z0 F1500
G1 X17.541 Y55.55 Z0 F1500
G1 X17.296 Y55.515 Z0 F1500
G1 X17.052 Y55.526 Z0 F1500
; --- FIX Y Backlash ---
G0 X17.052 Y56.326 F1200
G1 X16.817 Y56.383 Z0 F1500
G1 X16.599 Y56.488 Z0 F1500
G1 X16.406 Y56.642 Z0 F1500
; --- FIX X Backlash ---
G0 X17.206 Y56.642 F1200
; --- FIX Y Backlash ---
G0 X17.206 Y55.842 F1200
G1 X17.306 Y54.436 Z0 F1500
G1 X17.457 Y53.085 Z0 F1500
G1 X17.657 Y51.789 Z0 F1500
G1 X17.905 Y50.546 Z0 F1500
G1 X18.199 Y49.357 Z0 F1500
G1 X18.539 Y48.22 Z0 F1500
G0 Z4.8 F800
; --- FIX Y Backlash ---
G0 X18.539 Y49.02 F1200
G0 X60.78 Y58.711 Z4.8 F1500
G1 Z0 F1500
G1 X62.712 Y60.961 Z0 F1500
G1 X64.583 Y63.239 Z0 F1500
G1 X65.039 Y63.819 Z0 F1500
G1 X64.999 Y63.882 Z0 F1500
; --- FIX X Backlash ---
G0 X64.199 Y63.882 F1200
; --- FIX Y Backlash ---
G0 X64.199 Y63.082 F1200
G1 X62.145 Y60.588 Z0 F1500
G1 X59.898 Y58.004 Z0 F1500
G1 X58.742 Y56.731 Z0 F1500
G1 X58.416 Y56.383 Z0 F1500
; --- FIX X Backlash ---
G0 X59.216 Y56.383 F1200
G1 X59.281 Y56.242 Z0 F1500
; --- FIX Y Backlash ---
G0 X59.281 Y57.042 F1200
G1 X60.78 Y58.711 Z0 F1500
G0 Z4.8 F800
G0 X63.319 Y60.44 Z4.8 F1500
G1 Z0 F1500
G1 X65.221 Y62.755 Z0 F1500
G1 X66.019 Y63.771 Z0 F1500
; --- FIX X Backlash ---
G0 X65.219 Y63.771 F1200
G1 X64.351 Y65.129 Z0 F1500
; --- FIX X Backlash ---
G0 X65.151 Y65.129 F1200
G1 X65.247 Y65.487 Z0 F1500
; --- FIX X Backlash ---
G0 X64.447 Y65.487 F1200
; --- FIX Y Backlash ---
G0 X64.447 Y64.687 F1200
G1 X63.717 Y63.755 Z0 F1500
G1 X61.534 Y61.105 Z0 F1500
G1 X59.301 Y58.535 Z0 F1500
G1 X58.155 Y57.273 Z0 F1500
G1 X57.403 Y56.471 Z0 F1500
; --- FIX X Backlash ---
G0 X58.203 Y56.471 F1200
G1 X58.31 Y56.438 Z0 F1500
G1 X59.064 Y54.803 Z0 F1500
; --- FIX Y Backlash ---
G0 X59.064 Y55.603 F1200
G1 X61.384 Y58.187 Z0 F1500
G1 X63.319 Y60.44 Z0 F1500
G0 Z4.8 F800

; Color picking sequence
G1 Z10 F1000;         ; Raise brush
G0 X86 Y5 F1200;    ; Rapid move to color 1
G1 Z10 F1000;         ; Raise brush
G0 X86 Y5 F1200;    ; Rapid move to color 1
G1 Z0 F1000;         ; Lower into color
G1 X85.102 Y7.295 Z0 S800 F1200
G1 X85.026 Y7.642 Z0 F1200
G1 X85 Y8 Z0 F1200
G1 X85.026 Y8.358 Z0 F1200
G1 X85.102 Y8.705 Z0 F1200
G1 X85.225 Y9.041 Z0 F1200
G1 X85.393 Y9.362 Z0 F1200
G1 X85.603 Y9.668 Z0 F1200
G1 X85.854 Y9.957 Z0 F1200
G1 X86.142 Y10.226 Z0 F1200
G1 X86.464 Y10.475 Z0 F1200
G1 X86.82 Y10.701 Z0 F1200
G1 X87.204 Y10.902 Z0 F1200
G1 X87.617 Y11.078 Z0 F1200
G1 X88.054 Y11.225 Z0 F1200
G1 X88.513 Y11.343 Z0 F1200
G1 X88.992 Y11.429 Z0 F1200
G1 X89.489 Y11.482 Z0 F1200
G1 X90 Y11.5 Z0 F1200
G1 X90.511 Y11.482 Z0 F1200
G1 X91.008 Y11.429 Z0 F1200
G1 X91.487 Y11.343 Z0 F1200
G1 X91.946 Y11.225 Z0 F1200
G1 X92.383 Y11.078 Z0 F1200
G1 X92.796 Y10.902 Z0 F1200
G1 X93.18 Y10.701 Z0 F1200
G1 X93.536 Y10.475 Z0 F1200
G1 X93.858 Y10.226 Z0 F1200
G1 X94.146 Y9.957 Z0 F1200
G1 X94.397 Y9.668 Z0 F1200
G1 X94.607 Y9.362 Z0 F1200
G1 X94.775 Y9.041 Z0 F1200
G1 X94.898 Y8.705 Z0 F1200
G1 X94.974 Y8.358 Z0 F1200
G1 X95 Y8 Z0 F1200
G1 X94.974 Y7.642 Z0 F1200
G1 X94.898 Y7.295 Z0 F1200
G1 X94.775 Y6.959 Z0 F1200
G1 X94.607 Y6.638 Z0 F1200
G1 X94.397 Y6.332 Z0 F1200
G1 X94.146 Y6.043 Z0 F1200
G1 X93.858 Y5.774 Z0 F1200
G1 X93.536 Y5.525 Z0 F1200
G1 X93.18 Y5.299 Z0 F1200
G1 X92.796 Y5.098 Z0 F1200
G1 X92.383 Y4.922 Z0 F1200
G1 X91.946 Y4.775 Z0 F1200
G1 X91.487 Y4.657 Z0 F1200
G1 X91.008 Y4.571 Z0 F1200
G1 X90.511 Y4.518 Z0 F1200
G1 X90 Y4.5 Z0 F1200
G1 X89.489 Y4.518 Z0 F1200
G1 X88.992 Y4.571 Z0 F1200
G1 X88.513 Y4.657 Z0 F1200
G1 X88.054 Y4.775 Z0 F1200
G1 X87.617 Y4.922 Z0 F1200
G1 X87.204 Y5.098 Z0 F1200
G1 X86.82 Y5.299 Z0 F1200
G1 X86.464 Y5.525 Z0 F1200
G1 X86.142 Y5.774 Z0 F1200
G1 X85.854 Y6.043 Z0 F1200
G1 X85.603 Y6.332 Z0 F1200
G1 X85.393 Y6.638 Z0 F1200
G1 X85.225 Y6.959 Z0 F1200
G1 Z7 F800;         ; Raise from color
G1 X79 Y8 Z1 F1200;     ; Movement in paint
G1 X69 Y18 Z8 F500;     ; Move in paint
G1 F1200;           ; Set feed rate
G0 Z3.5 F1000 ; Safety Lift
G0 X63.319 Y60.44 F1200 ; Return to pos
G0 X65.839 Y62.248 Z4.8 F1500
G1 Z0 F1500
G1 X66.999 Y63.723 Z0 F1500
; --- FIX X Backlash ---
G0 X66.199 Y63.723 F1200
G1 X65.215 Y65.264 Z0 F1500
; --- FIX X Backlash ---
G0 X66.015 Y65.264 F1200
G1 X66.955 Y68.801 Z0 F1500
G1 X67.042 Y69.144 Z0 F1500
; --- FIX X Backlash ---
G0 X66.242 Y69.144 F1200
; --- FIX Y Backlash ---
G0 X66.242 Y68.344 F1200
G1 X65.203 Y66.952 Z0 F1500
G1 X63.093 Y64.256 Z0 F1500
G1 X60.924 Y61.621 Z0 F1500
G1 X58.702 Y59.067 Z0 F1500
G1 X57.566 Y57.816 Z0 F1500
G1 X56.421 Y56.592 Z0 F1500
G1 X55.938 Y56.093 Z0 F1500
; --- FIX X Backlash ---
G0 X56.738 Y56.093 F1200
G1 X57.732 Y55.781 Z0 F1500
G1 X59.757 Y51.39 Z0 F1500
G1 X60.452 Y49.957 Z0 F1500
; --- FIX X Backlash ---
G0 X59.652 Y49.957 F1200
; --- FIX Y Backlash ---
G0 X59.652 Y50.757 F1200
G1 X58.617 Y54.799 Z0 F1500
; --- FIX X Backlash ---
G0 X59.417 Y54.799 F1200
G1 X61.979 Y57.651 Z0 F1500
G1 X63.936 Y59.93 Z0 F1500
G1 X65.839 Y62.248 Z0 F1500
G0 Z4.8 F800
; --- FIX Y Backlash ---
G0 X65.839 Y61.448 F1200
G0 X73.644 Y38.248 Z4.8 F1500
G1 Z0 F1500
; --- FIX X Backlash ---
G0 X72.844 Y38.248 F1200
G1 X72.651 Y37.93 Z0 F1500
; --- FIX X Backlash ---
G0 X73.451 Y37.93 F1200
; --- FIX Y Backlash ---
G0 X73.451 Y38.73 F1200
G1 X73.667 Y38.965 Z0 F1500
G1 X73.644 Y39.048 Z0 F1500
G0 Z4.8 F800
G0 X73.906 Y41.025 Z4.8 F1500
G1 Z0 F1500
; --- FIX X Backlash ---
G0 X73.106 Y41.025 F1200
; --- FIX Y Backlash ---
G0 X73.106 Y40.225 F1200
G1 X71.861 Y38.169 Z0 F1500
G1 X70.507 Y36.009 Z0 F1500
G1 X69.122 Y33.871 Z0 F1500
G1 X68.036 Y32.253 Z0 F1500
; --- FIX X Backlash ---
G0 X68.836 Y32.253 F1200
; --- FIX Y Backlash ---
G0 X68.836 Y33.053 F1200
G1 X70.206 Y34.318 Z0 F1500
G1 X71.994 Y36.063 Z0 F1500
G1 X73.753 Y37.878 Z0 F1500
G1 X74.561 Y38.754 Z0 F1500
; --- FIX X Backlash ---
G0 X73.761 Y38.754 F1200
G1 X73.106 Y41.025 Z0 F1500
G0 Z4.8 F800
G0 X69.229 Y55.201 Z4.8 F1500
G1 Z0 F1500
G1 X69.138 Y55.543 Z0 F1500
G1 X68.847 Y56.695 Z0 F1500
; --- FIX Y Backlash ---
G0 X68.847 Y55.895 F1200
G1 X67.764 Y54.434 Z0 F1500
; --- FIX X Backlash ---
G0 X68.564 Y54.434 F1200
G1 X70.029 Y54.401 Z0 F1500
G0 Z4.8 F800
; --- FIX X Backlash ---
G0 X69.229 Y54.401 F1200
G0 X64.77 Y50.629 Z4.8 F1500
G1 Z0 F1500
G1 X64.236 Y49.975 Z0 F1500
G1 X61.901 Y47.193 Z0 F1500
; --- FIX X Backlash ---
G0 X62.701 Y47.193 F1200
G1 X63.627 Y45.372 Z0 F1500
; --- FIX Y Backlash ---
G0 X63.627 Y46.172 F1200
G1 X64.104 Y47.418 Z0 F1500
G1 X65.252 Y50.533 Z0 F1500
G1 X65.57 Y51.429 Z0 F1500
G0 Z4.8 F800
G0 X66.676 Y54.089 Z4.8 F1500
G1 Z0 F1500
; --- FIX X Backlash ---
G0 X65.876 Y54.089 F1200
; --- FIX Y Backlash ---
G0 X65.876 Y53.289 F1200
G1 X64.756 Y51.877 Z0 F1500
G1 X63.62 Y50.485 Z0 F1500
G1 X60.947 Y47.302 Z0 F1500
; --- FIX X Backlash ---
G0 X61.747 Y47.302 F1200
G1 X63.419 Y44.019 Z0 F1500
G1 X63.738 Y43.422 Z0 F1500
; --- FIX Y Backlash ---
G0 X63.738 Y44.222 F1200
G1 X64.861 Y47.159 Z0 F1500
G1 X65.996 Y50.238 Z0 F1500
G1 X67.494 Y54.458 Z0 F1500
; --- FIX Y Backlash ---
G0 X67.494 Y53.658 F1200
G1 X69.808 Y53.606 Z0 F1500
G1 X70.945 Y49.876 Z0 F1500
G1 X71.762 Y47.265 Z0 F1500
G1 X72.594 Y44.668 Z0 F1500
G1 X73.671 Y41.381 Z0 F1500
; --- FIX X Backlash ---
G0 X72.871 Y41.381 F1200
G1 X71.179 Y38.589 Z0 F1500
G1 X69.832 Y36.438 Z0 F1500
G1 X68.454 Y34.312 Z0 F1500
G1 X65.898 Y30.502 Z0 F1500
; --- FIX Y Backlash ---
G0 X65.898 Y31.302 F1200
G1 X65.542 Y31.705 Z0 F1500
; --- FIX Y Backlash ---
G0 X65.542 Y30.905 F1200
G1 X64.409 Y29.625 Z0 F1500
G1 X61.793 Y26.782 Z0 F1500
; --- FIX Y Backlash ---
G0 X61.793 Y27.582 F1200
G1 X59.787 Y31.873 Z0 F1500
G1 X58.803 Y34.02 Z0 F1500
; --- FIX Y Backlash ---
G0 X58.803 Y33.22 F1200
G1 X58.702 Y33.082 Z0 F1500
; --- FIX X Backlash ---
G0 X59.502 Y33.082 F1200
G1 X60.194 Y31.551 Z0 F1500
G1 X61.291 Y29.188 Z0 F1500
G1 X62.41 Y26.847 Z0 F1500
G1 X62.729 Y26.204 Z0 F1500
; --- FIX Y Backlash ---
G0 X62.729 Y27.004 F1200
G1 X63.196 Y27.341 Z0 F1500
G1 X65.12 Y28.824 Z0 F1500
G1 X67.039 Y30.4 Z0 F1500
G1 X68.908 Y32.03 Z0 F1500
G1 X70.76 Y33.741 Z0 F1500
G1 X72.561 Y35.5 Z0 F1500
G1 X74.332 Y37.325 Z0 F1500
G1 X75.454 Y38.543 Z0 F1500
; --- FIX X Backlash ---
G0 X74.654 Y38.543 F1200
G1 X73.194 Y43.608 Z0 F1500
G1 X71.529 Y49.637 Z0 F1500
G1 X69.913 Y55.744 Z0 F1500
G1 X69.208 Y58.531 Z0 F1500
; --- FIX Y Backlash ---
G0 X69.208 Y57.731 F1200
G1 X69.139 Y57.634 Z0 F1500
G1 X66.984 Y54.725 Z0 F1500
G1 X65.876 Y53.289 Z0 F1500
G0 Z4.8 F800
G0 X60.247 Y33.908 Z4.8 F1500
G1 Z0 F1500
; --- FIX X Backlash ---
G0 X61.047 Y33.908 F1200
G1 X62.024 Y33.347 Z0 F1500
G1 X63.009 Y32.81 Z0 F1500
G1 X63.998 Y32.293 Z0 F1500
G1 X64.99 Y31.792 Z0 F1500
; --- FIX X Backlash ---
G0 X64.19 Y31.792 F1200
G1 X63.221 Y30.697 Z0 F1500
G1 X62.232 Y29.622 Z0 F1500
; --- FIX Y Backlash ---
G0 X62.232 Y30.422 F1200
G1 X61.24 Y32.545 Z0 F1500
G1 X60.247 Y34.708 Z0 F1500
G0 Z4.8 F800

; Color picking sequence
G1 Z10 F1000;         ; Raise brush
G0 X86 Y5 F1200;    ; Rapid move to color 1
G1 Z10 F1000;         ; Raise brush
G0 X86 Y5 F1200;    ; Rapid move to color 1
G1 Z0 F1000;         ; Lower into color
G1 X85.102 Y7.295 Z0 S800 F1200
G1 X85.026 Y7.642 Z0 F1200
G1 X85 Y8 Z0 F1200
G1 X85.026 Y8.358 Z0 F1200
G1 X85.102 Y8.705 Z0 F1200
G1 X85.225 Y9.041 Z0 F1200
G1 X85.393 Y9.362 Z0 F1200
G1 X85.603 Y9.668 Z0 F1200
G1 X85.854 Y9.957 Z0 F1200
G1 X86.142 Y10.226 Z0 F1200
G1 X86.464 Y10.475 Z0 F1200
G1 X86.82 Y10.701 Z0 F1200
G1 X87.204 Y10.902 Z0 F1200
G1 X87.617 Y11.078 Z0 F1200
G1 X88.054 Y11.225 Z0 F1200
G1 X88.513 Y11.343 Z0 F1200
G1 X88.992 Y11.429 Z0 F1200
G1 X89.489 Y11.482 Z0 F1200
G1 X90 Y11.5 Z0 F1200
G1 X90.511 Y11.482 Z0 F1200
G1 X91.008 Y11.429 Z0 F1200
G1 X91.487 Y11.343 Z0 F1200
G1 X91.946 Y11.225 Z0 F1200
G1 X92.383 Y11.078 Z0 F1200
G1 X92.796 Y10.902 Z0 F1200
G1 X93.18 Y10.701 Z0 F1200
G1 X93.536 Y10.475 Z0 F1200
G1 X93.858 Y10.226 Z0 F1200
G1 X94.146 Y9.957 Z0 F1200
G1 X94.397 Y9.668 Z0 F1200
G1 X94.607 Y9.362 Z0 F1200
G1 X94.775 Y9.041 Z0 F1200
G1 X94.898 Y8.705 Z0 F1200
G1 X94.974 Y8.358 Z0 F1200
G1 X95 Y8 Z0 F1200
G1 X94.974 Y7.642 Z0 F1200
G1 X94.898 Y7.295 Z0 F1200
G1 X94.775 Y6.959 Z0 F1200
G1 X94.607 Y6.638 Z0 F1200
G1 X94.397 Y6.332 Z0 F1200
G1 X94.146 Y6.043 Z0 F1200
G1 X93.858 Y5.774 Z0 F1200
G1 X93.536 Y5.525 Z0 F1200
G1 X93.18 Y5.299 Z0 F1200
G1 X92.796 Y5.098 Z0 F1200
G1 X92.383 Y4.922 Z0 F1200
G1 X91.946 Y4.775 Z0 F1200
G1 X91.487 Y4.657 Z0 F1200
G1 X91.008 Y4.571 Z0 F1200
G1 X90.511 Y4.518 Z0 F1200
G1 X90 Y4.5 Z0 F1200
G1 X89.489 Y4.518 Z0 F1200
G1 X88.992 Y4.571 Z0 F1200
G1 X88.513 Y4.657 Z0 F1200
G1 X88.054 Y4.775 Z0 F1200
G1 X87.617 Y4.922 Z0 F1200
G1 X87.204 Y5.098 Z0 F1200
G1 X86.82 Y5.299 Z0 F1200
G1 X86.464 Y5.525 Z0 F1200
G1 X86.142 Y5.774 Z0 F1200
G1 X85.854 Y6.043 Z0 F1200
G1 X85.603 Y6.332 Z0 F1200
G1 X85.393 Y6.638 Z0 F1200
G1 X85.225 Y6.959 Z0 F1200
G1 Z7 F800;         ; Raise from color
G1 X79 Y8 Z1 F1200;     ; Movement in paint
G1 X69 Y18 Z8 F500;     ; Move in paint
G1 F1200;           ; Set feed rate
G0 Z3.5 F1000 ; Safety Lift
G0 X60.247 Y34.708 F1200 ; Return to pos
G0 X60.139 Y35.692 Z4.8 F1500
G1 Z0 F1500
; --- FIX X Backlash ---
G0 X60.939 Y35.692 F1200
; --- FIX Y Backlash ---
G0 X60.939 Y34.892 F1200
G1 X62.414 Y34.046 Z0 F1500
G1 X63.392 Y33.513 Z0 F1500
G1 X64.369 Y33.002 Z0 F1500
G1 X66.276 Y32.038 Z0 F1500
; --- FIX X Backlash ---
G0 X65.476 Y32.038 F1200
G1 X63.815 Y30.161 Z0 F1500
G1 X62.012 Y28.202 Z0 F1500
; --- FIX Y Backlash ---
G0 X62.012 Y29.002 F1200
G1 X60.513 Y32.209 Z0 F1500
G1 X59.277 Y34.905 Z0 F1500
; --- FIX X Backlash ---
G0 X60.077 Y34.905 F1200
G1 X60.939 Y35.692 Z0 F1500
G0 Z4.8 F800
G0 X61.301 Y36.407 Z4.8 F1500
G1 Z0 F1500
; --- FIX Y Backlash ---
G0 X61.301 Y35.607 F1200
G1 X62.821 Y34.735 Z0 F1500
G1 X63.145 Y34.558 Z0 F1500
; --- FIX X Backlash ---
G0 X62.345 Y34.558 F1200
; --- FIX Y Backlash ---
G0 X62.345 Y35.358 F1200
G1 X62.023 Y35.735 Z0 F1500
G1 X60.941 Y37.043 Z0 F1500
; --- FIX Y Backlash ---
G0 X60.941 Y36.243 F1200
G1 X60.501 Y35.607 Z0 F1500
G0 Z4.8 F800
G0 X57.782 Y33.178 Z4.8 F1500
G1 Z0 F1500
; --- FIX X Backlash ---
G0 X58.582 Y33.178 F1200
G1 X59.468 Y31.215 Z0 F1500
G1 X60.569 Y28.843 Z0 F1500
G1 X61.693 Y26.492 Z0 F1500
G1 X62.43 Y25.002 Z0 F1500
; --- FIX Y Backlash ---
G0 X62.43 Y25.802 F1200
G1 X63.661 Y26.689 Z0 F1500
G1 X65.626 Y28.204 Z0 F1500
G1 X67.55 Y29.785 Z0 F1500
G1 X69.458 Y31.448 Z0 F1500
G1 X71.306 Y33.155 Z0 F1500
G1 X73.128 Y34.936 Z0 F1500
G1 X74.916 Y36.778 Z0 F1500
G1 X76.347 Y38.333 Z0 F1500
; --- FIX X Backlash ---
G0 X75.547 Y38.333 F1200
G1 X73.964 Y43.826 Z0 F1500
G1 X72.301 Y49.845 Z0 F1500
G1 X70.687 Y55.944 Z0 F1500
G1 X69.556 Y60.418 Z0 F1500
; --- FIX Y Backlash ---
G0 X69.556 Y59.618 F1200
G1 X68.491 Y58.102 Z0 F1500
G1 X66.346 Y55.208 Z0 F1500
G1 X65.246 Y53.782 Z0 F1500
G1 X64.133 Y52.378 Z0 F1500
G1 X63.004 Y50.995 Z0 F1500
G1 X60.864 Y48.446 Z0 F1500
; --- FIX Y Backlash ---
G0 X60.864 Y49.246 F1200
G1 X59.499 Y54.583 Z0 F1500
; --- FIX X Backlash ---
G0 X60.299 Y54.583 F1200
G1 X62.592 Y57.137 Z0 F1500
G1 X64.541 Y59.406 Z0 F1500
G1 X66.466 Y61.75 Z0 F1500
G1 X67.979 Y63.675 Z0 F1500
; --- FIX X Backlash ---
G0 X67.179 Y63.675 F1200
G1 X66.078 Y65.398 Z0 F1500
; --- FIX X Backlash ---
G0 X66.878 Y65.398 F1200
G1 X67.726 Y68.588 Z0 F1500
G1 X68.457 Y71.439 Z0 F1500
G1 X68.834 Y72.966 Z0 F1500
; --- FIX X Backlash ---
G0 X68.034 Y72.966 F1200
; --- FIX Y Backlash ---
G0 X68.034 Y72.166 F1200
G1 X66.606 Y70.167 Z0 F1500
G1 X64.568 Y67.438 Z0 F1500
G1 X62.469 Y64.757 Z0 F1500
G1 X60.313 Y62.138 Z0 F1500
G1 X58.104 Y59.598 Z0 F1500
G1 X56.978 Y58.358 Z0 F1500
G1 X55.841 Y57.144 Z0 F1500
G1 X54.692 Y55.955 Z0 F1500
G1 X54.458 Y55.721 Z0 F1500
; --- FIX X Backlash ---
G0 X55.258 Y55.721 F1200
G1 X55.423 Y55.666 Z0 F1500
G1 X57.154 Y55.123 Z0 F1500
G1 X59.044 Y51.027 Z0 F1500
G1 X60.841 Y47.319 Z0 F1500
G1 X62.721 Y43.627 Z0 F1500
G1 X63.849 Y41.521 Z0 F1500
; --- FIX Y Backlash ---
G0 X63.849 Y42.321 F1200
G1 X64.426 Y43.779 Z0 F1500
G1 X65.605 Y46.865 Z0 F1500
G1 X66.75 Y49.97 Z0 F1500
G1 X68.054 Y53.645 Z0 F1500
G1 X69.211 Y53.619 Z0 F1500
; --- FIX Y Backlash ---
G0 X69.211 Y52.819 F1200
G1 X70.182 Y49.637 Z0 F1500
G1 X71.002 Y47.015 Z0 F1500
G1 X71.834 Y44.419 Z0 F1500
G1 X72.796 Y41.481 Z0 F1500
; --- FIX X Backlash ---
G0 X71.996 Y41.481 F1200
G1 X70.498 Y39.009 Z0 F1500
G1 X69.158 Y36.868 Z0 F1500
G1 X67.786 Y34.752 Z0 F1500
G1 X65.811 Y31.808 Z0 F1500
; --- FIX Y Backlash ---
G0 X65.811 Y32.608 F1200
G1 X63.876 Y34.798 Z0 F1500
G1 X62.635 Y36.25 Z0 F1500
G1 X61.409 Y37.733 Z0 F1500
G1 X60.886 Y38.385 Z0 F1500
; --- FIX Y Backlash ---
G0 X60.886 Y37.585 F1200
G1 X60.513 Y37.031 Z0 F1500
G1 X59.52 Y35.595 Z0 F1500
G1 X58.517 Y34.185 Z0 F1500
G1 X57.782 Y33.178 Z0 F1500
G0 Z4.8 F800

; Color picking sequence
G1 Z10 F1000;         ; Raise brush
G0 X86 Y5 F1200;    ; Rapid move to color 1
G1 Z10 F1000;         ; Raise brush
G0 X86 Y5 F1200;    ; Rapid move to color 1
G1 Z0 F1000;         ; Lower into color
G1 X85.102 Y7.295 Z0 S800 F1200
G1 X85.026 Y7.642 Z0 F1200
G1 X85 Y8 Z0 F1200
G1 X85.026 Y8.358 Z0 F1200
G1 X85.102 Y8.705 Z0 F1200
G1 X85.225 Y9.041 Z0 F1200
G1 X85.393 Y9.362 Z0 F1200
G1 X85.603 Y9.668 Z0 F1200
G1 X85.854 Y9.957 Z0 F1200
G1 X86.142 Y10.226 Z0 F1200
G1 X86.464 Y10.475 Z0 F1200
G1 X86.82 Y10.701 Z0 F1200
G1 X87.204 Y10.902 Z0 F1200
G1 X87.617 Y11.078 Z0 F1200
G1 X88.054 Y11.225 Z0 F1200
G1 X88.513 Y11.343 Z0 F1200
G1 X88.992 Y11.429 Z0 F1200
G1 X89.489 Y11.482 Z0 F1200
G1 X90 Y11.5 Z0 F1200
G1 X90.511 Y11.482 Z0 F1200
G1 X91.008 Y11.429 Z0 F1200
G1 X91.487 Y11.343 Z0 F1200
G1 X91.946 Y11.225 Z0 F1200
G1 X92.383 Y11.078 Z0 F1200
G1 X92.796 Y10.902 Z0 F1200
G1 X93.18 Y10.701 Z0 F1200
G1 X93.536 Y10.475 Z0 F1200
G1 X93.858 Y10.226 Z0 F1200
G1 X94.146 Y9.957 Z0 F1200
G1 X94.397 Y9.668 Z0 F1200
G1 X94.607 Y9.362 Z0 F1200
G1 X94.775 Y9.041 Z0 F1200
G1 X94.898 Y8.705 Z0 F1200
G1 X94.974 Y8.358 Z0 F1200
G1 X95 Y8 Z0 F1200
G1 X94.974 Y7.642 Z0 F1200
G1 X94.898 Y7.295 Z0 F1200
G1 X94.775 Y6.959 Z0 F1200
G1 X94.607 Y6.638 Z0 F1200
G1 X94.397 Y6.332 Z0 F1200
G1 X94.146 Y6.043 Z0 F1200
G1 X93.858 Y5.774 Z0 F1200
G1 X93.536 Y5.525 Z0 F1200
G1 X93.18 Y5.299 Z0 F1200
G1 X92.796 Y5.098 Z0 F1200
G1 X92.383 Y4.922 Z0 F1200
G1 X91.946 Y4.775 Z0 F1200
G1 X91.487 Y4.657 Z0 F1200
G1 X91.008 Y4.571 Z0 F1200
G1 X90.511 Y4.518 Z0 F1200
G1 X90 Y4.5 Z0 F1200
G1 X89.489 Y4.518 Z0 F1200
G1 X88.992 Y4.571 Z0 F1200
G1 X88.513 Y4.657 Z0 F1200
G1 X88.054 Y4.775 Z0 F1200
G1 X87.617 Y4.922 Z0 F1200
G1 X87.204 Y5.098 Z0 F1200
G1 X86.82 Y5.299 Z0 F1200
G1 X86.464 Y5.525 Z0 F1200
G1 X86.142 Y5.774 Z0 F1200
G1 X85.854 Y6.043 Z0 F1200
G1 X85.603 Y6.332 Z0 F1200
G1 X85.393 Y6.638 Z0 F1200
G1 X85.225 Y6.959 Z0 F1200
G1 Z7 F800;         ; Raise from color
G1 X79 Y8 Z1 F1200;     ; Movement in paint
G1 X69 Y18 Z8 F500;     ; Move in paint
G1 F1200;           ; Set feed rate
G0 Z3.5 F1000 ; Safety Lift
G0 X57.782 Y33.178 F1200 ; Return to pos
; --- FIX Y Backlash ---
G0 X57.782 Y33.978 F1200
G0 X56.861 Y34.073 Z4.8 F1500
G1 Z0 F1500
; --- FIX X Backlash ---
G0 X57.661 Y34.073 F1200
; --- FIX Y Backlash ---
G0 X57.661 Y33.273 F1200
G1 X58.743 Y30.878 Z0 F1500
G1 X59.847 Y28.497 Z0 F1500
G1 X60.976 Y26.137 Z0 F1500
G1 X62.132 Y23.801 Z0 F1500
; --- FIX Y Backlash ---
G0 X62.132 Y24.601 F1200
G1 X64.142 Y26.05 Z0 F1500
G1 X66.123 Y27.577 Z0 F1500
G1 X68.07 Y29.177 Z0 F1500
G1 X69.984 Y30.845 Z0 F1500
G1 X71.86 Y32.579 Z0 F1500
G1 X73.696 Y34.372 Z0 F1500
G1 X75.49 Y36.221 Z0 F1500
G1 X77.24 Y38.122 Z0 F1500
; --- FIX X Backlash ---
G0 X76.44 Y38.122 F1200
G1 X74.734 Y44.043 Z0 F1500
G1 X73.073 Y50.054 Z0 F1500
G1 X71.462 Y56.145 Z0 F1500
G1 X69.905 Y62.304 Z0 F1500
; --- FIX Y Backlash ---
G0 X69.905 Y61.504 F1200
G1 X67.842 Y58.57 Z0 F1500
G1 X65.708 Y55.69 Z0 F1500
G1 X64.616 Y54.275 Z0 F1500
G1 X63.509 Y52.88 Z0 F1500
G1 X62.388 Y51.505 Z0 F1500
G1 X61.253 Y50.154 Z0 F1500
; --- FIX Y Backlash ---
G0 X61.253 Y50.954 F1200
G1 X60.38 Y54.367 Z0 F1500
; --- FIX X Backlash ---
G0 X61.18 Y54.367 F1200
G1 X63.188 Y56.603 Z0 F1500
G1 X65.159 Y58.898 Z0 F1500
G1 X67.084 Y61.243 Z0 F1500
G1 X68.958 Y63.627 Z0 F1500
; --- FIX X Backlash ---
G0 X68.158 Y63.627 F1200
G1 X66.942 Y65.532 Z0 F1500
; --- FIX X Backlash ---
G0 X67.742 Y65.532 F1200
G1 X68.501 Y68.39 Z0 F1500
G1 X69.233 Y71.247 Z0 F1500
G1 X69.94 Y74.104 Z0 F1500
G1 X70.625 Y76.962 Z0 F1500
; --- FIX X Backlash ---
G0 X69.825 Y76.962 F1200
; --- FIX Y Backlash ---
G0 X69.825 Y76.162 F1200
G1 X67.926 Y73.39 Z0 F1500
G1 X65.96 Y70.639 Z0 F1500
G1 X63.932 Y67.924 Z0 F1500
G1 X61.845 Y65.258 Z0 F1500
G1 X59.702 Y62.655 Z0 F1500
G1 X57.506 Y60.13 Z0 F1500
G1 X56.39 Y58.9 Z0 F1500
G1 X55.262 Y57.695 Z0 F1500
G1 X54.122 Y56.516 Z0 F1500
G1 X52.971 Y55.366 Z0 F1500
; --- FIX X Backlash ---
G0 X53.771 Y55.366 F1200
G1 X55.174 Y54.906 Z0 F1500
G1 X56.576 Y54.466 Z0 F1500
G1 X58.317 Y50.692 Z0 F1500
G1 X60.128 Y46.955 Z0 F1500
G1 X62.008 Y43.263 Z0 F1500
G1 X63.958 Y39.623 Z0 F1500
; --- FIX Y Backlash ---
G0 X63.958 Y40.423 F1200
G1 X65.173 Y43.493 Z0 F1500
G1 X66.355 Y46.588 Z0 F1500
G1 X67.504 Y49.703 Z0 F1500
G1 X68.615 Y52.832 Z0 F1500
; --- FIX Y Backlash ---
G0 X68.615 Y52.032 F1200
G1 X69.418 Y49.398 Z0 F1500
G1 X70.238 Y46.777 Z0 F1500
G1 X71.074 Y44.17 Z0 F1500
G1 X71.922 Y41.581 Z0 F1500
; --- FIX X Backlash ---
G0 X71.122 Y41.581 F1200
G1 X69.817 Y39.429 Z0 F1500
G1 X68.483 Y37.298 Z0 F1500
G1 X67.118 Y35.193 Z0 F1500
G1 X65.724 Y33.115 Z0 F1500
; --- FIX Y Backlash ---
G0 X65.724 Y33.915 F1200
G1 X64.48 Y35.323 Z0 F1500
G1 X63.247 Y36.765 Z0 F1500
G1 X62.03 Y38.238 Z0 F1500
G1 X60.829 Y39.735 Z0 F1500
; --- FIX Y Backlash ---
G0 X60.829 Y38.935 F1200
G1 X59.852 Y37.481 Z0 F1500
G1 X58.865 Y36.054 Z0 F1500
G1 X57.868 Y34.653 Z0 F1500
G1 X56.861 Y33.273 Z0 F1500
G0 Z4.8 F800
; --- FIX X Backlash ---
G0 X57.661 Y33.273 F1200
; --- FIX Y Backlash ---
G0 X57.661 Y34.073 F1200
G0 X88.629 Y67.551 Z4.8 F1500
G1 Z0 F1500
; --- FIX X Backlash ---
G0 X87.829 Y67.551 F1200
G1 X86.671 Y68.311 Z0 F1500
; --- FIX X Backlash ---
G0 X87.471 Y68.311 F1200
; --- FIX Y Backlash ---
G0 X87.471 Y67.511 F1200
G1 X88.014 Y66.626 Z0 F1500
G1 X88.771 Y65.422 Z0 F1500
; --- FIX X Backlash ---
G0 X87.971 Y65.422 F1200
; --- FIX Y Backlash ---
G0 X87.971 Y66.222 F1200
G1 X87.829 Y67.551 Z0 F1500
G0 Z4.8 F800

; Color picking sequence
G1 Z10 F1000;         ; Raise brush
G0 X86 Y5 F1200;    ; Rapid move to color 1
G1 Z10 F1000;         ; Raise brush
G0 X86 Y5 F1200;    ; Rapid move to color 1
G1 Z0 F1000;         ; Lower into color
G1 X85.102 Y7.295 Z0 S800 F1200
G1 X85.026 Y7.642 Z0 F1200
G1 X85 Y8 Z0 F1200
G1 X85.026 Y8.358 Z0 F1200
G1 X85.102 Y8.705 Z0 F1200
G1 X85.225 Y9.041 Z0 F1200
G1 X85.393 Y9.362 Z0 F1200
G1 X85.603 Y9.668 Z0 F1200
G1 X85.854 Y9.957 Z0 F1200
G1 X86.142 Y10.226 Z0 F1200
G1 X86.464 Y10.475 Z0 F1200
G1 X86.82 Y10.701 Z0 F1200
G1 X87.204 Y10.902 Z0 F1200
G1 X87.617 Y11.078 Z0 F1200
G1 X88.054 Y11.225 Z0 F1200
G1 X88.513 Y11.343 Z0 F1200
G1 X88.992 Y11.429 Z0 F1200
G1 X89.489 Y11.482 Z0 F1200
G1 X90 Y11.5 Z0 F1200
G1 X90.511 Y11.482 Z0 F1200
G1 X91.008 Y11.429 Z0 F1200
G1 X91.487 Y11.343 Z0 F1200
G1 X91.946 Y11.225 Z0 F1200
G1 X92.383 Y11.078 Z0 F1200
G1 X92.796 Y10.902 Z0 F1200
G1 X93.18 Y10.701 Z0 F1200
G1 X93.536 Y10.475 Z0 F1200
G1 X93.858 Y10.226 Z0 F1200
G1 X94.146 Y9.957 Z0 F1200
G1 X94.397 Y9.668 Z0 F1200
G1 X94.607 Y9.362 Z0 F1200
G1 X94.775 Y9.041 Z0 F1200
G1 X94.898 Y8.705 Z0 F1200
G1 X94.974 Y8.358 Z0 F1200
G1 X95 Y8 Z0 F1200
G1 X94.974 Y7.642 Z0 F1200
G1 X94.898 Y7.295 Z0 F1200
G1 X94.775 Y6.959 Z0 F1200
G1 X94.607 Y6.638 Z0 F1200
G1 X94.397 Y6.332 Z0 F1200
G1 X94.146 Y6.043 Z0 F1200
G1 X93.858 Y5.774 Z0 F1200
G1 X93.536 Y5.525 Z0 F1200
G1 X93.18 Y5.299 Z0 F1200
G1 X92.796 Y5.098 Z0 F1200
G1 X92.383 Y4.922 Z0 F1200
G1 X91.946 Y4.775 Z0 F1200
G1 X91.487 Y4.657 Z0 F1200
G1 X91.008 Y4.571 Z0 F1200
G1 X90.511 Y4.518 Z0 F1200
G1 X90 Y4.5 Z0 F1200
G1 X89.489 Y4.518 Z0 F1200
G1 X88.992 Y4.571 Z0 F1200
G1 X88.513 Y4.657 Z0 F1200
G1 X88.054 Y4.775 Z0 F1200
G1 X87.617 Y4.922 Z0 F1200
G1 X87.204 Y5.098 Z0 F1200
G1 X86.82 Y5.299 Z0 F1200
G1 X86.464 Y5.525 Z0 F1200
G1 X86.142 Y5.774 Z0 F1200
G1 X85.854 Y6.043 Z0 F1200
G1 X85.603 Y6.332 Z0 F1200
G1 X85.393 Y6.638 Z0 F1200
G1 X85.225 Y6.959 Z0 F1200
G1 Z7 F800;         ; Raise from color
G1 X79 Y8 Z1 F1200;     ; Movement in paint
G1 X69 Y18 Z8 F500;     ; Move in paint
G1 F1200;           ; Set feed rate
G0 Z3.5 F1000 ; Safety Lift
G0 X87.829 Y67.551 F1200 ; Return to pos
; --- FIX X Backlash ---
G0 X88.629 Y67.551 F1200
G0 X88.764 Y68.419 Z4.8 F1500
G1 Z0 F1500
; --- FIX X Backlash ---
G0 X87.964 Y68.419 F1200
G1 X85.725 Y69.887 Z0 F1500
G1 X84.709 Y70.584 Z0 F1500
G1 X84.13 Y70.998 Z0 F1500
; --- FIX X Backlash ---
G0 X84.93 Y70.998 F1200
; --- FIX Y Backlash ---
G0 X84.93 Y70.198 F1200
G1 X85.455 Y69.304 Z0 F1500
G1 X86.4 Y67.727 Z0 F1500
G1 X87.319 Y66.23 Z0 F1500
G1 X88.264 Y64.727 Z0 F1500
G1 X89.177 Y63.312 Z0 F1500
G1 X89.923 Y62.187 Z0 F1500
; --- FIX X Backlash ---
G0 X89.123 Y62.187 F1200
; --- FIX Y Backlash ---
G0 X89.123 Y62.987 F1200
G1 X88.506 Y68.741 Z0 F1500
; --- FIX Y Backlash ---
G0 X88.506 Y67.941 F1200
G1 X87.964 Y67.619 Z0 F1500
G0 Z4.8 F800
G0 X85.842 Y65.804 Z4.8 F1500
G1 Z0 F1500
; --- FIX X Backlash ---
G0 X86.642 Y65.804 F1200
G1 X87.587 Y64.301 Z0 F1500
G1 X88.51 Y62.87 Z0 F1500
G1 X89.441 Y61.465 Z0 F1500
G1 X90.368 Y60.105 Z0 F1500
G1 X91.059 Y59.12 Z0 F1500
; --- FIX X Backlash ---
G0 X90.259 Y59.12 F1200
; --- FIX Y Backlash ---
G0 X90.259 Y59.92 F1200
G1 X90.026 Y62.067 Z0 F1500
G1 X89.169 Y70.063 Z0 F1500
; --- FIX Y Backlash ---
G0 X89.169 Y69.263 F1200
G1 X87.986 Y68.562 Z0 F1500
; --- FIX Y Backlash ---
G0 X87.986 Y69.362 F1200
G1 X86.171 Y70.552 Z0 F1500
G1 X85.168 Y71.239 Z0 F1500
G1 X84.16 Y71.961 Z0 F1500
G1 X83.148 Y72.714 Z0 F1500
G1 X82.135 Y73.499 Z0 F1500
G1 X81.386 Y74.099 Z0 F1500
; --- FIX X Backlash ---
G0 X82.186 Y74.099 F1200
; --- FIX Y Backlash ---
G0 X82.186 Y73.299 F1200
G1 X84.776 Y68.878 Z0 F1500
G1 X85.705 Y67.329 Z0 F1500
G1 X86.642 Y65.804 Z0 F1500
G0 Z4.8 F800
; --- FIX X Backlash ---
G0 X85.842 Y65.804 F1200
G0 X76.096 Y61.486 Z4.8 F1500
G1 Z0 F1500
; --- FIX X Backlash ---
G0 X76.896 Y61.486 F1200
; --- FIX Y Backlash ---
G0 X76.896 Y62.286 F1200
G1 X77.351 Y63.892 Z0 F1500
G1 X77.812 Y65.558 Z0 F1500
; --- FIX X Backlash ---
G0 X77.012 Y65.558 F1200
; --- FIX Y Backlash ---
G0 X77.012 Y64.758 F1200
G1 X75.773 Y62.798 Z0 F1500
; --- FIX X Backlash ---
G0 X76.573 Y62.798 F1200
G1 X76.896 Y61.486 Z0 F1500
G0 Z4.8 F800
G0 X77.421 Y60.401 Z4.8 F1500
G1 Z0 F1500
; --- FIX Y Backlash ---
G0 X77.421 Y61.201 F1200
G1 X78.122 Y63.679 Z0 F1500
G1 X78.81 Y66.165 Z0 F1500
G1 X79.479 Y68.635 Z0 F1500
G1 X80.079 Y70.893 Z0 F1500
; --- FIX X Backlash ---
G0 X79.279 Y70.893 F1200
; --- FIX Y Backlash ---
G0 X79.279 Y70.093 F1200
G1 X78.464 Y68.696 Z0 F1500
G1 X76.455 Y65.375 Z0 F1500
G1 X74.914 Y62.938 Z0 F1500
; --- FIX X Backlash ---
G0 X75.714 Y62.938 F1200
G1 X76.325 Y60.46 Z0 F1500
G1 X76.839 Y58.419 Z0 F1500
; --- FIX Y Backlash ---
G0 X76.839 Y59.219 F1200
G1 X77.421 Y61.201 Z0 F1500
G0 Z4.8 F800
G0 X78.893 Y63.465 Z4.8 F1500
G1 Z0 F1500
G1 X79.582 Y65.955 Z0 F1500
G1 X80.252 Y68.429 Z0 F1500
G1 X81.834 Y74.384 Z0 F1500
; --- FIX X Backlash ---
G0 X81.034 Y74.384 F1200
G1 X80.583 Y74.758 Z0 F1500
; --- FIX Y Backlash ---
G0 X80.583 Y73.958 F1200
G1 X79.694 Y72.392 Z0 F1500
G1 X77.776 Y69.104 Z0 F1500
G1 X75.775 Y65.796 Z0 F1500
G1 X74.056 Y63.078 Z0 F1500
; --- FIX X Backlash ---
G0 X74.856 Y63.078 F1200
G1 X75.549 Y60.265 Z0 F1500
G1 X76.418 Y56.814 Z0 F1500
G1 X76.784 Y55.394 Z0 F1500
; --- FIX Y Backlash ---
G0 X76.784 Y56.194 F1200
G1 X78.184 Y60.96 Z0 F1500
G1 X78.893 Y63.465 Z0 F1500
G0 Z4.8 F800
; --- FIX Y Backlash ---
G0 X78.893 Y62.665 F1200
G0 X83.776 Y38.003 Z4.8 F1500
G1 Z0 F1500
G1 X83.904 Y37.24 Z0 F1500
; --- FIX X Backlash ---
G0 X83.104 Y37.24 F1200
G1 X82.293 Y36.158 Z0 F1500
; --- FIX X Backlash ---
G0 X83.093 Y36.158 F1200
; --- FIX Y Backlash ---
G0 X83.093 Y36.958 F1200
G1 X83.547 Y37.176 Z0 F1500
G1 X85.159 Y38.04 Z0 F1500
G1 X85.807 Y38.428 Z0 F1500
G1 X85.864 Y38.586 Z0 F1500
; --- FIX X Backlash ---
G0 X85.064 Y38.586 F1200
G1 X82.976 Y38.803 Z0 F1500
G0 Z4.8 F800
; --- FIX Y Backlash ---
G0 X82.976 Y38.003 F1200
G0 X82.258 Y37.446 Z4.8 F1500
G1 Z0 F1500
G1 X79.988 Y34.416 Z0 F1500
G1 X79.787 Y34.162 Z0 F1500
; --- FIX X Backlash ---
G0 X80.587 Y34.162 F1200
; --- FIX Y Backlash ---
G0 X80.587 Y34.962 F1200
G1 X82.221 Y35.655 Z0 F1500
G1 X83.914 Y36.464 Z0 F1500
G1 X85.549 Y37.341 Z0 F1500
G1 X86.464 Y37.889 Z0 F1500
G1 X87.555 Y40.929 Z0 F1500
G1 X88.876 Y44.792 Z0 F1500
G1 X90.101 Y48.556 Z0 F1500
G1 X91.125 Y51.875 Z0 F1500
; --- FIX X Backlash ---
G0 X90.325 Y51.875 F1200
G1 X90.164 Y53.366 Z0 F1500
; --- FIX Y Backlash ---
G0 X90.164 Y52.566 F1200
G1 X89.065 Y48.88 Z0 F1500
G1 X87.749 Y44.635 Z0 F1500
G1 X85.773 Y38.517 Z0 F1500
; --- FIX Y Backlash ---
G0 X85.773 Y39.317 F1200
G1 X82.013 Y39.707 Z0 F1500
; --- FIX X Backlash ---
G0 X82.813 Y39.707 F1200
; --- FIX Y Backlash ---
G0 X82.813 Y38.907 F1200
G1 X83.058 Y37.446 Z0 F1500
G0 Z4.8 F800
; --- FIX X Backlash ---
G0 X82.258 Y37.446 F1200
; --- FIX Y Backlash ---
G0 X82.258 Y38.246 F1200
G0 X81.725 Y41.418 Z4.8 F1500
G1 Z0 F1500
G1 X81.139 Y46.902 Z0 F1500
; --- FIX X Backlash ---
G0 X81.939 Y46.902 F1200
G1 X82.029 Y47.156 Z0 F1500
; --- FIX X Backlash ---
G0 X81.229 Y47.156 F1200
G1 X80.78 Y47.159 Z0 F1500
; --- FIX X Backlash ---
G0 X81.58 Y47.159 F1200
; --- FIX Y Backlash ---
G0 X81.58 Y46.359 F1200
G1 X81.958 Y43.991 Z0 F1500
G1 X82.525 Y40.618 Z0 F1500
G0 Z4.8 F800
; --- FIX X Backlash ---
G0 X81.725 Y40.618 F1200
G0 X81.412 Y37.651 Z4.8 F1500
G1 Z0 F1500
G1 X79.353 Y34.904 Z0 F1500
G1 X77.642 Y32.734 Z0 F1500
G1 X77.413 Y32.458 Z0 F1500
; --- FIX X Backlash ---
G0 X78.213 Y32.458 F1200
; --- FIX Y Backlash ---
G0 X78.213 Y33.258 F1200
G1 X78.979 Y33.505 Z0 F1500
G1 X80.778 Y34.174 Z0 F1500
G1 X82.547 Y34.924 Z0 F1500
G1 X84.267 Y35.747 Z0 F1500
G1 X85.959 Y36.654 Z0 F1500
G1 X87.12 Y37.348 Z0 F1500
G1 X88.32 Y40.692 Z0 F1500
G1 X89.625 Y44.51 Z0 F1500
G1 X90.873 Y48.343 Z0 F1500
G1 X91.938 Y51.797 Z0 F1500
; --- FIX X Backlash ---
G0 X91.138 Y51.797 F1200
G1 X90.522 Y57.486 Z0 F1500
; --- FIX Y Backlash ---
G0 X90.522 Y56.686 F1200
G1 X89.548 Y53.298 Z0 F1500
G1 X88.3 Y49.113 Z0 F1500
G1 X86.987 Y44.876 Z0 F1500
G1 X85.211 Y39.38 Z0 F1500
; --- FIX Y Backlash ---
G0 X85.211 Y40.18 F1200
G1 X82.633 Y40.447 Z0 F1500
G1 X81.954 Y46.806 Z0 F1500
; --- FIX X Backlash ---
G0 X82.754 Y46.806 F1200
G1 X83.16 Y47.949 Z0 F1500
; --- FIX X Backlash ---
G0 X82.36 Y47.949 F1200
G1 X80.541 Y47.96 Z0 F1500
G1 X80.034 Y51.767 Z0 F1500
; --- FIX Y Backlash ---
G0 X80.034 Y50.967 F1200
G1 X79.53 Y49.113 Z0 F1500
; --- FIX X Backlash ---
G0 X80.33 Y49.113 F1200
G1 X81.168 Y43.864 Z0 F1500
G1 X82.212 Y37.651 Z0 F1500
G0 Z4.8 F800

; Color picking sequence
G1 Z10 F1000;         ; Raise brush
G0 X86 Y5 F1200;    ; Rapid move to color 1
G1 Z10 F1000;         ; Raise brush
G0 X86 Y5 F1200;    ; Rapid move to color 1
G1 Z0 F1000;         ; Lower into color
G1 X85.102 Y7.295 Z0 S800 F1200
G1 X85.026 Y7.642 Z0 F1200
G1 X85 Y8 Z0 F1200
G1 X85.026 Y8.358 Z0 F1200
G1 X85.102 Y8.705 Z0 F1200
G1 X85.225 Y9.041 Z0 F1200
G1 X85.393 Y9.362 Z0 F1200
G1 X85.603 Y9.668 Z0 F1200
G1 X85.854 Y9.957 Z0 F1200
G1 X86.142 Y10.226 Z0 F1200
G1 X86.464 Y10.475 Z0 F1200
G1 X86.82 Y10.701 Z0 F1200
G1 X87.204 Y10.902 Z0 F1200
G1 X87.617 Y11.078 Z0 F1200
G1 X88.054 Y11.225 Z0 F1200
G1 X88.513 Y11.343 Z0 F1200
G1 X88.992 Y11.429 Z0 F1200
G1 X89.489 Y11.482 Z0 F1200
G1 X90 Y11.5 Z0 F1200
G1 X90.511 Y11.482 Z0 F1200
G1 X91.008 Y11.429 Z0 F1200
G1 X91.487 Y11.343 Z0 F1200
G1 X91.946 Y11.225 Z0 F1200
G1 X92.383 Y11.078 Z0 F1200
G1 X92.796 Y10.902 Z0 F1200
G1 X93.18 Y10.701 Z0 F1200
G1 X93.536 Y10.475 Z0 F1200
G1 X93.858 Y10.226 Z0 F1200
G1 X94.146 Y9.957 Z0 F1200
G1 X94.397 Y9.668 Z0 F1200
G1 X94.607 Y9.362 Z0 F1200
G1 X94.775 Y9.041 Z0 F1200
G1 X94.898 Y8.705 Z0 F1200
G1 X94.974 Y8.358 Z0 F1200
G1 X95 Y8 Z0 F1200
G1 X94.974 Y7.642 Z0 F1200
G1 X94.898 Y7.295 Z0 F1200
G1 X94.775 Y6.959 Z0 F1200
G1 X94.607 Y6.638 Z0 F1200
G1 X94.397 Y6.332 Z0 F1200
G1 X94.146 Y6.043 Z0 F1200
G1 X93.858 Y5.774 Z0 F1200
G1 X93.536 Y5.525 Z0 F1200
G1 X93.18 Y5.299 Z0 F1200
G1 X92.796 Y5.098 Z0 F1200
G1 X92.383 Y4.922 Z0 F1200
G1 X91.946 Y4.775 Z0 F1200
G1 X91.487 Y4.657 Z0 F1200
G1 X91.008 Y4.571 Z0 F1200
G1 X90.511 Y4.518 Z0 F1200
G1 X90 Y4.5 Z0 F1200
G1 X89.489 Y4.518 Z0 F1200
G1 X88.992 Y4.571 Z0 F1200
G1 X88.513 Y4.657 Z0 F1200
G1 X88.054 Y4.775 Z0 F1200
G1 X87.617 Y4.922 Z0 F1200
G1 X87.204 Y5.098 Z0 F1200
G1 X86.82 Y5.299 Z0 F1200
G1 X86.464 Y5.525 Z0 F1200
G1 X86.142 Y5.774 Z0 F1200
G1 X85.854 Y6.043 Z0 F1200
G1 X85.603 Y6.332 Z0 F1200
G1 X85.393 Y6.638 Z0 F1200
G1 X85.225 Y6.959 Z0 F1200
G1 Z7 F800;         ; Raise from color
G1 X79 Y8 Z1 F1200;     ; Movement in paint
G1 X69 Y18 Z8 F500;     ; Move in paint
G1 F1200;           ; Set feed rate
G0 Z3.5 F1000 ; Safety Lift
G0 X82.212 Y37.651 F1200 ; Return to pos
; --- FIX Y Backlash ---
G0 X82.212 Y38.451 F1200
G0 X82.743 Y49.551 Z4.8 F1500
G1 Z0 F1500
; --- FIX X Backlash ---
G0 X81.943 Y49.551 F1200
G1 X81.563 Y52.409 Z0 F1500
G1 X81.202 Y55.267 Z0 F1500
; --- FIX X Backlash ---
G0 X82.002 Y55.267 F1200
G1 X82.916 Y56.156 Z0 F1500
G1 X83.828 Y57.065 Z0 F1500
; --- FIX X Backlash ---
G0 X83.028 Y57.065 F1200
; --- FIX Y Backlash ---
G0 X83.028 Y56.265 F1200
G1 X82.496 Y52.528 Z0 F1500
G1 X81.943 Y48.751 Z0 F1500
G0 Z4.8 F800
G0 X81.242 Y47.956 Z4.8 F1500
G1 Z0 F1500
; --- FIX Y Backlash ---
G0 X81.242 Y48.756 F1200
G1 X80.769 Y52.306 Z0 F1500
G1 X80.359 Y55.562 Z0 F1500
; --- FIX X Backlash ---
G0 X81.159 Y55.562 F1200
G1 X82.351 Y56.723 Z0 F1500
G1 X83.671 Y58.039 Z0 F1500
; --- FIX Y Backlash ---
G0 X83.671 Y57.239 F1200
G1 X84.701 Y56.723 Z0 F1500
; --- FIX X Backlash ---
G0 X83.901 Y56.723 F1200
G1 X83.288 Y52.414 Z0 F1500
G1 X82.634 Y47.947 Z0 F1500
G1 X81.242 Y47.956 Z0 F1500
G0 Z4.8 F800
; --- FIX X Backlash ---
G0 X82.042 Y47.956 F1200
; --- FIX Y Backlash ---
G0 X82.042 Y48.756 F1200
G0 X82.463 Y57.964 Z4.8 F1500
G1 Z0 F1500
G1 X83.515 Y59.012 Z0 F1500
; --- FIX Y Backlash ---
G0 X83.515 Y58.212 F1200
G1 X84.954 Y57.491 Z0 F1500
; --- FIX X Backlash ---
G0 X84.154 Y57.491 F1200
; --- FIX Y Backlash ---
G0 X84.154 Y58.291 F1200
G1 X83.055 Y60.241 Z0 F1500
G1 X82.49 Y61.273 Z0 F1500
; --- FIX Y Backlash ---
G0 X82.49 Y60.473 F1200
G1 X81.663 Y57.164 Z0 F1500
G0 Z4.8 F800
; --- FIX X Backlash ---
G0 X82.463 Y57.164 F1200
G0 X84.836 Y52.007 Z4.8 F1500
G1 Z0 F1500
; --- FIX Y Backlash ---
G0 X84.836 Y52.807 F1200
G1 X85.447 Y54.646 Z0 F1500
G1 X86.028 Y56.431 Z0 F1500
; --- FIX X Backlash ---
G0 X85.228 Y56.431 F1200
G1 X84.687 Y57.363 Z0 F1500
; --- FIX Y Backlash ---
G0 X84.687 Y56.563 F1200
G1 X84.079 Y52.3 Z0 F1500
G1 X84.036 Y52.007 Z0 F1500
G0 Z4.8 F800
G0 X83.721 Y48.592 Z4.8 F1500
G1 Z0 F1500
; --- FIX X Backlash ---
G0 X84.521 Y48.592 F1200
; --- FIX Y Backlash ---
G0 X84.521 Y49.392 F1200
G1 X85.377 Y51.897 Z0 F1500
G1 X86.205 Y54.389 Z0 F1500
G1 X86.899 Y56.523 Z0 F1500
; --- FIX X Backlash ---
G0 X86.099 Y56.523 F1200
G1 X85.021 Y58.381 Z0 F1500
G1 X83.754 Y60.629 Z0 F1500
G1 X82.482 Y62.952 Z0 F1500
G1 X82.2 Y63.481 Z0 F1500
; --- FIX Y Backlash ---
G0 X82.2 Y62.681 F1200
G1 X81.76 Y60.854 Z0 F1500
G1 X80.781 Y56.931 Z0 F1500
G1 X79.75 Y52.973 Z0 F1500
G1 X78.713 Y49.158 Z0 F1500
; --- FIX X Backlash ---
G0 X79.513 Y49.158 F1200
G1 X80.377 Y43.744 Z0 F1500
G1 X81.367 Y37.857 Z0 F1500
; --- FIX X Backlash ---
G0 X80.567 Y37.857 F1200
G1 X78.719 Y35.392 Z0 F1500
G1 X77.019 Y33.237 Z0 F1500
G1 X75.275 Y31.127 Z0 F1500
G1 X75.118 Y30.946 Z0 F1500
; --- FIX X Backlash ---
G0 X75.918 Y30.946 F1200
; --- FIX Y Backlash ---
G0 X75.918 Y31.746 F1200
G1 X77.369 Y32.145 Z0 F1500
G1 X79.231 Y32.745 Z0 F1500
G1 X81.075 Y33.431 Z0 F1500
G1 X82.878 Y34.195 Z0 F1500
G1 X84.633 Y35.035 Z0 F1500
G1 X86.344 Y35.953 Z0 F1500
G1 X87.776 Y36.809 Z0 F1500
G1 X89.069 Y40.411 Z0 F1500
G1 X90.386 Y44.263 Z0 F1500
G1 X91.63 Y48.084 Z0 F1500
G1 X92.752 Y51.72 Z0 F1500
