G90 ; Force absolute mode
;LightBurn 1.6.04
;Custom GCode device profile, absolute coords
;Bounds: X26.92 Y27.83 to X123.08 Y62.17
G00 G17 G40 G21 G54
M3
G1 Z10 F500
;Cut @ 1500 mm/min, 80% power

M8
G0 Z3.5 F500
G0 X26.952 Y37.387 Z3.5
G1 Z0 F500
;Layer C1
G1 X26.924 Y37.449 Z0 S800 F800
G1 X26.927 Y37.54 Z0 F800
G1 X26.975 Y37.76 Z0 F800
G1 X26.988 Y37.947 Z0 F800
G1 X28.095 Y44.962 Z0 F800
G1 X28.673 Y48.456 Z0 F800
G1 X29.302 Y51.914 Z0 F800
G1 X30.524 Y52.055 Z0 F800
G1 X31.757 Y52.144 Z0 F800
G1 X32.999 Y52.19 Z0 F800
G1 X34.245 Y52.198 Z0 F800
; --- FIX Y Backlash ---
G0 X34.245 Y50.998 F1200
G1 X36.737 Y50.929 Z0 F800
G1 X39.205 Y50.795 Z0 F800
G1 X39.263 Y50.312 Z0 F800
G1 X39.27 Y49.891 Z0 F800
G1 X39.228 Y49.527 Z0 F800
; --- FIX X Backlash ---
G0 X38.128 Y49.527 F1200
G1 X38.041 Y49.217 Z0 F800
G1 X37.912 Y48.956 Z0 F800
G1 X37.744 Y48.741 Z0 F800
G1 X37.54 Y48.568 Z0 F800
G1 X37.305 Y48.433 Z0 F800
G1 X37.041 Y48.332 Z0 F800
G1 X36.752 Y48.261 Z0 F800
G1 X36.44 Y48.215 Z0 F800
G1 X36.11 Y48.192 Z0 F800
G1 X35.407 Z0 F800
G1 X34.669 Y48.237 Z0 F800
; --- FIX Y Backlash ---
G0 X34.669 Y49.437 F1200
G1 X33.924 Y49.489 Z0 F800
G1 X33.197 Y49.517 Z0 F800
G1 X32.849 Y49.513 Z0 F800
G1 X32.516 Y49.491 Z0 F800
G1 X32.201 Y49.447 Z0 F800
; --- FIX Y Backlash ---
G0 X32.201 Y48.247 F1200
G1 X31.907 Y48.177 Z0 F800
G1 X31.637 Y48.078 Z0 F800
G1 X31.396 Y47.946 Z0 F800
G1 X31.187 Y47.775 Z0 F800
G1 X31.012 Y47.564 Z0 F800
G1 X30.875 Y47.307 Z0 F800
G1 X30.779 Y47 Z0 F800
G1 X30.728 Y46.64 Z0 F800
G1 Y46.223 Z0 F800
G1 X30.677 Y45.955 Z0 F800
G1 X30.666 Y45.722 Z0 F800
G1 X30.69 Y45.519 Z0 F800
; --- FIX X Backlash ---
G0 X31.79 Y45.519 F1200
G1 X31.848 Y45.346 Z0 F800
G1 X31.937 Y45.2 Z0 F800
G1 X32.054 Y45.08 Z0 F800
G1 X32.197 Y44.983 Z0 F800
G1 X32.364 Y44.907 Z0 F800
G1 X32.761 Y44.81 Z0 F800
G1 X33.225 Y44.773 Z0 F800
G1 X33.737 Y44.78 Z0 F800
G1 X34.279 Y44.814 Z0 F800
G1 X34.833 Y44.86 Z0 F800
G1 X35.379 Y44.899 Z0 F800
G1 X35.899 Y44.917 Z0 F800
G1 X36.375 Y44.897 Z0 F800
G1 X36.589 Y44.868 Z0 F800
G1 X36.786 Y44.823 Z0 F800
G1 X36.962 Y44.76 Z0 F800
G1 X37.116 Y44.677 Z0 F800
G1 X37.244 Y44.573 Z0 F800
G1 X37.345 Y44.444 Z0 F800
G1 X37.415 Y44.29 Z0 F800
G1 X37.454 Y44.107 Z0 F800
G1 X37.508 Y43.7 Z0 F800
G1 Y43.355 Z0 F800
G1 X37.464 Y43.068 Z0 F800
; --- FIX X Backlash ---
G0 X36.364 Y43.068 F1200
G1 X36.274 Y42.834 Z0 F800
G1 X36.144 Y42.647 Z0 F800
G1 X35.979 Y42.502 Z0 F800
G1 X35.782 Y42.395 Z0 F800
G1 X35.559 Y42.32 Z0 F800
G1 X35.05 Y42.248 Z0 F800
G1 X34.484 Y42.244 Z0 F800
G1 X33.898 Y42.269 Z0 F800
G1 X33.326 Y42.282 Z0 F800
; --- FIX Y Backlash ---
G0 X33.326 Y43.482 F1200
G1 X32.961 Y43.585 Z0 F800
G1 X32.62 Y43.657 Z0 F800
G1 X32.303 Y43.7 Z0 F800
G1 X32.008 Y43.715 Z0 F800
G1 X31.734 Y43.703 Z0 F800
G1 X31.481 Y43.666 Z0 F800
; --- FIX Y Backlash ---
G0 X31.481 Y42.466 F1200
G1 X31.248 Y42.406 Z0 F800
G1 X31.034 Y42.322 Z0 F800
G1 X30.837 Y42.216 Z0 F800
G1 X30.657 Y42.091 Z0 F800
G1 X30.494 Y41.946 Z0 F800
G1 X30.345 Y41.783 Z0 F800
G1 X30.091 Y41.409 Z0 F800
G1 X29.886 Y40.977 Z0 F800
G1 X29.725 Y40.499 Z0 F800
G1 X29.599 Y39.984 Z0 F800
G1 X29.502 Y39.442 Z0 F800
G1 X29.426 Y38.883 Z0 F800
G1 X29.311 Y37.753 Z0 F800
G1 X29.195 Y36.673 Z0 F800
G1 X29.132 Y36.496 Z0 F800
G1 X29.032 Y36.36 Z0 F800
G1 X28.899 Y36.26 Z0 F800
G1 X28.738 Y36.192 Z0 F800
G1 X28.346 Y36.132 Z0 F800
G1 X27.889 Y36.144 Z0 F800
; --- FIX Y Backlash ---
G0 X27.889 Y37.344 F1200
G1 X26.908 Y37.441 Z0 F800
G1 X26.45 Y37.455 Z0 F800
; --- FIX Y Backlash ---
G0 X26.45 Y36.255 F1200
G1 X26.056 Y36.197 Z0 F800
G1 X25.925 Y36.165 Z0 F800
G1 X25.852 Y36.187 Z0 F800
G0 Z3.5 F500
; --- FIX X Backlash ---
G0 X26.952 Y36.187 F1200
; --- FIX Y Backlash ---
G0 X26.952 Y37.387 F1200
G0 X38.602 Y37.593 Z3.5 F1500
G1 Z0 F500
G1 X38.638 Y37.943 Z0 F800
G1 X39.177 Y41.381 Z0 F800
G1 X39.744 Y44.81 Z0 F800
G1 X40.301 Y48.237 Z0 F800
G1 X40.809 Y51.669 Z0 F800
G1 X41.24 Y51.926 Z0 F800
G1 X41.661 Y52.117 Z0 F800
G1 X42.066 Y52.243 Z0 F800
G1 X42.452 Y52.307 Z0 F800
G1 X42.812 Y52.312 Z0 F800
; --- FIX Y Backlash ---
G0 X42.812 Y51.112 F1200
G1 X43.142 Y51.059 Z0 F800
G1 X43.437 Y50.952 Z0 F800
G1 X43.692 Y50.793 Z0 F800
G1 X43.903 Y50.584 Z0 F800
G1 X44.063 Y50.327 Z0 F800
G1 X44.17 Y50.026 Z0 F800
G1 X44.216 Y49.681 Z0 F800
G1 X44.199 Y49.297 Z0 F800
; --- FIX X Backlash ---
G0 X43.099 Y49.297 F1200
G1 X43.012 Y48.875 Z0 F800
G1 X42.852 Y48.417 Z0 F800
G1 X42.612 Y47.926 Z0 F800
G1 X42.139 Y45.008 Z0 F800
G1 X41.651 Y42.092 Z0 F800
G1 X41.179 Y39.178 Z0 F800
G1 X40.759 Y36.262 Z0 F800
G1 X40.361 Y36.286 Z0 F800
G1 X39.92 Y36.271 Z0 F800
G1 X39.456 Y36.235 Z0 F800
G1 X38.989 Y36.197 Z0 F800
G1 X38.54 Y36.175 Z0 F800
G1 X38.129 Y36.188 Z0 F800
G1 X37.944 Y36.213 Z0 F800
G1 X37.777 Y36.254 Z0 F800
; --- FIX Y Backlash ---
G0 X37.777 Y37.454 F1200
G1 X37.628 Y37.513 Z0 F800
G1 X37.502 Y37.593 Z0 F800
G0 Z3.5 F500
; --- FIX X Backlash ---
G0 X38.602 Y37.593 F1200
G0 X44.704 Y38.793 Z3.5
G1 Z0 F500
; --- FIX Y Backlash ---
G0 X44.704 Y37.593 F1200
G1 X44.93 Y37.204 Z0 F800
G1 X45.198 Y36.872 Z0 F800
G1 X45.503 Y36.594 Z0 F800
G1 X45.841 Y36.369 Z0 F800
G1 X46.205 Y36.194 Z0 F800
G1 X46.591 Y36.067 Z0 F800
G1 X46.993 Y35.986 Z0 F800
G1 X47.407 Y35.948 Z0 F800
G1 X47.826 Y35.951 Z0 F800
G1 X48.246 Y35.993 Z0 F800
; --- FIX Y Backlash ---
G0 X48.246 Y37.193 F1200
G1 X48.662 Y37.272 Z0 F800
G1 X49.068 Y37.385 Z0 F800
G1 X49.46 Y37.531 Z0 F800
G1 X49.831 Y37.706 Z0 F800
G1 X50.177 Y37.909 Z0 F800
G1 X50.492 Y38.138 Z0 F800
G1 X50.656 Y38.405 Z0 F800
G1 X50.797 Y38.624 Z0 F800
G1 X50.918 Y38.798 Z0 F800
G1 X51.021 Y38.929 Z0 F800
G1 X51.106 Y39.02 Z0 F800
G1 X51.176 Y39.075 Z0 F800
G1 X51.233 Y39.095 Z0 F800
G1 X51.278 Y39.085 Z0 F800
; --- FIX Y Backlash ---
G0 X51.278 Y37.885 F1200
G1 X51.339 Y37.784 Z0 F800
G1 X51.373 Y37.595 Z0 F800
G1 X51.393 Y37.341 Z0 F800
G1 X51.414 Y37.045 Z0 F800
G1 X51.449 Y36.731 Z0 F800
G1 X51.512 Y36.423 Z0 F800
G1 X51.616 Y36.144 Z0 F800
G1 X51.774 Y35.916 Z0 F800
G1 X51.879 Y35.83 Z0 F800
G1 X52.001 Y35.765 Z0 F800
G1 X52.145 Y35.725 Z0 F800
G1 X52.311 Y35.713 Z0 F800
G1 X52.5 Y35.731 Z0 F800
; --- FIX Y Backlash ---
G0 X52.5 Y36.931 F1200
G1 X52.715 Y36.983 Z0 F800
G1 X52.958 Y37.071 Z0 F800
G1 X53.23 Y37.199 Z0 F800
G1 X53.483 Y37.256 Z0 F800
G1 X53.713 Y37.337 Z0 F800
G1 X53.921 Y37.439 Z0 F800
G1 X54.109 Y37.563 Z0 F800
G1 X54.427 Y37.868 Z0 F800
G1 X54.677 Y38.242 Z0 F800
G1 X54.868 Y38.677 Z0 F800
G1 X55.01 Y39.162 Z0 F800
G1 X55.112 Y39.688 Z0 F800
G1 X55.183 Y40.245 Z0 F800
G1 X55.273 Y41.416 Z0 F800
G1 X55.354 Y42.598 Z0 F800
G1 X55.416 Y43.17 Z0 F800
G1 X55.503 Y43.716 Z0 F800
G1 X55.627 Y44.226 Z0 F800
G1 X55.795 Y44.692 Z0 F800
G1 X56.063 Y45.549 Z0 F800
G1 X56.241 Y46.378 Z0 F800
G1 X56.286 Y46.768 Z0 F800
G1 X56.295 Y47.136 Z0 F800
G1 X56.265 Y47.475 Z0 F800
; --- FIX X Backlash ---
G0 X55.165 Y47.475 F1200
G1 X55.092 Y47.782 Z0 F800
G1 X54.97 Y48.049 Z0 F800
G1 X54.797 Y48.273 Z0 F800
G1 X54.567 Y48.447 Z0 F800
G1 X54.277 Y48.568 Z0 F800
G1 X53.922 Y48.628 Z0 F800
G1 X53.499 Y48.624 Z0 F800
G1 X53.26 Y48.596 Z0 F800
G1 X53.002 Y48.55 Z0 F800
; --- FIX Y Backlash ---
G0 X53.002 Y47.35 F1200
G1 X52.725 Y47.285 Z0 F800
G1 X52.428 Y47.2 Z0 F800
G1 X52.148 Y46.969 Z0 F800
G1 X51.919 Y46.685 Z0 F800
G1 X51.735 Y46.353 Z0 F800
G1 X51.589 Y45.98 Z0 F800
G1 X51.476 Y45.573 Z0 F800
G1 X51.39 Y45.136 Z0 F800
G1 X51.325 Y44.676 Z0 F800
G1 X51.275 Y44.199 Z0 F800
G1 X51.193 Y43.218 Z0 F800
G1 X51.099 Y42.243 Z0 F800
G1 X51.032 Y41.772 Z0 F800
G1 X50.943 Y41.32 Z0 F800
G1 X50.827 Y40.894 Z0 F800
G1 X50.677 Y40.5 Z0 F800
G1 X50.653 Y40.285 Z0 F800
G1 X50.606 Y40.085 Z0 F800
G1 X50.538 Y39.898 Z0 F800
G1 X50.449 Y39.725 Z0 F800
G1 X50.22 Y39.421 Z0 F800
G1 X49.933 Y39.174 Z0 F800
G1 X49.601 Y38.984 Z0 F800
G1 X49.239 Y38.852 Z0 F800
G1 X48.86 Y38.779 Z0 F800
G1 X48.479 Y38.765 Z0 F800
G1 X48.11 Y38.811 Z0 F800
; --- FIX Y Backlash ---
G0 X48.11 Y40.011 F1200
G1 X47.767 Y40.119 Z0 F800
G1 X47.463 Y40.287 Z0 F800
G1 X47.213 Y40.518 Z0 F800
G1 X47.113 Y40.657 Z0 F800
G1 X47.031 Y40.812 Z0 F800
G1 X46.969 Y40.982 Z0 F800
G1 X46.93 Y41.169 Z0 F800
G1 X46.915 Y41.371 Z0 F800
G1 X46.925 Y41.59 Z0 F800
G1 X46.963 Y41.825 Z0 F800
; --- FIX X Backlash ---
G0 X48.063 Y41.825 F1200
G1 X48.13 Y42.076 Z0 F800
G1 X48.108 Y42.548 Z0 F800
G1 X48.156 Y43.075 Z0 F800
G1 X48.256 Y43.641 Z0 F800
G1 X48.391 Y44.234 Z0 F800
G1 X48.696 Y45.445 Z0 F800
G1 X48.936 Y46.596 Z0 F800
G1 X48.989 Y47.115 Z0 F800
G1 X48.973 Y47.577 Z0 F800
G1 X48.935 Y47.783 Z0 F800
; --- FIX X Backlash ---
G0 X47.835 Y47.783 F1200
G1 X47.773 Y47.97 Z0 F800
G1 X47.686 Y48.136 Z0 F800
G1 X47.571 Y48.279 Z0 F800
G1 X47.426 Y48.397 Z0 F800
G1 X47.25 Y48.49 Z0 F800
G1 X47.039 Y48.555 Z0 F800
G1 X46.792 Y48.59 Z0 F800
G1 X46.507 Y48.594 Z0 F800
G1 X46.181 Y48.564 Z0 F800
; --- FIX Y Backlash ---
G0 X46.181 Y47.364 F1200
G1 X45.813 Y47.3 Z0 F800
G1 X45.4 Y47.2 Z0 F800
G1 X44.698 Y47.173 Z0 F800
G1 X44.641 Y47.148 Z0 F800
G1 X44.464 Y45.963 Z0 F800
G1 X44.223 Y44.772 Z0 F800
G1 X43.956 Y43.577 Z0 F800
G1 X43.702 Y42.38 Z0 F800
G1 X43.5 Y41.182 Z0 F800
G1 X43.391 Y39.983 Z0 F800
G1 X43.383 Y39.385 Z0 F800
G1 X43.412 Y38.787 Z0 F800
; --- FIX X Backlash ---
G0 X44.512 Y38.787 F1200
G1 X44.585 Y38.189 Z0 F800
G1 X44.704 Y37.593 Z0 F800
G0 Z3.5 F500
G0 X56.583 Y36.136 Z3.5
G1 Z0 F500
G1 X56.936 Y35.996 Z0 F800
G1 X57.266 Y35.886 Z0 F800
G1 X57.575 Y35.805 Z0 F800
G1 X57.863 Y35.751 Z0 F800
G1 X58.131 Y35.725 Z0 F800
G1 X58.38 Z0 F800
G1 X58.611 Y35.748 Z0 F800
G1 X58.825 Y35.795 Z0 F800
; --- FIX Y Backlash ---
G0 X58.825 Y36.995 F1200
G1 X59.203 Y37.154 Z0 F800
G1 X59.52 Y37.392 Z0 F800
G1 X59.785 Y37.701 Z0 F800
G1 X60.002 Y38.07 Z0 F800
G1 X60.178 Y38.49 Z0 F800
G1 X60.32 Y38.952 Z0 F800
G1 X60.435 Y39.447 Z0 F800
G1 X60.528 Y39.965 Z0 F800
G1 X60.677 Y41.034 Z0 F800
G1 X60.818 Y42.084 Z0 F800
; --- FIX X Backlash ---
G0 X59.718 Y42.084 F1200
G1 X59.665 Y42.453 Z0 F800
G1 X59.678 Y42.869 Z0 F800
; --- FIX X Backlash ---
G0 X60.778 Y42.869 F1200
G1 X60.845 Y43.324 Z0 F800
G1 X60.953 Y43.808 Z0 F800
G1 X61.241 Y44.824 Z0 F800
G1 X61.536 Y45.841 Z0 F800
G1 X61.655 Y46.327 Z0 F800
G1 X61.737 Y46.783 Z0 F800
G1 X61.77 Y47.202 Z0 F800
G1 X61.74 Y47.574 Z0 F800
G1 X61.698 Y47.739 Z0 F800
; --- FIX X Backlash ---
G0 X60.598 Y47.739 F1200
G1 X60.535 Y47.889 Z0 F800
G1 X60.45 Y48.022 Z0 F800
G1 X60.342 Y48.137 Z0 F800
G1 X60.208 Y48.233 Z0 F800
G1 X60.047 Y48.309 Z0 F800
G1 X59.858 Y48.363 Z0 F800
G1 X59.638 Y48.395 Z0 F800
G1 X58.472 Y48.406 Z0 F800
G1 X57.889 Y48.394 Z0 F800
G1 X57.313 Y48.348 Z0 F800
; --- FIX Y Backlash ---
G0 X57.313 Y47.148 F1200
G1 X56.386 Y41.653 Z0 F800
G1 X55.483 Y36.136 Z0 F800
G0 Z3.5 F500
; --- FIX X Backlash ---
G0 X56.583 Y36.136 F1200
; --- FIX Y Backlash ---
G0 X56.583 Y37.336 F1200
G0 X66.158 Y40.699 Z3.5
G1 Z0 F500
; --- FIX X Backlash ---
G0 X65.058 Y40.699 F1200
G1 X64.885 Y41.022 Z0 F800
G1 X64.78 Y41.378 Z0 F800
G1 X64.752 Y41.764 Z0 F800
G1 X64.771 Y41.966 Z0 F800
G1 X64.813 Y42.173 Z0 F800
; --- FIX X Backlash ---
G0 X65.913 Y42.173 F1200
G1 X65.979 Y42.385 Z0 F800
G1 X66.072 Y42.601 Z0 F800
G1 X66.108 Y43.174 Z0 F800
G1 X66.235 Y43.753 Z0 F800
G1 X66.447 Y44.314 Z0 F800
G1 X66.741 Y44.831 Z0 F800
G1 X66.918 Y45.065 Z0 F800
G1 X67.113 Y45.278 Z0 F800
G1 X67.327 Y45.467 Z0 F800
G1 X67.559 Y45.629 Z0 F800
G1 X67.809 Y45.762 Z0 F800
G1 X68.075 Y45.86 Z0 F800
G1 X68.358 Y45.923 Z0 F800
G1 X68.657 Y45.945 Z0 F800
; --- FIX Y Backlash ---
G0 X68.657 Y44.745 F1200
G1 X69.079 Y44.665 Z0 F800
G1 X69.437 Y44.517 Z0 F800
G1 X69.733 Y44.311 Z0 F800
G1 X69.973 Y44.053 Z0 F800
G1 X70.158 Y43.75 Z0 F800
G1 X70.292 Y43.412 Z0 F800
G1 X70.379 Y43.044 Z0 F800
G1 X70.422 Y42.655 Z0 F800
G1 Y42.253 Z0 F800
G1 X70.388 Y41.844 Z0 F800
; --- FIX X Backlash ---
G0 X69.288 Y41.844 F1200
G1 X69.219 Y41.437 Z0 F800
G1 X69.119 Y41.038 Z0 F800
G1 X68.991 Y40.657 Z0 F800
G1 X68.84 Y40.299 Z0 F800
G1 X68.667 Y39.973 Z0 F800
G1 X68.477 Y39.687 Z0 F800
G1 X68.365 Y39.478 Z0 F800
G1 X68.24 Y39.292 Z0 F800
G1 X68.103 Y39.129 Z0 F800
G1 X67.956 Y38.988 Z0 F800
G1 X67.638 Y38.77 Z0 F800
G1 X67.295 Y38.633 Z0 F800
G1 X66.937 Y38.571 Z0 F800
G1 X66.575 Y38.58 Z0 F800
; --- FIX Y Backlash ---
G0 X66.575 Y39.78 F1200
G1 X66.219 Y39.854 Z0 F800
G1 X65.878 Y39.988 Z0 F800
G1 X65.565 Y40.177 Z0 F800
G1 X65.288 Y40.416 Z0 F800
G1 X65.058 Y40.699 Z0 F800
G0 Z3.5 F500
; --- FIX Y Backlash ---
G0 X65.058 Y39.499 F1200
G0 X61.232 Y39.283 Z3.5
G1 Z0 F500
; --- FIX X Backlash ---
G0 X62.332 Y39.283 F1200
G1 X62.402 Y38.93 Z0 F800
G1 X62.504 Y38.578 Z0 F800
G1 X62.637 Y38.231 Z0 F800
G1 X62.797 Y37.893 Z0 F800
G1 X62.984 Y37.567 Z0 F800
G1 X63.195 Y37.258 Z0 F800
G1 X63.429 Y36.97 Z0 F800
G1 X63.684 Y36.707 Z0 F800
G1 X63.958 Y36.473 Z0 F800
G1 X64.249 Y36.271 Z0 F800
G1 X64.555 Y36.107 Z0 F800
G1 X64.874 Y35.983 Z0 F800
G1 X65.205 Y35.905 Z0 F800
G1 X65.546 Y35.875 Z0 F800
G1 X65.895 Y35.899 Z0 F800
; --- FIX Y Backlash ---
G0 X65.895 Y37.099 F1200
G1 X66.25 Y37.18 Z0 F800
; --- FIX Y Backlash ---
G0 X66.25 Y35.98 F1200
G1 X66.522 Y35.88 Z0 F800
G1 X66.809 Y35.871 Z0 F800
; --- FIX Y Backlash ---
G0 X66.809 Y37.071 F1200
G1 X67.104 Y37.139 Z0 F800
G1 X67.404 Y37.269 Z0 F800
G1 X67.995 Y37.656 Z0 F800
G1 X68.544 Y38.114 Z0 F800
G1 X68.789 Y38.331 Z0 F800
G1 X69.009 Y38.522 Z0 F800
G1 X69.198 Y38.672 Z0 F800
G1 X69.352 Y38.764 Z0 F800
G1 X69.466 Y38.786 Z0 F800
; --- FIX Y Backlash ---
G0 X69.466 Y37.586 F1200
G1 X69.533 Y37.521 Z0 F800
G1 X69.549 Y37.452 Z0 F800
G1 Y37.355 Z0 F800
G1 X69.539 Y37.23 Z0 F800
G1 X69.513 Y37.074 Z0 F800
G1 X69.516 Y36.871 Z0 F800
G1 X69.545 Y36.687 Z0 F800
G1 X69.598 Y36.521 Z0 F800
G1 X69.674 Y36.373 Z0 F800
G1 X69.885 Y36.13 Z0 F800
G1 X70.162 Y35.955 Z0 F800
G1 X70.491 Y35.845 Z0 F800
G1 X70.857 Y35.799 Z0 F800
G1 X71.244 Y35.813 Z0 F800
; --- FIX Y Backlash ---
G0 X71.244 Y37.013 F1200
G1 X71.638 Y37.086 Z0 F800
G1 X72.022 Y37.214 Z0 F800
G1 X72.383 Y37.396 Z0 F800
G1 X72.705 Y37.629 Z0 F800
G1 X72.973 Y37.91 Z0 F800
G1 X73.171 Y38.236 Z0 F800
G1 X73.285 Y38.606 Z0 F800
G1 X73.306 Y38.807 Z0 F800
G1 X73.3 Y39.017 Z0 F800
G1 X73.266 Y39.237 Z0 F800
; --- FIX X Backlash ---
G0 X72.166 Y39.237 F1200
G1 X72.101 Y39.467 Z0 F800
; --- FIX X Backlash ---
G0 X73.201 Y39.467 F1200
G1 X73.516 Y41.791 Z0 F800
G1 X73.929 Y44.1 Z0 F800
G1 X74.139 Y45.251 Z0 F800
G1 X74.335 Y46.402 Z0 F800
G1 X74.503 Y47.554 Z0 F800
G1 X74.63 Y48.709 Z0 F800
G1 X74.794 Y49.229 Z0 F800
G1 X74.932 Y49.715 Z0 F800
G1 X75.039 Y50.167 Z0 F800
G1 X75.112 Y50.583 Z0 F800
G1 X75.147 Y50.961 Z0 F800
G1 X75.14 Y51.301 Z0 F800
; --- FIX X Backlash ---
G0 X74.04 Y51.301 F1200
G1 X73.986 Y51.601 Z0 F800
G1 X73.883 Y51.86 Z0 F800
G1 X73.725 Y52.076 Z0 F800
G1 X73.51 Y52.249 Z0 F800
G1 X73.233 Y52.377 Z0 F800
G1 X72.889 Y52.459 Z0 F800
G1 X72.476 Y52.493 Z0 F800
G1 X71.989 Y52.478 Z0 F800
; --- FIX Y Backlash ---
G0 X71.989 Y51.278 F1200
G1 X71.425 Y51.214 Z0 F800
G1 X70.778 Y51.097 Z0 F800
G1 X70.661 Y50.83 Z0 F800
G1 X70.564 Y50.5 Z0 F800
G1 X70.482 Y50.12 Z0 F800
G1 X70.414 Y49.701 Z0 F800
G1 X70.303 Y48.79 Z0 F800
G1 X70.207 Y47.857 Z0 F800
G1 X70.157 Y47.41 Z0 F800
G1 X70.101 Y46.992 Z0 F800
G1 X70.036 Y46.612 Z0 F800
G1 X69.959 Y46.284 Z0 F800
G1 X69.867 Y46.018 Z0 F800
G1 X69.757 Y45.824 Z0 F800
G1 X69.626 Y45.716 Z0 F800
G1 X69.471 Y45.702 Z0 F800
; --- FIX Y Backlash ---
G0 X69.471 Y46.902 F1200
G1 X69.309 Y47.224 Z0 F800
G1 X69.112 Y47.512 Z0 F800
G1 X68.886 Y47.767 Z0 F800
G1 X68.632 Y47.987 Z0 F800
G1 X68.354 Y48.174 Z0 F800
G1 X68.056 Y48.328 Z0 F800
G1 X67.742 Y48.449 Z0 F800
G1 X67.415 Y48.537 Z0 F800
G1 X67.079 Y48.591 Z0 F800
G1 X66.737 Y48.613 Z0 F800
G1 X66.393 Y48.602 Z0 F800
G1 X66.051 Y48.559 Z0 F800
; --- FIX Y Backlash ---
G0 X66.051 Y47.359 F1200
G1 X65.713 Y47.283 Z0 F800
G1 X65.384 Y47.175 Z0 F800
G1 X65.067 Y47.035 Z0 F800
G1 X64.28 Y46.585 Z0 F800
G1 X63.833 Y46.264 Z0 F800
G1 X63.424 Y45.904 Z0 F800
G1 X63.052 Y45.508 Z0 F800
G1 X62.716 Y45.08 Z0 F800
G1 X62.416 Y44.623 Z0 F800
G1 X62.152 Y44.142 Z0 F800
G1 X61.921 Y43.639 Z0 F800
G1 X61.724 Y43.118 Z0 F800
G1 X61.561 Y42.584 Z0 F800
G1 X61.429 Y42.039 Z0 F800
G1 X61.329 Y41.487 Z0 F800
G1 X61.26 Y40.932 Z0 F800
G1 X61.222 Y40.377 Z0 F800
G1 X61.212 Y39.826 Z0 F800
G1 X61.232 Y39.283 Z0 F800
G0 Z3.5 F500
; --- FIX Y Backlash ---
G0 X61.232 Y40.483 F1200
G0 X59.48 Y49.835 Z3.5
G1 Z0 F500
; --- FIX X Backlash ---
G0 X60.58 Y49.835 F1200
G1 X60.778 Y49.856 Z0 F800
G1 X60.982 Y49.909 Z0 F800
G1 X61.193 Y49.998 Z0 F800
G1 X61.407 Y50.125 Z0 F800
G1 X61.626 Y50.292 Z0 F800
G1 X61.848 Y50.501 Z0 F800
G1 X62.02 Y50.687 Z0 F800
G1 X62.158 Y50.891 Z0 F800
G1 X62.264 Y51.109 Z0 F800
G1 X62.337 Y51.336 Z0 F800
G1 X62.377 Y51.568 Z0 F800
G1 X62.386 Y51.801 Z0 F800
G1 X62.362 Y52.029 Z0 F800
; --- FIX X Backlash ---
G0 X61.262 Y52.029 F1200
G1 X61.207 Y52.249 Z0 F800
G1 X61.122 Y52.455 Z0 F800
G1 X61.005 Y52.644 Z0 F800
G1 X60.858 Y52.811 Z0 F800
G1 X60.681 Y52.951 Z0 F800
G1 X60.474 Y53.06 Z0 F800
G1 X60.238 Y53.133 Z0 F800
G1 X59.972 Y53.166 Z0 F800
G1 X59.678 Y53.155 Z0 F800
G1 X59.38 Y53.146 Z0 F800
G1 X59.112 Y53.109 Z0 F800
; --- FIX Y Backlash ---
G0 X59.112 Y51.909 F1200
G1 X58.874 Y51.846 Z0 F800
G1 X58.665 Y51.759 Z0 F800
G1 X58.484 Y51.651 Z0 F800
G1 X58.33 Y51.523 Z0 F800
G1 X58.201 Y51.38 Z0 F800
G1 X58.098 Y51.221 Z0 F800
G1 X57.964 Y50.872 Z0 F800
G1 X57.918 Y50.494 Z0 F800
G1 X57.955 Y50.106 Z0 F800
; --- FIX X Backlash ---
G0 X59.055 Y50.106 F1200
G1 X59.166 Y49.728 Z0 F800
G1 X59.344 Y49.377 Z0 F800
G1 X59.582 Y49.074 Z0 F800
G1 X59.872 Y48.837 Z0 F800
G1 X60.207 Y48.684 Z0 F800
G1 X60.389 Y48.646 Z0 F800
G1 X60.58 Y48.635 Z0 F800
G0 Z3.5 F500
G0 X95.116 Y46.93 Z3.5
G1 Z0 F500
; --- FIX X Backlash ---
G0 X94.016 Y46.93 F1200
G1 X93.665 Y44.872 Z0 F800
G1 X93.265 Y42.834 Z0 F800
G1 X93.298 Y42.37 Z0 F800
G1 X93.258 Y41.846 Z0 F800
G1 X93.163 Y41.276 Z0 F800
G1 X93.03 Y40.675 Z0 F800
G1 X92.721 Y39.436 Z0 F800
G1 X92.471 Y38.245 Z0 F800
G1 X92.411 Y37.703 Z0 F800
G1 X92.418 Y37.216 Z0 F800
G1 X92.452 Y36.998 Z0 F800
; --- FIX X Backlash ---
G0 X93.552 Y36.998 F1200
G1 X93.61 Y36.799 Z0 F800
G1 X93.693 Y36.621 Z0 F800
G1 X93.803 Y36.466 Z0 F800
G1 X93.944 Y36.336 Z0 F800
G1 X94.116 Y36.232 Z0 F800
G1 X94.322 Y36.156 Z0 F800
G1 X94.565 Y36.11 Z0 F800
G1 X94.847 Y36.096 Z0 F800
G1 X95.169 Y36.116 Z0 F800
; --- FIX Y Backlash ---
G0 X95.169 Y37.316 F1200
G1 X95.534 Y37.371 Z0 F800
G1 X95.944 Y37.463 Z0 F800
G1 X96.33 Y37.702 Z0 F800
G1 X96.648 Y38.009 Z0 F800
G1 X96.904 Y38.378 Z0 F800
G1 X97.108 Y38.8 Z0 F800
G1 X97.266 Y39.269 Z0 F800
G1 X97.386 Y39.776 Z0 F800
G1 X97.475 Y40.313 Z0 F800
G1 X97.541 Y40.874 Z0 F800
G1 X97.633 Y42.034 Z0 F800
G1 X97.722 Y43.195 Z0 F800
G1 X97.784 Y43.757 Z0 F800
G1 X97.867 Y44.296 Z0 F800
G1 X97.98 Y44.805 Z0 F800
G1 X98.129 Y45.276 Z0 F800
G1 X98.195 Y45.444 Z0 F800
G1 X98.263 Y45.577 Z0 F800
G1 X98.331 Y45.675 Z0 F800
G1 X98.401 Y45.742 Z0 F800
G1 X98.472 Y45.778 Z0 F800
G1 X98.544 Y45.786 Z0 F800
G1 X98.618 Y45.768 Z0 F800
G1 X98.692 Y45.725 Z0 F800
; --- FIX Y Backlash ---
G0 X98.692 Y44.525 F1200
G1 X98.844 Y44.372 Z0 F800
G1 X98.999 Y44.143 Z0 F800
G1 X99.158 Y43.853 Z0 F800
G1 X99.319 Y43.517 Z0 F800
G1 X99.983 Y42.001 Z0 F800
G1 X100.151 Y41.654 Z0 F800
G1 X100.32 Y41.349 Z0 F800
G1 X100.488 Y41.101 Z0 F800
G1 X100.656 Y40.925 Z0 F800
G1 X101.242 Y39.721 Z0 F800
G1 X101.839 Y38.553 Z0 F800
G1 X102.438 Y37.404 Z0 F800
G1 X103.036 Y36.254 Z0 F800
G1 X103.41 Y36.143 Z0 F800
G1 X103.755 Y36.065 Z0 F800
G1 X104.074 Y36.019 Z0 F800
G1 X104.367 Y36.004 Z0 F800
G1 X104.635 Y36.017 Z0 F800
G1 X104.88 Y36.058 Z0 F800
; --- FIX Y Backlash ---
G0 X104.88 Y37.258 F1200
G1 X105.103 Y37.324 Z0 F800
G1 X105.304 Y37.415 Z0 F800
G1 X105.486 Y37.53 Z0 F800
G1 X105.649 Y37.666 Z0 F800
G1 X105.795 Y37.822 Z0 F800
G1 X105.924 Y37.997 Z0 F800
G1 X106.139 Y38.398 Z0 F800
G1 X106.304 Y38.857 Z0 F800
G1 X106.648 Y41.042 Z0 F800
G1 X106.951 Y43.236 Z0 F800
G1 X107.727 Y47.584 Z0 F800
G1 X108.486 Y51.892 Z0 F800
; --- FIX X Backlash ---
G0 X107.386 Y51.892 F1200
G1 X106.988 Y52.153 Z0 F800
G1 X106.587 Y52.341 Z0 F800
G1 X106.188 Y52.459 Z0 F800
G1 X105.796 Y52.511 Z0 F800
G1 X105.416 Y52.501 Z0 F800
; --- FIX Y Backlash ---
G0 X105.416 Y51.301 F1200
G1 X105.052 Y51.229 Z0 F800
G1 X104.708 Y51.101 Z0 F800
G1 X104.389 Y50.919 Z0 F800
G1 X104.101 Y50.686 Z0 F800
G1 X103.846 Y50.405 Z0 F800
G1 X103.631 Y50.078 Z0 F800
G1 X103.459 Y49.711 Z0 F800
G1 X103.335 Y49.304 Z0 F800
G1 X103.264 Y48.862 Z0 F800
G1 X103.251 Y48.387 Z0 F800
G1 X103.3 Y47.882 Z0 F800
G1 X103.249 Y47.514 Z0 F800
G1 X103.196 Y47.06 Z0 F800
G1 X103.077 Y45.984 Z0 F800
G1 X103.007 Y45.409 Z0 F800
G1 X102.928 Y44.839 Z0 F800
G1 X102.838 Y44.298 Z0 F800
G1 X102.735 Y43.808 Z0 F800
G1 X102.618 Y43.391 Z0 F800
G1 X102.485 Y43.071 Z0 F800
G1 X102.411 Y42.955 Z0 F800
G1 X102.334 Y42.871 Z0 F800
G1 X102.251 Y42.823 Z0 F800
G1 X102.163 Y42.814 Z0 F800
G1 X102.07 Y42.845 Z0 F800
; --- FIX Y Backlash ---
G0 X102.07 Y44.045 F1200
G1 X101.971 Y44.121 Z0 F800
G1 X101.867 Y44.244 Z0 F800
G1 X101.756 Y44.417 Z0 F800
G1 X101.639 Y44.643 Z0 F800
G1 X101.516 Y44.924 Z0 F800
G1 X101.387 Y45.264 Z0 F800
G1 X101.25 Y45.665 Z0 F800
G1 X100.356 Y47.255 Z0 F800
G1 X99.518 Y48.919 Z0 F800
G1 X98.696 Y50.571 Z0 F800
G1 X97.851 Y52.13 Z0 F800
G1 X97.509 Y52.278 Z0 F800
G1 X97.125 Y52.36 Z0 F800
G1 X96.71 Y52.39 Z0 F800
G1 X96.277 Y52.383 Z0 F800
; --- FIX Y Backlash ---
G0 X96.277 Y51.183 F1200
G1 X95.405 Y51.122 Z0 F800
G1 X94.602 Y51.097 Z0 F800
G1 X94.326 Y49.007 Z0 F800
G1 X94.016 Y46.93 Z0 F800
G0 Z3.5 F500
; --- FIX X Backlash ---
G0 X95.116 Y46.93 F1200
G0 X109.454 Y45.248 Z3.5
G1 Z0 F500
; --- FIX X Backlash ---
G0 X108.354 Y45.248 F1200
G1 X108.137 Y44.433 Z0 F800
G1 X107.985 Y43.6 Z0 F800
G1 X107.902 Y42.758 Z0 F800
G1 X107.889 Y41.917 Z0 F800
; --- FIX X Backlash ---
G0 X108.989 Y41.917 F1200
G1 X109.049 Y41.086 Z0 F800
G1 X109.11 Y40.636 Z0 F800
G1 X109.206 Y40.193 Z0 F800
G1 X109.335 Y39.76 Z0 F800
G1 X109.496 Y39.339 Z0 F800
G1 X109.688 Y38.934 Z0 F800
G1 X109.91 Y38.546 Z0 F800
G1 X110.16 Y38.179 Z0 F800
G1 X110.438 Y37.834 Z0 F800
G1 X110.743 Y37.516 Z0 F800
G1 X111.073 Y37.226 Z0 F800
G1 X111.427 Y36.967 Z0 F800
G1 X111.804 Y36.743 Z0 F800
G1 X112.203 Y36.554 Z0 F800
G1 X112.622 Y36.405 Z0 F800
G1 X113.061 Y36.298 Z0 F800
G1 X113.519 Y36.235 Z0 F800
G1 X113.939 Y36.124 Z0 F800
G1 X114.361 Y36.044 Z0 F800
G1 X114.784 Y35.996 Z0 F800
G1 X115.207 Y35.978 Z0 F800
G1 X115.628 Y35.988 Z0 F800
G1 X116.047 Y36.026 Z0 F800
; --- FIX Y Backlash ---
G0 X116.047 Y37.226 F1200
G1 X116.462 Y37.29 Z0 F800
G1 X116.872 Y37.379 Z0 F800
G1 X117.671 Y37.627 Z0 F800
G1 X118.436 Y37.961 Z0 F800
G1 X119.157 Y38.37 Z0 F800
G1 X119.825 Y38.844 Z0 F800
G1 X120.24 Y39.222 Z0 F800
G1 X120.649 Y39.626 Z0 F800
G1 X121.037 Y40.055 Z0 F800
G1 X121.389 Y40.508 Z0 F800
G1 X121.689 Y40.985 Z0 F800
G1 X121.922 Y41.484 Z0 F800
G1 X122.074 Y42.005 Z0 F800
G1 X122.128 Y42.548 Z0 F800
; --- FIX X Backlash ---
G0 X121.028 Y42.548 F1200
G1 X120.485 Y42.731 Z0 F800
G1 X119.996 Y42.832 Z0 F800
G1 X119.555 Y42.857 Z0 F800
G1 X119.156 Y42.817 Z0 F800
; --- FIX Y Backlash ---
G0 X119.156 Y41.617 F1200
G1 X118.79 Y41.52 Z0 F800
G1 X118.453 Y41.374 Z0 F800
G1 X118.138 Y41.189 Z0 F800
G1 X117.837 Y40.974 Z0 F800
G1 X116.651 Y39.982 Z0 F800
G1 X116.326 Y39.745 Z0 F800
G1 X115.977 Y39.531 Z0 F800
G1 X115.596 Y39.348 Z0 F800
G1 X114.683 Y39.036 Z0 F800
G1 X114.208 Y38.965 Z0 F800
G1 X113.758 Y38.983 Z0 F800
; --- FIX Y Backlash ---
G0 X113.758 Y40.183 F1200
G1 X113.334 Y40.283 Z0 F800
G1 X112.941 Y40.456 Z0 F800
G1 X112.582 Y40.694 Z0 F800
G1 X112.26 Y40.988 Z0 F800
G1 X111.978 Y41.331 Z0 F800
G1 X111.741 Y41.714 Z0 F800
G1 X111.55 Y42.13 Z0 F800
G1 X111.41 Y42.569 Z0 F800
G1 X111.323 Y43.024 Z0 F800
G1 X111.294 Y43.487 Z0 F800
G1 X111.325 Y43.949 Z0 F800
; --- FIX X Backlash ---
G0 X112.425 Y43.949 F1200
G1 X112.52 Y44.403 Z0 F800
G1 X112.681 Y44.839 Z0 F800
G1 X112.741 Y45.3 Z0 F800
G1 X112.843 Y45.759 Z0 F800
G1 X112.986 Y46.213 Z0 F800
G1 X113.168 Y46.656 Z0 F800
G1 X113.386 Y47.084 Z0 F800
G1 X113.639 Y47.493 Z0 F800
G1 X113.923 Y47.878 Z0 F800
G1 X114.239 Y48.234 Z0 F800
G1 X114.582 Y48.558 Z0 F800
G1 X114.951 Y48.845 Z0 F800
G1 X115.344 Y49.089 Z0 F800
G1 X115.759 Y49.288 Z0 F800
G1 X116.194 Y49.435 Z0 F800
G1 X116.647 Y49.528 Z0 F800
G1 X117.115 Y49.56 Z0 F800
G1 X117.597 Y49.529 Z0 F800
; --- FIX Y Backlash ---
G0 X117.597 Y48.329 F1200
G1 X118.001 Y48.247 Z0 F800
G1 X118.346 Y48.1 Z0 F800
G1 X118.64 Y47.899 Z0 F800
G1 X118.895 Y47.656 Z0 F800
G1 X119.322 Y47.093 Z0 F800
G1 X119.706 Y46.504 Z0 F800
G1 X119.905 Y46.23 Z0 F800
G1 X120.122 Y45.984 Z0 F800
G1 X120.367 Y45.78 Z0 F800
G1 X120.65 Y45.628 Z0 F800
G1 X120.98 Y45.541 Z0 F800
G1 X121.366 Y45.53 Z0 F800
G1 X121.584 Y45.556 Z0 F800
; --- FIX Y Backlash ---
G0 X121.584 Y46.756 F1200
G1 X121.82 Y46.807 Z0 F800
G1 X122.074 Y46.882 Z0 F800
G1 X122.349 Y46.984 Z0 F800
G1 X122.651 Y47.18 Z0 F800
G1 X122.868 Y47.431 Z0 F800
G1 X123.007 Y47.728 Z0 F800
G1 X123.075 Y48.063 Z0 F800
G1 Y48.427 Z0 F800
; --- FIX X Backlash ---
G0 X121.975 Y48.427 F1200
G1 X121.917 Y48.812 Z0 F800
G1 X121.803 Y49.21 Z0 F800
G1 X121.64 Y49.612 Z0 F800
G1 X121.434 Y50.009 Z0 F800
G1 X121.191 Y50.395 Z0 F800
G1 X120.917 Y50.759 Z0 F800
G1 X120.617 Y51.094 Z0 F800
G1 X120.297 Y51.392 Z0 F800
G1 X119.963 Y51.643 Z0 F800
G1 X119.621 Y51.84 Z0 F800
G1 X119.277 Y51.974 Z0 F800
G1 X118.489 Y52.275 Z0 F800
G1 X117.669 Y52.487 Z0 F800
G1 X117.249 Y52.557 Z0 F800
G1 X116.824 Y52.601 Z0 F800
G1 X116.393 Y52.618 Z0 F800
G1 X115.958 Y52.607 Z0 F800
G1 X115.466 Y52.574 Z0 F800
; --- FIX Y Backlash ---
G0 X115.466 Y51.374 F1200
G1 X114.974 Y51.31 Z0 F800
G1 X114.485 Y51.217 Z0 F800
G1 X114.001 Y51.093 Z0 F800
G1 X113.523 Y50.941 Z0 F800
G1 X113.055 Y50.76 Z0 F800
G1 X112.599 Y50.55 Z0 F800
G1 X112.157 Y50.314 Z0 F800
G1 X111.73 Y50.05 Z0 F800
G1 X111.322 Y49.76 Z0 F800
G1 X110.934 Y49.445 Z0 F800
G1 X110.569 Y49.104 Z0 F800
G1 X110.229 Y48.738 Z0 F800
G1 X109.916 Y48.349 Z0 F800
G1 X109.632 Y47.935 Z0 F800
G1 X109.38 Y47.499 Z0 F800
G1 X108.978 Y46.791 Z0 F800
G1 X108.636 Y46.037 Z0 F800
G1 X108.354 Y45.248 Z0 F800
;Offset @ 1500 mm/min, 80% power

M8
G0 Z3.5 F500
; --- FIX Y Backlash ---
G0 X108.354 Y46.448 F1200
G0 X89.232 Y50.378 Z3.5
G1 Z0 F500
;Layer C3
G1 X89.254 Y50.779 Z0 F800
G1 X89.245 Y51.162 Z0 F800
G1 X89.205 Y51.509 Z0 F800
G1 X89.138 Y51.81 Z0 F800
G1 X89.058 Y52.037 Z0 F800
G1 X88.896 Y52.336 Z0 F800
G1 X87.862 Y54.633 Z0 F800
G1 X86.82 Y56.861 Z0 F800
G1 X86.312 Y58.021 Z0 F800
G1 X85.839 Y59.206 Z0 F800
G1 X85.77 Y59.407 Z0 F800
; --- FIX Y Backlash ---
G0 X85.77 Y58.207 F1200
G1 X85.745 Y58.105 Z0 F800
G1 X85.691 Y57.72 Z0 F800
G1 X85.671 Y57.314 Z0 F800
G1 X85.686 Y56.904 Z0 F800
G1 X85.735 Y56.487 Z0 F800
; --- FIX X Backlash ---
G0 X86.835 Y56.487 F1200
G1 X86.919 Y56.07 Z0 F800
G1 X87.035 Y55.661 Z0 F800
G1 X87.181 Y55.268 Z0 F800
G1 X87.353 Y54.901 Z0 F800
G1 X87.552 Y54.553 Z0 F800
G1 X87.856 Y54.118 Z0 F800
G1 X88.8 Y52.341 Z0 F800
G1 X89.684 Y50.571 Z0 F800
G1 X90.083 Y49.596 Z0 F800
G1 X90.297 Y48.931 Z0 F800
; --- FIX Y Backlash ---
G0 X90.297 Y50.131 F1200
G1 X90.332 Y50.378 Z0 F800
G0 Z3.5 F500
G0 X90.624 Y52.646 Z3.5
G1 Z0 F500
; --- FIX X Backlash ---
G0 X89.524 Y52.646 F1200
G1 X88.504 Y54.912 Z0 F800
G1 X87.458 Y57.15 Z0 F800
G1 X86.957 Y58.291 Z0 F800
G1 X86.495 Y59.45 Z0 F800
G1 X86.088 Y60.635 Z0 F800
G1 X85.923 Y61.241 Z0 F800
; --- FIX Y Backlash ---
G0 X85.923 Y60.041 F1200
G1 X85.727 Y59.813 Z0 F800
G1 X85.497 Y59.462 Z0 F800
G1 X85.309 Y59.081 Z0 F800
G1 X85.162 Y58.669 Z0 F800
G1 X85.056 Y58.234 Z0 F800
G1 X84.993 Y57.789 Z0 F800
G1 X84.97 Y57.323 Z0 F800
G1 X84.987 Y56.849 Z0 F800
; --- FIX X Backlash ---
G0 X86.087 Y56.849 F1200
G1 X86.144 Y56.375 Z0 F800
G1 X86.239 Y55.902 Z0 F800
G1 X86.368 Y55.446 Z0 F800
G1 X86.536 Y54.996 Z0 F800
G1 X86.732 Y54.576 Z0 F800
G1 X86.96 Y54.178 Z0 F800
G1 X87.258 Y53.752 Z0 F800
G1 X88.178 Y52.021 Z0 F800
G1 X89.045 Y50.282 Z0 F800
G1 X89.426 Y49.356 Z0 F800
G1 X89.731 Y48.405 Z0 F800
G1 X89.854 Y47.901 Z0 F800
G1 X89.948 Y47.392 Z0 F800
G1 X90.006 Y46.925 Z0 F800
G1 X90.108 Y46.96 Z0 F800
; --- FIX Y Backlash ---
G0 X90.108 Y48.16 F1200
G1 X90.258 Y48.266 Z0 F800
G1 X90.425 Y48.451 Z0 F800
G1 X90.593 Y48.717 Z0 F800
G1 X90.744 Y49.049 Z0 F800
G1 X90.872 Y49.44 Z0 F800
G1 X90.966 Y49.861 Z0 F800
G1 X91.03 Y50.314 Z0 F800
G1 X91.055 Y50.764 Z0 F800
G1 X91.044 Y51.209 Z0 F800
G1 X90.996 Y51.626 Z0 F800
; --- FIX X Backlash ---
G0 X89.896 Y51.626 F1200
G1 X89.813 Y52.003 Z0 F800
G1 X89.7 Y52.321 Z0 F800
G1 X89.524 Y52.646 Z0 F800
G0 Z3.5 F500
G0 X89.139 Y55.208 Z3.5
G1 Z0 F500
G1 X88.095 Y57.439 Z0 F800
G1 X87.603 Y58.561 Z0 F800
G1 X87.152 Y59.693 Z0 F800
G1 X86.758 Y60.841 Z0 F800
G1 X86.438 Y62.011 Z0 F800
G1 X86.282 Y62.117 Z0 F800
G1 X85.891 Y62.172 Z0 F800
; --- FIX Y Backlash ---
G0 X85.891 Y60.972 F1200
G1 X85.5 Y60.624 Z0 F800
G1 X85.166 Y60.234 Z0 F800
G1 X84.887 Y59.808 Z0 F800
G1 X84.663 Y59.352 Z0 F800
G1 X84.49 Y58.871 Z0 F800
G1 X84.368 Y58.369 Z0 F800
G1 X84.295 Y57.852 Z0 F800
G1 X84.269 Y57.326 Z0 F800
G1 X84.289 Y56.795 Z0 F800
; --- FIX X Backlash ---
G0 X85.389 Y56.795 F1200
G1 X85.452 Y56.264 Z0 F800
G1 X85.557 Y55.739 Z0 F800
G1 X85.703 Y55.226 Z0 F800
G1 X85.888 Y54.729 Z0 F800
G1 X86.11 Y54.253 Z0 F800
G1 X86.368 Y53.803 Z0 F800
G1 X86.66 Y53.386 Z0 F800
G1 X87.556 Y51.7 Z0 F800
G1 X88.408 Y49.992 Z0 F800
G1 X88.768 Y49.115 Z0 F800
G1 X89.057 Y48.215 Z0 F800
G1 X89.169 Y47.754 Z0 F800
G1 X89.256 Y47.285 Z0 F800
G1 X89.315 Y46.807 Z0 F800
G1 X89.345 Y46.319 Z0 F800
G1 X89.546 Y46.248 Z0 F800
G1 X89.739 Y46.209 Z0 F800
G1 X89.924 Y46.199 Z0 F800
G1 X90.102 Y46.217 Z0 F800
; --- FIX Y Backlash ---
G0 X90.102 Y47.417 F1200
G1 X90.431 Y47.531 Z0 F800
G1 X90.726 Y47.739 Z0 F800
G1 X90.986 Y48.027 Z0 F800
G1 X91.21 Y48.383 Z0 F800
G1 X91.397 Y48.796 Z0 F800
G1 X91.546 Y49.251 Z0 F800
G1 X91.656 Y49.738 Z0 F800
G1 X91.727 Y50.243 Z0 F800
G1 X91.755 Y50.754 Z0 F800
G1 X91.743 Y51.258 Z0 F800
; --- FIX X Backlash ---
G0 X90.643 Y51.258 F1200
G1 X90.587 Y51.743 Z0 F800
G1 X90.487 Y52.196 Z0 F800
G1 X90.342 Y52.605 Z0 F800
G1 X90.151 Y52.958 Z0 F800
G1 X89.139 Y55.208 Z0 F800
G0 Z3.5 F500
; --- FIX Y Backlash ---
G0 X89.139 Y54.008 F1200
G0 X85.836 Y37.935 Z3.5
G1 Z0 F500
; --- FIX Y Backlash ---
G0 X85.836 Y39.135 F1200
G1 X85.706 Y39.897 Z0 F800
G1 X85.527 Y40.643 Z0 F800
G1 X85.293 Y41.39 Z0 F800
G1 X85.016 Y42.098 Z0 F800
G1 X84.688 Y42.789 Z0 F800
G1 X84.312 Y43.452 Z0 F800
G1 X83.893 Y44.079 Z0 F800
G1 X83.34 Y44.781 Z0 F800
G1 X82.854 Y45.47 Z0 F800
G1 X82.398 Y46.159 Z0 F800
G1 X81.966 Y46.868 Z0 F800
G1 X81.559 Y47.592 Z0 F800
G1 X81.18 Y48.333 Z0 F800
G1 X80.83 Y49.088 Z0 F800
G1 X80.51 Y49.86 Z0 F800
G1 X80.504 Y49.877 Z0 F800
; --- FIX X Backlash ---
G0 X81.604 Y49.877 F1200
; --- FIX Y Backlash ---
G0 X81.604 Y48.677 F1200
G1 X81.841 Y47.612 Z0 F800
G1 X82.158 Y46.539 Z0 F800
G1 X82.54 Y45.504 Z0 F800
G1 X82.996 Y44.485 Z0 F800
G1 X83.517 Y43.495 Z0 F800
G1 X84.102 Y42.541 Z0 F800
G1 X84.836 Y41.497 Z0 F800
G1 X85.956 Y39.602 Z0 F800
G1 X86.957 Y37.725 Z0 F800
; --- FIX Y Backlash ---
G0 X86.957 Y38.925 F1200
G1 X86.936 Y39.135 Z0 F800
G0 Z3.5 F500
; --- FIX X Backlash ---
G0 X85.836 Y39.135 F1200
G0 X85.659 Y42.377 Z3.5
G1 Z0 F500
G1 X85.31 Y43.111 Z0 F800
G1 X84.912 Y43.814 Z0 F800
G1 X84.456 Y44.496 Z0 F800
G1 X83.902 Y45.2 Z0 F800
G1 X83.431 Y45.865 Z0 F800
G1 X82.989 Y46.535 Z0 F800
G1 X82.57 Y47.221 Z0 F800
G1 X82.176 Y47.923 Z0 F800
G1 X81.81 Y48.639 Z0 F800
G1 X81.471 Y49.369 Z0 F800
G1 X81.162 Y50.115 Z0 F800
G1 X80.885 Y50.874 Z0 F800
G1 X80.642 Y51.646 Z0 F800
G1 X80.433 Y52.431 Z0 F800
G1 X80.262 Y53.229 Z0 F800
G1 X80.129 Y54.038 Z0 F800
G1 X80.086 Y54.427 Z0 F800
G1 X80.078 Y54.403 Z0 F800
; --- FIX Y Backlash ---
G0 X80.078 Y53.203 F1200
G1 X79.953 Y52.769 Z0 F800
G1 X79.852 Y52.331 Z0 F800
G1 X79.77 Y51.878 Z0 F800
G1 X79.711 Y51.436 Z0 F800
G1 X79.643 Y50.498 Z0 F800
G1 Y49.67 Z0 F800
; --- FIX X Backlash ---
G0 X80.743 Y49.67 F1200
G1 X80.911 Y48.571 Z0 F800
G1 X81.164 Y47.434 Z0 F800
G1 X81.492 Y46.323 Z0 F800
G1 X81.893 Y45.237 Z0 F800
G1 X82.368 Y44.174 Z0 F800
G1 X82.905 Y43.154 Z0 F800
G1 X83.517 Y42.156 Z0 F800
G1 X84.248 Y41.117 Z0 F800
G1 X85.345 Y39.259 Z0 F800
G1 X86.371 Y37.336 Z0 F800
G1 X86.829 Y36.277 Z0 F800
G1 X87.194 Y35.194 Z0 F800
G1 X87.344 Y34.604 Z0 F800
G1 X87.458 Y34.016 Z0 F800
G1 X87.476 Y33.875 Z0 F800
; --- FIX Y Backlash ---
G0 X87.476 Y35.075 F1200
G1 X87.496 Y35.153 Z0 F800
G1 X87.632 Y35.952 Z0 F800
G1 X87.714 Y36.769 Z0 F800
G1 X87.742 Y37.594 Z0 F800
G1 X87.713 Y38.408 Z0 F800
; --- FIX X Backlash ---
G0 X86.613 Y38.408 F1200
G1 X86.531 Y39.222 Z0 F800
G1 X86.392 Y40.041 Z0 F800
G1 X86.202 Y40.831 Z0 F800
G1 X85.955 Y41.619 Z0 F800
G1 X85.659 Y42.377 Z0 F800
G0 Z3.5 F500
G0 X85.024 Y44.906 Z3.5
G1 Z0 F500
G1 X84.463 Y45.619 Z0 F800
G1 X84.009 Y46.26 Z0 F800
G1 X83.58 Y46.91 Z0 F800
G1 X83.174 Y47.575 Z0 F800
G1 X82.793 Y48.253 Z0 F800
G1 X82.439 Y48.946 Z0 F800
G1 X82.112 Y49.651 Z0 F800
G1 X81.815 Y50.369 Z0 F800
G1 X81.548 Y51.099 Z0 F800
G1 X81.314 Y51.841 Z0 F800
G1 X81.114 Y52.594 Z0 F800
G1 X80.95 Y53.359 Z0 F800
G1 X80.823 Y54.133 Z0 F800
G1 X80.735 Y54.917 Z0 F800
G1 X80.688 Y55.71 Z0 F800
G1 X80.682 Y56.512 Z0 F800
G1 X80.7 Y56.906 Z0 F800
; --- FIX Y Backlash ---
G0 X80.7 Y55.706 F1200
G1 X80.446 Y55.422 Z0 F800
G1 X80.188 Y55.072 Z0 F800
G1 X79.955 Y54.693 Z0 F800
G1 X79.746 Y54.284 Z0 F800
G1 X79.566 Y53.861 Z0 F800
G1 X79.409 Y53.412 Z0 F800
G1 X79.275 Y52.945 Z0 F800
G1 X79.166 Y52.471 Z0 F800
G1 X79.079 Y51.987 Z0 F800
G1 X79.014 Y51.507 Z0 F800
G1 X78.943 Y50.528 Z0 F800
G1 Y49.613 Z0 F800
; --- FIX X Backlash ---
G0 X80.043 Y49.613 F1200
G1 X80.222 Y48.442 Z0 F800
G1 X80.484 Y47.262 Z0 F800
G1 X80.827 Y46.104 Z0 F800
G1 X81.245 Y44.971 Z0 F800
G1 X81.738 Y43.868 Z0 F800
G1 X82.298 Y42.804 Z0 F800
G1 X82.931 Y41.772 Z0 F800
G1 X83.659 Y40.737 Z0 F800
G1 X84.734 Y38.916 Z0 F800
G1 X85.74 Y37.031 Z0 F800
G1 X86.175 Y36.025 Z0 F800
G1 X86.522 Y34.995 Z0 F800
G1 X86.661 Y34.451 Z0 F800
G1 X86.767 Y33.904 Z0 F800
G1 X86.839 Y33.346 Z0 F800
G1 X86.873 Y32.793 Z0 F800
G1 X86.898 Y32.105 Z0 F800
G1 X86.976 Y31.433 Z0 F800
G1 X87.03 Y31.135 Z0 F800
G1 X87.099 Y30.85 Z0 F800
G1 X87.117 Y30.793 Z0 F800
; --- FIX Y Backlash ---
G0 X87.117 Y31.993 F1200
G1 X87.174 Y32.097 Z0 F800
G1 X87.279 Y32.31 Z0 F800
G1 X87.378 Y32.531 Z0 F800
G1 X87.714 Y33.358 Z0 F800
G1 X87.976 Y34.172 Z0 F800
G1 X88.18 Y35.006 Z0 F800
G1 X88.327 Y35.863 Z0 F800
G1 X88.413 Y36.718 Z0 F800
G1 X88.442 Y37.588 Z0 F800
G1 X88.412 Y38.46 Z0 F800
; --- FIX X Backlash ---
G0 X87.312 Y38.46 F1200
G1 X87.224 Y39.321 Z0 F800
G1 X87.079 Y40.175 Z0 F800
G1 X86.877 Y41.02 Z0 F800
G1 X86.616 Y41.85 Z0 F800
G1 X86.302 Y42.653 Z0 F800
G1 X85.93 Y43.436 Z0 F800
G1 X85.506 Y44.184 Z0 F800
G1 X85.024 Y44.906 Z0 F800
G0 Z3.5 F500
G0 X84.171 Y47.285 Z3.5
G1 Z0 F500
G1 X83.778 Y47.929 Z0 F800
G1 X83.41 Y48.584 Z0 F800
G1 X83.068 Y49.252 Z0 F800
G1 X82.754 Y49.932 Z0 F800
G1 X82.467 Y50.623 Z0 F800
G1 X82.211 Y51.324 Z0 F800
G1 X81.986 Y52.036 Z0 F800
G1 X81.795 Y52.758 Z0 F800
G1 X81.638 Y53.489 Z0 F800
G1 X81.517 Y54.229 Z0 F800
G1 X81.433 Y54.978 Z0 F800
G1 X81.387 Y55.734 Z0 F800
G1 X81.382 Y56.498 Z0 F800
G1 X81.418 Y57.269 Z0 F800
G1 X81.358 Y58.027 Z0 F800
G1 X81.003 Y58.061 Z0 F800
; --- FIX Y Backlash ---
G0 X81.003 Y56.861 F1200
G1 X80.599 Y56.566 Z0 F800
G1 X80.232 Y56.232 Z0 F800
G1 X79.902 Y55.863 Z0 F800
G1 X79.606 Y55.463 Z0 F800
G1 X79.343 Y55.035 Z0 F800
G1 X79.113 Y54.584 Z0 F800
G1 X78.912 Y54.112 Z0 F800
G1 X78.741 Y53.623 Z0 F800
G1 X78.597 Y53.122 Z0 F800
G1 X78.48 Y52.611 Z0 F800
G1 X78.387 Y52.095 Z0 F800
G1 X78.317 Y51.577 Z0 F800
G1 X78.243 Y50.551 Z0 F800
G1 Y49.563 Z0 F800
; --- FIX X Backlash ---
G0 X79.343 Y49.563 F1200
G1 X79.534 Y48.312 Z0 F800
G1 X79.807 Y47.084 Z0 F800
G1 X80.162 Y45.882 Z0 F800
G1 X80.596 Y44.708 Z0 F800
G1 X81.106 Y43.566 Z0 F800
G1 X81.69 Y42.458 Z0 F800
G1 X82.346 Y41.387 Z0 F800
G1 X83.071 Y40.357 Z0 F800
G1 X84.124 Y38.573 Z0 F800
G1 X85.109 Y36.727 Z0 F800
G1 X85.521 Y35.774 Z0 F800
G1 X85.851 Y34.797 Z0 F800
G1 X85.978 Y34.298 Z0 F800
G1 X86.075 Y33.793 Z0 F800
G1 X86.142 Y33.28 Z0 F800
G1 X86.173 Y32.759 Z0 F800
G1 X86.2 Y32.057 Z0 F800
G1 X86.283 Y31.331 Z0 F800
G1 X86.346 Y30.985 Z0 F800
G1 X86.423 Y30.663 Z0 F800
G1 X86.515 Y30.377 Z0 F800
G1 X86.622 Y30.135 Z0 F800
G1 X86.744 Y29.949 Z0 F800
G1 X86.881 Y29.83 Z0 F800
G1 X87.033 Y29.786 Z0 F800
G1 X87.201 Y29.829 Z0 F800
; --- FIX Y Backlash ---
G0 X87.201 Y31.029 F1200
G1 X87.291 Y31.085 Z0 F800
G1 X87.384 Y31.168 Z0 F800
G1 X87.481 Y31.277 Z0 F800
G1 X87.583 Y31.414 Z0 F800
G1 X87.688 Y31.581 Z0 F800
G1 X87.797 Y31.777 Z0 F800
G1 X87.91 Y32.006 Z0 F800
G1 X88.027 Y32.268 Z0 F800
G1 X88.37 Y33.113 Z0 F800
G1 X88.65 Y33.981 Z0 F800
G1 X88.867 Y34.867 Z0 F800
G1 X89.021 Y35.767 Z0 F800
G1 X89.112 Y36.675 Z0 F800
G1 X89.143 Y37.589 Z0 F800
G1 X89.111 Y38.504 Z0 F800
; --- FIX X Backlash ---
G0 X88.011 Y38.504 F1200
G1 X87.918 Y39.415 Z0 F800
G1 X87.765 Y40.317 Z0 F800
G1 X87.551 Y41.208 Z0 F800
G1 X87.277 Y42.081 Z0 F800
G1 X86.944 Y42.932 Z0 F800
G1 X86.552 Y43.758 Z0 F800
G1 X86.101 Y44.554 Z0 F800
G1 X85.592 Y45.316 Z0 F800
G1 X85.024 Y46.038 Z0 F800
G1 X84.587 Y46.655 Z0 F800
G1 X84.171 Y47.285 Z0 F800
G0 Z3.5 F500
; --- FIX Y Backlash ---
G0 X84.171 Y46.085 F1200
G0 X81.115 Y29.668 Z3.5
G1 Z0 F500
; --- FIX Y Backlash ---
G0 X81.115 Y30.868 F1200
G1 X81.111 Y31.292 Z0 F800
G1 X81.059 Y31.758 Z0 F800
G1 X80.96 Y32.247 Z0 F800
G1 X80.816 Y32.763 Z0 F800
G1 X80.633 Y33.29 Z0 F800
G1 X80.424 Y33.809 Z0 F800
G1 X80.187 Y34.332 Z0 F800
G1 X79.929 Y34.848 Z0 F800
G1 X79.668 Y35.337 Z0 F800
G1 X79.416 Y35.783 Z0 F800
G1 X78.945 Y36.515 Z0 F800
G1 X78.483 Y37.337 Z0 F800
G1 X78.067 Y38.168 Z0 F800
G1 X77.684 Y39.005 Z0 F800
G1 X77.233 Y40.09 Z0 F800
; --- FIX Y Backlash ---
G0 X77.233 Y38.89 F1200
G1 X77.19 Y38.671 Z0 F800
G1 X77.155 Y38.282 Z0 F800
G1 X77.16 Y37.867 Z0 F800
G1 X77.202 Y37.432 Z0 F800
; --- FIX X Backlash ---
G0 X78.302 Y37.432 F1200
G1 X78.381 Y36.992 Z0 F800
G1 X78.497 Y36.553 Z0 F800
G1 X78.646 Y36.116 Z0 F800
G1 X78.824 Y35.696 Z0 F800
G1 X79.028 Y35.294 Z0 F800
G1 X79.253 Y34.923 Z0 F800
G1 X79.501 Y34.576 Z0 F800
G1 X79.826 Y34.183 Z0 F800
G1 X80.177 Y33.689 Z0 F800
G1 X80.492 Y33.181 Z0 F800
G1 X80.779 Y32.655 Z0 F800
G1 X81.257 Y31.634 Z0 F800
G1 X81.669 Y30.615 Z0 F800
G1 X82.034 Y29.656 Z0 F800
G1 X82.174 Y29.3 Z0 F800
; --- FIX Y Backlash ---
G0 X82.174 Y30.5 F1200
G1 X82.215 Y30.868 Z0 F800
G0 Z3.5 F500
G0 X82.585 Y32.969 Z3.5
G1 Z0 F500
; --- FIX X Backlash ---
G0 X81.485 Y32.969 F1200
G1 X81.291 Y33.53 Z0 F800
G1 X81.064 Y34.094 Z0 F800
G1 X80.817 Y34.637 Z0 F800
G1 X80.558 Y35.157 Z0 F800
G1 X80.285 Y35.668 Z0 F800
G1 X80.013 Y36.147 Z0 F800
G1 X79.546 Y36.876 Z0 F800
G1 X79.102 Y37.666 Z0 F800
G1 X78.698 Y38.471 Z0 F800
G1 X78.326 Y39.286 Z0 F800
G1 X77.653 Y40.9 Z0 F800
G1 X77.3 Y41.777 Z0 F800
; --- FIX Y Backlash ---
G0 X77.3 Y40.577 F1200
G1 X77.131 Y40.383 Z0 F800
G1 X76.9 Y40.026 Z0 F800
G1 X76.717 Y39.634 Z0 F800
G1 X76.583 Y39.217 Z0 F800
G1 X76.496 Y38.771 Z0 F800
G1 X76.456 Y38.311 Z0 F800
G1 X76.46 Y37.825 Z0 F800
G1 X76.508 Y37.337 Z0 F800
; --- FIX X Backlash ---
G0 X77.608 Y37.337 F1200
G1 X77.698 Y36.841 Z0 F800
G1 X77.826 Y36.351 Z0 F800
G1 X77.992 Y35.865 Z0 F800
G1 X78.189 Y35.399 Z0 F800
G1 X78.415 Y34.955 Z0 F800
G1 X78.669 Y34.535 Z0 F800
G1 X78.945 Y34.15 Z0 F800
G1 X79.271 Y33.757 Z0 F800
G1 X79.594 Y33.301 Z0 F800
G1 X79.886 Y32.829 Z0 F800
G1 X80.154 Y32.338 Z0 F800
G1 X80.616 Y31.354 Z0 F800
G1 X81.018 Y30.36 Z0 F800
G1 X81.382 Y29.4 Z0 F800
G1 X81.737 Y28.499 Z0 F800
G1 X81.92 Y28.072 Z0 F800
G1 X82.102 Y27.691 Z0 F800
G1 X82.105 Y27.684 Z0 F800
G1 X82.153 Y27.73 Z0 F800
; --- FIX Y Backlash ---
G0 X82.153 Y28.93 F1200
G1 X82.301 Y29.103 Z0 F800
G1 X82.566 Y29.502 Z0 F800
G1 X82.748 Y29.916 Z0 F800
G1 X82.862 Y30.354 Z0 F800
G1 X82.916 Y30.833 Z0 F800
G1 X82.911 Y31.341 Z0 F800
; --- FIX X Backlash ---
G0 X81.811 Y31.341 F1200
G1 X81.752 Y31.864 Z0 F800
G1 X81.64 Y32.413 Z0 F800
G1 X81.485 Y32.969 Z0 F800
G0 Z3.5 F500
G0 X80.894 Y36.013 Z3.5
G1 Z0 F500
G1 X80.614 Y36.507 Z0 F800
G1 X80.146 Y37.237 Z0 F800
G1 X79.72 Y37.994 Z0 F800
G1 X79.329 Y38.773 Z0 F800
G1 X78.967 Y39.565 Z0 F800
G1 X78.301 Y41.166 Z0 F800
G1 X77.666 Y42.74 Z0 F800
G1 X77.349 Y42.773 Z0 F800
; --- FIX Y Backlash ---
G0 X77.349 Y41.573 F1200
G1 X76.924 Y41.211 Z0 F800
G1 X76.571 Y40.806 Z0 F800
G1 X76.285 Y40.364 Z0 F800
G1 X76.064 Y39.891 Z0 F800
G1 X75.904 Y39.391 Z0 F800
G1 X75.802 Y38.871 Z0 F800
G1 X75.755 Y38.335 Z0 F800
G1 X75.76 Y37.79 Z0 F800
; --- FIX X Backlash ---
G0 X76.86 Y37.79 F1200
G1 X76.914 Y37.24 Z0 F800
G1 X77.013 Y36.691 Z0 F800
G1 X77.155 Y36.148 Z0 F800
G1 X77.336 Y35.617 Z0 F800
G1 X77.554 Y35.104 Z0 F800
G1 X77.804 Y34.613 Z0 F800
G1 X78.084 Y34.15 Z0 F800
G1 X78.391 Y33.721 Z0 F800
G1 X78.715 Y33.33 Z0 F800
G1 X79.01 Y32.914 Z0 F800
G1 X79.281 Y32.477 Z0 F800
G1 X79.53 Y32.022 Z0 F800
G1 X79.974 Y31.074 Z0 F800
G1 X80.366 Y30.104 Z0 F800
G1 X80.731 Y29.143 Z0 F800
G1 X81.094 Y28.222 Z0 F800
G1 X81.281 Y27.787 Z0 F800
G1 X81.478 Y27.373 Z0 F800
G1 X81.685 Y26.986 Z0 F800
G1 X81.907 Y26.628 Z0 F800
; --- FIX Y Backlash ---
G0 X81.907 Y27.828 F1200
G1 X82.187 Y28.024 Z0 F800
G1 X82.439 Y28.232 Z0 F800
G1 X82.664 Y28.451 Z0 F800
G1 X82.861 Y28.68 Z0 F800
G1 X83.183 Y29.166 Z0 F800
G1 X83.41 Y29.684 Z0 F800
G1 X83.552 Y30.229 Z0 F800
G1 X83.616 Y30.796 Z0 F800
G1 X83.611 Y31.38 Z0 F800
; --- FIX X Backlash ---
G0 X82.511 Y31.38 F1200
G1 X82.443 Y31.976 Z0 F800
G1 X82.321 Y32.577 Z0 F800
G1 X82.153 Y33.179 Z0 F800
G1 X81.946 Y33.776 Z0 F800
G1 X81.71 Y34.364 Z0 F800
G1 X81.45 Y34.936 Z0 F800
G1 X81.175 Y35.487 Z0 F800
G1 X80.894 Y36.013 Z0 F800
M9
M5
G1 Z10 F500
G1 Z10 F800

