G90 ; Force absolute mode
;LightBurn 1.6.04
;Custom GCode device profile, absolute coords
;Bounds: X13.85 Y13.86 to X61.22 Y59.94
G00 G17 G40 G21 G54
M3
G1 Z10 F600
;Offset @ 555 mm/min, 90% power

M8
G0 Z3.5 F600
G0 X27.664 Y27.169 Z3.5
G1 Z0 F600
;Layer C1
G1 X27.867 Y27.234 Z0 F600
G1 X28.234 Y27.396 Z0 F600
G1 X28.527 Y27.523 Z0 F600
G1 X28.833 Y27.588 Z0 F600
; --- FIX X Backlash ---
G0 X28.133 Y27.588 F410
G1 X28.078 Y27.655 Z0 F600
G1 X27.972 Y27.792 Z0 F600
G1 X27.801 Y27.977 Z0 F600
G1 X27.68 Y28.078 Z0 F600
G1 X27.601 Y28.13 Z0 F600
G1 X27.537 Y28.175 Z0 F600
G1 X27.497 Y28.193 Z0 F600
G1 X27.399 Y28.213 Z0 F600
G1 X27.252 Z0 F600
G1 X27.123 Y28.19 Z0 F600
; --- FIX Y Backlash ---
G0 X27.123 Y27.69 F410
G1 X26.734 Y27.529 Z0 F600
G1 X26.404 Y27.354 Z0 F600
G1 X26.32 Y27.29 Z0 F600
G1 X26.256 Y27.231 Z0 F600
G1 X26.24 Y27.212 Z0 F600
G1 Y27.2 Z0 F600
G1 X26.244 Y27.046 Z0 F600
G1 X26.272 Y26.998 Z0 F600
G1 X26.313 Y26.93 Z0 F600
; --- FIX X Backlash ---
G0 X27.013 Y26.93 F410
G1 X27.073 Y26.815 Z0 F600
G1 X27.194 Y26.712 Z0 F600
G1 X27.229 Y26.699 Z0 F600
G1 X27.377 Y26.67 Z0 F600
G1 X27.551 Y26.66 Z0 F600
G1 X27.664 Y26.669 Z0 F600
G0 Z3.5 F600
G0 X28.985 Y26.609 Z3.5 F600
G1 Z0 F600
G1 X29.167 Y26.612 Z0 F600
G1 X29.359 Y26.586 Z0 F600
G1 X29.566 Y26.52 Z0 F600
G1 X29.759 Y26.41 Z0 F600
G1 X29.917 Y26.283 Z0 F600
G1 X30.07 Y26.143 Z0 F600
G1 X30.246 Y25.971 Z0 F600
G1 X30.459 Y25.758 Z0 F600
G1 X30.658 Y25.564 Z0 F600
G1 X30.817 Y25.417 Z0 F600
G1 X30.938 Y25.311 Z0 F600
G1 X30.945 Y25.305 Z0 F600
G1 X30.962 Y25.296 Z0 F600
G1 X31.039 Y25.251 Z0 F600
G1 X31.045 Y25.247 Z0 F600
G1 X31.187 Y25.19 Z0 F600
G1 X31.354 Y25.116 Z0 F600
G1 X31.386 Y25.104 Z0 F600
G1 X31.436 Y25.092 Z0 F600
G1 X31.537 Y25.08 Z0 F600
G1 X31.646 Y25.042 Z0 F600
G1 X31.804 Y25.005 Z0 F600
G1 X31.813 Z0 F600
G1 X31.821 Y25.001 Z0 F600
G1 X31.852 Y24.992 Z0 F600
G1 X32.166 Y24.939 Z0 F600
G1 X32.163 Y24.895 Z0 F600
G1 X32.231 Y24.873 Z0 F600
G1 X32.406 Y24.821 Z0 F600
G1 X32.482 Y24.796 Z0 F600
G1 X32.527 Y24.778 Z0 F600
G1 X32.643 Y24.742 Z0 F600
G1 X32.73 Y24.662 Z0 F600
G1 X32.833 Y24.595 Z0 F600
G1 X33.135 Y24.371 Z0 F600
G1 X33.377 Y24.085 Z0 F600
G1 X33.466 Y23.928 Z0 F600
G1 X33.528 Y23.757 Z0 F600
G1 X33.56 Y23.563 Z0 F600
G1 X33.546 Y23.33 Z0 F600
; --- FIX X Backlash ---
G0 X32.846 Y23.33 F410
G1 X32.714 Y23.004 Z0 F600
G1 X32.54 Y22.8 Z0 F600
G1 X32.589 Y22.838 Z0 F600
; --- FIX X Backlash ---
G0 X33.289 Y22.838 F410
; --- FIX Y Backlash ---
G0 X33.289 Y23.338 F410
G1 X33.445 Y23.482 Z0 F600
G1 X33.593 Y23.625 Z0 F600
G1 X33.653 Y23.695 Z0 F600
G1 X33.686 Y23.75 Z0 F600
G1 X33.742 Y23.882 Z0 F600
G1 X33.766 Y23.954 Z0 F600
G1 Y24.109 Z0 F600
G1 X33.76 Y24.227 Z0 F600
G1 Y24.234 Z0 F600
; --- FIX X Backlash ---
G0 X33.06 Y24.234 F410
G1 X33.003 Y24.341 Z0 F600
G1 X32.89 Y24.577 Z0 F600
G1 X32.808 Y24.867 Z0 F600
G1 X32.819 Y25.196 Z0 F600
; --- FIX X Backlash ---
G0 X33.519 Y25.196 F410
G1 X33.616 Y25.482 Z0 F600
G1 X33.748 Y25.689 Z0 F600
; --- FIX X Backlash ---
G0 X33.048 Y25.689 F410
; --- FIX Y Backlash ---
G0 X33.048 Y25.189 F410
G1 X32.723 Y25.051 Z0 F600
G1 X32.253 Y24.948 Z0 F600
G1 X31.772 Y24.925 Z0 F600
; --- FIX Y Backlash ---
G0 X31.772 Y25.425 F410
G1 X31.312 Y25.486 Z0 F600
G1 X31.017 Y25.578 Z0 F600
G1 X30.77 Y25.688 Z0 F600
G1 X30.624 Y25.757 Z0 F600
G1 X30.345 Y25.874 Z0 F600
G1 X30.112 Y26.039 Z0 F600
G1 X30.056 Y26.074 Z0 F600
G1 X29.792 Y26.247 Z0 F600
G1 X29.528 Y26.514 Z0 F600
G1 X29.393 Y26.686 Z0 F600
G1 X29.265 Y26.869 Z0 F600
G1 X29.13 Y27.077 Z0 F600
G1 X28.994 Y27.297 Z0 F600
G1 X28.884 Y27.463 Z0 F600
G1 X28.798 Y27.578 Z0 F600
G1 X28.592 Y27.818 Z0 F600
G1 X28.468 Y27.968 Z0 F600
G1 X28.35 Y28.12 Z0 F600
G1 X28.148 Y28.338 Z0 F600
G1 X27.981 Y28.479 Z0 F600
G1 X27.883 Y28.543 Z0 F600
G1 X27.788 Y28.61 Z0 F600
G1 X27.654 Y28.673 Z0 F600
G1 X27.453 Y28.712 Z0 F600
G1 X27.207 Y28.716 Z0 F600
G1 X26.981 Y28.672 Z0 F600
; --- FIX Y Backlash ---
G0 X26.981 Y28.172 F410
G1 X26.516 Y27.979 Z0 F600
G1 X26.133 Y27.776 Z0 F600
G1 X26.001 Y27.676 Z0 F600
G1 X25.896 Y27.58 Z0 F600
G1 X25.824 Y27.494 Z0 F600
G1 X25.765 Y27.398 Z0 F600
G1 X25.738 Y27.348 Z0 F600
G1 Y27.201 Z0 F600
G1 X25.746 Y26.999 Z0 F600
G1 X25.759 Y26.908 Z0 F600
G1 X25.777 Y26.857 Z0 F600
; --- FIX X Backlash ---
G0 X26.477 Y26.857 F410
G1 X26.536 Y26.752 Z0 F600
G1 X26.576 Y26.685 Z0 F600
G1 X26.625 Y26.593 Z0 F600
G1 X26.656 Y26.523 Z0 F600
G1 X26.664 Y26.515 Z0 F600
G1 X26.729 Y26.451 Z0 F600
G1 X26.889 Y26.315 Z0 F600
G1 X26.958 Y26.267 Z0 F600
G1 X27.095 Y26.216 Z0 F600
G1 X27.317 Y26.173 Z0 F600
G1 X27.56 Y26.158 Z0 F600
G1 X27.76 Y26.175 Z0 F600
; --- FIX Y Backlash ---
G0 X27.76 Y26.675 F410
G1 X28.043 Y26.766 Z0 F600
G1 X28.434 Y26.938 Z0 F600
G1 X28.68 Y27.044 Z0 F600
G1 X28.985 Y27.109 Z0 F600
G0 Z3.5 F600
; --- FIX Y Backlash ---
G0 X28.985 Y26.609 F410
G0 X37.086 Y18.131 Z3.5
G1 Z0 F600
; --- FIX X Backlash ---
G0 X36.386 Y18.131 F410
G1 X36.325 Y17.957 Z0 F600
G1 X36.291 Y17.867 Z0 F600
G1 X36.277 Y17.799 Z0 F600
G1 X36.259 Y17.605 Z0 F600
G1 X36.253 Y17.295 Z0 F600
G1 Y17.084 Z0 F600
G1 X36.257 Y17.053 Z0 F600
G1 X36.265 Y17.044 Z0 F600
; --- FIX X Backlash ---
G0 X36.965 Y17.044 F410
G1 X37.023 Y16.987 Z0 F600
G1 X37.111 Y16.962 Z0 F600
G1 X37.171 Y16.954 Z0 F600
G1 X37.189 Y16.961 Z0 F600
G1 X37.203 Y16.97 Z0 F600
; --- FIX Y Backlash ---
G0 X37.203 Y17.47 F410
G1 X37.271 Y17.525 Z0 F600
G1 X37.415 Y17.663 Z0 F600
G1 X37.592 Y17.841 Z0 F600
; --- FIX X Backlash ---
G0 X36.892 Y17.841 F410
G1 X36.663 Y18.083 Z0 F600
G1 X36.538 Y18.284 Z0 F600
G1 X36.429 Y18.481 Z0 F600
G1 X36.386 Y18.631 Z0 F600
G0 Z3.5 F600
G0 X35.967 Y19.79 Z3.5
G1 Z0 F600
; --- FIX Y Backlash ---
G0 X35.967 Y19.29 F410
G1 Y19.179 Z0 F600
G1 X35.971 Y19.009 Z0 F600
G1 X35.979 Y18.774 Z0 F600
G1 X35.957 Y18.421 Z0 F600
G1 X35.856 Y18.128 Z0 F600
G1 X35.808 Y18.005 Z0 F600
G1 X35.781 Y17.874 Z0 F600
G1 X35.76 Y17.639 Z0 F600
G1 X35.753 Y17.284 Z0 F600
G1 Y17.071 Z0 F600
G1 X35.761 Y16.927 Z0 F600
G1 X35.77 Y16.845 Z0 F600
G1 Y16.839 Z0 F600
G1 X35.774 Y16.835 Z0 F600
G1 X35.818 Y16.785 Z0 F600
; --- FIX X Backlash ---
G0 X36.518 Y16.785 F410
G1 X36.612 Y16.69 Z0 F600
G1 X36.736 Y16.567 Z0 F600
G1 X36.759 Y16.547 Z0 F600
G1 X36.843 Y16.518 Z0 F600
G1 X37.01 Y16.471 Z0 F600
G1 X37.156 Y16.452 Z0 F600
G1 X37.24 Z0 F600
G1 X37.327 Y16.477 Z0 F600
G1 X37.419 Y16.516 Z0 F600
G1 X37.49 Y16.559 Z0 F600
; --- FIX Y Backlash ---
G0 X37.49 Y17.059 F410
G1 X37.6 Y17.149 Z0 F600
G1 X37.776 Y17.317 Z0 F600
G1 X38.267 Y17.809 Z0 F600
G1 X38.436 Y17.973 Z0 F600
G1 X38.591 Y18.113 Z0 F600
G1 X38.684 Y18.175 Z0 F600
G1 X38.653 Y18.159 Z0 F600
; --- FIX X Backlash ---
G0 X37.953 Y18.159 F410
; --- FIX Y Backlash ---
G0 X37.953 Y17.659 F410
G1 X37.735 Y17.589 Z0 F600
G1 X37.466 Y17.608 Z0 F600
; --- FIX Y Backlash ---
G0 X37.466 Y18.108 F410
G1 X37.219 Y18.222 Z0 F600
G1 X37.061 Y18.39 Z0 F600
G1 X36.969 Y18.537 Z0 F600
G1 X36.894 Y18.674 Z0 F600
G1 X36.829 Y18.895 Z0 F600
G1 X36.833 Y19.131 Z0 F600
G1 X36.863 Y19.252 Z0 F600
G1 X36.907 Y19.562 Z0 F600
G1 X36.92 Y19.88 Z0 F600
G1 X36.899 Y19.971 Z0 F600
G1 X36.848 Y20.111 Z0 F600
G1 X36.798 Y20.217 Z0 F600
G1 X36.794 Y20.22 Z0 F600
G1 X36.671 Y20.291 Z0 F600
G1 X36.636 Y20.307 Z0 F600
G1 X36.558 Y20.303 Z0 F600
G1 X36.431 Y20.292 Z0 F600
G1 X36.384 Y20.275 Z0 F600
; --- FIX Y Backlash ---
G0 X36.384 Y19.775 F410
G1 X36.248 Y19.697 Z0 F600
G1 X36.121 Y19.594 Z0 F600
G1 X36.035 Y19.498 Z0 F600
G1 X35.983 Y19.409 Z0 F600
G1 X35.976 Y19.393 Z0 F600
G1 X35.97 Y19.347 Z0 F600
G1 X35.967 Y19.29 Z0 F600
G0 Z3.5 F600
; --- FIX X Backlash ---
G0 X36.667 Y19.29 F410
; --- FIX Y Backlash ---
G0 X36.667 Y19.79 F410
G0 X40.001 Y33.213 Z3.5
G1 Z0 F600
G1 X40.084 Y33.202 Z0 F600
G1 X40.146 Y33.207 Z0 F600
G1 X40.269 Y33.238 Z0 F600
G1 X40.35 Y33.264 Z0 F600
G1 X40.38 Y33.28 Z0 F600
G1 X40.401 Y33.296 Z0 F600
G1 X40.48 Y33.361 Z0 F600
G1 X40.58 Y33.449 Z0 F600
G1 X40.73 Y33.583 Z0 F600
G1 X40.751 Y33.602 Z0 F600
; --- FIX X Backlash ---
G0 X40.051 Y33.602 F410
; --- FIX Y Backlash ---
G0 X40.051 Y33.102 F410
G1 X39.856 Y33.027 Z0 F600
G1 X39.601 Y33.02 Z0 F600
; --- FIX Y Backlash ---
G0 X39.601 Y33.52 F410
G1 X39.373 Y33.578 Z0 F600
G1 X39.219 Y33.667 Z0 F600
G1 X39.109 Y33.754 Z0 F600
G1 X38.95 Y33.944 Z0 F600
G1 X38.851 Y34.177 Z0 F600
G1 X38.813 Y34.371 Z0 F600
G1 Y34.375 Z0 F600
; --- FIX Y Backlash ---
G0 X38.813 Y33.875 F410
G1 X38.803 Y33.735 Z0 F600
G1 X38.791 Y33.45 Z0 F600
G1 X38.801 Y33.277 Z0 F600
G1 X38.83 Y33.148 Z0 F600
; --- FIX X Backlash ---
G0 X39.53 Y33.148 F410
G1 X39.584 Y33.013 Z0 F600
G1 X39.656 Y32.881 Z0 F600
G1 X39.705 Y32.822 Z0 F600
G1 X39.748 Y32.792 Z0 F600
G1 X39.845 Y32.754 Z0 F600
G1 X40.001 Y32.713 Z0 F600
G0 Z3.5 F600
G0 X43.308 Y32.201 Z3.5
G1 Z0 F600
G1 X43.346 Y32.246 Z0 F600
; --- FIX Y Backlash ---
G0 X43.346 Y32.746 F410
G1 X43.415 Y32.862 Z0 F600
G1 X43.454 Y32.965 Z0 F600
G1 X43.48 Y33.157 Z0 F600
G1 X43.472 Y33.389 Z0 F600
G1 X43.423 Y33.616 Z0 F600
G1 X43.415 Y33.639 Z0 F600
G1 X43.396 Y33.661 Z0 F600
; --- FIX X Backlash ---
G0 X42.696 Y33.661 F410
G1 X42.572 Y33.783 Z0 F600
G1 X42.543 Y33.809 Z0 F600
; --- FIX X Backlash ---
G0 X43.243 Y33.809 F410
; --- FIX Y Backlash ---
G0 X43.243 Y33.309 F410
G1 X43.392 Y33.01 Z0 F600
G1 X43.437 Y32.702 Z0 F600
G1 X43.409 Y32.448 Z0 F600
; --- FIX X Backlash ---
G0 X42.709 Y32.448 F410
G1 X42.608 Y32.201 Z0 F600
G0 Z3.5 F600
G0 X28.339 Y23.453 Z3.5
G1 Z0 F600
G1 X28.336 Z0 F600
G1 X28.215 Y23.448 Z0 F600
G1 X28.146 Y23.438 Z0 F600
G1 X28.013 Y23.386 Z0 F600
G1 X27.866 Y23.277 Z0 F600
G1 X27.806 Y23.218 Z0 F600
G1 Y23.212 Z0 F600
G1 X27.794 Y23.097 Z0 F600
G1 X27.801 Y22.894 Z0 F600
; --- FIX X Backlash ---
G0 X28.501 Y22.894 F410
; --- FIX Y Backlash ---
G0 X28.501 Y23.394 F410
G1 X28.634 Y23.658 Z0 F600
G1 X28.851 Y23.864 Z0 F600
G1 X29.039 Y23.953 Z0 F600
G0 Z3.5 F600
; --- FIX Y Backlash ---
G0 X29.039 Y23.453 F410
G0 X34.225 Y20.25 Z3.5
G1 Z0 F600
G1 X34.307 Y20.127 Z0 F600
G1 X34.351 Y19.966 Z0 F600
; --- FIX Y Backlash ---
G0 X34.351 Y20.466 F410
G1 X34.336 Y20.555 Z0 F600
G1 X34.302 Y20.651 Z0 F600
; --- FIX X Backlash ---
G0 X33.602 Y20.651 F410
G1 X33.529 Y20.747 Z0 F600
G1 X33.525 Y20.75 Z0 F600
G0 Z3.5 F600
; --- FIX X Backlash ---
G0 X34.225 Y20.75 F410
; --- FIX Y Backlash ---
G0 X34.225 Y20.25 F410
G0 X39.303 Y17.957 Z3.5
G1 Z0 F600
G1 X39.383 Y17.983 Z0 F600
G1 X39.571 Y18.013 Z0 F600
G1 X39.792 Y17.978 Z0 F600
G1 X39.996 Y17.878 Z0 F600
G1 X40.132 Y17.743 Z0 F600
G1 X40.244 Y17.59 Z0 F600
G1 X40.336 Y17.403 Z0 F600
; --- FIX Y Backlash ---
G0 X40.336 Y17.903 F410
G1 X40.342 Y18.024 Z0 F600
G1 Y18.212 Z0 F600
G1 X40.337 Y18.367 Z0 F600
G1 X40.327 Y18.5 Z0 F600
G1 Y18.511 Z0 F600
; --- FIX X Backlash ---
G0 X39.627 Y18.511 F410
G1 X39.572 Y18.646 Z0 F600
G1 X39.542 Y18.687 Z0 F600
G1 X39.531 Y18.694 Z0 F600
G1 X39.494 Y18.705 Z0 F600
G1 X39.279 Y18.689 Z0 F600
; --- FIX Y Backlash ---
G0 X39.279 Y18.189 F410
G1 X39.025 Y18.129 Z0 F600
G1 X38.894 Y18.072 Z0 F600
G1 X38.737 Y18.019 Z0 F600
G1 X38.686 Y17.998 Z0 F600
G1 X38.603 Y17.957 Z0 F600
G0 Z3.5 F600
G0 X35.451 Y16.444 Z3.5
G1 Z0 F600
; --- FIX X Backlash ---
G0 X36.151 Y16.444 F410
G1 X36.26 Y16.335 Z0 F600
G1 X36.397 Y16.199 Z0 F600
G1 X36.479 Y16.128 Z0 F600
G1 X36.56 Y16.087 Z0 F600
G1 X36.69 Y16.042 Z0 F600
G1 X36.91 Y15.98 Z0 F600
G1 X37.12 Y15.952 Z0 F600
G1 X37.312 Y15.949 Z0 F600
; --- FIX Y Backlash ---
G0 X37.312 Y16.449 F410
G1 X37.497 Y16.506 Z0 F600
G1 X37.646 Y16.568 Z0 F600
G1 X37.782 Y16.651 Z0 F600
G1 X37.932 Y16.774 Z0 F600
G1 X38.122 Y16.957 Z0 F600
G1 X38.618 Y17.453 Z0 F600
G1 X38.777 Y17.607 Z0 F600
G1 X38.899 Y17.718 Z0 F600
G1 X39.099 Y17.852 Z0 F600
G1 X39.276 Y17.922 Z0 F600
G1 X39.501 Y17.996 Z0 F600
G1 X39.571 Y18.007 Z0 F600
G1 X39.64 Y17.996 Z0 F600
G1 X39.702 Y17.965 Z0 F600
G1 X39.752 Y17.916 Z0 F600
; --- FIX Y Backlash ---
G0 X39.752 Y17.416 F410
G1 X39.814 Y17.331 Z0 F600
G1 X39.878 Y17.201 Z0 F600
G1 X39.9 Y17.037 Z0 F600
G1 X39.867 Y16.873 Z0 F600
; --- FIX X Backlash ---
G0 X39.167 Y16.873 F410
G1 X39.098 Y16.662 Z0 F600
G1 X39.025 Y16.463 Z0 F600
G1 X38.944 Y16.278 Z0 F600
G1 X38.903 Y16.196 Z0 F600
G1 X38.862 Y16.124 Z0 F600
G1 X38.829 Y16.073 Z0 F600
G1 X38.781 Y16.016 Z0 F600
G1 X38.746 Y15.939 Z0 F600
G1 X38.674 Y15.804 Z0 F600
G1 X38.612 Y15.695 Z0 F600
G1 X38.51 Y15.536 Z0 F600
G1 X38.395 Y15.384 Z0 F600
G1 X38.248 Y15.222 Z0 F600
G1 X38.053 Y15.027 Z0 F600
G1 X37.905 Y14.886 Z0 F600
G1 X37.777 Y14.769 Z0 F600
G1 X37.723 Y14.722 Z0 F600
G1 X37.657 Y14.668 Z0 F600
G1 X37.621 Y14.644 Z0 F600
G1 X37.584 Y14.625 Z0 F600
G1 X37.555 Y14.615 Z0 F600
G1 X37.458 Y14.562 Z0 F600
G1 X37.384 Y14.516 Z0 F600
G1 X37.152 Y14.38 Z0 F600
G1 X36.895 Y14.248 Z0 F600
G1 X36.72 Y14.171 Z0 F600
G1 X36.571 Y14.125 Z0 F600
G1 X36.409 Y14.104 Z0 F600
G1 X36.198 Y14.099 Z0 F600
G1 X35.865 Z0 F600
G1 X35.813 Y14.104 Z0 F600
G1 X35.764 Y14.123 Z0 F600
; --- FIX Y Backlash ---
G0 X35.764 Y14.623 F410
G1 X35.481 Y14.765 Z0 F600
G1 X35.246 Y14.894 Z0 F600
G1 X35.028 Y15.042 Z0 F600
G1 X34.792 Y15.236 Z0 F600
G1 X34.503 Y15.502 Z0 F600
G1 X34.265 Y15.73 Z0 F600
G1 X34.053 Y15.939 Z0 F600
G1 X33.867 Y16.132 Z0 F600
G1 X33.705 Y16.309 Z0 F600
G1 X33.568 Y16.472 Z0 F600
G1 X33.455 Y16.623 Z0 F600
G1 X33.365 Y16.763 Z0 F600
G1 X33.299 Y16.894 Z0 F600
G1 X33.26 Y16.963 Z0 F600
G1 X33.253 Y16.981 Z0 F600
G1 X33.195 Y17.061 Z0 F600
G1 X33.133 Y17.204 Z0 F600
G1 X33.101 Y17.29 Z0 F600
G1 X33.04 Y17.549 Z0 F600
G1 X33.022 Y17.896 Z0 F600
G1 Y18.246 Z0 F600
G1 X33.027 Y18.298 Z0 F600
G1 X33.046 Y18.347 Z0 F600
; --- FIX X Backlash ---
G0 X33.746 Y18.347 F410
G1 X33.862 Y18.563 Z0 F600
G1 X33.956 Y18.719 Z0 F600
G1 X34.079 Y18.882 Z0 F600
G1 X34.161 Y18.979 Z0 F600
G1 X34.264 Y19.092 Z0 F600
G1 X34.678 Y19.531 Z0 F600
G1 X34.755 Y19.634 Z0 F600
G1 X34.803 Y19.745 Z0 F600
G1 X34.849 Y19.912 Z0 F600
G1 X34.878 Y20.143 Z0 F600
G1 X34.867 Y20.414 Z0 F600
G1 X34.822 Y20.68 Z0 F600
; --- FIX X Backlash ---
G0 X34.122 Y20.68 F410
G1 X34.047 Y20.893 Z0 F600
G1 X33.9 Y21.084 Z0 F600
G1 X33.701 Y21.269 Z0 F600
G1 X33.658 Y21.292 Z0 F600
G1 X33.578 Y21.327 Z0 F600
G1 X33.472 Y21.368 Z0 F600
G1 X33.35 Y21.408 Z0 F600
G1 X33.086 Y21.477 Z0 F600
G1 X32.836 Y21.522 Z0 F600
G1 X32.651 Y21.541 Z0 F600
G1 X32.42 Y21.554 Z0 F600
G1 X32.163 Y21.563 Z0 F600
G1 X31.904 Y21.567 Z0 F600
G1 X31.661 Z0 F600
G1 X31.457 Y21.558 Z0 F600
G1 X31.375 Y21.552 Z0 F600
G1 X31.314 Y21.546 Z0 F600
G1 X31.276 Y21.538 Z0 F600
G1 X31.297 Y21.548 Z0 F600
; --- FIX Y Backlash ---
G0 X31.297 Y21.048 F410
G1 X31.137 Y20.988 Z0 F600
G1 X30.96 Y20.951 Z0 F600
G1 X30.768 Y20.931 Z0 F600
G1 X30.565 Y20.923 Z0 F600
G1 X30.148 Y20.94 Z0 F600
; --- FIX Y Backlash ---
G0 X30.148 Y21.44 F410
G1 X29.764 Y21.514 Z0 F600
G1 X29.54 Y21.591 Z0 F600
G1 X29.351 Y21.68 Z0 F600
G1 X29.178 Y21.791 Z0 F600
G1 X29.006 Y21.933 Z0 F600
G1 X28.796 Y22.137 Z0 F600
G1 X28.617 Y22.343 Z0 F600
G1 X28.471 Y22.552 Z0 F600
G1 X28.358 Y22.765 Z0 F600
G1 X28.308 Y22.885 Z0 F600
G1 X28.274 Y23.001 Z0 F600
G1 X28.263 Y23.118 Z0 F600
G1 X28.282 Y23.238 Z0 F600
; --- FIX X Backlash ---
G0 X28.982 Y23.238 F410
G1 X29.042 Y23.355 Z0 F600
G1 X29.137 Y23.447 Z0 F600
G1 X29.249 Y23.5 Z0 F600
G1 X29.366 Y23.525 Z0 F600
G1 X29.479 Y23.528 Z0 F600
G1 X29.6 Y23.508 Z0 F600
G1 X29.719 Y23.464 Z0 F600
; --- FIX Y Backlash ---
G0 X29.719 Y22.964 F410
G1 X30.031 Y22.82 Z0 F600
G1 X30.083 Y22.798 Z0 F600
G1 X30.109 Y22.791 Z0 F600
G1 X30.147 Y22.775 Z0 F600
G1 X30.192 Y22.75 Z0 F600
G1 X30.281 Y22.688 Z0 F600
G1 X30.346 Y22.638 Z0 F600
G1 X30.468 Y22.562 Z0 F600
G1 X30.613 Y22.499 Z0 F600
G1 X30.696 Y22.471 Z0 F600
G1 X30.855 Y22.412 Z0 F600
G1 X30.901 Y22.383 Z0 F600
G1 X30.879 Y22.397 Z0 F600
G1 X30.915 Y22.385 Z0 F600
G1 X31.074 Y22.34 Z0 F600
G1 X31.309 Y22.281 Z0 F600
G1 X31.597 Y22.213 Z0 F600
G1 X31.76 Y22.179 Z0 F600
G1 X31.916 Y22.161 Z0 F600
G1 X32.115 Y22.152 Z0 F600
G1 X32.413 Z0 F600
G1 X32.733 Z0 F600
G1 X32.836 Y22.155 Z0 F600
G1 X32.912 Y22.16 Z0 F600
G1 X33.017 Y22.178 Z0 F600
G1 X33.142 Y22.218 Z0 F600
; --- FIX Y Backlash ---
G0 X33.142 Y22.718 F410
G1 X33.35 Y22.792 Z0 F600
G1 X33.486 Y22.859 Z0 F600
G1 X33.612 Y22.955 Z0 F600
G1 X33.785 Y23.116 Z0 F600
G1 X33.958 Y23.283 Z0 F600
G1 X34.062 Y23.403 Z0 F600
G1 X34.133 Y23.526 Z0 F600
G1 X34.209 Y23.703 Z0 F600
G1 X34.267 Y23.875 Z0 F600
G1 X34.264 Y24.115 Z0 F600
G1 X34.258 Y24.271 Z0 F600
G1 X34.248 Y24.36 Z0 F600
G1 X34.216 Y24.439 Z0 F600
; --- FIX X Backlash ---
G0 X33.516 Y24.439 F410
G1 X33.45 Y24.565 Z0 F600
G1 X33.36 Y24.754 Z0 F600
G1 X33.31 Y24.928 Z0 F600
G1 X33.316 Y25.105 Z0 F600
; --- FIX X Backlash ---
G0 X34.016 Y25.105 F410
G1 X34.07 Y25.265 Z0 F600
G1 X34.143 Y25.379 Z0 F600
G1 X34.25 Y25.491 Z0 F600
G1 X34.397 Y25.609 Z0 F600
G1 X34.782 Y25.889 Z0 F600
G1 X34.91 Y25.987 Z0 F600
G1 X35.32 Y26.3 Z0 F600
G1 X35.743 Y26.573 Z0 F600
G1 X35.944 Y26.688 Z0 F600
G1 X36.132 Y26.783 Z0 F600
G1 X36.308 Y26.856 Z0 F600
G1 X36.472 Y26.902 Z0 F600
G1 X36.716 Y26.935 Z0 F600
G1 X36.973 Y26.921 Z0 F600
G1 X37.114 Y26.894 Z0 F600
G1 X37.274 Y26.854 Z0 F600
; --- FIX Y Backlash ---
G0 X37.274 Y26.354 F410
G1 X37.461 Y26.298 Z0 F600
G1 X37.684 Y26.228 Z0 F600
G1 X38.026 Y26.147 Z0 F600
G1 X38.425 Y26.102 Z0 F600
G1 X38.847 Y26.095 Z0 F600
G1 X39.258 Y26.131 Z0 F600
; --- FIX Y Backlash ---
G0 X39.258 Y26.631 F410
G1 X39.513 Y26.681 Z0 F600
G1 X39.742 Y26.777 Z0 F600
G1 X39.879 Y26.85 Z0 F600
G1 X40.008 Y26.942 Z0 F600
G1 X40.086 Y27.009 Z0 F600
G1 X40.184 Y27.097 Z0 F600
G1 X40.459 Y27.357 Z0 F600
G1 X40.763 Y27.656 Z0 F600
G1 X41.004 Y27.911 Z0 F600
G1 X41.093 Y28.014 Z0 F600
G1 X41.156 Y28.093 Z0 F600
G1 X41.179 Y28.126 Z0 F600
G1 X41.186 Y28.147 Z0 F600
G1 X41.204 Y28.187 Z0 F600
G1 X41.232 Y28.244 Z0 F600
G1 X41.318 Y28.396 Z0 F600
G1 X41.43 Y28.611 Z0 F600
G1 X41.567 Y28.903 Z0 F600
G1 X41.629 Y29.043 Z0 F600
G1 X41.679 Y29.162 Z0 F600
G1 X41.71 Y29.244 Z0 F600
G1 X41.713 Y29.27 Z0 F600
G1 Y29.226 Z0 F600
G1 X41.716 Y29.279 Z0 F600
G1 X41.732 Y29.338 Z0 F600
G1 X41.766 Y29.447 Z0 F600
G1 X41.892 Y29.81 Z0 F600
G1 X41.972 Y30.075 Z0 F600
G1 X42.001 Y30.195 Z0 F600
G1 X42.023 Y30.297 Z0 F600
G1 X42.041 Y30.397 Z0 F600
G1 X42.05 Y30.48 Z0 F600
G1 X42.07 Y30.542 Z0 F600
G1 X42.095 Y30.606 Z0 F600
G1 X42.126 Y30.67 Z0 F600
G1 X42.165 Y30.759 Z0 F600
G1 X42.201 Y30.867 Z0 F600
G1 X42.274 Y31.055 Z0 F600
G1 X42.383 Y31.248 Z0 F600
G1 X42.512 Y31.44 Z0 F600
G1 X42.65 Y31.606 Z0 F600
G1 X42.799 Y31.733 Z0 F600
G1 X42.971 Y31.844 Z0 F600
G1 X43.038 Y31.884 Z0 F600
G1 X43.119 Y31.936 Z0 F600
G1 X43.142 Y31.954 Z0 F600
G1 X43.126 Y31.938 Z0 F600
G1 X43.162 Y31.972 Z0 F600
G1 X43.212 Y32.009 Z0 F600
G1 X43.312 Y32.074 Z0 F600
G1 X43.388 Y32.12 Z0 F600
G1 X43.616 Y32.293 Z0 F600
G1 X43.754 Y32.454 Z0 F600
G1 X43.866 Y32.643 Z0 F600
G1 X43.941 Y32.841 Z0 F600
G1 X43.982 Y33.13 Z0 F600
G1 X43.97 Y33.452 Z0 F600
; --- FIX X Backlash ---
G0 X43.27 Y33.452 F410
G1 X43.205 Y33.753 Z0 F600
G1 X43.168 Y33.859 Z0 F600
G1 X43.133 Y33.921 Z0 F600
G1 X43.06 Y34.003 Z0 F600
G1 X42.915 Y34.147 Z0 F600
G1 X42.744 Y34.3 Z0 F600
G1 X42.598 Y34.409 Z0 F600
G1 X42.491 Y34.463 Z0 F600
G1 X42.473 Y34.476 Z0 F600
G1 X42.345 Y34.493 Z0 F600
G1 X42.255 Y34.537 Z0 F600
G1 Y34.533 Z0 F600
G1 X42.193 Y34.55 Z0 F600
G1 X42.11 Y34.567 Z0 F600
G1 X42.011 Y34.583 Z0 F600
G1 X41.801 Y34.61 Z0 F600
G1 X41.636 Y34.621 Z0 F600
G1 X41.339 Y34.596 Z0 F600
; --- FIX Y Backlash ---
G0 X41.339 Y34.096 F410
G1 X40.949 Y34.034 Z0 F600
G1 X40.772 Y33.998 Z0 F600
G1 X40.631 Y33.962 Z0 F600
G1 X40.576 Y33.944 Z0 F600
G1 X40.56 Y33.927 Z0 F600
G1 X40.531 Y33.905 Z0 F600
G1 X40.506 Y33.889 Z0 F600
G1 X40.452 Y33.858 Z0 F600
G1 X40.394 Y33.829 Z0 F600
G1 X40.334 Y33.801 Z0 F600
G1 X40.234 Y33.762 Z0 F600
G1 X40.155 Y33.745 Z0 F600
G1 X40.125 Z0 F600
G1 X40.158 Z0 F600
G1 X40.173 Z0 F600
G1 X40.092 Y33.703 Z0 F600
G1 X40.027 Y33.663 Z0 F600
G1 X39.898 Y33.578 Z0 F600
G1 X39.757 Y33.524 Z0 F600
G1 X39.656 Y33.521 Z0 F600
G1 X39.563 Y33.545 Z0 F600
G1 X39.501 Y33.581 Z0 F600
G1 X39.46 Y33.613 Z0 F600
; --- FIX Y Backlash ---
G0 X39.46 Y34.113 F410
G1 X39.381 Y34.208 Z0 F600
G1 X39.331 Y34.325 Z0 F600
G1 X39.307 Y34.449 Z0 F600
G1 X39.287 Y34.612 Z0 F600
G1 X39.253 Y34.842 Z0 F600
G1 X39.202 Y35.076 Z0 F600
G1 X39.175 Y35.178 Z0 F600
G1 X39.149 Y35.258 Z0 F600
G1 X39.121 Y35.309 Z0 F600
G1 X39.146 Y35.287 Z0 F600
G1 X39.092 Y35.344 Z0 F600
G1 X39.03 Y35.414 Z0 F600
G1 X38.971 Y35.472 Z0 F600
G1 X38.881 Y35.553 Z0 F600
; --- FIX Y Backlash ---
G0 X38.881 Y35.053 F410
G1 X38.727 Y34.856 Z0 F600
G1 X38.571 Y34.69 Z0 F600
G1 X38.401 Y34.54 Z0 F600
G1 X38.227 Y34.412 Z0 F600
G1 X38.257 Y34.359 Z0 F600
G1 X38.298 Y34.253 Z0 F600
G1 X38.319 Y34.126 Z0 F600
G1 Y33.977 Z0 F600
G1 X38.304 Y33.766 Z0 F600
G1 X38.291 Y33.45 Z0 F600
G1 X38.304 Y33.208 Z0 F600
G1 X38.349 Y33.004 Z0 F600
; --- FIX X Backlash ---
G0 X39.049 Y33.004 F410
G1 X39.13 Y32.801 Z0 F600
G1 X39.241 Y32.598 Z0 F600
G1 X39.364 Y32.452 Z0 F600
G1 X39.509 Y32.349 Z0 F600
G1 X39.686 Y32.279 Z0 F600
G1 X39.905 Y32.221 Z0 F600
G1 X40.073 Y32.199 Z0 F600
G1 X40.227 Y32.211 Z0 F600
G1 X40.405 Y32.256 Z0 F600
G1 X40.549 Y32.303 Z0 F600
; --- FIX Y Backlash ---
G0 X40.549 Y32.803 F410
G1 X40.649 Y32.857 Z0 F600
G1 X40.713 Y32.905 Z0 F600
G1 X40.799 Y32.977 Z0 F600
G1 X40.913 Y33.076 Z0 F600
G1 X41.061 Y33.208 Z0 F600
G1 X41.271 Y33.39 Z0 F600
G1 X41.467 Y33.539 Z0 F600
G1 X41.655 Y33.656 Z0 F600
G1 X41.838 Y33.741 Z0 F600
G1 X42.023 Y33.792 Z0 F600
G1 X42.208 Y33.804 Z0 F600
G1 X42.388 Y33.78 Z0 F600
; --- FIX Y Backlash ---
G0 X42.388 Y33.28 F410
G1 X42.559 Y33.22 Z0 F600
G1 X42.71 Y33.132 Z0 F600
G1 X42.832 Y33.013 Z0 F600
G1 X42.909 Y32.859 Z0 F600
G1 X42.933 Y32.693 Z0 F600
G1 X42.919 Y32.572 Z0 F600
; --- FIX X Backlash ---
G0 X42.219 Y32.572 F410
G1 X42.166 Y32.441 Z0 F600
G1 X42.076 Y32.335 Z0 F600
G1 X41.952 Y32.222 Z0 F600
G1 X41.856 Y32.139 Z0 F600
G1 X41.758 Y32.062 Z0 F600
G1 X41.672 Y31.999 Z0 F600
G1 X41.581 Y31.948 Z0 F600
G1 X41.493 Y31.886 Z0 F600
G1 X41.414 Y31.822 Z0 F600
G1 X41.331 Y31.751 Z0 F600
G1 X41.253 Y31.68 Z0 F600
G1 X41.192 Y31.62 Z0 F600
G1 X41.169 Y31.595 Z0 F600
G1 X41.14 Y31.533 Z0 F600
G1 X41.079 Y31.429 Z0 F600
G1 X41.028 Y31.35 Z0 F600
G1 X40.93 Y31.174 Z0 F600
G1 X40.839 Y30.971 Z0 F600
G1 X40.734 Y30.669 Z0 F600
G1 X40.632 Y30.342 Z0 F600
G1 X40.588 Y30.194 Z0 F600
G1 X40.554 Y30.071 Z0 F600
G1 X40.535 Y29.974 Z0 F600
G1 X40.529 Y29.968 Z0 F600
G1 X40.508 Y29.813 Z0 F600
G1 X40.455 Y29.68 Z0 F600
G1 X40.416 Y29.576 Z0 F600
G1 X40.336 Y29.303 Z0 F600
G1 X40.247 Y29.076 Z0 F600
G1 X40.134 Y28.828 Z0 F600
G1 X40.006 Y28.573 Z0 F600
G1 X39.84 Y28.291 Z0 F600
G1 X39.641 Y28.01 Z0 F600
G1 X39.419 Y27.74 Z0 F600
G1 X39.182 Y27.486 Z0 F600
G1 X38.941 Y27.258 Z0 F600
G1 X38.7 Y27.063 Z0 F600
G1 X38.461 Y26.911 Z0 F600
G1 X38.223 Y26.811 Z0 F600
G1 X38.029 Y26.776 Z0 F600
G1 X37.817 Y26.787 Z0 F600
; --- FIX Y Backlash ---
G0 X37.817 Y27.287 F410
G1 X37.584 Y27.341 Z0 F600
G1 X37.301 Y27.437 Z0 F600
G1 X36.841 Y27.606 Z0 F600
G1 X36.697 Y27.654 Z0 F600
G1 X36.585 Y27.684 Z0 F600
G1 X36.481 Y27.698 Z0 F600
G1 X36.366 Y27.702 Z0 F600
G1 X35.838 Y27.689 Z0 F600
G1 X35.606 Y27.681 Z0 F600
G1 X35.529 Y27.674 Z0 F600
G1 X35.406 Y27.649 Z0 F600
; --- FIX Y Backlash ---
G0 X35.406 Y27.149 F410
G1 X35.256 Y27.098 Z0 F600
G1 X34.861 Y26.933 Z0 F600
G1 X34.445 Y26.715 Z0 F600
G1 X34.067 Y26.479 Z0 F600
G1 X33.786 Y26.262 Z0 F600
G1 X33.531 Y26.053 Z0 F600
G1 X33.263 Y25.875 Z0 F600
G1 X32.911 Y25.675 Z0 F600
G1 X32.571 Y25.529 Z0 F600
G1 X32.187 Y25.445 Z0 F600
G1 X31.793 Y25.426 Z0 F600
; --- FIX Y Backlash ---
G0 X31.793 Y25.926 F410
G1 X31.42 Y25.976 Z0 F600
G1 X31.194 Y26.046 Z0 F600
G1 X30.979 Y26.142 Z0 F600
G1 X30.83 Y26.213 Z0 F600
G1 X30.589 Y26.314 Z0 F600
G1 X30.389 Y26.455 Z0 F600
G1 X30.325 Y26.495 Z0 F600
G1 X30.111 Y26.636 Z0 F600
G1 X29.904 Y26.845 Z0 F600
G1 X29.795 Y26.983 Z0 F600
G1 X29.679 Y27.149 Z0 F600
G1 X29.552 Y27.344 Z0 F600
G1 X29.411 Y27.573 Z0 F600
G1 X29.291 Y27.754 Z0 F600
G1 X29.188 Y27.893 Z0 F600
G1 X28.974 Y28.141 Z0 F600
G1 X28.859 Y28.281 Z0 F600
G1 X28.733 Y28.442 Z0 F600
G1 X28.494 Y28.701 Z0 F600
G1 X28.276 Y28.883 Z0 F600
G1 X28.164 Y28.957 Z0 F600
G1 X28.04 Y29.044 Z0 F600
G1 X27.811 Y29.151 Z0 F600
G1 X27.504 Y29.212 Z0 F600
G1 X27.163 Y29.216 Z0 F600
; --- FIX Y Backlash ---
G0 X27.163 Y28.716 F410
G1 X26.836 Y28.654 Z0 F600
G1 X26.305 Y28.433 Z0 F600
G1 X25.864 Y28.2 Z0 F600
G1 X25.679 Y28.06 Z0 F600
G1 X25.532 Y27.924 Z0 F600
G1 X25.418 Y27.788 Z0 F600
G1 X25.33 Y27.646 Z0 F600
G1 X25.268 Y27.529 Z0 F600
G1 X25.242 Y27.459 Z0 F600
G1 X25.238 Y27.369 Z0 F600
G1 Y27.187 Z0 F600
G1 X25.247 Y26.957 Z0 F600
G1 X25.271 Y26.789 Z0 F600
G1 X25.32 Y26.65 Z0 F600
; --- FIX X Backlash ---
G0 X26.02 Y26.65 F410
G1 X26.1 Y26.508 Z0 F600
G1 X26.14 Y26.44 Z0 F600
G1 X26.174 Y26.375 Z0 F600
G1 X26.202 Y26.313 Z0 F600
G1 X26.217 Y26.268 Z0 F600
G1 X26.241 Y26.236 Z0 F600
G1 X26.306 Y26.165 Z0 F600
G1 X26.39 Y26.083 Z0 F600
G1 X26.583 Y25.919 Z0 F600
G1 X26.725 Y25.819 Z0 F600
G1 X26.96 Y25.732 Z0 F600
G1 X27.252 Y25.676 Z0 F600
G1 X27.565 Y25.657 Z0 F600
G1 X27.859 Y25.682 Z0 F600
; --- FIX Y Backlash ---
G0 X27.859 Y26.182 F410
G1 X28.221 Y26.297 Z0 F600
G1 X28.634 Y26.48 Z0 F600
G1 X28.832 Y26.565 Z0 F600
G1 X29.042 Y26.61 Z0 F600
G1 X29.137 Z0 F600
G1 X29.248 Y26.596 Z0 F600
G1 X29.364 Y26.559 Z0 F600
; --- FIX Y Backlash ---
G0 X29.364 Y26.059 F410
G1 X29.477 Y25.995 Z0 F600
G1 X29.591 Y25.903 Z0 F600
G1 X29.726 Y25.779 Z0 F600
G1 X29.895 Y25.615 Z0 F600
G1 X30.11 Y25.4 Z0 F600
G1 X30.309 Y25.206 Z0 F600
G1 X30.488 Y25.04 Z0 F600
G1 X30.623 Y24.922 Z0 F600
G1 X30.669 Y24.888 Z0 F600
G1 X30.665 Z0 F600
G1 X30.72 Y24.859 Z0 F600
G1 X30.769 Y24.83 Z0 F600
G1 X30.806 Y24.804 Z0 F600
G1 X30.992 Y24.729 Z0 F600
G1 X31.166 Y24.652 Z0 F600
G1 X31.24 Y24.625 Z0 F600
G1 X31.302 Y24.61 Z0 F600
G1 X31.28 Y24.607 Z0 F600
G1 X31.424 Y24.59 Z0 F600
G1 X31.612 Y24.525 Z0 F600
G1 X31.638 Y24.521 Z0 F600
G1 X31.625 Z0 F600
G1 X31.712 Y24.512 Z0 F600
G1 X31.85 Y24.472 Z0 F600
G1 X32.079 Y24.396 Z0 F600
G1 X32.258 Y24.344 Z0 F600
G1 X32.31 Y24.327 Z0 F600
G1 X32.359 Y24.307 Z0 F600
G1 X32.387 Y24.298 Z0 F600
G1 X32.448 Y24.242 Z0 F600
G1 X32.431 Y24.26 Z0 F600
G1 X32.547 Y24.184 Z0 F600
G1 X32.791 Y24.003 Z0 F600
G1 X32.965 Y23.798 Z0 F600
G1 X33.01 Y23.718 Z0 F600
G1 X33.042 Y23.63 Z0 F600
G1 X33.057 Y23.537 Z0 F600
G1 X33.052 Y23.441 Z0 F600
; --- FIX X Backlash ---
G0 X32.352 Y23.441 F410
G1 X32.281 Y23.267 Z0 F600
G1 X32.159 Y23.124 Z0 F600
G1 X32.027 Y23.023 Z0 F600
G1 X31.879 Y22.952 Z0 F600
G1 X31.711 Y22.91 Z0 F600
G1 X31.522 Y22.896 Z0 F600
G1 X31.205 Y22.935 Z0 F600
; --- FIX Y Backlash ---
G0 X31.205 Y23.435 F410
G1 X30.856 Y23.53 Z0 F600
G1 X30.518 Y23.651 Z0 F600
G1 X30.241 Y23.8 Z0 F600
G1 X30.103 Y23.889 Z0 F600
G1 X29.953 Y23.972 Z0 F600
G1 X29.764 Y24.072 Z0 F600
G1 X29.575 Y24.184 Z0 F600
G1 X29.413 Y24.271 Z0 F600
G1 X29.232 Y24.339 Z0 F600
G1 X29.018 Y24.39 Z0 F600
G1 X28.758 Y24.427 Z0 F600
G1 X28.528 Y24.447 Z0 F600
G1 X28.331 Y24.454 Z0 F600
G1 X28.163 Y24.446 Z0 F600
G1 X28.017 Y24.423 Z0 F600
; --- FIX Y Backlash ---
G0 X28.017 Y23.923 F410
G1 X27.769 Y23.828 Z0 F600
G1 X27.541 Y23.658 Z0 F600
G1 X27.418 Y23.538 Z0 F600
G1 X27.346 Y23.431 Z0 F600
G1 X27.31 Y23.301 Z0 F600
G1 X27.293 Y23.114 Z0 F600
G1 X27.304 Y22.785 Z0 F600
; --- FIX X Backlash ---
G0 X28.004 Y22.785 F410
G1 X28.062 Y22.418 Z0 F600
G1 X28.105 Y22.245 Z0 F600
G1 X28.155 Y22.092 Z0 F600
G1 X28.204 Y21.973 Z0 F600
G1 X28.242 Y21.901 Z0 F600
G1 X28.305 Y21.803 Z0 F600
G1 X28.351 Y21.691 Z0 F600
G1 X28.371 Y21.647 Z0 F600
G1 X28.422 Y21.549 Z0 F600
G1 X28.49 Y21.436 Z0 F600
G1 X28.564 Y21.322 Z0 F600
G1 X28.582 Y21.304 Z0 F600
G1 X28.658 Y21.221 Z0 F600
G1 X28.873 Y21.005 Z0 F600
G1 X29.112 Y20.774 Z0 F600
G1 X29.285 Y20.615 Z0 F600
G1 X29.42 Y20.541 Z0 F600
G1 X29.529 Y20.492 Z0 F600
G1 X29.607 Y20.462 Z0 F600
G1 X30.041 Y20.35 Z0 F600
G1 X30.481 Y20.273 Z0 F600
G1 X30.951 Y20.229 Z0 F600
G1 X31.474 Y20.216 Z0 F600
G1 X31.809 Z0 F600
G1 X31.92 Y20.219 Z0 F600
G1 X32.01 Y20.225 Z0 F600
G1 X32.165 Y20.25 Z0 F600
; --- FIX Y Backlash ---
G0 X32.165 Y20.75 F410
G1 X32.571 Y20.852 Z0 F600
G1 X32.728 Y20.879 Z0 F600
G1 X32.872 Z0 F600
G1 X33.016 Y20.861 Z0 F600
G1 X33.106 Y20.845 Z0 F600
G1 X33.225 Y20.817 Z0 F600
G1 X33.292 Y20.799 Z0 F600
G1 X33.354 Y20.761 Z0 F600
G1 X33.338 Y20.774 Z0 F600
G1 X33.372 Y20.755 Z0 F600
G1 X33.462 Y20.719 Z0 F600
; --- FIX Y Backlash ---
G0 X33.462 Y20.219 F410
G1 X33.62 Y20.153 Z0 F600
G1 X33.753 Y20.057 Z0 F600
G1 X33.846 Y19.917 Z0 F600
G1 X33.887 Y19.767 Z0 F600
G1 X33.896 Y19.654 Z0 F600
G1 X33.868 Y19.523 Z0 F600
; --- FIX X Backlash ---
G0 X33.168 Y19.523 F410
G1 X33.102 Y19.413 Z0 F600
G1 X32.966 Y19.264 Z0 F600
G1 X32.925 Y19.217 Z0 F600
G1 Y19.233 Z0 F600
G1 X32.914 Y19.202 Z0 F600
G1 Y19.205 Z0 F600
G1 X32.897 Y19.172 Z0 F600
G1 X32.87 Y19.13 Z0 F600
G1 X32.792 Y19.025 Z0 F600
G1 X32.726 Y18.94 Z0 F600
G1 X32.582 Y18.748 Z0 F600
G1 X32.459 Y18.562 Z0 F600
G1 X32.361 Y18.391 Z0 F600
G1 X32.292 Y18.244 Z0 F600
G1 X32.266 Y18.145 Z0 F600
G1 X32.242 Y17.99 Z0 F600
G1 X32.227 Y17.795 Z0 F600
G1 X32.223 Y17.575 Z0 F600
G1 X32.251 Y17.101 Z0 F600
; --- FIX X Backlash ---
G0 X32.951 Y17.101 F410
G1 X33.022 Y16.642 Z0 F600
G1 X33.09 Y16.378 Z0 F600
G1 X33.173 Y16.149 Z0 F600
G1 X33.282 Y15.933 Z0 F600
G1 X33.424 Y15.708 Z0 F600
G1 X33.618 Y15.433 Z0 F600
G1 X33.803 Y15.208 Z0 F600
G1 X33.923 Y15.081 Z0 F600
G1 X34.078 Y14.924 Z0 F600
G1 X34.543 Y14.468 Z0 F600
G1 X34.943 Y14.081 Z0 F600
G1 X35.08 Y13.954 Z0 F600
G1 X35.185 Y13.861 Z0 F600
G1 X35.336 Y13.746 Z0 F600
G1 X35.493 Y13.657 Z0 F600
G1 X35.666 Y13.573 Z0 F600
G1 X35.84 Y13.508 Z0 F600
G1 X36.058 Y13.447 Z0 F600
G1 X36.362 Y13.378 Z0 F600
G1 X36.564 Y13.367 Z0 F600
G1 X36.749 Y13.364 Z0 F600
G1 X36.952 Z0 F600
G1 X37.213 Y13.374 Z0 F600
G1 X37.394 Y13.387 Z0 F600
G1 X37.537 Y13.408 Z0 F600
G1 X37.686 Y13.444 Z0 F600
; --- FIX Y Backlash ---
G0 X37.686 Y13.944 F410
G1 X38.19 Y14.12 Z0 F600
G1 X38.642 Y14.346 Z0 F600
G1 X39.036 Y14.587 Z0 F600
G1 X39.222 Y14.729 Z0 F600
G1 X39.46 Y14.938 Z0 F600
G1 X39.599 Y15.081 Z0 F600
G1 X39.711 Y15.215 Z0 F600
G1 X39.826 Y15.379 Z0 F600
G1 X39.969 Y15.609 Z0 F600
G1 X40.112 Y15.849 Z0 F600
G1 X40.238 Y16.065 Z0 F600
G1 X40.345 Y16.262 Z0 F600
G1 X40.437 Y16.439 Z0 F600
G1 X40.575 Y16.744 Z0 F600
G1 X40.66 Y16.993 Z0 F600
G1 X40.708 Y17.16 Z0 F600
G1 X40.766 Y17.35 Z0 F600
G1 X40.79 Y17.456 Z0 F600
G1 X40.813 Y17.616 Z0 F600
G1 X40.831 Y17.808 Z0 F600
G1 X40.842 Y18.014 Z0 F600
G1 Y18.218 Z0 F600
G1 X40.836 Y18.407 Z0 F600
G1 X40.824 Y18.557 Z0 F600
G1 X40.809 Y18.646 Z0 F600
; --- FIX X Backlash ---
G0 X40.109 Y18.646 F410
G1 X40.013 Y18.89 Z0 F600
G1 X39.894 Y19.051 Z0 F600
G1 X39.747 Y19.152 Z0 F600
G1 X39.546 Y19.209 Z0 F600
G1 X39.206 Y19.186 Z0 F600
; --- FIX Y Backlash ---
G0 X39.206 Y18.686 F410
G1 X38.866 Y18.605 Z0 F600
G1 X38.714 Y18.539 Z0 F600
G1 X38.564 Y18.489 Z0 F600
G1 X38.482 Y18.455 Z0 F600
G1 X38.365 Y18.397 Z0 F600
G1 X38.219 Y18.317 Z0 F600
G1 X38.057 Y18.263 Z0 F600
G1 X37.994 Y18.239 Z0 F600
G1 X37.889 Y18.193 Z0 F600
G1 X37.757 Y18.121 Z0 F600
G1 X37.675 Y18.095 Z0 F600
G1 X37.592 Y18.101 Z0 F600
G1 X37.517 Y18.135 Z0 F600
; --- FIX Y Backlash ---
G0 X37.517 Y18.635 F410
G1 X37.459 Y18.697 Z0 F600
G1 X37.401 Y18.789 Z0 F600
G1 X37.359 Y18.867 Z0 F600
G1 X37.33 Y18.963 Z0 F600
G1 Y19.066 Z0 F600
G1 X37.353 Y19.152 Z0 F600
; --- FIX X Backlash ---
G0 X38.053 Y19.152 F410
G1 X38.106 Y19.518 Z0 F600
G1 X38.122 Y19.928 Z0 F600
G1 X38.081 Y20.111 Z0 F600
; --- FIX X Backlash ---
G0 X37.381 Y20.111 F410
G1 X37.309 Y20.306 Z0 F600
G1 X37.229 Y20.473 Z0 F600
G1 X37.166 Y20.57 Z0 F600
G1 X37.066 Y20.64 Z0 F600
G1 X36.904 Y20.733 Z0 F600
G1 X36.794 Y20.785 Z0 F600
G1 X36.732 Y20.807 Z0 F600
G1 X36.662 Z0 F600
G1 X36.529 Y20.802 Z0 F600
G1 X36.323 Y20.784 Z0 F600
; --- FIX Y Backlash ---
G0 X36.323 Y20.284 F410
G1 X36.173 Y20.23 Z0 F600
G1 X35.963 Y20.11 Z0 F600
G1 X35.777 Y19.959 Z0 F600
G1 X35.629 Y19.793 Z0 F600
G1 X35.529 Y19.625 Z0 F600
G1 X35.489 Y19.518 Z0 F600
G1 X35.471 Y19.395 Z0 F600
G1 X35.467 Y19.298 Z0 F600
G1 Y19.167 Z0 F600
G1 X35.471 Y18.998 Z0 F600
G1 X35.479 Y18.781 Z0 F600
G1 X35.463 Y18.521 Z0 F600
G1 X35.386 Y18.3 Z0 F600
G1 X35.327 Y18.147 Z0 F600
G1 X35.286 Y17.943 Z0 F600
G1 X35.261 Y17.666 Z0 F600
G1 X35.253 Y17.295 Z0 F600
G1 Y17.065 Z0 F600
G1 X35.262 Y16.891 Z0 F600
G1 X35.276 Y16.763 Z0 F600
G1 X35.297 Y16.672 Z0 F600
G1 X35.328 Y16.601 Z0 F600
G1 X35.377 Y16.529 Z0 F600
; --- FIX X Backlash ---
G0 X36.077 Y16.529 F410
G1 X36.151 Y16.444 Z0 F600
G0 Z3.5 F600
; --- FIX Y Backlash ---
G0 X36.151 Y16.944 F410
G0 X37.333 Y22.948 Z3.5
G1 Z0 F600
G1 X37.342 Y22.954 Z0 F600
G1 X37.42 Y23.017 Z0 F600
G1 X37.512 Y23.097 Z0 F600
G1 X37.625 Y23.223 Z0 F600
G1 X37.729 Y23.374 Z0 F600
G1 X37.802 Y23.514 Z0 F600
G1 X37.846 Y23.646 Z0 F600
G1 X37.941 Y23.962 Z0 F600
G1 X38.148 Y24.318 Z0 F600
; --- FIX X Backlash ---
G0 X37.448 Y24.318 F410
G1 X36.986 Y24.363 Z0 F600
G1 X36.859 Y24.359 Z0 F600
G1 X36.671 Y24.333 Z0 F600
G1 X36.511 Y24.296 Z0 F600
G1 X36.482 Y24.286 Z0 F600
G1 X36.473 Y24.281 Z0 F600
; --- FIX Y Backlash ---
G0 X36.473 Y23.781 F410
G1 X36.404 Y23.722 Z0 F600
G1 X36.341 Y23.656 Z0 F600
G1 X36.316 Y23.622 Z0 F600
G1 X36.205 Y23.4 Z0 F600
G1 X36.096 Y23.098 Z0 F600
G1 X36.021 Y22.804 Z0 F600
G1 X36.007 Y22.682 Z0 F600
G1 X36.012 Y22.648 Z0 F600
G1 X36.026 Y22.616 Z0 F600
G1 X36.044 Y22.593 Z0 F600
; --- FIX X Backlash ---
G0 X36.744 Y22.593 F410
G1 X36.813 Y22.543 Z0 F600
G1 X36.911 Y22.491 Z0 F600
G1 X36.962 Y22.479 Z0 F600
G1 X37.076 Y22.457 Z0 F600
G1 X37.176 Y22.445 Z0 F600
G1 X37.321 Z0 F600
G1 X37.333 Y22.448 Z0 F600
G0 Z3.5 F600
; --- FIX Y Backlash ---
G0 X37.333 Y22.948 F410
G0 X38.158 Y23.117 Z3.5
G1 Z0 F600
G1 X38.264 Y23.32 Z0 F600
G1 X38.321 Y23.49 Z0 F600
G1 X38.403 Y23.761 Z0 F600
G1 X38.578 Y24.062 Z0 F600
G1 X38.843 Y24.316 Z0 F600
G1 X39.175 Y24.473 Z0 F600
G1 X39.344 Y24.505 Z0 F600
G1 X39.532 Y24.515 Z0 F600
G1 X39.643 Y24.518 Z0 F600
G1 X39.892 Z0 F600
G1 X39.908 Z0 F600
; --- FIX X Backlash ---
G0 X39.208 Y24.518 F410
G1 X39.028 Y24.535 Z0 F600
G1 X38.699 Y24.607 Z0 F600
G1 X38.441 Y24.673 Z0 F600
G1 X38.311 Y24.703 Z0 F600
G1 X38.097 Y24.739 Z0 F600
G1 X37.556 Y24.81 Z0 F600
G1 X37.005 Y24.864 Z0 F600
G1 X36.814 Y24.858 Z0 F600
G1 X36.58 Y24.825 Z0 F600
G1 X36.369 Y24.777 Z0 F600
G1 X36.261 Y24.737 Z0 F600
; --- FIX Y Backlash ---
G0 X36.261 Y24.237 F410
G1 X36.175 Y24.183 Z0 F600
G1 X36.062 Y24.089 Z0 F600
G1 X35.957 Y23.979 Z0 F600
G1 X35.888 Y23.884 Z0 F600
G1 X35.745 Y23.597 Z0 F600
G1 X35.616 Y23.24 Z0 F600
G1 X35.529 Y22.898 Z0 F600
G1 X35.503 Y22.672 Z0 F600
G1 X35.527 Y22.51 Z0 F600
; --- FIX X Backlash ---
G0 X36.227 Y22.51 F410
G1 X36.293 Y22.357 Z0 F600
G1 X36.396 Y22.229 Z0 F600
G1 X36.549 Y22.116 Z0 F600
G1 X36.722 Y22.024 Z0 F600
G1 X36.739 Y22.019 Z0 F600
G1 X36.859 Y21.989 Z0 F600
G1 X37.007 Y21.961 Z0 F600
G1 X37.146 Y21.945 Z0 F600
G1 X37.378 Z0 F600
G1 X37.519 Y21.978 Z0 F600
G1 X37.555 Y21.996 Z0 F600
; --- FIX Y Backlash ---
G0 X37.555 Y22.496 F410
G1 X37.636 Y22.549 Z0 F600
G1 X37.737 Y22.629 Z0 F600
G1 X37.869 Y22.746 Z0 F600
G1 X38.016 Y22.909 Z0 F600
G1 X38.158 Y23.117 Z0 F600
G0 Z3.5 F600
G0 X50.578 Y23.594 Z3.5
G1 Z0 F600
; --- FIX Y Backlash ---
G0 X50.578 Y23.094 F410
G1 X50.607 Y22.95 Z0 F600
G1 X50.625 Y22.917 Z0 F600
G1 X50.652 Y22.877 Z0 F600
G1 X50.72 Y22.792 Z0 F600
G1 X50.831 Y22.667 Z0 F600
G1 X50.949 Y22.544 Z0 F600
G1 X51.065 Y22.437 Z0 F600
G1 X51.183 Y22.336 Z0 F600
G1 X51.23 Z0 F600
G1 X51.337 Z0 F600
G1 X51.414 Y22.372 Z0 F600
G1 X51.428 Y22.388 Z0 F600
G1 X51.445 Y22.43 Z0 F600
G1 X51.449 Y22.451 Z0 F600
; --- FIX Y Backlash ---
G0 X51.449 Y22.951 F410
G1 X51.458 Y23.058 Z0 F600
G1 Y23.218 Z0 F600
G1 X51.443 Y23.481 Z0 F600
; --- FIX X Backlash ---
G0 X50.743 Y23.481 F410
G1 X50.601 Y23.45 Z0 F600
G1 X50.333 Y23.465 Z0 F600
G1 X50.165 Y23.5 Z0 F600
G1 X49.879 Y23.593 Z0 F600
G0 Z3.5 F600
G0 X48.565 Y24.446 Z3.5
G1 Z0 F600
; --- FIX Y Backlash ---
G0 X48.565 Y23.946 F410
G1 X48.577 Y23.837 Z0 F600
G1 X48.586 Y23.794 Z0 F600
G1 X48.591 Y23.788 Z0 F600
; --- FIX X Backlash ---
G0 X49.291 Y23.788 F410
G1 X49.345 Y23.728 Z0 F600
G1 X49.411 Y23.663 Z0 F600
G1 X49.656 Y23.433 Z0 F600
G1 X49.757 Y23.333 Z0 F600
G1 X49.843 Y23.246 Z0 F600
G1 X49.92 Y23.162 Z0 F600
G1 X49.936 Y23.143 Z0 F600
G1 X49.948 Z0 F600
G1 X49.972 Y23.098 Z0 F600
G1 X49.988 Y23.078 Z0 F600
G1 X50.104 Y22.916 Z0 F600
G1 X50.131 Y22.78 Z0 F600
G1 X50.149 Y22.744 Z0 F600
G1 X50.196 Y22.658 Z0 F600
G1 X50.249 Y22.581 Z0 F600
G1 X50.34 Y22.467 Z0 F600
G1 X50.459 Y22.331 Z0 F600
G1 X50.598 Y22.188 Z0 F600
G1 X50.739 Y22.057 Z0 F600
G1 X50.873 Y21.943 Z0 F600
G1 X50.973 Y21.868 Z0 F600
G1 X51.016 Y21.84 Z0 F600
G1 X51.049 Z0 F600
G1 X51.23 Y21.835 Z0 F600
G1 X51.411 Y21.838 Z0 F600
G1 X51.453 Z0 F600
G1 X51.479 Y21.852 Z0 F600
; --- FIX Y Backlash ---
G0 X51.479 Y22.352 F410
G1 X51.629 Y22.421 Z0 F600
G1 X51.677 Y22.441 Z0 F600
G1 X51.689 Y22.449 Z0 F600
G1 X51.725 Y22.477 Z0 F600
G1 X51.754 Y22.501 Z0 F600
G1 X51.86 Y22.625 Z0 F600
G1 X51.926 Y22.784 Z0 F600
G1 X51.945 Y22.883 Z0 F600
G1 X51.958 Y23.035 Z0 F600
G1 Y23.23 Z0 F600
G1 X51.922 Y23.86 Z0 F600
G1 X51.93 Y24.212 Z0 F600
G1 X51.981 Y24.541 Z0 F600
G1 X52.022 Y24.662 Z0 F600
; --- FIX Y Backlash ---
G0 X52.022 Y24.162 F410
G1 X51.994 Y24.108 Z0 F600
G1 X51.977 Y24.065 Z0 F600
G1 X51.934 Y23.91 Z0 F600
; --- FIX X Backlash ---
G0 X51.234 Y23.91 F410
G1 X51.037 Y23.645 Z0 F600
G1 X50.794 Y23.503 Z0 F600
G1 X50.562 Y23.453 Z0 F600
G1 X50.398 Y23.462 Z0 F600
G1 X50.294 Y23.484 Z0 F600
; --- FIX Y Backlash ---
G0 X50.294 Y23.984 F410
G1 X50.096 Y24.048 Z0 F600
G1 X49.869 Y24.195 Z0 F600
G1 X49.712 Y24.383 Z0 F600
G1 X49.637 Y24.518 Z0 F600
G1 X49.595 Y24.583 Z0 F600
G1 X49.563 Y24.625 Z0 F600
G1 X49.479 Y24.721 Z0 F600
G1 X49.416 Y24.8 Z0 F600
G1 X49.318 Y24.892 Z0 F600
G1 X49.138 Y24.999 Z0 F600
G1 X49.057 Y25.032 Z0 F600
G1 X48.968 Y25.058 Z0 F600
G1 X48.923 Y25.066 Z0 F600
G1 X48.851 Y25.049 Z0 F600
; --- FIX Y Backlash ---
G0 X48.851 Y24.549 F410
G1 X48.747 Y24.495 Z0 F600
G1 X48.654 Y24.416 Z0 F600
G1 X48.599 Y24.342 Z0 F600
G1 X48.586 Y24.286 Z0 F600
G1 X48.571 Y24.18 Z0 F600
G1 X48.562 Y24.061 Z0 F600
G1 X48.565 Y23.946 Z0 F600
G0 Z3.5 F600
; --- FIX Y Backlash ---
G0 X48.565 Y24.446 F410
G0 X43.963 Y37.938 Z3.5
G1 Z0 F600
G1 X43.959 Y38 Z0 F600
G1 X43.941 Y38.084 Z0 F600
G1 X43.921 Y38.129 Z0 F600
G1 X43.847 Y38.237 Z0 F600
G1 X43.727 Y38.374 Z0 F600
G1 X43.585 Y38.507 Z0 F600
G1 X43.552 Y38.529 Z0 F600
G1 X43.51 Y38.556 Z0 F600
G1 X43.411 Y38.615 Z0 F600
G1 X43.236 Z0 F600
G1 X43.284 Y38.605 Z0 F600
; --- FIX X Backlash ---
G0 X43.984 Y38.605 F410
; --- FIX Y Backlash ---
G0 X43.984 Y38.105 F410
G1 X44.228 Y37.982 Z0 F600
G1 X44.387 Y37.87 Z0 F600
G1 X44.557 Y37.683 Z0 F600
G1 X44.663 Y37.438 Z0 F600
G0 Z3.5 F600
; --- FIX X Backlash ---
G0 X43.963 Y37.438 F410
G0 X41.46 Y35.722 Z3.5
G1 Z0 F600
; --- FIX Y Backlash ---
G0 X41.46 Y36.222 F410
G1 X41.485 Y36.321 Z0 F600
G1 X41.508 Y36.469 Z0 F600
G1 X41.529 Y36.674 Z0 F600
G1 X41.542 Y36.905 Z0 F600
; --- FIX Y Backlash ---
G0 X41.542 Y36.405 F410
G1 X41.48 Y36.212 Z0 F600
G1 X41.345 Y35.997 Z0 F600
G1 X41.091 Y35.812 Z0 F600
G1 X40.395 Y35.639 Z0 F600
G1 X40.429 Y35.607 Z0 F600
; --- FIX X Backlash ---
G0 X41.129 Y35.607 F410
G1 X41.204 Y35.547 Z0 F600
G1 X41.366 Y35.45 Z0 F600
G1 X41.517 Y35.398 Z0 F600
G1 X41.668 Y35.377 Z0 F600
G1 X41.776 Y35.39 Z0 F600
G1 X41.887 Y35.437 Z0 F600
; --- FIX Y Backlash ---
G0 X41.887 Y35.937 F410
G1 X42.038 Y36.048 Z0 F600
G1 X42.089 Y36.097 Z0 F600
G1 X42.121 Y36.136 Z0 F600
G1 X42.138 Y36.166 Z0 F600
G1 X42.16 Y36.222 Z0 F600
G0 Z3.5 F600
; --- FIX X Backlash ---
G0 X41.46 Y36.222 F410
G0 X40.182 Y36.38 Z3.5
G1 Z0 F600
G1 X40.128 Y36.418 Z0 F600
; --- FIX X Backlash ---
G0 X40.828 Y36.418 F410
; --- FIX Y Backlash ---
G0 X40.828 Y35.918 F410
G1 X40.879 Y35.86 Z0 F600
G1 X40.882 Y35.88 Z0 F600
G0 Z3.5 F600
G0 X43.022 Y25.929 Z3.5
G1 Z0 F600
G1 X42.984 Y25.813 Z0 F600
; --- FIX X Backlash ---
G0 X42.284 Y25.813 F410
G1 X42.087 Y25.43 Z0 F600
G1 X41.973 Y25.242 Z0 F600
G1 X41.85 Y25.065 Z0 F600
G1 X41.707 Y24.893 Z0 F600
G1 X41.535 Y24.737 Z0 F600
G1 X41.217 Y24.529 Z0 F600
G1 X40.858 Y24.358 Z0 F600
G1 X40.454 Y24.214 Z0 F600
G1 X39.993 Y24.086 Z0 F600
G1 X39.67 Y24.023 Z0 F600
G1 X39.48 Y24.011 Z0 F600
; --- FIX X Backlash ---
G0 X40.18 Y24.011 F410
G1 X40.435 Y24.006 Z0 F600
G1 X40.623 Z0 F600
G1 X40.777 Z0 F600
G1 X40.866 Y24.012 Z0 F600
G1 X41.021 Y24.038 Z0 F600
G1 X41.167 Y24.087 Z0 F600
; --- FIX Y Backlash ---
G0 X41.167 Y24.587 F410
G1 X41.338 Y24.66 Z0 F600
G1 X41.53 Y24.75 Z0 F600
G1 X41.702 Y24.841 Z0 F600
G1 X41.99 Y25.013 Z0 F600
G1 X42.228 Y25.131 Z0 F600
G1 X42.523 Y25.272 Z0 F600
G1 X42.648 Y25.315 Z0 F600
G1 X42.781 Y25.331 Z0 F600
G1 X43.401 Z0 F600
G1 X43.66 Y25.307 Z0 F600
; --- FIX Y Backlash ---
G0 X43.66 Y24.807 F410
G1 X43.949 Y24.673 Z0 F600
G1 X44.16 Y24.483 Z0 F600
G1 X44.322 Y24.19 Z0 F600
G1 X44.381 Y23.896 Z0 F600
G1 X44.375 Y23.747 Z0 F600
G1 X44.381 Y23.764 Z0 F600
; --- FIX Y Backlash ---
G0 X44.381 Y24.264 F410
G1 X44.398 Y24.367 Z0 F600
G1 X44.406 Y24.514 Z0 F600
G1 X44.4 Y24.731 Z0 F600
G1 X44.387 Y24.898 Z0 F600
G1 X44.375 Y24.965 Z0 F600
G1 X44.363 Y24.994 Z0 F600
G1 X44.313 Y25.074 Z0 F600
; --- FIX X Backlash ---
G0 X43.613 Y25.074 F410
G1 X43.522 Y25.194 Z0 F600
G1 X43.435 Y25.272 Z0 F600
G1 X43.393 Y25.298 Z0 F600
G1 X43.303 Y25.346 Z0 F600
G1 X43.188 Y25.399 Z0 F600
G1 X43.011 Y25.474 Z0 F600
G1 X42.809 Y25.572 Z0 F600
G1 X42.587 Y25.756 Z0 F600
G1 X42.426 Y26.004 Z0 F600
G1 X42.35 Y26.239 Z0 F600
G1 X42.324 Y26.387 Z0 F600
G1 Y26.429 Z0 F600
G0 Z3.5 F600
; --- FIX X Backlash ---
G0 X43.024 Y26.429 F410
; --- FIX Y Backlash ---
G0 X43.024 Y25.929 F410
G0 X52.58 Y25.323 Z3.5
G1 Z0 F600
G1 X52.534 Y25.273 Z0 F600
; --- FIX X Backlash ---
G0 X51.834 Y25.273 F410
G1 X51.742 Y25.162 Z0 F600
G1 X51.714 Y25.124 Z0 F600
G1 X51.707 Y25.112 Z0 F600
G1 X51.682 Y25.048 Z0 F600
G1 X51.613 Y24.896 Z0 F600
G1 X51.517 Y24.686 Z0 F600
G1 X51.484 Y24.605 Z0 F600
G1 X51.479 Y24.591 Z0 F600
G1 Y24.588 Z0 F600
G1 X51.474 Y24.543 Z0 F600
G1 X51.478 Y24.553 Z0 F600
; --- FIX X Backlash ---
G0 X52.178 Y24.553 F410
; --- FIX Y Backlash ---
G0 X52.178 Y25.053 F410
G1 X52.375 Y25.303 Z0 F600
G1 X52.615 Y25.445 Z0 F600
G1 X52.868 Y25.502 Z0 F600
G1 X53.063 Y25.488 Z0 F600
G1 X53.216 Y25.452 Z0 F600
G1 X53.267 Y25.426 Z0 F600
; --- FIX X Backlash ---
G0 X52.567 Y25.426 F410
G1 X52.418 Y25.574 Z0 F600
G1 X52.263 Y25.721 Z0 F600
G1 X52.185 Y25.789 Z0 F600
G1 X52.142 Y25.817 Z0 F600
G1 X52.062 Y25.856 Z0 F600
G1 X52 Y25.884 Z0 F600
G1 X51.972 Y25.879 Z0 F600
G1 X51.951 Y25.873 Z0 F600
G1 X51.926 Y25.858 Z0 F600
G1 X51.88 Y25.823 Z0 F600
G0 Z3.5 F600
; --- FIX Y Backlash ---
G0 X51.88 Y25.323 F410
G0 X46.466 Y22.632 Z3.5
G1 Z0 F600
G1 X46.454 Y22.64 Z0 F600
G1 X46.383 Y22.667 Z0 F600
G1 X46.363 Y22.67 Z0 F600
; --- FIX X Backlash ---
G0 X47.063 Y22.67 F410
G1 X47.166 Y22.632 Z0 F600
G0 Z3.5 F600
G0 X47.541 Y22.311 Z3.5
G1 Z0 F600
G1 X47.605 Y22.198 Z0 F600
G1 X47.584 Y22.247 Z0 F600
; --- FIX Y Backlash ---
G0 X47.584 Y22.747 F410
G1 X47.541 Y22.811 Z0 F600
G0 Z3.5 F600
; --- FIX X Backlash ---
G0 X46.841 Y22.811 F410
; --- FIX Y Backlash ---
G0 X46.841 Y22.311 F410
G0 X40.302 Y21.476 Z3.5
G1 Z0 F600
G1 X40.287 Y21.463 Z0 F600
G1 X40.202 Y21.378 Z0 F600
G1 X40.085 Y21.207 Z0 F600
G1 X40.034 Y21.046 Z0 F600
G1 X40.025 Y20.922 Z0 F600
G1 X40.038 Y20.859 Z0 F600
G1 X40.078 Y20.793 Z0 F600
; --- FIX X Backlash ---
G0 X40.778 Y20.793 F410
G1 X40.9 Y20.674 Z0 F600
G1 X41.025 Y20.58 Z0 F600
; --- FIX X Backlash ---
G0 X40.325 Y20.58 F410
; --- FIX Y Backlash ---
G0 X40.325 Y21.08 F410
G1 X40.274 Y21.167 Z0 F600
G1 X40.209 Y21.354 Z0 F600
G1 X40.186 Y21.589 Z0 F600
G1 X40.23 Y21.814 Z0 F600
; --- FIX X Backlash ---
G0 X40.93 Y21.814 F410
G1 X40.998 Y21.969 Z0 F600
G1 X41.002 Y21.976 Z0 F600
G0 Z3.5 F600
G0 X41.601 Y22.905 Z3.5
G1 Z0 F600
; --- FIX X Backlash ---
G0 X40.901 Y22.905 F410
G1 X40.75 Y22.857 Z0 F600
; --- FIX Y Backlash ---
G0 X40.75 Y22.357 F410
G1 X40.541 Y22.251 Z0 F600
G1 X40.31 Y22.108 Z0 F600
G1 X40.114 Y21.97 Z0 F600
G1 X39.95 Y21.833 Z0 F600
G1 X39.816 Y21.699 Z0 F600
G1 X39.63 Y21.426 Z0 F600
G1 X39.54 Y21.143 Z0 F600
G1 X39.522 Y20.888 Z0 F600
G1 X39.567 Y20.674 Z0 F600
; --- FIX X Backlash ---
G0 X40.267 Y20.674 F410
G1 X40.381 Y20.482 Z0 F600
G1 X40.574 Y20.293 Z0 F600
G1 X40.854 Y20.083 Z0 F600
G1 X41.141 Y19.912 Z0 F600
G1 X41.453 Y19.77 Z0 F600
G1 X41.804 Y19.65 Z0 F600
G1 X41.993 Y19.596 Z0 F600
G1 X42.137 Y19.57 Z0 F600
G1 X42.222 Y19.564 Z0 F600
G1 X42.333 Z0 F600
G1 X42.906 Z0 F600
G1 X43.079 Y19.568 Z0 F600
G1 X43.21 Y19.577 Z0 F600
G1 X43.309 Y19.591 Z0 F600
; --- FIX Y Backlash ---
G0 X43.309 Y20.091 F410
G1 X43.468 Y20.144 Z0 F600
G1 X43.674 Y20.257 Z0 F600
G1 X43.913 Y20.397 Z0 F600
G1 X44.092 Y20.513 Z0 F600
G1 X44.319 Y20.681 Z0 F600
G1 X44.569 Y20.881 Z0 F600
G1 X44.821 Y21.096 Z0 F600
G1 X45.053 Y21.309 Z0 F600
G1 X45.248 Y21.501 Z0 F600
G1 X45.326 Y21.587 Z0 F600
G1 X45.42 Y21.708 Z0 F600
G1 X45.428 Y21.713 Z0 F600
G1 X45.468 Y21.793 Z0 F600
G1 X45.578 Y21.963 Z0 F600
G1 X45.646 Y22.063 Z0 F600
G1 X45.715 Y22.162 Z0 F600
G1 X45.829 Y22.317 Z0 F600
G1 X45.9 Y22.387 Z0 F600
G1 X46.065 Y22.493 Z0 F600
G1 X46.258 Y22.584 Z0 F600
G1 X46.453 Y22.671 Z0 F600
G1 X46.642 Y22.729 Z0 F600
G1 X46.826 Y22.725 Z0 F600
; --- FIX Y Backlash ---
G0 X46.826 Y22.225 F410
G1 X46.999 Y22.161 Z0 F600
G1 X47.106 Y22.063 Z0 F600
G1 X47.201 Y21.898 Z0 F600
G1 X47.226 Y21.798 Z0 F600
G1 X47.25 Y21.67 Z0 F600
G1 X47.31 Y21.283 Z0 F600
G1 X47.356 Y21.029 Z0 F600
G1 X47.395 Y20.856 Z0 F600
G1 X47.414 Y20.786 Z0 F600
G1 X47.441 Y20.659 Z0 F600
G1 X47.447 Y20.59 Z0 F600
G1 X47.456 Y20.559 Z0 F600
G1 X47.488 Y20.49 Z0 F600
G1 X47.549 Y20.388 Z0 F600
G1 X47.646 Y20.261 Z0 F600
G1 X47.78 Y20.113 Z0 F600
G1 X47.95 Y19.944 Z0 F600
G1 X48.154 Y19.754 Z0 F600
G1 X48.395 Y19.543 Z0 F600
G1 X48.549 Y19.422 Z0 F600
G1 X48.729 Y19.299 Z0 F600
G1 X48.814 Y19.246 Z0 F600
G1 X48.888 Y19.204 Z0 F600
G1 X48.945 Y19.178 Z0 F600
G1 X48.953 Y19.172 Z0 F600
G1 X49.083 Y19.128 Z0 F600
G1 X49.202 Y19.068 Z0 F600
G1 X49.319 Y19.011 Z0 F600
G1 X49.454 Y18.97 Z0 F600
G1 X49.543 Y18.952 Z0 F600
G1 X49.656 Y18.933 Z0 F600
G1 X49.975 Y18.888 Z0 F600
G1 X50.261 Y18.854 Z0 F600
G1 X50.529 Y18.836 Z0 F600
G1 X50.687 Y18.832 Z0 F600
G1 X50.878 Z0 F600
G1 X51.114 Z0 F600
G1 X51.7 Y18.835 Z0 F600
G1 X52.106 Y18.843 Z0 F600
G1 X52.24 Y18.848 Z0 F600
G1 X52.426 Y18.866 Z0 F600
G1 X52.574 Y18.896 Z0 F600
; --- FIX Y Backlash ---
G0 X52.574 Y19.396 F410
G1 X52.772 Y19.456 Z0 F600
G1 X52.888 Y19.497 Z0 F600
G1 X53.193 Y19.657 Z0 F600
G1 X53.444 Y19.816 Z0 F600
G1 X53.516 Y19.874 Z0 F600
G1 X53.625 Y19.969 Z0 F600
G1 X53.755 Y20.087 Z0 F600
G1 X53.888 Y20.216 Z0 F600
G1 X54.012 Y20.341 Z0 F600
G1 X54.116 Y20.451 Z0 F600
G1 X54.186 Y20.532 Z0 F600
G1 X54.201 Y20.556 Z0 F600
G1 X54.192 Y20.534 Z0 F600
G1 X54.223 Y20.598 Z0 F600
G1 X54.299 Y20.721 Z0 F600
G1 X54.384 Y20.848 Z0 F600
G1 X54.417 Y20.905 Z0 F600
G1 X54.439 Y20.953 Z0 F600
G1 X54.442 Z0 F600
G1 X54.493 Y21.098 Z0 F600
G1 X54.563 Y21.242 Z0 F600
G1 X54.608 Y21.354 Z0 F600
G1 X54.667 Y21.549 Z0 F600
G1 X54.701 Y21.681 Z0 F600
G1 X54.739 Y21.838 Z0 F600
G1 X54.781 Y22.021 Z0 F600
G1 X54.827 Y22.23 Z0 F600
G1 X54.858 Y22.646 Z0 F600
G1 X54.836 Y23.066 Z0 F600
; --- FIX X Backlash ---
G0 X54.136 Y23.066 F410
G1 X54.075 Y23.344 Z0 F600
G1 X53.996 Y23.656 Z0 F600
G1 X53.92 Y23.932 Z0 F600
G1 X53.888 Y24.034 Z0 F600
G1 X53.803 Y24.263 Z0 F600
G1 X53.762 Y24.417 Z0 F600
G1 X53.748 Y24.447 Z0 F600
G1 X53.7 Y24.568 Z0 F600
G1 X53.633 Y24.715 Z0 F600
G1 X53.555 Y24.877 Z0 F600
G1 X53.474 Y25.037 Z0 F600
G1 X53.399 Y25.178 Z0 F600
G1 X53.341 Y25.28 Z0 F600
G1 X53.32 Y25.31 Z0 F600
G1 X53.325 Y25.305 Z0 F600
G1 X53.292 Y25.343 Z0 F600
G1 X53.262 Y25.383 Z0 F600
G1 X53.248 Y25.404 Z0 F600
G1 X53.235 Y25.43 Z0 F600
G1 X53.217 Y25.468 Z0 F600
G1 X53.188 Y25.503 Z0 F600
G1 X53.141 Y25.555 Z0 F600
G1 X52.988 Y25.714 Z0 F600
G1 X52.763 Y25.936 Z0 F600
G1 X52.6 Y26.091 Z0 F600
G1 X52.487 Y26.188 Z0 F600
G1 X52.388 Y26.253 Z0 F600
G1 X52.271 Y26.311 Z0 F600
G1 X52.098 Y26.387 Z0 F600
G1 X51.967 Z0 F600
G1 X51.854 Y26.368 Z0 F600
G1 X51.749 Y26.333 Z0 F600
; --- FIX Y Backlash ---
G0 X51.749 Y25.833 F410
G1 X51.648 Y25.775 Z0 F600
G1 X51.541 Y25.692 Z0 F600
G1 X51.459 Y25.605 Z0 F600
G1 X51.349 Y25.471 Z0 F600
G1 X51.302 Y25.407 Z0 F600
G1 X51.256 Y25.336 Z0 F600
G1 X51.251 Y25.32 Z0 F600
G1 X51.22 Y25.241 Z0 F600
G1 X51.158 Y25.102 Z0 F600
G1 X51.056 Y24.881 Z0 F600
G1 X51.017 Y24.785 Z0 F600
G1 X50.993 Y24.716 Z0 F600
G1 X50.99 Y24.699 Z0 F600
G1 Y24.724 Z0 F600
G1 X50.981 Y24.633 Z0 F600
G1 X50.957 Y24.563 Z0 F600
G1 X50.927 Y24.491 Z0 F600
G1 X50.889 Y24.419 Z0 F600
G1 X50.84 Y24.318 Z0 F600
G1 X50.801 Y24.222 Z0 F600
G1 X50.777 Y24.133 Z0 F600
G1 X50.696 Y24.025 Z0 F600
G1 X50.611 Y23.975 Z0 F600
G1 X50.523 Y23.956 Z0 F600
G1 X50.463 Y23.959 Z0 F600
G1 X50.422 Y23.968 Z0 F600
G1 X50.313 Y24.003 Z0 F600
; --- FIX Y Backlash ---
G0 X50.313 Y24.503 F410
G1 X50.204 Y24.574 Z0 F600
G1 X50.126 Y24.668 Z0 F600
G1 X50.066 Y24.774 Z0 F600
G1 X50.006 Y24.869 Z0 F600
G1 X49.948 Y24.944 Z0 F600
G1 X49.863 Y25.042 Z0 F600
G1 X49.784 Y25.141 Z0 F600
G1 X49.618 Y25.295 Z0 F600
G1 X49.363 Y25.447 Z0 F600
G1 X49.221 Y25.504 Z0 F600
G1 X49.086 Y25.544 Z0 F600
G1 X48.967 Y25.567 Z0 F600
G1 X48.88 Y25.57 Z0 F600
; --- FIX Y Backlash ---
G0 X48.88 Y25.07 F410
G1 X48.672 Y25.02 Z0 F600
G1 X48.467 Y24.913 Z0 F600
G1 X48.287 Y24.761 Z0 F600
G1 X48.153 Y24.579 Z0 F600
G1 X48.123 Y24.5 Z0 F600
G1 X48.094 Y24.379 Z0 F600
G1 X48.072 Y24.231 Z0 F600
G1 X48.062 Y24.071 Z0 F600
G1 X48.066 Y23.912 Z0 F600
G1 X48.082 Y23.764 Z0 F600
G1 X48.105 Y23.644 Z0 F600
G1 X48.131 Y23.567 Z0 F600
G1 X48.152 Y23.537 Z0 F600
; --- FIX X Backlash ---
G0 X48.852 Y23.537 F410
G1 X48.908 Y23.465 Z0 F600
G1 X48.981 Y23.384 Z0 F600
G1 X49.06 Y23.307 Z0 F600
G1 X49.31 Y23.072 Z0 F600
G1 X49.404 Y22.979 Z0 F600
G1 X49.48 Y22.901 Z0 F600
G1 X49.541 Y22.835 Z0 F600
G1 X49.589 Y22.775 Z0 F600
G1 X49.635 Y22.712 Z0 F600
G1 X49.659 Y22.594 Z0 F600
G1 Y22.603 Z0 F600
G1 X49.706 Y22.514 Z0 F600
G1 X49.77 Y22.396 Z0 F600
G1 X49.844 Y22.286 Z0 F600
G1 X49.956 Y22.146 Z0 F600
G1 X50.094 Y21.99 Z0 F600
G1 X50.247 Y21.832 Z0 F600
G1 X50.406 Y21.684 Z0 F600
G1 X50.56 Y21.554 Z0 F600
G1 X50.689 Y21.455 Z0 F600
G1 X50.776 Y21.4 Z0 F600
G1 X50.863 Y21.36 Z0 F600
G1 X50.92 Y21.345 Z0 F600
G1 X51.025 Y21.338 Z0 F600
G1 X51.23 Y21.335 Z0 F600
G1 X51.433 Y21.338 Z0 F600
G1 X51.541 Y21.345 Z0 F600
G1 X51.602 Y21.36 Z0 F600
G1 X51.688 Y21.397 Z0 F600
; --- FIX Y Backlash ---
G0 X51.688 Y21.897 F410
G1 X51.831 Y21.963 Z0 F600
G1 X51.94 Y22.01 Z0 F600
G1 X51.926 Y22.007 Z0 F600
G1 X51.979 Y22.041 Z0 F600
G1 X52.04 Y22.088 Z0 F600
G1 X52.105 Y22.143 Z0 F600
G1 X52.291 Y22.359 Z0 F600
G1 X52.408 Y22.641 Z0 F600
G1 X52.441 Y22.815 Z0 F600
G1 X52.458 Y23.015 Z0 F600
G1 Y23.244 Z0 F600
G1 X52.422 Y23.869 Z0 F600
G1 X52.429 Y24.168 Z0 F600
G1 X52.468 Y24.421 Z0 F600
G1 X52.543 Y24.643 Z0 F600
G1 X52.61 Y24.793 Z0 F600
G1 X52.71 Y24.92 Z0 F600
G1 X52.803 Y24.975 Z0 F600
G1 X52.906 Y24.999 Z0 F600
G1 X52.986 Y24.993 Z0 F600
G1 X53.045 Y24.979 Z0 F600
; --- FIX Y Backlash ---
G0 X53.045 Y24.479 F410
G1 X53.193 Y24.405 Z0 F600
G1 X53.297 Y24.3 Z0 F600
G1 X53.389 Y24.175 Z0 F600
G1 X53.474 Y24.031 Z0 F600
G1 X53.629 Y23.687 Z0 F600
G1 X53.751 Y23.293 Z0 F600
G1 X53.805 Y23.093 Z0 F600
G1 X53.854 Y22.935 Z0 F600
G1 X53.89 Y22.785 Z0 F600
G1 X53.907 Y22.612 Z0 F600
G1 X53.918 Y22.408 Z0 F600
G1 X53.922 Y22.186 Z0 F600
G1 X53.913 Y21.759 Z0 F600
; --- FIX X Backlash ---
G0 X53.213 Y21.759 F410
G1 X53.161 Y21.412 Z0 F600
G1 X53.113 Y21.23 Z0 F600
G1 X53.063 Y21.03 Z0 F600
G1 X52.99 Y20.797 Z0 F600
G1 X52.891 Y20.582 Z0 F600
G1 X52.765 Y20.387 Z0 F600
G1 X52.614 Y20.214 Z0 F600
G1 X52.44 Y20.063 Z0 F600
G1 X52.243 Y19.936 Z0 F600
G1 X52.026 Y19.833 Z0 F600
G1 X51.788 Y19.757 Z0 F600
G1 X51.622 Y19.724 Z0 F600
G1 X51.414 Y19.702 Z0 F600
G1 X51.279 Y19.694 Z0 F600
G1 X51.116 Y19.687 Z0 F600
G1 X50.919 Y19.682 Z0 F600
G1 X50.383 Y19.672 Z0 F600
G1 X50.131 Z0 F600
G1 X49.914 Y19.676 Z0 F600
G1 X49.721 Y19.686 Z0 F600
G1 X49.366 Y19.724 Z0 F600
; --- FIX Y Backlash ---
G0 X49.366 Y20.224 F410
G1 X48.979 Y20.292 Z0 F600
G1 X48.68 Y20.369 Z0 F600
G1 X48.442 Y20.478 Z0 F600
G1 X48.382 Y20.513 Z0 F600
G1 X48.308 Y20.549 Z0 F600
G1 X48.322 Z0 F600
G1 X48.354 Y20.546 Z0 F600
G1 X48.322 Z0 F600
G1 X48.299 Y20.553 Z0 F600
G1 X48.26 Y20.565 Z0 F600
G1 X48.236 Y20.577 Z0 F600
G1 X48.212 Y20.59 Z0 F600
G1 X48.156 Y20.63 Z0 F600
G1 X48.119 Y20.66 Z0 F600
G1 X48.035 Y20.734 Z0 F600
G1 X47.943 Y20.822 Z0 F600
G1 X47.818 Y20.953 Z0 F600
G1 X47.724 Y21.074 Z0 F600
G1 X47.651 Y21.199 Z0 F600
G1 X47.589 Y21.342 Z0 F600
G1 X47.537 Y21.496 Z0 F600
G1 X47.503 Y21.657 Z0 F600
G1 X47.482 Y21.869 Z0 F600
G1 X47.455 Y22.395 Z0 F600
G1 X47.441 Y22.568 Z0 F600
G1 X47.423 Y22.705 Z0 F600
G1 X47.399 Y22.813 Z0 F600
G1 X47.326 Y22.987 Z0 F600
G1 X47.191 Y23.184 Z0 F600
G1 X47.119 Y23.253 Z0 F600
G1 X46.971 Y23.382 Z0 F600
G1 X46.808 Y23.505 Z0 F600
G1 X46.683 Y23.588 Z0 F600
G1 X46.514 Y23.652 Z0 F600
G1 X46.301 Y23.688 Z0 F600
G1 X46.078 Y23.691 Z0 F600
G1 X45.877 Y23.658 Z0 F600
; --- FIX Y Backlash ---
G0 X45.877 Y23.158 F410
G1 X45.716 Y23.091 Z0 F600
G1 X45.507 Y22.977 Z0 F600
G1 X45.276 Y22.826 Z0 F600
G1 X45.047 Y22.649 Z0 F600
G1 X44.792 Y22.438 Z0 F600
G1 X44.567 Y22.253 Z0 F600
G1 X44.413 Y22.115 Z0 F600
G1 X44.262 Y21.955 Z0 F600
G1 X44.142 Y21.801 Z0 F600
G1 X44.083 Y21.708 Z0 F600
G1 X44.004 Y21.562 Z0 F600
G1 X43.903 Y21.422 Z0 F600
G1 X43.764 Y21.262 Z0 F600
G1 X43.59 Y21.082 Z0 F600
G1 X43.505 Y20.997 Z0 F600
G1 X43.395 Y20.895 Z0 F600
G1 X43.348 Y20.856 Z0 F600
G1 X43.312 Y20.83 Z0 F600
G1 X43.284 Y20.815 Z0 F600
G1 X43.254 Y20.79 Z0 F600
G1 X43.169 Y20.727 Z0 F600
G1 X43.079 Y20.677 Z0 F600
G1 X42.97 Y20.623 Z0 F600
G1 X42.854 Y20.569 Z0 F600
G1 X42.593 Y20.458 Z0 F600
G1 X42.55 Y20.444 Z0 F600
G1 X42.504 Y20.439 Z0 F600
G1 X42.026 Z0 F600
G1 X41.746 Y20.444 Z0 F600
G1 X41.549 Y20.458 Z0 F600
G1 X41.394 Y20.486 Z0 F600
G1 X41.238 Y20.533 Z0 F600
; --- FIX Y Backlash ---
G0 X41.238 Y21.033 F410
G1 X41.046 Y21.1 Z0 F600
G1 X40.907 Y21.165 Z0 F600
G1 X40.795 Y21.269 Z0 F600
G1 X40.73 Y21.378 Z0 F600
G1 X40.701 Y21.462 Z0 F600
G1 X40.691 Y21.565 Z0 F600
G1 X40.71 Y21.664 Z0 F600
G1 X40.745 Y21.745 Z0 F600
G1 X40.782 Y21.81 Z0 F600
G1 X40.826 Y21.867 Z0 F600
G1 X40.876 Y21.922 Z0 F600
; --- FIX X Backlash ---
G0 X41.576 Y21.922 F410
G1 X41.679 Y21.974 Z0 F600
G1 X41.956 Y22.083 Z0 F600
G1 X42.213 Y22.17 Z0 F600
G1 X42.471 Y22.228 Z0 F600
G1 X42.574 Y22.248 Z0 F600
G1 X42.683 Y22.281 Z0 F600
G1 X42.814 Y22.334 Z0 F600
G1 X42.986 Y22.415 Z0 F600
G1 X43.135 Y22.489 Z0 F600
G1 X43.28 Y22.564 Z0 F600
G1 X43.399 Y22.629 Z0 F600
G1 X43.471 Y22.671 Z0 F600
G1 X43.775 Y22.859 Z0 F600
G1 X43.835 Y22.906 Z0 F600
G1 X43.964 Y23.013 Z0 F600
G1 X44.117 Y23.151 Z0 F600
G1 X44.277 Y23.304 Z0 F600
G1 X44.475 Y23.507 Z0 F600
G1 X44.626 Y23.684 Z0 F600
G1 X44.739 Y23.842 Z0 F600
G1 X44.816 Y23.991 Z0 F600
G1 X44.867 Y24.143 Z0 F600
G1 X44.896 Y24.313 Z0 F600
G1 X44.906 Y24.514 Z0 F600
G1 X44.899 Y24.756 Z0 F600
G1 X44.883 Y24.963 Z0 F600
G1 X44.857 Y25.106 Z0 F600
G1 X44.809 Y25.224 Z0 F600
; --- FIX X Backlash ---
G0 X44.109 Y25.224 F410
G1 X44.027 Y25.355 Z0 F600
G1 X43.89 Y25.536 Z0 F600
G1 X43.738 Y25.672 Z0 F600
G1 X43.643 Y25.732 Z0 F600
G1 X43.528 Y25.793 Z0 F600
G1 X43.388 Y25.857 Z0 F600
G1 X43.219 Y25.929 Z0 F600
G1 X43.082 Y25.996 Z0 F600
G1 X42.965 Y26.093 Z0 F600
G1 X42.882 Y26.221 Z0 F600
G1 X42.837 Y26.36 Z0 F600
G1 X42.822 Y26.444 Z0 F600
G1 X42.817 Y26.541 Z0 F600
G1 X42.821 Y26.662 Z0 F600
G1 X42.835 Y26.818 Z0 F600
G1 X42.859 Y27.019 Z0 F600
G1 X42.895 Y27.277 Z0 F600
; --- FIX X Backlash ---
G0 X43.595 Y27.277 F410
G1 X43.702 Y28.005 Z0 F600
G1 X43.784 Y28.421 Z0 F600
G1 X43.901 Y28.795 Z0 F600
G1 X44.059 Y29.114 Z0 F600
G1 X44.259 Y29.362 Z0 F600
G1 X44.357 Y29.438 Z0 F600
G1 X44.473 Y29.51 Z0 F600
G1 X44.613 Y29.589 Z0 F600
G1 X44.763 Y29.667 Z0 F600
G1 X44.968 Y29.768 Z0 F600
G1 X45.134 Y29.854 Z0 F600
G1 X45.272 Y29.933 Z0 F600
G1 X45.393 Y30.012 Z0 F600
G1 X45.508 Y30.101 Z0 F600
G1 X45.629 Y30.205 Z0 F600
G1 X45.767 Y30.334 Z0 F600
G1 X45.932 Y30.496 Z0 F600
G1 X46.155 Y30.732 Z0 F600
G1 X46.312 Y30.94 Z0 F600
G1 X46.417 Y31.141 Z0 F600
G1 X46.485 Y31.354 Z0 F600
G1 X46.491 Y31.392 Z0 F600
G1 X46.499 Y31.465 Z0 F600
G1 X46.507 Y31.565 Z0 F600
G1 X46.515 Y31.682 Z0 F600
G1 X46.523 Y31.952 Z0 F600
G1 X46.527 Y32.25 Z0 F600
G1 Y32.548 Z0 F600
G1 X46.518 Y32.821 Z0 F600
G1 X46.503 Y33.042 Z0 F600
G1 X46.489 Y33.165 Z0 F600
; --- FIX X Backlash ---
G0 X45.789 Y33.165 F410
G1 X45.65 Y33.624 Z0 F600
G1 X45.48 Y34.079 Z0 F600
G1 X45.36 Y34.33 Z0 F600
G1 X45.242 Y34.564 Z0 F600
G1 X45.147 Y34.748 Z0 F600
G1 X45.092 Y34.845 Z0 F600
G1 X45.059 Y34.899 Z0 F600
G1 X45.031 Y34.952 Z0 F600
G1 X45.007 Y35.005 Z0 F600
G1 X44.994 Y35.039 Z0 F600
G1 X45.001 Y35.03 Z0 F600
G1 X44.994 Y35.043 Z0 F600
G1 X44.989 Y35.066 Z0 F600
G1 Y35.101 Z0 F600
G1 Y35.063 Z0 F600
G1 X44.993 Y35.044 Z0 F600
G1 X44.917 Y35.17 Z0 F600
G1 X44.853 Y35.266 Z0 F600
G1 X44.582 Y35.713 Z0 F600
G1 X44.398 Y36.144 Z0 F600
G1 X44.342 Y36.351 Z0 F600
G1 X44.31 Y36.552 Z0 F600
G1 X44.305 Y36.745 Z0 F600
G1 X44.329 Y36.931 Z0 F600
; --- FIX X Backlash ---
G0 X45.029 Y36.931 F410
G1 X45.125 Y37.382 Z0 F600
G1 X45.16 Y37.62 Z0 F600
G1 X45.169 Y37.855 Z0 F600
G1 X45.155 Y38.069 Z0 F600
G1 X45.12 Y38.241 Z0 F600
; --- FIX X Backlash ---
G0 X44.42 Y38.241 F410
G1 X44.356 Y38.378 Z0 F600
G1 X44.244 Y38.543 Z0 F600
G1 X44.087 Y38.723 Z0 F600
G1 X43.89 Y38.907 Z0 F600
G1 X43.885 Z0 F600
G1 X43.832 Y38.944 Z0 F600
G1 X43.765 Y38.986 Z0 F600
G1 X43.548 Y39.115 Z0 F600
G1 X42.706 Z0 F600
; --- FIX Y Backlash ---
G0 X42.706 Y38.615 F410
G1 X42.497 Y38.513 Z0 F600
G1 X42.297 Y38.4 Z0 F600
G1 X42.158 Y38.306 Z0 F600
G1 X42.1 Y38.257 Z0 F600
G1 X42.047 Y38.215 Z0 F600
G1 X41.999 Y38.181 Z0 F600
G1 X41.981 Y38.17 Z0 F600
G1 X41.976 Y38.166 Z0 F600
G1 X41.979 Y38.169 Z0 F600
G1 X41.95 Y38.15 Z0 F600
G1 X41.963 Z0 F600
G1 X41.922 Y38.11 Z0 F600
G1 X41.717 Y37.883 Z0 F600
G1 X41.53 Y37.67 Z0 F600
G1 X41.457 Y37.563 Z0 F600
G1 X41.371 Y37.415 Z0 F600
G1 X41.196 Y36.958 Z0 F600
G1 X41.023 Y36.425 Z0 F600
G1 X40.973 Y36.344 Z0 F600
G1 X40.876 Y36.274 Z0 F600
G1 X40.738 Y36.24 Z0 F600
G1 Y36.243 Z0 F600
G1 X40.655 Y36.222 Z0 F600
G1 X40.601 Z0 F600
G1 X40.567 Y36.238 Z0 F600
G1 X40.541 Y36.253 Z0 F600
G1 X40.497 Y36.274 Z0 F600
G1 X40.457 Y36.298 Z0 F600
; --- FIX Y Backlash ---
G0 X40.457 Y36.798 F410
G1 X40.377 Y36.854 Z0 F600
G1 X40.292 Y36.923 Z0 F600
G1 X40.109 Y37.065 Z0 F600
G1 X39.889 Y37.214 Z0 F600
G1 X39.689 Y37.338 Z0 F600
G1 X39.404 Z0 F600
G1 X39.28 Z0 F600
; --- FIX Y Backlash ---
G0 X39.28 Y36.838 F410
G1 X39.313 Y36.589 Z0 F600
G1 X39.32 Y36.375 Z0 F600
G1 X39.306 Y36.163 Z0 F600
G1 X39.272 Y35.956 Z0 F600
; --- FIX X Backlash ---
G0 X39.972 Y35.956 F410
G1 X40.048 Y35.933 Z0 F600
G1 X40.122 Y35.899 Z0 F600
G1 X40.26 Y35.797 Z0 F600
G1 X40.386 Y35.664 Z0 F600
G1 X40.536 Y35.493 Z0 F600
G1 X40.672 Y35.35 Z0 F600
G1 X40.799 Y35.231 Z0 F600
G1 X40.92 Y35.134 Z0 F600
G1 X41.154 Y34.994 Z0 F600
G1 X41.4 Y34.91 Z0 F600
G1 X41.663 Y34.874 Z0 F600
G1 X41.905 Y34.902 Z0 F600
; --- FIX Y Backlash ---
G0 X41.905 Y35.402 F410
G1 X42.135 Y35.498 Z0 F600
G1 X42.361 Y35.665 Z0 F600
G1 X42.458 Y35.759 Z0 F600
G1 X42.533 Y35.85 Z0 F600
G1 X42.59 Y35.95 Z0 F600
G1 X42.637 Y36.069 Z0 F600
G1 X42.675 Y36.218 Z0 F600
G1 X42.705 Y36.406 Z0 F600
G1 X42.727 Y36.638 Z0 F600
G1 X42.756 Y37.131 Z0 F600
G1 X42.78 Y37.319 Z0 F600
G1 X42.819 Y37.485 Z0 F600
G1 X42.878 Y37.636 Z0 F600
G1 X42.96 Y37.77 Z0 F600
G1 X43.064 Y37.886 Z0 F600
G1 X43.188 Y37.986 Z0 F600
G1 X43.328 Y38.074 Z0 F600
G1 X43.483 Y38.139 Z0 F600
G1 X43.652 Y38.161 Z0 F600
G1 X43.82 Y38.128 Z0 F600
; --- FIX Y Backlash ---
G0 X43.82 Y37.628 F410
G1 X43.97 Y37.552 Z0 F600
G1 X44.054 Y37.493 Z0 F600
G1 X44.131 Y37.409 Z0 F600
G1 X44.178 Y37.299 Z0 F600
G1 X44.192 Y37.198 Z0 F600
G1 X44.184 Y36.841 Z0 F600
; --- FIX X Backlash ---
G0 X43.484 Y36.841 F410
G1 X43.41 Y36.381 Z0 F600
G1 X43.4 Y36.174 Z0 F600
G1 X43.411 Y35.973 Z0 F600
G1 X43.43 Y35.853 Z0 F600
; --- FIX X Backlash ---
G0 X44.13 Y35.853 F410
G1 X44.224 Y35.547 Z0 F600
G1 X44.283 Y35.389 Z0 F600
G1 X44.359 Y35.219 Z0 F600
G1 X44.538 Y34.876 Z0 F600
G1 X44.68 Y34.618 Z0 F600
G1 X44.738 Y34.52 Z0 F600
G1 X44.787 Y34.444 Z0 F600
G1 X44.823 Y34.392 Z0 F600
G1 X44.945 Y34.239 Z0 F600
G1 X45.018 Y34.087 Z0 F600
G1 X45.055 Y34.005 Z0 F600
G1 X45.2 Y33.734 Z0 F600
G1 X45.292 Y33.532 Z0 F600
G1 X45.387 Y33.294 Z0 F600
G1 X45.485 Y33.026 Z0 F600
G1 X45.576 Y32.688 Z0 F600
G1 X45.64 Y32.29 Z0 F600
G1 X45.672 Y31.88 Z0 F600
G1 X45.668 Y31.504 Z0 F600
G1 X45.644 Y31.227 Z0 F600
G1 X45.613 Y30.984 Z0 F600
G1 X45.58 Y30.793 Z0 F600
; --- FIX X Backlash ---
G0 X44.88 Y30.793 F410
G1 X44.822 Y30.631 Z0 F600
G1 X44.665 Y30.417 Z0 F600
G1 X44.428 Y30.228 Z0 F600
G1 X44.103 Y30.05 Z0 F600
G1 X43.68 Y29.866 Z0 F600
G1 X43.494 Y29.777 Z0 F600
G1 X43.316 Y29.662 Z0 F600
G1 X43.13 Y29.506 Z0 F600
G1 X42.922 Y29.297 Z0 F600
G1 X42.706 Y29.064 Z0 F600
G1 X42.636 Y28.983 Z0 F600
G1 X42.586 Y28.922 Z0 F600
G1 X42.528 Y28.835 Z0 F600
G1 X42.425 Y28.591 Z0 F600
G1 X42.358 Y28.451 Z0 F600
G1 X42.328 Y28.377 Z0 F600
G1 X42.278 Y28.219 Z0 F600
G1 X42.2 Y27.948 Z0 F600
G1 X42.09 Y27.537 Z0 F600
G1 X42.067 Y27.391 Z0 F600
G1 X42.054 Y27.208 Z0 F600
G1 X42.04 Y26.962 Z0 F600
G1 X42.004 Y26.717 Z0 F600
G1 X41.927 Y26.328 Z0 F600
G1 X41.821 Y26.006 Z0 F600
G1 X41.651 Y25.674 Z0 F600
G1 X41.553 Y25.514 Z0 F600
G1 X41.452 Y25.368 Z0 F600
G1 X41.345 Y25.24 Z0 F600
G1 X41.228 Y25.133 Z0 F600
G1 X40.972 Y24.966 Z0 F600
G1 X40.666 Y24.82 Z0 F600
G1 X40.303 Y24.691 Z0 F600
G1 X39.878 Y24.573 Z0 F600
G1 X39.606 Y24.52 Z0 F600
G1 X39.36 Y24.505 Z0 F600
G1 X39.106 Y24.529 Z0 F600
; --- FIX Y Backlash ---
G0 X39.106 Y25.029 F410
G1 X38.815 Y25.094 Z0 F600
G1 X38.553 Y25.16 Z0 F600
G1 X38.416 Y25.192 Z0 F600
G1 X38.17 Y25.234 Z0 F600
G1 X37.609 Y25.307 Z0 F600
G1 X37.019 Y25.365 Z0 F600
G1 X36.773 Y25.357 Z0 F600
G1 X36.49 Y25.317 Z0 F600
; --- FIX Y Backlash ---
G0 X36.49 Y24.817 F410
G1 X36.226 Y24.757 Z0 F600
G1 X36.039 Y24.689 Z0 F600
G1 X35.88 Y24.588 Z0 F600
G1 X35.718 Y24.453 Z0 F600
G1 X35.573 Y24.3 Z0 F600
G1 X35.46 Y24.147 Z0 F600
G1 X35.285 Y23.795 Z0 F600
G1 X35.138 Y23.388 Z0 F600
G1 X35.036 Y22.989 Z0 F600
G1 X34.999 Y22.665 Z0 F600
G1 X35.042 Y22.371 Z0 F600
; --- FIX X Backlash ---
G0 X35.742 Y22.371 F410
G1 X35.862 Y22.097 Z0 F600
G1 X36.046 Y21.864 Z0 F600
G1 X36.281 Y21.693 Z0 F600
G1 X36.525 Y21.563 Z0 F600
G1 X36.602 Y21.538 Z0 F600
G1 X36.747 Y21.501 Z0 F600
G1 X36.93 Y21.467 Z0 F600
G1 X37.12 Y21.445 Z0 F600
G1 X37.436 Z0 F600
; --- FIX Y Backlash ---
G0 X37.436 Y21.945 F410
G1 X37.687 Y22.003 Z0 F600
G1 X37.805 Y22.062 Z0 F600
G1 X37.929 Y22.143 Z0 F600
G1 X38.064 Y22.251 Z0 F600
G1 X38.218 Y22.387 Z0 F600
G1 X38.412 Y22.602 Z0 F600
G1 X38.588 Y22.86 Z0 F600
G1 X38.725 Y23.122 Z0 F600
G1 X38.799 Y23.345 Z0 F600
G1 X38.864 Y23.56 Z0 F600
G1 X38.975 Y23.75 Z0 F600
G1 X39.13 Y23.899 Z0 F600
G1 X39.332 Y23.994 Z0 F600
G1 X39.405 Y24.008 Z0 F600
G1 X39.551 Y24.016 Z0 F600
G1 X39.648 Z0 F600
G1 X39.887 Z0 F600
G1 X40.424 Y24.006 Z0 F600
G1 X40.626 Z0 F600
G1 X40.791 Z0 F600
G1 X40.925 Y24.015 Z0 F600
G1 X41.141 Y24.051 Z0 F600
G1 X41.346 Y24.12 Z0 F600
G1 X41.538 Y24.201 Z0 F600
G1 X41.753 Y24.303 Z0 F600
G1 X41.946 Y24.405 Z0 F600
G1 X42.229 Y24.574 Z0 F600
G1 X42.446 Y24.682 Z0 F600
G1 X42.713 Y24.809 Z0 F600
G1 X42.761 Y24.825 Z0 F600
G1 X42.811 Y24.831 Z0 F600
G1 X43.378 Z0 F600
G1 X43.528 Y24.817 Z0 F600
; --- FIX Y Backlash ---
G0 X43.528 Y24.317 F410
G1 X43.67 Y24.251 Z0 F600
G1 X43.763 Y24.168 Z0 F600
G1 X43.847 Y24.015 Z0 F600
G1 X43.879 Y23.857 Z0 F600
G1 X43.871 Y23.655 Z0 F600
; --- FIX X Backlash ---
G0 X43.171 Y23.655 F410
G1 X43.103 Y23.464 Z0 F600
G1 X42.988 Y23.289 Z0 F600
G1 X42.833 Y23.133 Z0 F600
G1 X42.614 Y22.983 Z0 F600
G1 X42.34 Y22.836 Z0 F600
G1 X42.197 Y22.766 Z0 F600
G1 X42.067 Y22.706 Z0 F600
G1 X42.008 Y22.681 Z0 F600
G1 X41.904 Y22.643 Z0 F600
G1 X41.821 Y22.634 Z0 F600
G1 Y22.631 Z0 F600
G1 X41.758 Y22.622 Z0 F600
G1 X41.579 Y22.582 Z0 F600
G1 X41.381 Y22.53 Z0 F600
G1 X41.074 Y22.441 Z0 F600
G1 X40.901 Y22.405 Z0 F600
G0 Z3.5 F600
; --- FIX X Backlash ---
G0 X41.601 Y22.405 F410
G0 X43.939 Y20.804 Z3.5
G1 Z0 F600
G1 X43.968 Y20.813 Z0 F600
; --- FIX X Backlash ---
G0 X43.268 Y20.813 F410
G1 X43.214 Y20.803 Z0 F600
G1 Y20.8 Z0 F600
G1 X43.239 Y20.804 Z0 F600
G0 Z3.5 F600
; --- FIX Y Backlash ---
G0 X43.239 Y21.304 F410
G0 X40.486 Y28.137 Z3.5
G1 Z0 F600
G1 X40.48 Y28.128 Z0 F600
G1 X40.486 Y28.137 Z0 F600
G0 Z3.5 F600
G0 X34.459 Y33.197 Z3.5
G1 Z0 F600
G1 X34.388 Y33.213 Z0 F600
G1 X34.432 Y33.2 Z0 F600
G1 X34.465 Y33.193 Z0 F600
G1 X34.459 Y33.197 Z0 F600
G0 Z3.5 F600
; --- FIX X Backlash ---
G0 X35.159 Y33.197 F410
G0 X37.692 Y36.456 Z3.5
G1 Z0 F600
G1 X37.787 Y36.496 Z0 F600
G1 X37.904 Y36.585 Z0 F600
G1 X37.993 Y36.697 Z0 F600
G1 X38.029 Y36.775 Z0 F600
G1 X38.04 Y36.918 Z0 F600
G1 X38.025 Y37.075 Z0 F600
G1 X38.003 Y37.125 Z0 F600
; --- FIX X Backlash ---
G0 X37.303 Y37.125 F410
G1 X37.238 Y37.217 Z0 F600
G1 X37.163 Y37.289 Z0 F600
G1 X37.048 Y37.36 Z0 F600
G1 X36.99 Y37.385 Z0 F600
G1 X36.964 Y37.393 Z0 F600
G1 X36.93 Y37.398 Z0 F600
G1 X36.824 Y37.401 Z0 F600
G1 X36.718 Y37.398 Z0 F600
G1 X36.687 Y37.394 Z0 F600
G1 X36.664 Y37.386 Z0 F600
G1 X36.599 Y37.357 Z0 F600
; --- FIX Y Backlash ---
G0 X36.599 Y36.857 F410
G1 X36.511 Y36.806 Z0 F600
G1 X36.443 Y36.749 Z0 F600
G1 X36.389 Y36.687 Z0 F600
G1 X36.347 Y36.62 Z0 F600
G1 X36.315 Y36.543 Z0 F600
G1 X36.3 Y36.475 Z0 F600
G1 Y36.397 Z0 F600
G1 X36.315 Y36.28 Z0 F600
G1 X36.324 Y36.252 Z0 F600
G1 X36.341 Y36.216 Z0 F600
G1 X36.38 Y36.158 Z0 F600
G1 X36.427 Y36.103 Z0 F600
; --- FIX X Backlash ---
G0 X37.127 Y36.103 F410
G1 X37.191 Y36.044 Z0 F600
G1 X37.26 Y35.995 Z0 F600
G1 X37.322 Y35.961 Z0 F600
G1 X37.518 Y35.945 Z0 F600
G1 X37.692 Y35.956 Z0 F600
G0 Z3.5 F600
G0 X38.423 Y35.933 Z3.5
G1 Z0 F600
; --- FIX Y Backlash ---
G0 X38.423 Y36.433 F410
G1 X38.521 Y36.65 Z0 F600
G1 X38.541 Y36.92 Z0 F600
G1 X38.515 Y37.202 Z0 F600
; --- FIX X Backlash ---
G0 X37.815 Y37.202 F410
G1 X37.741 Y37.371 Z0 F600
G1 X37.618 Y37.546 Z0 F600
G1 X37.469 Y37.687 Z0 F600
G1 X37.281 Y37.803 Z0 F600
G1 X37.165 Y37.854 Z0 F600
G1 X37.071 Y37.882 Z0 F600
G1 X36.973 Y37.897 Z0 F600
G1 X36.824 Y37.902 Z0 F600
G1 X36.675 Y37.897 Z0 F600
G1 X36.578 Y37.883 Z0 F600
G1 X36.487 Y37.854 Z0 F600
G1 X36.372 Y37.804 Z0 F600
; --- FIX Y Backlash ---
G0 X36.372 Y37.304 F410
G1 X36.219 Y37.213 Z0 F600
G1 X36.094 Y37.109 Z0 F600
G1 X35.987 Y36.986 Z0 F600
G1 X35.903 Y36.852 Z0 F600
G1 X35.836 Y36.692 Z0 F600
G1 X35.802 Y36.537 Z0 F600
G1 X35.798 Y36.368 Z0 F600
G1 X35.826 Y36.169 Z0 F600
G1 X35.856 Y36.071 Z0 F600
; --- FIX X Backlash ---
G0 X36.556 Y36.071 F410
G1 X36.607 Y35.966 Z0 F600
G1 X36.68 Y35.856 Z0 F600
G1 X36.77 Y35.751 Z0 F600
G1 X36.872 Y35.658 Z0 F600
G1 X36.989 Y35.574 Z0 F600
G1 X37.117 Y35.504 Z0 F600
G1 X37.206 Y35.469 Z0 F600
G1 X37.515 Y35.444 Z0 F600
G1 X37.81 Y35.462 Z0 F600
; --- FIX Y Backlash ---
G0 X37.81 Y35.962 F410
G1 X38.039 Y36.061 Z0 F600
G1 X38.255 Y36.225 Z0 F600
G1 X38.423 Y36.433 Z0 F600
G0 Z3.5 F600
G0 X39.006 Y37.328 Z3.5
G1 Z0 F600
; --- FIX X Backlash ---
G0 X38.306 Y37.328 F410
G1 X38.179 Y37.618 Z0 F600
G1 X37.999 Y37.874 Z0 F600
G1 X37.775 Y38.086 Z0 F600
G1 X37.514 Y38.247 Z0 F600
G1 X37.338 Y38.324 Z0 F600
G1 X37.182 Y38.372 Z0 F600
G1 X37.02 Y38.396 Z0 F600
G1 X36.824 Y38.402 Z0 F600
G1 X36.628 Y38.396 Z0 F600
G1 X36.467 Y38.372 Z0 F600
G1 X36.313 Y38.324 Z0 F600
; --- FIX Y Backlash ---
G0 X36.313 Y37.824 F410
G1 X36.14 Y37.748 Z0 F600
G1 X35.931 Y37.624 Z0 F600
G1 X35.744 Y37.468 Z0 F600
G1 X35.584 Y37.286 Z0 F600
G1 X35.456 Y37.082 Z0 F600
G1 X35.357 Y36.842 Z0 F600
G1 X35.303 Y36.597 Z0 F600
G1 X35.297 Y36.338 Z0 F600
G1 X35.337 Y36.061 Z0 F600
; --- FIX X Backlash ---
G0 X36.037 Y36.061 F410
G1 X36.09 Y35.887 Z0 F600
G1 X36.172 Y35.718 Z0 F600
G1 X36.279 Y35.556 Z0 F600
G1 X36.408 Y35.405 Z0 F600
G1 X36.558 Y35.268 Z0 F600
G1 X36.724 Y35.149 Z0 F600
G1 X36.903 Y35.05 Z0 F600
G1 X37.094 Y34.977 Z0 F600
G1 X37.509 Y34.942 Z0 F600
G1 X37.927 Y34.969 Z0 F600
; --- FIX Y Backlash ---
G0 X37.927 Y35.469 F410
G1 X38.293 Y35.625 Z0 F600
G1 X38.606 Y35.864 Z0 F600
G1 X38.852 Y36.169 Z0 F600
G1 X39.013 Y36.524 Z0 F600
G1 X39.043 Y36.926 Z0 F600
G1 X39.006 Y37.328 Z0 F600
G0 Z3.5 F600
; --- FIX X Backlash ---
G0 X38.306 Y37.328 F410
G0 X36.4 Y39.137 Z3.5
G1 Z0 F600
G1 X36.397 Y39.153 Z0 F600
G1 Y39.129 Z0 F600
G1 X36.4 Y39.137 Z0 F600
G0 Z3.5 F600
G0 X36.255 Y39.282 Z3.5
G1 Z0 F600
G1 X36.252 Z0 F600
G1 X36.233 Z0 F600
G1 X36.255 Z0 F600
G0 Z3.5 F600
; --- FIX Y Backlash ---
G0 X36.255 Y38.782 F410
G0 X33.031 Y38.717 Z3.5
G1 Z0 F600
; --- FIX Y Backlash ---
G0 X33.031 Y39.217 F410
G1 X33.048 Y39.284 Z0 F600
G1 X33.034 Y39.242 Z0 F600
G1 X33.028 Y39.211 Z0 F600
G1 X33.031 Y39.217 Z0 F600
G0 Z3.5 F600
; --- FIX X Backlash ---
G0 X33.731 Y39.217 F410
G0 X39.954 Y40.603 Z3.5
G1 Z0 F600
; --- FIX X Backlash ---
G0 X39.254 Y40.603 F410
G1 X39.2 Y40.607 Z0 F600
; --- FIX X Backlash ---
G0 X39.9 Y40.607 F410
G1 X39.952 Y40.603 Z0 F600
G1 X39.991 Y40.59 Z0 F600
G1 X39.954 Y40.603 Z0 F600
G0 Z3.5 F600
; --- FIX Y Backlash ---
G0 X39.954 Y40.103 F410
G0 X46.549 Y39.949 Z3.5
G1 Z0 F600
G1 X46.558 Y39.944 Z0 F600
G1 X46.549 Y39.949 Z0 F600
G0 Z3.5 F600
; --- FIX X Backlash ---
G0 X45.849 Y39.949 F410
; --- FIX Y Backlash ---
G0 X45.849 Y40.449 F410
G0 X39.502 Y45.255 Z3.5
G1 Z0 F600
G1 X39.512 Y45.332 Z0 F600
; --- FIX Y Backlash ---
G0 X39.512 Y44.832 F410
G1 X39.503 Y44.77 Z0 F600
G1 X39.479 Y44.717 Z0 F600
G1 X39.502 Y44.755 Z0 F600
G0 Z3.5 F600
; --- FIX Y Backlash ---
G0 X39.502 Y45.255 F410
G0 X27.342 Y45.438 Z3.5
G1 Z0 F600
; --- FIX X Backlash ---
G0 X28.042 Y45.438 F410
G1 X28.212 Y45.564 Z0 F600
G1 X28.399 Y45.73 Z0 F600
G1 X28.51 Y45.854 Z0 F600
G1 X28.56 Y45.925 Z0 F600
G1 X28.606 Y45.988 Z0 F600
G1 X28.619 Y46.013 Z0 F600
G1 X28.636 Y46.095 Z0 F600
G1 Y46.224 Z0 F600
G1 X28.617 Y46.333 Z0 F600
; --- FIX X Backlash ---
G0 X27.917 Y46.333 F410
G1 X27.756 Y46.699 Z0 F600
G1 X27.575 Y47.02 Z0 F600
G1 X27.515 Y47.096 Z0 F600
G1 X27.453 Y47.159 Z0 F600
G1 X27.42 Y47.186 Z0 F600
G1 X27.417 Z0 F600
G1 X27.38 Z0 F600
G1 X27.213 Y47.182 Z0 F600
G1 X27.197 Z0 F600
G1 X27.161 Y47.161 Z0 F600
; --- FIX Y Backlash ---
G0 X27.161 Y46.661 F410
G1 X27.071 Y46.61 Z0 F600
G1 X26.951 Y46.55 Z0 F600
G1 X26.947 Z0 F600
G1 X26.844 Y46.434 Z0 F600
G1 X26.836 Y46.412 Z0 F600
G1 X26.808 Y46.276 Z0 F600
G1 X26.798 Y46.118 Z0 F600
G1 X26.806 Y46.026 Z0 F600
; --- FIX X Backlash ---
G0 X27.506 Y46.026 F410
G1 X27.568 Y45.841 Z0 F600
G1 X27.734 Y45.485 Z0 F600
G1 X27.868 Y45.194 Z0 F600
G1 X27.943 Y44.858 Z0 F600
; --- FIX Y Backlash ---
G0 X27.943 Y45.358 F410
G1 X28.042 Y45.438 Z0 F600
G0 Z3.5 F600
G0 X29.139 Y46.271 Z3.5
G1 Z0 F600
G1 X29.097 Y46.483 Z0 F600
; --- FIX X Backlash ---
G0 X28.397 Y46.483 F410
G1 X28.204 Y46.922 Z0 F600
G1 X27.991 Y47.3 Z0 F600
G1 X27.89 Y47.428 Z0 F600
G1 X27.791 Y47.53 Z0 F600
G1 X27.701 Y47.601 Z0 F600
G1 X27.605 Y47.657 Z0 F600
G1 X27.542 Y47.689 Z0 F600
G1 X27.382 Z0 F600
G1 X27.172 Y47.681 Z0 F600
G1 X27.071 Y47.667 Z0 F600
G1 X27.012 Y47.648 Z0 F600
; --- FIX Y Backlash ---
G0 X27.012 Y47.148 F410
G1 X26.904 Y47.09 Z0 F600
G1 X26.836 Y47.051 Z0 F600
G1 X26.742 Y47.004 Z0 F600
G1 X26.669 Y46.974 Z0 F600
G1 X26.652 Y46.959 Z0 F600
G1 X26.592 Y46.901 Z0 F600
G1 X26.452 Y46.746 Z0 F600
G1 X26.404 Y46.68 Z0 F600
G1 X26.354 Y46.552 Z0 F600
G1 X26.312 Y46.345 Z0 F600
G1 X26.297 Y46.111 Z0 F600
G1 X26.313 Y45.923 Z0 F600
; --- FIX X Backlash ---
G0 X27.013 Y45.923 F410
G1 X27.104 Y45.653 Z0 F600
G1 X27.28 Y45.275 Z0 F600
G1 X27.392 Y45.034 Z0 F600
G1 X27.459 Y44.729 Z0 F600
G1 X27.462 Y44.547 Z0 F600
G1 X27.436 Y44.356 Z0 F600
; --- FIX X Backlash ---
G0 X26.736 Y44.356 F410
G1 X26.666 Y44.147 Z0 F600
G1 X26.55 Y43.956 Z0 F600
G1 X26.418 Y43.798 Z0 F600
G1 X26.269 Y43.643 Z0 F600
G1 X26.085 Y43.461 Z0 F600
G1 X25.85 Y43.233 Z0 F600
G1 X25.65 Y43.036 Z0 F600
G1 X25.473 Y42.853 Z0 F600
G1 X25.379 Y42.749 Z0 F600
G1 X25.271 Y42.521 Z0 F600
G1 X25.215 Y42.383 Z0 F600
G1 X25.192 Y42.314 Z0 F600
G1 X25.099 Y41.943 Z0 F600
G1 X24.969 Y41.541 Z0 F600
G1 X24.949 Y41.484 Z0 F600
G1 X24.937 Y41.446 Z0 F600
G1 X24.93 Y41.405 Z0 F600
G1 X24.923 Y41.348 Z0 F600
G1 X24.919 Y41.339 Z0 F600
G1 X24.859 Y40.998 Z0 F600
G1 X24.727 Y41.011 Z0 F600
G1 X24.718 Y40.997 Z0 F600
G1 X24.649 Y40.902 Z0 F600
G1 X24.571 Y40.808 Z0 F600
G1 X24.409 Y40.632 Z0 F600
G1 X24.208 Y40.461 Z0 F600
G1 X24.057 Y40.373 Z0 F600
G1 X23.894 Y40.307 Z0 F600
G1 X23.707 Y40.267 Z0 F600
G1 X23.479 Y40.264 Z0 F600
; --- FIX Y Backlash ---
G0 X23.479 Y40.764 F410
G1 X23.141 Y40.869 Z0 F600
G1 X22.872 Y41.063 Z0 F600
G1 X22.879 Y41.054 Z0 F600
; --- FIX X Backlash ---
G0 X23.579 Y41.054 F410
; --- FIX Y Backlash ---
G0 X23.579 Y40.554 F410
G1 X23.719 Y40.412 Z0 F600
G1 X23.874 Y40.26 Z0 F600
G1 X23.947 Y40.2 Z0 F600
G1 X24.004 Y40.169 Z0 F600
G1 X24.145 Y40.113 Z0 F600
G1 X24.225 Y40.087 Z0 F600
G1 X24.391 Z0 F600
G1 X24.518 Y40.093 Z0 F600
G1 X24.528 Z0 F600
G1 X24.535 Y40.097 Z0 F600
; --- FIX Y Backlash ---
G0 X24.535 Y40.597 F410
G1 X24.65 Y40.653 Z0 F600
G1 X24.817 Y40.733 Z0 F600
G1 X25.004 Y40.803 Z0 F600
G1 X25.223 Y40.84 Z0 F600
G1 X25.45 Y40.834 Z0 F600
; --- FIX Y Backlash ---
G0 X25.45 Y40.334 F410
G1 X25.757 Y40.247 Z0 F600
G1 X26.02 Y40.085 Z0 F600
; --- FIX X Backlash ---
G0 X25.32 Y40.085 F410
; --- FIX Y Backlash ---
G0 X25.32 Y40.585 F410
G1 X25.245 Y40.724 Z0 F600
G1 X25.152 Y41.01 Z0 F600
G1 X25.096 Y41.298 Z0 F600
G1 X25.067 Y41.591 Z0 F600
G1 Y41.92 Z0 F600
G1 X25.112 Y42.242 Z0 F600
; --- FIX X Backlash ---
G0 X25.812 Y42.242 F410
G1 X25.903 Y42.553 Z0 F600
G1 X26.029 Y42.822 Z0 F600
G1 X26.102 Y42.965 Z0 F600
G1 X26.222 Y43.237 Z0 F600
G1 X26.393 Y43.465 Z0 F600
G1 X26.429 Y43.52 Z0 F600
G1 X26.606 Y43.778 Z0 F600
G1 X26.882 Y44.038 Z0 F600
G1 X27.056 Y44.165 Z0 F600
G1 X27.238 Y44.286 Z0 F600
G1 X27.448 Y44.415 Z0 F600
G1 X27.671 Y44.546 Z0 F600
G1 X27.887 Y44.687 Z0 F600
G1 X28.121 Y44.861 Z0 F600
G1 X28.348 Y45.041 Z0 F600
G1 X28.532 Y45.179 Z0 F600
G1 X28.749 Y45.372 Z0 F600
G1 X28.904 Y45.544 Z0 F600
G1 X28.966 Y45.633 Z0 F600
G1 X29.033 Y45.723 Z0 F600
G1 X29.097 Y45.851 Z0 F600
G1 X29.135 Y46.038 Z0 F600
G1 X29.139 Y46.271 Z0 F600
G0 Z3.5 F600
; --- FIX X Backlash ---
G0 X28.439 Y46.271 F410
; --- FIX Y Backlash ---
G0 X28.439 Y45.771 F410
G0 X17.841 Y36.901 Z3.5
G1 Z0 F600
G1 X17.817 Y36.906 Z0 F600
G1 X17.588 Y36.944 Z0 F600
G1 X17.564 Z0 F600
G1 X17.449 Y36.951 Z0 F600
G1 X17.284 Y36.955 Z0 F600
G1 X17.137 Z0 F600
G1 X16.943 Y36.946 Z0 F600
G1 X16.926 Z0 F600
G1 X16.894 Y36.915 Z0 F600
G1 X16.848 Y36.872 Z0 F600
G1 X16.828 Y36.803 Z0 F600
G1 X16.824 Y36.772 Z0 F600
G1 X16.83 Y36.764 Z0 F600
G1 X16.868 Y36.718 Z0 F600
; --- FIX X Backlash ---
G0 X17.568 Y36.718 F410
G1 X17.692 Y36.593 Z0 F600
G1 X17.948 Y36.35 Z0 F600
G1 X17.953 Y36.36 Z0 F600
; --- FIX Y Backlash ---
G0 X17.953 Y36.86 F410
G1 X18.235 Y37.112 Z0 F600
G1 X18.437 Y37.23 Z0 F600
G1 X18.633 Y37.333 Z0 F600
G1 X18.66 Y37.34 Z0 F600
G1 X18.643 Y37.345 Z0 F600
; --- FIX X Backlash ---
G0 X17.943 Y37.345 F410
G1 X17.841 Y37.401 Z0 F600
G0 Z3.5 F600
G0 X16.935 Y37.946 Z3.5
G1 Z0 F600
G1 X16.793 Y37.937 Z0 F600
G1 X16.728 Y37.927 Z0 F600
G1 X16.716 Y37.924 Z0 F600
G1 X16.706 Y37.918 Z0 F600
G1 X16.647 Y37.869 Z0 F600
; --- FIX Y Backlash ---
G0 X16.647 Y37.369 F410
G1 X16.557 Y37.285 Z0 F600
G1 X16.432 Y37.165 Z0 F600
G1 X16.413 Y37.144 Z0 F600
G1 X16.385 Y37.067 Z0 F600
G1 X16.339 Y36.91 Z0 F600
G1 X16.319 Y36.772 Z0 F600
G1 Y36.699 Z0 F600
G1 X16.343 Y36.623 Z0 F600
G1 X16.379 Y36.541 Z0 F600
G1 X16.423 Y36.471 Z0 F600
; --- FIX X Backlash ---
G0 X17.123 Y36.471 F410
G1 X17.199 Y36.379 Z0 F600
G1 X17.327 Y36.25 Z0 F600
G1 X17.855 Y35.749 Z0 F600
G1 X18.089 Y35.524 Z0 F600
G1 X18.184 Y35.426 Z0 F600
G1 X18.281 Y35.313 Z0 F600
G1 X18.34 Y35.217 Z0 F600
; --- FIX Y Backlash ---
G0 X18.34 Y35.717 F410
G1 X18.291 Y35.803 Z0 F600
; --- FIX X Backlash ---
G0 X17.591 Y35.803 F410
G1 X17.516 Y36.025 Z0 F600
G1 X17.536 Y36.304 Z0 F600
; --- FIX X Backlash ---
G0 X18.236 Y36.304 F410
G1 X18.358 Y36.552 Z0 F600
G1 X18.531 Y36.706 Z0 F600
G1 X18.68 Y36.793 Z0 F600
G1 X18.817 Y36.865 Z0 F600
G1 X19.035 Y36.925 Z0 F600
G1 X19.267 Z0 F600
G1 X19.386 Y36.895 Z0 F600
G1 X19.717 Y36.85 Z0 F600
G1 X20.047 Y36.837 Z0 F600
G1 X20.147 Y36.858 Z0 F600
G1 X20.293 Y36.91 Z0 F600
G1 X20.409 Y36.962 Z0 F600
G1 X20.482 Y37.081 Z0 F600
G1 X20.496 Y37.108 Z0 F600
G1 X20.493 Y37.162 Z0 F600
G1 X20.481 Y37.29 Z0 F600
G1 X20.466 Y37.33 Z0 F600
; --- FIX X Backlash ---
G0 X19.766 Y37.33 F410
G1 X19.686 Y37.463 Z0 F600
G1 X19.585 Y37.58 Z0 F600
G1 X19.482 Y37.667 Z0 F600
G1 X19.385 Y37.721 Z0 F600
G1 X19.366 Y37.728 Z0 F600
G1 X19.327 Y37.733 Z0 F600
G1 X19.265 Y37.736 Z0 F600
G1 X19.146 Z0 F600
G1 X18.719 Y37.727 Z0 F600
G1 X18.55 Z0 F600
G1 X18.353 Y37.743 Z0 F600
G1 X18.139 Y37.808 Z0 F600
G1 X18.016 Y37.876 Z0 F600
G1 X17.986 Y37.883 Z0 F600
G1 X17.899 Y37.899 Z0 F600
G1 X17.649 Y37.941 Z0 F600
G1 X17.595 Y37.945 Z0 F600
G1 X17.464 Y37.951 Z0 F600
G1 X17.29 Y37.955 Z0 F600
G1 X17.114 Z0 F600
G1 X16.935 Y37.946 Z0 F600
G0 Z3.5 F600
; --- FIX X Backlash ---
G0 X17.635 Y37.946 F410
G0 X23.701 Y45.683 Z3.5
G1 Z0 F600
; --- FIX Y Backlash ---
G0 X23.701 Y45.183 F410
G1 X23.908 Y45.083 Z0 F600
G1 X24.119 Y44.873 Z0 F600
G1 X24.234 Y44.644 Z0 F600
; --- FIX Y Backlash ---
G0 X24.234 Y45.144 F410
G1 X24.23 Y45.279 Z0 F600
G1 X24.21 Y45.406 Z0 F600
G1 X24.197 Y45.442 Z0 F600
G1 X24.165 Y45.488 Z0 F600
; --- FIX X Backlash ---
G0 X23.465 Y45.488 F410
G1 X23.344 Y45.627 Z0 F600
G1 X23.321 Y45.649 Z0 F600
G1 X23.307 Y45.652 Z0 F600
G1 X23.248 Y45.683 Z0 F600
G1 X23.238 Z0 F600
G1 X23.189 Y45.688 Z0 F600
G1 X23.001 Y45.683 Z0 F600
G0 Z3.5 F600
; --- FIX Y Backlash ---
G0 X23.001 Y45.183 F410
G0 X20.233 Y39.62 Z3.5
G1 Z0 F600
G1 X20.19 Y39.59 Z0 F600
G1 X20.206 Y39.598 Z0 F600
G1 X20.233 Y39.62 Z0 F600
G0 Z3.5 F600
G0 X17.839 Y34.772 Z3.5
G1 Z0 F600
; --- FIX X Backlash ---
G0 X18.539 Y34.772 F410
G1 X18.595 Y34.61 Z0 F600
G1 X18.623 Y34.346 Z0 F600
; --- FIX X Backlash ---
G0 X17.923 Y34.346 F410
G1 X17.815 Y34.043 Z0 F600
G1 X17.588 Y33.818 Z0 F600
G1 X17.343 Y33.729 Z0 F600
G1 X17.161 Y33.705 Z0 F600
G1 X17.183 Z0 F600
; --- FIX X Backlash ---
G0 X17.883 Y33.705 F410
G1 X18.135 Y33.694 Z0 F600
G1 X18.325 Y33.689 Z0 F600
G1 X18.468 Z0 F600
G1 X18.556 Z0 F600
G1 X18.615 Y33.696 Z0 F600
G1 X18.705 Y33.717 Z0 F600
G1 X18.794 Y33.757 Z0 F600
G1 X18.835 Y33.793 Z0 F600
G1 X18.846 Y33.807 Z0 F600
G1 X18.849 Y33.824 Z0 F600
; --- FIX Y Backlash ---
G0 X18.849 Y34.324 F410
G1 X18.852 Y34.466 Z0 F600
G1 X18.828 Y34.616 Z0 F600
G1 X18.785 Y34.739 Z0 F600
; --- FIX X Backlash ---
G0 X18.085 Y34.739 F410
G1 X18.015 Y34.89 Z0 F600
G1 X17.963 Y35.037 Z0 F600
G1 X17.939 Y35.091 Z0 F600
G1 X17.895 Y35.175 Z0 F600
G1 X17.839 Y35.272 Z0 F600
G0 Z3.5 F600
; --- FIX X Backlash ---
G0 X18.539 Y35.272 F410
; --- FIX Y Backlash ---
G0 X18.539 Y34.772 F410
G0 X33.801 Y34.216 Z3.5
G1 Z0 F600
G1 X33.777 Y34.156 Z0 F600
G1 X33.734 Y34.006 Z0 F600
G1 X33.723 Y33.929 Z0 F600
G1 X33.728 Y33.872 Z0 F600
G1 X33.758 Y33.759 Z0 F600
G1 X33.786 Y33.683 Z0 F600
G1 X33.803 Y33.653 Z0 F600
G1 X33.828 Y33.621 Z0 F600
G1 X33.879 Y33.563 Z0 F600
G1 X33.979 Y33.454 Z0 F600
G1 X34.109 Y33.317 Z0 F600
G1 X34.169 Y33.25 Z0 F600
; --- FIX X Backlash ---
G0 X33.469 Y33.25 F410
; --- FIX Y Backlash ---
G0 X33.469 Y33.75 F410
G1 X33.385 Y33.959 Z0 F600
G1 X33.376 Y34.219 Z0 F600
; --- FIX X Backlash ---
G0 X34.076 Y34.219 F410
G1 X34.14 Y34.453 Z0 F600
G1 X34.233 Y34.605 Z0 F600
G1 X34.324 Y34.714 Z0 F600
G1 X34.521 Y34.868 Z0 F600
G1 X34.754 Y34.961 Z0 F600
G1 X34.838 Y34.977 Z0 F600
; --- FIX X Backlash ---
G0 X34.138 Y34.977 F410
G1 X33.95 Y34.989 Z0 F600
G1 X33.763 Z0 F600
G1 X33.6 Y34.972 Z0 F600
G1 X33.486 Y34.95 Z0 F600
; --- FIX Y Backlash ---
G0 X33.486 Y34.45 F410
G1 X33.282 Y34.37 Z0 F600
G1 X33.136 Y34.257 Z0 F600
G1 X33.101 Y34.216 Z0 F600
G0 Z3.5 F600
G0 X32.567 Y30.762 Z3.5
G1 Z0 F600
; --- FIX X Backlash ---
G0 X33.267 Y30.762 F410
G1 X33.388 Y30.694 Z0 F600
G1 X33.437 Y30.671 Z0 F600
G1 X33.498 Y30.648 Z0 F600
G1 X33.531 Y30.645 Z0 F600
G1 X33.629 Y30.642 Z0 F600
G1 X33.79 Z0 F600
G1 X33.936 Y30.649 Z0 F600
G1 X34.052 Y30.658 Z0 F600
G1 X34.121 Y30.667 Z0 F600
G1 X34.14 Y30.672 Z0 F600
G1 X34.201 Y30.702 Z0 F600
; --- FIX Y Backlash ---
G0 X34.201 Y31.202 F410
G1 X34.294 Y31.278 Z0 F600
G1 X34.433 Y31.414 Z0 F600
G1 X34.47 Y31.458 Z0 F600
; --- FIX X Backlash ---
G0 X33.77 Y31.458 F410
; --- FIX Y Backlash ---
G0 X33.77 Y30.958 F410
G1 X33.644 Y30.836 Z0 F600
G1 X33.341 Y30.694 Z0 F600
G1 X33.036 Y30.652 Z0 F600
G1 X32.785 Y30.677 Z0 F600
; --- FIX Y Backlash ---
G0 X32.785 Y31.177 F410
G1 X32.567 Y31.262 Z0 F600
G0 Z3.5 F600
G0 X31.732 Y31.498 Z3.5
G1 Z0 F600
; --- FIX X Backlash ---
G0 X32.432 Y31.498 F410
; --- FIX Y Backlash ---
G0 X32.432 Y30.998 F410
G1 X32.6 Y30.742 Z0 F600
G1 X32.699 Y30.604 Z0 F600
G1 X32.794 Y30.495 Z0 F600
G1 X32.88 Y30.415 Z0 F600
G1 X32.954 Y30.364 Z0 F600
G1 X33.162 Y30.248 Z0 F600
G1 X33.243 Y30.21 Z0 F600
G1 X33.354 Y30.167 Z0 F600
G1 X33.413 Y30.154 Z0 F600
G1 X33.498 Y30.145 Z0 F600
G1 X33.622 Y30.142 Z0 F600
G1 X33.796 Z0 F600
G1 X33.965 Y30.15 Z0 F600
G1 X34.104 Y30.161 Z0 F600
G1 X34.217 Y30.176 Z0 F600
G1 X34.312 Y30.2 Z0 F600
; --- FIX Y Backlash ---
G0 X34.312 Y30.7 F410
G1 X34.47 Y30.777 Z0 F600
G1 X34.629 Y30.907 Z0 F600
G1 X34.799 Y31.073 Z0 F600
G1 X34.919 Y31.216 Z0 F600
G1 X35.004 Y31.354 Z0 F600
G1 X35.065 Y31.503 Z0 F600
G1 X35.141 Y31.768 Z0 F600
G1 X35.182 Y32.031 Z0 F600
G1 X35.19 Y32.301 Z0 F600
G1 X35.166 Y32.583 Z0 F600
G1 X35.123 Y32.829 Z0 F600
; --- FIX X Backlash ---
G0 X34.423 Y32.829 F410
G1 X34.365 Y33.079 Z0 F600
G1 X34.336 Y33.184 Z0 F600
G1 X34.307 Y33.272 Z0 F600
G1 X34.274 Y33.311 Z0 F600
G1 X34.257 Y33.335 Z0 F600
G1 X34.225 Y33.388 Z0 F600
G1 X34.195 Y33.444 Z0 F600
G1 X34.167 Y33.502 Z0 F600
G1 X34.126 Y33.6 Z0 F600
G1 X34.109 Y33.676 Z0 F600
G1 Y33.706 Z0 F600
G1 Y33.673 Z0 F600
G1 Y33.659 Z0 F600
G1 X34.066 Y33.738 Z0 F600
G1 X34.024 Y33.802 Z0 F600
G1 X33.937 Y33.927 Z0 F600
G1 X33.882 Y34.064 Z0 F600
G1 X33.879 Y34.161 Z0 F600
G1 X33.904 Y34.253 Z0 F600
G1 X33.94 Y34.313 Z0 F600
G1 X33.973 Y34.353 Z0 F600
; --- FIX X Backlash ---
G0 X34.673 Y34.353 F410
G1 X34.772 Y34.43 Z0 F600
G1 X34.894 Y34.479 Z0 F600
G1 X35.025 Y34.503 Z0 F600
G1 X35.2 Y34.523 Z0 F600
G1 X35.485 Y34.565 Z0 F600
G1 X35.72 Y34.616 Z0 F600
G1 X35.89 Y34.674 Z0 F600
G1 X36.013 Y34.773 Z0 F600
G1 X36.079 Y34.84 Z0 F600
G1 X36.142 Y34.908 Z0 F600
; --- FIX X Backlash ---
G0 X35.442 Y34.908 F410
G1 X35.253 Y35.042 Z0 F600
G1 X35.079 Y35.191 Z0 F600
G1 X34.924 Y35.354 Z0 F600
G1 X34.777 Y35.542 Z0 F600
G1 X34.697 Y35.502 Z0 F600
G1 X34.611 Y35.476 Z0 F600
G1 X34.428 Y35.459 Z0 F600
G1 X33.965 Y35.489 Z0 F600
G1 X33.737 Z0 F600
G1 X33.53 Y35.468 Z0 F600
G1 X33.345 Y35.432 Z0 F600
; --- FIX Y Backlash ---
G0 X33.345 Y34.932 F410
G1 X33.033 Y34.809 Z0 F600
G1 X32.79 Y34.622 Z0 F600
G1 X32.67 Y34.481 Z0 F600
G1 X32.604 Y34.322 Z0 F600
G1 X32.544 Y34.112 Z0 F600
G1 X32.52 Y33.944 Z0 F600
G1 X32.533 Y33.788 Z0 F600
G1 X32.579 Y33.613 Z0 F600
; --- FIX X Backlash ---
G0 X33.279 Y33.613 F410
G1 X33.33 Y33.473 Z0 F600
G1 X33.389 Y33.371 Z0 F600
G1 X33.438 Y33.308 Z0 F600
G1 X33.511 Y33.225 Z0 F600
G1 X33.611 Y33.116 Z0 F600
G1 X33.743 Y32.977 Z0 F600
G1 X33.929 Y32.772 Z0 F600
G1 X34.083 Y32.581 Z0 F600
G1 X34.203 Y32.398 Z0 F600
G1 X34.291 Y32.22 Z0 F600
G1 X34.343 Y32.04 Z0 F600
G1 X34.355 Y31.86 Z0 F600
G1 X34.331 Y31.685 Z0 F600
; --- FIX X Backlash ---
G0 X33.631 Y31.685 F410
G1 X33.569 Y31.519 Z0 F600
G1 X33.479 Y31.372 Z0 F600
G1 X33.356 Y31.253 Z0 F600
G1 X33.197 Y31.179 Z0 F600
G1 X33.027 Y31.155 Z0 F600
G1 X32.903 Y31.168 Z0 F600
; --- FIX Y Backlash ---
G0 X32.903 Y31.668 F410
G1 X32.768 Y31.72 Z0 F600
G1 X32.659 Y31.808 Z0 F600
G1 X32.543 Y31.928 Z0 F600
G1 X32.457 Y32.022 Z0 F600
G1 X32.379 Y32.117 Z0 F600
G1 X32.314 Y32.201 Z0 F600
G1 X32.261 Y32.289 Z0 F600
G1 X32.197 Y32.375 Z0 F600
G1 X32.132 Y32.452 Z0 F600
G1 X32.059 Y32.533 Z0 F600
G1 X31.986 Y32.608 Z0 F600
G1 X31.924 Y32.668 Z0 F600
G1 X31.898 Y32.69 Z0 F600
G1 X31.835 Y32.718 Z0 F600
G1 X31.728 Y32.777 Z0 F600
G1 X31.647 Y32.828 Z0 F600
G1 X31.466 Y32.923 Z0 F600
G1 X31.257 Y33.011 Z0 F600
G1 X30.946 Y33.113 Z0 F600
G1 X30.611 Y33.213 Z0 F600
G1 X30.459 Y33.255 Z0 F600
G1 X30.332 Y33.288 Z0 F600
G1 X30.232 Y33.307 Z0 F600
G1 X30.226 Y33.312 Z0 F600
G1 X30.067 Y33.334 Z0 F600
G1 X29.93 Y33.385 Z0 F600
G1 X29.823 Y33.422 Z0 F600
G1 X29.542 Y33.501 Z0 F600
G1 X29.309 Y33.587 Z0 F600
G1 X29.054 Y33.697 Z0 F600
G1 X28.792 Y33.821 Z0 F600
G1 X28.494 Y33.988 Z0 F600
G1 X28.199 Y34.187 Z0 F600
G1 X27.915 Y34.41 Z0 F600
G1 X27.651 Y34.647 Z0 F600
G1 X27.413 Y34.887 Z0 F600
G1 X27.213 Y35.124 Z0 F600
G1 X27.062 Y35.359 Z0 F600
G1 X26.97 Y35.596 Z0 F600
G1 X26.944 Y35.776 Z0 F600
G1 X26.957 Y35.97 Z0 F600
; --- FIX X Backlash ---
G0 X27.657 Y35.97 F410
G1 X27.714 Y36.185 Z0 F600
G1 X27.813 Y36.456 Z0 F600
G1 X27.979 Y36.884 Z0 F600
G1 X28.028 Y37.024 Z0 F600
G1 X28.059 Y37.139 Z0 F600
G1 X28.075 Y37.247 Z0 F600
G1 X28.08 Y37.366 Z0 F600
G1 Y37.515 Z0 F600
G1 X28.065 Y38.008 Z0 F600
G1 X28.061 Y38.104 Z0 F600
G1 X28.054 Y38.178 Z0 F600
G1 X28.028 Y38.296 Z0 F600
; --- FIX X Backlash ---
G0 X27.328 Y38.296 F410
G1 X27.277 Y38.443 Z0 F600
G1 X27.195 Y38.641 Z0 F600
G1 X27.084 Y38.87 Z0 F600
G1 X26.943 Y39.13 Z0 F600
G1 X26.771 Y39.424 Z0 F600
G1 X26.688 Y39.556 Z0 F600
G1 X26.61 Y39.661 Z0 F600
G1 X26.505 Y39.776 Z0 F600
G1 X26.302 Y39.981 Z0 F600
G1 X26.248 Y40.043 Z0 F600
G1 X26.223 Y40.079 Z0 F600
G1 X26.195 Y40.124 Z0 F600
G1 X26.135 Y40.196 Z0 F600
G1 X26.033 Y40.356 Z0 F600
G1 X25.869 Y40.635 Z0 F600
G1 X25.806 Y40.737 Z0 F600
G1 X25.707 Y40.922 Z0 F600
G1 X25.636 Y41.136 Z0 F600
G1 X25.591 Y41.371 Z0 F600
G1 X25.567 Y41.615 Z0 F600
G1 Y41.886 Z0 F600
G1 X25.602 Y42.137 Z0 F600
; --- FIX X Backlash ---
G0 X26.302 Y42.137 F410
G1 X26.372 Y42.375 Z0 F600
G1 X26.479 Y42.604 Z0 F600
G1 X26.552 Y42.749 Z0 F600
G1 X26.656 Y42.983 Z0 F600
G1 X26.801 Y43.177 Z0 F600
G1 X26.843 Y43.239 Z0 F600
G1 X26.988 Y43.451 Z0 F600
G1 X27.203 Y43.653 Z0 F600
G1 X27.342 Y43.755 Z0 F600
G1 X27.507 Y43.865 Z0 F600
G1 X27.705 Y43.986 Z0 F600
G1 X27.94 Y44.125 Z0 F600
G1 X28.172 Y44.276 Z0 F600
G1 X28.419 Y44.46 Z0 F600
G1 X28.653 Y44.645 Z0 F600
G1 X28.847 Y44.79 Z0 F600
G1 X29.102 Y45.017 Z0 F600
G1 X29.297 Y45.233 Z0 F600
G1 X29.373 Y45.342 Z0 F600
G1 X29.462 Y45.463 Z0 F600
G1 X29.572 Y45.685 Z0 F600
G1 X29.635 Y45.984 Z0 F600
G1 X29.64 Y46.315 Z0 F600
; --- FIX X Backlash ---
G0 X28.94 Y46.315 F410
G1 X28.876 Y46.635 Z0 F600
G1 X28.652 Y47.146 Z0 F600
G1 X28.408 Y47.579 Z0 F600
G1 X28.265 Y47.759 Z0 F600
G1 X28.126 Y47.902 Z0 F600
G1 X27.986 Y48.014 Z0 F600
G1 X27.84 Y48.099 Z0 F600
G1 X27.719 Y48.16 Z0 F600
G1 X27.648 Y48.185 Z0 F600
G1 X27.554 Y48.189 Z0 F600
G1 X27.367 Z0 F600
G1 X27.131 Y48.18 Z0 F600
G1 X26.959 Y48.157 Z0 F600
G1 X26.816 Y48.11 Z0 F600
; --- FIX Y Backlash ---
G0 X26.816 Y47.61 F410
G1 X26.669 Y47.532 Z0 F600
G1 X26.6 Y47.492 Z0 F600
G1 X26.533 Y47.459 Z0 F600
G1 X26.469 Y47.432 Z0 F600
G1 X26.423 Y47.417 Z0 F600
G1 X26.39 Y47.394 Z0 F600
G1 X26.318 Y47.331 Z0 F600
G1 X26.232 Y47.249 Z0 F600
G1 X26.064 Y47.062 Z0 F600
G1 X25.962 Y46.923 Z0 F600
G1 X25.873 Y46.694 Z0 F600
G1 X25.815 Y46.41 Z0 F600
G1 X25.795 Y46.106 Z0 F600
G1 X25.821 Y45.819 Z0 F600
; --- FIX X Backlash ---
G0 X26.521 Y45.819 F410
G1 X26.639 Y45.468 Z0 F600
G1 X26.827 Y45.065 Z0 F600
G1 X26.915 Y44.873 Z0 F600
G1 X26.96 Y44.669 Z0 F600
G1 Y44.579 Z0 F600
G1 X26.947 Y44.472 Z0 F600
G1 X26.909 Y44.358 Z0 F600
; --- FIX X Backlash ---
G0 X26.209 Y44.358 F410
G1 X26.142 Y44.247 Z0 F600
G1 X26.046 Y44.132 Z0 F600
G1 X25.913 Y43.994 Z0 F600
G1 X25.735 Y43.819 Z0 F600
G1 X25.502 Y43.592 Z0 F600
G1 X25.292 Y43.384 Z0 F600
G1 X25.113 Y43.2 Z0 F600
G1 X24.989 Y43.063 Z0 F600
G1 X24.954 Y43.015 Z0 F600
G1 X24.959 Y43.029 Z0 F600
G1 X24.814 Y42.724 Z0 F600
G1 X24.746 Y42.557 Z0 F600
G1 X24.711 Y42.455 Z0 F600
G1 X24.618 Y42.081 Z0 F600
G1 X24.496 Y41.702 Z0 F600
G1 X24.474 Y41.64 Z0 F600
G1 X24.45 Y41.563 Z0 F600
G1 X24.446 Y41.541 Z0 F600
G1 Y41.564 Z0 F600
G1 X24.437 Y41.49 Z0 F600
G1 X24.402 Y41.415 Z0 F600
G1 X24.384 Y41.397 Z0 F600
G1 X24.363 Y41.378 Z0 F600
G1 X24.33 Y41.317 Z0 F600
G1 X24.307 Y41.282 Z0 F600
G1 X24.254 Y41.21 Z0 F600
G1 X24.193 Y41.136 Z0 F600
G1 X24.062 Y40.993 Z0 F600
G1 X23.918 Y40.871 Z0 F600
G1 X23.836 Y40.823 Z0 F600
G1 X23.746 Y40.787 Z0 F600
G1 X23.651 Y40.766 Z0 F600
G1 X23.552 Z0 F600
; --- FIX Y Backlash ---
G0 X23.552 Y41.266 F410
G1 X23.367 Y41.322 Z0 F600
G1 X23.212 Y41.434 Z0 F600
G1 X23.099 Y41.564 Z0 F600
G1 X23.02 Y41.715 Z0 F600
G1 X22.972 Y41.885 Z0 F600
G1 X22.957 Y42.073 Z0 F600
G1 X22.996 Y42.381 Z0 F600
; --- FIX X Backlash ---
G0 X23.696 Y42.381 F410
G1 X23.794 Y42.722 Z0 F600
G1 X23.918 Y43.052 Z0 F600
G1 X24.072 Y43.321 Z0 F600
G1 X24.163 Y43.456 Z0 F600
G1 X24.25 Y43.602 Z0 F600
G1 X24.352 Y43.785 Z0 F600
G1 X24.467 Y43.969 Z0 F600
G1 X24.558 Y44.127 Z0 F600
G1 X24.627 Y44.306 Z0 F600
G1 X24.679 Y44.517 Z0 F600
G1 X24.717 Y44.777 Z0 F600
G1 X24.737 Y45.077 Z0 F600
G1 X24.729 Y45.329 Z0 F600
G1 X24.696 Y45.53 Z0 F600
; --- FIX X Backlash ---
G0 X23.996 Y45.53 F410
G1 X23.946 Y45.674 Z0 F600
G1 X23.857 Y45.799 Z0 F600
G1 X23.71 Y45.968 Z0 F600
G1 X23.635 Y46.042 Z0 F600
G1 X23.572 Y46.097 Z0 F600
G1 X23.547 Y46.115 Z0 F600
G1 X23.475 Y46.129 Z0 F600
G1 X23.405 Y46.166 Z0 F600
G1 X23.297 Y46.182 Z0 F600
G1 X23.199 Y46.189 Z0 F600
G1 X22.852 Y46.18 Z0 F600
; --- FIX Y Backlash ---
G0 X22.852 Y45.68 F410
G1 X22.472 Y45.625 Z0 F600
G1 X22.292 Y45.582 Z0 F600
G1 X22.134 Y45.534 Z0 F600
G1 X22.01 Y45.486 Z0 F600
G1 X21.933 Y45.446 Z0 F600
G1 X21.832 Y45.386 Z0 F600
G1 X21.718 Y45.342 Z0 F600
G1 X21.673 Y45.322 Z0 F600
G1 X21.571 Y45.271 Z0 F600
G1 X21.453 Y45.205 Z0 F600
G1 X21.334 Y45.131 Z0 F600
G1 X21.192 Y45.008 Z0 F600
G1 X21.065 Y44.89 Z0 F600
G1 X20.928 Y44.758 Z0 F600
G1 X20.789 Y44.62 Z0 F600
G1 X20.682 Y44.509 Z0 F600
G1 X20.602 Y44.414 Z0 F600
G1 X20.542 Y44.323 Z0 F600
G1 X20.494 Y44.225 Z0 F600
G1 X20.452 Y44.106 Z0 F600
G1 X20.41 Y43.957 Z0 F600
G1 X20.36 Y43.765 Z0 F600
G1 X20.287 Y43.434 Z0 F600
G1 X20.238 Y43.098 Z0 F600
G1 X20.211 Y42.73 Z0 F600
G1 X20.202 Y42.303 Z0 F600
G1 Y41.978 Z0 F600
G1 X20.206 Y41.869 Z0 F600
G1 X20.212 Y41.782 Z0 F600
G1 X20.237 Y41.631 Z0 F600
G1 X20.287 Y41.438 Z0 F600
; --- FIX X Backlash ---
G0 X20.987 Y41.438 F410
G1 X21.047 Y41.165 Z0 F600
G1 X21.061 Y40.932 Z0 F600
G1 X21.027 Y40.707 Z0 F600
; --- FIX X Backlash ---
G0 X20.327 Y40.707 F410
G1 X20.243 Y40.459 Z0 F600
G1 X20.159 Y40.261 Z0 F600
G1 X20.058 Y40.108 Z0 F600
G1 X19.906 Y40.001 Z0 F600
G1 X19.74 Y39.956 Z0 F600
G1 X19.624 Y39.947 Z0 F600
G1 X19.489 Y39.974 Z0 F600
; --- FIX Y Backlash ---
G0 X19.489 Y40.474 F410
G1 X19.377 Y40.539 Z0 F600
G1 X19.175 Y40.71 Z0 F600
G1 X19.181 Z0 F600
G1 X19.124 Y40.742 Z0 F600
G1 X19.076 Y40.772 Z0 F600
G1 X18.943 Y40.866 Z0 F600
G1 X18.727 Y41.022 Z0 F600
G1 X18.636 Y41.082 Z0 F600
G1 X18.586 Y41.113 Z0 F600
G1 X18.607 Y41.108 Z0 F600
G1 X18.647 Z0 F600
G1 X18.616 Z0 F600
G1 X18.585 Y41.114 Z0 F600
G1 X18.573 Y41.12 Z0 F600
G1 X18.583 Y41.114 Z0 F600
G1 X18.545 Y41.125 Z0 F600
G1 X18.505 Y41.144 Z0 F600
G1 X18.468 Y41.171 Z0 F600
G1 X18.432 Y41.209 Z0 F600
G1 X18.393 Y41.231 Z0 F600
G1 X18.336 Y41.258 Z0 F600
G1 X18.189 Y41.317 Z0 F600
G1 X18.052 Y41.36 Z0 F600
G1 X17.947 Y41.378 Z0 F600
G1 X17.794 Y41.39 Z0 F600
G1 X17.605 Y41.396 Z0 F600
G1 X17.394 Y41.393 Z0 F600
G1 X16.948 Y41.36 Z0 F600
; --- FIX Y Backlash ---
G0 X16.948 Y40.86 F410
G1 X16.528 Y40.797 Z0 F600
G1 X16.262 Y40.733 Z0 F600
G1 X16.026 Y40.652 Z0 F600
G1 X15.801 Y40.545 Z0 F600
G1 X15.568 Y40.406 Z0 F600
G1 X15.284 Y40.216 Z0 F600
G1 X15.053 Y40.036 Z0 F600
G1 X14.922 Y39.919 Z0 F600
G1 X14.761 Y39.768 Z0 F600
G1 X14.294 Y39.316 Z0 F600
G1 X13.897 Y38.927 Z0 F600
G1 X13.766 Y38.794 Z0 F600
G1 X13.671 Y38.692 Z0 F600
G1 X13.551 Y38.543 Z0 F600
G1 X13.461 Y38.392 Z0 F600
G1 X13.311 Y38.072 Z0 F600
G1 X13.212 Y37.729 Z0 F600
G1 X13.16 Y37.353 Z0 F600
G1 X13.154 Y36.929 Z0 F600
G1 X13.181 Y36.56 Z0 F600
; --- FIX X Backlash ---
G0 X13.881 Y36.56 F410
G1 X13.942 Y36.27 Z0 F600
G1 X14.12 Y35.776 Z0 F600
G1 X14.345 Y35.344 Z0 F600
G1 X14.593 Y34.961 Z0 F600
G1 X14.746 Y34.768 Z0 F600
G1 X14.964 Y34.534 Z0 F600
G1 X15.109 Y34.399 Z0 F600
G1 X15.248 Y34.29 Z0 F600
G1 X15.417 Y34.178 Z0 F600
G1 X15.653 Y34.039 Z0 F600
G1 X15.899 Y33.899 Z0 F600
G1 X16.122 Y33.777 Z0 F600
G1 X16.324 Y33.672 Z0 F600
G1 X16.506 Y33.583 Z0 F600
G1 X16.819 Y33.449 Z0 F600
G1 X17.075 Y33.367 Z0 F600
G1 X17.248 Y33.319 Z0 F600
G1 X17.442 Y33.263 Z0 F600
G1 X17.551 Y33.236 Z0 F600
G1 X17.679 Y33.217 Z0 F600
G1 X17.859 Y33.204 Z0 F600
G1 X18.123 Y33.194 Z0 F600
G1 X18.313 Y33.189 Z0 F600
G1 X18.467 Z0 F600
G1 X18.592 Y33.192 Z0 F600
G1 X18.694 Y33.201 Z0 F600
G1 X18.865 Y33.242 Z0 F600
; --- FIX Y Backlash ---
G0 X18.865 Y33.742 F410
G1 X19.039 Y33.818 Z0 F600
G1 X19.105 Y33.864 Z0 F600
G1 X19.199 Y33.949 Z0 F600
G1 X19.277 Y34.044 Z0 F600
G1 X19.313 Y34.1 Z0 F600
G1 X19.349 Y34.269 Z0 F600
G1 X19.352 Y34.501 Z0 F600
G1 X19.314 Y34.74 Z0 F600
; --- FIX X Backlash ---
G0 X18.614 Y34.74 F410
G1 X18.547 Y34.931 Z0 F600
G1 X18.479 Y35.079 Z0 F600
G1 X18.427 Y35.224 Z0 F600
G1 X18.392 Y35.304 Z0 F600
G1 X18.332 Y35.417 Z0 F600
G1 X18.251 Y35.56 Z0 F600
G1 X18.195 Y35.717 Z0 F600
G1 X18.17 Y35.779 Z0 F600
G1 X18.123 Y35.881 Z0 F600
G1 X18.049 Y36.01 Z0 F600
G1 X18.022 Y36.089 Z0 F600
G1 X18.028 Y36.17 Z0 F600
G1 X18.064 Y36.243 Z0 F600
; --- FIX X Backlash ---
G0 X18.764 Y36.243 F410
G1 X18.827 Y36.3 Z0 F600
G1 X18.922 Y36.355 Z0 F600
G1 X19.001 Y36.397 Z0 F600
G1 X19.101 Y36.424 Z0 F600
G1 X19.206 Z0 F600
G1 X19.295 Y36.402 Z0 F600
; --- FIX Y Backlash ---
G0 X19.295 Y35.902 F410
G1 X19.67 Y35.851 Z0 F600
G1 X20.092 Y35.835 Z0 F600
G1 X20.28 Y35.875 Z0 F600
; --- FIX Y Backlash ---
G0 X20.28 Y36.375 F410
G1 X20.481 Y36.446 Z0 F600
G1 X20.652 Y36.523 Z0 F600
G1 X20.752 Y36.584 Z0 F600
G1 X20.824 Y36.682 Z0 F600
G1 X20.92 Y36.839 Z0 F600
G1 X20.974 Y36.946 Z0 F600
G1 X20.996 Y37.006 Z0 F600
G1 Y37.075 Z0 F600
G1 X20.991 Y37.205 Z0 F600
G1 X20.973 Y37.404 Z0 F600
; --- FIX X Backlash ---
G0 X20.273 Y37.404 F410
G1 X20.217 Y37.551 Z0 F600
G1 X20.093 Y37.755 Z0 F600
G1 X19.939 Y37.936 Z0 F600
G1 X19.768 Y38.08 Z0 F600
G1 X19.595 Y38.176 Z0 F600
G1 X19.488 Y38.216 Z0 F600
G1 X19.371 Y38.232 Z0 F600
G1 X19.273 Y38.236 Z0 F600
G1 X19.135 Z0 F600
G1 X18.711 Y38.227 Z0 F600
G1 X18.57 Z0 F600
G1 X18.45 Y38.236 Z0 F600
G1 X18.335 Y38.271 Z0 F600
G1 X18.24 Y38.323 Z0 F600
G1 X18.21 Y38.342 Z0 F600
G1 X18.148 Y38.359 Z0 F600
G1 X18.082 Y38.374 Z0 F600
G1 X17.989 Y38.391 Z0 F600
G1 X17.708 Y38.438 Z0 F600
G1 X17.627 Y38.444 Z0 F600
G1 X17.479 Y38.451 Z0 F600
G1 X17.295 Y38.455 Z0 F600
G1 X17.107 Z0 F600
G1 X16.901 Y38.445 Z0 F600
G1 X16.744 Y38.435 Z0 F600
G1 X16.629 Y38.418 Z0 F600
G1 X16.546 Y38.397 Z0 F600
G1 X16.477 Y38.366 Z0 F600
G1 X16.406 Y38.319 Z0 F600
; --- FIX Y Backlash ---
G0 X16.406 Y37.819 F410
G1 X16.321 Y37.748 Z0 F600
G1 X16.212 Y37.646 Z0 F600
G1 X16.073 Y37.513 Z0 F600
G1 X16 Y37.433 Z0 F600
G1 X15.958 Y37.355 Z0 F600
G1 X15.911 Y37.229 Z0 F600
G1 X15.848 Y37.015 Z0 F600
G1 X15.82 Y36.811 Z0 F600
G1 X15.817 Y36.624 Z0 F600
; --- FIX X Backlash ---
G0 X16.517 Y36.624 F410
G1 X16.575 Y36.443 Z0 F600
G1 X16.636 Y36.306 Z0 F600
G1 X16.716 Y36.178 Z0 F600
G1 X16.828 Y36.043 Z0 F600
G1 X16.982 Y35.888 Z0 F600
G1 X17.51 Y35.387 Z0 F600
G1 X17.735 Y35.171 Z0 F600
G1 X17.813 Y35.089 Z0 F600
G1 X17.877 Y35.016 Z0 F600
G1 X17.968 Y34.87 Z0 F600
G1 X18.029 Y34.716 Z0 F600
G1 X18.104 Y34.5 Z0 F600
G1 X18.114 Y34.407 Z0 F600
G1 X18.082 Y34.318 Z0 F600
; --- FIX X Backlash ---
G0 X17.382 Y34.318 F410
G1 X17.314 Y34.25 Z0 F600
G1 X17.224 Y34.218 Z0 F600
G1 X17.088 Y34.2 Z0 F600
G1 X16.904 Y34.183 Z0 F600
G1 X16.732 Z0 F600
G1 X16.571 Y34.205 Z0 F600
G1 X16.42 Y34.247 Z0 F600
; --- FIX Y Backlash ---
G0 X16.42 Y34.747 F410
G1 X16.249 Y34.813 Z0 F600
G1 X16.097 Y34.881 Z0 F600
G1 X16.032 Y34.914 Z0 F600
G1 X15.973 Y34.947 Z0 F600
G1 X15.931 Y34.975 Z0 F600
G1 X15.883 Y35.014 Z0 F600
G1 X15.806 Y35.047 Z0 F600
G1 X15.667 Y35.118 Z0 F600
G1 X15.555 Y35.178 Z0 F600
G1 X15.391 Y35.276 Z0 F600
G1 X15.236 Y35.389 Z0 F600
G1 X15.069 Y35.532 Z0 F600
G1 X14.868 Y35.721 Z0 F600
G1 X14.723 Y35.865 Z0 F600
G1 X14.603 Y35.99 Z0 F600
G1 X14.555 Y36.042 Z0 F600
G1 X14.5 Y36.107 Z0 F600
G1 X14.475 Y36.142 Z0 F600
G1 X14.455 Y36.178 Z0 F600
G1 X14.446 Y36.206 Z0 F600
G1 X14.39 Y36.3 Z0 F600
G1 X14.343 Y36.373 Z0 F600
G1 X14.204 Y36.599 Z0 F600
G1 X14.068 Y36.849 Z0 F600
G1 X13.989 Y37.019 Z0 F600
G1 X13.942 Y37.164 Z0 F600
G1 X13.92 Y37.321 Z0 F600
G1 X13.914 Y37.526 Z0 F600
G1 Y37.85 Z0 F600
G1 X13.921 Y37.9 Z0 F600
G1 X13.939 Y37.949 Z0 F600
; --- FIX X Backlash ---
G0 X14.639 Y37.949 F410
G1 X14.785 Y38.224 Z0 F600
G1 X14.918 Y38.454 Z0 F600
G1 X15.072 Y38.667 Z0 F600
G1 X15.271 Y38.896 Z0 F600
G1 X15.544 Y39.176 Z0 F600
G1 X15.784 Y39.412 Z0 F600
G1 X16.002 Y39.62 Z0 F600
G1 X16.2 Y39.802 Z0 F600
G1 X16.381 Y39.958 Z0 F600
G1 X16.547 Y40.09 Z0 F600
G1 X16.699 Y40.198 Z0 F600
G1 X16.841 Y40.283 Z0 F600
G1 X16.974 Y40.346 Z0 F600
G1 X17.044 Y40.384 Z0 F600
G1 X17.063 Y40.391 Z0 F600
G1 X17.187 Y40.475 Z0 F600
G1 X17.319 Y40.529 Z0 F600
G1 X17.464 Y40.563 Z0 F600
G1 X17.622 Y40.589 Z0 F600
G1 X17.96 Y40.622 Z0 F600
G1 X18.295 Y40.608 Z0 F600
; --- FIX Y Backlash ---
G0 X18.295 Y40.108 F410
G1 X18.545 Y40.045 Z0 F600
G1 X18.8 Y39.918 Z0 F600
G1 X19.081 Y39.718 Z0 F600
G1 X19.407 Y39.438 Z0 F600
G1 X19.54 Y39.32 Z0 F600
G1 X19.644 Y39.23 Z0 F600
G1 X19.725 Y39.166 Z0 F600
G1 X19.788 Y39.122 Z0 F600
G1 X19.902 Y39.067 Z0 F600
G1 X20.076 Y39.02 Z0 F600
G1 X20.229 Y38.993 Z0 F600
G1 X20.396 Y38.985 Z0 F600
G1 X20.59 Y38.997 Z0 F600
G1 X20.819 Y39.031 Z0 F600
; --- FIX Y Backlash ---
G0 X20.819 Y39.531 F410
G1 X21.005 Y39.586 Z0 F600
G1 X21.181 Y39.678 Z0 F600
G1 X21.338 Y39.804 Z0 F600
G1 X21.469 Y39.959 Z0 F600
G1 X21.533 Y40.089 Z0 F600
G1 X21.611 Y40.302 Z0 F600
G1 X21.684 Y40.556 Z0 F600
G1 X21.733 Y40.806 Z0 F600
G1 X21.751 Y40.983 Z0 F600
G1 X21.765 Y41.206 Z0 F600
G1 X21.773 Y41.454 Z0 F600
G1 X21.777 Y41.706 Z0 F600
G1 X21.774 Y41.941 Z0 F600
G1 X21.767 Y42.14 Z0 F600
G1 X21.762 Y42.219 Z0 F600
G1 X21.755 Y42.279 Z0 F600
G1 X21.746 Y42.316 Z0 F600
G1 X21.758 Y42.294 Z0 F600
; --- FIX X Backlash ---
G0 X21.058 Y42.294 F410
G1 X20.996 Y42.45 Z0 F600
G1 X20.958 Y42.622 Z0 F600
G1 X20.937 Y42.809 Z0 F600
G1 X20.929 Y43.006 Z0 F600
G1 X20.947 Y43.412 Z0 F600
; --- FIX X Backlash ---
G0 X21.647 Y43.412 F410
G1 X21.723 Y43.786 Z0 F600
G1 X21.802 Y44.003 Z0 F600
G1 X21.894 Y44.188 Z0 F600
G1 X22.007 Y44.355 Z0 F600
G1 X22.153 Y44.523 Z0 F600
G1 X22.363 Y44.728 Z0 F600
G1 X22.575 Y44.901 Z0 F600
G1 X22.79 Y45.043 Z0 F600
G1 X23.008 Y45.154 Z0 F600
G1 X23.132 Y45.202 Z0 F600
G1 X23.251 Y45.235 Z0 F600
G1 X23.371 Y45.246 Z0 F600
G1 X23.495 Y45.228 Z0 F600
; --- FIX Y Backlash ---
G0 X23.495 Y44.728 F410
G1 X23.615 Y44.669 Z0 F600
G1 X23.709 Y44.576 Z0 F600
G1 X23.764 Y44.467 Z0 F600
G1 X23.79 Y44.354 Z0 F600
G1 X23.793 Y44.244 Z0 F600
G1 X23.772 Y44.126 Z0 F600
G1 X23.728 Y44.01 Z0 F600
; --- FIX X Backlash ---
G0 X23.028 Y44.01 F410
G1 X22.879 Y43.707 Z0 F600
G1 X22.857 Y43.657 Z0 F600
G1 X22.849 Y43.631 Z0 F600
G1 X22.833 Y43.594 Z0 F600
G1 X22.807 Y43.55 Z0 F600
G1 X22.744 Y43.464 Z0 F600
G1 X22.692 Y43.401 Z0 F600
G1 X22.614 Y43.281 Z0 F600
G1 X22.549 Y43.141 Z0 F600
G1 X22.52 Y43.06 Z0 F600
G1 X22.48 Y42.956 Z0 F600
G1 X22.457 Y42.902 Z0 F600
G1 X22.426 Y42.857 Z0 F600
G1 X22.441 Y42.876 Z0 F600
G1 X22.429 Y42.848 Z0 F600
G1 X22.391 Y42.727 Z0 F600
G1 X22.351 Y42.573 Z0 F600
G1 X22.284 Y42.271 Z0 F600
G1 X22.238 Y42.103 Z0 F600
G1 X22.218 Y42.021 Z0 F600
G1 X22.205 Y41.895 Z0 F600
