
G0 Z10 F500;      ; Move to clearance level
; G0 X-10 Y-10 F1200; Homing
; G0 X-5 Y-5 F1200; go in
; G10 P0 L20 X0 Y0; set to zero
G1 F1200;           ; Set feed rate
G90 ; Force absolute mode
;LightBurn 1.6.04
;Custom GCode device profile, absolute coords
;Bounds: X21.25 Y23.34 to X91.15 Y92.14
G00 G17 G40 G21 G54
M3
G1 Z10 F1500

; Color picking sequence
G1 Z10 F1000;         ; Raise brush
G0 X86 Y5 F1200;    ; Rapid move to color 1
G1 Z10 F1000;         ; Raise brush
G0 X86 Y5 F1200;    ; Rapid move to color 1
G1 Z0 F1000;         ; Lower into color
G1 X85.102 Y7.295 Z0 S800 F1200
G1 X85.026 Y7.642 Z0 F1200
G1 X85 Y8 Z0 F1200
G1 X85.026 Y8.358 Z0 F1200
G1 X85.102 Y8.705 Z0 F1200
G1 X85.225 Y9.041 Z0 F1200
G1 X85.393 Y9.362 Z0 F1200
G1 X85.603 Y9.668 Z0 F1200
G1 X85.854 Y9.957 Z0 F1200
G1 X86.142 Y10.226 Z0 F1200
G1 X86.464 Y10.475 Z0 F1200
G1 X86.82 Y10.701 Z0 F1200
G1 X87.204 Y10.902 Z0 F1200
G1 X87.617 Y11.078 Z0 F1200
G1 X88.054 Y11.225 Z0 F1200
G1 X88.513 Y11.343 Z0 F1200
G1 X88.992 Y11.429 Z0 F1200
G1 X89.489 Y11.482 Z0 F1200
G1 X90 Y11.5 Z0 F1200
G1 X90.511 Y11.482 Z0 F1200
G1 X91.008 Y11.429 Z0 F1200
G1 X91.487 Y11.343 Z0 F1200
G1 X91.946 Y11.225 Z0 F1200
G1 X92.383 Y11.078 Z0 F1200
G1 X92.796 Y10.902 Z0 F1200
G1 X93.18 Y10.701 Z0 F1200
G1 X93.536 Y10.475 Z0 F1200
G1 X93.858 Y10.226 Z0 F1200
G1 X94.146 Y9.957 Z0 F1200
G1 X94.397 Y9.668 Z0 F1200
G1 X94.607 Y9.362 Z0 F1200
G1 X94.775 Y9.041 Z0 F1200
G1 X94.898 Y8.705 Z0 F1200
G1 X94.974 Y8.358 Z0 F1200
G1 X95 Y8 Z0 F1200
G1 X94.974 Y7.642 Z0 F1200
G1 X94.898 Y7.295 Z0 F1200
G1 X94.775 Y6.959 Z0 F1200
G1 X94.607 Y6.638 Z0 F1200
G1 X94.397 Y6.332 Z0 F1200
G1 X94.146 Y6.043 Z0 F1200
G1 X93.858 Y5.774 Z0 F1200
G1 X93.536 Y5.525 Z0 F1200
G1 X93.18 Y5.299 Z0 F1200
G1 X92.796 Y5.098 Z0 F1200
G1 X92.383 Y4.922 Z0 F1200
G1 X91.946 Y4.775 Z0 F1200
G1 X91.487 Y4.657 Z0 F1200
G1 X91.008 Y4.571 Z0 F1200
G1 X90.511 Y4.518 Z0 F1200
G1 X90 Y4.5 Z0 F1200
G1 X89.489 Y4.518 Z0 F1200
G1 X88.992 Y4.571 Z0 F1200
G1 X88.513 Y4.657 Z0 F1200
G1 X88.054 Y4.775 Z0 F1200
G1 X87.617 Y4.922 Z0 F1200
G1 X87.204 Y5.098 Z0 F1200
G1 X86.82 Y5.299 Z0 F1200
G1 X86.464 Y5.525 Z0 F1200
G1 X86.142 Y5.774 Z0 F1200
G1 X85.854 Y6.043 Z0 F1200
G1 X85.603 Y6.332 Z0 F1200
G1 X85.393 Y6.638 Z0 F1200
G1 X85.225 Y6.959 Z0 F1200
G1 Z7 F800;         ; Raise from color
G1 X79 Y8 Z1 F1200;     ; Movement in paint
G1 X69 Y18 Z8 F500;     ; Move in paint
G1 F1200;           ; Set feed rate
G0 Z2.5 F1000 ; Safety Lift
;Cut @ 1200 mm/min, 90% power

M8
G0 Z4.8 F1500
G0 X28.834 Y24.637 Z4.8 F1500
G1 Z0 F1500
;Layer Blue
; --- FIX X Backlash ---
G0 X27.934 Y24.637 F1500
G1 X27.8 Y24.714 Z0 F1500
G1 X27.642 Y24.811 Z0 F1500
G1 X27.48 Y24.935 Z0 F1500
G1 X27.284 Y25.119 Z0 F1500
G1 X27.072 Y25.343 Z0 F1500
G1 X26.859 Y25.586 Z0 F1500
G1 X26.664 Y25.827 Z0 F1500
G1 X26.504 Y26.047 Z0 F1500
G1 X26.395 Y26.225 Z0 F1500
G1 X26.355 Y26.341 Z0 F1500
G1 X26.371 Y26.405 Z0 F1500
G1 X26.418 Y26.426 Z0 F1500
; --- FIX X Backlash ---
G0 X27.318 Y26.426 F1500
G1 X27.399 Y26.402 Z0 F1500
; --- FIX Y Backlash ---
G0 X27.399 Y25.502 F1500
G1 X27.512 Y25.433 Z0 F1500
G1 X27.658 Y25.319 Z0 F1500
G1 X27.839 Y25.16 Z0 F1500
G1 X28.053 Y24.955 Z0 F1500
G1 X28.303 Y24.704 Z0 F1500
G1 X28.49 Y24.509 Z0 F1500
G1 X28.654 Y24.334 Z0 F1500
G1 X28.796 Y24.178 Z0 F1500
G1 X28.915 Y24.041 Z0 F1500
G1 X29.01 Y23.923 Z0 F1500
G1 X29.083 Y23.824 Z0 F1500
G1 X29.132 Y23.745 Z0 F1500
G1 X29.159 Y23.686 Z0 F1500
G1 X29.162 Y23.645 Z0 F1500
G1 X29.143 Y23.625 Z0 F1500
G1 X29.1 Z0 F1500
; --- FIX X Backlash ---
G0 X28.2 Y23.625 F1500
G1 X28.135 Y23.642 Z0 F1500
G1 X28.046 Y23.68 Z0 F1500
; --- FIX Y Backlash ---
G0 X28.046 Y24.58 F1500
G1 X27.934 Y24.637 Z0 F1500
G0 Z4.8 F1500
; --- FIX X Backlash ---
G0 X28.834 Y24.637 F1500
G0 X29.587 Y24.644 Z4.8 F1500
G1 Z0 F1500
; --- FIX X Backlash ---
G0 X28.687 Y24.644 F1500
G1 X27.916 Y25.483 Z0 F1500
G1 X27.132 Y26.42 Z0 F1500
G1 X26.341 Y27.425 Z0 F1500
G1 X25.332 Y29.435 Z0 F1500
G1 X24.909 Y30.274 Z0 F1500
G1 X24.501 Y31.072 Z0 F1500
G1 X24.317 Y31.427 Z0 F1500
G1 X24.02 Y31.994 Z0 F1500
G1 X23.629 Y32.725 Z0 F1500
G1 X23.322 Y33.328 Z0 F1500
G1 X23.011 Y33.963 Z0 F1500
G1 X22.707 Y34.604 Z0 F1500
G1 X22.425 Y35.224 Z0 F1500
G1 X22.176 Y35.794 Z0 F1500
G1 X22.068 Y36.053 Z0 F1500
G1 X21.973 Y36.289 Z0 F1500
G1 X21.893 Y36.499 Z0 F1500
G1 X21.829 Y36.681 Z0 F1500
G1 X21.762 Y36.876 Z0 F1500
G1 X21.703 Y37.044 Z0 F1500
G1 X21.65 Y37.183 Z0 F1500
G1 X21.604 Y37.295 Z0 F1500
G1 X21.566 Y37.379 Z0 F1500
G1 X21.536 Y37.436 Z0 F1500
G1 X21.512 Y37.464 Z0 F1500
G1 X21.497 Z0 F1500
G1 X21.489 Y37.44 Z0 F1500
; --- FIX Y Backlash ---
G0 X21.489 Y36.54 F1500
G1 Y36.488 Z0 F1500
G1 X21.498 Y36.408 Z0 F1500
G1 X21.515 Y36.302 Z0 F1500
G1 X21.54 Y36.168 Z0 F1500
G1 X21.573 Y36.009 Z0 F1500
G1 X21.615 Y35.823 Z0 F1500
; --- FIX X Backlash ---
G0 X22.515 Y35.823 F1500
G1 X22.795 Y34.671 Z0 F1500
; --- FIX X Backlash ---
G0 X21.895 Y34.671 F1500
G1 X21.717 Y34.215 Z0 F1500
; --- FIX Y Backlash ---
G0 X21.717 Y35.115 F1500
G1 X21.603 Y35.184 Z0 F1500
G1 X21.55 Y35.25 Z0 F1500
G1 X21.484 Y35.392 Z0 F1500
G1 X21.402 Y35.614 Z0 F1500
G1 X21.305 Y35.918 Z0 F1500
G1 X21.192 Y36.307 Z0 F1500
G1 X21.062 Y36.784 Z0 F1500
G1 X20.914 Y37.352 Z0 F1500
G1 X20.746 Y38.014 Z0 F1500
G1 X20.445 Y39.22 Z0 F1500
G1 X20.393 Y42.028 Z0 F1500
G1 X20.386 Y42.497 Z0 F1500
G1 X20.382 Y42.927 Z0 F1500
G1 Y43.316 Z0 F1500
G1 Y43.662 Z0 F1500
G1 X20.386 Y43.964 Z0 F1500
G1 X20.393 Y44.221 Z0 F1500
G1 X20.403 Y44.43 Z0 F1500
G1 X20.414 Y44.592 Z0 F1500
G1 X20.428 Y44.703 Z0 F1500
G1 X20.444 Y44.762 Z0 F1500
G1 X20.462 Y44.769 Z0 F1500
G1 X20.481 Y44.721 Z0 F1500
; --- FIX Y Backlash ---
G0 X20.481 Y43.821 F1500
G1 X20.502 Y43.717 Z0 F1500
G1 X20.525 Y43.555 Z0 F1500
G1 X20.548 Y43.335 Z0 F1500
G1 X20.573 Y43.053 Z0 F1500
; --- FIX X Backlash ---
G0 X21.473 Y43.053 F1500
G1 X21.542 Y42.339 Z0 F1500
G1 X21.632 Y41.669 Z0 F1500
G1 X21.749 Y41.015 Z0 F1500
G1 X21.9 Y40.348 Z0 F1500
G1 X22.094 Y39.639 Z0 F1500
G1 X22.337 Y38.86 Z0 F1500
G1 X22.479 Y38.436 Z0 F1500
G1 X22.637 Y37.984 Z0 F1500
G1 X22.81 Y37.499 Z0 F1500
G1 X23 Y36.98 Z0 F1500
G1 X23.299 Y36.199 Z0 F1500
G1 X23.634 Y35.384 Z0 F1500
G1 X24 Y34.54 Z0 F1500
G1 X24.393 Y33.676 Z0 F1500
G1 X25.244 Y31.919 Z0 F1500
G1 X26.152 Y30.175 Z0 F1500
G1 X26.618 Y29.328 Z0 F1500
G1 X27.085 Y28.507 Z0 F1500
G1 X27.55 Y27.721 Z0 F1500
G1 X28.008 Y26.977 Z0 F1500
G1 X28.455 Y26.283 Z0 F1500
G1 X28.888 Y25.648 Z0 F1500
G1 X29.301 Y25.078 Z0 F1500
G1 X29.691 Y24.581 Z0 F1500
G1 X29.952 Y24.272 Z0 F1500
G1 X30.214 Y23.974 Z0 F1500
G1 X30.446 Y23.722 Z0 F1500
G1 X30.743 Y23.423 Z0 F1500
G1 X30.845 Y23.299 Z0 F1500
G1 X30.914 Y23.191 Z0 F1500
G1 X30.939 Y23.113 Z0 F1500
G1 Y22.973 Z0 F1500
; --- FIX X Backlash ---
G0 X30.039 Y22.973 F1500
G1 X29.45 Z0 F1500
; --- FIX Y Backlash ---
G0 X29.45 Y23.873 F1500
G1 X28.687 Y24.644 Z0 F1500
G0 Z4.8 F1500
G0 X25.166 Y27.209 Z4.8 F1500
G1 Z0 F1500
G1 X24.531 Y28.122 Z0 F1500
G1 X23.896 Y29.034 Z0 F1500
G1 X23.508 Y30.508 Z0 F1500
G1 X23.349 Y31.102 Z0 F1500
G1 X23.203 Y31.628 Z0 F1500
G1 X23.086 Y32.03 Z0 F1500
G1 X23.043 Y32.166 Z0 F1500
G1 X23.015 Y32.25 Z0 F1500
G1 X22.91 Y32.518 Z0 F1500
; --- FIX X Backlash ---
G0 X23.81 Y32.518 F1500
; --- FIX Y Backlash ---
G0 X23.81 Y31.618 F1500
G1 X24.01 Y31.35 Z0 F1500
G1 X24.143 Y31.156 Z0 F1500
G1 X24.3 Y30.9 Z0 F1500
G1 X24.473 Y30.599 Z0 F1500
G1 X24.653 Y30.269 Z0 F1500
G1 X24.83 Y29.928 Z0 F1500
G1 X24.996 Y29.592 Z0 F1500
G1 X25.142 Y29.279 Z0 F1500
G1 X25.259 Y29.005 Z0 F1500
G1 X25.385 Y28.699 Z0 F1500
G1 X25.552 Y28.311 Z0 F1500
G1 X25.738 Y27.893 Z0 F1500
G1 X25.921 Y27.492 Z0 F1500
G1 X26.344 Y26.582 Z0 F1500
; --- FIX X Backlash ---
G0 X25.444 Y26.582 F1500
G1 X25.166 Y26.309 Z0 F1500
G0 Z4.8 F1500
; --- FIX X Backlash ---
G0 X26.066 Y26.309 F1500
; --- FIX Y Backlash ---
G0 X26.066 Y27.209 F1500
G0 X28.116 Y30.977 Z4.8 F1500
G1 Z0 F1500
; --- FIX X Backlash ---
G0 X27.216 Y30.977 F1500
G1 X26.993 Y31.218 Z0 F1500
G1 X26.933 Y31.299 Z0 F1500
G1 X26.847 Y31.436 Z0 F1500
G1 X26.738 Y31.623 Z0 F1500
G1 X26.612 Y31.851 Z0 F1500
G1 X26.322 Y32.404 Z0 F1500
G1 X26.008 Y33.035 Z0 F1500
G1 X25.246 Y34.611 Z0 F1500
; --- FIX X Backlash ---
G0 X26.146 Y34.611 F1500
G1 X26.234 Y35.062 Z0 F1500
G1 X26.674 Y35.145 Z0 F1500
; --- FIX Y Backlash ---
G0 X26.674 Y34.245 F1500
G1 X27.223 Y33.133 Z0 F1500
G1 X27.46 Y32.645 Z0 F1500
G1 X27.7 Y32.14 Z0 F1500
G1 X27.914 Y31.678 Z0 F1500
G1 X28.076 Y31.317 Z0 F1500
G1 X28.38 Y30.613 Z0 F1500
G1 X28.573 Z0 F1500
G1 X28.692 Y30.631 Z0 F1500
; --- FIX Y Backlash ---
G0 X28.692 Y31.531 F1500
G1 X28.865 Y31.588 Z0 F1500
G1 X29.103 Y31.69 Z0 F1500
G1 X29.415 Y31.843 Z0 F1500
G1 X29.603 Y31.939 Z0 F1500
G1 X29.813 Y32.05 Z0 F1500
G1 X30.306 Y32.318 Z0 F1500
G1 X30.906 Y32.651 Z0 F1500
G1 X31.621 Y33.055 Z0 F1500
G1 X32.394 Y33.486 Z0 F1500
G1 X33.237 Y33.942 Z0 F1500
G1 X33.653 Y34.163 Z0 F1500
G1 X34.048 Y34.369 Z0 F1500
G1 X34.41 Y34.555 Z0 F1500
G1 X34.726 Y34.713 Z0 F1500
G1 X36.124 Y35.402 Z0 F1500
; --- FIX Y Backlash ---
G0 X36.124 Y34.502 F1500
G1 Y34.377 Z0 F1500
G1 X36.092 Y34.316 Z0 F1500
; --- FIX X Backlash ---
G0 X35.192 Y34.316 F1500
G1 X35.086 Y34.217 Z0 F1500
G1 X35.001 Y34.15 Z0 F1500
G1 X34.893 Y34.071 Z0 F1500
G1 X34.759 Y33.977 Z0 F1500
G1 X34.599 Y33.868 Z0 F1500
G1 X34.19 Y33.599 Z0 F1500
G1 X33.653 Y33.255 Z0 F1500
G1 X32.975 Y32.827 Z0 F1500
G1 X32.142 Y32.306 Z0 F1500
G1 X31.88 Y32.148 Z0 F1500
G1 X31.586 Y31.979 Z0 F1500
G1 X31.265 Y31.801 Z0 F1500
G1 X30.924 Y31.618 Z0 F1500
G1 X30.206 Y31.247 Z0 F1500
G1 X29.481 Y30.89 Z0 F1500
G1 X29.131 Y30.724 Z0 F1500
G1 X28.798 Y30.57 Z0 F1500
G1 X28.488 Y30.432 Z0 F1500
G1 X28.207 Y30.313 Z0 F1500
G1 X27.962 Y30.214 Z0 F1500
G1 X27.759 Y30.14 Z0 F1500
G1 X27.603 Y30.094 Z0 F1500
G1 X27.502 Y30.077 Z0 F1500
G1 X27.216 Z0 F1500
G0 Z4.8 F1500
; --- FIX Y Backlash ---
G0 X27.216 Y30.977 F1500
G0 X25.429 Y35.539 Z4.8 F1500
G1 Z0 F1500
G1 X25.141 Y35.491 Z0 F1500
G1 X24.906 Y35.464 Z0 F1500
G1 X24.73 Y35.458 Z0 F1500
G1 X24.619 Y35.476 Z0 F1500
G1 X24.581 Y35.519 Z0 F1500
G1 X24.625 Y35.595 Z0 F1500
; --- FIX X Backlash ---
G0 X25.525 Y35.595 F1500
G1 X25.653 Y35.683 Z0 F1500
G1 X25.863 Y35.782 Z0 F1500
G1 X26.149 Y35.892 Z0 F1500
G1 X26.508 Y36.009 Z0 F1500
G1 X26.935 Y36.134 Z0 F1500
G1 X27.426 Y36.265 Z0 F1500
G1 X27.976 Y36.399 Z0 F1500
G1 X28.952 Y36.646 Z0 F1500
G1 X29.915 Y36.929 Z0 F1500
G1 X30.908 Y37.261 Z0 F1500
G1 X31.972 Y37.655 Z0 F1500
G1 X32.311 Y37.777 Z0 F1500
G1 X32.738 Y37.919 Z0 F1500
G1 X33.197 Y38.061 Z0 F1500
G1 X33.634 Y38.188 Z0 F1500
G1 X34.623 Y38.462 Z0 F1500
; --- FIX Y Backlash ---
G0 X34.623 Y37.562 F1500
G1 Y37.452 Z0 F1500
G1 X34.602 Y37.422 Z0 F1500
; --- FIX X Backlash ---
G0 X33.702 Y37.422 F1500
G1 X33.64 Y37.38 Z0 F1500
G1 X33.542 Y37.327 Z0 F1500
G1 X33.413 Y37.265 Z0 F1500
G1 X33.076 Y37.124 Z0 F1500
G1 X32.666 Y36.971 Z0 F1500
G1 X32.137 Y36.781 Z0 F1500
G1 X31.48 Y36.537 Z0 F1500
G1 X30.778 Y36.271 Z0 F1500
G1 X30.115 Y36.015 Z0 F1500
G1 X29.256 Y35.699 Z0 F1500
G1 X28.338 Y35.397 Z0 F1500
G1 X27.414 Y35.122 Z0 F1500
G1 X26.537 Y34.886 Z0 F1500
G1 X26.133 Y34.788 Z0 F1500
G1 X25.762 Y34.705 Z0 F1500
G1 X25.429 Y34.639 Z0 F1500
G0 Z4.8 F1500
; --- FIX Y Backlash ---
G0 X25.429 Y35.539 F1500
G0 X21.874 Y40.398 Z4.8 F1500
G1 Z0 F1500
; --- FIX X Backlash ---
G0 X22.774 Y40.398 F1500
G1 X22.826 Y40.42 Z0 F1500
G1 X22.91 Y40.487 Z0 F1500
G1 X23.139 Y40.711 Z0 F1500
G1 X23.252 Y40.807 Z0 F1500
G1 X23.345 Y40.872 Z0 F1500
G1 X23.405 Y40.896 Z0 F1500
G1 X23.526 Y40.902 Z0 F1500
G1 X23.703 Y40.922 Z0 F1500
G1 X23.927 Y40.953 Z0 F1500
G1 X24.192 Y40.993 Z0 F1500
G1 X24.814 Y41.099 Z0 F1500
G1 X25.512 Y41.227 Z0 F1500
G1 X26.226 Y41.367 Z0 F1500
G1 X26.899 Y41.508 Z0 F1500
G1 X27.202 Y41.575 Z0 F1500
G1 X27.472 Y41.639 Z0 F1500
G1 X27.703 Y41.696 Z0 F1500
G1 X27.887 Y41.748 Z0 F1500
G1 X28.444 Y41.91 Z0 F1500
G1 X29.037 Y42.074 Z0 F1500
G1 X29.66 Y42.239 Z0 F1500
G1 X30.304 Y42.402 Z0 F1500
G1 X31.623 Y42.719 Z0 F1500
G1 X32.928 Y43.01 Z0 F1500
G1 X33.556 Y43.142 Z0 F1500
G1 X34.155 Y43.262 Z0 F1500
G1 X34.719 Y43.368 Z0 F1500
G1 X35.239 Y43.46 Z0 F1500
G1 X35.706 Y43.534 Z0 F1500
G1 X36.113 Y43.59 Z0 F1500
G1 X36.452 Y43.626 Z0 F1500
G1 X36.714 Y43.639 Z0 F1500
G1 X37.236 Y43.643 Z0 F1500
; --- FIX X Backlash ---
G0 X36.336 Y43.643 F1500
G1 X36.258 Y44.783 Z0 F1500
G1 X36.18 Y45.961 Z0 F1500
G1 X36.102 Y47.195 Z0 F1500
G1 X36.024 Y48.468 Z0 F1500
G1 X35.708 Y48.875 Z0 F1500
G1 X35.58 Y49.054 Z0 F1500
G1 X35.464 Y49.24 Z0 F1500
G1 X35.374 Y49.411 Z0 F1500
G1 X35.321 Y49.545 Z0 F1500
G1 X35.308 Y49.574 Z0 F1500
G1 X35.298 Y49.554 Z0 F1500
; --- FIX Y Backlash ---
G0 X35.298 Y48.654 F1500
G1 X35.291 Y48.59 Z0 F1500
G1 X35.287 Y48.484 Z0 F1500
G1 Y48.341 Z0 F1500
G1 X35.29 Y48.164 Z0 F1500
G1 X35.296 Y47.957 Z0 F1500
; --- FIX X Backlash ---
G0 X36.196 Y47.957 F1500
G1 X36.263 Y46.541 Z0 F1500
; --- FIX X Backlash ---
G0 X35.363 Y46.541 F1500
; --- FIX Y Backlash ---
G0 X35.363 Y47.441 F1500
G1 X31.699 Y47.522 Z0 F1500
G1 X30.494 Y47.547 Z0 F1500
G1 X29.457 Y47.566 Z0 F1500
G1 X28.59 Y47.579 Z0 F1500
G1 X27.697 Y47.582 Z0 F1500
G1 X27.332 Y47.88 Z0 F1500
; --- FIX Y Backlash ---
G0 X27.332 Y46.98 F1500
G1 X23.557 Y46.885 Z0 F1500
G1 X21.306 Y46.521 Z0 F1500
G1 Y46.101 Z0 F1500
G1 X21.314 Y45.994 Z0 F1500
G1 X21.337 Y45.849 Z0 F1500
G1 X21.374 Y45.673 Z0 F1500
G1 X21.423 Y45.472 Z0 F1500
; --- FIX X Backlash ---
G0 X22.323 Y45.472 F1500
G1 X22.451 Y45.021 Z0 F1500
G1 X22.606 Y44.547 Z0 F1500
G1 X23.006 Y43.413 Z0 F1500
G1 X23.16 Y42.299 Z0 F1500
G1 X23.225 Y41.85 Z0 F1500
G1 X23.291 Y41.451 Z0 F1500
G1 X23.322 Y41.285 Z0 F1500
G1 X23.35 Y41.147 Z0 F1500
G1 X23.374 Y41.043 Z0 F1500
G1 X23.393 Y40.98 Z0 F1500
G1 X23.472 Y40.775 Z0 F1500
; --- FIX Y Backlash ---
G0 X23.472 Y41.675 F1500
G1 X23.76 Y41.747 Z0 F1500
G1 X23.969 Y41.801 Z0 F1500
G1 X24.324 Y41.897 Z0 F1500
G1 X25.276 Y42.159 Z0 F1500
G1 X25.57 Y42.239 Z0 F1500
G1 X25.908 Y42.326 Z0 F1500
G1 X26.284 Y42.419 Z0 F1500
G1 X26.691 Y42.517 Z0 F1500
G1 X27.575 Y42.721 Z0 F1500
G1 X28.509 Y42.929 Z0 F1500
G1 X29.444 Y43.129 Z0 F1500
G1 X30.331 Y43.31 Z0 F1500
G1 X30.74 Y43.39 Z0 F1500
G1 X31.118 Y43.461 Z0 F1500
G1 X31.46 Y43.522 Z0 F1500
G1 X32.673 Y43.722 Z0 F1500
G1 X33.101 Y43.796 Z0 F1500
G1 X33.436 Y43.856 Z0 F1500
G1 X33.59 Y43.88 Z0 F1500
G1 X33.776 Y43.903 Z0 F1500
G1 X33.988 Y43.924 Z0 F1500
G1 X34.217 Y43.942 Z0 F1500
G1 X34.703 Y43.968 Z0 F1500
G1 X35.176 Y43.978 Z0 F1500
G1 X36.261 Z0 F1500
; --- FIX Y Backlash ---
G0 X36.261 Y43.078 F1500
G1 Y42.968 Z0 F1500
G1 X36.241 Y42.943 Z0 F1500
; --- FIX X Backlash ---
G0 X35.341 Y42.943 F1500
G1 X35.283 Y42.913 Z0 F1500
G1 X35.191 Y42.88 Z0 F1500
G1 X35.07 Y42.844 Z0 F1500
G1 X34.756 Y42.771 Z0 F1500
G1 X34.372 Y42.701 Z0 F1500
G1 X34.137 Y42.663 Z0 F1500
G1 X33.515 Y42.557 Z0 F1500
G1 X32.375 Y42.356 Z0 F1500
G1 X30.876 Y42.084 Z0 F1500
G1 X29.895 Y41.912 Z0 F1500
G1 X29.43 Y41.835 Z0 F1500
G1 X28.789 Y41.737 Z0 F1500
G1 X28.33 Y41.655 Z0 F1500
G1 X28.068 Y41.601 Z0 F1500
G1 X27.757 Y41.534 Z0 F1500
G1 X26.918 Y41.345 Z0 F1500
G1 X25.726 Y41.089 Z0 F1500
G1 X24.513 Y40.85 Z0 F1500
G1 X24.001 Y40.748 Z0 F1500
G1 X23.516 Y40.637 Z0 F1500
G1 X23.301 Y40.583 Z0 F1500
G1 X23.113 Y40.531 Z0 F1500
G1 X22.959 Y40.484 Z0 F1500
G1 X22.845 Y40.443 Z0 F1500
G1 X22.661 Y40.374 Z0 F1500
G1 X22.482 Y40.316 Z0 F1500
G1 X22.33 Y40.278 Z0 F1500
G1 X22.226 Y40.263 Z0 F1500
G1 X22.045 Z0 F1500
; --- FIX Y Backlash ---
G0 X22.045 Y41.163 F1500
G1 X21.867 Y42.336 Z0 F1500
G1 X21.657 Y43.499 Z0 F1500
G1 X21.401 Y44.648 Z0 F1500
G1 X21.112 Y45.788 Z0 F1500
; --- FIX Y Backlash ---
G0 X21.112 Y44.888 F1500
G1 X21.065 Y44.666 Z0 F1500
G1 Y44.577 Z0 F1500
G1 X21.077 Y44.406 Z0 F1500
G1 X21.103 Y44.164 Z0 F1500
G1 X21.141 Y43.864 Z0 F1500
; --- FIX X Backlash ---
G0 X22.041 Y43.864 F1500
G1 X22.143 Y43.132 Z0 F1500
G1 X22.268 Y42.302 Z0 F1500
G1 X22.401 Y41.468 Z0 F1500
G1 X22.53 Y40.722 Z0 F1500
G1 X22.587 Y40.41 Z0 F1500
G1 X22.638 Y40.155 Z0 F1500
G1 X22.68 Y39.968 Z0 F1500
G1 X22.712 Y39.861 Z0 F1500
G1 X22.761 Y39.68 Z0 F1500
G1 Y39.526 Z0 F1500
G1 X22.774 Y39.498 Z0 F1500
G0 Z4.8 F1500
; --- FIX X Backlash ---
G0 X21.874 Y39.498 F1500
; --- FIX Y Backlash ---
G0 X21.874 Y40.398 F1500
G0 X21.306 Y47.569 Z4.8 F1500
G1 Z0 F1500
; --- FIX X Backlash ---
G0 X22.206 Y47.569 F1500
G1 X22.444 Y47.659 Z0 F1500
G1 X22.585 Y47.703 Z0 F1500
G1 X22.793 Y47.759 Z0 F1500
G1 X23.04 Y47.818 Z0 F1500
G1 X23.297 Y47.874 Z0 F1500
G1 X23.444 Y47.902 Z0 F1500
G1 X23.627 Y47.933 Z0 F1500
G1 X23.839 Y47.965 Z0 F1500
G1 X24.072 Y47.997 Z0 F1500
G1 X24.573 Y48.061 Z0 F1500
G1 X25.071 Y48.116 Z0 F1500
G1 X26.231 Y48.232 Z0 F1500
; --- FIX X Backlash ---
G0 X25.331 Y48.232 F1500
G1 X24.349 Y48.25 Z0 F1500
G1 X23.749 Y48.244 Z0 F1500
G1 X23.165 Y48.197 Z0 F1500
G1 X22.845 Y48.153 Z0 F1500
; --- FIX Y Backlash ---
G0 X22.845 Y47.253 F1500
G1 X22.489 Y47.194 Z0 F1500
G1 X22.082 Y47.118 Z0 F1500
G1 X21.613 Y47.024 Z0 F1500
G1 X21.494 Y46.988 Z0 F1500
G1 X21.396 Y46.936 Z0 F1500
G1 X21.33 Y46.876 Z0 F1500
G1 X21.306 Y46.814 Z0 F1500
G1 Y46.669 Z0 F1500
G0 Z4.8 F1500

; Color picking sequence
G1 Z10 F1000;         ; Raise brush
G0 X86 Y5 F1200;    ; Rapid move to color 1
G1 Z10 F1000;         ; Raise brush
G0 X86 Y5 F1200;    ; Rapid move to color 1
G1 Z0 F1000;         ; Lower into color
G1 X85.102 Y7.295 Z0 S800 F1200
G1 X85.026 Y7.642 Z0 F1200
G1 X85 Y8 Z0 F1200
G1 X85.026 Y8.358 Z0 F1200
G1 X85.102 Y8.705 Z0 F1200
G1 X85.225 Y9.041 Z0 F1200
G1 X85.393 Y9.362 Z0 F1200
G1 X85.603 Y9.668 Z0 F1200
G1 X85.854 Y9.957 Z0 F1200
G1 X86.142 Y10.226 Z0 F1200
G1 X86.464 Y10.475 Z0 F1200
G1 X86.82 Y10.701 Z0 F1200
G1 X87.204 Y10.902 Z0 F1200
G1 X87.617 Y11.078 Z0 F1200
G1 X88.054 Y11.225 Z0 F1200
G1 X88.513 Y11.343 Z0 F1200
G1 X88.992 Y11.429 Z0 F1200
G1 X89.489 Y11.482 Z0 F1200
G1 X90 Y11.5 Z0 F1200
G1 X90.511 Y11.482 Z0 F1200
G1 X91.008 Y11.429 Z0 F1200
G1 X91.487 Y11.343 Z0 F1200
G1 X91.946 Y11.225 Z0 F1200
G1 X92.383 Y11.078 Z0 F1200
G1 X92.796 Y10.902 Z0 F1200
G1 X93.18 Y10.701 Z0 F1200
G1 X93.536 Y10.475 Z0 F1200
G1 X93.858 Y10.226 Z0 F1200
G1 X94.146 Y9.957 Z0 F1200
G1 X94.397 Y9.668 Z0 F1200
G1 X94.607 Y9.362 Z0 F1200
G1 X94.775 Y9.041 Z0 F1200
G1 X94.898 Y8.705 Z0 F1200
G1 X94.974 Y8.358 Z0 F1200
G1 X95 Y8 Z0 F1200
G1 X94.974 Y7.642 Z0 F1200
G1 X94.898 Y7.295 Z0 F1200
G1 X94.775 Y6.959 Z0 F1200
G1 X94.607 Y6.638 Z0 F1200
G1 X94.397 Y6.332 Z0 F1200
G1 X94.146 Y6.043 Z0 F1200
G1 X93.858 Y5.774 Z0 F1200
G1 X93.536 Y5.525 Z0 F1200
G1 X93.18 Y5.299 Z0 F1200
G1 X92.796 Y5.098 Z0 F1200
G1 X92.383 Y4.922 Z0 F1200
G1 X91.946 Y4.775 Z0 F1200
G1 X91.487 Y4.657 Z0 F1200
G1 X91.008 Y4.571 Z0 F1200
G1 X90.511 Y4.518 Z0 F1200
G1 X90 Y4.5 Z0 F1200
G1 X89.489 Y4.518 Z0 F1200
G1 X88.992 Y4.571 Z0 F1200
G1 X88.513 Y4.657 Z0 F1200
G1 X88.054 Y4.775 Z0 F1200
G1 X87.617 Y4.922 Z0 F1200
G1 X87.204 Y5.098 Z0 F1200
G1 X86.82 Y5.299 Z0 F1200
G1 X86.464 Y5.525 Z0 F1200
G1 X86.142 Y5.774 Z0 F1200
G1 X85.854 Y6.043 Z0 F1200
G1 X85.603 Y6.332 Z0 F1200
G1 X85.393 Y6.638 Z0 F1200
G1 X85.225 Y6.959 Z0 F1200
G1 Z7 F800;         ; Raise from color
G1 X79 Y8 Z1 F1200;     ; Movement in paint
G1 X69 Y18 Z8 F500;     ; Move in paint
G1 F1200;           ; Set feed rate
G0 Z2.5 F1000 ; Safety Lift
G0 X21.306 Y46.669 F1200 ; Return to pos
; --- FIX X Backlash ---
G0 X22.206 Y46.669 F1500
G0 X38.002 Y46.23 Z4.8 F1500
G1 Z0 F1500
G1 X38.037 Y45.22 Z0 F1500
G1 X38.062 Y44.154 Z0 F1500
G1 X38.07 Y43.641 Z0 F1500
G1 X38.075 Y43.161 Z0 F1500
G1 Y42.731 Z0 F1500
G1 Y42.366 Z0 F1500
G1 X38.054 Y40.783 Z0 F1500
; --- FIX X Backlash ---
G0 X37.154 Y40.783 F1500
G1 X36.993 Y40.592 Z0 F1500
G1 X36.92 Y40.523 Z0 F1500
G1 X36.843 Y40.478 Z0 F1500
G1 X36.77 Y40.461 Z0 F1500
G1 X36.71 Y40.474 Z0 F1500
; --- FIX Y Backlash ---
G0 X36.71 Y41.374 F1500
G1 X36.589 Y41.447 Z0 F1500
; --- FIX Y Backlash ---
G0 X36.589 Y40.547 F1500
G1 Y40.13 Z0 F1500
; --- FIX X Backlash ---
G0 X37.489 Y40.13 F1500
G1 X37.687 Z0 F1500
G1 X37.93 Y40.176 Z0 F1500
; --- FIX Y Backlash ---
G0 X37.93 Y41.076 F1500
G1 X38.236 Y41.186 Z0 F1500
G1 X38.586 Y41.343 Z0 F1500
G1 X39.002 Y42.748 Z0 F1500
G1 X39.381 Y42.891 Z0 F1500
; --- FIX X Backlash ---
G0 X38.481 Y42.891 F1500
G1 X38.356 Y43.267 Z0 F1500
G1 X38.307 Y43.432 Z0 F1500
G1 X38.251 Y43.647 Z0 F1500
G1 X38.191 Y43.907 Z0 F1500
G1 X38.126 Y44.204 Z0 F1500
G1 X37.992 Y44.876 Z0 F1500
G1 X37.859 Y45.604 Z0 F1500
G1 X37.737 Y46.33 Z0 F1500
G1 X37.637 Y46.992 Z0 F1500
G1 X37.598 Y47.28 Z0 F1500
G1 X37.569 Y47.531 Z0 F1500
G1 X37.551 Y47.736 Z0 F1500
G1 X37.544 Y47.888 Z0 F1500
G1 X37.498 Y48.534 Z0 F1500
G1 X37.389 Y49.158 Z0 F1500
G1 X37.233 Y49.764 Z0 F1500
; --- FIX Y Backlash ---
G0 X37.233 Y48.864 F1500
G1 X37.01 Y48.51 Z0 F1500
; --- FIX X Backlash ---
G0 X37.91 Y48.51 F1500
G1 X38.002 Y46.23 Z0 F1500
G0 Z4.8 F1500
; --- FIX Y Backlash ---
G0 X38.002 Y47.13 F1500
G0 X39.399 Y47.364 Z4.8 F1500
G1 Z0 F1500
; --- FIX Y Backlash ---
G0 X39.399 Y46.464 F1500
G1 X39.735 Y44.567 Z0 F1500
G1 X39.828 Y44.059 Z0 F1500
G1 X39.868 Y43.856 Z0 F1500
G1 X39.905 Y43.685 Z0 F1500
G1 X39.938 Y43.543 Z0 F1500
G1 X39.969 Y43.43 Z0 F1500
G1 X39.999 Y43.344 Z0 F1500
G1 X40.056 Y43.245 Z0 F1500
G1 X40.113 Y43.232 Z0 F1500
; --- FIX Y Backlash ---
G0 X40.113 Y44.132 F1500
G1 X40.177 Y44.192 Z0 F1500
G1 X40.253 Y44.313 Z0 F1500
G1 X40.357 Y44.464 Z0 F1500
G1 X40.528 Y44.678 Z0 F1500
G1 X40.743 Y44.927 Z0 F1500
G1 X41.114 Y45.33 Z0 F1500
G1 X41.281 Y45.516 Z0 F1500
G1 X41.474 Y45.734 Z0 F1500
G1 X41.684 Y45.976 Z0 F1500
G1 X42.134 Y46.502 Z0 F1500
G1 X42.578 Y47.033 Z0 F1500
G1 X42.935 Y47.464 Z0 F1500
G1 X43.256 Y47.847 Z0 F1500
G1 X43.544 Y48.184 Z0 F1500
G1 X43.8 Y48.477 Z0 F1500
G1 X44.027 Y48.727 Z0 F1500
G1 X44.228 Y48.937 Z0 F1500
G1 X44.404 Y49.108 Z0 F1500
G1 X44.558 Y49.243 Z0 F1500
G1 X44.692 Y49.342 Z0 F1500
G1 X44.808 Y49.409 Z0 F1500
G1 X44.909 Y49.444 Z0 F1500
G1 X44.997 Y49.45 Z0 F1500
; --- FIX Y Backlash ---
G0 X44.997 Y48.55 F1500
G1 X45.142 Y48.48 Z0 F1500
G1 X45.262 Y48.315 Z0 F1500
G1 X45.332 Y48.176 Z0 F1500
G1 X45.373 Y48.058 Z0 F1500
G1 X45.384 Y47.951 Z0 F1500
G1 X45.359 Y47.846 Z0 F1500
; --- FIX X Backlash ---
G0 X44.459 Y47.846 F1500
G1 X44.396 Y47.735 Z0 F1500
G1 X44.29 Y47.608 Z0 F1500
G1 X44.138 Y47.457 Z0 F1500
G1 X43.357 Y46.736 Z0 F1500
G1 X42.831 Y46.19 Z0 F1500
G1 X42.685 Y46.027 Z0 F1500
G1 X42.528 Y45.847 Z0 F1500
G1 X42.355 Y45.646 Z0 F1500
G1 X41.955 Y45.169 Z0 F1500
G1 X40.53 Y43.447 Z0 F1500
G1 X39.933 Y42.737 Z0 F1500
G1 X39.67 Y42.429 Z0 F1500
G1 X39.444 Y42.166 Z0 F1500
G1 X39.261 Y41.957 Z0 F1500
G1 X39.13 Y41.812 Z0 F1500
G1 X38.636 Y41.283 Z0 F1500
G1 Y40.769 Z0 F1500
; --- FIX X Backlash ---
G0 X39.536 Y40.769 F1500
; --- FIX Y Backlash ---
G0 X39.536 Y41.669 F1500
G1 X39.911 Y41.912 Z0 F1500
G1 X40.325 Y42.156 Z0 F1500
G1 X40.784 Y42.391 Z0 F1500
G1 X40.998 Y42.49 Z0 F1500
G1 X41.184 Y42.568 Z0 F1500
G1 X41.331 Y42.619 Z0 F1500
G1 X41.425 Y42.638 Z0 F1500
G1 X41.482 Y42.667 Z0 F1500
G1 X41.543 Y42.746 Z0 F1500
G1 X41.6 Y42.863 Z0 F1500
G1 X41.677 Y43.096 Z0 F1500
G1 X41.726 Y43.211 Z0 F1500
G1 X41.791 Y43.346 Z0 F1500
G1 X41.87 Y43.497 Z0 F1500
G1 X42.061 Y43.826 Z0 F1500
G1 X42.276 Y44.16 Z0 F1500
G1 X42.484 Y44.475 Z0 F1500
G1 X42.654 Y44.751 Z0 F1500
G1 X42.719 Y44.865 Z0 F1500
G1 X42.768 Y44.958 Z0 F1500
G1 X42.8 Y45.026 Z0 F1500
G1 X42.811 Y45.066 Z0 F1500
G1 X42.827 Y45.112 Z0 F1500
G1 X42.871 Y45.15 Z0 F1500
G1 X42.936 Y45.175 Z0 F1500
G1 X43.015 Y45.185 Z0 F1500
G1 X43.22 Z0 F1500
; --- FIX Y Backlash ---
G0 X43.22 Y44.285 F1500
G1 Y43.943 Z0 F1500
G1 X43.205 Y43.768 Z0 F1500
G1 X43.162 Y43.582 Z0 F1500
; --- FIX X Backlash ---
G0 X42.262 Y43.582 F1500
G1 X42.189 Y43.386 Z0 F1500
G1 X42.089 Y43.179 Z0 F1500
G1 X41.96 Y42.964 Z0 F1500
G1 X41.804 Y42.739 Z0 F1500
G1 X41.621 Y42.507 Z0 F1500
G1 X41.411 Y42.268 Z0 F1500
G1 X40.926 Y41.741 Z0 F1500
; --- FIX X Backlash ---
G0 X41.826 Y41.741 F1500
; --- FIX Y Backlash ---
G0 X41.826 Y42.641 F1500
G1 X42.421 Y42.96 Z0 F1500
G1 X42.991 Y43.231 Z0 F1500
G1 X43.527 Y43.438 Z0 F1500
G1 X44.039 Y43.597 Z0 F1500
; --- FIX X Backlash ---
G0 X43.139 Y43.597 F1500
G1 X43.036 Y43.955 Z0 F1500
G1 X42.988 Y44.186 Z0 F1500
G1 X42.958 Y44.466 Z0 F1500
G1 X42.945 Y44.781 Z0 F1500
G1 X42.948 Y45.116 Z0 F1500
G1 X42.968 Y45.458 Z0 F1500
G1 X43.004 Y45.79 Z0 F1500
; --- FIX X Backlash ---
G0 X43.904 Y45.79 F1500
G1 X43.955 Y46.1 Z0 F1500
G1 X44.021 Y46.371 Z0 F1500
G1 X44.193 Y46.955 Z0 F1500
G1 X45.81 Y48.454 Z0 F1500
G1 X45.98 Y49.34 Z0 F1500
G1 X46.353 Z0 F1500
; --- FIX Y Backlash ---
G0 X46.353 Y48.44 F1500
G1 X46.517 Y47.801 Z0 F1500
; --- FIX X Backlash ---
G0 X45.617 Y47.801 F1500
G1 X45.459 Y47.283 Z0 F1500
G1 X45.424 Y47.155 Z0 F1500
G1 X45.387 Y46.991 Z0 F1500
G1 X45.348 Y46.798 Z0 F1500
G1 X45.308 Y46.582 Z0 F1500
G1 X45.233 Y46.108 Z0 F1500
G1 X45.169 Y45.625 Z0 F1500
G1 X45.114 Y45.162 Z0 F1500
G1 X45.04 Y44.563 Z0 F1500
G1 X45.004 Y44.295 Z0 F1500
G1 X44.956 Y43.983 Z0 F1500
G1 X44.93 Y43.795 Z0 F1500
G1 X44.913 Y43.64 Z0 F1500
; --- FIX Y Backlash ---
G0 X44.913 Y44.54 F1500
G1 X44.367 Y44.68 Z0 F1500
G1 Y45.301 Z0 F1500
; --- FIX X Backlash ---
G0 X45.267 Y45.301 F1500
G1 X45.328 Y45.954 Z0 F1500
G1 X45.468 Y46.653 Z0 F1500
G1 X45.514 Y46.839 Z0 F1500
G1 X45.544 Y46.993 Z0 F1500
G1 X45.558 Y47.117 Z0 F1500
G1 Y47.21 Z0 F1500
G1 X45.545 Y47.273 Z0 F1500
G1 X45.519 Y47.308 Z0 F1500
G1 X45.481 Y47.314 Z0 F1500
G1 X45.433 Y47.293 Z0 F1500
; --- FIX X Backlash ---
G0 X44.533 Y47.293 F1500
G1 X44.475 Y47.244 Z0 F1500
; --- FIX Y Backlash ---
G0 X44.475 Y46.344 F1500
G1 X44.409 Y46.269 Z0 F1500
G1 X44.335 Y46.169 Z0 F1500
G1 X44.254 Y46.043 Z0 F1500
G1 X44.077 Y45.719 Z0 F1500
G1 X43.886 Y45.302 Z0 F1500
G1 X43.685 Y44.829 Z0 F1500
G1 Y42.94 Z0 F1500
; --- FIX X Backlash ---
G0 X44.585 Y42.94 F1500
; --- FIX Y Backlash ---
G0 X44.585 Y43.84 F1500
G1 X45.985 Y44.537 Z0 F1500
; --- FIX Y Backlash ---
G0 X45.985 Y43.637 F1500
G1 X46.441 Y43.519 Z0 F1500
; --- FIX X Backlash ---
G0 X45.541 Y43.519 F1500
; --- FIX Y Backlash ---
G0 X45.541 Y44.419 F1500
G1 X45.423 Y46.023 Z0 F1500
; --- FIX X Backlash ---
G0 X46.323 Y46.023 F1500
; --- FIX Y Backlash ---
G0 X46.323 Y45.123 F1500
G1 X46.7 Y45.001 Z0 F1500
G1 X46.738 Y44.676 Z0 F1500
G1 X46.784 Y44.359 Z0 F1500
G1 X46.842 Y44.052 Z0 F1500
G1 X46.909 Y43.753 Z0 F1500
G1 X47.418 Y43.508 Z0 F1500
G1 X47.7 Y43.369 Z0 F1500
G1 X47.937 Y43.244 Z0 F1500
G1 X48.131 Y43.131 Z0 F1500
G1 X48.285 Y43.029 Z0 F1500
G1 X48.401 Y42.936 Z0 F1500
G1 X48.481 Y42.851 Z0 F1500
G1 X48.527 Y42.772 Z0 F1500
G1 X48.542 Y42.696 Z0 F1500
G1 Y42.513 Z0 F1500
; --- FIX Y Backlash ---
G0 X48.542 Y43.413 F1500
G1 X48.914 Y43.505 Z0 F1500
G1 X49.038 Y43.523 Z0 F1500
G1 X49.251 Y43.539 Z0 F1500
G1 X49.54 Y43.553 Z0 F1500
G1 X49.893 Y43.565 Z0 F1500
G1 X50.3 Y43.574 Z0 F1500
G1 X50.749 Y43.58 Z0 F1500
G1 X51.228 Y43.583 Z0 F1500
G1 X51.726 Z0 F1500
G1 X54.166 Y43.568 Z0 F1500
; --- FIX Y Backlash ---
G0 X54.166 Y42.668 F1500
G1 X54.527 Y42.486 Z0 F1500
G1 X54.729 Y42.403 Z0 F1500
G1 X55.014 Y42.311 Z0 F1500
G1 X55.343 Y42.221 Z0 F1500
G1 X56.615 Y41.931 Z0 F1500
G1 X57.464 Y41.691 Z0 F1500
G1 X57.852 Y41.562 Z0 F1500
G1 X58.216 Y41.427 Z0 F1500
G1 X58.553 Y41.288 Z0 F1500
G1 X58.862 Y41.145 Z0 F1500
G1 X59.143 Y40.998 Z0 F1500
G1 X59.395 Y40.848 Z0 F1500
G1 X59.615 Y40.696 Z0 F1500
G1 X59.804 Y40.541 Z0 F1500
G1 X59.959 Y40.386 Z0 F1500
G1 X60.081 Y40.229 Z0 F1500
G1 X60.167 Y40.072 Z0 F1500
G1 X60.217 Y39.916 Z0 F1500
G1 X60.294 Y39.526 Z0 F1500
; --- FIX X Backlash ---
G0 X59.394 Y39.526 F1500
G1 X58.96 Y38.99 Z0 F1500
; --- FIX Y Backlash ---
G0 X58.96 Y39.89 F1500
G1 X58.657 Y40.286 Z0 F1500
G1 X58.302 Y40.712 Z0 F1500
G1 X57.876 Y41.179 Z0 F1500
G1 X57.399 Y41.675 Z0 F1500
G1 X55.962 Y42.081 Z0 F1500
G1 X54.551 Y42.449 Z0 F1500
G1 X53.174 Y42.764 Z0 F1500
G1 X51.821 Y43.041 Z0 F1500
; --- FIX Y Backlash ---
G0 X51.821 Y42.141 F1500
G1 X47.871 Y42.009 Z0 F1500
G1 X47.654 Y41.824 Z0 F1500
G1 X47.381 Y41.666 Z0 F1500
G1 X47.03 Y41.544 Z0 F1500
G1 X46.91 Y41.505 Z0 F1500
G1 X46.725 Y41.429 Z0 F1500
G1 X46.483 Y41.321 Z0 F1500
G1 X46.194 Y41.185 Z0 F1500
G1 X45.513 Y40.848 Z0 F1500
G1 X44.757 Y40.454 Z0 F1500
G1 X44.378 Y40.254 Z0 F1500
G1 X44.018 Y40.068 Z0 F1500
G1 X43.684 Y39.899 Z0 F1500
G1 X43.384 Y39.751 Z0 F1500
G1 X43.129 Y39.63 Z0 F1500
G1 X42.925 Y39.538 Z0 F1500
G1 X42.781 Y39.479 Z0 F1500
G1 X42.705 Y39.459 Z0 F1500
G1 X42.596 Y39.434 Z0 F1500
G1 X42.435 Y39.367 Z0 F1500
G1 X42.244 Y39.268 Z0 F1500
G1 X41.925 Y39.072 Z0 F1500
G1 X41.767 Y38.979 Z0 F1500
G1 X41.577 Y38.872 Z0 F1500
G1 X41.361 Y38.753 Z0 F1500
G1 X40.883 Y38.5 Z0 F1500
G1 X40.385 Y38.248 Z0 F1500
G1 X39.884 Y37.985 Z0 F1500
G1 X39.396 Y37.703 Z0 F1500
G1 X39.174 Y37.565 Z0 F1500
G1 X38.976 Y37.436 Z0 F1500
G1 X38.809 Y37.318 Z0 F1500
G1 X38.68 Y37.217 Z0 F1500
G1 X38.148 Y36.825 Z0 F1500
G1 X37.601 Y36.506 Z0 F1500
G1 X37.044 Y36.24 Z0 F1500
; --- FIX Y Backlash ---
G0 X37.044 Y37.14 F1500
G1 X36.639 Y37.339 Z0 F1500
G1 X36.36 Y37.499 Z0 F1500
G1 X36.111 Y37.69 Z0 F1500
G1 X35.892 Y37.909 Z0 F1500
G1 X35.708 Y38.151 Z0 F1500
G1 X35.56 Y38.412 Z0 F1500
G1 X35.451 Y38.689 Z0 F1500
G1 X35.384 Y38.978 Z0 F1500
G1 X35.361 Y39.275 Z0 F1500
G1 Y39.647 Z0 F1500
; --- FIX X Backlash ---
G0 X36.261 Y39.647 F1500
G1 X36.804 Y40.13 Z0 F1500
G1 X38.139 Y40.256 Z0 F1500
; --- FIX Y Backlash ---
G0 X38.139 Y39.356 F1500
G1 X39.084 Y39.05 Z0 F1500
G1 X39.448 Y38.381 Z0 F1500
; --- FIX X Backlash ---
G0 X38.548 Y38.381 F1500
G1 X38.25 Y38.089 Z0 F1500
; --- FIX Y Backlash ---
G0 X38.25 Y38.989 F1500
G1 X38.102 Y39.079 Z0 F1500
G1 X37.997 Y39.197 Z0 F1500
G1 X37.953 Y39.357 Z0 F1500
G1 Y39.545 Z0 F1500
G1 X36.825 Y39.843 Z0 F1500
; --- FIX Y Backlash ---
G0 X36.825 Y38.943 F1500
G1 X36.17 Y38.782 Z0 F1500
G1 X35.858 Y38.108 Z0 F1500
; --- FIX X Backlash ---
G0 X36.758 Y38.108 F1500
G1 X37.015 Y37.39 Z0 F1500
G1 X37.477 Y37.084 Z0 F1500
G1 X37.672 Y36.954 Z0 F1500
G1 X37.825 Y36.864 Z0 F1500
G1 X37.966 Y36.825 Z0 F1500
G1 X38.123 Y36.844 Z0 F1500
G1 X38.216 Y36.878 Z0 F1500
; --- FIX Y Backlash ---
G0 X38.216 Y37.778 F1500
G1 X38.324 Y37.829 Z0 F1500
G1 X38.45 Y37.899 Z0 F1500
G1 X38.597 Y37.988 Z0 F1500
G1 X38.77 Y38.099 Z0 F1500
G1 X39.474 Y38.564 Z0 F1500
G1 X39.781 Y38.76 Z0 F1500
G1 X40.14 Y38.979 Z0 F1500
G1 X40.538 Y39.212 Z0 F1500
G1 X40.963 Y39.453 Z0 F1500
G1 X41.84 Y39.929 Z0 F1500
G1 X42.665 Y40.348 Z0 F1500
G1 X43.464 Y40.747 Z0 F1500
G1 X44.273 Y41.169 Z0 F1500
G1 X44.651 Y41.373 Z0 F1500
G1 X44.996 Y41.564 Z0 F1500
G1 X45.296 Y41.736 Z0 F1500
G1 X45.988 Y42.151 Z0 F1500
G1 X46.453 Y42.417 Z0 F1500
G1 X46.674 Y42.538 Z0 F1500
G1 X46.879 Y42.647 Z0 F1500
G1 X47.06 Y42.739 Z0 F1500
G1 X47.211 Y42.812 Z0 F1500
G1 X47.859 Y43.107 Z0 F1500
; --- FIX X Backlash ---
G0 X46.959 Y43.107 F1500
G1 X46.891 Y43.488 Z0 F1500
G1 X45.663 Y44.131 Z0 F1500
; --- FIX Y Backlash ---
G0 X45.663 Y43.231 F1500
G1 X45.254 Y43.029 Z0 F1500
G1 X45.117 Y42.964 Z0 F1500
G1 X44.936 Y42.884 Z0 F1500
G1 X44.715 Y42.788 Z0 F1500
G1 X44.458 Y42.68 Z0 F1500
G1 X43.852 Y42.431 Z0 F1500
G1 X43.15 Y42.149 Z0 F1500
G1 X41.58 Y41.535 Z0 F1500
G1 X40 Y40.94 Z0 F1500
G1 X39.037 Y40.552 Z0 F1500
G1 X37.776 Y39.973 Z0 F1500
G1 X37.339 Y39.798 Z0 F1500
G1 X36.903 Y39.645 Z0 F1500
G1 X36.521 Y39.533 Z0 F1500
G1 X35.702 Y39.329 Z0 F1500
G1 X34.883 Y38.405 Z0 F1500
G1 X34.126 Y38.08 Z0 F1500
G1 X33.789 Y37.94 Z0 F1500
G1 X33.433 Y37.801 Z0 F1500
G1 X33.099 Y37.677 Z0 F1500
G1 X32.674 Y37.534 Z0 F1500
G1 X32.131 Y37.345 Z0 F1500
G1 X30.913 Y36.912 Z0 F1500
G1 X29.969 Y36.57 Z0 F1500
G1 X27.647 Y35.725 Z0 F1500
G1 X26.557 Y35.523 Z0 F1500
G1 X26.113 Y35.436 Z0 F1500
G1 X25.708 Y35.346 Z0 F1500
G1 X25.348 Y35.256 Z0 F1500
G1 X25.04 Y35.167 Z0 F1500
G1 X24.789 Y35.082 Z0 F1500
G1 X24.601 Y35.002 Z0 F1500
G1 X24.485 Y34.93 Z0 F1500
G1 X24.444 Y34.867 Z0 F1500
G1 Y34.763 Z0 F1500
; --- FIX Y Backlash ---
G0 X24.444 Y35.663 F1500
G1 X23.721 Y35.841 Z0 F1500
; --- FIX X Backlash ---
G0 X24.621 Y35.841 F1500
; --- FIX Y Backlash ---
G0 X24.621 Y34.941 F1500
G1 X25.297 Y33.716 Z0 F1500
G1 X25.63 Y33.104 Z0 F1500
G1 X26.231 Y31.991 Z0 F1500
G1 X26.95 Y30.652 Z0 F1500
G1 X27.083 Y30.411 Z0 F1500
G1 X27.199 Y30.206 Z0 F1500
G1 X27.303 Y30.035 Z0 F1500
G1 X27.395 Y29.895 Z0 F1500
G1 X27.48 Y29.784 Z0 F1500
G1 X27.558 Y29.701 Z0 F1500
G1 X27.706 Y29.604 Z0 F1500
G1 X27.859 Y29.588 Z0 F1500
G1 X28.037 Y29.634 Z0 F1500
; --- FIX Y Backlash ---
G0 X28.037 Y30.534 F1500
G1 X28.257 Y30.624 Z0 F1500
G1 X28.969 Y30.93 Z0 F1500
G1 X29.649 Y31.23 Z0 F1500
G1 X30.298 Y31.524 Z0 F1500
G1 X30.918 Y31.811 Z0 F1500
G1 X31.509 Y32.094 Z0 F1500
G1 X32.073 Y32.372 Z0 F1500
G1 X32.61 Y32.645 Z0 F1500
G1 X33.702 Y33.222 Z0 F1500
G1 X34.23 Y33.495 Z0 F1500
G1 X34.709 Y33.735 Z0 F1500
G1 X35.14 Y33.943 Z0 F1500
G1 X35.524 Y34.118 Z0 F1500
G1 X35.862 Y34.262 Z0 F1500
G1 X36.157 Y34.376 Z0 F1500
G1 X36.409 Y34.459 Z0 F1500
G1 X36.761 Y34.564 Z0 F1500
; --- FIX Y Backlash ---
G0 X36.761 Y33.664 F1500
G1 X37.222 Y33.411 Z0 F1500
; --- FIX X Backlash ---
G0 X36.322 Y33.411 F1500
G1 X36.246 Y33.291 Z0 F1500
G1 X36.23 Y33.223 Z0 F1500
G1 X36.242 Y33.128 Z0 F1500
G1 X36.279 Y33.018 Z0 F1500
; --- FIX X Backlash ---
G0 X37.179 Y33.018 F1500
G1 X37.239 Y32.905 Z0 F1500
G1 X37.408 Y32.64 Z0 F1500
; --- FIX X Backlash ---
G0 X36.508 Y32.64 F1500
G1 X36.131 Y31.948 Z0 F1500
; --- FIX X Backlash ---
G0 X37.031 Y31.948 F1500
G1 X37.934 Y31.033 Z0 F1500
; --- FIX X Backlash ---
G0 X37.034 Y31.033 F1500
G1 X36.956 Y30.831 Z0 F1500
G1 X36.9 Y30.757 Z0 F1500
G1 X36.771 Y30.625 Z0 F1500
G1 X36.577 Y30.441 Z0 F1500
G1 X36.327 Y30.212 Z0 F1500
G1 X36.028 Y29.947 Z0 F1500
G1 X35.689 Y29.653 Z0 F1500
G1 X35.319 Y29.338 Z0 F1500
G1 X34.925 Y29.008 Z0 F1500
G1 X33 Y27.406 Z0 F1500
G1 X32.024 Y26.589 Z0 F1500
G1 X31.267 Y25.95 Z0 F1500
G1 X30.705 Y25.469 Z0 F1500
G1 X30.489 Y25.28 Z0 F1500
G1 X30.314 Y25.124 Z0 F1500
G1 X30.175 Y24.997 Z0 F1500
G1 X30.07 Y24.896 Z0 F1500
G1 X29.997 Y24.82 Z0 F1500
G1 X29.951 Y24.765 Z0 F1500
G1 X29.93 Y24.729 Z0 F1500
G1 X29.893 Y24.65 Z0 F1500
G1 X29.845 Y24.605 Z0 F1500
G1 X29.781 Y24.599 Z0 F1500
G1 X29.697 Y24.632 Z0 F1500
; --- FIX Y Backlash ---
G0 X29.697 Y25.532 F1500
G1 X29.588 Y25.608 Z0 F1500
G1 X29.45 Y25.729 Z0 F1500
G1 X29.278 Y25.898 Z0 F1500
G1 X29.067 Y26.118 Z0 F1500
G1 X28.815 Y26.395 Z0 F1500
G1 X28.551 Y26.704 Z0 F1500
G1 X28.277 Y27.042 Z0 F1500
G1 X27.993 Y27.407 Z0 F1500
G1 X27.408 Y28.204 Z0 F1500
G1 X26.81 Y29.074 Z0 F1500
G1 X26.215 Y29.993 Z0 F1500
G1 X25.637 Y30.94 Z0 F1500
G1 X25.092 Y31.893 Z0 F1500
G1 X24.594 Y32.828 Z0 F1500
G1 X23.904 Y34.179 Z0 F1500
G1 X23.094 Y36.498 Z0 F1500
G1 X22.758 Y37.452 Z0 F1500
G1 X22.442 Y38.335 Z0 F1500
G1 X22.303 Y38.718 Z0 F1500
G1 X22.084 Y39.31 Z0 F1500
G1 X22.013 Y39.492 Z0 F1500
G1 X21.926 Y39.746 Z0 F1500
G1 X21.828 Y40.097 Z0 F1500
G1 X21.722 Y40.53 Z0 F1500
G1 X21.609 Y41.031 Z0 F1500
G1 X21.493 Y41.587 Z0 F1500
G1 X21.376 Y42.184 Z0 F1500
G1 X21.259 Y42.807 Z0 F1500
G1 X21.146 Y43.443 Z0 F1500
G1 X21.039 Y44.078 Z0 F1500
G1 X20.941 Y44.697 Z0 F1500
G1 X20.853 Y45.287 Z0 F1500
G1 X20.778 Y45.834 Z0 F1500
G1 X20.72 Y46.323 Z0 F1500
G1 X20.679 Y46.742 Z0 F1500
G1 X20.666 Y46.92 Z0 F1500
G1 X20.658 Y47.075 Z0 F1500
G1 Y47.205 Z0 F1500
G1 X20.661 Y47.309 Z0 F1500
G1 X20.698 Y47.757 Z0 F1500
; --- FIX X Backlash ---
G0 X21.598 Y47.757 F1500
G1 X22.1 Y48.118 Z0 F1500
G1 X22.058 Y52.792 Z0 F1500
G1 X22.033 Y54.957 Z0 F1500
G1 X22.024 Y55.505 Z0 F1500
G1 X22.034 Y56.094 Z0 F1500
G1 X22.082 Y56.706 Z0 F1500
G1 X22.117 Y56.993 Z0 F1500
G1 X22.158 Y57.254 Z0 F1500
G1 X22.204 Y57.476 Z0 F1500
G1 X22.254 Y57.65 Z0 F1500
G1 X22.287 Y57.781 Z0 F1500
G1 X22.326 Y57.989 Z0 F1500
G1 X22.364 Y58.245 Z0 F1500
G1 X22.399 Y58.521 Z0 F1500
G1 X22.507 Y59.318 Z0 F1500
G1 X22.643 Y60.07 Z0 F1500
G1 X22.714 Y60.395 Z0 F1500
G1 X22.784 Y60.667 Z0 F1500
G1 X22.849 Y60.874 Z0 F1500
G1 X22.907 Y61.001 Z0 F1500
G1 X23.037 Y61.202 Z0 F1500
; --- FIX X Backlash ---
G0 X22.137 Y61.202 F1500
; --- FIX Y Backlash ---
G0 X22.137 Y60.302 F1500
G1 X22.061 Y59.766 Z0 F1500
G1 X22.043 Y59.617 Z0 F1500
G1 X22.021 Y59.399 Z0 F1500
G1 X21.968 Y58.797 Z0 F1500
G1 X21.91 Y58.042 Z0 F1500
G1 X21.853 Y57.219 Z0 F1500
G1 X21.792 Y56.392 Z0 F1500
G1 X21.724 Y55.628 Z0 F1500
G1 X21.689 Y55.296 Z0 F1500
G1 X21.656 Y55.011 Z0 F1500
G1 X21.625 Y54.784 Z0 F1500
G1 X21.598 Y54.626 Z0 F1500
G1 X21.474 Y54.043 Z0 F1500
; --- FIX X Backlash ---
G0 X22.374 Y54.043 F1500
G1 X22.841 Y53.851 Z0 F1500
G1 X22.972 Y53.803 Z0 F1500
G1 X23.165 Y53.739 Z0 F1500
G1 X23.411 Y53.664 Z0 F1500
G1 X23.701 Y53.578 Z0 F1500
G1 X24.374 Y53.388 Z0 F1500
G1 X25.111 Y53.191 Z0 F1500
G1 X25.723 Y53.029 Z0 F1500
G1 X26.371 Y52.853 Z0 F1500
G1 X27.048 Y52.665 Z0 F1500
G1 X27.748 Y52.465 Z0 F1500
G1 X29.192 Y52.043 Z0 F1500
G1 X30.654 Y51.602 Z0 F1500
G1 X32.084 Y51.156 Z0 F1500
G1 X33.433 Y50.721 Z0 F1500
G1 X34.061 Y50.512 Z0 F1500
G1 X34.651 Y50.312 Z0 F1500
G1 X35.195 Y50.123 Z0 F1500
G1 X35.867 Y49.88 Z0 F1500
; --- FIX X Backlash ---
G0 X34.967 Y49.88 F1500
; --- FIX Y Backlash ---
G0 X34.967 Y50.78 F1500
G1 X34.912 Y52.892 Z0 F1500
G1 X34.72 Y53.428 Z0 F1500
G1 X34.683 Y53.554 Z0 F1500
G1 X34.652 Y53.708 Z0 F1500
G1 X34.626 Y53.888 Z0 F1500
G1 X34.606 Y54.093 Z0 F1500
G1 X34.582 Y54.569 Z0 F1500
G1 X34.578 Y55.12 Z0 F1500
G1 X34.592 Y55.732 Z0 F1500
G1 X34.623 Y56.39 Z0 F1500
G1 X34.669 Y57.078 Z0 F1500
; --- FIX X Backlash ---
G0 X35.569 Y57.078 F1500
G1 X35.63 Y57.782 Z0 F1500
G1 X35.703 Y58.486 Z0 F1500
G1 X35.788 Y59.177 Z0 F1500
G1 X35.882 Y59.838 Z0 F1500
G1 X35.985 Y60.455 Z0 F1500
G1 X36.095 Y61.013 Z0 F1500
G1 X36.211 Y61.497 Z0 F1500
G1 X36.27 Y61.707 Z0 F1500
G1 X36.331 Y61.893 Z0 F1500
G1 X36.392 Y62.052 Z0 F1500
G1 X36.453 Y62.184 Z0 F1500
G1 X36.614 Y62.451 Z0 F1500
G1 X36.816 Y62.725 Z0 F1500
G1 X37.055 Y63.003 Z0 F1500
G1 X37.325 Y63.281 Z0 F1500
G1 X37.94 Y63.825 Z0 F1500
G1 X38.623 Y64.329 Z0 F1500
G1 X39.334 Y64.768 Z0 F1500
G1 X40.033 Y65.115 Z0 F1500
G1 X40.365 Y65.245 Z0 F1500
G1 X40.681 Y65.342 Z0 F1500
G1 X40.973 Y65.403 Z0 F1500
G1 X41.238 Y65.424 Z0 F1500
G1 X41.709 Z0 F1500
; --- FIX Y Backlash ---
G0 X41.709 Y64.524 F1500
G1 X41.856 Y64.256 Z0 F1500
G1 X41.909 Y64.151 Z0 F1500
G1 X41.947 Y64.063 Z0 F1500
G1 X41.966 Y64.002 Z0 F1500
G1 X41.963 Y63.977 Z0 F1500
; --- FIX X Backlash ---
G0 X41.063 Y63.977 F1500
G1 X40.915 Y63.951 Z0 F1500
G1 X40.614 Y63.903 Z0 F1500
G1 X40.156 Y63.818 Z0 F1500
G1 X39.728 Y63.704 Z0 F1500
G1 X39.321 Y63.555 Z0 F1500
G1 X38.922 Y63.364 Z0 F1500
G1 X38.521 Y63.127 Z0 F1500
G1 X38.105 Y62.836 Z0 F1500
G1 X37.663 Y62.486 Z0 F1500
G1 X37.183 Y62.07 Z0 F1500
G1 X36.435 Y61.399 Z0 F1500
G1 X36.096 Y60.742 Z0 F1500
G1 X35.944 Y60.406 Z0 F1500
G1 X35.779 Y59.976 Z0 F1500
G1 X35.623 Y59.507 Z0 F1500
G1 X35.493 Y59.054 Z0 F1500
G1 X35.229 Y58.023 Z0 F1500
G1 X35.226 Y57.271 Z0 F1500
G1 X35.265 Y56.531 Z0 F1500
; --- FIX X Backlash ---
G0 X36.165 Y56.531 F1500
G1 X36.262 Y55.808 Z0 F1500
G1 X36.399 Y55.097 Z0 F1500
; --- FIX X Backlash ---
G0 X35.499 Y55.097 F1500
G1 X35.054 Y53.541 Z0 F1500
; --- FIX X Backlash ---
G0 X35.954 Y53.541 F1500
G1 X36.03 Y53.302 Z0 F1500
G1 X36.076 Y53.165 Z0 F1500
G1 X36.23 Y52.736 Z0 F1500
G1 X36.531 Y51.93 Z0 F1500
G1 X36.772 Y48.286 Z0 F1500
G1 X37.037 Y48.026 Z0 F1500
; --- FIX Y Backlash ---
G0 X37.037 Y48.926 F1500
G1 X37.061 Y49.702 Z0 F1500
G1 X37.094 Y50.324 Z0 F1500
G1 X37.166 Y50.898 Z0 F1500
G1 X37.222 Y51.208 Z0 F1500
G1 X37.296 Y51.552 Z0 F1500
G1 X37.39 Y51.948 Z0 F1500
G1 X37.507 Y52.411 Z0 F1500
G1 X37.606 Y52.829 Z0 F1500
G1 X37.687 Y53.234 Z0 F1500
G1 X37.718 Y53.417 Z0 F1500
G1 X37.742 Y53.579 Z0 F1500
G1 X37.757 Y53.714 Z0 F1500
G1 X37.762 Y53.818 Z0 F1500
G1 Y54.232 Z0 F1500
; --- FIX Y Backlash ---
G0 X37.762 Y53.332 F1500
G1 X38.308 Y52.454 Z0 F1500
G1 X38.318 Y51.553 Z0 F1500
G1 X38.328 Y51.217 Z0 F1500
G1 X38.347 Y50.968 Z0 F1500
G1 X38.359 Y50.884 Z0 F1500
G1 X38.372 Y50.83 Z0 F1500
G1 X38.386 Y50.81 Z0 F1500
G1 X38.401 Y50.827 Z0 F1500
; --- FIX Y Backlash ---
G0 X38.401 Y51.727 F1500
G1 X38.472 Y51.903 Z0 F1500
; --- FIX Y Backlash ---
G0 X38.472 Y51.003 F1500
G1 X38.969 Y50.561 Z0 F1500
; --- FIX X Backlash ---
G0 X38.069 Y50.561 F1500
G1 X37.993 Y50.104 Z0 F1500

; Color picking sequence
G1 Z10 F1000;         ; Raise brush
G0 X86 Y5 F1200;    ; Rapid move to color 1
G1 Z10 F1000;         ; Raise brush
G0 X86 Y5 F1200;    ; Rapid move to color 1
G1 Z0 F1000;         ; Lower into color
G1 X85.102 Y7.295 Z0 S800 F1200
G1 X85.026 Y7.642 Z0 F1200
G1 X85 Y8 Z0 F1200
G1 X85.026 Y8.358 Z0 F1200
G1 X85.102 Y8.705 Z0 F1200
G1 X85.225 Y9.041 Z0 F1200
G1 X85.393 Y9.362 Z0 F1200
G1 X85.603 Y9.668 Z0 F1200
G1 X85.854 Y9.957 Z0 F1200
G1 X86.142 Y10.226 Z0 F1200
G1 X86.464 Y10.475 Z0 F1200
G1 X86.82 Y10.701 Z0 F1200
G1 X87.204 Y10.902 Z0 F1200
G1 X87.617 Y11.078 Z0 F1200
G1 X88.054 Y11.225 Z0 F1200
G1 X88.513 Y11.343 Z0 F1200
G1 X88.992 Y11.429 Z0 F1200
G1 X89.489 Y11.482 Z0 F1200
G1 X90 Y11.5 Z0 F1200
G1 X90.511 Y11.482 Z0 F1200
G1 X91.008 Y11.429 Z0 F1200
G1 X91.487 Y11.343 Z0 F1200
G1 X91.946 Y11.225 Z0 F1200
G1 X92.383 Y11.078 Z0 F1200
G1 X92.796 Y10.902 Z0 F1200
G1 X93.18 Y10.701 Z0 F1200
G1 X93.536 Y10.475 Z0 F1200
G1 X93.858 Y10.226 Z0 F1200
G1 X94.146 Y9.957 Z0 F1200
G1 X94.397 Y9.668 Z0 F1200
G1 X94.607 Y9.362 Z0 F1200
G1 X94.775 Y9.041 Z0 F1200
G1 X94.898 Y8.705 Z0 F1200
G1 X94.974 Y8.358 Z0 F1200
G1 X95 Y8 Z0 F1200
G1 X94.974 Y7.642 Z0 F1200
G1 X94.898 Y7.295 Z0 F1200
G1 X94.775 Y6.959 Z0 F1200
G1 X94.607 Y6.638 Z0 F1200
G1 X94.397 Y6.332 Z0 F1200
G1 X94.146 Y6.043 Z0 F1200
G1 X93.858 Y5.774 Z0 F1200
G1 X93.536 Y5.525 Z0 F1200
G1 X93.18 Y5.299 Z0 F1200
G1 X92.796 Y5.098 Z0 F1200
G1 X92.383 Y4.922 Z0 F1200
G1 X91.946 Y4.775 Z0 F1200
G1 X91.487 Y4.657 Z0 F1200
G1 X91.008 Y4.571 Z0 F1200
G1 X90.511 Y4.518 Z0 F1200
G1 X90 Y4.5 Z0 F1200
G1 X89.489 Y4.518 Z0 F1200
G1 X88.992 Y4.571 Z0 F1200
G1 X88.513 Y4.657 Z0 F1200
G1 X88.054 Y4.775 Z0 F1200
G1 X87.617 Y4.922 Z0 F1200
G1 X87.204 Y5.098 Z0 F1200
G1 X86.82 Y5.299 Z0 F1200
G1 X86.464 Y5.525 Z0 F1200
G1 X86.142 Y5.774 Z0 F1200
G1 X85.854 Y6.043 Z0 F1200
G1 X85.603 Y6.332 Z0 F1200
G1 X85.393 Y6.638 Z0 F1200
G1 X85.225 Y6.959 Z0 F1200
G1 Z7 F800;         ; Raise from color
G1 X79 Y8 Z1 F1200;     ; Movement in paint
G1 X69 Y18 Z8 F500;     ; Move in paint
G1 F1200;           ; Set feed rate
G0 Z2.5 F1000 ; Safety Lift
G0 X37.993 Y50.104 F1200 ; Return
G1 Z0 F1000 ; Restore Z
G1 X37.969 Y49.921 Z0 F1500
G1 X37.962 Y49.786 Z0 F1500
G1 X37.974 Y49.701 Z0 F1500
G1 X38.002 Y49.665 Z0 F1500
G1 X38.048 Y49.678 Z0 F1500
; --- FIX X Backlash ---
G0 X38.948 Y49.678 F1500
; --- FIX Y Backlash ---
G0 X38.948 Y50.578 F1500
G1 X39.009 Y50.64 Z0 F1500
G1 X39.086 Y50.753 Z0 F1500
G1 X39.177 Y50.915 Z0 F1500
G1 X39.208 Y50.963 Z0 F1500
G1 X39.258 Y51.031 Z0 F1500
G1 X39.328 Y51.117 Z0 F1500
G1 X39.416 Y51.221 Z0 F1500
G1 X39.639 Y51.475 Z0 F1500
G1 X39.921 Y51.782 Z0 F1500
G1 X40.25 Y52.134 Z0 F1500
G1 X40.619 Y52.519 Z0 F1500
G1 X41.017 Y52.928 Z0 F1500
G1 X41.436 Y53.351 Z0 F1500
G1 X43.5 Y55.418 Z0 F1500
; --- FIX Y Backlash ---
G0 X43.5 Y54.518 F1500
G1 X43.793 Y54.23 Z0 F1500
; --- FIX X Backlash ---
G0 X42.893 Y54.23 F1500
G1 X42.805 Y53.958 Z0 F1500
G1 X42.758 Y53.858 Z0 F1500
G1 X42.672 Y53.724 Z0 F1500
G1 X42.552 Y53.561 Z0 F1500
G1 X42.401 Y53.373 Z0 F1500
G1 X42.027 Y52.94 Z0 F1500
G1 X41.583 Y52.461 Z0 F1500
G1 X41.103 Y51.972 Z0 F1500
G1 X40.621 Y51.508 Z0 F1500
G1 X40.39 Y51.296 Z0 F1500
G1 X40.171 Y51.104 Z0 F1500
G1 X39.969 Y50.936 Z0 F1500
G1 X39.788 Y50.797 Z0 F1500
G1 X38.961 Y50.194 Z0 F1500
G1 X38.496 Y48.239 Z0 F1500
G1 X38.499 Y46.464 Z0 F1500
G0 Z4.8 F1500
; --- FIX X Backlash ---
G0 X39.399 Y46.464 F1500
; --- FIX Y Backlash ---
G0 X39.399 Y47.364 F1500
G0 X44.893 Y50.665 Z4.8 F1500
G1 Z0 F1500
G1 X45.093 Y50.74 Z0 F1500
G1 X45.33 Y50.817 Z0 F1500
G1 X45.621 Y50.896 Z0 F1500
G1 X45.761 Y50.938 Z0 F1500
G1 X45.86 Y50.985 Z0 F1500
G1 X45.918 Y51.034 Z0 F1500
G1 X45.935 Y51.084 Z0 F1500
G1 X45.911 Y51.135 Z0 F1500
; --- FIX X Backlash ---
G0 X45.011 Y51.135 F1500
G1 X44.947 Y51.184 Z0 F1500
G1 X44.842 Y51.231 Z0 F1500
G1 X44.696 Y51.274 Z0 F1500
G1 X44.534 Y51.333 Z0 F1500
G1 X44.353 Y51.428 Z0 F1500
G1 X44.175 Y51.547 Z0 F1500
G1 X44.023 Y51.676 Z0 F1500
G1 X43.702 Y51.991 Z0 F1500
; --- FIX Y Backlash ---
G0 X43.702 Y51.091 F1500
G1 X43.625 Y50.894 Z0 F1500
G1 X43.558 Y50.636 Z0 F1500
G1 X43.561 Y50.391 Z0 F1500
; --- FIX X Backlash ---
G0 X44.461 Y50.391 F1500
G1 X44.532 Y50.171 Z0 F1500
G1 X44.67 Y49.983 Z0 F1500
G1 X44.893 Y49.765 Z0 F1500
G0 Z4.8 F1500
; --- FIX X Backlash ---
G0 X43.993 Y49.765 F1500
G0 X43.348 Y49.32 Z4.8 F1500
G1 Z0 F1500
; --- FIX Y Backlash ---
G0 X43.348 Y50.22 F1500
G1 X42.769 Y51.065 Z0 F1500
; --- FIX X Backlash ---
G0 X43.669 Y51.065 F1500
G1 X43.858 Y51.978 Z0 F1500
G1 X43.937 Y52.373 Z0 F1500
G1 X44.015 Y52.771 Z0 F1500
G1 X44.082 Y53.127 Z0 F1500
G1 X44.129 Y53.394 Z0 F1500
G1 X44.174 Y53.62 Z0 F1500
G1 X44.222 Y53.774 Z0 F1500
G1 X44.272 Y53.857 Z0 F1500
G1 X44.323 Y53.871 Z0 F1500
; --- FIX Y Backlash ---
G0 X44.323 Y52.971 F1500
G1 X44.375 Y52.915 Z0 F1500
G1 X44.424 Y52.789 Z0 F1500
G1 X44.472 Y52.596 Z0 F1500
G1 X44.515 Y52.334 Z0 F1500
G1 X44.608 Y51.67 Z0 F1500
G1 X44.767 Y51.545 Z0 F1500
G1 X44.866 Y51.488 Z0 F1500
G1 X45.019 Y51.427 Z0 F1500
G1 X45.205 Y51.369 Z0 F1500
G1 X45.403 Y51.321 Z0 F1500
G1 X45.951 Y51.162 Z0 F1500
G1 X46.461 Y50.915 Z0 F1500
G1 X46.707 Y50.756 Z0 F1500
G1 X46.948 Y50.573 Z0 F1500
G1 X47.186 Y50.364 Z0 F1500
G1 X47.424 Y50.129 Z0 F1500
G1 X48.011 Y49.512 Z0 F1500
G1 X48.951 Z0 F1500
G1 Y49.395 Z0 F1500
G1 X48.92 Y49.339 Z0 F1500
; --- FIX X Backlash ---
G0 X48.02 Y49.339 F1500
G1 X47.936 Y49.287 Z0 F1500
G1 X47.811 Y49.241 Z0 F1500
G1 X47.657 Y49.204 Z0 F1500
G1 X47.315 Y49.166 Z0 F1500
G1 X47.01 Y49.192 Z0 F1500
; --- FIX Y Backlash ---
G0 X47.01 Y50.092 F1500
G1 X46.747 Y50.16 Z0 F1500
; --- FIX Y Backlash ---
G0 X46.747 Y49.26 F1500
G1 X46.342 Y49.096 Z0 F1500
G1 X45.956 Y48.977 Z0 F1500
G1 X45.544 Y48.922 Z0 F1500
G1 X45.115 Y48.931 Z0 F1500
; --- FIX Y Backlash ---
G0 X45.115 Y49.831 F1500
G1 X44.674 Y49.904 Z0 F1500
G1 X43.348 Y50.22 Z0 F1500
G0 Z4.8 F1500
; --- FIX X Backlash ---
G0 X44.248 Y50.22 F1500
; --- FIX Y Backlash ---
G0 X44.248 Y49.32 F1500
G0 X48.522 Y48.019 Z4.8 F1500
G1 Z0 F1500
G1 X48.552 Y48.038 Z0 F1500
G1 X48.663 Y47.984 Z0 F1500
G1 X48.8 Y47.854 Z0 F1500
G1 X48.956 Y47.67 Z0 F1500
; --- FIX X Backlash ---
G0 X48.056 Y47.67 F1500
G1 X47.649 Y44.821 Z0 F1500
; --- FIX X Backlash ---
G0 X48.549 Y44.821 F1500
G1 X48.622 Y44.385 Z0 F1500
G1 X48.693 Y43.989 Z0 F1500
G1 X48.758 Y43.648 Z0 F1500
G1 X48.82 Y43.346 Z0 F1500
; --- FIX X Backlash ---
G0 X47.92 Y43.346 F1500
G1 X47.805 Z0 F1500
G1 X47.735 Y43.372 Z0 F1500
; --- FIX Y Backlash ---
G0 X47.735 Y44.272 F1500
G1 X47.631 Y44.343 Z0 F1500
G1 X47.507 Y44.447 Z0 F1500
G1 X47.376 Y44.574 Z0 F1500
G1 X47.063 Y44.902 Z0 F1500
; --- FIX X Backlash ---
G0 X47.963 Y44.902 F1500
G1 X48.03 Y46.082 Z0 F1500
G1 X48.12 Y47.053 Z0 F1500
G1 X48.26 Y47.977 Z0 F1500
G1 X48.337 Y48.362 Z0 F1500
G1 X48.415 Y48.666 Z0 F1500
G1 X48.452 Y48.781 Z0 F1500
G1 X48.488 Y48.866 Z0 F1500
G1 X48.522 Y48.919 Z0 F1500
G0 Z4.8 F1500
; --- FIX Y Backlash ---
G0 X48.522 Y48.019 F1500
G0 X49.999 Y47.656 Z4.8 F1500
G1 Z0 F1500
; --- FIX Y Backlash ---
G0 X49.999 Y48.556 F1500
G1 X50.071 Y48.721 Z0 F1500
G1 X50.212 Y48.981 Z0 F1500
; --- FIX Y Backlash ---
G0 X50.212 Y48.081 F1500
G1 X50.477 Y47.616 Z0 F1500
; --- FIX X Backlash ---
G0 X49.577 Y47.616 F1500
G1 X49.104 Y44.973 Z0 F1500
; --- FIX X Backlash ---
G0 X50.004 Y44.973 F1500
G1 X50.209 Y44.394 Z0 F1500
G1 X50.296 Y44.151 Z0 F1500
G1 X50.383 Y43.917 Z0 F1500
G1 X50.46 Y43.718 Z0 F1500
G1 X50.516 Y43.581 Z0 F1500
G1 X50.618 Y43.346 Z0 F1500
; --- FIX X Backlash ---
G0 X49.718 Y43.346 F1500
G1 X49.511 Z0 F1500
G1 X49.402 Y43.379 Z0 F1500
; --- FIX Y Backlash ---
G0 X49.402 Y44.279 F1500
G1 X49.261 Y44.368 Z0 F1500
G1 X49.104 Y44.499 Z0 F1500
G1 X48.95 Y44.659 Z0 F1500
G1 X48.597 Y45.071 Z0 F1500
G1 Y46.821 Z0 F1500
; --- FIX X Backlash ---
G0 X49.497 Y46.821 F1500
G1 X49.714 Y47.642 Z0 F1500
G1 X49.809 Y47.981 Z0 F1500
G1 X49.908 Y48.297 Z0 F1500
G1 X49.999 Y48.556 Z0 F1500
G0 Z4.8 F1500
; --- FIX Y Backlash ---
G0 X49.999 Y47.656 F1500
G0 X52.431 Y47.279 Z4.8 F1500
G1 Z0 F1500
G1 X52.567 Y47.321 Z0 F1500
G1 X52.715 Z0 F1500
G1 X52.878 Y47.255 Z0 F1500
G1 X53.053 Y47.146 Z0 F1500
; --- FIX X Backlash ---
G0 X52.153 Y47.146 F1500
G1 X51.874 Y44.723 Z0 F1500
; --- FIX X Backlash ---
G0 X52.774 Y44.723 F1500
G1 X53.073 Y43.879 Z0 F1500
; --- FIX X Backlash ---
G0 X52.173 Y43.879 F1500
G1 X52.095 Y43.68 Z0 F1500
G1 X52.048 Y43.582 Z0 F1500
G1 X51.998 Y43.521 Z0 F1500
G1 X51.94 Y43.497 Z0 F1500
G1 X51.874 Y43.512 Z0 F1500
; --- FIX Y Backlash ---
G0 X51.874 Y44.412 F1500
G1 X51.797 Y44.467 Z0 F1500
G1 X51.706 Y44.562 Z0 F1500
G1 X51.601 Y44.699 Z0 F1500
G1 X51.477 Y44.879 Z0 F1500
G1 X51.15 Y45.374 Z0 F1500
; --- FIX X Backlash ---
G0 X52.05 Y45.374 F1500
G1 X52.431 Y48.179 Z0 F1500
G0 Z4.8 F1500
; --- FIX Y Backlash ---
G0 X52.431 Y47.279 F1500
G0 X54.664 Y45.227 Z4.8 F1500
G1 Z0 F1500
G1 X54.758 Y45.077 Z0 F1500
G1 X54.779 Y45.029 Z0 F1500
G1 X54.8 Y44.951 Z0 F1500
G1 X54.823 Y44.846 Z0 F1500
G1 X54.845 Y44.719 Z0 F1500
G1 X54.888 Y44.414 Z0 F1500
G1 X54.923 Y44.07 Z0 F1500
G1 X54.993 Y43.212 Z0 F1500
; --- FIX X Backlash ---
G0 X54.093 Y43.212 F1500
G1 X53.892 Z0 F1500
G1 X53.724 Y43.239 Z0 F1500
; --- FIX Y Backlash ---
G0 X53.724 Y44.139 F1500
G1 X53.601 Y44.202 Z0 F1500
G1 X53.582 Y44.237 Z0 F1500
G1 X53.565 Y44.303 Z0 F1500
G1 X53.55 Y44.396 Z0 F1500
G1 X53.536 Y44.512 Z0 F1500
G1 X53.517 Y44.798 Z0 F1500
G1 X53.51 Y45.132 Z0 F1500
G1 Y45.973 Z0 F1500
; --- FIX X Backlash ---
G0 X54.41 Y45.973 F1500
G1 X54.664 Y46.127 Z0 F1500
G0 Z4.8 F1500
G0 X56.074 Y46.25 Z4.8 F1500
G1 Z0 F1500
G1 X56.047 Y46.386 Z0 F1500
G1 X56.058 Y46.471 Z0 F1500
G1 X56.091 Y46.512 Z0 F1500
G1 X56.148 Y46.509 Z0 F1500
G1 X56.232 Y46.46 Z0 F1500
; --- FIX Y Backlash ---
G0 X56.232 Y45.56 F1500
G1 X56.344 Y45.462 Z0 F1500
G1 X56.485 Y45.316 Z0 F1500
G1 X56.659 Y45.12 Z0 F1500
G1 X56.866 Y44.871 Z0 F1500
G1 X57.135 Y44.544 Z0 F1500
G1 X57.667 Y43.903 Z0 F1500
G1 X57.866 Y43.67 Z0 F1500
G1 X58.251 Y43.22 Z0 F1500
; --- FIX X Backlash ---
G0 X57.351 Y43.22 F1500
G1 X57.265 Y43.082 Z0 F1500
G1 X57.196 Y43.001 Z0 F1500
G1 X57.115 Y42.958 Z0 F1500
G1 X57.021 Z0 F1500
G1 X56.911 Y42.995 Z0 F1500
; --- FIX Y Backlash ---
G0 X56.911 Y43.895 F1500
G1 X56.784 Y43.976 Z0 F1500
G1 X56.638 Y44.101 Z0 F1500
G1 X56.47 Y44.269 Z0 F1500
G1 X56.279 Y44.482 Z0 F1500
G1 X55.876 Y45.004 Z0 F1500
G1 X55.512 Y45.565 Z0 F1500
G1 X55.364 Y45.827 Z0 F1500
G1 X55.249 Y46.059 Z0 F1500
G1 X55.174 Y46.25 Z0 F1500
G0 Z4.8 F1500
; --- FIX X Backlash ---
G0 X56.074 Y46.25 F1500
G0 X57.81 Y46.693 Z4.8 F1500
G1 Z0 F1500
; --- FIX X Backlash ---
G0 X56.91 Y46.693 F1500
G1 X56.798 Y46.93 Z0 F1500
G1 X56.703 Y47.141 Z0 F1500
G1 X56.628 Y47.322 Z0 F1500
G1 X56.576 Y47.468 Z0 F1500
G1 X56.549 Y47.576 Z0 F1500
G1 Y47.641 Z0 F1500
; --- FIX X Backlash ---
G0 X57.449 Y47.641 F1500
G1 X57.501 Y47.795 Z0 F1500
; --- FIX Y Backlash ---
G0 X57.501 Y46.895 F1500
G1 X57.865 Y46.509 Z0 F1500
G1 X57.94 Y46.42 Z0 F1500
G1 X58.045 Y46.281 Z0 F1500
G1 X58.174 Y46.099 Z0 F1500
G1 X58.326 Y45.88 Z0 F1500
G1 X58.678 Y45.355 Z0 F1500
G1 X59.07 Y44.754 Z0 F1500
G1 X59.47 Y44.125 Z0 F1500
G1 X59.847 Y43.518 Z0 F1500
G1 X60.017 Y43.237 Z0 F1500
G1 X60.17 Y42.98 Z0 F1500
G1 X60.301 Y42.752 Z0 F1500
G1 X60.407 Y42.56 Z0 F1500
G1 X60.577 Y42.243 Z0 F1500
; --- FIX X Backlash ---
G0 X59.677 Y42.243 F1500
G1 X59.274 Y41.848 Z0 F1500
; --- FIX Y Backlash ---
G0 X59.274 Y42.748 F1500
G1 X58.525 Y43.866 Z0 F1500
G1 X57.836 Y44.975 Z0 F1500
G1 X57.181 Y46.16 Z0 F1500
G1 X57.039 Y46.435 Z0 F1500
G1 X56.91 Y46.693 Z0 F1500
G0 Z4.8 F1500
; --- FIX X Backlash ---
G0 X57.81 Y46.693 F1500
G0 X59.267 Y47.47 Z4.8 F1500
G1 Z0 F1500
; --- FIX X Backlash ---
G0 X58.367 Y47.47 F1500
G1 X57.803 Y48.132 Z0 F1500
G1 X56.479 Y49.656 Z0 F1500
G1 X54.059 Y53.314 Z0 F1500
G1 X53.385 Y53.742 Z0 F1500
G1 X53.044 Y53.945 Z0 F1500
G1 X52.611 Y54.179 Z0 F1500
G1 X52.144 Y54.415 Z0 F1500
G1 X51.697 Y54.625 Z0 F1500
G1 X50.683 Y55.079 Z0 F1500
G1 X50.592 Y55.312 Z0 F1500
G1 X50.561 Y55.413 Z0 F1500
G1 X50.551 Y55.499 Z0 F1500
G1 X50.559 Y55.568 Z0 F1500
G1 X50.582 Y55.615 Z0 F1500
G1 X50.617 Y55.638 Z0 F1500
G1 X50.662 Y55.632 Z0 F1500
; --- FIX X Backlash ---
G0 X51.562 Y55.632 F1500
G1 X51.613 Y55.595 Z0 F1500
; --- FIX Y Backlash ---
G0 X51.613 Y54.695 F1500
G1 X51.669 Y54.624 Z0 F1500
G1 X51.773 Y54.507 Z0 F1500
G1 X51.868 Y54.471 Z0 F1500
G1 X51.948 Z0 F1500
G1 X52.101 Y54.46 Z0 F1500
G1 X52.304 Y54.435 Z0 F1500
G1 X52.535 Y54.4 Z0 F1500
G1 X53.113 Y54.305 Z0 F1500
G1 X53.456 Y53.953 Z0 F1500
G1 X53.892 Y53.525 Z0 F1500
G1 X54.286 Y53.17 Z0 F1500
G1 X54.447 Y53.038 Z0 F1500
G1 X54.572 Y52.946 Z0 F1500
G1 X54.653 Y52.901 Z0 F1500
G1 X54.682 Y52.91 Z0 F1500
G1 X54.664 Y52.949 Z0 F1500
; --- FIX X Backlash ---
G0 X53.764 Y52.949 F1500
; --- FIX Y Backlash ---
G0 X53.764 Y53.849 F1500
G1 X53.712 Y53.921 Z0 F1500
G1 X53.63 Y54.024 Z0 F1500
G1 X53.522 Y54.152 Z0 F1500
G1 X53.24 Y54.467 Z0 F1500
G1 X52.658 Y55.087 Z0 F1500
G1 X52.456 Y55.31 Z0 F1500
G1 X52.288 Y55.504 Z0 F1500
G1 X52.155 Y55.668 Z0 F1500
G1 X52.057 Y55.802 Z0 F1500
G1 X51.993 Y55.906 Z0 F1500
G1 X51.964 Y55.981 Z0 F1500
G1 X51.968 Y56.025 Z0 F1500
G1 X52.007 Y56.038 Z0 F1500
; --- FIX X Backlash ---
G0 X52.907 Y56.038 F1500
G1 X52.98 Y56.021 Z0 F1500
G1 X53.086 Y55.973 Z0 F1500
; --- FIX Y Backlash ---
G0 X53.086 Y55.073 F1500
G1 X53.226 Y54.995 Z0 F1500
G1 X53.399 Y54.885 Z0 F1500
G1 X53.606 Y54.743 Z0 F1500
G1 X53.846 Y54.571 Z0 F1500
G1 X54.119 Y54.366 Z0 F1500
G1 X55.125 Y53.6 Z0 F1500
G1 X56.507 Y51.509 Z0 F1500
G1 X57.106 Y50.614 Z0 F1500
G1 X57.715 Y49.722 Z0 F1500
G1 X58.002 Y49.309 Z0 F1500
G1 X58.264 Y48.936 Z0 F1500
G1 X58.493 Y48.615 Z0 F1500
G1 X58.68 Y48.36 Z0 F1500
G1 X59.447 Y47.323 Z0 F1500
G1 X60.181 Y46.317 Z0 F1500
G1 X61.537 Y44.441 Z0 F1500
G1 X61.788 Y44.086 Z0 F1500
G1 X61.994 Y43.78 Z0 F1500
G1 X62.073 Y43.656 Z0 F1500
G1 X62.133 Y43.556 Z0 F1500
G1 X62.171 Y43.485 Z0 F1500
G1 X62.185 Y43.447 Z0 F1500
G1 X62.17 Y43.384 Z0 F1500
G1 X62.125 Y43.35 Z0 F1500
; --- FIX X Backlash ---
G0 X61.225 Y43.35 F1500
G1 X61.157 Y43.343 Z0 F1500
G1 X61.069 Y43.361 Z0 F1500
; --- FIX Y Backlash ---
G0 X61.069 Y44.261 F1500
G1 X60.863 Y44.365 Z0 F1500
G1 X60.653 Y44.548 Z0 F1500
G1 X60.585 Y44.627 Z0 F1500
G1 X60.498 Y44.734 Z0 F1500
G1 X60.393 Y44.867 Z0 F1500
G1 X60.276 Y45.019 Z0 F1500
G1 X60.019 Y45.363 Z0 F1500
G1 X59.754 Y45.728 Z0 F1500
G1 X59.601 Y45.936 Z0 F1500
G1 X59.407 Y46.19 Z0 F1500
G1 X59.178 Y46.48 Z0 F1500
G1 X58.923 Y46.797 Z0 F1500
G1 X58.367 Y47.47 Z0 F1500
G0 Z4.8 F1500
; --- FIX X Backlash ---
G0 X59.267 Y47.47 F1500
G0 X62.716 Y48.443 Z4.8 F1500
G1 Z0 F1500
; --- FIX X Backlash ---
G0 X61.816 Y48.443 F1500
G1 X61.676 Y48.645 Z0 F1500
G1 X61.59 Y48.799 Z0 F1500
G1 X61.56 Y48.901 Z0 F1500
G1 Y49.085 Z0 F1500
; --- FIX X Backlash ---
G0 X62.46 Y49.085 F1500
; --- FIX Y Backlash ---
G0 X62.46 Y48.185 F1500
G1 X63.04 Y47.779 Z0 F1500
G1 X63.512 Y47.438 Z0 F1500
G1 X63.903 Y47.115 Z0 F1500
G1 X64.101 Y46.932 Z0 F1500
G1 X64.318 Y46.718 Z0 F1500
G1 X64.569 Y46.46 Z0 F1500
G1 X64.865 Y46.149 Z0 F1500
G1 X65.564 Y45.409 Z0 F1500
G1 X65.775 Y44.679 Z0 F1500
G1 X65.982 Y43.832 Z0 F1500
G1 X66.148 Y42.909 Z0 F1500
G1 X66.208 Y42.469 Z0 F1500
G1 X66.248 Y42.071 Z0 F1500
G1 X66.266 Y41.735 Z0 F1500
G1 X66.259 Y41.48 Z0 F1500
G1 X66.213 Y41.021 Z0 F1500
; --- FIX X Backlash ---
G0 X65.313 Y41.021 F1500
G1 X65.142 Y40.966 Z0 F1500
G1 X65.022 Y40.951 Z0 F1500
G1 X64.972 Y40.991 Z0 F1500
; --- FIX Y Backlash ---
G0 X64.972 Y41.891 F1500
G1 X64.961 Y42.164 Z0 F1500
G1 X64.928 Y42.466 Z0 F1500
G1 X64.875 Y42.791 Z0 F1500
G1 X64.805 Y43.134 Z0 F1500
G1 X64.618 Y43.854 Z0 F1500
G1 X64.38 Y44.588 Z0 F1500
G1 X64.106 Y45.295 Z0 F1500
G1 X63.809 Y45.936 Z0 F1500
G1 X63.657 Y46.219 Z0 F1500
G1 X63.504 Y46.471 Z0 F1500
G1 X63.353 Y46.686 Z0 F1500
G1 X63.206 Y46.86 Z0 F1500
G1 X62.846 Y47.24 Z0 F1500
G1 X62.524 Y47.593 Z0 F1500
G1 X62.243 Y47.913 Z0 F1500
G1 X62.006 Y48.198 Z0 F1500
G1 X61.816 Y48.443 Z0 F1500
G0 Z4.8 F1500
; --- FIX X Backlash ---
G0 X62.716 Y48.443 F1500
G0 X64.795 Y49.024 Z4.8 F1500
G1 Z0 F1500
; --- FIX X Backlash ---
G0 X63.895 Y49.024 F1500
G1 X63.45 Y49.528 Z0 F1500
G1 X62.635 Y50.399 Z0 F1500
G1 X62.361 Y50.711 Z0 F1500
G1 X62.151 Y50.973 Z0 F1500
G1 X62.003 Y51.185 Z0 F1500
G1 X61.915 Y51.346 Z0 F1500
G1 X61.883 Y51.457 Z0 F1500
G1 X61.906 Y51.519 Z0 F1500
; --- FIX X Backlash ---
G0 X62.806 Y51.519 F1500
G1 X62.88 Y51.531 Z0 F1500
G1 X63.003 Y51.495 Z0 F1500
; --- FIX Y Backlash ---
G0 X63.003 Y50.595 F1500
G1 X63.173 Y50.51 Z0 F1500
G1 X63.386 Y50.376 Z0 F1500
G1 X63.642 Y50.195 Z0 F1500
G1 X63.936 Y49.966 Z0 F1500
G1 X64.266 Y49.689 Z0 F1500
G1 X64.63 Y49.366 Z0 F1500
G1 X65.025 Y48.995 Z0 F1500
G1 X66.02 Y48.039 Z0 F1500
G1 X66.763 Y46.453 Z0 F1500
G1 X66.911 Y46.132 Z0 F1500
G1 X67.009 Y45.907 Z0 F1500
G1 X67.061 Y45.76 Z0 F1500
G1 X67.072 Y45.676 Z0 F1500
G1 X67.046 Y45.636 Z0 F1500
; --- FIX X Backlash ---
G0 X66.146 Y45.636 F1500
G1 X66.089 Y45.625 Z0 F1500
G1 X65.809 Z0 F1500
; --- FIX Y Backlash ---
G0 X65.809 Y46.525 F1500
G1 X65.34 Y47.095 Z0 F1500
G1 X64.899 Y47.671 Z0 F1500
G1 X64.397 Y48.4 Z0 F1500
G1 X64.26 Y48.581 Z0 F1500
G1 X64.09 Y48.791 Z0 F1500
G1 X63.895 Y49.024 Z0 F1500
G0 Z4.8 F1500
; --- FIX X Backlash ---
G0 X64.795 Y49.024 F1500
G0 X66.787 Y50.044 Z4.8 F1500
G1 Z0 F1500
; --- FIX X Backlash ---
G0 X65.887 Y50.044 F1500
G1 X65.747 Y50.232 Z0 F1500
G1 X65.583 Y50.447 Z0 F1500
G1 X65.402 Y50.681 Z0 F1500
G1 X65.208 Y50.926 Z0 F1500
G1 X64.808 Y51.42 Z0 F1500
G1 X64.141 Y52.22 Z0 F1500
G1 X63.897 Y52.531 Z0 F1500
G1 X63.701 Y52.804 Z0 F1500
G1 X63.55 Y53.042 Z0 F1500
G1 X63.445 Y53.247 Z0 F1500
G1 X63.382 Y53.421 Z0 F1500
G1 X63.363 Y53.565 Z0 F1500
G1 X63.384 Y53.683 Z0 F1500
; --- FIX X Backlash ---
G0 X64.284 Y53.683 F1500
G1 X64.343 Y53.83 Z0 F1500
; --- FIX Y Backlash ---
G0 X64.343 Y52.93 F1500
G1 X66.759 Y50.51 Z0 F1500
G1 X67.461 Y49.138 Z0 F1500
G1 X67.602 Y48.851 Z0 F1500
G1 X67.697 Y48.639 Z0 F1500
G1 X67.749 Y48.49 Z0 F1500
G1 X67.762 Y48.393 Z0 F1500
G1 X67.737 Y48.337 Z0 F1500
; --- FIX X Backlash ---
G0 X66.837 Y48.337 F1500
G1 X66.779 Y48.312 Z0 F1500
G1 X66.69 Y48.306 Z0 F1500
G1 X66.497 Z0 F1500
; --- FIX Y Backlash ---
G0 X66.497 Y49.206 F1500
G1 X65.887 Y50.044 Z0 F1500
G0 Z4.8 F1500
; --- FIX X Backlash ---
G0 X66.787 Y50.044 F1500
G0 X68.947 Y50.67 Z4.8 F1500
G1 Z0 F1500
; --- FIX X Backlash ---
G0 X68.047 Y50.67 F1500
G1 X67.766 Y51.221 Z0 F1500
G1 X67.56 Y51.63 Z0 F1500
G1 X67.484 Y51.788 Z0 F1500
G1 X67.423 Y51.919 Z0 F1500
G1 X67.378 Y52.025 Z0 F1500
G1 X67.348 Y52.108 Z0 F1500
G1 X67.327 Y52.218 Z0 F1500
G1 X67.355 Y52.271 Z0 F1500
; --- FIX X Backlash ---
G0 X68.255 Y52.271 F1500
G1 X68.325 Y52.286 Z0 F1500
G1 X68.669 Y52.282 Z0 F1500
; --- FIX Y Backlash ---
G0 X68.669 Y51.382 F1500
G1 X69.099 Y50.748 Z0 F1500
G1 X69.623 Y49.929 Z0 F1500
G1 X70.07 Y49.122 Z0 F1500
G1 X70.465 Y48.277 Z0 F1500
G1 X70.835 Y47.343 Z0 F1500
G1 X71.312 Y46.045 Z0 F1500
; --- FIX X Backlash ---
G0 X70.412 Y46.045 F1500
G1 X70.051 Y45.751 Z0 F1500
; --- FIX Y Backlash ---
G0 X70.051 Y46.651 F1500
G1 X69.701 Y47.239 Z0 F1500
G1 X69.373 Y47.854 Z0 F1500
G1 X69.076 Y48.509 Z0 F1500
G1 X69.006 Y48.676 Z0 F1500
G1 X68.911 Y48.89 Z0 F1500
G1 X68.794 Y49.143 Z0 F1500
G1 X68.661 Y49.425 Z0 F1500
G1 X68.362 Y50.042 Z0 F1500
G1 X68.047 Y50.67 Z0 F1500
G0 Z4.8 F1500
; --- FIX X Backlash ---
G0 X68.947 Y50.67 F1500
G0 X70.15 Y51.387 Z4.8 F1500
G1 Z0 F1500
; --- FIX X Backlash ---
G0 X69.25 Y51.387 F1500
G1 X69.141 Y51.474 Z0 F1500
G1 X69.126 Y51.533 Z0 F1500
G1 X69.112 Y51.657 Z0 F1500
G1 X69.101 Y51.837 Z0 F1500
G1 X69.093 Y52.066 Z0 F1500
G1 X69.087 Y52.336 Z0 F1500
G1 X69.084 Y52.639 Z0 F1500
G1 Y52.969 Z0 F1500
G1 X69.087 Y53.317 Z0 F1500
G1 X69.111 Y55.036 Z0 F1500
G1 X68.52 Y57.352 Z0 F1500
G1 Y58.722 Z0 F1500
; --- FIX X Backlash ---
G0 X69.42 Y58.722 F1500
G1 X69.556 Z0 F1500
G1 X69.653 Y58.706 Z0 F1500
G1 X69.693 Y58.667 Z0 F1500
; --- FIX Y Backlash ---
G0 X69.693 Y57.767 F1500
G1 X69.698 Y57.691 Z0 F1500
G1 X69.713 Y57.581 Z0 F1500
G1 X69.737 Y57.441 Z0 F1500
G1 X69.769 Y57.277 Z0 F1500
G1 X69.852 Y56.888 Z0 F1500
G1 X69.955 Y56.446 Z0 F1500
G1 X70.07 Y55.985 Z0 F1500
G1 X70.189 Y55.536 Z0 F1500
G1 X70.304 Y55.132 Z0 F1500
G1 X70.407 Y54.807 Z0 F1500
G1 X70.73 Y53.868 Z0 F1500
G1 X70.806 Y51.937 Z0 F1500
; --- FIX X Backlash ---
G0 X69.906 Y51.937 F1500
G1 X69.592 Y50.45 Z0 F1500
G1 X69.405 Z0 F1500
G1 X69.25 Y50.487 Z0 F1500
G0 Z4.8 F1500
; --- FIX X Backlash ---
G0 X70.15 Y50.487 F1500
; --- FIX Y Backlash ---
G0 X70.15 Y51.387 F1500
G0 X71.017 Y51.447 Z4.8 F1500
G1 Z0 F1500
G1 X71.047 Y51.741 Z0 F1500
G1 X71.057 Y51.972 Z0 F1500
G1 Y52.423 Z0 F1500
G1 X71.181 Z0 F1500
G1 X71.246 Y52.374 Z0 F1500
; --- FIX Y Backlash ---
G0 X71.246 Y51.474 F1500
G1 X71.331 Y51.342 Z0 F1500
G1 X71.425 Y51.146 Z0 F1500
G1 X71.518 Y50.907 Z0 F1500
G1 X71.731 Y50.292 Z0 F1500
; --- FIX X Backlash ---
G0 X70.831 Y50.292 F1500
G1 X70.492 Y49.634 Z0 F1500
G1 X70.373 Y49.406 Z0 F1500
G1 X70.278 Y49.233 Z0 F1500
G1 X70.202 Y49.11 Z0 F1500
G1 X70.141 Y49.034 Z0 F1500
G1 X70.091 Y48.998 Z0 F1500
G1 X70.048 Z0 F1500
G1 X70.006 Y49.034 Z0 F1500
; --- FIX Y Backlash ---
G0 X70.006 Y49.934 F1500
G1 X69.961 Y49.996 Z0 F1500
G1 X69.943 Y50.098 Z0 F1500
G1 X69.948 Y50.287 Z0 F1500
G1 X69.975 Y50.536 Z0 F1500
; --- FIX X Backlash ---
G0 X70.875 Y50.536 F1500
G1 X70.974 Y51.127 Z0 F1500
G1 X71.017 Y51.447 Z0 F1500
G0 Z4.8 F1500

; Color picking sequence
G1 Z10 F1000;         ; Raise brush
G0 X86 Y5 F1200;    ; Rapid move to color 1
G1 Z10 F1000;         ; Raise brush
G0 X86 Y5 F1200;    ; Rapid move to color 1
G1 Z0 F1000;         ; Lower into color
G1 X85.102 Y7.295 Z0 S800 F1200
G1 X85.026 Y7.642 Z0 F1200
G1 X85 Y8 Z0 F1200
G1 X85.026 Y8.358 Z0 F1200
G1 X85.102 Y8.705 Z0 F1200
G1 X85.225 Y9.041 Z0 F1200
G1 X85.393 Y9.362 Z0 F1200
G1 X85.603 Y9.668 Z0 F1200
G1 X85.854 Y9.957 Z0 F1200
G1 X86.142 Y10.226 Z0 F1200
G1 X86.464 Y10.475 Z0 F1200
G1 X86.82 Y10.701 Z0 F1200
G1 X87.204 Y10.902 Z0 F1200
G1 X87.617 Y11.078 Z0 F1200
G1 X88.054 Y11.225 Z0 F1200
G1 X88.513 Y11.343 Z0 F1200
G1 X88.992 Y11.429 Z0 F1200
G1 X89.489 Y11.482 Z0 F1200
G1 X90 Y11.5 Z0 F1200
G1 X90.511 Y11.482 Z0 F1200
G1 X91.008 Y11.429 Z0 F1200
G1 X91.487 Y11.343 Z0 F1200
G1 X91.946 Y11.225 Z0 F1200
G1 X92.383 Y11.078 Z0 F1200
G1 X92.796 Y10.902 Z0 F1200
G1 X93.18 Y10.701 Z0 F1200
G1 X93.536 Y10.475 Z0 F1200
G1 X93.858 Y10.226 Z0 F1200
G1 X94.146 Y9.957 Z0 F1200
G1 X94.397 Y9.668 Z0 F1200
G1 X94.607 Y9.362 Z0 F1200
G1 X94.775 Y9.041 Z0 F1200
G1 X94.898 Y8.705 Z0 F1200
G1 X94.974 Y8.358 Z0 F1200
G1 X95 Y8 Z0 F1200
G1 X94.974 Y7.642 Z0 F1200
G1 X94.898 Y7.295 Z0 F1200
G1 X94.775 Y6.959 Z0 F1200
G1 X94.607 Y6.638 Z0 F1200
G1 X94.397 Y6.332 Z0 F1200
G1 X94.146 Y6.043 Z0 F1200
G1 X93.858 Y5.774 Z0 F1200
G1 X93.536 Y5.525 Z0 F1200
G1 X93.18 Y5.299 Z0 F1200
G1 X92.796 Y5.098 Z0 F1200
G1 X92.383 Y4.922 Z0 F1200
G1 X91.946 Y4.775 Z0 F1200
G1 X91.487 Y4.657 Z0 F1200
G1 X91.008 Y4.571 Z0 F1200
G1 X90.511 Y4.518 Z0 F1200
G1 X90 Y4.5 Z0 F1200
G1 X89.489 Y4.518 Z0 F1200
G1 X88.992 Y4.571 Z0 F1200
G1 X88.513 Y4.657 Z0 F1200
G1 X88.054 Y4.775 Z0 F1200
G1 X87.617 Y4.922 Z0 F1200
G1 X87.204 Y5.098 Z0 F1200
G1 X86.82 Y5.299 Z0 F1200
G1 X86.464 Y5.525 Z0 F1200
G1 X86.142 Y5.774 Z0 F1200
G1 X85.854 Y6.043 Z0 F1200
G1 X85.603 Y6.332 Z0 F1200
G1 X85.393 Y6.638 Z0 F1200
G1 X85.225 Y6.959 Z0 F1200
G1 Z7 F800;         ; Raise from color
G1 X79 Y8 Z1 F1200;     ; Movement in paint
G1 X69 Y18 Z8 F500;     ; Move in paint
G1 F1200;           ; Set feed rate
G0 Z2.5 F1000 ; Safety Lift
G0 X71.017 Y51.447 F1200 ; Return to pos
; --- FIX Y Backlash ---
G0 X71.017 Y50.547 F1500
G0 X73.497 Y50.45 Z4.8 F1500
G1 Z0 F1500
G1 X73.641 Z0 F1500
G1 X73.721 Y50.414 Z0 F1500
G1 X73.832 Y50.313 Z0 F1500
G1 X73.961 Y50.164 Z0 F1500
G1 X74.092 Y49.983 Z0 F1500
G1 X74.4 Y49.515 Z0 F1500
G1 X74.776 Y49.512 Z0 F1500
; --- FIX X Backlash ---
G0 X73.876 Y49.512 F1500
G1 X73.788 Y49.082 Z0 F1500
G1 X73.657 Y48.639 Z0 F1500
G1 X73.464 Y48.177 Z0 F1500
G1 X73.228 Y47.702 Z0 F1500
G1 X72.522 Y47.622 Z0 F1500
; --- FIX Y Backlash ---
G0 X72.522 Y48.522 F1500
G1 X72.357 Y48.717 Z0 F1500
G1 X72.192 Y48.913 Z0 F1500
; --- FIX X Backlash ---
G0 X73.092 Y48.913 F1500
G1 X73.375 Y50.003 Z0 F1500
G1 X73.479 Y50.437 Z0 F1500
G1 X73.552 Y50.811 Z0 F1500
G1 X73.574 Y50.964 Z0 F1500
G1 X73.587 Y51.086 Z0 F1500
G1 Y51.174 Z0 F1500
G1 X73.578 Y51.222 Z0 F1500
; --- FIX X Backlash ---
G0 X72.678 Y51.222 F1500
G1 X72.597 Y51.35 Z0 F1500
G0 Z4.8 F1500
; --- FIX Y Backlash ---
G0 X72.597 Y50.45 F1500
G0 X71.167 Y48.881 Z4.8 F1500
G1 Z0 F1500
G1 X71.2 Y48.862 Z0 F1500
G1 X71.228 Y48.817 Z0 F1500
G1 X71.251 Y48.747 Z0 F1500
G1 X71.267 Y48.651 Z0 F1500
G1 X71.277 Y48.528 Z0 F1500
G1 Y48.378 Z0 F1500
G1 X71.27 Y48.201 Z0 F1500
G1 X71.237 Y47.703 Z0 F1500
G1 X70.809 Y47.301 Z0 F1500
; --- FIX X Backlash ---
G0 X71.709 Y47.301 F1500
; --- FIX Y Backlash ---
G0 X71.709 Y48.201 F1500
G1 X71.773 Y48.907 Z0 F1500
G1 X71.819 Y49.255 Z0 F1500
G1 X71.884 Y49.518 Z0 F1500
G1 X71.958 Y49.693 Z0 F1500
G1 X72.032 Y49.776 Z0 F1500
G1 X72.067 Y49.781 Z0 F1500
G0 Z4.8 F1500
; --- FIX Y Backlash ---
G0 X72.067 Y48.881 F1500
G0 X76.512 Y48.452 Z4.8 F1500
G1 Z0 F1500
G1 X76.549 Y47.807 Z0 F1500
G1 X76.623 Y46.648 Z0 F1500
; --- FIX X Backlash ---
G0 X75.723 Y46.648 F1500
G1 X75.457 Y44.754 Z0 F1500
G1 X74.783 Y43.883 Z0 F1500
; --- FIX X Backlash ---
G0 X75.683 Y43.883 F1500
G1 X75.823 Z0 F1500
G1 X75.896 Y43.91 Z0 F1500
; --- FIX Y Backlash ---
G0 X75.896 Y44.81 F1500
G1 X75.991 Y44.885 Z0 F1500
G1 X76.095 Y44.996 Z0 F1500
G1 X76.196 Y45.132 Z0 F1500
G1 X76.345 Y45.309 Z0 F1500
G1 X76.576 Y45.535 Z0 F1500
G1 X76.86 Y45.779 Z0 F1500
G1 X77.164 Y46.014 Z0 F1500
G1 X77.898 Y46.547 Z0 F1500
; --- FIX Y Backlash ---
G0 X77.898 Y45.647 F1500
G1 X78.289 Y45.5 Z0 F1500
; --- FIX X Backlash ---
G0 X77.389 Y45.5 F1500
G1 X77.095 Y44.725 Z0 F1500
G1 X76.939 Y44.358 Z0 F1500
G1 X76.732 Y43.935 Z0 F1500
G1 X76.501 Y43.505 Z0 F1500
G1 X76.272 Y43.123 Z0 F1500
G1 X75.799 Y42.301 Z0 F1500
G1 X75.406 Y41.484 Z0 F1500
G1 X75.07 Y40.671 Z0 F1500
G1 Y40.233 Z0 F1500
G1 X75.088 Y40.004 Z0 F1500
G1 X75.132 Y39.707 Z0 F1500
; --- FIX X Backlash ---
G0 X76.032 Y39.707 F1500
G1 X76.096 Y39.378 Z0 F1500
G1 X76.174 Y39.057 Z0 F1500
G1 X76.233 Y38.831 Z0 F1500
G1 X76.28 Y38.63 Z0 F1500
G1 X76.315 Y38.454 Z0 F1500
G1 X76.339 Y38.304 Z0 F1500
G1 X76.351 Y38.18 Z0 F1500
G1 Y38.081 Z0 F1500
G1 X76.344 Y38.01 Z0 F1500
G1 X76.324 Y37.965 Z0 F1500
G1 X76.294 Y37.948 Z0 F1500
G1 X76.255 Y37.959 Z0 F1500
G1 X76.206 Y37.997 Z0 F1500
; --- FIX X Backlash ---
G0 X75.306 Y37.997 F1500
; --- FIX Y Backlash ---
G0 X75.306 Y38.897 F1500
G1 X75.247 Y38.964 Z0 F1500
G1 X75.18 Y39.059 Z0 F1500
G1 X75.104 Y39.184 Z0 F1500
G1 X75.02 Y39.338 Z0 F1500
G1 X74.927 Y39.522 Z0 F1500
G1 X74.618 Y40.158 Z0 F1500
G1 X74.627 Y41.767 Z0 F1500
; --- FIX X Backlash ---
G0 X75.527 Y41.767 F1500
G1 X75.966 Y42.711 Z0 F1500
G1 X76.076 Y42.94 Z0 F1500
G1 X76.079 Y42.984 Z0 F1500
G1 X76.04 Y43.015 Z0 F1500
; --- FIX X Backlash ---
G0 X75.14 Y43.015 F1500
G1 X75.068 Y43.032 Z0 F1500
G1 X74.972 Y43.035 Z0 F1500
G1 X74.748 Y43.003 Z0 F1500
; --- FIX Y Backlash ---
G0 X74.748 Y42.103 F1500
G1 X74.542 Y42.02 Z0 F1500
G1 X74.356 Y41.904 Z0 F1500
G1 X74.121 Y38.588 Z0 F1500
; --- FIX X Backlash ---
G0 X75.021 Y38.588 F1500
G1 X75.265 Y37.717 Z0 F1500
; --- FIX X Backlash ---
G0 X74.365 Y37.717 F1500
G1 X74.113 Z0 F1500
G1 X73.999 Y37.733 Z0 F1500
G1 X73.875 Y37.776 Z0 F1500
; --- FIX Y Backlash ---
G0 X73.875 Y38.676 F1500
G1 X73.755 Y38.741 Z0 F1500
G1 X73.655 Y38.82 Z0 F1500
G1 X73.448 Y39.022 Z0 F1500
G1 X73.338 Y39.657 Z0 F1500
G1 X73.316 Y39.812 Z0 F1500
G1 X73.296 Y40.007 Z0 F1500
G1 X73.278 Y40.236 Z0 F1500
G1 X73.262 Y40.49 Z0 F1500
G1 X73.241 Y41.042 Z0 F1500
G1 X73.236 Y41.6 Z0 F1500
G1 X73.244 Y42.908 Z0 F1500
; --- FIX X Backlash ---
G0 X74.144 Y42.908 F1500
G1 X74.442 Y43.275 Z0 F1500
G1 X74.715 Y43.646 Z0 F1500
G1 X74.954 Y44.021 Z0 F1500
G1 X75.168 Y44.399 Z0 F1500
; --- FIX X Backlash ---
G0 X74.268 Y44.399 F1500
; --- FIX Y Backlash ---
G0 X74.268 Y43.499 F1500
G1 X73.995 Y43.355 Z0 F1500
G1 X73.74 Y43.254 Z0 F1500
G1 X73.509 Y43.212 Z0 F1500
G1 X73.296 Z0 F1500
; --- FIX Y Backlash ---
G0 X73.296 Y44.112 F1500
G1 Y44.496 Z0 F1500
; --- FIX X Backlash ---
G0 X74.196 Y44.496 F1500
G1 X74.467 Y44.581 Z0 F1500
G1 X74.629 Y44.655 Z0 F1500
G1 X74.811 Y44.776 Z0 F1500
G1 X75.003 Y44.936 Z0 F1500
G1 X75.196 Y45.125 Z0 F1500
G1 X75.381 Y45.332 Z0 F1500
G1 X75.549 Y45.549 Z0 F1500
G1 X75.69 Y45.765 Z0 F1500
G1 X75.795 Y45.971 Z0 F1500
G1 X75.99 Y46.431 Z0 F1500
; --- FIX X Backlash ---
G0 X75.09 Y46.431 F1500
G1 X74.614 Y53.428 Z0 F1500
G1 X73.023 Y55.949 Z0 F1500
G1 Y56.745 Z0 F1500
; --- FIX X Backlash ---
G0 X73.923 Y56.745 F1500
; --- FIX Y Backlash ---
G0 X73.923 Y55.845 F1500
G1 X74.141 Y55.667 Z0 F1500
G1 X74.204 Y55.602 Z0 F1500
G1 X74.302 Y55.486 Z0 F1500
G1 X74.428 Y55.326 Z0 F1500
G1 X74.578 Y55.126 Z0 F1500
G1 X74.932 Y54.639 Z0 F1500
G1 X75.324 Y54.076 Z0 F1500
G1 X76.29 Y52.662 Z0 F1500
G1 X76.443 Y49.704 Z0 F1500
G1 X76.512 Y48.452 Z0 F1500
G0 Z4.8 F1500
; --- FIX Y Backlash ---
G0 X76.512 Y49.352 F1500
G0 X78.289 Y51.456 Z4.8 F1500
G1 Z0 F1500
G1 X78.528 Y51.556 Z0 F1500
G1 X78.807 Y51.645 Z0 F1500
G1 X79.142 Y51.72 Z0 F1500
G1 X79.307 Y51.753 Z0 F1500
G1 X79.419 Y51.801 Z0 F1500
G1 X79.474 Y51.876 Z0 F1500
G1 X79.468 Y51.994 Z0 F1500
; --- FIX X Backlash ---
G0 X78.568 Y51.994 F1500
G1 X78.497 Y52.169 Z0 F1500
G1 X78.358 Y52.417 Z0 F1500
G1 X78.262 Y52.573 Z0 F1500
G1 X78.147 Y52.752 Z0 F1500
G1 X78.013 Y52.956 Z0 F1500
G1 X77.719 Y53.398 Z0 F1500
G1 X77.592 Y53.584 Z0 F1500
G1 X77.476 Y53.747 Z0 F1500
G1 X77.374 Y53.888 Z0 F1500
G1 X77.284 Y54.004 Z0 F1500
G1 X77.207 Y54.098 Z0 F1500
G1 X77.144 Y54.168 Z0 F1500
G1 X77.093 Y54.214 Z0 F1500
G1 X77.056 Y54.236 Z0 F1500
G1 X77.033 Z0 F1500
G1 X77.023 Y54.21 Z0 F1500
; --- FIX Y Backlash ---
G0 X77.023 Y53.31 F1500
G1 X77.027 Y53.26 Z0 F1500
G1 X77.045 Y53.187 Z0 F1500
G1 X77.077 Y53.089 Z0 F1500
G1 X77.123 Y52.967 Z0 F1500
; --- FIX X Backlash ---
G0 X78.023 Y52.967 F1500
G1 X78.083 Y52.821 Z0 F1500
G1 X78.289 Y52.335 Z0 F1500
G1 Y50.556 Z0 F1500
G0 Z4.8 F1500
; --- FIX X Backlash ---
G0 X77.389 Y50.556 F1500
; --- FIX Y Backlash ---
G0 X77.389 Y51.456 F1500
G0 X75.752 Y54.433 Z4.8 F1500
G1 Z0 F1500
G1 X75.334 Z0 F1500
G1 X75.253 Y54.668 Z0 F1500
G1 X75.196 Y54.817 Z0 F1500
G1 X75.099 Y55.05 Z0 F1500
G1 X74.976 Y55.335 Z0 F1500
G1 X74.841 Y55.64 Z0 F1500
G1 X74.51 Y56.377 Z0 F1500
G1 X73.247 Y57.64 Z0 F1500
; --- FIX X Backlash ---
G0 X74.147 Y57.64 F1500
G1 X74.463 Y58.32 Z0 F1500
G1 X74.748 Z0 F1500
G1 X75.027 Y58.279 Z0 F1500
; --- FIX Y Backlash ---
G0 X75.027 Y57.379 F1500
G1 X75.298 Y57.281 Z0 F1500
G1 X75.563 Y57.142 Z0 F1500
G1 X76.652 Y55.014 Z0 F1500
G1 Y53.533 Z0 F1500
G0 Z4.8 F1500
; --- FIX X Backlash ---
G0 X75.752 Y53.533 F1500
; --- FIX Y Backlash ---
G0 X75.752 Y54.433 F1500
G0 X70.845 Y55.741 Z4.8 F1500
G1 Z0 F1500
; --- FIX Y Backlash ---
G0 X70.845 Y54.841 F1500
G1 X70.689 Y54.656 Z0 F1500
G1 X70.611 Y54.574 Z0 F1500
G1 X70.537 Y54.517 Z0 F1500
G1 X70.47 Y54.486 Z0 F1500
G1 X70.411 Y54.48 Z0 F1500
G1 X70.362 Y54.5 Z0 F1500
G1 X70.325 Y54.544 Z0 F1500
; --- FIX Y Backlash ---
G0 X70.325 Y55.444 F1500
G1 X70.301 Y55.513 Z0 F1500
G1 X70.292 Y55.606 Z0 F1500
G1 X70.279 Y55.708 Z0 F1500
G1 X70.244 Y55.844 Z0 F1500
G1 X70.189 Y56.011 Z0 F1500
G1 X70.115 Y56.205 Z0 F1500
G1 X69.92 Y56.658 Z0 F1500
G1 X69.674 Y57.173 Z0 F1500
G1 X69.391 Y57.719 Z0 F1500
G1 X69.087 Y58.267 Z0 F1500
G1 X68.778 Y58.785 Z0 F1500
G1 X68.478 Y59.244 Z0 F1500
G1 X68.176 Y59.686 Z0 F1500
G1 X67.928 Y60.06 Z0 F1500
G1 X67.833 Y60.21 Z0 F1500
G1 X67.76 Y60.327 Z0 F1500
G1 X67.714 Y60.409 Z0 F1500
G1 X67.698 Y60.448 Z0 F1500
G1 X67.687 Y60.523 Z0 F1500
G1 X67.659 Y60.665 Z0 F1500
G1 X67.618 Y60.853 Z0 F1500
G1 X67.444 Y61.604 Z0 F1500
; --- FIX X Backlash ---
G0 X68.344 Y61.604 F1500
; --- FIX Y Backlash ---
G0 X68.344 Y60.704 F1500
G1 X68.753 Y60.235 Z0 F1500
G1 X69.028 Y59.909 Z0 F1500
G1 X69.326 Y59.536 Z0 F1500
G1 X69.637 Y59.131 Z0 F1500
G1 X69.95 Y58.707 Z0 F1500
G1 X70.256 Y58.279 Z0 F1500
G1 X70.543 Y57.862 Z0 F1500
G1 X70.802 Y57.469 Z0 F1500
G1 X71.021 Y57.116 Z0 F1500
G1 X71.519 Y56.281 Z0 F1500
G1 X71.492 Y55.924 Z0 F1500
G1 X71.514 Y55.566 Z0 F1500
G1 X71.605 Y55.204 Z0 F1500
G1 X71.745 Y54.841 Z0 F1500
G0 Z4.8 F1500
; --- FIX Y Backlash ---
G0 X71.745 Y55.741 F1500
G0 X72.866 Y57.754 Z4.8 F1500
G1 Z0 F1500
; --- FIX X Backlash ---
G0 X71.966 Y57.754 F1500
G1 X71.882 Y57.888 Z0 F1500
G1 X71.855 Y57.964 Z0 F1500
G1 X71.842 Y58.074 Z0 F1500
G1 Y58.213 Z0 F1500
G1 X71.858 Y58.376 Z0 F1500
; --- FIX X Backlash ---
G0 X72.758 Y58.376 F1500
G1 X72.818 Y58.752 Z0 F1500
G1 X72.912 Y59.156 Z0 F1500
G1 X73.027 Y59.546 Z0 F1500
G1 X73.152 Y59.879 Z0 F1500
G1 X73.214 Y60.01 Z0 F1500
G1 X73.276 Y60.11 Z0 F1500
G1 X73.334 Y60.174 Z0 F1500
G1 X73.387 Y60.197 Z0 F1500
G1 X73.54 Z0 F1500
; --- FIX X Backlash ---
G0 X72.64 Y60.197 F1500
; --- FIX Y Backlash ---
G0 X72.64 Y59.297 F1500
G1 X72.45 Y57.621 Z0 F1500
G1 X71.966 Y56.854 Z0 F1500
G0 Z4.8 F1500
; --- FIX X Backlash ---
G0 X72.866 Y56.854 F1500
; --- FIX Y Backlash ---
G0 X72.866 Y57.754 F1500
G0 X75.579 Y59.273 Z4.8 F1500
G1 Z0 F1500
; --- FIX X Backlash ---
G0 X74.679 Y59.273 F1500
G1 X73.69 Y59.957 Z0 F1500
; --- FIX X Backlash ---
G0 X74.59 Y59.957 F1500
G1 X74.673 Y60.529 Z0 F1500
G1 X75.101 Y60.609 Z0 F1500
; --- FIX Y Backlash ---
G0 X75.101 Y59.709 F1500
G1 X76.788 Y58.107 Z0 F1500
G1 Y57.898 Z0 F1500
G1 X76.78 Y57.796 Z0 F1500
G1 X76.75 Y57.733 Z0 F1500
; --- FIX X Backlash ---
G0 X75.85 Y57.733 F1500
G1 X75.788 Y57.712 Z0 F1500
G1 X75.685 Y57.738 Z0 F1500
; --- FIX Y Backlash ---
G0 X75.685 Y58.638 F1500
G1 X75.532 Y58.713 Z0 F1500
G1 X75.319 Y58.842 Z0 F1500
G1 X75.038 Y59.027 Z0 F1500
G1 X74.679 Y59.273 Z0 F1500
G0 Z4.8 F1500
G0 X74.242 Y61.805 Z4.8 F1500
G1 Z0 F1500
G1 X74.115 Z0 F1500
G1 Y62.294 Z0 F1500
G1 Y62.783 Z0 F1500
G1 X73.645 Y64.137 Z0 F1500
G1 X73.451 Y64.711 Z0 F1500
G1 X73.268 Y65.271 Z0 F1500
G1 X73.188 Y65.526 Z0 F1500
G1 X73.118 Y65.753 Z0 F1500
G1 X73.062 Y65.946 Z0 F1500
G1 X73.021 Y66.094 Z0 F1500
G1 X72.936 Y66.367 Z0 F1500
G1 X72.818 Y66.662 Z0 F1500
G1 X72.683 Y66.944 Z0 F1500
G1 X72.548 Y67.179 Z0 F1500
G1 X72.341 Y67.512 Z0 F1500
G1 X72.11 Y67.917 Z0 F1500
G1 X71.872 Y68.363 Z0 F1500
G1 X71.64 Y68.817 Z0 F1500
G1 X71.433 Y69.248 Z0 F1500
G1 X71.265 Y69.623 Z0 F1500
G1 X71.2 Y69.78 Z0 F1500
G1 X71.152 Y69.911 Z0 F1500
G1 X71.121 Y70.012 Z0 F1500
G1 X71.083 Y70.243 Z0 F1500
G1 X71.005 Y70.443 Z0 F1500
G1 X70.872 Y70.683 Z0 F1500
G1 X70.684 Y70.965 Z0 F1500
G1 X70.438 Y71.292 Z0 F1500
G1 X70.133 Y71.665 Z0 F1500
G1 X69.767 Y72.088 Z0 F1500
G1 X68.852 Y73.103 Z0 F1500
G1 X68.387 Y73.639 Z0 F1500
G1 X68.178 Y73.886 Z0 F1500
G1 X67.994 Y74.109 Z0 F1500
G1 X67.841 Y74.3 Z0 F1500
G1 X67.727 Y74.451 Z0 F1500
G1 X67.275 Y75.075 Z0 F1500
; --- FIX X Backlash ---
G0 X68.175 Y75.075 F1500
G1 X68.35 Z0 F1500
G1 X68.408 Y75.051 Z0 F1500
; --- FIX Y Backlash ---
G0 X68.408 Y74.151 F1500
G1 X68.508 Y74.082 Z0 F1500
G1 X68.642 Y73.974 Z0 F1500
G1 X68.807 Y73.83 Z0 F1500
G1 X69.206 Y73.457 Z0 F1500
G1 X69.661 Y73.002 Z0 F1500
G1 X70.739 Y71.892 Z0 F1500
G1 X70.961 Y71.668 Z0 F1500
G1 X71.156 Y71.474 Z0 F1500
G1 X71.349 Y71.286 Z0 F1500
G1 X72.465 Y70.221 Z0 F1500
G1 X72.713 Y69.685 Z0 F1500
G1 X72.81 Y69.447 Z0 F1500
G1 X72.89 Y69.196 Z0 F1500
G1 X72.944 Y68.961 Z0 F1500
G1 X72.965 Y68.773 Z0 F1500
G1 X72.968 Y68.397 Z0 F1500
G1 X73.514 Y67.508 Z0 F1500
G1 X73.725 Y67.153 Z0 F1500
G1 X73.899 Y66.844 Z0 F1500
G1 X73.966 Y66.717 Z0 F1500
G1 X74.016 Y66.614 Z0 F1500
G1 X74.048 Y66.539 Z0 F1500
G1 X74.081 Y66.42 Z0 F1500
G1 X74.14 Y66.299 Z0 F1500
G1 X74.228 Y66.152 Z0 F1500
G1 X74.336 Y65.994 Z0 F1500
G1 X74.612 Y65.613 Z0 F1500
; --- FIX X Backlash ---
G0 X73.712 Y65.613 F1500
G1 X73.321 Y65.261 Z0 F1500
; --- FIX X Backlash ---
G0 X74.221 Y65.261 F1500
G1 X74.467 Y64.859 Z0 F1500
G1 X74.747 Y64.32 Z0 F1500
G1 X74.986 Y63.699 Z0 F1500
G1 X75.178 Y63.043 Z0 F1500
G1 X75.315 Y62.4 Z0 F1500
G1 X75.359 Y62.098 Z0 F1500
G1 X75.387 Y61.817 Z0 F1500
G1 X75.397 Y61.563 Z0 F1500
G1 X75.388 Y61.342 Z0 F1500
G1 X75.359 Y61.16 Z0 F1500
G1 X75.309 Y61.022 Z0 F1500
; --- FIX X Backlash ---
G0 X74.409 Y61.022 F1500
G1 X74.337 Y60.935 Z0 F1500
G1 X74.242 Y60.905 Z0 F1500
G0 Z4.8 F1500
G0 X68.957 Y60.497 Z4.8 F1500
G1 Z0 F1500
G1 X68.79 Y60.299 Z0 F1500
G1 X68.652 Y60.171 Z0 F1500
G1 X68.52 Y60.109 Z0 F1500
G1 X68.422 Y60.116 Z0 F1500
; --- FIX Y Backlash ---
G0 X68.422 Y61.016 F1500
G1 X68.383 Y61.102 Z0 F1500
G1 X68.366 Y61.142 Z0 F1500
G1 X68.317 Y61.22 Z0 F1500
G1 X68.24 Y61.329 Z0 F1500
G1 X68.138 Y61.467 Z0 F1500
G1 X67.873 Y61.807 Z0 F1500
G1 X67.549 Y62.204 Z0 F1500
G1 X67.371 Y62.419 Z0 F1500
G1 X67.213 Y62.613 Z0 F1500
G1 X67.075 Y62.789 Z0 F1500
G1 X66.955 Y62.951 Z0 F1500
G1 X66.761 Y63.247 Z0 F1500
G1 X66.62 Y63.531 Z0 F1500
G1 X66.52 Y63.833 Z0 F1500
G1 X66.448 Y64.184 Z0 F1500
G1 X66.418 Y64.387 Z0 F1500
G1 X66.391 Y64.614 Z0 F1500
G1 X66.365 Y64.868 Z0 F1500
G1 X66.337 Y65.153 Z0 F1500
G1 X66.284 Y65.683 Z0 F1500
G1 X66.226 Y66.183 Z0 F1500
G1 X66.197 Y66.403 Z0 F1500
G1 X66.17 Y66.595 Z0 F1500
G1 X66.146 Y66.752 Z0 F1500
G1 X66.124 Y66.865 Z0 F1500
G1 X66.029 Y67.301 Z0 F1500
; --- FIX X Backlash ---
G0 X66.929 Y67.301 F1500
G1 X67.151 Z0 F1500
G1 X67.237 Y67.292 Z0 F1500
G1 X67.308 Y67.267 Z0 F1500
G1 X67.355 Y67.23 Z0 F1500
; --- FIX Y Backlash ---
G0 X67.355 Y66.33 F1500
G1 X67.398 Y66.215 Z0 F1500
G1 X67.467 Y66.109 Z0 F1500
G1 X67.568 Y65.983 Z0 F1500
G1 X67.692 Y65.849 Z0 F1500
G1 X68.063 Y65.438 Z0 F1500
G1 X68.447 Y64.946 Z0 F1500
G1 X68.82 Y64.417 Z0 F1500
G1 X69.155 Y63.891 Z0 F1500
G1 X69.301 Y63.642 Z0 F1500
G1 X69.428 Y63.409 Z0 F1500
G1 X69.534 Y63.198 Z0 F1500
G1 X69.614 Y63.014 Z0 F1500
G1 X69.667 Y62.861 Z0 F1500
G1 X69.688 Y62.746 Z0 F1500
G1 X69.675 Y62.673 Z0 F1500
; --- FIX X Backlash ---
G0 X68.775 Y62.673 F1500
G1 X68.724 Y62.648 Z0 F1500
G1 X68.519 Z0 F1500
; --- FIX Y Backlash ---
G0 X68.519 Y63.548 F1500
G1 X67.884 Y64.352 Z0 F1500
G1 X67.63 Y64.664 Z0 F1500
G1 X67.408 Y64.92 Z0 F1500
G1 X67.316 Y65.018 Z0 F1500
G1 X67.242 Y65.093 Z0 F1500
G1 X67.188 Y65.14 Z0 F1500
G1 X67.156 Y65.156 Z0 F1500
G1 X67.064 Z0 F1500
; --- FIX X Backlash ---
G0 X67.964 Y65.156 F1500
; --- FIX Y Backlash ---
G0 X67.964 Y64.256 F1500
G1 X68.068 Y63.51 Z0 F1500
G1 X68.122 Y63.201 Z0 F1500
G1 X68.194 Y62.911 Z0 F1500
G1 X68.273 Y62.673 Z0 F1500
G1 X68.352 Y62.52 Z0 F1500
G1 X69.857 Y60.497 Z0 F1500
G0 Z4.8 F1500
; --- FIX X Backlash ---
G0 X68.957 Y60.497 F1500
; --- FIX Y Backlash ---
G0 X68.957 Y61.397 F1500
G0 X63.88 Y61.488 Z4.8 F1500
G1 Z0 F1500
; --- FIX Y Backlash ---
G0 X63.88 Y60.588 F1500
G1 X63.848 Y60.53 Z0 F1500
G1 X63.758 Y60.459 Z0 F1500
G1 X63.622 Y60.38 Z0 F1500
G1 X63.451 Y60.298 Z0 F1500
G1 X63.05 Y60.143 Z0 F1500
G1 X62.646 Y60.037 Z0 F1500
G1 X62.172 Y59.949 Z0 F1500
; --- FIX Y Backlash ---
G0 X62.172 Y60.849 F1500
G1 X61.764 Y61.013 Z0 F1500
G1 X61.588 Y61.075 Z0 F1500
G1 X61.411 Y61.121 Z0 F1500
G1 X61.254 Y61.148 Z0 F1500
G1 X61.136 Y61.151 Z0 F1500
G1 X60.917 Y61.125 Z0 F1500
G1 X59.776 Y61.82 Z0 F1500
G1 X59.319 Y62.104 Z0 F1500
G1 X58.916 Y62.364 Z0 F1500
G1 X58.75 Y62.476 Z0 F1500
G1 X58.613 Y62.571 Z0 F1500
G1 X58.511 Y62.646 Z0 F1500
G1 X58.451 Y62.696 Z0 F1500
G1 X58.356 Y62.78 Z0 F1500
G1 X58.271 Y62.836 Z0 F1500
G1 X58.196 Y62.865 Z0 F1500
G1 X58.132 Z0 F1500
G1 X58.081 Y62.841 Z0 F1500
; --- FIX Y Backlash ---
G0 X58.081 Y61.941 F1500
G1 X58.044 Y61.888 Z0 F1500
G1 X58.021 Y61.809 Z0 F1500
G1 X58.013 Y61.704 Z0 F1500
G1 Y61.429 Z0 F1500
G1 X57.678 Y61.1 Z0 F1500
G1 X57.529 Y60.961 Z0 F1500
G1 X57.405 Y60.863 Z0 F1500
G1 X57.302 Y60.808 Z0 F1500
G1 X57.213 Y60.794 Z0 F1500
G1 X57.136 Y60.824 Z0 F1500
; --- FIX Y Backlash ---
G0 X57.136 Y61.724 F1500
G1 X57.064 Y61.798 Z0 F1500
G1 X56.994 Y61.915 Z0 F1500
G1 X56.845 Y62.239 Z0 F1500
G1 X56.767 Y62.382 Z0 F1500
G1 X56.695 Y62.491 Z0 F1500
G1 X56.638 Y62.549 Z0 F1500
G1 X56.528 Y62.616 Z0 F1500
; --- FIX X Backlash ---
G0 X57.428 Y62.616 F1500
; --- FIX Y Backlash ---
G0 X57.428 Y61.716 F1500
G1 X57.48 Y60.57 Z0 F1500
; --- FIX X Backlash ---
G0 X56.58 Y60.57 F1500
G1 X56.17 Z0 F1500
; --- FIX Y Backlash ---
G0 X56.17 Y61.47 F1500
G1 X55.966 Y61.903 Z0 F1500
G1 X55.873 Y62.088 Z0 F1500
G1 X55.792 Y62.218 Z0 F1500
G1 X55.723 Y62.293 Z0 F1500
G1 X55.664 Y62.313 Z0 F1500
G1 X55.611 Y62.278 Z0 F1500
; --- FIX Y Backlash ---
G0 X55.611 Y61.378 F1500
G1 X55.565 Y61.287 Z0 F1500
G1 X55.523 Y61.141 Z0 F1500
G1 X55.484 Y60.939 Z0 F1500
G1 X55.447 Y60.731 Z0 F1500
G1 X55.408 Y60.536 Z0 F1500
G1 X55.373 Y60.375 Z0 F1500
G1 X55.346 Y60.271 Z0 F1500
G1 X55.294 Y60.106 Z0 F1500
; --- FIX Y Backlash ---
G0 X55.294 Y61.006 F1500
G1 X54.913 Y61.149 Z0 F1500
G1 X54.752 Y61.679 Z0 F1500
G1 X54.682 Y61.899 Z0 F1500
G1 X54.618 Y62.054 Z0 F1500
G1 X54.549 Y62.141 Z0 F1500
G1 X54.461 Y62.156 Z0 F1500
; --- FIX Y Backlash ---
G0 X54.461 Y61.256 F1500
G1 X54.343 Y61.198 Z0 F1500
G1 X54.183 Y61.064 Z0 F1500
G1 X54.083 Y60.968 Z0 F1500
G1 X53.968 Y60.852 Z0 F1500
G1 X53.836 Y60.716 Z0 F1500
G1 X52.971 Y59.81 Z0 F1500
G1 X51.612 Y59.303 Z0 F1500
; --- FIX Y Backlash ---
G0 X51.612 Y60.203 F1500
G1 X51.533 Y60.328 Z0 F1500
G1 X51.454 Y60.453 Z0 F1500
; --- FIX X Backlash ---
G0 X52.354 Y60.453 F1500
G1 X52.738 Y60.648 Z0 F1500
G1 X52.938 Y60.777 Z0 F1500
G1 X53.198 Y60.984 Z0 F1500
G1 X53.484 Y61.241 Z0 F1500
G1 X53.764 Y61.518 Z0 F1500
G1 X54.211 Y61.956 Z0 F1500
G1 X54.664 Y62.34 Z0 F1500
G1 X55.121 Y62.668 Z0 F1500
G1 X55.581 Y62.939 Z0 F1500
G1 X56.041 Y63.152 Z0 F1500
G1 X56.501 Y63.307 Z0 F1500
G1 X56.958 Y63.402 Z0 F1500
G1 X57.412 Y63.438 Z0 F1500
G1 X58.026 Y63.445 Z0 F1500
; --- FIX X Backlash ---
G0 X57.126 Y63.445 F1500
G1 X56.853 Y63.554 Z0 F1500
G1 X56.779 Y63.576 Z0 F1500
G1 X56.673 Y63.597 Z0 F1500
G1 X56.541 Y63.617 Z0 F1500
G1 X56.387 Y63.634 Z0 F1500
G1 X56.032 Y63.66 Z0 F1500
G1 X55.65 Y63.673 Z0 F1500
G1 X54.72 Y63.682 Z0 F1500
; --- FIX Y Backlash ---
G0 X54.72 Y62.782 F1500
G1 X54.422 Y62.627 Z0 F1500
G1 X54.152 Y62.435 Z0 F1500
G1 X53.923 Y62.191 Z0 F1500
G1 X53.804 Y62.039 Z0 F1500
G1 X53.63 Y61.832 Z0 F1500
G1 X53.424 Y61.597 Z0 F1500
G1 X53.209 Y61.362 Z0 F1500
G1 X52.696 Y60.814 Z0 F1500
G1 X51.298 Y60.37 Z0 F1500
; --- FIX Y Backlash ---
G0 X51.298 Y61.27 F1500
G1 X51.03 Y61.434 Z0 F1500
; --- FIX X Backlash ---
G0 X51.93 Y61.434 F1500
G1 X52.329 Y61.854 Z0 F1500
G1 X52.7 Y62.279 Z0 F1500
G1 X53.032 Y62.709 Z0 F1500
G1 X53.335 Y63.144 Z0 F1500
G1 X54.111 Y63.613 Z0 F1500
G1 X54.45 Y63.813 Z0 F1500
G1 X54.798 Y64.008 Z0 F1500
G1 X55.115 Y64.178 Z0 F1500
G1 X55.36 Y64.298 Z0 F1500
G1 X55.832 Y64.514 Z0 F1500
; --- FIX Y Backlash ---
G0 X55.832 Y63.614 F1500
G1 X56.861 Y63.454 Z0 F1500
G1 X57.888 Y63.244 Z0 F1500
G1 X58.913 Y62.964 Z0 F1500
G1 X59.936 Y62.633 Z0 F1500
G1 X60.635 Y62.182 Z0 F1500
G1 X60.947 Y61.957 Z0 F1500
G1 X61.282 Y61.679 Z0 F1500
G1 X61.598 Y61.383 Z0 F1500
G1 X61.855 Y61.104 Z0 F1500
G1 X62.377 Y60.479 Z0 F1500
; --- FIX Y Backlash ---
G0 X62.377 Y61.379 F1500
G1 X63.579 Y61.472 Z0 F1500
G1 X64.045 Y61.503 Z0 F1500
G1 X64.427 Y61.516 Z0 F1500
G1 X64.574 Z0 F1500
G1 X64.685 Y61.511 Z0 F1500
G1 X64.756 Y61.502 Z0 F1500
G1 X64.78 Y61.488 Z0 F1500
G0 Z4.8 F1500

; Color picking sequence
G1 Z10 F1000;         ; Raise brush
G0 X86 Y5 F1200;    ; Rapid move to color 1
G1 Z10 F1000;         ; Raise brush
G0 X86 Y5 F1200;    ; Rapid move to color 1
G1 Z0 F1000;         ; Lower into color
G1 X85.102 Y7.295 Z0 S800 F1200
G1 X85.026 Y7.642 Z0 F1200
G1 X85 Y8 Z0 F1200
G1 X85.026 Y8.358 Z0 F1200
G1 X85.102 Y8.705 Z0 F1200
G1 X85.225 Y9.041 Z0 F1200
G1 X85.393 Y9.362 Z0 F1200
G1 X85.603 Y9.668 Z0 F1200
G1 X85.854 Y9.957 Z0 F1200
G1 X86.142 Y10.226 Z0 F1200
G1 X86.464 Y10.475 Z0 F1200
G1 X86.82 Y10.701 Z0 F1200
G1 X87.204 Y10.902 Z0 F1200
G1 X87.617 Y11.078 Z0 F1200
G1 X88.054 Y11.225 Z0 F1200
G1 X88.513 Y11.343 Z0 F1200
G1 X88.992 Y11.429 Z0 F1200
G1 X89.489 Y11.482 Z0 F1200
G1 X90 Y11.5 Z0 F1200
G1 X90.511 Y11.482 Z0 F1200
G1 X91.008 Y11.429 Z0 F1200
G1 X91.487 Y11.343 Z0 F1200
G1 X91.946 Y11.225 Z0 F1200
G1 X92.383 Y11.078 Z0 F1200
G1 X92.796 Y10.902 Z0 F1200
G1 X93.18 Y10.701 Z0 F1200
G1 X93.536 Y10.475 Z0 F1200
G1 X93.858 Y10.226 Z0 F1200
G1 X94.146 Y9.957 Z0 F1200
G1 X94.397 Y9.668 Z0 F1200
G1 X94.607 Y9.362 Z0 F1200
G1 X94.775 Y9.041 Z0 F1200
G1 X94.898 Y8.705 Z0 F1200
G1 X94.974 Y8.358 Z0 F1200
G1 X95 Y8 Z0 F1200
G1 X94.974 Y7.642 Z0 F1200
G1 X94.898 Y7.295 Z0 F1200
G1 X94.775 Y6.959 Z0 F1200
G1 X94.607 Y6.638 Z0 F1200
G1 X94.397 Y6.332 Z0 F1200
G1 X94.146 Y6.043 Z0 F1200
G1 X93.858 Y5.774 Z0 F1200
G1 X93.536 Y5.525 Z0 F1200
G1 X93.18 Y5.299 Z0 F1200
G1 X92.796 Y5.098 Z0 F1200
G1 X92.383 Y4.922 Z0 F1200
G1 X91.946 Y4.775 Z0 F1200
G1 X91.487 Y4.657 Z0 F1200
G1 X91.008 Y4.571 Z0 F1200
G1 X90.511 Y4.518 Z0 F1200
G1 X90 Y4.5 Z0 F1200
G1 X89.489 Y4.518 Z0 F1200
G1 X88.992 Y4.571 Z0 F1200
G1 X88.513 Y4.657 Z0 F1200
G1 X88.054 Y4.775 Z0 F1200
G1 X87.617 Y4.922 Z0 F1200
G1 X87.204 Y5.098 Z0 F1200
G1 X86.82 Y5.299 Z0 F1200
G1 X86.464 Y5.525 Z0 F1200
G1 X86.142 Y5.774 Z0 F1200
G1 X85.854 Y6.043 Z0 F1200
G1 X85.603 Y6.332 Z0 F1200
G1 X85.393 Y6.638 Z0 F1200
G1 X85.225 Y6.959 Z0 F1200
G1 Z7 F800;         ; Raise from color
G1 X79 Y8 Z1 F1200;     ; Movement in paint
G1 X69 Y18 Z8 F500;     ; Move in paint
G1 F1200;           ; Set feed rate
G0 Z2.5 F1000 ; Safety Lift
G0 X64.78 Y61.488 F1200 ; Return to pos
; --- FIX X Backlash ---
G0 X63.88 Y61.488 F1500
; --- FIX Y Backlash ---
G0 X63.88 Y60.588 F1500
G0 X62.921 Y59.257 Z4.8 F1500
G1 Z0 F1500
; --- FIX X Backlash ---
G0 X63.821 Y59.257 F1500
G1 X64.235 Y59.141 Z0 F1500
G1 X64.625 Y59.001 Z0 F1500
G1 X64.954 Y58.845 Z0 F1500
G1 X65.185 Y58.684 Z0 F1500
G1 X65.385 Y58.493 Z0 F1500
; --- FIX X Backlash ---
G0 X64.485 Y58.493 F1500
G1 X64.148 Y58.505 Z0 F1500
G1 X64.063 Y58.513 Z0 F1500
G1 X63.948 Y58.531 Z0 F1500
G1 X63.809 Y58.559 Z0 F1500
G1 X63.65 Y58.594 Z0 F1500
; --- FIX Y Backlash ---
G0 X63.65 Y59.494 F1500
G1 X63.296 Y59.584 Z0 F1500
G1 X62.925 Y59.691 Z0 F1500
G1 X62.567 Y59.801 Z0 F1500
G1 X61.913 Y59.997 Z0 F1500
G1 X61.68 Y60.061 Z0 F1500
; --- FIX X Backlash ---
G0 X62.58 Y60.061 F1500
G1 X62.665 Y60.196 Z0 F1500
G1 X62.717 Y60.24 Z0 F1500
G1 X62.805 Y60.267 Z0 F1500
G1 X62.924 Y60.28 Z0 F1500
G1 X63.069 Z0 F1500
G1 X63.42 Y60.239 Z0 F1500
; --- FIX Y Backlash ---
G0 X63.42 Y59.339 F1500
G1 X63.821 Y59.257 Z0 F1500
G0 Z4.8 F1500
; --- FIX X Backlash ---
G0 X62.921 Y59.257 F1500
G0 X60.974 Y57.981 Z4.8 F1500
G1 Z0 F1500
; --- FIX X Backlash ---
G0 X61.874 Y57.981 F1500
G1 X63.262 Y57.29 Z0 F1500
G1 X63.782 Y56.664 Z0 F1500
G1 X64.004 Y56.4 Z0 F1500
G1 X64.223 Y56.146 Z0 F1500
G1 X64.414 Y55.93 Z0 F1500
G1 X64.552 Y55.78 Z0 F1500
G1 X64.801 Y55.523 Z0 F1500
; --- FIX X Backlash ---
G0 X63.901 Y55.523 F1500
G1 X63.827 Y55.332 Z0 F1500
G1 X63.781 Y55.258 Z0 F1500
G1 X63.711 Y55.198 Z0 F1500
G1 X63.628 Y55.157 Z0 F1500
G1 X63.539 Y55.142 Z0 F1500
G1 X63.325 Z0 F1500
; --- FIX Y Backlash ---
G0 X63.325 Y56.042 F1500
G1 X62.185 Y57.097 Z0 F1500
G1 X61.044 Y58.152 Z0 F1500
G1 X59.718 Y58.399 Z0 F1500
; --- FIX Y Backlash ---
G0 X59.718 Y57.499 F1500
G1 X58.354 Y56.896 Z0 F1500
G1 X55.488 Y56.863 Z0 F1500
; --- FIX Y Backlash ---
G0 X55.488 Y57.763 F1500
G1 X55.028 Y57.903 Z0 F1500
G1 X54.602 Y58.063 Z0 F1500
G1 X54.249 Y58.254 Z0 F1500
G1 X54.112 Y58.353 Z0 F1500
G1 X54.008 Y58.45 Z0 F1500
G1 X53.942 Y58.542 Z0 F1500
G1 X53.919 Y58.625 Z0 F1500
G1 Y58.789 Z0 F1500
; --- FIX X Backlash ---
G0 X54.819 Y58.789 F1500
G1 X60.072 Y58.749 Z0 F1500
G1 X60.939 Y59.102 Z0 F1500
; --- FIX Y Backlash ---
G0 X60.939 Y58.202 F1500
G1 X61.071 Y57.865 Z0 F1500
; --- FIX Y Backlash ---
G0 X61.071 Y58.765 F1500
G1 X61.874 Y58.881 Z0 F1500
G0 Z4.8 F1500
; --- FIX X Backlash ---
G0 X60.974 Y58.881 F1500
G0 X58.644 Y60.432 Z4.8 F1500
G1 Z0 F1500
; --- FIX Y Backlash ---
G0 X58.644 Y59.532 F1500
G1 X57.873 Y59.226 Z0 F1500
G1 X57.097 Y58.979 Z0 F1500
G1 X56.737 Y58.886 Z0 F1500
G1 X56.412 Y58.817 Z0 F1500
G1 X56.133 Y58.776 Z0 F1500
G1 X55.913 Y58.767 Z0 F1500
G1 X55.814 Y58.792 Z0 F1500
; --- FIX Y Backlash ---
G0 X55.814 Y59.692 F1500
G1 X55.656 Y59.758 Z0 F1500
G1 X55.461 Y59.853 Z0 F1500
G1 X55.251 Y59.968 Z0 F1500
G1 X55.02 Y60.107 Z0 F1500
G1 X54.866 Y60.216 Z0 F1500
G1 X54.795 Y60.3 Z0 F1500
G1 X54.812 Y60.363 Z0 F1500
; --- FIX X Backlash ---
G0 X55.712 Y60.363 F1500
G1 X55.822 Y60.41 Z0 F1500
G1 X56.03 Y60.447 Z0 F1500
G1 X56.173 Y60.462 Z0 F1500
G1 X56.342 Y60.476 Z0 F1500
G1 X56.539 Y60.49 Z0 F1500
G1 X57.213 Y60.531 Z0 F1500
G1 X57.565 Y60.558 Z0 F1500
G1 X57.855 Y60.595 Z0 F1500
G1 X58.116 Y60.651 Z0 F1500
G1 X58.385 Y60.735 Z0 F1500
G1 X58.697 Y60.856 Z0 F1500
G1 X58.879 Y60.934 Z0 F1500
G1 X59.321 Y61.128 Z0 F1500
G1 X60.195 Y61.518 Z0 F1500
; --- FIX Y Backlash ---
G0 X60.195 Y60.618 F1500
G1 X60.441 Y60.489 Z0 F1500
G1 X60.536 Y60.426 Z0 F1500
G1 X60.613 Y60.35 Z0 F1500
G1 X60.665 Y60.27 Z0 F1500
G1 X60.683 Y60.197 Z0 F1500
G1 X60.68 Y60.034 Z0 F1500
; --- FIX X Backlash ---
G0 X59.78 Y60.034 F1500
G1 X58.644 Y59.532 Z0 F1500
G0 Z4.8 F1500
; --- FIX X Backlash ---
G0 X59.544 Y59.532 F1500
; --- FIX Y Backlash ---
G0 X59.544 Y60.432 F1500
G0 X63.357 Y63.266 Z4.8 F1500
G1 Z0 F1500
; --- FIX X Backlash ---
G0 X62.457 Y63.266 F1500
G1 X62.355 Y63.328 Z0 F1500
G1 X62.233 Y63.411 Z0 F1500
G1 X62.089 Y63.515 Z0 F1500
G1 X61.918 Y63.643 Z0 F1500
G1 X61.49 Y63.974 Z0 F1500
G1 X60.925 Y64.416 Z0 F1500
G1 X60.602 Y64.668 Z0 F1500
G1 X60.31 Y64.894 Z0 F1500
G1 X60.045 Y65.095 Z0 F1500
G1 X59.803 Y65.274 Z0 F1500
G1 X59.374 Y65.571 Z0 F1500
G1 X58.995 Y65.801 Z0 F1500
G1 X58.637 Y65.982 Z0 F1500
G1 X58.272 Y66.128 Z0 F1500
G1 X57.869 Y66.256 Z0 F1500
G1 X57.4 Y66.382 Z0 F1500
G1 X56.443 Y66.626 Z0 F1500
G1 X54.554 Y66.631 Z0 F1500
; --- FIX Y Backlash ---
G0 X54.554 Y65.731 F1500
G1 X53.657 Y65.389 Z0 F1500
G1 X53.287 Y65.246 Z0 F1500
G1 X52.943 Y65.111 Z0 F1500
G1 X52.663 Y64.997 Z0 F1500
G1 X52.486 Y64.922 Z0 F1500
G1 X52.34 Y64.876 Z0 F1500
G1 X52.145 Y64.843 Z0 F1500
G1 X51.926 Y64.826 Z0 F1500
G1 X51.709 Z0 F1500
G1 X51.204 Y64.86 Z0 F1500
; --- FIX Y Backlash ---
G0 X51.204 Y65.76 F1500
G1 X50.923 Y66.363 Z0 F1500
; --- FIX X Backlash ---
G0 X51.823 Y66.363 F1500
G1 X51.956 Z0 F1500
G1 X51.996 Y66.373 Z0 F1500
G1 X52.061 Y66.401 Z0 F1500
G1 X52.146 Y66.445 Z0 F1500
G1 X52.248 Y66.503 Z0 F1500
G1 X52.49 Y66.654 Z0 F1500
G1 X52.762 Y66.838 Z0 F1500
G1 X53.436 Y67.313 Z0 F1500
G1 X55.16 Y67.596 Z0 F1500
; --- FIX Y Backlash ---
G0 X55.16 Y66.696 F1500
G1 X56.502 Y66.614 Z0 F1500
G1 X57.042 Y66.572 Z0 F1500
G1 X57.521 Y66.519 Z0 F1500
G1 X57.721 Y66.49 Z0 F1500
G1 X57.887 Y66.461 Z0 F1500
G1 X58.011 Y66.432 Z0 F1500
G1 X58.244 Y66.35 Z0 F1500
G1 X58.494 Y66.294 Z0 F1500
G1 X58.802 Y66.244 Z0 F1500
G1 X59.133 Y66.207 Z0 F1500
G1 X59.936 Y66.136 Z0 F1500
G1 X61.892 Y65.192 Z0 F1500
G1 X62.538 Y64.529 Z0 F1500
G1 X62.819 Y64.219 Z0 F1500
G1 X63.104 Y63.865 Z0 F1500
G1 X63.361 Y63.51 Z0 F1500
G1 X63.556 Y63.2 Z0 F1500
G1 X63.927 Y62.534 Z0 F1500
; --- FIX X Backlash ---
G0 X63.027 Y62.534 F1500
G1 X62.88 Y62.39 Z0 F1500
G1 X62.8 Y62.319 Z0 F1500
G1 X62.718 Y62.282 Z0 F1500
G1 X62.611 Y62.294 Z0 F1500
; --- FIX Y Backlash ---
G0 X62.611 Y63.194 F1500
G1 X62.457 Y63.266 Z0 F1500
G0 Z4.8 F1500
; --- FIX X Backlash ---
G0 X63.357 Y63.266 F1500
G0 X64.443 Y68.574 Z4.8 F1500
G1 Z0 F1500
; --- FIX X Backlash ---
G0 X63.543 Y68.574 F1500
G1 X63.49 Y68.582 Z0 F1500
G1 X63.416 Y68.607 Z0 F1500
G1 X63.32 Y68.65 Z0 F1500
G1 X63.202 Y68.712 Z0 F1500
G1 X63.062 Y68.794 Z0 F1500
G1 X62.865 Y68.918 Z0 F1500
G1 X62.642 Y69.073 Z0 F1500
G1 X62.373 Y69.274 Z0 F1500
G1 X62.04 Y69.535 Z0 F1500
G1 X61.627 Y69.87 Z0 F1500
G1 X61.114 Y70.294 Z0 F1500
G1 X60.484 Y70.822 Z0 F1500
G1 X59.718 Y71.467 Z0 F1500
G1 X58.927 Y72.114 Z0 F1500
G1 X58.174 Y72.686 Z0 F1500
G1 X57.45 Y73.189 Z0 F1500
G1 X56.745 Y73.627 Z0 F1500
G1 X56.048 Y74.008 Z0 F1500
G1 X55.35 Y74.336 Z0 F1500
G1 X54.641 Y74.618 Z0 F1500
G1 X53.911 Y74.859 Z0 F1500
G1 X52.745 Y75.209 Z0 F1500
G1 X50.545 Z0 F1500
; --- FIX Y Backlash ---
G0 X50.545 Y74.309 F1500
G1 X48.265 Y73.751 Z0 F1500
G1 X44.72 Y71.876 Z0 F1500
G1 X42.823 Y71.456 Z0 F1500
G1 X39.796 Y70.042 Z0 F1500
G1 X39.003 Y69.361 Z0 F1500
G1 X38.715 Y69.117 Z0 F1500
G1 X38.484 Y68.933 Z0 F1500
G1 X38.302 Y68.804 Z0 F1500
G1 X38.162 Y68.728 Z0 F1500
G1 X38.056 Y68.702 Z0 F1500
G1 X37.976 Y68.722 Z0 F1500
; --- FIX Y Backlash ---
G0 X37.976 Y69.622 F1500
G1 X37.914 Y69.685 Z0 F1500
G1 X37.863 Y69.788 Z0 F1500
G1 X37.782 Y69.996 Z0 F1500
; --- FIX X Backlash ---
G0 X38.682 Y69.996 F1500
G1 X38.938 Y70.225 Z0 F1500
G1 X39.569 Y70.752 Z0 F1500
G1 X40.226 Y71.22 Z0 F1500
G1 X40.577 Y71.441 Z0 F1500
G1 X40.951 Y71.659 Z0 F1500
G1 X41.353 Y71.875 Z0 F1500
G1 X41.787 Y72.095 Z0 F1500
G1 X43.152 Y72.764 Z0 F1500
G1 X44.039 Y72.991 Z0 F1500
G1 X44.732 Y73.165 Z0 F1500
G1 X44.994 Y73.229 Z0 F1500
G1 X45.153 Y73.265 Z0 F1500
G1 X45.216 Y73.285 Z0 F1500
G1 X45.312 Y73.323 Z0 F1500
G1 X45.436 Y73.377 Z0 F1500
G1 X45.586 Y73.447 Z0 F1500
G1 X45.948 Y73.623 Z0 F1500
G1 X46.371 Y73.839 Z0 F1500
G1 X47.291 Y74.331 Z0 F1500
G1 X48.133 Y74.811 Z0 F1500
G1 X48.449 Y74.977 Z0 F1500
G1 X48.858 Y75.157 Z0 F1500
G1 X49.306 Y75.33 Z0 F1500
G1 X49.741 Y75.474 Z0 F1500
G1 X50.735 Y75.77 Z0 F1500
; --- FIX Y Backlash ---
G0 X50.735 Y74.87 F1500
G1 X51.126 Y74.723 Z0 F1500
; --- FIX Y Backlash ---
G0 X51.126 Y75.623 F1500
G1 X51.303 Y75.904 Z0 F1500
G1 X52.754 Y75.862 Z0 F1500
G1 X53.349 Y75.836 Z0 F1500
G1 X53.899 Y75.796 Z0 F1500
G1 X54.137 Y75.773 Z0 F1500
G1 X54.341 Y75.748 Z0 F1500
G1 X54.502 Y75.722 Z0 F1500
G1 X54.614 Y75.696 Z0 F1500
; --- FIX Y Backlash ---
G0 X54.614 Y74.796 F1500
G1 X55.199 Y74.605 Z0 F1500
G1 X55.761 Y74.399 Z0 F1500
G1 X56.299 Y74.176 Z0 F1500
G1 X56.813 Y73.938 Z0 F1500
G1 X57.305 Y73.683 Z0 F1500
G1 X57.773 Y73.413 Z0 F1500
G1 X58.218 Y73.126 Z0 F1500
G1 X58.64 Y72.823 Z0 F1500
G1 X58.868 Y72.67 Z0 F1500
G1 X59.137 Y72.52 Z0 F1500
G1 X59.413 Y72.39 Z0 F1500
G1 X59.663 Y72.297 Z0 F1500
G1 X60.078 Y72.161 Z0 F1500
G1 X60.515 Y71.995 Z0 F1500
G1 X60.968 Y71.805 Z0 F1500
G1 X61.43 Y71.594 Z0 F1500
G1 X62.352 Y71.128 Z0 F1500
G1 X63.229 Y70.628 Z0 F1500
G1 X63.633 Y70.376 Z0 F1500
G1 X64.005 Y70.128 Z0 F1500
G1 X64.339 Y69.888 Z0 F1500
G1 X64.627 Y69.66 Z0 F1500
G1 X64.863 Y69.449 Z0 F1500
G1 X65.04 Y69.258 Z0 F1500
G1 X65.151 Y69.092 Z0 F1500
G1 X65.19 Y68.954 Z0 F1500
G1 X65.172 Y68.87 Z0 F1500
; --- FIX X Backlash ---
G0 X64.272 Y68.87 F1500
G1 X64.215 Y68.829 Z0 F1500
G1 X64.115 Y68.833 Z0 F1500
; --- FIX Y Backlash ---
G0 X64.115 Y69.733 F1500
G1 X63.966 Y69.785 Z0 F1500
G1 X63.764 Y69.886 Z0 F1500
G1 X63.503 Y70.04 Z0 F1500
G1 X63.18 Y70.247 Z0 F1500
G1 X62.789 Y70.51 Z0 F1500
G1 X61.797 Y71.166 Z0 F1500
G1 X60.853 Y71.753 Z0 F1500
G1 X60.435 Y71.997 Z0 F1500
G1 X60.074 Y72.198 Z0 F1500
G1 X59.92 Y72.279 Z0 F1500
G1 X59.785 Y72.346 Z0 F1500
G1 X59.672 Y72.397 Z0 F1500
G1 X59.582 Y72.431 Z0 F1500
G1 X59.309 Y72.522 Z0 F1500
; --- FIX X Backlash ---
G0 X60.209 Y72.522 F1500
; --- FIX Y Backlash ---
G0 X60.209 Y71.622 F1500
G1 X60.605 Y71.323 Z0 F1500
G1 X61.553 Y70.581 Z0 F1500
G1 X62.442 Y69.834 Z0 F1500
G1 X62.849 Y69.474 Z0 F1500
G1 X63.225 Y69.131 Z0 F1500
G1 X63.562 Y68.81 Z0 F1500
G1 X63.857 Y68.518 Z0 F1500
G1 X64.102 Y68.259 Z0 F1500
G1 X64.292 Y68.041 Z0 F1500
G1 X64.422 Y67.868 Z0 F1500
G1 X64.485 Y67.746 Z0 F1500
G1 X64.49 Y67.707 Z0 F1500
G1 X64.476 Y67.683 Z0 F1500
G1 X64.443 Y67.674 Z0 F1500
G0 Z4.8 F1500
; --- FIX X Backlash ---
G0 X63.543 Y67.674 F1500
; --- FIX Y Backlash ---
G0 X63.543 Y68.574 F1500
G0 X55.478 Y70.853 Z4.8 F1500
G1 Z0 F1500
G1 X55.21 Y70.904 Z0 F1500
G1 X55.136 Y70.915 Z0 F1500
G1 X55.027 Y70.928 Z0 F1500
G1 X54.727 Y70.958 Z0 F1500
G1 X54.351 Y70.988 Z0 F1500
G1 X53.941 Y71.015 Z0 F1500
G1 X52.94 Y71.076 Z0 F1500
; --- FIX Y Backlash ---
G0 X52.94 Y70.176 F1500
G1 X50.576 Y69.872 Z0 F1500
G1 X48.701 Y69.248 Z0 F1500
G1 X48.322 Y69.125 Z0 F1500
G1 X48.037 Y69.04 Z0 F1500
G1 X47.83 Y68.987 Z0 F1500
G1 X47.685 Y68.964 Z0 F1500
G1 X47.585 Z0 F1500
G1 X47.516 Y68.992 Z0 F1500
G1 X47.46 Y69.036 Z0 F1500
; --- FIX Y Backlash ---
G0 X47.46 Y69.936 F1500
G1 X47.37 Y70.025 Z0 F1500
; --- FIX X Backlash ---
G0 X48.27 Y70.025 F1500
G1 X48.713 Y70.294 Z0 F1500
G1 X49.286 Y70.613 Z0 F1500
G1 X49.881 Y70.889 Z0 F1500
G1 X50.5 Y71.122 Z0 F1500
G1 X51.143 Y71.311 Z0 F1500
G1 X51.813 Y71.458 Z0 F1500
G1 X52.512 Y71.563 Z0 F1500
G1 X53.24 Y71.627 Z0 F1500
G1 X54 Y71.649 Z0 F1500
G1 X55.433 Y71.653 Z0 F1500
; --- FIX Y Backlash ---
G0 X55.433 Y70.753 F1500
G1 X56.471 Y70.396 Z0 F1500
; --- FIX X Backlash ---
G0 X55.571 Y70.396 F1500
G1 X55.478 Y69.953 Z0 F1500
G0 Z4.8 F1500
; --- FIX X Backlash ---
G0 X56.378 Y69.953 F1500
; --- FIX Y Backlash ---
G0 X56.378 Y70.853 F1500
G0 X56.968 Y72.484 Z4.8 F1500
G1 Z0 F1500
; --- FIX X Backlash ---
G0 X56.068 Y72.484 F1500
G1 X55.96 Y72.505 Z0 F1500
G1 X55.659 Y72.571 Z0 F1500
G1 X55.083 Y72.706 Z0 F1500
G1 X54.682 Y72.806 Z0 F1500
G1 X53.74 Y73.044 Z0 F1500
; --- FIX Y Backlash ---
G0 X53.74 Y72.144 F1500
G1 X50.166 Y72.092 Z0 F1500
G1 X48.709 Y71.596 Z0 F1500
G1 X48.108 Y71.382 Z0 F1500
G1 X47.547 Y71.166 Z0 F1500
G1 X47.302 Y71.065 Z0 F1500
G1 X47.09 Y70.973 Z0 F1500
G1 X46.92 Y70.893 Z0 F1500
G1 X46.606 Y70.723 Z0 F1500
G1 X46.416 Y70.636 Z0 F1500
G1 X46.251 Y70.578 Z0 F1500
G1 X46.133 Y70.556 Z0 F1500
G1 X46.014 Y70.529 Z0 F1500
G1 X45.845 Y70.454 Z0 F1500
G1 X45.65 Y70.344 Z0 F1500
G1 X44.915 Y69.852 Z0 F1500
G1 X44.391 Y69.577 Z0 F1500
G1 X43.859 Y69.378 Z0 F1500
G1 X43.299 Y69.244 Z0 F1500
G1 X42.587 Y69.117 Z0 F1500
; --- FIX Y Backlash ---
G0 X42.587 Y70.017 F1500
G1 X42.514 Y70.133 Z0 F1500
G1 X42.48 Y70.209 Z0 F1500
G1 Y70.279 Z0 F1500
G1 X42.517 Y70.347 Z0 F1500
; --- FIX X Backlash ---
G0 X43.417 Y70.347 F1500
G1 X43.494 Y70.413 Z0 F1500
G1 X43.615 Y70.482 Z0 F1500
G1 X43.783 Y70.554 Z0 F1500
G1 X44.002 Y70.632 Z0 F1500
G1 X44.273 Y70.718 Z0 F1500
G1 X44.857 Y70.922 Z0 F1500
G1 X45.457 Y71.195 Z0 F1500
G1 X45.79 Y71.371 Z0 F1500
G1 X46.159 Y71.581 Z0 F1500
G1 X46.574 Y71.829 Z0 F1500
G1 X47.047 Y72.121 Z0 F1500
G1 X47.803 Y72.595 Z0 F1500
G1 X49.806 Y73.238 Z0 F1500
G1 X50.318 Y73.406 Z0 F1500
G1 X50.711 Y73.536 Z0 F1500
G1 X50.93 Y73.612 Z0 F1500
G1 X51.004 Y73.634 Z0 F1500
G1 X51.11 Y73.658 Z0 F1500
G1 X51.243 Y73.683 Z0 F1500
G1 X51.398 Y73.708 Z0 F1500
G1 X51.754 Y73.756 Z0 F1500
G1 X52.139 Y73.796 Z0 F1500
G1 X53.074 Y73.879 Z0 F1500
; --- FIX Y Backlash ---
G0 X53.074 Y72.979 F1500
G1 X54.185 Y72.829 Z0 F1500
G1 X54.844 Y72.725 Z0 F1500
G1 X55.454 Y72.598 Z0 F1500
G1 X56.002 Y72.454 Z0 F1500
G1 X56.478 Y72.296 Z0 F1500
G1 X56.869 Y72.13 Z0 F1500
G1 X57.162 Y71.959 Z0 F1500
G1 X57.269 Y71.873 Z0 F1500
G1 X57.347 Y71.788 Z0 F1500
G1 X57.395 Y71.704 Z0 F1500
G1 X57.412 Y71.622 Z0 F1500
G1 Y71.501 Z0 F1500
; --- FIX X Backlash ---
G0 X56.512 Y71.501 F1500
; --- FIX Y Backlash ---
G0 X56.512 Y72.401 F1500
G1 X56.068 Y72.484 Z0 F1500
G0 Z4.8 F1500
; --- FIX Y Backlash ---
G0 X56.068 Y71.584 F1500
G0 X54.26 Y68.469 Z4.8 F1500
G1 Z0 F1500
G1 X54.111 Y68.378 Z0 F1500
G1 X54.053 Y68.354 Z0 F1500
G1 X53.946 Y68.321 Z0 F1500
G1 X53.796 Y68.279 Z0 F1500
G1 X53.608 Y68.232 Z0 F1500
G1 X53.146 Y68.123 Z0 F1500
G1 X52.61 Y68.007 Z0 F1500
G1 X51.999 Y67.868 Z0 F1500
G1 X51.334 Y67.698 Z0 F1500
G1 X51.007 Y67.608 Z0 F1500
G1 X50.697 Y67.518 Z0 F1500
G1 X50.413 Y67.431 Z0 F1500
G1 X49.729 Y67.209 Z0 F1500
G1 X49.345 Y67.102 Z0 F1500
G1 X49.186 Y67.065 Z0 F1500
G1 X49.056 Y67.04 Z0 F1500
G1 X48.961 Y67.029 Z0 F1500
G1 X48.904 Y67.034 Z0 F1500
; --- FIX Y Backlash ---
G0 X48.904 Y67.934 F1500
G1 X48.812 Y67.987 Z0 F1500
G1 X48.786 Y68.057 Z0 F1500
G1 X48.82 Y68.141 Z0 F1500
; --- FIX X Backlash ---
G0 X49.72 Y68.141 F1500
G1 X49.809 Y68.237 Z0 F1500
G1 X49.949 Y68.344 Z0 F1500
G1 X50.135 Y68.458 Z0 F1500
G1 X50.361 Y68.578 Z0 F1500
G1 X50.623 Y68.701 Z0 F1500
