G90 ; Force absolute mode
;LightBurn 1.6.04
;Custom GCode device profile, absolute coords
;Bounds: X16.11 Y15.46 to X55.89 Y46.54
G00 G17 G40 G21 G54
M3
G1 Z10 F800
;Cut @ 333 mm/min, 80% power

M8
G0 Z3.5 F800
G0 X18.307 Y15.505 Z3.5
G1 Z0 F800
;Layer C3 Pass 1 of 2
G1 X20.962 Y15.459 Z0 F800
G1 X22.427 Y16.237 Z0 F800
G1 X22.552 Y16.334 Z0 F800
G1 X22.674 Y16.44 Z0 F800
G1 X22.805 Y16.569 Z0 F800
G1 X22.923 Y16.711 Z0 F800
G1 X23.007 Y16.855 Z0 F800
G1 X23.032 Y16.991 Z0 F800
; --- FIX X Backlash ---
G0 X22.332 Y16.991 F410
G1 X22.277 Y17.107 Z0 F800
G1 X22.156 Y17.235 Z0 F800
G1 X22.011 Y17.402 Z0 F800
G1 X21.852 Y17.59 Z0 F800
G1 X21.693 Y17.782 Z0 F800
G1 X21.315 Y18.251 Z0 F800
G1 X19.072 Y18.297 Z0 F800
; --- FIX X Backlash ---
G0 X19.772 Y18.297 F410
G1 X20.184 Y19.579 Z0 F800
; --- FIX X Backlash ---
G0 X19.484 Y19.579 F410
G1 X18.798 Y20.037 Z0 F800
; --- FIX X Backlash ---
G0 X19.498 Y20.037 F410
G1 X20.322 Y21.318 Z0 F800
; --- FIX X Backlash ---
G0 X19.622 Y21.318 F410
G1 X18.752 Y22.188 Z0 F800
; --- FIX X Backlash ---
G0 X19.452 Y22.188 F410
G1 X20.367 Y23.195 Z0 F800
; --- FIX Y Backlash ---
G0 X20.367 Y22.695 F410
G1 X21.191 Y21.047 Z0 F800
; --- FIX X Backlash ---
G0 X20.491 Y21.047 F410
G1 X20.034 Y20.086 Z0 F800
; --- FIX X Backlash ---
G0 X20.734 Y20.086 F410
G1 X20.915 Y19.997 Z0 F800
G1 X21.096 Y19.9 Z0 F800
G1 X21.294 Y19.783 Z0 F800
G1 X21.48 Y19.655 Z0 F800
G1 X21.622 Y19.526 Z0 F800
G1 X21.667 Y19.465 Z0 F800
G1 X21.689 Y19.407 Z0 F800
G1 X21.684 Y19.354 Z0 F800
G1 X21.649 Y19.308 Z0 F800
; --- FIX X Backlash ---
G0 X20.949 Y19.308 F410
G1 X20.733 Y19.111 Z0 F800
G1 X20.526 Y18.902 Z0 F800
G1 X20.37 Y18.735 Z0 F800
G1 X20.308 Y18.667 Z0 F800
; --- FIX X Backlash ---
G0 X21.008 Y18.667 F410
G1 X22.748 Y18.118 Z0 F800
G1 X23.892 Y17.019 Z0 F800
; --- FIX X Backlash ---
G0 X23.192 Y17.019 F410
G1 X23.101 Y15.92 Z0 F800
G1 X22.048 Y15.142 Z0 F800
; --- FIX X Backlash ---
G0 X22.748 Y15.142 F410
; --- FIX Y Backlash ---
G0 X22.748 Y15.642 F410
G1 X24.35 Y15.871 Z0 F800
G1 X24.945 Y16.924 Z0 F800
G1 X24.999 Y17.134 Z0 F800
G1 X25.049 Y17.354 Z0 F800
G1 X25.1 Y17.611 Z0 F800
G1 X25.139 Y17.876 Z0 F800
G1 X25.157 Y18.121 Z0 F800
G1 X25.142 Y18.317 Z0 F800
; --- FIX X Backlash ---
G0 X24.442 Y18.317 F410
G1 X24.382 Y18.435 Z0 F800
G1 X24.265 Y18.522 Z0 F800
G1 X24.1 Y18.641 Z0 F800
G1 X23.701 Y18.915 Z0 F800
G1 X23.192 Y19.258 Z0 F800
G1 X20.949 Y20.311 Z0 F800
; --- FIX X Backlash ---
G0 X21.649 Y20.311 F410
G1 X22.244 Y21.135 Z0 F800
G1 X23.572 Y21.09 Z0 F800
G1 X23.902 Y21.109 Z0 F800
G1 X24.104 Y21.124 Z0 F800
G1 X24.316 Y21.143 Z0 F800
G1 X24.518 Y21.167 Z0 F800
G1 X24.689 Y21.195 Z0 F800
G1 X24.808 Y21.227 Z0 F800
G1 X24.905 Y21.224 Z0 F800
; --- FIX Y Backlash ---
G0 X24.905 Y20.724 F410
G1 X25.019 Y20.658 Z0 F800
G1 X25.14 Y20.55 Z0 F800
G1 X25.26 Y20.418 Z0 F800
G1 X25.369 Y20.282 Z0 F800
G1 X25.458 Y20.16 Z0 F800
G1 X25.54 Y20.04 Z0 F800
; --- FIX X Backlash ---
G0 X24.84 Y20.04 F410
G1 X24.698 Y19.971 Z0 F800
G1 X24.543 Y19.903 Z0 F800
G1 X24.354 Y19.829 Z0 F800
G1 X24.145 Y19.761 Z0 F800
G1 X23.932 Y19.712 Z0 F800
G1 X23.732 Y19.694 Z0 F800
G1 X23.558 Y19.72 Z0 F800
; --- FIX Y Backlash ---
G0 X23.558 Y20.22 F410
G1 X23.181 Y20.283 Z0 F800
G1 X22.769 Z0 F800
G1 X22.598 Y20.265 Z0 F800
G1 X22.477 Y20.239 Z0 F800
G1 X22.424 Y20.208 Z0 F800
G1 X22.46 Y20.174 Z0 F800
; --- FIX X Backlash ---
G0 X23.16 Y20.174 F410
G1 X23.221 Y20.146 Z0 F800
G1 X23.314 Y20.099 Z0 F800
; --- FIX Y Backlash ---
G0 X23.314 Y19.599 F410
G1 X23.435 Y19.534 Z0 F800
G1 X23.912 Y19.272 Z0 F800
G1 X24.276 Y19.067 Z0 F800
G1 X25.22 Y18.53 Z0 F800
; --- FIX Y Backlash ---
G0 X25.22 Y19.03 F410
G1 X26.41 Y19.579 Z0 F800
; --- FIX Y Backlash ---
G0 X26.41 Y19.079 F410
G1 X26.53 Y18.989 Z0 F800
G1 X26.651 Y18.891 Z0 F800
G1 X26.788 Y18.77 Z0 F800
G1 X26.92 Y18.636 Z0 F800
G1 X27.028 Y18.5 Z0 F800
G1 X27.093 Y18.369 Z0 F800
G1 X27.097 Y18.255 Z0 F800
; --- FIX X Backlash ---
G0 X26.397 Y18.255 F410
G1 X26.331 Y18.131 Z0 F800
G1 X26.215 Y17.975 Z0 F800
G1 X26.067 Y17.801 Z0 F800
G1 X25.904 Y17.625 Z0 F800
G1 X25.747 Y17.463 Z0 F800
G1 X25.611 Y17.328 Z0 F800
G1 X25.481 Y17.202 Z0 F800
G1 X25.069 Y16.058 Z0 F800
G1 X24.84 Y15.279 Z0 F800
; --- FIX X Backlash ---
G0 X25.54 Y15.279 F410
G1 X26.273 Y15.234 Z0 F800
; --- FIX Y Backlash ---
G0 X26.273 Y15.734 F410
G1 X26.492 Y15.977 Z0 F800
G1 X26.622 Y16.128 Z0 F800
G1 X26.753 Y16.29 Z0 F800
G1 X26.871 Y16.448 Z0 F800
G1 X26.96 Y16.588 Z0 F800
G1 X27.005 Y16.695 Z0 F800
G1 X27.044 Y16.806 Z0 F800
G1 X27.117 Y16.956 Z0 F800
G1 X27.213 Y17.129 Z0 F800
G1 X27.32 Y17.307 Z0 F800
G1 X27.424 Y17.475 Z0 F800
G1 X27.6 Y17.748 Z0 F800
; --- FIX Y Backlash ---
G0 X27.6 Y17.248 F410
G1 X30.255 Y15.92 Z0 F800
; --- FIX X Backlash ---
G0 X29.555 Y15.92 F410
G1 X28.594 Y15.279 Z0 F800
; --- FIX Y Backlash ---
G0 X28.594 Y15.779 F410
G1 X27.083 Y16.329 Z0 F800
G1 X27.129 Y16.878 Z0 F800
; --- FIX X Backlash ---
G0 X27.829 Y16.878 F410
; --- FIX Y Backlash ---
G0 X27.829 Y16.378 F410
G1 X28.039 Y16.327 Z0 F800
G1 X28.516 Y16.206 Z0 F800
G1 X28.781 Y16.137 Z0 F800
G1 X29.026 Y16.069 Z0 F800
G1 X29.222 Y16.01 Z0 F800
G1 X29.34 Y15.966 Z0 F800
G1 X29.477 Y15.902 Z0 F800
G1 X29.724 Y15.792 Z0 F800
G1 X31.308 Y15.096 Z0 F800
G1 X33.643 Y15.005 Z0 F800
; --- FIX Y Backlash ---
G0 X33.643 Y15.505 F410
G1 X37.9 Y15.642 Z0 F800
; --- FIX Y Backlash ---
G0 X37.9 Y15.142 F410
G1 X41.608 Y14.959 Z0 F800
; --- FIX Y Backlash ---
G0 X41.608 Y15.459 F410
G1 X42.478 Y16.191 Z0 F800
; --- FIX X Backlash ---
G0 X41.778 Y16.191 F410
G1 X41.549 Y20.174 Z0 F800
; --- FIX X Backlash ---
G0 X42.249 Y20.174 F410
G1 X43.576 Y20.952 Z0 F800
; --- FIX X Backlash ---
G0 X42.876 Y20.952 F410
G1 X42.785 Y26.216 Z0 F800
G1 Y32.671 Z0 F800
; --- FIX X Backlash ---
G0 X43.485 Y32.671 F410
G1 X44.766 Y33.175 Z0 F800
; --- FIX Y Backlash ---
G0 X44.766 Y32.675 F410
G1 X45.224 Y29.241 Z0 F800
; --- FIX X Backlash ---
G0 X44.524 Y29.241 F410
G1 X43.288 Y26.357 Z0 F800
; --- FIX X Backlash ---
G0 X43.988 Y26.357 F410
G1 X44.146 Y25.909 Z0 F800
G1 X44.498 Y24.898 Z0 F800
G1 X44.688 Y24.339 Z0 F800
G1 X44.857 Y23.827 Z0 F800
G1 X44.927 Y23.609 Z0 F800
G1 X44.983 Y23.426 Z0 F800
G1 X45.022 Y23.287 Z0 F800
G1 X45.041 Y23.199 Z0 F800
G1 Y23.12 Z0 F800
G1 X45.019 Y23.006 Z0 F800
G1 X44.982 Y22.864 Z0 F800
G1 X44.932 Y22.699 Z0 F800
; --- FIX X Backlash ---
G0 X44.232 Y22.699 F410
G1 X44.101 Y22.319 Z0 F800
G1 X43.946 Y21.911 Z0 F800
G1 X43.79 Y21.518 Z0 F800
G1 X43.652 Y21.184 Z0 F800
G1 X43.517 Y20.864 Z0 F800
; --- FIX X Backlash ---
G0 X44.217 Y20.864 F410
G1 X45.041 Y20.406 Z0 F800
; --- FIX Y Backlash ---
G0 X45.041 Y20.906 F410
G1 X46.323 Y22.051 Z0 F800
G1 X46.369 Y24.431 Z0 F800
; --- FIX X Backlash ---
G0 X45.669 Y24.431 F410
G1 X44.662 Y26.674 Z0 F800
; --- FIX X Backlash ---
G0 X45.362 Y26.674 F410
G1 X45.651 Y27.121 Z0 F800
G1 X45.819 Y27.389 Z0 F800
G1 X45.987 Y27.669 Z0 F800
G1 X46.134 Y27.929 Z0 F800
G1 X46.193 Y28.044 Z0 F800
G1 X46.238 Y28.142 Z0 F800
G1 X46.267 Y28.221 Z0 F800
G1 X46.277 Y28.276 Z0 F800
G1 X46.27 Y28.759 Z0 F800
G1 X46.231 Y30.748 Z0 F800
G1 X46.46 Y32.488 Z0 F800
G1 X46.663 Y32.491 Z0 F800
G1 X46.866 Y32.488 Z0 F800
G1 X47.09 Y32.476 Z0 F800
G1 X47.301 Y32.452 Z0 F800
G1 X47.464 Y32.411 Z0 F800
G1 X47.518 Y32.382 Z0 F800
G1 X47.547 Y32.348 Z0 F800
G1 Y32.307 Z0 F800
G1 X47.513 Y32.259 Z0 F800
; --- FIX X Backlash ---
G0 X46.813 Y32.259 F410
; --- FIX Y Backlash ---
G0 X46.813 Y31.759 F410
G1 X46.759 Y31.672 Z0 F800
G1 X46.699 Y31.519 Z0 F800
G1 X46.635 Y31.311 Z0 F800
G1 X46.568 Y31.057 Z0 F800
G1 X46.432 Y30.451 Z0 F800
G1 X46.298 Y29.779 Z0 F800
G1 X46.177 Y29.121 Z0 F800
G1 X46.079 Y28.553 Z0 F800
G1 X45.989 Y28.005 Z0 F800
G1 X45.76 Y24.755 Z0 F800
; --- FIX X Backlash ---
G0 X46.46 Y24.755 F410
G1 X46.689 Y23.668 Z0 F800
G1 X46.773 Y23.249 Z0 F800
G1 X46.846 Y22.863 Z0 F800
G1 X46.876 Y22.696 Z0 F800
G1 X46.898 Y22.556 Z0 F800
G1 X46.913 Y22.447 Z0 F800
G1 X46.918 Y22.375 Z0 F800
G1 X46.915 Y22.307 Z0 F800
G1 X46.897 Y22.087 Z0 F800
; --- FIX X Backlash ---
G0 X46.197 Y22.087 F410
G1 X46.146 Y21.617 Z0 F800
G1 X46.104 Y21.265 Z0 F800
G1 X45.989 Y20.361 Z0 F800
; --- FIX X Backlash ---
G0 X46.689 Y20.361 F410
; --- FIX Y Backlash ---
G0 X46.689 Y20.861 F410
G1 X47.513 Y21.227 Z0 F800
G1 Y32.03 Z0 F800
G1 X48.749 Y33.083 Z0 F800
G1 X55.112 Y33.129 Z0 F800
; --- FIX X Backlash ---
G0 X54.412 Y33.129 F410
; --- FIX Y Backlash ---
G0 X54.412 Y32.629 F410
G1 X54.046 Y29.195 Z0 F800
; --- FIX X Backlash ---
G0 X54.746 Y29.195 F410
G1 X55.295 Y27.639 Z0 F800
; --- FIX X Backlash ---
G0 X54.595 Y27.639 F410
G1 X53.496 Y27.318 Z0 F800
; --- FIX X Backlash ---
G0 X54.196 Y27.318 F410
; --- FIX Y Backlash ---
G0 X54.196 Y27.818 F410
G1 X55.295 Y27.956 Z0 F800
G1 X55.753 Y29.421 Z0 F800
G1 Y31.114 Z0 F800
G1 X55.89 Y32.259 Z0 F800
; --- FIX X Backlash ---
G0 X55.19 Y32.259 F410
G1 X55.053 Y33.54 Z0 F800
G1 X54.32 Y34.41 Z0 F800
; --- FIX Y Backlash ---
G0 X54.32 Y33.91 F410
G1 X53.313 Y33.178 Z0 F800
; --- FIX X Backlash ---
G0 X54.013 Y33.178 F410
G1 X54.654 Y32.033 Z0 F800
; --- FIX X Backlash ---
G0 X53.954 Y32.033 F410
G1 X53.817 Y30.065 Z0 F800
G1 X53.679 Y28.234 Z0 F800
; --- FIX Y Backlash ---
G0 X53.679 Y28.734 F410
G1 X53.313 Y29.833 Z0 F800
; --- FIX X Backlash ---
G0 X54.013 Y29.833 F410
G1 X54.196 Y32.03 Z0 F800
; --- FIX X Backlash ---
G0 X53.496 Y32.03 F410
G1 X52.901 Y33.083 Z0 F800
G1 X46.584 Y33.129 Z0 F800
G1 X45.302 Y33.22 Z0 F800
G1 X43.517 Y33.632 Z0 F800
; --- FIX Y Backlash ---
G0 X43.517 Y33.132 F410
G1 X42.51 Y32.491 Z0 F800
; --- FIX X Backlash ---
G0 X43.21 Y32.491 F410
G1 X43.576 Y31.255 Z0 F800
; --- FIX Y Backlash ---
G0 X43.576 Y31.755 F410
G1 X46.368 Y32.533 Z0 F800
; --- FIX Y Backlash ---
G0 X46.368 Y32.033 F410
G1 X47.376 Y31.209 Z0 F800
G1 X47.433 Y31.109 Z0 F800
G1 X47.482 Y31.007 Z0 F800
G1 X47.524 Y30.889 Z0 F800
G1 X47.545 Y30.771 Z0 F800
G1 X47.53 Y30.669 Z0 F800
; --- FIX X Backlash ---
G0 X46.83 Y30.669 F410
G1 X46.763 Y30.596 Z0 F800
G1 X46.63 Y30.569 Z0 F800
G1 X46.022 Y30.576 Z0 F800
G1 X43.975 Y30.614 Z0 F800
G1 X42.83 Y30.477 Z0 F800
G1 X42.87 Y30.298 Z0 F800
G1 X42.915 Y30.115 Z0 F800
; --- FIX X Backlash ---
G0 X43.615 Y30.115 F410
G1 X43.673 Y29.905 Z0 F800
G1 X43.743 Y29.695 Z0 F800
G1 X43.82 Y29.511 Z0 F800
G1 X43.903 Y29.382 Z0 F800
G1 X43.988 Y29.333 Z0 F800
G1 X44.049 Y29.34 Z0 F800
G1 X44.142 Y29.36 Z0 F800
G1 X44.263 Y29.392 Z0 F800
G1 X44.406 Y29.433 Z0 F800
; --- FIX Y Backlash ---
G0 X44.406 Y29.933 F410
G1 X44.74 Y30.035 Z0 F800
G1 X45.104 Y30.153 Z0 F800
G1 X45.457 Y30.271 Z0 F800
G1 X46.048 Y30.474 Z0 F800
; --- FIX Y Backlash ---
G0 X46.048 Y29.974 F410
G1 X47.742 Y29.287 Z0 F800
G1 X47.737 Y29.15 Z0 F800
G1 X47.725 Y29.009 Z0 F800
G1 X47.702 Y28.846 Z0 F800
G1 X47.663 Y28.681 Z0 F800
; --- FIX X Backlash ---
G0 X46.963 Y28.681 F410
G1 X46.907 Y28.534 Z0 F800
G1 X46.827 Y28.424 Z0 F800
G1 X46.721 Y28.371 Z0 F800
G1 X46.644 Y28.366 Z0 F800
G1 X46.535 Z0 F800
G1 X46.399 Y28.371 Z0 F800
G1 X46.243 Y28.381 Z0 F800
G1 X45.885 Y28.409 Z0 F800
G1 X45.502 Y28.446 Z0 F800
G1 X45.135 Y28.484 Z0 F800
; --- FIX Y Backlash ---
G0 X45.135 Y28.984 F410
G1 X44.524 Y29.054 Z0 F800
G1 X44.327 Y29.084 Z0 F800
G1 X44.118 Y29.108 Z0 F800
G1 X43.872 Y29.123 Z0 F800
G1 X43.612 Z0 F800
G1 X43.365 Y29.093 Z0 F800
; --- FIX Y Backlash ---
G0 X43.365 Y28.593 F410
G1 X43.157 Y28.528 Z0 F800
G1 X43.013 Y28.417 Z0 F800
G1 X42.753 Y28.194 Z0 F800
G1 X42.475 Y28.039 Z0 F800
G1 X42.373 Y27.972 Z0 F800
G1 X42.318 Y27.902 Z0 F800
G1 X42.327 Y27.824 Z0 F800
; --- FIX X Backlash ---
G0 X43.027 Y27.824 F410
G1 X43.118 Y27.73 Z0 F800
G1 X43.31 Y27.632 Z0 F800
G1 X43.587 Y27.543 Z0 F800
G1 X43.916 Y27.465 Z0 F800
G1 X44.263 Y27.399 Z0 F800
G1 X44.592 Y27.345 Z0 F800
G1 X44.869 Y27.306 Z0 F800
G1 X45.132 Y27.273 Z0 F800
; --- FIX Y Backlash ---
G0 X45.132 Y27.773 F410
G1 X46.735 Y28.23 Z0 F800
; --- FIX Y Backlash ---
G0 X46.735 Y27.73 F410
G1 X47.833 Y26.998 Z0 F800
G1 X47.808 Y26.972 Z0 F800
; --- FIX X Backlash ---
G0 X47.108 Y26.972 F410
G1 X47.037 Y26.904 Z0 F800
G1 X46.923 Y26.807 Z0 F800
G1 X46.773 Y26.695 Z0 F800
G1 X46.59 Y26.58 Z0 F800
G1 X46.38 Y26.477 Z0 F800
G1 X46.148 Y26.398 Z0 F800
G1 X45.897 Y26.357 Z0 F800
G1 X45.597 Y26.362 Z0 F800
G1 X45.232 Y26.402 Z0 F800
; --- FIX Y Backlash ---
G0 X45.232 Y26.902 F410
G1 X44.83 Y26.967 Z0 F800
G1 X44.421 Y27.046 Z0 F800
G1 X43.696 Y27.198 Z0 F800
G1 X43.438 Y27.25 Z0 F800
G1 X43.347 Y27.264 Z0 F800
G1 X43.288 Y27.269 Z0 F800
G1 X43.136 Y27.273 Z0 F800
G1 X42.877 Y27.283 Z0 F800
G1 X42.195 Y27.315 Z0 F800
G1 X41.274 Y27.361 Z0 F800
G1 X40.587 Y27.956 Z0 F800
; --- FIX Y Backlash ---
G0 X40.587 Y27.456 F410
G1 X40.267 Y27.044 Z0 F800
; --- FIX X Backlash ---
G0 X40.967 Y27.044 F410
G1 X41.196 Y26.128 Z0 F800
G1 X41.241 Y25.442 Z0 F800
G1 X42.249 Y24.847 Z0 F800
; --- FIX Y Backlash ---
G0 X42.249 Y25.347 F410
G1 X42.569 Y26.354 Z0 F800
; --- FIX Y Backlash ---
G0 X42.569 Y25.854 F410
G1 X44.675 Y25.442 Z0 F800
G1 X45.911 Y25.213 Z0 F800
; --- FIX Y Backlash ---
G0 X45.911 Y25.713 F410
G1 X47.742 Y26.216 Z0 F800
; --- FIX Y Backlash ---
G0 X47.742 Y25.716 F410
G1 X48.199 Y24.16 Z0 F800
; --- FIX X Backlash ---
G0 X47.499 Y24.16 F410
G1 X47.344 Y24.121 Z0 F800
G1 X47.176 Y24.085 Z0 F800
G1 X46.973 Y24.051 Z0 F800
G1 X46.753 Y24.028 Z0 F800
G1 X46.534 Y24.025 Z0 F800
G1 X46.334 Y24.05 Z0 F800
; --- FIX Y Backlash ---
G0 X46.334 Y24.55 F410
G1 X46.172 Y24.614 Z0 F800
G1 X45.531 Y25.02 Z0 F800
G1 X45.165 Y25.255 Z0 F800
; --- FIX Y Backlash ---
G0 X45.165 Y24.755 F410
G1 X43.517 Y24.114 Z0 F800
; --- FIX Y Backlash ---
G0 X43.517 Y24.614 F410
G1 X43.388 Y24.673 Z0 F800
G1 X43.256 Y24.725 Z0 F800
G1 X43.105 Y24.774 Z0 F800
G1 X42.954 Y24.806 Z0 F800
G1 X42.822 Z0 F800
G1 X42.728 Y24.763 Z0 F800
; --- FIX Y Backlash ---
G0 X42.728 Y24.263 F410
G1 X42.693 Y24.16 Z0 F800
G1 X42.67 Y23.668 Z0 F800
G1 X42.693 Y23.49 Z0 F800
; --- FIX X Backlash ---
G0 X43.393 Y23.49 F410
G1 X43.485 Y23.382 Z0 F800
G1 X43.543 Y23.361 Z0 F800
G1 X43.645 Y23.334 Z0 F800
G1 X43.785 Y23.301 Z0 F800
G1 X43.955 Y23.264 Z0 F800
G1 X44.362 Y23.182 Z0 F800
G1 X44.812 Y23.096 Z0 F800
G1 X45.635 Y22.944 Z0 F800
G1 X46.002 Y22.878 Z0 F800
; --- FIX Y Backlash ---
G0 X46.002 Y23.378 F410
G1 X46.019 Y23.428 Z0 F800
G1 X46.071 Y23.533 Z0 F800
G1 X46.157 Y23.629 Z0 F800
G1 X46.277 Y23.653 Z0 F800
G1 X46.385 Y23.622 Z0 F800
; --- FIX Y Backlash ---
G0 X46.385 Y23.122 F410
G1 X46.554 Y23.069 Z0 F800
G1 X46.986 Y22.93 Z0 F800
G1 X47.559 Y22.741 Z0 F800
G1 X47.925 Y21.23 Z0 F800
; --- FIX X Backlash ---
G0 X47.225 Y21.23 F410
G1 X46.309 Y21.276 Z0 F800
; --- FIX Y Backlash ---
G0 X46.309 Y21.776 F410
G1 X44.936 Y22.6 Z0 F800
G1 X43.334 Y22.554 Z0 F800
; --- FIX Y Backlash ---
G0 X43.334 Y22.054 F410
G1 X42.693 Y21.413 Z0 F800
G1 X42.576 Y21.269 Z0 F800
G1 X42.461 Y21.119 Z0 F800
G1 X42.338 Y20.944 Z0 F800
G1 X42.228 Y20.765 Z0 F800
G1 X42.152 Y20.602 Z0 F800
G1 X42.132 Y20.476 Z0 F800
; --- FIX X Backlash ---
G0 X42.832 Y20.476 F410
G1 X42.889 Y20.406 Z0 F800
G1 X43.035 Y20.384 Z0 F800
G1 X43.248 Z0 F800
G1 X43.503 Y20.395 Z0 F800
G1 X43.771 Y20.418 Z0 F800
G1 X44.026 Y20.445 Z0 F800
G1 X44.241 Y20.471 Z0 F800
G1 X44.446 Y20.498 Z0 F800
; --- FIX Y Backlash ---
G0 X44.446 Y20.998 F410
G1 X46.048 Y21.089 Z0 F800
; --- FIX Y Backlash ---
G0 X46.048 Y20.589 F410
G1 X47.513 Y20.269 Z0 F800
; --- FIX X Backlash ---
G0 X46.813 Y20.269 F410
; --- FIX Y Backlash ---
G0 X46.813 Y20.769 F410
G1 X44.158 Y21.685 Z0 F800
; --- FIX Y Backlash ---
G0 X44.158 Y21.185 F410
G1 X41.961 Y19.399 Z0 F800
G1 X41.777 Y15.783 Z0 F800
G1 X40.999 Y15.234 Z0 F800
G1 X36.65 Y15.142 Z0 F800
; --- FIX Y Backlash ---
G0 X36.65 Y15.642 F410
G1 X32.622 Y16.1 Z0 F800
; --- FIX Y Backlash ---
G0 X32.622 Y15.6 F410
G1 X30.516 Y15.05 Z0 F800
; --- FIX Y Backlash ---
G0 X30.516 Y15.55 F410
G1 X29.875 Y18.022 Z0 F800
; --- FIX Y Backlash ---
G0 X29.875 Y17.522 F410
G1 X27.632 Y17.385 Z0 F800
; --- FIX Y Backlash ---
G0 X27.632 Y17.885 F410
G1 X26.671 Y18.938 Z0 F800
G1 X25.756 Y20.266 Z0 F800
G1 X25.801 Y21.776 Z0 F800
G1 X24.062 Y22.097 Z0 F800
G1 X22.277 Z0 F800
; --- FIX Y Backlash ---
G0 X22.277 Y21.597 F410
G1 X21.636 Y21.23 Z0 F800
; --- FIX Y Backlash ---
G0 X21.636 Y21.73 F410
G1 X20.217 Y22.463 Z0 F800
G1 X19.576 Y24.202 Z0 F800
G1 X19.393 Y25.392 Z0 F800
; --- FIX X Backlash ---
G0 X20.093 Y25.392 F410
G1 X20.367 Y26.445 Z0 F800
G1 X20.413 Y27.086 Z0 F800
; --- FIX X Backlash ---
G0 X19.713 Y27.086 F410
G1 X18.523 Y27.269 Z0 F800
; --- FIX Y Backlash ---
G0 X18.523 Y26.769 F410
G1 X16.646 Y26.54 Z0 F800
G1 X15.776 Y25.991 Z0 F800
G1 X15.822 Y25.396 Z0 F800
; --- FIX X Backlash ---
G0 X16.522 Y25.396 F410
G1 X17.895 Y25.304 Z0 F800
; --- FIX Y Backlash ---
G0 X17.895 Y25.804 F410
G1 X18.17 Y26.216 Z0 F800
G1 X20.093 Y26.491 Z0 F800
; --- FIX X Backlash ---
G0 X19.393 Y26.491 F410
; --- FIX Y Backlash ---
G0 X19.393 Y25.991 F410
G1 X18.34 Y25.213 Z0 F800
G1 X18.159 Y25.193 Z0 F800
G1 X17.98 Y25.165 Z0 F800
G1 X17.785 Y25.121 Z0 F800
G1 X17.604 Y25.061 Z0 F800
G1 X17.471 Y24.981 Z0 F800
G1 X17.431 Y24.933 Z0 F800
G1 X17.415 Y24.88 Z0 F800
G1 X17.427 Y24.821 Z0 F800
G1 X17.47 Y24.755 Z0 F800
; --- FIX X Backlash ---
G0 X18.17 Y24.755 F410
G1 X18.317 Y24.624 Z0 F800
G1 X18.505 Y24.508 Z0 F800
G1 X18.716 Y24.406 Z0 F800
G1 X18.931 Y24.32 Z0 F800
G1 X19.131 Y24.252 Z0 F800
G1 X19.297 Y24.202 Z0 F800
G1 X19.452 Y24.16 Z0 F800
; --- FIX X Backlash ---
G0 X18.752 Y24.16 F410
; --- FIX Y Backlash ---
G0 X18.752 Y24.66 F410
G1 X17.699 Y27.727 Z0 F800
; --- FIX Y Backlash ---
G0 X17.699 Y27.227 F410
G1 X16.234 Y25.808 Z0 F800
; --- FIX X Backlash ---
G0 X16.934 Y25.808 F410
G1 X20.001 Y23.29 Z0 F800
; --- FIX X Backlash ---
G0 X19.301 Y23.29 F410
; --- FIX Y Backlash ---
G0 X19.301 Y23.79 F410
G1 X17.699 Y23.973 Z0 F800
; --- FIX X Backlash ---
G0 X18.399 Y23.973 F410
; --- FIX Y Backlash ---
G0 X18.399 Y23.473 F410
G1 X18.811 Y21.917 Z0 F800
; --- FIX X Backlash ---
G0 X18.111 Y21.917 F410
G1 X17.699 Y21.093 Z0 F800
; --- FIX X Backlash ---
G0 X18.399 Y21.093 F410
G1 X19.223 Y19.949 Z0 F800
; --- FIX X Backlash ---
G0 X18.523 Y19.949 F410
G1 X18.019 Y18.896 Z0 F800
; --- FIX X Backlash ---
G0 X18.719 Y18.896 F410
G1 X19.452 Y18.118 Z0 F800
; --- FIX X Backlash ---
G0 X18.752 Y18.118 F410
G1 X18.111 Y17.797 Z0 F800
G1 X17.47 Y17.202 Z0 F800
G1 X17.058 Y16.195 Z0 F800
; --- FIX X Backlash ---
G0 X17.758 Y16.195 F410
G1 X18.307 Y15.005 Z0 F800
;Layer C3 Pass 2 of 2
G1 X20.962 Y14.959 Z0 F800
; --- FIX Y Backlash ---
G0 X20.962 Y15.459 F410
G1 X22.427 Y16.237 Z0 F800
G1 X22.552 Y16.334 Z0 F800
G1 X22.674 Y16.44 Z0 F800
G1 X22.805 Y16.569 Z0 F800
G1 X22.923 Y16.711 Z0 F800
G1 X23.007 Y16.855 Z0 F800
G1 X23.032 Y16.991 Z0 F800
; --- FIX X Backlash ---
G0 X22.332 Y16.991 F410
G1 X22.277 Y17.107 Z0 F800
G1 X22.156 Y17.235 Z0 F800
G1 X22.011 Y17.402 Z0 F800
G1 X21.852 Y17.59 Z0 F800
G1 X21.693 Y17.782 Z0 F800
G1 X21.315 Y18.251 Z0 F800
G1 X19.072 Y18.297 Z0 F800
; --- FIX X Backlash ---
G0 X19.772 Y18.297 F410
G1 X20.184 Y19.579 Z0 F800
; --- FIX X Backlash ---
G0 X19.484 Y19.579 F410
G1 X18.798 Y20.037 Z0 F800
; --- FIX X Backlash ---
G0 X19.498 Y20.037 F410
G1 X20.322 Y21.318 Z0 F800
; --- FIX X Backlash ---
G0 X19.622 Y21.318 F410
G1 X18.752 Y22.188 Z0 F800
; --- FIX X Backlash ---
G0 X19.452 Y22.188 F410
G1 X20.367 Y23.195 Z0 F800
; --- FIX Y Backlash ---
G0 X20.367 Y22.695 F410
G1 X21.191 Y21.047 Z0 F800
; --- FIX X Backlash ---
G0 X20.491 Y21.047 F410
G1 X20.034 Y20.086 Z0 F800
; --- FIX X Backlash ---
G0 X20.734 Y20.086 F410
G1 X20.915 Y19.997 Z0 F800
G1 X21.096 Y19.9 Z0 F800
G1 X21.294 Y19.783 Z0 F800
G1 X21.48 Y19.655 Z0 F800
G1 X21.622 Y19.526 Z0 F800
G1 X21.667 Y19.465 Z0 F800
G1 X21.689 Y19.407 Z0 F800
G1 X21.684 Y19.354 Z0 F800
G1 X21.649 Y19.308 Z0 F800
; --- FIX X Backlash ---
G0 X20.949 Y19.308 F410
G1 X20.733 Y19.111 Z0 F800
G1 X20.526 Y18.902 Z0 F800
G1 X20.37 Y18.735 Z0 F800
G1 X20.308 Y18.667 Z0 F800
; --- FIX X Backlash ---
G0 X21.008 Y18.667 F410
G1 X22.748 Y18.118 Z0 F800
G1 X23.892 Y17.019 Z0 F800
; --- FIX X Backlash ---
G0 X23.192 Y17.019 F410
G1 X23.101 Y15.92 Z0 F800
G1 X22.048 Y15.142 Z0 F800
; --- FIX X Backlash ---
G0 X22.748 Y15.142 F410
; --- FIX Y Backlash ---
G0 X22.748 Y15.642 F410
G1 X24.35 Y15.871 Z0 F800
G1 X24.945 Y16.924 Z0 F800
G1 X24.999 Y17.134 Z0 F800
G1 X25.049 Y17.354 Z0 F800
G1 X25.1 Y17.611 Z0 F800
G1 X25.139 Y17.876 Z0 F800
G1 X25.157 Y18.121 Z0 F800
G1 X25.142 Y18.317 Z0 F800
; --- FIX X Backlash ---
G0 X24.442 Y18.317 F410
G1 X24.382 Y18.435 Z0 F800
G1 X24.265 Y18.522 Z0 F800
G1 X24.1 Y18.641 Z0 F800
G1 X23.701 Y18.915 Z0 F800
G1 X23.192 Y19.258 Z0 F800
G1 X20.949 Y20.311 Z0 F800
; --- FIX X Backlash ---
G0 X21.649 Y20.311 F410
G1 X22.244 Y21.135 Z0 F800
G1 X23.572 Y21.09 Z0 F800
G1 X23.902 Y21.109 Z0 F800
G1 X24.104 Y21.124 Z0 F800
G1 X24.316 Y21.143 Z0 F800
G1 X24.518 Y21.167 Z0 F800
G1 X24.689 Y21.195 Z0 F800
G1 X24.808 Y21.227 Z0 F800
G1 X24.905 Y21.224 Z0 F800
; --- FIX Y Backlash ---
G0 X24.905 Y20.724 F410
G1 X25.019 Y20.658 Z0 F800
G1 X25.14 Y20.55 Z0 F800
G1 X25.26 Y20.418 Z0 F800
G1 X25.369 Y20.282 Z0 F800
G1 X25.458 Y20.16 Z0 F800
G1 X25.54 Y20.04 Z0 F800
; --- FIX X Backlash ---
G0 X24.84 Y20.04 F410
G1 X24.698 Y19.971 Z0 F800
G1 X24.543 Y19.903 Z0 F800
G1 X24.354 Y19.829 Z0 F800
G1 X24.145 Y19.761 Z0 F800
G1 X23.932 Y19.712 Z0 F800
G1 X23.732 Y19.694 Z0 F800
G1 X23.558 Y19.72 Z0 F800
; --- FIX Y Backlash ---
G0 X23.558 Y20.22 F410
G1 X23.181 Y20.283 Z0 F800
G1 X22.769 Z0 F800
G1 X22.598 Y20.265 Z0 F800
G1 X22.477 Y20.239 Z0 F800
G1 X22.424 Y20.208 Z0 F800
G1 X22.46 Y20.174 Z0 F800
; --- FIX X Backlash ---
G0 X23.16 Y20.174 F410
G1 X23.221 Y20.146 Z0 F800
G1 X23.314 Y20.099 Z0 F800
; --- FIX Y Backlash ---
G0 X23.314 Y19.599 F410
G1 X23.435 Y19.534 Z0 F800
G1 X23.912 Y19.272 Z0 F800
G1 X24.276 Y19.067 Z0 F800
G1 X25.22 Y18.53 Z0 F800
; --- FIX Y Backlash ---
G0 X25.22 Y19.03 F410
G1 X26.41 Y19.579 Z0 F800
; --- FIX Y Backlash ---
G0 X26.41 Y19.079 F410
G1 X26.53 Y18.989 Z0 F800
G1 X26.651 Y18.891 Z0 F800
G1 X26.788 Y18.77 Z0 F800
G1 X26.92 Y18.636 Z0 F800
G1 X27.028 Y18.5 Z0 F800
G1 X27.093 Y18.369 Z0 F800
G1 X27.097 Y18.255 Z0 F800
; --- FIX X Backlash ---
G0 X26.397 Y18.255 F410
G1 X26.331 Y18.131 Z0 F800
G1 X26.215 Y17.975 Z0 F800
G1 X26.067 Y17.801 Z0 F800
G1 X25.904 Y17.625 Z0 F800
G1 X25.747 Y17.463 Z0 F800
G1 X25.611 Y17.328 Z0 F800
G1 X25.481 Y17.202 Z0 F800
G1 X25.069 Y16.058 Z0 F800
G1 X24.84 Y15.279 Z0 F800
; --- FIX X Backlash ---
G0 X25.54 Y15.279 F410
G1 X26.273 Y15.234 Z0 F800
; --- FIX Y Backlash ---
G0 X26.273 Y15.734 F410
G1 X26.492 Y15.977 Z0 F800
G1 X26.622 Y16.128 Z0 F800
G1 X26.753 Y16.29 Z0 F800
G1 X26.871 Y16.448 Z0 F800
G1 X26.96 Y16.588 Z0 F800
G1 X27.005 Y16.695 Z0 F800
G1 X27.044 Y16.806 Z0 F800
G1 X27.117 Y16.956 Z0 F800
G1 X27.213 Y17.129 Z0 F800
G1 X27.32 Y17.307 Z0 F800
G1 X27.424 Y17.475 Z0 F800
G1 X27.6 Y17.748 Z0 F800
; --- FIX Y Backlash ---
G0 X27.6 Y17.248 F410
G1 X30.255 Y15.92 Z0 F800
; --- FIX X Backlash ---
G0 X29.555 Y15.92 F410
G1 X28.594 Y15.279 Z0 F800
; --- FIX Y Backlash ---
G0 X28.594 Y15.779 F410
G1 X27.083 Y16.329 Z0 F800
G1 X27.129 Y16.878 Z0 F800
; --- FIX X Backlash ---
G0 X27.829 Y16.878 F410
; --- FIX Y Backlash ---
G0 X27.829 Y16.378 F410
G1 X28.039 Y16.327 Z0 F800
G1 X28.516 Y16.206 Z0 F800
G1 X28.781 Y16.137 Z0 F800
G1 X29.026 Y16.069 Z0 F800
G1 X29.222 Y16.01 Z0 F800
G1 X29.34 Y15.966 Z0 F800
G1 X29.477 Y15.902 Z0 F800
G1 X29.724 Y15.792 Z0 F800
G1 X31.308 Y15.096 Z0 F800
G1 X33.643 Y15.005 Z0 F800
; --- FIX Y Backlash ---
G0 X33.643 Y15.505 F410
G1 X37.9 Y15.642 Z0 F800
; --- FIX Y Backlash ---
G0 X37.9 Y15.142 F410
G1 X41.608 Y14.959 Z0 F800
; --- FIX Y Backlash ---
G0 X41.608 Y15.459 F410
G1 X42.478 Y16.191 Z0 F800
; --- FIX X Backlash ---
G0 X41.778 Y16.191 F410
G1 X41.549 Y20.174 Z0 F800
; --- FIX X Backlash ---
G0 X42.249 Y20.174 F410
G1 X43.576 Y20.952 Z0 F800
; --- FIX X Backlash ---
G0 X42.876 Y20.952 F410
G1 X42.785 Y26.216 Z0 F800
G1 Y32.671 Z0 F800
; --- FIX X Backlash ---
G0 X43.485 Y32.671 F410
G1 X44.766 Y33.175 Z0 F800
; --- FIX Y Backlash ---
G0 X44.766 Y32.675 F410
G1 X45.224 Y29.241 Z0 F800
; --- FIX X Backlash ---
G0 X44.524 Y29.241 F410
G1 X43.288 Y26.357 Z0 F800
; --- FIX X Backlash ---
G0 X43.988 Y26.357 F410
G1 X44.146 Y25.909 Z0 F800
G1 X44.498 Y24.898 Z0 F800
G1 X44.688 Y24.339 Z0 F800
G1 X44.857 Y23.827 Z0 F800
G1 X44.927 Y23.609 Z0 F800
G1 X44.983 Y23.426 Z0 F800
G1 X45.022 Y23.287 Z0 F800
G1 X45.041 Y23.199 Z0 F800
G1 Y23.12 Z0 F800
G1 X45.019 Y23.006 Z0 F800
G1 X44.982 Y22.864 Z0 F800
G1 X44.932 Y22.699 Z0 F800
; --- FIX X Backlash ---
G0 X44.232 Y22.699 F410
G1 X44.101 Y22.319 Z0 F800
G1 X43.946 Y21.911 Z0 F800
G1 X43.79 Y21.518 Z0 F800
G1 X43.652 Y21.184 Z0 F800
G1 X43.517 Y20.864 Z0 F800
; --- FIX X Backlash ---
G0 X44.217 Y20.864 F410
G1 X45.041 Y20.406 Z0 F800
; --- FIX Y Backlash ---
G0 X45.041 Y20.906 F410
G1 X46.323 Y22.051 Z0 F800
G1 X46.369 Y24.431 Z0 F800
; --- FIX X Backlash ---
G0 X45.669 Y24.431 F410
G1 X44.662 Y26.674 Z0 F800
; --- FIX X Backlash ---
G0 X45.362 Y26.674 F410
G1 X45.651 Y27.121 Z0 F800
G1 X45.819 Y27.389 Z0 F800
G1 X45.987 Y27.669 Z0 F800
G1 X46.134 Y27.929 Z0 F800
G1 X46.193 Y28.044 Z0 F800
G1 X46.238 Y28.142 Z0 F800
G1 X46.267 Y28.221 Z0 F800
G1 X46.277 Y28.276 Z0 F800
G1 X46.27 Y28.759 Z0 F800
G1 X46.231 Y30.748 Z0 F800
G1 X46.46 Y32.488 Z0 F800
G1 X46.663 Y32.491 Z0 F800
G1 X46.866 Y32.488 Z0 F800
G1 X47.09 Y32.476 Z0 F800
G1 X47.301 Y32.452 Z0 F800
G1 X47.464 Y32.411 Z0 F800
G1 X47.518 Y32.382 Z0 F800
G1 X47.547 Y32.348 Z0 F800
G1 Y32.307 Z0 F800
G1 X47.513 Y32.259 Z0 F800
; --- FIX X Backlash ---
G0 X46.813 Y32.259 F410
; --- FIX Y Backlash ---
G0 X46.813 Y31.759 F410
G1 X46.759 Y31.672 Z0 F800
G1 X46.699 Y31.519 Z0 F800
G1 X46.635 Y31.311 Z0 F800
G1 X46.568 Y31.057 Z0 F800
G1 X46.432 Y30.451 Z0 F800
G1 X46.298 Y29.779 Z0 F800
G1 X46.177 Y29.121 Z0 F800
G1 X46.079 Y28.553 Z0 F800
G1 X45.989 Y28.005 Z0 F800
G1 X45.76 Y24.755 Z0 F800
; --- FIX X Backlash ---
G0 X46.46 Y24.755 F410
G1 X46.689 Y23.668 Z0 F800
G1 X46.773 Y23.249 Z0 F800
G1 X46.846 Y22.863 Z0 F800
G1 X46.876 Y22.696 Z0 F800
G1 X46.898 Y22.556 Z0 F800
G1 X46.913 Y22.447 Z0 F800
G1 X46.918 Y22.375 Z0 F800
G1 X46.915 Y22.307 Z0 F800
G1 X46.897 Y22.087 Z0 F800
; --- FIX X Backlash ---
G0 X46.197 Y22.087 F410
G1 X46.146 Y21.617 Z0 F800
G1 X46.104 Y21.265 Z0 F800
G1 X45.989 Y20.361 Z0 F800
; --- FIX X Backlash ---
G0 X46.689 Y20.361 F410
; --- FIX Y Backlash ---
G0 X46.689 Y20.861 F410
G1 X47.513 Y21.227 Z0 F800
G1 Y32.03 Z0 F800
G1 X48.749 Y33.083 Z0 F800
G1 X55.112 Y33.129 Z0 F800
; --- FIX X Backlash ---
G0 X54.412 Y33.129 F410
; --- FIX Y Backlash ---
G0 X54.412 Y32.629 F410
G1 X54.046 Y29.195 Z0 F800
; --- FIX X Backlash ---
G0 X54.746 Y29.195 F410
G1 X55.295 Y27.639 Z0 F800
; --- FIX X Backlash ---
G0 X54.595 Y27.639 F410
G1 X53.496 Y27.318 Z0 F800
; --- FIX X Backlash ---
G0 X54.196 Y27.318 F410
; --- FIX Y Backlash ---
G0 X54.196 Y27.818 F410
G1 X55.295 Y27.956 Z0 F800
G1 X55.753 Y29.421 Z0 F800
G1 Y31.114 Z0 F800
G1 X55.89 Y32.259 Z0 F800
; --- FIX X Backlash ---
G0 X55.19 Y32.259 F410
G1 X55.053 Y33.54 Z0 F800
G1 X54.32 Y34.41 Z0 F800
; --- FIX Y Backlash ---
G0 X54.32 Y33.91 F410
G1 X53.313 Y33.178 Z0 F800
; --- FIX X Backlash ---
G0 X54.013 Y33.178 F410
G1 X54.654 Y32.033 Z0 F800
; --- FIX X Backlash ---
G0 X53.954 Y32.033 F410
G1 X53.817 Y30.065 Z0 F800
G1 X53.679 Y28.234 Z0 F800
; --- FIX Y Backlash ---
G0 X53.679 Y28.734 F410
G1 X53.313 Y29.833 Z0 F800
; --- FIX X Backlash ---
G0 X54.013 Y29.833 F410
G1 X54.196 Y32.03 Z0 F800
; --- FIX X Backlash ---
G0 X53.496 Y32.03 F410
G1 X52.901 Y33.083 Z0 F800
G1 X46.584 Y33.129 Z0 F800
G1 X45.302 Y33.22 Z0 F800
G1 X43.517 Y33.632 Z0 F800
; --- FIX Y Backlash ---
G0 X43.517 Y33.132 F410
G1 X42.51 Y32.491 Z0 F800
; --- FIX X Backlash ---
G0 X43.21 Y32.491 F410
G1 X43.576 Y31.255 Z0 F800
; --- FIX Y Backlash ---
G0 X43.576 Y31.755 F410
G1 X46.368 Y32.533 Z0 F800
; --- FIX Y Backlash ---
G0 X46.368 Y32.033 F410
G1 X47.376 Y31.209 Z0 F800
G1 X47.433 Y31.109 Z0 F800
G1 X47.482 Y31.007 Z0 F800
G1 X47.524 Y30.889 Z0 F800
G1 X47.545 Y30.771 Z0 F800
G1 X47.53 Y30.669 Z0 F800
; --- FIX X Backlash ---
G0 X46.83 Y30.669 F410
G1 X46.763 Y30.596 Z0 F800
G1 X46.63 Y30.569 Z0 F800
G1 X46.022 Y30.576 Z0 F800
G1 X43.975 Y30.614 Z0 F800
G1 X42.83 Y30.477 Z0 F800
G1 X42.87 Y30.298 Z0 F800
G1 X42.915 Y30.115 Z0 F800
; --- FIX X Backlash ---
G0 X43.615 Y30.115 F410
G1 X43.673 Y29.905 Z0 F800
G1 X43.743 Y29.695 Z0 F800
G1 X43.82 Y29.511 Z0 F800
G1 X43.903 Y29.382 Z0 F800
G1 X43.988 Y29.333 Z0 F800
G1 X44.049 Y29.34 Z0 F800
G1 X44.142 Y29.36 Z0 F800
G1 X44.263 Y29.392 Z0 F800
G1 X44.406 Y29.433 Z0 F800
; --- FIX Y Backlash ---
G0 X44.406 Y29.933 F410
G1 X44.74 Y30.035 Z0 F800
G1 X45.104 Y30.153 Z0 F800
G1 X45.457 Y30.271 Z0 F800
G1 X46.048 Y30.474 Z0 F800
; --- FIX Y Backlash ---
G0 X46.048 Y29.974 F410
G1 X47.742 Y29.287 Z0 F800
G1 X47.737 Y29.15 Z0 F800
G1 X47.725 Y29.009 Z0 F800
G1 X47.702 Y28.846 Z0 F800
G1 X47.663 Y28.681 Z0 F800
; --- FIX X Backlash ---
G0 X46.963 Y28.681 F410
G1 X46.907 Y28.534 Z0 F800
G1 X46.827 Y28.424 Z0 F800
G1 X46.721 Y28.371 Z0 F800
G1 X46.644 Y28.366 Z0 F800
G1 X46.535 Z0 F800
G1 X46.399 Y28.371 Z0 F800
G1 X46.243 Y28.381 Z0 F800
G1 X45.885 Y28.409 Z0 F800
G1 X45.502 Y28.446 Z0 F800
G1 X45.135 Y28.484 Z0 F800
; --- FIX Y Backlash ---
G0 X45.135 Y28.984 F410
G1 X44.524 Y29.054 Z0 F800
G1 X44.327 Y29.084 Z0 F800
G1 X44.118 Y29.108 Z0 F800
G1 X43.872 Y29.123 Z0 F800
G1 X43.612 Z0 F800
G1 X43.365 Y29.093 Z0 F800
; --- FIX Y Backlash ---
G0 X43.365 Y28.593 F410
G1 X43.157 Y28.528 Z0 F800
G1 X43.013 Y28.417 Z0 F800
G1 X42.753 Y28.194 Z0 F800
G1 X42.475 Y28.039 Z0 F800
G1 X42.373 Y27.972 Z0 F800
G1 X42.318 Y27.902 Z0 F800
G1 X42.327 Y27.824 Z0 F800
; --- FIX X Backlash ---
G0 X43.027 Y27.824 F410
G1 X43.118 Y27.73 Z0 F800
G1 X43.31 Y27.632 Z0 F800
G1 X43.587 Y27.543 Z0 F800
G1 X43.916 Y27.465 Z0 F800
G1 X44.263 Y27.399 Z0 F800
G1 X44.592 Y27.345 Z0 F800
G1 X44.869 Y27.306 Z0 F800
G1 X45.132 Y27.273 Z0 F800
; --- FIX Y Backlash ---
G0 X45.132 Y27.773 F410
G1 X46.735 Y28.23 Z0 F800
; --- FIX Y Backlash ---
G0 X46.735 Y27.73 F410
G1 X47.833 Y26.998 Z0 F800
G1 X47.808 Y26.972 Z0 F800
; --- FIX X Backlash ---
G0 X47.108 Y26.972 F410
G1 X47.037 Y26.904 Z0 F800
G1 X46.923 Y26.807 Z0 F800
G1 X46.773 Y26.695 Z0 F800
G1 X46.59 Y26.58 Z0 F800
G1 X46.38 Y26.477 Z0 F800
G1 X46.148 Y26.398 Z0 F800
G1 X45.897 Y26.357 Z0 F800
G1 X45.597 Y26.362 Z0 F800
G1 X45.232 Y26.402 Z0 F800
; --- FIX Y Backlash ---
G0 X45.232 Y26.902 F410
G1 X44.83 Y26.967 Z0 F800
G1 X44.421 Y27.046 Z0 F800
G1 X43.696 Y27.198 Z0 F800
G1 X43.438 Y27.25 Z0 F800
G1 X43.347 Y27.264 Z0 F800
G1 X43.288 Y27.269 Z0 F800
G1 X43.136 Y27.273 Z0 F800
G1 X42.877 Y27.283 Z0 F800
G1 X42.195 Y27.315 Z0 F800
G1 X41.274 Y27.361 Z0 F800
G1 X40.587 Y27.956 Z0 F800
; --- FIX Y Backlash ---
G0 X40.587 Y27.456 F410
G1 X40.267 Y27.044 Z0 F800
; --- FIX X Backlash ---
G0 X40.967 Y27.044 F410
G1 X41.196 Y26.128 Z0 F800
G1 X41.241 Y25.442 Z0 F800
G1 X42.249 Y24.847 Z0 F800
; --- FIX Y Backlash ---
G0 X42.249 Y25.347 F410
G1 X42.569 Y26.354 Z0 F800
; --- FIX Y Backlash ---
G0 X42.569 Y25.854 F410
G1 X44.675 Y25.442 Z0 F800
G1 X45.911 Y25.213 Z0 F800
; --- FIX Y Backlash ---
G0 X45.911 Y25.713 F410
G1 X47.742 Y26.216 Z0 F800
; --- FIX Y Backlash ---
G0 X47.742 Y25.716 F410
G1 X48.199 Y24.16 Z0 F800
; --- FIX X Backlash ---
G0 X47.499 Y24.16 F410
G1 X47.344 Y24.121 Z0 F800
G1 X47.176 Y24.085 Z0 F800
G1 X46.973 Y24.051 Z0 F800
G1 X46.753 Y24.028 Z0 F800
G1 X46.534 Y24.025 Z0 F800
G1 X46.334 Y24.05 Z0 F800
; --- FIX Y Backlash ---
G0 X46.334 Y24.55 F410
G1 X46.172 Y24.614 Z0 F800
G1 X45.531 Y25.02 Z0 F800
G1 X45.165 Y25.255 Z0 F800
; --- FIX Y Backlash ---
G0 X45.165 Y24.755 F410
G1 X43.517 Y24.114 Z0 F800
; --- FIX Y Backlash ---
G0 X43.517 Y24.614 F410
G1 X43.388 Y24.673 Z0 F800
G1 X43.256 Y24.725 Z0 F800
G1 X43.105 Y24.774 Z0 F800
G1 X42.954 Y24.806 Z0 F800
G1 X42.822 Z0 F800
G1 X42.728 Y24.763 Z0 F800
; --- FIX Y Backlash ---
G0 X42.728 Y24.263 F410
G1 X42.693 Y24.16 Z0 F800
G1 X42.67 Y23.668 Z0 F800
G1 X42.693 Y23.49 Z0 F800
; --- FIX X Backlash ---
G0 X43.393 Y23.49 F410
G1 X43.485 Y23.382 Z0 F800
G1 X43.543 Y23.361 Z0 F800
G1 X43.645 Y23.334 Z0 F800
G1 X43.785 Y23.301 Z0 F800
G1 X43.955 Y23.264 Z0 F800
G1 X44.362 Y23.182 Z0 F800
G1 X44.812 Y23.096 Z0 F800
G1 X45.635 Y22.944 Z0 F800
G1 X46.002 Y22.878 Z0 F800
; --- FIX Y Backlash ---
G0 X46.002 Y23.378 F410
G1 X46.019 Y23.428 Z0 F800
G1 X46.071 Y23.533 Z0 F800
G1 X46.157 Y23.629 Z0 F800
G1 X46.277 Y23.653 Z0 F800
G1 X46.385 Y23.622 Z0 F800
; --- FIX Y Backlash ---
G0 X46.385 Y23.122 F410
G1 X46.554 Y23.069 Z0 F800
G1 X46.986 Y22.93 Z0 F800
G1 X47.559 Y22.741 Z0 F800
G1 X47.925 Y21.23 Z0 F800
; --- FIX X Backlash ---
G0 X47.225 Y21.23 F410
G1 X46.309 Y21.276 Z0 F800
; --- FIX Y Backlash ---
G0 X46.309 Y21.776 F410
G1 X44.936 Y22.6 Z0 F800
G1 X43.334 Y22.554 Z0 F800
; --- FIX Y Backlash ---
G0 X43.334 Y22.054 F410
G1 X42.693 Y21.413 Z0 F800
G1 X42.576 Y21.269 Z0 F800
G1 X42.461 Y21.119 Z0 F800
G1 X42.338 Y20.944 Z0 F800
G1 X42.228 Y20.765 Z0 F800
G1 X42.152 Y20.602 Z0 F800
G1 X42.132 Y20.476 Z0 F800
; --- FIX X Backlash ---
G0 X42.832 Y20.476 F410
G1 X42.889 Y20.406 Z0 F800
G1 X43.035 Y20.384 Z0 F800
G1 X43.248 Z0 F800
G1 X43.503 Y20.395 Z0 F800
G1 X43.771 Y20.418 Z0 F800
G1 X44.026 Y20.445 Z0 F800
G1 X44.241 Y20.471 Z0 F800
G1 X44.446 Y20.498 Z0 F800
; --- FIX Y Backlash ---
G0 X44.446 Y20.998 F410
G1 X46.048 Y21.089 Z0 F800
; --- FIX Y Backlash ---
G0 X46.048 Y20.589 F410
G1 X47.513 Y20.269 Z0 F800
; --- FIX X Backlash ---
G0 X46.813 Y20.269 F410
; --- FIX Y Backlash ---
G0 X46.813 Y20.769 F410
G1 X44.158 Y21.685 Z0 F800
; --- FIX Y Backlash ---
G0 X44.158 Y21.185 F410
G1 X41.961 Y19.399 Z0 F800
G1 X41.777 Y15.783 Z0 F800
G1 X40.999 Y15.234 Z0 F800
G1 X36.65 Y15.142 Z0 F800
; --- FIX Y Backlash ---
G0 X36.65 Y15.642 F410
G1 X32.622 Y16.1 Z0 F800
; --- FIX Y Backlash ---
G0 X32.622 Y15.6 F410
G1 X30.516 Y15.05 Z0 F800
; --- FIX Y Backlash ---
G0 X30.516 Y15.55 F410
G1 X29.875 Y18.022 Z0 F800
; --- FIX Y Backlash ---
G0 X29.875 Y17.522 F410
G1 X27.632 Y17.385 Z0 F800
; --- FIX Y Backlash ---
G0 X27.632 Y17.885 F410
G1 X26.671 Y18.938 Z0 F800
G1 X25.756 Y20.266 Z0 F800
G1 X25.801 Y21.776 Z0 F800
G1 X24.062 Y22.097 Z0 F800
G1 X22.277 Z0 F800
; --- FIX Y Backlash ---
G0 X22.277 Y21.597 F410
G1 X21.636 Y21.23 Z0 F800
; --- FIX Y Backlash ---
G0 X21.636 Y21.73 F410
G1 X20.217 Y22.463 Z0 F800
G1 X19.576 Y24.202 Z0 F800
G1 X19.393 Y25.392 Z0 F800
; --- FIX X Backlash ---
G0 X20.093 Y25.392 F410
G1 X20.367 Y26.445 Z0 F800
G1 X20.413 Y27.086 Z0 F800
; --- FIX X Backlash ---
G0 X19.713 Y27.086 F410
G1 X18.523 Y27.269 Z0 F800
; --- FIX Y Backlash ---
G0 X18.523 Y26.769 F410
G1 X16.646 Y26.54 Z0 F800
G1 X15.776 Y25.991 Z0 F800
G1 X15.822 Y25.396 Z0 F800
; --- FIX X Backlash ---
G0 X16.522 Y25.396 F410
G1 X17.895 Y25.304 Z0 F800
; --- FIX Y Backlash ---
G0 X17.895 Y25.804 F410
G1 X18.17 Y26.216 Z0 F800
G1 X20.093 Y26.491 Z0 F800
; --- FIX X Backlash ---
G0 X19.393 Y26.491 F410
; --- FIX Y Backlash ---
G0 X19.393 Y25.991 F410
G1 X18.34 Y25.213 Z0 F800
G1 X18.159 Y25.193 Z0 F800
G1 X17.98 Y25.165 Z0 F800
G1 X17.785 Y25.121 Z0 F800
G1 X17.604 Y25.061 Z0 F800
G1 X17.471 Y24.981 Z0 F800
G1 X17.431 Y24.933 Z0 F800
G1 X17.415 Y24.88 Z0 F800
G1 X17.427 Y24.821 Z0 F800
G1 X17.47 Y24.755 Z0 F800
; --- FIX X Backlash ---
G0 X18.17 Y24.755 F410
G1 X18.317 Y24.624 Z0 F800
G1 X18.505 Y24.508 Z0 F800
G1 X18.716 Y24.406 Z0 F800
G1 X18.931 Y24.32 Z0 F800
G1 X19.131 Y24.252 Z0 F800
G1 X19.297 Y24.202 Z0 F800
G1 X19.452 Y24.16 Z0 F800
; --- FIX X Backlash ---
G0 X18.752 Y24.16 F410
; --- FIX Y Backlash ---
G0 X18.752 Y24.66 F410
G1 X17.699 Y27.727 Z0 F800
; --- FIX Y Backlash ---
G0 X17.699 Y27.227 F410
G1 X16.234 Y25.808 Z0 F800
; --- FIX X Backlash ---
G0 X16.934 Y25.808 F410
G1 X20.001 Y23.29 Z0 F800
; --- FIX X Backlash ---
G0 X19.301 Y23.29 F410
; --- FIX Y Backlash ---
G0 X19.301 Y23.79 F410
G1 X17.699 Y23.973 Z0 F800
; --- FIX X Backlash ---
G0 X18.399 Y23.973 F410
; --- FIX Y Backlash ---
G0 X18.399 Y23.473 F410
G1 X18.811 Y21.917 Z0 F800
; --- FIX X Backlash ---
G0 X18.111 Y21.917 F410
G1 X17.699 Y21.093 Z0 F800
; --- FIX X Backlash ---
G0 X18.399 Y21.093 F410
G1 X19.223 Y19.949 Z0 F800
; --- FIX X Backlash ---
G0 X18.523 Y19.949 F410
G1 X18.019 Y18.896 Z0 F800
; --- FIX X Backlash ---
G0 X18.719 Y18.896 F410
G1 X19.452 Y18.118 Z0 F800
; --- FIX X Backlash ---
G0 X18.752 Y18.118 F410
G1 X18.111 Y17.797 Z0 F800
G1 X17.47 Y17.202 Z0 F800
G1 X17.058 Y16.195 Z0 F800
; --- FIX X Backlash ---
G0 X17.758 Y16.195 F410
G1 X18.307 Y15.005 Z0 F800
G0 Z3.5 F800
; --- FIX Y Backlash ---
G0 X18.307 Y15.505 F410
G0 X29.751 Y20.86 Z3.5 F800
G1 Z0 F800
;Layer C3 Pass 1 of 2
G1 X31.125 Y20.998 Z0 F800
G1 X33.185 Y20.952 Z0 F800
G1 X33.459 Y21.364 Z0 F800
G1 X33.551 Y22.737 Z0 F800
; --- FIX X Backlash ---
G0 X32.851 Y22.737 F410
G1 X32.668 Y23.332 Z0 F800
; --- FIX Y Backlash ---
G0 X32.668 Y22.832 F410
G1 X30.791 Y22.512 Z0 F800
G1 X29.326 Y22.42 Z0 F800
; --- FIX Y Backlash ---
G0 X29.326 Y22.92 F410
G1 X28.868 Y23.103 Z0 F800
; --- FIX X Backlash ---
G0 X29.568 Y23.103 F410
G1 X30.163 Y23.378 Z0 F800
G1 X31.811 Z0 F800
G1 X33.414 Y23.561 Z0 F800
G1 X33.917 Y24.889 Z0 F800
G1 X33.871 Y26.125 Z0 F800
G1 Y27.452 Z0 F800
; --- FIX X Backlash ---
G0 X33.171 Y27.452 F410
G1 X32.668 Y27.91 Z0 F800
; --- FIX Y Backlash ---
G0 X32.668 Y27.41 F410
G1 X32.485 Y17.476 Z0 F800
; --- FIX X Backlash ---
G0 X33.185 Y17.476 F410
G1 X36.893 Z0 F800
G1 X38.632 Y17.156 Z0 F800
G1 X40.326 Z0 F800
; --- FIX Y Backlash ---
G0 X40.326 Y17.656 F410
G1 X40.875 Y18.114 Z0 F800
; --- FIX X Backlash ---
G0 X40.175 Y18.114 F410
G1 X39.031 Y18.571 Z0 F800
; --- FIX Y Backlash ---
G0 X39.031 Y18.071 F410
G1 X37.841 Y17.843 Z0 F800
G1 X35.735 Y17.522 Z0 F800
G1 X33.675 Y17.385 Z0 F800
; --- FIX Y Backlash ---
G0 X33.675 Y17.885 F410
G1 X32.714 Y18.617 Z0 F800
G1 X32.622 Y19.899 Z0 F800
; --- FIX X Backlash ---
G0 X33.322 Y19.899 F410
G1 X33.459 Y20.494 Z0 F800
; --- FIX X Backlash ---
G0 X32.759 Y20.494 F410
G1 X32.164 Y20.677 Z0 F800
; --- FIX Y Backlash ---
G0 X32.164 Y20.177 F410
G1 X29.83 Y19.857 Z0 F800
; --- FIX Y Backlash ---
G0 X29.83 Y20.357 F410
G1 X29.051 Y20.86 Z0 F800
;Layer C3 Pass 2 of 2
; --- FIX X Backlash ---
G0 X29.751 Y20.86 F410
G1 X31.125 Y20.998 Z0 F800
G1 X33.185 Y20.952 Z0 F800
G1 X33.459 Y21.364 Z0 F800
G1 X33.551 Y22.737 Z0 F800
; --- FIX X Backlash ---
G0 X32.851 Y22.737 F410
G1 X32.668 Y23.332 Z0 F800
; --- FIX Y Backlash ---
G0 X32.668 Y22.832 F410
G1 X30.791 Y22.512 Z0 F800
G1 X29.326 Y22.42 Z0 F800
; --- FIX Y Backlash ---
G0 X29.326 Y22.92 F410
G1 X28.868 Y23.103 Z0 F800
; --- FIX X Backlash ---
G0 X29.568 Y23.103 F410
G1 X30.163 Y23.378 Z0 F800
G1 X31.811 Z0 F800
G1 X33.414 Y23.561 Z0 F800
G1 X33.917 Y24.889 Z0 F800
G1 X33.871 Y26.125 Z0 F800
G1 Y27.452 Z0 F800
; --- FIX X Backlash ---
G0 X33.171 Y27.452 F410
G1 X32.668 Y27.91 Z0 F800
; --- FIX Y Backlash ---
G0 X32.668 Y27.41 F410
G1 X32.485 Y17.476 Z0 F800
; --- FIX X Backlash ---
G0 X33.185 Y17.476 F410
G1 X36.893 Z0 F800
G1 X38.632 Y17.156 Z0 F800
G1 X40.326 Z0 F800
; --- FIX Y Backlash ---
G0 X40.326 Y17.656 F410
G1 X40.875 Y18.114 Z0 F800
; --- FIX X Backlash ---
G0 X40.175 Y18.114 F410
G1 X39.031 Y18.571 Z0 F800
; --- FIX Y Backlash ---
G0 X39.031 Y18.071 F410
G1 X37.841 Y17.843 Z0 F800
G1 X35.735 Y17.522 Z0 F800
G1 X33.675 Y17.385 Z0 F800
; --- FIX Y Backlash ---
G0 X33.675 Y17.885 F410
G1 X32.714 Y18.617 Z0 F800
G1 X32.622 Y19.899 Z0 F800
; --- FIX X Backlash ---
G0 X33.322 Y19.899 F410
G1 X33.459 Y20.494 Z0 F800
; --- FIX X Backlash ---
G0 X32.759 Y20.494 F410
G1 X32.164 Y20.677 Z0 F800
; --- FIX Y Backlash ---
G0 X32.164 Y20.177 F410
G1 X29.83 Y19.857 Z0 F800
; --- FIX Y Backlash ---
G0 X29.83 Y20.357 F410
G1 X29.051 Y20.86 Z0 F800
G0 Z3.5 F800
; --- FIX X Backlash ---
G0 X29.751 Y20.86 F410
; --- FIX Y Backlash ---
G0 X29.751 Y20.36 F410
G0 X36.069 Y20.223 Z3.5
G1 Z0 F800
;Layer C3 Pass 1 of 2
G1 X38.22 Y20.177 Z0 F800
G1 X39.685 Y20.223 Z0 F800
; --- FIX Y Backlash ---
G0 X39.685 Y20.723 F410
G1 X39.868 Y21.043 Z0 F800
; --- FIX X Backlash ---
G0 X39.168 Y21.043 F410
G1 X37.658 Y21.135 Z0 F800
; --- FIX Y Backlash ---
G0 X37.658 Y20.635 F410
G1 X35.918 Y20.543 Z0 F800
; --- FIX Y Backlash ---
G0 X35.918 Y21.043 F410
G1 X35.552 Y21.41 Z0 F800
G1 X35.094 Y22.829 Z0 F800
; --- FIX X Backlash ---
G0 X35.794 Y22.829 F410
G1 X36.618 Y23.058 Z0 F800
G1 X38.724 Z0 F800
; --- FIX Y Backlash ---
G0 X38.724 Y22.558 F410
G1 X40.143 Y22.329 Z0 F800
; --- FIX Y Backlash ---
G0 X40.143 Y22.829 F410
G1 X40.097 Y23.378 Z0 F800
; --- FIX X Backlash ---
G0 X39.397 Y23.378 F410
G1 X37.474 Y23.561 Z0 F800
; --- FIX Y Backlash ---
G0 X37.474 Y23.061 F410
G1 X35.46 Y22.878 Z0 F800
; --- FIX Y Backlash ---
G0 X35.46 Y23.378 F410
G1 Y25.346 Z0 F800
G1 X35.506 Y27.727 Z0 F800
; --- FIX X Backlash ---
G0 X36.206 Y27.727 F410
G1 X36.343 Y28.917 Z0 F800
G1 X36.349 Y29.099 Z0 F800
G1 X36.334 Y29.35 Z0 F800
G1 X36.306 Y29.643 Z0 F800
G1 X36.269 Y29.947 Z0 F800
G1 X36.23 Y30.234 Z0 F800
G1 X36.195 Y30.475 Z0 F800
G1 X36.16 Y30.702 Z0 F800
; --- FIX X Backlash ---
G0 X35.46 Y30.702 F410
G1 X35.271 Y30.708 Z0 F800
G1 X35.016 Y30.722 Z0 F800
G1 X34.636 Y30.748 Z0 F800
G1 X34.359 Y30.755 Z0 F800
G1 X33.999 Y30.746 Z0 F800
G1 X33.593 Y30.725 Z0 F800
G1 X33.177 Y30.697 Z0 F800
G1 X32.79 Y30.666 Z0 F800
G1 X32.467 Y30.639 Z0 F800
G1 X32.164 Y30.611 Z0 F800
; --- FIX Y Backlash ---
G0 X32.164 Y30.111 F410
G1 X30.745 Y29.378 Z0 F800
G1 X30.242 Y28.554 Z0 F800
G1 X30.202 Y28.371 Z0 F800
G1 X30.164 Y28.166 Z0 F800
G1 X30.127 Y27.908 Z0 F800
G1 X30.099 Y27.613 Z0 F800
G1 X30.087 Y27.299 Z0 F800
G1 X30.101 Y26.982 Z0 F800
G1 X30.15 Y26.678 Z0 F800
; --- FIX X Backlash ---
G0 X30.85 Y26.678 F410
G1 X30.907 Y26.395 Z0 F800
G1 X30.942 Y26.135 Z0 F800
G1 X30.96 Y25.901 Z0 F800
G1 X30.965 Y25.699 Z0 F800
G1 X30.961 Y25.534 Z0 F800
G1 X30.953 Y25.409 Z0 F800
G1 X30.942 Y25.304 Z0 F800
; --- FIX X Backlash ---
G0 X30.242 Y25.304 F410
G1 X29.601 Y25.03 Z0 F800
; --- FIX Y Backlash ---
G0 X29.601 Y25.53 F410
G1 X29.326 Y26.445 Z0 F800
; --- FIX X Backlash ---
G0 X30.026 Y26.445 F410
G1 X30.118 Y27.91 Z0 F800
; --- FIX X Backlash ---
G0 X29.418 Y27.91 F410
; --- FIX Y Backlash ---
G0 X29.418 Y27.41 F410
G1 X28.868 Y27.044 Z0 F800
G1 X28.502 Y25.442 Z0 F800
; --- FIX X Backlash ---
G0 X29.202 Y25.442 F410
; --- FIX Y Backlash ---
G0 X29.202 Y25.942 F410
G1 X30.347 Y26.582 Z0 F800
; --- FIX X Backlash ---
G0 X29.647 Y26.582 F410
G1 X29.372 Y29.375 Z0 F800
; --- FIX X Backlash ---
G0 X30.072 Y29.375 F410
G1 X31.445 Y29.421 Z0 F800
G1 X32.132 Y30.565 Z0 F800
G1 X33.734 Y31.023 Z0 F800
; --- FIX Y Backlash ---
G0 X33.734 Y30.523 F410
G1 X36.343 Y29.653 Z0 F800
G1 X36.481 Y23.382 Z0 F800
; --- FIX X Backlash ---
G0 X35.781 Y23.382 F410
G1 X35.369 Y20.223 Z0 F800
;Layer C3 Pass 2 of 2
; --- FIX X Backlash ---
G0 X36.069 Y20.223 F410
G1 X38.22 Y20.177 Z0 F800
G1 X39.685 Y20.223 Z0 F800
; --- FIX Y Backlash ---
G0 X39.685 Y20.723 F410
G1 X39.868 Y21.043 Z0 F800
; --- FIX X Backlash ---
G0 X39.168 Y21.043 F410
G1 X37.658 Y21.135 Z0 F800
; --- FIX Y Backlash ---
G0 X37.658 Y20.635 F410
G1 X35.918 Y20.543 Z0 F800
; --- FIX Y Backlash ---
G0 X35.918 Y21.043 F410
G1 X35.552 Y21.41 Z0 F800
G1 X35.094 Y22.829 Z0 F800
; --- FIX X Backlash ---
G0 X35.794 Y22.829 F410
G1 X36.618 Y23.058 Z0 F800
G1 X38.724 Z0 F800
; --- FIX Y Backlash ---
G0 X38.724 Y22.558 F410
G1 X40.143 Y22.329 Z0 F800
; --- FIX Y Backlash ---
G0 X40.143 Y22.829 F410
G1 X40.097 Y23.378 Z0 F800
; --- FIX X Backlash ---
G0 X39.397 Y23.378 F410
G1 X37.474 Y23.561 Z0 F800
; --- FIX Y Backlash ---
G0 X37.474 Y23.061 F410
G1 X35.46 Y22.878 Z0 F800
; --- FIX Y Backlash ---
G0 X35.46 Y23.378 F410
G1 Y25.346 Z0 F800
G1 X35.506 Y27.727 Z0 F800
; --- FIX X Backlash ---
G0 X36.206 Y27.727 F410
G1 X36.343 Y28.917 Z0 F800
G1 X36.349 Y29.099 Z0 F800
G1 X36.334 Y29.35 Z0 F800
G1 X36.306 Y29.643 Z0 F800
G1 X36.269 Y29.947 Z0 F800
G1 X36.23 Y30.234 Z0 F800
G1 X36.195 Y30.475 Z0 F800
G1 X36.16 Y30.702 Z0 F800
; --- FIX X Backlash ---
G0 X35.46 Y30.702 F410
G1 X35.271 Y30.708 Z0 F800
G1 X35.016 Y30.722 Z0 F800
G1 X34.636 Y30.748 Z0 F800
G1 X34.359 Y30.755 Z0 F800
G1 X33.999 Y30.746 Z0 F800
G1 X33.593 Y30.725 Z0 F800
G1 X33.177 Y30.697 Z0 F800
G1 X32.79 Y30.666 Z0 F800
G1 X32.467 Y30.639 Z0 F800
G1 X32.164 Y30.611 Z0 F800
; --- FIX Y Backlash ---
G0 X32.164 Y30.111 F410
G1 X30.745 Y29.378 Z0 F800
G1 X30.242 Y28.554 Z0 F800
G1 X30.202 Y28.371 Z0 F800
G1 X30.164 Y28.166 Z0 F800
G1 X30.127 Y27.908 Z0 F800
G1 X30.099 Y27.613 Z0 F800
G1 X30.087 Y27.299 Z0 F800
G1 X30.101 Y26.982 Z0 F800
G1 X30.15 Y26.678 Z0 F800
; --- FIX X Backlash ---
G0 X30.85 Y26.678 F410
G1 X30.907 Y26.395 Z0 F800
G1 X30.942 Y26.135 Z0 F800
G1 X30.96 Y25.901 Z0 F800
G1 X30.965 Y25.699 Z0 F800
G1 X30.961 Y25.534 Z0 F800
G1 X30.953 Y25.409 Z0 F800
G1 X30.942 Y25.304 Z0 F800
; --- FIX X Backlash ---
G0 X30.242 Y25.304 F410
G1 X29.601 Y25.03 Z0 F800
; --- FIX Y Backlash ---
G0 X29.601 Y25.53 F410
G1 X29.326 Y26.445 Z0 F800
; --- FIX X Backlash ---
G0 X30.026 Y26.445 F410
G1 X30.118 Y27.91 Z0 F800
; --- FIX X Backlash ---
G0 X29.418 Y27.91 F410
; --- FIX Y Backlash ---
G0 X29.418 Y27.41 F410
G1 X28.868 Y27.044 Z0 F800
G1 X28.502 Y25.442 Z0 F800
; --- FIX X Backlash ---
G0 X29.202 Y25.442 F410
; --- FIX Y Backlash ---
G0 X29.202 Y25.942 F410
G1 X30.347 Y26.582 Z0 F800
; --- FIX X Backlash ---
G0 X29.647 Y26.582 F410
G1 X29.372 Y29.375 Z0 F800
; --- FIX X Backlash ---
G0 X30.072 Y29.375 F410
G1 X31.445 Y29.421 Z0 F800
G1 X32.132 Y30.565 Z0 F800
G1 X33.734 Y31.023 Z0 F800
; --- FIX Y Backlash ---
G0 X33.734 Y30.523 F410
G1 X36.343 Y29.653 Z0 F800
G1 X36.481 Y23.382 Z0 F800
; --- FIX X Backlash ---
G0 X35.781 Y23.382 F410
G1 X35.369 Y20.223 Z0 F800
G0 Z3.5 F800
; --- FIX X Backlash ---
G0 X36.069 Y20.223 F410
; --- FIX Y Backlash ---
G0 X36.069 Y20.723 F410
G0 X38.724 Y25.438 Z3.5
G1 Z0 F800
;Layer C3 Pass 1 of 2
; --- FIX X Backlash ---
G0 X38.024 Y25.438 F410
G1 X37.795 Y33.586 Z0 F800
; --- FIX Y Backlash ---
G0 X37.795 Y33.086 F410
G1 X35.231 Y32.903 Z0 F800
; --- FIX Y Backlash ---
G0 X35.231 Y33.403 F410
G1 X33.217 Y33.861 Z0 F800
; --- FIX Y Backlash ---
G0 X33.217 Y33.361 F410
G1 X31.478 Y32.949 Z0 F800
G1 X29.921 Y32.445 Z0 F800
G1 X29.051 Y32.033 Z0 F800
G1 X28.273 Y31.759 Z0 F800
; --- FIX Y Backlash ---
G0 X28.273 Y32.259 F410
G1 X27.541 Y33.678 Z0 F800
G1 X27.495 Y35.784 Z0 F800
; --- FIX X Backlash ---
G0 X28.195 Y35.784 F410
G1 X29.614 Y35.738 Z0 F800
; --- FIX X Backlash ---
G0 X28.914 Y35.738 F410
; --- FIX Y Backlash ---
G0 X28.914 Y35.238 F410
G1 X28.227 Y33.452 Z0 F800
G1 X27.724 Y31.667 Z0 F800
; --- FIX X Backlash ---
G0 X28.424 Y31.667 F410
; --- FIX Y Backlash ---
G0 X28.424 Y32.167 F410
G1 X29.889 Y33.724 Z0 F800
; --- FIX Y Backlash ---
G0 X29.889 Y33.224 F410
G1 X31.72 Y32.812 Z0 F800
G1 X34.238 Y32.537 Z0 F800
; --- FIX Y Backlash ---
G0 X34.238 Y33.037 F410
G1 X36.618 Y33.907 Z0 F800
; --- FIX Y Backlash ---
G0 X36.618 Y33.407 F410
G1 X38.953 Y33.269 Z0 F800
G1 X39.639 Y31.85 Z0 F800
G1 X39.731 Y30.752 Z0 F800
; --- FIX Y Backlash ---
G0 X39.731 Y31.252 F410
G1 X40.829 Y31.893 Z0 F800
; --- FIX X Backlash ---
G0 X40.129 Y31.893 F410
G1 X39.672 Y33.952 Z0 F800
; --- FIX X Backlash ---
G0 X40.372 Y33.952 F410
G1 X40.967 Y35.738 Z0 F800
G1 X41.058 Y37.477 Z0 F800
; --- FIX X Backlash ---
G0 X40.358 Y37.477 F410
G1 X40.129 Y38.896 Z0 F800
; --- FIX X Backlash ---
G0 X40.829 Y38.896 F410
G1 X41.148 Y38.949 Z0 F800
G1 X41.481 Y38.998 Z0 F800
G1 X41.871 Y39.045 Z0 F800
G1 X42.273 Y39.08 Z0 F800
G1 X42.645 Y39.09 Z0 F800
G1 X42.805 Y39.082 Z0 F800
G1 X42.941 Y39.063 Z0 F800
G1 X43.047 Y39.032 Z0 F800
G1 X43.118 Y38.988 Z0 F800
; --- FIX Y Backlash ---
G0 X43.118 Y38.488 F410
G1 X43.26 Y38.419 Z0 F800
G1 X43.463 Y38.408 Z0 F800
G1 X43.702 Y38.44 Z0 F800
; --- FIX Y Backlash ---
G0 X43.702 Y38.94 F410
G1 X43.954 Y38.999 Z0 F800
G1 X44.192 Y39.072 Z0 F800
G1 X44.393 Y39.142 Z0 F800
G1 X44.583 Y39.217 Z0 F800
G1 X45.041 Y40.544 Z0 F800
G1 X45.27 Y41.506 Z0 F800
; --- FIX Y Backlash ---
G0 X45.27 Y41.006 F410
G1 X47.879 Y40.731 Z0 F800
; --- FIX X Backlash ---
G0 X47.179 Y40.731 F410
G1 X46.767 Y37.801 Z0 F800
; --- FIX X Backlash ---
G0 X47.467 Y37.801 F410
G1 X47.742 Y35.833 Z0 F800
; --- FIX X Backlash ---
G0 X47.042 Y35.833 F410
G1 X45.073 Y35.787 Z0 F800
G1 X42.556 Z0 F800
; --- FIX Y Backlash ---
G0 X42.556 Y36.287 F410
G1 X41.411 Y37.34 Z0 F800
; --- FIX X Backlash ---
G0 X42.111 Y37.34 F410
G1 X46.506 Z0 F800
G1 X47.009 Y38.256 Z0 F800
; --- FIX X Backlash ---
G0 X46.309 Y38.256 F410
; --- FIX Y Backlash ---
G0 X46.309 Y37.756 F410
G1 X43.7 Y37.664 Z0 F800
G1 X41.777 Y37.481 Z0 F800
; --- FIX Y Backlash ---
G0 X41.777 Y37.981 F410
G1 X41.136 Y38.713 Z0 F800
; --- FIX X Backlash ---
G0 X41.836 Y38.713 F410
G1 X45.361 Y38.942 Z0 F800
G1 X47.147 Y39.446 Z0 F800
; --- FIX X Backlash ---
G0 X46.447 Y39.446 F410
G1 X45.439 Y40.865 Z0 F800
; --- FIX Y Backlash ---
G0 X45.439 Y40.365 F410
G1 X44.844 Y39.449 Z0 F800
G1 X40.587 Y37.023 Z0 F800
G1 X40.129 Y34.917 Z0 F800
; --- FIX X Backlash ---
G0 X40.829 Y34.917 F410
G1 X41.196 Y33.224 Z0 F800
; --- FIX X Backlash ---
G0 X40.496 Y33.224 F410
G1 X38.756 Y32.812 Z0 F800
G1 X37.978 Y30.431 Z0 F800
G1 X37.566 Y25.258 Z0 F800
; --- FIX X Backlash ---
G0 X38.266 Y25.258 F410
G1 X38.724 Y24.938 Z0 F800
;Layer C3 Pass 2 of 2
; --- FIX X Backlash ---
G0 X38.024 Y24.938 F410
; --- FIX Y Backlash ---
G0 X38.024 Y25.438 F410
G1 X37.795 Y33.586 Z0 F800
; --- FIX Y Backlash ---
G0 X37.795 Y33.086 F410
G1 X35.231 Y32.903 Z0 F800
; --- FIX Y Backlash ---
G0 X35.231 Y33.403 F410
G1 X33.217 Y33.861 Z0 F800
; --- FIX Y Backlash ---
G0 X33.217 Y33.361 F410
G1 X31.478 Y32.949 Z0 F800
G1 X29.921 Y32.445 Z0 F800
G1 X29.051 Y32.033 Z0 F800
G1 X28.273 Y31.759 Z0 F800
; --- FIX Y Backlash ---
G0 X28.273 Y32.259 F410
G1 X27.541 Y33.678 Z0 F800
G1 X27.495 Y35.784 Z0 F800
; --- FIX X Backlash ---
G0 X28.195 Y35.784 F410
G1 X29.614 Y35.738 Z0 F800
; --- FIX X Backlash ---
G0 X28.914 Y35.738 F410
; --- FIX Y Backlash ---
G0 X28.914 Y35.238 F410
G1 X28.227 Y33.452 Z0 F800
G1 X27.724 Y31.667 Z0 F800
; --- FIX X Backlash ---
G0 X28.424 Y31.667 F410
; --- FIX Y Backlash ---
G0 X28.424 Y32.167 F410
G1 X29.889 Y33.724 Z0 F800
; --- FIX Y Backlash ---
G0 X29.889 Y33.224 F410
G1 X31.72 Y32.812 Z0 F800
G1 X34.238 Y32.537 Z0 F800
; --- FIX Y Backlash ---
G0 X34.238 Y33.037 F410
G1 X36.618 Y33.907 Z0 F800
; --- FIX Y Backlash ---
G0 X36.618 Y33.407 F410
G1 X38.953 Y33.269 Z0 F800
G1 X39.639 Y31.85 Z0 F800
G1 X39.731 Y30.752 Z0 F800
; --- FIX Y Backlash ---
G0 X39.731 Y31.252 F410
G1 X40.829 Y31.893 Z0 F800
; --- FIX X Backlash ---
G0 X40.129 Y31.893 F410
G1 X39.672 Y33.952 Z0 F800
; --- FIX X Backlash ---
G0 X40.372 Y33.952 F410
G1 X40.967 Y35.738 Z0 F800
G1 X41.058 Y37.477 Z0 F800
; --- FIX X Backlash ---
G0 X40.358 Y37.477 F410
G1 X40.129 Y38.896 Z0 F800
; --- FIX X Backlash ---
G0 X40.829 Y38.896 F410
G1 X41.148 Y38.949 Z0 F800
G1 X41.481 Y38.998 Z0 F800
G1 X41.871 Y39.045 Z0 F800
G1 X42.273 Y39.08 Z0 F800
G1 X42.645 Y39.09 Z0 F800
G1 X42.805 Y39.082 Z0 F800
G1 X42.941 Y39.063 Z0 F800
G1 X43.047 Y39.032 Z0 F800
G1 X43.118 Y38.988 Z0 F800
; --- FIX Y Backlash ---
G0 X43.118 Y38.488 F410
G1 X43.26 Y38.419 Z0 F800
G1 X43.463 Y38.408 Z0 F800
G1 X43.702 Y38.44 Z0 F800
; --- FIX Y Backlash ---
G0 X43.702 Y38.94 F410
G1 X43.954 Y38.999 Z0 F800
G1 X44.192 Y39.072 Z0 F800
G1 X44.393 Y39.142 Z0 F800
G1 X44.583 Y39.217 Z0 F800
G1 X45.041 Y40.544 Z0 F800
G1 X45.27 Y41.506 Z0 F800
; --- FIX Y Backlash ---
G0 X45.27 Y41.006 F410
G1 X47.879 Y40.731 Z0 F800
; --- FIX X Backlash ---
G0 X47.179 Y40.731 F410
G1 X46.767 Y37.801 Z0 F800
; --- FIX X Backlash ---
G0 X47.467 Y37.801 F410
G1 X47.742 Y35.833 Z0 F800
; --- FIX X Backlash ---
G0 X47.042 Y35.833 F410
G1 X45.073 Y35.787 Z0 F800
G1 X42.556 Z0 F800
; --- FIX Y Backlash ---
G0 X42.556 Y36.287 F410
G1 X41.411 Y37.34 Z0 F800
; --- FIX X Backlash ---
G0 X42.111 Y37.34 F410
G1 X46.506 Z0 F800
G1 X47.009 Y38.256 Z0 F800
; --- FIX X Backlash ---
G0 X46.309 Y38.256 F410
; --- FIX Y Backlash ---
G0 X46.309 Y37.756 F410
G1 X43.7 Y37.664 Z0 F800
G1 X41.777 Y37.481 Z0 F800
; --- FIX Y Backlash ---
G0 X41.777 Y37.981 F410
G1 X41.136 Y38.713 Z0 F800
; --- FIX X Backlash ---
G0 X41.836 Y38.713 F410
G1 X45.361 Y38.942 Z0 F800
G1 X47.147 Y39.446 Z0 F800
; --- FIX X Backlash ---
G0 X46.447 Y39.446 F410
G1 X45.439 Y40.865 Z0 F800
; --- FIX Y Backlash ---
G0 X45.439 Y40.365 F410
G1 X44.844 Y39.449 Z0 F800
G1 X40.587 Y37.023 Z0 F800
G1 X40.129 Y34.917 Z0 F800
; --- FIX X Backlash ---
G0 X40.829 Y34.917 F410
G1 X41.196 Y33.224 Z0 F800
; --- FIX X Backlash ---
G0 X40.496 Y33.224 F410
G1 X38.756 Y32.812 Z0 F800
G1 X37.978 Y30.431 Z0 F800
G1 X37.566 Y25.258 Z0 F800
; --- FIX X Backlash ---
G0 X38.266 Y25.258 F410
G1 X38.724 Y24.938 Z0 F800
G0 Z3.5 F800
; --- FIX X Backlash ---
G0 X38.024 Y24.938 F410
; --- FIX Y Backlash ---
G0 X38.024 Y25.438 F410
G0 X26.724 Y26.541 Z3.5
G1 Z0 F800
;Layer C3 Pass 1 of 2
G1 X26.717 Y26.72 Z0 F800
G1 X26.305 Y28.78 Z0 F800
G1 X26.344 Y28.887 Z0 F800
G1 X26.38 Y28.997 Z0 F800
G1 X26.414 Y29.123 Z0 F800
G1 X26.437 Y29.249 Z0 F800
G1 X26.44 Y29.359 Z0 F800
G1 X26.414 Y29.437 Z0 F800
G1 X26.351 Y29.466 Z0 F800
G1 X26.222 Y29.451 Z0 F800
G1 X26.025 Y29.409 Z0 F800
; --- FIX Y Backlash ---
G0 X26.025 Y28.909 F410
G1 X25.787 Y28.85 Z0 F800
G1 X25.532 Y28.783 Z0 F800
G1 X25.083 Y28.657 Z0 F800
G1 X24.886 Y28.6 Z0 F800
G1 X24.889 Y28.608 Z0 F800
G1 X24.899 Y28.616 Z0 F800
G1 X24.92 Y28.595 Z0 F800
G1 X24.955 Y28.52 Z0 F800
G1 X24.978 Y28.453 Z0 F800
G1 X25.007 Y28.363 Z0 F800
G1 X25.04 Y28.246 Z0 F800
G1 X25.079 Y28.098 Z0 F800
G1 X25.124 Y27.916 Z0 F800
; --- FIX X Backlash ---
G0 X25.824 Y27.916 F410
G1 X25.875 Y27.698 Z0 F800
G1 X25.933 Y27.438 Z0 F800
G1 X25.998 Y27.135 Z0 F800
G1 X26.047 Y26.832 Z0 F800
G1 X26.062 Y26.573 Z0 F800
G1 X26.045 Y26.354 Z0 F800
G1 X26.002 Y26.172 Z0 F800
; --- FIX X Backlash ---
G0 X25.302 Y26.172 F410
G1 X25.237 Y26.025 Z0 F800
G1 X25.155 Y25.907 Z0 F800
G1 X25.059 Y25.817 Z0 F800
G1 X24.955 Y25.75 Z0 F800
G1 X24.737 Y25.675 Z0 F800
G1 X24.538 Y25.655 Z0 F800
G1 X24.393 Y25.662 Z0 F800
G1 X24.337 Y25.67 Z0 F800
; --- FIX Y Backlash ---
G0 X24.337 Y26.17 F410
G1 X23.467 Y26.491 Z0 F800
G1 X23.009 Y28.047 Z0 F800
; --- FIX X Backlash ---
G0 X23.709 Y28.047 F410
G1 X23.984 Y29.054 Z0 F800
G1 X24.258 Y29.833 Z0 F800
G1 X24.945 Y31.114 Z0 F800
G1 X25.677 Y32.121 Z0 F800
G1 X25.769 Y33.724 Z0 F800
; --- FIX X Backlash ---
G0 X25.069 Y33.724 F410
G1 X25.016 Y33.837 Z0 F800
G1 X24.958 Y33.95 Z0 F800
G1 X24.886 Y34.078 Z0 F800
G1 X24.805 Y34.202 Z0 F800
G1 X24.721 Y34.303 Z0 F800
G1 X24.64 Y34.363 Z0 F800
G1 X24.565 Z0 F800
; --- FIX Y Backlash ---
G0 X24.565 Y33.863 F410
G1 X24.466 Y33.809 Z0 F800
G1 X24.317 Y33.718 Z0 F800
G1 X23.948 Y33.487 Z0 F800
G1 X23.467 Y33.178 Z0 F800
; --- FIX X Backlash ---
G0 X24.167 Y33.178 F410
G1 X25.128 Y31.164 Z0 F800
; --- FIX X Backlash ---
G0 X24.428 Y31.164 F410
G1 X24.199 Y28.737 Z0 F800
G1 X23.97 Y26.815 Z0 F800
; --- FIX X Backlash ---
G0 X24.67 Y26.815 F410
; --- FIX Y Backlash ---
G0 X24.67 Y27.315 F410
G1 X26.273 Y27.406 Z0 F800
; --- FIX X Backlash ---
G0 X25.573 Y27.406 F410
G1 X25.161 Y30.199 Z0 F800
G1 X22.689 Y31.297 Z0 F800
G1 X22.734 Y34.364 Z0 F800
; --- FIX X Backlash ---
G0 X23.434 Y34.364 F410
G1 X24.121 Y34.319 Z0 F800
; --- FIX X Backlash ---
G0 X23.421 Y34.319 F410
; --- FIX Y Backlash ---
G0 X23.421 Y33.819 F410
G1 X23.192 Y30.157 Z0 F800
G1 X22.094 Y30.065 Z0 F800
; --- FIX Y Backlash ---
G0 X22.094 Y30.565 F410
G1 X21.041 Y31.114 Z0 F800
; --- FIX Y Backlash ---
G0 X21.041 Y30.614 F410
G1 X19.164 Y30.156 Z0 F800
G1 X18.019 Z0 F800
; --- FIX Y Backlash ---
G0 X18.019 Y30.656 F410
G1 X16.326 Y30.794 Z0 F800
G1 X15.593 Y31.069 Z0 F800
; --- FIX Y Backlash ---
G0 X15.593 Y30.569 F410
G1 X15.41 Y29.47 Z0 F800
; --- FIX X Backlash ---
G0 X16.11 Y29.47 F410
; --- FIX Y Backlash ---
G0 X16.11 Y29.97 F410
G1 X18.536 Y30.29 Z0 F800
; --- FIX Y Backlash ---
G0 X18.536 Y29.79 F410
G1 X20.23 Y29.699 Z0 F800
G1 X21.969 Y29.607 Z0 F800
G1 X23.114 Y29.333 Z0 F800
G1 X23.205 Y27.089 Z0 F800
G1 X23.297 Y25.121 Z0 F800
G1 X24.075 Y24.617 Z0 F800
; --- FIX Y Backlash ---
G0 X24.075 Y25.117 F410
G1 X25.082 Y25.301 Z0 F800
G1 X25.998 Z0 F800
G1 X26.959 Y25.621 Z0 F800
G1 X27.044 Y25.728 Z0 F800
G1 X27.128 Y25.848 Z0 F800
G1 X27.222 Y25.999 Z0 F800
G1 X27.312 Y26.171 Z0 F800
G1 X27.384 Y26.355 Z0 F800
G1 X27.424 Y26.541 Z0 F800
;Layer C3 Pass 2 of 2
G1 X27.417 Y26.72 Z0 F800
; --- FIX X Backlash ---
G0 X26.717 Y26.72 F410
G1 X26.305 Y28.78 Z0 F800
G1 X26.344 Y28.887 Z0 F800
G1 X26.38 Y28.997 Z0 F800
G1 X26.414 Y29.123 Z0 F800
G1 X26.437 Y29.249 Z0 F800
G1 X26.44 Y29.359 Z0 F800
G1 X26.414 Y29.437 Z0 F800
G1 X26.351 Y29.466 Z0 F800
G1 X26.222 Y29.451 Z0 F800
G1 X26.025 Y29.409 Z0 F800
; --- FIX Y Backlash ---
G0 X26.025 Y28.909 F410
G1 X25.787 Y28.85 Z0 F800
G1 X25.532 Y28.783 Z0 F800
G1 X25.083 Y28.657 Z0 F800
G1 X24.886 Y28.6 Z0 F800
G1 X24.889 Y28.608 Z0 F800
G1 X24.899 Y28.616 Z0 F800
G1 X24.92 Y28.595 Z0 F800
G1 X24.955 Y28.52 Z0 F800
G1 X24.978 Y28.453 Z0 F800
G1 X25.007 Y28.363 Z0 F800
G1 X25.04 Y28.246 Z0 F800
G1 X25.079 Y28.098 Z0 F800
G1 X25.124 Y27.916 Z0 F800
; --- FIX X Backlash ---
G0 X25.824 Y27.916 F410
G1 X25.875 Y27.698 Z0 F800
G1 X25.933 Y27.438 Z0 F800
G1 X25.998 Y27.135 Z0 F800
G1 X26.047 Y26.832 Z0 F800
G1 X26.062 Y26.573 Z0 F800
G1 X26.045 Y26.354 Z0 F800
G1 X26.002 Y26.172 Z0 F800
; --- FIX X Backlash ---
G0 X25.302 Y26.172 F410
G1 X25.237 Y26.025 Z0 F800
G1 X25.155 Y25.907 Z0 F800
G1 X25.059 Y25.817 Z0 F800
G1 X24.955 Y25.75 Z0 F800
G1 X24.737 Y25.675 Z0 F800
G1 X24.538 Y25.655 Z0 F800
G1 X24.393 Y25.662 Z0 F800
G1 X24.337 Y25.67 Z0 F800
; --- FIX Y Backlash ---
G0 X24.337 Y26.17 F410
G1 X23.467 Y26.491 Z0 F800
G1 X23.009 Y28.047 Z0 F800
; --- FIX X Backlash ---
G0 X23.709 Y28.047 F410
G1 X23.984 Y29.054 Z0 F800
G1 X24.258 Y29.833 Z0 F800
G1 X24.945 Y31.114 Z0 F800
G1 X25.677 Y32.121 Z0 F800
G1 X25.769 Y33.724 Z0 F800
; --- FIX X Backlash ---
G0 X25.069 Y33.724 F410
G1 X25.016 Y33.837 Z0 F800
G1 X24.958 Y33.95 Z0 F800
G1 X24.886 Y34.078 Z0 F800
G1 X24.805 Y34.202 Z0 F800
G1 X24.721 Y34.303 Z0 F800
G1 X24.64 Y34.363 Z0 F800
G1 X24.565 Z0 F800
; --- FIX Y Backlash ---
G0 X24.565 Y33.863 F410
G1 X24.466 Y33.809 Z0 F800
G1 X24.317 Y33.718 Z0 F800
G1 X23.948 Y33.487 Z0 F800
G1 X23.467 Y33.178 Z0 F800
; --- FIX X Backlash ---
G0 X24.167 Y33.178 F410
G1 X25.128 Y31.164 Z0 F800
; --- FIX X Backlash ---
G0 X24.428 Y31.164 F410
G1 X24.199 Y28.737 Z0 F800
G1 X23.97 Y26.815 Z0 F800
; --- FIX X Backlash ---
G0 X24.67 Y26.815 F410
; --- FIX Y Backlash ---
G0 X24.67 Y27.315 F410
G1 X26.273 Y27.406 Z0 F800
; --- FIX X Backlash ---
G0 X25.573 Y27.406 F410
G1 X25.161 Y30.199 Z0 F800
G1 X22.689 Y31.297 Z0 F800
G1 X22.734 Y34.364 Z0 F800
; --- FIX X Backlash ---
G0 X23.434 Y34.364 F410
G1 X24.121 Y34.319 Z0 F800
; --- FIX X Backlash ---
G0 X23.421 Y34.319 F410
; --- FIX Y Backlash ---
G0 X23.421 Y33.819 F410
G1 X23.192 Y30.157 Z0 F800
G1 X22.094 Y30.065 Z0 F800
; --- FIX Y Backlash ---
G0 X22.094 Y30.565 F410
G1 X21.041 Y31.114 Z0 F800
; --- FIX Y Backlash ---
G0 X21.041 Y30.614 F410
G1 X19.164 Y30.156 Z0 F800
G1 X18.019 Z0 F800
; --- FIX Y Backlash ---
G0 X18.019 Y30.656 F410
G1 X16.326 Y30.794 Z0 F800
G1 X15.593 Y31.069 Z0 F800
; --- FIX Y Backlash ---
G0 X15.593 Y30.569 F410
G1 X15.41 Y29.47 Z0 F800
; --- FIX X Backlash ---
G0 X16.11 Y29.47 F410
; --- FIX Y Backlash ---
G0 X16.11 Y29.97 F410
G1 X18.536 Y30.29 Z0 F800
; --- FIX Y Backlash ---
G0 X18.536 Y29.79 F410
G1 X20.23 Y29.699 Z0 F800
G1 X21.969 Y29.607 Z0 F800
G1 X23.114 Y29.333 Z0 F800
G1 X23.205 Y27.089 Z0 F800
G1 X23.297 Y25.121 Z0 F800
G1 X24.075 Y24.617 Z0 F800
; --- FIX Y Backlash ---
G0 X24.075 Y25.117 F410
G1 X25.082 Y25.301 Z0 F800
G1 X25.998 Z0 F800
G1 X26.959 Y25.621 Z0 F800
G1 X27.044 Y25.728 Z0 F800
G1 X27.128 Y25.848 Z0 F800
G1 X27.222 Y25.999 Z0 F800
G1 X27.312 Y26.171 Z0 F800
G1 X27.384 Y26.355 Z0 F800
G1 X27.424 Y26.541 Z0 F800
G0 Z3.5 F800
; --- FIX X Backlash ---
G0 X26.724 Y26.541 F410
G0 X19.576 Y33.312 Z3.5
G1 Z0 F800
;Layer C3 Pass 1 of 2
G1 X19.21 Y37.203 Z0 F800
; --- FIX X Backlash ---
G0 X19.91 Y37.203 F410
G1 X20.459 Y39.904 Z0 F800
; --- FIX Y Backlash ---
G0 X20.459 Y39.404 F410
G1 X21.237 Y38.213 Z0 F800
; --- FIX Y Backlash ---
G0 X21.237 Y38.713 F410
G1 X21.969 Y39.354 Z0 F800
; --- FIX Y Backlash ---
G0 X21.969 Y38.854 F410
G1 X22.381 Y37.16 Z0 F800
G1 X23.343 Y37.069 Z0 F800
; --- FIX Y Backlash ---
G0 X23.343 Y37.569 F410
G1 X24.899 Y37.889 Z0 F800
G1 X25.952 Y37.981 Z0 F800
G1 X27.417 Y38.484 Z0 F800
G1 X28.882 Y38.851 Z0 F800
G1 X30.988 Y38.896 Z0 F800
; --- FIX Y Backlash ---
G0 X30.988 Y38.396 F410
G1 X32.086 Y37.939 Z0 F800
; --- FIX Y Backlash ---
G0 X32.086 Y38.439 F410
G1 X33.231 Y38.668 Z0 F800
; --- FIX Y Backlash ---
G0 X33.231 Y38.168 F410
G1 X33.276 Y36.337 Z0 F800
G1 X33.688 Y36.382 Z0 F800
; --- FIX X Backlash ---
G0 X32.988 Y36.382 F410
; --- FIX Y Backlash ---
G0 X32.988 Y36.882 F410
G1 X32.531 Y39.354 Z0 F800
; --- FIX Y Backlash ---
G0 X32.531 Y38.854 F410
G1 X30.608 Y38.259 Z0 F800
G1 X29.509 Y37.801 Z0 F800
; --- FIX Y Backlash ---
G0 X29.509 Y38.301 F410
G1 X28.273 Y39.354 Z0 F800
; --- FIX X Backlash ---
G0 X28.973 Y39.354 F410
G1 X29.431 Y40.407 Z0 F800
; --- FIX X Backlash ---
G0 X28.731 Y40.407 F410
G1 X28.502 Y42.971 Z0 F800
; --- FIX X Backlash ---
G0 X29.202 Y42.971 F410
G1 X29.614 Y46.267 Z0 F800
; --- FIX X Backlash ---
G0 X28.914 Y46.267 F410
; --- FIX Y Backlash ---
G0 X28.914 Y45.767 F410
G1 X28.548 Y45.629 Z0 F800
; --- FIX X Backlash ---
G0 X29.248 Y45.629 F410
G1 X29.843 Y38.9 Z0 F800
; --- FIX X Backlash ---
G0 X29.143 Y38.9 F410
; --- FIX Y Backlash ---
G0 X29.143 Y39.4 F410
G1 X27.861 Y40.499 Z0 F800
; --- FIX Y Backlash ---
G0 X27.861 Y39.999 F410
G1 X27.221 Y39.495 Z0 F800
; --- FIX Y Backlash ---
G0 X27.221 Y39.995 F410
G1 X26.076 Y41.552 Z0 F800
; --- FIX X Backlash ---
G0 X26.776 Y41.552 F410
G1 X27.097 Y46.084 Z0 F800
; --- FIX X Backlash ---
G0 X26.397 Y46.084 F410
G1 X26.03 Y46.129 Z0 F800
; --- FIX X Backlash ---
G0 X26.73 Y46.129 F410
; --- FIX Y Backlash ---
G0 X26.73 Y45.629 F410
G1 X26.959 Y39.953 Z0 F800
; --- FIX X Backlash ---
G0 X26.259 Y39.953 F410
; --- FIX Y Backlash ---
G0 X26.259 Y40.453 F410
G1 X24.977 Y41.094 Z0 F800
; --- FIX X Backlash ---
G0 X25.677 Y41.094 F410
; --- FIX Y Backlash ---
G0 X25.677 Y40.594 F410
G1 X27.28 Y39.312 Z0 F800
; --- FIX X Backlash ---
G0 X26.58 Y39.312 F410
G1 X26.351 Y38.305 Z0 F800
G1 X25.389 Y37.206 Z0 F800
G1 X24.657 Y36.703 Z0 F800
; --- FIX Y Backlash ---
G0 X24.657 Y37.203 F410
G1 X24.565 Y39.217 Z0 F800
; --- FIX X Backlash ---
G0 X25.265 Y39.217 F410
G1 X25.952 Y39.721 Z0 F800
; --- FIX X Backlash ---
G0 X25.252 Y39.721 F410
G1 X24.245 Y41.14 Z0 F800
; --- FIX Y Backlash ---
G0 X24.245 Y40.64 F410
G1 X23.146 Y39.541 Z0 F800
; --- FIX X Backlash ---
G0 X23.846 Y39.541 F410
G1 X24.396 Y38.442 Z0 F800
; --- FIX X Backlash ---
G0 X23.696 Y38.442 F410
G1 X23.467 Y36.611 Z0 F800
; --- FIX Y Backlash ---
G0 X23.467 Y37.111 F410
G1 X22.322 Y37.523 Z0 F800
G1 X22.185 Y39.446 Z0 F800
; --- FIX X Backlash ---
G0 X22.885 Y39.446 F410
G1 X23.114 Y40.636 Z0 F800
; --- FIX X Backlash ---
G0 X22.414 Y40.636 F410
; --- FIX Y Backlash ---
G0 X22.414 Y40.136 F410
G1 X21.498 Y39.953 Z0 F800
G1 X19.576 Y38.122 Z0 F800
G1 X19.621 Y35.192 Z0 F800
G1 X19.438 Y33.544 Z0 F800
G1 X18.614 Y33.361 Z0 F800
G1 X18.499 Y33.316 Z0 F800
G1 X18.38 Y33.276 Z0 F800
G1 X18.242 Y33.241 Z0 F800
G1 X18.103 Y33.22 Z0 F800
G1 X17.977 Y33.226 Z0 F800
G1 X17.883 Y33.269 Z0 F800
; --- FIX Y Backlash ---
G0 X17.883 Y33.769 F410
G1 X17.836 Y33.861 Z0 F800
G1 X17.828 Y33.942 Z0 F800
G1 X17.821 Y34.061 Z0 F800
G1 X17.81 Y34.39 Z0 F800
G1 X17.802 Y34.798 Z0 F800
G1 X17.796 Y35.24 Z0 F800
G1 X17.791 Y36.03 Z0 F800
G1 Y36.379 Z0 F800
; --- FIX X Backlash ---
G0 X18.491 Y36.379 F410
G1 X18.582 Y38.072 Z0 F800
G1 X19.04 Y39.858 Z0 F800
; --- FIX X Backlash ---
G0 X18.34 Y39.858 F410
G1 X17.928 Y40.819 Z0 F800
G1 X17.378 Y42.513 Z0 F800
; --- FIX X Backlash ---
G0 X18.078 Y42.513 F410
G1 X19.269 Y43.154 Z0 F800
; --- FIX Y Backlash ---
G0 X19.269 Y42.654 F410
G1 X21.512 Y42.425 Z0 F800
G1 X22.153 Y40.594 Z0 F800
; --- FIX X Backlash ---
G0 X21.453 Y40.594 F410
G1 X20.583 Y39.999 Z0 F800
G1 X18.66 Y39.907 Z0 F800
G1 X18.477 Y35.696 Z0 F800
; --- FIX X Backlash ---
G0 X19.177 Y35.696 F410
G1 X19.406 Y34.46 Z0 F800
G1 X20.276 Y32.812 Z0 F800
;Layer C3 Pass 2 of 2
; --- FIX X Backlash ---
G0 X19.576 Y32.812 F410
; --- FIX Y Backlash ---
G0 X19.576 Y33.312 F410
G1 X19.21 Y37.203 Z0 F800
; --- FIX X Backlash ---
G0 X19.91 Y37.203 F410
G1 X20.459 Y39.904 Z0 F800
; --- FIX Y Backlash ---
G0 X20.459 Y39.404 F410
G1 X21.237 Y38.213 Z0 F800
; --- FIX Y Backlash ---
G0 X21.237 Y38.713 F410
G1 X21.969 Y39.354 Z0 F800
; --- FIX Y Backlash ---
G0 X21.969 Y38.854 F410
G1 X22.381 Y37.16 Z0 F800
G1 X23.343 Y37.069 Z0 F800
; --- FIX Y Backlash ---
G0 X23.343 Y37.569 F410
G1 X24.899 Y37.889 Z0 F800
G1 X25.952 Y37.981 Z0 F800
G1 X27.417 Y38.484 Z0 F800
G1 X28.882 Y38.851 Z0 F800
G1 X30.988 Y38.896 Z0 F800
; --- FIX Y Backlash ---
G0 X30.988 Y38.396 F410
G1 X32.086 Y37.939 Z0 F800
; --- FIX Y Backlash ---
G0 X32.086 Y38.439 F410
G1 X33.231 Y38.668 Z0 F800
; --- FIX Y Backlash ---
G0 X33.231 Y38.168 F410
G1 X33.276 Y36.337 Z0 F800
G1 X33.688 Y36.382 Z0 F800
; --- FIX X Backlash ---
G0 X32.988 Y36.382 F410
; --- FIX Y Backlash ---
G0 X32.988 Y36.882 F410
G1 X32.531 Y39.354 Z0 F800
; --- FIX Y Backlash ---
G0 X32.531 Y38.854 F410
G1 X30.608 Y38.259 Z0 F800
G1 X29.509 Y37.801 Z0 F800
; --- FIX Y Backlash ---
G0 X29.509 Y38.301 F410
G1 X28.273 Y39.354 Z0 F800
; --- FIX X Backlash ---
G0 X28.973 Y39.354 F410
G1 X29.431 Y40.407 Z0 F800
; --- FIX X Backlash ---
G0 X28.731 Y40.407 F410
G1 X28.502 Y42.971 Z0 F800
; --- FIX X Backlash ---
G0 X29.202 Y42.971 F410
G1 X29.614 Y46.267 Z0 F800
; --- FIX X Backlash ---
G0 X28.914 Y46.267 F410
; --- FIX Y Backlash ---
G0 X28.914 Y45.767 F410
G1 X28.548 Y45.629 Z0 F800
; --- FIX X Backlash ---
G0 X29.248 Y45.629 F410
G1 X29.843 Y38.9 Z0 F800
; --- FIX X Backlash ---
G0 X29.143 Y38.9 F410
; --- FIX Y Backlash ---
G0 X29.143 Y39.4 F410
G1 X27.861 Y40.499 Z0 F800
; --- FIX Y Backlash ---
G0 X27.861 Y39.999 F410
G1 X27.221 Y39.495 Z0 F800
; --- FIX Y Backlash ---
G0 X27.221 Y39.995 F410
G1 X26.076 Y41.552 Z0 F800
; --- FIX X Backlash ---
G0 X26.776 Y41.552 F410
G1 X27.097 Y46.084 Z0 F800
; --- FIX X Backlash ---
G0 X26.397 Y46.084 F410
G1 X26.03 Y46.129 Z0 F800
; --- FIX X Backlash ---
G0 X26.73 Y46.129 F410
; --- FIX Y Backlash ---
G0 X26.73 Y45.629 F410
G1 X26.959 Y39.953 Z0 F800
; --- FIX X Backlash ---
G0 X26.259 Y39.953 F410
; --- FIX Y Backlash ---
G0 X26.259 Y40.453 F410
G1 X24.977 Y41.094 Z0 F800
; --- FIX X Backlash ---
G0 X25.677 Y41.094 F410
; --- FIX Y Backlash ---
G0 X25.677 Y40.594 F410
G1 X27.28 Y39.312 Z0 F800
; --- FIX X Backlash ---
G0 X26.58 Y39.312 F410
G1 X26.351 Y38.305 Z0 F800
G1 X25.389 Y37.206 Z0 F800
G1 X24.657 Y36.703 Z0 F800
; --- FIX Y Backlash ---
G0 X24.657 Y37.203 F410
G1 X24.565 Y39.217 Z0 F800
; --- FIX X Backlash ---
G0 X25.265 Y39.217 F410
G1 X25.952 Y39.721 Z0 F800
; --- FIX X Backlash ---
G0 X25.252 Y39.721 F410
G1 X24.245 Y41.14 Z0 F800
; --- FIX Y Backlash ---
G0 X24.245 Y40.64 F410
G1 X23.146 Y39.541 Z0 F800
; --- FIX X Backlash ---
G0 X23.846 Y39.541 F410
G1 X24.396 Y38.442 Z0 F800
; --- FIX X Backlash ---
G0 X23.696 Y38.442 F410
G1 X23.467 Y36.611 Z0 F800
; --- FIX Y Backlash ---
G0 X23.467 Y37.111 F410
G1 X22.322 Y37.523 Z0 F800
G1 X22.185 Y39.446 Z0 F800
; --- FIX X Backlash ---
G0 X22.885 Y39.446 F410
G1 X23.114 Y40.636 Z0 F800
; --- FIX X Backlash ---
G0 X22.414 Y40.636 F410
; --- FIX Y Backlash ---
G0 X22.414 Y40.136 F410
G1 X21.498 Y39.953 Z0 F800
G1 X19.576 Y38.122 Z0 F800
G1 X19.621 Y35.192 Z0 F800
G1 X19.438 Y33.544 Z0 F800
G1 X18.614 Y33.361 Z0 F800
G1 X18.499 Y33.316 Z0 F800
G1 X18.38 Y33.276 Z0 F800
G1 X18.242 Y33.241 Z0 F800
G1 X18.103 Y33.22 Z0 F800
G1 X17.977 Y33.226 Z0 F800
G1 X17.883 Y33.269 Z0 F800
; --- FIX Y Backlash ---
G0 X17.883 Y33.769 F410
G1 X17.836 Y33.861 Z0 F800
G1 X17.828 Y33.942 Z0 F800
G1 X17.821 Y34.061 Z0 F800
G1 X17.81 Y34.39 Z0 F800
G1 X17.802 Y34.798 Z0 F800
G1 X17.796 Y35.24 Z0 F800
G1 X17.791 Y36.03 Z0 F800
G1 Y36.379 Z0 F800
; --- FIX X Backlash ---
G0 X18.491 Y36.379 F410
G1 X18.582 Y38.072 Z0 F800
G1 X19.04 Y39.858 Z0 F800
; --- FIX X Backlash ---
G0 X18.34 Y39.858 F410
G1 X17.928 Y40.819 Z0 F800
G1 X17.378 Y42.513 Z0 F800
; --- FIX X Backlash ---
G0 X18.078 Y42.513 F410
G1 X19.269 Y43.154 Z0 F800
; --- FIX Y Backlash ---
G0 X19.269 Y42.654 F410
G1 X21.512 Y42.425 Z0 F800
G1 X22.153 Y40.594 Z0 F800
; --- FIX X Backlash ---
G0 X21.453 Y40.594 F410
G1 X20.583 Y39.999 Z0 F800
G1 X18.66 Y39.907 Z0 F800
G1 X18.477 Y35.696 Z0 F800
; --- FIX X Backlash ---
G0 X19.177 Y35.696 F410
G1 X19.406 Y34.46 Z0 F800
G1 X20.276 Y32.812 Z0 F800
G0 Z3.5 F800
; --- FIX Y Backlash ---
G0 X20.276 Y33.312 F410
G0 X24.487 Y43.383 Z3.5
G1 Z0 F800
;Layer C3 Pass 1 of 2
; --- FIX X Backlash ---
G0 X23.787 Y43.383 F410
G1 X21.865 Y46.266 Z0 F800
; --- FIX X Backlash ---
G0 X22.565 Y46.266 F410
G1 X24.35 Y46.312 Z0 F800
; --- FIX X Backlash ---
G0 X23.65 Y46.312 F410
; --- FIX Y Backlash ---
G0 X23.65 Y45.812 F410
G1 X19.164 Y45.4 Z0 F800
; --- FIX Y Backlash ---
G0 X19.164 Y45.9 F410
G1 X17.836 Y46.45 Z0 F800
; --- FIX Y Backlash ---
G0 X17.836 Y45.95 F410
G1 X17.607 Y44.988 Z0 F800
; --- FIX X Backlash ---
G0 X18.307 Y44.988 F410
G1 X18.994 Y44.576 Z0 F800
; --- FIX Y Backlash ---
G0 X18.994 Y45.076 F410
G1 X20.138 Y45.259 Z0 F800
G1 X20.306 Y45.309 Z0 F800
G1 X20.688 Y45.42 Z0 F800
G1 X20.903 Y45.478 Z0 F800
G1 X21.104 Y45.53 Z0 F800
G1 X21.269 Y45.566 Z0 F800
G1 X21.374 Y45.58 Z0 F800
G1 X21.496 Y45.572 Z0 F800
G1 X21.702 Y45.551 Z0 F800
; --- FIX Y Backlash ---
G0 X21.702 Y45.051 F410
G1 X22.244 Y44.988 Z0 F800
G1 X22.977 Y44.897 Z0 F800
G1 X24.396 Y44.943 Z0 F800
; --- FIX X Backlash ---
G0 X23.696 Y44.943 F410
G1 X23.375 Y43.569 Z0 F800
; --- FIX X Backlash ---
G0 X24.075 Y43.569 F410
G1 X24.487 Y42.883 Z0 F800
;Layer C3 Pass 2 of 2
; --- FIX X Backlash ---
G0 X23.787 Y42.883 F410
; --- FIX Y Backlash ---
G0 X23.787 Y43.383 F410
G1 X21.865 Y46.266 Z0 F800
; --- FIX X Backlash ---
G0 X22.565 Y46.266 F410
G1 X24.35 Y46.312 Z0 F800
; --- FIX X Backlash ---
G0 X23.65 Y46.312 F410
; --- FIX Y Backlash ---
G0 X23.65 Y45.812 F410
G1 X19.164 Y45.4 Z0 F800
; --- FIX Y Backlash ---
G0 X19.164 Y45.9 F410
G1 X17.836 Y46.45 Z0 F800
; --- FIX Y Backlash ---
G0 X17.836 Y45.95 F410
G1 X17.607 Y44.988 Z0 F800
; --- FIX X Backlash ---
G0 X18.307 Y44.988 F410
G1 X18.994 Y44.576 Z0 F800
; --- FIX Y Backlash ---
G0 X18.994 Y45.076 F410
G1 X20.138 Y45.259 Z0 F800
G1 X20.306 Y45.309 Z0 F800
G1 X20.688 Y45.42 Z0 F800
G1 X20.903 Y45.478 Z0 F800
G1 X21.104 Y45.53 Z0 F800
G1 X21.269 Y45.566 Z0 F800
G1 X21.374 Y45.58 Z0 F800
G1 X21.496 Y45.572 Z0 F800
G1 X21.702 Y45.551 Z0 F800
; --- FIX Y Backlash ---
G0 X21.702 Y45.051 F410
G1 X22.244 Y44.988 Z0 F800
G1 X22.977 Y44.897 Z0 F800
G1 X24.396 Y44.943 Z0 F800
; --- FIX X Backlash ---
G0 X23.696 Y44.943 F410
G1 X23.375 Y43.569 Z0 F800
; --- FIX X Backlash ---
G0 X24.075 Y43.569 F410
G1 X24.487 Y42.883 Z0 F800
G0 Z3.5 F800
; --- FIX Y Backlash ---
G0 X24.487 Y43.383 F410
G0 X31.811 Y43.749 Z3.5
G1 Z0 F800
;Layer C3 Pass 1 of 2
; --- FIX Y Backlash ---
G0 X31.811 Y43.249 F410
G1 X33.917 Y42.883 Z0 F800
; --- FIX Y Backlash ---
G0 X33.917 Y43.383 F410
G1 X34.65 Y43.84 Z0 F800
; --- FIX Y Backlash ---
G0 X34.65 Y43.34 F410
G1 X36.069 Y42.562 Z0 F800
; --- FIX X Backlash ---
G0 X35.369 Y42.562 F410
G1 X35.003 Y41.784 Z0 F800
; --- FIX X Backlash ---
G0 X35.703 Y41.784 F410
G1 X36.298 Y39.449 Z0 F800
; --- FIX X Backlash ---
G0 X35.598 Y39.449 F410
G1 X35.186 Y36.428 Z0 F800
; --- FIX X Backlash ---
G0 X35.886 Y36.428 F410
; --- FIX Y Backlash ---
G0 X35.886 Y36.928 F410
G1 X36.114 Y38.805 Z0 F800
; --- FIX X Backlash ---
G0 X35.414 Y38.805 F410
G1 X35.231 Y40.178 Z0 F800
G1 X35.094 Y41.139 Z0 F800
; --- FIX Y Backlash ---
G0 X35.094 Y40.639 F410
G1 X33.675 Y40.548 Z0 F800
; --- FIX Y Backlash ---
G0 X33.675 Y41.048 F410
G1 X32.668 Y41.368 Z0 F800
; --- FIX Y Backlash ---
G0 X32.668 Y40.868 F410
G1 X31.661 Y40.685 Z0 F800
; --- FIX Y Backlash ---
G0 X31.661 Y41.185 F410
G1 X31.523 Y41.551 Z0 F800
; --- FIX X Backlash ---
G0 X32.223 Y41.551 F410
G1 X35.062 Y41.689 Z0 F800
; --- FIX Y Backlash ---
G0 X35.062 Y41.189 F410
G1 X35.794 Y40.96 Z0 F800
; --- FIX Y Backlash ---
G0 X35.794 Y41.46 F410
G1 X36.252 Y42.101 Z0 F800
; --- FIX X Backlash ---
G0 X35.552 Y42.101 F410
G1 X35.231 Y43.382 Z0 F800
G1 X35.002 Y43.749 Z0 F800
; --- FIX Y Backlash ---
G0 X35.002 Y43.249 F410
G1 X33.034 Y42.928 Z0 F800
; --- FIX Y Backlash ---
G0 X33.034 Y43.428 F410
G1 X31.615 Y43.657 Z0 F800
G1 X31.249 Y44.802 Z0 F800
; --- FIX X Backlash ---
G0 X31.949 Y44.802 F410
G1 X32.132 Y45.992 Z0 F800
G1 X33.643 Y46.221 Z0 F800
; --- FIX Y Backlash ---
G0 X33.643 Y45.721 F410
G1 X36.664 Y45.492 Z0 F800
; --- FIX Y Backlash ---
G0 X36.664 Y45.992 F410
G1 X40.326 Y46.358 Z0 F800
; --- FIX Y Backlash ---
G0 X40.326 Y45.858 F410
G1 X43.073 Y45.629 Z0 F800
; --- FIX Y Backlash ---
G0 X43.073 Y46.129 F410
G1 X46.14 Y46.266 Z0 F800
; --- FIX Y Backlash ---
G0 X46.14 Y45.766 F410
G1 X47.742 Y45.446 Z0 F800
; --- FIX Y Backlash ---
G0 X47.742 Y45.946 F410
G1 X50.351 Y46.45 Z0 F800
; --- FIX Y Backlash ---
G0 X50.351 Y45.95 F410
G1 X52.548 Y45.4 Z0 F800
; --- FIX Y Backlash ---
G0 X52.548 Y45.9 F410
G1 X53.739 Y46.083 Z0 F800
G1 X55.615 Y46.266 Z0 F800
; --- FIX X Backlash ---
G0 X54.915 Y46.266 F410
; --- FIX Y Backlash ---
G0 X54.915 Y45.766 F410
G1 X54.778 Y44.851 Z0 F800
; --- FIX X Backlash ---
G0 X55.478 Y44.851 F410
G1 X55.707 Y43.569 Z0 F800
; --- FIX X Backlash ---
G0 X55.007 Y43.569 F410
G1 X54.412 Y43.066 Z0 F800
; --- FIX Y Backlash ---
G0 X54.412 Y43.566 F410
G1 X53.725 Y44.161 Z0 F800
G1 X53.176 Y44.985 Z0 F800
; --- FIX X Backlash ---
G0 X53.876 Y44.985 F410
G1 X54.517 Y45.626 Z0 F800
; --- FIX Y Backlash ---
G0 X54.517 Y45.126 F410
G1 X55.02 Y43.89 Z0 F800
; --- FIX X Backlash ---
G0 X54.32 Y43.89 F410
; --- FIX Y Backlash ---
G0 X54.32 Y44.39 F410
G1 X54.091 Y46.541 Z0 F800
; --- FIX Y Backlash ---
G0 X54.091 Y46.041 F410
G1 X52.215 Y45.812 Z0 F800
G1 X49.422 Y45.4 Z0 F800
; --- FIX Y Backlash ---
G0 X49.422 Y45.9 F410
G1 X46.492 Y46.358 Z0 F800
; --- FIX Y Backlash ---
G0 X46.492 Y45.858 F410
G1 X44.845 Y45.538 Z0 F800
G1 X40.725 Y45.354 Z0 F800
; --- FIX Y Backlash ---
G0 X40.725 Y45.854 F410
G1 X38.527 Y46.312 Z0 F800
G1 X37.246 Y46.404 Z0 F800
; --- FIX Y Backlash ---
G0 X37.246 Y45.904 F410
G1 X35.002 Y45.675 Z0 F800
; --- FIX Y Backlash ---
G0 X35.002 Y46.175 F410
G1 X32.988 Y46.358 Z0 F800
; --- FIX Y Backlash ---
G0 X32.988 Y45.858 F410
G1 X32.027 Y45.171 Z0 F800
G1 X31.386 Y44.256 Z0 F800
G1 X31.111 Y43.249 Z0 F800
;Layer C3 Pass 2 of 2
; --- FIX X Backlash ---
G0 X31.811 Y43.249 F410
G1 X33.917 Y42.883 Z0 F800
; --- FIX Y Backlash ---
G0 X33.917 Y43.383 F410
G1 X34.65 Y43.84 Z0 F800
; --- FIX Y Backlash ---
G0 X34.65 Y43.34 F410
G1 X36.069 Y42.562 Z0 F800
; --- FIX X Backlash ---
G0 X35.369 Y42.562 F410
G1 X35.003 Y41.784 Z0 F800
; --- FIX X Backlash ---
G0 X35.703 Y41.784 F410
G1 X36.298 Y39.449 Z0 F800
; --- FIX X Backlash ---
G0 X35.598 Y39.449 F410
G1 X35.186 Y36.428 Z0 F800
; --- FIX X Backlash ---
G0 X35.886 Y36.428 F410
; --- FIX Y Backlash ---
G0 X35.886 Y36.928 F410
G1 X36.114 Y38.805 Z0 F800
; --- FIX X Backlash ---
G0 X35.414 Y38.805 F410
G1 X35.231 Y40.178 Z0 F800
G1 X35.094 Y41.139 Z0 F800
; --- FIX Y Backlash ---
G0 X35.094 Y40.639 F410
G1 X33.675 Y40.548 Z0 F800
; --- FIX Y Backlash ---
G0 X33.675 Y41.048 F410
G1 X32.668 Y41.368 Z0 F800
; --- FIX Y Backlash ---
G0 X32.668 Y40.868 F410
G1 X31.661 Y40.685 Z0 F800
; --- FIX Y Backlash ---
G0 X31.661 Y41.185 F410
G1 X31.523 Y41.551 Z0 F800
; --- FIX X Backlash ---
G0 X32.223 Y41.551 F410
G1 X35.062 Y41.689 Z0 F800
; --- FIX Y Backlash ---
G0 X35.062 Y41.189 F410
G1 X35.794 Y40.96 Z0 F800
; --- FIX Y Backlash ---
G0 X35.794 Y41.46 F410
G1 X36.252 Y42.101 Z0 F800
; --- FIX X Backlash ---
G0 X35.552 Y42.101 F410
G1 X35.231 Y43.382 Z0 F800
G1 X35.002 Y43.749 Z0 F800
; --- FIX Y Backlash ---
G0 X35.002 Y43.249 F410
G1 X33.034 Y42.928 Z0 F800
; --- FIX Y Backlash ---
G0 X33.034 Y43.428 F410
G1 X31.615 Y43.657 Z0 F800
G1 X31.249 Y44.802 Z0 F800
; --- FIX X Backlash ---
G0 X31.949 Y44.802 F410
G1 X32.132 Y45.992 Z0 F800
G1 X33.643 Y46.221 Z0 F800
; --- FIX Y Backlash ---
G0 X33.643 Y45.721 F410
G1 X36.664 Y45.492 Z0 F800
; --- FIX Y Backlash ---
G0 X36.664 Y45.992 F410
G1 X40.326 Y46.358 Z0 F800
; --- FIX Y Backlash ---
G0 X40.326 Y45.858 F410
G1 X43.073 Y45.629 Z0 F800
; --- FIX Y Backlash ---
G0 X43.073 Y46.129 F410
G1 X46.14 Y46.266 Z0 F800
; --- FIX Y Backlash ---
G0 X46.14 Y45.766 F410
G1 X47.742 Y45.446 Z0 F800
; --- FIX Y Backlash ---
G0 X47.742 Y45.946 F410
G1 X50.351 Y46.45 Z0 F800
; --- FIX Y Backlash ---
G0 X50.351 Y45.95 F410
G1 X52.548 Y45.4 Z0 F800
; --- FIX Y Backlash ---
G0 X52.548 Y45.9 F410
G1 X53.739 Y46.083 Z0 F800
G1 X55.615 Y46.266 Z0 F800
; --- FIX X Backlash ---
G0 X54.915 Y46.266 F410
; --- FIX Y Backlash ---
G0 X54.915 Y45.766 F410
G1 X54.778 Y44.851 Z0 F800
; --- FIX X Backlash ---
G0 X55.478 Y44.851 F410
G1 X55.707 Y43.569 Z0 F800
; --- FIX X Backlash ---
G0 X55.007 Y43.569 F410
G1 X54.412 Y43.066 Z0 F800
; --- FIX Y Backlash ---
G0 X54.412 Y43.566 F410
G1 X53.725 Y44.161 Z0 F800
G1 X53.176 Y44.985 Z0 F800
; --- FIX X Backlash ---
G0 X53.876 Y44.985 F410
G1 X54.517 Y45.626 Z0 F800
; --- FIX Y Backlash ---
G0 X54.517 Y45.126 F410
G1 X55.02 Y43.89 Z0 F800
; --- FIX X Backlash ---
G0 X54.32 Y43.89 F410
; --- FIX Y Backlash ---
G0 X54.32 Y44.39 F410
G1 X54.091 Y46.541 Z0 F800
; --- FIX Y Backlash ---
G0 X54.091 Y46.041 F410
G1 X52.215 Y45.812 Z0 F800
G1 X49.422 Y45.4 Z0 F800
; --- FIX Y Backlash ---
G0 X49.422 Y45.9 F410
G1 X46.492 Y46.358 Z0 F800
; --- FIX Y Backlash ---
G0 X46.492 Y45.858 F410
G1 X44.845 Y45.538 Z0 F800
G1 X40.725 Y45.354 Z0 F800
; --- FIX Y Backlash ---
G0 X40.725 Y45.854 F410
G1 X38.527 Y46.312 Z0 F800
G1 X37.246 Y46.404 Z0 F800
; --- FIX Y Backlash ---
G0 X37.246 Y45.904 F410
G1 X35.002 Y45.675 Z0 F800
; --- FIX Y Backlash ---
G0 X35.002 Y46.175 F410
G1 X32.988 Y46.358 Z0 F800
; --- FIX Y Backlash ---
G0 X32.988 Y45.858 F410
G1 X32.027 Y45.171 Z0 F800
G1 X31.386 Y44.256 Z0 F800
G1 X31.111 Y43.249 Z0 F800
G0 Z3.5 F800
; --- FIX X Backlash ---
G0 X31.811 Y43.249 F410
; --- FIX Y Backlash ---
G0 X31.811 Y43.749 F410
G0 X38.404 Y44.115 Z3.5
G1 Z0 F800
;Layer C3 Pass 1 of 2
; --- FIX Y Backlash ---
G0 X38.404 Y43.615 F410
G1 X38.495 Y41.921 Z0 F800
; --- FIX X Backlash ---
G0 X37.795 Y41.921 F410
G1 X37.475 Y41.143 Z0 F800
; --- FIX X Backlash ---
G0 X38.175 Y41.143 F410
G1 X38.999 Y39.953 Z0 F800
; --- FIX X Backlash ---
G0 X38.299 Y39.953 F410
G1 X37.703 Y38.259 Z0 F800
; --- FIX X Backlash ---
G0 X38.403 Y38.259 F410
G1 X38.541 Y36.611 Z0 F800
; --- FIX Y Backlash ---
G0 X38.541 Y37.111 F410
G1 X38.632 Y39.583 Z0 F800
; --- FIX X Backlash ---
G0 X37.932 Y39.583 F410
G1 X37.658 Y40.27 Z0 F800
; --- FIX X Backlash ---
G0 X38.358 Y40.27 F410
G1 X38.907 Y41.368 Z0 F800
G1 X41.242 Y41.597 Z0 F800
; --- FIX Y Backlash ---
G0 X41.242 Y41.097 F410
G1 X42.065 Y40.914 Z0 F800
; --- FIX X Backlash ---
G0 X41.365 Y40.914 F410
G1 X41.091 Y40.594 Z0 F800
G1 X39.672 Y40.639 Z0 F800
; --- FIX Y Backlash ---
G0 X39.672 Y41.139 F410
G1 X37.978 Y41.414 Z0 F800
G1 X37.52 Y42.375 Z0 F800
; --- FIX X Backlash ---
G0 X38.22 Y42.375 F410
G1 X38.586 Y43.749 Z0 F800
G1 X40.555 Y43.886 Z0 F800
; --- FIX Y Backlash ---
G0 X40.555 Y43.386 F410
G1 X42.523 Y43.111 Z0 F800
; --- FIX Y Backlash ---
G0 X42.523 Y43.611 F410
G1 X44.995 Y44.023 Z0 F800
; --- FIX Y Backlash ---
G0 X44.995 Y43.523 F410
G1 X46.781 Y43.157 Z0 F800
; --- FIX Y Backlash ---
G0 X46.781 Y43.657 F410
G1 X48.612 Y43.749 Z0 F800
G1 X49.893 Y43.932 Z0 F800
; --- FIX Y Backlash ---
G0 X49.893 Y43.432 F410
G1 X50.9 Y42.974 Z0 F800
G1 X51.45 Y41.555 Z0 F800
G1 X51.434 Y41.314 Z0 F800
G1 X51.393 Y40.76 Z0 F800
G1 X51.365 Y40.444 Z0 F800
G1 X51.334 Y40.145 Z0 F800
G1 X51.301 Y39.895 Z0 F800
G1 X51.267 Y39.724 Z0 F800
G1 X51.256 Y39.647 Z0 F800
G1 Y39.538 Z0 F800
G1 X51.271 Y39.402 Z0 F800
G1 X51.292 Y39.245 Z0 F800
G1 X51.357 Y38.888 Z0 F800
G1 X51.438 Y38.505 Z0 F800
G1 X51.524 Y38.137 Z0 F800
G1 X51.601 Y37.825 Z0 F800
G1 X51.679 Y37.527 Z0 F800
G1 X51.77 Y35.741 Z0 F800
; --- FIX X Backlash ---
G0 X51.07 Y35.741 F410
G1 X50.475 Y34.826 Z0 F800
; --- FIX Y Backlash ---
G0 X50.475 Y35.326 F410
G1 X49.514 Y35.967 Z0 F800
; --- FIX X Backlash ---
G0 X50.214 Y35.967 F410
G1 X50.58 Y37.203 Z0 F800
G1 X50.672 Y41.14 Z0 F800
G1 X50.763 Y42.192 Z0 F800
G1 X51.358 Y43.749 Z0 F800
; --- FIX X Backlash ---
G0 X50.658 Y43.749 F410
; --- FIX Y Backlash ---
G0 X50.658 Y43.249 F410
G1 X49.422 Y42.974 Z0 F800
; --- FIX Y Backlash ---
G0 X49.422 Y43.474 F410
G1 X46.63 Y43.932 Z0 F800
; --- FIX Y Backlash ---
G0 X46.63 Y43.432 F410
G1 X44.662 Y42.791 Z0 F800
; --- FIX Y Backlash ---
G0 X44.662 Y43.291 F410
G1 X43.014 Y43.703 Z0 F800
G1 X41.366 Y44.069 Z0 F800
; --- FIX Y Backlash ---
G0 X41.366 Y43.569 F410
G1 X39.489 Y43.111 Z0 F800
; --- FIX Y Backlash ---
G0 X39.489 Y43.611 F410
G1 X37.704 Y44.115 Z0 F800
;Layer C3 Pass 2 of 2
; --- FIX X Backlash ---
G0 X38.404 Y44.115 F410
; --- FIX Y Backlash ---
G0 X38.404 Y43.615 F410
G1 X38.495 Y41.921 Z0 F800
; --- FIX X Backlash ---
G0 X37.795 Y41.921 F410
G1 X37.475 Y41.143 Z0 F800
; --- FIX X Backlash ---
G0 X38.175 Y41.143 F410
G1 X38.999 Y39.953 Z0 F800
; --- FIX X Backlash ---
G0 X38.299 Y39.953 F410
G1 X37.703 Y38.259 Z0 F800
; --- FIX X Backlash ---
G0 X38.403 Y38.259 F410
G1 X38.541 Y36.611 Z0 F800
; --- FIX Y Backlash ---
G0 X38.541 Y37.111 F410
G1 X38.632 Y39.583 Z0 F800
; --- FIX X Backlash ---
G0 X37.932 Y39.583 F410
G1 X37.658 Y40.27 Z0 F800
; --- FIX X Backlash ---
G0 X38.358 Y40.27 F410
G1 X38.907 Y41.368 Z0 F800
G1 X41.242 Y41.597 Z0 F800
; --- FIX Y Backlash ---
G0 X41.242 Y41.097 F410
G1 X42.065 Y40.914 Z0 F800
; --- FIX X Backlash ---
G0 X41.365 Y40.914 F410
G1 X41.091 Y40.594 Z0 F800
G1 X39.672 Y40.639 Z0 F800
; --- FIX Y Backlash ---
G0 X39.672 Y41.139 F410
G1 X37.978 Y41.414 Z0 F800
G1 X37.52 Y42.375 Z0 F800
; --- FIX X Backlash ---
G0 X38.22 Y42.375 F410
G1 X38.586 Y43.749 Z0 F800
G1 X40.555 Y43.886 Z0 F800
; --- FIX Y Backlash ---
G0 X40.555 Y43.386 F410
G1 X42.523 Y43.111 Z0 F800
; --- FIX Y Backlash ---
G0 X42.523 Y43.611 F410
G1 X44.995 Y44.023 Z0 F800
; --- FIX Y Backlash ---
G0 X44.995 Y43.523 F410
G1 X46.781 Y43.157 Z0 F800
; --- FIX Y Backlash ---
G0 X46.781 Y43.657 F410
G1 X48.612 Y43.749 Z0 F800
G1 X49.893 Y43.932 Z0 F800
; --- FIX Y Backlash ---
G0 X49.893 Y43.432 F410
G1 X50.9 Y42.974 Z0 F800
G1 X51.45 Y41.555 Z0 F800
G1 X51.434 Y41.314 Z0 F800
G1 X51.393 Y40.76 Z0 F800
G1 X51.365 Y40.444 Z0 F800
G1 X51.334 Y40.145 Z0 F800
G1 X51.301 Y39.895 Z0 F800
G1 X51.267 Y39.724 Z0 F800
G1 X51.256 Y39.647 Z0 F800
G1 Y39.538 Z0 F800
G1 X51.271 Y39.402 Z0 F800
G1 X51.292 Y39.245 Z0 F800
G1 X51.357 Y38.888 Z0 F800
G1 X51.438 Y38.505 Z0 F800
G1 X51.524 Y38.137 Z0 F800
G1 X51.601 Y37.825 Z0 F800
G1 X51.679 Y37.527 Z0 F800
G1 X51.77 Y35.741 Z0 F800
; --- FIX X Backlash ---
G0 X51.07 Y35.741 F410
G1 X50.475 Y34.826 Z0 F800
; --- FIX Y Backlash ---
G0 X50.475 Y35.326 F410
G1 X49.514 Y35.967 Z0 F800
; --- FIX X Backlash ---
G0 X50.214 Y35.967 F410
G1 X50.58 Y37.203 Z0 F800
G1 X50.672 Y41.14 Z0 F800
G1 X50.763 Y42.192 Z0 F800
G1 X51.358 Y43.749 Z0 F800
; --- FIX X Backlash ---
G0 X50.658 Y43.749 F410
; --- FIX Y Backlash ---
G0 X50.658 Y43.249 F410
G1 X49.422 Y42.974 Z0 F800
; --- FIX Y Backlash ---
G0 X49.422 Y43.474 F410
G1 X46.63 Y43.932 Z0 F800
; --- FIX Y Backlash ---
G0 X46.63 Y43.432 F410
G1 X44.662 Y42.791 Z0 F800
; --- FIX Y Backlash ---
G0 X44.662 Y43.291 F410
G1 X43.014 Y43.703 Z0 F800
G1 X41.366 Y44.069 Z0 F800
; --- FIX Y Backlash ---
G0 X41.366 Y43.569 F410
G1 X39.489 Y43.111 Z0 F800
; --- FIX Y Backlash ---
G0 X39.489 Y43.611 F410
G1 X37.704 Y44.115 Z0 F800
G0 Z3.5 F800
; --- FIX X Backlash ---
G0 X38.404 Y44.115 F410
; --- FIX Y Backlash ---
G0 X38.404 Y43.615 F410
G0 X54.151 Y40.319 Z3.5
G1 Z0 F800
;Layer C3 Pass 1 of 2
G1 X54.105 Y38.351 Z0 F800
; --- FIX X Backlash ---
G0 X53.405 Y38.351 F410
G1 X53.313 Y36.703 Z0 F800
; --- FIX X Backlash ---
G0 X54.013 Y36.703 F410
G1 X55.112 Y36.474 Z0 F800
; --- FIX Y Backlash ---
G0 X55.112 Y36.974 F410
G1 X55.066 Y38.072 Z0 F800
G1 X55.02 Y39.308 Z0 F800
; --- FIX X Backlash ---
G0 X54.32 Y39.308 F410
G1 X54.229 Y40.453 Z0 F800
; --- FIX X Backlash ---
G0 X54.929 Y40.453 F410
G1 X55.249 Y41.002 Z0 F800
; --- FIX Y Backlash ---
G0 X55.249 Y40.502 F410
G1 X55.707 Y39.861 Z0 F800
; --- FIX X Backlash ---
G0 X55.007 Y39.861 F410
G1 X54.869 Y38.488 Z0 F800
; --- FIX X Backlash ---
G0 X55.569 Y38.488 F410
G1 X55.89 Y37.298 Z0 F800
; --- FIX X Backlash ---
G0 X55.19 Y37.298 F410
G1 X54.961 Y36.428 Z0 F800
; --- FIX Y Backlash ---
G0 X54.961 Y36.928 F410
G1 X53.862 Y38.164 Z0 F800
G1 X53.908 Y40.682 Z0 F800
G1 X53.451 Y40.819 Z0 F800
;Layer C3 Pass 2 of 2
; --- FIX Y Backlash ---
G0 X53.451 Y40.319 F410
G1 X53.405 Y38.351 Z0 F800
G1 X53.313 Y36.703 Z0 F800
; --- FIX X Backlash ---
G0 X54.013 Y36.703 F410
G1 X55.112 Y36.474 Z0 F800
; --- FIX Y Backlash ---
G0 X55.112 Y36.974 F410
G1 X55.066 Y38.072 Z0 F800
G1 X55.02 Y39.308 Z0 F800
; --- FIX X Backlash ---
G0 X54.32 Y39.308 F410
G1 X54.229 Y40.453 Z0 F800
; --- FIX X Backlash ---
G0 X54.929 Y40.453 F410
G1 X55.249 Y41.002 Z0 F800
; --- FIX Y Backlash ---
G0 X55.249 Y40.502 F410
G1 X55.707 Y39.861 Z0 F800
; --- FIX X Backlash ---
G0 X55.007 Y39.861 F410
G1 X54.869 Y38.488 Z0 F800
; --- FIX X Backlash ---
G0 X55.569 Y38.488 F410
G1 X55.89 Y37.298 Z0 F800
; --- FIX X Backlash ---
G0 X55.19 Y37.298 F410
G1 X54.961 Y36.428 Z0 F800
; --- FIX Y Backlash ---
G0 X54.961 Y36.928 F410
G1 X53.862 Y38.164 Z0 F800
G1 X53.908 Y40.682 Z0 F800
G1 X53.451 Y40.819 Z0 F800
G0 Z3.5 F800
; --- FIX Y Backlash ---
G0 X53.451 Y40.319 F410
G0 X50.933 Y30.889 Z3.5
G1 Z0 F800
;Layer C3 Pass 1 of 2
G1 X50.292 Y30.797 Z0 F800
G1 X50.109 Y29.333 Z0 F800
G1 X49.514 Y26.952 Z0 F800
; --- FIX X Backlash ---
G0 X50.214 Y26.952 F410
G1 X50.992 Y26.403 Z0 F800
; --- FIX Y Backlash ---
G0 X50.992 Y26.903 F410
G1 X51.45 Y28.414 Z0 F800
; --- FIX X Backlash ---
G0 X50.75 Y28.414 F410
G1 X50.521 Y29.833 Z0 F800
; --- FIX X Backlash ---
G0 X51.221 Y29.833 F410
G1 X51.633 Y31.389 Z0 F800
;Layer C3 Pass 2 of 2
; --- FIX X Backlash ---
G0 X50.933 Y31.389 F410
; --- FIX Y Backlash ---
G0 X50.933 Y30.889 F410
G1 X50.292 Y30.797 Z0 F800
G1 X50.109 Y29.333 Z0 F800
G1 X49.514 Y26.952 Z0 F800
; --- FIX X Backlash ---
G0 X50.214 Y26.952 F410
G1 X50.992 Y26.403 Z0 F800
; --- FIX Y Backlash ---
G0 X50.992 Y26.903 F410
G1 X51.45 Y28.414 Z0 F800
; --- FIX X Backlash ---
G0 X50.75 Y28.414 F410
G1 X50.521 Y29.833 Z0 F800
; --- FIX X Backlash ---
G0 X51.221 Y29.833 F410
G1 X51.633 Y31.389 Z0 F800
G0 Z3.5 F800
; --- FIX X Backlash ---
G0 X50.933 Y31.389 F410
; --- FIX Y Backlash ---
G0 X50.933 Y30.889 F410
G0 X50.017 Y23.977 Z3.5
G1 Z0 F800
;Layer C3 Pass 1 of 2
; --- FIX X Backlash ---
G0 X50.717 Y23.977 F410
G1 X52.869 Y23.565 Z0 F800
; --- FIX X Backlash ---
G0 X52.169 Y23.565 F410
G1 X50.521 Y22.924 Z0 F800
; --- FIX X Backlash ---
G0 X51.221 Y22.924 F410
; --- FIX Y Backlash ---
G0 X51.221 Y23.424 F410
G1 X54.242 Y23.653 Z0 F800
; --- FIX X Backlash ---
G0 X53.542 Y23.653 F410
G1 X52.535 Y24.477 Z0 F800
; --- FIX X Backlash ---
G0 X53.235 Y24.477 F410
G1 X55.432 Y24.431 Z0 F800
; --- FIX X Backlash ---
G0 X54.732 Y24.431 F410
; --- FIX Y Backlash ---
G0 X54.732 Y23.931 F410
G1 X54.549 Y22.97 Z0 F800
G1 X54.553 Y22.849 Z0 F800
G1 Y22.728 Z0 F800
G1 X54.549 Y22.592 Z0 F800
G1 X54.536 Y22.46 Z0 F800
G1 X54.511 Y22.352 Z0 F800
G1 X54.47 Y22.286 Z0 F800
G1 X54.412 Y22.283 Z0 F800
G1 X54.353 Y22.302 Z0 F800
G1 X54.251 Y22.325 Z0 F800
G1 X54.111 Y22.351 Z0 F800
G1 X53.941 Y22.379 Z0 F800
; --- FIX Y Backlash ---
G0 X53.941 Y22.879 F410
G1 X53.535 Y22.939 Z0 F800
G1 X53.084 Y23 Z0 F800
G1 X52.262 Y23.105 Z0 F800
G1 X51.894 Y23.149 Z0 F800
; --- FIX Y Backlash ---
G0 X51.894 Y22.649 F410
G1 X50.658 Y22.191 Z0 F800
G1 X50.338 Y20.91 Z0 F800
G1 X50.383 Y20.177 Z0 F800
; --- FIX Y Backlash ---
G0 X50.383 Y20.677 F410
G1 X49.788 Y20.906 Z0 F800
; --- FIX X Backlash ---
G0 X50.488 Y20.906 F410
G1 X50.809 Y22.783 Z0 F800
; --- FIX X Backlash ---
G0 X50.109 Y22.783 F410
G1 X50.017 Y24.477 Z0 F800
;Layer C3 Pass 2 of 2
; --- FIX X Backlash ---
G0 X50.717 Y24.477 F410
; --- FIX Y Backlash ---
G0 X50.717 Y23.977 F410
G1 X52.869 Y23.565 Z0 F800
; --- FIX X Backlash ---
G0 X52.169 Y23.565 F410
G1 X50.521 Y22.924 Z0 F800
; --- FIX X Backlash ---
G0 X51.221 Y22.924 F410
; --- FIX Y Backlash ---
G0 X51.221 Y23.424 F410
G1 X54.242 Y23.653 Z0 F800
; --- FIX X Backlash ---
G0 X53.542 Y23.653 F410
G1 X52.535 Y24.477 Z0 F800
; --- FIX X Backlash ---
G0 X53.235 Y24.477 F410
G1 X55.432 Y24.431 Z0 F800
; --- FIX X Backlash ---
G0 X54.732 Y24.431 F410
; --- FIX Y Backlash ---
G0 X54.732 Y23.931 F410
G1 X54.549 Y22.97 Z0 F800
G1 X54.553 Y22.849 Z0 F800
G1 Y22.728 Z0 F800
G1 X54.549 Y22.592 Z0 F800
G1 X54.536 Y22.46 Z0 F800
G1 X54.511 Y22.352 Z0 F800
G1 X54.47 Y22.286 Z0 F800
G1 X54.412 Y22.283 Z0 F800
G1 X54.353 Y22.302 Z0 F800
G1 X54.251 Y22.325 Z0 F800
G1 X54.111 Y22.351 Z0 F800
G1 X53.941 Y22.379 Z0 F800
; --- FIX Y Backlash ---
G0 X53.941 Y22.879 F410
G1 X53.535 Y22.939 Z0 F800
G1 X53.084 Y23 Z0 F800
G1 X52.262 Y23.105 Z0 F800
G1 X51.894 Y23.149 Z0 F800
; --- FIX Y Backlash ---
G0 X51.894 Y22.649 F410
G1 X50.658 Y22.191 Z0 F800
G1 X50.338 Y20.91 Z0 F800
G1 X50.383 Y20.177 Z0 F800
; --- FIX Y Backlash ---
G0 X50.383 Y20.677 F410
G1 X49.788 Y20.906 Z0 F800
; --- FIX X Backlash ---
G0 X50.488 Y20.906 F410
G1 X50.809 Y22.783 Z0 F800
; --- FIX X Backlash ---
G0 X50.109 Y22.783 F410
G1 X50.017 Y24.477 Z0 F800
G0 Z3.5 F800
; --- FIX X Backlash ---
G0 X50.717 Y24.477 F410
; --- FIX Y Backlash ---
G0 X50.717 Y23.977 F410
G0 X53.555 Y18.346 Z3.5
G1 Z0 F800
;Layer C3 Pass 1 of 2
; --- FIX X Backlash ---
G0 X52.855 Y18.346 F410
G1 X52.031 Y17.293 Z0 F800
G1 X51.345 Y17.11 Z0 F800
G1 X51.283 Y16.987 Z0 F800
G1 X51.224 Y16.859 Z0 F800
G1 X51.162 Y16.71 Z0 F800
G1 X51.108 Y16.556 Z0 F800
G1 X51.074 Y16.415 Z0 F800
G1 Y16.304 Z0 F800
G1 X51.116 Y16.24 Z0 F800
; --- FIX X Backlash ---
G0 X51.816 Y16.24 F410
G1 X51.932 Y16.099 Z0 F800
G1 X52.062 Y15.863 Z0 F800
G1 X52.157 Y15.734 Z0 F800
G1 X52.286 Y15.61 Z0 F800
G1 X52.459 Y15.501 Z0 F800
G1 X52.686 Y15.416 Z0 F800
G1 X53.211 Y15.296 Z0 F800
G1 X53.698 Y15.21 Z0 F800
G1 X53.899 Y15.18 Z0 F800
G1 X54.196 Y15.142 Z0 F800
; --- FIX Y Backlash ---
G0 X54.196 Y15.642 F410
G1 X55.295 Y16.649 Z0 F800
G1 X55.387 Y17.839 Z0 F800
; --- FIX X Backlash ---
G0 X54.687 Y17.839 F410
G1 X53.542 Y18.205 Z0 F800
; --- FIX Y Backlash ---
G0 X53.542 Y17.705 F410
G1 X52.489 Y16.698 Z0 F800
; --- FIX X Backlash ---
G0 X53.189 Y16.698 F410
G1 X53.418 Y15.966 Z0 F800
; --- FIX Y Backlash ---
G0 X53.418 Y16.466 F410
G1 X54.563 Y17.244 Z0 F800
; --- FIX Y Backlash ---
G0 X54.563 Y16.744 F410
G1 X55.478 Y15.05 Z0 F800
; --- FIX Y Backlash ---
G0 X55.478 Y15.55 F410
G1 X55.432 Y18.846 Z0 F800
; --- FIX X Backlash ---
G0 X54.732 Y18.846 F410
G1 X52.855 Z0 F800
;Layer C3 Pass 2 of 2
; --- FIX Y Backlash ---
G0 X52.855 Y18.346 F410
G1 X52.031 Y17.293 Z0 F800
G1 X51.345 Y17.11 Z0 F800
G1 X51.283 Y16.987 Z0 F800
G1 X51.224 Y16.859 Z0 F800
G1 X51.162 Y16.71 Z0 F800
G1 X51.108 Y16.556 Z0 F800
G1 X51.074 Y16.415 Z0 F800
G1 Y16.304 Z0 F800
G1 X51.116 Y16.24 Z0 F800
; --- FIX X Backlash ---
G0 X51.816 Y16.24 F410
G1 X51.932 Y16.099 Z0 F800
G1 X52.062 Y15.863 Z0 F800
G1 X52.157 Y15.734 Z0 F800
G1 X52.286 Y15.61 Z0 F800
G1 X52.459 Y15.501 Z0 F800
G1 X52.686 Y15.416 Z0 F800
G1 X53.211 Y15.296 Z0 F800
G1 X53.698 Y15.21 Z0 F800
G1 X53.899 Y15.18 Z0 F800
G1 X54.196 Y15.142 Z0 F800
; --- FIX Y Backlash ---
G0 X54.196 Y15.642 F410
G1 X55.295 Y16.649 Z0 F800
G1 X55.387 Y17.839 Z0 F800
; --- FIX X Backlash ---
G0 X54.687 Y17.839 F410
G1 X53.542 Y18.205 Z0 F800
; --- FIX Y Backlash ---
G0 X53.542 Y17.705 F410
G1 X52.489 Y16.698 Z0 F800
; --- FIX X Backlash ---
G0 X53.189 Y16.698 F410
G1 X53.418 Y15.966 Z0 F800
; --- FIX Y Backlash ---
G0 X53.418 Y16.466 F410
G1 X54.563 Y17.244 Z0 F800
; --- FIX Y Backlash ---
G0 X54.563 Y16.744 F410
G1 X55.478 Y15.05 Z0 F800
; --- FIX Y Backlash ---
G0 X55.478 Y15.55 F410
G1 X55.432 Y18.846 Z0 F800
; --- FIX X Backlash ---
G0 X54.732 Y18.846 F410
G1 X52.855 Z0 F800
G0 Z3.5 F800
; --- FIX Y Backlash ---
G0 X52.855 Y18.346 F410
G0 X48.278 Y16.927 Z3.5
G1 Z0 F800
;Layer C3 Pass 1 of 2
; --- FIX Y Backlash ---
G0 X48.278 Y17.427 F410
G1 X47.912 Y17.656 Z0 F800
G1 X45.897 Y17.931 Z0 F800
; --- FIX Y Backlash ---
G0 X45.897 Y17.431 F410
G1 X45.028 Y17.293 Z0 F800
; --- FIX Y Backlash ---
G0 X45.028 Y17.793 F410
G1 X44.066 Y18.114 Z0 F800
; --- FIX Y Backlash ---
G0 X44.066 Y17.614 F410
G1 X43.792 Y16.515 Z0 F800
; --- FIX X Backlash ---
G0 X44.492 Y16.515 F410
G1 X44.995 Y15.92 Z0 F800
G1 X46.002 Y15.233 Z0 F800
; --- FIX Y Backlash ---
G0 X46.002 Y15.733 F410
G1 X48.016 Y16.054 Z0 F800
; --- FIX Y Backlash ---
G0 X48.016 Y15.554 F410
G1 X48.383 Y15.416 Z0 F800
; --- FIX Y Backlash ---
G0 X48.383 Y15.916 F410
G1 X49.115 Y16.695 Z0 F800
; --- FIX X Backlash ---
G0 X48.415 Y16.695 F410
G1 X47.683 Y16.923 Z0 F800
; --- FIX Y Backlash ---
G0 X47.683 Y16.423 F410
G1 X46.08 Y16.286 Z0 F800
; --- FIX Y Backlash ---
G0 X46.08 Y16.786 F410
G1 X44.89 Y16.923 Z0 F800
G1 X44.57 Y17.335 Z0 F800
; --- FIX X Backlash ---
G0 X45.27 Y17.335 F410
; --- FIX Y Backlash ---
G0 X45.27 Y16.835 F410
G1 X47.376 Y16.698 Z0 F800
; --- FIX Y Backlash ---
G0 X47.376 Y17.198 F410
G1 X48.978 Y17.427 Z0 F800
;Layer C3 Pass 2 of 2
; --- FIX X Backlash ---
G0 X48.278 Y17.427 F410
G1 X47.912 Y17.656 Z0 F800
G1 X45.897 Y17.931 Z0 F800
; --- FIX Y Backlash ---
G0 X45.897 Y17.431 F410
G1 X45.028 Y17.293 Z0 F800
; --- FIX Y Backlash ---
G0 X45.028 Y17.793 F410
G1 X44.066 Y18.114 Z0 F800
; --- FIX Y Backlash ---
G0 X44.066 Y17.614 F410
G1 X43.792 Y16.515 Z0 F800
; --- FIX X Backlash ---
G0 X44.492 Y16.515 F410
G1 X44.995 Y15.92 Z0 F800
G1 X46.002 Y15.233 Z0 F800
; --- FIX Y Backlash ---
G0 X46.002 Y15.733 F410
G1 X48.016 Y16.054 Z0 F800
; --- FIX Y Backlash ---
G0 X48.016 Y15.554 F410
G1 X48.383 Y15.416 Z0 F800
; --- FIX Y Backlash ---
G0 X48.383 Y15.916 F410
G1 X49.115 Y16.695 Z0 F800
; --- FIX X Backlash ---
G0 X48.415 Y16.695 F410
G1 X47.683 Y16.923 Z0 F800
; --- FIX Y Backlash ---
G0 X47.683 Y16.423 F410
G1 X46.08 Y16.286 Z0 F800
; --- FIX Y Backlash ---
G0 X46.08 Y16.786 F410
G1 X44.89 Y16.923 Z0 F800
G1 X44.57 Y17.335 Z0 F800
; --- FIX X Backlash ---
G0 X45.27 Y17.335 F410
; --- FIX Y Backlash ---
G0 X45.27 Y16.835 F410
G1 X47.376 Y16.698 Z0 F800
; --- FIX Y Backlash ---
G0 X47.376 Y17.198 F410
G1 X48.978 Y17.427 Z0 F800
M9
M5
G1 Z10 F800
G1 Z10 F800

