G90 ; Force absolute mode
;LightBurn 1.6.04
;Custom GCode device profile, absolute coords
;Bounds: X20.11 Y30.46 to X59.89 Y61.54
G00 G17 G40 G21 G54
M3
G1 Z10 F600
;Cut @ 444 mm/min, 80% power

M8
G0 Z3.5 F600
G0 X22.307 Y30.505 Z3.5
G1 Z0 F600
;Layer C3 Pass 1 of 2
G1 X24.962 Y30.459 Z0 F600
G1 X26.427 Y31.237 Z0 F600
G1 X26.552 Y31.334 Z0 F600
G1 X26.674 Y31.44 Z0 F600
G1 X26.805 Y31.569 Z0 F600
G1 X26.923 Y31.711 Z0 F600
G1 X27.007 Y31.855 Z0 F600
G1 X27.032 Y31.991 Z0 F600
; --- FIX X Backlash ---
G0 X26.332 Y31.991 F410
G1 X26.277 Y32.107 Z0 F600
G1 X26.156 Y32.235 Z0 F600
G1 X26.011 Y32.402 Z0 F600
G1 X25.852 Y32.59 Z0 F600
G1 X25.693 Y32.782 Z0 F600
G1 X25.315 Y33.251 Z0 F600
G1 X23.072 Y33.297 Z0 F600
; --- FIX X Backlash ---
G0 X23.772 Y33.297 F410
G1 X24.184 Y34.579 Z0 F600
; --- FIX X Backlash ---
G0 X23.484 Y34.579 F410
G1 X22.798 Y35.037 Z0 F600
; --- FIX X Backlash ---
G0 X23.498 Y35.037 F410
G1 X24.322 Y36.318 Z0 F600
; --- FIX X Backlash ---
G0 X23.622 Y36.318 F410
G1 X22.752 Y37.188 Z0 F600
; --- FIX X Backlash ---
G0 X23.452 Y37.188 F410
G1 X24.367 Y38.195 Z0 F600
; --- FIX Y Backlash ---
G0 X24.367 Y37.695 F410
G1 X25.191 Y36.047 Z0 F600
; --- FIX X Backlash ---
G0 X24.491 Y36.047 F410
G1 X24.034 Y35.086 Z0 F600
; --- FIX X Backlash ---
G0 X24.734 Y35.086 F410
G1 X24.915 Y34.997 Z0 F600
G1 X25.096 Y34.9 Z0 F600
G1 X25.294 Y34.783 Z0 F600
G1 X25.48 Y34.655 Z0 F600
G1 X25.622 Y34.526 Z0 F600
G1 X25.667 Y34.465 Z0 F600
G1 X25.689 Y34.407 Z0 F600
G1 X25.684 Y34.354 Z0 F600
G1 X25.649 Y34.308 Z0 F600
; --- FIX X Backlash ---
G0 X24.949 Y34.308 F410
G1 X24.733 Y34.111 Z0 F600
G1 X24.526 Y33.902 Z0 F600
G1 X24.37 Y33.735 Z0 F600
G1 X24.308 Y33.667 Z0 F600
; --- FIX X Backlash ---
G0 X25.008 Y33.667 F410
G1 X26.748 Y33.118 Z0 F600
G1 X27.892 Y32.019 Z0 F600
; --- FIX X Backlash ---
G0 X27.192 Y32.019 F410
G1 X27.101 Y30.92 Z0 F600
G1 X26.048 Y30.142 Z0 F600
; --- FIX X Backlash ---
G0 X26.748 Y30.142 F410
; --- FIX Y Backlash ---
G0 X26.748 Y30.642 F410
G1 X28.35 Y30.871 Z0 F600
G1 X28.945 Y31.924 Z0 F600
G1 X28.999 Y32.134 Z0 F600
G1 X29.049 Y32.354 Z0 F600
G1 X29.1 Y32.611 Z0 F600
G1 X29.139 Y32.876 Z0 F600
G1 X29.157 Y33.121 Z0 F600
G1 X29.142 Y33.317 Z0 F600
; --- FIX X Backlash ---
G0 X28.442 Y33.317 F410
G1 X28.382 Y33.435 Z0 F600
G1 X28.265 Y33.522 Z0 F600
G1 X28.1 Y33.641 Z0 F600
G1 X27.701 Y33.915 Z0 F600
G1 X27.192 Y34.258 Z0 F600
G1 X24.949 Y35.311 Z0 F600
; --- FIX X Backlash ---
G0 X25.649 Y35.311 F410
G1 X26.244 Y36.135 Z0 F600
G1 X27.572 Y36.09 Z0 F600
G1 X27.902 Y36.109 Z0 F600
G1 X28.104 Y36.124 Z0 F600
G1 X28.316 Y36.143 Z0 F600
G1 X28.518 Y36.167 Z0 F600
G1 X28.689 Y36.195 Z0 F600
G1 X28.808 Y36.227 Z0 F600
G1 X28.905 Y36.224 Z0 F600
; --- FIX Y Backlash ---
G0 X28.905 Y35.724 F410
G1 X29.019 Y35.658 Z0 F600
G1 X29.14 Y35.55 Z0 F600
G1 X29.26 Y35.418 Z0 F600
G1 X29.369 Y35.282 Z0 F600
G1 X29.458 Y35.16 Z0 F600
G1 X29.54 Y35.04 Z0 F600
; --- FIX X Backlash ---
G0 X28.84 Y35.04 F410
G1 X28.698 Y34.971 Z0 F600
G1 X28.543 Y34.903 Z0 F600
G1 X28.354 Y34.829 Z0 F600
G1 X28.145 Y34.761 Z0 F600
G1 X27.932 Y34.712 Z0 F600
G1 X27.732 Y34.694 Z0 F600
G1 X27.558 Y34.72 Z0 F600
; --- FIX Y Backlash ---
G0 X27.558 Y35.22 F410
G1 X27.181 Y35.283 Z0 F600
G1 X26.769 Z0 F600
G1 X26.598 Y35.265 Z0 F600
G1 X26.477 Y35.239 Z0 F600
G1 X26.424 Y35.208 Z0 F600
G1 X26.46 Y35.174 Z0 F600
; --- FIX X Backlash ---
G0 X27.16 Y35.174 F410
G1 X27.221 Y35.146 Z0 F600
G1 X27.314 Y35.099 Z0 F600
; --- FIX Y Backlash ---
G0 X27.314 Y34.599 F410
G1 X27.435 Y34.534 Z0 F600
G1 X27.912 Y34.272 Z0 F600
G1 X28.276 Y34.067 Z0 F600
G1 X29.22 Y33.53 Z0 F600
; --- FIX Y Backlash ---
G0 X29.22 Y34.03 F410
G1 X30.41 Y34.579 Z0 F600
; --- FIX Y Backlash ---
G0 X30.41 Y34.079 F410
G1 X30.53 Y33.989 Z0 F600
G1 X30.651 Y33.891 Z0 F600
G1 X30.788 Y33.77 Z0 F600
G1 X30.92 Y33.636 Z0 F600
G1 X31.028 Y33.5 Z0 F600
G1 X31.093 Y33.369 Z0 F600
G1 X31.097 Y33.255 Z0 F600
; --- FIX X Backlash ---
G0 X30.397 Y33.255 F410
G1 X30.331 Y33.131 Z0 F600
G1 X30.215 Y32.975 Z0 F600
G1 X30.067 Y32.801 Z0 F600
G1 X29.904 Y32.625 Z0 F600
G1 X29.747 Y32.463 Z0 F600
G1 X29.611 Y32.328 Z0 F600
G1 X29.481 Y32.202 Z0 F600
G1 X29.069 Y31.058 Z0 F600
G1 X28.84 Y30.279 Z0 F600
; --- FIX X Backlash ---
G0 X29.54 Y30.279 F410
G1 X30.273 Y30.234 Z0 F600
; --- FIX Y Backlash ---
G0 X30.273 Y30.734 F410
G1 X30.492 Y30.977 Z0 F600
G1 X30.622 Y31.128 Z0 F600
G1 X30.753 Y31.29 Z0 F600
G1 X30.871 Y31.448 Z0 F600
G1 X30.96 Y31.588 Z0 F600
G1 X31.005 Y31.695 Z0 F600
G1 X31.044 Y31.806 Z0 F600
G1 X31.117 Y31.956 Z0 F600
G1 X31.213 Y32.129 Z0 F600
G1 X31.32 Y32.307 Z0 F600
G1 X31.424 Y32.475 Z0 F600
G1 X31.6 Y32.748 Z0 F600
; --- FIX Y Backlash ---
G0 X31.6 Y32.248 F410
G1 X34.255 Y30.92 Z0 F600
; --- FIX X Backlash ---
G0 X33.555 Y30.92 F410
G1 X32.594 Y30.279 Z0 F600
; --- FIX Y Backlash ---
G0 X32.594 Y30.779 F410
G1 X31.083 Y31.329 Z0 F600
G1 X31.129 Y31.878 Z0 F600
; --- FIX X Backlash ---
G0 X31.829 Y31.878 F410
; --- FIX Y Backlash ---
G0 X31.829 Y31.378 F410
G1 X32.039 Y31.327 Z0 F600
G1 X32.516 Y31.206 Z0 F600
G1 X32.781 Y31.137 Z0 F600
G1 X33.026 Y31.069 Z0 F600
G1 X33.222 Y31.01 Z0 F600
G1 X33.34 Y30.966 Z0 F600
G1 X33.477 Y30.902 Z0 F600
G1 X33.724 Y30.792 Z0 F600
G1 X35.308 Y30.096 Z0 F600
G1 X37.643 Y30.005 Z0 F600
; --- FIX Y Backlash ---
G0 X37.643 Y30.505 F410
G1 X41.9 Y30.642 Z0 F600
; --- FIX Y Backlash ---
G0 X41.9 Y30.142 F410
G1 X45.608 Y29.959 Z0 F600
; --- FIX Y Backlash ---
G0 X45.608 Y30.459 F410
G1 X46.478 Y31.191 Z0 F600
; --- FIX X Backlash ---
G0 X45.778 Y31.191 F410
G1 X45.549 Y35.174 Z0 F600
; --- FIX X Backlash ---
G0 X46.249 Y35.174 F410
G1 X47.576 Y35.952 Z0 F600
; --- FIX X Backlash ---
G0 X46.876 Y35.952 F410
G1 X46.785 Y41.216 Z0 F600
G1 Y47.671 Z0 F600
; --- FIX X Backlash ---
G0 X47.485 Y47.671 F410
G1 X48.766 Y48.175 Z0 F600
; --- FIX Y Backlash ---
G0 X48.766 Y47.675 F410
G1 X49.224 Y44.241 Z0 F600
; --- FIX X Backlash ---
G0 X48.524 Y44.241 F410
G1 X47.288 Y41.357 Z0 F600
; --- FIX X Backlash ---
G0 X47.988 Y41.357 F410
G1 X48.146 Y40.909 Z0 F600
G1 X48.498 Y39.898 Z0 F600
G1 X48.688 Y39.339 Z0 F600
G1 X48.857 Y38.827 Z0 F600
G1 X48.927 Y38.609 Z0 F600
G1 X48.983 Y38.426 Z0 F600
G1 X49.022 Y38.287 Z0 F600
G1 X49.041 Y38.199 Z0 F600
G1 Y38.12 Z0 F600
G1 X49.019 Y38.006 Z0 F600
G1 X48.982 Y37.864 Z0 F600
G1 X48.932 Y37.699 Z0 F600
; --- FIX X Backlash ---
G0 X48.232 Y37.699 F410
G1 X48.101 Y37.319 Z0 F600
G1 X47.946 Y36.911 Z0 F600
G1 X47.79 Y36.518 Z0 F600
G1 X47.652 Y36.184 Z0 F600
G1 X47.517 Y35.864 Z0 F600
; --- FIX X Backlash ---
G0 X48.217 Y35.864 F410
G1 X49.041 Y35.406 Z0 F600
; --- FIX Y Backlash ---
G0 X49.041 Y35.906 F410
G1 X50.323 Y37.051 Z0 F600
G1 X50.369 Y39.431 Z0 F600
; --- FIX X Backlash ---
G0 X49.669 Y39.431 F410
G1 X48.662 Y41.674 Z0 F600
; --- FIX X Backlash ---
G0 X49.362 Y41.674 F410
G1 X49.651 Y42.121 Z0 F600
G1 X49.819 Y42.389 Z0 F600
G1 X49.987 Y42.669 Z0 F600
G1 X50.134 Y42.929 Z0 F600
G1 X50.193 Y43.044 Z0 F600
G1 X50.238 Y43.142 Z0 F600
G1 X50.267 Y43.221 Z0 F600
G1 X50.277 Y43.276 Z0 F600
G1 X50.27 Y43.759 Z0 F600
G1 X50.231 Y45.748 Z0 F600
G1 X50.46 Y47.488 Z0 F600
G1 X50.663 Y47.491 Z0 F600
G1 X50.866 Y47.488 Z0 F600
G1 X51.09 Y47.476 Z0 F600
G1 X51.301 Y47.452 Z0 F600
G1 X51.464 Y47.411 Z0 F600
G1 X51.518 Y47.382 Z0 F600
G1 X51.547 Y47.348 Z0 F600
G1 Y47.307 Z0 F600
G1 X51.513 Y47.259 Z0 F600
; --- FIX X Backlash ---
G0 X50.813 Y47.259 F410
; --- FIX Y Backlash ---
G0 X50.813 Y46.759 F410
G1 X50.759 Y46.672 Z0 F600
G1 X50.699 Y46.519 Z0 F600
G1 X50.635 Y46.311 Z0 F600
G1 X50.569 Y46.057 Z0 F600
G1 X50.432 Y45.451 Z0 F600
G1 X50.298 Y44.779 Z0 F600
G1 X50.177 Y44.121 Z0 F600
G1 X50.079 Y43.553 Z0 F600
G1 X49.989 Y43.005 Z0 F600
G1 X49.76 Y39.755 Z0 F600
; --- FIX X Backlash ---
G0 X50.46 Y39.755 F410
G1 X50.689 Y38.668 Z0 F600
G1 X50.773 Y38.249 Z0 F600
G1 X50.846 Y37.863 Z0 F600
G1 X50.876 Y37.696 Z0 F600
G1 X50.898 Y37.556 Z0 F600
G1 X50.913 Y37.447 Z0 F600
G1 X50.918 Y37.375 Z0 F600
G1 X50.915 Y37.307 Z0 F600
G1 X50.897 Y37.087 Z0 F600
; --- FIX X Backlash ---
G0 X50.197 Y37.087 F410
G1 X50.146 Y36.617 Z0 F600
G1 X50.104 Y36.265 Z0 F600
G1 X49.989 Y35.361 Z0 F600
; --- FIX X Backlash ---
G0 X50.689 Y35.361 F410
; --- FIX Y Backlash ---
G0 X50.689 Y35.861 F410
G1 X51.513 Y36.227 Z0 F600
G1 Y47.03 Z0 F600
G1 X52.749 Y48.083 Z0 F600
G1 X59.112 Y48.129 Z0 F600
; --- FIX X Backlash ---
G0 X58.412 Y48.129 F410
; --- FIX Y Backlash ---
G0 X58.412 Y47.629 F410
G1 X58.046 Y44.195 Z0 F600
; --- FIX X Backlash ---
G0 X58.746 Y44.195 F410
G1 X59.295 Y42.639 Z0 F600
; --- FIX X Backlash ---
G0 X58.595 Y42.639 F410
G1 X57.496 Y42.318 Z0 F600
; --- FIX X Backlash ---
G0 X58.196 Y42.318 F410
; --- FIX Y Backlash ---
G0 X58.196 Y42.818 F410
G1 X59.295 Y42.956 Z0 F600
G1 X59.753 Y44.421 Z0 F600
G1 Y46.114 Z0 F600
G1 X59.89 Y47.259 Z0 F600
; --- FIX X Backlash ---
G0 X59.19 Y47.259 F410
G1 X59.053 Y48.54 Z0 F600
G1 X58.32 Y49.41 Z0 F600
; --- FIX Y Backlash ---
G0 X58.32 Y48.91 F410
G1 X57.313 Y48.178 Z0 F600
; --- FIX X Backlash ---
G0 X58.013 Y48.178 F410
G1 X58.654 Y47.033 Z0 F600
; --- FIX X Backlash ---
G0 X57.954 Y47.033 F410
G1 X57.817 Y45.065 Z0 F600
G1 X57.679 Y43.234 Z0 F600
; --- FIX Y Backlash ---
G0 X57.679 Y43.734 F410
G1 X57.313 Y44.833 Z0 F600
; --- FIX X Backlash ---
G0 X58.013 Y44.833 F410
G1 X58.196 Y47.03 Z0 F600
; --- FIX X Backlash ---
G0 X57.496 Y47.03 F410
G1 X56.901 Y48.083 Z0 F600
G1 X50.584 Y48.129 Z0 F600
G1 X49.302 Y48.22 Z0 F600
G1 X47.517 Y48.632 Z0 F600
; --- FIX Y Backlash ---
G0 X47.517 Y48.132 F410
G1 X46.51 Y47.491 Z0 F600
; --- FIX X Backlash ---
G0 X47.21 Y47.491 F410
G1 X47.576 Y46.255 Z0 F600
; --- FIX Y Backlash ---
G0 X47.576 Y46.755 F410
G1 X50.368 Y47.533 Z0 F600
; --- FIX Y Backlash ---
G0 X50.368 Y47.033 F410
G1 X51.376 Y46.209 Z0 F600
G1 X51.433 Y46.109 Z0 F600
G1 X51.482 Y46.007 Z0 F600
G1 X51.524 Y45.889 Z0 F600
G1 X51.545 Y45.771 Z0 F600
G1 X51.53 Y45.669 Z0 F600
; --- FIX X Backlash ---
G0 X50.83 Y45.669 F410
G1 X50.763 Y45.596 Z0 F600
G1 X50.63 Y45.569 Z0 F600
G1 X50.022 Y45.576 Z0 F600
G1 X47.975 Y45.614 Z0 F600
G1 X46.83 Y45.477 Z0 F600
G1 X46.87 Y45.298 Z0 F600
G1 X46.915 Y45.115 Z0 F600
; --- FIX X Backlash ---
G0 X47.615 Y45.115 F410
G1 X47.673 Y44.905 Z0 F600
G1 X47.743 Y44.695 Z0 F600
G1 X47.82 Y44.511 Z0 F600
G1 X47.903 Y44.382 Z0 F600
G1 X47.988 Y44.333 Z0 F600
G1 X48.049 Y44.34 Z0 F600
G1 X48.142 Y44.36 Z0 F600
G1 X48.263 Y44.392 Z0 F600
G1 X48.406 Y44.433 Z0 F600
; --- FIX Y Backlash ---
G0 X48.406 Y44.933 F410
G1 X48.74 Y45.035 Z0 F600
G1 X49.104 Y45.153 Z0 F600
G1 X49.457 Y45.271 Z0 F600
G1 X50.048 Y45.474 Z0 F600
; --- FIX Y Backlash ---
G0 X50.048 Y44.974 F410
G1 X51.742 Y44.287 Z0 F600
G1 X51.737 Y44.15 Z0 F600
G1 X51.725 Y44.009 Z0 F600
G1 X51.702 Y43.846 Z0 F600
G1 X51.663 Y43.681 Z0 F600
; --- FIX X Backlash ---
G0 X50.963 Y43.681 F410
G1 X50.907 Y43.534 Z0 F600
G1 X50.827 Y43.424 Z0 F600
G1 X50.721 Y43.371 Z0 F600
G1 X50.644 Y43.366 Z0 F600
G1 X50.535 Z0 F600
G1 X50.399 Y43.371 Z0 F600
G1 X50.243 Y43.381 Z0 F600
G1 X49.885 Y43.409 Z0 F600
G1 X49.502 Y43.446 Z0 F600
G1 X49.135 Y43.484 Z0 F600
; --- FIX Y Backlash ---
G0 X49.135 Y43.984 F410
G1 X48.524 Y44.054 Z0 F600
G1 X48.327 Y44.084 Z0 F600
G1 X48.118 Y44.108 Z0 F600
G1 X47.872 Y44.123 Z0 F600
G1 X47.612 Z0 F600
G1 X47.365 Y44.093 Z0 F600
; --- FIX Y Backlash ---
G0 X47.365 Y43.593 F410
G1 X47.157 Y43.528 Z0 F600
G1 X47.013 Y43.417 Z0 F600
G1 X46.753 Y43.194 Z0 F600
G1 X46.475 Y43.039 Z0 F600
G1 X46.373 Y42.972 Z0 F600
G1 X46.318 Y42.902 Z0 F600
G1 X46.327 Y42.824 Z0 F600
; --- FIX X Backlash ---
G0 X47.027 Y42.824 F410
G1 X47.118 Y42.73 Z0 F600
G1 X47.31 Y42.632 Z0 F600
G1 X47.587 Y42.543 Z0 F600
G1 X47.916 Y42.465 Z0 F600
G1 X48.263 Y42.399 Z0 F600
G1 X48.592 Y42.345 Z0 F600
G1 X48.869 Y42.306 Z0 F600
G1 X49.132 Y42.273 Z0 F600
; --- FIX Y Backlash ---
G0 X49.132 Y42.773 F410
G1 X50.735 Y43.23 Z0 F600
; --- FIX Y Backlash ---
G0 X50.735 Y42.73 F410
G1 X51.833 Y41.998 Z0 F600
G1 X51.808 Y41.972 Z0 F600
; --- FIX X Backlash ---
G0 X51.108 Y41.972 F410
G1 X51.037 Y41.904 Z0 F600
G1 X50.923 Y41.807 Z0 F600
G1 X50.773 Y41.695 Z0 F600
G1 X50.59 Y41.58 Z0 F600
G1 X50.38 Y41.477 Z0 F600
G1 X50.148 Y41.398 Z0 F600
G1 X49.897 Y41.357 Z0 F600
G1 X49.597 Y41.362 Z0 F600
G1 X49.232 Y41.402 Z0 F600
; --- FIX Y Backlash ---
G0 X49.232 Y41.902 F410
G1 X48.83 Y41.967 Z0 F600
G1 X48.421 Y42.046 Z0 F600
G1 X47.696 Y42.198 Z0 F600
G1 X47.438 Y42.25 Z0 F600
G1 X47.347 Y42.264 Z0 F600
G1 X47.288 Y42.269 Z0 F600
G1 X47.136 Y42.273 Z0 F600
G1 X46.877 Y42.283 Z0 F600
G1 X46.195 Y42.315 Z0 F600
G1 X45.274 Y42.361 Z0 F600
G1 X44.587 Y42.956 Z0 F600
; --- FIX Y Backlash ---
G0 X44.587 Y42.456 F410
G1 X44.267 Y42.044 Z0 F600
; --- FIX X Backlash ---
G0 X44.967 Y42.044 F410
G1 X45.196 Y41.128 Z0 F600
G1 X45.241 Y40.442 Z0 F600
G1 X46.249 Y39.847 Z0 F600
; --- FIX Y Backlash ---
G0 X46.249 Y40.347 F410
G1 X46.569 Y41.354 Z0 F600
; --- FIX Y Backlash ---
G0 X46.569 Y40.854 F410
G1 X48.675 Y40.442 Z0 F600
G1 X49.911 Y40.213 Z0 F600
; --- FIX Y Backlash ---
G0 X49.911 Y40.713 F410
G1 X51.742 Y41.216 Z0 F600
; --- FIX Y Backlash ---
G0 X51.742 Y40.716 F410
G1 X52.199 Y39.16 Z0 F600
; --- FIX X Backlash ---
G0 X51.499 Y39.16 F410
G1 X51.344 Y39.121 Z0 F600
G1 X51.176 Y39.085 Z0 F600
G1 X50.973 Y39.051 Z0 F600
G1 X50.753 Y39.028 Z0 F600
G1 X50.534 Y39.025 Z0 F600
G1 X50.334 Y39.05 Z0 F600
; --- FIX Y Backlash ---
G0 X50.334 Y39.55 F410
G1 X50.172 Y39.614 Z0 F600
G1 X49.531 Y40.02 Z0 F600
G1 X49.165 Y40.255 Z0 F600
; --- FIX Y Backlash ---
G0 X49.165 Y39.755 F410
G1 X47.517 Y39.114 Z0 F600
; --- FIX Y Backlash ---
G0 X47.517 Y39.614 F410
G1 X47.388 Y39.673 Z0 F600
G1 X47.256 Y39.725 Z0 F600
G1 X47.105 Y39.774 Z0 F600
G1 X46.954 Y39.806 Z0 F600
G1 X46.822 Z0 F600
G1 X46.728 Y39.763 Z0 F600
; --- FIX Y Backlash ---
G0 X46.728 Y39.263 F410
G1 X46.693 Y39.16 Z0 F600
G1 X46.67 Y38.668 Z0 F600
G1 X46.693 Y38.49 Z0 F600
; --- FIX X Backlash ---
G0 X47.393 Y38.49 F410
G1 X47.485 Y38.382 Z0 F600
G1 X47.543 Y38.361 Z0 F600
G1 X47.645 Y38.334 Z0 F600
G1 X47.785 Y38.301 Z0 F600
G1 X47.955 Y38.264 Z0 F600
G1 X48.362 Y38.182 Z0 F600
G1 X48.812 Y38.096 Z0 F600
G1 X49.635 Y37.944 Z0 F600
G1 X50.002 Y37.878 Z0 F600
G1 X50.019 Y37.928 Z0 F600
; --- FIX Y Backlash ---
G0 X50.019 Y38.428 F410
G1 X50.071 Y38.533 Z0 F600
G1 X50.157 Y38.629 Z0 F600
G1 X50.277 Y38.653 Z0 F600
G1 X50.385 Y38.622 Z0 F600
; --- FIX Y Backlash ---
G0 X50.385 Y38.122 F410
G1 X50.554 Y38.069 Z0 F600
G1 X50.986 Y37.93 Z0 F600
G1 X51.559 Y37.741 Z0 F600
G1 X51.925 Y36.23 Z0 F600
; --- FIX X Backlash ---
G0 X51.225 Y36.23 F410
G1 X50.309 Y36.276 Z0 F600
; --- FIX Y Backlash ---
G0 X50.309 Y36.776 F410
G1 X48.936 Y37.6 Z0 F600
G1 X47.334 Y37.554 Z0 F600
; --- FIX Y Backlash ---
G0 X47.334 Y37.054 F410
G1 X46.693 Y36.413 Z0 F600
G1 X46.576 Y36.269 Z0 F600
G1 X46.461 Y36.119 Z0 F600
G1 X46.338 Y35.944 Z0 F600
G1 X46.228 Y35.765 Z0 F600
G1 X46.152 Y35.602 Z0 F600
G1 X46.132 Y35.476 Z0 F600
; --- FIX X Backlash ---
G0 X46.832 Y35.476 F410
G1 X46.889 Y35.406 Z0 F600
G1 X47.035 Y35.384 Z0 F600
G1 X47.248 Z0 F600
G1 X47.503 Y35.395 Z0 F600
G1 X47.771 Y35.418 Z0 F600
G1 X48.026 Y35.445 Z0 F600
G1 X48.241 Y35.471 Z0 F600
G1 X48.446 Y35.498 Z0 F600
; --- FIX Y Backlash ---
G0 X48.446 Y35.998 F410
G1 X50.048 Y36.089 Z0 F600
; --- FIX Y Backlash ---
G0 X50.048 Y35.589 F410
G1 X51.513 Y35.269 Z0 F600
; --- FIX X Backlash ---
G0 X50.813 Y35.269 F410
; --- FIX Y Backlash ---
G0 X50.813 Y35.769 F410
G1 X48.158 Y36.685 Z0 F600
; --- FIX Y Backlash ---
G0 X48.158 Y36.185 F410
G1 X45.961 Y34.399 Z0 F600
G1 X45.777 Y30.783 Z0 F600
G1 X44.999 Y30.234 Z0 F600
G1 X40.65 Y30.142 Z0 F600
; --- FIX Y Backlash ---
G0 X40.65 Y30.642 F410
G1 X36.622 Y31.1 Z0 F600
; --- FIX Y Backlash ---
G0 X36.622 Y30.6 F410
G1 X34.516 Y30.05 Z0 F600
; --- FIX Y Backlash ---
G0 X34.516 Y30.55 F410
G1 X33.875 Y33.022 Z0 F600
; --- FIX Y Backlash ---
G0 X33.875 Y32.522 F410
G1 X31.632 Y32.385 Z0 F600
; --- FIX Y Backlash ---
G0 X31.632 Y32.885 F410
G1 X30.671 Y33.938 Z0 F600
G1 X29.756 Y35.266 Z0 F600
G1 X29.801 Y36.776 Z0 F600
G1 X28.062 Y37.097 Z0 F600
G1 X26.277 Z0 F600
; --- FIX Y Backlash ---
G0 X26.277 Y36.597 F410
G1 X25.636 Y36.23 Z0 F600
; --- FIX Y Backlash ---
G0 X25.636 Y36.73 F410
G1 X24.217 Y37.463 Z0 F600
G1 X23.576 Y39.202 Z0 F600
G1 X23.393 Y40.392 Z0 F600
; --- FIX X Backlash ---
G0 X24.093 Y40.392 F410
G1 X24.367 Y41.445 Z0 F600
G1 X24.413 Y42.086 Z0 F600
; --- FIX X Backlash ---
G0 X23.713 Y42.086 F410
G1 X22.523 Y42.269 Z0 F600
; --- FIX Y Backlash ---
G0 X22.523 Y41.769 F410
G1 X20.646 Y41.54 Z0 F600
G1 X19.776 Y40.991 Z0 F600
G1 X19.822 Y40.396 Z0 F600
; --- FIX X Backlash ---
G0 X20.522 Y40.396 F410
G1 X21.895 Y40.304 Z0 F600
; --- FIX Y Backlash ---
G0 X21.895 Y40.804 F410
G1 X22.17 Y41.216 Z0 F600
G1 X24.093 Y41.491 Z0 F600
; --- FIX X Backlash ---
G0 X23.393 Y41.491 F410
; --- FIX Y Backlash ---
G0 X23.393 Y40.991 F410
G1 X22.34 Y40.213 Z0 F600
G1 X22.159 Y40.193 Z0 F600
G1 X21.98 Y40.165 Z0 F600
G1 X21.785 Y40.121 Z0 F600
G1 X21.604 Y40.061 Z0 F600
G1 X21.471 Y39.981 Z0 F600
G1 X21.431 Y39.933 Z0 F600
G1 X21.415 Y39.88 Z0 F600
G1 X21.427 Y39.821 Z0 F600
G1 X21.47 Y39.755 Z0 F600
; --- FIX X Backlash ---
G0 X22.17 Y39.755 F410
G1 X22.317 Y39.624 Z0 F600
G1 X22.505 Y39.508 Z0 F600
G1 X22.716 Y39.406 Z0 F600
G1 X22.931 Y39.32 Z0 F600
G1 X23.131 Y39.252 Z0 F600
G1 X23.297 Y39.202 Z0 F600
G1 X23.452 Y39.16 Z0 F600
; --- FIX X Backlash ---
G0 X22.752 Y39.16 F410
; --- FIX Y Backlash ---
G0 X22.752 Y39.66 F410
G1 X21.699 Y42.727 Z0 F600
; --- FIX Y Backlash ---
G0 X21.699 Y42.227 F410
G1 X20.234 Y40.808 Z0 F600
; --- FIX X Backlash ---
G0 X20.934 Y40.808 F410
G1 X24.001 Y38.29 Z0 F600
; --- FIX X Backlash ---
G0 X23.301 Y38.29 F410
; --- FIX Y Backlash ---
G0 X23.301 Y38.79 F410
G1 X21.699 Y38.973 Z0 F600
; --- FIX X Backlash ---
G0 X22.399 Y38.973 F410
; --- FIX Y Backlash ---
G0 X22.399 Y38.473 F410
G1 X22.811 Y36.917 Z0 F600
; --- FIX X Backlash ---
G0 X22.111 Y36.917 F410
G1 X21.699 Y36.093 Z0 F600
; --- FIX X Backlash ---
G0 X22.399 Y36.093 F410
G1 X23.223 Y34.949 Z0 F600
; --- FIX X Backlash ---
G0 X22.523 Y34.949 F410
G1 X22.019 Y33.896 Z0 F600
; --- FIX X Backlash ---
G0 X22.719 Y33.896 F410
G1 X23.452 Y33.118 Z0 F600
; --- FIX X Backlash ---
G0 X22.752 Y33.118 F410
G1 X22.111 Y32.797 Z0 F600
G1 X21.47 Y32.202 Z0 F600
G1 X21.058 Y31.195 Z0 F600
; --- FIX X Backlash ---
G0 X21.758 Y31.195 F410
G1 X22.307 Y30.005 Z0 F600
;Layer C3 Pass 2 of 2
G1 X24.962 Y29.959 Z0 F600
; --- FIX Y Backlash ---
G0 X24.962 Y30.459 F410
G1 X26.427 Y31.237 Z0 F600
G1 X26.552 Y31.334 Z0 F600
G1 X26.674 Y31.44 Z0 F600
G1 X26.805 Y31.569 Z0 F600
G1 X26.923 Y31.711 Z0 F600
G1 X27.007 Y31.855 Z0 F600
G1 X27.032 Y31.991 Z0 F600
; --- FIX X Backlash ---
G0 X26.332 Y31.991 F410
G1 X26.277 Y32.107 Z0 F600
G1 X26.156 Y32.235 Z0 F600
G1 X26.011 Y32.402 Z0 F600
G1 X25.852 Y32.59 Z0 F600
G1 X25.693 Y32.782 Z0 F600
G1 X25.315 Y33.251 Z0 F600
G1 X23.072 Y33.297 Z0 F600
; --- FIX X Backlash ---
G0 X23.772 Y33.297 F410
G1 X24.184 Y34.579 Z0 F600
; --- FIX X Backlash ---
G0 X23.484 Y34.579 F410
G1 X22.798 Y35.037 Z0 F600
; --- FIX X Backlash ---
G0 X23.498 Y35.037 F410
G1 X24.322 Y36.318 Z0 F600
; --- FIX X Backlash ---
G0 X23.622 Y36.318 F410
G1 X22.752 Y37.188 Z0 F600
; --- FIX X Backlash ---
G0 X23.452 Y37.188 F410
G1 X24.367 Y38.195 Z0 F600
; --- FIX Y Backlash ---
G0 X24.367 Y37.695 F410
G1 X25.191 Y36.047 Z0 F600
; --- FIX X Backlash ---
G0 X24.491 Y36.047 F410
G1 X24.034 Y35.086 Z0 F600
; --- FIX X Backlash ---
G0 X24.734 Y35.086 F410
G1 X24.915 Y34.997 Z0 F600
G1 X25.096 Y34.9 Z0 F600
G1 X25.294 Y34.783 Z0 F600
G1 X25.48 Y34.655 Z0 F600
G1 X25.622 Y34.526 Z0 F600
G1 X25.667 Y34.465 Z0 F600
G1 X25.689 Y34.407 Z0 F600
G1 X25.684 Y34.354 Z0 F600
G1 X25.649 Y34.308 Z0 F600
; --- FIX X Backlash ---
G0 X24.949 Y34.308 F410
G1 X24.733 Y34.111 Z0 F600
G1 X24.526 Y33.902 Z0 F600
G1 X24.37 Y33.735 Z0 F600
G1 X24.308 Y33.667 Z0 F600
; --- FIX X Backlash ---
G0 X25.008 Y33.667 F410
G1 X26.748 Y33.118 Z0 F600
G1 X27.892 Y32.019 Z0 F600
; --- FIX X Backlash ---
G0 X27.192 Y32.019 F410
G1 X27.101 Y30.92 Z0 F600
G1 X26.048 Y30.142 Z0 F600
; --- FIX X Backlash ---
G0 X26.748 Y30.142 F410
; --- FIX Y Backlash ---
G0 X26.748 Y30.642 F410
G1 X28.35 Y30.871 Z0 F600
G1 X28.945 Y31.924 Z0 F600
G1 X28.999 Y32.134 Z0 F600
G1 X29.049 Y32.354 Z0 F600
G1 X29.1 Y32.611 Z0 F600
G1 X29.139 Y32.876 Z0 F600
G1 X29.157 Y33.121 Z0 F600
G1 X29.142 Y33.317 Z0 F600
; --- FIX X Backlash ---
G0 X28.442 Y33.317 F410
G1 X28.382 Y33.435 Z0 F600
G1 X28.265 Y33.522 Z0 F600
G1 X28.1 Y33.641 Z0 F600
G1 X27.701 Y33.915 Z0 F600
G1 X27.192 Y34.258 Z0 F600
G1 X24.949 Y35.311 Z0 F600
; --- FIX X Backlash ---
G0 X25.649 Y35.311 F410
G1 X26.244 Y36.135 Z0 F600
G1 X27.572 Y36.09 Z0 F600
G1 X27.902 Y36.109 Z0 F600
G1 X28.104 Y36.124 Z0 F600
G1 X28.316 Y36.143 Z0 F600
G1 X28.518 Y36.167 Z0 F600
G1 X28.689 Y36.195 Z0 F600
G1 X28.808 Y36.227 Z0 F600
G1 X28.905 Y36.224 Z0 F600
; --- FIX Y Backlash ---
G0 X28.905 Y35.724 F410
G1 X29.019 Y35.658 Z0 F600
G1 X29.14 Y35.55 Z0 F600
G1 X29.26 Y35.418 Z0 F600
G1 X29.369 Y35.282 Z0 F600
G1 X29.458 Y35.16 Z0 F600
G1 X29.54 Y35.04 Z0 F600
; --- FIX X Backlash ---
G0 X28.84 Y35.04 F410
G1 X28.698 Y34.971 Z0 F600
G1 X28.543 Y34.903 Z0 F600
G1 X28.354 Y34.829 Z0 F600
G1 X28.145 Y34.761 Z0 F600
G1 X27.932 Y34.712 Z0 F600
G1 X27.732 Y34.694 Z0 F600
G1 X27.558 Y34.72 Z0 F600
; --- FIX Y Backlash ---
G0 X27.558 Y35.22 F410
G1 X27.181 Y35.283 Z0 F600
G1 X26.769 Z0 F600
G1 X26.598 Y35.265 Z0 F600
G1 X26.477 Y35.239 Z0 F600
G1 X26.424 Y35.208 Z0 F600
G1 X26.46 Y35.174 Z0 F600
; --- FIX X Backlash ---
G0 X27.16 Y35.174 F410
G1 X27.221 Y35.146 Z0 F600
G1 X27.314 Y35.099 Z0 F600
; --- FIX Y Backlash ---
G0 X27.314 Y34.599 F410
G1 X27.435 Y34.534 Z0 F600
G1 X27.912 Y34.272 Z0 F600
G1 X28.276 Y34.067 Z0 F600
G1 X29.22 Y33.53 Z0 F600
; --- FIX Y Backlash ---
G0 X29.22 Y34.03 F410
G1 X30.41 Y34.579 Z0 F600
; --- FIX Y Backlash ---
G0 X30.41 Y34.079 F410
G1 X30.53 Y33.989 Z0 F600
G1 X30.651 Y33.891 Z0 F600
G1 X30.788 Y33.77 Z0 F600
G1 X30.92 Y33.636 Z0 F600
G1 X31.028 Y33.5 Z0 F600
G1 X31.093 Y33.369 Z0 F600
G1 X31.097 Y33.255 Z0 F600
; --- FIX X Backlash ---
G0 X30.397 Y33.255 F410
G1 X30.331 Y33.131 Z0 F600
G1 X30.215 Y32.975 Z0 F600
G1 X30.067 Y32.801 Z0 F600
G1 X29.904 Y32.625 Z0 F600
G1 X29.747 Y32.463 Z0 F600
G1 X29.611 Y32.328 Z0 F600
G1 X29.481 Y32.202 Z0 F600
G1 X29.069 Y31.058 Z0 F600
G1 X28.84 Y30.279 Z0 F600
; --- FIX X Backlash ---
G0 X29.54 Y30.279 F410
G1 X30.273 Y30.234 Z0 F600
; --- FIX Y Backlash ---
G0 X30.273 Y30.734 F410
G1 X30.492 Y30.977 Z0 F600
G1 X30.622 Y31.128 Z0 F600
G1 X30.753 Y31.29 Z0 F600
G1 X30.871 Y31.448 Z0 F600
G1 X30.96 Y31.588 Z0 F600
G1 X31.005 Y31.695 Z0 F600
G1 X31.044 Y31.806 Z0 F600
G1 X31.117 Y31.956 Z0 F600
G1 X31.213 Y32.129 Z0 F600
G1 X31.32 Y32.307 Z0 F600
G1 X31.424 Y32.475 Z0 F600
G1 X31.6 Y32.748 Z0 F600
; --- FIX Y Backlash ---
G0 X31.6 Y32.248 F410
G1 X34.255 Y30.92 Z0 F600
; --- FIX X Backlash ---
G0 X33.555 Y30.92 F410
G1 X32.594 Y30.279 Z0 F600
; --- FIX Y Backlash ---
G0 X32.594 Y30.779 F410
G1 X31.083 Y31.329 Z0 F600
G1 X31.129 Y31.878 Z0 F600
; --- FIX X Backlash ---
G0 X31.829 Y31.878 F410
; --- FIX Y Backlash ---
G0 X31.829 Y31.378 F410
G1 X32.039 Y31.327 Z0 F600
G1 X32.516 Y31.206 Z0 F600
G1 X32.781 Y31.137 Z0 F600
G1 X33.026 Y31.069 Z0 F600
G1 X33.222 Y31.01 Z0 F600
G1 X33.34 Y30.966 Z0 F600
G1 X33.477 Y30.902 Z0 F600
G1 X33.724 Y30.792 Z0 F600
G1 X35.308 Y30.096 Z0 F600
G1 X37.643 Y30.005 Z0 F600
; --- FIX Y Backlash ---
G0 X37.643 Y30.505 F410
G1 X41.9 Y30.642 Z0 F600
; --- FIX Y Backlash ---
G0 X41.9 Y30.142 F410
G1 X45.608 Y29.959 Z0 F600
; --- FIX Y Backlash ---
G0 X45.608 Y30.459 F410
G1 X46.478 Y31.191 Z0 F600
; --- FIX X Backlash ---
G0 X45.778 Y31.191 F410
G1 X45.549 Y35.174 Z0 F600
; --- FIX X Backlash ---
G0 X46.249 Y35.174 F410
G1 X47.576 Y35.952 Z0 F600
; --- FIX X Backlash ---
G0 X46.876 Y35.952 F410
G1 X46.785 Y41.216 Z0 F600
G1 Y47.671 Z0 F600
; --- FIX X Backlash ---
G0 X47.485 Y47.671 F410
G1 X48.766 Y48.175 Z0 F600
; --- FIX Y Backlash ---
G0 X48.766 Y47.675 F410
G1 X49.224 Y44.241 Z0 F600
; --- FIX X Backlash ---
G0 X48.524 Y44.241 F410
G1 X47.288 Y41.357 Z0 F600
; --- FIX X Backlash ---
G0 X47.988 Y41.357 F410
G1 X48.146 Y40.909 Z0 F600
G1 X48.498 Y39.898 Z0 F600
G1 X48.688 Y39.339 Z0 F600
G1 X48.857 Y38.827 Z0 F600
G1 X48.927 Y38.609 Z0 F600
G1 X48.983 Y38.426 Z0 F600
G1 X49.022 Y38.287 Z0 F600
G1 X49.041 Y38.199 Z0 F600
G1 Y38.12 Z0 F600
G1 X49.019 Y38.006 Z0 F600
G1 X48.982 Y37.864 Z0 F600
G1 X48.932 Y37.699 Z0 F600
; --- FIX X Backlash ---
G0 X48.232 Y37.699 F410
G1 X48.101 Y37.319 Z0 F600
G1 X47.946 Y36.911 Z0 F600
G1 X47.79 Y36.518 Z0 F600
G1 X47.652 Y36.184 Z0 F600
G1 X47.517 Y35.864 Z0 F600
; --- FIX X Backlash ---
G0 X48.217 Y35.864 F410
G1 X49.041 Y35.406 Z0 F600
; --- FIX Y Backlash ---
G0 X49.041 Y35.906 F410
G1 X50.323 Y37.051 Z0 F600
G1 X50.369 Y39.431 Z0 F600
; --- FIX X Backlash ---
G0 X49.669 Y39.431 F410
G1 X48.662 Y41.674 Z0 F600
; --- FIX X Backlash ---
G0 X49.362 Y41.674 F410
G1 X49.651 Y42.121 Z0 F600
G1 X49.819 Y42.389 Z0 F600
G1 X49.987 Y42.669 Z0 F600
G1 X50.134 Y42.929 Z0 F600
G1 X50.193 Y43.044 Z0 F600
G1 X50.238 Y43.142 Z0 F600
G1 X50.267 Y43.221 Z0 F600
G1 X50.277 Y43.276 Z0 F600
G1 X50.27 Y43.759 Z0 F600
G1 X50.231 Y45.748 Z0 F600
G1 X50.46 Y47.488 Z0 F600
G1 X50.663 Y47.491 Z0 F600
G1 X50.866 Y47.488 Z0 F600
G1 X51.09 Y47.476 Z0 F600
G1 X51.301 Y47.452 Z0 F600
G1 X51.464 Y47.411 Z0 F600
G1 X51.518 Y47.382 Z0 F600
G1 X51.547 Y47.348 Z0 F600
G1 Y47.307 Z0 F600
G1 X51.513 Y47.259 Z0 F600
; --- FIX X Backlash ---
G0 X50.813 Y47.259 F410
; --- FIX Y Backlash ---
G0 X50.813 Y46.759 F410
G1 X50.759 Y46.672 Z0 F600
G1 X50.699 Y46.519 Z0 F600
G1 X50.635 Y46.311 Z0 F600
G1 X50.569 Y46.057 Z0 F600
G1 X50.432 Y45.451 Z0 F600
G1 X50.298 Y44.779 Z0 F600
G1 X50.177 Y44.121 Z0 F600
G1 X50.079 Y43.553 Z0 F600
G1 X49.989 Y43.005 Z0 F600
G1 X49.76 Y39.755 Z0 F600
; --- FIX X Backlash ---
G0 X50.46 Y39.755 F410
G1 X50.689 Y38.668 Z0 F600
G1 X50.773 Y38.249 Z0 F600
G1 X50.846 Y37.863 Z0 F600
G1 X50.876 Y37.696 Z0 F600
G1 X50.898 Y37.556 Z0 F600
G1 X50.913 Y37.447 Z0 F600
G1 X50.918 Y37.375 Z0 F600
G1 X50.915 Y37.307 Z0 F600
G1 X50.897 Y37.087 Z0 F600
; --- FIX X Backlash ---
G0 X50.197 Y37.087 F410
G1 X50.146 Y36.617 Z0 F600
G1 X50.104 Y36.265 Z0 F600
G1 X49.989 Y35.361 Z0 F600
; --- FIX X Backlash ---
G0 X50.689 Y35.361 F410
; --- FIX Y Backlash ---
G0 X50.689 Y35.861 F410
G1 X51.513 Y36.227 Z0 F600
G1 Y47.03 Z0 F600
G1 X52.749 Y48.083 Z0 F600
G1 X59.112 Y48.129 Z0 F600
; --- FIX X Backlash ---
G0 X58.412 Y48.129 F410
; --- FIX Y Backlash ---
G0 X58.412 Y47.629 F410
G1 X58.046 Y44.195 Z0 F600
; --- FIX X Backlash ---
G0 X58.746 Y44.195 F410
G1 X59.295 Y42.639 Z0 F600
; --- FIX X Backlash ---
G0 X58.595 Y42.639 F410
G1 X57.496 Y42.318 Z0 F600
; --- FIX X Backlash ---
G0 X58.196 Y42.318 F410
; --- FIX Y Backlash ---
G0 X58.196 Y42.818 F410
G1 X59.295 Y42.956 Z0 F600
G1 X59.753 Y44.421 Z0 F600
G1 Y46.114 Z0 F600
G1 X59.89 Y47.259 Z0 F600
; --- FIX X Backlash ---
G0 X59.19 Y47.259 F410
G1 X59.053 Y48.54 Z0 F600
G1 X58.32 Y49.41 Z0 F600
; --- FIX Y Backlash ---
G0 X58.32 Y48.91 F410
G1 X57.313 Y48.178 Z0 F600
; --- FIX X Backlash ---
G0 X58.013 Y48.178 F410
G1 X58.654 Y47.033 Z0 F600
; --- FIX X Backlash ---
G0 X57.954 Y47.033 F410
G1 X57.817 Y45.065 Z0 F600
G1 X57.679 Y43.234 Z0 F600
; --- FIX Y Backlash ---
G0 X57.679 Y43.734 F410
G1 X57.313 Y44.833 Z0 F600
; --- FIX X Backlash ---
G0 X58.013 Y44.833 F410
G1 X58.196 Y47.03 Z0 F600
; --- FIX X Backlash ---
G0 X57.496 Y47.03 F410
G1 X56.901 Y48.083 Z0 F600
G1 X50.584 Y48.129 Z0 F600
G1 X49.302 Y48.22 Z0 F600
G1 X47.517 Y48.632 Z0 F600
; --- FIX Y Backlash ---
G0 X47.517 Y48.132 F410
G1 X46.51 Y47.491 Z0 F600
; --- FIX X Backlash ---
G0 X47.21 Y47.491 F410
G1 X47.576 Y46.255 Z0 F600
; --- FIX Y Backlash ---
G0 X47.576 Y46.755 F410
G1 X50.368 Y47.533 Z0 F600
; --- FIX Y Backlash ---
G0 X50.368 Y47.033 F410
G1 X51.376 Y46.209 Z0 F600
G1 X51.433 Y46.109 Z0 F600
G1 X51.482 Y46.007 Z0 F600
G1 X51.524 Y45.889 Z0 F600
G1 X51.545 Y45.771 Z0 F600
G1 X51.53 Y45.669 Z0 F600
; --- FIX X Backlash ---
G0 X50.83 Y45.669 F410
G1 X50.763 Y45.596 Z0 F600
G1 X50.63 Y45.569 Z0 F600
G1 X50.022 Y45.576 Z0 F600
G1 X47.975 Y45.614 Z0 F600
G1 X46.83 Y45.477 Z0 F600
G1 X46.87 Y45.298 Z0 F600
G1 X46.915 Y45.115 Z0 F600
; --- FIX X Backlash ---
G0 X47.615 Y45.115 F410
G1 X47.673 Y44.905 Z0 F600
G1 X47.743 Y44.695 Z0 F600
G1 X47.82 Y44.511 Z0 F600
G1 X47.903 Y44.382 Z0 F600
G1 X47.988 Y44.333 Z0 F600
G1 X48.049 Y44.34 Z0 F600
G1 X48.142 Y44.36 Z0 F600
G1 X48.263 Y44.392 Z0 F600
G1 X48.406 Y44.433 Z0 F600
; --- FIX Y Backlash ---
G0 X48.406 Y44.933 F410
G1 X48.74 Y45.035 Z0 F600
G1 X49.104 Y45.153 Z0 F600
G1 X49.457 Y45.271 Z0 F600
G1 X50.048 Y45.474 Z0 F600
; --- FIX Y Backlash ---
G0 X50.048 Y44.974 F410
G1 X51.742 Y44.287 Z0 F600
G1 X51.737 Y44.15 Z0 F600
G1 X51.725 Y44.009 Z0 F600
G1 X51.702 Y43.846 Z0 F600
G1 X51.663 Y43.681 Z0 F600
; --- FIX X Backlash ---
G0 X50.963 Y43.681 F410
G1 X50.907 Y43.534 Z0 F600
G1 X50.827 Y43.424 Z0 F600
G1 X50.721 Y43.371 Z0 F600
G1 X50.644 Y43.366 Z0 F600
G1 X50.535 Z0 F600
G1 X50.399 Y43.371 Z0 F600
G1 X50.243 Y43.381 Z0 F600
G1 X49.885 Y43.409 Z0 F600
G1 X49.502 Y43.446 Z0 F600
G1 X49.135 Y43.484 Z0 F600
; --- FIX Y Backlash ---
G0 X49.135 Y43.984 F410
G1 X48.524 Y44.054 Z0 F600
G1 X48.327 Y44.084 Z0 F600
G1 X48.118 Y44.108 Z0 F600
G1 X47.872 Y44.123 Z0 F600
G1 X47.612 Z0 F600
G1 X47.365 Y44.093 Z0 F600
; --- FIX Y Backlash ---
G0 X47.365 Y43.593 F410
G1 X47.157 Y43.528 Z0 F600
G1 X47.013 Y43.417 Z0 F600
G1 X46.753 Y43.194 Z0 F600
G1 X46.475 Y43.039 Z0 F600
G1 X46.373 Y42.972 Z0 F600
G1 X46.318 Y42.902 Z0 F600
G1 X46.327 Y42.824 Z0 F600
; --- FIX X Backlash ---
G0 X47.027 Y42.824 F410
G1 X47.118 Y42.73 Z0 F600
G1 X47.31 Y42.632 Z0 F600
G1 X47.587 Y42.543 Z0 F600
G1 X47.916 Y42.465 Z0 F600
G1 X48.263 Y42.399 Z0 F600
G1 X48.592 Y42.345 Z0 F600
G1 X48.869 Y42.306 Z0 F600
G1 X49.132 Y42.273 Z0 F600
; --- FIX Y Backlash ---
G0 X49.132 Y42.773 F410
G1 X50.735 Y43.23 Z0 F600
; --- FIX Y Backlash ---
G0 X50.735 Y42.73 F410
G1 X51.833 Y41.998 Z0 F600
G1 X51.808 Y41.972 Z0 F600
; --- FIX X Backlash ---
G0 X51.108 Y41.972 F410
G1 X51.037 Y41.904 Z0 F600
G1 X50.923 Y41.807 Z0 F600
G1 X50.773 Y41.695 Z0 F600
G1 X50.59 Y41.58 Z0 F600
G1 X50.38 Y41.477 Z0 F600
G1 X50.148 Y41.398 Z0 F600
G1 X49.897 Y41.357 Z0 F600
G1 X49.597 Y41.362 Z0 F600
G1 X49.232 Y41.402 Z0 F600
; --- FIX Y Backlash ---
G0 X49.232 Y41.902 F410
G1 X48.83 Y41.967 Z0 F600
G1 X48.421 Y42.046 Z0 F600
G1 X47.696 Y42.198 Z0 F600
G1 X47.438 Y42.25 Z0 F600
G1 X47.347 Y42.264 Z0 F600
G1 X47.288 Y42.269 Z0 F600
G1 X47.136 Y42.273 Z0 F600
G1 X46.877 Y42.283 Z0 F600
G1 X46.195 Y42.315 Z0 F600
G1 X45.274 Y42.361 Z0 F600
G1 X44.587 Y42.956 Z0 F600
; --- FIX Y Backlash ---
G0 X44.587 Y42.456 F410
G1 X44.267 Y42.044 Z0 F600
; --- FIX X Backlash ---
G0 X44.967 Y42.044 F410
G1 X45.196 Y41.128 Z0 F600
G1 X45.241 Y40.442 Z0 F600
G1 X46.249 Y39.847 Z0 F600
; --- FIX Y Backlash ---
G0 X46.249 Y40.347 F410
G1 X46.569 Y41.354 Z0 F600
; --- FIX Y Backlash ---
G0 X46.569 Y40.854 F410
G1 X48.675 Y40.442 Z0 F600
G1 X49.911 Y40.213 Z0 F600
; --- FIX Y Backlash ---
G0 X49.911 Y40.713 F410
G1 X51.742 Y41.216 Z0 F600
; --- FIX Y Backlash ---
G0 X51.742 Y40.716 F410
G1 X52.199 Y39.16 Z0 F600
; --- FIX X Backlash ---
G0 X51.499 Y39.16 F410
G1 X51.344 Y39.121 Z0 F600
G1 X51.176 Y39.085 Z0 F600
G1 X50.973 Y39.051 Z0 F600
G1 X50.753 Y39.028 Z0 F600
G1 X50.534 Y39.025 Z0 F600
G1 X50.334 Y39.05 Z0 F600
; --- FIX Y Backlash ---
G0 X50.334 Y39.55 F410
G1 X50.172 Y39.614 Z0 F600
G1 X49.531 Y40.02 Z0 F600
G1 X49.165 Y40.255 Z0 F600
; --- FIX Y Backlash ---
G0 X49.165 Y39.755 F410
G1 X47.517 Y39.114 Z0 F600
; --- FIX Y Backlash ---
G0 X47.517 Y39.614 F410
G1 X47.388 Y39.673 Z0 F600
G1 X47.256 Y39.725 Z0 F600
G1 X47.105 Y39.774 Z0 F600
G1 X46.954 Y39.806 Z0 F600
G1 X46.822 Z0 F600
G1 X46.728 Y39.763 Z0 F600
; --- FIX Y Backlash ---
G0 X46.728 Y39.263 F410
G1 X46.693 Y39.16 Z0 F600
G1 X46.67 Y38.668 Z0 F600
G1 X46.693 Y38.49 Z0 F600
; --- FIX X Backlash ---
G0 X47.393 Y38.49 F410
G1 X47.485 Y38.382 Z0 F600
G1 X47.543 Y38.361 Z0 F600
G1 X47.645 Y38.334 Z0 F600
G1 X47.785 Y38.301 Z0 F600
G1 X47.955 Y38.264 Z0 F600
G1 X48.362 Y38.182 Z0 F600
G1 X48.812 Y38.096 Z0 F600
G1 X49.635 Y37.944 Z0 F600
G1 X50.002 Y37.878 Z0 F600
G1 X50.019 Y37.928 Z0 F600
; --- FIX Y Backlash ---
G0 X50.019 Y38.428 F410
G1 X50.071 Y38.533 Z0 F600
G1 X50.157 Y38.629 Z0 F600
G1 X50.277 Y38.653 Z0 F600
G1 X50.385 Y38.622 Z0 F600
; --- FIX Y Backlash ---
G0 X50.385 Y38.122 F410
G1 X50.554 Y38.069 Z0 F600
G1 X50.986 Y37.93 Z0 F600
G1 X51.559 Y37.741 Z0 F600
G1 X51.925 Y36.23 Z0 F600
; --- FIX X Backlash ---
G0 X51.225 Y36.23 F410
G1 X50.309 Y36.276 Z0 F600
; --- FIX Y Backlash ---
G0 X50.309 Y36.776 F410
G1 X48.936 Y37.6 Z0 F600
G1 X47.334 Y37.554 Z0 F600
; --- FIX Y Backlash ---
G0 X47.334 Y37.054 F410
G1 X46.693 Y36.413 Z0 F600
G1 X46.576 Y36.269 Z0 F600
G1 X46.461 Y36.119 Z0 F600
G1 X46.338 Y35.944 Z0 F600
G1 X46.228 Y35.765 Z0 F600
G1 X46.152 Y35.602 Z0 F600
G1 X46.132 Y35.476 Z0 F600
; --- FIX X Backlash ---
G0 X46.832 Y35.476 F410
G1 X46.889 Y35.406 Z0 F600
G1 X47.035 Y35.384 Z0 F600
G1 X47.248 Z0 F600
G1 X47.503 Y35.395 Z0 F600
G1 X47.771 Y35.418 Z0 F600
G1 X48.026 Y35.445 Z0 F600
G1 X48.241 Y35.471 Z0 F600
G1 X48.446 Y35.498 Z0 F600
; --- FIX Y Backlash ---
G0 X48.446 Y35.998 F410
G1 X50.048 Y36.089 Z0 F600
; --- FIX Y Backlash ---
G0 X50.048 Y35.589 F410
G1 X51.513 Y35.269 Z0 F600
; --- FIX X Backlash ---
G0 X50.813 Y35.269 F410
; --- FIX Y Backlash ---
G0 X50.813 Y35.769 F410
G1 X48.158 Y36.685 Z0 F600
; --- FIX Y Backlash ---
G0 X48.158 Y36.185 F410
G1 X45.961 Y34.399 Z0 F600
G1 X45.777 Y30.783 Z0 F600
G1 X44.999 Y30.234 Z0 F600
G1 X40.65 Y30.142 Z0 F600
; --- FIX Y Backlash ---
G0 X40.65 Y30.642 F410
G1 X36.622 Y31.1 Z0 F600
; --- FIX Y Backlash ---
G0 X36.622 Y30.6 F410
G1 X34.516 Y30.05 Z0 F600
; --- FIX Y Backlash ---
G0 X34.516 Y30.55 F410
G1 X33.875 Y33.022 Z0 F600
; --- FIX Y Backlash ---
G0 X33.875 Y32.522 F410
G1 X31.632 Y32.385 Z0 F600
; --- FIX Y Backlash ---
G0 X31.632 Y32.885 F410
G1 X30.671 Y33.938 Z0 F600
G1 X29.756 Y35.266 Z0 F600
G1 X29.801 Y36.776 Z0 F600
G1 X28.062 Y37.097 Z0 F600
G1 X26.277 Z0 F600
; --- FIX Y Backlash ---
G0 X26.277 Y36.597 F410
G1 X25.636 Y36.23 Z0 F600
; --- FIX Y Backlash ---
G0 X25.636 Y36.73 F410
G1 X24.217 Y37.463 Z0 F600
G1 X23.576 Y39.202 Z0 F600
G1 X23.393 Y40.392 Z0 F600
; --- FIX X Backlash ---
G0 X24.093 Y40.392 F410
G1 X24.367 Y41.445 Z0 F600
G1 X24.413 Y42.086 Z0 F600
; --- FIX X Backlash ---
G0 X23.713 Y42.086 F410
G1 X22.523 Y42.269 Z0 F600
; --- FIX Y Backlash ---
G0 X22.523 Y41.769 F410
G1 X20.646 Y41.54 Z0 F600
G1 X19.776 Y40.991 Z0 F600
G1 X19.822 Y40.396 Z0 F600
; --- FIX X Backlash ---
G0 X20.522 Y40.396 F410
G1 X21.895 Y40.304 Z0 F600
; --- FIX Y Backlash ---
G0 X21.895 Y40.804 F410
G1 X22.17 Y41.216 Z0 F600
G1 X24.093 Y41.491 Z0 F600
; --- FIX X Backlash ---
G0 X23.393 Y41.491 F410
; --- FIX Y Backlash ---
G0 X23.393 Y40.991 F410
G1 X22.34 Y40.213 Z0 F600
G1 X22.159 Y40.193 Z0 F600
G1 X21.98 Y40.165 Z0 F600
G1 X21.785 Y40.121 Z0 F600
G1 X21.604 Y40.061 Z0 F600
G1 X21.471 Y39.981 Z0 F600
G1 X21.431 Y39.933 Z0 F600
G1 X21.415 Y39.88 Z0 F600
G1 X21.427 Y39.821 Z0 F600
G1 X21.47 Y39.755 Z0 F600
; --- FIX X Backlash ---
G0 X22.17 Y39.755 F410
G1 X22.317 Y39.624 Z0 F600
G1 X22.505 Y39.508 Z0 F600
G1 X22.716 Y39.406 Z0 F600
G1 X22.931 Y39.32 Z0 F600
G1 X23.131 Y39.252 Z0 F600
G1 X23.297 Y39.202 Z0 F600
G1 X23.452 Y39.16 Z0 F600
; --- FIX X Backlash ---
G0 X22.752 Y39.16 F410
; --- FIX Y Backlash ---
G0 X22.752 Y39.66 F410
G1 X21.699 Y42.727 Z0 F600
; --- FIX Y Backlash ---
G0 X21.699 Y42.227 F410
G1 X20.234 Y40.808 Z0 F600
; --- FIX X Backlash ---
G0 X20.934 Y40.808 F410
G1 X24.001 Y38.29 Z0 F600
; --- FIX X Backlash ---
G0 X23.301 Y38.29 F410
; --- FIX Y Backlash ---
G0 X23.301 Y38.79 F410
G1 X21.699 Y38.973 Z0 F600
; --- FIX X Backlash ---
G0 X22.399 Y38.973 F410
; --- FIX Y Backlash ---
G0 X22.399 Y38.473 F410
G1 X22.811 Y36.917 Z0 F600
; --- FIX X Backlash ---
G0 X22.111 Y36.917 F410
G1 X21.699 Y36.093 Z0 F600
; --- FIX X Backlash ---
G0 X22.399 Y36.093 F410
G1 X23.223 Y34.949 Z0 F600
; --- FIX X Backlash ---
G0 X22.523 Y34.949 F410
G1 X22.019 Y33.896 Z0 F600
; --- FIX X Backlash ---
G0 X22.719 Y33.896 F410
G1 X23.452 Y33.118 Z0 F600
; --- FIX X Backlash ---
G0 X22.752 Y33.118 F410
G1 X22.111 Y32.797 Z0 F600
G1 X21.47 Y32.202 Z0 F600
G1 X21.058 Y31.195 Z0 F600
; --- FIX X Backlash ---
G0 X21.758 Y31.195 F410
G1 X22.307 Y30.005 Z0 F600
G0 Z3.5 F600
; --- FIX Y Backlash ---
G0 X22.307 Y30.505 F410
G0 X33.751 Y35.86 Z3.5 F600
G1 Z0 F600
;Layer C3 Pass 1 of 2
G1 X35.125 Y35.998 Z0 F600
G1 X37.185 Y35.952 Z0 F600
G1 X37.459 Y36.364 Z0 F600
G1 X37.551 Y37.737 Z0 F600
; --- FIX X Backlash ---
G0 X36.851 Y37.737 F410
G1 X36.668 Y38.332 Z0 F600
; --- FIX Y Backlash ---
G0 X36.668 Y37.832 F410
G1 X34.791 Y37.512 Z0 F600
G1 X33.326 Y37.42 Z0 F600
; --- FIX Y Backlash ---
G0 X33.326 Y37.92 F410
G1 X32.868 Y38.103 Z0 F600
; --- FIX X Backlash ---
G0 X33.568 Y38.103 F410
G1 X34.163 Y38.378 Z0 F600
G1 X35.811 Z0 F600
G1 X37.414 Y38.561 Z0 F600
G1 X37.917 Y39.889 Z0 F600
G1 X37.871 Y41.125 Z0 F600
G1 Y42.452 Z0 F600
; --- FIX X Backlash ---
G0 X37.171 Y42.452 F410
G1 X36.668 Y42.91 Z0 F600
; --- FIX Y Backlash ---
G0 X36.668 Y42.41 F410
G1 X36.485 Y32.476 Z0 F600
; --- FIX X Backlash ---
G0 X37.185 Y32.476 F410
G1 X40.893 Z0 F600
G1 X42.632 Y32.156 Z0 F600
G1 X44.326 Z0 F600
; --- FIX Y Backlash ---
G0 X44.326 Y32.656 F410
G1 X44.875 Y33.114 Z0 F600
; --- FIX X Backlash ---
G0 X44.175 Y33.114 F410
G1 X43.031 Y33.571 Z0 F600
; --- FIX Y Backlash ---
G0 X43.031 Y33.071 F410
G1 X41.841 Y32.843 Z0 F600
G1 X39.735 Y32.522 Z0 F600
G1 X37.675 Y32.385 Z0 F600
; --- FIX Y Backlash ---
G0 X37.675 Y32.885 F410
G1 X36.714 Y33.617 Z0 F600
G1 X36.622 Y34.899 Z0 F600
; --- FIX X Backlash ---
G0 X37.322 Y34.899 F410
G1 X37.459 Y35.494 Z0 F600
; --- FIX X Backlash ---
G0 X36.759 Y35.494 F410
G1 X36.164 Y35.677 Z0 F600
; --- FIX Y Backlash ---
G0 X36.164 Y35.177 F410
G1 X33.83 Y34.857 Z0 F600
; --- FIX Y Backlash ---
G0 X33.83 Y35.357 F410
G1 X33.051 Y35.86 Z0 F600
;Layer C3 Pass 2 of 2
; --- FIX X Backlash ---
G0 X33.751 Y35.86 F410
G1 X35.125 Y35.998 Z0 F600
G1 X37.185 Y35.952 Z0 F600
G1 X37.459 Y36.364 Z0 F600
G1 X37.551 Y37.737 Z0 F600
; --- FIX X Backlash ---
G0 X36.851 Y37.737 F410
G1 X36.668 Y38.332 Z0 F600
; --- FIX Y Backlash ---
G0 X36.668 Y37.832 F410
G1 X34.791 Y37.512 Z0 F600
G1 X33.326 Y37.42 Z0 F600
; --- FIX Y Backlash ---
G0 X33.326 Y37.92 F410
G1 X32.868 Y38.103 Z0 F600
; --- FIX X Backlash ---
G0 X33.568 Y38.103 F410
G1 X34.163 Y38.378 Z0 F600
G1 X35.811 Z0 F600
G1 X37.414 Y38.561 Z0 F600
G1 X37.917 Y39.889 Z0 F600
G1 X37.871 Y41.125 Z0 F600
G1 Y42.452 Z0 F600
; --- FIX X Backlash ---
G0 X37.171 Y42.452 F410
G1 X36.668 Y42.91 Z0 F600
; --- FIX Y Backlash ---
G0 X36.668 Y42.41 F410
G1 X36.485 Y32.476 Z0 F600
; --- FIX X Backlash ---
G0 X37.185 Y32.476 F410
G1 X40.893 Z0 F600
G1 X42.632 Y32.156 Z0 F600
G1 X44.326 Z0 F600
; --- FIX Y Backlash ---
G0 X44.326 Y32.656 F410
G1 X44.875 Y33.114 Z0 F600
; --- FIX X Backlash ---
G0 X44.175 Y33.114 F410
G1 X43.031 Y33.571 Z0 F600
; --- FIX Y Backlash ---
G0 X43.031 Y33.071 F410
G1 X41.841 Y32.843 Z0 F600
G1 X39.735 Y32.522 Z0 F600
G1 X37.675 Y32.385 Z0 F600
; --- FIX Y Backlash ---
G0 X37.675 Y32.885 F410
G1 X36.714 Y33.617 Z0 F600
G1 X36.622 Y34.899 Z0 F600
; --- FIX X Backlash ---
G0 X37.322 Y34.899 F410
G1 X37.459 Y35.494 Z0 F600
; --- FIX X Backlash ---
G0 X36.759 Y35.494 F410
G1 X36.164 Y35.677 Z0 F600
; --- FIX Y Backlash ---
G0 X36.164 Y35.177 F410
G1 X33.83 Y34.857 Z0 F600
; --- FIX Y Backlash ---
G0 X33.83 Y35.357 F410
G1 X33.051 Y35.86 Z0 F600
G0 Z3.5 F600
; --- FIX X Backlash ---
G0 X33.751 Y35.86 F410
; --- FIX Y Backlash ---
G0 X33.751 Y35.36 F410
G0 X40.069 Y35.223 Z3.5
G1 Z0 F600
;Layer C3 Pass 1 of 2
G1 X42.22 Y35.177 Z0 F600
G1 X43.685 Y35.223 Z0 F600
; --- FIX Y Backlash ---
G0 X43.685 Y35.723 F410
G1 X43.868 Y36.043 Z0 F600
; --- FIX X Backlash ---
G0 X43.168 Y36.043 F410
G1 X41.658 Y36.135 Z0 F600
; --- FIX Y Backlash ---
G0 X41.658 Y35.635 F410
G1 X39.918 Y35.543 Z0 F600
; --- FIX Y Backlash ---
G0 X39.918 Y36.043 F410
G1 X39.552 Y36.41 Z0 F600
G1 X39.094 Y37.829 Z0 F600
; --- FIX X Backlash ---
G0 X39.794 Y37.829 F410
G1 X40.618 Y38.058 Z0 F600
G1 X42.724 Z0 F600
; --- FIX Y Backlash ---
G0 X42.724 Y37.558 F410
G1 X44.143 Y37.329 Z0 F600
; --- FIX Y Backlash ---
G0 X44.143 Y37.829 F410
G1 X44.097 Y38.378 Z0 F600
; --- FIX X Backlash ---
G0 X43.397 Y38.378 F410
G1 X41.474 Y38.561 Z0 F600
; --- FIX Y Backlash ---
G0 X41.474 Y38.061 F410
G1 X39.46 Y37.878 Z0 F600
; --- FIX Y Backlash ---
G0 X39.46 Y38.378 F410
G1 Y40.346 Z0 F600
G1 X39.506 Y42.727 Z0 F600
; --- FIX X Backlash ---
G0 X40.206 Y42.727 F410
G1 X40.343 Y43.917 Z0 F600
G1 X40.349 Y44.099 Z0 F600
G1 X40.334 Y44.35 Z0 F600
G1 X40.306 Y44.643 Z0 F600
G1 X40.269 Y44.947 Z0 F600
G1 X40.23 Y45.234 Z0 F600
G1 X40.195 Y45.475 Z0 F600
G1 X40.16 Y45.702 Z0 F600
; --- FIX X Backlash ---
G0 X39.46 Y45.702 F410
G1 X39.271 Y45.708 Z0 F600
G1 X39.016 Y45.722 Z0 F600
G1 X38.636 Y45.748 Z0 F600
G1 X38.359 Y45.755 Z0 F600
G1 X37.999 Y45.746 Z0 F600
G1 X37.593 Y45.725 Z0 F600
G1 X37.177 Y45.697 Z0 F600
G1 X36.79 Y45.666 Z0 F600
G1 X36.467 Y45.639 Z0 F600
G1 X36.164 Y45.611 Z0 F600
; --- FIX Y Backlash ---
G0 X36.164 Y45.111 F410
G1 X34.745 Y44.378 Z0 F600
G1 X34.242 Y43.554 Z0 F600
G1 X34.202 Y43.371 Z0 F600
G1 X34.164 Y43.166 Z0 F600
G1 X34.127 Y42.908 Z0 F600
G1 X34.099 Y42.613 Z0 F600
G1 X34.087 Y42.299 Z0 F600
G1 X34.101 Y41.982 Z0 F600
G1 X34.15 Y41.678 Z0 F600
; --- FIX X Backlash ---
G0 X34.85 Y41.678 F410
G1 X34.907 Y41.395 Z0 F600
G1 X34.942 Y41.135 Z0 F600
G1 X34.96 Y40.901 Z0 F600
G1 X34.965 Y40.699 Z0 F600
G1 X34.961 Y40.534 Z0 F600
G1 X34.953 Y40.409 Z0 F600
G1 X34.942 Y40.304 Z0 F600
; --- FIX X Backlash ---
G0 X34.242 Y40.304 F410
G1 X33.601 Y40.03 Z0 F600
; --- FIX Y Backlash ---
G0 X33.601 Y40.53 F410
G1 X33.326 Y41.445 Z0 F600
; --- FIX X Backlash ---
G0 X34.026 Y41.445 F410
G1 X34.118 Y42.91 Z0 F600
; --- FIX X Backlash ---
G0 X33.418 Y42.91 F410
; --- FIX Y Backlash ---
G0 X33.418 Y42.41 F410
G1 X32.868 Y42.044 Z0 F600
G1 X32.502 Y40.442 Z0 F600
; --- FIX X Backlash ---
G0 X33.202 Y40.442 F410
; --- FIX Y Backlash ---
G0 X33.202 Y40.942 F410
G1 X34.347 Y41.582 Z0 F600
; --- FIX X Backlash ---
G0 X33.647 Y41.582 F410
G1 X33.372 Y44.375 Z0 F600
; --- FIX X Backlash ---
G0 X34.072 Y44.375 F410
G1 X35.445 Y44.421 Z0 F600
G1 X36.132 Y45.565 Z0 F600
G1 X37.734 Y46.023 Z0 F600
; --- FIX Y Backlash ---
G0 X37.734 Y45.523 F410
G1 X40.343 Y44.653 Z0 F600
G1 X40.481 Y38.382 Z0 F600
; --- FIX X Backlash ---
G0 X39.781 Y38.382 F410
G1 X39.369 Y35.223 Z0 F600
;Layer C3 Pass 2 of 2
; --- FIX X Backlash ---
G0 X40.069 Y35.223 F410
G1 X42.22 Y35.177 Z0 F600
G1 X43.685 Y35.223 Z0 F600
; --- FIX Y Backlash ---
G0 X43.685 Y35.723 F410
G1 X43.868 Y36.043 Z0 F600
; --- FIX X Backlash ---
G0 X43.168 Y36.043 F410
G1 X41.658 Y36.135 Z0 F600
; --- FIX Y Backlash ---
G0 X41.658 Y35.635 F410
G1 X39.918 Y35.543 Z0 F600
; --- FIX Y Backlash ---
G0 X39.918 Y36.043 F410
G1 X39.552 Y36.41 Z0 F600
G1 X39.094 Y37.829 Z0 F600
; --- FIX X Backlash ---
G0 X39.794 Y37.829 F410
G1 X40.618 Y38.058 Z0 F600
G1 X42.724 Z0 F600
; --- FIX Y Backlash ---
G0 X42.724 Y37.558 F410
G1 X44.143 Y37.329 Z0 F600
; --- FIX Y Backlash ---
G0 X44.143 Y37.829 F410
G1 X44.097 Y38.378 Z0 F600
; --- FIX X Backlash ---
G0 X43.397 Y38.378 F410
G1 X41.474 Y38.561 Z0 F600
; --- FIX Y Backlash ---
G0 X41.474 Y38.061 F410
G1 X39.46 Y37.878 Z0 F600
; --- FIX Y Backlash ---
G0 X39.46 Y38.378 F410
G1 Y40.346 Z0 F600
G1 X39.506 Y42.727 Z0 F600
; --- FIX X Backlash ---
G0 X40.206 Y42.727 F410
G1 X40.343 Y43.917 Z0 F600
G1 X40.349 Y44.099 Z0 F600
G1 X40.334 Y44.35 Z0 F600
G1 X40.306 Y44.643 Z0 F600
G1 X40.269 Y44.947 Z0 F600
G1 X40.23 Y45.234 Z0 F600
G1 X40.195 Y45.475 Z0 F600
G1 X40.16 Y45.702 Z0 F600
; --- FIX X Backlash ---
G0 X39.46 Y45.702 F410
G1 X39.271 Y45.708 Z0 F600
G1 X39.016 Y45.722 Z0 F600
G1 X38.636 Y45.748 Z0 F600
G1 X38.359 Y45.755 Z0 F600
G1 X37.999 Y45.746 Z0 F600
G1 X37.593 Y45.725 Z0 F600
G1 X37.177 Y45.697 Z0 F600
G1 X36.79 Y45.666 Z0 F600
G1 X36.467 Y45.639 Z0 F600
G1 X36.164 Y45.611 Z0 F600
; --- FIX Y Backlash ---
G0 X36.164 Y45.111 F410
G1 X34.745 Y44.378 Z0 F600
G1 X34.242 Y43.554 Z0 F600
G1 X34.202 Y43.371 Z0 F600
G1 X34.164 Y43.166 Z0 F600
G1 X34.127 Y42.908 Z0 F600
G1 X34.099 Y42.613 Z0 F600
G1 X34.087 Y42.299 Z0 F600
G1 X34.101 Y41.982 Z0 F600
G1 X34.15 Y41.678 Z0 F600
; --- FIX X Backlash ---
G0 X34.85 Y41.678 F410
G1 X34.907 Y41.395 Z0 F600
G1 X34.942 Y41.135 Z0 F600
G1 X34.96 Y40.901 Z0 F600
G1 X34.965 Y40.699 Z0 F600
G1 X34.961 Y40.534 Z0 F600
G1 X34.953 Y40.409 Z0 F600
G1 X34.942 Y40.304 Z0 F600
; --- FIX X Backlash ---
G0 X34.242 Y40.304 F410
G1 X33.601 Y40.03 Z0 F600
; --- FIX Y Backlash ---
G0 X33.601 Y40.53 F410
G1 X33.326 Y41.445 Z0 F600
; --- FIX X Backlash ---
G0 X34.026 Y41.445 F410
G1 X34.118 Y42.91 Z0 F600
; --- FIX X Backlash ---
G0 X33.418 Y42.91 F410
; --- FIX Y Backlash ---
G0 X33.418 Y42.41 F410
G1 X32.868 Y42.044 Z0 F600
G1 X32.502 Y40.442 Z0 F600
; --- FIX X Backlash ---
G0 X33.202 Y40.442 F410
; --- FIX Y Backlash ---
G0 X33.202 Y40.942 F410
G1 X34.347 Y41.582 Z0 F600
; --- FIX X Backlash ---
G0 X33.647 Y41.582 F410
G1 X33.372 Y44.375 Z0 F600
; --- FIX X Backlash ---
G0 X34.072 Y44.375 F410
G1 X35.445 Y44.421 Z0 F600
G1 X36.132 Y45.565 Z0 F600
G1 X37.734 Y46.023 Z0 F600
; --- FIX Y Backlash ---
G0 X37.734 Y45.523 F410
G1 X40.343 Y44.653 Z0 F600
G1 X40.481 Y38.382 Z0 F600
; --- FIX X Backlash ---
G0 X39.781 Y38.382 F410
G1 X39.369 Y35.223 Z0 F600
G0 Z3.5 F600
; --- FIX X Backlash ---
G0 X40.069 Y35.223 F410
; --- FIX Y Backlash ---
G0 X40.069 Y35.723 F410
G0 X42.724 Y40.438 Z3.5
G1 Z0 F600
;Layer C3 Pass 1 of 2
; --- FIX X Backlash ---
G0 X42.024 Y40.438 F410
G1 X41.795 Y48.586 Z0 F600
; --- FIX Y Backlash ---
G0 X41.795 Y48.086 F410
G1 X39.231 Y47.903 Z0 F600
; --- FIX Y Backlash ---
G0 X39.231 Y48.403 F410
G1 X37.217 Y48.861 Z0 F600
; --- FIX Y Backlash ---
G0 X37.217 Y48.361 F410
G1 X35.478 Y47.949 Z0 F600
G1 X33.921 Y47.445 Z0 F600
G1 X33.051 Y47.033 Z0 F600
G1 X32.273 Y46.759 Z0 F600
; --- FIX Y Backlash ---
G0 X32.273 Y47.259 F410
G1 X31.541 Y48.678 Z0 F600
G1 X31.495 Y50.784 Z0 F600
; --- FIX X Backlash ---
G0 X32.195 Y50.784 F410
G1 X33.614 Y50.738 Z0 F600
; --- FIX X Backlash ---
G0 X32.914 Y50.738 F410
; --- FIX Y Backlash ---
G0 X32.914 Y50.238 F410
G1 X32.227 Y48.452 Z0 F600
G1 X31.724 Y46.667 Z0 F600
; --- FIX X Backlash ---
G0 X32.424 Y46.667 F410
; --- FIX Y Backlash ---
G0 X32.424 Y47.167 F410
G1 X33.889 Y48.724 Z0 F600
; --- FIX Y Backlash ---
G0 X33.889 Y48.224 F410
G1 X35.72 Y47.812 Z0 F600
G1 X38.238 Y47.537 Z0 F600
; --- FIX Y Backlash ---
G0 X38.238 Y48.037 F410
G1 X40.618 Y48.907 Z0 F600
; --- FIX Y Backlash ---
G0 X40.618 Y48.407 F410
G1 X42.953 Y48.269 Z0 F600
G1 X43.639 Y46.85 Z0 F600
G1 X43.731 Y45.752 Z0 F600
; --- FIX Y Backlash ---
G0 X43.731 Y46.252 F410
G1 X44.829 Y46.893 Z0 F600
; --- FIX X Backlash ---
G0 X44.129 Y46.893 F410
G1 X43.672 Y48.952 Z0 F600
; --- FIX X Backlash ---
G0 X44.372 Y48.952 F410
G1 X44.967 Y50.738 Z0 F600
G1 X45.058 Y52.477 Z0 F600
; --- FIX X Backlash ---
G0 X44.358 Y52.477 F410
G1 X44.129 Y53.896 Z0 F600
; --- FIX X Backlash ---
G0 X44.829 Y53.896 F410
G1 X45.148 Y53.949 Z0 F600
G1 X45.481 Y53.998 Z0 F600
G1 X45.871 Y54.045 Z0 F600
G1 X46.273 Y54.08 Z0 F600
G1 X46.645 Y54.09 Z0 F600
G1 X46.805 Y54.082 Z0 F600
G1 X46.941 Y54.063 Z0 F600
G1 X47.047 Y54.032 Z0 F600
G1 X47.118 Y53.988 Z0 F600
; --- FIX Y Backlash ---
G0 X47.118 Y53.488 F410
G1 X47.26 Y53.419 Z0 F600
G1 X47.463 Y53.408 Z0 F600
G1 X47.702 Y53.44 Z0 F600
; --- FIX Y Backlash ---
G0 X47.702 Y53.94 F410
G1 X47.954 Y53.999 Z0 F600
G1 X48.192 Y54.072 Z0 F600
G1 X48.393 Y54.142 Z0 F600
G1 X48.583 Y54.217 Z0 F600
G1 X49.041 Y55.544 Z0 F600
G1 X49.27 Y56.506 Z0 F600
; --- FIX Y Backlash ---
G0 X49.27 Y56.006 F410
G1 X51.879 Y55.731 Z0 F600
; --- FIX X Backlash ---
G0 X51.179 Y55.731 F410
G1 X50.767 Y52.801 Z0 F600
; --- FIX X Backlash ---
G0 X51.467 Y52.801 F410
G1 X51.742 Y50.833 Z0 F600
; --- FIX X Backlash ---
G0 X51.042 Y50.833 F410
G1 X49.073 Y50.787 Z0 F600
G1 X46.556 Z0 F600
; --- FIX Y Backlash ---
G0 X46.556 Y51.287 F410
G1 X45.411 Y52.34 Z0 F600
; --- FIX X Backlash ---
G0 X46.111 Y52.34 F410
G1 X50.506 Z0 F600
G1 X51.009 Y53.256 Z0 F600
; --- FIX X Backlash ---
G0 X50.309 Y53.256 F410
; --- FIX Y Backlash ---
G0 X50.309 Y52.756 F410
G1 X47.7 Y52.664 Z0 F600
G1 X45.777 Y52.481 Z0 F600
; --- FIX Y Backlash ---
G0 X45.777 Y52.981 F410
G1 X45.136 Y53.713 Z0 F600
; --- FIX X Backlash ---
G0 X45.836 Y53.713 F410
G1 X49.361 Y53.942 Z0 F600
G1 X51.147 Y54.446 Z0 F600
; --- FIX X Backlash ---
G0 X50.447 Y54.446 F410
G1 X49.439 Y55.865 Z0 F600
; --- FIX Y Backlash ---
G0 X49.439 Y55.365 F410
G1 X48.844 Y54.449 Z0 F600
G1 X44.587 Y52.023 Z0 F600
G1 X44.129 Y49.917 Z0 F600
; --- FIX X Backlash ---
G0 X44.829 Y49.917 F410
G1 X45.196 Y48.224 Z0 F600
; --- FIX X Backlash ---
G0 X44.496 Y48.224 F410
G1 X42.756 Y47.812 Z0 F600
G1 X41.978 Y45.431 Z0 F600
G1 X41.566 Y40.258 Z0 F600
; --- FIX X Backlash ---
G0 X42.266 Y40.258 F410
G1 X42.724 Y39.938 Z0 F600
;Layer C3 Pass 2 of 2
; --- FIX X Backlash ---
G0 X42.024 Y39.938 F410
; --- FIX Y Backlash ---
G0 X42.024 Y40.438 F410
G1 X41.795 Y48.586 Z0 F600
; --- FIX Y Backlash ---
G0 X41.795 Y48.086 F410
G1 X39.231 Y47.903 Z0 F600
; --- FIX Y Backlash ---
G0 X39.231 Y48.403 F410
G1 X37.217 Y48.861 Z0 F600
; --- FIX Y Backlash ---
G0 X37.217 Y48.361 F410
G1 X35.478 Y47.949 Z0 F600
G1 X33.921 Y47.445 Z0 F600
G1 X33.051 Y47.033 Z0 F600
G1 X32.273 Y46.759 Z0 F600
; --- FIX Y Backlash ---
G0 X32.273 Y47.259 F410
G1 X31.541 Y48.678 Z0 F600
G1 X31.495 Y50.784 Z0 F600
; --- FIX X Backlash ---
G0 X32.195 Y50.784 F410
G1 X33.614 Y50.738 Z0 F600
; --- FIX X Backlash ---
G0 X32.914 Y50.738 F410
; --- FIX Y Backlash ---
G0 X32.914 Y50.238 F410
G1 X32.227 Y48.452 Z0 F600
G1 X31.724 Y46.667 Z0 F600
; --- FIX X Backlash ---
G0 X32.424 Y46.667 F410
; --- FIX Y Backlash ---
G0 X32.424 Y47.167 F410
G1 X33.889 Y48.724 Z0 F600
; --- FIX Y Backlash ---
G0 X33.889 Y48.224 F410
G1 X35.72 Y47.812 Z0 F600
G1 X38.238 Y47.537 Z0 F600
; --- FIX Y Backlash ---
G0 X38.238 Y48.037 F410
G1 X40.618 Y48.907 Z0 F600
; --- FIX Y Backlash ---
G0 X40.618 Y48.407 F410
G1 X42.953 Y48.269 Z0 F600
G1 X43.639 Y46.85 Z0 F600
G1 X43.731 Y45.752 Z0 F600
; --- FIX Y Backlash ---
G0 X43.731 Y46.252 F410
G1 X44.829 Y46.893 Z0 F600
; --- FIX X Backlash ---
G0 X44.129 Y46.893 F410
G1 X43.672 Y48.952 Z0 F600
; --- FIX X Backlash ---
G0 X44.372 Y48.952 F410
G1 X44.967 Y50.738 Z0 F600
G1 X45.058 Y52.477 Z0 F600
; --- FIX X Backlash ---
G0 X44.358 Y52.477 F410
G1 X44.129 Y53.896 Z0 F600
; --- FIX X Backlash ---
G0 X44.829 Y53.896 F410
G1 X45.148 Y53.949 Z0 F600
G1 X45.481 Y53.998 Z0 F600
G1 X45.871 Y54.045 Z0 F600
G1 X46.273 Y54.08 Z0 F600
G1 X46.645 Y54.09 Z0 F600
G1 X46.805 Y54.082 Z0 F600
G1 X46.941 Y54.063 Z0 F600
G1 X47.047 Y54.032 Z0 F600
G1 X47.118 Y53.988 Z0 F600
; --- FIX Y Backlash ---
G0 X47.118 Y53.488 F410
G1 X47.26 Y53.419 Z0 F600
G1 X47.463 Y53.408 Z0 F600
G1 X47.702 Y53.44 Z0 F600
; --- FIX Y Backlash ---
G0 X47.702 Y53.94 F410
G1 X47.954 Y53.999 Z0 F600
G1 X48.192 Y54.072 Z0 F600
G1 X48.393 Y54.142 Z0 F600
G1 X48.583 Y54.217 Z0 F600
G1 X49.041 Y55.544 Z0 F600
G1 X49.27 Y56.506 Z0 F600
; --- FIX Y Backlash ---
G0 X49.27 Y56.006 F410
G1 X51.879 Y55.731 Z0 F600
; --- FIX X Backlash ---
G0 X51.179 Y55.731 F410
G1 X50.767 Y52.801 Z0 F600
; --- FIX X Backlash ---
G0 X51.467 Y52.801 F410
G1 X51.742 Y50.833 Z0 F600
; --- FIX X Backlash ---
G0 X51.042 Y50.833 F410
G1 X49.073 Y50.787 Z0 F600
G1 X46.556 Z0 F600
; --- FIX Y Backlash ---
G0 X46.556 Y51.287 F410
G1 X45.411 Y52.34 Z0 F600
; --- FIX X Backlash ---
G0 X46.111 Y52.34 F410
G1 X50.506 Z0 F600
G1 X51.009 Y53.256 Z0 F600
; --- FIX X Backlash ---
G0 X50.309 Y53.256 F410
; --- FIX Y Backlash ---
G0 X50.309 Y52.756 F410
G1 X47.7 Y52.664 Z0 F600
G1 X45.777 Y52.481 Z0 F600
; --- FIX Y Backlash ---
G0 X45.777 Y52.981 F410
G1 X45.136 Y53.713 Z0 F600
; --- FIX X Backlash ---
G0 X45.836 Y53.713 F410
G1 X49.361 Y53.942 Z0 F600
G1 X51.147 Y54.446 Z0 F600
; --- FIX X Backlash ---
G0 X50.447 Y54.446 F410
G1 X49.439 Y55.865 Z0 F600
; --- FIX Y Backlash ---
G0 X49.439 Y55.365 F410
G1 X48.844 Y54.449 Z0 F600
G1 X44.587 Y52.023 Z0 F600
G1 X44.129 Y49.917 Z0 F600
; --- FIX X Backlash ---
G0 X44.829 Y49.917 F410
G1 X45.196 Y48.224 Z0 F600
; --- FIX X Backlash ---
G0 X44.496 Y48.224 F410
G1 X42.756 Y47.812 Z0 F600
G1 X41.978 Y45.431 Z0 F600
G1 X41.566 Y40.258 Z0 F600
; --- FIX X Backlash ---
G0 X42.266 Y40.258 F410
G1 X42.724 Y39.938 Z0 F600
G0 Z3.5 F600
; --- FIX X Backlash ---
G0 X42.024 Y39.938 F410
; --- FIX Y Backlash ---
G0 X42.024 Y40.438 F410
G0 X30.724 Y41.541 Z3.5
G1 Z0 F600
;Layer C3 Pass 1 of 2
G1 X30.717 Y41.72 Z0 F600
G1 X30.305 Y43.78 Z0 F600
G1 X30.344 Y43.887 Z0 F600
G1 X30.38 Y43.997 Z0 F600
G1 X30.414 Y44.123 Z0 F600
G1 X30.437 Y44.249 Z0 F600
G1 X30.44 Y44.359 Z0 F600
G1 X30.414 Y44.437 Z0 F600
G1 X30.351 Y44.466 Z0 F600
G1 X30.222 Y44.451 Z0 F600
G1 X30.025 Y44.409 Z0 F600
; --- FIX Y Backlash ---
G0 X30.025 Y43.909 F410
G1 X29.787 Y43.85 Z0 F600
G1 X29.532 Y43.783 Z0 F600
G1 X29.083 Y43.657 Z0 F600
G1 X28.886 Y43.6 Z0 F600
G1 X28.889 Y43.608 Z0 F600
G1 X28.899 Y43.616 Z0 F600
G1 X28.92 Y43.595 Z0 F600
G1 X28.955 Y43.52 Z0 F600
G1 X28.978 Y43.453 Z0 F600
G1 X29.007 Y43.363 Z0 F600
G1 X29.04 Y43.246 Z0 F600
G1 X29.079 Y43.098 Z0 F600
G1 X29.124 Y42.916 Z0 F600
; --- FIX X Backlash ---
G0 X29.824 Y42.916 F410
G1 X29.875 Y42.698 Z0 F600
G1 X29.933 Y42.438 Z0 F600
G1 X29.998 Y42.135 Z0 F600
G1 X30.047 Y41.832 Z0 F600
G1 X30.062 Y41.573 Z0 F600
G1 X30.045 Y41.354 Z0 F600
G1 X30.002 Y41.172 Z0 F600
; --- FIX X Backlash ---
G0 X29.302 Y41.172 F410
G1 X29.237 Y41.025 Z0 F600
G1 X29.155 Y40.907 Z0 F600
G1 X29.059 Y40.817 Z0 F600
G1 X28.955 Y40.75 Z0 F600
G1 X28.737 Y40.675 Z0 F600
G1 X28.538 Y40.655 Z0 F600
G1 X28.393 Y40.662 Z0 F600
G1 X28.337 Y40.67 Z0 F600
; --- FIX Y Backlash ---
G0 X28.337 Y41.17 F410
G1 X27.467 Y41.491 Z0 F600
G1 X27.009 Y43.047 Z0 F600
; --- FIX X Backlash ---
G0 X27.709 Y43.047 F410
G1 X27.984 Y44.054 Z0 F600
G1 X28.258 Y44.833 Z0 F600
G1 X28.945 Y46.114 Z0 F600
G1 X29.677 Y47.121 Z0 F600
G1 X29.769 Y48.724 Z0 F600
; --- FIX X Backlash ---
G0 X29.069 Y48.724 F410
G1 X29.016 Y48.837 Z0 F600
G1 X28.958 Y48.95 Z0 F600
G1 X28.886 Y49.078 Z0 F600
G1 X28.805 Y49.202 Z0 F600
G1 X28.721 Y49.303 Z0 F600
G1 X28.64 Y49.363 Z0 F600
G1 X28.565 Z0 F600
; --- FIX Y Backlash ---
G0 X28.565 Y48.863 F410
G1 X28.466 Y48.809 Z0 F600
G1 X28.317 Y48.718 Z0 F600
G1 X27.948 Y48.487 Z0 F600
G1 X27.467 Y48.178 Z0 F600
; --- FIX X Backlash ---
G0 X28.167 Y48.178 F410
G1 X29.128 Y46.164 Z0 F600
; --- FIX X Backlash ---
G0 X28.428 Y46.164 F410
G1 X28.199 Y43.737 Z0 F600
G1 X27.97 Y41.815 Z0 F600
; --- FIX X Backlash ---
G0 X28.67 Y41.815 F410
; --- FIX Y Backlash ---
G0 X28.67 Y42.315 F410
G1 X30.273 Y42.406 Z0 F600
; --- FIX X Backlash ---
G0 X29.573 Y42.406 F410
G1 X29.161 Y45.199 Z0 F600
G1 X26.689 Y46.297 Z0 F600
G1 X26.734 Y49.364 Z0 F600
; --- FIX X Backlash ---
G0 X27.434 Y49.364 F410
G1 X28.121 Y49.319 Z0 F600
; --- FIX X Backlash ---
G0 X27.421 Y49.319 F410
; --- FIX Y Backlash ---
G0 X27.421 Y48.819 F410
G1 X27.192 Y45.157 Z0 F600
G1 X26.094 Y45.065 Z0 F600
; --- FIX Y Backlash ---
G0 X26.094 Y45.565 F410
G1 X25.041 Y46.114 Z0 F600
; --- FIX Y Backlash ---
G0 X25.041 Y45.614 F410
G1 X23.164 Y45.156 Z0 F600
G1 X22.019 Z0 F600
; --- FIX Y Backlash ---
G0 X22.019 Y45.656 F410
G1 X20.326 Y45.794 Z0 F600
G1 X19.593 Y46.069 Z0 F600
; --- FIX Y Backlash ---
G0 X19.593 Y45.569 F410
G1 X19.41 Y44.47 Z0 F600
; --- FIX X Backlash ---
G0 X20.11 Y44.47 F410
; --- FIX Y Backlash ---
G0 X20.11 Y44.97 F410
G1 X22.536 Y45.29 Z0 F600
; --- FIX Y Backlash ---
G0 X22.536 Y44.79 F410
G1 X24.23 Y44.699 Z0 F600
G1 X25.969 Y44.607 Z0 F600
G1 X27.114 Y44.333 Z0 F600
G1 X27.205 Y42.089 Z0 F600
G1 X27.297 Y40.121 Z0 F600
G1 X28.075 Y39.617 Z0 F600
; --- FIX Y Backlash ---
G0 X28.075 Y40.117 F410
G1 X29.082 Y40.301 Z0 F600
G1 X29.998 Z0 F600
G1 X30.959 Y40.621 Z0 F600
G1 X31.044 Y40.728 Z0 F600
G1 X31.128 Y40.848 Z0 F600
G1 X31.222 Y40.999 Z0 F600
G1 X31.312 Y41.171 Z0 F600
G1 X31.384 Y41.355 Z0 F600
G1 X31.424 Y41.541 Z0 F600
;Layer C3 Pass 2 of 2
G1 X31.417 Y41.72 Z0 F600
; --- FIX X Backlash ---
G0 X30.717 Y41.72 F410
G1 X30.305 Y43.78 Z0 F600
G1 X30.344 Y43.887 Z0 F600
G1 X30.38 Y43.997 Z0 F600
G1 X30.414 Y44.123 Z0 F600
G1 X30.437 Y44.249 Z0 F600
G1 X30.44 Y44.359 Z0 F600
G1 X30.414 Y44.437 Z0 F600
G1 X30.351 Y44.466 Z0 F600
G1 X30.222 Y44.451 Z0 F600
G1 X30.025 Y44.409 Z0 F600
; --- FIX Y Backlash ---
G0 X30.025 Y43.909 F410
G1 X29.787 Y43.85 Z0 F600
G1 X29.532 Y43.783 Z0 F600
G1 X29.083 Y43.657 Z0 F600
G1 X28.886 Y43.6 Z0 F600
G1 X28.889 Y43.608 Z0 F600
G1 X28.899 Y43.616 Z0 F600
G1 X28.92 Y43.595 Z0 F600
G1 X28.955 Y43.52 Z0 F600
G1 X28.978 Y43.453 Z0 F600
G1 X29.007 Y43.363 Z0 F600
G1 X29.04 Y43.246 Z0 F600
G1 X29.079 Y43.098 Z0 F600
G1 X29.124 Y42.916 Z0 F600
; --- FIX X Backlash ---
G0 X29.824 Y42.916 F410
G1 X29.875 Y42.698 Z0 F600
G1 X29.933 Y42.438 Z0 F600
G1 X29.998 Y42.135 Z0 F600
G1 X30.047 Y41.832 Z0 F600
G1 X30.062 Y41.573 Z0 F600
G1 X30.045 Y41.354 Z0 F600
G1 X30.002 Y41.172 Z0 F600
; --- FIX X Backlash ---
G0 X29.302 Y41.172 F410
G1 X29.237 Y41.025 Z0 F600
G1 X29.155 Y40.907 Z0 F600
G1 X29.059 Y40.817 Z0 F600
G1 X28.955 Y40.75 Z0 F600
G1 X28.737 Y40.675 Z0 F600
G1 X28.538 Y40.655 Z0 F600
G1 X28.393 Y40.662 Z0 F600
G1 X28.337 Y40.67 Z0 F600
; --- FIX Y Backlash ---
G0 X28.337 Y41.17 F410
G1 X27.467 Y41.491 Z0 F600
G1 X27.009 Y43.047 Z0 F600
; --- FIX X Backlash ---
G0 X27.709 Y43.047 F410
G1 X27.984 Y44.054 Z0 F600
G1 X28.258 Y44.833 Z0 F600
G1 X28.945 Y46.114 Z0 F600
G1 X29.677 Y47.121 Z0 F600
G1 X29.769 Y48.724 Z0 F600
; --- FIX X Backlash ---
G0 X29.069 Y48.724 F410
G1 X29.016 Y48.837 Z0 F600
G1 X28.958 Y48.95 Z0 F600
G1 X28.886 Y49.078 Z0 F600
G1 X28.805 Y49.202 Z0 F600
G1 X28.721 Y49.303 Z0 F600
G1 X28.64 Y49.363 Z0 F600
G1 X28.565 Z0 F600
; --- FIX Y Backlash ---
G0 X28.565 Y48.863 F410
G1 X28.466 Y48.809 Z0 F600
G1 X28.317 Y48.718 Z0 F600
G1 X27.948 Y48.487 Z0 F600
G1 X27.467 Y48.178 Z0 F600
; --- FIX X Backlash ---
G0 X28.167 Y48.178 F410
G1 X29.128 Y46.164 Z0 F600
; --- FIX X Backlash ---
G0 X28.428 Y46.164 F410
G1 X28.199 Y43.737 Z0 F600
G1 X27.97 Y41.815 Z0 F600
; --- FIX X Backlash ---
G0 X28.67 Y41.815 F410
; --- FIX Y Backlash ---
G0 X28.67 Y42.315 F410
G1 X30.273 Y42.406 Z0 F600
; --- FIX X Backlash ---
G0 X29.573 Y42.406 F410
G1 X29.161 Y45.199 Z0 F600
G1 X26.689 Y46.297 Z0 F600
G1 X26.734 Y49.364 Z0 F600
; --- FIX X Backlash ---
G0 X27.434 Y49.364 F410
G1 X28.121 Y49.319 Z0 F600
; --- FIX X Backlash ---
G0 X27.421 Y49.319 F410
; --- FIX Y Backlash ---
G0 X27.421 Y48.819 F410
G1 X27.192 Y45.157 Z0 F600
G1 X26.094 Y45.065 Z0 F600
; --- FIX Y Backlash ---
G0 X26.094 Y45.565 F410
G1 X25.041 Y46.114 Z0 F600
; --- FIX Y Backlash ---
G0 X25.041 Y45.614 F410
G1 X23.164 Y45.156 Z0 F600
G1 X22.019 Z0 F600
; --- FIX Y Backlash ---
G0 X22.019 Y45.656 F410
G1 X20.326 Y45.794 Z0 F600
G1 X19.593 Y46.069 Z0 F600
; --- FIX Y Backlash ---
G0 X19.593 Y45.569 F410
G1 X19.41 Y44.47 Z0 F600
; --- FIX X Backlash ---
G0 X20.11 Y44.47 F410
; --- FIX Y Backlash ---
G0 X20.11 Y44.97 F410
G1 X22.536 Y45.29 Z0 F600
; --- FIX Y Backlash ---
G0 X22.536 Y44.79 F410
G1 X24.23 Y44.699 Z0 F600
G1 X25.969 Y44.607 Z0 F600
G1 X27.114 Y44.333 Z0 F600
G1 X27.205 Y42.089 Z0 F600
G1 X27.297 Y40.121 Z0 F600
G1 X28.075 Y39.617 Z0 F600
; --- FIX Y Backlash ---
G0 X28.075 Y40.117 F410
G1 X29.082 Y40.301 Z0 F600
G1 X29.998 Z0 F600
G1 X30.959 Y40.621 Z0 F600
G1 X31.044 Y40.728 Z0 F600
G1 X31.128 Y40.848 Z0 F600
G1 X31.222 Y40.999 Z0 F600
G1 X31.312 Y41.171 Z0 F600
G1 X31.384 Y41.355 Z0 F600
G1 X31.424 Y41.541 Z0 F600
G0 Z3.5 F600
; --- FIX X Backlash ---
G0 X30.724 Y41.541 F410
G0 X23.576 Y48.312 Z3.5
G1 Z0 F600
;Layer C3 Pass 1 of 2
G1 X23.21 Y52.203 Z0 F600
; --- FIX X Backlash ---
G0 X23.91 Y52.203 F410
G1 X24.459 Y54.904 Z0 F600
; --- FIX Y Backlash ---
G0 X24.459 Y54.404 F410
G1 X25.237 Y53.213 Z0 F600
; --- FIX Y Backlash ---
G0 X25.237 Y53.713 F410
G1 X25.969 Y54.354 Z0 F600
; --- FIX Y Backlash ---
G0 X25.969 Y53.854 F410
G1 X26.381 Y52.16 Z0 F600
G1 X27.343 Y52.069 Z0 F600
; --- FIX Y Backlash ---
G0 X27.343 Y52.569 F410
G1 X28.899 Y52.889 Z0 F600
G1 X29.952 Y52.981 Z0 F600
G1 X31.417 Y53.484 Z0 F600
G1 X32.882 Y53.851 Z0 F600
G1 X34.988 Y53.896 Z0 F600
; --- FIX Y Backlash ---
G0 X34.988 Y53.396 F410
G1 X36.086 Y52.939 Z0 F600
; --- FIX Y Backlash ---
G0 X36.086 Y53.439 F410
G1 X37.231 Y53.668 Z0 F600
; --- FIX Y Backlash ---
G0 X37.231 Y53.168 F410
G1 X37.276 Y51.337 Z0 F600
G1 X37.688 Y51.382 Z0 F600
; --- FIX X Backlash ---
G0 X36.988 Y51.382 F410
; --- FIX Y Backlash ---
G0 X36.988 Y51.882 F410
G1 X36.531 Y54.354 Z0 F600
; --- FIX Y Backlash ---
G0 X36.531 Y53.854 F410
G1 X34.608 Y53.259 Z0 F600
G1 X33.509 Y52.801 Z0 F600
; --- FIX Y Backlash ---
G0 X33.509 Y53.301 F410
G1 X32.273 Y54.354 Z0 F600
; --- FIX X Backlash ---
G0 X32.973 Y54.354 F410
G1 X33.431 Y55.407 Z0 F600
; --- FIX X Backlash ---
G0 X32.731 Y55.407 F410
G1 X32.502 Y57.971 Z0 F600
; --- FIX X Backlash ---
G0 X33.202 Y57.971 F410
G1 X33.614 Y61.267 Z0 F600
; --- FIX X Backlash ---
G0 X32.914 Y61.267 F410
; --- FIX Y Backlash ---
G0 X32.914 Y60.767 F410
G1 X32.548 Y60.629 Z0 F600
; --- FIX X Backlash ---
G0 X33.248 Y60.629 F410
G1 X33.843 Y53.9 Z0 F600
; --- FIX X Backlash ---
G0 X33.143 Y53.9 F410
; --- FIX Y Backlash ---
G0 X33.143 Y54.4 F410
G1 X31.861 Y55.499 Z0 F600
; --- FIX Y Backlash ---
G0 X31.861 Y54.999 F410
G1 X31.221 Y54.495 Z0 F600
; --- FIX Y Backlash ---
G0 X31.221 Y54.995 F410
G1 X30.076 Y56.552 Z0 F600
; --- FIX X Backlash ---
G0 X30.776 Y56.552 F410
G1 X31.097 Y61.084 Z0 F600
; --- FIX X Backlash ---
G0 X30.397 Y61.084 F410
G1 X30.03 Y61.129 Z0 F600
; --- FIX X Backlash ---
G0 X30.73 Y61.129 F410
; --- FIX Y Backlash ---
G0 X30.73 Y60.629 F410
G1 X30.959 Y54.953 Z0 F600
; --- FIX X Backlash ---
G0 X30.259 Y54.953 F410
; --- FIX Y Backlash ---
G0 X30.259 Y55.453 F410
G1 X28.977 Y56.094 Z0 F600
; --- FIX X Backlash ---
G0 X29.677 Y56.094 F410
; --- FIX Y Backlash ---
G0 X29.677 Y55.594 F410
G1 X31.28 Y54.312 Z0 F600
; --- FIX X Backlash ---
G0 X30.58 Y54.312 F410
G1 X30.351 Y53.305 Z0 F600
G1 X29.389 Y52.206 Z0 F600
G1 X28.657 Y51.703 Z0 F600
; --- FIX Y Backlash ---
G0 X28.657 Y52.203 F410
G1 X28.565 Y54.217 Z0 F600
; --- FIX X Backlash ---
G0 X29.265 Y54.217 F410
G1 X29.952 Y54.721 Z0 F600
; --- FIX X Backlash ---
G0 X29.252 Y54.721 F410
G1 X28.245 Y56.14 Z0 F600
; --- FIX Y Backlash ---
G0 X28.245 Y55.64 F410
G1 X27.146 Y54.541 Z0 F600
; --- FIX X Backlash ---
G0 X27.846 Y54.541 F410
G1 X28.396 Y53.442 Z0 F600
; --- FIX X Backlash ---
G0 X27.696 Y53.442 F410
G1 X27.467 Y51.611 Z0 F600
; --- FIX Y Backlash ---
G0 X27.467 Y52.111 F410
G1 X26.322 Y52.523 Z0 F600
G1 X26.185 Y54.446 Z0 F600
; --- FIX X Backlash ---
G0 X26.885 Y54.446 F410
G1 X27.114 Y55.636 Z0 F600
; --- FIX X Backlash ---
G0 X26.414 Y55.636 F410
; --- FIX Y Backlash ---
G0 X26.414 Y55.136 F410
G1 X25.498 Y54.953 Z0 F600
G1 X23.576 Y53.122 Z0 F600
G1 X23.621 Y50.192 Z0 F600
G1 X23.438 Y48.544 Z0 F600
G1 X22.614 Y48.361 Z0 F600
G1 X22.499 Y48.316 Z0 F600
G1 X22.38 Y48.276 Z0 F600
G1 X22.242 Y48.241 Z0 F600
G1 X22.103 Y48.22 Z0 F600
G1 X21.977 Y48.226 Z0 F600
G1 X21.883 Y48.269 Z0 F600
; --- FIX Y Backlash ---
G0 X21.883 Y48.769 F410
G1 X21.836 Y48.861 Z0 F600
G1 X21.828 Y48.942 Z0 F600
G1 X21.821 Y49.061 Z0 F600
G1 X21.81 Y49.39 Z0 F600
G1 X21.802 Y49.798 Z0 F600
G1 X21.796 Y50.24 Z0 F600
G1 X21.791 Y51.03 Z0 F600
G1 Y51.379 Z0 F600
; --- FIX X Backlash ---
G0 X22.491 Y51.379 F410
G1 X22.582 Y53.072 Z0 F600
G1 X23.04 Y54.858 Z0 F600
; --- FIX X Backlash ---
G0 X22.34 Y54.858 F410
G1 X21.928 Y55.819 Z0 F600
G1 X21.378 Y57.513 Z0 F600
; --- FIX X Backlash ---
G0 X22.078 Y57.513 F410
G1 X23.269 Y58.154 Z0 F600
; --- FIX Y Backlash ---
G0 X23.269 Y57.654 F410
G1 X25.512 Y57.425 Z0 F600
G1 X26.153 Y55.594 Z0 F600
; --- FIX X Backlash ---
G0 X25.453 Y55.594 F410
G1 X24.583 Y54.999 Z0 F600
G1 X22.66 Y54.907 Z0 F600
G1 X22.477 Y50.696 Z0 F600
; --- FIX X Backlash ---
G0 X23.177 Y50.696 F410
G1 X23.406 Y49.46 Z0 F600
G1 X24.276 Y47.812 Z0 F600
;Layer C3 Pass 2 of 2
; --- FIX X Backlash ---
G0 X23.576 Y47.812 F410
; --- FIX Y Backlash ---
G0 X23.576 Y48.312 F410
G1 X23.21 Y52.203 Z0 F600
; --- FIX X Backlash ---
G0 X23.91 Y52.203 F410
G1 X24.459 Y54.904 Z0 F600
; --- FIX Y Backlash ---
G0 X24.459 Y54.404 F410
G1 X25.237 Y53.213 Z0 F600
; --- FIX Y Backlash ---
G0 X25.237 Y53.713 F410
G1 X25.969 Y54.354 Z0 F600
; --- FIX Y Backlash ---
G0 X25.969 Y53.854 F410
G1 X26.381 Y52.16 Z0 F600
G1 X27.343 Y52.069 Z0 F600
; --- FIX Y Backlash ---
G0 X27.343 Y52.569 F410
G1 X28.899 Y52.889 Z0 F600
G1 X29.952 Y52.981 Z0 F600
G1 X31.417 Y53.484 Z0 F600
G1 X32.882 Y53.851 Z0 F600
G1 X34.988 Y53.896 Z0 F600
; --- FIX Y Backlash ---
G0 X34.988 Y53.396 F410
G1 X36.086 Y52.939 Z0 F600
; --- FIX Y Backlash ---
G0 X36.086 Y53.439 F410
G1 X37.231 Y53.668 Z0 F600
; --- FIX Y Backlash ---
G0 X37.231 Y53.168 F410
G1 X37.276 Y51.337 Z0 F600
G1 X37.688 Y51.382 Z0 F600
; --- FIX X Backlash ---
G0 X36.988 Y51.382 F410
; --- FIX Y Backlash ---
G0 X36.988 Y51.882 F410
G1 X36.531 Y54.354 Z0 F600
; --- FIX Y Backlash ---
G0 X36.531 Y53.854 F410
G1 X34.608 Y53.259 Z0 F600
G1 X33.509 Y52.801 Z0 F600
; --- FIX Y Backlash ---
G0 X33.509 Y53.301 F410
G1 X32.273 Y54.354 Z0 F600
; --- FIX X Backlash ---
G0 X32.973 Y54.354 F410
G1 X33.431 Y55.407 Z0 F600
; --- FIX X Backlash ---
G0 X32.731 Y55.407 F410
G1 X32.502 Y57.971 Z0 F600
; --- FIX X Backlash ---
G0 X33.202 Y57.971 F410
G1 X33.614 Y61.267 Z0 F600
; --- FIX X Backlash ---
G0 X32.914 Y61.267 F410
; --- FIX Y Backlash ---
G0 X32.914 Y60.767 F410
G1 X32.548 Y60.629 Z0 F600
; --- FIX X Backlash ---
G0 X33.248 Y60.629 F410
G1 X33.843 Y53.9 Z0 F600
; --- FIX X Backlash ---
G0 X33.143 Y53.9 F410
; --- FIX Y Backlash ---
G0 X33.143 Y54.4 F410
G1 X31.861 Y55.499 Z0 F600
; --- FIX Y Backlash ---
G0 X31.861 Y54.999 F410
G1 X31.221 Y54.495 Z0 F600
; --- FIX Y Backlash ---
G0 X31.221 Y54.995 F410
G1 X30.076 Y56.552 Z0 F600
; --- FIX X Backlash ---
G0 X30.776 Y56.552 F410
G1 X31.097 Y61.084 Z0 F600
; --- FIX X Backlash ---
G0 X30.397 Y61.084 F410
G1 X30.03 Y61.129 Z0 F600
; --- FIX X Backlash ---
G0 X30.73 Y61.129 F410
; --- FIX Y Backlash ---
G0 X30.73 Y60.629 F410
G1 X30.959 Y54.953 Z0 F600
; --- FIX X Backlash ---
G0 X30.259 Y54.953 F410
; --- FIX Y Backlash ---
G0 X30.259 Y55.453 F410
G1 X28.977 Y56.094 Z0 F600
; --- FIX X Backlash ---
G0 X29.677 Y56.094 F410
; --- FIX Y Backlash ---
G0 X29.677 Y55.594 F410
G1 X31.28 Y54.312 Z0 F600
; --- FIX X Backlash ---
G0 X30.58 Y54.312 F410
G1 X30.351 Y53.305 Z0 F600
G1 X29.389 Y52.206 Z0 F600
G1 X28.657 Y51.703 Z0 F600
; --- FIX Y Backlash ---
G0 X28.657 Y52.203 F410
G1 X28.565 Y54.217 Z0 F600
; --- FIX X Backlash ---
G0 X29.265 Y54.217 F410
G1 X29.952 Y54.721 Z0 F600
; --- FIX X Backlash ---
G0 X29.252 Y54.721 F410
G1 X28.245 Y56.14 Z0 F600
; --- FIX Y Backlash ---
G0 X28.245 Y55.64 F410
G1 X27.146 Y54.541 Z0 F600
; --- FIX X Backlash ---
G0 X27.846 Y54.541 F410
G1 X28.396 Y53.442 Z0 F600
; --- FIX X Backlash ---
G0 X27.696 Y53.442 F410
G1 X27.467 Y51.611 Z0 F600
; --- FIX Y Backlash ---
G0 X27.467 Y52.111 F410
G1 X26.322 Y52.523 Z0 F600
G1 X26.185 Y54.446 Z0 F600
; --- FIX X Backlash ---
G0 X26.885 Y54.446 F410
G1 X27.114 Y55.636 Z0 F600
; --- FIX X Backlash ---
G0 X26.414 Y55.636 F410
; --- FIX Y Backlash ---
G0 X26.414 Y55.136 F410
G1 X25.498 Y54.953 Z0 F600
G1 X23.576 Y53.122 Z0 F600
G1 X23.621 Y50.192 Z0 F600
G1 X23.438 Y48.544 Z0 F600
G1 X22.614 Y48.361 Z0 F600
G1 X22.499 Y48.316 Z0 F600
G1 X22.38 Y48.276 Z0 F600
G1 X22.242 Y48.241 Z0 F600
G1 X22.103 Y48.22 Z0 F600
G1 X21.977 Y48.226 Z0 F600
G1 X21.883 Y48.269 Z0 F600
; --- FIX Y Backlash ---
G0 X21.883 Y48.769 F410
G1 X21.836 Y48.861 Z0 F600
G1 X21.828 Y48.942 Z0 F600
G1 X21.821 Y49.061 Z0 F600
G1 X21.81 Y49.39 Z0 F600
G1 X21.802 Y49.798 Z0 F600
G1 X21.796 Y50.24 Z0 F600
G1 X21.791 Y51.03 Z0 F600
G1 Y51.379 Z0 F600
; --- FIX X Backlash ---
G0 X22.491 Y51.379 F410
G1 X22.582 Y53.072 Z0 F600
G1 X23.04 Y54.858 Z0 F600
; --- FIX X Backlash ---
G0 X22.34 Y54.858 F410
G1 X21.928 Y55.819 Z0 F600
G1 X21.378 Y57.513 Z0 F600
; --- FIX X Backlash ---
G0 X22.078 Y57.513 F410
G1 X23.269 Y58.154 Z0 F600
; --- FIX Y Backlash ---
G0 X23.269 Y57.654 F410
G1 X25.512 Y57.425 Z0 F600
G1 X26.153 Y55.594 Z0 F600
; --- FIX X Backlash ---
G0 X25.453 Y55.594 F410
G1 X24.583 Y54.999 Z0 F600
G1 X22.66 Y54.907 Z0 F600
G1 X22.477 Y50.696 Z0 F600
; --- FIX X Backlash ---
G0 X23.177 Y50.696 F410
G1 X23.406 Y49.46 Z0 F600
G1 X24.276 Y47.812 Z0 F600
G0 Z3.5 F600
; --- FIX Y Backlash ---
G0 X24.276 Y48.312 F410
G0 X28.487 Y58.383 Z3.5
G1 Z0 F600
;Layer C3 Pass 1 of 2
; --- FIX X Backlash ---
G0 X27.787 Y58.383 F410
G1 X25.865 Y61.266 Z0 F600
; --- FIX X Backlash ---
G0 X26.565 Y61.266 F410
G1 X28.35 Y61.312 Z0 F600
; --- FIX X Backlash ---
G0 X27.65 Y61.312 F410
; --- FIX Y Backlash ---
G0 X27.65 Y60.812 F410
G1 X23.164 Y60.4 Z0 F600
; --- FIX Y Backlash ---
G0 X23.164 Y60.9 F410
G1 X21.836 Y61.45 Z0 F600
; --- FIX Y Backlash ---
G0 X21.836 Y60.95 F410
G1 X21.607 Y59.988 Z0 F600
; --- FIX X Backlash ---
G0 X22.307 Y59.988 F410
G1 X22.994 Y59.576 Z0 F600
; --- FIX Y Backlash ---
G0 X22.994 Y60.076 F410
G1 X24.138 Y60.259 Z0 F600
G1 X24.306 Y60.309 Z0 F600
G1 X24.688 Y60.42 Z0 F600
G1 X24.903 Y60.478 Z0 F600
G1 X25.104 Y60.53 Z0 F600
G1 X25.269 Y60.566 Z0 F600
G1 X25.374 Y60.58 Z0 F600
G1 X25.496 Y60.572 Z0 F600
G1 X25.702 Y60.551 Z0 F600
; --- FIX Y Backlash ---
G0 X25.702 Y60.051 F410
G1 X26.244 Y59.988 Z0 F600
G1 X26.977 Y59.897 Z0 F600
G1 X28.396 Y59.943 Z0 F600
; --- FIX X Backlash ---
G0 X27.696 Y59.943 F410
G1 X27.375 Y58.569 Z0 F600
; --- FIX X Backlash ---
G0 X28.075 Y58.569 F410
G1 X28.487 Y57.883 Z0 F600
;Layer C3 Pass 2 of 2
; --- FIX X Backlash ---
G0 X27.787 Y57.883 F410
; --- FIX Y Backlash ---
G0 X27.787 Y58.383 F410
G1 X25.865 Y61.266 Z0 F600
; --- FIX X Backlash ---
G0 X26.565 Y61.266 F410
G1 X28.35 Y61.312 Z0 F600
; --- FIX X Backlash ---
G0 X27.65 Y61.312 F410
; --- FIX Y Backlash ---
G0 X27.65 Y60.812 F410
G1 X23.164 Y60.4 Z0 F600
; --- FIX Y Backlash ---
G0 X23.164 Y60.9 F410
G1 X21.836 Y61.45 Z0 F600
; --- FIX Y Backlash ---
G0 X21.836 Y60.95 F410
G1 X21.607 Y59.988 Z0 F600
; --- FIX X Backlash ---
G0 X22.307 Y59.988 F410
G1 X22.994 Y59.576 Z0 F600
; --- FIX Y Backlash ---
G0 X22.994 Y60.076 F410
G1 X24.138 Y60.259 Z0 F600
G1 X24.306 Y60.309 Z0 F600
G1 X24.688 Y60.42 Z0 F600
G1 X24.903 Y60.478 Z0 F600
G1 X25.104 Y60.53 Z0 F600
G1 X25.269 Y60.566 Z0 F600
G1 X25.374 Y60.58 Z0 F600
G1 X25.496 Y60.572 Z0 F600
G1 X25.702 Y60.551 Z0 F600
; --- FIX Y Backlash ---
G0 X25.702 Y60.051 F410
G1 X26.244 Y59.988 Z0 F600
G1 X26.977 Y59.897 Z0 F600
G1 X28.396 Y59.943 Z0 F600
; --- FIX X Backlash ---
G0 X27.696 Y59.943 F410
G1 X27.375 Y58.569 Z0 F600
; --- FIX X Backlash ---
G0 X28.075 Y58.569 F410
G1 X28.487 Y57.883 Z0 F600
G0 Z3.5 F600
; --- FIX Y Backlash ---
G0 X28.487 Y58.383 F410
G0 X35.811 Y58.749 Z3.5
G1 Z0 F600
;Layer C3 Pass 1 of 2
; --- FIX Y Backlash ---
G0 X35.811 Y58.249 F410
G1 X37.917 Y57.883 Z0 F600
; --- FIX Y Backlash ---
G0 X37.917 Y58.383 F410
G1 X38.65 Y58.84 Z0 F600
; --- FIX Y Backlash ---
G0 X38.65 Y58.34 F410
G1 X40.069 Y57.562 Z0 F600
; --- FIX X Backlash ---
G0 X39.369 Y57.562 F410
G1 X39.003 Y56.784 Z0 F600
; --- FIX X Backlash ---
G0 X39.703 Y56.784 F410
G1 X40.298 Y54.449 Z0 F600
; --- FIX X Backlash ---
G0 X39.598 Y54.449 F410
G1 X39.186 Y51.428 Z0 F600
; --- FIX X Backlash ---
G0 X39.886 Y51.428 F410
; --- FIX Y Backlash ---
G0 X39.886 Y51.928 F410
G1 X40.114 Y53.805 Z0 F600
; --- FIX X Backlash ---
G0 X39.414 Y53.805 F410
G1 X39.231 Y55.178 Z0 F600
G1 X39.094 Y56.139 Z0 F600
; --- FIX Y Backlash ---
G0 X39.094 Y55.639 F410
G1 X37.675 Y55.548 Z0 F600
; --- FIX Y Backlash ---
G0 X37.675 Y56.048 F410
G1 X36.668 Y56.368 Z0 F600
; --- FIX Y Backlash ---
G0 X36.668 Y55.868 F410
G1 X35.661 Y55.685 Z0 F600
; --- FIX Y Backlash ---
G0 X35.661 Y56.185 F410
G1 X35.523 Y56.551 Z0 F600
; --- FIX X Backlash ---
G0 X36.223 Y56.551 F410
G1 X39.062 Y56.689 Z0 F600
; --- FIX Y Backlash ---
G0 X39.062 Y56.189 F410
G1 X39.794 Y55.96 Z0 F600
; --- FIX Y Backlash ---
G0 X39.794 Y56.46 F410
G1 X40.252 Y57.101 Z0 F600
; --- FIX X Backlash ---
G0 X39.552 Y57.101 F410
G1 X39.231 Y58.382 Z0 F600
G1 X39.002 Y58.749 Z0 F600
; --- FIX Y Backlash ---
G0 X39.002 Y58.249 F410
G1 X37.034 Y57.928 Z0 F600
; --- FIX Y Backlash ---
G0 X37.034 Y58.428 F410
G1 X35.615 Y58.657 Z0 F600
G1 X35.249 Y59.802 Z0 F600
; --- FIX X Backlash ---
G0 X35.949 Y59.802 F410
G1 X36.132 Y60.992 Z0 F600
G1 X37.643 Y61.221 Z0 F600
; --- FIX Y Backlash ---
G0 X37.643 Y60.721 F410
G1 X40.664 Y60.492 Z0 F600
; --- FIX Y Backlash ---
G0 X40.664 Y60.992 F410
G1 X44.326 Y61.358 Z0 F600
; --- FIX Y Backlash ---
G0 X44.326 Y60.858 F410
G1 X47.073 Y60.629 Z0 F600
; --- FIX Y Backlash ---
G0 X47.073 Y61.129 F410
G1 X50.14 Y61.266 Z0 F600
; --- FIX Y Backlash ---
G0 X50.14 Y60.766 F410
G1 X51.742 Y60.446 Z0 F600
; --- FIX Y Backlash ---
G0 X51.742 Y60.946 F410
G1 X54.351 Y61.45 Z0 F600
; --- FIX Y Backlash ---
G0 X54.351 Y60.95 F410
G1 X56.548 Y60.4 Z0 F600
; --- FIX Y Backlash ---
G0 X56.548 Y60.9 F410
G1 X57.739 Y61.083 Z0 F600
G1 X59.615 Y61.266 Z0 F600
; --- FIX X Backlash ---
G0 X58.915 Y61.266 F410
; --- FIX Y Backlash ---
G0 X58.915 Y60.766 F410
G1 X58.778 Y59.851 Z0 F600
; --- FIX X Backlash ---
G0 X59.478 Y59.851 F410
G1 X59.707 Y58.569 Z0 F600
; --- FIX X Backlash ---
G0 X59.007 Y58.569 F410
G1 X58.412 Y58.066 Z0 F600
; --- FIX Y Backlash ---
G0 X58.412 Y58.566 F410
G1 X57.725 Y59.161 Z0 F600
G1 X57.176 Y59.985 Z0 F600
; --- FIX X Backlash ---
G0 X57.876 Y59.985 F410
G1 X58.517 Y60.626 Z0 F600
; --- FIX Y Backlash ---
G0 X58.517 Y60.126 F410
G1 X59.02 Y58.89 Z0 F600
; --- FIX X Backlash ---
G0 X58.32 Y58.89 F410
; --- FIX Y Backlash ---
G0 X58.32 Y59.39 F410
G1 X58.091 Y61.541 Z0 F600
; --- FIX Y Backlash ---
G0 X58.091 Y61.041 F410
G1 X56.215 Y60.812 Z0 F600
G1 X53.422 Y60.4 Z0 F600
; --- FIX Y Backlash ---
G0 X53.422 Y60.9 F410
G1 X50.492 Y61.358 Z0 F600
; --- FIX Y Backlash ---
G0 X50.492 Y60.858 F410
G1 X48.845 Y60.538 Z0 F600
G1 X44.725 Y60.354 Z0 F600
; --- FIX Y Backlash ---
G0 X44.725 Y60.854 F410
G1 X42.527 Y61.312 Z0 F600
G1 X41.246 Y61.404 Z0 F600
; --- FIX Y Backlash ---
G0 X41.246 Y60.904 F410
G1 X39.003 Y60.675 Z0 F600
; --- FIX Y Backlash ---
G0 X39.003 Y61.175 F410
G1 X36.988 Y61.358 Z0 F600
; --- FIX Y Backlash ---
G0 X36.988 Y60.858 F410
G1 X36.027 Y60.171 Z0 F600
G1 X35.386 Y59.256 Z0 F600
G1 X35.111 Y58.249 Z0 F600
;Layer C3 Pass 2 of 2
; --- FIX X Backlash ---
G0 X35.811 Y58.249 F410
G1 X37.917 Y57.883 Z0 F600
; --- FIX Y Backlash ---
G0 X37.917 Y58.383 F410
G1 X38.65 Y58.84 Z0 F600
; --- FIX Y Backlash ---
G0 X38.65 Y58.34 F410
G1 X40.069 Y57.562 Z0 F600
; --- FIX X Backlash ---
G0 X39.369 Y57.562 F410
G1 X39.003 Y56.784 Z0 F600
; --- FIX X Backlash ---
G0 X39.703 Y56.784 F410
G1 X40.298 Y54.449 Z0 F600
; --- FIX X Backlash ---
G0 X39.598 Y54.449 F410
G1 X39.186 Y51.428 Z0 F600
; --- FIX X Backlash ---
G0 X39.886 Y51.428 F410
; --- FIX Y Backlash ---
G0 X39.886 Y51.928 F410
G1 X40.114 Y53.805 Z0 F600
; --- FIX X Backlash ---
G0 X39.414 Y53.805 F410
G1 X39.231 Y55.178 Z0 F600
G1 X39.094 Y56.139 Z0 F600
; --- FIX Y Backlash ---
G0 X39.094 Y55.639 F410
G1 X37.675 Y55.548 Z0 F600
; --- FIX Y Backlash ---
G0 X37.675 Y56.048 F410
G1 X36.668 Y56.368 Z0 F600
; --- FIX Y Backlash ---
G0 X36.668 Y55.868 F410
G1 X35.661 Y55.685 Z0 F600
; --- FIX Y Backlash ---
G0 X35.661 Y56.185 F410
G1 X35.523 Y56.551 Z0 F600
; --- FIX X Backlash ---
G0 X36.223 Y56.551 F410
G1 X39.062 Y56.689 Z0 F600
; --- FIX Y Backlash ---
G0 X39.062 Y56.189 F410
G1 X39.794 Y55.96 Z0 F600
; --- FIX Y Backlash ---
G0 X39.794 Y56.46 F410
G1 X40.252 Y57.101 Z0 F600
; --- FIX X Backlash ---
G0 X39.552 Y57.101 F410
G1 X39.231 Y58.382 Z0 F600
G1 X39.002 Y58.749 Z0 F600
; --- FIX Y Backlash ---
G0 X39.002 Y58.249 F410
G1 X37.034 Y57.928 Z0 F600
; --- FIX Y Backlash ---
G0 X37.034 Y58.428 F410
G1 X35.615 Y58.657 Z0 F600
G1 X35.249 Y59.802 Z0 F600
; --- FIX X Backlash ---
G0 X35.949 Y59.802 F410
G1 X36.132 Y60.992 Z0 F600
G1 X37.643 Y61.221 Z0 F600
; --- FIX Y Backlash ---
G0 X37.643 Y60.721 F410
G1 X40.664 Y60.492 Z0 F600
; --- FIX Y Backlash ---
G0 X40.664 Y60.992 F410
G1 X44.326 Y61.358 Z0 F600
; --- FIX Y Backlash ---
G0 X44.326 Y60.858 F410
G1 X47.073 Y60.629 Z0 F600
; --- FIX Y Backlash ---
G0 X47.073 Y61.129 F410
G1 X50.14 Y61.266 Z0 F600
; --- FIX Y Backlash ---
G0 X50.14 Y60.766 F410
G1 X51.742 Y60.446 Z0 F600
; --- FIX Y Backlash ---
G0 X51.742 Y60.946 F410
G1 X54.351 Y61.45 Z0 F600
; --- FIX Y Backlash ---
G0 X54.351 Y60.95 F410
G1 X56.548 Y60.4 Z0 F600
; --- FIX Y Backlash ---
G0 X56.548 Y60.9 F410
G1 X57.739 Y61.083 Z0 F600
G1 X59.615 Y61.266 Z0 F600
; --- FIX X Backlash ---
G0 X58.915 Y61.266 F410
; --- FIX Y Backlash ---
G0 X58.915 Y60.766 F410
G1 X58.778 Y59.851 Z0 F600
; --- FIX X Backlash ---
G0 X59.478 Y59.851 F410
G1 X59.707 Y58.569 Z0 F600
; --- FIX X Backlash ---
G0 X59.007 Y58.569 F410
G1 X58.412 Y58.066 Z0 F600
; --- FIX Y Backlash ---
G0 X58.412 Y58.566 F410
G1 X57.725 Y59.161 Z0 F600
G1 X57.176 Y59.985 Z0 F600
; --- FIX X Backlash ---
G0 X57.876 Y59.985 F410
G1 X58.517 Y60.626 Z0 F600
; --- FIX Y Backlash ---
G0 X58.517 Y60.126 F410
G1 X59.02 Y58.89 Z0 F600
; --- FIX X Backlash ---
G0 X58.32 Y58.89 F410
; --- FIX Y Backlash ---
G0 X58.32 Y59.39 F410
G1 X58.091 Y61.541 Z0 F600
; --- FIX Y Backlash ---
G0 X58.091 Y61.041 F410
G1 X56.215 Y60.812 Z0 F600
G1 X53.422 Y60.4 Z0 F600
; --- FIX Y Backlash ---
G0 X53.422 Y60.9 F410
G1 X50.492 Y61.358 Z0 F600
; --- FIX Y Backlash ---
G0 X50.492 Y60.858 F410
G1 X48.845 Y60.538 Z0 F600
G1 X44.725 Y60.354 Z0 F600
; --- FIX Y Backlash ---
G0 X44.725 Y60.854 F410
G1 X42.527 Y61.312 Z0 F600
G1 X41.246 Y61.404 Z0 F600
; --- FIX Y Backlash ---
G0 X41.246 Y60.904 F410
G1 X39.003 Y60.675 Z0 F600
; --- FIX Y Backlash ---
G0 X39.003 Y61.175 F410
G1 X36.988 Y61.358 Z0 F600
; --- FIX Y Backlash ---
G0 X36.988 Y60.858 F410
G1 X36.027 Y60.171 Z0 F600
G1 X35.386 Y59.256 Z0 F600
G1 X35.111 Y58.249 Z0 F600
G0 Z3.5 F600
; --- FIX X Backlash ---
G0 X35.811 Y58.249 F410
; --- FIX Y Backlash ---
G0 X35.811 Y58.749 F410
G0 X42.404 Y59.115 Z3.5
G1 Z0 F600
;Layer C3 Pass 1 of 2
; --- FIX Y Backlash ---
G0 X42.404 Y58.615 F410
G1 X42.495 Y56.921 Z0 F600
; --- FIX X Backlash ---
G0 X41.795 Y56.921 F410
G1 X41.475 Y56.143 Z0 F600
; --- FIX X Backlash ---
G0 X42.175 Y56.143 F410
G1 X42.999 Y54.953 Z0 F600
; --- FIX X Backlash ---
G0 X42.299 Y54.953 F410
G1 X41.703 Y53.259 Z0 F600
; --- FIX X Backlash ---
G0 X42.403 Y53.259 F410
G1 X42.541 Y51.611 Z0 F600
; --- FIX Y Backlash ---
G0 X42.541 Y52.111 F410
G1 X42.632 Y54.583 Z0 F600
; --- FIX X Backlash ---
G0 X41.932 Y54.583 F410
G1 X41.658 Y55.27 Z0 F600
; --- FIX X Backlash ---
G0 X42.358 Y55.27 F410
G1 X42.907 Y56.368 Z0 F600
G1 X45.242 Y56.597 Z0 F600
; --- FIX Y Backlash ---
G0 X45.242 Y56.097 F410
G1 X46.065 Y55.914 Z0 F600
; --- FIX X Backlash ---
G0 X45.365 Y55.914 F410
G1 X45.091 Y55.594 Z0 F600
G1 X43.672 Y55.639 Z0 F600
; --- FIX Y Backlash ---
G0 X43.672 Y56.139 F410
G1 X41.978 Y56.414 Z0 F600
G1 X41.52 Y57.375 Z0 F600
; --- FIX X Backlash ---
G0 X42.22 Y57.375 F410
G1 X42.586 Y58.749 Z0 F600
G1 X44.555 Y58.886 Z0 F600
; --- FIX Y Backlash ---
G0 X44.555 Y58.386 F410
G1 X46.523 Y58.111 Z0 F600
; --- FIX Y Backlash ---
G0 X46.523 Y58.611 F410
G1 X48.995 Y59.023 Z0 F600
; --- FIX Y Backlash ---
G0 X48.995 Y58.523 F410
G1 X50.781 Y58.157 Z0 F600
; --- FIX Y Backlash ---
G0 X50.781 Y58.657 F410
G1 X52.612 Y58.749 Z0 F600
G1 X53.893 Y58.932 Z0 F600
; --- FIX Y Backlash ---
G0 X53.893 Y58.432 F410
G1 X54.9 Y57.974 Z0 F600
G1 X55.45 Y56.555 Z0 F600
G1 X55.434 Y56.314 Z0 F600
G1 X55.393 Y55.76 Z0 F600
G1 X55.365 Y55.444 Z0 F600
G1 X55.334 Y55.145 Z0 F600
G1 X55.301 Y54.895 Z0 F600
G1 X55.267 Y54.724 Z0 F600
G1 X55.256 Y54.647 Z0 F600
G1 Y54.538 Z0 F600
G1 X55.271 Y54.402 Z0 F600
G1 X55.292 Y54.245 Z0 F600
G1 X55.357 Y53.888 Z0 F600
G1 X55.438 Y53.505 Z0 F600
G1 X55.524 Y53.137 Z0 F600
G1 X55.601 Y52.825 Z0 F600
G1 X55.679 Y52.527 Z0 F600
G1 X55.77 Y50.741 Z0 F600
; --- FIX X Backlash ---
G0 X55.07 Y50.741 F410
G1 X54.475 Y49.826 Z0 F600
; --- FIX Y Backlash ---
G0 X54.475 Y50.326 F410
G1 X53.514 Y50.967 Z0 F600
; --- FIX X Backlash ---
G0 X54.214 Y50.967 F410
G1 X54.58 Y52.203 Z0 F600
G1 X54.672 Y56.14 Z0 F600
G1 X54.763 Y57.192 Z0 F600
G1 X55.358 Y58.749 Z0 F600
; --- FIX X Backlash ---
G0 X54.658 Y58.749 F410
; --- FIX Y Backlash ---
G0 X54.658 Y58.249 F410
G1 X53.422 Y57.974 Z0 F600
; --- FIX Y Backlash ---
G0 X53.422 Y58.474 F410
G1 X50.63 Y58.932 Z0 F600
; --- FIX Y Backlash ---
G0 X50.63 Y58.432 F410
G1 X48.662 Y57.791 Z0 F600
; --- FIX Y Backlash ---
G0 X48.662 Y58.291 F410
G1 X47.014 Y58.703 Z0 F600
G1 X45.366 Y59.069 Z0 F600
; --- FIX Y Backlash ---
G0 X45.366 Y58.569 F410
G1 X43.489 Y58.111 Z0 F600
; --- FIX Y Backlash ---
G0 X43.489 Y58.611 F410
G1 X41.704 Y59.115 Z0 F600
;Layer C3 Pass 2 of 2
; --- FIX X Backlash ---
G0 X42.404 Y59.115 F410
; --- FIX Y Backlash ---
G0 X42.404 Y58.615 F410
G1 X42.495 Y56.921 Z0 F600
; --- FIX X Backlash ---
G0 X41.795 Y56.921 F410
G1 X41.475 Y56.143 Z0 F600
; --- FIX X Backlash ---
G0 X42.175 Y56.143 F410
G1 X42.999 Y54.953 Z0 F600
; --- FIX X Backlash ---
G0 X42.299 Y54.953 F410
G1 X41.703 Y53.259 Z0 F600
; --- FIX X Backlash ---
G0 X42.403 Y53.259 F410
G1 X42.541 Y51.611 Z0 F600
; --- FIX Y Backlash ---
G0 X42.541 Y52.111 F410
G1 X42.632 Y54.583 Z0 F600
; --- FIX X Backlash ---
G0 X41.932 Y54.583 F410
G1 X41.658 Y55.27 Z0 F600
; --- FIX X Backlash ---
G0 X42.358 Y55.27 F410
G1 X42.907 Y56.368 Z0 F600
G1 X45.242 Y56.597 Z0 F600
; --- FIX Y Backlash ---
G0 X45.242 Y56.097 F410
G1 X46.065 Y55.914 Z0 F600
; --- FIX X Backlash ---
G0 X45.365 Y55.914 F410
G1 X45.091 Y55.594 Z0 F600
G1 X43.672 Y55.639 Z0 F600
; --- FIX Y Backlash ---
G0 X43.672 Y56.139 F410
G1 X41.978 Y56.414 Z0 F600
G1 X41.52 Y57.375 Z0 F600
; --- FIX X Backlash ---
G0 X42.22 Y57.375 F410
G1 X42.586 Y58.749 Z0 F600
G1 X44.555 Y58.886 Z0 F600
; --- FIX Y Backlash ---
G0 X44.555 Y58.386 F410
G1 X46.523 Y58.111 Z0 F600
; --- FIX Y Backlash ---
G0 X46.523 Y58.611 F410
G1 X48.995 Y59.023 Z0 F600
; --- FIX Y Backlash ---
G0 X48.995 Y58.523 F410
G1 X50.781 Y58.157 Z0 F600
; --- FIX Y Backlash ---
G0 X50.781 Y58.657 F410
G1 X52.612 Y58.749 Z0 F600
G1 X53.893 Y58.932 Z0 F600
; --- FIX Y Backlash ---
G0 X53.893 Y58.432 F410
G1 X54.9 Y57.974 Z0 F600
G1 X55.45 Y56.555 Z0 F600
G1 X55.434 Y56.314 Z0 F600
G1 X55.393 Y55.76 Z0 F600
G1 X55.365 Y55.444 Z0 F600
G1 X55.334 Y55.145 Z0 F600
G1 X55.301 Y54.895 Z0 F600
G1 X55.267 Y54.724 Z0 F600
G1 X55.256 Y54.647 Z0 F600
G1 Y54.538 Z0 F600
G1 X55.271 Y54.402 Z0 F600
G1 X55.292 Y54.245 Z0 F600
G1 X55.357 Y53.888 Z0 F600
G1 X55.438 Y53.505 Z0 F600
G1 X55.524 Y53.137 Z0 F600
G1 X55.601 Y52.825 Z0 F600
G1 X55.679 Y52.527 Z0 F600
G1 X55.77 Y50.741 Z0 F600
; --- FIX X Backlash ---
G0 X55.07 Y50.741 F410
G1 X54.475 Y49.826 Z0 F600
; --- FIX Y Backlash ---
G0 X54.475 Y50.326 F410
G1 X53.514 Y50.967 Z0 F600
; --- FIX X Backlash ---
G0 X54.214 Y50.967 F410
G1 X54.58 Y52.203 Z0 F600
G1 X54.672 Y56.14 Z0 F600
G1 X54.763 Y57.192 Z0 F600
G1 X55.358 Y58.749 Z0 F600
; --- FIX X Backlash ---
G0 X54.658 Y58.749 F410
; --- FIX Y Backlash ---
G0 X54.658 Y58.249 F410
G1 X53.422 Y57.974 Z0 F600
; --- FIX Y Backlash ---
G0 X53.422 Y58.474 F410
G1 X50.63 Y58.932 Z0 F600
; --- FIX Y Backlash ---
G0 X50.63 Y58.432 F410
G1 X48.662 Y57.791 Z0 F600
; --- FIX Y Backlash ---
G0 X48.662 Y58.291 F410
G1 X47.014 Y58.703 Z0 F600
G1 X45.366 Y59.069 Z0 F600
; --- FIX Y Backlash ---
G0 X45.366 Y58.569 F410
G1 X43.489 Y58.111 Z0 F600
; --- FIX Y Backlash ---
G0 X43.489 Y58.611 F410
G1 X41.704 Y59.115 Z0 F600
G0 Z3.5 F600
; --- FIX X Backlash ---
G0 X42.404 Y59.115 F410
; --- FIX Y Backlash ---
G0 X42.404 Y58.615 F410
G0 X58.151 Y55.319 Z3.5
G1 Z0 F600
;Layer C3 Pass 1 of 2
G1 X58.105 Y53.351 Z0 F600
; --- FIX X Backlash ---
G0 X57.405 Y53.351 F410
G1 X57.313 Y51.703 Z0 F600
; --- FIX X Backlash ---
G0 X58.013 Y51.703 F410
G1 X59.112 Y51.474 Z0 F600
; --- FIX Y Backlash ---
G0 X59.112 Y51.974 F410
G1 X59.066 Y53.072 Z0 F600
G1 X59.02 Y54.308 Z0 F600
; --- FIX X Backlash ---
G0 X58.32 Y54.308 F410
G1 X58.229 Y55.453 Z0 F600
; --- FIX X Backlash ---
G0 X58.929 Y55.453 F410
G1 X59.249 Y56.002 Z0 F600
; --- FIX Y Backlash ---
G0 X59.249 Y55.502 F410
G1 X59.707 Y54.861 Z0 F600
; --- FIX X Backlash ---
G0 X59.007 Y54.861 F410
G1 X58.869 Y53.488 Z0 F600
; --- FIX X Backlash ---
G0 X59.569 Y53.488 F410
G1 X59.89 Y52.298 Z0 F600
; --- FIX X Backlash ---
G0 X59.19 Y52.298 F410
G1 X58.961 Y51.428 Z0 F600
; --- FIX Y Backlash ---
G0 X58.961 Y51.928 F410
G1 X57.862 Y53.164 Z0 F600
G1 X57.908 Y55.682 Z0 F600
G1 X57.451 Y55.819 Z0 F600
;Layer C3 Pass 2 of 2
; --- FIX Y Backlash ---
G0 X57.451 Y55.319 F410
G1 X57.405 Y53.351 Z0 F600
G1 X57.313 Y51.703 Z0 F600
; --- FIX X Backlash ---
G0 X58.013 Y51.703 F410
G1 X59.112 Y51.474 Z0 F600
; --- FIX Y Backlash ---
G0 X59.112 Y51.974 F410
G1 X59.066 Y53.072 Z0 F600
G1 X59.02 Y54.308 Z0 F600
; --- FIX X Backlash ---
G0 X58.32 Y54.308 F410
G1 X58.229 Y55.453 Z0 F600
; --- FIX X Backlash ---
G0 X58.929 Y55.453 F410
G1 X59.249 Y56.002 Z0 F600
; --- FIX Y Backlash ---
G0 X59.249 Y55.502 F410
G1 X59.707 Y54.861 Z0 F600
; --- FIX X Backlash ---
G0 X59.007 Y54.861 F410
G1 X58.869 Y53.488 Z0 F600
; --- FIX X Backlash ---
G0 X59.569 Y53.488 F410
G1 X59.89 Y52.298 Z0 F600
; --- FIX X Backlash ---
G0 X59.19 Y52.298 F410
G1 X58.961 Y51.428 Z0 F600
; --- FIX Y Backlash ---
G0 X58.961 Y51.928 F410
G1 X57.862 Y53.164 Z0 F600
G1 X57.908 Y55.682 Z0 F600
G1 X57.451 Y55.819 Z0 F600
G0 Z3.5 F600
; --- FIX Y Backlash ---
G0 X57.451 Y55.319 F410
G0 X54.933 Y45.889 Z3.5
G1 Z0 F600
;Layer C3 Pass 1 of 2
G1 X54.292 Y45.797 Z0 F600
G1 X54.109 Y44.333 Z0 F600
G1 X53.514 Y41.952 Z0 F600
; --- FIX X Backlash ---
G0 X54.214 Y41.952 F410
G1 X54.992 Y41.403 Z0 F600
; --- FIX Y Backlash ---
G0 X54.992 Y41.903 F410
G1 X55.45 Y43.414 Z0 F600
; --- FIX X Backlash ---
G0 X54.75 Y43.414 F410
G1 X54.521 Y44.833 Z0 F600
; --- FIX X Backlash ---
G0 X55.221 Y44.833 F410
G1 X55.633 Y46.389 Z0 F600
;Layer C3 Pass 2 of 2
; --- FIX X Backlash ---
G0 X54.933 Y46.389 F410
; --- FIX Y Backlash ---
G0 X54.933 Y45.889 F410
G1 X54.292 Y45.797 Z0 F600
G1 X54.109 Y44.333 Z0 F600
G1 X53.514 Y41.952 Z0 F600
; --- FIX X Backlash ---
G0 X54.214 Y41.952 F410
G1 X54.992 Y41.403 Z0 F600
; --- FIX Y Backlash ---
G0 X54.992 Y41.903 F410
G1 X55.45 Y43.414 Z0 F600
; --- FIX X Backlash ---
G0 X54.75 Y43.414 F410
G1 X54.521 Y44.833 Z0 F600
; --- FIX X Backlash ---
G0 X55.221 Y44.833 F410
G1 X55.633 Y46.389 Z0 F600
G0 Z3.5 F600
; --- FIX X Backlash ---
G0 X54.933 Y46.389 F410
; --- FIX Y Backlash ---
G0 X54.933 Y45.889 F410
G0 X54.017 Y38.977 Z3.5
G1 Z0 F600
;Layer C3 Pass 1 of 2
; --- FIX X Backlash ---
G0 X54.717 Y38.977 F410
G1 X56.869 Y38.565 Z0 F600
; --- FIX X Backlash ---
G0 X56.169 Y38.565 F410
G1 X54.521 Y37.924 Z0 F600
; --- FIX X Backlash ---
G0 X55.221 Y37.924 F410
; --- FIX Y Backlash ---
G0 X55.221 Y38.424 F410
G1 X58.242 Y38.653 Z0 F600
; --- FIX X Backlash ---
G0 X57.542 Y38.653 F410
G1 X56.535 Y39.477 Z0 F600
; --- FIX X Backlash ---
G0 X57.235 Y39.477 F410
G1 X59.432 Y39.431 Z0 F600
; --- FIX X Backlash ---
G0 X58.732 Y39.431 F410
; --- FIX Y Backlash ---
G0 X58.732 Y38.931 F410
G1 X58.549 Y37.97 Z0 F600
G1 X58.553 Y37.849 Z0 F600
G1 Y37.728 Z0 F600
G1 X58.549 Y37.592 Z0 F600
G1 X58.536 Y37.46 Z0 F600
G1 X58.511 Y37.352 Z0 F600
G1 X58.47 Y37.286 Z0 F600
G1 X58.412 Y37.283 Z0 F600
G1 X58.353 Y37.302 Z0 F600
G1 X58.251 Y37.325 Z0 F600
G1 X58.111 Y37.351 Z0 F600
G1 X57.941 Y37.379 Z0 F600
; --- FIX Y Backlash ---
G0 X57.941 Y37.879 F410
G1 X57.535 Y37.939 Z0 F600
G1 X57.084 Y38 Z0 F600
G1 X56.262 Y38.105 Z0 F600
G1 X55.894 Y38.149 Z0 F600
; --- FIX Y Backlash ---
G0 X55.894 Y37.649 F410
G1 X54.658 Y37.191 Z0 F600
G1 X54.338 Y35.91 Z0 F600
G1 X54.383 Y35.177 Z0 F600
; --- FIX Y Backlash ---
G0 X54.383 Y35.677 F410
G1 X53.788 Y35.906 Z0 F600
; --- FIX X Backlash ---
G0 X54.488 Y35.906 F410
G1 X54.809 Y37.783 Z0 F600
; --- FIX X Backlash ---
G0 X54.109 Y37.783 F410
G1 X54.017 Y39.477 Z0 F600
;Layer C3 Pass 2 of 2
; --- FIX X Backlash ---
G0 X54.717 Y39.477 F410
; --- FIX Y Backlash ---
G0 X54.717 Y38.977 F410
G1 X56.869 Y38.565 Z0 F600
; --- FIX X Backlash ---
G0 X56.169 Y38.565 F410
G1 X54.521 Y37.924 Z0 F600
; --- FIX X Backlash ---
G0 X55.221 Y37.924 F410
; --- FIX Y Backlash ---
G0 X55.221 Y38.424 F410
G1 X58.242 Y38.653 Z0 F600
; --- FIX X Backlash ---
G0 X57.542 Y38.653 F410
G1 X56.535 Y39.477 Z0 F600
; --- FIX X Backlash ---
G0 X57.235 Y39.477 F410
G1 X59.432 Y39.431 Z0 F600
; --- FIX X Backlash ---
G0 X58.732 Y39.431 F410
; --- FIX Y Backlash ---
G0 X58.732 Y38.931 F410
G1 X58.549 Y37.97 Z0 F600
G1 X58.553 Y37.849 Z0 F600
G1 Y37.728 Z0 F600
G1 X58.549 Y37.592 Z0 F600
G1 X58.536 Y37.46 Z0 F600
G1 X58.511 Y37.352 Z0 F600
G1 X58.47 Y37.286 Z0 F600
G1 X58.412 Y37.283 Z0 F600
G1 X58.353 Y37.302 Z0 F600
G1 X58.251 Y37.325 Z0 F600
G1 X58.111 Y37.351 Z0 F600
G1 X57.941 Y37.379 Z0 F600
; --- FIX Y Backlash ---
G0 X57.941 Y37.879 F410
G1 X57.535 Y37.939 Z0 F600
G1 X57.084 Y38 Z0 F600
G1 X56.262 Y38.105 Z0 F600
G1 X55.894 Y38.149 Z0 F600
; --- FIX Y Backlash ---
G0 X55.894 Y37.649 F410
G1 X54.658 Y37.191 Z0 F600
G1 X54.338 Y35.91 Z0 F600
G1 X54.383 Y35.177 Z0 F600
; --- FIX Y Backlash ---
G0 X54.383 Y35.677 F410
G1 X53.788 Y35.906 Z0 F600
; --- FIX X Backlash ---
G0 X54.488 Y35.906 F410
G1 X54.809 Y37.783 Z0 F600
; --- FIX X Backlash ---
G0 X54.109 Y37.783 F410
G1 X54.017 Y39.477 Z0 F600
G0 Z3.5 F600
; --- FIX X Backlash ---
G0 X54.717 Y39.477 F410
; --- FIX Y Backlash ---
G0 X54.717 Y38.977 F410
G0 X57.555 Y33.346 Z3.5
G1 Z0 F600
;Layer C3 Pass 1 of 2
; --- FIX X Backlash ---
G0 X56.855 Y33.346 F410
G1 X56.031 Y32.293 Z0 F600
G1 X55.345 Y32.11 Z0 F600
G1 X55.283 Y31.987 Z0 F600
G1 X55.224 Y31.859 Z0 F600
G1 X55.162 Y31.71 Z0 F600
G1 X55.108 Y31.556 Z0 F600
G1 X55.074 Y31.415 Z0 F600
G1 Y31.304 Z0 F600
G1 X55.116 Y31.24 Z0 F600
; --- FIX X Backlash ---
G0 X55.816 Y31.24 F410
G1 X55.932 Y31.099 Z0 F600
G1 X56.062 Y30.863 Z0 F600
G1 X56.157 Y30.734 Z0 F600
G1 X56.286 Y30.61 Z0 F600
G1 X56.459 Y30.501 Z0 F600
G1 X56.686 Y30.416 Z0 F600
G1 X57.211 Y30.296 Z0 F600
G1 X57.698 Y30.21 Z0 F600
G1 X57.899 Y30.18 Z0 F600
G1 X58.196 Y30.142 Z0 F600
; --- FIX Y Backlash ---
G0 X58.196 Y30.642 F410
G1 X59.295 Y31.649 Z0 F600
G1 X59.387 Y32.839 Z0 F600
; --- FIX X Backlash ---
G0 X58.687 Y32.839 F410
G1 X57.542 Y33.205 Z0 F600
; --- FIX Y Backlash ---
G0 X57.542 Y32.705 F410
G1 X56.489 Y31.698 Z0 F600
; --- FIX X Backlash ---
G0 X57.189 Y31.698 F410
G1 X57.418 Y30.966 Z0 F600
; --- FIX Y Backlash ---
G0 X57.418 Y31.466 F410
G1 X58.563 Y32.244 Z0 F600
; --- FIX Y Backlash ---
G0 X58.563 Y31.744 F410
G1 X59.478 Y30.05 Z0 F600
; --- FIX Y Backlash ---
G0 X59.478 Y30.55 F410
G1 X59.432 Y33.846 Z0 F600
; --- FIX X Backlash ---
G0 X58.732 Y33.846 F410
G1 X56.855 Z0 F600
;Layer C3 Pass 2 of 2
; --- FIX Y Backlash ---
G0 X56.855 Y33.346 F410
G1 X56.031 Y32.293 Z0 F600
G1 X55.345 Y32.11 Z0 F600
G1 X55.283 Y31.987 Z0 F600
G1 X55.224 Y31.859 Z0 F600
G1 X55.162 Y31.71 Z0 F600
G1 X55.108 Y31.556 Z0 F600
G1 X55.074 Y31.415 Z0 F600
G1 Y31.304 Z0 F600
G1 X55.116 Y31.24 Z0 F600
; --- FIX X Backlash ---
G0 X55.816 Y31.24 F410
G1 X55.932 Y31.099 Z0 F600
G1 X56.062 Y30.863 Z0 F600
G1 X56.157 Y30.734 Z0 F600
G1 X56.286 Y30.61 Z0 F600
G1 X56.459 Y30.501 Z0 F600
G1 X56.686 Y30.416 Z0 F600
G1 X57.211 Y30.296 Z0 F600
G1 X57.698 Y30.21 Z0 F600
G1 X57.899 Y30.18 Z0 F600
G1 X58.196 Y30.142 Z0 F600
; --- FIX Y Backlash ---
G0 X58.196 Y30.642 F410
G1 X59.295 Y31.649 Z0 F600
G1 X59.387 Y32.839 Z0 F600
; --- FIX X Backlash ---
G0 X58.687 Y32.839 F410
G1 X57.542 Y33.205 Z0 F600
; --- FIX Y Backlash ---
G0 X57.542 Y32.705 F410
G1 X56.489 Y31.698 Z0 F600
; --- FIX X Backlash ---
G0 X57.189 Y31.698 F410
G1 X57.418 Y30.966 Z0 F600
; --- FIX Y Backlash ---
G0 X57.418 Y31.466 F410
G1 X58.563 Y32.244 Z0 F600
; --- FIX Y Backlash ---
G0 X58.563 Y31.744 F410
G1 X59.478 Y30.05 Z0 F600
; --- FIX Y Backlash ---
G0 X59.478 Y30.55 F410
G1 X59.432 Y33.846 Z0 F600
; --- FIX X Backlash ---
G0 X58.732 Y33.846 F410
G1 X56.855 Z0 F600
G0 Z3.5 F600
; --- FIX Y Backlash ---
G0 X56.855 Y33.346 F410
G0 X52.278 Y31.927 Z3.5
G1 Z0 F600
;Layer C3 Pass 1 of 2
; --- FIX Y Backlash ---
G0 X52.278 Y32.427 F410
G1 X51.912 Y32.656 Z0 F600
G1 X49.897 Y32.931 Z0 F600
; --- FIX Y Backlash ---
G0 X49.897 Y32.431 F410
G1 X49.028 Y32.293 Z0 F600
; --- FIX Y Backlash ---
G0 X49.028 Y32.793 F410
G1 X48.066 Y33.114 Z0 F600
; --- FIX Y Backlash ---
G0 X48.066 Y32.614 F410
G1 X47.792 Y31.515 Z0 F600
; --- FIX X Backlash ---
G0 X48.492 Y31.515 F410
G1 X48.995 Y30.92 Z0 F600
G1 X50.002 Y30.233 Z0 F600
; --- FIX Y Backlash ---
G0 X50.002 Y30.733 F410
G1 X52.016 Y31.054 Z0 F600
; --- FIX Y Backlash ---
G0 X52.016 Y30.554 F410
G1 X52.383 Y30.416 Z0 F600
; --- FIX Y Backlash ---
G0 X52.383 Y30.916 F410
G1 X53.115 Y31.695 Z0 F600
; --- FIX X Backlash ---
G0 X52.415 Y31.695 F410
G1 X51.683 Y31.923 Z0 F600
; --- FIX Y Backlash ---
G0 X51.683 Y31.423 F410
G1 X50.08 Y31.286 Z0 F600
; --- FIX Y Backlash ---
G0 X50.08 Y31.786 F410
G1 X48.89 Y31.923 Z0 F600
G1 X48.57 Y32.335 Z0 F600
; --- FIX X Backlash ---
G0 X49.27 Y32.335 F410
; --- FIX Y Backlash ---
G0 X49.27 Y31.835 F410
G1 X51.376 Y31.698 Z0 F600
; --- FIX Y Backlash ---
G0 X51.376 Y32.198 F410
G1 X52.978 Y32.427 Z0 F600
;Layer C3 Pass 2 of 2
; --- FIX X Backlash ---
G0 X52.278 Y32.427 F410
G1 X51.912 Y32.656 Z0 F600
G1 X49.897 Y32.931 Z0 F600
; --- FIX Y Backlash ---
G0 X49.897 Y32.431 F410
G1 X49.028 Y32.293 Z0 F600
; --- FIX Y Backlash ---
G0 X49.028 Y32.793 F410
G1 X48.066 Y33.114 Z0 F600
; --- FIX Y Backlash ---
G0 X48.066 Y32.614 F410
G1 X47.792 Y31.515 Z0 F600
; --- FIX X Backlash ---
G0 X48.492 Y31.515 F410
G1 X48.995 Y30.92 Z0 F600
G1 X50.002 Y30.233 Z0 F600
; --- FIX Y Backlash ---
G0 X50.002 Y30.733 F410
G1 X52.016 Y31.054 Z0 F600
; --- FIX Y Backlash ---
G0 X52.016 Y30.554 F410
G1 X52.383 Y30.416 Z0 F600
; --- FIX Y Backlash ---
G0 X52.383 Y30.916 F410
G1 X53.115 Y31.695 Z0 F600
; --- FIX X Backlash ---
G0 X52.415 Y31.695 F410
G1 X51.683 Y31.923 Z0 F600
; --- FIX Y Backlash ---
G0 X51.683 Y31.423 F410
G1 X50.08 Y31.286 Z0 F600
; --- FIX Y Backlash ---
G0 X50.08 Y31.786 F410
G1 X48.89 Y31.923 Z0 F600
G1 X48.57 Y32.335 Z0 F600
; --- FIX X Backlash ---
G0 X49.27 Y32.335 F410
; --- FIX Y Backlash ---
G0 X49.27 Y31.835 F410
G1 X51.376 Y31.698 Z0 F600
; --- FIX Y Backlash ---
G0 X51.376 Y32.198 F410
G1 X52.978 Y32.427 Z0 F600
M9
M5
G1 Z10 F600
G1 Z10 F600

