;LightBurn 1.6.04
;Custom GCode device profile, absolute coords
;Bounds: X4.17 Y27.02 to X146.36 Y129.72
G00 G17 G40 G21 G54
G90
M3
G1 Z10 F500
;Cut @ 1500 mm/min, 90% power

M8
G0 Z3.5 F500
G0 X21.362 Y27.05 Z3.5
G1 Z0 F500
;Layer Blue
G1 Y29.617 Z0 S900 F800
G0 Z3.5 F500
G0 X47.028 Z3.5 F1500
G1 Z0 F500
; --- FIX Y Backlash ---
G0 X47.028 Y28.717 F1200
G1 Y26.15 Z0 F800
G0 Z3.5 F500
; --- FIX Y Backlash ---
G0 X47.028 Y27.05 F1200
G0 X52.689 Y31.01 Z3.5
G1 Z0 F500
; --- FIX Y Backlash ---
G0 X52.689 Y30.11 F1200
G1 X52.849 Y30.048 Z0 F800
G1 X52.995 Y30.037 Z0 F800
G1 X53.005 Z0 F800
; --- FIX Y Backlash ---
G0 X53.005 Y30.937 F1200
G1 X53.215 Y30.989 Z0 F800
G1 X53.414 Y31.126 Z0 F800
G1 X53.537 Y31.337 Z0 F800
G1 X53.59 Y31.566 Z0 F800
G1 X53.6 Y31.786 Z0 F800
G1 X53.571 Y31.985 Z0 F800
; --- FIX X Backlash ---
G0 X52.671 Y31.985 F1200
G1 X52.597 Y32.162 Z0 F800
G1 X52.491 Y32.298 Z0 F800
G1 X52.344 Y32.424 Z0 F800
G1 X52.188 Y32.478 Z0 F800
G1 X52.042 Y32.488 Z0 F800
G1 X51.872 Y32.458 Z0 F800
; --- FIX Y Backlash ---
G0 X51.872 Y31.558 F1200
G1 X51.716 Y31.461 Z0 F800
G1 X51.579 Y31.305 Z0 F800
G1 X51.506 Y31.159 Z0 F800
G1 X51.444 Y30.939 Z0 F800
G1 Y30.769 Z0 F800
G1 X51.465 Y30.573 Z0 F800
; --- FIX X Backlash ---
G0 X52.365 Y30.573 F1200
G1 X52.416 Y30.393 Z0 F800
G1 X52.543 Y30.226 Z0 F800
G1 X52.689 Y30.11 Z0 F800
G0 Z3.5 F500
; --- FIX Y Backlash ---
G0 X52.689 Y31.01 F1200
G0 X54.346 Y31.189 Z3.5
G1 Z0 F500
; --- FIX Y Backlash ---
G0 X54.346 Y30.289 F1200
G1 X54.515 Y30.173 Z0 F800
G1 X54.692 Y30.079 Z0 F800
G1 X54.851 Y30.048 Z0 F800
G1 X55.048 Y30.058 Z0 F800
; --- FIX Y Backlash ---
G0 X55.048 Y30.958 F1200
G1 X55.174 Y31.021 Z0 F800
G1 X55.344 Y31.178 Z0 F800
G1 X55.457 Y31.42 Z0 F800
G1 X55.49 Y31.649 Z0 F800
G1 Y31.922 Z0 F800
; --- FIX X Backlash ---
G0 X54.59 Y31.922 F1200
G1 X54.517 Y32.162 Z0 F800
G1 X54.371 Y32.371 Z0 F800
G1 X54.201 Y32.468 Z0 F800
G1 X53.981 Z0 F800
G1 X53.802 Y32.434 Z0 F800
; --- FIX Y Backlash ---
G0 X53.802 Y31.534 F1200
G1 X53.592 Y31.421 Z0 F800
G1 X53.416 Y31.242 Z0 F800
; --- FIX Y Backlash ---
G0 X53.416 Y32.142 F1200
G1 Y32.478 Z0 F800
; --- FIX Y Backlash ---
G0 X53.416 Y31.578 F1200
G1 Y29.325 Z0 F800
G0 Z3.5 F500
; --- FIX X Backlash ---
G0 X54.316 Y29.325 F1200
; --- FIX Y Backlash ---
G0 X54.316 Y30.225 F1200
G0 X56.086 Y31.756 Z3.5
G1 Z0 F500
G1 X57.24 Z0 F800
G1 Y31.942 Z0 F800
; --- FIX X Backlash ---
G0 X56.34 Y31.942 F1200
G1 X56.287 Y32.185 Z0 F800
G1 X56.13 Y32.371 Z0 F800
G1 X55.971 Y32.478 Z0 F800
G1 X55.751 Y32.488 Z0 F800
; --- FIX Y Backlash ---
G0 X55.751 Y31.588 F1200
G1 X55.532 Y31.524 Z0 F800
G1 X55.342 Y31.368 Z0 F800
G1 X55.269 Y31.212 Z0 F800
G1 X55.186 Y31.012 Z0 F800
G1 X55.165 Y30.803 Z0 F800
; --- FIX X Backlash ---
G0 X56.065 Y30.803 F1200
G1 X56.118 Y30.55 Z0 F800
G1 X56.212 Y30.32 Z0 F800
G1 X56.402 Y30.131 Z0 F800
G1 X56.578 Y30.048 Z0 F800
G1 X56.798 Y30.027 Z0 F800
; --- FIX Y Backlash ---
G0 X56.798 Y30.927 F1200
G1 X56.987 Y30.979 Z0 F800
G1 X57.167 Y31.073 Z0 F800
G0 Z3.5 F500
; --- FIX Y Backlash ---
G0 X57.167 Y30.173 F1200
G0 X57.889 Y30.027 Z3.5
G1 Z0 F500
; --- FIX Y Backlash ---
G0 X57.889 Y30.927 F1200
G1 Y32.478 Z0 F800
; --- FIX Y Backlash ---
G0 X57.889 Y31.578 F1200
G1 Y31.202 Z0 F800
; --- FIX Y Backlash ---
G0 X57.889 Y32.102 F1200
G1 X58.035 Y32.248 Z0 F800
G1 X58.172 Y32.371 Z0 F800
G1 X58.278 Y32.434 Z0 F800
G1 X58.434 Y32.478 Z0 F800
G1 X58.538 Y32.488 Z0 F800
G1 X58.697 Y32.444 Z0 F800
; --- FIX Y Backlash ---
G0 X58.697 Y31.544 F1200
G1 X58.79 Y31.485 Z0 F800
G1 X58.864 Y31.378 Z0 F800
G1 X58.927 Y31.232 Z0 F800
G1 Y30.027 Z0 F800
G0 Z3.5 F500
; --- FIX Y Backlash ---
G0 X58.927 Y30.927 F1200
G0 X59.755 Y32.185 Z3.5
G1 Z0 F500
G1 X59.965 Y32.351 Z0 F800
G1 X60.164 Y32.458 Z0 F800
G1 X60.364 Y32.498 Z0 F800
G1 X60.554 Y32.458 Z0 F800
; --- FIX Y Backlash ---
G0 X60.554 Y31.558 F1200
G1 X60.69 Y31.485 Z0 F800
G1 X60.846 Y31.285 Z0 F800
G1 X60.896 Y31.042 Z0 F800
G1 X60.91 Y30.783 Z0 F800
G1 X60.866 Y30.52 Z0 F800
; --- FIX X Backlash ---
G0 X59.966 Y30.52 F1200
G1 X59.863 Y30.31 Z0 F800
G1 X59.727 Y30.163 Z0 F800
G1 X59.504 Y30.037 Z0 F800
G1 X59.318 Y30.048 Z0 F800
; --- FIX Y Backlash ---
G0 X59.318 Y30.948 F1200
G1 X59.128 Y31 Z0 F800
G1 X58.952 Y31.115 Z0 F800
G1 X58.835 Y31.21 Z0 F800
; --- FIX Y Backlash ---
G0 X58.835 Y30.31 F1200
G1 Y30.027 Z0 F800
; --- FIX Y Backlash ---
G0 X58.835 Y30.927 F1200
G1 Y33.263 Z0 F800
G0 Z3.5 F500
G0 X58.795 Y33.851 Z3.5
G1 Z0 F500
; --- FIX X Backlash ---
G0 X59.695 Y33.851 F1200
G1 X59.818 Y33.882 Z0 F800
G1 X59.935 Y33.962 Z0 F800
G1 X60.007 Y34.086 Z0 F800
G1 X60.039 Y34.221 Z0 F800
G1 X60.044 Y34.349 Z0 F800
G1 X60.027 Y34.467 Z0 F800
G1 X59.984 Y34.57 Z0 F800
; --- FIX X Backlash ---
G0 X59.084 Y34.57 F1200
G1 X59.021 Y34.65 Z0 F800
G1 X58.935 Y34.724 Z0 F800
G1 X58.844 Y34.756 Z0 F800
G1 X58.758 Y34.762 Z0 F800
G1 X58.658 Y34.744 Z0 F800
; --- FIX Y Backlash ---
G0 X58.658 Y33.844 F1200
G1 X58.566 Y33.787 Z0 F800
G1 X58.486 Y33.696 Z0 F800
G1 X58.443 Y33.61 Z0 F800
G1 X58.407 Y33.481 Z0 F800
G1 Y33.381 Z0 F800
G1 X58.419 Y33.266 Z0 F800
G1 X58.449 Y33.16 Z0 F800
; --- FIX X Backlash ---
G0 X59.349 Y33.16 F1200
G1 X59.423 Y33.062 Z0 F800
G1 X59.509 Y32.994 Z0 F800
G1 X59.603 Y32.958 Z0 F800
G1 X59.689 Y32.951 Z0 F800
G1 X59.695 Z0 F800
G0 Z3.5 F500
G0 X60.476 Z3.5
G1 Z0 F500
; --- FIX Y Backlash ---
G0 X60.476 Y33.851 F1200
G1 Y34.756 Z0 F800
; --- FIX Y Backlash ---
G0 X60.476 Y33.856 F1200
G1 Y33.578 Z0 F800
; --- FIX Y Backlash ---
G0 X60.476 Y34.478 F1200
G1 X60.533 Y34.59 Z0 F800
G1 X60.619 Y34.701 Z0 F800
G1 X60.71 Y34.744 Z0 F800
G1 X60.796 Y34.756 Z0 F800
G1 X60.851 Y34.75 Z0 F800
G0 Z3.5 F500
; --- FIX Y Backlash ---
G0 X60.851 Y33.85 F1200
G0 X61.128 Y32.945 Z3.5
G1 Z0 F500
; --- FIX Y Backlash ---
G0 X61.128 Y33.845 F1200
G1 Y34.75 Z0 F800
; --- FIX Y Backlash ---
G0 X61.128 Y33.85 F1200
G1 Y33.647 Z0 F800
; --- FIX Y Backlash ---
G0 X61.128 Y34.547 F1200
G1 X61.214 Y34.621 Z0 F800
G1 X61.294 Y34.687 Z0 F800
G1 X61.368 Y34.736 Z0 F800
G1 X61.46 Y34.762 Z0 F800
G1 X61.54 Y34.75 Z0 F800
G1 X61.595 Y34.724 Z0 F800
; --- FIX Y Backlash ---
G0 X61.595 Y33.824 F1200
G1 X61.657 Y33.764 Z0 F800
G1 X61.7 Y33.658 Z0 F800
G1 X61.712 Y33.53 Z0 F800
G1 Y32.945 Z0 F800
; --- FIX Y Backlash ---
G0 X61.712 Y33.845 F1200
G1 Y34.527 Z0 F800
G1 X61.738 Y34.578 Z0 F800
G1 X61.866 Y34.693 Z0 F800
G1 X61.964 Y34.744 Z0 F800
G1 X62.044 Y34.767 Z0 F800
G1 X62.13 Y34.744 Z0 F800
G1 X62.187 Y34.713 Z0 F800
; --- FIX Y Backlash ---
G0 X62.187 Y33.813 F1200
G1 X62.253 Y33.733 Z0 F800
G1 X62.284 Y33.572 Z0 F800
G1 Y32.951 Z0 F800
G0 Z3.5 F500
; --- FIX Y Backlash ---
G0 X62.284 Y33.851 F1200
G0 X62.747 Y34.65 Z3.5
G1 Z0 F500
G1 X62.876 Y34.724 Z0 F800
G1 X62.985 Y34.756 Z0 F800
G1 X63.097 Y34.767 Z0 F800
G1 X63.183 Y34.736 Z0 F800
; --- FIX Y Backlash ---
G0 X63.183 Y33.836 F1200
G1 X63.257 Y33.77 Z0 F800
G1 X63.306 Y33.67 Z0 F800
G1 X63.312 Y33.535 Z0 F800
G1 Y32.958 Z0 F800
; --- FIX Y Backlash ---
G0 X63.312 Y33.858 F1200
G1 X63.306 Y34.023 Z0 F800
; --- FIX X Backlash ---
G0 X62.406 Y34.023 F1200
; --- FIX Y Backlash ---
G0 X62.406 Y33.123 F1200
G1 X62.326 Y33.068 Z0 F800
G1 X62.24 Y33.007 Z0 F800
G1 X62.142 Y32.964 Z0 F800
G1 X62.031 Y32.945 Z0 F800
G1 X61.939 Y32.976 Z0 F800
G1 X61.865 Y33.025 Z0 F800
; --- FIX Y Backlash ---
G0 X61.865 Y33.925 F1200
G1 X61.809 Y34.005 Z0 F800
G1 Y34.123 Z0 F800
G1 X61.853 Y34.215 Z0 F800
; --- FIX X Backlash ---
G0 X62.753 Y34.215 F1200
G1 X62.851 Y34.295 Z0 F800
G1 X62.948 Y34.332 Z0 F800
G1 X63.065 Y34.369 Z0 F800
G1 X63.177 Y34.387 Z0 F800
G1 X63.245 Y34.392 Z0 F800
G1 X63.3 Z0 F800
G0 Z3.5 F500
G0 X63.806 Y35.008 Z3.5
G1 Z0 F500
; --- FIX Y Backlash ---
G0 X63.806 Y34.108 F1200
G1 Y33.83 Z0 F800
G1 X64.1 Z0 F800
; --- FIX X Backlash ---
G0 X63.2 Y33.83 F1200
G1 X62.726 Z0 F800
; --- FIX X Backlash ---
G0 X63.626 Y33.83 F1200
G1 X63.806 Z0 F800
G1 Y33.198 Z0 F800
G1 X63.817 Y33.062 Z0 F800
G1 X63.886 Y32.982 Z0 F800
G1 X63.964 Y32.958 Z0 F800
G1 X64.052 Z0 F800
G1 X64.118 Y32.988 Z0 F800
G0 Z3.5 F500
G0 X64.432 Y32.945 Z3.5
G1 Z0 F500
; --- FIX Y Backlash ---
G0 X64.432 Y33.845 F1200
G1 Y34.75 Z0 F800
G0 Z3.5 F500
G0 X64.475 Y35.027 Z3.5
G1 Z0 F500
G1 Y35.125 Z0 F800
; --- FIX X Backlash ---
G0 X63.575 Y35.125 F1200
G1 X63.477 Z0 F800
; --- FIX Y Backlash ---
G0 X63.477 Y34.225 F1200
G1 Y34.127 Z0 F800
; --- FIX X Backlash ---
G0 X64.377 Y34.127 F1200
G1 X64.475 Z0 F800
G0 Z3.5 F500
G0 X65.016 Y33.787 Z3.5
G1 Z0 F500
; --- FIX X Backlash ---
G0 X64.116 Y33.787 F1200
G1 X64.036 Y33.696 Z0 F800
G1 X63.993 Y33.61 Z0 F800
G1 X63.957 Y33.481 Z0 F800
G1 Y33.381 Z0 F800
G1 X63.969 Y33.266 Z0 F800
G1 X63.999 Y33.16 Z0 F800
; --- FIX X Backlash ---
G0 X64.899 Y33.16 F1200
G1 X64.973 Y33.062 Z0 F800
G1 X65.059 Y32.994 Z0 F800
G1 X65.153 Y32.958 Z0 F800
G1 X65.239 Y32.951 Z0 F800
G1 X65.245 Z0 F800
G1 X65.368 Y32.982 Z0 F800
; --- FIX Y Backlash ---
G0 X65.368 Y33.882 F1200
G1 X65.485 Y33.962 Z0 F800
G1 X65.557 Y34.086 Z0 F800
G1 X65.588 Y34.221 Z0 F800
G1 X65.594 Y34.349 Z0 F800
G1 X65.577 Y34.467 Z0 F800
G1 X65.534 Y34.57 Z0 F800
; --- FIX X Backlash ---
G0 X64.634 Y34.57 F1200
G1 X64.571 Y34.65 Z0 F800
G1 X64.485 Y34.724 Z0 F800
G1 X64.394 Y34.756 Z0 F800
G1 X64.308 Y34.762 Z0 F800
G1 X64.208 Y34.744 Z0 F800
; --- FIX Y Backlash ---
G0 X64.208 Y33.844 F1200
G1 X64.116 Y33.787 Z0 F800
G0 Z3.5 F500
; --- FIX X Backlash ---
G0 X65.016 Y33.787 F1200
G0 X66.02 Y32.945 Z3.5
G1 Z0 F500
; --- FIX Y Backlash ---
G0 X66.02 Y33.845 F1200
G1 Y34.756 Z0 F800
; --- FIX Y Backlash ---
G0 X66.02 Y33.856 F1200
G1 Y33.635 Z0 F800
; --- FIX Y Backlash ---
G0 X66.02 Y34.535 F1200
G1 X66.106 Y34.621 Z0 F800
G1 X66.186 Y34.693 Z0 F800
G1 X66.249 Y34.73 Z0 F800
G1 X66.34 Y34.756 Z0 F800
G1 X66.401 Y34.762 Z0 F800
G1 X66.495 Y34.736 Z0 F800
G1 X66.549 Y34.701 Z0 F800
; --- FIX Y Backlash ---
G0 X66.549 Y33.801 F1200
G1 X66.592 Y33.738 Z0 F800
G1 X66.629 Y33.653 Z0 F800
G1 Y32.945 Z0 F800
G0 Z3.5 F500
G0 X68.175 Y31.558 Z3.5
G1 Z0 F500
; --- FIX X Backlash ---
G0 X67.275 Y31.558 F1200
G1 X67.119 Y31.461 Z0 F800
G1 X66.983 Y31.305 Z0 F800
G1 X66.909 Y31.159 Z0 F800
G1 X66.848 Y30.939 Z0 F800
G1 Y30.769 Z0 F800
G1 X66.868 Y30.573 Z0 F800
; --- FIX X Backlash ---
G0 X67.768 Y30.573 F1200
G1 X67.819 Y30.393 Z0 F800
G1 X67.946 Y30.226 Z0 F800
G1 X68.092 Y30.11 Z0 F800
G1 X68.252 Y30.048 Z0 F800
G1 X68.398 Y30.037 Z0 F800
G1 X68.408 Z0 F800
; --- FIX Y Backlash ---
G0 X68.408 Y30.937 F1200
G1 X68.618 Y30.989 Z0 F800
G1 X68.818 Y31.126 Z0 F800
G1 X68.941 Y31.337 Z0 F800
G1 X68.994 Y31.566 Z0 F800
G1 X69.004 Y31.786 Z0 F800
G1 X68.974 Y31.985 Z0 F800
; --- FIX X Backlash ---
G0 X68.074 Y31.985 F1200
G1 X68.001 Y32.162 Z0 F800
G1 X67.894 Y32.298 Z0 F800
G1 X67.748 Y32.424 Z0 F800
G1 X67.592 Y32.478 Z0 F800
G1 X67.445 Y32.488 Z0 F800
G1 X67.275 Y32.458 Z0 F800
G0 Z3.5 F500
; --- FIX X Backlash ---
G0 X68.175 Y32.458 F1200
; --- FIX Y Backlash ---
G0 X68.175 Y31.558 F1200
G0 X69.895 Y30.666 Z3.5
G1 Z0 F500
; --- FIX X Backlash ---
G0 X68.995 Y30.666 F1200
; --- FIX Y Backlash ---
G0 X68.995 Y31.566 F1200
G1 X68.902 Y31.649 Z0 F800
G1 X68.819 Y31.756 Z0 F800
G1 X68.776 Y31.922 Z0 F800
G1 X68.786 Y32.132 Z0 F800
; --- FIX X Backlash ---
G0 X69.686 Y32.132 F1200
G1 X69.782 Y32.321 Z0 F800
G1 X69.949 Y32.458 Z0 F800
G1 X70.192 Y32.478 Z0 F800
G1 X70.348 Y32.444 Z0 F800
G1 X70.85 Z0 F800
; --- FIX X Backlash ---
G0 X69.95 Y32.444 F1200
G1 X69.448 Z0 F800
; --- FIX X Backlash ---
G0 X70.348 Y32.444 F1200
; --- FIX Y Backlash ---
G0 X70.348 Y31.544 F1200
G1 X70.494 Y31.451 Z0 F800
G1 X70.557 Y31.368 Z0 F800
G1 X70.641 Y31.178 Z0 F800
G1 Y30.969 Z0 F800
; --- FIX X Backlash ---
G0 X69.741 Y30.969 F1200
G1 X69.667 Y30.793 Z0 F800
G1 X69.511 Y30.646 Z0 F800
G1 X69.292 Y30.573 Z0 F800
G1 X69.112 Y30.603 Z0 F800
; --- FIX Y Backlash ---
G0 X69.112 Y31.503 F1200
G1 X68.995 Y31.576 Z0 F800
; --- FIX Y Backlash ---
G0 X68.995 Y30.676 F1200
G1 X68.819 Y30.477 Z0 F800
G1 X68.786 Y30.34 Z0 F800
; --- FIX X Backlash ---
G0 X69.686 Y30.34 F1200
G1 X69.749 Y30.194 Z0 F800
G1 X69.885 Y30.1 Z0 F800
G1 X70.524 Z0 F800
G1 X70.757 Y30.037 Z0 F800
G1 X70.85 Y29.869 Z0 F800
G1 X70.86 Y29.691 Z0 F800
; --- FIX X Backlash ---
G0 X69.96 Y29.691 F1200
G1 X69.867 Y29.535 Z0 F800
G1 X69.614 Y29.365 Z0 F800
G1 X69.365 Y29.302 Z0 F800
G1 X69.082 Y29.335 Z0 F800
; --- FIX Y Backlash ---
G0 X69.082 Y30.235 F1200
G1 X68.839 Y30.339 Z0 F800
G1 X68.693 Y30.498 Z0 F800
G1 X68.714 Y30.686 Z0 F800
; --- FIX X Backlash ---
G0 X69.614 Y30.686 F1200
G1 X69.719 Y30.864 Z0 F800
G1 X69.875 Y31.01 Z0 F800
G0 Z3.5 F500
; --- FIX Y Backlash ---
G0 X69.875 Y30.11 F1200
G0 X71.436 Y30.037 Z3.5
G1 Z0 F500
; --- FIX Y Backlash ---
G0 X71.436 Y30.937 F1200
G1 Y32.478 Z0 F800
; --- FIX Y Backlash ---
G0 X71.436 Y31.578 F1200
G1 Y31.105 Z0 F800
; --- FIX Y Backlash ---
G0 X71.436 Y32.005 F1200
G1 X71.532 Y32.195 Z0 F800
G1 X71.679 Y32.385 Z0 F800
G1 X71.835 Y32.458 Z0 F800
G1 X71.981 Y32.478 Z0 F800
G1 X72.075 Y32.468 Z0 F800
G0 Z3.5 F500
; --- FIX Y Backlash ---
G0 X72.075 Y31.568 F1200
G0 X72.527 Y31.398 Z3.5
G1 Z0 F500
; --- FIX Y Backlash ---
G0 X72.527 Y32.298 F1200
G1 X72.747 Y32.424 Z0 F800
G1 X72.933 Y32.478 Z0 F800
G1 X73.122 Y32.498 Z0 F800
; --- FIX Y Backlash ---
G0 X73.122 Y31.598 F1200
G1 X73.269 Y31.544 Z0 F800
G1 X73.395 Y31.431 Z0 F800
G1 X73.478 Y31.262 Z0 F800
G1 X73.488 Y31.032 Z0 F800
G1 Y30.048 Z0 F800
; --- FIX Y Backlash ---
G0 X73.488 Y30.948 F1200
G1 X73.478 Y31.23 Z0 F800
; --- FIX X Backlash ---
G0 X72.578 Y31.23 F1200
; --- FIX Y Backlash ---
G0 X72.578 Y30.33 F1200
G1 X72.442 Y30.236 Z0 F800
G1 X72.296 Y30.131 Z0 F800
G1 X72.129 Y30.058 Z0 F800
G1 X71.94 Y30.027 Z0 F800
; --- FIX Y Backlash ---
G0 X71.94 Y30.927 F1200
G1 X71.783 Y30.979 Z0 F800
G1 X71.657 Y31.063 Z0 F800
G1 X71.562 Y31.199 Z0 F800
G1 Y31.4 Z0 F800
; --- FIX X Backlash ---
G0 X72.462 Y31.4 F1200
G1 X72.537 Y31.556 Z0 F800
G1 X72.703 Y31.693 Z0 F800
G1 X72.87 Y31.756 Z0 F800
G1 X73.069 Y31.819 Z0 F800
G1 X73.259 Y31.849 Z0 F800
G1 X73.375 Y31.859 Z0 F800
G1 X73.468 Z0 F800
G0 Z3.5 F500
; --- FIX Y Backlash ---
G0 X73.468 Y30.959 F1200
G0 X74.307 Y30.289 Z3.5
G1 Z0 F500
G1 X74.477 Y30.173 Z0 F800
G1 X74.653 Y30.079 Z0 F800
G1 X74.813 Y30.048 Z0 F800
G1 X75.009 Y30.058 Z0 F800
; --- FIX Y Backlash ---
G0 X75.009 Y30.958 F1200
G1 X75.135 Y31.021 Z0 F800
G1 X75.305 Y31.178 Z0 F800
G1 X75.418 Y31.42 Z0 F800
G1 X75.451 Y31.649 Z0 F800
G1 Y31.922 Z0 F800
; --- FIX X Backlash ---
G0 X74.551 Y31.922 F1200
G1 X74.478 Y32.162 Z0 F800
G1 X74.332 Y32.371 Z0 F800
G1 X74.162 Y32.468 Z0 F800
G1 X73.942 Z0 F800
G1 X73.763 Y32.434 Z0 F800
; --- FIX Y Backlash ---
G0 X73.763 Y31.534 F1200
G1 X73.553 Y31.421 Z0 F800
G1 X73.377 Y31.242 Z0 F800
; --- FIX Y Backlash ---
G0 X73.377 Y32.142 F1200
G1 Y32.478 Z0 F800
; --- FIX Y Backlash ---
G0 X73.377 Y31.578 F1200
G1 Y29.325 Z0 F800
G0 Z3.5 F500
G0 X71.795 Y28.599 Z3.5
G1 Z0 F500
G1 Y26.116 Z0 F800
G0 Z3.5 F500
; --- FIX X Backlash ---
G0 X72.695 Y26.116 F1200
; --- FIX Y Backlash ---
G0 X72.695 Y27.016 F1200
G0 X76.173 Y30.948 Z3.5
G1 Z0 F500
G1 Y33.253 Z0 F800
; --- FIX Y Backlash ---
G0 X76.173 Y32.353 F1200
G1 Y31.188 Z0 F800
; --- FIX Y Backlash ---
G0 X76.173 Y32.088 F1200
G1 X76.33 Y32.258 Z0 F800
G1 X76.466 Y32.385 Z0 F800
G1 X76.666 Y32.468 Z0 F800
G1 X76.865 Y32.488 Z0 F800
; --- FIX Y Backlash ---
G0 X76.865 Y31.588 F1200
G1 X77.095 Y31.461 Z0 F800
G1 X77.178 Y31.315 Z0 F800
G1 X77.221 Y31.075 Z0 F800
G1 Y30.037 Z0 F800
G0 Z3.5 F500
G0 X77.922 Y30.048 Z3.5
G1 Z0 F500
G1 X78.089 Z0 F800
; --- FIX Y Backlash ---
G0 X78.089 Y30.948 F1200
G1 Y31.115 Z0 F800
; --- FIX X Backlash ---
G0 X77.189 Y31.115 F1200
G1 X77.022 Z0 F800
; --- FIX Y Backlash ---
G0 X77.022 Y30.215 F1200
G1 Y30.048 Z0 F800
G0 Z3.5 F500
; --- FIX X Backlash ---
G0 X77.922 Y30.048 F1200
; --- FIX Y Backlash ---
G0 X77.922 Y30.948 F1200
G0 X78.991 Y31.01 Z3.5
G1 Z0 F500
; --- FIX X Backlash ---
G0 X78.091 Y31.01 F1200
; --- FIX Y Backlash ---
G0 X78.091 Y30.11 F1200
G1 X77.935 Y29.964 Z0 F800
G1 X77.83 Y29.786 Z0 F800
G1 X77.808 Y29.598 Z0 F800
; --- FIX X Backlash ---
G0 X78.708 Y29.598 F1200
G1 X78.855 Y29.439 Z0 F800
G1 X79.098 Y29.335 Z0 F800
G1 X79.38 Y29.302 Z0 F800
; --- FIX Y Backlash ---
G0 X79.38 Y30.202 F1200
G1 X79.63 Y30.265 Z0 F800
G1 X79.883 Y30.435 Z0 F800
G1 X79.976 Y30.591 Z0 F800
G1 X79.966 Y30.769 Z0 F800
; --- FIX X Backlash ---
G0 X79.066 Y30.769 F1200
G1 X78.973 Y30.937 Z0 F800
G1 X78.74 Y31 Z0 F800
G1 X78.101 Z0 F800
G1 X77.965 Y31.094 Z0 F800
G1 X77.901 Y31.24 Z0 F800
G1 X77.935 Y31.377 Z0 F800
; --- FIX X Backlash ---
G0 X78.835 Y31.377 F1200
G1 X79.011 Y31.576 Z0 F800
; --- FIX Y Backlash ---
G0 X79.011 Y30.676 F1200
G1 X79.127 Y30.603 Z0 F800
G1 X79.307 Y30.573 Z0 F800
; --- FIX Y Backlash ---
G0 X79.307 Y31.473 F1200
G1 X79.527 Y31.546 Z0 F800
G1 X79.683 Y31.693 Z0 F800
G1 X79.756 Y31.869 Z0 F800
G1 Y32.078 Z0 F800
; --- FIX X Backlash ---
G0 X78.856 Y32.078 F1200
G1 X78.773 Y32.268 Z0 F800
G1 X78.71 Y32.351 Z0 F800
G1 X78.563 Y32.444 Z0 F800
; --- FIX X Backlash ---
G0 X79.463 Y32.444 F1200
G1 X79.966 Z0 F800
; --- FIX X Backlash ---
G0 X79.066 Y32.444 F1200
G1 X78.563 Z0 F800
G1 X78.407 Y32.478 Z0 F800
G1 X78.164 Y32.458 Z0 F800
; --- FIX Y Backlash ---
G0 X78.164 Y31.558 F1200
G1 X77.998 Y31.421 Z0 F800
G1 X77.901 Y31.232 Z0 F800
G1 X77.891 Y31.022 Z0 F800
G1 X77.935 Y30.856 Z0 F800
; --- FIX X Backlash ---
G0 X78.835 Y30.856 F1200
G1 X78.918 Y30.749 Z0 F800
G1 X79.011 Y30.666 Z0 F800
G0 Z3.5 F500
G0 X80.541 Y30.027 Z3.5
G1 Z0 F500
; --- FIX Y Backlash ---
G0 X80.541 Y30.927 F1200
G1 Y32.468 Z0 F800
G0 Z3.5 F500
G0 X80.615 Y32.94 Z3.5
G1 Z0 F500
G1 Y33.106 Z0 F800
; --- FIX X Backlash ---
G0 X79.715 Y33.106 F1200
G1 X79.547 Z0 F800
; --- FIX Y Backlash ---
G0 X79.547 Y32.206 F1200
G1 Y32.04 Z0 F800
; --- FIX X Backlash ---
G0 X80.447 Y32.04 F1200
G1 X80.615 Z0 F800
G0 Z3.5 F500
G0 X81.423 Y32.007 Z3.5
G1 Z0 F500
G1 Y31.534 Z0 F800
G1 X81.925 Z0 F800
; --- FIX X Backlash ---
G0 X81.025 Y31.534 F1200
G1 X80.218 Z0 F800
; --- FIX X Backlash ---
G0 X81.118 Y31.534 F1200
G1 X81.423 Z0 F800
G1 Y30.457 Z0 F800
G1 X81.443 Y30.226 Z0 F800
G1 X81.559 Y30.089 Z0 F800
G1 X81.692 Y30.048 Z0 F800
G1 X81.842 Z0 F800
; --- FIX Y Backlash ---
G0 X81.842 Y30.948 F1200
G1 X81.955 Y31 Z0 F800
G0 Z3.5 F500
; --- FIX Y Backlash ---
G0 X81.955 Y30.1 F1200
G0 X82.491 Y30.048 Z3.5
G1 Z0 F500
; --- FIX Y Backlash ---
G0 X82.491 Y30.948 F1200
G1 Y33.253 Z0 F800
; --- FIX Y Backlash ---
G0 X82.491 Y32.353 F1200
G1 Y31.188 Z0 F800
; --- FIX Y Backlash ---
G0 X82.491 Y32.088 F1200
G1 X82.647 Y32.258 Z0 F800
G1 X82.784 Y32.385 Z0 F800
G1 X82.983 Y32.468 Z0 F800
G1 X83.183 Y32.488 Z0 F800
; --- FIX Y Backlash ---
G0 X83.183 Y31.588 F1200
G1 X83.412 Y31.461 Z0 F800
G1 X83.496 Y31.315 Z0 F800
G1 X83.539 Y31.075 Z0 F800
G1 Y30.037 Z0 F800
G0 Z3.5 F500
; --- FIX Y Backlash ---
G0 X83.539 Y30.937 F1200
G0 X84.314 Y32.458 Z3.5
G1 Z0 F500
; --- FIX Y Backlash ---
G0 X84.314 Y31.558 F1200
G1 Y30.583 Z0 F800
G1 X84.324 Y30.32 Z0 F800
G1 X84.397 Y30.184 Z0 F800
G1 X84.524 Y30.079 Z0 F800
G1 X84.71 Y30.027 Z0 F800
G1 X84.89 Y30.058 Z0 F800
; --- FIX Y Backlash ---
G0 X84.89 Y30.958 F1200
G1 X85.079 Y31.063 Z0 F800
G1 X85.216 Y31.199 Z0 F800
G1 X85.329 Y31.337 Z0 F800
; --- FIX Y Backlash ---
G0 X85.329 Y30.437 F1200
G1 Y30.037 Z0 F800
; --- FIX Y Backlash ---
G0 X85.329 Y30.937 F1200
G1 Y32.458 Z0 F800
G0 Z3.5 F500
; --- FIX Y Backlash ---
G0 X85.329 Y31.558 F1200
G0 X86.187 Y31.285 Z3.5
G1 Z0 F500
; --- FIX Y Backlash ---
G0 X86.187 Y32.185 F1200
G1 X86.397 Y32.351 Z0 F800
G1 X86.596 Y32.458 Z0 F800
G1 X86.796 Y32.498 Z0 F800
G1 X86.986 Y32.458 Z0 F800
; --- FIX Y Backlash ---
G0 X86.986 Y31.558 F1200
G1 X87.122 Y31.485 Z0 F800
G1 X87.278 Y31.285 Z0 F800
G1 X87.328 Y31.042 Z0 F800
G1 X87.341 Y30.783 Z0 F800
G1 X87.298 Y30.52 Z0 F800
; --- FIX X Backlash ---
G0 X86.398 Y30.52 F1200
G1 X86.295 Y30.31 Z0 F800
G1 X86.159 Y30.163 Z0 F800
G1 X85.936 Y30.037 Z0 F800
G1 X85.75 Y30.048 Z0 F800
; --- FIX Y Backlash ---
G0 X85.75 Y30.948 F1200
G1 X85.56 Y31 Z0 F800
G1 X85.384 Y31.115 Z0 F800
G1 X85.267 Y31.21 Z0 F800
; --- FIX Y Backlash ---
G0 X85.267 Y30.31 F1200
G1 Y30.027 Z0 F800
; --- FIX Y Backlash ---
G0 X85.267 Y30.927 F1200
G1 Y33.263 Z0 F800
G0 Z3.5 F500
; --- FIX X Backlash ---
G0 X86.167 Y33.263 F1200
; --- FIX Y Backlash ---
G0 X86.167 Y32.363 F1200
G0 X88.787 Y32.206 Z3.5
G1 Z0 F500
G1 Y32.04 Z0 F800
G1 X88.955 Z0 F800
; --- FIX Y Backlash ---
G0 X88.955 Y32.94 F1200
G1 Y33.106 Z0 F800
; --- FIX X Backlash ---
G0 X88.055 Y33.106 F1200
G1 X87.887 Z0 F800
G0 Z3.5 F500
; --- FIX X Backlash ---
G0 X88.787 Y33.106 F1200
; --- FIX Y Backlash ---
G0 X88.787 Y32.206 F1200
G0 X88.882 Y31.568 Z3.5
G1 Z0 F500
G1 Y30.027 Z0 F800
G0 Z3.5 F500
; --- FIX X Backlash ---
G0 X87.982 Y30.027 F1200
G0 X87.227 Y30.048 Z3.5
G1 Z0 F500
; --- FIX Y Backlash ---
G0 X87.227 Y30.948 F1200
G1 Y31.115 Z0 F800
G1 X87.059 Z0 F800
; --- FIX Y Backlash ---
G0 X87.059 Y30.215 F1200
G1 Y30.048 Z0 F800
; --- FIX X Backlash ---
G0 X87.959 Y30.048 F1200
G1 X88.127 Z0 F800
G0 Z3.5 F500
; --- FIX Y Backlash ---
G0 X88.127 Y30.948 F1200
G0 X89.677 Y31.293 Z3.5
G1 Z0 F500
; --- FIX Y Backlash ---
G0 X89.677 Y30.393 F1200
G1 X89.803 Y30.226 Z0 F800
G1 X89.95 Y30.11 Z0 F800
G1 X90.109 Y30.048 Z0 F800
G1 X90.256 Y30.037 Z0 F800
G1 X90.266 Z0 F800
; --- FIX Y Backlash ---
G0 X90.266 Y30.937 F1200
G1 X90.475 Y30.989 Z0 F800
G1 X90.675 Y31.126 Z0 F800
G1 X90.798 Y31.337 Z0 F800
G1 X90.851 Y31.566 Z0 F800
G1 X90.861 Y31.786 Z0 F800
G1 X90.831 Y31.985 Z0 F800
; --- FIX X Backlash ---
G0 X89.931 Y31.985 F1200
G1 X89.858 Y32.162 Z0 F800
G1 X89.752 Y32.298 Z0 F800
G1 X89.605 Y32.424 Z0 F800
G1 X89.449 Y32.478 Z0 F800
G1 X89.303 Y32.488 Z0 F800
G1 X89.133 Y32.458 Z0 F800
; --- FIX Y Backlash ---
G0 X89.133 Y31.558 F1200
G1 X88.977 Y31.461 Z0 F800
G1 X88.84 Y31.305 Z0 F800
G1 X88.767 Y31.159 Z0 F800
G1 X88.705 Y30.939 Z0 F800
G1 Y30.769 Z0 F800
G1 X88.726 Y30.573 Z0 F800
; --- FIX X Backlash ---
G0 X89.626 Y30.573 F1200
G1 X89.677 Y30.393 Z0 F800
G0 Z3.5 F500
G0 X94.477 Y30.146 Z3.5
G1 Z0 F500
; --- FIX X Backlash ---
G0 X93.577 Y30.146 F1200
G1 X93.41 Y30.018 Z0 F800
G1 X93.185 Y29.939 Z0 F800
G1 X92.962 Y29.97 Z0 F800
; --- FIX Y Backlash ---
G0 X92.962 Y30.87 F1200
G1 X92.755 Y30.982 Z0 F800
G1 X92.596 Y31.173 Z0 F800
G1 X92.517 Y31.373 Z0 F800
G1 X92.493 Y31.674 Z0 F800
G1 X92.517 Y31.955 Z0 F800
; --- FIX X Backlash ---
G0 X93.417 Y31.955 F1200
G1 X93.521 Y32.185 Z0 F800
G1 X93.68 Y32.36 Z0 F800
G1 X93.862 Y32.449 Z0 F800
G1 X94.07 Y32.464 Z0 F800
G1 X94.255 Y32.426 Z0 F800
; --- FIX Y Backlash ---
G0 X94.255 Y31.526 F1200
G1 X94.381 Y31.445 Z0 F800
G1 X94.422 Y31.397 Z0 F800
G0 Z3.5 F500
; --- FIX Y Backlash ---
G0 X94.422 Y32.297 F1200
G0 X95.801 Y32.426 Z3.5
G1 Z0 F500
; --- FIX X Backlash ---
G0 X94.901 Y32.426 F1200
G1 X94.086 Z0 F800
; --- FIX Y Backlash ---
G0 X94.086 Y31.526 F1200
G1 Y30.8 Z0 F800
; --- FIX X Backlash ---
G0 X94.986 Y30.8 F1200
G1 X95.69 Z0 F800
; --- FIX X Backlash ---
G0 X94.79 Y30.8 F1200
G1 X94.086 Z0 F800
G1 Y29.978 Z0 F800
; --- FIX X Backlash ---
G0 X94.986 Y29.978 F1200
G1 X95.832 Z0 F800
G0 Z3.5 F500
G0 X96.343 Y29.946 Z3.5
G1 Z0 F500
; --- FIX Y Backlash ---
G0 X96.343 Y30.846 F1200
G1 Y32.441 Z0 F800
G1 X96.877 Z0 F800
G1 X97.006 Y32.401 Z0 F800
; --- FIX Y Backlash ---
G0 X97.006 Y31.501 F1200
G1 X97.148 Y31.43 Z0 F800
G1 X97.251 Y31.27 Z0 F800
G1 Y31.134 Z0 F800
G1 X97.229 Y30.982 Z0 F800
; --- FIX X Backlash ---
G0 X96.329 Y30.982 F1200
G1 X96.232 Y30.848 Z0 F800
G1 X96.113 Y30.774 Z0 F800
G1 X95.921 Y30.729 Z0 F800
G1 X95.45 Z0 F800
; --- FIX X Backlash ---
G0 X96.35 Y30.729 F1200
G1 X96.806 Z0 F800
G1 X97.269 Y29.946 Z0 F800
G0 Z3.5 F500
G0 X97.803 Y29.954 Z3.5
G1 Z0 F500
; --- FIX Y Backlash ---
G0 X97.803 Y30.854 F1200
G1 Y32.441 Z0 F800
G1 X97.859 Z0 F800
; --- FIX Y Backlash ---
G0 X97.859 Y31.541 F1200
G1 X98.808 Y29.954 Z0 F800
; --- FIX Y Backlash ---
G0 X98.808 Y30.854 F1200
G1 Y32.449 Z0 F800
G0 Z3.5 F500
; --- FIX Y Backlash ---
G0 X98.808 Y31.549 F1200
G0 X99.285 Y30.559 Z3.5
G1 Z0 F500
G1 X99.802 Z0 F800
G0 Z3.5 F500
; --- FIX Y Backlash ---
G0 X99.802 Y31.459 F1200
G0 X100.203 Y31.563 Z3.5
G1 Z0 F500
; --- FIX Y Backlash ---
G0 X100.203 Y30.663 F1200
G1 X100.235 Y30.455 Z0 F800
G1 X100.314 Y30.265 Z0 F800
G1 X100.428 Y30.114 Z0 F800
G1 X100.554 Y30.01 Z0 F800
G1 X100.691 Y29.962 Z0 F800
G1 X100.817 Y29.954 Z0 F800
G1 X101.025 Y29.986 Z0 F800
; --- FIX Y Backlash ---
G0 X101.025 Y30.886 F1200
G1 X101.232 Y31.022 Z0 F800
G1 X101.374 Y31.236 Z0 F800
G1 X101.448 Y31.517 Z0 F800
G1 Y31.778 Z0 F800
G1 X101.407 Y31.993 Z0 F800
; --- FIX X Backlash ---
G0 X100.507 Y31.993 F1200
G1 X100.429 Y32.17 Z0 F800
G1 X100.3 Y32.337 Z0 F800
G1 X100.125 Y32.441 Z0 F800
G1 X99.948 Y32.474 Z0 F800
G1 X99.798 Y32.449 Z0 F800
; --- FIX Y Backlash ---
G0 X99.798 Y31.549 F1200
G1 X99.629 Y31.485 Z0 F800
G1 X99.472 Y31.349 Z0 F800
G1 X99.35 Y31.118 Z0 F800
G1 X99.311 Y30.936 Z0 F800
G1 X99.303 Y30.663 Z0 F800
G0 Z3.5 F500
; --- FIX X Backlash ---
G0 X100.203 Y30.663 F1200
G0 X102.02 Y29.954 Z3.5
G1 Z0 F500
; --- FIX Y Backlash ---
G0 X102.02 Y30.854 F1200
G1 Y32.449 Z0 F800
; --- FIX Y Backlash ---
G0 X102.02 Y31.549 F1200
G1 Y30.807 Z0 F800
G1 X103.032 Z0 F800
; --- FIX Y Backlash ---
G0 X103.032 Y31.707 F1200
G1 Y32.441 Z0 F800
; --- FIX Y Backlash ---
G0 X103.032 Y31.541 F1200
G1 Y29.954 Z0 F800
G0 Z3.5 F500
G0 X104.507 Y29.978 Z3.5
G1 Z0 F500
; --- FIX X Backlash ---
G0 X103.607 Y29.978 F1200
G1 X102.81 Z0 F800
; --- FIX Y Backlash ---
G0 X102.81 Y30.878 F1200
G1 Y32.456 Z0 F800
G0 Z3.5 F500
; --- FIX X Backlash ---
G0 X103.71 Y32.456 F1200
; --- FIX Y Backlash ---
G0 X103.71 Y31.556 F1200
G0 X104.762 Y30.559 Z3.5
G1 Z0 F500
G1 X105.279 Z0 F800
G0 Z3.5 F500
; --- FIX Y Backlash ---
G0 X105.279 Y31.459 F1200
G0 X105.783 Y31.588 Z3.5
G1 Z0 F500
G1 X106.168 Z0 F800
G1 X106.357 Y31.596 Z0 F800
G1 X106.524 Y31.659 Z0 F800
G1 X106.643 Y31.755 Z0 F800
G1 X106.709 Y31.915 Z0 F800
G1 X106.717 Y32.059 Z0 F800
G1 X106.684 Y32.218 Z0 F800
; --- FIX X Backlash ---
G0 X105.784 Y32.218 F1200
G1 X105.705 Y32.322 Z0 F800
G1 X105.602 Y32.401 Z0 F800
G1 X105.457 Y32.441 Z0 F800
G1 X104.891 Z0 F800
; --- FIX Y Backlash ---
G0 X104.891 Y31.541 F1200
G1 Y29.939 Z0 F800
G0 Z3.5 F500
; --- FIX X Backlash ---
G0 X105.791 Y29.939 F1200
; --- FIX Y Backlash ---
G0 X105.791 Y30.839 F1200
G0 X107.06 Y31.459 Z3.5
G1 Z0 F500
G1 X107.577 Z0 F800
G0 Z3.5 F500
G0 X107.938 Y32.211 Z3.5
G1 Z0 F500
G1 X108.043 Y32.312 Z0 F800
G1 X108.17 Y32.393 Z0 F800
G1 X108.329 Y32.433 Z0 F800
G1 X108.466 Y32.408 Z0 F800
; --- FIX Y Backlash ---
G0 X108.466 Y31.508 F1200
G1 X108.607 Y31.437 Z0 F800
G1 X108.696 Y31.318 Z0 F800
G1 X108.736 Y31.141 Z0 F800
G1 X108.726 Y30.992 Z0 F800
; --- FIX X Backlash ---
G0 X107.826 Y30.992 F1200
G1 X107.748 Y30.807 Z0 F800
G1 X107.604 Y30.6 Z0 F800
G1 X107.429 Y30.384 Z0 F800
G1 X107.27 Y30.217 Z0 F800
G1 X107.054 Y29.978 Z0 F800
; --- FIX X Backlash ---
G0 X107.954 Y29.978 F1200
G1 X108.855 Z0 F800
G0 Z3.5 F500
G0 X109.269 Y29.954 Z3.5
G1 Z0 F500
G1 X109.397 Z0 F800
; --- FIX Y Backlash ---
G0 X109.397 Y30.854 F1200
G1 Y30.982 Z0 F800
; --- FIX X Backlash ---
G0 X108.497 Y30.982 F1200
G1 X108.369 Z0 F800
; --- FIX Y Backlash ---
G0 X108.369 Y30.082 F1200
G1 Y29.954 Z0 F800
G0 Z3.5 F500
; --- FIX X Backlash ---
G0 X109.269 Y29.954 F1200
; --- FIX Y Backlash ---
G0 X109.269 Y30.854 F1200
G0 X109.972 Y31.038 Z3.5
G1 Z0 F500
; --- FIX Y Backlash ---
G0 X109.972 Y30.138 F1200
G1 X110.068 Y30.034 Z0 F800
G1 X110.164 Y29.954 Z0 F800
G1 X110.275 Y29.946 Z0 F800
G1 X110.427 Y29.978 Z0 F800
; --- FIX Y Backlash ---
G0 X110.427 Y30.878 F1200
G1 X110.587 Y31.038 Z0 F800
G1 X110.657 Y31.206 Z0 F800
G1 X110.69 Y31.396 Z0 F800
G1 X110.705 Y31.659 Z0 F800
G1 X110.69 Y31.907 Z0 F800
; --- FIX X Backlash ---
G0 X109.79 Y31.907 F1200
G1 X109.732 Y32.145 Z0 F800
G1 X109.654 Y32.297 Z0 F800
G1 X109.527 Y32.393 Z0 F800
G1 X109.413 Y32.433 Z0 F800
G1 X109.32 Y32.426 Z0 F800
; --- FIX Y Backlash ---
G0 X109.32 Y31.526 F1200
G1 X109.168 Y31.437 Z0 F800
G1 X109.064 Y31.293 Z0 F800
G1 X108.992 Y31.063 Z0 F800
G1 X108.968 Y30.822 Z0 F800
G1 X108.96 Y30.584 Z0 F800
G1 X108.992 Y30.362 Z0 F800
; --- FIX X Backlash ---
G0 X109.892 Y30.362 F1200
G1 X109.972 Y30.138 Z0 F800
G0 Z3.5 F500
; --- FIX Y Backlash ---
G0 X109.972 Y31.038 F1200
G0 X113.13 Y32.28 Z3.5
G1 Z0 F500
G1 X113.24 Y32.387 Z0 F800
G1 X113.374 Y32.473 Z0 F800
G1 X113.543 Y32.516 Z0 F800
G1 X113.687 Y32.489 Z0 F800
; --- FIX Y Backlash ---
G0 X113.687 Y31.589 F1200
G1 X113.837 Y31.514 Z0 F800
G1 X113.931 Y31.388 Z0 F800
G1 X113.973 Y31.201 Z0 F800
G1 X113.963 Y31.043 Z0 F800
; --- FIX X Backlash ---
G0 X113.063 Y31.043 F1200
G1 X112.98 Y30.848 Z0 F800
G1 X112.827 Y30.629 Z0 F800
G1 X112.643 Y30.401 Z0 F800
G1 X112.474 Y30.225 Z0 F800
G1 X112.247 Y29.972 Z0 F800
; --- FIX X Backlash ---
G0 X113.147 Y29.972 F1200
G1 X114.099 Z0 F800
G0 Z3.5 F500
; --- FIX Y Backlash ---
G0 X114.099 Y30.872 F1200
G0 X114.436 Y31.058 Z3.5
G1 Z0 F500
; --- FIX Y Backlash ---
G0 X114.436 Y30.158 F1200
G1 X114.529 Y30.073 Z0 F800
G1 X114.68 Y29.989 Z0 F800
G1 X114.832 Y29.947 Z0 F800
G1 X114.993 Z0 F800
G1 X115.143 Y29.989 Z0 F800
; --- FIX Y Backlash ---
G0 X115.143 Y30.889 F1200
G1 X115.263 Y30.964 Z0 F800
G1 X115.346 Y31.082 Z0 F800
G1 X115.373 Y31.183 Z0 F800
G1 X115.381 Y31.309 Z0 F800
G1 X115.354 Y31.427 Z0 F800
; --- FIX X Backlash ---
G0 X114.454 Y31.427 F1200
G1 X114.387 Y31.529 Z0 F800
G1 X114.243 Y31.638 Z0 F800
G1 X114.109 Y31.689 Z0 F800
G1 X113.975 Y31.705 Z0 F800
G1 X113.847 Z0 F800
; --- FIX X Backlash ---
G0 X114.747 Y31.705 F1200
G1 X114.848 Z0 F800
G1 X114.985 Y31.732 Z0 F800
G1 X115.143 Y31.815 Z0 F800
G1 X115.287 Y31.925 Z0 F800
G1 X115.33 Y32.069 Z0 F800
G1 X115.303 Y32.229 Z0 F800
; --- FIX X Backlash ---
G0 X114.403 Y32.229 F1200
G1 X114.344 Y32.363 Z0 F800
G1 X114.218 Y32.465 Z0 F800
G1 X114.066 Y32.508 Z0 F800
G1 X113.924 Z0 F800
; --- FIX Y Backlash ---
G0 X113.924 Y31.608 F1200
G1 X113.748 Y31.53 Z0 F800
G1 X113.612 Y31.428 Z0 F800
G0 Z3.5 F500
; --- FIX Y Backlash ---
G0 X113.612 Y32.328 F1200
G0 X112.265 Y33.342 Z3.5
G1 Z0 F500
; --- FIX X Backlash ---
G0 X113.165 Y33.342 F1200
G1 X113.473 Z0 F800
G1 X113.592 Y33.349 Z0 F800
G1 X113.749 Y33.394 Z0 F800
G1 X113.912 Y33.491 Z0 F800
G1 X114.019 Y33.649 Z0 F800
G1 X114.078 Y33.775 Z0 F800
G1 X114.1 Y33.955 Z0 F800
G1 X114.107 Y34.112 Z0 F800
G1 Y34.23 Z0 F800
G1 X114.071 Y34.425 Z0 F800
; --- FIX X Backlash ---
G0 X113.171 Y34.425 F1200
G1 X113.064 Y34.598 Z0 F800
G1 X112.977 Y34.686 Z0 F800
G1 X112.849 Y34.754 Z0 F800
G1 X112.678 Y34.799 Z0 F800
G1 X112.258 Z0 F800
; --- FIX Y Backlash ---
G0 X112.258 Y33.899 F1200
G1 Y32.442 Z0 F800
G0 Z3.5 F500
; --- FIX X Backlash ---
G0 X113.158 Y32.442 F1200
; --- FIX Y Backlash ---
G0 X113.158 Y33.342 F1200
G0 X114.61 Y34.282 Z3.5
G1 Z0 F500
G1 X114.766 Y34.373 Z0 F800
G1 X114.899 Y34.41 Z0 F800
G1 X115.034 Y34.425 Z0 F800
G1 X115.139 Y34.387 Z0 F800
; --- FIX Y Backlash ---
G0 X115.139 Y33.487 F1200
G1 X115.229 Y33.406 Z0 F800
G1 X115.288 Y33.285 Z0 F800
G1 X115.295 Y33.121 Z0 F800
G1 Y32.42 Z0 F800
; --- FIX Y Backlash ---
G0 X115.295 Y33.32 F1200
G1 X115.288 Y33.521 Z0 F800
; --- FIX X Backlash ---
G0 X114.388 Y33.521 F1200
; --- FIX Y Backlash ---
G0 X114.388 Y32.621 F1200
G1 X114.291 Y32.554 Z0 F800
G1 X114.186 Y32.479 Z0 F800
G1 X114.068 Y32.427 Z0 F800
G1 X113.933 Y32.405 Z0 F800
G1 X113.821 Y32.442 Z0 F800
; --- FIX Y Backlash ---
G0 X113.821 Y33.342 F1200
G1 X113.731 Y33.402 Z0 F800
G1 X113.664 Y33.499 Z0 F800
G1 Y33.642 Z0 F800
; --- FIX X Backlash ---
G0 X114.564 Y33.642 F1200
G1 X114.617 Y33.753 Z0 F800
G1 X114.735 Y33.851 Z0 F800
G1 X114.854 Y33.896 Z0 F800
G1 X114.996 Y33.941 Z0 F800
G1 X115.131 Y33.962 Z0 F800
G1 X115.214 Y33.969 Z0 F800
G1 X115.281 Z0 F800
G0 Z3.5 F500
G0 X115.895 Y34.716 Z3.5
G1 Z0 F500
; --- FIX Y Backlash ---
G0 X115.895 Y33.816 F1200
G1 Y33.48 Z0 F800
G1 X116.253 Z0 F800
; --- FIX X Backlash ---
G0 X115.353 Y33.48 F1200
G1 X114.777 Z0 F800
; --- FIX X Backlash ---
G0 X115.677 Y33.48 F1200
G1 X115.895 Z0 F800
G1 Y32.711 Z0 F800
G1 X115.909 Y32.547 Z0 F800
G1 X115.992 Y32.449 Z0 F800
G1 X116.087 Y32.42 Z0 F800
G1 X116.194 Z0 F800
G1 X116.275 Y32.457 Z0 F800
G0 Z3.5 F500
; --- FIX Y Backlash ---
G0 X116.275 Y33.357 F1200
G0 X116.567 Y33.896 Z3.5
G1 Z0 F500
G1 X117.39 Z0 F800
G1 Y34.029 Z0 F800
G1 X117.352 Y34.202 Z0 F800
; --- FIX X Backlash ---
G0 X116.452 Y34.202 F1200
G1 X116.34 Y34.335 Z0 F800
G1 X116.226 Y34.41 Z0 F800
G1 X116.07 Y34.418 Z0 F800
G1 X115.913 Y34.373 Z0 F800
; --- FIX Y Backlash ---
G0 X115.913 Y33.473 F1200
G1 X115.778 Y33.361 Z0 F800
G1 X115.726 Y33.25 Z0 F800
G1 X115.667 Y33.107 Z0 F800
G1 X115.652 Y32.958 Z0 F800
G1 X115.689 Y32.778 Z0 F800
; --- FIX X Backlash ---
G0 X116.589 Y32.778 F1200
G1 X116.657 Y32.614 Z0 F800
G1 X116.792 Y32.479 Z0 F800
G1 X116.918 Y32.42 Z0 F800
G1 X117.074 Y32.405 Z0 F800
G1 X117.209 Y32.442 Z0 F800
; --- FIX Y Backlash ---
G0 X117.209 Y33.342 F1200
G1 X117.337 Y33.409 Z0 F800
G0 Z3.5 F500
G0 X117.785 Y33.439 Z3.5
G1 Z0 F500
; --- FIX Y Backlash ---
G0 X117.785 Y32.539 F1200
G1 Y32.427 Z0 F800
G1 X117.897 Z0 F800
; --- FIX Y Backlash ---
G0 X117.897 Y33.327 F1200
G1 Y33.439 Z0 F800
; --- FIX X Backlash ---
G0 X116.997 Y33.439 F1200
G1 X116.885 Z0 F800
G0 Z3.5 F500
G0 Y34.23 Z3.5
G1 Z0 F500
; --- FIX X Backlash ---
G0 X117.785 Y34.23 F1200
G1 X117.897 Z0 F800
G1 Y34.344 Z0 F800
; --- FIX X Backlash ---
G0 X116.997 Y34.344 F1200
G1 X116.885 Z0 F800
; --- FIX Y Backlash ---
G0 X116.885 Y33.444 F1200
G1 Y33.33 Z0 F800
G0 Z3.5 F500
; --- FIX X Backlash ---
G0 X117.785 Y33.33 F1200
G0 X118.332 Y31.487 Z3.5
G1 Z0 F500
; --- FIX X Backlash ---
G0 X117.432 Y31.487 F1200
G1 X117.153 Y31.479 Z0 F800
; --- FIX X Backlash ---
G0 X118.053 Y31.479 F1200
; --- FIX Y Backlash ---
G0 X118.053 Y32.379 F1200
G1 X118.34 Y32.489 Z0 F800
; --- FIX Y Backlash ---
G0 X118.34 Y31.589 F1200
G1 Y29.972 Z0 F800
; --- FIX X Backlash ---
G0 X117.44 Y29.972 F1200
G1 X117.017 Z0 F800
; --- FIX X Backlash ---
G0 X117.917 Y29.972 F1200
G1 X118.752 Z0 F800
G0 Z3.5 F500
G0 X119.232 Y29.947 Z3.5
G1 Z0 F500
G1 X119.367 Z0 F800
; --- FIX Y Backlash ---
G0 X119.367 Y30.847 F1200
G1 Y30.981 Z0 F800
; --- FIX X Backlash ---
G0 X118.467 Y30.981 F1200
G1 X118.332 Z0 F800
; --- FIX Y Backlash ---
G0 X118.332 Y30.081 F1200
G1 Y29.947 Z0 F800
G0 Z3.5 F500
; --- FIX X Backlash ---
G0 X119.232 Y29.947 F1200
G0 X120.809 Y29.972 Z3.5
G1 Z0 F500
; --- FIX X Backlash ---
G0 X119.909 Y29.972 F1200
G1 X118.956 Z0 F800
; --- FIX X Backlash ---
G0 X119.856 Y29.972 F1200
; --- FIX Y Backlash ---
G0 X119.856 Y30.872 F1200
G1 X120.084 Y31.125 Z0 F800
G1 X120.252 Y31.301 Z0 F800
G1 X120.437 Y31.529 Z0 F800
G1 X120.589 Y31.748 Z0 F800
G1 X120.672 Y31.943 Z0 F800
G1 X120.683 Y32.101 Z0 F800
G1 X120.64 Y32.288 Z0 F800
; --- FIX X Backlash ---
G0 X119.74 Y32.288 F1200
G1 X119.647 Y32.414 Z0 F800
G1 X119.497 Y32.489 Z0 F800
G1 X119.352 Y32.516 Z0 F800
G1 X119.184 Y32.473 Z0 F800
; --- FIX Y Backlash ---
G0 X119.184 Y31.573 F1200
G1 X119.05 Y31.487 Z0 F800
G1 X118.939 Y31.38 Z0 F800
G0 Z3.5 F500
; --- FIX X Backlash ---
G0 X119.839 Y31.38 F1200
; --- FIX Y Backlash ---
G0 X119.839 Y32.28 F1200
G0 X122.047 Y32.473 Z3.5
G1 Z0 F500
; --- FIX X Backlash ---
G0 X121.147 Y32.473 F1200
G1 X120.457 Z0 F800
; --- FIX Y Backlash ---
G0 X120.457 Y31.573 F1200
G1 X120.406 Y30.864 Z0 F800
G1 X120.422 Y30.84 Z0 F800
; --- FIX X Backlash ---
G0 X121.322 Y30.84 F1200
; --- FIX Y Backlash ---
G0 X121.322 Y31.74 F1200
G1 X121.467 Y31.815 Z0 F800
G1 X121.609 Y31.85 Z0 F800
G1 X121.804 Y31.834 Z0 F800
; --- FIX Y Backlash ---
G0 X121.804 Y30.934 F1200
G1 X121.997 Y30.824 Z0 F800
G1 X122.09 Y30.655 Z0 F800
G1 X122.114 Y30.436 Z0 F800
G1 X122.072 Y30.249 Z0 F800
; --- FIX X Backlash ---
G0 X121.172 Y30.249 F1200
G1 X121.062 Y30.09 Z0 F800
G1 X120.928 Y29.98 Z0 F800
G1 X120.735 Y29.93 Z0 F800
G1 X120.607 Y29.938 Z0 F800
; --- FIX Y Backlash ---
G0 X120.607 Y30.838 F1200
G1 X120.473 Y30.889 Z0 F800
G1 X120.356 Y30.956 Z0 F800
G1 X120.246 Y31.049 Z0 F800
G0 Z3.5 F500
; --- FIX X Backlash ---
G0 X121.146 Y31.049 F1200
; --- FIX Y Backlash ---
G0 X121.146 Y30.149 F1200
G0 X124.029 Y28.717 Z3.5
G1 Z0 F500
G1 Y26.15 Z0 F800
G0 Z3.5 F500
; --- FIX Y Backlash ---
G0 X124.029 Y27.05 F1200
G0 X128.859 Y30.604 Z3.5
G1 Z0 F500
G1 X128.849 Y30.655 Z0 F800
G1 X128.832 Y30.777 Z0 F800
G1 X128.799 Y31.034 Z0 F800
G1 X128.789 Y31.623 Z0 F800
G1 X128.81 Y32.222 Z0 F800
G1 X128.859 Y32.533 Z0 F800
G1 X128.916 Y32.794 Z0 F800
G1 X128.986 Y33.019 Z0 F800
G1 X129.071 Y33.219 Z0 F800
G1 X129.224 Y33.496 Z0 F800
G1 X129.365 Y33.702 Z0 F800
G1 X129.53 Y33.878 Z0 F800
G1 X129.677 Y34.006 Z0 F800
G1 X129.811 Y34.09 Z0 F800
G1 X129.938 Y34.135 Z0 F800
G1 X130.073 Y34.153 Z0 F800
G1 X130.221 Y34.157 Z0 F800
G1 X130.341 Y34.149 Z0 F800
G1 X130.39 Y34.128 Z0 F800
G1 X130.386 Y34.107 Z0 F800
G1 X130.375 Y34.094 Z0 F800
G1 X130.329 Y34.046 Z0 F800
; --- FIX X Backlash ---
G0 X129.429 Y34.046 F1200
; --- FIX Y Backlash ---
G0 X129.429 Y33.146 F1200
G1 X129.34 Y33.036 Z0 F800
G1 X129.23 Y32.892 Z0 F800
G1 X129.121 Y32.743 Z0 F800
G1 X128.884 Y32.375 Z0 F800
G1 X128.688 Y31.996 Z0 F800
G1 X128.53 Y31.597 Z0 F800
G1 X128.404 Y31.167 Z0 F800
G1 X128.367 Y30.99 Z0 F800
G1 X128.338 Y30.802 Z0 F800
G1 X128.323 Y30.658 Z0 F800
G1 X128.33 Y30.612 Z0 F800
G1 X128.345 Y30.64 Z0 F800
; --- FIX X Backlash ---
G0 X129.245 Y30.64 F1200
; --- FIX Y Backlash ---
G0 X129.245 Y31.54 F1200
G1 X129.373 Y31.837 Z0 F800
G1 X129.616 Y32.37 Z0 F800
G1 X129.876 Y32.873 Z0 F800
G1 X130.238 Y33.442 Z0 F800
G1 X130.626 Y33.957 Z0 F800
G1 X130.685 Y34.011 Z0 F800
G1 X130.749 Y33.997 Z0 F800
; --- FIX Y Backlash ---
G0 X130.749 Y33.097 F1200
G1 X130.972 Y32.964 Z0 F800
G1 X131.1 Y32.84 Z0 F800
G1 X131.079 Y32.756 Z0 F800
; --- FIX X Backlash ---
G0 X130.179 Y32.756 F1200
G1 X130.125 Y32.61 Z0 F800
G1 X130.051 Y32.434 Z0 F800
G1 X129.97 Y32.263 Z0 F800
G1 X129.671 Y31.747 Z0 F800
G1 X129.296 Y31.247 Z0 F800
G1 X129.064 Y30.977 Z0 F800
G1 X128.657 Y30.555 Z0 F800
G1 X128.617 Y30.5 Z0 F800
G1 X128.652 Y30.505 Z0 F800
; --- FIX X Backlash ---
G0 X129.552 Y30.505 F1200
; --- FIX Y Backlash ---
G0 X129.552 Y31.405 F1200
G1 X129.66 Y31.462 Z0 F800
G1 X129.957 Y31.654 Z0 F800
G1 X130.243 Y31.884 Z0 F800
G1 X130.512 Y32.148 Z0 F800
G1 X130.757 Y32.439 Z0 F800
G1 X130.92 Y32.675 Z0 F800
G1 X131.074 Y32.935 Z0 F800
G1 X131.204 Y33.195 Z0 F800
G1 X131.297 Y33.431 Z0 F800
G1 X131.33 Y33.525 Z0 F800
G1 X131.347 Y33.564 Z0 F800
; --- FIX Y Backlash ---
G0 X131.347 Y32.664 F1200
G1 X131.422 Y32.54 Z0 F800
G1 X131.512 Y32.334 Z0 F800
G1 X131.544 Y32.201 Z0 F800
G1 X131.554 Y32.047 Z0 F800
G1 X131.536 Y31.839 Z0 F800
; --- FIX X Backlash ---
G0 X130.636 Y31.839 F1200
G1 X130.58 Y31.631 Z0 F800
G1 X130.489 Y31.423 Z0 F800
G1 X130.363 Y31.217 Z0 F800
G1 X130.204 Y31.014 Z0 F800
G1 X130.013 Y30.817 Z0 F800
G1 X129.79 Y30.626 Z0 F800
G1 X129.537 Y30.443 Z0 F800
G1 X129.232 Y30.26 Z0 F800
G1 X128.866 Y30.072 Z0 F800
G1 X128.476 Y29.896 Z0 F800
G1 X128.1 Y29.751 Z0 F800
G1 X127.959 Y29.704 Z0 F800
G0 Z3.5 F500
; --- FIX X Backlash ---
G0 X128.859 Y29.704 F1200
; --- FIX Y Backlash ---
G0 X128.859 Y30.604 F1200
G0 X131.91 Y32.795 Z3.5
G1 Z0 F500
G1 X131.906 Y32.814 Z0 F800
G1 X131.902 Y32.868 Z0 F800
G1 X131.899 Y33.046 Z0 F800
G1 X131.889 Y33.282 Z0 F800
G1 X131.843 Y33.452 Z0 F800
; --- FIX X Backlash ---
G0 X130.943 Y33.452 F1200
G1 X130.888 Y33.606 Z0 F800
; --- FIX X Backlash ---
G0 X131.788 Y33.606 F1200
G1 X132.301 Y34.373 Z0 F800
G1 X132.505 Y34.671 Z0 F800
G1 X132.539 Y34.717 Z0 F800
G1 X132.586 Y34.713 Z0 F800
G1 X132.68 Y34.69 Z0 F800
G1 X132.895 Y34.643 Z0 F800
G1 X133.145 Y34.61 Z0 F800
G1 X133.419 Y34.59 Z0 F800
G1 X133.705 Y34.583 Z0 F800
G1 X133.99 Y34.589 Z0 F800
G1 X134.263 Y34.609 Z0 F800
G1 X134.513 Y34.643 Z0 F800
G1 X134.727 Y34.689 Z0 F800
G1 X134.831 Y34.717 Z0 F800
G1 X134.89 Y34.726 Z0 F800
G1 X134.921 Y34.717 Z0 F800
; --- FIX Y Backlash ---
G0 X134.921 Y33.817 F1200
G1 X135.02 Y33.666 Z0 F800
G1 X135.186 Y33.422 Z0 F800
G1 X135.487 Y32.984 Z0 F800
G1 X135.536 Y32.902 Z0 F800
G1 X135.547 Y32.86 Z0 F800
G1 X135.523 Y32.85 Z0 F800
; --- FIX X Backlash ---
G0 X134.623 Y32.85 F1200
G1 X134.488 Y32.811 Z0 F800
G1 X134.17 Y32.729 Z0 F800
G1 X133.962 Y32.68 Z0 F800
G1 X133.845 Y32.654 Z0 F800
G1 X133.695 Y31.896 Z0 F800
G1 X133.67 Y31.776 Z0 F800
G1 X133.645 Y31.676 Z0 F800
G1 X133.624 Y31.606 Z0 F800
G1 X133.61 Y31.575 Z0 F800
G1 X133.548 Y31.569 Z0 F800
G1 X133.397 Y31.564 Z0 F800
G1 X133.181 Y31.561 Z0 F800
G1 X132.921 Z0 F800
G1 X132.603 Z0 F800
G1 X132.395 Y31.564 Z0 F800
G1 X132.279 Y31.572 Z0 F800
G1 X132.237 Y31.584 Z0 F800
G1 X132.225 Y31.614 Z0 F800
; --- FIX Y Backlash ---
G0 X132.225 Y32.514 F1200
G1 X132.207 Y32.579 Z0 F800
G1 X132.186 Y32.669 Z0 F800
G1 X132.045 Y33.355 Z0 F800
G1 X132.025 Y33.47 Z0 F800
G1 X132.016 Y33.529 Z0 F800
G1 X131.989 Y33.56 Z0 F800
G1 X131.907 Y33.582 Z0 F800
G1 X131.735 Y33.611 Z0 F800
G1 X131.603 Y33.628 Z0 F800
G1 X131.555 Y33.606 Z0 F800
; --- FIX Y Backlash ---
G0 X131.555 Y32.706 F1200
G1 X131.495 Y32.621 Z0 F800
G1 X131.381 Y32.452 Z0 F800
G1 X131.045 Y31.94 Z0 F800
G1 X131.01 Y31.895 Z0 F800
G0 Z3.5 F500
; --- FIX Y Backlash ---
G0 X131.01 Y32.795 F1200
G0 X130.665 Y33.808 Z3.5
G1 Z0 F500
G1 X130.638 Z0 F800
G1 X130.597 Y33.839 Z0 F800
G1 X130.536 Y33.898 Z0 F800
G1 X130.374 Y34.047 Z0 F800
G1 X130.166 Y34.188 Z0 F800
G1 X129.863 Y34.339 Z0 F800
G1 X129.617 Y34.413 Z0 F800
G1 X129.584 Y34.418 Z0 F800
G1 X129.571 Y34.433 Z0 F800
G1 X129.578 Y34.462 Z0 F800
; --- FIX X Backlash ---
G0 X130.478 Y34.462 F1200
G1 X130.556 Y34.59 Z0 F800
G1 X130.633 Y34.723 Z0 F800
G1 X130.722 Y34.882 Z0 F800
G1 X130.87 Y35.154 Z0 F800
G1 X130.941 Y35.278 Z0 F800
G1 X131.08 Y35.544 Z0 F800
G1 X131.12 Y35.617 Z0 F800
G1 X131.161 Y35.697 Z0 F800
G1 X131.249 Y35.877 Z0 F800
G1 X131.494 Y36.391 Z0 F800
G1 X131.529 Y36.455 Z0 F800
G1 X131.551 Y36.478 Z0 F800
; --- FIX Y Backlash ---
G0 X131.551 Y35.578 F1200
G1 X132.655 Y34.908 Z0 F800
G1 X132.769 Y34.832 Z0 F800
G1 X132.817 Y34.788 Z0 F800
G1 X132.781 Y34.723 Z0 F800
; --- FIX X Backlash ---
G0 X131.881 Y34.723 F1200
G1 X131.796 Y34.598 Z0 F800
G1 X131.554 Y34.256 Z0 F800
G1 X131.411 Y34.049 Z0 F800
G1 X131.252 Y33.81 Z0 F800
G1 X131.008 Y33.44 Z0 F800
G1 X130.784 Y33.094 Z0 F800
G1 X130.682 Y32.932 Z0 F800
G1 X130.665 Y32.908 Z0 F800
G0 Z3.5 F500
; --- FIX Y Backlash ---
G0 X130.665 Y33.808 F1200
G0 X129.34 Y34.691 Z3.5
G1 Z0 F500
G1 X129.304 Y34.712 Z0 F800
G1 X129.148 Y34.838 Z0 F800
G1 X129.1 Y34.874 Z0 F800
G1 X129.07 Y34.865 Z0 F800
G1 X129.005 Y34.83 Z0 F800
; --- FIX Y Backlash ---
G0 X129.005 Y33.93 F1200
G1 X128.912 Y33.875 Z0 F800
G1 X128.801 Y33.806 Z0 F800
G1 X128.555 Y33.645 Z0 F800
G1 X128.337 Y33.49 Z0 F800
G1 X128.248 Y33.43 Z0 F800
G1 X128.182 Y33.409 Z0 F800
G1 X128.123 Y33.426 Z0 F800
; --- FIX Y Backlash ---
G0 X128.123 Y34.326 F1200
G1 X128.053 Y34.38 Z0 F800
G1 X127.988 Y34.445 Z0 F800
G1 X127.731 Y34.706 Z0 F800
G1 X127.458 Y34.99 Z0 F800
G1 X127.301 Y35.158 Z0 F800
G1 X127.252 Y35.215 Z0 F800
G1 X127.199 Y35.287 Z0 F800
G1 X127.192 Y35.325 Z0 F800
G1 X127.241 Y35.416 Z0 F800
; --- FIX X Backlash ---
G0 X128.141 Y35.416 F1200
G1 X128.241 Y35.574 Z0 F800
G1 X128.337 Y35.721 Z0 F800
G1 X128.388 Y35.806 Z0 F800
G1 X128.467 Y35.925 Z0 F800
G1 X128.672 Y36.227 Z0 F800
; --- FIX X Backlash ---
G0 X127.772 Y36.227 F1200
G1 X127.688 Y36.354 Z0 F800
G1 X127.592 Y36.514 Z0 F800
G1 X127.414 Y36.834 Z0 F800
G1 X127.368 Y36.907 Z0 F800
G1 X127.334 Y36.947 Z0 F800
G1 X127.309 Y36.958 Z0 F800
G1 X127.256 Y36.955 Z0 F800
; --- FIX Y Backlash ---
G0 X127.256 Y36.055 F1200
G1 X126.59 Y35.99 Z0 F800
G1 X126.432 Y35.978 Z0 F800
G1 X126.325 Y35.974 Z0 F800
G1 X126.278 Y35.977 Z0 F800
G1 X126.25 Y36.02 Z0 F800
; --- FIX Y Backlash ---
G0 X126.25 Y36.92 F1200
G1 X126.206 Y37.03 Z0 F800
G1 X126.144 Y37.219 Z0 F800
G1 X126.001 Y37.687 Z0 F800
G1 X125.913 Y37.968 Z0 F800
G1 X125.882 Y38.083 Z0 F800
G1 X125.865 Y38.166 Z0 F800
G1 Y38.21 Z0 F800
; --- FIX X Backlash ---
G0 X126.765 Y38.21 F1200
G1 X126.825 Y38.267 Z0 F800
G1 X126.972 Y38.361 Z0 F800
G1 X127.202 Y38.489 Z0 F800
G1 X127.506 Y38.646 Z0 F800
G1 X127.692 Y38.74 Z0 F800
G1 X127.659 Y39.283 Z0 F800
G1 X127.646 Y39.479 Z0 F800
G1 X127.635 Y39.59 Z0 F800
G1 X127.627 Y39.629 Z0 F800
G1 X127.599 Y39.642 Z0 F800
; --- FIX X Backlash ---
G0 X126.699 Y39.642 F1200
G1 X126.54 Y39.704 Z0 F800
G1 X126.179 Y39.836 Z0 F800
G1 X125.963 Y39.911 Z0 F800
G1 X125.805 Y39.971 Z0 F800
G1 X125.724 Y40.015 Z0 F800
G1 X125.709 Y40.053 Z0 F800
G1 Y40.126 Z0 F800
G1 X125.725 Y40.255 Z0 F800
G1 X125.76 Y40.462 Z0 F800
; --- FIX X Backlash ---
G0 X126.66 Y40.462 F1200
G1 X126.759 Y41.024 Z0 F800
G1 X126.788 Y41.18 Z0 F800
G1 X126.813 Y41.293 Z0 F800
G1 X126.835 Y41.367 Z0 F800
G1 X126.854 Y41.402 Z0 F800
G1 X126.887 Y41.419 Z0 F800
G1 X126.963 Y41.43 Z0 F800
G1 X127.103 Y41.439 Z0 F800
G1 X127.51 Y41.451 Z0 F800
G1 X127.906 Y41.46 Z0 F800
G1 X127.935 Y41.473 Z0 F800
G1 X127.956 Y41.506 Z0 F800
G1 X128.02 Y41.669 Z0 F800
G1 X128.281 Y42.287 Z0 F800
; --- FIX X Backlash ---
G0 X127.381 Y42.287 F1200
G1 X126.79 Y42.918 Z0 F800
G1 X126.713 Y43.008 Z0 F800
G1 X126.675 Y43.071 Z0 F800
G1 Y43.111 Z0 F800
G1 X126.711 Y43.188 Z0 F800
G1 X126.757 Y43.257 Z0 F800
; --- FIX X Backlash ---
G0 X127.657 Y43.257 F1200
G1 X127.726 Y43.358 Z0 F800
G1 X128.313 Y44.194 Z0 F800
G1 X128.361 Y44.247 Z0 F800
G1 X128.423 Y44.262 Z0 F800
G1 X128.523 Y44.237 Z0 F800
; --- FIX Y Backlash ---
G0 X128.523 Y43.337 F1200
G1 X128.683 Y43.271 Z0 F800
G1 X128.904 Y43.172 Z0 F800
G1 X129.404 Y42.943 Z0 F800
; --- FIX Y Backlash ---
G0 X129.404 Y43.843 F1200
G1 X129.477 Y43.907 Z0 F800
G1 X129.555 Y43.977 Z0 F800
G1 X129.639 Y44.057 Z0 F800
G1 X129.706 Y44.117 Z0 F800
G1 X129.743 Y44.143 Z0 F800
G1 X129.761 Y44.127 Z0 F800
G1 X129.78 Y44.088 Z0 F800
; --- FIX Y Backlash ---
G0 X129.78 Y43.188 F1200
G1 X129.808 Y43.121 Z0 F800
G1 X130.082 Y42.519 Z0 F800
G1 X130.179 Y42.298 Z0 F800
G1 X130.19 Y42.221 Z0 F800
G1 X130.147 Y42.146 Z0 F800
; --- FIX X Backlash ---
G0 X129.247 Y42.146 F1200
G1 X129.139 Y42.024 Z0 F800
G1 X128.872 Y41.704 Z0 F800
G1 X128.637 Y41.381 Z0 F800
G1 X128.433 Y41.05 Z0 F800
G1 X128.26 Y40.71 Z0 F800
G1 X128.117 Y40.359 Z0 F800
G1 X128.001 Y39.994 Z0 F800
G1 X127.913 Y39.612 Z0 F800
G1 X127.85 Y39.211 Z0 F800
G1 X127.837 Y38.548 Z0 F800
; --- FIX X Backlash ---
G0 X128.737 Y38.548 F1200
G1 X128.79 Y37.874 Z0 F800
G1 X128.928 Y37.276 Z0 F800
G1 X129.128 Y36.72 Z0 F800
G1 X129.395 Y36.194 Z0 F800
G1 X129.733 Y35.688 Z0 F800
G1 X130.165 Y35.2 Z0 F800
G1 X130.612 Y34.767 Z0 F800
G1 X130.678 Y34.71 Z0 F800
G1 X130.706 Y34.677 Z0 F800
G1 X130.68 Y34.621 Z0 F800
; --- FIX X Backlash ---
G0 X129.78 Y34.621 F1200
G1 X129.616 Y34.315 Z0 F800
G1 X129.34 Y33.791 Z0 F800
G0 Z3.5 F500
; --- FIX X Backlash ---
G0 X130.24 Y33.791 F1200
; --- FIX Y Backlash ---
G0 X130.24 Y34.691 F1200
G0 X132.297 Y36.395 Z3.5
G1 Z0 F500
; --- FIX X Backlash ---
G0 X131.397 Y36.395 F1200
G1 X130.965 Y36.653 Z0 F800
G1 X130.797 Y36.751 Z0 F800
G1 X130.765 Y36.767 Z0 F800
G1 Y36.794 Z0 F800
G1 X130.776 Y36.861 Z0 F800
G1 X130.802 Y36.961 Z0 F800
G1 X130.838 Y37.086 Z0 F800
; --- FIX X Backlash ---
G0 X131.738 Y37.086 F1200
G1 X131.832 Y37.377 Z0 F800
G1 X131.939 Y37.669 Z0 F800
G1 X132.127 Y38.099 Z0 F800
G1 X132.361 Y38.538 Z0 F800
G1 X132.505 Y38.777 Z0 F800
G1 X132.672 Y39.036 Z0 F800
G1 X132.864 Y39.323 Z0 F800
G1 X133.695 Y40.51 Z0 F800
G1 X133.993 Y40.931 Z0 F800
G1 X134.243 Y41.28 Z0 F800
G1 X134.381 Y41.468 Z0 F800
G1 X135.323 Y42.781 Z0 F800
G1 X136.291 Y44.135 Z0 F800
G1 X136.922 Y45.034 Z0 F800
G1 X137.695 Y46.147 Z0 F800
G1 X137.777 Y46.262 Z0 F800
G1 X138.11 Y46.748 Z0 F800
G1 X138.241 Y46.931 Z0 F800
G1 X138.273 Y46.969 Z0 F800
G1 X138.341 Y46.987 Z0 F800
G1 X138.415 Y46.97 Z0 F800
G1 X138.476 Y46.926 Z0 F800
; --- FIX Y Backlash ---
G0 X138.476 Y46.026 F1200
G1 X138.501 Y45.967 Z0 F800
G1 X138.495 Y45.937 Z0 F800
G1 X138.476 Y45.88 Z0 F800
; --- FIX X Backlash ---
G0 X137.576 Y45.88 F1200
G1 X137.502 Y45.686 Z0 F800
G1 X137.38 Y45.389 Z0 F800
G1 X136.802 Y44.035 Z0 F800
G1 X135.352 Y40.726 Z0 F800
G1 X134.779 Y39.424 Z0 F800
G1 X134.434 Y38.644 Z0 F800
G1 X134.139 Y37.989 Z0 F800
G1 X133.872 Y37.427 Z0 F800
G1 X133.627 Y36.945 Z0 F800
G1 X133.395 Y36.53 Z0 F800
G1 X133.167 Y36.167 Z0 F800
G1 X132.936 Y35.843 Z0 F800
G1 X132.694 Y35.545 Z0 F800
G1 X132.433 Y35.259 Z0 F800
G1 X132.29 Y35.113 Z0 F800
G1 X132.213 Y35.038 Z0 F800
G1 X132.179 Z0 F800
G1 X132.104 Y35.071 Z0 F800
; --- FIX Y Backlash ---
G0 X132.104 Y35.971 F1200
G1 X131.964 Y36.05 Z0 F800
G1 X131.739 Y36.186 Z0 F800
G1 X131.397 Y36.395 Z0 F800
G0 Z3.5 F500
; --- FIX X Backlash ---
G0 X132.297 Y36.395 F1200
G0 X133.923 Y36.384 Z3.5
G1 Z0 F500
G1 X133.941 Y36.415 Z0 F800
G1 X133.989 Y36.463 Z0 F800
G1 X134.066 Y36.559 Z0 F800
G1 X134.164 Y36.693 Z0 F800
G1 X134.275 Y36.85 Z0 F800
G1 X134.497 Y37.184 Z0 F800
G1 X134.661 Y37.458 Z0 F800
G1 X134.809 Y37.737 Z0 F800
G1 X134.993 Y38.09 Z0 F800
G1 X135.131 Y38.361 Z0 F800
G1 X135.168 Y38.424 Z0 F800
G1 X135.189 Y38.439 Z0 F800
G1 X135.202 Y38.419 Z0 F800
; --- FIX Y Backlash ---
G0 X135.202 Y37.519 F1200
G1 X135.477 Y36.842 Z0 F800
G1 X135.57 Y36.601 Z0 F800
G1 X135.639 Y36.407 Z0 F800
G1 X135.746 Y36.085 Z0 F800
G1 X135.791 Y35.939 Z0 F800
G1 X135.797 Y35.911 Z0 F800
G1 X135.76 Y35.881 Z0 F800
; --- FIX X Backlash ---
G0 X134.86 Y35.881 F1200
G1 X134.759 Y35.814 Z0 F800
G1 X134.61 Y35.719 Z0 F800
G1 X133.723 Y35.18 Z0 F800
G1 X133.549 Y35.077 Z0 F800
G1 X133.491 Y35.045 Z0 F800
G1 X133.463 Y35.033 Z0 F800
G1 X133.438 Y35.049 Z0 F800
G1 X133.386 Y35.091 Z0 F800
; --- FIX Y Backlash ---
G0 X133.386 Y35.991 F1200
G1 X133.314 Y36.055 Z0 F800
G1 X133.231 Y36.132 Z0 F800
G1 X133.113 Y36.25 Z0 F800
G1 X133.045 Y36.331 Z0 F800
G1 X133.023 Y36.384 Z0 F800
G0 Z3.5 F500
; --- FIX X Backlash ---
G0 X133.923 Y36.384 F1200
; --- FIX Y Backlash ---
G0 X133.923 Y35.484 F1200
G0 X134.756 Y34.895 Z3.5
G1 Z0 F500
; --- FIX Y Backlash ---
G0 X134.756 Y35.795 F1200
G1 X134.886 Y35.873 Z0 F800
G1 X135.238 Y36.092 Z0 F800
G1 X135.662 Y36.346 Z0 F800
G1 X135.855 Y36.456 Z0 F800
G1 X135.89 Y36.473 Z0 F800
; --- FIX Y Backlash ---
G0 X135.89 Y35.573 F1200
G1 X135.934 Y35.521 Z0 F800
G1 X136.003 Y35.386 Z0 F800
G1 X136.35 Y34.67 Z0 F800
G1 X136.766 Y33.913 Z0 F800
G1 X136.843 Y33.779 Z0 F800
G1 X136.949 Y33.586 Z0 F800
G1 X136.967 Y33.551 Z0 F800
G1 X136.928 Y33.524 Z0 F800
; --- FIX X Backlash ---
G0 X136.028 Y33.524 F1200
G1 X135.927 Y33.491 Z0 F800
G1 X135.725 Y33.42 Z0 F800
G1 X135.518 Y33.315 Z0 F800
G1 X135.315 Y33.182 Z0 F800
G1 X135.126 Y33.025 Z0 F800
G1 X135.046 Y32.951 Z0 F800
G1 X135.003 Y32.915 Z0 F800
G1 X134.977 Y32.932 Z0 F800
; --- FIX Y Backlash ---
G0 X134.977 Y33.832 F1200
G1 X134.938 Y33.886 Z0 F800
G1 X134.872 Y33.993 Z0 F800
G1 X134.389 Y34.723 Z0 F800
G1 X134.178 Y35.034 Z0 F800
G1 X133.987 Y35.307 Z0 F800
G1 X133.75 Y35.634 Z0 F800
G1 X133.713 Y35.694 Z0 F800
G1 X133.755 Y35.731 Z0 F800
; --- FIX X Backlash ---
G0 X134.655 Y35.731 F1200
G1 X134.756 Y35.795 Z0 F800
G0 Z3.5 F500
; --- FIX Y Backlash ---
G0 X134.756 Y34.895 F1200
G0 X136.751 Y34.663 Z3.5
G1 Z0 F500
G1 X136.762 Y34.694 Z0 F800
; --- FIX Y Backlash ---
G0 X136.762 Y35.594 F1200
G1 X136.809 Y35.645 Z0 F800
G1 X136.903 Y35.73 Z0 F800
G1 X137.334 Y36.15 Z0 F800
G1 X137.698 Y36.573 Z0 F800
G1 X138 Y37.008 Z0 F800
G1 X138.246 Y37.462 Z0 F800
G1 X138.437 Y37.952 Z0 F800
G1 X138.588 Y38.469 Z0 F800
G1 X138.677 Y39.012 Z0 F800
G1 X138.709 Y39.576 Z0 F800
G1 X138.682 Y40.134 Z0 F800
; --- FIX X Backlash ---
G0 X137.782 Y40.134 F1200
G1 X137.697 Y40.659 Z0 F800
G1 X137.596 Y41.032 Z0 F800
G1 X137.49 Y41.35 Z0 F800
G1 X137.429 Y41.498 Z0 F800
G1 X137.266 Y41.834 Z0 F800
G1 X137.1 Y42.141 Z0 F800
G1 X136.902 Y42.429 Z0 F800
G1 X136.743 Y42.651 Z0 F800
G1 X136.545 Y42.884 Z0 F800
G1 X136.39 Y43.059 Z0 F800
G1 X136.355 Y43.103 Z0 F800
G1 X136.36 Y43.143 Z0 F800
G1 X136.394 Y43.235 Z0 F800
; --- FIX X Backlash ---
G0 X137.294 Y43.235 F1200
G1 X137.356 Y43.382 Z0 F800
G1 X137.487 Y43.674 Z0 F800
G1 X137.6 Y43.936 Z0 F800
G1 X137.652 Y44.048 Z0 F800
G1 X137.69 Y44.118 Z0 F800
G1 X137.711 Y44.143 Z0 F800
G1 X137.757 Y44.11 Z0 F800
; --- FIX Y Backlash ---
G0 X137.757 Y43.21 F1200
G1 X137.843 Y43.133 Z0 F800
G1 X138.041 Y42.945 Z0 F800
; --- FIX Y Backlash ---
G0 X138.041 Y43.845 F1200
G1 X138.237 Y43.936 Z0 F800
G1 X138.699 Y44.148 Z0 F800
G1 X138.874 Y44.222 Z0 F800
G1 X138.993 Y44.254 Z0 F800
G1 X139.069 Y44.246 Z0 F800
G1 X139.114 Y44.201 Z0 F800
G1 X139.137 Y44.165 Z0 F800
; --- FIX Y Backlash ---
G0 X139.137 Y43.265 F1200
G1 X139.262 Y43.086 Z0 F800
G1 X139.558 Y42.672 Z0 F800
G1 X139.762 Y42.392 Z0 F800
G1 X139.847 Y42.265 Z0 F800
G1 X139.883 Y42.191 Z0 F800
G1 X139.847 Y42.126 Z0 F800
; --- FIX X Backlash ---
G0 X138.947 Y42.126 F1200
G1 X138.859 Y42.023 Z0 F800
G1 X138.651 Y41.803 Z0 F800
G1 X138.392 Y41.526 Z0 F800
G1 X138.325 Y41.449 Z0 F800
G1 X138.277 Y41.369 Z0 F800
G1 X138.287 Y41.323 Z0 F800
G1 X138.323 Y41.228 Z0 F800
; --- FIX X Backlash ---
G0 X139.223 Y41.228 F1200
G1 X139.349 Y40.926 Z0 F800
G1 X139.413 Y40.766 Z0 F800
G1 X139.463 Y40.647 Z0 F800
G1 X139.498 Y40.582 Z0 F800
G1 X139.535 Y40.57 Z0 F800
G1 X139.629 Y40.56 Z0 F800
G1 X139.79 Y40.552 Z0 F800
G1 X140.299 Y40.537 Z0 F800
G1 X140.458 Y40.529 Z0 F800
G1 X140.539 Y40.517 Z0 F800
G1 X140.574 Y40.499 Z0 F800
G1 X140.608 Y40.423 Z0 F800
G1 X140.641 Y40.28 Z0 F800
G1 X140.7 Y39.956 Z0 F800
G1 X140.8 Y39.433 Z0 F800
G1 X140.819 Y39.326 Z0 F800
G1 X140.833 Y39.234 Z0 F800
G1 X140.84 Y39.167 Z0 F800
G1 Y39.133 Z0 F800
G1 X140.828 Y39.111 Z0 F800
G1 X140.794 Y39.09 Z0 F800
; --- FIX X Backlash ---
G0 X139.894 Y39.09 F1200
G1 X139.806 Y39.056 Z0 F800
G1 X139.373 Y38.903 Z0 F800
G1 X139.148 Y38.82 Z0 F800
G1 X138.986 Y38.757 Z0 F800
G1 X138.918 Y38.725 Z0 F800
G1 X138.91 Y38.69 Z0 F800
G1 X138.901 Y38.607 Z0 F800
G1 X138.892 Y38.489 Z0 F800
G1 X138.868 Y38.069 Z0 F800
G1 X138.857 Y37.912 Z0 F800
G1 X138.864 Y37.844 Z0 F800
; --- FIX X Backlash ---
G0 X139.764 Y37.844 F1200
G1 X139.85 Y37.789 Z0 F800
G1 X140.104 Y37.656 Z0 F800
G1 X140.362 Y37.513 Z0 F800
G1 X140.566 Y37.394 Z0 F800
G1 X140.629 Y37.354 Z0 F800
G1 X140.657 Y37.333 Z0 F800
G1 X140.67 Y37.294 Z0 F800
G1 Y37.233 Z0 F800
G1 X140.649 Y37.144 Z0 F800
G1 X140.614 Y37.023 Z0 F800
; --- FIX X Backlash ---
G0 X139.714 Y37.023 F1200
G1 X139.527 Y36.424 Z0 F800
G1 X139.471 Y36.249 Z0 F800
G1 X139.424 Y36.113 Z0 F800
G1 X139.387 Y36.024 Z0 F800
G1 X139.364 Y35.985 Z0 F800
G1 X139.334 Y35.97 Z0 F800
G1 X139.262 Z0 F800
G1 X139.087 Y35.984 Z0 F800
; --- FIX Y Backlash ---
G0 X139.087 Y36.884 F1200
G1 X138.463 Y36.952 Z0 F800
G1 X138.377 Y36.957 Z0 F800
G1 X138.318 Y36.952 Z0 F800
G1 X138.25 Y36.905 Z0 F800
; --- FIX Y Backlash ---
G0 X138.25 Y36.005 F1200
G1 X138.193 Y35.896 Z0 F800
G1 X138.1 Y35.725 Z0 F800
G1 X137.912 Y35.404 Z0 F800
G1 X137.878 Y35.333 Z0 F800
G1 X137.9 Y35.291 Z0 F800
; --- FIX X Backlash ---
G0 X138.8 Y35.291 F1200
G1 X138.862 Y35.192 Z0 F800
G1 X139.177 Y34.708 Z0 F800
G1 X139.268 Y34.562 Z0 F800
G1 X139.328 Y34.457 Z0 F800
G1 X139.35 Y34.406 Z0 F800
G1 X139.335 Y34.37 Z0 F800
G1 X139.288 Y34.307 Z0 F800
; --- FIX X Backlash ---
G0 X138.388 Y34.307 F1200
G1 X138.307 Y34.214 Z0 F800
G1 X138.189 Y34.089 Z0 F800
G1 X137.748 Y33.637 Z0 F800
G1 X137.583 Y33.475 Z0 F800
G1 X137.532 Y33.429 Z0 F800
G1 X137.499 Y33.403 Z0 F800
G1 X137.481 Y33.394 Z0 F800
G1 X137.434 Y33.418 Z0 F800
; --- FIX Y Backlash ---
G0 X137.434 Y34.318 F1200
G1 X137.329 Y34.382 Z0 F800
G1 X137.181 Y34.477 Z0 F800
G1 X137.005 Y34.592 Z0 F800
G1 X136.558 Y34.89 Z0 F800
; --- FIX Y Backlash ---
G0 X136.558 Y33.99 F1200
G1 X136.296 Y33.792 Z0 F800
; --- FIX Y Backlash ---
G0 X136.296 Y34.692 F1200
G1 X135.942 Y35.385 Z0 F800
G1 X135.863 Y35.534 Z0 F800
G1 X135.851 Y35.563 Z0 F800
G0 Z3.5 F500
; --- FIX X Backlash ---
G0 X136.751 Y35.563 F1200
; --- FIX Y Backlash ---
G0 X136.751 Y34.663 F1200
G0 X137.135 Y33.253 Z3.5
G1 Z0 F500
G1 X137.291 Z0 F800
G1 X137.494 Y33.235 Z0 F800
G1 X137.647 Y33.171 Z0 F800
G1 X137.785 Y33.084 Z0 F800
G1 X137.92 Y32.967 Z0 F800
G1 X138.051 Y32.823 Z0 F800
G1 X138.175 Y32.657 Z0 F800
G1 X138.388 Y32.274 Z0 F800
G1 X138.538 Y31.852 Z0 F800
G1 X138.593 Y31.61 Z0 F800
G1 X138.626 Y31.367 Z0 F800
G1 X138.644 Y31.082 Z0 F800
G1 X138.649 Y30.71 Z0 F800
G1 X138.643 Y30.341 Z0 F800
G1 X138.628 Y30.018 Z0 F800
G1 X138.618 Y29.889 Z0 F800
G1 X138.607 Y29.79 Z0 F800
G1 X138.595 Y29.727 Z0 F800
G1 X138.583 Y29.705 Z0 F800
; --- FIX X Backlash ---
G0 X137.683 Y29.705 F1200
G1 X137.633 Y29.719 Z0 F800
G1 X137.532 Y29.752 Z0 F800
; --- FIX Y Backlash ---
G0 X137.532 Y30.652 F1200
G1 X137.239 Y30.764 Z0 F800
G1 X136.866 Y30.925 Z0 F800
G1 X136.686 Y31.007 Z0 F800
G1 X136.53 Y31.081 Z0 F800
G1 X136.413 Y31.142 Z0 F800
G1 X136.348 Y31.181 Z0 F800
G1 X136.273 Y31.232 Z0 F800
G1 X136.121 Y31.331 Z0 F800
G1 X135.908 Y31.473 Z0 F800
G1 X135.768 Y31.587 Z0 F800
G1 X135.512 Y31.832 Z0 F800
G1 X135.312 Y32.072 Z0 F800
G1 X135.161 Y32.314 Z0 F800
G1 X135.053 Y32.568 Z0 F800
G1 X135.015 Y32.726 Z0 F800
G1 X135.006 Y32.952 Z0 F800
G1 X135.014 Y33.179 Z0 F800
G1 X135.06 Y33.314 Z0 F800
G1 X135.11 Y33.412 Z0 F800
G1 X135.156 Y33.489 Z0 F800
G1 X135.2 Y33.549 Z0 F800
; --- FIX X Backlash ---
G0 X136.1 Y33.549 F1200
; --- FIX Y Backlash ---
G0 X136.1 Y32.649 F1200
G1 X136.163 Y32.474 Z0 F800
G1 X136.27 Y32.217 Z0 F800
G1 X136.403 Y31.96 Z0 F800
G1 X136.555 Y31.714 Z0 F800
G1 X136.721 Y31.49 Z0 F800
G1 X136.796 Y31.408 Z0 F800
G1 X136.84 Y31.376 Z0 F800
G1 X136.852 Y31.372 Z0 F800
G1 Y31.355 Z0 F800
G1 X136.865 Y31.327 Z0 F800
G1 X136.909 Y31.274 Z0 F800
G1 X136.978 Y31.201 Z0 F800
G1 X137.064 Y31.115 Z0 F800
G1 X137.259 Y30.935 Z0 F800
G1 X137.438 Y30.786 Z0 F800
G1 X137.582 Y30.686 Z0 F800
G1 X137.737 Y30.59 Z0 F800
G1 X137.863 Y30.52 Z0 F800
G1 X137.923 Y30.5 Z0 F800
; --- FIX Y Backlash ---
G0 X137.923 Y31.4 F1200
G1 X137.888 Y31.451 Z0 F800
; --- FIX X Backlash ---
G0 X136.988 Y31.451 F1200
G1 X136.495 Y31.97 Z0 F800
G1 X136.17 Y32.361 Z0 F800
G1 X135.902 Y32.746 Z0 F800
G1 X135.679 Y33.14 Z0 F800
G1 X135.581 Y33.341 Z0 F800
G1 X135.502 Y33.519 Z0 F800
G1 X135.45 Y33.656 Z0 F800
G1 X135.43 Y33.736 Z0 F800
; --- FIX X Backlash ---
G0 X136.33 Y33.736 F1200
G1 X136.54 Y33.91 Z0 F800
G1 X136.771 Y34.016 Z0 F800
; --- FIX Y Backlash ---
G0 X136.771 Y33.116 F1200
G1 X136.925 Y32.921 Z0 F800
G1 X137.256 Y32.471 Z0 F800
G1 X137.548 Y32.009 Z0 F800
G1 X137.814 Y31.509 Z0 F800
G1 X138.069 Y30.949 Z0 F800
G1 X138.147 Y30.771 Z0 F800
G1 X138.191 Y30.676 Z0 F800
G1 X138.213 Y30.651 Z0 F800
G1 X138.221 Y30.677 Z0 F800
; --- FIX Y Backlash ---
G0 X138.221 Y31.577 F1200
G1 X138.213 Y31.701 Z0 F800
G1 X138.182 Y31.893 Z0 F800
G1 X138.137 Y32.109 Z0 F800
; --- FIX X Backlash ---
G0 X137.237 Y32.109 F1200
G1 X137.185 Y32.303 Z0 F800
G1 X137.083 Y32.598 Z0 F800
G1 X136.963 Y32.887 Z0 F800
G1 X136.828 Y33.159 Z0 F800
G1 X136.684 Y33.406 Z0 F800
G1 X136.441 Y33.751 Z0 F800
G1 X136.203 Y34.058 Z0 F800
G1 X136.165 Y34.112 Z0 F800
G1 X136.16 Y34.144 Z0 F800
; --- FIX X Backlash ---
G0 X137.06 Y34.144 F1200
G1 X137.135 Y34.153 Z0 F800
G0 Z3.5 F500
; --- FIX X Backlash ---
G0 X136.235 Y34.153 F1200
G0 X131.442 Y39.071 Z3.5
G1 Z0 F500
G1 X131.425 Y39.097 Z0 F800
G1 X131.388 Y39.171 Z0 F800
G1 X131.276 Y39.411 Z0 F800
G1 X130.918 Y40.216 Z0 F800
G1 X130.874 Y40.326 Z0 F800
G1 X130.769 Y40.559 Z0 F800
G1 X130.014 Y42.267 Z0 F800
G1 X129.683 Y43.023 Z0 F800
G1 X129.412 Y43.635 Z0 F800
G1 X129.039 Y44.489 Z0 F800
G1 X128.999 Y44.589 Z0 F800
G1 X128.915 Y44.777 Z0 F800
G1 X128.881 Y44.869 Z0 F800
G1 X128.757 Y45.149 Z0 F800
G1 X128.591 Y45.535 Z0 F800
G1 X128.109 Y46.669 Z0 F800
G1 X128.063 Y46.807 Z0 F800
G1 X128.057 Y46.905 Z0 F800
G1 X128.093 Y46.964 Z0 F800
; --- FIX X Backlash ---
G0 X128.993 Y46.964 F1200
G1 X129.07 Y46.984 Z0 F800
G1 X129.142 Y46.968 Z0 F800
; --- FIX Y Backlash ---
G0 X129.142 Y46.068 F1200
G1 X129.243 Y45.968 Z0 F800
G1 X129.323 Y45.864 Z0 F800
G1 X129.434 Y45.71 Z0 F800
G1 X130.156 Y44.672 Z0 F800
G1 X130.635 Y43.99 Z0 F800
G1 X130.971 Y43.507 Z0 F800
G1 X132.015 Y42.028 Z0 F800
G1 X133.1 Y40.504 Z0 F800
G1 X133.344 Y40.166 Z0 F800
G1 X133.442 Y40.026 Z0 F800
G1 X133.493 Y39.946 Z0 F800
G1 X133.508 Y39.909 Z0 F800
G1 X133.494 Y39.871 Z0 F800
; --- FIX X Backlash ---
G0 X132.594 Y39.871 F1200
G1 X132.536 Y39.779 Z0 F800
G1 X132.482 Y39.7 Z0 F800
G1 X131.941 Y38.928 Z0 F800
G1 X131.75 Y38.65 Z0 F800
G1 X131.612 Y38.441 Z0 F800
G1 X131.472 Y38.21 Z0 F800
G1 X131.442 Y38.171 Z0 F800
G0 Z3.5 F500
; --- FIX Y Backlash ---
G0 X131.442 Y39.071 F1200
G0 X130.697 Y44.064 Z3.5
G1 Z0 F500
G1 X130.65 Y44.117 Z0 F800
G1 X130.558 Y44.246 Z0 F800
G1 X130.461 Y44.39 Z0 F800
G1 X130.364 Y44.528 Z0 F800
G1 X129.863 Y45.258 Z0 F800
G1 X129.594 Y45.648 Z0 F800
G1 X129.503 Y45.786 Z0 F800
G1 X129.492 Y45.808 Z0 F800
; --- FIX X Backlash ---
G0 X130.392 Y45.808 F1200
G1 X130.782 Y46.007 Z0 F800
G1 X131.165 Y46.175 Z0 F800
G1 X131.225 Y46.15 Z0 F800
; --- FIX Y Backlash ---
G0 X131.225 Y45.25 F1200
G1 X131.31 Y45.152 Z0 F800
G1 X131.401 Y45.036 Z0 F800
G1 X131.575 Y44.82 Z0 F800
G1 X131.756 Y44.588 Z0 F800
G1 X131.831 Y44.499 Z0 F800
G1 X131.859 Y44.462 Z0 F800
G1 X131.892 Y44.432 Z0 F800
G1 X131.943 Y44.443 Z0 F800
; --- FIX Y Backlash ---
G0 X131.943 Y45.343 F1200
G1 X132.26 Y45.431 Z0 F800
G1 X132.591 Y45.497 Z0 F800
G1 X132.696 Y45.515 Z0 F800
G1 X132.739 Y45.546 Z0 F800
G1 X132.754 Y45.598 Z0 F800
G1 X132.781 Y45.714 Z0 F800
G1 X132.816 Y45.876 Z0 F800
G1 X132.897 Y46.269 Z0 F800
G1 X132.933 Y46.426 Z0 F800
G1 X132.961 Y46.531 Z0 F800
G1 X132.978 Y46.572 Z0 F800
G1 X133.045 Y46.579 Z0 F800
G1 X133.207 Y46.584 Z0 F800
G1 X133.44 Y46.588 Z0 F800
G1 X134.435 Z0 F800
G1 X134.464 Y46.545 Z0 F800
; --- FIX Y Backlash ---
G0 X134.464 Y45.645 F1200
G1 X134.494 Y45.562 Z0 F800
G1 X134.526 Y45.423 Z0 F800
G1 X134.685 Y44.615 Z0 F800
G1 X134.861 Y44.591 Z0 F800
G1 X135.061 Y44.553 Z0 F800
G1 X135.293 Y44.499 Z0 F800
G1 X135.549 Y44.432 Z0 F800
; --- FIX Y Backlash ---
G0 X135.549 Y45.332 F1200
G1 X135.88 Y45.752 Z0 F800
G1 X136.107 Y46.045 Z0 F800
G1 X136.179 Y46.128 Z0 F800
G1 X136.227 Y46.166 Z0 F800
G1 X136.266 Y46.175 Z0 F800
; --- FIX Y Backlash ---
G0 X136.266 Y45.275 F1200
G1 X136.675 Y45.094 Z0 F800
G1 X137.041 Y44.892 Z0 F800
G1 X137.033 Y44.87 Z0 F800
; --- FIX X Backlash ---
G0 X136.133 Y44.87 F1200
G1 X135.91 Y44.56 Z0 F800
G1 X135.345 Y43.741 Z0 F800
G1 X135.037 Y43.287 Z0 F800
G1 X134.972 Y43.2 Z0 F800
G1 X134.934 Y43.164 Z0 F800
G1 X134.879 Y43.182 Z0 F800
G1 X134.775 Y43.225 Z0 F800
; --- FIX Y Backlash ---
G0 X134.775 Y44.125 F1200
G1 X134.468 Y44.24 Z0 F800
G1 X134.11 Y44.345 Z0 F800
G1 X133.743 Y44.427 Z0 F800
G1 X133.409 Y44.477 Z0 F800
G1 X132.818 Y44.497 Z0 F800
G1 X132.22 Y44.468 Z0 F800
; --- FIX Y Backlash ---
G0 X132.22 Y43.568 F1200
G1 X131.85 Y43.513 Z0 F800
G1 X131.479 Y43.432 Z0 F800
G1 X131.13 Y43.331 Z0 F800
G1 X130.826 Y43.214 Z0 F800
G1 X130.741 Y43.178 Z0 F800
G1 X130.697 Y43.164 Z0 F800
G0 Z3.5 F500
; --- FIX Y Backlash ---
G0 X130.697 Y44.064 F1200
G0 X122.379 Y48.077 Z3.5
G1 Z0 F500
; --- FIX Y Backlash ---
G0 X122.379 Y47.177 F1200
G1 Y28.72 Z0 F800
; --- FIX X Backlash ---
G0 X123.279 Y28.72 F1200
G1 X143.772 Z0 F800
; --- FIX Y Backlash ---
G0 X143.772 Y29.62 F1200
G1 Y48.077 Z0 F800
; --- FIX X Backlash ---
G0 X142.872 Y48.077 F1200
G1 X122.379 Z0 F800
G0 Z3.5 F500
; --- FIX X Backlash ---
G0 X123.279 Y48.077 F1200
G0 X127.879 Y52.974 Z3.5
G1 Z0 F500
; --- FIX Y Backlash ---
G0 X127.879 Y52.074 F1200
G1 X133.012 Y50.79 Z0 F800
; --- FIX Y Backlash ---
G0 X133.012 Y51.69 F1200
G1 Y56.824 Z0 F800
; --- FIX X Backlash ---
G0 X132.112 Y56.824 F1200
; --- FIX Y Backlash ---
G0 X132.112 Y55.924 F1200
G1 X126.979 Y54.64 Z0 F800
G1 Y52.074 Z0 F800
G0 Z3.5 F500
; --- FIX Y Backlash ---
G0 X126.979 Y52.974 F1200
G0 X126.465 Y54.257 Z3.5
G1 Z0 F500
; --- FIX X Backlash ---
G0 X127.365 Y54.257 F1200
G1 X139.685 Z0 F800
G0 Z3.5 F500
; --- FIX X Backlash ---
G0 X138.785 Y54.257 F1200
G0 X136.989 Z3.5
G1 Z0 F500
G1 X136.963 Y54.516 Z0 F800
G1 X136.888 Y54.757 Z0 F800
G1 X136.769 Y54.975 Z0 F800
G1 X136.613 Y55.164 Z0 F800
G1 X136.423 Y55.321 Z0 F800
G1 X136.205 Y55.44 Z0 F800
G1 X135.964 Y55.514 Z0 F800
G1 X135.705 Y55.54 Z0 F800
G1 X135.447 Y55.514 Z0 F800
; --- FIX Y Backlash ---
G0 X135.447 Y54.614 F1200
G1 X135.206 Y54.54 Z0 F800
G1 X134.988 Y54.421 Z0 F800
G1 X134.798 Y54.264 Z0 F800
G1 X134.641 Y54.075 Z0 F800
G1 X134.523 Y53.857 Z0 F800
G1 X134.448 Y53.616 Z0 F800
G1 X134.422 Y53.357 Z0 F800
G1 X134.448 Y53.098 Z0 F800
; --- FIX X Backlash ---
G0 X135.348 Y53.098 F1200
G1 X135.423 Y52.857 Z0 F800
G1 X135.541 Y52.64 Z0 F800
G1 X135.698 Y52.45 Z0 F800
G1 X135.888 Y52.293 Z0 F800
G1 X136.106 Y52.175 Z0 F800
G1 X136.347 Y52.1 Z0 F800
G1 X136.605 Y52.074 Z0 F800
G1 X136.864 Y52.1 Z0 F800
; --- FIX Y Backlash ---
G0 X136.864 Y53 F1200
G1 X137.105 Y53.075 Z0 F800
G1 X137.323 Y53.193 Z0 F800
G1 X137.513 Y53.35 Z0 F800
G1 X137.669 Y53.54 Z0 F800
G1 X137.788 Y53.757 Z0 F800
G1 X137.863 Y53.998 Z0 F800
G1 X137.889 Y54.257 Z0 F800
G0 Z3.5 F500
G0 X139.172 Z3.5
G1 Z0 F500
G1 X139.159 Y54.519 Z0 F800
G1 X139.12 Y54.774 Z0 F800
; --- FIX X Backlash ---
G0 X138.22 Y54.774 F1200
G1 X138.157 Y55.02 Z0 F800
G1 X138.07 Y55.256 Z0 F800
G1 X137.834 Y55.692 Z0 F800
G1 X137.52 Y56.072 Z0 F800
G1 X137.14 Y56.385 Z0 F800
G1 X136.704 Y56.622 Z0 F800
G1 X136.469 Y56.708 Z0 F800
G1 X136.223 Y56.772 Z0 F800
G1 X135.968 Y56.81 Z0 F800
G1 X135.705 Y56.824 Z0 F800
G1 X135.443 Y56.81 Z0 F800
G1 X135.188 Y56.772 Z0 F800
; --- FIX Y Backlash ---
G0 X135.188 Y55.872 F1200
G1 X134.942 Y55.808 Z0 F800
G1 X134.706 Y55.722 Z0 F800
G1 X134.27 Y55.485 Z0 F800
G1 X133.89 Y55.172 Z0 F800
G1 X133.577 Y54.792 Z0 F800
G1 X133.34 Y54.356 Z0 F800
G1 X133.254 Y54.12 Z0 F800
G1 X133.191 Y53.874 Z0 F800
G1 X133.152 Y53.619 Z0 F800
G1 X133.139 Y53.357 Z0 F800
G1 X133.152 Y53.095 Z0 F800
G1 X133.191 Y52.84 Z0 F800
; --- FIX X Backlash ---
G0 X134.091 Y52.84 F1200
G1 X134.154 Y52.594 Z0 F800
G1 X134.24 Y52.358 Z0 F800
G1 X134.477 Y51.922 Z0 F800
G1 X134.79 Y51.542 Z0 F800
G1 X135.17 Y51.229 Z0 F800
G1 X135.606 Y50.992 Z0 F800
G1 X135.842 Y50.906 Z0 F800
G1 X136.088 Y50.843 Z0 F800
G1 X136.343 Y50.804 Z0 F800
G1 X136.605 Y50.79 Z0 F800
G1 X136.868 Y50.804 Z0 F800
G1 X137.123 Y50.843 Z0 F800
; --- FIX Y Backlash ---
G0 X137.123 Y51.743 F1200
G1 X137.369 Y51.806 Z0 F800
G1 X137.604 Y51.892 Z0 F800
G1 X138.04 Y52.129 Z0 F800
G1 X138.42 Y52.442 Z0 F800
G1 X138.734 Y52.822 Z0 F800
G1 X138.97 Y53.258 Z0 F800
G1 X139.057 Y53.494 Z0 F800
G1 X139.12 Y53.74 Z0 F800
G1 X139.159 Y53.995 Z0 F800
G1 X139.172 Y54.257 Z0 F800
G0 Z3.5 F500
; --- FIX Y Backlash ---
G0 X139.172 Y53.357 F1200
G0 X143.792 Y51.817 Z3.5
G1 Z0 F500
G1 X146.359 Z0 F800
G0 Z3.5 F500
; --- FIX X Backlash ---
G0 X145.459 Y51.817 F1200
G0 X135.705 Y50.277 Z3.5
G1 Z0 F500
; --- FIX Y Backlash ---
G0 X135.705 Y51.177 F1200
G1 Y57.337 Z0 F800
G0 Z3.5 F500
; --- FIX X Backlash ---
G0 X136.605 Y57.337 F1200
G0 X145.011 Y64.903 Z3.5
G1 Z0 F500
; --- FIX X Backlash ---
G0 X144.111 Y64.903 F1200
G1 X144.002 Y64.96 Z0 F800
G1 X143.908 Y65.04 Z0 F800
G1 X143.833 Y65.139 Z0 F800
G1 X143.78 Y65.255 Z0 F800
G1 X143.748 Y65.387 Z0 F800
G1 X143.737 Y65.537 Z0 F800
G1 X143.748 Y65.686 Z0 F800
G1 X143.78 Y65.819 Z0 F800
; --- FIX X Backlash ---
G0 X144.68 Y65.819 F1200
G1 X144.733 Y65.935 Z0 F800
G1 X144.808 Y66.034 Z0 F800
G1 X144.902 Y66.114 Z0 F800
G1 X145.011 Y66.171 Z0 F800
G1 X145.136 Y66.205 Z0 F800
G1 X145.277 Y66.217 Z0 F800
G1 X145.391 Y66.209 Z0 F800
G1 X145.498 Y66.185 Z0 F800
G1 X145.599 Y66.146 Z0 F800
; --- FIX Y Backlash ---
G0 X145.599 Y65.246 F1200
G1 X145.693 Y65.192 Z0 F800
G1 Y65.005 Z0 F800
; --- FIX X Backlash ---
G0 X144.793 Y65.005 F1200
; --- FIX Y Backlash ---
G0 X144.793 Y65.905 F1200
G1 X144.701 Y65.978 Z0 F800
G1 X144.603 Y66.03 Z0 F800
G1 X144.498 Y66.061 Z0 F800
G1 X144.387 Y66.071 Z0 F800
G1 X144.282 Y66.062 Z0 F800
G1 X144.189 Y66.037 Z0 F800
G1 X144.11 Y65.994 Z0 F800
; --- FIX Y Backlash ---
G0 X144.11 Y65.094 F1200
G1 X144.043 Y65.034 Z0 F800
G1 X143.954 Y64.866 Z0 F800
G1 X143.924 Y64.637 Z0 F800
G1 X143.954 Y64.408 Z0 F800
; --- FIX X Backlash ---
G0 X144.854 Y64.408 F1200
G1 X144.943 Y64.24 Z0 F800
G1 X145.01 Y64.18 Z0 F800
G1 X145.089 Y64.138 Z0 F800
G1 X145.182 Y64.112 Z0 F800
G1 X145.287 Y64.103 Z0 F800
G1 X145.398 Y64.114 Z0 F800
G1 X145.503 Y64.144 Z0 F800
; --- FIX Y Backlash ---
G0 X145.503 Y65.044 F1200
G1 X145.601 Y65.096 Z0 F800
G1 X145.693 Y65.169 Z0 F800
; --- FIX Y Backlash ---
G0 X145.693 Y64.269 F1200
G1 Y64.084 Z0 F800
; --- FIX X Backlash ---
G0 X144.793 Y64.084 F1200
G1 X144.698 Y64.029 Z0 F800
G1 X144.597 Y63.989 Z0 F800
G1 X144.49 Y63.965 Z0 F800
G1 X144.377 Y63.958 Z0 F800
G1 X144.236 Y63.969 Z0 F800
G1 X144.111 Y64.003 Z0 F800
G0 Z3.5 F500
; --- FIX X Backlash ---
G0 X145.011 Y64.003 F1200
; --- FIX Y Backlash ---
G0 X145.011 Y64.903 F1200
G0 X146.359 Y78.384 Z3.5
G1 Z0 F500
; --- FIX X Backlash ---
G0 X145.459 Y78.384 F1200
G1 X140.325 Z0 F800
G0 Z3.5 F500
; --- FIX X Backlash ---
G0 X141.225 Y78.384 F1200
G0 X144.953 Y90.695 Z3.5
G1 Z0 F500
G1 X145.237 Z0 F800
G1 X145.361 Y90.71 Z0 F800
G1 X145.449 Y90.755 Z0 F800
G1 X145.501 Y90.83 Z0 F800
G1 X145.518 Y90.936 Z0 F800
G1 X145.501 Y91.043 Z0 F800
; --- FIX X Backlash ---
G0 X144.601 Y91.043 F1200
G1 X144.549 Y91.117 Z0 F800
G1 X144.461 Y91.161 Z0 F800
G1 X144.337 Y91.175 Z0 F800
G1 X144.053 Z0 F800
; --- FIX Y Backlash ---
G0 X144.053 Y90.275 F1200
G1 Y89.795 Z0 F800
G0 Z3.5 F500
; --- FIX Y Backlash ---
G0 X144.053 Y90.695 F1200
G0 Y91.319 Z3.5
G1 Z0 F500
; --- FIX X Backlash ---
G0 X144.953 Y91.319 F1200
G1 X145.215 Z0 F800
G1 X145.328 Y91.331 Z0 F800
G1 X145.408 Y91.368 Z0 F800
G1 X145.456 Y91.429 Z0 F800
G1 X145.472 Y91.517 Z0 F800
G1 X145.456 Y91.603 Z0 F800
G1 X145.408 Y91.665 Z0 F800
; --- FIX X Backlash ---
G0 X144.508 Y91.665 F1200
G1 X144.428 Y91.702 Z0 F800
G1 X144.315 Y91.714 Z0 F800
G1 X144.053 Z0 F800
; --- FIX Y Backlash ---
G0 X144.053 Y90.814 F1200
G1 Y90.419 Z0 F800
G0 Z3.5 F500
; --- FIX X Backlash ---
G0 X144.953 Y90.419 F1200
G0 X145.429 Y90.356 Z3.5
G1 Z0 F500
G1 X145.545 Y90.313 Z0 F800
G1 X145.632 Y90.239 Z0 F800
G1 X145.687 Y90.139 Z0 F800
G1 X145.705 Y90.016 Z0 F800
G1 X145.675 Y89.861 Z0 F800
; --- FIX X Backlash ---
G0 X144.775 Y89.861 F1200
G1 X144.685 Y89.745 Z0 F800
G1 X144.541 Y89.674 Z0 F800
G1 X144.346 Y89.65 Z0 F800
G1 X143.875 Z0 F800
; --- FIX Y Backlash ---
G0 X143.875 Y90.55 F1200
G1 Y91.86 Z0 F800
; --- FIX X Backlash ---
G0 X144.775 Y91.86 F1200
G1 X145.228 Z0 F800
G1 X145.408 Y91.839 Z0 F800
; --- FIX Y Backlash ---
G0 X145.408 Y90.939 F1200
G1 X145.541 Y90.875 Z0 F800
G1 X145.623 Y90.773 Z0 F800
G1 X145.65 Y90.636 Z0 F800
G1 X145.636 Y90.528 Z0 F800
G1 X145.594 Y90.445 Z0 F800
; --- FIX X Backlash ---
G0 X144.694 Y90.445 F1200
G1 X144.625 Y90.387 Z0 F800
G1 X144.529 Y90.356 Z0 F800
G0 Z3.5 F500
; --- FIX Y Backlash ---
G0 X144.529 Y91.256 F1200
G0 X130.983 Y99.184 Z3.5
G1 Z0 F500
G1 X130.731 Y99.253 Z0 F800
G1 X130.49 Y99.352 Z0 F800
G1 X130.384 Y99.409 Z0 F800
G1 X130.284 Y99.474 Z0 F800
G1 X130.197 Y99.542 Z0 F800
G1 X130.122 Y99.622 Z0 F800
G0 Z3.5 F500
G0 Z3.5 
G1 Z0 F500
G1 X129.787 Y100.12 Z0 F800
G0 Z3.5 F500
G0 Z3.5 
G1 Z0 F500
; --- FIX Y Backlash ---
G0 X129.787 Y99.22 F1200
G1 X129.154 Y98.903 Z0 F800
G0 Z3.5 F500
G0 Z3.5 
G1 Z0 F500
; --- FIX X Backlash ---
G0 X130.054 Y98.903 F1200
G1 X130.251 Y98.337 Z0 F800
G0 Z3.5 F500
G0 Z3.5 
G1 Z0 F500
G1 X130.269 Y98.228 Z0 F800
G1 X130.272 Y98.118 Z0 F800
G1 X130.263 Y97.999 Z0 F800
G1 X130.245 Y97.881 Z0 F800
; --- FIX X Backlash ---
G0 X129.345 Y97.881 F1200
G1 X129.279 Y97.628 Z0 F800
G1 X129.184 Y97.385 Z0 F800
G0 Z3.5 F500
G0 Z3.5 
G1 Z0 F500
G1 X128.795 Y97.315 Z0 F800
G0 Z3.5 F500
G0 Z3.5 
G1 Z0 F500
; --- FIX Y Backlash ---
G0 X128.795 Y98.215 F1200
G1 X128.621 Y98.41 Z0 F800
G1 X128.471 Y98.624 Z0 F800
G1 X128.413 Y98.728 Z0 F800
G1 X128.364 Y98.837 Z0 F800
G1 X128.328 Y98.941 Z0 F800
G1 X128.307 Y99.049 Z0 F800
G0 Z3.5 F500
G0 Z3.5 
G1 Z0 F500
G1 X128.295 Y99.649 Z0 F800
G0 Z3.5 F500
G0 Z3.5 
G1 Z0 F500
G1 X127.591 Y99.725 Z0 F800
G0 Z3.5 F500
G0 Z3.5 
G1 Z0 F500
; --- FIX Y Backlash ---
G0 X127.591 Y98.825 F1200
G1 X127.451 Y98.242 Z0 F800
G0 Z3.5 F500
G0 Z3.5 
G1 Z0 F500
G1 X127.407 Y98.141 Z0 F800
G1 X127.35 Y98.047 Z0 F800
G1 X127.278 Y97.951 Z0 F800
G1 X127.199 Y97.861 Z0 F800
G1 X127.007 Y97.684 Z0 F800
G1 X126.796 Y97.532 Z0 F800
G0 Z3.5 F500
G0 Z3.5 
G1 Z0 F500
; --- FIX Y Backlash ---
G0 X126.796 Y98.432 F1200
G1 X126.43 Y98.583 Z0 F800
G0 Z3.5 F500
G0 Z3.5 
G1 Z0 F500
G1 X126.389 Y98.841 Z0 F800
G1 X126.379 Y99.102 Z0 F800
G1 X126.387 Y99.221 Z0 F800
G1 X126.404 Y99.34 Z0 F800
G1 X126.43 Y99.447 Z0 F800
G1 X126.471 Y99.549 Z0 F800
G0 Z3.5 F500
G0 Z3.5 
G1 Z0 F500
; --- FIX X Backlash ---
G0 X127.371 Y99.549 F1200
G1 X127.685 Y100.06 Z0 F800
G0 Z3.5 F500
G0 Z3.5 
G1 Z0 F500
; --- FIX X Backlash ---
G0 X126.785 Y100.06 F1200
G1 X126.234 Y100.505 Z0 F800
G0 Z3.5 F500
G0 Z3.5 
G1 Z0 F500
; --- FIX Y Backlash ---
G0 X126.234 Y99.605 F1200
G1 X125.801 Y99.19 Z0 F800
G0 Z3.5 F500
G0 Z3.5 
G1 Z0 F500
G1 X125.71 Y99.128 Z0 F800
G1 X125.611 Y99.08 Z0 F800
G1 X125.499 Y99.038 Z0 F800
G1 X125.384 Y99.005 Z0 F800
G1 X125.126 Y98.96 Z0 F800
G1 X124.866 Y98.946 Z0 F800
G0 Z3.5 F500
G0 Z3.5 
G1 Z0 F500
; --- FIX Y Backlash ---
G0 X124.866 Y99.846 F1200
G1 X124.64 Y100.171 Z0 F800
G0 Z3.5 F500
G0 Z3.5 
G1 Z0 F500
; --- FIX X Backlash ---
G0 X125.54 Y100.171 F1200
G1 X125.645 Y100.41 Z0 F800
G1 X125.778 Y100.635 Z0 F800
G1 X125.849 Y100.732 Z0 F800
G1 X125.927 Y100.822 Z0 F800
G1 X126.007 Y100.898 Z0 F800
G1 X126.097 Y100.961 Z0 F800
G0 Z3.5 F500
G0 Z3.5 
G1 Z0 F500
G1 X126.637 Y101.222 Z0 F800
G0 Z3.5 F500
G0 Z3.5 
G1 Z0 F500
; --- FIX X Backlash ---
G0 X125.737 Y101.222 F1200
G1 X125.514 Y101.894 Z0 F800
G0 Z3.5 F500
G0 Z3.5 
G1 Z0 F500
; --- FIX Y Backlash ---
G0 X125.514 Y100.994 F1200
G1 X124.925 Y100.879 Z0 F800
G0 Z3.5 F500
G0 Z3.5 
G1 Z0 F500
G1 X124.815 Y100.876 Z0 F800
G1 X124.706 Y100.89 Z0 F800
G1 X124.589 Y100.915 Z0 F800
G1 X124.475 Y100.95 Z0 F800
; --- FIX Y Backlash ---
G0 X124.475 Y101.85 F1200
G1 X124.234 Y101.951 Z0 F800
G1 X124.007 Y102.08 Z0 F800
G0 Z3.5 F500
G0 Z3.5 
G1 Z0 F500
G1 X123.993 Y102.475 Z0 F800
G0 Z3.5 F500
G0 Z3.5 
G1 Z0 F500
; --- FIX X Backlash ---
G0 X124.893 Y102.475 F1200
G1 X125.111 Y102.619 Z0 F800
G1 X125.344 Y102.737 Z0 F800
G1 X125.455 Y102.78 Z0 F800
G1 X125.57 Y102.813 Z0 F800
G1 X125.679 Y102.834 Z0 F800
G1 X125.788 Y102.839 Z0 F800
G0 Z3.5 F500
G0 Z3.5 
G1 Z0 F500
; --- FIX Y Backlash ---
G0 X125.788 Y101.939 F1200
G1 X126.384 Y101.865 Z0 F800
G0 Z3.5 F500
G0 Z3.5 
G1 Z0 F500
; --- FIX Y Backlash ---
G0 X126.384 Y102.765 F1200
G1 X126.56 Y103.452 Z0 F800
G0 Z3.5 F500
G0 Z3.5 
G1 Z0 F500
; --- FIX X Backlash ---
G0 X125.66 Y103.452 F1200
G1 X125.102 Y103.673 Z0 F800
G0 Z3.5 F500
G0 Z3.5 
G1 Z0 F500
G1 X125.008 Y103.731 Z0 F800
G1 X124.923 Y103.801 Z0 F800
G1 X124.839 Y103.885 Z0 F800
G1 X124.761 Y103.976 Z0 F800
G1 X124.613 Y104.192 Z0 F800
G1 X124.492 Y104.423 Z0 F800
G0 Z3.5 F500
G0 Z3.5 
G1 Z0 F500
; --- FIX X Backlash ---
G0 X125.392 Y104.423 F1200
G1 X125.594 Y104.763 Z0 F800
G0 Z3.5 F500
G0 Z3.5 
G1 Z0 F500
G1 X125.855 Y104.767 Z0 F800
G1 X126.115 Y104.74 Z0 F800
G1 X126.232 Y104.715 Z0 F800
G1 X126.347 Y104.681 Z0 F800
G1 X126.449 Y104.64 Z0 F800
; --- FIX Y Backlash ---
G0 X126.449 Y103.74 F1200
G1 X126.544 Y103.685 Z0 F800
G0 Z3.5 F500
G0 Z3.5 
G1 Z0 F500
G1 X127.005 Y103.301 Z0 F800
G0 Z3.5 F500
G0 Z3.5 
G1 Z0 F500
; --- FIX Y Backlash ---
G0 X127.005 Y104.201 F1200
G1 X127.524 Y104.684 Z0 F800
G0 Z3.5 F500
G0 Z3.5 
G1 Z0 F500
; --- FIX X Backlash ---
G0 X126.624 Y104.684 F1200
G1 X126.275 Y105.171 Z0 F800
G0 Z3.5 F500
G0 Z3.5 
G1 Z0 F500
G1 X126.227 Y105.27 Z0 F800
G1 X126.193 Y105.375 Z0 F800
G1 X126.168 Y105.492 Z0 F800
G1 X126.152 Y105.611 Z0 F800
G1 X126.144 Y105.872 Z0 F800
G1 X126.167 Y106.132 Z0 F800
G0 Z3.5 F500
G0 Z3.5 
G1 Z0 F500
; --- FIX X Backlash ---
G0 X127.067 Y106.132 F1200
G1 X127.421 Y106.309 Z0 F800
G0 Z3.5 F500
G0 Z3.5 
G1 Z0 F500
; --- FIX Y Backlash ---
G0 X127.421 Y105.409 F1200
G1 X127.642 Y105.271 Z0 F800
G1 X127.846 Y105.108 Z0 F800
G1 X127.931 Y105.024 Z0 F800
G1 X128.01 Y104.933 Z0 F800
G1 X128.073 Y104.843 Z0 F800
G1 X128.124 Y104.745 Z0 F800
G0 Z3.5 F500
G0 Z3.5 
G1 Z0 F500
G1 X128.304 Y104.173 Z0 F800
G0 Z3.5 F500
G0 Z3.5 
G1 Z0 F500
; --- FIX Y Backlash ---
G0 X128.304 Y105.073 F1200
G1 X129.001 Y105.199 Z0 F800
G0 Z3.5 F500
G0 Z3.5 
G1 Z0 F500
G1 X128.971 Y105.798 Z0 F800
G0 Z3.5 F500
G0 Z3.5 
G1 Z0 F500
G1 X128.985 Y105.907 Z0 F800
G1 X129.013 Y106.013 Z0 F800
G1 X129.055 Y106.125 Z0 F800
G1 X129.106 Y106.234 Z0 F800
G1 X129.24 Y106.458 Z0 F800
G1 X129.4 Y106.664 Z0 F800
G0 Z3.5 F500
G0 Z3.5 
G1 Z0 F500
G1 X129.793 Y106.621 Z0 F800
G0 Z3.5 F500
G0 Z3.5 
G1 Z0 F500
; --- FIX Y Backlash ---
G0 X129.793 Y105.721 F1200
G1 X129.905 Y105.486 Z0 F800
G1 X129.988 Y105.238 Z0 F800
G1 X130.014 Y105.122 Z0 F800
G1 X130.031 Y105.003 Z0 F800
G1 X130.036 Y104.893 Z0 F800
G1 X130.026 Y104.784 Z0 F800
G0 Z3.5 F500
G0 Z3.5 
G1 Z0 F500
; --- FIX X Backlash ---
G0 X129.126 Y104.784 F1200
G1 X128.968 Y104.205 Z0 F800
G0 Z3.5 F500
G0 Z3.5 
G1 Z0 F500
; --- FIX X Backlash ---
G0 X129.868 Y104.205 F1200
G1 X130.523 Y103.933 Z0 F800
G0 Z3.5 F500
G0 Z3.5 
G1 Z0 F500
; --- FIX Y Backlash ---
G0 X130.523 Y104.833 F1200
G1 X130.821 Y105.353 Z0 F800
G0 Z3.5 F500
G0 Z3.5 
G1 Z0 F500
G1 X130.891 Y105.438 Z0 F800
G1 X130.973 Y105.512 Z0 F800
G1 X131.069 Y105.584 Z0 F800
G1 X131.17 Y105.648 Z0 F800
G1 X131.404 Y105.763 Z0 F800
G1 X131.65 Y105.85 Z0 F800
G0 Z3.5 F500
G0 Z3.5 
G1 Z0 F500
; --- FIX Y Backlash ---
G0 X131.65 Y104.95 F1200
G1 X131.958 Y104.702 Z0 F800
G0 Z3.5 F500
G0 Z3.5 
G1 Z0 F500
G1 X131.925 Y104.443 Z0 F800
; --- FIX X Backlash ---
G0 X131.025 Y104.443 F1200
G1 X130.961 Y104.19 Z0 F800
G1 X130.92 Y104.078 Z0 F800
G1 X130.87 Y103.969 Z0 F800
G1 X130.815 Y103.873 Z0 F800
G1 X130.747 Y103.787 Z0 F800
G0 Z3.5 F500
G0 Z3.5 
G1 Z0 F500
G1 X130.301 Y103.385 Z0 F800
G0 Z3.5 F500
G0 Z3.5 
G1 Z0 F500
; --- FIX X Backlash ---
G0 X131.201 Y103.385 F1200
G1 X131.605 Y102.803 Z0 F800
G0 Z3.5 F500
G0 Z3.5 
G1 Z0 F500
; --- FIX Y Backlash ---
G0 X131.605 Y103.703 F1200
G1 X132.137 Y103.979 Z0 F800
G0 Z3.5 F500
G0 Z3.5 
G1 Z0 F500
G1 X132.242 Y104.013 Z0 F800
G1 X132.351 Y104.031 Z0 F800
G1 X132.47 Y104.039 Z0 F800
G1 X132.59 Z0 F800
G1 X132.849 Y104.009 Z0 F800
; --- FIX Y Backlash ---
G0 X132.849 Y103.109 F1200
G1 X133.103 Y103.049 Z0 F800
G0 Z3.5 F500
G0 Z3.5 
G1 Z0 F500
G1 X133.228 Y102.674 Z0 F800
G0 Z3.5 F500
G0 Z3.5 
G1 Z0 F500
; --- FIX X Backlash ---
G0 X132.328 Y102.674 F1200
G1 X132.16 Y102.474 Z0 F800
G1 X131.97 Y102.296 Z0 F800
G1 X131.874 Y102.223 Z0 F800
G1 X131.773 Y102.159 Z0 F800
G1 X131.676 Y102.108 Z0 F800
G1 X131.572 Y102.073 Z0 F800
G0 Z3.5 F500
G0 Z3.5 
G1 Z0 F500
G1 X130.98 Y101.975 Z0 F800
G0 Z3.5 F500
G0 Z3.5 
G1 Z0 F500
G1 X131.004 Y101.267 Z0 F800
G0 Z3.5 F500
G0 Z3.5 
G1 Z0 F500
; --- FIX X Backlash ---
G0 X131.904 Y101.267 F1200
G1 X132.502 Y101.212 Z0 F800
G0 Z3.5 F500
G0 Z3.5 
G1 Z0 F500
G1 X132.608 Y101.183 Z0 F800
G1 X132.709 Y101.14 Z0 F800
G1 X132.814 Y101.082 Z0 F800
G1 X132.914 Y101.017 Z0 F800
G1 X133.117 Y100.852 Z0 F800
G1 X133.298 Y100.665 Z0 F800
G0 Z3.5 F500
G0 Z3.5 
G1 Z0 F500
; --- FIX X Backlash ---
G0 X132.398 Y100.665 F1200
G1 X132.3 Y100.281 Z0 F800
G0 Z3.5 F500
G0 Z3.5 
G1 Z0 F500
G1 X132.051 Y100.204 Z0 F800
G1 X131.794 Y100.157 Z0 F800
G1 X131.675 Y100.147 Z0 F800
G1 X131.555 Z0 F800
G1 X131.445 Y100.158 Z0 F800
G1 X131.339 Y100.184 Z0 F800
G0 Z3.5 F500
G0 Z3.5 
G1 Z0 F500
; --- FIX Y Backlash ---
G0 X131.339 Y101.084 F1200
G1 X130.788 Y101.323 Z0 F800
G0 Z3.5 F500
G0 Z3.5 
G1 Z0 F500
; --- FIX Y Backlash ---
G0 X130.788 Y100.423 F1200
G1 X130.426 Y99.814 Z0 F800
G0 Z3.5 F500
G0 Z3.5 
G1 Z0 F500
; --- FIX X Backlash ---
G0 X131.326 Y99.814 F1200
G1 X131.798 Y99.444 Z0 F800
G0 Z3.5 F500
G0 Z3.5 
G1 Z0 F500
G1 X131.872 Y99.362 Z0 F800
G1 X131.934 Y99.271 Z0 F800
G1 X131.991 Y99.166 Z0 F800
G1 X132.04 Y99.057 Z0 F800
G1 X132.121 Y98.809 Z0 F800
G1 X132.173 Y98.553 Z0 F800
G0 Z3.5 F500
G0 Z3.5 
G1 Z0 F500
; --- FIX X Backlash ---
G0 X131.273 Y98.553 F1200
G1 X130.983 Y98.284 Z0 F800
G0 Z3.5 F500
; --- FIX Y Backlash ---
G0 X130.983 Y99.184 F1200
G0 X129.346 Y101.591 Z3.5
G1 Z0 F500
; --- FIX Y Backlash ---
G0 X129.346 Y100.691 F1200
G1 X127.194 Y100.616 Z0 F800
G0 Z3.5 F500
G0 Z3.5 
G1 Z0 F500
; --- FIX Y Backlash ---
G0 X127.194 Y101.516 F1200
G1 X127.052 Y101.711 Z0 F800
G1 X126.948 Y101.923 Z0 F800
G1 X126.882 Y102.147 Z0 F800
G1 X126.854 Y102.377 Z0 F800
G1 X126.866 Y102.608 Z0 F800
G1 X126.916 Y102.836 Z0 F800
; --- FIX X Backlash ---
G0 X127.816 Y102.836 F1200
G1 X127.905 Y103.055 Z0 F800
G1 X128.033 Y103.26 Z0 F800
G0 Z3.5 F500
G0 Z3.5 
G1 Z0 F500
G1 X130.185 Y103.335 Z0 F800
G0 Z3.5 F500
G0 Z3.5 
G1 Z0 F500
; --- FIX Y Backlash ---
G0 X130.185 Y102.435 F1200
G1 X130.327 Y102.24 Z0 F800
G1 X130.432 Y102.028 Z0 F800
G1 X130.497 Y101.804 Z0 F800
G1 X130.525 Y101.574 Z0 F800
G1 X130.513 Y101.342 Z0 F800
; --- FIX X Backlash ---
G0 X129.613 Y101.342 F1200
G1 X129.563 Y101.114 Z0 F800
G1 X129.474 Y100.896 Z0 F800
G1 X129.346 Y100.691 Z0 F800
G0 Z3.5 F500
; --- FIX Y Backlash ---
G0 X129.346 Y101.591 F1200
G0 X129.136 Y109.538 Z3.5
G1 Z0 F500
G1 X128.893 Z0 F800
G0 Z3.5 F500
G0 Z3.5 
G1 Z0 F500
G1 X128.5 Z0 F800
G0 Z3.5 F500
G0 Z3.5 
G1 Z0 F500
G1 X128.071 Z0 F800
G0 Z3.5 F500
G0 Z3.5 
G1 Z0 F500
G1 X127.404 Z0 F800
G0 Z3.5 F500
G0 Z3.5 
G1 Z0 F500
G1 X127.224 Z0 F800
G0 Z3.5 F500
G0 Z3.5 
G1 Z0 F500
G1 X126.521 Z0 F800
G0 Z3.5 F500
G0 Z3.5 
G1 Z0 F500
G1 X126.167 Z0 F800
G0 Z3.5 F500
G0 Z3.5 
G1 Z0 F500
G1 X126.143 Z0 F800
G0 Z3.5 F500
G0 Z3.5 
G1 Z0 F500
G1 X126.105 Z0 F800
G0 Z3.5 F500
G0 Z3.5 
G1 Z0 F500
G1 X125.644 Z0 F800
G0 Z3.5 F500
G0 Z3.5 
G1 Z0 F500
G1 X124.694 Z0 F800
G0 Z3.5 F500
G0 Z3.5 
G1 Z0 F500
G1 X124.492 Z0 F800
G0 Z3.5 F500
G0 Z3.5 
G1 Z0 F500
G1 X123.993 Z0 F800
G0 Z3.5 F500
G0 Z3.5 
G1 Z0 F500
G1 Y112.104 Z0 F800
G0 Z3.5 F500
G0 Z3.5 
G1 Z0 F500
; --- FIX X Backlash ---
G0 X124.893 Y112.104 F1200
G1 X125.392 Z0 F800
G0 Z3.5 F500
G0 Z3.5 
G1 Z0 F500
G1 X125.594 Z0 F800
G0 Z3.5 F500
G0 Z3.5 
G1 Z0 F500
G1 X126.544 Z0 F800
G0 Z3.5 F500
G0 Z3.5 
G1 Z0 F500
G1 X127.005 Z0 F800
G0 Z3.5 F500
G0 Z3.5 
G1 Z0 F500
G1 X127.043 Z0 F800
G0 Z3.5 F500
G0 Z3.5 
G1 Z0 F500
G1 X127.067 Z0 F800
G0 Z3.5 F500
G0 Z3.5 
G1 Z0 F500
G1 X127.421 Z0 F800
G0 Z3.5 F500
G0 Z3.5 
G1 Z0 F500
G1 X128.124 Z0 F800
G0 Z3.5 F500
G0 Z3.5 
G1 Z0 F500
G1 X128.304 Z0 F800
G0 Z3.5 F500
G0 Z3.5 
G1 Z0 F500
G1 X128.971 Z0 F800
G0 Z3.5 F500
G0 Z3.5 
G1 Z0 F500
G1 X129.4 Z0 F800
G0 Z3.5 F500
G0 Z3.5 
G1 Z0 F500
G1 X129.793 Z0 F800
G0 Z3.5 F500
G0 Z3.5 
G1 Z0 F500
G1 X130.036 Z0 F800
G0 Z3.5 F500
G0 Z3.5 
G1 Z0 F500
G1 X130.523 Z0 F800
G0 Z3.5 F500
G0 Z3.5 
G1 Z0 F500
G1 X130.821 Z0 F800
G0 Z3.5 F500
G0 Z3.5 
G1 Z0 F500
G1 X131.65 Z0 F800
G0 Z3.5 F500
G0 Z3.5 
G1 Z0 F500
G1 X131.958 Z0 F800
G0 Z3.5 F500
G0 Z3.5 
G1 Z0 F500
G1 X132.137 Z0 F800
G0 Z3.5 F500
G0 Z3.5 
G1 Z0 F500
G1 X133.103 Z0 F800
G0 Z3.5 F500
G0 Z3.5 
G1 Z0 F500
G1 X133.228 Z0 F800
G0 Z3.5 F500
G0 Z3.5 
G1 Z0 F500
G1 X133.298 Z0 F800
G0 Z3.5 F500
G0 Z3.5 
G1 Z0 F500
; --- FIX Y Backlash ---
G0 X133.298 Y111.204 F1200
G1 Y108.638 Z0 F800
G0 Z3.5 F500
G0 Z3.5 
G1 Z0 F500
; --- FIX X Backlash ---
G0 X132.398 Y108.638 F1200
G1 X132.328 Z0 F800
G0 Z3.5 F500
G0 Z3.5 
G1 Z0 F500
G1 X132.203 Z0 F800
G0 Z3.5 F500
G0 Z3.5 
G1 Z0 F500
G1 X131.237 Z0 F800
G0 Z3.5 F500
G0 Z3.5 
G1 Z0 F500
G1 X131.058 Z0 F800
G0 Z3.5 F500
G0 Z3.5 
G1 Z0 F500
G1 X130.75 Z0 F800
G0 Z3.5 F500
G0 Z3.5 
G1 Z0 F500
G1 X129.921 Z0 F800
G0 Z3.5 F500
G0 Z3.5 
G1 Z0 F500
G1 X129.623 Z0 F800
G0 Z3.5 F500
G0 Z3.5 
G1 Z0 F500
G1 X129.136 Z0 F800
G0 Z3.5 F500
G0 Z3.5 
G1 Z0 F500
; --- FIX Y Backlash ---
G0 X129.136 Y109.538 F1200
G1 Y112.104 Z0 F800
G0 Z3.5 F500
G0 X128.893 Z3.5
G1 Z0 F500
; --- FIX Y Backlash ---
G0 X128.893 Y111.204 F1200
G1 Y108.638 Z0 F800
G0 Z3.5 F500
G0 X128.5 Z3.5
G1 Z0 F500
; --- FIX Y Backlash ---
G0 X128.5 Y109.538 F1200
G1 Y112.104 Z0 F800
G0 Z3.5 F500
G0 X128.071 Z3.5
G1 Z0 F500
G0 Z3.5 F500
G0 Z3.5 
G1 Z0 F500
; --- FIX Y Backlash ---
G0 X128.071 Y111.204 F1200
G1 Y108.638 Z0 F800
G0 Z3.5 F500
G0 Z3.5 
G1 Z0 F500
G0 Z3.5 F500
G0 X127.404 Z3.5
G1 Z0 F500
; --- FIX Y Backlash ---
G0 X127.404 Y109.538 F1200
G1 Y112.104 Z0 F800
G0 Z3.5 F500
G0 X127.224 Z3.5
G1 Z0 F500
; --- FIX Y Backlash ---
G0 X127.224 Y111.204 F1200
G1 Y108.638 Z0 F800
G0 Z3.5 F500
G0 X126.521 Z3.5
G1 Z0 F500
; --- FIX Y Backlash ---
G0 X126.521 Y109.538 F1200
G1 Y112.104 Z0 F800
G0 Z3.5 F500
G0 X126.167 Z3.5
G1 Z0 F500
; --- FIX Y Backlash ---
G0 X126.167 Y111.204 F1200
G1 Y108.638 Z0 F800
G0 Z3.5 F500
G0 X126.143 Z3.5
G1 Z0 F500
; --- FIX Y Backlash ---
G0 X126.143 Y109.538 F1200
G1 Y112.104 Z0 F800
G0 Z3.5 F500
G0 X126.105 Z3.5
G1 Z0 F500
; --- FIX Y Backlash ---
G0 X126.105 Y111.204 F1200
G1 Y108.638 Z0 F800
G0 Z3.5 F500
G0 X125.644 Z3.5
G1 Z0 F500
; --- FIX Y Backlash ---
G0 X125.644 Y109.538 F1200
G1 Y112.104 Z0 F800
G0 Z3.5 F500
G0 X124.694 Z3.5
G1 Z0 F500
; --- FIX Y Backlash ---
G0 X124.694 Y111.204 F1200
G1 Y108.638 Z0 F800
G0 Z3.5 F500
G0 X124.492 Z3.5
G1 Z0 F500
; --- FIX Y Backlash ---
G0 X124.492 Y109.538 F1200
G1 Y112.104 Z0 F800
G0 Z3.5 F500
G0 X123.993 Z3.5
G1 Z0 F500
G1 Y115.9 Z0 F800
G0 Z3.5 F500
; --- FIX Y Backlash ---
G0 X123.993 Y115 F1200
G0 Y113.563 Z3.5
G1 Z0 F500
; --- FIX X Backlash ---
G0 X124.893 Y113.563 F1200
G1 X133.298 Z0 F800
G0 Z3.5 F500
G0 Z3.5 
G1 Z0 F500
; --- FIX X Backlash ---
G0 X132.398 Y113.563 F1200
; --- FIX Y Backlash ---
G0 X132.398 Y114.463 F1200
G1 X130.602 Y114.762 Z0 F800
; --- FIX Y Backlash ---
G0 X130.602 Y113.862 F1200
G1 Y113.264 Z0 F800
; --- FIX X Backlash ---
G0 X131.502 Y113.264 F1200
; --- FIX Y Backlash ---
G0 X131.502 Y114.164 F1200
G1 X133.298 Y114.463 Z0 F800
G0 Z3.5 F500
G0 Y115.9 Z3.5
G1 Z0 F500
; --- FIX Y Backlash ---
G0 X133.298 Y115 F1200
G1 Y111.204 Z0 F800
G0 Z3.5 F500
; --- FIX X Backlash ---
G0 X132.398 Y111.204 F1200
G0 X132.328 Z3.5
G1 Z0 F500
G1 Y108.638 Z0 F800
G0 Z3.5 F500
G0 X132.203 Z3.5
G1 Z0 F500
; --- FIX Y Backlash ---
G0 X132.203 Y109.538 F1200
G1 Y112.104 Z0 F800
G0 Z3.5 F500
G0 X131.237 Z3.5
G1 Z0 F500
; --- FIX Y Backlash ---
G0 X131.237 Y111.204 F1200
G1 Y108.638 Z0 F800
G0 Z3.5 F500
G0 X131.058 Z3.5
G1 Z0 F500
; --- FIX Y Backlash ---
G0 X131.058 Y109.538 F1200
G1 Y112.104 Z0 F800
G0 Z3.5 F500
G0 X130.75 Z3.5
G1 Z0 F500
; --- FIX Y Backlash ---
G0 X130.75 Y111.204 F1200
G1 Y108.638 Z0 F800
G0 Z3.5 F500
G0 X129.921 Z3.5
G1 Z0 F500
; --- FIX Y Backlash ---
G0 X129.921 Y109.538 F1200
G1 Y112.104 Z0 F800
G0 Z3.5 F500
G0 X129.623 Z3.5
G1 Z0 F500
; --- FIX Y Backlash ---
G0 X129.623 Y111.204 F1200
G1 Y108.638 Z0 F800
G0 Z3.5 F500
; --- FIX Y Backlash ---
G0 X129.623 Y109.538 F1200
G0 X125.79 Y114.164 Z3.5
G1 Z0 F500
G1 Y114.762 Z0 F800
; --- FIX Y Backlash ---
G0 X125.79 Y113.862 F1200
G1 X123.994 Y113.563 Z0 F800
; --- FIX X Backlash ---
G0 X124.894 Y113.563 F1200
G1 X126.69 Y113.264 Z0 F800
G0 Z3.5 F500
; --- FIX X Backlash ---
G0 X125.79 Y113.264 F1200
; --- FIX Y Backlash ---
G0 X125.79 Y114.164 F1200
G0 X125.566 Y117.007 Z3.5
G1 Z0 F500
G1 X124.416 Z0 F800
; --- FIX X Backlash ---
G0 X125.316 Y117.007 F1200
G1 X125.899 Z0 F800
G1 Y119.236 Z0 F800
; --- FIX X Backlash ---
G0 X124.999 Y119.236 F1200
; --- FIX Y Backlash ---
G0 X124.999 Y118.336 F1200
G1 X124.604 Y118.184 Z0 F800
; --- FIX X Backlash ---
G0 X125.504 Y118.184 F1200
G1 X125.888 Y118.196 Z0 F800
G0 Z3.5 F500
G0 X127.082 Y116.968 Z3.5
G1 Z0 F500
; --- FIX Y Backlash ---
G0 X127.082 Y117.868 F1200
G1 X127.255 Y118.052 Z0 F800
G1 X127.465 Y118.215 Z0 F800
G1 X127.675 Y118.285 Z0 F800
G1 X127.908 Z0 F800
; --- FIX Y Backlash ---
G0 X127.908 Y117.385 F1200
G1 X128.081 Y117.304 Z0 F800
G1 X128.21 Y117.186 Z0 F800
G1 X128.302 Y116.968 Z0 F800
G1 X128.335 Y116.71 Z0 F800
; --- FIX X Backlash ---
G0 X127.435 Y116.71 F1200
G1 X127.38 Y116.445 Z0 F800
G1 X127.251 Y116.224 Z0 F800
G1 X127.052 Y116.084 Z0 F800
G1 X126.82 Y116.05 Z0 F800
; --- FIX Y Backlash ---
G0 X126.82 Y116.95 F1200
G1 X126.613 Y117.019 Z0 F800
G1 X126.425 Y117.158 Z0 F800
G1 X126.274 Y117.389 Z0 F800
G1 X126.205 Y117.717 Z0 F800
G1 X126.182 Y118.063 Z0 F800
G1 X126.228 Y118.506 Z0 F800
; --- FIX X Backlash ---
G0 X127.128 Y118.506 F1200
G1 X127.211 Y118.771 Z0 F800
G1 X127.314 Y118.981 Z0 F800
G1 X127.487 Y119.155 Z0 F800
G1 X127.709 Y119.247 Z0 F800
G1 X127.93 Y119.261 Z0 F800
; --- FIX Y Backlash ---
G0 X127.93 Y118.361 F1200
G1 X128.14 Y118.291 Z0 F800
G1 X128.291 Y118.162 Z0 F800
G0 Z3.5 F500
G0 X129.847 Y118.114 Z3.5
G1 Z0 F500
; --- FIX Y Backlash ---
G0 X129.847 Y119.014 F1200
G1 X130.034 Y119.155 Z0 F800
G1 X130.278 Y119.261 Z0 F800
G1 X130.473 Z0 F800
; --- FIX Y Backlash ---
G0 X130.473 Y118.361 F1200
G1 X130.683 Y118.302 Z0 F800
G1 X130.856 Y118.162 Z0 F800
G1 X130.937 Y117.978 Z0 F800
G1 X130.974 Y117.757 Z0 F800
; --- FIX X Backlash ---
G0 X130.074 Y117.757 F1200
G1 X130.015 Y117.558 Z0 F800
G1 X129.816 Y117.407 Z0 F800
G1 X129.599 Y117.292 Z0 F800
G1 X129.411 Y117.256 Z0 F800
G1 X129.271 Z0 F800
; --- FIX X Backlash ---
G0 X130.171 Y117.256 F1200
G1 X130.348 Z0 F800
G1 X130.532 Y117.233 Z0 F800
G1 X130.716 Y117.163 Z0 F800
G1 X130.915 Y117.012 Z0 F800
G1 X131.007 Y116.872 Z0 F800
G1 X131.044 Y116.71 Z0 F800
G1 X131.033 Y116.537 Z0 F800
G1 X130.996 Y116.397 Z0 F800
; --- FIX X Backlash ---
G0 X130.096 Y116.397 F1200
G1 X129.982 Y116.235 Z0 F800
G1 X129.816 Y116.131 Z0 F800
G1 X129.61 Y116.073 Z0 F800
G1 X129.389 Z0 F800
; --- FIX Y Backlash ---
G0 X129.389 Y116.973 F1200
G1 X129.179 Y117.031 Z0 F800
G1 X128.97 Y117.147 Z0 F800
G1 X128.843 Y117.264 Z0 F800
G0 Z3.5 F500
; --- FIX Y Backlash ---
G0 X128.843 Y116.364 F1200
G0 X128.25 Y116.258 Z3.5
G1 Z0 F500
G1 X128.064 Z0 F800
G1 Y116.073 Z0 F800
; --- FIX X Backlash ---
G0 X128.964 Y116.073 F1200
G1 X129.15 Z0 F800
; --- FIX Y Backlash ---
G0 X129.15 Y116.973 F1200
G1 Y117.158 Z0 F800
G0 Z3.5 F500
; --- FIX Y Backlash ---
G0 X129.15 Y116.258 F1200
G0 X132.183 Y116.061 Z3.5
G1 Z0 F500
; --- FIX Y Backlash ---
G0 X132.183 Y116.961 F1200
G1 X132.228 Y117.577 Z0 F800
G1 X132.32 Y118.019 Z0 F800
G1 X132.449 Y118.403 Z0 F800
G1 X132.611 Y118.701 Z0 F800
G1 X132.784 Y118.981 Z0 F800
G1 X132.961 Y119.225 Z0 F800
; --- FIX X Backlash ---
G0 X132.061 Y119.225 F1200
G1 X130.725 Z0 F800
G0 Z3.5 F500
; --- FIX X Backlash ---
G0 X131.625 Y119.225 F1200
; --- FIX Y Backlash ---
G0 X131.625 Y118.325 F1200
G0 X145.079 Y116.452 Z3.5
G1 Z0 F500
; --- FIX X Backlash ---
G0 X144.179 Y116.452 F1200
G1 X143.938 Y115.8 Z0 F800
; --- FIX X Backlash ---
G0 X144.838 Y115.8 F1200
G1 X145.32 Z0 F800
; --- FIX X Backlash ---
G0 X144.42 Y115.8 F1200
; --- FIX Y Backlash ---
G0 X144.42 Y116.7 F1200
G1 X144.179 Y117.352 Z0 F800
G0 Z3.5 F500
G0 X144.078 Y117.526 Z3.5
G1 Z0 F500
; --- FIX X Backlash ---
G0 X144.978 Y117.526 F1200
G1 X145.179 Z0 F800
; --- FIX Y Backlash ---
G0 X145.179 Y116.626 F1200
G1 X145.679 Y115.316 Z0 F800
; --- FIX X Backlash ---
G0 X144.779 Y115.316 F1200
G1 X144.594 Z0 F800
; --- FIX Y Backlash ---
G0 X144.594 Y116.216 F1200
G1 X144.475 Y116.553 Z0 F800
G1 X143.885 Z0 F800
; --- FIX Y Backlash ---
G0 X143.885 Y115.653 F1200
G1 X143.765 Y115.316 Z0 F800
G1 X143.578 Z0 F800
; --- FIX X Backlash ---
G0 X144.478 Y115.316 F1200
; --- FIX Y Backlash ---
G0 X144.478 Y116.216 F1200
G1 X144.978 Y117.526 Z0 F800
G0 Z3.5 F500
; --- FIX X Backlash ---
G0 X144.078 Y117.526 F1200
G0 X136.195 Y127.902 Z3.5
G1 Z0 F500
; --- FIX X Backlash ---
G0 X137.095 Y127.902 F1200
G1 X137.177 Y127.963 Z0 F800
G1 X137.229 Y128.06 Z0 F800
G1 X137.247 Y128.187 Z0 F800
G1 X137.229 Y128.314 Z0 F800
; --- FIX X Backlash ---
G0 X136.329 Y128.314 F1200
G1 X136.277 Y128.41 Z0 F800
G1 X136.195 Y128.472 Z0 F800
G1 X136.088 Y128.492 Z0 F800
G1 X135.981 Y128.472 Z0 F800
; --- FIX Y Backlash ---
G0 X135.981 Y127.572 F1200
G1 X135.899 Y127.51 Z0 F800
G1 X135.847 Y127.414 Z0 F800
G1 X135.829 Y127.287 Z0 F800
G1 X135.847 Y127.16 Z0 F800
; --- FIX X Backlash ---
G0 X136.747 Y127.16 F1200
G1 X136.799 Y127.063 Z0 F800
G1 X136.881 Y127.002 Z0 F800
G1 X136.988 Y126.981 Z0 F800
G1 X137.095 Y127.002 Z0 F800
G0 Z3.5 F500
G0 X137.166 Y126.871 Z3.5
G1 Z0 F500
; --- FIX X Backlash ---
G0 X136.266 Y126.871 F1200
G1 X136.088 Y126.841 Z0 F800
G1 X135.981 Y126.852 Z0 F800
G1 X135.887 Y126.885 Z0 F800
; --- FIX Y Backlash ---
G0 X135.887 Y127.785 F1200
G1 X135.807 Y127.839 Z0 F800
G1 X135.74 Y127.915 Z0 F800
G1 X135.688 Y128.012 Z0 F800
G1 X135.65 Y128.128 Z0 F800
G1 X135.628 Y128.264 Z0 F800
G1 X135.62 Y128.42 Z0 F800
G1 X135.63 Y128.567 Z0 F800
G1 X135.657 Y128.699 Z0 F800
G1 X135.703 Y128.815 Z0 F800
; --- FIX X Backlash ---
G0 X136.603 Y128.815 F1200
G1 X136.668 Y128.915 Z0 F800
G1 X136.748 Y128.996 Z0 F800
G1 X136.84 Y129.054 Z0 F800
G1 X136.945 Y129.088 Z0 F800
G1 X137.063 Y129.1 Z0 F800
G1 X137.13 Y129.097 Z0 F800
G1 X137.198 Y129.087 Z0 F800
G1 X137.267 Y129.07 Z0 F800
G1 X137.34 Y129.047 Z0 F800
; --- FIX Y Backlash ---
G0 X137.34 Y128.147 F1200
G1 Y127.986 Z0 F800
; --- FIX X Backlash ---
G0 X136.44 Y127.986 F1200
G1 X136.373 Y128.014 Z0 F800
G1 X136.305 Y128.034 Z0 F800
G1 X136.237 Y128.047 Z0 F800
G1 X136.17 Y128.051 Z0 F800
G1 X136.016 Y128.021 Z0 F800
G1 X135.902 Y127.932 Z0 F800
G1 X135.83 Y127.784 Z0 F800
G1 X135.797 Y127.575 Z0 F800
; --- FIX X Backlash ---
G0 X136.697 Y127.575 F1200
; --- FIX Y Backlash ---
G0 X136.697 Y128.475 F1200
G1 X136.755 Y128.542 Z0 F800
G1 X136.826 Y128.592 Z0 F800
G1 X136.909 Y128.622 Z0 F800
G1 X136.998 Y128.632 Z0 F800
G1 X137.175 Y128.602 Z0 F800
; --- FIX Y Backlash ---
G0 X137.175 Y127.702 F1200
G1 X137.31 Y127.613 Z0 F800
G1 X137.396 Y127.471 Z0 F800
G1 X137.425 Y127.287 Z0 F800
G1 X137.395 Y127.105 Z0 F800
; --- FIX X Backlash ---
G0 X136.495 Y127.105 F1200
G1 X136.406 Y126.963 Z0 F800
G1 X136.266 Y126.871 Z0 F800
G0 Z3.5 F500
G0 X123.129 Y126.251 Z3.5
G1 Z0 F500
; --- FIX Y Backlash ---
G0 X123.129 Y127.151 F1200
G1 Y129.717 Z0 F800
G0 Z3.5 F500
; --- FIX Y Backlash ---
G0 X123.129 Y128.817 F1200
G0 X110.754 Y128.176 Z3.5
G1 Z0 F500
G1 Y128.027 Z0 F800
G1 X110.22 Z0 F800
G1 Y127.706 Z0 F800
G1 X110.259 Y127.718 Z0 F800
G1 X110.297 Y127.726 Z0 F800
G1 X110.336 Y127.731 Z0 F800
G1 X110.375 Z0 F800
; --- FIX X Backlash ---
G0 X111.275 Y127.731 F1200
G1 X111.471 Y127.702 Z0 F800
G1 X111.622 Y127.612 Z0 F800
G1 X111.678 Y127.547 Z0 F800
G1 X111.718 Y127.471 Z0 F800
G1 X111.742 Y127.384 Z0 F800
G1 X111.75 Y127.287 Z0 F800
G1 X111.742 Y127.187 Z0 F800
G1 X111.717 Y127.099 Z0 F800
G1 X111.676 Y127.023 Z0 F800
; --- FIX X Backlash ---
G0 X110.776 Y127.023 F1200
G1 X110.719 Y126.958 Z0 F800
G1 X110.56 Y126.87 Z0 F800
G1 X110.347 Y126.841 Z0 F800
G1 X110.264 Y126.844 Z0 F800
G1 X110.179 Y126.855 Z0 F800
G1 X110.093 Y126.873 Z0 F800
G1 X110.003 Y126.897 Z0 F800
; --- FIX Y Backlash ---
G0 X110.003 Y127.797 F1200
G1 Y127.975 Z0 F800
; --- FIX X Backlash ---
G0 X110.903 Y127.975 F1200
G1 X110.983 Y127.938 Z0 F800
G1 X111.066 Y127.911 Z0 F800
G1 X111.152 Y127.896 Z0 F800
G1 X111.244 Y127.89 Z0 F800
G1 X111.38 Y127.91 Z0 F800
G1 X111.484 Y127.97 Z0 F800
G1 X111.551 Y128.064 Z0 F800
G1 X111.573 Y128.187 Z0 F800
G1 X111.551 Y128.309 Z0 F800
; --- FIX X Backlash ---
G0 X110.651 Y128.309 F1200
G1 X110.584 Y128.403 Z0 F800
G1 X110.48 Y128.463 Z0 F800
G1 X110.344 Y128.483 Z0 F800
G1 X110.273 Y128.479 Z0 F800
G1 X110.202 Y128.467 Z0 F800
G1 X110.131 Y128.447 Z0 F800
G1 X110.058 Y128.418 Z0 F800
G1 Y129.076 Z0 F800
; --- FIX X Backlash ---
G0 X110.958 Y129.076 F1200
G1 X111.654 Z0 F800
G0 Z3.5 F500
; --- FIX X Backlash ---
G0 X110.754 Y129.076 F1200
G0 X97.462 Y129.717 Z3.5
G1 Z0 F500
; --- FIX Y Backlash ---
G0 X97.462 Y128.817 F1200
G1 Y126.251 Z0 F800
G0 Z3.5 F500
; --- FIX Y Backlash ---
G0 X97.462 Y127.151 F1200
G0 X84.814 Y128.223 Z3.5
G1 Z0 F500
G1 Y128.922 Z0 F800
; --- FIX Y Backlash ---
G0 X84.814 Y128.022 F1200
G1 X84.366 Y127.323 Z0 F800
; --- FIX X Backlash ---
G0 X85.266 Y127.323 F1200
G1 X85.714 Z0 F800
G0 Z3.5 F500
G0 X85.89 Z3.5
G1 Z0 F500
G1 X86.077 Z0 F800
G1 Y127.175 Z0 F800
; --- FIX X Backlash ---
G0 X85.177 Y127.175 F1200
G1 X84.99 Z0 F800
G1 Y126.867 Z0 F800
G1 X84.814 Z0 F800
; --- FIX Y Backlash ---
G0 X84.814 Y127.767 F1200
G1 Y128.075 Z0 F800
G1 X84.222 Z0 F800
G1 Y128.246 Z0 F800
; --- FIX X Backlash ---
G0 X85.122 Y128.246 F1200
G1 X85.667 Y129.076 Z0 F800
G1 X85.89 Z0 F800
; --- FIX Y Backlash ---
G0 X85.89 Y128.176 F1200
G1 Y127.323 Z0 F800
G0 Z3.5 F500
; --- FIX X Backlash ---
G0 X84.99 Y127.323 F1200
; --- FIX Y Backlash ---
G0 X84.99 Y128.223 F1200
G0 X71.795 Y129.717 Z3.5
G1 Z0 F500
; --- FIX Y Backlash ---
G0 X71.795 Y128.817 F1200
G1 Y123.684 Z0 F800
G0 Z3.5 F500
; --- FIX Y Backlash ---
G0 X71.795 Y124.584 F1200
G0 X59.446 Y127.906 Z3.5
G1 Z0 F500
; --- FIX Y Backlash ---
G0 X59.446 Y127.006 F1200
G1 X59.387 Y126.947 Z0 F800
G1 X59.226 Y126.868 Z0 F800
G1 X59.008 Y126.841 Z0 F800
G1 X58.925 Y126.845 Z0 F800
G1 X58.839 Y126.857 Z0 F800
G1 X58.75 Y126.878 Z0 F800
G1 X58.659 Y126.906 Z0 F800
; --- FIX Y Backlash ---
G0 X58.659 Y127.806 F1200
G1 Y127.977 Z0 F800
; --- FIX X Backlash ---
G0 X59.559 Y127.977 F1200
G1 X59.636 Y127.939 Z0 F800
G1 X59.72 Y127.912 Z0 F800
G1 X59.81 Y127.896 Z0 F800
G1 X59.903 Y127.89 Z0 F800
G1 X60.05 Y127.907 Z0 F800
G1 X60.157 Y127.956 Z0 F800
G1 X60.223 Y128.037 Z0 F800
G1 X60.244 Y128.147 Z0 F800
G1 X60.224 Y128.25 Z0 F800
; --- FIX X Backlash ---
G0 X59.324 Y128.25 F1200
G1 X59.263 Y128.328 Z0 F800
G1 X59.166 Y128.377 Z0 F800
G1 X59.038 Y128.394 Z0 F800
G1 X58.885 Z0 F800
G1 Y128.539 Z0 F800
; --- FIX X Backlash ---
G0 X59.785 Y128.539 F1200
G1 X59.945 Z0 F800
G1 X60.06 Y128.552 Z0 F800
G1 X60.145 Y128.592 Z0 F800
G1 X60.197 Y128.655 Z0 F800
G1 X60.214 Y128.742 Z0 F800
G1 X60.196 Y128.831 Z0 F800
; --- FIX X Backlash ---
G0 X59.296 Y128.831 F1200
G1 X59.242 Y128.897 Z0 F800
G1 X59.155 Y128.937 Z0 F800
G1 X59.038 Y128.951 Z0 F800
G1 X58.962 Y128.947 Z0 F800
G1 X58.881 Y128.935 Z0 F800
G1 X58.794 Y128.915 Z0 F800
G1 X58.698 Y128.886 Z0 F800
G1 Y129.044 Z0 F800
; --- FIX X Backlash ---
G0 X59.598 Y129.044 F1200
G1 X59.696 Y129.068 Z0 F800
G1 X59.787 Y129.086 Z0 F800
G1 X59.873 Y129.096 Z0 F800
G1 X59.953 Y129.1 Z0 F800
G1 X60.134 Y129.077 Z0 F800
; --- FIX Y Backlash ---
G0 X60.134 Y128.177 F1200
G1 X60.273 Y128.108 Z0 F800
G1 X60.361 Y128.001 Z0 F800
G1 X60.39 Y127.861 Z0 F800
G1 X60.375 Y127.76 Z0 F800
G1 X60.328 Y127.677 Z0 F800
; --- FIX X Backlash ---
G0 X59.428 Y127.677 F1200
G1 X59.352 Y127.613 Z0 F800
G1 X59.251 Y127.573 Z0 F800
; --- FIX X Backlash ---
G0 X60.151 Y127.573 F1200
G1 X60.264 Y127.531 Z0 F800
G1 X60.349 Y127.46 Z0 F800
G1 X60.403 Y127.363 Z0 F800
G1 X60.421 Y127.247 Z0 F800
G1 X60.412 Y127.156 Z0 F800
G1 X60.387 Y127.075 Z0 F800
G1 X60.346 Y127.006 Z0 F800
G0 Z3.5 F500
; --- FIX X Backlash ---
G0 X59.446 Y127.006 F1200
G0 X46.128 Y126.251 Z3.5
G1 Z0 F500
; --- FIX Y Backlash ---
G0 X46.128 Y127.151 F1200
G1 Y129.717 Z0 F800
G0 Z3.5 F500
; --- FIX Y Backlash ---
G0 X46.128 Y128.817 F1200
G0 X33.829 Y127.826 Z3.5
G1 Z0 F500
G1 X33.822 Y127.748 Z0 F800
G1 X33.799 Y127.673 Z0 F800
G1 X33.756 Y127.594 Z0 F800
G1 X33.689 Y127.503 Z0 F800
G1 X33.549 Y127.356 Z0 F800
G1 X33.218 Y127.016 Z0 F800
; --- FIX X Backlash ---
G0 X34.118 Y127.016 F1200
G1 X34.736 Z0 F800
G1 Y126.867 Z0 F800
; --- FIX X Backlash ---
G0 X33.836 Y126.867 F1200
G1 X33.005 Z0 F800
; --- FIX Y Backlash ---
G0 X33.005 Y127.767 F1200
G1 Y127.916 Z0 F800
; --- FIX X Backlash ---
G0 X33.905 Y127.916 F1200
G1 X34.321 Y128.341 Z0 F800
G1 X34.398 Y128.423 Z0 F800
G1 X34.471 Y128.511 Z0 F800
G1 X34.517 Y128.585 Z0 F800
G1 X34.543 Y128.65 Z0 F800
G1 X34.551 Y128.715 Z0 F800
G1 X34.533 Y128.81 Z0 F800
; --- FIX X Backlash ---
G0 X33.633 Y128.81 F1200
G1 X33.578 Y128.885 Z0 F800
G1 X33.493 Y128.934 Z0 F800
G1 X33.387 Y128.951 Z0 F800
G1 X33.301 Y128.944 Z0 F800
G1 X33.211 Y128.922 Z0 F800
G1 X33.115 Y128.886 Z0 F800
; --- FIX Y Backlash ---
G0 X33.115 Y127.986 F1200
G1 X33.013 Y127.934 Z0 F800
; --- FIX Y Backlash ---
G0 X33.013 Y128.834 F1200
G1 Y129.013 Z0 F800
; --- FIX X Backlash ---
