;LightBurn 1.6.04
;Custom GCode device profile, absolute coords
;Bounds: X7.99 Y29.46 to X122.01 Y90.54
G00 G17 G40 G21 G54
G90
M3
G1 Z1F500
;Cut @ 15 mm/sec, 90% power

M8
G0 Z0.8F500
G0 X8.597Y29.485Z0.8F1000
G1 Z0F500
;Layer C00
G1 X8.771Y29.464Z0S900F800
G1 X8.95Y29.47Z0F800
G1 X9.21Y29.563Z0F800
G1 X9.464Y29.682Z0F800
G1 X9.564Y29.955Z0F800
G1 X9.59Y29.996Z0F800
G1 X9.617Y30.004Z0F800
G1 X9.645Y29.967Z0F800
G1 X9.676Y29.873Z0F800
G1 X9.729Y29.732Z0F800
G1 X9.818Y29.629Z0F800
G1 X9.936Y29.558Z0F800
G1 X10.079Y29.514Z0F800
G1 X10.295Y29.47Z0F800
G1 X10.519Y29.465Z0F800
G1 X10.744Y29.474Z0F800
G1 X10.968Y29.47Z0F800
G1 X18.535Z0F800
G1 X18.662Y29.532Z0F800
G1 X18.8Y29.585Z0F800
G1 X18.927Y29.647Z0F800
G1 X19.022Y29.74Z0F800
G1 X19.073Y29.858Z0F800
G1 X19.107Y29.989Z0F800
G1 X19.157Y30.099Z0F800
G1 X19.252Y30.156Z0F800
G1 X19.416Y30.228Z0F800
G1 X19.577Y30.305Z0F800
G1 X19.712Y30.411Z0F800
G1 X19.795Y30.571Z0F800
G1 X21.528Y34.282Z0F800
G1 X21.524Y34.423Z0F800
G1 X21.536Y34.57Z0F800
G1 X21.533Y34.712Z0F800
G1 X21.486Y34.834Z0F800
G1 X21.358Y34.951Z0F800
G1 X21.226Y35.066Z0F800
G1 X21.08Y35.147Z0F800
G1 X20.906Y35.161Z0F800
G1 X20.736Y35.166Z0F800
G1 X20.57Y35.151Z0F800
G1 X20.41Y35.109Z0F800
G1 X20.258Y35.033Z0F800
G1 X20.067Y34.922Z0F800
G1 X19.944Y34.742Z0F800
G1 X19.853Y34.53Z0F800
G1 X19.757Y34.329Z0F800
G1 X18.205Y31.01Z0F800
G1 Y30.938Z0F800
G1 X18.179Y30.896Z0F800
G1 X18.127Y30.878Z0F800
G1 X18.06Z0F800
G1 X17.905Y30.892Z0F800
G1 X17.771Y30.886Z0F800
G1 X10.196Z0F800
G1 X10.068Y30.823Z0F800
G1 X9.93Y30.771Z0F800
G1 X9.803Y30.709Z0F800
G1 X9.708Y30.616Z0F800
G1 X9.677Y30.517Z0F800
G1 X9.653Y30.456Z0F800
G1 X9.635Y30.428Z0F800
G1 X9.623Y30.431Z0F800
G1 X9.612Y30.515Z0F800
G1 X9.616Y30.68Z0F800
G1 Y34.705Z0F800
G1 X9.549Y34.829Z0F800
G1 X9.533Y34.955Z0F800
G1 X9.56Y35.083Z0F800
G1 X9.616Y35.211Z0F800
G1 Y39.828Z0F800
G1 X9.549Y39.952Z0F800
G1 X9.533Y40.078Z0F800
G1 X9.56Y40.206Z0F800
G1 X9.616Y40.334Z0F800
G1 Y44.952Z0F800
G1 X9.554Y45.079Z0F800
G1 X9.502Y45.217Z0F800
G1 X9.439Y45.344Z0F800
G1 X9.347Y45.439Z0F800
G1 X9.181Y45.507Z0F800
G1 X9.012Y45.554Z0F800
G1 X8.838Y45.576Z0F800
G1 X8.659Y45.569Z0F800
G1 X8.508Y45.549Z0F800
G1 X8.346Y45.52Z0F800
G1 X8.213Y45.462Z0F800
G1 X8.145Y45.358Z0F800
G1 X8.098Y45.178Z0F800
G1 X8.039Y45.004Z0F800
G1 X7.994Y44.827Z0F800
G1 Y44.643Z0F800
G1 Y40.334Z0F800
G1 X8.06Y40.21Z0F800
G1 X8.076Y40.084Z0F800
G1 X8.05Y39.957Z0F800
G1 X7.993Y39.828Z0F800
G1 Y35.211Z0F800
G1 X8.06Y35.087Z0F800
G1 X8.076Y34.961Z0F800
G1 X8.05Y34.834Z0F800
G1 X7.993Y34.705Z0F800
G1 Y30.088Z0F800
G1 X8.055Y29.961Z0F800
G1 X8.108Y29.823Z0F800
G1 X8.17Y29.695Z0F800
G1 X8.262Y29.6Z0F800
G1 X8.428Y29.532Z0F800
G1 X8.597Y29.485Z0F800
G0 Z0.8F500
G0 X12.66Y34.702Z0.8F1000
G1 Z0F500
G1 X12.801Y34.659Z0F800
G1 X13.029Y34.597Z0F800
G1 X13.267Y34.588Z0F800
G1 X13.508Y34.597Z0F800
G1 X13.747Y34.593Z0F800
G1 X14.767Z0F800
G1 X15.784Y34.606Z0F800
G1 X15.934Y34.676Z0F800
G1 X16.091Y34.74Z0F800
G1 X16.221Y34.829Z0F800
G1 X16.286Y34.979Z0F800
G1 X16.351Y35.137Z0F800
G1 X16.372Y35.301Z0F800
G1 X16.346Y35.463Z0F800
G1 X16.271Y35.617Z0F800
G1 X16.219Y35.755Z0F800
G1 X16.13Y35.854Z0F800
G1 X16.012Y35.922Z0F800
G1 X15.872Y35.966Z0F800
G1 X15.656Y36.01Z0F800
G1 X15.432Y36.014Z0F800
G1 X15.207Y36.006Z0F800
G1 X14.983Y36.009Z0F800
G1 X13.963Z0F800
G1 X12.947Y35.997Z0F800
G1 X12.509Y35.798Z0F800
G1 X12.436Y35.612Z0F800
G1 X12.373Y35.421Z0F800
G1 X12.36Y35.229Z0F800
G1 X12.488Y34.907Z0F800
G1 X12.559Y34.789Z0F800
G1 X12.66Y34.702Z0F800
G0 Z0.8F500
G0 X19.979Y35.61Z0.8F1000
G1 Z0F500
G1 X20.274Y35.355Z0F800
G1 X20.438Y35.266Z0F800
G1 X20.632Y35.254Z0F800
G1 X20.802Y35.247Z0F800
G1 X20.966Y35.269Z0F800
G1 X21.125Y35.318Z0F800
G1 X21.277Y35.394Z0F800
G1 X21.413Y35.468Z0F800
G1 X21.481Y35.6Z0F800
G1 X21.519Y35.759Z0F800
G1 X21.566Y35.909Z0F800
G1 X21.529Y36.119Z0F800
G1 X21.445Y36.322Z0F800
G1 X21.343Y36.52Z0F800
G1 X21.253Y36.72Z0F800
G1 X19.756Y39.927Z0F800
G1 X19.652Y40.018Z0F800
G1 X19.525Y40.117Z0F800
G1 X19.484Y40.159Z0F800
G1 X19.474Y40.189Z0F800
G1 X19.506Y40.203Z0F800
G1 X19.595Y40.197Z0F800
G1 X19.757Y40.24Z0F800
G1 X19.909Y40.321Z0F800
G1 X20.058Y40.414Z0F800
G1 X20.21Y40.496Z0F800
G1 X20.427Y40.859Z0F800
G1 X20.614Y41.242Z0F800
G1 X20.765Y41.64Z0F800
G1 X20.878Y42.049Z0F800
G1 X20.949Y42.467Z0F800
G1 X20.973Y42.888Z0F800
G1 X20.949Y43.311Z0F800
G1 X20.871Y43.731Z0F800
G1 X20.753Y44.136Z0F800
G1 X20.599Y44.531Z0F800
G1 X20.409Y44.908Z0F800
G1 X20.183Y45.261Z0F800
G1 X20.003Y45.362Z0F800
G1 X19.825Y45.467Z0F800
G1 X19.638Y45.541Z0F800
G1 X19.433Y45.545Z0F800
G1 X19.284Y45.514Z0F800
G1 X19.192Z0F800
G1 X19.142Y45.572Z0F800
G1 X19.114Y45.722Z0F800
G1 X19.052Y45.859Z0F800
G1 X18.992Y46Z0F800
G1 X18.907Y46.113Z0F800
G1 X18.767Y46.168Z0F800
G1 X18.519Y46.246Z0F800
G1 X18.259Y46.261Z0F800
G1 X17.994Y46.252Z0F800
G1 X17.732Y46.255Z0F800
G1 X10.196Z0F800
G1 X9.73Y46.044Z0F800
G1 X9.61Y45.891Z0F800
G1 X9.553Y45.696Z0F800
G1 X9.565Y45.486Z0F800
G1 X9.654Y45.288Z0F800
G1 X9.709Y45.152Z0F800
G1 X9.78Y45.035Z0F800
G1 X9.88Y44.948Z0F800
G1 X10.021Y44.905Z0F800
G1 X10.25Y44.843Z0F800
G1 X10.487Y44.834Z0F800
G1 X10.729Y44.843Z0F800
G1 X10.968Y44.839Z0F800
G1 X18.535Z0F800
G1 X18.614Y44.892Z0F800
G1 X18.666Y44.912Z0F800
G1 X18.699Y44.904Z0F800
G1 X18.718Y44.875Z0F800
G1 X18.738Y44.768Z0F800
G1 X18.777Y44.631Z0F800
G1 X18.946Y44.32Z0F800
G1 X19.085Y43.993Z0F800
G1 X19.19Y43.653Z0F800
G1 X19.261Y43.306Z0F800
G1 X19.293Y42.954Z0F800
G1 X19.285Y42.601Z0F800
G1 X19.233Y42.251Z0F800
G1 X19.136Y41.908Z0F800
G1 X18.96Y41.472Z0F800
G1 X18.771Y41.046Z0F800
G1 X18.764Y40.897Z0F800
G1 X18.744Y40.742Z0F800
G1 X18.757Y40.601Z0F800
G1 X18.85Y40.489Z0F800
G1 X18.973Y40.379Z0F800
G1 X19.006Y40.306Z0F800
G1 X18.986Y40.285Z0F800
G1 X18.942Y40.274Z0F800
G1 X18.872Z0F800
G1 X18.776Y40.284Z0F800
G1 X18.521Y40.176Z0F800
G1 X18.29Y40.042Z0F800
G1 X18.184Y39.693Z0F800
G1 X18.169Y39.519Z0F800
G1 X18.231Y39.348Z0F800
G1 X19.979Y35.61Z0F800
G0 Z0.8F500
G0 X21.892Y35.211Z0.8F1000
G1 Z0F500
G1 X21.954Y35.084Z0F800
G1 X22.007Y34.946Z0F800
G1 X22.069Y34.819Z0F800
G1 X22.162Y34.724Z0F800
G1 X22.327Y34.656Z0F800
G1 X22.497Y34.609Z0F800
G1 X22.671Y34.587Z0F800
G1 X22.85Y34.593Z0F800
G1 X23.109Y34.687Z0F800
G1 X23.363Y34.805Z0F800
G1 X23.433Y34.978Z0F800
G1 X23.49Y35.154Z0F800
G1 X23.521Y35.333Z0F800
G1 X23.516Y35.52Z0F800
G1 Y39.716Z0F800
G1 X23.945Z0F800
G1 X24.153Y39.743Z0F800
G1 X24.348Y39.831Z0F800
G1 X24.485Y39.885Z0F800
G1 X24.575Y39.982Z0F800
G1 X24.634Y40.108Z0F800
G1 X24.68Y40.246Z0F800
G1 X24.715Y40.437Z0F800
G1 X24.667Y40.622Z0F800
G1 X24.581Y40.803Z0F800
G1 X24.501Y40.98Z0F800
G1 X24.328Y41.05Z0F800
G1 X24.152Y41.107Z0F800
G1 X23.973Y41.138Z0F800
G1 X23.786Y41.132Z0F800
G1 X22.535Z0F800
G1 X21.287Y41.12Z0F800
G1 X20.849Y40.921Z0F800
G1 X20.776Y40.735Z0F800
G1 X20.713Y40.544Z0F800
G1 X20.7Y40.352Z0F800
G1 X20.828Y40.03Z0F800
G1 X20.899Y39.912Z0F800
G1 X21Y39.825Z0F800
G1 X21.141Y39.782Z0F800
G1 X21.321Y39.724Z0F800
G1 X21.51Y39.712Z0F800
G1 X21.702Y39.719Z0F800
G1 X21.892Y39.716Z0F800
G1 Y35.211Z0F800
G0 Z0.8F500
G0 X27.452Z0.8F1000
G1 Z0F500
G1 X27.514Y35.084Z0F800
G1 X27.567Y34.946Z0F800
G1 X27.629Y34.819Z0F800
G1 X27.721Y34.724Z0F800
G1 X27.887Y34.656Z0F800
G1 X28.056Y34.609Z0F800
G1 X28.23Y34.587Z0F800
G1 X28.409Y34.594Z0F800
G1 X28.669Y34.687Z0F800
G1 X28.923Y34.805Z0F800
G1 X28.992Y34.978Z0F800
G1 X29.049Y35.154Z0F800
G1 X29.081Y35.334Z0F800
G1 X29.075Y35.52Z0F800
G1 Y39.716Z0F800
G1 X29.504Z0F800
G1 X29.712Y39.743Z0F800
G1 X29.908Y39.832Z0F800
G1 X30.045Y39.885Z0F800
G1 X30.134Y39.982Z0F800
G1 X30.194Y40.108Z0F800
G1 X30.239Y40.247Z0F800
G1 X30.297Y40.202Z0F800
G1 X30.349Y40.073Z0F800
G1 X30.411Y39.931Z0F800
G1 X30.501Y39.847Z0F800
G1 X30.667Y39.779Z0F800
G1 X30.836Y39.732Z0F800
G1 X31.01Y39.71Z0F800
G1 X31.189Y39.716Z0F800
G1 X31.449Y39.81Z0F800
G1 X31.703Y39.928Z0F800
G1 X31.802Y40.202Z0F800
G1 X31.828Y40.243Z0F800
G1 X31.855Y40.251Z0F800
G1 X31.884Y40.213Z0F800
G1 X31.914Y40.119Z0F800
G1 X31.968Y39.979Z0F800
G1 X32.056Y39.876Z0F800
G1 X32.174Y39.805Z0F800
G1 X32.317Y39.76Z0F800
G1 X32.534Y39.716Z0F800
G1 X32.757Y39.712Z0F800
G1 X32.983Y39.72Z0F800
G1 X33.206Y39.716Z0F800
G1 X34.226Z0F800
G1 X35.242Y39.729Z0F800
G1 X35.393Y39.8Z0F800
G1 X35.55Y39.863Z0F800
G1 X35.68Y39.952Z0F800
G1 X35.745Y40.102Z0F800
G1 X35.81Y40.26Z0F800
G1 X35.831Y40.424Z0F800
G1 X35.805Y40.586Z0F800
G1 X35.73Y40.74Z0F800
G1 X35.678Y40.878Z0F800
G1 X35.589Y40.977Z0F800
G1 X35.471Y41.045Z0F800
G1 X35.331Y41.089Z0F800
G1 X35.115Y41.133Z0F800
G1 X34.891Y41.137Z0F800
G1 X34.666Y41.129Z0F800
G1 X34.442Y41.133Z0F800
G1 X33.422Z0F800
G1 X32.406Y41.12Z0F800
G1 X32.256Y41.049Z0F800
G1 X32.098Y40.986Z0F800
G1 X31.969Y40.897Z0F800
G1 X31.903Y40.747Z0F800
G1 X31.877Y40.671Z0F800
G1 X31.861Y40.654Z0F800
G1 X31.853Y40.684Z0F800
G1 Y40.747Z0F800
G1 X31.856Y40.916Z0F800
G1 Y41.05Z0F800
G1 Y44.952Z0F800
G1 X31.792Y45.079Z0F800
G1 X31.74Y45.217Z0F800
G1 X31.678Y45.344Z0F800
G1 X31.585Y45.439Z0F800
G1 X31.42Y45.507Z0F800
G1 X31.25Y45.554Z0F800
G1 X31.076Y45.576Z0F800
G1 X30.897Y45.569Z0F800
G1 X30.638Y45.476Z0F800
G1 X30.383Y45.358Z0F800
G1 X30.314Y45.185Z0F800
G1 X30.257Y45.009Z0F800
G1 X30.225Y44.829Z0F800
G1 X30.231Y44.643Z0F800
G1 Y40.605Z0F800
G1 X30.169Y40.741Z0F800
G1 X30.11Y40.88Z0F800
G1 X30.026Y40.992Z0F800
G1 X29.887Y41.045Z0F800
G1 X29.638Y41.123Z0F800
G1 X29.378Y41.139Z0F800
G1 X29.114Y41.129Z0F800
G1 X28.851Y41.133Z0F800
G1 X27.847Z0F800
G1 X26.846Y41.12Z0F800
G1 X26.696Y41.049Z0F800
G1 X26.538Y40.986Z0F800
G1 X26.409Y40.897Z0F800
G1 X26.344Y40.747Z0F800
G1 X26.279Y40.589Z0F800
G1 X26.258Y40.425Z0F800
G1 X26.284Y40.263Z0F800
G1 X26.359Y40.109Z0F800
G1 X26.411Y39.971Z0F800
G1 X26.499Y39.872Z0F800
G1 X26.617Y39.804Z0F800
G1 X26.758Y39.76Z0F800
G1 X26.925Y39.718Z0F800
G1 X27.1Y39.712Z0F800
G1 X27.277Y39.719Z0F800
G1 X27.452Y39.716Z0F800
G1 Y35.211Z0F800
G0 Z0.8F500
G0 X30.257Y34.763Z0.8F1000
G1 Z0F500
G1 X30.225Y34.583Z0F800
G1 X30.231Y34.396Z0F800
G1 Y30.359Z0F800
G1 X30.169Y30.495Z0F800
G1 X30.11Y30.634Z0F800
G1 X30.026Y30.745Z0F800
G1 X29.887Y30.799Z0F800
G1 X29.638Y30.876Z0F800
G1 X29.378Y30.892Z0F800
G1 X29.114Y30.883Z0F800
G1 X28.851Y30.886Z0F800
G1 X21.315Z0F800
G1 X21.188Y30.824Z0F800
G1 X21.05Y30.771Z0F800
G1 X20.923Y30.709Z0F800
G1 X20.828Y30.616Z0F800
G1 X20.759Y30.445Z0F800
G1 X20.707Y30.268Z0F800
G1 X20.702Y30.09Z0F800
G1 X20.774Y29.919Z0F800
G1 X20.828Y29.783Z0F800
G1 X20.899Y29.665Z0F800
G1 X21Y29.578Z0F800
G1 X21.141Y29.535Z0F800
G1 X21.369Y29.474Z0F800
G1 X21.607Y29.464Z0F800
G1 X21.848Y29.474Z0F800
G1 X22.087Y29.47Z0F800
G1 X29.655Z0F800
G1 X29.782Y29.532Z0F800
G1 X29.92Y29.585Z0F800
G1 X30.047Y29.647Z0F800
G1 X30.142Y29.74Z0F800
G1 X30.191Y29.891Z0F800
G1 X30.242Y29.98Z0F800
G1 X30.269Y29.989Z0F800
G1 X30.297Y29.967Z0F800
G1 X30.326Y29.911Z0F800
G1 X30.356Y29.813Z0F800
G1 X30.413Y29.678Z0F800
G1 X30.519Y29.595Z0F800
G1 X30.652Y29.541Z0F800
G1 X30.79Y29.492Z0F800
G1 X30.969Y29.466Z0F800
G1 X31.15Y29.469Z0F800
G1 X31.326Y29.507Z0F800
G1 X31.49Y29.585Z0F800
G1 X31.627Y29.638Z0F800
G1 X31.717Y29.736Z0F800
G1 X31.776Y29.862Z0F800
G1 X31.822Y30Z0F800
G1 X31.856Y30.226Z0F800
G1 X31.859Y30.457Z0F800
G1 X31.852Y30.691Z0F800
G1 X31.855Y30.922Z0F800
G1 Y34.705Z0F800
G1 X31.792Y34.832Z0F800
G1 X31.74Y34.97Z0F800
G1 X31.678Y35.098Z0F800
G1 X31.585Y35.193Z0F800
G1 X31.42Y35.261Z0F800
G1 X31.25Y35.308Z0F800
G1 X31.076Y35.329Z0F800
G1 X30.897Y35.323Z0F800
G1 X30.638Y35.23Z0F800
G1 X30.383Y35.111Z0F800
G1 X30.314Y34.938Z0F800
G1 X30.257Y34.763Z0F800
G0 Z0.8F500
G0 X35.791Y34.705Z0.8F1000
G1 Z0F500
G1 Y30.088Z0F800
G1 X35.854Y29.961Z0F800
G1 X35.906Y29.823Z0F800
G1 X35.968Y29.695Z0F800
G1 X36.061Y29.6Z0F800
G1 X36.226Y29.532Z0F800
G1 X36.396Y29.485Z0F800
G1 X36.57Y29.464Z0F800
G1 X36.749Y29.47Z0F800
G1 X37.008Y29.563Z0F800
G1 X37.263Y29.682Z0F800
G1 X37.362Y29.955Z0F800
G1 X37.388Y29.996Z0F800
G1 X37.415Y30.004Z0F800
G1 X37.443Y29.967Z0F800
G1 X37.474Y29.873Z0F800
G1 X37.527Y29.732Z0F800
G1 X37.616Y29.629Z0F800
G1 X37.734Y29.558Z0F800
G1 X37.877Y29.514Z0F800
G1 X38.093Y29.47Z0F800
G1 X38.317Y29.465Z0F800
G1 X38.543Y29.474Z0F800
G1 X38.766Y29.47Z0F800
G1 X39.786Z0F800
G1 X40.802Y29.483Z0F800
G1 X40.952Y29.553Z0F800
G1 X41.11Y29.616Z0F800
G1 X41.24Y29.706Z0F800
G1 X41.305Y29.855Z0F800
G1 X41.328Y29.953Z0F800
G1 X41.354Y29.997Z0F800
G1 X41.381Z0F800
G1 X41.409Y29.962Z0F800
G1 X41.468Y29.835Z0F800
G1 X41.527Y29.701Z0F800
G1 X41.612Y29.607Z0F800
G1 X41.735Y29.549Z0F800
G1 X41.871Y29.51Z0F800
G1 X42Y29.47Z0F800
G1 X42.167Y29.464Z0F800
G1 X42.33Y29.48Z0F800
G1 X42.488Y29.522Z0F800
G1 X42.638Y29.598Z0F800
G1 X42.771Y29.654Z0F800
G1 X42.852Y29.76Z0F800
G1 X42.904Y29.893Z0F800
G1 X42.952Y30.029Z0F800
G1 X42.977Y30.612Z0F800
G1 X42.974Y31.2Z0F800
G1 Y34.705Z0F800
G1 X42.907Y34.829Z0F800
G1 X42.891Y34.955Z0F800
G1 X42.918Y35.083Z0F800
G1 X42.974Y35.211Z0F800
G1 Y39.828Z0F800
G1 X42.912Y39.955Z0F800
G1 X42.86Y40.093Z0F800
G1 X42.797Y40.221Z0F800
G1 X42.705Y40.316Z0F800
G1 X42.539Y40.384Z0F800
G1 X42.37Y40.43Z0F800
G1 X42.196Y40.452Z0F800
G1 X42.017Y40.446Z0F800
G1 X41.757Y40.352Z0F800
G1 X41.503Y40.234Z0F800
G1 X41.434Y40.061Z0F800
G1 X41.377Y39.886Z0F800
G1 X41.345Y39.706Z0F800
G1 X41.351Y39.519Z0F800
G1 Y35.211Z0F800
G1 X41.418Y35.087Z0F800
G1 X41.434Y34.961Z0F800
G1 X41.408Y34.834Z0F800
G1 X41.351Y34.705Z0F800
G1 Y30.359Z0F800
G1 X41.289Y30.495Z0F800
G1 X41.23Y30.634Z0F800
G1 X41.145Y30.745Z0F800
G1 X41.007Y30.799Z0F800
G1 X40.758Y30.876Z0F800
G1 X40.498Y30.892Z0F800
G1 X40.233Y30.883Z0F800
G1 X39.971Y30.886Z0F800
G1 X38.967Z0F800
G1 X37.966Y30.873Z0F800
G1 X37.816Y30.803Z0F800
G1 X37.658Y30.74Z0F800
G1 X37.528Y30.65Z0F800
G1 X37.463Y30.501Z0F800
G1 X37.436Y30.424Z0F800
G1 X37.42Y30.408Z0F800
G1 X37.413Y30.438Z0F800
G1 Y30.501Z0F800
G1 X37.416Y30.67Z0F800
G1 Y30.804Z0F800
G1 Y34.705Z0F800
G1 X37.347Y34.83Z0F800
G1 X37.332Y34.956Z0F800
G1 X37.358Y35.083Z0F800
G1 X37.415Y35.211Z0F800
G1 Y39.828Z0F800
G1 X37.352Y39.955Z0F800
G1 X37.3Y40.093Z0F800
G1 X37.238Y40.221Z0F800
G1 X37.145Y40.316Z0F800
G1 X36.979Y40.384Z0F800
G1 X36.81Y40.431Z0F800
G1 X36.636Y40.452Z0F800
G1 X36.457Y40.446Z0F800
G1 X36.198Y40.353Z0F800
G1 X35.943Y40.234Z0F800
G1 X35.874Y40.061Z0F800
G1 X35.817Y39.886Z0F800
G1 X35.785Y39.706Z0F800
G1 X35.791Y39.519Z0F800
G1 Y35.211Z0F800
G1 X35.859Y35.087Z0F800
G1 X35.874Y34.961Z0F800
G1 X35.848Y34.834Z0F800
G1 X35.791Y34.705Z0F800
G0 Z0.8F500
G0 X43.179Y39.872Z0.8F1000
G1 Z0F500
G1 X43.297Y39.804Z0F800
G1 X43.437Y39.76Z0F800
G1 X43.653Y39.716Z0F800
G1 X43.877Y39.712Z0F800
G1 X44.102Y39.72Z0F800
G1 X44.326Y39.716Z0F800
G1 X45.345Z0F800
G1 X46.361Y39.729Z0F800
G1 X46.512Y39.8Z0F800
G1 X46.669Y39.863Z0F800
G1 X46.799Y39.952Z0F800
G1 X46.864Y40.102Z0F800
G1 X46.888Y40.2Z0F800
G1 X46.914Y40.244Z0F800
G1 X46.941Z0F800
G1 X46.969Y40.209Z0F800
G1 X47.028Y40.082Z0F800
G1 X47.086Y39.948Z0F800
G1 X47.172Y39.854Z0F800
G1 X47.294Y39.796Z0F800
G1 X47.431Y39.756Z0F800
G1 X47.559Y39.717Z0F800
G1 X47.727Y39.711Z0F800
G1 X47.89Y39.726Z0F800
G1 X48.047Y39.769Z0F800
G1 X48.198Y39.844Z0F800
G1 X48.331Y39.901Z0F800
G1 X48.412Y40.007Z0F800
G1 X48.464Y40.139Z0F800
G1 X48.512Y40.275Z0F800
G1 X48.537Y40.858Z0F800
G1 X48.534Y41.446Z0F800
G1 Y44.952Z0F800
G1 X48.472Y45.079Z0F800
G1 X48.419Y45.217Z0F800
G1 X48.357Y45.344Z0F800
G1 X48.265Y45.439Z0F800
G1 X48.099Y45.507Z0F800
G1 X47.93Y45.554Z0F800
G1 X47.756Y45.576Z0F800
G1 X47.577Y45.57Z0F800
G1 X47.317Y45.476Z0F800
G1 X47.063Y45.358Z0F800
G1 X46.994Y45.185Z0F800
G1 X46.937Y45.009Z0F800
G1 X46.905Y44.829Z0F800
G1 X46.911Y44.643Z0F800
G1 Y40.603Z0F800
G1 X46.849Y40.74Z0F800
G1 X46.79Y40.879Z0F800
G1 X46.705Y40.991Z0F800
G1 X46.566Y41.045Z0F800
G1 X46.317Y41.123Z0F800
G1 X46.057Y41.139Z0F800
G1 X45.792Y41.129Z0F800
G1 X45.53Y41.133Z0F800
G1 X44.526Z0F800
G1 X43.526Y41.12Z0F800
G1 X43.375Y41.049Z0F800
G1 X43.218Y40.986Z0F800
G1 X43.088Y40.897Z0F800
G1 X43.023Y40.747Z0F800
G1 X42.958Y40.589Z0F800
G1 X42.937Y40.425Z0F800
G1 X42.963Y40.263Z0F800
G1 X43.038Y40.109Z0F800
G1 X43.09Y39.971Z0F800
G1 X43.179Y39.872Z0F800
G0 Z0.8F500
G0 X46.333Y44.839Z0.8F1000
G1 Z0F500
G1 X46.46Y44.902Z0F800
G1 X46.598Y44.954Z0F800
G1 X46.726Y45.017Z0F800
G1 X46.821Y45.109Z0F800
G1 X46.889Y45.28Z0F800
G1 X46.941Y45.458Z0F800
G1 X46.947Y45.635Z0F800
G1 X46.874Y45.806Z0F800
G1 X46.82Y45.942Z0F800
G1 X46.749Y46.06Z0F800
G1 X46.649Y46.147Z0F800
G1 X46.508Y46.19Z0F800
G1 X46.279Y46.252Z0F800
G1 X46.041Y46.261Z0F800
G1 X45.8Y46.252Z0F800
G1 X45.561Y46.255Z0F800
G1 X32.434Z0F800
G1 X32.005Y46.064Z0F800
G1 X31.936Y46.032Z0F800
G1 X31.968Y46.044Z0F800
G1 X32.026Y46.048Z0F800
G1 X32.032Y46Z0F800
G1 X32.003Y45.91Z0F800
G1 X31.954Y45.793Z0F800
G1 X31.902Y45.659Z0F800
G1 X31.864Y45.522Z0F800
G1 X31.856Y45.394Z0F800
G1 X31.893Y45.288Z0F800
G1 X31.947Y45.152Z0F800
G1 X32.018Y45.035Z0F800
G1 X32.118Y44.948Z0F800
G1 X32.259Y44.905Z0F800
G1 X32.488Y44.843Z0F800
G1 X32.726Y44.834Z0F800
G1 X32.967Y44.843Z0F800
G1 X33.206Y44.839Z0F800
G1 X46.333Z0F800
G0 Z0.8F500
G0 X60.804Y44.829Z0.8F1000
G1 Z0F500
G1 X60.81Y44.643Z0F800
G1 Y40.334Z0F800
G1 X60.877Y40.21Z0F800
G1 X60.893Y40.084Z0F800
G1 X60.867Y39.957Z0F800
G1 X60.81Y39.828Z0F800
G1 Y35.211Z0F800
G1 X60.877Y35.087Z0F800
G1 X60.893Y34.961Z0F800
G1 X60.867Y34.834Z0F800
G1 X60.81Y34.705Z0F800
G1 Y30.088Z0F800
G1 X60.872Y29.961Z0F800
G1 X60.925Y29.823Z0F800
G1 X60.987Y29.695Z0F800
G1 X61.079Y29.6Z0F800
G1 X61.245Y29.532Z0F800
G1 X61.414Y29.485Z0F800
G1 X61.588Y29.464Z0F800
G1 X61.767Y29.47Z0F800
G1 X62.027Y29.563Z0F800
G1 X62.281Y29.682Z0F800
G1 X62.381Y29.955Z0F800
G1 X62.407Y29.996Z0F800
G1 X62.434Y30.004Z0F800
G1 X62.462Y29.967Z0F800
G1 X62.493Y29.873Z0F800
G1 X62.546Y29.732Z0F800
G1 X62.635Y29.629Z0F800
G1 X62.753Y29.558Z0F800
G1 X62.896Y29.514Z0F800
G1 X63.112Y29.47Z0F800
G1 X63.335Y29.465Z0F800
G1 X63.561Y29.474Z0F800
G1 X63.785Y29.47Z0F800
G1 X64.804Z0F800
G1 X65.82Y29.483Z0F800
G1 X65.97Y29.553Z0F800
G1 X66.128Y29.616Z0F800
G1 X66.258Y29.706Z0F800
G1 X66.323Y29.855Z0F800
G1 X66.347Y29.954Z0F800
G1 X66.372Y29.997Z0F800
G1 X66.4Z0F800
G1 X66.428Y29.962Z0F800
G1 X66.486Y29.836Z0F800
G1 X66.545Y29.701Z0F800
G1 X66.63Y29.607Z0F800
G1 X66.753Y29.549Z0F800
G1 X66.89Y29.51Z0F800
G1 X67.018Y29.47Z0F800
G1 X67.186Y29.464Z0F800
G1 X67.349Y29.48Z0F800
G1 X67.506Y29.522Z0F800
G1 X67.657Y29.598Z0F800
G1 X67.79Y29.654Z0F800
G1 X67.871Y29.76Z0F800
G1 X67.923Y29.893Z0F800
G1 X67.971Y30.029Z0F800
G1 X67.996Y30.612Z0F800
G1 X67.993Y31.2Z0F800
G1 Y34.594Z0F800
G1 X69.149Z0F800
G1 Y30.088Z0F800
G1 X69.212Y29.961Z0F800
G1 X69.264Y29.823Z0F800
G1 X69.326Y29.695Z0F800
G1 X69.419Y29.6Z0F800
G1 X69.584Y29.532Z0F800
G1 X69.754Y29.485Z0F800
G1 X69.928Y29.464Z0F800
G1 X70.107Y29.47Z0F800
G1 X70.366Y29.563Z0F800
G1 X70.621Y29.682Z0F800
G1 X70.72Y29.955Z0F800
G1 X70.746Y29.996Z0F800
G1 X70.773Y30.004Z0F800
G1 X70.801Y29.967Z0F800
G1 X70.832Y29.873Z0F800
G1 X70.885Y29.732Z0F800
G1 X70.974Y29.629Z0F800
G1 X71.092Y29.558Z0F800
G1 X71.235Y29.514Z0F800
G1 X71.451Y29.47Z0F800
G1 X71.675Y29.465Z0F800
G1 X71.901Y29.474Z0F800
G1 X72.124Y29.47Z0F800
G1 X73.144Z0F800
G1 X74.16Y29.483Z0F800
G1 X74.31Y29.553Z0F800
G1 X74.468Y29.616Z0F800
G1 X74.598Y29.706Z0F800
G1 X74.663Y29.855Z0F800
G1 X74.686Y29.954Z0F800
G1 X74.712Y29.997Z0F800
G1 X74.739Z0F800
G1 X74.767Y29.962Z0F800
G1 X74.826Y29.835Z0F800
G1 X74.885Y29.701Z0F800
G1 X74.97Y29.607Z0F800
G1 X75.093Y29.549Z0F800
G1 X75.229Y29.51Z0F800
G1 X75.358Y29.47Z0F800
G1 X75.525Y29.464Z0F800
G1 X75.688Y29.48Z0F800
G1 X75.846Y29.522Z0F800
G1 X75.996Y29.598Z0F800
G1 X76.129Y29.654Z0F800
G1 X76.21Y29.76Z0F800
G1 X76.262Y29.893Z0F800
G1 X76.31Y30.029Z0F800
G1 X76.335Y30.612Z0F800
G1 X76.332Y31.2Z0F800
G1 Y34.705Z0F800
G1 X76.265Y34.829Z0F800
G1 X76.25Y34.955Z0F800
G1 X76.276Y35.083Z0F800
G1 X76.332Y35.211Z0F800
G1 Y39.828Z0F800
G1 X76.265Y39.952Z0F800
G1 X76.25Y40.078Z0F800
G1 X76.276Y40.206Z0F800
G1 X76.332Y40.334Z0F800
G1 Y44.952Z0F800
G1 X76.27Y45.079Z0F800
G1 X76.218Y45.217Z0F800
G1 X76.155Y45.344Z0F800
G1 X76.063Y45.439Z0F800
G1 X75.897Y45.507Z0F800
G1 X75.728Y45.554Z0F800
G1 X75.554Y45.576Z0F800
G1 X75.375Y45.57Z0F800
G1 X75.115Y45.476Z0F800
G1 X74.861Y45.358Z0F800
G1 X74.792Y45.185Z0F800
G1 X74.735Y45.009Z0F800
G1 X74.703Y44.829Z0F800
G1 X74.709Y44.643Z0F800
G1 Y40.334Z0F800
G1 X74.776Y40.21Z0F800
G1 X74.792Y40.084Z0F800
G1 X74.766Y39.957Z0F800
G1 X74.709Y39.828Z0F800
G1 Y35.211Z0F800
G1 X74.776Y35.087Z0F800
G1 X74.792Y34.961Z0F800
G1 X74.766Y34.834Z0F800
G1 X74.709Y34.705Z0F800
G1 Y30.359Z0F800
G1 X74.647Y30.495Z0F800
G1 X74.588Y30.634Z0F800
G1 X74.503Y30.745Z0F800
G1 X74.365Y30.799Z0F800
G1 X74.116Y30.876Z0F800
G1 X73.856Y30.892Z0F800
G1 X73.591Y30.883Z0F800
G1 X73.329Y30.886Z0F800
G1 X72.325Z0F800
G1 X71.324Y30.873Z0F800
G1 X71.174Y30.803Z0F800
G1 X71.016Y30.74Z0F800
G1 X70.886Y30.65Z0F800
G1 X70.821Y30.501Z0F800
G1 X70.794Y30.424Z0F800
G1 X70.778Y30.408Z0F800
G1 X70.771Y30.438Z0F800
G1 Y30.501Z0F800
G1 X70.774Y30.67Z0F800
G1 Y30.804Z0F800
G1 Y34.594Z0F800
G1 X71.202Z0F800
G1 X71.41Y34.62Z0F800
G1 X71.605Y34.709Z0F800
G1 X71.742Y34.762Z0F800
G1 X71.832Y34.86Z0F800
G1 X71.891Y34.985Z0F800
G1 X71.937Y35.124Z0F800
G1 X71.972Y35.314Z0F800
G1 X71.924Y35.499Z0F800
G1 X71.838Y35.68Z0F800
G1 X71.758Y35.858Z0F800
G1 X71.585Y35.927Z0F800
G1 X71.41Y35.984Z0F800
G1 X71.23Y36.016Z0F800
G1 X71.043Y36.01Z0F800
G1 X65.792Z0F800
G1 X65.665Y35.947Z0F800
G1 X65.527Y35.895Z0F800
G1 X65.4Y35.833Z0F800
G1 X65.305Y35.74Z0F800
G1 X65.236Y35.569Z0F800
G1 X65.184Y35.392Z0F800
G1 X65.179Y35.214Z0F800
G1 X65.251Y35.043Z0F800
G1 X65.305Y34.907Z0F800
G1 X65.376Y34.789Z0F800
G1 X65.477Y34.702Z0F800
G1 X65.618Y34.659Z0F800
G1 X65.798Y34.601Z0F800
G1 X65.987Y34.589Z0F800
G1 X66.179Y34.596Z0F800
G1 X66.37Z0F800
G1 Y30.357Z0F800
G1 X66.308Y30.494Z0F800
G1 X66.248Y30.633Z0F800
G1 X66.164Y30.745Z0F800
G1 X66.025Y30.799Z0F800
G1 X65.776Y30.876Z0F800
G1 X65.516Y30.892Z0F800
G1 X65.251Y30.883Z0F800
G1 X64.989Y30.886Z0F800
G1 X63.985Z0F800
G1 X62.984Y30.874Z0F800
G1 X62.834Y30.803Z0F800
G1 X62.677Y30.74Z0F800
G1 X62.547Y30.65Z0F800
G1 X62.482Y30.501Z0F800
G1 X62.455Y30.424Z0F800
G1 X62.439Y30.408Z0F800
G1 X62.432Y30.438Z0F800
G1 Y30.501Z0F800
G1 X62.435Y30.67Z0F800
G1 Y30.804Z0F800
G1 Y34.705Z0F800
G1 X62.366Y34.83Z0F800
G1 X62.35Y34.956Z0F800
G1 X62.377Y35.083Z0F800
G1 X62.433Y35.212Z0F800
G1 Y39.828Z0F800
G1 X62.366Y39.953Z0F800
G1 X62.35Y40.079Z0F800
G1 X62.377Y40.206Z0F800
G1 X62.433Y40.335Z0F800
G1 Y44.952Z0F800
G1 X62.371Y45.079Z0F800
G1 X62.319Y45.217Z0F800
G1 X62.256Y45.344Z0F800
G1 X62.164Y45.439Z0F800
G1 X61.998Y45.508Z0F800
G1 X61.829Y45.554Z0F800
G1 X61.655Y45.576Z0F800
G1 X61.476Y45.57Z0F800
G1 X61.216Y45.476Z0F800
G1 X60.962Y45.358Z0F800
G1 X60.893Y45.185Z0F800
G1 X60.836Y45.009Z0F800
G1 X60.804Y44.829Z0F800
G0 Z0.8F500
G0 X62.526Y45.152Z0.8F1000
G1 Z0F500
G1 X62.597Y45.035Z0F800
G1 X62.697Y44.948Z0F800
G1 X62.838Y44.905Z0F800
G1 X63.066Y44.843Z0F800
G1 X63.304Y44.834Z0F800
G1 X63.546Y44.843Z0F800
G1 X63.785Y44.839Z0F800
G1 X64.804Z0F800
G1 X65.82Y44.852Z0F800
G1 X65.97Y44.922Z0F800
G1 X66.128Y44.986Z0F800
G1 X66.258Y45.075Z0F800
G1 X66.323Y45.225Z0F800
G1 X66.388Y45.383Z0F800
G1 X66.408Y45.547Z0F800
G1 X66.383Y45.709Z0F800
G1 X66.308Y45.863Z0F800
G1 X66.256Y46.001Z0F800
G1 X66.167Y46.1Z0F800
G1 X66.049Y46.168Z0F800
G1 X65.909Y46.212Z0F800
G1 X65.693Y46.256Z0F800
G1 X65.469Y46.26Z0F800
G1 X65.243Y46.252Z0F800
G1 X65.02Y46.255Z0F800
G1 X64Z0F800
G1 X62.984Y46.243Z0F800
G1 X62.844Y46.163Z0F800
G1 X62.684Y46.065Z0F800
G1 X62.615Y46.026Z0F800
G1 X62.564Y46.005Z0F800
G1 X62.539Y46.008Z0F800
G1 X62.547Y46.044Z0F800
G1 X62.569Y46.087Z0F800
G1 X62.527Y45.969Z0F800
G1 X62.486Y45.843Z0F800
G1 X62.448Y45.694Z0F800
G1 X62.425Y45.541Z0F800
G1 X62.429Y45.4Z0F800
G1 X62.526Y45.152Z0F800
G0 Z0.8F500
G0 X66.364Y44.829Z0.8F1000
G1 Z0F500
G1 X66.37Y44.643Z0F800
G1 Y40.334Z0F800
G1 X66.432Y40.207Z0F800
G1 X66.484Y40.069Z0F800
G1 X66.547Y39.942Z0F800
G1 X66.639Y39.847Z0F800
G1 X66.805Y39.779Z0F800
G1 X66.974Y39.732Z0F800
G1 X67.148Y39.71Z0F800
G1 X67.327Y39.716Z0F800
G1 X67.587Y39.81Z0F800
G1 X67.841Y39.928Z0F800
G1 X67.91Y40.101Z0F800
G1 X67.967Y40.277Z0F800
G1 X67.999Y40.456Z0F800
G1 X67.993Y40.643Z0F800
G1 Y44.952Z0F800
G1 X67.931Y45.079Z0F800
G1 X67.878Y45.217Z0F800
G1 X67.816Y45.344Z0F800
G1 X67.723Y45.439Z0F800
G1 X67.558Y45.507Z0F800
G1 X67.388Y45.554Z0F800
G1 X67.215Y45.576Z0F800
G1 X67.035Y45.569Z0F800
G1 X66.776Y45.476Z0F800
G1 X66.522Y45.358Z0F800
G1 X66.452Y45.185Z0F800
G1 X66.395Y45.009Z0F800
G1 X66.364Y44.829Z0F800
G0 Z0.8F500
G0 X69.143Z0.8F1000
G1 Z0F500
G1 X69.149Y44.643Z0F800
G1 Y40.334Z0F800
G1 X69.212Y40.207Z0F800
G1 X69.264Y40.069Z0F800
G1 X69.326Y39.942Z0F800
G1 X69.419Y39.847Z0F800
G1 X69.584Y39.779Z0F800
G1 X69.754Y39.732Z0F800
G1 X69.928Y39.71Z0F800
G1 X70.107Y39.716Z0F800
G1 X70.366Y39.81Z0F800
G1 X70.621Y39.928Z0F800
G1 X70.69Y40.101Z0F800
G1 X70.747Y40.277Z0F800
G1 X70.779Y40.456Z0F800
G1 X70.773Y40.643Z0F800
G1 Y44.952Z0F800
G1 X70.71Y45.079Z0F800
G1 X70.658Y45.217Z0F800
G1 X70.596Y45.344Z0F800
G1 X70.503Y45.439Z0F800
G1 X70.337Y45.507Z0F800
G1 X70.168Y45.554Z0F800
G1 X69.994Y45.576Z0F800
G1 X69.815Y45.569Z0F800
G1 X69.556Y45.476Z0F800
G1 X69.301Y45.358Z0F800
G1 X69.232Y45.185Z0F800
G1 X69.175Y45.009Z0F800
G1 X69.143Y44.829Z0F800
G0 Z0.8F500
G0 X70.865Y45.152Z0.8F1000
G1 Z0F500
G1 X70.936Y45.035Z0F800
G1 X71.036Y44.948Z0F800
G1 X71.177Y44.905Z0F800
G1 X71.406Y44.843Z0F800
G1 X71.644Y44.834Z0F800
G1 X71.885Y44.843Z0F800
G1 X72.124Y44.839Z0F800
G1 X73.144Z0F800
G1 X74.16Y44.852Z0F800
G1 X74.31Y44.922Z0F800
G1 X74.468Y44.986Z0F800
G1 X74.598Y45.075Z0F800
G1 X74.663Y45.225Z0F800
G1 X74.728Y45.383Z0F800
G1 X74.748Y45.547Z0F800
G1 X74.723Y45.709Z0F800
G1 X74.648Y45.863Z0F800
G1 X74.596Y46.001Z0F800
G1 X74.507Y46.1Z0F800
G1 X74.389Y46.168Z0F800
G1 X74.249Y46.212Z0F800
G1 X74.033Y46.256Z0F800
G1 X73.809Y46.26Z0F800
G1 X73.583Y46.252Z0F800
G1 X73.36Y46.255Z0F800
G1 X72.34Z0F800
G1 X71.324Y46.243Z0F800
G1 X71.178Y46.168Z0F800
G1 X71.008Y46.076Z0F800
G1 X70.936Y46.039Z0F800
G1 X70.886Y46.018Z0F800
G1 X70.866Z0F800
G1 X70.886Y46.044Z0F800
G1 X70.928Y46.073Z0F800
G1 Y46.036Z0F800
G1 X70.85Y45.825Z0F800
G1 X70.805Y45.682Z0F800
G1 X70.774Y45.534Z0F800
G1 X70.771Y45.398Z0F800
G1 X70.811Y45.288Z0F800
G1 X70.865Y45.152Z0F800
G0 Z0.8F500
G0 X74.481Y50.025Z0.8F1000
G1 Z0F500
G1 X74.651Y49.978Z0F800
G1 X74.825Y49.957Z0F800
G1 X75.004Y49.963Z0F800
G1 X75.263Y50.057Z0F800
G1 X75.517Y50.175Z0F800
G1 X75.617Y50.449Z0F800
G1 X75.643Y50.49Z0F800
G1 X75.67Y50.498Z0F800
G1 X75.698Y50.46Z0F800
G1 X75.729Y50.366Z0F800
G1 X75.782Y50.226Z0F800
G1 X75.871Y50.122Z0F800
G1 X75.989Y50.051Z0F800
G1 X76.132Y50.007Z0F800
G1 X76.348Y49.963Z0F800
G1 X76.572Y49.958Z0F800
G1 X76.798Y49.967Z0F800
G1 X77.021Y49.963Z0F800
G1 X90.148Z0F800
G1 X90.275Y50.025Z0F800
G1 X90.413Y50.078Z0F800
G1 X90.54Y50.14Z0F800
G1 X90.635Y50.233Z0F800
G1 X90.684Y50.384Z0F800
G1 X90.735Y50.473Z0F800
G1 X90.762Y50.482Z0F800
G1 X90.79Y50.46Z0F800
G1 X90.819Y50.404Z0F800
G1 X90.849Y50.306Z0F800
G1 X90.906Y50.171Z0F800
G1 X91.012Y50.088Z0F800
G1 X91.145Y50.034Z0F800
G1 X91.284Y49.985Z0F800
G1 X91.462Y49.959Z0F800
G1 X91.643Y49.962Z0F800
G1 X91.819Y50Z0F800
G1 X91.984Y50.078Z0F800
G1 X92.121Y50.131Z0F800
G1 X92.21Y50.229Z0F800
G1 X92.27Y50.355Z0F800
G1 X92.315Y50.493Z0F800
G1 X92.35Y50.719Z0F800
G1 Y50.95Z0F800
G1 X92.345Y51.184Z0F800
G1 X92.348Y51.415Z0F800
G1 Y55.086Z0F800
G1 X92.777Z0F800
G1 X92.985Y55.113Z0F800
G1 X93.181Y55.201Z0F800
G1 X93.318Y55.254Z0F800
G1 X93.407Y55.352Z0F800
G1 X93.467Y55.478Z0F800
G1 X93.513Y55.616Z0F800
G1 X93.575Y55.575Z0F800
G1 X93.587Y55.457Z0F800
G1 X93.56Y55.315Z0F800
G1 X93.505Y55.198Z0F800
G1 Y50.581Z0F800
G1 X93.567Y50.454Z0F800
G1 X93.619Y50.316Z0F800
G1 X93.682Y50.188Z0F800
G1 X93.774Y50.093Z0F800
G1 X93.94Y50.025Z0F800
G1 X94.109Y49.979Z0F800
G1 X94.283Y49.957Z0F800
G1 X94.462Y49.963Z0F800
G1 X94.722Y50.057Z0F800
G1 X94.976Y50.175Z0F800
G1 X95.075Y50.449Z0F800
G1 X95.101Y50.49Z0F800
G1 X95.128Y50.498Z0F800
G1 X95.157Y50.46Z0F800
G1 X95.187Y50.366Z0F800
G1 X95.241Y50.226Z0F800
G1 X95.329Y50.123Z0F800
G1 X95.448Y50.051Z0F800
G1 X95.591Y50.007Z0F800
G1 X95.807Y49.963Z0F800
G1 X96.03Y49.958Z0F800
G1 X96.256Y49.967Z0F800
G1 X96.48Y49.963Z0F800
G1 X97.499Z0F800
G1 X98.515Y49.976Z0F800
G1 X98.665Y50.046Z0F800
G1 X98.823Y50.109Z0F800
G1 X98.952Y50.199Z0F800
G1 X99.018Y50.348Z0F800
G1 X99.042Y50.447Z0F800
G1 X99.067Y50.49Z0F800
G1 X99.094Z0F800
G1 X99.123Y50.455Z0F800
G1 X99.181Y50.329Z0F800
G1 X99.24Y50.194Z0F800
G1 X99.325Y50.1Z0F800
G1 X99.448Y50.042Z0F800
G1 X99.585Y50.003Z0F800
G1 X99.713Y49.963Z0F800
G1 X99.881Y49.957Z0F800
G1 X100.044Y49.973Z0F800
G1 X100.201Y50.015Z0F800
G1 X100.351Y50.091Z0F800
G1 X100.484Y50.147Z0F800
G1 X100.565Y50.253Z0F800
G1 X100.617Y50.386Z0F800
G1 X100.665Y50.522Z0F800
G1 X100.69Y51.105Z0F800
G1 X100.687Y51.693Z0F800
G1 Y55.198Z0F800
G1 X100.62Y55.322Z0F800
G1 X100.604Y55.448Z0F800
G1 X100.631Y55.575Z0F800
G1 X100.687Y55.704Z0F800
G1 Y60.321Z0F800
G1 X100.625Y60.448Z0F800
G1 X100.573Y60.586Z0F800
G1 X100.51Y60.714Z0F800
G1 X100.418Y60.809Z0F800
G1 X100.252Y60.877Z0F800
G1 X100.083Y60.923Z0F800
G1 X99.909Y60.945Z0F800
G1 X99.73Y60.939Z0F800
G1 X99.47Y60.845Z0F800
G1 X99.216Y60.727Z0F800
G1 X99.147Y60.554Z0F800
G1 X99.09Y60.379Z0F800
G1 X99.058Y60.199Z0F800
G1 X99.064Y60.012Z0F800
G1 Y55.704Z0F800
G1 X99.132Y55.58Z0F800
G1 X99.147Y55.454Z0F800
G1 X99.121Y55.327Z0F800
G1 X99.064Y55.198Z0F800
G1 Y50.85Z0F800
G1 X99.002Y50.986Z0F800
G1 X98.943Y51.126Z0F800
G1 X98.859Y51.238Z0F800
G1 X98.719Y51.292Z0F800
G1 X98.471Y51.369Z0F800
G1 X98.211Y51.385Z0F800
G1 X97.946Y51.376Z0F800
G1 X97.684Y51.379Z0F800
G1 X96.68Z0F800
G1 X95.679Y51.366Z0F800
G1 X95.529Y51.296Z0F800
G1 X95.371Y51.233Z0F800
G1 X95.242Y51.143Z0F800
G1 X95.177Y50.994Z0F800
G1 X95.15Y50.916Z0F800
G1 X95.134Y50.899Z0F800
G1 X95.126Y50.929Z0F800
G1 Y50.991Z0F800
G1 X95.129Y51.16Z0F800
G1 Y51.295Z0F800
G1 Y55.198Z0F800
G1 X95.06Y55.322Z0F800
G1 X95.045Y55.448Z0F800
G1 X95.071Y55.575Z0F800
G1 X95.128Y55.704Z0F800
G1 Y60.321Z0F800
G1 X95.06Y60.445Z0F800
G1 X95.045Y60.571Z0F800
G1 X95.071Y60.699Z0F800
G1 X95.128Y60.827Z0F800
G1 Y65.445Z0F800
G1 X95.06Y65.569Z0F800
G1 X95.045Y65.695Z0F800
G1 X95.071Y65.822Z0F800
G1 X95.128Y65.95Z0F800
G1 Y70.568Z0F800
G1 X95.06Y70.692Z0F800
G1 X95.045Y70.818Z0F800
G1 X95.071Y70.945Z0F800
G1 X95.128Y71.073Z0F800
G1 Y75.579Z0F800
G1 X106.826Z0F800
G1 X106.953Y75.641Z0F800
G1 X107.091Y75.694Z0F800
G1 X107.219Y75.756Z0F800
G1 X107.314Y75.849Z0F800
G1 X107.383Y76.02Z0F800
G1 X107.435Y76.197Z0F800
G1 X107.44Y76.375Z0F800
G1 X107.367Y76.546Z0F800
G1 X107.313Y76.682Z0F800
G1 X107.242Y76.8Z0F800
G1 X107.142Y76.887Z0F800
G1 X107.001Y76.93Z0F800
G1 X106.772Y76.991Z0F800
G1 X106.535Y77.001Z0F800
G1 X106.293Y76.991Z0F800
G1 X106.054Y76.995Z0F800
G1 X92.927Z0F800
G1 X92.462Y76.783Z0F800
G1 X92.389Y76.598Z0F800
G1 X92.326Y76.406Z0F800
G1 X92.312Y76.214Z0F800
G1 X92.441Y75.892Z0F800
G1 X92.512Y75.774Z0F800
G1 X92.612Y75.687Z0F800
G1 X92.753Y75.644Z0F800
G1 X92.933Y75.587Z0F800
G1 X93.122Y75.575Z0F800
G1 X93.314Y75.581Z0F800
G1 X93.505Z0F800
G1 Y71.073Z0F800
G1 X93.573Y70.949Z0F800
G1 X93.588Y70.823Z0F800
G1 X93.562Y70.696Z0F800
G1 X93.505Y70.568Z0F800
G1 Y65.95Z0F800
G1 X93.573Y65.826Z0F800
G1 X93.588Y65.7Z0F800
G1 X93.562Y65.573Z0F800
G1 X93.505Y65.445Z0F800
G1 Y60.827Z0F800
G1 X93.573Y60.703Z0F800
G1 X93.588Y60.577Z0F800
G1 X93.562Y60.45Z0F800
G1 X93.505Y60.321Z0F800
G1 Y55.973Z0F800
G1 X93.443Y56.109Z0F800
G1 X93.384Y56.249Z0F800
G1 X93.299Y56.361Z0F800
G1 X93.16Y56.415Z0F800
G1 X92.911Y56.492Z0F800
G1 X92.651Y56.508Z0F800
G1 X92.387Y56.499Z0F800
G1 X92.124Y56.502Z0F800
G1 X81.808Z0F800
G1 X81.681Y56.439Z0F800
G1 X81.543Y56.387Z0F800
G1 X81.416Y56.325Z0F800
G1 X81.321Y56.232Z0F800
G1 X81.29Y56.133Z0F800
G1 X81.266Y56.072Z0F800
G1 X81.248Y56.044Z0F800
G1 X81.235Y56.047Z0F800
G1 X81.225Y56.131Z0F800
G1 X81.229Y56.296Z0F800
G1 Y60.321Z0F800
G1 X81.166Y60.448Z0F800
G1 X81.114Y60.586Z0F800
G1 X81.052Y60.714Z0F800
G1 X80.959Y60.809Z0F800
G1 X80.794Y60.877Z0F800
G1 X80.624Y60.923Z0F800
G1 X80.45Y60.945Z0F800
G1 X80.271Y60.939Z0F800
G1 X80.012Y60.845Z0F800
G1 X79.758Y60.727Z0F800
G1 X79.689Y60.554Z0F800
G1 X79.632Y60.379Z0F800
G1 X79.6Y60.199Z0F800
G1 X79.606Y60.012Z0F800
G1 Y55.704Z0F800
G1 X79.668Y55.577Z0F800
G1 X79.721Y55.439Z0F800
G1 X79.783Y55.311Z0F800
G1 X79.875Y55.216Z0F800
G1 X80.041Y55.148Z0F800
G1 X80.21Y55.101Z0F800
G1 X80.384Y55.08Z0F800
G1 X80.563Y55.086Z0F800
G1 X80.823Y55.18Z0F800
G1 X81.077Y55.298Z0F800
G1 X81.176Y55.571Z0F800
G1 X81.202Y55.612Z0F800
G1 X81.229Y55.62Z0F800
G1 X81.258Y55.583Z0F800
G1 X81.288Y55.489Z0F800
G1 X81.341Y55.348Z0F800
G1 X81.43Y55.245Z0F800
G1 X81.548Y55.174Z0F800
G1 X81.691Y55.13Z0F800
G1 X81.907Y55.086Z0F800
G1 X82.131Y55.081Z0F800
G1 X82.357Y55.09Z0F800
G1 X82.58Y55.086Z0F800
G1 X90.725Z0F800
G1 Y50.852Z0F800
G1 X90.663Y50.988Z0F800
G1 X90.604Y51.127Z0F800
G1 X90.519Y51.238Z0F800
G1 X90.38Y51.292Z0F800
G1 X90.132Y51.369Z0F800
G1 X89.872Y51.385Z0F800
G1 X89.607Y51.376Z0F800
G1 X89.345Y51.379Z0F800
G1 X76.249Z0F800
G1 X76.122Y51.317Z0F800
G1 X75.984Y51.264Z0F800
G1 X75.856Y51.202Z0F800
G1 X75.761Y51.109Z0F800
G1 X75.73Y51.01Z0F800
G1 X75.706Y50.948Z0F800
G1 X75.688Y50.92Z0F800
G1 X75.676Y50.923Z0F800
G1 X75.665Y51.006Z0F800
G1 X75.669Y51.171Z0F800
G1 Y55.198Z0F800
G1 X75.601Y55.322Z0F800
G1 X75.586Y55.448Z0F800
G1 X75.612Y55.575Z0F800
G1 X75.669Y55.704Z0F800
G1 Y60.321Z0F800
G1 X75.601Y60.445Z0F800
G1 X75.586Y60.571Z0F800
G1 X75.612Y60.699Z0F800
G1 X75.669Y60.827Z0F800
G1 Y65.445Z0F800
G1 X75.601Y65.569Z0F800
G1 X75.586Y65.695Z0F800
G1 X75.612Y65.822Z0F800
G1 X75.669Y65.95Z0F800
G1 Y70.568Z0F800
G1 X75.601Y70.692Z0F800
G1 X75.586Y70.818Z0F800
G1 X75.612Y70.945Z0F800
G1 X75.669Y71.073Z0F800
G1 Y75.691Z0F800
G1 X75.606Y75.818Z0F800
G1 X75.554Y75.956Z0F800
G1 X75.492Y76.083Z0F800
G1 X75.399Y76.178Z0F800
G1 X75.234Y76.246Z0F800
G1 X75.064Y76.293Z0F800
G1 X74.89Y76.315Z0F800
G1 X74.711Y76.308Z0F800
G1 X74.452Y76.215Z0F800
G1 X74.198Y76.097Z0F800
G1 X74.129Y75.924Z0F800
G1 X74.072Y75.748Z0F800
G1 X74.04Y75.568Z0F800
G1 X74.046Y75.382Z0F800
G1 Y71.073Z0F800
G1 X74.114Y70.949Z0F800
G1 X74.129Y70.823Z0F800
G1 X74.103Y70.696Z0F800
G1 X74.046Y70.568Z0F800
G1 Y65.95Z0F800
G1 X74.114Y65.826Z0F800
G1 X74.129Y65.7Z0F800
G1 X74.103Y65.573Z0F800
G1 X74.046Y65.445Z0F800
G1 Y60.827Z0F800
G1 X74.114Y60.703Z0F800
G1 X74.129Y60.577Z0F800
G1 X74.103Y60.45Z0F800
G1 X74.046Y60.321Z0F800
G1 Y55.704Z0F800
G1 X74.114Y55.58Z0F800
G1 X74.129Y55.454Z0F800
G1 X74.103Y55.326Z0F800
G1 X74.046Y55.198Z0F800
G1 Y50.581Z0F800
G1 X74.108Y50.454Z0F800
G1 X74.161Y50.316Z0F800
G1 X74.223Y50.188Z0F800
G1 X74.316Y50.093Z0F800
G1 X74.481Y50.025Z0F800
G0 Z0.8F500
G0 X67.308Y50.522Z0.8F1000
G1 Z0F500
G1 X67.332Y51.105Z0F800
G1 Y51.693Z0F800
G1 Y55.198Z0F800
G1 X67.262Y55.322Z0F800
G1 X67.247Y55.448Z0F800
G1 X67.273Y55.575Z0F800
G1 X67.33Y55.704Z0F800
G1 Y60.321Z0F800
G1 X67.262Y60.445Z0F800
G1 X67.247Y60.571Z0F800
G1 X67.273Y60.699Z0F800
G1 X67.33Y60.827Z0F800
G1 Y65.445Z0F800
G1 X67.262Y65.569Z0F800
G1 X67.247Y65.695Z0F800
G1 X67.273Y65.822Z0F800
G1 X67.33Y65.95Z0F800
G1 Y70.568Z0F800
G1 X67.267Y70.695Z0F800
G1 X67.215Y70.833Z0F800
G1 X67.152Y70.96Z0F800
G1 X67.06Y71.055Z0F800
G1 X66.894Y71.123Z0F800
G1 X66.725Y71.17Z0F800
G1 X66.551Y71.192Z0F800
G1 X66.372Y71.185Z0F800
G1 X66.112Y71.092Z0F800
G1 X65.858Y70.974Z0F800
G1 X65.789Y70.801Z0F800
G1 X65.732Y70.625Z0F800
G1 X65.7Y70.445Z0F800
G1 X65.706Y70.259Z0F800
G1 Y65.95Z0F800
G1 X65.774Y65.826Z0F800
G1 X65.789Y65.7Z0F800
G1 X65.763Y65.573Z0F800
G1 X65.706Y65.445Z0F800
G1 Y60.827Z0F800
G1 X65.774Y60.703Z0F800
G1 X65.789Y60.577Z0F800
G1 X65.763Y60.45Z0F800
G1 X65.706Y60.321Z0F800
G1 Y55.704Z0F800
G1 X65.774Y55.58Z0F800
G1 X65.789Y55.454Z0F800
G1 X65.763Y55.326Z0F800
G1 X65.706Y55.198Z0F800
G1 Y50.852Z0F800
G1 X65.644Y50.988Z0F800
G1 X65.585Y51.127Z0F800
G1 X65.501Y51.238Z0F800
G1 X65.362Y51.292Z0F800
G1 X65.113Y51.369Z0F800
G1 X64.853Y51.385Z0F800
G1 X64.588Y51.376Z0F800
G1 X64.326Y51.379Z0F800
G1 X63.322Z0F800
G1 X62.321Y51.366Z0F800
G1 X62.171Y51.296Z0F800
G1 X62.013Y51.233Z0F800
G1 X61.884Y51.143Z0F800
G1 X61.818Y50.994Z0F800
G1 X61.791Y50.917Z0F800
G1 X61.776Y50.901Z0F800
G1 X61.768Y50.931Z0F800
G1 Y50.994Z0F800
G1 X61.771Y51.163Z0F800
G1 Y51.297Z0F800
G1 Y55.198Z0F800
G1 X61.702Y55.322Z0F800
G1 X61.687Y55.448Z0F800
G1 X61.713Y55.575Z0F800
G1 X61.77Y55.704Z0F800
G1 Y60.321Z0F800
G1 X61.702Y60.445Z0F800
G1 X61.687Y60.571Z0F800
G1 X61.713Y60.699Z0F800
G1 X61.77Y60.827Z0F800
G1 Y65.445Z0F800
G1 X61.702Y65.569Z0F800
G1 X61.687Y65.695Z0F800
G1 X61.713Y65.822Z0F800
G1 X61.77Y65.95Z0F800
G1 Y70.568Z0F800
G1 X61.707Y70.695Z0F800
G1 X61.655Y70.833Z0F800
G1 X61.593Y70.96Z0F800
G1 X61.5Y71.055Z0F800
G1 X61.335Y71.123Z0F800
G1 X61.165Y71.17Z0F800
G1 X60.991Y71.192Z0F800
G1 X60.812Y71.185Z0F800
G1 X60.553Y71.092Z0F800
G1 X60.299Y70.974Z0F800
G1 X60.23Y70.801Z0F800
G1 X60.173Y70.625Z0F800
G1 X60.141Y70.445Z0F800
G1 X60.147Y70.259Z0F800
G1 Y65.95Z0F800
G1 X60.215Y65.826Z0F800
G1 X60.23Y65.7Z0F800
G1 X60.204Y65.573Z0F800
G1 X60.147Y65.445Z0F800
G1 Y60.827Z0F800
G1 X60.214Y60.703Z0F800
G1 X60.23Y60.577Z0F800
G1 X60.204Y60.45Z0F800
G1 X60.147Y60.321Z0F800
G1 Y55.704Z0F800
G1 X60.215Y55.58Z0F800
G1 X60.23Y55.454Z0F800
G1 X60.204Y55.326Z0F800
G1 X60.147Y55.198Z0F800
G1 Y50.581Z0F800
G1 X60.209Y50.454Z0F800
G1 X60.262Y50.316Z0F800
G1 X60.324Y50.188Z0F800
G1 X60.416Y50.093Z0F800
G1 X60.582Y50.025Z0F800
G1 X60.751Y49.978Z0F800
G1 X60.925Y49.957Z0F800
G1 X61.104Y49.963Z0F800
G1 X61.364Y50.057Z0F800
G1 X61.618Y50.175Z0F800
G1 X61.717Y50.448Z0F800
G1 X61.743Y50.489Z0F800
G1 X61.77Y50.497Z0F800
G1 X61.799Y50.46Z0F800
G1 X61.829Y50.366Z0F800
G1 X61.883Y50.225Z0F800
G1 X61.971Y50.122Z0F800
G1 X62.089Y50.051Z0F800
G1 X62.232Y50.007Z0F800
G1 X62.449Y49.963Z0F800
G1 X62.672Y49.958Z0F800
G1 X62.898Y49.967Z0F800
G1 X63.121Y49.963Z0F800
G1 X64.141Z0F800
G1 X65.157Y49.976Z0F800
G1 X65.308Y50.046Z0F800
G1 X65.465Y50.109Z0F800
G1 X65.595Y50.199Z0F800
G1 X65.66Y50.348Z0F800
G1 X65.684Y50.446Z0F800
G1 X65.709Y50.49Z0F800
G1 X65.736Z0F800
G1 X65.765Y50.455Z0F800
G1 X65.823Y50.328Z0F800
G1 X65.882Y50.194Z0F800
G1 X65.967Y50.1Z0F800
G1 X66.09Y50.042Z0F800
G1 X66.227Y50.003Z0F800
G1 X66.355Y49.963Z0F800
G1 X66.522Y49.957Z0F800
G1 X66.686Y49.973Z0F800
G1 X66.843Y50.015Z0F800
G1 X66.993Y50.091Z0F800
G1 X67.127Y50.147Z0F800
G1 X67.207Y50.253Z0F800
G1 X67.259Y50.386Z0F800
G1 X67.308Y50.522Z0F800
G0 Z0.8F500
G0 X52.407Y56.027Z0.8F1000
G1 Z0F500
G1 X52.49Y56.187Z0F800
G1 X54.223Y59.898Z0F800
G1 X54.219Y60.039Z0F800
G1 X54.231Y60.186Z0F800
G1 X54.228Y60.328Z0F800
G1 X54.181Y60.45Z0F800
G1 X54.053Y60.567Z0F800
G1 X53.921Y60.682Z0F800
G1 X53.775Y60.763Z0F800
G1 X53.601Y60.777Z0F800
G1 X53.431Y60.782Z0F800
G1 X53.265Y60.767Z0F800
G1 X53.106Y60.725Z0F800
G1 X52.953Y60.649Z0F800
G1 X52.762Y60.538Z0F800
G1 X52.64Y60.357Z0F800
G1 X52.549Y60.146Z0F800
G1 X52.452Y59.945Z0F800
G1 X50.9Y56.626Z0F800
G1 Y56.554Z0F800
G1 X50.874Y56.512Z0F800
G1 X50.822Y56.494Z0F800
G1 X50.755Z0F800
G1 X50.6Y56.508Z0F800
G1 X50.466Y56.502Z0F800
G1 X40.111Z0F800
G1 X39.983Y56.439Z0F800
G1 X39.845Y56.387Z0F800
G1 X39.718Y56.325Z0F800
G1 X39.623Y56.232Z0F800
G1 X39.592Y56.133Z0F800
G1 X39.568Y56.072Z0F800
G1 X39.55Y56.044Z0F800
G1 X39.538Y56.047Z0F800
G1 X39.527Y56.131Z0F800
G1 X39.531Y56.296Z0F800
G1 Y60.321Z0F800
G1 X39.469Y60.448Z0F800
G1 X39.417Y60.586Z0F800
G1 X39.354Y60.714Z0F800
G1 X39.262Y60.809Z0F800
G1 X39.096Y60.877Z0F800
G1 X38.927Y60.923Z0F800
G1 X38.753Y60.945Z0F800
G1 X38.574Y60.939Z0F800
G1 X38.314Y60.846Z0F800
G1 X38.06Y60.727Z0F800
G1 X37.991Y60.554Z0F800
G1 X37.934Y60.379Z0F800
G1 X37.902Y60.199Z0F800
G1 X37.908Y60.012Z0F800
G1 Y55.704Z0F800
G1 X37.97Y55.577Z0F800
G1 X38.023Y55.439Z0F800
G1 X38.085Y55.311Z0F800
G1 X38.177Y55.216Z0F800
G1 X38.343Y55.148Z0F800
G1 X38.512Y55.101Z0F800
G1 X38.686Y55.08Z0F800
G1 X38.865Y55.086Z0F800
G1 X39.125Y55.179Z0F800
G1 X39.379Y55.298Z0F800
G1 X39.479Y55.571Z0F800
G1 X39.505Y55.612Z0F800
G1 X39.532Y55.62Z0F800
G1 X39.56Y55.583Z0F800
G1 X39.591Y55.489Z0F800
G1 X39.644Y55.348Z0F800
G1 X39.733Y55.245Z0F800
G1 X39.851Y55.174Z0F800
G1 X39.994Y55.13Z0F800
G1 X40.21Y55.086Z0F800
G1 X40.433Y55.081Z0F800
G1 X40.659Y55.09Z0F800
G1 X40.883Y55.086Z0F800
G1 X51.23Z0F800
G1 X51.357Y55.148Z0F800
G1 X51.495Y55.201Z0F800
G1 X51.623Y55.263Z0F800
G1 X51.718Y55.356Z0F800
G1 X51.768Y55.474Z0F800
G1 X51.802Y55.605Z0F800
G1 X51.852Y55.715Z0F800
G1 X51.947Y55.772Z0F800
G1 X52.111Y55.844Z0F800
G1 X52.273Y55.921Z0F800
G1 X52.407Y56.027Z0F800
G0 Z0.8F500
G0 X55.022Y60.272Z0.8F1000
G1 Z0F500
G1 X55.192Y60.225Z0F800
G1 X55.366Y60.203Z0F800
G1 X55.545Y60.209Z0F800
G1 X55.804Y60.303Z0F800
G1 X56.058Y60.421Z0F800
G1 X56.127Y60.594Z0F800
G1 X56.184Y60.77Z0F800
G1 X56.216Y60.949Z0F800
G1 X56.21Y61.136Z0F800
G1 Y65.445Z0F800
G1 X56.148Y65.572Z0F800
G1 X56.095Y65.71Z0F800
G1 X56.033Y65.837Z0F800
G1 X55.94Y65.932Z0F800
G1 X55.775Y66Z0F800
G1 X55.605Y66.047Z0F800
G1 X55.431Y66.069Z0F800
G1 X55.252Y66.062Z0F800
G1 X54.993Y65.969Z0F800
G1 X54.739Y65.851Z0F800
G1 X54.67Y65.678Z0F800
G1 X54.613Y65.502Z0F800
G1 X54.581Y65.322Z0F800
G1 X54.587Y65.136Z0F800
G1 Y60.827Z0F800
G1 X54.65Y60.7Z0F800
G1 X54.702Y60.562Z0F800
G1 X54.764Y60.435Z0F800
G1 X54.857Y60.34Z0F800
G1 X55.022Y60.272Z0F800
G0 Z0.8F500
G0 X50.333Y61.346Z0.8F1000
G1 Z0F500
G1 X50.439Y61.546Z0F800
G1 X50.611Y61.927Z0F800
G1 X50.742Y62.325Z0F800
G1 X50.832Y62.733Z0F800
G1 X50.878Y63.148Z0F800
G1 Y63.565Z0F800
G1 X50.837Y63.98Z0F800
G1 X50.748Y64.389Z0F800
G1 X50.612Y64.786Z0F800
G1 X50.505Y65.038Z0F800
G1 X50.386Y65.288Z0F800
G1 X50.252Y65.529Z0F800
G1 X50.098Y65.753Z0F800
G1 X49.919Y65.854Z0F800
G1 X49.74Y65.96Z0F800
G1 X49.554Y66.033Z0F800
G1 X49.348Y66.037Z0F800
G1 X49.199Y66.006Z0F800
G1 X49.107Z0F800
G1 X49.056Y66.065Z0F800
G1 X49.029Y66.215Z0F800
G1 X48.967Y66.352Z0F800
G1 X48.907Y66.493Z0F800
G1 X48.822Y66.606Z0F800
G1 X48.682Y66.661Z0F800
G1 X48.434Y66.739Z0F800
G1 X48.174Y66.754Z0F800
G1 X47.909Y66.745Z0F800
G1 X47.647Y66.748Z0F800
G1 X40.36Z0F800
G1 X39.941Y67.696Z0F800
G1 X39.5Y68.635Z0F800
G1 X39.021Y69.666Z0F800
G1 X38.528Y70.687Z0F800
G1 X38.387Y70.809Z0F800
G1 X38.244Y70.93Z0F800
G1 X38.086Y71.013Z0F800
G1 X37.899Y71.023Z0F800
G1 X37.728Y71.029Z0F800
G1 X37.563Y71.008Z0F800
G1 X37.404Y70.959Z0F800
G1 X37.251Y70.882Z0F800
G1 X37.095Y70.811Z0F800
G1 X37.04Y70.63Z0F800
G1 X36.983Y70.447Z0F800
G1 X36.965Y70.266Z0F800
G1 X37.027Y70.087Z0F800
G1 X38.775Y66.349Z0F800
G1 X39.07Y66.095Z0F800
G1 X39.234Y66.005Z0F800
G1 X39.428Y65.993Z0F800
G1 X39.51Y65.929Z0F800
G1 X39.564Y65.81Z0F800
G1 X39.612Y65.673Z0F800
G1 X39.672Y65.557Z0F800
G1 X39.758Y65.466Z0F800
G1 X39.88Y65.411Z0F800
G1 X40.015Y65.372Z0F800
G1 X40.141Y65.332Z0F800
G1 X48.45Z0F800
G1 X48.529Y65.385Z0F800
G1 X48.581Y65.405Z0F800
G1 X48.614Y65.398Z0F800
G1 X48.633Y65.368Z0F800
G1 X48.654Y65.261Z0F800
G1 X48.692Y65.124Z0F800
G1 X48.865Y64.805Z0F800
G1 X49.006Y64.471Z0F800
G1 X49.111Y64.124Z0F800
G1 X49.179Y63.768Z0F800
G1 X49.208Y63.408Z0F800
G1 X49.195Y63.048Z0F800
G1 X49.137Y62.691Z0F800
G1 X49.032Y62.342Z0F800
G1 X48.862Y61.936Z0F800
G1 X48.687Y61.537Z0F800
G1 X48.429Y61.616Z0F800
G1 X48.161Y61.632Z0F800
G1 X47.887Y61.622Z0F800
G1 X47.616Y61.625Z0F800
G1 X40.111Z0F800
G1 X39.983Y61.563Z0F800
G1 X39.845Y61.511Z0F800
G1 X39.718Y61.448Z0F800
G1 X39.623Y61.356Z0F800
G1 X39.554Y61.185Z0F800
G1 X39.502Y61.007Z0F800
G1 X39.497Y60.83Z0F800
G1 X39.569Y60.659Z0F800
G1 X39.624Y60.523Z0F800
G1 X39.695Y60.405Z0F800
G1 X39.795Y60.318Z0F800
G1 X39.936Y60.275Z0F800
G1 X40.164Y60.213Z0F800
G1 X40.402Y60.204Z0F800
G1 X40.644Y60.213Z0F800
G1 X40.883Y60.209Z0F800
G1 X48.45Z0F800
G1 X48.577Y60.272Z0F800
G1 X48.715Y60.324Z0F800
G1 X48.842Y60.387Z0F800
G1 X48.937Y60.479Z0F800
G1 X48.978Y60.628Z0F800
G1 X49.061Y60.698Z0F800
G1 X49.18Y60.711Z0F800
G1 X49.328Y60.69Z0F800
G1 X49.481Y60.683Z0F800
G1 X49.625Y60.715Z0F800
G1 X49.761Y60.777Z0F800
G1 X49.891Y60.857Z0F800
G1 X50.086Y60.972Z0F800
G1 X50.224Y61.145Z0F800
G1 X50.333Y61.346Z0F800
G0 Z0.8F500
G0 X53.133Y66.005Z0.8F1000
G1 Z0F500
G1 X53.327Y65.993Z0F800
G1 X53.497Y65.987Z0F800
G1 X53.661Y66.009Z0F800
G1 X53.82Y66.058Z0F800
G1 X53.972Y66.134Z0F800
G1 X54.108Y66.207Z0F800
G1 X54.176Y66.34Z0F800
G1 X54.214Y66.498Z0F800
G1 X54.261Y66.649Z0F800
G1 X54.224Y66.859Z0F800
G1 X54.14Y67.061Z0F800
G1 X54.038Y67.26Z0F800
G1 X53.948Y67.46Z0F800
G1 X52.549Y70.455Z0F800
G1 X52.743Z0F800
G1 X52.926Y70.506Z0F800
G1 X53.278Y70.667Z0F800
G1 X53.348Y70.84Z0F800
G1 X53.405Y71.016Z0F800
G1 X53.436Y71.195Z0F800
G1 X53.43Y71.382Z0F800
G1 Y75.691Z0F800
G1 X53.368Y75.818Z0F800
G1 X53.316Y75.956Z0F800
G1 X53.253Y76.083Z0F800
G1 X53.161Y76.178Z0F800
G1 X52.995Y76.246Z0F800
G1 X52.826Y76.293Z0F800
G1 X52.652Y76.315Z0F800
G1 X52.473Y76.308Z0F800
G1 X52.213Y76.215Z0F800
G1 X51.959Y76.097Z0F800
G1 X51.89Y75.923Z0F800
G1 X51.833Y75.748Z0F800
G1 X51.801Y75.568Z0F800
G1 X51.807Y75.382Z0F800
G1 Y71.344Z0F800
G1 X51.745Y71.48Z0F800
G1 X51.686Y71.619Z0F800
G1 X51.601Y71.731Z0F800
G1 X51.463Y71.784Z0F800
G1 X51.214Y71.862Z0F800
G1 X50.954Y71.877Z0F800
G1 X50.689Y71.868Z0F800
G1 X50.427Y71.871Z0F800
G1 X42.891Z0F800
G1 X42.764Y71.809Z0F800
G1 X42.626Y71.757Z0F800
G1 X42.498Y71.694Z0F800
G1 X42.403Y71.602Z0F800
G1 X42.334Y71.431Z0F800
G1 X42.282Y71.253Z0F800
G1 X42.277Y71.076Z0F800
G1 X42.35Y70.904Z0F800
G1 X42.404Y70.768Z0F800
G1 X42.475Y70.651Z0F800
G1 X42.575Y70.564Z0F800
G1 X42.716Y70.521Z0F800
G1 X42.945Y70.459Z0F800
G1 X43.183Y70.45Z0F800
G1 X43.424Y70.459Z0F800
G1 X43.663Y70.455Z0F800
G1 X50.887Z0F800
G1 X50.868Y70.258Z0F800
G1 X50.93Y70.067Z0F800
G1 X51.026Y69.881Z0F800
G1 X51.109Y69.696Z0F800
G1 X52.674Y66.349Z0F800
G1 X52.969Y66.095Z0F800
G1 X53.133Y66.005Z0F800
G0 Z0.8F500
G0 X55.192Y70.471Z0.8F1000
G1 Z0F500
G1 X55.366Y70.449Z0F800
G1 X55.545Y70.455Z0F800
G1 X55.804Y70.549Z0F800
G1 X56.058Y70.667Z0F800
G1 X56.158Y70.941Z0F800
G1 X56.184Y70.982Z0F800
G1 X56.211Y70.99Z0F800
G1 X56.239Y70.953Z0F800
G1 X56.27Y70.859Z0F800
G1 X56.323Y70.718Z0F800
G1 X56.412Y70.615Z0F800
G1 X56.53Y70.544Z0F800
G1 X56.673Y70.499Z0F800
G1 X56.889Y70.455Z0F800
G1 X57.113Y70.45Z0F800
G1 X57.339Y70.459Z0F800
G1 X57.562Y70.455Z0F800
G1 X58.582Z0F800
G1 X59.598Y70.468Z0F800
G1 X59.748Y70.538Z0F800
G1 X59.906Y70.602Z0F800
G1 X60.035Y70.691Z0F800
G1 X60.1Y70.841Z0F800
G1 X60.165Y70.999Z0F800
G1 X60.186Y71.163Z0F800
G1 X60.16Y71.325Z0F800
G1 X60.085Y71.479Z0F800
G1 X60.033Y71.617Z0F800
G1 X59.944Y71.716Z0F800
G1 X59.826Y71.784Z0F800
G1 X59.686Y71.828Z0F800
G1 X59.47Y71.872Z0F800
G1 X59.247Y71.876Z0F800
G1 X59.021Y71.868Z0F800
G1 X58.797Y71.871Z0F800
G1 X57.778Z0F800
G1 X56.762Y71.859Z0F800
G1 X56.612Y71.788Z0F800
G1 X56.454Y71.725Z0F800
G1 X56.324Y71.636Z0F800
G1 X56.259Y71.486Z0F800
G1 X56.232Y71.409Z0F800
G1 X56.216Y71.391Z0F800
G1 X56.209Y71.421Z0F800
G1 Y71.484Z0F800
G1 X56.212Y71.653Z0F800
G1 Y71.787Z0F800
G1 Y75.691Z0F800
G1 X56.148Y75.818Z0F800
G1 X56.095Y75.956Z0F800
G1 X56.033Y76.083Z0F800
G1 X55.94Y76.178Z0F800
G1 X55.775Y76.246Z0F800
G1 X55.605Y76.293Z0F800
G1 X55.431Y76.315Z0F800
G1 X55.252Y76.308Z0F800
G1 X54.993Y76.215Z0F800
G1 X54.739Y76.097Z0F800
G1 X54.67Y75.923Z0F800
G1 X54.613Y75.748Z0F800
G1 X54.581Y75.568Z0F800
G1 X54.587Y75.382Z0F800
G1 Y71.073Z0F800
G1 X54.65Y70.946Z0F800
G1 X54.702Y70.808Z0F800
G1 X54.764Y70.681Z0F800
G1 X54.857Y70.586Z0F800
G1 X55.022Y70.518Z0F800
G1 X55.192Y70.471Z0F800
G0 Z0.8F500
G0 X56.844Y75.583Z0.8F1000
G1 Z0F500
G1 X57.082Y75.573Z0F800
G1 X57.323Y75.583Z0F800
G1 X57.562Y75.579Z0F800
G1 X70.689Z0F800
G1 X70.816Y75.641Z0F800
G1 X70.954Y75.694Z0F800
G1 X71.081Y75.756Z0F800
G1 X71.176Y75.849Z0F800
G1 X71.245Y76.02Z0F800
G1 X71.297Y76.197Z0F800
G1 X71.302Y76.375Z0F800
G1 X71.23Y76.546Z0F800
G1 X71.176Y76.682Z0F800
G1 X71.105Y76.8Z0F800
G1 X71.005Y76.887Z0F800
G1 X70.864Y76.93Z0F800
G1 X70.635Y76.991Z0F800
G1 X70.397Y77.001Z0F800
G1 X70.156Y76.991Z0F800
G1 X69.917Y76.995Z0F800
G1 X56.79Z0F800
G1 X56.324Y76.783Z0F800
G1 X56.251Y76.598Z0F800
G1 X56.188Y76.406Z0F800
G1 X56.174Y76.214Z0F800
G1 X56.303Y75.892Z0F800
G1 X56.374Y75.774Z0F800
G1 X56.474Y75.687Z0F800
G1 X56.615Y75.644Z0F800
G1 X56.844Y75.583Z0F800
G0 Z0.8F500
G0 X51.838Y76.197Z0.8F1000
G1 Z0F500
G1 X51.843Y76.375Z0F800
G1 X51.771Y76.546Z0F800
G1 X51.717Y76.682Z0F800
G1 X51.646Y76.8Z0F800
G1 X51.546Y76.887Z0F800
G1 X51.405Y76.93Z0F800
G1 X51.176Y76.991Z0F800
G1 X50.938Y77.001Z0F800
G1 X50.697Y76.991Z0F800
G1 X50.458Y76.995Z0F800
G1 X40.111Z0F800
G1 X39.645Y76.783Z0F800
G1 X39.587Y76.627Z0F800
G1 X39.524Y76.469Z0F800
G1 X39.49Y76.309Z0F800
G1 X39.516Y76.146Z0F800
G1 X39.344Y76.138Z0F800
G1 X39.184Y76.081Z0F800
G1 X39.027Y76.004Z0F800
G1 X38.869Y75.934Z0F800
G1 X38.436Y75.072Z0F800
G1 X38.029Y74.195Z0F800
G1 X37.507Y73.082Z0F800
G1 X37.001Y71.965Z0F800
G1 X37.004Y71.824Z0F800
G1 X36.99Y71.675Z0F800
G1 X36.998Y71.536Z0F800
G1 X37.065Y71.422Z0F800
G1 X37.188Y71.309Z0F800
G1 X37.314Y71.201Z0F800
G1 X37.455Y71.127Z0F800
G1 X37.623Y71.116Z0F800
G1 X37.793Y71.111Z0F800
G1 X37.96Y71.126Z0F800
G1 X38.12Y71.168Z0F800
G1 X38.273Y71.244Z0F800
G1 X38.464Y71.354Z0F800
G1 X38.586Y71.536Z0F800
G1 X38.677Y71.747Z0F800
G1 X38.774Y71.948Z0F800
G1 X40.324Y75.267Z0F800
G1 X40.314Y75.418Z0F800
G1 X40.34Y75.533Z0F800
G1 X40.372Y75.571Z0F800
G1 X40.42Y75.593Z0F800
G1 X40.486Y75.597Z0F800
G1 X40.574Y75.579Z0F800
G1 X51.23Z0F800
G1 X51.357Y75.641Z0F800
G1 X51.495Y75.694Z0F800
G1 X51.623Y75.756Z0F800
G1 X51.718Y75.849Z0F800
G1 X51.786Y76.02Z0F800
G1 X51.838Y76.197Z0F800
G0 Z0.8F500
G0 X51.463Y82.42Z0.8F1000
G1 Z0F500
G1 Y84.043Z0F800
G1 X46.593Z0F800
G1 Y85.666Z0F800
G1 X50.651Z0F800
G1 Y86.478Z0F800
G1 X51.463Z0F800
G1 Y89.725Z0F800
G1 X50.651Z0F800
G1 Y90.536Z0F800
G1 X43.346Z0F800
G1 Y88.913Z0F800
G1 X48.216Z0F800
G1 Y87.29Z0F800
G1 X44.158Z0F800
G1 Y86.478Z0F800
G1 X43.346Z0F800
G1 Y82.42Z0F800
G1 X51.463Z0F800
G0 Z0.8F500
G0 X54.75Z0.8F1000
G1 Z0F500
G1 X57.997Z0F800
G1 Y89.725Z0F800
G1 X57.185Z0F800
G1 Y90.536Z0F800
G1 X53.938Z0F800
G1 Y88.913Z0F800
G1 X54.75Z0F800
G1 Y82.42Z0F800
G0 Z0.8F500
G0 X62.325Z0.8F1000
G1 Z0F500
G1 X65.445Z0F800
G1 Y85.215Z0F800
G1 X62.325Z0F800
G1 Y82.42Z0F800
G0 Z0.8F500
G0 X71.418Y76.097Z0.8F1000
G1 Z0F500
G1 X71.349Y75.923Z0F800
G1 X71.292Y75.748Z0F800
G1 X71.26Y75.568Z0F800
G1 X71.266Y75.382Z0F800
G1 Y71.344Z0F800
G1 X71.204Y71.48Z0F800
G1 X71.145Y71.619Z0F800
G1 X71.06Y71.731Z0F800
G1 X70.921Y71.784Z0F800
G1 X70.673Y71.862Z0F800
G1 X70.413Y71.877Z0F800
G1 X70.148Y71.868Z0F800
G1 X69.886Y71.871Z0F800
G1 X68.882Z0F800
G1 X67.881Y71.859Z0F800
G1 X67.73Y71.788Z0F800
G1 X67.573Y71.725Z0F800
G1 X67.443Y71.636Z0F800
G1 X67.378Y71.486Z0F800
G1 X67.313Y71.328Z0F800
G1 X67.292Y71.164Z0F800
G1 X67.318Y71.002Z0F800
G1 X67.393Y70.848Z0F800
G1 X67.445Y70.71Z0F800
G1 X67.534Y70.611Z0F800
G1 X67.652Y70.543Z0F800
G1 X67.792Y70.499Z0F800
G1 X68.008Y70.455Z0F800
G1 X68.232Y70.45Z0F800
G1 X68.458Y70.459Z0F800
G1 X68.681Y70.455Z0F800
G1 X69.701Z0F800
G1 X70.717Y70.468Z0F800
G1 X70.867Y70.538Z0F800
G1 X71.025Y70.602Z0F800
G1 X71.154Y70.691Z0F800
G1 X71.22Y70.841Z0F800
G1 X71.243Y70.939Z0F800
G1 X71.269Y70.982Z0F800
G1 X71.296Z0F800
G1 X71.324Y70.947Z0F800
G1 X71.383Y70.82Z0F800
G1 X71.442Y70.686Z0F800
G1 X71.527Y70.592Z0F800
G1 X71.65Y70.535Z0F800
G1 X71.786Y70.495Z0F800
G1 X71.914Y70.455Z0F800
G1 X72.082Y70.45Z0F800
G1 X72.245Y70.465Z0F800
G1 X72.403Y70.508Z0F800
G1 X72.553Y70.583Z0F800
G1 X72.686Y70.64Z0F800
G1 X72.767Y70.746Z0F800
G1 X72.819Y70.878Z0F800
G1 X72.867Y71.014Z0F800
G1 X72.892Y71.597Z0F800
G1 X72.889Y72.185Z0F800
G1 Y75.691Z0F800
G1 X72.827Y75.818Z0F800
G1 X72.775Y75.956Z0F800
G1 X72.712Y76.083Z0F800
G1 X72.62Y76.178Z0F800
G1 X72.454Y76.246Z0F800
G1 X72.285Y76.293Z0F800
G1 X72.111Y76.315Z0F800
G1 X71.932Y76.308Z0F800
G1 X71.672Y76.215Z0F800
G1 X71.418Y76.097Z0F800
G0 Z0.8F500
G0 X75.633Y76.214Z0.8F1000
G1 Z0F500
G1 X75.762Y75.892Z0F800
G1 X75.833Y75.774Z0F800
G1 X75.933Y75.687Z0F800
G1 X76.074Y75.644Z0F800
G1 X76.303Y75.583Z0F800
G1 X76.541Y75.573Z0F800
G1 X76.782Y75.583Z0F800
G1 X77.021Y75.579Z0F800
G1 X90.148Z0F800
G1 X90.275Y75.641Z0F800
G1 X90.413Y75.694Z0F800
G1 X90.54Y75.756Z0F800
G1 X90.635Y75.849Z0F800
G1 X90.704Y76.02Z0F800
G1 X90.756Y76.197Z0F800
G1 X90.761Y76.375Z0F800
G1 X90.689Y76.546Z0F800
G1 X90.635Y76.682Z0F800
G1 X90.564Y76.8Z0F800
G1 X90.464Y76.887Z0F800
G1 X90.323Y76.93Z0F800
G1 X90.094Y76.991Z0F800
G1 X89.856Y77.001Z0F800
G1 X89.615Y76.991Z0F800
G1 X89.376Y76.995Z0F800
G1 X76.249Z0F800
G1 X75.783Y76.783Z0F800
G1 X75.71Y76.598Z0F800
G1 X75.647Y76.406Z0F800
G1 X75.633Y76.214Z0F800
G0 Z0.8F500
G0 X79.028Y71.871Z0.8F1000
G1 Z0F500
G1 X78.901Y71.809Z0F800
G1 X78.763Y71.757Z0F800
G1 X78.636Y71.694Z0F800
G1 X78.541Y71.602Z0F800
G1 X78.472Y71.431Z0F800
G1 X78.42Y71.253Z0F800
G1 X78.415Y71.076Z0F800
G1 X78.487Y70.904Z0F800
G1 X78.541Y70.768Z0F800
G1 X78.613Y70.651Z0F800
G1 X78.713Y70.564Z0F800
G1 X78.854Y70.521Z0F800
G1 X79.034Y70.463Z0F800
G1 X79.223Y70.451Z0F800
G1 X79.415Y70.457Z0F800
G1 X79.606Z0F800
G1 Y65.95Z0F800
G1 X79.668Y65.823Z0F800
G1 X79.721Y65.685Z0F800
G1 X79.783Y65.558Z0F800
G1 X79.875Y65.463Z0F800
G1 X80.041Y65.395Z0F800
G1 X80.21Y65.348Z0F800
G1 X80.384Y65.326Z0F800
G1 X80.563Y65.332Z0F800
G1 X80.823Y65.426Z0F800
G1 X81.077Y65.544Z0F800
G1 X81.176Y65.818Z0F800
G1 X81.202Y65.859Z0F800
G1 X81.229Y65.867Z0F800
G1 X81.257Y65.829Z0F800
G1 X81.288Y65.735Z0F800
G1 X81.341Y65.595Z0F800
G1 X81.43Y65.492Z0F800
G1 X81.548Y65.421Z0F800
G1 X81.691Y65.376Z0F800
G1 X81.907Y65.332Z0F800
G1 X82.131Y65.328Z0F800
G1 X82.357Y65.336Z0F800
G1 X82.58Y65.332Z0F800
G1 X90.148Z0F800
G1 X90.275Y65.395Z0F800
G1 X90.413Y65.447Z0F800
G1 X90.54Y65.51Z0F800
G1 X90.635Y65.602Z0F800
G1 X90.704Y65.773Z0F800
G1 X90.756Y65.951Z0F800
G1 X90.761Y66.128Z0F800
G1 X90.689Y66.299Z0F800
G1 X90.635Y66.435Z0F800
G1 X90.564Y66.553Z0F800
G1 X90.464Y66.64Z0F800
G1 X90.323Y66.683Z0F800
G1 X90.094Y66.745Z0F800
G1 X89.856Y66.754Z0F800
G1 X89.615Y66.745Z0F800
G1 X89.376Y66.748Z0F800
G1 X81.808Z0F800
G1 X81.681Y66.686Z0F800
G1 X81.543Y66.634Z0F800
G1 X81.416Y66.571Z0F800
G1 X81.321Y66.479Z0F800
G1 X81.29Y66.38Z0F800
G1 X81.266Y66.318Z0F800
G1 X81.248Y66.291Z0F800
G1 X81.235Y66.294Z0F800
G1 X81.225Y66.378Z0F800
G1 X81.229Y66.543Z0F800
G1 Y70.455Z0F800
G1 X90.148Z0F800
G1 X90.275Y70.518Z0F800
G1 X90.413Y70.57Z0F800
G1 X90.54Y70.633Z0F800
G1 X90.635Y70.725Z0F800
G1 X90.684Y70.877Z0F800
G1 X90.735Y70.966Z0F800
G1 X90.762Y70.975Z0F800
G1 X90.79Y70.953Z0F800
G1 X90.819Y70.896Z0F800
G1 X90.849Y70.799Z0F800
G1 X90.906Y70.663Z0F800
G1 X91.012Y70.58Z0F800
G1 X91.145Y70.526Z0F800
G1 X91.284Y70.477Z0F800
G1 X91.462Y70.451Z0F800
G1 X91.643Y70.455Z0F800
G1 X91.819Y70.493Z0F800
G1 X91.984Y70.57Z0F800
G1 X92.121Y70.624Z0F800
G1 X92.21Y70.721Z0F800
G1 X92.27Y70.847Z0F800
G1 X92.315Y70.985Z0F800
G1 X92.35Y71.211Z0F800
G1 Y71.443Z0F800
G1 X92.345Y71.676Z0F800
G1 X92.348Y71.907Z0F800
G1 Y75.691Z0F800
G1 X92.286Y75.818Z0F800
G1 X92.234Y75.956Z0F800
G1 X92.171Y76.083Z0F800
G1 X92.079Y76.178Z0F800
G1 X91.913Y76.246Z0F800
G1 X91.744Y76.293Z0F800
G1 X91.57Y76.315Z0F800
G1 X91.391Y76.308Z0F800
G1 X91.131Y76.215Z0F800
G1 X90.877Y76.097Z0F800
G1 X90.808Y75.923Z0F800
G1 X90.751Y75.748Z0F800
G1 X90.719Y75.568Z0F800
G1 X90.725Y75.382Z0F800
G1 Y71.344Z0F800
G1 X90.663Y71.48Z0F800
G1 X90.604Y71.619Z0F800
G1 X90.519Y71.731Z0F800
G1 X90.38Y71.784Z0F800
G1 X90.132Y71.862Z0F800
G1 X89.872Y71.877Z0F800
G1 X89.607Y71.868Z0F800
G1 X89.345Y71.871Z0F800
G1 X79.028Z0F800
G0 Z0.8F500
G0 X90.877Y65.851Z0.8F1000
G1 Z0F500
G1 X90.808Y65.678Z0F800
G1 X90.751Y65.502Z0F800
G1 X90.719Y65.322Z0F800
G1 X90.725Y65.136Z0F800
G1 Y61.098Z0F800
G1 X90.663Y61.234Z0F800
G1 X90.604Y61.373Z0F800
G1 X90.519Y61.485Z0F800
G1 X90.38Y61.538Z0F800
G1 X90.132Y61.616Z0F800
G1 X89.872Y61.632Z0F800
G1 X89.607Y61.622Z0F800
G1 X89.345Y61.625Z0F800
G1 X81.808Z0F800
G1 X81.681Y61.563Z0F800
G1 X81.543Y61.511Z0F800
G1 X81.415Y61.448Z0F800
G1 X81.32Y61.356Z0F800
G1 X81.252Y61.185Z0F800
G1 X81.2Y61.007Z0F800
G1 X81.195Y60.83Z0F800
G1 X81.267Y60.659Z0F800
G1 X81.321Y60.523Z0F800
G1 X81.392Y60.405Z0F800
G1 X81.492Y60.318Z0F800
G1 X81.633Y60.275Z0F800
G1 X81.862Y60.213Z0F800
G1 X82.1Y60.204Z0F800
G1 X82.341Y60.213Z0F800
G1 X82.58Y60.209Z0F800
G1 X90.148Z0F800
G1 X90.275Y60.272Z0F800
G1 X90.413Y60.324Z0F800
G1 X90.54Y60.387Z0F800
G1 X90.635Y60.479Z0F800
G1 X90.684Y60.631Z0F800
G1 X90.735Y60.72Z0F800
G1 X90.762Y60.729Z0F800
G1 X90.79Y60.707Z0F800
G1 X90.819Y60.65Z0F800
G1 X90.849Y60.553Z0F800
G1 X90.906Y60.417Z0F800
G1 X91.012Y60.334Z0F800
G1 X91.145Y60.28Z0F800
G1 X91.284Y60.232Z0F800
G1 X91.462Y60.205Z0F800
G1 X91.643Y60.209Z0F800
G1 X91.819Y60.247Z0F800
G1 X91.984Y60.325Z0F800
G1 X92.121Y60.378Z0F800
G1 X92.21Y60.475Z0F800
G1 X92.27Y60.601Z0F800
G1 X92.315Y60.739Z0F800
G1 X92.35Y60.965Z0F800
G1 Y61.197Z0F800
G1 X92.345Y61.43Z0F800
G1 X92.348Y61.661Z0F800
G1 Y65.445Z0F800
G1 X92.286Y65.572Z0F800
G1 X92.233Y65.71Z0F800
G1 X92.171Y65.837Z0F800
G1 X92.079Y65.932Z0F800
G1 X91.913Y66Z0F800
G1 X91.744Y66.047Z0F800
G1 X91.57Y66.069Z0F800
G1 X91.391Y66.062Z0F800
G1 X91.131Y65.969Z0F800
G1 X90.877Y65.851Z0F800
G0 Z0.8F500
G0 X99.065Y65.95Z0.8F1000
G1 Z0F500
G1 X99.127Y65.823Z0F800
G1 X99.179Y65.685Z0F800
G1 X99.242Y65.558Z0F800
G1 X99.334Y65.463Z0F800
G1 X99.5Y65.395Z0F800
G1 X99.669Y65.348Z0F800
G1 X99.843Y65.326Z0F800
G1 X100.022Y65.332Z0F800
G1 X100.282Y65.426Z0F800
G1 X100.536Y65.544Z0F800
G1 X100.635Y65.818Z0F800
G1 X100.661Y65.859Z0F800
G1 X100.688Y65.867Z0F800
G1 X100.716Y65.829Z0F800
G1 X100.747Y65.735Z0F800
G1 X100.8Y65.595Z0F800
G1 X100.889Y65.492Z0F800
G1 X101.007Y65.421Z0F800
G1 X101.15Y65.376Z0F800
G1 X101.366Y65.332Z0F800
G1 X101.59Y65.328Z0F800
G1 X101.816Y65.336Z0F800
G1 X102.039Y65.332Z0F800
G1 X103.059Z0F800
G1 X104.075Y65.345Z0F800
G1 X104.225Y65.415Z0F800
G1 X104.383Y65.479Z0F800
G1 X104.513Y65.568Z0F800
G1 X104.578Y65.718Z0F800
G1 X104.601Y65.816Z0F800
G1 X104.627Y65.859Z0F800
G1 X104.654Z0F800
G1 X104.682Y65.824Z0F800
G1 X104.741Y65.697Z0F800
G1 X104.8Y65.563Z0F800
G1 X104.885Y65.469Z0F800
G1 X105.008Y65.412Z0F800
G1 X105.144Y65.372Z0F800
G1 X105.273Y65.332Z0F800
G1 X105.44Y65.327Z0F800
G1 X105.603Y65.342Z0F800
G1 X105.761Y65.385Z0F800
G1 X105.911Y65.46Z0F800
G1 X106.044Y65.517Z0F800
G1 X106.125Y65.623Z0F800
G1 X106.177Y65.755Z0F800
G1 X106.225Y65.891Z0F800
G1 X106.25Y66.474Z0F800
G1 X106.247Y67.062Z0F800
G1 Y70.568Z0F800
G1 X106.185Y70.695Z0F800
G1 X106.133Y70.833Z0F800
G1 X106.07Y70.96Z0F800
G1 X105.978Y71.055Z0F800
G1 X105.812Y71.123Z0F800
G1 X105.643Y71.17Z0F800
G1 X105.469Y71.192Z0F800
G1 X105.29Y71.185Z0F800
G1 X105.03Y71.092Z0F800
G1 X104.776Y70.974Z0F800
G1 X104.707Y70.801Z0F800
G1 X104.65Y70.625Z0F800
G1 X104.618Y70.445Z0F800
G1 X104.624Y70.259Z0F800
G1 Y66.221Z0F800
G1 X104.562Y66.357Z0F800
G1 X104.503Y66.496Z0F800
G1 X104.418Y66.608Z0F800
G1 X104.28Y66.661Z0F800
G1 X104.031Y66.739Z0F800
G1 X103.771Y66.754Z0F800
G1 X103.506Y66.745Z0F800
G1 X103.244Y66.748Z0F800
G1 X102.24Z0F800
G1 X101.239Y66.736Z0F800
G1 X101.089Y66.665Z0F800
G1 X100.931Y66.602Z0F800
G1 X100.801Y66.513Z0F800
G1 X100.736Y66.363Z0F800
G1 X100.709Y66.286Z0F800
G1 X100.693Y66.27Z0F800
G1 X100.686Y66.3Z0F800
G1 Y66.363Z0F800
G1 X100.689Y66.532Z0F800
G1 Y66.666Z0F800
G1 Y70.568Z0F800
G1 X100.625Y70.695Z0F800
G1 X100.573Y70.833Z0F800
G1 X100.511Y70.96Z0F800
G1 X100.418Y71.055Z0F800
G1 X100.252Y71.123Z0F800
G1 X100.083Y71.17Z0F800
G1 X99.909Y71.192Z0F800
G1 X99.73Y71.185Z0F800
G1 X99.471Y71.092Z0F800
G1 X99.217Y70.974Z0F800
G1 X99.148Y70.801Z0F800
G1 X99.091Y70.625Z0F800
G1 X99.059Y70.445Z0F800
G1 X99.065Y70.259Z0F800
G1 Y65.95Z0F800
G0 Z0.8F500
G0 X101.239Y61.613Z0.8F1000
G1 Z0F500
G1 X100.801Y61.414Z0F800
G1 X100.728Y61.228Z0F800
G1 X100.665Y61.037Z0F800
G1 X100.651Y60.845Z0F800
G1 X100.78Y60.523Z0F800
G1 X100.851Y60.405Z0F800
G1 X100.951Y60.318Z0F800
G1 X101.092Y60.275Z0F800
G1 X101.321Y60.213Z0F800
G1 X101.559Y60.204Z0F800
G1 X101.8Y60.213Z0F800
G1 X102.039Y60.209Z0F800
G1 X103.705Z0F800
G1 X103.685Y60.012Z0F800
G1 X103.747Y59.821Z0F800
G1 X103.843Y59.634Z0F800
G1 X103.926Y59.449Z0F800
G1 X105.491Y56.103Z0F800
G1 X105.786Y55.848Z0F800
G1 X105.95Y55.759Z0F800
G1 X106.144Y55.747Z0F800
G1 X106.314Y55.74Z0F800
G1 X106.478Y55.762Z0F800
G1 X106.637Y55.811Z0F800
G1 X106.789Y55.887Z0F800
G1 X106.925Y55.961Z0F800
G1 X106.993Y56.093Z0F800
G1 X107.031Y56.252Z0F800
G1 X107.078Y56.402Z0F800
G1 X107.041Y56.612Z0F800
G1 X106.957Y56.815Z0F800
G1 X106.855Y57.013Z0F800
G1 X106.765Y57.213Z0F800
G1 X105.268Y60.42Z0F800
G1 X105.126Y60.541Z0F800
G1 X104.986Y60.666Z0F800
G1 X104.831Y60.758Z0F800
G1 X104.646Y60.777Z0F800
G1 X104.664Y60.959Z0F800
G1 X104.612Y61.134Z0F800
G1 X104.529Y61.304Z0F800
G1 X104.453Y61.473Z0F800
G1 X104.28Y61.543Z0F800
G1 X104.105Y61.6Z0F800
G1 X103.925Y61.631Z0F800
G1 X103.738Y61.626Z0F800
G1 X102.487Z0F800
G1 X101.239Y61.613Z0F800
G0 Z0.8F500
G0 X109.268Y61.461Z0.8F1000
G1 Z0F500
G1 X109.271Y61.319Z0F800
G1 X109.318Y61.197Z0F800
G1 X109.446Y61.08Z0F800
G1 X109.578Y60.964Z0F800
G1 X109.724Y60.884Z0F800
G1 X109.899Y60.87Z0F800
G1 X110.069Y60.865Z0F800
G1 X110.235Y60.88Z0F800
G1 X110.396Y60.922Z0F800
G1 X110.549Y60.998Z0F800
G1 X110.74Y61.109Z0F800
G1 X110.862Y61.29Z0F800
G1 X110.953Y61.501Z0F800
G1 X111.05Y61.702Z0F800
G1 X112.599Y65.021Z0F800
G1 X112.596Y65.162Z0F800
G1 X112.608Y65.31Z0F800
G1 X112.605Y65.451Z0F800
G1 X112.558Y65.573Z0F800
G1 X112.43Y65.691Z0F800
G1 X112.298Y65.806Z0F800
G1 X112.152Y65.887Z0F800
G1 X111.978Y65.9Z0F800
G1 X111.891Y65.883Z0F800
G1 X111.837Y65.894Z0F800
G1 X111.809Y65.929Z0F800
G1 X111.799Y65.982Z0F800
G1 X111.807Y66.118Z0F800
G1 Y70.568Z0F800
G1 X111.745Y70.695Z0F800
G1 X111.693Y70.833Z0F800
G1 X111.63Y70.96Z0F800
G1 X111.538Y71.055Z0F800
G1 X111.372Y71.123Z0F800
G1 X111.203Y71.17Z0F800
G1 X111.029Y71.192Z0F800
G1 X110.85Y71.185Z0F800
G1 X110.59Y71.092Z0F800
G1 X110.336Y70.974Z0F800
G1 X110.266Y70.801Z0F800
G1 X110.21Y70.625Z0F800
G1 X110.178Y70.445Z0F800
G1 X110.184Y70.259Z0F800
G1 Y65.95Z0F800
G1 X110.246Y65.823Z0F800
G1 X110.298Y65.685Z0F800
G1 X110.361Y65.558Z0F800
G1 X110.453Y65.463Z0F800
G1 X110.717Y65.367Z0F800
G1 X110.939Y65.304Z0F800
G1 X109.277Y61.75Z0F800
G1 X109.28Y61.608Z0F800
G1 X109.268Y61.461Z0F800
G0 Z0.8F500
G0 X109.839Y60.761Z0.8F1000
G1 Z0F500
G1 X109.68Y60.712Z0F800
G1 X109.527Y60.636Z0F800
G1 X109.371Y60.565Z0F800
G1 X109.316Y60.383Z0F800
G1 X109.259Y60.201Z0F800
G1 X109.24Y60.019Z0F800
G1 X109.303Y59.841Z0F800
G1 X111.051Y56.103Z0F800
G1 X111.346Y55.848Z0F800
G1 X111.51Y55.759Z0F800
G1 X111.704Y55.747Z0F800
G1 X111.874Y55.74Z0F800
G1 X112.038Y55.762Z0F800
G1 X112.196Y55.811Z0F800
G1 X112.349Y55.887Z0F800
G1 X112.485Y55.961Z0F800
G1 X112.552Y56.093Z0F800
G1 X112.591Y56.252Z0F800
G1 X112.638Y56.402Z0F800
G1 X112.601Y56.612Z0F800
G1 X112.517Y56.815Z0F800
G1 X112.415Y57.013Z0F800
G1 X112.325Y57.213Z0F800
G1 X110.827Y60.42Z0F800
G1 X110.533Y60.675Z0F800
G1 X110.369Y60.764Z0F800
G1 X110.175Y60.777Z0F800
G1 X110.004Y60.783Z0F800
G1 X109.839Y60.761Z0F800
G0 Z0.8F500
G0 X107.582Y55.644Z0.8F1000
G1 Z0F500
G1 X107.395Y55.654Z0F800
G1 X107.224Y55.66Z0F800
G1 X107.059Y55.638Z0F800
G1 X106.9Y55.589Z0F800
G1 X106.747Y55.513Z0F800
G1 X106.591Y55.442Z0F800
G1 X106.536Y55.261Z0F800
G1 X106.479Y55.078Z0F800
G1 X106.46Y54.896Z0F800
G1 X106.523Y54.718Z0F800
G1 X108.271Y50.98Z0F800
G1 X108.566Y50.725Z0F800
G1 X108.73Y50.636Z0F800
G1 X108.924Y50.624Z0F800
G1 X109.006Y50.56Z0F800
G1 X109.06Y50.441Z0F800
G1 X109.108Y50.304Z0F800
G1 X109.168Y50.187Z0F800
G1 X109.255Y50.097Z0F800
G1 X109.376Y50.041Z0F800
G1 X109.511Y50.002Z0F800
G1 X109.638Y49.963Z0F800
G1 X111.028Z0F800
G1 X112.415Y49.976Z0F800
G1 X112.565Y50.046Z0F800
G1 X112.722Y50.109Z0F800
G1 X112.852Y50.199Z0F800
G1 X112.917Y50.348Z0F800
G1 X112.982Y50.506Z0F800
G1 X113.003Y50.67Z0F800
G1 X112.977Y50.833Z0F800
G1 X112.902Y50.986Z0F800
G1 X112.85Y51.124Z0F800
G1 X112.761Y51.224Z0F800
G1 X112.644Y51.291Z0F800
G1 X112.503Y51.335Z0F800
G1 X112.287Y51.379Z0F800
G1 X112.064Y51.384Z0F800
G1 X111.838Y51.375Z0F800
G1 X111.614Y51.379Z0F800
G1 X109.856Z0F800
G1 X109.437Y52.327Z0F800
G1 X108.996Y53.266Z0F800
G1 X108.516Y54.297Z0F800
G1 X108.024Y55.317Z0F800
G1 X107.883Y55.44Z0F800
G1 X107.74Y55.561Z0F800
G1 X107.582Y55.644Z0F800
G0 Z0.8F500
G0 X112.038Y55.078Z0.8F1000
G1 Z0F500
G1 X112.02Y54.896Z0F800
G1 X112.083Y54.718Z0F800
G1 X113.831Y50.98Z0F800
G1 X114.126Y50.725Z0F800
G1 X114.289Y50.636Z0F800
G1 X114.483Y50.624Z0F800
G1 X114.654Y50.617Z0F800
G1 X114.818Y50.639Z0F800
G1 X114.976Y50.688Z0F800
G1 X115.128Y50.764Z0F800
G1 X115.264Y50.838Z0F800
G1 X115.332Y50.97Z0F800
G1 X115.37Y51.129Z0F800
G1 X115.418Y51.279Z0F800
G1 X115.381Y51.489Z0F800
G1 X115.296Y51.692Z0F800
G1 X115.194Y51.891Z0F800
G1 X115.104Y52.09Z0F800
G1 X113.607Y55.297Z0F800
G1 X113.312Y55.552Z0F800
G1 X113.149Y55.641Z0F800
G1 X112.954Y55.654Z0F800
G1 X112.784Y55.66Z0F800
G1 X112.619Y55.638Z0F800
G1 X112.46Y55.589Z0F800
G1 X112.307Y55.513Z0F800
G1 X112.15Y55.442Z0F800
G1 X112.096Y55.261Z0F800
G1 X112.038Y55.078Z0F800
G0 Z0.8F500
G0 X110.27Y46.255Z0.8F1000
G1 Z0F500
G1 X109.804Y46.044Z0F800
G1 X109.731Y45.858Z0F800
G1 X109.668Y45.667Z0F800
G1 X109.654Y45.475Z0F800
G1 X109.783Y45.152Z0F800
G1 X109.854Y45.035Z0F800
G1 X109.954Y44.948Z0F800
G1 X110.095Y44.905Z0F800
G1 X110.324Y44.843Z0F800
G1 X110.562Y44.834Z0F800
G1 X110.803Y44.843Z0F800
G1 X111.042Y44.839Z0F800
G1 X113.627Z0F800
G1 Y40.334Z0F800
G1 X113.689Y40.207Z0F800
G1 X113.742Y40.069Z0F800
G1 X113.804Y39.942Z0F800
G1 X113.896Y39.847Z0F800
G1 X114.062Y39.779Z0F800
G1 X114.231Y39.732Z0F800
G1 X114.405Y39.71Z0F800
G1 X114.584Y39.716Z0F800
G1 X114.844Y39.81Z0F800
G1 X115.098Y39.928Z0F800
G1 X115.167Y40.101Z0F800
G1 X115.224Y40.277Z0F800
G1 X115.256Y40.456Z0F800
G1 X115.25Y40.643Z0F800
G1 Y44.839Z0F800
G1 X119.955Z0F800
G1 X118.28Y41.257Z0F800
G1 X118.283Y41.115Z0F800
G1 X118.271Y40.968Z0F800
G1 X118.274Y40.826Z0F800
G1 X118.32Y40.704Z0F800
G1 X118.449Y40.586Z0F800
G1 X118.581Y40.471Z0F800
G1 X118.727Y40.391Z0F800
G1 X118.901Y40.377Z0F800
G1 X119.072Y40.372Z0F800
G1 X119.238Y40.387Z0F800
G1 X119.398Y40.429Z0F800
G1 X119.551Y40.505Z0F800
G1 X119.742Y40.616Z0F800
G1 X119.865Y40.797Z0F800
G1 X119.955Y41.008Z0F800
G1 X120.052Y41.209Z0F800
G1 X121.602Y44.528Z0F800
G1 X121.605Y44.668Z0F800
G1 X121.597Y44.815Z0F800
G1 X121.604Y44.881Z0F800
G1 X121.627Y44.937Z0F800
G1 X121.672Y44.979Z0F800
G1 X121.746Y45.002Z0F800
G1 X121.855Y45.074Z0F800
G1 X121.915Y45.193Z0F800
G1 X121.956Y45.33Z0F800
G1 X122.007Y45.457Z0F800
G1 X121.999Y45.628Z0F800
G1 X121.943Y45.789Z0F800
G1 X121.865Y45.946Z0F800
G1 X121.795Y46.103Z0F800
G1 X121.622Y46.173Z0F800
G1 X121.447Y46.229Z0F800
G1 X121.267Y46.261Z0F800
G1 X121.08Y46.255Z0F800
G1 X110.27Z0F800
G0 Z0.8F500
G0 X108.031Y45.806Z0.8F1000
G1 Z0F500
G1 X107.977Y45.942Z0F800
G1 X107.906Y46.06Z0F800
G1 X107.806Y46.147Z0F800
G1 X107.665Y46.19Z0F800
G1 X107.436Y46.252Z0F800
G1 X107.198Y46.261Z0F800
G1 X106.957Y46.252Z0F800
G1 X106.718Y46.255Z0F800
G1 X99.15Z0F800
G1 X98.684Y46.044Z0F800
G1 X98.627Y45.888Z0F800
G1 X98.564Y45.73Z0F800
G1 X98.529Y45.57Z0F800
G1 X98.555Y45.407Z0F800
G1 X98.384Y45.399Z0F800
G1 X98.223Y45.343Z0F800
G1 X98.067Y45.265Z0F800
G1 X97.909Y45.195Z0F800
G1 X97.476Y44.333Z0F800
G1 X97.069Y43.456Z0F800
G1 X96.547Y42.343Z0F800
G1 X96.04Y41.226Z0F800
G1 X96.044Y41.085Z0F800
G1 X96.03Y40.936Z0F800
G1 X96.037Y40.797Z0F800
G1 X96.104Y40.683Z0F800
G1 X96.227Y40.57Z0F800
G1 X96.354Y40.462Z0F800
G1 X96.495Y40.388Z0F800
G1 X96.662Y40.377Z0F800
G1 X96.833Y40.372Z0F800
G1 X96.999Y40.387Z0F800
G1 X97.16Y40.429Z0F800
G1 X97.312Y40.505Z0F800
G1 X97.504Y40.616Z0F800
G1 X97.626Y40.797Z0F800
G1 X97.717Y41.008Z0F800
G1 X97.813Y41.209Z0F800
G1 X99.363Y44.528Z0F800
G1 X99.354Y44.679Z0F800
G1 X99.379Y44.794Z0F800
G1 X99.411Y44.832Z0F800
G1 X99.459Y44.854Z0F800
G1 X99.526Y44.857Z0F800
G1 X99.613Y44.839Z0F800
G1 X107.49Z0F800
G1 X107.617Y44.902Z0F800
G1 X107.755Y44.954Z0F800
G1 X107.883Y45.017Z0F800
G1 X107.978Y45.109Z0F800
G1 X108.046Y45.28Z0F800
G1 X108.098Y45.458Z0F800
G1 X108.103Y45.635Z0F800
G1 X108.031Y45.806Z0F800
G0 Z0.8F500
G0 X108.083Y40.264Z0.8F1000
G1 Z0F500
G1 X108.106Y40.26Z0F800
G1 X108.134Y40.211Z0F800
G1 X108.171Y40.106Z0F800
G1 X108.083Y39.839Z0F800
G1 X108.061Y39.56Z0F800
G1 X108.069Y39.276Z0F800
G1 Y38.994Z0F800
G1 Y35.482Z0F800
G1 X108.005Y35.618Z0F800
G1 X107.946Y35.757Z0F800
G1 X107.861Y35.869Z0F800
G1 X107.723Y35.922Z0F800
G1 X107.474Y36Z0F800
G1 X107.214Y36.016Z0F800
G1 X106.949Y36.007Z0F800
G1 X106.687Y36.01Z0F800
G1 X101.93Z0F800
G1 X101.857Y35.957Z0F800
G1 X101.796Y35.936Z0F800
G1 X101.746Y35.94Z0F800
G1 X101.704Y35.967Z0F800
G1 X101.635Y36.068Z0F800
G1 X101.408Y36.547Z0F800
G1 X101.287Y36.907Z0F800
G1 X101.209Y37.278Z0F800
G1 X101.175Y37.655Z0F800
G1 X101.185Y38.034Z0F800
G1 X101.24Y38.408Z0F800
G1 X101.341Y38.773Z0F800
G1 X101.489Y39.124Z0F800
G1 X101.57Y39.283Z0F800
G1 X101.647Y39.441Z0F800
G1 X101.701Y39.606Z0F800
G1 X101.708Y39.784Z0F800
G1 X101.959Y39.725Z0F800
G1 X102.239Y39.716Z0F800
G1 X107.49Z0F800
G1 X107.617Y39.779Z0F800
G1 X107.755Y39.831Z0F800
G1 X107.882Y39.894Z0F800
G1 X107.977Y39.986Z0F800
G1 X108.028Y40.113Z0F800
G1 X108.064Y40.233Z0F800
G1 X108.083Y40.264Z0F800
G0 Z0.8F500
G0 X108.067Y40.605Z0.8F1000
G1 Z0F500
G1 X108.005Y40.741Z0F800
G1 X107.946Y40.88Z0F800
G1 X107.861Y40.992Z0F800
G1 X107.723Y41.045Z0F800
G1 X107.474Y41.123Z0F800
G1 X107.214Y41.139Z0F800
G1 X106.949Y41.129Z0F800
G1 X106.687Y41.133Z0F800
G1 X101.93Z0F800
G1 X101.803Y41.07Z0F800
G1 X101.665Y41.018Z0F800
G1 X101.538Y40.955Z0F800
G1 X101.443Y40.863Z0F800
G1 X101.352Y40.612Z0F800
G1 X101.282Y40.396Z0F800
G1 X101.097Y40.421Z0F800
G1 X100.911Y40.425Z0F800
G1 X100.732Y40.391Z0F800
G1 X100.57Y40.3Z0F800
G1 X100.435Y40.228Z0F800
G1 X100.308Y40.147Z0F800
G1 X100.202Y40.045Z0F800
G1 X99.923Y39.535Z0F800
G1 X99.755Y39.141Z0F800
G1 X99.626Y38.732Z0F800
G1 X99.539Y38.313Z0F800
G1 X99.498Y37.888Z0F800
G1 X99.503Y37.462Z0F800
G1 X99.558Y37.038Z0F800
G1 X99.666Y36.622Z0F800
G1 X99.785Y36.29Z0F800
G1 X99.925Y35.964Z0F800
G1 X100.09Y35.652Z0F800
G1 X100.282Y35.359Z0F800
G1 X100.461Y35.257Z0F800
G1 X100.64Y35.151Z0F800
G1 X100.827Y35.077Z0F800
G1 X101.032Y35.073Z0F800
G1 X101.176Y35.101Z0F800
G1 X101.296Y35.122Z0F800
G1 X101.345Y35.113Z0F800
G1 X101.385Y35.083Z0F800
G1 X101.417Y35.026Z0F800
G1 X101.438Y34.935Z0F800
G1 X101.495Y34.8Z0F800
G1 X101.601Y34.717Z0F800
G1 X101.734Y34.664Z0F800
G1 X101.871Y34.616Z0F800
G1 X102.454Y34.591Z0F800
G1 X103.042Z0F800
G1 X107.49Z0F800
G1 X107.617Y34.656Z0F800
G1 X107.755Y34.708Z0F800
G1 X107.883Y34.771Z0F800
G1 X107.978Y34.863Z0F800
G1 X108.022Y35.007Z0F800
G1 X108.077Y35.103Z0F800
G1 X108.104Y35.117Z0F800
G1 X108.128Y35.101Z0F800
G1 X108.147Y35.048Z0F800
G1 X108.16Y34.954Z0F800
G1 X108.079Y34.694Z0F800
G1 X108.061Y34.422Z0F800
G1 X108.07Y34.145Z0F800
G1 X108.067Y33.871Z0F800
G1 Y30.359Z0F800
G1 X108.005Y30.495Z0F800
G1 X107.946Y30.634Z0F800
G1 X107.861Y30.745Z0F800
G1 X107.723Y30.799Z0F800
G1 X107.474Y30.876Z0F800
G1 X107.214Y30.892Z0F800
G1 X106.949Y30.883Z0F800
G1 X106.687Y30.886Z0F800
G1 X99.4Z0F800
G1 X98.981Y31.834Z0F800
G1 X98.54Y32.773Z0F800
G1 X98.06Y33.804Z0F800
G1 X97.568Y34.824Z0F800
G1 X97.427Y34.947Z0F800
G1 X97.284Y35.068Z0F800
G1 X97.126Y35.151Z0F800
G1 X96.939Y35.161Z0F800
G1 X96.768Y35.167Z0F800
G1 X96.603Y35.145Z0F800
G1 X96.444Y35.096Z0F800
G1 X96.291Y35.02Z0F800
G1 X96.155Y34.947Z0F800
G1 X96.088Y34.814Z0F800
G1 X96.049Y34.656Z0F800
G1 X96.002Y34.505Z0F800
G1 X96.039Y34.295Z0F800
G1 X96.124Y34.092Z0F800
G1 X96.226Y33.893Z0F800
G1 X96.315Y33.693Z0F800
G1 X97.815Y30.487Z0F800
G1 X98.11Y30.232Z0F800
G1 X98.274Y30.143Z0F800
G1 X98.468Y30.131Z0F800
G1 X98.549Y30.066Z0F800
G1 X98.604Y29.947Z0F800
G1 X98.651Y29.811Z0F800
G1 X98.711Y29.694Z0F800
G1 X98.798Y29.604Z0F800
G1 X98.92Y29.548Z0F800
G1 X99.055Y29.509Z0F800
G1 X99.181Y29.47Z0F800
G1 X107.49Z0F800
G1 X107.617Y29.532Z0F800
G1 X107.755Y29.585Z0F800
G1 X107.883Y29.647Z0F800
G1 X107.978Y29.74Z0F800
G1 X108.026Y29.891Z0F800
G1 X108.078Y29.98Z0F800
G1 X108.104Y29.989Z0F800
G1 X108.132Y29.968Z0F800
G1 X108.161Y29.911Z0F800
G1 X108.192Y29.813Z0F800
G1 X108.249Y29.678Z0F800
G1 X108.355Y29.595Z0F800
G1 X108.488Y29.541Z0F800
G1 X108.626Y29.492Z0F800
G1 X108.805Y29.466Z0F800
G1 X108.985Y29.469Z0F800
G1 X109.161Y29.507Z0F800
G1 X109.326Y29.585Z0F800
G1 X109.463Y29.638Z0F800
G1 X109.552Y29.736Z0F800
G1 X109.612Y29.862Z0F800
G1 X109.658Y30Z0F800
G1 X109.716Y29.959Z0F800
G1 X109.768Y29.83Z0F800
G1 X109.831Y29.686Z0F800
G1 X109.922Y29.6Z0F800
G1 X110.087Y29.532Z0F800
G1 X110.257Y29.486Z0F800
G1 X110.43Y29.464Z0F800
G1 X110.61Y29.47Z0F800
G1 X111.846Z0F800
G1 X113.078Y29.483Z0F800
G1 X113.228Y29.553Z0F800
G1 X113.386Y29.616Z0F800
G1 X113.515Y29.706Z0F800
G1 X113.581Y29.855Z0F800
G1 X113.604Y29.954Z0F800
G1 X113.63Y29.997Z0F800
G1 X113.657Z0F800
G1 X113.685Y29.962Z0F800
G1 X113.744Y29.835Z0F800
G1 X113.803Y29.701Z0F800
G1 X113.888Y29.607Z0F800
G1 X114.011Y29.549Z0F800
G1 X114.147Y29.51Z0F800
G1 X114.275Y29.47Z0F800
G1 X114.443Y29.464Z0F800
G1 X114.606Y29.48Z0F800
G1 X114.764Y29.522Z0F800
G1 X114.914Y29.598Z0F800
G1 X115.047Y29.654Z0F800
G1 X115.128Y29.76Z0F800
G1 X115.18Y29.893Z0F800
G1 X115.228Y30.029Z0F800
G1 X115.289Y29.929Z0F800
G1 X115.34Y29.794Z0F800
G1 X115.405Y29.666Z0F800
G1 X115.51Y29.59Z0F800
G1 X115.676Y29.521Z0F800
G1 X115.846Y29.48Z0F800
G1 X116.021Y29.464Z0F800
G1 X116.2Y29.47Z0F800
G1 X117.42Z0F800
G1 X118.637Y29.483Z0F800
G1 X118.787Y29.553Z0F800
G1 X118.945Y29.616Z0F800
G1 X119.075Y29.706Z0F800
G1 X119.14Y29.855Z0F800
G1 X119.205Y30.013Z0F800
G1 X119.225Y30.177Z0F800
G1 X119.2Y30.34Z0F800
G1 X119.125Y30.493Z0F800
G1 X119.072Y30.632Z0F800
G1 X118.984Y30.731Z0F800
G1 X118.866Y30.799Z0F800
G1 X118.726Y30.842Z0F800
G1 X118.51Y30.886Z0F800
G1 X118.286Y30.891Z0F800
G1 X118.06Y30.882Z0F800
G1 X117.837Y30.886Z0F800
G1 X116.817Z0F800
G1 X115.801Y30.873Z0F800
G1 X115.651Y30.803Z0F800
G1 X115.493Y30.74Z0F800
G1 X115.364Y30.65Z0F800
G1 X115.299Y30.501Z0F800
G1 X115.272Y30.424Z0F800
G1 X115.256Y30.408Z0F800
G1 X115.249Y30.438Z0F800
G1 Y30.501Z0F800
G1 X115.252Y30.67Z0F800
G1 Y30.804Z0F800
G1 Y34.705Z0F800
G1 X115.188Y34.832Z0F800
G1 X115.135Y34.97Z0F800
G1 X115.073Y35.098Z0F800
G1 X114.981Y35.193Z0F800
G1 X114.815Y35.261Z0F800
G1 X114.646Y35.308Z0F800
G1 X114.472Y35.33Z0F800
G1 X114.293Y35.323Z0F800
G1 X114.033Y35.23Z0F800
G1 X113.779Y35.111Z0F800
G1 X113.709Y34.938Z0F800
G1 X113.653Y34.763Z0F800
G1 X113.621Y34.583Z0F800
G1 X113.627Y34.396Z0F800
G1 Y30.359Z0F800
G1 X113.565Y30.495Z0F800
G1 X113.506Y30.634Z0F800
G1 X113.421Y30.746Z0F800
G1 X113.282Y30.799Z0F800
G1 X113.033Y30.876Z0F800
G1 X112.773Y30.892Z0F800
G1 X112.509Y30.883Z0F800
G1 X112.247Y30.886Z0F800
G1 X111.242Z0F800
G1 X110.241Y30.874Z0F800
G1 X110.091Y30.803Z0F800
G1 X109.934Y30.74Z0F800
G1 X109.804Y30.651Z0F800
G1 X109.739Y30.501Z0F800
G1 X109.712Y30.424Z0F800
G1 X109.696Y30.408Z0F800
G1 X109.689Y30.438Z0F800
G1 Y30.501Z0F800
G1 X109.692Y30.67Z0F800
G1 Y30.804Z0F800
G1 Y34.705Z0F800
G1 X109.623Y34.83Z0F800
G1 X109.607Y34.956Z0F800
G1 X109.634Y35.083Z0F800
G1 X109.69Y35.212Z0F800
G1 Y39.828Z0F800
G1 X109.623Y39.953Z0F800
G1 X109.607Y40.079Z0F800
G1 X109.634Y40.206Z0F800
G1 X109.69Y40.335Z0F800
G1 Y44.952Z0F800
G1 X109.628Y45.079Z0F800
G1 X109.576Y45.217Z0F800
G1 X109.513Y45.344Z0F800
G1 X109.421Y45.439Z0F800
G1 X109.255Y45.508Z0F800
G1 X109.086Y45.554Z0F800
G1 X108.912Y45.576Z0F800
G1 X108.733Y45.57Z0F800
G1 X108.473Y45.476Z0F800
G1 X108.219Y45.358Z0F800
G1 X108.15Y45.185Z0F800
G1 X108.093Y45.009Z0F800
G1 X108.061Y44.829Z0F800
G1 X108.067Y44.643Z0F800
G1 Y40.605Z0F800
G0 Z0.8F500
G0 X116.162Y39.4Z0.8F1000
G1 Z0F500
G1 X116.113Y39.176Z0F800
G1 X116.082Y38.935Z0F800
G1 X116.066Y38.419Z0F800
G1 X116.101Y37.887Z0F800
G1 X116.172Y37.375Z0F800
G1 X116.266Y36.921Z0F800
G1 X116.383Y36.507Z0F800
G1 X116.539Y36.104Z0F800
G1 X116.732Y35.719Z0F800
G1 X116.96Y35.359Z0F800
G1 X117.14Y35.257Z0F800
G1 X117.319Y35.151Z0F800
G1 X117.506Y35.077Z0F800
G1 X117.711Y35.073Z0F800
G1 X117.863Y35.093Z0F800
G1 X118.007Y35.151Z0F800
G1 X118.148Y35.223Z0F800
G1 X118.291Y35.285Z0F800
G1 X118.343Y35.461Z0F800
G1 X118.4Y35.636Z0F800
G1 X118.422Y35.812Z0F800
G1 X118.368Y35.986Z0F800
G1 X118.194Y36.306Z0F800
G1 X118.053Y36.642Z0F800
G1 X117.947Y36.99Z0F800
G1 X117.879Y37.348Z0F800
G1 X117.851Y37.709Z0F800
G1 X117.864Y38.071Z0F800
G1 X117.922Y38.43Z0F800
G1 X118.027Y38.781Z0F800
G1 X118.197Y39.178Z0F800
G1 X118.371Y39.569Z0F800
G1 X118.38Y39.718Z0F800
G1 X118.401Y39.872Z0F800
G1 X118.388Y40.014Z0F800
G1 X118.296Y40.127Z0F800
G1 X118.196Y40.233Z0F800
G1 X118.091Y40.331Z0F800
G1 X117.97Y40.4Z0F800
G1 X117.825Y40.421Z0F800
G1 X117.672Y40.425Z0F800
G1 X117.522Y40.417Z0F800
G1 X117.38Y40.38Z0F800
G1 X117.249Y40.3Z0F800
G1 X117.172Y40.247Z0F800
G1 X117.097Y40.189Z0F800
G1 X117.019Y40.141Z0F800
G1 X116.934Y40.122Z0F800
G1 X116.74Y40.098Z0F800
G1 X116.575Y40.03Z0F800
G1 X116.436Y39.921Z0F800
G1 X116.322Y39.777Z0F800
G1 X116.231Y39.602Z0F800
G1 X116.162Y39.4Z0F800
G0 Z0.8F500
G0 X118.842Y35.145Z0.8F1000
G1 Z0F500
G1 X118.683Y35.096Z0F800
G1 X118.53Y35.02Z0F800
G1 X118.451Y34.987Z0F800
G1 X118.374Y34.949Z0F800
G1 X118.319Y34.767Z0F800
G1 X118.262Y34.585Z0F800
G1 X118.243Y34.403Z0F800
G1 X118.306Y34.225Z0F800
G1 X120.054Y30.487Z0F800
G1 X120.348Y30.232Z0F800
G1 X120.512Y30.143Z0F800
G1 X120.706Y30.131Z0F800
G1 X120.876Y30.124Z0F800
G1 X121.04Y30.146Z0F800
G1 X121.199Y30.195Z0F800
G1 X121.351Y30.271Z0F800
G1 X121.487Y30.345Z0F800
G1 X121.555Y30.477Z0F800
G1 X121.593Y30.636Z0F800
G1 X121.64Y30.786Z0F800
G1 X121.603Y30.996Z0F800
G1 X121.519Y31.199Z0F800
G1 X121.417Y31.397Z0F800
G1 X121.327Y31.597Z0F800
G1 X119.83Y34.804Z0F800
G1 X119.535Y35.059Z0F800
G1 X119.371Y35.148Z0F800
G1 X119.177Y35.161Z0F800
G1 X119.006Y35.167Z0F800
G1 X118.842Y35.145Z0F800
G0 Z0.8F500
G0 X95.797Y35.333Z0.8F1000
G1 Z0F500
G1 X95.791Y35.52Z0F800
G1 Y39.828Z0F800
G1 X95.729Y39.955Z0F800
G1 X95.676Y40.093Z0F800
G1 X95.614Y40.22Z0F800
G1 X95.522Y40.315Z0F800
G1 X95.356Y40.384Z0F800
G1 X95.187Y40.43Z0F800
G1 X95.013Y40.452Z0F800
G1 X94.834Y40.446Z0F800
G1 X94.574Y40.352Z0F800
G1 X94.32Y40.234Z0F800
G1 X94.251Y40.061Z0F800
G1 X94.194Y39.886Z0F800
G1 X94.162Y39.706Z0F800
G1 X94.168Y39.519Z0F800
G1 Y35.211Z0F800
G1 X94.103Y35.158Z0F800
G1 X93.806Y35.155Z0F800
G1 X93.68Y35.097Z0F800
G1 X93.546Y35.04Z0F800
G1 X93.421Y34.976Z0F800
G1 X93.329Y34.884Z0F800
G1 X93.293Y34.742Z0F800
G1 X93.245Y34.605Z0F800
G1 X93.225Y34.466Z0F800
G1 X93.24Y34.33Z0F800
G1 X93.3Y34.197Z0F800
G1 X95.035Y30.487Z0F800
G1 X95.33Y30.232Z0F800
G1 X95.494Y30.143Z0F800
G1 X95.688Y30.131Z0F800
G1 X95.858Y30.124Z0F800
G1 X96.022Y30.146Z0F800
G1 X96.18Y30.195Z0F800
G1 X96.333Y30.271Z0F800
G1 X96.469Y30.345Z0F800
G1 X96.536Y30.477Z0F800
G1 X96.575Y30.636Z0F800
G1 X96.622Y30.786Z0F800
G1 X96.585Y30.996Z0F800
G1 X96.501Y31.199Z0F800
G1 X96.399Y31.397Z0F800
G1 X96.309Y31.597Z0F800
G1 X94.909Y34.593Z0F800
G1 X95.104Z0F800
G1 X95.286Y34.644Z0F800
G1 X95.639Y34.805Z0F800
G1 X95.708Y34.978Z0F800
G1 X95.765Y35.154Z0F800
G1 X95.797Y35.333Z0F800
G0 Z0.8F500
G0 X93.756Y35.6Z0.8F1000
G1 Z0F500
G1 X93.795Y35.759Z0F800
G1 X93.842Y35.909Z0F800
G1 X93.805Y36.119Z0F800
G1 X93.721Y36.322Z0F800
G1 X93.619Y36.52Z0F800
G1 X93.529Y36.72Z0F800
G1 X92.031Y39.927Z0F800
G1 X91.737Y40.182Z0F800
G1 X91.573Y40.271Z0F800
G1 X91.379Y40.284Z0F800
G1 X91.208Y40.29Z0F800
G1 X91.043Y40.268Z0F800
G1 X90.884Y40.219Z0F800
G1 X90.731Y40.143Z0F800
G1 X90.652Y40.11Z0F800
G1 X90.575Y40.072Z0F800
G1 X90.52Y39.89Z0F800
G1 X90.463Y39.708Z0F800
G1 X90.445Y39.526Z0F800
G1 X90.507Y39.348Z0F800
G1 X92.255Y35.609Z0F800
G1 X92.55Y35.355Z0F800
G1 X92.714Y35.266Z0F800
G1 X92.908Y35.254Z0F800
G1 X93.078Y35.247Z0F800
G1 X93.242Y35.269Z0F800
G1 X93.4Y35.318Z0F800
G1 X93.553Y35.394Z0F800
G1 X93.689Y35.468Z0F800
G1 X93.756Y35.6Z0F800
G0 Z0.8F500
G0 X89.228Y34.824Z0.8F1000
G1 Z0F500
G1 X88.958Y35.06Z0F800
G1 X88.808Y35.145Z0F800
G1 X88.63Y35.161Z0F800
G1 X88.648Y35.344Z0F800
G1 X88.596Y35.518Z0F800
G1 X88.513Y35.688Z0F800
G1 X88.437Y35.858Z0F800
G1 X88.264Y35.927Z0F800
G1 X88.089Y35.984Z0F800
G1 X87.909Y36.016Z0F800
G1 X87.722Y36.01Z0F800
G1 X85.251Z0F800
G1 X84.785Y35.798Z0F800
G1 X84.727Y35.642Z0F800
G1 X84.665Y35.484Z0F800
G1 X84.63Y35.323Z0F800
G1 X84.656Y35.161Z0F800
G1 X84.485Y35.152Z0F800
G1 X84.324Y35.096Z0F800
G1 X84.168Y35.019Z0F800
G1 X84.01Y34.949Z0F800
G1 X83.577Y34.087Z0F800
G1 X83.17Y33.21Z0F800
G1 X82.648Y32.096Z0F800
G1 X82.141Y30.979Z0F800
G1 X82.13Y30.92Z0F800
G1 X82.093Y30.887Z0F800
G1 X82.036Y30.875Z0F800
G1 X81.965Z0F800
G1 X81.809Y30.893Z0F800
G1 X81.677Y30.886Z0F800
G1 X80.668Z0F800
G1 X79.663Y30.873Z0F800
G1 X79.513Y30.803Z0F800
G1 X79.355Y30.74Z0F800
G1 X79.226Y30.65Z0F800
G1 X79.16Y30.501Z0F800
G1 X79.096Y30.343Z0F800
G1 X79.075Y30.179Z0F800
G1 X79.101Y30.016Z0F800
G1 X79.176Y29.863Z0F800
G1 X79.228Y29.725Z0F800
G1 X79.316Y29.625Z0F800
G1 X79.434Y29.558Z0F800
G1 X79.575Y29.514Z0F800
G1 X79.791Y29.47Z0F800
G1 X80.014Y29.465Z0F800
G1 X80.24Y29.474Z0F800
G1 X80.464Y29.47Z0F800
G1 X81.483Z0F800
G1 X82.5Y29.483Z0F800
G1 X82.65Y29.553Z0F800
G1 X82.808Y29.616Z0F800
G1 X82.937Y29.706Z0F800
G1 X83.002Y29.855Z0F800
G1 X83.043Y29.985Z0F800
G1 X83.094Y30.089Z0F800
G1 X83.174Y30.164Z0F800
G1 X83.301Y30.207Z0F800
G1 X83.439Y30.264Z0F800
G1 X83.565Y30.337Z0F800
G1 X83.666Y30.436Z0F800
G1 X83.731Y30.571Z0F800
G1 X85.464Y34.282Z0F800
G1 X85.455Y34.432Z0F800
G1 X85.48Y34.548Z0F800
G1 X85.512Y34.586Z0F800
G1 X85.56Y34.608Z0F800
G1 X85.627Y34.611Z0F800
G1 X85.714Y34.594Z0F800
G1 X87.689Z0F800
G1 X87.669Y34.396Z0F800
G1 X87.731Y34.205Z0F800
G1 X87.828Y34.019Z0F800
G1 X87.911Y33.833Z0F800
G1 X89.476Y30.487Z0F800
G1 X89.771Y30.232Z0F800
G1 X89.934Y30.143Z0F800
G1 X90.128Y30.131Z0F800
G1 X90.21Y30.067Z0F800
G1 X90.265Y29.947Z0F800
G1 X90.312Y29.811Z0F800
G1 X90.372Y29.694Z0F800
G1 X90.459Y29.604Z0F800
G1 X90.58Y29.548Z0F800
G1 X90.715Y29.509Z0F800
G1 X90.842Y29.47Z0F800
G1 X92.232Z0F800
G1 X93.619Y29.483Z0F800
G1 X93.769Y29.553Z0F800
G1 X93.927Y29.616Z0F800
G1 X94.057Y29.706Z0F800
G1 X94.122Y29.855Z0F800
G1 X94.187Y30.013Z0F800
G1 X94.207Y30.177Z0F800
G1 X94.181Y30.34Z0F800
G1 X94.107Y30.493Z0F800
G1 X94.054Y30.632Z0F800
G1 X93.966Y30.731Z0F800
G1 X93.848Y30.799Z0F800
G1 X93.708Y30.842Z0F800
G1 X93.492Y30.886Z0F800
G1 X93.268Y30.891Z0F800
G1 X93.042Y30.882Z0F800
G1 X92.819Y30.886Z0F800
G1 X91.061Z0F800
G1 X90.642Y31.834Z0F800
G1 X90.2Y32.773Z0F800
G1 X89.721Y33.804Z0F800
G1 X89.228Y34.824Z0F800
G0 Z0.8F500
G0 X88.059Y39.729Z0.8F1000
G1 Z0F500
G1 X88.21Y39.799Z0F800
G1 X88.367Y39.863Z0F800
G1 X88.497Y39.952Z0F800
G1 X88.562Y40.102Z0F800
G1 X88.627Y40.26Z0F800
G1 X88.648Y40.424Z0F800
G1 X88.622Y40.586Z0F800
G1 X88.547Y40.74Z0F800
G1 X88.495Y40.878Z0F800
G1 X88.406Y40.977Z0F800
G1 X88.288Y41.045Z0F800
G1 X88.148Y41.089Z0F800
G1 X87.932Y41.133Z0F800
G1 X87.708Y41.137Z0F800
G1 X87.483Y41.129Z0F800
G1 X87.259Y41.132Z0F800
G1 X86.239Z0F800
G1 X85.223Y41.12Z0F800
G1 X84.785Y40.921Z0F800
G1 X84.712Y40.735Z0F800
G1 X84.649Y40.544Z0F800
G1 X84.635Y40.352Z0F800
G1 X84.764Y40.03Z0F800
G1 X84.835Y39.912Z0F800
G1 X84.935Y39.825Z0F800
G1 X85.076Y39.782Z0F800
G1 X85.305Y39.72Z0F800
G1 X85.543Y39.711Z0F800
G1 X85.784Y39.72Z0F800
G1 X86.023Y39.716Z0F800
G1 X87.043Z0F800
G1 X88.059Y39.729Z0F800
G0 Z0.8F500
G0 X89.771Y40.479Z0.8F1000
G1 Z0F500
G1 X89.934Y40.389Z0F800
G1 X90.128Y40.377Z0F800
G1 X90.298Y40.371Z0F800
G1 X90.463Y40.393Z0F800
G1 X90.621Y40.442Z0F800
G1 X90.773Y40.518Z0F800
G1 X90.909Y40.591Z0F800
G1 X90.977Y40.724Z0F800
G1 X91.015Y40.882Z0F800
G1 X91.063Y41.033Z0F800
G1 X91.025Y41.243Z0F800
G1 X90.941Y41.445Z0F800
G1 X90.839Y41.644Z0F800
G1 X90.749Y41.844Z0F800
G1 X89.252Y45.051Z0F800
G1 X89.11Y45.171Z0F800
G1 X88.97Y45.297Z0F800
G1 X88.815Y45.388Z0F800
G1 X88.63Y45.407Z0F800
G1 X88.648Y45.59Z0F800
G1 X88.596Y45.764Z0F800
G1 X88.513Y45.934Z0F800
G1 X88.437Y46.103Z0F800
G1 X88.264Y46.173Z0F800
G1 X88.089Y46.229Z0F800
G1 X87.909Y46.261Z0F800
G1 X87.722Y46.255Z0F800
G1 X85.251Z0F800
G1 X84.785Y46.044Z0F800
G1 X84.714Y46.025Z0F800
G1 X84.662Y45.975Z0F800
G1 X84.626Y45.9Z0F800
G1 X84.607Y45.807Z0F800
G1 Y45.599Z0F800
G1 X84.656Y45.407Z0F800
G1 X84.485Y45.399Z0F800
G1 X84.324Y45.343Z0F800
G1 X84.168Y45.265Z0F800
G1 X84.01Y45.195Z0F800
G1 X83.577Y44.333Z0F800
G1 X83.17Y43.456Z0F800
G1 X82.648Y42.343Z0F800
G1 X82.141Y41.226Z0F800
G1 X82.145Y41.085Z0F800
G1 X82.131Y40.936Z0F800
G1 X82.138Y40.797Z0F800
G1 X82.205Y40.683Z0F800
G1 X82.328Y40.57Z0F800
G1 X82.455Y40.462Z0F800
G1 X82.596Y40.388Z0F800
G1 X82.763Y40.377Z0F800
G1 X82.934Y40.372Z0F800
G1 X83.1Y40.387Z0F800
G1 X83.26Y40.429Z0F800
G1 X83.413Y40.505Z0F800
G1 X83.604Y40.616Z0F800
G1 X83.727Y40.797Z0F800
G1 X83.818Y41.008Z0F800
G1 X83.914Y41.209Z0F800
G1 X85.464Y44.528Z0F800
G1 X85.455Y44.679Z0F800
G1 X85.48Y44.794Z0F800
G1 X85.512Y44.832Z0F800
G1 X85.56Y44.854Z0F800
G1 X85.627Y44.857Z0F800
G1 X85.714Y44.839Z0F800
G1 X87.689Z0F800
G1 X87.669Y44.642Z0F800
G1 X87.731Y44.451Z0F800
G1 X87.828Y44.265Z0F800
G1 X87.911Y44.08Z0F800
G1 X89.476Y40.733Z0F800
G1 X89.771Y40.479Z0F800
G0 Z0.8F500
G0 X82.689Y39.835Z0.8F1000
G1 Z0F500
G1 X82.643Y39.957Z0F800
G1 X82.514Y40.074Z0F800
G1 X82.383Y40.189Z0F800
G1 X82.236Y40.27Z0F800
G1 X82.062Y40.284Z0F800
G1 X81.892Y40.289Z0F800
G1 X81.726Y40.274Z0F800
G1 X81.567Y40.232Z0F800
G1 X81.414Y40.156Z0F800
G1 X81.36Y40.14Z0F800
G1 X81.3Y40.129Z0F800
G1 X81.251Y40.109Z0F800
G1 X81.23Y40.072Z0F800
G1 X81.196Y39.836Z0F800
G1 X81.125Y39.61Z0F800
G1 X81.025Y39.391Z0F800
G1 X80.905Y39.178Z0F800
G1 X80.637Y38.757Z0F800
G1 X80.39Y38.332Z0F800
G1 X79.868Y37.219Z0F800
G1 X79.362Y36.102Z0F800
G1 X79.365Y35.961Z0F800
G1 X79.351Y35.812Z0F800
G1 X79.359Y35.673Z0F800
G1 X79.426Y35.56Z0F800
G1 X79.548Y35.447Z0F800
G1 X79.675Y35.339Z0F800
G1 X79.816Y35.265Z0F800
G1 X79.984Y35.254Z0F800
G1 X80.154Y35.248Z0F800
G1 X80.32Y35.263Z0F800
G1 X80.48Y35.305Z0F800
G1 X80.633Y35.381Z0F800
G1 X80.824Y35.492Z0F800
G1 X80.947Y35.673Z0F800
G1 X81.038Y35.884Z0F800
G1 X81.134Y36.086Z0F800
G1 X82.684Y39.405Z0F800
G1 X82.681Y39.546Z0F800
G1 X82.692Y39.693Z0F800
G1 X82.689Y39.835Z0F800
G0 Z0.8F500
G0 X79.457Y35.147Z0.8F1000
G1 Z0F500
G1 X79.283Y35.161Z0F800
G1 X79.113Y35.166Z0F800
G1 X78.947Y35.151Z0F800
G1 X78.787Y35.109Z0F800
G1 X78.635Y35.033Z0F800
G1 X78.45Y34.949Z0F800
G1 X78.017Y34.087Z0F800
G1 X77.61Y33.21Z0F800
G1 X77.088Y32.096Z0F800
G1 X76.581Y30.979Z0F800
G1 X76.585Y30.838Z0F800
G1 X76.571Y30.689Z0F800
G1 X76.579Y30.55Z0F800
G1 X76.645Y30.437Z0F800
G1 X76.768Y30.324Z0F800
G1 X76.895Y30.216Z0F800
G1 X77.036Y30.142Z0F800
G1 X77.203Y30.131Z0F800
G1 X77.374Y30.125Z0F800
G1 X77.54Y30.14Z0F800
G1 X77.701Y30.182Z0F800
G1 X77.854Y30.258Z0F800
G1 X78.045Y30.369Z0F800
G1 X78.167Y30.55Z0F800
G1 X78.258Y30.761Z0F800
G1 X78.354Y30.963Z0F800
G1 X79.904Y34.282Z0F800
G1 X79.901Y34.423Z0F800
G1 X79.913Y34.57Z0F800
G1 X79.91Y34.712Z0F800
G1 X79.863Y34.834Z0F800
G1 X79.734Y34.951Z0F800
G1 X79.603Y35.066Z0F800
G1 X79.457Y35.147Z0F800
G0 Z0.8F500
G0 X30.142Y45.109Z0.8F1000
G1 Z0F500
G1 X30.211Y45.28Z0F800
G1 X30.263Y45.458Z0F800
G1 X30.268Y45.635Z0F800
G1 X30.196Y45.806Z0F800
G1 X30.141Y45.942Z0F800
G1 X30.07Y46.06Z0F800
G1 X29.97Y46.147Z0F800
G1 X29.829Y46.19Z0F800
G1 X29.601Y46.252Z0F800
G1 X29.363Y46.261Z0F800
G1 X29.121Y46.252Z0F800
G1 X28.882Y46.255Z0F800
G1 X21.315Z0F800
G1 X20.889Y46.059Z0F800
G1 X20.819Y46.028Z0F800
G1 X20.849Y46.044Z0F800
G1 X20.905Y46.054Z0F800
G1 X20.91Y46.008Z0F800
G1 X20.88Y45.919Z0F800
G1 X20.832Y45.8Z0F800
G1 X20.781Y45.664Z0F800
G1 X20.744Y45.525Z0F800
G1 X20.736Y45.395Z0F800
G1 X20.774Y45.288Z0F800
G1 X20.828Y45.152Z0F800
G1 X20.899Y45.035Z0F800
G1 X21Y44.948Z0F800
G1 X21.141Y44.905Z0F800
G1 X21.369Y44.843Z0F800
G1 X21.607Y44.834Z0F800
G1 X21.848Y44.843Z0F800
G1 X22.087Y44.839Z0F800
G1 X29.655Z0F800
G1 X29.782Y44.902Z0F800
G1 X29.92Y44.954Z0F800
G1 X30.047Y45.017Z0F800
G1 X30.142Y45.109Z0F800
G0 Z0.8F500
G0 X31.771Y49.963Z0.8F1000
G1 Z0F500
G1 X31.898Y50.025Z0F800
G1 X32.036Y50.078Z0F800
G1 X32.164Y50.14Z0F800
G1 X32.259Y50.233Z0F800
G1 X32.309Y50.351Z0F800
G1 X32.343Y50.482Z0F800
G1 X32.393Y50.592Z0F800
G1 X32.488Y50.649Z0F800
G1 X32.652Y50.721Z0F800
G1 X32.814Y50.798Z0F800
G1 X32.948Y50.904Z0F800
G1 X33.031Y51.064Z0F800
G1 X34.764Y54.775Z0F800
G1 X34.761Y54.916Z0F800
G1 X34.772Y55.063Z0F800
G1 X34.769Y55.205Z0F800
G1 X34.722Y55.327Z0F800
G1 X34.594Y55.444Z0F800
G1 X34.463Y55.56Z0F800
G1 X34.316Y55.64Z0F800
G1 X34.142Y55.654Z0F800
G1 X33.972Y55.659Z0F800
G1 X33.806Y55.644Z0F800
G1 X33.647Y55.602Z0F800
G1 X33.494Y55.526Z0F800
G1 X33.303Y55.415Z0F800
G1 X33.181Y55.235Z0F800
G1 X33.09Y55.023Z0F800
G1 X32.993Y54.822Z0F800
G1 X31.441Y51.503Z0F800
G1 Y51.431Z0F800
G1 X31.415Y51.389Z0F800
G1 X31.363Y51.371Z0F800
G1 X31.296Z0F800
G1 X31.141Y51.385Z0F800
G1 X31.007Y51.379Z0F800
G1 X20.901Z0F800
G1 X20.482Y52.327Z0F800
G1 X20.041Y53.266Z0F800
G1 X19.562Y54.297Z0F800
G1 X19.069Y55.317Z0F800
G1 X18.929Y55.44Z0F800
G1 X18.786Y55.561Z0F800
G1 X18.627Y55.644Z0F800
G1 X18.44Y55.654Z0F800
G1 X18.269Y55.66Z0F800
G1 X18.104Y55.638Z0F800
G1 X17.946Y55.589Z0F800
G1 X17.793Y55.513Z0F800
G1 X17.636Y55.442Z0F800
G1 X17.581Y55.261Z0F800
G1 X17.524Y55.078Z0F800
G1 X17.506Y54.896Z0F800
G1 X17.568Y54.718Z0F800
G1 X19.316Y50.98Z0F800
G1 X19.611Y50.725Z0F800
G1 X19.775Y50.636Z0F800
G1 X19.969Y50.624Z0F800
G1 X20.051Y50.559Z0F800
G1 X20.105Y50.44Z0F800
G1 X20.153Y50.304Z0F800
G1 X20.213Y50.187Z0F800
G1 X20.299Y50.097Z0F800
G1 X20.421Y50.041Z0F800
G1 X20.556Y50.002Z0F800
G1 X20.683Y49.963Z0F800
G1 X31.771Z0F800
G0 Z0.8F500
G0 X30.487Y55.085Z0.8F1000
G1 Z0F500
G1 X30.663Y55.123Z0F800
G1 X30.827Y55.201Z0F800
G1 X30.964Y55.254Z0F800
G1 X31.054Y55.352Z0F800
G1 X31.113Y55.478Z0F800
G1 X31.159Y55.616Z0F800
G1 X31.193Y55.842Z0F800
G1 X31.196Y56.073Z0F800
G1 X31.189Y56.306Z0F800
G1 X31.192Y56.538Z0F800
G1 Y60.321Z0F800
G1 X31.124Y60.445Z0F800
G1 X31.109Y60.571Z0F800
G1 X31.135Y60.699Z0F800
G1 X31.192Y60.827Z0F800
G1 Y65.445Z0F800
G1 X31.124Y65.569Z0F800
G1 X31.109Y65.695Z0F800
G1 X31.135Y65.822Z0F800
G1 X31.192Y65.95Z0F800
G1 Y70.568Z0F800
G1 X31.129Y70.695Z0F800
G1 X31.077Y70.833Z0F800
G1 X31.015Y70.96Z0F800
G1 X30.922Y71.055Z0F800
G1 X30.757Y71.123Z0F800
G1 X30.587Y71.17Z0F800
G1 X30.413Y71.192Z0F800
G1 X30.234Y71.185Z0F800
G1 X29.975Y71.092Z0F800
G1 X29.72Y70.974Z0F800
G1 X29.651Y70.801Z0F800
G1 X29.594Y70.625Z0F800
G1 X29.562Y70.445Z0F800
G1 X29.568Y70.259Z0F800
G1 Y65.95Z0F800
G1 X29.636Y65.826Z0F800
G1 X29.651Y65.7Z0F800
G1 X29.625Y65.573Z0F800
G1 X29.568Y65.445Z0F800
G1 Y60.827Z0F800
G1 X29.636Y60.703Z0F800
G1 X29.651Y60.577Z0F800
G1 X29.625Y60.45Z0F800
G1 X29.568Y60.321Z0F800
G1 Y55.973Z0F800
G1 X29.506Y56.109Z0F800
G1 X29.447Y56.249Z0F800
G1 X29.363Y56.361Z0F800
G1 X29.223Y56.415Z0F800
G1 X28.975Y56.492Z0F800
G1 X28.715Y56.508Z0F800
G1 X28.45Y56.499Z0F800
G1 X28.188Y56.502Z0F800
G1 X23.432Z0F800
G1 X23.305Y56.439Z0F800
G1 X23.167Y56.387Z0F800
G1 X23.039Y56.325Z0F800
G1 X22.944Y56.232Z0F800
G1 X22.914Y56.133Z0F800
G1 X22.889Y56.071Z0F800
G1 X22.871Y56.043Z0F800
G1 X22.859Y56.046Z0F800
G1 X22.848Y56.129Z0F800
G1 X22.852Y56.294Z0F800
G1 Y60.321Z0F800
G1 X22.784Y60.445Z0F800
G1 X22.769Y60.571Z0F800
G1 X22.795Y60.699Z0F800
G1 X22.852Y60.827Z0F800
G1 Y65.445Z0F800
G1 X22.784Y65.569Z0F800
G1 X22.769Y65.695Z0F800
G1 X22.795Y65.822Z0F800
G1 X22.852Y65.95Z0F800
G1 Y70.568Z0F800
G1 X22.79Y70.695Z0F800
G1 X22.737Y70.833Z0F800
G1 X22.675Y70.96Z0F800
G1 X22.582Y71.055Z0F800
G1 X22.417Y71.123Z0F800
G1 X22.247Y71.17Z0F800
G1 X22.073Y71.192Z0F800
G1 X21.894Y71.185Z0F800
G1 X21.635Y71.092Z0F800
G1 X21.381Y70.974Z0F800
G1 X21.312Y70.801Z0F800
G1 X21.255Y70.625Z0F800
G1 X21.223Y70.445Z0F800
G1 X21.229Y70.259Z0F800
G1 Y65.95Z0F800
G1 X21.297Y65.826Z0F800
G1 X21.312Y65.7Z0F800
G1 X21.286Y65.573Z0F800
G1 X21.229Y65.445Z0F800
G1 Y60.827Z0F800
G1 X21.297Y60.703Z0F800
G1 X21.312Y60.577Z0F800
G1 X21.286Y60.45Z0F800
G1 X21.229Y60.321Z0F800
G1 Y55.704Z0F800
G1 X21.292Y55.577Z0F800
G1 X21.344Y55.439Z0F800
G1 X21.406Y55.311Z0F800
G1 X21.499Y55.216Z0F800
G1 X21.664Y55.148Z0F800
G1 X21.834Y55.101Z0F800
G1 X22.008Y55.08Z0F800
G1 X22.187Y55.086Z0F800
G1 X22.446Y55.18Z0F800
G1 X22.7Y55.298Z0F800
G1 X22.8Y55.571Z0F800
G1 X22.826Y55.613Z0F800
G1 X22.853Y55.62Z0F800
G1 X22.881Y55.583Z0F800
G1 X22.912Y55.489Z0F800
G1 X22.965Y55.349Z0F800
G1 X23.054Y55.245Z0F800
G1 X23.172Y55.174Z0F800
G1 X23.315Y55.13Z0F800
G1 X23.531Y55.086Z0F800
G1 X23.755Y55.081Z0F800
G1 X23.981Y55.09Z0F800
G1 X24.204Y55.086Z0F800
G1 X28.991Z0F800
G1 X29.118Y55.148Z0F800
G1 X29.256Y55.201Z0F800
G1 X29.383Y55.263Z0F800
G1 X29.478Y55.356Z0F800
G1 X29.528Y55.507Z0F800
G1 X29.579Y55.597Z0F800
G1 X29.606Y55.606Z0F800
G1 X29.633Y55.584Z0F800
G1 X29.663Y55.527Z0F800
G1 X29.693Y55.43Z0F800
G1 X29.75Y55.294Z0F800
G1 X29.856Y55.211Z0F800
G1 X29.989Y55.157Z0F800
G1 X30.127Y55.108Z0F800
G1 X30.306Y55.082Z0F800
G1 X30.487Y55.085Z0F800
G0 Z0.8F500
G0 X35.128Y55.704Z0.8F1000
G1 Z0F500
G1 X35.191Y55.577Z0F800
G1 X35.243Y55.439Z0F800
G1 X35.305Y55.311Z0F800
G1 X35.398Y55.216Z0F800
G1 X35.563Y55.148Z0F800
G1 X35.733Y55.101Z0F800
G1 X35.907Y55.08Z0F800
G1 X36.086Y55.086Z0F800
G1 X36.345Y55.18Z0F800
G1 X36.599Y55.298Z0F800
G1 X36.668Y55.471Z0F800
G1 X36.725Y55.646Z0F800
G1 X36.757Y55.826Z0F800
G1 X36.751Y56.013Z0F800
G1 Y60.321Z0F800
G1 X36.684Y60.445Z0F800
G1 X36.668Y60.571Z0F800
G1 X36.694Y60.699Z0F800
G1 X36.751Y60.827Z0F800
G1 Y65.445Z0F800
G1 X36.683Y65.569Z0F800
G1 X36.668Y65.695Z0F800
G1 X36.694Y65.822Z0F800
G1 X36.751Y65.95Z0F800
G1 Y70.568Z0F800
G1 X36.689Y70.695Z0F800
G1 X36.636Y70.833Z0F800
G1 X36.574Y70.96Z0F800
G1 X36.482Y71.055Z0F800
G1 X36.316Y71.123Z0F800
G1 X36.147Y71.17Z0F800
G1 X35.973Y71.192Z0F800
G1 X35.794Y71.185Z0F800
G1 X35.534Y71.092Z0F800
G1 X35.28Y70.974Z0F800
G1 X35.211Y70.801Z0F800
G1 X35.154Y70.625Z0F800
G1 X35.122Y70.445Z0F800
G1 X35.128Y70.259Z0F800
G1 Y65.95Z0F800
G1 X35.196Y65.826Z0F800
G1 X35.211Y65.7Z0F800
G1 X35.185Y65.573Z0F800
G1 X35.128Y65.445Z0F800
G1 Y60.827Z0F800
G1 X35.196Y60.703Z0F800
G1 X35.211Y60.577Z0F800
G1 X35.185Y60.45Z0F800
G1 X35.128Y60.321Z0F800
G1 Y55.704Z0F800
G0 Z0.8F500
G0 X17.298Y55.826Z0.8F1000
G1 Z0F500
G1 X17.292Y56.013Z0F800
G1 Y60.321Z0F800
G1 X17.225Y60.445Z0F800
G1 X17.209Y60.571Z0F800
G1 X17.235Y60.699Z0F800
G1 X17.292Y60.827Z0F800
G1 Y65.445Z0F800
G1 X17.225Y65.569Z0F800
G1 X17.209Y65.695Z0F800
G1 X17.235Y65.822Z0F800
G1 X17.292Y65.95Z0F800
G1 Y70.568Z0F800
G1 X17.23Y70.695Z0F800
G1 X17.177Y70.833Z0F800
G1 X17.115Y70.96Z0F800
G1 X17.023Y71.055Z0F800
G1 X16.857Y71.123Z0F800
G1 X16.688Y71.17Z0F800
G1 X16.514Y71.192Z0F800
G1 X16.335Y71.185Z0F800
G1 X16.075Y71.092Z0F800
G1 X15.821Y70.974Z0F800
G1 X15.752Y70.801Z0F800
G1 X15.695Y70.625Z0F800
G1 X15.663Y70.445Z0F800
G1 X15.669Y70.259Z0F800
G1 Y65.95Z0F800
G1 X15.737Y65.826Z0F800
G1 X15.752Y65.7Z0F800
G1 X15.726Y65.573Z0F800
G1 X15.669Y65.445Z0F800
G1 Y60.827Z0F800
G1 X15.737Y60.703Z0F800
G1 X15.752Y60.577Z0F800
G1 X15.726Y60.45Z0F800
G1 X15.669Y60.321Z0F800
G1 Y55.704Z0F800
G1 X15.732Y55.577Z0F800
G1 X15.784Y55.439Z0F800
G1 X15.846Y55.311Z0F800
G1 X15.939Y55.216Z0F800
G1 X16.104Y55.148Z0F800
G1 X16.274Y55.101Z0F800
G1 X16.448Y55.08Z0F800
G1 X16.627Y55.086Z0F800
G1 X16.886Y55.18Z0F800
G1 X17.14Y55.298Z0F800
G1 X17.209Y55.471Z0F800
G1 X17.266Y55.646Z0F800
G1 X17.298Y55.826Z0F800
G0 Z0.8F500
G0 X15.656Y41.133Z0.8F1000
G1 Z0F500
G1 X15.432Y41.137Z0F800
G1 X15.207Y41.129Z0F800
G1 X14.983Y41.132Z0F800
G1 X13.963Z0F800
G1 X12.947Y41.12Z0F800
G1 X12.509Y40.921Z0F800
G1 X12.436Y40.735Z0F800
G1 X12.373Y40.544Z0F800
G1 X12.36Y40.352Z0F800
G1 X12.488Y40.03Z0F800
G1 X12.559Y39.912Z0F800
G1 X12.66Y39.825Z0F800
G1 X12.801Y39.782Z0F800
G1 X13.029Y39.72Z0F800
G1 X13.267Y39.711Z0F800
G1 X13.508Y39.72Z0F800
G1 X13.747Y39.716Z0F800
G1 X14.767Z0F800
G1 X15.784Y39.729Z0F800
G1 X15.934Y39.799Z0F800
G1 X16.091Y39.863Z0F800
G1 X16.221Y39.952Z0F800
G1 X16.286Y40.102Z0F800
G1 X16.351Y40.26Z0F800
G1 X16.372Y40.424Z0F800
G1 X16.346Y40.586Z0F800
G1 X16.271Y40.74Z0F800
G1 X16.219Y40.878Z0F800
G1 X16.13Y40.977Z0F800
G1 X16.012Y41.045Z0F800
G1 X15.872Y41.089Z0F800
G1 X15.656Y41.133Z0F800
G0 Z0.8F500
G0 X23.486Y70.459Z0.8F1000
G1 Z0F500
G1 X23.724Y70.45Z0F800
G1 X23.965Y70.459Z0F800
G1 X24.204Y70.455Z0F800
G1 X28.991Z0F800
G1 X29.118Y70.518Z0F800
G1 X29.256Y70.57Z0F800
G1 X29.383Y70.633Z0F800
G1 X29.478Y70.725Z0F800
G1 X29.547Y70.896Z0F800
G1 X29.599Y71.074Z0F800
G1 X29.604Y71.251Z0F800
G1 X29.532Y71.422Z0F800
G1 X29.478Y71.558Z0F800
G1 X29.407Y71.676Z0F800
G1 X29.307Y71.763Z0F800
G1 X29.166Y71.806Z0F800
G1 X28.937Y71.868Z0F800
G1 X28.699Y71.877Z0F800
G1 X28.458Y71.868Z0F800
G1 X28.219Y71.871Z0F800
G1 X23.432Z0F800
G1 X22.966Y71.66Z0F800
G1 X22.893Y71.474Z0F800
G1 X22.83Y71.283Z0F800
G1 X22.816Y71.091Z0F800
G1 X22.945Y70.768Z0F800
G1 X23.016Y70.651Z0F800
G1 X23.116Y70.564Z0F800
G1 X23.257Y70.521Z0F800
G1 X23.486Y70.459Z0F800
G0 Z0.8F500
G0 X19.127Y71.536Z0.8F1000
G1 Z0F500
G1 X19.218Y71.747Z0F800
G1 X19.315Y71.948Z0F800
G1 X20.865Y75.267Z0F800
G1 X20.855Y75.418Z0F800
G1 X20.881Y75.533Z0F800
G1 X20.913Y75.571Z0F800
G1 X20.961Y75.593Z0F800
G1 X21.027Y75.597Z0F800
G1 X21.115Y75.579Z0F800
G1 X31.429Z0F800
G1 X31.409Y75.382Z0F800
G1 X31.471Y75.191Z0F800
G1 X31.567Y75.004Z0F800
G1 X31.651Y74.819Z0F800
G1 X33.216Y71.472Z0F800
G1 X33.511Y71.218Z0F800
G1 X33.674Y71.128Z0F800
G1 X33.868Y71.116Z0F800
G1 X34.038Y71.11Z0F800
G1 X34.203Y71.132Z0F800
G1 X34.361Y71.181Z0F800
G1 X34.513Y71.257Z0F800
G1 X34.649Y71.33Z0F800
G1 X34.717Y71.463Z0F800
G1 X34.755Y71.621Z0F800
G1 X34.802Y71.772Z0F800
G1 X34.765Y71.982Z0F800
G1 X34.681Y72.184Z0F800
G1 X34.579Y72.383Z0F800
G1 X34.489Y72.583Z0F800
G1 X32.992Y75.789Z0F800
G1 X32.85Y75.91Z0F800
G1 X32.71Y76.036Z0F800
G1 X32.555Y76.127Z0F800
G1 X32.37Y76.146Z0F800
G1 X32.388Y76.329Z0F800
G1 X32.336Y76.503Z0F800
G1 X32.253Y76.674Z0F800
G1 X32.177Y76.843Z0F800
G1 X32.004Y76.912Z0F800
G1 X31.829Y76.969Z0F800
G1 X31.649Y77.001Z0F800
G1 X31.462Y76.995Z0F800
G1 X20.652Z0F800
G1 X20.186Y76.783Z0F800
G1 X20.128Y76.627Z0F800
G1 X20.065Y76.469Z0F800
G1 X20.031Y76.309Z0F800
G1 X20.057Y76.146Z0F800
G1 X19.885Y76.138Z0F800
G1 X19.725Y76.081Z0F800
G1 X19.568Y76.004Z0F800
G1 X19.411Y75.934Z0F800
G1 X18.977Y75.072Z0F800
G1 X18.571Y74.195Z0F800
G1 X18.048Y73.082Z0F800
G1 X17.542Y71.965Z0F800
G1 X17.545Y71.824Z0F800
G1 X17.532Y71.675Z0F800
G1 X17.539Y71.536Z0F800
G1 X17.606Y71.422Z0F800
G1 X17.729Y71.309Z0F800
G1 X17.855Y71.201Z0F800
G1 X17.996Y71.127Z0F800
G1 X18.164Y71.116Z0F800
G1 X18.334Y71.111Z0F800
G1 X18.501Y71.126Z0F800
G1 X18.661Y71.168Z0F800
G1 X18.814Y71.244Z0F800
G1 X19.005Y71.354Z0F800
G1 X19.127Y71.536Z0F800
G0 Z0.8F500
G0 X16.945Y82.42Z0.8F1000
G1 Z0F500
G1 Y89.725Z0F800
G1 X16.133Z0F800
G1 Y90.536Z0F800
G1 X12.887Z0F800
G1 Y88.913Z0F800
G1 X13.698Z0F800
G1 Y82.42Z0F800
G1 X16.945Z0F800
G0 Z0.8F500
G0 X25.102Z0.8F1000
G1 Z0F500
G1 X28.348Z0F800
G1 Y89.725Z0F800
G1 X27.536Z0F800
G1 Y90.536Z0F800
G1 X20.232Z0F800
G1 Y88.913Z0F800
G1 X25.102Z0F800
G1 Y82.42Z0F800
G0 Z0.8F500
G0 X33.322Y84.885Z0.8F1000
G1 Z0F500
G1 X38.531Z0F800
G1 Y86.724Z0F800
G1 X33.322Z0F800
G1 Y84.885Z0F800
G0 Z0.8F500
G0 X74.049Y87.29Z0.8F1000
G1 Z0F500
G1 Y88.913Z0F800
G1 X75.672Z0F800
G1 Y87.29Z0F800
G1 X74.049Z0F800
G0 Z0.8F500
G0 Y85.666Z0.8F1000
G1 Z0F500
G1 X75.672Z0F800
G1 Y82.42Z0F800
G1 X78.919Z0F800
G1 Y89.725Z0F800
G1 X78.107Z0F800
G1 Y90.536Z0F800
G1 X71.614Z0F800
G1 Y89.725Z0F800
G1 X70.802Z0F800
G1 Y82.42Z0F800
G1 X74.049Z0F800
G1 Y85.666Z0F800
G0 Z0.8F500
G0 X85.452Y87.29Z0.8F1000
G1 Z0F500
G1 Y88.913Z0F800
G1 X87.076Z0F800
G1 Y87.29Z0F800
G1 X85.452Z0F800
G0 Z0.8F500
G0 Y85.666Z0.8F1000
G1 Z0F500
G1 X89.51Z0F800
G1 Y86.478Z0F800
G1 X90.322Z0F800
G1 Y89.725Z0F800
G1 X89.51Z0F800
G1 Y90.536Z0F800
G1 X82.206Z0F800
G1 Y82.42Z0F800
G1 X85.452Z0F800
G1 Y85.666Z0F800
G0 Z0.8F500
G0 X96.856Y87.29Z0.8F1000
G1 Z0F500
G1 Y88.913Z0F800
G1 X98.479Z0F800
G1 Y87.29Z0F800
G1 X96.856Z0F800
G0 Z0.8F500
G0 Y85.666Z0.8F1000
G1 Z0F500
G1 X98.479Z0F800
G1 Y82.42Z0F800
G1 X101.726Z0F800
G1 Y85.666Z0F800
G1 X100.914Z0F800
G1 Y87.29Z0F800
G1 X101.726Z0F800
G1 Y89.725Z0F800
G1 X100.914Z0F800
G1 Y90.536Z0F800
G1 X93.609Z0F800
G1 Y82.42Z0F800
G1 X96.856Z0F800
G1 Y85.666Z0F800
G0 Z0.8F500
G0 X104.008Y82.42Z0.8F1000
G1 Z0F500
G1 X107.254Z0F800
G1 Y90.536Z0F800
G1 X104.008Z0F800
G1 Y82.42Z0F800
G0 Z0.8F500
G0 X111.546Z0.8F1000
G1 Z0F500
G1 X119.663Z0F800
G1 Y84.043Z0F800
G1 X114.793Z0F800
G1 Y90.536Z0F800
G1 X111.546Z0F800
G1 Y82.42Z0F800
G0 Z0.8F500
G0 X110.369Y76.134Z0.8F1000
G1 Z0F500
G1 X110.175Y76.146Z0F800
G1 X110.004Y76.152Z0F800
G1 X109.839Y76.131Z0F800
G1 X109.68Y76.082Z0F800
G1 X109.527Y76.005Z0F800
G1 X109.371Y75.934Z0F800
G1 X109.316Y75.753Z0F800
G1 X109.259Y75.57Z0F800
G1 X109.241Y75.389Z0F800
G1 X109.303Y75.21Z0F800
G1 X111.051Y71.472Z0F800
G1 X111.346Y71.218Z0F800
G1 X111.51Y71.128Z0F800
G1 X111.704Y71.116Z0F800
G1 X111.874Y71.11Z0F800
G1 X112.038Y71.132Z0F800
G1 X112.196Y71.181Z0F800
G1 X112.349Y71.257Z0F800
G1 X112.485Y71.33Z0F800
G1 X112.552Y71.463Z0F800
G1 X112.591Y71.621Z0F800
G1 X112.638Y71.772Z0F800
G1 X112.601Y71.982Z0F800
G1 X112.517Y72.184Z0F800
G1 X112.415Y72.383Z0F800
G1 X112.325Y72.583Z0F800
G1 X110.827Y75.789Z0F800
G1 X110.533Y76.044Z0F800
