;LightBurn 1.6.04
;Custom GCode device profile, absolute coords
;Bounds: X24.93 Y32.41 to X65.07 Y63.59
G00 G17 G40 G21 G54
G90
M3
G1 Z10 F500
;Offset @ 555 mm/min, 90% power

M8
G0 Z3.5 F500
G0 X33.284 Y36.265 Z3.5 
G1 Z0 F500
;Layer C1 Pass 1 of 2
G1 X33.262 Y36.747 Z0 S900 F800
G1 X32.727 Y36.706 Z0 F800
G1 X32.799 Y36.611 Z0 F800
G1 X32.948 Y36.488 Z0 F800
G1 X33.093 Y36.243 Z0 F800
G1 X33.262 Y36.044 Z0 F800
G1 X33.3 Y35.948 Z0 F800
G1 X33.367 Y35.86 Z0 F800
G1 X33.284 Y36.265 Z0 F800
G0 Z3.5 F500
G0 X33.262 Y37.248 Z3.5 F555
G1 Z0 F500
G1 X32.436 Y37.186 Z0 F800
G1 X31.936 Y37.18 Z0 F800
G1 X31.426 Y37.205 Z0 F800
G1 X30.888 Y37.27 Z0 F800
G1 X30.311 Y37.394 Z0 F800
G1 X29.78 Y37.575 Z0 F800
G1 Y37.285 Z0 F800
G1 X30.26 Y37.205 Z0 F800
G1 X30.704 Y37.11 Z0 F800
G1 X31.333 Y36.961 Z0 F800
G1 X31.523 Y36.92 Z0 F800
G1 X31.765 Y36.764 Z0 F800
G1 X31.983 Y36.665 Z0 F800
G1 X32.126 Y36.532 Z0 F800
G1 X32.328 Y36.405 Z0 F800
G1 X32.436 Y36.262 Z0 F800
G1 X32.562 Y36.158 Z0 F800
G1 X32.684 Y35.953 Z0 F800
G1 X32.828 Y35.784 Z0 F800
G1 X32.861 Y35.7 Z0 F800
G1 X32.946 Y35.587 Z0 F800
G1 X33.017 Y35.342 Z0 F800
G1 X33.102 Y35.17 Z0 F800
G1 X33.12 Y35.043 Z0 F800
G1 X33.239 Z0 F800
G1 X34.158 Z0 F800
G1 X33.927 Y35.617 Z0 F800
G1 X33.782 Y36.327 Z0 F800
G1 X33.75 Y36.995 Z0 F800
G1 X33.775 Y37.316 Z0 F800
G1 X33.262 Y37.248 Z0 F800
G0 Z3.5 F500
G0 X30.167 Y36.713 Z3.5 
G1 Z0 F500
G1 X30.594 Y36.623 Z0 F800
G1 X31.215 Y36.475 Z0 F800
G1 X31.328 Y36.451 Z0 F800
G1 X31.526 Y36.323 Z0 F800
G1 X31.703 Y36.243 Z0 F800
G1 X31.818 Y36.136 Z0 F800
G1 X31.984 Y36.031 Z0 F800
G1 X32.073 Y35.913 Z0 F800
G1 X32.176 Y35.828 Z0 F800
G1 X32.276 Y35.66 Z0 F800
G1 X32.393 Y35.522 Z0 F800
G1 X32.42 Y35.453 Z0 F800
G1 X32.491 Y35.359 Z0 F800
G1 X32.548 Y35.162 Z0 F800
G1 X32.619 Y35.02 Z0 F800
G1 X32.686 Y34.544 Z0 F800
G1 X33.237 Z0 F800
G1 X35.066 Y34.539 Z0 F800
G1 X35.032 Y34.572 Z0 F800
G1 X34.656 Y35.141 Z0 F800
G1 X34.408 Y35.761 Z0 F800
G1 X34.279 Y36.389 Z0 F800
G1 X34.251 Y36.988 Z0 F800
G1 X34.295 Y37.562 Z0 F800
G1 X34.353 Y37.894 Z0 F800
G1 X34.339 Z0 F800
G1 X33.872 Y37.833 Z0 F800
G1 X33.21 Y37.745 Z0 F800
G1 X32.415 Y37.686 Z0 F800
G1 X31.945 Y37.68 Z0 F800
G1 X31.468 Y37.703 Z0 F800
G1 X30.971 Y37.764 Z0 F800
G1 X30.445 Y37.876 Z0 F800
G1 X29.88 Y38.069 Z0 F800
G1 X29.291 Y38.378 Z0 F800
G1 X29.28 Y38.387 Z0 F800
G1 Y36.834 Z0 F800
G1 X29.687 Y36.793 Z0 F800
G1 X30.167 Y36.713 Z0 F800
G0 Z3.5 F500
G0 X34.888 Y35.905 Z3.5 
G1 Z0 F500
G1 X34.777 Y36.451 Z0 F800
G1 X34.752 Y36.98 Z0 F800
G1 X34.792 Y37.5 Z0 F800
G1 X34.882 Y38.018 Z0 F800
G1 X34.954 Y38.301 Z0 F800
G1 X34.95 Y38.418 Z0 F800
G1 Y38.446 Z0 F800
G1 X34.682 Y38.429 Z0 F800
G1 X34.264 Y38.387 Z0 F800
G1 X33.813 Y38.33 Z0 F800
G1 X33.158 Y38.243 Z0 F800
G1 X32.393 Y38.185 Z0 F800
G1 X31.954 Y38.18 Z0 F800
G1 X31.511 Y38.202 Z0 F800
G1 X31.053 Y38.257 Z0 F800
G1 X30.578 Y38.359 Z0 F800
G1 X30.079 Y38.53 Z0 F800
G1 X29.566 Y38.799 Z0 F800
G1 X29.072 Y39.196 Z0 F800
G1 X28.78 Y39.573 Z0 F800
G1 Y36.353 Z0 F800
G1 X29.128 Y36.347 Z0 F800
G1 X29.621 Y36.298 Z0 F800
G1 X30.074 Y36.222 Z0 F800
G1 X30.484 Y36.135 Z0 F800
G1 X31.068 Y35.996 Z0 F800
G1 X31.134 Y35.981 Z0 F800
G1 X31.284 Y35.884 Z0 F800
G1 X31.422 Y35.821 Z0 F800
G1 X31.512 Y35.738 Z0 F800
G1 X31.64 Y35.657 Z0 F800
G1 X31.709 Y35.565 Z0 F800
G1 X31.791 Y35.498 Z0 F800
G1 X31.867 Y35.37 Z0 F800
G1 X31.958 Y35.262 Z0 F800
G1 X31.98 Y35.206 Z0 F800
G1 X32.037 Y35.132 Z0 F800
G1 X32.081 Y34.978 Z0 F800
G1 X32.135 Y34.869 Z0 F800
G1 X32.215 Y34.303 Z0 F800
G1 X32.209 Y34.046 Z0 F800
G1 X33.235 Y34.042 Z0 F800
G1 X36.648 Y34.035 Z0 F800
G1 X36.281 Y34.194 Z0 F800
G1 X35.828 Y34.488 Z0 F800
G1 X35.42 Y34.891 Z0 F800
G1 X35.102 Y35.374 Z0 F800
G1 X34.888 Y35.905 Z0 F800
G0 Z3.5 F500
G0 X33.748 Y38.826 Z3.5 
G1 Z0 F500
G1 X33.106 Y38.74 Z0 F800
G1 X32.371 Y38.685 Z0 F800
G1 X31.963 Y38.68 Z0 F800
G1 X31.553 Y38.7 Z0 F800
G1 X31.136 Y38.751 Z0 F800
G1 X30.712 Y38.842 Z0 F800
G1 X30.277 Y38.99 Z0 F800
G1 X29.842 Y39.219 Z0 F800
G1 X29.431 Y39.548 Z0 F800
G1 X29.087 Y39.992 Z0 F800
G1 X28.864 Y40.511 Z0 F800
G1 X28.77 Y41.065 Z0 F800
G1 X28.789 Y41.624 Z0 F800
G1 X28.868 Y42.022 Z0 F800
G1 Y43.743 Z0 F800
G1 X28.478 Y43.753 Z0 F800
G1 X27.875 Y43.749 Z0 F800
G1 X27.501 Y43.731 Z0 F800
G1 X27.179 Y43.697 Z0 F800
G1 X26.869 Y43.661 Z0 F800
G1 X27.098 Y43.625 Z0 F800
G1 X27.503 Y43.459 Z0 F800
G1 X27.872 Y43.167 Z0 F800
G1 X28.071 Y42.894 Z0 F800
G1 X28.191 Y42.629 Z0 F800
G1 X28.26 Y42.362 Z0 F800
G1 X28.28 Y42.13 Z0 F800
G1 Y35.824 Z0 F800
G1 X28.619 Y35.855 Z0 F800
G1 X29.1 Y35.847 Z0 F800
G1 X29.555 Y35.802 Z0 F800
G1 X29.981 Y35.731 Z0 F800
G1 X30.375 Y35.647 Z0 F800
G1 X30.884 Y35.526 Z0 F800
G1 X30.891 Y35.522 Z0 F800
G1 X30.939 Y35.512 Z0 F800
G1 X31.045 Y35.443 Z0 F800
G1 X31.142 Y35.399 Z0 F800
G1 X31.208 Y35.338 Z0 F800
G1 X31.296 Y35.282 Z0 F800
G1 X31.346 Y35.217 Z0 F800
G1 X31.405 Y35.168 Z0 F800
G1 X31.46 Y35.075 Z0 F800
G1 X31.523 Y35.001 Z0 F800
G1 X31.54 Y34.959 Z0 F800
G1 X31.582 Y34.904 Z0 F800
G1 X31.612 Y34.796 Z0 F800
G1 X31.651 Y34.718 Z0 F800
G1 X31.714 Y34.273 Z0 F800
G1 X31.707 Y33.927 Z0 F800
G1 X31.639 Y33.582 Z0 F800
G1 X31.625 Y33.548 Z0 F800
G1 X33.233 Y33.542 Z0 F800
G1 X39.179 Y33.53 Z0 F800
G1 X39.346 Z0 F800
G1 X39.319 Y33.631 Z0 F800
G1 X39.26 Y33.938 Z0 F800
G1 X39.202 Y34.363 Z0 F800
G1 X39.132 Y34.372 Z0 F800
G1 X38.438 Y34.164 Z0 F800
G1 X38.39 Y34.31 Z0 F800
G1 X37.71 Z0 F800
G1 X37.301 Y34.365 Z0 F800
G1 X36.906 Y34.469 Z0 F800
G1 X36.518 Y34.636 Z0 F800
G1 X36.144 Y34.88 Z0 F800
G1 X35.809 Y35.21 Z0 F800
G1 X35.546 Y35.607 Z0 F800
G1 X35.369 Y36.049 Z0 F800
G1 X35.275 Y36.513 Z0 F800
G1 X35.253 Y36.973 Z0 F800
G1 X35.289 Y37.438 Z0 F800
G1 X35.372 Y37.914 Z0 F800
G1 X35.456 Y38.247 Z0 F800
G1 X35.45 Y38.455 Z0 F800
G1 X35.434 Y38.723 Z0 F800
G1 X35.412 Y38.923 Z0 F800
G1 X35.408 Y38.948 Z0 F800
G1 X35.242 Y38.955 Z0 F800
G1 X34.973 Y38.949 Z0 F800
G1 X34.642 Y38.927 Z0 F800
G1 X34.214 Y38.884 Z0 F800
G1 X33.748 Y38.826 Z0 F800
G0 Z3.5 F500
G0 X32.35 Y39.185 Z3.5 
G1 Z0 F500
G1 X31.973 Y39.181 Z0 F800
G1 X31.595 Y39.199 Z0 F800
G1 X31.219 Y39.245 Z0 F800
G1 X30.845 Y39.324 Z0 F800
G1 X30.475 Y39.451 Z0 F800
G1 X30.117 Y39.639 Z0 F800
G1 X29.791 Y39.901 Z0 F800
G1 X29.521 Y40.248 Z0 F800
G1 X29.347 Y40.654 Z0 F800
G1 X29.271 Y41.099 Z0 F800
G1 X29.287 Y41.566 Z0 F800
G1 X29.368 Y41.976 Z0 F800
G1 Y44.225 Z0 F800
G1 X29.318 Y44.228 Z0 F800
G1 X29.065 Y44.238 Z0 F800
G1 X28.471 Y44.253 Z0 F800
G1 X27.861 Y44.249 Z0 F800
G1 X27.465 Y44.23 Z0 F800
G1 X27.118 Y44.193 Z0 F800
G1 X26.542 Y44.126 Z0 F800
G1 X26 Y44.053 Z0 F800
G1 X25.813 Y44.006 Z0 F800
G1 X25.669 Y43.95 Z0 F800
G1 X25.578 Y43.892 Z0 F800
G1 X25.516 Y43.828 Z0 F800
G1 X25.493 Y43.789 Z0 F800
G1 X25.463 Y43.708 Z0 F800
G1 X25.441 Y43.608 Z0 F800
G1 X25.433 Y43.5 Z0 F800
G1 X25.441 Y43.392 Z0 F800
G1 X25.461 Y43.293 Z0 F800
G1 X25.485 Y43.23 Z0 F800
G1 X25.528 Y43.222 Z0 F800
G1 X25.785 Y43.208 Z0 F800
G1 X26.129 Y43.211 Z0 F800
G1 X26.527 Y43.208 Z0 F800
G1 X26.963 Y43.14 Z0 F800
G1 X27.249 Y43.023 Z0 F800
G1 X27.507 Y42.818 Z0 F800
G1 X27.637 Y42.64 Z0 F800
G1 X27.718 Y42.461 Z0 F800
G1 X27.766 Y42.278 Z0 F800
G1 X27.78 Y42.109 Z0 F800
G1 Y35.22 Z0 F800
G1 X28.192 Y35.314 Z0 F800
G1 X28.638 Y35.355 Z0 F800
G1 X29.07 Y35.348 Z0 F800
G1 X29.488 Y35.306 Z0 F800
G1 X29.888 Y35.239 Z0 F800
G1 X30.265 Y35.159 Z0 F800
G1 X30.7 Y35.056 Z0 F800
G1 X30.711 Y35.049 Z0 F800
G1 X30.745 Y35.042 Z0 F800
G1 X30.804 Y35.003 Z0 F800
G1 X30.861 Y34.978 Z0 F800
G1 X30.9 Y34.941 Z0 F800
G1 X30.953 Y34.908 Z0 F800
G1 X30.982 Y34.869 Z0 F800
G1 X31.02 Y34.838 Z0 F800
G1 X31.051 Y34.785 Z0 F800
G1 X31.089 Y34.74 Z0 F800
G1 X31.101 Y34.711 Z0 F800
G1 X31.126 Y34.677 Z0 F800
G1 X31.145 Y34.613 Z0 F800
G1 X31.167 Y34.567 Z0 F800
G1 X31.214 Y34.243 Z0 F800
G1 X31.208 Y33.981 Z0 F800
G1 X31.157 Y33.725 Z0 F800
G1 X31.061 Y33.483 Z0 F800
G1 X30.926 Y33.27 Z0 F800
G1 X30.764 Y33.09 Z0 F800
G1 X30.716 Y33.051 Z0 F800
G1 X33.232 Y33.042 Z0 F800
G1 X39.179 Y33.03 Z0 F800
G1 X40.067 Z0 F800
G1 X39.995 Y33.163 Z0 F800
G1 X39.883 Y33.455 Z0 F800
G1 X39.807 Y33.743 Z0 F800
G1 X39.753 Y34.019 Z0 F800
G1 X39.688 Y34.493 Z0 F800
G1 X39.62 Y34.881 Z0 F800
G1 X39.588 Y34.988 Z0 F800
G1 X39.578 Y35.01 Z0 F800
G1 X39.472 Y34.995 Z0 F800
G1 X39.301 Y34.944 Z0 F800
G1 X39.234 Y34.895 Z0 F800
G1 X39.228 Z0 F800
G1 X39.222 Y34.891 Z0 F800
G1 X39.181 Z0 F800
G1 X39.147 Y34.873 Z0 F800
G1 X39.087 Y34.88 Z0 F800
G1 X38.761 Y34.783 Z0 F800
G1 X38.739 Y34.849 Z0 F800
G1 X38.416 Y34.81 Z0 F800
G1 X37.744 Z0 F800
G1 X37.398 Y34.856 Z0 F800
G1 X37.07 Y34.942 Z0 F800
G1 X36.755 Y35.078 Z0 F800
G1 X36.458 Y35.271 Z0 F800
G1 X36.197 Y35.529 Z0 F800
G1 X35.992 Y35.84 Z0 F800
G1 X35.85 Y36.194 Z0 F800
G1 X35.772 Y36.575 Z0 F800
G1 X35.754 Y36.965 Z0 F800
G1 X35.786 Y37.375 Z0 F800
G1 X35.861 Y37.809 Z0 F800
G1 X35.958 Y38.191 Z0 F800
G1 X35.949 Y38.479 Z0 F800
G1 X35.932 Y38.765 Z0 F800
G1 X35.907 Y39.001 Z0 F800
G1 X35.873 Y39.184 Z0 F800
G1 X35.838 Y39.299 Z0 F800
G1 X35.813 Y39.353 Z0 F800
G1 X35.801 Y39.368 Z0 F800
G1 X35.79 Y39.377 Z0 F800
G1 X35.75 Y39.396 Z0 F800
G1 X35.65 Y39.423 Z0 F800
G1 X35.479 Y39.446 Z0 F800
G1 X35.251 Y39.455 Z0 F800
G1 X34.95 Y39.449 Z0 F800
G1 X34.589 Y39.424 Z0 F800
G1 X34.162 Y39.381 Z0 F800
G1 X33.678 Y39.321 Z0 F800
G1 X33.055 Y39.238 Z0 F800
G1 X32.35 Y39.185 Z0 F800
G0 Z3.5 F500
G0 X31.301 Y39.738 Z3.5 
G1 Z0 F500
G1 X30.979 Y39.807 Z0 F800
G1 X30.673 Y39.912 Z0 F800
G1 X30.393 Y40.059 Z0 F800
G1 X30.149 Y40.254 Z0 F800
G1 X29.956 Y40.504 Z0 F800
G1 X29.83 Y40.796 Z0 F800
G1 X29.773 Y41.132 Z0 F800
G1 X29.786 Y41.509 Z0 F800
G1 X29.868 Y41.926 Z0 F800
G1 Y44.698 Z0 F800
G1 X29.34 Y44.727 Z0 F800
G1 X29.078 Y44.738 Z0 F800
G1 X28.48 Y44.753 Z0 F800
G1 X27.846 Y44.749 Z0 F800
G1 X27.429 Y44.729 Z0 F800
G1 X27.065 Y44.69 Z0 F800
G1 X26.475 Y44.622 Z0 F800
G1 X25.909 Y44.545 Z0 F800
G1 X25.659 Y44.483 Z0 F800
G1 X25.441 Y44.397 Z0 F800
G1 X25.26 Y44.283 Z0 F800
G1 X25.116 Y44.133 Z0 F800
G1 X25.04 Y44.003 Z0 F800
G1 X24.982 Y43.85 Z0 F800
G1 X24.945 Y43.679 Z0 F800
G1 X24.932 Y43.5 Z0 F800
G1 X24.945 Y43.322 Z0 F800
G1 X24.98 Y43.152 Z0 F800
G1 X25.038 Y42.999 Z0 F800
G1 X25.114 Y42.87 Z0 F800
G1 X25.163 Y42.823 Z0 F800
G1 X25.236 Y42.783 Z0 F800
G1 X25.336 Y42.75 Z0 F800
G1 X25.463 Y42.725 Z0 F800
G1 X25.777 Y42.708 Z0 F800
G1 X26.129 Y42.711 Z0 F800
G1 X26.486 Y42.708 Z0 F800
G1 X26.829 Y42.655 Z0 F800
G1 X26.994 Y42.587 Z0 F800
G1 X27.143 Y42.469 Z0 F800
G1 X27.203 Y42.387 Z0 F800
G1 X27.245 Y42.294 Z0 F800
G1 X27.271 Y42.194 Z0 F800
G1 X27.28 Y42.088 Z0 F800
G1 Y34.114 Z0 F800
G1 X27.328 Y34.31 Z0 F800
G1 X27.43 Y34.506 Z0 F800
G1 X27.436 Y34.512 Z0 F800
G1 X27.44 Y34.519 Z0 F800
G1 X27.446 Y34.524 Z0 F800
G1 X27.451 Y34.531 Z0 F800
G1 X27.458 Y34.536 Z0 F800
G1 X27.462 Y34.542 Z0 F800
G1 X27.469 Y34.545 Z0 F800
G1 X27.474 Y34.553 Z0 F800
G1 X27.487 Y34.563 Z0 F800
G1 X27.495 Y34.567 Z0 F800
G1 X27.501 Y34.572 Z0 F800
G1 X27.508 Y34.575 Z0 F800
G1 X27.515 Y34.58 Z0 F800
G1 X27.891 Y34.732 Z0 F800
G1 X28.271 Y34.819 Z0 F800
G1 X28.656 Y34.854 Z0 F800
G1 X29.042 Y34.848 Z0 F800
G1 X29.422 Y34.81 Z0 F800
G1 X29.794 Y34.748 Z0 F800
G1 X30.155 Y34.671 Z0 F800
G1 X30.516 Y34.585 Z0 F800
G1 X30.532 Y34.577 Z0 F800
G1 X30.55 Y34.573 Z0 F800
G1 X30.565 Y34.563 Z0 F800
G1 X30.581 Y34.556 Z0 F800
G1 X30.594 Y34.543 Z0 F800
G1 X30.609 Y34.534 Z0 F800
G1 X30.62 Y34.52 Z0 F800
G1 X30.634 Y34.508 Z0 F800
G1 X30.643 Y34.493 Z0 F800
G1 X30.654 Y34.479 Z0 F800
G1 X30.661 Y34.463 Z0 F800
G1 X30.671 Y34.449 Z0 F800
G1 X30.676 Y34.432 Z0 F800
G1 X30.684 Y34.417 Z0 F800
G1 X30.713 Y34.213 Z0 F800
G1 X30.709 Y34.035 Z0 F800
G1 X30.676 Y33.867 Z0 F800
G1 X30.614 Y33.711 Z0 F800
G1 X30.526 Y33.573 Z0 F800
G1 X30.418 Y33.454 Z0 F800
G1 X30.293 Y33.352 Z0 F800
G1 X30.157 Y33.266 Z0 F800
G1 X29.858 Y33.138 Z0 F800
G1 X29.532 Y33.059 Z0 F800
G1 X29.191 Y33.024 Z0 F800
G1 X28.844 Y33.028 Z0 F800
G1 X28.504 Y33.067 Z0 F800
G1 X28.18 Y33.141 Z0 F800
G1 X27.883 Y33.253 Z0 F800
G1 X27.624 Y33.407 Z0 F800
G1 X27.511 Y33.502 Z0 F800
G1 X27.413 Y33.613 Z0 F800
G1 X27.336 Y33.739 Z0 F800
G1 X27.286 Y33.881 Z0 F800
G1 X27.28 Y33.94 Z0 F800
G1 Y32.563 Z0 F800
G1 X33.23 Y32.542 Z0 F800
G1 X39.179 Y32.53 Z0 F800
G1 X45.127 Y32.543 Z0 F800
G1 X51.075 Y32.602 Z0 F800
G1 X51.261 Y32.781 Z0 F800
G1 X51.404 Y32.974 Z0 F800
G1 X51.508 Y33.182 Z0 F800
G1 X51.579 Y33.409 Z0 F800
G1 X51.586 Y33.479 Z0 F800
G1 X51.589 Y33.602 Z0 F800
G1 Y33.771 Z0 F800
G1 X51.584 Y33.978 Z0 F800
G1 X51.569 Y34.477 Z0 F800
G1 X51.547 Y35.039 Z0 F800
G1 X51.481 Y36.493 Z0 F800
G1 X51.474 Y36.699 Z0 F800
G1 X51.465 Y36.622 Z0 F800
G1 X51.458 Y36.492 Z0 F800
G1 X51.454 Y36.317 Z0 F800
G1 X51.438 Y35.038 Z0 F800
G1 X51.425 Y34.479 Z0 F800
G1 X51.401 Y33.982 Z0 F800
G1 X51.384 Y33.777 Z0 F800
G1 X51.362 Y33.611 Z0 F800
G1 X51.335 Y33.491 Z0 F800
G1 X51.303 Y33.424 Z0 F800
G1 X51.115 Y33.264 Z0 F800
G1 X50.888 Y33.139 Z0 F800
G1 X50.622 Y33.049 Z0 F800
G1 X50.328 Y32.998 Z0 F800
G1 X50.313 Z0 F800
G1 X50.308 Y32.995 Z0 F800
G1 X50.303 Z0 F800
G1 X50.299 Z0 F800
G1 X50.295 Z0 F800
G1 X50.291 Z0 F800
G1 X50.284 Z0 F800
G1 X49.144 Y33.025 Z0 F800
G1 X47.965 Y33.041 Z0 F800
G1 X46.76 Y33.046 Z0 F800
G1 X45.541 Z0 F800
G1 X43.112 Y33.035 Z0 F800
G1 X40.78 Y33.04 Z0 F800
G1 X40.764 Z0 F800
G1 X40.749 Z0 F800
G1 X40.732 Z0 F800
G1 X40.717 Y33.047 Z0 F800
G1 X40.702 Y33.05 Z0 F800
G1 X40.688 Y33.057 Z0 F800
G1 X40.673 Y33.062 Z0 F800
G1 X40.661 Y33.071 Z0 F800
G1 X40.646 Y33.077 Z0 F800
G1 X40.635 Y33.086 Z0 F800
G1 X40.621 Y33.094 Z0 F800
G1 X40.598 Y33.116 Z0 F800
G1 X40.59 Y33.129 Z0 F800
G1 X40.579 Y33.14 Z0 F800
G1 X40.45 Y33.374 Z0 F800
G1 X40.359 Y33.609 Z0 F800
G1 X40.294 Y33.854 Z0 F800
G1 X40.247 Y34.101 Z0 F800
G1 X40.181 Y34.579 Z0 F800
G1 X40.108 Y34.997 Z0 F800
G1 X40.056 Y35.166 Z0 F800
G1 X39.995 Y35.299 Z0 F800
G1 X39.924 Y35.398 Z0 F800
G1 X39.842 Y35.463 Z0 F800
G1 X39.734 Y35.503 Z0 F800
G1 X39.579 Y35.515 Z0 F800
G1 X39.366 Y35.485 Z0 F800
G1 X39.084 Y35.401 Z0 F800
G1 X39.117 Y35.413 Z0 F800
G1 X39.077 Y35.399 Z0 F800
G1 X39.071 Y35.395 Z0 F800
G1 X39.065 Z0 F800
G1 X39.06 Y35.391 Z0 F800
G1 X39.053 Z0 F800
G1 X39.048 Y35.388 Z0 F800
G1 X39.04 Z0 F800
G1 X38.385 Y35.31 Z0 F800
G1 X37.777 Z0 F800
G1 X37.496 Y35.347 Z0 F800
G1 X37.233 Y35.417 Z0 F800
G1 X36.992 Y35.521 Z0 F800
G1 X36.774 Y35.663 Z0 F800
G1 X36.586 Y35.848 Z0 F800
G1 X36.437 Y36.074 Z0 F800
G1 X36.331 Y36.338 Z0 F800
G1 X36.27 Y36.637 Z0 F800
G1 X36.255 Y36.958 Z0 F800
G1 X36.282 Y37.313 Z0 F800
G1 X36.351 Y37.705 Z0 F800
G1 X36.459 Y38.137 Z0 F800
G1 X36.449 Y38.494 Z0 F800
G1 X36.43 Y38.807 Z0 F800
G1 X36.401 Y39.076 Z0 F800
G1 X36.36 Y39.299 Z0 F800
G1 X36.306 Y39.479 Z0 F800
G1 X36.241 Y39.617 Z0 F800
G1 X36.159 Y39.722 Z0 F800
G1 X36.057 Y39.803 Z0 F800
G1 X35.925 Y39.867 Z0 F800
G1 X35.749 Y39.914 Z0 F800
G1 X35.525 Y39.944 Z0 F800
G1 X35.252 Y39.956 Z0 F800
G1 X34.927 Y39.948 Z0 F800
G1 X34.548 Y39.923 Z0 F800
G1 X34.111 Y39.879 Z0 F800
G1 X33.616 Y39.817 Z0 F800
G1 X33.003 Y39.735 Z0 F800
G1 X32.328 Y39.685 Z0 F800
G1 X31.982 Y39.681 Z0 F800
G1 X31.638 Y39.697 Z0 F800
G1 X31.301 Y39.738 Z0 F800
;Layer C1 Pass 2 of 2
G0 Z3.5 F500
G0 X33.284 Y36.265 Z3.5 
G1 Z0 F500
G1 X33.262 Y36.747 Z0 F800
G1 X32.727 Y36.706 Z0 F800
G1 X32.799 Y36.611 Z0 F800
G1 X32.948 Y36.488 Z0 F800
G1 X33.093 Y36.243 Z0 F800
G1 X33.262 Y36.044 Z0 F800
G1 X33.3 Y35.948 Z0 F800
G1 X33.367 Y35.86 Z0 F800
G1 X33.284 Y36.265 Z0 F800
G0 Z3.5 F500
G0 X33.262 Y37.248 Z3.5 
G1 Z0 F500
G1 X32.436 Y37.186 Z0 F800
G1 X31.936 Y37.18 Z0 F800
G1 X31.426 Y37.205 Z0 F800
G1 X30.888 Y37.27 Z0 F800
G1 X30.311 Y37.394 Z0 F800
G1 X29.78 Y37.575 Z0 F800
G1 Y37.285 Z0 F800
G1 X30.26 Y37.205 Z0 F800
G1 X30.704 Y37.11 Z0 F800
G1 X31.333 Y36.961 Z0 F800
G1 X31.523 Y36.92 Z0 F800
G1 X31.765 Y36.764 Z0 F800
G1 X31.983 Y36.665 Z0 F800
G1 X32.126 Y36.532 Z0 F800
G1 X32.328 Y36.405 Z0 F800
G1 X32.436 Y36.262 Z0 F800
G1 X32.562 Y36.158 Z0 F800
G1 X32.684 Y35.953 Z0 F800
G1 X32.828 Y35.784 Z0 F800
G1 X32.861 Y35.7 Z0 F800
G1 X32.946 Y35.587 Z0 F800
G1 X33.017 Y35.342 Z0 F800
G1 X33.102 Y35.17 Z0 F800
G1 X33.12 Y35.043 Z0 F800
G1 X33.239 Z0 F800
G1 X34.158 Z0 F800
G1 X33.927 Y35.617 Z0 F800
G1 X33.782 Y36.327 Z0 F800
G1 X33.75 Y36.995 Z0 F800
G1 X33.775 Y37.316 Z0 F800
G1 X33.262 Y37.248 Z0 F800
G0 Z3.5 F500
G0 X30.167 Y36.713 Z3.5 
G1 Z0 F500
G1 X30.594 Y36.623 Z0 F800
G1 X31.215 Y36.475 Z0 F800
G1 X31.328 Y36.451 Z0 F800
G1 X31.526 Y36.323 Z0 F800
G1 X31.703 Y36.243 Z0 F800
G1 X31.818 Y36.136 Z0 F800
G1 X31.984 Y36.031 Z0 F800
G1 X32.073 Y35.913 Z0 F800
G1 X32.176 Y35.828 Z0 F800
G1 X32.276 Y35.66 Z0 F800
G1 X32.393 Y35.522 Z0 F800
G1 X32.42 Y35.453 Z0 F800
G1 X32.491 Y35.359 Z0 F800
G1 X32.548 Y35.162 Z0 F800
G1 X32.619 Y35.02 Z0 F800
G1 X32.686 Y34.544 Z0 F800
G1 X33.237 Z0 F800
G1 X35.066 Y34.539 Z0 F800
G1 X35.032 Y34.572 Z0 F800
G1 X34.656 Y35.141 Z0 F800
G1 X34.408 Y35.761 Z0 F800
G1 X34.279 Y36.389 Z0 F800
G1 X34.251 Y36.988 Z0 F800
G1 X34.295 Y37.562 Z0 F800
G1 X34.353 Y37.894 Z0 F800
G1 X34.339 Z0 F800
G1 X33.872 Y37.833 Z0 F800
G1 X33.21 Y37.745 Z0 F800
G1 X32.415 Y37.686 Z0 F800
G1 X31.945 Y37.68 Z0 F800
G1 X31.468 Y37.703 Z0 F800
G1 X30.971 Y37.764 Z0 F800
G1 X30.445 Y37.876 Z0 F800
G1 X29.88 Y38.069 Z0 F800
G1 X29.291 Y38.378 Z0 F800
G1 X29.28 Y38.387 Z0 F800
G1 Y36.834 Z0 F800
G1 X29.687 Y36.793 Z0 F800
G1 X30.167 Y36.713 Z0 F800
G0 Z3.5 F500
G0 X34.888 Y35.905 Z3.5 
G1 Z0 F500
G1 X34.777 Y36.451 Z0 F800
G1 X34.752 Y36.98 Z0 F800
G1 X34.792 Y37.5 Z0 F800
G1 X34.882 Y38.018 Z0 F800
G1 X34.954 Y38.301 Z0 F800
G1 X34.95 Y38.418 Z0 F800
G1 Y38.446 Z0 F800
G1 X34.682 Y38.429 Z0 F800
G1 X34.264 Y38.387 Z0 F800
G1 X33.813 Y38.33 Z0 F800
G1 X33.158 Y38.243 Z0 F800
G1 X32.393 Y38.185 Z0 F800
G1 X31.954 Y38.18 Z0 F800
G1 X31.511 Y38.202 Z0 F800
G1 X31.053 Y38.257 Z0 F800
G1 X30.578 Y38.359 Z0 F800
G1 X30.079 Y38.53 Z0 F800
G1 X29.566 Y38.799 Z0 F800
G1 X29.072 Y39.196 Z0 F800
G1 X28.78 Y39.573 Z0 F800
G1 Y36.353 Z0 F800
G1 X29.128 Y36.347 Z0 F800
G1 X29.621 Y36.298 Z0 F800
G1 X30.074 Y36.222 Z0 F800
G1 X30.484 Y36.135 Z0 F800
G1 X31.068 Y35.996 Z0 F800
G1 X31.134 Y35.981 Z0 F800
G1 X31.284 Y35.884 Z0 F800
G1 X31.422 Y35.821 Z0 F800
G1 X31.512 Y35.738 Z0 F800
G1 X31.64 Y35.657 Z0 F800
G1 X31.709 Y35.565 Z0 F800
G1 X31.791 Y35.498 Z0 F800
G1 X31.867 Y35.37 Z0 F800
G1 X31.958 Y35.262 Z0 F800
G1 X31.98 Y35.206 Z0 F800
G1 X32.037 Y35.132 Z0 F800
G1 X32.081 Y34.978 Z0 F800
G1 X32.135 Y34.869 Z0 F800
G1 X32.215 Y34.303 Z0 F800
G1 X32.209 Y34.046 Z0 F800
G1 X33.235 Y34.042 Z0 F800
G1 X36.648 Y34.035 Z0 F800
G1 X36.281 Y34.194 Z0 F800
G1 X35.828 Y34.488 Z0 F800
G1 X35.42 Y34.891 Z0 F800
G1 X35.102 Y35.374 Z0 F800
G1 X34.888 Y35.905 Z0 F800
G0 Z3.5 F500
G0 X33.748 Y38.826 Z3.5 
G1 Z0 F500
G1 X33.106 Y38.74 Z0 F800
G1 X32.371 Y38.685 Z0 F800
G1 X31.963 Y38.68 Z0 F800
G1 X31.553 Y38.7 Z0 F800
G1 X31.136 Y38.751 Z0 F800
G1 X30.712 Y38.842 Z0 F800
G1 X30.277 Y38.99 Z0 F800
G1 X29.842 Y39.219 Z0 F800
G1 X29.431 Y39.548 Z0 F800
G1 X29.087 Y39.992 Z0 F800
G1 X28.864 Y40.511 Z0 F800
G1 X28.77 Y41.065 Z0 F800
G1 X28.789 Y41.624 Z0 F800
G1 X28.868 Y42.022 Z0 F800
G1 Y43.743 Z0 F800
G1 X28.478 Y43.753 Z0 F800
G1 X27.875 Y43.749 Z0 F800
G1 X27.501 Y43.731 Z0 F800
G1 X27.179 Y43.697 Z0 F800
G1 X26.869 Y43.661 Z0 F800
G1 X27.098 Y43.625 Z0 F800
G1 X27.503 Y43.459 Z0 F800
G1 X27.872 Y43.167 Z0 F800
G1 X28.071 Y42.894 Z0 F800
G1 X28.191 Y42.629 Z0 F800
G1 X28.26 Y42.362 Z0 F800
G1 X28.28 Y42.13 Z0 F800
G1 Y35.824 Z0 F800
G1 X28.619 Y35.855 Z0 F800
G1 X29.1 Y35.847 Z0 F800
G1 X29.555 Y35.802 Z0 F800
G1 X29.981 Y35.731 Z0 F800
G1 X30.375 Y35.647 Z0 F800
G1 X30.884 Y35.526 Z0 F800
G1 X30.891 Y35.522 Z0 F800
G1 X30.939 Y35.512 Z0 F800
G1 X31.045 Y35.443 Z0 F800
G1 X31.142 Y35.399 Z0 F800
G1 X31.208 Y35.338 Z0 F800
G1 X31.296 Y35.282 Z0 F800
G1 X31.346 Y35.217 Z0 F800
G1 X31.405 Y35.168 Z0 F800
G1 X31.46 Y35.075 Z0 F800
G1 X31.523 Y35.001 Z0 F800
G1 X31.54 Y34.959 Z0 F800
G1 X31.582 Y34.904 Z0 F800
G1 X31.612 Y34.796 Z0 F800
G1 X31.651 Y34.718 Z0 F800
G1 X31.714 Y34.273 Z0 F800
G1 X31.707 Y33.927 Z0 F800
G1 X31.639 Y33.582 Z0 F800
G1 X31.625 Y33.548 Z0 F800
G1 X33.233 Y33.542 Z0 F800
G1 X39.179 Y33.53 Z0 F800
G1 X39.346 Z0 F800
G1 X39.319 Y33.631 Z0 F800
G1 X39.26 Y33.938 Z0 F800
G1 X39.202 Y34.363 Z0 F800
G1 X39.132 Y34.372 Z0 F800
G1 X38.438 Y34.164 Z0 F800
G1 X38.39 Y34.31 Z0 F800
G1 X37.71 Z0 F800
G1 X37.301 Y34.365 Z0 F800
G1 X36.906 Y34.469 Z0 F800
G1 X36.518 Y34.636 Z0 F800
G1 X36.144 Y34.88 Z0 F800
G1 X35.809 Y35.21 Z0 F800
G1 X35.546 Y35.607 Z0 F800
G1 X35.369 Y36.049 Z0 F800
G1 X35.275 Y36.513 Z0 F800
G1 X35.253 Y36.973 Z0 F800
G1 X35.289 Y37.438 Z0 F800
G1 X35.372 Y37.914 Z0 F800
G1 X35.456 Y38.247 Z0 F800
G1 X35.45 Y38.455 Z0 F800
G1 X35.434 Y38.723 Z0 F800
G1 X35.412 Y38.923 Z0 F800
G1 X35.408 Y38.948 Z0 F800
G1 X35.242 Y38.955 Z0 F800
G1 X34.973 Y38.949 Z0 F800
G1 X34.642 Y38.927 Z0 F800
G1 X34.214 Y38.884 Z0 F800
G1 X33.748 Y38.826 Z0 F800
G0 Z3.5 F500
G0 X32.35 Y39.185 Z3.5 
G1 Z0 F500
G1 X31.973 Y39.181 Z0 F800
G1 X31.595 Y39.199 Z0 F800
G1 X31.219 Y39.245 Z0 F800
G1 X30.845 Y39.324 Z0 F800
G1 X30.475 Y39.451 Z0 F800
G1 X30.117 Y39.639 Z0 F800
G1 X29.791 Y39.901 Z0 F800
G1 X29.521 Y40.248 Z0 F800
G1 X29.347 Y40.654 Z0 F800
G1 X29.271 Y41.099 Z0 F800
G1 X29.287 Y41.566 Z0 F800
G1 X29.368 Y41.976 Z0 F800
G1 Y44.225 Z0 F800
G1 X29.318 Y44.228 Z0 F800
G1 X29.065 Y44.238 Z0 F800
G1 X28.471 Y44.253 Z0 F800
G1 X27.861 Y44.249 Z0 F800
G1 X27.465 Y44.23 Z0 F800
G1 X27.118 Y44.193 Z0 F800
G1 X26.542 Y44.126 Z0 F800
G1 X26 Y44.053 Z0 F800
G1 X25.813 Y44.006 Z0 F800
G1 X25.669 Y43.95 Z0 F800
G1 X25.578 Y43.892 Z0 F800
G1 X25.516 Y43.828 Z0 F800
G1 X25.493 Y43.789 Z0 F800
G1 X25.463 Y43.708 Z0 F800
G1 X25.441 Y43.608 Z0 F800
G1 X25.433 Y43.5 Z0 F800
G1 X25.441 Y43.392 Z0 F800
G1 X25.461 Y43.293 Z0 F800
G1 X25.485 Y43.23 Z0 F800
G1 X25.528 Y43.222 Z0 F800
G1 X25.785 Y43.208 Z0 F800
G1 X26.129 Y43.211 Z0 F800
G1 X26.527 Y43.208 Z0 F800
G1 X26.963 Y43.14 Z0 F800
G1 X27.249 Y43.023 Z0 F800
G1 X27.507 Y42.818 Z0 F800
G1 X27.637 Y42.64 Z0 F800
G1 X27.718 Y42.461 Z0 F800
G1 X27.766 Y42.278 Z0 F800
G1 X27.78 Y42.109 Z0 F800
G1 Y35.22 Z0 F800
G1 X28.192 Y35.314 Z0 F800
G1 X28.638 Y35.355 Z0 F800
G1 X29.07 Y35.348 Z0 F800
G1 X29.488 Y35.306 Z0 F800
G1 X29.888 Y35.239 Z0 F800
G1 X30.265 Y35.159 Z0 F800
G1 X30.7 Y35.056 Z0 F800
G1 X30.711 Y35.049 Z0 F800
G1 X30.745 Y35.042 Z0 F800
G1 X30.804 Y35.003 Z0 F800
G1 X30.861 Y34.978 Z0 F800
G1 X30.9 Y34.941 Z0 F800
G1 X30.953 Y34.908 Z0 F800
G1 X30.982 Y34.869 Z0 F800
G1 X31.02 Y34.838 Z0 F800
G1 X31.051 Y34.785 Z0 F800
G1 X31.089 Y34.74 Z0 F800
G1 X31.101 Y34.711 Z0 F800
G1 X31.126 Y34.677 Z0 F800
G1 X31.145 Y34.613 Z0 F800
G1 X31.167 Y34.567 Z0 F800
G1 X31.214 Y34.243 Z0 F800
G1 X31.208 Y33.981 Z0 F800
G1 X31.157 Y33.725 Z0 F800
G1 X31.061 Y33.483 Z0 F800
G1 X30.926 Y33.27 Z0 F800
G1 X30.764 Y33.09 Z0 F800
G1 X30.716 Y33.051 Z0 F800
G1 X33.232 Y33.042 Z0 F800
G1 X39.179 Y33.03 Z0 F800
G1 X40.067 Z0 F800
G1 X39.995 Y33.163 Z0 F800
G1 X39.883 Y33.455 Z0 F800
G1 X39.807 Y33.743 Z0 F800
G1 X39.753 Y34.019 Z0 F800
G1 X39.688 Y34.493 Z0 F800
G1 X39.62 Y34.881 Z0 F800
G1 X39.588 Y34.988 Z0 F800
G1 X39.578 Y35.01 Z0 F800
G1 X39.472 Y34.995 Z0 F800
G1 X39.301 Y34.944 Z0 F800
G1 X39.234 Y34.895 Z0 F800
G1 X39.228 Z0 F800
G1 X39.222 Y34.891 Z0 F800
G1 X39.181 Z0 F800
G1 X39.147 Y34.873 Z0 F800
G1 X39.087 Y34.88 Z0 F800
G1 X38.761 Y34.783 Z0 F800
G1 X38.739 Y34.849 Z0 F800
G1 X38.416 Y34.81 Z0 F800
G1 X37.744 Z0 F800
G1 X37.398 Y34.856 Z0 F800
G1 X37.07 Y34.942 Z0 F800
G1 X36.755 Y35.078 Z0 F800
G1 X36.458 Y35.271 Z0 F800
G1 X36.197 Y35.529 Z0 F800
G1 X35.992 Y35.84 Z0 F800
G1 X35.85 Y36.194 Z0 F800
G1 X35.772 Y36.575 Z0 F800
G1 X35.754 Y36.965 Z0 F800
G1 X35.786 Y37.375 Z0 F800
G1 X35.861 Y37.809 Z0 F800
G1 X35.958 Y38.191 Z0 F800
G1 X35.949 Y38.479 Z0 F800
G1 X35.932 Y38.765 Z0 F800
G1 X35.907 Y39.001 Z0 F800
G1 X35.873 Y39.184 Z0 F800
G1 X35.838 Y39.299 Z0 F800
G1 X35.813 Y39.353 Z0 F800
G1 X35.801 Y39.368 Z0 F800
G1 X35.79 Y39.377 Z0 F800
G1 X35.75 Y39.396 Z0 F800
G1 X35.65 Y39.423 Z0 F800
G1 X35.479 Y39.446 Z0 F800
G1 X35.251 Y39.455 Z0 F800
G1 X34.95 Y39.449 Z0 F800
G1 X34.589 Y39.424 Z0 F800
G1 X34.162 Y39.381 Z0 F800
G1 X33.678 Y39.321 Z0 F800
G1 X33.055 Y39.238 Z0 F800
G1 X32.35 Y39.185 Z0 F800
G0 Z3.5 F500
G0 X31.301 Y39.738 Z3.5 
G1 Z0 F500
G1 X30.979 Y39.807 Z0 F800
G1 X30.673 Y39.912 Z0 F800
G1 X30.393 Y40.059 Z0 F800
G1 X30.149 Y40.254 Z0 F800
G1 X29.956 Y40.504 Z0 F800
G1 X29.83 Y40.796 Z0 F800
G1 X29.773 Y41.132 Z0 F800
G1 X29.786 Y41.509 Z0 F800
G1 X29.868 Y41.926 Z0 F800
G1 Y44.698 Z0 F800
G1 X29.34 Y44.727 Z0 F800
G1 X29.078 Y44.738 Z0 F800
G1 X28.48 Y44.753 Z0 F800
G1 X27.846 Y44.749 Z0 F800
G1 X27.429 Y44.729 Z0 F800
G1 X27.065 Y44.69 Z0 F800
G1 X26.475 Y44.622 Z0 F800
G1 X25.909 Y44.545 Z0 F800
G1 X25.659 Y44.483 Z0 F800
G1 X25.441 Y44.397 Z0 F800
G1 X25.26 Y44.283 Z0 F800
G1 X25.116 Y44.133 Z0 F800
G1 X25.04 Y44.003 Z0 F800
G1 X24.982 Y43.85 Z0 F800
G1 X24.945 Y43.679 Z0 F800
G1 X24.932 Y43.5 Z0 F800
G1 X24.945 Y43.322 Z0 F800
G1 X24.98 Y43.152 Z0 F800
G1 X25.038 Y42.999 Z0 F800
G1 X25.114 Y42.87 Z0 F800
G1 X25.163 Y42.823 Z0 F800
G1 X25.236 Y42.783 Z0 F800
G1 X25.336 Y42.75 Z0 F800
G1 X25.463 Y42.725 Z0 F800
G1 X25.777 Y42.708 Z0 F800
G1 X26.129 Y42.711 Z0 F800
G1 X26.486 Y42.708 Z0 F800
G1 X26.829 Y42.655 Z0 F800
G1 X26.994 Y42.587 Z0 F800
G1 X27.143 Y42.469 Z0 F800
G1 X27.203 Y42.387 Z0 F800
G1 X27.245 Y42.294 Z0 F800
G1 X27.271 Y42.194 Z0 F800
G1 X27.28 Y42.088 Z0 F800
G1 Y34.114 Z0 F800
G1 X27.328 Y34.31 Z0 F800
G1 X27.43 Y34.506 Z0 F800
G1 X27.436 Y34.512 Z0 F800
G1 X27.44 Y34.519 Z0 F800
G1 X27.446 Y34.524 Z0 F800
G1 X27.451 Y34.531 Z0 F800
G1 X27.458 Y34.536 Z0 F800
G1 X27.462 Y34.542 Z0 F800
G1 X27.469 Y34.545 Z0 F800
G1 X27.474 Y34.553 Z0 F800
G1 X27.487 Y34.563 Z0 F800
G1 X27.495 Y34.567 Z0 F800
G1 X27.501 Y34.572 Z0 F800
G1 X27.508 Y34.575 Z0 F800
G1 X27.515 Y34.58 Z0 F800
G1 X27.891 Y34.732 Z0 F800
G1 X28.271 Y34.819 Z0 F800
G1 X28.656 Y34.854 Z0 F800
G1 X29.042 Y34.848 Z0 F800
G1 X29.422 Y34.81 Z0 F800
G1 X29.794 Y34.748 Z0 F800
G1 X30.155 Y34.671 Z0 F800
G1 X30.516 Y34.585 Z0 F800
G1 X30.532 Y34.577 Z0 F800
G1 X30.55 Y34.573 Z0 F800
G1 X30.565 Y34.563 Z0 F800
G1 X30.581 Y34.556 Z0 F800
G1 X30.594 Y34.543 Z0 F800
G1 X30.609 Y34.534 Z0 F800
G1 X30.62 Y34.52 Z0 F800
G1 X30.634 Y34.508 Z0 F800
G1 X30.643 Y34.493 Z0 F800
G1 X30.654 Y34.479 Z0 F800
G1 X30.661 Y34.463 Z0 F800
G1 X30.671 Y34.449 Z0 F800
G1 X30.676 Y34.432 Z0 F800
G1 X30.684 Y34.417 Z0 F800
G1 X30.713 Y34.213 Z0 F800
G1 X30.709 Y34.035 Z0 F800
G1 X30.676 Y33.867 Z0 F800
G1 X30.614 Y33.711 Z0 F800
G1 X30.526 Y33.573 Z0 F800
G1 X30.418 Y33.454 Z0 F800
G1 X30.293 Y33.352 Z0 F800
G1 X30.157 Y33.266 Z0 F800
G1 X29.858 Y33.138 Z0 F800
G1 X29.532 Y33.059 Z0 F800
G1 X29.191 Y33.024 Z0 F800
G1 X28.844 Y33.028 Z0 F800
G1 X28.504 Y33.067 Z0 F800
G1 X28.18 Y33.141 Z0 F800
G1 X27.883 Y33.253 Z0 F800
G1 X27.624 Y33.407 Z0 F800
G1 X27.511 Y33.502 Z0 F800
G1 X27.413 Y33.613 Z0 F800
G1 X27.336 Y33.739 Z0 F800
G1 X27.286 Y33.881 Z0 F800
G1 X27.28 Y33.94 Z0 F800
G1 Y32.563 Z0 F800
G1 X33.23 Y32.542 Z0 F800
G1 X39.179 Y32.53 Z0 F800
G1 X45.127 Y32.543 Z0 F800
G1 X51.075 Y32.602 Z0 F800
G1 X51.261 Y32.781 Z0 F800
G1 X51.404 Y32.974 Z0 F800
G1 X51.508 Y33.182 Z0 F800
G1 X51.579 Y33.409 Z0 F800
G1 X51.586 Y33.479 Z0 F800
G1 X51.589 Y33.602 Z0 F800
G1 Y33.771 Z0 F800
G1 X51.584 Y33.978 Z0 F800
G1 X51.569 Y34.477 Z0 F800
G1 X51.547 Y35.039 Z0 F800
G1 X51.481 Y36.493 Z0 F800
G1 X51.474 Y36.699 Z0 F800
G1 X51.465 Y36.622 Z0 F800
G1 X51.458 Y36.492 Z0 F800
G1 X51.454 Y36.317 Z0 F800
G1 X51.438 Y35.038 Z0 F800
G1 X51.425 Y34.479 Z0 F800
G1 X51.401 Y33.982 Z0 F800
G1 X51.384 Y33.777 Z0 F800
G1 X51.362 Y33.611 Z0 F800
G1 X51.335 Y33.491 Z0 F800
G1 X51.303 Y33.424 Z0 F800
G1 X51.115 Y33.264 Z0 F800
G1 X50.888 Y33.139 Z0 F800
G1 X50.622 Y33.049 Z0 F800
G1 X50.328 Y32.998 Z0 F800
G1 X50.313 Z0 F800
G1 X50.308 Y32.995 Z0 F800
G1 X50.303 Z0 F800
G1 X50.299 Z0 F800
G1 X50.295 Z0 F800
G1 X50.291 Z0 F800
G1 X50.284 Z0 F800
G1 X49.144 Y33.025 Z0 F800
G1 X47.965 Y33.041 Z0 F800
G1 X46.76 Y33.046 Z0 F800
G1 X45.541 Z0 F800
G1 X43.112 Y33.035 Z0 F800
G1 X40.78 Y33.04 Z0 F800
G1 X40.764 Z0 F800
G1 X40.749 Z0 F800
G1 X40.732 Z0 F800
G1 X40.717 Y33.047 Z0 F800
G1 X40.702 Y33.05 Z0 F800
G1 X40.688 Y33.057 Z0 F800
G1 X40.673 Y33.062 Z0 F800
G1 X40.661 Y33.071 Z0 F800
G1 X40.646 Y33.077 Z0 F800
G1 X40.635 Y33.086 Z0 F800
G1 X40.621 Y33.094 Z0 F800
G1 X40.598 Y33.116 Z0 F800
G1 X40.59 Y33.129 Z0 F800
G1 X40.579 Y33.14 Z0 F800
G1 X40.45 Y33.374 Z0 F800
G1 X40.359 Y33.609 Z0 F800
G1 X40.294 Y33.854 Z0 F800
G1 X40.247 Y34.101 Z0 F800
G1 X40.181 Y34.579 Z0 F800
G1 X40.108 Y34.997 Z0 F800
G1 X40.056 Y35.166 Z0 F800
G1 X39.995 Y35.299 Z0 F800
G1 X39.924 Y35.398 Z0 F800
G1 X39.842 Y35.463 Z0 F800
G1 X39.734 Y35.503 Z0 F800
G1 X39.579 Y35.515 Z0 F800
G1 X39.366 Y35.485 Z0 F800
G1 X39.084 Y35.401 Z0 F800
G1 X39.117 Y35.413 Z0 F800
G1 X39.077 Y35.399 Z0 F800
G1 X39.071 Y35.395 Z0 F800
G1 X39.065 Z0 F800
G1 X39.06 Y35.391 Z0 F800
G1 X39.053 Z0 F800
G1 X39.048 Y35.388 Z0 F800
G1 X39.04 Z0 F800
G1 X38.385 Y35.31 Z0 F800
G1 X37.777 Z0 F800
G1 X37.496 Y35.347 Z0 F800
G1 X37.233 Y35.417 Z0 F800
G1 X36.992 Y35.521 Z0 F800
G1 X36.774 Y35.663 Z0 F800
G1 X36.586 Y35.848 Z0 F800
G1 X36.437 Y36.074 Z0 F800
G1 X36.331 Y36.338 Z0 F800
G1 X36.27 Y36.637 Z0 F800
G1 X36.255 Y36.958 Z0 F800
G1 X36.282 Y37.313 Z0 F800
G1 X36.351 Y37.705 Z0 F800
G1 X36.459 Y38.137 Z0 F800
G1 X36.449 Y38.494 Z0 F800
G1 X36.43 Y38.807 Z0 F800
G1 X36.401 Y39.076 Z0 F800
G1 X36.36 Y39.299 Z0 F800
G1 X36.306 Y39.479 Z0 F800
G1 X36.241 Y39.617 Z0 F800
G1 X36.159 Y39.722 Z0 F800
G1 X36.057 Y39.803 Z0 F800
G1 X35.925 Y39.867 Z0 F800
G1 X35.749 Y39.914 Z0 F800
G1 X35.525 Y39.944 Z0 F800
G1 X35.252 Y39.956 Z0 F800
G1 X34.927 Y39.948 Z0 F800
G1 X34.548 Y39.923 Z0 F800
G1 X34.111 Y39.879 Z0 F800
G1 X33.616 Y39.817 Z0 F800
G1 X33.003 Y39.735 Z0 F800
G1 X32.328 Y39.685 Z0 F800
G1 X31.982 Y39.681 Z0 F800
G1 X31.638 Y39.697 Z0 F800
G1 X31.301 Y39.738 Z0 F800
G0 Z3.5 F500
G0 X34.507 Y44.859 Z3.5 
G1 Z0 F500
;Layer C1 Pass 1 of 2
G1 Y45.431 Z0 F800
G1 X34.049 Y45.767 Z0 F800
G1 X34.013 Y45.814 Z0 F800
G1 Y45.357 Z0 F800
G1 X33.993 Y44.945 Z0 F800
G1 X33.982 Y44.773 Z0 F800
G1 X34.035 Y44.698 Z0 F800
G1 X34.507 Y44.859 Z0 F800
G0 Z3.5 F500
G0 X34.055 Y44.502 Z3.5 
G1 Z0 F500
G1 X34.031 Y44.313 Z0 F800
G1 X34.078 Y44.173 Z0 F800
G1 X34.067 Y44.135 Z0 F800
G1 X34.079 Y44.097 Z0 F800
G1 X34.03 Y43.934 Z0 F800
G1 X34.245 Z0 F800
G1 X34.055 Y44.502 Z0 F800
G0 Z3.5 F500
G0 X33.513 Y45.855 Z3.5 
G1 Z0 F500
G1 Y45.37 Z0 F800
G1 X33.494 Y44.974 Z0 F800
G1 X33.473 Y44.656 Z0 F800
G1 Y44.625 Z0 F800
G1 X33.542 Y44.528 Z0 F800
G1 X33.535 Y44.464 Z0 F800
G1 X33.544 Y44.448 Z0 F800
G1 X33.521 Y44.261 Z0 F800
G1 X33.555 Y44.158 Z0 F800
G1 X33.547 Y44.128 Z0 F800
G1 X33.557 Y44.097 Z0 F800
G1 X33.489 Y43.872 Z0 F800
G1 Y43.43 Z0 F800
G1 X34.938 Y43.439 Z0 F800
G1 X34.626 Y44.371 Z0 F800
G1 X35.007 Y44.501 Z0 F800
G1 Y45.708 Z0 F800
G1 X34.938 Y45.734 Z0 F800
G1 X34.404 Y46.126 Z0 F800
G1 X33.984 Y46.686 Z0 F800
G1 X33.751 Y47.261 Z0 F800
G1 X33.652 Y47.785 Z0 F800
G1 X33.628 Y48.249 Z0 F800
G1 X33.66 Y48.934 Z0 F800
G1 X33.715 Y49.553 Z0 F800
G1 X33.731 Y49.777 Z0 F800
G1 X33.736 Y49.936 Z0 F800
G1 X33.503 Z0 F800
G1 X33.508 Y49.803 Z0 F800
G1 X33.49 Y49.008 Z0 F800
G1 X33.324 Y47.999 Z0 F800
G1 X33.258 Y47.875 Z0 F800
G1 X33.212 Y47.735 Z0 F800
G1 X33.152 Y47.658 Z0 F800
G1 X33.118 Y47.583 Z0 F800
G1 X33.047 Y47.507 Z0 F800
G1 X33.012 Y47.447 Z0 F800
G1 X33.234 Y47.092 Z0 F800
G1 X33.442 Y46.437 Z0 F800
G1 X33.513 Y45.855 Z0 F800
G0 Z3.5 F500
G0 X33.035 Y44.097 Z3.5 
G1 Z0 F500
G1 X32.989 Y43.945 Z0 F800
G1 Y42.927 Z0 F800
G1 X35.506 Y42.943 Z0 F800
G1 X35.554 Y43.019 Z0 F800
G1 X35.589 Y43.053 Z0 F800
G1 X35.583 Y43.074 Z0 F800
G1 X35.561 Y43.111 Z0 F800
G1 X35.542 Y43.21 Z0 F800
G1 X35.258 Y44.059 Z0 F800
G1 X35.507 Y44.144 Z0 F800
G1 Y46.051 Z0 F800
G1 X35.181 Y46.177 Z0 F800
G1 X34.759 Y46.486 Z0 F800
G1 X34.423 Y46.934 Z0 F800
G1 X34.233 Y47.403 Z0 F800
G1 X34.149 Y47.845 Z0 F800
G1 X34.129 Y48.25 Z0 F800
G1 X34.159 Y48.9 Z0 F800
G1 X34.212 Y49.492 Z0 F800
G1 X34.231 Y49.761 Z0 F800
G1 X34.237 Y49.972 Z0 F800
G1 X34.234 Y50.056 Z0 F800
G1 X34.227 Y50.063 Z0 F800
G1 X34.186 Y50.43 Z0 F800
G1 X34.17 Y50.436 Z0 F800
G1 X32.988 Z0 F800
G1 X33.008 Y49.801 Z0 F800
G1 X32.991 Y49.055 Z0 F800
G1 X32.844 Y48.161 Z0 F800
G1 X32.798 Y48.074 Z0 F800
G1 X32.765 Y47.975 Z0 F800
G1 X32.722 Y47.919 Z0 F800
G1 X32.696 Y47.863 Z0 F800
G1 X32.644 Y47.807 Z0 F800
G1 X32.604 Y47.74 Z0 F800
G1 X32.521 Y47.669 Z0 F800
G1 X32.435 Y47.573 Z0 F800
G1 X32.374 Y47.541 Z0 F800
G1 X32.349 Y47.518 Z0 F800
G1 X32.352 Y47.515 Z0 F800
G1 X32.404 Y47.476 Z0 F800
G1 X32.776 Y46.88 Z0 F800
G1 X32.952 Y46.33 Z0 F800
G1 X33.014 Y45.824 Z0 F800
G1 Y45.383 Z0 F800
G1 X32.994 Y45.004 Z0 F800
G1 X32.974 Y44.676 Z0 F800
G1 X32.968 Y44.472 Z0 F800
G1 X33.024 Y44.394 Z0 F800
G1 X33.019 Y44.346 Z0 F800
G1 X33.026 Y44.334 Z0 F800
G1 X33.011 Y44.211 Z0 F800
G1 X33.033 Y44.144 Z0 F800
G1 X33.027 Y44.122 Z0 F800
G1 X33.035 Y44.097 Z0 F800
G0 Z3.5 F500
G0 X32.489 Y42.423 Z3.5 
G1 Z0 F500
G1 X35.786 Y42.445 Z0 F800
G1 X35.945 Y42.702 Z0 F800
G1 X36.107 Y42.857 Z0 F800
G1 X36.165 Y42.901 Z0 F800
G1 X36.13 Y43.032 Z0 F800
G1 X36.061 Y43.237 Z0 F800
G1 X36.053 Y43.25 Z0 F800
G1 X36.047 Y43.272 Z0 F800
G1 X36.036 Y43.291 Z0 F800
G1 X36.028 Y43.335 Z0 F800
G1 X35.89 Y43.746 Z0 F800
G1 X36.007 Y43.786 Z0 F800
G1 Y46.444 Z0 F800
G1 X35.773 Y46.484 Z0 F800
G1 X35.423 Y46.619 Z0 F800
G1 X35.115 Y46.846 Z0 F800
G1 X34.862 Y47.182 Z0 F800
G1 X34.715 Y47.544 Z0 F800
G1 X34.647 Y47.904 Z0 F800
G1 X34.629 Y48.251 Z0 F800
G1 X34.658 Y48.866 Z0 F800
G1 X34.711 Y49.465 Z0 F800
G1 X34.73 Y49.72 Z0 F800
G1 X34.737 Y49.977 Z0 F800
G1 X34.729 Y50.181 Z0 F800
G1 X34.714 Y50.283 Z0 F800
G1 X34.704 Y50.293 Z0 F800
G1 X34.635 Y50.926 Z0 F800
G1 X34.638 Y50.985 Z0 F800
G1 X34.607 Y50.978 Z0 F800
G1 X34.593 Y50.969 Z0 F800
G1 X34.518 Y50.919 Z0 F800
G1 X34.507 Z0 F800
G1 X34.49 Y50.91 Z0 F800
G1 X34.455 Y50.918 Z0 F800
G1 X34.438 Y50.91 Z0 F800
G1 X34.407 Y50.917 Z0 F800
G1 X34.36 Y50.899 Z0 F800
G1 X34.261 Y50.936 Z0 F800
G1 X32.488 Z0 F800
G1 Y50.431 Z0 F800
G1 X32.507 Y49.799 Z0 F800
G1 X32.492 Y49.101 Z0 F800
G1 X32.364 Y48.323 Z0 F800
G1 X32.336 Y48.272 Z0 F800
G1 X32.317 Y48.214 Z0 F800
G1 X32.291 Y48.18 Z0 F800
G1 X32.274 Y48.144 Z0 F800
G1 X32.243 Y48.109 Z0 F800
G1 X32.218 Y48.068 Z0 F800
G1 X32.168 Y48.026 Z0 F800
G1 X32.121 Y47.973 Z0 F800
G1 X32.083 Y47.953 Z0 F800
G1 X32.053 Y47.925 Z0 F800
G1 X32.007 Y47.906 Z0 F800
G1 X31.975 Y47.883 Z0 F800
G1 X31.924 Y47.867 Z0 F800
G1 X31.876 Y47.843 Z0 F800
G1 X31.518 Y47.779 Z0 F800
G1 X31.196 Y47.739 Z0 F800
G1 X30.847 Y47.711 Z0 F800
G1 X30.472 Y47.693 Z0 F800
G1 X29.674 Y47.676 Z0 F800
G1 X28.83 Z0 F800
G1 X26.902 Y47.694 Z0 F800
G1 X26.593 Z0 F800
G1 X26.32 Z0 F800
G1 X26.071 Y47.686 Z0 F800
G1 X25.716 Y47.689 Z0 F800
G1 X25.542 Y47.696 Z0 F800
G1 X25.53 Y47.366 Z0 F800
G1 X31.456 Z0 F800
G1 X31.529 Y47.371 Z0 F800
G1 X31.569 Y47.361 Z0 F800
G1 X31.62 Z0 F800
G1 X31.649 Y47.347 Z0 F800
G1 X31.795 Y47.3 Z0 F800
G1 X31.817 Y47.284 Z0 F800
G1 X31.846 Y47.273 Z0 F800
G1 X31.867 Y47.256 Z0 F800
G1 X31.898 Y47.242 Z0 F800
G1 X31.933 Y47.209 Z0 F800
G1 X31.976 Y47.183 Z0 F800
G1 X31.998 Y47.154 Z0 F800
G1 X32.03 Y47.13 Z0 F800
G1 X32.319 Y46.668 Z0 F800
G1 X32.461 Y46.223 Z0 F800
G1 X32.514 Y45.793 Z0 F800
G1 Y45.396 Z0 F800
G1 X32.495 Y45.033 Z0 F800
G1 X32.475 Y44.708 Z0 F800
G1 X32.467 Y44.423 Z0 F800
G1 X32.475 Y44.302 Z0 F800
G1 X32.506 Y44.258 Z0 F800
G1 X32.502 Y44.228 Z0 F800
G1 X32.508 Y44.22 Z0 F800
G1 X32.5 Y44.16 Z0 F800
G1 X32.511 Y44.129 Z0 F800
G1 X32.507 Y44.116 Z0 F800
G1 X32.513 Y44.097 Z0 F800
G1 X32.489 Y44.019 Z0 F800
G1 Y42.423 Z0 F800
G0 Z3.5 F500
G0 X31.989 Y41.92 Z3.5 
G1 Z0 F500
G1 X36.138 Y41.947 Z0 F800
G1 X36.219 Y42.194 Z0 F800
G1 X36.337 Y42.385 Z0 F800
G1 X36.433 Y42.477 Z0 F800
G1 X36.523 Y42.545 Z0 F800
G1 X36.647 Y42.625 Z0 F800
G1 X36.688 Y42.658 Z0 F800
G1 X36.692 Y42.677 Z0 F800
G1 X36.696 Y42.734 Z0 F800
G1 X36.689 Y42.831 Z0 F800
G1 X36.662 Y42.979 Z0 F800
G1 X36.608 Y43.179 Z0 F800
G1 X36.522 Y43.434 Z0 F800
G1 X36.526 Y43.422 Z0 F800
G1 X36.521 Y43.443 Z0 F800
G1 X36.518 Y43.448 Z0 F800
G1 X36.515 Y43.459 Z0 F800
G1 Y43.465 Z0 F800
G1 X36.512 Y43.47 Z0 F800
G1 Y43.48 Z0 F800
G1 Y43.486 Z0 F800
G1 X36.509 Y43.491 Z0 F800
G1 X36.506 Y43.514 Z0 F800
G1 Y43.52 Z0 F800
G1 Y46.912 Z0 F800
G1 X36.188 Y46.92 Z0 F800
G1 X35.906 Y46.968 Z0 F800
G1 X35.666 Y47.062 Z0 F800
G1 X35.47 Y47.205 Z0 F800
G1 X35.301 Y47.43 Z0 F800
G1 X35.197 Y47.686 Z0 F800
G1 X35.145 Y47.964 Z0 F800
G1 X35.13 Y48.252 Z0 F800
G1 X35.157 Y48.832 Z0 F800
G1 X35.209 Y49.42 Z0 F800
G1 X35.23 Y49.706 Z0 F800
G1 X35.238 Y49.977 Z0 F800
G1 X35.228 Y50.23 Z0 F800
G1 X35.184 Y50.52 Z0 F800
G1 X35.136 Y50.941 Z0 F800
G1 X35.153 Y51.278 Z0 F800
G1 X35.18 Y51.53 Z0 F800
G1 X35.184 Y51.6 Z0 F800
G1 X35.078 Y51.592 Z0 F800
G1 X34.914 Y51.565 Z0 F800
G1 X34.693 Y51.517 Z0 F800
G1 X34.417 Y51.444 Z0 F800
G1 X34.41 Y51.44 Z0 F800
G1 X34.401 Z0 F800
G1 X34.394 Y51.437 Z0 F800
G1 X34.385 Z0 F800
G1 X34.377 Y51.434 Z0 F800
G1 X34.368 Z0 F800
G1 X34.36 Z0 F800
G1 X34.352 Z0 F800
G1 X31.917 Z0 F800
G1 X31.967 Y51.294 Z0 F800
G1 X31.989 Y51.108 Z0 F800
G1 Y50.432 Z0 F800
G1 X32.007 Y49.796 Z0 F800
G1 X31.993 Y49.147 Z0 F800
G1 X31.884 Y48.485 Z0 F800
G1 X31.875 Y48.469 Z0 F800
G1 X31.87 Y48.453 Z0 F800
G1 X31.86 Y48.44 Z0 F800
G1 X31.853 Y48.424 Z0 F800
G1 X31.84 Y48.411 Z0 F800
G1 X31.832 Y48.396 Z0 F800
G1 X31.819 Y48.385 Z0 F800
G1 X31.807 Y48.372 Z0 F800
G1 X31.792 Y48.364 Z0 F800
G1 X31.779 Y48.353 Z0 F800
G1 X31.764 Y48.346 Z0 F800
G1 X31.75 Y48.336 Z0 F800
G1 X31.733 Y48.331 Z0 F800
G1 X31.717 Y48.323 Z0 F800
G1 X31.443 Y48.273 Z0 F800
G1 X31.146 Y48.237 Z0 F800
G1 X30.815 Y48.21 Z0 F800
G1 X30.455 Y48.192 Z0 F800
G1 X29.669 Y48.176 Z0 F800
G1 X28.833 Z0 F800
G1 X26.907 Y48.194 Z0 F800
G1 X26.589 Z0 F800
G1 X26.307 Z0 F800
G1 X26.067 Y48.186 Z0 F800
G1 X25.728 Y48.189 Z0 F800
G1 X25.478 Y48.198 Z0 F800
G1 X25.262 Z0 F800
G1 X25.102 Y48.184 Z0 F800
G1 X25.048 Y48.168 Z0 F800
G1 X25.018 Y48.155 Z0 F800
G1 X25.005 Y48.144 Z0 F800
G1 X24.997 Y48.127 Z0 F800
G1 X24.99 Y48.098 Z0 F800
G1 Y48.036 Z0 F800
G1 X24.999 Y47.94 Z0 F800
G1 X25.032 Y47.807 Z0 F800
G1 X25.036 Y47.797 Z0 F800
G1 X25.04 Y47.777 Z0 F800
G1 X25.043 Y47.736 Z0 F800
G1 X25.026 Y47.244 Z0 F800
G1 Y47.042 Z0 F800
G1 X25.043 Y46.896 Z0 F800
G1 X25.059 Y46.851 Z0 F800
G1 X25.071 Y46.828 Z0 F800
G1 X25.08 Y46.819 Z0 F800
G1 X25.098 Y46.811 Z0 F800
G1 X25.13 Y46.805 Z0 F800
G1 X25.194 Z0 F800
G1 X25.29 Y46.817 Z0 F800
G1 X25.458 Y46.861 Z0 F800
G1 X25.493 Y46.866 Z0 F800
G1 X31.472 Z0 F800
G1 X31.485 Z0 F800
G1 X31.499 Y46.863 Z0 F800
G1 X31.513 Z0 F800
G1 X31.526 Y46.857 Z0 F800
G1 X31.541 Z0 F800
G1 X31.567 Y46.848 Z0 F800
G1 X31.579 Y46.84 Z0 F800
G1 X31.592 Y46.835 Z0 F800
G1 X31.603 Y46.826 Z0 F800
G1 X31.616 Y46.82 Z0 F800
G1 X31.626 Y46.811 Z0 F800
G1 X31.637 Y46.804 Z0 F800
G1 X31.646 Y46.793 Z0 F800
G1 X31.657 Y46.785 Z0 F800
G1 X31.862 Y46.457 Z0 F800
G1 X31.97 Y46.116 Z0 F800
G1 X32.014 Y45.762 Z0 F800
G1 Y45.408 Z0 F800
G1 X31.996 Y45.063 Z0 F800
G1 X31.975 Y44.728 Z0 F800
G1 X31.966 Y44.413 Z0 F800
G1 X31.985 Y44.127 Z0 F800
G1 X31.988 Y44.124 Z0 F800
G1 Y44.119 Z0 F800
G1 Y44.115 Z0 F800
G1 Y44.109 Z0 F800
G1 Y44.105 Z0 F800
G1 Y44.102 Z0 F800
G1 X31.991 Y44.097 Z0 F800
G1 Y44.092 Z0 F800
G1 Y41.92 Z0 F800
;Layer C1 Pass 2 of 2
G0 Z3.5 F500
G0 X34.507 Y44.859 Z3.5 
G1 Z0 F500
G1 Y45.431 Z0 F800
G1 X34.049 Y45.767 Z0 F800
G1 X34.013 Y45.814 Z0 F800
G1 Y45.357 Z0 F800
G1 X33.993 Y44.945 Z0 F800
G1 X33.982 Y44.773 Z0 F800
G1 X34.035 Y44.698 Z0 F800
G1 X34.507 Y44.859 Z0 F800
G0 Z3.5 F500
G0 X34.055 Y44.502 Z3.5 
G1 Z0 F500
G1 X34.031 Y44.313 Z0 F800
G1 X34.078 Y44.173 Z0 F800
G1 X34.067 Y44.135 Z0 F800
G1 X34.079 Y44.097 Z0 F800
G1 X34.03 Y43.934 Z0 F800
G1 X34.245 Z0 F800
G1 X34.055 Y44.502 Z0 F800
G0 Z3.5 F500
G0 X33.513 Y45.855 Z3.5 
G1 Z0 F500
G1 Y45.37 Z0 F800
G1 X33.494 Y44.974 Z0 F800
G1 X33.473 Y44.656 Z0 F800
G1 Y44.625 Z0 F800
G1 X33.542 Y44.528 Z0 F800
G1 X33.535 Y44.464 Z0 F800
G1 X33.544 Y44.448 Z0 F800
G1 X33.521 Y44.261 Z0 F800
G1 X33.555 Y44.158 Z0 F800
G1 X33.547 Y44.128 Z0 F800
G1 X33.557 Y44.097 Z0 F800
G1 X33.489 Y43.872 Z0 F800
G1 Y43.43 Z0 F800
G1 X34.938 Y43.439 Z0 F800
G1 X34.626 Y44.371 Z0 F800
G1 X35.007 Y44.501 Z0 F800
G1 Y45.708 Z0 F800
G1 X34.938 Y45.734 Z0 F800
G1 X34.404 Y46.126 Z0 F800
G1 X33.984 Y46.686 Z0 F800
G1 X33.751 Y47.261 Z0 F800
G1 X33.652 Y47.785 Z0 F800
G1 X33.628 Y48.249 Z0 F800
G1 X33.66 Y48.934 Z0 F800
G1 X33.715 Y49.553 Z0 F800
G1 X33.731 Y49.777 Z0 F800
G1 X33.736 Y49.936 Z0 F800
G1 X33.503 Z0 F800
G1 X33.508 Y49.803 Z0 F800
G1 X33.49 Y49.008 Z0 F800
G1 X33.324 Y47.999 Z0 F800
G1 X33.258 Y47.875 Z0 F800
G1 X33.212 Y47.735 Z0 F800
G1 X33.152 Y47.658 Z0 F800
G1 X33.118 Y47.583 Z0 F800
G1 X33.047 Y47.507 Z0 F800
G1 X33.012 Y47.447 Z0 F800
G1 X33.234 Y47.092 Z0 F800
G1 X33.442 Y46.437 Z0 F800
G1 X33.513 Y45.855 Z0 F800
G0 Z3.5 F500
G0 X33.035 Y44.097 Z3.5 
G1 Z0 F500
G1 X32.989 Y43.945 Z0 F800
G1 Y42.927 Z0 F800
G1 X35.506 Y42.943 Z0 F800
G1 X35.554 Y43.019 Z0 F800
G1 X35.589 Y43.053 Z0 F800
G1 X35.583 Y43.074 Z0 F800
G1 X35.561 Y43.111 Z0 F800
G1 X35.542 Y43.21 Z0 F800
G1 X35.258 Y44.059 Z0 F800
G1 X35.507 Y44.144 Z0 F800
G1 Y46.051 Z0 F800
G1 X35.181 Y46.177 Z0 F800
G1 X34.759 Y46.486 Z0 F800
G1 X34.423 Y46.934 Z0 F800
G1 X34.233 Y47.403 Z0 F800
G1 X34.149 Y47.845 Z0 F800
G1 X34.129 Y48.25 Z0 F800
G1 X34.159 Y48.9 Z0 F800
G1 X34.212 Y49.492 Z0 F800
G1 X34.231 Y49.761 Z0 F800
G1 X34.237 Y49.972 Z0 F800
G1 X34.234 Y50.056 Z0 F800
G1 X34.227 Y50.063 Z0 F800
G1 X34.186 Y50.43 Z0 F800
G1 X34.17 Y50.436 Z0 F800
G1 X32.988 Z0 F800
G1 X33.008 Y49.801 Z0 F800
G1 X32.991 Y49.055 Z0 F800
G1 X32.844 Y48.161 Z0 F800
G1 X32.798 Y48.074 Z0 F800
G1 X32.765 Y47.975 Z0 F800
G1 X32.722 Y47.919 Z0 F800
G1 X32.696 Y47.863 Z0 F800
G1 X32.644 Y47.807 Z0 F800
G1 X32.604 Y47.74 Z0 F800
G1 X32.521 Y47.669 Z0 F800
G1 X32.435 Y47.573 Z0 F800
G1 X32.374 Y47.541 Z0 F800
G1 X32.349 Y47.518 Z0 F800
G1 X32.352 Y47.515 Z0 F800
G1 X32.404 Y47.476 Z0 F800
G1 X32.776 Y46.88 Z0 F800
G1 X32.952 Y46.33 Z0 F800
G1 X33.014 Y45.824 Z0 F800
G1 Y45.383 Z0 F800
G1 X32.994 Y45.004 Z0 F800
G1 X32.974 Y44.676 Z0 F800
G1 X32.968 Y44.472 Z0 F800
G1 X33.024 Y44.394 Z0 F800
G1 X33.019 Y44.346 Z0 F800
G1 X33.026 Y44.334 Z0 F800
G1 X33.011 Y44.211 Z0 F800
G1 X33.033 Y44.144 Z0 F800
G1 X33.027 Y44.122 Z0 F800
G1 X33.035 Y44.097 Z0 F800
G0 Z3.5 F500
G0 X32.489 Y42.423 Z3.5 
G1 Z0 F500
G1 X35.786 Y42.445 Z0 F800
G1 X35.945 Y42.702 Z0 F800
G1 X36.107 Y42.857 Z0 F800
G1 X36.165 Y42.901 Z0 F800
G1 X36.13 Y43.032 Z0 F800
G1 X36.061 Y43.237 Z0 F800
G1 X36.053 Y43.25 Z0 F800
G1 X36.047 Y43.272 Z0 F800
G1 X36.036 Y43.291 Z0 F800
G1 X36.028 Y43.335 Z0 F800
G1 X35.89 Y43.746 Z0 F800
G1 X36.007 Y43.786 Z0 F800
G1 Y46.444 Z0 F800
G1 X35.773 Y46.484 Z0 F800
G1 X35.423 Y46.619 Z0 F800
G1 X35.115 Y46.846 Z0 F800
G1 X34.862 Y47.182 Z0 F800
G1 X34.715 Y47.544 Z0 F800
G1 X34.647 Y47.904 Z0 F800
G1 X34.629 Y48.251 Z0 F800
G1 X34.658 Y48.866 Z0 F800
G1 X34.711 Y49.465 Z0 F800
G1 X34.73 Y49.72 Z0 F800
G1 X34.737 Y49.977 Z0 F800
G1 X34.729 Y50.181 Z0 F800
G1 X34.714 Y50.283 Z0 F800
G1 X34.704 Y50.293 Z0 F800
G1 X34.635 Y50.926 Z0 F800
G1 X34.638 Y50.985 Z0 F800
G1 X34.607 Y50.978 Z0 F800
G1 X34.593 Y50.969 Z0 F800
G1 X34.518 Y50.919 Z0 F800
G1 X34.507 Z0 F800
G1 X34.49 Y50.91 Z0 F800
G1 X34.455 Y50.918 Z0 F800
G1 X34.438 Y50.91 Z0 F800
G1 X34.407 Y50.917 Z0 F800
G1 X34.36 Y50.899 Z0 F800
G1 X34.261 Y50.936 Z0 F800
G1 X32.488 Z0 F800
G1 Y50.431 Z0 F800
G1 X32.507 Y49.799 Z0 F800
G1 X32.492 Y49.101 Z0 F800
G1 X32.364 Y48.323 Z0 F800
G1 X32.336 Y48.272 Z0 F800
G1 X32.317 Y48.214 Z0 F800
G1 X32.291 Y48.18 Z0 F800
G1 X32.274 Y48.144 Z0 F800
G1 X32.243 Y48.109 Z0 F800
G1 X32.218 Y48.068 Z0 F800
G1 X32.168 Y48.026 Z0 F800
G1 X32.121 Y47.973 Z0 F800
G1 X32.083 Y47.953 Z0 F800
G1 X32.053 Y47.925 Z0 F800
G1 X32.007 Y47.906 Z0 F800
G1 X31.975 Y47.883 Z0 F800
G1 X31.924 Y47.867 Z0 F800
G1 X31.876 Y47.843 Z0 F800
G1 X31.518 Y47.779 Z0 F800
G1 X31.196 Y47.739 Z0 F800
G1 X30.847 Y47.711 Z0 F800
G1 X30.472 Y47.693 Z0 F800
G1 X29.674 Y47.676 Z0 F800
G1 X28.83 Z0 F800
G1 X26.902 Y47.694 Z0 F800
G1 X26.593 Z0 F800
G1 X26.32 Z0 F800
G1 X26.071 Y47.686 Z0 F800
G1 X25.716 Y47.689 Z0 F800
G1 X25.542 Y47.696 Z0 F800
G1 X25.53 Y47.366 Z0 F800
G1 X31.456 Z0 F800
G1 X31.529 Y47.371 Z0 F800
G1 X31.569 Y47.361 Z0 F800
G1 X31.62 Z0 F800
G1 X31.649 Y47.347 Z0 F800
G1 X31.795 Y47.3 Z0 F800
G1 X31.817 Y47.284 Z0 F800
G1 X31.846 Y47.273 Z0 F800
G1 X31.867 Y47.256 Z0 F800
G1 X31.898 Y47.242 Z0 F800
G1 X31.933 Y47.209 Z0 F800
G1 X31.976 Y47.183 Z0 F800
G1 X31.998 Y47.154 Z0 F800
G1 X32.03 Y47.13 Z0 F800
G1 X32.319 Y46.668 Z0 F800
G1 X32.461 Y46.223 Z0 F800
G1 X32.514 Y45.793 Z0 F800
G1 Y45.396 Z0 F800
G1 X32.495 Y45.033 Z0 F800
G1 X32.475 Y44.708 Z0 F800
G1 X32.467 Y44.423 Z0 F800
G1 X32.475 Y44.302 Z0 F800
G1 X32.506 Y44.258 Z0 F800
G1 X32.502 Y44.228 Z0 F800
G1 X32.508 Y44.22 Z0 F800
G1 X32.5 Y44.16 Z0 F800
G1 X32.511 Y44.129 Z0 F800
G1 X32.507 Y44.116 Z0 F800
G1 X32.513 Y44.097 Z0 F800
G1 X32.489 Y44.019 Z0 F800
G1 Y42.423 Z0 F800
G0 Z3.5 F500
G0 X31.989 Y41.92 Z3.5 
G1 Z0 F500
G1 X36.138 Y41.947 Z0 F800
G1 X36.219 Y42.194 Z0 F800
G1 X36.337 Y42.385 Z0 F800
G1 X36.433 Y42.477 Z0 F800
G1 X36.523 Y42.545 Z0 F800
G1 X36.647 Y42.625 Z0 F800
G1 X36.688 Y42.658 Z0 F800
G1 X36.692 Y42.677 Z0 F800
G1 X36.696 Y42.734 Z0 F800
G1 X36.689 Y42.831 Z0 F800
G1 X36.662 Y42.979 Z0 F800
G1 X36.608 Y43.179 Z0 F800
G1 X36.522 Y43.434 Z0 F800
G1 X36.526 Y43.422 Z0 F800
G1 X36.521 Y43.443 Z0 F800
G1 X36.518 Y43.448 Z0 F800
G1 X36.515 Y43.459 Z0 F800
G1 Y43.465 Z0 F800
G1 X36.512 Y43.47 Z0 F800
G1 Y43.48 Z0 F800
G1 Y43.486 Z0 F800
G1 X36.509 Y43.491 Z0 F800
G1 X36.506 Y43.514 Z0 F800
G1 Y43.52 Z0 F800
G1 Y46.912 Z0 F800
G1 X36.188 Y46.92 Z0 F800
G1 X35.906 Y46.968 Z0 F800
G1 X35.666 Y47.062 Z0 F800
G1 X35.47 Y47.205 Z0 F800
G1 X35.301 Y47.43 Z0 F800
G1 X35.197 Y47.686 Z0 F800
G1 X35.145 Y47.964 Z0 F800
G1 X35.13 Y48.252 Z0 F800
G1 X35.157 Y48.832 Z0 F800
G1 X35.209 Y49.42 Z0 F800
G1 X35.23 Y49.706 Z0 F800
G1 X35.238 Y49.977 Z0 F800
G1 X35.228 Y50.23 Z0 F800
G1 X35.184 Y50.52 Z0 F800
G1 X35.136 Y50.941 Z0 F800
G1 X35.153 Y51.278 Z0 F800
G1 X35.18 Y51.53 Z0 F800
G1 X35.184 Y51.6 Z0 F800
G1 X35.078 Y51.592 Z0 F800
G1 X34.914 Y51.565 Z0 F800
G1 X34.693 Y51.517 Z0 F800
G1 X34.417 Y51.444 Z0 F800
G1 X34.41 Y51.44 Z0 F800
G1 X34.401 Z0 F800
G1 X34.394 Y51.437 Z0 F800
G1 X34.385 Z0 F800
G1 X34.377 Y51.434 Z0 F800
G1 X34.368 Z0 F800
G1 X34.36 Z0 F800
G1 X34.352 Z0 F800
G1 X31.917 Z0 F800
G1 X31.967 Y51.294 Z0 F800
G1 X31.989 Y51.108 Z0 F800
G1 Y50.432 Z0 F800
G1 X32.007 Y49.796 Z0 F800
G1 X31.993 Y49.147 Z0 F800
G1 X31.884 Y48.485 Z0 F800
G1 X31.875 Y48.469 Z0 F800
G1 X31.87 Y48.453 Z0 F800
G1 X31.86 Y48.44 Z0 F800
G1 X31.853 Y48.424 Z0 F800
G1 X31.84 Y48.411 Z0 F800
G1 X31.832 Y48.396 Z0 F800
G1 X31.819 Y48.385 Z0 F800
G1 X31.807 Y48.372 Z0 F800
G1 X31.792 Y48.364 Z0 F800
G1 X31.779 Y48.353 Z0 F800
G1 X31.764 Y48.346 Z0 F800
G1 X31.75 Y48.336 Z0 F800
G1 X31.733 Y48.331 Z0 F800
G1 X31.717 Y48.323 Z0 F800
G1 X31.443 Y48.273 Z0 F800
G1 X31.146 Y48.237 Z0 F800
G1 X30.815 Y48.21 Z0 F800
G1 X30.455 Y48.192 Z0 F800
G1 X29.669 Y48.176 Z0 F800
G1 X28.833 Z0 F800
G1 X26.907 Y48.194 Z0 F800
G1 X26.589 Z0 F800
G1 X26.307 Z0 F800
G1 X26.067 Y48.186 Z0 F800
G1 X25.728 Y48.189 Z0 F800
G1 X25.478 Y48.198 Z0 F800
G1 X25.262 Z0 F800
G1 X25.102 Y48.184 Z0 F800
G1 X25.048 Y48.168 Z0 F800
G1 X25.018 Y48.155 Z0 F800
G1 X25.005 Y48.144 Z0 F800
G1 X24.997 Y48.127 Z0 F800
G1 X24.99 Y48.098 Z0 F800
G1 Y48.036 Z0 F800
G1 X24.999 Y47.94 Z0 F800
G1 X25.032 Y47.807 Z0 F800
G1 X25.036 Y47.797 Z0 F800
G1 X25.04 Y47.777 Z0 F800
G1 X25.043 Y47.736 Z0 F800
G1 X25.026 Y47.244 Z0 F800
G1 Y47.042 Z0 F800
G1 X25.043 Y46.896 Z0 F800
G1 X25.059 Y46.851 Z0 F800
G1 X25.071 Y46.828 Z0 F800
G1 X25.08 Y46.819 Z0 F800
G1 X25.098 Y46.811 Z0 F800
G1 X25.13 Y46.805 Z0 F800
G1 X25.194 Z0 F800
G1 X25.29 Y46.817 Z0 F800
G1 X25.458 Y46.861 Z0 F800
G1 X25.493 Y46.866 Z0 F800
G1 X31.472 Z0 F800
G1 X31.485 Z0 F800
G1 X31.499 Y46.863 Z0 F800
G1 X31.513 Z0 F800
G1 X31.526 Y46.857 Z0 F800
G1 X31.541 Z0 F800
G1 X31.567 Y46.848 Z0 F800
G1 X31.579 Y46.84 Z0 F800
G1 X31.592 Y46.835 Z0 F800
G1 X31.603 Y46.826 Z0 F800
G1 X31.616 Y46.82 Z0 F800
G1 X31.626 Y46.811 Z0 F800
G1 X31.637 Y46.804 Z0 F800
G1 X31.646 Y46.793 Z0 F800
G1 X31.657 Y46.785 Z0 F800
G1 X31.862 Y46.457 Z0 F800
G1 X31.97 Y46.116 Z0 F800
G1 X32.014 Y45.762 Z0 F800
G1 Y45.408 Z0 F800
G1 X31.996 Y45.063 Z0 F800
G1 X31.975 Y44.728 Z0 F800
G1 X31.966 Y44.413 Z0 F800
G1 X31.985 Y44.127 Z0 F800
G1 X31.988 Y44.124 Z0 F800
G1 Y44.119 Z0 F800
G1 Y44.115 Z0 F800
G1 Y44.109 Z0 F800
G1 Y44.105 Z0 F800
G1 Y44.102 Z0 F800
G1 X31.991 Y44.097 Z0 F800
G1 Y44.092 Z0 F800
G1 Y41.92 Z0 F800
G0 Z3.5 F500
G0 X39.81 Y43.088 Z3.5 
G1 Z0 F500
;Layer C1 Pass 1 of 2
G1 Y43.114 Z0 F800
G1 Y43.117 Z0 F800
G1 Y43.152 Z0 F800
G1 X39.781 Y43.211 Z0 F800
G1 X39.784 Y43.22 Z0 F800
G1 X39.779 Y43.229 Z0 F800
G1 X39.812 Y43.351 Z0 F800
G1 X39.784 Y43.919 Z0 F800
G1 X39.767 Y44.616 Z0 F800
G1 X39.799 Y45.345 Z0 F800
G1 X39.916 Y46.072 Z0 F800
G1 X39.971 Y46.26 Z0 F800
G1 X39.751 Y46.283 Z0 F800
G1 X39.556 Y46.321 Z0 F800
G1 X39.241 Y46.402 Z0 F800
G1 X39.037 Y46.454 Z0 F800
G1 X39.034 Y46.448 Z0 F800
G1 X38.99 Y46.25 Z0 F800
G1 X38.963 Y46.013 Z0 F800
G1 X38.959 Y45.755 Z0 F800
G1 X38.979 Y45.507 Z0 F800
G1 X39.082 Y44.998 Z0 F800
G1 X39.099 Y44.702 Z0 F800
G1 X39.088 Y44.419 Z0 F800
G1 X39.062 Y44.148 Z0 F800
G1 X38.997 Y43.636 Z0 F800
G1 X38.952 Y43.205 Z0 F800
G1 Y43.118 Z0 F800
G1 X39.009 Y43.104 Z0 F800
G1 X39.041 Y43.116 Z0 F800
G1 X39.136 Y43.082 Z0 F800
G1 X39.392 Y43.079 Z0 F800
G1 X39.708 Y43.069 Z0 F800
G1 X39.825 Z0 F800
G1 X39.81 Y43.088 Z0 F800
G0 Z3.5 F500
G0 X45.357 Y40.392 Z3.5 
G1 Z0 F500
G1 X45.353 Y39.872 Z0 F800
G1 X45.446 Y39.982 Z0 F800
G1 X45.642 Y40.112 Z0 F800
G1 X45.611 Y40.137 Z0 F800
G1 X45.568 Y40.159 Z0 F800
G1 X45.539 Y40.188 Z0 F800
G1 X45.495 Y40.216 Z0 F800
G1 X45.456 Y40.267 Z0 F800
G1 X45.418 Y40.302 Z0 F800
G1 X45.396 Y40.343 Z0 F800
G1 X45.36 Y40.385 Z0 F800
G1 X45.357 Y40.392 Z0 F800
G0 Z3.5 F500
G0 X45.259 Y38.252 Z3.5 
G1 Z0 F500
G1 X45.253 Y38.172 Z0 F800
G1 Y38.092 Z0 F800
G1 X45.268 Y38.019 Z0 F800
G1 X45.278 Y38.016 Z0 F800
G1 X45.331 Y38.011 Z0 F800
G1 X45.378 Z0 F800
G1 X45.369 Y38.022 Z0 F800
G1 X45.341 Y38.087 Z0 F800
G1 X45.259 Y38.252 Z0 F800
G0 Z3.5 F500
G0 X44.842 Y38.79 Z3.5 
G1 Z0 F500
G1 Y38.783 Z0 F800
G1 Y38.776 Z0 F800
G1 Y38.77 Z0 F800
G1 X44.838 Y38.764 Z0 F800
G1 Y38.757 Z0 F800
G1 Y38.75 Z0 F800
G1 Y38.744 Z0 F800
G1 X44.834 Y38.739 Z0 F800
G1 X44.791 Y38.534 Z0 F800
G1 X44.764 Y38.351 Z0 F800
G1 X44.753 Y38.188 Z0 F800
G1 Y38.045 Z0 F800
G1 X44.795 Y37.819 Z0 F800
G1 X44.873 Y37.672 Z0 F800
G1 X44.994 Y37.579 Z0 F800
G1 X45.184 Y37.522 Z0 F800
G1 X45.313 Y37.51 Z0 F800
G1 X45.465 Y37.513 Z0 F800
G1 X45.64 Y37.532 Z0 F800
G1 X45.836 Y37.567 Z0 F800
G1 X45.841 Y37.57 Z0 F800
G1 X45.848 Z0 F800
G1 X45.854 Z0 F800
G1 X45.861 Z0 F800
G1 X45.867 Y37.574 Z0 F800
G1 X45.873 Z0 F800
G1 X45.88 Z0 F800
G1 X45.887 Z0 F800
G1 X48.889 Z0 F800
G1 X48.895 Y37.754 Z0 F800
G1 Y37.916 Z0 F800
G1 X48.881 Y38.045 Z0 F800
G1 X48.859 Y38.131 Z0 F800
G1 X48.826 Y38.193 Z0 F800
G1 X48.768 Y38.219 Z0 F800
G1 X48.715 Y38.228 Z0 F800
G1 X48.635 Z0 F800
G1 X48.527 Y38.213 Z0 F800
G1 X48.393 Y38.18 Z0 F800
G1 X48.386 Y38.174 Z0 F800
G1 X48.377 Z0 F800
G1 X48.369 Y38.17 Z0 F800
G1 X48.359 Z0 F800
G1 X48.351 Z0 F800
G1 X48.342 Z0 F800
G1 X48.333 Y38.166 Z0 F800
G1 X48.322 Z0 F800
G1 X46.014 Z0 F800
G1 X45.997 Z0 F800
G1 X45.98 Y38.17 Z0 F800
G1 X45.963 Z0 F800
G1 X45.947 Y38.178 Z0 F800
G1 X45.931 Y38.182 Z0 F800
G1 X45.916 Y38.19 Z0 F800
G1 X45.9 Y38.194 Z0 F800
G1 X45.887 Y38.204 Z0 F800
G1 X45.872 Y38.211 Z0 F800
G1 X45.859 Y38.223 Z0 F800
G1 X45.845 Y38.232 Z0 F800
G1 X45.834 Y38.245 Z0 F800
G1 X45.821 Y38.255 Z0 F800
G1 X45.813 Y38.27 Z0 F800
G1 X45.802 Y38.283 Z0 F800
G1 X45.795 Y38.299 Z0 F800
G1 X45.695 Y38.498 Z0 F800
G1 X45.62 Y38.685 Z0 F800
G1 X45.573 Y38.862 Z0 F800
G1 X45.553 Y39.032 Z0 F800
G1 X45.564 Y39.197 Z0 F800
G1 X45.608 Y39.35 Z0 F800
G1 X45.681 Y39.487 Z0 F800
G1 X45.781 Y39.604 Z0 F800
G1 X46.026 Y39.768 Z0 F800
G1 X46.314 Y39.864 Z0 F800
G1 X46.635 Y39.91 Z0 F800
G1 X46.979 Y39.924 Z0 F800
G1 X47.709 Y39.902 Z0 F800
G1 X48.438 Y39.852 Z0 F800
G1 X48.777 Y39.835 Z0 F800
G1 X49.082 Y39.831 Z0 F800
G1 X49.335 Y39.842 Z0 F800
G1 X49.518 Y39.872 Z0 F800
G1 X49.525 Y39.875 Z0 F800
G1 X49.533 Z0 F800
G1 X49.542 Y39.879 Z0 F800
G1 X49.551 Z0 F800
G1 X49.559 Y39.882 Z0 F800
G1 X49.566 Z0 F800
G1 X49.575 Z0 F800
G1 X49.592 Z0 F800
G1 X49.6 Z0 F800
G1 X49.609 Z0 F800
G1 X49.625 Z0 F800
G1 X49.633 Y39.877 Z0 F800
G1 X49.642 Z0 F800
G1 X49.65 Y39.874 Z0 F800
G1 X49.668 Z0 F800
G1 X49.683 Y39.886 Z0 F800
G1 X49.713 Y39.928 Z0 F800
G1 X49.766 Y40.089 Z0 F800
G1 X49.781 Y40.297 Z0 F800
G1 X49.741 Y40.481 Z0 F800
G1 X49.688 Y40.581 Z0 F800
G1 X49.662 Y40.601 Z0 F800
G1 X49.637 Y40.606 Z0 F800
G1 X49.584 Y40.595 Z0 F800
G1 X49.486 Y40.551 Z0 F800
G1 X49.48 Y40.547 Z0 F800
G1 X49.473 Z0 F800
G1 X49.467 Y40.541 Z0 F800
G1 X49.459 Z0 F800
G1 X49.452 Y40.535 Z0 F800
G1 X49.443 Z0 F800
G1 X49.437 Y40.53 Z0 F800
G1 X49.422 Y40.527 Z0 F800
G1 X49.414 Z0 F800
G1 X49.408 Y40.524 Z0 F800
G1 X49.393 Z0 F800
G1 X49.385 Z0 F800
G1 X49.377 Y40.521 Z0 F800
G1 X46.014 Z0 F800
G1 X45.996 Z0 F800
G1 X45.979 Y40.524 Z0 F800
G1 X45.961 Z0 F800
G1 X45.945 Y40.532 Z0 F800
G1 X45.928 Y40.535 Z0 F800
G1 X45.912 Y40.543 Z0 F800
G1 X45.896 Y40.548 Z0 F800
G1 X45.883 Y40.559 Z0 F800
G1 X45.867 Y40.567 Z0 F800
G1 X45.854 Y40.581 Z0 F800
G1 X45.839 Y40.59 Z0 F800
G1 X45.828 Y40.604 Z0 F800
G1 X45.815 Y40.616 Z0 F800
G1 X45.807 Y40.631 Z0 F800
G1 X45.795 Y40.645 Z0 F800
G1 X45.598 Y41.155 Z0 F800
G1 X45.496 Y41.672 Z0 F800
G1 X45.461 Y42.204 Z0 F800
G1 X45.469 Y42.741 Z0 F800
G1 X45.522 Y43.799 Z0 F800
G1 X45.529 Y44.306 Z0 F800
G1 X45.5 Y44.759 Z0 F800
G1 X45.495 Y44.795 Z0 F800
G1 Y44.799 Z0 F800
G1 Y44.803 Z0 F800
G1 Y44.811 Z0 F800
G1 Y44.817 Z0 F800
G1 X45.508 Y45.398 Z0 F800
G1 X45.525 Y46.039 Z0 F800
G1 X45.512 Y46.679 Z0 F800
G1 X45.432 Y47.262 Z0 F800
G1 X45.358 Y47.511 Z0 F800
G1 X45.26 Y47.722 Z0 F800
G1 X45.138 Y47.892 Z0 F800
G1 X44.988 Y48.02 Z0 F800
G1 X44.803 Y48.108 Z0 F800
G1 X44.565 Y48.153 Z0 F800
G1 X44.263 Y48.144 Z0 F800
G1 X43.887 Y48.067 Z0 F800
G1 X43.882 Y48.063 Z0 F800
G1 X43.875 Z0 F800
G1 X43.869 Z0 F800
G1 X43.862 Z0 F800
G1 X43.856 Y48.06 Z0 F800
G1 X43.85 Z0 F800
G1 X43.844 Z0 F800
G1 X43.836 Z0 F800
G1 X43.406 Y48.049 Z0 F800
G1 X42.973 Z0 F800
G1 X42.548 Y48.045 Z0 F800
G1 X42.143 Y48.012 Z0 F800
G1 X41.77 Y47.938 Z0 F800
G1 X41.437 Y47.807 Z0 F800
G1 X41.286 Y47.714 Z0 F800
G1 X41.145 Y47.599 Z0 F800
G1 X41.015 Y47.46 Z0 F800
G1 X40.893 Y47.295 Z0 F800
G1 X40.782 Y47.114 Z0 F800
G1 X40.649 Y46.97 Z0 F800
G1 X40.499 Y46.863 Z0 F800
G1 X40.334 Y46.795 Z0 F800
G1 X40.162 Y46.763 Z0 F800
G1 X39.991 Y46.76 Z0 F800
G1 X39.826 Y46.778 Z0 F800
G1 X39.667 Y46.809 Z0 F800
G1 X39.366 Y46.887 Z0 F800
G1 X39.098 Y46.954 Z0 F800
G1 X38.884 Y46.976 Z0 F800
G1 X38.741 Y46.952 Z0 F800
G1 X38.704 Y46.915 Z0 F800
G1 X38.667 Y46.863 Z0 F800
G1 X38.627 Y46.792 Z0 F800
G1 X38.554 Y46.589 Z0 F800
G1 X38.497 Y46.333 Z0 F800
G1 X38.463 Y46.042 Z0 F800
G1 X38.458 Y45.738 Z0 F800
G1 X38.483 Y45.437 Z0 F800
G1 X38.585 Y44.933 Z0 F800
G1 X38.599 Y44.697 Z0 F800
G1 X38.589 Y44.453 Z0 F800
G1 X38.565 Y44.204 Z0 F800
G1 X38.5 Y43.699 Z0 F800
G1 X38.452 Y43.231 Z0 F800
G1 X38.449 Y43.027 Z0 F800
G1 X38.464 Y42.854 Z0 F800
G1 X38.493 Y42.721 Z0 F800
G1 X38.53 Y42.637 Z0 F800
G1 X38.576 Y42.588 Z0 F800
G1 X38.651 Y42.559 Z0 F800
G1 X38.786 Y42.548 Z0 F800
G1 X38.999 Y42.577 Z0 F800
G1 X39.004 Y42.58 Z0 F800
G1 X39.01 Z0 F800
G1 X39.016 Z0 F800
G1 X39.022 Z0 F800
G1 X39.028 Y42.584 Z0 F800
G1 X39.034 Z0 F800
G1 X39.041 Z0 F800
G1 X39.047 Z0 F800
G1 X39.382 Y42.579 Z0 F800
G1 X39.707 Y42.569 Z0 F800
G1 X39.995 Z0 F800
G1 X40.215 Y42.594 Z0 F800
G1 X40.293 Y42.619 Z0 F800
G1 X40.342 Y42.645 Z0 F800
G1 X40.373 Y42.674 Z0 F800
G1 X40.395 Y42.715 Z0 F800
G1 X40.408 Y42.78 Z0 F800
G1 Y42.887 Z0 F800
G1 X40.384 Y43.036 Z0 F800
G1 X40.329 Y43.229 Z0 F800
G1 X40.324 Y43.237 Z0 F800
G1 Y43.247 Z0 F800
G1 X40.318 Y43.254 Z0 F800
G1 Y43.264 Z0 F800
G1 X40.314 Y43.272 Z0 F800
G1 X40.317 Y43.282 Z0 F800
G1 X40.313 Y43.29 Z0 F800
G1 Y43.299 Z0 F800
G1 X40.283 Y43.938 Z0 F800
G1 X40.267 Y44.611 Z0 F800
G1 X40.297 Y45.294 Z0 F800
G1 X40.405 Y45.961 Z0 F800
G1 X40.5 Y46.282 Z0 F800
G1 X40.629 Y46.588 Z0 F800
G1 X40.796 Y46.875 Z0 F800
G1 X41.003 Y47.137 Z0 F800
G1 X41.252 Y47.37 Z0 F800
G1 X41.546 Y47.567 Z0 F800
G1 X41.888 Y47.724 Z0 F800
G1 X42.28 Y47.836 Z0 F800
G1 X42.285 Y47.84 Z0 F800
G1 X42.292 Z0 F800
G1 X42.298 Z0 F800
G1 X42.305 Z0 F800
G1 X42.311 Y47.844 Z0 F800
G1 X42.317 Z0 F800
G1 X42.324 Z0 F800
G1 X42.331 Z0 F800
G1 X42.789 Y47.856 Z0 F800
G1 X43.304 Y47.878 Z0 F800
G1 X43.836 Y47.872 Z0 F800
G1 X44.346 Y47.801 Z0 F800
G1 X44.585 Y47.728 Z0 F800
G1 X44.807 Y47.616 Z0 F800
G1 X44.997 Y47.459 Z0 F800
G1 X45.143 Y47.252 Z0 F800
G1 X45.228 Y47.007 Z0 F800
G1 X45.25 Y46.728 Z0 F800
G1 X45.211 Y46.415 Z0 F800
G1 X45.116 Y46.064 Z0 F800
G1 X44.981 Y45.174 Z0 F800
G1 X44.9 Y44.28 Z0 F800
G1 X44.859 Y43.378 Z0 F800
G1 X44.847 Y42.468 Z0 F800
G1 X44.859 Y40.634 Z0 F800
G1 X44.842 Y38.79 Z0 F800
G0 Z3.5 F500
G0 X45.5 Y44.76 Z3.5 
G1 Z0 F500
G1 Y44.786 Z0 F800
G1 X45.496 Z0 F800
G1 X45.5 Y44.76 Z0 F800
;Layer C1 Pass 2 of 2
G0 Z3.5 F500
G0 X39.81 Y43.088 Z3.5 
G1 Z0 F500
G1 Y43.114 Z0 F800
G1 Y43.117 Z0 F800
G1 Y43.152 Z0 F800
G1 X39.781 Y43.211 Z0 F800
G1 X39.784 Y43.22 Z0 F800
G1 X39.779 Y43.229 Z0 F800
G1 X39.812 Y43.351 Z0 F800
G1 X39.784 Y43.919 Z0 F800
G1 X39.767 Y44.616 Z0 F800
G1 X39.799 Y45.345 Z0 F800
G1 X39.916 Y46.072 Z0 F800
G1 X39.971 Y46.26 Z0 F800
G1 X39.751 Y46.283 Z0 F800
G1 X39.556 Y46.321 Z0 F800
G1 X39.241 Y46.402 Z0 F800
G1 X39.037 Y46.454 Z0 F800
G1 X39.034 Y46.448 Z0 F800
G1 X38.99 Y46.25 Z0 F800
G1 X38.963 Y46.013 Z0 F800
G1 X38.959 Y45.755 Z0 F800
G1 X38.979 Y45.507 Z0 F800
G1 X39.082 Y44.998 Z0 F800
G1 X39.099 Y44.702 Z0 F800
G1 X39.088 Y44.419 Z0 F800
G1 X39.062 Y44.148 Z0 F800
G1 X38.997 Y43.636 Z0 F800
G1 X38.952 Y43.205 Z0 F800
G1 Y43.118 Z0 F800
G1 X39.009 Y43.104 Z0 F800
G1 X39.041 Y43.116 Z0 F800
G1 X39.136 Y43.082 Z0 F800
G1 X39.392 Y43.079 Z0 F800
G1 X39.708 Y43.069 Z0 F800
G1 X39.825 Z0 F800
G1 X39.81 Y43.088 Z0 F800
G0 Z3.5 F500
G0 X45.357 Y40.392 Z3.5 
G1 Z0 F500
G1 X45.353 Y39.872 Z0 F800
G1 X45.446 Y39.982 Z0 F800
G1 X45.642 Y40.112 Z0 F800
G1 X45.611 Y40.137 Z0 F800
G1 X45.568 Y40.159 Z0 F800
G1 X45.539 Y40.188 Z0 F800
G1 X45.495 Y40.216 Z0 F800
G1 X45.456 Y40.267 Z0 F800
G1 X45.418 Y40.302 Z0 F800
G1 X45.396 Y40.343 Z0 F800
G1 X45.36 Y40.385 Z0 F800
G1 X45.357 Y40.392 Z0 F800
G0 Z3.5 F500
G0 X45.259 Y38.252 Z3.5 
G1 Z0 F500
G1 X45.253 Y38.172 Z0 F800
G1 Y38.092 Z0 F800
G1 X45.268 Y38.019 Z0 F800
G1 X45.278 Y38.016 Z0 F800
G1 X45.331 Y38.011 Z0 F800
G1 X45.378 Z0 F800
G1 X45.369 Y38.022 Z0 F800
G1 X45.341 Y38.087 Z0 F800
G1 X45.259 Y38.252 Z0 F800
G0 Z3.5 F500
G0 X44.842 Y38.79 Z3.5 
G1 Z0 F500
G1 Y38.783 Z0 F800
G1 Y38.776 Z0 F800
G1 Y38.77 Z0 F800
G1 X44.838 Y38.764 Z0 F800
G1 Y38.757 Z0 F800
G1 Y38.75 Z0 F800
G1 Y38.744 Z0 F800
G1 X44.834 Y38.739 Z0 F800
G1 X44.791 Y38.534 Z0 F800
G1 X44.764 Y38.351 Z0 F800
G1 X44.753 Y38.188 Z0 F800
G1 Y38.045 Z0 F800
G1 X44.795 Y37.819 Z0 F800
G1 X44.873 Y37.672 Z0 F800
G1 X44.994 Y37.579 Z0 F800
G1 X45.184 Y37.522 Z0 F800
G1 X45.313 Y37.51 Z0 F800
G1 X45.465 Y37.513 Z0 F800
G1 X45.64 Y37.532 Z0 F800
G1 X45.836 Y37.567 Z0 F800
G1 X45.841 Y37.57 Z0 F800
G1 X45.848 Z0 F800
G1 X45.854 Z0 F800
G1 X45.861 Z0 F800
G1 X45.867 Y37.574 Z0 F800
G1 X45.873 Z0 F800
G1 X45.88 Z0 F800
G1 X45.887 Z0 F800
G1 X48.889 Z0 F800
G1 X48.895 Y37.754 Z0 F800
G1 Y37.916 Z0 F800
G1 X48.881 Y38.045 Z0 F800
G1 X48.859 Y38.131 Z0 F800
G1 X48.826 Y38.193 Z0 F800
G1 X48.768 Y38.219 Z0 F800
G1 X48.715 Y38.228 Z0 F800
G1 X48.635 Z0 F800
G1 X48.527 Y38.213 Z0 F800
G1 X48.393 Y38.18 Z0 F800
G1 X48.386 Y38.174 Z0 F800
G1 X48.377 Z0 F800
G1 X48.369 Y38.17 Z0 F800
G1 X48.359 Z0 F800
G1 X48.351 Z0 F800
G1 X48.342 Z0 F800
G1 X48.333 Y38.166 Z0 F800
G1 X48.322 Z0 F800
G1 X46.014 Z0 F800
G1 X45.997 Z0 F800
G1 X45.98 Y38.17 Z0 F800
G1 X45.963 Z0 F800
G1 X45.947 Y38.178 Z0 F800
G1 X45.931 Y38.182 Z0 F800
G1 X45.916 Y38.19 Z0 F800
G1 X45.9 Y38.194 Z0 F800
G1 X45.887 Y38.204 Z0 F800
G1 X45.872 Y38.211 Z0 F800
G1 X45.859 Y38.223 Z0 F800
G1 X45.845 Y38.232 Z0 F800
G1 X45.834 Y38.245 Z0 F800
G1 X45.821 Y38.255 Z0 F800
G1 X45.813 Y38.27 Z0 F800
G1 X45.802 Y38.283 Z0 F800
G1 X45.795 Y38.299 Z0 F800
G1 X45.695 Y38.498 Z0 F800
G1 X45.62 Y38.685 Z0 F800
G1 X45.573 Y38.862 Z0 F800
G1 X45.553 Y39.032 Z0 F800
G1 X45.564 Y39.197 Z0 F800
G1 X45.608 Y39.35 Z0 F800
G1 X45.681 Y39.487 Z0 F800
G1 X45.781 Y39.604 Z0 F800
G1 X46.026 Y39.768 Z0 F800
G1 X46.314 Y39.864 Z0 F800
G1 X46.635 Y39.91 Z0 F800
G1 X46.979 Y39.924 Z0 F800
G1 X47.709 Y39.902 Z0 F800
G1 X48.438 Y39.852 Z0 F800
G1 X48.777 Y39.835 Z0 F800
G1 X49.082 Y39.831 Z0 F800
G1 X49.335 Y39.842 Z0 F800
G1 X49.518 Y39.872 Z0 F800
G1 X49.525 Y39.875 Z0 F800
G1 X49.533 Z0 F800
G1 X49.542 Y39.879 Z0 F800
G1 X49.551 Z0 F800
G1 X49.559 Y39.882 Z0 F800
G1 X49.566 Z0 F800
G1 X49.575 Z0 F800
G1 X49.592 Z0 F800
G1 X49.6 Z0 F800
G1 X49.609 Z0 F800
G1 X49.625 Z0 F800
G1 X49.633 Y39.877 Z0 F800
G1 X49.642 Z0 F800
G1 X49.65 Y39.874 Z0 F800
G1 X49.668 Z0 F800
G1 X49.683 Y39.886 Z0 F800
G1 X49.713 Y39.928 Z0 F800
G1 X49.766 Y40.089 Z0 F800
G1 X49.781 Y40.297 Z0 F800
G1 X49.741 Y40.481 Z0 F800
G1 X49.688 Y40.581 Z0 F800
G1 X49.662 Y40.601 Z0 F800
G1 X49.637 Y40.606 Z0 F800
G1 X49.584 Y40.595 Z0 F800
G1 X49.486 Y40.551 Z0 F800
G1 X49.48 Y40.547 Z0 F800
G1 X49.473 Z0 F800
G1 X49.467 Y40.541 Z0 F800
G1 X49.459 Z0 F800
G1 X49.452 Y40.535 Z0 F800
G1 X49.443 Z0 F800
G1 X49.437 Y40.53 Z0 F800
G1 X49.422 Y40.527 Z0 F800
G1 X49.414 Z0 F800
G1 X49.408 Y40.524 Z0 F800
G1 X49.393 Z0 F800
G1 X49.385 Z0 F800
G1 X49.377 Y40.521 Z0 F800
G1 X46.014 Z0 F800
G1 X45.996 Z0 F800
G1 X45.979 Y40.524 Z0 F800
G1 X45.961 Z0 F800
G1 X45.945 Y40.532 Z0 F800
G1 X45.928 Y40.535 Z0 F800
G1 X45.912 Y40.543 Z0 F800
G1 X45.896 Y40.548 Z0 F800
G1 X45.883 Y40.559 Z0 F800
G1 X45.867 Y40.567 Z0 F800
G1 X45.854 Y40.581 Z0 F800
G1 X45.839 Y40.59 Z0 F800
G1 X45.828 Y40.604 Z0 F800
G1 X45.815 Y40.616 Z0 F800
G1 X45.807 Y40.631 Z0 F800
G1 X45.795 Y40.645 Z0 F800
G1 X45.598 Y41.155 Z0 F800
G1 X45.496 Y41.672 Z0 F800
G1 X45.461 Y42.204 Z0 F800
G1 X45.469 Y42.741 Z0 F800
G1 X45.522 Y43.799 Z0 F800
G1 X45.529 Y44.306 Z0 F800
G1 X45.5 Y44.759 Z0 F800
G1 X45.495 Y44.795 Z0 F800
G1 Y44.799 Z0 F800
G1 Y44.803 Z0 F800
G1 Y44.811 Z0 F800
G1 Y44.817 Z0 F800
G1 X45.508 Y45.398 Z0 F800
G1 X45.525 Y46.039 Z0 F800
G1 X45.512 Y46.679 Z0 F800
G1 X45.432 Y47.262 Z0 F800
G1 X45.358 Y47.511 Z0 F800
G1 X45.26 Y47.722 Z0 F800
G1 X45.138 Y47.892 Z0 F800
G1 X44.988 Y48.02 Z0 F800
G1 X44.803 Y48.108 Z0 F800
G1 X44.565 Y48.153 Z0 F800
G1 X44.263 Y48.144 Z0 F800
G1 X43.887 Y48.067 Z0 F800
G1 X43.882 Y48.063 Z0 F800
G1 X43.875 Z0 F800
G1 X43.869 Z0 F800
G1 X43.862 Z0 F800
G1 X43.856 Y48.06 Z0 F800
G1 X43.85 Z0 F800
G1 X43.844 Z0 F800
G1 X43.836 Z0 F800
G1 X43.406 Y48.049 Z0 F800
G1 X42.973 Z0 F800
G1 X42.548 Y48.045 Z0 F800
G1 X42.143 Y48.012 Z0 F800
G1 X41.77 Y47.938 Z0 F800
G1 X41.437 Y47.807 Z0 F800
G1 X41.286 Y47.714 Z0 F800
G1 X41.145 Y47.599 Z0 F800
G1 X41.015 Y47.46 Z0 F800
G1 X40.893 Y47.295 Z0 F800
G1 X40.782 Y47.114 Z0 F800
G1 X40.649 Y46.97 Z0 F800
G1 X40.499 Y46.863 Z0 F800
G1 X40.334 Y46.795 Z0 F800
G1 X40.162 Y46.763 Z0 F800
G1 X39.991 Y46.76 Z0 F800
G1 X39.826 Y46.778 Z0 F800
G1 X39.667 Y46.809 Z0 F800
G1 X39.366 Y46.887 Z0 F800
G1 X39.098 Y46.954 Z0 F800
G1 X38.884 Y46.976 Z0 F800
G1 X38.741 Y46.952 Z0 F800
G1 X38.704 Y46.915 Z0 F800
G1 X38.667 Y46.863 Z0 F800
G1 X38.627 Y46.792 Z0 F800
G1 X38.554 Y46.589 Z0 F800
G1 X38.497 Y46.333 Z0 F800
G1 X38.463 Y46.042 Z0 F800
G1 X38.458 Y45.738 Z0 F800
G1 X38.483 Y45.437 Z0 F800
G1 X38.585 Y44.933 Z0 F800
G1 X38.599 Y44.697 Z0 F800
G1 X38.589 Y44.453 Z0 F800
G1 X38.565 Y44.204 Z0 F800
G1 X38.5 Y43.699 Z0 F800
G1 X38.452 Y43.231 Z0 F800
G1 X38.449 Y43.027 Z0 F800
G1 X38.464 Y42.854 Z0 F800
G1 X38.493 Y42.721 Z0 F800
G1 X38.53 Y42.637 Z0 F800
G1 X38.576 Y42.588 Z0 F800
G1 X38.651 Y42.559 Z0 F800
G1 X38.786 Y42.548 Z0 F800
G1 X38.999 Y42.577 Z0 F800
G1 X39.004 Y42.58 Z0 F800
G1 X39.01 Z0 F800
G1 X39.016 Z0 F800
G1 X39.022 Z0 F800
G1 X39.028 Y42.584 Z0 F800
G1 X39.034 Z0 F800
G1 X39.041 Z0 F800
G1 X39.047 Z0 F800
G1 X39.382 Y42.579 Z0 F800
G1 X39.707 Y42.569 Z0 F800
G1 X39.995 Z0 F800
G1 X40.215 Y42.594 Z0 F800
G1 X40.293 Y42.619 Z0 F800
G1 X40.342 Y42.645 Z0 F800
G1 X40.373 Y42.674 Z0 F800
G1 X40.395 Y42.715 Z0 F800
G1 X40.408 Y42.78 Z0 F800
G1 Y42.887 Z0 F800
G1 X40.384 Y43.036 Z0 F800
G1 X40.329 Y43.229 Z0 F800
G1 X40.324 Y43.237 Z0 F800
G1 Y43.247 Z0 F800
G1 X40.318 Y43.254 Z0 F800
G1 Y43.264 Z0 F800
G1 X40.314 Y43.272 Z0 F800
G1 X40.317 Y43.282 Z0 F800
G1 X40.313 Y43.29 Z0 F800
G1 Y43.299 Z0 F800
G1 X40.283 Y43.938 Z0 F800
G1 X40.267 Y44.611 Z0 F800
G1 X40.297 Y45.294 Z0 F800
G1 X40.405 Y45.961 Z0 F800
G1 X40.5 Y46.282 Z0 F800
G1 X40.629 Y46.588 Z0 F800
G1 X40.796 Y46.875 Z0 F800
G1 X41.003 Y47.137 Z0 F800
G1 X41.252 Y47.37 Z0 F800
G1 X41.546 Y47.567 Z0 F800
G1 X41.888 Y47.724 Z0 F800
G1 X42.28 Y47.836 Z0 F800
G1 X42.285 Y47.84 Z0 F800
G1 X42.292 Z0 F800
G1 X42.298 Z0 F800
G1 X42.305 Z0 F800
G1 X42.311 Y47.844 Z0 F800
G1 X42.317 Z0 F800
G1 X42.324 Z0 F800
G1 X42.331 Z0 F800
G1 X42.789 Y47.856 Z0 F800
G1 X43.304 Y47.878 Z0 F800
G1 X43.836 Y47.872 Z0 F800
G1 X44.346 Y47.801 Z0 F800
G1 X44.585 Y47.728 Z0 F800
G1 X44.807 Y47.616 Z0 F800
G1 X44.997 Y47.459 Z0 F800
G1 X45.143 Y47.252 Z0 F800
G1 X45.228 Y47.007 Z0 F800
G1 X45.25 Y46.728 Z0 F800
G1 X45.211 Y46.415 Z0 F800
G1 X45.116 Y46.064 Z0 F800
G1 X44.981 Y45.174 Z0 F800
G1 X44.9 Y44.28 Z0 F800
G1 X44.859 Y43.378 Z0 F800
G1 X44.847 Y42.468 Z0 F800
G1 X44.859 Y40.634 Z0 F800
G1 X44.842 Y38.79 Z0 F800
G0 Z3.5 F500
G0 X45.5 Y44.76 Z3.5 
G1 Z0 F500
G1 Y44.786 Z0 F800
G1 X45.496 Z0 F800
G1 X45.5 Y44.76 Z0 F800
G0 Z3.5 F500
G0 X47.796 Y42.341 Z3.5 
G1 Z0 F500
;Layer C1 Pass 1 of 2
G1 X47.936 Y42.364 Z0 F800
G1 X47.966 Y42.696 Z0 F800
G1 X47.958 Y43.033 Z0 F800
G1 X47.923 Y43.373 Z0 F800
G1 X47.874 Y43.717 Z0 F800
G1 X47.778 Y44.415 Z0 F800
G1 X47.764 Y45.124 Z0 F800
G1 X47.78 Y45.397 Z0 F800
G1 X47.788 Y45.72 Z0 F800
G1 Y46.067 Z0 F800
G1 X47.777 Y46.414 Z0 F800
G1 X47.757 Y46.736 Z0 F800
G1 X47.725 Y47.009 Z0 F800
G1 X47.681 Y47.208 Z0 F800
G1 X47.624 Y47.308 Z0 F800
G1 X47.577 Y47.312 Z0 F800
G1 X47.539 Y47.26 Z0 F800
G1 X47.509 Y47.158 Z0 F800
G1 X47.486 Y47.012 Z0 F800
G1 X47.47 Y46.829 Z0 F800
G1 X47.459 Y46.614 Z0 F800
G1 X47.454 Y46.375 Z0 F800
G1 Y46.116 Z0 F800
G1 X47.457 Y45.569 Z0 F800
G1 X47.475 Y44.767 Z0 F800
G1 X47.482 Y44.316 Z0 F800
G1 Y44.135 Z0 F800
G1 X47.452 Y43.734 Z0 F800
G1 X47.36 Y43.101 Z0 F800
G1 X47.34 Y42.913 Z0 F800
G1 X47.336 Y42.749 Z0 F800
G1 X47.354 Y42.616 Z0 F800
G1 X47.387 Y42.515 Z0 F800
G1 X47.425 Y42.441 Z0 F800
G1 X47.472 Y42.389 Z0 F800
G1 X47.53 Y42.352 Z0 F800
G1 X47.589 Y42.337 Z0 F800
G1 X47.679 Y42.333 Z0 F800
G1 X47.796 Y42.341 Z0 F800
;Layer C1 Pass 2 of 2
G1 X47.936 Y42.364 Z0 F800
G1 X47.966 Y42.696 Z0 F800
G1 X47.958 Y43.033 Z0 F800
G1 X47.923 Y43.373 Z0 F800
G1 X47.874 Y43.717 Z0 F800
G1 X47.778 Y44.415 Z0 F800
G1 X47.764 Y45.124 Z0 F800
G1 X47.78 Y45.397 Z0 F800
G1 X47.788 Y45.72 Z0 F800
G1 Y46.067 Z0 F800
G1 X47.777 Y46.414 Z0 F800
G1 X47.757 Y46.736 Z0 F800
G1 X47.725 Y47.009 Z0 F800
G1 X47.681 Y47.208 Z0 F800
G1 X47.624 Y47.308 Z0 F800
G1 X47.577 Y47.312 Z0 F800
G1 X47.539 Y47.26 Z0 F800
G1 X47.509 Y47.158 Z0 F800
G1 X47.486 Y47.012 Z0 F800
G1 X47.47 Y46.829 Z0 F800
G1 X47.459 Y46.614 Z0 F800
G1 X47.454 Y46.375 Z0 F800
G1 Y46.116 Z0 F800
G1 X47.457 Y45.569 Z0 F800
G1 X47.475 Y44.767 Z0 F800
G1 X47.482 Y44.316 Z0 F800
G1 Y44.135 Z0 F800
G1 X47.452 Y43.734 Z0 F800
G1 X47.36 Y43.101 Z0 F800
G1 X47.34 Y42.913 Z0 F800
G1 X47.336 Y42.749 Z0 F800
G1 X47.354 Y42.616 Z0 F800
G1 X47.387 Y42.515 Z0 F800
G1 X47.425 Y42.441 Z0 F800
G1 X47.472 Y42.389 Z0 F800
G1 X47.53 Y42.352 Z0 F800
G1 X47.589 Y42.337 Z0 F800
G1 X47.679 Y42.333 Z0 F800
G1 X47.796 Y42.341 Z0 F800
G0 Z3.5 F500
G0 X42.458 Y40.558 Z3.5 
G1 Z0 F500
;Layer C1 Pass 1 of 2
G1 X42.297 Y40.379 Z0 F800
G1 X42.1 Y40.241 Z0 F800
G1 X42.143 Y40.229 Z0 F800
G1 X42.462 Y40.054 Z0 F800
G1 X42.458 Y40.558 Z0 F800
G0 Z3.5 F500
G0 X42.478 Y38.076 Z3.5 
G1 Z0 F500
G1 X42.29 Y37.906 Z0 F800
G1 X42.219 Y37.861 Z0 F800
G1 X42.369 Y37.759 Z0 F800
G1 X42.474 Y37.651 Z0 F800
G1 X42.48 Y37.689 Z0 F800
G1 Y38.076 Z0 F800
G0 Z3.5 F500
G0 X42.843 Y35.498 Z3.5 
G1 Z0 F500
G1 Y35.395 Z0 F800
G1 X42.908 Y35.416 Z0 F800
G1 X42.843 Y35.498 Z0 F800
G0 Z3.5 F500
G0 X42.376 Y36.207 Z3.5 
G1 Z0 F500
G1 X42.358 Y35.893 Z0 F800
G1 X42.343 Y35.592 Z0 F800
G1 Y35.319 Z0 F800
G1 X42.361 Y35.096 Z0 F800
G1 X42.4 Y34.95 Z0 F800
G1 X42.427 Y34.904 Z0 F800
G1 X42.451 Y34.877 Z0 F800
G1 X42.483 Y34.86 Z0 F800
G1 X42.537 Y34.846 Z0 F800
G1 X42.619 Y34.841 Z0 F800
G1 X42.735 Y34.852 Z0 F800
G1 X42.885 Y34.884 Z0 F800
G1 X43.068 Y34.942 Z0 F800
G1 X43.055 Y34.937 Z0 F800
G1 X43.086 Y34.948 Z0 F800
G1 X43.127 Y34.956 Z0 F800
G1 X43.139 Z0 F800
G1 X43.144 Z0 F800
G1 X43.932 Y34.962 Z0 F800
G1 X44.805 Y34.948 Z0 F800
G1 X45.739 Y34.919 Z0 F800
G1 X46.704 Y34.883 Z0 F800
G1 X47.67 Y34.845 Z0 F800
G1 X48.608 Y34.811 Z0 F800
G1 X49.489 Y34.786 Z0 F800
G1 X50.282 Y34.776 Z0 F800
G1 X50.306 Y35.027 Z0 F800
G1 X50.284 Y35.208 Z0 F800
G1 X50.244 Y35.298 Z0 F800
G1 X50.188 Y35.373 Z0 F800
G1 X50.114 Y35.438 Z0 F800
G1 X50.018 Y35.495 Z0 F800
G1 X49.757 Y35.583 Z0 F800
G1 X49.414 Y35.634 Z0 F800
G1 X49.008 Y35.648 Z0 F800
G1 X48.557 Y35.629 Z0 F800
G1 X47.587 Y35.523 Z0 F800
G1 X46.624 Y35.395 Z0 F800
G1 X46.219 Y35.352 Z0 F800
G1 X45.848 Y35.33 Z0 F800
G1 X45.512 Y35.342 Z0 F800
G1 X45.211 Y35.399 Z0 F800
G1 X44.908 Y35.334 Z0 F800
G1 X44.621 Y35.3 Z0 F800
G1 X44.349 Y35.297 Z0 F800
G1 X44.096 Y35.324 Z0 F800
G1 X43.861 Y35.381 Z0 F800
G1 X43.648 Y35.47 Z0 F800
G1 X43.458 Y35.588 Z0 F800
G1 X43.292 Y35.737 Z0 F800
G1 X43.153 Y35.911 Z0 F800
G1 X43.045 Y36.107 Z0 F800
G1 X42.966 Y36.323 Z0 F800
G1 X42.915 Y36.557 Z0 F800
G1 X42.892 Y36.807 Z0 F800
G1 X42.895 Y37.072 Z0 F800
G1 X42.925 Y37.351 Z0 F800
G1 X42.981 Y37.643 Z0 F800
G1 X42.953 Y41.353 Z0 F800
G1 X42.918 Y45.061 Z0 F800
G1 X42.716 Y45.079 Z0 F800
G1 X42.569 Y45.084 Z0 F800
G1 X42.475 Y45.013 Z0 F800
G1 X42.407 Y44.911 Z0 F800
G1 X42.402 Y44.689 Z0 F800
G1 X42.407 Y44.375 Z0 F800
G1 Y44.367 Z0 F800
G1 Y44.358 Z0 F800
G1 Y44.348 Z0 F800
G1 X42.403 Y44.338 Z0 F800
G1 Y44.329 Z0 F800
G1 Y44.321 Z0 F800
G1 Y44.311 Z0 F800
G1 X42.395 Y44.303 Z0 F800
G1 X42.339 Y43.915 Z0 F800
G1 X42.345 Y43.451 Z0 F800
G1 X42.422 Y42.415 Z0 F800
G1 X42.432 Y42.154 Z0 F800
G1 X42.428 Y41.896 Z0 F800
G1 X42.403 Y41.645 Z0 F800
G1 X42.352 Y41.401 Z0 F800
G1 X42.266 Y41.166 Z0 F800
G1 X42.138 Y40.948 Z0 F800
G1 X41.964 Y40.757 Z0 F800
G1 X41.736 Y40.597 Z0 F800
G1 X41.731 Z0 F800
G1 X41.725 Y40.592 Z0 F800
G1 X41.713 Y40.587 Z0 F800
G1 X41.708 Z0 F800
G1 X41.703 Y40.583 Z0 F800
G1 X41.68 Y40.577 Z0 F800
G1 X41.674 Z0 F800
G1 X41.667 Z0 F800
G1 X41.661 Z0 F800
G1 X41.655 Y40.573 Z0 F800
G1 X41.125 Y40.543 Z0 F800
G1 X40.647 Y40.555 Z0 F800
G1 X39.823 Y40.612 Z0 F800
G1 X39.508 Z0 F800
G1 X39.219 Y40.574 Z0 F800
G1 X38.947 Y40.49 Z0 F800
G1 X38.68 Y40.35 Z0 F800
G1 X38.707 Y40.177 Z0 F800
G1 X38.746 Y40.044 Z0 F800
G1 X38.793 Y39.95 Z0 F800
G1 X38.846 Y39.891 Z0 F800
G1 X38.933 Y39.846 Z0 F800
G1 X39.052 Y39.816 Z0 F800
G1 X39.203 Y39.804 Z0 F800
G1 X39.383 Y39.809 Z0 F800
G1 X39.81 Y39.862 Z0 F800
G1 X40.301 Y39.926 Z0 F800
G1 X40.563 Y39.944 Z0 F800
G1 X40.832 Z0 F800
G1 X41.104 Y39.917 Z0 F800
G1 X41.377 Y39.858 Z0 F800
G1 X41.691 Y39.833 Z0 F800
G1 X41.956 Y39.762 Z0 F800
G1 X42.168 Y39.645 Z0 F800
G1 X42.325 Y39.479 Z0 F800
G1 X42.415 Y39.269 Z0 F800
G1 X42.43 Y39.047 Z0 F800
G1 X42.382 Y38.83 Z0 F800
G1 X42.283 Y38.627 Z0 F800
G1 X42.151 Y38.456 Z0 F800
G1 X41.985 Y38.305 Z0 F800
G1 X41.791 Y38.181 Z0 F800
G1 X41.571 Y38.089 Z0 F800
G1 X41.333 Y38.036 Z0 F800
G1 X41.08 Y38.026 Z0 F800
G1 X40.818 Y38.066 Z0 F800
G1 X40.551 Y38.163 Z0 F800
G1 X40.141 Y38.111 Z0 F800
G1 X39.755 Y38.128 Z0 F800
G1 X39.409 Y38.177 Z0 F800
G1 X39.115 Y38.221 Z0 F800
G1 X38.989 Y38.229 Z0 F800
G1 X38.886 Y38.226 Z0 F800
G1 X38.807 Y38.212 Z0 F800
G1 X38.752 Y38.19 Z0 F800
G1 X38.71 Y38.154 Z0 F800
G1 X38.669 Y38.091 Z0 F800
G1 X38.631 Y37.994 Z0 F800
G1 X38.6 Y37.852 Z0 F800
G1 X38.627 Y37.678 Z0 F800
G1 X38.667 Y37.563 Z0 F800
G1 X38.713 Y37.492 Z0 F800
G1 X38.768 Y37.45 Z0 F800
G1 X38.844 Y37.423 Z0 F800
G1 X38.953 Y37.409 Z0 F800
G1 X39.093 Z0 F800
G1 X39.258 Y37.424 Z0 F800
G1 X39.63 Y37.486 Z0 F800
G1 X40.054 Y37.55 Z0 F800
G1 X40.51 Y37.567 Z0 F800
G1 X40.981 Y37.491 Z0 F800
G1 X41.195 Y37.538 Z0 F800
G1 X41.392 Y37.563 Z0 F800
G1 X41.574 Z0 F800
G1 X41.743 Y37.534 Z0 F800
G1 X41.906 Y37.47 Z0 F800
G1 X42.045 Y37.375 Z0 F800
G1 X42.159 Y37.257 Z0 F800
G1 X42.245 Y37.122 Z0 F800
G1 X42.343 Y36.831 Z0 F800
G1 X42.379 Y36.523 Z0 F800
G1 X42.376 Y36.207 Z0 F800
;Layer C1 Pass 2 of 2
G0 Z3.5 F500
G0 X42.458 Y40.558 Z3.5 
G1 Z0 F500
G1 X42.297 Y40.379 Z0 F800
G1 X42.1 Y40.241 Z0 F800
G1 X42.143 Y40.229 Z0 F800
G1 X42.462 Y40.054 Z0 F800
G1 X42.458 Y40.558 Z0 F800
G0 Z3.5 F500
G0 X42.478 Y38.076 Z3.5 
G1 Z0 F500
G1 X42.29 Y37.906 Z0 F800
G1 X42.219 Y37.861 Z0 F800
G1 X42.369 Y37.759 Z0 F800
G1 X42.474 Y37.651 Z0 F800
G1 X42.48 Y37.689 Z0 F800
G1 Y38.076 Z0 F800
G0 Z3.5 F500
G0 X42.843 Y35.498 Z3.5 
G1 Z0 F500
G1 Y35.395 Z0 F800
G1 X42.908 Y35.416 Z0 F800
G1 X42.843 Y35.498 Z0 F800
G0 Z3.5 F500
G0 X42.376 Y36.207 Z3.5 
G1 Z0 F500
G1 X42.358 Y35.893 Z0 F800
G1 X42.343 Y35.592 Z0 F800
G1 Y35.319 Z0 F800
G1 X42.361 Y35.096 Z0 F800
G1 X42.4 Y34.95 Z0 F800
G1 X42.427 Y34.904 Z0 F800
G1 X42.451 Y34.877 Z0 F800
G1 X42.483 Y34.86 Z0 F800
G1 X42.537 Y34.846 Z0 F800
G1 X42.619 Y34.841 Z0 F800
G1 X42.735 Y34.852 Z0 F800
G1 X42.885 Y34.884 Z0 F800
G1 X43.068 Y34.942 Z0 F800
G1 X43.055 Y34.937 Z0 F800
G1 X43.086 Y34.948 Z0 F800
G1 X43.127 Y34.956 Z0 F800
G1 X43.139 Z0 F800
G1 X43.144 Z0 F800
G1 X43.932 Y34.962 Z0 F800
G1 X44.805 Y34.948 Z0 F800
G1 X45.739 Y34.919 Z0 F800
G1 X46.704 Y34.883 Z0 F800
G1 X47.67 Y34.845 Z0 F800
G1 X48.608 Y34.811 Z0 F800
G1 X49.489 Y34.786 Z0 F800
G1 X50.282 Y34.776 Z0 F800
G1 X50.306 Y35.027 Z0 F800
G1 X50.284 Y35.208 Z0 F800
G1 X50.244 Y35.298 Z0 F800
G1 X50.188 Y35.373 Z0 F800
G1 X50.114 Y35.438 Z0 F800
G1 X50.018 Y35.495 Z0 F800
G1 X49.757 Y35.583 Z0 F800
G1 X49.414 Y35.634 Z0 F800
G1 X49.008 Y35.648 Z0 F800
G1 X48.557 Y35.629 Z0 F800
G1 X47.587 Y35.523 Z0 F800
G1 X46.624 Y35.395 Z0 F800
G1 X46.219 Y35.352 Z0 F800
G1 X45.848 Y35.33 Z0 F800
G1 X45.512 Y35.342 Z0 F800
G1 X45.211 Y35.399 Z0 F800
G1 X44.908 Y35.334 Z0 F800
G1 X44.621 Y35.3 Z0 F800
G1 X44.349 Y35.297 Z0 F800
G1 X44.096 Y35.324 Z0 F800
G1 X43.861 Y35.381 Z0 F800
G1 X43.648 Y35.47 Z0 F800
G1 X43.458 Y35.588 Z0 F800
G1 X43.292 Y35.737 Z0 F800
G1 X43.153 Y35.911 Z0 F800
G1 X43.045 Y36.107 Z0 F800
G1 X42.966 Y36.323 Z0 F800
G1 X42.915 Y36.557 Z0 F800
G1 X42.892 Y36.807 Z0 F800
G1 X42.895 Y37.072 Z0 F800
G1 X42.925 Y37.351 Z0 F800
G1 X42.981 Y37.643 Z0 F800
G1 X42.953 Y41.353 Z0 F800
G1 X42.918 Y45.061 Z0 F800
G1 X42.716 Y45.079 Z0 F800
G1 X42.569 Y45.084 Z0 F800
G1 X42.475 Y45.013 Z0 F800
G1 X42.407 Y44.911 Z0 F800
G1 X42.402 Y44.689 Z0 F800
G1 X42.407 Y44.375 Z0 F800
G1 Y44.367 Z0 F800
G1 Y44.358 Z0 F800
G1 Y44.348 Z0 F800
G1 X42.403 Y44.338 Z0 F800
G1 Y44.329 Z0 F800
G1 Y44.321 Z0 F800
G1 Y44.311 Z0 F800
G1 X42.395 Y44.303 Z0 F800
G1 X42.339 Y43.915 Z0 F800
G1 X42.345 Y43.451 Z0 F800
G1 X42.422 Y42.415 Z0 F800
G1 X42.432 Y42.154 Z0 F800
G1 X42.428 Y41.896 Z0 F800
G1 X42.403 Y41.645 Z0 F800
G1 X42.352 Y41.401 Z0 F800
G1 X42.266 Y41.166 Z0 F800
G1 X42.138 Y40.948 Z0 F800
G1 X41.964 Y40.757 Z0 F800
G1 X41.736 Y40.597 Z0 F800
G1 X41.731 Z0 F800
G1 X41.725 Y40.592 Z0 F800
G1 X41.713 Y40.587 Z0 F800
G1 X41.708 Z0 F800
G1 X41.703 Y40.583 Z0 F800
G1 X41.68 Y40.577 Z0 F800
G1 X41.674 Z0 F800
G1 X41.667 Z0 F800
G1 X41.661 Z0 F800
G1 X41.655 Y40.573 Z0 F800
G1 X41.125 Y40.543 Z0 F800
G1 X40.647 Y40.555 Z0 F800
G1 X39.823 Y40.612 Z0 F800
G1 X39.508 Z0 F800
G1 X39.219 Y40.574 Z0 F800
G1 X38.947 Y40.49 Z0 F800
G1 X38.68 Y40.35 Z0 F800
G1 X38.707 Y40.177 Z0 F800
G1 X38.746 Y40.044 Z0 F800
G1 X38.793 Y39.95 Z0 F800
G1 X38.846 Y39.891 Z0 F800
G1 X38.933 Y39.846 Z0 F800
G1 X39.052 Y39.816 Z0 F800
G1 X39.203 Y39.804 Z0 F800
G1 X39.383 Y39.809 Z0 F800
G1 X39.81 Y39.862 Z0 F800
G1 X40.301 Y39.926 Z0 F800
G1 X40.563 Y39.944 Z0 F800
G1 X40.832 Z0 F800
G1 X41.104 Y39.917 Z0 F800
G1 X41.377 Y39.858 Z0 F800
G1 X41.691 Y39.833 Z0 F800
G1 X41.956 Y39.762 Z0 F800
G1 X42.168 Y39.645 Z0 F800
G1 X42.325 Y39.479 Z0 F800
G1 X42.415 Y39.269 Z0 F800
G1 X42.43 Y39.047 Z0 F800
G1 X42.382 Y38.83 Z0 F800
G1 X42.283 Y38.627 Z0 F800
G1 X42.151 Y38.456 Z0 F800
G1 X41.985 Y38.305 Z0 F800
G1 X41.791 Y38.181 Z0 F800
G1 X41.571 Y38.089 Z0 F800
G1 X41.333 Y38.036 Z0 F800
G1 X41.08 Y38.026 Z0 F800
G1 X40.818 Y38.066 Z0 F800
G1 X40.551 Y38.163 Z0 F800
G1 X40.141 Y38.111 Z0 F800
G1 X39.755 Y38.128 Z0 F800
G1 X39.409 Y38.177 Z0 F800
G1 X39.115 Y38.221 Z0 F800
G1 X38.989 Y38.229 Z0 F800
G1 X38.886 Y38.226 Z0 F800
G1 X38.807 Y38.212 Z0 F800
G1 X38.752 Y38.19 Z0 F800
G1 X38.71 Y38.154 Z0 F800
G1 X38.669 Y38.091 Z0 F800
G1 X38.631 Y37.994 Z0 F800
G1 X38.6 Y37.852 Z0 F800
G1 X38.627 Y37.678 Z0 F800
G1 X38.667 Y37.563 Z0 F800
G1 X38.713 Y37.492 Z0 F800
G1 X38.768 Y37.45 Z0 F800
G1 X38.844 Y37.423 Z0 F800
G1 X38.953 Y37.409 Z0 F800
G1 X39.093 Z0 F800
G1 X39.258 Y37.424 Z0 F800
G1 X39.63 Y37.486 Z0 F800
G1 X40.054 Y37.55 Z0 F800
G1 X40.51 Y37.567 Z0 F800
G1 X40.981 Y37.491 Z0 F800
G1 X41.195 Y37.538 Z0 F800
G1 X41.392 Y37.563 Z0 F800
G1 X41.574 Z0 F800
G1 X41.743 Y37.534 Z0 F800
G1 X41.906 Y37.47 Z0 F800
G1 X42.045 Y37.375 Z0 F800
G1 X42.159 Y37.257 Z0 F800
G1 X42.245 Y37.122 Z0 F800
G1 X42.343 Y36.831 Z0 F800
G1 X42.379 Y36.523 Z0 F800
G1 X42.376 Y36.207 Z0 F800
G0 Z3.5 F500
G0 X57.352 Y34.361 Z3.5 
G1 Z0 F500
;Layer C1 Pass 1 of 2
G1 X54.218 Y34.281 Z0 F800
G1 X54.034 Y34.23 Z0 F800
G1 X54.087 Y33.99 Z0 F800
G1 X54.214 Y33.504 Z0 F800
G1 X57.352 Z0 F800
G1 Y34.361 Z0 F800
G0 Z3.5 F500
G0 X57.852 Y34.874 Z3.5 
G1 Z0 F500
G1 X54.143 Y34.779 Z0 F800
G1 X54.008 Y34.742 Z0 F800
G1 X53.99 Y34.751 Z0 F800
G1 X53.986 Z0 F800
G1 X53.976 Y34.754 Z0 F800
G1 X53.955 Y34.75 Z0 F800
G1 X53.913 Y34.771 Z0 F800
G1 X53.836 Y34.764 Z0 F800
G1 X53.749 Y34.84 Z0 F800
G1 X53.508 Y34.91 Z0 F800
G1 Y34.291 Z0 F800
G1 X53.603 Y33.864 Z0 F800
G1 X53.743 Y33.329 Z0 F800
G1 X53.823 Y33.099 Z0 F800
G1 X53.867 Y33.004 Z0 F800
G1 X57.852 Z0 F800
G1 Y34.874 Z0 F800
G0 Z3.5 F500
G0 X58.352 Y35.387 Z3.5 
G1 Z0 F500
G1 X54.069 Y35.278 Z0 F800
G1 X54.06 Y35.275 Z0 F800
G1 X54.051 Y35.28 Z0 F800
G1 X54.041 Y35.277 Z0 F800
G1 X54.032 Y35.282 Z0 F800
G1 X54.021 Y35.279 Z0 F800
G1 X54.012 Y35.284 Z0 F800
G1 X54.002 Z0 F800
G1 X53.995 Y35.29 Z0 F800
G1 X53.008 Y35.575 Z0 F800
G1 Y34.235 Z0 F800
G1 X53.117 Y33.747 Z0 F800
G1 X53.264 Y33.182 Z0 F800
G1 X53.359 Y32.91 Z0 F800
G1 X53.463 Y32.686 Z0 F800
G1 X53.551 Y32.562 Z0 F800
G1 X53.618 Y32.504 Z0 F800
G1 X58.352 Z0 F800
G1 Y35.387 Z0 F800
;Layer C1 Pass 2 of 2
G0 Z3.5 F500
G0 X57.352 Y34.361 Z3.5 
G1 Z0 F500
G1 X54.218 Y34.281 Z0 F800
G1 X54.034 Y34.23 Z0 F800
G1 X54.087 Y33.99 Z0 F800
G1 X54.214 Y33.504 Z0 F800
G1 X57.352 Z0 F800
G1 Y34.361 Z0 F800
G0 Z3.5 F500
G0 X57.852 Y34.874 Z3.5 
G1 Z0 F500
G1 X54.143 Y34.779 Z0 F800
G1 X54.008 Y34.742 Z0 F800
G1 X53.99 Y34.751 Z0 F800
G1 X53.986 Z0 F800
G1 X53.976 Y34.754 Z0 F800
G1 X53.955 Y34.75 Z0 F800
G1 X53.913 Y34.771 Z0 F800
G1 X53.836 Y34.764 Z0 F800
G1 X53.749 Y34.84 Z0 F800
G1 X53.508 Y34.91 Z0 F800
G1 Y34.291 Z0 F800
G1 X53.603 Y33.864 Z0 F800
G1 X53.743 Y33.329 Z0 F800
G1 X53.823 Y33.099 Z0 F800
G1 X53.867 Y33.004 Z0 F800
G1 X57.852 Z0 F800
G1 Y34.874 Z0 F800
G0 Z3.5 F500
G0 X58.352 Y35.387 Z3.5 
G1 Z0 F500
G1 X54.069 Y35.278 Z0 F800
G1 X54.06 Y35.275 Z0 F800
G1 X54.051 Y35.28 Z0 F800
G1 X54.041 Y35.277 Z0 F800
G1 X54.032 Y35.282 Z0 F800
G1 X54.021 Y35.279 Z0 F800
G1 X54.012 Y35.284 Z0 F800
G1 X54.002 Z0 F800
G1 X53.995 Y35.29 Z0 F800
G1 X53.008 Y35.575 Z0 F800
G1 Y34.235 Z0 F800
G1 X53.117 Y33.747 Z0 F800
G1 X53.264 Y33.182 Z0 F800
G1 X53.359 Y32.91 Z0 F800
G1 X53.463 Y32.686 Z0 F800
G1 X53.551 Y32.562 Z0 F800
G1 X53.618 Y32.504 Z0 F800
G1 X58.352 Z0 F800
G1 Y35.387 Z0 F800
G0 Z3.5 F500
G0 X63.551 Y34.511 Z3.5 
G1 Z0 F500
;Layer C1 Pass 1 of 2
G1 X63.472 Y34.408 Z0 F800
G1 X63.333 Y34.319 Z0 F800
G1 X63.238 Y34.235 Z0 F800
G1 X63.207 Y34.221 Z0 F800
G1 X63.146 Y34.169 Z0 F800
G1 X63 Y34.117 Z0 F800
G1 X62.905 Y34.064 Z0 F800
G1 X63.01 Y34.056 Z0 F800
G1 X63.551 Y33.991 Z0 F800
G1 Y34.511 Z0 F800
G0 Z3.5 F500
G0 X63.598 Y35.41 Z3.5 
G1 Z0 F500
G1 X63.301 Y35.005 Z0 F800
G1 X63.237 Y34.901 Z0 F800
G1 X63.186 Y34.856 Z0 F800
G1 X63.129 Y34.782 Z0 F800
G1 X63.032 Y34.72 Z0 F800
G1 X62.964 Y34.66 Z0 F800
G1 X62.938 Y34.648 Z0 F800
G1 X62.894 Y34.61 Z0 F800
G1 X62.792 Y34.574 Z0 F800
G1 X62.715 Y34.531 Z0 F800
G1 X62.611 Y34.509 Z0 F800
G1 X62.514 Y34.475 Z0 F800
G1 X62.469 Z0 F800
G1 X62.423 Y34.46 Z0 F800
G1 X62.342 Y34.463 Z0 F800
G1 X62.264 Y34.451 Z0 F800
G1 X62.146 Y34.469 Z0 F800
G1 X61.724 Y34.491 Z0 F800
G1 X61.387 Y34.481 Z0 F800
G1 Y34.469 Z0 F800
G1 X61.431 Y34.274 Z0 F800
G1 X61.48 Y34.147 Z0 F800
G1 X61.473 Y34.046 Z0 F800
G1 X61.493 Y33.953 Z0 F800
G1 X61.474 Y33.861 Z0 F800
G1 X61.48 Y33.773 Z0 F800
G1 X61.445 Y33.674 Z0 F800
G1 X61.418 Y33.453 Z0 F800
G1 X61.619 Y33.497 Z0 F800
G1 X61.851 Y33.555 Z0 F800
G1 X61.903 Y33.56 Z0 F800
G1 X62.081 Y33.598 Z0 F800
G1 X62.102 Y33.577 Z0 F800
G1 X62.249 Y33.59 Z0 F800
G1 X62.616 Y33.585 Z0 F800
G1 X62.96 Y33.558 Z0 F800
G1 X63.587 Y33.483 Z0 F800
G1 X64.051 Y33.432 Z0 F800
G1 Y35.379 Z0 F800
G1 X63.95 Y35.358 Z0 F800
G1 X63.937 Y35.365 Z0 F800
G1 X63.912 Y35.36 Z0 F800
G1 X63.724 Y35.461 Z0 F800
G1 X63.704 Y35.465 Z0 F800
G1 X63.65 Y35.472 Z0 F800
G1 X63.598 Y35.41 Z0 F800
G0 Z3.5 F500
G0 X61.729 Y33.009 Z3.5 
G1 Z0 F500
G1 X61.934 Y33.06 Z0 F800
G1 X62.268 Y33.09 Z0 F800
G1 X62.593 Y33.085 Z0 F800
G1 X62.911 Y33.061 Z0 F800
G1 X63.538 Y32.986 Z0 F800
G1 X64.107 Y32.923 Z0 F800
G1 X64.332 Y32.914 Z0 F800
G1 X64.519 Y32.922 Z0 F800
G1 X64.544 Y32.926 Z0 F800
G1 X64.541 Y32.933 Z0 F800
G1 Y32.944 Z0 F800
G1 Y32.95 Z0 F800
G1 Y32.973 Z0 F800
G1 X64.518 Y33.036 Z0 F800
G1 X64.511 Y33.054 Z0 F800
G1 X64.551 Y33.156 Z0 F800
G1 Y35.875 Z0 F800
G1 X64.125 Y35.907 Z0 F800
G1 X64.017 Y35.883 Z0 F800
G1 X64.006 Y35.889 Z0 F800
G1 X63.991 Y35.886 Z0 F800
G1 X63.895 Y35.937 Z0 F800
G1 X63.785 Y35.959 Z0 F800
G1 X63.663 Y35.975 Z0 F800
G1 X63.575 Y35.979 Z0 F800
G1 X63.528 Y35.975 Z0 F800
G1 X63.446 Y35.954 Z0 F800
G1 X63.394 Y35.924 Z0 F800
G1 X63.318 Y35.856 Z0 F800
G1 X63.205 Y35.719 Z0 F800
G1 X62.888 Y35.288 Z0 F800
G1 X62.851 Y35.227 Z0 F800
G1 X62.818 Y35.198 Z0 F800
G1 X62.785 Y35.155 Z0 F800
G1 X62.73 Y35.12 Z0 F800
G1 X62.69 Y35.084 Z0 F800
G1 X62.67 Y35.076 Z0 F800
G1 X62.641 Y35.051 Z0 F800
G1 X62.582 Y35.03 Z0 F800
G1 X62.537 Y35.005 Z0 F800
G1 X62.478 Y34.993 Z0 F800
G1 X62.42 Y34.972 Z0 F800
G1 X62.388 Z0 F800
G1 X62.359 Y34.963 Z0 F800
G1 X62.311 Z0 F800
G1 X62.264 Y34.957 Z0 F800
G1 X62.198 Y34.967 Z0 F800
G1 X61.723 Y34.992 Z0 F800
G1 X61.325 Y34.979 Z0 F800
G1 X61.172 Y34.96 Z0 F800
G1 X61.053 Y34.936 Z0 F800
G1 X60.966 Y34.907 Z0 F800
G1 X60.922 Y34.885 Z0 F800
G1 X60.903 Y34.871 Z0 F800
G1 X60.9 Y34.867 Z0 F800
G1 X60.894 Y34.856 Z0 F800
G1 X60.88 Y34.811 Z0 F800
G1 X60.868 Y34.717 Z0 F800
G1 X60.871 Y34.576 Z0 F800
G1 X60.895 Y34.382 Z0 F800
G1 X60.95 Y34.134 Z0 F800
G1 X60.974 Y34.071 Z0 F800
G1 X60.97 Y34.009 Z0 F800
G1 X60.982 Y33.953 Z0 F800
G1 X60.97 Y33.897 Z0 F800
G1 X60.974 Y33.842 Z0 F800
G1 X60.955 Y33.788 Z0 F800
G1 X60.913 Y33.448 Z0 F800
G1 X60.918 Y33.167 Z0 F800
G1 X60.953 Y33.002 Z0 F800
G1 X60.985 Y32.941 Z0 F800
G1 X60.997 Y32.937 Z0 F800
G1 X61.045 Y32.925 Z0 F800
G1 X61.137 Y32.917 Z0 F800
G1 X61.263 Y32.922 Z0 F800
G1 X61.434 Y32.945 Z0 F800
G1 X61.729 Y33.009 Z0 F800
G0 Z3.5 F500
G0 X65.051 Y33.059 Z3.5 
G1 Z0 F500
G1 Y36.424 Z0 F800
G1 X64.104 Y36.411 Z0 F800
G1 X64.124 Y36.408 Z0 F800
G1 X64.09 Y36.411 Z0 F800
G1 X64.083 Z0 F800
G1 X64.077 Z0 F800
G1 X64.069 Z0 F800
G1 X64.063 Y36.415 Z0 F800
G1 X64.056 Z0 F800
G1 X64.047 Z0 F800
G1 X63.865 Y36.453 Z0 F800
G1 X63.706 Y36.473 Z0 F800
G1 X63.568 Y36.479 Z0 F800
G1 X63.45 Y36.471 Z0 F800
G1 X63.257 Y36.422 Z0 F800
G1 X63.1 Y36.333 Z0 F800
G1 X62.957 Y36.203 Z0 F800
G1 X62.811 Y36.027 Z0 F800
G1 X62.473 Y35.567 Z0 F800
G1 X62.464 Y35.553 Z0 F800
G1 X62.452 Y35.542 Z0 F800
G1 X62.442 Y35.529 Z0 F800
G1 X62.428 Y35.52 Z0 F800
G1 X62.416 Y35.509 Z0 F800
G1 X62.401 Y35.502 Z0 F800
G1 X62.389 Y35.492 Z0 F800
G1 X62.374 Y35.487 Z0 F800
G1 X62.359 Y35.479 Z0 F800
G1 X62.342 Y35.475 Z0 F800
G1 X62.327 Y35.47 Z0 F800
G1 X62.311 Z0 F800
G1 X62.296 Y35.465 Z0 F800
G1 X62.28 Z0 F800
G1 X62.264 Z0 F800
G1 X62.249 Z0 F800
G1 X61.733 Y35.492 Z0 F800
G1 X61.285 Y35.478 Z0 F800
G1 X61.092 Y35.454 Z0 F800
G1 X60.921 Y35.418 Z0 F800
G1 X60.775 Y35.371 Z0 F800
G1 X60.657 Y35.311 Z0 F800
G1 X60.561 Y35.239 Z0 F800
G1 X60.486 Y35.153 Z0 F800
G1 X60.429 Y35.047 Z0 F800
G1 X60.389 Y34.913 Z0 F800
G1 X60.368 Y34.746 Z0 F800
G1 X60.371 Y34.541 Z0 F800
G1 X60.402 Y34.297 Z0 F800
G1 X60.466 Y34.008 Z0 F800
G1 Y34 Z0 F800
G1 Y33.994 Z0 F800
G1 Y33.987 Z0 F800
G1 X60.47 Y33.98 Z0 F800
G1 Y33.966 Z0 F800
G1 Y33.959 Z0 F800
G1 Y33.953 Z0 F800
G1 Y33.946 Z0 F800
G1 Y33.939 Z0 F800
G1 Y33.925 Z0 F800
G1 X60.467 Y33.918 Z0 F800
G1 Y33.912 Z0 F800
G1 Y33.905 Z0 F800
G1 X60.413 Y33.472 Z0 F800
G1 X60.419 Y33.112 Z0 F800
G1 X60.478 Y32.831 Z0 F800
G1 X60.583 Y32.633 Z0 F800
G1 X60.652 Y32.562 Z0 F800
G1 X60.736 Y32.504 Z0 F800
G1 X60.839 Y32.46 Z0 F800
G1 X60.967 Y32.43 Z0 F800
G1 X61.123 Y32.417 Z0 F800
G1 X61.307 Y32.423 Z0 F800
G1 X61.519 Y32.452 Z0 F800
G1 X61.76 Y32.504 Z0 F800
G1 X62.017 Y32.565 Z0 F800
G1 X62.287 Y32.59 Z0 F800
G1 X62.57 Y32.586 Z0 F800
G1 X62.862 Y32.563 Z0 F800
G1 X63.478 Y32.489 Z0 F800
G1 X64.067 Y32.424 Z0 F800
G1 X64.333 Y32.414 Z0 F800
G1 X64.567 Y32.423 Z0 F800
G1 X64.759 Y32.453 Z0 F800
G1 X64.897 Y32.5 Z0 F800
G1 X64.985 Y32.562 Z0 F800
G1 X65.038 Y32.649 Z0 F800
G1 X65.068 Y32.794 Z0 F800
G1 X65.055 Y33.022 Z0 F800
G1 Y33.027 Z0 F800
G1 Y33.032 Z0 F800
G1 X65.052 Y33.036 Z0 F800
G1 Y33.04 Z0 F800
G1 Y33.044 Z0 F800
G1 Y33.049 Z0 F800
G1 X65.049 Y33.054 Z0 F800
G1 Y33.059 Z0 F800
;Layer C1 Pass 2 of 2
G0 Z3.5 F500
G0 X63.551 Y34.511 Z3.5 
G1 Z0 F500
G1 X63.472 Y34.408 Z0 F800
G1 X63.333 Y34.319 Z0 F800
G1 X63.238 Y34.235 Z0 F800
G1 X63.207 Y34.221 Z0 F800
G1 X63.146 Y34.169 Z0 F800
G1 X63 Y34.117 Z0 F800
G1 X62.905 Y34.064 Z0 F800
G1 X63.01 Y34.056 Z0 F800
G1 X63.551 Y33.991 Z0 F800
G1 Y34.511 Z0 F800
G0 Z3.5 F500
G0 X63.598 Y35.41 Z3.5 
G1 Z0 F500
G1 X63.301 Y35.005 Z0 F800
G1 X63.237 Y34.901 Z0 F800
G1 X63.186 Y34.856 Z0 F800
G1 X63.129 Y34.782 Z0 F800
G1 X63.032 Y34.72 Z0 F800
G1 X62.964 Y34.66 Z0 F800
G1 X62.938 Y34.648 Z0 F800
G1 X62.894 Y34.61 Z0 F800
G1 X62.792 Y34.574 Z0 F800
G1 X62.715 Y34.531 Z0 F800
G1 X62.611 Y34.509 Z0 F800
G1 X62.514 Y34.475 Z0 F800
G1 X62.469 Z0 F800
G1 X62.423 Y34.46 Z0 F800
G1 X62.342 Y34.463 Z0 F800
G1 X62.264 Y34.451 Z0 F800
G1 X62.146 Y34.469 Z0 F800
G1 X61.724 Y34.491 Z0 F800
G1 X61.387 Y34.481 Z0 F800
G1 Y34.469 Z0 F800
G1 X61.431 Y34.274 Z0 F800
G1 X61.48 Y34.147 Z0 F800
G1 X61.473 Y34.046 Z0 F800
G1 X61.493 Y33.953 Z0 F800
G1 X61.474 Y33.861 Z0 F800
G1 X61.48 Y33.773 Z0 F800
G1 X61.445 Y33.674 Z0 F800
G1 X61.418 Y33.453 Z0 F800
G1 X61.619 Y33.497 Z0 F800
G1 X61.851 Y33.555 Z0 F800
G1 X61.903 Y33.56 Z0 F800
G1 X62.081 Y33.598 Z0 F800
G1 X62.102 Y33.577 Z0 F800
G1 X62.249 Y33.59 Z0 F800
G1 X62.616 Y33.585 Z0 F800
G1 X62.96 Y33.558 Z0 F800
G1 X63.587 Y33.483 Z0 F800
G1 X64.051 Y33.432 Z0 F800
G1 Y35.379 Z0 F800
G1 X63.95 Y35.358 Z0 F800
G1 X63.937 Y35.365 Z0 F800
G1 X63.912 Y35.36 Z0 F800
G1 X63.724 Y35.461 Z0 F800
G1 X63.704 Y35.465 Z0 F800
G1 X63.65 Y35.472 Z0 F800
G1 X63.598 Y35.41 Z0 F800
G0 Z3.5 F500
G0 X61.729 Y33.009 Z3.5 
G1 Z0 F500
G1 X61.934 Y33.06 Z0 F800
G1 X62.268 Y33.09 Z0 F800
G1 X62.593 Y33.085 Z0 F800
G1 X62.911 Y33.061 Z0 F800
G1 X63.538 Y32.986 Z0 F800
G1 X64.107 Y32.923 Z0 F800
G1 X64.332 Y32.914 Z0 F800
G1 X64.519 Y32.922 Z0 F800
G1 X64.544 Y32.926 Z0 F800
G1 X64.541 Y32.933 Z0 F800
G1 Y32.944 Z0 F800
G1 Y32.95 Z0 F800
G1 Y32.973 Z0 F800
G1 X64.518 Y33.036 Z0 F800
G1 X64.511 Y33.054 Z0 F800
G1 X64.551 Y33.156 Z0 F800
G1 Y35.875 Z0 F800
G1 X64.125 Y35.907 Z0 F800
G1 X64.017 Y35.883 Z0 F800
G1 X64.006 Y35.889 Z0 F800
G1 X63.991 Y35.886 Z0 F800
G1 X63.895 Y35.937 Z0 F800
G1 X63.785 Y35.959 Z0 F800
G1 X63.663 Y35.975 Z0 F800
G1 X63.575 Y35.979 Z0 F800
G1 X63.528 Y35.975 Z0 F800
G1 X63.446 Y35.954 Z0 F800
G1 X63.394 Y35.924 Z0 F800
G1 X63.318 Y35.856 Z0 F800
G1 X63.205 Y35.719 Z0 F800
G1 X62.888 Y35.288 Z0 F800
G1 X62.851 Y35.227 Z0 F800
G1 X62.818 Y35.198 Z0 F800
G1 X62.785 Y35.155 Z0 F800
G1 X62.73 Y35.12 Z0 F800
G1 X62.69 Y35.084 Z0 F800
G1 X62.67 Y35.076 Z0 F800
G1 X62.641 Y35.051 Z0 F800
G1 X62.582 Y35.03 Z0 F800
G1 X62.537 Y35.005 Z0 F800
G1 X62.478 Y34.993 Z0 F800
G1 X62.42 Y34.972 Z0 F800
G1 X62.388 Z0 F800
G1 X62.359 Y34.963 Z0 F800
G1 X62.311 Z0 F800
G1 X62.264 Y34.957 Z0 F800
G1 X62.198 Y34.967 Z0 F800
G1 X61.723 Y34.992 Z0 F800
G1 X61.325 Y34.979 Z0 F800
G1 X61.172 Y34.96 Z0 F800
G1 X61.053 Y34.936 Z0 F800
G1 X60.966 Y34.907 Z0 F800
G1 X60.922 Y34.885 Z0 F800
G1 X60.903 Y34.871 Z0 F800
G1 X60.9 Y34.867 Z0 F800
G1 X60.894 Y34.856 Z0 F800
G1 X60.88 Y34.811 Z0 F800
G1 X60.868 Y34.717 Z0 F800
G1 X60.871 Y34.576 Z0 F800
G1 X60.895 Y34.382 Z0 F800
G1 X60.95 Y34.134 Z0 F800
G1 X60.974 Y34.071 Z0 F800
G1 X60.97 Y34.009 Z0 F800
G1 X60.982 Y33.953 Z0 F800
G1 X60.97 Y33.897 Z0 F800
G1 X60.974 Y33.842 Z0 F800
G1 X60.955 Y33.788 Z0 F800
G1 X60.913 Y33.448 Z0 F800
G1 X60.918 Y33.167 Z0 F800
G1 X60.953 Y33.002 Z0 F800
G1 X60.985 Y32.941 Z0 F800
G1 X60.997 Y32.937 Z0 F800
G1 X61.045 Y32.925 Z0 F800
G1 X61.137 Y32.917 Z0 F800
G1 X61.263 Y32.922 Z0 F800
G1 X61.434 Y32.945 Z0 F800
G1 X61.729 Y33.009 Z0 F800
G0 Z3.5 F500
G0 X65.051 Y33.059 Z3.5 
G1 Z0 F500
G1 Y36.424 Z0 F800
G1 X64.104 Y36.411 Z0 F800
G1 X64.124 Y36.408 Z0 F800
G1 X64.09 Y36.411 Z0 F800
G1 X64.083 Z0 F800
G1 X64.077 Z0 F800
G1 X64.069 Z0 F800
G1 X64.063 Y36.415 Z0 F800
G1 X64.056 Z0 F800
G1 X64.047 Z0 F800
G1 X63.865 Y36.453 Z0 F800
G1 X63.706 Y36.473 Z0 F800
G1 X63.568 Y36.479 Z0 F800
G1 X63.45 Y36.471 Z0 F800
G1 X63.257 Y36.422 Z0 F800
G1 X63.1 Y36.333 Z0 F800
G1 X62.957 Y36.203 Z0 F800
G1 X62.811 Y36.027 Z0 F800
G1 X62.473 Y35.567 Z0 F800
G1 X62.464 Y35.553 Z0 F800
G1 X62.452 Y35.542 Z0 F800
G1 X62.442 Y35.529 Z0 F800
G1 X62.428 Y35.52 Z0 F800
G1 X62.416 Y35.509 Z0 F800
G1 X62.401 Y35.502 Z0 F800
G1 X62.389 Y35.492 Z0 F800
G1 X62.374 Y35.487 Z0 F800
G1 X62.359 Y35.479 Z0 F800
G1 X62.342 Y35.475 Z0 F800
G1 X62.327 Y35.47 Z0 F800
G1 X62.311 Z0 F800
G1 X62.296 Y35.465 Z0 F800
G1 X62.28 Z0 F800
G1 X62.264 Z0 F800
G1 X62.249 Z0 F800
G1 X61.733 Y35.492 Z0 F800
G1 X61.285 Y35.478 Z0 F800
G1 X61.092 Y35.454 Z0 F800
G1 X60.921 Y35.418 Z0 F800
G1 X60.775 Y35.371 Z0 F800
G1 X60.657 Y35.311 Z0 F800
G1 X60.561 Y35.239 Z0 F800
G1 X60.486 Y35.153 Z0 F800
G1 X60.429 Y35.047 Z0 F800
G1 X60.389 Y34.913 Z0 F800
G1 X60.368 Y34.746 Z0 F800
G1 X60.371 Y34.541 Z0 F800
G1 X60.402 Y34.297 Z0 F800
G1 X60.466 Y34.008 Z0 F800
G1 Y34 Z0 F800
G1 Y33.994 Z0 F800
G1 Y33.987 Z0 F800
G1 X60.47 Y33.98 Z0 F800
G1 Y33.966 Z0 F800
G1 Y33.959 Z0 F800
G1 Y33.953 Z0 F800
G1 Y33.946 Z0 F800
G1 Y33.939 Z0 F800
G1 Y33.925 Z0 F800
G1 X60.467 Y33.918 Z0 F800
G1 Y33.912 Z0 F800
G1 Y33.905 Z0 F800
G1 X60.413 Y33.472 Z0 F800
G1 X60.419 Y33.112 Z0 F800
G1 X60.478 Y32.831 Z0 F800
G1 X60.583 Y32.633 Z0 F800
G1 X60.652 Y32.562 Z0 F800
G1 X60.736 Y32.504 Z0 F800
G1 X60.839 Y32.46 Z0 F800
G1 X60.967 Y32.43 Z0 F800
G1 X61.123 Y32.417 Z0 F800
G1 X61.307 Y32.423 Z0 F800
G1 X61.519 Y32.452 Z0 F800
G1 X61.76 Y32.504 Z0 F800
G1 X62.017 Y32.565 Z0 F800
G1 X62.287 Y32.59 Z0 F800
G1 X62.57 Y32.586 Z0 F800
G1 X62.862 Y32.563 Z0 F800
G1 X63.478 Y32.489 Z0 F800
G1 X64.067 Y32.424 Z0 F800
G1 X64.333 Y32.414 Z0 F800
G1 X64.567 Y32.423 Z0 F800
G1 X64.759 Y32.453 Z0 F800
G1 X64.897 Y32.5 Z0 F800
G1 X64.985 Y32.562 Z0 F800
G1 X65.038 Y32.649 Z0 F800
G1 X65.068 Y32.794 Z0 F800
G1 X65.055 Y33.022 Z0 F800
G1 Y33.027 Z0 F800
G1 Y33.032 Z0 F800
G1 X65.052 Y33.036 Z0 F800
G1 Y33.04 Z0 F800
G1 Y33.044 Z0 F800
G1 Y33.049 Z0 F800
G1 X65.049 Y33.054 Z0 F800
G1 Y33.059 Z0 F800
G0 Z3.5 F500
G0 X60.368 Y40.53 Z3.5 
G1 Z0 F500
;Layer C1 Pass 1 of 2
G1 X60.445 Y40.548 Z0 F800
G1 X60.325 Z0 F800
G1 Y40.502 Z0 F800
G1 X60.368 Y40.53 Z0 F800
G0 Z3.5 F500
G0 X61.192 Y40.187 Z3.5 
G1 Z0 F500
G1 X61.678 Y40.237 Z0 F800
G1 X62.157 Y40.257 Z0 F800
G1 X62.628 Z0 F800
G1 X63.531 Y40.239 Z0 F800
G1 X64.405 Y40.246 Z0 F800
G1 X64.415 Z0 F800
G1 X64.433 Z0 F800
G1 X64.45 Z0 F800
G1 Y40.302 Z0 F800
G1 X64.431 Y40.571 Z0 F800
G1 X64.434 Y40.875 Z0 F800
G1 X64.44 Y41.049 Z0 F800
G1 X59.825 Z0 F800
G1 Y38.005 Z0 F800
G1 X60.025 Y37.992 Z0 F800
G1 X60.003 Y38.453 Z0 F800
G1 X60.021 Y39.017 Z0 F800
G1 X60.171 Y39.669 Z0 F800
G1 X60.201 Y39.712 Z0 F800
G1 X60.214 Y39.747 Z0 F800
G1 X60.242 Y39.782 Z0 F800
G1 X60.264 Y39.824 Z0 F800
G1 X60.301 Y39.859 Z0 F800
G1 X60.332 Y39.902 Z0 F800
G1 X60.374 Y39.932 Z0 F800
G1 X60.41 Y39.969 Z0 F800
G1 X60.438 Y39.983 Z0 F800
G1 X60.465 Y40.009 Z0 F800
G1 X60.519 Y40.032 Z0 F800
G1 X60.567 Y40.063 Z0 F800
G1 X60.613 Y40.074 Z0 F800
G1 X60.641 Y40.087 Z0 F800
G1 X61.192 Y40.187 Z0 F800
G0 Z3.5 F500
G0 X64.934 Y40.864 Z3.5 
G1 Z0 F500
G1 X64.943 Y41.114 Z0 F800
G1 Y41.33 Z0 F800
G1 X64.929 Y41.491 Z0 F800
G1 X64.913 Y41.544 Z0 F800
G1 X64.899 Y41.573 Z0 F800
G1 X64.887 Y41.586 Z0 F800
G1 X64.87 Y41.596 Z0 F800
G1 X64.84 Y41.604 Z0 F800
G1 X64.778 Z0 F800
G1 X64.619 Y41.58 Z0 F800
G1 X64.512 Y41.553 Z0 F800
G1 X64.475 Y41.549 Z0 F800
G1 X59.325 Z0 F800
G1 Y37.518 Z0 F800
G1 X59.704 Y37.512 Z0 F800
G1 X60.065 Y37.489 Z0 F800
G1 X60.286 Y37.485 Z0 F800
G1 X60.448 Y37.502 Z0 F800
G1 X60.492 Y37.516 Z0 F800
G1 X60.514 Y37.528 Z0 F800
G1 X60.522 Y37.536 Z0 F800
G1 X60.528 Y37.545 Z0 F800
G1 Y37.982 Z0 F800
G1 X60.503 Y38.457 Z0 F800
G1 X60.519 Y38.952 Z0 F800
G1 X60.638 Y39.465 Z0 F800
G1 X60.647 Y39.479 Z0 F800
G1 X60.653 Y39.494 Z0 F800
G1 X60.663 Y39.506 Z0 F800
G1 X60.669 Y39.52 Z0 F800
G1 X60.68 Y39.53 Z0 F800
G1 X60.69 Y39.543 Z0 F800
G1 X60.704 Y39.553 Z0 F800
G1 X60.714 Y39.564 Z0 F800
G1 X60.727 Y39.571 Z0 F800
G1 X60.739 Y39.582 Z0 F800
G1 X60.754 Y39.588 Z0 F800
G1 X60.767 Y39.597 Z0 F800
G1 X60.782 Y39.6 Z0 F800
G1 X60.797 Y39.607 Z0 F800
G1 X61.262 Y39.691 Z0 F800
G1 X61.714 Y39.738 Z0 F800
G1 X62.169 Y39.757 Z0 F800
G1 X62.624 Z0 F800
G1 X63.524 Y39.739 Z0 F800
G1 X64.416 Y39.746 Z0 F800
G1 X64.432 Y39.743 Z0 F800
G1 X64.438 Z0 F800
G1 X64.448 Z0 F800
G1 X64.617 Y39.7 Z0 F800
G1 X64.722 Y39.686 Z0 F800
G1 X64.797 Z0 F800
G1 X64.843 Y39.694 Z0 F800
G1 X64.871 Y39.705 Z0 F800
G1 X64.886 Y39.717 Z0 F800
G1 X64.9 Y39.74 Z0 F800
G1 X64.919 Y39.782 Z0 F800
G1 X64.945 Y39.912 Z0 F800
G1 X64.954 Y40.104 Z0 F800
G1 X64.947 Y40.334 Z0 F800
G1 X64.931 Y40.584 Z0 F800
G1 X64.934 Y40.864 Z0 F800
;Layer C1 Pass 2 of 2
G0 Z3.5 F500
G0 X60.368 Y40.53 Z3.5 
G1 Z0 F500
G1 X60.445 Y40.548 Z0 F800
G1 X60.325 Z0 F800
G1 Y40.502 Z0 F800
G1 X60.368 Y40.53 Z0 F800
G0 Z3.5 F500
G0 X61.192 Y40.187 Z3.5 
G1 Z0 F500
G1 X61.678 Y40.237 Z0 F800
G1 X62.157 Y40.257 Z0 F800
G1 X62.628 Z0 F800
G1 X63.531 Y40.239 Z0 F800
G1 X64.405 Y40.246 Z0 F800
G1 X64.415 Z0 F800
G1 X64.433 Z0 F800
G1 X64.45 Z0 F800
G1 Y40.302 Z0 F800
G1 X64.431 Y40.571 Z0 F800
G1 X64.434 Y40.875 Z0 F800
G1 X64.44 Y41.049 Z0 F800
G1 X59.825 Z0 F800
G1 Y38.005 Z0 F800
G1 X60.025 Y37.992 Z0 F800
G1 X60.003 Y38.453 Z0 F800
G1 X60.021 Y39.017 Z0 F800
G1 X60.171 Y39.669 Z0 F800
G1 X60.201 Y39.712 Z0 F800
G1 X60.214 Y39.747 Z0 F800
G1 X60.242 Y39.782 Z0 F800
G1 X60.264 Y39.824 Z0 F800
G1 X60.301 Y39.859 Z0 F800
G1 X60.332 Y39.902 Z0 F800
G1 X60.374 Y39.932 Z0 F800
G1 X60.41 Y39.969 Z0 F800
G1 X60.438 Y39.983 Z0 F800
G1 X60.465 Y40.009 Z0 F800
G1 X60.519 Y40.032 Z0 F800
G1 X60.567 Y40.063 Z0 F800
G1 X60.613 Y40.074 Z0 F800
G1 X60.641 Y40.087 Z0 F800
G1 X61.192 Y40.187 Z0 F800
G0 Z3.5 F500
G0 X64.934 Y40.864 Z3.5 
G1 Z0 F500
G1 X64.943 Y41.114 Z0 F800
G1 Y41.33 Z0 F800
G1 X64.929 Y41.491 Z0 F800
G1 X64.913 Y41.544 Z0 F800
G1 X64.899 Y41.573 Z0 F800
G1 X64.887 Y41.586 Z0 F800
G1 X64.87 Y41.596 Z0 F800
G1 X64.84 Y41.604 Z0 F800
G1 X64.778 Z0 F800
G1 X64.619 Y41.58 Z0 F800
G1 X64.512 Y41.553 Z0 F800
G1 X64.475 Y41.549 Z0 F800
G1 X59.325 Z0 F800
G1 Y37.518 Z0 F800
G1 X59.704 Y37.512 Z0 F800
G1 X60.065 Y37.489 Z0 F800
G1 X60.286 Y37.485 Z0 F800
G1 X60.448 Y37.502 Z0 F800
G1 X60.492 Y37.516 Z0 F800
G1 X60.514 Y37.528 Z0 F800
G1 X60.522 Y37.536 Z0 F800
G1 X60.528 Y37.545 Z0 F800
G1 Y37.982 Z0 F800
G1 X60.503 Y38.457 Z0 F800
G1 X60.519 Y38.952 Z0 F800
G1 X60.638 Y39.465 Z0 F800
G1 X60.647 Y39.479 Z0 F800
G1 X60.653 Y39.494 Z0 F800
G1 X60.663 Y39.506 Z0 F800
G1 X60.669 Y39.52 Z0 F800
G1 X60.68 Y39.53 Z0 F800
G1 X60.69 Y39.543 Z0 F800
G1 X60.704 Y39.553 Z0 F800
G1 X60.714 Y39.564 Z0 F800
G1 X60.727 Y39.571 Z0 F800
G1 X60.739 Y39.582 Z0 F800
G1 X60.754 Y39.588 Z0 F800
G1 X60.767 Y39.597 Z0 F800
G1 X60.782 Y39.6 Z0 F800
G1 X60.797 Y39.607 Z0 F800
G1 X61.262 Y39.691 Z0 F800
G1 X61.714 Y39.738 Z0 F800
G1 X62.169 Y39.757 Z0 F800
G1 X62.624 Z0 F800
G1 X63.524 Y39.739 Z0 F800
G1 X64.416 Y39.746 Z0 F800
G1 X64.432 Y39.743 Z0 F800
G1 X64.438 Z0 F800
G1 X64.448 Z0 F800
G1 X64.617 Y39.7 Z0 F800
G1 X64.722 Y39.686 Z0 F800
G1 X64.797 Z0 F800
G1 X64.843 Y39.694 Z0 F800
G1 X64.871 Y39.705 Z0 F800
G1 X64.886 Y39.717 Z0 F800
G1 X64.9 Y39.74 Z0 F800
G1 X64.919 Y39.782 Z0 F800
G1 X64.945 Y39.912 Z0 F800
G1 X64.954 Y40.104 Z0 F800
G1 X64.947 Y40.334 Z0 F800
G1 X64.931 Y40.584 Z0 F800
G1 X64.934 Y40.864 Z0 F800
G0 Z3.5 F500
G0 X60.15 Y44.018 Z3.5 
G1 Z0 F500
;Layer C1 Pass 1 of 2
G1 X60.169 Y46.224 Z0 F800
G1 X60.203 Y48.245 Z0 F800
G1 X60.002 Y48.257 Z0 F800
G1 X59.948 Y45.833 Z0 F800
G1 X59.988 Y45.737 Z0 F800
G1 X59.974 Y45.704 Z0 F800
G1 X59.982 Y45.672 Z0 F800
G1 X59.964 Y45.642 Z0 F800
G1 X59.971 Y45.604 Z0 F800
G1 X59.921 Y45.53 Z0 F800
G1 X59.87 Y45.137 Z0 F800
G1 X59.865 Y44.685 Z0 F800
G1 X59.881 Y44.498 Z0 F800
G1 X59.91 Y44.328 Z0 F800
G1 X59.946 Y44.198 Z0 F800
G1 X59.986 Y44.103 Z0 F800
G1 X60.023 Y44.043 Z0 F800
G1 X60.042 Y44.022 Z0 F800
G1 X60.045 Z0 F800
G1 X60.061 Y44.015 Z0 F800
G1 X60.084 Y44.012 Z0 F800
G1 X60.15 Y44.018 Z0 F800
G0 Z3.5 F500
G0 X60.647 Y43.639 Z3.5 
G1 Z0 F500
G1 X60.669 Y46.218 Z0 F800
G1 X60.711 Y48.731 Z0 F800
G1 X60.333 Y48.738 Z0 F800
G1 X59.973 Y48.76 Z0 F800
G1 X59.753 Y48.765 Z0 F800
G1 X59.592 Y48.747 Z0 F800
G1 X59.548 Y48.733 Z0 F800
G1 X59.526 Y48.721 Z0 F800
G1 X59.518 Y48.713 Z0 F800
G1 X59.512 Y48.704 Z0 F800
G1 X59.446 Y45.754 Z0 F800
G1 Y45.749 Z0 F800
G1 Y45.743 Z0 F800
G1 Y45.737 Z0 F800
G1 Y45.731 Z0 F800
G1 Y45.725 Z0 F800
G1 X59.442 Y45.719 Z0 F800
G1 Y45.714 Z0 F800
G1 Y45.709 Z0 F800
G1 X59.371 Y45.173 Z0 F800
G1 X59.364 Y44.666 Z0 F800
G1 X59.385 Y44.434 Z0 F800
G1 X59.421 Y44.221 Z0 F800
G1 X59.473 Y44.032 Z0 F800
G1 X59.542 Y43.872 Z0 F800
G1 X59.622 Y43.741 Z0 F800
G1 X59.713 Y43.641 Z0 F800
G1 X59.82 Y43.569 Z0 F800
G1 X59.948 Y43.524 Z0 F800
G1 X60.079 Y43.51 Z0 F800
G1 X60.241 Y43.524 Z0 F800
G1 X60.431 Y43.566 Z0 F800
G1 X60.647 Y43.639 Z0 F800
;Layer C1 Pass 2 of 2
G0 Z3.5 F500
G0 X60.15 Y44.018 Z3.5 
G1 Z0 F500
G1 X60.169 Y46.224 Z0 F800
G1 X60.203 Y48.245 Z0 F800
G1 X60.002 Y48.257 Z0 F800
G1 X59.948 Y45.833 Z0 F800
G1 X59.988 Y45.737 Z0 F800
G1 X59.974 Y45.704 Z0 F800
G1 X59.982 Y45.672 Z0 F800
G1 X59.964 Y45.642 Z0 F800
G1 X59.971 Y45.604 Z0 F800
G1 X59.921 Y45.53 Z0 F800
G1 X59.87 Y45.137 Z0 F800
G1 X59.865 Y44.685 Z0 F800
G1 X59.881 Y44.498 Z0 F800
G1 X59.91 Y44.328 Z0 F800
