;LightBurn 1.6.04
;Custom GCode device profile, absolute coords
;Bounds: X20.11 Y30.46 to X59.89 Y61.54
G00 G17 G40 G21 G54
G90
M3
G1 Z10 F500
;Cut @ 444 mm/min, 80% power

M8
G0 Z3.5 F500
G0 X22.307 Y30.505 Z3.5 
G1 Z0 F500
;Layer C3 Pass 1 of 2
G1 X24.962 Y30.459 Z0 S800 F800
G1 X26.427 Y31.237 Z0 F800
G1 X26.552 Y31.334 Z0 F800
G1 X26.674 Y31.44 Z0 F800
G1 X26.805 Y31.569 Z0 F800
G1 X26.923 Y31.711 Z0 F800
G1 X27.007 Y31.855 Z0 F800
G1 X27.032 Y31.991 Z0 F800
G1 X26.977 Y32.107 Z0 F800
G1 X26.856 Y32.235 Z0 F800
G1 X26.711 Y32.402 Z0 F800
G1 X26.552 Y32.59 Z0 F800
G1 X26.393 Y32.782 Z0 F800
G1 X26.015 Y33.251 Z0 F800
G1 X23.772 Y33.297 Z0 F800
G1 X24.184 Y34.579 Z0 F800
G1 X23.498 Y35.037 Z0 F800
G1 X24.322 Y36.318 Z0 F800
G1 X23.452 Y37.188 Z0 F800
G1 X24.367 Y38.195 Z0 F800
G1 X25.191 Y36.547 Z0 F800
G1 X24.734 Y35.586 Z0 F800
G1 X24.915 Y35.497 Z0 F800
G1 X25.096 Y35.4 Z0 F800
G1 X25.294 Y35.283 Z0 F800
G1 X25.48 Y35.155 Z0 F800
G1 X25.622 Y35.026 Z0 F800
G1 X25.667 Y34.965 Z0 F800
G1 X25.689 Y34.907 Z0 F800
G1 X25.684 Y34.854 Z0 F800
G1 X25.649 Y34.808 Z0 F800
G1 X25.433 Y34.611 Z0 F800
G1 X25.226 Y34.402 Z0 F800
G1 X25.07 Y34.235 Z0 F800
G1 X25.008 Y34.167 Z0 F800
G1 X26.748 Y33.618 Z0 F800
G1 X27.892 Y32.519 Z0 F800
G1 X27.801 Y31.42 Z0 F800
G1 X26.748 Y30.642 Z0 F800
G1 X28.35 Y30.871 Z0 F800
G1 X28.945 Y31.924 Z0 F800
G1 X28.999 Y32.134 Z0 F800
G1 X29.049 Y32.354 Z0 F800
G1 X29.1 Y32.611 Z0 F800
G1 X29.139 Y32.876 Z0 F800
G1 X29.157 Y33.121 Z0 F800
G1 X29.142 Y33.317 Z0 F800
G1 X29.082 Y33.435 Z0 F800
G1 X28.965 Y33.522 Z0 F800
G1 X28.8 Y33.641 Z0 F800
G1 X28.401 Y33.915 Z0 F800
G1 X27.892 Y34.258 Z0 F800
G1 X25.649 Y35.311 Z0 F800
G1 X26.244 Y36.135 Z0 F800
G1 X27.572 Y36.09 Z0 F800
G1 X27.902 Y36.109 Z0 F800
G1 X28.104 Y36.124 Z0 F800
G1 X28.316 Y36.143 Z0 F800
G1 X28.518 Y36.167 Z0 F800
G1 X28.689 Y36.195 Z0 F800
G1 X28.808 Y36.227 Z0 F800
G1 X28.905 Y36.224 Z0 F800
G1 X29.019 Y36.158 Z0 F800
G1 X29.14 Y36.05 Z0 F800
G1 X29.26 Y35.918 Z0 F800
G1 X29.369 Y35.782 Z0 F800
G1 X29.458 Y35.66 Z0 F800
G1 X29.54 Y35.54 Z0 F800
G1 X29.398 Y35.471 Z0 F800
G1 X29.243 Y35.403 Z0 F800
G1 X29.054 Y35.329 Z0 F800
G1 X28.845 Y35.261 Z0 F800
G1 X28.632 Y35.212 Z0 F800
G1 X28.432 Y35.194 Z0 F800
G1 X28.258 Y35.22 Z0 F800
G1 X27.881 Y35.283 Z0 F800
G1 X27.469 Z0 F800
G1 X27.298 Y35.265 Z0 F800
G1 X27.177 Y35.239 Z0 F800
G1 X27.124 Y35.208 Z0 F800
G1 X27.16 Y35.174 Z0 F800
G1 X27.221 Y35.146 Z0 F800
G1 X27.314 Y35.099 Z0 F800
G1 X27.435 Y35.034 Z0 F800
G1 X27.912 Y34.772 Z0 F800
G1 X28.276 Y34.567 Z0 F800
G1 X29.22 Y34.03 Z0 F800
G1 X30.41 Y34.579 Z0 F800
G1 X30.53 Y34.489 Z0 F800
G1 X30.651 Y34.391 Z0 F800
G1 X30.788 Y34.27 Z0 F800
G1 X30.92 Y34.136 Z0 F800
G1 X31.028 Y34 Z0 F800
G1 X31.093 Y33.869 Z0 F800
G1 X31.097 Y33.755 Z0 F800
G1 X31.031 Y33.631 Z0 F800
G1 X30.915 Y33.475 Z0 F800
G1 X30.767 Y33.301 Z0 F800
G1 X30.604 Y33.125 Z0 F800
G1 X30.447 Y32.963 Z0 F800
G1 X30.311 Y32.828 Z0 F800
G1 X30.181 Y32.702 Z0 F800
G1 X29.769 Y31.558 Z0 F800
G1 X29.54 Y30.779 Z0 F800
G1 X30.273 Y30.734 Z0 F800
G1 X30.492 Y30.977 Z0 F800
G1 X30.622 Y31.128 Z0 F800
G1 X30.753 Y31.29 Z0 F800
G1 X30.871 Y31.448 Z0 F800
G1 X30.96 Y31.588 Z0 F800
G1 X31.005 Y31.695 Z0 F800
G1 X31.044 Y31.806 Z0 F800
G1 X31.117 Y31.956 Z0 F800
G1 X31.213 Y32.129 Z0 F800
G1 X31.32 Y32.307 Z0 F800
G1 X31.424 Y32.475 Z0 F800
G1 X31.6 Y32.748 Z0 F800
G1 X34.255 Y31.42 Z0 F800
G1 X33.294 Y30.779 Z0 F800
G1 X31.783 Y31.329 Z0 F800
G1 X31.829 Y31.878 Z0 F800
G1 X32.039 Y31.827 Z0 F800
G1 X32.516 Y31.706 Z0 F800
G1 X32.781 Y31.637 Z0 F800
G1 X33.026 Y31.569 Z0 F800
G1 X33.222 Y31.51 Z0 F800
G1 X33.34 Y31.466 Z0 F800
G1 X33.477 Y31.402 Z0 F800
G1 X33.724 Y31.292 Z0 F800
G1 X35.308 Y30.596 Z0 F800
G1 X37.643 Y30.505 Z0 F800
G1 X41.9 Y30.642 Z0 F800
G1 X45.608 Y30.459 Z0 F800
G1 X46.478 Y31.191 Z0 F800
G1 X46.249 Y35.174 Z0 F800
G1 X47.576 Y35.952 Z0 F800
G1 X47.485 Y41.216 Z0 F800
G1 Y47.671 Z0 F800
G1 X48.766 Y48.175 Z0 F800
G1 X49.224 Y44.741 Z0 F800
G1 X47.988 Y41.857 Z0 F800
G1 X48.146 Y41.409 Z0 F800
G1 X48.498 Y40.398 Z0 F800
G1 X48.688 Y39.839 Z0 F800
G1 X48.857 Y39.327 Z0 F800
G1 X48.927 Y39.109 Z0 F800
G1 X48.983 Y38.926 Z0 F800
G1 X49.022 Y38.787 Z0 F800
G1 X49.041 Y38.699 Z0 F800
G1 Y38.62 Z0 F800
G1 X49.019 Y38.506 Z0 F800
G1 X48.982 Y38.364 Z0 F800
G1 X48.932 Y38.199 Z0 F800
G1 X48.801 Y37.819 Z0 F800
G1 X48.646 Y37.411 Z0 F800
G1 X48.49 Y37.018 Z0 F800
G1 X48.352 Y36.684 Z0 F800
G1 X48.217 Y36.364 Z0 F800
G1 X49.041 Y35.906 Z0 F800
G1 X50.323 Y37.051 Z0 F800
G1 X50.369 Y39.431 Z0 F800
G1 X49.362 Y41.674 Z0 F800
G1 X49.651 Y42.121 Z0 F800
G1 X49.819 Y42.389 Z0 F800
G1 X49.987 Y42.669 Z0 F800
G1 X50.134 Y42.929 Z0 F800
G1 X50.193 Y43.044 Z0 F800
G1 X50.238 Y43.142 Z0 F800
G1 X50.267 Y43.221 Z0 F800
G1 X50.277 Y43.276 Z0 F800
G1 X50.27 Y43.759 Z0 F800
G1 X50.231 Y45.748 Z0 F800
G1 X50.46 Y47.488 Z0 F800
G1 X50.663 Y47.491 Z0 F800
G1 X50.866 Y47.488 Z0 F800
G1 X51.09 Y47.476 Z0 F800
G1 X51.301 Y47.452 Z0 F800
G1 X51.464 Y47.411 Z0 F800
G1 X51.518 Y47.382 Z0 F800
G1 X51.547 Y47.348 Z0 F800
G1 Y47.307 Z0 F800
G1 X51.513 Y47.259 Z0 F800
G1 X51.459 Y47.172 Z0 F800
G1 X51.399 Y47.019 Z0 F800
G1 X51.335 Y46.811 Z0 F800
G1 X51.269 Y46.557 Z0 F800
G1 X51.132 Y45.951 Z0 F800
G1 X50.998 Y45.279 Z0 F800
G1 X50.877 Y44.621 Z0 F800
G1 X50.779 Y44.053 Z0 F800
G1 X50.689 Y43.505 Z0 F800
G1 X50.46 Y40.255 Z0 F800
G1 X50.689 Y39.168 Z0 F800
G1 X50.773 Y38.749 Z0 F800
G1 X50.846 Y38.363 Z0 F800
G1 X50.876 Y38.196 Z0 F800
G1 X50.898 Y38.056 Z0 F800
G1 X50.913 Y37.947 Z0 F800
G1 X50.918 Y37.875 Z0 F800
G1 X50.915 Y37.807 Z0 F800
G1 X50.897 Y37.587 Z0 F800
G1 X50.846 Y37.117 Z0 F800
G1 X50.804 Y36.765 Z0 F800
G1 X50.689 Y35.861 Z0 F800
G1 X51.513 Y36.227 Z0 F800
G1 Y47.03 Z0 F800
G1 X52.749 Y48.083 Z0 F800
G1 X59.112 Y48.129 Z0 F800
G1 X58.746 Y44.695 Z0 F800
G1 X59.295 Y43.139 Z0 F800
G1 X58.196 Y42.818 Z0 F800
G1 X59.295 Y42.956 Z0 F800
G1 X59.753 Y44.421 Z0 F800
G1 Y46.114 Z0 F800
G1 X59.89 Y47.259 Z0 F800
G1 X59.753 Y48.54 Z0 F800
G1 X59.02 Y49.41 Z0 F800
G1 X58.013 Y48.678 Z0 F800
G1 X58.654 Y47.533 Z0 F800
G1 X58.517 Y45.565 Z0 F800
G1 X58.379 Y43.734 Z0 F800
G1 X58.013 Y44.833 Z0 F800
G1 X58.196 Y47.03 Z0 F800
G1 X57.601 Y48.083 Z0 F800
G1 X51.284 Y48.129 Z0 F800
G1 X50.002 Y48.22 Z0 F800
G1 X48.217 Y48.632 Z0 F800
G1 X47.21 Y47.991 Z0 F800
G1 X47.576 Y46.755 Z0 F800
G1 X50.368 Y47.533 Z0 F800
G1 X51.376 Y46.709 Z0 F800
G1 X51.433 Y46.609 Z0 F800
G1 X51.482 Y46.507 Z0 F800
G1 X51.524 Y46.389 Z0 F800
G1 X51.545 Y46.271 Z0 F800
G1 X51.53 Y46.169 Z0 F800
G1 X51.463 Y46.096 Z0 F800
G1 X51.33 Y46.069 Z0 F800
G1 X50.722 Y46.076 Z0 F800
G1 X48.675 Y46.114 Z0 F800
G1 X47.53 Y45.977 Z0 F800
G1 X47.57 Y45.798 Z0 F800
G1 X47.615 Y45.615 Z0 F800
G1 X47.673 Y45.405 Z0 F800
G1 X47.743 Y45.195 Z0 F800
G1 X47.82 Y45.011 Z0 F800
G1 X47.903 Y44.882 Z0 F800
G1 X47.988 Y44.833 Z0 F800
G1 X48.049 Y44.84 Z0 F800
G1 X48.142 Y44.86 Z0 F800
G1 X48.263 Y44.892 Z0 F800
G1 X48.406 Y44.933 Z0 F800
G1 X48.74 Y45.035 Z0 F800
G1 X49.104 Y45.153 Z0 F800
G1 X49.457 Y45.271 Z0 F800
G1 X50.048 Y45.474 Z0 F800
G1 X51.742 Y44.787 Z0 F800
G1 X51.737 Y44.65 Z0 F800
G1 X51.725 Y44.509 Z0 F800
G1 X51.702 Y44.346 Z0 F800
G1 X51.663 Y44.181 Z0 F800
G1 X51.607 Y44.034 Z0 F800
G1 X51.527 Y43.924 Z0 F800
G1 X51.421 Y43.871 Z0 F800
G1 X51.344 Y43.866 Z0 F800
G1 X51.235 Z0 F800
G1 X51.099 Y43.871 Z0 F800
G1 X50.943 Y43.881 Z0 F800
G1 X50.585 Y43.909 Z0 F800
G1 X50.202 Y43.946 Z0 F800
G1 X49.835 Y43.984 Z0 F800
G1 X49.224 Y44.054 Z0 F800
G1 X49.027 Y44.084 Z0 F800
G1 X48.818 Y44.108 Z0 F800
G1 X48.572 Y44.123 Z0 F800
G1 X48.312 Z0 F800
G1 X48.065 Y44.093 Z0 F800
G1 X47.857 Y44.028 Z0 F800
G1 X47.713 Y43.917 Z0 F800
G1 X47.453 Y43.694 Z0 F800
G1 X47.175 Y43.539 Z0 F800
G1 X47.073 Y43.472 Z0 F800
G1 X47.018 Y43.402 Z0 F800
G1 X47.027 Y43.324 Z0 F800
G1 X47.118 Y43.23 Z0 F800
G1 X47.31 Y43.132 Z0 F800
G1 X47.587 Y43.043 Z0 F800
G1 X47.916 Y42.965 Z0 F800
G1 X48.263 Y42.899 Z0 F800
G1 X48.592 Y42.845 Z0 F800
G1 X48.869 Y42.806 Z0 F800
G1 X49.132 Y42.773 Z0 F800
G1 X50.735 Y43.23 Z0 F800
G1 X51.833 Y42.498 Z0 F800
G1 X51.808 Y42.472 Z0 F800
G1 X51.737 Y42.404 Z0 F800
G1 X51.623 Y42.307 Z0 F800
G1 X51.473 Y42.195 Z0 F800
G1 X51.29 Y42.08 Z0 F800
G1 X51.08 Y41.977 Z0 F800
G1 X50.848 Y41.898 Z0 F800
G1 X50.597 Y41.857 Z0 F800
G1 X50.297 Y41.862 Z0 F800
G1 X49.932 Y41.902 Z0 F800
G1 X49.53 Y41.967 Z0 F800
G1 X49.121 Y42.046 Z0 F800
G1 X48.396 Y42.198 Z0 F800
G1 X48.138 Y42.25 Z0 F800
G1 X48.047 Y42.264 Z0 F800
G1 X47.988 Y42.269 Z0 F800
G1 X47.836 Y42.273 Z0 F800
G1 X47.577 Y42.283 Z0 F800
G1 X46.895 Y42.315 Z0 F800
G1 X45.974 Y42.361 Z0 F800
G1 X45.287 Y42.956 Z0 F800
G1 X44.967 Y42.544 Z0 F800
G1 X45.196 Y41.628 Z0 F800
G1 X45.241 Y40.942 Z0 F800
G1 X46.249 Y40.347 Z0 F800
G1 X46.569 Y41.354 Z0 F800
G1 X48.675 Y40.942 Z0 F800
G1 X49.911 Y40.713 Z0 F800
G1 X51.742 Y41.216 Z0 F800
G1 X52.199 Y39.66 Z0 F800
G1 X52.044 Y39.621 Z0 F800
G1 X51.876 Y39.585 Z0 F800
G1 X51.673 Y39.551 Z0 F800
G1 X51.453 Y39.528 Z0 F800
G1 X51.234 Y39.525 Z0 F800
G1 X51.034 Y39.55 Z0 F800
G1 X50.872 Y39.614 Z0 F800
G1 X50.231 Y40.02 Z0 F800
G1 X49.865 Y40.255 Z0 F800
G1 X48.217 Y39.614 Z0 F800
G1 X48.088 Y39.673 Z0 F800
G1 X47.956 Y39.725 Z0 F800
G1 X47.805 Y39.774 Z0 F800
G1 X47.654 Y39.806 Z0 F800
G1 X47.522 Z0 F800
G1 X47.428 Y39.763 Z0 F800
G1 X47.393 Y39.66 Z0 F800
G1 X47.37 Y39.168 Z0 F800
G1 X47.393 Y38.99 Z0 F800
G1 X47.485 Y38.882 Z0 F800
G1 X47.543 Y38.861 Z0 F800
G1 X47.645 Y38.834 Z0 F800
G1 X47.785 Y38.801 Z0 F800
G1 X47.955 Y38.764 Z0 F800
G1 X48.362 Y38.682 Z0 F800
G1 X48.812 Y38.596 Z0 F800
G1 X49.635 Y38.444 Z0 F800
G1 X50.002 Y38.378 Z0 F800
G1 X50.019 Y38.428 Z0 F800
G1 X50.071 Y38.533 Z0 F800
G1 X50.157 Y38.629 Z0 F800
G1 X50.277 Y38.653 Z0 F800
G1 X50.385 Y38.622 Z0 F800
G1 X50.554 Y38.569 Z0 F800
G1 X50.986 Y38.43 Z0 F800
G1 X51.559 Y38.241 Z0 F800
G1 X51.925 Y36.73 Z0 F800
G1 X51.009 Y36.776 Z0 F800
G1 X49.636 Y37.6 Z0 F800
G1 X48.034 Y37.554 Z0 F800
G1 X47.393 Y36.913 Z0 F800
G1 X47.276 Y36.769 Z0 F800
G1 X47.161 Y36.619 Z0 F800
G1 X47.038 Y36.444 Z0 F800
G1 X46.928 Y36.265 Z0 F800
G1 X46.852 Y36.102 Z0 F800
G1 X46.832 Y35.976 Z0 F800
G1 X46.889 Y35.906 Z0 F800
G1 X47.035 Y35.884 Z0 F800
G1 X47.248 Z0 F800
G1 X47.503 Y35.895 Z0 F800
G1 X47.771 Y35.918 Z0 F800
G1 X48.026 Y35.945 Z0 F800
G1 X48.241 Y35.971 Z0 F800
G1 X48.446 Y35.998 Z0 F800
G1 X50.048 Y36.089 Z0 F800
G1 X51.513 Y35.769 Z0 F800
G1 X48.858 Y36.685 Z0 F800
G1 X46.661 Y34.899 Z0 F800
G1 X46.477 Y31.283 Z0 F800
G1 X45.699 Y30.734 Z0 F800
G1 X41.35 Y30.642 Z0 F800
G1 X37.322 Y31.1 Z0 F800
G1 X35.216 Y30.55 Z0 F800
G1 X34.575 Y33.022 Z0 F800
G1 X32.332 Y32.885 Z0 F800
G1 X31.371 Y33.938 Z0 F800
G1 X30.456 Y35.266 Z0 F800
G1 X30.501 Y36.776 Z0 F800
G1 X28.762 Y37.097 Z0 F800
G1 X26.977 Z0 F800
G1 X26.336 Y36.73 Z0 F800
G1 X24.917 Y37.463 Z0 F800
G1 X24.276 Y39.202 Z0 F800
G1 X24.093 Y40.392 Z0 F800
G1 X24.367 Y41.445 Z0 F800
G1 X24.413 Y42.086 Z0 F800
G1 X23.223 Y42.269 Z0 F800
G1 X21.346 Y42.04 Z0 F800
G1 X20.476 Y41.491 Z0 F800
G1 X20.522 Y40.896 Z0 F800
G1 X21.895 Y40.804 Z0 F800
G1 X22.17 Y41.216 Z0 F800
G1 X24.093 Y41.491 Z0 F800
G1 X23.04 Y40.713 Z0 F800
G1 X22.859 Y40.693 Z0 F800
G1 X22.68 Y40.665 Z0 F800
G1 X22.485 Y40.621 Z0 F800
G1 X22.304 Y40.561 Z0 F800
G1 X22.171 Y40.481 Z0 F800
G1 X22.131 Y40.433 Z0 F800
G1 X22.115 Y40.38 Z0 F800
G1 X22.127 Y40.321 Z0 F800
G1 X22.17 Y40.255 Z0 F800
G1 X22.317 Y40.124 Z0 F800
G1 X22.505 Y40.008 Z0 F800
G1 X22.716 Y39.906 Z0 F800
G1 X22.931 Y39.82 Z0 F800
G1 X23.131 Y39.752 Z0 F800
G1 X23.297 Y39.702 Z0 F800
G1 X23.452 Y39.66 Z0 F800
G1 X22.399 Y42.727 Z0 F800
G1 X20.934 Y41.308 Z0 F800
G1 X24.001 Y38.79 Z0 F800
G1 X22.399 Y38.973 Z0 F800
G1 X22.811 Y37.417 Z0 F800
G1 X22.399 Y36.593 Z0 F800
G1 X23.223 Y35.449 Z0 F800
G1 X22.719 Y34.396 Z0 F800
G1 X23.452 Y33.618 Z0 F800
G1 X22.811 Y33.297 Z0 F800
G1 X22.17 Y32.702 Z0 F800
G1 X21.758 Y31.695 Z0 F800
G1 X22.307 Y30.505 Z0 F800
;Layer C3 Pass 2 of 2
G1 X24.962 Y30.459 Z0 F800
G1 X26.427 Y31.237 Z0 F800
G1 X26.552 Y31.334 Z0 F800
G1 X26.674 Y31.44 Z0 F800
G1 X26.805 Y31.569 Z0 F800
G1 X26.923 Y31.711 Z0 F800
G1 X27.007 Y31.855 Z0 F800
G1 X27.032 Y31.991 Z0 F800
G1 X26.977 Y32.107 Z0 F800
G1 X26.856 Y32.235 Z0 F800
G1 X26.711 Y32.402 Z0 F800
G1 X26.552 Y32.59 Z0 F800
G1 X26.393 Y32.782 Z0 F800
G1 X26.015 Y33.251 Z0 F800
G1 X23.772 Y33.297 Z0 F800
G1 X24.184 Y34.579 Z0 F800
G1 X23.498 Y35.037 Z0 F800
G1 X24.322 Y36.318 Z0 F800
G1 X23.452 Y37.188 Z0 F800
G1 X24.367 Y38.195 Z0 F800
G1 X25.191 Y36.547 Z0 F800
G1 X24.734 Y35.586 Z0 F800
G1 X24.915 Y35.497 Z0 F800
G1 X25.096 Y35.4 Z0 F800
G1 X25.294 Y35.283 Z0 F800
G1 X25.48 Y35.155 Z0 F800
G1 X25.622 Y35.026 Z0 F800
G1 X25.667 Y34.965 Z0 F800
G1 X25.689 Y34.907 Z0 F800
G1 X25.684 Y34.854 Z0 F800
G1 X25.649 Y34.808 Z0 F800
G1 X25.433 Y34.611 Z0 F800
G1 X25.226 Y34.402 Z0 F800
G1 X25.07 Y34.235 Z0 F800
G1 X25.008 Y34.167 Z0 F800
G1 X26.748 Y33.618 Z0 F800
G1 X27.892 Y32.519 Z0 F800
G1 X27.801 Y31.42 Z0 F800
G1 X26.748 Y30.642 Z0 F800
G1 X28.35 Y30.871 Z0 F800
G1 X28.945 Y31.924 Z0 F800
G1 X28.999 Y32.134 Z0 F800
G1 X29.049 Y32.354 Z0 F800
G1 X29.1 Y32.611 Z0 F800
G1 X29.139 Y32.876 Z0 F800
G1 X29.157 Y33.121 Z0 F800
G1 X29.142 Y33.317 Z0 F800
G1 X29.082 Y33.435 Z0 F800
G1 X28.965 Y33.522 Z0 F800
G1 X28.8 Y33.641 Z0 F800
G1 X28.401 Y33.915 Z0 F800
G1 X27.892 Y34.258 Z0 F800
G1 X25.649 Y35.311 Z0 F800
G1 X26.244 Y36.135 Z0 F800
G1 X27.572 Y36.09 Z0 F800
G1 X27.902 Y36.109 Z0 F800
G1 X28.104 Y36.124 Z0 F800
G1 X28.316 Y36.143 Z0 F800
G1 X28.518 Y36.167 Z0 F800
G1 X28.689 Y36.195 Z0 F800
G1 X28.808 Y36.227 Z0 F800
G1 X28.905 Y36.224 Z0 F800
G1 X29.019 Y36.158 Z0 F800
G1 X29.14 Y36.05 Z0 F800
G1 X29.26 Y35.918 Z0 F800
G1 X29.369 Y35.782 Z0 F800
G1 X29.458 Y35.66 Z0 F800
G1 X29.54 Y35.54 Z0 F800
G1 X29.398 Y35.471 Z0 F800
G1 X29.243 Y35.403 Z0 F800
G1 X29.054 Y35.329 Z0 F800
G1 X28.845 Y35.261 Z0 F800
G1 X28.632 Y35.212 Z0 F800
G1 X28.432 Y35.194 Z0 F800
G1 X28.258 Y35.22 Z0 F800
G1 X27.881 Y35.283 Z0 F800
G1 X27.469 Z0 F800
G1 X27.298 Y35.265 Z0 F800
G1 X27.177 Y35.239 Z0 F800
G1 X27.124 Y35.208 Z0 F800
G1 X27.16 Y35.174 Z0 F800
G1 X27.221 Y35.146 Z0 F800
G1 X27.314 Y35.099 Z0 F800
G1 X27.435 Y35.034 Z0 F800
G1 X27.912 Y34.772 Z0 F800
G1 X28.276 Y34.567 Z0 F800
G1 X29.22 Y34.03 Z0 F800
G1 X30.41 Y34.579 Z0 F800
G1 X30.53 Y34.489 Z0 F800
G1 X30.651 Y34.391 Z0 F800
G1 X30.788 Y34.27 Z0 F800
G1 X30.92 Y34.136 Z0 F800
G1 X31.028 Y34 Z0 F800
G1 X31.093 Y33.869 Z0 F800
G1 X31.097 Y33.755 Z0 F800
G1 X31.031 Y33.631 Z0 F800
G1 X30.915 Y33.475 Z0 F800
G1 X30.767 Y33.301 Z0 F800
G1 X30.604 Y33.125 Z0 F800
G1 X30.447 Y32.963 Z0 F800
G1 X30.311 Y32.828 Z0 F800
G1 X30.181 Y32.702 Z0 F800
G1 X29.769 Y31.558 Z0 F800
G1 X29.54 Y30.779 Z0 F800
G1 X30.273 Y30.734 Z0 F800
G1 X30.492 Y30.977 Z0 F800
G1 X30.622 Y31.128 Z0 F800
G1 X30.753 Y31.29 Z0 F800
G1 X30.871 Y31.448 Z0 F800
G1 X30.96 Y31.588 Z0 F800
G1 X31.005 Y31.695 Z0 F800
G1 X31.044 Y31.806 Z0 F800
G1 X31.117 Y31.956 Z0 F800
G1 X31.213 Y32.129 Z0 F800
G1 X31.32 Y32.307 Z0 F800
G1 X31.424 Y32.475 Z0 F800
G1 X31.6 Y32.748 Z0 F800
G1 X34.255 Y31.42 Z0 F800
G1 X33.294 Y30.779 Z0 F800
G1 X31.783 Y31.329 Z0 F800
G1 X31.829 Y31.878 Z0 F800
G1 X32.039 Y31.827 Z0 F800
G1 X32.516 Y31.706 Z0 F800
G1 X32.781 Y31.637 Z0 F800
G1 X33.026 Y31.569 Z0 F800
G1 X33.222 Y31.51 Z0 F800
G1 X33.34 Y31.466 Z0 F800
G1 X33.477 Y31.402 Z0 F800
G1 X33.724 Y31.292 Z0 F800
G1 X35.308 Y30.596 Z0 F800
G1 X37.643 Y30.505 Z0 F800
G1 X41.9 Y30.642 Z0 F800
G1 X45.608 Y30.459 Z0 F800
G1 X46.478 Y31.191 Z0 F800
G1 X46.249 Y35.174 Z0 F800
G1 X47.576 Y35.952 Z0 F800
G1 X47.485 Y41.216 Z0 F800
G1 Y47.671 Z0 F800
G1 X48.766 Y48.175 Z0 F800
G1 X49.224 Y44.741 Z0 F800
G1 X47.988 Y41.857 Z0 F800
G1 X48.146 Y41.409 Z0 F800
G1 X48.498 Y40.398 Z0 F800
G1 X48.688 Y39.839 Z0 F800
G1 X48.857 Y39.327 Z0 F800
G1 X48.927 Y39.109 Z0 F800
G1 X48.983 Y38.926 Z0 F800
G1 X49.022 Y38.787 Z0 F800
G1 X49.041 Y38.699 Z0 F800
G1 Y38.62 Z0 F800
G1 X49.019 Y38.506 Z0 F800
G1 X48.982 Y38.364 Z0 F800
G1 X48.932 Y38.199 Z0 F800
G1 X48.801 Y37.819 Z0 F800
G1 X48.646 Y37.411 Z0 F800
G1 X48.49 Y37.018 Z0 F800
G1 X48.352 Y36.684 Z0 F800
G1 X48.217 Y36.364 Z0 F800
G1 X49.041 Y35.906 Z0 F800
G1 X50.323 Y37.051 Z0 F800
G1 X50.369 Y39.431 Z0 F800
G1 X49.362 Y41.674 Z0 F800
G1 X49.651 Y42.121 Z0 F800
G1 X49.819 Y42.389 Z0 F800
G1 X49.987 Y42.669 Z0 F800
G1 X50.134 Y42.929 Z0 F800
G1 X50.193 Y43.044 Z0 F800
G1 X50.238 Y43.142 Z0 F800
G1 X50.267 Y43.221 Z0 F800
G1 X50.277 Y43.276 Z0 F800
G1 X50.27 Y43.759 Z0 F800
G1 X50.231 Y45.748 Z0 F800
G1 X50.46 Y47.488 Z0 F800
G1 X50.663 Y47.491 Z0 F800
G1 X50.866 Y47.488 Z0 F800
G1 X51.09 Y47.476 Z0 F800
G1 X51.301 Y47.452 Z0 F800
G1 X51.464 Y47.411 Z0 F800
G1 X51.518 Y47.382 Z0 F800
G1 X51.547 Y47.348 Z0 F800
G1 Y47.307 Z0 F800
G1 X51.513 Y47.259 Z0 F800
G1 X51.459 Y47.172 Z0 F800
G1 X51.399 Y47.019 Z0 F800
G1 X51.335 Y46.811 Z0 F800
G1 X51.269 Y46.557 Z0 F800
G1 X51.132 Y45.951 Z0 F800
G1 X50.998 Y45.279 Z0 F800
G1 X50.877 Y44.621 Z0 F800
G1 X50.779 Y44.053 Z0 F800
G1 X50.689 Y43.505 Z0 F800
G1 X50.46 Y40.255 Z0 F800
G1 X50.689 Y39.168 Z0 F800
G1 X50.773 Y38.749 Z0 F800
G1 X50.846 Y38.363 Z0 F800
G1 X50.876 Y38.196 Z0 F800
G1 X50.898 Y38.056 Z0 F800
G1 X50.913 Y37.947 Z0 F800
G1 X50.918 Y37.875 Z0 F800
G1 X50.915 Y37.807 Z0 F800
G1 X50.897 Y37.587 Z0 F800
G1 X50.846 Y37.117 Z0 F800
G1 X50.804 Y36.765 Z0 F800
G1 X50.689 Y35.861 Z0 F800
G1 X51.513 Y36.227 Z0 F800
G1 Y47.03 Z0 F800
G1 X52.749 Y48.083 Z0 F800
G1 X59.112 Y48.129 Z0 F800
G1 X58.746 Y44.695 Z0 F800
G1 X59.295 Y43.139 Z0 F800
G1 X58.196 Y42.818 Z0 F800
G1 X59.295 Y42.956 Z0 F800
G1 X59.753 Y44.421 Z0 F800
G1 Y46.114 Z0 F800
G1 X59.89 Y47.259 Z0 F800
G1 X59.753 Y48.54 Z0 F800
G1 X59.02 Y49.41 Z0 F800
G1 X58.013 Y48.678 Z0 F800
G1 X58.654 Y47.533 Z0 F800
G1 X58.517 Y45.565 Z0 F800
G1 X58.379 Y43.734 Z0 F800
G1 X58.013 Y44.833 Z0 F800
G1 X58.196 Y47.03 Z0 F800
G1 X57.601 Y48.083 Z0 F800
G1 X51.284 Y48.129 Z0 F800
G1 X50.002 Y48.22 Z0 F800
G1 X48.217 Y48.632 Z0 F800
G1 X47.21 Y47.991 Z0 F800
G1 X47.576 Y46.755 Z0 F800
G1 X50.368 Y47.533 Z0 F800
G1 X51.376 Y46.709 Z0 F800
G1 X51.433 Y46.609 Z0 F800
G1 X51.482 Y46.507 Z0 F800
G1 X51.524 Y46.389 Z0 F800
G1 X51.545 Y46.271 Z0 F800
G1 X51.53 Y46.169 Z0 F800
G1 X51.463 Y46.096 Z0 F800
G1 X51.33 Y46.069 Z0 F800
G1 X50.722 Y46.076 Z0 F800
G1 X48.675 Y46.114 Z0 F800
G1 X47.53 Y45.977 Z0 F800
G1 X47.57 Y45.798 Z0 F800
G1 X47.615 Y45.615 Z0 F800
G1 X47.673 Y45.405 Z0 F800
G1 X47.743 Y45.195 Z0 F800
G1 X47.82 Y45.011 Z0 F800
G1 X47.903 Y44.882 Z0 F800
G1 X47.988 Y44.833 Z0 F800
G1 X48.049 Y44.84 Z0 F800
G1 X48.142 Y44.86 Z0 F800
G1 X48.263 Y44.892 Z0 F800
G1 X48.406 Y44.933 Z0 F800
G1 X48.74 Y45.035 Z0 F800
G1 X49.104 Y45.153 Z0 F800
G1 X49.457 Y45.271 Z0 F800
G1 X50.048 Y45.474 Z0 F800
G1 X51.742 Y44.787 Z0 F800
G1 X51.737 Y44.65 Z0 F800
G1 X51.725 Y44.509 Z0 F800
G1 X51.702 Y44.346 Z0 F800
G1 X51.663 Y44.181 Z0 F800
G1 X51.607 Y44.034 Z0 F800
G1 X51.527 Y43.924 Z0 F800
G1 X51.421 Y43.871 Z0 F800
G1 X51.344 Y43.866 Z0 F800
G1 X51.235 Z0 F800
G1 X51.099 Y43.871 Z0 F800
G1 X50.943 Y43.881 Z0 F800
G1 X50.585 Y43.909 Z0 F800
G1 X50.202 Y43.946 Z0 F800
G1 X49.835 Y43.984 Z0 F800
G1 X49.224 Y44.054 Z0 F800
G1 X49.027 Y44.084 Z0 F800
G1 X48.818 Y44.108 Z0 F800
G1 X48.572 Y44.123 Z0 F800
G1 X48.312 Z0 F800
G1 X48.065 Y44.093 Z0 F800
G1 X47.857 Y44.028 Z0 F800
G1 X47.713 Y43.917 Z0 F800
G1 X47.453 Y43.694 Z0 F800
G1 X47.175 Y43.539 Z0 F800
G1 X47.073 Y43.472 Z0 F800
G1 X47.018 Y43.402 Z0 F800
G1 X47.027 Y43.324 Z0 F800
G1 X47.118 Y43.23 Z0 F800
G1 X47.31 Y43.132 Z0 F800
G1 X47.587 Y43.043 Z0 F800
G1 X47.916 Y42.965 Z0 F800
G1 X48.263 Y42.899 Z0 F800
G1 X48.592 Y42.845 Z0 F800
G1 X48.869 Y42.806 Z0 F800
G1 X49.132 Y42.773 Z0 F800
G1 X50.735 Y43.23 Z0 F800
G1 X51.833 Y42.498 Z0 F800
G1 X51.808 Y42.472 Z0 F800
G1 X51.737 Y42.404 Z0 F800
G1 X51.623 Y42.307 Z0 F800
G1 X51.473 Y42.195 Z0 F800
G1 X51.29 Y42.08 Z0 F800
G1 X51.08 Y41.977 Z0 F800
G1 X50.848 Y41.898 Z0 F800
G1 X50.597 Y41.857 Z0 F800
G1 X50.297 Y41.862 Z0 F800
G1 X49.932 Y41.902 Z0 F800
G1 X49.53 Y41.967 Z0 F800
G1 X49.121 Y42.046 Z0 F800
G1 X48.396 Y42.198 Z0 F800
G1 X48.138 Y42.25 Z0 F800
G1 X48.047 Y42.264 Z0 F800
G1 X47.988 Y42.269 Z0 F800
G1 X47.836 Y42.273 Z0 F800
G1 X47.577 Y42.283 Z0 F800
G1 X46.895 Y42.315 Z0 F800
G1 X45.974 Y42.361 Z0 F800
G1 X45.287 Y42.956 Z0 F800
G1 X44.967 Y42.544 Z0 F800
G1 X45.196 Y41.628 Z0 F800
G1 X45.241 Y40.942 Z0 F800
G1 X46.249 Y40.347 Z0 F800
G1 X46.569 Y41.354 Z0 F800
G1 X48.675 Y40.942 Z0 F800
G1 X49.911 Y40.713 Z0 F800
G1 X51.742 Y41.216 Z0 F800
G1 X52.199 Y39.66 Z0 F800
G1 X52.044 Y39.621 Z0 F800
G1 X51.876 Y39.585 Z0 F800
G1 X51.673 Y39.551 Z0 F800
G1 X51.453 Y39.528 Z0 F800
G1 X51.234 Y39.525 Z0 F800
G1 X51.034 Y39.55 Z0 F800
G1 X50.872 Y39.614 Z0 F800
G1 X50.231 Y40.02 Z0 F800
G1 X49.865 Y40.255 Z0 F800
G1 X48.217 Y39.614 Z0 F800
G1 X48.088 Y39.673 Z0 F800
G1 X47.956 Y39.725 Z0 F800
G1 X47.805 Y39.774 Z0 F800
G1 X47.654 Y39.806 Z0 F800
G1 X47.522 Z0 F800
G1 X47.428 Y39.763 Z0 F800
G1 X47.393 Y39.66 Z0 F800
G1 X47.37 Y39.168 Z0 F800
G1 X47.393 Y38.99 Z0 F800
G1 X47.485 Y38.882 Z0 F800
G1 X47.543 Y38.861 Z0 F800
G1 X47.645 Y38.834 Z0 F800
G1 X47.785 Y38.801 Z0 F800
G1 X47.955 Y38.764 Z0 F800
G1 X48.362 Y38.682 Z0 F800
G1 X48.812 Y38.596 Z0 F800
G1 X49.635 Y38.444 Z0 F800
G1 X50.002 Y38.378 Z0 F800
G1 X50.019 Y38.428 Z0 F800
G1 X50.071 Y38.533 Z0 F800
G1 X50.157 Y38.629 Z0 F800
G1 X50.277 Y38.653 Z0 F800
G1 X50.385 Y38.622 Z0 F800
G1 X50.554 Y38.569 Z0 F800
G1 X50.986 Y38.43 Z0 F800
G1 X51.559 Y38.241 Z0 F800
G1 X51.925 Y36.73 Z0 F800
G1 X51.009 Y36.776 Z0 F800
G1 X49.636 Y37.6 Z0 F800
G1 X48.034 Y37.554 Z0 F800
G1 X47.393 Y36.913 Z0 F800
G1 X47.276 Y36.769 Z0 F800
G1 X47.161 Y36.619 Z0 F800
G1 X47.038 Y36.444 Z0 F800
G1 X46.928 Y36.265 Z0 F800
G1 X46.852 Y36.102 Z0 F800
G1 X46.832 Y35.976 Z0 F800
G1 X46.889 Y35.906 Z0 F800
G1 X47.035 Y35.884 Z0 F800
G1 X47.248 Z0 F800
G1 X47.503 Y35.895 Z0 F800
G1 X47.771 Y35.918 Z0 F800
G1 X48.026 Y35.945 Z0 F800
G1 X48.241 Y35.971 Z0 F800
G1 X48.446 Y35.998 Z0 F800
G1 X50.048 Y36.089 Z0 F800
G1 X51.513 Y35.769 Z0 F800
G1 X48.858 Y36.685 Z0 F800
G1 X46.661 Y34.899 Z0 F800
G1 X46.477 Y31.283 Z0 F800
G1 X45.699 Y30.734 Z0 F800
G1 X41.35 Y30.642 Z0 F800
G1 X37.322 Y31.1 Z0 F800
G1 X35.216 Y30.55 Z0 F800
G1 X34.575 Y33.022 Z0 F800
G1 X32.332 Y32.885 Z0 F800
G1 X31.371 Y33.938 Z0 F800
G1 X30.456 Y35.266 Z0 F800
G1 X30.501 Y36.776 Z0 F800
G1 X28.762 Y37.097 Z0 F800
G1 X26.977 Z0 F800
G1 X26.336 Y36.73 Z0 F800
G1 X24.917 Y37.463 Z0 F800
G1 X24.276 Y39.202 Z0 F800
G1 X24.093 Y40.392 Z0 F800
G1 X24.367 Y41.445 Z0 F800
G1 X24.413 Y42.086 Z0 F800
G1 X23.223 Y42.269 Z0 F800
G1 X21.346 Y42.04 Z0 F800
G1 X20.476 Y41.491 Z0 F800
G1 X20.522 Y40.896 Z0 F800
G1 X21.895 Y40.804 Z0 F800
G1 X22.17 Y41.216 Z0 F800
G1 X24.093 Y41.491 Z0 F800
G1 X23.04 Y40.713 Z0 F800
G1 X22.859 Y40.693 Z0 F800
G1 X22.68 Y40.665 Z0 F800
G1 X22.485 Y40.621 Z0 F800
G1 X22.304 Y40.561 Z0 F800
G1 X22.171 Y40.481 Z0 F800
G1 X22.131 Y40.433 Z0 F800
G1 X22.115 Y40.38 Z0 F800
G1 X22.127 Y40.321 Z0 F800
G1 X22.17 Y40.255 Z0 F800
G1 X22.317 Y40.124 Z0 F800
G1 X22.505 Y40.008 Z0 F800
G1 X22.716 Y39.906 Z0 F800
G1 X22.931 Y39.82 Z0 F800
G1 X23.131 Y39.752 Z0 F800
G1 X23.297 Y39.702 Z0 F800
G1 X23.452 Y39.66 Z0 F800
G1 X22.399 Y42.727 Z0 F800
G1 X20.934 Y41.308 Z0 F800
G1 X24.001 Y38.79 Z0 F800
G1 X22.399 Y38.973 Z0 F800
G1 X22.811 Y37.417 Z0 F800
G1 X22.399 Y36.593 Z0 F800
G1 X23.223 Y35.449 Z0 F800
G1 X22.719 Y34.396 Z0 F800
G1 X23.452 Y33.618 Z0 F800
G1 X22.811 Y33.297 Z0 F800
G1 X22.17 Y32.702 Z0 F800
G1 X21.758 Y31.695 Z0 F800
G1 X22.307 Y30.505 Z0 F800
G0 Z3.5 F500
G0 X33.751 Y35.86 Z3.5 F444
G1 Z0 F500
;Layer C3 Pass 1 of 2
G1 X35.125 Y35.998 Z0 F800
G1 X37.185 Y35.952 Z0 F800
G1 X37.459 Y36.364 Z0 F800
G1 X37.551 Y37.737 Z0 F800
G1 X37.368 Y38.332 Z0 F800
G1 X35.491 Y38.012 Z0 F800
G1 X34.026 Y37.92 Z0 F800
G1 X33.568 Y38.103 Z0 F800
G1 X34.163 Y38.378 Z0 F800
G1 X35.811 Z0 F800
G1 X37.414 Y38.561 Z0 F800
G1 X37.917 Y39.889 Z0 F800
G1 X37.871 Y41.125 Z0 F800
G1 Y42.452 Z0 F800
G1 X37.368 Y42.91 Z0 F800
G1 X37.185 Y32.976 Z0 F800
G1 X40.893 Z0 F800
G1 X42.632 Y32.656 Z0 F800
G1 X44.326 Z0 F800
G1 X44.875 Y33.114 Z0 F800
G1 X43.731 Y33.571 Z0 F800
G1 X42.541 Y33.343 Z0 F800
G1 X40.435 Y33.022 Z0 F800
G1 X38.375 Y32.885 Z0 F800
G1 X37.414 Y33.617 Z0 F800
G1 X37.322 Y34.899 Z0 F800
G1 X37.459 Y35.494 Z0 F800
G1 X36.864 Y35.677 Z0 F800
G1 X34.53 Y35.357 Z0 F800
G1 X33.751 Y35.86 Z0 F800
;Layer C3 Pass 2 of 2
G1 X35.125 Y35.998 Z0 F800
G1 X37.185 Y35.952 Z0 F800
G1 X37.459 Y36.364 Z0 F800
G1 X37.551 Y37.737 Z0 F800
G1 X37.368 Y38.332 Z0 F800
G1 X35.491 Y38.012 Z0 F800
G1 X34.026 Y37.92 Z0 F800
G1 X33.568 Y38.103 Z0 F800
G1 X34.163 Y38.378 Z0 F800
G1 X35.811 Z0 F800
G1 X37.414 Y38.561 Z0 F800
G1 X37.917 Y39.889 Z0 F800
G1 X37.871 Y41.125 Z0 F800
G1 Y42.452 Z0 F800
G1 X37.368 Y42.91 Z0 F800
G1 X37.185 Y32.976 Z0 F800
G1 X40.893 Z0 F800
G1 X42.632 Y32.656 Z0 F800
G1 X44.326 Z0 F800
G1 X44.875 Y33.114 Z0 F800
G1 X43.731 Y33.571 Z0 F800
G1 X42.541 Y33.343 Z0 F800
G1 X40.435 Y33.022 Z0 F800
G1 X38.375 Y32.885 Z0 F800
G1 X37.414 Y33.617 Z0 F800
G1 X37.322 Y34.899 Z0 F800
G1 X37.459 Y35.494 Z0 F800
G1 X36.864 Y35.677 Z0 F800
G1 X34.53 Y35.357 Z0 F800
G1 X33.751 Y35.86 Z0 F800
G0 Z3.5 F500
G0 X40.069 Y35.723 Z3.5 
G1 Z0 F500
;Layer C3 Pass 1 of 2
G1 X42.22 Y35.677 Z0 F800
G1 X43.685 Y35.723 Z0 F800
G1 X43.868 Y36.043 Z0 F800
G1 X42.358 Y36.135 Z0 F800
G1 X40.618 Y36.043 Z0 F800
G1 X40.252 Y36.41 Z0 F800
G1 X39.794 Y37.829 Z0 F800
G1 X40.618 Y38.058 Z0 F800
G1 X42.724 Z0 F800
G1 X44.143 Y37.829 Z0 F800
G1 X44.097 Y38.378 Z0 F800
G1 X42.174 Y38.561 Z0 F800
G1 X40.16 Y38.378 Z0 F800
G1 Y40.346 Z0 F800
G1 X40.206 Y42.727 Z0 F800
G1 X40.343 Y43.917 Z0 F800
G1 X40.349 Y44.099 Z0 F800
G1 X40.334 Y44.35 Z0 F800
G1 X40.306 Y44.643 Z0 F800
G1 X40.269 Y44.947 Z0 F800
G1 X40.23 Y45.234 Z0 F800
G1 X40.195 Y45.475 Z0 F800
G1 X40.16 Y45.702 Z0 F800
G1 X39.971 Y45.708 Z0 F800
G1 X39.716 Y45.722 Z0 F800
G1 X39.336 Y45.748 Z0 F800
G1 X39.059 Y45.755 Z0 F800
G1 X38.699 Y45.746 Z0 F800
G1 X38.293 Y45.725 Z0 F800
G1 X37.877 Y45.697 Z0 F800
G1 X37.49 Y45.666 Z0 F800
G1 X37.167 Y45.639 Z0 F800
G1 X36.864 Y45.611 Z0 F800
G1 X35.445 Y44.878 Z0 F800
G1 X34.942 Y44.054 Z0 F800
G1 X34.902 Y43.871 Z0 F800
G1 X34.864 Y43.666 Z0 F800
G1 X34.827 Y43.408 Z0 F800
G1 X34.799 Y43.113 Z0 F800
G1 X34.787 Y42.799 Z0 F800
G1 X34.801 Y42.482 Z0 F800
G1 X34.85 Y42.178 Z0 F800
G1 X34.907 Y41.895 Z0 F800
G1 X34.942 Y41.635 Z0 F800
G1 X34.96 Y41.401 Z0 F800
G1 X34.965 Y41.199 Z0 F800
G1 X34.961 Y41.034 Z0 F800
G1 X34.953 Y40.909 Z0 F800
G1 X34.942 Y40.804 Z0 F800
G1 X34.301 Y40.53 Z0 F800
G1 X34.026 Y41.445 Z0 F800
G1 X34.118 Y42.91 Z0 F800
G1 X33.568 Y42.544 Z0 F800
G1 X33.202 Y40.942 Z0 F800
G1 X34.347 Y41.582 Z0 F800
G1 X34.072 Y44.375 Z0 F800
G1 X35.445 Y44.421 Z0 F800
G1 X36.132 Y45.565 Z0 F800
G1 X37.734 Y46.023 Z0 F800
G1 X40.343 Y45.153 Z0 F800
G1 X40.481 Y38.882 Z0 F800
G1 X40.069 Y35.723 Z0 F800
;Layer C3 Pass 2 of 2
G1 X42.22 Y35.677 Z0 F800
G1 X43.685 Y35.723 Z0 F800
G1 X43.868 Y36.043 Z0 F800
G1 X42.358 Y36.135 Z0 F800
G1 X40.618 Y36.043 Z0 F800
G1 X40.252 Y36.41 Z0 F800
G1 X39.794 Y37.829 Z0 F800
G1 X40.618 Y38.058 Z0 F800
G1 X42.724 Z0 F800
G1 X44.143 Y37.829 Z0 F800
G1 X44.097 Y38.378 Z0 F800
G1 X42.174 Y38.561 Z0 F800
G1 X40.16 Y38.378 Z0 F800
G1 Y40.346 Z0 F800
G1 X40.206 Y42.727 Z0 F800
G1 X40.343 Y43.917 Z0 F800
G1 X40.349 Y44.099 Z0 F800
G1 X40.334 Y44.35 Z0 F800
G1 X40.306 Y44.643 Z0 F800
G1 X40.269 Y44.947 Z0 F800
G1 X40.23 Y45.234 Z0 F800
G1 X40.195 Y45.475 Z0 F800
G1 X40.16 Y45.702 Z0 F800
G1 X39.971 Y45.708 Z0 F800
G1 X39.716 Y45.722 Z0 F800
G1 X39.336 Y45.748 Z0 F800
G1 X39.059 Y45.755 Z0 F800
G1 X38.699 Y45.746 Z0 F800
G1 X38.293 Y45.725 Z0 F800
G1 X37.877 Y45.697 Z0 F800
G1 X37.49 Y45.666 Z0 F800
G1 X37.167 Y45.639 Z0 F800
G1 X36.864 Y45.611 Z0 F800
G1 X35.445 Y44.878 Z0 F800
G1 X34.942 Y44.054 Z0 F800
G1 X34.902 Y43.871 Z0 F800
G1 X34.864 Y43.666 Z0 F800
G1 X34.827 Y43.408 Z0 F800
G1 X34.799 Y43.113 Z0 F800
G1 X34.787 Y42.799 Z0 F800
G1 X34.801 Y42.482 Z0 F800
G1 X34.85 Y42.178 Z0 F800
G1 X34.907 Y41.895 Z0 F800
G1 X34.942 Y41.635 Z0 F800
G1 X34.96 Y41.401 Z0 F800
G1 X34.965 Y41.199 Z0 F800
G1 X34.961 Y41.034 Z0 F800
G1 X34.953 Y40.909 Z0 F800
G1 X34.942 Y40.804 Z0 F800
G1 X34.301 Y40.53 Z0 F800
G1 X34.026 Y41.445 Z0 F800
G1 X34.118 Y42.91 Z0 F800
G1 X33.568 Y42.544 Z0 F800
G1 X33.202 Y40.942 Z0 F800
G1 X34.347 Y41.582 Z0 F800
G1 X34.072 Y44.375 Z0 F800
G1 X35.445 Y44.421 Z0 F800
G1 X36.132 Y45.565 Z0 F800
G1 X37.734 Y46.023 Z0 F800
G1 X40.343 Y45.153 Z0 F800
G1 X40.481 Y38.882 Z0 F800
G1 X40.069 Y35.723 Z0 F800
G0 Z3.5 F500
G0 X42.724 Y40.438 Z3.5 
G1 Z0 F500
;Layer C3 Pass 1 of 2
G1 X42.495 Y48.586 Z0 F800
G1 X39.931 Y48.403 Z0 F800
G1 X37.917 Y48.861 Z0 F800
G1 X36.178 Y48.449 Z0 F800
G1 X34.621 Y47.945 Z0 F800
G1 X33.751 Y47.533 Z0 F800
G1 X32.973 Y47.259 Z0 F800
G1 X32.241 Y48.678 Z0 F800
G1 X32.195 Y50.784 Z0 F800
G1 X33.614 Y50.738 Z0 F800
G1 X32.927 Y48.952 Z0 F800
G1 X32.424 Y47.167 Z0 F800
G1 X33.889 Y48.724 Z0 F800
G1 X35.72 Y48.312 Z0 F800
G1 X38.238 Y48.037 Z0 F800
G1 X40.618 Y48.907 Z0 F800
G1 X42.953 Y48.769 Z0 F800
G1 X43.639 Y47.35 Z0 F800
G1 X43.731 Y46.252 Z0 F800
G1 X44.829 Y46.893 Z0 F800
G1 X44.372 Y48.952 Z0 F800
G1 X44.967 Y50.738 Z0 F800
G1 X45.058 Y52.477 Z0 F800
G1 X44.829 Y53.896 Z0 F800
G1 X45.148 Y53.949 Z0 F800
G1 X45.481 Y53.998 Z0 F800
G1 X45.871 Y54.045 Z0 F800
G1 X46.273 Y54.08 Z0 F800
G1 X46.645 Y54.09 Z0 F800
G1 X46.805 Y54.082 Z0 F800
G1 X46.941 Y54.063 Z0 F800
G1 X47.047 Y54.032 Z0 F800
G1 X47.118 Y53.988 Z0 F800
G1 X47.26 Y53.919 Z0 F800
G1 X47.463 Y53.908 Z0 F800
G1 X47.702 Y53.94 Z0 F800
G1 X47.954 Y53.999 Z0 F800
G1 X48.192 Y54.072 Z0 F800
G1 X48.393 Y54.142 Z0 F800
G1 X48.583 Y54.217 Z0 F800
G1 X49.041 Y55.544 Z0 F800
G1 X49.27 Y56.506 Z0 F800
G1 X51.879 Y56.231 Z0 F800
G1 X51.467 Y53.301 Z0 F800
G1 X51.742 Y51.333 Z0 F800
G1 X49.773 Y51.287 Z0 F800
G1 X47.256 Z0 F800
G1 X46.111 Y52.34 Z0 F800
G1 X50.506 Z0 F800
G1 X51.009 Y53.256 Z0 F800
G1 X48.4 Y53.164 Z0 F800
G1 X46.477 Y52.981 Z0 F800
G1 X45.836 Y53.713 Z0 F800
G1 X49.361 Y53.942 Z0 F800
G1 X51.147 Y54.446 Z0 F800
G1 X50.139 Y55.865 Z0 F800
G1 X49.544 Y54.949 Z0 F800
G1 X45.287 Y52.523 Z0 F800
G1 X44.829 Y50.417 Z0 F800
G1 X45.196 Y48.724 Z0 F800
G1 X43.456 Y48.312 Z0 F800
G1 X42.678 Y45.931 Z0 F800
G1 X42.266 Y40.758 Z0 F800
G1 X42.724 Y40.438 Z0 F800
;Layer C3 Pass 2 of 2
G1 X42.495 Y48.586 Z0 F800
G1 X39.931 Y48.403 Z0 F800
G1 X37.917 Y48.861 Z0 F800
G1 X36.178 Y48.449 Z0 F800
G1 X34.621 Y47.945 Z0 F800
G1 X33.751 Y47.533 Z0 F800
G1 X32.973 Y47.259 Z0 F800
G1 X32.241 Y48.678 Z0 F800
G1 X32.195 Y50.784 Z0 F800
G1 X33.614 Y50.738 Z0 F800
G1 X32.927 Y48.952 Z0 F800
G1 X32.424 Y47.167 Z0 F800
G1 X33.889 Y48.724 Z0 F800
G1 X35.72 Y48.312 Z0 F800
G1 X38.238 Y48.037 Z0 F800
G1 X40.618 Y48.907 Z0 F800
G1 X42.953 Y48.769 Z0 F800
G1 X43.639 Y47.35 Z0 F800
G1 X43.731 Y46.252 Z0 F800
G1 X44.829 Y46.893 Z0 F800
G1 X44.372 Y48.952 Z0 F800
G1 X44.967 Y50.738 Z0 F800
G1 X45.058 Y52.477 Z0 F800
G1 X44.829 Y53.896 Z0 F800
G1 X45.148 Y53.949 Z0 F800
G1 X45.481 Y53.998 Z0 F800
G1 X45.871 Y54.045 Z0 F800
G1 X46.273 Y54.08 Z0 F800
G1 X46.645 Y54.09 Z0 F800
G1 X46.805 Y54.082 Z0 F800
G1 X46.941 Y54.063 Z0 F800
G1 X47.047 Y54.032 Z0 F800
G1 X47.118 Y53.988 Z0 F800
G1 X47.26 Y53.919 Z0 F800
G1 X47.463 Y53.908 Z0 F800
G1 X47.702 Y53.94 Z0 F800
G1 X47.954 Y53.999 Z0 F800
G1 X48.192 Y54.072 Z0 F800
G1 X48.393 Y54.142 Z0 F800
G1 X48.583 Y54.217 Z0 F800
G1 X49.041 Y55.544 Z0 F800
G1 X49.27 Y56.506 Z0 F800
G1 X51.879 Y56.231 Z0 F800
G1 X51.467 Y53.301 Z0 F800
G1 X51.742 Y51.333 Z0 F800
G1 X49.773 Y51.287 Z0 F800
G1 X47.256 Z0 F800
G1 X46.111 Y52.34 Z0 F800
G1 X50.506 Z0 F800
G1 X51.009 Y53.256 Z0 F800
G1 X48.4 Y53.164 Z0 F800
G1 X46.477 Y52.981 Z0 F800
G1 X45.836 Y53.713 Z0 F800
G1 X49.361 Y53.942 Z0 F800
G1 X51.147 Y54.446 Z0 F800
G1 X50.139 Y55.865 Z0 F800
G1 X49.544 Y54.949 Z0 F800
G1 X45.287 Y52.523 Z0 F800
G1 X44.829 Y50.417 Z0 F800
G1 X45.196 Y48.724 Z0 F800
G1 X43.456 Y48.312 Z0 F800
G1 X42.678 Y45.931 Z0 F800
G1 X42.266 Y40.758 Z0 F800
G1 X42.724 Y40.438 Z0 F800
G0 Z3.5 F500
G0 X31.424 Y41.541 Z3.5 
G1 Z0 F500
;Layer C3 Pass 1 of 2
G1 X31.417 Y41.72 Z0 F800
G1 X31.005 Y43.78 Z0 F800
G1 X31.044 Y43.887 Z0 F800
G1 X31.08 Y43.997 Z0 F800
G1 X31.114 Y44.123 Z0 F800
G1 X31.137 Y44.249 Z0 F800
G1 X31.14 Y44.359 Z0 F800
G1 X31.114 Y44.437 Z0 F800
G1 X31.051 Y44.466 Z0 F800
G1 X30.922 Y44.451 Z0 F800
G1 X30.725 Y44.409 Z0 F800
G1 X30.487 Y44.35 Z0 F800
G1 X30.232 Y44.283 Z0 F800
G1 X29.783 Y44.157 Z0 F800
G1 X29.586 Y44.1 Z0 F800
G1 X29.589 Y44.108 Z0 F800
G1 X29.599 Y44.116 Z0 F800
G1 X29.62 Y44.095 Z0 F800
G1 X29.655 Y44.02 Z0 F800
G1 X29.678 Y43.953 Z0 F800
G1 X29.707 Y43.863 Z0 F800
G1 X29.74 Y43.746 Z0 F800
G1 X29.779 Y43.598 Z0 F800
G1 X29.824 Y43.416 Z0 F800
G1 X29.875 Y43.198 Z0 F800
G1 X29.933 Y42.938 Z0 F800
G1 X29.998 Y42.635 Z0 F800
G1 X30.047 Y42.332 Z0 F800
G1 X30.062 Y42.073 Z0 F800
G1 X30.045 Y41.854 Z0 F800
G1 X30.002 Y41.672 Z0 F800
G1 X29.937 Y41.525 Z0 F800
G1 X29.855 Y41.407 Z0 F800
G1 X29.759 Y41.317 Z0 F800
G1 X29.655 Y41.25 Z0 F800
G1 X29.437 Y41.175 Z0 F800
G1 X29.238 Y41.155 Z0 F800
G1 X29.093 Y41.162 Z0 F800
G1 X29.037 Y41.17 Z0 F800
G1 X28.167 Y41.491 Z0 F800
G1 X27.709 Y43.047 Z0 F800
G1 X27.984 Y44.054 Z0 F800
G1 X28.258 Y44.833 Z0 F800
G1 X28.945 Y46.114 Z0 F800
G1 X29.677 Y47.121 Z0 F800
G1 X29.769 Y48.724 Z0 F800
G1 X29.716 Y48.837 Z0 F800
G1 X29.658 Y48.95 Z0 F800
G1 X29.586 Y49.078 Z0 F800
G1 X29.505 Y49.202 Z0 F800
G1 X29.421 Y49.303 Z0 F800
G1 X29.34 Y49.363 Z0 F800
G1 X29.265 Z0 F800
G1 X29.166 Y49.309 Z0 F800
G1 X29.017 Y49.218 Z0 F800
G1 X28.648 Y48.987 Z0 F800
G1 X28.167 Y48.678 Z0 F800
G1 X29.128 Y46.664 Z0 F800
G1 X28.899 Y44.237 Z0 F800
G1 X28.67 Y42.315 Z0 F800
G1 X30.273 Y42.406 Z0 F800
G1 X29.861 Y45.199 Z0 F800
G1 X27.389 Y46.297 Z0 F800
G1 X27.434 Y49.364 Z0 F800
G1 X28.121 Y49.319 Z0 F800
G1 X27.892 Y45.657 Z0 F800
G1 X26.794 Y45.565 Z0 F800
G1 X25.741 Y46.114 Z0 F800
G1 X23.864 Y45.656 Z0 F800
G1 X22.719 Z0 F800
G1 X21.026 Y45.794 Z0 F800
G1 X20.293 Y46.069 Z0 F800
G1 X20.11 Y44.97 Z0 F800
G1 X22.536 Y45.29 Z0 F800
G1 X24.23 Y45.199 Z0 F800
G1 X25.969 Y45.107 Z0 F800
G1 X27.114 Y44.833 Z0 F800
G1 X27.205 Y42.589 Z0 F800
G1 X27.297 Y40.621 Z0 F800
G1 X28.075 Y40.117 Z0 F800
G1 X29.082 Y40.301 Z0 F800
G1 X29.998 Z0 F800
G1 X30.959 Y40.621 Z0 F800
G1 X31.044 Y40.728 Z0 F800
G1 X31.128 Y40.848 Z0 F800
G1 X31.222 Y40.999 Z0 F800
G1 X31.312 Y41.171 Z0 F800
G1 X31.384 Y41.355 Z0 F800
G1 X31.424 Y41.541 Z0 F800
;Layer C3 Pass 2 of 2
G1 X31.417 Y41.72 Z0 F800
G1 X31.005 Y43.78 Z0 F800
G1 X31.044 Y43.887 Z0 F800
G1 X31.08 Y43.997 Z0 F800
G1 X31.114 Y44.123 Z0 F800
G1 X31.137 Y44.249 Z0 F800
G1 X31.14 Y44.359 Z0 F800
G1 X31.114 Y44.437 Z0 F800
G1 X31.051 Y44.466 Z0 F800
G1 X30.922 Y44.451 Z0 F800
G1 X30.725 Y44.409 Z0 F800
G1 X30.487 Y44.35 Z0 F800
G1 X30.232 Y44.283 Z0 F800
G1 X29.783 Y44.157 Z0 F800
G1 X29.586 Y44.1 Z0 F800
G1 X29.589 Y44.108 Z0 F800
G1 X29.599 Y44.116 Z0 F800
G1 X29.62 Y44.095 Z0 F800
G1 X29.655 Y44.02 Z0 F800
G1 X29.678 Y43.953 Z0 F800
G1 X29.707 Y43.863 Z0 F800
G1 X29.74 Y43.746 Z0 F800
G1 X29.779 Y43.598 Z0 F800
G1 X29.824 Y43.416 Z0 F800
G1 X29.875 Y43.198 Z0 F800
G1 X29.933 Y42.938 Z0 F800
G1 X29.998 Y42.635 Z0 F800
G1 X30.047 Y42.332 Z0 F800
G1 X30.062 Y42.073 Z0 F800
G1 X30.045 Y41.854 Z0 F800
G1 X30.002 Y41.672 Z0 F800
G1 X29.937 Y41.525 Z0 F800
G1 X29.855 Y41.407 Z0 F800
G1 X29.759 Y41.317 Z0 F800
G1 X29.655 Y41.25 Z0 F800
G1 X29.437 Y41.175 Z0 F800
G1 X29.238 Y41.155 Z0 F800
G1 X29.093 Y41.162 Z0 F800
G1 X29.037 Y41.17 Z0 F800
G1 X28.167 Y41.491 Z0 F800
G1 X27.709 Y43.047 Z0 F800
G1 X27.984 Y44.054 Z0 F800
G1 X28.258 Y44.833 Z0 F800
G1 X28.945 Y46.114 Z0 F800
G1 X29.677 Y47.121 Z0 F800
G1 X29.769 Y48.724 Z0 F800
G1 X29.716 Y48.837 Z0 F800
G1 X29.658 Y48.95 Z0 F800
G1 X29.586 Y49.078 Z0 F800
G1 X29.505 Y49.202 Z0 F800
G1 X29.421 Y49.303 Z0 F800
G1 X29.34 Y49.363 Z0 F800
G1 X29.265 Z0 F800
G1 X29.166 Y49.309 Z0 F800
G1 X29.017 Y49.218 Z0 F800
G1 X28.648 Y48.987 Z0 F800
G1 X28.167 Y48.678 Z0 F800
G1 X29.128 Y46.664 Z0 F800
G1 X28.899 Y44.237 Z0 F800
G1 X28.67 Y42.315 Z0 F800
G1 X30.273 Y42.406 Z0 F800
G1 X29.861 Y45.199 Z0 F800
G1 X27.389 Y46.297 Z0 F800
G1 X27.434 Y49.364 Z0 F800
G1 X28.121 Y49.319 Z0 F800
G1 X27.892 Y45.657 Z0 F800
G1 X26.794 Y45.565 Z0 F800
G1 X25.741 Y46.114 Z0 F800
G1 X23.864 Y45.656 Z0 F800
G1 X22.719 Z0 F800
G1 X21.026 Y45.794 Z0 F800
G1 X20.293 Y46.069 Z0 F800
G1 X20.11 Y44.97 Z0 F800
G1 X22.536 Y45.29 Z0 F800
G1 X24.23 Y45.199 Z0 F800
G1 X25.969 Y45.107 Z0 F800
G1 X27.114 Y44.833 Z0 F800
G1 X27.205 Y42.589 Z0 F800
G1 X27.297 Y40.621 Z0 F800
G1 X28.075 Y40.117 Z0 F800
G1 X29.082 Y40.301 Z0 F800
G1 X29.998 Z0 F800
G1 X30.959 Y40.621 Z0 F800
G1 X31.044 Y40.728 Z0 F800
G1 X31.128 Y40.848 Z0 F800
G1 X31.222 Y40.999 Z0 F800
G1 X31.312 Y41.171 Z0 F800
G1 X31.384 Y41.355 Z0 F800
G1 X31.424 Y41.541 Z0 F800
G0 Z3.5 F500
G0 X24.276 Y48.312 Z3.5 
G1 Z0 F500
;Layer C3 Pass 1 of 2
G1 X23.91 Y52.203 Z0 F800
G1 X24.459 Y54.904 Z0 F800
G1 X25.237 Y53.713 Z0 F800
G1 X25.969 Y54.354 Z0 F800
G1 X26.381 Y52.66 Z0 F800
G1 X27.343 Y52.569 Z0 F800
G1 X28.899 Y52.889 Z0 F800
G1 X29.952 Y52.981 Z0 F800
G1 X31.417 Y53.484 Z0 F800
G1 X32.882 Y53.851 Z0 F800
G1 X34.988 Y53.896 Z0 F800
G1 X36.086 Y53.439 Z0 F800
G1 X37.231 Y53.668 Z0 F800
G1 X37.276 Y51.837 Z0 F800
G1 X37.688 Y51.882 Z0 F800
G1 X37.231 Y54.354 Z0 F800
G1 X35.308 Y53.759 Z0 F800
G1 X34.209 Y53.301 Z0 F800
G1 X32.973 Y54.354 Z0 F800
G1 X33.431 Y55.407 Z0 F800
G1 X33.202 Y57.971 Z0 F800
G1 X33.614 Y61.267 Z0 F800
G1 X33.248 Y61.129 Z0 F800
G1 X33.843 Y54.4 Z0 F800
G1 X32.561 Y55.499 Z0 F800
G1 X31.921 Y54.995 Z0 F800
G1 X30.776 Y56.552 Z0 F800
G1 X31.097 Y61.084 Z0 F800
G1 X30.73 Y61.129 Z0 F800
G1 X30.959 Y55.453 Z0 F800
G1 X29.677 Y56.094 Z0 F800
G1 X31.28 Y54.812 Z0 F800
G1 X31.051 Y53.805 Z0 F800
G1 X30.089 Y52.706 Z0 F800
G1 X29.357 Y52.203 Z0 F800
G1 X29.265 Y54.217 Z0 F800
G1 X29.952 Y54.721 Z0 F800
G1 X28.945 Y56.14 Z0 F800
G1 X27.846 Y55.041 Z0 F800
G1 X28.396 Y53.942 Z0 F800
G1 X28.167 Y52.111 Z0 F800
G1 X27.022 Y52.523 Z0 F800
G1 X26.885 Y54.446 Z0 F800
G1 X27.114 Y55.636 Z0 F800
G1 X26.198 Y55.453 Z0 F800
G1 X24.276 Y53.622 Z0 F800
G1 X24.321 Y50.692 Z0 F800
G1 X24.138 Y49.044 Z0 F800
G1 X23.314 Y48.861 Z0 F800
G1 X23.199 Y48.816 Z0 F800
G1 X23.08 Y48.776 Z0 F800
G1 X22.942 Y48.741 Z0 F800
G1 X22.803 Y48.72 Z0 F800
G1 X22.677 Y48.726 Z0 F800
G1 X22.583 Y48.769 Z0 F800
G1 X22.536 Y48.861 Z0 F800
G1 X22.528 Y48.942 Z0 F800
G1 X22.521 Y49.061 Z0 F800
G1 X22.51 Y49.39 Z0 F800
G1 X22.502 Y49.798 Z0 F800
G1 X22.496 Y50.24 Z0 F800
G1 X22.491 Y51.03 Z0 F800
G1 Y51.379 Z0 F800
G1 X22.582 Y53.072 Z0 F800
G1 X23.04 Y54.858 Z0 F800
G1 X22.628 Y55.819 Z0 F800
G1 X22.078 Y57.513 Z0 F800
G1 X23.269 Y58.154 Z0 F800
G1 X25.512 Y57.925 Z0 F800
G1 X26.153 Y56.094 Z0 F800
G1 X25.283 Y55.499 Z0 F800
G1 X23.36 Y55.407 Z0 F800
G1 X23.177 Y51.196 Z0 F800
G1 X23.406 Y49.96 Z0 F800
G1 X24.276 Y48.312 Z0 F800
;Layer C3 Pass 2 of 2
G1 X23.91 Y52.203 Z0 F800
G1 X24.459 Y54.904 Z0 F800
G1 X25.237 Y53.713 Z0 F800
G1 X25.969 Y54.354 Z0 F800
G1 X26.381 Y52.66 Z0 F800
G1 X27.343 Y52.569 Z0 F800
G1 X28.899 Y52.889 Z0 F800
G1 X29.952 Y52.981 Z0 F800
G1 X31.417 Y53.484 Z0 F800
G1 X32.882 Y53.851 Z0 F800
G1 X34.988 Y53.896 Z0 F800
G1 X36.086 Y53.439 Z0 F800
G1 X37.231 Y53.668 Z0 F800
G1 X37.276 Y51.837 Z0 F800
G1 X37.688 Y51.882 Z0 F800
G1 X37.231 Y54.354 Z0 F800
G1 X35.308 Y53.759 Z0 F800
G1 X34.209 Y53.301 Z0 F800
G1 X32.973 Y54.354 Z0 F800
G1 X33.431 Y55.407 Z0 F800
G1 X33.202 Y57.971 Z0 F800
G1 X33.614 Y61.267 Z0 F800
G1 X33.248 Y61.129 Z0 F800
G1 X33.843 Y54.4 Z0 F800
G1 X32.561 Y55.499 Z0 F800
G1 X31.921 Y54.995 Z0 F800
G1 X30.776 Y56.552 Z0 F800
G1 X31.097 Y61.084 Z0 F800
G1 X30.73 Y61.129 Z0 F800
G1 X30.959 Y55.453 Z0 F800
G1 X29.677 Y56.094 Z0 F800
G1 X31.28 Y54.812 Z0 F800
G1 X31.051 Y53.805 Z0 F800
G1 X30.089 Y52.706 Z0 F800
G1 X29.357 Y52.203 Z0 F800
G1 X29.265 Y54.217 Z0 F800
G1 X29.952 Y54.721 Z0 F800
G1 X28.945 Y56.14 Z0 F800
G1 X27.846 Y55.041 Z0 F800
G1 X28.396 Y53.942 Z0 F800
G1 X28.167 Y52.111 Z0 F800
G1 X27.022 Y52.523 Z0 F800
G1 X26.885 Y54.446 Z0 F800
G1 X27.114 Y55.636 Z0 F800
G1 X26.198 Y55.453 Z0 F800
G1 X24.276 Y53.622 Z0 F800
G1 X24.321 Y50.692 Z0 F800
G1 X24.138 Y49.044 Z0 F800
G1 X23.314 Y48.861 Z0 F800
G1 X23.199 Y48.816 Z0 F800
G1 X23.08 Y48.776 Z0 F800
G1 X22.942 Y48.741 Z0 F800
G1 X22.803 Y48.72 Z0 F800
G1 X22.677 Y48.726 Z0 F800
G1 X22.583 Y48.769 Z0 F800
G1 X22.536 Y48.861 Z0 F800
G1 X22.528 Y48.942 Z0 F800
G1 X22.521 Y49.061 Z0 F800
G1 X22.51 Y49.39 Z0 F800
G1 X22.502 Y49.798 Z0 F800
G1 X22.496 Y50.24 Z0 F800
G1 X22.491 Y51.03 Z0 F800
G1 Y51.379 Z0 F800
G1 X22.582 Y53.072 Z0 F800
G1 X23.04 Y54.858 Z0 F800
G1 X22.628 Y55.819 Z0 F800
G1 X22.078 Y57.513 Z0 F800
G1 X23.269 Y58.154 Z0 F800
G1 X25.512 Y57.925 Z0 F800
G1 X26.153 Y56.094 Z0 F800
G1 X25.283 Y55.499 Z0 F800
G1 X23.36 Y55.407 Z0 F800
G1 X23.177 Y51.196 Z0 F800
G1 X23.406 Y49.96 Z0 F800
G1 X24.276 Y48.312 Z0 F800
G0 Z3.5 F500
G0 X28.487 Y58.383 Z3.5 
G1 Z0 F500
;Layer C3 Pass 1 of 2
G1 X26.565 Y61.266 Z0 F800
G1 X28.35 Y61.312 Z0 F800
G1 X23.864 Y60.9 Z0 F800
G1 X22.536 Y61.45 Z0 F800
G1 X22.307 Y60.488 Z0 F800
G1 X22.994 Y60.076 Z0 F800
G1 X24.138 Y60.259 Z0 F800
G1 X24.306 Y60.309 Z0 F800
G1 X24.688 Y60.42 Z0 F800
G1 X24.903 Y60.478 Z0 F800
G1 X25.104 Y60.53 Z0 F800
G1 X25.269 Y60.566 Z0 F800
G1 X25.374 Y60.58 Z0 F800
G1 X25.496 Y60.572 Z0 F800
G1 X25.702 Y60.551 Z0 F800
G1 X26.244 Y60.488 Z0 F800
G1 X26.977 Y60.397 Z0 F800
G1 X28.396 Y60.443 Z0 F800
G1 X28.075 Y59.069 Z0 F800
G1 X28.487 Y58.383 Z0 F800
;Layer C3 Pass 2 of 2
G1 X26.565 Y61.266 Z0 F800
G1 X28.35 Y61.312 Z0 F800
G1 X23.864 Y60.9 Z0 F800
G1 X22.536 Y61.45 Z0 F800
G1 X22.307 Y60.488 Z0 F800
G1 X22.994 Y60.076 Z0 F800
G1 X24.138 Y60.259 Z0 F800
G1 X24.306 Y60.309 Z0 F800
G1 X24.688 Y60.42 Z0 F800
G1 X24.903 Y60.478 Z0 F800
G1 X25.104 Y60.53 Z0 F800
G1 X25.269 Y60.566 Z0 F800
G1 X25.374 Y60.58 Z0 F800
G1 X25.496 Y60.572 Z0 F800
G1 X25.702 Y60.551 Z0 F800
G1 X26.244 Y60.488 Z0 F800
G1 X26.977 Y60.397 Z0 F800
G1 X28.396 Y60.443 Z0 F800
G1 X28.075 Y59.069 Z0 F800
G1 X28.487 Y58.383 Z0 F800
G0 Z3.5 F500
G0 X35.811 Y58.749 Z3.5 
G1 Z0 F500
;Layer C3 Pass 1 of 2
G1 X37.917 Y58.383 Z0 F800
G1 X38.65 Y58.84 Z0 F800
G1 X40.069 Y58.062 Z0 F800
G1 X39.703 Y57.284 Z0 F800
G1 X40.298 Y54.949 Z0 F800
G1 X39.886 Y51.928 Z0 F800
G1 X40.114 Y53.805 Z0 F800
G1 X39.931 Y55.178 Z0 F800
G1 X39.794 Y56.139 Z0 F800
G1 X38.375 Y56.048 Z0 F800
G1 X37.368 Y56.368 Z0 F800
G1 X36.361 Y56.185 Z0 F800
G1 X36.223 Y56.551 Z0 F800
G1 X39.062 Y56.689 Z0 F800
G1 X39.794 Y56.46 Z0 F800
G1 X40.252 Y57.101 Z0 F800
G1 X39.931 Y58.382 Z0 F800
G1 X39.702 Y58.749 Z0 F800
G1 X37.734 Y58.428 Z0 F800
G1 X36.315 Y58.657 Z0 F800
G1 X35.949 Y59.802 Z0 F800
G1 X36.132 Y60.992 Z0 F800
G1 X37.643 Y61.221 Z0 F800
G1 X40.664 Y60.992 Z0 F800
G1 X44.326 Y61.358 Z0 F800
G1 X47.073 Y61.129 Z0 F800
G1 X50.14 Y61.266 Z0 F800
G1 X51.742 Y60.946 Z0 F800
G1 X54.351 Y61.45 Z0 F800
G1 X56.548 Y60.9 Z0 F800
G1 X57.739 Y61.083 Z0 F800
G1 X59.615 Y61.266 Z0 F800
G1 X59.478 Y60.351 Z0 F800
G1 X59.707 Y59.069 Z0 F800
G1 X59.112 Y58.566 Z0 F800
G1 X58.425 Y59.161 Z0 F800
G1 X57.876 Y59.985 Z0 F800
G1 X58.517 Y60.626 Z0 F800
G1 X59.02 Y59.39 Z0 F800
G1 X58.791 Y61.541 Z0 F800
G1 X56.915 Y61.312 Z0 F800
G1 X54.122 Y60.9 Z0 F800
G1 X51.192 Y61.358 Z0 F800
G1 X49.545 Y61.038 Z0 F800
G1 X45.425 Y60.854 Z0 F800
G1 X43.227 Y61.312 Z0 F800
G1 X41.946 Y61.404 Z0 F800
G1 X39.703 Y61.175 Z0 F800
G1 X37.688 Y61.358 Z0 F800
G1 X36.727 Y60.671 Z0 F800
G1 X36.086 Y59.756 Z0 F800
G1 X35.811 Y58.749 Z0 F800
;Layer C3 Pass 2 of 2
G1 X37.917 Y58.383 Z0 F800
G1 X38.65 Y58.84 Z0 F800
G1 X40.069 Y58.062 Z0 F800
G1 X39.703 Y57.284 Z0 F800
G1 X40.298 Y54.949 Z0 F800
G1 X39.886 Y51.928 Z0 F800
G1 X40.114 Y53.805 Z0 F800
G1 X39.931 Y55.178 Z0 F800
G1 X39.794 Y56.139 Z0 F800
G1 X38.375 Y56.048 Z0 F800
G1 X37.368 Y56.368 Z0 F800
G1 X36.361 Y56.185 Z0 F800
G1 X36.223 Y56.551 Z0 F800
G1 X39.062 Y56.689 Z0 F800
G1 X39.794 Y56.46 Z0 F800
G1 X40.252 Y57.101 Z0 F800
G1 X39.931 Y58.382 Z0 F800
G1 X39.702 Y58.749 Z0 F800
G1 X37.734 Y58.428 Z0 F800
G1 X36.315 Y58.657 Z0 F800
G1 X35.949 Y59.802 Z0 F800
G1 X36.132 Y60.992 Z0 F800
G1 X37.643 Y61.221 Z0 F800
G1 X40.664 Y60.992 Z0 F800
G1 X44.326 Y61.358 Z0 F800
G1 X47.073 Y61.129 Z0 F800
G1 X50.14 Y61.266 Z0 F800
G1 X51.742 Y60.946 Z0 F800
G1 X54.351 Y61.45 Z0 F800
G1 X56.548 Y60.9 Z0 F800
G1 X57.739 Y61.083 Z0 F800
G1 X59.615 Y61.266 Z0 F800
G1 X59.478 Y60.351 Z0 F800
G1 X59.707 Y59.069 Z0 F800
G1 X59.112 Y58.566 Z0 F800
G1 X58.425 Y59.161 Z0 F800
G1 X57.876 Y59.985 Z0 F800
G1 X58.517 Y60.626 Z0 F800
G1 X59.02 Y59.39 Z0 F800
G1 X58.791 Y61.541 Z0 F800
G1 X56.915 Y61.312 Z0 F800
G1 X54.122 Y60.9 Z0 F800
G1 X51.192 Y61.358 Z0 F800
G1 X49.545 Y61.038 Z0 F800
G1 X45.425 Y60.854 Z0 F800
G1 X43.227 Y61.312 Z0 F800
G1 X41.946 Y61.404 Z0 F800
G1 X39.703 Y61.175 Z0 F800
G1 X37.688 Y61.358 Z0 F800
G1 X36.727 Y60.671 Z0 F800
G1 X36.086 Y59.756 Z0 F800
G1 X35.811 Y58.749 Z0 F800
G0 Z3.5 F500
G0 X42.404 Y59.115 Z3.5 
G1 Z0 F500
;Layer C3 Pass 1 of 2
G1 X42.495 Y57.421 Z0 F800
G1 X42.175 Y56.643 Z0 F800
G1 X42.999 Y55.453 Z0 F800
G1 X42.403 Y53.759 Z0 F800
G1 X42.541 Y52.111 Z0 F800
G1 X42.632 Y54.583 Z0 F800
G1 X42.358 Y55.27 Z0 F800
G1 X42.907 Y56.368 Z0 F800
G1 X45.242 Y56.597 Z0 F800
G1 X46.065 Y56.414 Z0 F800
G1 X45.791 Y56.094 Z0 F800
G1 X44.372 Y56.139 Z0 F800
G1 X42.678 Y56.414 Z0 F800
G1 X42.22 Y57.375 Z0 F800
G1 X42.586 Y58.749 Z0 F800
G1 X44.555 Y58.886 Z0 F800
G1 X46.523 Y58.611 Z0 F800
G1 X48.995 Y59.023 Z0 F800
G1 X50.781 Y58.657 Z0 F800
G1 X52.612 Y58.749 Z0 F800
G1 X53.893 Y58.932 Z0 F800
G1 X54.9 Y58.474 Z0 F800
G1 X55.45 Y57.055 Z0 F800
G1 X55.434 Y56.814 Z0 F800
G1 X55.393 Y56.26 Z0 F800
G1 X55.365 Y55.944 Z0 F800
G1 X55.334 Y55.645 Z0 F800
G1 X55.301 Y55.395 Z0 F800
G1 X55.267 Y55.224 Z0 F800
G1 X55.256 Y55.147 Z0 F800
G1 Y55.038 Z0 F800
G1 X55.271 Y54.902 Z0 F800
G1 X55.292 Y54.745 Z0 F800
G1 X55.357 Y54.388 Z0 F800
G1 X55.438 Y54.005 Z0 F800
G1 X55.524 Y53.637 Z0 F800
G1 X55.601 Y53.325 Z0 F800
G1 X55.679 Y53.027 Z0 F800
G1 X55.77 Y51.241 Z0 F800
G1 X55.175 Y50.326 Z0 F800
G1 X54.214 Y50.967 Z0 F800
G1 X54.58 Y52.203 Z0 F800
G1 X54.672 Y56.14 Z0 F800
G1 X54.763 Y57.192 Z0 F800
G1 X55.358 Y58.749 Z0 F800
G1 X54.122 Y58.474 Z0 F800
G1 X51.33 Y58.932 Z0 F800
G1 X49.362 Y58.291 Z0 F800
G1 X47.714 Y58.703 Z0 F800
G1 X46.066 Y59.069 Z0 F800
G1 X44.189 Y58.611 Z0 F800
G1 X42.404 Y59.115 Z0 F800
;Layer C3 Pass 2 of 2
G1 X42.495 Y57.421 Z0 F800
G1 X42.175 Y56.643 Z0 F800
G1 X42.999 Y55.453 Z0 F800
G1 X42.403 Y53.759 Z0 F800
G1 X42.541 Y52.111 Z0 F800
G1 X42.632 Y54.583 Z0 F800
G1 X42.358 Y55.27 Z0 F800
G1 X42.907 Y56.368 Z0 F800
G1 X45.242 Y56.597 Z0 F800
G1 X46.065 Y56.414 Z0 F800
G1 X45.791 Y56.094 Z0 F800
G1 X44.372 Y56.139 Z0 F800
G1 X42.678 Y56.414 Z0 F800
G1 X42.22 Y57.375 Z0 F800
G1 X42.586 Y58.749 Z0 F800
G1 X44.555 Y58.886 Z0 F800
G1 X46.523 Y58.611 Z0 F800
G1 X48.995 Y59.023 Z0 F800
G1 X50.781 Y58.657 Z0 F800
G1 X52.612 Y58.749 Z0 F800
G1 X53.893 Y58.932 Z0 F800
G1 X54.9 Y58.474 Z0 F800
G1 X55.45 Y57.055 Z0 F800
G1 X55.434 Y56.814 Z0 F800
G1 X55.393 Y56.26 Z0 F800
G1 X55.365 Y55.944 Z0 F800
G1 X55.334 Y55.645 Z0 F800
G1 X55.301 Y55.395 Z0 F800
G1 X55.267 Y55.224 Z0 F800
G1 X55.256 Y55.147 Z0 F800
G1 Y55.038 Z0 F800
G1 X55.271 Y54.902 Z0 F800
G1 X55.292 Y54.745 Z0 F800
G1 X55.357 Y54.388 Z0 F800
G1 X55.438 Y54.005 Z0 F800
G1 X55.524 Y53.637 Z0 F800
G1 X55.601 Y53.325 Z0 F800
G1 X55.679 Y53.027 Z0 F800
G1 X55.77 Y51.241 Z0 F800
G1 X55.175 Y50.326 Z0 F800
G1 X54.214 Y50.967 Z0 F800
G1 X54.58 Y52.203 Z0 F800
G1 X54.672 Y56.14 Z0 F800
G1 X54.763 Y57.192 Z0 F800
G1 X55.358 Y58.749 Z0 F800
G1 X54.122 Y58.474 Z0 F800
G1 X51.33 Y58.932 Z0 F800
G1 X49.362 Y58.291 Z0 F800
G1 X47.714 Y58.703 Z0 F800
G1 X46.066 Y59.069 Z0 F800
G1 X44.189 Y58.611 Z0 F800
G1 X42.404 Y59.115 Z0 F800
G0 Z3.5 F500
G0 X58.151 Y55.819 Z3.5 
G1 Z0 F500
;Layer C3 Pass 1 of 2
G1 X58.105 Y53.851 Z0 F800
G1 X58.013 Y52.203 Z0 F800
G1 X59.112 Y51.974 Z0 F800
G1 X59.066 Y53.072 Z0 F800
G1 X59.02 Y54.308 Z0 F800
G1 X58.929 Y55.453 Z0 F800
G1 X59.249 Y56.002 Z0 F800
G1 X59.707 Y55.361 Z0 F800
G1 X59.569 Y53.988 Z0 F800
G1 X59.89 Y52.798 Z0 F800
G1 X59.661 Y51.928 Z0 F800
G1 X58.562 Y53.164 Z0 F800
G1 X58.608 Y55.682 Z0 F800
G1 X58.151 Y55.819 Z0 F800
;Layer C3 Pass 2 of 2
G1 X58.105 Y53.851 Z0 F800
G1 X58.013 Y52.203 Z0 F800
G1 X59.112 Y51.974 Z0 F800
G1 X59.066 Y53.072 Z0 F800
G1 X59.02 Y54.308 Z0 F800
G1 X58.929 Y55.453 Z0 F800
G1 X59.249 Y56.002 Z0 F800
G1 X59.707 Y55.361 Z0 F800
G1 X59.569 Y53.988 Z0 F800
G1 X59.89 Y52.798 Z0 F800
G1 X59.661 Y51.928 Z0 F800
G1 X58.562 Y53.164 Z0 F800
G1 X58.608 Y55.682 Z0 F800
G1 X58.151 Y55.819 Z0 F800
G0 Z3.5 F500
G0 X55.633 Y46.389 Z3.5 
G1 Z0 F500
;Layer C3 Pass 1 of 2
G1 X54.992 Y46.297 Z0 F800
G1 X54.809 Y44.833 Z0 F800
G1 X54.214 Y42.452 Z0 F800
G1 X54.992 Y41.903 Z0 F800
G1 X55.45 Y43.414 Z0 F800
G1 X55.221 Y44.833 Z0 F800
G1 X55.633 Y46.389 Z0 F800
;Layer C3 Pass 2 of 2
G1 X54.992 Y46.297 Z0 F800
G1 X54.809 Y44.833 Z0 F800
G1 X54.214 Y42.452 Z0 F800
G1 X54.992 Y41.903 Z0 F800
G1 X55.45 Y43.414 Z0 F800
G1 X55.221 Y44.833 Z0 F800
G1 X55.633 Y46.389 Z0 F800
G0 Z3.5 F500
G0 X54.717 Y39.477 Z3.5 
G1 Z0 F500
;Layer C3 Pass 1 of 2
G1 X56.869 Y39.065 Z0 F800
G1 X55.221 Y38.424 Z0 F800
G1 X58.242 Y38.653 Z0 F800
G1 X57.235 Y39.477 Z0 F800
G1 X59.432 Y39.431 Z0 F800
G1 X59.249 Y38.47 Z0 F800
G1 X59.253 Y38.349 Z0 F800
G1 Y38.228 Z0 F800
G1 X59.249 Y38.092 Z0 F800
G1 X59.236 Y37.96 Z0 F800
G1 X59.211 Y37.852 Z0 F800
G1 X59.17 Y37.786 Z0 F800
G1 X59.112 Y37.783 Z0 F800
G1 X59.053 Y37.802 Z0 F800
G1 X58.951 Y37.825 Z0 F800
G1 X58.811 Y37.851 Z0 F800
G1 X58.641 Y37.879 Z0 F800
G1 X58.235 Y37.939 Z0 F800
G1 X57.784 Y38 Z0 F800
G1 X56.962 Y38.105 Z0 F800
G1 X56.594 Y38.149 Z0 F800
G1 X55.358 Y37.691 Z0 F800
G1 X55.038 Y36.41 Z0 F800
G1 X55.083 Y35.677 Z0 F800
G1 X54.488 Y35.906 Z0 F800
G1 X54.809 Y37.783 Z0 F800
G1 X54.717 Y39.477 Z0 F800
;Layer C3 Pass 2 of 2
G1 X56.869 Y39.065 Z0 F800
G1 X55.221 Y38.424 Z0 F800
G1 X58.242 Y38.653 Z0 F800
G1 X57.235 Y39.477 Z0 F800
G1 X59.432 Y39.431 Z0 F800
G1 X59.249 Y38.47 Z0 F800
G1 X59.253 Y38.349 Z0 F800
G1 Y38.228 Z0 F800
G1 X59.249 Y38.092 Z0 F800
G1 X59.236 Y37.96 Z0 F800
G1 X59.211 Y37.852 Z0 F800
G1 X59.17 Y37.786 Z0 F800
G1 X59.112 Y37.783 Z0 F800
G1 X59.053 Y37.802 Z0 F800
G1 X58.951 Y37.825 Z0 F800
G1 X58.811 Y37.851 Z0 F800
G1 X58.641 Y37.879 Z0 F800
G1 X58.235 Y37.939 Z0 F800
G1 X57.784 Y38 Z0 F800
G1 X56.962 Y38.105 Z0 F800
G1 X56.594 Y38.149 Z0 F800
G1 X55.358 Y37.691 Z0 F800
G1 X55.038 Y36.41 Z0 F800
G1 X55.083 Y35.677 Z0 F800
G1 X54.488 Y35.906 Z0 F800
G1 X54.809 Y37.783 Z0 F800
G1 X54.717 Y39.477 Z0 F800
G0 Z3.5 F500
G0 X57.555 Y33.846 Z3.5 
G1 Z0 F500
;Layer C3 Pass 1 of 2
G1 X56.731 Y32.793 Z0 F800
G1 X56.045 Y32.61 Z0 F800
G1 X55.983 Y32.487 Z0 F800
G1 X55.924 Y32.359 Z0 F800
G1 X55.862 Y32.21 Z0 F800
G1 X55.808 Y32.056 Z0 F800
G1 X55.774 Y31.915 Z0 F800
G1 Y31.804 Z0 F800
G1 X55.816 Y31.74 Z0 F800
G1 X55.932 Y31.599 Z0 F800
G1 X56.062 Y31.363 Z0 F800
G1 X56.157 Y31.234 Z0 F800
G1 X56.286 Y31.11 Z0 F800
G1 X56.459 Y31.001 Z0 F800
G1 X56.686 Y30.916 Z0 F800
G1 X57.211 Y30.796 Z0 F800
G1 X57.698 Y30.71 Z0 F800
G1 X57.899 Y30.68 Z0 F800
G1 X58.196 Y30.642 Z0 F800
G1 X59.295 Y31.649 Z0 F800
G1 X59.387 Y32.839 Z0 F800
G1 X58.242 Y33.205 Z0 F800
G1 X57.189 Y32.198 Z0 F800
G1 X57.418 Y31.466 Z0 F800
G1 X58.563 Y32.244 Z0 F800
G1 X59.478 Y30.55 Z0 F800
G1 X59.432 Y33.846 Z0 F800
G1 X57.555 Z0 F800
;Layer C3 Pass 2 of 2
G1 X56.731 Y32.793 Z0 F800
G1 X56.045 Y32.61 Z0 F800
G1 X55.983 Y32.487 Z0 F800
G1 X55.924 Y32.359 Z0 F800
G1 X55.862 Y32.21 Z0 F800
G1 X55.808 Y32.056 Z0 F800
G1 X55.774 Y31.915 Z0 F800
G1 Y31.804 Z0 F800
G1 X55.816 Y31.74 Z0 F800
G1 X55.932 Y31.599 Z0 F800
G1 X56.062 Y31.363 Z0 F800
G1 X56.157 Y31.234 Z0 F800
G1 X56.286 Y31.11 Z0 F800
G1 X56.459 Y31.001 Z0 F800
G1 X56.686 Y30.916 Z0 F800
G1 X57.211 Y30.796 Z0 F800
G1 X57.698 Y30.71 Z0 F800
G1 X57.899 Y30.68 Z0 F800
G1 X58.196 Y30.642 Z0 F800
G1 X59.295 Y31.649 Z0 F800
G1 X59.387 Y32.839 Z0 F800
G1 X58.242 Y33.205 Z0 F800
G1 X57.189 Y32.198 Z0 F800
G1 X57.418 Y31.466 Z0 F800
G1 X58.563 Y32.244 Z0 F800
G1 X59.478 Y30.55 Z0 F800
G1 X59.432 Y33.846 Z0 F800
G1 X57.555 Z0 F800
G0 Z3.5 F500
G0 X52.978 Y32.427 Z3.5 
G1 Z0 F500
;Layer C3 Pass 1 of 2
G1 X52.612 Y32.656 Z0 F800
G1 X50.597 Y32.931 Z0 F800
G1 X49.728 Y32.793 Z0 F800
G1 X48.766 Y33.114 Z0 F800
G1 X48.492 Y32.015 Z0 F800
G1 X48.995 Y31.42 Z0 F800
G1 X50.002 Y30.733 Z0 F800
G1 X52.016 Y31.054 Z0 F800
G1 X52.383 Y30.916 Z0 F800
G1 X53.115 Y31.695 Z0 F800
G1 X52.383 Y31.923 Z0 F800
G1 X50.78 Y31.786 Z0 F800
G1 X49.59 Y31.923 Z0 F800
G1 X49.27 Y32.335 Z0 F800
G1 X51.376 Y32.198 Z0 F800
G1 X52.978 Y32.427 Z0 F800
;Layer C3 Pass 2 of 2
G1 X52.612 Y32.656 Z0 F800
G1 X50.597 Y32.931 Z0 F800
G1 X49.728 Y32.793 Z0 F800
G1 X48.766 Y33.114 Z0 F800
G1 X48.492 Y32.015 Z0 F800
G1 X48.995 Y31.42 Z0 F800
G1 X50.002 Y30.733 Z0 F800
G1 X52.016 Y31.054 Z0 F800
G1 X52.383 Y30.916 Z0 F800
G1 X53.115 Y31.695 Z0 F800
G1 X52.383 Y31.923 Z0 F800
G1 X50.78 Y31.786 Z0 F800
G1 X49.59 Y31.923 Z0 F800
G1 X49.27 Y32.335 Z0 F800
G1 X51.376 Y32.198 Z0 F800
G1 X52.978 Y32.427 Z0 F800
M9
M5
G1 Z10 F500
G90
G1 Z10 F800
