;LightBurn 1.6.04
;Custom GCode device profile, absolute coords
;Bounds: X22.86 Y33.34 to X63.14 Y64.66
G00 G17 G40 G21 G54
G90
M3
G1 Z10 F500
;Offset @ 555 mm/min, 90% power

M8
G0 Z3.5 F500
G0 X31.137 Y37.607 Z3.5 
G1 Z0 F500
;Layer C1 Pass 1 of 2
G1 X31.055 Y37.601 Z0 S900 F800
G1 X31.145 Y37.434 Z0 F800
G1 X31.137 Y37.607 Z0 F800
G0 Z3.5 F500
G0 X31.283 Y38.019 Z3.5 F555
G1 Z0 F500
G1 X30.443 Y37.957 Z0 F800
G1 X29.928 Y37.951 Z0 F800
G1 X29.868 Y37.954 Z0 F800
G1 X30.644 Y37.518 Z0 F800
G1 X31.319 Y36.279 Z0 F800
G1 Y36.272 Z0 F800
G1 X31.816 Z0 F800
G1 X31.705 Y36.55 Z0 F800
G1 X31.552 Y37.299 Z0 F800
G1 X31.519 Y38.002 Z0 F800
G1 X31.523 Y38.05 Z0 F800
G1 X31.283 Y38.019 Z0 F800
G0 Z3.5 F500
G0 X29.369 Y37.776 Z3.5 
G1 Z0 F500
G1 X30.348 Y37.226 Z0 F800
G1 X30.933 Y36.151 Z0 F800
G1 X30.973 Y35.874 Z0 F800
G1 X31.192 Z0 F800
G1 X32.439 Y35.87 Z0 F800
G1 X32.362 Y35.987 Z0 F800
G1 X32.089 Y36.665 Z0 F800
G1 X31.95 Y37.349 Z0 F800
G1 X31.92 Y37.997 Z0 F800
G1 X31.959 Y38.511 Z0 F800
G1 X31.92 Y38.506 Z0 F800
G1 X31.242 Y38.417 Z0 F800
G1 X30.427 Y38.356 Z0 F800
G1 X29.936 Y38.352 Z0 F800
G1 X29.44 Y38.375 Z0 F800
G1 X28.917 Y38.439 Z0 F800
G1 X28.357 Y38.559 Z0 F800
G1 X27.751 Y38.765 Z0 F800
G1 X27.61 Y38.839 Z0 F800
G1 Y38.133 Z0 F800
G1 X27.731 Y38.121 Z0 F800
G1 X28.23 Y38.038 Z0 F800
G1 X28.671 Y37.944 Z0 F800
G1 X29.369 Y37.776 Z0 F800
G0 Z3.5 F500
G0 X32.474 Y36.781 Z3.5 
G1 Z0 F500
G1 X32.348 Y37.398 Z0 F800
G1 X32.321 Y37.991 Z0 F800
G1 X32.364 Y38.563 Z0 F800
G1 X32.436 Y38.971 Z0 F800
G1 X32.31 Y38.958 Z0 F800
G1 X31.868 Y38.903 Z0 F800
G1 X31.201 Y38.815 Z0 F800
G1 X30.41 Y38.756 Z0 F800
G1 X29.944 Y38.751 Z0 F800
G1 X29.474 Y38.774 Z0 F800
G1 X28.983 Y38.834 Z0 F800
G1 X28.464 Y38.945 Z0 F800
G1 X27.909 Y39.134 Z0 F800
G1 X27.333 Y39.436 Z0 F800
G1 X27.21 Y39.534 Z0 F800
G1 Y37.771 Z0 F800
G1 X27.678 Y37.724 Z0 F800
G1 X28.156 Y37.645 Z0 F800
G1 X28.583 Y37.554 Z0 F800
G1 X29.221 Y37.4 Z0 F800
G1 X30.052 Y36.934 Z0 F800
G1 X30.547 Y36.023 Z0 F800
G1 X30.625 Y35.475 Z0 F800
G1 X31.191 Z0 F800
G1 X33.236 Y35.468 Z0 F800
G1 X33.086 Y35.615 Z0 F800
G1 X32.718 Y36.173 Z0 F800
G1 X32.474 Y36.781 Z0 F800
G0 Z3.5 F500
G0 X31.805 Y39.298 Z3.5 
G1 Z0 F500
G1 X31.16 Y39.213 Z0 F800
G1 X30.393 Y39.156 Z0 F800
G1 X29.952 Y39.151 Z0 F800
G1 X29.508 Y39.173 Z0 F800
G1 X29.049 Y39.229 Z0 F800
G1 X28.57 Y39.331 Z0 F800
G1 X28.067 Y39.502 Z0 F800
G1 X27.552 Y39.772 Z0 F800
G1 X27.053 Y40.173 Z0 F800
G1 X26.81 Y40.485 Z0 F800
G1 Y37.382 Z0 F800
G1 X27.131 Y37.377 Z0 F800
G1 X27.625 Y37.328 Z0 F800
G1 X28.081 Y37.251 Z0 F800
G1 X28.495 Y37.164 Z0 F800
G1 X29.074 Y37.024 Z0 F800
G1 X29.755 Y36.641 Z0 F800
G1 X30.162 Y35.896 Z0 F800
G1 X30.246 Y35.306 Z0 F800
G1 X30.241 Y35.076 Z0 F800
G1 X31.189 Y35.073 Z0 F800
G1 X34.503 Y35.065 Z0 F800
G1 X34.269 Y35.166 Z0 F800
G1 X33.81 Y35.464 Z0 F800
G1 X33.397 Y35.87 Z0 F800
G1 X33.074 Y36.36 Z0 F800
G1 X32.859 Y36.896 Z0 F800
G1 X32.746 Y37.447 Z0 F800
G1 X32.721 Y37.985 Z0 F800
G1 X32.762 Y38.513 Z0 F800
G1 X32.854 Y39.041 Z0 F800
G1 X32.924 Y39.315 Z0 F800
G1 X32.921 Y39.414 Z0 F800
G1 X32.67 Y39.396 Z0 F800
G1 X32.3 Y39.36 Z0 F800
G1 X31.805 Y39.298 Z0 F800
G0 Z3.5 F500
G0 X30.376 Y39.556 Z3.5 
G1 Z0 F500
G1 X29.959 Y39.552 Z0 F800
G1 X29.542 Y39.572 Z0 F800
G1 X29.115 Y39.624 Z0 F800
G1 X28.677 Y39.717 Z0 F800
G1 X28.226 Y39.871 Z0 F800
G1 X27.772 Y40.108 Z0 F800
G1 X27.34 Y40.455 Z0 F800
G1 X26.974 Y40.926 Z0 F800
G1 X26.738 Y41.478 Z0 F800
G1 X26.64 Y42.063 Z0 F800
G1 X26.661 Y42.649 Z0 F800
G1 X26.738 Y43.037 Z0 F800
G1 Y44.619 Z0 F800
G1 X26.706 Z0 F800
G1 X26.292 Y44.625 Z0 F800
G1 X25.893 Y44.62 Z0 F800
G1 X25.514 Y44.602 Z0 F800
G1 X25.506 Z0 F800
G1 X25.574 Y44.573 Z0 F800
G1 X26.016 Y44.22 Z0 F800
G1 X26.326 Y43.685 Z0 F800
G1 X26.41 Y43.19 Z0 F800
G1 Y36.967 Z0 F800
G1 X26.615 Y36.985 Z0 F800
G1 X27.108 Y36.978 Z0 F800
G1 X27.573 Y36.931 Z0 F800
G1 X28.006 Y36.858 Z0 F800
G1 X28.406 Y36.773 Z0 F800
G1 X28.926 Y36.648 Z0 F800
G1 X29.459 Y36.349 Z0 F800
G1 X29.775 Y35.768 Z0 F800
G1 X29.845 Y35.282 Z0 F800
G1 X29.837 Y34.913 Z0 F800
G1 X29.791 Y34.678 Z0 F800
G1 X31.188 Y34.673 Z0 F800
G1 X37.158 Y34.66 Z0 F800
G1 X37.184 Z0 F800
G1 X37.135 Y34.917 Z0 F800
G1 X37.087 Y35.257 Z0 F800
G1 X36.454 Y35.181 Z0 F800
G1 X35.705 Z0 F800
G1 X35.278 Y35.237 Z0 F800
G1 X34.868 Y35.345 Z0 F800
G1 X34.458 Y35.52 Z0 F800
G1 X34.062 Y35.777 Z0 F800
G1 X33.708 Y36.126 Z0 F800
G1 X33.43 Y36.546 Z0 F800
G1 X33.243 Y37.012 Z0 F800
G1 X33.145 Y37.497 Z0 F800
G1 X33.122 Y37.979 Z0 F800
G1 X33.159 Y38.463 Z0 F800
G1 X33.246 Y38.957 Z0 F800
G1 X33.326 Y39.271 Z0 F800
G1 X33.321 Y39.434 Z0 F800
G1 X33.305 Y39.705 Z0 F800
G1 X33.292 Y39.823 Z0 F800
G1 X33.239 Z0 F800
G1 X32.98 Y39.819 Z0 F800
G1 X32.634 Y39.795 Z0 F800
G1 X32.25 Y39.757 Z0 F800
G1 X31.755 Y39.695 Z0 F800
G1 X31.119 Y39.611 Z0 F800
G1 X30.376 Y39.556 Z0 F800
G0 Z3.5 F500
G0 X29.181 Y40.019 Z3.5 
G1 Z0 F500
G1 X28.784 Y40.104 Z0 F800
G1 X28.384 Y40.24 Z0 F800
G1 X27.992 Y40.445 Z0 F800
G1 X27.627 Y40.738 Z0 F800
G1 X27.322 Y41.13 Z0 F800
G1 X27.125 Y41.592 Z0 F800
G1 X27.041 Y42.089 Z0 F800
G1 X27.059 Y42.602 Z0 F800
G1 X27.139 Y43 Z0 F800
G1 Y45.005 Z0 F800
G1 X27.114 Z0 F800
G1 X26.708 Y45.02 Z0 F800
G1 X26.292 Y45.025 Z0 F800
G1 X25.869 Y45.02 Z0 F800
G1 X25.493 Y45.001 Z0 F800
G1 X25.146 Y44.964 Z0 F800
G1 X24.573 Y44.898 Z0 F800
G1 X24.046 Y44.827 Z0 F800
G1 X23.883 Y44.786 Z0 F800
G1 X23.773 Y44.743 Z0 F800
G1 X23.724 Y44.711 Z0 F800
G1 X23.701 Y44.688 Z0 F800
G1 X23.684 Y44.645 Z0 F800
G1 X23.67 Y44.576 Z0 F800
G1 X23.665 Y44.5 Z0 F800
G1 X23.668 Y44.446 Z0 F800
G1 X23.802 Y44.438 Z0 F800
G1 X24.131 Y44.441 Z0 F800
G1 X24.547 Z0 F800
G1 X25.025 Y44.365 Z0 F800
G1 X25.369 Y44.224 Z0 F800
G1 X25.708 Y43.954 Z0 F800
G1 X25.944 Y43.547 Z0 F800
G1 X26.01 Y43.156 Z0 F800
G1 Y36.509 Z0 F800
G1 X26.156 Y36.542 Z0 F800
G1 X26.63 Y36.585 Z0 F800
G1 X27.084 Y36.578 Z0 F800
G1 X27.52 Y36.534 Z0 F800
G1 X27.932 Y36.465 Z0 F800
G1 X28.317 Y36.383 Z0 F800
G1 X28.778 Y36.272 Z0 F800
G1 X29.163 Y36.056 Z0 F800
G1 X29.39 Y35.64 Z0 F800
G1 X29.444 Y35.257 Z0 F800
G1 X29.438 Y34.956 Z0 F800
G1 X29.379 Y34.659 Z0 F800
G1 X29.267 Y34.377 Z0 F800
G1 X29.205 Y34.279 Z0 F800
G1 X31.187 Y34.272 Z0 F800
G1 X37.158 Y34.259 Z0 F800
G1 X37.714 Z0 F800
G1 X37.666 Y34.387 Z0 F800
G1 X37.585 Y34.693 Z0 F800
G1 X37.53 Y34.982 Z0 F800
G1 X37.464 Y35.455 Z0 F800
G1 X37.414 Y35.738 Z0 F800
G1 X37.191 Y35.672 Z0 F800
G1 X36.43 Y35.581 Z0 F800
G1 X35.732 Z0 F800
G1 X35.356 Y35.63 Z0 F800
G1 X34.998 Y35.724 Z0 F800
G1 X34.647 Y35.875 Z0 F800
G1 X34.314 Y36.091 Z0 F800
G1 X34.019 Y36.381 Z0 F800
G1 X33.786 Y36.733 Z0 F800
G1 X33.628 Y37.127 Z0 F800
G1 X33.542 Y37.546 Z0 F800
G1 X33.523 Y37.973 Z0 F800
G1 X33.556 Y38.413 Z0 F800
G1 X33.637 Y38.873 Z0 F800
G1 X33.727 Y39.226 Z0 F800
G1 X33.72 Y39.459 Z0 F800
G1 X33.703 Y39.75 Z0 F800
G1 X33.68 Y39.967 Z0 F800
G1 X33.65 Y40.124 Z0 F800
G1 X33.63 Y40.19 Z0 F800
G1 X33.605 Y40.197 Z0 F800
G1 X33.462 Y40.216 Z0 F800
G1 X33.246 Y40.225 Z0 F800
G1 X32.966 Y40.219 Z0 F800
G1 X32.597 Y40.193 Z0 F800
G1 X32.203 Y40.154 Z0 F800
G1 X31.706 Y40.092 Z0 F800
G1 X31.078 Y40.009 Z0 F800
G1 X30.359 Y39.956 Z0 F800
G1 X29.967 Y39.952 Z0 F800
G1 X29.576 Y39.971 Z0 F800
G1 X29.181 Y40.019 Z0 F800
G0 Z3.5 F500
G0 X28.542 Y40.608 Z3.5 
G1 Z0 F500
G1 X28.212 Y40.781 Z0 F800
G1 X27.914 Y41.021 Z0 F800
G1 X27.669 Y41.335 Z0 F800
G1 X27.511 Y41.705 Z0 F800
G1 X27.442 Y42.115 Z0 F800
G1 X27.458 Y42.556 Z0 F800
G1 X27.539 Y42.958 Z0 F800
G1 Y45.387 Z0 F800
G1 X27.134 Y45.406 Z0 F800
G1 X26.721 Y45.419 Z0 F800
G1 X26.292 Y45.425 Z0 F800
G1 X25.858 Y45.419 Z0 F800
G1 X25.455 Y45.4 Z0 F800
G1 X25.101 Y45.362 Z0 F800
G1 X24.521 Y45.295 Z0 F800
G1 X23.97 Y45.221 Z0 F800
G1 X23.758 Y45.167 Z0 F800
G1 X23.593 Y45.102 Z0 F800
G1 X23.471 Y45.025 Z0 F800
G1 X23.379 Y44.93 Z0 F800
G1 X23.339 Y44.861 Z0 F800
G1 X23.298 Y44.753 Z0 F800
G1 X23.273 Y44.635 Z0 F800
G1 X23.263 Y44.499 Z0 F800
G1 X23.272 Y44.368 Z0 F800
G1 X23.298 Y44.247 Z0 F800
G1 X23.337 Y44.142 Z0 F800
G1 X23.37 Y44.087 Z0 F800
G1 X23.418 Y44.071 Z0 F800
G1 X23.501 Y44.055 Z0 F800
G1 X23.79 Y44.038 Z0 F800
G1 X24.131 Y44.042 Z0 F800
G1 X24.516 Y44.039 Z0 F800
G1 X24.917 Y43.977 Z0 F800
G1 X25.165 Y43.876 Z0 F800
G1 X25.399 Y43.688 Z0 F800
G1 X25.562 Y43.409 Z0 F800
G1 X25.61 Y43.123 Z0 F800
G1 Y35.975 Z0 F800
G1 X25.791 Y36.048 Z0 F800
G1 X26.219 Y36.146 Z0 F800
G1 X26.645 Y36.185 Z0 F800
G1 X27.062 Y36.178 Z0 F800
G1 X27.467 Y36.137 Z0 F800
G1 X27.857 Y36.072 Z0 F800
G1 X28.229 Y35.993 Z0 F800
G1 X28.631 Y35.896 Z0 F800
G1 X28.867 Y35.764 Z0 F800
G1 X29.004 Y35.512 Z0 F800
G1 X29.043 Y35.233 Z0 F800
G1 X29.039 Y35 Z0 F800
G1 X28.994 Y34.773 Z0 F800
G1 X28.91 Y34.56 Z0 F800
G1 X28.791 Y34.373 Z0 F800
G1 X28.647 Y34.214 Z0 F800
G1 X28.487 Y34.083 Z0 F800
G1 X28.31 Y33.972 Z0 F800
G1 X28.103 Y33.883 Z0 F800
G1 X31.186 Y33.873 Z0 F800
G1 X37.158 Y33.859 Z0 F800
G1 X38.398 Y33.862 Z0 F800
G1 X38.31 Y33.943 Z0 F800
G1 X38.15 Y34.237 Z0 F800
G1 X38.047 Y34.509 Z0 F800
G1 X37.976 Y34.781 Z0 F800
G1 X37.925 Y35.047 Z0 F800
G1 X37.857 Y35.528 Z0 F800
G1 X37.788 Y35.92 Z0 F800
G1 X37.748 Y36.048 Z0 F800
G1 X37.71 Y36.131 Z0 F800
G1 X37.683 Y36.168 Z0 F800
G1 X37.678 Y36.172 Z0 F800
G1 X37.665 Y36.177 Z0 F800
G1 X37.591 Y36.183 Z0 F800
G1 X37.435 Y36.162 Z0 F800
G1 X37.109 Y36.065 Z0 F800
G1 X36.406 Y35.98 Z0 F800
G1 X35.758 Z0 F800
G1 X35.434 Y36.023 Z0 F800
G1 X35.128 Y36.104 Z0 F800
G1 X34.836 Y36.229 Z0 F800
G1 X34.565 Y36.404 Z0 F800
G1 X34.329 Y36.637 Z0 F800
G1 X34.143 Y36.92 Z0 F800
G1 X34.013 Y37.243 Z0 F800
G1 X33.941 Y37.596 Z0 F800
G1 X33.923 Y37.967 Z0 F800
G1 X33.954 Y38.363 Z0 F800
G1 X34.029 Y38.789 Z0 F800
G1 X34.129 Y39.182 Z0 F800
G1 X34.12 Y39.472 Z0 F800
G1 X34.102 Y39.776 Z0 F800
G1 X34.075 Y40.032 Z0 F800
G1 X34.04 Y40.218 Z0 F800
G1 X33.997 Y40.36 Z0 F800
G1 X33.957 Y40.442 Z0 F800
G1 X33.922 Y40.488 Z0 F800
G1 X33.878 Y40.523 Z0 F800
G1 X33.811 Y40.556 Z0 F800
G1 X33.682 Y40.591 Z0 F800
G1 X33.5 Y40.615 Z0 F800
G1 X33.246 Y40.625 Z0 F800
G1 X32.939 Y40.618 Z0 F800
G1 X32.579 Y40.593 Z0 F800
G1 X32.151 Y40.551 Z0 F800
G1 X31.656 Y40.489 Z0 F800
G1 X31.037 Y40.407 Z0 F800
G1 X30.342 Y40.355 Z0 F800
G1 X29.975 Y40.352 Z0 F800
G1 X29.61 Y40.37 Z0 F800
G1 X29.247 Y40.414 Z0 F800
G1 X28.891 Y40.49 Z0 F800
G1 X28.542 Y40.608 Z0 F800
G0 Z3.5 F500
G0 X52.414 Y44.006 Z3.5 
G1 Z0 F500
G1 X52.551 Y43.761 Z0 F800
G1 Y44.036 Z0 F800
G1 X52.414 Y44.006 Z0 F800
G0 Z3.5 F500
G0 X51.801 Y44.282 Z3.5 
G1 Z0 F500
G1 X52.228 Y43.519 Z0 F800
G1 X52.428 Y42.685 Z0 F800
G1 X52.454 Y42.27 Z0 F800
G1 X52.396 Y41.632 Z0 F800
G1 X52.388 Y41.213 Z0 F800
G1 X52.384 Y40.844 Z0 F800
G1 X52.522 Y40.838 Z0 F800
G1 X52.943 Z0 F800
G1 X52.953 Y44.533 Z0 F800
G1 X51.801 Y44.282 Z0 F800
G0 Z3.5 F500
G0 X52.188 Y46.412 Z3.5 
G1 Z0 F500
G1 X52.956 Y45.644 Z0 F800
G1 X52.965 Y49.135 Z0 F800
G1 X52.896 Y49.143 Z0 F800
G1 X52.408 Y49.195 Z0 F800
G1 X52.42 Y49.002 Z0 F800
G1 X52.437 Y48.523 Z0 F800
G1 X52.433 Y48.007 Z0 F800
G1 X52.396 Y47.453 Z0 F800
G1 X52.306 Y46.858 Z0 F800
G1 X52.188 Y46.412 Z0 F800
G0 Z3.5 F500
G0 X51.442 Y44.104 Z3.5 
G1 Z0 F500
G1 X51.852 Y43.372 Z0 F800
G1 X52.031 Y42.625 Z0 F800
G1 X52.053 Y42.275 Z0 F800
G1 X51.997 Y41.655 Z0 F800
G1 X51.988 Y41.221 Z0 F800
G1 X51.982 Y40.647 Z0 F800
G1 X51.972 Y40.463 Z0 F800
G1 X52.515 Y40.438 Z0 F800
G1 X53.297 Y40.442 Z0 F800
G1 X53.342 Z0 F800
G1 X53.366 Y49.495 Z0 F800
G1 X52.938 Y49.54 Z0 F800
G1 X51.981 Y49.644 Z0 F800
G1 X52.021 Y48.983 Z0 F800
G1 X52.036 Y48.517 Z0 F800
G1 X52.033 Y48.022 Z0 F800
G1 X51.998 Y47.497 Z0 F800
G1 X51.914 Y46.94 Z0 F800
G1 X51.758 Y46.353 Z0 F800
G1 X51.735 Y46.299 Z0 F800
G1 X53.066 Y44.967 Z0 F800
G1 X51.021 Y44.521 Z0 F800
G1 X51.442 Y44.104 Z0 F800
G0 Z3.5 F500
G0 X51.476 Y43.225 Z3.5 
G1 Z0 F500
G1 X51.634 Y42.565 Z0 F800
G1 X51.652 Y42.281 Z0 F800
G1 X51.597 Y41.679 Z0 F800
G1 X51.588 Y41.225 Z0 F800
G1 X51.583 Y40.661 Z0 F800
G1 X51.55 Y40.078 Z0 F800
G1 X51.657 Z0 F800
G1 X52.499 Y40.038 Z0 F800
G1 X53.298 Y40.042 Z0 F800
G1 X53.741 Z0 F800
G1 X53.767 Y49.855 Z0 F800
G1 X52.98 Y49.938 Z0 F800
G1 X51.555 Y50.092 Z0 F800
G1 X51.574 Y49.751 Z0 F800
G1 X51.621 Y48.965 Z0 F800
G1 X51.636 Y48.512 Z0 F800
G1 X51.633 Y48.037 Z0 F800
G1 X51.6 Y47.54 Z0 F800
G1 X51.521 Y47.021 Z0 F800
G1 X51.378 Y46.482 Z0 F800
G1 X51.262 Y46.206 Z0 F800
G1 X52.266 Y45.202 Z0 F800
G1 X50.04 Y44.717 Z0 F800
G1 X49.991 Y44.689 Z0 F800
G1 X50.059 Y44.668 Z0 F800
G1 X50.62 Y44.355 Z0 F800
G1 X51.12 Y43.86 Z0 F800
G1 X51.476 Y43.225 Z0 F800
G0 Z3.5 F500
G0 X53.299 Y39.643 Z3.5 
G1 Z0 F500
G1 X54.14 Z0 F800
G1 X54.167 Y50.215 Z0 F800
G1 X53.023 Y50.335 Z0 F800
G1 X51.473 Y50.503 Z0 F800
G1 X51.134 Y50.521 Z0 F800
G1 Y50.445 Z0 F800
G1 X51.174 Y49.727 Z0 F800
G1 X51.221 Y48.946 Z0 F800
G1 X51.236 Y48.506 Z0 F800
G1 X51.233 Y48.051 Z0 F800
G1 X51.202 Y47.583 Z0 F800
G1 X51.129 Y47.103 Z0 F800
G1 X50.999 Y46.612 Z0 F800
G1 X50.792 Y46.121 Z0 F800
G1 X50.788 Y46.115 Z0 F800
G1 X51.465 Y45.437 Z0 F800
G1 X49.895 Y45.095 Z0 F800
G1 X49.615 Y44.936 Z0 F800
G1 X49.053 Y44.871 Z0 F800
G1 X49.011 Y44.884 Z0 F800
G1 X48.93 Y44.867 Z0 F800
G1 X48.938 Y44.662 Z0 F800
G1 X48.948 Y44.499 Z0 F800
G1 X49.086 Y44.49 Z0 F800
G1 X49.462 Y44.431 Z0 F800
G1 X49.902 Y44.298 Z0 F800
G1 X50.377 Y44.033 Z0 F800
G1 X50.799 Y43.615 Z0 F800
G1 X51.1 Y43.078 Z0 F800
G1 X51.237 Y42.506 Z0 F800
G1 X51.251 Y42.287 Z0 F800
G1 X51.197 Y41.695 Z0 F800
G1 X51.188 Y41.215 Z0 F800
G1 X51.183 Y40.673 Z0 F800
G1 X51.148 Y40.055 Z0 F800
G1 X51.08 Y39.677 Z0 F800
G1 X51.148 Y39.681 Z0 F800
G1 X51.646 Y39.677 Z0 F800
G1 X52.492 Y39.638 Z0 F800
G1 X53.299 Y39.643 Z0 F800
G0 Z3.5 F500
G0 X54.539 Y39.242 Z3.5 
G1 Z0 F500
G1 X54.568 Y50.575 Z0 F800
G1 X53.065 Y50.733 Z0 F800
G1 X51.501 Y50.902 Z0 F800
G1 X50.731 Y50.944 Z0 F800
G1 X50.734 Y50.44 Z0 F800
G1 X50.775 Y49.7 Z0 F800
G1 X50.822 Y48.927 Z0 F800
G1 X50.836 Y48.5 Z0 F800
G1 X50.833 Y48.066 Z0 F800
G1 X50.804 Y47.626 Z0 F800
G1 X50.737 Y47.184 Z0 F800
G1 X50.62 Y46.742 Z0 F800
G1 X50.436 Y46.308 Z0 F800
G1 X50.277 Y46.059 Z0 F800
G1 X50.665 Y45.672 Z0 F800
G1 X49.749 Y45.472 Z0 F800
G1 X49.488 Y45.324 Z0 F800
G1 X49.09 Y45.278 Z0 F800
G1 X49.026 Y45.297 Z0 F800
G1 X48.863 Y45.262 Z0 F800
G1 X48.605 Z0 F800
G1 X48.518 Y45.285 Z0 F800
G1 X48.524 Y44.99 Z0 F800
G1 Y44.984 Z0 F800
G1 Y44.974 Z0 F800
G1 X48.538 Y44.66 Z0 F800
G1 X48.556 Y44.352 Z0 F800
G1 X48.575 Y44.117 Z0 F800
G1 X48.749 Y44.112 Z0 F800
G1 X49.041 Y44.092 Z0 F800
G1 X49.373 Y44.04 Z0 F800
G1 X49.745 Y43.927 Z0 F800
G1 X50.135 Y43.71 Z0 F800
G1 X50.478 Y43.371 Z0 F800
G1 X50.724 Y42.931 Z0 F800
G1 X50.84 Y42.446 Z0 F800
G1 X50.85 Y42.292 Z0 F800
G1 X50.798 Y41.719 Z0 F800
G1 X50.788 Y41.224 Z0 F800
G1 X50.783 Y40.687 Z0 F800
G1 X50.75 Y40.101 Z0 F800
G1 X50.643 Y39.503 Z0 F800
G1 X50.537 Y39.23 Z0 F800
G1 X50.661 Y39.25 Z0 F800
G1 X51.159 Y39.281 Z0 F800
G1 X51.635 Y39.277 Z0 F800
G1 X52.494 Y39.237 Z0 F800
G1 X53.3 Y39.242 Z0 F800
G1 X54.539 Z0 F800
G0 Z3.5 F500
G0 X54.938 Y38.842 Z3.5 
G1 Z0 F500
G1 X54.968 Y50.522 Z0 F800
G1 X55.065 Y50.817 Z0 F800
G1 X55.236 Y50.938 Z0 F800
G1 X54.714 Y50.962 Z0 F800
G1 X53.108 Y51.131 Z0 F800
G1 X51.539 Y51.301 Z0 F800
G1 X50.357 Y51.364 Z0 F800
G1 X50.331 Y51.108 Z0 F800
G1 X50.334 Y50.425 Z0 F800
G1 X50.376 Y49.679 Z0 F800
G1 X50.422 Y48.908 Z0 F800
G1 X50.436 Y48.495 Z0 F800
G1 Y48.081 Z0 F800
G1 X50.406 Y47.67 Z0 F800
G1 X50.345 Y47.266 Z0 F800
G1 X50.24 Y46.872 Z0 F800
G1 X50.081 Y46.495 Z0 F800
G1 X49.856 Y46.144 Z0 F800
G1 X49.745 Y46.026 Z0 F800
G1 X49.864 Y45.907 Z0 F800
G1 X49.572 Y45.843 Z0 F800
G1 X49.547 Y45.817 Z0 F800
G1 X49.361 Y45.711 Z0 F800
G1 X49.126 Y45.685 Z0 F800
G1 X49.032 Y45.713 Z0 F800
G1 X48.991 Y45.698 Z0 F800
G1 X48.821 Y45.662 Z0 F800
G1 X48.658 Z0 F800
G1 X48.458 Y45.716 Z0 F800
G1 X48.265 Y45.854 Z0 F800
G1 X48.153 Y46.016 Z0 F800
G1 X48.129 Y46.069 Z0 F800
G1 Y46.046 Z0 F800
G1 X48.118 Y45.684 Z0 F800
G1 Y45.331 Z0 F800
G1 X48.125 Y44.974 Z0 F800
G1 X48.139 Y44.636 Z0 F800
G1 X48.157 Y44.328 Z0 F800
G1 X48.178 Y44.067 Z0 F800
G1 Y43.979 Z0 F800
G1 X48.163 Y43.891 Z0 F800
G1 X48.128 Y43.756 Z0 F800
G1 X48.125 Y43.745 Z0 F800
G1 X48.288 Y43.729 Z0 F800
G1 X48.487 Y43.719 Z0 F800
G1 X48.729 Y43.712 Z0 F800
G1 X48.997 Y43.694 Z0 F800
G1 X49.284 Y43.649 Z0 F800
G1 X49.588 Y43.557 Z0 F800
G1 X49.892 Y43.387 Z0 F800
G1 X50.156 Y43.126 Z0 F800
G1 X50.348 Y42.783 Z0 F800
G1 X50.443 Y42.387 Z0 F800
G1 X50.449 Y42.298 Z0 F800
G1 X50.398 Y41.742 Z0 F800
G1 X50.388 Y41.231 Z0 F800
G1 X50.383 Y40.699 Z0 F800
G1 X50.352 Y40.148 Z0 F800
G1 X50.256 Y39.611 Z0 F800
G1 X50.057 Y39.098 Z0 F800
G1 X49.897 Y38.838 Z0 F800
G1 X49.715 Y38.615 Z0 F800
G1 X49.733 Y38.626 Z0 F800
G1 X50.231 Y38.775 Z0 F800
G1 X50.705 Y38.852 Z0 F800
G1 X51.17 Y38.88 Z0 F800
G1 X51.625 Y38.877 Z0 F800
G1 X52.478 Y38.837 Z0 F800
G1 X53.302 Y38.842 Z0 F800
G1 X54.938 Z0 F800
G0 Z3.5 F500
G0 X61.922 Y50.544 Z3.5 
G1 Z0 F500
G1 Y51.451 Z0 F800
G1 X61.915 Y51.445 Z0 F800
G1 X61.766 Y51.262 Z0 F800
G1 X61.726 Y51.2 Z0 F800
G1 X61.868 Y50.914 Z0 F800
G1 X61.922 Y50.544 Z0 F800
G0 Z3.5 F500
G0 X62.322 Y46.303 Z3.5 
G1 Z0 F500
G1 Y52.125 Z0 F800
G1 X62.303 Z0 F800
G1 X62.193 Y52.112 Z0 F800
G1 X62.084 Y52.075 Z0 F800
G1 X61.956 Y52.007 Z0 F800
G1 X61.821 Y51.908 Z0 F800
G1 X61.621 Y51.717 Z0 F800
G1 X61.441 Y51.496 Z0 F800
G1 X61.291 Y51.264 Z0 F800
G1 X61.265 Y51.212 Z0 F800
G1 X61.276 Y51.206 Z0 F800
G1 X61.481 Y50.793 Z0 F800
G1 X61.577 Y50.136 Z0 F800
G1 X61.621 Y49.582 Z0 F800
G1 X61.636 Y49.041 Z0 F800
G1 X61.632 Y48.512 Z0 F800
G1 X61.608 Y47.496 Z0 F800
G1 X61.615 Y46.517 Z0 F800
G1 X61.612 Y46.303 Z0 F800
G1 X62.322 Z0 F800
G0 Z3.5 F500
G0 X62.722 Y45.903 Z3.5 
G1 Z0 F500
G1 Y52.478 Z0 F800
G1 X62.666 Z0 F800
G1 X62.604 Y52.482 Z0 F800
G1 X62.399 Y52.522 Z0 F800
G1 X62.288 Y52.527 Z0 F800
G1 X62.101 Y52.503 Z0 F800
G1 X61.925 Y52.444 Z0 F800
G1 X61.744 Y52.347 Z0 F800
G1 X61.562 Y52.214 Z0 F800
G1 X61.326 Y51.989 Z0 F800
G1 X61.119 Y51.733 Z0 F800
G1 X60.944 Y51.465 Z0 F800
G1 X60.786 Y51.154 Z0 F800
G1 X60.718 Y51.073 Z0 F800
G1 X60.729 Y51.07 Z0 F800
G1 X60.97 Y50.924 Z0 F800
G1 X61.095 Y50.672 Z0 F800
G1 X61.179 Y50.091 Z0 F800
G1 X61.221 Y49.561 Z0 F800
G1 X61.235 Y49.036 Z0 F800
G1 X61.232 Y48.518 Z0 F800
G1 X61.208 Y47.505 Z0 F800
G1 X61.215 Y46.519 Z0 F800
G1 X61.211 Y46.249 Z0 F800
G1 X61.201 Y45.996 Z0 F800
G1 Y45.885 Z0 F800
G1 X61.25 Y45.897 Z0 F800
G1 X61.327 Y45.903 Z0 F800
G1 X62.722 Z0 F800
G0 Z3.5 F500
G0 X49.465 Y38.385 Z3.5 
G1 Z0 F500
G1 X49.448 Y38.373 Z0 F800
G1 X49.452 Y38.366 Z0 F800
G1 X49.465 Y38.385 Z0 F800
G0 Z3.5 F500
G0 X25.912 Y33.891 Z3.5 
G1 Z0 F500
G1 X25.739 Y33.956 Z0 F800
G1 X25.61 Y34.032 Z0 F800
G1 Y33.892 Z0 F800
G1 X25.912 Z0 F800
G0 Z3.5 F500
G0 X26.849 Y34.099 Z3.5 
G1 Z0 F500
G1 X26.516 Y34.137 Z0 F800
G1 X26.2 Y34.209 Z0 F800
G1 X25.913 Y34.318 Z0 F800
G1 X25.665 Y34.464 Z0 F800
G1 X25.56 Y34.553 Z0 F800
G1 X25.469 Y34.655 Z0 F800
G1 X25.399 Y34.77 Z0 F800
G1 X25.354 Y34.897 Z0 F800
G1 X25.34 Y35.036 Z0 F800
G1 X25.358 Y35.178 Z0 F800
G1 X25.407 Y35.32 Z0 F800
G1 X25.485 Y35.46 Z0 F800
G1 X25.516 Y35.495 Z0 F800
G1 X25.554 Y35.521 Z0 F800
G1 X25.912 Y35.666 Z0 F800
G1 X26.282 Y35.75 Z0 F800
G1 X26.659 Y35.785 Z0 F800
G1 X27.038 Y35.778 Z0 F800
G1 X27.414 Y35.741 Z0 F800
G1 X27.783 Y35.679 Z0 F800
G1 X28.141 Y35.603 Z0 F800
G1 X28.483 Y35.521 Z0 F800
G1 X28.57 Y35.472 Z0 F800
G1 X28.618 Y35.384 Z0 F800
G1 X28.643 Y35.209 Z0 F800
G1 X28.64 Y35.042 Z0 F800
G1 X28.609 Y34.887 Z0 F800
G1 X28.552 Y34.743 Z0 F800
G1 X28.471 Y34.616 Z0 F800
G1 X28.37 Y34.504 Z0 F800
G1 X28.253 Y34.408 Z0 F800
G1 X28.124 Y34.327 Z0 F800
G1 X27.837 Y34.205 Z0 F800
G1 X27.521 Y34.128 Z0 F800
G1 X27.188 Y34.095 Z0 F800
G1 X26.849 Y34.099 Z0 F800
G0 Z3.5 F500
G0 X25.21 Y33.493 Z3.5 
G1 Z0 F500
G1 X31.184 Y33.473 Z0 F800
G1 X37.158 Y33.459 Z0 F800
G1 X43.131 Y33.473 Z0 F800
G1 X49.103 Y33.532 Z0 F800
G1 X49.305 Y33.723 Z0 F800
G1 X49.459 Y33.929 Z0 F800
G1 X49.572 Y34.152 Z0 F800
G1 X49.647 Y34.394 Z0 F800
G1 X49.693 Y34.666 Z0 F800
G1 X49.712 Y34.955 Z0 F800
G1 X49.708 Y35.259 Z0 F800
G1 X49.688 Y35.573 Z0 F800
G1 X49.625 Y36.224 Z0 F800
G1 X49.581 Y36.887 Z0 F800
G1 X49.585 Y37.217 Z0 F800
G1 X49.618 Y37.541 Z0 F800
G1 X49.687 Y37.858 Z0 F800
G1 X49.8 Y38.165 Z0 F800
G1 X49.84 Y38.222 Z0 F800
G1 X49.899 Y38.259 Z0 F800
G1 X50.321 Y38.385 Z0 F800
G1 X50.749 Y38.454 Z0 F800
G1 X51.181 Y38.48 Z0 F800
G1 X51.614 Z0 F800
G1 X52.471 Y38.438 Z0 F800
G1 X53.303 Y38.442 Z0 F800
G1 X55.337 Z0 F800
G1 X55.368 Y50.458 Z0 F800
G1 X55.404 Y50.566 Z0 F800
G1 X55.497 Y50.632 Z0 F800
G1 X56.099 Y50.786 Z0 F800
G1 X56.739 Y50.895 Z0 F800
G1 X57.402 Y50.959 Z0 F800
G1 X58.076 Y50.983 Z0 F800
G1 X58.744 Y50.967 Z0 F800
G1 X59.394 Y50.912 Z0 F800
G1 X60.009 Y50.821 Z0 F800
G1 X60.577 Y50.694 Z0 F800
G1 X60.663 Y50.642 Z0 F800
G1 X60.708 Y50.552 Z0 F800
G1 X60.781 Y50.047 Z0 F800
G1 X60.821 Y49.54 Z0 F800
G1 X60.835 Y49.032 Z0 F800
G1 Y48.524 Z0 F800
G1 X60.809 Y47.515 Z0 F800
G1 X60.815 Y46.521 Z0 F800
G1 X60.811 Y46.26 Z0 F800
G1 X60.801 Y46.011 Z0 F800
G1 Y45.79 Z0 F800
G1 X60.819 Y45.614 Z0 F800
G1 X60.859 Y45.51 Z0 F800
G1 X60.917 Y45.462 Z0 F800
G1 X60.966 Y45.449 Z0 F800
G1 X61.042 Y45.446 Z0 F800
G1 X61.147 Y45.459 Z0 F800
G1 X61.313 Y45.501 Z0 F800
G1 X61.341 Z0 F800
G1 X63.122 Z0 F800
G1 Y52.878 Z0 F800
G1 X62.679 Z0 F800
G1 X62.655 Z0 F800
G1 X62.449 Y52.92 Z0 F800
G1 X62.271 Y52.929 Z0 F800
G1 X62.012 Y52.896 Z0 F800
G1 X61.765 Y52.812 Z0 F800
G1 X61.529 Y52.686 Z0 F800
G1 X61.306 Y52.522 Z0 F800
G1 X61.032 Y52.261 Z0 F800
G1 X60.793 Y51.967 Z0 F800
G1 X60.598 Y51.665 Z0 F800
G1 X60.45 Y51.376 Z0 F800
G1 X60.385 Y51.298 Z0 F800
G1 X60.288 Y51.267 Z0 F800
G1 X58.312 Z0 F800
G1 X56.343 Y51.286 Z0 F800
G1 X54.744 Y51.361 Z0 F800
G1 X53.15 Y51.529 Z0 F800
G1 X51.567 Y51.7 Z0 F800
G1 X49.999 Y51.784 Z0 F800
G1 X49.931 Y51.129 Z0 F800
G1 X49.935 Y50.411 Z0 F800
G1 X49.977 Y49.655 Z0 F800
G1 X50.022 Y48.89 Z0 F800
G1 X50.036 Y48.489 Z0 F800
G1 Y48.096 Z0 F800
G1 X50.008 Y47.713 Z0 F800
G1 X49.953 Y47.347 Z0 F800
G1 X49.861 Y47.002 Z0 F800
G1 X49.726 Y46.682 Z0 F800
G1 X49.54 Y46.392 Z0 F800
G1 X49.298 Y46.136 Z0 F800
G1 X49.234 Y46.1 Z0 F800
G1 X49.162 Y46.091 Z0 F800
G1 X49.092 Y46.112 Z0 F800
G1 X49.059 Y46.141 Z0 F800
G1 X49.025 Y46.133 Z0 F800
G1 X48.96 Y46.112 Z0 F800
G1 X48.88 Y46.083 Z0 F800
G1 X48.778 Y46.062 Z0 F800
G1 X48.711 Z0 F800
G1 X48.632 Y46.083 Z0 F800
G1 X48.555 Y46.138 Z0 F800
G1 X48.503 Y46.214 Z0 F800
G1 X48.389 Y46.465 Z0 F800
G1 X48.283 Y46.677 Z0 F800
G1 X48.187 Y46.849 Z0 F800
G1 X48.101 Y46.983 Z0 F800
G1 X48.031 Y47.073 Z0 F800
G1 X47.976 Y47.127 Z0 F800
G1 X47.929 Y47.163 Z0 F800
G1 X47.916 Y47.147 Z0 F800
G1 X47.897 Y47.114 Z0 F800
G1 X47.838 Y46.947 Z0 F800
G1 X47.786 Y46.7 Z0 F800
G1 X47.75 Y46.398 Z0 F800
G1 X47.728 Y46.058 Z0 F800
G1 X47.718 Y45.695 Z0 F800
G1 Y45.323 Z0 F800
G1 X47.725 Y44.957 Z0 F800
G1 X47.739 Y44.613 Z0 F800
G1 X47.757 Y44.305 Z0 F800
G1 X47.778 Y44.048 Z0 F800
G1 Y44.013 Z0 F800
G1 X47.772 Y43.978 Z0 F800
G1 X47.737 Y43.842 Z0 F800
G1 X47.717 Y43.729 Z0 F800
G1 X47.712 Y43.638 Z0 F800
G1 X47.718 Y43.567 Z0 F800
G1 X47.749 Y43.478 Z0 F800
G1 X47.808 Y43.423 Z0 F800
G1 X47.913 Y43.379 Z0 F800
G1 X48.067 Y43.349 Z0 F800
G1 X48.258 Y43.33 Z0 F800
G1 X48.476 Y43.319 Z0 F800
G1 X48.709 Y43.313 Z0 F800
G1 X48.952 Y43.296 Z0 F800
G1 X49.194 Y43.258 Z0 F800
G1 X49.431 Y43.187 Z0 F800
G1 X49.649 Y43.064 Z0 F800
G1 X49.834 Y42.881 Z0 F800
G1 X49.972 Y42.636 Z0 F800
G1 X50.046 Y42.327 Z0 F800
G1 Y42.304 Z0 F800
G1 X49.999 Y41.766 Z0 F800
G1 X49.988 Y41.24 Z0 F800
G1 X49.983 Y40.712 Z0 F800
G1 X49.954 Y40.194 Z0 F800
G1 X49.869 Y39.72 Z0 F800
G1 X49.697 Y39.276 Z0 F800
G1 X49.57 Y39.071 Z0 F800
G1 X49.414 Y38.879 Z0 F800
G1 X49.225 Y38.705 Z0 F800
G1 X48.999 Y38.548 Z0 F800
G1 Y38.466 Z0 F800
G1 X49.02 Y38.363 Z0 F800
G1 X49.067 Y38.239 Z0 F800
G1 X49.142 Y38.093 Z0 F800
G1 X49.24 Y37.917 Z0 F800
G1 X49.339 Y37.727 Z0 F800
G1 X49.42 Y37.52 Z0 F800
G1 X49.468 Y37.296 Z0 F800
G1 X49.594 Y36.276 Z0 F800
G1 X49.629 Y35.772 Z0 F800
G1 X49.606 Y35.292 Z0 F800
G1 X49.564 Y35.065 Z0 F800
G1 X49.494 Y34.851 Z0 F800
G1 X49.392 Y34.652 Z0 F800
G1 X49.253 Y34.474 Z0 F800
G1 X49.075 Y34.323 Z0 F800
G1 X48.859 Y34.204 Z0 F800
G1 X48.605 Y34.118 Z0 F800
G1 X48.299 Y34.066 Z0 F800
G1 X47.145 Y34.096 Z0 F800
G1 X45.965 Y34.112 Z0 F800
G1 X44.76 Y34.118 Z0 F800
G1 X43.54 Z0 F800
G1 X41.111 Y34.106 Z0 F800
G1 X38.78 Y34.11 Z0 F800
G1 X38.695 Y34.132 Z0 F800
G1 X38.63 Y34.192 Z0 F800
G1 X38.515 Y34.404 Z0 F800
G1 X38.429 Y34.631 Z0 F800
G1 X38.366 Y34.87 Z0 F800
G1 X38.32 Y35.112 Z0 F800
G1 X38.253 Y35.588 Z0 F800
G1 X38.177 Y36.015 Z0 F800
G1 X38.123 Y36.191 Z0 F800
G1 X38.056 Y36.336 Z0 F800
G1 X37.976 Y36.447 Z0 F800
G1 X37.878 Y36.524 Z0 F800
G1 X37.751 Y36.572 Z0 F800
G1 X37.579 Y36.585 Z0 F800
G1 X37.353 Y36.554 Z0 F800
G1 X37.028 Y36.458 Z0 F800
G1 X36.381 Y36.38 Z0 F800
G1 X35.785 Z0 F800
G1 X35.512 Y36.417 Z0 F800
G1 X35.258 Y36.483 Z0 F800
G1 X35.025 Y36.583 Z0 F800
G1 X34.817 Y36.718 Z0 F800
G1 X34.64 Y36.893 Z0 F800
G1 X34.499 Y37.106 Z0 F800
G1 X34.397 Y37.358 Z0 F800
G1 X34.339 Y37.646 Z0 F800
G1 X34.324 Y37.961 Z0 F800
G1 X34.351 Y38.313 Z0 F800
G1 X34.42 Y38.705 Z0 F800
G1 X34.53 Y39.138 Z0 F800
G1 X34.52 Y39.496 Z0 F800
G1 X34.501 Y39.812 Z0 F800
G1 X34.472 Y40.085 Z0 F800
G1 X34.429 Y40.315 Z0 F800
G1 X34.371 Y40.505 Z0 F800
G1 X34.299 Y40.654 Z0 F800
G1 X34.208 Y40.771 Z0 F800
G1 X34.095 Y40.862 Z0 F800
G1 X33.95 Y40.933 Z0 F800
G1 X33.763 Y40.983 Z0 F800
G1 X33.531 Y41.014 Z0 F800
G1 X33.253 Y41.025 Z0 F800
G1 X32.924 Y41.018 Z0 F800
G1 X32.542 Y40.992 Z0 F800
G1 X32.104 Y40.948 Z0 F800
G1 X31.606 Y40.886 Z0 F800
G1 X30.996 Y40.805 Z0 F800
G1 X30.326 Y40.755 Z0 F800
G1 X29.983 Y40.752 Z0 F800
G1 X29.644 Y40.769 Z0 F800
G1 X29.313 Y40.809 Z0 F800
G1 X28.997 Y40.876 Z0 F800
G1 X28.701 Y40.977 Z0 F800
G1 X28.432 Y41.118 Z0 F800
G1 X28.201 Y41.303 Z0 F800
G1 X28.017 Y41.54 Z0 F800
G1 X27.897 Y41.818 Z0 F800
G1 X27.843 Y42.142 Z0 F800
G1 X27.856 Y42.509 Z0 F800
G1 X27.938 Y42.919 Z0 F800
G1 Y45.765 Z0 F800
G1 X27.651 Y45.782 Z0 F800
G1 X27.146 Y45.806 Z0 F800
G1 X26.734 Y45.819 Z0 F800
G1 X26.292 Y45.825 Z0 F800
G1 X25.847 Y45.819 Z0 F800
G1 X25.426 Y45.799 Z0 F800
G1 X25.056 Y45.759 Z0 F800
G1 X24.469 Y45.692 Z0 F800
G1 X23.896 Y45.614 Z0 F800
G1 X23.637 Y45.55 Z0 F800
G1 X23.41 Y45.459 Z0 F800
G1 X23.215 Y45.337 Z0 F800
G1 X23.06 Y45.175 Z0 F800
G1 X22.976 Y45.034 Z0 F800
G1 X22.914 Y44.869 Z0 F800
G1 X22.876 Y44.689 Z0 F800
G1 X22.862 Y44.501 Z0 F800
G1 X22.875 Y44.313 Z0 F800
G1 X22.913 Y44.133 Z0 F800
G1 X22.974 Y43.969 Z0 F800
G1 X23.058 Y43.829 Z0 F800
G1 X23.12 Y43.768 Z0 F800
G1 X23.208 Y43.719 Z0 F800
G1 X23.319 Y43.683 Z0 F800
G1 X23.454 Y43.657 Z0 F800
G1 X23.777 Y43.638 Z0 F800
G1 X24.132 Y43.642 Z0 F800
G1 X24.483 Y43.639 Z0 F800
G1 X24.81 Y43.589 Z0 F800
G1 X24.96 Y43.527 Z0 F800
G1 X25.091 Y43.423 Z0 F800
G1 X25.179 Y43.271 Z0 F800
G1 X25.21 Y43.089 Z0 F800
G1 Y33.493 Z0 F800
;Layer C1 Pass 2 of 2
G0 Z3.5 F500
G0 X31.137 Y37.607 Z3.5 
G1 Z0 F500
G1 X31.055 Y37.601 Z0 F800
G1 X31.145 Y37.434 Z0 F800
G1 X31.137 Y37.607 Z0 F800
G0 Z3.5 F500
G0 X31.283 Y38.019 Z3.5 
G1 Z0 F500
G1 X30.443 Y37.957 Z0 F800
G1 X29.928 Y37.951 Z0 F800
G1 X29.868 Y37.954 Z0 F800
G1 X30.644 Y37.518 Z0 F800
G1 X31.319 Y36.279 Z0 F800
G1 Y36.272 Z0 F800
G1 X31.816 Z0 F800
G1 X31.705 Y36.55 Z0 F800
G1 X31.552 Y37.299 Z0 F800
G1 X31.519 Y38.002 Z0 F800
G1 X31.523 Y38.05 Z0 F800
G1 X31.283 Y38.019 Z0 F800
G0 Z3.5 F500
G0 X29.369 Y37.776 Z3.5 
G1 Z0 F500
G1 X30.348 Y37.226 Z0 F800
G1 X30.933 Y36.151 Z0 F800
G1 X30.973 Y35.874 Z0 F800
G1 X31.192 Z0 F800
G1 X32.439 Y35.87 Z0 F800
G1 X32.362 Y35.987 Z0 F800
G1 X32.089 Y36.665 Z0 F800
G1 X31.95 Y37.349 Z0 F800
G1 X31.92 Y37.997 Z0 F800
G1 X31.959 Y38.511 Z0 F800
G1 X31.92 Y38.506 Z0 F800
G1 X31.242 Y38.417 Z0 F800
G1 X30.427 Y38.356 Z0 F800
G1 X29.936 Y38.352 Z0 F800
G1 X29.44 Y38.375 Z0 F800
G1 X28.917 Y38.439 Z0 F800
G1 X28.357 Y38.559 Z0 F800
G1 X27.751 Y38.765 Z0 F800
G1 X27.61 Y38.839 Z0 F800
G1 Y38.133 Z0 F800
G1 X27.731 Y38.121 Z0 F800
G1 X28.23 Y38.038 Z0 F800
G1 X28.671 Y37.944 Z0 F800
G1 X29.369 Y37.776 Z0 F800
G0 Z3.5 F500
G0 X32.474 Y36.781 Z3.5 
G1 Z0 F500
G1 X32.348 Y37.398 Z0 F800
G1 X32.321 Y37.991 Z0 F800
G1 X32.364 Y38.563 Z0 F800
G1 X32.436 Y38.971 Z0 F800
G1 X32.31 Y38.958 Z0 F800
G1 X31.868 Y38.903 Z0 F800
G1 X31.201 Y38.815 Z0 F800
G1 X30.41 Y38.756 Z0 F800
G1 X29.944 Y38.751 Z0 F800
G1 X29.474 Y38.774 Z0 F800
G1 X28.983 Y38.834 Z0 F800
G1 X28.464 Y38.945 Z0 F800
G1 X27.909 Y39.134 Z0 F800
G1 X27.333 Y39.436 Z0 F800
G1 X27.21 Y39.534 Z0 F800
G1 Y37.771 Z0 F800
G1 X27.678 Y37.724 Z0 F800
G1 X28.156 Y37.645 Z0 F800
G1 X28.583 Y37.554 Z0 F800
G1 X29.221 Y37.4 Z0 F800
G1 X30.052 Y36.934 Z0 F800
G1 X30.547 Y36.023 Z0 F800
G1 X30.625 Y35.475 Z0 F800
G1 X31.191 Z0 F800
G1 X33.236 Y35.468 Z0 F800
G1 X33.086 Y35.615 Z0 F800
G1 X32.718 Y36.173 Z0 F800
G1 X32.474 Y36.781 Z0 F800
G0 Z3.5 F500
G0 X31.805 Y39.298 Z3.5 
G1 Z0 F500
G1 X31.16 Y39.213 Z0 F800
G1 X30.393 Y39.156 Z0 F800
G1 X29.952 Y39.151 Z0 F800
G1 X29.508 Y39.173 Z0 F800
G1 X29.049 Y39.229 Z0 F800
G1 X28.57 Y39.331 Z0 F800
G1 X28.067 Y39.502 Z0 F800
G1 X27.552 Y39.772 Z0 F800
G1 X27.053 Y40.173 Z0 F800
G1 X26.81 Y40.485 Z0 F800
G1 Y37.382 Z0 F800
G1 X27.131 Y37.377 Z0 F800
G1 X27.625 Y37.328 Z0 F800
G1 X28.081 Y37.251 Z0 F800
G1 X28.495 Y37.164 Z0 F800
G1 X29.074 Y37.024 Z0 F800
G1 X29.755 Y36.641 Z0 F800
G1 X30.162 Y35.896 Z0 F800
G1 X30.246 Y35.306 Z0 F800
G1 X30.241 Y35.076 Z0 F800
G1 X31.189 Y35.073 Z0 F800
G1 X34.503 Y35.065 Z0 F800
G1 X34.269 Y35.166 Z0 F800
G1 X33.81 Y35.464 Z0 F800
G1 X33.397 Y35.87 Z0 F800
G1 X33.074 Y36.36 Z0 F800
G1 X32.859 Y36.896 Z0 F800
G1 X32.746 Y37.447 Z0 F800
G1 X32.721 Y37.985 Z0 F800
G1 X32.762 Y38.513 Z0 F800
G1 X32.854 Y39.041 Z0 F800
G1 X32.924 Y39.315 Z0 F800
G1 X32.921 Y39.414 Z0 F800
G1 X32.67 Y39.396 Z0 F800
G1 X32.3 Y39.36 Z0 F800
G1 X31.805 Y39.298 Z0 F800
G0 Z3.5 F500
G0 X30.376 Y39.556 Z3.5 
G1 Z0 F500
G1 X29.959 Y39.552 Z0 F800
G1 X29.542 Y39.572 Z0 F800
G1 X29.115 Y39.624 Z0 F800
G1 X28.677 Y39.717 Z0 F800
G1 X28.226 Y39.871 Z0 F800
G1 X27.772 Y40.108 Z0 F800
G1 X27.34 Y40.455 Z0 F800
G1 X26.974 Y40.926 Z0 F800
G1 X26.738 Y41.478 Z0 F800
G1 X26.64 Y42.063 Z0 F800
G1 X26.661 Y42.649 Z0 F800
G1 X26.738 Y43.037 Z0 F800
G1 Y44.619 Z0 F800
G1 X26.706 Z0 F800
G1 X26.292 Y44.625 Z0 F800
G1 X25.893 Y44.62 Z0 F800
G1 X25.514 Y44.602 Z0 F800
G1 X25.506 Z0 F800
G1 X25.574 Y44.573 Z0 F800
G1 X26.016 Y44.22 Z0 F800
G1 X26.326 Y43.685 Z0 F800
G1 X26.41 Y43.19 Z0 F800
G1 Y36.967 Z0 F800
G1 X26.615 Y36.985 Z0 F800
G1 X27.108 Y36.978 Z0 F800
G1 X27.573 Y36.931 Z0 F800
G1 X28.006 Y36.858 Z0 F800
G1 X28.406 Y36.773 Z0 F800
G1 X28.926 Y36.648 Z0 F800
G1 X29.459 Y36.349 Z0 F800
G1 X29.775 Y35.768 Z0 F800
G1 X29.845 Y35.282 Z0 F800
G1 X29.837 Y34.913 Z0 F800
G1 X29.791 Y34.678 Z0 F800
G1 X31.188 Y34.673 Z0 F800
G1 X37.158 Y34.66 Z0 F800
G1 X37.184 Z0 F800
G1 X37.135 Y34.917 Z0 F800
G1 X37.087 Y35.257 Z0 F800
G1 X36.454 Y35.181 Z0 F800
G1 X35.705 Z0 F800
G1 X35.278 Y35.237 Z0 F800
G1 X34.868 Y35.345 Z0 F800
G1 X34.458 Y35.52 Z0 F800
G1 X34.062 Y35.777 Z0 F800
G1 X33.708 Y36.126 Z0 F800
G1 X33.43 Y36.546 Z0 F800
G1 X33.243 Y37.012 Z0 F800
G1 X33.145 Y37.497 Z0 F800
G1 X33.122 Y37.979 Z0 F800
G1 X33.159 Y38.463 Z0 F800
G1 X33.246 Y38.957 Z0 F800
G1 X33.326 Y39.271 Z0 F800
G1 X33.321 Y39.434 Z0 F800
G1 X33.305 Y39.705 Z0 F800
G1 X33.292 Y39.823 Z0 F800
G1 X33.239 Z0 F800
G1 X32.98 Y39.819 Z0 F800
G1 X32.634 Y39.795 Z0 F800
G1 X32.25 Y39.757 Z0 F800
G1 X31.755 Y39.695 Z0 F800
G1 X31.119 Y39.611 Z0 F800
G1 X30.376 Y39.556 Z0 F800
G0 Z3.5 F500
G0 X29.181 Y40.019 Z3.5 
G1 Z0 F500
G1 X28.784 Y40.104 Z0 F800
G1 X28.384 Y40.24 Z0 F800
G1 X27.992 Y40.445 Z0 F800
G1 X27.627 Y40.738 Z0 F800
G1 X27.322 Y41.13 Z0 F800
G1 X27.125 Y41.592 Z0 F800
G1 X27.041 Y42.089 Z0 F800
G1 X27.059 Y42.602 Z0 F800
G1 X27.139 Y43 Z0 F800
G1 Y45.005 Z0 F800
G1 X27.114 Z0 F800
G1 X26.708 Y45.02 Z0 F800
G1 X26.292 Y45.025 Z0 F800
G1 X25.869 Y45.02 Z0 F800
G1 X25.493 Y45.001 Z0 F800
G1 X25.146 Y44.964 Z0 F800
G1 X24.573 Y44.898 Z0 F800
G1 X24.046 Y44.827 Z0 F800
G1 X23.883 Y44.786 Z0 F800
G1 X23.773 Y44.743 Z0 F800
G1 X23.724 Y44.711 Z0 F800
G1 X23.701 Y44.688 Z0 F800
G1 X23.684 Y44.645 Z0 F800
G1 X23.67 Y44.576 Z0 F800
G1 X23.665 Y44.5 Z0 F800
G1 X23.668 Y44.446 Z0 F800
G1 X23.802 Y44.438 Z0 F800
G1 X24.131 Y44.441 Z0 F800
G1 X24.547 Z0 F800
G1 X25.025 Y44.365 Z0 F800
G1 X25.369 Y44.224 Z0 F800
G1 X25.708 Y43.954 Z0 F800
G1 X25.944 Y43.547 Z0 F800
G1 X26.01 Y43.156 Z0 F800
G1 Y36.509 Z0 F800
G1 X26.156 Y36.542 Z0 F800
G1 X26.63 Y36.585 Z0 F800
G1 X27.084 Y36.578 Z0 F800
G1 X27.52 Y36.534 Z0 F800
G1 X27.932 Y36.465 Z0 F800
G1 X28.317 Y36.383 Z0 F800
G1 X28.778 Y36.272 Z0 F800
G1 X29.163 Y36.056 Z0 F800
G1 X29.39 Y35.64 Z0 F800
G1 X29.444 Y35.257 Z0 F800
G1 X29.438 Y34.956 Z0 F800
G1 X29.379 Y34.659 Z0 F800
G1 X29.267 Y34.377 Z0 F800
G1 X29.205 Y34.279 Z0 F800
G1 X31.187 Y34.272 Z0 F800
G1 X37.158 Y34.259 Z0 F800
G1 X37.714 Z0 F800
G1 X37.666 Y34.387 Z0 F800
G1 X37.585 Y34.693 Z0 F800
G1 X37.53 Y34.982 Z0 F800
G1 X37.464 Y35.455 Z0 F800
G1 X37.414 Y35.738 Z0 F800
G1 X37.191 Y35.672 Z0 F800
G1 X36.43 Y35.581 Z0 F800
G1 X35.732 Z0 F800
G1 X35.356 Y35.63 Z0 F800
G1 X34.998 Y35.724 Z0 F800
G1 X34.647 Y35.875 Z0 F800
G1 X34.314 Y36.091 Z0 F800
G1 X34.019 Y36.381 Z0 F800
G1 X33.786 Y36.733 Z0 F800
G1 X33.628 Y37.127 Z0 F800
G1 X33.542 Y37.546 Z0 F800
G1 X33.523 Y37.973 Z0 F800
G1 X33.556 Y38.413 Z0 F800
G1 X33.637 Y38.873 Z0 F800
G1 X33.727 Y39.226 Z0 F800
G1 X33.72 Y39.459 Z0 F800
G1 X33.703 Y39.75 Z0 F800
G1 X33.68 Y39.967 Z0 F800
G1 X33.65 Y40.124 Z0 F800
G1 X33.63 Y40.19 Z0 F800
G1 X33.605 Y40.197 Z0 F800
G1 X33.462 Y40.216 Z0 F800
G1 X33.246 Y40.225 Z0 F800
G1 X32.966 Y40.219 Z0 F800
G1 X32.597 Y40.193 Z0 F800
G1 X32.203 Y40.154 Z0 F800
G1 X31.706 Y40.092 Z0 F800
G1 X31.078 Y40.009 Z0 F800
G1 X30.359 Y39.956 Z0 F800
G1 X29.967 Y39.952 Z0 F800
G1 X29.576 Y39.971 Z0 F800
G1 X29.181 Y40.019 Z0 F800
G0 Z3.5 F500
G0 X28.542 Y40.608 Z3.5 
G1 Z0 F500
G1 X28.212 Y40.781 Z0 F800
G1 X27.914 Y41.021 Z0 F800
G1 X27.669 Y41.335 Z0 F800
G1 X27.511 Y41.705 Z0 F800
G1 X27.442 Y42.115 Z0 F800
G1 X27.458 Y42.556 Z0 F800
G1 X27.539 Y42.958 Z0 F800
G1 Y45.387 Z0 F800
G1 X27.134 Y45.406 Z0 F800
G1 X26.721 Y45.419 Z0 F800
G1 X26.292 Y45.425 Z0 F800
G1 X25.858 Y45.419 Z0 F800
G1 X25.455 Y45.4 Z0 F800
G1 X25.101 Y45.362 Z0 F800
G1 X24.521 Y45.295 Z0 F800
G1 X23.97 Y45.221 Z0 F800
G1 X23.758 Y45.167 Z0 F800
G1 X23.593 Y45.102 Z0 F800
G1 X23.471 Y45.025 Z0 F800
G1 X23.379 Y44.93 Z0 F800
G1 X23.339 Y44.861 Z0 F800
G1 X23.298 Y44.753 Z0 F800
G1 X23.273 Y44.635 Z0 F800
G1 X23.263 Y44.499 Z0 F800
G1 X23.272 Y44.368 Z0 F800
G1 X23.298 Y44.247 Z0 F800
G1 X23.337 Y44.142 Z0 F800
G1 X23.37 Y44.087 Z0 F800
G1 X23.418 Y44.071 Z0 F800
G1 X23.501 Y44.055 Z0 F800
G1 X23.79 Y44.038 Z0 F800
G1 X24.131 Y44.042 Z0 F800
G1 X24.516 Y44.039 Z0 F800
G1 X24.917 Y43.977 Z0 F800
G1 X25.165 Y43.876 Z0 F800
G1 X25.399 Y43.688 Z0 F800
G1 X25.562 Y43.409 Z0 F800
G1 X25.61 Y43.123 Z0 F800
G1 Y35.975 Z0 F800
G1 X25.791 Y36.048 Z0 F800
G1 X26.219 Y36.146 Z0 F800
G1 X26.645 Y36.185 Z0 F800
G1 X27.062 Y36.178 Z0 F800
G1 X27.467 Y36.137 Z0 F800
G1 X27.857 Y36.072 Z0 F800
G1 X28.229 Y35.993 Z0 F800
G1 X28.631 Y35.896 Z0 F800
G1 X28.867 Y35.764 Z0 F800
G1 X29.004 Y35.512 Z0 F800
G1 X29.043 Y35.233 Z0 F800
G1 X29.039 Y35 Z0 F800
G1 X28.994 Y34.773 Z0 F800
G1 X28.91 Y34.56 Z0 F800
G1 X28.791 Y34.373 Z0 F800
G1 X28.647 Y34.214 Z0 F800
G1 X28.487 Y34.083 Z0 F800
G1 X28.31 Y33.972 Z0 F800
G1 X28.103 Y33.883 Z0 F800
G1 X31.186 Y33.873 Z0 F800
G1 X37.158 Y33.859 Z0 F800
G1 X38.398 Y33.862 Z0 F800
G1 X38.31 Y33.943 Z0 F800
G1 X38.15 Y34.237 Z0 F800
G1 X38.047 Y34.509 Z0 F800
G1 X37.976 Y34.781 Z0 F800
G1 X37.925 Y35.047 Z0 F800
G1 X37.857 Y35.528 Z0 F800
G1 X37.788 Y35.92 Z0 F800
G1 X37.748 Y36.048 Z0 F800
G1 X37.71 Y36.131 Z0 F800
G1 X37.683 Y36.168 Z0 F800
G1 X37.678 Y36.172 Z0 F800
G1 X37.665 Y36.177 Z0 F800
G1 X37.591 Y36.183 Z0 F800
G1 X37.435 Y36.162 Z0 F800
G1 X37.109 Y36.065 Z0 F800
G1 X36.406 Y35.98 Z0 F800
G1 X35.758 Z0 F800
G1 X35.434 Y36.023 Z0 F800
G1 X35.128 Y36.104 Z0 F800
G1 X34.836 Y36.229 Z0 F800
G1 X34.565 Y36.404 Z0 F800
G1 X34.329 Y36.637 Z0 F800
G1 X34.143 Y36.92 Z0 F800
G1 X34.013 Y37.243 Z0 F800
G1 X33.941 Y37.596 Z0 F800
G1 X33.923 Y37.967 Z0 F800
G1 X33.954 Y38.363 Z0 F800
G1 X34.029 Y38.789 Z0 F800
G1 X34.129 Y39.182 Z0 F800
G1 X34.12 Y39.472 Z0 F800
G1 X34.102 Y39.776 Z0 F800
G1 X34.075 Y40.032 Z0 F800
G1 X34.04 Y40.218 Z0 F800
G1 X33.997 Y40.36 Z0 F800
G1 X33.957 Y40.442 Z0 F800
G1 X33.922 Y40.488 Z0 F800
G1 X33.878 Y40.523 Z0 F800
G1 X33.811 Y40.556 Z0 F800
G1 X33.682 Y40.591 Z0 F800
G1 X33.5 Y40.615 Z0 F800
G1 X33.246 Y40.625 Z0 F800
G1 X32.939 Y40.618 Z0 F800
G1 X32.579 Y40.593 Z0 F800
G1 X32.151 Y40.551 Z0 F800
G1 X31.656 Y40.489 Z0 F800
G1 X31.037 Y40.407 Z0 F800
G1 X30.342 Y40.355 Z0 F800
G1 X29.975 Y40.352 Z0 F800
G1 X29.61 Y40.37 Z0 F800
G1 X29.247 Y40.414 Z0 F800
G1 X28.891 Y40.49 Z0 F800
G1 X28.542 Y40.608 Z0 F800
G0 Z3.5 F500
G0 X52.414 Y44.006 Z3.5 
G1 Z0 F500
G1 X52.551 Y43.761 Z0 F800
G1 Y44.036 Z0 F800
G1 X52.414 Y44.006 Z0 F800
G0 Z3.5 F500
G0 X51.801 Y44.282 Z3.5 
G1 Z0 F500
G1 X52.228 Y43.519 Z0 F800
G1 X52.428 Y42.685 Z0 F800
G1 X52.454 Y42.27 Z0 F800
G1 X52.396 Y41.632 Z0 F800
G1 X52.388 Y41.213 Z0 F800
G1 X52.384 Y40.844 Z0 F800
G1 X52.522 Y40.838 Z0 F800
G1 X52.943 Z0 F800
G1 X52.953 Y44.533 Z0 F800
G1 X51.801 Y44.282 Z0 F800
G0 Z3.5 F500
G0 X52.188 Y46.412 Z3.5 
G1 Z0 F500
G1 X52.956 Y45.644 Z0 F800
G1 X52.965 Y49.135 Z0 F800
G1 X52.896 Y49.143 Z0 F800
G1 X52.408 Y49.195 Z0 F800
G1 X52.42 Y49.002 Z0 F800
G1 X52.437 Y48.523 Z0 F800
G1 X52.433 Y48.007 Z0 F800
G1 X52.396 Y47.453 Z0 F800
G1 X52.306 Y46.858 Z0 F800
G1 X52.188 Y46.412 Z0 F800
G0 Z3.5 F500
G0 X51.442 Y44.104 Z3.5 
G1 Z0 F500
G1 X51.852 Y43.372 Z0 F800
G1 X52.031 Y42.625 Z0 F800
G1 X52.053 Y42.275 Z0 F800
G1 X51.997 Y41.655 Z0 F800
G1 X51.988 Y41.221 Z0 F800
G1 X51.982 Y40.647 Z0 F800
G1 X51.972 Y40.463 Z0 F800
G1 X52.515 Y40.438 Z0 F800
G1 X53.297 Y40.442 Z0 F800
G1 X53.342 Z0 F800
G1 X53.366 Y49.495 Z0 F800
G1 X52.938 Y49.54 Z0 F800
G1 X51.981 Y49.644 Z0 F800
G1 X52.021 Y48.983 Z0 F800
G1 X52.036 Y48.517 Z0 F800
G1 X52.033 Y48.022 Z0 F800
G1 X51.998 Y47.497 Z0 F800
G1 X51.914 Y46.94 Z0 F800
G1 X51.758 Y46.353 Z0 F800
G1 X51.735 Y46.299 Z0 F800
G1 X53.066 Y44.967 Z0 F800
G1 X51.021 Y44.521 Z0 F800
G1 X51.442 Y44.104 Z0 F800
G0 Z3.5 F500
G0 X51.476 Y43.225 Z3.5 
G1 Z0 F500
G1 X51.634 Y42.565 Z0 F800
G1 X51.652 Y42.281 Z0 F800
G1 X51.597 Y41.679 Z0 F800
G1 X51.588 Y41.225 Z0 F800
G1 X51.583 Y40.661 Z0 F800
G1 X51.55 Y40.078 Z0 F800
G1 X51.657 Z0 F800
G1 X52.499 Y40.038 Z0 F800
G1 X53.298 Y40.042 Z0 F800
G1 X53.741 Z0 F800
G1 X53.767 Y49.855 Z0 F800
G1 X52.98 Y49.938 Z0 F800
G1 X51.555 Y50.092 Z0 F800
G1 X51.574 Y49.751 Z0 F800
G1 X51.621 Y48.965 Z0 F800
G1 X51.636 Y48.512 Z0 F800
G1 X51.633 Y48.037 Z0 F800
G1 X51.6 Y47.54 Z0 F800
G1 X51.521 Y47.021 Z0 F800
G1 X51.378 Y46.482 Z0 F800
G1 X51.262 Y46.206 Z0 F800
G1 X52.266 Y45.202 Z0 F800
G1 X50.04 Y44.717 Z0 F800
G1 X49.991 Y44.689 Z0 F800
G1 X50.059 Y44.668 Z0 F800
G1 X50.62 Y44.355 Z0 F800
G1 X51.12 Y43.86 Z0 F800
G1 X51.476 Y43.225 Z0 F800
G0 Z3.5 F500
G0 X53.299 Y39.643 Z3.5 
G1 Z0 F500
G1 X54.14 Z0 F800
G1 X54.167 Y50.215 Z0 F800
G1 X53.023 Y50.335 Z0 F800
G1 X51.473 Y50.503 Z0 F800
G1 X51.134 Y50.521 Z0 F800
G1 Y50.445 Z0 F800
G1 X51.174 Y49.727 Z0 F800
G1 X51.221 Y48.946 Z0 F800
G1 X51.236 Y48.506 Z0 F800
G1 X51.233 Y48.051 Z0 F800
G1 X51.202 Y47.583 Z0 F800
G1 X51.129 Y47.103 Z0 F800
G1 X50.999 Y46.612 Z0 F800
G1 X50.792 Y46.121 Z0 F800
G1 X50.788 Y46.115 Z0 F800
G1 X51.465 Y45.437 Z0 F800
G1 X49.895 Y45.095 Z0 F800
G1 X49.615 Y44.936 Z0 F800
G1 X49.053 Y44.871 Z0 F800
G1 X49.011 Y44.884 Z0 F800
G1 X48.93 Y44.867 Z0 F800
G1 X48.938 Y44.662 Z0 F800
G1 X48.948 Y44.499 Z0 F800
G1 X49.086 Y44.49 Z0 F800
G1 X49.462 Y44.431 Z0 F800
G1 X49.902 Y44.298 Z0 F800
G1 X50.377 Y44.033 Z0 F800
G1 X50.799 Y43.615 Z0 F800
G1 X51.1 Y43.078 Z0 F800
G1 X51.237 Y42.506 Z0 F800
G1 X51.251 Y42.287 Z0 F800
G1 X51.197 Y41.695 Z0 F800
G1 X51.188 Y41.215 Z0 F800
G1 X51.183 Y40.673 Z0 F800
G1 X51.148 Y40.055 Z0 F800
G1 X51.08 Y39.677 Z0 F800
G1 X51.148 Y39.681 Z0 F800
G1 X51.646 Y39.677 Z0 F800
G1 X52.492 Y39.638 Z0 F800
G1 X53.299 Y39.643 Z0 F800
G0 Z3.5 F500
G0 X54.539 Y39.242 Z3.5 
G1 Z0 F500
G1 X54.568 Y50.575 Z0 F800
G1 X53.065 Y50.733 Z0 F800
G1 X51.501 Y50.902 Z0 F800
G1 X50.731 Y50.944 Z0 F800
G1 X50.734 Y50.44 Z0 F800
G1 X50.775 Y49.7 Z0 F800
G1 X50.822 Y48.927 Z0 F800
G1 X50.836 Y48.5 Z0 F800
G1 X50.833 Y48.066 Z0 F800
G1 X50.804 Y47.626 Z0 F800
G1 X50.737 Y47.184 Z0 F800
G1 X50.62 Y46.742 Z0 F800
G1 X50.436 Y46.308 Z0 F800
G1 X50.277 Y46.059 Z0 F800
G1 X50.665 Y45.672 Z0 F800
G1 X49.749 Y45.472 Z0 F800
G1 X49.488 Y45.324 Z0 F800
G1 X49.09 Y45.278 Z0 F800
G1 X49.026 Y45.297 Z0 F800
G1 X48.863 Y45.262 Z0 F800
G1 X48.605 Z0 F800
G1 X48.518 Y45.285 Z0 F800
G1 X48.524 Y44.99 Z0 F800
G1 Y44.984 Z0 F800
G1 Y44.974 Z0 F800
G1 X48.538 Y44.66 Z0 F800
G1 X48.556 Y44.352 Z0 F800
G1 X48.575 Y44.117 Z0 F800
G1 X48.749 Y44.112 Z0 F800
G1 X49.041 Y44.092 Z0 F800
G1 X49.373 Y44.04 Z0 F800
G1 X49.745 Y43.927 Z0 F800
G1 X50.135 Y43.71 Z0 F800
G1 X50.478 Y43.371 Z0 F800
G1 X50.724 Y42.931 Z0 F800
G1 X50.84 Y42.446 Z0 F800
G1 X50.85 Y42.292 Z0 F800
G1 X50.798 Y41.719 Z0 F800
G1 X50.788 Y41.224 Z0 F800
G1 X50.783 Y40.687 Z0 F800
G1 X50.75 Y40.101 Z0 F800
G1 X50.643 Y39.503 Z0 F800
G1 X50.537 Y39.23 Z0 F800
G1 X50.661 Y39.25 Z0 F800
G1 X51.159 Y39.281 Z0 F800
G1 X51.635 Y39.277 Z0 F800
G1 X52.494 Y39.237 Z0 F800
G1 X53.3 Y39.242 Z0 F800
G1 X54.539 Z0 F800
G0 Z3.5 F500
G0 X54.938 Y38.842 Z3.5 
G1 Z0 F500
G1 X54.968 Y50.522 Z0 F800
G1 X55.065 Y50.817 Z0 F800
G1 X55.236 Y50.938 Z0 F800
G1 X54.714 Y50.962 Z0 F800
G1 X53.108 Y51.131 Z0 F800
G1 X51.539 Y51.301 Z0 F800
G1 X50.357 Y51.364 Z0 F800
G1 X50.331 Y51.108 Z0 F800
G1 X50.334 Y50.425 Z0 F800
G1 X50.376 Y49.679 Z0 F800
G1 X50.422 Y48.908 Z0 F800
G1 X50.436 Y48.495 Z0 F800
G1 Y48.081 Z0 F800
G1 X50.406 Y47.67 Z0 F800
G1 X50.345 Y47.266 Z0 F800
G1 X50.24 Y46.872 Z0 F800
G1 X50.081 Y46.495 Z0 F800
G1 X49.856 Y46.144 Z0 F800
G1 X49.745 Y46.026 Z0 F800
G1 X49.864 Y45.907 Z0 F800
G1 X49.572 Y45.843 Z0 F800
G1 X49.547 Y45.817 Z0 F800
G1 X49.361 Y45.711 Z0 F800
G1 X49.126 Y45.685 Z0 F800
G1 X49.032 Y45.713 Z0 F800
G1 X48.991 Y45.698 Z0 F800
G1 X48.821 Y45.662 Z0 F800
G1 X48.658 Z0 F800
G1 X48.458 Y45.716 Z0 F800
G1 X48.265 Y45.854 Z0 F800
G1 X48.153 Y46.016 Z0 F800
G1 X48.129 Y46.069 Z0 F800
G1 Y46.046 Z0 F800
G1 X48.118 Y45.684 Z0 F800
G1 Y45.331 Z0 F800
G1 X48.125 Y44.974 Z0 F800
G1 X48.139 Y44.636 Z0 F800
G1 X48.157 Y44.328 Z0 F800
G1 X48.178 Y44.067 Z0 F800
G1 Y43.979 Z0 F800
G1 X48.163 Y43.891 Z0 F800
G1 X48.128 Y43.756 Z0 F800
G1 X48.125 Y43.745 Z0 F800
G1 X48.288 Y43.729 Z0 F800
G1 X48.487 Y43.719 Z0 F800
G1 X48.729 Y43.712 Z0 F800
G1 X48.997 Y43.694 Z0 F800
G1 X49.284 Y43.649 Z0 F800
G1 X49.588 Y43.557 Z0 F800
G1 X49.892 Y43.387 Z0 F800
G1 X50.156 Y43.126 Z0 F800
G1 X50.348 Y42.783 Z0 F800
G1 X50.443 Y42.387 Z0 F800
G1 X50.449 Y42.298 Z0 F800
G1 X50.398 Y41.742 Z0 F800
G1 X50.388 Y41.231 Z0 F800
G1 X50.383 Y40.699 Z0 F800
G1 X50.352 Y40.148 Z0 F800
G1 X50.256 Y39.611 Z0 F800
G1 X50.057 Y39.098 Z0 F800
G1 X49.897 Y38.838 Z0 F800
G1 X49.715 Y38.615 Z0 F800
G1 X49.733 Y38.626 Z0 F800
G1 X50.231 Y38.775 Z0 F800
G1 X50.705 Y38.852 Z0 F800
G1 X51.17 Y38.88 Z0 F800
G1 X51.625 Y38.877 Z0 F800
G1 X52.478 Y38.837 Z0 F800
G1 X53.302 Y38.842 Z0 F800
G1 X54.938 Z0 F800
G0 Z3.5 F500
G0 X61.922 Y50.544 Z3.5 
G1 Z0 F500
G1 Y51.451 Z0 F800
G1 X61.915 Y51.445 Z0 F800
G1 X61.766 Y51.262 Z0 F800
G1 X61.726 Y51.2 Z0 F800
G1 X61.868 Y50.914 Z0 F800
G1 X61.922 Y50.544 Z0 F800
G0 Z3.5 F500
G0 X62.322 Y46.303 Z3.5 
G1 Z0 F500
G1 Y52.125 Z0 F800
G1 X62.303 Z0 F800
G1 X62.193 Y52.112 Z0 F800
G1 X62.084 Y52.075 Z0 F800
G1 X61.956 Y52.007 Z0 F800
G1 X61.821 Y51.908 Z0 F800
G1 X61.621 Y51.717 Z0 F800
G1 X61.441 Y51.496 Z0 F800
G1 X61.291 Y51.264 Z0 F800
G1 X61.265 Y51.212 Z0 F800
G1 X61.276 Y51.206 Z0 F800
G1 X61.481 Y50.793 Z0 F800
G1 X61.577 Y50.136 Z0 F800
G1 X61.621 Y49.582 Z0 F800
G1 X61.636 Y49.041 Z0 F800
G1 X61.632 Y48.512 Z0 F800
G1 X61.608 Y47.496 Z0 F800
G1 X61.615 Y46.517 Z0 F800
G1 X61.612 Y46.303 Z0 F800
G1 X62.322 Z0 F800
G0 Z3.5 F500
G0 X62.722 Y45.903 Z3.5 
G1 Z0 F500
G1 Y52.478 Z0 F800
G1 X62.666 Z0 F800
G1 X62.604 Y52.482 Z0 F800
G1 X62.399 Y52.522 Z0 F800
G1 X62.288 Y52.527 Z0 F800
G1 X62.101 Y52.503 Z0 F800
G1 X61.925 Y52.444 Z0 F800
G1 X61.744 Y52.347 Z0 F800
G1 X61.562 Y52.214 Z0 F800
G1 X61.326 Y51.989 Z0 F800
G1 X61.119 Y51.733 Z0 F800
G1 X60.944 Y51.465 Z0 F800
G1 X60.786 Y51.154 Z0 F800
G1 X60.718 Y51.073 Z0 F800
G1 X60.729 Y51.07 Z0 F800
G1 X60.97 Y50.924 Z0 F800
G1 X61.095 Y50.672 Z0 F800
G1 X61.179 Y50.091 Z0 F800
G1 X61.221 Y49.561 Z0 F800
G1 X61.235 Y49.036 Z0 F800
G1 X61.232 Y48.518 Z0 F800
G1 X61.208 Y47.505 Z0 F800
G1 X61.215 Y46.519 Z0 F800
G1 X61.211 Y46.249 Z0 F800
G1 X61.201 Y45.996 Z0 F800
G1 Y45.885 Z0 F800
G1 X61.25 Y45.897 Z0 F800
G1 X61.327 Y45.903 Z0 F800
G1 X62.722 Z0 F800
G0 Z3.5 F500
G0 X49.465 Y38.385 Z3.5 
G1 Z0 F500
G1 X49.448 Y38.373 Z0 F800
G1 X49.452 Y38.366 Z0 F800
G1 X49.465 Y38.385 Z0 F800
G0 Z3.5 F500
G0 X25.912 Y33.891 Z3.5 
G1 Z0 F500
G1 X25.739 Y33.956 Z0 F800
G1 X25.61 Y34.032 Z0 F800
G1 Y33.892 Z0 F800
G1 X25.912 Z0 F800
G0 Z3.5 F500
G0 X26.849 Y34.099 Z3.5 
G1 Z0 F500
G1 X26.516 Y34.137 Z0 F800
G1 X26.2 Y34.209 Z0 F800
G1 X25.913 Y34.318 Z0 F800
G1 X25.665 Y34.464 Z0 F800
G1 X25.56 Y34.553 Z0 F800
G1 X25.469 Y34.655 Z0 F800
G1 X25.399 Y34.77 Z0 F800
G1 X25.354 Y34.897 Z0 F800
G1 X25.34 Y35.036 Z0 F800
G1 X25.358 Y35.178 Z0 F800
G1 X25.407 Y35.32 Z0 F800
G1 X25.485 Y35.46 Z0 F800
G1 X25.516 Y35.495 Z0 F800
G1 X25.554 Y35.521 Z0 F800
G1 X25.912 Y35.666 Z0 F800
G1 X26.282 Y35.75 Z0 F800
G1 X26.659 Y35.785 Z0 F800
G1 X27.038 Y35.778 Z0 F800
G1 X27.414 Y35.741 Z0 F800
G1 X27.783 Y35.679 Z0 F800
G1 X28.141 Y35.603 Z0 F800
G1 X28.483 Y35.521 Z0 F800
G1 X28.57 Y35.472 Z0 F800
G1 X28.618 Y35.384 Z0 F800
G1 X28.643 Y35.209 Z0 F800
G1 X28.64 Y35.042 Z0 F800
G1 X28.609 Y34.887 Z0 F800
G1 X28.552 Y34.743 Z0 F800
G1 X28.471 Y34.616 Z0 F800
G1 X28.37 Y34.504 Z0 F800
G1 X28.253 Y34.408 Z0 F800
G1 X28.124 Y34.327 Z0 F800
G1 X27.837 Y34.205 Z0 F800
G1 X27.521 Y34.128 Z0 F800
G1 X27.188 Y34.095 Z0 F800
G1 X26.849 Y34.099 Z0 F800
G0 Z3.5 F500
G0 X25.21 Y33.493 Z3.5 
G1 Z0 F500
G1 X31.184 Y33.473 Z0 F800
G1 X37.158 Y33.459 Z0 F800
G1 X43.131 Y33.473 Z0 F800
G1 X49.103 Y33.532 Z0 F800
G1 X49.305 Y33.723 Z0 F800
G1 X49.459 Y33.929 Z0 F800
G1 X49.572 Y34.152 Z0 F800
G1 X49.647 Y34.394 Z0 F800
G1 X49.693 Y34.666 Z0 F800
G1 X49.712 Y34.955 Z0 F800
G1 X49.708 Y35.259 Z0 F800
G1 X49.688 Y35.573 Z0 F800
G1 X49.625 Y36.224 Z0 F800
G1 X49.581 Y36.887 Z0 F800
G1 X49.585 Y37.217 Z0 F800
G1 X49.618 Y37.541 Z0 F800
G1 X49.687 Y37.858 Z0 F800
G1 X49.8 Y38.165 Z0 F800
G1 X49.84 Y38.222 Z0 F800
G1 X49.899 Y38.259 Z0 F800
G1 X50.321 Y38.385 Z0 F800
G1 X50.749 Y38.454 Z0 F800
G1 X51.181 Y38.48 Z0 F800
G1 X51.614 Z0 F800
G1 X52.471 Y38.438 Z0 F800
G1 X53.303 Y38.442 Z0 F800
G1 X55.337 Z0 F800
G1 X55.368 Y50.458 Z0 F800
G1 X55.404 Y50.566 Z0 F800
G1 X55.497 Y50.632 Z0 F800
G1 X56.099 Y50.786 Z0 F800
G1 X56.739 Y50.895 Z0 F800
G1 X57.402 Y50.959 Z0 F800
G1 X58.076 Y50.983 Z0 F800
G1 X58.744 Y50.967 Z0 F800
G1 X59.394 Y50.912 Z0 F800
G1 X60.009 Y50.821 Z0 F800
G1 X60.577 Y50.694 Z0 F800
G1 X60.663 Y50.642 Z0 F800
G1 X60.708 Y50.552 Z0 F800
G1 X60.781 Y50.047 Z0 F800
G1 X60.821 Y49.54 Z0 F800
G1 X60.835 Y49.032 Z0 F800
G1 Y48.524 Z0 F800
G1 X60.809 Y47.515 Z0 F800
G1 X60.815 Y46.521 Z0 F800
G1 X60.811 Y46.26 Z0 F800
G1 X60.801 Y46.011 Z0 F800
G1 Y45.79 Z0 F800
G1 X60.819 Y45.614 Z0 F800
G1 X60.859 Y45.51 Z0 F800
G1 X60.917 Y45.462 Z0 F800
G1 X60.966 Y45.449 Z0 F800
G1 X61.042 Y45.446 Z0 F800
G1 X61.147 Y45.459 Z0 F800
G1 X61.313 Y45.501 Z0 F800
G1 X61.341 Z0 F800
G1 X63.122 Z0 F800
G1 Y52.878 Z0 F800
G1 X62.679 Z0 F800
G1 X62.655 Z0 F800
G1 X62.449 Y52.92 Z0 F800
G1 X62.271 Y52.929 Z0 F800
G1 X62.012 Y52.896 Z0 F800
G1 X61.765 Y52.812 Z0 F800
G1 X61.529 Y52.686 Z0 F800
G1 X61.306 Y52.522 Z0 F800
G1 X61.032 Y52.261 Z0 F800
G1 X60.793 Y51.967 Z0 F800
G1 X60.598 Y51.665 Z0 F800
G1 X60.45 Y51.376 Z0 F800
G1 X60.385 Y51.298 Z0 F800
G1 X60.288 Y51.267 Z0 F800
G1 X58.312 Z0 F800
G1 X56.343 Y51.286 Z0 F800
G1 X54.744 Y51.361 Z0 F800
G1 X53.15 Y51.529 Z0 F800
G1 X51.567 Y51.7 Z0 F800
G1 X49.999 Y51.784 Z0 F800
G1 X49.931 Y51.129 Z0 F800
G1 X49.935 Y50.411 Z0 F800
G1 X49.977 Y49.655 Z0 F800
G1 X50.022 Y48.89 Z0 F800
G1 X50.036 Y48.489 Z0 F800
G1 Y48.096 Z0 F800
G1 X50.008 Y47.713 Z0 F800
G1 X49.953 Y47.347 Z0 F800
G1 X49.861 Y47.002 Z0 F800
G1 X49.726 Y46.682 Z0 F800
G1 X49.54 Y46.392 Z0 F800
G1 X49.298 Y46.136 Z0 F800
G1 X49.234 Y46.1 Z0 F800
G1 X49.162 Y46.091 Z0 F800
G1 X49.092 Y46.112 Z0 F800
G1 X49.059 Y46.141 Z0 F800
G1 X49.025 Y46.133 Z0 F800
G1 X48.96 Y46.112 Z0 F800
G1 X48.88 Y46.083 Z0 F800
G1 X48.778 Y46.062 Z0 F800
G1 X48.711 Z0 F800
G1 X48.632 Y46.083 Z0 F800
G1 X48.555 Y46.138 Z0 F800
G1 X48.503 Y46.214 Z0 F800
G1 X48.389 Y46.465 Z0 F800
G1 X48.283 Y46.677 Z0 F800
G1 X48.187 Y46.849 Z0 F800
G1 X48.101 Y46.983 Z0 F800
G1 X48.031 Y47.073 Z0 F800
G1 X47.976 Y47.127 Z0 F800
G1 X47.929 Y47.163 Z0 F800
G1 X47.916 Y47.147 Z0 F800
G1 X47.897 Y47.114 Z0 F800
G1 X47.838 Y46.947 Z0 F800
G1 X47.786 Y46.7 Z0 F800
G1 X47.75 Y46.398 Z0 F800
G1 X47.728 Y46.058 Z0 F800
G1 X47.718 Y45.695 Z0 F800
G1 Y45.323 Z0 F800
G1 X47.725 Y44.957 Z0 F800
G1 X47.739 Y44.613 Z0 F800
G1 X47.757 Y44.305 Z0 F800
G1 X47.778 Y44.048 Z0 F800
G1 Y44.013 Z0 F800
G1 X47.772 Y43.978 Z0 F800
G1 X47.737 Y43.842 Z0 F800
G1 X47.717 Y43.729 Z0 F800
G1 X47.712 Y43.638 Z0 F800
G1 X47.718 Y43.567 Z0 F800
G1 X47.749 Y43.478 Z0 F800
G1 X47.808 Y43.423 Z0 F800
G1 X47.913 Y43.379 Z0 F800
G1 X48.067 Y43.349 Z0 F800
G1 X48.258 Y43.33 Z0 F800
G1 X48.476 Y43.319 Z0 F800
G1 X48.709 Y43.313 Z0 F800
G1 X48.952 Y43.296 Z0 F800
G1 X49.194 Y43.258 Z0 F800
G1 X49.431 Y43.187 Z0 F800
G1 X49.649 Y43.064 Z0 F800
G1 X49.834 Y42.881 Z0 F800
G1 X49.972 Y42.636 Z0 F800
G1 X50.046 Y42.327 Z0 F800
G1 Y42.304 Z0 F800
G1 X49.999 Y41.766 Z0 F800
G1 X49.988 Y41.24 Z0 F800
G1 X49.983 Y40.712 Z0 F800
G1 X49.954 Y40.194 Z0 F800
G1 X49.869 Y39.72 Z0 F800
G1 X49.697 Y39.276 Z0 F800
G1 X49.57 Y39.071 Z0 F800
G1 X49.414 Y38.879 Z0 F800
G1 X49.225 Y38.705 Z0 F800
G1 X48.999 Y38.548 Z0 F800
G1 Y38.466 Z0 F800
G1 X49.02 Y38.363 Z0 F800
G1 X49.067 Y38.239 Z0 F800
G1 X49.142 Y38.093 Z0 F800
G1 X49.24 Y37.917 Z0 F800
G1 X49.339 Y37.727 Z0 F800
G1 X49.42 Y37.52 Z0 F800
G1 X49.468 Y37.296 Z0 F800
G1 X49.594 Y36.276 Z0 F800
G1 X49.629 Y35.772 Z0 F800
G1 X49.606 Y35.292 Z0 F800
G1 X49.564 Y35.065 Z0 F800
G1 X49.494 Y34.851 Z0 F800
G1 X49.392 Y34.652 Z0 F800
G1 X49.253 Y34.474 Z0 F800
G1 X49.075 Y34.323 Z0 F800
G1 X48.859 Y34.204 Z0 F800
G1 X48.605 Y34.118 Z0 F800
G1 X48.299 Y34.066 Z0 F800
G1 X47.145 Y34.096 Z0 F800
G1 X45.965 Y34.112 Z0 F800
G1 X44.76 Y34.118 Z0 F800
G1 X43.54 Z0 F800
G1 X41.111 Y34.106 Z0 F800
G1 X38.78 Y34.11 Z0 F800
G1 X38.695 Y34.132 Z0 F800
G1 X38.63 Y34.192 Z0 F800
G1 X38.515 Y34.404 Z0 F800
G1 X38.429 Y34.631 Z0 F800
G1 X38.366 Y34.87 Z0 F800
G1 X38.32 Y35.112 Z0 F800
G1 X38.253 Y35.588 Z0 F800
G1 X38.177 Y36.015 Z0 F800
G1 X38.123 Y36.191 Z0 F800
G1 X38.056 Y36.336 Z0 F800
G1 X37.976 Y36.447 Z0 F800
G1 X37.878 Y36.524 Z0 F800
G1 X37.751 Y36.572 Z0 F800
G1 X37.579 Y36.585 Z0 F800
G1 X37.353 Y36.554 Z0 F800
G1 X37.028 Y36.458 Z0 F800
G1 X36.381 Y36.38 Z0 F800
G1 X35.785 Z0 F800
G1 X35.512 Y36.417 Z0 F800
G1 X35.258 Y36.483 Z0 F800
G1 X35.025 Y36.583 Z0 F800
G1 X34.817 Y36.718 Z0 F800
G1 X34.64 Y36.893 Z0 F800
G1 X34.499 Y37.106 Z0 F800
G1 X34.397 Y37.358 Z0 F800
G1 X34.339 Y37.646 Z0 F800
G1 X34.324 Y37.961 Z0 F800
G1 X34.351 Y38.313 Z0 F800
G1 X34.42 Y38.705 Z0 F800
G1 X34.53 Y39.138 Z0 F800
G1 X34.52 Y39.496 Z0 F800
G1 X34.501 Y39.812 Z0 F800
G1 X34.472 Y40.085 Z0 F800
G1 X34.429 Y40.315 Z0 F800
G1 X34.371 Y40.505 Z0 F800
G1 X34.299 Y40.654 Z0 F800
G1 X34.208 Y40.771 Z0 F800
G1 X34.095 Y40.862 Z0 F800
G1 X33.95 Y40.933 Z0 F800
G1 X33.763 Y40.983 Z0 F800
G1 X33.531 Y41.014 Z0 F800
G1 X33.253 Y41.025 Z0 F800
G1 X32.924 Y41.018 Z0 F800
G1 X32.542 Y40.992 Z0 F800
G1 X32.104 Y40.948 Z0 F800
G1 X31.606 Y40.886 Z0 F800
G1 X30.996 Y40.805 Z0 F800
G1 X30.326 Y40.755 Z0 F800
G1 X29.983 Y40.752 Z0 F800
G1 X29.644 Y40.769 Z0 F800
G1 X29.313 Y40.809 Z0 F800
G1 X28.997 Y40.876 Z0 F800
G1 X28.701 Y40.977 Z0 F800
G1 X28.432 Y41.118 Z0 F800
G1 X28.201 Y41.303 Z0 F800
G1 X28.017 Y41.54 Z0 F800
G1 X27.897 Y41.818 Z0 F800
G1 X27.843 Y42.142 Z0 F800
G1 X27.856 Y42.509 Z0 F800
G1 X27.938 Y42.919 Z0 F800
G1 Y45.765 Z0 F800
G1 X27.651 Y45.782 Z0 F800
G1 X27.146 Y45.806 Z0 F800
G1 X26.734 Y45.819 Z0 F800
G1 X26.292 Y45.825 Z0 F800
G1 X25.847 Y45.819 Z0 F800
G1 X25.426 Y45.799 Z0 F800
G1 X25.056 Y45.759 Z0 F800
G1 X24.469 Y45.692 Z0 F800
G1 X23.896 Y45.614 Z0 F800
G1 X23.637 Y45.55 Z0 F800
G1 X23.41 Y45.459 Z0 F800
G1 X23.215 Y45.337 Z0 F800
G1 X23.06 Y45.175 Z0 F800
G1 X22.976 Y45.034 Z0 F800
G1 X22.914 Y44.869 Z0 F800
G1 X22.876 Y44.689 Z0 F800
G1 X22.862 Y44.501 Z0 F800
G1 X22.875 Y44.313 Z0 F800
G1 X22.913 Y44.133 Z0 F800
G1 X22.974 Y43.969 Z0 F800
G1 X23.058 Y43.829 Z0 F800
G1 X23.12 Y43.768 Z0 F800
G1 X23.208 Y43.719 Z0 F800
G1 X23.319 Y43.683 Z0 F800
G1 X23.454 Y43.657 Z0 F800
G1 X23.777 Y43.638 Z0 F800
G1 X24.132 Y43.642 Z0 F800
G1 X24.483 Y43.639 Z0 F800
G1 X24.81 Y43.589 Z0 F800
G1 X24.96 Y43.527 Z0 F800
G1 X25.091 Y43.423 Z0 F800
G1 X25.179 Y43.271 Z0 F800
G1 X25.21 Y43.089 Z0 F800
G1 Y33.493 Z0 F800
G0 Z3.5 F500
G0 X32.577 Y44.868 Z3.5 
G1 Z0 F500
;Layer C1 Pass 1 of 2
G1 Y46.468 Z0 F800
G1 X32.102 Y46.81 Z0 F800
G1 X31.922 Y47.049 Z0 F800
G1 X31.943 Y46.883 Z0 F800
G1 Y46.36 Z0 F800
G1 X31.922 Y45.952 Z0 F800
G1 X31.903 Y45.648 Z0 F800
G1 X31.899 Y45.457 Z0 F800
G1 X31.918 Y45.175 Z0 F800
G1 Y44.863 Z0 F800
G1 X32.577 Y44.868 Z0 F800
G0 Z3.5 F500
G0 X32.977 Y44.47 Z3.5 
G1 Z0 F500
G1 Y46.681 Z0 F800
G1 X32.954 Y46.69 Z0 F800
G1 X32.385 Y47.099 Z0 F800
G1 X31.955 Y47.673 Z0 F800
G1 X31.72 Y48.258 Z0 F800
G1 X31.623 Y48.784 Z0 F800
G1 X31.598 Y49.252 Z0 F800
G1 X31.634 Y49.96 Z0 F800
G1 X31.692 Y50.586 Z0 F800
G1 X31.709 Y50.821 Z0 F800
G1 Y50.907 Z0 F800
G1 X31.532 Z0 F800
G1 Y50.844 Z0 F800
G1 X31.521 Y50.031 Z0 F800
G1 X31.353 Y48.974 Z0 F800
G1 X31.047 Y48.449 Z0 F800
G1 X31.263 Y48.103 Z0 F800
G1 X31.472 Y47.442 Z0 F800
G1 X31.543 Y46.858 Z0 F800
G1 Y46.37 Z0 F800
G1 X31.523 Y45.975 Z0 F800
G1 X31.504 Y45.67 Z0 F800
G1 X31.499 Y45.449 Z0 F800
G1 X31.519 Y45.162 Z0 F800
G1 Y44.461 Z0 F800
G1 X32.977 Y44.47 Z0 F800
G0 Z3.5 F500
G0 X33.377 Y44.456 Z3.5 
G1 Z0 F500
G1 Y46.961 Z0 F800
G1 X33.143 Y47.046 Z0 F800
G1 X32.669 Y47.388 Z0 F800
G1 X32.307 Y47.871 Z0 F800
G1 X32.106 Y48.371 Z0 F800
G1 X32.021 Y48.832 Z0 F800
G1 X31.999 Y49.252 Z0 F800
G1 X32.033 Y49.931 Z0 F800
G1 X32.09 Y50.535 Z0 F800
G1 X32.108 Y50.805 Z0 F800
G1 X32.112 Y51.005 Z0 F800
G1 X32.104 Y51.148 Z0 F800
G1 X32.073 Y51.307 Z0 F800
G1 X31.118 Z0 F800
G1 X31.134 Y50.84 Z0 F800
G1 X31.121 Y50.066 Z0 F800
G1 X30.969 Y49.111 Z0 F800
G1 X30.64 Y48.543 Z0 F800
G1 X30.548 Y48.494 Z0 F800
G1 X30.896 Y47.934 Z0 F800
G1 X31.079 Y47.356 Z0 F800
G1 X31.143 Y46.833 Z0 F800
G1 Y46.38 Z0 F800
G1 X31.124 Y45.998 Z0 F800
G1 X31.104 Y45.68 Z0 F800
G1 X31.098 Y45.441 Z0 F800
G1 X31.119 Y45.147 Z0 F800
G1 Y44.059 Z0 F800
G1 X33.433 Y44.073 Z0 F800
G1 X33.445 Y44.094 Z0 F800
G1 X33.44 Y44.11 Z0 F800
G1 X33.397 Y44.267 Z0 F800
G1 X33.377 Y44.456 Z0 F800
G0 Z3.5 F500
G0 X32.952 Y47.677 Z3.5 
G1 Z0 F500
G1 X32.658 Y48.068 Z0 F800
G1 X32.492 Y48.482 Z0 F800
G1 X32.418 Y48.878 Z0 F800
G1 X32.399 Y49.252 Z0 F800
G1 X32.432 Y49.902 Z0 F800
G1 X32.491 Y50.526 Z0 F800
G1 X32.508 Y50.779 Z0 F800
G1 X32.513 Y51.016 Z0 F800
G1 X32.502 Y51.194 Z0 F800
G1 X32.458 Y51.425 Z0 F800
G1 X32.427 Y51.71 Z0 F800
G1 X32.377 Y51.707 Z0 F800
G1 X30.714 Z0 F800
G1 X30.711 Y51.489 Z0 F800
G1 X30.734 Y50.837 Z0 F800
G1 X30.722 Y50.101 Z0 F800
G1 X30.586 Y49.248 Z0 F800
G1 X30.35 Y48.841 Z0 F800
G1 X29.956 Y48.626 Z0 F800
G1 X29.665 Y48.572 Z0 F800
G1 X29.902 Y48.518 Z0 F800
G1 X30.215 Y48.271 Z0 F800
G1 X30.53 Y47.765 Z0 F800
G1 X30.687 Y47.271 Z0 F800
G1 X30.743 Y46.808 Z0 F800
G1 Y46.391 Z0 F800
G1 X30.725 Y46.021 Z0 F800
G1 X30.704 Y45.701 Z0 F800
G1 X30.698 Y45.429 Z0 F800
G1 X30.718 Y45.133 Z0 F800
G1 Y43.656 Z0 F800
G1 X33.657 Y43.674 Z0 F800
G1 X33.773 Y43.864 Z0 F800
G1 X33.906 Y43.978 Z0 F800
G1 X33.823 Y44.226 Z0 F800
G1 X33.792 Y44.341 Z0 F800
G1 X33.777 Y44.478 Z0 F800
G1 Y47.245 Z0 F800
G1 X33.755 Y47.249 Z0 F800
G1 X33.332 Y47.403 Z0 F800
G1 X32.952 Y47.677 Z0 F800
G0 Z3.5 F500
G0 X30.203 Y49.384 Z3.5 
G1 Z0 F500
G1 X30.06 Y49.139 Z0 F800
G1 X29.82 Y49.008 Z0 F800
G1 X29.494 Y48.948 Z0 F800
G1 X29.181 Y48.91 Z0 F800
G1 X28.838 Y48.882 Z0 F800
G1 X28.468 Y48.864 Z0 F800
G1 X27.674 Y48.847 Z0 F800
G1 X26.831 Z0 F800
G1 X24.843 Y48.868 Z0 F800
G1 X24.525 Z0 F800
G1 X24.248 Y48.865 Z0 F800
G1 X23.998 Y48.857 Z0 F800
G1 X23.723 Y48.861 Z0 F800
G1 X23.47 Y48.871 Z0 F800
G1 X23.356 Z0 F800
G1 X23.37 Y48.818 Z0 F800
G1 X23.374 Y48.732 Z0 F800
G1 X23.356 Y48.233 Z0 F800
G1 Y48.177 Z0 F800
G1 X23.401 Y48.189 Z0 F800
G1 X23.482 Y48.196 Z0 F800
G1 X29.517 Z0 F800
G1 X29.725 Y48.148 Z0 F800
G1 X29.913 Y48 Z0 F800
G1 X30.164 Y47.597 Z0 F800
G1 X30.294 Y47.186 Z0 F800
G1 X30.343 Y46.783 Z0 F800
G1 Y46.401 Z0 F800
G1 X30.325 Y46.044 Z0 F800
G1 X30.304 Y45.708 Z0 F800
G1 X30.297 Y45.421 Z0 F800
G1 X30.318 Y45.12 Z0 F800
G1 Y43.253 Z0 F800
G1 X33.893 Y43.276 Z0 F800
G1 X33.904 Y43.312 Z0 F800
G1 X34.082 Y43.602 Z0 F800
G1 X34.321 Y43.807 Z0 F800
G1 X34.355 Y43.83 Z0 F800
G1 X34.34 Y43.91 Z0 F800
G1 X34.293 Y44.083 Z0 F800
G1 X34.206 Y44.342 Z0 F800
G1 X34.186 Y44.415 Z0 F800
G1 X34.177 Y44.499 Z0 F800
G1 Y47.59 Z0 F800
G1 X33.854 Y47.638 Z0 F800
G1 X33.521 Y47.76 Z0 F800
G1 X33.235 Y47.966 Z0 F800
G1 X33.01 Y48.267 Z0 F800
G1 X32.878 Y48.595 Z0 F800
G1 X32.817 Y48.926 Z0 F800
G1 X32.8 Y49.253 Z0 F800
G1 X32.832 Y49.874 Z0 F800
G1 X32.889 Y50.489 Z0 F800
G1 X32.908 Y50.764 Z0 F800
G1 X32.913 Y51.02 Z0 F800
G1 X32.899 Y51.247 Z0 F800
G1 X32.854 Y51.484 Z0 F800
G1 X32.806 Y51.93 Z0 F800
G1 X32.82 Y52.207 Z0 F800
G1 X32.773 Y52.196 Z0 F800
G1 X32.487 Y52.122 Z0 F800
G1 X32.426 Y52.111 Z0 F800
G1 X32.365 Y52.107 Z0 F800
G1 X30.319 Z0 F800
G1 X30.312 Y51.496 Z0 F800
G1 X30.333 Y50.833 Z0 F800
G1 X30.322 Y50.136 Z0 F800
G1 X30.203 Y49.384 Z0 F800
G0 Z3.5 F500
G0 X29.798 Y47.428 Z3.5 
G1 Z0 F500
G1 X29.901 Y47.101 Z0 F800
G1 X29.943 Y46.758 Z0 F800
G1 Y46.411 Z0 F800
G1 X29.926 Y46.068 Z0 F800
G1 X29.905 Y45.732 Z0 F800
G1 X29.897 Y45.413 Z0 F800
G1 X29.918 Y45.105 Z0 F800
G1 Y42.851 Z0 F800
G1 X34.188 Y42.878 Z0 F800
G1 X34.271 Y43.146 Z0 F800
G1 X34.39 Y43.339 Z0 F800
G1 X34.562 Y43.487 Z0 F800
G1 X34.69 Y43.571 Z0 F800
G1 X34.75 Y43.626 Z0 F800
G1 X34.767 Y43.733 Z0 F800
G1 X34.76 Y43.842 Z0 F800
G1 X34.731 Y43.996 Z0 F800
G1 X34.676 Y44.2 Z0 F800
G1 X34.589 Y44.458 Z0 F800
G1 X34.581 Y44.489 Z0 F800
G1 X34.577 Y44.521 Z0 F800
G1 Y47.983 Z0 F800
G1 X34.243 Z0 F800
G1 X33.953 Y48.028 Z0 F800
G1 X33.71 Y48.117 Z0 F800
G1 X33.519 Y48.255 Z0 F800
G1 X33.361 Y48.464 Z0 F800
G1 X33.264 Y48.707 Z0 F800
G1 X33.215 Y48.973 Z0 F800
G1 X33.2 Y49.253 Z0 F800
G1 X33.23 Y49.845 Z0 F800
G1 X33.287 Y50.452 Z0 F800
G1 X33.308 Y50.748 Z0 F800
G1 X33.313 Y51.031 Z0 F800
G1 X33.297 Y51.296 Z0 F800
G1 X33.25 Y51.543 Z0 F800
G1 X33.207 Y51.941 Z0 F800
G1 X33.224 Y52.271 Z0 F800
G1 X33.25 Y52.523 Z0 F800
G1 X33.257 Y52.61 Z0 F800
G1 Y52.661 Z0 F800
G1 X33.245 Y52.666 Z0 F800
G1 X33.192 Y52.671 Z0 F800
G1 X33.076 Y52.663 Z0 F800
G1 X32.905 Y52.635 Z0 F800
G1 X32.681 Y52.585 Z0 F800
G1 X32.399 Y52.513 Z0 F800
G1 X32.376 Y52.508 Z0 F800
G1 X32.353 Z0 F800
G1 X29.812 Z0 F800
G1 X29.885 Y52.335 Z0 F800
G1 X29.919 Y52.112 Z0 F800
G1 X29.912 Y51.482 Z0 F800
G1 X29.934 Y50.83 Z0 F800
G1 X29.923 Y50.17 Z0 F800
G1 X29.819 Y49.521 Z0 F800
G1 X29.771 Y49.437 Z0 F800
G1 X29.685 Y49.39 Z0 F800
G1 X29.434 Y49.343 Z0 F800
G1 X29.141 Y49.308 Z0 F800
G1 X28.812 Y49.282 Z0 F800
G1 X28.454 Y49.264 Z0 F800
G1 X27.669 Y49.247 Z0 F800
G1 X26.833 Z0 F800
G1 X24.847 Y49.268 Z0 F800
G1 X24.521 Z0 F800
G1 X24.235 Y49.265 Z0 F800
G1 X23.995 Y49.257 Z0 F800
G1 X23.734 Y49.261 Z0 F800
G1 X23.485 Y49.271 Z0 F800
G1 X23.263 Z0 F800
G1 X23.087 Y49.253 Z0 F800
G1 X22.981 Y49.214 Z0 F800
G1 X22.933 Y49.157 Z0 F800
G1 X22.919 Y49.109 Z0 F800
G1 Y49.033 Z0 F800
G1 X22.93 Y48.927 Z0 F800
G1 X22.972 Y48.759 Z0 F800
G1 Y48.729 Z0 F800
G1 X22.956 Y48.248 Z0 F800
G1 Y48.04 Z0 F800
G1 X22.978 Y47.88 Z0 F800
G1 X23.016 Y47.789 Z0 F800
G1 X23.073 Y47.747 Z0 F800
G1 X23.123 Y47.736 Z0 F800
G1 X23.2 Z0 F800
G1 X23.306 Y47.75 Z0 F800
G1 X23.47 Y47.793 Z0 F800
G1 X23.499 Y47.796 Z0 F800
G1 X29.472 Z0 F800
G1 X29.548 Y47.778 Z0 F800
G1 X29.61 Y47.729 Z0 F800
G1 X29.798 Y47.428 Z0 F800
;Layer C1 Pass 2 of 2
G0 Z3.5 F500
G0 X32.577 Y44.868 Z3.5 
G1 Z0 F500
G1 Y46.468 Z0 F800
G1 X32.102 Y46.81 Z0 F800
G1 X31.922 Y47.049 Z0 F800
G1 X31.943 Y46.883 Z0 F800
G1 Y46.36 Z0 F800
G1 X31.922 Y45.952 Z0 F800
G1 X31.903 Y45.648 Z0 F800
G1 X31.899 Y45.457 Z0 F800
G1 X31.918 Y45.175 Z0 F800
G1 Y44.863 Z0 F800
G1 X32.577 Y44.868 Z0 F800
G0 Z3.5 F500
G0 X32.977 Y44.47 Z3.5 
G1 Z0 F500
G1 Y46.681 Z0 F800
G1 X32.954 Y46.69 Z0 F800
G1 X32.385 Y47.099 Z0 F800
G1 X31.955 Y47.673 Z0 F800
G1 X31.72 Y48.258 Z0 F800
G1 X31.623 Y48.784 Z0 F800
G1 X31.598 Y49.252 Z0 F800
G1 X31.634 Y49.96 Z0 F800
G1 X31.692 Y50.586 Z0 F800
G1 X31.709 Y50.821 Z0 F800
G1 Y50.907 Z0 F800
G1 X31.532 Z0 F800
G1 Y50.844 Z0 F800
G1 X31.521 Y50.031 Z0 F800
G1 X31.353 Y48.974 Z0 F800
G1 X31.047 Y48.449 Z0 F800
G1 X31.263 Y48.103 Z0 F800
G1 X31.472 Y47.442 Z0 F800
G1 X31.543 Y46.858 Z0 F800
G1 Y46.37 Z0 F800
G1 X31.523 Y45.975 Z0 F800
G1 X31.504 Y45.67 Z0 F800
G1 X31.499 Y45.449 Z0 F800
G1 X31.519 Y45.162 Z0 F800
G1 Y44.461 Z0 F800
G1 X32.977 Y44.47 Z0 F800
G0 Z3.5 F500
G0 X33.377 Y44.456 Z3.5 
G1 Z0 F500
G1 Y46.961 Z0 F800
G1 X33.143 Y47.046 Z0 F800
G1 X32.669 Y47.388 Z0 F800
G1 X32.307 Y47.871 Z0 F800
G1 X32.106 Y48.371 Z0 F800
G1 X32.021 Y48.832 Z0 F800
G1 X31.999 Y49.252 Z0 F800
G1 X32.033 Y49.931 Z0 F800
G1 X32.09 Y50.535 Z0 F800
G1 X32.108 Y50.805 Z0 F800
G1 X32.112 Y51.005 Z0 F800
G1 X32.104 Y51.148 Z0 F800
G1 X32.073 Y51.307 Z0 F800
G1 X31.118 Z0 F800
G1 X31.134 Y50.84 Z0 F800
G1 X31.121 Y50.066 Z0 F800
G1 X30.969 Y49.111 Z0 F800
G1 X30.64 Y48.543 Z0 F800
G1 X30.548 Y48.494 Z0 F800
G1 X30.896 Y47.934 Z0 F800
G1 X31.079 Y47.356 Z0 F800
G1 X31.143 Y46.833 Z0 F800
G1 Y46.38 Z0 F800
G1 X31.124 Y45.998 Z0 F800
G1 X31.104 Y45.68 Z0 F800
G1 X31.098 Y45.441 Z0 F800
G1 X31.119 Y45.147 Z0 F800
G1 Y44.059 Z0 F800
G1 X33.433 Y44.073 Z0 F800
G1 X33.445 Y44.094 Z0 F800
G1 X33.44 Y44.11 Z0 F800
G1 X33.397 Y44.267 Z0 F800
G1 X33.377 Y44.456 Z0 F800
G0 Z3.5 F500
G0 X32.952 Y47.677 Z3.5 
G1 Z0 F500
G1 X32.658 Y48.068 Z0 F800
G1 X32.492 Y48.482 Z0 F800
G1 X32.418 Y48.878 Z0 F800
G1 X32.399 Y49.252 Z0 F800
G1 X32.432 Y49.902 Z0 F800
G1 X32.491 Y50.526 Z0 F800
G1 X32.508 Y50.779 Z0 F800
G1 X32.513 Y51.016 Z0 F800
G1 X32.502 Y51.194 Z0 F800
G1 X32.458 Y51.425 Z0 F800
G1 X32.427 Y51.71 Z0 F800
G1 X32.377 Y51.707 Z0 F800
G1 X30.714 Z0 F800
G1 X30.711 Y51.489 Z0 F800
G1 X30.734 Y50.837 Z0 F800
G1 X30.722 Y50.101 Z0 F800
G1 X30.586 Y49.248 Z0 F800
G1 X30.35 Y48.841 Z0 F800
G1 X29.956 Y48.626 Z0 F800
G1 X29.665 Y48.572 Z0 F800
G1 X29.902 Y48.518 Z0 F800
G1 X30.215 Y48.271 Z0 F800
G1 X30.53 Y47.765 Z0 F800
G1 X30.687 Y47.271 Z0 F800
G1 X30.743 Y46.808 Z0 F800
G1 Y46.391 Z0 F800
G1 X30.725 Y46.021 Z0 F800
G1 X30.704 Y45.701 Z0 F800
G1 X30.698 Y45.429 Z0 F800
G1 X30.718 Y45.133 Z0 F800
G1 Y43.656 Z0 F800
G1 X33.657 Y43.674 Z0 F800
G1 X33.773 Y43.864 Z0 F800
G1 X33.906 Y43.978 Z0 F800
G1 X33.823 Y44.226 Z0 F800
G1 X33.792 Y44.341 Z0 F800
G1 X33.777 Y44.478 Z0 F800
G1 Y47.245 Z0 F800
G1 X33.755 Y47.249 Z0 F800
G1 X33.332 Y47.403 Z0 F800
G1 X32.952 Y47.677 Z0 F800
G0 Z3.5 F500
G0 X30.203 Y49.384 Z3.5 
G1 Z0 F500
G1 X30.06 Y49.139 Z0 F800
G1 X29.82 Y49.008 Z0 F800
G1 X29.494 Y48.948 Z0 F800
G1 X29.181 Y48.91 Z0 F800
G1 X28.838 Y48.882 Z0 F800
G1 X28.468 Y48.864 Z0 F800
G1 X27.674 Y48.847 Z0 F800
G1 X26.831 Z0 F800
G1 X24.843 Y48.868 Z0 F800
G1 X24.525 Z0 F800
G1 X24.248 Y48.865 Z0 F800
G1 X23.998 Y48.857 Z0 F800
G1 X23.723 Y48.861 Z0 F800
G1 X23.47 Y48.871 Z0 F800
G1 X23.356 Z0 F800
G1 X23.37 Y48.818 Z0 F800
G1 X23.374 Y48.732 Z0 F800
G1 X23.356 Y48.233 Z0 F800
G1 Y48.177 Z0 F800
G1 X23.401 Y48.189 Z0 F800
G1 X23.482 Y48.196 Z0 F800
G1 X29.517 Z0 F800
G1 X29.725 Y48.148 Z0 F800
G1 X29.913 Y48 Z0 F800
G1 X30.164 Y47.597 Z0 F800
G1 X30.294 Y47.186 Z0 F800
G1 X30.343 Y46.783 Z0 F800
G1 Y46.401 Z0 F800
G1 X30.325 Y46.044 Z0 F800
G1 X30.304 Y45.708 Z0 F800
G1 X30.297 Y45.421 Z0 F800
G1 X30.318 Y45.12 Z0 F800
G1 Y43.253 Z0 F800
G1 X33.893 Y43.276 Z0 F800
G1 X33.904 Y43.312 Z0 F800
G1 X34.082 Y43.602 Z0 F800
G1 X34.321 Y43.807 Z0 F800
G1 X34.355 Y43.83 Z0 F800
G1 X34.34 Y43.91 Z0 F800
G1 X34.293 Y44.083 Z0 F800
G1 X34.206 Y44.342 Z0 F800
G1 X34.186 Y44.415 Z0 F800
G1 X34.177 Y44.499 Z0 F800
G1 Y47.59 Z0 F800
G1 X33.854 Y47.638 Z0 F800
G1 X33.521 Y47.76 Z0 F800
G1 X33.235 Y47.966 Z0 F800
G1 X33.01 Y48.267 Z0 F800
G1 X32.878 Y48.595 Z0 F800
G1 X32.817 Y48.926 Z0 F800
G1 X32.8 Y49.253 Z0 F800
G1 X32.832 Y49.874 Z0 F800
G1 X32.889 Y50.489 Z0 F800
G1 X32.908 Y50.764 Z0 F800
G1 X32.913 Y51.02 Z0 F800
G1 X32.899 Y51.247 Z0 F800
G1 X32.854 Y51.484 Z0 F800
G1 X32.806 Y51.93 Z0 F800
G1 X32.82 Y52.207 Z0 F800
G1 X32.773 Y52.196 Z0 F800
G1 X32.487 Y52.122 Z0 F800
G1 X32.426 Y52.111 Z0 F800
G1 X32.365 Y52.107 Z0 F800
G1 X30.319 Z0 F800
G1 X30.312 Y51.496 Z0 F800
G1 X30.333 Y50.833 Z0 F800
G1 X30.322 Y50.136 Z0 F800
G1 X30.203 Y49.384 Z0 F800
G0 Z3.5 F500
G0 X29.798 Y47.428 Z3.5 
G1 Z0 F500
G1 X29.901 Y47.101 Z0 F800
G1 X29.943 Y46.758 Z0 F800
G1 Y46.411 Z0 F800
G1 X29.926 Y46.068 Z0 F800
G1 X29.905 Y45.732 Z0 F800
G1 X29.897 Y45.413 Z0 F800
G1 X29.918 Y45.105 Z0 F800
G1 Y42.851 Z0 F800
G1 X34.188 Y42.878 Z0 F800
G1 X34.271 Y43.146 Z0 F800
G1 X34.39 Y43.339 Z0 F800
G1 X34.562 Y43.487 Z0 F800
G1 X34.69 Y43.571 Z0 F800
G1 X34.75 Y43.626 Z0 F800
G1 X34.767 Y43.733 Z0 F800
G1 X34.76 Y43.842 Z0 F800
G1 X34.731 Y43.996 Z0 F800
G1 X34.676 Y44.2 Z0 F800
G1 X34.589 Y44.458 Z0 F800
G1 X34.581 Y44.489 Z0 F800
G1 X34.577 Y44.521 Z0 F800
G1 Y47.983 Z0 F800
G1 X34.243 Z0 F800
G1 X33.953 Y48.028 Z0 F800
G1 X33.71 Y48.117 Z0 F800
G1 X33.519 Y48.255 Z0 F800
G1 X33.361 Y48.464 Z0 F800
G1 X33.264 Y48.707 Z0 F800
G1 X33.215 Y48.973 Z0 F800
G1 X33.2 Y49.253 Z0 F800
G1 X33.23 Y49.845 Z0 F800
G1 X33.287 Y50.452 Z0 F800
G1 X33.308 Y50.748 Z0 F800
G1 X33.313 Y51.031 Z0 F800
G1 X33.297 Y51.296 Z0 F800
G1 X33.25 Y51.543 Z0 F800
G1 X33.207 Y51.941 Z0 F800
G1 X33.224 Y52.271 Z0 F800
G1 X33.25 Y52.523 Z0 F800
G1 X33.257 Y52.61 Z0 F800
G1 Y52.661 Z0 F800
G1 X33.245 Y52.666 Z0 F800
G1 X33.192 Y52.671 Z0 F800
G1 X33.076 Y52.663 Z0 F800
G1 X32.905 Y52.635 Z0 F800
G1 X32.681 Y52.585 Z0 F800
G1 X32.399 Y52.513 Z0 F800
G1 X32.376 Y52.508 Z0 F800
G1 X32.353 Z0 F800
G1 X29.812 Z0 F800
G1 X29.885 Y52.335 Z0 F800
G1 X29.919 Y52.112 Z0 F800
G1 X29.912 Y51.482 Z0 F800
G1 X29.934 Y50.83 Z0 F800
G1 X29.923 Y50.17 Z0 F800
G1 X29.819 Y49.521 Z0 F800
G1 X29.771 Y49.437 Z0 F800
G1 X29.685 Y49.39 Z0 F800
G1 X29.434 Y49.343 Z0 F800
G1 X29.141 Y49.308 Z0 F800
G1 X28.812 Y49.282 Z0 F800
G1 X28.454 Y49.264 Z0 F800
G1 X27.669 Y49.247 Z0 F800
G1 X26.833 Z0 F800
G1 X24.847 Y49.268 Z0 F800
G1 X24.521 Z0 F800
G1 X24.235 Y49.265 Z0 F800
G1 X23.995 Y49.257 Z0 F800
G1 X23.734 Y49.261 Z0 F800
G1 X23.485 Y49.271 Z0 F800
G1 X23.263 Z0 F800
G1 X23.087 Y49.253 Z0 F800
G1 X22.981 Y49.214 Z0 F800
G1 X22.933 Y49.157 Z0 F800
G1 X22.919 Y49.109 Z0 F800
G1 Y49.033 Z0 F800
G1 X22.93 Y48.927 Z0 F800
G1 X22.972 Y48.759 Z0 F800
G1 Y48.729 Z0 F800
G1 X22.956 Y48.248 Z0 F800
G1 Y48.04 Z0 F800
G1 X22.978 Y47.88 Z0 F800
G1 X23.016 Y47.789 Z0 F800
G1 X23.073 Y47.747 Z0 F800
G1 X23.123 Y47.736 Z0 F800
G1 X23.2 Z0 F800
G1 X23.306 Y47.75 Z0 F800
G1 X23.47 Y47.793 Z0 F800
G1 X23.499 Y47.796 Z0 F800
G1 X29.472 Z0 F800
G1 X29.548 Y47.778 Z0 F800
G1 X29.61 Y47.729 Z0 F800
G1 X29.798 Y47.428 Z0 F800
G0 Z3.5 F500
G0 X37.555 Y44.912 Z3.5 
G1 Z0 F500
;Layer C1 Pass 1 of 2
G1 X37.538 Y45.62 Z0 F800
G1 X37.571 Y46.37 Z0 F800
G1 X37.682 Y47.063 Z0 F800
G1 X37.506 Y47.097 Z0 F800
G1 X37.214 Y47.172 Z0 F800
G1 X37.194 Y46.995 Z0 F800
G1 X37.19 Y46.764 Z0 F800
G1 X37.208 Y46.541 Z0 F800
G1 X37.313 Y46.026 Z0 F800
G1 X37.33 Y45.703 Z0 F800
G1 X37.317 Y45.404 Z0 F800
G1 X37.29 Y45.123 Z0 F800
G1 X37.227 Y44.626 Z0 F800
G1 X37.194 Y44.311 Z0 F800
G1 X37.396 Z0 F800
G1 X37.585 Y44.302 Z0 F800
G1 X37.555 Y44.912 Z0 F800
G0 Z3.5 F500
G0 X37.594 Y47.488 Z3.5 
G1 Z0 F500
G1 X37.289 Y47.566 Z0 F800
G1 X37.041 Y47.628 Z0 F800
G1 X36.925 Y47.641 Z0 F800
G1 X36.873 Y47.497 Z0 F800
G1 X36.824 Y47.28 Z0 F800
G1 X36.794 Y47.021 Z0 F800
G1 X36.79 Y46.748 Z0 F800
G1 X36.812 Y46.486 Z0 F800
G1 X36.915 Y45.976 Z0 F800
G1 X36.929 Y45.7 Z0 F800
G1 X36.918 Y45.432 Z0 F800
G1 X36.893 Y45.167 Z0 F800
G1 X36.828 Y44.659 Z0 F800
G1 X36.781 Y44.209 Z0 F800
G1 Y44.042 Z0 F800
G1 X36.79 Y43.902 Z0 F800
G1 X36.794 Y43.882 Z0 F800
G1 X37.023 Y43.913 Z0 F800
G1 X37.387 Y43.909 Z0 F800
G1 X37.717 Y43.897 Z0 F800
G1 X37.97 Z0 F800
G1 X38.071 Y43.909 Z0 F800
G1 X38.063 Y43.964 Z0 F800
G1 X37.997 Y44.196 Z0 F800
G1 X37.987 Y44.268 Z0 F800
G1 X37.955 Y44.927 Z0 F800
G1 X37.938 Y45.616 Z0 F800
G1 X37.97 Y46.33 Z0 F800
G1 X38.083 Y47.035 Z0 F800
G1 X38.188 Y47.394 Z0 F800
G1 X38.206 Y47.436 Z0 F800
G1 X38.194 Z0 F800
G1 X37.977 Y47.43 Z0 F800
G1 X37.777 Y47.452 Z0 F800
G1 X37.594 Y47.488 Z0 F800
G0 Z3.5 F500
G0 X43.183 Y42.56 Z3.5 
G1 Z0 F500
G1 X43.189 Y41.635 Z0 F800
G1 X43.172 Y39.771 Z0 F800
G1 X43.166 Y39.713 Z0 F800
G1 X43.116 Y39.476 Z0 F800
G1 X43.092 Y39.318 Z0 F800
G1 X43.082 Y39.177 Z0 F800
G1 Y39.079 Z0 F800
G1 X43.111 Y38.932 Z0 F800
G1 X43.14 Y38.879 Z0 F800
G1 X43.145 Y38.876 Z0 F800
G1 X43.178 Y38.863 Z0 F800
G1 X43.234 Y38.85 Z0 F800
G1 X43.327 Y38.842 Z0 F800
G1 X43.442 Z0 F800
G1 X43.595 Y38.86 Z0 F800
G1 X43.773 Y38.891 Z0 F800
G1 X43.711 Y38.908 Z0 F800
G1 X43.527 Y39.098 Z0 F800
G1 X43.394 Y39.362 Z0 F800
G1 X43.307 Y39.581 Z0 F800
G1 X43.249 Y39.8 Z0 F800
G1 X43.223 Y40.024 Z0 F800
G1 X43.238 Y40.253 Z0 F800
G1 X43.3 Y40.474 Z0 F800
G1 X43.407 Y40.675 Z0 F800
G1 X43.562 Y40.856 Z0 F800
G1 X43.882 Y41.068 Z0 F800
G1 X44.241 Y41.187 Z0 F800
G1 X44.286 Y41.193 Z0 F800
G1 X43.959 Z0 F800
G1 X43.702 Y41.266 Z0 F800
G1 X43.507 Y41.478 Z0 F800
G1 X43.28 Y42.063 Z0 F800
G1 X43.183 Y42.56 Z0 F800
G0 Z3.5 F500
G0 X46.291 Y41.193 Z3.5 
G1 Z0 F500
G1 X46.455 Y41.182 Z0 F800
G1 X46.788 Y41.165 Z0 F800
G1 X47.078 Y41.16 Z0 F800
G1 X47.299 Y41.171 Z0 F800
G1 X47.444 Y41.195 Z0 F800
G1 Y41.199 Z0 F800
G1 X47.397 Y41.193 Z0 F800
G1 X46.291 Z0 F800
G0 Z3.5 F500
G0 X44.981 Y40.854 Z3.5 
G1 Z0 F500
G1 X45.707 Y40.832 Z0 F800
G1 X46.435 Y40.782 Z0 F800
G1 X46.775 Y40.765 Z0 F800
G1 X47.083 Y40.76 Z0 F800
G1 X47.342 Y40.772 Z0 F800
G1 X47.586 Y40.813 Z0 F800
G1 X47.675 Y40.802 Z0 F800
G1 X47.702 Y40.812 Z0 F800
G1 X47.736 Y40.839 Z0 F800
G1 X47.774 Y40.894 Z0 F800
G1 X47.836 Y41.076 Z0 F800
G1 X47.853 Y41.302 Z0 F800
G1 X47.811 Y41.505 Z0 F800
G1 X47.735 Y41.632 Z0 F800
G1 X47.693 Y41.663 Z0 F800
G1 X47.64 Y41.676 Z0 F800
G1 X47.564 Y41.663 Z0 F800
G1 X47.454 Y41.614 Z0 F800
G1 X47.414 Y41.599 Z0 F800
G1 X47.37 Y41.593 Z0 F800
G1 X44.015 Z0 F800
G1 X43.919 Y41.62 Z0 F800
G1 X43.853 Y41.692 Z0 F800
G1 X43.666 Y42.175 Z0 F800
G1 X43.567 Y42.683 Z0 F800
G1 X43.533 Y43.207 Z0 F800
G1 X43.54 Y43.739 Z0 F800
G1 X43.593 Y44.798 Z0 F800
G1 X43.6 Y45.309 Z0 F800
G1 X43.566 Y45.807 Z0 F800
G1 X43.58 Y46.396 Z0 F800
G1 X43.598 Y47.037 Z0 F800
G1 X43.583 Y47.684 Z0 F800
G1 X43.501 Y48.278 Z0 F800
G1 X43.424 Y48.536 Z0 F800
G1 X43.322 Y48.758 Z0 F800
G1 X43.19 Y48.94 Z0 F800
G1 X43.028 Y49.079 Z0 F800
G1 X42.826 Y49.175 Z0 F800
G1 X42.571 Y49.224 Z0 F800
G1 X42.256 Y49.214 Z0 F800
G1 X41.87 Y49.136 Z0 F800
G1 X41.833 Y49.13 Z0 F800
G1 X41.406 Y49.12 Z0 F800
G1 X40.974 Z0 F800
G1 X40.546 Y49.115 Z0 F800
G1 X40.134 Y49.081 Z0 F800
G1 X39.75 Y49.004 Z0 F800
G1 X39.404 Y48.867 Z0 F800
G1 X39.246 Y48.769 Z0 F800
G1 X39.098 Y48.649 Z0 F800
G1 X38.962 Y48.505 Z0 F800
G1 X38.837 Y48.333 Z0 F800
G1 X38.849 Y48.354 Z0 F800
G1 X38.743 Y48.173 Z0 F800
G1 X38.616 Y48.031 Z0 F800
G1 X38.472 Y47.927 Z0 F800
G1 X38.315 Y47.862 Z0 F800
G1 X38.155 Y47.833 Z0 F800
G1 X37.995 Z0 F800
G1 X37.837 Y47.848 Z0 F800
G1 X37.683 Y47.878 Z0 F800
G1 X37.385 Y47.955 Z0 F800
G1 X37.112 Y48.022 Z0 F800
G1 X36.884 Y48.048 Z0 F800
G1 X36.714 Y48.017 Z0 F800
G1 X36.651 Y47.96 Z0 F800
G1 X36.565 Y47.821 Z0 F800
G1 X36.488 Y47.609 Z0 F800
G1 X36.429 Y47.345 Z0 F800
G1 X36.395 Y47.048 Z0 F800
G1 X36.39 Y46.736 Z0 F800
G1 X36.415 Y46.428 Z0 F800
G1 X36.517 Y45.925 Z0 F800
G1 X36.529 Y45.698 Z0 F800
G1 X36.519 Y45.459 Z0 F800
G1 X36.495 Y45.212 Z0 F800
G1 X36.431 Y44.709 Z0 F800
G1 X36.382 Y44.235 Z0 F800
G1 X36.378 Y44.026 Z0 F800
G1 X36.393 Y43.846 Z0 F800
G1 X36.425 Y43.7 Z0 F800
G1 X36.474 Y43.597 Z0 F800
G1 X36.538 Y43.531 Z0 F800
G1 X36.634 Y43.491 Z0 F800
G1 X36.789 Y43.478 Z0 F800
G1 X37.048 Y43.513 Z0 F800
G1 X37.377 Y43.509 Z0 F800
G1 X37.703 Y43.497 Z0 F800
G1 X37.997 Z0 F800
G1 X38.233 Y43.526 Z0 F800
G1 X38.32 Y43.554 Z0 F800
G1 X38.384 Y43.588 Z0 F800
G1 X38.429 Y43.632 Z0 F800
G1 X38.46 Y43.69 Z0 F800
G1 X38.479 Y43.774 Z0 F800
G1 Y43.894 Z0 F800
G1 X38.454 Y44.052 Z0 F800
G1 X38.389 Y44.278 Z0 F800
G1 X38.386 Y44.304 Z0 F800
G1 X38.354 Y44.941 Z0 F800
G1 X38.338 Y45.612 Z0 F800
G1 X38.368 Y46.289 Z0 F800
G1 X38.474 Y46.946 Z0 F800
G1 X38.566 Y47.26 Z0 F800
G1 X38.691 Y47.558 Z0 F800
G1 X38.853 Y47.837 Z0 F800
G1 X39.053 Y48.091 Z0 F800
G1 X39.294 Y48.316 Z0 F800
G1 X39.58 Y48.507 Z0 F800
G1 X39.912 Y48.66 Z0 F800
G1 X40.294 Y48.769 Z0 F800
G1 X40.313 Z0 F800
G1 X40.793 Y48.786 Z0 F800
G1 X41.308 Y48.807 Z0 F800
G1 X41.833 Y48.801 Z0 F800
G1 X42.331 Y48.733 Z0 F800
G1 X42.56 Y48.663 Z0 F800
G1 X42.769 Y48.558 Z0 F800
G1 X42.946 Y48.413 Z0 F800
G1 X43.081 Y48.222 Z0 F800
G1 X43.16 Y47.992 Z0 F800
G1 X43.181 Y47.726 Z0 F800
G1 X43.143 Y47.422 Z0 F800
G1 X43.048 Y47.081 Z0 F800
G1 X42.914 Y46.192 Z0 F800
G1 X42.832 Y45.293 Z0 F800
G1 X42.791 Y44.387 Z0 F800
G1 X42.777 Y43.474 Z0 F800
G1 X42.79 Y41.636 Z0 F800
G1 X42.772 Y39.794 Z0 F800
G1 Y39.775 Z0 F800
G1 X42.722 Y39.548 Z0 F800
G1 X42.694 Y39.359 Z0 F800
G1 X42.682 Y39.189 Z0 F800
G1 Y39.039 Z0 F800
G1 X42.729 Y38.796 Z0 F800
G1 X42.821 Y38.628 Z0 F800
G1 X42.884 Y38.567 Z0 F800
G1 X42.962 Y38.518 Z0 F800
G1 X43.058 Y38.48 Z0 F800
G1 X43.173 Y38.454 Z0 F800
G1 X43.311 Y38.441 Z0 F800
G1 X43.469 Y38.444 Z0 F800
G1 X43.649 Y38.463 Z0 F800
G1 X43.869 Y38.502 Z0 F800
G1 X46.958 Z0 F800
G1 X46.969 Y38.707 Z0 F800
G1 Y38.892 Z0 F800
G1 X46.956 Y39.046 Z0 F800
G1 X46.925 Y39.161 Z0 F800
G1 X46.872 Y39.243 Z0 F800
G1 X46.788 Y39.286 Z0 F800
G1 X46.721 Y39.297 Z0 F800
G1 X46.63 Z0 F800
G1 X46.515 Y39.282 Z0 F800
G1 X46.349 Y39.241 Z0 F800
G1 X46.323 Z0 F800
G1 X44.015 Z0 F800
G1 X43.923 Y39.265 Z0 F800
G1 X43.856 Y39.333 Z0 F800
G1 X43.759 Y39.526 Z0 F800
G1 X43.688 Y39.707 Z0 F800
G1 X43.643 Y39.875 Z0 F800
G1 X43.624 Y40.034 Z0 F800
G1 X43.634 Y40.185 Z0 F800
G1 X43.673 Y40.325 Z0 F800
G1 X43.739 Y40.449 Z0 F800
G1 X43.829 Y40.554 Z0 F800
G1 X44.058 Y40.705 Z0 F800
G1 X44.333 Y40.795 Z0 F800
G1 X44.644 Y40.84 Z0 F800
G1 X44.981 Y40.854 Z0 F800
;Layer C1 Pass 2 of 2
G0 Z3.5 F500
G0 X37.555 Y44.912 Z3.5 
G1 Z0 F500
G1 X37.538 Y45.62 Z0 F800
G1 X37.571 Y46.37 Z0 F800
G1 X37.682 Y47.063 Z0 F800
G1 X37.506 Y47.097 Z0 F800
G1 X37.214 Y47.172 Z0 F800
G1 X37.194 Y46.995 Z0 F800
G1 X37.19 Y46.764 Z0 F800
G1 X37.208 Y46.541 Z0 F800
G1 X37.313 Y46.026 Z0 F800
G1 X37.33 Y45.703 Z0 F800
G1 X37.317 Y45.404 Z0 F800
G1 X37.29 Y45.123 Z0 F800
G1 X37.227 Y44.626 Z0 F800
G1 X37.194 Y44.311 Z0 F800
G1 X37.396 Z0 F800
G1 X37.585 Y44.302 Z0 F800
G1 X37.555 Y44.912 Z0 F800
G0 Z3.5 F500
G0 X37.594 Y47.488 Z3.5 
G1 Z0 F500
G1 X37.289 Y47.566 Z0 F800
G1 X37.041 Y47.628 Z0 F800
G1 X36.925 Y47.641 Z0 F800
G1 X36.873 Y47.497 Z0 F800
G1 X36.824 Y47.28 Z0 F800
G1 X36.794 Y47.021 Z0 F800
G1 X36.79 Y46.748 Z0 F800
G1 X36.812 Y46.486 Z0 F800
G1 X36.915 Y45.976 Z0 F800
G1 X36.929 Y45.7 Z0 F800
G1 X36.918 Y45.432 Z0 F800
G1 X36.893 Y45.167 Z0 F800
G1 X36.828 Y44.659 Z0 F800
G1 X36.781 Y44.209 Z0 F800
G1 Y44.042 Z0 F800
G1 X36.79 Y43.902 Z0 F800
G1 X36.794 Y43.882 Z0 F800
G1 X37.023 Y43.913 Z0 F800
G1 X37.387 Y43.909 Z0 F800
G1 X37.717 Y43.897 Z0 F800
G1 X37.97 Z0 F800
G1 X38.071 Y43.909 Z0 F800
G1 X38.063 Y43.964 Z0 F800
G1 X37.997 Y44.196 Z0 F800
G1 X37.987 Y44.268 Z0 F800
G1 X37.955 Y44.927 Z0 F800
G1 X37.938 Y45.616 Z0 F800
G1 X37.97 Y46.33 Z0 F800
G1 X38.083 Y47.035 Z0 F800
G1 X38.188 Y47.394 Z0 F800
G1 X38.206 Y47.436 Z0 F800
G1 X38.194 Z0 F800
G1 X37.977 Y47.43 Z0 F800
G1 X37.777 Y47.452 Z0 F800
G1 X37.594 Y47.488 Z0 F800
G0 Z3.5 F500
G0 X43.183 Y42.56 Z3.5 
G1 Z0 F500
G1 X43.189 Y41.635 Z0 F800
G1 X43.172 Y39.771 Z0 F800
G1 X43.166 Y39.713 Z0 F800
G1 X43.116 Y39.476 Z0 F800
G1 X43.092 Y39.318 Z0 F800
G1 X43.082 Y39.177 Z0 F800
G1 Y39.079 Z0 F800
G1 X43.111 Y38.932 Z0 F800
G1 X43.14 Y38.879 Z0 F800
G1 X43.145 Y38.876 Z0 F800
G1 X43.178 Y38.863 Z0 F800
G1 X43.234 Y38.85 Z0 F800
G1 X43.327 Y38.842 Z0 F800
G1 X43.442 Z0 F800
G1 X43.595 Y38.86 Z0 F800
G1 X43.773 Y38.891 Z0 F800
G1 X43.711 Y38.908 Z0 F800
G1 X43.527 Y39.098 Z0 F800
G1 X43.394 Y39.362 Z0 F800
G1 X43.307 Y39.581 Z0 F800
G1 X43.249 Y39.8 Z0 F800
G1 X43.223 Y40.024 Z0 F800
G1 X43.238 Y40.253 Z0 F800
G1 X43.3 Y40.474 Z0 F800
G1 X43.407 Y40.675 Z0 F800
G1 X43.562 Y40.856 Z0 F800
G1 X43.882 Y41.068 Z0 F800
G1 X44.241 Y41.187 Z0 F800
G1 X44.286 Y41.193 Z0 F800
G1 X43.959 Z0 F800
G1 X43.702 Y41.266 Z0 F800
G1 X43.507 Y41.478 Z0 F800
G1 X43.28 Y42.063 Z0 F800
G1 X43.183 Y42.56 Z0 F800
G0 Z3.5 F500
G0 X46.291 Y41.193 Z3.5 
G1 Z0 F500
G1 X46.455 Y41.182 Z0 F800
G1 X46.788 Y41.165 Z0 F800
G1 X47.078 Y41.16 Z0 F800
G1 X47.299 Y41.171 Z0 F800
G1 X47.444 Y41.195 Z0 F800
G1 Y41.199 Z0 F800
G1 X47.397 Y41.193 Z0 F800
G1 X46.291 Z0 F800
G0 Z3.5 F500
G0 X44.981 Y40.854 Z3.5 
G1 Z0 F500
G1 X45.707 Y40.832 Z0 F800
G1 X46.435 Y40.782 Z0 F800
G1 X46.775 Y40.765 Z0 F800
G1 X47.083 Y40.76 Z0 F800
G1 X47.342 Y40.772 Z0 F800
G1 X47.586 Y40.813 Z0 F800
G1 X47.675 Y40.802 Z0 F800
G1 X47.702 Y40.812 Z0 F800
G1 X47.736 Y40.839 Z0 F800
G1 X47.774 Y40.894 Z0 F800
G1 X47.836 Y41.076 Z0 F800
G1 X47.853 Y41.302 Z0 F800
G1 X47.811 Y41.505 Z0 F800
G1 X47.735 Y41.632 Z0 F800
G1 X47.693 Y41.663 Z0 F800
G1 X47.64 Y41.676 Z0 F800
G1 X47.564 Y41.663 Z0 F800
G1 X47.454 Y41.614 Z0 F800
G1 X47.414 Y41.599 Z0 F800
G1 X47.37 Y41.593 Z0 F800
G1 X44.015 Z0 F800
G1 X43.919 Y41.62 Z0 F800
G1 X43.853 Y41.692 Z0 F800
G1 X43.666 Y42.175 Z0 F800
G1 X43.567 Y42.683 Z0 F800
G1 X43.533 Y43.207 Z0 F800
G1 X43.54 Y43.739 Z0 F800
G1 X43.593 Y44.798 Z0 F800
G1 X43.6 Y45.309 Z0 F800
G1 X43.566 Y45.807 Z0 F800
G1 X43.58 Y46.396 Z0 F800
G1 X43.598 Y47.037 Z0 F800
G1 X43.583 Y47.684 Z0 F800
G1 X43.501 Y48.278 Z0 F800
G1 X43.424 Y48.536 Z0 F800
G1 X43.322 Y48.758 Z0 F800
G1 X43.19 Y48.94 Z0 F800
G1 X43.028 Y49.079 Z0 F800
G1 X42.826 Y49.175 Z0 F800
G1 X42.571 Y49.224 Z0 F800
G1 X42.256 Y49.214 Z0 F800
G1 X41.87 Y49.136 Z0 F800
G1 X41.833 Y49.13 Z0 F800
G1 X41.406 Y49.12 Z0 F800
G1 X40.974 Z0 F800
G1 X40.546 Y49.115 Z0 F800
G1 X40.134 Y49.081 Z0 F800
G1 X39.75 Y49.004 Z0 F800
G1 X39.404 Y48.867 Z0 F800
G1 X39.246 Y48.769 Z0 F800
G1 X39.098 Y48.649 Z0 F800
G1 X38.962 Y48.505 Z0 F800
G1 X38.837 Y48.333 Z0 F800
G1 X38.849 Y48.354 Z0 F800
G1 X38.743 Y48.173 Z0 F800
G1 X38.616 Y48.031 Z0 F800
G1 X38.472 Y47.927 Z0 F800
G1 X38.315 Y47.862 Z0 F800
G1 X38.155 Y47.833 Z0 F800
G1 X37.995 Z0 F800
G1 X37.837 Y47.848 Z0 F800
G1 X37.683 Y47.878 Z0 F800
G1 X37.385 Y47.955 Z0 F800
G1 X37.112 Y48.022 Z0 F800
G1 X36.884 Y48.048 Z0 F800
G1 X36.714 Y48.017 Z0 F800
G1 X36.651 Y47.96 Z0 F800
G1 X36.565 Y47.821 Z0 F800
G1 X36.488 Y47.609 Z0 F800
G1 X36.429 Y47.345 Z0 F800
G1 X36.395 Y47.048 Z0 F800
G1 X36.39 Y46.736 Z0 F800
G1 X36.415 Y46.428 Z0 F800
G1 X36.517 Y45.925 Z0 F800
G1 X36.529 Y45.698 Z0 F800
G1 X36.519 Y45.459 Z0 F800
G1 X36.495 Y45.212 Z0 F800
G1 X36.431 Y44.709 Z0 F800
G1 X36.382 Y44.235 Z0 F800
G1 X36.378 Y44.026 Z0 F800
G1 X36.393 Y43.846 Z0 F800
G1 X36.425 Y43.7 Z0 F800
G1 X36.474 Y43.597 Z0 F800
G1 X36.538 Y43.531 Z0 F800
G1 X36.634 Y43.491 Z0 F800
G1 X36.789 Y43.478 Z0 F800
G1 X37.048 Y43.513 Z0 F800
G1 X37.377 Y43.509 Z0 F800
G1 X37.703 Y43.497 Z0 F800
G1 X37.997 Z0 F800
G1 X38.233 Y43.526 Z0 F800
G1 X38.32 Y43.554 Z0 F800
G1 X38.384 Y43.588 Z0 F800
G1 X38.429 Y43.632 Z0 F800
G1 X38.46 Y43.69 Z0 F800
G1 X38.479 Y43.774 Z0 F800
G1 Y43.894 Z0 F800
G1 X38.454 Y44.052 Z0 F800
G1 X38.389 Y44.278 Z0 F800
G1 X38.386 Y44.304 Z0 F800
G1 X38.354 Y44.941 Z0 F800
G1 X38.338 Y45.612 Z0 F800
G1 X38.368 Y46.289 Z0 F800
G1 X38.474 Y46.946 Z0 F800
G1 X38.566 Y47.26 Z0 F800
G1 X38.691 Y47.558 Z0 F800
G1 X38.853 Y47.837 Z0 F800
G1 X39.053 Y48.091 Z0 F800
G1 X39.294 Y48.316 Z0 F800
G1 X39.58 Y48.507 Z0 F800
G1 X39.912 Y48.66 Z0 F800
G1 X40.294 Y48.769 Z0 F800
G1 X40.313 Z0 F800
G1 X40.793 Y48.786 Z0 F800
G1 X41.308 Y48.807 Z0 F800
G1 X41.833 Y48.801 Z0 F800
G1 X42.331 Y48.733 Z0 F800
G1 X42.56 Y48.663 Z0 F800
G1 X42.769 Y48.558 Z0 F800
G1 X42.946 Y48.413 Z0 F800
G1 X43.081 Y48.222 Z0 F800
G1 X43.16 Y47.992 Z0 F800
G1 X43.181 Y47.726 Z0 F800
G1 X43.143 Y47.422 Z0 F800
G1 X43.048 Y47.081 Z0 F800
G1 X42.914 Y46.192 Z0 F800
G1 X42.832 Y45.293 Z0 F800
G1 X42.791 Y44.387 Z0 F800
G1 X42.777 Y43.474 Z0 F800
G1 X42.79 Y41.636 Z0 F800
G1 X42.772 Y39.794 Z0 F800
G1 Y39.775 Z0 F800
G1 X42.722 Y39.548 Z0 F800
G1 X42.694 Y39.359 Z0 F800
G1 X42.682 Y39.189 Z0 F800
G1 Y39.039 Z0 F800
G1 X42.729 Y38.796 Z0 F800
G1 X42.821 Y38.628 Z0 F800
G1 X42.884 Y38.567 Z0 F800
G1 X42.962 Y38.518 Z0 F800
G1 X43.058 Y38.48 Z0 F800
G1 X43.173 Y38.454 Z0 F800
G1 X43.311 Y38.441 Z0 F800
G1 X43.469 Y38.444 Z0 F800
G1 X43.649 Y38.463 Z0 F800
G1 X43.869 Y38.502 Z0 F800
G1 X46.958 Z0 F800
G1 X46.969 Y38.707 Z0 F800
G1 Y38.892 Z0 F800
G1 X46.956 Y39.046 Z0 F800
G1 X46.925 Y39.161 Z0 F800
G1 X46.872 Y39.243 Z0 F800
G1 X46.788 Y39.286 Z0 F800
G1 X46.721 Y39.297 Z0 F800
G1 X46.63 Z0 F800
G1 X46.515 Y39.282 Z0 F800
G1 X46.349 Y39.241 Z0 F800
G1 X46.323 Z0 F800
G1 X44.015 Z0 F800
G1 X43.923 Y39.265 Z0 F800
G1 X43.856 Y39.333 Z0 F800
G1 X43.759 Y39.526 Z0 F800
G1 X43.688 Y39.707 Z0 F800
G1 X43.643 Y39.875 Z0 F800
G1 X43.624 Y40.034 Z0 F800
G1 X43.634 Y40.185 Z0 F800
G1 X43.673 Y40.325 Z0 F800
G1 X43.739 Y40.449 Z0 F800
G1 X43.829 Y40.554 Z0 F800
G1 X44.058 Y40.705 Z0 F800
G1 X44.333 Y40.795 Z0 F800
G1 X44.644 Y40.84 Z0 F800
G1 X44.981 Y40.854 Z0 F800
G0 Z3.5 F500
G0 X40.625 Y42.181 Z3.5 
G1 Z0 F500
;Layer C1 Pass 1 of 2
G1 X40.567 Y42.023 Z0 F800
G1 X40.407 Y41.751 Z0 F800
G1 X40.185 Y41.507 Z0 F800
G1 X39.9 Y41.308 Z0 F800
G1 X39.791 Y41.265 Z0 F800
G1 X39.694 Y41.246 Z0 F800
G1 X39.273 Y41.222 Z0 F800
G1 X39.438 Y41.185 Z0 F800
G1 X39.745 Y41.161 Z0 F800
G1 X40.077 Y41.073 Z0 F800
G1 X40.374 Y40.911 Z0 F800
G1 X40.606 Y40.663 Z0 F800
G1 X40.637 Y40.591 Z0 F800
G1 X40.625 Y42.181 Z0 F800
G0 Z3.5 F500
G0 X38.254 Y41.252 Z3.5 
G1 Z0 F500
G1 X37.814 Y41.283 Z0 F800
G1 X37.522 Z0 F800
G1 X37.272 Y41.248 Z0 F800
G1 X37.051 Y41.178 Z0 F800
G1 X37.047 Z0 F800
G1 Y41.174 Z0 F800
G1 X37.058 Y41.155 Z0 F800
G1 X37.11 Y41.142 Z0 F800
G1 X37.21 Y41.134 Z0 F800
G1 X37.36 Y41.139 Z0 F800
G1 X37.778 Y41.19 Z0 F800
G1 X38.254 Y41.252 Z0 F800
G0 Z3.5 F500
G0 X40.645 Y39.611 Z3.5 
G1 Z0 F500
G1 X40.567 Y39.453 Z0 F800
G1 X40.395 Y39.229 Z0 F800
G1 X40.184 Y39.039 Z0 F800
G1 X39.939 Y38.884 Z0 F800
G1 X39.85 Y38.847 Z0 F800
G1 X40.062 Y38.764 Z0 F800
G1 X40.26 Y38.629 Z0 F800
G1 X40.422 Y38.462 Z0 F800
G1 X40.546 Y38.264 Z0 F800
G1 X40.574 Y38.182 Z0 F800
G1 X40.6 Y38.415 Z0 F800
G1 X40.651 Y38.679 Z0 F800
G1 X40.645 Y39.611 Z0 F800
G0 Z3.5 F500
G0 X37.605 Y38.818 Z3.5 
G1 Z0 F500
G1 X37.089 Y38.893 Z0 F800
G1 X36.947 Y38.896 Z0 F800
G1 Y38.893 Z0 F800
G1 X36.935 Y38.84 Z0 F800
G1 X36.947 Y38.763 Z0 F800
G1 X36.954 Y38.742 Z0 F800
G1 X36.977 Y38.739 Z0 F800
G1 X37.079 Z0 F800
G1 X37.213 Y38.753 Z0 F800
G1 X37.586 Y38.815 Z0 F800
G1 X37.605 Y38.818 Z0 F800
G0 Z3.5 F500
G0 X40.7 Y37.088 Z3.5 
G1 Z0 F500
G1 X40.688 Y36.874 Z0 F800
G1 X40.673 Y36.584 Z0 F800
G1 Y36.333 Z0 F800
G1 X40.686 Y36.179 Z0 F800
G1 X40.689 Z0 F800
G1 X40.799 Y36.203 Z0 F800
G1 X41.038 Y36.277 Z0 F800
G1 X41.127 Y36.288 Z0 F800
G1 X41.313 Z0 F800
G1 X41.262 Y36.321 Z0 F800
G1 X41.051 Y36.509 Z0 F800
G1 X40.876 Y36.729 Z0 F800
G1 X40.742 Y36.974 Z0 F800
G1 X40.7 Y37.088 Z0 F800
G0 Z3.5 F500
G0 X45.518 Y36.181 Z3.5 
G1 Z0 F500
G1 X45.731 Y36.172 Z0 F800
G1 X46.677 Y36.137 Z0 F800
G1 X47.559 Y36.113 Z0 F800
G1 X47.963 Y36.108 Z0 F800
G1 Y36.119 Z0 F800
G1 X47.958 Y36.129 Z0 F800
G1 X47.943 Y36.148 Z0 F800
G1 X47.917 Y36.17 Z0 F800
G1 X47.88 Y36.193 Z0 F800
G1 X47.676 Y36.264 Z0 F800
G1 X47.385 Y36.307 Z0 F800
G1 X47.005 Y36.32 Z0 F800
G1 X46.584 Y36.301 Z0 F800
G1 X45.631 Y36.196 Z0 F800
G1 X45.518 Y36.181 Z0 F800
G0 Z3.5 F500
G0 X43.764 Y35.848 Z3.5 
G1 Z0 F500
G1 X45.715 Y35.772 Z0 F800
G1 X46.662 Y35.737 Z0 F800
G1 X47.548 Y35.713 Z0 F800
G1 X48.343 Y35.704 Z0 F800
G1 X48.38 Y36.004 Z0 F800
G1 X48.351 Y36.229 Z0 F800
G1 X48.304 Y36.333 Z0 F800
G1 X48.24 Y36.419 Z0 F800
G1 X48.156 Y36.494 Z0 F800
G1 X48.05 Y36.558 Z0 F800
G1 X47.772 Y36.654 Z0 F800
G1 X47.419 Y36.707 Z0 F800
G1 X47.007 Y36.72 Z0 F800
G1 X46.552 Y36.7 Z0 F800
G1 X45.579 Y36.592 Z0 F800
G1 X44.616 Y36.464 Z0 F800
G1 X44.206 Y36.42 Z0 F800
G1 X43.833 Y36.399 Z0 F800
G1 X43.501 Y36.412 Z0 F800
G1 X43.21 Y36.47 Z0 F800
G1 X42.911 Y36.405 Z0 F800
G1 X42.628 Y36.37 Z0 F800
G1 X42.362 Y36.365 Z0 F800
G1 X42.116 Y36.39 Z0 F800
G1 X41.89 Y36.445 Z0 F800
G1 X41.685 Y36.529 Z0 F800
G1 X41.502 Y36.643 Z0 F800
G1 X41.343 Y36.784 Z0 F800
G1 X41.211 Y36.951 Z0 F800
G1 X41.107 Y37.14 Z0 F800
G1 X41.031 Y37.348 Z0 F800
G1 X40.982 Y37.575 Z0 F800
G1 X40.96 Y37.82 Z0 F800
G1 X40.965 Y38.08 Z0 F800
G1 X40.996 Y38.354 Z0 F800
G1 X41.052 Y38.642 Z0 F800
G1 X41.023 Y42.385 Z0 F800
G1 X40.989 Y46.128 Z0 F800
G1 X40.75 Y46.149 Z0 F800
G1 X40.565 Y46.155 Z0 F800
G1 X40.435 Y46.136 Z0 F800
G1 X40.386 Y46.108 Z0 F800
G1 X40.359 Y46.053 Z0 F800
G1 X40.337 Y45.917 Z0 F800
G1 X40.332 Y45.689 Z0 F800
G1 X40.337 Y45.376 Z0 F800
G1 Y45.35 Z0 F800
G1 X40.329 Y45.323 Z0 F800
G1 X40.27 Y44.919 Z0 F800
G1 X40.274 Y44.447 Z0 F800
G1 X40.353 Y43.411 Z0 F800
G1 X40.363 Y43.153 Z0 F800
G1 X40.358 Y42.9 Z0 F800
G1 X40.335 Y42.655 Z0 F800
G1 X40.286 Y42.419 Z0 F800
G1 X40.204 Y42.195 Z0 F800
G1 X40.083 Y41.989 Z0 F800
G1 X39.919 Y41.809 Z0 F800
G1 X39.71 Y41.663 Z0 F800
G1 X39.678 Y41.65 Z0 F800
G1 X39.644 Y41.644 Z0 F800
G1 X39.126 Y41.615 Z0 F800
G1 X38.653 Y41.626 Z0 F800
G1 X37.827 Y41.683 Z0 F800
G1 X37.494 Z0 F800
G1 X37.185 Y41.64 Z0 F800
G1 X36.891 Y41.546 Z0 F800
G1 X36.603 Y41.388 Z0 F800
G1 X36.63 Y41.185 Z0 F800
G1 X36.674 Y41.027 Z0 F800
G1 X36.733 Y40.912 Z0 F800
G1 X36.806 Y40.835 Z0 F800
G1 X36.91 Y40.78 Z0 F800
G1 X37.042 Y40.747 Z0 F800
G1 X37.203 Y40.733 Z0 F800
G1 X37.39 Y40.739 Z0 F800
G1 X37.827 Y40.793 Z0 F800
G1 X38.32 Y40.858 Z0 F800
G1 X38.58 Y40.876 Z0 F800
G1 X38.845 Z0 F800
G1 X39.112 Y40.849 Z0 F800
G1 X39.378 Y40.788 Z0 F800
G1 X39.678 Y40.765 Z0 F800
G1 X39.928 Y40.699 Z0 F800
G1 X40.125 Y40.591 Z0 F800
G1 X40.267 Y40.44 Z0 F800
G1 X40.348 Y40.251 Z0 F800
G1 X40.361 Y40.052 Z0 F800
G1 X40.317 Y39.852 Z0 F800
G1 X40.226 Y39.665 Z0 F800
G1 X40.1 Y39.502 Z0 F800
G1 X39.941 Y39.358 Z0 F800
G1 X39.754 Y39.24 Z0 F800
G1 X39.544 Y39.153 Z0 F800
G1 X39.314 Y39.103 Z0 F800
G1 X39.07 Y39.096 Z0 F800
G1 X38.817 Y39.138 Z0 F800
G1 X38.56 Y39.235 Z0 F800
G1 X38.157 Y39.181 Z0 F800
G1 X37.775 Y39.197 Z0 F800
G1 X37.124 Y39.292 Z0 F800
G1 X36.879 Y39.297 Z0 F800
G1 X36.716 Y39.249 Z0 F800
G1 X36.659 Y39.201 Z0 F800
G1 X36.607 Y39.125 Z0 F800
G1 X36.563 Y39.011 Z0 F800
G1 X36.528 Y38.853 Z0 F800
G1 X36.558 Y38.664 Z0 F800
G1 X36.604 Y38.532 Z0 F800
G1 X36.664 Y38.444 Z0 F800
G1 X36.735 Y38.39 Z0 F800
G1 X36.829 Y38.355 Z0 F800
G1 X36.951 Y38.339 Z0 F800
G1 X37.098 Z0 F800
G1 X37.269 Y38.356 Z0 F800
G1 X37.649 Y38.42 Z0 F800
G1 X38.074 Y38.483 Z0 F800
G1 X38.526 Y38.5 Z0 F800
G1 X38.985 Y38.421 Z0 F800
G1 X39.198 Y38.469 Z0 F800
G1 X39.392 Y38.493 Z0 F800
G1 X39.567 Z0 F800
G1 X39.726 Y38.466 Z0 F800
G1 X39.875 Y38.408 Z0 F800
G1 X40.001 Y38.322 Z0 F800
G1 X40.105 Y38.214 Z0 F800
G1 X40.183 Y38.091 Z0 F800
G1 X40.275 Y37.817 Z0 F800
G1 X40.31 Y37.52 Z0 F800
G1 X40.307 Y37.21 Z0 F800
G1 X40.288 Y36.897 Z0 F800
G1 X40.273 Y36.595 Z0 F800
G1 Y36.318 Z0 F800
G1 X40.292 Y36.086 Z0 F800
G1 X40.339 Y35.919 Z0 F800
G1 X40.409 Y35.824 Z0 F800
G1 X40.526 Y35.778 Z0 F800
G1 X40.622 Y35.771 Z0 F800
G1 X40.747 Y35.783 Z0 F800
G1 X40.904 Y35.816 Z0 F800
G1 X41.122 Y35.884 Z0 F800
G1 X41.151 Y35.888 Z0 F800
G1 X41.939 Y35.893 Z0 F800
G1 X42.821 Y35.877 Z0 F800
G1 X43.764 Y35.848 Z0 F800
;Layer C1 Pass 2 of 2
G0 Z3.5 F500
G0 X40.625 Y42.181 Z3.5 
G1 Z0 F500
G1 X40.567 Y42.023 Z0 F800
G1 X40.407 Y41.751 Z0 F800
G1 X40.185 Y41.507 Z0 F800
G1 X39.9 Y41.308 Z0 F800
G1 X39.791 Y41.265 Z0 F800
G1 X39.694 Y41.246 Z0 F800
G1 X39.273 Y41.222 Z0 F800
G1 X39.438 Y41.185 Z0 F800
G1 X39.745 Y41.161 Z0 F800
G1 X40.077 Y41.073 Z0 F800
G1 X40.374 Y40.911 Z0 F800
G1 X40.606 Y40.663 Z0 F800
G1 X40.637 Y40.591 Z0 F800
G1 X40.625 Y42.181 Z0 F800
G0 Z3.5 F500
G0 X38.254 Y41.252 Z3.5 
G1 Z0 F500
G1 X37.814 Y41.283 Z0 F800
G1 X37.522 Z0 F800
G1 X37.272 Y41.248 Z0 F800
G1 X37.051 Y41.178 Z0 F800
G1 X37.047 Z0 F800
G1 Y41.174 Z0 F800
G1 X37.058 Y41.155 Z0 F800
G1 X37.11 Y41.142 Z0 F800
G1 X37.21 Y41.134 Z0 F800
G1 X37.36 Y41.139 Z0 F800
G1 X37.778 Y41.19 Z0 F800
G1 X38.254 Y41.252 Z0 F800
G0 Z3.5 F500
G0 X40.645 Y39.611 Z3.5 
G1 Z0 F500
G1 X40.567 Y39.453 Z0 F800
G1 X40.395 Y39.229 Z0 F800
G1 X40.184 Y39.039 Z0 F800
G1 X39.939 Y38.884 Z0 F800
G1 X39.85 Y38.847 Z0 F800
G1 X40.062 Y38.764 Z0 F800
G1 X40.26 Y38.629 Z0 F800
G1 X40.422 Y38.462 Z0 F800
G1 X40.546 Y38.264 Z0 F800
G1 X40.574 Y38.182 Z0 F800
G1 X40.6 Y38.415 Z0 F800
G1 X40.651 Y38.679 Z0 F800
G1 X40.645 Y39.611 Z0 F800
G0 Z3.5 F500
G0 X37.605 Y38.818 Z3.5 
G1 Z0 F500
G1 X37.089 Y38.893 Z0 F800
G1 X36.947 Y38.896 Z0 F800
G1 Y38.893 Z0 F800
G1 X36.935 Y38.84 Z0 F800
G1 X36.947 Y38.763 Z0 F800
G1 X36.954 Y38.742 Z0 F800
G1 X36.977 Y38.739 Z0 F800
G1 X37.079 Z0 F800
G1 X37.213 Y38.753 Z0 F800
G1 X37.586 Y38.815 Z0 F800
G1 X37.605 Y38.818 Z0 F800
G0 Z3.5 F500
G0 X40.7 Y37.088 Z3.5 
G1 Z0 F500
G1 X40.688 Y36.874 Z0 F800
G1 X40.673 Y36.584 Z0 F800
G1 Y36.333 Z0 F800
G1 X40.686 Y36.179 Z0 F800
G1 X40.689 Z0 F800
G1 X40.799 Y36.203 Z0 F800
G1 X41.038 Y36.277 Z0 F800
G1 X41.127 Y36.288 Z0 F800
G1 X41.313 Z0 F800
G1 X41.262 Y36.321 Z0 F800
G1 X41.051 Y36.509 Z0 F800
G1 X40.876 Y36.729 Z0 F800
G1 X40.742 Y36.974 Z0 F800
G1 X40.7 Y37.088 Z0 F800
G0 Z3.5 F500
G0 X45.518 Y36.181 Z3.5 
G1 Z0 F500
G1 X45.731 Y36.172 Z0 F800
G1 X46.677 Y36.137 Z0 F800
G1 X47.559 Y36.113 Z0 F800
G1 X47.963 Y36.108 Z0 F800
G1 Y36.119 Z0 F800
G1 X47.958 Y36.129 Z0 F800
G1 X47.943 Y36.148 Z0 F800
G1 X47.917 Y36.17 Z0 F800
G1 X47.88 Y36.193 Z0 F800
G1 X47.676 Y36.264 Z0 F800
G1 X47.385 Y36.307 Z0 F800
G1 X47.005 Y36.32 Z0 F800
G1 X46.584 Y36.301 Z0 F800
G1 X45.631 Y36.196 Z0 F800
G1 X45.518 Y36.181 Z0 F800
G0 Z3.5 F500
G0 X43.764 Y35.848 Z3.5 
G1 Z0 F500
G1 X45.715 Y35.772 Z0 F800
G1 X46.662 Y35.737 Z0 F800
G1 X47.548 Y35.713 Z0 F800
G1 X48.343 Y35.704 Z0 F800
G1 X48.38 Y36.004 Z0 F800
G1 X48.351 Y36.229 Z0 F800
G1 X48.304 Y36.333 Z0 F800
G1 X48.24 Y36.419 Z0 F800
G1 X48.156 Y36.494 Z0 F800
G1 X48.05 Y36.558 Z0 F800
G1 X47.772 Y36.654 Z0 F800
G1 X47.419 Y36.707 Z0 F800
G1 X47.007 Y36.72 Z0 F800
G1 X46.552 Y36.7 Z0 F800
G1 X45.579 Y36.592 Z0 F800
G1 X44.616 Y36.464 Z0 F800
G1 X44.206 Y36.42 Z0 F800
G1 X43.833 Y36.399 Z0 F800
G1 X43.501 Y36.412 Z0 F800
G1 X43.21 Y36.47 Z0 F800
G1 X42.911 Y36.405 Z0 F800
G1 X42.628 Y36.37 Z0 F800
G1 X42.362 Y36.365 Z0 F800
G1 X42.116 Y36.39 Z0 F800
G1 X41.89 Y36.445 Z0 F800
G1 X41.685 Y36.529 Z0 F800
G1 X41.502 Y36.643 Z0 F800
G1 X41.343 Y36.784 Z0 F800
G1 X41.211 Y36.951 Z0 F800
G1 X41.107 Y37.14 Z0 F800
G1 X41.031 Y37.348 Z0 F800
G1 X40.982 Y37.575 Z0 F800
G1 X40.96 Y37.82 Z0 F800
G1 X40.965 Y38.08 Z0 F800
G1 X40.996 Y38.354 Z0 F800
G1 X41.052 Y38.642 Z0 F800
G1 X41.023 Y42.385 Z0 F800
G1 X40.989 Y46.128 Z0 F800
G1 X40.75 Y46.149 Z0 F800
G1 X40.565 Y46.155 Z0 F800
G1 X40.435 Y46.136 Z0 F800
G1 X40.386 Y46.108 Z0 F800
G1 X40.359 Y46.053 Z0 F800
G1 X40.337 Y45.917 Z0 F800
G1 X40.332 Y45.689 Z0 F800
G1 X40.337 Y45.376 Z0 F800
G1 Y45.35 Z0 F800
G1 X40.329 Y45.323 Z0 F800
G1 X40.27 Y44.919 Z0 F800
G1 X40.274 Y44.447 Z0 F800
G1 X40.353 Y43.411 Z0 F800
G1 X40.363 Y43.153 Z0 F800
G1 X40.358 Y42.9 Z0 F800
G1 X40.335 Y42.655 Z0 F800
G1 X40.286 Y42.419 Z0 F800
G1 X40.204 Y42.195 Z0 F800
G1 X40.083 Y41.989 Z0 F800
G1 X39.919 Y41.809 Z0 F800
G1 X39.71 Y41.663 Z0 F800
G1 X39.678 Y41.65 Z0 F800
G1 X39.644 Y41.644 Z0 F800
G1 X39.126 Y41.615 Z0 F800
G1 X38.653 Y41.626 Z0 F800
G1 X37.827 Y41.683 Z0 F800
G1 X37.494 Z0 F800
G1 X37.185 Y41.64 Z0 F800
G1 X36.891 Y41.546 Z0 F800
G1 X36.603 Y41.388 Z0 F800
G1 X36.63 Y41.185 Z0 F800
G1 X36.674 Y41.027 Z0 F800
G1 X36.733 Y40.912 Z0 F800
G1 X36.806 Y40.835 Z0 F800
G1 X36.91 Y40.78 Z0 F800
G1 X37.042 Y40.747 Z0 F800
G1 X37.203 Y40.733 Z0 F800
G1 X37.39 Y40.739 Z0 F800
G1 X37.827 Y40.793 Z0 F800
G1 X38.32 Y40.858 Z0 F800
G1 X38.58 Y40.876 Z0 F800
G1 X38.845 Z0 F800
G1 X39.112 Y40.849 Z0 F800
G1 X39.378 Y40.788 Z0 F800
G1 X39.678 Y40.765 Z0 F800
G1 X39.928 Y40.699 Z0 F800
G1 X40.125 Y40.591 Z0 F800
G1 X40.267 Y40.44 Z0 F800
G1 X40.348 Y40.251 Z0 F800
G1 X40.361 Y40.052 Z0 F800
G1 X40.317 Y39.852 Z0 F800
G1 X40.226 Y39.665 Z0 F800
G1 X40.1 Y39.502 Z0 F800
G1 X39.941 Y39.358 Z0 F800
G1 X39.754 Y39.24 Z0 F800
G1 X39.544 Y39.153 Z0 F800
G1 X39.314 Y39.103 Z0 F800
G1 X39.07 Y39.096 Z0 F800
G1 X38.817 Y39.138 Z0 F800
G1 X38.56 Y39.235 Z0 F800
G1 X38.157 Y39.181 Z0 F800
G1 X37.775 Y39.197 Z0 F800
G1 X37.124 Y39.292 Z0 F800
G1 X36.879 Y39.297 Z0 F800
G1 X36.716 Y39.249 Z0 F800
G1 X36.659 Y39.201 Z0 F800
G1 X36.607 Y39.125 Z0 F800
G1 X36.563 Y39.011 Z0 F800
G1 X36.528 Y38.853 Z0 F800
G1 X36.558 Y38.664 Z0 F800
G1 X36.604 Y38.532 Z0 F800
G1 X36.664 Y38.444 Z0 F800
G1 X36.735 Y38.39 Z0 F800
G1 X36.829 Y38.355 Z0 F800
G1 X36.951 Y38.339 Z0 F800
G1 X37.098 Z0 F800
G1 X37.269 Y38.356 Z0 F800
G1 X37.649 Y38.42 Z0 F800
G1 X38.074 Y38.483 Z0 F800
G1 X38.526 Y38.5 Z0 F800
G1 X38.985 Y38.421 Z0 F800
G1 X39.198 Y38.469 Z0 F800
G1 X39.392 Y38.493 Z0 F800
G1 X39.567 Z0 F800
G1 X39.726 Y38.466 Z0 F800
G1 X39.875 Y38.408 Z0 F800
G1 X40.001 Y38.322 Z0 F800
G1 X40.105 Y38.214 Z0 F800
G1 X40.183 Y38.091 Z0 F800
G1 X40.275 Y37.817 Z0 F800
G1 X40.31 Y37.52 Z0 F800
G1 X40.307 Y37.21 Z0 F800
G1 X40.288 Y36.897 Z0 F800
G1 X40.273 Y36.595 Z0 F800
G1 Y36.318 Z0 F800
G1 X40.292 Y36.086 Z0 F800
G1 X40.339 Y35.919 Z0 F800
G1 X40.409 Y35.824 Z0 F800
G1 X40.526 Y35.778 Z0 F800
G1 X40.622 Y35.771 Z0 F800
G1 X40.747 Y35.783 Z0 F800
G1 X40.904 Y35.816 Z0 F800
G1 X41.122 Y35.884 Z0 F800
G1 X41.151 Y35.888 Z0 F800
G1 X41.939 Y35.893 Z0 F800
G1 X42.821 Y35.877 Z0 F800
G1 X43.764 Y35.848 Z0 F800
G0 Z3.5 F500
G0 X55.223 Y35.229 Z3.5 
G1 Z0 F500
;Layer C1 Pass 1 of 2
G1 X52.185 Y35.151 Z0 F800
G1 X52.215 Y35.017 Z0 F800
G1 X52.315 Y34.635 Z0 F800
G1 X55.223 Z0 F800
G1 Y35.229 Z0 F800
G0 Z3.5 F500
G0 X55.623 Y35.639 Z3.5 
G1 Z0 F500
G1 X52.051 Y35.548 Z0 F800
G1 X51.929 Y35.557 Z0 F800
G1 X51.82 Y35.58 Z0 F800
G1 X51.738 Y35.604 Z0 F800
G1 Y35.316 Z0 F800
G1 X51.825 Y34.925 Z0 F800
G1 X51.964 Y34.396 Z0 F800
G1 X52.02 Y34.234 Z0 F800
G1 X55.623 Z0 F800
G1 Y35.639 Z0 F800
G0 Z3.5 F500
G0 X56.023 Y36.05 Z3.5 
G1 Z0 F500
G1 X52.06 Y35.948 Z0 F800
G1 X51.985 Y35.954 Z0 F800
G1 X51.917 Y35.968 Z0 F800
G1 X51.338 Y36.135 Z0 F800
G1 Y35.273 Z0 F800
G1 X51.437 Y34.831 Z0 F800
G1 X51.582 Y34.275 Z0 F800
G1 X51.667 Y34.035 Z0 F800
G1 X51.75 Y33.854 Z0 F800
G1 X51.764 Y33.834 Z0 F800
G1 X56.023 Z0 F800
G1 Y36.05 Z0 F800
G0 Z3.5 F500
G0 X56.423 Y36.46 Z3.5 
G1 Z0 F500
G1 X52.069 Y36.349 Z0 F800
G1 X52.042 Z0 F800
G1 X52.015 Y36.356 Z0 F800
G1 X50.938 Y36.667 Z0 F800
G1 Y35.228 Z0 F800
G1 X51.048 Y34.737 Z0 F800
G1 X51.198 Y34.161 Z0 F800
G1 X51.295 Y33.884 Z0 F800
G1 X51.403 Y33.651 Z0 F800
G1 X51.508 Y33.505 Z0 F800
G1 X51.597 Y33.435 Z0 F800
G1 X56.423 Z0 F800
G1 Y36.46 Z0 F800
;Layer C1 Pass 2 of 2
G0 Z3.5 F500
G0 X55.223 Y35.229 Z3.5 
G1 Z0 F500
G1 X52.185 Y35.151 Z0 F800
G1 X52.215 Y35.017 Z0 F800
G1 X52.315 Y34.635 Z0 F800
G1 X55.223 Z0 F800
G1 Y35.229 Z0 F800
G0 Z3.5 F500
G0 X55.623 Y35.639 Z3.5 
G1 Z0 F500
G1 X52.051 Y35.548 Z0 F800
G1 X51.929 Y35.557 Z0 F800
G1 X51.82 Y35.58 Z0 F800
G1 X51.738 Y35.604 Z0 F800
G1 Y35.316 Z0 F800
G1 X51.825 Y34.925 Z0 F800
G1 X51.964 Y34.396 Z0 F800
G1 X52.02 Y34.234 Z0 F800
G1 X55.623 Z0 F800
G1 Y35.639 Z0 F800
G0 Z3.5 F500
G0 X56.023 Y36.05 Z3.5 
G1 Z0 F500
G1 X52.06 Y35.948 Z0 F800
G1 X51.985 Y35.954 Z0 F800
G1 X51.917 Y35.968 Z0 F800
G1 X51.338 Y36.135 Z0 F800
G1 Y35.273 Z0 F800
G1 X51.437 Y34.831 Z0 F800
G1 X51.582 Y34.275 Z0 F800
G1 X51.667 Y34.035 Z0 F800
G1 X51.75 Y33.854 Z0 F800
G1 X51.764 Y33.834 Z0 F800
G1 X56.023 Z0 F800
G1 Y36.05 Z0 F800
G0 Z3.5 F500
G0 X56.423 Y36.46 Z3.5 
G1 Z0 F500
G1 X52.069 Y36.349 Z0 F800
G1 X52.042 Z0 F800
G1 X52.015 Y36.356 Z0 F800
G1 X50.938 Y36.667 Z0 F800
G1 Y35.228 Z0 F800
G1 X51.048 Y34.737 Z0 F800
G1 X51.198 Y34.161 Z0 F800
G1 X51.295 Y33.884 Z0 F800
G1 X51.403 Y33.651 Z0 F800
G1 X51.508 Y33.505 Z0 F800
G1 X51.597 Y33.435 Z0 F800
G1 X56.423 Z0 F800
G1 Y36.46 Z0 F800
G0 Z3.5 F500
G0 X61.522 Y35.444 Z3.5 
G1 Z0 F500
;Layer C1 Pass 1 of 2
G1 X61.067 Y35.079 Z0 F800
G1 X61.522 Y35.025 Z0 F800
G1 Y35.444 Z0 F800
G0 Z3.5 F500
G0 X61.7 Y36.331 Z3.5 
G1 Z0 F500
G1 X61.292 Y35.772 Z0 F800
G1 X60.852 Y35.419 Z0 F800
G1 X60.322 Y35.331 Z0 F800
G1 X59.718 Y35.364 Z0 F800
G1 X59.545 Y35.358 Z0 F800
G1 X59.578 Y35.207 Z0 F800
G1 X59.608 Y34.988 Z0 F800
G1 X59.591 Y34.793 Z0 F800
G1 X59.57 Y34.622 Z0 F800
G1 X59.795 Y34.682 Z0 F800
G1 X59.901 Y34.691 Z0 F800
G1 X60.651 Y34.855 Z0 F800
G1 X60.688 Y34.71 Z0 F800
G1 X60.975 Y34.688 Z0 F800
G1 X61.602 Y34.613 Z0 F800
G1 X61.922 Y34.577 Z0 F800
G1 Y36.292 Z0 F800
G1 X61.702 Y36.333 Z0 F800
G0 Z3.5 F500
G0 X60.36 Y34.382 Z3.5 
G1 Z0 F500
G1 X60.376 Y34.319 Z0 F800
G1 X60.597 Y34.316 Z0 F800
G1 X60.936 Y34.29 Z0 F800
G1 X61.564 Y34.214 Z0 F800
G1 X62.118 Y34.153 Z0 F800
G1 X62.323 Y34.144 Z0 F800
G1 Y36.685 Z0 F800
G1 X62.092 Y36.681 Z0 F800
G1 X61.989 Y36.686 Z0 F800
G1 X61.752 Y36.731 Z0 F800
G1 X61.646 Y36.745 Z0 F800
G1 X61.582 Y36.748 Z0 F800
G1 X61.569 Z0 F800
G1 X61.531 Y36.737 Z0 F800
G1 X61.528 Z0 F800
G1 X61.482 Y36.694 Z0 F800
G1 X61.388 Y36.581 Z0 F800
G1 X61 Y36.051 Z0 F800
G1 X60.683 Y35.796 Z0 F800
G1 X60.299 Y35.732 Z0 F800
G1 X59.728 Y35.764 Z0 F800
G1 X59.338 Y35.751 Z0 F800
G1 X59.215 Y35.736 Z0 F800
G1 X59.115 Y35.715 Z0 F800
G1 X59.1 Y35.71 Z0 F800
G1 Y35.704 Z0 F800
G1 Y35.593 Z0 F800
G1 X59.122 Y35.421 Z0 F800
G1 X59.184 Y35.137 Z0 F800
G1 X59.206 Y34.978 Z0 F800
G1 X59.193 Y34.835 Z0 F800
G1 X59.144 Y34.432 Z0 F800
G1 X59.147 Y34.195 Z0 F800
G1 X59.156 Y34.149 Z0 F800
G1 X59.252 Y34.153 Z0 F800
G1 X59.391 Y34.171 Z0 F800
G1 X59.606 Y34.218 Z0 F800
G1 X59.866 Y34.287 Z0 F800
G1 X59.962 Y34.295 Z0 F800
G1 X60.36 Y34.382 Z0 F800
G0 Z3.5 F500
G0 X62.723 Y34.034 Z3.5 
G1 Z0 F500
G1 Y37.091 Z0 F800
G1 X62.098 Y37.082 Z0 F800
G1 X62.037 Z0 F800
G1 X61.814 Y37.126 Z0 F800
G1 X61.68 Y37.144 Z0 F800
G1 X61.571 Y37.148 Z0 F800
G1 X61.507 Y37.144 Z0 F800
G1 X61.381 Y37.111 Z0 F800
G1 X61.293 Y37.062 Z0 F800
G1 X61.195 Y36.975 Z0 F800
G1 X61.071 Y36.826 Z0 F800
G1 X60.708 Y36.33 Z0 F800
G1 X60.514 Y36.174 Z0 F800
G1 X60.277 Y36.134 Z0 F800
G1 X59.731 Y36.164 Z0 F800
G1 X59.309 Y36.151 Z0 F800
G1 X59.148 Y36.131 Z0 F800
G1 X59.007 Y36.101 Z0 F800
G1 X58.907 Y36.067 Z0 F800
G1 X58.832 Y36.029 Z0 F800
G1 X58.79 Y35.997 Z0 F800
G1 X58.761 Y35.964 Z0 F800
G1 X58.737 Y35.919 Z0 F800
G1 X58.713 Y35.842 Z0 F800
G1 X58.699 Y35.729 Z0 F800
G1 Y35.565 Z0 F800
G1 X58.728 Y35.352 Z0 F800
G1 X58.79 Y35.067 Z0 F800
G1 X58.803 Y34.968 Z0 F800
G1 X58.795 Y34.877 Z0 F800
G1 X58.743 Y34.454 Z0 F800
G1 X58.748 Y34.148 Z0 F800
G1 X58.791 Y33.945 Z0 F800
