
G0 Z10 F500;      ; Move to clearance level - Z motion limited to 500
; G0 X-10 Y-10 F1200; Homing
; G0 X-5 Y-5 F1200; go in
; G10 P0 L20 X0 Y0; set to zero
G1 F1200;           ; Set feed rate to 1000
;LightBurn 1.6.04
;Custom GCode device profile, absolute coords
;Bounds: X24.84 Y34.56 to X97.17 Y77.44
G00 G17 G40 G21 G54
G90
M4
;Cut @ 1200 mm/min, 80% power

M8

; Washing sequence (no color)
G1 Z10 F1000;        ; Raise brush to safe height
G0 X5 Y5 F1200;     ; Rapid move to brush cleaning position
G1 Z-1 F800;         ; Lower brush for cleaning - controlled movement
G1 X10 Y12 Z8 F1200;     ; Rapid move to brush cleaning position
G1 Z-1 F800;         ; Lower brush for cleaning - controlled movement
G1 X25 Y14 Z6 F800;     ; Move across cleaning area - controlled movement
G1 Z8 F800;         ; Maintain brush height - controlled movement
G0 X5 Y5 F1200;     ; Rapid move to brush cleaning position
G1 Z-1 F800;         ; Lower brush for cleaning - controlled movement
G1 X15 Y12 Z8 F1200;     ; Rapid move to brush cleaning position
G1 Z-1 F800;         ; Lower brush for cleaning - controlled movement
G1 X25 Y14 Z6 F800;     ; Move across cleaning area - controlled movement
G1 Z10 F800;         ; Maintain brush height - controlled movement
G1 F1200;           ; Set feed rate to 1000
G0 Z3.5 F1000
G0 X34.347 Y39.909 Z3.5 
G1 Z0 F1000
;Layer Wash
G1 X34.312 Y40.025 Z0 S800 F1600
G1 X34.331 Y40.105 Z0 F1600
G1 X34.393 Y40.156 Z0 F1600
G1 X34.485 Y40.185 Z0 F1600
G1 X34.71 Y40.2 Z0 F1600
G1 X34.907 Y40.206 Z0 F1600
G1 X37.261 Y40.355 Z0 F1600
G1 X39.618 Y40.465 Z0 F1600
G1 X39.823 Z0 F1600
G1 X40.06 Y40.455 Z0 F1600
G1 X40.165 Y40.43 Z0 F1600
G1 X40.246 Y40.382 Z0 F1600
G1 X40.294 Y40.304 Z0 F1600
G1 X40.297 Y40.188 Z0 F1600
G1 X40.02 Y39.984 Z0 F1600
G1 X39.698 Y39.841 Z0 F1600
G1 X39.026 Y39.618 Z0 F1600
G1 X38.591 Y39.533 Z0 F1600
G1 X38.153 Y39.5 Z0 F1600
G1 X37.715 Y39.506 Z0 F1600
G1 X37.275 Y39.541 Z0 F1600
G1 X36.395 Y39.648 Z0 F1600
G1 X35.516 Y39.727 Z0 F1600
G1 X35.222 Y39.763 Z0 F1600
G1 X34.923 Y39.787 Z0 F1600
G1 X34.628 Y39.826 Z0 F1600
G1 X34.347 Y39.909 Z0 F1600
G0 Z3.5 F1000
G0 X34.714 Y40.904 Z3.5 F1200
G1 Z0 F1000
G1 X33.051 Y40.87 Z0 F1600
G1 X32.799 Y40.91 Z0 F1600
G1 X32.559 Y41.006 Z0 F1600
G1 X32.34 Y41.143 Z0 F1600
G1 X32.153 Y41.308 Z0 F1600
G1 X32.187 Y41.417 Z0 F1600
G1 X32.255 Y41.487 Z0 F1600
G1 X32.349 Y41.525 Z0 F1600
G1 X32.462 Y41.54 Z0 F1600
G1 X32.707 Z0 F1600
G1 X32.924 Y41.549 Z0 F1600
G1 X34.104 Y41.563 Z0 F1600
G1 X35.285 Y41.566 Z0 F1600
G1 X36.46 Y41.563 Z0 F1600
G1 X37.637 Y41.567 Z0 F1600
G1 X38.813 Y41.559 Z0 F1600
G1 X39.986 Y41.519 Z0 F1600
G1 X40.059 Y41.448 Z0 F1600
G1 X40.082 Y41.379 Z0 F1600
G1 X40.065 Y41.316 Z0 F1600
G1 X40.017 Y41.261 Z0 F1600
G1 X39.864 Y41.19 Z0 F1600
G1 X39.696 Y41.193 Z0 F1600
G1 X38.035 Y41.1 Z0 F1600
G1 X36.375 Y40.992 Z0 F1600
G1 X34.714 Y40.904 Z0 F1600
G0 Z3.5 F1000
G0 X33.23 Y44.453 Z3.5 
G1 Z0 F1000
G1 X32.276 Y44.27 Z0 F1600
G1 X31.316 Y44.107 Z0 F1600
G1 X30.351 Y43.994 Z0 F1600
G1 X29.382 Y43.964 Z0 F1600
G1 X29.287 Y44.032 Z0 F1600
G1 X29.25 Y44.111 Z0 F1600
G1 X29.259 Y44.197 Z0 F1600
G1 X29.304 Y44.285 Z0 F1600
G1 X29.453 Y44.455 Z0 F1600
G1 X29.6 Y44.592 Z0 F1600
G1 X29.737 Y44.751 Z0 F1600
G1 X29.897 Y44.852 Z0 F1600
G1 X30.075 Y44.907 Z0 F1600
G1 X30.265 Y44.928 Z0 F1600
G1 X30.666 Y44.918 Z0 F1600
G1 X31.844 Z0 F1600
G1 X32.293 Y44.912 Z0 F1600
G1 X32.743 Z0 F1600
G1 X33.192 Y44.898 Z0 F1600
G1 X33.636 Y44.847 Z0 F1600
G1 X33.703 Y44.755 Z0 F1600
G1 X33.712 Y44.676 Z0 F1600
G1 X33.676 Y44.611 Z0 F1600
G1 X33.606 Y44.558 Z0 F1600
G1 X33.413 Y44.485 Z0 F1600
G1 X33.23 Y44.453 Z0 F1600
G0 Z3.5 F1000
G0 X33.441 Y43.766 Z3.5 
G1 Z0 F1000
G1 X34.221 Y43.866 Z0 F1600
G1 X35.005 Y43.923 Z0 F1600
G1 X35.791 Y43.941 Z0 F1600
G1 X37.364 Y43.888 Z0 F1600
G1 X38.93 Y43.753 Z0 F1600
G1 X42.05 Y43.634 Z0 F1600
G1 X48.299 Y43.532 Z0 F1600
G1 X51.418 Y43.408 Z0 F1600
G1 X54.118 Y43.345 Z0 F1600
G1 X56.821 Y43.301 Z0 F1600
G1 X56.808 Y43.533 Z0 F1600
G1 X56.843 Y43.765 Z0 F1600
G1 X56.888 Y43.866 Z0 F1600
G1 X56.956 Y43.948 Z0 F1600
G1 X57.051 Y44.005 Z0 F1600
G1 X57.178 Y44.03 Z0 F1600
G1 X57.393 Y44.07 Z0 F1600
G1 X57.612 Y44.06 Z0 F1600
G1 X57.718 Z0 F1600
G1 X57.817 Y44.076 Z0 F1600
G1 X57.906 Y44.117 Z0 F1600
G1 X57.985 Y44.193 Z0 F1600
G1 X58.113 Y44.261 Z0 F1600
G1 X58.28 Y44.318 Z0 F1600
G1 X58.352 Y44.351 Z0 F1600
G1 X58.404 Y44.391 Z0 F1600
G1 X58.425 Y44.441 Z0 F1600
G1 X58.405 Y44.504 Z0 F1600
G1 X58.149 Y44.496 Z0 F1600
G1 X57.902 Y44.547 Z0 F1600
G1 X57.792 Y44.6 Z0 F1600
G1 X57.697 Y44.675 Z0 F1600
G1 X57.621 Y44.774 Z0 F1600
G1 X57.569 Y44.899 Z0 F1600
G1 X57.477 Y45.097 Z0 F1600
G1 X57.424 Y45.33 Z0 F1600
G1 X57.43 Y45.437 Z0 F1600
G1 X57.468 Y45.526 Z0 F1600
G1 X57.545 Y45.588 Z0 F1600
G1 X57.668 Y45.614 Z0 F1600
G1 X57.55 Y45.795 Z0 F1600
G1 X57.464 Y45.992 Z0 F1600
G1 X57.409 Y46.199 Z0 F1600
G1 X57.381 Y46.406 Z0 F1600
G1 X57.202 Y46.429 Z0 F1600
G1 X57.003 Y46.46 Z0 F1600
G1 X56.82 Z0 F1600
G1 X56.686 Y46.4 Z0 F1600
G1 X56.657 Y46.247 Z0 F1600
G1 X56.598 Y46.11 Z0 F1600
G1 X56.513 Y45.991 Z0 F1600
G1 X56.406 Y45.893 Z0 F1600
G1 X56.282 Y45.82 Z0 F1600
G1 X56.143 Y45.773 Z0 F1600
G1 X55.994 Y45.757 Z0 F1600
G1 X55.84 Y45.774 Z0 F1600
G1 X55.743 Y45.612 Z0 F1600
G1 X55.608 Y45.458 Z0 F1600
G1 X55.487 Y45.3 Z0 F1600
G1 X55.428 Y45.131 Z0 F1600
G1 X55.728 Y45.196 Z0 F1600
G1 X56.035 Y45.302 Z0 F1600
G1 X56.187 Y45.34 Z0 F1600
G1 X56.335 Y45.35 Z0 F1600
G1 X56.477 Y45.321 Z0 F1600
G1 X56.612 Y45.239 Z0 F1600
G1 X56.749 Y45 Z0 F1600
G1 X56.873 Y44.745 Z0 F1600
G1 X56.954 Y44.48 Z0 F1600
G1 X56.965 Y44.207 Z0 F1600
G1 X56.859 Y44.134 Z0 F1600
G1 X56.74 Y44.092 Z0 F1600
G1 X56.611 Y44.073 Z0 F1600
G1 X56.475 Y44.07 Z0 F1600
G1 X56.198 Y44.081 Z0 F1600
G1 X55.936 Y44.066 Z0 F1600
G1 X54.082 Y44.059 Z0 F1600
G1 X52.228 Y44.078 Z0 F1600
G1 X50.376 Y44.152 Z0 F1600
G1 X48.531 Y44.315 Z0 F1600
G1 X48.449 Y44.372 Z0 F1600
G1 X48.414 Y44.437 Z0 F1600
G1 X48.418 Y44.504 Z0 F1600
G1 X48.453 Y44.568 Z0 F1600
G1 X48.586 Y44.67 Z0 F1600
G1 X48.749 Y44.705 Z0 F1600
G1 X49.651 Y44.922 Z0 F1600
G1 X50.563 Y45.119 Z0 F1600
G1 X51.48 Y45.264 Z0 F1600
G1 X52.397 Y45.326 Z0 F1600
G1 X52.363 Y45.424 Z0 F1600
G1 X52.296 Y45.482 Z0 F1600
G1 X52.204 Y45.51 Z0 F1600
G1 X52.098 Y45.52 Z0 F1600
G1 X51.869 Y45.526 Z0 F1600
G1 X51.677 Y45.579 Z0 F1600
G1 X51.479 Y45.672 Z0 F1600
G1 X51.31 Y45.812 Z0 F1600
G1 X51.226 Y45.868 Z0 F1600
G1 X51.138 Y45.899 Z0 F1600
G1 X51.042 Y45.89 Z0 F1600
G1 X50.934 Y45.83 Z0 F1600
G1 X50.676 Y45.736 Z0 F1600
G1 X50.41 Y45.709 Z0 F1600
G1 X50.142 Y45.732 Z0 F1600
G1 X49.875 Y45.782 Z0 F1600
G1 X49.458 Y45.739 Z0 F1600
G1 X49.038 Y45.684 Z0 F1600
G1 X48.62 Y45.64 Z0 F1600
G1 X48.207 Y45.629 Z0 F1600
G1 X48.195 Y45.49 Z0 F1600
G1 X48.136 Y45.39 Z0 F1600
G1 X48.041 Y45.321 Z0 F1600
G1 X47.92 Y45.275 Z0 F1600
G1 X47.397 Y45.18 Z0 F1600
G1 X46.588 Y45.062 Z0 F1600
G1 X45.777 Y44.98 Z0 F1600
G1 X44.966 Y44.929 Z0 F1600
G1 X44.155 Y44.907 Z0 F1600
G1 X42.53 Y44.934 Z0 F1600
G1 X40.904 Y45.033 Z0 F1600
G1 X37.657 Y45.332 Z0 F1600
G1 X34.422 Y45.578 Z0 F1600
G1 X33.603 Y45.592 Z0 F1600
G1 X32.782 Y45.603 Z0 F1600
G1 X31.964 Y45.636 Z0 F1600
G1 X31.151 Y45.717 Z0 F1600
G1 X31.071 Y45.81 Z0 F1600
G1 X31.053 Y45.902 Z0 F1600
G1 X31.086 Y45.99 Z0 F1600
G1 X31.158 Y46.07 Z0 F1600
G1 X31.367 Y46.188 Z0 F1600
G1 X31.581 Y46.226 Z0 F1600
G1 X31.779 Y46.241 Z0 F1600
G1 X31.989 Y46.238 Z0 F1600
G1 X32.191 Z0 F1600
G1 X32.363 Y46.27 Z0 F1600
G1 X32.251 Y46.415 Z0 F1600
G1 X32.103 Y46.498 Z0 F1600
G1 X31.934 Y46.537 Z0 F1600
G1 X31.762 Y46.552 Z0 F1600
G1 X31.578 Y46.687 Z0 F1600
G1 X31.384 Y46.801 Z0 F1600
G1 X31.182 Y46.903 Z0 F1600
G1 X30.976 Y47.002 Z0 F1600
G1 X30.826 Y47.115 Z0 F1600
G1 X30.704 Y47.26 Z0 F1600
G1 X30.6 Y47.416 Z0 F1600
G1 X30.503 Y47.567 Z0 F1600
G1 X30.103 Y47.641 Z0 F1600
G1 X29.69 Y47.672 Z0 F1600
G1 X29.283 Y47.724 Z0 F1600
G1 X28.903 Y47.858 Z0 F1600
G1 X28.862 Y47.949 Z0 F1600
G1 X28.853 Y48.045 Z0 F1600
G1 X28.825 Y48.129 Z0 F1600
G1 X28.728 Y48.183 Z0 F1600
G1 X28.542 Y48.363 Z0 F1600
G1 X28.4 Y48.584 Z0 F1600
G1 X28.302 Y48.823 Z0 F1600
G1 X28.244 Y49.057 Z0 F1600
G1 X28.019 Y49.049 Z0 F1600
G1 X27.783 Y49.067 Z0 F1600
G1 X27.549 Y49.114 Z0 F1600
G1 X27.328 Y49.193 Z0 F1600
G1 X27.132 Y49.307 Z0 F1600
G1 X26.972 Y49.46 Z0 F1600
G1 X26.861 Y49.654 Z0 F1600
G1 X26.81 Y49.893 Z0 F1600
G1 X26.803 Y49.957 Z0 F1600
G1 X26.81 Y50.034 Z0 F1600
G1 X26.8 Y50.093 Z0 F1600
G1 X26.743 Y50.103 Z0 F1600
G1 X26.621 Y50.052 Z0 F1600
G1 X26.55 Y49.969 Z0 F1600
G1 X26.517 Y49.864 Z0 F1600
G1 X26.508 Y49.743 Z0 F1600
G1 X26.513 Y49.487 Z0 F1600
G1 X26.459 Y49.264 Z0 F1600
G1 X26.341 Y49.131 Z0 F1600
G1 X26.225 Y48.992 Z0 F1600
G1 X26.09 Y48.875 Z0 F1600
G1 X25.92 Y48.808 Z0 F1600
G1 X25.855 Y48.714 Z0 F1600
G1 X25.818 Y48.612 Z0 F1600
G1 X25.806 Y48.506 Z0 F1600
G1 X25.818 Y48.401 Z0 F1600
G1 X25.91 Y48.211 Z0 F1600
G1 X26.081 Y48.079 Z0 F1600
G1 X26.088 Y47.955 Z0 F1600
G1 X26.043 Y47.877 Z0 F1600
G1 X25.961 Y47.833 Z0 F1600
G1 X25.853 Y47.814 Z0 F1600
G1 X25.606 Y47.806 Z0 F1600
G1 X25.398 Y47.766 Z0 F1600
G1 X25.298 Y47.718 Z0 F1600
G1 X25.226 Y47.645 Z0 F1600
G1 X25.175 Y47.554 Z0 F1600
G1 X25.137 Y47.451 Z0 F1600
G1 X25.072 Y47.234 Z0 F1600
G1 X24.97 Y47.043 Z0 F1600
G1 X24.905 Y46.938 Z0 F1600
G1 X24.864 Y46.819 Z0 F1600
G1 X24.849 Y46.695 Z0 F1600
G1 X24.862 Y46.575 Z0 F1600
G1 X24.903 Y46.468 Z0 F1600
G1 X24.974 Y46.382 Z0 F1600
G1 X25.078 Y46.327 Z0 F1600
G1 X25.214 Y46.31 Z0 F1600
G1 X25.493 Y46.286 Z0 F1600
G1 X25.779 Y46.3 Z0 F1600
G1 X26.059 Y46.295 Z0 F1600
G1 X26.32 Y46.213 Z0 F1600
G1 X26.346 Y46.09 Z0 F1600
G1 X26.314 Y45.998 Z0 F1600
G1 X26.239 Y45.933 Z0 F1600
G1 X26.132 Y45.887 Z0 F1600
G1 X25.878 Y45.834 Z0 F1600
G1 X25.657 Y45.792 Z0 F1600
G1 X25.47 Y45.743 Z0 F1600
G1 X25.26 Y45.692 Z0 F1600
G1 X25.075 Y45.611 Z0 F1600
G1 X24.965 Y45.469 Z0 F1600
G1 X25.04 Y45.252 Z0 F1600
G1 X25.184 Y45.085 Z0 F1600
G1 X25.276 Y45.032 Z0 F1600
G1 X25.379 Y45.004 Z0 F1600
G1 X25.491 Y45.008 Z0 F1600
G1 X25.609 Y45.046 Z0 F1600
G1 X25.877 Y45.077 Z0 F1600
G1 X26.14 Y45.051 Z0 F1600
G1 X26.398 Y44.99 Z0 F1600
G1 X26.652 Y44.915 Z0 F1600
G1 X27.111 Y44.873 Z0 F1600
G1 X27.578 Y44.865 Z0 F1600
G1 X28.039 Y44.847 Z0 F1600
G1 X28.479 Y44.779 Z0 F1600
G1 X28.521 Y44.673 Z0 F1600
G1 X28.511 Y44.57 Z0 F1600
G1 X28.461 Y44.473 Z0 F1600
G1 X28.382 Y44.38 Z0 F1600
G1 X28.177 Y44.213 Z0 F1600
G1 X27.983 Y44.075 Z0 F1600
G1 X27.795 Y43.989 Z0 F1600
G1 X27.595 Y43.963 Z0 F1600
G1 X27.393 Y43.982 Z0 F1600
G1 X27.199 Y44.028 Z0 F1600
G1 X27.152 Y43.83 Z0 F1600
G1 X27.072 Y43.65 Z0 F1600
G1 X26.965 Y43.485 Z0 F1600
G1 X26.838 Y43.332 Z0 F1600
G1 X26.78 Y43.147 Z0 F1600
G1 X26.762 Y42.934 Z0 F1600
G1 X26.783 Y42.844 Z0 F1600
G1 X26.831 Y42.78 Z0 F1600
G1 X26.912 Y42.753 Z0 F1600
G1 X27.032 Y42.773 Z0 F1600
G1 X28.446 Y42.953 Z0 F1600
G1 X29.86 Y43.136 Z0 F1600
G1 X31.268 Y43.348 Z0 F1600
G1 X33.441 Y43.766 Z0 F1600
G0 Z3.5 F1000
G0 X46.171 Y36.828 Z3.5 
G1 Z0 F1000
G1 X46.335 Y36.89 Z0 F1600
G1 X46.506 Y36.882 Z0 F1600
G1 X47.303 Y36.859 Z0 F1600
G1 X48.092 Y36.876 Z0 F1600
G1 X48.877 Y36.951 Z0 F1600
G1 X49.659 Y37.106 Z0 F1600
G1 X50.826 Y37.319 Z0 F1600
G1 X52 Y37.486 Z0 F1600
G1 X53.179 Y37.592 Z0 F1600
G1 X54.365 Y37.621 Z0 F1600
G1 X54.76 Y37.613 Z0 F1600
G1 X55.163 Y37.62 Z0 F1600
G1 X55.559 Y37.6 Z0 F1600
G1 X55.938 Y37.509 Z0 F1600
G1 X55.968 Y37.391 Z0 F1600
G1 X55.942 Y37.306 Z0 F1600
G1 X55.872 Y37.249 Z0 F1600
G1 X55.772 Y37.214 Z0 F1600
G1 X55.532 Y37.186 Z0 F1600
G1 X55.324 Y37.174 Z0 F1600
G1 X54.044 Y37.115 Z0 F1600
G1 X52.772 Y37.004 Z0 F1600
G1 X51.508 Y36.831 Z0 F1600
G1 X50.252 Y36.585 Z0 F1600
G1 X49.236 Y36.432 Z0 F1600
G1 X48.208 Y36.348 Z0 F1600
G1 X47.694 Z0 F1600
G1 X47.182 Y36.377 Z0 F1600
G1 X46.674 Y36.448 Z0 F1600
G1 X46.172 Y36.562 Z0 F1600
G1 X46.106 Y36.641 Z0 F1600
G1 X46.09 Y36.713 Z0 F1600
G1 X46.115 Y36.777 Z0 F1600
G1 X46.171 Y36.828 Z0 F1600

; Washing sequence (no color)
G1 Z10 F1000;        ; Raise brush to safe height
G0 X5 Y5 F1200;     ; Rapid move to brush cleaning position
G1 Z-1 F800;         ; Lower brush for cleaning - controlled movement
G1 X10 Y12 Z8 F1200;     ; Rapid move to brush cleaning position
G1 Z-1 F800;         ; Lower brush for cleaning - controlled movement
G1 X25 Y14 Z6 F800;     ; Move across cleaning area - controlled movement
G1 Z8 F800;         ; Maintain brush height - controlled movement
G0 X5 Y5 F1200;     ; Rapid move to brush cleaning position
G1 Z-1 F800;         ; Lower brush for cleaning - controlled movement
G1 X15 Y12 Z8 F1200;     ; Rapid move to brush cleaning position
G1 Z-1 F800;         ; Lower brush for cleaning - controlled movement
G1 X25 Y14 Z6 F800;     ; Move across cleaning area - controlled movement
G1 Z10 F800;         ; Maintain brush height - controlled movement
G1 F1200;           ; Set feed rate to 1000
G0 Z3.5 F1000
G0 X45.403 Y35.955 Z3.5 
G1 Z0 F1000
G1 X45.48 Y35.921 Z0 F1600
G1 X45.542 Y35.866 Z0 F1600
G1 X45.583 Y35.799 Z0 F1600
G1 X45.599 Y35.728 Z0 F1600
G1 X45.584 Y35.661 Z0 F1600
G1 X45.533 Y35.608 Z0 F1600
G1 X45.442 Y35.578 Z0 F1600
G1 X44.239 Y35.422 Z0 F1600
G1 X43.047 Y35.231 Z0 F1600
G1 X43.035 Y35.012 Z0 F1600
G1 X43.062 Y34.765 Z0 F1600
G1 X43.103 Y34.661 Z0 F1600
G1 X43.168 Y34.588 Z0 F1600
G1 X43.264 Y34.558 Z0 F1600
G1 X43.395 Y34.583 Z0 F1600
G1 X44.892 Y34.836 Z0 F1600
G1 X46.395 Y35.054 Z0 F1600
G1 X47.905 Y35.209 Z0 F1600
G1 X49.422 Y35.276 Z0 F1600
G1 X52.233 Y35.444 Z0 F1600
G1 X55.047 Y35.597 Z0 F1600
G1 X56.454 Y35.645 Z0 F1600
G1 X57.862 Y35.663 Z0 F1600
G1 X59.271 Y35.641 Z0 F1600
G1 X60.679 Y35.571 Z0 F1600
G1 X61.348 Y35.53 Z0 F1600
G1 X62.021 Y35.509 Z0 F1600
G1 X62.691 Y35.471 Z0 F1600
G1 X63.354 Y35.378 Z0 F1600
G1 X63.435 Y35.311 Z0 F1600
G1 X63.485 Y35.222 Z0 F1600
G1 X63.547 Y35.152 Z0 F1600
G1 X63.662 Y35.142 Z0 F1600
G1 X64.128 Y35.15 Z0 F1600
G1 X64.601 Y35.21 Z0 F1600
G1 X64.834 Y35.226 Z0 F1600
G1 X65.062 Y35.214 Z0 F1600
G1 X65.284 Y35.162 Z0 F1600
G1 X65.497 Y35.056 Z0 F1600
G1 X65.792 Y35.243 Z0 F1600
G1 X66.1 Y35.466 Z0 F1600
G1 X66.258 Y35.549 Z0 F1600
G1 X66.42 Y35.59 Z0 F1600
G1 X66.584 Y35.573 Z0 F1600
G1 X66.751 Y35.481 Z0 F1600
G1 X66.843 Y35.414 Z0 F1600
G1 X66.937 Y35.399 Z0 F1600
G1 X67.032 Y35.422 Z0 F1600
G1 X67.129 Y35.469 Z0 F1600
G1 X67.329 Y35.579 Z0 F1600
G1 X67.534 Y35.614 Z0 F1600
G1 X67.87 Y35.627 Z0 F1600
G1 X68.213 Y35.608 Z0 F1600
G1 X68.551 Z0 F1600
G1 X68.872 Y35.675 Z0 F1600
G1 X68.973 Y35.733 Z0 F1600
G1 X69.093 Y35.763 Z0 F1600
G1 X69.132 Y35.774 Z0 F1600
G1 X69.144 Y35.787 Z0 F1600
G1 X69.116 Y35.804 Z0 F1600
G1 X69.039 Y35.827 Z0 F1600
G1 X68.959 Y35.881 Z0 F1600
G1 X68.919 Y35.96 Z0 F1600
G1 X68.905 Y36.052 Z0 F1600
G1 X68.901 Y36.146 Z0 F1600
G1 X68.894 Y36.23 Z0 F1600
G1 X68.867 Y36.291 Z0 F1600
G1 X68.807 Y36.318 Z0 F1600
G1 X68.699 Y36.298 Z0 F1600
G1 X61.805 Y36.261 Z0 F1600
G1 X61.724 Y36.339 Z0 F1600
G1 X61.679 Y36.434 Z0 F1600
G1 X61.665 Y36.539 Z0 F1600
G1 X61.676 Y36.651 Z0 F1600
G1 X61.751 Y36.873 Z0 F1600
G1 X61.861 Y37.064 Z0 F1600
G1 X62.403 Y37.121 Z0 F1600
G1 X62.954 Y37.107 Z0 F1600
G1 X63.507 Y37.064 Z0 F1600
G1 X64.056 Y37.036 Z0 F1600
G1 X64.336 Y37.02 Z0 F1600
G1 X64.608 Y36.973 Z0 F1600
G1 X64.866 Y36.883 Z0 F1600
G1 X65.1 Y36.735 Z0 F1600
G1 X65.207 Y36.712 Z0 F1600
G1 X65.311 Y36.717 Z0 F1600
G1 X65.382 Y36.769 Z0 F1600
G1 X65.391 Y36.888 Z0 F1600
G1 X65.414 Y37.101 Z0 F1600
G1 X65.457 Y37.331 Z0 F1600
G1 Y37.434 Z0 F1600
G1 X65.435 Y37.518 Z0 F1600
G1 X65.374 Y37.576 Z0 F1600
G1 X65.266 Y37.6 Z0 F1600
G1 X64.616 Y37.681 Z0 F1600
G1 X63.961 Y37.723 Z0 F1600
G1 X63.309 Y37.775 Z0 F1600
G1 X62.666 Y37.884 Z0 F1600
G1 X62.605 Y37.978 Z0 F1600
G1 X62.6 Y38.056 Z0 F1600
G1 X62.638 Y38.119 Z0 F1600
G1 X62.708 Y38.168 Z0 F1600
G1 X62.899 Y38.222 Z0 F1600
G1 X63.081 Z0 F1600
G1 X63.695 Y38.24 Z0 F1600
G1 X64.31 Y38.272 Z0 F1600
G1 X64.92 Y38.331 Z0 F1600
G1 X65.521 Y38.432 Z0 F1600
G1 X65.593 Y38.789 Z0 F1600
G1 X65.633 Y39.152 Z0 F1600
G1 X64.261 Y38.99 Z0 F1600
G1 X62.881 Y38.924 Z0 F1600
G1 X61.497 Y38.903 Z0 F1600
G1 X60.116 Y38.875 Z0 F1600
G1 X53.006 Y38.789 Z0 F1600
G1 X45.898 Y38.648 Z0 F1600
G1 X43.313 Y38.628 Z0 F1600
G1 X42.022 Z0 F1600
G1 X40.736 Y38.658 Z0 F1600
G1 X40.646 Y38.898 Z0 F1600
G1 X40.639 Y39.175 Z0 F1600
G1 X40.706 Y39.452 Z0 F1600
G1 X40.837 Y39.694 Z0 F1600
G1 X40.816 Y39.916 Z0 F1600
G1 X40.707 Y40.149 Z0 F1600
G1 X40.667 Y40.259 Z0 F1600
G1 X40.661 Y40.357 Z0 F1600
G1 X40.708 Y40.439 Z0 F1600
G1 X40.827 Y40.501 Z0 F1600
G1 X41.372 Y40.529 Z0 F1600
G1 X41.92 Y40.547 Z0 F1600
G1 X42.465 Y40.538 Z0 F1600
G1 X43.001 Y40.488 Z0 F1600
G1 X43.035 Y40.305 Z0 F1600
G1 X43.046 Y40.1 Z0 F1600
G1 X43.067 Y40.009 Z0 F1600
G1 X43.109 Y39.937 Z0 F1600
G1 X43.184 Y39.891 Z0 F1600
G1 X43.3 Y39.88 Z0 F1600
G1 X44.26 Y39.744 Z0 F1600
G1 X45.225 Y39.64 Z0 F1600
G1 X46.192 Y39.561 Z0 F1600
G1 X47.163 Y39.5 Z0 F1600
G1 X49.107 Y39.409 Z0 F1600
G1 X51.05 Y39.315 Z0 F1600
G1 X51.888 Y39.269 Z0 F1600
G1 X52.715 Y39.234 Z0 F1600
G1 X52.765 Y39.478 Z0 F1600
G1 X52.774 Y39.75 Z0 F1600
G1 X52.795 Y39.868 Z0 F1600
G1 X52.844 Y39.958 Z0 F1600
G1 X52.935 Y40.01 Z0 F1600
G1 X53.08 Z0 F1600
G1 X56.285 Y39.851 Z0 F1600
G1 X59.49 Y39.672 Z0 F1600
G1 X59.477 Y39.743 Z0 F1600
G1 X59.433 Y39.792 Z0 F1600
G1 X59.368 Y39.824 Z0 F1600
G1 X59.29 Y39.847 Z0 F1600
G1 X59.123 Y39.89 Z0 F1600
G1 X58.994 Y39.973 Z0 F1600
G1 X58.824 Y40.089 Z0 F1600
G1 X58.69 Y40.239 Z0 F1600
G1 X58.568 Y40.398 Z0 F1600
G1 X58.43 Y40.543 Z0 F1600
G1 X58.393 Y40.706 Z0 F1600
G1 X58.307 Y40.837 Z0 F1600
G1 X58.19 Y40.947 Z0 F1600
G1 X58.058 Y41.05 Z0 F1600
G1 X57.829 Y41.35 Z0 F1600
G1 X57.665 Y41.691 Z0 F1600
G1 X57.563 Y42.054 Z0 F1600
G1 X57.524 Y42.417 Z0 F1600
G1 X56.655 Y42.544 Z0 F1600
G1 X55.774 Y42.621 Z0 F1600
G1 X54.889 Y42.676 Z0 F1600
G1 X54.007 Y42.74 Z0 F1600
G1 X52.957 Y42.785 Z0 F1600
G1 X51.904 Y42.796 Z0 F1600
G1 X49.583 Y42.704 Z0 F1600
G1 X47.26 Y42.576 Z0 F1600
G1 X44.937 Y42.454 Z0 F1600
G1 X42.611 Y42.378 Z0 F1600
G1 X38.497 Y42.299 Z0 F1600
G1 X30.266 Y42.216 Z0 F1600
G1 X26.153 Y42.134 Z0 F1600
G1 X25.863 Y42.11 Z0 F1600
G1 X25.555 Y42.099 Z0 F1600
G1 X25.405 Y42.082 Z0 F1600
G1 X25.262 Y42.047 Z0 F1600
G1 X25.131 Y41.989 Z0 F1600
G1 X25.016 Y41.9 Z0 F1600
G1 X24.948 Y41.695 Z0 F1600
G1 X24.933 Y41.468 Z0 F1600
G1 X24.958 Y41.367 Z0 F1600
G1 X25.01 Y41.285 Z0 F1600
G1 X25.094 Y41.23 Z0 F1600
G1 X25.215 Y41.21 Z0 F1600
G1 X25.759 Y41.166 Z0 F1600
G1 X26.307 Y41.137 Z0 F1600
G1 X26.851 Y41.082 Z0 F1600
G1 X27.382 Y40.964 Z0 F1600
G1 X27.435 Y40.86 Z0 F1600
G1 X27.431 Y40.78 Z0 F1600
G1 X27.383 Y40.722 Z0 F1600
G1 X27.302 Y40.682 Z0 F1600
G1 X27.092 Y40.647 Z0 F1600
G1 X26.902 Z0 F1600
G1 X26.456 Y40.636 Z0 F1600
G1 X26.008 Z0 F1600
G1 X25.565 Y40.618 Z0 F1600
G1 X25.135 Y40.56 Z0 F1600
G1 X25.105 Y40.357 Z0 F1600
G1 X25.112 Y40.148 Z0 F1600
G1 X25.141 Y40.059 Z0 F1600
G1 X25.196 Y39.991 Z0 F1600
G1 X25.28 Y39.951 Z0 F1600
G1 X25.4 Y39.946 Z0 F1600
G1 X25.506 Y39.901 Z0 F1600
G1 X25.574 Y39.821 Z0 F1600
G1 X25.617 Y39.72 Z0 F1600
G1 X25.649 Y39.612 Z0 F1600
G1 X25.683 Y39.511 Z0 F1600
G1 X25.732 Y39.43 Z0 F1600
G1 X25.811 Y39.385 Z0 F1600
G1 X25.931 Y39.388 Z0 F1600
G1 X28.441 Y39.284 Z0 F1600
G1 X30.957 Y39.21 Z0 F1600
G1 X33.475 Y39.113 Z0 F1600
G1 X35.986 Y38.94 Z0 F1600
G1 X36.088 Z0 F1600
G1 X36.174 Y38.904 Z0 F1600
G1 X36.238 Y38.84 Z0 F1600
G1 X36.277 Y38.761 Z0 F1600
G1 X36.287 Y38.678 Z0 F1600
G1 X36.263 Y38.601 Z0 F1600
G1 X36.202 Y38.541 Z0 F1600
G1 X36.098 Y38.509 Z0 F1600
G1 X33.644 Y38.517 Z0 F1600
G1 X28.737 Y38.61 Z0 F1600
G1 X26.284 Y38.615 Z0 F1600
G1 X26.213 Y38.586 Z0 F1600
G1 X26.171 Y38.534 Z0 F1600
G1 X26.153 Y38.464 Z0 F1600
G1 Y38.384 Z0 F1600
G1 X26.193 Y38.217 Z0 F1600
G1 X26.243 Y38.082 Z0 F1600
G1 X26.281 Y37.999 Z0 F1600
G1 X26.288 Y37.911 Z0 F1600
G1 X26.269 Y37.826 Z0 F1600
G1 X26.229 Y37.755 Z0 F1600
G1 X26.172 Y37.704 Z0 F1600
G1 X26.103 Y37.684 Z0 F1600
G1 X26.027 Y37.702 Z0 F1600
G1 X25.948 Y37.769 Z0 F1600
G1 X25.809 Y37.971 Z0 F1600
G1 X25.718 Y38.211 Z0 F1600
G1 X25.623 Y38.44 Z0 F1600
G1 X25.469 Y38.613 Z0 F1600
G1 X25.381 Y38.617 Z0 F1600
G1 X25.317 Y38.582 Z0 F1600
G1 X25.27 Y38.518 Z0 F1600
G1 X25.236 Y38.435 Z0 F1600
G1 X25.185 Y38.249 Z0 F1600
G1 X25.122 Y38.103 Z0 F1600
G1 X25.011 Y37.72 Z0 F1600
G1 X24.904 Y37.328 Z0 F1600
G1 X24.835 Y36.934 Z0 F1600
G1 X24.841 Y36.543 Z0 F1600
G1 X25.066 Y36.471 Z0 F1600
G1 X25.295 Y36.493 Z0 F1600
G1 X25.396 Y36.539 Z0 F1600
G1 X25.481 Y36.61 Z0 F1600
G1 X25.544 Y36.705 Z0 F1600
G1 X25.579 Y36.826 Z0 F1600
G1 X25.667 Y36.935 Z0 F1600
G1 X25.781 Y36.996 Z0 F1600
G1 X25.915 Y37.021 Z0 F1600
G1 X26.062 Z0 F1600
G1 X26.371 Y36.99 Z0 F1600
G1 X26.656 Y36.998 Z0 F1600
G1 X27.23 Z0 F1600
G1 X27.796 Y37.075 Z0 F1600
G1 X28.359 Y37.189 Z0 F1600
G1 X28.924 Y37.292 Z0 F1600
G1 X29.172 Y37.277 Z0 F1600
G1 X29.434 Y37.252 Z0 F1600
G1 X29.558 Y37.223 Z0 F1600
G1 X29.671 Y37.176 Z0 F1600
G1 X29.769 Y37.107 Z0 F1600
G1 X29.847 Y37.011 Z0 F1600
G1 X29.816 Y36.795 Z0 F1600
G1 X29.786 Y36.557 Z0 F1600
G1 X29.752 Y36.454 Z0 F1600
G1 X29.694 Y36.373 Z0 F1600
G1 X29.606 Y36.324 Z0 F1600
G1 X29.48 Y36.317 Z0 F1600
G1 X29.117 Y36.367 Z0 F1600
G1 X28.752 Y36.381 Z0 F1600
G1 X28.572 Y36.365 Z0 F1600
G1 X28.395 Y36.328 Z0 F1600
G1 X28.222 Y36.267 Z0 F1600
G1 X28.056 Y36.177 Z0 F1600
G1 X27.799 Y36.072 Z0 F1600
G1 X27.525 Y36.008 Z0 F1600
G1 X27.256 Y35.942 Z0 F1600
G1 X27.011 Y35.832 Z0 F1600
G1 X26.905 Y35.714 Z0 F1600
G1 X26.681 Y35.635 Z0 F1600
G1 X26.622 Y35.596 Z0 F1600
G1 X26.584 Y35.534 Z0 F1600
G1 X26.556 Y35.263 Z0 F1600
G1 X26.56 Y35.075 Z0 F1600
G1 X26.585 Y34.996 Z0 F1600
G1 X26.633 Y34.938 Z0 F1600
G1 X26.708 Y34.908 Z0 F1600
G1 X26.818 Y34.914 Z0 F1600
G1 X28.123 Y34.964 Z0 F1600
G1 X29.425 Y35.052 Z0 F1600
G1 X30.726 Y35.168 Z0 F1600
G1 X32.026 Y35.298 Z0 F1600
G1 X34.628 Y35.553 Z0 F1600
G1 X37.237 Y35.724 Z0 F1600
G1 X37.525 Y35.751 Z0 F1600
G1 X37.816 Y35.8 Z0 F1600
G1 X37.949 Y35.847 Z0 F1600
G1 X38.066 Y35.917 Z0 F1600
G1 X38.162 Y36.016 Z0 F1600
G1 X38.23 Y36.149 Z0 F1600
G1 X38.574 Y36.249 Z0 F1600
G1 X38.94 Y36.256 Z0 F1600
G1 X39.313 Y36.232 Z0 F1600
G1 X39.677 Y36.236 Z0 F1600
G1 X40.245 Z0 F1600
G1 X40.813 Y36.272 Z0 F1600
G1 X41.381 Y36.31 Z0 F1600
G1 X41.948 Y36.316 Z0 F1600
G1 X42.288 Y36.085 Z0 F1600
G1 X42.473 Y35.995 Z0 F1600
G1 X42.683 Y35.957 Z0 F1600
G1 X42.941 Y35.907 Z0 F1600
G1 X43.204 Y35.89 Z0 F1600
G1 X43.332 Y35.905 Z0 F1600
G1 X43.452 Y35.942 Z0 F1600
G1 X43.564 Y36.004 Z0 F1600
G1 X43.664 Y36.097 Z0 F1600
G1 X44.074 Y36.14 Z0 F1600
G1 X44.49 Y36.105 Z0 F1600
G1 X45.316 Y35.959 Z0 F1600
G1 X45.403 Y35.955 Z0 F1600

; Washing sequence (no color)
G1 Z10 F1000;        ; Raise brush to safe height
G0 X5 Y5 F1200;     ; Rapid move to brush cleaning position
G1 Z-1 F800;         ; Lower brush for cleaning - controlled movement
G1 X10 Y12 Z8 F1200;     ; Rapid move to brush cleaning position
G1 Z-1 F800;         ; Lower brush for cleaning - controlled movement
G1 X25 Y14 Z6 F800;     ; Move across cleaning area - controlled movement
G1 Z8 F800;         ; Maintain brush height - controlled movement
G0 X5 Y5 F1200;     ; Rapid move to brush cleaning position
G1 Z-1 F800;         ; Lower brush for cleaning - controlled movement
G1 X15 Y12 Z8 F1200;     ; Rapid move to brush cleaning position
G1 Z-1 F800;         ; Lower brush for cleaning - controlled movement
G1 X25 Y14 Z6 F800;     ; Move across cleaning area - controlled movement
G1 Z10 F800;         ; Maintain brush height - controlled movement
G1 F1200;           ; Set feed rate to 1000
G0 Z3.5 F1000
G0 X71.3 Y37.022 Z3.5 
G1 Z0 F1000
G1 X71.336 Y37.095 Z0 F1600
G1 X71.428 Y37.161 Z0 F1600
G1 X71.598 Y37.188 Z0 F1600
G1 X71.771 Y37.192 Z0 F1600
G1 X74.322 Y37.093 Z0 F1600
G1 X75.596 Y37.022 Z0 F1600
G1 X76.866 Y36.909 Z0 F1600
G1 X76.947 Y36.822 Z0 F1600
G1 X76.966 Y36.735 Z0 F1600
G1 X76.937 Y36.65 Z0 F1600
G1 X76.872 Y36.568 Z0 F1600
G1 X76.685 Y36.423 Z0 F1600
G1 X76.504 Y36.319 Z0 F1600
G1 X76.322 Y36.234 Z0 F1600
G1 X76.131 Y36.182 Z0 F1600
G1 X75.936 Y36.161 Z0 F1600
G1 X75.741 Y36.172 Z0 F1600
G1 X75.549 Y36.213 Z0 F1600
G1 X75.365 Y36.283 Z0 F1600
G1 X75.193 Y36.381 Z0 F1600
G1 X75.038 Y36.505 Z0 F1600
G1 X74.205 Y36.574 Z0 F1600
G1 X73.363 Z0 F1600
G1 X72.521 Y36.583 Z0 F1600
G1 X71.689 Y36.687 Z0 F1600
G1 X71.511 Y36.748 Z0 F1600
G1 X71.355 Y36.872 Z0 F1600
G1 X71.31 Y36.946 Z0 F1600
G1 X71.3 Y37.022 Z0 F1600
G0 Z3.5 F1000
G0 X71.467 Y37.794 Z3.5 
G1 Z0 F1000
G1 X69.593 Y37.892 Z0 F1600
G1 X69.476 Y37.927 Z0 F1600
G1 X69.384 Z0 F1600
G1 X69.315 Y37.901 Z0 F1600
G1 X69.265 Y37.849 Z0 F1600
G1 X69.212 Y37.688 Z0 F1600
G1 X69.2 Y37.479 Z0 F1600
G1 X69.14 Y36.965 Z0 F1600
G1 X69.105 Y36.45 Z0 F1600
G1 X69.541 Y36.346 Z0 F1600
G1 X69.985 Y36.294 Z0 F1600
G1 X70.429 Y36.245 Z0 F1600
G1 X70.862 Y36.147 Z0 F1600
G1 X70.927 Y36.07 Z0 F1600
G1 X70.943 Y35.995 Z0 F1600
G1 X70.92 Y35.927 Z0 F1600
G1 X70.867 Y35.868 Z0 F1600
G1 X70.706 Y35.795 Z0 F1600
G1 X70.533 Y35.803 Z0 F1600
G1 X70.235 Y35.819 Z0 F1600
G1 X69.938 Y35.87 Z0 F1600
G1 X69.644 Y35.923 Z0 F1600
G1 X69.354 Y35.949 Z0 F1600
G1 X69.269 Y35.903 Z0 F1600
G1 X69.22 Y35.84 Z0 F1600
G1 X69.201 Y35.764 Z0 F1600
G1 X69.206 Y35.68 Z0 F1600
G1 X69.265 Y35.504 Z0 F1600
G1 X69.349 Y35.346 Z0 F1600
G1 X69.626 Y35.229 Z0 F1600
G1 X69.915 Y35.154 Z0 F1600
G1 X70.212 Y35.116 Z0 F1600
G1 X70.514 Y35.113 Z0 F1600
G1 X71.116 Y35.193 Z0 F1600
G1 X71.692 Y35.364 Z0 F1600
G1 X72.027 Y35.499 Z0 F1600
G1 X72.346 Y35.682 Z0 F1600
G1 X72.507 Y35.758 Z0 F1600
G1 X72.672 Y35.809 Z0 F1600
G1 X72.845 Y35.82 Z0 F1600
G1 X73.029 Y35.779 Z0 F1600
G1 X73.924 Y35.659 Z0 F1600
G1 X74.829 Y35.543 Z0 F1600
G1 X75.282 Y35.51 Z0 F1600
G1 X75.734 Z0 F1600
G1 X76.184 Y35.546 Z0 F1600
G1 X76.63 Y35.634 Z0 F1600
G1 X76.897 Y35.764 Z0 F1600
G1 X77.167 Y35.916 Z0 F1600
G1 X77.304 Y35.972 Z0 F1600
G1 X77.444 Y35.998 Z0 F1600
G1 X77.587 Y35.984 Z0 F1600
G1 X77.735 Y35.918 Z0 F1600
G1 X78.314 Y35.71 Z0 F1600
G1 X78.911 Y35.583 Z0 F1600
G1 X79.213 Y35.559 Z0 F1600
G1 X79.516 Y35.565 Z0 F1600
G1 X79.819 Y35.605 Z0 F1600
G1 X80.121 Y35.682 Z0 F1600
G1 X80.667 Y35.636 Z0 F1600
G1 X81.202 Y35.503 Z0 F1600
G1 X81.47 Y35.434 Z0 F1600
G1 X81.74 Y35.38 Z0 F1600
G1 X82.014 Y35.352 Z0 F1600
G1 X82.294 Y35.363 Z0 F1600
G1 X82.525 Z0 F1600
G1 X82.745 Y35.415 Z0 F1600
G1 X82.956 Y35.501 Z0 F1600
G1 X83.161 Y35.606 Z0 F1600
G1 X83.365 Y35.715 Z0 F1600
G1 X83.569 Y35.814 Z0 F1600
G1 X83.777 Y35.887 Z0 F1600
G1 X83.993 Y35.92 Z0 F1600
G1 X84.374 Y35.822 Z0 F1600
G1 X84.761 Y35.765 Z0 F1600
G1 X85.151 Y35.737 Z0 F1600
G1 X85.545 Y35.727 Z0 F1600
G1 X86.334 Y35.722 Z0 F1600
G1 X87.121 Y35.663 Z0 F1600
G1 X88.548 Y35.518 Z0 F1600
G1 X89.969 Y35.363 Z0 F1600
G1 X90.679 Y35.301 Z0 F1600
G1 X91.392 Y35.26 Z0 F1600
G1 X92.106 Y35.247 Z0 F1600
G1 X92.823 Y35.272 Z0 F1600
G1 X93.886 Y35.3 Z0 F1600
G1 X94.96 Y35.359 Z0 F1600
G1 X95.489 Y35.431 Z0 F1600
G1 X96.005 Y35.55 Z0 F1600
G1 X96.503 Y35.726 Z0 F1600
G1 X96.977 Y35.974 Z0 F1600
G1 X97.03 Y36.077 Z0 F1600
G1 X97.033 Y36.178 Z0 F1600
G1 X96.997 Y36.274 Z0 F1600
G1 X96.931 Y36.363 Z0 F1600
G1 X96.743 Y36.511 Z0 F1600
G1 X96.543 Y36.602 Z0 F1600
G1 X96.436 Y36.783 Z0 F1600
G1 X96.332 Y36.965 Z0 F1600
G1 X96.202 Y37.125 Z0 F1600
G1 X96.018 Y37.238 Z0 F1600
G1 X95.927 Y37.324 Z0 F1600
G1 X95.869 Y37.429 Z0 F1600
G1 X95.838 Y37.471 Z0 F1600
G1 X95.799 Y37.497 Z0 F1600
G1 X95.746 Y37.5 Z0 F1600
G1 X95.674 Y37.473 Z0 F1600
G1 X95.384 Y37.462 Z0 F1600
G1 X95.106 Y37.536 Z0 F1600
G1 X94.994 Y37.61 Z0 F1600
G1 X94.914 Y37.712 Z0 F1600
G1 X94.874 Y37.842 Z0 F1600
G1 X94.884 Y38.003 Z0 F1600
G1 X94.832 Y38.134 Z0 F1600
G1 X94.753 Y38.252 Z0 F1600
G1 X94.653 Y38.351 Z0 F1600
G1 X94.536 Y38.426 Z0 F1600
G1 X94.407 Y38.473 Z0 F1600
G1 X94.272 Y38.486 Z0 F1600
G1 X94.135 Y38.46 Z0 F1600
G1 X94.002 Y38.392 Z0 F1600
G1 X93.649 Z0 F1600
G1 X93.301 Y38.434 Z0 F1600
G1 X92.956 Y38.504 Z0 F1600
G1 X92.614 Y38.596 Z0 F1600
G1 X91.934 Y38.808 Z0 F1600
G1 X91.258 Y39.005 Z0 F1600
G1 X91.173 Y39.11 Z0 F1600
G1 X91.127 Y39.237 Z0 F1600
G1 X91.109 Y39.377 Z0 F1600
G1 X91.101 Y39.673 Z0 F1600
G1 X91.085 Y39.816 Z0 F1600
G1 X91.044 Y39.945 Z0 F1600
G1 X90.966 Y40.056 Z0 F1600
G1 X90.786 Y40.098 Z0 F1600
G1 X90.602 Y40.113 Z0 F1600
G1 X90.231 Z0 F1600
G1 X89.219 Y40.08 Z0 F1600
G1 X88.204 Y40.056 Z0 F1600
G1 X87.192 Y39.995 Z0 F1600
G1 X86.191 Y39.854 Z0 F1600
G1 X86.077 Y39.827 Z0 F1600
G1 X85.998 Y39.754 Z0 F1600
G1 X85.953 Y39.653 Z0 F1600
G1 X85.942 Y39.541 Z0 F1600
G1 X85.964 Y39.434 Z0 F1600
G1 X86.019 Y39.348 Z0 F1600
G1 X86.107 Y39.301 Z0 F1600
G1 X86.227 Y39.309 Z0 F1600
G1 X87.232 Z0 F1600
G1 X88.239 Y39.34 Z0 F1600
G1 X89.244 Y39.357 Z0 F1600
G1 X90.247 Y39.318 Z0 F1600
G1 X90.35 Y39.249 Z0 F1600
G1 X90.422 Y39.154 Z0 F1600
G1 X90.475 Y39.042 Z0 F1600
G1 X90.565 Y38.801 Z0 F1600
G1 X90.623 Y38.689 Z0 F1600
G1 X90.703 Y38.595 Z0 F1600
G1 X90.817 Y38.526 Z0 F1600
G1 X91.274 Y38.305 Z0 F1600
G1 X91.764 Y38.156 Z0 F1600
G1 X92.253 Y38.01 Z0 F1600
G1 X92.709 Y37.799 Z0 F1600
G1 X92.729 Y37.682 Z0 F1600
G1 X92.701 Y37.603 Z0 F1600
G1 X92.636 Y37.555 Z0 F1600
G1 X92.545 Y37.533 Z0 F1600
G1 X92.328 Y37.538 Z0 F1600
G1 X92.135 Y37.566 Z0 F1600
G1 X90.767 Y37.692 Z0 F1600
G1 X89.399 Y37.823 Z0 F1600
G1 X88.032 Y37.943 Z0 F1600
G1 X86.665 Y38.038 Z0 F1600
G1 X85.913 Y37.781 Z0 F1600
G1 X85.172 Y37.481 Z0 F1600
G1 X84.423 Y37.208 Z0 F1600
G1 X83.649 Y37.031 Z0 F1600
G1 X83.554 Y37.049 Z0 F1600
G1 X83.494 Y37.091 Z0 F1600
G1 X83.463 Y37.151 Z0 F1600
G1 X83.457 Y37.224 Z0 F1600
G1 X83.501 Y37.382 Z0 F1600
G1 X83.588 Y37.518 Z0 F1600
G1 X83.624 Y37.625 Z0 F1600
G1 X83.627 Y37.728 Z0 F1600
G1 X83.602 Y37.823 Z0 F1600
G1 X83.552 Y37.904 Z0 F1600
G1 X83.48 Y37.968 Z0 F1600
G1 X83.392 Y38.007 Z0 F1600
G1 X83.289 Y38.019 Z0 F1600
G1 X83.176 Y37.997 Z0 F1600
G1 X82.35 Y37.784 Z0 F1600
G1 X81.513 Y37.594 Z0 F1600
G1 X81.091 Y37.53 Z0 F1600
G1 X80.667 Y37.498 Z0 F1600
G1 X80.241 Y37.507 Z0 F1600
G1 X79.813 Y37.564 Z0 F1600
G1 X79.59 Y37.585 Z0 F1600
G1 X79.369 Y37.645 Z0 F1600
G1 X79.277 Y37.699 Z0 F1600
G1 X79.207 Y37.772 Z0 F1600
G1 X79.165 Y37.869 Z0 F1600
G1 X79.16 Y37.994 Z0 F1600
G1 X79.094 Y38.115 Z0 F1600
G1 X79 Y38.201 Z0 F1600
G1 X78.889 Y38.252 Z0 F1600
G1 X78.767 Y38.268 Z0 F1600
G1 X78.644 Y38.25 Z0 F1600
G1 X78.529 Y38.199 Z0 F1600
G1 X78.429 Y38.116 Z0 F1600
G1 X78.354 Y38 Z0 F1600
G1 X78.248 Y37.862 Z0 F1600
G1 X78.114 Y37.775 Z0 F1600
G1 X77.958 Y37.727 Z0 F1600
G1 X77.788 Y37.708 Z0 F1600
G1 X77.431 Y37.713 Z0 F1600
G1 X77.098 Y37.701 Z0 F1600
G1 X75.221 Y37.716 Z0 F1600
G1 X73.343 Y37.741 Z0 F1600
G1 X71.467 Y37.794 Z0 F1600
;Offset @ 900 mm/min, 80% power

M8

; Washing sequence (no color)
G1 Z10 F1000;        ; Raise brush to safe height
G0 X5 Y5 F1200;     ; Rapid move to brush cleaning position
G1 Z-1 F800;         ; Lower brush for cleaning - controlled movement
G1 X10 Y12 Z8 F1200;     ; Rapid move to brush cleaning position
G1 Z-1 F800;         ; Lower brush for cleaning - controlled movement
G1 X25 Y14 Z6 F800;     ; Move across cleaning area - controlled movement
G1 Z8 F800;         ; Maintain brush height - controlled movement
G0 X5 Y5 F1200;     ; Rapid move to brush cleaning position
G1 Z-1 F800;         ; Lower brush for cleaning - controlled movement
G1 X15 Y12 Z8 F1200;     ; Rapid move to brush cleaning position
G1 Z-1 F800;         ; Lower brush for cleaning - controlled movement
G1 X25 Y14 Z6 F800;     ; Move across cleaning area - controlled movement
G1 Z10 F800;         ; Maintain brush height - controlled movement
G1 F1200;           ; Set feed rate to 1000

; Color picking sequence
G1 Z10 F1000;         ; Raise brush to safe height
G0 X131 Y5 F1200;    ; Rapid move to color 1 position
G1 Z0 F1000;         ; Lower into color - controlled movement
G1 X130.102Y7.295Z0S800F1200
G1 X130.026Y7.642Z0F1200
G1 X130Y8Z0F1200
G1 X130.026Y8.358Z0F1200
G1 X130.102Y8.705Z0F1200
G1 X130.225Y9.041Z0F1200
G1 X130.393Y9.362Z0F1200
G1 X130.603Y9.668Z0F1200
G1 X130.854Y9.957Z0F1200
G1 X131.142Y10.226Z0F1200
G1 X131.464Y10.475Z0F1200
G1 X131.82Y10.701Z0F1200
G1 X132.204Y10.902Z0F1200
G1 X132.617Y11.078Z0F1200
G1 X133.054Y11.225Z0F1200
G1 X133.513Y11.343Z0F1200
G1 X133.992Y11.429Z0F1200
G1 X134.489Y11.482Z0F1200
G1 X135Y11.5Z0F1200
G1 X135.511Y11.482Z0F1200
G1 X136.008Y11.429Z0F1200
G1 X136.487Y11.343Z0F1200
G1 X136.946Y11.225Z0F1200
G1 X137.383Y11.078Z0F1200
G1 X137.796Y10.902Z0F1200
G1 X138.18Y10.701Z0F1200
G1 X138.536Y10.475Z0F1200
G1 X138.858Y10.226Z0F1200
G1 X139.146Y9.957Z0F1200
G1 X139.397Y9.668Z0F1200
G1 X139.607Y9.362Z0F1200
G1 X139.775Y9.041Z0F1200
G1 X139.898Y8.705Z0F1200
G1 X139.974Y8.358Z0F1200
G1 X140Y8Z0F1200
G1 X139.974Y7.642Z0F1200
G1 X139.898Y7.295Z0F1200
G1 X139.775Y6.959Z0F1200
G1 X139.607Y6.638Z0F1200
G1 X139.397Y6.332Z0F1200
G1 X139.146Y6.043Z0F1200
G1 X138.858Y5.774Z0F1200
G1 X138.536Y5.525Z0F1200
G1 X138.18Y5.299Z0F1200
G1 X137.796Y5.098Z0F1200
G1 X137.383Y4.922Z0F1200
G1 X136.946Y4.775Z0F1200
G1 X136.487Y4.657Z0F1200
G1 X136.008Y4.571Z0F1200
G1 X135.511Y4.518Z0F1200
G1 X135Y4.5Z0F1200
G1 X134.489Y4.518Z0F1200
G1 X133.992Y4.571Z0F1200
G1 X133.513Y4.657Z0F1200
G1 X133.054Y4.775Z0F1200
G1 X132.617Y4.922Z0F1200
G1 X132.204Y5.098Z0F1200
G1 X131.82Y5.299Z0F1200
G1 X131.464Y5.525Z0F1200
G1 X131.142Y5.774Z0F1200
G1 X130.854Y6.043Z0F1200
G1 X130.603Y6.332Z0F1200
G1 X130.393Y6.638Z0F1200
G1 X130.225Y6.959Z0F1200
G1 Z7 F800;         ; Raise from color - controlled movement
G1 X124 Y8 Z1 F1200;     ; Movement in paint - controlled movement
G1 X114 Y18 Z8 F500;     ; Move in paint - controlled movement
G1 F1200;           ; Set feed rate to 1000
G0 Z3.5 F1000
G0 X86.045 Y49.898 Z3.5 
G1 Z0 F1000
;Layer Red
G1 X86.061 Y49.902 Z0 F1600
G1 X86.099 Y49.913 Z0 F1600
G1 X86.11 Y49.917 Z0 F1600
G1 X86.764 Y50.256 Z0 F1600
G1 X86.936 Y50.995 Z0 F1600
G1 X87.231 Y51.589 Z0 F1600
G1 X86.773 Y51.354 Z0 F1600
G1 X85.101 Y51.386 Z0 F1600
G1 X84.984 Y51.435 Z0 F1600
G1 X85.247 Y50.511 Z0 F1600
G1 X85.275 Y49.94 Z0 F1600
G1 X85.516 Y49.914 Z0 F1600
G1 X85.674 Y49.872 Z0 F1600
G1 X85.745 Z0 F1600
G1 X86.045 Y49.898 Z0 F1600
G0 Z3.5 F1000
G0 X87.624 Y49.982 Z3.5 F900
G1 Z0 F1000
G1 X87.789 Y50.688 Z0 F1600
G1 X88.172 Y51.46 Z0 F1600
G1 X88.948 Y52.233 Z0 F1600
G1 X89.886 Y52.693 Z0 F1600
G1 X90.987 Y52.893 Z0 F1600
G1 X91.667 Y52.887 Z0 F1600
G1 X92.131 Z0 F1600
G1 X92.879 Y52.863 Z0 F1600
G1 X93.657 Y52.687 Z0 F1600
G1 X93.704 Y52.664 Z0 F1600
G1 X93.794 Y52.719 Z0 F1600
G1 X94.464 Y52.86 Z0 F1600
G1 Y53.038 Z0 F1600
G1 X94.455 Y53.821 Z0 F1600
G1 X94.426 Y55.496 Z0 F1600
G1 X94.452 Y57.123 Z0 F1600
G1 X94.449 Y58.507 Z0 F1600
G1 X94.452 Y59.196 Z0 F1600
G1 X93.698 Y60.073 Z0 F1600
G1 X93.655 Y59.998 Z0 F1600
G1 X93.649 Y59.852 Z0 F1600
G1 X93.343 Y58.971 Z0 F1600
G1 X93.31 Y58.927 Z0 F1600
G1 X93.423 Y58.755 Z0 F1600
G1 X93.66 Y58.292 Z0 F1600
G1 X93.906 Y57.627 Z0 F1600
G1 X94.378 Y55.828 Z0 F1600
G1 X92.976 Y54.026 Z0 F1600
G1 X91.379 Y53.429 Z0 F1600
G1 X89.97 Y53.746 Z0 F1600
G1 X89.101 Y54.326 Z0 F1600
G1 X88.726 Y54.77 Z0 F1600
G1 X88.671 Y54.246 Z0 F1600
G1 X87.959 Y52.972 Z0 F1600
G1 X86.564 Y52.259 Z0 F1600
G1 X85.291 Y52.282 Z0 F1600
G1 X84.76 Y52.505 Z0 F1600
G1 X83.937 Y52.685 Z0 F1600
G1 X83.644 Y52.834 Z0 F1600
G1 X83.738 Y52.221 Z0 F1600
G1 X83.717 Y51.836 Z0 F1600
G1 X84.099 Y51.258 Z0 F1600
G1 X84.353 Y50.363 Z0 F1600
G1 X84.391 Y49.598 Z0 F1600
G1 X84.326 Y49.095 Z0 F1600
G1 X84.679 Y49.099 Z0 F1600
G1 X85.351 Y49.026 Z0 F1600
G1 X85.546 Y48.974 Z0 F1600
G1 X85.777 Y48.968 Z0 F1600
G1 X86.182 Y49.007 Z0 F1600
G1 X86.278 Y49.027 Z0 F1600
G1 X86.393 Y49.062 Z0 F1600
G1 X86.485 Y49.098 Z0 F1600
G1 X87.227 Y49.482 Z0 F1600
G1 X87.621 Y49.494 Z0 F1600
G1 X87.624 Y49.982 Z0 F1600
G0 Z3.5 F1000
G0 X82.134 Y57.694 Z3.5 
G1 Z0 F1000
G1 X81.893 Y57.779 Z0 F1600
G1 X81.378 Y58.08 Z0 F1600
G1 X80.964 Y58.407 Z0 F1600
G1 X80.663 Y58.721 Z0 F1600
G1 X80.488 Y58.731 Z0 F1600
G1 X79.892 Y58.912 Z0 F1600
G1 X80.03 Y58.658 Z0 F1600
G1 X80.473 Y57.356 Z0 F1600
G1 X80.026 Y56.207 Z0 F1600
G1 X80.073 Y56.183 Z0 F1600
G1 X80.534 Y56.134 Z0 F1600
G1 X81.243 Y55.933 Z0 F1600
G1 X81.725 Y55.678 Z0 F1600
G1 X81.714 Y55.731 Z0 F1600
G1 X81.701 Y56.351 Z0 F1600
G1 X81.837 Y57.119 Z0 F1600
G1 X82.134 Y57.694 Z0 F1600
G0 Z3.5 F1000
G0 X82.761 Y58.428 Z3.5 
G1 Z0 F1000
G1 X82.273 Y58.599 Z0 F1600
G1 X81.887 Y58.825 Z0 F1600
G1 X81.571 Y59.075 Z0 F1600
G1 X81.216 Y59.446 Z0 F1600
G1 X81.089 Y59.599 Z0 F1600
G1 X80.646 Y59.624 Z0 F1600
G1 X80.095 Y59.791 Z0 F1600
G1 X79.512 Y60.18 Z0 F1600
G1 X79.105 Y60.647 Z0 F1600
G1 X78.888 Y61.016 Z0 F1600
G1 X78.679 Y60.97 Z0 F1600
G1 X78.208 Y60.917 Z0 F1600
G1 X77.85 Y60.892 Z0 F1600
G1 X77.577 Y60.869 Z0 F1600
G1 X77.556 Y60.85 Z0 F1600
G1 X77.442 Y60.715 Z0 F1600
G1 X77.358 Y60.598 Z0 F1600
G1 X77.156 Y60.231 Z0 F1600
G1 X77.047 Y59.945 Z0 F1600
G1 X77.05 Z0 F1600
G1 X77.721 Y59.748 Z0 F1600
G1 X78.339 Y59.39 Z0 F1600
G1 X78.702 Y59.058 Z0 F1600
G1 X78.982 Y58.704 Z0 F1600
G1 X79.202 Y58.297 Z0 F1600
G1 X79.516 Y57.376 Z0 F1600
G1 X78.955 Y55.935 Z0 F1600
G1 X78.923 Y55.843 Z0 F1600
G1 X79.344 Y55.572 Z0 F1600
G1 X79.459 Y55.453 Z0 F1600
G1 X79.589 Y55.419 Z0 F1600
G1 X79.825 Y55.301 Z0 F1600
G1 X79.853 Z0 F1600
G1 X80.362 Y55.247 Z0 F1600
G1 X80.906 Y55.093 Z0 F1600
G1 X81.481 Y54.788 Z0 F1600
G1 X82.026 Y54.27 Z0 F1600
G1 X82.406 Y53.542 Z0 F1600
G1 X82.417 Y53.462 Z0 F1600
G1 X82.454 Y53.414 Z0 F1600
G1 X82.749 Y52.73 Z0 F1600
G1 X82.834 Y52.176 Z0 F1600
G1 X82.805 Y51.632 Z0 F1600
G1 X82.789 Y51.58 Z0 F1600
G1 X82.825 Y51.554 Z0 F1600
G1 X83.271 Y50.878 Z0 F1600
G1 X83.459 Y50.216 Z0 F1600
G1 X83.488 Y49.633 Z0 F1600
G1 X83.421 Y49.114 Z0 F1600
G1 X83.285 Y48.643 Z0 F1600
G1 X83.083 Y48.192 Z0 F1600
G1 X82.985 Y48.046 Z0 F1600
G1 X83.108 Y48.059 Z0 F1600
G1 X83.721 Y48.151 Z0 F1600
G1 X84.147 Y48.192 Z0 F1600
G1 X84.636 Y48.199 Z0 F1600
G1 X85.185 Y48.139 Z0 F1600
G1 X85.417 Y48.077 Z0 F1600
G1 X85.81 Y48.067 Z0 F1600
G1 X86.314 Y48.116 Z0 F1600
G1 X86.496 Y48.154 Z0 F1600
G1 X86.688 Y48.21 Z0 F1600
G1 X86.858 Y48.278 Z0 F1600
G1 X87.458 Y48.589 Z0 F1600
G1 X88.656 Y48.624 Z0 F1600
G1 X88.52 Y49.386 Z0 F1600
G1 X88.523 Y49.875 Z0 F1600
G1 X88.641 Y50.382 Z0 F1600
G1 X88.913 Y50.927 Z0 F1600
G1 X89.478 Y51.491 Z0 F1600
G1 X90.169 Y51.83 Z0 F1600
G1 X91.064 Y51.992 Z0 F1600
G1 X91.685 Y51.986 Z0 F1600
G1 X92.118 Z0 F1600
G1 X92.763 Y51.967 Z0 F1600
G1 X93.349 Y51.834 Z0 F1600
G1 X93.744 Y51.633 Z0 F1600
G1 X94.131 Y51.871 Z0 F1600
G1 X95.049 Y52.063 Z0 F1600
G1 X95.349 Y52.009 Z0 F1600
G1 X95.36 Y52.288 Z0 F1600
G1 X95.365 Y53.043 Z0 F1600
G1 X95.355 Y53.836 Z0 F1600
G1 X95.326 Y55.497 Z0 F1600
G1 X95.352 Y57.154 Z0 F1600
G1 X95.349 Y58.506 Z0 F1600
G1 X95.355 Y59.859 Z0 F1600
G1 X95.35 Y60.18 Z0 F1600
G1 X95.048 Y59.882 Z0 F1600
G1 X93.507 Y61.676 Z0 F1600
G1 X93.241 Y62.142 Z0 F1600
G1 X93.045 Y62.56 Z0 F1600
G1 X92.984 Y62.567 Z0 F1600
G1 X92.977 Y62.552 Z0 F1600
G1 X93.23 Y61.87 Z0 F1600
G1 X93.192 Y61.008 Z0 F1600
G1 X92.787 Y60.291 Z0 F1600
G1 X92.766 Y60.27 Z0 F1600
G1 X92.755 Y60.022 Z0 F1600
G1 X92.54 Y59.401 Z0 F1600
G1 X92.174 Y58.92 Z0 F1600
G1 X92.406 Y58.661 Z0 F1600
G1 X92.645 Y58.3 Z0 F1600
G1 X92.834 Y57.93 Z0 F1600
G1 X93.046 Y57.356 Z0 F1600
G1 X93.395 Y56.029 Z0 F1600
G1 X92.422 Y54.78 Z0 F1600
G1 X91.315 Y54.366 Z0 F1600
G1 X90.331 Y54.587 Z0 F1600
G1 X89.707 Y55.004 Z0 F1600
G1 X89.291 Y55.496 Z0 F1600
G1 X89.044 Y55.661 Z0 F1600
G1 X88.577 Y56.261 Z0 F1600
G1 X88.375 Y57.147 Z0 F1600
G1 X88.509 Y57.899 Z0 F1600
G1 X88.765 Y58.449 Z0 F1600
G1 X89.118 Y58.916 Z0 F1600
G1 X89.193 Y58.978 Z0 F1600
G1 X88.491 Y58.885 Z0 F1600
G1 X87.635 Y59.972 Z0 F1600
G1 X87.396 Y60.564 Z0 F1600
G1 X87.359 Y61.209 Z0 F1600
G1 X87.505 Y61.8 Z0 F1600
G1 X87.656 Y62.059 Z0 F1600
G1 X87.538 Y62.542 Z0 F1600
G1 X87.521 Y62.263 Z0 F1600
G1 X87.4 Y61.743 Z0 F1600
G1 X87.266 Y61.35 Z0 F1600
G1 X87.159 Y61.071 Z0 F1600
G1 X87.098 Y60.897 Z0 F1600
G1 X87.093 Y60.875 Z0 F1600
G1 X87.155 Y60.432 Z0 F1600
G1 X86.968 Y59.714 Z0 F1600
G1 X86.647 Y59.164 Z0 F1600
G1 X86.185 Y58.74 Z0 F1600
G1 X86.052 Y58.671 Z0 F1600
G1 X86.939 Y58.108 Z0 F1600
G1 X87.415 Y57.496 Z0 F1600
G1 X87.653 Y56.91 Z0 F1600
G1 X87.759 Y56.408 Z0 F1600
G1 X87.807 Y55.822 Z0 F1600
G1 X87.865 Y55.193 Z0 F1600
G1 X87.795 Y54.523 Z0 F1600
G1 X87.307 Y53.649 Z0 F1600
G1 X86.355 Y53.163 Z0 F1600
G1 X85.48 Y53.179 Z0 F1600
G1 X84.997 Y53.382 Z0 F1600
G1 X84.955 Z0 F1600
G1 X84.242 Y53.539 Z0 F1600
G1 X83.667 Y53.833 Z0 F1600
G1 X83.147 Y54.315 Z0 F1600
G1 X82.789 Y54.988 Z0 F1600
G1 X82.735 Y55.309 Z0 F1600
G1 X82.695 Y55.417 Z0 F1600
G1 X82.612 Y55.831 Z0 F1600
G1 X82.603 Y56.281 Z0 F1600
G1 X82.699 Y56.827 Z0 F1600
G1 X83.057 Y57.52 Z0 F1600
G1 X83.631 Y58.058 Z0 F1600
G1 X84.241 Y58.354 Z0 F1600
G1 X83.731 Y58.408 Z0 F1600
G1 X83.676 Z0 F1600
G1 X83.35 Y58.359 Z0 F1600
G1 X82.761 Y58.428 Z0 F1600

; Color picking sequence
G1 Z10 F1000;         ; Raise brush to safe height
G0 X131 Y5 F1200;    ; Rapid move to color 1 position
G1 Z0 F1000;         ; Lower into color - controlled movement
G1 X130.102Y7.295Z0S800F1200
G1 X130.026Y7.642Z0F1200
G1 X130Y8Z0F1200
G1 X130.026Y8.358Z0F1200
G1 X130.102Y8.705Z0F1200
G1 X130.225Y9.041Z0F1200
G1 X130.393Y9.362Z0F1200
G1 X130.603Y9.668Z0F1200
G1 X130.854Y9.957Z0F1200
G1 X131.142Y10.226Z0F1200
G1 X131.464Y10.475Z0F1200
G1 X131.82Y10.701Z0F1200
G1 X132.204Y10.902Z0F1200
G1 X132.617Y11.078Z0F1200
G1 X133.054Y11.225Z0F1200
G1 X133.513Y11.343Z0F1200
G1 X133.992Y11.429Z0F1200
G1 X134.489Y11.482Z0F1200
G1 X135Y11.5Z0F1200
G1 X135.511Y11.482Z0F1200
G1 X136.008Y11.429Z0F1200
G1 X136.487Y11.343Z0F1200
G1 X136.946Y11.225Z0F1200
G1 X137.383Y11.078Z0F1200
G1 X137.796Y10.902Z0F1200
G1 X138.18Y10.701Z0F1200
G1 X138.536Y10.475Z0F1200
G1 X138.858Y10.226Z0F1200
G1 X139.146Y9.957Z0F1200
G1 X139.397Y9.668Z0F1200
G1 X139.607Y9.362Z0F1200
G1 X139.775Y9.041Z0F1200
G1 X139.898Y8.705Z0F1200
G1 X139.974Y8.358Z0F1200
G1 X140Y8Z0F1200
G1 X139.974Y7.642Z0F1200
G1 X139.898Y7.295Z0F1200
G1 X139.775Y6.959Z0F1200
G1 X139.607Y6.638Z0F1200
G1 X139.397Y6.332Z0F1200
G1 X139.146Y6.043Z0F1200
G1 X138.858Y5.774Z0F1200
G1 X138.536Y5.525Z0F1200
G1 X138.18Y5.299Z0F1200
G1 X137.796Y5.098Z0F1200
G1 X137.383Y4.922Z0F1200
G1 X136.946Y4.775Z0F1200
G1 X136.487Y4.657Z0F1200
G1 X136.008Y4.571Z0F1200
G1 X135.511Y4.518Z0F1200
G1 X135Y4.5Z0F1200
G1 X134.489Y4.518Z0F1200
G1 X133.992Y4.571Z0F1200
G1 X133.513Y4.657Z0F1200
G1 X133.054Y4.775Z0F1200
G1 X132.617Y4.922Z0F1200
G1 X132.204Y5.098Z0F1200
G1 X131.82Y5.299Z0F1200
G1 X131.464Y5.525Z0F1200
G1 X131.142Y5.774Z0F1200
G1 X130.854Y6.043Z0F1200
G1 X130.603Y6.332Z0F1200
G1 X130.393Y6.638Z0F1200
G1 X130.225Y6.959Z0F1200
G1 Z7 F800;         ; Raise from color - controlled movement
G1 X124 Y8 Z1 F1200;     ; Movement in paint - controlled movement
G1 X114 Y18 Z8 F500;     ; Move in paint - controlled movement
G1 F1200;           ; Set feed rate to 1000
G0 Z3.5 F1000
G0 X90.211 Y57.191 Z3.5 
G1 Z0 F1000
G1 X90.24 Y57.352 Z0 F1600
G1 X90.316 Y57.516 Z0 F1600
G1 X90.426 Y57.662 Z0 F1600
G1 X90.557 Y57.77 Z0 F1600
G1 X90.695 Y57.82 Z0 F1600
G1 X90.847 Y57.703 Z0 F1600
G1 X90.978 Y57.558 Z0 F1600
G1 X91.089 Y57.39 Z0 F1600
G1 X91.183 Y57.206 Z0 F1600
G1 X91.328 Y56.814 Z0 F1600
G1 X91.428 Y56.433 Z0 F1600
G1 X91.314 Y56.288 Z0 F1600
G1 X91.187 Y56.24 Z0 F1600
G1 X91.052 Y56.27 Z0 F1600
G1 X90.918 Y56.359 Z0 F1600
G1 X90.683 Y56.638 Z0 F1600
G1 X90.542 Y56.919 Z0 F1600
G1 X90.434 Y56.928 Z0 F1600
G1 X90.349 Y56.955 Z0 F1600
G1 X90.286 Y56.997 Z0 F1600
G1 X90.243 Y57.052 Z0 F1600
G1 X90.211 Y57.191 Z0 F1600
G0 Z3.5 F1000
G0 X89.772 Y58.289 Z3.5 
G1 Z0 F1000
G1 X90.104 Y58.563 Z0 F1600
G1 X90.852 Y58.834 Z0 F1600
G1 X91.462 Y58.366 Z0 F1600
G1 X91.691 Y58.109 Z0 F1600
G1 X91.867 Y57.845 Z0 F1600
G1 X92.009 Y57.568 Z0 F1600
G1 X92.187 Y57.085 Z0 F1600
G1 X92.411 Y56.231 Z0 F1600
G1 X91.868 Y55.534 Z0 F1600
G1 X91.251 Y55.303 Z0 F1600
G1 X90.691 Y55.429 Z0 F1600
G1 X90.312 Y55.682 Z0 F1600
G1 X89.926 Y56.139 Z0 F1600
G1 X89.915 Y56.162 Z0 F1600
G1 X89.665 Y56.329 Z0 F1600
G1 X89.41 Y56.657 Z0 F1600
G1 X89.293 Y57.169 Z0 F1600
G1 X89.375 Y57.626 Z0 F1600
G1 X89.541 Y57.982 Z0 F1600
G1 X89.772 Y58.289 Z0 F1600
G0 Z3.5 F1000
G0 X85.841 Y56.587 Z3.5 
G1 Z0 F1000
G1 X85.925 Y56.38 Z0 F1600
G1 X85.974 Y56.148 Z0 F1600
G1 X86.015 Y55.655 Z0 F1600
G1 X86.057 Y55.204 Z0 F1600
G1 X86.043 Y55.079 Z0 F1600
G1 X86.001 Y55.003 Z0 F1600
G1 X85.938 Y54.971 Z0 F1600
G1 X85.859 Z0 F1600
G1 X85.685 Y55.045 Z0 F1600
G1 X85.532 Y55.159 Z0 F1600
G1 X85.19 Y55.175 Z0 F1600
G1 X84.854 Y55.248 Z0 F1600
G1 X84.709 Y55.322 Z0 F1600
G1 X84.594 Y55.429 Z0 F1600
G1 X84.515 Y55.577 Z0 F1600
G1 X84.482 Y55.771 Z0 F1600
G1 X84.433 Y55.906 Z0 F1600
G1 X84.408 Y56.029 Z0 F1600
G1 Y56.142 Z0 F1600
G1 X84.424 Y56.243 Z0 F1600
G1 X84.514 Y56.418 Z0 F1600
G1 X84.663 Y56.558 Z0 F1600
G1 X85.071 Y56.755 Z0 F1600
G1 X85.52 Y56.877 Z0 F1600
G1 X85.709 Y56.757 Z0 F1600
G1 X85.841 Y56.587 Z0 F1600
G0 Z3.5 F1000
G0 X86.961 Y55.199 Z3.5 
G1 Z0 F1000
G1 X86.919 Y54.801 Z0 F1600
G1 X86.654 Y54.326 Z0 F1600
G1 X86.146 Y54.067 Z0 F1600
G1 X85.669 Y54.076 Z0 F1600
G1 X85.235 Y54.258 Z0 F1600
G1 X85.215 Y54.272 Z0 F1600
G1 X85.073 Y54.279 Z0 F1600
G1 X84.548 Y54.394 Z0 F1600
G1 X84.188 Y54.578 Z0 F1600
G1 X83.871 Y54.873 Z0 F1600
G1 X83.652 Y55.283 Z0 F1600
G1 X83.609 Y55.539 Z0 F1600
G1 X83.564 Y55.661 Z0 F1600
G1 X83.51 Y55.93 Z0 F1600
G1 X83.504 Y56.211 Z0 F1600
G1 X83.562 Y56.535 Z0 F1600
G1 X83.786 Y56.969 Z0 F1600
G1 X84.147 Y57.308 Z0 F1600
G1 X84.753 Y57.602 Z0 F1600
G1 X85.667 Y57.85 Z0 F1600
G1 X86.325 Y57.433 Z0 F1600
G1 X86.627 Y57.042 Z0 F1600
G1 X86.79 Y56.645 Z0 F1600
G1 X86.867 Y56.278 Z0 F1600
G1 X86.911 Y55.738 Z0 F1600
G1 X86.961 Y55.199 Z0 F1600
G0 Z3.5 F1000
G0 X87.69 Y47.695 Z3.5 
G1 Z0 F1000
G1 X88.678 Y47.725 Z0 F1600
G1 X89.498 Y47.71 Z0 F1600
G1 X89.932 Y47.676 Z0 F1600
G1 X90.365 Y47.619 Z0 F1600
G1 X90.801 Y47.531 Z0 F1600
G1 X91.497 Y47.333 Z0 F1600
G1 X91.65 Y47.123 Z0 F1600
G1 X92.134 Y47.161 Z0 F1600
G1 X92.703 Y47.126 Z0 F1600
G1 X93.121 Y47.031 Z0 F1600
G1 X93.491 Y46.869 Z0 F1600
G1 X93.782 Y46.704 Z0 F1600
G1 X94.009 Y46.567 Z0 F1600
G1 X94.171 Y46.481 Z0 F1600
G1 X94.249 Y46.454 Z0 F1600
G1 X94.5 Y46.672 Z0 F1600
G1 X94.97 Y47.145 Z0 F1600
G1 X95.269 Y47.413 Z0 F1600
G1 X95.622 Y47.673 Z0 F1600
G1 X96.043 Y47.899 Z0 F1600
G1 X96.249 Y47.966 Z0 F1600
G1 X96.254 Y47.987 Z0 F1600
G1 X96.263 Y48.124 Z0 F1600
G1 X96.226 Y48.596 Z0 F1600
G1 X96.125 Y48.535 Z0 F1600
G1 X95.842 Y48.348 Z0 F1600
G1 X95.456 Y47.97 Z0 F1600
G1 X95.028 Y47.799 Z0 F1600
G1 X94.694 Y47.729 Z0 F1600
G1 X94.372 Y47.715 Z0 F1600
G1 X94.052 Y47.747 Z0 F1600
G1 X93.566 Y47.877 Z0 F1600
G1 X93.144 Y48.049 Z0 F1600
G1 X92.797 Y48.2 Z0 F1600
G1 X92.509 Y48.305 Z0 F1600
G1 X92.424 Y48.325 Z0 F1600
G1 X92.344 Y48.335 Z0 F1600
G1 X92.287 Z0 F1600
G1 X92.09 Y48.302 Z0 F1600
G1 X91.644 Z0 F1600
G1 X91.19 Y48.249 Z0 F1600
G1 X90.849 Y48.237 Z0 F1600
G1 X90.438 Y48.292 Z0 F1600
G1 X89.98 Y48.492 Z0 F1600
G1 X89.51 Y48.963 Z0 F1600
G1 X89.42 Y49.462 Z0 F1600
G1 Y49.769 Z0 F1600
G1 X89.494 Y50.075 Z0 F1600
G1 X89.652 Y50.394 Z0 F1600
G1 X90.008 Y50.748 Z0 F1600
G1 X90.453 Y50.966 Z0 F1600
G1 X91.142 Y51.091 Z0 F1600
G1 X91.682 Y51.086 Z0 F1600
G1 X92.104 Z0 F1600
G1 X92.648 Y51.07 Z0 F1600
G1 X93.041 Y50.981 Z0 F1600
G1 X93.457 Y50.769 Z0 F1600
G1 X93.718 Y50.484 Z0 F1600
G1 X93.733 Y50.497 Z0 F1600
G1 X94.028 Y50.751 Z0 F1600
G1 X94.469 Y51.021 Z0 F1600
G1 X95.062 Y51.146 Z0 F1600
G1 X95.578 Y51.053 Z0 F1600
G1 X95.978 Y50.989 Z0 F1600
G1 X96.185 Y50.937 Z0 F1600
G1 X96.229 Y51.479 Z0 F1600
G1 X96.259 Y52.264 Z0 F1600
G1 X96.265 Y53.042 Z0 F1600
G1 X96.255 Y53.852 Z0 F1600
G1 X96.227 Y55.498 Z0 F1600
G1 X96.252 Y57.141 Z0 F1600
G1 X96.249 Y58.505 Z0 F1600
G1 X96.255 Y59.872 Z0 F1600
G1 X96.235 Y61.229 Z0 F1600
G1 X96.182 Y62.134 Z0 F1600
G1 X96.113 Y62.199 Z0 F1600
G1 X96.099 Y62.182 Z0 F1600
G1 X95.103 Y61.2 Z0 F1600
G1 X94.246 Y62.197 Z0 F1600
G1 X94.04 Y62.557 Z0 F1600
G1 X93.774 Y63.126 Z0 F1600
G1 X93.675 Y63.3 Z0 F1600
G1 X93.593 Y63.399 Z0 F1600
G1 X93.54 Y63.409 Z0 F1600
G1 X93.011 Y63.47 Z0 F1600
G1 X92.535 Y63.459 Z0 F1600
G1 X92.445 Y63.437 Z0 F1600
G1 X92.384 Y63.404 Z0 F1600
G1 X92.375 Y63.39 Z0 F1600
G1 X92.321 Y63.256 Z0 F1600
G1 X92.084 Y62.776 Z0 F1600
G1 X91.903 Y62.422 Z0 F1600
G1 X91.959 Y62.379 Z0 F1600
G1 X92.181 Y62.112 Z0 F1600
G1 X92.323 Y61.728 Z0 F1600
G1 X92.303 Y61.263 Z0 F1600
G1 X92.063 Y60.839 Z0 F1600
G1 X91.862 Y60.637 Z0 F1600
G1 X91.878 Y60.577 Z0 F1600
G1 X91.862 Y60.193 Z0 F1600
G1 X91.736 Y59.832 Z0 F1600
G1 X91.489 Y59.506 Z0 F1600
G1 X91.094 Y59.262 Z0 F1600
G1 X90.581 Y59.207 Z0 F1600
G1 X90.114 Y59.389 Z0 F1600
G1 X89.892 Y59.601 Z0 F1600
G1 X89.681 Y59.793 Z0 F1600
G1 X89.508 Y59.911 Z0 F1600
G1 X89.488 Y59.92 Z0 F1600
G1 X89.478 Y59.923 Z0 F1600
G1 X88.881 Y59.844 Z0 F1600
G1 X88.421 Y60.428 Z0 F1600
G1 X88.286 Y60.763 Z0 F1600
G1 X88.266 Y61.125 Z0 F1600
G1 X88.348 Y61.459 Z0 F1600
G1 X88.541 Y61.789 Z0 F1600
G1 X88.675 Y61.95 Z0 F1600
G1 X88.518 Y62.324 Z0 F1600
G1 X88.423 Y62.711 Z0 F1600
G1 X88.386 Y63.096 Z0 F1600
G1 X88.399 Y63.475 Z0 F1600
G1 X88.458 Y63.844 Z0 F1600
G1 X88.558 Y64.199 Z0 F1600
G1 X88.562 Y64.208 Z0 F1600
G1 X88.535 Y64.271 Z0 F1600
G1 X88.441 Y64.423 Z0 F1600
G1 X88.314 Y64.581 Z0 F1600
G1 X88.167 Y64.724 Z0 F1600
G1 X88.067 Y64.799 Z0 F1600
G1 X87.82 Y64.632 Z0 F1600
G1 X87.443 Y64.382 Z0 F1600
G1 X87.293 Y64.299 Z0 F1600
G1 X87.207 Y64.132 Z0 F1600
G1 X86.887 Y63.703 Z0 F1600
G1 X86.508 Y63.344 Z0 F1600
G1 X86.675 Y63.195 Z0 F1600
G1 X86.627 Y62.393 Z0 F1600
G1 X86.534 Y61.992 Z0 F1600
G1 X86.419 Y61.657 Z0 F1600
G1 X86.309 Y61.367 Z0 F1600
G1 X86.236 Y61.159 Z0 F1600
G1 X86.194 Y60.988 Z0 F1600
G1 X86.185 Y60.868 Z0 F1600
G1 X86.239 Y60.485 Z0 F1600
G1 X86.128 Y60.061 Z0 F1600
G1 X85.938 Y59.735 Z0 F1600
G1 X85.666 Y59.485 Z0 F1600
G1 X85.342 Y59.318 Z0 F1600
G1 X84.871 Y59.229 Z0 F1600
G1 X84.442 Y59.237 Z0 F1600
G1 X83.796 Y59.306 Z0 F1600
G1 X83.62 Y59.312 Z0 F1600
G1 X83.333 Y59.267 Z0 F1600
G1 X82.965 Y59.31 Z0 F1600
G1 X82.652 Y59.42 Z0 F1600
G1 X82.396 Y59.569 Z0 F1600
G1 X82.179 Y59.742 Z0 F1600
G1 X81.888 Y60.045 Z0 F1600
G1 X81.663 Y60.317 Z0 F1600
G1 X81.492 Y60.51 Z0 F1600
G1 X81.432 Y60.56 Z0 F1600
G1 X81.413 Y60.552 Z0 F1600
G1 X81.114 Y60.499 Z0 F1600
G1 X80.805 Y60.516 Z0 F1600
G1 X80.484 Y60.614 Z0 F1600
G1 X80.112 Y60.862 Z0 F1600
G1 X79.839 Y61.176 Z0 F1600
G1 X79.558 Y61.651 Z0 F1600
G1 X79.331 Y62.047 Z0 F1600
G1 X79.309 Y62.093 Z0 F1600
G1 X78.978 Y61.958 Z0 F1600
G1 X78.531 Y61.858 Z0 F1600
G1 X78.126 Y61.813 Z0 F1600
G1 X77.766 Y61.788 Z0 F1600
G1 X77.473 Y61.764 Z0 F1600
G1 X77.233 Y61.726 Z0 F1600
G1 X77.15 Y61.701 Z0 F1600
G1 X77.064 Y61.63 Z0 F1600
G1 X76.895 Y61.462 Z0 F1600
G1 X76.731 Y61.269 Z0 F1600
G1 X76.597 Y61.081 Z0 F1600
G1 X76.338 Y60.611 Z0 F1600
G1 X75.971 Y59.646 Z0 F1600
G1 X75.203 Y59.415 Z0 F1600
G1 X74.717 Y59.495 Z0 F1600
G1 X74.395 Y59.663 Z0 F1600
G1 X74.195 Y59.81 Z0 F1600
G1 X74.076 Y59.904 Z0 F1600
G1 X74.069 Y59.908 Z0 F1600
G1 X73.963 Y59.918 Z0 F1600
G1 X73.703 Y60.019 Z0 F1600
G1 X73.65 Y60.033 Z0 F1600
G1 X73.604 Y59.949 Z0 F1600
G1 X73.704 Y59.921 Z0 F1600
G1 X74.045 Y59.767 Z0 F1600
G1 X74.37 Y59.547 Z0 F1600
G1 X74.658 Y59.253 Z0 F1600
G1 X74.884 Y58.885 Z0 F1600
G1 X74.928 Y58.746 Z0 F1600
G1 X75.055 Y58.826 Z0 F1600
G1 X75.489 Y58.986 Z0 F1600
G1 X75.934 Y59.078 Z0 F1600
G1 X76.398 Y59.104 Z0 F1600
G1 X76.877 Y59.057 Z0 F1600
G1 X77.364 Y58.914 Z0 F1600
G1 X77.804 Y58.66 Z0 F1600
G1 X78.041 Y58.443 Z0 F1600
G1 X78.227 Y58.207 Z0 F1600
G1 X78.375 Y57.935 Z0 F1600
G1 X78.558 Y57.396 Z0 F1600
G1 X78.111 Y56.248 Z0 F1600
G1 X77.781 Y55.314 Z0 F1600
G1 X78.092 Y55.233 Z0 F1600
G1 X78.431 Y55.089 Z0 F1600
G1 X78.769 Y54.872 Z0 F1600
G1 X78.988 Y54.644 Z0 F1600
G1 X79.271 Y54.571 Z0 F1600
G1 X79.627 Y54.393 Z0 F1600
G1 X79.822 Y54.4 Z0 F1600
G1 X80.19 Y54.36 Z0 F1600
G1 X80.569 Y54.253 Z0 F1600
G1 X80.951 Y54.051 Z0 F1600
G1 X81.298 Y53.721 Z0 F1600
G1 X81.536 Y53.263 Z0 F1600
G1 X81.558 Y53.106 Z0 F1600
G1 X81.67 Y52.958 Z0 F1600
G1 X81.877 Y52.479 Z0 F1600
G1 X81.931 Y52.131 Z0 F1600
G1 X81.912 Y51.787 Z0 F1600
G1 X81.809 Y51.44 Z0 F1600
G1 X81.762 Y51.358 Z0 F1600
G1 X81.743 Y51.22 Z0 F1600
G1 X82.166 Y50.918 Z0 F1600
G1 X82.443 Y50.498 Z0 F1600
G1 X82.565 Y50.068 Z0 F1600
G1 X82.585 Y49.669 Z0 F1600
G1 X82.538 Y49.298 Z0 F1600
G1 X82.438 Y48.954 Z0 F1600
G1 X82.292 Y48.63 Z0 F1600
G1 X82.028 Y48.234 Z0 F1600
G1 X81.553 Y47.952 Z0 F1600
G1 X81.131 Y47.855 Z0 F1600
G1 X80.794 Y47.85 Z0 F1600
G1 X80.397 Y47.879 Z0 F1600
G1 X80.39 Z0 F1600
G1 X80.255 Y47.786 Z0 F1600
G1 X79.834 Y47.651 Z0 F1600
G1 X79.627 Y47.64 Z0 F1600
G1 X79.712 Y47.496 Z0 F1600
G1 X79.865 Y47.12 Z0 F1600
G1 X79.943 Y47.104 Z0 F1600
G1 X80.211 Y46.989 Z0 F1600
G1 X80.442 Y46.863 Z0 F1600
G1 X80.922 Y46.988 Z0 F1600
G1 X81.546 Y47.076 Z0 F1600
G1 X82.153 Y47.111 Z0 F1600
G1 X82.676 Z0 F1600
G1 X83.218 Y47.165 Z0 F1600
G1 X83.832 Y47.258 Z0 F1600
G1 X84.196 Y47.293 Z0 F1600
G1 X84.592 Y47.298 Z0 F1600
G1 X85.02 Y47.251 Z0 F1600
G1 X85.288 Y47.18 Z0 F1600
G1 X85.842 Y47.167 Z0 F1600
G1 X86.455 Y47.226 Z0 F1600
G1 X86.712 Y47.279 Z0 F1600
G1 X86.983 Y47.359 Z0 F1600
G1 X87.233 Y47.458 Z0 F1600
G1 X87.69 Y47.695 Z0 F1600
G0 Z3.5 F1000
G0 X90.497 Y49.249 Z3.5 
G1 Z0 F1000
G1 X90.346 Y49.399 Z0 F1600
G1 X90.321 Y49.539 Z0 F1600
G1 Y49.662 Z0 F1600
G1 X90.347 Y49.769 Z0 F1600
G1 X90.393 Y49.861 Z0 F1600
G1 X90.538 Y50.005 Z0 F1600
G1 X90.737 Y50.103 Z0 F1600
G1 X91.219 Y50.19 Z0 F1600
G1 X91.677 Y50.187 Z0 F1600
G1 X92.091 Z0 F1600
G1 X92.532 Y50.173 Z0 F1600
G1 X92.732 Y50.128 Z0 F1600
G1 X92.903 Y50.041 Z0 F1600
G1 X93.033 Y49.899 Z0 F1600
G1 X93.108 Y49.69 Z0 F1600
G1 X93.25 Y49.543 Z0 F1600
G1 X93.385 Y49.447 Z0 F1600
G1 X93.514 Y49.396 Z0 F1600
G1 X93.638 Y49.385 Z0 F1600
G1 X93.874 Y49.458 Z0 F1600
G1 X94.102 Y49.618 Z0 F1600
G1 X94.328 Y49.822 Z0 F1600
G1 X94.56 Y50.022 Z0 F1600
G1 X94.806 Y50.173 Z0 F1600
G1 X95.074 Y50.229 Z0 F1600
G1 X95.424 Y50.166 Z0 F1600
G1 X95.796 Y50.107 Z0 F1600
G1 X95.972 Y50.062 Z0 F1600
G1 X96.132 Y49.998 Z0 F1600
G1 X96.267 Y49.907 Z0 F1600
G1 X96.372 Y49.782 Z0 F1600
G1 X96.031 Y49.528 Z0 F1600
G1 X95.649 Y49.299 Z0 F1600
G1 X95.274 Y49.051 Z0 F1600
G1 X94.955 Y48.739 Z0 F1600
G1 X94.767 Y48.664 Z0 F1600
G1 X94.581 Y48.625 Z0 F1600
G1 X94.396 Y48.617 Z0 F1600
G1 X94.214 Y48.635 Z0 F1600
G1 X93.853 Y48.732 Z0 F1600
G1 X93.494 Y48.878 Z0 F1600
G1 X93.133 Y49.036 Z0 F1600
G1 X92.77 Y49.167 Z0 F1600
G1 X92.585 Y49.212 Z0 F1600
G1 X92.398 Y49.235 Z0 F1600
G1 X92.209 Z0 F1600
G1 X92.018 Y49.202 Z0 F1600
G1 X91.591 Z0 F1600
G1 X91.122 Y49.147 Z0 F1600
G1 X90.894 Y49.139 Z0 F1600
G1 X90.682 Y49.167 Z0 F1600
G1 X90.497 Y49.249 Z0 F1600

; Color picking sequence
G1 Z10 F1000;         ; Raise brush to safe height
G0 X131 Y5 F1200;    ; Rapid move to color 1 position
G1 Z0 F1000;         ; Lower into color - controlled movement
G1 X130.102Y7.295Z0S800F1200
G1 X130.026Y7.642Z0F1200
G1 X130Y8Z0F1200
G1 X130.026Y8.358Z0F1200
G1 X130.102Y8.705Z0F1200
G1 X130.225Y9.041Z0F1200
G1 X130.393Y9.362Z0F1200
G1 X130.603Y9.668Z0F1200
G1 X130.854Y9.957Z0F1200
G1 X131.142Y10.226Z0F1200
G1 X131.464Y10.475Z0F1200
G1 X131.82Y10.701Z0F1200
G1 X132.204Y10.902Z0F1200
G1 X132.617Y11.078Z0F1200
G1 X133.054Y11.225Z0F1200
G1 X133.513Y11.343Z0F1200
G1 X133.992Y11.429Z0F1200
G1 X134.489Y11.482Z0F1200
G1 X135Y11.5Z0F1200
G1 X135.511Y11.482Z0F1200
G1 X136.008Y11.429Z0F1200
G1 X136.487Y11.343Z0F1200
G1 X136.946Y11.225Z0F1200
G1 X137.383Y11.078Z0F1200
G1 X137.796Y10.902Z0F1200
G1 X138.18Y10.701Z0F1200
G1 X138.536Y10.475Z0F1200
G1 X138.858Y10.226Z0F1200
G1 X139.146Y9.957Z0F1200
G1 X139.397Y9.668Z0F1200
G1 X139.607Y9.362Z0F1200
G1 X139.775Y9.041Z0F1200
G1 X139.898Y8.705Z0F1200
G1 X139.974Y8.358Z0F1200
G1 X140Y8Z0F1200
G1 X139.974Y7.642Z0F1200
G1 X139.898Y7.295Z0F1200
G1 X139.775Y6.959Z0F1200
G1 X139.607Y6.638Z0F1200
G1 X139.397Y6.332Z0F1200
G1 X139.146Y6.043Z0F1200
G1 X138.858Y5.774Z0F1200
G1 X138.536Y5.525Z0F1200
G1 X138.18Y5.299Z0F1200
G1 X137.796Y5.098Z0F1200
G1 X137.383Y4.922Z0F1200
G1 X136.946Y4.775Z0F1200
G1 X136.487Y4.657Z0F1200
G1 X136.008Y4.571Z0F1200
G1 X135.511Y4.518Z0F1200
G1 X135Y4.5Z0F1200
G1 X134.489Y4.518Z0F1200
G1 X133.992Y4.571Z0F1200
G1 X133.513Y4.657Z0F1200
G1 X133.054Y4.775Z0F1200
G1 X132.617Y4.922Z0F1200
G1 X132.204Y5.098Z0F1200
G1 X131.82Y5.299Z0F1200
G1 X131.464Y5.525Z0F1200
G1 X131.142Y5.774Z0F1200
G1 X130.854Y6.043Z0F1200
G1 X130.603Y6.332Z0F1200
G1 X130.393Y6.638Z0F1200
G1 X130.225Y6.959Z0F1200
G1 Z7 F800;         ; Raise from color - controlled movement
G1 X124 Y8 Z1 F1200;     ; Movement in paint - controlled movement
G1 X114 Y18 Z8 F500;     ; Move in paint - controlled movement
G1 F1200;           ; Set feed rate to 1000
G0 Z3.5 F1000
G0 X80.569 Y53.172 Z3.5 
G1 Z0 F1000
G1 X80.666 Y52.985 Z0 F1600
G1 X80.699 Y52.75 Z0 F1600
G1 X80.887 Y52.501 Z0 F1600
G1 X81.005 Y52.228 Z0 F1600
G1 X81.027 Y52.086 Z0 F1600
G1 X81.019 Y51.942 Z0 F1600
G1 X80.976 Y51.797 Z0 F1600
G1 X80.894 Y51.654 Z0 F1600
G1 X80.842 Y51.271 Z0 F1600
G1 X80.835 Y50.851 Z0 F1600
G1 X80.879 Y50.666 Z0 F1600
G1 X80.97 Y50.52 Z0 F1600
G1 X81.119 Y50.427 Z0 F1600
G1 X81.339 Y50.403 Z0 F1600
G1 X81.507 Y50.283 Z0 F1600
G1 X81.616 Y50.118 Z0 F1600
G1 X81.672 Y49.921 Z0 F1600
G1 X81.683 Y49.705 Z0 F1600
G1 X81.654 Y49.481 Z0 F1600
G1 X81.591 Y49.265 Z0 F1600
G1 X81.502 Y49.068 Z0 F1600
G1 X81.393 Y48.903 Z0 F1600
G1 X81.214 Y48.797 Z0 F1600
G1 X81.022 Y48.753 Z0 F1600
G1 X80.82 Y48.75 Z0 F1600
G1 X80.411 Y48.781 Z0 F1600
G1 X80.212 Y48.772 Z0 F1600
G1 X80.025 Y48.72 Z0 F1600
G1 X79.854 Y48.603 Z0 F1600
G1 X79.669 Y48.543 Z0 F1600
G1 X79.451 Y48.531 Z0 F1600
G1 X78.996 Y48.555 Z0 F1600
G1 X78.799 Y48.543 Z0 F1600
G1 X78.65 Y48.485 Z0 F1600
G1 X78.601 Y48.43 Z0 F1600
G1 X78.57 Y48.355 Z0 F1600
G1 X78.562 Y48.256 Z0 F1600
G1 X78.578 Y48.131 Z0 F1600
G1 X78.551 Y47.932 Z0 F1600
G1 X78.574 Y47.75 Z0 F1600
G1 X78.632 Y47.579 Z0 F1600
G1 X78.715 Y47.416 Z0 F1600
G1 X78.903 Y47.096 Z0 F1600
G1 X79.041 Y46.757 Z0 F1600
G1 X79.019 Y46.509 Z0 F1600
G1 X79.006 Y46.304 Z0 F1600
G1 X79.029 Y46.235 Z0 F1600
G1 X79.087 Y46.2 Z0 F1600
G1 X79.191 Y46.204 Z0 F1600
G1 X79.35 Y46.256 Z0 F1600
G1 X79.52 Y46.271 Z0 F1600
G1 X79.673 Y46.241 Z0 F1600
G1 X79.817 Y46.179 Z0 F1600
G1 X80.097 Y46.026 Z0 F1600
G1 X80.244 Y45.969 Z0 F1600
G1 X80.403 Y45.944 Z0 F1600
G1 X80.581 Y45.969 Z0 F1600
G1 X81.099 Y46.104 Z0 F1600
G1 X81.635 Y46.18 Z0 F1600
G1 X82.179 Y46.211 Z0 F1600
G1 X82.722 Z0 F1600
G1 X83.334 Y46.272 Z0 F1600
G1 X83.942 Y46.364 Z0 F1600
G1 X84.246 Y46.394 Z0 F1600
G1 X84.549 Y46.397 Z0 F1600
G1 X84.854 Y46.364 Z0 F1600
G1 X85.16 Y46.283 Z0 F1600
G1 X85.874 Y46.265 Z0 F1600
G1 X86.587 Y46.334 Z0 F1600
G1 X86.936 Y46.407 Z0 F1600
G1 X87.277 Y46.507 Z0 F1600
G1 X87.606 Y46.638 Z0 F1600
G1 X87.922 Y46.802 Z0 F1600
G1 X88.684 Y46.824 Z0 F1600
G1 X89.455 Y46.811 Z0 F1600
G1 X89.838 Y46.781 Z0 F1600
G1 X90.217 Y46.73 Z0 F1600
G1 X90.589 Y46.655 Z0 F1600
G1 X90.953 Y46.552 Z0 F1600
G1 X91.083 Y46.373 Z0 F1600
G1 X91.254 Y46.271 Z0 F1600
G1 X91.455 Y46.227 Z0 F1600
G1 X91.676 Y46.222 Z0 F1600
G1 X92.142 Y46.259 Z0 F1600
G1 X92.574 Y46.232 Z0 F1600
G1 X92.838 Y46.172 Z0 F1600
G1 X93.087 Y46.063 Z0 F1600
G1 X93.328 Y45.927 Z0 F1600
G1 X93.566 Y45.784 Z0 F1600
G1 X93.808 Y45.656 Z0 F1600
G1 X94.059 Y45.564 Z0 F1600
G1 X94.326 Y45.532 Z0 F1600
G1 X94.614 Y45.579 Z0 F1600
G1 X95.118 Y46.017 Z0 F1600
G1 X95.591 Y46.492 Z0 F1600
G1 X95.838 Y46.714 Z0 F1600
G1 X96.104 Y46.91 Z0 F1600
G1 X96.397 Y47.068 Z0 F1600
G1 X96.728 Y47.175 Z0 F1600
G1 X96.948 Y47.36 Z0 F1600
G1 X97.082 Y47.588 Z0 F1600
G1 X97.148 Y47.85 Z0 F1600
G1 X97.165 Y48.133 Z0 F1600
G1 X97.119 Y48.723 Z0 F1600
G1 X97.088 Y49.27 Z0 F1600
G1 X97.017 Y49.61 Z0 F1600
G1 X96.94 Y49.943 Z0 F1600
G1 X96.923 Y50.11 Z0 F1600
G1 X96.932 Y50.277 Z0 F1600
G1 X96.976 Y50.446 Z0 F1600
G1 X97.062 Y50.617 Z0 F1600
G1 X97.128 Y51.427 Z0 F1600
G1 X97.159 Y52.239 Z0 F1600
G1 X97.165 Y53.053 Z0 F1600
G1 X97.155 Y53.868 Z0 F1600
G1 X97.126 Y55.499 Z0 F1600
G1 X97.152 Y57.126 Z0 F1600
G1 X97.149 Y58.504 Z0 F1600
G1 X97.155 Y59.885 Z0 F1600
G1 X97.135 Y61.263 Z0 F1600
G1 X97.054 Y62.632 Z0 F1600
G1 X96.85 Y62.741 Z0 F1600
G1 X96.692 Y62.891 Z0 F1600
G1 X96.573 Y63.074 Z0 F1600
G1 X96.486 Y63.281 Z0 F1600
G1 X96.373 Y63.351 Z0 F1600
G1 X96.266 Y63.39 Z0 F1600
G1 X96.164 Y63.4 Z0 F1600
G1 X96.068 Y63.386 Z0 F1600
G1 X95.889 Y63.297 Z0 F1600
G1 X95.726 Y63.149 Z0 F1600
G1 X95.432 Y62.788 Z0 F1600
G1 X95.157 Y62.518 Z0 F1600
G1 X94.984 Y62.719 Z0 F1600
G1 X94.84 Y62.972 Z0 F1600
G1 X94.572 Y63.543 Z0 F1600
G1 X94.417 Y63.816 Z0 F1600
G1 X94.225 Y64.048 Z0 F1600
G1 X94.111 Y64.142 Z0 F1600
G1 X93.981 Y64.217 Z0 F1600
G1 X93.835 Y64.271 Z0 F1600
G1 X93.67 Y64.3 Z0 F1600
G1 X93.052 Y64.371 Z0 F1600
G1 X92.414 Y64.357 Z0 F1600
G1 X92.121 Y64.283 Z0 F1600
G1 X91.861 Y64.146 Z0 F1600
G1 X91.749 Y64.049 Z0 F1600
G1 X91.65 Y63.931 Z0 F1600
G1 X91.566 Y63.791 Z0 F1600
G1 X91.5 Y63.625 Z0 F1600
G1 X91.28 Y63.18 Z0 F1600
G1 X91.029 Y62.689 Z0 F1600
G1 X90.953 Y62.445 Z0 F1600
G1 X90.945 Y62.211 Z0 F1600
G1 X90.974 Y62.101 Z0 F1600
G1 X91.029 Y61.995 Z0 F1600
G1 X91.113 Y61.896 Z0 F1600
G1 X91.33 Y61.728 Z0 F1600
G1 X91.39 Y61.655 Z0 F1600
G1 X91.416 Y61.585 Z0 F1600
G1 X91.413 Y61.518 Z0 F1600
G1 X91.339 Y61.388 Z0 F1600
G1 X91.209 Y61.257 Z0 F1600
G1 X91.064 Y61.119 Z0 F1600
G1 X90.943 Y60.968 Z0 F1600
G1 X90.906 Y60.885 Z0 F1600
G1 X90.889 Y60.796 Z0 F1600
G1 X90.899 Y60.701 Z0 F1600
G1 X90.941 Y60.598 Z0 F1600
G1 X90.973 Y60.478 Z0 F1600
G1 X90.968 Y60.363 Z0 F1600
G1 X90.933 Y60.262 Z0 F1600
G1 X90.873 Y60.183 Z0 F1600
G1 X90.795 Y60.135 Z0 F1600
G1 X90.704 Y60.125 Z0 F1600
G1 X90.606 Y60.163 Z0 F1600
G1 X90.507 Y60.257 Z0 F1600
G1 X90.241 Y60.5 Z0 F1600
G1 X89.949 Y60.7 Z0 F1600
G1 X89.792 Y60.771 Z0 F1600
G1 X89.627 Y60.814 Z0 F1600
G1 X89.454 Y60.827 Z0 F1600
G1 X89.271 Y60.803 Z0 F1600
G1 X89.208 Y60.884 Z0 F1600
G1 X89.176 Y60.962 Z0 F1600
G1 X89.172 Y61.041 Z0 F1600
G1 X89.191 Y61.118 Z0 F1600
G1 X89.28 Y61.271 Z0 F1600
G1 X89.543 Y61.587 Z0 F1600
G1 X89.647 Y61.755 Z0 F1600
G1 X89.677 Y61.844 Z0 F1600
G1 X89.686 Y61.936 Z0 F1600
G1 X89.669 Y62.031 Z0 F1600
G1 X89.624 Y62.13 Z0 F1600
G1 X89.478 Y62.361 Z0 F1600
G1 X89.375 Y62.606 Z0 F1600
G1 X89.313 Y62.862 Z0 F1600
G1 X89.287 Y63.124 Z0 F1600
G1 X89.296 Y63.388 Z0 F1600
G1 X89.338 Y63.651 Z0 F1600
G1 X89.411 Y63.908 Z0 F1600
G1 X89.51 Y64.155 Z0 F1600
G1 X89.451 Y64.418 Z0 F1600
G1 X89.336 Y64.685 Z0 F1600
G1 X89.177 Y64.945 Z0 F1600
G1 X88.98 Y65.189 Z0 F1600
G1 X88.755 Y65.407 Z0 F1600
G1 X88.512 Y65.59 Z0 F1600
G1 X88.259 Y65.729 Z0 F1600
G1 X88.005 Y65.812 Z0 F1600
G1 X87.658 Y65.609 Z0 F1600
G1 X87.319 Y65.38 Z0 F1600
G1 X86.977 Y65.152 Z0 F1600
G1 X86.62 Y64.956 Z0 F1600
G1 X86.441 Y64.61 Z0 F1600
G1 X86.212 Y64.304 Z0 F1600
G1 X85.934 Y64.04 Z0 F1600
G1 X85.605 Y63.824 Z0 F1600
G1 X85.521 Y63.697 Z0 F1600
G1 X85.471 Y63.562 Z0 F1600
G1 X85.452 Y63.421 Z0 F1600
G1 X85.461 Y63.282 Z0 F1600
G1 X85.499 Y63.146 Z0 F1600
G1 X85.561 Y63.021 Z0 F1600
G1 X85.646 Y62.908 Z0 F1600
G1 X85.751 Y62.814 Z0 F1600
G1 X85.733 Y62.522 Z0 F1600
G1 X85.668 Y62.24 Z0 F1600
G1 X85.573 Y61.963 Z0 F1600
G1 X85.468 Y61.689 Z0 F1600
G1 X85.372 Y61.413 Z0 F1600
G1 X85.302 Y61.132 Z0 F1600
G1 X85.28 Y60.841 Z0 F1600
G1 X85.322 Y60.538 Z0 F1600
G1 X85.288 Y60.407 Z0 F1600
G1 X85.229 Y60.306 Z0 F1600
G1 X85.147 Y60.23 Z0 F1600
G1 X85.045 Y60.178 Z0 F1600
G1 X84.794 Y60.13 Z0 F1600
G1 X84.499 Y60.136 Z0 F1600
G1 X83.861 Y60.204 Z0 F1600
G1 X83.566 Y60.214 Z0 F1600
G1 X83.315 Y60.175 Z0 F1600
G1 X83.168 Y60.192 Z0 F1600
G1 X83.032 Y60.24 Z0 F1600
G1 X82.905 Y60.314 Z0 F1600
G1 X82.786 Y60.409 Z0 F1600
G1 X82.561 Y60.644 Z0 F1600
G1 X82.344 Y60.906 Z0 F1600
G1 X82.121 Y61.157 Z0 F1600
G1 X81.878 Y61.36 Z0 F1600
G1 X81.745 Y61.431 Z0 F1600
G1 X81.601 Y61.476 Z0 F1600
G1 X81.446 Y61.489 Z0 F1600
G1 X81.276 Y61.467 Z0 F1600
G1 X81.164 Y61.422 Z0 F1600
G1 X81.06 Y61.403 Z0 F1600
G1 X80.963 Y61.409 Z0 F1600
G1 X80.873 Y61.436 Z0 F1600
G1 X80.712 Y61.543 Z0 F1600
G1 X80.572 Y61.705 Z0 F1600
G1 X80.336 Y62.104 Z0 F1600
G1 X80.129 Y62.464 Z0 F1600
G1 X79.842 Y63.07 Z0 F1600
G1 X79.749 Y63.185 Z0 F1600
G1 X79.633 Y63.248 Z0 F1600
G1 X79.488 Y63.241 Z0 F1600
G1 X79.305 Y63.146 Z0 F1600
G1 X79.019 Y62.946 Z0 F1600
G1 X78.708 Y62.82 Z0 F1600
G1 X78.382 Y62.748 Z0 F1600
G1 X78.044 Y62.709 Z0 F1600
G1 X77.703 Y62.686 Z0 F1600
G1 X77.364 Y62.658 Z0 F1600
G1 X77.033 Y62.605 Z0 F1600
G1 X76.717 Y62.51 Z0 F1600
G1 X76.463 Y62.301 Z0 F1600
G1 X76.231 Y62.071 Z0 F1600
G1 X76.021 Y61.823 Z0 F1600
G1 X75.833 Y61.559 Z0 F1600
G1 X75.519 Y60.99 Z0 F1600
G1 X75.287 Y60.38 Z0 F1600
G1 X75.143 Y60.337 Z0 F1600
G1 X75.005 Y60.359 Z0 F1600
G1 X74.873 Y60.429 Z0 F1600
G1 X74.741 Y60.525 Z0 F1600
G1 X74.608 Y60.63 Z0 F1600
G1 X74.471 Y60.724 Z0 F1600
G1 X74.327 Y60.788 Z0 F1600
G1 X74.171 Y60.803 Z0 F1600
G1 X73.985 Y60.875 Z0 F1600
G1 X73.789 Y60.928 Z0 F1600
G1 X73.589 Y60.957 Z0 F1600
G1 X73.396 Y60.952 Z0 F1600
G1 X73.218 Y60.907 Z0 F1600
G1 X73.063 Y60.815 Z0 F1600
G1 X72.939 Y60.667 Z0 F1600
G1 X72.856 Y60.457 Z0 F1600
G1 X72.745 Y60.253 Z0 F1600
G1 X72.575 Y60.106 Z0 F1600
G1 X72.378 Y60.001 Z0 F1600
G1 X72.183 Y59.927 Z0 F1600
G1 X72.149 Y59.743 Z0 F1600
G1 X72.167 Y59.584 Z0 F1600
G1 X72.229 Y59.45 Z0 F1600
G1 X72.328 Y59.341 Z0 F1600
G1 X72.455 Y59.259 Z0 F1600
G1 X72.603 Y59.203 Z0 F1600
G1 X72.764 Y59.173 Z0 F1600
G1 X72.931 Y59.17 Z0 F1600
G1 X73.167 Y59.138 Z0 F1600
G1 X73.394 Y59.074 Z0 F1600
G1 X73.604 Y58.979 Z0 F1600
G1 X73.79 Y58.853 Z0 F1600
G1 X73.944 Y58.695 Z0 F1600
G1 X74.06 Y58.507 Z0 F1600
G1 X74.129 Y58.289 Z0 F1600
G1 X74.145 Y58.039 Z0 F1600
G1 X74.179 Y57.916 Z0 F1600
G1 X74.228 Y57.817 Z0 F1600
G1 X74.288 Y57.742 Z0 F1600
G1 X74.358 Y57.688 Z0 F1600
G1 X74.524 Y57.638 Z0 F1600
G1 X74.713 Y57.649 Z0 F1600
G1 X75.111 Y57.798 Z0 F1600
G1 X75.455 Y58.014 Z0 F1600
G1 X75.737 Y58.118 Z0 F1600
G1 X76.052 Y58.183 Z0 F1600
G1 X76.38 Y58.202 Z0 F1600
G1 X76.705 Y58.17 Z0 F1600
G1 X77.007 Y58.081 Z0 F1600
G1 X77.269 Y57.93 Z0 F1600
G1 X77.379 Y57.829 Z0 F1600
G1 X77.473 Y57.71 Z0 F1600
G1 X77.547 Y57.573 Z0 F1600
G1 X77.6 Y57.417 Z0 F1600
G1 X77.268 Y56.562 Z0 F1600
G1 X76.961 Y55.695 Z0 F1600
G1 X76.75 Y55.411 Z0 F1600
G1 X76.581 Y55.063 Z0 F1600
G1 X76.553 Y54.897 Z0 F1600
G1 X76.587 Y54.755 Z0 F1600
G1 X76.632 Y54.697 Z0 F1600
G1 X76.698 Y54.649 Z0 F1600
G1 X76.789 Y54.615 Z0 F1600
G1 X76.904 Y54.594 Z0 F1600
G1 X77.35 Y54.497 Z0 F1600
G1 X77.801 Y54.379 Z0 F1600
G1 X78.009 Y54.291 Z0 F1600
G1 X78.193 Y54.172 Z0 F1600
G1 X78.345 Y54.014 Z0 F1600
G1 X78.458 Y53.808 Z0 F1600
G1 X78.711 Y53.786 Z0 F1600
G1 X78.954 Y53.724 Z0 F1600
G1 X79.171 Y53.614 Z0 F1600
G1 X79.35 Y53.45 Z0 F1600
G1 X79.564 Y53.489 Z0 F1600
G1 X79.791 Y53.498 Z0 F1600
G1 X80.018 Y53.474 Z0 F1600
G1 X80.232 Y53.413 Z0 F1600
G1 X80.42 Y53.313 Z0 F1600
G1 X80.569 Y53.172 Z0 F1600
G0 Z3.5 F1000
G0 X51.349 Y54.566 Z3.5 
G1 Z0 F1000
G1 X51.704 Y54.833 Z0 F1600
G1 X52.03 Y55.407 Z0 F1600
G1 X52.381 Y55.798 Z0 F1600
G1 X51.624 Y55.679 Z0 F1600
G1 X51.127 Y54.28 Z0 F1600
G1 X51.349 Y54.566 Z0 F1600
G0 Z3.5 F1000
G0 X50.212 Y52.862 Z3.5 
G1 Z0 F1000
G1 X49.421 Y52.087 Z0 F1600
G1 X49.215 Y51.991 Z0 F1600
G1 X49.09 Y51.725 Z0 F1600
G1 X48.79 Y50.796 Z0 F1600
G1 X49.14 Z0 F1600
G1 X49.833 Y50.856 Z0 F1600
G1 X49.77 Y51.241 Z0 F1600
G1 X50.212 Y52.862 Z0 F1600
G0 Z3.5 F1000
G0 X50.708 Y55.79 Z3.5 
G1 Z0 F1000
G1 X50.064 Y53.978 Z0 F1600
G1 X48.901 Y52.837 Z0 F1600
G1 X48.563 Y52.68 Z0 F1600
G1 X48.413 Y52.4 Z0 F1600
G1 X48.251 Y52.057 Z0 F1600
G1 X47.802 Y50.666 Z0 F1600
G1 X47.321 Y50.243 Z0 F1600
G1 X47.747 Y50.197 Z0 F1600
G1 X47.884 Y50.014 Z0 F1600
G1 X48.012 Y50.006 Z0 F1600
G1 X48.537 Y49.908 Z0 F1600
G1 X48.663 Y49.896 Z0 F1600
G1 X49.179 Z0 F1600
G1 X49.92 Y49.96 Z0 F1600
G1 X50.522 Y49.995 Z0 F1600
G1 X50.752 Y49.992 Z0 F1600
G1 X50.806 Y50.482 Z0 F1600
G1 X50.689 Y51.192 Z0 F1600
G1 X51.135 Y52.825 Z0 F1600
G1 X51.986 Y53.92 Z0 F1600
G1 X52.394 Y54.227 Z0 F1600
G1 X52.764 Y54.878 Z0 F1600
G1 X53.52 Y55.718 Z0 F1600
G1 X53.737 Y55.871 Z0 F1600
G1 X53.693 Y55.899 Z0 F1600
G1 X53.124 Y56.329 Z0 F1600
G1 X52.768 Y56.789 Z0 F1600
G1 X52.714 Y56.762 Z0 F1600
G1 X51.38 Y56.552 Z0 F1600
G1 X50.585 Y56.665 Z0 F1600
G1 X50.708 Y55.79 Z0 F1600
G0 Z3.5 F1000
G0 X29.729 Y54.489 Z3.5 
G1 Z0 F1000
G1 X29.658 Y54.801 Z0 F1600
G1 X29.831 Y55.703 Z0 F1600
G1 X29.531 Y56.034 Z0 F1600
G1 X29.247 Y56.552 Z0 F1600
G1 X29.067 Y56.863 Z0 F1600
G1 Y55.607 Z0 F1600
G1 X29.075 Y55.002 Z0 F1600
G1 X29.438 Y54.671 Z0 F1600
G1 X29.729 Y54.489 Z0 F1600
G0 Z3.5 F1000
G0 X30.909 Y53.375 Z3.5 
G1 Z0 F1000
G1 X30.578 Y54.817 Z0 F1600
G1 X30.771 Y55.825 Z0 F1600
G1 X30.824 Y55.952 Z0 F1600
G1 X30.815 Y55.958 Z0 F1600
G1 X30.269 Y56.56 Z0 F1600
G1 X30.029 Y56.998 Z0 F1600
G1 X29.833 Y57.337 Z0 F1600
G1 X29.621 Y57.975 Z0 F1600
G1 X29.543 Y58.609 Z0 F1600
G1 X29.582 Y59.243 Z0 F1600
G1 X29.668 Y59.569 Z0 F1600
G1 X28.227 Y59.645 Z0 F1600
G1 X28.23 Y59.353 Z0 F1600
G1 X28.186 Y58.742 Z0 F1600
G1 X28.168 Y57.225 Z0 F1600
G1 Y55.588 Z0 F1600
G1 X28.182 Y54.496 Z0 F1600
G1 X28.408 Y54.393 Z0 F1600
G1 X28.948 Y53.9 Z0 F1600
G1 X29.021 Y53.871 Z0 F1600
G1 X29.728 Y53.431 Z0 F1600
G1 X30.558 Y52.419 Z0 F1600
G1 X30.686 Y51.638 Z0 F1600
G1 X32.151 Y52.014 Z0 F1600
G1 X32.431 Y51.786 Z0 F1600
G1 X30.909 Y53.375 Z0 F1600

; Color picking sequence
G1 Z10 F1000;         ; Raise brush to safe height
G0 X131 Y5 F1200;    ; Rapid move to color 1 position
G1 Z0 F1000;         ; Lower into color - controlled movement
G1 X130.102Y7.295Z0S800F1200
G1 X130.026Y7.642Z0F1200
G1 X130Y8Z0F1200
G1 X130.026Y8.358Z0F1200
G1 X130.102Y8.705Z0F1200
G1 X130.225Y9.041Z0F1200
G1 X130.393Y9.362Z0F1200
G1 X130.603Y9.668Z0F1200
G1 X130.854Y9.957Z0F1200
G1 X131.142Y10.226Z0F1200
G1 X131.464Y10.475Z0F1200
G1 X131.82Y10.701Z0F1200
G1 X132.204Y10.902Z0F1200
G1 X132.617Y11.078Z0F1200
G1 X133.054Y11.225Z0F1200
G1 X133.513Y11.343Z0F1200
G1 X133.992Y11.429Z0F1200
G1 X134.489Y11.482Z0F1200
G1 X135Y11.5Z0F1200
G1 X135.511Y11.482Z0F1200
G1 X136.008Y11.429Z0F1200
G1 X136.487Y11.343Z0F1200
G1 X136.946Y11.225Z0F1200
G1 X137.383Y11.078Z0F1200
G1 X137.796Y10.902Z0F1200
G1 X138.18Y10.701Z0F1200
G1 X138.536Y10.475Z0F1200
G1 X138.858Y10.226Z0F1200
G1 X139.146Y9.957Z0F1200
G1 X139.397Y9.668Z0F1200
G1 X139.607Y9.362Z0F1200
G1 X139.775Y9.041Z0F1200
G1 X139.898Y8.705Z0F1200
G1 X139.974Y8.358Z0F1200
G1 X140Y8Z0F1200
G1 X139.974Y7.642Z0F1200
G1 X139.898Y7.295Z0F1200
G1 X139.775Y6.959Z0F1200
G1 X139.607Y6.638Z0F1200
G1 X139.397Y6.332Z0F1200
G1 X139.146Y6.043Z0F1200
G1 X138.858Y5.774Z0F1200
G1 X138.536Y5.525Z0F1200
G1 X138.18Y5.299Z0F1200
G1 X137.796Y5.098Z0F1200
G1 X137.383Y4.922Z0F1200
G1 X136.946Y4.775Z0F1200
G1 X136.487Y4.657Z0F1200
G1 X136.008Y4.571Z0F1200
G1 X135.511Y4.518Z0F1200
G1 X135Y4.5Z0F1200
G1 X134.489Y4.518Z0F1200
G1 X133.992Y4.571Z0F1200
G1 X133.513Y4.657Z0F1200
G1 X133.054Y4.775Z0F1200
G1 X132.617Y4.922Z0F1200
G1 X132.204Y5.098Z0F1200
G1 X131.82Y5.299Z0F1200
G1 X131.464Y5.525Z0F1200
G1 X131.142Y5.774Z0F1200
G1 X130.854Y6.043Z0F1200
G1 X130.603Y6.332Z0F1200
G1 X130.393Y6.638Z0F1200
G1 X130.225Y6.959Z0F1200
G1 Z7 F800;         ; Raise from color - controlled movement
G1 X124 Y8 Z1 F1200;     ; Movement in paint - controlled movement
G1 X114 Y18 Z8 F500;     ; Move in paint - controlled movement
G1 F1200;           ; Set feed rate to 1000
G0 Z3.5 F1000
G0 X38.997 Y50.246 Z3.5 
G1 Z0 F1000
G1 X39.152 Y50.26 Z0 F1600
G1 X39.107 Y50.319 Z0 F1600
G1 X38.997 Y50.246 Z0 F1600
G0 Z3.5 F1000
G0 X37.937 Y49.651 Z3.5 
G1 Z0 F1000
G1 X38.598 Y49.282 Z0 F1600
G1 X38.919 Y49.335 Z0 F1600
G1 X39.803 Y49.415 Z0 F1600
G1 X40.721 Y49.42 Z0 F1600
G1 X41.344 Y49.361 Z0 F1600
G1 X42.229 Y49.392 Z0 F1600
G1 X43.318 Y49.488 Z0 F1600
G1 X43.959 Y49.535 Z0 F1600
G1 X44.66 Y49.561 Z0 F1600
G1 X45.42 Y49.542 Z0 F1600
G1 X47.261 Y49.344 Z0 F1600
G1 X47.415 Y49.14 Z0 F1600
G1 X47.901 Y49.111 Z0 F1600
G1 X48.418 Y49.015 Z0 F1600
G1 X48.62 Y48.997 Z0 F1600
G1 X49.217 Z0 F1600
G1 X49.986 Y49.063 Z0 F1600
G1 X50.542 Y49.094 Z0 F1600
G1 X51.207 Y49.087 Z0 F1600
G1 X51.458 Y49.056 Z0 F1600
G1 X51.53 Y49.09 Z0 F1600
G1 X51.678 Y49.267 Z0 F1600
G1 X51.652 Y49.423 Z0 F1600
G1 X51.662 Y49.549 Z0 F1600
G1 X51.629 Y49.734 Z0 F1600
G1 X51.713 Y50.502 Z0 F1600
G1 Y50.505 Z0 F1600
G1 X51.609 Y51.145 Z0 F1600
G1 X51.956 Y52.415 Z0 F1600
G1 X52.624 Y53.273 Z0 F1600
G1 X53.084 Y53.621 Z0 F1600
G1 X53.499 Y54.349 Z0 F1600
G1 X54.121 Y55.041 Z0 F1600
G1 X54.934 Y55.611 Z0 F1600
G1 X55.302 Y55.744 Z0 F1600
G1 Y56.024 Z0 F1600
G1 X54.781 Y56.256 Z0 F1600
G1 X54.214 Y56.634 Z0 F1600
G1 X53.762 Y56.975 Z0 F1600
G1 X53.23 Y57.663 Z0 F1600
G1 X53.111 Y57.975 Z0 F1600
G1 X52.433 Y57.628 Z0 F1600
G1 X51.374 Y57.462 Z0 F1600
G1 X50.564 Y57.576 Z0 F1600
G1 X49.915 Y57.819 Z0 F1600
G1 X49.897 Y57.809 Z0 F1600
G1 X49.495 Y57.87 Z0 F1600
G1 X49.573 Y57.396 Z0 F1600
G1 X49.786 Y55.883 Z0 F1600
G1 X49.285 Y54.475 Z0 F1600
G1 X48.382 Y53.588 Z0 F1600
G1 X47.911 Y53.369 Z0 F1600
G1 X47.61 Y52.808 Z0 F1600
G1 X47.413 Y52.388 Z0 F1600
G1 X47.022 Y51.179 Z0 F1600
G1 X45.901 Y50.194 Z0 F1600
G1 X44.906 Y49.771 Z0 F1600
G1 X44.029 Y49.643 Z0 F1600
G1 X43.309 Y49.663 Z0 F1600
G1 X42.504 Y49.788 Z0 F1600
G1 X41.983 Y49.859 Z0 F1600
G1 X41.656 Y49.892 Z0 F1600
G1 X41.063 Y50.057 Z0 F1600
G1 X40.461 Y50.348 Z0 F1600
G1 X39.855 Y50.821 Z0 F1600
G1 X39.313 Y51.536 Z0 F1600
G1 X39.167 Y51.947 Z0 F1600
G1 X38.478 Y50.982 Z0 F1600
G1 X37.559 Y50.378 Z0 F1600
G1 X36.693 Y50.117 Z0 F1600
G1 X35.908 Y50.059 Z0 F1600
G1 X35.153 Y50.151 Z0 F1600
G1 X34.38 Y50.409 Z0 F1600
G1 X33.223 Y51.143 Z0 F1600
G1 X33.568 Y50.863 Z0 F1600
G1 X34.094 Y50.14 Z0 F1600
G1 X34.102 Y50.115 Z0 F1600
G1 X34.335 Y50.128 Z0 F1600
G1 X34.722 Y50.08 Z0 F1600
G1 X35.235 Y50.045 Z0 F1600
G1 X35.94 Z0 F1600
G1 X36.504 Y50.007 Z0 F1600
G1 X37.171 Y49.897 Z0 F1600
G1 X37.937 Y49.651 Z0 F1600
G0 Z3.5 F1000
G0 X40.682 Y48.52 Z3.5 
G1 Z0 F1000
G1 X41.316 Y48.46 Z0 F1600
G1 X42.284 Y48.494 Z0 F1600
G1 X43.391 Y48.591 Z0 F1600
G1 X44.008 Y48.637 Z0 F1600
G1 X44.666 Y48.66 Z0 F1600
G1 X45.361 Y48.644 Z0 F1600
G1 X46.776 Y48.491 Z0 F1600
G1 X46.99 Y48.207 Z0 F1600
G1 X47.265 Y48.248 Z0 F1600
G1 X47.792 Y48.216 Z0 F1600
G1 X48.29 Y48.123 Z0 F1600
G1 X48.588 Y48.096 Z0 F1600
G1 X49.256 Z0 F1600
G1 X50.051 Y48.165 Z0 F1600
G1 X50.563 Y48.194 Z0 F1600
G1 X51.146 Y48.188 Z0 F1600
G1 X51.676 Y48.122 Z0 F1600
G1 X51.803 Y48.222 Z0 F1600
G1 X52.183 Y48.405 Z0 F1600
G1 X52.271 Y48.573 Z0 F1600
G1 X52.628 Y48.997 Z0 F1600
G1 X52.636 Y49.003 Z0 F1600
G1 X52.558 Y49.461 Z0 F1600
G1 X52.569 Y49.594 Z0 F1600
G1 X52.538 Y49.766 Z0 F1600
G1 X52.599 Y50.325 Z0 F1600
G1 X52.635 Y50.448 Z0 F1600
G1 X52.529 Y51.097 Z0 F1600
G1 X52.776 Y52.004 Z0 F1600
G1 X53.26 Y52.626 Z0 F1600
G1 X53.742 Y52.989 Z0 F1600
G1 X53.825 Y53.031 Z0 F1600
G1 X53.874 Y53.188 Z0 F1600
G1 X54.232 Y53.819 Z0 F1600
G1 X54.721 Y54.363 Z0 F1600
G1 X55.352 Y54.805 Z0 F1600
G1 X56.071 Y55.063 Z0 F1600
G1 X56.317 Y55.092 Z0 F1600
G1 X56.204 Y55.551 Z0 F1600
G1 X56.2 Y56.2 Z0 F1600
G1 X56.335 Y56.645 Z0 F1600
G1 X55.926 Y56.73 Z0 F1600
G1 X55.218 Y57.047 Z0 F1600
G1 X54.734 Y57.369 Z0 F1600
G1 X54.4 Y57.621 Z0 F1600
G1 X54.024 Y58.108 Z0 F1600
G1 X53.856 Y58.548 Z0 F1600
G1 X53.791 Y58.601 Z0 F1600
G1 X53.434 Y59.036 Z0 F1600
G1 X53.324 Y59.268 Z0 F1600
G1 X52.826 Y58.84 Z0 F1600
G1 X52.151 Y58.495 Z0 F1600
G1 X51.366 Y58.372 Z0 F1600
G1 X50.788 Y58.454 Z0 F1600
G1 X50.299 Y58.637 Z0 F1600
G1 X49.931 Y58.879 Z0 F1600
G1 X49.712 Y58.748 Z0 F1600
G1 X48.885 Y58.874 Z0 F1600
G1 X48.719 Y58.679 Z0 F1600
G1 X48.504 Y58.502 Z0 F1600
G1 X48.51 Y58.4 Z0 F1600
G1 X48.549 Y58.078 Z0 F1600
G1 X48.683 Y57.26 Z0 F1600
G1 X48.864 Y55.976 Z0 F1600
G1 X48.507 Y54.972 Z0 F1600
G1 X47.862 Y54.339 Z0 F1600
G1 X47.279 Y54.068 Z0 F1600
G1 X47.251 Y54.06 Z0 F1600
G1 X47.128 Y53.813 Z0 F1600
G1 X46.8 Y53.201 Z0 F1600
G1 X46.574 Y52.721 Z0 F1600
G1 X46.242 Y51.691 Z0 F1600
G1 X45.415 Y50.965 Z0 F1600
G1 X44.661 Y50.644 Z0 F1600
G1 X43.977 Y50.545 Z0 F1600
G1 X43.39 Y50.561 Z0 F1600
G1 X42.636 Y50.678 Z0 F1600
G1 X42.084 Y50.753 Z0 F1600
G1 X41.822 Y50.779 Z0 F1600
G1 X41.382 Y50.902 Z0 F1600
G1 X40.939 Y51.116 Z0 F1600
G1 X40.501 Y51.458 Z0 F1600
G1 X40.115 Y51.968 Z0 F1600
G1 X39.878 Y52.639 Z0 F1600
G1 X39.875 Y53.366 Z0 F1600
G1 X39.935 Y53.549 Z0 F1600
G1 X39.946 Y53.896 Z0 F1600
G1 X39.974 Y54.591 Z0 F1600
G1 X40.042 Y55.08 Z0 F1600
G1 X40.183 Y55.605 Z0 F1600
G1 X40.167 Y55.626 Z0 F1600
G1 X39.876 Y56.233 Z0 F1600
G1 X39.785 Y56.837 Z0 F1600
G1 X39.853 Y57.431 Z0 F1600
G1 X40.009 Y57.81 Z0 F1600
G1 X39.869 Y57.967 Z0 F1600
G1 X39.595 Y58.479 Z0 F1600
G1 X39.357 Y58.226 Z0 F1600
G1 X39.387 Y57.979 Z0 F1600
G1 X39.26 Y57.281 Z0 F1600
G1 X38.986 Y56.702 Z0 F1600
G1 X38.634 Y56.251 Z0 F1600
G1 X38.397 Y56.042 Z0 F1600
G1 X38.864 Y55.902 Z0 F1600
G1 X39.12 Y54.237 Z0 F1600
G1 X38.904 Y53.47 Z0 F1600
G1 X38.617 Y53.012 Z0 F1600
G1 X38.47 Y52.835 Z0 F1600
G1 X38.378 Y52.39 Z0 F1600
G1 X37.844 Y51.643 Z0 F1600
G1 X37.174 Y51.202 Z0 F1600
G1 X36.527 Y51.007 Z0 F1600
G1 X35.93 Y50.963 Z0 F1600
G1 X35.352 Y51.034 Z0 F1600
G1 X34.769 Y51.228 Z0 F1600
G1 X33.47 Y52.052 Z0 F1600
G1 X33.519 Y52.5 Z0 F1600
G1 X33.402 Y52.639 Z0 F1600
G1 X32.989 Y52.505 Z0 F1600
G1 X31.73 Y53.819 Z0 F1600
G1 X31.497 Y54.834 Z0 F1600
G1 X31.638 Y55.565 Z0 F1600
G1 X31.81 Y55.98 Z0 F1600
G1 X31.831 Y56.023 Z0 F1600
G1 X31.814 Y56.099 Z0 F1600
G1 X31.838 Y56.337 Z0 F1600
G1 X31.416 Y56.636 Z0 F1600
G1 X31.007 Y57.086 Z0 F1600
G1 X30.819 Y57.429 Z0 F1600
G1 X30.659 Y57.708 Z0 F1600
G1 X30.503 Y58.174 Z0 F1600
G1 X30.447 Y58.637 Z0 F1600
G1 X30.475 Y59.1 Z0 F1600
G1 X30.619 Y59.643 Z0 F1600
G1 X30.787 Y60.035 Z0 F1600
G1 X30.823 Y60.113 Z0 F1600
G1 X30.723 Y60.356 Z0 F1600
G1 X30.702 Y60.416 Z0 F1600
G1 X29.029 Y60.504 Z0 F1600
G1 X28.787 Y62.552 Z0 F1600
G1 X28.44 Y62.626 Z0 F1600
G1 X27.96 Y62.788 Z0 F1600
G1 X27.528 Y63.024 Z0 F1600
G1 X27.421 Y62.911 Z0 F1600
G1 X27.283 Y62.723 Z0 F1600
G1 X27.255 Y62.614 Z0 F1600
G1 X27.214 Y62.256 Z0 F1600
G1 X27.209 Y61.821 Z0 F1600
G1 X27.235 Y61.306 Z0 F1600
G1 X27.279 Y60.729 Z0 F1600
G1 X27.32 Y60.086 Z0 F1600
G1 X27.33 Y59.379 Z0 F1600
G1 X27.287 Y58.778 Z0 F1600
G1 X27.268 Y57.206 Z0 F1600
G1 Y55.616 Z0 F1600
G1 X27.29 Y53.993 Z0 F1600
G1 Y53.913 Z0 F1600
G1 X27.906 Y53.633 Z0 F1600
G1 X28.46 Y53.127 Z0 F1600
G1 X28.61 Y53.066 Z0 F1600
G1 X29.126 Y52.745 Z0 F1600
G1 X29.709 Y52.035 Z0 F1600
G1 X29.881 Y50.979 Z0 F1600
G1 X29.848 Y50.88 Z0 F1600
G1 X30.063 Y50.609 Z0 F1600
G1 X30.396 Y50.658 Z0 F1600
G1 X30.715 Y50.716 Z0 F1600
G1 X31.936 Y51.029 Z0 F1600
G1 X32.91 Y50.238 Z0 F1600
G1 X33.278 Y49.732 Z0 F1600
G1 X33.465 Y49.125 Z0 F1600
G1 X33.788 Y49.196 Z0 F1600
G1 X34.304 Y49.225 Z0 F1600
G1 X34.635 Y49.184 Z0 F1600
G1 X35.209 Y49.146 Z0 F1600
G1 X35.91 Y49.143 Z0 F1600
G1 X36.402 Y49.112 Z0 F1600
G1 X36.959 Y49.02 Z0 F1600
G1 X37.576 Y48.822 Z0 F1600
G1 X38.434 Y48.343 Z0 F1600
G1 X39.033 Y48.442 Z0 F1600
G1 X39.846 Y48.515 Z0 F1600
G1 X40.682 Y48.52 Z0 F1600

; Color picking sequence
G1 Z10 F1000;         ; Raise brush to safe height
G0 X131 Y5 F1200;    ; Rapid move to color 1 position
G1 Z0 F1000;         ; Lower into color - controlled movement
G1 X130.102Y7.295Z0S800F1200
G1 X130.026Y7.642Z0F1200
G1 X130Y8Z0F1200
G1 X130.026Y8.358Z0F1200
G1 X130.102Y8.705Z0F1200
G1 X130.225Y9.041Z0F1200
G1 X130.393Y9.362Z0F1200
G1 X130.603Y9.668Z0F1200
G1 X130.854Y9.957Z0F1200
G1 X131.142Y10.226Z0F1200
G1 X131.464Y10.475Z0F1200
G1 X131.82Y10.701Z0F1200
G1 X132.204Y10.902Z0F1200
G1 X132.617Y11.078Z0F1200
G1 X133.054Y11.225Z0F1200
G1 X133.513Y11.343Z0F1200
G1 X133.992Y11.429Z0F1200
G1 X134.489Y11.482Z0F1200
G1 X135Y11.5Z0F1200
G1 X135.511Y11.482Z0F1200
G1 X136.008Y11.429Z0F1200
G1 X136.487Y11.343Z0F1200
G1 X136.946Y11.225Z0F1200
G1 X137.383Y11.078Z0F1200
G1 X137.796Y10.902Z0F1200
G1 X138.18Y10.701Z0F1200
G1 X138.536Y10.475Z0F1200
G1 X138.858Y10.226Z0F1200
G1 X139.146Y9.957Z0F1200
G1 X139.397Y9.668Z0F1200
G1 X139.607Y9.362Z0F1200
G1 X139.775Y9.041Z0F1200
G1 X139.898Y8.705Z0F1200
G1 X139.974Y8.358Z0F1200
G1 X140Y8Z0F1200
G1 X139.974Y7.642Z0F1200
G1 X139.898Y7.295Z0F1200
G1 X139.775Y6.959Z0F1200
G1 X139.607Y6.638Z0F1200
G1 X139.397Y6.332Z0F1200
G1 X139.146Y6.043Z0F1200
G1 X138.858Y5.774Z0F1200
G1 X138.536Y5.525Z0F1200
G1 X138.18Y5.299Z0F1200
G1 X137.796Y5.098Z0F1200
G1 X137.383Y4.922Z0F1200
G1 X136.946Y4.775Z0F1200
G1 X136.487Y4.657Z0F1200
G1 X136.008Y4.571Z0F1200
G1 X135.511Y4.518Z0F1200
G1 X135Y4.5Z0F1200
G1 X134.489Y4.518Z0F1200
G1 X133.992Y4.571Z0F1200
G1 X133.513Y4.657Z0F1200
G1 X133.054Y4.775Z0F1200
G1 X132.617Y4.922Z0F1200
G1 X132.204Y5.098Z0F1200
G1 X131.82Y5.299Z0F1200
G1 X131.464Y5.525Z0F1200
G1 X131.142Y5.774Z0F1200
G1 X130.854Y6.043Z0F1200
G1 X130.603Y6.332Z0F1200
G1 X130.393Y6.638Z0F1200
G1 X130.225Y6.959Z0F1200
G1 Z7 F800;         ; Raise from color - controlled movement
G1 X124 Y8 Z1 F1200;     ; Movement in paint - controlled movement
G1 X114 Y18 Z8 F500;     ; Move in paint - controlled movement
G1 F1200;           ; Set feed rate to 1000
G0 Z3.5 F1000
G0 X44.671 Y47.76 Z3.5 
G1 Z0 F1000
G1 X45.302 Y47.745 Z0 F1600
G1 X46.291 Y47.638 Z0 F1600
G1 X46.643 Y47.169 Z0 F1600
G1 X46.855 Y47.276 Z0 F1600
G1 X47.304 Y47.343 Z0 F1600
G1 X47.681 Y47.321 Z0 F1600
G1 X48.167 Y47.23 Z0 F1600
G1 X48.545 Y47.196 Z0 F1600
G1 X49.294 Z0 F1600
G1 X50.116 Y47.267 Z0 F1600
G1 X50.584 Y47.294 Z0 F1600
G1 X51.084 Y47.288 Z0 F1600
G1 X51.613 Y47.222 Z0 F1600
G1 X51.925 Y47.134 Z0 F1600
G1 X51.991 Y47.223 Z0 F1600
G1 X52.283 Y47.455 Z0 F1600
G1 X52.581 Y47.598 Z0 F1600
G1 X52.84 Y47.674 Z0 F1600
G1 X52.859 Y47.756 Z0 F1600
G1 X53.023 Y48.069 Z0 F1600
G1 X53.246 Y48.334 Z0 F1600
G1 X53.523 Y48.537 Z0 F1600
G1 X53.533 Y48.552 Z0 F1600
G1 X53.689 Y48.772 Z0 F1600
G1 X53.693 Y48.779 Z0 F1600
G1 X53.619 Y48.916 Z0 F1600
G1 X53.52 Y49.171 Z0 F1600
G1 X53.464 Y49.5 Z0 F1600
G1 X53.476 Y49.637 Z0 F1600
G1 X53.447 Y49.797 Z0 F1600
G1 X53.485 Y50.148 Z0 F1600
G1 X53.556 Y50.392 Z0 F1600
G1 X53.566 Y50.419 Z0 F1600
G1 X53.547 Y50.45 Z0 F1600
G1 X53.449 Y51.048 Z0 F1600
G1 X53.598 Y51.594 Z0 F1600
G1 X53.897 Y51.979 Z0 F1600
G1 X54.22 Y52.222 Z0 F1600
G1 X54.572 Y52.4 Z0 F1600
G1 X54.705 Y52.829 Z0 F1600
G1 X54.967 Y53.29 Z0 F1600
G1 X55.322 Y53.685 Z0 F1600
G1 X55.77 Y53.999 Z0 F1600
G1 X56.278 Y54.182 Z0 F1600
G1 X56.611 Y54.22 Z0 F1600
G1 X56.924 Y54.205 Z0 F1600
G1 X57.237 Y54.132 Z0 F1600
G1 X57.349 Y54.085 Z0 F1600
G1 X57.353 Z0 F1600
G1 X57.301 Y54.32 Z0 F1600
G1 Y54.753 Z0 F1600
G1 X57.35 Y54.93 Z0 F1600
G1 Y54.94 Z0 F1600
G1 X57.271 Y55.124 Z0 F1600
G1 X57.182 Y55.342 Z0 F1600
G1 X57.103 Y55.663 Z0 F1600
G1 Y56.068 Z0 F1600
G1 X57.242 Y56.532 Z0 F1600
G1 X57.809 Y57.251 Z0 F1600
G1 X58.029 Y57.467 Z0 F1600
G1 X58.316 Y57.667 Z0 F1600
G1 X58.531 Y57.754 Z0 F1600
G1 X58.417 Y57.758 Z0 F1600
G1 X57.797 Y57.783 Z0 F1600
G1 X57.598 Y57.769 Z0 F1600
G1 X57.588 Y57.757 Z0 F1600
G1 X57.08 Y57.528 Z0 F1600
G1 X56.609 Y57.507 Z0 F1600
G1 X56.205 Y57.592 Z0 F1600
G1 X55.654 Y57.838 Z0 F1600
G1 X55.255 Y58.104 Z0 F1600
G1 X55.039 Y58.267 Z0 F1600
G1 X54.817 Y58.553 Z0 F1600
G1 X54.688 Y58.891 Z0 F1600
G1 X54.676 Y59.041 Z0 F1600
G1 X54.429 Y59.242 Z0 F1600
G1 X54.201 Y59.521 Z0 F1600
G1 X54.034 Y59.873 Z0 F1600
G1 X53.987 Y60.112 Z0 F1600
G1 X53.928 Y60.294 Z0 F1600
G1 X53.839 Y60.446 Z0 F1600
G1 X53.666 Y60.688 Z0 F1600
G1 X53.384 Y61.113 Z0 F1600
G1 Y61.117 Z0 F1600
G1 X53.301 Y60.92 Z0 F1600
G1 X53.188 Y60.794 Z0 F1600
G1 X53.162 Y60.677 Z0 F1600
G1 X52.956 Y60.259 Z0 F1600
G1 X52.676 Y59.898 Z0 F1600
G1 X52.321 Y59.593 Z0 F1600
G1 X51.87 Y59.362 Z0 F1600
G1 X51.359 Y59.282 Z0 F1600
G1 X51.011 Y59.331 Z0 F1600
G1 X50.709 Y59.444 Z0 F1600
G1 X50.439 Y59.622 Z0 F1600
G1 X50.34 Y59.721 Z0 F1600
G1 X50.144 Y59.847 Z0 F1600
G1 X49.942 Y59.918 Z0 F1600
G1 X49.933 Z0 F1600
G1 X49.918 Z0 F1600
G1 X49.91 Y59.915 Z0 F1600
G1 X49.527 Y59.686 Z0 F1600
G1 X48.736 Y59.807 Z0 F1600
G1 X48.535 Y59.891 Z0 F1600
G1 X48.463 Y59.766 Z0 F1600
G1 X48.085 Y59.323 Z0 F1600
G1 X47.643 Y58.958 Z0 F1600
G1 X47.599 Y58.934 Z0 F1600
G1 X47.592 Y58.67 Z0 F1600
G1 X47.613 Y58.319 Z0 F1600
G1 X47.658 Y57.95 Z0 F1600
G1 X47.793 Y57.125 Z0 F1600
G1 X47.942 Y56.069 Z0 F1600
G1 X47.729 Y55.469 Z0 F1600
G1 X47.342 Y55.09 Z0 F1600
G1 X46.966 Y54.916 Z0 F1600
G1 X46.625 Y54.821 Z0 F1600
G1 X46.328 Y54.227 Z0 F1600
G1 X46.003 Y53.62 Z0 F1600
G1 X45.735 Y53.052 Z0 F1600
G1 X45.461 Y52.204 Z0 F1600
G1 X44.93 Y51.737 Z0 F1600
G1 X44.417 Y51.518 Z0 F1600
G1 X43.924 Y51.447 Z0 F1600
G1 X43.472 Y51.459 Z0 F1600
G1 X42.772 Y51.568 Z0 F1600
G1 X42.196 Y51.646 Z0 F1600
G1 X41.989 Y51.667 Z0 F1600
G1 X41.701 Y51.748 Z0 F1600
G1 X41.418 Y51.884 Z0 F1600
G1 X41.148 Y52.096 Z0 F1600
G1 X40.917 Y52.4 Z0 F1600
G1 X40.777 Y52.794 Z0 F1600
G1 Y53.225 Z0 F1600
G1 X40.83 Y53.391 Z0 F1600
G1 X40.846 Y53.862 Z0 F1600
G1 X40.872 Y54.51 Z0 F1600
G1 X40.926 Y54.901 Z0 F1600
G1 X41.035 Y55.307 Z0 F1600
G1 X41.221 Y55.721 Z0 F1600
G1 X41.226 Y55.728 Z0 F1600
G1 X41.152 Y55.817 Z0 F1600
G1 X40.938 Y56.098 Z0 F1600
G1 X40.747 Y56.5 Z0 F1600
G1 X40.693 Y56.854 Z0 F1600
G1 X40.733 Y57.204 Z0 F1600
G1 X40.866 Y57.528 Z0 F1600
G1 X41.094 Y57.844 Z0 F1600
G1 X41.106 Y57.873 Z0 F1600
G1 X41.111 Y57.9 Z0 F1600
G1 Y57.931 Z0 F1600
G1 X41.1 Y57.972 Z0 F1600
G1 X41.083 Y58.005 Z0 F1600
G1 X41.057 Y58.039 Z0 F1600
G1 X40.891 Y58.175 Z0 F1600
G1 X40.611 Y58.487 Z0 F1600
G1 X40.403 Y58.875 Z0 F1600
G1 X40.294 Y59.283 Z0 F1600
G1 X40.272 Y59.69 Z0 F1600
G1 X40.33 Y60.082 Z0 F1600
G1 X40.454 Y60.45 Z0 F1600
G1 X40.617 Y60.749 Z0 F1600
G1 X40.384 Y60.857 Z0 F1600
G1 X40.103 Y61.087 Z0 F1600
G1 X39.82 Y61.493 Z0 F1600
G1 X39.781 Y61.594 Z0 F1600
G1 X39.7 Y61.652 Z0 F1600
G1 X39.327 Y61.945 Z0 F1600
G1 X39.075 Y62.259 Z0 F1600
G1 X39.052 Y62.32 Z0 F1600
G1 X39.026 Y62.272 Z0 F1600
G1 X38.983 Y62.148 Z0 F1600
G1 X38.963 Y62.045 Z0 F1600
G1 Y62.002 Z0 F1600
G1 X39.108 Y61.8 Z0 F1600
G1 X39.234 Y61.294 Z0 F1600
G1 X39.219 Y60.874 Z0 F1600
G1 X39.162 Y60.564 Z0 F1600
G1 X39.118 Y60.35 Z0 F1600
G1 X39.106 Y60.258 Z0 F1600
G1 X39.316 Y59.785 Z0 F1600
G1 X38.954 Y59.11 Z0 F1600
G1 X38.686 Y58.826 Z0 F1600
G1 X38.461 Y58.643 Z0 F1600
G1 X38.377 Y58.576 Z0 F1600
G1 X38.419 Y58.482 Z0 F1600
G1 X38.478 Y58.006 Z0 F1600
G1 X38.396 Y57.558 Z0 F1600
G1 X38.216 Y57.178 Z0 F1600
G1 X37.975 Y56.87 Z0 F1600
G1 X37.7 Y56.626 Z0 F1600
G1 X37.399 Y56.434 Z0 F1600
G1 X37.114 Y56.308 Z0 F1600
G1 X36.677 Y56.145 Z0 F1600
G1 X36.164 Y56.11 Z0 F1600
G1 X35.743 Y56.154 Z0 F1600
G1 X35.407 Y56.212 Z0 F1600
G1 X35.18 Y56.243 Z0 F1600
G1 X35.152 Z0 F1600
G1 X35.164 Y56.202 Z0 F1600
G1 X35.167 Y56.198 Z0 F1600
G1 X35.381 Y56.174 Z0 F1600
G1 X36.026 Y55.924 Z0 F1600
G1 X36.555 Y55.699 Z0 F1600
G1 X37.018 Y55.516 Z0 F1600
G1 X38.061 Y55.203 Z0 F1600
G1 X38.2 Y54.293 Z0 F1600
G1 X38.073 Y53.838 Z0 F1600
G1 X37.887 Y53.542 Z0 F1600
G1 X37.732 Y53.355 Z0 F1600
G1 X37.633 Y53.243 Z0 F1600
G1 Y53.24 Z0 F1600
G1 X37.627 Y53.205 Z0 F1600
G1 X37.535 Y52.758 Z0 F1600
G1 X37.209 Y52.302 Z0 F1600
G1 X36.789 Y52.026 Z0 F1600
G1 X36.362 Y51.897 Z0 F1600
G1 X35.951 Y51.867 Z0 F1600
G1 X35.551 Y51.916 Z0 F1600
G1 X35.158 Y52.047 Z0 F1600
G1 X34.425 Y52.512 Z0 F1600
G1 X34.484 Y53.048 Z0 F1600
G1 X34.171 Y53.123 Z0 F1600
G1 X33.773 Y53.6 Z0 F1600
G1 X33.693 Y53.68 Z0 F1600
G1 X33.248 Y53.536 Z0 F1600
G1 X32.552 Y54.262 Z0 F1600
G1 X32.417 Y54.851 Z0 F1600
G1 X32.504 Y55.305 Z0 F1600
G1 X32.629 Y55.608 Z0 F1600
G1 X32.727 Y55.804 Z0 F1600
G1 X32.776 Y55.914 Z0 F1600
G1 X32.724 Y56.153 Z0 F1600
G1 X32.767 Y56.589 Z0 F1600
G1 X32.853 Y56.892 Z0 F1600
G1 X32.641 Y56.948 Z0 F1600
G1 X32.319 Y57.099 Z0 F1600
G1 X32.016 Y57.313 Z0 F1600
G1 X31.745 Y57.612 Z0 F1600
G1 X31.599 Y57.878 Z0 F1600
G1 X31.483 Y58.079 Z0 F1600
G1 X31.386 Y58.372 Z0 F1600
G1 X31.35 Y58.664 Z0 F1600
G1 X31.368 Y58.956 Z0 F1600
G1 X31.472 Y59.349 Z0 F1600
G1 X31.608 Y59.667 Z0 F1600
G1 X31.712 Y59.89 Z0 F1600
G1 X31.766 Y60.033 Z0 F1600
G1 X31.771 Y60.061 Z0 F1600
G1 X31.761 Y60.125 Z0 F1600
G1 X31.692 Y60.367 Z0 F1600
G1 X31.565 Y60.674 Z0 F1600
G1 X31.481 Y60.917 Z0 F1600
G1 X31.417 Y61.218 Z0 F1600
G1 X31.413 Y61.312 Z0 F1600
G1 X31.122 Y61.294 Z0 F1600
G1 X29.834 Y61.362 Z0 F1600
G1 X29.679 Y62.675 Z0 F1600
G1 X29.648 Y63.218 Z0 F1600
G1 X29.641 Y63.255 Z0 F1600
G1 X29.195 Y63.385 Z0 F1600
G1 X28.679 Y63.496 Z0 F1600
G1 X28.322 Y63.616 Z0 F1600
G1 X27.942 Y63.824 Z0 F1600
G1 X27.586 Y64.158 Z0 F1600
G1 X27.54 Y64.236 Z0 F1600
G1 X27.329 Y64.085 Z0 F1600
G1 X27.133 Y63.919 Z0 F1600
G1 X26.725 Y63.483 Z0 F1600
G1 X26.455 Y63.117 Z0 F1600
G1 X26.368 Y62.781 Z0 F1600
G1 X26.315 Y62.31 Z0 F1600
G1 X26.309 Y61.8 Z0 F1600
G1 X26.337 Y61.25 Z0 F1600
G1 X26.381 Y60.667 Z0 F1600
G1 X26.42 Y60.051 Z0 F1600
G1 X26.43 Y59.406 Z0 F1600
G1 X26.387 Y58.818 Z0 F1600
G1 X26.368 Y57.217 Z0 F1600
G1 Y55.603 Z0 F1600
G1 X26.389 Y53.984 Z0 F1600
G1 X26.418 Y53.155 Z0 F1600
G1 X26.604 Y53.145 Z0 F1600
G1 X26.988 Y53.062 Z0 F1600
G1 X27.403 Y52.873 Z0 F1600
G1 X27.783 Y52.526 Z0 F1600
G1 X27.848 Y52.405 Z0 F1600
G1 X27.853 Y52.402 Z0 F1600
G1 X28.2 Y52.261 Z0 F1600
G1 X28.524 Y52.059 Z0 F1600
G1 X28.859 Y51.651 Z0 F1600
G1 X28.957 Y51.053 Z0 F1600
G1 X28.757 Y50.45 Z0 F1600
G1 X28.842 Y50.427 Z0 F1600
G1 X29.241 Y50.197 Z0 F1600
G1 X29.573 Y49.777 Z0 F1600
G1 X29.611 Y49.633 Z0 F1600
G1 X30.539 Y49.769 Z0 F1600
G1 X30.911 Y49.837 Z0 F1600
G1 X31.72 Y50.045 Z0 F1600
G1 X32.251 Y49.613 Z0 F1600
G1 X32.462 Y49.323 Z0 F1600
G1 X32.574 Y48.96 Z0 F1600
G1 X32.562 Y48.577 Z0 F1600
G1 X32.408 Y48.183 Z0 F1600
G1 X32.33 Y48.064 Z0 F1600
G1 X32.488 Y47.963 Z0 F1600
G1 X32.759 Y47.843 Z0 F1600
G1 X32.839 Y47.89 Z0 F1600
G1 X33.284 Y48.12 Z0 F1600
G1 X33.585 Y48.229 Z0 F1600
G1 X33.912 Y48.302 Z0 F1600
G1 X34.273 Y48.322 Z0 F1600
G1 X34.548 Y48.288 Z0 F1600
G1 X35.177 Y48.246 Z0 F1600
G1 X35.88 Y48.243 Z0 F1600
G1 X36.3 Y48.217 Z0 F1600
G1 X36.747 Y48.143 Z0 F1600
G1 X37.216 Y47.992 Z0 F1600
G1 X37.794 Y47.669 Z0 F1600
G1 X37.968 Y47.392 Z0 F1600
G1 X38.131 Y47.381 Z0 F1600
G1 X39.147 Y47.549 Z0 F1600
G1 X39.89 Y47.616 Z0 F1600
G1 X40.642 Y47.62 Z0 F1600
G1 X41.289 Y47.559 Z0 F1600
G1 X42.339 Y47.595 Z0 F1600
G1 X43.463 Y47.694 Z0 F1600
G1 X44.058 Y47.738 Z0 F1600
G1 X44.671 Y47.76 Z0 F1600
G0 Z3.5 F1000
G0 X59.973 Y57.664 Z3.5 
G1 Z0 F1000
G1 X59.939 Y57.812 Z0 F1600
G1 X59.935 Y57.879 Z0 F1600
G1 X59.596 Y57.8 Z0 F1600
G1 X59.587 Z0 F1600
G1 X59.652 Y57.79 Z0 F1600
G1 X59.973 Y57.664 Z0 F1600
G0 Z3.5 F1000
G0 X61.078 Y57.376 Z3.5 
G1 Z0 F1000
G1 X60.96 Y57.546 Z0 F1600
G1 X60.88 Y57.737 Z0 F1600
G1 X60.833 Y57.942 Z0 F1600
G1 X60.819 Y58.153 Z0 F1600
G1 X60.837 Y58.362 Z0 F1600
G1 X60.885 Y58.561 Z0 F1600
G1 X60.962 Y58.742 Z0 F1600
G1 X61.066 Y58.897 Z0 F1600
G1 X60.937 Y58.955 Z0 F1600
G1 X60.785 Y58.983 Z0 F1600
G1 X60.617 Z0 F1600
G1 X60.439 Y58.966 Z0 F1600
G1 X60.082 Y58.881 Z0 F1600
G1 X59.766 Y58.764 Z0 F1600
G1 X59.444 Y58.689 Z0 F1600
G1 X59.116 Y58.653 Z0 F1600
G1 X58.783 Y58.647 Z0 F1600
G1 X58.449 Y58.658 Z0 F1600
G1 X57.786 Y58.684 Z0 F1600
G1 X57.148 Y58.641 Z0 F1600
G1 X57.026 Y58.491 Z0 F1600
G1 X56.867 Y58.419 Z0 F1600
G1 X56.682 Y58.411 Z0 F1600
G1 X56.484 Y58.453 Z0 F1600
G1 X56.09 Y58.629 Z0 F1600
G1 X55.776 Y58.838 Z0 F1600
G1 X55.677 Y58.913 Z0 F1600
G1 X55.61 Y58.999 Z0 F1600
G1 X55.575 Y59.092 Z0 F1600
G1 X55.567 Y59.188 Z0 F1600
G1 X55.628 Y59.371 Z0 F1600
G1 X55.777 Y59.514 Z0 F1600
G1 X55.479 Y59.63 Z0 F1600
G1 X55.191 Y59.782 Z0 F1600
G1 X55.067 Y59.883 Z0 F1600
G1 X54.967 Y60.005 Z0 F1600
G1 X54.896 Y60.155 Z0 F1600
G1 X54.861 Y60.337 Z0 F1600
G1 X54.754 Y60.664 Z0 F1600
G1 X54.592 Y60.941 Z0 F1600
G1 X54.406 Y61.199 Z0 F1600
G1 X54.229 Y61.468 Z0 F1600
G1 X54.19 Y61.647 Z0 F1600
G1 X54.244 Y61.82 Z0 F1600
G1 X54.333 Y61.963 Z0 F1600
G1 X54.4 Y62.048 Z0 F1600
G1 X54.025 Y62.265 Z0 F1600
G1 X53.61 Y62.409 Z0 F1600
G1 X53.406 Y62.423 Z0 F1600
G1 X53.211 Y62.384 Z0 F1600
G1 X53.035 Y62.278 Z0 F1600
G1 X52.883 Y62.094 Z0 F1600
G1 X52.722 Y61.885 Z0 F1600
G1 X52.627 Y61.644 Z0 F1600
G1 X52.53 Y61.409 Z0 F1600
G1 X52.36 Y61.221 Z0 F1600
G1 X52.306 Y60.977 Z0 F1600
G1 X52.188 Y60.738 Z0 F1600
G1 X52.021 Y60.521 Z0 F1600
G1 X51.816 Y60.345 Z0 F1600
G1 X51.588 Y60.229 Z0 F1600
G1 X51.352 Y60.192 Z0 F1600
G1 X51.234 Y60.208 Z0 F1600
G1 X51.12 Y60.251 Z0 F1600
G1 X51.01 Y60.324 Z0 F1600
G1 X50.906 Y60.427 Z0 F1600
G1 X50.542 Y60.66 Z0 F1600
G1 X50.145 Y60.802 Z0 F1600
G1 X49.94 Y60.824 Z0 F1600
G1 X49.737 Y60.805 Z0 F1600
G1 X49.537 Y60.741 Z0 F1600
G1 X49.343 Y60.625 Z0 F1600
G1 X48.981 Y60.68 Z0 F1600
G1 X48.616 Y60.832 Z0 F1600
G1 X48.437 Y60.885 Z0 F1600
G1 X48.264 Y60.89 Z0 F1600
G1 X48.098 Y60.823 Z0 F1600
G1 X47.941 Y60.66 Z0 F1600
G1 X47.726 Y60.288 Z0 F1600
G1 X47.452 Y59.968 Z0 F1600
G1 X47.128 Y59.701 Z0 F1600
G1 X46.759 Y59.488 Z0 F1600
G1 X46.702 Y59.073 Z0 F1600
G1 X46.691 Y58.657 Z0 F1600
G1 X46.716 Y58.24 Z0 F1600
G1 X46.767 Y57.822 Z0 F1600
G1 X46.903 Y56.989 Z0 F1600
G1 X47.02 Y56.163 Z0 F1600
G1 X46.95 Y55.966 Z0 F1600
G1 X46.822 Y55.841 Z0 F1600
G1 X46.654 Y55.763 Z0 F1600
G1 X46.271 Y55.656 Z0 F1600
G1 X46.09 Y55.581 Z0 F1600
G1 X45.942 Y55.46 Z0 F1600
G1 X45.843 Y55.27 Z0 F1600
G1 X45.529 Y54.641 Z0 F1600
G1 X45.196 Y54.019 Z0 F1600
G1 X44.897 Y53.385 Z0 F1600
G1 X44.681 Y52.716 Z0 F1600
G1 X44.444 Y52.508 Z0 F1600
G1 X44.171 Y52.392 Z0 F1600
G1 X43.872 Y52.349 Z0 F1600
G1 X43.554 Y52.357 Z0 F1600
G1 X42.904 Y52.458 Z0 F1600
G1 X42.297 Y52.541 Z0 F1600
G1 X42.155 Y52.555 Z0 F1600
G1 X42.02 Y52.593 Z0 F1600
G1 X41.897 Y52.652 Z0 F1600
G1 X41.794 Y52.733 Z0 F1600
G1 X41.718 Y52.833 Z0 F1600
G1 X41.677 Y52.95 Z0 F1600
G1 Y53.084 Z0 F1600
G1 X41.725 Y53.233 Z0 F1600
G1 X41.745 Y53.829 Z0 F1600
G1 X41.769 Y54.43 Z0 F1600
G1 X41.81 Y54.722 Z0 F1600
G1 X41.885 Y55.004 Z0 F1600
G1 X42.005 Y55.271 Z0 F1600
G1 X42.182 Y55.52 Z0 F1600
G1 X42.217 Y55.642 Z0 F1600
G1 X42.22 Y55.758 Z0 F1600
G1 X42.197 Y55.869 Z0 F1600
G1 X42.153 Y55.976 Z0 F1600
G1 X42.019 Y56.18 Z0 F1600
G1 X41.858 Y56.375 Z0 F1600
G1 X41.711 Y56.569 Z0 F1600
G1 X41.616 Y56.768 Z0 F1600
G1 X41.601 Y56.871 Z0 F1600
G1 X41.613 Y56.977 Z0 F1600
G1 X41.658 Y57.087 Z0 F1600
G1 X41.885 Y57.401 Z0 F1600
G1 X41.975 Y57.616 Z0 F1600
G1 X42.015 Y57.841 Z0 F1600
G1 X42.005 Y58.067 Z0 F1600
G1 X41.949 Y58.286 Z0 F1600
G1 X41.847 Y58.491 Z0 F1600
G1 X41.702 Y58.674 Z0 F1600
G1 X41.515 Y58.827 Z0 F1600
G1 X41.354 Y59.007 Z0 F1600
G1 X41.246 Y59.209 Z0 F1600
G1 X41.188 Y59.425 Z0 F1600
G1 X41.176 Y59.648 Z0 F1600
G1 X41.208 Y59.872 Z0 F1600
G1 X41.281 Y60.088 Z0 F1600
G1 X41.392 Y60.291 Z0 F1600
G1 X41.537 Y60.472 Z0 F1600
G1 X41.643 Y60.622 Z0 F1600
G1 X41.718 Y60.79 Z0 F1600
G1 X41.757 Y60.964 Z0 F1600
G1 Y61.135 Z0 F1600
G1 X41.711 Y61.291 Z0 F1600
G1 X41.617 Y61.421 Z0 F1600
G1 X41.469 Y61.515 Z0 F1600
G1 X41.264 Y61.562 Z0 F1600
G1 X41.112 Y61.549 Z0 F1600
G1 X40.98 Y61.572 Z0 F1600
G1 X40.866 Y61.625 Z0 F1600
G1 X40.769 Y61.705 Z0 F1600
G1 X40.621 Y61.917 Z0 F1600
G1 X40.524 Y62.169 Z0 F1600
G1 X40.24 Y62.372 Z0 F1600
G1 X39.964 Y62.588 Z0 F1600
G1 X39.865 Y62.713 Z0 F1600
G1 X39.81 Y62.855 Z0 F1600
G1 X39.814 Y63.02 Z0 F1600
G1 X39.892 Y63.211 Z0 F1600
G1 X39.878 Y63.443 Z0 F1600
G1 X39.794 Y63.618 Z0 F1600
G1 X39.658 Y63.737 Z0 F1600
G1 X39.484 Y63.802 Z0 F1600
G1 X39.29 Y63.813 Z0 F1600
G1 X39.093 Y63.775 Z0 F1600
G1 X38.91 Y63.687 Z0 F1600
G1 X38.757 Y63.552 Z0 F1600
G1 X38.461 Y63.124 Z0 F1600
G1 X38.2 Y62.636 Z0 F1600
G1 X38.11 Y62.38 Z0 F1600
G1 X38.062 Y62.123 Z0 F1600
G1 X38.066 Y61.867 Z0 F1600
G1 X38.133 Y61.617 Z0 F1600
G1 X38.276 Y61.417 Z0 F1600
G1 X38.33 Y61.2 Z0 F1600
G1 X38.322 Y60.972 Z0 F1600
G1 X38.279 Y60.737 Z0 F1600
G1 X38.229 Y60.5 Z0 F1600
G1 X38.2 Y60.265 Z0 F1600
G1 X38.22 Y60.038 Z0 F1600
G1 X38.315 Y59.823 Z0 F1600
G1 X38.217 Y59.641 Z0 F1600
G1 X38.071 Y59.486 Z0 F1600
G1 X37.898 Y59.345 Z0 F1600
G1 X37.723 Y59.207 Z0 F1600
G1 X37.567 Y59.06 Z0 F1600
G1 X37.454 Y58.894 Z0 F1600
G1 X37.406 Y58.695 Z0 F1600
G1 X37.447 Y58.454 Z0 F1600
G1 X37.542 Y58.24 Z0 F1600
G1 X37.567 Y58.032 Z0 F1600
G1 X37.532 Y57.836 Z0 F1600
G1 X37.445 Y57.653 Z0 F1600
G1 X37.317 Y57.489 Z0 F1600
G1 X37.156 Y57.347 Z0 F1600
G1 X36.972 Y57.229 Z0 F1600
G1 X36.774 Y57.142 Z0 F1600
G1 X36.486 Y57.034 Z0 F1600
G1 X36.18 Y57.014 Z0 F1600
G1 X35.866 Y57.046 Z0 F1600
G1 X35.549 Y57.101 Z0 F1600
G1 X35.239 Y57.143 Z0 F1600
G1 X34.941 Z0 F1600
G1 X34.799 Y57.114 Z0 F1600
G1 X34.664 Y57.063 Z0 F1600
G1 X34.535 Y56.984 Z0 F1600
G1 X34.414 Y56.874 Z0 F1600
G1 X34.293 Y56.633 Z0 F1600
G1 X34.242 Y56.369 Z0 F1600
G1 X34.256 Y56.1 Z0 F1600
G1 X34.331 Y55.843 Z0 F1600
G1 X34.464 Y55.617 Z0 F1600
G1 X34.65 Y55.438 Z0 F1600
G1 X34.885 Y55.324 Z0 F1600
G1 X35.165 Y55.292 Z0 F1600
G1 X35.688 Y55.09 Z0 F1600
G1 X36.206 Y54.869 Z0 F1600
G1 X36.726 Y54.664 Z0 F1600
G1 X37.257 Y54.504 Z0 F1600
G1 X37.281 Y54.349 Z0 F1600
G1 X37.241 Y54.206 Z0 F1600
G1 X37.157 Y54.071 Z0 F1600
G1 X37.047 Y53.939 Z0 F1600
G1 X36.931 Y53.806 Z0 F1600
G1 X36.827 Y53.666 Z0 F1600
G1 X36.757 Y53.515 Z0 F1600
G1 X36.738 Y53.347 Z0 F1600
G1 X36.692 Y53.127 Z0 F1600
G1 X36.575 Y52.962 Z0 F1600
G1 X36.404 Y52.85 Z0 F1600
G1 X36.197 Y52.788 Z0 F1600
G1 X35.973 Y52.771 Z0 F1600
G1 X35.75 Y52.798 Z0 F1600
G1 X35.547 Y52.866 Z0 F1600
G1 X35.381 Y52.971 Z0 F1600
G1 X35.4 Y53.145 Z0 F1600
G1 X35.381 Y53.31 Z0 F1600
G1 X35.328 Y53.463 Z0 F1600
G1 X35.243 Y53.602 Z0 F1600
G1 X35.131 Y53.722 Z0 F1600
G1 X34.997 Y53.818 Z0 F1600
G1 X34.841 Y53.889 Z0 F1600
G1 X34.67 Y53.929 Z0 F1600
G1 X34.438 Y54.208 Z0 F1600
G1 X34.174 Y54.472 Z0 F1600
G1 X34.027 Y54.568 Z0 F1600
G1 X33.868 Y54.624 Z0 F1600
G1 X33.695 Y54.627 Z0 F1600
G1 X33.507 Y54.566 Z0 F1600
G1 X33.374 Y54.706 Z0 F1600
G1 X33.336 Y54.867 Z0 F1600
G1 X33.371 Y55.045 Z0 F1600
G1 X33.449 Y55.235 Z0 F1600
G1 X33.546 Y55.43 Z0 F1600
G1 X33.634 Y55.625 Z0 F1600
G1 X33.688 Y55.816 Z0 F1600
G1 X33.68 Y55.997 Z0 F1600
G1 X33.634 Y56.207 Z0 F1600
G1 X33.655 Y56.421 Z0 F1600
G1 X33.716 Y56.638 Z0 F1600
G1 X33.792 Y56.854 Z0 F1600
G1 X33.858 Y57.065 Z0 F1600
G1 X33.886 Y57.268 Z0 F1600
G1 X33.852 Y57.458 Z0 F1600
G1 X33.73 Y57.633 Z0 F1600
G1 X33.335 Y57.695 Z0 F1600
G1 X32.95 Y57.797 Z0 F1600
G1 X32.773 Y57.88 Z0 F1600
G1 X32.616 Y57.991 Z0 F1600
G1 X32.482 Y58.139 Z0 F1600
G1 X32.378 Y58.328 Z0 F1600
G1 X32.309 Y58.449 Z0 F1600
G1 X32.268 Y58.571 Z0 F1600
G1 X32.253 Y58.691 Z0 F1600
G1 X32.261 Y58.813 Z0 F1600
G1 X32.325 Y59.055 Z0 F1600
G1 X32.43 Y59.299 Z0 F1600
G1 X32.545 Y59.546 Z0 F1600
G1 X32.639 Y59.797 Z0 F1600
G1 X32.682 Y60.054 Z0 F1600
G1 X32.643 Y60.317 Z0 F1600
G1 X32.544 Y60.661 Z0 F1600
G1 X32.407 Y60.993 Z0 F1600
G1 X32.35 Y61.16 Z0 F1600
G1 X32.313 Y61.33 Z0 F1600
G1 X32.307 Y61.506 Z0 F1600
G1 X32.341 Y61.69 Z0 F1600
G1 X32.307 Y61.84 Z0 F1600
G1 X32.254 Y61.96 Z0 F1600
G1 X32.185 Y62.054 Z0 F1600
G1 X32.1 Y62.124 Z0 F1600
G1 X31.892 Y62.205 Z0 F1600
G1 X31.649 Y62.228 Z0 F1600
G1 X31.119 Y62.196 Z0 F1600
G1 X30.639 Y62.221 Z0 F1600
G1 X30.576 Y62.753 Z0 F1600
G1 X30.543 Y63.338 Z0 F1600
G1 X30.486 Y63.607 Z0 F1600
G1 X30.373 Y63.839 Z0 F1600
G1 X30.289 Y63.935 Z0 F1600
G1 X30.183 Y64.015 Z0 F1600
G1 X30.053 Y64.077 Z0 F1600
G1 X29.896 Y64.118 Z0 F1600
G1 X29.415 Y64.259 Z0 F1600
G1 X28.917 Y64.365 Z0 F1600
G1 X28.685 Y64.443 Z0 F1600
G1 X28.474 Y64.559 Z0 F1600
G1 X28.295 Y64.726 Z0 F1600
G1 X28.157 Y64.96 Z0 F1600
G1 X28.062 Y65.085 Z0 F1600
G1 X27.949 Y65.199 Z0 F1600
G1 X27.816 Y65.278 Z0 F1600
G1 X27.66 Y65.299 Z0 F1600
G1 X27.348 Y65.164 Z0 F1600
G1 X27.052 Y64.994 Z0 F1600
G1 X26.772 Y64.794 Z0 F1600
G1 X26.51 Y64.57 Z0 F1600
G1 X26.034 Y64.063 Z0 F1600
G1 X25.626 Y63.51 Z0 F1600
G1 X25.48 Y62.944 Z0 F1600
G1 X25.416 Y62.367 Z0 F1600
G1 X25.409 Y61.783 Z0 F1600
G1 X25.438 Y61.194 Z0 F1600
G1 X25.483 Y60.604 Z0 F1600
G1 X25.521 Y60.016 Z0 F1600
G1 X25.529 Y59.433 Z0 F1600
G1 X25.487 Y58.859 Z0 F1600
G1 X25.468 Y57.228 Z0 F1600
G1 Y55.59 Z0 F1600
G1 X25.49 Y53.953 Z0 F1600
G1 X25.546 Y52.319 Z0 F1600
G1 X26.005 Y52.278 Z0 F1600
G1 X26.482 Y52.25 Z0 F1600
G1 X26.704 Y52.203 Z0 F1600
G1 X26.901 Y52.113 Z0 F1600
G1 X27.063 Y51.965 Z0 F1600
G1 X27.182 Y51.744 Z0 F1600
G1 X27.463 Y51.589 Z0 F1600
G1 X27.79 Y51.457 Z0 F1600
G1 X27.923 Y51.374 Z0 F1600
G1 X28.01 Y51.267 Z0 F1600
G1 X28.033 Y51.126 Z0 F1600
G1 X27.972 Y50.943 Z0 F1600
G1 X27.698 Y50.713 Z0 F1600
G1 X27.464 Y50.417 Z0 F1600
G1 X27.397 Y50.257 Z0 F1600
G1 X27.384 Y50.093 Z0 F1600
G1 X27.437 Y49.933 Z0 F1600
G1 X27.571 Y49.778 Z0 F1600
G1 X27.924 Y49.688 Z0 F1600
G1 X28.315 Y49.638 Z0 F1600
G1 X28.493 Y49.589 Z0 F1600
G1 X28.643 Y49.503 Z0 F1600
G1 X28.751 Y49.366 Z0 F1600
G1 X28.806 Y49.16 Z0 F1600
G1 X28.869 Y48.985 Z0 F1600
G1 X28.96 Y48.843 Z0 F1600
G1 X29.077 Y48.735 Z0 F1600
