
G0 Z10 F500;      ; Move to clearance level - Z motion limited to 500
; G0 X-10 Y-10 F1200; Homing
; G0 X-5 Y-5 F1200; go in
; G10 P0 L20 X0 Y0; set to zero
G1 F1200;           ; Set feed rate to 1000
;LightBurn 1.6.04
;Custom GCode device profile, absolute coords
;Bounds: X30.29 Y26.27 to X90.1 Y61.73
G00 G17 G40 G21 G54
G90
M3
G1 Z10 F500
;Cut @ 1200 mm/min, 80% power

M8
G0 Z2.8F500
G0 X35.503Y28.315Z2.8F1500
G1 Z0F500
;Layer C02
G1 X35.473Y28.414Z0S800F1200
G1 X35.491Y28.492Z0F1200
G1 X35.546Y28.552Z0F1200
G1 X35.629Y28.597Z0F1200
G1 X35.834Y28.659Z0F1200
G1 X36.02Y28.706Z0F1200
G1 X36.141Y28.725Z0F1200
G1 X36.263Y28.731Z0F1200
G1 X36.34Y28.716Z0F1200
G1 X36.389Y28.679Z0F1200
G1 X36.413Y28.627Z0F1200
G1 Y28.567Z0F1200
G1 X36.354Y28.451Z0F1200
G1 X36.231Y28.386Z0F1200
G1 X36.052Y28.317Z0F1200
G1 X35.852Y28.265Z0F1200
G1 X35.66Y28.257Z0F1200
G1 X35.503Y28.315Z0F1200
G0 Z2.8F500
G0 X37.384Y28.376Z2.8F1500
G1 Z0F500
G1 Y28.515Z0F1200
G1 X37.45Y28.63Z0F1200
G1 X37.576Y28.672Z0F1200
G1 X37.686Y28.637Z0F1200
G1 X37.748Y28.564Z0F1200
G1 X37.769Y28.47Z0F1200
G1 X37.754Y28.37Z0F1200
G1 X37.708Y28.283Z0F1200
G1 X37.637Y28.224Z0F1200
G1 X37.547Y28.21Z0F1200
G1 X37.443Y28.258Z0F1200
G1 X37.384Y28.376Z0F1200
G0 Z2.8F500
G0 X38.384Y30.625Z2.8F1500
G1 Z0F500
G1 X38.151Y30.694Z0F1200
G1 X38.122Y30.79Z0F1200
G1 X38.138Y30.856Z0F1200
G1 X38.189Y30.898Z0F1200
G1 X38.265Y30.922Z0F1200
G1 X38.451Y30.935Z0F1200
G1 X38.614Y30.94Z0F1200
G1 X40.561Y31.062Z0F1200
G1 X42.51Y31.154Z0F1200
G1 X42.68Z0F1200
G1 X42.876Y31.145Z0F1200
G1 X42.962Y31.125Z0F1200
G1 X43.03Y31.085Z0F1200
G1 X43.069Y31.02Z0F1200
G1 X43.072Y30.925Z0F1200
G1 X42.843Y30.756Z0F1200
G1 X42.577Y30.638Z0F1200
G1 X42.021Y30.453Z0F1200
G1 X41.661Y30.383Z0F1200
G1 X41.299Y30.355Z0F1200
G1 X40.936Y30.361Z0F1200
G1 X40.573Y30.389Z0F1200
G1 X39.845Y30.478Z0F1200
G1 X39.118Y30.543Z0F1200
G1 X38.875Y30.573Z0F1200
G1 X38.627Y30.593Z0F1200
G1 X38.384Y30.625Z0F1200
G0 Z2.8F500
G0 X38.454Y31.517Z2.8F1500
G1 Z0F500
G1 X37.08Y31.488Z0F1200
G1 X36.871Y31.521Z0F1200
G1 X36.672Y31.601Z0F1200
G1 X36.492Y31.715Z0F1200
G1 X36.337Y31.85Z0F1200
G1 X36.365Y31.941Z0F1200
G1 X36.421Y31.998Z0F1200
G1 X36.499Y32.03Z0F1200
G1 X36.592Y32.042Z0F1200
G1 X36.795Z0F1200
G1 X36.975Y32.05Z0F1200
G1 X37.951Y32.061Z0F1200
G1 X38.927Y32.064Z0F1200
G1 X39.899Y32.061Z0F1200
G1 X40.872Y32.065Z0F1200
G1 X41.844Y32.058Z0F1200
G1 X42.815Y32.025Z0F1200
G1 X42.875Y31.966Z0F1200
G1 X42.894Y31.909Z0F1200
G1 X42.88Y31.857Z0F1200
G1 X42.84Y31.811Z0F1200
G1 X42.714Y31.753Z0F1200
G1 X42.574Z0F1200
G1 X41.201Y31.678Z0F1200
G1 X39.828Y31.59Z0F1200
G1 X38.454Y31.517Z0F1200
G0 Z2.8F500
G0 X37.228Y34.451Z2.8F1500
G1 Z0F500
G1 X36.439Y34.3Z0F1200
G1 X35.645Y34.165Z0F1200
G1 X34.847Y34.072Z0F1200
G1 X34.046Y34.047Z0F1200
G1 X33.967Y34.103Z0F1200
G1 X33.936Y34.169Z0F1200
G1 X33.944Y34.239Z0F1200
G1 X33.981Y34.312Z0F1200
G1 X34.104Y34.453Z0F1200
G1 X34.226Y34.566Z0F1200
G1 X34.339Y34.697Z0F1200
G1 X34.471Y34.781Z0F1200
G1 X34.618Y34.827Z0F1200
G1 X34.776Y34.844Z0F1200
G1 X35.108Y34.836Z0F1200
G1 X36.082Z0F1200
G1 X36.453Y34.831Z0F1200
G1 X36.825Z0F1200
G1 X37.196Y34.819Z0F1200
G1 X37.564Y34.777Z0F1200
G1 X37.619Y34.701Z0F1200
G1 X37.627Y34.636Z0F1200
G1 X37.597Y34.582Z0F1200
G1 X37.539Y34.538Z0F1200
G1 X37.379Y34.478Z0F1200
G1 X37.228Y34.451Z0F1200
G0 Z2.8F500
G0 X34.559Y35.71Z2.8F1500
G1 Z0F500
G1 X34.361Y35.549Z0F1200
G1 X34.106Y35.45Z0F1200
G1 X33.975Y35.437Z0F1200
G1 X33.851Y35.456Z0F1200
G1 X33.741Y35.512Z0F1200
G1 X33.653Y35.609Z0F1200
G1 X33.61Y35.726Z0F1200
G1 X33.54Y35.837Z0F1200
G1 X33.52Y35.889Z0F1200
G1 Y35.937Z0F1200
G1 X33.556Y35.982Z0F1200
G1 X33.632Y36.022Z0F1200
G1 X33.8Y36.04Z0F1200
G1 X33.97Z0F1200
G1 X34.176Y36.045Z0F1200
G1 X34.407Y36.012Z0F1200
G1 X34.502Y35.972Z0F1200
G1 X34.567Y35.911Z0F1200
G1 X34.59Y35.825Z0F1200
G1 X34.559Y35.71Z0F1200
G0 Z2.8F500
G0 X33.18Y35.867Z2.8F1500
G1 Z0F500
G1 X33.11Y35.818Z0F1200
G1 X33.009Y35.793Z0F1200
G1 X32.763Y35.781Z0F1200
G1 X32.543Y35.76Z0F1200
G1 X32.347Y35.751Z0F1200
G1 X32.133Y35.733Z0F1200
G1 X32.031Y35.737Z0F1200
G1 X31.939Y35.76Z0F1200
G1 X31.861Y35.808Z0F1200
G1 X31.802Y35.889Z0F1200
G1 X31.836Y36.025Z0F1200
G1 X31.946Y36.1Z0F1200
G1 X32.091Y36.131Z0F1200
G1 X32.23Z0F1200
G1 X32.702Y36.11Z0F1200
G1 X33.173Y36.075Z0F1200
G1 X33.205Y35.95Z0F1200
G1 X33.18Y35.867Z0F1200
G0 Z2.8F500
G0 X31.535Y35.805Z2.8F1500
G1 Z0F500
G1 X31.509Y35.729Z0F1200
G1 X31.446Y35.675Z0F1200
G1 X31.358Y35.637Z0F1200
G1 X31.148Y35.594Z0F1200
G1 X30.966Y35.559Z0F1200
G1 X30.81Y35.518Z0F1200
G1 X30.637Y35.476Z0F1200
G1 X30.484Y35.409Z0F1200
G1 X30.393Y35.291Z0F1200
G1 X30.455Y35.112Z0F1200
G1 X30.574Y34.974Z0F1200
G1 X30.65Y34.93Z0F1200
G1 X30.735Y34.907Z0F1200
G1 X30.828Y34.91Z0F1200
G1 X30.925Y34.942Z0F1200
G1 X31.147Y34.967Z0F1200
G1 X31.365Y34.946Z0F1200
G1 X31.578Y34.896Z0F1200
G1 X31.788Y34.834Z0F1200
G1 X32.167Y34.799Z0F1200
G1 X32.554Y34.792Z0F1200
G1 X32.935Y34.777Z0F1200
G1 X33.299Y34.721Z0F1200
G1 X33.333Y34.633Z0F1200
G1 X33.326Y34.548Z0F1200
G1 X33.284Y34.468Z0F1200
G1 X33.218Y34.391Z0F1200
G1 X33.049Y34.253Z0F1200
G1 X32.889Y34.139Z0F1200
G1 X32.734Y34.068Z0F1200
G1 X32.568Y34.046Z0F1200
G1 X32.401Y34.062Z0F1200
G1 X32.24Y34.1Z0F1200
G1 X32.202Y33.936Z0F1200
G1 X32.135Y33.787Z0F1200
G1 X32.047Y33.651Z0F1200
G1 X31.942Y33.525Z0F1200
G1 X31.894Y33.372Z0F1200
G1 X31.879Y33.195Z0F1200
G1 X31.896Y33.121Z0F1200
G1 X31.936Y33.068Z0F1200
G1 X32.003Y33.045Z0F1200
G1 X32.102Y33.062Z0F1200
G1 X33.272Y33.211Z0F1200
G1 X34.441Y33.362Z0F1200
G1 X35.605Y33.538Z0F1200
G1 X37.402Y33.883Z0F1200
G1 X38.047Y33.966Z0F1200
G1 X38.695Y34.013Z0F1200
G1 X39.345Y34.028Z0F1200
G1 X40.646Y33.984Z0F1200
G1 X41.941Y33.873Z0F1200
G1 X44.521Y33.774Z0F1200
G1 X49.688Y33.69Z0F1200
G1 X52.268Y33.587Z0F1200
G1 X54.501Y33.535Z0F1200
G1 X56.736Y33.499Z0F1200
G1 X56.725Y33.69Z0F1200
G1 X56.754Y33.883Z0F1200
G1 X56.791Y33.966Z0F1200
G1 X56.847Y34.034Z0F1200
G1 X56.926Y34.081Z0F1200
G1 X57.031Y34.102Z0F1200
G1 X57.209Y34.134Z0F1200
G1 X57.39Y34.126Z0F1200
G1 X57.559Y34.139Z0F1200
G1 X57.698Y34.236Z0F1200
G1 X57.804Y34.292Z0F1200
G1 X57.942Y34.34Z0F1200
G1 X58.002Y34.367Z0F1200
G1 X58.045Y34.4Z0F1200
G1 X58.062Y34.441Z0F1200
G1 X58.046Y34.494Z0F1200
G1 X57.835Y34.487Z0F1200
G1 X57.63Y34.529Z0F1200
G1 X57.539Y34.573Z0F1200
G1 X57.461Y34.635Z0F1200
G1 X57.398Y34.717Z0F1200
G1 X57.354Y34.82Z0F1200
G1 X57.278Y34.984Z0F1200
G1 X57.234Y35.177Z0F1200
G1 X57.239Y35.265Z0F1200
G1 X57.271Y35.339Z0F1200
G1 X57.334Y35.39Z0F1200
G1 X57.436Y35.412Z0F1200
G1 X57.338Y35.561Z0F1200
G1 X57.268Y35.724Z0F1200
G1 X57.222Y35.895Z0F1200
G1 X57.199Y36.066Z0F1200
G1 X57.051Y36.085Z0F1200
G1 X56.887Y36.111Z0F1200
G1 X56.735Z0F1200
G1 X56.624Y36.061Z0F1200
G1 X56.601Y35.935Z0F1200
G1 X56.552Y35.821Z0F1200
G1 X56.482Y35.723Z0F1200
G1 X56.393Y35.642Z0F1200
G1 X56.29Y35.581Z0F1200
G1 X56.175Y35.543Z0F1200
G1 X56.052Y35.53Z0F1200
G1 X55.925Y35.544Z0F1200
G1 X55.845Y35.41Z0F1200
G1 X55.733Y35.282Z0F1200
G1 X55.633Y35.152Z0F1200
G1 X55.584Y35.012Z0F1200
G1 X55.832Y35.066Z0F1200
G1 X56.086Y35.153Z0F1200
G1 X56.212Y35.185Z0F1200
G1 X56.334Y35.193Z0F1200
G1 X56.452Y35.169Z0F1200
G1 X56.563Y35.102Z0F1200
G1 X56.677Y34.904Z0F1200
G1 X56.779Y34.693Z0F1200
G1 X56.846Y34.473Z0F1200
G1 X56.855Y34.248Z0F1200
G1 X56.669Y34.153Z0F1200
G1 X56.45Y34.135Z0F1200
G1 X56.221Y34.144Z0F1200
G1 X56.004Y34.132Z0F1200
G1 X54.471Y34.126Z0F1200
G1 X52.938Y34.141Z0F1200
G1 X51.406Y34.203Z0F1200
G1 X49.88Y34.337Z0F1200
G1 X49.813Y34.385Z0F1200
G1 X49.784Y34.438Z0F1200
G1 X49.787Y34.493Z0F1200
G1 X49.816Y34.547Z0F1200
G1 X49.926Y34.631Z0F1200
G1 X50.061Y34.659Z0F1200
G1 X50.807Y34.839Z0F1200
G1 X51.561Y35.002Z0F1200
G1 X52.319Y35.122Z0F1200
G1 X53.078Y35.174Z0F1200
G1 X53.049Y35.254Z0F1200
G1 X52.994Y35.302Z0F1200
G1 X52.918Y35.326Z0F1200
G1 X52.83Y35.334Z0F1200
G1 X52.641Y35.338Z0F1200
G1 X52.482Y35.383Z0F1200
G1 X52.318Y35.459Z0F1200
G1 X52.178Y35.575Z0F1200
G1 X52.109Y35.622Z0F1200
G1 X52.037Y35.647Z0F1200
G1 X51.957Y35.64Z0F1200
G1 X51.868Y35.59Z0F1200
G1 X51.654Y35.512Z0F1200
G1 X51.434Y35.49Z0F1200
G1 X51.213Y35.509Z0F1200
G1 X50.992Y35.551Z0F1200
G1 X50.647Y35.515Z0F1200
G1 X50.3Y35.469Z0F1200
G1 X49.955Y35.433Z0F1200
G1 X49.612Y35.424Z0F1200
G1 X49.603Y35.309Z0F1200
G1 X49.554Y35.226Z0F1200
G1 X49.475Y35.169Z0F1200
G1 X49.375Y35.131Z0F1200
G1 X48.943Y35.053Z0F1200
G1 X48.274Y34.955Z0F1200
G1 X47.604Y34.887Z0F1200
G1 X46.933Y34.845Z0F1200
G1 X46.262Y34.827Z0F1200
G1 X44.918Y34.849Z0F1200
G1 X43.574Y34.931Z0F1200
G1 X40.888Y35.178Z0F1200
G1 X38.213Y35.382Z0F1200
G1 X37.536Y35.394Z0F1200
G1 X36.857Y35.402Z0F1200
G1 X36.181Y35.43Z0F1200
G1 X35.509Y35.497Z0F1200
G1 X35.442Y35.573Z0F1200
G1 X35.427Y35.65Z0F1200
G1 X35.455Y35.722Z0F1200
G1 X35.514Y35.788Z0F1200
G1 X35.687Y35.886Z0F1200
G1 X35.864Y35.918Z0F1200
G1 X36.202Y35.927Z0F1200
G1 X36.511Y35.954Z0F1200
G1 X36.418Y36.074Z0F1200
G1 X36.295Y36.142Z0F1200
G1 X36.156Y36.175Z0F1200
G1 X36.014Y36.187Z0F1200
G1 X35.701Y36.393Z0F1200
G1 X35.364Y36.559Z0F1200
G1 X35.239Y36.653Z0F1200
G1 X35.138Y36.772Z0F1200
G1 X35.052Y36.902Z0F1200
G1 X34.973Y37.026Z0F1200
G1 X34.642Y37.088Z0F1200
G1 X34.3Y37.113Z0F1200
G1 X33.964Y37.156Z0F1200
G1 X33.65Y37.267Z0F1200
G1 X33.616Y37.342Z0F1200
G1 X33.608Y37.422Z0F1200
G1 X33.585Y37.491Z0F1200
G1 X33.505Y37.536Z0F1200
G1 X33.351Y37.685Z0F1200
G1 X33.234Y37.868Z0F1200
G1 X33.152Y38.065Z0F1200
G1 X33.104Y38.259Z0F1200
G1 X32.724Y38.267Z0F1200
G1 X32.347Y38.371Z0F1200
G1 X32.185Y38.465Z0F1200
G1 X32.053Y38.592Z0F1200
G1 X31.961Y38.752Z0F1200
G1 X31.919Y38.95Z0F1200
G1 X31.913Y39.003Z0F1200
G1 X31.919Y39.066Z0F1200
G1 X31.91Y39.115Z0F1200
G1 X31.864Y39.124Z0F1200
G1 X31.763Y39.081Z0F1200
G1 X31.704Y39.013Z0F1200
G1 X31.676Y38.926Z0F1200
G1 X31.669Y38.826Z0F1200
G1 X31.673Y38.614Z0F1200
G1 X31.629Y38.43Z0F1200
G1 X31.531Y38.32Z0F1200
G1 X31.435Y38.205Z0F1200
G1 X31.324Y38.108Z0F1200
G1 X31.183Y38.053Z0F1200
G1 X31.098Y37.891Z0F1200
G1 Y37.716Z0F1200
G1 X31.174Y37.559Z0F1200
G1 X31.316Y37.45Z0F1200
G1 X31.321Y37.347Z0F1200
G1 X31.285Y37.282Z0F1200
G1 X31.217Y37.246Z0F1200
G1 X31.127Y37.231Z0F1200
G1 X30.923Y37.224Z0F1200
G1 X30.751Y37.191Z0F1200
G1 X30.609Y37.091Z0F1200
G1 X30.535Y36.931Z0F1200
G1 X30.481Y36.751Z0F1200
G1 X30.397Y36.593Z0F1200
G1 X30.31Y36.408Z0F1200
G1 X30.307Y36.206Z0F1200
G1 X30.341Y36.117Z0F1200
G1 X30.401Y36.046Z0F1200
G1 X30.486Y36.001Z0F1200
G1 X30.599Y35.987Z0F1200
G1 X30.829Y35.967Z0F1200
G1 X31.066Y35.979Z0F1200
G1 X31.298Y35.974Z0F1200
G1 X31.514Y35.907Z0F1200
G1 X31.535Y35.805Z0F1200

; Washing sequence (no color)
G1 Z10 F1000;        ; Raise brush to safe height
G0 X2 Y0 F1200;     ; Rapid move to brush cleaning position
G1 Z0 F500;         ; Lower brush for cleaning - controlled movement
G1 Z10 F500;         ; Raise brush slightly - controlled movement
G1 Z0 F500;         ; Lower brush for cleaning - controlled movement
G1 Z2 F500;         ; Raise brush slightly - controlled movement
G1 X22 Y0 Z8 F500;     ; Move across cleaning area - controlled movement
G1 Z10 F500;         ; Maintain brush height - controlled movement
G1 X2 Y0 Z8 F1000;     ; Move across cleaning area - controlled movement
G1 Z10 F500;         ; Maintain brush height - controlled movement
G0 X2 Y0 F1200;     ; Rapid move to brush cleaning position
G1 Z0 F500;         ; Lower brush for cleaning - controlled movement
G1 Z10 F500;         ; Raise brush slightly - controlled movement
G1 Z0 F500;         ; Lower brush for cleaning - controlled movement
G1 Z2 F500;         ; Raise brush slightly - controlled movement
G1 X22 Y0 Z8 F500;     ; Move across cleaning area - controlled movement
G1 Z10 F500;         ; Maintain brush height - controlled movement
G1 X2 Y0 Z8 F1000;     ; Move across cleaning area - controlled movement
G1 Z10 F500;         ; Maintain brush height - controlled movement
G1 F1200;           ; Set feed rate to 1000

; Return to drawing position
G0 X31.535 Y35.805 F1200;  ; Return to position with raised Z
G1 Z0 F500;                       ; Lower Z to drawing position
G0 Z2.8F500
G0 X42.526Y28.91Z2.8F1500
G1 Z0F500
G1 X42.645Y28.991Z0F1200
G1 X42.788Y29Z0F1200
G1 X43.053Y29.013Z0F1200
G1 X43.319Y29.018Z0F1200
G1 X43.685Y29.011Z0F1200
G1 X44.055Y29.017Z0F1200
G1 X44.421Y29.002Z0F1200
G1 X44.776Y28.931Z0F1200
G1 X44.837Y28.868Z0F1200
G1 X44.869Y28.792Z0F1200
G1 X44.875Y28.711Z0F1200
G1 X44.856Y28.633Z0F1200
G1 X44.816Y28.565Z0F1200
G1 X44.757Y28.514Z0F1200
G1 X44.68Y28.488Z0F1200
G1 X44.588Y28.496Z0F1200
G1 X43.581Y28.601Z0F1200
G1 X42.577Y28.687Z0F1200
G1 X42.511Y28.738Z0F1200
G1 X42.485Y28.796Z0F1200
G1 X42.492Y28.855Z0F1200
G1 X42.526Y28.91Z0F1200
G0 Z2.8F500
G0 X45.449Y28.813Z2.8F1500
G1 Z0F500
G1 X45.496Y28.894Z0F1200
G1 X45.572Y28.948Z0F1200
G1 X45.671Y28.98Z0F1200
G1 X45.896Y29.003Z0F1200
G1 X46.511Y29.017Z0F1200
G1 X46.922Y29.02Z0F1200
G1 X47.075Y29.023Z0F1200
G1 X47.25Y29.01Z0F1200
G1 X47.322Y28.987Z0F1200
G1 X47.372Y28.948Z0F1200
G1 X47.39Y28.887Z0F1200
G1 X47.367Y28.801Z0F1200
G1 X47.106Y28.7Z0F1200
G1 X46.823Y28.648Z0F1200
G1 X46.531Y28.616Z0F1200
G1 X46.246Y28.576Z0F1200
G1 X46.035Y28.56Z0F1200
G1 X45.805Y28.536Z0F1200
G1 X45.695Y28.539Z0F1200
G1 X45.594Y28.562Z0F1200
G1 X45.508Y28.613Z0F1200
G1 X45.442Y28.699Z0F1200
G1 X45.449Y28.813Z0F1200
G0 Z2.8F500
G0 X47.883Y28.103Z2.8F1500
G1 Z0F500
G1 X47.929Y28.146Z0F1200
G1 X48.065Y28.197Z0F1200
G1 X48.206Y28.19Z0F1200
G1 X48.865Y28.172Z0F1200
G1 X49.518Y28.185Z0F1200
G1 X50.167Y28.248Z0F1200
G1 X50.814Y28.376Z0F1200
G1 X51.779Y28.552Z0F1200
G1 X52.749Y28.69Z0F1200
G1 X53.724Y28.778Z0F1200
G1 X54.705Y28.802Z0F1200
G1 X55.032Y28.795Z0F1200
G1 X55.365Y28.801Z0F1200
G1 X55.693Y28.784Z0F1200
G1 X56.006Y28.709Z0F1200
G1 X56.031Y28.612Z0F1200
G1 X56.009Y28.541Z0F1200
G1 X55.951Y28.494Z0F1200
G1 X55.869Y28.465Z0F1200
G1 X55.67Y28.442Z0F1200
G1 X55.498Y28.432Z0F1200
G1 X54.44Y28.383Z0F1200
G1 X53.388Y28.291Z0F1200
G1 X52.343Y28.148Z0F1200
G1 X51.304Y27.945Z0F1200
G1 X50.464Y27.818Z0F1200
G1 X49.613Y27.749Z0F1200
G1 X49.188Z0F1200
G1 X48.765Y27.773Z0F1200
G1 X48.345Y27.832Z0F1200
G1 X47.93Y27.926Z0F1200
G1 X47.875Y27.992Z0F1200
G1 X47.862Y28.051Z0F1200
G1 X47.883Y28.103Z0F1200
G0 Z2.8F500
G0 X49.686Y31.658Z2.8F1500
G1 Z0F500
G1 X49.347Y31.793Z0F1200
G1 X49.289Y31.897Z0F1200
G1 X49.278Y32.003Z0F1200
G1 X49.308Y32.104Z0F1200
G1 X49.369Y32.195Z0F1200
G1 X49.455Y32.27Z0F1200
G1 X49.558Y32.324Z0F1200
G1 X49.669Y32.351Z0F1200
G1 X49.783Y32.345Z0F1200
G1 X50.064Y32.365Z0F1200
G1 X50.349Y32.396Z0F1200
G1 X50.632Y32.413Z0F1200
G1 X50.908Y32.39Z0F1200
G1 X50.94Y32.17Z0F1200
G1 X50.964Y31.928Z0F1200
G1 X50.958Y31.812Z0F1200
G1 X50.932Y31.705Z0F1200
G1 X50.879Y31.614Z0F1200
G1 X50.793Y31.544Z0F1200
G1 X50.427Y31.587Z0F1200
G1 X50.052Y31.607Z0F1200
G1 X49.686Y31.658Z0F1200
G0 Z2.8F500
G0 X51.534Y31.685Z2.8F1500
G1 Z0F500
G1 X51.564Y31.743Z0F1200
G1 X51.624Y31.793Z0F1200
G1 X51.793Y31.866Z0F1200
G1 X51.954Y31.908Z0F1200
G1 X52.529Y32.011Z0F1200
G1 X53.113Y32.053Z0F1200
G1 X54.285Y32.076Z0F1200
G1 X54.494Z0F1200
G1 X54.701Y32.026Z0F1200
G1 X54.787Y31.975Z0F1200
G1 X54.853Y31.905Z0F1200
G1 X54.892Y31.814Z0F1200
G1 X54.909Y31.537Z0F1200
G1 X54.842Y31.405Z0F1200
G1 X54.717Y31.326Z0F1200
G1 X54.555Z0F1200
G1 X53.818Y31.361Z0F1200
G1 X53.081Y31.404Z0F1200
G1 X52.345Y31.461Z0F1200
G1 X51.613Y31.539Z0F1200
G1 X51.547Y31.617Z0F1200
G1 X51.534Y31.685Z0F1200
G0 Z2.8F500
G0 X55.928Y31.45Z2.8F1500
G1 Z0F500
G1 X55.975Y31.514Z0F1200
G1 X56.052Y31.548Z0F1200
G1 X56.148Y31.56Z0F1200
G1 X56.365Z0F1200
G1 X56.729Y31.601Z0F1200
G1 X56.908Y31.613Z0F1200
G1 X57.006Y31.603Z0F1200
G1 X57.074Y31.557Z0F1200
G1 X57.113Y31.487Z0F1200
G1 X57.123Y31.404Z0F1200
G1 X57.107Y31.322Z0F1200
G1 X57.063Y31.252Z0F1200
G1 X56.993Y31.206Z0F1200
G1 X56.899Y31.198Z0F1200
G1 X56.651Y31.224Z0F1200
G1 X56.393Y31.23Z0F1200
G1 X56.143Y31.256Z0F1200
G1 X55.919Y31.347Z0F1200
G1 X55.928Y31.45Z0F1200
G0 Z2.8F500
G0 X56.293Y30.646Z2.8F1500
G1 Z0F500
G1 X58.943Y30.498Z0F1200
G1 X58.896Y30.597Z0F1200
G1 X58.778Y30.642Z0F1200
G1 X58.639Y30.678Z0F1200
G1 X58.533Y30.747Z0F1200
G1 X58.392Y30.843Z0F1200
G1 X58.282Y30.967Z0F1200
G1 X58.181Y31.098Z0F1200
G1 X58.066Y31.218Z0F1200
G1 X58.036Y31.353Z0F1200
G1 X57.965Y31.461Z0F1200
G1 X57.868Y31.552Z0F1200
G1 X57.759Y31.637Z0F1200
G1 X57.57Y31.885Z0F1200
G1 X57.434Y32.167Z0F1200
G1 X57.35Y32.467Z0F1200
G1 X57.317Y32.768Z0F1200
G1 X56.598Y32.873Z0F1200
G1 X55.87Y32.936Z0F1200
G1 X55.139Y32.982Z0F1200
G1 X54.409Y33.035Z0F1200
G1 X53.541Y33.072Z0F1200
G1 X52.67Y33.081Z0F1200
G1 X50.751Y33.005Z0F1200
G1 X48.83Y32.899Z0F1200
G1 X46.908Y32.799Z0F1200
G1 X44.986Y32.735Z0F1200
G1 X41.583Y32.67Z0F1200
G1 X34.777Y32.602Z0F1200
G1 X31.376Y32.534Z0F1200
G1 X31.136Y32.514Z0F1200
G1 X30.881Y32.505Z0F1200
G1 X30.639Y32.462Z0F1200
G1 X30.435Y32.34Z0F1200
G1 X30.379Y32.17Z0F1200
G1 X30.367Y31.983Z0F1200
G1 X30.387Y31.9Z0F1200
G1 X30.43Y31.832Z0F1200
G1 X30.5Y31.786Z0F1200
G1 X30.6Y31.769Z0F1200
G1 X31.05Y31.733Z0F1200
G1 X31.503Y31.709Z0F1200
G1 X31.953Y31.664Z0F1200
G1 X32.392Y31.566Z0F1200
G1 X32.436Y31.48Z0F1200
G1 X32.432Y31.414Z0F1200
G1 X32.392Y31.366Z0F1200
G1 X32.325Y31.333Z0F1200
G1 X32.152Y31.304Z0F1200
G1 X31.995Z0F1200
G1 X31.626Y31.295Z0F1200
G1 X31.255Z0F1200
G1 X30.889Y31.28Z0F1200
G1 X30.534Y31.232Z0F1200
G1 X30.509Y31.064Z0F1200
G1 X30.514Y30.891Z0F1200
G1 X30.539Y30.818Z0F1200
G1 X30.584Y30.761Z0F1200
G1 X30.654Y30.728Z0F1200
G1 X30.752Y30.725Z0F1200
G1 X30.84Y30.687Z0F1200
G1 X30.897Y30.621Z0F1200
G1 X30.932Y30.538Z0F1200
G1 X30.959Y30.448Z0F1200
G1 X30.987Y30.364Z0F1200
G1 X31.028Y30.298Z0F1200
G1 X31.092Y30.26Z0F1200
G1 X31.192Y30.263Z0F1200
G1 X33.267Y30.177Z0F1200
G1 X35.348Y30.116Z0F1200
G1 X37.43Y30.036Z0F1200
G1 X39.506Y29.893Z0F1200
G1 X39.591Z0F1200
G1 X39.662Y29.863Z0F1200
G1 X39.715Y29.81Z0F1200
G1 X39.748Y29.745Z0F1200
G1 X39.756Y29.676Z0F1200
G1 X39.736Y29.612Z0F1200
G1 X39.685Y29.562Z0F1200
G1 X39.599Y29.536Z0F1200
G1 X37.57Y29.543Z0F1200
G1 X33.512Y29.619Z0F1200
G1 X31.484Y29.624Z0F1200
G1 X31.39Y29.557Z0F1200
G1 X31.377Y29.433Z0F1200
G1 X31.408Y29.294Z0F1200
G1 X31.45Y29.183Z0F1200
G1 X31.487Y29.041Z0F1200
G1 X31.438Y28.912Z0F1200
G1 X31.391Y28.87Z0F1200
G1 X31.334Y28.854Z0F1200
G1 X31.271Y28.869Z0F1200
G1 X31.206Y28.924Z0F1200
G1 X31.091Y29.091Z0F1200
G1 X31.016Y29.289Z0F1200
G1 X30.937Y29.479Z0F1200
G1 X30.81Y29.622Z0F1200
G1 X30.737Y29.625Z0F1200
G1 X30.684Y29.597Z0F1200
G1 X30.645Y29.544Z0F1200
G1 X30.617Y29.475Z0F1200
G1 X30.575Y29.321Z0F1200
G1 X30.523Y29.2Z0F1200
G1 X30.431Y28.883Z0F1200
G1 X30.342Y28.56Z0F1200
G1 X30.286Y28.234Z0F1200
G1 X30.29Y27.91Z0F1200
G1 X30.477Y27.851Z0F1200
G1 X30.666Y27.869Z0F1200
G1 X30.749Y27.907Z0F1200
G1 X30.819Y27.965Z0F1200
G1 X30.871Y28.044Z0F1200
G1 X30.9Y28.144Z0F1200
G1 X30.973Y28.235Z0F1200
G1 X31.068Y28.285Z0F1200
G1 X31.178Y28.305Z0F1200
G1 X31.3Z0F1200
G1 X31.555Y28.28Z0F1200
G1 X31.791Y28.286Z0F1200
G1 X32.266Z0F1200
G1 X32.734Y28.35Z0F1200
G1 X33.199Y28.444Z0F1200
G1 X33.667Y28.53Z0F1200
G1 X33.872Y28.517Z0F1200
G1 X34.088Y28.496Z0F1200
G1 X34.285Y28.434Z0F1200
G1 X34.43Y28.297Z0F1200
G1 X34.405Y28.118Z0F1200
G1 X34.379Y27.922Z0F1200
G1 X34.351Y27.836Z0F1200
G1 X34.304Y27.77Z0F1200
G1 X34.231Y27.729Z0F1200
G1 X34.127Y27.723Z0F1200
G1 X33.826Y27.764Z0F1200
G1 X33.524Y27.776Z0F1200
G1 X33.229Y27.733Z0F1200
G1 X32.949Y27.607Z0F1200
G1 X32.736Y27.521Z0F1200
G1 X32.51Y27.468Z0F1200
G1 X32.288Y27.414Z0F1200
G1 X32.085Y27.323Z0F1200
G1 X31.997Y27.225Z0F1200
G1 X31.812Y27.159Z0F1200
G1 X31.763Y27.127Z0F1200
G1 X31.731Y27.076Z0F1200
G1 X31.709Y26.852Z0F1200
G1 X31.712Y26.696Z0F1200
G1 X31.733Y26.631Z0F1200
G1 X31.772Y26.583Z0F1200
G1 X31.835Y26.558Z0F1200
G1 X34.081Y26.678Z0F1200
G1 X36.232Y26.88Z0F1200
G1 X38.384Y27.092Z0F1200
G1 X40.542Y27.233Z0F1200
G1 X40.779Y27.255Z0F1200
G1 X41.02Y27.296Z0F1200
G1 X41.13Y27.335Z0F1200
G1 X41.227Y27.393Z0F1200
G1 X41.306Y27.474Z0F1200
G1 X41.362Y27.584Z0F1200
G1 X41.647Y27.667Z0F1200
G1 X41.949Y27.673Z0F1200
G1 X42.258Y27.653Z0F1200
G1 X42.559Y27.656Z0F1200
G1 X43.029Z0F1200
G1 X43.968Y27.717Z0F1200
G1 X44.437Y27.723Z0F1200
G1 X44.718Y27.531Z0F1200
G1 X44.871Y27.457Z0F1200
G1 X45.258Y27.384Z0F1200
G1 X45.476Y27.37Z0F1200
G1 X45.681Y27.413Z0F1200
G1 X45.856Y27.541Z0F1200
G1 X46.195Y27.577Z0F1200
G1 X46.539Y27.548Z0F1200
G1 X47.222Y27.427Z0F1200
G1 X47.358Y27.396Z0F1200
G1 X47.443Y27.295Z0F1200
G1 X47.456Y27.236Z0F1200
G1 X47.444Y27.181Z0F1200
G1 X47.402Y27.137Z0F1200
G1 X47.326Y27.112Z0F1200
G1 X46.331Y26.983Z0F1200
G1 X45.346Y26.826Z0F1200
G1 X45.336Y26.645Z0F1200
G1 X45.358Y26.44Z0F1200
G1 X45.392Y26.354Z0F1200
G1 X45.446Y26.294Z0F1200
G1 X45.525Y26.269Z0F1200
G1 X45.634Y26.29Z0F1200
G1 X46.872Y26.499Z0F1200
G1 X48.114Y26.679Z0F1200
G1 X49.363Y26.807Z0F1200
G1 X50.618Y26.863Z0F1200
G1 X52.942Y27.001Z0F1200
G1 X55.269Y27.128Z0F1200
G1 X56.433Y27.168Z0F1200
G1 X57.597Y27.183Z0F1200
G1 X58.762Y27.164Z0F1200
G1 X59.926Y27.106Z0F1200
G1 X60.48Y27.072Z0F1200
G1 X61.036Y27.055Z0F1200
G1 X61.59Y27.024Z0F1200
G1 X62.138Y26.947Z0F1200
G1 X62.205Y26.892Z0F1200
G1 X62.247Y26.818Z0F1200
G1 X62.298Y26.76Z0F1200
G1 X62.393Y26.752Z0F1200
G1 X62.779Y26.759Z0F1200
G1 X63.169Y26.808Z0F1200
G1 X63.362Y26.821Z0F1200
G1 X63.551Y26.811Z0F1200
G1 X63.734Y26.768Z0F1200
G1 X63.91Y26.681Z0F1200
G1 X64.154Y26.835Z0F1200
G1 X64.409Y27.02Z0F1200
G1 X64.54Y27.088Z0F1200
G1 X64.674Y27.122Z0F1200
G1 X64.81Y27.108Z0F1200
G1 X64.948Y27.032Z0F1200
G1 X65.024Y26.976Z0F1200
G1 X65.101Y26.964Z0F1200
G1 X65.18Y26.983Z0F1200
G1 X65.26Y27.022Z0F1200
G1 X65.425Y27.113Z0F1200
G1 X65.595Y27.142Z0F1200
G1 X65.873Y27.152Z0F1200
G1 X66.157Y27.137Z0F1200
G1 X66.436Z0F1200
G1 X66.702Y27.192Z0F1200
G1 X66.785Y27.24Z0F1200
G1 X66.917Y27.274Z0F1200
G1 X66.926Y27.285Z0F1200
G1 X66.904Y27.299Z0F1200
G1 X66.84Y27.318Z0F1200
G1 X66.741Y27.428Z0F1200
G1 X66.719Y27.651Z0F1200
G1 X66.697Y27.702Z0F1200
G1 X66.648Y27.724Z0F1200
G1 X66.558Y27.707Z0F1200
G1 X60.857Y27.677Z0F1200
G1 X60.79Y27.742Z0F1200
G1 X60.753Y27.82Z0F1200
G1 X60.741Y27.907Z0F1200
G1 X60.751Y27.999Z0F1200
G1 X60.813Y28.183Z0F1200
G1 X60.903Y28.341Z0F1200
G1 X61.352Y28.388Z0F1200
G1 X61.807Y28.377Z0F1200
G1 X62.265Y28.341Z0F1200
G1 X62.95Y28.305Z0F1200
G1 X63.176Y28.266Z0F1200
G1 X63.389Y28.191Z0F1200
G1 X63.582Y28.069Z0F1200
G1 X63.671Y28.05Z0F1200
G1 X63.757Y28.054Z0F1200
G1 X63.816Y28.097Z0F1200
G1 X63.823Y28.195Z0F1200
G1 X63.842Y28.372Z0F1200
G1 X63.877Y28.562Z0F1200
G1 Y28.647Z0F1200
G1 X63.859Y28.716Z0F1200
G1 X63.808Y28.764Z0F1200
G1 X63.719Y28.785Z0F1200
G1 X63.182Y28.851Z0F1200
G1 X62.64Y28.886Z0F1200
G1 X62.101Y28.929Z0F1200
G1 X61.57Y29.019Z0F1200
G1 X61.519Y29.097Z0F1200
G1 X61.515Y29.162Z0F1200
G1 X61.546Y29.214Z0F1200
G1 X61.604Y29.254Z0F1200
G1 X61.762Y29.298Z0F1200
G1 X61.913Z0F1200
G1 X62.42Y29.314Z0F1200
G1 X62.929Y29.34Z0F1200
G1 X63.433Y29.389Z0F1200
G1 X63.931Y29.472Z0F1200
G1 X63.99Y29.768Z0F1200
G1 X64.023Y30.067Z0F1200
G1 X62.889Y29.933Z0F1200
G1 X61.747Y29.879Z0F1200
G1 X60.603Y29.862Z0F1200
G1 X59.461Y29.839Z0F1200
G1 X53.581Y29.767Z0F1200
G1 X47.703Y29.651Z0F1200
G1 X45.566Y29.634Z0F1200
G1 X43.434Y29.659Z0F1200
G1 X43.36Y29.857Z0F1200
G1 X43.354Y30.086Z0F1200
G1 X43.41Y30.316Z0F1200
G1 X43.518Y30.516Z0F1200
G1 X43.501Y30.699Z0F1200
G1 X43.411Y30.892Z0F1200
G1 X43.378Y30.983Z0F1200
G1 X43.373Y31.064Z0F1200
G1 X43.412Y31.132Z0F1200
G1 X43.51Y31.183Z0F1200
G1 X43.96Y31.206Z0F1200
G1 X44.414Y31.221Z0F1200
G1 X44.865Y31.214Z0F1200
G1 X45.307Y31.172Z0F1200
G1 X45.336Y31.021Z0F1200
G1 X45.345Y30.852Z0F1200
G1 X45.362Y30.776Z0F1200
G1 X45.397Y30.717Z0F1200
G1 X45.459Y30.679Z0F1200
G1 X45.555Y30.67Z0F1200
G1 X47.146Y30.471Z0F1200
G1 X48.749Y30.355Z0F1200
G1 X51.964Y30.203Z0F1200
G1 X52.657Y30.164Z0F1200
G1 X53.34Y30.136Z0F1200
G1 X53.382Y30.337Z0F1200
G1 X53.389Y30.562Z0F1200
G1 X53.407Y30.659Z0F1200
G1 X53.448Y30.734Z0F1200
G1 X53.522Y30.777Z0F1200
G1 X53.642Z0F1200
G1 X56.293Y30.646Z0F1200

; Washing sequence (no color)
G1 Z10 F1000;        ; Raise brush to safe height
G0 X2 Y0 F1200;     ; Rapid move to brush cleaning position
G1 Z0 F500;         ; Lower brush for cleaning - controlled movement
G1 Z10 F500;         ; Raise brush slightly - controlled movement
G1 Z0 F500;         ; Lower brush for cleaning - controlled movement
G1 Z2 F500;         ; Raise brush slightly - controlled movement
G1 X22 Y0 Z8 F500;     ; Move across cleaning area - controlled movement
G1 Z10 F500;         ; Maintain brush height - controlled movement
G1 X2 Y0 Z8 F1000;     ; Move across cleaning area - controlled movement
G1 Z10 F500;         ; Maintain brush height - controlled movement
G0 X2 Y0 F1200;     ; Rapid move to brush cleaning position
G1 Z0 F500;         ; Lower brush for cleaning - controlled movement
G1 Z10 F500;         ; Raise brush slightly - controlled movement
G1 Z0 F500;         ; Lower brush for cleaning - controlled movement
G1 Z2 F500;         ; Raise brush slightly - controlled movement
G1 X22 Y0 Z8 F500;     ; Move across cleaning area - controlled movement
G1 Z10 F500;         ; Maintain brush height - controlled movement
G1 X2 Y0 Z8 F1000;     ; Move across cleaning area - controlled movement
G1 Z10 F500;         ; Maintain brush height - controlled movement
G1 F1200;           ; Set feed rate to 1000

; Return to drawing position
G0 X56.293 Y30.646 F1200;  ; Return to position with raised Z
G1 Z0 F500;                       ; Lower Z to drawing position
G0 Z2.8F500
G0 X68.709Y28.307Z2.8F1500
G1 Z0F500
G1 X68.739Y28.367Z0F1200
G1 X68.815Y28.422Z0F1200
G1 X68.956Y28.444Z0F1200
G1 X69.099Y28.447Z0F1200
G1 X71.208Y28.365Z0F1200
G1 X72.262Y28.306Z0F1200
G1 X73.312Y28.213Z0F1200
G1 X73.379Y28.141Z0F1200
G1 X73.395Y28.069Z0F1200
G1 X73.371Y27.998Z0F1200
G1 X73.317Y27.931Z0F1200
G1 X73.162Y27.811Z0F1200
G1 X73.013Y27.725Z0F1200
G1 X72.862Y27.654Z0F1200
G1 X72.704Y27.611Z0F1200
G1 X72.543Y27.595Z0F1200
G1 X72.381Y27.604Z0F1200
G1 X72.223Y27.638Z0F1200
G1 X72.071Y27.695Z0F1200
G1 X71.929Y27.776Z0F1200
G1 X71.8Y27.879Z0F1200
G1 X71.111Y27.936Z0F1200
G1 X70.415Z0F1200
G1 X69.719Y27.944Z0F1200
G1 X69.031Y28.03Z0F1200
G1 X68.884Y28.08Z0F1200
G1 X68.755Y28.182Z0F1200
G1 X68.717Y28.244Z0F1200
G1 X68.709Y28.307Z0F1200
G0 Z2.8F500
G0 X74.145Y28.069Z2.8F1500
G1 Z0F500
G1 X74.171Y28.144Z0F1200
G1 X74.241Y28.216Z0F1200
G1 X74.333Y28.261Z0F1200
G1 X74.434Y28.274Z0F1200
G1 X74.532Y28.26Z0F1200
G1 X74.613Y28.207Z0F1200
G1 X74.674Y28.129Z0F1200
G1 X74.71Y28.038Z0F1200
G1 X74.716Y27.948Z0F1200
G1 X74.688Y27.87Z0F1200
G1 X74.622Y27.818Z0F1200
G1 X74.513Y27.804Z0F1200
G1 X74.338Y27.824Z0F1200
G1 X74.197Y27.925Z0F1200
G1 X74.156Y27.994Z0F1200
G1 X74.145Y28.069Z0F1200
G0 Z2.8F500
G0 X75.183Y27.958Z2.8F1500
G1 Z0F500
G1 X75.278Y28.102Z0F1200
G1 X75.333Y28.158Z0F1200
G1 X75.399Y28.195Z0F1200
G1 X75.474Y28.215Z0F1200
G1 X75.551Y28.218Z0F1200
G1 X75.738Y28.194Z0F1200
G1 X75.944Y28.184Z0F1200
G1 X76.04Y28.17Z0F1200
G1 X76.122Y28.141Z0F1200
G1 X76.183Y28.093Z0F1200
G1 X76.219Y28.019Z0F1200
G1 X76.189Y27.924Z0F1200
G1 X76.12Y27.857Z0F1200
G1 X76.022Y27.81Z0F1200
G1 X75.904Y27.778Z0F1200
G1 X75.647Y27.727Z0F1200
G1 X75.43Y27.651Z0F1200
G1 X75.334Y27.636Z0F1200
G1 X75.259Y27.66Z0F1200
G1 X75.207Y27.713Z0F1200
G1 X75.177Y27.786Z0F1200
G1 X75.183Y27.958Z0F1200
G0 Z2.8F500
G0 X76.66Y27.854Z2.8F1500
G1 Z0F500
G1 X76.68Y27.915Z0F1200
G1 X76.728Y27.948Z0F1200
G1 X76.796Y27.961Z0F1200
G1 X76.956Y27.938Z0F1200
G1 X77.097Y27.884Z0F1200
G1 X77.221Y27.842Z0F1200
G1 X77.34Y27.837Z0F1200
G1 X77.454Y27.859Z0F1200
G1 X77.566Y27.899Z0F1200
G1 X77.791Y27.991Z0F1200
G1 X78.029Y28.034Z0F1200
G1 X78.123Y28.031Z0F1200
G1 X78.206Y27.997Z0F1200
G1 X78.272Y27.939Z0F1200
G1 X78.318Y27.867Z0F1200
G1 X78.338Y27.787Z0F1200
G1 X78.328Y27.708Z0F1200
G1 X78.284Y27.637Z0F1200
G1 X78.199Y27.584Z0F1200
G1 X77.812Y27.498Z0F1200
G1 X77.41Y27.489Z0F1200
G1 X77.211Y27.518Z0F1200
G1 X77.02Y27.572Z0F1200
G1 X76.84Y27.653Z0F1200
G1 X76.674Y27.763Z0F1200
G1 X76.66Y27.854Z0F1200
G0 Z2.8F500
G0 X81.812Y28.464Z2.8F1500
G1 Z0F500
G1 X81.78Y28.613Z0F1200
G1 X81.793Y28.683Z0F1200
G1 X81.828Y28.74Z0F1200
G1 X81.887Y28.779Z0F1200
G1 X81.972Y28.793Z0F1200
G1 X82.079Y28.764Z0F1200
G1 X82.15Y28.695Z0F1200
G1 X82.187Y28.601Z0F1200
G1 X82.191Y28.499Z0F1200
G1 X82.163Y28.406Z0F1200
G1 X82.106Y28.339Z0F1200
G1 X82.02Y28.314Z0F1200
G1 X81.908Y28.349Z0F1200
G1 X81.812Y28.464Z0F1200
G0 Z2.8F500
G0 X84.67Y27.675Z2.8F1500
G1 Z0F500
G1 X84.745Y27.745Z0F1200
G1 X84.942Y27.819Z0F1200
G1 X85.15Y27.848Z0F1200
G1 X85.237Y27.821Z0F1200
G1 X85.286Y27.772Z0F1200
G1 X85.301Y27.71Z0F1200
G1 X85.289Y27.64Z0F1200
G1 X85.201Y27.508Z0F1200
G1 X85.063Y27.431Z0F1200
G1 X84.981Y27.395Z0F1200
G1 X84.89Z0F1200
G1 X84.801Y27.419Z0F1200
G1 X84.725Y27.467Z0F1200
G1 X84.67Y27.53Z0F1200
G1 X84.649Y27.601Z0F1200
G1 X84.67Y27.675Z0F1200
G0 Z2.8F500
G0 X88.161Y27.714Z2.8F1500
G1 Z0F500
G1 X88.208Y27.818Z0F1200
G1 X88.327Y27.859Z0F1200
G1 X88.416Y27.838Z0F1200
G1 X88.475Y27.788Z0F1200
G1 X88.505Y27.721Z0F1200
G1 X88.509Y27.647Z0F1200
G1 X88.488Y27.579Z0F1200
G1 X88.442Y27.528Z0F1200
G1 X88.372Y27.504Z0F1200
G1 X88.281Y27.519Z0F1200
G1 X88.185Y27.598Z0F1200
G1 X88.161Y27.714Z0F1200
G0 Z2.8F500
G0 X88.275Y26.931Z2.8F1500
G1 Z0F500
G1 X88.712Y26.991Z0F1200
G1 X89.139Y27.089Z0F1200
G1 X89.55Y27.235Z0F1200
G1 X89.943Y27.439Z0F1200
G1 X89.986Y27.525Z0F1200
G1 X89.989Y27.608Z0F1200
G1 X89.959Y27.688Z0F1200
G1 X89.904Y27.761Z0F1200
G1 X89.749Y27.884Z0F1200
G1 X89.584Y27.959Z0F1200
G1 X89.495Y28.109Z0F1200
G1 X89.409Y28.26Z0F1200
G1 X89.302Y28.392Z0F1200
G1 X89.149Y28.485Z0F1200
G1 X89.074Y28.556Z0F1200
G1 X89.026Y28.643Z0F1200
G1 X88.968Y28.699Z0F1200
G1 X88.865Y28.68Z0F1200
G1 X88.625Y28.67Z0F1200
G1 X88.395Y28.732Z0F1200
G1 X88.303Y28.793Z0F1200
G1 X88.236Y28.877Z0F1200
G1 X88.203Y28.984Z0F1200
G1 X88.212Y29.117Z0F1200
G1 X88.104Y29.323Z0F1200
G1 X87.924Y29.468Z0F1200
G1 X87.818Y29.506Z0F1200
G1 X87.706Y29.517Z0F1200
G1 X87.593Y29.496Z0F1200
G1 X87.482Y29.439Z0F1200
G1 X86.903Y29.474Z0F1200
G1 X86.334Y29.608Z0F1200
G1 X85.773Y29.784Z0F1200
G1 X85.213Y29.946Z0F1200
G1 X85.143Y30.033Z0F1200
G1 X85.105Y30.138Z0F1200
G1 X85.09Y30.254Z0F1200
G1 X85.086Y30.376Z0F1200
G1 X85.07Y30.616Z0F1200
G1 X84.972Y30.815Z0F1200
G1 X84.671Y30.863Z0F1200
G1 X84.364Z0F1200
G1 X83.527Y30.835Z0F1200
G1 X82.688Y30.815Z0F1200
G1 X81.851Y30.765Z0F1200
G1 X81.023Y30.648Z0F1200
G1 X80.929Y30.626Z0F1200
G1 X80.863Y30.566Z0F1200
G1 X80.826Y30.482Z0F1200
G1 X80.817Y30.389Z0F1200
G1 X80.835Y30.301Z0F1200
G1 X80.881Y30.23Z0F1200
G1 X80.954Y30.191Z0F1200
G1 X81.053Y30.198Z0F1200
G1 X81.884Z0F1200
G1 X82.716Y30.223Z0F1200
G1 X83.548Y30.238Z0F1200
G1 X84.377Y30.205Z0F1200
G1 X84.522Y30.07Z0F1200
G1 X84.603Y29.877Z0F1200
G1 X84.688Y29.685Z0F1200
G1 X84.848Y29.55Z0F1200
G1 X85.227Y29.367Z0F1200
G1 X85.631Y29.244Z0F1200
G1 X86.036Y29.124Z0F1200
G1 X86.413Y28.949Z0F1200
G1 X86.43Y28.852Z0F1200
G1 X86.407Y28.787Z0F1200
G1 X86.353Y28.747Z0F1200
G1 X86.278Y28.729Z0F1200
G1 X86.098Y28.733Z0F1200
G1 X85.938Y28.756Z0F1200
G1 X83.676Y28.969Z0F1200
G1 X81.415Y29.147Z0F1200
G1 X80.793Y28.934Z0F1200
G1 X80.18Y28.686Z0F1200
G1 X79.561Y28.46Z0F1200
G1 X78.921Y28.314Z0F1200
G1 X78.843Y28.329Z0F1200
G1 X78.793Y28.364Z0F1200
G1 X78.767Y28.413Z0F1200
G1 X78.762Y28.473Z0F1200
G1 X78.799Y28.604Z0F1200
G1 X78.871Y28.717Z0F1200
G1 X78.903Y28.89Z0F1200
G1 X78.841Y29.036Z0F1200
G1 X78.782Y29.088Z0F1200
G1 X78.708Y29.121Z0F1200
G1 X78.623Y29.131Z0F1200
G1 X78.53Y29.113Z0F1200
G1 X77.847Y28.936Z0F1200
G1 X77.155Y28.78Z0F1200
G1 X76.806Y28.727Z0F1200
G1 X76.455Y28.7Z0F1200
G1 X76.102Y28.707Z0F1200
G1 X75.749Y28.755Z0F1200
G1 X75.565Y28.772Z0F1200
G1 X75.382Y28.822Z0F1200
G1 X75.306Y28.866Z0F1200
G1 X75.248Y28.927Z0F1200
G1 X75.213Y29.007Z0F1200
G1 X75.209Y29.11Z0F1200
G1 X75.154Y29.21Z0F1200
G1 X75.077Y29.281Z0F1200
G1 X74.985Y29.323Z0F1200
G1 X74.884Y29.337Z0F1200
G1 X74.782Y29.322Z0F1200
G1 X74.687Y29.28Z0F1200
G1 X74.605Y29.211Z0F1200
G1 X74.542Y29.115Z0F1200
G1 X74.455Y29.001Z0F1200
G1 X74.344Y28.929Z0F1200
G1 X74.215Y28.889Z0F1200
G1 X74.074Y28.874Z0F1200
G1 X73.779Y28.878Z0F1200
G1 X73.504Y28.868Z0F1200
G1 X71.951Y28.88Z0F1200
G1 X70.399Y28.901Z0F1200
G1 X68.847Y28.944Z0F1200
G1 X67.298Y29.026Z0F1200
G1 X67.201Y29.054Z0F1200
G1 X67.125Z0F1200
G1 X67.067Y29.033Z0F1200
G1 X67.026Y28.99Z0F1200
G1 X66.983Y28.857Z0F1200
G1 X66.973Y28.684Z0F1200
G1 X66.923Y28.26Z0F1200
G1 X66.894Y27.833Z0F1200
G1 X67.254Y27.747Z0F1200
G1 X67.989Y27.664Z0F1200
G1 X68.347Y27.583Z0F1200
G1 X68.401Y27.519Z0F1200
G1 X68.414Y27.457Z0F1200
G1 X68.395Y27.401Z0F1200
G1 X68.351Y27.352Z0F1200
G1 X68.218Y27.292Z0F1200
G1 X67.828Y27.312Z0F1200
G1 X67.583Y27.353Z0F1200
G1 X67.34Y27.398Z0F1200
G1 X67.1Y27.419Z0F1200
G1 X67.029Y27.381Z0F1200
G1 X66.989Y27.329Z0F1200
G1 X66.973Y27.266Z0F1200
G1 X66.978Y27.197Z0F1200
G1 X67.027Y27.051Z0F1200
G1 X67.096Y26.921Z0F1200
G1 X67.325Y26.824Z0F1200
G1 X67.564Y26.761Z0F1200
G1 X67.81Y26.73Z0F1200
G1 X68.059Y26.727Z0F1200
G1 X68.557Y26.794Z0F1200
G1 X69.034Y26.935Z0F1200
G1 X69.31Y27.047Z0F1200
G1 X69.574Y27.198Z0F1200
G1 X69.707Y27.261Z0F1200
G1 X69.844Y27.303Z0F1200
G1 X69.987Y27.312Z0F1200
G1 X70.139Y27.279Z0F1200
G1 X70.879Y27.18Z0F1200
G1 X71.627Y27.083Z0F1200
G1 X72.002Y27.056Z0F1200
G1 X72.376Z0F1200
G1 X72.748Y27.086Z0F1200
G1 X73.117Y27.159Z0F1200
G1 X73.338Y27.266Z0F1200
G1 X73.561Y27.392Z0F1200
G1 X73.674Y27.438Z0F1200
G1 X73.79Y27.46Z0F1200
G1 X73.909Y27.448Z0F1200
G1 X74.031Y27.393Z0F1200
G1 X74.509Y27.221Z0F1200
G1 X75.003Y27.116Z0F1200
G1 X75.253Y27.096Z0F1200
G1 X75.504Y27.101Z0F1200
G1 X75.754Y27.134Z0F1200
G1 X76.003Y27.198Z0F1200
G1 X76.455Y27.16Z0F1200
G1 X76.898Y27.05Z0F1200
G1 X77.343Y26.948Z0F1200
G1 X77.8Y26.934Z0F1200
G1 X77.992Z0F1200
G1 X78.173Y26.978Z0F1200
G1 X78.348Y27.048Z0F1200
G1 X78.855Y27.307Z0F1200
G1 X79.206Y27.395Z0F1200
G1 X79.841Y27.267Z0F1200
G1 X80.489Y27.236Z0F1200
G1 X81.142Y27.231Z0F1200
G1 X81.792Y27.182Z0F1200
G1 X82.972Y27.063Z0F1200
G1 X84.147Y26.934Z0F1200
G1 X85.324Y26.849Z0F1200
G1 X86.508Y26.859Z0F1200
G1 X87.386Y26.883Z0F1200
G1 X88.275Y26.931Z0F1200
;Offset @ 900 mm/min, 80% power

M8

; Washing sequence (no color)
G1 Z10 F1000;        ; Raise brush to safe height
G0 X2 Y0 F1200;     ; Rapid move to brush cleaning position
G1 Z0 F500;         ; Lower brush for cleaning - controlled movement
G1 Z10 F500;         ; Raise brush slightly - controlled movement
G1 Z0 F500;         ; Lower brush for cleaning - controlled movement
G1 Z2 F500;         ; Raise brush slightly - controlled movement
G1 X22 Y0 Z8 F500;     ; Move across cleaning area - controlled movement
G1 Z10 F500;         ; Maintain brush height - controlled movement
G1 X2 Y0 Z8 F1000;     ; Move across cleaning area - controlled movement
G1 Z10 F500;         ; Maintain brush height - controlled movement
G0 X2 Y0 F1200;     ; Rapid move to brush cleaning position
G1 Z0 F500;         ; Lower brush for cleaning - controlled movement
G1 Z10 F500;         ; Raise brush slightly - controlled movement
G1 Z0 F500;         ; Lower brush for cleaning - controlled movement
G1 Z2 F500;         ; Raise brush slightly - controlled movement
G1 X22 Y0 Z8 F500;     ; Move across cleaning area - controlled movement
G1 Z10 F500;         ; Maintain brush height - controlled movement
G1 X2 Y0 Z8 F1000;     ; Move across cleaning area - controlled movement
G1 Z10 F500;         ; Maintain brush height - controlled movement
G1 F1200;           ; Set feed rate to 1000

; Color 1 picking sequence
G1 Z10 F500;         ; Raise brush to safe height
;G0 X2 Y0 F1000;     ; Rapid move to brush cleaning position
;G1 Z0 F500;         ; Lower brush for cleaning - controlled movement
;G1 Z2 F500;         ; Raise brush slightly - controlled movement
;G1 X22 Y0 Z8 F800;     ; Move across cleaning area - controlled movement
;G1 Z8 F500;         ; Maintain brush height - controlled movement
G0 X126 Y0 F1200;    ; Rapid move to color 1 position
G1 Z0 F500;         ; Lower into color - controlled movement
G1 X123 Y1 F500;     ; Small movement in paint - controlled movement
G1 Z7 F500;         ; Raise from color - controlled movement
G1 X126 Y1 F500;     ; Movement in paint - controlled movement
G1 Z1 F500;         ; Lower slightly - controlled movement
G1 X115 Y10 Z10 F500;     ; Move in paint - controlled movement
;G1 Z8 F500;         ; Raise brush - controlled movement
G1 F1200;           ; Set feed rate to 1000
G0 Z2.8F500
G0 X83.092Y41.414Z2.8F1500
G1 Z0F500
;Layer C03
G1 X83.359Y41.72Z0F1200
G1 X83.249Y41.699Z0F1200
G1 X83.09Y41.413Z0F1200
G0 Z2.8F500
G0 X84.428Y41.883Z2.8F1500
G1 Z0F500
G1 X84.954Y42.091Z0F1200
G1 X84.201Y42.26Z0F1200
G1 X83.748Y42.563Z0F1200
G1 X83.627Y42.485Z0F1200
G1 X82.795Y42.323Z0F1200
G1 X82.391Y41.596Z0F1200
G1 X81.681Y41.234Z0F1200
G1 X82.125Y40.364Z0F1200
G1 X82.195Y39.518Z0F1200
G1 X82.059Y38.808Z0F1200
G1 X81.891Y38.467Z0F1200
G1 X81.913Y38.479Z0F1200
G1 X82.355Y38.492Z0F1200
G1 X82.307Y39.025Z0F1200
G1 X82.676Y40.073Z0F1200
G1 X83.382Y40.776Z0F1200
G1 X83.632Y40.899Z0F1200
G1 X83.652Y40.991Z0F1200
G1 X84.428Y41.883Z0F1200
G0 Z2.8F500
G0 X74.758Y47.378Z2.8F1500
G1 Z0F500
G1 X74.671Y47.479Z0F1200
G1 X74.598Y47.47Z0F1200
G1 X74.758Y47.378Z0F1200
G0 Z2.8F500
G0 X75.408Y46.783Z2.8F1500
G1 Z0F500
G1 X75.596Y46.58Z0F1200
G1 X75.731Y46.269Z0F1200
G1 X75.932Y46.484Z0F1200
G1 X75.829Y46.502Z0F1200
G1 X75.408Y46.783Z0F1200
G0 Z2.8F500
G0 X73.63Y47.825Z2.8F1500
G1 Z0F500
G1 X73.471Y47.535Z0F1200
G1 X73.338Y47.186Z0F1200
G1 X73.447Y47.175Z0F1200
G1 X73.983Y47.017Z0F1200
G1 X74.528Y46.703Z0F1200
G1 X75.002Y46.191Z0F1200
G1 X75.433Y45.202Z0F1200
G1 X74.958Y43.981Z0F1200
G1 X74.906Y43.832Z0F1200
G1 X74.914Y43.829Z0F1200
G1 X75.306Y43.577Z0F1200
G1 X75.411Y43.467Z0F1200
G1 X75.533Y43.436Z0F1200
G1 X75.738Y43.333Z0F1200
G1 X75.778Z0F1200
G1 X76.187Y43.291Z0F1200
G1 X76.357Y43.242Z0F1200
G1 X75.954Y43.563Z0F1200
G1 X75.623Y44.447Z0F1200
G1 X75.832Y45.351Z0F1200
G1 X76.467Y46.032Z0F1200
G1 X77.388Y46.248Z0F1200
G1 X78.29Y45.961Z0F1200
G1 X78.732Y45.417Z0F1200
G1 X78.956Y45.628Z0F1200
G1 X79.604Y45.941Z0F1200
G1 X79.874Y46.015Z0F1200
G1 X79.535Y46.022Z0F1200
G1 X78.995Y46.08Z0F1200
G1 X78.938Z0F1200
G1 X78.596Y46.027Z0F1200
G1 X77.838Y46.202Z0F1200
G1 X77.296Y46.574Z0F1200
G1 X76.976Y46.908Z0F1200
G1 X76.869Y47.036Z0F1200
G1 X76.86Y47.033Z0F1200
G1 X76.095Y47.167Z0F1200
G1 X75.559Y47.524Z0F1200
G1 X75.235Y47.896Z0F1200
G1 X75.028Y48.249Z0F1200
G1 X74.797Y48.197Z0F1200
G1 X74.419Y48.154Z0F1200
G1 X73.933Y48.117Z0F1200
G1 X73.856Y48.1Z0F1200
G1 X73.816Y48.063Z0F1200
G1 X73.63Y47.825Z0F1200
G0 Z2.8F500
G0 X85.998Y42.271Z2.8F1500
G1 Z0F500
G1 X86.281Y42.235Z0F1200
G1 X87.015Y42.055Z0F1200
G1 X87.897Y41.274Z0F1200
G1 X87.992Y41.294Z0F1200
G1 X87.989Y42.228Z0F1200
G1 X87.966Y43.583Z0F1200
G1 X87.987Y44.928Z0F1200
G1 Y45.924Z0F1200
G1 X87.763Y45.996Z0F1200
G1 X87.474Y46.218Z0F1200
G1 X86.911Y46.148Z0F1200
G1 X87.058Y45.897Z0F1200
G1 X87.276Y45.305Z0F1200
G1 X87.647Y43.888Z0F1200
G1 X86.553Y42.48Z0F1200
G1 X85.998Y42.271Z0F1200
G0 Z2.8F500
G0 X84.844Y41.294Z2.8F1500
G1 Z0F500
G1 X85.528Y41.565Z0F1200
G1 X85.928Y41.575Z0F1200
G1 X86.152Y41.545Z0F1200
G1 X86.681Y41.416Z0F1200
G1 X87.336Y40.836Z0F1200
G1 X87.441Y40.391Z0F1200
G1 X87.624Y40.503Z0F1200
G1 X88.35Y40.653Z0F1200
G1 X88.673Y40.595Z0F1200
G1 X88.693Y40.93Z0F1200
G1 X88.689Y42.212Z0F1200
G1 X88.666Y43.583Z0F1200
G1 X88.687Y44.954Z0F1200
G1 Y46.073Z0F1200
G1 Y46.458Z0F1200
G1 X88.608Z0F1200
G1 X88.094Y46.625Z0F1200
G1 X87.688Y46.937Z0F1200
G1 X87.68Y46.949Z0F1200
G1 X86.923Y46.855Z0F1200
G1 X86.302Y47.166Z0F1200
G1 X86.193Y46.855Z0F1200
G1 X85.854Y46.406Z0F1200
G1 X85.843Y46.398Z0F1200
G1 X86.086Y46.173Z0F1200
G1 X86.422Y45.597Z0F1200
G1 X86.608Y45.094Z0F1200
G1 X86.883Y44.045Z0F1200
G1 X86.122Y43.066Z0F1200
G1 X85.255Y42.741Z0F1200
G1 X84.482Y42.914Z0F1200
G1 X83.99Y43.244Z0F1200
G1 X83.819Y43.445Z0F1200
G1 X83.359Y43.146Z0F1200
G1 X82.628Y43.004Z0F1200
G1 X82.292Y43.083Z0F1200
G1 X82.262Y42.806Z0F1200
G1 X81.883Y42.123Z0F1200
G1 X81.14Y41.744Z0F1200
G1 X80.454Y41.754Z0F1200
G1 X80.056Y41.923Z0F1200
G1 X80.013Z0F1200
G1 X79.442Y42.048Z0F1200
G1 X78.987Y42.281Z0F1200
G1 X78.577Y42.662Z0F1200
G1 X78.294Y43.193Z0F1200
G1 X78.288Y43.229Z0F1200
G1 X77.636Y42.889Z0F1200
G1 X77.052Y42.939Z0F1200
G1 X77.075Y42.927Z0F1200
G1 X77.508Y42.516Z0F1200
G1 X77.808Y41.938Z0F1200
G1 X77.818Y41.865Z0F1200
G1 X77.855Y41.816Z0F1200
G1 X78.09Y41.273Z0F1200
G1 X78.159Y40.833Z0F1200
G1 X78.134Y40.4Z0F1200
G1 X78.107Y40.309Z0F1200
G1 X78.176Y40.259Z0F1200
G1 X78.277Y40.106Z0F1200
G1 X78.397Y40.499Z0F1200
G1 X78.776Y41.008Z0F1200
G1 X79.397Y41.34Z0F1200
G1 X80.211Y41.387Z0F1200
G1 X81.059Y40.914Z0F1200
G1 X81.439Y40.169Z0F1200
G1 X81.49Y39.555Z0F1200
G1 X81.39Y39.033Z0F1200
G1 X81.11Y38.468Z0F1200
G1 X80.484Y37.959Z0F1200
G1 X79.713Y37.855Z0F1200
G1 X79.098Y38.071Z0F1200
G1 X78.714Y38.4Z0F1200
G1 X78.665Y38.47Z0F1200
G1 X78.646Y38.325Z0F1200
G1 X78.538Y37.947Z0F1200
G1 X78.375Y37.586Z0F1200
G1 X78.195Y37.316Z0F1200
G1 X78.487Y37.346Z0F1200
G1 X78.991Y37.421Z0F1200
G1 X79.338Y37.456Z0F1200
G1 X79.733Y37.46Z0F1200
G1 X80.175Y37.412Z0F1200
G1 X80.372Y37.36Z0F1200
G1 X80.708Y37.351Z0F1200
G1 X81.141Y37.393Z0F1200
G1 X81.296Y37.425Z0F1200
G1 X81.462Y37.475Z0F1200
G1 X81.614Y37.535Z0F1200
G1 X82.093Y37.784Z0F1200
G1 X83.076Y37.813Z0F1200
G1 X83.211Y37.81Z0F1200
G1 X83.11Y37.911Z0F1200
G1 X83.018Y38.936Z0F1200
G1 X83.283Y39.69Z0F1200
G1 X83.794Y40.198Z0F1200
G1 X84.245Y40.419Z0F1200
G1 X84.298Y40.667Z0F1200
G1 X84.844Y41.294Z0F1200

; Color 1 picking sequence
G1 Z10 F500;         ; Raise brush to safe height
;G0 X2 Y0 F1000;     ; Rapid move to brush cleaning position
;G1 Z0 F500;         ; Lower brush for cleaning - controlled movement
;G1 Z2 F500;         ; Raise brush slightly - controlled movement
;G1 X22 Y0 Z8 F800;     ; Move across cleaning area - controlled movement
;G1 Z8 F500;         ; Maintain brush height - controlled movement
G0 X126 Y0 F1200;    ; Rapid move to color 1 position
G1 Z0 F500;         ; Lower into color - controlled movement
G1 X123 Y1 F500;     ; Small movement in paint - controlled movement
G1 Z7 F500;         ; Raise from color - controlled movement
G1 X126 Y1 F500;     ; Movement in paint - controlled movement
G1 Z1 F500;         ; Lower slightly - controlled movement
G1 X115 Y10 Z10 F500;     ; Move in paint - controlled movement
;G1 Z8 F500;         ; Raise brush - controlled movement
G1 F1200;           ; Set feed rate to 1000

; Return to drawing position
G0 X84.844 Y41.294 F1200;  ; Return to position with raised Z
G1 Z0 F500;                       ; Lower Z to drawing position
G0 Z2.8F500
G0 X82.47Y45.883Z2.8F1500
G1 Z0F500
G1 X82.436Y45.774Z0F1200
G1 X82.361Y45.684Z0F1200
G1 X82.257Y45.63Z0F1200
G1 X82.132Y45.634Z0F1200
G1 X81.999Y45.714Z0F1200
G1 X81.952Y45.778Z0F1200
G1 X81.934Y45.847Z0F1200
G1 X81.943Y45.919Z0F1200
G1 X81.973Y45.987Z0F1200
G1 X82.081Y46.095Z0F1200
G1 X82.224Y46.131Z0F1200
G1 X82.374Y46.081Z0F1200
G1 X82.453Y45.992Z0F1200
G1 X82.47Y45.883Z0F1200
G0 Z2.8F500
G0 X84.374Y44.87Z2.8F1500
G1 Z0F500
G1 X84.347Y44.985Z0F1200
G1 X84.371Y45.118Z0F1200
G1 X84.434Y45.253Z0F1200
G1 X84.525Y45.374Z0F1200
G1 X84.634Y45.463Z0F1200
G1 X84.748Y45.505Z0F1200
G1 X84.981Y45.288Z0F1200
G1 X85.151Y44.997Z0F1200
G1 X85.271Y44.673Z0F1200
G1 X85.354Y44.358Z0F1200
G1 X85.26Y44.238Z0F1200
G1 X85.154Y44.198Z0F1200
G1 X85.043Y44.223Z0F1200
G1 X84.932Y44.297Z0F1200
G1 X84.738Y44.527Z0F1200
G1 X84.621Y44.76Z0F1200
G1 X84.461Y44.79Z0F1200
G1 X84.374Y44.87Z0F1200
G0 Z2.8F500
G0 X83.022Y45.08Z2.8F1500
G1 Z0F500
G1 X83.095Y45.02Z0F1200
G1 X83.135Y44.95Z0F1200
G1 X83.147Y44.874Z0F1200
G1 X83.1Y44.715Z0F1200
G1 X82.982Y44.571Z0F1200
G1 X82.825Y44.469Z0F1200
G1 X82.657Y44.436Z0F1200
G1 X82.578Y44.455Z0F1200
G1 X82.508Y44.5Z0F1200
G1 X82.451Y44.577Z0F1200
G1 X82.409Y44.688Z0F1200
G1 X82.461Y44.859Z0F1200
G1 X82.579Y45Z0F1200
G1 X82.738Y45.094Z0F1200
G1 X82.914Y45.125Z0F1200
G1 X83.022Y45.08Z0F1200
G0 Z2.8F500
G0 X83.76Y44.482Z2.8F1500
G1 Z0F500
G1 X83.73Y44.382Z0F1200
G1 X83.456Y44.044Z0F1200
G1 X83.092Y43.808Z0F1200
G1 X82.643Y43.72Z0F1200
G1 X82.299Y43.801Z0F1200
G1 X82.022Y43.981Z0F1200
G1 X81.831Y44.237Z0F1200
G1 X81.669Y44.666Z0F1200
G1 X81.781Y45.029Z0F1200
G1 X81.521Y45.185Z0F1200
G1 X81.307Y45.471Z0F1200
G1 X81.223Y45.802Z0F1200
G1 X81.261Y46.106Z0F1200
G1 X81.385Y46.389Z0F1200
G1 X81.721Y46.725Z0F1200
G1 X82.25Y46.861Z0F1200
G1 X82.774Y46.686Z0F1200
G1 X83.112Y46.303Z0F1200
G1 X83.187Y45.83Z0F1200
G1 X83.17Y45.777Z0F1200
G1 X83.388Y45.685Z0F1200
G1 X83.636Y45.481Z0F1200
G1 X83.709Y45.355Z0F1200
G1 X83.831Y45.617Z0F1200
G1 X84.017Y45.862Z0F1200
G1 X84.282Y46.08Z0F1200
G1 X84.911Y46.309Z0F1200
G1 X85.534Y45.73Z0F1200
G1 X85.787Y45.297Z0F1200
G1 X85.939Y44.884Z0F1200
G1 X86.118Y44.202Z0F1200
G1 X85.691Y43.652Z0F1200
G1 X85.205Y43.47Z0F1200
G1 X84.762Y43.569Z0F1200
G1 X84.461Y43.771Z0F1200
G1 X84.153Y44.134Z0F1200
G1 X84.138Y44.137Z0F1200
G1 X83.76Y44.482Z0F1200
G0 Z2.8F500
G0 X77.467Y44.753Z2.8F1500
G1 Z0F500
G1 X77.536Y44.669Z0F1200
G1 X77.547Y44.563Z0F1200
G1 X77.512Y44.456Z0F1200
G1 X77.443Y44.368Z0F1200
G1 X77.349Y44.318Z0F1200
G1 X77.241Y44.328Z0F1200
G1 X77.129Y44.417Z0F1200
G1 X77.082Y44.543Z0F1200
G1 X77.111Y44.67Z0F1200
G1 X77.201Y44.766Z0F1200
G1 X77.332Y44.796Z0F1200
G1 X77.467Y44.753Z0F1200
G0 Z2.8F500
G0 X78.259Y44.49Z2.8F1500
G1 Z0F500
G1 X78.14Y44.122Z0F1200
G1 X77.901Y43.817Z0F1200
G1 X77.492Y43.604Z0F1200
G1 X76.97Y43.648Z0F1200
G1 X76.542Y43.99Z0F1200
G1 X76.353Y44.495Z0F1200
G1 X76.472Y45.01Z0F1200
G1 X76.834Y45.399Z0F1200
G1 X77.36Y45.522Z0F1200
G1 X77.878Y45.357Z0F1200
G1 X78.21Y44.95Z0F1200
G1 X78.259Y44.49Z0F1200
G0 Z2.8F500
G0 X79.702Y43.528Z2.8F1500
G1 Z0F500
G1 X79.637Y43.65Z0F1200
G1 X79.61Y43.81Z0F1200
G1 X79.549Y44.024Z0F1200
G1 X79.562Y44.201Z0F1200
G1 X79.637Y44.345Z0F1200
G1 X79.76Y44.461Z0F1200
G1 X80.097Y44.625Z0F1200
G1 X80.468Y44.726Z0F1200
G1 X80.625Y44.626Z0F1200
G1 X80.733Y44.486Z0F1200
G1 X80.803Y44.314Z0F1200
G1 X80.844Y44.122Z0F1200
G1 X80.877Y43.714Z0F1200
G1 X80.912Y43.342Z0F1200
G1 X80.901Y43.238Z0F1200
G1 X80.866Y43.176Z0F1200
G1 X80.813Y43.149Z0F1200
G1 X80.749Z0F1200
G1 X80.604Y43.211Z0F1200
G1 X80.479Y43.304Z0F1200
G1 X80.196Y43.318Z0F1200
G1 X79.917Y43.378Z0F1200
G1 X79.798Y43.439Z0F1200
G1 X79.702Y43.528Z0F1200
G0 Z2.8F500
G0 X78.875Y44.396Z2.8F1500
G1 Z0F500
G1 X79.07Y44.773Z0F1200
G1 X79.358Y45.044Z0F1200
G1 X79.851Y45.283Z0F1200
G1 X80.582Y45.482Z0F1200
G1 X81.104Y45.151Z0F1200
G1 X81.346Y44.838Z0F1200
G1 X81.475Y44.521Z0F1200
G1 X81.538Y44.224Z0F1200
G1 X81.575Y43.772Z0F1200
G1 X81.616Y43.336Z0F1200
G1 X81.582Y43.022Z0F1200
G1 X81.375Y42.649Z0F1200
G1 X80.977Y42.446Z0F1200
G1 X80.601Y42.452Z0F1200
G1 X80.255Y42.599Z0F1200
G1 X80.232Y42.615Z0F1200
G1 X80.104Y42.622Z0F1200
G1 X79.68Y42.713Z0F1200
G1 X79.393Y42.86Z0F1200
G1 X79.14Y43.095Z0F1200
G1 X78.966Y43.422Z0F1200
G1 X78.927Y43.652Z0F1200
G1 X78.841Y43.951Z0F1200
G1 X78.875Y44.396Z0F1200
G0 Z2.8F500
G0 X79.785Y39.96Z2.8F1500
G1 Z0F500
G1 X79.885Y39.966Z0F1200
G1 X80.005Y39.899Z0F1200
G1 X80.066Y39.778Z0F1200
G1 X80.079Y39.631Z0F1200
G1 X80.05Y39.483Z0F1200
G1 X79.99Y39.362Z0F1200
G1 X79.907Y39.294Z0F1200
G1 X79.859Y39.288Z0F1200
G1 X79.809Y39.305Z0F1200
G1 X79.758Y39.349Z0F1200
G1 X79.706Y39.423Z0F1200
G1 X79.645Y39.588Z0F1200
G1 X79.64Y39.774Z0F1200
G1 X79.665Y39.857Z0F1200
G1 X79.713Y39.921Z0F1200
G1 X79.785Y39.96Z0F1200
G0 Z2.8F500
G0 X80.532Y40.406Z2.8F1500
G1 Z0F500
G1 X80.752Y39.974Z0F1200
G1 X80.784Y39.593Z0F1200
G1 X80.72Y39.258Z0F1200
G1 X80.55Y38.915Z0F1200
G1 X80.195Y38.626Z0F1200
G1 X79.787Y38.572Z0F1200
G1 X79.454Y38.688Z0F1200
G1 X79.236Y38.875Z0F1200
G1 X79.081Y39.095Z0F1200
G1 X78.948Y39.454Z0F1200
G1 X78.937Y39.871Z0F1200
G1 X79.031Y40.178Z0F1200
G1 X79.245Y40.465Z0F1200
G1 X79.591Y40.65Z0F1200
G1 X80.048Y40.677Z0F1200
G1 X80.532Y40.406Z0F1200
G0 Z2.8F500
G0 X81.75Y47.456Z2.8F1500
G1 Z0F500
G1 X81.688Y47.51Z0F1200
G1 X81.668Y47.435Z0F1200
G1 X81.75Y47.456Z0F1200
G0 Z2.8F500
G0 X82.773Y47.942Z2.8F1500
G1 Z0F500
G1 X82.776Y47.976Z0F1200
G1 X82.619Y47.935Z0F1200
G1 X82.14Y48.046Z0F1200
G1 X81.83Y48.321Z0F1200
G1 X81.676Y48.644Z0F1200
G1 X81.65Y48.968Z0F1200
G1 X81.717Y49.255Z0F1200
G1 X81.856Y49.506Z0F1200
G1 X82.069Y49.717Z0F1200
G1 X82.364Y49.866Z0F1200
G1 X82.684Y49.898Z0F1200
G1 X82.883Y49.862Z0F1200
G1 Y49.87Z0F1200
G1 Y49.88Z0F1200
G1 X82.853Y49.869Z0F1200
G1 X82.288Y50Z0F1200
G1 X81.893Y50.509Z0F1200
G1 Y50.882Z0F1200
G1 X81.826Y50.748Z0F1200
G1 X81.566Y50.399Z0F1200
G1 X81.246Y50.097Z0F1200
G1 X81.208Y50.072Z0F1200
G1 X81.399Y49.865Z0F1200
G1 X81.273Y48.988Z0F1200
G1 X81.086Y48.474Z0F1200
G1 X81.017Y48.275Z0F1200
G1 X80.982Y48.132Z0F1200
G1 X80.974Y48.025Z0F1200
G1 X81.018Y47.71Z0F1200
G1 X80.929Y47.375Z0F1200
G1 X80.779Y47.116Z0F1200
G1 X80.563Y46.919Z0F1200
G1 X80.307Y46.787Z0F1200
G1 X79.927Y46.714Z0F1200
G1 X79.58Y46.721Z0F1200
G1 X79.046Y46.778Z0F1200
G1 X78.894Y46.783Z0F1200
G1 X78.621Y46.74Z0F1200
G1 X78.125Y46.854Z0F1200
G1 X77.751Y47.11Z0F1200
G1 X77.498Y47.374Z0F1200
G1 X77.309Y47.603Z0F1200
G1 X77.171Y47.758Z0F1200
G1 X77.086Y47.829Z0F1200
G1 X76.82Y47.751Z0F1200
G1 X76.36Y47.831Z0F1200
G1 X76.025Y48.054Z0F1200
G1 X75.806Y48.307Z0F1200
G1 X75.577Y48.696Z0F1200
G1 X75.39Y49.021Z0F1200
G1 X75.355Y49.095Z0F1200
G1 X75.045Y48.969Z0F1200
G1 X74.681Y48.889Z0F1200
G1 X74.353Y48.852Z0F1200
G1 X73.83Y48.812Z0F1200
G1 X73.522Y48.742Z0F1200
G1 X73.303Y48.543Z0F1200
G1 X73.043Y48.209Z0F1200
G1 X72.834Y47.831Z0F1200
G1 X72.539Y47.052Z0F1200
G1 X72.066Y46.91Z0F1200
G1 X72.116Y46.779Z0F1200
G1 X72.113Y46.416Z0F1200
G1 X72.106Y46.398Z0F1200
G1 X72.186Y46.427Z0F1200
G1 X72.548Y46.501Z0F1200
G1 X72.924Y46.523Z0F1200
G1 X73.313Y46.484Z0F1200
G1 X73.706Y46.369Z0F1200
G1 X74.086Y46.149Z0F1200
G1 X74.408Y45.803Z0F1200
G1 X74.676Y45.187Z0F1200
G1 X74.301Y44.224Z0F1200
G1 X74.016Y43.415Z0F1200
G1 X74.007Y43.403Z0F1200
G1 X74.312Y43.324Z0F1200
G1 X74.585Y43.208Z0F1200
G1 X74.857Y43.033Z0F1200
G1 X75.043Y42.839Z0F1200
G1 X75.286Y42.776Z0F1200
G1 X75.585Y42.626Z0F1200
G1 X75.754Y42.633Z0F1200
G1 X76.052Y42.601Z0F1200
G1 X76.357Y42.514Z0F1200
G1 X76.663Y42.353Z0F1200
G1 X76.941Y42.089Z0F1200
G1 X77.131Y41.723Z0F1200
G1 X77.15Y41.589Z0F1200
G1 X77.246Y41.461Z0F1200
G1 X77.412Y41.077Z0F1200
G1 X77.456Y40.798Z0F1200
G1 X77.44Y40.522Z0F1200
G1 X77.358Y40.248Z0F1200
G1 X77.318Y40.178Z0F1200
G1 X77.299Y40.036Z0F1200
G1 Y40.027Z0F1200
G1 X77.663Y39.766Z0F1200
G1 X77.882Y39.432Z0F1200
G1 X77.981Y39.088Z0F1200
G1 X77.997Y38.766Z0F1200
G1 X77.958Y38.467Z0F1200
G1 X77.878Y38.188Z0F1200
G1 X77.76Y37.927Z0F1200
G1 X77.549Y37.61Z0F1200
G1 X77.171Y37.386Z0F1200
G1 X76.917Y37.328Z0F1200
G1 X76.942Y37.211Z0F1200
G1 X76.856Y36.819Z0F1200
G1 X76.656Y36.499Z0F1200
G1 X76.675Y36.504Z0F1200
G1 X77.187Y36.576Z0F1200
G1 X77.685Y36.605Z0F1200
G1 X78.119Z0F1200
G1 X78.575Y36.651Z0F1200
G1 X79.078Y36.727Z0F1200
G1 X79.376Y36.756Z0F1200
G1 X79.699Y36.76Z0F1200
G1 X80.046Y36.722Z0F1200
G1 X80.27Y36.662Z0F1200
G1 X80.735Y36.65Z0F1200
G1 X81.244Y36.7Z0F1200
G1 X81.468Y36.747Z0F1200
G1 X81.693Y36.813Z0F1200
G1 X81.902Y36.896Z0F1200
G1 X82.274Y37.088Z0F1200
G1 X83.081Y37.112Z0F1200
G1 X83.765Y37.1Z0F1200
G1 X84.471Y37.026Z0F1200
G1 X85.375Y36.808Z0F1200
G1 X85.516Y36.615Z0F1200
G1 X85.538Z0F1200
G1 X85.938Y36.646Z0F1200
G1 X86.435Y36.616Z0F1200
G1 X87.015Y36.425Z0F1200
G1 X87.461Y36.164Z0F1200
G1 X87.478Y36.155Z0F1200
G1 X87.406Y36.251Z0F1200
G1 X87.31Y36.553Z0F1200
G1 X87.313Y36.855Z0F1200
G1 X87.405Y37.133Z0F1200
G1 X87.476Y37.234Z0F1200
G1 X87.136Y37.325Z0F1200
G1 X86.79Y37.465Z0F1200
G1 X86.508Y37.589Z0F1200
G1 X86.277Y37.672Z0F1200
G1 X86.123Y37.701Z0F1200
G1 X85.871Y37.679Z0F1200
G1 X85.527Z0F1200
G1 X85.154Y37.634Z0F1200
G1 X84.876Y37.625Z0F1200
G1 X84.547Y37.669Z0F1200
G1 X84.182Y37.828Z0F1200
G1 X83.785Y38.226Z0F1200
G1 X83.729Y38.847Z0F1200
G1 X83.89Y39.307Z0F1200
G1 X84.206Y39.621Z0F1200
G1 X84.562Y39.795Z0F1200
G1 X84.882Y39.853Z0F1200
G1 X84.857Y39.935Z0F1200
G1 X84.945Y40.344Z0F1200
G1 X85.26Y40.707Z0F1200
G1 X85.669Y40.869Z0F1200
G1 X85.891Y40.874Z0F1200
G1 X86.023Y40.856Z0F1200
G1 X86.346Y40.777Z0F1200
G1 X86.706Y40.459Z0F1200
G1 X86.817Y39.988Z0F1200
G1 X86.751Y39.768Z0F1200
G1 X87.005Y39.638Z0F1200
G1 X87.244Y39.376Z0F1200
G1 X87.289Y39.417Z0F1200
G1 X87.53Y39.624Z0F1200
G1 X87.885Y39.842Z0F1200
G1 X88.359Y39.94Z0F1200
G1 X88.783Y39.864Z0F1200
G1 X89.107Y39.813Z0F1200
G1 X89.325Y39.758Z0F1200
G1 X89.393Y40.906Z0F1200
G1 X89.389Y42.235Z0F1200
G1 X89.366Y43.584Z0F1200
G1 X89.387Y44.931Z0F1200
G1 Y46.072Z0F1200
G1 X89.39Y47.216Z0F1200
G1 Y47.321Z0F1200
G1 X89.04Y47.164Z0F1200
G1 X88.714Y47.159Z0F1200
G1 X88.426Y47.252Z0F1200
G1 X88.193Y47.432Z0F1200
G1 X87.979Y47.722Z0F1200
G1 X87.94Y47.965Z0F1200
G1 X87.914Y47.917Z0F1200
G1 X87.561Y47.64Z0F1200
G1 X87.047Y47.576Z0F1200
G1 X86.521Y47.839Z0F1200
G1 X86.43Y48.026Z0F1200
G1 X86.03Y48.253Z0F1200
G1 X85.998Y48.302Z0F1200
G1 X85.843Y48.028Z0F1200
G1 X85.663Y47.848Z0F1200
G1 X85.681Y47.78Z0F1200
G1 X85.669Y47.475Z0F1200
G1 X85.569Y47.19Z0F1200
G1 X85.375Y46.932Z0F1200
G1 X85.062Y46.739Z0F1200
G1 X84.66Y46.697Z0F1200
G1 X84.291Y46.84Z0F1200
G1 X84.12Y47.003Z0F1200
G1 X83.935Y47.172Z0F1200
G1 X83.788Y47.272Z0F1200
G1 X83.762Y47.284Z0F1200
G1 X83.749Y47.288Z0F1200
G1 X83.742Z0F1200
G1 X83.205Y47.219Z0F1200
G1 X82.773Y47.942Z0F1200

; Color 1 picking sequence
G1 Z10 F500;         ; Raise brush to safe height
;G0 X2 Y0 F1000;     ; Rapid move to brush cleaning position
;G1 Z0 F500;         ; Lower brush for cleaning - controlled movement
;G1 Z2 F500;         ; Raise brush slightly - controlled movement
;G1 X22 Y0 Z8 F800;     ; Move across cleaning area - controlled movement
;G1 Z8 F500;         ; Maintain brush height - controlled movement
G0 X126 Y0 F1200;    ; Rapid move to color 1 position
G1 Z0 F500;         ; Lower into color - controlled movement
G1 X123 Y1 F500;     ; Small movement in paint - controlled movement
G1 Z7 F500;         ; Raise from color - controlled movement
G1 X126 Y1 F500;     ; Movement in paint - controlled movement
G1 Z1 F500;         ; Lower slightly - controlled movement
G1 X115 Y10 Z10 F500;     ; Move in paint - controlled movement
;G1 Z8 F500;         ; Raise brush - controlled movement
G1 F1200;           ; Set feed rate to 1000

; Return to drawing position
G0 X82.773 Y47.942 F1200;  ; Return to position with raised Z
G1 Z0 F500;                       ; Lower Z to drawing position
G0 Z2.8F500
G0 X85.69Y49.298Z2.8F1500
G1 Z0F500
G1 X85.762Y49.244Z0F1200
G1 X85.81Y49.186Z0F1200
G1 X85.857Y49.331Z0F1200
G1 X86.051Y49.589Z0F1200
G1 X86.424Y49.831Z0F1200
G1 X86.898Y49.911Z0F1200
G1 X87.412Y49.745Z0F1200
G1 X87.332Y49.917Z0F1200
G1 X87.248Y50.063Z0F1200
G1 X87.188Y50.135Z0F1200
G1 X87.167Y50.149Z0F1200
G1 X87.076Y50.174Z0F1200
G1 X86.663Y50.222Z0F1200
G1 X86.265Y50.213Z0F1200
G1 X86.179Y50.191Z0F1200
G1 X86.135Y50.168Z0F1200
G1 X86.116Y50.148Z0F1200
G1 X85.857Y49.623Z0F1200
G1 X85.69Y49.298Z0F1200
G0 Z2.8F500
G0 X89.139Y49.098Z2.8F1500
G1 Z0F500
G1 X89.234Y49.082Z0F1200
G1 X89.331Y49.037Z0F1200
G1 X89.328Y49.093Z0F1200
G1 X89.224Y49.191Z0F1200
G1 X89.183Y49.142Z0F1200
G1 X89.139Y49.098Z0F1200
G0 Z2.8F500
G0 X88.828Y37.562Z2.8F1500
G1 Z0F500
G1 X88.866Y37.552Z0F1200
G1 X89.151Y37.241Z0F1200
G1 X89.188Y37.26Z0F1200
G1 X89.377Y37.322Z0F1200
G1 X89.389Y37.368Z0F1200
G1 X89.396Y37.488Z0F1200
G1 X89.361Y37.936Z0F1200
G1 Y37.953Z0F1200
G1 X89.226Y37.872Z0F1200
G1 X88.975Y37.706Z0F1200
G1 X88.828Y37.562Z0F1200
G0 Z2.8F500
G0 X82.804Y50.599Z2.8F1500
G1 Z0F500
G1 X82.688Y50.626Z0F1200
G1 X82.594Y50.747Z0F1200
G1 Y50.897Z0F1200
G1 X82.654Y51.039Z0F1200
G1 X82.762Y51.141Z0F1200
G1 X82.909Y51.171Z0F1200
G1 X83.052Y51.1Z0F1200
G1 X83.107Y50.989Z0F1200
G1 X83.092Y50.861Z0F1200
G1 X83.024Y50.739Z0F1200
G1 X82.922Y50.644Z0F1200
G1 X82.804Y50.599Z0F1200
G0 Z2.8F500
G0 X86.463Y48.931Z2.8F1500
G1 Z0F500
G1 X86.487Y49.003Z0F1200
G1 X86.536Y49.069Z0F1200
G1 X86.684Y49.165Z0F1200
G1 X86.846Y49.192Z0F1200
G1 X86.996Y49.144Z0F1200
G1 X87.061Y49.059Z0F1200
G1 X87.055Y48.955Z0F1200
G1 X86.995Y48.851Z0F1200
G1 X86.896Y48.764Z0F1200
G1 X86.773Y48.71Z0F1200
G1 X86.645Z0F1200
G1 X86.523Y48.778Z0F1200
G1 X86.473Y48.855Z0F1200
G1 X86.463Y48.931Z0F1200
G0 Z2.8F500
G0 X82.897Y49.089Z2.8F1500
G1 Z0F500
G1 X82.922Y48.985Z0F1200
G1 X82.896Y48.872Z0F1200
G1 X82.83Y48.766Z0F1200
G1 X82.73Y48.688Z0F1200
G1 X82.608Y48.656Z0F1200
G1 X82.472Y48.688Z0F1200
G1 X82.401Y48.75Z0F1200
G1 X82.363Y48.829Z0F1200
G1 X82.356Y48.915Z0F1200
G1 X82.376Y49.001Z0F1200
G1 X82.42Y49.079Z0F1200
G1 X82.483Y49.142Z0F1200
G1 X82.563Y49.183Z0F1200
G1 X82.656Y49.192Z0F1200
G1 X82.812Y49.164Z0F1200
G1 X82.897Y49.089Z0F1200
G0 Z2.8F500
G0 X87.046Y48.359Z2.8F1500
G1 Z0F500
G1 X86.978Y48.499Z0F1200
G1 X86.983Y48.661Z0F1200
G1 X87.012Y48.734Z0F1200
G1 X87.059Y48.794Z0F1200
G1 X87.124Y48.833Z0F1200
G1 X87.206Y48.845Z0F1200
G1 X87.345Y48.805Z0F1200
G1 X87.423Y48.718Z0F1200
G1 X87.448Y48.604Z0F1200
G1 X87.428Y48.485Z0F1200
G1 X87.37Y48.38Z0F1200
G1 X87.281Y48.311Z0F1200
G1 X87.171Y48.297Z0F1200
G1 X87.046Y48.359Z0F1200
G0 Z2.8F500
G0 X88.62Y48.15Z2.8F1500
G1 Z0F500
G1 X88.673Y48.289Z0F1200
G1 X88.783Y48.39Z0F1200
G1 X88.931Y48.423Z0F1200
G1 X89.027Y48.407Z0F1200
G1 X89.098Y48.375Z0F1200
G1 X89.145Y48.33Z0F1200
G1 X89.171Y48.275Z0F1200
G1 X89.168Y48.148Z0F1200
G1 X89.107Y48.021Z0F1200
G1 X89.007Y47.917Z0F1200
G1 X88.884Y47.861Z0F1200
G1 X88.82Z0F1200
G1 X88.757Y47.881Z0F1200
G1 X88.698Y47.927Z0F1200
G1 X88.644Y48Z0F1200
G1 X88.62Y48.15Z0F1200
G0 Z2.8F500
G0 X71.299Y46.83Z2.8F1500
G1 Z0F500
G1 X71.377Y46.753Z0F1200
G1 X71.415Y46.653Z0F1200
G1 Y46.545Z0F1200
G1 X71.376Y46.443Z0F1200
G1 X71.302Y46.362Z0F1200
G1 X71.194Y46.318Z0F1200
G1 X71.054Y46.325Z0F1200
G1 X70.945Y46.361Z0F1200
G1 X70.871Y46.43Z0F1200
G1 X70.83Y46.521Z0F1200
G1 X70.821Y46.62Z0F1200
G1 X70.844Y46.717Z0F1200
G1 X70.898Y46.798Z0F1200
G1 X70.983Y46.853Z0F1200
G1 X71.096Y46.869Z0F1200
G1 X71.139Z0F1200
G1 X71.178Z0F1200
G1 X71.299Y46.83Z0F1200
G0 Z2.8F500
G0 X85.894Y40.167Z2.8F1500
G1 Z0F500
G1 X86.012Y40.139Z0F1200
G1 X86.076Y40.082Z0F1200
G1 X86.093Y40.01Z0F1200
G1 X86.07Y39.933Z0F1200
G1 X86.015Y39.865Z0F1200
G1 X85.936Y39.818Z0F1200
G1 X85.839Y39.803Z0F1200
G1 X85.732Y39.833Z0F1200
G1 X85.645Y39.868Z0F1200
G1 X85.596Y39.914Z0F1200
G1 X85.58Y39.966Z0F1200
G1 X85.592Y40.021Z0F1200
G1 X85.677Y40.119Z0F1200
G1 X85.811Y40.172Z0F1200
G1 X85.853Z0F1200
G1 X85.894Y40.167Z0F1200
G0 Z2.8F500
G0 X88.369Y39.228Z2.8F1500
G1 Z0F500
G1 X88.658Y39.175Z0F1200
G1 X88.966Y39.127Z0F1200
G1 X89.112Y39.09Z0F1200
G1 X89.244Y39.037Z0F1200
G1 X89.355Y38.961Z0F1200
G1 X89.442Y38.858Z0F1200
G1 X89.16Y38.648Z0F1200
G1 X88.844Y38.459Z0F1200
G1 X88.534Y38.254Z0F1200
G1 X88.271Y37.996Z0F1200
G1 X88.115Y37.934Z0F1200
G1 X87.961Y37.901Z0F1200
G1 X87.809Y37.895Z0F1200
G1 X87.658Y37.91Z0F1200
G1 X87.359Y37.99Z0F1200
G1 X87.062Y38.11Z0F1200
G1 X86.764Y38.241Z0F1200
G1 X86.463Y38.35Z0F1200
G1 X86.156Y38.406Z0F1200
G1 X85.841Y38.379Z0F1200
G1 X85.489Z0F1200
G1 X85.101Y38.333Z0F1200
G1 X84.912Y38.327Z0F1200
G1 X84.737Y38.35Z0F1200
G1 X84.583Y38.417Z0F1200
G1 X84.459Y38.542Z0F1200
G1 X84.439Y38.758Z0F1200
G1 X84.498Y38.923Z0F1200
G1 X84.618Y39.043Z0F1200
G1 X84.782Y39.124Z0F1200
G1 X85.181Y39.196Z0F1200
G1 X85.56Y39.192Z0F1200
G1 X85.902Z0F1200
G1 X86.267Y39.182Z0F1200
G1 X86.433Y39.145Z0F1200
G1 X86.574Y39.072Z0F1200
G1 X86.681Y38.955Z0F1200
G1 X86.743Y38.782Z0F1200
G1 X86.86Y38.661Z0F1200
G1 X86.972Y38.582Z0F1200
G1 X87.079Y38.54Z0F1200
G1 X87.181Y38.53Z0F1200
G1 X87.376Y38.59Z0F1200
G1 X87.564Y38.723Z0F1200
G1 X87.751Y38.891Z0F1200
G1 X87.944Y39.057Z0F1200
G1 X88.147Y39.182Z0F1200
G1 X88.369Y39.228Z0F1200
G0 Z2.8F500
G0 X76.226Y37.21Z2.8F1500
G1 Z0F500
G1 X76.199Y37.087Z0F1200
G1 X76.13Y36.978Z0F1200
G1 X76.029Y36.904Z0F1200
G1 X75.906Y36.889Z0F1200
G1 X75.771Y36.954Z0F1200
G1 X75.704Y37.023Z0F1200
G1 X75.667Y37.104Z0F1200
G1 X75.658Y37.188Z0F1200
G1 X75.675Y37.269Z0F1200
G1 X75.715Y37.341Z0F1200
G1 X75.776Y37.397Z0F1200
G1 X75.857Y37.431Z0F1200
G1 X75.955Y37.435Z0F1200
G1 X76.113Y37.406Z0F1200
G1 X76.2Y37.324Z0F1200
G1 X76.226Y37.21Z0F1200
G0 Z2.8F500
G0 X88.093Y36.5Z2.8F1500
G1 Z0F500
G1 X88.037Y36.576Z0F1200
G1 X88.011Y36.657Z0F1200
G1 Y36.739Z0F1200
G1 X88.038Y36.816Z0F1200
G1 X88.084Y36.883Z0F1200
G1 X88.15Y36.934Z0F1200
G1 X88.231Y36.964Z0F1200
G1 X88.325Y36.968Z0F1200
G1 X88.491Y36.926Z0F1200
G1 X88.577Y36.832Z0F1200
G1 X88.595Y36.71Z0F1200
G1 X88.558Y36.584Z0F1200
G1 X88.477Y36.477Z0F1200
G1 X88.364Y36.411Z0F1200
G1 X88.232Z0F1200
G1 X88.093Y36.5Z0F1200
G0 Z2.8F500
G0 X73.919Y45.172Z2.8F1500
G1 Z0F500
G1 X73.644Y44.464Z0F1200
G1 X73.391Y43.748Z0F1200
G1 X73.216Y43.513Z0F1200
G1 X73.076Y43.225Z0F1200
G1 X73.053Y43.088Z0F1200
G1 X73.081Y42.97Z0F1200
G1 X73.173Y42.883Z0F1200
G1 X73.344Y42.837Z0F1200
G1 X73.712Y42.757Z0F1200
G1 X74.085Y42.66Z0F1200
G1 X74.257Y42.587Z0F1200
G1 X74.409Y42.489Z0F1200
G1 X74.535Y42.357Z0F1200
G1 X74.628Y42.187Z0F1200
G1 X74.838Y42.169Z0F1200
G1 X75.039Y42.117Z0F1200
G1 X75.218Y42.027Z0F1200
G1 X75.366Y41.892Z0F1200
G1 X75.543Y41.924Z0F1200
G1 X75.731Y41.931Z0F1200
G1 X75.918Y41.911Z0F1200
G1 X76.095Y41.861Z0F1200
G1 X76.25Y41.779Z0F1200
G1 X76.374Y41.662Z0F1200
G1 X76.455Y41.507Z0F1200
G1 X76.481Y41.313Z0F1200
G1 X76.637Y41.107Z0F1200
G1 X76.734Y40.881Z0F1200
G1 X76.753Y40.763Z0F1200
G1 X76.746Y40.644Z0F1200
G1 X76.71Y40.525Z0F1200
G1 X76.643Y40.407Z0F1200
G1 X76.6Y40.089Z0F1200
G1 X76.594Y39.742Z0F1200
G1 X76.63Y39.589Z0F1200
G1 X76.706Y39.468Z0F1200
G1 X76.829Y39.391Z0F1200
G1 X77.011Y39.372Z0F1200
G1 X77.149Y39.272Z0F1200
G1 X77.239Y39.136Z0F1200
G1 X77.286Y38.973Z0F1200
G1 X77.295Y38.794Z0F1200
G1 X77.271Y38.609Z0F1200
G1 X77.22Y38.431Z0F1200
G1 X77.146Y38.268Z0F1200
G1 X77.055Y38.131Z0F1200
G1 X76.908Y38.044Z0F1200
G1 X76.749Y38.007Z0F1200
G1 X76.582Y38.004Z0F1200
G1 X76.243Y38.03Z0F1200
G1 X76.079Y38.023Z0F1200
G1 X75.924Y37.98Z0F1200
G1 X75.783Y37.883Z0F1200
G1 X75.449Y37.824Z0F1200
G1 X75.073Y37.843Z0F1200
G1 X74.911Y37.834Z0F1200
G1 X74.788Y37.785Z0F1200
G1 X74.746Y37.74Z0F1200
G1 X74.721Y37.678Z0F1200
G1 X74.714Y37.597Z0F1200
G1 X74.728Y37.493Z0F1200
G1 X74.706Y37.328Z0F1200
G1 X74.724Y37.177Z0F1200
G1 X74.772Y37.036Z0F1200
G1 X74.841Y36.901Z0F1200
G1 X74.997Y36.637Z0F1200
G1 X75.11Y36.356Z0F1200
G1 X75.092Y36.152Z0F1200
G1 X75.082Y35.982Z0F1200
G1 X75.101Y35.925Z0F1200
G1 X75.149Y35.896Z0F1200
G1 X75.234Y35.899Z0F1200
G1 X75.366Y35.942Z0F1200
G1 X75.506Y35.955Z0F1200
G1 X75.633Y35.93Z0F1200
G1 X75.752Y35.878Z0F1200
G1 X75.983Y35.752Z0F1200
G1 X76.105Y35.705Z0F1200
G1 X76.237Y35.685Z0F1200
G1 X76.384Y35.705Z0F1200
G1 X76.812Y35.816Z0F1200
G1 X77.256Y35.879Z0F1200
G1 X77.706Y35.905Z0F1200
G1 X78.154Z0F1200
G1 X78.661Y35.956Z0F1200
G1 X79.164Y36.032Z0F1200
G1 X79.414Y36.056Z0F1200
G1 X79.666Y36.059Z0F1200
G1 X79.917Y36.032Z0F1200
G1 X80.17Y35.964Z0F1200
G1 X80.761Y35.95Z0F1200
G1 X81.351Y36.007Z0F1200
G1 X81.639Y36.067Z0F1200
G1 X81.921Y36.15Z0F1200
G1 X82.193Y36.258Z0F1200
G1 X82.454Y36.394Z0F1200
G1 X83.084Y36.412Z0F1200
G1 X83.722Y36.401Z0F1200
G1 X84.352Y36.334Z0F1200
G1 X84.961Y36.188Z0F1200
G1 X85.069Y36.039Z0F1200
G1 X85.21Y35.955Z0F1200
G1 X85.376Y35.918Z0F1200
G1 X85.559Y35.915Z0F1200
G1 X85.944Y35.944Z0F1200
G1 X86.302Y35.923Z0F1200
G1 X86.726Y35.783Z0F1200
G1 X87.122Y35.552Z0F1200
G1 X87.322Y35.446Z0F1200
G1 X87.529Y35.371Z0F1200
G1 X87.75Y35.343Z0F1200
G1 X87.988Y35.382Z0F1200
G1 X88.405Y35.744Z0F1200
G1 X88.796Y36.138Z0F1200
G1 X89Y36.321Z0F1200
G1 X89.221Y36.483Z0F1200
G1 X89.463Y36.614Z0F1200
G1 X89.736Y36.702Z0F1200
G1 X89.918Y36.855Z0F1200
G1 X90.029Y37.044Z0F1200
G1 X90.084Y37.26Z0F1200
G1 X90.098Y37.495Z0F1200
G1 X90.06Y37.982Z0F1200
G1 X90.035Y38.434Z0F1200
G1 X89.975Y38.716Z0F1200
G1 X89.913Y38.992Z0F1200
G1 X89.898Y39.129Z0F1200
G1 X89.905Y39.267Z0F1200
G1 X89.941Y39.407Z0F1200
G1 X90.013Y39.548Z0F1200
G1 X90.093Y40.89Z0F1200
G1 X90.089Y42.237Z0F1200
G1 X90.066Y43.585Z0F1200
G1 X90.087Y44.932Z0F1200
G1 Y46.071Z0F1200
G1 X90.09Y47.213Z0F1200
G1 X90.073Y48.352Z0F1200
G1 X90.006Y49.485Z0F1200
G1 X89.838Y49.574Z0F1200
G1 X89.707Y49.698Z0F1200
G1 X89.608Y49.85Z0F1200
G1 X89.537Y50.021Z0F1200
G1 X89.354Y50.111Z0F1200
G1 X89.19Y50.108Z0F1200
G1 X89.043Y50.034Z0F1200
G1 X88.908Y49.912Z0F1200
G1 X88.665Y49.613Z0F1200
G1 X88.438Y49.39Z0F1200
G1 X88.294Y49.556Z0F1200
G1 X88.175Y49.765Z0F1200
G1 X87.954Y50.238Z0F1200
G1 X87.825Y50.463Z0F1200
G1 X87.667Y50.655Z0F1200
G1 X87.465Y50.795Z0F1200
G1 X87.208Y50.863Z0F1200
G1 X86.697Y50.922Z0F1200
G1 X86.169Y50.911Z0F1200
G1 X85.926Y50.85Z0F1200
G1 X85.712Y50.736Z0F1200
G1 X85.538Y50.559Z0F1200
G1 X85.231Y49.938Z0F1200
G1 X85.023Y49.531Z0F1200
G1 X84.961Y49.33Z0F1200
G1 X84.955Y49.136Z0F1200
G1 X85.024Y48.958Z0F1200
G1 X85.189Y48.8Z0F1200
G1 X85.272Y48.737Z0F1200
G1 X85.322Y48.676Z0F1200
G1 X85.344Y48.619Z0F1200
G1 X85.341Y48.563Z0F1200
G1 X85.28Y48.455Z0F1200
G1 X85.173Y48.347Z0F1200
G1 X85.053Y48.233Z0F1200
G1 X84.953Y48.108Z0F1200
G1 X84.908Y47.966Z0F1200
G1 X84.978Y47.703Z0F1200
G1 X84.974Y47.608Z0F1200
G1 X84.944Y47.524Z0F1200
G1 X84.895Y47.459Z0F1200
G1 X84.83Y47.419Z0F1200
G1 X84.755Y47.411Z0F1200
G1 X84.674Y47.442Z0F1200
G1 X84.592Y47.521Z0F1200
G1 X84.373Y47.721Z0F1200
G1 X84.131Y47.886Z0F1200
G1 X84.001Y47.945Z0F1200
G1 X83.865Y47.981Z0F1200
G1 X83.721Y47.992Z0F1200
G1 X83.57Y47.972Z0F1200
G1 X83.492Y48.104Z0F1200
G1 X83.504Y48.232Z0F1200
G1 X83.578Y48.359Z0F1200
G1 X83.795Y48.62Z0F1200
G1 X83.881Y48.76Z0F1200
G1 X83.913Y48.908Z0F1200
G1 X83.862Y49.069Z0F1200
G1 X83.741Y49.26Z0F1200
G1 X83.656Y49.463Z0F1200
G1 X83.604Y49.675Z0F1200
G1 X83.583Y49.891Z0F1200
G1 X83.591Y50.109Z0F1200
G1 X83.626Y50.327Z0F1200
G1 X83.686Y50.539Z0F1200
G1 X83.768Y50.744Z0F1200
G1 X83.719Y50.961Z0F1200
G1 X83.625Y51.182Z0F1200
G1 X83.492Y51.397Z0F1200
G1 X83.33Y51.599Z0F1200
G1 X83.144Y51.779Z0F1200
G1 X82.942Y51.931Z0F1200
G1 X82.733Y52.045Z0F1200
G1 X82.523Y52.114Z0F1200
G1 X82.236Y51.946Z0F1200
G1 X81.956Y51.756Z0F1200
G1 X81.673Y51.568Z0F1200
G1 X81.377Y51.406Z0F1200
G1 X81.23Y51.12Z0F1200
G1 X81.041Y50.867Z0F1200
G1 X80.81Y50.648Z0F1200
G1 X80.539Y50.47Z0F1200
G1 X80.469Y50.365Z0F1200
G1 X80.427Y50.253Z0F1200
G1 X80.412Y50.137Z0F1200
G1 X80.42Y50.021Z0F1200
G1 X80.502Y49.805Z0F1200
G1 X80.659Y49.635Z0F1200
G1 X80.591Y49.16Z0F1200
G1 X80.425Y48.705Z0F1200
G1 X80.346Y48.477Z0F1200
G1 X80.289Y48.244Z0F1200
G1 X80.27Y48.003Z0F1200
G1 X80.305Y47.752Z0F1200
G1 X80.276Y47.645Z0F1200
G1 X80.228Y47.561Z0F1200
G1 X80.16Y47.499Z0F1200
G1 X80.076Y47.455Z0F1200
G1 X79.868Y47.416Z0F1200
G1 X79.624Y47.42Z0F1200
G1 X79.097Y47.477Z0F1200
G1 X78.852Y47.485Z0F1200
G1 X78.645Y47.453Z0F1200
G1 X78.411Y47.506Z0F1200
G1 X78.207Y47.646Z0F1200
G1 X78.021Y47.84Z0F1200
G1 X77.842Y48.057Z0F1200
G1 X77.657Y48.265Z0F1200
G1 X77.457Y48.432Z0F1200
G1 X77.346Y48.491Z0F1200
G1 X77.228Y48.528Z0F1200
G1 X77.099Y48.539Z0F1200
G1 X76.959Y48.521Z0F1200
G1 X76.78Y48.468Z0F1200
G1 X76.625Y48.495Z0F1200
G1 X76.492Y48.584Z0F1200
G1 X76.376Y48.717Z0F1200
G1 X76.182Y49.048Z0F1200
G1 X76.011Y49.346Z0F1200
G1 X75.773Y49.847Z0F1200
G1 X75.696Y49.941Z0F1200
G1 X75.601Y49.994Z0F1200
G1 X75.48Y49.988Z0F1200
G1 X75.329Y49.909Z0F1200
G1 X75.092Y49.744Z0F1200
G1 X74.836Y49.64Z0F1200
G1 X74.565Y49.58Z0F1200
G1 X74.287Y49.548Z0F1200
G1 X73.724Y49.505Z0F1200
G1 X73.188Y49.384Z0F1200
G1 X72.787Y49.021Z0F1200
G1 X72.458Y48.597Z0F1200
G1 X72.198Y48.126Z0F1200
G1 X72.006Y47.623Z0F1200
G1 X71.887Y47.586Z0F1200
G1 X71.773Y47.605Z0F1200
G1 X71.664Y47.662Z0F1200
G1 X71.555Y47.742Z0F1200
G1 X71.445Y47.829Z0F1200
G1 X71.332Y47.907Z0F1200
G1 X71.212Y47.959Z0F1200
G1 X71.083Y47.972Z0F1200
G1 X70.767Y48.075Z0F1200
G1 X70.442Y48.095Z0F1200
G1 X70.295Y48.058Z0F1200
G1 X70.167Y47.981Z0F1200
G1 X70.065Y47.859Z0F1200
G1 X69.997Y47.686Z0F1200
G1 X69.904Y47.518Z0F1200
G1 X69.764Y47.395Z0F1200
G1 X69.601Y47.309Z0F1200
G1 X69.439Y47.248Z0F1200
G1 X69.411Y47.096Z0F1200
G1 X69.426Y46.964Z0F1200
G1 X69.478Y46.853Z0F1200
G1 X69.559Y46.763Z0F1200
G1 X69.786Y46.648Z0F1200
G1 X70.058Y46.622Z0F1200
G1 X70.253Y46.595Z0F1200
G1 X70.441Y46.542Z0F1200
G1 X70.615Y46.463Z0F1200
G1 X70.768Y46.359Z0F1200
G1 X70.896Y46.229Z0F1200
G1 X70.991Y46.073Z0F1200
G1 X71.048Y45.893Z0F1200
G1 X71.062Y45.686Z0F1200
G1 X71.13Y45.503Z0F1200
G1 X71.238Y45.396Z0F1200
G1 X71.375Y45.354Z0F1200
G1 X71.532Y45.364Z0F1200
G1 X71.861Y45.487Z0F1200
G1 X72.145Y45.666Z0F1200
G1 X72.378Y45.752Z0F1200
G1 X72.639Y45.805Z0F1200
G1 X72.91Y45.821Z0F1200
G1 X73.178Y45.794Z0F1200
G1 X73.428Y45.721Z0F1200
G1 X73.645Y45.596Z0F1200
G1 X73.813Y45.414Z0F1200
G1 X73.919Y45.172Z0F1200

; Color 1 picking sequence
G1 Z10 F500;         ; Raise brush to safe height
;G0 X2 Y0 F1000;     ; Rapid move to brush cleaning position
;G1 Z0 F500;         ; Lower brush for cleaning - controlled movement
;G1 Z2 F500;         ; Raise brush slightly - controlled movement
;G1 X22 Y0 Z8 F800;     ; Move across cleaning area - controlled movement
;G1 Z8 F500;         ; Maintain brush height - controlled movement
G0 X126 Y0 F1200;    ; Rapid move to color 1 position
G1 Z0 F500;         ; Lower into color - controlled movement
G1 X123 Y1 F500;     ; Small movement in paint - controlled movement
G1 Z7 F500;         ; Raise from color - controlled movement
G1 X126 Y1 F500;     ; Movement in paint - controlled movement
G1 Z1 F500;         ; Lower slightly - controlled movement
G1 X115 Y10 Z10 F500;     ; Move in paint - controlled movement
;G1 Z8 F500;         ; Raise brush - controlled movement
G1 F1200;           ; Set feed rate to 1000

; Return to drawing position
G0 X73.919 Y45.172 F1200;  ; Return to position with raised Z
G1 Z0 F500;                       ; Lower Z to drawing position
G0 Z2.8F500
G0 X50.838Y39.51Z2.8F1500
G1 Z0F500
G1 X50.741Y39.574Z0F1200
G1 X50.669Y39.667Z0F1200
G1 X50.628Y39.774Z0F1200
G1 X50.623Y39.881Z0F1200
G1 X50.659Y39.975Z0F1200
G1 X50.742Y40.04Z0F1200
G1 X50.876Y40.062Z0F1200
G1 X51.016Y40.054Z0F1200
G1 X51.124Y39.998Z0F1200
G1 X51.197Y39.909Z0F1200
G1 X51.233Y39.802Z0F1200
G1 X51.229Y39.691Z0F1200
G1 X51.184Y39.593Z0F1200
G1 X51.093Y39.521Z0F1200
G1 X50.955Y39.491Z0F1200
G1 X50.838Y39.51Z0F1200
G0 Z2.8F500
G0 X49.935Y39.628Z2.8F1500
G1 Z0F500
G1 X49.917Y39.995Z0F1200
G1 X50.076Y40.408Z0F1200
G1 X50.452Y40.702Z0F1200
G1 X50.839Y40.765Z0F1200
G1 X51.204Y40.744Z0F1200
G1 X51.572Y40.554Z0F1200
G1 X51.819Y40.255Z0F1200
G1 X51.937Y39.906Z0F1200
G1 X51.925Y39.526Z0F1200
G1 X51.748Y39.146Z0F1200
G1 X51.4Y38.872Z0F1200
G1 X50.972Y38.778Z0F1200
G1 X50.577Y38.844Z0F1200
G1 X50.259Y39.053Z0F1200
G1 X50.052Y39.32Z0F1200
G1 X49.935Y39.628Z0F1200
G0 Z2.8F500
G0 X49.492Y40.84Z2.8F1500
G1 Z0F500
G1 X50.163Y41.364Z0F1200
G1 X50.802Y41.468Z0F1200
G1 X51.392Y41.435Z0F1200
G1 X52.021Y41.11Z0F1200
G1 X52.441Y40.6Z0F1200
G1 X52.64Y40.01Z0F1200
G1 X52.62Y39.361Z0F1200
G1 X52.313Y38.701Z0F1200
G1 X51.708Y38.223Z0F1200
G1 X50.99Y38.065Z0F1200
G1 X50.316Y38.178Z0F1200
G1 X49.777Y38.532Z0F1200
G1 X49.436Y38.974Z0F1200
G1 X49.241Y39.482Z0F1200
G1 X49.21Y40.108Z0F1200
G1 X49.492Y40.84Z0F1200
G0 Z2.8F500
G0 X42.523Y39.112Z2.8F1500
G1 Z0F500
G1 X42.392Y39.193Z0F1200
G1 X42.085Y39.598Z0F1200
G1 X41.968Y39.434Z0F1200
G1 X41.55Y39.16Z0F1200
G1 X41.77Y39.037Z0F1200
G1 X41.861Y39.052Z0F1200
G1 X42.523Y39.112Z0F1200
G0 Z2.8F500
G0 X43.723Y39.191Z2.8F1500
G1 Z0F500
G1 X42.871Y39.72Z0F1200
G1 X42.378Y40.371Z0F1200
G1 X42.124Y41.083Z0F1200
G1 X42.058Y40.765Z0F1200
G1 X41.474Y39.947Z0F1200
G1 X40.75Y39.473Z0F1200
G1 X40.065Y39.265Z0F1200
G1 X39.443Y39.221Z0F1200
G1 X38.85Y39.293Z0F1200
G1 X38.235Y39.497Z0F1200
G1 X37.676Y39.854Z0F1200
G1 X37.553Y39.465Z0F1200
G1 X37.826Y39.089Z0F1200
G1 X37.854Y38.995Z0F1200
G1 X38.135Y39.011Z0F1200
G1 X38.447Y38.973Z0F1200
G1 X38.883Y38.943Z0F1200
G1 X39.463Z0F1200
G1 X39.918Y38.913Z0F1200
G1 X40.456Y38.824Z0F1200
G1 X41.068Y38.627Z0F1200
G1 X41.642Y38.307Z0F1200
G1 X41.949Y38.357Z0F1200
G1 X42.669Y38.422Z0F1200
G1 X43.416Y38.426Z0F1200
G1 X43.934Y38.377Z0F1200
G1 X44.676Y38.403Z0F1200
G1 X45.581Y38.483Z0F1200
G1 X46.107Y38.521Z0F1200
G1 X46.68Y38.542Z0F1200
G1 X47.299Y38.527Z0F1200
G1 X48.759Y38.37Z0F1200
G1 X48.887Y38.199Z0F1200
G1 X49.163Y38.182Z0F1200
G1 X48.818Y38.627Z0F1200
G1 X48.548Y39.336Z0F1200
G1 X48.51Y40.082Z0F1200
G1 X47.633Y39.313Z0F1200
G1 X46.847Y38.978Z0F1200
G1 X46.15Y38.876Z0F1200
G1 X45.574Y38.892Z0F1200
G1 X44.909Y38.996Z0F1200
G1 X44.391Y39.066Z0F1200
G1 X43.723Y39.191Z0F1200
G0 Z2.8F500
G0 X32.922Y46.107Z2.8F1500
G1 Z0F500
G1 X33.024Y46.118Z0F1200
G1 X33.217Y46.13Z0F1200
G1 X33.653Y46.115Z0F1200
G1 X34.338Y45.896Z0F1200
G1 X34.317Y46.567Z0F1200
G1 X34.452Y47.075Z0F1200
G1 X33.206Y47.141Z0F1200
G1 X32.996Y48.926Z0F1200
G1 X32.862Y48.971Z0F1200
G1 Y48.818Z0F1200
G1 X32.881Y48.413Z0F1200
G1 X32.955Y47.363Z0F1200
G1 X32.925Y46.335Z0F1200
G1 X32.922Y46.107Z0F1200
G0 Z2.8F500
G0 X48.944Y41.3Z2.8F1500
G1 Z0F500
G1 X49.739Y41.921Z0F1200
G1 X49.579Y42.068Z0F1200
G1 X49.271Y41.925Z0F1200
G1 X49.264Y41.912Z0F1200
G1 X48.998Y41.414Z0F1200
G1 X48.944Y41.3Z0F1200
G0 Z2.8F500
G0 X47.253Y37.829Z2.8F1500
G1 Z0F500
G1 X48.381Y37.707Z0F1200
G1 X48.567Y37.459Z0F1200
G1 X48.836Y37.501Z0F1200
G1 X49.259Y37.475Z0F1200
G1 X49.669Y37.398Z0F1200
G1 X49.922Y37.376Z0F1200
G1 X50.485Z0F1200
G1 X51.144Y37.432Z0F1200
G1 X51.563Y37.457Z0F1200
G1 X52.036Y37.451Z0F1200
G1 X52.507Y37.393Z0F1200
G1 X52.633Y37.492Z0F1200
G1 X52.966Y37.653Z0F1200
G1 X53.049Y37.81Z0F1200
G1 X53.33Y38.145Z0F1200
G1 X53.362Y38.168Z0F1200
G1 X53.338Y38.22Z0F1200
G1 X53.302Y39.213Z0F1200
G1 X53.365Y39.405Z0F1200
G1 X53.277Y39.94Z0F1200
G1 X53.472Y40.655Z0F1200
G1 X53.854Y41.146Z0F1200
G1 X54.237Y41.435Z0F1200
G1 X54.332Y41.483Z0F1200
G1 X54.348Y41.534Z0F1200
G1 X54.166Y41.383Z0F1200
G1 X53.506Y41.252Z0F1200
G1 X52.974Y41.344Z0F1200
G1 X52.563Y41.557Z0F1200
G1 X52.168Y41.902Z0F1200
G1 X52.107Y42.016Z0F1200
G1 X51.886Y41.912Z0F1200
G1 X50.854Y41.851Z0F1200
G1 X50.002Y42.629Z0F1200
G1 X49.823Y43.168Z0F1200
G1 X49.754Z0F1200
G1 X49.277Y42.7Z0F1200
G1 X48.813Y42.485Z0F1200
G1 X48.76Y42.471Z0F1200
G1 X48.642Y42.233Z0F1200
G1 X48.376Y41.737Z0F1200
G1 X48.179Y41.319Z0F1200
G1 X47.91Y40.486Z0F1200
G1 X47.256Y39.913Z0F1200
G1 X46.657Y39.657Z0F1200
G1 X46.109Y39.578Z0F1200
G1 X45.638Y39.591Z0F1200
G1 X45.032Y39.685Z0F1200
G1 X44.502Y39.757Z0F1200
G1 X43.981Y39.855Z0F1200
G1 X43.351Y40.246Z0F1200
G1 X43.001Y40.708Z0F1200
G1 X42.813Y41.236Z0F1200
G1 Y41.808Z0F1200
G1 X42.86Y41.956Z0F1200
G1 X42.866Y42.123Z0F1200
G1 X42.858Y42.116Z0F1200
G1 X42.241Y41.862Z0F1200
G1 X41.794Y41.874Z0F1200
G1 X41.61Y41.58Z0F1200
G1 X41.479Y41.423Z0F1200
G1 X41.402Y41.051Z0F1200
G1 X40.981Y40.461Z0F1200
G1 X40.451Y40.114Z0F1200
G1 X39.937Y39.958Z0F1200
G1 X39.461Y39.924Z0F1200
G1 X39.004Y39.979Z0F1200
G1 X38.538Y40.134Z0F1200
G1 X37.518Y40.784Z0F1200
G1 X37.557Y41.136Z0F1200
G1 X37.401Y41.323Z0F1200
G1 X37.055Y41.209Z0F1200
G1 X36.067Y42.241Z0F1200
G1 X35.886Y43.039Z0F1200
G1 X35.996Y43.613Z0F1200
G1 X36.132Y43.945Z0F1200
G1 X36.164Y44.008Z0F1200
G1 X36.146Y44.086Z0F1200
G1 X36.17Y44.327Z0F1200
G1 X36.143Y44.339Z0F1200
G1 X35.786Y44.593Z0F1200
G1 X35.461Y44.95Z0F1200
G1 X35.271Y45.297Z0F1200
G1 X35.042Y45.8Z0F1200
G1 X35.02Y46.487Z0F1200
G1 X35.152Y46.985Z0F1200
G1 X35.288Y47.301Z0F1200
G1 X35.334Y47.398Z0F1200
G1 X35.237Y47.633Z0F1200
G1 X35.202Y47.736Z0F1200
G1 X33.832Y47.809Z0F1200
G1 X33.637Y49.464Z0F1200
G1 Y49.491Z0F1200
G1 X33.289Y49.565Z0F1200
G1 X32.904Y49.695Z0F1200
G1 X32.495Y49.919Z0F1200
G1 X32.354Y49.769Z0F1200
G1 X32.228Y49.598Z0F1200
G1 X32.2Y49.489Z0F1200
G1 X32.164Y49.177Z0F1200
G1 X32.16Y48.806Z0F1200
G1 X32.181Y48.392Z0F1200
G1 X32.254Y47.349Z0F1200
G1 X32.224Y46.324Z0F1200
G1 X32.21Y45.138Z0F1200
G1 X32.669Y45.376Z0F1200
G1 X33.084Y45.42Z0F1200
G1 X33.228Y45.43Z0F1200
G1 X33.532Y45.418Z0F1200
G1 X34.163Y45.217Z0F1200
G1 X34.699Y44.684Z0F1200
G1 X34.938Y44.053Z0F1200
G1 Y43.419Z0F1200
G1 X34.687Y42.783Z0F1200
G1 X34.107Y42.235Z0F1200
G1 X33.299Y42.045Z0F1200
G1 X32.708Y42.19Z0F1200
G1 X32.276Y42.377Z0F1200
G1 X32.226Y42.424Z0F1200
G1 Y42.327Z0F1200
G1 X32.231Y42.206Z0F1200
G1 X32.275Y42.197Z0F1200
G1 X32.775Y41.967Z0F1200
G1 X33.237Y41.547Z0F1200
G1 X33.365Y41.495Z0F1200
G1 X33.775Y41.241Z0F1200
G1 X33.938Y41.042Z0F1200
G1 X34.494Y41.637Z0F1200
G1 X35.415Y41.852Z0F1200
G1 X36.32Y41.565Z0F1200
G1 X36.91Y40.831Z0F1200
G1 X36.996Y40.024Z0F1200
G1 X36.795Y39.394Z0F1200
G1 X36.73Y39.311Z0F1200
G1 X36.898Y39.173Z0F1200
G1 X37.19Y38.773Z0F1200
G1 X37.344Y38.265Z0F1200
G1 Y38.206Z0F1200
G1 X37.702Y38.285Z0F1200
G1 X38.112Y38.309Z0F1200
G1 X38.374Y38.276Z0F1200
G1 X38.863Y38.243Z0F1200
G1 X39.44Z0F1200
G1 X39.84Y38.216Z0F1200
G1 X40.291Y38.142Z0F1200
G1 X40.787Y37.982Z0F1200
G1 X41.469Y37.601Z0F1200
G1 X41.488Y37.572Z0F1200
G1 X42.038Y37.662Z0F1200
G1 X42.703Y37.723Z0F1200
G1 X43.385Y37.726Z0F1200
G1 X43.911Y37.677Z0F1200
G1 X44.725Y37.705Z0F1200
G1 X45.638Y37.785Z0F1200
G1 X46.146Y37.822Z0F1200
G1 X46.684Y37.842Z0F1200
G1 X47.253Y37.829Z0F1200

; Color 1 picking sequence
G1 Z10 F500;         ; Raise brush to safe height
;G0 X2 Y0 F1000;     ; Rapid move to brush cleaning position
;G1 Z0 F500;         ; Lower brush for cleaning - controlled movement
;G1 Z2 F500;         ; Raise brush slightly - controlled movement
;G1 X22 Y0 Z8 F800;     ; Move across cleaning area - controlled movement
;G1 Z8 F500;         ; Maintain brush height - controlled movement
G0 X126 Y0 F1200;    ; Rapid move to color 1 position
G1 Z0 F500;         ; Lower into color - controlled movement
G1 X123 Y1 F500;     ; Small movement in paint - controlled movement
G1 Z7 F500;         ; Raise from color - controlled movement
G1 X126 Y1 F500;     ; Movement in paint - controlled movement
G1 Z1 F500;         ; Lower slightly - controlled movement
G1 X115 Y10 Z10 F500;     ; Move in paint - controlled movement
;G1 Z8 F500;         ; Raise brush - controlled movement
G1 F1200;           ; Set feed rate to 1000

; Return to drawing position
G0 X47.253 Y37.829 F1200;  ; Return to position with raised Z
G1 Z0 F500;                       ; Lower Z to drawing position
G0 Z2.8F500
G0 X33.537Y43.687Z2.8F1500
G1 Z0F500
G1 X33.498Y43.585Z0F1200
G1 X33.42Y43.512Z0F1200
G1 X33.306Y43.485Z0F1200
G1 X33.156Y43.522Z0F1200
G1 X33.049Y43.568Z0F1200
G1 X32.973Y43.638Z0F1200
G1 X32.928Y43.722Z0F1200
G1 X32.916Y43.811Z0F1200
G1 X32.936Y43.895Z0F1200
G1 X32.99Y43.965Z0F1200
G1 X33.08Y44.012Z0F1200
G1 X33.204Y44.025Z0F1200
G1 X33.249Y44.028Z0F1200
G1 X33.29Z0F1200
G1 X33.415Y43.986Z0F1200
G1 X33.498Y43.904Z0F1200
G1 X33.538Y43.799Z0F1200
G1 Y43.687Z0F1200
G0 Z2.8F500
G0 X33.302Y42.766Z2.8F1500
G1 Z0F500
G1 X32.932Y42.856Z0F1200
G1 X32.663Y42.973Z0F1200
G1 X32.412Y43.203Z0F1200
G1 X32.253Y43.501Z0F1200
G1 X32.204Y43.846Z0F1200
G1 X32.291Y44.205Z0F1200
G1 X32.53Y44.515Z0F1200
G1 X32.875Y44.694Z0F1200
G1 X33.144Y44.723Z0F1200
G1 X33.238Y44.729Z0F1200
G1 X33.411Y44.723Z0F1200
G1 X33.789Y44.602Z0F1200
G1 X34.098Y44.294Z0F1200
G1 X34.238Y43.926Z0F1200
G1 Y43.553Z0F1200
G1 X34.092Y43.184Z0F1200
G1 X33.763Y42.874Z0F1200
G1 X33.302Y42.766Z0F1200
G0 Z2.8F500
G0 X35.137Y40.275Z2.8F1500
G1 Z0F500
G1 X35.227Y40.371Z0F1200
G1 X35.358Y40.401Z0F1200
G1 X35.494Y40.358Z0F1200
G1 X35.562Y40.274Z0F1200
G1 X35.573Y40.168Z0F1200
G1 X35.539Y40.061Z0F1200
G1 X35.469Y39.973Z0F1200
G1 X35.375Y39.923Z0F1200
G1 X35.267Y39.933Z0F1200
G1 X35.156Y40.021Z0F1200
G1 X35.108Y40.148Z0F1200
G1 X35.137Y40.275Z0F1200
G0 Z2.8F500
G0 X35.387Y41.127Z2.8F1500
G1 Z0F500
G1 X35.907Y40.961Z0F1200
G1 X36.236Y40.552Z0F1200
G1 X36.284Y40.096Z0F1200
G1 X36.167Y39.727Z0F1200
G1 X35.926Y39.423Z0F1200
G1 X35.518Y39.207Z0F1200
G1 X34.993Y39.254Z0F1200
G1 X34.569Y39.595Z0F1200
G1 X34.378Y40.099Z0F1200
G1 X34.498Y40.615Z0F1200
G1 X34.86Y41.004Z0F1200
G1 X35.387Y41.127Z0F1200
G0 Z2.8F500
G0 X42.781Y45.076Z2.8F1500
G1 Z0F500
G1 X42.792Y45.163Z0F1200
G1 X42.937Y45.515Z0F1200
G1 X42.791Y45.677Z0F1200
G1 X42.546Y46.134Z0F1200
G1 X42.519Y46.238Z0F1200
G1 X42.494Z0F1200
G1 X42.254Y45.909Z0F1200
G1 X42.202Y45.867Z0F1200
G1 X42.23Y45.641Z0F1200
G1 X42.151Y45.203Z0F1200
G1 X42.767Y45.087Z0F1200
G1 X42.781Y45.076Z0F1200
G0 Z2.8F500
G0 X55.067Y42.585Z2.8F1500
G1 Z0F500
G1 X55.563Y42.933Z0F1200
G1 X56.192Y43.159Z0F1200
G1 X56.444Y43.167Z0F1200
G1 X56.41Y43.253Z0F1200
G1 X56.313Y43.64Z0F1200
G1 Y43.731Z0F1200
G1 X55.71Y43.37Z0F1200
G1 X55.059Y43.381Z0F1200
G1 X55.12Y43.13Z0F1200
G1 X55.067Y42.585Z0F1200
G0 Z2.8F500
G0 X55.026Y41.36Z2.8F1500
G1 Z0F500
G1 X55.239Y41.733Z0F1200
G1 X55.525Y42.052Z0F1200
G1 X55.888Y42.306Z0F1200
G1 X56.325Y42.463Z0F1200
G1 X56.818Y42.479Z0F1200
G1 X57.134Y42.376Z0F1200
G1 X57.232Y42.365Z0F1200
G1 X57.177Y42.616Z0F1200
G1 Y42.963Z0F1200
G1 X57.218Y43.112Z0F1200
G1 Y43.135Z0F1200
G1 X57.148Y43.293Z0F1200
G1 X57.077Y43.47Z0F1200
G1 X57.013Y43.727Z0F1200
G1 Y44.051Z0F1200
G1 X57.124Y44.418Z0F1200
G1 X57.228Y44.55Z0F1200
G1 X57.032Y44.696Z0F1200
G1 X56.848Y44.925Z0F1200
G1 X56.738Y45.199Z0F1200
G1 X56.726Y45.298Z0F1200
G1 X56.564Y45.291Z0F1200
G1 X56.263Y45.354Z0F1200
G1 X56.238Y45.037Z0F1200
G1 X56.072Y44.403Z0F1200
G1 X55.522Y44.073Z0F1200
G1 X54.987Y44.083Z0F1200
G1 X54.607Y44.364Z0F1200
G1 X54.412Y44.688Z0F1200
G1 X54.385Y44.801Z0F1200
G1 X54.303Y44.727Z0F1200
G1 X53.874Y44.588Z0F1200
G1 X53.541Y44.625Z0F1200
G1 X53.271Y44.747Z0F1200
G1 X53.243Y44.771Z0F1200
G1 X52.986Y44.601Z0F1200
G1 X52.609Y44.562Z0F1200
G1 X52.654Y44.51Z0F1200
G1 X52.767Y44.057Z0F1200
G1 X52.727Y43.737Z0F1200
G1 X52.785Y43.815Z0F1200
G1 X53.113Y44Z0F1200
G1 X53.518Y44.044Z0F1200
G1 X54.004Y43.872Z0F1200
G1 X54.313Y43.485Z0F1200
G1 X54.412Y43.08Z0F1200
G1 X54.375Y42.702Z0F1200
G1 X54.206Y42.327Z0F1200
G1 X53.855Y42.036Z0F1200
G1 X53.497Y41.964Z0F1200
G1 X53.2Y42.016Z0F1200
G1 X52.959Y42.14Z0F1200
G1 X52.726Y42.344Z0F1200
G1 X52.511Y42.748Z0F1200
G1 X52.478Y43.18Z0F1200
G1 X52.367Y43.025Z0F1200
G1 X52.087Y42.779Z0F1200
G1 X51.71Y42.603Z0F1200
G1 X51.108Y42.567Z0F1200
G1 X50.609Y43.023Z0F1200
G1 X50.446Y43.511Z0F1200
G1 X50.509Y43.959Z0F1200
G1 X50.558Y44.057Z0F1200
G1 X50.478Y43.985Z0F1200
G1 X50.079Y43.86Z0F1200
G1 X49.682Y43.873Z0F1200
G1 X49.332Y44.017Z0F1200
G1 X49.179Y43.587Z0F1200
G1 X48.873Y43.284Z0F1200
G1 X48.571Y43.145Z0F1200
G1 X48.273Y43.062Z0F1200
G1 X48.02Y42.555Z0F1200
G1 X47.748Y42.045Z0F1200
G1 X47.528Y41.581Z0F1200
G1 X47.304Y40.885Z0F1200
G1 X46.879Y40.513Z0F1200
G1 X46.466Y40.337Z0F1200
G1 X46.068Y40.279Z0F1200
G1 X45.701Y40.289Z0F1200
G1 X45.12Y40.379Z0F1200
G1 X44.614Y40.448Z0F1200
G1 X44.238Y40.519Z0F1200
G1 X43.83Y40.772Z0F1200
G1 X43.624Y41.044Z0F1200
G1 X43.512Y41.357Z0F1200
G1 Y41.698Z0F1200
G1 X43.556Y41.833Z0F1200
G1 X43.569Y42.23Z0F1200
G1 X43.591Y42.764Z0F1200
G1 X43.635Y43.082Z0F1200
G1 X43.723Y43.412Z0F1200
G1 X43.875Y43.748Z0F1200
G1 X43.895Y43.777Z0F1200
G1 X43.813Y43.876Z0F1200
G1 X43.641Y44.104Z0F1200
G1 X43.485Y44.427Z0F1200
G1 X43.443Y44.709Z0F1200
G1 X43.476Y44.985Z0F1200
G1 X43.582Y45.242Z0F1200
G1 X43.77Y45.503Z0F1200
G1 X43.783Y45.536Z0F1200
G1 X43.789Y45.57Z0F1200
G1 Y45.606Z0F1200
G1 X43.777Y45.646Z0F1200
G1 X43.759Y45.683Z0F1200
G1 X43.732Y45.717Z0F1200
G1 X43.594Y45.831Z0F1200
G1 X43.368Y46.082Z0F1200
G1 X43.201Y46.394Z0F1200
G1 X43.112Y46.722Z0F1200
G1 X43.101Y46.958Z0F1200
G1 X42.991Y46.9Z0F1200
G1 X42.468Y46.945Z0F1200
G1 X42.198Y47.16Z0F1200
G1 X42.235Y47.076Z0F1200
G1 X41.743Y46.396Z0F1200
G1 X41.429Y46.145Z0F1200
G1 X41.476Y46.041Z0F1200
G1 X41.522Y45.661Z0F1200
G1 X41.458Y45.302Z0F1200
G1 X41.313Y44.997Z0F1200
G1 X41.12Y44.75Z0F1200
G1 X40.897Y44.553Z0F1200
G1 X40.654Y44.398Z0F1200
G1 X40.423Y44.296Z0F1200
G1 X40.069Y44.164Z0F1200
G1 X39.655Y44.135Z0F1200
G1 X39.312Y44.171Z0F1200
G1 X39.031Y44.22Z0F1200
G1 X38.846Y44.245Z0F1200
G1 X38.769Z0F1200
G1 Y44.201Z0F1200
G1 X38.785Y44.151Z0F1200
G1 X38.802Y44.123Z0F1200
G1 X38.996Y44.101Z0F1200
G1 X39.523Y43.896Z0F1200
G1 X39.953Y43.713Z0F1200
G1 X40.344Y43.558Z0F1200
G1 X40.936Y43.381Z0F1200
G1 X40.916Y43.463Z0F1200
G1 X40.981Y43.827Z0F1200
G1 X41.146Y44.119Z0F1200
G1 X41.394Y44.35Z0F1200
G1 X41.728Y44.496Z0F1200
G1 X42.06Y44.508Z0F1200
G1 X42.461Y44.433Z0F1200
G1 X42.852Y44.112Z0F1200
G1 X42.987Y43.649Z0F1200
G1 X42.917Y43.258Z0F1200
G1 X42.741Y42.956Z0F1200
G1 X42.478Y42.716Z0F1200
G1 X42.111Y42.565Z0F1200
G1 X41.715Y42.576Z0F1200
G1 X41.328Y42.718Z0F1200
G1 X41.262Y42.788Z0F1200
G1 X41.292Y42.592Z0F1200
G1 X41.192Y42.231Z0F1200
G1 X41.042Y41.993Z0F1200
G1 X40.917Y41.842Z0F1200
G1 X40.834Y41.747Z0F1200
G1 X40.825Y41.734Z0F1200
G1 X40.82Y41.695Z0F1200
G1 X40.747Y41.338Z0F1200
G1 X40.487Y40.974Z0F1200
G1 X40.151Y40.754Z0F1200
G1 X39.809Y40.65Z0F1200
G1 X39.479Y40.627Z0F1200
G1 X39.158Y40.666Z0F1200
G1 X38.841Y40.771Z0F1200
G1 X38.262Y41.14Z0F1200
G1 X38.313Y41.593Z0F1200
G1 X38.03Y41.661Z0F1200
G1 X37.708Y42.046Z0F1200
G1 X37.623Y42.132Z0F1200
G1 X37.256Y42.012Z0F1200
G1 X36.707Y42.585Z0F1200
G1 X36.601Y43.051Z0F1200
G1 X36.67Y43.412Z0F1200
G1 X36.771Y43.656Z0F1200
G1 X36.861Y43.839Z0F1200
G1 X36.899Y43.924Z0F1200
G1 X36.854Y44.128Z0F1200
G1 X36.889Y44.479Z0F1200
G1 X36.962Y44.74Z0F1200
G1 X36.973Y44.769Z0F1200
G1 X36.756Y44.826Z0F1200
G1 X36.497Y44.947Z0F1200
G1 X36.253Y45.12Z0F1200
G1 X36.036Y45.359Z0F1200
G1 X35.897Y45.611Z0F1200
G1 X35.737Y45.963Z0F1200
G1 X35.723Y46.406Z0F1200
G1 X35.816Y46.755Z0F1200
G1 X35.927Y47.014Z0F1200
G1 X36.015Y47.203Z0F1200
G1 X36.06Y47.322Z0F1200
G1 X36.066Y47.356Z0F1200
G1 X36.056Y47.422Z0F1200
G1 X35.999Y47.622Z0F1200
G1 X35.893Y47.881Z0F1200
G1 X35.824Y48.078Z0F1200
G1 X35.772Y48.321Z0F1200
G1 X35.768Y48.439Z0F1200
G1 X35.484Y48.422Z0F1200
G1 X34.458Y48.477Z0F1200
G1 X34.335Y49.524Z0F1200
G1 X34.31Y49.976Z0F1200
G1 X34.297Y50.035Z0F1200
G1 X34.283Y50.039Z0F1200
G1 X33.901Y50.15Z0F1200
G1 X33.475Y50.242Z0F1200
G1 X33.187Y50.339Z0F1200
G1 X32.881Y50.506Z0F1200
G1 X32.595Y50.773Z0F1200
G1 X32.538Y50.871Z0F1200
G1 X32.497Y50.847Z0F1200
G1 X32.32Y50.721Z0F1200
G1 X32.154Y50.58Z0F1200
G1 X31.817Y50.22Z0F1200
G1 X31.583Y49.903Z0F1200
G1 X31.509Y49.614Z0F1200
G1 X31.465Y49.226Z0F1200
G1 X31.46Y48.794Z0F1200
G1 X31.484Y48.331Z0F1200
G1 X31.553Y47.335Z0F1200
G1 X31.525Y46.356Z0F1200
G1 X31.509Y45.007Z0F1200
G1 Y43.66Z0F1200
G1 X31.527Y42.332Z0F1200
G1 X31.552Y41.605Z0F1200
G1 X31.742Y41.595Z0F1200
G1 X32.053Y41.528Z0F1200
G1 X32.384Y41.376Z0F1200
G1 X32.688Y41.1Z0F1200
G1 X32.745Y40.994Z0F1200
G1 X32.76Y40.985Z0F1200
G1 X33.047Y40.869Z0F1200
G1 X33.307Y40.708Z0F1200
G1 X33.571Y40.384Z0F1200
G1 X33.649Y39.914Z0F1200
G1 X33.482Y39.409Z0F1200
G1 X33.454Y39.385Z0F1200
G1 X33.581Y39.351Z0F1200
G1 X33.899Y39.168Z0F1200
G1 X34.163Y38.834Z0F1200
G1 X34.203Y38.684Z0F1200
G1 X34.208Y38.687Z0F1200
G1 X35.009Y38.804Z0F1200
G1 X35.317Y38.86Z0F1200
G1 X35.968Y39.028Z0F1200
G1 X36.386Y38.688Z0F1200
G1 X36.554Y38.457Z0F1200
G1 X36.641Y38.171Z0F1200
G1 X36.632Y37.871Z0F1200
G1 X36.508Y37.556Z0F1200
G1 X36.421Y37.424Z0F1200
G1 X36.59Y37.316Z0F1200
G1 X36.824Y37.212Z0F1200
G1 X36.849Y37.208Z0F1200
G1 X36.927Y37.254Z0F1200
G1 X37.29Y37.443Z0F1200
G1 X37.534Y37.532Z0F1200
G1 X37.798Y37.59Z0F1200
G1 X38.088Y37.606Z0F1200
G1 X38.318Y37.578Z0F1200
G1 X38.83Y37.543Z0F1200
G1 X39.417Z0F1200
G1 X39.761Y37.52Z0F1200
G1 X40.125Y37.459Z0F1200
G1 X40.506Y37.337Z0F1200
G1 X40.971Y37.078Z0F1200
G1 X41.119Y36.839Z0F1200
G1 X41.283Y36.829Z0F1200
G1 X42.126Y36.967Z0F1200
G1 X42.736Y37.022Z0F1200
G1 X43.354Y37.026Z0F1200
G1 X43.888Y36.976Z0F1200
G1 X44.767Y37.005Z0F1200
G1 X45.694Y37.087Z0F1200
G1 X46.184Y37.124Z0F1200
G1 X46.688Y37.142Z0F1200
G1 X47.207Y37.129Z0F1200
G1 X48.004Y37.043Z0F1200
G1 X48.307Y36.641Z0F1200
G1 X48.508Y36.743Z0F1200
G1 X48.868Y36.797Z0F1200
G1 X49.173Y36.778Z0F1200
G1 X49.571Y36.704Z0F1200
G1 X49.886Y36.676Z0F1200
G1 X50.518Z0F1200
G1 X51.194Y36.734Z0F1200
G1 X51.579Y36.756Z0F1200
G1 X51.989Y36.751Z0F1200
G1 X52.42Y36.698Z0F1200
G1 X52.704Y36.618Z0F1200
G1 X52.773Y36.71Z0F1200
G1 X53.007Y36.896Z0F1200
G1 X53.244Y37.01Z0F1200
G1 X53.479Y37.079Z0F1200
G1 X53.501Y37.168Z0F1200
G1 X53.633Y37.417Z0F1200
G1 X53.811Y37.628Z0F1200
G1 X54.04Y37.795Z0F1200
G1 X54.053Y37.816Z0F1200
G1 X54.185Y38.001Z0F1200
G1 X54.201Y38.026Z0F1200
G1 X54.191Y38.043Z0F1200
G1 X54.033Y38.386Z0F1200
G1 X54.006Y39.114Z0F1200
G1 X54.095Y39.386Z0F1200
G1 X54.07Y39.426Z0F1200
G1 X53.993Y39.903Z0F1200
G1 X54.11Y40.336Z0F1200
G1 X54.35Y40.644Z0F1200
G1 X54.609Y40.838Z0F1200
G1 X54.913Y40.992Z0F1200
G1 X55.026Y41.36Z0F1200

; Color 1 picking sequence
G1 Z10 F500;         ; Raise brush to safe height
;G0 X2 Y0 F1000;     ; Rapid move to brush cleaning position
;G1 Z0 F500;         ; Lower brush for cleaning - controlled movement
;G1 Z2 F500;         ; Raise brush slightly - controlled movement
;G1 X22 Y0 Z8 F800;     ; Move across cleaning area - controlled movement
;G1 Z8 F500;         ; Maintain brush height - controlled movement
G0 X126 Y0 F1200;    ; Rapid move to color 1 position
G1 Z0 F500;         ; Lower into color - controlled movement
G1 X123 Y1 F500;     ; Small movement in paint - controlled movement
G1 Z7 F500;         ; Raise from color - controlled movement
G1 X126 Y1 F500;     ; Movement in paint - controlled movement
G1 Z1 F500;         ; Lower slightly - controlled movement
G1 X115 Y10 Z10 F500;     ; Move in paint - controlled movement
;G1 Z8 F500;         ; Raise brush - controlled movement
G1 F1200;           ; Set feed rate to 1000

; Return to drawing position
G0 X55.026 Y41.360 F1200;  ; Return to position with raised Z
G1 Z0 F500;                       ; Lower Z to drawing position
G0 Z2.8F500
G0 X42.556Y48.748Z2.8F1500
G1 Z0F500
G1 X42.301Y48.947Z0F1200
G1 X42.1Y49.198Z0F1200
G1 X42.048Y49.332Z0F1200
G1 X41.981Y49.207Z0F1200
G1 X41.941Y49.095Z0F1200
G1 X41.924Y49.001Z0F1200
G1 Y48.949Z0F1200
G1 X42.047Y48.778Z0F1200
G1 X42.124Y48.472Z0F1200
G1 X42.332Y48.695Z0F1200
G1 X42.556Y48.748Z0F1200
G0 Z2.8F500
G0 X53.907Y48.38Z2.8F1500
G1 Z0F500
G1 X53.806Y48.137Z0F1200
G1 X54.032Y48.1Z0F1200
G1 X53.936Y48.247Z0F1200
G1 X53.907Y48.38Z0F1200
G0 Z2.8F500
G0 X52.79Y46.906Z2.8F1500
G1 Z0F500
G1 X52.628Y46.823Z0F1200
G1 X52.179Y46.752Z0F1200
G1 X51.697Y46.876Z0F1200
G1 X51.432Y47.094Z0F1200
G1 X51.234Y47.221Z0F1200
G1 X51.058Y47.284Z0F1200
G1 X51.042Z0F1200
G1 X51.019Z0F1200
G1 X51.002Y47.278Z0F1200
G1 X50.695Y47.094Z0F1200
G1 X50.063Y47.191Z0F1200
G1 X49.866Y47.273Z0F1200
G1 X49.789Y47.14Z0F1200
G1 X49.481Y46.78Z0F1200
G1 X49.121Y46.483Z0F1200
G1 X49.066Y46.452Z0F1200
G1 X49.06Y46.209Z0F1200
G1 X49.064Y46.14Z0F1200
G1 X49.146Y46.204Z0F1200
G1 X49.584Y46.25Z0F1200
G1 X49.911Y46.182Z0F1200
G1 X50.171Y46.042Z0F1200
G1 X50.354Y45.874Z0F1200
G1 X50.465Y45.732Z0F1200
G1 X50.55Y45.611Z0F1200
G1 X50.741Y45.442Z0F1200
G1 X50.891Y45.163Z0F1200
G1 X50.958Y44.895Z0F1200
G1 X50.941Y44.6Z0F1200
G1 X51.188Y44.793Z0F1200
G1 X51.452Y44.919Z0F1200
G1 X51.326Y45.04Z0F1200
G1 X51.18Y45.316Z0F1200
G1 X51.121Y45.614Z0F1200
G1 X51.157Y45.944Z0F1200
G1 X51.336Y46.286Z0F1200
G1 X51.679Y46.532Z0F1200
G1 X52.183Y46.61Z0F1200
G1 X52.296Y46.549Z0F1200
G1 X52.307Y46.557Z0F1200
G1 X52.854Y46.567Z0F1200
G1 X52.877Y46.555Z0F1200
G1 Y46.651Z0F1200
G1 X52.817Y46.734Z0F1200
G1 X52.79Y46.906Z0F1200
G0 Z2.8F500
G0 X54.65Y46.883Z2.8F1500
G1 Z0F500
G1 X54.62Y46.82Z0F1200
G1 X54.718Y46.513Z0F1200
G1 X54.901Y46.621Z0F1200
G1 X54.789Y46.713Z0F1200
G1 X54.65Y46.883Z0F1200
G0 Z2.8F500
G0 X58.752Y45.504Z2.8F1500
G1 Z0F500
G1 X58.749Y45.484Z0F1200
G1 X59.065Y45.437Z0F1200
G1 X59.369Y45.318Z0F1200
G1 X59.404Y45.305Z0F1200
G1 X59.359Y45.506Z0F1200
G1 X59.352Y45.606Z0F1200
G1 X58.752Y45.504Z0F1200
G0 Z2.8F500
G0 X42.847Y47.615Z2.8F1500
G1 Z0F500
G1 X42.739Y47.624Z0F1200
G1 X42.627Y47.713Z0F1200
G1 X42.58Y47.839Z0F1200
G1 X42.609Y47.966Z0F1200
G1 X42.699Y48.062Z0F1200
G1 X42.83Y48.093Z0F1200
G1 X42.965Y48.05Z0F1200
G1 X43.033Y47.966Z0F1200
G1 X43.045Y47.86Z0F1200
G1 X43.01Y47.752Z0F1200
G1 X42.94Y47.664Z0F1200
G1 X42.847Y47.615Z0F1200
G0 Z2.8F500
G0 X53.482Y47.011Z2.8F1500
G1 Z0F500
G1 X53.458Y47.161Z0F1200
G1 X53.511Y47.3Z0F1200
G1 X53.622Y47.4Z0F1200
G1 X53.77Y47.434Z0F1200
G1 X53.866Y47.418Z0F1200
G1 X53.936Y47.386Z0F1200
G1 X53.983Y47.341Z0F1200
G1 X54.009Y47.286Z0F1200
G1 X54.006Y47.16Z0F1200
G1 X53.946Y47.032Z0F1200
G1 X53.845Y46.928Z0F1200
G1 X53.723Y46.873Z0F1200
G1 X53.659Z0F1200
G1 X53.596Y46.892Z0F1200
G1 X53.536Y46.938Z0F1200
G1 X53.482Y47.011Z0F1200
G0 Z2.8F500
G0 X53.642Y46.593Z2.8F1500
G1 Z0F500
G1 X53.769Y46.627Z0F1200
G1 X53.903Y46.59Z0F1200
G1 X53.982Y46.516Z0F1200
G1 X54.013Y46.42Z0F1200
G1 X54Y46.323Z0F1200
G1 X53.951Y46.239Z0F1200
G1 X53.871Y46.188Z0F1200
G1 X53.767Z0F1200
G1 X53.644Y46.254Z0F1200
G1 X53.577Y46.365Z0F1200
G1 Y46.492Z0F1200
G1 X53.642Y46.593Z0F1200
G0 Z2.8F500
G0 X55.212Y45.992Z2.8F1500
G1 Z0F500
G1 X55.296Y46.005Z0F1200
G1 X55.418Y45.917Z0F1200
G1 X55.502Y45.795Z0F1200
G1 X55.551Y45.65Z0F1200
G1 X55.571Y45.489Z0F1200
G1 X55.545Y45.154Z0F1200
G1 X55.467Y44.856Z0F1200
G1 X55.334Y44.777Z0F1200
G1 X55.224Z0F1200
G1 X55.135Y44.844Z0F1200
G1 X55.068Y44.956Z0F1200
G1 X55Y45.246Z0F1200
G1 X55.017Y45.506Z0F1200
G1 X55.03Y45.66Z0F1200
G1 X55.066Y45.824Z0F1200
G1 X55.1Y45.896Z0F1200
G1 X55.147Y45.954Z0F1200
G1 X55.212Y45.992Z0F1200
G0 Z2.8F500
G0 X54.141Y45.831Z2.8F1500
G1 Z0F500
G1 X54.16Y45.756Z0F1200
G1 X54.141Y45.599Z0F1200
G1 X54.063Y45.455Z0F1200
G1 X53.944Y45.346Z0F1200
G1 X53.802Y45.3Z0F1200
G1 X53.728Y45.309Z0F1200
G1 X53.655Y45.341Z0F1200
G1 X53.586Y45.402Z0F1200
G1 X53.523Y45.495Z0F1200
G1 X53.536Y45.671Z0F1200
G1 X53.628Y45.834Z0F1200
G1 X53.773Y45.956Z0F1200
G1 X53.943Y46.005Z0F1200
G1 X54.035Y45.958Z0F1200
G1 X54.1Y45.899Z0F1200
G1 X54.141Y45.831Z0F1200
G0 Z2.8F500
G0 X52.908Y45.458Z2.8F1500
G1 Z0F500
G1 X52.85Y45.351Z0F1200
G1 X52.742Y45.279Z0F1200
G1 X52.582Y45.262Z0F1200
G1 X52.43Y45.308Z0F1200
G1 X52.317Y45.371Z0F1200
G1 X52.204Y45.405Z0F1200
G1 X52.053Y45.364Z0F1200
G1 X51.961Y45.4Z0F1200
G1 X51.892Y45.466Z0F1200
G1 X51.847Y45.552Z0F1200
G1 X51.829Y45.646Z0F1200
G1 X51.838Y45.736Z0F1200
G1 X51.879Y45.813Z0F1200
G1 X51.952Y45.866Z0F1200
G1 X52.059Y45.882Z0F1200
G1 X52.201Y45.807Z0F1200
G1 X52.305Y45.756Z0F1200
G1 X52.407Y45.764Z0F1200
G1 X52.541Y45.861Z0F1200
G1 X52.694Y45.864Z0F1200
G1 X52.81Y45.805Z0F1200
G1 X52.886Y45.706Z0F1200
G1 X52.919Y45.583Z0F1200
G1 X52.908Y45.458Z0F1200
G0 Z2.8F500
G0 X57.521Y45.205Z2.8F1500
G1 Z0F500
G1 X57.458Y45.282Z0F1200
G1 X57.422Y45.373Z0F1200
G1 X57.411Y45.468Z0F1200
G1 X57.425Y45.562Z0F1200
G1 X57.463Y45.646Z0F1200
G1 X57.524Y45.714Z0F1200
G1 X57.608Y45.757Z0F1200
G1 X57.713Y45.768Z0F1200
G1 X57.817Y45.757Z0F1200
G1 X57.899Y45.727Z0F1200
G1 X57.961Y45.68Z0F1200
G1 X58.004Y45.622Z0F1200
G1 X58.038Y45.482Z0F1200
G1 X58.013Y45.333Z0F1200
G1 X57.938Y45.204Z0F1200
G1 X57.823Y45.121Z0F1200
G1 X57.755Y45.106Z0F1200
G1 X57.681Y45.112Z0F1200
G1 X57.603Y45.144Z0F1200
G1 X57.521Y45.205Z0F1200
G0 Z2.8F500
G0 X49.668Y45.518Z2.8F1500
G1 Z0F500
G1 X49.763Y45.467Z0F1200
G1 X49.838Y45.397Z0F1200
G1 X49.902Y45.315Z0F1200
G1 X50.024Y45.142Z0F1200
G1 X50.184Y45Z0F1200
G1 X50.233Y44.91Z0F1200
G1 X50.253Y44.829Z0F1200
G1 X50.249Y44.758Z0F1200
G1 X50.224Y44.697Z0F1200
G1 X50.124Y44.607Z0F1200
G1 X49.983Y44.563Z0F1200
G1 X49.831Y44.568Z0F1200
G1 X49.695Y44.624Z0F1200
G1 X49.604Y44.734Z0F1200
G1 X49.588Y44.901Z0F1200
G1 X49.479Y44.935Z0F1200
G1 X49.39Y45.014Z0F1200
G1 X49.328Y45.123Z0F1200
G1 X49.294Y45.245Z0F1200
G1 Y45.364Z0F1200
G1 X49.335Y45.464Z0F1200
G1 X49.418Y45.529Z0F1200
G1 X49.549Y45.542Z0F1200
G1 X49.668Y45.518Z0F1200
G0 Z2.8F500
G0 X51.903Y44.304Z2.8F1500
G1 Z0F500
G1 X52.016Y44.176Z0F1200
G1 X52.056Y44.015Z0F1200
G1 X52.034Y43.837Z0F1200
G1 X51.96Y43.659Z0F1200
G1 X51.845Y43.498Z0F1200
G1 X51.7Y43.371Z0F1200
G1 X51.535Y43.293Z0F1200
G1 X51.362Y43.283Z0F1200
G1 X51.215Y43.417Z0F1200
G1 X51.162Y43.577Z0F1200
G1 X51.186Y43.748Z0F1200
G1 X51.271Y43.917Z0F1200
G1 X51.401Y44.07Z0F1200
G1 X51.56Y44.195Z0F1200
G1 X51.733Y44.277Z0F1200
G1 X51.903Y44.304Z0F1200
G0 Z2.8F500
G0 X42.269Y43.611Z2.8F1500
G1 Z0F500
G1 X42.25Y43.504Z0F1200
G1 X42.189Y43.4Z0F1200
G1 X42.098Y43.317Z0F1200
G1 X41.981Y43.269Z0F1200
G1 X41.849Y43.272Z0F1200
G1 X41.725Y43.318Z0F1200
G1 X41.655Y43.393Z0F1200
G1 X41.631Y43.487Z0F1200
G1 X41.649Y43.586Z0F1200
G1 X41.702Y43.68Z0F1200
G1 X41.784Y43.756Z0F1200
G1 X41.887Y43.801Z0F1200
G1 X42.007Y43.806Z0F1200
G1 X42.156Y43.778Z0F1200
G1 X42.241Y43.708Z0F1200
G1 X42.269Y43.611Z0F1200
G0 Z2.8F500
G0 X53.356Y42.723Z2.8F1500
G1 Z0F500
G1 X53.283Y42.787Z0F1200
G1 X53.198Y42.947Z0F1200
G1 X53.184Y43.13Z0F1200
G1 X53.208Y43.212Z0F1200
G1 X53.257Y43.277Z0F1200
G1 X53.332Y43.319Z0F1200
G1 X53.435Y43.331Z0F1200
G1 X53.582Y43.278Z0F1200
G1 X53.669Y43.169Z0F1200
G1 X53.704Y43.029Z0F1200
G1 X53.689Y42.885Z0F1200
G1 X53.634Y42.762Z0F1200
G1 X53.544Y42.688Z0F1200
G1 X53.488Y42.676Z0F1200
G1 X53.425Y42.687Z0F1200
G1 X53.356Y42.723Z0F1200
G0 Z2.8F500
G0 X48.535Y44.818Z2.8F1500
G1 Z0F500
G1 X48.631Y44.135Z0F1200
G1 X48.573Y43.972Z0F1200
G1 X48.468Y43.868Z0F1200
G1 X48.329Y43.804Z0F1200
G1 X48.011Y43.716Z0F1200
G1 X47.862Y43.653Z0F1200
G1 X47.74Y43.553Z0F1200
G1 X47.658Y43.396Z0F1200
G1 X47.398Y42.876Z0F1200
G1 X47.123Y42.362Z0F1200
G1 X46.875Y41.837Z0F1200
G1 X46.697Y41.284Z0F1200
G1 X46.501Y41.113Z0F1200
G1 X46.275Y41.017Z0F1200
G1 X46.027Y40.98Z0F1200
G1 X45.765Y40.988Z0F1200
G1 X45.228Y41.071Z0F1200
G1 X44.726Y41.14Z0F1200
G1 X44.496Y41.183Z0F1200
G1 X44.31Y41.298Z0F1200
G1 X44.247Y41.381Z0F1200
G1 X44.212Y41.478Z0F1200
G1 Y41.589Z0F1200
G1 X44.252Y41.712Z0F1200
G1 X44.269Y42.204Z0F1200
G1 X44.289Y42.702Z0F1200
G1 X44.323Y42.943Z0F1200
G1 X44.385Y43.177Z0F1200
G1 X44.484Y43.398Z0F1200
G1 X44.63Y43.603Z0F1200
G1 X44.662Y43.8Z0F1200
G1 X44.606Y43.98Z0F1200
G1 X44.496Y44.148Z0F1200
G1 X44.363Y44.311Z0F1200
G1 X44.241Y44.471Z0F1200
G1 X44.162Y44.635Z0F1200
G1 X44.149Y44.72Z0F1200
G1 X44.16Y44.808Z0F1200
G1 X44.197Y44.899Z0F1200
G1 X44.384Y45.159Z0F1200
G1 X44.459Y45.336Z0F1200
G1 X44.492Y45.522Z0F1200
G1 X44.484Y45.709Z0F1200
G1 X44.438Y45.891Z0F1200
G1 X44.354Y46.06Z0F1200
G1 X44.233Y46.211Z0F1200
G1 X44.079Y46.338Z0F1200
G1 X43.945Y46.487Z0F1200
G1 X43.856Y46.654Z0F1200
G1 X43.808Y46.833Z0F1200
G1 X43.798Y47.017Z0F1200
G1 X43.825Y47.201Z0F1200
G1 X43.886Y47.38Z0F1200
G1 X43.977Y47.548Z0F1200
G1 X44.097Y47.698Z0F1200
G1 X44.185Y47.822Z0F1200
G1 X44.247Y47.961Z0F1200
G1 X44.279Y48.105Z0F1200
G1 Y48.246Z0F1200
G1 X44.241Y48.375Z0F1200
G1 X44.163Y48.482Z0F1200
G1 X44.041Y48.56Z0F1200
G1 X43.871Y48.599Z0F1200
G1 X43.746Y48.589Z0F1200
G1 X43.636Y48.608Z0F1200
G1 X43.542Y48.652Z0F1200
G1 X43.462Y48.717Z0F1200
G1 X43.339Y48.893Z0F1200
G1 X43.259Y49.102Z0F1200
G1 X43.025Y49.269Z0F1200
G1 X42.796Y49.448Z0F1200
G1 X42.714Y49.551Z0F1200
G1 X42.668Y49.669Z0F1200
G1 X42.672Y49.805Z0F1200
G1 X42.736Y49.963Z0F1200
G1 X42.725Y50.155Z0F1200
G1 X42.656Y50.3Z0F1200
G1 X42.543Y50.398Z0F1200
G1 X42.399Y50.452Z0F1200
G1 X42.239Y50.461Z0F1200
G1 X42.076Y50.429Z0F1200
G1 X41.924Y50.356Z0F1200
G1 X41.798Y50.245Z0F1200
G1 X41.553Y49.891Z0F1200
G1 X41.338Y49.488Z0F1200
G1 X41.263Y49.276Z0F1200
G1 X41.224Y49.063Z0F1200
G1 X41.227Y48.852Z0F1200
G1 X41.282Y48.645Z0F1200
G1 X41.4Y48.479Z0F1200
G1 X41.445Y48.3Z0F1200
G1 X41.438Y48.111Z0F1200
G1 X41.403Y47.917Z0F1200
G1 X41.362Y47.721Z0F1200
G1 X41.338Y47.527Z0F1200
G1 X41.354Y47.339Z0F1200
G1 X41.433Y47.161Z0F1200
G1 X41.231Y46.883Z0F1200
G1 X40.943Y46.652Z0F1200
G1 X40.814Y46.53Z0F1200
G1 X40.72Y46.393Z0F1200
G1 X40.681Y46.229Z0F1200
G1 X40.715Y46.029Z0F1200
G1 X40.793Y45.852Z0F1200
G1 X40.814Y45.681Z0F1200
G1 X40.785Y45.518Z0F1200
G1 X40.713Y45.367Z0F1200
G1 X40.607Y45.231Z0F1200
G1 X40.475Y45.114Z0F1200
G1 X40.322Y45.017Z0F1200
G1 X40.159Y44.944Z0F1200
G1 X39.92Y44.855Z0F1200
G1 X39.667Y44.838Z0F1200
G1 X39.407Y44.865Z0F1200
G1 X39.146Y44.91Z0F1200
G1 X38.889Y44.945Z0F1200
G1 X38.643Z0F1200
G1 X38.413Y44.879Z0F1200
G1 X38.207Y44.723Z0F1200
G1 X38.107Y44.523Z0F1200
G1 X38.064Y44.305Z0F1200
G1 X38.076Y44.083Z0F1200
G1 X38.138Y43.871Z0F1200
G1 X38.248Y43.683Z0F1200
G1 X38.402Y43.535Z0F1200
G1 X38.596Y43.441Z0F1200
G1 X38.828Y43.415Z0F1200
G1 X39.26Y43.247Z0F1200
G1 X39.688Y43.065Z0F1200
G1 X40.119Y42.895Z0F1200
G1 X40.558Y42.763Z0F1200
G1 X40.578Y42.635Z0F1200
G1 X40.545Y42.517Z0F1200
G1 X40.475Y42.405Z0F1200
G1 X40.384Y42.296Z0F1200
G1 X40.288Y42.186Z0F1200
G1 X40.203Y42.07Z0F1200
G1 X40.144Y41.945Z0F1200
G1 X40.128Y41.806Z0F1200
G1 X40.091Y41.624Z0F1200
G1 X39.994Y41.488Z0F1200
G1 X39.852Y41.395Z0F1200
G1 X39.681Y41.343Z0F1200
G1 X39.496Y41.33Z0F1200
G1 X39.312Y41.353Z0F1200
G1 X39.144Y41.408Z0F1200
G1 X39.006Y41.496Z0F1200
G1 X39.022Y41.639Z0F1200
G1 X39.006Y41.775Z0F1200
G1 X38.962Y41.902Z0F1200
G1 X38.892Y42.017Z0F1200
G1 X38.8Y42.116Z0F1200
G1 X38.688Y42.196Z0F1200
G1 X38.56Y42.254Z0F1200
G1 X38.419Y42.288Z0F1200
G1 X38.227Y42.518Z0F1200
G1 X38.009Y42.736Z0F1200
G1 X37.887Y42.816Z0F1200
G1 X37.755Y42.862Z0F1200
G1 X37.612Y42.865Z0F1200
G1 X37.457Y42.814Z0F1200
G1 X37.346Y42.93Z0F1200
G1 X37.316Y43.063Z0F1200
G1 X37.344Y43.21Z0F1200
G1 X37.409Y43.367Z0F1200
G1 X37.489Y43.529Z0F1200
G1 X37.562Y43.69Z0F1200
G1 X37.606Y43.848Z0F1200
G1 X37.6Y43.998Z0F1200
G1 X37.562Y44.17Z0F1200
G1 X37.579Y44.348Z0F1200
G1 X37.63Y44.528Z0F1200
G1 X37.693Y44.706Z0F1200
G1 X37.747Y44.881Z0F1200
G1 X37.771Y45.048Z0F1200
G1 X37.742Y45.206Z0F1200
G1 X37.641Y45.351Z0F1200
