;LightBurn 1.6.04
;Custom GCode device profile, absolute coords
;Bounds: X13.84 Y34.56 to X86.17 Y77.44
G00 G17 G40 G21 G54
G90
M3
G1 Z10 F500
;Cut @ 1200 mm/min, 80% power

M8
G0 Z4.8F500
G0 X23.628Y39.826Z4.8F1500
G1 Z0F500
;Layer Wash
G1 X23.347Y39.909Z0S800F1200
G1 X23.312Y40.025Z0F1200
G1 X23.331Y40.105Z0F1200
G1 X23.393Y40.156Z0F1200
G1 X23.485Y40.185Z0F1200
G1 X23.71Y40.2Z0F1200
G1 X23.907Y40.206Z0F1200
G1 X26.261Y40.355Z0F1200
G1 X28.618Y40.465Z0F1200
G1 X28.823Z0F1200
G1 X29.06Y40.455Z0F1200
G1 X29.165Y40.43Z0F1200
G1 X29.246Y40.382Z0F1200
G1 X29.294Y40.304Z0F1200
G1 X29.297Y40.188Z0F1200
G1 X29.02Y39.984Z0F1200
G1 X28.698Y39.841Z0F1200
G1 X28.026Y39.618Z0F1200
G1 X27.591Y39.533Z0F1200
G1 X27.153Y39.5Z0F1200
G1 X26.715Y39.506Z0F1200
G1 X26.275Y39.541Z0F1200
G1 X25.395Y39.648Z0F1200
G1 X24.516Y39.727Z0F1200
G1 X24.222Y39.763Z0F1200
G1 X23.923Y39.787Z0F1200
G1 X23.628Y39.826Z0F1200
G0 Z4.8F500
G0 X23.714Y40.904Z4.8F1500
G1 Z0F500
G1 X22.051Y40.87Z0F1200
G1 X21.799Y40.91Z0F1200
G1 X21.559Y41.006Z0F1200
G1 X21.34Y41.143Z0F1200
G1 X21.153Y41.308Z0F1200
G1 X21.187Y41.417Z0F1200
G1 X21.255Y41.487Z0F1200
G1 X21.349Y41.525Z0F1200
G1 X21.462Y41.54Z0F1200
G1 X21.707Z0F1200
G1 X21.924Y41.549Z0F1200
G1 X23.104Y41.563Z0F1200
G1 X24.285Y41.566Z0F1200
G1 X25.46Y41.563Z0F1200
G1 X26.637Y41.567Z0F1200
G1 X27.813Y41.559Z0F1200
G1 X28.986Y41.519Z0F1200
G1 X29.059Y41.448Z0F1200
G1 X29.082Y41.379Z0F1200
G1 X29.065Y41.316Z0F1200
G1 X29.017Y41.261Z0F1200
G1 X28.864Y41.19Z0F1200
G1 X28.696Y41.193Z0F1200
G1 X27.035Y41.1Z0F1200
G1 X25.375Y40.992Z0F1200
G1 X23.714Y40.904Z0F1200
G0 Z4.8F500
G0 X22.23Y44.453Z4.8F1500
G1 Z0F500
G1 X21.276Y44.27Z0F1200
G1 X20.316Y44.107Z0F1200
G1 X19.351Y43.994Z0F1200
G1 X18.382Y43.964Z0F1200
G1 X18.287Y44.032Z0F1200
G1 X18.25Y44.111Z0F1200
G1 X18.259Y44.197Z0F1200
G1 X18.304Y44.285Z0F1200
G1 X18.453Y44.455Z0F1200
G1 X18.6Y44.592Z0F1200
G1 X18.737Y44.751Z0F1200
G1 X18.897Y44.852Z0F1200
G1 X19.075Y44.907Z0F1200
G1 X19.265Y44.928Z0F1200
G1 X19.666Y44.918Z0F1200
G1 X20.844Z0F1200
G1 X21.293Y44.912Z0F1200
G1 X21.743Z0F1200
G1 X22.192Y44.898Z0F1200
G1 X22.636Y44.847Z0F1200
G1 X22.703Y44.755Z0F1200
G1 X22.712Y44.676Z0F1200
G1 X22.676Y44.611Z0F1200
G1 X22.606Y44.558Z0F1200
G1 X22.413Y44.485Z0F1200
G1 X22.23Y44.453Z0F1200
G0 Z4.8F500
G0 X22.441Y43.766Z4.8F1500
G1 Z0F500
G1 X23.221Y43.866Z0F1200
G1 X24.005Y43.923Z0F1200
G1 X24.791Y43.941Z0F1200
G1 X26.364Y43.888Z0F1200
G1 X27.93Y43.753Z0F1200
G1 X31.05Y43.634Z0F1200
G1 X37.299Y43.532Z0F1200
G1 X40.418Y43.408Z0F1200
G1 X43.118Y43.345Z0F1200
G1 X45.821Y43.301Z0F1200
G1 X45.808Y43.533Z0F1200
G1 X45.843Y43.765Z0F1200
G1 X45.888Y43.866Z0F1200
G1 X45.956Y43.948Z0F1200
G1 X46.051Y44.005Z0F1200
G1 X46.178Y44.03Z0F1200
G1 X46.393Y44.07Z0F1200
G1 X46.612Y44.06Z0F1200
G1 X46.718Z0F1200
G1 X46.817Y44.076Z0F1200
G1 X46.906Y44.117Z0F1200
G1 X46.985Y44.193Z0F1200
G1 X47.113Y44.261Z0F1200
G1 X47.28Y44.318Z0F1200
G1 X47.352Y44.351Z0F1200
G1 X47.404Y44.391Z0F1200
G1 X47.425Y44.441Z0F1200
G1 X47.405Y44.504Z0F1200
G1 X47.149Y44.496Z0F1200
G1 X46.902Y44.547Z0F1200
G1 X46.792Y44.6Z0F1200
G1 X46.697Y44.675Z0F1200
G1 X46.621Y44.774Z0F1200
G1 X46.569Y44.899Z0F1200
G1 X46.477Y45.097Z0F1200
G1 X46.424Y45.33Z0F1200
G1 X46.43Y45.437Z0F1200
G1 X46.468Y45.526Z0F1200
G1 X46.545Y45.588Z0F1200
G1 X46.668Y45.614Z0F1200
G1 X46.55Y45.795Z0F1200
G1 X46.464Y45.992Z0F1200
G1 X46.409Y46.199Z0F1200
G1 X46.381Y46.406Z0F1200
G1 X46.202Y46.429Z0F1200
G1 X46.003Y46.46Z0F1200
G1 X45.82Z0F1200
G1 X45.686Y46.4Z0F1200
G1 X45.657Y46.247Z0F1200
G1 X45.598Y46.11Z0F1200
G1 X45.513Y45.991Z0F1200
G1 X45.407Y45.893Z0F1200
G1 X45.282Y45.82Z0F1200
G1 X45.143Y45.773Z0F1200
G1 X44.994Y45.757Z0F1200
G1 X44.84Y45.774Z0F1200
G1 X44.743Y45.612Z0F1200
G1 X44.608Y45.458Z0F1200
G1 X44.487Y45.3Z0F1200
G1 X44.428Y45.131Z0F1200
G1 X44.728Y45.196Z0F1200
G1 X45.035Y45.302Z0F1200
G1 X45.187Y45.34Z0F1200
G1 X45.335Y45.35Z0F1200
G1 X45.477Y45.321Z0F1200
G1 X45.612Y45.239Z0F1200
G1 X45.749Y45Z0F1200
G1 X45.873Y44.745Z0F1200
G1 X45.954Y44.48Z0F1200
G1 X45.965Y44.207Z0F1200
G1 X45.859Y44.134Z0F1200
G1 X45.74Y44.092Z0F1200
G1 X45.611Y44.073Z0F1200
G1 X45.475Y44.07Z0F1200
G1 X45.198Y44.081Z0F1200
G1 X44.936Y44.066Z0F1200
G1 X43.082Y44.059Z0F1200
G1 X41.228Y44.078Z0F1200
G1 X39.376Y44.152Z0F1200
G1 X37.531Y44.315Z0F1200
G1 X37.449Y44.372Z0F1200
G1 X37.414Y44.437Z0F1200
G1 X37.418Y44.504Z0F1200
G1 X37.453Y44.568Z0F1200
G1 X37.586Y44.67Z0F1200
G1 X37.749Y44.705Z0F1200
G1 X38.651Y44.922Z0F1200
G1 X39.563Y45.119Z0F1200
G1 X40.48Y45.264Z0F1200
G1 X41.397Y45.326Z0F1200
G1 X41.363Y45.424Z0F1200
G1 X41.296Y45.482Z0F1200
G1 X41.204Y45.51Z0F1200
G1 X41.098Y45.52Z0F1200
G1 X40.869Y45.526Z0F1200
G1 X40.677Y45.579Z0F1200
G1 X40.479Y45.672Z0F1200
G1 X40.31Y45.812Z0F1200
G1 X40.226Y45.868Z0F1200
G1 X40.139Y45.899Z0F1200
G1 X40.042Y45.89Z0F1200
G1 X39.934Y45.83Z0F1200
G1 X39.676Y45.736Z0F1200
G1 X39.41Y45.709Z0F1200
G1 X39.142Y45.732Z0F1200
G1 X38.875Y45.782Z0F1200
G1 X38.458Y45.739Z0F1200
G1 X38.038Y45.684Z0F1200
G1 X37.62Y45.64Z0F1200
G1 X37.207Y45.629Z0F1200
G1 X37.195Y45.49Z0F1200
G1 X37.136Y45.39Z0F1200
G1 X37.041Y45.321Z0F1200
G1 X36.92Y45.275Z0F1200
G1 X36.397Y45.18Z0F1200
G1 X35.588Y45.062Z0F1200
G1 X34.777Y44.98Z0F1200
G1 X33.966Y44.929Z0F1200
G1 X33.155Y44.907Z0F1200
G1 X31.53Y44.934Z0F1200
G1 X29.904Y45.033Z0F1200
G1 X26.657Y45.332Z0F1200
G1 X23.422Y45.578Z0F1200
G1 X22.603Y45.592Z0F1200
G1 X21.782Y45.603Z0F1200
G1 X20.964Y45.636Z0F1200
G1 X20.151Y45.717Z0F1200
G1 X20.071Y45.81Z0F1200
G1 X20.053Y45.902Z0F1200
G1 X20.086Y45.99Z0F1200
G1 X20.158Y46.07Z0F1200
G1 X20.367Y46.188Z0F1200
G1 X20.581Y46.226Z0F1200
G1 X20.779Y46.241Z0F1200
G1 X20.989Y46.238Z0F1200
G1 X21.191Z0F1200
G1 X21.363Y46.27Z0F1200
G1 X21.251Y46.415Z0F1200
G1 X21.103Y46.498Z0F1200
G1 X20.934Y46.537Z0F1200
G1 X20.762Y46.552Z0F1200
G1 X20.578Y46.687Z0F1200
G1 X20.384Y46.801Z0F1200
G1 X20.182Y46.903Z0F1200
G1 X19.976Y47.002Z0F1200
G1 X19.826Y47.115Z0F1200
G1 X19.704Y47.26Z0F1200
G1 X19.6Y47.416Z0F1200
G1 X19.503Y47.567Z0F1200
G1 X19.103Y47.641Z0F1200
G1 X18.69Y47.672Z0F1200
G1 X18.283Y47.724Z0F1200
G1 X17.903Y47.858Z0F1200
G1 X17.862Y47.949Z0F1200
G1 X17.853Y48.045Z0F1200
G1 X17.825Y48.129Z0F1200
G1 X17.728Y48.183Z0F1200
G1 X17.542Y48.363Z0F1200
G1 X17.401Y48.584Z0F1200
G1 X17.302Y48.823Z0F1200
G1 X17.244Y49.057Z0F1200
G1 X17.019Y49.049Z0F1200
G1 X16.783Y49.067Z0F1200
G1 X16.549Y49.114Z0F1200
G1 X16.328Y49.193Z0F1200
G1 X16.132Y49.307Z0F1200
G1 X15.972Y49.46Z0F1200
G1 X15.861Y49.654Z0F1200
G1 X15.81Y49.893Z0F1200
G1 X15.803Y49.957Z0F1200
G1 X15.81Y50.034Z0F1200
G1 X15.8Y50.093Z0F1200
G1 X15.743Y50.103Z0F1200
G1 X15.621Y50.052Z0F1200
G1 X15.55Y49.969Z0F1200
G1 X15.517Y49.864Z0F1200
G1 X15.508Y49.743Z0F1200
G1 X15.513Y49.487Z0F1200
G1 X15.459Y49.264Z0F1200
G1 X15.341Y49.131Z0F1200
G1 X15.225Y48.992Z0F1200
G1 X15.091Y48.875Z0F1200
G1 X14.92Y48.808Z0F1200
G1 X14.855Y48.714Z0F1200
G1 X14.818Y48.612Z0F1200
G1 X14.806Y48.506Z0F1200
G1 X14.818Y48.401Z0F1200
G1 X14.91Y48.211Z0F1200
G1 X15.081Y48.079Z0F1200
G1 X15.088Y47.955Z0F1200
G1 X15.044Y47.877Z0F1200
G1 X14.961Y47.833Z0F1200
G1 X14.853Y47.814Z0F1200
G1 X14.606Y47.806Z0F1200
G1 X14.398Y47.766Z0F1200
G1 X14.298Y47.718Z0F1200
G1 X14.226Y47.645Z0F1200
G1 X14.175Y47.554Z0F1200
G1 X14.137Y47.451Z0F1200
G1 X14.072Y47.234Z0F1200
G1 X13.97Y47.043Z0F1200
G1 X13.905Y46.938Z0F1200
G1 X13.864Y46.819Z0F1200
G1 X13.849Y46.695Z0F1200
G1 X13.862Y46.575Z0F1200
G1 X13.903Y46.468Z0F1200
G1 X13.974Y46.382Z0F1200
G1 X14.078Y46.327Z0F1200
G1 X14.214Y46.31Z0F1200
G1 X14.493Y46.286Z0F1200
G1 X14.779Y46.3Z0F1200
G1 X15.059Y46.295Z0F1200
G1 X15.32Y46.213Z0F1200
G1 X15.346Y46.09Z0F1200
G1 X15.314Y45.998Z0F1200
G1 X15.239Y45.933Z0F1200
G1 X15.132Y45.887Z0F1200
G1 X14.878Y45.834Z0F1200
G1 X14.657Y45.792Z0F1200
G1 X14.47Y45.743Z0F1200
G1 X14.26Y45.692Z0F1200
G1 X14.075Y45.611Z0F1200
G1 X13.965Y45.469Z0F1200
G1 X14.04Y45.252Z0F1200
G1 X14.184Y45.085Z0F1200
G1 X14.276Y45.032Z0F1200
G1 X14.379Y45.004Z0F1200
G1 X14.491Y45.008Z0F1200
G1 X14.609Y45.046Z0F1200
G1 X14.877Y45.077Z0F1200
G1 X15.14Y45.051Z0F1200
G1 X15.398Y44.99Z0F1200
G1 X15.652Y44.915Z0F1200
G1 X16.111Y44.873Z0F1200
G1 X16.578Y44.865Z0F1200
G1 X17.039Y44.847Z0F1200
G1 X17.479Y44.779Z0F1200
G1 X17.521Y44.673Z0F1200
G1 X17.511Y44.57Z0F1200
G1 X17.461Y44.473Z0F1200
G1 X17.382Y44.38Z0F1200
G1 X17.177Y44.213Z0F1200
G1 X16.983Y44.075Z0F1200
G1 X16.795Y43.989Z0F1200
G1 X16.595Y43.963Z0F1200
G1 X16.393Y43.982Z0F1200
G1 X16.199Y44.028Z0F1200
G1 X16.152Y43.83Z0F1200
G1 X16.072Y43.65Z0F1200
G1 X15.965Y43.485Z0F1200
G1 X15.838Y43.332Z0F1200
G1 X15.78Y43.147Z0F1200
G1 X15.762Y42.934Z0F1200
G1 X15.783Y42.844Z0F1200
G1 X15.831Y42.78Z0F1200
G1 X15.912Y42.753Z0F1200
G1 X16.032Y42.773Z0F1200
G1 X17.446Y42.953Z0F1200
G1 X18.86Y43.136Z0F1200
G1 X20.268Y43.348Z0F1200
G1 X22.441Y43.766Z0F1200
G0 Z4.8F500
G0 X35.171Y36.828Z4.8F1500
G1 Z0F500
G1 X35.335Y36.89Z0F1200
G1 X35.506Y36.882Z0F1200
G1 X36.303Y36.859Z0F1200
G1 X37.092Y36.876Z0F1200
G1 X37.877Y36.951Z0F1200
G1 X38.659Y37.106Z0F1200
G1 X39.826Y37.319Z0F1200
G1 X41Y37.486Z0F1200
G1 X42.179Y37.592Z0F1200
G1 X43.365Y37.621Z0F1200
G1 X43.76Y37.613Z0F1200
G1 X44.163Y37.62Z0F1200
G1 X44.559Y37.6Z0F1200
G1 X44.938Y37.509Z0F1200
G1 X44.968Y37.391Z0F1200
G1 X44.942Y37.306Z0F1200
G1 X44.872Y37.249Z0F1200
G1 X44.773Y37.214Z0F1200
G1 X44.532Y37.186Z0F1200
G1 X44.324Y37.174Z0F1200
G1 X43.044Y37.115Z0F1200
G1 X41.772Y37.004Z0F1200
G1 X40.508Y36.831Z0F1200
G1 X39.252Y36.585Z0F1200
G1 X38.236Y36.432Z0F1200
G1 X37.208Y36.348Z0F1200
G1 X36.694Z0F1200
G1 X36.182Y36.377Z0F1200
G1 X35.674Y36.448Z0F1200
G1 X35.172Y36.562Z0F1200
G1 X35.106Y36.641Z0F1200
G1 X35.09Y36.713Z0F1200
G1 X35.115Y36.777Z0F1200
G1 X35.171Y36.828Z0F1200
G0 Z4.8F500
G0 X34.403Y35.955Z4.8F1500
G1 Z0F500
G1 X34.48Y35.921Z0F1200
G1 X34.542Y35.866Z0F1200
G1 X34.583Y35.799Z0F1200
G1 X34.599Y35.728Z0F1200
G1 X34.584Y35.661Z0F1200
G1 X34.533Y35.608Z0F1200
G1 X34.442Y35.578Z0F1200
G1 X33.239Y35.422Z0F1200
G1 X32.047Y35.231Z0F1200
G1 X32.035Y35.012Z0F1200
G1 X32.062Y34.765Z0F1200
G1 X32.103Y34.661Z0F1200
G1 X32.168Y34.588Z0F1200
G1 X32.264Y34.558Z0F1200
G1 X32.395Y34.583Z0F1200
G1 X33.893Y34.836Z0F1200
G1 X35.395Y35.054Z0F1200
G1 X36.905Y35.209Z0F1200
G1 X38.422Y35.276Z0F1200
G1 X41.233Y35.444Z0F1200
G1 X44.047Y35.597Z0F1200
G1 X45.454Y35.645Z0F1200
G1 X46.862Y35.663Z0F1200
G1 X48.271Y35.641Z0F1200
G1 X49.679Y35.571Z0F1200
G1 X50.348Y35.53Z0F1200
G1 X51.021Y35.509Z0F1200
G1 X51.691Y35.471Z0F1200
G1 X52.354Y35.378Z0F1200
G1 X52.435Y35.311Z0F1200
G1 X52.485Y35.222Z0F1200
G1 X52.547Y35.152Z0F1200
G1 X52.662Y35.142Z0F1200
G1 X53.128Y35.15Z0F1200
G1 X53.601Y35.21Z0F1200
G1 X53.834Y35.226Z0F1200
G1 X54.062Y35.214Z0F1200
G1 X54.284Y35.162Z0F1200
G1 X54.497Y35.056Z0F1200
G1 X54.792Y35.243Z0F1200
G1 X55.1Y35.466Z0F1200
G1 X55.258Y35.549Z0F1200
G1 X55.42Y35.59Z0F1200
G1 X55.584Y35.573Z0F1200
G1 X55.751Y35.481Z0F1200
G1 X55.843Y35.414Z0F1200
G1 X55.937Y35.399Z0F1200
G1 X56.032Y35.422Z0F1200
G1 X56.129Y35.469Z0F1200
G1 X56.329Y35.579Z0F1200
G1 X56.534Y35.614Z0F1200
G1 X56.87Y35.627Z0F1200
G1 X57.213Y35.608Z0F1200
G1 X57.551Z0F1200
G1 X57.872Y35.675Z0F1200
G1 X57.973Y35.733Z0F1200
G1 X58.093Y35.763Z0F1200
G1 X58.132Y35.774Z0F1200
G1 X58.144Y35.787Z0F1200
G1 X58.116Y35.804Z0F1200
G1 X58.039Y35.827Z0F1200
G1 X57.959Y35.881Z0F1200
G1 X57.919Y35.96Z0F1200
G1 X57.905Y36.052Z0F1200
G1 X57.901Y36.146Z0F1200
G1 X57.894Y36.23Z0F1200
G1 X57.867Y36.291Z0F1200
G1 X57.807Y36.318Z0F1200
G1 X57.699Y36.298Z0F1200
G1 X50.805Y36.261Z0F1200
G1 X50.724Y36.339Z0F1200
G1 X50.679Y36.434Z0F1200
G1 X50.665Y36.539Z0F1200
G1 X50.676Y36.651Z0F1200
G1 X50.751Y36.873Z0F1200
G1 X50.861Y37.064Z0F1200
G1 X51.403Y37.121Z0F1200
G1 X51.954Y37.107Z0F1200
G1 X52.507Y37.064Z0F1200
G1 X53.056Y37.036Z0F1200
G1 X53.336Y37.02Z0F1200
G1 X53.608Y36.973Z0F1200
G1 X53.866Y36.883Z0F1200
G1 X54.1Y36.735Z0F1200
G1 X54.207Y36.712Z0F1200
G1 X54.311Y36.717Z0F1200
G1 X54.382Y36.769Z0F1200
G1 X54.391Y36.888Z0F1200
G1 X54.415Y37.101Z0F1200
G1 X54.457Y37.331Z0F1200
G1 Y37.434Z0F1200
G1 X54.435Y37.518Z0F1200
G1 X54.374Y37.576Z0F1200
G1 X54.266Y37.6Z0F1200
G1 X53.616Y37.681Z0F1200
G1 X52.961Y37.723Z0F1200
G1 X52.309Y37.775Z0F1200
G1 X51.666Y37.884Z0F1200
G1 X51.605Y37.978Z0F1200
G1 X51.6Y38.056Z0F1200
G1 X51.638Y38.119Z0F1200
G1 X51.708Y38.168Z0F1200
G1 X51.899Y38.222Z0F1200
G1 X52.081Z0F1200
G1 X52.695Y38.24Z0F1200
G1 X53.31Y38.272Z0F1200
G1 X53.92Y38.331Z0F1200
G1 X54.521Y38.432Z0F1200
G1 X54.593Y38.789Z0F1200
G1 X54.633Y39.152Z0F1200
G1 X53.261Y38.99Z0F1200
G1 X51.881Y38.924Z0F1200
G1 X50.497Y38.903Z0F1200
G1 X49.116Y38.875Z0F1200
G1 X42.006Y38.789Z0F1200
G1 X34.898Y38.648Z0F1200
G1 X32.313Y38.628Z0F1200
G1 X31.022Z0F1200
G1 X29.736Y38.658Z0F1200
G1 X29.646Y38.898Z0F1200
G1 X29.639Y39.175Z0F1200
G1 X29.706Y39.452Z0F1200
G1 X29.837Y39.694Z0F1200
G1 X29.816Y39.916Z0F1200
G1 X29.707Y40.149Z0F1200
G1 X29.667Y40.259Z0F1200
G1 X29.661Y40.357Z0F1200
G1 X29.708Y40.439Z0F1200
G1 X29.827Y40.501Z0F1200
G1 X30.372Y40.529Z0F1200
G1 X30.92Y40.547Z0F1200
G1 X31.465Y40.538Z0F1200
G1 X32.001Y40.488Z0F1200
G1 X32.035Y40.305Z0F1200
G1 X32.046Y40.1Z0F1200
G1 X32.067Y40.009Z0F1200
G1 X32.109Y39.937Z0F1200
G1 X32.184Y39.891Z0F1200
G1 X32.3Y39.88Z0F1200
G1 X33.26Y39.744Z0F1200
G1 X34.225Y39.64Z0F1200
G1 X35.192Y39.561Z0F1200
G1 X36.163Y39.5Z0F1200
G1 X38.107Y39.409Z0F1200
G1 X40.05Y39.315Z0F1200
G1 X40.888Y39.269Z0F1200
G1 X41.715Y39.234Z0F1200
G1 X41.765Y39.478Z0F1200
G1 X41.774Y39.75Z0F1200
G1 X41.795Y39.868Z0F1200
G1 X41.844Y39.958Z0F1200
G1 X41.935Y40.01Z0F1200
G1 X42.08Z0F1200
G1 X45.285Y39.851Z0F1200
G1 X48.49Y39.672Z0F1200
G1 X48.477Y39.743Z0F1200
G1 X48.433Y39.792Z0F1200
G1 X48.368Y39.824Z0F1200
G1 X48.29Y39.847Z0F1200
G1 X48.123Y39.89Z0F1200
G1 X47.994Y39.973Z0F1200
G1 X47.824Y40.089Z0F1200
G1 X47.69Y40.239Z0F1200
G1 X47.568Y40.398Z0F1200
G1 X47.43Y40.543Z0F1200
G1 X47.393Y40.706Z0F1200
G1 X47.307Y40.837Z0F1200
G1 X47.19Y40.947Z0F1200
G1 X47.058Y41.05Z0F1200
G1 X46.829Y41.35Z0F1200
G1 X46.665Y41.691Z0F1200
G1 X46.563Y42.054Z0F1200
G1 X46.524Y42.417Z0F1200
G1 X45.655Y42.544Z0F1200
G1 X44.774Y42.621Z0F1200
G1 X43.889Y42.676Z0F1200
G1 X43.007Y42.74Z0F1200
G1 X41.957Y42.785Z0F1200
G1 X40.904Y42.796Z0F1200
G1 X38.583Y42.704Z0F1200
G1 X36.26Y42.576Z0F1200
G1 X33.937Y42.454Z0F1200
G1 X31.611Y42.378Z0F1200
G1 X27.497Y42.299Z0F1200
G1 X19.266Y42.216Z0F1200
G1 X15.153Y42.134Z0F1200
G1 X14.863Y42.11Z0F1200
G1 X14.555Y42.099Z0F1200
G1 X14.405Y42.082Z0F1200
G1 X14.262Y42.047Z0F1200
G1 X14.131Y41.989Z0F1200
G1 X14.016Y41.9Z0F1200
G1 X13.948Y41.695Z0F1200
G1 X13.933Y41.468Z0F1200
G1 X13.958Y41.367Z0F1200
G1 X14.01Y41.285Z0F1200
G1 X14.094Y41.23Z0F1200
G1 X14.215Y41.21Z0F1200
G1 X14.759Y41.166Z0F1200
G1 X15.307Y41.137Z0F1200
G1 X15.851Y41.082Z0F1200
G1 X16.382Y40.964Z0F1200
G1 X16.435Y40.86Z0F1200
G1 X16.431Y40.78Z0F1200
G1 X16.383Y40.722Z0F1200
G1 X16.302Y40.682Z0F1200
G1 X16.092Y40.647Z0F1200
G1 X15.902Z0F1200
G1 X15.456Y40.636Z0F1200
G1 X15.008Z0F1200
G1 X14.565Y40.618Z0F1200
G1 X14.135Y40.56Z0F1200
G1 X14.105Y40.357Z0F1200
G1 X14.112Y40.148Z0F1200
G1 X14.141Y40.059Z0F1200
G1 X14.196Y39.991Z0F1200
G1 X14.28Y39.951Z0F1200
G1 X14.4Y39.946Z0F1200
G1 X14.506Y39.901Z0F1200
G1 X14.574Y39.821Z0F1200
G1 X14.617Y39.72Z0F1200
G1 X14.649Y39.612Z0F1200
G1 X14.683Y39.511Z0F1200
G1 X14.732Y39.43Z0F1200
G1 X14.811Y39.385Z0F1200
G1 X14.931Y39.388Z0F1200
G1 X17.441Y39.284Z0F1200
G1 X19.957Y39.21Z0F1200
G1 X22.475Y39.113Z0F1200
G1 X24.986Y38.94Z0F1200
G1 X25.088Z0F1200
G1 X25.174Y38.904Z0F1200
G1 X25.238Y38.84Z0F1200
G1 X25.277Y38.761Z0F1200
G1 X25.287Y38.678Z0F1200
G1 X25.263Y38.601Z0F1200
G1 X25.202Y38.541Z0F1200
G1 X25.098Y38.509Z0F1200
G1 X22.644Y38.517Z0F1200
G1 X17.737Y38.61Z0F1200
G1 X15.284Y38.615Z0F1200
G1 X15.213Y38.586Z0F1200
G1 X15.171Y38.534Z0F1200
G1 X15.153Y38.464Z0F1200
G1 Y38.384Z0F1200
G1 X15.193Y38.217Z0F1200
G1 X15.243Y38.082Z0F1200
G1 X15.281Y37.999Z0F1200
G1 X15.288Y37.911Z0F1200
G1 X15.27Y37.826Z0F1200
G1 X15.229Y37.755Z0F1200
G1 X15.172Y37.704Z0F1200
G1 X15.103Y37.684Z0F1200
G1 X15.027Y37.702Z0F1200
G1 X14.948Y37.769Z0F1200
G1 X14.809Y37.971Z0F1200
G1 X14.718Y38.211Z0F1200
G1 X14.623Y38.44Z0F1200
G1 X14.469Y38.613Z0F1200
G1 X14.381Y38.617Z0F1200
G1 X14.317Y38.582Z0F1200
G1 X14.27Y38.518Z0F1200
G1 X14.236Y38.435Z0F1200
G1 X14.185Y38.249Z0F1200
G1 X14.122Y38.103Z0F1200
G1 X14.011Y37.72Z0F1200
G1 X13.904Y37.328Z0F1200
G1 X13.835Y36.934Z0F1200
G1 X13.841Y36.543Z0F1200
G1 X14.066Y36.471Z0F1200
G1 X14.295Y36.493Z0F1200
G1 X14.396Y36.539Z0F1200
G1 X14.481Y36.61Z0F1200
G1 X14.544Y36.705Z0F1200
G1 X14.579Y36.826Z0F1200
G1 X14.667Y36.935Z0F1200
G1 X14.781Y36.996Z0F1200
G1 X14.915Y37.021Z0F1200
G1 X15.062Z0F1200
G1 X15.371Y36.99Z0F1200
G1 X15.656Y36.998Z0F1200
G1 X16.23Z0F1200
G1 X16.796Y37.075Z0F1200
G1 X17.359Y37.189Z0F1200
G1 X17.924Y37.292Z0F1200
G1 X18.172Y37.277Z0F1200
G1 X18.434Y37.252Z0F1200
G1 X18.558Y37.223Z0F1200
G1 X18.671Y37.176Z0F1200
G1 X18.769Y37.107Z0F1200
G1 X18.847Y37.011Z0F1200
G1 X18.816Y36.795Z0F1200
G1 X18.786Y36.557Z0F1200
G1 X18.752Y36.454Z0F1200
G1 X18.694Y36.373Z0F1200
G1 X18.606Y36.324Z0F1200
G1 X18.48Y36.317Z0F1200
G1 X18.117Y36.367Z0F1200
G1 X17.752Y36.381Z0F1200
G1 X17.572Y36.365Z0F1200
G1 X17.395Y36.328Z0F1200
G1 X17.222Y36.267Z0F1200
G1 X17.056Y36.177Z0F1200
G1 X16.799Y36.072Z0F1200
G1 X16.525Y36.008Z0F1200
G1 X16.256Y35.942Z0F1200
G1 X16.011Y35.832Z0F1200
G1 X15.905Y35.714Z0F1200
G1 X15.681Y35.635Z0F1200
G1 X15.622Y35.596Z0F1200
G1 X15.584Y35.534Z0F1200
G1 X15.556Y35.263Z0F1200
G1 X15.56Y35.075Z0F1200
G1 X15.585Y34.996Z0F1200
G1 X15.633Y34.938Z0F1200
G1 X15.708Y34.908Z0F1200
G1 X15.818Y34.914Z0F1200
G1 X17.123Y34.964Z0F1200
G1 X18.425Y35.052Z0F1200
G1 X19.726Y35.168Z0F1200
G1 X21.026Y35.298Z0F1200
G1 X23.628Y35.553Z0F1200
G1 X26.237Y35.724Z0F1200
G1 X26.525Y35.751Z0F1200
G1 X26.816Y35.8Z0F1200
G1 X26.949Y35.847Z0F1200
G1 X27.066Y35.917Z0F1200
G1 X27.162Y36.016Z0F1200
G1 X27.23Y36.149Z0F1200
G1 X27.574Y36.249Z0F1200
G1 X27.94Y36.256Z0F1200
G1 X28.313Y36.232Z0F1200
G1 X28.677Y36.236Z0F1200
G1 X29.245Z0F1200
G1 X29.813Y36.272Z0F1200
G1 X30.381Y36.31Z0F1200
G1 X30.948Y36.316Z0F1200
G1 X31.288Y36.085Z0F1200
G1 X31.473Y35.995Z0F1200
G1 X31.683Y35.957Z0F1200
G1 X31.941Y35.907Z0F1200
G1 X32.204Y35.89Z0F1200
G1 X32.332Y35.905Z0F1200
G1 X32.452Y35.942Z0F1200
G1 X32.564Y36.004Z0F1200
G1 X32.664Y36.097Z0F1200
G1 X33.074Y36.14Z0F1200
G1 X33.49Y36.105Z0F1200
G1 X34.316Y35.959Z0F1200
G1 X34.403Y35.955Z0F1200
G0 Z4.8F500
G0 X60.3Y37.022Z4.8F1500
G1 Z0F500
G1 X60.336Y37.095Z0F1200
G1 X60.428Y37.161Z0F1200
G1 X60.598Y37.188Z0F1200
G1 X60.771Y37.192Z0F1200
G1 X63.322Y37.093Z0F1200
G1 X64.596Y37.022Z0F1200
G1 X65.866Y36.909Z0F1200
G1 X65.947Y36.822Z0F1200
G1 X65.966Y36.735Z0F1200
G1 X65.937Y36.65Z0F1200
G1 X65.872Y36.568Z0F1200
G1 X65.685Y36.423Z0F1200
G1 X65.504Y36.319Z0F1200
G1 X65.322Y36.234Z0F1200
G1 X65.131Y36.182Z0F1200
G1 X64.936Y36.161Z0F1200
G1 X64.741Y36.172Z0F1200
G1 X64.549Y36.213Z0F1200
G1 X64.365Y36.283Z0F1200
G1 X64.193Y36.381Z0F1200
G1 X64.038Y36.505Z0F1200
G1 X63.205Y36.574Z0F1200
G1 X62.363Z0F1200
G1 X61.521Y36.583Z0F1200
G1 X60.689Y36.687Z0F1200
G1 X60.511Y36.748Z0F1200
G1 X60.355Y36.872Z0F1200
G1 X60.31Y36.946Z0F1200
G1 X60.3Y37.022Z0F1200
G0 Z4.8F500
G0 X60.467Y37.794Z4.8F1500
G1 Z0F500
G1 X58.593Y37.892Z0F1200
G1 X58.476Y37.927Z0F1200
G1 X58.384Z0F1200
G1 X58.315Y37.901Z0F1200
G1 X58.265Y37.849Z0F1200
G1 X58.212Y37.688Z0F1200
G1 X58.2Y37.479Z0F1200
G1 X58.14Y36.965Z0F1200
G1 X58.105Y36.45Z0F1200
G1 X58.541Y36.346Z0F1200
G1 X58.985Y36.294Z0F1200
G1 X59.429Y36.245Z0F1200
G1 X59.862Y36.147Z0F1200
G1 X59.927Y36.07Z0F1200
G1 X59.943Y35.995Z0F1200
G1 X59.92Y35.927Z0F1200
G1 X59.867Y35.868Z0F1200
G1 X59.706Y35.795Z0F1200
G1 X59.533Y35.803Z0F1200
G1 X59.235Y35.819Z0F1200
G1 X58.938Y35.87Z0F1200
G1 X58.644Y35.923Z0F1200
G1 X58.354Y35.949Z0F1200
G1 X58.269Y35.903Z0F1200
G1 X58.22Y35.84Z0F1200
G1 X58.201Y35.764Z0F1200
G1 X58.206Y35.68Z0F1200
G1 X58.265Y35.504Z0F1200
G1 X58.349Y35.346Z0F1200
G1 X58.626Y35.229Z0F1200
G1 X58.915Y35.154Z0F1200
G1 X59.212Y35.116Z0F1200
G1 X59.514Y35.113Z0F1200
G1 X60.116Y35.193Z0F1200
G1 X60.692Y35.364Z0F1200
G1 X61.027Y35.499Z0F1200
G1 X61.346Y35.682Z0F1200
G1 X61.507Y35.758Z0F1200
G1 X61.672Y35.809Z0F1200
G1 X61.845Y35.82Z0F1200
G1 X62.029Y35.779Z0F1200
G1 X62.924Y35.659Z0F1200
G1 X63.829Y35.543Z0F1200
G1 X64.282Y35.51Z0F1200
G1 X64.734Z0F1200
G1 X65.184Y35.546Z0F1200
G1 X65.63Y35.634Z0F1200
G1 X65.897Y35.764Z0F1200
G1 X66.167Y35.916Z0F1200
G1 X66.304Y35.972Z0F1200
G1 X66.444Y35.998Z0F1200
G1 X66.587Y35.984Z0F1200
G1 X66.735Y35.918Z0F1200
G1 X67.314Y35.71Z0F1200
G1 X67.911Y35.583Z0F1200
G1 X68.213Y35.559Z0F1200
G1 X68.516Y35.565Z0F1200
G1 X68.819Y35.605Z0F1200
G1 X69.121Y35.682Z0F1200
G1 X69.667Y35.636Z0F1200
G1 X70.202Y35.503Z0F1200
G1 X70.47Y35.434Z0F1200
G1 X70.74Y35.38Z0F1200
G1 X71.014Y35.352Z0F1200
G1 X71.294Y35.363Z0F1200
G1 X71.525Z0F1200
G1 X71.745Y35.415Z0F1200
G1 X71.956Y35.501Z0F1200
G1 X72.161Y35.606Z0F1200
G1 X72.365Y35.715Z0F1200
G1 X72.569Y35.814Z0F1200
G1 X72.777Y35.887Z0F1200
G1 X72.993Y35.92Z0F1200
G1 X73.374Y35.822Z0F1200
G1 X73.761Y35.765Z0F1200
G1 X74.151Y35.737Z0F1200
G1 X74.545Y35.727Z0F1200
G1 X75.334Y35.722Z0F1200
G1 X76.121Y35.663Z0F1200
G1 X77.548Y35.518Z0F1200
G1 X78.969Y35.363Z0F1200
G1 X79.68Y35.301Z0F1200
G1 X80.392Y35.26Z0F1200
G1 X81.106Y35.247Z0F1200
G1 X81.823Y35.272Z0F1200
G1 X82.886Y35.3Z0F1200
G1 X83.96Y35.359Z0F1200
G1 X84.489Y35.431Z0F1200
G1 X85.005Y35.55Z0F1200
G1 X85.503Y35.726Z0F1200
G1 X85.977Y35.974Z0F1200
G1 X86.03Y36.077Z0F1200
G1 X86.033Y36.178Z0F1200
G1 X85.997Y36.274Z0F1200
G1 X85.931Y36.363Z0F1200
G1 X85.743Y36.511Z0F1200
G1 X85.543Y36.602Z0F1200
G1 X85.436Y36.783Z0F1200
G1 X85.332Y36.965Z0F1200
G1 X85.202Y37.125Z0F1200
G1 X85.018Y37.238Z0F1200
G1 X84.927Y37.324Z0F1200
G1 X84.869Y37.429Z0F1200
G1 X84.838Y37.471Z0F1200
G1 X84.799Y37.497Z0F1200
G1 X84.746Y37.5Z0F1200
G1 X84.674Y37.473Z0F1200
G1 X84.384Y37.462Z0F1200
G1 X84.106Y37.536Z0F1200
G1 X83.994Y37.61Z0F1200
G1 X83.914Y37.712Z0F1200
G1 X83.874Y37.842Z0F1200
G1 X83.884Y38.003Z0F1200
G1 X83.832Y38.134Z0F1200
G1 X83.753Y38.252Z0F1200
G1 X83.653Y38.351Z0F1200
G1 X83.536Y38.426Z0F1200
G1 X83.407Y38.473Z0F1200
G1 X83.272Y38.486Z0F1200
G1 X83.135Y38.46Z0F1200
G1 X83.002Y38.392Z0F1200
G1 X82.649Z0F1200
G1 X82.301Y38.434Z0F1200
G1 X81.956Y38.504Z0F1200
G1 X81.614Y38.596Z0F1200
G1 X80.934Y38.808Z0F1200
G1 X80.258Y39.005Z0F1200
G1 X80.173Y39.11Z0F1200
G1 X80.127Y39.237Z0F1200
G1 X80.109Y39.377Z0F1200
G1 X80.101Y39.673Z0F1200
G1 X80.085Y39.816Z0F1200
G1 X80.044Y39.945Z0F1200
G1 X79.966Y40.056Z0F1200
G1 X79.786Y40.098Z0F1200
G1 X79.602Y40.113Z0F1200
G1 X79.231Z0F1200
G1 X78.219Y40.08Z0F1200
G1 X77.204Y40.056Z0F1200
G1 X76.192Y39.995Z0F1200
G1 X75.191Y39.854Z0F1200
G1 X75.077Y39.827Z0F1200
G1 X74.998Y39.754Z0F1200
G1 X74.953Y39.653Z0F1200
G1 X74.942Y39.541Z0F1200
G1 X74.964Y39.434Z0F1200
G1 X75.019Y39.348Z0F1200
G1 X75.107Y39.301Z0F1200
G1 X75.227Y39.309Z0F1200
G1 X76.232Z0F1200
G1 X77.239Y39.34Z0F1200
G1 X78.244Y39.357Z0F1200
G1 X79.247Y39.318Z0F1200
G1 X79.35Y39.249Z0F1200
G1 X79.422Y39.154Z0F1200
G1 X79.475Y39.042Z0F1200
G1 X79.565Y38.801Z0F1200
G1 X79.623Y38.689Z0F1200
G1 X79.703Y38.595Z0F1200
G1 X79.817Y38.526Z0F1200
G1 X80.274Y38.305Z0F1200
G1 X80.764Y38.156Z0F1200
G1 X81.253Y38.01Z0F1200
G1 X81.709Y37.799Z0F1200
G1 X81.729Y37.682Z0F1200
G1 X81.701Y37.603Z0F1200
G1 X81.636Y37.555Z0F1200
G1 X81.545Y37.533Z0F1200
G1 X81.328Y37.538Z0F1200
G1 X81.135Y37.566Z0F1200
G1 X79.767Y37.692Z0F1200
G1 X78.399Y37.823Z0F1200
G1 X77.032Y37.943Z0F1200
G1 X75.665Y38.038Z0F1200
G1 X74.913Y37.781Z0F1200
G1 X74.172Y37.481Z0F1200
G1 X73.423Y37.208Z0F1200
G1 X72.649Y37.031Z0F1200
G1 X72.554Y37.049Z0F1200
G1 X72.494Y37.091Z0F1200
G1 X72.463Y37.151Z0F1200
G1 X72.457Y37.224Z0F1200
G1 X72.501Y37.382Z0F1200
G1 X72.588Y37.518Z0F1200
G1 X72.624Y37.625Z0F1200
G1 X72.627Y37.728Z0F1200
G1 X72.602Y37.823Z0F1200
G1 X72.552Y37.904Z0F1200
G1 X72.48Y37.968Z0F1200
G1 X72.392Y38.007Z0F1200
G1 X72.289Y38.019Z0F1200
G1 X72.176Y37.997Z0F1200
G1 X71.35Y37.784Z0F1200
G1 X70.513Y37.594Z0F1200
G1 X70.091Y37.53Z0F1200
G1 X69.667Y37.498Z0F1200
G1 X69.241Y37.507Z0F1200
G1 X68.813Y37.564Z0F1200
G1 X68.59Y37.585Z0F1200
G1 X68.369Y37.645Z0F1200
G1 X68.277Y37.699Z0F1200
G1 X68.207Y37.772Z0F1200
G1 X68.165Y37.869Z0F1200
G1 X68.16Y37.994Z0F1200
G1 X68.094Y38.115Z0F1200
G1 X68Y38.201Z0F1200
G1 X67.889Y38.252Z0F1200
G1 X67.767Y38.268Z0F1200
G1 X67.644Y38.25Z0F1200
G1 X67.529Y38.199Z0F1200
G1 X67.429Y38.116Z0F1200
G1 X67.354Y38Z0F1200
G1 X67.248Y37.862Z0F1200
G1 X67.114Y37.775Z0F1200
G1 X66.958Y37.727Z0F1200
G1 X66.788Y37.708Z0F1200
G1 X66.431Y37.713Z0F1200
G1 X66.098Y37.701Z0F1200
G1 X64.221Y37.716Z0F1200
G1 X62.343Y37.741Z0F1200
G1 X60.467Y37.794Z0F1200
;Offset @ 900 mm/min, 80% power

M8
G0 Z4.8F500
G0 X75.045Y49.898Z4.8F1500
G1 Z0F500
;Layer Red
G1 X75.061Y49.902Z0F1200
G1 X75.099Y49.913Z0F1200
G1 X75.11Y49.917Z0F1200
G1 X75.764Y50.256Z0F1200
G1 X75.936Y50.995Z0F1200
G1 X76.231Y51.589Z0F1200
G1 X75.773Y51.354Z0F1200
G1 X74.101Y51.386Z0F1200
G1 X73.984Y51.435Z0F1200
G1 X74.247Y50.511Z0F1200
G1 X74.275Y49.94Z0F1200
G1 X74.516Y49.914Z0F1200
G1 X74.674Y49.872Z0F1200
G1 X74.745Z0F1200
G1 X75.045Y49.898Z0F1200
G0 Z4.8F500
G0 X76.624Y49.982Z4.8F1500
G1 Z0F500
G1 X76.789Y50.688Z0F1200
G1 X77.172Y51.46Z0F1200
G1 X77.948Y52.233Z0F1200
G1 X78.886Y52.693Z0F1200
G1 X79.987Y52.893Z0F1200
G1 X80.667Y52.887Z0F1200
G1 X81.131Z0F1200
G1 X81.879Y52.863Z0F1200
G1 X82.657Y52.687Z0F1200
G1 X82.704Y52.664Z0F1200
G1 X82.794Y52.719Z0F1200
G1 X83.464Y52.86Z0F1200
G1 Y53.038Z0F1200
G1 X83.455Y53.821Z0F1200
G1 X83.426Y55.496Z0F1200
G1 X83.452Y57.123Z0F1200
G1 X83.449Y58.507Z0F1200
G1 X83.452Y59.196Z0F1200
G1 X82.698Y60.073Z0F1200
G1 X82.655Y59.998Z0F1200
G1 X82.649Y59.852Z0F1200
G1 X82.343Y58.971Z0F1200
G1 X82.31Y58.927Z0F1200
G1 X82.423Y58.755Z0F1200
G1 X82.66Y58.292Z0F1200
G1 X82.906Y57.627Z0F1200
G1 X83.378Y55.828Z0F1200
G1 X81.976Y54.026Z0F1200
G1 X80.379Y53.429Z0F1200
G1 X78.97Y53.746Z0F1200
G1 X78.101Y54.326Z0F1200
G1 X77.726Y54.77Z0F1200
G1 X77.671Y54.246Z0F1200
G1 X76.959Y52.972Z0F1200
G1 X75.564Y52.259Z0F1200
G1 X74.291Y52.282Z0F1200
G1 X73.76Y52.505Z0F1200
G1 X72.937Y52.685Z0F1200
G1 X72.644Y52.834Z0F1200
G1 X72.738Y52.221Z0F1200
G1 X72.717Y51.836Z0F1200
G1 X73.099Y51.258Z0F1200
G1 X73.353Y50.363Z0F1200
G1 X73.391Y49.598Z0F1200
G1 X73.326Y49.095Z0F1200
G1 X73.679Y49.099Z0F1200
G1 X74.351Y49.026Z0F1200
G1 X74.546Y48.974Z0F1200
G1 X74.777Y48.968Z0F1200
G1 X75.182Y49.007Z0F1200
G1 X75.278Y49.027Z0F1200
G1 X75.393Y49.062Z0F1200
G1 X75.485Y49.098Z0F1200
G1 X76.227Y49.482Z0F1200
G1 X76.621Y49.494Z0F1200
G1 X76.624Y49.982Z0F1200
G0 Z4.8F500
G0 X71.134Y57.694Z4.8F1500
G1 Z0F500
G1 X70.893Y57.779Z0F1200
G1 X70.378Y58.08Z0F1200
G1 X69.964Y58.407Z0F1200
G1 X69.663Y58.721Z0F1200
G1 X69.488Y58.731Z0F1200
G1 X68.892Y58.912Z0F1200
G1 X69.03Y58.658Z0F1200
G1 X69.473Y57.356Z0F1200
G1 X69.026Y56.207Z0F1200
G1 X69.073Y56.183Z0F1200
G1 X69.534Y56.134Z0F1200
G1 X70.243Y55.933Z0F1200
G1 X70.725Y55.678Z0F1200
G1 X70.714Y55.731Z0F1200
G1 X70.701Y56.351Z0F1200
G1 X70.837Y57.119Z0F1200
G1 X71.134Y57.694Z0F1200
G0 Z4.8F500
G0 X71.761Y58.428Z4.8F1500
G1 Z0F500
G1 X71.273Y58.599Z0F1200
G1 X70.887Y58.825Z0F1200
G1 X70.571Y59.075Z0F1200
G1 X70.216Y59.446Z0F1200
G1 X70.089Y59.599Z0F1200
G1 X69.646Y59.624Z0F1200
G1 X69.095Y59.791Z0F1200
G1 X68.512Y60.18Z0F1200
G1 X68.105Y60.647Z0F1200
G1 X67.888Y61.016Z0F1200
G1 X67.679Y60.97Z0F1200
G1 X67.208Y60.917Z0F1200
G1 X66.85Y60.892Z0F1200
G1 X66.577Y60.869Z0F1200
G1 X66.556Y60.85Z0F1200
G1 X66.442Y60.715Z0F1200
G1 X66.358Y60.598Z0F1200
G1 X66.156Y60.231Z0F1200
G1 X66.047Y59.945Z0F1200
G1 X66.05Z0F1200
G1 X66.721Y59.748Z0F1200
G1 X67.339Y59.39Z0F1200
G1 X67.702Y59.058Z0F1200
G1 X67.982Y58.704Z0F1200
G1 X68.202Y58.297Z0F1200
G1 X68.516Y57.376Z0F1200
G1 X67.955Y55.935Z0F1200
G1 X67.923Y55.843Z0F1200
G1 X68.344Y55.572Z0F1200
G1 X68.459Y55.453Z0F1200
G1 X68.589Y55.419Z0F1200
G1 X68.825Y55.301Z0F1200
G1 X68.853Z0F1200
G1 X69.362Y55.247Z0F1200
G1 X69.906Y55.093Z0F1200
G1 X70.481Y54.788Z0F1200
G1 X71.026Y54.27Z0F1200
G1 X71.406Y53.542Z0F1200
G1 X71.417Y53.462Z0F1200
G1 X71.454Y53.414Z0F1200
G1 X71.749Y52.73Z0F1200
G1 X71.834Y52.176Z0F1200
G1 X71.805Y51.632Z0F1200
G1 X71.789Y51.58Z0F1200
G1 X71.825Y51.554Z0F1200
G1 X72.271Y50.878Z0F1200
G1 X72.459Y50.216Z0F1200
G1 X72.488Y49.633Z0F1200
G1 X72.421Y49.114Z0F1200
G1 X72.285Y48.643Z0F1200
G1 X72.083Y48.192Z0F1200
G1 X71.985Y48.046Z0F1200
G1 X72.108Y48.059Z0F1200
G1 X72.721Y48.151Z0F1200
G1 X73.147Y48.192Z0F1200
G1 X73.636Y48.199Z0F1200
G1 X74.185Y48.139Z0F1200
G1 X74.417Y48.077Z0F1200
G1 X74.81Y48.067Z0F1200
G1 X75.314Y48.116Z0F1200
G1 X75.496Y48.154Z0F1200
G1 X75.688Y48.21Z0F1200
G1 X75.858Y48.278Z0F1200
G1 X76.458Y48.589Z0F1200
G1 X77.656Y48.624Z0F1200
G1 X77.52Y49.386Z0F1200
G1 X77.523Y49.875Z0F1200
G1 X77.641Y50.382Z0F1200
G1 X77.913Y50.927Z0F1200
G1 X78.478Y51.491Z0F1200
G1 X79.169Y51.83Z0F1200
G1 X80.064Y51.992Z0F1200
G1 X80.685Y51.986Z0F1200
G1 X81.118Z0F1200
G1 X81.763Y51.967Z0F1200
G1 X82.349Y51.834Z0F1200
G1 X82.744Y51.633Z0F1200
G1 X83.131Y51.871Z0F1200
G1 X84.049Y52.063Z0F1200
G1 X84.349Y52.009Z0F1200
G1 X84.36Y52.288Z0F1200
G1 X84.365Y53.043Z0F1200
G1 X84.355Y53.836Z0F1200
G1 X84.326Y55.497Z0F1200
G1 X84.352Y57.154Z0F1200
G1 X84.349Y58.506Z0F1200
G1 X84.355Y59.859Z0F1200
G1 X84.35Y60.18Z0F1200
G1 X84.048Y59.882Z0F1200
G1 X82.507Y61.676Z0F1200
G1 X82.241Y62.142Z0F1200
G1 X82.045Y62.56Z0F1200
G1 X81.984Y62.567Z0F1200
G1 X81.977Y62.552Z0F1200
G1 X82.23Y61.87Z0F1200
G1 X82.192Y61.008Z0F1200
G1 X81.787Y60.291Z0F1200
G1 X81.766Y60.27Z0F1200
G1 X81.755Y60.022Z0F1200
G1 X81.54Y59.401Z0F1200
G1 X81.174Y58.92Z0F1200
G1 X81.406Y58.661Z0F1200
G1 X81.645Y58.3Z0F1200
G1 X81.834Y57.93Z0F1200
G1 X82.046Y57.356Z0F1200
G1 X82.395Y56.029Z0F1200
G1 X81.422Y54.78Z0F1200
G1 X80.315Y54.366Z0F1200
G1 X79.331Y54.587Z0F1200
G1 X78.707Y55.004Z0F1200
G1 X78.291Y55.496Z0F1200
G1 X78.044Y55.661Z0F1200
G1 X77.577Y56.261Z0F1200
G1 X77.375Y57.147Z0F1200
G1 X77.509Y57.899Z0F1200
G1 X77.765Y58.449Z0F1200
G1 X78.118Y58.916Z0F1200
G1 X78.193Y58.978Z0F1200
G1 X77.491Y58.885Z0F1200
G1 X76.635Y59.972Z0F1200
G1 X76.396Y60.564Z0F1200
G1 X76.359Y61.209Z0F1200
G1 X76.505Y61.8Z0F1200
G1 X76.656Y62.059Z0F1200
G1 X76.538Y62.542Z0F1200
G1 X76.521Y62.263Z0F1200
G1 X76.4Y61.743Z0F1200
G1 X76.266Y61.35Z0F1200
G1 X76.159Y61.071Z0F1200
G1 X76.098Y60.897Z0F1200
G1 X76.093Y60.875Z0F1200
G1 X76.155Y60.432Z0F1200
G1 X75.968Y59.714Z0F1200
G1 X75.647Y59.164Z0F1200
G1 X75.185Y58.74Z0F1200
G1 X75.052Y58.671Z0F1200
G1 X75.939Y58.108Z0F1200
G1 X76.415Y57.496Z0F1200
G1 X76.653Y56.91Z0F1200
G1 X76.759Y56.408Z0F1200
G1 X76.807Y55.822Z0F1200
G1 X76.865Y55.193Z0F1200
G1 X76.795Y54.523Z0F1200
G1 X76.307Y53.649Z0F1200
G1 X75.355Y53.163Z0F1200
G1 X74.48Y53.179Z0F1200
G1 X73.997Y53.382Z0F1200
G1 X73.955Z0F1200
G1 X73.242Y53.539Z0F1200
G1 X72.667Y53.833Z0F1200
G1 X72.147Y54.315Z0F1200
G1 X71.789Y54.988Z0F1200
G1 X71.735Y55.309Z0F1200
G1 X71.695Y55.417Z0F1200
G1 X71.612Y55.831Z0F1200
G1 X71.603Y56.281Z0F1200
G1 X71.699Y56.827Z0F1200
G1 X72.057Y57.52Z0F1200
G1 X72.631Y58.058Z0F1200
G1 X73.241Y58.354Z0F1200
G1 X72.731Y58.408Z0F1200
G1 X72.676Z0F1200
G1 X72.35Y58.359Z0F1200
G1 X71.761Y58.428Z0F1200
G0 Z4.8F500
G0 X79.211Y57.191Z4.8F1500
G1 Z0F500
G1 X79.24Y57.352Z0F1200
G1 X79.316Y57.516Z0F1200
G1 X79.426Y57.662Z0F1200
G1 X79.557Y57.77Z0F1200
G1 X79.695Y57.82Z0F1200
G1 X79.847Y57.703Z0F1200
G1 X79.978Y57.558Z0F1200
G1 X80.089Y57.39Z0F1200
G1 X80.183Y57.206Z0F1200
G1 X80.328Y56.814Z0F1200
G1 X80.428Y56.433Z0F1200
G1 X80.314Y56.288Z0F1200
G1 X80.187Y56.24Z0F1200
G1 X80.052Y56.27Z0F1200
G1 X79.918Y56.359Z0F1200
G1 X79.683Y56.638Z0F1200
G1 X79.542Y56.919Z0F1200
G1 X79.434Y56.928Z0F1200
G1 X79.349Y56.955Z0F1200
G1 X79.286Y56.997Z0F1200
G1 X79.243Y57.052Z0F1200
G1 X79.211Y57.191Z0F1200
G0 Z4.8F500
G0 X78.772Y58.289Z4.8F1500
G1 Z0F500
G1 X79.104Y58.563Z0F1200
G1 X79.852Y58.834Z0F1200
G1 X80.462Y58.366Z0F1200
G1 X80.691Y58.109Z0F1200
G1 X80.867Y57.845Z0F1200
G1 X81.009Y57.568Z0F1200
G1 X81.187Y57.085Z0F1200
G1 X81.411Y56.231Z0F1200
G1 X80.868Y55.534Z0F1200
G1 X80.251Y55.303Z0F1200
G1 X79.691Y55.429Z0F1200
G1 X79.312Y55.682Z0F1200
G1 X78.926Y56.139Z0F1200
G1 X78.915Y56.162Z0F1200
G1 X78.665Y56.329Z0F1200
G1 X78.41Y56.657Z0F1200
G1 X78.293Y57.169Z0F1200
G1 X78.375Y57.626Z0F1200
G1 X78.541Y57.982Z0F1200
G1 X78.772Y58.289Z0F1200
G0 Z4.8F500
G0 X74.841Y56.587Z4.8F1500
G1 Z0F500
G1 X74.925Y56.38Z0F1200
G1 X74.974Y56.148Z0F1200
G1 X75.015Y55.655Z0F1200
G1 X75.057Y55.204Z0F1200
G1 X75.043Y55.079Z0F1200
G1 X75.001Y55.003Z0F1200
G1 X74.938Y54.971Z0F1200
G1 X74.859Z0F1200
G1 X74.685Y55.045Z0F1200
G1 X74.532Y55.159Z0F1200
G1 X74.19Y55.175Z0F1200
G1 X73.854Y55.248Z0F1200
G1 X73.709Y55.322Z0F1200
G1 X73.594Y55.429Z0F1200
G1 X73.515Y55.577Z0F1200
G1 X73.482Y55.771Z0F1200
G1 X73.433Y55.906Z0F1200
G1 X73.408Y56.029Z0F1200
G1 Y56.142Z0F1200
G1 X73.424Y56.243Z0F1200
G1 X73.514Y56.418Z0F1200
G1 X73.663Y56.558Z0F1200
G1 X74.071Y56.755Z0F1200
G1 X74.52Y56.877Z0F1200
G1 X74.709Y56.757Z0F1200
G1 X74.841Y56.587Z0F1200
G0 Z4.8F500
G0 X75.961Y55.199Z4.8F1500
G1 Z0F500
G1 X75.919Y54.801Z0F1200
G1 X75.654Y54.326Z0F1200
G1 X75.146Y54.067Z0F1200
G1 X74.669Y54.076Z0F1200
G1 X74.235Y54.258Z0F1200
G1 X74.215Y54.272Z0F1200
G1 X74.073Y54.279Z0F1200
G1 X73.548Y54.394Z0F1200
G1 X73.188Y54.578Z0F1200
G1 X72.871Y54.873Z0F1200
G1 X72.652Y55.283Z0F1200
G1 X72.609Y55.539Z0F1200
G1 X72.564Y55.661Z0F1200
G1 X72.51Y55.93Z0F1200
G1 X72.504Y56.211Z0F1200
G1 X72.562Y56.535Z0F1200
G1 X72.786Y56.969Z0F1200
G1 X73.147Y57.308Z0F1200
G1 X73.753Y57.602Z0F1200
G1 X74.667Y57.85Z0F1200
G1 X75.325Y57.433Z0F1200
G1 X75.627Y57.042Z0F1200
G1 X75.79Y56.645Z0F1200
G1 X75.867Y56.278Z0F1200
G1 X75.911Y55.738Z0F1200
G1 X75.961Y55.199Z0F1200
G0 Z4.8F500
G0 X76.69Y47.695Z4.8F1500
G1 Z0F500
G1 X77.678Y47.725Z0F1200
G1 X78.498Y47.71Z0F1200
G1 X78.932Y47.676Z0F1200
G1 X79.365Y47.619Z0F1200
G1 X79.801Y47.531Z0F1200
G1 X80.497Y47.333Z0F1200
G1 X80.65Y47.123Z0F1200
G1 X81.134Y47.161Z0F1200
G1 X81.703Y47.126Z0F1200
G1 X82.121Y47.031Z0F1200
G1 X82.491Y46.869Z0F1200
G1 X82.782Y46.704Z0F1200
G1 X83.009Y46.567Z0F1200
G1 X83.171Y46.481Z0F1200
G1 X83.249Y46.454Z0F1200
G1 X83.5Y46.672Z0F1200
G1 X83.97Y47.145Z0F1200
G1 X84.269Y47.413Z0F1200
G1 X84.622Y47.673Z0F1200
G1 X85.043Y47.899Z0F1200
G1 X85.249Y47.966Z0F1200
G1 X85.254Y47.987Z0F1200
G1 X85.263Y48.124Z0F1200
G1 X85.226Y48.596Z0F1200
G1 X85.125Y48.535Z0F1200
G1 X84.842Y48.348Z0F1200
G1 X84.456Y47.97Z0F1200
G1 X84.028Y47.799Z0F1200
G1 X83.694Y47.729Z0F1200
G1 X83.372Y47.715Z0F1200
G1 X83.052Y47.747Z0F1200
G1 X82.566Y47.877Z0F1200
G1 X82.144Y48.049Z0F1200
G1 X81.797Y48.2Z0F1200
G1 X81.509Y48.305Z0F1200
G1 X81.424Y48.325Z0F1200
G1 X81.344Y48.335Z0F1200
G1 X81.287Z0F1200
G1 X81.09Y48.302Z0F1200
G1 X80.644Z0F1200
G1 X80.19Y48.249Z0F1200
G1 X79.849Y48.237Z0F1200
G1 X79.438Y48.292Z0F1200
G1 X78.98Y48.492Z0F1200
G1 X78.51Y48.963Z0F1200
G1 X78.42Y49.462Z0F1200
G1 Y49.769Z0F1200
G1 X78.494Y50.075Z0F1200
G1 X78.652Y50.394Z0F1200
G1 X79.008Y50.748Z0F1200
G1 X79.453Y50.966Z0F1200
G1 X80.142Y51.091Z0F1200
G1 X80.682Y51.086Z0F1200
G1 X81.104Z0F1200
G1 X81.648Y51.07Z0F1200
G1 X82.041Y50.981Z0F1200
G1 X82.457Y50.769Z0F1200
G1 X82.718Y50.484Z0F1200
G1 X82.733Y50.497Z0F1200
G1 X83.028Y50.751Z0F1200
G1 X83.469Y51.021Z0F1200
G1 X84.062Y51.146Z0F1200
G1 X84.578Y51.053Z0F1200
G1 X84.978Y50.989Z0F1200
G1 X85.185Y50.937Z0F1200
G1 X85.229Y51.479Z0F1200
G1 X85.259Y52.264Z0F1200
G1 X85.265Y53.042Z0F1200
G1 X85.255Y53.852Z0F1200
G1 X85.227Y55.498Z0F1200
G1 X85.252Y57.141Z0F1200
G1 X85.249Y58.505Z0F1200
G1 X85.255Y59.872Z0F1200
G1 X85.235Y61.229Z0F1200
G1 X85.182Y62.134Z0F1200
G1 X85.113Y62.199Z0F1200
G1 X85.099Y62.182Z0F1200
G1 X84.103Y61.2Z0F1200
G1 X83.246Y62.197Z0F1200
G1 X83.04Y62.557Z0F1200
G1 X82.774Y63.126Z0F1200
G1 X82.675Y63.3Z0F1200
G1 X82.593Y63.399Z0F1200
G1 X82.54Y63.409Z0F1200
G1 X82.011Y63.47Z0F1200
G1 X81.535Y63.459Z0F1200
G1 X81.445Y63.437Z0F1200
G1 X81.384Y63.404Z0F1200
G1 X81.375Y63.39Z0F1200
G1 X81.321Y63.256Z0F1200
G1 X81.084Y62.776Z0F1200
G1 X80.903Y62.422Z0F1200
G1 X80.959Y62.379Z0F1200
G1 X81.181Y62.112Z0F1200
G1 X81.323Y61.728Z0F1200
G1 X81.303Y61.263Z0F1200
G1 X81.063Y60.839Z0F1200
G1 X80.862Y60.637Z0F1200
G1 X80.878Y60.577Z0F1200
G1 X80.862Y60.193Z0F1200
G1 X80.736Y59.832Z0F1200
G1 X80.489Y59.506Z0F1200
G1 X80.094Y59.262Z0F1200
G1 X79.581Y59.207Z0F1200
G1 X79.114Y59.389Z0F1200
G1 X78.892Y59.601Z0F1200
G1 X78.681Y59.793Z0F1200
G1 X78.508Y59.911Z0F1200
G1 X78.488Y59.92Z0F1200
G1 X78.478Y59.923Z0F1200
G1 X77.881Y59.844Z0F1200
G1 X77.421Y60.428Z0F1200
G1 X77.286Y60.763Z0F1200
G1 X77.266Y61.125Z0F1200
G1 X77.348Y61.459Z0F1200
G1 X77.541Y61.789Z0F1200
G1 X77.675Y61.95Z0F1200
G1 X77.518Y62.324Z0F1200
G1 X77.423Y62.711Z0F1200
G1 X77.386Y63.096Z0F1200
G1 X77.399Y63.475Z0F1200
G1 X77.458Y63.844Z0F1200
G1 X77.558Y64.199Z0F1200
G1 X77.562Y64.208Z0F1200
G1 X77.535Y64.271Z0F1200
G1 X77.441Y64.423Z0F1200
G1 X77.314Y64.581Z0F1200
G1 X77.167Y64.724Z0F1200
G1 X77.067Y64.799Z0F1200
G1 X76.82Y64.632Z0F1200
G1 X76.443Y64.382Z0F1200
G1 X76.293Y64.299Z0F1200
G1 X76.207Y64.132Z0F1200
G1 X75.887Y63.703Z0F1200
G1 X75.508Y63.344Z0F1200
G1 X75.675Y63.195Z0F1200
G1 X75.627Y62.393Z0F1200
G1 X75.534Y61.992Z0F1200
G1 X75.419Y61.657Z0F1200
G1 X75.309Y61.367Z0F1200
G1 X75.236Y61.159Z0F1200
G1 X75.194Y60.988Z0F1200
G1 X75.185Y60.868Z0F1200
G1 X75.239Y60.485Z0F1200
G1 X75.128Y60.061Z0F1200
G1 X74.938Y59.735Z0F1200
G1 X74.666Y59.485Z0F1200
G1 X74.342Y59.318Z0F1200
G1 X73.871Y59.229Z0F1200
G1 X73.442Y59.237Z0F1200
G1 X72.796Y59.306Z0F1200
G1 X72.62Y59.312Z0F1200
G1 X72.333Y59.267Z0F1200
G1 X71.965Y59.31Z0F1200
G1 X71.652Y59.42Z0F1200
G1 X71.396Y59.569Z0F1200
G1 X71.179Y59.742Z0F1200
G1 X70.888Y60.045Z0F1200
G1 X70.663Y60.317Z0F1200
G1 X70.492Y60.51Z0F1200
G1 X70.432Y60.56Z0F1200
G1 X70.413Y60.552Z0F1200
G1 X70.114Y60.499Z0F1200
G1 X69.805Y60.516Z0F1200
G1 X69.484Y60.614Z0F1200
G1 X69.112Y60.862Z0F1200
G1 X68.839Y61.176Z0F1200
G1 X68.558Y61.651Z0F1200
G1 X68.331Y62.047Z0F1200
G1 X68.309Y62.093Z0F1200
G1 X67.978Y61.958Z0F1200
G1 X67.531Y61.858Z0F1200
G1 X67.126Y61.813Z0F1200
G1 X66.766Y61.788Z0F1200
G1 X66.473Y61.764Z0F1200
G1 X66.233Y61.726Z0F1200
G1 X66.15Y61.701Z0F1200
G1 X66.064Y61.63Z0F1200
G1 X65.895Y61.462Z0F1200
G1 X65.731Y61.269Z0F1200
G1 X65.597Y61.081Z0F1200
G1 X65.338Y60.611Z0F1200
G1 X64.971Y59.646Z0F1200
G1 X64.203Y59.415Z0F1200
G1 X63.717Y59.495Z0F1200
G1 X63.395Y59.663Z0F1200
G1 X63.195Y59.81Z0F1200
G1 X63.076Y59.904Z0F1200
G1 X63.069Y59.908Z0F1200
G1 X62.963Y59.918Z0F1200
G1 X62.703Y60.019Z0F1200
G1 X62.65Y60.033Z0F1200
G1 X62.604Y59.949Z0F1200
G1 X62.704Y59.921Z0F1200
G1 X63.045Y59.767Z0F1200
G1 X63.37Y59.547Z0F1200
G1 X63.658Y59.253Z0F1200
G1 X63.884Y58.885Z0F1200
G1 X63.928Y58.746Z0F1200
G1 X64.055Y58.826Z0F1200
G1 X64.489Y58.986Z0F1200
G1 X64.934Y59.078Z0F1200
G1 X65.398Y59.104Z0F1200
G1 X65.877Y59.057Z0F1200
G1 X66.364Y58.914Z0F1200
G1 X66.804Y58.66Z0F1200
G1 X67.041Y58.443Z0F1200
G1 X67.227Y58.207Z0F1200
G1 X67.375Y57.935Z0F1200
G1 X67.558Y57.396Z0F1200
G1 X67.111Y56.248Z0F1200
G1 X66.781Y55.314Z0F1200
G1 X67.092Y55.233Z0F1200
G1 X67.431Y55.089Z0F1200
G1 X67.769Y54.872Z0F1200
G1 X67.988Y54.644Z0F1200
G1 X68.271Y54.571Z0F1200
G1 X68.627Y54.393Z0F1200
G1 X68.822Y54.4Z0F1200
G1 X69.19Y54.36Z0F1200
G1 X69.569Y54.253Z0F1200
G1 X69.951Y54.051Z0F1200
G1 X70.298Y53.721Z0F1200
G1 X70.536Y53.263Z0F1200
G1 X70.558Y53.106Z0F1200
G1 X70.67Y52.958Z0F1200
G1 X70.877Y52.479Z0F1200
G1 X70.931Y52.131Z0F1200
G1 X70.912Y51.787Z0F1200
G1 X70.809Y51.44Z0F1200
G1 X70.762Y51.358Z0F1200
G1 X70.743Y51.22Z0F1200
G1 X71.166Y50.918Z0F1200
G1 X71.443Y50.498Z0F1200
G1 X71.565Y50.068Z0F1200
G1 X71.585Y49.669Z0F1200
G1 X71.538Y49.298Z0F1200
G1 X71.438Y48.954Z0F1200
G1 X71.292Y48.63Z0F1200
G1 X71.028Y48.234Z0F1200
G1 X70.553Y47.952Z0F1200
G1 X70.131Y47.855Z0F1200
G1 X69.794Y47.85Z0F1200
G1 X69.397Y47.879Z0F1200
G1 X69.39Z0F1200
G1 X69.255Y47.786Z0F1200
G1 X68.834Y47.651Z0F1200
G1 X68.627Y47.64Z0F1200
G1 X68.712Y47.496Z0F1200
G1 X68.865Y47.12Z0F1200
G1 X68.943Y47.104Z0F1200
G1 X69.211Y46.989Z0F1200
G1 X69.442Y46.863Z0F1200
G1 X69.922Y46.988Z0F1200
G1 X70.546Y47.076Z0F1200
G1 X71.153Y47.111Z0F1200
G1 X71.676Z0F1200
G1 X72.218Y47.165Z0F1200
G1 X72.832Y47.258Z0F1200
G1 X73.196Y47.293Z0F1200
G1 X73.592Y47.298Z0F1200
G1 X74.02Y47.251Z0F1200
G1 X74.288Y47.18Z0F1200
G1 X74.842Y47.167Z0F1200
G1 X75.455Y47.226Z0F1200
G1 X75.712Y47.279Z0F1200
G1 X75.983Y47.359Z0F1200
G1 X76.233Y47.458Z0F1200
G1 X76.69Y47.695Z0F1200
G0 Z4.8F500
G0 X79.497Y49.249Z4.8F1500
G1 Z0F500
G1 X79.346Y49.399Z0F1200
G1 X79.321Y49.539Z0F1200
G1 Y49.662Z0F1200
G1 X79.347Y49.769Z0F1200
G1 X79.393Y49.861Z0F1200
G1 X79.538Y50.005Z0F1200
G1 X79.737Y50.103Z0F1200
G1 X80.219Y50.19Z0F1200
G1 X80.677Y50.187Z0F1200
G1 X81.091Z0F1200
G1 X81.532Y50.173Z0F1200
G1 X81.732Y50.128Z0F1200
G1 X81.903Y50.041Z0F1200
G1 X82.033Y49.899Z0F1200
G1 X82.108Y49.69Z0F1200
G1 X82.25Y49.543Z0F1200
G1 X82.385Y49.447Z0F1200
G1 X82.514Y49.396Z0F1200
G1 X82.638Y49.385Z0F1200
G1 X82.874Y49.458Z0F1200
G1 X83.102Y49.618Z0F1200
G1 X83.328Y49.822Z0F1200
G1 X83.56Y50.022Z0F1200
G1 X83.806Y50.173Z0F1200
G1 X84.074Y50.229Z0F1200
G1 X84.424Y50.166Z0F1200
G1 X84.796Y50.107Z0F1200
G1 X84.972Y50.062Z0F1200
G1 X85.132Y49.998Z0F1200
G1 X85.267Y49.907Z0F1200
G1 X85.372Y49.782Z0F1200
G1 X85.031Y49.528Z0F1200
G1 X84.649Y49.299Z0F1200
G1 X84.274Y49.051Z0F1200
G1 X83.955Y48.739Z0F1200
G1 X83.767Y48.664Z0F1200
G1 X83.581Y48.625Z0F1200
G1 X83.396Y48.617Z0F1200
G1 X83.214Y48.635Z0F1200
G1 X82.853Y48.732Z0F1200
G1 X82.494Y48.878Z0F1200
G1 X82.133Y49.036Z0F1200
G1 X81.77Y49.167Z0F1200
G1 X81.585Y49.212Z0F1200
G1 X81.398Y49.235Z0F1200
G1 X81.209Z0F1200
G1 X81.018Y49.202Z0F1200
G1 X80.591Z0F1200
G1 X80.122Y49.147Z0F1200
G1 X79.894Y49.139Z0F1200
G1 X79.682Y49.167Z0F1200
G1 X79.497Y49.249Z0F1200
G0 Z4.8F500
G0 X69.569Y53.172Z4.8F1500
G1 Z0F500
G1 X69.666Y52.985Z0F1200
G1 X69.699Y52.75Z0F1200
G1 X69.887Y52.501Z0F1200
G1 X70.005Y52.228Z0F1200
G1 X70.027Y52.086Z0F1200
G1 X70.019Y51.942Z0F1200
G1 X69.976Y51.797Z0F1200
G1 X69.894Y51.654Z0F1200
G1 X69.842Y51.271Z0F1200
G1 X69.835Y50.851Z0F1200
G1 X69.879Y50.666Z0F1200
G1 X69.97Y50.52Z0F1200
G1 X70.119Y50.427Z0F1200
G1 X70.339Y50.403Z0F1200
G1 X70.507Y50.283Z0F1200
G1 X70.616Y50.118Z0F1200
G1 X70.672Y49.921Z0F1200
G1 X70.683Y49.705Z0F1200
G1 X70.654Y49.481Z0F1200
G1 X70.591Y49.265Z0F1200
G1 X70.502Y49.068Z0F1200
G1 X70.393Y48.903Z0F1200
G1 X70.214Y48.797Z0F1200
G1 X70.022Y48.753Z0F1200
G1 X69.82Y48.75Z0F1200
G1 X69.411Y48.781Z0F1200
G1 X69.212Y48.772Z0F1200
G1 X69.025Y48.72Z0F1200
G1 X68.854Y48.603Z0F1200
G1 X68.669Y48.543Z0F1200
G1 X68.451Y48.531Z0F1200
G1 X67.996Y48.555Z0F1200
G1 X67.799Y48.543Z0F1200
G1 X67.65Y48.485Z0F1200
G1 X67.601Y48.43Z0F1200
G1 X67.57Y48.355Z0F1200
G1 X67.562Y48.256Z0F1200
G1 X67.578Y48.131Z0F1200
G1 X67.551Y47.932Z0F1200
G1 X67.574Y47.75Z0F1200
G1 X67.632Y47.579Z0F1200
G1 X67.715Y47.416Z0F1200
G1 X67.903Y47.096Z0F1200
G1 X68.041Y46.757Z0F1200
G1 X68.019Y46.509Z0F1200
G1 X68.006Y46.304Z0F1200
G1 X68.029Y46.235Z0F1200
G1 X68.087Y46.2Z0F1200
G1 X68.191Y46.204Z0F1200
G1 X68.35Y46.256Z0F1200
G1 X68.52Y46.271Z0F1200
G1 X68.673Y46.241Z0F1200
G1 X68.817Y46.179Z0F1200
G1 X69.097Y46.026Z0F1200
G1 X69.244Y45.969Z0F1200
G1 X69.403Y45.944Z0F1200
G1 X69.581Y45.969Z0F1200
G1 X70.099Y46.104Z0F1200
G1 X70.635Y46.18Z0F1200
G1 X71.179Y46.211Z0F1200
G1 X71.722Z0F1200
G1 X72.334Y46.272Z0F1200
G1 X72.942Y46.364Z0F1200
G1 X73.246Y46.394Z0F1200
G1 X73.549Y46.397Z0F1200
G1 X73.854Y46.364Z0F1200
G1 X74.16Y46.283Z0F1200
G1 X74.874Y46.265Z0F1200
G1 X75.587Y46.334Z0F1200
G1 X75.936Y46.407Z0F1200
G1 X76.277Y46.507Z0F1200
G1 X76.606Y46.638Z0F1200
G1 X76.922Y46.802Z0F1200
G1 X77.684Y46.824Z0F1200
G1 X78.455Y46.811Z0F1200
G1 X78.838Y46.781Z0F1200
G1 X79.217Y46.73Z0F1200
G1 X79.589Y46.655Z0F1200
G1 X79.953Y46.552Z0F1200
G1 X80.083Y46.373Z0F1200
G1 X80.254Y46.271Z0F1200
G1 X80.455Y46.227Z0F1200
G1 X80.676Y46.222Z0F1200
G1 X81.142Y46.259Z0F1200
G1 X81.574Y46.232Z0F1200
G1 X81.838Y46.172Z0F1200
G1 X82.087Y46.063Z0F1200
G1 X82.328Y45.927Z0F1200
G1 X82.566Y45.784Z0F1200
G1 X82.808Y45.656Z0F1200
G1 X83.059Y45.564Z0F1200
G1 X83.326Y45.532Z0F1200
G1 X83.614Y45.579Z0F1200
G1 X84.118Y46.017Z0F1200
G1 X84.591Y46.492Z0F1200
G1 X84.838Y46.714Z0F1200
G1 X85.104Y46.91Z0F1200
G1 X85.397Y47.068Z0F1200
G1 X85.728Y47.175Z0F1200
G1 X85.948Y47.36Z0F1200
G1 X86.082Y47.588Z0F1200
G1 X86.148Y47.85Z0F1200
G1 X86.165Y48.133Z0F1200
G1 X86.119Y48.723Z0F1200
G1 X86.088Y49.27Z0F1200
G1 X86.017Y49.61Z0F1200
G1 X85.94Y49.943Z0F1200
G1 X85.923Y50.11Z0F1200
G1 X85.932Y50.277Z0F1200
G1 X85.976Y50.446Z0F1200
G1 X86.062Y50.617Z0F1200
G1 X86.128Y51.427Z0F1200
G1 X86.159Y52.239Z0F1200
G1 X86.165Y53.053Z0F1200
G1 X86.155Y53.868Z0F1200
G1 X86.126Y55.499Z0F1200
G1 X86.152Y57.126Z0F1200
G1 X86.149Y58.504Z0F1200
G1 X86.155Y59.885Z0F1200
G1 X86.135Y61.263Z0F1200
G1 X86.054Y62.632Z0F1200
G1 X85.85Y62.741Z0F1200
G1 X85.692Y62.891Z0F1200
G1 X85.573Y63.074Z0F1200
G1 X85.486Y63.281Z0F1200
G1 X85.373Y63.351Z0F1200
G1 X85.266Y63.39Z0F1200
G1 X85.164Y63.4Z0F1200
G1 X85.068Y63.386Z0F1200
G1 X84.889Y63.297Z0F1200
G1 X84.726Y63.149Z0F1200
G1 X84.432Y62.788Z0F1200
G1 X84.157Y62.518Z0F1200
G1 X83.984Y62.719Z0F1200
G1 X83.84Y62.972Z0F1200
G1 X83.572Y63.543Z0F1200
G1 X83.417Y63.816Z0F1200
G1 X83.225Y64.048Z0F1200
G1 X83.111Y64.142Z0F1200
G1 X82.981Y64.217Z0F1200
G1 X82.835Y64.271Z0F1200
G1 X82.67Y64.3Z0F1200
G1 X82.052Y64.371Z0F1200
G1 X81.414Y64.357Z0F1200
G1 X81.121Y64.283Z0F1200
G1 X80.861Y64.146Z0F1200
G1 X80.749Y64.049Z0F1200
G1 X80.65Y63.931Z0F1200
G1 X80.566Y63.791Z0F1200
G1 X80.5Y63.625Z0F1200
G1 X80.28Y63.18Z0F1200
G1 X80.029Y62.689Z0F1200
G1 X79.953Y62.445Z0F1200
G1 X79.945Y62.211Z0F1200
G1 X79.974Y62.101Z0F1200
G1 X80.029Y61.995Z0F1200
G1 X80.113Y61.896Z0F1200
G1 X80.33Y61.728Z0F1200
G1 X80.39Y61.655Z0F1200
G1 X80.416Y61.585Z0F1200
G1 X80.413Y61.518Z0F1200
G1 X80.339Y61.388Z0F1200
G1 X80.209Y61.257Z0F1200
G1 X80.064Y61.119Z0F1200
G1 X79.943Y60.968Z0F1200
G1 X79.906Y60.885Z0F1200
G1 X79.889Y60.796Z0F1200
G1 X79.899Y60.701Z0F1200
G1 X79.941Y60.598Z0F1200
G1 X79.973Y60.478Z0F1200
G1 X79.968Y60.363Z0F1200
G1 X79.933Y60.262Z0F1200
G1 X79.873Y60.183Z0F1200
G1 X79.795Y60.135Z0F1200
G1 X79.704Y60.125Z0F1200
G1 X79.606Y60.163Z0F1200
G1 X79.507Y60.257Z0F1200
G1 X79.241Y60.5Z0F1200
G1 X78.949Y60.7Z0F1200
G1 X78.792Y60.771Z0F1200
G1 X78.627Y60.814Z0F1200
G1 X78.454Y60.827Z0F1200
G1 X78.271Y60.803Z0F1200
G1 X78.208Y60.884Z0F1200
G1 X78.176Y60.962Z0F1200
G1 X78.172Y61.041Z0F1200
G1 X78.191Y61.118Z0F1200
G1 X78.28Y61.271Z0F1200
G1 X78.543Y61.587Z0F1200
G1 X78.647Y61.755Z0F1200
G1 X78.677Y61.844Z0F1200
G1 X78.686Y61.936Z0F1200
G1 X78.669Y62.031Z0F1200
G1 X78.624Y62.13Z0F1200
G1 X78.478Y62.361Z0F1200
G1 X78.375Y62.606Z0F1200
G1 X78.313Y62.862Z0F1200
G1 X78.287Y63.124Z0F1200
G1 X78.296Y63.388Z0F1200
G1 X78.338Y63.651Z0F1200
G1 X78.411Y63.908Z0F1200
G1 X78.51Y64.155Z0F1200
G1 X78.451Y64.418Z0F1200
G1 X78.336Y64.685Z0F1200
G1 X78.177Y64.945Z0F1200
G1 X77.98Y65.189Z0F1200
G1 X77.755Y65.407Z0F1200
G1 X77.512Y65.59Z0F1200
G1 X77.259Y65.729Z0F1200
G1 X77.005Y65.812Z0F1200
G1 X76.658Y65.609Z0F1200
G1 X76.319Y65.38Z0F1200
G1 X75.977Y65.152Z0F1200
G1 X75.62Y64.956Z0F1200
G1 X75.441Y64.61Z0F1200
G1 X75.212Y64.304Z0F1200
G1 X74.934Y64.04Z0F1200
G1 X74.605Y63.824Z0F1200
G1 X74.521Y63.697Z0F1200
G1 X74.471Y63.562Z0F1200
G1 X74.452Y63.421Z0F1200
G1 X74.461Y63.282Z0F1200
G1 X74.499Y63.146Z0F1200
G1 X74.561Y63.021Z0F1200
G1 X74.646Y62.908Z0F1200
G1 X74.751Y62.814Z0F1200
G1 X74.733Y62.522Z0F1200
G1 X74.668Y62.24Z0F1200
G1 X74.573Y61.963Z0F1200
G1 X74.468Y61.689Z0F1200
G1 X74.372Y61.413Z0F1200
G1 X74.302Y61.132Z0F1200
G1 X74.28Y60.841Z0F1200
G1 X74.322Y60.538Z0F1200
G1 X74.288Y60.407Z0F1200
G1 X74.229Y60.306Z0F1200
G1 X74.147Y60.23Z0F1200
G1 X74.045Y60.178Z0F1200
G1 X73.794Y60.13Z0F1200
G1 X73.499Y60.136Z0F1200
G1 X72.861Y60.204Z0F1200
G1 X72.566Y60.214Z0F1200
G1 X72.315Y60.175Z0F1200
G1 X72.168Y60.192Z0F1200
G1 X72.032Y60.24Z0F1200
G1 X71.905Y60.314Z0F1200
G1 X71.786Y60.409Z0F1200
G1 X71.561Y60.644Z0F1200
G1 X71.344Y60.906Z0F1200
G1 X71.121Y61.157Z0F1200
G1 X70.878Y61.36Z0F1200
G1 X70.745Y61.431Z0F1200
G1 X70.601Y61.476Z0F1200
G1 X70.446Y61.489Z0F1200
G1 X70.276Y61.467Z0F1200
G1 X70.164Y61.422Z0F1200
G1 X70.06Y61.403Z0F1200
G1 X69.963Y61.409Z0F1200
G1 X69.873Y61.436Z0F1200
G1 X69.712Y61.543Z0F1200
G1 X69.572Y61.705Z0F1200
G1 X69.336Y62.104Z0F1200
G1 X69.129Y62.464Z0F1200
G1 X68.842Y63.07Z0F1200
G1 X68.749Y63.185Z0F1200
G1 X68.633Y63.248Z0F1200
G1 X68.488Y63.241Z0F1200
G1 X68.305Y63.146Z0F1200
G1 X68.019Y62.946Z0F1200
G1 X67.708Y62.82Z0F1200
G1 X67.382Y62.748Z0F1200
G1 X67.044Y62.709Z0F1200
G1 X66.703Y62.686Z0F1200
G1 X66.364Y62.658Z0F1200
G1 X66.033Y62.605Z0F1200
G1 X65.717Y62.51Z0F1200
G1 X65.463Y62.301Z0F1200
G1 X65.231Y62.071Z0F1200
G1 X65.021Y61.823Z0F1200
G1 X64.833Y61.559Z0F1200
G1 X64.519Y60.99Z0F1200
G1 X64.287Y60.38Z0F1200
G1 X64.143Y60.337Z0F1200
G1 X64.005Y60.359Z0F1200
G1 X63.873Y60.429Z0F1200
G1 X63.741Y60.525Z0F1200
G1 X63.608Y60.63Z0F1200
G1 X63.471Y60.724Z0F1200
G1 X63.327Y60.788Z0F1200
G1 X63.171Y60.803Z0F1200
G1 X62.985Y60.875Z0F1200
G1 X62.789Y60.928Z0F1200
G1 X62.589Y60.957Z0F1200
G1 X62.396Y60.952Z0F1200
G1 X62.218Y60.907Z0F1200
G1 X62.063Y60.815Z0F1200
G1 X61.939Y60.667Z0F1200
G1 X61.856Y60.457Z0F1200
G1 X61.745Y60.253Z0F1200
G1 X61.575Y60.106Z0F1200
G1 X61.378Y60.001Z0F1200
G1 X61.183Y59.927Z0F1200
G1 X61.149Y59.743Z0F1200
G1 X61.167Y59.584Z0F1200
G1 X61.229Y59.45Z0F1200
G1 X61.328Y59.341Z0F1200
G1 X61.455Y59.259Z0F1200
G1 X61.603Y59.203Z0F1200
G1 X61.764Y59.173Z0F1200
G1 X61.931Y59.17Z0F1200
G1 X62.167Y59.138Z0F1200
G1 X62.394Y59.074Z0F1200
G1 X62.604Y58.979Z0F1200
G1 X62.79Y58.853Z0F1200
G1 X62.944Y58.695Z0F1200
G1 X63.06Y58.507Z0F1200
G1 X63.129Y58.289Z0F1200
G1 X63.145Y58.039Z0F1200
G1 X63.179Y57.916Z0F1200
G1 X63.228Y57.817Z0F1200
G1 X63.288Y57.742Z0F1200
G1 X63.358Y57.688Z0F1200
G1 X63.524Y57.638Z0F1200
G1 X63.713Y57.649Z0F1200
G1 X64.111Y57.798Z0F1200
G1 X64.455Y58.014Z0F1200
G1 X64.737Y58.118Z0F1200
G1 X65.052Y58.183Z0F1200
G1 X65.38Y58.202Z0F1200
G1 X65.705Y58.17Z0F1200
G1 X66.007Y58.081Z0F1200
G1 X66.269Y57.93Z0F1200
G1 X66.379Y57.829Z0F1200
G1 X66.473Y57.71Z0F1200
G1 X66.547Y57.573Z0F1200
G1 X66.6Y57.417Z0F1200
G1 X66.268Y56.562Z0F1200
G1 X65.961Y55.695Z0F1200
G1 X65.75Y55.411Z0F1200
G1 X65.581Y55.063Z0F1200
G1 X65.553Y54.897Z0F1200
G1 X65.587Y54.755Z0F1200
G1 X65.632Y54.697Z0F1200
G1 X65.699Y54.649Z0F1200
G1 X65.789Y54.615Z0F1200
G1 X65.904Y54.594Z0F1200
G1 X66.35Y54.497Z0F1200
G1 X66.801Y54.379Z0F1200
G1 X67.009Y54.291Z0F1200
G1 X67.193Y54.172Z0F1200
G1 X67.345Y54.014Z0F1200
G1 X67.458Y53.808Z0F1200
G1 X67.711Y53.786Z0F1200
G1 X67.954Y53.724Z0F1200
G1 X68.171Y53.614Z0F1200
G1 X68.351Y53.45Z0F1200
G1 X68.564Y53.489Z0F1200
G1 X68.791Y53.498Z0F1200
G1 X69.018Y53.474Z0F1200
G1 X69.232Y53.413Z0F1200
G1 X69.42Y53.313Z0F1200
G1 X69.569Y53.172Z0F1200
G0 Z4.8F500
G0 X40.349Y54.566Z4.8F1500
G1 Z0F500
G1 X40.704Y54.833Z0F1200
G1 X41.03Y55.407Z0F1200
G1 X41.381Y55.798Z0F1200
G1 X40.624Y55.679Z0F1200
G1 X40.127Y54.28Z0F1200
G1 X40.349Y54.566Z0F1200
G0 Z4.8F500
G0 X39.212Y52.862Z4.8F1500
G1 Z0F500
G1 X38.421Y52.087Z0F1200
G1 X38.215Y51.991Z0F1200
G1 X38.09Y51.725Z0F1200
G1 X37.79Y50.796Z0F1200
G1 X38.14Z0F1200
G1 X38.833Y50.856Z0F1200
G1 X38.77Y51.241Z0F1200
G1 X39.212Y52.862Z0F1200
G0 Z4.8F500
G0 X39.708Y55.79Z4.8F1500
G1 Z0F500
G1 X39.064Y53.978Z0F1200
G1 X37.901Y52.837Z0F1200
G1 X37.563Y52.68Z0F1200
G1 X37.413Y52.4Z0F1200
G1 X37.251Y52.057Z0F1200
G1 X36.802Y50.666Z0F1200
G1 X36.32Y50.243Z0F1200
G1 X36.744Y50.197Z0F1200
G1 X36.882Y50.014Z0F1200
G1 X37.012Y50.006Z0F1200
G1 X37.537Y49.908Z0F1200
G1 X37.663Y49.896Z0F1200
G1 X38.179Z0F1200
G1 X38.92Y49.96Z0F1200
G1 X39.522Y49.995Z0F1200
G1 X39.752Y49.992Z0F1200
G1 X39.806Y50.482Z0F1200
G1 X39.689Y51.192Z0F1200
G1 X40.135Y52.825Z0F1200
G1 X40.986Y53.92Z0F1200
G1 X41.394Y54.227Z0F1200
G1 X41.764Y54.878Z0F1200
G1 X42.52Y55.718Z0F1200
G1 X42.737Y55.871Z0F1200
G1 X42.693Y55.899Z0F1200
G1 X42.124Y56.329Z0F1200
G1 X41.768Y56.789Z0F1200
G1 X41.714Y56.762Z0F1200
G1 X40.38Y56.552Z0F1200
G1 X39.585Y56.665Z0F1200
G1 X39.708Y55.79Z0F1200
G0 Z4.8F500
G0 X18.729Y54.489Z4.8F1500
G1 Z0F500
G1 X18.658Y54.801Z0F1200
G1 X18.831Y55.703Z0F1200
G1 X18.531Y56.034Z0F1200
G1 X18.247Y56.552Z0F1200
G1 X18.067Y56.863Z0F1200
G1 Y55.607Z0F1200
G1 X18.075Y55.002Z0F1200
G1 X18.438Y54.671Z0F1200
G1 X18.729Y54.489Z0F1200
G0 Z4.8F500
G0 X19.909Y53.375Z4.8F1500
G1 Z0F500
G1 X19.578Y54.817Z0F1200
G1 X19.771Y55.825Z0F1200
G1 X19.824Y55.952Z0F1200
G1 X19.815Y55.958Z0F1200
G1 X19.269Y56.56Z0F1200
G1 X19.029Y56.998Z0F1200
G1 X18.833Y57.337Z0F1200
G1 X18.621Y57.975Z0F1200
G1 X18.543Y58.609Z0F1200
G1 X18.582Y59.243Z0F1200
G1 X18.668Y59.569Z0F1200
G1 X17.227Y59.645Z0F1200
G1 X17.23Y59.353Z0F1200
G1 X17.186Y58.742Z0F1200
G1 X17.168Y57.225Z0F1200
G1 Y55.588Z0F1200
G1 X17.182Y54.496Z0F1200
G1 X17.408Y54.393Z0F1200
G1 X17.948Y53.9Z0F1200
G1 X18.021Y53.871Z0F1200
G1 X18.728Y53.431Z0F1200
G1 X19.558Y52.419Z0F1200
G1 X19.686Y51.638Z0F1200
G1 X21.151Y52.014Z0F1200
G1 X21.431Y51.786Z0F1200
G1 X19.909Y53.375Z0F1200
G0 Z4.8F500
G0 X27.997Y50.246Z4.8F1500
G1 Z0F500
G1 X28.152Y50.26Z0F1200
G1 X28.107Y50.319Z0F1200
G1 X27.997Y50.246Z0F1200
G0 Z4.8F500
G0 X26.937Y49.651Z4.8F1500
G1 Z0F500
G1 X27.598Y49.282Z0F1200
G1 X27.919Y49.335Z0F1200
G1 X28.803Y49.415Z0F1200
G1 X29.721Y49.42Z0F1200
G1 X30.344Y49.361Z0F1200
G1 X31.229Y49.392Z0F1200
G1 X32.318Y49.488Z0F1200
G1 X32.959Y49.535Z0F1200
G1 X33.66Y49.561Z0F1200
G1 X34.42Y49.542Z0F1200
G1 X36.26Y49.344Z0F1200
G1 X36.413Y49.14Z0F1200
G1 X36.901Y49.111Z0F1200
G1 X37.418Y49.015Z0F1200
G1 X37.62Y48.997Z0F1200
G1 X38.217Z0F1200
G1 X38.986Y49.063Z0F1200
G1 X39.542Y49.094Z0F1200
G1 X40.207Y49.087Z0F1200
G1 X40.458Y49.056Z0F1200
G1 X40.527Y49.088Z0F1200
G1 X40.678Y49.267Z0F1200
G1 X40.652Y49.423Z0F1200
G1 X40.662Y49.549Z0F1200
G1 X40.629Y49.734Z0F1200
G1 X40.713Y50.502Z0F1200
G1 Y50.505Z0F1200
G1 X40.609Y51.145Z0F1200
G1 X40.956Y52.415Z0F1200
G1 X41.624Y53.273Z0F1200
G1 X42.084Y53.621Z0F1200
G1 X42.499Y54.349Z0F1200
G1 X43.121Y55.041Z0F1200
G1 X43.934Y55.611Z0F1200
G1 X44.302Y55.744Z0F1200
G1 Y56.024Z0F1200
G1 X43.781Y56.256Z0F1200
G1 X43.214Y56.634Z0F1200
G1 X42.762Y56.975Z0F1200
G1 X42.23Y57.663Z0F1200
G1 X42.111Y57.975Z0F1200
G1 X41.433Y57.628Z0F1200
G1 X40.374Y57.462Z0F1200
G1 X39.564Y57.576Z0F1200
G1 X38.915Y57.819Z0F1200
G1 X38.897Y57.809Z0F1200
G1 X38.495Y57.87Z0F1200
G1 X38.573Y57.396Z0F1200
G1 X38.786Y55.883Z0F1200
G1 X38.285Y54.475Z0F1200
G1 X37.382Y53.588Z0F1200
G1 X36.911Y53.369Z0F1200
G1 X36.61Y52.808Z0F1200
G1 X36.413Y52.388Z0F1200
G1 X36.022Y51.179Z0F1200
G1 X34.901Y50.194Z0F1200
G1 X33.906Y49.771Z0F1200
G1 X33.029Y49.643Z0F1200
G1 X32.309Y49.663Z0F1200
G1 X31.504Y49.788Z0F1200
G1 X30.983Y49.859Z0F1200
G1 X30.656Y49.892Z0F1200
G1 X30.063Y50.057Z0F1200
G1 X29.461Y50.348Z0F1200
G1 X28.855Y50.821Z0F1200
G1 X28.313Y51.536Z0F1200
G1 X28.167Y51.947Z0F1200
G1 X27.478Y50.982Z0F1200
G1 X26.559Y50.378Z0F1200
G1 X25.693Y50.117Z0F1200
G1 X24.908Y50.059Z0F1200
G1 X24.153Y50.151Z0F1200
G1 X23.38Y50.409Z0F1200
G1 X22.223Y51.143Z0F1200
G1 X22.568Y50.863Z0F1200
G1 X23.094Y50.14Z0F1200
G1 X23.102Y50.115Z0F1200
G1 X23.335Y50.128Z0F1200
G1 X23.722Y50.08Z0F1200
G1 X24.235Y50.045Z0F1200
G1 X24.94Z0F1200
G1 X25.504Y50.007Z0F1200
G1 X26.171Y49.897Z0F1200
G1 X26.937Y49.651Z0F1200
G0 Z4.8F500
G0 X29.682Y48.52Z4.8F1500
G1 Z0F500
G1 X30.316Y48.46Z0F1200
G1 X31.284Y48.494Z0F1200
G1 X32.391Y48.591Z0F1200
G1 X33.008Y48.637Z0F1200
G1 X33.666Y48.66Z0F1200
G1 X34.361Y48.644Z0F1200
G1 X35.775Y48.491Z0F1200
G1 X35.989Y48.207Z0F1200
G1 X36.265Y48.248Z0F1200
G1 X36.792Y48.216Z0F1200
G1 X37.29Y48.123Z0F1200
G1 X37.588Y48.096Z0F1200
G1 X38.256Z0F1200
G1 X39.051Y48.165Z0F1200
G1 X39.563Y48.194Z0F1200
G1 X40.146Y48.188Z0F1200
G1 X40.676Y48.122Z0F1200
G1 X40.803Y48.222Z0F1200
G1 X41.183Y48.405Z0F1200
G1 X41.272Y48.576Z0F1200
G1 X41.629Y48.997Z0F1200
G1 X41.636Y49.002Z0F1200
G1 X41.558Y49.461Z0F1200
G1 X41.569Y49.594Z0F1200
G1 X41.538Y49.766Z0F1200
G1 X41.599Y50.325Z0F1200
G1 X41.635Y50.448Z0F1200
G1 X41.529Y51.097Z0F1200
G1 X41.776Y52.004Z0F1200
G1 X42.26Y52.626Z0F1200
G1 X42.742Y52.989Z0F1200
G1 X42.825Y53.031Z0F1200
G1 X42.874Y53.188Z0F1200
G1 X43.232Y53.819Z0F1200
G1 X43.721Y54.363Z0F1200
G1 X44.352Y54.805Z0F1200
G1 X45.071Y55.063Z0F1200
G1 X45.317Y55.092Z0F1200
G1 X45.204Y55.551Z0F1200
G1 X45.2Y56.2Z0F1200
G1 X45.335Y56.645Z0F1200
G1 X44.926Y56.73Z0F1200
G1 X44.218Y57.047Z0F1200
G1 X43.734Y57.369Z0F1200
G1 X43.4Y57.621Z0F1200
G1 X43.024Y58.108Z0F1200
G1 X42.856Y58.548Z0F1200
G1 X42.791Y58.601Z0F1200
G1 X42.434Y59.036Z0F1200
G1 X42.324Y59.268Z0F1200
G1 X41.826Y58.84Z0F1200
G1 X41.151Y58.495Z0F1200
G1 X40.366Y58.372Z0F1200
G1 X39.788Y58.454Z0F1200
G1 X39.299Y58.637Z0F1200
G1 X38.931Y58.879Z0F1200
G1 X38.712Y58.748Z0F1200
G1 X37.885Y58.874Z0F1200
G1 X37.719Y58.679Z0F1200
G1 X37.504Y58.502Z0F1200
G1 X37.51Y58.4Z0F1200
G1 X37.549Y58.078Z0F1200
G1 X37.683Y57.26Z0F1200
G1 X37.864Y55.976Z0F1200
G1 X37.507Y54.972Z0F1200
G1 X36.862Y54.339Z0F1200
G1 X36.279Y54.068Z0F1200
G1 X36.251Y54.06Z0F1200
G1 X36.128Y53.813Z0F1200
G1 X35.8Y53.201Z0F1200
G1 X35.574Y52.721Z0F1200
G1 X35.242Y51.691Z0F1200
G1 X34.415Y50.965Z0F1200
G1 X33.661Y50.644Z0F1200
G1 X32.977Y50.545Z0F1200
G1 X32.39Y50.561Z0F1200
G1 X31.636Y50.678Z0F1200
G1 X31.084Y50.753Z0F1200
G1 X30.822Y50.779Z0F1200
G1 X30.382Y50.902Z0F1200
G1 X29.939Y51.116Z0F1200
G1 X29.501Y51.458Z0F1200
G1 X29.115Y51.968Z0F1200
G1 X28.878Y52.639Z0F1200
G1 X28.875Y53.366Z0F1200
G1 X28.935Y53.549Z0F1200
G1 X28.946Y53.896Z0F1200
G1 X28.974Y54.591Z0F1200
G1 X29.042Y55.08Z0F1200
G1 X29.183Y55.605Z0F1200
G1 X29.167Y55.626Z0F1200
G1 X28.876Y56.233Z0F1200
G1 X28.785Y56.837Z0F1200
G1 X28.853Y57.431Z0F1200
G1 X29.009Y57.81Z0F1200
G1 X28.869Y57.967Z0F1200
G1 X28.595Y58.479Z0F1200
G1 X28.357Y58.226Z0F1200
G1 X28.387Y57.979Z0F1200
G1 X28.26Y57.281Z0F1200
G1 X27.986Y56.702Z0F1200
G1 X27.634Y56.251Z0F1200
G1 X27.397Y56.042Z0F1200
G1 X27.864Y55.902Z0F1200
G1 X28.12Y54.237Z0F1200
G1 X27.904Y53.47Z0F1200
G1 X27.617Y53.012Z0F1200
G1 X27.47Y52.835Z0F1200
G1 X27.378Y52.39Z0F1200
G1 X26.844Y51.643Z0F1200
G1 X26.174Y51.202Z0F1200
G1 X25.527Y51.007Z0F1200
G1 X24.93Y50.963Z0F1200
G1 X24.352Y51.034Z0F1200
G1 X23.769Y51.228Z0F1200
G1 X22.47Y52.052Z0F1200
G1 X22.519Y52.5Z0F1200
G1 X22.402Y52.639Z0F1200
G1 X21.989Y52.505Z0F1200
G1 X20.73Y53.819Z0F1200
G1 X20.497Y54.834Z0F1200
G1 X20.638Y55.565Z0F1200
G1 X20.81Y55.98Z0F1200
G1 X20.831Y56.023Z0F1200
G1 X20.814Y56.099Z0F1200
G1 X20.838Y56.337Z0F1200
G1 X20.416Y56.636Z0F1200
G1 X20.007Y57.086Z0F1200
G1 X19.819Y57.429Z0F1200
G1 X19.659Y57.708Z0F1200
G1 X19.503Y58.174Z0F1200
G1 X19.447Y58.637Z0F1200
G1 X19.475Y59.1Z0F1200
G1 X19.619Y59.643Z0F1200
G1 X19.787Y60.035Z0F1200
G1 X19.823Y60.113Z0F1200
G1 X19.723Y60.356Z0F1200
G1 X19.702Y60.416Z0F1200
G1 X18.029Y60.504Z0F1200
G1 X17.787Y62.552Z0F1200
G1 X17.44Y62.626Z0F1200
G1 X16.96Y62.788Z0F1200
G1 X16.528Y63.024Z0F1200
G1 X16.421Y62.911Z0F1200
G1 X16.283Y62.723Z0F1200
G1 X16.255Y62.614Z0F1200
G1 X16.214Y62.256Z0F1200
G1 X16.209Y61.821Z0F1200
G1 X16.235Y61.306Z0F1200
G1 X16.279Y60.729Z0F1200
G1 X16.32Y60.086Z0F1200
G1 X16.33Y59.379Z0F1200
G1 X16.287Y58.778Z0F1200
G1 X16.268Y57.206Z0F1200
G1 Y55.616Z0F1200
G1 X16.29Y53.993Z0F1200
G1 Y53.913Z0F1200
G1 X16.906Y53.633Z0F1200
G1 X17.46Y53.127Z0F1200
G1 X17.61Y53.066Z0F1200
G1 X18.126Y52.745Z0F1200
G1 X18.709Y52.035Z0F1200
G1 X18.881Y50.979Z0F1200
G1 X18.848Y50.88Z0F1200
G1 X19.063Y50.609Z0F1200
G1 X19.396Y50.658Z0F1200
G1 X19.715Y50.716Z0F1200
G1 X20.936Y51.029Z0F1200
G1 X21.91Y50.238Z0F1200
G1 X22.278Y49.732Z0F1200
G1 X22.465Y49.125Z0F1200
G1 X22.788Y49.196Z0F1200
G1 X23.304Y49.225Z0F1200
G1 X23.635Y49.184Z0F1200
G1 X24.209Y49.146Z0F1200
G1 X24.91Y49.143Z0F1200
G1 X25.402Y49.112Z0F1200
G1 X25.959Y49.02Z0F1200
G1 X26.576Y48.822Z0F1200
G1 X27.434Y48.343Z0F1200
G1 X28.033Y48.442Z0F1200
G1 X28.846Y48.515Z0F1200
G1 X29.682Y48.52Z0F1200
G0 Z4.8F500
G0 X33.671Y47.76Z4.8F1500
G1 Z0F500
G1 X34.302Y47.745Z0F1200
G1 X35.291Y47.638Z0F1200
G1 X35.643Y47.169Z0F1200
G1 X35.855Y47.276Z0F1200
G1 X36.304Y47.343Z0F1200
G1 X36.681Y47.321Z0F1200
G1 X37.167Y47.23Z0F1200
G1 X37.545Y47.196Z0F1200
G1 X38.294Z0F1200
G1 X39.116Y47.267Z0F1200
G1 X39.584Y47.294Z0F1200
G1 X40.084Y47.288Z0F1200
G1 X40.613Y47.222Z0F1200
G1 X40.925Y47.134Z0F1200
G1 X40.991Y47.223Z0F1200
G1 X41.283Y47.455Z0F1200
G1 X41.581Y47.598Z0F1200
G1 X41.84Y47.674Z0F1200
G1 X41.859Y47.756Z0F1200
G1 X42.023Y48.07Z0F1200
G1 X42.247Y48.334Z0F1200
G1 X42.523Y48.537Z0F1200
G1 X42.533Y48.552Z0F1200
G1 X42.689Y48.772Z0F1200
G1 X42.693Y48.779Z0F1200
G1 X42.619Y48.916Z0F1200
G1 X42.52Y49.171Z0F1200
G1 X42.464Y49.5Z0F1200
G1 X42.476Y49.637Z0F1200
G1 X42.447Y49.797Z0F1200
G1 X42.485Y50.148Z0F1200
G1 X42.556Y50.392Z0F1200
G1 X42.566Y50.419Z0F1200
G1 X42.547Y50.45Z0F1200
G1 X42.449Y51.048Z0F1200
G1 X42.598Y51.594Z0F1200
G1 X42.897Y51.979Z0F1200
G1 X43.22Y52.222Z0F1200
G1 X43.572Y52.4Z0F1200
G1 X43.705Y52.829Z0F1200
G1 X43.967Y53.29Z0F1200
G1 X44.322Y53.685Z0F1200
G1 X44.77Y53.999Z0F1200
G1 X45.278Y54.182Z0F1200
G1 X45.611Y54.22Z0F1200
G1 X45.924Y54.205Z0F1200
G1 X46.237Y54.132Z0F1200
G1 X46.349Y54.085Z0F1200
G1 X46.353Z0F1200
G1 X46.301Y54.32Z0F1200
G1 Y54.753Z0F1200
G1 X46.35Y54.93Z0F1200
G1 Y54.94Z0F1200
G1 X46.271Y55.124Z0F1200
G1 X46.182Y55.342Z0F1200
G1 X46.103Y55.663Z0F1200
G1 Y56.068Z0F1200
G1 X46.242Y56.532Z0F1200
G1 X46.809Y57.251Z0F1200
G1 X47.029Y57.467Z0F1200
G1 X47.316Y57.667Z0F1200
G1 X47.531Y57.754Z0F1200
G1 X47.417Y57.758Z0F1200
G1 X46.797Y57.783Z0F1200
G1 X46.598Y57.769Z0F1200
G1 X46.588Y57.757Z0F1200
G1 X46.08Y57.528Z0F1200
G1 X45.609Y57.507Z0F1200
G1 X45.205Y57.592Z0F1200
G1 X44.654Y57.838Z0F1200
G1 X44.255Y58.104Z0F1200
G1 X44.039Y58.267Z0F1200
G1 X43.817Y58.553Z0F1200
G1 X43.688Y58.891Z0F1200
G1 X43.676Y59.041Z0F1200
G1 X43.429Y59.242Z0F1200
G1 X43.201Y59.521Z0F1200
G1 X43.034Y59.873Z0F1200
G1 X42.987Y60.112Z0F1200
G1 X42.928Y60.294Z0F1200
G1 X42.839Y60.446Z0F1200
G1 X42.666Y60.688Z0F1200
G1 X42.384Y61.113Z0F1200
G1 Y61.117Z0F1200
G1 X42.301Y60.92Z0F1200
G1 X42.188Y60.794Z0F1200
G1 X42.162Y60.677Z0F1200
G1 X41.956Y60.259Z0F1200
G1 X41.676Y59.898Z0F1200
G1 X41.321Y59.593Z0F1200
G1 X40.87Y59.362Z0F1200
G1 X40.359Y59.282Z0F1200
G1 X40.011Y59.331Z0F1200
G1 X39.709Y59.444Z0F1200
G1 X39.439Y59.622Z0F1200
G1 X39.34Y59.721Z0F1200
G1 X39.144Y59.847Z0F1200
G1 X38.942Y59.918Z0F1200
G1 X38.933Z0F1200
G1 X38.918Z0F1200
G1 X38.91Y59.915Z0F1200
G1 X38.527Y59.686Z0F1200
G1 X37.736Y59.807Z0F1200
G1 X37.535Y59.891Z0F1200
G1 X37.463Y59.766Z0F1200
G1 X37.085Y59.323Z0F1200
G1 X36.643Y58.958Z0F1200
G1 X36.599Y58.934Z0F1200
G1 X36.592Y58.67Z0F1200
G1 X36.613Y58.319Z0F1200
G1 X36.658Y57.95Z0F1200
G1 X36.793Y57.125Z0F1200
G1 X36.942Y56.069Z0F1200
G1 X36.729Y55.469Z0F1200
G1 X36.342Y55.09Z0F1200
G1 X35.966Y54.916Z0F1200
G1 X35.625Y54.821Z0F1200
G1 X35.328Y54.227Z0F1200
G1 X35.003Y53.62Z0F1200
G1 X34.735Y53.052Z0F1200
G1 X34.461Y52.204Z0F1200
G1 X33.93Y51.737Z0F1200
G1 X33.417Y51.518Z0F1200
G1 X32.924Y51.447Z0F1200
G1 X32.472Y51.459Z0F1200
G1 X31.772Y51.568Z0F1200
G1 X31.196Y51.646Z0F1200
G1 X30.989Y51.667Z0F1200
G1 X30.701Y51.748Z0F1200
G1 X30.418Y51.884Z0F1200
G1 X30.148Y52.096Z0F1200
G1 X29.917Y52.4Z0F1200
G1 X29.777Y52.794Z0F1200
G1 Y53.225Z0F1200
G1 X29.83Y53.391Z0F1200
G1 X29.846Y53.862Z0F1200
G1 X29.872Y54.51Z0F1200
G1 X29.926Y54.901Z0F1200
G1 X30.035Y55.307Z0F1200
G1 X30.221Y55.721Z0F1200
G1 X30.226Y55.728Z0F1200
G1 X30.152Y55.817Z0F1200
G1 X29.938Y56.098Z0F1200
G1 X29.747Y56.5Z0F1200
G1 X29.693Y56.854Z0F1200
G1 X29.733Y57.204Z0F1200
G1 X29.866Y57.528Z0F1200
G1 X30.094Y57.844Z0F1200
G1 X30.106Y57.873Z0F1200
G1 X30.111Y57.9Z0F1200
G1 Y57.931Z0F1200
G1 X30.1Y57.972Z0F1200
G1 X30.083Y58.005Z0F1200
G1 X30.057Y58.039Z0F1200
G1 X29.891Y58.175Z0F1200
G1 X29.611Y58.487Z0F1200
G1 X29.403Y58.875Z0F1200
G1 X29.294Y59.283Z0F1200
G1 X29.272Y59.69Z0F1200
G1 X29.33Y60.082Z0F1200
G1 X29.454Y60.45Z0F1200
G1 X29.617Y60.749Z0F1200
G1 X29.384Y60.857Z0F1200
G1 X29.103Y61.087Z0F1200
G1 X28.82Y61.493Z0F1200
G1 X28.781Y61.594Z0F1200
G1 X28.7Y61.652Z0F1200
G1 X28.327Y61.945Z0F1200
G1 X28.075Y62.259Z0F1200
G1 X28.052Y62.32Z0F1200
G1 X28.026Y62.272Z0F1200
G1 X27.983Y62.148Z0F1200
G1 X27.963Y62.045Z0F1200
G1 Y62.002Z0F1200
G1 X28.108Y61.8Z0F1200
G1 X28.234Y61.294Z0F1200
G1 X28.219Y60.874Z0F1200
G1 X28.162Y60.564Z0F1200
G1 X28.118Y60.35Z0F1200
G1 X28.106Y60.258Z0F1200
G1 X28.316Y59.785Z0F1200
G1 X27.954Y59.11Z0F1200
G1 X27.686Y58.826Z0F1200
G1 X27.461Y58.643Z0F1200
G1 X27.377Y58.576Z0F1200
G1 X27.419Y58.482Z0F1200
G1 X27.478Y58.006Z0F1200
G1 X27.396Y57.558Z0F1200
G1 X27.216Y57.178Z0F1200
G1 X26.975Y56.87Z0F1200
G1 X26.7Y56.626Z0F1200
G1 X26.399Y56.434Z0F1200
G1 X26.114Y56.308Z0F1200
G1 X25.677Y56.145Z0F1200
G1 X25.164Y56.11Z0F1200
G1 X24.743Y56.154Z0F1200
G1 X24.407Y56.212Z0F1200
G1 X24.18Y56.243Z0F1200
G1 X24.152Z0F1200
G1 X24.164Y56.202Z0F1200
G1 X24.167Y56.198Z0F1200
G1 X24.381Y56.174Z0F1200
G1 X25.026Y55.924Z0F1200
G1 X25.555Y55.699Z0F1200
G1 X26.018Y55.516Z0F1200
G1 X27.061Y55.203Z0F1200
G1 X27.2Y54.293Z0F1200
G1 X27.073Y53.838Z0F1200
G1 X26.887Y53.542Z0F1200
G1 X26.732Y53.355Z0F1200
G1 X26.633Y53.243Z0F1200
G1 Y53.24Z0F1200
G1 X26.627Y53.205Z0F1200
G1 X26.535Y52.758Z0F1200
G1 X26.209Y52.302Z0F1200
G1 X25.789Y52.026Z0F1200
G1 X25.362Y51.897Z0F1200
G1 X24.951Y51.867Z0F1200
G1 X24.551Y51.916Z0F1200
G1 X24.158Y52.047Z0F1200
G1 X23.425Y52.512Z0F1200
G1 X23.484Y53.048Z0F1200
G1 X23.171Y53.123Z0F1200
G1 X22.773Y53.6Z0F1200
G1 X22.693Y53.68Z0F1200
G1 X22.248Y53.536Z0F1200
G1 X21.552Y54.262Z0F1200
G1 X21.417Y54.851Z0F1200
G1 X21.504Y55.305Z0F1200
G1 X21.629Y55.608Z0F1200
G1 X21.727Y55.804Z0F1200
G1 X21.776Y55.914Z0F1200
G1 X21.724Y56.153Z0F1200
G1 X21.767Y56.589Z0F1200
G1 X21.853Y56.892Z0F1200
G1 X21.641Y56.948Z0F1200
G1 X21.319Y57.099Z0F1200
G1 X21.016Y57.313Z0F1200
G1 X20.745Y57.612Z0F1200
G1 X20.599Y57.878Z0F1200
G1 X20.483Y58.079Z0F1200
G1 X20.386Y58.372Z0F1200
G1 X20.35Y58.664Z0F1200
G1 X20.368Y58.956Z0F1200
G1 X20.472Y59.349Z0F1200
G1 X20.608Y59.667Z0F1200
G1 X20.712Y59.89Z0F1200
G1 X20.766Y60.033Z0F1200
G1 X20.771Y60.061Z0F1200
G1 X20.761Y60.125Z0F1200
G1 X20.692Y60.367Z0F1200
G1 X20.565Y60.674Z0F1200
G1 X20.481Y60.917Z0F1200
G1 X20.417Y61.218Z0F1200
G1 X20.413Y61.312Z0F1200
G1 X20.122Y61.294Z0F1200
G1 X18.834Y61.362Z0F1200
G1 X18.679Y62.676Z0F1200
G1 X18.649Y63.218Z0F1200
G1 X18.641Y63.255Z0F1200
G1 X18.195Y63.385Z0F1200
G1 X17.679Y63.496Z0F1200
G1 X17.322Y63.616Z0F1200
G1 X16.942Y63.824Z0F1200
G1 X16.586Y64.158Z0F1200
G1 X16.54Y64.236Z0F1200
G1 X16.329Y64.085Z0F1200
G1 X16.133Y63.919Z0F1200
G1 X15.725Y63.483Z0F1200
G1 X15.455Y63.117Z0F1200
G1 X15.368Y62.781Z0F1200
G1 X15.315Y62.31Z0F1200
G1 X15.309Y61.8Z0F1200
G1 X15.337Y61.25Z0F1200
G1 X15.381Y60.667Z0F1200
G1 X15.42Y60.051Z0F1200
G1 X15.43Y59.406Z0F1200
G1 X15.387Y58.818Z0F1200
G1 X15.368Y57.217Z0F1200
G1 Y55.603Z0F1200
G1 X15.389Y53.984Z0F1200
G1 X15.418Y53.155Z0F1200
G1 X15.604Y53.145Z0F1200
G1 X15.988Y53.062Z0F1200
G1 X16.403Y52.873Z0F1200
G1 X16.783Y52.526Z0F1200
G1 X16.848Y52.405Z0F1200
G1 X16.853Y52.402Z0F1200
G1 X17.2Y52.261Z0F1200
G1 X17.524Y52.059Z0F1200
G1 X17.859Y51.651Z0F1200
G1 X17.957Y51.053Z0F1200
G1 X17.757Y50.45Z0F1200
G1 X17.842Y50.427Z0F1200
G1 X18.241Y50.197Z0F1200
G1 X18.573Y49.777Z0F1200
G1 X18.611Y49.633Z0F1200
G1 X19.539Y49.769Z0F1200
G1 X19.911Y49.837Z0F1200
G1 X20.72Y50.045Z0F1200
G1 X21.251Y49.613Z0F1200
G1 X21.462Y49.323Z0F1200
G1 X21.574Y48.96Z0F1200
G1 X21.562Y48.577Z0F1200
G1 X21.408Y48.183Z0F1200
G1 X21.33Y48.064Z0F1200
G1 X21.488Y47.963Z0F1200
G1 X21.759Y47.843Z0F1200
G1 X21.839Y47.89Z0F1200
G1 X22.284Y48.12Z0F1200
G1 X22.585Y48.229Z0F1200
G1 X22.912Y48.302Z0F1200
G1 X23.273Y48.322Z0F1200
G1 X23.548Y48.288Z0F1200
G1 X24.177Y48.246Z0F1200
G1 X24.88Y48.243Z0F1200
G1 X25.3Y48.217Z0F1200
G1 X25.747Y48.143Z0F1200
G1 X26.216Y47.992Z0F1200
G1 X26.794Y47.669Z0F1200
G1 X26.968Y47.392Z0F1200
G1 X27.131Y47.381Z0F1200
G1 X28.147Y47.549Z0F1200
G1 X28.89Y47.616Z0F1200
G1 X29.642Y47.62Z0F1200
G1 X30.289Y47.559Z0F1200
G1 X31.339Y47.595Z0F1200
G1 X32.463Y47.694Z0F1200
G1 X33.058Y47.738Z0F1200
G1 X33.671Y47.76Z0F1200
G0 Z4.8F500
G0 X48.973Y57.664Z4.8F1500
G1 Z0F500
G1 X48.939Y57.812Z0F1200
G1 X48.935Y57.879Z0F1200
G1 X48.596Y57.8Z0F1200
G1 X48.587Z0F1200
G1 X48.652Y57.79Z0F1200
G1 X48.973Y57.664Z0F1200
G0 Z4.8F500
G0 X50.078Y57.376Z4.8F1500
G1 Z0F500
G1 X49.96Y57.546Z0F1200
G1 X49.88Y57.737Z0F1200
G1 X49.833Y57.942Z0F1200
G1 X49.819Y58.153Z0F1200
G1 X49.837Y58.362Z0F1200
G1 X49.885Y58.561Z0F1200
G1 X49.962Y58.742Z0F1200
G1 X50.066Y58.897Z0F1200
G1 X49.937Y58.955Z0F1200
G1 X49.785Y58.983Z0F1200
G1 X49.617Z0F1200
G1 X49.439Y58.966Z0F1200
G1 X49.082Y58.881Z0F1200
G1 X48.766Y58.764Z0F1200
G1 X48.444Y58.689Z0F1200
G1 X48.116Y58.653Z0F1200
G1 X47.783Y58.647Z0F1200
G1 X47.449Y58.658Z0F1200
G1 X46.786Y58.684Z0F1200
G1 X46.148Y58.641Z0F1200
G1 X46.026Y58.491Z0F1200
G1 X45.867Y58.419Z0F1200
G1 X45.682Y58.411Z0F1200
G1 X45.484Y58.453Z0F1200
G1 X45.09Y58.629Z0F1200
G1 X44.776Y58.838Z0F1200
G1 X44.677Y58.913Z0F1200
G1 X44.61Y58.999Z0F1200
G1 X44.575Y59.092Z0F1200
G1 X44.567Y59.188Z0F1200
G1 X44.628Y59.371Z0F1200
G1 X44.777Y59.514Z0F1200
G1 X44.479Y59.63Z0F1200
G1 X44.191Y59.782Z0F1200
G1 X44.067Y59.883Z0F1200
G1 X43.967Y60.005Z0F1200
G1 X43.896Y60.155Z0F1200
G1 X43.861Y60.337Z0F1200
G1 X43.754Y60.664Z0F1200
G1 X43.592Y60.941Z0F1200
G1 X43.406Y61.199Z0F1200
G1 X43.229Y61.468Z0F1200
G1 X43.19Y61.647Z0F1200
G1 X43.244Y61.82Z0F1200
G1 X43.333Y61.963Z0F1200
G1 X43.4Y62.048Z0F1200
G1 X43.025Y62.265Z0F1200
G1 X42.61Y62.409Z0F1200
G1 X42.406Y62.423Z0F1200
G1 X42.211Y62.384Z0F1200
G1 X42.035Y62.278Z0F1200
G1 X41.883Y62.094Z0F1200
G1 X41.722Y61.885Z0F1200
G1 X41.627Y61.644Z0F1200
G1 X41.53Y61.409Z0F1200
G1 X41.36Y61.221Z0F1200
G1 X41.306Y60.977Z0F1200
G1 X41.188Y60.738Z0F1200
G1 X41.021Y60.521Z0F1200
G1 X40.816Y60.345Z0F1200
G1 X40.588Y60.229Z0F1200
G1 X40.352Y60.192Z0F1200
G1 X40.234Y60.208Z0F1200
G1 X40.12Y60.251Z0F1200
G1 X40.01Y60.324Z0F1200
G1 X39.906Y60.427Z0F1200
G1 X39.542Y60.66Z0F1200
G1 X39.145Y60.802Z0F1200
G1 X38.94Y60.824Z0F1200
G1 X38.737Y60.805Z0F1200
G1 X38.537Y60.741Z0F1200
G1 X38.343Y60.625Z0F1200
G1 X37.981Y60.68Z0F1200
G1 X37.616Y60.832Z0F1200
G1 X37.437Y60.885Z0F1200
G1 X37.264Y60.89Z0F1200
G1 X37.098Y60.823Z0F1200
G1 X36.941Y60.66Z0F1200
G1 X36.726Y60.288Z0F1200
G1 X36.452Y59.968Z0F1200
G1 X36.128Y59.701Z0F1200
G1 X35.759Y59.488Z0F1200
G1 X35.702Y59.073Z0F1200
G1 X35.691Y58.657Z0F1200
G1 X35.716Y58.24Z0F1200
G1 X35.767Y57.822Z0F1200
G1 X35.903Y56.989Z0F1200
G1 X36.02Y56.163Z0F1200
G1 X35.95Y55.966Z0F1200
G1 X35.822Y55.841Z0F1200
G1 X35.654Y55.763Z0F1200
G1 X35.271Y55.656Z0F1200
G1 X35.09Y55.581Z0F1200
G1 X34.942Y55.46Z0F1200
G1 X34.843Y55.27Z0F1200
G1 X34.529Y54.641Z0F1200
G1 X34.196Y54.019Z0F1200
G1 X33.897Y53.385Z0F1200
G1 X33.681Y52.716Z0F1200
G1 X33.444Y52.508Z0F1200
G1 X33.171Y52.392Z0F1200
G1 X32.872Y52.349Z0F1200
G1 X32.554Y52.357Z0F1200
G1 X31.904Y52.458Z0F1200
G1 X31.297Y52.541Z0F1200
G1 X31.155Y52.555Z0F1200
G1 X31.02Y52.593Z0F1200
G1 X30.897Y52.652Z0F1200
G1 X30.794Y52.733Z0F1200
G1 X30.718Y52.833Z0F1200
G1 X30.677Y52.95Z0F1200
G1 Y53.084Z0F1200
G1 X30.725Y53.233Z0F1200
G1 X30.745Y53.829Z0F1200
G1 X30.769Y54.43Z0F1200
G1 X30.81Y54.722Z0F1200
G1 X30.885Y55.004Z0F1200
G1 X31.005Y55.271Z0F1200
G1 X31.182Y55.52Z0F1200
G1 X31.217Y55.642Z0F1200
G1 X31.22Y55.758Z0F1200
G1 X31.197Y55.869Z0F1200
G1 X31.153Y55.976Z0F1200
G1 X31.019Y56.18Z0F1200
G1 X30.858Y56.375Z0F1200
G1 X30.711Y56.569Z0F1200
G1 X30.616Y56.768Z0F1200
G1 X30.601Y56.871Z0F1200
G1 X30.613Y56.977Z0F1200
G1 X30.658Y57.087Z0F1200
G1 X30.885Y57.401Z0F1200
G1 X30.975Y57.616Z0F1200
G1 X31.015Y57.841Z0F1200
G1 X31.005Y58.067Z0F1200
G1 X30.949Y58.286Z0F1200
G1 X30.847Y58.491Z0F1200
G1 X30.702Y58.674Z0F1200
G1 X30.515Y58.827Z0F1200
G1 X30.354Y59.007Z0F1200
G1 X30.246Y59.209Z0F1200
G1 X30.188Y59.425Z0F1200
G1 X30.176Y59.648Z0F1200
G1 X30.208Y59.872Z0F1200
G1 X30.281Y60.088Z0F1200
G1 X30.392Y60.291Z0F1200
G1 X30.537Y60.472Z0F1200
G1 X30.643Y60.622Z0F1200
G1 X30.718Y60.79Z0F1200
G1 X30.757Y60.964Z0F1200
G1 Y61.135Z0F1200
G1 X30.711Y61.291Z0F1200
G1 X30.617Y61.421Z0F1200
G1 X30.469Y61.515Z0F1200
G1 X30.264Y61.562Z0F1200
G1 X30.112Y61.549Z0F1200
G1 X29.98Y61.572Z0F1200
G1 X29.866Y61.625Z0F1200
G1 X29.769Y61.705Z0F1200
G1 X29.621Y61.917Z0F1200
G1 X29.524Y62.169Z0F1200
G1 X29.24Y62.372Z0F1200
G1 X28.964Y62.588Z0F1200
G1 X28.865Y62.713Z0F1200
G1 X28.81Y62.855Z0F1200
G1 X28.814Y63.02Z0F1200
G1 X28.892Y63.211Z0F1200
G1 X28.878Y63.443Z0F1200
G1 X28.794Y63.618Z0F1200
G1 X28.658Y63.737Z0F1200
G1 X28.484Y63.802Z0F1200
G1 X28.29Y63.813Z0F1200
G1 X28.093Y63.775Z0F1200
G1 X27.91Y63.687Z0F1200
G1 X27.757Y63.552Z0F1200
G1 X27.461Y63.124Z0F1200
G1 X27.2Y62.636Z0F1200
G1 X27.11Y62.38Z0F1200
G1 X27.062Y62.123Z0F1200
G1 X27.066Y61.867Z0F1200
G1 X27.133Y61.617Z0F1200
G1 X27.276Y61.417Z0F1200
G1 X27.33Y61.2Z0F1200
G1 X27.322Y60.972Z0F1200
G1 X27.279Y60.737Z0F1200
G1 X27.229Y60.5Z0F1200
G1 X27.2Y60.265Z0F1200
G1 X27.22Y60.038Z0F1200
G1 X27.315Y59.823Z0F1200
G1 X27.217Y59.641Z0F1200
G1 X27.071Y59.486Z0F1200
G1 X26.898Y59.345Z0F1200
G1 X26.723Y59.207Z0F1200
G1 X26.567Y59.06Z0F1200
G1 X26.454Y58.894Z0F1200
G1 X26.406Y58.695Z0F1200
G1 X26.447Y58.454Z0F1200
G1 X26.542Y58.24Z0F1200
G1 X26.567Y58.032Z0F1200
G1 X26.532Y57.836Z0F1200
G1 X26.445Y57.653Z0F1200
G1 X26.317Y57.489Z0F1200
G1 X26.156Y57.347Z0F1200
G1 X25.972Y57.229Z0F1200
G1 X25.774Y57.142Z0F1200
G1 X25.486Y57.034Z0F1200
G1 X25.18Y57.014Z0F1200
G1 X24.866Y57.046Z0F1200
G1 X24.549Y57.101Z0F1200
G1 X24.239Y57.143Z0F1200
G1 X23.941Z0F1200
G1 X23.799Y57.114Z0F1200
G1 X23.664Y57.063Z0F1200
G1 X23.535Y56.984Z0F1200
G1 X23.414Y56.874Z0F1200
G1 X23.293Y56.633Z0F1200
G1 X23.242Y56.369Z0F1200
G1 X23.256Y56.1Z0F1200
G1 X23.331Y55.843Z0F1200
G1 X23.464Y55.617Z0F1200
G1 X23.65Y55.438Z0F1200
G1 X23.885Y55.324Z0F1200
G1 X24.165Y55.292Z0F1200
G1 X24.688Y55.09Z0F1200
G1 X25.206Y54.869Z0F1200
G1 X25.726Y54.664Z0F1200
G1 X26.257Y54.504Z0F1200
G1 X26.281Y54.349Z0F1200
G1 X26.241Y54.206Z0F1200
G1 X26.157Y54.071Z0F1200
G1 X26.047Y53.939Z0F1200
G1 X25.931Y53.806Z0F1200
G1 X25.827Y53.666Z0F1200
G1 X25.757Y53.515Z0F1200
G1 X25.738Y53.347Z0F1200
G1 X25.692Y53.127Z0F1200
G1 X25.575Y52.962Z0F1200
G1 X25.404Y52.85Z0F1200
G1 X25.197Y52.788Z0F1200
G1 X24.973Y52.771Z0F1200
G1 X24.75Y52.798Z0F1200
G1 X24.547Y52.866Z0F1200
G1 X24.381Y52.971Z0F1200
G1 X24.4Y53.145Z0F1200
G1 X24.381Y53.31Z0F1200
G1 X24.328Y53.463Z0F1200
G1 X24.243Y53.602Z0F1200
G1 X24.131Y53.722Z0F1200
G1 X23.997Y53.818Z0F1200
G1 X23.841Y53.889Z0F1200
G1 X23.67Y53.929Z0F1200
G1 X23.438Y54.208Z0F1200
G1 X23.174Y54.472Z0F1200
G1 X23.027Y54.568Z0F1200
G1 X22.868Y54.624Z0F1200
G1 X22.695Y54.627Z0F1200
G1 X22.507Y54.566Z0F1200
G1 X22.374Y54.706Z0F1200
G1 X22.336Y54.867Z0F1200
G1 X22.371Y55.045Z0F1200
G1 X22.449Y55.235Z0F1200
G1 X22.546Y55.43Z0F1200
G1 X22.634Y55.625Z0F1200
G1 X22.688Y55.816Z0F1200
G1 X22.68Y55.997Z0F1200
G1 X22.634Y56.207Z0F1200
G1 X22.655Y56.421Z0F1200
G1 X22.716Y56.638Z0F1200
G1 X22.792Y56.854Z0F1200
G1 X22.858Y57.065Z0F1200
G1 X22.886Y57.268Z0F1200
G1 X22.852Y57.458Z0F1200
G1 X22.73Y57.633Z0F1200
G1 X22.335Y57.695Z0F1200
G1 X21.95Y57.797Z0F1200
G1 X21.773Y57.88Z0F1200
G1 X21.616Y57.991Z0F1200
G1 X21.482Y58.139Z0F1200
G1 X21.378Y58.328Z0F1200
G1 X21.309Y58.449Z0F1200
G1 X21.268Y58.571Z0F1200
G1 X21.253Y58.691Z0F1200
G1 X21.261Y58.813Z0F1200
G1 X21.325Y59.055Z0F1200
G1 X21.43Y59.299Z0F1200
G1 X21.545Y59.546Z0F1200
G1 X21.639Y59.797Z0F1200
G1 X21.682Y60.054Z0F1200
G1 X21.643Y60.317Z0F1200
G1 X21.544Y60.661Z0F1200
G1 X21.407Y60.993Z0F1200
G1 X21.35Y61.16Z0F1200
G1 X21.313Y61.33Z0F1200
G1 X21.307Y61.506Z0F1200
G1 X21.341Y61.69Z0F1200
G1 X21.307Y61.84Z0F1200
G1 X21.254Y61.96Z0F1200
G1 X21.185Y62.054Z0F1200
G1 X21.1Y62.124Z0F1200
G1 X20.892Y62.205Z0F1200
G1 X20.649Y62.228Z0F1200
G1 X20.119Y62.196Z0F1200
G1 X19.639Y62.221Z0F1200
G1 X19.576Y62.753Z0F1200
G1 X19.543Y63.338Z0F1200
G1 X19.486Y63.607Z0F1200
G1 X19.373Y63.839Z0F1200
G1 X19.289Y63.935Z0F1200
G1 X19.183Y64.015Z0F1200
G1 X19.053Y64.077Z0F1200
G1 X18.896Y64.118Z0F1200
G1 X18.415Y64.259Z0F1200
G1 X17.917Y64.365Z0F1200
G1 X17.685Y64.443Z0F1200
G1 X17.474Y64.559Z0F1200
G1 X17.295Y64.726Z0F1200
G1 X17.157Y64.96Z0F1200
G1 X17.062Y65.085Z0F1200
G1 X16.949Y65.199Z0F1200
G1 X16.816Y65.278Z0F1200
G1 X16.66Y65.299Z0F1200
G1 X16.348Y65.164Z0F1200
G1 X16.052Y64.994Z0F1200
G1 X15.772Y64.794Z0F1200
G1 X15.51Y64.57Z0F1200
G1 X15.034Y64.063Z0F1200
G1 X14.626Y63.51Z0F1200
G1 X14.48Y62.944Z0F1200
G1 X14.416Y62.367Z0F1200
G1 X14.409Y61.783Z0F1200
G1 X14.438Y61.194Z0F1200
G1 X14.483Y60.604Z0F1200
G1 X14.521Y60.016Z0F1200
G1 X14.529Y59.433Z0F1200
G1 X14.487Y58.859Z0F1200
G1 X14.468Y57.228Z0F1200
G1 Y55.59Z0F1200
G1 X14.49Y53.953Z0F1200
G1 X14.546Y52.319Z0F1200
G1 X15.005Y52.278Z0F1200
G1 X15.482Y52.25Z0F1200
G1 X15.704Y52.203Z0F1200
G1 X15.901Y52.113Z0F1200
G1 X16.063Y51.965Z0F1200
G1 X16.182Y51.744Z0F1200
G1 X16.463Y51.589Z0F1200
G1 X16.79Y51.457Z0F1200
G1 X16.923Y51.374Z0F1200
G1 X17.01Y51.267Z0F1200
G1 X17.033Y51.126Z0F1200
G1 X16.972Y50.943Z0F1200
G1 X16.698Y50.713Z0F1200
G1 X16.464Y50.417Z0F1200
G1 X16.397Y50.257Z0F1200
G1 X16.384Y50.093Z0F1200
G1 X16.437Y49.933Z0F1200
G1 X16.571Y49.778Z0F1200
G1 X16.924Y49.688Z0F1200
G1 X17.315Y49.638Z0F1200
G1 X17.493Y49.589Z0F1200
G1 X17.643Y49.503Z0F1200
G1 X17.751Y49.366Z0F1200
G1 X17.806Y49.16Z0F1200
G1 X17.869Y48.985Z0F1200
G1 X17.96Y48.843Z0F1200
G1 X18.077Y48.735Z0F1200
G1 X18.213Y48.663Z0F1200
G1 X18.362Y48.627Z0F1200
G1 X18.521Y48.63Z0F1200
G1 X18.683Y48.673Z0F1200
G1 X18.843Y48.758Z0F1200
G1 X19.686Y48.881Z0F1200
G1 X20.101Y48.957Z0F1200
G1 X20.504Y49.061Z0F1200
G1 X20.593Y48.989Z0F1200
G1 X20.646Y48.915Z0F1200
G1 X20.67Y48.839Z0F1200
G1 X20.667Y48.76Z0F1200
G1 X20.604Y48.599Z0F1200
G1 X20.493Y48.429Z0F1200
G1 X20.371Y48.254Z0F1200
G1 X20.275Y48.073Z0F1200
G1 X20.242Y47.887Z0F1200
G1 X20.309Y47.698Z0F1200
G1 X20.666Y47.419Z0F1200
G1 X21.06Y47.169Z0F1200
G1 X21.482Y46.981Z0F1200
G1 X21.925Y46.89Z0F1200
G1 X22.28Y47.104Z0F1200
G1 X22.646Y47.294Z0F1200
G1 X22.837Y47.363Z0F1200
G1 X23.035Y47.407Z0F1200
G1 X23.243Y47.419Z0F1200
G1 X23.461Y47.392Z0F1200
G1 X24.144Y47.346Z0F1200
G1 X24.85Y47.343Z0F1200
G1 X25.198Y47.321Z0F1200
G1 X25.535Y47.266Z0F1200
G1 X25.855Y47.163Z0F1200
G1 X26.154Y46.996Z0F1200
G1 X26.272Y46.806Z0F1200
G1 X26.418Y46.664Z0F1200
G1 X26.586Y46.564Z0F1200
G1 X26.772Y46.503Z0F1200
G1 X27.177Y46.477Z0F1200
G1 X28.261Y46.655Z0F1200
G1 X28.933Y46.716Z0F1200
G1 X29.602Y46.72Z0F1200
G1 X30.261Y46.657Z0F1200
G1 X31.395Y46.696Z0F1200
G1 X32.536Y46.797Z0F1200
G1 X33.107Y46.839Z0F1200
G1 X33.676Y46.859Z0F1200
G1 X34.243Y46.846Z0F1200
G1 X34.806Y46.785Z0F1200
G1 X35.005Y46.52Z0F1200
G1 X35.188Y46.23Z0F1200
G1 X35.295Y46.12Z0F1200
G1 X35.422Y46.055Z0F1200
G1 X35.58Y46.052Z0F1200
G1 X35.775Y46.129Z0F1200
G1 X35.94Y46.311Z0F1200
G1 X36.132Y46.408Z0F1200
G1 X36.344Y46.439Z0F1200
G1 X36.571Y46.426Z0F1200
G1 X37.044Y46.337Z0F1200
G1 X37.501Y46.296Z0F1200
G1 X38.333Z0F1200
G1 X39.181Y46.369Z0F1200
G1 X39.604Y46.394Z0F1200
G1 X40.023Y46.389Z0F1200
G1 X40.435Y46.337Z0F1200
G1 X40.836Y46.224Z0F1200
G1 X40.96Y46.132Z0F1200
G1 X41.084Y46.078Z0F1200
G1 X41.202Y46.06Z0F1200
G1 X41.311Y46.076Z0F1200
G1 X41.403Y46.126Z0F1200
G1 X41.477Y46.208Z0F1200
G1 X41.525Y46.319Z0F1200
G1 X41.544Y46.46Z0F1200
G1 X41.642Y46.59Z0F1200
G1 X41.764Y46.687Z0F1200
G1 X41.905Y46.755Z0F1200
G1 X42.057Y46.8Z0F1200
G1 X42.369Y46.84Z0F1200
G1 X42.646Y46.85Z0F1200
G1 X42.641Y47.153Z0F1200
G1 X42.708Y47.438Z0F1200
G1 X42.774Y47.564Z0F1200
G1 X42.865Y47.671Z0F1200
G1 X42.982Y47.757Z0F1200
G1 X43.127Y47.815Z0F1200
G1 X43.277Y48.045Z0F1200
G1 X43.44Y48.275Z0F1200
G1 X43.585Y48.508Z0F1200
G1 X43.682Y48.746Z0F1200
G1 X43.618Y48.975Z0F1200
G1 X43.496Y49.187Z0F1200
G1 X43.437Y49.295Z0F1200
G1 X43.392Y49.411Z0F1200
G1 X43.371Y49.538Z0F1200
G1 X43.382Y49.679Z0F1200
G1 X43.355Y49.829Z0F1200
G1 X43.371Y49.972Z0F1200
G1 X43.412Y50.11Z0F1200
G1 X43.461Y50.245Z0F1200
G1 X43.502Y50.377Z0F1200
G1 X43.518Y50.509Z0F1200
G1 X43.491Y50.642Z0F1200
G1 X43.405Y50.776Z0F1200
G1 X43.369Y51Z0F1200
G1 X43.418Y51.183Z0F1200
G1 X43.535Y51.333Z0F1200
G1 X43.697Y51.455Z0F1200
G1 X44.084Y51.65Z0F1200
G1 X44.42Y51.828Z0F1200
G1 X44.438Y52.153Z0F1200
G1 X44.536Y52.469Z0F1200
G1 X44.701Y52.76Z0F1200
G1 X44.923Y53.007Z0F1200
G1 X45.188Y53.193Z0F1200
G1 X45.484Y53.299Z0F1200
G1 X45.641Y53.317Z0F1200
G1 X45.8Y53.31Z0F1200
G1 X45.961Y53.272Z0F1200
G1 X46.123Y53.205Z0F1200
G1 X46.521Y53.16Z0F1200
G1 X46.931Y53.127Z0F1200
G1 X47.332Y53.139Z0F1200
G1 X47.702Y53.229Z0F1200
G1 X47.529Y53.623Z0F1200
G1 X47.326Y54.012Z0F1200
G1 X47.247Y54.211Z0F1200
G1 X47.201Y54.417Z0F1200
G1 Y54.633Z0F1200
G1 X47.263Y54.86Z0F1200
G1 X47.229Y55.172Z0F1200
G1 X47.102Y55.47Z0F1200
G1 X47.041Y55.62Z0F1200
G1 X47.002Y55.775Z0F1200
G1 Y55.937Z0F1200
G1 X47.054Y56.108Z0F1200
G1 X47.48Y56.649Z0F1200
G1 X47.605Y56.772Z0F1200
G1 X47.748Y56.872Z0F1200
G1 X47.912Y56.938Z0F1200
G1 X48.103Y56.962Z0F1200
G1 X48.418Y56.915Z0F1200
G1 X48.709Y56.801Z0F1200
G1 X49.003Y56.691Z0F1200
G1 X49.326Y56.659Z0F1200
G1 X49.629Y56.52Z0F1200
G1 X49.907Y56.333Z0F1200
G1 X50.048Y56.255Z0F1200
G1 X50.197Y56.207Z0F1200
G1 X50.358Y56.202Z0F1200
G1 X50.536Y56.253Z0F1200
G1 X50.938Z0F1200
G1 X51.345Y56.165Z0F1200
G1 X51.545Y56.115Z0F1200
G1 X51.742Y56.08Z0F1200
G1 X51.934Y56.07Z0F1200
G1 X52.118Y56.099Z0F1200
G1 X52.127Y56.369Z0F1200
G1 X52.085Y56.657Z0F1200
G1 X51.994Y56.931Z0F1200
G1 X51.855Y57.157Z0F1200
G1 X51.636Y57.234Z0F1200
G1 X51.409Y57.26Z0F1200
G1 X51.177Y57.252Z0F1200
G1 X50.943Y57.23Z0F1200
G1 X50.713Y57.213Z0F1200
G1 X50.489Y57.219Z0F1200
G1 X50.276Y57.267Z0F1200
G1 X50.078Y57.376Z0F1200
;Offset @ 1200 mm/min, 80% power

M8
G0 Z4.8F500
G0 X57.642Y39.385Z4.8F1500
G1 Z0F500
;Layer Blue Pass 1 of 2
G1 X57.614Y40.132Z0F1200
G1 X57.588Y40.968Z0F1200
G1 X57.552Y41.731Z0F1200
G1 X57.492Y42.416Z0F1200
G1 X57.354Y41.664Z0F1200
G1 X57.207Y40.703Z0F1200
G1 X57.083Y39.726Z0F1200
G1 X56.997Y38.873Z0F1200
G1 X57.61Y38.867Z0F1200
G1 X57.642Y39.385Z0F1200
G0 Z4.8F500
G0 X58.051Y41.759Z4.8F1500
G1 Z0F500
G1 X57.983Y42.54Z0F1200
G1 X57.868Y43.325Z0F1200
G1 X57.79Y43.9Z0F1200
G1 X57.701Y44.488Z0F1200
G1 X57.665Y44.868Z0F1200
G1 X57.656Y45.285Z0F1200
G1 X57.694Y45.74Z0F1200
G1 X57.764Y46.072Z0F1200
G1 X57.89Y46.893Z0F1200
G1 X57.987Y47.728Z0F1200
G1 X58.074Y48.614Z0F1200
G1 X58.139Y49.312Z0F1200
G1 X58.063Y49.764Z0F1200
G1 X57.94Y50.438Z0F1200
G1 X57.821Y51.14Z0F1200
G1 X57.685Y52.162Z0F1200
G1 X57.893Y52.821Z0F1200
G1 X57.959Y53.079Z0F1200
G1 X57.983Y53.253Z0F1200
G1 X57.974Y53.543Z0F1200
G1 X57.967Y54.587Z0F1200
G1 X57.958Y55.618Z0F1200
G1 X57.936Y56.594Z0F1200
G1 X57.899Y57.399Z0F1200
G1 X57.698Y57.97Z0F1200
G1 X57.429Y58.772Z0F1200
G1 X57.177Y59.597Z0F1200
G1 X56.973Y60.357Z0F1200
G1 X56.754Y60.979Z0F1200
G1 X56.668Y61.207Z0F1200
G1 X56.771Y60.62Z0F1200
G1 X57.021Y59.878Z0F1200
G1 X57.3Y58.983Z0F1200
G1 X57.429Y58.482Z0F1200
G1 X57.534Y57.965Z0F1200
G1 X57.607Y57.424Z0F1200
G1 X57.634Y56.949Z0F1200
G1 X57.667Y56.582Z0F1200
G1 X57.65Y56.116Z0F1200
G1 X57.594Y55.696Z0F1200
G1 X57.515Y55.318Z0F1200
G1 X57.362Y54.722Z0F1200
G1 X57.252Y54.236Z0F1200
G1 X57.2Y53.792Z0F1200
G1 X57.172Y53.276Z0F1200
G1 X57.158Y52.716Z0F1200
G1 X57.139Y52.202Z0F1200
G1 X57.175Y51.569Z0F1200
G1 X57.229Y50.832Z0F1200
G1 X57.273Y50.061Z0F1200
G1 X57.284Y49.182Z0F1200
G1 X57.112Y48.039Z0F1200
G1 X56.967Y47.041Z0F1200
G1 X56.834Y46.027Z0F1200
G1 X56.747Y45.221Z0F1200
G1 X56.801Y44.886Z0F1200
G1 X56.901Y44.344Z0F1200
G1 X57Y43.732Z0F1200
G1 X57.078Y42.928Z0F1200
G1 X56.86Y41.742Z0F1200
G1 X56.711Y40.769Z0F1200
G1 X56.585Y39.775Z0F1200
G1 X56.486Y38.791Z0F1200
G1 X56.441Y38.378Z0F1200
G1 X58.066Y38.362Z0F1200
G1 X58.097Y38.647Z0F1200
G1 X58.143Y39.378Z0F1200
G1 X58.114Y40.149Z0F1200
G1 X58.089Y40.966Z0F1200
G1 X58.051Y41.759Z0F1200
G0 Z4.8F500
G0 X58.287Y43.953Z4.8F1500
G1 Z0F500
G1 X58.197Y44.549Z0F1200
G1 X58.164Y44.897Z0F1200
G1 X58.156Y45.269Z0F1200
G1 X58.189Y45.667Z0F1200
G1 X58.255Y45.978Z0F1200
G1 X58.386Y46.832Z0F1200
G1 X58.487Y47.698Z0F1200
G1 X58.572Y48.568Z0F1200
G1 X58.643Y49.33Z0F1200
G1 X58.555Y49.854Z0F1200
G1 X58.433Y50.525Z0F1200
G1 X58.315Y51.214Z0F1200
G1 X58.195Y52.118Z0F1200
G1 X58.375Y52.685Z0F1200
G1 X58.45Y52.98Z0F1200
G1 X58.484Y53.228Z0F1200
G1 X58.474Y53.553Z0F1200
G1 X58.467Y54.592Z0F1200
G1 X58.458Y55.623Z0F1200
G1 X58.436Y56.617Z0F1200
G1 X58.396Y57.496Z0F1200
G1 X58.171Y58.133Z0F1200
G1 X57.905Y58.925Z0F1200
G1 X57.657Y59.734Z0F1200
G1 X57.452Y60.502Z0F1200
G1 X57.224Y61.151Z0F1200
G1 X56.962Y61.844Z0F1200
G1 X56.703Y62.584Z0F1200
G1 X56.483Y63.387Z0F1200
G1 X56.356Y64.267Z0F1200
G1 X56.291Y65.109Z0F1200
G1 X56.22Y66.737Z0F1200
G1 Y67.702Z0F1200
G1 X56.205Y68.637Z0F1200
G1 X56.148Y69.527Z0F1200
G1 X55.888Y71.328Z0F1200
G1 X55.614Y71.305Z0F1200
G1 X55.535Y71.297Z0F1200
G1 X55.582Y70.786Z0F1200
G1 X55.675Y69.898Z0F1200
G1 X55.727Y68.954Z0F1200
G1 X55.673Y68.034Z0F1200
G1 X55.605Y66.797Z0F1200
G1 Y65.567Z0F1200
G1 X55.676Y63.18Z0F1200
G1 X55.854Y62.599Z0F1200
G1 X56.032Y61.858Z0F1200
G1 X56.174Y61.131Z0F1200
G1 X56.285Y60.496Z0F1200
G1 X56.545Y59.724Z0F1200
G1 X56.819Y58.846Z0F1200
G1 X56.942Y58.37Z0F1200
G1 X57.04Y57.882Z0F1200
G1 X57.109Y57.376Z0F1200
G1 X57.135Y56.916Z0F1200
G1 X57.167Y56.568Z0F1200
G1 X57.152Y56.159Z0F1200
G1 X57.101Y55.781Z0F1200
G1 X57.028Y55.431Z0F1200
G1 X56.876Y54.843Z0F1200
G1 X56.758Y54.32Z0F1200
G1 X56.701Y53.832Z0F1200
G1 X56.672Y53.298Z0F1200
G1 X56.658Y52.731Z0F1200
G1 X56.639Y52.196Z0F1200
G1 X56.677Y51.532Z0F1200
G1 X56.73Y50.799Z0F1200
G1 X56.773Y50.043Z0F1200
G1 X56.783Y49.216Z0F1200
G1 X56.617Y48.113Z0F1200
G1 X56.47Y47.093Z0F1200
G1 X56.337Y46.079Z0F1200
G1 X56.242Y45.208Z0F1200
G1 X56.309Y44.794Z0F1200
G1 X56.408Y44.258Z0F1200
G1 X56.504Y43.668Z0F1200
G1 X56.573Y42.95Z0F1200
G1 X56.364Y41.807Z0F1200
G1 X56.217Y40.85Z0F1200
G1 X56.091Y39.854Z0F1200
G1 X55.989Y38.843Z0F1200
G1 X55.885Y37.884Z0F1200
G1 X58.513Y37.858Z0F1200
G1 X58.596Y38.613Z0F1200
G1 X58.643Y39.37Z0F1200
G1 X58.614Y40.167Z0F1200
G1 X58.588Y40.99Z0F1200
G1 X58.549Y41.807Z0F1200
G1 X58.481Y42.59Z0F1200
G1 X58.363Y43.395Z0F1200
G1 X58.287Y43.953Z0F1200
G0 Z4.8F500
G0 X58.657Y45.254Z4.8F1500
G1 Z0F500
G1 X58.685Y45.594Z0F1200
G1 X58.75Y45.9Z0F1200
G1 X58.879Y46.749Z0F1200
G1 X58.983Y47.63Z0F1200
G1 X59.07Y48.521Z0F1200
G1 X59.147Y49.349Z0F1200
G1 X59.045Y49.949Z0F1200
G1 X58.925Y50.612Z0F1200
G1 X58.81Y51.29Z0F1200
G1 X58.706Y52.073Z0F1200
G1 X58.854Y52.542Z0F1200
G1 X58.942Y52.886Z0F1200
G1 X58.985Y53.201Z0F1200
G1 X58.974Y53.563Z0F1200
G1 X58.967Y54.597Z0F1200
G1 X58.958Y55.621Z0F1200
G1 X58.935Y56.639Z0F1200
G1 X58.892Y57.591Z0F1200
G1 X58.644Y58.295Z0F1200
G1 X58.381Y59.078Z0F1200
G1 X58.138Y59.873Z0F1200
G1 X57.93Y60.649Z0F1200
G1 X57.695Y61.317Z0F1200
G1 X57.432Y62.015Z0F1200
G1 X57.181Y62.733Z0F1200
G1 X56.973Y63.489Z0F1200
G1 X56.854Y64.322Z0F1200
G1 X56.79Y65.14Z0F1200
G1 X56.72Y66.748Z0F1200
G1 Y67.709Z0F1200
G1 X56.705Y68.656Z0F1200
G1 X56.646Y69.581Z0F1200
G1 X56.315Y71.867Z0F1200
G1 X56.189Y71.854Z0F1200
G1 X55.572Y71.803Z0F1200
G1 X55.316Y71.778Z0F1200
G1 X55.156Y71.756Z0F1200
G1 X55.041Y71.679Z0F1200
G1 X55Y71.646Z0F1200
G1 Y71.637Z0F1200
G1 X55.085Y70.727Z0F1200
G1 X55.177Y69.858Z0F1200
G1 X55.226Y68.955Z0F1200
G1 X55.174Y68.063Z0F1200
G1 X55.105Y66.815Z0F1200
G1 Y65.569Z0F1200
G1 X55.179Y63.097Z0F1200
G1 X55.372Y62.467Z0F1200
G1 X55.543Y61.751Z0F1200
G1 X55.682Y61.04Z0F1200
G1 X55.799Y60.371Z0F1200
G1 X56.069Y59.569Z0F1200
G1 X56.338Y58.709Z0F1200
G1 X56.454Y58.258Z0F1200
G1 X56.547Y57.799Z0F1200
G1 X56.611Y57.329Z0F1200
G1 X56.636Y56.886Z0F1200
G1 X56.666Y56.554Z0F1200
G1 X56.653Y56.201Z0F1200
G1 X56.607Y55.865Z0F1200
G1 X56.541Y55.544Z0F1200
G1 X56.388Y54.949Z0F1200
G1 X56.265Y54.406Z0F1200
G1 X56.203Y53.879Z0F1200
G1 X56.173Y53.314Z0F1200
G1 X56.158Y52.747Z0F1200
G1 X56.138Y52.19Z0F1200
G1 X56.178Y51.496Z0F1200
G1 X56.231Y50.767Z0F1200
G1 X56.274Y50.026Z0F1200
G1 X56.283Y49.25Z0F1200
G1 X56.123Y48.187Z0F1200
G1 X55.975Y47.164Z0F1200
G1 X55.842Y46.155Z0F1200
G1 X55.738Y45.194Z0F1200
G1 X55.813Y44.725Z0F1200
G1 X55.916Y44.173Z0F1200
G1 X56.008Y43.604Z0F1200
G1 X56.069Y42.972Z0F1200
G1 X55.874Y41.907Z0F1200
G1 X55.722Y40.915Z0F1200
G1 X55.593Y39.901Z0F1200
G1 X55.491Y38.895Z0F1200
G1 X55.329Y37.389Z0F1200
G1 X58.96Y37.354Z0F1200
G1 X59.094Y38.566Z0F1200
G1 X59.144Y39.368Z0F1200
G1 X59.114Y40.184Z0F1200
G1 X59.088Y41.014Z0F1200
G1 X59.048Y41.843Z0F1200
G1 X58.978Y42.648Z0F1200
G1 X58.858Y43.465Z0F1200
G1 X58.78Y44.035Z0F1200
G1 X58.693Y44.61Z0F1200
G1 X58.664Y44.926Z0F1200
G1 X58.657Y45.254Z0F1200
G0 Z4.8F500
G0 X59.304Y51.364Z4.8F1500
G1 Z0F500
G1 X59.216Y52.028Z0F1200
G1 X59.335Y52.406Z0F1200
G1 X59.433Y52.788Z0F1200
G1 X59.486Y53.175Z0F1200
G1 X59.474Y53.572Z0F1200
G1 X59.467Y54.602Z0F1200
G1 X59.458Y55.632Z0F1200
G1 X59.435Y56.662Z0F1200
G1 X59.388Y57.688Z0F1200
G1 X59.117Y58.458Z0F1200
G1 X58.857Y59.231Z0F1200
G1 X58.619Y60.01Z0F1200
G1 X58.408Y60.798Z0F1200
G1 X58.163Y61.494Z0F1200
G1 X57.902Y62.186Z0F1200
G1 X57.658Y62.882Z0F1200
G1 X57.464Y63.591Z0F1200
G1 X57.351Y64.377Z0F1200
G1 X57.289Y65.17Z0F1200
G1 X57.22Y66.759Z0F1200
G1 Y67.717Z0F1200
G1 X57.205Y68.675Z0F1200
G1 X57.144Y69.63Z0F1200
G1 X56.737Y72.442Z0F1200
G1 X56.627Y72.408Z0F1200
G1 X56.419Y72.379Z0F1200
G1 X56.145Y72.353Z0F1200
G1 X55.531Y72.302Z0F1200
G1 X55.257Y72.275Z0F1200
G1 X55.049Y72.246Z0F1200
G1 X54.939Y72.212Z0F1200
G1 X54.747Y72.083Z0F1200
G1 X54.574Y71.946Z0F1200
G1 X54.512Y71.866Z0F1200
G1 X54.476Y71.774Z0F1200
G1 X54.472Y71.668Z0F1200
G1 X54.508Y71.543Z0F1200
G1 X54.587Y70.681Z0F1200
G1 X54.678Y69.819Z0F1200
G1 X54.725Y68.956Z0F1200
G1 X54.675Y68.092Z0F1200
G1 X54.605Y66.824Z0F1200
G1 Y65.554Z0F1200
G1 X54.681Y63.016Z0F1200
G1 X54.889Y62.336Z0F1200
G1 X55.054Y61.646Z0F1200
G1 X55.19Y60.949Z0F1200
G1 X55.313Y60.249Z0F1200
G1 X55.594Y59.415Z0F1200
G1 X55.857Y58.572Z0F1200
G1 X55.967Y58.146Z0F1200
G1 X56.054Y57.716Z0F1200
G1 X56.113Y57.281Z0F1200
G1 X56.138Y56.84Z0F1200
G1 X56.165Y56.541Z0F1200
G1 X56.154Y56.244Z0F1200
G1 X56.114Y55.95Z0F1200
G1 X56.054Y55.657Z0F1200
G1 X55.903Y55.074Z0F1200
G1 X55.771Y54.49Z0F1200
G1 X55.704Y53.918Z0F1200
G1 X55.673Y53.341Z0F1200
G1 X55.658Y52.762Z0F1200
G1 X55.638Y52.185Z0F1200
G1 X55.679Y51.46Z0F1200
G1 X55.732Y50.734Z0F1200
G1 X55.774Y50.009Z0F1200
G1 X55.782Y49.285Z0F1200
G1 X55.628Y48.261Z0F1200
G1 X55.48Y47.236Z0F1200
G1 X55.345Y46.209Z0F1200
G1 X55.233Y45.181Z0F1200
G1 X55.322Y44.634Z0F1200
G1 X55.423Y44.087Z0F1200
G1 X55.512Y43.54Z0F1200
G1 X55.564Y42.993Z0F1200
G1 X55.38Y41.987Z0F1200
G1 X55.226Y40.978Z0F1200
G1 X55.097Y39.964Z0F1200
G1 X54.994Y38.947Z0F1200
G1 X54.772Y36.895Z0F1200
G1 X59.408Y36.849Z0F1200
G1 X59.592Y38.522Z0F1200
G1 X59.645Y39.36Z0F1200
G1 X59.613Y40.201Z0F1200
G1 X59.587Y41.038Z0F1200
G1 X59.547Y41.873Z0F1200
G1 X59.475Y42.706Z0F1200
G1 X59.353Y43.535Z0F1200
G1 X59.276Y44.103Z0F1200
G1 X59.19Y44.671Z0F1200
G1 X59.163Y44.955Z0F1200
G1 X59.157Y45.238Z0F1200
G1 X59.181Y45.521Z0F1200
G1 X59.241Y45.804Z0F1200
G1 X59.376Y46.69Z0F1200
G1 X59.48Y47.582Z0F1200
G1 X59.567Y48.475Z0F1200
G1 X59.651Y49.367Z0F1200
G1 X59.539Y50.032Z0F1200
G1 X59.417Y50.698Z0F1200
G1 X59.304Y51.364Z0F1200
;Layer Blue Pass 2 of 2
G0 Z4.8F500
G0 X57.642Y39.385Z4.8F1500
G1 Z0F500
G1 X57.614Y40.132Z0F1200
G1 X57.588Y40.968Z0F1200
G1 X57.552Y41.731Z0F1200
G1 X57.492Y42.416Z0F1200
G1 X57.354Y41.664Z0F1200
G1 X57.207Y40.703Z0F1200
G1 X57.083Y39.726Z0F1200
G1 X56.997Y38.873Z0F1200
G1 X57.61Y38.867Z0F1200
G1 X57.642Y39.385Z0F1200
G0 Z4.8F500
G0 X58.051Y41.759Z4.8F1500
G1 Z0F500
G1 X57.983Y42.54Z0F1200
G1 X57.868Y43.325Z0F1200
G1 X57.79Y43.9Z0F1200
G1 X57.701Y44.488Z0F1200
G1 X57.665Y44.868Z0F1200
G1 X57.656Y45.285Z0F1200
G1 X57.694Y45.74Z0F1200
G1 X57.764Y46.072Z0F1200
G1 X57.89Y46.893Z0F1200
G1 X57.987Y47.728Z0F1200
G1 X58.074Y48.614Z0F1200
G1 X58.139Y49.312Z0F1200
G1 X58.063Y49.764Z0F1200
G1 X57.94Y50.438Z0F1200
G1 X57.821Y51.14Z0F1200
G1 X57.685Y52.162Z0F1200
G1 X57.893Y52.821Z0F1200
G1 X57.959Y53.079Z0F1200
G1 X57.983Y53.253Z0F1200
G1 X57.974Y53.543Z0F1200
G1 X57.967Y54.587Z0F1200
G1 X57.958Y55.618Z0F1200
G1 X57.936Y56.594Z0F1200
G1 X57.899Y57.399Z0F1200
G1 X57.698Y57.97Z0F1200
G1 X57.429Y58.772Z0F1200
G1 X57.177Y59.597Z0F1200
G1 X56.973Y60.357Z0F1200
G1 X56.754Y60.979Z0F1200
G1 X56.668Y61.207Z0F1200
G1 X56.771Y60.62Z0F1200
G1 X57.021Y59.878Z0F1200
G1 X57.3Y58.983Z0F1200
G1 X57.429Y58.482Z0F1200
G1 X57.534Y57.965Z0F1200
G1 X57.607Y57.424Z0F1200
G1 X57.634Y56.949Z0F1200
G1 X57.667Y56.582Z0F1200
G1 X57.65Y56.116Z0F1200
G1 X57.594Y55.696Z0F1200
G1 X57.515Y55.318Z0F1200
G1 X57.362Y54.722Z0F1200
G1 X57.252Y54.236Z0F1200
G1 X57.2Y53.792Z0F1200
G1 X57.172Y53.276Z0F1200
G1 X57.158Y52.716Z0F1200
G1 X57.139Y52.202Z0F1200
G1 X57.175Y51.569Z0F1200
G1 X57.229Y50.832Z0F1200
G1 X57.273Y50.061Z0F1200
G1 X57.284Y49.182Z0F1200
G1 X57.112Y48.039Z0F1200
G1 X56.967Y47.041Z0F1200
G1 X56.834Y46.027Z0F1200
G1 X56.747Y45.221Z0F1200
G1 X56.801Y44.886Z0F1200
G1 X56.901Y44.344Z0F1200
G1 X57Y43.732Z0F1200
G1 X57.078Y42.928Z0F1200
G1 X56.86Y41.742Z0F1200
G1 X56.711Y40.769Z0F1200
G1 X56.585Y39.775Z0F1200
G1 X56.486Y38.791Z0F1200
G1 X56.441Y38.378Z0F1200
G1 X58.066Y38.362Z0F1200
G1 X58.097Y38.647Z0F1200
G1 X58.143Y39.378Z0F1200
G1 X58.114Y40.149Z0F1200
G1 X58.089Y40.966Z0F1200
G1 X58.051Y41.759Z0F1200
G0 Z4.8F500
G0 X58.287Y43.953Z4.8F1500
G1 Z0F500
G1 X58.197Y44.549Z0F1200
G1 X58.164Y44.897Z0F1200
G1 X58.156Y45.269Z0F1200
G1 X58.189Y45.667Z0F1200
G1 X58.255Y45.978Z0F1200
G1 X58.386Y46.832Z0F1200
G1 X58.487Y47.698Z0F1200
G1 X58.572Y48.568Z0F1200
G1 X58.643Y49.33Z0F1200
G1 X58.555Y49.854Z0F1200
G1 X58.433Y50.525Z0F1200
G1 X58.315Y51.214Z0F1200
G1 X58.195Y52.118Z0F1200
G1 X58.375Y52.685Z0F1200
G1 X58.45Y52.98Z0F1200
G1 X58.484Y53.228Z0F1200
G1 X58.474Y53.553Z0F1200
G1 X58.467Y54.592Z0F1200
G1 X58.458Y55.623Z0F1200
G1 X58.436Y56.617Z0F1200
G1 X58.396Y57.496Z0F1200
G1 X58.171Y58.133Z0F1200
G1 X57.905Y58.925Z0F1200
G1 X57.657Y59.734Z0F1200
G1 X57.452Y60.502Z0F1200
G1 X57.224Y61.151Z0F1200
G1 X56.962Y61.844Z0F1200
G1 X56.703Y62.584Z0F1200
G1 X56.483Y63.387Z0F1200
G1 X56.356Y64.267Z0F1200
G1 X56.291Y65.109Z0F1200
G1 X56.22Y66.737Z0F1200
G1 Y67.702Z0F1200
G1 X56.205Y68.637Z0F1200
G1 X56.148Y69.527Z0F1200
G1 X55.888Y71.328Z0F1200
G1 X55.614Y71.305Z0F1200
G1 X55.535Y71.297Z0F1200
G1 X55.582Y70.786Z0F1200
G1 X55.675Y69.898Z0F1200
G1 X55.727Y68.954Z0F1200
G1 X55.673Y68.034Z0F1200
G1 X55.605Y66.797Z0F1200
G1 Y65.567Z0F1200
G1 X55.676Y63.18Z0F1200
G1 X55.854Y62.599Z0F1200
G1 X56.032Y61.858Z0F1200
G1 X56.174Y61.131Z0F1200
G1 X56.285Y60.496Z0F1200
G1 X56.545Y59.724Z0F1200
G1 X56.819Y58.846Z0F1200
G1 X56.942Y58.37Z0F1200
G1 X57.04Y57.882Z0F1200
G1 X57.109Y57.376Z0F1200
G1 X57.135Y56.916Z0F1200
G1 X57.167Y56.568Z0F1200
G1 X57.152Y56.159Z0F1200
G1 X57.101Y55.781Z0F1200
G1 X57.028Y55.431Z0F1200
G1 X56.876Y54.843Z0F1200
G1 X56.758Y54.32Z0F1200
G1 X56.701Y53.832Z0F1200
G1 X56.672Y53.298Z0F1200
G1 X56.658Y52.731Z0F1200
G1 X56.639Y52.196Z0F1200
G1 X56.677Y51.532Z0F1200
G1 X56.73Y50.799Z0F1200
G1 X56.773Y50.043Z0F1200
G1 X56.783Y49.216Z0F1200
G1 X56.617Y48.113Z0F1200
G1 X56.47Y47.093Z0F1200
G1 X56.337Y46.079Z0F1200
G1 X56.242Y45.208Z0F1200
G1 X56.309Y44.794Z0F1200
G1 X56.408Y44.258Z0F1200
G1 X56.504Y43.668Z0F1200
G1 X56.573Y42.95Z0F1200
G1 X56.364Y41.807Z0F1200
G1 X56.217Y40.85Z0F1200
G1 X56.091Y39.854Z0F1200
G1 X55.989Y38.843Z0F1200
G1 X55.885Y37.884Z0F1200
G1 X58.513Y37.858Z0F1200
G1 X58.596Y38.613Z0F1200
G1 X58.643Y39.37Z0F1200
G1 X58.614Y40.167Z0F1200
G1 X58.588Y40.99Z0F1200
G1 X58.549Y41.807Z0F1200
G1 X58.481Y42.59Z0F1200
G1 X58.363Y43.395Z0F1200
G1 X58.287Y43.953Z0F1200
G0 Z4.8F500
G0 X58.657Y45.254Z4.8F1500
G1 Z0F500
G1 X58.685Y45.594Z0F1200
G1 X58.75Y45.9Z0F1200
G1 X58.879Y46.749Z0F1200
G1 X58.983Y47.63Z0F1200
G1 X59.07Y48.521Z0F1200
G1 X59.147Y49.349Z0F1200
G1 X59.045Y49.949Z0F1200
G1 X58.925Y50.612Z0F1200
G1 X58.81Y51.29Z0F1200
G1 X58.706Y52.073Z0F1200
G1 X58.854Y52.542Z0F1200
G1 X58.942Y52.886Z0F1200
G1 X58.985Y53.201Z0F1200
G1 X58.974Y53.563Z0F1200
G1 X58.967Y54.597Z0F1200
G1 X58.958Y55.621Z0F1200
G1 X58.935Y56.639Z0F1200
G1 X58.892Y57.591Z0F1200
G1 X58.644Y58.295Z0F1200
G1 X58.381Y59.078Z0F1200
G1 X58.138Y59.873Z0F1200
G1 X57.93Y60.649Z0F1200
G1 X57.695Y61.317Z0F1200
G1 X57.432Y62.015Z0F1200
G1 X57.181Y62.733Z0F1200
G1 X56.973Y63.489Z0F1200
G1 X56.854Y64.322Z0F1200
G1 X56.79Y65.14Z0F1200
G1 X56.72Y66.748Z0F1200
G1 Y67.709Z0F1200
G1 X56.705Y68.656Z0F1200
G1 X56.646Y69.581Z0F1200
G1 X56.315Y71.867Z0F1200
G1 X56.189Y71.854Z0F1200
G1 X55.572Y71.803Z0F1200
G1 X55.316Y71.778Z0F1200
G1 X55.156Y71.756Z0F1200
G1 X55.041Y71.679Z0F1200
G1 X55Y71.646Z0F1200
G1 Y71.637Z0F1200
G1 X55.085Y70.727Z0F1200
G1 X55.177Y69.858Z0F1200
G1 X55.226Y68.955Z0F1200
G1 X55.174Y68.063Z0F1200
G1 X55.105Y66.815Z0F1200
G1 Y65.569Z0F1200
G1 X55.179Y63.097Z0F1200
G1 X55.372Y62.467Z0F1200
G1 X55.543Y61.751Z0F1200
G1 X55.682Y61.04Z0F1200
G1 X55.799Y60.371Z0F1200
G1 X56.069Y59.569Z0F1200
G1 X56.338Y58.709Z0F1200
G1 X56.454Y58.258Z0F1200
G1 X56.547Y57.799Z0F1200
G1 X56.611Y57.329Z0F1200
G1 X56.636Y56.886Z0F1200
G1 X56.666Y56.554Z0F1200
G1 X56.653Y56.201Z0F1200
G1 X56.607Y55.865Z0F1200
G1 X56.541Y55.544Z0F1200
G1 X56.388Y54.949Z0F1200
G1 X56.265Y54.406Z0F1200
G1 X56.203Y53.879Z0F1200
G1 X56.173Y53.314Z0F1200
G1 X56.158Y52.747Z0F1200
G1 X56.138Y52.19Z0F1200
G1 X56.178Y51.496Z0F1200
G1 X56.231Y50.767Z0F1200
G1 X56.274Y50.026Z0F1200
G1 X56.283Y49.25Z0F1200
G1 X56.123Y48.187Z0F1200
G1 X55.975Y47.164Z0F1200
G1 X55.842Y46.155Z0F1200
G1 X55.738Y45.194Z0F1200
G1 X55.813Y44.725Z0F1200
G1 X55.916Y44.173Z0F1200
G1 X56.008Y43.604Z0F1200
G1 X56.069Y42.972Z0F1200
G1 X55.874Y41.907Z0F1200
G1 X55.722Y40.915Z0F1200
G1 X55.593Y39.901Z0F1200
G1 X55.491Y38.895Z0F1200
G1 X55.329Y37.389Z0F1200
G1 X58.96Y37.354Z0F1200
G1 X59.094Y38.566Z0F1200
G1 X59.144Y39.368Z0F1200
G1 X59.114Y40.184Z0F1200
G1 X59.088Y41.014Z0F1200
G1 X59.048Y41.843Z0F1200
G1 X58.978Y42.648Z0F1200
G1 X58.858Y43.465Z0F1200
G1 X58.78Y44.035Z0F1200
G1 X58.693Y44.61Z0F1200
G1 X58.664Y44.926Z0F1200
G1 X58.657Y45.254Z0F1200
G0 Z4.8F500
G0 X59.304Y51.364Z4.8F1500
G1 Z0F500
G1 X59.216Y52.028Z0F1200
G1 X59.335Y52.406Z0F1200
G1 X59.433Y52.788Z0F1200
G1 X59.486Y53.175Z0F1200
G1 X59.474Y53.572Z0F1200
G1 X59.467Y54.602Z0F1200
G1 X59.458Y55.632Z0F1200
G1 X59.435Y56.662Z0F1200
G1 X59.388Y57.688Z0F1200
G1 X59.117Y58.458Z0F1200
G1 X58.857Y59.231Z0F1200
G1 X58.619Y60.01Z0F1200
G1 X58.408Y60.798Z0F1200
G1 X58.163Y61.494Z0F1200
G1 X57.902Y62.186Z0F1200
G1 X57.658Y62.882Z0F1200
G1 X57.464Y63.591Z0F1200
G1 X57.351Y64.377Z0F1200
G1 X57.289Y65.17Z0F1200
G1 X57.22Y66.759Z0F1200
G1 Y67.717Z0F1200
G1 X57.205Y68.675Z0F1200
G1 X57.144Y69.63Z0F1200
G1 X56.737Y72.442Z0F1200
G1 X56.627Y72.408Z0F1200
G1 X56.419Y72.379Z0F1200
G1 X56.145Y72.353Z0F1200
G1 X55.531Y72.302Z0F1200
G1 X55.257Y72.275Z0F1200
G1 X55.049Y72.246Z0F1200
G1 X54.939Y72.212Z0F1200
G1 X54.747Y72.083Z0F1200
G1 X54.574Y71.946Z0F1200
G1 X54.512Y71.866Z0F1200
G1 X54.476Y71.774Z0F1200
G1 X54.472Y71.668Z0F1200
G1 X54.508Y71.543Z0F1200
G1 X54.587Y70.681Z0F1200
G1 X54.678Y69.819Z0F1200
G1 X54.725Y68.956Z0F1200
G1 X54.675Y68.092Z0F1200
G1 X54.605Y66.824Z0F1200
G1 Y65.554Z0F1200
G1 X54.681Y63.016Z0F1200
G1 X54.889Y62.336Z0F1200
G1 X55.054Y61.646Z0F1200
G1 X55.19Y60.949Z0F1200
G1 X55.313Y60.249Z0F1200
G1 X55.594Y59.415Z0F1200
G1 X55.857Y58.572Z0F1200
G1 X55.967Y58.146Z0F1200
G1 X56.054Y57.716Z0F1200
G1 X56.113Y57.281Z0F1200
G1 X56.138Y56.84Z0F1200
G1 X56.165Y56.541Z0F1200
G1 X56.154Y56.244Z0F1200
G1 X56.114Y55.95Z0F1200
G1 X56.054Y55.657Z0F1200
G1 X55.903Y55.074Z0F1200
G1 X55.771Y54.49Z0F1200
G1 X55.704Y53.918Z0F1200
G1 X55.673Y53.341Z0F1200
G1 X55.658Y52.762Z0F1200
G1 X55.638Y52.185Z0F1200
G1 X55.679Y51.46Z0F1200
G1 X55.732Y50.734Z0F1200
G1 X55.774Y50.009Z0F1200
G1 X55.782Y49.285Z0F1200
G1 X55.628Y48.261Z0F1200
G1 X55.48Y47.236Z0F1200
G1 X55.345Y46.209Z0F1200
G1 X55.233Y45.181Z0F1200
G1 X55.322Y44.634Z0F1200
G1 X55.423Y44.087Z0F1200
G1 X55.512Y43.54Z0F1200
G1 X55.564Y42.993Z0F1200
G1 X55.38Y41.987Z0F1200
G1 X55.226Y40.978Z0F1200
G1 X55.097Y39.964Z0F1200
G1 X54.994Y38.947Z0F1200
G1 X54.772Y36.895Z0F1200
G1 X59.408Y36.849Z0F1200
G1 X59.592Y38.522Z0F1200
G1 X59.645Y39.36Z0F1200
G1 X59.613Y40.201Z0F1200
G1 X59.587Y41.038Z0F1200
G1 X59.547Y41.873Z0F1200
G1 X59.475Y42.706Z0F1200
G1 X59.353Y43.535Z0F1200
G1 X59.276Y44.103Z0F1200
G1 X59.19Y44.671Z0F1200
G1 X59.163Y44.955Z0F1200
G1 X59.157Y45.238Z0F1200
G1 X59.181Y45.521Z0F1200
G1 X59.241Y45.804Z0F1200
G1 X59.376Y46.69Z0F1200
G1 X59.48Y47.582Z0F1200
G1 X59.567Y48.475Z0F1200
G1 X59.651Y49.367Z0F1200
G1 X59.539Y50.032Z0F1200
G1 X59.417Y50.698Z0F1200
G1 X59.304Y51.364Z0F1200
;Offset @ 900 mm/min, 80% power

M8
G0 Z4.8F500
G0 X60.055Y55.118Z4.8F1500
G1 Z0F500
;Layer Green
G1 X59.971Y55.1Z0F1200
G1 X60.024Y55.078Z0F1200
G1 X60.055Z0F1200
G1 Y55.118Z0F1200
G0 Z4.8F500
G0 X61.742Y50.938Z4.8F1500
G1 Z0F500
