;LightBurn 1.6.04
;Custom GCode device profile, absolute coords
;Bounds: X64.57 Y41.36 to X113.44 Y74.19
G00 G17 G40 G21 G54
G90
M3
G1 Z10 F1500
;Scan @ 1500 mm/min, 80% power

M8
G0 Z3.5 F1500
G0 X69.071 Y48.086 Z3.5 
G1 Z0 F1500
;Layer Red
G91
G1 X3.134 Z0 S800 F1500
G0 Z5 F500
G1 X1.089 Y0.9 Z0 S0 F1500
G0 Z-5 F500
G1 X-5.312 Z0 S800 F1500
G0 Z5 F500
G1 X-0.706 Y0.9 Z0 S0 F1500
G0 Z-5 F500
G1 X6.724 Z0 S800 F1500
G0 Z5 F500
G1 X0.541 Y0.9 Z0 S0 F1500
G0 Z-5 F500
G1 X-7.806 Z0 S800 F1500
G0 Z5 F500
G1 X-0.435 Y0.9 Z0 S0 F1500
G0 Z-5 F500
G1 X8.676 Z0 S800 F1500
G0 Z5 F500
G1 X0.366 Y0.9 Z0 S0 F1500
G0 Z-5 F500
G1 X-9.407 Z0 S800 F1500
G0 Z5 F500
G1 X-0.303 Y0.9 Z0 S0 F1500
G0 Z-5 F500
G1 X10.012 Z0 S800 F1500
G0 Z5 F500
G1 X0.253 Y0.9 Z0 S0 F1500
G0 Z-5 F500
G1 X-10.518 Z0 S800 F1500
G0 Z5 F500
G1 X-0.212 Y0.9 Z0 S0 F1500
G0 Z-5 F500
G1 X10.942 Z0 S800 F1500
G0 Z5 F500
G1 X0.18 Y0.9 Z0 S0 F1500
G0 Z-5 F500
G1 X-11.301 Z0 S800 F1500
G0 Z5 F500
G1 X-0.149 Y0.9 Z0 S0 F1500
G0 Z-5 F500
G1 X11.598 Z0 S800 F1500
G0 Z5 F500
G1 X0.106 Y0.9 Z0 S0 F1500
G0 Z-5 F500
G1 X-11.809 Z0 S800 F1500
G0 Z5 F500
G1 X-0.082 Y0.9 Z0 S0 F1500
G0 Z-5 F500
G1 X11.973 Z0 S800 F1500
G0 Z5 F500
G1 X0.06 Y0.9 Z0 S0 F1500
G0 Z-5 F500
G1 X-12.094 Z0 S800 F1500
G0 Z5 F500
G1 X-0.02 Y0.9 Z0 S0 F1500
G0 Z-5 F500
G1 X12.134 Z0 S800 F1500
G0 Z5 F500
G1 Y0.9 Z0 S0 F1500
G0 Z-5 F500
G1 X-12.134 Z0 S800 F1500
G0 Z5 F500
G1 X0.02 Y0.9 Z0 S0 F1500
G0 Z-5 F500
G1 X12.094 Z0 S800 F1500
G0 Z5 F500
G1 X-0.06 Y0.9 Z0 S0 F1500
G0 Z-5 F500
G1 X-11.973 Z0 S800 F1500
G0 Z5 F500
G1 X0.082 Y0.9 Z0 S0 F1500
G0 Z-5 F500
G1 X11.809 Z0 S800 F1500
G0 Z5 F500
G1 X-0.106 Y0.9 Z0 S0 F1500
G0 Z-5 F500
G1 X-11.598 Z0 S800 F1500
G0 Z5 F500
G1 X0.149 Y0.9 Z0 S0 F1500
G0 Z-5 F500
G1 X11.301 Z0 S800 F1500
G0 Z5 F500
G1 X-0.18 Y0.9 Z0 S0 F1500
G0 Z-5 F500
G1 X-10.942 Z0 S800 F1500
G0 Z5 F500
G1 X0.212 Y0.9 Z0 S0 F1500
G0 Z-5 F500
G1 X10.518 Z0 S800 F1500
G0 Z5 F500
G1 X-0.253 Y0.9 Z0 S0 F1500
G0 Z-5 F500
G1 X-10.012 Z0 S800 F1500
G0 Z5 F500
G1 X0.303 Y0.9 Z0 S0 F1500
G0 Z-5 F500
G1 X9.407 Z0 S800 F1500
G0 Z5 F500
G1 X-0.366 Y0.9 Z0 S0 F1500
G0 Z-5 F500
G1 X-8.676 Z0 S800 F1500
G0 Z5 F500
G1 X0.435 Y0.9 Z0 S0 F1500
G0 Z-5 F500
G1 X7.806 Z0 S800 F1500
G0 Z5 F500
G1 X-0.541 Y0.9 Z0 S0 F1500
G0 Z-5 F500
G1 X-6.724 Z0 S800 F1500
G0 Z5 F500
G1 X0.706 Y0.9 Z0 S0 F1500
G0 Z-5 F500
G1 X5.312 Z0 S800 F1500
G0 Z5 F500
G1 X-1.089 Y0.9 Z0 S0 F1500
G0 Z-5 F500
G1 X-3.134 Z0 S800 F1500
G90
;Cut @ 1800 mm/min, 90% power

M8
G0 Z3.5 F1500
G0 X87.532 Y59.182 Z3.5 F1500
G1 Z0 F1500
;Layer Blue
G1 X88.114 Y59.407 Z0 S900 F1500
G1 X88.718 Y59.545 Z0 F1500
G1 X89.339 Y59.592 Z0 F1500
G1 X89.96 Y59.545 Z0 F1500
G1 X90.564 Y59.407 Z0 F1500
G1 X91.146 Y59.182 Z0 F1500
G1 X91.705 Y58.876 Z0 F1500
G1 X92.236 Y58.492 Z0 F1500
G1 X92.737 Y58.035 Z0 F1500
G1 X93.205 Y57.51 Z0 F1500
G1 X93.636 Y56.922 Z0 F1500
G1 X94.029 Y56.274 Z0 F1500
G1 X94.379 Y55.573 Z0 F1500
G1 X94.683 Y54.821 Z0 F1500
G1 X94.939 Y54.024 Z0 F1500
G1 X95.143 Y53.186 Z0 F1500
G1 X95.293 Y52.313 Z0 F1500
G1 X95.385 Y51.407 Z0 F1500
G1 X95.416 Y50.475 Z0 F1500
G1 X95.385 Y49.543 Z0 F1500
G1 X95.293 Y48.638 Z0 F1500
G1 X95.143 Y47.764 Z0 F1500
G1 X94.939 Y46.927 Z0 F1500
G1 X94.683 Y46.13 Z0 F1500
G1 X94.379 Y45.378 Z0 F1500
G1 X94.029 Y44.676 Z0 F1500
G1 X93.636 Y44.029 Z0 F1500
G1 X93.205 Y43.44 Z0 F1500
G1 X92.737 Y42.916 Z0 F1500
G1 X92.236 Y42.459 Z0 F1500
G1 X91.705 Y42.075 Z0 F1500
G1 X91.146 Y41.768 Z0 F1500
G1 X90.564 Y41.544 Z0 F1500
G1 X89.96 Y41.406 Z0 F1500
G1 X89.339 Y41.359 Z0 F1500
G1 X88.718 Y41.406 Z0 F1500
G1 X88.114 Y41.544 Z0 F1500
G1 X87.532 Y41.768 Z0 F1500
G1 X86.973 Y42.075 Z0 F1500
G1 X86.442 Y42.459 Z0 F1500
G1 X85.941 Y42.916 Z0 F1500
G1 X85.473 Y43.44 Z0 F1500
G1 X85.041 Y44.029 Z0 F1500
G1 X84.649 Y44.676 Z0 F1500
G1 X84.299 Y45.378 Z0 F1500
G1 X83.995 Y46.13 Z0 F1500
G1 X83.739 Y46.927 Z0 F1500
G1 X83.535 Y47.764 Z0 F1500
G1 X83.385 Y48.638 Z0 F1500
G1 X83.293 Y49.543 Z0 F1500
G1 X83.261 Y50.475 Z0 F1500
G1 X83.293 Y51.407 Z0 F1500
G1 X83.385 Y52.313 Z0 F1500
G1 X83.535 Y53.186 Z0 F1500
G1 X83.739 Y54.024 Z0 F1500
G1 X83.995 Y54.821 Z0 F1500
G1 X84.299 Y55.573 Z0 F1500
G1 X84.649 Y56.274 Z0 F1500
G1 X85.041 Y56.922 Z0 F1500
G1 X85.473 Y57.51 Z0 F1500
G1 X85.941 Y58.035 Z0 F1500
G1 X86.442 Y58.492 Z0 F1500
G1 X86.973 Y58.876 Z0 F1500
G1 X87.532 Y59.182 Z0 F1500
;Offset @ 1500 mm/min, 90% power

M8
G0 Z3.5 F1500
G0 X105.12 Y60.311 Z3.5 F1500
G1 Z0 F1500
;Layer Green
G1 X105.171 Y60.404 Z0 F1500
G1 X105.222 Y60.518 Z0 F1500
G1 X105.266 Y60.649 Z0 F1500
G1 X105.3 Y60.796 Z0 F1500
G1 X105.323 Y60.955 Z0 F1500
G1 X105.331 Y61.136 Z0 F1500
G1 X105.323 Y61.316 Z0 F1500
G1 X105.3 Y61.479 Z0 F1500
G1 X105.267 Y61.621 Z0 F1500
G1 X105.222 Y61.754 Z0 F1500
G1 X105.171 Y61.868 Z0 F1500
G1 X105.12 Y61.961 Z0 F1500
G1 X105.077 Y62.022 Z0 F1500
G1 X105.036 Y61.962 Z0 F1500
G1 X104.984 Y61.868 Z0 F1500
G1 X104.933 Y61.754 Z0 F1500
G1 X104.888 Y61.621 Z0 F1500
G1 X104.855 Y61.479 Z0 F1500
G1 X104.832 Y61.316 Z0 F1500
G1 X104.824 Y61.136 Z0 F1500
G1 X104.832 Y60.955 Z0 F1500
G1 X104.854 Y60.796 Z0 F1500
G1 X104.889 Y60.649 Z0 F1500
G1 X104.933 Y60.518 Z0 F1500
G1 X104.984 Y60.404 Z0 F1500
G1 X105.036 Y60.31 Z0 F1500
G1 X105.077 Y60.25 Z0 F1500
G1 X105.12 Y60.311 Z0 F1500
G0 Z3.5 F1500
G0 X106.185 Y61.646 Z3.5 F1500
G1 Z0 F1500
G1 X106.132 Y61.872 Z0 F1500
G1 X106.063 Y62.077 Z0 F1500
G1 X105.978 Y62.269 Z0 F1500
G1 X105.886 Y62.434 Z0 F1500
G1 X105.782 Y62.585 Z0 F1500
G1 X105.678 Y62.711 Z0 F1500
G1 X105.577 Y62.811 Z0 F1500
G1 X105.477 Y62.892 Z0 F1500
G1 X105.395 Y62.947 Z0 F1500
G1 X105.319 Y62.986 Z0 F1500
G1 X105.249 Y63.015 Z0 F1500
G1 X105.198 Y63.028 Z0 F1500
G1 X105.138 Y63.039 Z0 F1500
G1 X105.077 Y63.042 Z0 F1500
G1 X105.013 Y63.039 Z0 F1500
G1 X104.96 Y63.03 Z0 F1500
G1 X104.905 Y63.014 Z0 F1500
G1 X104.836 Y62.987 Z0 F1500
G1 X104.761 Y62.947 Z0 F1500
G1 X104.678 Y62.892 Z0 F1500
G1 X104.578 Y62.811 Z0 F1500
G1 X104.477 Y62.71 Z0 F1500
G1 X104.372 Y62.584 Z0 F1500
G1 X104.27 Y62.436 Z0 F1500
G1 X104.177 Y62.269 Z0 F1500
G1 X104.092 Y62.077 Z0 F1500
G1 X104.023 Y61.872 Z0 F1500
G1 X103.97 Y61.646 Z0 F1500
G1 X103.935 Y61.399 Z0 F1500
G1 X103.923 Y61.136 Z0 F1500
G1 X103.935 Y60.872 Z0 F1500
G1 X103.97 Y60.627 Z0 F1500
G1 X104.023 Y60.4 Z0 F1500
G1 X104.092 Y60.195 Z0 F1500
G1 X104.177 Y60.003 Z0 F1500
G1 X104.27 Y59.836 Z0 F1500
G1 X104.372 Y59.688 Z0 F1500
G1 X104.477 Y59.562 Z0 F1500
G1 X104.578 Y59.461 Z0 F1500
G1 X104.678 Y59.38 Z0 F1500
G1 X104.76 Y59.325 Z0 F1500
G1 X104.838 Y59.284 Z0 F1500
G1 X104.904 Y59.258 Z0 F1500
G1 X104.96 Y59.242 Z0 F1500
G1 X105.013 Y59.234 Z0 F1500
G1 X105.077 Y59.23 Z0 F1500
G1 X105.138 Y59.233 Z0 F1500
G1 X105.198 Y59.244 Z0 F1500
G1 X105.25 Y59.258 Z0 F1500
G1 X105.317 Y59.285 Z0 F1500
G1 X105.395 Y59.326 Z0 F1500
G1 X105.477 Y59.38 Z0 F1500
G1 X105.577 Y59.461 Z0 F1500
G1 X105.678 Y59.561 Z0 F1500
G1 X105.782 Y59.687 Z0 F1500
G1 X105.886 Y59.838 Z0 F1500
G1 X105.978 Y60.003 Z0 F1500
G1 X106.063 Y60.195 Z0 F1500
G1 X106.132 Y60.4 Z0 F1500
G1 X106.185 Y60.627 Z0 F1500
G1 X106.22 Y60.872 Z0 F1500
G1 X106.232 Y61.136 Z0 F1500
G1 X106.22 Y61.399 Z0 F1500
G1 X106.185 Y61.646 Z0 F1500
G0 Z3.5 F1500
G0 X106.017 Y63.613 Z3.5 
G1 Z0 F1500
G1 X105.85 Y63.724 Z0 F1500
G1 X105.695 Y63.805 Z0 F1500
G1 X105.542 Y63.867 Z0 F1500
G1 X105.387 Y63.91 Z0 F1500
G1 X105.242 Y63.934 Z0 F1500
G1 X105.077 Y63.943 Z0 F1500
G1 X104.914 Y63.934 Z0 F1500
G1 X104.767 Y63.91 Z0 F1500
G1 X104.612 Y63.866 Z0 F1500
G1 X104.463 Y63.807 Z0 F1500
G1 X104.304 Y63.723 Z0 F1500
G1 X104.138 Y63.613 Z0 F1500
G1 X103.979 Y63.483 Z0 F1500
G1 X103.809 Y63.315 Z0 F1500
G1 X103.654 Y63.129 Z0 F1500
G1 X103.505 Y62.913 Z0 F1500
G1 X103.37 Y62.669 Z0 F1500
G1 X103.251 Y62.401 Z0 F1500
G1 X103.156 Y62.117 Z0 F1500
G1 X103.083 Y61.809 Z0 F1500
G1 X103.039 Y61.487 Z0 F1500
G1 X103.022 Y61.136 Z0 F1500
G1 X103.039 Y60.784 Z0 F1500
G1 X103.083 Y60.464 Z0 F1500
G1 X103.156 Y60.154 Z0 F1500
G1 X103.252 Y59.868 Z0 F1500
G1 X103.37 Y59.603 Z0 F1500
G1 X103.505 Y59.359 Z0 F1500
G1 X103.654 Y59.143 Z0 F1500
G1 X103.809 Y58.957 Z0 F1500
G1 X103.979 Y58.789 Z0 F1500
G1 X104.138 Y58.659 Z0 F1500
G1 X104.308 Y58.546 Z0 F1500
G1 X104.461 Y58.465 Z0 F1500
G1 X104.609 Y58.407 Z0 F1500
G1 X104.767 Y58.362 Z0 F1500
G1 X104.913 Y58.338 Z0 F1500
G1 X105.077 Y58.329 Z0 F1500
G1 X105.242 Y58.338 Z0 F1500
G1 X105.387 Y58.362 Z0 F1500
G1 X105.546 Y58.407 Z0 F1500
G1 X105.691 Y58.464 Z0 F1500
G1 X105.849 Y58.547 Z0 F1500
G1 X106.017 Y58.659 Z0 F1500
G1 X106.176 Y58.789 Z0 F1500
G1 X106.343 Y58.954 Z0 F1500
G1 X106.501 Y59.144 Z0 F1500
G1 X106.651 Y59.362 Z0 F1500
G1 X106.785 Y59.603 Z0 F1500
G1 X106.902 Y59.868 Z0 F1500
G1 X106.999 Y60.154 Z0 F1500
G1 X107.072 Y60.464 Z0 F1500
G1 X107.116 Y60.784 Z0 F1500
G1 X107.133 Y61.136 Z0 F1500
G1 X107.116 Y61.487 Z0 F1500
G1 X107.071 Y61.809 Z0 F1500
G1 X106.999 Y62.117 Z0 F1500
G1 X106.903 Y62.401 Z0 F1500
G1 X106.785 Y62.669 Z0 F1500
G1 X106.651 Y62.91 Z0 F1500
G1 X106.501 Y63.128 Z0 F1500
G1 X106.343 Y63.318 Z0 F1500
G1 X106.176 Y63.483 Z0 F1500
G1 X106.017 Y63.613 Z0 F1500
G0 Z3.5 F1500
G0 X104.569 Y64.789 Z3.5 
G1 Z0 F1500
G1 X104.324 Y64.72 Z0 F1500
G1 X104.085 Y64.625 Z0 F1500
G1 X103.844 Y64.498 Z0 F1500
G1 X103.606 Y64.341 Z0 F1500
G1 X103.372 Y64.149 Z0 F1500
G1 X103.151 Y63.931 Z0 F1500
G1 X102.934 Y63.671 Z0 F1500
G1 X102.739 Y63.387 Z0 F1500
G1 X102.563 Y63.07 Z0 F1500
G1 X102.413 Y62.731 Z0 F1500
G1 X102.29 Y62.363 Z0 F1500
G1 X102.198 Y61.977 Z0 F1500
G1 X102.141 Y61.565 Z0 F1500
G1 X102.121 Y61.136 Z0 F1500
G1 X102.141 Y60.707 Z0 F1500
G1 X102.198 Y60.296 Z0 F1500
G1 X102.29 Y59.908 Z0 F1500
G1 X102.413 Y59.541 Z0 F1500
G1 X102.563 Y59.202 Z0 F1500
G1 X102.739 Y58.885 Z0 F1500
G1 X102.934 Y58.601 Z0 F1500
G1 X103.151 Y58.341 Z0 F1500
G1 X103.372 Y58.123 Z0 F1500
G1 X103.606 Y57.931 Z0 F1500
G1 X103.846 Y57.772 Z0 F1500
G1 X104.083 Y57.647 Z0 F1500
G1 X104.323 Y57.552 Z0 F1500
G1 X104.569 Y57.483 Z0 F1500
G1 X104.817 Y57.441 Z0 F1500
G1 X105.077 Y57.427 Z0 F1500
G1 X105.338 Y57.441 Z0 F1500
G1 X105.585 Y57.483 Z0 F1500
G1 X105.832 Y57.552 Z0 F1500
G1 X106.07 Y57.647 Z0 F1500
G1 X106.309 Y57.772 Z0 F1500
G1 X106.549 Y57.931 Z0 F1500
G1 X106.783 Y58.123 Z0 F1500
G1 X107.004 Y58.341 Z0 F1500
G1 X107.22 Y58.601 Z0 F1500
G1 X107.416 Y58.885 Z0 F1500
G1 X107.592 Y59.202 Z0 F1500
G1 X107.742 Y59.541 Z0 F1500
G1 X107.865 Y59.908 Z0 F1500
G1 X107.957 Y60.296 Z0 F1500
G1 X108.014 Y60.707 Z0 F1500
G1 X108.034 Y61.136 Z0 F1500
G1 X108.014 Y61.565 Z0 F1500
G1 X107.957 Y61.977 Z0 F1500
G1 X107.865 Y62.363 Z0 F1500
G1 X107.742 Y62.731 Z0 F1500
G1 X107.592 Y63.07 Z0 F1500
G1 X107.416 Y63.387 Z0 F1500
G1 X107.22 Y63.671 Z0 F1500
G1 X107.004 Y63.931 Z0 F1500
G1 X106.783 Y64.149 Z0 F1500
G1 X106.549 Y64.341 Z0 F1500
G1 X106.31 Y64.499 Z0 F1500
G1 X106.072 Y64.624 Z0 F1500
G1 X105.829 Y64.721 Z0 F1500
G1 X105.585 Y64.789 Z0 F1500
G1 X105.342 Y64.83 Z0 F1500
G1 X105.077 Y64.844 Z0 F1500
G1 X104.813 Y64.83 Z0 F1500
G1 X104.569 Y64.789 Z0 F1500
G0 Z3.5 F1500
G0 X102.483 Y64.536 Z3.5 
G1 Z0 F1500
G1 X102.219 Y64.219 Z0 F1500
G1 X101.972 Y63.858 Z0 F1500
G1 X101.757 Y63.473 Z0 F1500
G1 X101.572 Y63.054 Z0 F1500
G1 X101.424 Y62.614 Z0 F1500
G1 X101.313 Y62.145 Z0 F1500
G1 X101.244 Y61.648 Z0 F1500
G1 X101.22 Y61.136 Z0 F1500
G1 X101.244 Y60.624 Z0 F1500
G1 X101.313 Y60.128 Z0 F1500
G1 X101.424 Y59.657 Z0 F1500
G1 X101.572 Y59.218 Z0 F1500
G1 X101.757 Y58.799 Z0 F1500
G1 X101.972 Y58.414 Z0 F1500
G1 X102.219 Y58.053 Z0 F1500
G1 X102.483 Y57.736 Z0 F1500
G1 X102.77 Y57.452 Z0 F1500
G1 X103.074 Y57.204 Z0 F1500
G1 X103.386 Y56.997 Z0 F1500
G1 X103.705 Y56.83 Z0 F1500
G1 X104.036 Y56.698 Z0 F1500
G1 X104.373 Y56.604 Z0 F1500
G1 X104.717 Y56.546 Z0 F1500
G1 X105.077 Y56.526 Z0 F1500
G1 X105.438 Y56.546 Z0 F1500
G1 X105.783 Y56.604 Z0 F1500
G1 X106.121 Y56.698 Z0 F1500
G1 X106.446 Y56.828 Z0 F1500
G1 X106.771 Y56.999 Z0 F1500
G1 X107.081 Y57.204 Z0 F1500
G1 X107.385 Y57.452 Z0 F1500
G1 X107.669 Y57.734 Z0 F1500
G1 X107.939 Y58.058 Z0 F1500
G1 X108.182 Y58.411 Z0 F1500
G1 X108.398 Y58.799 Z0 F1500
G1 X108.583 Y59.218 Z0 F1500
G1 X108.73 Y59.657 Z0 F1500
G1 X108.842 Y60.128 Z0 F1500
G1 X108.911 Y60.624 Z0 F1500
G1 X108.935 Y61.136 Z0 F1500
G1 X108.911 Y61.648 Z0 F1500
G1 X108.842 Y62.145 Z0 F1500
G1 X108.731 Y62.614 Z0 F1500
G1 X108.583 Y63.054 Z0 F1500
G1 X108.398 Y63.473 Z0 F1500
G1 X108.182 Y63.861 Z0 F1500
G1 X107.939 Y64.214 Z0 F1500
G1 X107.669 Y64.538 Z0 F1500
G1 X107.385 Y64.82 Z0 F1500
G1 X107.081 Y65.068 Z0 F1500
G1 X106.771 Y65.273 Z0 F1500
G1 X106.446 Y65.444 Z0 F1500
G1 X106.12 Y65.574 Z0 F1500
G1 X105.783 Y65.668 Z0 F1500
G1 X105.438 Y65.726 Z0 F1500
G1 X105.077 Y65.746 Z0 F1500
G1 X104.717 Y65.726 Z0 F1500
G1 X104.373 Y65.668 Z0 F1500
G1 X104.036 Y65.574 Z0 F1500
G1 X103.708 Y65.443 Z0 F1500
G1 X103.384 Y65.273 Z0 F1500
G1 X103.074 Y65.068 Z0 F1500
G1 X102.77 Y64.82 Z0 F1500
G1 X102.483 Y64.536 Z0 F1500
G0 Z3.5 F1500
G0 X100.557 Y62.86 Z3.5 
G1 Z0 F1500
G1 X100.427 Y62.307 Z0 F1500
G1 X100.347 Y61.736 Z0 F1500
G1 X100.319 Y61.136 Z0 F1500
G1 X100.347 Y60.535 Z0 F1500
G1 X100.427 Y59.966 Z0 F1500
G1 X100.558 Y59.411 Z0 F1500
G1 X100.732 Y58.891 Z0 F1500
G1 X100.95 Y58.399 Z0 F1500
G1 X101.209 Y57.934 Z0 F1500
G1 X101.497 Y57.514 Z0 F1500
G1 X101.818 Y57.128 Z0 F1500
G1 X102.171 Y56.779 Z0 F1500
G1 X102.537 Y56.48 Z0 F1500
G1 X102.927 Y56.222 Z0 F1500
G1 X103.333 Y56.008 Z0 F1500
G1 X103.745 Y55.845 Z0 F1500
G1 X104.174 Y55.724 Z0 F1500
G1 X104.618 Y55.65 Z0 F1500
G1 X105.077 Y55.625 Z0 F1500
G1 X105.538 Y55.65 Z0 F1500
G1 X105.98 Y55.724 Z0 F1500
G1 X106.407 Y55.843 Z0 F1500
G1 X106.825 Y56.01 Z0 F1500
G1 X107.228 Y56.222 Z0 F1500
G1 X107.618 Y56.48 Z0 F1500
G1 X107.984 Y56.779 Z0 F1500
G1 X108.335 Y57.126 Z0 F1500
G1 X108.658 Y57.515 Z0 F1500
G1 X108.946 Y57.935 Z0 F1500
G1 X109.205 Y58.399 Z0 F1500
G1 X109.422 Y58.891 Z0 F1500
G1 X109.597 Y59.411 Z0 F1500
G1 X109.728 Y59.966 Z0 F1500
G1 X109.808 Y60.535 Z0 F1500
G1 X109.835 Y61.136 Z0 F1500
G1 X109.808 Y61.736 Z0 F1500
G1 X109.728 Y62.307 Z0 F1500
G1 X109.598 Y62.86 Z0 F1500
G1 X109.422 Y63.381 Z0 F1500
G1 X109.205 Y63.873 Z0 F1500
G1 X108.946 Y64.337 Z0 F1500
G1 X108.658 Y64.757 Z0 F1500
G1 X108.335 Y65.146 Z0 F1500
G1 X107.984 Y65.493 Z0 F1500
G1 X107.618 Y65.792 Z0 F1500
G1 X107.23 Y66.048 Z0 F1500
G1 X106.822 Y66.263 Z0 F1500
G1 X106.407 Y66.428 Z0 F1500
G1 X105.98 Y66.548 Z0 F1500
G1 X105.538 Y66.622 Z0 F1500
G1 X105.077 Y66.647 Z0 F1500
G1 X104.618 Y66.622 Z0 F1500
G1 X104.174 Y66.548 Z0 F1500
G1 X103.748 Y66.428 Z0 F1500
G1 X103.33 Y66.262 Z0 F1500
G1 X102.926 Y66.05 Z0 F1500
G1 X102.537 Y65.792 Z0 F1500
G1 X102.171 Y65.493 Z0 F1500
G1 X101.818 Y65.144 Z0 F1500
G1 X101.497 Y64.758 Z0 F1500
G1 X101.209 Y64.338 Z0 F1500
G1 X100.95 Y63.873 Z0 F1500
G1 X100.732 Y63.381 Z0 F1500
G1 X100.557 Y62.86 Z0 F1500
G0 Z3.5 F1500
G0 X99.542 Y59.798 Z3.5 
G1 Z0 F1500
G1 X99.69 Y59.167 Z0 F1500
G1 X99.893 Y58.564 Z0 F1500
G1 X100.146 Y57.992 Z0 F1500
G1 X100.44 Y57.463 Z0 F1500
G1 X100.78 Y56.968 Z0 F1500
G1 X101.155 Y56.518 Z0 F1500
G1 X101.566 Y56.111 Z0 F1500
G1 X102.005 Y55.752 Z0 F1500
G1 X102.469 Y55.446 Z0 F1500
G1 X102.952 Y55.191 Z0 F1500
G1 X103.458 Y54.99 Z0 F1500
G1 X103.977 Y54.845 Z0 F1500
G1 X104.522 Y54.754 Z0 F1500
G1 X105.077 Y54.723 Z0 F1500
G1 X105.632 Y54.754 Z0 F1500
G1 X106.178 Y54.845 Z0 F1500
G1 X106.695 Y54.99 Z0 F1500
G1 X107.202 Y55.192 Z0 F1500
G1 X107.688 Y55.447 Z0 F1500
G1 X108.149 Y55.752 Z0 F1500
G1 X108.588 Y56.111 Z0 F1500
G1 X108.998 Y56.517 Z0 F1500
G1 X109.375 Y56.969 Z0 F1500
G1 X109.715 Y57.464 Z0 F1500
G1 X110.009 Y57.992 Z0 F1500
G1 X110.262 Y58.564 Z0 F1500
G1 X110.464 Y59.167 Z0 F1500
G1 X110.613 Y59.798 Z0 F1500
G1 X110.705 Y60.452 Z0 F1500
G1 X110.736 Y61.136 Z0 F1500
G1 X110.705 Y61.819 Z0 F1500
G1 X110.613 Y62.475 Z0 F1500
G1 X110.464 Y63.104 Z0 F1500
G1 X110.262 Y63.708 Z0 F1500
G1 X110.009 Y64.28 Z0 F1500
G1 X109.715 Y64.808 Z0 F1500
G1 X109.375 Y65.303 Z0 F1500
G1 X108.998 Y65.755 Z0 F1500
G1 X108.588 Y66.161 Z0 F1500
G1 X108.149 Y66.52 Z0 F1500
G1 X107.69 Y66.824 Z0 F1500
G1 X107.197 Y67.082 Z0 F1500
G1 X106.698 Y67.282 Z0 F1500
G1 X106.178 Y67.427 Z0 F1500
G1 X105.632 Y67.518 Z0 F1500
G1 X105.077 Y67.548 Z0 F1500
G1 X104.522 Y67.518 Z0 F1500
G1 X103.977 Y67.427 Z0 F1500
G1 X103.459 Y67.282 Z0 F1500
G1 X102.955 Y67.081 Z0 F1500
G1 X102.465 Y66.824 Z0 F1500
G1 X102.005 Y66.52 Z0 F1500
G1 X101.566 Y66.161 Z0 F1500
G1 X101.155 Y65.754 Z0 F1500
G1 X100.78 Y65.304 Z0 F1500
G1 X100.44 Y64.809 Z0 F1500
G1 X100.146 Y64.28 Z0 F1500
G1 X99.893 Y63.708 Z0 F1500
G1 X99.69 Y63.104 Z0 F1500
G1 X99.542 Y62.475 Z0 F1500
G1 X99.45 Y61.819 Z0 F1500
G1 X99.418 Y61.136 Z0 F1500
G1 X99.45 Y60.452 Z0 F1500
G1 X99.542 Y59.798 Z0 F1500
G0 Z3.5 F1500
G0 X99.674 Y56.99 Z3.5 
G1 Z0 F1500
G1 X100.062 Y56.424 Z0 F1500
G1 X100.493 Y55.907 Z0 F1500
G1 X100.962 Y55.442 Z0 F1500
G1 X101.471 Y55.027 Z0 F1500
G1 X102.011 Y54.67 Z0 F1500
G1 X102.575 Y54.374 Z0 F1500
G1 X103.167 Y54.137 Z0 F1500
G1 X103.788 Y53.963 Z0 F1500
G1 X104.417 Y53.858 Z0 F1500
G1 X105.077 Y53.822 Z0 F1500
G1 X105.737 Y53.858 Z0 F1500
G1 X106.367 Y53.963 Z0 F1500
G1 X106.989 Y54.138 Z0 F1500
G1 X107.578 Y54.372 Z0 F1500
G1 X108.145 Y54.67 Z0 F1500
G1 X108.684 Y55.027 Z0 F1500
G1 X109.193 Y55.442 Z0 F1500
G1 X109.662 Y55.907 Z0 F1500
G1 X110.092 Y56.423 Z0 F1500
G1 X110.482 Y56.992 Z0 F1500
G1 X110.816 Y57.592 Z0 F1500
G1 X111.102 Y58.237 Z0 F1500
G1 X111.331 Y58.922 Z0 F1500
G1 X111.498 Y59.629 Z0 F1500
G1 X111.603 Y60.375 Z0 F1500
G1 X111.638 Y61.136 Z0 F1500
G1 X111.603 Y61.897 Z0 F1500
G1 X111.498 Y62.643 Z0 F1500
G1 X111.331 Y63.351 Z0 F1500
G1 X111.102 Y64.035 Z0 F1500
G1 X110.816 Y64.68 Z0 F1500
G1 X110.482 Y65.28 Z0 F1500
G1 X110.092 Y65.849 Z0 F1500
G1 X109.662 Y66.365 Z0 F1500
G1 X109.193 Y66.83 Z0 F1500
G1 X108.684 Y67.245 Z0 F1500
G1 X108.145 Y67.602 Z0 F1500
G1 X107.581 Y67.898 Z0 F1500
G1 X106.986 Y68.135 Z0 F1500
G1 X106.367 Y68.309 Z0 F1500
G1 X105.737 Y68.414 Z0 F1500
G1 X105.077 Y68.45 Z0 F1500
G1 X104.417 Y68.414 Z0 F1500
G1 X103.788 Y68.309 Z0 F1500
G1 X103.167 Y68.135 Z0 F1500
G1 X102.577 Y67.899 Z0 F1500
G1 X102.009 Y67.601 Z0 F1500
G1 X101.471 Y67.245 Z0 F1500
G1 X100.962 Y66.83 Z0 F1500
G1 X100.493 Y66.365 Z0 F1500
G1 X100.062 Y65.848 Z0 F1500
G1 X99.674 Y65.282 Z0 F1500
G1 X99.338 Y64.68 Z0 F1500
G1 X99.053 Y64.035 Z0 F1500
G1 X98.824 Y63.351 Z0 F1500
G1 X98.657 Y62.643 Z0 F1500
G1 X98.552 Y61.897 Z0 F1500
G1 X98.517 Y61.136 Z0 F1500
G1 X98.552 Y60.375 Z0 F1500
G1 X98.657 Y59.629 Z0 F1500
G1 X98.824 Y58.922 Z0 F1500
G1 X99.053 Y58.237 Z0 F1500
G1 X99.338 Y57.592 Z0 F1500
G1 X99.674 Y56.99 Z0 F1500
G0 Z3.5 F1500
G0 X100.934 Y54.304 Z3.5 
G1 Z0 F1500
G1 X101.553 Y53.894 Z0 F1500
G1 X102.199 Y53.554 Z0 F1500
G1 X102.876 Y53.284 Z0 F1500
G1 X103.59 Y53.084 Z0 F1500
G1 X104.322 Y52.962 Z0 F1500
G1 X105.077 Y52.92 Z0 F1500
G1 X105.832 Y52.962 Z0 F1500
G1 X106.565 Y53.084 Z0 F1500
G1 X107.278 Y53.284 Z0 F1500
G1 X107.953 Y53.553 Z0 F1500
G1 X108.604 Y53.895 Z0 F1500
G1 X109.221 Y54.304 Z0 F1500
G1 X109.795 Y54.771 Z0 F1500
G1 X110.325 Y55.297 Z0 F1500
G1 X110.811 Y55.88 Z0 F1500
G1 X111.247 Y56.515 Z0 F1500
G1 X111.623 Y57.191 Z0 F1500
G1 X111.943 Y57.915 Z0 F1500
G1 X112.197 Y58.671 Z0 F1500
G1 X112.384 Y59.466 Z0 F1500
G1 X112.5 Y60.287 Z0 F1500
G1 X112.539 Y61.136 Z0 F1500
G1 X112.5 Y61.985 Z0 F1500
G1 X112.384 Y62.805 Z0 F1500
G1 X112.197 Y63.601 Z0 F1500
G1 X111.943 Y64.357 Z0 F1500
G1 X111.623 Y65.081 Z0 F1500
G1 X111.247 Y65.757 Z0 F1500
G1 X110.811 Y66.392 Z0 F1500
G1 X110.325 Y66.975 Z0 F1500
G1 X109.795 Y67.5 Z0 F1500
G1 X109.221 Y67.968 Z0 F1500
G1 X108.602 Y68.378 Z0 F1500
G1 X107.957 Y68.717 Z0 F1500
G1 X107.276 Y68.989 Z0 F1500
G1 X106.565 Y69.188 Z0 F1500
G1 X105.832 Y69.31 Z0 F1500
G1 X105.077 Y69.351 Z0 F1500
G1 X104.322 Y69.31 Z0 F1500
G1 X103.59 Y69.188 Z0 F1500
G1 X102.878 Y68.989 Z0 F1500
G1 X102.2 Y68.718 Z0 F1500
G1 X101.551 Y68.377 Z0 F1500
G1 X100.934 Y67.968 Z0 F1500
G1 X100.36 Y67.5 Z0 F1500
G1 X99.83 Y66.975 Z0 F1500
G1 X99.342 Y66.39 Z0 F1500
G1 X98.91 Y65.76 Z0 F1500
G1 X98.532 Y65.081 Z0 F1500
G1 X98.212 Y64.357 Z0 F1500
G1 X97.958 Y63.601 Z0 F1500
G1 X97.771 Y62.805 Z0 F1500
G1 X97.655 Y61.985 Z0 F1500
G1 X97.616 Y61.136 Z0 F1500
G1 X97.655 Y60.287 Z0 F1500
G1 X97.771 Y59.466 Z0 F1500
G1 X97.958 Y58.671 Z0 F1500
G1 X98.212 Y57.915 Z0 F1500
G1 X98.532 Y57.191 Z0 F1500
G1 X98.91 Y56.512 Z0 F1500
G1 X99.342 Y55.882 Z0 F1500
G1 X99.83 Y55.297 Z0 F1500
G1 X100.36 Y54.771 Z0 F1500
G1 X100.934 Y54.304 Z0 F1500
G0 Z3.5 F1500
G0 X103.392 Y52.205 Z3.5 
G1 Z0 F1500
G1 X104.222 Y52.066 Z0 F1500
G1 X105.077 Y52.019 Z0 F1500
G1 X105.932 Y52.066 Z0 F1500
G1 X106.763 Y52.205 Z0 F1500
G1 X107.564 Y52.429 Z0 F1500
G1 X108.332 Y52.735 Z0 F1500
G1 X109.063 Y53.12 Z0 F1500
G1 X109.753 Y53.576 Z0 F1500
G1 X110.396 Y54.101 Z0 F1500
G1 X110.99 Y54.689 Z0 F1500
G1 X111.53 Y55.337 Z0 F1500
G1 X112.011 Y56.039 Z0 F1500
G1 X112.43 Y56.791 Z0 F1500
G1 X112.782 Y57.587 Z0 F1500
G1 X113.063 Y58.425 Z0 F1500
G1 X113.27 Y59.298 Z0 F1500
G1 X113.396 Y60.204 Z0 F1500
G1 X113.439 Y61.136 Z0 F1500
G1 X113.396 Y62.068 Z0 F1500
G1 X113.27 Y62.973 Z0 F1500
G1 X113.063 Y63.847 Z0 F1500
G1 X112.782 Y64.685 Z0 F1500
G1 X112.43 Y65.481 Z0 F1500
G1 X112.011 Y66.233 Z0 F1500
G1 X111.53 Y66.935 Z0 F1500
G1 X110.99 Y67.583 Z0 F1500
G1 X110.396 Y68.171 Z0 F1500
G1 X109.753 Y68.696 Z0 F1500
G1 X109.063 Y69.152 Z0 F1500
G1 X108.332 Y69.536 Z0 F1500
G1 X107.564 Y69.843 Z0 F1500
G1 X106.763 Y70.067 Z0 F1500
G1 X105.932 Y70.206 Z0 F1500
G1 X105.077 Y70.252 Z0 F1500
G1 X104.222 Y70.206 Z0 F1500
G1 X103.392 Y70.067 Z0 F1500
G1 X102.591 Y69.843 Z0 F1500
G1 X101.822 Y69.536 Z0 F1500
G1 X101.091 Y69.152 Z0 F1500
G1 X100.402 Y68.696 Z0 F1500
G1 X99.758 Y68.171 Z0 F1500
G1 X99.165 Y67.583 Z0 F1500
G1 X98.625 Y66.935 Z0 F1500
G1 X98.144 Y66.233 Z0 F1500
G1 X97.725 Y65.481 Z0 F1500
G1 X97.373 Y64.685 Z0 F1500
G1 X97.091 Y63.847 Z0 F1500
G1 X96.885 Y62.973 Z0 F1500
G1 X96.758 Y62.068 Z0 F1500
G1 X96.715 Y61.136 Z0 F1500
G1 X96.758 Y60.204 Z0 F1500
G1 X96.885 Y59.298 Z0 F1500
G1 X97.091 Y58.425 Z0 F1500
G1 X97.373 Y57.587 Z0 F1500
G1 X97.725 Y56.791 Z0 F1500
G1 X98.144 Y56.039 Z0 F1500
G1 X98.625 Y55.337 Z0 F1500
G1 X99.165 Y54.689 Z0 F1500
G1 X99.758 Y54.101 Z0 F1500
G1 X100.402 Y53.576 Z0 F1500
G1 X101.091 Y53.12 Z0 F1500
G1 X101.822 Y52.735 Z0 F1500
G1 X102.591 Y52.429 Z0 F1500
G1 X103.392 Y52.205 Z0 F1500
M9
M5
G1 Z10 F1500
G90
G1 Z10 F1500

