;LightBurn 1.6.04
;Custom GCode device profile, absolute coords
;Bounds: X41.65 Y33.7 to X121.6 Y112
G00 G17 G40 G21 G54
G90
M3
G1 Z10 F1800
;Scan @ 1800 mm/min, 90% power

M8
G0 Z4.8F1800
G0 X51.894 Y33.701 Z4.800
G1 Z0F1800
;Layer Blue
G91
G1 X0.821Z0S900F1800
G0 Z5 F500
G1 X1.961Z0S0F1800
G0 Z-5 F500
G1 X4.615Z0S900F1800
G0 Z5 F500
G1 X2.146Z0S0F1800
G0 Z-5 F500
G1 X7.119Z0S900F1800
G0 Z5 F500
G1 X9.698Z0S0F1800
G0 Z-5 F500
G1 X0.439Z0S900F1800
G0 Z5 F500
G1 X42.181Y0.9Z0S0F1800
G0 Z-5 F500
; --- FIX X Backlash (relative): -1.400mm ---
G0 X-1.400 F1200
G1 X-0.657Z0S900F1800
G0 Z5 F500
G1 X-15.313Z0S0F1800
G0 Z-5 F500
G1 X-0.683Z0S900F1800
G0 Z5 F500
G1 X-10.038Z0S0F1800
G0 Z-5 F500
G1 X-0.595Z0S900F1800
G0 Z5 F500
G1 X-3.781Z0S0F1800
G0 Z-5 F500
G1 X-0.743Z0S900F1800
G0 Z5 F500
G1 X-0.433Z0S0F1800
G0 Z-5 F500
G1 X-2.274Z0S900F1800
G0 Z5 F500
G1 X-0.502Z0S0F1800
G0 Z-5 F500
G1 X-4.006Z0S900F1800
G0 Z5 F500
G1 X-0.74Z0S0F1800
G0 Z-5 F500
G1 X-2.892Z0S900F1800
G0 Z5 F500
G1 X-0.691Z0S0F1800
G0 Z-5 F500
G1 X-1.58Z0S900F1800
G0 Z5 F500
G1 X-8.582Z0S0F1800
G0 Z-5 F500
G1 X-0.861Z0S900F1800
G0 Z5 F500
G1 X-0.817Z0S0F1800
G0 Z-5 F500
G1 X-3.632Z0S900F1800
G0 Z5 F500
G1 X-1.093Z0S0F1800
G0 Z-5 F500
G1 X-6.962Z0S900F1800
G0 Z5 F500
G1 X-2.137Z0S0F1800
G0 Z-5 F500
G1 X-0.899Z0S900F1800
G0 Z5 F500
G1 X-0.409Z0S0F1800
G0 Z-5 F500
G1 X-0.544Z0S900F1800
G0 Z5 F500
G1 X-0.902Y0.9Z0S0F1800
G0 Z-5 F500
; --- FIX X Backlash (relative): 1.400mm ---
G0 X1.400 F1200
G1 X0.587Z0S900F1800
G0 Z5 F500
G1 X0.535Z0S0F1800
G0 Z-5 F500
G1 X0.984Z0S900F1800
G0 Z5 F500
G1 X1.05Z0S0F1800
G0 Z-5 F500
G1 X0.303Z0S900F1800
G0 Z5 F500
G1 X1.257Z0S0F1800
G0 Z-5 F500
G1 X7.577Z0S900F1800
G0 Z5 F500
G1 X1.122Z0S0F1800
G0 Z-5 F500
G1 X2.578Z0S900F1800
G0 Z5 F500
G1 X0.933Z0S0F1800
G0 Z-5 F500
G1 X1.042Z0S900F1800
G0 Z5 F500
G1 X2.444Z0S0F1800
G0 Z-5 F500
G1 X1.166Z0S900F1800
G0 Z5 F500
G1 X7.517Z0S0F1800
G0 Z-5 F500
G1 X0.875Z0S900F1800
G0 Z5 F500
G1 X1.521Z0S0F1800
G0 Z-5 F500
G1 X0.754Z0S900F1800
G0 Z5 F500
G1 X0.292Z0S0F1800
G0 Z-5 F500
G1 X0.68Z0S900F1800
G0 Z5 F500
G1 X3.14Z0S0F1800
G0 Z-5 F500
G1 X1.335Z0S900F1800
G0 Z5 F500
G1 X2.482Z0S0F1800
G0 Z-5 F500
G1 X1.473Z0S900F1800
G0 Z5 F500
G1 X0.837Z0S0F1800
G0 Z-5 F500
G1 X0.324Z0S900F1800
G0 Z5 F500
G1 X2.05Z0S0F1800
G0 Z-5 F500
G1 X0.673Z0S900F1800
G0 Z5 F500
G1 X2.84Z0S0F1800
G0 Z-5 F500
G1 X0.867Z0S900F1800
G0 Z5 F500
G1 X4.25Z0S0F1800
G0 Z-5 F500
G1 X0.749Z0S900F1800
G0 Z5 F500
G1 X0.441Z0S0F1800
G0 Z-5 F500
G1 X0.714Z0S900F1800
G0 Z5 F500
G1 X15.739Z0S0F1800
G0 Z-5 F500
G1 X0.667Z0S900F1800
G0 Z5 F500
G1 X0.105Y0.9Z0S0F1800
G0 Z-5 F500
; --- FIX X Backlash (relative): -1.400mm ---
G0 X-1.400 F1200
G1 X-0.743Z0S900F1800
G0 Z5 F500
G1 X-16.275Z0S0F1800
G0 Z-5 F500
G1 X-0.507Z0S900F1800
G0 Z5 F500
G1 X-0.269Z0S0F1800
G0 Z-5 F500
G1 X-0.639Z0S900F1800
G0 Z5 F500
G1 X-3.296Z0S0F1800
G0 Z-5 F500
G1 X-1.725Z0S900F1800
G0 Z5 F500
G1 X-2.64Z0S0F1800
G0 Z-5 F500
G1 X-0.541Z0S900F1800
G0 Z5 F500
G1 X-1.828Z0S0F1800
G0 Z-5 F500
G1 X-1.435Z0S900F1800
G0 Z5 F500
G1 X-4.341Z0S0F1800
G0 Z-5 F500
G1 X-0.83Z0S900F1800
G0 Z5 F500
G1 X-3.974Z0S0F1800
G0 Z-5 F500
G1 X-0.424Z0S900F1800
G0 Z5 F500
G1 X-0.319Z0S0F1800
G0 Z-5 F500
G1 X-0.886Z0S900F1800
G0 Z5 F500
G1 X-1.741Z0S0F1800
G0 Z-5 F500
G1 X-0.63Z0S900F1800
G0 Z5 F500
G1 X-8.393Z0S0F1800
G0 Z-5 F500
G1 X-1.507Z0S900F1800
G0 Z5 F500
G1 X-1.627Z0S0F1800
G0 Z-5 F500
G1 X-0.968Z0S900F1800
G0 Z5 F500
G1 X-1.423Z0S0F1800
G0 Z-5 F500
G1 X-1.008Z0S900F1800
G0 Z5 F500
G1 X-1.111Z0S0F1800
G0 Z-5 F500
G1 X-6.954Z0S900F1800
G0 Z5 F500
G1 X-1.51Z0S0F1800
G0 Z-5 F500
G1 X-2.147Z0S900F1800
G0 Z5 F500
G1 X-0.859Z0S0F1800
G0 Z-5 F500
G1 X-1.002Z0S900F1800
G0 Z5 F500
G1 X-0.656Y0.9Z0S0F1800
G0 Z-5 F500
; --- FIX X Backlash (relative): 1.400mm ---
G0 X1.400 F1200
G1 X1.095Z0S900F1800
G0 Z5 F500
G1 X0.726Z0S0F1800
G0 Z-5 F500
G1 X3.971Z0S900F1800
G0 Z5 F500
G1 X1.501Z0S0F1800
G0 Z-5 F500
G1 X6.324Z0S900F1800
G0 Z5 F500
G1 X2.245Z0S0F1800
G0 Z-5 F500
G1 X0.944Z0S900F1800
G0 Z5 F500
G1 X1.051Z0S0F1800
G0 Z-5 F500
G1 X1.563Z0S900F1800
G0 Z5 F500
G1 X5.178Z0S0F1800
G0 Z-5 F500
G1 X2.906Z0S900F1800
G0 Z5 F500
G1 X3.567Z0S0F1800
G0 Z-5 F500
G1 X0.817Z0S900F1800
G0 Z5 F500
G1 X5.548Z0S0F1800
G0 Z-5 F500
G1 X0.477Z0S900F1800
G0 Z5 F500
G1 X2.476Z0S0F1800
G0 Z-5 F500
G1 X0.876Z0S900F1800
G0 Z5 F500
G1 X2.373Z0S0F1800
G0 Z-5 F500
G1 X1.225Z0S900F1800
G0 Z5 F500
G1 X1.275Z0S0F1800
G0 Z-5 F500
G1 X0.284Z0S900F1800
G0 Z5 F500
G1 X2.706Z0S0F1800
G0 Z-5 F500
G1 X0.953Z0S900F1800
G0 Z5 F500
G1 X3.677Z0S0F1800
G0 Z-5 F500
G1 X0.958Z0S900F1800
G0 Z5 F500
G1 X8.899Z0S0F1800
G0 Z-5 F500
G1 X7.47Z0S900F1800
G0 Z5 F500
G1 X0.439Z0S0F1800
G0 Z-5 F500
G1 X0.742Z0S900F1800
G0 Z5 F500
; --- FIX X Backlash (relative): -1.400mm ---
G0 X-1.400 F1200
G1 X-0.128Y0.9Z0S0F1800
G0 Z-5 F500
G1 X-0.722Z0S900F1800
G0 Z5 F500
G1 X-7.219Z0S0F1800
G0 Z-5 F500
G1 X-1.176Z0S900F1800
G0 Z5 F500
G1 X-2.864Z0S0F1800
G0 Z-5 F500
G1 X-1.127Z0S900F1800
G0 Z5 F500
G1 X-4.647Z0S0F1800
G0 Z-5 F500
G1 X-0.647Z0S900F1800
G0 Z5 F500
G1 X-1.226Z0S0F1800
G0 Z-5 F500
G1 X-0.414Z0S900F1800
G0 Z5 F500
G1 X-1.413Z0S0F1800
G0 Z-5 F500
G1 X-0.848Z0S900F1800
G0 Z5 F500
G1 X-2.512Z0S0F1800
G0 Z-5 F500
G1 X-0.614Z0S900F1800
G0 Z5 F500
G1 X-1.15Z0S0F1800
G0 Z-5 F500
G1 X-1.025Z0S900F1800
G0 Z5 F500
G1 X-1.122Z0S0F1800
G0 Z-5 F500
G1 X-1.035Z0S900F1800
G0 Z5 F500
G1 X-7.156Z0S0F1800
G0 Z-5 F500
G1 X-0.619Z0S900F1800
G0 Z5 F500
G1 X-3.489Z0S0F1800
G0 Z-5 F500
G1 X-0.411Z0S900F1800
G0 Z5 F500
G1 X-6.068Z0S0F1800
G0 Z-5 F500
G1 X-1.662Z0S900F1800
G0 Z5 F500
G1 X-4.76Z0S0F1800
G0 Z-5 F500
G1 X-1.17Z0S900F1800
G0 Z5 F500
G1 X-0.872Z0S0F1800
G0 Z-5 F500
G1 X-0.926Z0S900F1800
G0 Z5 F500
G1 X-1.018Z0S0F1800
G0 Z-5 F500
G1 X-5.908Z0S900F1800
G0 Z5 F500
G1 X-1.495Z0S0F1800
G0 Z-5 F500
G1 X-5.665Z0S900F1800
G0 Z5 F500
G1 X-0.676Z0S0F1800
G0 Z-5 F500
G1 X-1.052Z0S900F1800
G0 Z5 F500
G1 X-0.995Z0S0F1800
G0 Z-5 F500
G1 X-0.698Z0S900F1800
G0 Z5 F500
G1 X-0.568Y0.9Z0S0F1800
G0 Z-5 F500
; --- FIX X Backlash (relative): 1.400mm ---
G0 X1.400 F1200
G1 X0.829Z0S900F1800
G0 Z5 F500
G1 X0.918Z0S0F1800
G0 Z-5 F500
G1 X1.034Z0S900F1800
G0 Z5 F500
G1 X0.585Z0S0F1800
G0 Z-5 F500
G1 X7.26Z0S900F1800
G0 Z5 F500
G1 X1.579Z0S0F1800
G0 Z-5 F500
G1 X4.233Z0S900F1800
G0 Z5 F500
G1 X1.185Z0S0F1800
G0 Z-5 F500
G1 X0.961Z0S900F1800
G0 Z5 F500
G1 X0.95Z0S0F1800
G0 Z-5 F500
G1 X1.017Z0S900F1800
G0 Z5 F500
G1 X4.16Z0S0F1800
G0 Z-5 F500
G1 X1.095Z0S900F1800
G0 Z5 F500
G1 X11.282Z0S0F1800
G0 Z-5 F500
G1 X0.646Z0S900F1800
G0 Z5 F500
G1 X2.038Z0S0F1800
G0 Z-5 F500
G1 X0.598Z0S900F1800
G0 Z5 F500
G1 X5.544Z0S0F1800
G0 Z-5 F500
G1 X0.949Z0S900F1800
G0 Z5 F500
G1 X1.136Z0S0F1800
G0 Z-5 F500
G1 X0.928Z0S900F1800
G0 Z5 F500
G1 X0.825Z0S0F1800
G0 Z-5 F500
G1 X0.615Z0S900F1800
G0 Z5 F500
G1 X1.934Z0S0F1800
G0 Z-5 F500
G1 X1.002Z0S900F1800
G0 Z5 F500
G1 X1.545Z0S0F1800
G0 Z-5 F500
G1 X0.666Z0S900F1800
G0 Z5 F500
G1 X1.023Z0S0F1800
G0 Z-5 F500
G1 X0.692Z0S900F1800
G0 Z5 F500
G1 X2.407Z0S0F1800
G0 Z-5 F500
G1 X0.994Z0S900F1800
G0 Z5 F500
G1 X2.887Z0S0F1800
G0 Z-5 F500
G1 X8.076Z0S900F1800
G0 Z5 F500
G1 X2.627Z0S0F1800
G0 Z-5 F500
G1 X0.726Z0S900F1800
G0 Z5 F500
G1 Y0.9Z0S0F1800
G0 Z-5 F500
; --- FIX X Backlash (relative): -1.400mm ---
G0 X-1.400 F1200
G1 X-0.733Z0S900F1800
G0 Z5 F500
G1 X-4.269Z0S0F1800
G0 Z-5 F500
G1 X-6.509Z0S900F1800
G0 Z5 F500
G1 X-0.875Z0S0F1800
G0 Z-5 F500
G1 X-1.439Z0S900F1800
G0 Z5 F500
G1 X-2.269Z0S0F1800
G0 Z-5 F500
G1 X-1.221Z0S900F1800
G0 Z5 F500
G1 X-0.362Z0S0F1800
G0 Z-5 F500
G1 X-0.776Z0S900F1800
G0 Z5 F500
G1 X-0.97Z0S0F1800
G0 Z-5 F500
G1 X-0.717Z0S900F1800
G0 Z5 F500
G1 X-0.575Z0S0F1800
G0 Z-5 F500
G1 X-0.878Z0S900F1800
G0 Z5 F500
G1 X-2.778Z0S0F1800
G0 Z-5 F500
G1 X-0.604Z0S900F1800
G0 Z5 F500
G1 X-0.661Z0S0F1800
G0 Z-5 F500
G1 X-0.809Z0S900F1800
G0 Z5 F500
G1 X-1.11Z0S0F1800
G0 Z-5 F500
G1 X-0.747Z0S900F1800
G0 Z5 F500
G1 X-6.088Z0S0F1800
G0 Z-5 F500
G1 X-0.702Z0S900F1800
G0 Z5 F500
G1 X-2.428Z0S0F1800
G0 Z-5 F500
G1 X-0.48Z0S900F1800
G0 Z5 F500
G1 X-4.023Z0S0F1800
G0 Z-5 F500
G1 X-0.495Z0S900F1800
G0 Z5 F500
G1 X-4.649Z0S0F1800
G0 Z-5 F500
G1 X-1.166Z0S900F1800
G0 Z5 F500
G1 X-6.399Z0S0F1800
G0 Z-5 F500
G1 X-1.022Z0S900F1800
G0 Z5 F500
G1 X-0.931Z0S0F1800
G0 Z-5 F500
G1 X-0.575Z0S900F1800
G0 Z5 F500
G1 X-0.167Z0S0F1800
G0 Z-5 F500
G1 X-0.747Z0S900F1800
G0 Z5 F500
G1 X-0.717Z0S0F1800
G0 Z-5 F500
G1 X-2.826Z0S900F1800
G0 Z5 F500
G1 X-1.502Z0S0F1800
G0 Z-5 F500
G1 X-8.935Z0S900F1800
G0 Z5 F500
G1 X-0.47Z0S0F1800
G0 Z-5 F500
G1 X-0.945Z0S900F1800
G0 Z5 F500
G1 X-0.902Z0S0F1800
G0 Z-5 F500
G1 X-0.889Z0S900F1800
G0 Z5 F500
G1 X-0.223Y0.9Z0S0F1800
G0 Z-5 F500
; --- FIX X Backlash (relative): 1.400mm ---
G0 X1.400 F1200
G1 X0.718Z0S900F1800
G0 Z5 F500
G1 X0.913Z0S0F1800
G0 Z-5 F500
G1 X0.829Z0S900F1800
G0 Z5 F500
G1 X0.381Z0S0F1800
G0 Z-5 F500
G1 X10.616Z0S900F1800
G0 Z5 F500
G1 X1.345Z0S0F1800
G0 Z-5 F500
G1 X1.667Z0S900F1800
G0 Z5 F500
G1 X0.318Z0S0F1800
G0 Z-5 F500
G1 X0.823Z0S900F1800
G0 Z5 F500
G1 X0.393Z0S0F1800
G0 Z-5 F500
G1 X0.589Z0S900F1800
G0 Z5 F500
G1 X0.911Z0S0F1800
G0 Z-5 F500
G1 X0.996Z0S900F1800
G0 Z5 F500
G1 X1.811Z0S0F1800
G0 Z-5 F500
G1 X1.177Z0S900F1800
G0 Z5 F500
G1 X2.67Z0S0F1800
G0 Z-5 F500
G1 X1.12Z0S900F1800
G0 Z5 F500
G1 X2.67Z0S0F1800
G0 Z-5 F500
G1 X0.174Z0S900F1800
G0 Z5 F500
G1 X2.936Z0S0F1800
G0 Z-5 F500
G1 X0.589Z0S900F1800
G0 Z5 F500
G1 X13.275Z0S0F1800
G0 Z-5 F500
G1 X0.781Z0S900F1800
G0 Z5 F500
G1 X0.344Z0S0F1800
G0 Z-5 F500
G1 X0.655Z0S900F1800
G0 Z5 F500
G1 X0.913Z0S0F1800
G0 Z-5 F500
G1 X0.77Z0S900F1800
G0 Z5 F500
G1 X0.461Z0S0F1800
G0 Z-5 F500
G1 X0.703Z0S900F1800
G0 Z5 F500
G1 X1.748Z0S0F1800
G0 Z-5 F500
G1 X1.326Z0S900F1800
G0 Z5 F500
G1 X0.753Z0S0F1800
G0 Z-5 F500
G1 X0.604Z0S900F1800
G0 Z5 F500
G1 X1.003Z0S0F1800
G0 Z-5 F500
G1 X0.888Z0S900F1800
G0 Z5 F500
G1 X1.191Z0S0F1800
G0 Z-5 F500
G1 X1.129Z0S900F1800
G0 Z5 F500
G1 X1.51Z0S0F1800
G0 Z-5 F500
G1 X1.497Z0S900F1800
G0 Z5 F500
G1 X0.802Z0S0F1800
G0 Z-5 F500
G1 X4.961Z0S900F1800
G0 Z5 F500
G1 X5.89Z0S0F1800
G0 Z-5 F500
G1 X0.739Z0S900F1800
G0 Z5 F500
G1 X0.016Y0.9Z0S0F1800
G0 Z-5 F500
; --- FIX X Backlash (relative): -1.400mm ---
G0 X-1.400 F1200
G1 X-0.753Z0S900F1800
G0 Z5 F500
G1 X-8.023Z0S0F1800
G0 Z-5 F500
G1 X-2.926Z0S900F1800
G0 Z5 F500
G1 X-0.717Z0S0F1800
G0 Z-5 F500
G1 X-1.469Z0S900F1800
G0 Z5 F500
G1 X-1.481Z0S0F1800
G0 Z-5 F500
G1 X-1.248Z0S900F1800
G0 Z5 F500
G1 X-1.321Z0S0F1800
G0 Z-5 F500
G1 X-0.819Z0S900F1800
G0 Z5 F500
G1 X-1.015Z0S0F1800
G0 Z-5 F500
G1 X-0.732Z0S900F1800
G0 Z5 F500
G1 X-0.443Z0S0F1800
G0 Z-5 F500
G1 X-0.555Z0S900F1800
G0 Z5 F500
G1 X-2.144Z0S0F1800
G0 Z-5 F500
G1 X-0.725Z0S900F1800
G0 Z5 F500
G1 X-0.375Z0S0F1800
G0 Z-5 F500
G1 X-0.793Z0S900F1800
G0 Z5 F500
G1 X-0.895Z0S0F1800
G0 Z-5 F500
G1 X-0.853Z0S900F1800
G0 Z5 F500
G1 X-6.532Z0S0F1800
G0 Z-5 F500
G1 X-0.54Z0S900F1800
G0 Z5 F500
G1 X-5.993Z0S0F1800
G0 Z-5 F500
G1 X-0.547Z0S900F1800
G0 Z5 F500
G1 X-2.759Z0S0F1800
G0 Z-5 F500
G1 X-0.642Z0S900F1800
G0 Z5 F500
G1 X-1.192Z0S0F1800
G0 Z-5 F500
G1 X-0.731Z0S900F1800
G0 Z5 F500
G1 X-3.022Z0S0F1800
G0 Z-5 F500
G1 X-0.911Z0S900F1800
G0 Z5 F500
G1 X-0.555Z0S0F1800
G0 Z-5 F500
G1 X-0.56Z0S900F1800
G0 Z5 F500
G1 X-1.442Z0S0F1800
G0 Z-5 F500
G1 X-1.103Z0S900F1800
G0 Z5 F500
G1 X-1.694Z0S0F1800
G0 Z-5 F500
G1 X-0.995Z0S900F1800
G0 Z5 F500
G1 X-0.927Z0S0F1800
G0 Z-5 F500
G1 X-0.433Z0S900F1800
G0 Z5 F500
G1 X-0.548Z0S0F1800
G0 Z-5 F500
G1 X-0.833Z0S900F1800
G0 Z5 F500
G1 X-0.464Z0S0F1800
G0 Z-5 F500
G1 X-0.196Z0S900F1800
G0 Z5 F500
G1 X-1.223Z0S0F1800
G0 Z-5 F500
G1 X-9.028Z0S900F1800
G0 Z5 F500
G1 X-0.61Z0S0F1800
G0 Z-5 F500
G1 X-0.624Z0S900F1800
G0 Z5 F500
G1 X-1.061Z0S0F1800
G0 Z-5 F500
G1 X-0.85Z0S900F1800
G0 Z5 F500
G1 X-0.333Z0S0F1800
G0 Z-5 F500
G1 X-0.856Z0S900F1800
G0 Z5 F500
G1 X-0.815Z0S0F1800
G0 Z-5 F500
G1 X-0.478Z0S900F1800
G0 Z5 F500
G1 X-0.217Y0.9Z0S0F1800
G0 Z-5 F500
; --- FIX X Backlash (relative): 1.400mm ---
G0 X1.400 F1200
G1 X0.216Z0S900F1800
G0 Z5 F500
G1 X0.835Z0S0F1800
G0 Z-5 F500
G1 X0.848Z0S900F1800
G0 Z5 F500
G1 X0.317Z0S0F1800
G0 Z-5 F500
G1 X0.852Z0S900F1800
G0 Z5 F500
G1 X0.828Z0S0F1800
G0 Z-5 F500
G1 X0.857Z0S900F1800
G0 Z5 F500
G1 X1.194Z0S0F1800
G0 Z-5 F500
G1 X1.26Z0S900F1800
G0 Z5 F500
G1 X0.573Z0S0F1800
G0 Z-5 F500
G1 X7.942Z0S900F1800
G0 Z5 F500
G1 X0.657Z0S0F1800
G0 Z-5 F500
G1 X0.858Z0S900F1800
G0 Z5 F500
G1 X1.915Z0S0F1800
G0 Z-5 F500
G1 X0.987Z0S900F1800
G0 Z5 F500
G1 X1.589Z0S0F1800
G0 Z-5 F500
G1 X1.157Z0S900F1800
G0 Z5 F500
G1 X1.036Z0S0F1800
G0 Z-5 F500
G1 X0.804Z0S900F1800
G0 Z5 F500
G1 X0.683Z0S0F1800
G0 Z-5 F500
G1 X0.687Z0S900F1800
G0 Z5 F500
G1 X3.142Z0S0F1800
G0 Z-5 F500
G1 X0.757Z0S900F1800
G0 Z5 F500
G1 X1.299Z0S0F1800
G0 Z-5 F500
G1 X0.88Z0S900F1800
G0 Z5 F500
G1 X2.845Z0S0F1800
G0 Z-5 F500
G1 X0.553Z0S900F1800
G0 Z5 F500
G1 X6.01Z0S0F1800
G0 Z-5 F500
G1 X0.683Z0S900F1800
G0 Z5 F500
G1 X1.738Z0S0F1800
G0 Z-5 F500
G1 X0.563Z0S900F1800
G0 Z5 F500
G1 X4.243Z0S0F1800
G0 Z-5 F500
G1 X0.575Z0S900F1800
G0 Z5 F500
G1 X1.504Z0S0F1800
G0 Z-5 F500
G1 X0.835Z0S900F1800
G0 Z5 F500
G1 X0.381Z0S0F1800
G0 Z-5 F500
G1 X0.637Z0S900F1800
G0 Z5 F500
G1 X1.275Z0S0F1800
G0 Z-5 F500
G1 X0.863Z0S900F1800
G0 Z5 F500
G1 X0.573Z0S0F1800
G0 Z-5 F500
G1 X0.698Z0S900F1800
G0 Z5 F500
G1 X0.953Z0S0F1800
G0 Z-5 F500
G1 X0.764Z0S900F1800
G0 Z5 F500
G1 X1.904Z0S0F1800
G0 Z-5 F500
G1 X0.94Z0S900F1800
G0 Z5 F500
G1 X1.543Z0S0F1800
G0 Z-5 F500
G1 X0.849Z0S900F1800
G0 Z5 F500
G1 X1.035Z0S0F1800
G0 Z-5 F500
G1 X0.98Z0S900F1800
G0 Z5 F500
G1 X10.134Z0S0F1800
G0 Z-5 F500
G1 X0.773Z0S900F1800
G0 Z5 F500
G1 X0.033Y0.9Z0S0F1800
G0 Z-5 F500
; --- FIX X Backlash (relative): -1.400mm ---
G0 X-1.400 F1200
G1 X-0.803Z0S900F1800
G0 Z5 F500
G1 X-12.573Z0S0F1800
G0 Z-5 F500
G1 X-0.366Z0S900F1800
G0 Z5 F500
G1 X-4.542Z0S0F1800
G0 Z-5 F500
G1 X-0.762Z0S900F1800
G0 Z5 F500
G1 X-1.006Z0S0F1800
G0 Z-5 F500
G1 X-0.735Z0S900F1800
G0 Z5 F500
G1 X-0.318Z0S0F1800
G0 Z-5 F500
G1 X-1.013Z0S900F1800
G0 Z5 F500
G1 X-0.769Z0S0F1800
G0 Z-5 F500
G1 X-0.626Z0S900F1800
G0 Z5 F500
G1 X-0.341Z0S0F1800
G0 Z-5 F500
G1 X-0.896Z0S900F1800
G0 Z5 F500
G1 X-6.667Z0S0F1800
G0 Z-5 F500
G1 X-0.783Z0S900F1800
G0 Z5 F500
G1 X-1.962Z0S0F1800
G0 Z-5 F500
G1 X-0.621Z0S900F1800
G0 Z5 F500
G1 X-9.447Z0S0F1800
G0 Z-5 F500
G1 X-0.768Z0S900F1800
G0 Z5 F500
G1 X-1.472Z0S0F1800
G0 Z-5 F500
G1 X-0.555Z0S900F1800
G0 Z5 F500
G1 X-3.268Z0S0F1800
G0 Z-5 F500
G1 X-0.604Z0S900F1800
G0 Z5 F500
G1 X-0.865Z0S0F1800
G0 Z-5 F500
G1 X-0.814Z0S900F1800
G0 Z5 F500
G1 X-1.148Z0S0F1800
G0 Z-5 F500
G1 X-1.079Z0S900F1800
G0 Z5 F500
G1 X-1.567Z0S0F1800
G0 Z-5 F500
G1 X-0.947Z0S900F1800
G0 Z5 F500
G1 X-1.868Z0S0F1800
G0 Z-5 F500
G1 X-0.916Z0S900F1800
G0 Z5 F500
G1 X-0.859Z0S0F1800
G0 Z-5 F500
G1 X-5.517Z0S900F1800
G0 Z5 F500
G1 X-0.652Z0S0F1800
G0 Z-5 F500
G1 X-1.349Z0S900F1800
G0 Z5 F500
G1 X-3.255Z0S0F1800
G0 Z-5 F500
G1 X-0.89Z0S900F1800
G0 Z5 F500
G1 X-0.853Z0S0F1800
G0 Z-5 F500
G1 X-0.857Z0S900F1800
G0 Z5 F500
G1 X-0.329Z0S0F1800
G0 Z-5 F500
G1 X-0.926Z0S900F1800
G0 Z5 F500
G1 X-0.317Y0.9Z0S0F1800
G0 Z-5 F500
; --- FIX X Backlash (relative): 1.400mm ---
G0 X1.400 F1200
G1 X0.826Z0S900F1800
G0 Z5 F500
G1 X0.343Z0S0F1800
G0 Z-5 F500
G1 X0.856Z0S900F1800
G0 Z5 F500
G1 X0.827Z0S0F1800
G0 Z-5 F500
G1 X0.959Z0S900F1800
G0 Z5 F500
G1 X5.285Z0S0F1800
G0 Z-5 F500
G1 X1.134Z0S900F1800
G0 Z5 F500
G1 X0.902Z0S0F1800
G0 Z-5 F500
G1 X3.836Z0S900F1800
G0 Z5 F500
G1 X0.489Z0S0F1800
G0 Z-5 F500
G1 X1.004Z0S900F1800
G0 Z5 F500
G1 X1.84Z0S0F1800
G0 Z-5 F500
G1 X0.909Z0S900F1800
G0 Z5 F500
G1 X1.434Z0S0F1800
G0 Z-5 F500
G1 X1.159Z0S900F1800
G0 Z5 F500
G1 X1.029Z0S0F1800
G0 Z-5 F500
G1 X1.056Z0S900F1800
G0 Z5 F500
G1 X1.27Z0S0F1800
G0 Z-5 F500
G1 X0.591Z0S900F1800
G0 Z5 F500
G1 X3.039Z0S0F1800
G0 Z-5 F500
G1 X0.44Z0S900F1800
G0 Z5 F500
G1 X1.424Z0S0F1800
G0 Z-5 F500
G1 X0.846Z0S900F1800
G0 Z5 F500
G1 X2.197Z0S0F1800
G0 Z-5 F500
G1 X0.184Z0S900F1800
G0 Z5 F500
G1 X2.125Z0S0F1800
G0 Z-5 F500
G1 X0.716Z0S900F1800
G0 Z5 F500
G1 X6.761Z0S0F1800
G0 Z-5 F500
G1 X0.76Z0S900F1800
G0 Z5 F500
G1 X1.236Z0S0F1800
G0 Z-5 F500
G1 X0.186Z0S900F1800
G0 Z5 F500
G1 X3.27Z0S0F1800
G0 Z-5 F500
G1 X1.249Z0S900F1800
G0 Z5 F500
G1 X1.451Z0S0F1800
G0 Z-5 F500
G1 X0.819Z0S900F1800
G0 Z5 F500
G1 X0.364Z0S0F1800
G0 Z-5 F500
G1 X0.585Z0S900F1800
G0 Z5 F500
G1 X1.516Z0S0F1800
G0 Z-5 F500
G1 X0.834Z0S900F1800
G0 Z5 F500
G1 X0.966Z0S0F1800
G0 Z-5 F500
G1 X0.814Z0S900F1800
G0 Z5 F500
G1 X17.573Z0S0F1800
G0 Z-5 F500
G1 X0.862Z0S900F1800
G0 Z5 F500
G1 X0.07Y0.9Z0S0F1800
G0 Z-5 F500
; --- FIX X Backlash (relative): -1.400mm ---
G0 X-1.400 F1200
G1 X-0.929Z0S900F1800
G0 Z5 F500
G1 X-17.752Z0S0F1800
G0 Z-5 F500
G1 X-0.78Z0S900F1800
G0 Z5 F500
G1 X-0.861Z0S0F1800
G0 Z-5 F500
G1 X-0.849Z0S900F1800
G0 Z5 F500
G1 X-1.137Z0S0F1800
G0 Z-5 F500
G1 X-0.66Z0S900F1800
G0 Z5 F500
G1 X-0.64Z0S0F1800
G0 Z-5 F500
G1 X-0.233Z0S900F1800
G0 Z5 F500
G1 X-1.725Z0S0F1800
G0 Z-5 F500
G1 X-1.374Z0S900F1800
G0 Z5 F500
G1 X-3.189Z0S0F1800
G0 Z-5 F500
G1 X-0.775Z0S900F1800
G0 Z5 F500
G1 X-1.409Z0S0F1800
G0 Z-5 F500
G1 X-0.563Z0S900F1800
G0 Z5 F500
G1 X-6.702Z0S0F1800
G0 Z-5 F500
G1 X-1.112Z0S900F1800
G0 Z5 F500
G1 X-3.938Z0S0F1800
G0 Z-5 F500
G1 X-0.852Z0S900F1800
G0 Z5 F500
G1 X-7.152Z0S0F1800
G0 Z-5 F500
G1 X-0.936Z0S900F1800
G0 Z5 F500
G1 X-1.098Z0S0F1800
G0 Z-5 F500
G1 X-1.149Z0S900F1800
G0 Z5 F500
G1 X-1.174Z0S0F1800
G0 Z-5 F500
G1 X-1.069Z0S900F1800
G0 Z5 F500
G1 X-1.824Z0S0F1800
G0 Z-5 F500
G1 X-0.851Z0S900F1800
G0 Z5 F500
G1 X-0.594Z0S0F1800
G0 Z-5 F500
G1 X-1.762Z0S900F1800
G0 Z5 F500
G1 X-1.175Z0S0F1800
G0 Z-5 F500
G1 X-1.217Z0S900F1800
G0 Z5 F500
G1 X-7.25Z0S0F1800
G0 Z-5 F500
G1 X-0.842Z0S900F1800
G0 Z5 F500
G1 X-0.941Z0S0F1800
G0 Z-5 F500
G1 X-0.852Z0S900F1800
G0 Z5 F500
G1 X-0.26Z0S0F1800
G0 Z-5 F500
G1 X-0.843Z0S900F1800
G0 Z5 F500
G1 X-0.426Y0.9Z0S0F1800
G0 Z-5 F500
; --- FIX X Backlash (relative): 1.400mm ---
G0 X1.400 F1200
G1 X0.859Z0S900F1800
G0 Z5 F500
G1 X0.341Z0S0F1800
G0 Z-5 F500
G1 X0.708Z0S900F1800
G0 Z5 F500
G1 X1.192Z0S0F1800
G0 Z-5 F500
G1 X0.685Z0S900F1800
G0 Z5 F500
G1 X9.443Z0S0F1800
G0 Z-5 F500
G1 X0.667Z0S900F1800
G0 Z5 F500
G1 X2.011Z0S0F1800
G0 Z-5 F500
G1 X0.907Z0S900F1800
G0 Z5 F500
G1 X1.743Z0S0F1800
G0 Z-5 F500
G1 X0.927Z0S900F1800
G0 Z5 F500
G1 X1.192Z0S0F1800
G0 Z-5 F500
G1 X1.075Z0S900F1800
G0 Z5 F500
G1 X1.214Z0S0F1800
G0 Z-5 F500
G1 X0.889Z0S900F1800
G0 Z5 F500
G1 X0.968Z0S0F1800
G0 Z-5 F500
G1 X0.983Z0S900F1800
G0 Z5 F500
G1 X2.38Z0S0F1800
G0 Z-5 F500
G1 X0.02Z0S900F1800
G0 Z5 F500
G1 X3.048Z0S0F1800
G0 Z-5 F500
G1 X0.413Z0S900F1800
G0 Z5 F500
G1 X1.598Z0S0F1800
G0 Z-5 F500
G1 X0.638Z0S900F1800
G0 Z5 F500
G1 X1.441Z0S0F1800
G0 Z-5 F500
G1 X1.049Z0S900F1800
G0 Z5 F500
G1 X1.547Z0S0F1800
G0 Z-5 F500
G1 X0.53Z0S900F1800
G0 Z5 F500
G1 X7.437Z0S0F1800
G0 Z-5 F500
G1 X0.869Z0S900F1800
G0 Z5 F500
G1 X0.348Z0S0F1800
G0 Z-5 F500
G1 X0.481Z0S900F1800
G0 Z5 F500
G1 X2.429Z0S0F1800
G0 Z-5 F500
G1 X1.341Z0S900F1800
G0 Z5 F500
G1 X0.952Z0S0F1800
G0 Z-5 F500
G1 X0.495Z0S900F1800
G0 Z5 F500
G1 X1.45Z0S0F1800
G0 Z-5 F500
G1 X0.663Z0S900F1800
G0 Z5 F500
G1 X0.671Z0S0F1800
G0 Z-5 F500
G1 X0.935Z0S900F1800
G0 Z5 F500
G1 X0.73Z0S0F1800
G0 Z-5 F500
G1 X0.925Z0S900F1800
G0 Z5 F500
G1 X3.509Z0S0F1800
G0 Z-5 F500
G1 X0.649Z0S900F1800
G0 Z5 F500
G1 X13.875Z0S0F1800
G0 Z-5 F500
G1 X0.709Z0S900F1800
G0 Z5 F500
G1 X0.027Y0.9Z0S0F1800
G0 Z-5 F500
; --- FIX X Backlash (relative): -1.400mm ---
G0 X-1.400 F1200
G1 X-0.64Z0S900F1800
G0 Z5 F500
G1 X-12.625Z0S0F1800
G0 Z-5 F500
G1 X-0.16Z0S900F1800
G0 Z5 F500
G1 X-0.888Z0S0F1800
G0 Z-5 F500
G1 X-0.651Z0S900F1800
G0 Z5 F500
G1 X-2.143Z0S0F1800
G0 Z-5 F500
G1 X-0.96Z0S900F1800
G0 Z5 F500
G1 X-0.85Z0S0F1800
G0 Z-5 F500
G1 X-0.969Z0S900F1800
G0 Z5 F500
G1 X-0.609Z0S0F1800
G0 Z-5 F500
G1 X-0.75Z0S900F1800
G0 Z5 F500
G1 X-0.441Z0S0F1800
G0 Z-5 F500
G1 X-0.622Z0S900F1800
G0 Z5 F500
G1 X-1.222Z0S0F1800
G0 Z-5 F500
G1 X-0.715Z0S900F1800
G0 Z5 F500
G1 X-1.373Z0S0F1800
G0 Z-5 F500
G1 X-1.293Z0S900F1800
G0 Z5 F500
G1 X-2.074Z0S0F1800
G0 Z-5 F500
G1 X-0.847Z0S900F1800
G0 Z5 F500
G1 X-0.369Z0S0F1800
G0 Z-5 F500
G1 X-0.916Z0S900F1800
G0 Z5 F500
G1 X-5.308Z0S0F1800
G0 Z-5 F500
G1 X-0.557Z0S900F1800
G0 Z5 F500
G1 X-2.012Z0S0F1800
G0 Z-5 F500
G1 X-0.739Z0S900F1800
G0 Z5 F500
G1 X-1.588Z0S0F1800
G0 Z-5 F500
G1 X-0.946Z0S900F1800
G0 Z5 F500
G1 X-1.268Z0S0F1800
G0 Z-5 F500
G1 X-0.769Z0S900F1800
G0 Z5 F500
G1 X-3.861Z0S0F1800
G0 Z-5 F500
G1 X-0.732Z0S900F1800
G0 Z5 F500
G1 X-1.716Z0S0F1800
G0 Z-5 F500
G1 X-0.44Z0S900F1800
G0 Z5 F500
G1 X-0.493Z0S0F1800
G0 Z-5 F500
G1 X-0.976Z0S900F1800
G0 Z5 F500
G1 X-0.934Z0S0F1800
G0 Z-5 F500
G1 X-0.899Z0S900F1800
G0 Z5 F500
G1 X-1.519Z0S0F1800
G0 Z-5 F500
G1 X-0.742Z0S900F1800
G0 Z5 F500
G1 X-0.952Z0S0F1800
G0 Z-5 F500
G1 X-0.894Z0S900F1800
G0 Z5 F500
G1 X-1.719Z0S0F1800
G0 Z-5 F500
G1 X-0.966Z0S900F1800
G0 Z5 F500
G1 X-12.103Z0S0F1800
G0 Z-5 F500
G1 X-1.312Z0S900F1800
G0 Z5 F500
G1 X-1.023Z0S0F1800
G0 Z-5 F500
G1 X-0.48Z0S900F1800
G0 Z5 F500
G1 X-0.46Z0S0F1800
G0 Z-5 F500
G1 X-0.898Z0S900F1800
G0 Z5 F500
G1 X-0.46Z0S0F1800
G0 Z-5 F500
G1 X-0.484Z0S900F1800
G0 Z5 F500
G1 X-0.273Y0.9Z0S0F1800
G0 Z-5 F500
; --- FIX X Backlash (relative): 1.400mm ---
G0 X1.400 F1200
G1 X0.627Z0S900F1800
G0 Z5 F500
G1 X0.304Z0S0F1800
G0 Z-5 F500
G1 X0.767Z0S900F1800
G0 Z5 F500
G1 X0.543Z0S0F1800
G0 Z-5 F500
G1 X3.775Z0S900F1800
G0 Z5 F500
G1 X0.846Z0S0F1800
G0 Z-5 F500
G1 X1.91Z0S900F1800
G0 Z5 F500
G1 X8.662Z0S0F1800
G0 Z-5 F500
G1 X0.839Z0S900F1800
G0 Z5 F500
G1 X1.892Z0S0F1800
G0 Z-5 F500
G1 X0.868Z0S900F1800
G0 Z5 F500
G1 X2.991Z0S0F1800
G0 Z-5 F500
G1 X0.962Z0S900F1800
G0 Z5 F500
G1 X0.954Z0S0F1800
G0 Z-5 F500
G1 X0.887Z0S900F1800
G0 Z5 F500
G1 X0.707Z0S0F1800
G0 Z-5 F500
G1 X0.696Z0S900F1800
G0 Z5 F500
G1 X1.656Z0S0F1800
G0 Z-5 F500
G1 X0.546Z0S900F1800
G0 Z5 F500
G1 X3.615Z0S0F1800
G0 Z-5 F500
G1 X0.721Z0S900F1800
G0 Z5 F500
G1 X1.152Z0S0F1800
G0 Z-5 F500
G1 X0.978Z0S900F1800
G0 Z5 F500
G1 X4.248Z0S0F1800
G0 Z-5 F500
G1 X0.427Z0S900F1800
G0 Z5 F500
G1 X5.889Z0S0F1800
G0 Z-5 F500
G1 X0.899Z0S900F1800
G0 Z5 F500
G1 X0.576Z0S0F1800
G0 Z-5 F500
G1 X0.955Z0S900F1800
G0 Z5 F500
G1 X1.612Z0S0F1800
G0 Z-5 F500
G1 X0.997Z0S900F1800
G0 Z5 F500
G1 X2.319Z0S0F1800
G0 Z-5 F500
G1 X0.85Z0S900F1800
G0 Z5 F500
G1 X1.061Z0S0F1800
G0 Z-5 F500
G1 X1.131Z0S900F1800
G0 Z5 F500
G1 X0.787Z0S0F1800
G0 Z-5 F500
G1 X0.933Z0S900F1800
G0 Z5 F500
G1 X1.615Z0S0F1800
G0 Z-5 F500
G1 X1.468Z0S900F1800
G0 Z5 F500
G1 X1.055Z0S0F1800
G0 Z-5 F500
G1 X0.597Z0S900F1800
G0 Z5 F500
G1 X8.052Z0S0F1800
G0 Z-5 F500
G1 X6.305Z0S900F1800
G0 Z5 F500
G1 X0.061Y0.9Z0S0F1800
G0 Z-5 F500
; --- FIX X Backlash (relative): -1.400mm ---
G0 X-1.400 F1200
G1 X-9.611Z0S900F1800
G0 Z5 F500
G1 X-5.112Z0S0F1800
G0 Z-5 F500
G1 X-0.439Z0S900F1800
G0 Z5 F500
G1 X-4.05Z0S0F1800
G0 Z-5 F500
G1 X-1.075Z0S900F1800
G0 Z5 F500
G1 X-0.755Z0S0F1800
G0 Z-5 F500
G1 X-0.612Z0S900F1800
G0 Z5 F500
G1 X-1.079Z0S0F1800
G0 Z-5 F500
G1 X-0.767Z0S900F1800
G0 Z5 F500
G1 X-1.467Z0S0F1800
G0 Z-5 F500
G1 X-0.543Z0S900F1800
G0 Z5 F500
G1 X-0.876Z0S0F1800
G0 Z-5 F500
G1 X-0.94Z0S900F1800
G0 Z5 F500
G1 X-1.431Z0S0F1800
G0 Z-5 F500
G1 X-1.011Z0S900F1800
G0 Z5 F500
G1 X-0.849Z0S0F1800
G0 Z-5 F500
G1 X-0.759Z0S900F1800
G0 Z5 F500
G1 X-4.53Z0S0F1800
G0 Z-5 F500
G1 X-0.302Z0S900F1800
G0 Z5 F500
G1 X-5.729Z0S0F1800
G0 Z-5 F500
G1 X-0.954Z0S900F1800
G0 Z5 F500
G1 X-1.067Z0S0F1800
G0 Z-5 F500
G1 X-0.719Z0S900F1800
G0 Z5 F500
G1 X-1.5Z0S0F1800
G0 Z-5 F500
G1 X-0.353Z0S900F1800
G0 Z5 F500
G1 X-2.016Z0S0F1800
G0 Z-5 F500
G1 X-0.421Z0S900F1800
G0 Z5 F500
G1 X-1.8Z0S0F1800
G0 Z-5 F500
G1 X-0.586Z0S900F1800
G0 Z5 F500
G1 X-0.789Z0S0F1800
G0 Z-5 F500
G1 X-0.921Z0S900F1800
G0 Z5 F500
G1 X-0.987Z0S0F1800
G0 Z-5 F500
G1 X-0.751Z0S900F1800
G0 Z5 F500
G1 X-2.949Z0S0F1800
G0 Z-5 F500
G1 X-0.826Z0S900F1800
G0 Z5 F500
G1 X-1.915Z0S0F1800
G0 Z-5 F500
G1 X-0.091Z0S900F1800
G0 Z5 F500
G1 X-0.45Z0S0F1800
G0 Z-5 F500
G1 X-0.291Z0S900F1800
G0 Z5 F500
G1 X-6.311Z0S0F1800
G0 Z-5 F500
G1 X-1.199Z0S900F1800
G0 Z5 F500
G1 X-0.601Z0S0F1800
G0 Z-5 F500
G1 X-7.348Z0S900F1800
G0 Z5 F500
G1 X-0.546Z0S0F1800
G0 Z-5 F500
G1 X-0.831Z0S900F1800
G0 Z5 F500
G1 X-0.194Z0S0F1800
G0 Z-5 F500
G1 X-0.601Z0S900F1800
G0 Z5 F500
G1 X-0.153Y0.9Z0S0F1800
G0 Z-5 F500
; --- FIX X Backlash (relative): 1.400mm ---
G0 X1.400 F1200
G1 X0.576Z0S900F1800
G0 Z5 F500
G1 X0.144Z0S0F1800
G0 Z-5 F500
G1 X0.762Z0S900F1800
G0 Z5 F500
G1 X0.554Z0S0F1800
G0 Z-5 F500
G1 X10.004Z0S900F1800
G0 Z5 F500
G1 X0.706Z0S0F1800
G0 Z-5 F500
G1 X1.101Z0S900F1800
G0 Z5 F500
G1 X3.356Z0S0F1800
G0 Z-5 F500
G1 X0.81Z0S900F1800
G0 Z5 F500
G1 X1.312Z0S0F1800
G0 Z-5 F500
G1 X1.024Z0S900F1800
G0 Z5 F500
G1 X0.628Z0S0F1800
G0 Z-5 F500
G1 X0.289Z0S900F1800
G0 Z5 F500
G1 X2.765Z0S0F1800
G0 Z-5 F500
G1 X0.607Z0S900F1800
G0 Z5 F500
G1 X1.082Z0S0F1800
G0 Z-5 F500
G1 X0.849Z0S900F1800
G0 Z5 F500
G1 X2.849Z0S0F1800
G0 Z-5 F500
G1 X0.167Z0S900F1800
G0 Z5 F500
G1 X2.733Z0S0F1800
G0 Z-5 F500
G1 X0.668Z0S900F1800
G0 Z5 F500
G1 X1.517Z0S0F1800
G0 Z-5 F500
G1 X0.801Z0S900F1800
G0 Z5 F500
G1 X1.201Z0S0F1800
G0 Z-5 F500
G1 X0.927Z0S900F1800
G0 Z5 F500
G1 X10.216Z0S0F1800
G0 Z-5 F500
G1 X0.787Z0S900F1800
G0 Z5 F500
G1 X0.905Z0S0F1800
G0 Z-5 F500
G1 X1.057Z0S900F1800
G0 Z5 F500
G1 X1.349Z0S0F1800
G0 Z-5 F500
G1 X0.96Z0S900F1800
G0 Z5 F500
G1 X0.878Z0S0F1800
G0 Z-5 F500
G1 X0.756Z0S900F1800
G0 Z5 F500
G1 X1.58Z0S0F1800
G0 Z-5 F500
G1 X0.673Z0S900F1800
G0 Z5 F500
G1 X1.056Z0S0F1800
G0 Z-5 F500
G1 X0.722Z0S900F1800
G0 Z5 F500
G1 X0.371Z0S0F1800
G0 Z-5 F500
G1 X0.985Z0S900F1800
G0 Z5 F500
G1 X4.738Z0S0F1800
G0 Z-5 F500
G1 X0.369Z0S900F1800
G0 Z5 F500
G1 X1.364Z0S0F1800
G0 Z-5 F500
G1 X12.837Z0S900F1800
G0 Z5 F500
G1 X0.088Y0.9Z0S0F1800
G0 Z-5 F500
; --- FIX X Backlash (relative): -1.400mm ---
G0 X-1.400 F1200
G1 X-12.543Z0S900F1800
G0 Z5 F500
G1 X-0.576Z0S0F1800
G0 Z-5 F500
G1 X-0.394Z0S900F1800
G0 Z5 F500
G1 X-4.345Z0S0F1800
G0 Z-5 F500
G1 X-0.65Z0S900F1800
G0 Z5 F500
G1 X-0.974Z0S0F1800
G0 Z-5 F500
G1 X-0.968Z0S900F1800
G0 Z5 F500
G1 X-0.119Z0S0F1800
G0 Z-5 F500
G1 X-0.693Z0S900F1800
G0 Z5 F500
G1 X-1.243Z0S0F1800
G0 Z-5 F500
G1 X-0.622Z0S900F1800
G0 Z5 F500
G1 X-1.621Z0S0F1800
G0 Z-5 F500
G1 X-0.803Z0S900F1800
G0 Z5 F500
G1 X-1.011Z0S0F1800
G0 Z-5 F500
G1 X-0.852Z0S900F1800
G0 Z5 F500
G1 X-1.31Z0S0F1800
G0 Z-5 F500
G1 X-1.09Z0S900F1800
G0 Z5 F500
G1 X-1.069Z0S0F1800
G0 Z-5 F500
G1 X-0.665Z0S900F1800
G0 Z5 F500
G1 X-2.648Z0S0F1800
G0 Z-5 F500
G1 X-0.507Z0S900F1800
G0 Z5 F500
G1 X-6.957Z0S0F1800
G0 Z-5 F500
G1 X-0.817Z0S900F1800
G0 Z5 F500
G1 X-1.363Z0S0F1800
G0 Z-5 F500
G1 X-0.761Z0S900F1800
G0 Z5 F500
G1 X-1.617Z0S0F1800
G0 Z-5 F500
G1 X-0.784Z0S900F1800
G0 Z5 F500
G1 X-2.652Z0S0F1800
G0 Z-5 F500
G1 X-0.458Z0S900F1800
G0 Z5 F500
G1 X-1.843Z0S0F1800
G0 Z-5 F500
G1 X-0.218Z0S900F1800
G0 Z5 F500
G1 X-0.709Z0S0F1800
G0 Z-5 F500
G1 X-0.794Z0S900F1800
G0 Z5 F500
G1 X-1.193Z0S0F1800
G0 Z-5 F500
G1 X-0.506Z0S900F1800
G0 Z5 F500
G1 X-2.265Z0S0F1800
G0 Z-5 F500
G1 X-0.859Z0S900F1800
G0 Z5 F500
G1 X-3.346Z0S0F1800
G0 Z-5 F500
G1 X-0.576Z0S900F1800
G0 Z5 F500
G1 X-2.096Z0S0F1800
G0 Z-5 F500
G1 X-12.904Z0S900F1800
G0 Z5 F500
G1 X-0.602Z0S0F1800
G0 Z-5 F500
G1 X-0.629Z0S900F1800
G0 Z5 F500
G1 X-0.196Z0S0F1800
G0 Z-5 F500
G1 X-0.495Z0S900F1800
G0 Z5 F500
G1 X-0.148Y0.9Z0S0F1800
G0 Z-5 F500
; --- FIX X Backlash (relative): 1.400mm ---
G0 X1.400 F1200
G1 X0.443Z0S900F1800
G0 Z5 F500
G1 X0.16Z0S0F1800
G0 Z-5 F500
G1 X0.508Z0S900F1800
G0 Z5 F500
G1 X0.613Z0S0F1800
G0 Z-5 F500
G1 X14.953Z0S900F1800
G0 Z5 F500
G1 X0.367Z0S0F1800
G0 Z-5 F500
G1 X0.812Z0S900F1800
G0 Z5 F500
G1 X1.977Z0S0F1800
G0 Z-5 F500
G1 X0.663Z0S900F1800
G0 Z5 F500
G1 X1.959Z0S0F1800
G0 Z-5 F500
G1 X1.125Z0S900F1800
G0 Z5 F500
G1 X2.093Z0S0F1800
G0 Z-5 F500
G1 X0.646Z0S900F1800
G0 Z5 F500
G1 X1.278Z0S0F1800
G0 Z-5 F500
G1 X0.554Z0S900F1800
G0 Z5 F500
G1 X1.06Z0S0F1800
G0 Z-5 F500
G1 X0.69Z0S900F1800
G0 Z5 F500
G1 X2.27Z0S0F1800
G0 Z-5 F500
G1 X0.813Z0S900F1800
G0 Z5 F500
G1 X1.905Z0S0F1800
G0 Z-5 F500
G1 X0.523Z0S900F1800
G0 Z5 F500
G1 X1.688Z0S0F1800
G0 Z-5 F500
G1 X0.687Z0S900F1800
G0 Z5 F500
G1 X7.067Z0S0F1800
G0 Z-5 F500
G1 X0.835Z0S900F1800
G0 Z5 F500
G1 X2.17Z0S0F1800
G0 Z-5 F500
G1 X0.569Z0S900F1800
G0 Z5 F500
G1 X1.08Z0S0F1800
G0 Z-5 F500
G1 X0.978Z0S900F1800
G0 Z5 F500
G1 X1.521Z0S0F1800
G0 Z-5 F500
G1 X0.749Z0S900F1800
G0 Z5 F500
G1 X1.123Z0S0F1800
G0 Z-5 F500
G1 X0.754Z0S900F1800
G0 Z5 F500
G1 X1.605Z0S0F1800
G0 Z-5 F500
G1 X0.67Z0S900F1800
G0 Z5 F500
G1 X1.572Z0S0F1800
G0 Z-5 F500
G1 X1.388Z0S900F1800
G0 Z5 F500
G1 X0.71Z0S0F1800
G0 Z-5 F500
G1 X0.828Z0S900F1800
G0 Z5 F500
G1 X0.908Z0S0F1800
G0 Z-5 F500
G1 X0.543Z0S900F1800
G0 Z5 F500
G1 X2.928Z0S0F1800
G0 Z-5 F500
G1 X0.936Z0S900F1800
G0 Z5 F500
G1 X0.629Z0S0F1800
G0 Z-5 F500
G1 X12.152Z0S900F1800
G0 Z5 F500
G1 Y0.9Z0S0F1800
G0 Z-5 F500
; --- FIX X Backlash (relative): -1.400mm ---
G0 X-1.400 F1200
G1 X-11.773Z0S900F1800
G0 Z5 F500
G1 X-0.697Z0S0F1800
G0 Z-5 F500
G1 X-1.413Z0S900F1800
G0 Z5 F500
G1 X-2.969Z0S0F1800
G0 Z-5 F500
G1 X-0.588Z0S900F1800
G0 Z5 F500
G1 X-0.556Z0S0F1800
G0 Z-5 F500
G1 X-1.067Z0S900F1800
G0 Z5 F500
G1 X-0.624Z0S0F1800
G0 Z-5 F500
G1 X-1.064Z0S900F1800
G0 Z5 F500
G1 X-2.135Z0S0F1800
G0 Z-5 F500
G1 X-0.643Z0S900F1800
G0 Z5 F500
G1 X-1.489Z0S0F1800
G0 Z-5 F500
G1 X-0.753Z0S900F1800
G0 Z5 F500
G1 X-1.342Z0S0F1800
G0 Z-5 F500
G1 X-0.615Z0S900F1800
G0 Z5 F500
G1 X-1.638Z0S0F1800
G0 Z-5 F500
G1 X-0.905Z0S900F1800
G0 Z5 F500
G1 X-1.259Z0S0F1800
G0 Z-5 F500
G1 X-0.23Z0S900F1800
G0 Z5 F500
G1 X-1.908Z0S0F1800
G0 Z-5 F500
G1 X-0.961Z0S900F1800
G0 Z5 F500
G1 X-0.465Z0S0F1800
G0 Z-5 F500
G1 X-0.752Z0S900F1800
G0 Z5 F500
G1 X-5.931Z0S0F1800
G0 Z-5 F500
G1 X-0.58Z0S900F1800
G0 Z5 F500
G1 X-4.208Z0S0F1800
G0 Z-5 F500
G1 X-0.929Z0S900F1800
G0 Z5 F500
G1 X-1.863Z0S0F1800
G0 Z-5 F500
G1 X-0.806Z0S900F1800
G0 Z5 F500
G1 X-0.887Z0S0F1800
G0 Z-5 F500
G1 X-0.554Z0S900F1800
G0 Z5 F500
G1 X-2.728Z0S0F1800
G0 Z-5 F500
G1 X-0.962Z0S900F1800
G0 Z5 F500
G1 X-6.565Z0S0F1800
G0 Z-5 F500
G1 X-16.188Z0S900F1800
G0 Z5 F500
G1 X-0.651Z0S0F1800
G0 Z-5 F500
G1 X-0.396Z0S900F1800
G0 Z5 F500
G1 X-0.052Z0S0F1800
G0 Z-5 F500
G1 X-0.481Z0S900F1800
G0 Z5 F500
G1 X-0.032Y0.9Z0S0F1800
G0 Z-5 F500
; --- FIX X Backlash (relative): 1.400mm ---
G0 X1.400 F1200
G1 X0.717Z0S900F1800
G0 Z5 F500
G1 X0.706Z0S0F1800
G0 Z-5 F500
G1 X0.108Z0S900F1800
G0 Z5 F500
G1 X2.135Z0S0F1800
G0 Z-5 F500
G1 X15.038Z0S900F1800
G0 Z5 F500
G1 X0.285Z0S0F1800
G0 Z-5 F500
G1 X1.441Z0S900F1800
G0 Z5 F500
G1 X5.793Z0S0F1800
G0 Z-5 F500
G1 X1.028Z0S900F1800
G0 Z5 F500
G1 X1.482Z0S0F1800
G0 Z-5 F500
G1 X0.768Z0S900F1800
G0 Z5 F500
G1 X0.533Z0S0F1800
G0 Z-5 F500
G1 X0.817Z0S900F1800
G0 Z5 F500
G1 X1.492Z0S0F1800
G0 Z-5 F500
G1 X0.937Z0S900F1800
G0 Z5 F500
G1 X4.209Z0S0F1800
G0 Z-5 F500
G1 X0.016Z0S900F1800
G0 Z5 F500
G1 X5.689Z0S0F1800
G0 Z-5 F500
G1 X1.333Z0S900F1800
G0 Z5 F500
G1 X0.497Z0S0F1800
G0 Z-5 F500
G1 X0.906Z0S900F1800
G0 Z5 F500
G1 X3.223Z0S0F1800
G0 Z-5 F500
G1 X0.962Z0S900F1800
G0 Z5 F500
G1 X1.61Z0S0F1800
G0 Z-5 F500
G1 X0.319Z0S900F1800
G0 Z5 F500
G1 X1.61Z0S0F1800
G0 Z-5 F500
G1 X0.744Z0S900F1800
G0 Z5 F500
G1 X1.444Z0S0F1800
G0 Z-5 F500
G1 X0.519Z0S900F1800
G0 Z5 F500
G1 X2.803Z0S0F1800
G0 Z-5 F500
G1 X0.817Z0S900F1800
G0 Z5 F500
G1 X0.477Z0S0F1800
G0 Z-5 F500
G1 X1.249Z0S900F1800
G0 Z5 F500
G1 X0.388Z0S0F1800
G0 Z-5 F500
G1 X0.546Z0S900F1800
G0 Z5 F500
G1 X3.202Z0S0F1800
G0 Z-5 F500
G1 X1.513Z0S900F1800
G0 Z5 F500
G1 X0.806Z0S0F1800
G0 Z-5 F500
G1 X11.474Z0S900F1800
G0 Z5 F500
; --- FIX X Backlash (relative): -1.400mm ---
G0 X-1.400 F1200
G1 X-0.177Y0.9Z0S0F1800
G0 Z-5 F500
G1 X-1.13Z0S900F1800
G0 Z5 F500
G1 X-0.2Z0S0F1800
G0 Z-5 F500
G1 X-9.754Z0S900F1800
G0 Z5 F500
G1 X-0.935Z0S0F1800
G0 Z-5 F500
G1 X-1.358Z0S900F1800
G0 Z5 F500
G1 X-0.752Z0S0F1800
G0 Z-5 F500
G1 X-0.904Z0S900F1800
G0 Z5 F500
G1 X-1.623Z0S0F1800
G0 Z-5 F500
G1 X-0.551Z0S900F1800
G0 Z5 F500
G1 X-0.528Z0S0F1800
G0 Z-5 F500
G1 X-1.267Z0S900F1800
G0 Z5 F500
G1 X-0.424Z0S0F1800
G0 Z-5 F500
G1 X-0.695Z0S900F1800
G0 Z5 F500
G1 X-5.179Z0S0F1800
G0 Z-5 F500
G1 X-0.747Z0S900F1800
G0 Z5 F500
G1 X-3.477Z0S0F1800
G0 Z-5 F500
G1 X-0.977Z0S900F1800
G0 Z5 F500
G1 X-3.439Z0S0F1800
G0 Z-5 F500
G1 X-0.577Z0S900F1800
G0 Z5 F500
G1 X-1.302Z0S0F1800
G0 Z-5 F500
G1 X-1.713Z0S900F1800
G0 Z5 F500
G1 X-2.164Z0S0F1800
G0 Z-5 F500
G1 X-0.303Z0S900F1800
G0 Z5 F500
G1 X-5.868Z0S0F1800
G0 Z-5 F500
G1 X-0.807Z0S900F1800
G0 Z5 F500
G1 X-1.187Z0S0F1800
G0 Z-5 F500
G1 X-0.762Z0S900F1800
G0 Z5 F500
G1 X-1.893Z0S0F1800
G0 Z-5 F500
G1 X-1.232Z0S900F1800
G0 Z5 F500
G1 X-5.312Z0S0F1800
G0 Z-5 F500
G1 X-1.202Z0S900F1800
G0 Z5 F500
G1 X-0.289Z0S0F1800
G0 Z-5 F500
G1 X-0.921Z0S900F1800
G0 Z5 F500
G1 X-0.798Z0S0F1800
G0 Z-5 F500
G1 X-11.399Z0S900F1800
G0 Z5 F500
G1 X-2.939Z0S0F1800
G0 Z-5 F500
G1 X-1.573Z0S900F1800
G0 Z5 F500
G1 X-0.786Z0S0F1800
G0 Z-5 F500
G1 X-0.651Z0S900F1800
G0 Z5 F500
G1 X-0.429Z0S0F1800
G0 Z-5 F500
G1 X-0.174Z0S900F1800
G0 Z5 F500
G1 X-0.682Z0S0F1800
G0 Z-5 F500
G1 X-0.564Z0S900F1800
G0 Z5 F500
G1 Y0.9Z0S0F1800
G0 Z-5 F500
; --- FIX X Backlash (relative): 1.400mm ---
G0 X1.400 F1200
G1 X0.442Z0S900F1800
G0 Z5 F500
G1 X0.584Z0S0F1800
G0 Z-5 F500
G1 X0.295Z0S900F1800
G0 Z5 F500
G1 X0.354Z0S0F1800
G0 Z-5 F500
G1 X0.626Z0S900F1800
G0 Z5 F500
G1 X4.022Z0S0F1800
G0 Z-5 F500
G1 X3.035Z0S900F1800
G0 Z5 F500
G1 X1.627Z0S0F1800
G0 Z-5 F500
G1 X8.295Z0S900F1800
G0 Z5 F500
G1 X1.029Z0S0F1800
G0 Z-5 F500
G1 X1.109Z0S900F1800
G0 Z5 F500
G1 X1.507Z0S0F1800
G0 Z-5 F500
G1 X1.757Z0S900F1800
G0 Z5 F500
G1 X4.464Z0S0F1800
G0 Z-5 F500
G1 X1.936Z0S900F1800
G0 Z5 F500
G1 X7.592Z0S0F1800
G0 Z-5 F500
G1 X2.598Z0S900F1800
G0 Z5 F500
G1 X7.502Z0S0F1800
G0 Z-5 F500
G1 X0.977Z0S900F1800
G0 Z5 F500
G1 X1.211Z0S0F1800
G0 Z-5 F500
G1 X0.593Z0S900F1800
G0 Z5 F500
G1 X1.598Z0S0F1800
G0 Z-5 F500
G1 X0.605Z0S900F1800
G0 Z5 F500
G1 X5.657Z0S0F1800
G0 Z-5 F500
G1 X0.725Z0S900F1800
G0 Z5 F500
G1 X0.476Z0S0F1800
G0 Z-5 F500
G1 X1.271Z0S900F1800
G0 Z5 F500
G1 X0.699Z0S0F1800
G0 Z-5 F500
G1 X0.538Z0S900F1800
G0 Z5 F500
G1 X2.073Z0S0F1800
G0 Z-5 F500
G1 X0.563Z0S900F1800
G0 Z5 F500
G1 X0.705Z0S0F1800
G0 Z-5 F500
G1 X0.989Z0S900F1800
G0 Z5 F500
G1 X1.089Z0S0F1800
G0 Z-5 F500
G1 X0.145Z0S900F1800
G0 Z5 F500
G1 X9.653Z0S0F1800
G0 Z-5 F500
G1 X1.15Z0S900F1800
G0 Z5 F500
G1 X0.038Y0.9Z0S0F1800
G0 Z-5 F500
; --- FIX X Backlash (relative): -1.400mm ---
G0 X-1.400 F1200
G1 X-1.194Z0S900F1800
G0 Z5 F500
G1 X-14.784Z0S0F1800
G0 Z-5 F500
G1 X-2.604Z0S900F1800
G0 Z5 F500
G1 X-0.781Z0S0F1800
G0 Z-5 F500
G1 X-0.692Z0S900F1800
G0 Z5 F500
G1 X-6.3Z0S0F1800
G0 Z-5 F500
G1 X-0.304Z0S900F1800
G0 Z5 F500
G1 X-1.351Z0S0F1800
G0 Z-5 F500
G1 X-0.745Z0S900F1800
G0 Z5 F500
G1 X-1.277Z0S0F1800
G0 Z-5 F500
G1 X-0.912Z0S900F1800
G0 Z5 F500
G1 X-3.709Z0S0F1800
G0 Z-5 F500
G1 X-0.779Z0S900F1800
G0 Z5 F500
G1 X-5.947Z0S0F1800
G0 Z-5 F500
G1 X-7.719Z0S900F1800
G0 Z5 F500
G1 X-3.526Z0S0F1800
G0 Z-5 F500
G1 X-1.545Z0S900F1800
G0 Z5 F500
G1 X-1.009Z0S0F1800
G0 Z-5 F500
G1 X-0.833Z0S900F1800
G0 Z5 F500
G1 X-1.348Z0S0F1800
G0 Z-5 F500
G1 X-1.64Z0S900F1800
G0 Z5 F500
G1 X-1.202Z0S0F1800
G0 Z-5 F500
G1 X-3.729Z0S900F1800
G0 Z5 F500
G1 X-1.052Z0S0F1800
G0 Z-5 F500
G1 X-3.943Z0S900F1800
G0 Z5 F500
G1 X-8.42Z0S0F1800
G0 Z-5 F500
G1 X-0.594Z0S900F1800
G0 Z5 F500
G1 X-0.486Z0S0F1800
G0 Z-5 F500
G1 X-0.222Z0S900F1800
G0 Z5 F500
G1 X-0.541Z0S0F1800
G0 Z-5 F500
G1 X-0.332Z0S900F1800
G0 Z5 F500
G1 X0.02Y0.9Z0S0F1800
G0 Z-5 F500
; --- FIX X Backlash (relative): 1.400mm ---
G0 X1.400 F1200
G1 X0.293Z0S900F1800
G0 Z5 F500
G1 X0.441Z0S0F1800
G0 Z-5 F500
G1 X0.187Z0S900F1800
G0 Z5 F500
G1 X0.449Z0S0F1800
G0 Z-5 F500
G1 X0.62Z0S900F1800
G0 Z5 F500
G1 X16.235Z0S0F1800
G0 Z-5 F500
G1 X1.11Z0S900F1800
G0 Z5 F500
G1 X1.09Z0S0F1800
G0 Z-5 F500
G1 X1.02Z0S900F1800
G0 Z5 F500
G1 X0.13Z0S0F1800
G0 Z-5 F500
G1 X1.329Z0S900F1800
G0 Z5 F500
G1 X1.144Z0S0F1800
G0 Z-5 F500
G1 X0.85Z0S900F1800
G0 Z5 F500
G1 X0.971Z0S0F1800
G0 Z-5 F500
G1 X0.844Z0S900F1800
G0 Z5 F500
G1 X0.747Z0S0F1800
G0 Z-5 F500
G1 X3.077Z0S900F1800
G0 Z5 F500
G1 X7.614Z0S0F1800
G0 Z-5 F500
G1 X0.262Z0S900F1800
G0 Z5 F500
G1 X3.081Z0S0F1800
G0 Z-5 F500
G1 X0.771Z0S900F1800
G0 Z5 F500
G1 X1.229Z0S0F1800
G0 Z-5 F500
G1 X0.86Z0S900F1800
G0 Z5 F500
G1 X3.984Z0S0F1800
G0 Z-5 F500
G1 X0.814Z0S900F1800
G0 Z5 F500
G1 X1.362Z0S0F1800
G0 Z-5 F500
G1 X0.82Z0S900F1800
G0 Z5 F500
G1 X8.081Z0S0F1800
G0 Z-5 F500
G1 X0.703Z0S900F1800
G0 Z5 F500
G1 X0.639Z0S0F1800
G0 Z-5 F500
G1 X0.302Z0S900F1800
G0 Z5 F500
G1 X0.549Z0S0F1800
G0 Z-5 F500
G1 X2.468Z0S900F1800
G0 Z5 F500
G1 X14.226Z0S0F1800
G0 Z-5 F500
G1 X1.236Z0S900F1800
G0 Z5 F500
G1 X0.038Y0.9Z0S0F1800
G0 Z-5 F500
; --- FIX X Backlash (relative): -1.400mm ---
G0 X-1.400 F1200
G1 X-1.278Z0S900F1800
G0 Z5 F500
G1 X-8.335Z0S0F1800
G0 Z-5 F500
G1 X-0.405Z0S900F1800
G0 Z5 F500
G1 X-1.437Z0S0F1800
G0 Z-5 F500
G1 X-0.54Z0S900F1800
G0 Z5 F500
G1 X-3Z0S0F1800
G0 Z-5 F500
G1 X-1.895Z0S900F1800
G0 Z5 F500
G1 X-0.265Z0S0F1800
G0 Z-5 F500
G1 X-0.854Z0S900F1800
G0 Z5 F500
G1 X-1.511Z0S0F1800
G0 Z-5 F500
G1 X-0.816Z0S900F1800
G0 Z5 F500
G1 X-3.625Z0S0F1800
G0 Z-5 F500
G1 X-0.048Z0S900F1800
G0 Z5 F500
G1 X-4.394Z0S0F1800
G0 Z-5 F500
G1 X-0.91Z0S900F1800
G0 Z5 F500
G1 X-1.561Z0S0F1800
G0 Z-5 F500
G1 X-0.546Z0S900F1800
G0 Z5 F500
G1 X-1.719Z0S0F1800
G0 Z-5 F500
G1 X-0.643Z0S900F1800
G0 Z5 F500
G1 X-2.012Z0S0F1800
G0 Z-5 F500
G1 X-0.919Z0S900F1800
G0 Z5 F500
G1 X-1.314Z0S0F1800
G0 Z-5 F500
G1 X-0.855Z0S900F1800
G0 Z5 F500
G1 X-2.175Z0S0F1800
G0 Z-5 F500
G1 X-0.536Z0S900F1800
G0 Z5 F500
G1 X-1.629Z0S0F1800
G0 Z-5 F500
G1 X-0.728Z0S900F1800
G0 Z5 F500
G1 X-2.38Z0S0F1800
G0 Z-5 F500
G1 X-0.726Z0S900F1800
G0 Z5 F500
G1 X-1.137Z0S0F1800
G0 Z-5 F500
G1 X-0.762Z0S900F1800
G0 Z5 F500
G1 X-1.378Z0S0F1800
G0 Z-5 F500
G1 X-0.472Z0S900F1800
G0 Z5 F500
G1 X-0.639Z0S0F1800
G0 Z-5 F500
G1 X-0.637Z0S900F1800
G0 Z5 F500
G1 X-0.757Z0S0F1800
G0 Z-5 F500
G1 X-0.909Z0S900F1800
G0 Z5 F500
G1 X-0.718Z0S0F1800
G0 Z-5 F500
G1 X-0.506Z0S900F1800
G0 Z5 F500
G1 X-0.967Z0S0F1800
G0 Z-5 F500
G1 X-1.36Z0S900F1800
G0 Z5 F500
G1 X-1.055Z0S0F1800
G0 Z-5 F500
G1 X-1.081Z0S900F1800
G0 Z5 F500
G1 X-0.929Z0S0F1800
G0 Z-5 F500
G1 X-1.035Z0S900F1800
G0 Z5 F500
G1 X-16.46Z0S0F1800
G0 Z-5 F500
G1 X-0.628Z0S900F1800
G0 Z5 F500
G1 X-0.269Z0S0F1800
G0 Z-5 F500
G1 X-0.202Z0S900F1800
G0 Z5 F500
G1 X-0.141Y0.9Z0S0F1800
G0 Z-5 F500
; --- FIX X Backlash (relative): 1.400mm ---
G0 X1.400 F1200
G1 X0.958Z0S900F1800
G0 Z5 F500
G1 X16.693Z0S0F1800
G0 Z-5 F500
G1 X1.048Z0S900F1800
G0 Z5 F500
G1 X0.779Z0S0F1800
G0 Z-5 F500
G1 X1.098Z0S900F1800
G0 Z5 F500
G1 X2.081Z0S0F1800
G0 Z-5 F500
G1 X1.191Z0S900F1800
G0 Z5 F500
G1 X1.53Z0S0F1800
G0 Z-5 F500
G1 X0.915Z0S900F1800
G0 Z5 F500
G1 X0.721Z0S0F1800
G0 Z-5 F500
G1 X0.767Z0S900F1800
G0 Z5 F500
G1 X0.507Z0S0F1800
G0 Z-5 F500
G1 X0.385Z0S900F1800
G0 Z5 F500
G1 X1.468Z0S0F1800
G0 Z-5 F500
G1 X0.665Z0S900F1800
G0 Z5 F500
G1 X1.041Z0S0F1800
G0 Z-5 F500
G1 X0.614Z0S900F1800
G0 Z5 F500
G1 X2.358Z0S0F1800
G0 Z-5 F500
G1 X0.763Z0S900F1800
G0 Z5 F500
G1 X1.945Z0S0F1800
G0 Z-5 F500
G1 X0.418Z0S900F1800
G0 Z5 F500
G1 X1.716Z0S0F1800
G0 Z-5 F500
G1 X0.702Z0S900F1800
G0 Z5 F500
G1 X1.606Z0S0F1800
G0 Z-5 F500
G1 X0.803Z0S900F1800
G0 Z5 F500
G1 X1.887Z0S0F1800
G0 Z-5 F500
G1 X0.719Z0S900F1800
G0 Z5 F500
G1 X4.206Z0S0F1800
G0 Z-5 F500
G1 X0.869Z0S900F1800
G0 Z5 F500
G1 X8.299Z0S0F1800
G0 Z-5 F500
G1 X0.874Z0S900F1800
G0 Z5 F500
G1 X2.216Z0S0F1800
G0 Z-5 F500
G1 X0.732Z0S900F1800
G0 Z5 F500
G1 X0.464Z0S0F1800
G0 Z-5 F500
G1 X1.481Z0S900F1800
G0 Z5 F500
G1 X2.425Z0S0F1800
G0 Z-5 F500
G1 X0.199Z0S900F1800
G0 Z5 F500
G1 X0.356Z0S0F1800
G0 Z-5 F500
G1 X0.624Z0S900F1800
G0 Z5 F500
G1 X1.213Z0S0F1800
G0 Z-5 F500
G1 X0.335Z0S900F1800
G0 Z5 F500
G1 X8.145Z0S0F1800
G0 Z-5 F500
G1 X1.3Z0S900F1800
G0 Z5 F500
; --- FIX X Backlash (relative): -1.400mm ---
G0 X-1.400 F1200
G1 X-0.06Y0.9Z0S0F1800
G0 Z-5 F500
G1 X-1.244Z0S900F1800
G0 Z5 F500
G1 X-9.132Z0S0F1800
G0 Z-5 F500
G1 X-0.82Z0S900F1800
G0 Z5 F500
G1 X-0.784Z0S0F1800
G0 Z-5 F500
G1 X-0.186Z0S900F1800
G0 Z5 F500
G1 X-2.239Z0S0F1800
G0 Z-5 F500
G1 X-0.396Z0S900F1800
G0 Z5 F500
G1 X-1.521Z0S0F1800
G0 Z-5 F500
G1 X-0.616Z0S900F1800
G0 Z5 F500
G1 X-2.63Z0S0F1800
G0 Z-5 F500
G1 X-0.741Z0S900F1800
G0 Z5 F500
G1 X-8.728Z0S0F1800
G0 Z-5 F500
G1 X-1.014Z0S900F1800
G0 Z5 F500
G1 X-4.321Z0S0F1800
G0 Z-5 F500
G1 X-0.666Z0S900F1800
G0 Z5 F500
G1 X-1.745Z0S0F1800
G0 Z-5 F500
G1 X-0.751Z0S900F1800
G0 Z5 F500
G1 X-1.946Z0S0F1800
G0 Z-5 F500
G1 X-0.178Z0S900F1800
G0 Z5 F500
G1 X-3.706Z0S0F1800
G0 Z-5 F500
G1 X-0.772Z0S900F1800
G0 Z5 F500
G1 X-2.405Z0S0F1800
G0 Z-5 F500
G1 X-0.68Z0S900F1800
G0 Z5 F500
G1 X-0.977Z0S0F1800
G0 Z-5 F500
G1 X-0.684Z0S900F1800
G0 Z5 F500
G1 X-2.242Z0S0F1800
G0 Z-5 F500
G1 X-0.75Z0S900F1800
G0 Z5 F500
G1 X-0.661Z0S0F1800
G0 Z-5 F500
G1 X-0.906Z0S900F1800
G0 Z5 F500
G1 X-1.033Z0S0F1800
G0 Z-5 F500
G1 X-1.207Z0S900F1800
G0 Z5 F500
G1 X-2.987Z0S0F1800
G0 Z-5 F500
G1 X-1.035Z0S900F1800
G0 Z5 F500
G1 X-0.682Z0S0F1800
G0 Z-5 F500
G1 X-1.069Z0S900F1800
G0 Z5 F500
G1 X-16.958Z0S0F1800
G0 Z-5 F500
G1 X-0.768Z0S900F1800
G0 Z5 F500
; --- FIX X Backlash (relative): 1.400mm ---
G0 X1.400 F1200
G1 X0.06Y0.9Z0S0F1800
G0 Z-5 F500
G1 X0.686Z0S900F1800
G0 Z5 F500
G1 X16.894Z0S0F1800
G0 Z-5 F500
G1 X1.026Z0S900F1800
G0 Z5 F500
G1 X0.705Z0S0F1800
G0 Z-5 F500
G1 X1.07Z0S900F1800
G0 Z5 F500
G1 X3.814Z0S0F1800
G0 Z-5 F500
G1 X1.229Z0S900F1800
G0 Z5 F500
G1 X0.734Z0S0F1800
G0 Z-5 F500
G1 X1.041Z0S900F1800
G0 Z5 F500
G1 X0.266Z0S0F1800
G0 Z-5 F500
G1 X0.578Z0S900F1800
G0 Z5 F500
G1 X2.28Z0S0F1800
G0 Z-5 F500
G1 X0.787Z0S900F1800
G0 Z5 F500
G1 X0.946Z0S0F1800
G0 Z-5 F500
G1 X0.716Z0S900F1800
G0 Z5 F500
G1 X2.342Z0S0F1800
G0 Z-5 F500
G1 X0.734Z0S900F1800
G0 Z5 F500
G1 X5.279Z0S0F1800
G0 Z-5 F500
G1 X0.554Z0S900F1800
G0 Z5 F500
G1 X1.706Z0S0F1800
G0 Z-5 F500
G1 X0.67Z0S900F1800
G0 Z5 F500
G1 X4.191Z0S0F1800
G0 Z-5 F500
G1 X1.049Z0S900F1800
G0 Z5 F500
G1 X1.621Z0S0F1800
G0 Z-5 F500
G1 X0.774Z0S900F1800
G0 Z5 F500
G1 X4.386Z0S0F1800
G0 Z-5 F500
G1 X0.636Z0S900F1800
G0 Z5 F500
G1 X1.991Z0S0F1800
G0 Z-5 F500
G1 X0.672Z0S900F1800
G0 Z5 F500
G1 X1.925Z0S0F1800
G0 Z-5 F500
G1 X0.426Z0S900F1800
G0 Z5 F500
G1 X0.473Z0S0F1800
G0 Z-5 F500
G1 X0.687Z0S900F1800
G0 Z5 F500
G1 X3.421Z0S0F1800
G0 Z-5 F500
G1 X0.488Z0S900F1800
G0 Z5 F500
G1 X0.42Z0S0F1800
G0 Z-5 F500
G1 X1.085Z0S900F1800
G1 X0.549Z0F1800
G0 Z5 F500
G1 X2.441Z0S0F1800
G0 Z-5 F500
G1 X2.611Z0S900F1800
G0 Z5 F500
G1 X3.969Z0S0F1800
G0 Z-5 F500
G1 X1.347Z0S900F1800
G0 Z5 F500
; --- FIX X Backlash (relative): -1.400mm ---
G0 X-1.400 F1200
G1 X-0.158Y0.9Z0S0F1800
G0 Z-5 F500
G1 X-1.54Z0S900F1800
G0 Z5 F500
G1 X-2.231Z0S0F1800
G0 Z-5 F500
G1 X-5.675Z0S900F1800
G0 Z5 F500
G1 X-0.815Z0S0F1800
G0 Z-5 F500
G1 X-1.592Z0S900F1800
G0 Z5 F500
G1 X-0.412Z0S0F1800
G0 Z-5 F500
G1 X-1.074Z0S900F1800
G0 Z5 F500
G1 X-2.79Z0S0F1800
G0 Z-5 F500
G1 X-0.842Z0S900F1800
G0 Z5 F500
G1 X-3.022Z0S0F1800
G0 Z-5 F500
G1 X-0.413Z0S900F1800
G0 Z5 F500
G1 X-2.213Z0S0F1800
G0 Z-5 F500
G1 X-0.824Z0S900F1800
G0 Z5 F500
G1 X-4.289Z0S0F1800
G0 Z-5 F500
G1 X-1.009Z0S900F1800
G0 Z5 F500
G1 X-1.948Z0S0F1800
G0 Z-5 F500
G1 X-0.935Z0S900F1800
G0 Z5 F500
G1 X-3.973Z0S0F1800
G0 Z-5 F500
G1 X-0.869Z0S900F1800
G0 Z5 F500
G1 X-6.664Z0S0F1800
G0 Z-5 F500
G1 X-0.698Z0S900F1800
G0 Z5 F500
G1 X-2.313Z0S0F1800
G0 Z-5 F500
G1 X-0.648Z0S900F1800
G0 Z5 F500
G1 X-1.114Z0S0F1800
G0 Z-5 F500
G1 X-0.63Z0S900F1800
G0 Z5 F500
G1 X-2.238Z0S0F1800
G0 Z-5 F500
G1 X-1.127Z0S900F1800
G0 Z5 F500
G1 X-0.837Z0S0F1800
G0 Z-5 F500
G1 X-1.388Z0S900F1800
G0 Z5 F500
G1 X-4.581Z0S0F1800
G0 Z-5 F500
G1 X-1.075Z0S900F1800
G0 Z5 F500
G1 X-0.621Z0S0F1800
G0 Z-5 F500
G1 X-1.114Z0S900F1800
G0 Z5 F500
G1 X-0.863Z0S0F1800
G0 Z-5 F500
G1 X-14.004Z0S900F1800
G0 Z5 F500
G1 X-1.504Z0S0F1800
G0 Z-5 F500
G1 X-0.8Z0S900F1800
G0 Z5 F500
; --- FIX X Backlash (relative): 1.400mm ---
G0 X1.400 F1200
G1 X0.199Y0.9Z0S0F1800
G0 Z-5 F500
G1 X16.083Z0S900F1800
G0 Z5 F500
G1 X0.582Z0S0F1800
G0 Z-5 F500
G1 X1.506Z0S900F1800
G0 Z5 F500
G1 X0.461Z0S0F1800
G0 Z-5 F500
G1 X1.154Z0S900F1800
G0 Z5 F500
G1 X5.332Z0S0F1800
G0 Z-5 F500
G1 X1.489Z0S900F1800
G0 Z5 F500
G1 X0.602Z0S0F1800
G0 Z-5 F500
G1 X0.616Z0S900F1800
G0 Z5 F500
G1 X2.288Z0S0F1800
G0 Z-5 F500
G1 X0.376Z0S900F1800
G0 Z5 F500
G1 X1.54Z0S0F1800
G0 Z-5 F500
G1 X0.259Z0S900F1800
G0 Z5 F500
G1 X8.947Z0S0F1800
G0 Z-5 F500
G1 X1.026Z0S900F1800
G0 Z5 F500
G1 X3.987Z0S0F1800
G0 Z-5 F500
G1 X0.47Z0S900F1800
G0 Z5 F500
G1 X2.414Z0S0F1800
G0 Z-5 F500
G1 X1.129Z0S900F1800
G0 Z5 F500
G1 X4.354Z0S0F1800
G0 Z-5 F500
G1 X0.91Z0S900F1800
G0 Z5 F500
G1 X1.285Z0S0F1800
G0 Z-5 F500
G1 X0.407Z0S900F1800
G0 Z5 F500
G1 X1.289Z0S0F1800
G0 Z-5 F500
G1 X1.123Z0S900F1800
G0 Z5 F500
G1 X1.827Z0S0F1800
G0 Z-5 F500
G1 X0.802Z0S900F1800
G0 Z5 F500
G1 X0.329Z0S0F1800
G0 Z-5 F500
G1 X0.499Z0S900F1800
G0 Z5 F500
G1 X1.667Z0S0F1800
G0 Z-5 F500
G1 X1.455Z0S900F1800
G0 Z5 F500
G1 X0.434Z0S0F1800
G0 Z-5 F500
G1 X1.064Z0S900F1800
G0 Z5 F500
G1 X0.822Z0S0F1800
G0 Z-5 F500
G1 X9.977Z0S900F1800
G0 Z5 F500
G1 X0.221Y0.9Z0S0F1800
G0 Z-5 F500
; --- FIX X Backlash (relative): -1.400mm ---
G0 X-1.400 F1200
G1 X-10.808Z0S900F1800
G0 Z5 F500
G1 X-0.982Z0S0F1800
G0 Z-5 F500
G1 X-0.256Z0S900F1800
G0 Z5 F500
G1 X-0.494Z0S0F1800
G0 Z-5 F500
G1 X-1.678Z0S900F1800
G0 Z5 F500
G1 X-0.548Z0S0F1800
G0 Z-5 F500
G1 X-1.378Z0S900F1800
G0 Z5 F500
G1 X-0.363Z0S0F1800
G0 Z-5 F500
G1 X-0.8Z0S900F1800
G0 Z5 F500
G1 X-1.385Z0S0F1800
G0 Z-5 F500
G1 X-1.532Z0S900F1800
G0 Z5 F500
G1 X-1.201Z0S0F1800
G0 Z-5 F500
G1 X-0.334Z0S900F1800
G0 Z5 F500
G1 X-1.78Z0S0F1800
G0 Z-5 F500
G1 X-0.935Z0S900F1800
G0 Z5 F500
G1 X-2.038Z0S0F1800
G0 Z-5 F500
G1 X-0.65Z0S900F1800
G0 Z5 F500
G1 X-2.022Z0S0F1800
G0 Z-5 F500
G1 X-1.16Z0S900F1800
G0 Z5 F500
G1 X-6.766Z0S0F1800
G0 Z-5 F500
G1 X-1.115Z0S900F1800
G0 Z5 F500
G1 X-20.669Z0S0F1800
G0 Z-5 F500
G1 X-1.474Z0S900F1800
G0 Z5 F500
G1 X-0.164Z0S0F1800
G0 Z-5 F500
G1 X-1.111Z0S900F1800
G0 Z5 F500
G1 X-0.372Z0S0F1800
G0 Z-5 F500
G1 X-0.544Z0S900F1800
G0 Z5 F500
G1 X-0.153Z0S0F1800
G0 Z-5 F500
G1 X-16.095Z0S900F1800
G0 Z5 F500
G1 X-0.813Z0S0F1800
G0 Z-5 F500
G1 X-0.084Z0S900F1800
G0 Z5 F500
G1 X-0.018Y0.9Z0S0F1800
G0 Z-5 F500
; --- FIX X Backlash (relative): 1.400mm ---
G0 X1.400 F1200
G1 X0.122Z0S900F1800
G0 Z5 F500
G1 X0.796Z0S0F1800
G0 Z-5 F500
G1 X16.718Z0S900F1800
G0 Z5 F500
G1 X0.472Z0S0F1800
G0 Z-5 F500
G1 X0.918Z0S900F1800
G0 Z5 F500
G1 X0.167Z0S0F1800
G0 Z-5 F500
G1 X1.868Z0S900F1800
G0 Z5 F500
G1 X5.217Z0S0F1800
G0 Z-5 F500
G1 X5.404Z0S900F1800
G0 Z5 F500
G1 X9.15Z0S0F1800
G0 Z-5 F500
G1 X1.082Z0S900F1800
G0 Z5 F500
G1 X6.579Z0S0F1800
G0 Z-5 F500
G1 X1.084Z0S900F1800
G0 Z5 F500
G1 X2.299Z0S0F1800
G0 Z-5 F500
G1 X0.843Z0S900F1800
G0 Z5 F500
G1 X2.111Z0S0F1800
G0 Z-5 F500
G1 X0.907Z0S900F1800
G0 Z5 F500
G1 X0.99Z0S0F1800
G0 Z-5 F500
G1 X0.535Z0S900F1800
G0 Z5 F500
G1 X2.532Z0S0F1800
G0 Z-5 F500
G1 X1.391Z0S900F1800
G0 Z5 F500
G1 X1.191Z0S0F1800
G0 Z-5 F500
G1 X0.81Z0S900F1800
G0 Z5 F500
G1 X0.691Z0S0F1800
G0 Z-5 F500
G1 X0.957Z0S900F1800
G0 Z5 F500
G1 X0.466Z0S0F1800
G0 Z-5 F500
G1 X1.852Z0S900F1800
G0 Z5 F500
G1 X1.144Z0S0F1800
G0 Z-5 F500
G1 X11.36Z0S900F1800
G0 Z5 F500
G1 X-0.01Y0.9Z0S0F1800
G0 Z-5 F500
; --- FIX X Backlash (relative): -1.400mm ---
G0 X-1.400 F1200
G1 X-11.936Z0S900F1800
G0 Z5 F500
G1 X-0.6Z0S0F1800
G0 Z-5 F500
G1 X-1.96Z0S900F1800
G0 Z5 F500
G1 X-0.296Z0S0F1800
G0 Z-5 F500
G1 X-1.014Z0S900F1800
G0 Z5 F500
G1 X-0.675Z0S0F1800
G0 Z-5 F500
G1 X-0.848Z0S900F1800
G0 Z5 F500
G1 X-1.979Z0S0F1800
G0 Z-5 F500
G1 X-0.362Z0S900F1800
G0 Z5 F500
G1 X-2.319Z0S0F1800
G0 Z-5 F500
G1 X-0.728Z0S900F1800
G0 Z5 F500
G1 X-1.74Z0S0F1800
G0 Z-5 F500
G1 X-0.851Z0S900F1800
G0 Z5 F500
G1 X-2.105Z0S0F1800
G0 Z-5 F500
G1 X-1.029Z0S900F1800
G0 Z5 F500
G1 X-2.738Z0S0F1800
G0 Z-5 F500
G1 X-0.742Z0S900F1800
G0 Z5 F500
G1 X-6.463Z0S0F1800
G0 Z-5 F500
G1 X-1.001Z0S900F1800
G0 Z5 F500
G1 X-2.116Z0S0F1800
G0 Z-5 F500
G1 X-2.687Z0S900F1800
G0 Z5 F500
G1 X-5.579Z0S0F1800
G0 Z-5 F500
G1 X-1.615Z0S900F1800
G0 Z5 F500
G1 X-1.637Z0S0F1800
G0 Z-5 F500
G1 X-0.916Z0S900F1800
G0 Z5 F500
G1 X-4.393Z0S0F1800
G0 Z-5 F500
G1 X-0.677Z0S900F1800
G0 Z5 F500
G1 X-0.498Z0S0F1800
G0 Z-5 F500
G1 X-1.901Z0S900F1800
G0 Z5 F500
G1 X-0.65Z0S0F1800
G0 Z-5 F500
G1 X-0.878Z0S900F1800
G0 Z5 F500
G1 X-0.952Z0S0F1800
G0 Z-5 F500
G1 X-14.831Z0S900F1800
G0 Z5 F500
G1 X-0.798Z0S0F1800
G0 Z-5 F500
G1 X-0.142Z0S900F1800
G0 Z5 F500
G1 X-0.007Y0.9Z0S0F1800
G0 Z-5 F500
; --- FIX X Backlash (relative): 1.400mm ---
G0 X1.400 F1200
G1 X0.155Z0S900F1800
G0 Z5 F500
G1 X0.809Z0S0F1800
G0 Z-5 F500
G1 X12.281Z0S900F1800
G0 Z5 F500
G1 X3.477Z0S0F1800
G0 Z-5 F500
G1 X0.839Z0S900F1800
G0 Z5 F500
G1 X0.876Z0S0F1800
G0 Z-5 F500
G1 X1.153Z0S900F1800
G0 Z5 F500
G1 X1.767Z0S0F1800
G0 Z-5 F500
G1 X1.164Z0S900F1800
G0 Z5 F500
G1 X3.324Z0S0F1800
G0 Z-5 F500
G1 X0.863Z0S900F1800
G0 Z5 F500
G1 X0.204Z0S0F1800
G0 Z-5 F500
G1 X1.849Z0S900F1800
G0 Z5 F500
G1 X2.855Z0S0F1800
G0 Z-5 F500
G1 X1.149Z0S900F1800
G0 Z5 F500
G1 X1.449Z0S0F1800
G0 Z-5 F500
G1 X4.035Z0S900F1800
G0 Z5 F500
G1 X1.447Z0S0F1800
G0 Z-5 F500
G1 X1.09Z0S900F1800
G0 Z5 F500
G1 X9.701Z0S0F1800
G0 Z-5 F500
G1 X1.111Z0S900F1800
G0 Z5 F500
G1 X2.295Z0S0F1800
G0 Z-5 F500
G1 X0.731Z0S900F1800
G0 Z5 F500
G1 X1.177Z0S0F1800
G0 Z-5 F500
G1 X0.715Z0S900F1800
G0 Z5 F500
G1 X0.508Z0S0F1800
G0 Z-5 F500
G1 X0.514Z0S900F1800
G0 Z5 F500
G1 X4.7Z0S0F1800
G0 Z-5 F500
G1 X0.919Z0S900F1800
G0 Z5 F500
G1 X1.491Z0S0F1800
G0 Z-5 F500
G1 X0.681Z0S900F1800
G0 Z5 F500
G1 X1.334Z0S0F1800
G0 Z-5 F500
G1 X12.997Z0S900F1800
G0 Z5 F500
G1 X-0.016Y0.9Z0S0F1800
G0 Z-5 F500
; --- FIX X Backlash (relative): -1.400mm ---
G0 X-1.400 F1200
G1 X-10.211Z0S900F1800
G0 Z5 F500
G1 X-2.564Z0S0F1800
G0 Z-5 F500
G1 X-0.577Z0S900F1800
G0 Z5 F500
G1 X-1.015Z0S0F1800
G0 Z-5 F500
G1 X-0.639Z0S900F1800
G0 Z5 F500
G1 X-1.515Z0S0F1800
G0 Z-5 F500
G1 X-0.904Z0S900F1800
G0 Z5 F500
G1 X-5.576Z0S0F1800
G0 Z-5 F500
G1 X-0.821Z0S900F1800
G0 Z5 F500
G1 X-5.073Z0S0F1800
G0 Z-5 F500
G1 X-0.997Z0S900F1800
G0 Z5 F500
G1 X-9.596Z0S0F1800
G0 Z-5 F500
G1 X-1.031Z0S900F1800
G0 Z5 F500
G1 X-1.673Z0S0F1800
G0 Z-5 F500
G1 X-2.592Z0S900F1800
G0 Z5 F500
G1 X-0.242Z0S0F1800
G0 Z-5 F500
G1 X-2.124Z0S900F1800
G0 Z5 F500
G1 X-5.708Z0S0F1800
G0 Z-5 F500
G1 X-0.806Z0S900F1800
G0 Z5 F500
G1 X-2.392Z0S0F1800
G0 Z-5 F500
G1 X-1.28Z0S900F1800
G0 Z5 F500
G1 X-2.772Z0S0F1800
G0 Z-5 F500
G1 X-0.811Z0S900F1800
G0 Z5 F500
G1 X-1.236Z0S0F1800
G0 Z-5 F500
G1 X-0.83Z0S900F1800
G0 Z5 F500
G1 X-6.441Z0S0F1800
G0 Z-5 F500
G1 X-9.234Z0S900F1800
G0 Z5 F500
G1 X-0.825Z0S0F1800
G0 Z-5 F500
G1 X-0.163Z0S900F1800
G0 Z5 F500
G1 X-0.003Y0.9Z0S0F1800
G0 Z-5 F500
; --- FIX X Backlash (relative): 1.400mm ---
G0 X1.400 F1200
G1 X0.167Z0S900F1800
G0 Z5 F500
G1 X0.847Z0S0F1800
G0 Z-5 F500
G1 X6.225Z0S900F1800
G0 Z5 F500
G1 X9.241Z0S0F1800
G0 Z-5 F500
G1 X0.848Z0S900F1800
G0 Z5 F500
G1 X1.516Z0S0F1800
G0 Z-5 F500
G1 X0.61Z0S900F1800
G0 Z5 F500
G1 X3.762Z0S0F1800
G0 Z-5 F500
G1 X1.13Z0S900F1800
G0 Z5 F500
G1 X1.898Z0S0F1800
G0 Z-5 F500
G1 X0.376Z0S900F1800
G0 Z5 F500
G1 X11.79Z0S0F1800
G0 Z-5 F500
G1 X1.196Z0S900F1800
G0 Z5 F500
G1 X9.65Z0S0F1800
G0 Z-5 F500
G1 X0.574Z0S900F1800
G0 Z5 F500
G1 X6.044Z0S0F1800
G0 Z-5 F500
G1 X0.806Z0S900F1800
G0 Z5 F500
G1 X5.488Z0S0F1800
G0 Z-5 F500
G1 X0.868Z0S900F1800
G0 Z5 F500
G1 X1.466Z0S0F1800
G0 Z-5 F500
G1 X0.693Z0S900F1800
G0 Z5 F500
G1 X0.468Z0S0F1800
G0 Z-5 F500
G1 X0.707Z0S900F1800
G0 Z5 F500
G1 X5.897Z0S0F1800
G0 Z-5 F500
G1 X7.257Z0S900F1800
G0 Z5 F500
G1 X0.026Y0.9Z0S0F1800
G0 Z-5 F500
; --- FIX X Backlash (relative): -1.400mm ---
G0 X-1.400 F1200
G1 X-4.532Z0S900F1800
G0 Z5 F500
G1 X-9.326Z0S0F1800
G0 Z-5 F500
G1 X-0.605Z0S900F1800
G0 Z5 F500
G1 X-0.206Z0S0F1800
G0 Z-5 F500
G1 X-0.439Z0S900F1800
G0 Z5 F500
G1 X-1.901Z0S0F1800
G0 Z-5 F500
G1 X-0.917Z0S900F1800
G0 Z5 F500
G1 X-4.941Z0S0F1800
G0 Z-5 F500
G1 X-0.8Z0S900F1800
G0 Z5 F500
G1 X-16.875Z0S0F1800
G0 Z-5 F500
G1 X-1.011Z0S900F1800
G0 Z5 F500
G1 X-0.269Z0S0F1800
G0 Z-5 F500
G1 X-0.587Z0S900F1800
G0 Z5 F500
G1 X-10.103Z0S0F1800
G0 Z-5 F500
G1 X-0.375Z0S900F1800
G0 Z5 F500
G1 X-1.465Z0S0F1800
G0 Z-5 F500
G1 X-1.183Z0S900F1800
G0 Z5 F500
G1 X-2.167Z0S0F1800
G0 Z-5 F500
G1 X-1.063Z0S900F1800
G0 Z5 F500
G1 X-3.896Z0S0F1800
G0 Z-5 F500
G1 X-0.653Z0S900F1800
G0 Z5 F500
G1 X-12.403Z0S0F1800
G0 Z-5 F500
G1 X-2.79Z0S900F1800
G0 Z5 F500
G1 X-0.875Z0S0F1800
G0 Z-5 F500
G1 X-0.169Z0S900F1800
G0 Z5 F500
G1 Y0.9Z0S0F1800
G0 Z-5 F500
; --- FIX X Backlash (relative): 1.400mm ---
G0 X1.400 F1200
G1 X0.171Z0S900F1800
G0 Z5 F500
G1 X0.69Z0S0F1800
G0 Z-5 F500
G1 X0.526Z0S900F1800
G0 Z5 F500
G1 X14.868Z0S0F1800
G0 Z-5 F500
G1 X0.689Z0S900F1800
G0 Z5 F500
G1 X2.078Z0S0F1800
G0 Z-5 F500
G1 X0.392Z0S900F1800
G0 Z5 F500
G1 X2.411Z0S0F1800
G0 Z-5 F500
G1 X1.592Z0S900F1800
G0 Z5 F500
G1 X1.506Z0S0F1800
G0 Z-5 F500
G1 X0.847Z0S900F1800
G0 Z5 F500
G1 X0.849Z0S0F1800
G0 Z-5 F500
G1 X0.721Z0S900F1800
G0 Z5 F500
G1 X7.737Z0S0F1800
G0 Z-5 F500
G1 X1.696Z0S900F1800
G0 Z5 F500
G1 X0.391Z0S0F1800
G0 Z-5 F500
G1 X0.934Z0S900F1800
G0 Z5 F500
G1 X17.71Z0S0F1800
G0 Z-5 F500
G1 X0.763Z0S900F1800
G0 Z5 F500
G1 X4.47Z0S0F1800
G0 Z-5 F500
G1 X0.867Z0S900F1800
G0 Z5 F500
G1 X0.859Z0S0F1800
G0 Z-5 F500
G1 X0.647Z0S900F1800
G0 Z5 F500
G1 X0.93Z0S0F1800
G0 Z-5 F500
G1 X0.793Z0S900F1800
G0 Z5 F500
G1 X13.578Z0S0F1800
G0 Z-5 F500
G1 X0.85Z0S900F1800
G0 Z5 F500
G1 X0.012Y0.9Z0S0F1800
G0 Z-5 F500
; --- FIX X Backlash (relative): -1.400mm ---
G0 X-1.400 F1200
G1 X-1.074Z0S900F1800
G0 Z5 F500
G1 X-15.108Z0S0F1800
G0 Z-5 F500
G1 X-0.989Z0S900F1800
G0 Z5 F500
G1 X-1.039Z0S0F1800
G0 Z-5 F500
G1 X-0.83Z0S900F1800
G0 Z5 F500
G1 X-2.738Z0S0F1800
G0 Z-5 F500
G1 X-0.579Z0S900F1800
G0 Z5 F500
G1 X-0.941Z0S0F1800
G0 Z-5 F500
G1 X-0.656Z0S900F1800
G0 Z5 F500
G1 X-18.73Z0S0F1800
G0 Z-5 F500
G1 X-0.484Z0S900F1800
G0 Z5 F500
G1 X-8.894Z0S0F1800
G0 Z-5 F500
G1 X-0.824Z0S900F1800
G0 Z5 F500
G1 X-2.054Z0S0F1800
G0 Z-5 F500
G1 X-1.365Z0S900F1800
G0 Z5 F500
G1 X-3.241Z0S0F1800
G0 Z-5 F500
G1 X-0.666Z0S900F1800
G0 Z5 F500
G1 X-2.158Z0S0F1800
G0 Z-5 F500
G1 X-0.877Z0S900F1800
G0 Z5 F500
G1 X-14.871Z0S0F1800
G0 Z-5 F500
G1 X-0.632Z0S900F1800
G0 Z5 F500
G1 X-0.652Z0S0F1800
G0 Z-5 F500
G1 X-0.175Z0S900F1800
G0 Z5 F500
G1 Y0.9Z0S0F1800
G0 Z-5 F500
; --- FIX X Backlash (relative): 1.400mm ---
G0 X1.400 F1200
G1 X0.182Z0S900F1800
G0 Z5 F500
G1 X0.728Z0S0F1800
G0 Z-5 F500
G1 X0.639Z0S900F1800
G0 Z5 F500
G1 X12.195Z0S0F1800
G0 Z-5 F500
G1 X1.94Z0S900F1800
G0 Z5 F500
G1 X0.721Z0S0F1800
G0 Z-5 F500
G1 X0.803Z0S900F1800
G0 Z5 F500
G1 X2.494Z0S0F1800
G0 Z-5 F500
G1 X0.87Z0S900F1800
G0 Z5 F500
G1 X3.94Z0S0F1800
G0 Z-5 F500
G1 X0.447Z0S900F1800
G0 Z5 F500
G1 X1.84Z0S0F1800
G0 Z-5 F500
G1 X0.762Z0S900F1800
G0 Z5 F500
G1 X21.093Z0S0F1800
G0 Z-5 F500
G1 X1.104Z0S900F1800
G0 Z5 F500
G1 X5.622Z0S0F1800
G0 Z-5 F500
G1 X0.61Z0S900F1800
G0 Z5 F500
G1 X0.865Z0S0F1800
G0 Z-5 F500
G1 X0.638Z0S900F1800
G0 Z5 F500
G1 X2.876Z0S0F1800
G0 Z-5 F500
G1 X0.23Z0S900F1800
G0 Z5 F500
G1 X1.256Z0S0F1800
G0 Z-5 F500
G1 X1.248Z0S900F1800
G0 Z5 F500
G1 X0.876Z0S0F1800
G0 Z-5 F500
G1 X1.782Z0S900F1800
G0 Z5 F500
G1 X0.506Z0S0F1800
G0 Z-5 F500
G1 X0.575Z0S900F1800
G0 Z5 F500
G1 X11.459Z0S0F1800
G0 Z-5 F500
G1 X0.61Z0S900F1800
G0 Z5 F500
G1 X0.164Z0S0F1800
G0 Z-5 F500
G1 X0.527Z0S900F1800
G0 Z5 F500
G1 X0.033Y0.9Z0S0F1800
G0 Z-5 F500
; --- FIX X Backlash (relative): -1.400mm ---
G0 X-1.400 F1200
G1 X-0.422Z0S900F1800
G0 Z5 F500
G1 X-0.454Z0S0F1800
G0 Z-5 F500
G1 X-0.615Z0S900F1800
G0 Z5 F500
G1 X-9.682Z0S0F1800
G0 Z-5 F500
G1 X-0.567Z0S900F1800
G0 Z5 F500
G1 X-0.459Z0S0F1800
G0 Z-5 F500
G1 X-3.817Z0S900F1800
G0 Z5 F500
G1 X-0.969Z0S0F1800
G0 Z-5 F500
G1 X-1.651Z0S900F1800
G0 Z5 F500
G1 X-3.471Z0S0F1800
G0 Z-5 F500
G1 X-1.049Z0S900F1800
G0 Z5 F500
G1 X-0.701Z0S0F1800
G0 Z-5 F500
G1 X-0.541Z0S900F1800
G0 Z5 F500
G1 X-6.236Z0S0F1800
G0 Z-5 F500
G1 X-1.278Z0S900F1800
G0 Z5 F500
G1 X-20.054Z0S0F1800
G0 Z-5 F500
G1 X-0.785Z0S900F1800
G0 Z5 F500
G1 X-3.01Z0S0F1800
G0 Z-5 F500
G1 X-2.169Z0S900F1800
G0 Z5 F500
G1 X-0.842Z0S0F1800
G0 Z-5 F500
G1 X-1.006Z0S900F1800
G0 Z5 F500
G1 X-1.429Z0S0F1800
G0 Z-5 F500
G1 X-0.642Z0S900F1800
G0 Z5 F500
G1 X-0.726Z0S0F1800
G0 Z-5 F500
G1 X-0.582Z0S900F1800
G0 Z5 F500
G1 X-0.874Z0S0F1800
G0 Z-5 F500
G1 X-3.766Z0S900F1800
G0 Z5 F500
G1 X-10.166Z0S0F1800
G0 Z-5 F500
G1 X-0.638Z0S900F1800
G0 Z5 F500
G1 X-0.84Z0S0F1800
G0 Z-5 F500
G1 X-0.192Z0S900F1800
G0 Z5 F500
G1 X0.003Y0.9Z0S0F1800
G0 Z-5 F500
; --- FIX X Backlash (relative): 1.400mm ---
G0 X1.400 F1200
G1 X0.215Z0S900F1800
G0 Z5 F500
G1 X1.044Z0S0F1800
G0 Z-5 F500
G1 X0.426Z0S900F1800
G0 Z5 F500
G1 X8.56Z0S0F1800
G0 Z-5 F500
G1 X5.252Z0S900F1800
G0 Z5 F500
G1 X1.048Z0S0F1800
G0 Z-5 F500
G1 X0.468Z0S900F1800
G0 Z5 F500
G1 X0.744Z0S0F1800
G0 Z-5 F500
G1 X0.788Z0S900F1800
G0 Z5 F500
G1 X1.459Z0S0F1800
G0 Z-5 F500
G1 X1.137Z0S900F1800
G0 Z5 F500
G1 X3.111Z0S0F1800
G0 Z-5 F500
G1 X0.836Z0S900F1800
G0 Z5 F500
G1 X1.841Z0S0F1800
G0 Z-5 F500
G1 X0.797Z0S900F1800
G0 Z5 F500
G1 X11.514Z0S0F1800
G0 Z-5 F500
G1 X4.923Z0S900F1800
G0 Z5 F500
G1 X2.49Z0S0F1800
G0 Z-5 F500
G1 X1.545Z0S900F1800
G0 Z5 F500
G1 X6.974Z0S0F1800
G0 Z-5 F500
G1 X0.397Z0S900F1800
G0 Z5 F500
G1 X0.473Z0S0F1800
G0 Z-5 F500
G1 X0.924Z0S900F1800
G0 Z5 F500
G1 X1.979Z0S0F1800
G0 Z-5 F500
G1 X0.376Z0S900F1800
G0 Z5 F500
G1 X1.467Z0S0F1800
G0 Z-5 F500
G1 X1.309Z0S900F1800
G0 Z5 F500
G1 X1.492Z0S0F1800
G0 Z-5 F500
G1 X5.437Z0S900F1800
G0 Z5 F500
G1 X0.462Z0S0F1800
G0 Z-5 F500
G1 X0.474Z0S900F1800
G0 Z5 F500
G1 X8.086Z0S0F1800
G0 Z-5 F500
G1 X0.619Z0S900F1800
G0 Z5 F500
G1 X0.533Z0S0F1800
G0 Z-5 F500
G1 X0.451Z0S900F1800
G0 Z5 F500
; --- FIX X Backlash (relative): -1.400mm ---
G0 X-1.400 F1200
G1 X-0.083Y0.9Z0S0F1800
G0 Z-5 F500
G1 X-0.418Z0S900F1800
G0 Z5 F500
G1 X-0.518Z0S0F1800
G0 Z-5 F500
G1 X-0.622Z0S900F1800
G0 Z5 F500
G1 X-5.79Z0S0F1800
G0 Z-5 F500
G1 X-0.918Z0S900F1800
G0 Z5 F500
G1 X-0.503Z0S0F1800
G0 Z-5 F500
G1 X-6.593Z0S900F1800
G0 Z5 F500
G1 X-0.627Z0S0F1800
G0 Z-5 F500
G1 X-0.626Z0S900F1800
G0 Z5 F500
G1 X-3.278Z0S0F1800
G0 Z-5 F500
G1 X-0.577Z0S900F1800
G0 Z5 F500
G1 X-2.675Z0S0F1800
G0 Z-5 F500
G1 X-0.955Z0S900F1800
G0 Z5 F500
G1 X-8.772Z0S0F1800
G0 Z-5 F500
G1 X-0.757Z0S900F1800
G0 Z5 F500
G1 X-0.389Z0S0F1800
G0 Z-5 F500
G1 X-0.982Z0S900F1800
G0 Z5 F500
G1 X-5.501Z0S0F1800
G0 Z-5 F500
G1 X-0.555Z0S900F1800
G0 Z5 F500
G1 X-10.718Z0S0F1800
G0 Z-5 F500
G1 X-0.827Z0S900F1800
G0 Z5 F500
G1 X-1.005Z0S0F1800
G0 Z-5 F500
G1 X-0.419Z0S900F1800
G0 Z5 F500
G1 X-1.344Z0S0F1800
G0 Z-5 F500
G1 X-1.083Z0S900F1800
G0 Z5 F500
G1 X-0.301Z0S0F1800
G0 Z-5 F500
G1 X-0.752Z0S900F1800
G0 Z5 F500
G1 X-0.532Z0S0F1800
G0 Z-5 F500
G1 X-1.218Z0S900F1800
G0 Z5 F500
G1 X-1.484Z0S0F1800
G0 Z-5 F500
G1 X-0.969Z0S900F1800
G0 Z5 F500
G1 X-0.829Z0S0F1800
G0 Z-5 F500
G1 X-0.415Z0S900F1800
G0 Z5 F500
G1 X-1.154Z0S0F1800
G0 Z-5 F500
G1 X-6.949Z0S900F1800
G0 Z5 F500
G1 X-6.823Z0S0F1800
G0 Z-5 F500
G1 X-0.355Z0S900F1800
G0 Z5 F500
G1 X-0.989Z0S0F1800
G0 Z-5 F500
G1 X-0.341Z0S900F1800
G0 Z5 F500
G1 X0.007Y0.9Z0S0F1800
G0 Z-5 F500
; --- FIX X Backlash (relative): 1.400mm ---
G0 X1.400 F1200
G1 X0.4Z0S900F1800
G0 Z5 F500
G1 X1.119Z0S0F1800
G0 Z-5 F500
G1 X0.191Z0S900F1800
G0 Z5 F500
G1 X4.836Z0S0F1800
G0 Z-5 F500
G1 X7.899Z0S900F1800
G0 Z5 F500
G1 X2.238Z0S0F1800
G0 Z-5 F500
G1 X0.508Z0S900F1800
G0 Z5 F500
G1 X0.931Z0S0F1800
G0 Z-5 F500
G1 X1.106Z0S900F1800
G0 Z5 F500
G1 X1.54Z0S0F1800
G0 Z-5 F500
G1 X1.114Z0S900F1800
G0 Z5 F500
G1 X0.279Z0S0F1800
G0 Z-5 F500
G1 X2.193Z0S900F1800
G0 Z5 F500
G1 X1.61Z0S0F1800
G0 Z-5 F500
G1 X0.548Z0S900F1800
G0 Z5 F500
G1 X0.493Z0S0F1800
G0 Z-5 F500
G1 X0.924Z0S900F1800
G0 Z5 F500
G1 X21.335Z0S0F1800
G0 Z-5 F500
G1 X1.027Z0S900F1800
G0 Z5 F500
G1 X4.578Z0S0F1800
G0 Z-5 F500
G1 X0.872Z0S900F1800
G0 Z5 F500
G1 X3.524Z0S0F1800
G0 Z-5 F500
G1 X0.55Z0S900F1800
G0 Z5 F500
G1 X1.888Z0S0F1800
G0 Z-5 F500
G1 X1.196Z0S900F1800
G0 Z5 F500
G1 X0.623Z0S0F1800
G0 Z-5 F500
G1 X9.314Z0S900F1800
G0 Z5 F500
G1 X0.598Z0S0F1800
G0 Z-5 F500
G1 X0.677Z0S900F1800
G0 Z5 F500
G1 X3.891Z0S0F1800
G0 Z-5 F500
G1 X0.645Z0S900F1800
G0 Z5 F500
G1 X0.397Z0S0F1800
G0 Z-5 F500
G1 X0.441Z0S900F1800
G0 Z5 F500
G1 X-0.038Y0.9Z0S0F1800
G0 Z-5 F500
; --- FIX X Backlash (relative): -1.400mm ---
G0 X-1.400 F1200
G1 X-0.552Z0S900F1800
G0 Z5 F500
G1 X-0.199Z0S0F1800
G0 Z-5 F500
G1 X-0.571Z0S900F1800
G0 Z5 F500
G1 X-2.271Z0S0F1800
G0 Z-5 F500
G1 X-0.721Z0S900F1800
G0 Z5 F500
G1 X-0.538Z0S0F1800
G0 Z-5 F500
G1 X-11.626Z0S900F1800
G0 Z5 F500
G1 X-1.042Z0S0F1800
G0 Z-5 F500
G1 X-0.797Z0S900F1800
G0 Z5 F500
G1 X-6.071Z0S0F1800
G0 Z-5 F500
G1 X-0.764Z0S900F1800
G0 Z5 F500
G1 X-10.666Z0S0F1800
G0 Z-5 F500
G1 X-4.272Z0S900F1800
G0 Z5 F500
G1 X-3.067Z0S0F1800
G0 Z-5 F500
G1 X-0.637Z0S900F1800
G0 Z5 F500
G1 X-7.52Z0S0F1800
G0 Z-5 F500
G1 X-0.926Z0S900F1800
G0 Z5 F500
G1 X-0.412Z0S0F1800
G0 Z-5 F500
G1 X-0.035Z0S900F1800
G0 Z5 F500
G1 X-0.884Z0S0F1800
G0 Z-5 F500
G1 X-4.375Z0S900F1800
G0 Z5 F500
G1 X-1.771Z0S0F1800
G0 Z-5 F500
G1 X-1.028Z0S900F1800
G0 Z5 F500
G1 X-1.276Z0S0F1800
G0 Z-5 F500
G1 X-0.647Z0S900F1800
G0 Z5 F500
G1 X-2.271Z0S0F1800
G0 Z-5 F500
G1 X-9.643Z0S900F1800
G0 Z5 F500
G1 X-2.926Z0S0F1800
G0 Z-5 F500
G1 X-0.291Z0S900F1800
G0 Z5 F500
G1 X-1.091Z0S0F1800
G0 Z-5 F500
G1 X-0.546Z0S900F1800
G0 Z5 F500
G1 X0.021Y0.9Z0S0F1800
G0 Z-5 F500
; --- FIX X Backlash (relative): 1.400mm ---
G0 X1.400 F1200
G1 X0.693Z0S900F1800
G0 Z5 F500
G1 X2.358Z0S0F1800
G0 Z-5 F500
G1 X11.438Z0S900F1800
G0 Z5 F500
G1 X2.459Z0S0F1800
G0 Z-5 F500
G1 X0.703Z0S900F1800
G0 Z5 F500
G1 X1.689Z0S0F1800
G0 Z-5 F500
G1 X1.407Z0S900F1800
G0 Z5 F500
G1 X1.914Z0S0F1800
G0 Z-5 F500
G1 X2.157Z0S900F1800
G0 Z5 F500
G1 X2.56Z0S0F1800
G0 Z-5 F500
G1 X0.732Z0S900F1800
G0 Z5 F500
G1 X8.624Z0S0F1800
G0 Z-5 F500
G1 X1.043Z0S900F1800
G0 Z5 F500
G1 X1.958Z0S0F1800
G0 Z-5 F500
G1 X0.242Z0S900F1800
G0 Z5 F500
G1 X3.554Z0S0F1800
G0 Z-5 F500
G1 X1.553Z0S900F1800
G0 Z5 F500
G1 X2.037Z0S0F1800
G0 Z-5 F500
G1 X1.943Z0S900F1800
G0 Z5 F500
G1 X4.963Z0S0F1800
G0 Z-5 F500
G1 X0.363Z0S900F1800
G0 Z5 F500
G1 X0.593Z0S0F1800
G0 Z-5 F500
G1 X0.308Z0S900F1800
G0 Z5 F500
G1 X7.425Z0S0F1800
G0 Z-5 F500
G1 X13.463Z0S900F1800
G0 Z5 F500
G1 X0.514Z0S0F1800
G0 Z-5 F500
G1 X0.56Z0S900F1800
G0 Z5 F500
G1 X0.816Z0S0F1800
G0 Z-5 F500
G1 X1.316Z0S900F1800
G0 Z5 F500
G1 X-0.041Y0.9Z0S0F1800
G0 Z-5 F500
; --- FIX X Backlash (relative): -1.400mm ---
G0 X-1.400 F1200
G1 X-15.231Z0S900F1800
G0 Z5 F500
G1 X-2.316Z0S0F1800
G0 Z-5 F500
G1 X-0.256Z0S900F1800
G0 Z5 F500
G1 X-6.375Z0S0F1800
G0 Z-5 F500
G1 X-0.842Z0S900F1800
G0 Z5 F500
G1 X-7.789Z0S0F1800
G0 Z-5 F500
G1 X-1.551Z0S900F1800
G0 Z5 F500
G1 X-2.354Z0S0F1800
G0 Z-5 F500
G1 X-0.668Z0S900F1800
G0 Z5 F500
G1 X-0.442Z0S0F1800
G0 Z-5 F500
G1 X-0.851Z0S900F1800
G0 Z5 F500
G1 X-0.53Z0S0F1800
G0 Z-5 F500
G1 X-0.888Z0S900F1800
G0 Z5 F500
G1 X-0.643Z0S0F1800
G0 Z-5 F500
G1 X-0.559Z0S900F1800
G0 Z5 F500
G1 X-0.127Z0S0F1800
G0 Z-5 F500
G1 X-0.275Z0S900F1800
G0 Z5 F500
G1 X-0.549Z0S0F1800
G0 Z-5 F500
G1 X-1.491Z0S900F1800
G0 Z5 F500
G1 X-7.537Z0S0F1800
G0 Z-5 F500
G1 X-0.728Z0S900F1800
G0 Z5 F500
G1 X-5.049Z0S0F1800
G0 Z-5 F500
G1 X-2.117Z0S900F1800
G0 Z5 F500
G1 X-2.037Z0S0F1800
G0 Z-5 F500
G1 X-0.931Z0S900F1800
G0 Z5 F500
G1 X-2.852Z0S0F1800
G0 Z-5 F500
G1 X-13.134Z0S900F1800
G0 Z5 F500
G1 X-0.342Z0S0F1800
G0 Z-5 F500
G1 X-0.761Z0S900F1800
G0 Z5 F500
; --- FIX X Backlash (relative): 1.400mm ---
G0 X1.400 F1200
G1 X0.166Y0.9Z0S0F1800
G0 Z-5 F500
G1 X0.775Z0S900F1800
G0 Z5 F500
G1 X0.293Z0S0F1800
G0 Z-5 F500
G1 X13.157Z0S900F1800
G0 Z5 F500
G1 X0.328Z0S0F1800
G0 Z-5 F500
G1 X0.607Z0S900F1800
G0 Z5 F500
G1 X2.308Z0S0F1800
G0 Z-5 F500
G1 X1.104Z0S900F1800
G0 Z5 F500
G1 X2.214Z0S0F1800
G0 Z-5 F500
G1 X5.422Z0S900F1800
G0 Z5 F500
G1 X0.705Z0S0F1800
G0 Z-5 F500
G1 X0.848Z0S900F1800
G0 Z5 F500
G1 X8.287Z0S0F1800
G0 Z-5 F500
G1 X1.684Z0S900F1800
G0 Z5 F500
G1 X0.75Z0S0F1800
G0 Z-5 F500
G1 X4.296Z0S900F1800
G0 Z5 F500
G1 X0.528Z0S0F1800
G0 Z-5 F500
G1 X2.092Z0S900F1800
G0 Z5 F500
G1 X7.897Z0S0F1800
G0 Z-5 F500
G1 X0.922Z0S900F1800
G0 Z5 F500
G1 X6.981Z0S0F1800
G0 Z-5 F500
G1 X0.535Z0S900F1800
G0 Z5 F500
G1 X3.215Z0S0F1800
G0 Z-5 F500
G1 X14.075Z0S900F1800
G0 Z5 F500
G1 X0.044Y0.9Z0S0F1800
G0 Z-5 F500
; --- FIX X Backlash (relative): -1.400mm ---
G0 X-1.400 F1200
G1 X-12.903Z0S900F1800
G0 Z5 F500
G1 X-4.593Z0S0F1800
G0 Z-5 F500
G1 X-0.582Z0S900F1800
G0 Z5 F500
G1 X-7.424Z0S0F1800
G0 Z-5 F500
G1 X-0.865Z0S900F1800
G0 Z5 F500
G1 X-4.228Z0S0F1800
G0 Z-5 F500
G1 X-0.897Z0S900F1800
G0 Z5 F500
G1 X-3.503Z0S0F1800
G0 Z-5 F500
G1 X-2.734Z0S900F1800
G0 Z5 F500
G1 X-2.892Z0S0F1800
G0 Z-5 F500
G1 X-1.464Z0S900F1800
G0 Z5 F500
G1 X-9.45Z0S0F1800
G0 Z-5 F500
G1 X-0.852Z0S900F1800
G0 Z5 F500
G1 X-0.911Z0S0F1800
G0 Z-5 F500
G1 X-0.812Z0S900F1800
G0 Z5 F500
G1 X-0.305Z0S0F1800
G0 Z-5 F500
G1 X-2.322Z0S900F1800
G0 Z5 F500
G1 X-2.795Z0S0F1800
G0 Z-5 F500
G1 X-1.274Z0S900F1800
G0 Z5 F500
G1 X-0.833Z0S0F1800
G0 Z-5 F500
G1 X-0.602Z0S900F1800
G0 Z5 F500
G1 X-1.297Z0S0F1800
G0 Z-5 F500
G1 X-0.791Z0S900F1800
G0 Z5 F500
G1 X-1.55Z0S0F1800
G0 Z-5 F500
G1 X-11.985Z0S900F1800
G0 Z5 F500
G1 X-0.341Z0S0F1800
G0 Z-5 F500
G1 X-0.749Z0S900F1800
G0 Z5 F500
; --- FIX X Backlash (relative): 1.400mm ---
G0 X1.400 F1200
G1 X0.061Y0.9Z0S0F1800
G0 Z-5 F500
G1 X0.724Z0S900F1800
G0 Z5 F500
G1 X0.378Z0S0F1800
G0 Z-5 F500
G1 X10.839Z0S900F1800
G0 Z5 F500
G1 X2.945Z0S0F1800
G0 Z-5 F500
G1 X1.003Z0S900F1800
G0 Z5 F500
G1 X0.69Z0S0F1800
G0 Z-5 F500
G1 X0.693Z0S900F1800
G0 Z5 F500
G1 X0.546Z0S0F1800
G0 Z-5 F500
G1 X0.703Z0S900F1800
G0 Z5 F500
G1 X0.642Z0S0F1800
G0 Z-5 F500
G1 X1.422Z0S900F1800
G0 Z5 F500
G1 X4.19Z0S0F1800
G0 Z-5 F500
G1 X0.625Z0S900F1800
G0 Z5 F500
G1 X0.692Z0S0F1800
G0 Z-5 F500
G1 X0.928Z0S900F1800
G0 Z5 F500
G1 X1.743Z0S0F1800
G0 Z-5 F500
G1 X0.476Z0S900F1800
G0 Z5 F500
G1 X1.912Z0S0F1800
G0 Z-5 F500
G1 X1.197Z0S900F1800
G0 Z5 F500
G1 X5.884Z0S0F1800
G0 Z-5 F500
G1 X2.888Z0S900F1800
G0 Z5 F500
G1 X5.111Z0S0F1800
G0 Z-5 F500
G1 X1.608Z0S900F1800
G0 Z5 F500
G1 X4.427Z0S0F1800
G0 Z-5 F500
G1 X0.841Z0S900F1800
G0 Z5 F500
G1 X0.94Z0S0F1800
G0 Z-5 F500
G1 X0.755Z0S900F1800
G0 Z5 F500
G1 X5.701Z0S0F1800
G0 Z-5 F500
G1 X0.644Z0S900F1800
G0 Z5 F500
G1 X6.167Z0S0F1800
G0 Z-5 F500
G1 X10.269Z0S900F1800
G0 Z5 F500
G1 X0.337Z0S0F1800
G0 Z-5 F500
G1 X1.035Z0S900F1800
G0 Z5 F500
; --- FIX X Backlash (relative): -1.400mm ---
G0 X-1.400 F1200
G1 X-0.209Y0.9Z0S0F1800
G0 Z-5 F500
G1 X-0.989Z0S900F1800
G0 Z5 F500
G1 X-0.456Z0S0F1800
G0 Z-5 F500
G1 X-8.942Z0S900F1800
G0 Z5 F500
G1 X-7.539Z0S0F1800
G0 Z-5 F500
G1 X-0.641Z0S900F1800
G0 Z5 F500
G1 X-5.998Z0S0F1800
G0 Z-5 F500
G1 X-0.793Z0S900F1800
G0 Z5 F500
G1 X-0.32Z0S0F1800
G0 Z-5 F500
G1 X-0.892Z0S900F1800
G0 Z5 F500
G1 X-4.935Z0S0F1800
G0 Z-5 F500
G1 X-2.129Z0S900F1800
G0 Z5 F500
G1 X-13.746Z0S0F1800
G0 Z-5 F500
G1 X-1.06Z0S900F1800
G0 Z5 F500
G1 X-1.651Z0S0F1800
G0 Z-5 F500
G1 X-0.188Z0S900F1800
G0 Z5 F500
G1 X-1.334Z0S0F1800
G0 Z-5 F500
G1 X-0.906Z0S900F1800
G0 Z5 F500
G1 X-0.958Z0S0F1800
G0 Z-5 F500
G1 X-0.715Z0S900F1800
G0 Z5 F500
G1 X-1.398Z0S0F1800
G0 Z-5 F500
G1 X-2.61Z0S900F1800
G0 Z5 F500
G1 X-1.475Z0S0F1800
G0 Z-5 F500
G1 X-0.838Z0S900F1800
G0 Z5 F500
G1 X-0.954Z0S0F1800
G0 Z-5 F500
G1 X-0.736Z0S900F1800
G0 Z5 F500
G1 X-0.375Z0S0F1800
G0 Z-5 F500
G1 X-0.951Z0S900F1800
G0 Z5 F500
G1 X-4.343Z0S0F1800
G0 Z-5 F500
G1 X-9.657Z0S900F1800
G0 Z5 F500
G1 X-0.484Z0S0F1800
G0 Z-5 F500
G1 X-0.699Z0S900F1800
G0 Z5 F500
G1 X0.034Y0.9Z0S0F1800
G0 Z-5 F500
; --- FIX X Backlash (relative): 1.400mm ---
G0 X1.400 F1200
G1 X0.52Z0S900F1800
G0 Z5 F500
G1 X0.93Z0S0F1800
G0 Z-5 F500
G1 X8.689Z0S900F1800
G0 Z5 F500
G1 X5.269Z0S0F1800
G0 Z-5 F500
G1 X0.667Z0S900F1800
G0 Z5 F500
G1 X0.4Z0S0F1800
G0 Z-5 F500
G1 X0.764Z0S900F1800
G0 Z5 F500
G1 X1.532Z0S0F1800
G0 Z-5 F500
G1 X0.804Z0S900F1800
G0 Z5 F500
G1 X4.883Z0S0F1800
G0 Z-5 F500
G1 X0.663Z0S900F1800
G0 Z5 F500
G1 X1.21Z0S0F1800
G0 Z-5 F500
G1 X0.834Z0S900F1800
G0 Z5 F500
G1 X2.459Z0S0F1800
G0 Z-5 F500
G1 X0.936Z0S900F1800
G0 Z5 F500
G1 X4.796Z0S0F1800
G0 Z-5 F500
G1 X0.669Z0S900F1800
G0 Z5 F500
G1 X7.818Z0S0F1800
G0 Z-5 F500
G1 X2.556Z0S900F1800
G0 Z5 F500
G1 X5.636Z0S0F1800
G0 Z-5 F500
G1 X1.448Z0S900F1800
G0 Z5 F500
G1 X6.356Z0S0F1800
G0 Z-5 F500
G1 X0.522Z0S900F1800
G0 Z5 F500
G1 X9.027Z0S0F1800
G0 Z-5 F500
G1 X7.502Z0S900F1800
G0 Z5 F500
G1 X0.484Z0S0F1800
G0 Z-5 F500
G1 X0.8Z0S900F1800
G0 Z5 F500
G1 X0.66Z0S0F1800
G0 Z-5 F500
G1 X0.539Z0S900F1800
G0 Z5 F500
; --- FIX X Backlash (relative): -1.400mm ---
G0 X-1.400 F1200
G1 X-0.303Y0.9Z0S0F1800
G0 Z-5 F500
G1 X-0.681Z0S900F1800
G0 Z5 F500
G1 X-0.537Z0S0F1800
G0 Z-5 F500
G1 X-0.807Z0S900F1800
G0 Z5 F500
G1 X-0.403Z0S0F1800
G0 Z-5 F500
G1 X-6.204Z0S900F1800
G0 Z5 F500
G1 X-10.026Z0S0F1800
G0 Z-5 F500
G1 X-0.799Z0S900F1800
G0 Z5 F500
G1 X-6.78Z0S0F1800
G0 Z-5 F500
G1 X-0.906Z0S900F1800
G0 Z5 F500
G1 X-6.944Z0S0F1800
G0 Z-5 F500
G1 X-3.865Z0S900F1800
G0 Z5 F500
G1 X-2.865Z0S0F1800
G0 Z-5 F500
G1 X-3.25Z0S900F1800
G0 Z5 F500
G1 X-4.912Z0S0F1800
G0 Z-5 F500
G1 X-0.905Z0S900F1800
G0 Z5 F500
G1 X-1.984Z0S0F1800
G0 Z-5 F500
G1 X-0.73Z0S900F1800
G0 Z5 F500
G1 X-1.326Z0S0F1800
G0 Z-5 F500
G1 X-0.67Z0S900F1800
G0 Z5 F500
G1 X-4.012Z0S0F1800
G0 Z-5 F500
G1 X-1.015Z0S900F1800
G0 Z5 F500
G1 X-0.703Z0S0F1800
G0 Z-5 F500
G1 X-0.435Z0S900F1800
G0 Z5 F500
G1 X-0.854Z0S0F1800
G0 Z-5 F500
G1 X-0.823Z0S900F1800
G0 Z5 F500
G1 X-0.682Z0S0F1800
G0 Z-5 F500
G1 X-0.433Z0S900F1800
G0 Z5 F500
G1 X-6.317Z0S0F1800
G0 Z-5 F500
G1 X-0.54Z0S900F1800
G0 Z5 F500
G1 X-0.277Z0S0F1800
G0 Z-5 F500
G1 X-6.502Z0S900F1800
G0 Z5 F500
G1 X-0.971Z0S0F1800
G0 Z-5 F500
G1 X-0.853Z0S900F1800
G0 Z5 F500
; --- FIX X Backlash (relative): 1.400mm ---
G0 X1.400 F1200
G1 X0.609Y0.9Z0S0F1800
G0 Z-5 F500
G1 X0.887Z0S900F1800
G0 Z5 F500
G1 X0.64Z0S0F1800
G0 Z-5 F500
G1 X5.942Z0S900F1800
G0 Z5 F500
G1 X7.542Z0S0F1800
G0 Z-5 F500
G1 X0.593Z0S900F1800
G0 Z5 F500
G1 X0.763Z0S0F1800
G0 Z-5 F500
G1 X0.754Z0S900F1800
G0 Z5 F500
G1 X0.846Z0S0F1800
G0 Z-5 F500
G1 X0.856Z0S900F1800
G0 Z5 F500
G1 X0.956Z0S0F1800
G0 Z-5 F500
G1 X1.371Z0S900F1800
G0 Z5 F500
G1 X2.625Z0S0F1800
G0 Z-5 F500
G1 X0.776Z0S900F1800
G0 Z5 F500
G1 X1.365Z0S0F1800
G0 Z-5 F500
G1 X0.603Z0S900F1800
G0 Z5 F500
G1 X1.63Z0S0F1800
G0 Z-5 F500
G1 X0.784Z0S900F1800
G0 Z5 F500
G1 X6.942Z0S0F1800
G0 Z-5 F500
G1 X5.016Z0S900F1800
G0 Z5 F500
G1 X17.558Z0S0F1800
G0 Z-5 F500
G1 X0.799Z0S900F1800
G0 Z5 F500
G1 X0.271Z0S0F1800
G0 Z-5 F500
G1 X1.091Z0S900F1800
G0 Z5 F500
G1 X10.287Z0S0F1800
G0 Z-5 F500
G1 X4.826Z0S900F1800
G0 Z5 F500
G1 X0.412Z0S0F1800
G0 Z-5 F500
G1 X0.89Z0S900F1800
G0 Z5 F500
G1 X0.247Z0S0F1800
G0 Z-5 F500
G1 X0.716Z0S900F1800
G0 Z5 F500
; --- FIX X Backlash (relative): -1.400mm ---
G0 X-1.400 F1200
G1 X-0.467Y0.9Z0S0F1800
G0 Z-5 F500
G1 X-1.637Z0S900F1800
G0 Z5 F500
G1 X-0.654Z0S0F1800
G0 Z-5 F500
G1 X-3.125Z0S900F1800
G0 Z5 F500
G1 X-10.805Z0S0F1800
G0 Z-5 F500
G1 X-1.759Z0S900F1800
G0 Z5 F500
G1 X-0.693Z0S0F1800
G0 Z-5 F500
G1 X-0.894Z0S900F1800
G0 Z5 F500
G1 X-25.659Z0S0F1800
G0 Z-5 F500
G1 X-0.991Z0S900F1800
G0 Z5 F500
G1 X-3.048Z0S0F1800
G0 Z-5 F500
G1 X-0.437Z0S900F1800
G0 Z5 F500
G1 X-3.098Z0S0F1800
G0 Z-5 F500
G1 X-0.746Z0S900F1800
G0 Z5 F500
G1 X-4.383Z0S0F1800
G0 Z-5 F500
G1 X-1.097Z0S900F1800
G0 Z5 F500
G1 X-1.051Z0S0F1800
G0 Z-5 F500
G1 X-0.735Z0S900F1800
G0 Z5 F500
G1 X-0.954Z0S0F1800
G0 Z-5 F500
G1 X-0.62Z0S900F1800
G0 Z5 F500
G1 X-8.69Z0S0F1800
G0 Z-5 F500
G1 X-0.703Z0S900F1800
G0 Z5 F500
G1 X-0.349Z0S0F1800
G0 Z-5 F500
G1 X-3.074Z0S900F1800
G0 Z5 F500
G1 X-0.892Z0S0F1800
G0 Z-5 F500
G1 X-0.991Z0S900F1800
G0 Z5 F500
; --- FIX X Backlash (relative): 1.400mm ---
G0 X1.400 F1200
G1 X0.402Y0.9Z0S0F1800
G0 Z-5 F500
G1 X1.063Z0S900F1800
G0 Z5 F500
G1 X1.511Z0S0F1800
G0 Z-5 F500
G1 X0.862Z0S900F1800
G0 Z5 F500
G1 X0.258Z0S0F1800
G0 Z-5 F500
G1 X0.717Z0S900F1800
G0 Z5 F500
G1 X10.038Z0S0F1800
G0 Z-5 F500
G1 X1.013Z0S900F1800
G0 Z5 F500
G1 X0.777Z0S0F1800
G0 Z-5 F500
G1 X0.694Z0S900F1800
G0 Z5 F500
G1 X1.518Z0S0F1800
G0 Z-5 F500
G1 X1.224Z0S900F1800
G0 Z5 F500
G1 X3.23Z0S0F1800
G0 Z-5 F500
G1 X0.372Z0S900F1800
G0 Z5 F500
G1 X0.18Z0S0F1800
G0 Z-5 F500
G1 X0.724Z0S900F1800
G0 Z5 F500
G1 X7.798Z0S0F1800
G0 Z-5 F500
G1 X2.517Z0S900F1800
G0 Z5 F500
G1 X12.259Z0S0F1800
G0 Z-5 F500
G1 X0.637Z0S900F1800
G0 Z5 F500
G1 X9.241Z0S0F1800
G0 Z-5 F500
G1 X0.801Z0S900F1800
G0 Z5 F500
G1 X1.05Z0S0F1800
G0 Z-5 F500
G1 X2.771Z0S900F1800
G0 Z5 F500
G1 X11.241Z0S0F1800
G0 Z-5 F500
G1 X1.395Z0S900F1800
G0 Z5 F500
G1 X0.896Z0S0F1800
G0 Z-5 F500
G1 X1.531Z0S900F1800
G0 Z5 F500
; --- FIX X Backlash (relative): -1.400mm ---
G0 X-1.400 F1200
G1 X-0.091Y0.9Z0S0F1800
G0 Z-5 F500
G1 X-0.804Z0S900F1800
G0 Z5 F500
G1 X-0.117Z0S0F1800
G0 Z-5 F500
G1 X-0.844Z0S900F1800
G0 Z5 F500
G1 X-0.822Z0S0F1800
G0 Z-5 F500
G1 X-1.193Z0S900F1800
G0 Z5 F500
G1 X-10.409Z0S0F1800
G0 Z-5 F500
G1 X-3.968Z0S900F1800
G0 Z5 F500
G1 X-0.964Z0S0F1800
G0 Z-5 F500
G1 X-0.907Z0S900F1800
G0 Z5 F500
G1 X-9.676Z0S0F1800
G0 Z-5 F500
G1 X-0.935Z0S900F1800
G0 Z5 F500
G1 X-24.652Z0S0F1800
G0 Z-5 F500
G1 X-1.513Z0S900F1800
G0 Z5 F500
G1 X-2.263Z0S0F1800
G0 Z-5 F500
G1 X-0.586Z0S900F1800
G0 Z5 F500
G1 X-0.611Z0S0F1800
G0 Z-5 F500
G1 X-0.575Z0S900F1800
G0 Z5 F500
G1 X-0.068Z0S0F1800
G0 Z-5 F500
G1 X-0.848Z0S900F1800
G0 Z5 F500
G1 X-0.481Z0S0F1800
G0 Z-5 F500
G1 X-0.483Z0S900F1800
G0 Z5 F500
G1 X-9.542Z0S0F1800
G0 Z-5 F500
G1 X-0.981Z0S900F1800
G0 Z5 F500
G1 X-1.503Z0S0F1800
G0 Z-5 F500
G1 X-1.077Z0S900F1800
G0 Z5 F500
; --- FIX X Backlash (relative): 1.400mm ---
G0 X1.400 F1200
G1 X0.086Y0.9Z0S0F1800
G0 Z-5 F500
G1 X1.437Z0S900F1800
G0 Z5 F500
G1 X1.487Z0S0F1800
G0 Z-5 F500
G1 X0.892Z0S900F1800
G0 Z5 F500
G1 X8.35Z0S0F1800
G0 Z-5 F500
G1 X0.507Z0S900F1800
G0 Z5 F500
G1 X0.499Z0S0F1800
G0 Z-5 F500
G1 X1.837Z0S900F1800
G0 Z5 F500
G1 X0.263Z0S0F1800
G0 Z-5 F500
G1 X0.553Z0S900F1800
G0 Z5 F500
G1 X0.6Z0S0F1800
G0 Z-5 F500
G1 X0.638Z0S900F1800
G0 Z5 F500
G1 X0.873Z0S0F1800
G0 Z-5 F500
G1 X0.997Z0S900F1800
G0 Z5 F500
G1 X2.107Z0S0F1800
G0 Z-5 F500
G1 X0.14Z0S900F1800
G0 Z5 F500
G1 X1.682Z0S0F1800
G0 Z-5 F500
G1 X1.873Z0S900F1800
G0 Z5 F500
G1 X4.357Z0S0F1800
G0 Z-5 F500
G1 X1.679Z0S900F1800
G0 Z5 F500
G1 X13.184Z0S0F1800
G0 Z-5 F500
G1 X1.068Z0S900F1800
G0 Z5 F500
G1 X1.151Z0S0F1800
G0 Z-5 F500
G1 X1.098Z0S900F1800
G0 Z5 F500
G1 X8.195Z0S0F1800
G0 Z-5 F500
G1 X0.997Z0S900F1800
G0 Z5 F500
G1 X0.75Z0S0F1800
G0 Z-5 F500
G1 X4.986Z0S900F1800
G0 Z5 F500
G1 X9.31Z0S0F1800
G0 Z-5 F500
G1 X1.229Z0S900F1800
G0 Z5 F500
G1 X0.923Z0S0F1800
G0 Z-5 F500
G1 X0.862Z0S900F1800
G0 Z5 F500
G1 X0.39Z0S0F1800
G0 Z-5 F500
G1 X0.638Z0S900F1800
G0 Z5 F500
; --- FIX X Backlash (relative): -1.400mm ---
G0 X-1.400 F1200
G1 X-0.301Y0.9Z0S0F1800
G0 Z-5 F500
G1 X-0.531Z0S900F1800
G0 Z5 F500
G1 X-0.578Z0S0F1800
G0 Z-5 F500
G1 X-0.882Z0S900F1800
G0 Z5 F500
G1 X-0.854Z0S0F1800
G0 Z-5 F500
G1 X-1.341Z0S900F1800
G0 Z5 F500
G1 X-8.181Z0S0F1800
G0 Z-5 F500
G1 X-6.059Z0S900F1800
G0 Z5 F500
G1 X-0.851Z0S0F1800
G0 Z-5 F500
G1 X-0.989Z0S900F1800
G0 Z5 F500
G1 X-8.762Z0S0F1800
G0 Z-5 F500
G1 X-1.292Z0S900F1800
G0 Z5 F500
G1 X-0.951Z0S0F1800
G0 Z-5 F500
G1 X-1.069Z0S900F1800
G0 Z5 F500
G1 X-5.182Z0S0F1800
G0 Z-5 F500
G1 X-6.503Z0S900F1800
G0 Z5 F500
G1 X-4.995Z0S0F1800
G0 Z-5 F500
G1 X-1.131Z0S900F1800
G0 Z5 F500
G1 X-4.957Z0S0F1800
G0 Z-5 F500
G1 X-1.147Z0S900F1800
G0 Z5 F500
G1 X-1.495Z0S0F1800
G0 Z-5 F500
G1 X-0.644Z0S900F1800
G0 Z5 F500
G1 X-0.709Z0S0F1800
G0 Z-5 F500
G1 X-0.622Z0S900F1800
G0 Z5 F500
G1 X-0.224Z0S0F1800
G0 Z-5 F500
G1 X-2.923Z0S900F1800
G0 Z5 F500
G1 X-0.529Z0S0F1800
G0 Z-5 F500
G1 X-0.562Z0S900F1800
G0 Z5 F500
G1 X-7.131Z0S0F1800
G0 Z-5 F500
G1 X-0.883Z0S900F1800
G0 Z5 F500
G1 X-1.503Z0S0F1800
G0 Z-5 F500
G1 X-0.855Z0S900F1800
G0 Z5 F500
G1 X-0.171Z0S0F1800
G0 Z-5 F500
G1 X-0.686Z0S900F1800
G0 Z5 F500
; --- FIX X Backlash (relative): 1.400mm ---
G0 X1.400 F1200
G1 X0.162Y0.9Z0S0F1800
G0 Z-5 F500
G1 X0.647Z0S900F1800
G0 Z5 F500
G1 X0.289Z0S0F1800
G0 Z-5 F500
G1 X1.031Z0S900F1800
G0 Z5 F500
G1 X1.496Z0S0F1800
G0 Z-5 F500
G1 X0.882Z0S900F1800
G0 Z5 F500
G1 X5.826Z0S0F1800
G0 Z-5 F500
G1 X0.849Z0S900F1800
G0 Z5 F500
G1 X0.291Z0S0F1800
G0 Z-5 F500
G1 X3.988Z0S900F1800
G0 Z5 F500
G1 X0.334Z0S0F1800
G0 Z-5 F500
G1 X0.618Z0S900F1800
G0 Z5 F500
G1 X0.85Z0S0F1800
G0 Z-5 F500
G1 X0.804Z0S900F1800
G0 Z5 F500
G1 X2.461Z0S0F1800
G0 Z-5 F500
G1 X1.53Z0S900F1800
G0 Z5 F500
G1 X4.564Z0S0F1800
G0 Z-5 F500
G1 X1.407Z0S900F1800
G0 Z5 F500
G1 X13.822Z0S0F1800
G0 Z-5 F500
G1 X0.965Z0S900F1800
G0 Z5 F500
G1 X0.599Z0S0F1800
G0 Z-5 F500
G1 X1.38Z0S900F1800
G0 Z5 F500
G1 X9.33Z0S0F1800
G0 Z-5 F500
G1 X1.019Z0S900F1800
G0 Z5 F500
G1 X1.111Z0S0F1800
G0 Z-5 F500
G1 X7.206Z0S900F1800
G0 Z5 F500
G1 X7.135Z0S0F1800
G0 Z-5 F500
G1 X1.318Z0S900F1800
G0 Z5 F500
G1 X0.89Z0S0F1800
G0 Z-5 F500
G1 X0.982Z0S900F1800
G0 Z5 F500
G1 X0.507Z0S0F1800
G0 Z-5 F500
G1 X0.677Z0S900F1800
G0 Z5 F500
; --- FIX X Backlash (relative): -1.400mm ---
G0 X-1.400 F1200
G1 X-0.681Y0.9Z0S0F1800
G0 Z-5 F500
G1 X-1.834Z0S900F1800
G0 Z5 F500
G1 X-1.016Z0S0F1800
G0 Z-5 F500
G1 X-1.29Z0S900F1800
G0 Z5 F500
G1 X-6.009Z0S0F1800
G0 Z-5 F500
G1 X-8.929Z0S900F1800
G0 Z5 F500
G1 X-1.16Z0S0F1800
G0 Z-5 F500
G1 X-0.72Z0S900F1800
G0 Z5 F500
G1 X-10.483Z0S0F1800
G0 Z-5 F500
G1 X-2.151Z0S900F1800
G0 Z5 F500
G1 X-1.981Z0S0F1800
G0 Z-5 F500
G1 X-1.759Z0S900F1800
G0 Z5 F500
G1 X-6.361Z0S0F1800
G0 Z-5 F500
G1 X-2.323Z0S900F1800
G0 Z5 F500
G1 X-3.281Z0S0F1800
G0 Z-5 F500
G1 X-2.611Z0S900F1800
G0 Z5 F500
G1 X-3.835Z0S0F1800
G0 Z-5 F500
G1 X-0.663Z0S900F1800
G0 Z5 F500
G1 X-1.158Z0S0F1800
G0 Z-5 F500
G1 X-0.736Z0S900F1800
G0 Z5 F500
G1 X-0.519Z0S0F1800
G0 Z-5 F500
G1 X-6.043Z0S900F1800
G0 Z5 F500
G1 X-4.519Z0S0F1800
G0 Z-5 F500
G1 X-0.908Z0S900F1800
G0 Z5 F500
G1 X-1.415Z0S0F1800
G0 Z-5 F500
G1 X-1.295Z0S900F1800
G0 Z5 F500
G1 X-0.264Z0S0F1800
G0 Z-5 F500
G1 X-0.675Z0S900F1800
G0 Z5 F500
; --- FIX X Backlash (relative): 1.400mm ---
G0 X1.400 F1200
G1 X0.571Y0.9Z0S0F1800
G0 Z-5 F500
G1 X2.17Z0S900F1800
G0 Z5 F500
G1 X1.383Z0S0F1800
G0 Z-5 F500
G1 X0.901Z0S900F1800
G0 Z5 F500
G1 X3.132Z0S0F1800
G0 Z-5 F500
G1 X6.884Z0S900F1800
G0 Z5 F500
G1 X0.895Z0S0F1800
G0 Z-5 F500
G1 X0.695Z0S900F1800
G0 Z5 F500
G1 X1.41Z0S0F1800
G0 Z-5 F500
G1 X0.686Z0S900F1800
G0 Z5 F500
G1 X6.332Z0S0F1800
G0 Z-5 F500
G1 X1.346Z0S900F1800
G0 Z5 F500
G1 X4.296Z0S0F1800
G0 Z-5 F500
G1 X5.563Z0S900F1800
G0 Z5 F500
G1 X2.757Z0S0F1800
G0 Z-5 F500
G1 X1.19Z0S900F1800
G0 Z5 F500
G1 X11.942Z0S0F1800
G0 Z-5 F500
G1 X0.826Z0S900F1800
G0 Z5 F500
G1 X1.44Z0S0F1800
G0 Z-5 F500
G1 X0.066Z0S900F1800
G0 Z5 F500
G1 X0.273Z0S0F1800
G0 Z-5 F500
G1 X9.812Z0S900F1800
G0 Z5 F500
G1 X4.742Z0S0F1800
G0 Z-5 F500
G1 X1.296Z0S900F1800
G0 Z5 F500
G1 X1.002Z0S0F1800
G0 Z-5 F500
G1 X1.828Z0S900F1800
G0 Z5 F500
; --- FIX X Backlash (relative): -1.400mm ---
G0 X-1.400 F1200
G1 X-0.179Y0.9Z0S0F1800
G0 Z-5 F500
G1 X-0.738Z0S900F1800
G0 Z5 F500
G1 X-0.424Z0S0F1800
G0 Z-5 F500
G1 X-0.976Z0S900F1800
G0 Z5 F500
G1 X-0.949Z0S0F1800
G0 Z-5 F500
G1 X-1.331Z0S900F1800
G0 Z5 F500
G1 X-3.532Z0S0F1800
G0 Z-5 F500
G1 X-10.073Z0S900F1800
G0 Z5 F500
G1 X-3.117Z0S0F1800
G0 Z-5 F500
G1 X-0.639Z0S900F1800
G0 Z5 F500
G1 X-12.536Z0S0F1800
G0 Z-5 F500
G1 X-1.565Z0S900F1800
G0 Z5 F500
G1 X-9.287Z0S0F1800
G0 Z-5 F500
G1 X-1.39Z0S900F1800
G0 Z5 F500
G1 X-7.355Z0S0F1800
G0 Z-5 F500
G1 X-0.811Z0S900F1800
G0 Z5 F500
G1 X-1.526Z0S0F1800
G0 Z-5 F500
G1 X-0.7Z0S900F1800
G0 Z5 F500
G1 X-0.492Z0S0F1800
G0 Z-5 F500
G1 X-8.636Z0S900F1800
G0 Z5 F500
G1 X-1.566Z0S0F1800
G0 Z-5 F500
G1 X-0.996Z0S900F1800
G0 Z5 F500
G1 X-1.298Z0S0F1800
G0 Z-5 F500
G1 X-0.897Z0S900F1800
G0 Z5 F500
G1 X-0.213Z0S0F1800
G0 Z-5 F500
G1 X-0.898Z0S900F1800
G0 Z5 F500
; --- FIX X Backlash (relative): 1.400mm ---
G0 X1.400 F1200
G1 X0.677Y0.9Z0S0F1800
G0 Z-5 F500
G1 X0.584Z0S900F1800
G0 Z5 F500
G1 X0.371Z0S0F1800
G0 Z-5 F500
G1 X0.992Z0S900F1800
G0 Z5 F500
G1 X1.251Z0S0F1800
G0 Z-5 F500
G1 X0.775Z0S900F1800
G0 Z5 F500
G1 X0.226Z0S0F1800
G0 Z-5 F500
G1 X10.044Z0S900F1800
G0 Z5 F500
G1 X0.619Z0S0F1800
G0 Z-5 F500
G1 X0.924Z0S900F1800
G0 Z5 F500
G1 X1.436Z0S0F1800
G0 Z-5 F500
G1 X0.645Z0S900F1800
G0 Z5 F500
G1 X8.397Z0S0F1800
G0 Z-5 F500
G1 X2.522Z0S900F1800
G0 Z5 F500
G1 X4.101Z0S0F1800
G0 Z-5 F500
G1 X2.478Z0S900F1800
G0 Z5 F500
G1 X13.419Z0S0F1800
G0 Z-5 F500
G1 X0.264Z0S900F1800
G0 Z5 F500
G1 X4.631Z0S0F1800
G0 Z-5 F500
G1 X10.333Z0S900F1800
G0 Z5 F500
G1 X2.411Z0S0F1800
G0 Z-5 F500
G1 X1.106Z0S900F1800
G0 Z5 F500
G1 X1.051Z0S0F1800
G0 Z-5 F500
G1 X0.813Z0S900F1800
G0 Z5 F500
G1 X0.633Z0S0F1800
G0 Z-5 F500
G1 X0.804Z0S900F1800
G0 Z5 F500
; --- FIX X Backlash (relative): -1.400mm ---
G0 X-1.400 F1200
G1 X-0.666Y0.9Z0S0F1800
G0 Z-5 F500
G1 X-0.771Z0S900F1800
G0 Z5 F500
G1 X-0.529Z0S0F1800
G0 Z-5 F500
G1 X-0.887Z0S900F1800
G0 Z5 F500
G1 X-1.05Z0S0F1800
G0 Z-5 F500
G1 X-0.989Z0S900F1800
G0 Z5 F500
G1 X-1.308Z0S0F1800
G0 Z-5 F500
G1 X-10.403Z0S900F1800
G0 Z5 F500
G1 X-4.489Z0S0F1800
G0 Z-5 F500
G1 X-0.793Z0S900F1800
G0 Z5 F500
G1 X-4.008Z0S0F1800
G0 Z-5 F500
G1 X-0.221Z0S900F1800
G0 Z5 F500
G1 X-12.125Z0S0F1800
G0 Z-5 F500
G1 X-3.173Z0S900F1800
G0 Z5 F500
G1 X-10.804Z0S0F1800
G0 Z-5 F500
G1 X-0.771Z0S900F1800
G0 Z5 F500
G1 X-1.11Z0S0F1800
G0 Z-5 F500
G1 X-0.948Z0S900F1800
G0 Z5 F500
G1 X-0.6Z0S0F1800
G0 Z-5 F500
G1 X-11.139Z0S900F1800
G0 Z5 F500
G1 X-1.659Z0S0F1800
G0 Z-5 F500
G1 X-0.909Z0S900F1800
G0 Z5 F500
G1 X-0.366Z0S0F1800
G0 Z-5 F500
G1 X-0.521Z0S900F1800
G0 Z5 F500
; --- FIX X Backlash (relative): 1.400mm ---
G0 X1.400 F1200
G1 X0.569Y0.9Z0S0F1800
G0 Z-5 F500
G1 X1.746Z0S900F1800
G0 Z5 F500
G1 X0.692Z0S0F1800
G0 Z-5 F500
G1 X11.244Z0S900F1800
G0 Z5 F500
G1 X2.573Z0S0F1800
G0 Z-5 F500
G1 X0.547Z0S900F1800
G0 Z5 F500
G1 X0.712Z0S0F1800
G0 Z-5 F500
G1 X0.844Z0S900F1800
G0 Z5 F500
G1 X23.801Z0S0F1800
G0 Z-5 F500
G1 X0.77Z0S900F1800
G0 Z5 F500
G1 X0.788Z0S0F1800
G0 Z-5 F500
G1 X3.178Z0S900F1800
G0 Z5 F500
G1 X6.714Z0S0F1800
G0 Z-5 F500
G1 X10.817Z0S900F1800
G0 Z5 F500
G1 X0.164Z0S0F1800
G0 Z-5 F500
G1 X0.549Z0S900F1800
G0 Z5 F500
G1 X1.061Z0S0F1800
G0 Z-5 F500
G1 X0.93Z0S900F1800
G0 Z5 F500
G1 X0.42Z0S0F1800
G0 Z-5 F500
G1 X0.667Z0S900F1800
G0 Z5 F500
; --- FIX X Backlash (relative): -1.400mm ---
G0 X-1.400 F1200
G1 X-0.704Y0.9Z0S0F1800
G0 Z-5 F500
G1 X-0.731Z0S900F1800
G0 Z5 F500
G1 X-0.081Z0S0F1800
G0 Z-5 F500
G1 X-1.117Z0S900F1800
G0 Z5 F500
G1 X-1.012Z0S0F1800
G0 Z-5 F500
G1 X-10.47Z0S900F1800
G0 Z5 F500
G1 X-8.743Z0S0F1800
G0 Z-5 F500
G1 X-0.454Z0S900F1800
G0 Z5 F500
G1 X-2.331Z0S0F1800
G0 Z-5 F500
G1 X-1.959Z0S900F1800
G0 Z5 F500
G1 X-20.9Z0S0F1800
G0 Z-5 F500
G1 X-0.317Z0S900F1800
G0 Z5 F500
G1 X-2.517Z0S0F1800
G0 Z-5 F500
G1 X-1.36Z0S900F1800
G0 Z5 F500
G1 X-2.429Z0S0F1800
G0 Z-5 F500
G1 X-10.176Z0S900F1800
G0 Z5 F500
G1 X-0.574Z0S0F1800
G0 Z-5 F500
G1 X-1.761Z0S900F1800
G0 Z5 F500
; --- FIX X Backlash (relative): 1.400mm ---
G0 X1.400 F1200
G1 X0.468Y0.9Z0S0F1800
G0 Z-5 F500
G1 X0.78Z0S900F1800
G0 Z5 F500
G1 X0.198Z0S0F1800
G0 Z-5 F500
G1 X0.883Z0S900F1800
G0 Z5 F500
G1 X0.499Z0S0F1800
G0 Z-5 F500
G1 X9.154Z0S900F1800
G0 Z5 F500
G1 X4.556Z0S0F1800
G0 Z-5 F500
G1 X1.422Z0S900F1800
G0 Z5 F500
G1 X23.346Z0S0F1800
G0 Z-5 F500
G1 X0.582Z0S900F1800
G0 Z5 F500
G1 X0.151Z0S0F1800
G0 Z-5 F500
G1 X3.111Z0S900F1800
G0 Z5 F500
G1 X8.833Z0S0F1800
G0 Z-5 F500
G1 X9.282Z0S900F1800
G0 Z5 F500
G1 X1.136Z0S0F1800
G0 Z-5 F500
G1 X1.594Z0S900F1800
G0 Z5 F500
; --- FIX X Backlash (relative): -1.400mm ---
G0 X-1.400 F1200
G1 X-0.081Y0.9Z0S0F1800
G0 Z-5 F500
G1 X-0.793Z0S900F1800
G0 Z5 F500
G1 X-0.379Z0S0F1800
G0 Z-5 F500
G1 X-1.04Z0S900F1800
G0 Z5 F500
G1 X-1.027Z0S0F1800
G0 Z-5 F500
G1 X-8.24Z0S900F1800
G0 Z5 F500
G1 X-9.057Z0S0F1800
G0 Z-5 F500
G1 X-4.564Z0S900F1800
G0 Z5 F500
G1 X-1.324Z0S0F1800
G0 Z-5 F500
G1 X-0.547Z0S900F1800
G0 Z5 F500
G1 X-16.37Z0S0F1800
G0 Z-5 F500
G1 X-0.16Z0S900F1800
G0 Z5 F500
G1 X-1.031Z0S0F1800
G0 Z-5 F500
G1 X-0.256Z0S900F1800
G0 Z5 F500
G1 X-1.267Z0S0F1800
G0 Z-5 F500
G1 X-1.565Z0S900F1800
G0 Z5 F500
G1 X-6.801Z0S0F1800
G0 Z-5 F500
G1 X-8.071Z0S900F1800
G0 Z5 F500
G1 X-0.416Z0S0F1800
G0 Z-5 F500
G1 X-0.821Z0S900F1800
G0 Z5 F500
G1 X-0.503Z0S0F1800
G0 Z-5 F500
G1 X-0.686Z0S900F1800
G0 Z5 F500
; --- FIX X Backlash (relative): 1.400mm ---
G0 X1.400 F1200
G1 X0.62Y0.9Z0S0F1800
G0 Z-5 F500
G1 X1.984Z0S900F1800
G0 Z5 F500
G1 X0.443Z0S0F1800
G0 Z-5 F500
G1 X6.854Z0S900F1800
G0 Z5 F500
G1 X8.296Z0S0F1800
G0 Z-5 F500
G1 X1.022Z0S900F1800
G0 Z5 F500
G1 X0.228Z0S0F1800
G0 Z-5 F500
G1 X0.779Z0S900F1800
G0 Z5 F500
G1 X0.655Z0S0F1800
G0 Z-5 F500
G1 X0.957Z0S900F1800
G0 Z5 F500
G1 X1.806Z0S0F1800
G0 Z-5 F500
G1 X1.464Z0S900F1800
G0 Z5 F500
G1 X3.124Z0S0F1800
G0 Z-5 F500
G1 X1.321Z0S900F1800
G0 Z5 F500
G1 X3.141Z0S0F1800
G0 Z-5 F500
G1 X0.638Z0S900F1800
G0 Z5 F500
G1 X5.311Z0S0F1800
G0 Z-5 F500
G1 X6.096Z0S900F1800
G0 Z5 F500
G1 X9.159Z0S0F1800
G0 Z-5 F500
G1 X7.048Z0S900F1800
G0 Z5 F500
G1 X1.085Z0S0F1800
G0 Z-5 F500
G1 X1.027Z0S900F1800
G0 Z5 F500
G1 X0.782Z0S0F1800
G0 Z-5 F500
G1 X0.807Z0S900F1800
G0 Z5 F500
; --- FIX X Backlash (relative): -1.400mm ---
G0 X-1.400 F1200
G1 X-0.731Y0.9Z0S0F1800
G0 Z-5 F500
G1 X-0.628Z0S900F1800
G0 Z5 F500
G1 X-0.924Z0S0F1800
G0 Z-5 F500
G1 X-1.041Z0S900F1800
G0 Z5 F500
G1 X-1.113Z0S0F1800
G0 Z-5 F500
G1 X-5.804Z0S900F1800
G0 Z5 F500
G1 X-9.432Z0S0F1800
G0 Z-5 F500
G1 X-7.927Z0S900F1800
G0 Z5 F500
G1 X-3.53Z0S0F1800
G0 Z-5 F500
G1 X-0.329Z0S900F1800
G0 Z5 F500
G1 X-3.063Z0S0F1800
G0 Z-5 F500
G1 X-0.811Z0S900F1800
G0 Z5 F500
G1 X-3.103Z0S0F1800
G0 Z-5 F500
G1 X-0.483Z0S900F1800
G0 Z5 F500
G1 X-0.163Z0S0F1800
G0 Z-5 F500
G1 X-0.445Z0S900F1800
G0 Z5 F500
G1 X-1.014Z0S0F1800
G0 Z-5 F500
G1 X-0.591Z0S900F1800
G0 Z5 F500
G1 X-0.744Z0S0F1800
G0 Z-5 F500
G1 X-0.786Z0S900F1800
G0 Z5 F500
G1 X-0.492Z0S0F1800
G0 Z-5 F500
G1 X-2.391Z0S900F1800
G0 Z5 F500
G1 X-9.688Z0S0F1800
G0 Z-5 F500
G1 X-5.635Z0S900F1800
G0 Z5 F500
G1 X-0.907Z0S0F1800
G0 Z-5 F500
G1 X-1.493Z0S900F1800
G0 Z5 F500
; --- FIX X Backlash (relative): 1.400mm ---
G0 X1.400 F1200
G1 X0.617Y0.9Z0S0F1800
G0 Z-5 F500
G1 X1.179Z0S900F1800
G0 Z5 F500
G1 X1.359Z0S0F1800
G0 Z-5 F500
G1 X4.253Z0S900F1800
G0 Z5 F500
G1 X9.973Z0S0F1800
G0 Z-5 F500
G1 X7.885Z0S900F1800
G0 Z5 F500
G1 X0.505Z0S0F1800
G0 Z-5 F500
G1 X0.613Z0S900F1800
G0 Z5 F500
G1 X8.131Z0S0F1800
G0 Z-5 F500
G1 X9.355Z0S900F1800
G0 Z5 F500
G1 X9.554Z0S0F1800
G0 Z-5 F500
G1 X4.679Z0S900F1800
G0 Z5 F500
G1 X1.141Z0S0F1800
G0 Z-5 F500
G1 X0.927Z0S900F1800
G0 Z5 F500
G1 X0.742Z0S0F1800
G0 Z-5 F500
G1 X0.73Z0S900F1800
G0 Z5 F500
; --- FIX X Backlash (relative): -1.400mm ---
G0 X-1.400 F1200
G1 X-1.013Y0.9Z0S0F1800
G0 Z-5 F500
G1 X-0.89Z0S900F1800
G0 Z5 F500
G1 X-0.378Z0S0F1800
G0 Z-5 F500
G1 X-0.933Z0S900F1800
G0 Z5 F500
G1 X-1.108Z0S0F1800
G0 Z-5 F500
G1 X-3.371Z0S900F1800
G0 Z5 F500
G1 X-9.905Z0S0F1800
G0 Z-5 F500
G1 X-9.533Z0S900F1800
G0 Z5 F500
G1 X-8.131Z0S0F1800
G0 Z-5 F500
G1 X-9.369Z0S900F1800
G0 Z5 F500
G1 X-10.154Z0S0F1800
G0 Z-5 F500
G1 X-2.713Z0S900F1800
G0 Z5 F500
G1 X-1.686Z0S0F1800
G0 Z-5 F500
G1 X-1.46Z0S900F1800
G0 Z5 F500
; --- FIX X Backlash (relative): 1.400mm ---
G0 X1.400 F1200
G1 X0.437Y0.9Z0S0F1800
G0 Z-5 F500
G1 X0.595Z0S900F1800
G0 Z5 F500
G1 X0.556Z0S0F1800
G0 Z-5 F500
G1 X0.979Z0S900F1800
G0 Z5 F500
G1 X1.767Z0S0F1800
G0 Z-5 F500
G1 X0.882Z0S900F1800
G0 Z5 F500
G1 X5.478Z0S0F1800
G0 Z-5 F500
G1 X0.126Z0S900F1800
G0 Z5 F500
G1 X4.922Z0S0F1800
G0 Z-5 F500
G1 X9.539Z0S900F1800
G0 Z5 F500
G1 X8.223Z0S0F1800
G0 Z-5 F500
G1 X9.817Z0S900F1800
G0 Z5 F500
G1 X10.111Z0S0F1800
G0 Z-5 F500
G1 X2.042Z0S900F1800
G0 Z5 F500
G1 X1.104Z0S0F1800
G0 Z-5 F500
G1 X2.447Z0S900F1800
G0 Z5 F500
; --- FIX X Backlash (relative): -1.400mm ---
G0 X-1.400 F1200
G1 X-0.701Y0.9Z0S0F1800
G0 Z-5 F500
G1 X-0.804Z0S900F1800
G0 Z5 F500
G1 X-0.617Z0S0F1800
G0 Z-5 F500
G1 X-1.189Z0S900F1800
G0 Z5 F500
G1 X-1.057Z0S0F1800
G0 Z-5 F500
G1 X-1.461Z0S900F1800
G0 Z5 F500
G1 X-9.651Z0S0F1800
G0 Z-5 F500
G1 X-10.122Z0S900F1800
G0 Z5 F500
G1 X-8.041Z0S0F1800
G0 Z-5 F500
G1 X-9.972Z0S900F1800
G0 Z5 F500
G1 X-9.072Z0S0F1800
G0 Z-5 F500
G1 X-1.33Z0S900F1800
G0 Z5 F500
G1 X-1.207Z0S0F1800
G0 Z-5 F500
G1 X-1.134Z0S900F1800
G0 Z5 F500
G1 X-0.656Z0S0F1800
G0 Z-5 F500
G1 X-0.899Z0S900F1800
G0 Z5 F500
; --- FIX X Backlash (relative): 1.400mm ---
G0 X1.400 F1200
G1 X1.177Y0.9Z0S0F1800
G0 Z-5 F500
G1 X0.687Z0S900F1800
G0 Z5 F500
G1 X1.013Z0S0F1800
G0 Z-5 F500
G1 X0.841Z0S900F1800
G0 Z5 F500
G1 X1.102Z0S0F1800
G0 Z-5 F500
G1 X1.369Z0S900F1800
G0 Z5 F500
G1 X7.898Z0S0F1800
G0 Z-5 F500
G1 X10.011Z0S900F1800
G0 Z5 F500
G1 X8.344Z0S0F1800
G0 Z-5 F500
G1 X10.308Z0S900F1800
G0 Z5 F500
G1 X8.238Z0S0F1800
G0 Z-5 F500
G1 X1.378Z0S900F1800
G0 Z5 F500
G1 X1.36Z0S0F1800
G0 Z-5 F500
G1 X1.131Z0S900F1800
G0 Z5 F500
G1 X0.926Z0S0F1800
G0 Z-5 F500
G1 X0.521Z0S900F1800
G0 Z5 F500
; --- FIX X Backlash (relative): -1.400mm ---
G0 X-1.400 F1200
G1 X-2.378Y0.9Z0S0F1800
G0 Z-5 F500
G1 X-1.094Z0S900F1800
G0 Z5 F500
G1 X-1.572Z0S0F1800
G0 Z-5 F500
G1 X-1.525Z0S900F1800
G0 Z5 F500
G1 X-6.728Z0S0F1800
G0 Z-5 F500
G1 X-10.433Z0S900F1800
G0 Z5 F500
G1 X-8.48Z0S0F1800
G0 Z-5 F500
G1 X-10.378Z0S900F1800
G0 Z5 F500
G1 X-6.561Z0S0F1800
G0 Z-5 F500
G1 X-1.332Z0S900F1800
G0 Z5 F500
G1 X-0.994Z0S0F1800
G0 Z-5 F500
G1 X-1.037Z0S900F1800
G0 Z5 F500
G1 X-0.118Y0.9Z0S0F1800
G0 Z-5 F500
; --- FIX X Backlash (relative): 1.400mm ---
G0 X1.400 F1200
G1 X0.856Z0S900F1800
G0 Z5 F500
G1 X0.275Z0S0F1800
G0 Z-5 F500
G1 X1.148Z0S900F1800
G0 Z5 F500
G1 X1.06Z0S0F1800
G0 Z-5 F500
G1 X1.291Z0S900F1800
G0 Z5 F500
G1 X5.142Z0S0F1800
G0 Z-5 F500
G1 X10.331Z0S900F1800
G0 Z5 F500
G1 X8.967Z0S0F1800
G0 Z-5 F500
G1 X10.48Z0S900F1800
G0 Z5 F500
G1 X5.177Z0S0F1800
G0 Z-5 F500
G1 X1.464Z0S900F1800
G0 Z5 F500
G1 X1.967Z0S0F1800
G0 Z-5 F500
G1 X1.125Z0S900F1800
G0 Z5 F500
; --- FIX X Backlash (relative): -1.400mm ---
G0 X-1.400 F1200
G1 X-0.069Y0.9Z0S0F1800
G0 Z-5 F500
G1 X-0.677Z0S900F1800
G0 Z5 F500
G1 X-0.369Z0S0F1800
G0 Z-5 F500
G1 X-1.152Z0S900F1800
G0 Z5 F500
G1 X-2.175Z0S0F1800
G0 Z-5 F500
G1 X-1.448Z0S900F1800
G0 Z5 F500
G1 X-3.512Z0S0F1800
G0 Z-5 F500
G1 X-10.619Z0S900F1800
G0 Z5 F500
G1 X-9.209Z0S0F1800
G0 Z-5 F500
G1 X-10.601Z0S900F1800
G0 Z5 F500
G1 X-3.231Z0S0F1800
G0 Z-5 F500
G1 X-1.706Z0S900F1800
G0 Z5 F500
G1 X-0.919Z0S0F1800
G0 Z-5 F500
G1 X-1.304Z0S900F1800
G0 Z5 F500
G1 X-0.737Z0S0F1800
G0 Z-5 F500
G1 X-0.837Z0S900F1800
G0 Z5 F500
; --- FIX X Backlash (relative): 1.400mm ---
G0 X1.400 F1200
G1 X0.891Y0.9Z0S0F1800
G0 Z-5 F500
G1 X1.694Z0S900F1800
G0 Z5 F500
G1 X0.17Z0S0F1800
G0 Z-5 F500
G1 X1.472Z0S900F1800
G0 Z5 F500
G1 X1.216Z0S0F1800
G0 Z-5 F500
G1 X1.709Z0S900F1800
G0 Z5 F500
G1 X1.143Z0S0F1800
G0 Z-5 F500
G1 X10.919Z0S900F1800
G0 Z5 F500
G1 X9.42Z0S0F1800
G0 Z-5 F500
G1 X10.832Z0S900F1800
G0 Z5 F500
G1 X1.731Z0S0F1800
G0 Z-5 F500
G1 X1.439Z0S900F1800
G0 Z5 F500
G1 X2.55Z0S0F1800
G0 Z-5 F500
G1 X1.225Z0S900F1800
G0 Z5 F500
G1 X0.656Z0S0F1800
G0 Z-5 F500
G1 X0.737Z0S900F1800
G0 Z5 F500
; --- FIX X Backlash (relative): -1.400mm ---
G0 X-1.400 F1200
G1 X-0.961Y0.9Z0S0F1800
G0 Z-5 F500
G1 X-2.735Z0S900F1800
G0 Z5 F500
G1 X-3.014Z0S0F1800
G0 Z-5 F500
G1 X-1.236Z0S900F1800
G0 Z5 F500
G1 X-0.142Z0S0F1800
G0 Z-5 F500
G1 X-10.984Z0S900F1800
G0 Z5 F500
G1 X-9.591Z0S0F1800
G0 Z-5 F500
G1 X-12.03Z0S900F1800
G0 Z5 F500
G1 X-1.309Z0S0F1800
G0 Z-5 F500
G1 X-1.463Z0S900F1800
G0 Z5 F500
G1 X-1.023Z0S0F1800
G0 Z-5 F500
G1 X-1.18Z0S900F1800
G0 Z5 F500
; --- FIX X Backlash (relative): 1.400mm ---
G0 X1.400 F1200
G1 X3.287Y0.9Z0S0F1800
G0 Z-5 F500
G1 X1.678Z0S900F1800
G0 Z5 F500
G1 X1.645Z0S0F1800
G0 Z-5 F500
G1 X10.227Z0S900F1800
G0 Z5 F500
G1 X9.812Z0S0F1800
G0 Z-5 F500
G1 X10.587Z0S900F1800
G0 Z5 F500
G1 X3.341Z0S0F1800
G0 Z-5 F500
G1 X1.15Z0S900F1800
G0 Z5 F500
G1 X0.005Z0S0F1800
G0 Z-5 F500
G1 X1.113Z0S900F1800
G0 Z5 F500
; --- FIX X Backlash (relative): -1.400mm ---
G0 X-1.400 F1200
G1 X-1.077Y0.9Z0S0F1800
G0 Z-5 F500
G1 X-0.897Z0S900F1800
G0 Z5 F500
G1 X-0.535Z0S0F1800
G0 Z-5 F500
G1 X-1.45Z0S900F1800
G0 Z5 F500
G1 X-3.757Z0S0F1800
G0 Z-5 F500
G1 X-8.416Z0S900F1800
G0 Z5 F500
G1 X-9.903Z0S0F1800
G0 Z-5 F500
G1 X-8.634Z0S900F1800
G0 Z5 F500
G1 X-1.89Z0S0F1800
G0 Z-5 F500
G1 X-3.399Z0S900F1800
G0 Z5 F500
; --- FIX X Backlash (relative): 1.400mm ---
G0 X1.400 F1200
G1 X1.51Y0.9Z0S0F1800
G0 Z-5 F500
G1 X0.8Z0S900F1800
G0 Z5 F500
G1 X1.219Z0S0F1800
G0 Z-5 F500
G1 X1.463Z0S900F1800
G0 Z5 F500
G1 X3.018Z0S0F1800
G0 Z-5 F500
G1 X5.671Z0S900F1800
G0 Z5 F500
G1 X10.242Z0S0F1800
G0 Z-5 F500
G1 X5.985Z0S900F1800
G0 Z5 F500
G1 X3.523Z0S0F1800
G0 Z-5 F500
G1 X2.488Z0S900F1800
G0 Z5 F500
G1 X1.035Z0S0F1800
G0 Z-5 F500
G1 X0.169Z0S900F1800
G0 Z5 F500
; --- FIX X Backlash (relative): -1.400mm ---
G0 X-1.400 F1200
G1 X-2.027Y0.9Z0S0F1800
G0 Z-5 F500
G1 X-1.004Z0S900F1800
G0 Z5 F500
G1 X-0.974Z0S0F1800
G0 Z-5 F500
G1 X-2.628Z0S900F1800
G0 Z5 F500
G1 X-3.653Z0S0F1800
G0 Z-5 F500
G1 X-13.375Z0S900F1800
G0 Z5 F500
G1 X-0.163Z0S0F1800
G0 Z-5 F500
G1 X-0.135Z0S900F1800
G0 Z5 F500
G1 X-6.48Z0S0F1800
G0 Z-5 F500
G1 X-1.525Z0S900F1800
G90
M9
M5
G1 Z10 F1800
G90
G1 Z10 F1800

