;LightBurn 1.6.04
;Custom GCode device profile, absolute coords
;Bounds: X4.17 Y27.02 to X146.36 Y129.72
G00 G17 G40 G21 G54
G90
M3
G1 Z10 F1000
;Cut @ 1500 mm/min, 90% power

M8
G0 Z3.5 F1000
G0 X21.362 Y27.050 Z3.500
G1 Z0 F1000
;Layer Blue
G1 X21.362 Y29.617 Z0.000 F1600
G0 Z3.5 F1000
G0 X47.028 Y29.617 Z3.500
G1 Z0 F1000
; --- FIX Y Backlash: -1.500mm ---
G0 X47.028 Y28.117 F1200
G1 X47.028 Y25.550 Z0.000 F1600
G0 Z3.5 F1000
; --- FIX Y Backlash: 1.500mm ---
G0 X47.028 Y27.050 F1200
G0 X52.689 Y31.010 Z3.500
G1 Z0 F1000
; --- FIX Y Backlash: -1.500mm ---
G0 X52.689 Y29.510 F1200
G1 X52.849 Y29.448 Z0.000 F1600
G1 X52.995 Y29.437 Z0.000 F1600
G1 X53.005 Y29.437 Z0.000 F1600
; --- FIX Y Backlash: 1.500mm ---
G0 X53.005 Y30.937 F1200
G1 X53.215 Y30.989 Z0.000 F1600
G1 X53.414 Y31.126 Z0.000 F1600
G1 X53.537 Y31.337 Z0.000 F1600
G1 X53.590 Y31.566 Z0.000 F1600
G1 X53.600 Y31.786 Z0.000 F1600
G1 X53.571 Y31.985 Z0.000 F1600
; --- FIX X Backlash: -1.400mm ---
G0 X52.171 Y31.985 F1200
G1 X52.097 Y32.162 Z0.000 F1600
G1 X51.991 Y32.298 Z0.000 F1600
G1 X51.844 Y32.424 Z0.000 F1600
G1 X51.688 Y32.478 Z0.000 F1600
G1 X51.542 Y32.488 Z0.000 F1600
G1 X51.372 Y32.458 Z0.000 F1600
; --- FIX Y Backlash: -1.500mm ---
G0 X51.372 Y30.958 F1200
G1 X51.216 Y30.861 Z0.000 F1600
G1 X51.079 Y30.705 Z0.000 F1600
G1 X51.006 Y30.559 Z0.000 F1600
G1 X50.944 Y30.339 Z0.000 F1600
G1 X50.944 Y30.169 Z0.000 F1600
G1 X50.965 Y29.973 Z0.000 F1600
; --- FIX X Backlash: 1.400mm ---
G0 X52.365 Y29.973 F1200
G1 X52.416 Y29.793 Z0.000 F1600
G1 X52.543 Y29.626 Z0.000 F1600
G1 X52.689 Y29.510 Z0.000 F1600
G0 Z3.5 F1000
; --- FIX Y Backlash: 1.500mm ---
G0 X52.689 Y31.010 F1200
G0 X54.346 Y31.189 Z3.500
G1 Z0 F1000
; --- FIX Y Backlash: -1.500mm ---
G0 X54.346 Y29.689 F1200
G1 X54.515 Y29.573 Z0.000 F1600
G1 X54.692 Y29.479 Z0.000 F1600
G1 X54.851 Y29.448 Z0.000 F1600
G1 X55.048 Y29.458 Z0.000 F1600
; --- FIX Y Backlash: 1.500mm ---
G0 X55.048 Y30.958 F1200
G1 X55.174 Y31.021 Z0.000 F1600
G1 X55.344 Y31.178 Z0.000 F1600
G1 X55.457 Y31.420 Z0.000 F1600
G1 X55.490 Y31.649 Z0.000 F1600
G1 X55.490 Y31.922 Z0.000 F1600
; --- FIX X Backlash: -1.400mm ---
G0 X54.090 Y31.922 F1200
G1 X54.017 Y32.162 Z0.000 F1600
G1 X53.871 Y32.371 Z0.000 F1600
G1 X53.701 Y32.468 Z0.000 F1600
G1 X53.481 Y32.468 Z0.000 F1600
G1 X53.302 Y32.434 Z0.000 F1600
; --- FIX Y Backlash: -1.500mm ---
G0 X53.302 Y30.934 F1200
G1 X53.092 Y30.821 Z0.000 F1600
G1 X52.916 Y30.642 Z0.000 F1600
; --- FIX Y Backlash: 1.500mm ---
G0 X52.916 Y32.142 F1200
G1 X52.916 Y32.478 Z0.000 F1600
; --- FIX Y Backlash: -1.500mm ---
G0 X52.916 Y30.978 F1200
G1 X52.916 Y28.725 Z0.000 F1600
G0 Z3.5 F1000
; --- FIX X Backlash: 1.400mm ---
G0 X54.316 Y28.725 F1200
; --- FIX Y Backlash: 1.500mm ---
G0 X54.316 Y30.225 F1200
G0 X56.086 Y31.756 Z3.500
G1 Z0 F1000
G1 X57.240 Y31.756 Z0.000 F1600
G1 X57.240 Y31.942 Z0.000 F1600
; --- FIX X Backlash: -1.400mm ---
G0 X55.840 Y31.942 F1200
G1 X55.787 Y32.185 Z0.000 F1600
G1 X55.630 Y32.371 Z0.000 F1600
G1 X55.471 Y32.478 Z0.000 F1600
G1 X55.251 Y32.488 Z0.000 F1600
; --- FIX Y Backlash: -1.500mm ---
G0 X55.251 Y30.988 F1200
G1 X55.032 Y30.924 Z0.000 F1600
G1 X54.842 Y30.768 Z0.000 F1600
G1 X54.769 Y30.612 Z0.000 F1600
G1 X54.686 Y30.412 Z0.000 F1600
G1 X54.665 Y30.203 Z0.000 F1600
; --- FIX X Backlash: 1.400mm ---
G0 X56.065 Y30.203 F1200
G1 X56.118 Y29.950 Z0.000 F1600
G1 X56.212 Y29.720 Z0.000 F1600
G1 X56.402 Y29.531 Z0.000 F1600
G1 X56.578 Y29.448 Z0.000 F1600
G1 X56.798 Y29.427 Z0.000 F1600
; --- FIX Y Backlash: 1.500mm ---
G0 X56.798 Y30.927 F1200
G1 X56.987 Y30.979 Z0.000 F1600
G1 X57.167 Y31.073 Z0.000 F1600
G0 Z3.5 F1000
; --- FIX Y Backlash: -1.500mm ---
G0 X57.167 Y29.573 F1200
G0 X57.889 Y29.427 Z3.500
G1 Z0 F1000
; --- FIX Y Backlash: 1.500mm ---
G0 X57.889 Y30.927 F1200
G1 X57.889 Y32.478 Z0.000 F1600
; --- FIX Y Backlash: -1.500mm ---
G0 X57.889 Y30.978 F1200
G1 X57.889 Y30.602 Z0.000 F1600
; --- FIX Y Backlash: 1.500mm ---
G0 X57.889 Y32.102 F1200
G1 X58.035 Y32.248 Z0.000 F1600
G1 X58.172 Y32.371 Z0.000 F1600
G1 X58.278 Y32.434 Z0.000 F1600
G1 X58.434 Y32.478 Z0.000 F1600
G1 X58.538 Y32.488 Z0.000 F1600
G1 X58.697 Y32.444 Z0.000 F1600
; --- FIX Y Backlash: -1.500mm ---
G0 X58.697 Y30.944 F1200
G1 X58.790 Y30.885 Z0.000 F1600
G1 X58.864 Y30.778 Z0.000 F1600
G1 X58.927 Y30.632 Z0.000 F1600
G1 X58.927 Y29.427 Z0.000 F1600
G0 Z3.5 F1000
; --- FIX Y Backlash: 1.500mm ---
G0 X58.927 Y30.927 F1200
G0 X59.755 Y32.185 Z3.500
G1 Z0 F1000
G1 X59.965 Y32.351 Z0.000 F1600
G1 X60.164 Y32.458 Z0.000 F1600
G1 X60.364 Y32.498 Z0.000 F1600
G1 X60.554 Y32.458 Z0.000 F1600
; --- FIX Y Backlash: -1.500mm ---
G0 X60.554 Y30.958 F1200
G1 X60.690 Y30.885 Z0.000 F1600
G1 X60.846 Y30.685 Z0.000 F1600
G1 X60.896 Y30.442 Z0.000 F1600
G1 X60.910 Y30.183 Z0.000 F1600
G1 X60.866 Y29.920 Z0.000 F1600
; --- FIX X Backlash: -1.400mm ---
G0 X59.466 Y29.920 F1200
G1 X59.363 Y29.710 Z0.000 F1600
G1 X59.227 Y29.563 Z0.000 F1600
G1 X59.004 Y29.437 Z0.000 F1600
G1 X58.818 Y29.448 Z0.000 F1600
; --- FIX Y Backlash: 1.500mm ---
G0 X58.818 Y30.948 F1200
G1 X58.628 Y31.000 Z0.000 F1600
G1 X58.452 Y31.115 Z0.000 F1600
G1 X58.335 Y31.210 Z0.000 F1600
; --- FIX Y Backlash: -1.500mm ---
G0 X58.335 Y29.710 F1200
G1 X58.335 Y29.427 Z0.000 F1600
; --- FIX Y Backlash: 1.500mm ---
G0 X58.335 Y30.927 F1200
G1 X58.335 Y33.263 Z0.000 F1600
G0 Z3.5 F1000
G0 X58.295 Y33.851 Z3.500
G1 Z0 F1000
; --- FIX X Backlash: 1.400mm ---
G0 X59.695 Y33.851 F1200
G1 X59.818 Y33.882 Z0.000 F1600
G1 X59.935 Y33.962 Z0.000 F1600
G1 X60.007 Y34.086 Z0.000 F1600
G1 X60.039 Y34.221 Z0.000 F1600
G1 X60.044 Y34.349 Z0.000 F1600
G1 X60.027 Y34.467 Z0.000 F1600
G1 X59.984 Y34.570 Z0.000 F1600
; --- FIX X Backlash: -1.400mm ---
G0 X58.584 Y34.570 F1200
G1 X58.521 Y34.650 Z0.000 F1600
G1 X58.435 Y34.724 Z0.000 F1600
G1 X58.344 Y34.756 Z0.000 F1600
G1 X58.258 Y34.762 Z0.000 F1600
G1 X58.158 Y34.744 Z0.000 F1600
; --- FIX Y Backlash: -1.500mm ---
G0 X58.158 Y33.244 F1200
G1 X58.066 Y33.187 Z0.000 F1600
G1 X57.986 Y33.096 Z0.000 F1600
G1 X57.943 Y33.010 Z0.000 F1600
G1 X57.907 Y32.881 Z0.000 F1600
G1 X57.907 Y32.781 Z0.000 F1600
G1 X57.919 Y32.666 Z0.000 F1600
G1 X57.949 Y32.560 Z0.000 F1600
; --- FIX X Backlash: 1.400mm ---
G0 X59.349 Y32.560 F1200
G1 X59.423 Y32.462 Z0.000 F1600
G1 X59.509 Y32.394 Z0.000 F1600
G1 X59.603 Y32.358 Z0.000 F1600
G1 X59.689 Y32.351 Z0.000 F1600
G1 X59.695 Y32.351 Z0.000 F1600
G0 Z3.5 F1000
G0 X60.476 Y32.351 Z3.500
G1 Z0 F1000
; --- FIX Y Backlash: 1.500mm ---
G0 X60.476 Y33.851 F1200
G1 X60.476 Y34.756 Z0.000 F1600
; --- FIX Y Backlash: -1.500mm ---
G0 X60.476 Y33.256 F1200
G1 X60.476 Y32.978 Z0.000 F1600
; --- FIX Y Backlash: 1.500mm ---
G0 X60.476 Y34.478 F1200
G1 X60.533 Y34.590 Z0.000 F1600
G1 X60.619 Y34.701 Z0.000 F1600
G1 X60.710 Y34.744 Z0.000 F1600
G1 X60.796 Y34.756 Z0.000 F1600
G1 X60.851 Y34.750 Z0.000 F1600
G0 Z3.5 F1000
; --- FIX Y Backlash: -1.500mm ---
G0 X60.851 Y33.250 F1200
G0 X61.128 Y32.345 Z3.500
G1 Z0 F1000
; --- FIX Y Backlash: 1.500mm ---
G0 X61.128 Y33.845 F1200
G1 X61.128 Y34.750 Z0.000 F1600
; --- FIX Y Backlash: -1.500mm ---
G0 X61.128 Y33.250 F1200
G1 X61.128 Y33.047 Z0.000 F1600
; --- FIX Y Backlash: 1.500mm ---
G0 X61.128 Y34.547 F1200
G1 X61.214 Y34.621 Z0.000 F1600
G1 X61.294 Y34.687 Z0.000 F1600
G1 X61.368 Y34.736 Z0.000 F1600
G1 X61.460 Y34.762 Z0.000 F1600
G1 X61.540 Y34.750 Z0.000 F1600
G1 X61.595 Y34.724 Z0.000 F1600
; --- FIX Y Backlash: -1.500mm ---
G0 X61.595 Y33.224 F1200
G1 X61.657 Y33.164 Z0.000 F1600
G1 X61.700 Y33.058 Z0.000 F1600
G1 X61.712 Y32.930 Z0.000 F1600
G1 X61.712 Y32.345 Z0.000 F1600
; --- FIX Y Backlash: 1.500mm ---
G0 X61.712 Y33.845 F1200
G1 X61.712 Y34.527 Z0.000 F1600
G1 X61.738 Y34.578 Z0.000 F1600
G1 X61.866 Y34.693 Z0.000 F1600
G1 X61.964 Y34.744 Z0.000 F1600
G1 X62.044 Y34.767 Z0.000 F1600
G1 X62.130 Y34.744 Z0.000 F1600
G1 X62.187 Y34.713 Z0.000 F1600
; --- FIX Y Backlash: -1.500mm ---
G0 X62.187 Y33.213 F1200
G1 X62.253 Y33.133 Z0.000 F1600
G1 X62.284 Y32.972 Z0.000 F1600
G1 X62.284 Y32.351 Z0.000 F1600
G0 Z3.5 F1000
; --- FIX Y Backlash: 1.500mm ---
G0 X62.284 Y33.851 F1200
G0 X62.747 Y34.650 Z3.500
G1 Z0 F1000
G1 X62.876 Y34.724 Z0.000 F1600
G1 X62.985 Y34.756 Z0.000 F1600
G1 X63.097 Y34.767 Z0.000 F1600
G1 X63.183 Y34.736 Z0.000 F1600
; --- FIX Y Backlash: -1.500mm ---
G0 X63.183 Y33.236 F1200
G1 X63.257 Y33.170 Z0.000 F1600
G1 X63.306 Y33.070 Z0.000 F1600
G1 X63.312 Y32.935 Z0.000 F1600
G1 X63.312 Y32.358 Z0.000 F1600
; --- FIX Y Backlash: 1.500mm ---
G0 X63.312 Y33.858 F1200
G1 X63.306 Y34.023 Z0.000 F1600
; --- FIX X Backlash: -1.400mm ---
G0 X61.906 Y34.023 F1200
; --- FIX Y Backlash: -1.500mm ---
G0 X61.906 Y32.523 F1200
G1 X61.826 Y32.468 Z0.000 F1600
G1 X61.740 Y32.407 Z0.000 F1600
G1 X61.642 Y32.364 Z0.000 F1600
G1 X61.531 Y32.345 Z0.000 F1600
G1 X61.439 Y32.376 Z0.000 F1600
G1 X61.365 Y32.425 Z0.000 F1600
; --- FIX Y Backlash: 1.500mm ---
G0 X61.365 Y33.925 F1200
G1 X61.309 Y34.005 Z0.000 F1600
G1 X61.309 Y34.123 Z0.000 F1600
G1 X61.353 Y34.215 Z0.000 F1600
; --- FIX X Backlash: 1.400mm ---
G0 X62.753 Y34.215 F1200
G1 X62.851 Y34.295 Z0.000 F1600
G1 X62.948 Y34.332 Z0.000 F1600
G1 X63.065 Y34.369 Z0.000 F1600
G1 X63.177 Y34.387 Z0.000 F1600
G1 X63.245 Y34.392 Z0.000 F1600
G1 X63.300 Y34.392 Z0.000 F1600
G0 Z3.5 F1000
G0 X63.806 Y35.008 Z3.500
G1 Z0 F1000
; --- FIX Y Backlash: -1.500mm ---
G0 X63.806 Y33.508 F1200
G1 X63.806 Y33.230 Z0.000 F1600
G1 X64.100 Y33.230 Z0.000 F1600
; --- FIX X Backlash: -1.400mm ---
G0 X62.700 Y33.230 F1200
G1 X62.226 Y33.230 Z0.000 F1600
; --- FIX X Backlash: 1.400mm ---
G0 X63.626 Y33.230 F1200
G1 X63.806 Y33.230 Z0.000 F1600
G1 X63.806 Y32.598 Z0.000 F1600
G1 X63.817 Y32.462 Z0.000 F1600
G1 X63.886 Y32.382 Z0.000 F1600
G1 X63.964 Y32.358 Z0.000 F1600
G1 X64.052 Y32.358 Z0.000 F1600
G1 X64.118 Y32.388 Z0.000 F1600
G0 Z3.5 F1000
G0 X64.432 Y32.345 Z3.500
G1 Z0 F1000
; --- FIX Y Backlash: 1.500mm ---
G0 X64.432 Y33.845 F1200
G1 X64.432 Y34.750 Z0.000 F1600
G0 Z3.5 F1000
G0 X64.475 Y35.027 Z3.500
G1 Z0 F1000
G1 X64.475 Y35.125 Z0.000 F1600
; --- FIX X Backlash: -1.400mm ---
G0 X63.075 Y35.125 F1200
G1 X62.977 Y35.125 Z0.000 F1600
; --- FIX Y Backlash: -1.500mm ---
G0 X62.977 Y33.625 F1200
G1 X62.977 Y33.527 Z0.000 F1600
; --- FIX X Backlash: 1.400mm ---
G0 X64.377 Y33.527 F1200
G1 X64.475 Y33.527 Z0.000 F1600
G0 Z3.5 F1000
G0 X65.016 Y33.187 Z3.500
G1 Z0 F1000
; --- FIX X Backlash: -1.400mm ---
G0 X63.616 Y33.187 F1200
G1 X63.536 Y33.096 Z0.000 F1600
G1 X63.493 Y33.010 Z0.000 F1600
G1 X63.457 Y32.881 Z0.000 F1600
G1 X63.457 Y32.781 Z0.000 F1600
G1 X63.469 Y32.666 Z0.000 F1600
G1 X63.499 Y32.560 Z0.000 F1600
; --- FIX X Backlash: 1.400mm ---
G0 X64.899 Y32.560 F1200
G1 X64.973 Y32.462 Z0.000 F1600
G1 X65.059 Y32.394 Z0.000 F1600
G1 X65.153 Y32.358 Z0.000 F1600
G1 X65.239 Y32.351 Z0.000 F1600
G1 X65.245 Y32.351 Z0.000 F1600
G1 X65.368 Y32.382 Z0.000 F1600
; --- FIX Y Backlash: 1.500mm ---
G0 X65.368 Y33.882 F1200
G1 X65.485 Y33.962 Z0.000 F1600
G1 X65.557 Y34.086 Z0.000 F1600
G1 X65.588 Y34.221 Z0.000 F1600
G1 X65.594 Y34.349 Z0.000 F1600
G1 X65.577 Y34.467 Z0.000 F1600
G1 X65.534 Y34.570 Z0.000 F1600
; --- FIX X Backlash: -1.400mm ---
G0 X64.134 Y34.570 F1200
G1 X64.071 Y34.650 Z0.000 F1600
G1 X63.985 Y34.724 Z0.000 F1600
G1 X63.894 Y34.756 Z0.000 F1600
G1 X63.808 Y34.762 Z0.000 F1600
G1 X63.708 Y34.744 Z0.000 F1600
; --- FIX Y Backlash: -1.500mm ---
G0 X63.708 Y33.244 F1200
G1 X63.616 Y33.187 Z0.000 F1600
G0 Z3.5 F1000
; --- FIX X Backlash: 1.400mm ---
G0 X65.016 Y33.187 F1200
G0 X66.020 Y32.345 Z3.500
G1 Z0 F1000
; --- FIX Y Backlash: 1.500mm ---
G0 X66.020 Y33.845 F1200
G1 X66.020 Y34.756 Z0.000 F1600
; --- FIX Y Backlash: -1.500mm ---
G0 X66.020 Y33.256 F1200
G1 X66.020 Y33.035 Z0.000 F1600
; --- FIX Y Backlash: 1.500mm ---
G0 X66.020 Y34.535 F1200
G1 X66.106 Y34.621 Z0.000 F1600
G1 X66.186 Y34.693 Z0.000 F1600
G1 X66.249 Y34.730 Z0.000 F1600
G1 X66.340 Y34.756 Z0.000 F1600
G1 X66.401 Y34.762 Z0.000 F1600
G1 X66.495 Y34.736 Z0.000 F1600
G1 X66.549 Y34.701 Z0.000 F1600
; --- FIX Y Backlash: -1.500mm ---
G0 X66.549 Y33.201 F1200
G1 X66.592 Y33.138 Z0.000 F1600
G1 X66.629 Y33.053 Z0.000 F1600
G1 X66.629 Y32.345 Z0.000 F1600
G0 Z3.5 F1000
G0 X68.175 Y30.958 Z3.500
G1 Z0 F1000
; --- FIX X Backlash: -1.400mm ---
G0 X66.775 Y30.958 F1200
G1 X66.619 Y30.861 Z0.000 F1600
G1 X66.483 Y30.705 Z0.000 F1600
G1 X66.409 Y30.559 Z0.000 F1600
G1 X66.348 Y30.339 Z0.000 F1600
G1 X66.348 Y30.169 Z0.000 F1600
G1 X66.368 Y29.973 Z0.000 F1600
; --- FIX X Backlash: 1.400mm ---
G0 X67.768 Y29.973 F1200
G1 X67.819 Y29.793 Z0.000 F1600
G1 X67.946 Y29.626 Z0.000 F1600
G1 X68.092 Y29.510 Z0.000 F1600
G1 X68.252 Y29.448 Z0.000 F1600
G1 X68.398 Y29.437 Z0.000 F1600
G1 X68.408 Y29.437 Z0.000 F1600
; --- FIX Y Backlash: 1.500mm ---
G0 X68.408 Y30.937 F1200
G1 X68.618 Y30.989 Z0.000 F1600
G1 X68.818 Y31.126 Z0.000 F1600
G1 X68.941 Y31.337 Z0.000 F1600
G1 X68.994 Y31.566 Z0.000 F1600
G1 X69.004 Y31.786 Z0.000 F1600
G1 X68.974 Y31.985 Z0.000 F1600
; --- FIX X Backlash: -1.400mm ---
G0 X67.574 Y31.985 F1200
G1 X67.501 Y32.162 Z0.000 F1600
G1 X67.394 Y32.298 Z0.000 F1600
G1 X67.248 Y32.424 Z0.000 F1600
G1 X67.092 Y32.478 Z0.000 F1600
G1 X66.945 Y32.488 Z0.000 F1600
G1 X66.775 Y32.458 Z0.000 F1600
G0 Z3.5 F1000
; --- FIX X Backlash: 1.400mm ---
G0 X68.175 Y32.458 F1200
; --- FIX Y Backlash: -1.500mm ---
G0 X68.175 Y30.958 F1200
G0 X69.895 Y30.066 Z3.500
G1 Z0 F1000
; --- FIX X Backlash: -1.400mm ---
G0 X68.495 Y30.066 F1200
; --- FIX Y Backlash: 1.500mm ---
G0 X68.495 Y31.566 F1200
G1 X68.402 Y31.649 Z0.000 F1600
G1 X68.319 Y31.756 Z0.000 F1600
G1 X68.276 Y31.922 Z0.000 F1600
G1 X68.286 Y32.132 Z0.000 F1600
; --- FIX X Backlash: 1.400mm ---
G0 X69.686 Y32.132 F1200
G1 X69.782 Y32.321 Z0.000 F1600
G1 X69.949 Y32.458 Z0.000 F1600
G1 X70.192 Y32.478 Z0.000 F1600
G1 X70.348 Y32.444 Z0.000 F1600
G1 X70.850 Y32.444 Z0.000 F1600
; --- FIX X Backlash: -1.400mm ---
G0 X69.450 Y32.444 F1200
G1 X68.948 Y32.444 Z0.000 F1600
; --- FIX X Backlash: 1.400mm ---
G0 X70.348 Y32.444 F1200
; --- FIX Y Backlash: -1.500mm ---
G0 X70.348 Y30.944 F1200
G1 X70.494 Y30.851 Z0.000 F1600
G1 X70.557 Y30.768 Z0.000 F1600
G1 X70.641 Y30.578 Z0.000 F1600
G1 X70.641 Y30.369 Z0.000 F1600
; --- FIX X Backlash: -1.400mm ---
G0 X69.241 Y30.369 F1200
G1 X69.167 Y30.193 Z0.000 F1600
G1 X69.011 Y30.046 Z0.000 F1600
G1 X68.792 Y29.973 Z0.000 F1600
G1 X68.612 Y30.003 Z0.000 F1600
; --- FIX Y Backlash: 1.500mm ---
G0 X68.612 Y31.503 F1200
G1 X68.495 Y31.576 Z0.000 F1600
; --- FIX Y Backlash: -1.500mm ---
G0 X68.495 Y30.076 F1200
G1 X68.319 Y29.877 Z0.000 F1600
G1 X68.286 Y29.740 Z0.000 F1600
; --- FIX X Backlash: 1.400mm ---
G0 X69.686 Y29.740 F1200
G1 X69.749 Y29.594 Z0.000 F1600
G1 X69.885 Y29.500 Z0.000 F1600
G1 X70.524 Y29.500 Z0.000 F1600
G1 X70.757 Y29.437 Z0.000 F1600
G1 X70.850 Y29.269 Z0.000 F1600
G1 X70.860 Y29.091 Z0.000 F1600
; --- FIX X Backlash: -1.400mm ---
G0 X69.460 Y29.091 F1200
G1 X69.367 Y28.935 Z0.000 F1600
G1 X69.114 Y28.765 Z0.000 F1600
G1 X68.865 Y28.702 Z0.000 F1600
G1 X68.582 Y28.735 Z0.000 F1600
; --- FIX Y Backlash: 1.500mm ---
G0 X68.582 Y30.235 F1200
G1 X68.339 Y30.339 Z0.000 F1600
G1 X68.193 Y30.498 Z0.000 F1600
G1 X68.214 Y30.686 Z0.000 F1600
; --- FIX X Backlash: 1.400mm ---
G0 X69.614 Y30.686 F1200
G1 X69.719 Y30.864 Z0.000 F1600
G1 X69.875 Y31.010 Z0.000 F1600
G0 Z3.5 F1000
; --- FIX Y Backlash: -1.500mm ---
G0 X69.875 Y29.510 F1200
G0 X71.436 Y29.437 Z3.500
G1 Z0 F1000
; --- FIX Y Backlash: 1.500mm ---
G0 X71.436 Y30.937 F1200
G1 X71.436 Y32.478 Z0.000 F1600
; --- FIX Y Backlash: -1.500mm ---
G0 X71.436 Y30.978 F1200
G1 X71.436 Y30.505 Z0.000 F1600
; --- FIX Y Backlash: 1.500mm ---
G0 X71.436 Y32.005 F1200
G1 X71.532 Y32.195 Z0.000 F1600
G1 X71.679 Y32.385 Z0.000 F1600
G1 X71.835 Y32.458 Z0.000 F1600
G1 X71.981 Y32.478 Z0.000 F1600
G1 X72.075 Y32.468 Z0.000 F1600
G0 Z3.5 F1000
; --- FIX Y Backlash: -1.500mm ---
G0 X72.075 Y30.968 F1200
G0 X72.527 Y30.798 Z3.500
G1 Z0 F1000
; --- FIX Y Backlash: 1.500mm ---
G0 X72.527 Y32.298 F1200
G1 X72.747 Y32.424 Z0.000 F1600
G1 X72.933 Y32.478 Z0.000 F1600
G1 X73.122 Y32.498 Z0.000 F1600
; --- FIX Y Backlash: -1.500mm ---
G0 X73.122 Y30.998 F1200
G1 X73.269 Y30.944 Z0.000 F1600
G1 X73.395 Y30.831 Z0.000 F1600
G1 X73.478 Y30.662 Z0.000 F1600
G1 X73.488 Y30.432 Z0.000 F1600
G1 X73.488 Y29.448 Z0.000 F1600
; --- FIX Y Backlash: 1.500mm ---
G0 X73.488 Y30.948 F1200
G1 X73.478 Y31.230 Z0.000 F1600
; --- FIX X Backlash: -1.400mm ---
G0 X72.078 Y31.230 F1200
; --- FIX Y Backlash: -1.500mm ---
G0 X72.078 Y29.730 F1200
G1 X71.942 Y29.636 Z0.000 F1600
G1 X71.796 Y29.531 Z0.000 F1600
G1 X71.629 Y29.458 Z0.000 F1600
G1 X71.440 Y29.427 Z0.000 F1600
; --- FIX Y Backlash: 1.500mm ---
G0 X71.440 Y30.927 F1200
G1 X71.283 Y30.979 Z0.000 F1600
G1 X71.157 Y31.063 Z0.000 F1600
G1 X71.062 Y31.199 Z0.000 F1600
G1 X71.062 Y31.400 Z0.000 F1600
; --- FIX X Backlash: 1.400mm ---
G0 X72.462 Y31.400 F1200
G1 X72.537 Y31.556 Z0.000 F1600
G1 X72.703 Y31.693 Z0.000 F1600
G1 X72.870 Y31.756 Z0.000 F1600
G1 X73.069 Y31.819 Z0.000 F1600
G1 X73.259 Y31.849 Z0.000 F1600
G1 X73.375 Y31.859 Z0.000 F1600
G1 X73.468 Y31.859 Z0.000 F1600
G0 Z3.5 F1000
; --- FIX Y Backlash: -1.500mm ---
G0 X73.468 Y30.359 F1200
G0 X74.307 Y29.689 Z3.500
G1 Z0 F1000
G1 X74.477 Y29.573 Z0.000 F1600
G1 X74.653 Y29.479 Z0.000 F1600
G1 X74.813 Y29.448 Z0.000 F1600
G1 X75.009 Y29.458 Z0.000 F1600
; --- FIX Y Backlash: 1.500mm ---
G0 X75.009 Y30.958 F1200
G1 X75.135 Y31.021 Z0.000 F1600
G1 X75.305 Y31.178 Z0.000 F1600
G1 X75.418 Y31.420 Z0.000 F1600
G1 X75.451 Y31.649 Z0.000 F1600
G1 X75.451 Y31.922 Z0.000 F1600
; --- FIX X Backlash: -1.400mm ---
G0 X74.051 Y31.922 F1200
G1 X73.978 Y32.162 Z0.000 F1600
G1 X73.832 Y32.371 Z0.000 F1600
G1 X73.662 Y32.468 Z0.000 F1600
G1 X73.442 Y32.468 Z0.000 F1600
G1 X73.263 Y32.434 Z0.000 F1600
; --- FIX Y Backlash: -1.500mm ---
G0 X73.263 Y30.934 F1200
G1 X73.053 Y30.821 Z0.000 F1600
G1 X72.877 Y30.642 Z0.000 F1600
; --- FIX Y Backlash: 1.500mm ---
G0 X72.877 Y32.142 F1200
G1 X72.877 Y32.478 Z0.000 F1600
; --- FIX Y Backlash: -1.500mm ---
G0 X72.877 Y30.978 F1200
G1 X72.877 Y28.725 Z0.000 F1600
G0 Z3.5 F1000
G0 X71.295 Y27.999 Z3.500
G1 Z0 F1000
G1 X71.295 Y25.516 Z0.000 F1600
G0 Z3.5 F1000
; --- FIX X Backlash: 1.400mm ---
G0 X72.695 Y25.516 F1200
; --- FIX Y Backlash: 1.500mm ---
G0 X72.695 Y27.016 F1200
G0 X76.173 Y30.948 Z3.500
G1 Z0 F1000
G1 X76.173 Y33.253 Z0.000 F1600
; --- FIX Y Backlash: -1.500mm ---
G0 X76.173 Y31.753 F1200
G1 X76.173 Y30.588 Z0.000 F1600
; --- FIX Y Backlash: 1.500mm ---
G0 X76.173 Y32.088 F1200
G1 X76.330 Y32.258 Z0.000 F1600
G1 X76.466 Y32.385 Z0.000 F1600
G1 X76.666 Y32.468 Z0.000 F1600
G1 X76.865 Y32.488 Z0.000 F1600
; --- FIX Y Backlash: -1.500mm ---
G0 X76.865 Y30.988 F1200
G1 X77.095 Y30.861 Z0.000 F1600
G1 X77.178 Y30.715 Z0.000 F1600
G1 X77.221 Y30.475 Z0.000 F1600
G1 X77.221 Y29.437 Z0.000 F1600
G0 Z3.5 F1000
G0 X77.922 Y29.448 Z3.500
G1 Z0 F1000
G1 X78.089 Y29.448 Z0.000 F1600
; --- FIX Y Backlash: 1.500mm ---
G0 X78.089 Y30.948 F1200
G1 X78.089 Y31.115 Z0.000 F1600
; --- FIX X Backlash: -1.400mm ---
G0 X76.689 Y31.115 F1200
G1 X76.522 Y31.115 Z0.000 F1600
; --- FIX Y Backlash: -1.500mm ---
G0 X76.522 Y29.615 F1200
G1 X76.522 Y29.448 Z0.000 F1600
G0 Z3.5 F1000
; --- FIX X Backlash: 1.400mm ---
G0 X77.922 Y29.448 F1200
; --- FIX Y Backlash: 1.500mm ---
G0 X77.922 Y30.948 F1200
G0 X78.991 Y31.010 Z3.500
G1 Z0 F1000
; --- FIX X Backlash: -1.400mm ---
G0 X77.591 Y31.010 F1200
; --- FIX Y Backlash: -1.500mm ---
G0 X77.591 Y29.510 F1200
G1 X77.435 Y29.364 Z0.000 F1600
G1 X77.330 Y29.186 Z0.000 F1600
G1 X77.308 Y28.998 Z0.000 F1600
; --- FIX X Backlash: 1.400mm ---
G0 X78.708 Y28.998 F1200
G1 X78.855 Y28.839 Z0.000 F1600
G1 X79.098 Y28.735 Z0.000 F1600
G1 X79.380 Y28.702 Z0.000 F1600
; --- FIX Y Backlash: 1.500mm ---
G0 X79.380 Y30.202 F1200
G1 X79.630 Y30.265 Z0.000 F1600
G1 X79.883 Y30.435 Z0.000 F1600
G1 X79.976 Y30.591 Z0.000 F1600
G1 X79.966 Y30.769 Z0.000 F1600
; --- FIX X Backlash: -1.400mm ---
G0 X78.566 Y30.769 F1200
G1 X78.473 Y30.937 Z0.000 F1600
G1 X78.240 Y31.000 Z0.000 F1600
G1 X77.601 Y31.000 Z0.000 F1600
G1 X77.465 Y31.094 Z0.000 F1600
G1 X77.401 Y31.240 Z0.000 F1600
G1 X77.435 Y31.377 Z0.000 F1600
; --- FIX X Backlash: 1.400mm ---
G0 X78.835 Y31.377 F1200
G1 X79.011 Y31.576 Z0.000 F1600
; --- FIX Y Backlash: -1.500mm ---
G0 X79.011 Y30.076 F1200
G1 X79.127 Y30.003 Z0.000 F1600
G1 X79.307 Y29.973 Z0.000 F1600
; --- FIX Y Backlash: 1.500mm ---
G0 X79.307 Y31.473 F1200
G1 X79.527 Y31.546 Z0.000 F1600
G1 X79.683 Y31.693 Z0.000 F1600
G1 X79.756 Y31.869 Z0.000 F1600
G1 X79.756 Y32.078 Z0.000 F1600
; --- FIX X Backlash: -1.400mm ---
G0 X78.356 Y32.078 F1200
G1 X78.273 Y32.268 Z0.000 F1600
G1 X78.210 Y32.351 Z0.000 F1600
G1 X78.063 Y32.444 Z0.000 F1600
; --- FIX X Backlash: 1.400mm ---
G0 X79.463 Y32.444 F1200
G1 X79.966 Y32.444 Z0.000 F1600
; --- FIX X Backlash: -1.400mm ---
G0 X78.566 Y32.444 F1200
G1 X78.063 Y32.444 Z0.000 F1600
G1 X77.907 Y32.478 Z0.000 F1600
G1 X77.664 Y32.458 Z0.000 F1600
; --- FIX Y Backlash: -1.500mm ---
G0 X77.664 Y30.958 F1200
G1 X77.498 Y30.821 Z0.000 F1600
G1 X77.401 Y30.632 Z0.000 F1600
G1 X77.391 Y30.422 Z0.000 F1600
G1 X77.435 Y30.256 Z0.000 F1600
; --- FIX X Backlash: 1.400mm ---
G0 X78.835 Y30.256 F1200
G1 X78.918 Y30.149 Z0.000 F1600
G1 X79.011 Y30.066 Z0.000 F1600
G0 Z3.5 F1000
G0 X80.541 Y29.427 Z3.500
G1 Z0 F1000
; --- FIX Y Backlash: 1.500mm ---
G0 X80.541 Y30.927 F1200
G1 X80.541 Y32.468 Z0.000 F1600
G0 Z3.5 F1000
G0 X80.615 Y32.940 Z3.500
G1 Z0 F1000
G1 X80.615 Y33.106 Z0.000 F1600
; --- FIX X Backlash: -1.400mm ---
G0 X79.215 Y33.106 F1200
G1 X79.047 Y33.106 Z0.000 F1600
; --- FIX Y Backlash: -1.500mm ---
G0 X79.047 Y31.606 F1200
G1 X79.047 Y31.440 Z0.000 F1600
; --- FIX X Backlash: 1.400mm ---
G0 X80.447 Y31.440 F1200
G1 X80.615 Y31.440 Z0.000 F1600
G0 Z3.5 F1000
G0 X81.423 Y31.407 Z3.500
G1 Z0 F1000
G1 X81.423 Y30.934 Z0.000 F1600
G1 X81.925 Y30.934 Z0.000 F1600
; --- FIX X Backlash: -1.400mm ---
G0 X80.525 Y30.934 F1200
G1 X79.718 Y30.934 Z0.000 F1600
; --- FIX X Backlash: 1.400mm ---
G0 X81.118 Y30.934 F1200
G1 X81.423 Y30.934 Z0.000 F1600
G1 X81.423 Y29.857 Z0.000 F1600
G1 X81.443 Y29.626 Z0.000 F1600
G1 X81.559 Y29.489 Z0.000 F1600
G1 X81.692 Y29.448 Z0.000 F1600
G1 X81.842 Y29.448 Z0.000 F1600
; --- FIX Y Backlash: 1.500mm ---
G0 X81.842 Y30.948 F1200
G1 X81.955 Y31.000 Z0.000 F1600
G0 Z3.5 F1000
; --- FIX Y Backlash: -1.500mm ---
G0 X81.955 Y29.500 F1200
G0 X82.491 Y29.448 Z3.500
G1 Z0 F1000
; --- FIX Y Backlash: 1.500mm ---
G0 X82.491 Y30.948 F1200
G1 X82.491 Y33.253 Z0.000 F1600
; --- FIX Y Backlash: -1.500mm ---
G0 X82.491 Y31.753 F1200
G1 X82.491 Y30.588 Z0.000 F1600
; --- FIX Y Backlash: 1.500mm ---
G0 X82.491 Y32.088 F1200
G1 X82.647 Y32.258 Z0.000 F1600
G1 X82.784 Y32.385 Z0.000 F1600
G1 X82.983 Y32.468 Z0.000 F1600
G1 X83.183 Y32.488 Z0.000 F1600
; --- FIX Y Backlash: -1.500mm ---
G0 X83.183 Y30.988 F1200
G1 X83.412 Y30.861 Z0.000 F1600
G1 X83.496 Y30.715 Z0.000 F1600
G1 X83.539 Y30.475 Z0.000 F1600
G1 X83.539 Y29.437 Z0.000 F1600
G0 Z3.5 F1000
; --- FIX Y Backlash: 1.500mm ---
G0 X83.539 Y30.937 F1200
G0 X84.314 Y32.458 Z3.500
G1 Z0 F1000
; --- FIX Y Backlash: -1.500mm ---
G0 X84.314 Y30.958 F1200
G1 X84.314 Y29.983 Z0.000 F1600
G1 X84.324 Y29.720 Z0.000 F1600
G1 X84.397 Y29.584 Z0.000 F1600
G1 X84.524 Y29.479 Z0.000 F1600
G1 X84.710 Y29.427 Z0.000 F1600
G1 X84.890 Y29.458 Z0.000 F1600
; --- FIX Y Backlash: 1.500mm ---
G0 X84.890 Y30.958 F1200
G1 X85.079 Y31.063 Z0.000 F1600
G1 X85.216 Y31.199 Z0.000 F1600
G1 X85.329 Y31.337 Z0.000 F1600
; --- FIX Y Backlash: -1.500mm ---
G0 X85.329 Y29.837 F1200
G1 X85.329 Y29.437 Z0.000 F1600
; --- FIX Y Backlash: 1.500mm ---
G0 X85.329 Y30.937 F1200
G1 X85.329 Y32.458 Z0.000 F1600
G0 Z3.5 F1000
; --- FIX Y Backlash: -1.500mm ---
G0 X85.329 Y30.958 F1200
G0 X86.187 Y30.685 Z3.500
G1 Z0 F1000
; --- FIX Y Backlash: 1.500mm ---
G0 X86.187 Y32.185 F1200
G1 X86.397 Y32.351 Z0.000 F1600
G1 X86.596 Y32.458 Z0.000 F1600
G1 X86.796 Y32.498 Z0.000 F1600
G1 X86.986 Y32.458 Z0.000 F1600
; --- FIX Y Backlash: -1.500mm ---
G0 X86.986 Y30.958 F1200
G1 X87.122 Y30.885 Z0.000 F1600
G1 X87.278 Y30.685 Z0.000 F1600
G1 X87.328 Y30.442 Z0.000 F1600
G1 X87.341 Y30.183 Z0.000 F1600
G1 X87.298 Y29.920 Z0.000 F1600
; --- FIX X Backlash: -1.400mm ---
G0 X85.898 Y29.920 F1200
G1 X85.795 Y29.710 Z0.000 F1600
G1 X85.659 Y29.563 Z0.000 F1600
G1 X85.436 Y29.437 Z0.000 F1600
G1 X85.250 Y29.448 Z0.000 F1600
; --- FIX Y Backlash: 1.500mm ---
G0 X85.250 Y30.948 F1200
G1 X85.060 Y31.000 Z0.000 F1600
G1 X84.884 Y31.115 Z0.000 F1600
G1 X84.767 Y31.210 Z0.000 F1600
; --- FIX Y Backlash: -1.500mm ---
G0 X84.767 Y29.710 F1200
G1 X84.767 Y29.427 Z0.000 F1600
; --- FIX Y Backlash: 1.500mm ---
G0 X84.767 Y30.927 F1200
G1 X84.767 Y33.263 Z0.000 F1600
G0 Z3.5 F1000
; --- FIX X Backlash: 1.400mm ---
G0 X86.167 Y33.263 F1200
; --- FIX Y Backlash: -1.500mm ---
G0 X86.167 Y31.763 F1200
G0 X88.787 Y31.606 Z3.500
G1 Z0 F1000
G1 X88.787 Y31.440 Z0.000 F1600
G1 X88.955 Y31.440 Z0.000 F1600
; --- FIX Y Backlash: 1.500mm ---
G0 X88.955 Y32.940 F1200
G1 X88.955 Y33.106 Z0.000 F1600
; --- FIX X Backlash: -1.400mm ---
G0 X87.555 Y33.106 F1200
G1 X87.387 Y33.106 Z0.000 F1600
G0 Z3.5 F1000
; --- FIX X Backlash: 1.400mm ---
G0 X88.787 Y33.106 F1200
; --- FIX Y Backlash: -1.500mm ---
G0 X88.787 Y31.606 F1200
G0 X88.882 Y30.968 Z3.500
G1 Z0 F1000
G1 X88.882 Y29.427 Z0.000 F1600
G0 Z3.5 F1000
; --- FIX X Backlash: -1.400mm ---
G0 X87.482 Y29.427 F1200
G0 X86.727 Y29.448 Z3.500
G1 Z0 F1000
; --- FIX Y Backlash: 1.500mm ---
G0 X86.727 Y30.948 F1200
G1 X86.727 Y31.115 Z0.000 F1600
G1 X86.559 Y31.115 Z0.000 F1600
; --- FIX Y Backlash: -1.500mm ---
G0 X86.559 Y29.615 F1200
G1 X86.559 Y29.448 Z0.000 F1600
; --- FIX X Backlash: 1.400mm ---
G0 X87.959 Y29.448 F1200
G1 X88.127 Y29.448 Z0.000 F1600
G0 Z3.5 F1000
; --- FIX Y Backlash: 1.500mm ---
G0 X88.127 Y30.948 F1200
G0 X89.677 Y31.293 Z3.500
G1 Z0 F1000
; --- FIX Y Backlash: -1.500mm ---
G0 X89.677 Y29.793 F1200
G1 X89.803 Y29.626 Z0.000 F1600
G1 X89.950 Y29.510 Z0.000 F1600
G1 X90.109 Y29.448 Z0.000 F1600
G1 X90.256 Y29.437 Z0.000 F1600
G1 X90.266 Y29.437 Z0.000 F1600
; --- FIX Y Backlash: 1.500mm ---
G0 X90.266 Y30.937 F1200
G1 X90.475 Y30.989 Z0.000 F1600
G1 X90.675 Y31.126 Z0.000 F1600
G1 X90.798 Y31.337 Z0.000 F1600
G1 X90.851 Y31.566 Z0.000 F1600
G1 X90.861 Y31.786 Z0.000 F1600
G1 X90.831 Y31.985 Z0.000 F1600
; --- FIX X Backlash: -1.400mm ---
G0 X89.431 Y31.985 F1200
G1 X89.358 Y32.162 Z0.000 F1600
G1 X89.252 Y32.298 Z0.000 F1600
G1 X89.105 Y32.424 Z0.000 F1600
G1 X88.949 Y32.478 Z0.000 F1600
G1 X88.803 Y32.488 Z0.000 F1600
G1 X88.633 Y32.458 Z0.000 F1600
; --- FIX Y Backlash: -1.500mm ---
G0 X88.633 Y30.958 F1200
G1 X88.477 Y30.861 Z0.000 F1600
G1 X88.340 Y30.705 Z0.000 F1600
G1 X88.267 Y30.559 Z0.000 F1600
G1 X88.205 Y30.339 Z0.000 F1600
G1 X88.205 Y30.169 Z0.000 F1600
G1 X88.226 Y29.973 Z0.000 F1600
; --- FIX X Backlash: 1.400mm ---
G0 X89.626 Y29.973 F1200
G1 X89.677 Y29.793 Z0.000 F1600
G0 Z3.5 F1000
G0 X94.477 Y29.546 Z3.500
G1 Z0 F1000
; --- FIX X Backlash: -1.400mm ---
G0 X93.077 Y29.546 F1200
G1 X92.910 Y29.418 Z0.000 F1600
G1 X92.685 Y29.339 Z0.000 F1600
G1 X92.462 Y29.370 Z0.000 F1600
; --- FIX Y Backlash: 1.500mm ---
G0 X92.462 Y30.870 F1200
G1 X92.255 Y30.982 Z0.000 F1600
G1 X92.096 Y31.173 Z0.000 F1600
G1 X92.017 Y31.373 Z0.000 F1600
G1 X91.993 Y31.674 Z0.000 F1600
G1 X92.017 Y31.955 Z0.000 F1600
; --- FIX X Backlash: 1.400mm ---
G0 X93.417 Y31.955 F1200
G1 X93.521 Y32.185 Z0.000 F1600
G1 X93.680 Y32.360 Z0.000 F1600
G1 X93.862 Y32.449 Z0.000 F1600
G1 X94.070 Y32.464 Z0.000 F1600
G1 X94.255 Y32.426 Z0.000 F1600
; --- FIX Y Backlash: -1.500mm ---
G0 X94.255 Y30.926 F1200
G1 X94.381 Y30.845 Z0.000 F1600
G1 X94.422 Y30.797 Z0.000 F1600
G0 Z3.5 F1000
; --- FIX Y Backlash: 1.500mm ---
G0 X94.422 Y32.297 F1200
G0 X95.801 Y32.426 Z3.500
G1 Z0 F1000
; --- FIX X Backlash: -1.400mm ---
G0 X94.401 Y32.426 F1200
G1 X93.586 Y32.426 Z0.000 F1600
; --- FIX Y Backlash: -1.500mm ---
G0 X93.586 Y30.926 F1200
G1 X93.586 Y30.200 Z0.000 F1600
; --- FIX X Backlash: 1.400mm ---
G0 X94.986 Y30.200 F1200
G1 X95.690 Y30.200 Z0.000 F1600
; --- FIX X Backlash: -1.400mm ---
G0 X94.290 Y30.200 F1200
G1 X93.586 Y30.200 Z0.000 F1600
G1 X93.586 Y29.378 Z0.000 F1600
; --- FIX X Backlash: 1.400mm ---
G0 X94.986 Y29.378 F1200
G1 X95.832 Y29.378 Z0.000 F1600
G0 Z3.5 F1000
G0 X96.343 Y29.346 Z3.500
G1 Z0 F1000
; --- FIX Y Backlash: 1.500mm ---
G0 X96.343 Y30.846 F1200
G1 X96.343 Y32.441 Z0.000 F1600
G1 X96.877 Y32.441 Z0.000 F1600
G1 X97.006 Y32.401 Z0.000 F1600
; --- FIX Y Backlash: -1.500mm ---
G0 X97.006 Y30.901 F1200
G1 X97.148 Y30.830 Z0.000 F1600
G1 X97.251 Y30.670 Z0.000 F1600
G1 X97.251 Y30.534 Z0.000 F1600
G1 X97.229 Y30.382 Z0.000 F1600
; --- FIX X Backlash: -1.400mm ---
G0 X95.829 Y30.382 F1200
G1 X95.732 Y30.248 Z0.000 F1600
G1 X95.613 Y30.174 Z0.000 F1600
G1 X95.421 Y30.129 Z0.000 F1600
G1 X94.950 Y30.129 Z0.000 F1600
; --- FIX X Backlash: 1.400mm ---
G0 X96.350 Y30.129 F1200
G1 X96.806 Y30.129 Z0.000 F1600
G1 X97.269 Y29.346 Z0.000 F1600
G0 Z3.5 F1000
G0 X97.803 Y29.354 Z3.500
G1 Z0 F1000
; --- FIX Y Backlash: 1.500mm ---
G0 X97.803 Y30.854 F1200
G1 X97.803 Y32.441 Z0.000 F1600
G1 X97.859 Y32.441 Z0.000 F1600
; --- FIX Y Backlash: -1.500mm ---
G0 X97.859 Y30.941 F1200
G1 X98.808 Y29.354 Z0.000 F1600
; --- FIX Y Backlash: 1.500mm ---
G0 X98.808 Y30.854 F1200
G1 X98.808 Y32.449 Z0.000 F1600
G0 Z3.5 F1000
; --- FIX Y Backlash: -1.500mm ---
G0 X98.808 Y30.949 F1200
G0 X99.285 Y29.959 Z3.500
G1 Z0 F1000
G1 X99.802 Y29.959 Z0.000 F1600
G0 Z3.5 F1000
; --- FIX Y Backlash: 1.500mm ---
G0 X99.802 Y31.459 F1200
G0 X100.203 Y31.563 Z3.500
G1 Z0 F1000
; --- FIX Y Backlash: -1.500mm ---
G0 X100.203 Y30.063 F1200
G1 X100.235 Y29.855 Z0.000 F1600
G1 X100.314 Y29.665 Z0.000 F1600
G1 X100.428 Y29.514 Z0.000 F1600
G1 X100.554 Y29.410 Z0.000 F1600
G1 X100.691 Y29.362 Z0.000 F1600
G1 X100.817 Y29.354 Z0.000 F1600
G1 X101.025 Y29.386 Z0.000 F1600
; --- FIX Y Backlash: 1.500mm ---
G0 X101.025 Y30.886 F1200
G1 X101.232 Y31.022 Z0.000 F1600
G1 X101.374 Y31.236 Z0.000 F1600
G1 X101.448 Y31.517 Z0.000 F1600
G1 X101.448 Y31.778 Z0.000 F1600
G1 X101.407 Y31.993 Z0.000 F1600
; --- FIX X Backlash: -1.400mm ---
G0 X100.007 Y31.993 F1200
G1 X99.929 Y32.170 Z0.000 F1600
G1 X99.800 Y32.337 Z0.000 F1600
G1 X99.625 Y32.441 Z0.000 F1600
G1 X99.448 Y32.474 Z0.000 F1600
G1 X99.298 Y32.449 Z0.000 F1600
; --- FIX Y Backlash: -1.500mm ---
G0 X99.298 Y30.949 F1200
G1 X99.129 Y30.885 Z0.000 F1600
G1 X98.972 Y30.749 Z0.000 F1600
G1 X98.850 Y30.518 Z0.000 F1600
G1 X98.811 Y30.336 Z0.000 F1600
G1 X98.803 Y30.063 Z0.000 F1600
G0 Z3.5 F1000
; --- FIX X Backlash: 1.400mm ---
G0 X100.203 Y30.063 F1200
G0 X102.020 Y29.354 Z3.500
G1 Z0 F1000
; --- FIX Y Backlash: 1.500mm ---
G0 X102.020 Y30.854 F1200
G1 X102.020 Y32.449 Z0.000 F1600
; --- FIX Y Backlash: -1.500mm ---
G0 X102.020 Y30.949 F1200
G1 X102.020 Y30.207 Z0.000 F1600
G1 X103.032 Y30.207 Z0.000 F1600
; --- FIX Y Backlash: 1.500mm ---
G0 X103.032 Y31.707 F1200
G1 X103.032 Y32.441 Z0.000 F1600
; --- FIX Y Backlash: -1.500mm ---
G0 X103.032 Y30.941 F1200
G1 X103.032 Y29.354 Z0.000 F1600
G0 Z3.5 F1000
G0 X104.507 Y29.378 Z3.500
G1 Z0 F1000
; --- FIX X Backlash: -1.400mm ---
G0 X103.107 Y29.378 F1200
G1 X102.310 Y29.378 Z0.000 F1600
; --- FIX Y Backlash: 1.500mm ---
G0 X102.310 Y30.878 F1200
G1 X102.310 Y32.456 Z0.000 F1600
G0 Z3.5 F1000
; --- FIX X Backlash: 1.400mm ---
G0 X103.710 Y32.456 F1200
; --- FIX Y Backlash: -1.500mm ---
G0 X103.710 Y30.956 F1200
G0 X104.762 Y29.959 Z3.500
G1 Z0 F1000
G1 X105.279 Y29.959 Z0.000 F1600
G0 Z3.5 F1000
; --- FIX Y Backlash: 1.500mm ---
G0 X105.279 Y31.459 F1200
G0 X105.783 Y31.588 Z3.500
G1 Z0 F1000
G1 X106.168 Y31.588 Z0.000 F1600
G1 X106.357 Y31.596 Z0.000 F1600
G1 X106.524 Y31.659 Z0.000 F1600
G1 X106.643 Y31.755 Z0.000 F1600
G1 X106.709 Y31.915 Z0.000 F1600
G1 X106.717 Y32.059 Z0.000 F1600
G1 X106.684 Y32.218 Z0.000 F1600
; --- FIX X Backlash: -1.400mm ---
G0 X105.284 Y32.218 F1200
G1 X105.205 Y32.322 Z0.000 F1600
G1 X105.102 Y32.401 Z0.000 F1600
G1 X104.957 Y32.441 Z0.000 F1600
G1 X104.391 Y32.441 Z0.000 F1600
; --- FIX Y Backlash: -1.500mm ---
G0 X104.391 Y30.941 F1200
G1 X104.391 Y29.339 Z0.000 F1600
G0 Z3.5 F1000
; --- FIX X Backlash: 1.400mm ---
G0 X105.791 Y29.339 F1200
; --- FIX Y Backlash: 1.500mm ---
G0 X105.791 Y30.839 F1200
G0 X107.060 Y31.459 Z3.500
G1 Z0 F1000
G1 X107.577 Y31.459 Z0.000 F1600
G0 Z3.5 F1000
G0 X107.938 Y32.211 Z3.500
G1 Z0 F1000
G1 X108.043 Y32.312 Z0.000 F1600
G1 X108.170 Y32.393 Z0.000 F1600
G1 X108.329 Y32.433 Z0.000 F1600
G1 X108.466 Y32.408 Z0.000 F1600
; --- FIX Y Backlash: -1.500mm ---
G0 X108.466 Y30.908 F1200
G1 X108.607 Y30.837 Z0.000 F1600
G1 X108.696 Y30.718 Z0.000 F1600
G1 X108.736 Y30.541 Z0.000 F1600
G1 X108.726 Y30.392 Z0.000 F1600
; --- FIX X Backlash: -1.400mm ---
G0 X107.326 Y30.392 F1200
G1 X107.248 Y30.207 Z0.000 F1600
G1 X107.104 Y30.000 Z0.000 F1600
G1 X106.929 Y29.784 Z0.000 F1600
G1 X106.770 Y29.617 Z0.000 F1600
G1 X106.554 Y29.378 Z0.000 F1600
; --- FIX X Backlash: 1.400mm ---
G0 X107.954 Y29.378 F1200
G1 X108.855 Y29.378 Z0.000 F1600
G0 Z3.5 F1000
G0 X109.269 Y29.354 Z3.500
G1 Z0 F1000
G1 X109.397 Y29.354 Z0.000 F1600
; --- FIX Y Backlash: 1.500mm ---
G0 X109.397 Y30.854 F1200
G1 X109.397 Y30.982 Z0.000 F1600
; --- FIX X Backlash: -1.400mm ---
G0 X107.997 Y30.982 F1200
G1 X107.869 Y30.982 Z0.000 F1600
; --- FIX Y Backlash: -1.500mm ---
G0 X107.869 Y29.482 F1200
G1 X107.869 Y29.354 Z0.000 F1600
G0 Z3.5 F1000
; --- FIX X Backlash: 1.400mm ---
G0 X109.269 Y29.354 F1200
; --- FIX Y Backlash: 1.500mm ---
G0 X109.269 Y30.854 F1200
G0 X109.972 Y31.038 Z3.500
G1 Z0 F1000
; --- FIX Y Backlash: -1.500mm ---
G0 X109.972 Y29.538 F1200
G1 X110.068 Y29.434 Z0.000 F1600
G1 X110.164 Y29.354 Z0.000 F1600
G1 X110.275 Y29.346 Z0.000 F1600
G1 X110.427 Y29.378 Z0.000 F1600
; --- FIX Y Backlash: 1.500mm ---
G0 X110.427 Y30.878 F1200
G1 X110.587 Y31.038 Z0.000 F1600
G1 X110.657 Y31.206 Z0.000 F1600
G1 X110.690 Y31.396 Z0.000 F1600
G1 X110.705 Y31.659 Z0.000 F1600
G1 X110.690 Y31.907 Z0.000 F1600
; --- FIX X Backlash: -1.400mm ---
G0 X109.290 Y31.907 F1200
G1 X109.232 Y32.145 Z0.000 F1600
G1 X109.154 Y32.297 Z0.000 F1600
G1 X109.027 Y32.393 Z0.000 F1600
G1 X108.913 Y32.433 Z0.000 F1600
G1 X108.820 Y32.426 Z0.000 F1600
; --- FIX Y Backlash: -1.500mm ---
G0 X108.820 Y30.926 F1200
G1 X108.668 Y30.837 Z0.000 F1600
G1 X108.564 Y30.693 Z0.000 F1600
G1 X108.492 Y30.463 Z0.000 F1600
G1 X108.468 Y30.222 Z0.000 F1600
G1 X108.460 Y29.984 Z0.000 F1600
G1 X108.492 Y29.762 Z0.000 F1600
; --- FIX X Backlash: 1.400mm ---
G0 X109.892 Y29.762 F1200
G1 X109.972 Y29.538 Z0.000 F1600
G0 Z3.5 F1000
; --- FIX Y Backlash: 1.500mm ---
G0 X109.972 Y31.038 F1200
G0 X113.130 Y32.280 Z3.500
G1 Z0 F1000
G1 X113.240 Y32.387 Z0.000 F1600
G1 X113.374 Y32.473 Z0.000 F1600
G1 X113.543 Y32.516 Z0.000 F1600
G1 X113.687 Y32.489 Z0.000 F1600
; --- FIX Y Backlash: -1.500mm ---
G0 X113.687 Y30.989 F1200
G1 X113.837 Y30.914 Z0.000 F1600
G1 X113.931 Y30.788 Z0.000 F1600
G1 X113.973 Y30.601 Z0.000 F1600
G1 X113.963 Y30.443 Z0.000 F1600
; --- FIX X Backlash: -1.400mm ---
G0 X112.563 Y30.443 F1200
G1 X112.480 Y30.248 Z0.000 F1600
G1 X112.327 Y30.029 Z0.000 F1600
G1 X112.143 Y29.801 Z0.000 F1600
G1 X111.974 Y29.625 Z0.000 F1600
G1 X111.747 Y29.372 Z0.000 F1600
; --- FIX X Backlash: 1.400mm ---
G0 X113.147 Y29.372 F1200
G1 X114.099 Y29.372 Z0.000 F1600
G0 Z3.5 F1000
; --- FIX Y Backlash: 1.500mm ---
G0 X114.099 Y30.872 F1200
G0 X114.436 Y31.058 Z3.500
G1 Z0 F1000
; --- FIX Y Backlash: -1.500mm ---
G0 X114.436 Y29.558 F1200
G1 X114.529 Y29.473 Z0.000 F1600
G1 X114.680 Y29.389 Z0.000 F1600
G1 X114.832 Y29.347 Z0.000 F1600
G1 X114.993 Y29.347 Z0.000 F1600
G1 X115.143 Y29.389 Z0.000 F1600
; --- FIX Y Backlash: 1.500mm ---
G0 X115.143 Y30.889 F1200
G1 X115.263 Y30.964 Z0.000 F1600
G1 X115.346 Y31.082 Z0.000 F1600
G1 X115.373 Y31.183 Z0.000 F1600
G1 X115.381 Y31.309 Z0.000 F1600
G1 X115.354 Y31.427 Z0.000 F1600
; --- FIX X Backlash: -1.400mm ---
G0 X113.954 Y31.427 F1200
G1 X113.887 Y31.529 Z0.000 F1600
G1 X113.743 Y31.638 Z0.000 F1600
G1 X113.609 Y31.689 Z0.000 F1600
G1 X113.475 Y31.705 Z0.000 F1600
G1 X113.347 Y31.705 Z0.000 F1600
; --- FIX X Backlash: 1.400mm ---
G0 X114.747 Y31.705 F1200
G1 X114.848 Y31.705 Z0.000 F1600
G1 X114.985 Y31.732 Z0.000 F1600
G1 X115.143 Y31.815 Z0.000 F1600
G1 X115.287 Y31.925 Z0.000 F1600
G1 X115.330 Y32.069 Z0.000 F1600
G1 X115.303 Y32.229 Z0.000 F1600
; --- FIX X Backlash: -1.400mm ---
G0 X113.903 Y32.229 F1200
G1 X113.844 Y32.363 Z0.000 F1600
G1 X113.718 Y32.465 Z0.000 F1600
G1 X113.566 Y32.508 Z0.000 F1600
G1 X113.424 Y32.508 Z0.000 F1600
; --- FIX Y Backlash: -1.500mm ---
G0 X113.424 Y31.008 F1200
G1 X113.248 Y30.930 Z0.000 F1600
G1 X113.112 Y30.828 Z0.000 F1600
G0 Z3.5 F1000
; --- FIX Y Backlash: 1.500mm ---
G0 X113.112 Y32.328 F1200
G0 X111.765 Y33.342 Z3.500
G1 Z0 F1000
; --- FIX X Backlash: 1.400mm ---
G0 X113.165 Y33.342 F1200
G1 X113.473 Y33.342 Z0.000 F1600
G1 X113.592 Y33.349 Z0.000 F1600
G1 X113.749 Y33.394 Z0.000 F1600
G1 X113.912 Y33.491 Z0.000 F1600
G1 X114.019 Y33.649 Z0.000 F1600
G1 X114.078 Y33.775 Z0.000 F1600
G1 X114.100 Y33.955 Z0.000 F1600
G1 X114.107 Y34.112 Z0.000 F1600
G1 X114.107 Y34.230 Z0.000 F1600
G1 X114.071 Y34.425 Z0.000 F1600
; --- FIX X Backlash: -1.400mm ---
G0 X112.671 Y34.425 F1200
G1 X112.564 Y34.598 Z0.000 F1600
G1 X112.477 Y34.686 Z0.000 F1600
G1 X112.349 Y34.754 Z0.000 F1600
G1 X112.178 Y34.799 Z0.000 F1600
G1 X111.758 Y34.799 Z0.000 F1600
; --- FIX Y Backlash: -1.500mm ---
G0 X111.758 Y33.299 F1200
G1 X111.758 Y31.842 Z0.000 F1600
G0 Z3.5 F1000
; --- FIX X Backlash: 1.400mm ---
G0 X113.158 Y31.842 F1200
; --- FIX Y Backlash: 1.500mm ---
G0 X113.158 Y33.342 F1200
G0 X114.610 Y34.282 Z3.500
G1 Z0 F1000
G1 X114.766 Y34.373 Z0.000 F1600
G1 X114.899 Y34.410 Z0.000 F1600
G1 X115.034 Y34.425 Z0.000 F1600
G1 X115.139 Y34.387 Z0.000 F1600
; --- FIX Y Backlash: -1.500mm ---
G0 X115.139 Y32.887 F1200
G1 X115.229 Y32.806 Z0.000 F1600
G1 X115.288 Y32.685 Z0.000 F1600
G1 X115.295 Y32.521 Z0.000 F1600
G1 X115.295 Y31.820 Z0.000 F1600
; --- FIX Y Backlash: 1.500mm ---
G0 X115.295 Y33.320 F1200
G1 X115.288 Y33.521 Z0.000 F1600
; --- FIX X Backlash: -1.400mm ---
G0 X113.888 Y33.521 F1200
; --- FIX Y Backlash: -1.500mm ---
G0 X113.888 Y32.021 F1200
G1 X113.791 Y31.954 Z0.000 F1600
G1 X113.686 Y31.879 Z0.000 F1600
G1 X113.568 Y31.827 Z0.000 F1600
G1 X113.433 Y31.805 Z0.000 F1600
G1 X113.321 Y31.842 Z0.000 F1600
; --- FIX Y Backlash: 1.500mm ---
G0 X113.321 Y33.342 F1200
G1 X113.231 Y33.402 Z0.000 F1600
G1 X113.164 Y33.499 Z0.000 F1600
G1 X113.164 Y33.642 Z0.000 F1600
; --- FIX X Backlash: 1.400mm ---
G0 X114.564 Y33.642 F1200
G1 X114.617 Y33.753 Z0.000 F1600
G1 X114.735 Y33.851 Z0.000 F1600
G1 X114.854 Y33.896 Z0.000 F1600
G1 X114.996 Y33.941 Z0.000 F1600
G1 X115.131 Y33.962 Z0.000 F1600
G1 X115.214 Y33.969 Z0.000 F1600
G1 X115.281 Y33.969 Z0.000 F1600
G0 Z3.5 F1000
G0 X115.895 Y34.716 Z3.500
G1 Z0 F1000
; --- FIX Y Backlash: -1.500mm ---
G0 X115.895 Y33.216 F1200
G1 X115.895 Y32.880 Z0.000 F1600
G1 X116.253 Y32.880 Z0.000 F1600
; --- FIX X Backlash: -1.400mm ---
G0 X114.853 Y32.880 F1200
G1 X114.277 Y32.880 Z0.000 F1600
; --- FIX X Backlash: 1.400mm ---
G0 X115.677 Y32.880 F1200
G1 X115.895 Y32.880 Z0.000 F1600
G1 X115.895 Y32.111 Z0.000 F1600
G1 X115.909 Y31.947 Z0.000 F1600
G1 X115.992 Y31.849 Z0.000 F1600
G1 X116.087 Y31.820 Z0.000 F1600
G1 X116.194 Y31.820 Z0.000 F1600
G1 X116.275 Y31.857 Z0.000 F1600
G0 Z3.5 F1000
; --- FIX Y Backlash: 1.500mm ---
G0 X116.275 Y33.357 F1200
G0 X116.567 Y33.896 Z3.500
G1 Z0 F1000
G1 X117.390 Y33.896 Z0.000 F1600
G1 X117.390 Y34.029 Z0.000 F1600
G1 X117.352 Y34.202 Z0.000 F1600
; --- FIX X Backlash: -1.400mm ---
G0 X115.952 Y34.202 F1200
G1 X115.840 Y34.335 Z0.000 F1600
G1 X115.726 Y34.410 Z0.000 F1600
G1 X115.570 Y34.418 Z0.000 F1600
G1 X115.413 Y34.373 Z0.000 F1600
; --- FIX Y Backlash: -1.500mm ---
G0 X115.413 Y32.873 F1200
G1 X115.278 Y32.761 Z0.000 F1600
G1 X115.226 Y32.650 Z0.000 F1600
G1 X115.167 Y32.507 Z0.000 F1600
G1 X115.152 Y32.358 Z0.000 F1600
G1 X115.189 Y32.178 Z0.000 F1600
; --- FIX X Backlash: 1.400mm ---
G0 X116.589 Y32.178 F1200
G1 X116.657 Y32.014 Z0.000 F1600
G1 X116.792 Y31.879 Z0.000 F1600
G1 X116.918 Y31.820 Z0.000 F1600
G1 X117.074 Y31.805 Z0.000 F1600
G1 X117.209 Y31.842 Z0.000 F1600
; --- FIX Y Backlash: 1.500mm ---
G0 X117.209 Y33.342 F1200
G1 X117.337 Y33.409 Z0.000 F1600
G0 Z3.5 F1000
G0 X117.785 Y33.439 Z3.500
G1 Z0 F1000
; --- FIX Y Backlash: -1.500mm ---
G0 X117.785 Y31.939 F1200
G1 X117.785 Y31.827 Z0.000 F1600
G1 X117.897 Y31.827 Z0.000 F1600
; --- FIX Y Backlash: 1.500mm ---
G0 X117.897 Y33.327 F1200
G1 X117.897 Y33.439 Z0.000 F1600
; --- FIX X Backlash: -1.400mm ---
G0 X116.497 Y33.439 F1200
G1 X116.385 Y33.439 Z0.000 F1600
G0 Z3.5 F1000
G0 X116.385 Y34.230 Z3.500
G1 Z0 F1000
; --- FIX X Backlash: 1.400mm ---
G0 X117.785 Y34.230 F1200
G1 X117.897 Y34.230 Z0.000 F1600
G1 X117.897 Y34.344 Z0.000 F1600
; --- FIX X Backlash: -1.400mm ---
G0 X116.497 Y34.344 F1200
G1 X116.385 Y34.344 Z0.000 F1600
; --- FIX Y Backlash: -1.500mm ---
G0 X116.385 Y32.844 F1200
G1 X116.385 Y32.730 Z0.000 F1600
G0 Z3.5 F1000
; --- FIX X Backlash: 1.400mm ---
G0 X117.785 Y32.730 F1200
G0 X118.332 Y30.887 Z3.500
G1 Z0 F1000
; --- FIX X Backlash: -1.400mm ---
G0 X116.932 Y30.887 F1200
G1 X116.653 Y30.879 Z0.000 F1600
; --- FIX X Backlash: 1.400mm ---
G0 X118.053 Y30.879 F1200
; --- FIX Y Backlash: 1.500mm ---
G0 X118.053 Y32.379 F1200
G1 X118.340 Y32.489 Z0.000 F1600
; --- FIX Y Backlash: -1.500mm ---
G0 X118.340 Y30.989 F1200
G1 X118.340 Y29.372 Z0.000 F1600
; --- FIX X Backlash: -1.400mm ---
G0 X116.940 Y29.372 F1200
G1 X116.517 Y29.372 Z0.000 F1600
; --- FIX X Backlash: 1.400mm ---
G0 X117.917 Y29.372 F1200
G1 X118.752 Y29.372 Z0.000 F1600
G0 Z3.5 F1000
G0 X119.232 Y29.347 Z3.500
G1 Z0 F1000
G1 X119.367 Y29.347 Z0.000 F1600
; --- FIX Y Backlash: 1.500mm ---
G0 X119.367 Y30.847 F1200
G1 X119.367 Y30.981 Z0.000 F1600
; --- FIX X Backlash: -1.400mm ---
G0 X117.967 Y30.981 F1200
G1 X117.832 Y30.981 Z0.000 F1600
; --- FIX Y Backlash: -1.500mm ---
G0 X117.832 Y29.481 F1200
G1 X117.832 Y29.347 Z0.000 F1600
G0 Z3.5 F1000
; --- FIX X Backlash: 1.400mm ---
G0 X119.232 Y29.347 F1200
G0 X120.809 Y29.372 Z3.500
G1 Z0 F1000
; --- FIX X Backlash: -1.400mm ---
G0 X119.409 Y29.372 F1200
G1 X118.456 Y29.372 Z0.000 F1600
; --- FIX X Backlash: 1.400mm ---
G0 X119.856 Y29.372 F1200
; --- FIX Y Backlash: 1.500mm ---
G0 X119.856 Y30.872 F1200
G1 X120.084 Y31.125 Z0.000 F1600
G1 X120.252 Y31.301 Z0.000 F1600
G1 X120.437 Y31.529 Z0.000 F1600
G1 X120.589 Y31.748 Z0.000 F1600
G1 X120.672 Y31.943 Z0.000 F1600
G1 X120.683 Y32.101 Z0.000 F1600
G1 X120.640 Y32.288 Z0.000 F1600
; --- FIX X Backlash: -1.400mm ---
G0 X119.240 Y32.288 F1200
G1 X119.147 Y32.414 Z0.000 F1600
G1 X118.997 Y32.489 Z0.000 F1600
G1 X118.852 Y32.516 Z0.000 F1600
G1 X118.684 Y32.473 Z0.000 F1600
; --- FIX Y Backlash: -1.500mm ---
G0 X118.684 Y30.973 F1200
G1 X118.550 Y30.887 Z0.000 F1600
G1 X118.439 Y30.780 Z0.000 F1600
G0 Z3.5 F1000
; --- FIX X Backlash: 1.400mm ---
G0 X119.839 Y30.780 F1200
; --- FIX Y Backlash: 1.500mm ---
G0 X119.839 Y32.280 F1200
G0 X122.047 Y32.473 Z3.500
G1 Z0 F1000
; --- FIX X Backlash: -1.400mm ---
G0 X120.647 Y32.473 F1200
G1 X119.957 Y32.473 Z0.000 F1600
; --- FIX Y Backlash: -1.500mm ---
G0 X119.957 Y30.973 F1200
G1 X119.906 Y30.264 Z0.000 F1600
G1 X119.922 Y30.240 Z0.000 F1600
; --- FIX X Backlash: 1.400mm ---
G0 X121.322 Y30.240 F1200
; --- FIX Y Backlash: 1.500mm ---
G0 X121.322 Y31.740 F1200
G1 X121.467 Y31.815 Z0.000 F1600
G1 X121.609 Y31.850 Z0.000 F1600
G1 X121.804 Y31.834 Z0.000 F1600
; --- FIX Y Backlash: -1.500mm ---
G0 X121.804 Y30.334 F1200
G1 X121.997 Y30.224 Z0.000 F1600
G1 X122.090 Y30.055 Z0.000 F1600
G1 X122.114 Y29.836 Z0.000 F1600
G1 X122.072 Y29.649 Z0.000 F1600
; --- FIX X Backlash: -1.400mm ---
G0 X120.672 Y29.649 F1200
G1 X120.562 Y29.490 Z0.000 F1600
G1 X120.428 Y29.380 Z0.000 F1600
G1 X120.235 Y29.330 Z0.000 F1600
G1 X120.107 Y29.338 Z0.000 F1600
; --- FIX Y Backlash: 1.500mm ---
G0 X120.107 Y30.838 F1200
G1 X119.973 Y30.889 Z0.000 F1600
G1 X119.856 Y30.956 Z0.000 F1600
G1 X119.746 Y31.049 Z0.000 F1600
G0 Z3.5 F1000
; --- FIX X Backlash: 1.400mm ---
G0 X121.146 Y31.049 F1200
; --- FIX Y Backlash: -1.500mm ---
G0 X121.146 Y29.549 F1200
G0 X124.029 Y28.117 Z3.500
G1 Z0 F1000
G1 X124.029 Y25.550 Z0.000 F1600
G0 Z3.5 F1000
; --- FIX Y Backlash: 1.500mm ---
G0 X124.029 Y27.050 F1200
G0 X128.859 Y30.604 Z3.500
G1 Z0 F1000
G1 X128.849 Y30.655 Z0.000 F1600
G1 X128.832 Y30.777 Z0.000 F1600
G1 X128.799 Y31.034 Z0.000 F1600
G1 X128.789 Y31.623 Z0.000 F1600
G1 X128.810 Y32.222 Z0.000 F1600
G1 X128.859 Y32.533 Z0.000 F1600
G1 X128.916 Y32.794 Z0.000 F1600
G1 X128.986 Y33.019 Z0.000 F1600
G1 X129.071 Y33.219 Z0.000 F1600
G1 X129.224 Y33.496 Z0.000 F1600
G1 X129.365 Y33.702 Z0.000 F1600
G1 X129.530 Y33.878 Z0.000 F1600
G1 X129.677 Y34.006 Z0.000 F1600
G1 X129.811 Y34.090 Z0.000 F1600
G1 X129.938 Y34.135 Z0.000 F1600
G1 X130.073 Y34.153 Z0.000 F1600
G1 X130.221 Y34.157 Z0.000 F1600
G1 X130.341 Y34.149 Z0.000 F1600
G1 X130.390 Y34.128 Z0.000 F1600
G1 X130.386 Y34.107 Z0.000 F1600
G1 X130.375 Y34.094 Z0.000 F1600
G1 X130.329 Y34.046 Z0.000 F1600
; --- FIX X Backlash: -1.400mm ---
G0 X128.929 Y34.046 F1200
; --- FIX Y Backlash: -1.500mm ---
G0 X128.929 Y32.546 F1200
G1 X128.840 Y32.436 Z0.000 F1600
G1 X128.730 Y32.292 Z0.000 F1600
G1 X128.621 Y32.143 Z0.000 F1600
G1 X128.384 Y31.775 Z0.000 F1600
G1 X128.188 Y31.396 Z0.000 F1600
G1 X128.030 Y30.997 Z0.000 F1600
G1 X127.904 Y30.567 Z0.000 F1600
G1 X127.867 Y30.390 Z0.000 F1600
G1 X127.838 Y30.202 Z0.000 F1600
G1 X127.823 Y30.058 Z0.000 F1600
G1 X127.830 Y30.012 Z0.000 F1600
G1 X127.845 Y30.040 Z0.000 F1600
; --- FIX X Backlash: 1.400mm ---
G0 X129.245 Y30.040 F1200
; --- FIX Y Backlash: 1.500mm ---
G0 X129.245 Y31.540 F1200
G1 X129.373 Y31.837 Z0.000 F1600
G1 X129.616 Y32.370 Z0.000 F1600
G1 X129.876 Y32.873 Z0.000 F1600
G1 X130.238 Y33.442 Z0.000 F1600
G1 X130.626 Y33.957 Z0.000 F1600
G1 X130.685 Y34.011 Z0.000 F1600
G1 X130.749 Y33.997 Z0.000 F1600
; --- FIX Y Backlash: -1.500mm ---
G0 X130.749 Y32.497 F1200
G1 X130.972 Y32.364 Z0.000 F1600
G1 X131.100 Y32.240 Z0.000 F1600
G1 X131.079 Y32.156 Z0.000 F1600
; --- FIX X Backlash: -1.400mm ---
G0 X129.679 Y32.156 F1200
G1 X129.625 Y32.010 Z0.000 F1600
G1 X129.551 Y31.834 Z0.000 F1600
G1 X129.470 Y31.663 Z0.000 F1600
G1 X129.171 Y31.147 Z0.000 F1600
G1 X128.796 Y30.647 Z0.000 F1600
G1 X128.564 Y30.377 Z0.000 F1600
G1 X128.157 Y29.955 Z0.000 F1600
G1 X128.117 Y29.900 Z0.000 F1600
G1 X128.152 Y29.905 Z0.000 F1600
; --- FIX X Backlash: 1.400mm ---
G0 X129.552 Y29.905 F1200
; --- FIX Y Backlash: 1.500mm ---
G0 X129.552 Y31.405 F1200
G1 X129.660 Y31.462 Z0.000 F1600
G1 X129.957 Y31.654 Z0.000 F1600
G1 X130.243 Y31.884 Z0.000 F1600
G1 X130.512 Y32.148 Z0.000 F1600
G1 X130.757 Y32.439 Z0.000 F1600
G1 X130.920 Y32.675 Z0.000 F1600
G1 X131.074 Y32.935 Z0.000 F1600
G1 X131.204 Y33.195 Z0.000 F1600
G1 X131.297 Y33.431 Z0.000 F1600
G1 X131.330 Y33.525 Z0.000 F1600
G1 X131.347 Y33.564 Z0.000 F1600
; --- FIX Y Backlash: -1.500mm ---
G0 X131.347 Y32.064 F1200
G1 X131.422 Y31.940 Z0.000 F1600
G1 X131.512 Y31.734 Z0.000 F1600
G1 X131.544 Y31.601 Z0.000 F1600
G1 X131.554 Y31.447 Z0.000 F1600
G1 X131.536 Y31.239 Z0.000 F1600
; --- FIX X Backlash: -1.400mm ---
G0 X130.136 Y31.239 F1200
G1 X130.080 Y31.031 Z0.000 F1600
G1 X129.989 Y30.823 Z0.000 F1600
G1 X129.863 Y30.617 Z0.000 F1600
G1 X129.704 Y30.414 Z0.000 F1600
G1 X129.513 Y30.217 Z0.000 F1600
G1 X129.290 Y30.026 Z0.000 F1600
G1 X129.037 Y29.843 Z0.000 F1600
G1 X128.732 Y29.660 Z0.000 F1600
G1 X128.366 Y29.472 Z0.000 F1600
G1 X127.976 Y29.296 Z0.000 F1600
G1 X127.600 Y29.151 Z0.000 F1600
G1 X127.459 Y29.104 Z0.000 F1600
G0 Z3.5 F1000
; --- FIX X Backlash: 1.400mm ---
G0 X128.859 Y29.104 F1200
; --- FIX Y Backlash: 1.500mm ---
G0 X128.859 Y30.604 F1200
G0 X131.910 Y32.795 Z3.500
G1 Z0 F1000
G1 X131.906 Y32.814 Z0.000 F1600
G1 X131.902 Y32.868 Z0.000 F1600
G1 X131.899 Y33.046 Z0.000 F1600
G1 X131.889 Y33.282 Z0.000 F1600
G1 X131.843 Y33.452 Z0.000 F1600
; --- FIX X Backlash: -1.400mm ---
G0 X130.443 Y33.452 F1200
G1 X130.388 Y33.606 Z0.000 F1600
; --- FIX X Backlash: 1.400mm ---
G0 X131.788 Y33.606 F1200
G1 X132.301 Y34.373 Z0.000 F1600
G1 X132.505 Y34.671 Z0.000 F1600
G1 X132.539 Y34.717 Z0.000 F1600
G1 X132.586 Y34.713 Z0.000 F1600
G1 X132.680 Y34.690 Z0.000 F1600
G1 X132.895 Y34.643 Z0.000 F1600
G1 X133.145 Y34.610 Z0.000 F1600
G1 X133.419 Y34.590 Z0.000 F1600
G1 X133.705 Y34.583 Z0.000 F1600
G1 X133.990 Y34.589 Z0.000 F1600
G1 X134.263 Y34.609 Z0.000 F1600
G1 X134.513 Y34.643 Z0.000 F1600
G1 X134.727 Y34.689 Z0.000 F1600
G1 X134.831 Y34.717 Z0.000 F1600
G1 X134.890 Y34.726 Z0.000 F1600
G1 X134.921 Y34.717 Z0.000 F1600
; --- FIX Y Backlash: -1.500mm ---
G0 X134.921 Y33.217 F1200
G1 X135.020 Y33.066 Z0.000 F1600
G1 X135.186 Y32.822 Z0.000 F1600
G1 X135.487 Y32.384 Z0.000 F1600
G1 X135.536 Y32.302 Z0.000 F1600
G1 X135.547 Y32.260 Z0.000 F1600
G1 X135.523 Y32.250 Z0.000 F1600
; --- FIX X Backlash: -1.400mm ---
G0 X134.123 Y32.250 F1200
G1 X133.988 Y32.211 Z0.000 F1600
G1 X133.670 Y32.129 Z0.000 F1600
G1 X133.462 Y32.080 Z0.000 F1600
G1 X133.345 Y32.054 Z0.000 F1600
G1 X133.195 Y31.296 Z0.000 F1600
G1 X133.170 Y31.176 Z0.000 F1600
G1 X133.145 Y31.076 Z0.000 F1600
G1 X133.124 Y31.006 Z0.000 F1600
G1 X133.110 Y30.975 Z0.000 F1600
G1 X133.048 Y30.969 Z0.000 F1600
G1 X132.897 Y30.964 Z0.000 F1600
G1 X132.681 Y30.961 Z0.000 F1600
G1 X132.421 Y30.961 Z0.000 F1600
G1 X132.103 Y30.961 Z0.000 F1600
G1 X131.895 Y30.964 Z0.000 F1600
G1 X131.779 Y30.972 Z0.000 F1600
G1 X131.737 Y30.984 Z0.000 F1600
G1 X131.725 Y31.014 Z0.000 F1600
; --- FIX Y Backlash: 1.500mm ---
G0 X131.725 Y32.514 F1200
G1 X131.707 Y32.579 Z0.000 F1600
G1 X131.686 Y32.669 Z0.000 F1600
G1 X131.545 Y33.355 Z0.000 F1600
G1 X131.525 Y33.470 Z0.000 F1600
G1 X131.516 Y33.529 Z0.000 F1600
G1 X131.489 Y33.560 Z0.000 F1600
G1 X131.407 Y33.582 Z0.000 F1600
G1 X131.235 Y33.611 Z0.000 F1600
G1 X131.103 Y33.628 Z0.000 F1600
G1 X131.055 Y33.606 Z0.000 F1600
; --- FIX Y Backlash: -1.500mm ---
G0 X131.055 Y32.106 F1200
G1 X130.995 Y32.021 Z0.000 F1600
G1 X130.881 Y31.852 Z0.000 F1600
G1 X130.545 Y31.340 Z0.000 F1600
G1 X130.510 Y31.295 Z0.000 F1600
G0 Z3.5 F1000
; --- FIX Y Backlash: 1.500mm ---
G0 X130.510 Y32.795 F1200
G0 X130.165 Y33.808 Z3.500
G1 Z0 F1000
G1 X130.138 Y33.808 Z0.000 F1600
G1 X130.097 Y33.839 Z0.000 F1600
G1 X130.036 Y33.898 Z0.000 F1600
G1 X129.874 Y34.047 Z0.000 F1600
G1 X129.666 Y34.188 Z0.000 F1600
G1 X129.363 Y34.339 Z0.000 F1600
G1 X129.117 Y34.413 Z0.000 F1600
G1 X129.084 Y34.418 Z0.000 F1600
G1 X129.071 Y34.433 Z0.000 F1600
G1 X129.078 Y34.462 Z0.000 F1600
; --- FIX X Backlash: 1.400mm ---
G0 X130.478 Y34.462 F1200
G1 X130.556 Y34.590 Z0.000 F1600
G1 X130.633 Y34.723 Z0.000 F1600
G1 X130.722 Y34.882 Z0.000 F1600
G1 X130.870 Y35.154 Z0.000 F1600
G1 X130.941 Y35.278 Z0.000 F1600
G1 X131.080 Y35.544 Z0.000 F1600
G1 X131.120 Y35.617 Z0.000 F1600
G1 X131.161 Y35.697 Z0.000 F1600
G1 X131.249 Y35.877 Z0.000 F1600
G1 X131.494 Y36.391 Z0.000 F1600
G1 X131.529 Y36.455 Z0.000 F1600
G1 X131.551 Y36.478 Z0.000 F1600
; --- FIX Y Backlash: -1.500mm ---
G0 X131.551 Y34.978 F1200
G1 X132.655 Y34.308 Z0.000 F1600
G1 X132.769 Y34.232 Z0.000 F1600
G1 X132.817 Y34.188 Z0.000 F1600
G1 X132.781 Y34.123 Z0.000 F1600
; --- FIX X Backlash: -1.400mm ---
G0 X131.381 Y34.123 F1200
G1 X131.296 Y33.998 Z0.000 F1600
G1 X131.054 Y33.656 Z0.000 F1600
G1 X130.911 Y33.449 Z0.000 F1600
G1 X130.752 Y33.210 Z0.000 F1600
G1 X130.508 Y32.840 Z0.000 F1600
G1 X130.284 Y32.494 Z0.000 F1600
G1 X130.182 Y32.332 Z0.000 F1600
G1 X130.165 Y32.308 Z0.000 F1600
G0 Z3.5 F1000
; --- FIX Y Backlash: 1.500mm ---
G0 X130.165 Y33.808 F1200
G0 X128.840 Y34.691 Z3.500
G1 Z0 F1000
G1 X128.804 Y34.712 Z0.000 F1600
G1 X128.648 Y34.838 Z0.000 F1600
G1 X128.600 Y34.874 Z0.000 F1600
G1 X128.570 Y34.865 Z0.000 F1600
G1 X128.505 Y34.830 Z0.000 F1600
; --- FIX Y Backlash: -1.500mm ---
G0 X128.505 Y33.330 F1200
G1 X128.412 Y33.275 Z0.000 F1600
G1 X128.301 Y33.206 Z0.000 F1600
G1 X128.055 Y33.045 Z0.000 F1600
G1 X127.837 Y32.890 Z0.000 F1600
G1 X127.748 Y32.830 Z0.000 F1600
G1 X127.682 Y32.809 Z0.000 F1600
G1 X127.623 Y32.826 Z0.000 F1600
; --- FIX Y Backlash: 1.500mm ---
G0 X127.623 Y34.326 F1200
G1 X127.553 Y34.380 Z0.000 F1600
G1 X127.488 Y34.445 Z0.000 F1600
G1 X127.231 Y34.706 Z0.000 F1600
G1 X126.958 Y34.990 Z0.000 F1600
G1 X126.801 Y35.158 Z0.000 F1600
G1 X126.752 Y35.215 Z0.000 F1600
G1 X126.699 Y35.287 Z0.000 F1600
G1 X126.692 Y35.325 Z0.000 F1600
G1 X126.741 Y35.416 Z0.000 F1600
; --- FIX X Backlash: 1.400mm ---
G0 X128.141 Y35.416 F1200
G1 X128.241 Y35.574 Z0.000 F1600
G1 X128.337 Y35.721 Z0.000 F1600
G1 X128.388 Y35.806 Z0.000 F1600
G1 X128.467 Y35.925 Z0.000 F1600
G1 X128.672 Y36.227 Z0.000 F1600
; --- FIX X Backlash: -1.400mm ---
G0 X127.272 Y36.227 F1200
G1 X127.188 Y36.354 Z0.000 F1600
G1 X127.092 Y36.514 Z0.000 F1600
G1 X126.914 Y36.834 Z0.000 F1600
G1 X126.868 Y36.907 Z0.000 F1600
G1 X126.834 Y36.947 Z0.000 F1600
G1 X126.809 Y36.958 Z0.000 F1600
G1 X126.756 Y36.955 Z0.000 F1600
; --- FIX Y Backlash: -1.500mm ---
G0 X126.756 Y35.455 F1200
G1 X126.090 Y35.390 Z0.000 F1600
G1 X125.932 Y35.378 Z0.000 F1600
G1 X125.825 Y35.374 Z0.000 F1600
G1 X125.778 Y35.377 Z0.000 F1600
G1 X125.750 Y35.420 Z0.000 F1600
; --- FIX Y Backlash: 1.500mm ---
G0 X125.750 Y36.920 F1200
G1 X125.706 Y37.030 Z0.000 F1600
G1 X125.644 Y37.219 Z0.000 F1600
G1 X125.501 Y37.687 Z0.000 F1600
G1 X125.413 Y37.968 Z0.000 F1600
G1 X125.382 Y38.083 Z0.000 F1600
G1 X125.365 Y38.166 Z0.000 F1600
G1 X125.365 Y38.210 Z0.000 F1600
; --- FIX X Backlash: 1.400mm ---
G0 X126.765 Y38.210 F1200
G1 X126.825 Y38.267 Z0.000 F1600
G1 X126.972 Y38.361 Z0.000 F1600
G1 X127.202 Y38.489 Z0.000 F1600
G1 X127.506 Y38.646 Z0.000 F1600
G1 X127.692 Y38.740 Z0.000 F1600
G1 X127.659 Y39.283 Z0.000 F1600
G1 X127.646 Y39.479 Z0.000 F1600
G1 X127.635 Y39.590 Z0.000 F1600
G1 X127.627 Y39.629 Z0.000 F1600
G1 X127.599 Y39.642 Z0.000 F1600
; --- FIX X Backlash: -1.400mm ---
G0 X126.199 Y39.642 F1200
G1 X126.040 Y39.704 Z0.000 F1600
G1 X125.679 Y39.836 Z0.000 F1600
G1 X125.463 Y39.911 Z0.000 F1600
G1 X125.305 Y39.971 Z0.000 F1600
G1 X125.224 Y40.015 Z0.000 F1600
G1 X125.209 Y40.053 Z0.000 F1600
G1 X125.209 Y40.126 Z0.000 F1600
G1 X125.225 Y40.255 Z0.000 F1600
G1 X125.260 Y40.462 Z0.000 F1600
; --- FIX X Backlash: 1.400mm ---
G0 X126.660 Y40.462 F1200
G1 X126.759 Y41.024 Z0.000 F1600
G1 X126.788 Y41.180 Z0.000 F1600
G1 X126.813 Y41.293 Z0.000 F1600
G1 X126.835 Y41.367 Z0.000 F1600
G1 X126.854 Y41.402 Z0.000 F1600
G1 X126.887 Y41.419 Z0.000 F1600
G1 X126.963 Y41.430 Z0.000 F1600
G1 X127.103 Y41.439 Z0.000 F1600
G1 X127.510 Y41.451 Z0.000 F1600
G1 X127.906 Y41.460 Z0.000 F1600
G1 X127.935 Y41.473 Z0.000 F1600
G1 X127.956 Y41.506 Z0.000 F1600
G1 X128.020 Y41.669 Z0.000 F1600
G1 X128.281 Y42.287 Z0.000 F1600
; --- FIX X Backlash: -1.400mm ---
G0 X126.881 Y42.287 F1200
G1 X126.290 Y42.918 Z0.000 F1600
G1 X126.213 Y43.008 Z0.000 F1600
G1 X126.175 Y43.071 Z0.000 F1600
G1 X126.175 Y43.111 Z0.000 F1600
G1 X126.211 Y43.188 Z0.000 F1600
G1 X126.257 Y43.257 Z0.000 F1600
; --- FIX X Backlash: 1.400mm ---
G0 X127.657 Y43.257 F1200
G1 X127.726 Y43.358 Z0.000 F1600
G1 X128.313 Y44.194 Z0.000 F1600
G1 X128.361 Y44.247 Z0.000 F1600
G1 X128.423 Y44.262 Z0.000 F1600
G1 X128.523 Y44.237 Z0.000 F1600
; --- FIX Y Backlash: -1.500mm ---
G0 X128.523 Y42.737 F1200
G1 X128.683 Y42.671 Z0.000 F1600
G1 X128.904 Y42.572 Z0.000 F1600
G1 X129.404 Y42.343 Z0.000 F1600
; --- FIX Y Backlash: 1.500mm ---
G0 X129.404 Y43.843 F1200
G1 X129.477 Y43.907 Z0.000 F1600
G1 X129.555 Y43.977 Z0.000 F1600
G1 X129.639 Y44.057 Z0.000 F1600
G1 X129.706 Y44.117 Z0.000 F1600
G1 X129.743 Y44.143 Z0.000 F1600
G1 X129.761 Y44.127 Z0.000 F1600
G1 X129.780 Y44.088 Z0.000 F1600
; --- FIX Y Backlash: -1.500mm ---
G0 X129.780 Y42.588 F1200
G1 X129.808 Y42.521 Z0.000 F1600
G1 X130.082 Y41.919 Z0.000 F1600
G1 X130.179 Y41.698 Z0.000 F1600
G1 X130.190 Y41.621 Z0.000 F1600
G1 X130.147 Y41.546 Z0.000 F1600
; --- FIX X Backlash: -1.400mm ---
G0 X128.747 Y41.546 F1200
G1 X128.639 Y41.424 Z0.000 F1600
G1 X128.372 Y41.104 Z0.000 F1600
G1 X128.137 Y40.781 Z0.000 F1600
G1 X127.933 Y40.450 Z0.000 F1600
G1 X127.760 Y40.110 Z0.000 F1600
G1 X127.617 Y39.759 Z0.000 F1600
G1 X127.501 Y39.394 Z0.000 F1600
G1 X127.413 Y39.012 Z0.000 F1600
G1 X127.350 Y38.611 Z0.000 F1600
G1 X127.337 Y37.948 Z0.000 F1600
; --- FIX X Backlash: 1.400mm ---
G0 X128.737 Y37.948 F1200
G1 X128.790 Y37.274 Z0.000 F1600
G1 X128.928 Y36.676 Z0.000 F1600
G1 X129.128 Y36.120 Z0.000 F1600
G1 X129.395 Y35.594 Z0.000 F1600
G1 X129.733 Y35.088 Z0.000 F1600
G1 X130.165 Y34.600 Z0.000 F1600
G1 X130.612 Y34.167 Z0.000 F1600
G1 X130.678 Y34.110 Z0.000 F1600
G1 X130.706 Y34.077 Z0.000 F1600
G1 X130.680 Y34.021 Z0.000 F1600
; --- FIX X Backlash: -1.400mm ---
G0 X129.280 Y34.021 F1200
G1 X129.116 Y33.715 Z0.000 F1600
G1 X128.840 Y33.191 Z0.000 F1600
G0 Z3.5 F1000
; --- FIX X Backlash: 1.400mm ---
G0 X130.240 Y33.191 F1200
; --- FIX Y Backlash: 1.500mm ---
G0 X130.240 Y34.691 F1200
G0 X132.297 Y36.395 Z3.500
G1 Z0 F1000
; --- FIX X Backlash: -1.400mm ---
G0 X130.897 Y36.395 F1200
G1 X130.465 Y36.653 Z0.000 F1600
G1 X130.297 Y36.751 Z0.000 F1600
G1 X130.265 Y36.767 Z0.000 F1600
G1 X130.265 Y36.794 Z0.000 F1600
G1 X130.276 Y36.861 Z0.000 F1600
G1 X130.302 Y36.961 Z0.000 F1600
G1 X130.338 Y37.086 Z0.000 F1600
; --- FIX X Backlash: 1.400mm ---
G0 X131.738 Y37.086 F1200
G1 X131.832 Y37.377 Z0.000 F1600
G1 X131.939 Y37.669 Z0.000 F1600
G1 X132.127 Y38.099 Z0.000 F1600
G1 X132.361 Y38.538 Z0.000 F1600
G1 X132.505 Y38.777 Z0.000 F1600
G1 X132.672 Y39.036 Z0.000 F1600
G1 X132.864 Y39.323 Z0.000 F1600
G1 X133.695 Y40.510 Z0.000 F1600
G1 X133.993 Y40.931 Z0.000 F1600
G1 X134.243 Y41.280 Z0.000 F1600
G1 X134.381 Y41.468 Z0.000 F1600
G1 X135.323 Y42.781 Z0.000 F1600
G1 X136.291 Y44.135 Z0.000 F1600
G1 X136.922 Y45.034 Z0.000 F1600
G1 X137.695 Y46.147 Z0.000 F1600
G1 X137.777 Y46.262 Z0.000 F1600
G1 X138.110 Y46.748 Z0.000 F1600
G1 X138.241 Y46.931 Z0.000 F1600
G1 X138.273 Y46.969 Z0.000 F1600
G1 X138.341 Y46.987 Z0.000 F1600
G1 X138.415 Y46.970 Z0.000 F1600
G1 X138.476 Y46.926 Z0.000 F1600
; --- FIX Y Backlash: -1.500mm ---
G0 X138.476 Y45.426 F1200
G1 X138.501 Y45.367 Z0.000 F1600
G1 X138.495 Y45.337 Z0.000 F1600
G1 X138.476 Y45.280 Z0.000 F1600
; --- FIX X Backlash: -1.400mm ---
G0 X137.076 Y45.280 F1200
G1 X137.002 Y45.086 Z0.000 F1600
G1 X136.880 Y44.789 Z0.000 F1600
G1 X136.302 Y43.435 Z0.000 F1600
G1 X134.852 Y40.126 Z0.000 F1600
G1 X134.279 Y38.824 Z0.000 F1600
G1 X133.934 Y38.044 Z0.000 F1600
G1 X133.639 Y37.389 Z0.000 F1600
G1 X133.372 Y36.827 Z0.000 F1600
G1 X133.127 Y36.345 Z0.000 F1600
G1 X132.895 Y35.930 Z0.000 F1600
G1 X132.667 Y35.567 Z0.000 F1600
G1 X132.436 Y35.243 Z0.000 F1600
G1 X132.194 Y34.945 Z0.000 F1600
G1 X131.933 Y34.659 Z0.000 F1600
G1 X131.790 Y34.513 Z0.000 F1600
G1 X131.713 Y34.438 Z0.000 F1600
G1 X131.679 Y34.438 Z0.000 F1600
G1 X131.604 Y34.471 Z0.000 F1600
; --- FIX Y Backlash: 1.500mm ---
G0 X131.604 Y35.971 F1200
G1 X131.464 Y36.050 Z0.000 F1600
G1 X131.239 Y36.186 Z0.000 F1600
G1 X130.897 Y36.395 Z0.000 F1600
G0 Z3.5 F1000
; --- FIX X Backlash: 1.400mm ---
G0 X132.297 Y36.395 F1200
G0 X133.923 Y36.384 Z3.500
G1 Z0 F1000
G1 X133.941 Y36.415 Z0.000 F1600
G1 X133.989 Y36.463 Z0.000 F1600
G1 X134.066 Y36.559 Z0.000 F1600
G1 X134.164 Y36.693 Z0.000 F1600
G1 X134.275 Y36.850 Z0.000 F1600
G1 X134.497 Y37.184 Z0.000 F1600
G1 X134.661 Y37.458 Z0.000 F1600
G1 X134.809 Y37.737 Z0.000 F1600
G1 X134.993 Y38.090 Z0.000 F1600
G1 X135.131 Y38.361 Z0.000 F1600
G1 X135.168 Y38.424 Z0.000 F1600
G1 X135.189 Y38.439 Z0.000 F1600
G1 X135.202 Y38.419 Z0.000 F1600
; --- FIX Y Backlash: -1.500mm ---
G0 X135.202 Y36.919 F1200
G1 X135.477 Y36.242 Z0.000 F1600
G1 X135.570 Y36.001 Z0.000 F1600
G1 X135.639 Y35.807 Z0.000 F1600
G1 X135.746 Y35.485 Z0.000 F1600
G1 X135.791 Y35.339 Z0.000 F1600
G1 X135.797 Y35.311 Z0.000 F1600
G1 X135.760 Y35.281 Z0.000 F1600
; --- FIX X Backlash: -1.400mm ---
G0 X134.360 Y35.281 F1200
G1 X134.259 Y35.214 Z0.000 F1600
G1 X134.110 Y35.119 Z0.000 F1600
G1 X133.223 Y34.580 Z0.000 F1600
G1 X133.049 Y34.477 Z0.000 F1600
G1 X132.991 Y34.445 Z0.000 F1600
G1 X132.963 Y34.433 Z0.000 F1600
G1 X132.938 Y34.449 Z0.000 F1600
G1 X132.886 Y34.491 Z0.000 F1600
; --- FIX Y Backlash: 1.500mm ---
G0 X132.886 Y35.991 F1200
G1 X132.814 Y36.055 Z0.000 F1600
G1 X132.731 Y36.132 Z0.000 F1600
G1 X132.613 Y36.250 Z0.000 F1600
G1 X132.545 Y36.331 Z0.000 F1600
G1 X132.523 Y36.384 Z0.000 F1600
G0 Z3.5 F1000
; --- FIX X Backlash: 1.400mm ---
G0 X133.923 Y36.384 F1200
; --- FIX Y Backlash: -1.500mm ---
G0 X133.923 Y34.884 F1200
G0 X134.756 Y34.295 Z3.500
G1 Z0 F1000
; --- FIX Y Backlash: 1.500mm ---
G0 X134.756 Y35.795 F1200
G1 X134.886 Y35.873 Z0.000 F1600
G1 X135.238 Y36.092 Z0.000 F1600
G1 X135.662 Y36.346 Z0.000 F1600
G1 X135.855 Y36.456 Z0.000 F1600
G1 X135.890 Y36.473 Z0.000 F1600
; --- FIX Y Backlash: -1.500mm ---
G0 X135.890 Y34.973 F1200
G1 X135.934 Y34.921 Z0.000 F1600
G1 X136.003 Y34.786 Z0.000 F1600
G1 X136.350 Y34.070 Z0.000 F1600
G1 X136.766 Y33.313 Z0.000 F1600
G1 X136.843 Y33.179 Z0.000 F1600
G1 X136.949 Y32.986 Z0.000 F1600
G1 X136.967 Y32.951 Z0.000 F1600
G1 X136.928 Y32.924 Z0.000 F1600
; --- FIX X Backlash: -1.400mm ---
G0 X135.528 Y32.924 F1200
G1 X135.427 Y32.891 Z0.000 F1600
G1 X135.225 Y32.820 Z0.000 F1600
G1 X135.018 Y32.715 Z0.000 F1600
G1 X134.815 Y32.582 Z0.000 F1600
G1 X134.626 Y32.425 Z0.000 F1600
G1 X134.546 Y32.351 Z0.000 F1600
G1 X134.503 Y32.315 Z0.000 F1600
G1 X134.477 Y32.332 Z0.000 F1600
; --- FIX Y Backlash: 1.500mm ---
G0 X134.477 Y33.832 F1200
G1 X134.438 Y33.886 Z0.000 F1600
G1 X134.372 Y33.993 Z0.000 F1600
G1 X133.889 Y34.723 Z0.000 F1600
G1 X133.678 Y35.034 Z0.000 F1600
G1 X133.487 Y35.307 Z0.000 F1600
G1 X133.250 Y35.634 Z0.000 F1600
G1 X133.213 Y35.694 Z0.000 F1600
G1 X133.255 Y35.731 Z0.000 F1600
; --- FIX X Backlash: 1.400mm ---
G0 X134.655 Y35.731 F1200
G1 X134.756 Y35.795 Z0.000 F1600
G0 Z3.5 F1000
; --- FIX Y Backlash: -1.500mm ---
G0 X134.756 Y34.295 F1200
G0 X136.751 Y34.063 Z3.500
G1 Z0 F1000
G1 X136.762 Y34.094 Z0.000 F1600
; --- FIX Y Backlash: 1.500mm ---
G0 X136.762 Y35.594 F1200
G1 X136.809 Y35.645 Z0.000 F1600
G1 X136.903 Y35.730 Z0.000 F1600
G1 X137.334 Y36.150 Z0.000 F1600
G1 X137.698 Y36.573 Z0.000 F1600
G1 X138.000 Y37.008 Z0.000 F1600
G1 X138.246 Y37.462 Z0.000 F1600
G1 X138.437 Y37.952 Z0.000 F1600
G1 X138.588 Y38.469 Z0.000 F1600
G1 X138.677 Y39.012 Z0.000 F1600
G1 X138.709 Y39.576 Z0.000 F1600
G1 X138.682 Y40.134 Z0.000 F1600
; --- FIX X Backlash: -1.400mm ---
G0 X137.282 Y40.134 F1200
G1 X137.197 Y40.659 Z0.000 F1600
G1 X137.096 Y41.032 Z0.000 F1600
G1 X136.990 Y41.350 Z0.000 F1600
G1 X136.929 Y41.498 Z0.000 F1600
G1 X136.766 Y41.834 Z0.000 F1600
G1 X136.600 Y42.141 Z0.000 F1600
G1 X136.402 Y42.429 Z0.000 F1600
G1 X136.243 Y42.651 Z0.000 F1600
G1 X136.045 Y42.884 Z0.000 F1600
G1 X135.890 Y43.059 Z0.000 F1600
G1 X135.855 Y43.103 Z0.000 F1600
G1 X135.860 Y43.143 Z0.000 F1600
G1 X135.894 Y43.235 Z0.000 F1600
; --- FIX X Backlash: 1.400mm ---
G0 X137.294 Y43.235 F1200
G1 X137.356 Y43.382 Z0.000 F1600
G1 X137.487 Y43.674 Z0.000 F1600
G1 X137.600 Y43.936 Z0.000 F1600
G1 X137.652 Y44.048 Z0.000 F1600
G1 X137.690 Y44.118 Z0.000 F1600
G1 X137.711 Y44.143 Z0.000 F1600
G1 X137.757 Y44.110 Z0.000 F1600
; --- FIX Y Backlash: -1.500mm ---
G0 X137.757 Y42.610 F1200
G1 X137.843 Y42.533 Z0.000 F1600
G1 X138.041 Y42.345 Z0.000 F1600
; --- FIX Y Backlash: 1.500mm ---
G0 X138.041 Y43.845 F1200
G1 X138.237 Y43.936 Z0.000 F1600
G1 X138.699 Y44.148 Z0.000 F1600
G1 X138.874 Y44.222 Z0.000 F1600
G1 X138.993 Y44.254 Z0.000 F1600
G1 X139.069 Y44.246 Z0.000 F1600
G1 X139.114 Y44.201 Z0.000 F1600
G1 X139.137 Y44.165 Z0.000 F1600
; --- FIX Y Backlash: -1.500mm ---
G0 X139.137 Y42.665 F1200
G1 X139.262 Y42.486 Z0.000 F1600
G1 X139.558 Y42.072 Z0.000 F1600
G1 X139.762 Y41.792 Z0.000 F1600
G1 X139.847 Y41.665 Z0.000 F1600
G1 X139.883 Y41.591 Z0.000 F1600
G1 X139.847 Y41.526 Z0.000 F1600
; --- FIX X Backlash: -1.400mm ---
G0 X138.447 Y41.526 F1200
G1 X138.359 Y41.423 Z0.000 F1600
G1 X138.151 Y41.203 Z0.000 F1600
G1 X137.892 Y40.926 Z0.000 F1600
G1 X137.825 Y40.849 Z0.000 F1600
G1 X137.777 Y40.769 Z0.000 F1600
G1 X137.787 Y40.723 Z0.000 F1600
G1 X137.823 Y40.628 Z0.000 F1600
; --- FIX X Backlash: 1.400mm ---
G0 X139.223 Y40.628 F1200
G1 X139.349 Y40.326 Z0.000 F1600
G1 X139.413 Y40.166 Z0.000 F1600
G1 X139.463 Y40.047 Z0.000 F1600
G1 X139.498 Y39.982 Z0.000 F1600
G1 X139.535 Y39.970 Z0.000 F1600
G1 X139.629 Y39.960 Z0.000 F1600
G1 X139.790 Y39.952 Z0.000 F1600
G1 X140.299 Y39.937 Z0.000 F1600
G1 X140.458 Y39.929 Z0.000 F1600
G1 X140.539 Y39.917 Z0.000 F1600
G1 X140.574 Y39.899 Z0.000 F1600
G1 X140.608 Y39.823 Z0.000 F1600
G1 X140.641 Y39.680 Z0.000 F1600
G1 X140.700 Y39.356 Z0.000 F1600
G1 X140.800 Y38.833 Z0.000 F1600
G1 X140.819 Y38.726 Z0.000 F1600
G1 X140.833 Y38.634 Z0.000 F1600
G1 X140.840 Y38.567 Z0.000 F1600
G1 X140.840 Y38.533 Z0.000 F1600
G1 X140.828 Y38.511 Z0.000 F1600
G1 X140.794 Y38.490 Z0.000 F1600
; --- FIX X Backlash: -1.400mm ---
G0 X139.394 Y38.490 F1200
G1 X139.306 Y38.456 Z0.000 F1600
G1 X138.873 Y38.303 Z0.000 F1600
G1 X138.648 Y38.220 Z0.000 F1600
G1 X138.486 Y38.157 Z0.000 F1600
G1 X138.418 Y38.125 Z0.000 F1600
G1 X138.410 Y38.090 Z0.000 F1600
G1 X138.401 Y38.007 Z0.000 F1600
G1 X138.392 Y37.889 Z0.000 F1600
G1 X138.368 Y37.469 Z0.000 F1600
G1 X138.357 Y37.312 Z0.000 F1600
G1 X138.364 Y37.244 Z0.000 F1600
; --- FIX X Backlash: 1.400mm ---
G0 X139.764 Y37.244 F1200
G1 X139.850 Y37.189 Z0.000 F1600
G1 X140.104 Y37.056 Z0.000 F1600
G1 X140.362 Y36.913 Z0.000 F1600
G1 X140.566 Y36.794 Z0.000 F1600
G1 X140.629 Y36.754 Z0.000 F1600
G1 X140.657 Y36.733 Z0.000 F1600
G1 X140.670 Y36.694 Z0.000 F1600
G1 X140.670 Y36.633 Z0.000 F1600
G1 X140.649 Y36.544 Z0.000 F1600
G1 X140.614 Y36.423 Z0.000 F1600
; --- FIX X Backlash: -1.400mm ---
G0 X139.214 Y36.423 F1200
G1 X139.027 Y35.824 Z0.000 F1600
G1 X138.971 Y35.649 Z0.000 F1600
G1 X138.924 Y35.513 Z0.000 F1600
G1 X138.887 Y35.424 Z0.000 F1600
G1 X138.864 Y35.385 Z0.000 F1600
G1 X138.834 Y35.370 Z0.000 F1600
G1 X138.762 Y35.370 Z0.000 F1600
G1 X138.587 Y35.384 Z0.000 F1600
; --- FIX Y Backlash: 1.500mm ---
G0 X138.587 Y36.884 F1200
G1 X137.963 Y36.952 Z0.000 F1600
G1 X137.877 Y36.957 Z0.000 F1600
G1 X137.818 Y36.952 Z0.000 F1600
G1 X137.750 Y36.905 Z0.000 F1600
; --- FIX Y Backlash: -1.500mm ---
G0 X137.750 Y35.405 F1200
G1 X137.693 Y35.296 Z0.000 F1600
G1 X137.600 Y35.125 Z0.000 F1600
G1 X137.412 Y34.804 Z0.000 F1600
G1 X137.378 Y34.733 Z0.000 F1600
G1 X137.400 Y34.691 Z0.000 F1600
; --- FIX X Backlash: 1.400mm ---
G0 X138.800 Y34.691 F1200
G1 X138.862 Y34.592 Z0.000 F1600
G1 X139.177 Y34.108 Z0.000 F1600
G1 X139.268 Y33.962 Z0.000 F1600
G1 X139.328 Y33.857 Z0.000 F1600
G1 X139.350 Y33.806 Z0.000 F1600
G1 X139.335 Y33.770 Z0.000 F1600
G1 X139.288 Y33.707 Z0.000 F1600
; --- FIX X Backlash: -1.400mm ---
G0 X137.888 Y33.707 F1200
G1 X137.807 Y33.614 Z0.000 F1600
G1 X137.689 Y33.489 Z0.000 F1600
G1 X137.248 Y33.037 Z0.000 F1600
G1 X137.083 Y32.875 Z0.000 F1600
G1 X137.032 Y32.829 Z0.000 F1600
G1 X136.999 Y32.803 Z0.000 F1600
G1 X136.981 Y32.794 Z0.000 F1600
G1 X136.934 Y32.818 Z0.000 F1600
; --- FIX Y Backlash: 1.500mm ---
G0 X136.934 Y34.318 F1200
G1 X136.829 Y34.382 Z0.000 F1600
G1 X136.681 Y34.477 Z0.000 F1600
G1 X136.505 Y34.592 Z0.000 F1600
G1 X136.058 Y34.890 Z0.000 F1600
; --- FIX Y Backlash: -1.500mm ---
G0 X136.058 Y33.390 F1200
G1 X135.796 Y33.192 Z0.000 F1600
; --- FIX Y Backlash: 1.500mm ---
G0 X135.796 Y34.692 F1200
G1 X135.442 Y35.385 Z0.000 F1600
G1 X135.363 Y35.534 Z0.000 F1600
G1 X135.351 Y35.563 Z0.000 F1600
G0 Z3.5 F1000
; --- FIX X Backlash: 1.400mm ---
G0 X136.751 Y35.563 F1200
; --- FIX Y Backlash: -1.500mm ---
G0 X136.751 Y34.063 F1200
G0 X137.135 Y32.653 Z3.500
G1 Z0 F1000
G1 X137.291 Y32.653 Z0.000 F1600
G1 X137.494 Y32.635 Z0.000 F1600
G1 X137.647 Y32.571 Z0.000 F1600
G1 X137.785 Y32.484 Z0.000 F1600
G1 X137.920 Y32.367 Z0.000 F1600
G1 X138.051 Y32.223 Z0.000 F1600
G1 X138.175 Y32.057 Z0.000 F1600
G1 X138.388 Y31.674 Z0.000 F1600
G1 X138.538 Y31.252 Z0.000 F1600
G1 X138.593 Y31.010 Z0.000 F1600
G1 X138.626 Y30.767 Z0.000 F1600
G1 X138.644 Y30.482 Z0.000 F1600
G1 X138.649 Y30.110 Z0.000 F1600
G1 X138.643 Y29.741 Z0.000 F1600
G1 X138.628 Y29.418 Z0.000 F1600
G1 X138.618 Y29.289 Z0.000 F1600
G1 X138.607 Y29.190 Z0.000 F1600
G1 X138.595 Y29.127 Z0.000 F1600
G1 X138.583 Y29.105 Z0.000 F1600
; --- FIX X Backlash: -1.400mm ---
G0 X137.183 Y29.105 F1200
G1 X137.133 Y29.119 Z0.000 F1600
G1 X137.032 Y29.152 Z0.000 F1600
; --- FIX Y Backlash: 1.500mm ---
G0 X137.032 Y30.652 F1200
G1 X136.739 Y30.764 Z0.000 F1600
G1 X136.366 Y30.925 Z0.000 F1600
G1 X136.186 Y31.007 Z0.000 F1600
G1 X136.030 Y31.081 Z0.000 F1600
G1 X135.913 Y31.142 Z0.000 F1600
G1 X135.848 Y31.181 Z0.000 F1600
G1 X135.773 Y31.232 Z0.000 F1600
G1 X135.621 Y31.331 Z0.000 F1600
G1 X135.408 Y31.473 Z0.000 F1600
G1 X135.268 Y31.587 Z0.000 F1600
G1 X135.012 Y31.832 Z0.000 F1600
G1 X134.812 Y32.072 Z0.000 F1600
G1 X134.661 Y32.314 Z0.000 F1600
G1 X134.553 Y32.568 Z0.000 F1600
G1 X134.515 Y32.726 Z0.000 F1600
G1 X134.506 Y32.952 Z0.000 F1600
G1 X134.514 Y33.179 Z0.000 F1600
G1 X134.560 Y33.314 Z0.000 F1600
G1 X134.610 Y33.412 Z0.000 F1600
G1 X134.656 Y33.489 Z0.000 F1600
G1 X134.700 Y33.549 Z0.000 F1600
; --- FIX X Backlash: 1.400mm ---
G0 X136.100 Y33.549 F1200
; --- FIX Y Backlash: -1.500mm ---
G0 X136.100 Y32.049 F1200
G1 X136.163 Y31.874 Z0.000 F1600
G1 X136.270 Y31.617 Z0.000 F1600
G1 X136.403 Y31.360 Z0.000 F1600
G1 X136.555 Y31.114 Z0.000 F1600
G1 X136.721 Y30.890 Z0.000 F1600
G1 X136.796 Y30.808 Z0.000 F1600
G1 X136.840 Y30.776 Z0.000 F1600
G1 X136.852 Y30.772 Z0.000 F1600
G1 X136.852 Y30.755 Z0.000 F1600
G1 X136.865 Y30.727 Z0.000 F1600
G1 X136.909 Y30.674 Z0.000 F1600
G1 X136.978 Y30.601 Z0.000 F1600
G1 X137.064 Y30.515 Z0.000 F1600
G1 X137.259 Y30.335 Z0.000 F1600
G1 X137.438 Y30.186 Z0.000 F1600
G1 X137.582 Y30.086 Z0.000 F1600
G1 X137.737 Y29.990 Z0.000 F1600
G1 X137.863 Y29.920 Z0.000 F1600
G1 X137.923 Y29.900 Z0.000 F1600
; --- FIX Y Backlash: 1.500mm ---
G0 X137.923 Y31.400 F1200
G1 X137.888 Y31.451 Z0.000 F1600
; --- FIX X Backlash: -1.400mm ---
G0 X136.488 Y31.451 F1200
G1 X135.995 Y31.970 Z0.000 F1600
G1 X135.670 Y32.361 Z0.000 F1600
G1 X135.402 Y32.746 Z0.000 F1600
G1 X135.179 Y33.140 Z0.000 F1600
G1 X135.081 Y33.341 Z0.000 F1600
G1 X135.002 Y33.519 Z0.000 F1600
G1 X134.950 Y33.656 Z0.000 F1600
G1 X134.930 Y33.736 Z0.000 F1600
; --- FIX X Backlash: 1.400mm ---
G0 X136.330 Y33.736 F1200
G1 X136.540 Y33.910 Z0.000 F1600
G1 X136.771 Y34.016 Z0.000 F1600
; --- FIX Y Backlash: -1.500mm ---
G0 X136.771 Y32.516 F1200
G1 X136.925 Y32.321 Z0.000 F1600
G1 X137.256 Y31.871 Z0.000 F1600
G1 X137.548 Y31.409 Z0.000 F1600
G1 X137.814 Y30.909 Z0.000 F1600
G1 X138.069 Y30.349 Z0.000 F1600
G1 X138.147 Y30.171 Z0.000 F1600
G1 X138.191 Y30.076 Z0.000 F1600
G1 X138.213 Y30.051 Z0.000 F1600
G1 X138.221 Y30.077 Z0.000 F1600
; --- FIX Y Backlash: 1.500mm ---
G0 X138.221 Y31.577 F1200
G1 X138.213 Y31.701 Z0.000 F1600
G1 X138.182 Y31.893 Z0.000 F1600
G1 X138.137 Y32.109 Z0.000 F1600
; --- FIX X Backlash: -1.400mm ---
G0 X136.737 Y32.109 F1200
G1 X136.685 Y32.303 Z0.000 F1600
G1 X136.583 Y32.598 Z0.000 F1600
G1 X136.463 Y32.887 Z0.000 F1600
G1 X136.328 Y33.159 Z0.000 F1600
G1 X136.184 Y33.406 Z0.000 F1600
G1 X135.941 Y33.751 Z0.000 F1600
G1 X135.703 Y34.058 Z0.000 F1600
G1 X135.665 Y34.112 Z0.000 F1600
G1 X135.660 Y34.144 Z0.000 F1600
; --- FIX X Backlash: 1.400mm ---
G0 X137.060 Y34.144 F1200
G1 X137.135 Y34.153 Z0.000 F1600
G0 Z3.5 F1000
; --- FIX X Backlash: -1.400mm ---
G0 X135.735 Y34.153 F1200
G0 X130.942 Y39.071 Z3.500
G1 Z0 F1000
G1 X130.925 Y39.097 Z0.000 F1600
G1 X130.888 Y39.171 Z0.000 F1600
G1 X130.776 Y39.411 Z0.000 F1600
G1 X130.418 Y40.216 Z0.000 F1600
G1 X130.374 Y40.326 Z0.000 F1600
G1 X130.269 Y40.559 Z0.000 F1600
G1 X129.514 Y42.267 Z0.000 F1600
G1 X129.183 Y43.023 Z0.000 F1600
G1 X128.912 Y43.635 Z0.000 F1600
G1 X128.539 Y44.489 Z0.000 F1600
G1 X128.499 Y44.589 Z0.000 F1600
G1 X128.415 Y44.777 Z0.000 F1600
G1 X128.381 Y44.869 Z0.000 F1600
G1 X128.257 Y45.149 Z0.000 F1600
G1 X128.091 Y45.535 Z0.000 F1600
G1 X127.609 Y46.669 Z0.000 F1600
G1 X127.563 Y46.807 Z0.000 F1600
G1 X127.557 Y46.905 Z0.000 F1600
G1 X127.593 Y46.964 Z0.000 F1600
; --- FIX X Backlash: 1.400mm ---
G0 X128.993 Y46.964 F1200
G1 X129.070 Y46.984 Z0.000 F1600
G1 X129.142 Y46.968 Z0.000 F1600
; --- FIX Y Backlash: -1.500mm ---
G0 X129.142 Y45.468 F1200
G1 X129.243 Y45.368 Z0.000 F1600
G1 X129.323 Y45.264 Z0.000 F1600
G1 X129.434 Y45.110 Z0.000 F1600
G1 X130.156 Y44.072 Z0.000 F1600
G1 X130.635 Y43.390 Z0.000 F1600
G1 X130.971 Y42.907 Z0.000 F1600
G1 X132.015 Y41.428 Z0.000 F1600
G1 X133.100 Y39.904 Z0.000 F1600
G1 X133.344 Y39.566 Z0.000 F1600
G1 X133.442 Y39.426 Z0.000 F1600
G1 X133.493 Y39.346 Z0.000 F1600
G1 X133.508 Y39.309 Z0.000 F1600
G1 X133.494 Y39.271 Z0.000 F1600
; --- FIX X Backlash: -1.400mm ---
G0 X132.094 Y39.271 F1200
G1 X132.036 Y39.179 Z0.000 F1600
G1 X131.982 Y39.100 Z0.000 F1600
G1 X131.441 Y38.328 Z0.000 F1600
G1 X131.250 Y38.050 Z0.000 F1600
G1 X131.112 Y37.841 Z0.000 F1600
G1 X130.972 Y37.610 Z0.000 F1600
G1 X130.942 Y37.571 Z0.000 F1600
G0 Z3.5 F1000
; --- FIX Y Backlash: 1.500mm ---
G0 X130.942 Y39.071 F1200
G0 X130.197 Y44.064 Z3.500
G1 Z0 F1000
G1 X130.150 Y44.117 Z0.000 F1600
G1 X130.058 Y44.246 Z0.000 F1600
G1 X129.961 Y44.390 Z0.000 F1600
G1 X129.864 Y44.528 Z0.000 F1600
G1 X129.363 Y45.258 Z0.000 F1600
G1 X129.094 Y45.648 Z0.000 F1600
G1 X129.003 Y45.786 Z0.000 F1600
G1 X128.992 Y45.808 Z0.000 F1600
; --- FIX X Backlash: 1.400mm ---
G0 X130.392 Y45.808 F1200
G1 X130.782 Y46.007 Z0.000 F1600
G1 X131.165 Y46.175 Z0.000 F1600
G1 X131.225 Y46.150 Z0.000 F1600
; --- FIX Y Backlash: -1.500mm ---
G0 X131.225 Y44.650 F1200
G1 X131.310 Y44.552 Z0.000 F1600
G1 X131.401 Y44.436 Z0.000 F1600
G1 X131.575 Y44.220 Z0.000 F1600
G1 X131.756 Y43.988 Z0.000 F1600
G1 X131.831 Y43.899 Z0.000 F1600
G1 X131.859 Y43.862 Z0.000 F1600
G1 X131.892 Y43.832 Z0.000 F1600
G1 X131.943 Y43.843 Z0.000 F1600
; --- FIX Y Backlash: 1.500mm ---
G0 X131.943 Y45.343 F1200
G1 X132.260 Y45.431 Z0.000 F1600
G1 X132.591 Y45.497 Z0.000 F1600
G1 X132.696 Y45.515 Z0.000 F1600
G1 X132.739 Y45.546 Z0.000 F1600
G1 X132.754 Y45.598 Z0.000 F1600
G1 X132.781 Y45.714 Z0.000 F1600
G1 X132.816 Y45.876 Z0.000 F1600
G1 X132.897 Y46.269 Z0.000 F1600
G1 X132.933 Y46.426 Z0.000 F1600
G1 X132.961 Y46.531 Z0.000 F1600
G1 X132.978 Y46.572 Z0.000 F1600
G1 X133.045 Y46.579 Z0.000 F1600
G1 X133.207 Y46.584 Z0.000 F1600
G1 X133.440 Y46.588 Z0.000 F1600
G1 X134.435 Y46.588 Z0.000 F1600
G1 X134.464 Y46.545 Z0.000 F1600
; --- FIX Y Backlash: -1.500mm ---
G0 X134.464 Y45.045 F1200
G1 X134.494 Y44.962 Z0.000 F1600
G1 X134.526 Y44.823 Z0.000 F1600
G1 X134.685 Y44.015 Z0.000 F1600
G1 X134.861 Y43.991 Z0.000 F1600
G1 X135.061 Y43.953 Z0.000 F1600
G1 X135.293 Y43.899 Z0.000 F1600
G1 X135.549 Y43.832 Z0.000 F1600
; --- FIX Y Backlash: 1.500mm ---
G0 X135.549 Y45.332 F1200
G1 X135.880 Y45.752 Z0.000 F1600
G1 X136.107 Y46.045 Z0.000 F1600
G1 X136.179 Y46.128 Z0.000 F1600
G1 X136.227 Y46.166 Z0.000 F1600
G1 X136.266 Y46.175 Z0.000 F1600
; --- FIX Y Backlash: -1.500mm ---
G0 X136.266 Y44.675 F1200
G1 X136.675 Y44.494 Z0.000 F1600
G1 X137.041 Y44.292 Z0.000 F1600
G1 X137.033 Y44.270 Z0.000 F1600
; --- FIX X Backlash: -1.400mm ---
G0 X135.633 Y44.270 F1200
G1 X135.410 Y43.960 Z0.000 F1600
G1 X134.845 Y43.141 Z0.000 F1600
G1 X134.537 Y42.687 Z0.000 F1600
G1 X134.472 Y42.600 Z0.000 F1600
G1 X134.434 Y42.564 Z0.000 F1600
G1 X134.379 Y42.582 Z0.000 F1600
G1 X134.275 Y42.625 Z0.000 F1600
; --- FIX Y Backlash: 1.500mm ---
G0 X134.275 Y44.125 F1200
G1 X133.968 Y44.240 Z0.000 F1600
G1 X133.610 Y44.345 Z0.000 F1600
G1 X133.243 Y44.427 Z0.000 F1600
G1 X132.909 Y44.477 Z0.000 F1600
G1 X132.318 Y44.497 Z0.000 F1600
G1 X131.720 Y44.468 Z0.000 F1600
; --- FIX Y Backlash: -1.500mm ---
G0 X131.720 Y42.968 F1200
G1 X131.350 Y42.913 Z0.000 F1600
G1 X130.979 Y42.832 Z0.000 F1600
G1 X130.630 Y42.731 Z0.000 F1600
G1 X130.326 Y42.614 Z0.000 F1600
G1 X130.241 Y42.578 Z0.000 F1600
G1 X130.197 Y42.564 Z0.000 F1600
G0 Z3.5 F1000
; --- FIX Y Backlash: 1.500mm ---
G0 X130.197 Y44.064 F1200
G0 X121.879 Y48.077 Z3.500
G1 Z0 F1000
; --- FIX Y Backlash: -1.500mm ---
G0 X121.879 Y46.577 F1200
G1 X121.879 Y28.120 Z0.000 F1600
; --- FIX X Backlash: 1.400mm ---
G0 X123.279 Y28.120 F1200
G1 X143.772 Y28.120 Z0.000 F1600
; --- FIX Y Backlash: 1.500mm ---
G0 X143.772 Y29.620 F1200
G1 X143.772 Y48.077 Z0.000 F1600
; --- FIX X Backlash: -1.400mm ---
G0 X142.372 Y48.077 F1200
G1 X121.879 Y48.077 Z0.000 F1600
G0 Z3.5 F1000
; --- FIX X Backlash: 1.400mm ---
G0 X123.279 Y48.077 F1200
G0 X127.879 Y52.974 Z3.500
G1 Z0 F1000
; --- FIX Y Backlash: -1.500mm ---
G0 X127.879 Y51.474 F1200
G1 X133.012 Y50.190 Z0.000 F1600
; --- FIX Y Backlash: 1.500mm ---
G0 X133.012 Y51.690 F1200
G1 X133.012 Y56.824 Z0.000 F1600
; --- FIX X Backlash: -1.400mm ---
G0 X131.612 Y56.824 F1200
; --- FIX Y Backlash: -1.500mm ---
G0 X131.612 Y55.324 F1200
G1 X126.479 Y54.040 Z0.000 F1600
G1 X126.479 Y51.474 Z0.000 F1600
G0 Z3.5 F1000
; --- FIX Y Backlash: 1.500mm ---
G0 X126.479 Y52.974 F1200
G0 X125.965 Y54.257 Z3.500
G1 Z0 F1000
; --- FIX X Backlash: 1.400mm ---
G0 X127.365 Y54.257 F1200
G1 X139.685 Y54.257 Z0.000 F1600
G0 Z3.5 F1000
; --- FIX X Backlash: -1.400mm ---
G0 X138.285 Y54.257 F1200
G0 X136.489 Y54.257 Z3.500
G1 Z0 F1000
G1 X136.463 Y54.516 Z0.000 F1600
G1 X136.388 Y54.757 Z0.000 F1600
G1 X136.269 Y54.975 Z0.000 F1600
G1 X136.113 Y55.164 Z0.000 F1600
G1 X135.923 Y55.321 Z0.000 F1600
G1 X135.705 Y55.440 Z0.000 F1600
G1 X135.464 Y55.514 Z0.000 F1600
G1 X135.205 Y55.540 Z0.000 F1600
G1 X134.947 Y55.514 Z0.000 F1600
; --- FIX Y Backlash: -1.500mm ---
G0 X134.947 Y54.014 F1200
G1 X134.706 Y53.940 Z0.000 F1600
G1 X134.488 Y53.821 Z0.000 F1600
G1 X134.298 Y53.664 Z0.000 F1600
G1 X134.141 Y53.475 Z0.000 F1600
G1 X134.023 Y53.257 Z0.000 F1600
G1 X133.948 Y53.016 Z0.000 F1600
G1 X133.922 Y52.757 Z0.000 F1600
G1 X133.948 Y52.498 Z0.000 F1600
; --- FIX X Backlash: 1.400mm ---
G0 X135.348 Y52.498 F1200
G1 X135.423 Y52.257 Z0.000 F1600
G1 X135.541 Y52.040 Z0.000 F1600
G1 X135.698 Y51.850 Z0.000 F1600
G1 X135.888 Y51.693 Z0.000 F1600
G1 X136.106 Y51.575 Z0.000 F1600
G1 X136.347 Y51.500 Z0.000 F1600
G1 X136.605 Y51.474 Z0.000 F1600
G1 X136.864 Y51.500 Z0.000 F1600
; --- FIX Y Backlash: 1.500mm ---
G0 X136.864 Y53.000 F1200
G1 X137.105 Y53.075 Z0.000 F1600
G1 X137.323 Y53.193 Z0.000 F1600
G1 X137.513 Y53.350 Z0.000 F1600
G1 X137.669 Y53.540 Z0.000 F1600
G1 X137.788 Y53.757 Z0.000 F1600
G1 X137.863 Y53.998 Z0.000 F1600
G1 X137.889 Y54.257 Z0.000 F1600
G0 Z3.5 F1000
G0 X139.172 Y54.257 Z3.500
G1 Z0 F1000
G1 X139.159 Y54.519 Z0.000 F1600
G1 X139.120 Y54.774 Z0.000 F1600
; --- FIX X Backlash: -1.400mm ---
G0 X137.720 Y54.774 F1200
G1 X137.657 Y55.020 Z0.000 F1600
G1 X137.570 Y55.256 Z0.000 F1600
G1 X137.334 Y55.692 Z0.000 F1600
G1 X137.020 Y56.072 Z0.000 F1600
G1 X136.640 Y56.385 Z0.000 F1600
G1 X136.204 Y56.622 Z0.000 F1600
G1 X135.969 Y56.708 Z0.000 F1600
G1 X135.723 Y56.772 Z0.000 F1600
G1 X135.468 Y56.810 Z0.000 F1600
G1 X135.205 Y56.824 Z0.000 F1600
G1 X134.943 Y56.810 Z0.000 F1600
G1 X134.688 Y56.772 Z0.000 F1600
; --- FIX Y Backlash: -1.500mm ---
G0 X134.688 Y55.272 F1200
G1 X134.442 Y55.208 Z0.000 F1600
G1 X134.206 Y55.122 Z0.000 F1600
G1 X133.770 Y54.885 Z0.000 F1600
G1 X133.390 Y54.572 Z0.000 F1600
G1 X133.077 Y54.192 Z0.000 F1600
G1 X132.840 Y53.756 Z0.000 F1600
G1 X132.754 Y53.520 Z0.000 F1600
G1 X132.691 Y53.274 Z0.000 F1600
G1 X132.652 Y53.019 Z0.000 F1600
G1 X132.639 Y52.757 Z0.000 F1600
G1 X132.652 Y52.495 Z0.000 F1600
G1 X132.691 Y52.240 Z0.000 F1600
; --- FIX X Backlash: 1.400mm ---
G0 X134.091 Y52.240 F1200
G1 X134.154 Y51.994 Z0.000 F1600
G1 X134.240 Y51.758 Z0.000 F1600
G1 X134.477 Y51.322 Z0.000 F1600
G1 X134.790 Y50.942 Z0.000 F1600
G1 X135.170 Y50.629 Z0.000 F1600
G1 X135.606 Y50.392 Z0.000 F1600
G1 X135.842 Y50.306 Z0.000 F1600
G1 X136.088 Y50.243 Z0.000 F1600
G1 X136.343 Y50.204 Z0.000 F1600
G1 X136.605 Y50.190 Z0.000 F1600
G1 X136.868 Y50.204 Z0.000 F1600
G1 X137.123 Y50.243 Z0.000 F1600
; --- FIX Y Backlash: 1.500mm ---
G0 X137.123 Y51.743 F1200
G1 X137.369 Y51.806 Z0.000 F1600
G1 X137.604 Y51.892 Z0.000 F1600
G1 X138.040 Y52.129 Z0.000 F1600
G1 X138.420 Y52.442 Z0.000 F1600
G1 X138.734 Y52.822 Z0.000 F1600
G1 X138.970 Y53.258 Z0.000 F1600
G1 X139.057 Y53.494 Z0.000 F1600
G1 X139.120 Y53.740 Z0.000 F1600
G1 X139.159 Y53.995 Z0.000 F1600
G1 X139.172 Y54.257 Z0.000 F1600
G0 Z3.5 F1000
; --- FIX Y Backlash: -1.500mm ---
G0 X139.172 Y52.757 F1200
G0 X143.792 Y51.217 Z3.500
G1 Z0 F1000
G1 X146.359 Y51.217 Z0.000 F1600
G0 Z3.5 F1000
; --- FIX X Backlash: -1.400mm ---
G0 X144.959 Y51.217 F1200
G0 X135.205 Y49.677 Z3.500
G1 Z0 F1000
; --- FIX Y Backlash: 1.500mm ---
G0 X135.205 Y51.177 F1200
G1 X135.205 Y57.337 Z0.000 F1600
G0 Z3.5 F1000
; --- FIX X Backlash: 1.400mm ---
G0 X136.605 Y57.337 F1200
G0 X145.011 Y64.903 Z3.500
G1 Z0 F1000
; --- FIX X Backlash: -1.400mm ---
G0 X143.611 Y64.903 F1200
G1 X143.502 Y64.960 Z0.000 F1600
G1 X143.408 Y65.040 Z0.000 F1600
G1 X143.334 Y65.139 Z0.000 F1600
G1 X143.280 Y65.255 Z0.000 F1600
G1 X143.248 Y65.387 Z0.000 F1600
G1 X143.237 Y65.537 Z0.000 F1600
G1 X143.248 Y65.686 Z0.000 F1600
G1 X143.280 Y65.819 Z0.000 F1600
; --- FIX X Backlash: 1.400mm ---
G0 X144.680 Y65.819 F1200
G1 X144.734 Y65.935 Z0.000 F1600
G1 X144.808 Y66.034 Z0.000 F1600
G1 X144.902 Y66.114 Z0.000 F1600
G1 X145.011 Y66.171 Z0.000 F1600
G1 X145.136 Y66.205 Z0.000 F1600
G1 X145.277 Y66.217 Z0.000 F1600
G1 X145.391 Y66.209 Z0.000 F1600
G1 X145.499 Y66.185 Z0.000 F1600
G1 X145.599 Y66.146 Z0.000 F1600
; --- FIX Y Backlash: -1.500mm ---
G0 X145.599 Y64.646 F1200
G1 X145.694 Y64.592 Z0.000 F1600
G1 X145.694 Y64.405 Z0.000 F1600
; --- FIX X Backlash: -1.400mm ---
G0 X144.294 Y64.405 F1200
; --- FIX Y Backlash: 1.500mm ---
G0 X144.294 Y65.905 F1200
G1 X144.201 Y65.978 Z0.000 F1600
G1 X144.103 Y66.030 Z0.000 F1600
G1 X143.998 Y66.061 Z0.000 F1600
G1 X143.888 Y66.071 Z0.000 F1600
G1 X143.782 Y66.062 Z0.000 F1600
G1 X143.689 Y66.037 Z0.000 F1600
G1 X143.610 Y65.994 Z0.000 F1600
; --- FIX Y Backlash: -1.500mm ---
G0 X143.610 Y64.494 F1200
G1 X143.544 Y64.434 Z0.000 F1600
G1 X143.454 Y64.266 Z0.000 F1600
G1 X143.424 Y64.037 Z0.000 F1600
G1 X143.454 Y63.808 Z0.000 F1600
; --- FIX X Backlash: 1.400mm ---
G0 X144.854 Y63.808 F1200
G1 X144.944 Y63.640 Z0.000 F1600
G1 X145.010 Y63.580 Z0.000 F1600
G1 X145.089 Y63.538 Z0.000 F1600
G1 X145.182 Y63.512 Z0.000 F1600
G1 X145.288 Y63.503 Z0.000 F1600
G1 X145.398 Y63.514 Z0.000 F1600
G1 X145.503 Y63.544 Z0.000 F1600
; --- FIX Y Backlash: 1.500mm ---
G0 X145.503 Y65.044 F1200
G1 X145.601 Y65.096 Z0.000 F1600
G1 X145.694 Y65.169 Z0.000 F1600
; --- FIX Y Backlash: -1.500mm ---
G0 X145.694 Y63.669 F1200
G1 X145.694 Y63.484 Z0.000 F1600
; --- FIX X Backlash: -1.400mm ---
G0 X144.294 Y63.484 F1200
G1 X144.198 Y63.429 Z0.000 F1600
G1 X144.097 Y63.389 Z0.000 F1600
G1 X143.990 Y63.365 Z0.000 F1600
G1 X143.877 Y63.358 Z0.000 F1600
G1 X143.736 Y63.369 Z0.000 F1600
G1 X143.611 Y63.403 Z0.000 F1600
G0 Z3.5 F1000
; --- FIX X Backlash: 1.400mm ---
G0 X145.011 Y63.403 F1200
; --- FIX Y Backlash: 1.500mm ---
G0 X145.011 Y64.903 F1200
G0 X146.359 Y78.384 Z3.500
G1 Z0 F1000
; --- FIX X Backlash: -1.400mm ---
G0 X144.959 Y78.384 F1200
G1 X139.825 Y78.384 Z0.000 F1600
G0 Z3.5 F1000
; --- FIX X Backlash: 1.400mm ---
G0 X141.225 Y78.384 F1200
G0 X144.953 Y90.695 Z3.500
G1 Z0 F1000
G1 X145.237 Y90.695 Z0.000 F1600
G1 X145.362 Y90.710 Z0.000 F1600
G1 X145.449 Y90.755 Z0.000 F1600
G1 X145.501 Y90.830 Z0.000 F1600
G1 X145.518 Y90.936 Z0.000 F1600
G1 X145.501 Y91.043 Z0.000 F1600
; --- FIX X Backlash: -1.400mm ---
G0 X144.101 Y91.043 F1200
G1 X144.049 Y91.117 Z0.000 F1600
G1 X143.962 Y91.161 Z0.000 F1600
G1 X143.837 Y91.175 Z0.000 F1600
G1 X143.553 Y91.175 Z0.000 F1600
; --- FIX Y Backlash: -1.500mm ---
G0 X143.553 Y89.675 F1200
G1 X143.553 Y89.195 Z0.000 F1600
G0 Z3.5 F1000
; --- FIX Y Backlash: 1.500mm ---
G0 X143.553 Y90.695 F1200
G0 X143.553 Y91.319 Z3.500
G1 Z0 F1000
; --- FIX X Backlash: 1.400mm ---
G0 X144.953 Y91.319 F1200
G1 X145.215 Y91.319 Z0.000 F1600
G1 X145.329 Y91.331 Z0.000 F1600
G1 X145.409 Y91.368 Z0.000 F1600
G1 X145.456 Y91.429 Z0.000 F1600
G1 X145.472 Y91.517 Z0.000 F1600
G1 X145.456 Y91.603 Z0.000 F1600
G1 X145.409 Y91.665 Z0.000 F1600
; --- FIX X Backlash: -1.400mm ---
G0 X144.009 Y91.665 F1200
G1 X143.929 Y91.702 Z0.000 F1600
G1 X143.815 Y91.714 Z0.000 F1600
G1 X143.553 Y91.714 Z0.000 F1600
; --- FIX Y Backlash: -1.500mm ---
G0 X143.553 Y90.214 F1200
G1 X143.553 Y89.819 Z0.000 F1600
G0 Z3.5 F1000
; --- FIX X Backlash: 1.400mm ---
G0 X144.953 Y89.819 F1200
G0 X145.429 Y89.756 Z3.500
G1 Z0 F1000
G1 X145.546 Y89.713 Z0.000 F1600
G1 X145.632 Y89.639 Z0.000 F1600
G1 X145.687 Y89.539 Z0.000 F1600
G1 X145.705 Y89.416 Z0.000 F1600
G1 X145.675 Y89.261 Z0.000 F1600
; --- FIX X Backlash: -1.400mm ---
G0 X144.275 Y89.261 F1200
G1 X144.185 Y89.145 Z0.000 F1600
G1 X144.041 Y89.074 Z0.000 F1600
G1 X143.846 Y89.050 Z0.000 F1600
G1 X143.376 Y89.050 Z0.000 F1600
; --- FIX Y Backlash: 1.500mm ---
G0 X143.376 Y90.550 F1200
G1 X143.376 Y91.860 Z0.000 F1600
; --- FIX X Backlash: 1.400mm ---
G0 X144.776 Y91.860 F1200
G1 X145.228 Y91.860 Z0.000 F1600
G1 X145.408 Y91.839 Z0.000 F1600
; --- FIX Y Backlash: -1.500mm ---
G0 X145.408 Y90.339 F1200
G1 X145.541 Y90.275 Z0.000 F1600
G1 X145.623 Y90.173 Z0.000 F1600
G1 X145.651 Y90.036 Z0.000 F1600
G1 X145.636 Y89.928 Z0.000 F1600
G1 X145.594 Y89.845 Z0.000 F1600
; --- FIX X Backlash: -1.400mm ---
G0 X144.194 Y89.845 F1200
G1 X144.125 Y89.787 Z0.000 F1600
G1 X144.029 Y89.756 Z0.000 F1600
G0 Z3.5 F1000
; --- FIX Y Backlash: 1.500mm ---
G0 X144.029 Y91.256 F1200
G0 X130.483 Y99.184 Z3.500
G1 Z0 F1000
G1 X130.231 Y99.253 Z0.000 F1600
G1 X129.990 Y99.352 Z0.000 F1600
G1 X129.884 Y99.409 Z0.000 F1600
G1 X129.784 Y99.474 Z0.000 F1600
G1 X129.697 Y99.542 Z0.000 F1600
G1 X129.622 Y99.622 Z0.000 F1600
G0 Z3.5 F1000
G0 Z3.5 
G1 Z0 F1000
G1 X129.287 Y100.120 Z0.000 F1600
G0 Z3.5 F1000
G0 Z3.5 
G1 Z0 F1000
; --- FIX Y Backlash: -1.500mm ---
G0 X129.287 Y98.620 F1200
G1 X128.654 Y98.303 Z0.000 F1600
G0 Z3.5 F1000
G0 Z3.5 
G1 Z0 F1000
; --- FIX X Backlash: 1.400mm ---
G0 X130.054 Y98.303 F1200
G1 X130.251 Y97.737 Z0.000 F1600
G0 Z3.5 F1000
G0 Z3.5 
G1 Z0 F1000
G1 X130.269 Y97.628 Z0.000 F1600
G1 X130.272 Y97.518 Z0.000 F1600
G1 X130.263 Y97.399 Z0.000 F1600
G1 X130.245 Y97.281 Z0.000 F1600
; --- FIX X Backlash: -1.400mm ---
G0 X128.845 Y97.281 F1200
G1 X128.779 Y97.028 Z0.000 F1600
G1 X128.684 Y96.785 Z0.000 F1600
G0 Z3.5 F1000
G0 Z3.5 
G1 Z0 F1000
G1 X128.295 Y96.715 Z0.000 F1600
G0 Z3.5 F1000
G0 Z3.5 
G1 Z0 F1000
; --- FIX Y Backlash: 1.500mm ---
G0 X128.295 Y98.215 F1200
G1 X128.121 Y98.410 Z0.000 F1600
G1 X127.971 Y98.624 Z0.000 F1600
G1 X127.913 Y98.728 Z0.000 F1600
G1 X127.864 Y98.837 Z0.000 F1600
G1 X127.828 Y98.941 Z0.000 F1600
G1 X127.807 Y99.049 Z0.000 F1600
G0 Z3.5 F1000
G0 Z3.5 
G1 Z0 F1000
G1 X127.795 Y99.649 Z0.000 F1600
G0 Z3.5 F1000
G0 Z3.5 
G1 Z0 F1000
G1 X127.091 Y99.725 Z0.000 F1600
G0 Z3.5 F1000
G0 Z3.5 
G1 Z0 F1000
; --- FIX Y Backlash: -1.500mm ---
G0 X127.091 Y98.225 F1200
G1 X126.951 Y97.642 Z0.000 F1600
G0 Z3.5 F1000
G0 Z3.5 
G1 Z0 F1000
G1 X126.907 Y97.541 Z0.000 F1600
G1 X126.850 Y97.447 Z0.000 F1600
G1 X126.778 Y97.351 Z0.000 F1600
G1 X126.699 Y97.261 Z0.000 F1600
G1 X126.507 Y97.084 Z0.000 F1600
G1 X126.296 Y96.932 Z0.000 F1600
G0 Z3.5 F1000
G0 Z3.5 
G1 Z0 F1000
; --- FIX Y Backlash: 1.500mm ---
G0 X126.296 Y98.432 F1200
G1 X125.930 Y98.583 Z0.000 F1600
G0 Z3.5 F1000
G0 Z3.5 
G1 Z0 F1000
G1 X125.889 Y98.841 Z0.000 F1600
G1 X125.879 Y99.102 Z0.000 F1600
G1 X125.887 Y99.221 Z0.000 F1600
G1 X125.904 Y99.340 Z0.000 F1600
G1 X125.930 Y99.447 Z0.000 F1600
G1 X125.971 Y99.549 Z0.000 F1600
G0 Z3.5 F1000
G0 Z3.5 
G1 Z0 F1000
; --- FIX X Backlash: 1.400mm ---
G0 X127.371 Y99.549 F1200
G1 X127.685 Y100.060 Z0.000 F1600
G0 Z3.5 F1000
G0 Z3.5 
G1 Z0 F1000
; --- FIX X Backlash: -1.400mm ---
G0 X126.285 Y100.060 F1200
G1 X125.734 Y100.505 Z0.000 F1600
G0 Z3.5 F1000
G0 Z3.5 
G1 Z0 F1000
; --- FIX Y Backlash: -1.500mm ---
G0 X125.734 Y99.005 F1200
G1 X125.301 Y98.590 Z0.000 F1600
G0 Z3.5 F1000
G0 Z3.5 
G1 Z0 F1000
G1 X125.210 Y98.528 Z0.000 F1600
G1 X125.111 Y98.480 Z0.000 F1600
G1 X124.999 Y98.438 Z0.000 F1600
G1 X124.884 Y98.405 Z0.000 F1600
G1 X124.626 Y98.360 Z0.000 F1600
G1 X124.366 Y98.346 Z0.000 F1600
G0 Z3.5 F1000
G0 Z3.5 
G1 Z0 F1000
; --- FIX Y Backlash: 1.500mm ---
G0 X124.366 Y99.846 F1200
G1 X124.140 Y100.171 Z0.000 F1600
G0 Z3.5 F1000
G0 Z3.5 
G1 Z0 F1000
; --- FIX X Backlash: 1.400mm ---
G0 X125.540 Y100.171 F1200
G1 X125.645 Y100.410 Z0.000 F1600
G1 X125.778 Y100.635 Z0.000 F1600
G1 X125.849 Y100.732 Z0.000 F1600
G1 X125.927 Y100.822 Z0.000 F1600
G1 X126.007 Y100.898 Z0.000 F1600
G1 X126.097 Y100.961 Z0.000 F1600
G0 Z3.5 F1000
G0 Z3.5 
G1 Z0 F1000
G1 X126.637 Y101.222 Z0.000 F1600
G0 Z3.5 F1000
G0 Z3.5 
G1 Z0 F1000
; --- FIX X Backlash: -1.400mm ---
G0 X125.237 Y101.222 F1200
G1 X125.014 Y101.894 Z0.000 F1600
G0 Z3.5 F1000
G0 Z3.5 
G1 Z0 F1000
; --- FIX Y Backlash: -1.500mm ---
G0 X125.014 Y100.394 F1200
G1 X124.425 Y100.279 Z0.000 F1600
G0 Z3.5 F1000
G0 Z3.5 
G1 Z0 F1000
G1 X124.315 Y100.276 Z0.000 F1600
G1 X124.206 Y100.290 Z0.000 F1600
G1 X124.089 Y100.315 Z0.000 F1600
G1 X123.975 Y100.350 Z0.000 F1600
; --- FIX Y Backlash: 1.500mm ---
G0 X123.975 Y101.850 F1200
G1 X123.734 Y101.951 Z0.000 F1600
G1 X123.507 Y102.080 Z0.000 F1600
G0 Z3.5 F1000
G0 Z3.5 
G1 Z0 F1000
G1 X123.493 Y102.475 Z0.000 F1600
G0 Z3.5 F1000
G0 Z3.5 
G1 Z0 F1000
; --- FIX X Backlash: 1.400mm ---
G0 X124.893 Y102.475 F1200
G1 X125.111 Y102.619 Z0.000 F1600
G1 X125.344 Y102.737 Z0.000 F1600
G1 X125.455 Y102.780 Z0.000 F1600
G1 X125.570 Y102.813 Z0.000 F1600
G1 X125.679 Y102.834 Z0.000 F1600
G1 X125.788 Y102.839 Z0.000 F1600
G0 Z3.5 F1000
G0 Z3.5 
G1 Z0 F1000
; --- FIX Y Backlash: -1.500mm ---
G0 X125.788 Y101.339 F1200
G1 X126.384 Y101.265 Z0.000 F1600
G0 Z3.5 F1000
G0 Z3.5 
G1 Z0 F1000
; --- FIX Y Backlash: 1.500mm ---
G0 X126.384 Y102.765 F1200
G1 X126.560 Y103.452 Z0.000 F1600
G0 Z3.5 F1000
G0 Z3.5 
G1 Z0 F1000
; --- FIX X Backlash: -1.400mm ---
G0 X125.160 Y103.452 F1200
G1 X124.602 Y103.673 Z0.000 F1600
G0 Z3.5 F1000
G0 Z3.5 
G1 Z0 F1000
G1 X124.508 Y103.731 Z0.000 F1600
G1 X124.423 Y103.801 Z0.000 F1600
G1 X124.339 Y103.885 Z0.000 F1600
G1 X124.261 Y103.976 Z0.000 F1600
G1 X124.113 Y104.192 Z0.000 F1600
G1 X123.992 Y104.423 Z0.000 F1600
G0 Z3.5 F1000
G0 Z3.5 
G1 Z0 F1000
; --- FIX X Backlash: 1.400mm ---
G0 X125.392 Y104.423 F1200
G1 X125.594 Y104.763 Z0.000 F1600
G0 Z3.5 F1000
G0 Z3.5 
G1 Z0 F1000
G1 X125.855 Y104.767 Z0.000 F1600
G1 X126.115 Y104.740 Z0.000 F1600
G1 X126.232 Y104.715 Z0.000 F1600
G1 X126.347 Y104.681 Z0.000 F1600
G1 X126.449 Y104.640 Z0.000 F1600
; --- FIX Y Backlash: -1.500mm ---
G0 X126.449 Y103.140 F1200
G1 X126.544 Y103.085 Z0.000 F1600
G0 Z3.5 F1000
G0 Z3.5 
G1 Z0 F1000
G1 X127.005 Y102.701 Z0.000 F1600
G0 Z3.5 F1000
G0 Z3.5 
G1 Z0 F1000
; --- FIX Y Backlash: 1.500mm ---
G0 X127.005 Y104.201 F1200
G1 X127.524 Y104.684 Z0.000 F1600
G0 Z3.5 F1000
G0 Z3.5 
G1 Z0 F1000
; --- FIX X Backlash: -1.400mm ---
G0 X126.124 Y104.684 F1200
G1 X125.775 Y105.171 Z0.000 F1600
G0 Z3.5 F1000
G0 Z3.5 
G1 Z0 F1000
G1 X125.727 Y105.270 Z0.000 F1600
G1 X125.693 Y105.375 Z0.000 F1600
G1 X125.668 Y105.492 Z0.000 F1600
G1 X125.652 Y105.611 Z0.000 F1600
G1 X125.644 Y105.872 Z0.000 F1600
G1 X125.667 Y106.132 Z0.000 F1600
G0 Z3.5 F1000
G0 Z3.5 
G1 Z0 F1000
; --- FIX X Backlash: 1.400mm ---
G0 X127.067 Y106.132 F1200
G1 X127.421 Y106.309 Z0.000 F1600
G0 Z3.5 F1000
G0 Z3.5 
G1 Z0 F1000
; --- FIX Y Backlash: -1.500mm ---
G0 X127.421 Y104.809 F1200
G1 X127.642 Y104.671 Z0.000 F1600
G1 X127.846 Y104.508 Z0.000 F1600
G1 X127.931 Y104.424 Z0.000 F1600
G1 X128.010 Y104.333 Z0.000 F1600
G1 X128.073 Y104.243 Z0.000 F1600
G1 X128.124 Y104.145 Z0.000 F1600
G0 Z3.5 F1000
G0 Z3.5 
G1 Z0 F1000
G1 X128.304 Y103.573 Z0.000 F1600
G0 Z3.5 F1000
G0 Z3.5 
G1 Z0 F1000
; --- FIX Y Backlash: 1.500mm ---
G0 X128.304 Y105.073 F1200
G1 X129.001 Y105.199 Z0.000 F1600
G0 Z3.5 F1000
G0 Z3.5 
G1 Z0 F1000
G1 X128.971 Y105.798 Z0.000 F1600
G0 Z3.5 F1000
G0 Z3.5 
G1 Z0 F1000
G1 X128.985 Y105.907 Z0.000 F1600
G1 X129.013 Y106.013 Z0.000 F1600
G1 X129.055 Y106.125 Z0.000 F1600
G1 X129.106 Y106.234 Z0.000 F1600
G1 X129.240 Y106.458 Z0.000 F1600
G1 X129.400 Y106.664 Z0.000 F1600
G0 Z3.5 F1000
G0 Z3.5 
G1 Z0 F1000
G1 X129.793 Y106.621 Z0.000 F1600
G0 Z3.5 F1000
G0 Z3.5 
G1 Z0 F1000
; --- FIX Y Backlash: -1.500mm ---
G0 X129.793 Y105.121 F1200
G1 X129.905 Y104.886 Z0.000 F1600
G1 X129.988 Y104.638 Z0.000 F1600
G1 X130.014 Y104.522 Z0.000 F1600
G1 X130.031 Y104.403 Z0.000 F1600
G1 X130.036 Y104.293 Z0.000 F1600
G1 X130.026 Y104.184 Z0.000 F1600
G0 Z3.5 F1000
G0 Z3.5 
G1 Z0 F1000
; --- FIX X Backlash: -1.400mm ---
G0 X128.626 Y104.184 F1200
G1 X128.468 Y103.605 Z0.000 F1600
G0 Z3.5 F1000
G0 Z3.5 
G1 Z0 F1000
; --- FIX X Backlash: 1.400mm ---
G0 X129.868 Y103.605 F1200
G1 X130.523 Y103.333 Z0.000 F1600
G0 Z3.5 F1000
G0 Z3.5 
G1 Z0 F1000
; --- FIX Y Backlash: 1.500mm ---
G0 X130.523 Y104.833 F1200
G1 X130.821 Y105.353 Z0.000 F1600
G0 Z3.5 F1000
G0 Z3.5 
G1 Z0 F1000
G1 X130.891 Y105.438 Z0.000 F1600
G1 X130.973 Y105.512 Z0.000 F1600
G1 X131.069 Y105.584 Z0.000 F1600
G1 X131.170 Y105.648 Z0.000 F1600
G1 X131.404 Y105.763 Z0.000 F1600
G1 X131.650 Y105.850 Z0.000 F1600
G0 Z3.5 F1000
G0 Z3.5 
G1 Z0 F1000
; --- FIX Y Backlash: -1.500mm ---
G0 X131.650 Y104.350 F1200
G1 X131.958 Y104.102 Z0.000 F1600
G0 Z3.5 F1000
G0 Z3.5 
G1 Z0 F1000
G1 X131.925 Y103.843 Z0.000 F1600
; --- FIX X Backlash: -1.400mm ---
G0 X130.525 Y103.843 F1200
G1 X130.461 Y103.590 Z0.000 F1600
G1 X130.420 Y103.478 Z0.000 F1600
G1 X130.370 Y103.369 Z0.000 F1600
G1 X130.315 Y103.273 Z0.000 F1600
G1 X130.247 Y103.187 Z0.000 F1600
G0 Z3.5 F1000
G0 Z3.5 
G1 Z0 F1000
G1 X129.801 Y102.785 Z0.000 F1600
G0 Z3.5 F1000
G0 Z3.5 
G1 Z0 F1000
; --- FIX X Backlash: 1.400mm ---
G0 X131.201 Y102.785 F1200
G1 X131.605 Y102.203 Z0.000 F1600
G0 Z3.5 F1000
G0 Z3.5 
G1 Z0 F1000
; --- FIX Y Backlash: 1.500mm ---
G0 X131.605 Y103.703 F1200
G1 X132.137 Y103.979 Z0.000 F1600
G0 Z3.5 F1000
G0 Z3.5 
G1 Z0 F1000
G1 X132.242 Y104.013 Z0.000 F1600
G1 X132.351 Y104.031 Z0.000 F1600
G1 X132.470 Y104.039 Z0.000 F1600
G1 X132.590 Y104.039 Z0.000 F1600
G1 X132.849 Y104.009 Z0.000 F1600
; --- FIX Y Backlash: -1.500mm ---
G0 X132.849 Y102.509 F1200
G1 X133.103 Y102.449 Z0.000 F1600
G0 Z3.5 F1000
G0 Z3.5 
G1 Z0 F1000
G1 X133.228 Y102.074 Z0.000 F1600
G0 Z3.5 F1000
G0 Z3.5 
G1 Z0 F1000
; --- FIX X Backlash: -1.400mm ---
G0 X131.828 Y102.074 F1200
G1 X131.660 Y101.874 Z0.000 F1600
G1 X131.470 Y101.696 Z0.000 F1600
G1 X131.374 Y101.623 Z0.000 F1600
G1 X131.273 Y101.559 Z0.000 F1600
G1 X131.176 Y101.508 Z0.000 F1600
G1 X131.072 Y101.473 Z0.000 F1600
G0 Z3.5 F1000
G0 Z3.5 
G1 Z0 F1000
G1 X130.480 Y101.375 Z0.000 F1600
G0 Z3.5 F1000
G0 Z3.5 
G1 Z0 F1000
G1 X130.504 Y100.667 Z0.000 F1600
G0 Z3.5 F1000
G0 Z3.5 
G1 Z0 F1000
; --- FIX X Backlash: 1.400mm ---
G0 X131.904 Y100.667 F1200
G1 X132.502 Y100.612 Z0.000 F1600
G0 Z3.5 F1000
G0 Z3.5 
G1 Z0 F1000
G1 X132.608 Y100.583 Z0.000 F1600
G1 X132.709 Y100.540 Z0.000 F1600
G1 X132.814 Y100.482 Z0.000 F1600
G1 X132.914 Y100.417 Z0.000 F1600
G1 X133.117 Y100.252 Z0.000 F1600
G1 X133.298 Y100.065 Z0.000 F1600
G0 Z3.5 F1000
G0 Z3.5 
G1 Z0 F1000
; --- FIX X Backlash: -1.400mm ---
G0 X131.898 Y100.065 F1200
G1 X131.800 Y99.681 Z0.000 F1600
G0 Z3.5 F1000
G0 Z3.5 
G1 Z0 F1000
G1 X131.551 Y99.604 Z0.000 F1600
G1 X131.294 Y99.557 Z0.000 F1600
G1 X131.175 Y99.547 Z0.000 F1600
G1 X131.055 Y99.547 Z0.000 F1600
G1 X130.945 Y99.558 Z0.000 F1600
G1 X130.839 Y99.584 Z0.000 F1600
G0 Z3.5 F1000
G0 Z3.5 
G1 Z0 F1000
; --- FIX Y Backlash: 1.500mm ---
G0 X130.839 Y101.084 F1200
G1 X130.288 Y101.323 Z0.000 F1600
G0 Z3.5 F1000
G0 Z3.5 
G1 Z0 F1000
; --- FIX Y Backlash: -1.500mm ---
G0 X130.288 Y99.823 F1200
G1 X129.926 Y99.214 Z0.000 F1600
G0 Z3.5 F1000
G0 Z3.5 
G1 Z0 F1000
; --- FIX X Backlash: 1.400mm ---
G0 X131.326 Y99.214 F1200
G1 X131.798 Y98.844 Z0.000 F1600
G0 Z3.5 F1000
G0 Z3.5 
G1 Z0 F1000
G1 X131.872 Y98.762 Z0.000 F1600
G1 X131.934 Y98.671 Z0.000 F1600
G1 X131.991 Y98.566 Z0.000 F1600
G1 X132.040 Y98.457 Z0.000 F1600
G1 X132.121 Y98.209 Z0.000 F1600
G1 X132.173 Y97.953 Z0.000 F1600
G0 Z3.5 F1000
G0 Z3.5 
G1 Z0 F1000
; --- FIX X Backlash: -1.400mm ---
G0 X130.773 Y97.953 F1200
G1 X130.483 Y97.684 Z0.000 F1600
G0 Z3.5 F1000
; --- FIX Y Backlash: 1.500mm ---
G0 X130.483 Y99.184 F1200
G0 X128.846 Y101.591 Z3.500
G1 Z0 F1000
; --- FIX Y Backlash: -1.500mm ---
G0 X128.846 Y100.091 F1200
G1 X126.694 Y100.016 Z0.000 F1600
G0 Z3.5 F1000
G0 Z3.5 
G1 Z0 F1000
; --- FIX Y Backlash: 1.500mm ---
G0 X126.694 Y101.516 F1200
G1 X126.552 Y101.711 Z0.000 F1600
G1 X126.448 Y101.923 Z0.000 F1600
G1 X126.382 Y102.147 Z0.000 F1600
G1 X126.354 Y102.377 Z0.000 F1600
G1 X126.366 Y102.608 Z0.000 F1600
G1 X126.416 Y102.836 Z0.000 F1600
; --- FIX X Backlash: 1.400mm ---
G0 X127.816 Y102.836 F1200
G1 X127.905 Y103.055 Z0.000 F1600
G1 X128.033 Y103.260 Z0.000 F1600
G0 Z3.5 F1000
G0 Z3.5 
G1 Z0 F1000
G1 X130.185 Y103.335 Z0.000 F1600
G0 Z3.5 F1000
G0 Z3.5 
G1 Z0 F1000
; --- FIX Y Backlash: -1.500mm ---
G0 X130.185 Y101.835 F1200
G1 X130.327 Y101.640 Z0.000 F1600
G1 X130.432 Y101.428 Z0.000 F1600
G1 X130.497 Y101.204 Z0.000 F1600
G1 X130.525 Y100.974 Z0.000 F1600
G1 X130.513 Y100.742 Z0.000 F1600
; --- FIX X Backlash: -1.400mm ---
G0 X129.113 Y100.742 F1200
G1 X129.063 Y100.514 Z0.000 F1600
G1 X128.974 Y100.296 Z0.000 F1600
G1 X128.846 Y100.091 Z0.000 F1600
G0 Z3.5 F1000
; --- FIX Y Backlash: 1.500mm ---
G0 X128.846 Y101.591 F1200
G0 X128.636 Y109.538 Z3.500
G1 Z0 F1000
G1 X128.393 Y109.538 Z0.000 F1600
G0 Z3.5 F1000
G0 Z3.5 
G1 Z0 F1000
G1 X128.000 Y109.538 Z0.000 F1600
G0 Z3.5 F1000
G0 Z3.5 
G1 Z0 F1000
G1 X127.571 Y109.538 Z0.000 F1600
G0 Z3.5 F1000
G0 Z3.5 
G1 Z0 F1000
G1 X126.904 Y109.538 Z0.000 F1600
G0 Z3.5 F1000
G0 Z3.5 
G1 Z0 F1000
G1 X126.724 Y109.538 Z0.000 F1600
G0 Z3.5 F1000
G0 Z3.5 
G1 Z0 F1000
G1 X126.021 Y109.538 Z0.000 F1600
G0 Z3.5 F1000
G0 Z3.5 
G1 Z0 F1000
G1 X125.667 Y109.538 Z0.000 F1600
G0 Z3.5 F1000
G0 Z3.5 
G1 Z0 F1000
G1 X125.643 Y109.538 Z0.000 F1600
G0 Z3.5 F1000
G0 Z3.5 
G1 Z0 F1000
G1 X125.605 Y109.538 Z0.000 F1600
G0 Z3.5 F1000
G0 Z3.5 
G1 Z0 F1000
G1 X125.144 Y109.538 Z0.000 F1600
G0 Z3.5 F1000
G0 Z3.5 
G1 Z0 F1000
G1 X124.194 Y109.538 Z0.000 F1600
G0 Z3.5 F1000
G0 Z3.5 
G1 Z0 F1000
G1 X123.992 Y109.538 Z0.000 F1600
G0 Z3.5 F1000
G0 Z3.5 
G1 Z0 F1000
G1 X123.493 Y109.538 Z0.000 F1600
G0 Z3.5 F1000
G0 Z3.5 
G1 Z0 F1000
G1 X123.493 Y112.104 Z0.000 F1600
G0 Z3.5 F1000
G0 Z3.5 
G1 Z0 F1000
; --- FIX X Backlash: 1.400mm ---
G0 X124.893 Y112.104 F1200
G1 X125.392 Y112.104 Z0.000 F1600
G0 Z3.5 F1000
G0 Z3.5 
G1 Z0 F1000
G1 X125.594 Y112.104 Z0.000 F1600
G0 Z3.5 F1000
G0 Z3.5 
G1 Z0 F1000
G1 X126.544 Y112.104 Z0.000 F1600
G0 Z3.5 F1000
G0 Z3.5 
G1 Z0 F1000
G1 X127.005 Y112.104 Z0.000 F1600
G0 Z3.5 F1000
G0 Z3.5 
G1 Z0 F1000
G1 X127.043 Y112.104 Z0.000 F1600
G0 Z3.5 F1000
G0 Z3.5 
G1 Z0 F1000
G1 X127.067 Y112.104 Z0.000 F1600
G0 Z3.5 F1000
G0 Z3.5 
G1 Z0 F1000
G1 X127.421 Y112.104 Z0.000 F1600
G0 Z3.5 F1000
G0 Z3.5 
G1 Z0 F1000
G1 X128.124 Y112.104 Z0.000 F1600
G0 Z3.5 F1000
G0 Z3.5 
G1 Z0 F1000
G1 X128.304 Y112.104 Z0.000 F1600
G0 Z3.5 F1000
G0 Z3.5 
G1 Z0 F1000
G1 X128.971 Y112.104 Z0.000 F1600
G0 Z3.5 F1000
G0 Z3.5 
G1 Z0 F1000
G1 X129.400 Y112.104 Z0.000 F1600
G0 Z3.5 F1000
G0 Z3.5 
G1 Z0 F1000
G1 X129.793 Y112.104 Z0.000 F1600
G0 Z3.5 F1000
G0 Z3.5 
G1 Z0 F1000
G1 X130.036 Y112.104 Z0.000 F1600
G0 Z3.5 F1000
G0 Z3.5 
G1 Z0 F1000
G1 X130.523 Y112.104 Z0.000 F1600
