;LightBurn 1.6.04
;Custom GCode device profile, absolute coords
;Bounds: X35.48 Y32.02 to X94.52 Y99.96
G00 G17 G40 G21 G54
G90
G1 Z10 F1000
;Scan @ 1500 mm/min, 90% power

M8
G0 Z4.8F1000
G0 X52.59Y46.09Z4.8
G1 Z0F1000
;Layer Blue
G91
G1 X2.5Z0S0F1800
G1 X1.453Z0S900F1800
G1 X16.948Z0S0F1800
G1 X1.392Z0S900F1800
G1 X2.5Z0S0F1800
G1 X1.271Y0.9Z0F1800
G1 X-2.5Z0F1800
G1 X-3.255Z0S900F1800
G1 X-15.772Z0S0F1800
G1 X-3.329Z0S900F1800
G1 X-2.5Z0S0F1800
G1 X-2.273Y0.9Z0F1800
G1 X2.5Z0F1800
G1 X6.19Z0S900F1800
G1 X14.586Z0S0F1800
G1 X6.028Z0S900F1800
G1 X2.5Z0S0F1800
G1 X-0.317Y0.9Z0F1800
G1 X-2.5Z0F1800
G1 X-6.308Z0S900F1800
G1 X-13.398Z0S0F1800
G1 X-6.305Z0S900F1800
G1 X-2.5Z0S0F1800
G1 X0.507Y0.9Z0F1800
G1 X2.5Z0F1800
G1 X6.394Z0S900F1800
G1 X12.195Z0S0F1800
G1 X6.404Z0S900F1800
G1 X2.5Z0S0F1800
G1 X-0.509Y0.9Z0F1800
G1 X-2.5Z0F1800
G1 X-6.509Z0S900F1800
G1 X-10.964Z0S0F1800
G1 X-6.523Z0S900F1800
G1 X-2.5Z0S0F1800
G1 X0.504Y0.9Z0F1800
G1 X2.5Z0F1800
G1 X6.646Z0S900F1800
G1 X9.707Z0S0F1800
G1 X6.643Z0S900F1800
G1 X2.5Z0S0F1800
G1 X-0.48Y0.9Z0F1800
G1 X-2.5Z0F1800
G1 X-6.816Z0S900F1800
G1 X-8.416Z0S0F1800
G1 X-6.812Z0S900F1800
G1 X-2.5Z0S0F1800
G1 X0.47Y0.9Z0F1800
G1 X2.5Z0F1800
G1 X6.605Z0S900F1800
G1 X7.82Z0S0F1800
G1 X6.692Z0S900F1800
G1 X2.5Z0S0F1800
G1 X-0.447Y0.9Z0F1800
G1 X-2.5Z0F1800
G1 X-4.791Z0S900F1800
G1 X-2.53Z0S0F1800
G1 X-0.239Z0S900F1800
G1 X-5.04Z0S0F1800
G1 X-0.304Z0S900F1800
G1 X-2.599Z0S0F1800
G1 X-4.731Z0S900F1800
G1 X-2.5Z0S0F1800
G1 X0.43Y0.9Z0F1800
G1 X2.5Z0F1800
G1 X2.818Z0S900F1800
G1 X2.52Z0S0F1800
G1 X2.756Z0S900F1800
G1 X3.148Z0S0F1800
G1 X2.762Z0S900F1800
G1 X2.467Z0S0F1800
G1 X2.91Z0S900F1800
G1 X2.5Z0S0F1800
G1 X-0.434Y0.9Z0F1800
G1 X-2.5Z0F1800
G1 X-0.958Z0S900F1800
G1 X-2.504Z0S0F1800
G1 X-4.963Z0S900F1800
G1 X-1.606Z0S0F1800
G1 X-5.056Z0S900F1800
G1 X-2.525Z0S0F1800
G1 X-0.909Z0S900F1800
G1 X-2.5Z0S0F1800
G1 X1.936Y0.9Z0F1800
G1 X2.5Z0F1800
G1 X7.312Z0S900F1800
G1 X1.562Z0S0F1800
G1 X5.729Z0S900F1800
G1 X2.5Z0S0F1800
G1 X1.323Y0.9Z0F1800
G1 X-2.5Z0F1800
G1 X-6.406Z0S900F1800
G1 X-1.499Z0S0F1800
G1 X-9.223Z0S900F1800
G1 X-2.5Z0S0F1800
G1 X0.232Y0.9Z0F1800
G1 X2.5Z0F1800
G1 X9.629Z0S900F1800
G1 X1.472Z0S0F1800
G1 X5.524Z0S900F1800
G1 X2.5Z0S0F1800
G1 X-0.3Y0.9Z0F1800
G1 X-2.5Z0F1800
G1 X-4.643Z0S900F1800
G1 X-1.466Z0S0F1800
G1 X-9.93Z0S900F1800
G1 X-2.5Z0S0F1800
G1 X0.307Y0.9Z0F1800
G1 X2.5Z0F1800
G1 X10.166Z0S900F1800
G1 X1.45Z0S0F1800
G1 X3.8Z0S900F1800
G1 X2.5Z0S0F1800
G1 X-0.341Y0.9Z0F1800
G1 X-2.5Z0F1800
G1 X-2.984Z0S900F1800
G1 X-1.415Z0S0F1800
G1 X-10.343Z0S900F1800
G1 X-2.5Z0S0F1800
G1 X0.375Y0.9Z0F1800
G1 X2.5Z0F1800
G1 X10.453Z0S900F1800
G1 X1.404Z0S0F1800
G1 X2.15Z0S900F1800
G1 X2.5Z0S0F1800
G1 X-0.367Y0.9Z0F1800
G1 X-2.5Z0F1800
G1 X-1.318Z0S900F1800
G1 X-1.404Z0S0F1800
G1 X-10.501Z0S900F1800
G1 X-2.5Z0S0F1800
G1 X0.462Y0.9Z0F1800
G1 X2.5Z0F1800
G1 X10.487Z0S900F1800
G1 X1.415Z0S0F1800
G1 X0.493Z0S900F1800
G1 X2.5Z0S0F1800
G1 X-1.475Y0.9Z0F1800
G1 X-2.5Z0F1800
G1 X-10.416Z0S900F1800
G1 X-2.5Z0S0F1800
G1 X0.543Y0.9Z0F1800
G1 X2.5Z0F1800
G1 X10.296Z0S900F1800
G1 X2.5Z0S0F1800
G1 X0.416Y0.9Z0F1800
G1 X-2.5Z0F1800
G1 X-10.137Z0S900F1800
G1 X-2.5Z0S0F1800
G1 X-1.519Y0.9Z0F1800
G1 X2.5Z0F1800
G1 X0.643Z0S900F1800
G1 X1.473Z0S0F1800
G1 X9.949Z0S900F1800
G1 X2.5Z0S0F1800
G1 X0.402Y0.9Z0F1800
G1 X-2.5Z0F1800
G1 X-9.736Z0S900F1800
G1 X-1.524Z0S0F1800
G1 X-1.624Z0S900F1800
G1 X-2.5Z0S0F1800
G1 X-0.403Y0.9Z0F1800
G1 X2.5Z0F1800
G1 X2.632Z0S900F1800
G1 X1.546Z0S0F1800
G1 X9.508Z0S900F1800
G1 X2.5Z0S0F1800
G1 X0.399Y0.9Z0F1800
G1 X-2.5Z0F1800
G1 X-9.274Z0S900F1800
G1 X-1.558Z0S0F1800
G1 X-3.653Z0S900F1800
G1 X-2.5Z0S0F1800
G1 X-0.401Y0.9Z0F1800
G1 X2.5Z0F1800
G1 X4.683Z0S900F1800
G1 X1.561Z0S0F1800
G1 X9.041Z0S900F1800
G1 X2.5Z0S0F1800
G1 X0.399Y0.9Z0F1800
G1 X-2.5Z0F1800
G1 X-8.81Z0S900F1800
G1 X-1.557Z0S0F1800
G1 X-5.702Z0S900F1800
G1 X-2.5Z0S0F1800
G1 X-0.398Y0.9Z0F1800
G1 X2.5Z0F1800
G1 X6.732Z0S900F1800
G1 X1.556Z0S0F1800
G1 X8.579Z0S900F1800
G1 X2.5Z0S0F1800
G1 X0.396Y0.9Z0F1800
G1 X-2.5Z0F1800
G1 X-8.338Z0S900F1800
G1 X-1.58Z0S0F1800
G1 X-7.747Z0S900F1800
G1 X-2.5Z0S0F1800
G1 X-0.397Y0.9Z0F1800
G1 X2.5Z0F1800
G1 X8.016Z0S900F1800
G1 X2.346Z0S0F1800
G1 X8.094Z0S900F1800
G1 X2.5Z0S0F1800
G1 X0.395Y0.9Z0F1800
G1 X-2.5Z0F1800
G1 X-7.846Z0S900F1800
G1 X-3.628Z0S0F1800
G1 X-7.773Z0S900F1800
G1 X-2.5Z0S0F1800
G1 X-0.397Y0.9Z0F1800
G1 X2.5Z0F1800
G1 X7.519Z0S900F1800
G1 X4.929Z0S0F1800
G1 X7.591Z0S900F1800
G1 X2.5Z0S0F1800
G1 X0.394Y0.9Z0F1800
G1 X-2.5Z0F1800
G1 X-7.328Z0S900F1800
G1 X-6.226Z0S0F1800
G1 X-7.276Z0S900F1800
G1 X-2.5Z0S0F1800
G1 X-0.399Y0.9Z0F1800
G1 X2.5Z0F1800
G1 X7.036Z0S900F1800
G1 X7.513Z0S0F1800
G1 X7.075Z0S900F1800
G1 X2.5Z0S0F1800
G1 X0.394Y0.9Z0F1800
G1 X-2.5Z0F1800
G1 X-6.824Z0S900F1800
G1 X-8.799Z0S0F1800
G1 X-6.794Z0S900F1800
G1 X-2.5Z0S0F1800
G1 X-0.397Y0.9Z0F1800
G1 X2.5Z0F1800
G1 X6.549Z0S900F1800
G1 X10.085Z0S0F1800
G1 X6.574Z0S900F1800
G1 X2.5Z0S0F1800
G1 X0.394Y0.9Z0F1800
G1 X-2.5Z0F1800
G1 X-6.323Z0S900F1800
G1 X-11.371Z0S0F1800
G1 X-6.304Z0S900F1800
G1 X-2.5Z0S0F1800
G1 X-0.396Y0.9Z0F1800
G1 X2.5Z0F1800
G1 X6.058Z0S900F1800
G1 X12.658Z0S0F1800
G1 X6.072Z0S900F1800
G1 X2.5Z0S0F1800
G1 X0.394Y0.9Z0F1800
G1 X-2.5Z0F1800
G1 X-5.821Z0S900F1800
G1 X-13.944Z0S0F1800
G1 X-5.809Z0S900F1800
G1 X-2.5Z0S0F1800
G1 X-0.394Y0.9Z0F1800
G1 X2.5Z0F1800
G1 X5.569Z0S900F1800
G1 X15.222Z0S0F1800
G1 X5.57Z0S900F1800
G1 X2.5Z0S0F1800
G1 X0.395Y0.9Z0F1800
G1 X-2.5Z0F1800
G1 X-5.321Z0S900F1800
G1 X-16.501Z0S0F1800
G1 X-5.336Z0S900F1800
G1 X-2.5Z0S0F1800
G1 X-0.397Y0.9Z0F1800
G1 X2.5Z0F1800
G1 X5.096Z0S900F1800
G1 X17.782Z0S0F1800
G1 X5.071Z0S900F1800
G1 X2.5Z0S0F1800
G1 X0.395Y0.9Z0F1800
G1 X-2.5Z0F1800
G1 X-4.823Z0S900F1800
G1 X-19.062Z0S0F1800
G1 X-4.852Z0S900F1800
G1 X-2.5Z0S0F1800
G1 X-0.393Y0.9Z0F1800
G1 X2.5Z0F1800
G1 X4.608Z0S900F1800
G1 X20.343Z0S0F1800
G1 X4.573Z0S900F1800
G1 X2.5Z0S0F1800
G1 X0.397Y0.9Z0F1800
G1 X-2.5Z0F1800
G1 X-4.333Z0S900F1800
G1 X-21.616Z0S0F1800
G1 X-4.365Z0S900F1800
G1 X-2.5Z0S0F1800
G1 X-0.396Y0.9Z0F1800
G1 X2.5Z0F1800
G1 X4.128Z0S900F1800
G1 X22.878Z0S0F1800
G1 X4.104Z0S900F1800
G1 X2.5Z0S0F1800
G1 X0.387Y0.9Z0F1800
G1 X-2.5Z0F1800
G1 X-3.858Z0S900F1800
G1 X-24.139Z0S0F1800
G1 X-3.877Z0S900F1800
G1 X-2.5Z0S0F1800
G1 X-0.377Y0.9Z0F1800
G1 X2.5Z0F1800
G1 X3.63Z0S900F1800
G1 X25.396Z0S0F1800
G1 X3.622Z0S900F1800
G1 X2.5Z0S0F1800
G1 X0.39Y0.9Z0F1800
G1 X-2.5Z0F1800
G1 X-3.381Z0S900F1800
G1 X-26.655Z0S0F1800
G1 X-3.4Z0S900F1800
G1 X-2.5Z0S0F1800
G1 X-0.389Y0.9Z0F1800
G1 X2.5Z0F1800
G1 X3.156Z0S900F1800
G1 X27.913Z0S0F1800
G1 X3.142Z0S900F1800
G1 X2.5Z0S0F1800
G1 X0.385Y0.9Z0F1800
G1 X-2.5Z0F1800
G1 X-2.902Z0S900F1800
G1 X-29.172Z0S0F1800
G1 X-2.909Z0S900F1800
G1 X-2.5Z0S0F1800
G1 X-0.384Y0.9Z0F1800
G1 X2.5Z0F1800
G1 X2.665Z0S900F1800
G1 X30.426Z0S0F1800
G1 X2.661Z0S900F1800
G1 X2.5Z0S0F1800
G1 X0.385Y0.9Z0F1800
G1 X-2.5Z0F1800
G1 X-2.421Z0S900F1800
G1 X-31.676Z0S0F1800
G1 X-2.424Z0S900F1800
G1 X-2.5Z0S0F1800
G1 X-0.384Y0.9Z0F1800
G1 X2.5Z0F1800
G1 X2.185Z0S900F1800
G1 X32.922Z0S0F1800
G1 X2.181Z0S900F1800
G1 X2.5Z0S0F1800
G1 X0.378Y0.9Z0F1800
G1 X-2.5Z0F1800
G1 X-1.926Z0S900F1800
G1 X-34.181Z0S0F1800
G1 X-1.94Z0S900F1800
G1 X-2.5Z0S0F1800
G1 X-0.382Y0.9Z0F1800
G1 X2.5Z0F1800
G1 X1.694Z0S900F1800
G1 X35.426Z0S0F1800
G1 X1.676Z0S900F1800
G1 X2.5Z0S0F1800
G1 X0.342Y0.9Z0F1800
G1 X-2.5Z0F1800
G1 X-1.398Z0S900F1800
G1 X-36.698Z0S0F1800
G1 X-1.378Z0S900F1800
G1 X-2.5Z0S0F1800
G90
;Cut @ 1500 mm/min, 90% power

M8
G0 Z4.8F1000
G0 X45.233Y99.432Z4.8F1500
G1 Z0F1000
;Layer Green
G1 X45.243Y99.615Z0S900F1800
G1 X45.296Y99.758Z0F1800
G1 X45.391Y99.861Z0F1800
G1 X45.529Y99.922Z0F1800
G1 X45.71Y99.944Z0F1800
G1 X45.86Y99.934Z0F1800
G1 X46.009Y99.876Z0F1800
G1 X46.092Y99.817Z0F1800
G1 X46.187Y99.732Z0F1800
G1 X46.298Y99.615Z0F1800
G1 X46.428Y99.463Z0F1800
G1 X46.581Y99.269Z0F1800
G1 X46.761Y99.029Z0F1800
G1 X46.973Y98.739Z0F1800
G1 X47.22Y98.393Z0F1800
G1 X47.506Y97.987Z0F1800
G1 X48.211Y96.974Z0F1800
G1 X49.527Y95.075Z0F1800
G1 X50.362Y93.875Z0F1800
G1 X51.442Y92.343Z0F1800
G1 X51.976Y91.581Z0F1800
G1 X52.401Y90.971Z0F1800
G1 X52.797Y90.398Z0F1800
G1 X53.312Y89.657Z0F1800
G1 X54.196Y88.399Z0F1800
G1 X56.77Y84.762Z0F1800
G1 X57.432Y83.823Z0F1800
G1 X57.734Y83.391Z0F1800
G1 X58.122Y82.844Z0F1800
G1 X61.289Y78.402Z0F1800
G1 X62.173Y77.155Z0F1800
G1 X62.725Y76.381Z0F1800
G1 X63.301Y75.589Z0F1800
G1 X63.669Y75.073Z0F1800
G1 X63.845Y74.818Z0F1800
G1 X63.972Y74.624Z0F1800
G1 X64.056Y74.484Z0F1800
G1 X64.102Y74.389Z0F1800
G1 X64.115Y74.331Z0F1800
G1 X64.103Y74.271Z0F1800
G1 X64.058Y74.175Z0F1800
G1 X63.967Y74.022Z0F1800
G1 X63.818Y73.793Z0F1800
G1 X63.717Y73.643Z0F1800
G1 X63.453Y73.26Z0F1800
G1 X63.096Y72.749Z0F1800
G1 X61.828Y70.947Z0F1800
G1 X61.351Y70.264Z0F1800
G1 X60.928Y69.651Z0F1800
G1 X60.56Y69.11Z0F1800
G1 X60.246Y68.641Z0F1800
G1 X59.987Y68.245Z0F1800
G1 X59.785Y67.923Z0F1800
G1 X59.639Y67.675Z0F1800
G1 X59.515Y67.461Z0F1800
G1 X59.406Y67.285Z0F1800
G1 X59.324Y67.166Z0F1800
G1 X59.28Y67.123Z0F1800
G1 X59.257Y67.151Z0F1800
G1 X59.211Y67.234Z0F1800
G1 X59.144Y67.364Z0F1800
G1 X59.059Y67.537Z0F1800
G1 X58.846Y67.986Z0F1800
G1 X58.595Y68.534Z0F1800
G1 X58.339Y69.102Z0F1800
G1 X57.887Y70.113Z0F1800
G1 X57.73Y70.472Z0F1800
G1 X57.226Y71.601Z0F1800
G1 X57.061Y71.983Z0F1800
G1 X57.004Y72.124Z0F1800
G1 X56.977Y72.205Z0F1800
G1 X56.926Y72.329Z0F1800
G1 X56.85Y72.502Z0F1800
G1 X56.638Y72.966Z0F1800
G1 X56.328Y73.655Z0F1800
G1 X54.624Y77.521Z0F1800
G1 X53.686Y79.637Z0F1800
G1 X52.608Y82.087Z0F1800
G1 X52.146Y83.147Z0F1800
G1 X51.798Y83.94Z0F1800
G1 X51.649Y84.27Z0F1800
G1 X51.38Y84.875Z0F1800
G1 X51.049Y85.627Z0F1800
G1 X49.817Y88.448Z0F1800
G1 X49.415Y89.36Z0F1800
G1 X49.275Y89.688Z0F1800
G1 X49.227Y89.809Z0F1800
G1 X49.201Y89.886Z0F1800
G1 X49.148Y90.011Z0F1800
G1 X49.07Y90.187Z0F1800
G1 X48.879Y90.607Z0F1800
G1 X48.801Y90.788Z0F1800
G1 X48.749Y90.92Z0F1800
G1 X48.711Y91.045Z0F1800
G1 X48.66Y91.172Z0F1800
G1 X48.585Y91.344Z0F1800
G1 X48.493Y91.543Z0F1800
G1 X48.368Y91.822Z0F1800
G1 X48.145Y92.334Z0F1800
G1 X47.456Y93.935Z0F1800
G1 X46.527Y96.113Z0F1800
G1 X45.457Y98.635Z0F1800
G1 X45.34Y98.942Z0F1800
G1 X45.265Y99.207Z0F1800
G1 X45.233Y99.432Z0F1800
G0 Z4.8F1000
G0 X76.57Y89.429Z4.8
G1 Z0F1000
G1 X77.858Y91.259Z0F1800
G1 X78.478Y92.145Z0F1800
G1 X79.585Y93.741Z0F1800
G1 X80.427Y94.95Z0F1800
G1 X80.955Y95.713Z0F1800
G1 X81.332Y96.261Z0F1800
G1 X81.593Y96.632Z0F1800
G1 X81.712Y96.792Z0F1800
G1 X81.971Y97.163Z0F1800
G1 X83.067Y98.763Z0F1800
G1 X83.328Y99.14Z0F1800
G1 X83.616Y99.547Z0F1800
G1 X83.746Y99.724Z0F1800
G1 X83.833Y99.834Z0F1800
G1 X83.88Y99.882Z0F1800
G1 X84.01Y99.941Z0F1800
G1 X84.16Y99.957Z0F1800
G1 X84.317Y99.937Z0F1800
G1 X84.47Y99.884Z0F1800
G1 X84.609Y99.805Z0F1800
G1 X84.722Y99.704Z0F1800
G1 X84.798Y99.586Z0F1800
G1 X84.826Y99.457Z0F1800
G1 X84.82Y99.408Z0F1800
G1 X84.8Y99.332Z0F1800
G1 X84.768Y99.227Z0F1800
G1 X84.723Y99.095Z0F1800
G1 X84.665Y98.936Z0F1800
G1 X84.595Y98.749Z0F1800
G1 X84.512Y98.534Z0F1800
G1 X84.308Y98.025Z0F1800
G1 X84.055Y97.407Z0F1800
G1 X83.752Y96.684Z0F1800
G1 X83.4Y95.855Z0F1800
G1 X81.709Y91.903Z0F1800
G1 X81.428Y91.255Z0F1800
G1 X81.305Y90.975Z0F1800
G1 X81.205Y90.756Z0F1800
G1 X81.005Y90.299Z0F1800
G1 X80.783Y89.777Z0F1800
G1 X80.565Y89.275Z0F1800
G1 X80.441Y88.999Z0F1800
G1 X79.887Y87.746Z0F1800
G1 X78.099Y83.666Z0F1800
G1 X76.06Y79.006Z0F1800
G1 X73.546Y73.272Z0F1800
G1 X73.163Y72.407Z0F1800
G1 X73.021Y72.091Z0F1800
G1 X71.37Y68.367Z0F1800
G1 X71.06Y67.675Z0F1800
G1 X70.759Y67.009Z0F1800
G1 X70.465Y66.368Z0F1800
G1 X69.9Y65.158Z0F1800
G1 X69.361Y64.038Z0F1800
G1 X68.844Y63.001Z0F1800
G1 X68.344Y62.039Z0F1800
G1 X67.858Y61.147Z0F1800
G1 X67.38Y60.316Z0F1800
G1 X66.908Y59.541Z0F1800
G1 X66.437Y58.812Z0F1800
G1 X65.962Y58.125Z0F1800
G1 X65.479Y57.471Z0F1800
G1 X64.475Y56.235Z0F1800
G1 X63.391Y55.048Z0F1800
G1 X63.075Y54.723Z0F1800
G1 X62.682Y54.326Z0F1800
G1 X62.518Y54.168Z0F1800
G1 X62.477Y54.131Z0F1800
G1 X62.425Y54.114Z0F1800
G1 X62.34Y54.127Z0F1800
G1 X62.21Y54.176Z0F1800
G1 X62.025Y54.266Z0F1800
G1 X61.774Y54.404Z0F1800
G1 X61.446Y54.595Z0F1800
G1 X61.029Y54.845Z0F1800
G1 X60.512Y55.16Z0F1800
G1 X59.796Y55.598Z0F1800
G1 X59.094Y56.024Z0F1800
G1 X58.429Y56.425Z0F1800
G1 X57.824Y56.787Z0F1800
G1 X57.304Y57.096Z0F1800
G1 X56.889Y57.339Z0F1800
G1 X56.605Y57.501Z0F1800
G1 X56.519Y57.547Z0F1800
G1 X56.474Y57.569Z0F1800
G1 X56.46Y57.601Z0F1800
G1 X56.464Y57.68Z0F1800
G1 X56.483Y57.801Z0F1800
G1 X56.518Y57.96Z0F1800
G1 X56.565Y58.153Z0F1800
G1 X56.625Y58.375Z0F1800
G1 X56.696Y58.623Z0F1800
G1 X56.776Y58.892Z0F1800
G1 X57.168Y60.099Z0F1800
G1 X57.611Y61.31Z0F1800
G1 X57.982Y62.209Z0F1800
G1 X58.388Y63.092Z0F1800
G1 X58.842Y63.985Z0F1800
G1 X59.361Y64.914Z0F1800
G1 X59.649Y65.4Z0F1800
G1 X59.958Y65.904Z0F1800
G1 X60.29Y66.43Z0F1800
G1 X60.648Y66.981Z0F1800
G1 X61.033Y67.559Z0F1800
G1 X61.447Y68.169Z0F1800
G1 X61.891Y68.814Z0F1800
G1 X62.369Y69.496Z0F1800
G1 X63.378Y70.931Z0F1800
G1 X64.891Y73.091Z0F1800
G1 X66.129Y74.838Z0F1800
G1 X66.94Y75.973Z0F1800
G1 X67.363Y76.559Z0F1800
G1 X67.654Y76.955Z0F1800
G1 X67.771Y77.11Z0F1800
G1 X68.727Y78.438Z0F1800
G1 X72.366Y83.518Z0F1800
G1 X75.06Y87.285Z0F1800
G1 X75.615Y88.064Z0F1800
G1 X76.57Y89.429Z0F1800
G0 Z4.8F1000
G0 X71.089Y64.502Z4.8
G1 Z0F1000
G1 X71.118Y64.475Z0F1800
G1 X71.145Y64.418Z0F1800
G1 X72.018Y62.274Z0F1800
G1 X72.285Y61.613Z0F1800
G1 X72.478Y61.118Z0F1800
G1 X72.668Y60.615Z0F1800
G1 X72.804Y60.242Z0F1800
G1 X72.955Y59.809Z0F1800
G1 X73.112Y59.349Z0F1800
G1 X73.264Y58.892Z0F1800
G1 X73.401Y58.472Z0F1800
G1 X73.511Y58.12Z0F1800
G1 X73.585Y57.869Z0F1800
G1 X73.604Y57.79Z0F1800
G1 X73.611Y57.749Z0F1800
G1 X73.571Y57.709Z0F1800
G1 X73.457Y57.625Z0F1800
G1 X73.277Y57.503Z0F1800
G1 X73.039Y57.347Z0F1800
G1 X72.751Y57.163Z0F1800
G1 X72.421Y56.957Z0F1800
G1 X72.057Y56.732Z0F1800
G1 X70.007Y55.489Z0F1800
G1 X68.742Y54.718Z0F1800
G1 X68.353Y54.483Z0F1800
G1 X68.02Y54.291Z0F1800
G1 X67.886Y54.216Z0F1800
G1 X67.779Y54.16Z0F1800
G1 X67.704Y54.124Z0F1800
G1 X67.665Y54.111Z0F1800
G1 X67.628Y54.127Z0F1800
G1 X67.559Y54.175Z0F1800
G1 X67.463Y54.251Z0F1800
G1 X67.343Y54.351Z0F1800
G1 X67.047Y54.614Z0F1800
G1 X66.703Y54.935Z0F1800
G1 X66.431Y55.199Z0F1800
G1 X66.213Y55.423Z0F1800
G1 X66.047Y55.609Z0F1800
G1 X65.932Y55.762Z0F1800
G1 X65.863Y55.884Z0F1800
G1 X65.838Y55.981Z0F1800
G1 X65.856Y56.055Z0F1800
G1 X65.913Y56.11Z0F1800
G1 X65.994Y56.179Z0F1800
G1 X66.11Y56.306Z0F1800
G1 X66.257Y56.484Z0F1800
G1 X66.431Y56.707Z0F1800
G1 X66.627Y56.968Z0F1800
G1 X66.839Y57.26Z0F1800
G1 X67.065Y57.577Z0F1800
G1 X67.298Y57.912Z0F1800
G1 X67.77Y58.608Z0F1800
G1 X68.219Y59.297Z0F1800
G1 X68.424Y59.621Z0F1800
G1 X68.608Y59.923Z0F1800
G1 X68.769Y60.197Z0F1800
G1 X68.9Y60.435Z0F1800
G1 X69.233Y61.065Z0F1800
G1 X69.945Y62.417Z0F1800
G1 X70.276Y63.057Z0F1800
G1 X70.732Y63.956Z0F1800
G1 X70.848Y64.178Z0F1800
G1 X70.937Y64.337Z0F1800
G1 X71.003Y64.44Z0F1800
G1 X71.052Y64.492Z0F1800
G1 X71.089Y64.502Z0F1800
G0 Z4.8F1000
G0 X73.998Y56.349Z4.8
G1 Z0F1000
G1 X74.027Y56.336Z0F1800
G1 X74.068Y56.293Z0F1800
G1 X74.119Y56.224Z0F1800
G1 X74.178Y56.131Z0F1800
G1 X74.315Y55.884Z0F1800
G1 X74.465Y55.573Z0F1800
G1 X75.176Y54.058Z0F1800
G1 X75.905Y52.605Z0F1800
G1 X76.292Y51.869Z0F1800
G1 X76.704Y51.109Z0F1800
G1 X77.148Y50.311Z0F1800
G1 X77.947Y48.908Z0F1800
G1 X78.209Y48.44Z0F1800
G1 X78.39Y48.108Z0F1800
G1 X78.441Y48.009Z0F1800
G1 X78.462Y47.962Z0F1800
G1 X78.423Y47.914Z0F1800
G1 X78.3Y47.852Z0F1800
G1 X78.114Y47.782Z0F1800
G1 X77.883Y47.713Z0F1800
G1 X77.468Y47.585Z0F1800
G1 X77.043Y47.419Z0F1800
G1 X76.614Y47.218Z0F1800
G1 X76.185Y46.985Z0F1800
G1 X75.761Y46.721Z0F1800
G1 X75.346Y46.431Z0F1800
G1 X74.944Y46.116Z0F1800
G1 X74.561Y45.78Z0F1800
G1 X74.384Y45.617Z0F1800
G1 X74.228Y45.476Z0F1800
G1 X74.111Y45.374Z0F1800
G1 X74.048Y45.325Z0F1800
G1 X74.005Y45.334Z0F1800
G1 X73.94Y45.394Z0F1800
G1 X73.863Y45.493Z0F1800
G1 X73.781Y45.622Z0F1800
G1 X73.669Y45.808Z0F1800
G1 X73.508Y46.063Z0F1800
G1 X73.321Y46.353Z0F1800
G1 X71.503Y49.091Z0F1800
G1 X70.627Y50.38Z0F1800
G1 X70.216Y50.973Z0F1800
G1 X69.837Y51.512Z0F1800
G1 X69.499Y51.982Z0F1800
G1 X69.014Y52.638Z0F1800
G1 X68.852Y52.869Z0F1800
G1 X68.789Y52.963Z0F1800
G1 X68.742Y53.037Z0F1800
G1 X68.712Y53.09Z0F1800
G1 X68.701Y53.118Z0F1800
G1 X68.748Y53.173Z0F1800
G1 X68.876Y53.27Z0F1800
G1 X69.064Y53.396Z0F1800
G1 X69.295Y53.538Z0F1800
G1 X69.834Y53.862Z0F1800
G1 X70.297Y54.151Z0F1800
G1 X70.745Y54.433Z0F1800
G1 X71.292Y54.77Z0F1800
G1 X71.89Y55.133Z0F1800
G1 X72.493Y55.493Z0F1800
G1 X72.781Y55.664Z0F1800
G1 X73.301Y55.968Z0F1800
G1 X73.707Y56.2Z0F1800
G1 X73.852Y56.28Z0F1800
G1 X73.951Y56.331Z0F1800
G1 X73.998Y56.349Z0F1800
G0 Z4.8F1000
G0 X61.238Y53.118Z4.8
G1 Z0F1000
G1 X61.251Y53.092Z0F1800
G1 X61.241Y53.06Z0F1800
G1 X61.211Y53.002Z0F1800
G1 X61.165Y52.923Z0F1800
G1 X61.103Y52.824Z0F1800
G1 X60.943Y52.584Z0F1800
G1 X60.749Y52.307Z0F1800
G1 X60.248Y51.603Z0F1800
G1 X59.748Y50.887Z0F1800
G1 X59.044Y49.867Z0F1800
G1 X58.706Y49.362Z0F1800
G1 X58.004Y48.297Z0F1800
G1 X57.226Y47.107Z0F1800
G1 X56.754Y46.382Z0F1800
G1 X56.382Y45.805Z0F1800
G1 X56.163Y45.458Z0F1800
G1 X56.128Y45.397Z0F1800
G1 X56.097Y45.335Z0F1800
G1 X56.058Y45.298Z0F1800
G1 X56.009Y45.287Z0F1800
G1 X55.948Y45.304Z0F1800
G1 X55.871Y45.349Z0F1800
G1 X55.776Y45.424Z0F1800
G1 X55.661Y45.53Z0F1800
G1 X55.522Y45.668Z0F1800
G1 X55.174Y46.01Z0F1800
G1 X54.852Y46.286Z0F1800
G1 X54.677Y46.417Z0F1800
G1 X54.481Y46.554Z0F1800
G1 X54.255Y46.704Z0F1800
G1 X53.988Y46.874Z0F1800
G1 X53.395Y47.201Z0F1800
G1 X52.731Y47.5Z0F1800
G1 X52.413Y47.624Z0F1800
G1 X52.127Y47.72Z0F1800
G1 X51.888Y47.782Z0F1800
G1 X51.713Y47.805Z0F1800
G1 X51.575Y47.824Z0F1800
G1 X51.522Y47.889Z0F1800
G1 X51.527Y47.942Z0F1800
G1 X51.552Y48.01Z0F1800
G1 X51.598Y48.095Z0F1800
G1 X51.752Y48.335Z0F1800
G1 X51.875Y48.538Z0F1800
G1 X52.025Y48.795Z0F1800
G1 X52.195Y49.091Z0F1800
G1 X52.564Y49.752Z0F1800
G1 X53.057Y50.666Z0F1800
G1 X53.175Y50.88Z0F1800
G1 X53.265Y51.039Z0F1800
G1 X53.336Y51.151Z0F1800
G1 X53.415Y51.292Z0F1800
G1 X53.604Y51.646Z0F1800
G1 X53.91Y52.234Z0F1800
G1 X54.048Y52.495Z0F1800
G1 X54.154Y52.692Z0F1800
G1 X54.215Y52.798Z0F1800
G1 X54.271Y52.903Z0F1800
G1 X54.384Y53.13Z0F1800
G1 X54.747Y53.876Z0F1800
G1 X55.23Y54.885Z0F1800
G1 X55.764Y56.011Z0F1800
G1 X55.839Y56.159Z0F1800
G1 X55.909Y56.276Z0F1800
G1 X55.966Y56.35Z0F1800
G1 X56.001Y56.368Z0F1800
G1 X60.577Y53.591Z0F1800
G1 X60.839Y53.425Z0F1800
G1 X61.054Y53.276Z0F1800
G1 X61.136Y53.212Z0F1800
G1 X61.198Y53.159Z0F1800
G1 X61.238Y53.118Z0F1800
;Offset @ 1500 mm/min, 90% power

M8
G0 Z4.8F1000
G0 X45.436Y36.032Z4.8
G1 Z0F1000
;Layer Green
G1 X45.46Y36.336Z0F1800
G1 X45.505Y36.704Z0F1800
G1 X45.632Y37.519Z0F1800
G1 X45.795Y38.303Z0F1800
G1 X46.052Y39.255Z0F1800
G1 X46.341Y40.167Z0F1800
G1 X46.666Y41.048Z0F1800
G1 X47.03Y41.904Z0F1800
G1 X47.435Y42.739Z0F1800
G1 X47.882Y43.555Z0F1800
G1 X48.374Y44.357Z0F1800
G1 X48.908Y45.148Z0F1800
G1 X49.347Y45.748Z0F1800
G1 X49.338Z0F1800
G1 X49.17Y45.675Z0F1800
G1 X48.978Y45.566Z0F1800
G1 X48.754Y45.412Z0F1800
G1 X48.507Y45.21Z0F1800
G1 X48.237Y44.961Z0F1800
G1 X47.923Y44.641Z0F1800
G1 X47.609Y44.295Z0F1800
G1 X47.529Y44.194Z0F1800
G1 X47.406Y44.018Z0F1800
G1 X47.271Y43.812Z0F1800
G1 X47.104Y43.543Z0F1800
G1 X46.785Y42.995Z0F1800
G1 X46.514Y42.478Z0F1800
G1 X46.348Y42.114Z0F1800
G1 X46.196Y41.727Z0F1800
G1 X46.061Y41.328Z0F1800
G1 X45.931Y40.874Z0F1800
G1 X45.818Y40.401Z0F1800
G1 X45.709Y39.86Z0F1800
G1 X45.606Y39.258Z0F1800
G1 X45.515Y38.626Z0F1800
G1 X45.502Y38.5Z0F1800
G1 X45.488Y38.289Z0F1800
G1 X45.475Y38.032Z0F1800
G1 X45.463Y37.728Z0F1800
G1 X45.445Y37.017Z0F1800
G1 X45.434Y36.241Z0F1800
G1 Y35.888Z0F1800
G1 Y36.032Z0F1800
G0 Z4.8F1000
G0 X48.772Y38.958Z4.8
G1 Z0F1000
G1 X48.259Y37.865Z0F1800
G1 X47.891Y37.025Z0F1800
G1 X48.116Y37.256Z0F1800
G1 X48.521Y37.677Z0F1800
G1 X48.737Y37.908Z0F1800
G1 X48.948Y38.143Z0F1800
G1 X49.149Y38.374Z0F1800
G1 X49.388Y38.656Z0F1800
G1 X49.679Y39.003Z0F1800
G1 X50.469Y39.999Z0F1800
G1 X51.173Y40.995Z0F1800
G1 X51.798Y42.002Z0F1800
G1 X52.362Y43.046Z0F1800
G1 X52.681Y43.724Z0F1800
G1 X52.967Y44.402Z0F1800
G1 X53.094Y44.73Z0F1800
G1 X53.111Y44.778Z0F1800
G1 X53.065Y44.813Z0F1800
G1 X52.656Y45.085Z0F1800
G1 X52.629Y45.1Z0F1800
G1 X52.514Y44.958Z0F1800
G1 X52.321Y44.711Z0F1800
G1 X52.136Y44.466Z0F1800
G1 X51.709Y43.884Z0F1800
G1 X51.289Y43.288Z0F1800
G1 X50.857Y42.652Z0F1800
G1 X50.468Y42.056Z0F1800
G1 X50.113Y41.486Z0F1800
G1 X49.828Y40.999Z0F1800
G1 X49.3Y40.012Z0F1800
G1 X48.772Y38.958Z0F1800
G0 Z4.8F1000
G0 X46.504Y34.899Z4.8
G1 Z0F1000
G1 X45.695Y34.83Z0F1800
G1 X45.444Y35.665Z0F1800
G1 X45.432Y35.87Z0F1800
G1 Y35.477Z0F1800
G1 X45.436Y34.773Z0F1800
G1 X45.442Y34.464Z0F1800
G1 X45.45Y34.226Z0F1800
G1 X45.461Y34.022Z0F1800
G1 X45.471Y33.905Z0F1800
G1 X45.558Y33.234Z0F1800
G1 X45.848Y33.34Z0F1800
G1 X46.634Y33.657Z0F1800
G1 X47.406Y33.993Z0F1800
G1 X48.201Y34.363Z0F1800
G1 X48.953Y34.737Z0F1800
G1 X49.67Y35.119Z0F1800
G1 X50.309Y35.486Z0F1800
G1 X50.875Y35.842Z0F1800
G1 X51.381Y36.194Z0F1800
G1 X51.861Y36.556Z0F1800
G1 X52.307Y36.921Z0F1800
G1 X52.73Y37.301Z0F1800
G1 X53.109Y37.674Z0F1800
G1 X53.454Y38.047Z0F1800
G1 X53.778Y38.438Z0F1800
G1 X54.057Y38.814Z0F1800
G1 X54.307Y39.197Z0F1800
G1 X54.519Y39.57Z0F1800
G1 X54.701Y39.949Z0F1800
G1 X54.844Y40.313Z0F1800
G1 X54.959Y40.683Z0F1800
G1 X55.038Y41.038Z0F1800
G1 X55.086Y41.396Z0F1800
G1 X55.103Y41.75Z0F1800
G1 X55.1Y41.836Z0F1800
G1 X54.801Y41.263Z0F1800
G1 X54.476Y40.69Z0F1800
G1 X54.133Y40.13Z0F1800
G1 X53.777Y39.593Z0F1800
G1 X53.413Y39.091Z0F1800
G1 X52.892Y38.44Z0F1800
G1 X52.341Y37.816Z0F1800
G1 X51.764Y37.223Z0F1800
G1 X51.164Y36.663Z0F1800
G1 X50.543Y36.137Z0F1800
G1 X49.905Y35.65Z0F1800
G1 X49.252Y35.204Z0F1800
G1 X48.596Y34.807Z0F1800
G1 X48.304Y34.646Z0F1800
G1 X48.051Y34.518Z0F1800
G1 X47.494Y34.322Z0F1800
G1 X46.504Y34.899Z0F1800
G0 Z4.8F1000
G0 X44.534Y36.253Z4.8
G1 Z0F1000
G1 X44.53Y35.469Z0F1800
G1 X44.536Y34.755Z0F1800
G1 X44.542Y34.445Z0F1800
G1 X44.551Y34.179Z0F1800
G1 X44.563Y33.964Z0F1800
G1 X44.576Y33.809Z0F1800
G1 X44.713Y32.741Z0F1800
G1 X44.75Y32.463Z0F1800
G1 X44.784Y32.235Z0F1800
G1 X44.81Y32.082Z0F1800
G1 X44.824Y32.025Z0F1800
G1 X44.876Y32.041Z0F1800
G1 X45.188Y32.145Z0F1800
G1 X45.409Y32.221Z0F1800
G1 X46.173Y32.501Z0F1800
G1 X46.971Y32.822Z0F1800
G1 X47.781Y33.175Z0F1800
G1 X48.587Y33.55Z0F1800
G1 X49.367Y33.938Z0F1800
G1 X50.104Y34.33Z0F1800
G1 X50.777Y34.717Z0F1800
G1 X51.368Y35.089Z0F1800
G1 X51.909Y35.464Z0F1800
G1 X52.418Y35.848Z0F1800
G1 X52.896Y36.241Z0F1800
G1 X53.342Y36.641Z0F1800
G1 X53.756Y37.047Z0F1800
G1 X54.137Y37.46Z0F1800
G1 X54.483Y37.878Z0F1800
G1 X54.796Y38.3Z0F1800
G1 X55.075Y38.727Z0F1800
G1 X55.318Y39.155Z0F1800
G1 X55.525Y39.586Z0F1800
G1 X55.695Y40.018Z0F1800
G1 X55.829Y40.45Z0F1800
G1 X55.925Y40.882Z0F1800
G1 X55.983Y41.313Z0F1800
G1 X56.003Y41.741Z0F1800
G1 X55.993Y42.077Z0F1800
G1 X55.962Y42.38Z0F1800
G1 X55.908Y42.661Z0F1800
G1 X55.83Y42.932Z0F1800
G1 X55.667Y43.338Z0F1800
G1 X55.456Y43.789Z0F1800
G1 X55.353Y43.989Z0F1800
G1 X55.26Y44.153Z0F1800
G1 X55.188Y44.263Z0F1800
G1 X55.144Y44.303Z0F1800
G1 X55.119Y44.259Z0F1800
G1 X55.071Y44.141Z0F1800
G1 X55.008Y43.965Z0F1800
G1 X54.936Y43.75Z0F1800
G1 X54.765Y43.281Z0F1800
G1 X54.549Y42.773Z0F1800
G1 X54.295Y42.24Z0F1800
G1 X54.01Y41.693Z0F1800
G1 X53.701Y41.147Z0F1800
G1 X53.374Y40.614Z0F1800
G1 X53.037Y40.106Z0F1800
G1 X52.697Y39.637Z0F1800
G1 X52.203Y39.02Z0F1800
G1 X51.681Y38.429Z0F1800
G1 X51.133Y37.866Z0F1800
G1 X50.565Y37.335Z0F1800
G1 X49.979Y36.838Z0F1800
G1 X49.377Y36.379Z0F1800
G1 X48.765Y35.961Z0F1800
G1 X48.145Y35.586Z0F1800
G1 X47.883Y35.441Z0F1800
G1 X47.698Y35.348Z0F1800
G1 X47.588Y35.309Z0F1800
G1 X47.555Y35.328Z0F1800
G1 X47.567Y35.361Z0F1800
G1 X47.599Y35.409Z0F1800
G1 X47.65Y35.473Z0F1800
G1 X47.72Y35.554Z0F1800
G1 X47.81Y35.652Z0F1800
G1 X48.048Y35.901Z0F1800
G1 X48.765Y36.632Z0F1800
G1 X49.18Y37.063Z0F1800
G1 X49.407Y37.307Z0F1800
G1 X49.618Y37.542Z0F1800
G1 X49.834Y37.791Z0F1800
G1 X50.078Y38.078Z0F1800
G1 X50.369Y38.425Z0F1800
G1 X51.19Y39.46Z0F1800
G1 X51.923Y40.497Z0F1800
G1 X52.579Y41.552Z0F1800
G1 X53.167Y42.641Z0F1800
G1 X53.5Y43.35Z0F1800
G1 X53.807Y44.078Z0F1800
G1 X53.934Y44.406Z0F1800
G1 X54.033Y44.686Z0F1800
G1 X54.097Y44.9Z0F1800
G1 X54.121Y45.032Z0F1800
G1 X54.079Y45.117Z0F1800
G1 X53.967Y45.238Z0F1800
G1 X53.798Y45.385Z0F1800
G1 X53.589Y45.545Z0F1800
G1 X53.113Y45.862Z0F1800
G1 X52.663Y46.097Z0F1800
G1 X52.505Y46.155Z0F1800
G1 X52.396Z0F1800
G1 X52.293Y46.086Z0F1800
G1 X52.151Y45.931Z0F1800
G1 X51.985Y45.735Z0F1800
G1 X51.805Y45.512Z0F1800
G1 X51.612Y45.266Z0F1800
G1 X51.41Y44.998Z0F1800
G1 X50.983Y44.417Z0F1800
G1 X50.544Y43.794Z0F1800
G1 X50.112Y43.158Z0F1800
G1 X49.706Y42.535Z0F1800
G1 X49.343Y41.953Z0F1800
G1 X49.042Y41.438Z0F1800
G1 X48.507Y40.437Z0F1800
G1 X47.962Y39.349Z0F1800
G1 X47.437Y38.23Z0F1800
G1 X46.958Y37.141Z0F1800
G1 X46.741Y36.629Z0F1800
G1 X46.556Y36.204Z0F1800
G1 X46.424Y35.909Z0F1800
G1 X46.384Y35.825Z0F1800
G1 X46.364Y35.79Z0F1800
G1 X46.347Z0F1800
G1 X46.336Y35.823Z0F1800
G1 X46.333Y35.889Z0F1800
G1 Y35.984Z0F1800
G1 X46.356Y36.246Z0F1800
G1 X46.396Y36.58Z0F1800
G1 X46.518Y37.357Z0F1800
G1 X46.671Y38.094Z0F1800
G1 X46.916Y39.002Z0F1800
G1 X47.192Y39.875Z0F1800
G1 X47.503Y40.716Z0F1800
G1 X47.85Y41.532Z0F1800
G1 X48.235Y42.326Z0F1800
G1 X48.661Y43.104Z0F1800
G1 X49.13Y43.87Z0F1800
G1 X49.645Y44.63Z0F1800
G1 X50.097Y45.249Z0F1800
G1 X50.553Y45.845Z0F1800
G1 X50.754Y46.098Z0F1800
G1 X50.922Y46.301Z0F1800
G1 X51.045Y46.439Z0F1800
G1 X51.112Y46.499Z0F1800
G1 X51.156Y46.553Z0F1800
G1 X51.174Y46.643Z0F1800
G1 X51.119Y46.691Z0F1800
G1 X50.969Y46.727Z0F1800
G1 X50.747Y46.75Z0F1800
G1 X50.473Y46.761Z0F1800
G1 X49.857Y46.744Z0F1800
G1 X49.298Y46.67Z0F1800
G1 X49.038Y46.596Z0F1800
G1 X48.772Y46.483Z0F1800
G1 X48.5Y46.33Z0F1800
G1 X48.216Y46.133Z0F1800
G1 X47.919Y45.892Z0F1800
G1 X47.606Y45.603Z0F1800
G1 X47.274Y45.265Z0F1800
G1 X46.921Y44.876Z0F1800
G1 X46.807Y44.731Z0F1800
G1 X46.667Y44.532Z0F1800
G1 X46.508Y44.29Z0F1800
G1 X46.339Y44.018Z0F1800
G1 X45.999Y43.432Z0F1800
G1 X45.704Y42.871Z0F1800
G1 X45.519Y42.465Z0F1800
G1 X45.352Y42.04Z0F1800
G1 X45.2Y41.59Z0F1800
G1 X45.063Y41.109Z0F1800
G1 X44.938Y40.589Z0F1800
G1 X44.824Y40.025Z0F1800
G1 X44.719Y39.41Z0F1800
G1 X44.622Y38.737Z0F1800
G1 X44.605Y38.573Z0F1800
G1 X44.59Y38.35Z0F1800
G1 X44.576Y38.077Z0F1800
G1 X44.564Y37.762Z0F1800
G1 X44.545Y37.041Z0F1800
G1 X44.534Y36.253Z0F1800
G0 Z4.8F1000
G0 X84.526Y36.618Z4.8
G1 Z0F1000
G1 X84.522Y37.009Z0F1800
G1 X84.516Y37.378Z0F1800
G1 X84.507Y37.698Z0F1800
G1 X84.48Y38.295Z0F1800
G1 X84.438Y38.834Z0F1800
G1 X84.308Y39.77Z0F1800
G1 X84.099Y40.698Z0F1800
G1 X83.845Y41.523Z0F1800
G1 X83.525Y42.313Z0F1800
G1 X83.145Y43.066Z0F1800
G1 X82.713Y43.77Z0F1800
G1 X82.25Y44.392Z0F1800
G1 X81.767Y44.924Z0F1800
G1 X81.54Y45.134Z0F1800
G1 X81.306Y45.323Z0F1800
G1 X81.081Y45.479Z0F1800
G1 X80.852Y45.61Z0F1800
G1 X80.662Y45.702Z0F1800
G1 X80.729Y45.612Z0F1800
G1 X81.027Y45.203Z0F1800
G1 X81.311Y44.807Z0F1800
G1 X81.563Y44.442Z0F1800
G1 X81.77Y44.131Z0F1800
G1 X82.09Y43.606Z0F1800
G1 X82.402Y43.049Z0F1800
G1 X82.702Y42.467Z0F1800
G1 X82.99Y41.859Z0F1800
G1 X83.508Y40.617Z0F1800
G1 X83.949Y39.337Z0F1800
G1 X84.178Y38.476Z0F1800
G1 X84.375Y37.542Z0F1800
G1 X84.455Y37.092Z0F1800
G1 X84.514Y36.683Z0F1800
G1 X84.526Y36.558Z0F1800
G1 Y36.618Z0F1800
G0 Z4.8F1000
G0 X81.16Y39.115Z4.8
G1 Z0F1000
G1 X80.631Y40.146Z0F1800
G1 X80.083Y41.13Z0F1800
G1 X79.51Y42.077Z0F1800
G1 X78.904Y42.999Z0F1800
G1 X78.267Y43.897Z0F1800
G1 X77.571Y44.81Z0F1800
G1 X77.351Y45.09Z0F1800
G1 X77.168Y44.98Z0F1800
G1 X76.88Y44.788Z0F1800
G1 X76.826Y44.747Z0F1800
G1 X76.832Y44.732Z0F1800
G1 X76.937Y44.47Z0F1800
G1 X77.082Y44.134Z0F1800
G1 X77.25Y43.763Z0F1800
G1 X77.445Y43.354Z0F1800
G1 X77.643Y42.956Z0F1800
G1 X78.07Y42.158Z0F1800
G1 X78.527Y41.394Z0F1800
G1 X79.042Y40.617Z0F1800
G1 X79.593Y39.863Z0F1800
G1 X80.211Y39.087Z0F1800
G1 X80.899Y38.29Z0F1800
G1 X81.656Y37.47Z0F1800
G1 X82.133Y36.982Z0F1800
G1 X81.679Y38.017Z0F1800
G1 X81.16Y39.115Z0F1800
G0 Z4.8F1000
G0 X74.952Y41.646Z4.8
G1 Z0F1000
G1 Y41.49Z0F1800
G1 X74.958Y41.252Z0F1800
G1 X74.968Y41.075Z0F1800
G1 X74.98Y40.945Z0F1800
G1 X75.022Y40.712Z0F1800
G1 X75.097Y40.464Z0F1800
G1 X75.28Y39.984Z0F1800
G1 X75.494Y39.531Z0F1800
G1 X75.745Y39.092Z0F1800
G1 X76.049Y38.642Z0F1800
G1 X76.402Y38.192Z0F1800
G1 X76.805Y37.739Z0F1800
G1 X77.278Y37.263Z0F1800
G1 X77.807Y36.778Z0F1800
G1 X78.078Y36.546Z0F1800
G1 X78.33Y36.352Z0F1800
G1 X78.471Y36.253Z0F1800
G1 X78.649Y36.132Z0F1800
G1 X78.877Y35.982Z0F1800
G1 X79.506Y35.575Z0F1800
G1 X79.924Y35.301Z0F1800
G1 X80.098Y35.183Z0F1800
G1 X80.124Y35.164Z0F1800
G1 X80.199Y35.113Z0F1800
G1 X80.316Y35.046Z0F1800
G1 X80.515Y34.941Z0F1800
G1 X80.766Y34.816Z0F1800
G1 X81.073Y34.667Z0F1800
G1 X81.396Y34.515Z0F1800
G1 X81.761Y34.348Z0F1800
G1 X82.129Y34.181Z0F1800
G1 X82.901Y33.842Z0F1800
G1 X83.663Y33.52Z0F1800
G1 X83.997Y33.384Z0F1800
G1 X84.31Y33.261Z0F1800
G1 X84.432Y33.215Z0F1800
G1 X84.445Y33.391Z0F1800
G1 X84.479Y33.994Z0F1800
G1 X84.505Y34.686Z0F1800
G1 X84.522Y35.441Z0F1800
G1 X84.525Y35.798Z0F1800
G1 X84.503Y35.649Z0F1800
G1 X83.877Y34.726Z0F1800
G1 X83.36Y35.052Z0F1800
G1 X83.425Y34.567Z0F1800
G1 X82.342Y34.407Z0F1800
G1 X82.059Y34.479Z0F1800
G1 X81.908Y34.539Z0F1800
G1 X81.771Y34.602Z0F1800
G1 X81.5Y34.745Z0F1800
G1 X81.183Y34.926Z0F1800
G1 X80.508Y35.347Z0F1800
G1 X79.866Y35.792Z0F1800
G1 X79.482Y36.098Z0F1800
G1 X79.066Y36.455Z0F1800
G1 X78.64Y36.842Z0F1800
G1 X78.228Y37.233Z0F1800
G1 X77.854Y37.604Z0F1800
G1 X77.545Y37.932Z0F1800
G1 X77.413Y38.085Z0F1800
G1 X77.292Y38.238Z0F1800
G1 X77.218Y38.355Z0F1800
G1 X77.125Y38.437Z0F1800
G1 X76.931Y38.637Z0F1800
G1 X76.737Y38.862Z0F1800
G1 X76.361Y39.345Z0F1800
G1 X76Y39.855Z0F1800
G1 X75.655Y40.388Z0F1800
G1 X75.329Y40.937Z0F1800
G1 X75.024Y41.499Z0F1800
G1 X74.952Y41.646Z0F1800
G0 Z4.8F1000
G0 X74.153Y42.978Z4.8
G1 Z0F1000
G1 X74.086Y42.704Z0F1800
G1 X74.068Y42.538Z0F1800
G1 X74.058Y42.335Z0F1800
G1 X74.053Y42.083Z0F1800
G1 Y41.766Z0F1800
G1 Y41.469Z0F1800
G1 X74.059Y41.22Z0F1800
G1 X74.07Y41.009Z0F1800
G1 X74.087Y40.825Z0F1800
G1 X74.146Y40.501Z0F1800
G1 X74.246Y40.169Z0F1800
G1 X74.45Y39.635Z0F1800
G1 X74.695Y39.117Z0F1800
G1 X74.984Y38.611Z0F1800
G1 X75.321Y38.113Z0F1800
G1 X75.709Y37.617Z0F1800
G1 X76.151Y37.12Z0F1800
G1 X76.651Y36.616Z0F1800
G1 X77.213Y36.102Z0F1800
G1 X77.509Y35.848Z0F1800
G1 X77.794Y35.628Z0F1800
G1 X77.959Y35.512Z0F1800
G1 X78.154Y35.381Z0F1800
G1 X78.389Y35.226Z0F1800
G1 X79.015Y34.821Z0F1800
G1 X79.424Y34.552Z0F1800
G1 X79.583Y34.444Z0F1800
G1 X79.618Y34.42Z0F1800
G1 X79.72Y34.35Z0F1800
G1 X79.886Y34.255Z0F1800
G1 X80.106Y34.14Z0F1800
G1 X80.374Y34.006Z0F1800
G1 X80.681Y33.857Z0F1800
G1 X81.021Y33.697Z0F1800
G1 X81.385Y33.53Z0F1800
G1 X81.767Y33.357Z0F1800
G1 X82.551Y33.013Z0F1800
G1 X83.313Y32.691Z0F1800
G1 X83.667Y32.547Z0F1800
G1 X83.992Y32.419Z0F1800
G1 X84.282Y32.31Z0F1800
G1 X84.529Y32.223Z0F1800
G1 X84.755Y32.149Z0F1800
G1 X84.949Y32.087Z0F1800
G1 X85.088Y32.045Z0F1800
G1 X85.153Y32.029Z0F1800
G1 X85.179Y32.051Z0F1800
G1 X85.205Y32.119Z0F1800
G1 X85.23Y32.231Z0F1800
G1 X85.254Y32.382Z0F1800
G1 X85.278Y32.571Z0F1800
G1 X85.301Y32.793Z0F1800
G1 X85.323Y33.046Z0F1800
G1 X85.343Y33.327Z0F1800
G1 X85.378Y33.959Z0F1800
G1 X85.405Y34.666Z0F1800
G1 X85.422Y35.42Z0F1800
G1 X85.428Y36.199Z0F1800
G1 Y36.627Z0F1800
G1 X85.422Y37.024Z0F1800
G1 X85.416Y37.394Z0F1800
G1 X85.406Y37.739Z0F1800
G1 X85.378Y38.365Z0F1800
G1 X85.334Y38.925Z0F1800
G1 X85.194Y39.931Z0F1800
G1 X84.969Y40.934Z0F1800
G1 X84.695Y41.822Z0F1800
G1 X84.345Y42.686Z0F1800
G1 X83.93Y43.509Z0F1800
G1 X83.46Y44.273Z0F1800
G1 X82.949Y44.962Z0F1800
G1 X82.406Y45.558Z0F1800
G1 X82.127Y45.816Z0F1800
G1 X81.844Y46.045Z0F1800
G1 X81.56Y46.242Z0F1800
G1 X81.274Y46.406Z0F1800
G1 X80.926Y46.573Z0F1800
G1 X80.638Y46.668Z0F1800
G1 X80.481Y46.697Z0F1800
G1 X80.298Y46.716Z0F1800
G1 X80.074Y46.731Z0F1800
G1 X79.794Y46.743Z0F1800
G1 X79.445Y46.75Z0F1800
G1 X79.147Y46.746Z0F1800
G1 X79.028Y46.74Z0F1800
G1 X78.934Y46.731Z0F1800
G1 X78.869Y46.72Z0F1800
G1 X78.837Y46.706Z0F1800
G1 X78.828Y46.656Z0F1800
G1 X78.859Y46.573Z0F1800
G1 X78.924Y46.467Z0F1800
G1 X79.018Y46.349Z0F1800
G1 X79.202Y46.129Z0F1800
G1 X79.439Y45.828Z0F1800
G1 X79.712Y45.47Z0F1800
G1 X80.004Y45.078Z0F1800
G1 X80.298Y44.676Z0F1800
G1 X80.575Y44.288Z0F1800
G1 X80.818Y43.938Z0F1800
G1 X81.01Y43.648Z0F1800
G1 X81.313Y43.151Z0F1800
G1 X81.609Y42.624Z0F1800
G1 X81.895Y42.069Z0F1800
G1 X82.167Y41.493Z0F1800
G1 X82.666Y40.296Z0F1800
G1 X83.087Y39.074Z0F1800
G1 X83.303Y38.267Z0F1800
G1 X83.492Y37.371Z0F1800
G1 X83.566Y36.949Z0F1800
G1 X83.621Y36.574Z0F1800
G1 X83.651Y36.27Z0F1800
G1 Y36.06Z0F1800
G1 X83.642Y35.983Z0F1800
G1 X83.621Y35.952Z0F1800
G1 X83.585Y35.974Z0F1800
G1 X83.53Y36.059Z0F1800
G1 X83.451Y36.214Z0F1800
G1 X83.344Y36.449Z0F1800
G1 X83.203Y36.772Z0F1800
G1 X83.024Y37.191Z0F1800
G1 X82.498Y38.39Z0F1800
G1 X81.966Y39.514Z0F1800
G1 X81.423Y40.574Z0F1800
G1 X80.86Y41.585Z0F1800
G1 X80.272Y42.557Z0F1800
G1 X79.65Y43.503Z0F1800
G1 X78.988Y44.436Z0F1800
G1 X78.278Y45.367Z0F1800
G1 X77.641Y46.177Z0F1800
G1 X77.601Y46.191Z0F1800
G1 X77.528Y46.18Z0F1800
G1 X77.428Y46.146Z0F1800
G1 X77.305Y46.091Z0F1800
G1 X77.01Y45.936Z0F1800
G1 X76.682Y45.738Z0F1800
G1 X76.359Y45.522Z0F1800
G1 X76.081Y45.313Z0F1800
G1 X75.97Y45.219Z0F1800
G1 X75.885Y45.136Z0F1800
G1 X75.831Y45.066Z0F1800
G1 X75.812Y45.014Z0F1800
G1 X75.832Y44.884Z0F1800
G1 X75.891Y44.685Z0F1800
G1 X75.985Y44.425Z0F1800
G1 X76.11Y44.114Z0F1800
G1 X76.262Y43.762Z0F1800
G1 X76.438Y43.376Z0F1800
G1 X76.632Y42.968Z0F1800
G1 X76.842Y42.545Z0F1800
G1 X77.285Y41.719Z0F1800
G1 X77.768Y40.91Z0F1800
G1 X78.298Y40.111Z0F1800
G1 X78.88Y39.313Z0F1800
G1 X79.521Y38.509Z0F1800
G1 X80.227Y37.69Z0F1800
G1 X81.004Y36.849Z0F1800
G1 X82.09Y35.739Z0F1800
G1 X82.271Y35.538Z0F1800
G1 X82.338Y35.457Z0F1800
G1 X82.386Y35.394Z0F1800
G1 X82.413Y35.35Z0F1800
G1 X82.416Y35.328Z0F1800
G1 X82.389Y35.324Z0F1800
G1 X82.337Y35.337Z0F1800
G1 X82.264Y35.366Z0F1800
G1 X82.17Y35.41Z0F1800
G1 X81.932Y35.534Z0F1800
G1 X81.645Y35.699Z0F1800
G1 X81.002Y36.099Z0F1800
G1 X80.403Y36.515Z0F1800
G1 X80.056Y36.792Z0F1800
G1 X79.662Y37.13Z0F1800
G1 X79.252Y37.501Z0F1800
G1 X78.854Y37.879Z0F1800
G1 X78.499Y38.232Z0F1800
G1 X78.213Y38.535Z0F1800
G1 X78.107Y38.658Z0F1800
G1 X78.029Y38.757Z0F1800
G1 X77.983Y38.83Z0F1800
G1 X77.974Y38.872Z0F1800
G1 X77.977Y38.943Z0F1800
G1 X77.925Y38.961Z0F1800
G1 X77.858Y38.992Z0F1800
G1 X77.743Y39.091Z0F1800
G1 X77.596Y39.244Z0F1800
G1 X77.434Y39.433Z0F1800
G1 X77.084Y39.882Z0F1800
G1 X76.745Y40.36Z0F1800
G1 X76.42Y40.862Z0F1800
G1 X76.112Y41.381Z0F1800
G1 X75.824Y41.912Z0F1800
G1 X75.56Y42.449Z0F1800
G1 X75.324Y42.985Z0F1800
G1 X75.118Y43.515Z0F1800
G1 X74.855Y44.241Z0F1800
G1 X74.676Y43.99Z0F1800
G1 X74.484Y43.672Z0F1800
G1 X74.274Y43.263Z0F1800
G1 X74.153Y42.978Z0F1800
;Cut @ 1500 mm/min, 80% power

M8
G0 Z4.8F1000
G0 X72.463Y45.073Z4.8
G1 Z0F1000
;Layer Red
G1 X72.363Y45.042Z0S800F1800
G1 X72.235Y45.003Z0F1800
G1 X71.904Y44.91Z0F1800
G1 X71.5Y44.802Z0F1800
G1 X70.586Y44.57Z0F1800
G1 X69.72Y44.368Z0F1800
G1 X69.236Y44.262Z0F1800
G1 X68.614Y41.116Z0F1800
G1 X68.509Y40.62Z0F1800
G1 X68.407Y40.204Z0F1800
G1 X68.362Y40.04Z0F1800
G1 X68.321Y39.912Z0F1800
G1 X68.287Y39.826Z0F1800
G1 X68.261Y39.787Z0F1800
G1 X68.236Y39.78Z0F1800
G1 X68.184Y39.774Z0F1800
G1 X68.004Y39.762Z0F1800
G1 X67.732Y39.75Z0F1800
G1 X67.38Y39.741Z0F1800
G1 X66.959Y39.732Z0F1800
G1 X66.483Y39.726Z0F1800
G1 X65.961Y39.722Z0F1800
G1 X65.406Z0F1800
G1 X64.682Z0F1800
G1 X64.084Y39.725Z0F1800
G1 X63.601Y39.731Z0F1800
G1 X63.222Y39.741Z0F1800
G1 X62.94Y39.755Z0F1800
G1 X62.743Y39.773Z0F1800
G1 X62.623Y39.795Z0F1800
G1 X62.568Y39.821Z0F1800
G1 X62.547Y39.864Z0F1800
G1 X62.518Y39.948Z0F1800
G1 X62.484Y40.068Z0F1800
G1 X62.445Y40.218Z0F1800
G1 X62.357Y40.592Z0F1800
G1 X62.266Y41.029Z0F1800
G1 X62.17Y41.513Z0F1800
G1 X62.018Y42.252Z0F1800
G1 X61.832Y43.13Z0F1800
G1 X61.772Y43.434Z0F1800
G1 X61.722Y43.707Z0F1800
G1 X61.688Y43.912Z0F1800
G1 X61.671Y44.052Z0F1800
G1 X61.652Y44.156Z0F1800
G1 X61.614Y44.231Z0F1800
G1 X61.539Y44.286Z0F1800
G1 X61.407Y44.332Z0F1800
G1 X61.199Y44.377Z0F1800
G1 X61.062Y44.401Z0F1800
G1 X60.296Y44.53Z0F1800
G1 X60.146Y44.552Z0F1800
G1 X60.029Y44.564Z0F1800
G1 X59.939Y44.567Z0F1800
G1 X59.82Y44.541Z0F1800
G1 X59.74Y44.475Z0F1800
G1 X59.705Y44.43Z0F1800
G1 X59.578Y44.251Z0F1800
G1 X59.272Y43.804Z0F1800
G1 X59.016Y43.422Z0F1800
G1 X58.451Y42.567Z0F1800
G1 X57.764Y41.505Z0F1800
G1 X57.625Y41.301Z0F1800
G1 X57.569Y41.222Z0F1800
G1 X57.525Y41.162Z0F1800
G1 X57.493Y41.125Z0F1800
G1 X57.476Y41.111Z0F1800
G1 X57.468Y41.132Z0F1800
G1 X57.46Y41.193Z0F1800
G1 X57.453Y41.29Z0F1800
G1 X57.447Y41.417Z0F1800
G1 X57.437Y41.749Z0F1800
G1 X57.431Y42.471Z0F1800
G1 X57.425Y42.73Z0F1800
G1 X57.413Y42.946Z0F1800
G1 X57.393Y43.131Z0F1800
G1 X57.323Y43.464Z0F1800
G1 X57.201Y43.837Z0F1800
G1 X56.972Y44.477Z0F1800
G1 X58.811Y47.225Z0F1800
G1 X59.366Y48.047Z0F1800
G1 X59.794Y48.675Z0F1800
G1 X60.002Y48.973Z0F1800
G1 X60.074Y49.071Z0F1800
G1 X60.087Y49.086Z0F1800
G1 X60.15Z0F1800
G1 X60.282Y49.067Z0F1800
G1 X60.462Y49.028Z0F1800
G1 X60.671Y48.973Z0F1800
G1 X61.096Y48.869Z0F1800
G1 X61.564Y48.779Z0F1800
G1 X62.068Y48.702Z0F1800
G1 X62.602Y48.639Z0F1800
G1 X63.738Y48.555Z0F1800
G1 X64.921Y48.527Z0F1800
G1 X66.104Y48.554Z0F1800
G1 X67.238Y48.637Z0F1800
G1 X67.771Y48.699Z0F1800
G1 X68.274Y48.775Z0F1800
G1 X68.74Y48.865Z0F1800
G1 X69.163Y48.969Z0F1800
G1 X69.406Y49.035Z0F1800
G1 X69.593Y49.082Z0F1800
G1 X69.735Y49.111Z0F1800
G1 X69.838Y49.121Z0F1800
G1 X69.965Y49.084Z0F1800
G1 X70.042Y48.972Z0F1800
G1 X70.077Y48.912Z0F1800
G1 X70.147Y48.802Z0F1800
G1 X70.375Y48.457Z0F1800
G1 X70.692Y47.988Z0F1800
G1 X71.064Y47.445Z0F1800
G1 X72.315Y45.627Z0F1800
G1 X72.431Y45.448Z0F1800
G1 X72.516Y45.291Z0F1800
G1 X72.562Y45.174Z0F1800
G1 Y45.114Z0F1800
G1 X72.53Y45.098Z0F1800
G1 X72.463Y45.073Z0F1800
G0 Z4.8F1000
G0 X79.402Y48.979Z4.8
G1 Z0F1000
G1 X78.391Y50.967Z0F1800
G1 X78.073Y51.586Z0F1800
G1 X77.814Y52.084Z0F1800
G1 X77.646Y52.401Z0F1800
G1 X77.606Y52.473Z0F1800
G1 X77.555Y52.592Z0F1800
G1 X77.603Y52.723Z0F1800
G1 X77.678Y52.813Z0F1800
G1 X77.797Y52.932Z0F1800
G1 X77.964Y53.087Z0F1800
G1 X78.185Y53.287Z0F1800
G1 X79.117Y54.156Z0F1800
G1 X79.975Y55.026Z0F1800
G1 X80.764Y55.901Z0F1800
G1 X81.485Y56.783Z0F1800
G1 X82.142Y57.678Z0F1800
G1 X82.737Y58.588Z0F1800
G1 X83.274Y59.517Z0F1800
G1 X83.755Y60.469Z0F1800
G1 X83.947Y60.901Z0F1800
G1 X84.148Y61.397Z0F1800
G1 X84.351Y61.937Z0F1800
G1 X84.55Y62.503Z0F1800
G1 X84.738Y63.075Z0F1800
G1 X84.909Y63.635Z0F1800
G1 X85.057Y64.164Z0F1800
G1 X85.175Y64.643Z0F1800
G1 X85.391Y65.753Z0F1800
G1 X85.546Y66.898Z0F1800
G1 X85.641Y68.064Z0F1800
G1 X85.675Y69.238Z0F1800
G1 X85.65Y70.405Z0F1800
G1 X85.564Y71.552Z0F1800
G1 X85.417Y72.665Z0F1800
G1 X85.211Y73.729Z0F1800
G1 X85.129Y74.064Z0F1800
G1 X85.028Y74.447Z0F1800
G1 X84.913Y74.857Z0F1800
G1 X84.791Y75.274Z0F1800
G1 X84.668Y75.677Z0F1800
G1 X84.55Y76.045Z0F1800
G1 X84.444Y76.357Z0F1800
G1 X84.354Y76.594Z0F1800
G1 X84.101Y77.208Z0F1800
G1 X84.054Y77.315Z0F1800
G1 X83.993Y77.45Z0F1800
G1 X83.832Y77.785Z0F1800
G1 X83.637Y78.18Z0F1800
G1 X83.424Y78.601Z0F1800
G1 X83.21Y79.014Z0F1800
G1 X83.013Y79.387Z0F1800
G1 X82.849Y79.685Z0F1800
G1 X82.785Y79.796Z0F1800
G1 X82.736Y79.875Z0F1800
G1 X82.588Y80.097Z0F1800
G1 X82.389Y80.389Z0F1800
G1 X82.158Y80.723Z0F1800
G1 X81.684Y81.398Z0F1800
G1 X81.4Y81.795Z0F1800
G1 X81.283Y81.953Z0F1800
G1 X81.088Y82.183Z0F1800
G1 X80.804Y82.525Z0F1800
G1 X80.436Y82.958Z0F1800
G1 X80.068Y83.371Z0F1800
G1 X79.921Y83.534Z0F1800
G1 X79.792Y83.682Z0F1800
G1 X79.696Y83.798Z0F1800
G1 X79.646Y83.866Z0F1800
G1 Y83.922Z0F1800
G1 X79.669Y84.031Z0F1800
G1 X79.723Y84.193Z0F1800
G1 X79.807Y84.412Z0F1800
G1 X79.921Y84.688Z0F1800
G1 X80.066Y85.023Z0F1800
G1 X80.242Y85.419Z0F1800
G1 X80.518Y86.027Z0F1800
G1 X80.707Y86.464Z0F1800
G1 X80.946Y87.027Z0F1800
G1 X81.075Y87.32Z0F1800
G1 X81.191Y87.574Z0F1800
G1 X81.293Y87.785Z0F1800
G1 X81.379Y87.953Z0F1800
G1 X81.45Y88.076Z0F1800
G1 X81.504Y88.151Z0F1800
G1 X81.54Y88.176Z0F1800
G1 X81.604Y88.14Z0F1800
G1 X81.728Y88.043Z0F1800
G1 X81.895Y87.898Z0F1800
G1 X82.086Y87.722Z0F1800
G1 X82.907Y86.943Z0F1800
G1 X84.363Y87.62Z0F1800
G1 X85.634Y88.197Z0F1800
G1 X86.031Y88.372Z0F1800
G1 X86.363Y88.504Z0F1800
G1 X86.635Y88.592Z0F1800
G1 X86.856Y88.638Z0F1800
G1 X87.031Y88.643Z0F1800
G1 X87.168Y88.607Z0F1800
G1 X87.274Y88.531Z0F1800
G1 X87.355Y88.417Z0F1800
G1 X87.388Y88.364Z0F1800
G1 X87.453Y88.267Z0F1800
G1 X87.666Y87.959Z0F1800
G1 X87.97Y87.527Z0F1800
G1 X88.343Y87.003Z0F1800
G1 X89.199Y85.811Z0F1800
G1 X90.043Y84.65Z0F1800
G1 X90.238Y84.373Z0F1800
G1 X90.398Y84.123Z0F1800
G1 X90.459Y84.016Z0F1800
G1 X90.505Y83.927Z0F1800
G1 X90.535Y83.858Z0F1800
G1 X90.545Y83.814Z0F1800
G1 X90.505Y83.711Z0F1800
G1 X90.395Y83.546Z0F1800
G1 X90.232Y83.341Z0F1800
G1 X90.033Y83.119Z0F1800
G1 X88.826Y81.841Z0F1800
G1 X88.293Y81.271Z0F1800
G1 X88.096Y81.055Z0F1800
G1 X87.939Y80.879Z0F1800
G1 X87.819Y80.736Z0F1800
G1 X87.73Y80.623Z0F1800
G1 X87.67Y80.534Z0F1800
G1 X87.633Y80.463Z0F1800
G1 X87.616Y80.406Z0F1800
G1 X87.624Y80.313Z0F1800
G1 X87.717Y80.056Z0F1800
G1 X87.808Y79.823Z0F1800
G1 X87.922Y79.545Z0F1800
G1 X88.33Y78.57Z0F1800
G1 X88.704Y77.641Z0F1800
G1 X88.806Y77.41Z0F1800
G1 X88.891Y77.236Z0F1800
G1 X88.948Y77.143Z0F1800
G1 X88.999Y77.115Z0F1800
G1 X89.102Y77.091Z0F1800
G1 X89.264Y77.069Z0F1800
G1 X89.491Y77.05Z0F1800
G1 X89.787Y77.032Z0F1800
G1 X90.16Y77.016Z0F1800
G1 X90.615Y77.001Z0F1800
G1 X91.779Y76.971Z0F1800
G1 X92.27Y76.955Z0F1800
G1 X92.649Y76.939Z0F1800
G1 X92.931Y76.92Z0F1800
G1 X93.132Y76.898Z0F1800
G1 X93.268Y76.871Z0F1800
G1 X93.356Y76.837Z0F1800
G1 X93.413Y76.796Z0F1800
G1 X93.48Y76.683Z0F1800
G1 X93.552Y76.483Z0F1800
G1 X93.624Y76.213Z0F1800
G1 X93.69Y75.888Z0F1800
G1 X93.801Y75.272Z0F1800
G1 X93.936Y74.547Z0F1800
G1 X94.35Y72.375Z0F1800
G1 X94.429Y71.934Z0F1800
G1 X94.486Y71.552Z0F1800
G1 X94.504Y71.397Z0F1800
G1 X94.515Y71.272Z0F1800
G1 X94.518Y71.182Z0F1800
G1 X94.512Y71.133Z0F1800
G1 X94.465Y71.04Z0F1800
G1 X94.323Y70.953Z0F1800
G1 X94.178Y70.893Z0F1800
G1 X93.96Y70.813Z0F1800
G1 X92.694Y70.368Z0F1800
G1 X92.164Y70.178Z0F1800
G1 X91.67Y69.997Z0F1800
G1 X91.229Y69.833Z0F1800
G1 X90.854Y69.689Z0F1800
G1 X90.56Y69.572Z0F1800
G1 X90.448Y69.525Z0F1800
G1 X90.362Y69.487Z0F1800
G1 X90.304Y69.459Z0F1800
G1 X90.276Y69.44Z0F1800
G1 X90.261Y69.397Z0F1800
G1 X90.244Y69.296Z0F1800
G1 X90.226Y69.146Z0F1800
G1 X90.207Y68.952Z0F1800
G1 X90.169Y68.459Z0F1800
G1 X90.133Y67.869Z0F1800
G1 X90.101Y67.261Z0F1800
G1 X90.069Y66.718Z0F1800
G1 X90.042Y66.301Z0F1800
G1 X90.023Y66.068Z0F1800
G1 X90.014Y65.898Z0F1800
G1 X90.054Y65.784Z0F1800
G1 X90.103Y65.736Z0F1800
G1 X90.176Y65.685Z0F1800
G1 X90.277Y65.628Z0F1800
G1 X91.463Y65.005Z0F1800
G1 X92.533Y64.413Z0F1800
G1 X92.999Y64.146Z0F1800
G1 X93.379Y63.921Z0F1800
G1 X93.527Y63.83Z0F1800
G1 X93.641Y63.755Z0F1800
G1 X93.719Y63.7Z0F1800
G1 X93.756Y63.666Z0F1800
G1 X93.791Y63.596Z0F1800
G1 X93.81Y63.505Z0F1800
G1 X93.813Y63.391Z0F1800
G1 X93.8Y63.251Z0F1800
G1 X93.77Y63.083Z0F1800
G1 X93.723Y62.883Z0F1800
G1 X93.658Y62.651Z0F1800
G1 X93.576Y62.382Z0F1800
G1 X93.44Y61.948Z0F1800
G1 X92.802Y59.897Z0F1800
G1 X92.681Y59.514Z0F1800
G1 X92.569Y59.17Z0F1800
G1 X92.466Y58.867Z0F1800
G1 X92.374Y58.609Z0F1800
G1 X92.292Y58.397Z0F1800
G1 X92.223Y58.236Z0F1800
G1 X92.167Y58.127Z0F1800
G1 X92.126Y58.074Z0F1800
G1 X92.071Y58.037Z0F1800
G1 X92.003Y58.012Z0F1800
G1 X91.891Y58.001Z0F1800
G1 X91.703Y58.007Z0F1800
G1 X91.572Y58.016Z0F1800
G1 X91.213Y58.049Z0F1800
G1 X90.703Y58.102Z0F1800
G1 X88.621Y58.332Z0F1800
G1 X88.389Y58.355Z0F1800
G1 X88.194Y58.369Z0F1800
G1 X88.031Y58.374Z0F1800
G1 X87.897Y58.369Z0F1800
G1 X87.787Y58.352Z0F1800
G1 X87.624Y58.283Z0F1800
G1 X87.505Y58.157Z0F1800
G1 X87.398Y57.967Z0F1800
G1 X87.269Y57.706Z0F1800
G1 X86.884Y56.998Z0F1800
G1 X86.443Y56.245Z0F1800
G1 X86.256Y55.933Z0F1800
G1 X86.103Y55.664Z0F1800
G1 X86.044Y55.555Z0F1800
G1 X85.999Y55.468Z0F1800
G1 X85.971Y55.405Z0F1800
G1 X85.961Y55.372Z0F1800
G1 X85.985Y55.318Z0F1800
G1 X86.055Y55.198Z0F1800
G1 X86.165Y55.018Z0F1800
G1 X86.31Y54.787Z0F1800
G1 X86.486Y54.512Z0F1800
G1 X86.91Y53.862Z0F1800
G1 X87.394Y53.128Z0F1800
G1 X87.62Y52.778Z0F1800
G1 X87.822Y52.457Z0F1800
G1 X87.996Y52.172Z0F1800
G1 X88.138Y51.931Z0F1800
G1 X88.245Y51.738Z0F1800
G1 X88.312Y51.601Z0F1800
G1 X88.335Y51.527Z0F1800
G1 X88.319Y51.464Z0F1800
G1 X88.272Y51.376Z0F1800
G1 X88.192Y51.26Z0F1800
G1 X88.078Y51.115Z0F1800
G1 X87.928Y50.939Z0F1800
G1 X87.742Y50.732Z0F1800
G1 X87.517Y50.49Z0F1800
G1 X87.253Y50.214Z0F1800
G1 X86.206Y49.132Z0F1800
G1 X85.658Y48.572Z0F1800
G1 X85.218Y48.13Z0F1800
G1 X84.877Y47.795Z0F1800
G1 X84.74Y47.665Z0F1800
G1 X84.624Y47.558Z0F1800
G1 X84.528Y47.473Z0F1800
G1 X84.39Y47.365Z0F1800
G1 X84.316Y47.331Z0F1800
G1 X84.253Y47.357Z0F1800
G1 X84.122Y47.429Z0F1800
G1 X83.93Y47.543Z0F1800
G1 X83.686Y47.694Z0F1800
G1 X83.396Y47.877Z0F1800
G1 X83.071Y48.087Z0F1800
G1 X82.716Y48.319Z0F1800
G1 X82.342Y48.567Z0F1800
G1 X80.49Y49.803Z0F1800
G1 X79.402Y48.979Z0F1800
G0 Z4.8F1000
G0 X52.483Y52.652Z4.8
G1 Z0F1000
G1 X52.455Y52.577Z0F1800
G1 X52.378Y52.417Z0F1800
G1 X52.264Y52.198Z0F1800
G1 X51.822Y51.383Z0F1800
G1 X51.43Y50.645Z0F1800
G1 X50.744Y49.335Z0F1800
G1 X50.608Y49.08Z0F1800
G1 X50.55Y48.977Z0F1800
G1 X50.505Y48.994Z0F1800
G1 X50.404Y49.062Z0F1800
G1 X50.261Y49.171Z0F1800
G1 X49.915Y49.457Z0F1800
G1 X49.756Y49.586Z0F1800
G1 X49.63Y49.684Z0F1800
G1 X49.556Y49.737Z0F1800
G1 X49.516Y49.732Z0F1800
G1 X49.433Y49.698Z0F1800
G1 X49.314Y49.638Z0F1800
G1 X49.162Y49.554Z0F1800
G1 X48.777Y49.326Z0F1800
G1 X48.315Y49.038Z0F1800
G1 X47.81Y48.712Z0F1800
G1 X47.297Y48.37Z0F1800
G1 X46.814Y48.035Z0F1800
G1 X46.193Y47.585Z0F1800
G1 X46.024Y47.48Z0F1800
G1 X45.88Y47.416Z0F1800
G1 X45.75Y47.392Z0F1800
G1 X45.628Y47.407Z0F1800
G1 X45.503Y47.462Z0F1800
G1 X45.369Y47.556Z0F1800
G1 X45.216Y47.688Z0F1800
G1 X45.109Y47.791Z0F1800
G1 X44.945Y47.954Z0F1800
G1 X44.477Y48.426Z0F1800
G1 X43.879Y49.039Z0F1800
G1 X43.217Y49.725Z0F1800
G1 X42.748Y50.215Z0F1800
G1 X42.378Y50.607Z0F1800
G1 X42.095Y50.915Z0F1800
G1 X41.984Y51.04Z0F1800
G1 X41.89Y51.149Z0F1800
G1 X41.753Y51.323Z0F1800
G1 X41.673Y51.449Z0F1800
G1 X41.64Y51.538Z0F1800
G1 X41.643Y51.604Z0F1800
G1 X41.666Y51.657Z0F1800
G1 X41.709Y51.741Z0F1800
G1 X41.771Y51.851Z0F1800
G1 X41.848Y51.982Z0F1800
G1 X42.04Y52.293Z0F1800
G1 X42.262Y52.639Z0F1800
G1 X42.481Y52.972Z0F1800
G1 X42.728Y53.358Z0F1800
G1 X42.813Y53.496Z0F1800
G1 X42.837Y53.541Z0F1800
G1 X42.929Y53.686Z0F1800
G1 X43.199Y54.092Z0F1800
G1 X44.048Y55.345Z0F1800
G1 X43.702Y55.873Z0F1800
G1 X43.622Y55.999Z0F1800
G1 X43.526Y56.156Z0F1800
G1 X43.302Y56.536Z0F1800
G1 X43.059Y56.964Z0F1800
G1 X42.683Y57.649Z0F1800
G1 X42.562Y57.863Z0F1800
G1 X42.459Y58.034Z0F1800
G1 X42.371Y58.168Z0F1800
G1 X42.297Y58.265Z0F1800
G1 X42.233Y58.331Z0F1800
G1 X42.178Y58.368Z0F1800
G1 X42.129Y58.38Z0F1800
G1 X42.055Y58.376Z0F1800
G1 X41.696Y58.346Z0F1800
G1 X41.113Y58.291Z0F1800
G1 X39.54Y58.134Z0F1800
G1 X39.146Y58.098Z0F1800
G1 X38.795Y58.069Z0F1800
G1 X38.492Y58.047Z0F1800
G1 X38.242Y58.034Z0F1800
G1 X38.049Y58.028Z0F1800
G1 X37.918Y58.031Z0F1800
G1 X37.854Y58.043Z0F1800
G1 X37.802Y58.099Z0F1800
G1 X37.736Y58.219Z0F1800
G1 X37.655Y58.409Z0F1800
G1 X37.556Y58.675Z0F1800
G1 X37.437Y59.024Z0F1800
G1 X37.295Y59.463Z0F1800
G1 X37.216Y59.717Z0F1800
G1 X37.037Y60.301Z0F1800
G1 X36.821Y61.018Z0F1800
G1 X36.598Y61.737Z0F1800
G1 X36.422Y62.286Z0F1800
G1 X36.337Y62.566Z0F1800
G1 X36.266Y62.82Z0F1800
G1 X36.208Y63.044Z0F1800
G1 X36.166Y63.235Z0F1800
G1 X36.14Y63.389Z0F1800
G1 X36.131Y63.502Z0F1800
G1 X36.139Y63.571Z0F1800
G1 X36.166Y63.614Z0F1800
G1 X36.217Y63.669Z0F1800
G1 X36.291Y63.733Z0F1800
G1 X36.388Y63.807Z0F1800
G1 X36.65Y63.983Z0F1800
G1 X37Y64.197Z0F1800
G1 X37.434Y64.445Z0F1800
G1 X37.95Y64.726Z0F1800
G1 X38.545Y65.039Z0F1800
G1 X39.215Y65.381Z0F1800
G1 X39.984Y65.769Z0F1800
G1 X39.865Y67.758Z0F1800
G1 X39.818Y68.477Z0F1800
G1 X39.792Y68.836Z0F1800
G1 X39.769Y69.107Z0F1800
G1 X39.748Y69.296Z0F1800
G1 X39.73Y69.411Z0F1800
G1 X39.714Y69.457Z0F1800
G1 X39.679Y69.477Z0F1800
G1 X39.6Y69.512Z0F1800
G1 X39.329Y69.62Z0F1800
G1 X38.94Y69.769Z0F1800
G1 X38.471Y69.944Z0F1800
G1 X37.959Y70.131Z0F1800
G1 X37.443Y70.316Z0F1800
G1 X36.959Y70.486Z0F1800
G1 X36.546Y70.627Z0F1800
G1 X36.194Y70.751Z0F1800
G1 X35.89Y70.873Z0F1800
G1 X35.766Y70.929Z0F1800
G1 X35.666Y70.979Z0F1800
G1 X35.594Y71.022Z0F1800
G1 X35.554Y71.055Z0F1800
G1 X35.515Y71.122Z0F1800
G1 X35.491Y71.213Z0F1800
G1 X35.482Y71.341Z0F1800
G1 X35.49Y71.516Z0F1800
G1 X35.515Y71.749Z0F1800
G1 X35.558Y72.052Z0F1800
G1 X35.621Y72.435Z0F1800
G1 X36.116Y75.243Z0F1800
G1 X36.178Y75.587Z0F1800
G1 X36.236Y75.887Z0F1800
G1 X36.291Y76.144Z0F1800
G1 X36.341Y76.358Z0F1800
G1 X36.387Y76.531Z0F1800
G1 X36.43Y76.663Z0F1800
G1 X36.47Y76.756Z0F1800
G1 X36.507Y76.809Z0F1800
G1 X36.562Y76.848Z0F1800
G1 X36.647Y76.88Z0F1800
G1 X36.776Y76.906Z0F1800
G1 X36.96Y76.927Z0F1800
G1 X37.211Y76.946Z0F1800
G1 X37.541Y76.962Z0F1800
G1 X37.962Y76.977Z0F1800
G1 X38.486Y76.993Z0F1800
G1 X39.888Y77.028Z0F1800
G1 X40.392Y77.039Z0F1800
G1 X40.67Y77.043Z0F1800
G1 X40.87Y77.051Z0F1800
G1 X40.991Y77.103Z0F1800
G1 X41.037Y77.159Z0F1800
G1 X41.081Y77.243Z0F1800
G1 X41.129Y77.36Z0F1800
G1 X41.344Y77.919Z0F1800
G1 X41.473Y78.231Z0F1800
G1 X41.832Y79.07Z0F1800
G1 X42.428Y80.482Z0F1800
G1 X41.419Y81.564Z0F1800
G1 X40.579Y82.46Z0F1800
G1 X39.977Y83.097Z0F1800
G1 X39.805Y83.287Z0F1800
G1 X39.658Y83.471Z0F1800
G1 X39.55Y83.626Z0F1800
G1 X39.498Y83.733Z0F1800
G1 X39.482Y83.812Z0F1800
G1 X39.49Y83.898Z0F1800
G1 X39.54Y84.023Z0F1800
G1 X39.65Y84.215Z0F1800
G1 X39.733Y84.346Z0F1800
G1 X39.839Y84.505Z0F1800
G1 X40.126Y84.922Z0F1800
G1 X40.528Y85.496Z0F1800
G1 X41.588Y86.999Z0F1800
G1 X42.385Y88.135Z0F1800
G1 X42.56Y88.389Z0F1800
G1 X42.657Y88.519Z0F1800
G1 X42.758Y88.61Z0F1800
G1 X42.874Y88.661Z0F1800
G1 X43.017Y88.672Z0F1800
G1 X43.199Y88.641Z0F1800
G1 X43.431Y88.569Z0F1800
G1 X43.725Y88.454Z0F1800
G1 X44.093Y88.295Z0F1800
G1 X44.53Y88.101Z0F1800
G1 X45.011Y87.884Z0F1800
G1 X45.55Y87.639Z0F1800
G1 X47.084Y86.934Z0F1800
G1 X47.39Y87.198Z0F1800
G1 X47.713Y87.49Z0F1800
G1 X48.208Y87.958Z0F1800
G1 X48.338Y88.071Z0F1800
G1 X48.438Y88.148Z0F1800
G1 X48.492Y88.176Z0F1800
G1 X48.564Y88.11Z0F1800
G1 X48.643Y87.951Z0F1800
G1 X48.759Y87.672Z0F1800
G1 X48.919Y87.317Z0F1800
G1 X49.369Y86.342Z0F1800
G1 X49.827Y85.332Z0F1800
G1 X50.207Y84.482Z0F1800
G1 X50.3Y84.259Z0F1800
G1 X50.348Y84.087Z0F1800
G1 X50.345Y83.941Z0F1800
G1 X50.286Y83.796Z0F1800
G1 X50.165Y83.627Z0F1800
G1 X50.08Y83.527Z0F1800
G1 X49.718Y83.123Z0F1800
G1 X49.146Y82.461Z0F1800
G1 X48.609Y81.797Z0F1800
G1 X48.105Y81.128Z0F1800
G1 X47.635Y80.454Z0F1800
G1 X47.197Y79.772Z0F1800
G1 X46.792Y79.083Z0F1800
G1 X46.418Y78.383Z0F1800
G1 X46.075Y77.673Z0F1800
G1 X45.762Y76.951Z0F1800
G1 X45.479Y76.216Z0F1800
G1 X45.225Y75.466Z0F1800
G1 X45Y74.701Z0F1800
G1 X44.803Y73.918Z0F1800
G1 X44.633Y73.117Z0F1800
G1 X44.491Y72.297Z0F1800
G1 X44.374Y71.455Z0F1800
G1 X44.349Y71.205Z0F1800
G1 X44.33Y70.918Z0F1800
G1 X44.315Y70.598Z0F1800
G1 X44.306Y70.252Z0F1800
G1 X44.302Y69.501Z0F1800
G1 X44.318Y68.705Z0F1800
G1 X44.35Y67.907Z0F1800
G1 X44.399Y67.148Z0F1800
G1 X44.429Y66.795Z0F1800
G1 X44.463Y66.469Z0F1800
G1 X44.5Y66.172Z0F1800
G1 X44.54Y65.912Z0F1800
G1 X44.796Y64.646Z0F1800
G1 X45.113Y63.43Z0F1800
G1 X45.493Y62.258Z0F1800
G1 X45.941Y61.123Z0F1800
G1 X46.458Y60.021Z0F1800
G1 X47.047Y58.944Z0F1800
G1 X47.71Y57.888Z0F1800
G1 X48.45Y56.844Z0F1800
G1 X48.598Y56.656Z0F1800
G1 X48.775Y56.44Z0F1800
G1 X48.978Y56.201Z0F1800
G1 X49.203Y55.944Z0F1800
G1 X49.703Y55.393Z0F1800
G1 X50.24Y54.821Z0F1800
G1 X50.781Y54.263Z0F1800
G1 X51.292Y53.754Z0F1800
G1 X51.527Y53.529Z0F1800
G1 X51.741Y53.329Z0F1800
G1 X51.932Y53.16Z0F1800
G1 X52.245Y52.899Z0F1800
G1 X52.369Y52.787Z0F1800
G1 X52.453Y52.7Z0F1800
G1 X52.483Y52.652Z0F1800
G0 Z4.8F1000
G0 X56.181Y87.849Z4.8
G1 Z0F1000
G1 X56.157Y87.864Z0F1800
G1 X56.116Y87.908Z0F1800
G1 X56.058Y87.978Z0F1800
G1 X55.986Y88.071Z0F1800
G1 X55.809Y88.312Z0F1800
G1 X55.605Y88.606Z0F1800
G1 X55.395Y88.916Z0F1800
G1 X55.115Y89.324Z0F1800
G1 X54.891Y89.641Z0F1800
G1 X54.339Y90.442Z0F1800
G1 X53.226Y92.071Z0F1800
G1 X52.482Y93.153Z0F1800
G1 X51.604Y94.42Z0F1800
G1 X51.377Y94.759Z0F1800
G1 X51.292Y94.891Z0F1800
G1 X51.23Y94.992Z0F1800
G1 X51.193Y95.058Z0F1800
G1 X51.184Y95.085Z0F1800
G1 X51.251Y95.13Z0F1800
G1 X51.372Y95.199Z0F1800
G1 X51.539Y95.288Z0F1800
G1 X51.745Y95.394Z0F1800
G1 X52.242Y95.641Z0F1800
G1 X52.799Y95.909Z0F1800
G1 X53.355Y96.17Z0F1800
G1 X53.846Y96.393Z0F1800
G1 X54.048Y96.481Z0F1800
G1 X54.211Y96.548Z0F1800
G1 X54.326Y96.592Z0F1800
G1 X54.386Y96.607Z0F1800
G1 X54.509Y96.583Z0F1800
G1 X54.638Y96.501Z0F1800
G1 X54.711Y96.433Z0F1800
G1 X54.792Y96.344Z0F1800
G1 X54.885Y96.232Z0F1800
G1 X55.366Y95.614Z0F1800
G1 X56.088Y94.717Z0F1800
G1 X56.676Y93.961Z0F1800
G1 X56.838Y93.756Z0F1800
G1 X56.965Y93.599Z0F1800
G1 X57.15Y93.387Z0F1800
G1 X57.265Y93.235Z0F1800
G1 X57.336Y93.149Z0F1800
G1 X57.405Y93.11Z0F1800
G1 X57.491Y93.113Z0F1800
G1 X57.837Y93.231Z0F1800
G1 X58.15Y93.321Z0F1800
G1 X58.523Y93.42Z0F1800
G1 X58.929Y93.52Z0F1800
G1 X59.339Y93.613Z0F1800
G1 X59.724Y93.695Z0F1800
G1 X60.055Y93.757Z0F1800
G1 X60.304Y93.792Z0F1800
G1 X60.558Y93.826Z0F1800
G1 X60.737Y93.868Z0F1800
G1 X60.853Y93.923Z0F1800
G1 X60.918Y93.995Z0F1800
G1 X60.942Y94.066Z0F1800
G1 X60.981Y94.212Z0F1800
G1 X61.031Y94.424Z0F1800
G1 X61.092Y94.693Z0F1800
G1 X61.161Y95.01Z0F1800
G1 X61.316Y95.755Z0F1800
G1 X61.487Y96.601Z0F1800
G1 X61.571Y96.997Z0F1800
G1 X61.649Y97.348Z0F1800
G1 X61.72Y97.649Z0F1800
G1 X61.782Y97.894Z0F1800
G1 X61.836Y98.08Z0F1800
G1 X61.878Y98.202Z0F1800
G1 X61.909Y98.254Z0F1800
G1 X61.936Y98.261Z0F1800
G1 X61.992Y98.268Z0F1800
G1 X62.076Y98.274Z0F1800
G1 X62.186Y98.281Z0F1800
G1 X62.479Y98.293Z0F1800
G1 X62.858Y98.303Z0F1800
G1 X63.311Y98.312Z0F1800
G1 X63.824Y98.319Z0F1800
G1 X64.387Y98.323Z0F1800
G1 X64.984Z0F1800
G1 X67.95Y98.326Z0F1800
G1 X68.07Y98.142Z0F1800
G1 X68.127Y98.012Z0F1800
G1 X68.195Y97.795Z0F1800
G1 X68.264Y97.521Z0F1800
G1 X68.327Y97.221Z0F1800
G1 X68.614Y95.742Z0F1800
G1 X68.987Y93.869Z0F1800
G1 X69.719Y93.767Z0F1800
G1 X70.086Y93.705Z0F1800
G1 X70.547Y93.613Z0F1800
G1 X71.041Y93.503Z0F1800
G1 X71.511Y93.387Z0F1800
G1 X72.571Y93.108Z0F1800
G1 X72.738Y93.323Z0F1800
G1 X73.438Y94.206Z0F1800
G1 X73.946Y94.852Z0F1800
G1 X74.677Y95.801Z0F1800
G1 X74.884Y96.065Z0F1800
G1 X75.05Y96.265Z0F1800
G1 X75.183Y96.41Z0F1800
G1 X75.29Y96.509Z0F1800
G1 X75.381Y96.569Z0F1800
G1 X75.464Y96.599Z0F1800
G1 X75.546Y96.607Z0F1800
G1 X75.621Y96.59Z0F1800
G1 X75.752Y96.543Z0F1800
G1 X75.93Y96.47Z0F1800
G1 X76.148Y96.375Z0F1800
G1 X76.666Y96.135Z0F1800
G1 X77.241Y95.856Z0F1800
G1 X77.804Y95.572Z0F1800
G1 X78.29Y95.316Z0F1800
G1 X78.482Y95.208Z0F1800
G1 X78.63Y95.12Z0F1800
G1 X78.725Y95.055Z0F1800
G1 X78.758Y95.018Z0F1800
G1 X78.725Y94.926Z0F1800
G1 X78.646Y94.813Z0F1800
G1 X78.609Y94.766Z0F1800
G1 X78.46Y94.564Z0F1800
G1 X78.098Y94.057Z0F1800
G1 X77.495Y93.201Z0F1800
G1 X77.069Y92.589Z0F1800
G1 X76.848Y92.267Z0F1800
G1 X76.511Y91.769Z0F1800
G1 X75.897Y90.886Z0F1800
G1 X75.456Y90.242Z0F1800
G1 X74.882Y89.398Z0F1800
G1 X74.179Y88.36Z0F1800
G1 X74.038Y88.162Z0F1800
G1 X73.911Y87.999Z0F1800
G1 X73.811Y87.889Z0F1800
G1 X73.752Y87.849Z0F1800
G1 X73.674Y87.869Z0F1800
G1 X73.524Y87.923Z0F1800
G1 X73.323Y88.003Z0F1800
G1 X73.093Y88.102Z0F1800
G1 X72.494Y88.344Z0F1800
G1 X71.819Y88.581Z0F1800
G1 X71.093Y88.806Z0F1800
G1 X70.335Y89.014Z0F1800
G1 X69.567Y89.199Z0F1800
G1 X68.813Y89.356Z0F1800
G1 X68.092Y89.479Z0F1800
G1 X67.428Y89.562Z0F1800
G1 X66.903Y89.602Z0F1800
G1 X66.303Y89.629Z0F1800
G1 X65.653Y89.643Z0F1800
G1 X64.978Z0F1800
G1 X64.3Y89.633Z0F1800
G1 X63.645Y89.61Z0F1800
G1 X63.036Y89.573Z0F1800
G1 X62.498Y89.525Z0F1800
G1 X61.735Y89.427Z0F1800
G1 X60.961Y89.298Z0F1800
G1 X60.186Y89.142Z0F1800
G1 X59.423Y88.962Z0F1800
G1 X58.683Y88.761Z0F1800
G1 X57.978Y88.541Z0F1800
G1 X57.318Y88.306Z0F1800
G1 X56.717Y88.059Z0F1800
G1 X56.528Y87.977Z0F1800
G1 X56.364Y87.91Z0F1800
G1 X56.243Y87.865Z0F1800
G1 X56.181Y87.849Z0F1800
M9
G1 Z10 F1000
G90
G1 Z10 F800
