;LightBurn 1.6.04
;Custom GCode device profile, absolute coords
;Bounds: X14.01 Y55.65 to X31.99 Y94.35
G00 G17 G40 G21 G54
G90
M3
G1 Z10 F1500
;Scan @ 1500 mm/min, 80% power

M8
G0 Z3.5 F1500
G0 X20.719 Y55.650 Z3.500
G1 Z0 F1500
;Layer Red
G91
G1 X4.562 Z0 S800 F1500
G0 Z5 F500
G1 X1.197 Y0.9 Z0 S0 F1500
G0 Z-5 F500
; --- FIX X Backlash (relative): -1.400mm ---
G0 X-1.400 F1200
G1 X-6.956 Z0 S800 F1500
G0 Z5 F500
G1 X-0.84 Y0.9 Z0 S0 F1500
G0 Z-5 F500
; --- FIX X Backlash (relative): 1.400mm ---
G0 X1.400 F1200
G1 X8.636 Z0 S800 F1500
G0 Z5 F500
G1 X0.668 Y0.9 Z0 S0 F1500
G0 Z-5 F500
; --- FIX X Backlash (relative): -1.400mm ---
G0 X-1.400 F1200
G1 X-9.972 Z0 S800 F1500
G0 Z5 F500
G1 X-0.557 Y0.9 Z0 S0 F1500
G0 Z-5 F500
; --- FIX X Backlash (relative): 1.400mm ---
G0 X1.400 F1200
G1 X11.086 Z0 S800 F1500
G0 Z5 F500
G1 X0.485 Y0.9 Z0 S0 F1500
G0 Z-5 F500
; --- FIX X Backlash (relative): -1.400mm ---
G0 X-1.400 F1200
G1 X-12.056 Z0 S800 F1500
G0 Z5 F500
G1 X-0.418 Y0.9 Z0 S0 F1500
G0 Z-5 F500
; --- FIX X Backlash (relative): 1.400mm ---
G0 X1.400 F1200
G1 X12.892 Z0 S800 F1500
G0 Z5 F500
G1 X0.371 Y0.9 Z0 S0 F1500
G0 Z-5 F500
; --- FIX X Backlash (relative): -1.400mm ---
G0 X-1.400 F1200
G1 X-13.634 Z0 S800 F1500
G0 Z5 F500
G1 X-0.33 Y0.9 Z0 S0 F1500
G0 Z-5 F500
; --- FIX X Backlash (relative): 1.400mm ---
G0 X1.400 F1200
G1 X14.294 Z0 S800 F1500
G0 Z5 F500
G1 X0.294 Y0.9 Z0 S0 F1500
G0 Z-5 F500
; --- FIX X Backlash (relative): -1.400mm ---
G0 X-1.400 F1200
G1 X-14.882 Z0 S800 F1500
G0 Z5 F500
G1 X-0.261 Y0.9 Z0 S0 F1500
G0 Z-5 F500
; --- FIX X Backlash (relative): 1.400mm ---
G0 X1.400 F1200
G1 X15.404 Z0 S800 F1500
G0 Z5 F500
G1 X0.231 Y0.9 Z0 S0 F1500
G0 Z-5 F500
; --- FIX X Backlash (relative): -1.400mm ---
G0 X-1.400 F1200
G1 X-15.866 Z0 S800 F1500
G0 Z5 F500
G1 X-0.204 Y0.9 Z0 S0 F1500
G0 Z-5 F500
; --- FIX X Backlash (relative): 1.400mm ---
G0 X1.400 F1200
G1 X16.274 Z0 S800 F1500
G0 Z5 F500
G1 X0.18 Y0.9 Z0 S0 F1500
G0 Z-5 F500
; --- FIX X Backlash (relative): -1.400mm ---
G0 X-1.400 F1200
G1 X-16.634 Z0 S800 F1500
G0 Z5 F500
G1 X-0.156 Y0.9 Z0 S0 F1500
G0 Z-5 F500
; --- FIX X Backlash (relative): 1.400mm ---
G0 X1.400 F1200
G1 X16.946 Z0 S800 F1500
G0 Z5 F500
G1 X0.135 Y0.9 Z0 S0 F1500
G0 Z-5 F500
; --- FIX X Backlash (relative): -1.400mm ---
G0 X-1.400 F1200
G1 X-17.216 Z0 S800 F1500
G0 Z5 F500
G1 X-0.114 Y0.9 Z0 S0 F1500
G0 Z-5 F500
; --- FIX X Backlash (relative): 1.400mm ---
G0 X1.400 F1200
G1 X17.444 Z0 S800 F1500
G0 Z5 F500
G1 X0.093 Y0.9 Z0 S0 F1500
G0 Z-5 F500
; --- FIX X Backlash (relative): -1.400mm ---
G0 X-1.400 F1200
G1 X-17.63 Z0 S800 F1500
G0 Z5 F500
G1 X-0.073 Y0.9 Z0 S0 F1500
G0 Z-5 F500
; --- FIX X Backlash (relative): 1.400mm ---
G0 X1.400 F1200
G1 X17.776 Z0 S800 F1500
G0 Z5 F500
G1 X0.054 Y0.9 Z0 S0 F1500
G0 Z-5 F500
; --- FIX X Backlash (relative): -1.400mm ---
G0 X-1.400 F1200
G1 X-17.884 Z0 S800 F1500
G0 Z5 F500
G1 X-0.035 Y0.9 Z0 S0 F1500
G0 Z-5 F500
; --- FIX X Backlash (relative): 1.400mm ---
G0 X1.400 F1200
G1 X17.954 Z0 S800 F1500
G0 Z5 F500
G1 X0.018 Y0.9 Z0 S0 F1500
G0 Z-5 F500
; --- FIX X Backlash (relative): -1.400mm ---
G0 X-1.400 F1200
G1 X-17.99 Z0 S800 F1500
G0 Z5 F500
G1 Y0.9 Z0 S0 F1500
G0 Z-5 F500
; --- FIX X Backlash (relative): 1.400mm ---
G0 X1.400 F1200
G1 X17.99 Z0 S800 F1500
G0 Z5 F500
G1 X-0.018 Y0.9 Z0 S0 F1500
G0 Z-5 F500
; --- FIX X Backlash (relative): -1.400mm ---
G0 X-1.400 F1200
G1 X-17.954 Z0 S800 F1500
G0 Z5 F500
G1 X0.035 Y0.9 Z0 S0 F1500
G0 Z-5 F500
; --- FIX X Backlash (relative): 1.400mm ---
G0 X1.400 F1200
G1 X17.884 Z0 S800 F1500
G0 Z5 F500
; --- FIX X Backlash (relative): -1.400mm ---
G0 X-1.400 F1200
G1 X-0.054 Y0.9 Z0 S0 F1500
G0 Z-5 F500
G1 X-17.776 Z0 S800 F1500
G0 Z5 F500
; --- FIX X Backlash (relative): 1.400mm ---
G0 X1.400 F1200
G1 X0.073 Y0.9 Z0 S0 F1500
G0 Z-5 F500
G1 X17.63 Z0 S800 F1500
G0 Z5 F500
; --- FIX X Backlash (relative): -1.400mm ---
G0 X-1.400 F1200
G1 X-0.093 Y0.9 Z0 S0 F1500
G0 Z-5 F500
G1 X-17.444 Z0 S800 F1500
G0 Z5 F500
; --- FIX X Backlash (relative): 1.400mm ---
G0 X1.400 F1200
G1 X0.114 Y0.9 Z0 S0 F1500
G0 Z-5 F500
G1 X17.216 Z0 S800 F1500
G0 Z5 F500
; --- FIX X Backlash (relative): -1.400mm ---
G0 X-1.400 F1200
G1 X-0.135 Y0.9 Z0 S0 F1500
G0 Z-5 F500
G1 X-16.946 Z0 S800 F1500
G0 Z5 F500
; --- FIX X Backlash (relative): 1.400mm ---
G0 X1.400 F1200
G1 X0.156 Y0.9 Z0 S0 F1500
G0 Z-5 F500
G1 X16.634 Z0 S800 F1500
G0 Z5 F500
; --- FIX X Backlash (relative): -1.400mm ---
G0 X-1.400 F1200
G1 X-0.18 Y0.9 Z0 S0 F1500
G0 Z-5 F500
G1 X-16.274 Z0 S800 F1500
G0 Z5 F500
; --- FIX X Backlash (relative): 1.400mm ---
G0 X1.400 F1200
G1 X0.204 Y0.9 Z0 S0 F1500
G0 Z-5 F500
G1 X15.866 Z0 S800 F1500
G0 Z5 F500
; --- FIX X Backlash (relative): -1.400mm ---
G0 X-1.400 F1200
G1 X-0.231 Y0.9 Z0 S0 F1500
G0 Z-5 F500
G1 X-15.404 Z0 S800 F1500
G0 Z5 F500
; --- FIX X Backlash (relative): 1.400mm ---
G0 X1.400 F1200
G1 X0.261 Y0.9 Z0 S0 F1500
G0 Z-5 F500
G1 X14.882 Z0 S800 F1500
G0 Z5 F500
; --- FIX X Backlash (relative): -1.400mm ---
G0 X-1.400 F1200
G1 X-0.294 Y0.9 Z0 S0 F1500
G0 Z-5 F500
G1 X-14.294 Z0 S800 F1500
G0 Z5 F500
; --- FIX X Backlash (relative): 1.400mm ---
G0 X1.400 F1200
G1 X0.33 Y0.9 Z0 S0 F1500
G0 Z-5 F500
G1 X13.634 Z0 S800 F1500
G0 Z5 F500
; --- FIX X Backlash (relative): -1.400mm ---
G0 X-1.400 F1200
G1 X-0.371 Y0.9 Z0 S0 F1500
G0 Z-5 F500
G1 X-12.892 Z0 S800 F1500
G0 Z5 F500
; --- FIX X Backlash (relative): 1.400mm ---
G0 X1.400 F1200
G1 X0.418 Y0.9 Z0 S0 F1500
G0 Z-5 F500
G1 X12.056 Z0 S800 F1500
G0 Z5 F500
; --- FIX X Backlash (relative): -1.400mm ---
G0 X-1.400 F1200
G1 X-0.485 Y0.9 Z0 S0 F1500
G0 Z-5 F500
G1 X-11.086 Z0 S800 F1500
G0 Z5 F500
; --- FIX X Backlash (relative): 1.400mm ---
G0 X1.400 F1200
G1 X0.557 Y0.9 Z0 S0 F1500
G0 Z-5 F500
G1 X9.972 Z0 S800 F1500
G0 Z5 F500
; --- FIX X Backlash (relative): -1.400mm ---
G0 X-1.400 F1200
G1 X-0.668 Y0.9 Z0 S0 F1500
G0 Z-5 F500
G1 X-8.636 Z0 S800 F1500
G0 Z5 F500
; --- FIX X Backlash (relative): 1.400mm ---
G0 X1.400 F1200
G1 X0.84 Y0.9 Z0 S0 F1500
G0 Z-5 F500
G1 X6.956 Z0 S800 F1500
G0 Z5 F500
; --- FIX X Backlash (relative): -1.400mm ---
G0 X-1.400 F1200
G1 X-1.197 Y0.9 Z0 S0 F1500
G0 Z-5 F500
G1 X-4.562 Z0 S800 F1500
G90
M9
M5
G1 Z10 F1500
G90
G1 Z10 F1500

