;LightBurn 1.6.04
;Custom GCode device profile, absolute coords
;Bounds: X37.55 Y32.95 to X98.45 Y102.3
G00 G17 G40 G21 G54
G90
M3
G1 Z10 F1000
;Scan @ 1500 mm/min, 90% power

M8
G0 Z3.5 F1000
G0 X55.347 Y47.4 Z3.5 
G1 Z0 F1000
;Layer Blue
G91
G0 Z2 F500
G1 X2.5 Z0 S0 F1600
G0 Z-2 F500
G1 X1.39 Z0 S900 F1600
G0 Z2 F500
G1 X17.561 Z0 S0 F1600
G0 Z-2 F500
G1 X1.329 Z0 S900 F1600
G0 Z2 F500
G1 X2.5 Z0 S0 F1600
G1 X1.237 Y0.9 Z0 F1600
G1 X-2.5 Z0 F1600
G0 Z-2 F500
G1 X-3.156 Z0 S900 F1600
G0 Z2 F500
G1 X-16.388 Z0 S0 F1600
G0 Z-2 F500
G1 X-3.215 Z0 S900 F1600
G0 Z2 F500
G1 X-2.5 Z0 S0 F1600
G1 X-2.049 Y0.9 Z0 F1600
G1 X2.5 Z0 F1600
G0 Z-2 F500
G1 X5.852 Z0 S900 F1600
G0 Z2 F500
G1 X15.202 Z0 S0 F1600
G0 Z-2 F500
G1 X5.826 Z0 S900 F1600
G0 Z2 F500
G1 X2.5 Z0 S0 F1600
G1 X0.069 Y0.9 Z0 F1600
G1 X-2.5 Z0 F1600
G0 Z-2 F500
G1 X-6.492 Z0 S900 F1600
G0 Z2 F500
G1 X-14.015 Z0 S0 F1600
G0 Z-2 F500
G1 X-6.494 Z0 S900 F1600
G0 Z2 F500
G1 X-2.5 Z0 S0 F1600
G1 X0.512 Y0.9 Z0 F1600
G1 X2.5 Z0 F1600
G0 Z-2 F500
G1 X6.577 Z0 S900 F1600
G0 Z2 F500
G1 X12.816 Z0 S0 F1600
G0 Z-2 F500
G1 X6.587 Z0 S900 F1600
G0 Z2 F500
G1 X2.5 Z0 S0 F1600
G1 X-0.512 Y0.9 Z0 F1600
G1 X-2.5 Z0 F1600
G0 Z-2 F500
G1 X-6.687 Z0 S900 F1600
G0 Z2 F500
G1 X-11.591 Z0 S0 F1600
G0 Z-2 F500
G1 X-6.699 Z0 S900 F1600
G0 Z2 F500
G1 X-2.5 Z0 S0 F1600
G1 X0.505 Y0.9 Z0 F1600
G1 X2.5 Z0 F1600
G0 Z-2 F500
G1 X6.819 Z0 S900 F1600
G0 Z2 F500
G1 X10.339 Z0 S0 F1600
G0 Z-2 F500
G1 X6.815 Z0 S900 F1600
G0 Z2 F500
G1 X2.5 Z0 S0 F1600
G1 X-0.484 Y0.9 Z0 F1600
G1 X-2.5 Z0 F1600
G0 Z-2 F500
G1 X-6.976 Z0 S900 F1600
G0 Z2 F500
G1 X-9.059 Z0 S0 F1600
G0 Z-2 F500
G1 X-6.979 Z0 S900 F1600
G0 Z2 F500
G1 X-2.5 Z0 S0 F1600
G1 X0.479 Y0.9 Z0 F1600
G1 X2.5 Z0 F1600
G0 Z-2 F500
G1 X7.108 Z0 S900 F1600
G0 Z2 F500
G1 X7.804 Z0 S0 F1600
G0 Z-2 F500
G1 X7.159 Z0 S900 F1600
G0 Z2 F500
G1 X2.5 Z0 S0 F1600
G1 X-0.451 Y0.9 Z0 F1600
G1 X-2.5 Z0 F1600
G0 Z-2 F500
G1 X-5.605 Z0 S900 F1600
G0 Z2 F500
G1 X-10.021 Z0 S0 F1600
G0 Z-2 F500
G1 X-5.554 Z0 S900 F1600
G0 Z2 F500
G1 X-2.5 Z0 S0 F1600
G1 X0.431 Y0.9 Z0 F1600
G1 X2.5 Z0 F1600
G0 Z-2 F500
G1 X3.64 Z0 S900 F1600
G0 Z2 F500
G1 X2.6 Z0 S0 F1600
G0 Z-2 F500
G1 X1.941 Z0 S900 F1600
G0 Z2 F500
G1 X3.945 Z0 S0 F1600
G0 Z-2 F500
G1 X1.919 Z0 S900 F1600
G0 Z2 F500
G1 X2.543 Z0 S0 F1600
G0 Z-2 F500
G1 X3.733 Z0 S900 F1600
G0 Z2 F500
G1 X2.5 Z0 S0 F1600
G1 X-0.423 Y0.9 Z0 F1600
G1 X-2.5 Z0 F1600
G0 Z-2 F500
G1 X-1.813 Z0 S900 F1600
G0 Z2 F500
G1 X-2.562 Z0 S0 F1600
G0 Z-2 F500
G1 X-4.291 Z0 S900 F1600
G0 Z2 F500
G1 X-2.211 Z0 S0 F1600
G0 Z-2 F500
G1 X-4.259 Z0 S900 F1600
G0 Z2 F500
G1 X-2.605 Z0 S0 F1600
G0 Z-2 F500
G1 X-1.73 Z0 S900 F1600
G0 Z2 F500
G1 X-2.5 Z0 S0 F1600
G1 X2.847 Y0.9 Z0 F1600
G1 X2.5 Z0 F1600
G0 Z-2 F500
G1 X6.544 Z0 S900 F1600
G0 Z2 F500
G1 X1.629 Z0 S0 F1600
G0 Z-2 F500
G1 X5.56 Z0 S900 F1600
G0 Z2 F500
G1 X2.5 Z0 S0 F1600
G1 X1.45 Y0.9 Z0 F1600
G1 X-2.5 Z0 F1600
G0 Z-2 F500
G1 X-6.338 Z0 S900 F1600
G0 Z2 F500
G1 X-1.57 Z0 S0 F1600
G0 Z-2 F500
G1 X-8.794 Z0 S900 F1600
G0 Z2 F500
G1 X-2.5 Z0 S0 F1600
G1 X-0.284 Y0.9 Z0 F1600
G1 X2.5 Z0 F1600
G0 Z-2 F500
G1 X9.746 Z0 S900 F1600
G0 Z2 F500
G1 X1.526 Z0 S0 F1600
G0 Z-2 F500
G1 X6.154 Z0 S900 F1600
G0 Z2 F500
G1 X2.5 Z0 S0 F1600
G1 X-0.291 Y0.9 Z0 F1600
G1 X-2.5 Z0 F1600
G0 Z-2 F500
G1 X-5.266 Z0 S900 F1600
G0 Z2 F500
G1 X-1.514 Z0 S0 F1600
G0 Z-2 F500
G1 X-10.089 Z0 S900 F1600
G0 Z2 F500
G1 X-2.5 Z0 S0 F1600
G1 X0.292 Y0.9 Z0 F1600
G1 X2.5 Z0 F1600
G0 Z-2 F500
G1 X10.362 Z0 S900 F1600
G0 Z2 F500
G1 X1.512 Z0 S0 F1600
G0 Z-2 F500
G1 X4.396 Z0 S900 F1600
G0 Z2 F500
G1 X2.5 Z0 S0 F1600
G1 X-0.326 Y0.9 Z0 F1600
G1 X-2.5 Z0 F1600
G0 Z-2 F500
G1 X-3.574 Z0 S900 F1600
G0 Z2 F500
G1 X-1.479 Z0 S0 F1600
G0 Z-2 F500
G1 X-10.567 Z0 S900 F1600
G0 Z2 F500
G1 X-2.5 Z0 S0 F1600
G1 X0.349 Y0.9 Z0 F1600
G1 X2.5 Z0 F1600
G0 Z-2 F500
G1 X10.718 Z0 S900 F1600
G0 Z2 F500
G1 X1.453 Z0 S0 F1600
G0 Z-2 F500
G1 X2.75 Z0 S900 F1600
G0 Z2 F500
G1 X2.5 Z0 S0 F1600
G1 X-0.364 Y0.9 Z0 F1600
G1 X-2.5 Z0 F1600
G0 Z-2 F500
G1 X-1.914 Z0 S900 F1600
G0 Z2 F500
G1 X-1.448 Z0 S0 F1600
G0 Z-2 F500
G1 X-10.805 Z0 S900 F1600
G0 Z2 F500
G1 X-2.5 Z0 S0 F1600
G1 X0.433 Y0.9 Z0 F1600
G1 X2.5 Z0 F1600
G0 Z-2 F500
G1 X10.829 Z0 S900 F1600
G0 Z2 F500
G1 X1.452 Z0 S0 F1600
G0 Z-2 F500
G1 X1.086 Z0 S900 F1600
G0 Z2 F500
G1 X2.5 Z0 S0 F1600
G1 X-0.366 Y0.9 Z0 F1600
G1 X-2.5 Z0 F1600
G0 Z-2 F500
G1 X-0.252 Z0 S900 F1600
G0 Z2 F500
G1 X-1.476 Z0 S0 F1600
G0 Z-2 F500
G1 X-10.798 Z0 S900 F1600
G0 Z2 F500
G1 X-2.5 Z0 S0 F1600
G1 X0.513 Y0.9 Z0 F1600
G1 X2.5 Z0 F1600
G0 Z-2 F500
G1 X10.717 Z0 S900 F1600
G0 Z2 F500
G1 X2.5 Z0 S0 F1600
G1 X0.421 Y0.9 Z0 F1600
G1 X-2.5 Z0 F1600
G0 Z-2 F500
G1 X-10.587 Z0 S900 F1600
G0 Z2 F500
G1 X-2.5 Z0 S0 F1600
G1 X0.579 Y0.9 Z0 F1600
G1 X2.5 Z0 F1600
G0 Z-2 F500
G1 X10.422 Z0 S900 F1600
G0 Z2 F500
G1 X2.5 Z0 S0 F1600
G1 X0.407 Y0.9 Z0 F1600
G1 X-2.5 Z0 F1600
G0 Z-2 F500
G1 X-10.228 Z0 S900 F1600
G0 Z2 F500
G1 X-1.533 Z0 S0 F1600
G0 Z-2 F500
G1 X-0.83 Z0 S900 F1600
G0 Z2 F500
G1 X-2.5 Z0 S0 F1600
G1 X-0.413 Y0.9 Z0 F1600
G1 X2.5 Z0 F1600
G0 Z-2 F500
G1 X1.817 Z0 S900 F1600
G0 Z2 F500
G1 X1.576 Z0 S0 F1600
G0 Z-2 F500
G1 X10.013 Z0 S900 F1600
G0 Z2 F500
G1 X2.5 Z0 S0 F1600
G1 X0.398 Y0.9 Z0 F1600
G1 X-2.5 Z0 F1600
G0 Z-2 F500
G1 X-9.782 Z0 S900 F1600
G0 Z2 F500
G1 X-1.597 Z0 S0 F1600
G0 Z-2 F500
G1 X-2.828 Z0 S900 F1600
G0 Z2 F500
G1 X-2.5 Z0 S0 F1600
G1 X-0.399 Y0.9 Z0 F1600
G1 X2.5 Z0 F1600
G0 Z-2 F500
G1 X3.849 Z0 S900 F1600
G0 Z2 F500
G1 X1.608 Z0 S0 F1600
G0 Z-2 F500
G1 X9.548 Z0 S900 F1600
G0 Z2 F500
G1 X2.5 Z0 S0 F1600
G1 X0.399 Y0.9 Z0 F1600
G1 X-2.5 Z0 F1600
G0 Z-2 F500
G1 X-9.316 Z0 S900 F1600
G0 Z2 F500
G1 X-1.609 Z0 S0 F1600
G0 Z-2 F500
G1 X-4.881 Z0 S900 F1600
G0 Z2 F500
G1 X-2.5 Z0 S0 F1600
G1 X-0.382 Y0.9 Z0 F1600
G1 X2.5 Z0 F1600
G0 Z-2 F500
G1 X5.897 Z0 S900 F1600
G0 Z2 F500
G1 X1.604 Z0 S0 F1600
G0 Z-2 F500
G1 X9.087 Z0 S900 F1600
G0 Z2 F500
G1 X2.5 Z0 S0 F1600
G1 X0.4 Y0.9 Z0 F1600
G1 X-2.5 Z0 F1600
G0 Z-2 F500
G1 X-8.854 Z0 S900 F1600
G0 Z2 F500
G1 X-1.605 Z0 S0 F1600
G0 Z-2 F500
G1 X-6.929 Z0 S900 F1600
G0 Z2 F500
G1 X-2.5 Z0 S0 F1600
G1 X-0.402 Y0.9 Z0 F1600
G1 X2.5 Z0 F1600
G0 Z-2 F500
G1 X7.946 Z0 S900 F1600
G0 Z2 F500
G1 X1.626 Z0 S0 F1600
G0 Z-2 F500
G1 X8.613 Z0 S900 F1600
G0 Z2 F500
G1 X2.5 Z0 S0 F1600
G1 X0.395 Y0.9 Z0 F1600
G1 X-2.5 Z0 F1600
G0 Z-2 F500
G1 X-8.369 Z0 S900 F1600
G0 Z2 F500
G1 X-2.321 Z0 S0 F1600
G0 Z-2 F500
G1 X-8.287 Z0 S900 F1600
G0 Z2 F500
G1 X-2.5 Z0 S0 F1600
G1 X-0.396 Y0.9 Z0 F1600
G1 X2.5 Z0 F1600
G0 Z-2 F500
G1 X8.047 Z0 S900 F1600
G0 Z2 F500
G1 X3.599 Z0 S0 F1600
G0 Z-2 F500
G1 X8.122 Z0 S900 F1600
G0 Z2 F500
G1 X2.5 Z0 S0 F1600
G1 X0.394 Y0.9 Z0 F1600
G1 X-2.5 Z0 F1600
G0 Z-2 F500
G1 X-7.868 Z0 S900 F1600
G0 Z2 F500
G1 X-4.899 Z0 S0 F1600
G0 Z-2 F500
G1 X-7.792 Z0 S900 F1600
G0 Z2 F500
G1 X-2.5 Z0 S0 F1600
G1 X-0.397 Y0.9 Z0 F1600
G1 X2.5 Z0 F1600
G0 Z-2 F500
G1 X7.547 Z0 S900 F1600
G0 Z2 F500
G1 X6.201 Z0 S0 F1600
G0 Z-2 F500
G1 X7.603 Z0 S900 F1600
G0 Z2 F500
G1 X2.5 Z0 S0 F1600
G1 X0.395 Y0.9 Z0 F1600
G1 X-2.5 Z0 F1600
G0 Z-2 F500
G1 X-7.351 Z0 S900 F1600
G0 Z2 F500
G1 X-7.486 Z0 S0 F1600
G0 Z-2 F500
G1 X-7.307 Z0 S900 F1600
G0 Z2 F500
G1 X-2.5 Z0 S0 F1600
G1 X-0.4 Y0.9 Z0 F1600
G1 X2.5 Z0 F1600
G0 Z-2 F500
G1 X7.066 Z0 S900 F1600
G0 Z2 F500
G1 X8.772 Z0 S0 F1600
G0 Z-2 F500
G1 X7.1 Z0 S900 F1600
G0 Z2 F500
G1 X2.5 Z0 S0 F1600
G1 X0.394 Y0.9 Z0 F1600
G1 X-2.5 Z0 F1600
G0 Z-2 F500
G1 X-6.849 Z0 S900 F1600
G0 Z2 F500
G1 X-10.058 Z0 S0 F1600
G0 Z-2 F500
G1 X-6.822 Z0 S900 F1600
G0 Z2 F500
G1 X-2.5 Z0 S0 F1600
G1 X-0.396 Y0.9 Z0 F1600
G1 X2.5 Z0 F1600
G0 Z-2 F500
G1 X6.576 Z0 S900 F1600
G0 Z2 F500
G1 X11.345 Z0 S0 F1600
G0 Z-2 F500
G1 X6.598 Z0 S900 F1600
G0 Z2 F500
G1 X2.5 Z0 S0 F1600
G1 X0.394 Y0.9 Z0 F1600
G1 X-2.5 Z0 F1600
G0 Z-2 F500
G1 X-6.347 Z0 S900 F1600
G0 Z2 F500
G1 X-12.632 Z0 S0 F1600
G0 Z-2 F500
G1 X-6.33 Z0 S900 F1600
G0 Z2 F500
G1 X-2.5 Z0 S0 F1600
G1 X-0.394 Y0.9 Z0 F1600
G1 X2.5 Z0 F1600
G0 Z-2 F500
G1 X6.083 Z0 S900 F1600
G0 Z2 F500
G1 X13.918 Z0 S0 F1600
G0 Z-2 F500
G1 X6.096 Z0 S900 F1600
G0 Z2 F500
G1 X2.5 Z0 S0 F1600
G1 X0.393 Y0.9 Z0 F1600
G1 X-2.5 Z0 F1600
G0 Z-2 F500
G1 X-5.844 Z0 S900 F1600
G0 Z2 F500
G1 X-15.201 Z0 S0 F1600
G0 Z-2 F500
G1 X-5.838 Z0 S900 F1600
G0 Z2 F500
G1 X-2.5 Z0 S0 F1600
G1 X-0.4 Y0.9 Z0 F1600
G1 X2.5 Z0 F1600
G0 Z-2 F500
G1 X5.605 Z0 S900 F1600
G0 Z2 F500
G1 X16.477 Z0 S0 F1600
G0 Z-2 F500
G1 X5.596 Z0 S900 F1600
G0 Z2 F500
G1 X2.5 Z0 S0 F1600
G1 X0.394 Y0.9 Z0 F1600
G1 X-2.5 Z0 F1600
G0 Z-2 F500
G1 X-5.346 Z0 S900 F1600
G0 Z2 F500
G1 X-17.757 Z0 S0 F1600
G0 Z-2 F500
G1 X-5.368 Z0 S900 F1600
G0 Z2 F500
G1 X-2.5 Z0 S0 F1600
G1 X-0.394 Y0.9 Z0 F1600
G1 X2.5 Z0 F1600
G0 Z-2 F500
G1 X5.125 Z0 S900 F1600
G0 Z2 F500
G1 X19.038 Z0 S0 F1600
G0 Z-2 F500
G1 X5.097 Z0 S900 F1600
G0 Z2 F500
G1 X2.5 Z0 S0 F1600
G1 X0.394 Y0.9 Z0 F1600
G1 X-2.5 Z0 F1600
G0 Z-2 F500
G1 X-4.848 Z0 S900 F1600
G0 Z2 F500
G1 X-20.318 Z0 S0 F1600
G0 Z-2 F500
G1 X-4.881 Z0 S900 F1600
G0 Z2 F500
G1 X-2.5 Z0 S0 F1600
G1 X-0.393 Y0.9 Z0 F1600
G1 X2.5 Z0 F1600
G0 Z-2 F500
G1 X4.638 Z0 S900 F1600
G0 Z2 F500
G1 X21.596 Z0 S0 F1600
G0 Z-2 F500
G1 X4.601 Z0 S900 F1600
G0 Z2 F500
G1 X2.5 Z0 S0 F1600
G1 X0.397 Y0.9 Z0 F1600
G1 X-2.5 Z0 F1600
G0 Z-2 F500
G1 X-4.366 Z0 S900 F1600
G0 Z2 F500
G1 X-22.863 Z0 S0 F1600
G0 Z-2 F500
G1 X-4.397 Z0 S900 F1600
G0 Z2 F500
G1 X-2.5 Z0 S0 F1600
G1 X-0.393 Y0.9 Z0 F1600
G1 X2.5 Z0 F1600
G0 Z-2 F500
G1 X4.158 Z0 S900 F1600
G0 Z2 F500
G1 X24.125 Z0 S0 F1600
G0 Z-2 F500
G1 X4.134 Z0 S900 F1600
G0 Z2 F500
G1 X2.5 Z0 S0 F1600
G1 X0.386 Y0.9 Z0 F1600
G1 X-2.5 Z0 F1600
G0 Z-2 F500
G1 X-3.886 Z0 S900 F1600
G0 Z2 F500
G1 X-25.385 Z0 S0 F1600
G0 Z-2 F500
G1 X-3.917 Z0 S900 F1600
G0 Z2 F500
G1 X-2.5 Z0 S0 F1600
G1 X-0.368 Y0.9 Z0 F1600
G1 X2.5 Z0 F1600
G0 Z-2 F500
G1 X3.661 Z0 S900 F1600
G0 Z2 F500
G1 X26.642 Z0 S0 F1600
G0 Z-2 F500
G1 X3.652 Z0 S900 F1600
G0 Z2 F500
G1 X2.5 Z0 S0 F1600
G1 X0.388 Y0.9 Z0 F1600
G1 X-2.5 Z0 F1600
G0 Z-2 F500
G1 X-3.411 Z0 S900 F1600
G0 Z2 F500
G1 X-27.901 Z0 S0 F1600
G0 Z-2 F500
G1 X-3.431 Z0 S900 F1600
G0 Z2 F500
G1 X-2.5 Z0 S0 F1600
G1 X-0.387 Y0.9 Z0 F1600
G1 X2.5 Z0 F1600
G0 Z-2 F500
G1 X3.184 Z0 S900 F1600
G0 Z2 F500
G1 X29.16 Z0 S0 F1600
G0 Z-2 F500
G1 X3.171 Z0 S900 F1600
G0 Z2 F500
G1 X2.5 Z0 S0 F1600
G1 X0.385 Y0.9 Z0 F1600
G1 X-2.5 Z0 F1600
G0 Z-2 F500
G1 X-2.932 Z0 S900 F1600
G0 Z2 F500
G1 X-30.417 Z0 S0 F1600
G0 Z-2 F500
G1 X-2.938 Z0 S900 F1600
G0 Z2 F500
G1 X-2.5 Z0 S0 F1600
G1 X-0.384 Y0.9 Z0 F1600
G1 X2.5 Z0 F1600
G0 Z-2 F500
G1 X2.696 Z0 S900 F1600
G0 Z2 F500
G1 X31.67 Z0 S0 F1600
G0 Z-2 F500
G1 X2.69 Z0 S900 F1600
G0 Z2 F500
G1 X2.5 Z0 S0 F1600
G1 X0.385 Y0.9 Z0 F1600
G1 X-2.5 Z0 F1600
G0 Z-2 F500
G1 X-2.452 Z0 S900 F1600
G0 Z2 F500
G1 X-32.918 Z0 S0 F1600
G0 Z-2 F500
G1 X-2.455 Z0 S900 F1600
G0 Z2 F500
G1 X-2.5 Z0 S0 F1600
G1 X-0.383 Y0.9 Z0 F1600
G1 X2.5 Z0 F1600
G0 Z-2 F500
G1 X2.214 Z0 S900 F1600
G0 Z2 F500
G1 X34.167 Z0 S0 F1600
G0 Z-2 F500
G1 X2.21 Z0 S900 F1600
G0 Z2 F500
G1 X2.5 Z0 S0 F1600
G1 X0.376 Y0.9 Z0 F1600
G1 X-2.5 Z0 F1600
G0 Z-2 F500
G1 X-1.954 Z0 S900 F1600
G0 Z2 F500
G1 X-35.424 Z0 S0 F1600
G0 Z-2 F500
G1 X-1.971 Z0 S900 F1600
G0 Z2 F500
G1 X-2.5 Z0 S0 F1600
G1 X-0.382 Y0.9 Z0 F1600
G1 X2.5 Z0 F1600
G0 Z-2 F500
G1 X1.723 Z0 S900 F1600
G0 Z2 F500
G1 X36.67 Z0 S0 F1600
G0 Z-2 F500
G1 X1.704 Z0 S900 F1600
G0 Z2 F500
G1 X2.5 Z0 S0 F1600
G1 X0.338 Y0.9 Z0 F1600
G1 X-2.5 Z0 F1600
G0 Z-2 F500
G1 X-1.42 Z0 S900 F1600
G0 Z2 F500
G1 X-37.947 Z0 S0 F1600
G0 Z-2 F500
G1 X-1.39 Z0 S900 F1600
G0 Z2 F500
G1 X-2.5 Z0 S0 F1600
G90
;Offset @ 1500 mm/min, 90% power

M8
G0 Z3.5 F1000
G0 X48.258 Y34.283 Z3.5 F1500
G1 Z0 F1000
;Layer Green
G1 X49.058 Y34.605 Z0 S900 F1600
G1 X49.862 Y34.955 Z0 F1600
G1 X50.682 Y35.337 Z0 F1600
G1 X51.459 Y35.724 Z0 F1600
G1 X52.189 Y36.112 Z0 F1600
G1 X52.864 Y36.5 Z0 F1600
G1 X53.441 Y36.863 Z0 F1600
G1 X53.97 Y37.23 Z0 F1600
G1 X54.462 Y37.601 Z0 F1600
G1 X54.926 Y37.981 Z0 F1600
G1 X55.356 Y38.367 Z0 F1600
G1 X55.756 Y38.761 Z0 F1600
G1 X56.114 Y39.148 Z0 F1600
G1 X56.438 Y39.539 Z0 F1600
G1 X56.736 Y39.941 Z0 F1600
G1 X56.992 Y40.333 Z0 F1600
G1 X57.212 Y40.722 Z0 F1600
G1 X57.401 Y41.114 Z0 F1600
G1 X57.552 Y41.496 Z0 F1600
G1 X57.669 Y41.874 Z0 F1600
G1 X57.75 Y42.242 Z0 F1600
G1 X57.801 Y42.617 Z0 F1600
G1 X57.818 Y42.981 Z0 F1600
G1 X57.812 Y43.19 Z0 F1600
G1 X57.763 Y43.087 Z0 F1600
G1 X57.453 Y42.495 Z0 F1600
G1 X57.119 Y41.904 Z0 F1600
G1 X56.765 Y41.327 Z0 F1600
G1 X56.398 Y40.774 Z0 F1600
G1 X56.024 Y40.258 Z0 F1600
G1 X55.487 Y39.587 Z0 F1600
G1 X54.919 Y38.945 Z0 F1600
G1 X54.325 Y38.333 Z0 F1600
G1 X53.707 Y37.756 Z0 F1600
G1 X53.068 Y37.214 Z0 F1600
G1 X52.411 Y36.713 Z0 F1600
G1 X51.739 Y36.254 Z0 F1600
G1 X51.063 Y35.845 Z0 F1600
G1 X50.763 Y35.679 Z0 F1600
G1 X50.505 Y35.549 Z0 F1600
G1 X49.944 Y35.35 Z0 F1600
G1 X48.929 Y35.945 Z0 F1600
G1 X48.108 Y35.876 Z0 F1600
G1 X47.854 Y36.709 Z0 F1600
G1 X47.841 Y36.922 Z0 F1600
G1 X47.846 Y37.083 Z0 F1600
G1 X47.871 Y37.395 Z0 F1600
G1 X47.917 Y37.773 Z0 F1600
G1 X48.048 Y38.613 Z0 F1600
G1 X48.216 Y39.42 Z0 F1600
G1 X48.48 Y40.402 Z0 F1600
G1 X48.778 Y41.341 Z0 F1600
G1 X49.113 Y42.249 Z0 F1600
G1 X49.488 Y43.131 Z0 F1600
G1 X49.905 Y43.99 Z0 F1600
G1 X50.366 Y44.831 Z0 F1600
G1 X50.872 Y45.658 Z0 F1600
G1 X51.423 Y46.473 Z0 F1600
G1 X51.905 Y47.131 Z0 F1600
G1 X51.926 Y47.159 Z0 F1600
G1 X51.834 Y47.133 Z0 F1600
G1 X51.658 Y47.058 Z0 F1600
G1 X51.455 Y46.943 Z0 F1600
G1 X51.225 Y46.784 Z0 F1600
G1 X50.97 Y46.577 Z0 F1600
G1 X50.678 Y46.307 Z0 F1600
G1 X50.374 Y45.998 Z0 F1600
G1 X50.035 Y45.625 Z0 F1600
G1 X49.954 Y45.521 Z0 F1600
G1 X49.829 Y45.344 Z0 F1600
G1 X49.677 Y45.111 Z0 F1600
G1 X49.516 Y44.853 Z0 F1600
G1 X49.187 Y44.285 Z0 F1600
G1 X48.9 Y43.739 Z0 F1600
G1 X48.731 Y43.368 Z0 F1600
G1 X48.576 Y42.974 Z0 F1600
G1 X48.434 Y42.553 Z0 F1600
G1 X48.301 Y42.086 Z0 F1600
G1 X48.185 Y41.601 Z0 F1600
G1 X48.068 Y41.025 Z0 F1600
G1 X47.965 Y40.418 Z0 F1600
G1 X47.872 Y39.769 Z0 F1600
G1 X47.857 Y39.63 Z0 F1600
G1 X47.842 Y39.413 Z0 F1600
G1 X47.829 Y39.148 Z0 F1600
G1 X47.817 Y38.834 Z0 F1600
G1 X47.798 Y38.102 Z0 F1600
G1 X47.786 Y37.3 Z0 F1600
G1 X47.783 Y36.511 Z0 F1600
G1 X47.789 Y35.786 Z0 F1600
G1 X47.795 Y35.467 Z0 F1600
G1 X47.803 Y35.22 Z0 F1600
G1 X47.814 Y35.005 Z0 F1600
G1 X47.825 Y34.893 Z0 F1600
G1 X47.919 Y34.159 Z0 F1600
G1 X48.258 Y34.283 Z0 F1600
G0 Z3.5 F1000
G0 X50.261 Y37.979 Z3.5 
G1 Z0 F1000
G1 X50.603 Y38.327 Z0 F1600
G1 X51.021 Y38.761 Z0 F1600
G1 X51.244 Y39.001 Z0 F1600
G1 X51.462 Y39.243 Z0 F1600
G1 X51.669 Y39.482 Z0 F1600
G1 X51.917 Y39.773 Z0 F1600
G1 X52.209 Y40.122 Z0 F1600
G1 X53.035 Y41.164 Z0 F1600
G1 X53.759 Y42.188 Z0 F1600
G1 X54.405 Y43.229 Z0 F1600
G1 X54.988 Y44.307 Z0 F1600
G1 X55.317 Y45.008 Z0 F1600
G1 X55.614 Y45.71 Z0 F1600
G1 X55.741 Y46.039 Z0 F1600
G1 X55.769 Y46.116 Z0 F1600
G1 X55.702 Y46.168 Z0 F1600
G1 X55.278 Y46.45 Z0 F1600
G1 X55.23 Y46.475 Z0 F1600
G1 X55.089 Y46.3 Z0 F1600
G1 X54.903 Y46.063 Z0 F1600
G1 X54.706 Y45.802 Z0 F1600
G1 X54.266 Y45.202 Z0 F1600
G1 X53.823 Y44.573 Z0 F1600
G1 X53.386 Y43.93 Z0 F1600
G1 X52.986 Y43.317 Z0 F1600
G1 X52.624 Y42.735 Z0 F1600
G1 X52.322 Y42.218 Z0 F1600
G1 X51.779 Y41.204 Z0 F1600
G1 X51.233 Y40.113 Z0 F1600
G1 X50.704 Y38.987 Z0 F1600
G1 X50.261 Y37.979 Z0 F1600
G0 Z3.5 F1000
G0 X50.016 Y36.392 Z3.5 
G1 Z0 F1000
G1 X50.049 Y36.441 Z0 F1600
G1 X50.101 Y36.508 Z0 F1600
G1 X50.174 Y36.591 Z0 F1600
G1 X50.267 Y36.692 Z0 F1600
G1 X50.512 Y36.949 Z0 F1600
G1 X51.251 Y37.703 Z0 F1600
G1 X51.68 Y38.148 Z0 F1600
G1 X51.914 Y38.399 Z0 F1600
G1 X52.131 Y38.642 Z0 F1600
G1 X52.355 Y38.899 Z0 F1600
G1 X52.606 Y39.195 Z0 F1600
G1 X52.907 Y39.553 Z0 F1600
G1 X53.754 Y40.621 Z0 F1600
G1 X54.51 Y41.691 Z0 F1600
G1 X55.186 Y42.779 Z0 F1600
G1 X55.792 Y43.902 Z0 F1600
G1 X56.136 Y44.633 Z0 F1600
G1 X56.453 Y45.385 Z0 F1600
G1 X56.584 Y45.723 Z0 F1600
G1 X56.686 Y46.012 Z0 F1600
G1 X56.752 Y46.233 Z0 F1600
G1 X56.776 Y46.369 Z0 F1600
G1 X56.734 Y46.456 Z0 F1600
G1 X56.618 Y46.582 Z0 F1600
G1 X56.444 Y46.733 Z0 F1600
G1 X56.228 Y46.898 Z0 F1600
G1 X55.737 Y47.226 Z0 F1600
G1 X55.273 Y47.468 Z0 F1600
G1 X55.11 Y47.527 Z0 F1600
G1 X54.998 Z0 F1600
G1 X54.891 Y47.457 Z0 F1600
G1 X54.745 Y47.297 Z0 F1600
G1 X54.574 Y47.095 Z0 F1600
G1 X54.388 Y46.864 Z0 F1600
G1 X54.189 Y46.61 Z0 F1600
G1 X53.98 Y46.334 Z0 F1600
G1 X53.54 Y45.734 Z0 F1600
G1 X53.087 Y45.092 Z0 F1600
G1 X52.642 Y44.436 Z0 F1600
G1 X52.222 Y43.793 Z0 F1600
G1 X51.848 Y43.192 Z0 F1600
G1 X51.538 Y42.661 Z0 F1600
G1 X50.985 Y41.629 Z0 F1600
G1 X50.423 Y40.506 Z0 F1600
G1 X49.881 Y39.352 Z0 F1600
G1 X49.388 Y38.228 Z0 F1600
G1 X49.163 Y37.7 Z0 F1600
G1 X48.973 Y37.262 Z0 F1600
G1 X48.836 Y36.958 Z0 F1600
G1 X48.795 Y36.871 Z0 F1600
G1 X48.774 Y36.835 Z0 F1600
G1 X48.757 Z0 F1600
G1 X48.746 Y36.869 Z0 F1600
G1 X48.742 Y36.937 Z0 F1600
G1 X48.745 Y37.035 Z0 F1600
G1 X48.767 Y37.305 Z0 F1600
G1 X48.808 Y37.65 Z0 F1600
G1 X48.934 Y38.452 Z0 F1600
G1 X49.092 Y39.211 Z0 F1600
G1 X49.344 Y40.149 Z0 F1600
G1 X49.629 Y41.049 Z0 F1600
G1 X49.95 Y41.917 Z0 F1600
G1 X50.308 Y42.758 Z0 F1600
G1 X50.705 Y43.577 Z0 F1600
G1 X51.145 Y44.379 Z0 F1600
G1 X51.628 Y45.17 Z0 F1600
G1 X52.159 Y45.955 Z0 F1600
G1 X52.625 Y46.592 Z0 F1600
G1 X53.096 Y47.207 Z0 F1600
G1 X53.304 Y47.468 Z0 F1600
G1 X53.478 Y47.678 Z0 F1600
G1 X53.547 Y47.758 Z0 F1600
G1 X53.604 Y47.821 Z0 F1600
G1 X53.647 Y47.863 Z0 F1600
G1 X53.673 Y47.883 Z0 F1600
G1 X53.718 Y47.938 Z0 F1600
G1 X53.736 Y48.03 Z0 F1600
G1 X53.68 Y48.08 Z0 F1600
G1 X53.526 Y48.118 Z0 F1600
G1 X53.296 Y48.142 Z0 F1600
G1 X53.013 Y48.153 Z0 F1600
G1 X52.378 Y48.135 Z0 F1600
G1 X51.802 Y48.059 Z0 F1600
G1 X51.533 Y47.983 Z0 F1600
G1 X51.259 Y47.866 Z0 F1600
G1 X50.978 Y47.708 Z0 F1600
G1 X50.685 Y47.505 Z0 F1600
G1 X50.379 Y47.256 Z0 F1600
G1 X50.056 Y46.958 Z0 F1600
G1 X49.714 Y46.609 Z0 F1600
G1 X49.35 Y46.208 Z0 F1600
G1 X49.231 Y46.059 Z0 F1600
G1 X49.086 Y45.853 Z0 F1600
G1 X48.923 Y45.604 Z0 F1600
G1 X48.749 Y45.323 Z0 F1600
G1 X48.398 Y44.718 Z0 F1600
G1 X48.094 Y44.139 Z0 F1600
G1 X47.903 Y43.72 Z0 F1600
G1 X47.73 Y43.283 Z0 F1600
G1 X47.574 Y42.818 Z0 F1600
G1 X47.432 Y42.322 Z0 F1600
G1 X47.304 Y41.786 Z0 F1600
G1 X47.186 Y41.204 Z0 F1600
G1 X47.078 Y40.569 Z0 F1600
G1 X46.978 Y39.875 Z0 F1600
G1 X46.96 Y39.706 Z0 F1600
G1 X46.944 Y39.476 Z0 F1600
G1 X46.93 Y39.194 Z0 F1600
G1 X46.917 Y38.869 Z0 F1600
G1 X46.898 Y38.125 Z0 F1600
G1 X46.886 Y37.313 Z0 F1600
G1 X46.883 Y36.504 Z0 F1600
G1 X46.889 Y35.767 Z0 F1600
G1 X46.896 Y35.448 Z0 F1600
G1 X46.904 Y35.173 Z0 F1600
G1 X46.916 Y34.951 Z0 F1600
G1 X46.931 Y34.792 Z0 F1600
G1 X47.072 Y33.689 Z0 F1600
G1 X47.11 Y33.402 Z0 F1600
G1 X47.159 Y33.077 Z0 F1600
G1 X47.181 Y32.966 Z0 F1600
G1 X47.186 Y32.951 Z0 F1600
G1 X47.24 Y32.966 Z0 F1600
G1 X47.561 Y33.074 Z0 F1600
G1 X47.79 Y33.153 Z0 F1600
G1 X48.578 Y33.442 Z0 F1600
G1 X49.4 Y33.773 Z0 F1600
G1 X50.237 Y34.137 Z0 F1600
G1 X51.068 Y34.524 Z0 F1600
G1 X51.873 Y34.924 Z0 F1600
G1 X52.633 Y35.329 Z0 F1600
G1 X53.328 Y35.728 Z0 F1600
G1 X53.937 Y36.112 Z0 F1600
G1 X54.495 Y36.499 Z0 F1600
G1 X55.02 Y36.895 Z0 F1600
G1 X55.513 Y37.299 Z0 F1600
G1 X55.974 Y37.712 Z0 F1600
G1 X56.4 Y38.132 Z0 F1600
G1 X56.793 Y38.558 Z0 F1600
G1 X57.151 Y38.989 Z0 F1600
G1 X57.474 Y39.425 Z0 F1600
G1 X57.761 Y39.864 Z0 F1600
G1 X58.012 Y40.306 Z0 F1600
G1 X58.225 Y40.75 Z0 F1600
G1 X58.401 Y41.196 Z0 F1600
G1 X58.539 Y41.642 Z0 F1600
G1 X58.638 Y42.087 Z0 F1600
G1 X58.698 Y42.532 Z0 F1600
G1 X58.718 Y42.974 Z0 F1600
G1 X58.708 Y43.321 Z0 F1600
G1 X58.676 Y43.633 Z0 F1600
G1 X58.621 Y43.923 Z0 F1600
G1 X58.54 Y44.202 Z0 F1600
G1 X58.372 Y44.622 Z0 F1600
G1 X58.154 Y45.086 Z0 F1600
G1 X58.047 Y45.293 Z0 F1600
G1 X57.953 Y45.462 Z0 F1600
G1 X57.878 Y45.575 Z0 F1600
G1 X57.833 Y45.617 Z0 F1600
G1 X57.807 Y45.572 Z0 F1600
G1 X57.757 Y45.449 Z0 F1600
G1 X57.692 Y45.268 Z0 F1600
G1 X57.617 Y45.047 Z0 F1600
G1 X57.441 Y44.563 Z0 F1600
G1 X57.219 Y44.039 Z0 F1600
G1 X56.957 Y43.489 Z0 F1600
G1 X56.663 Y42.925 Z0 F1600
G1 X56.343 Y42.361 Z0 F1600
G1 X56.006 Y41.811 Z0 F1600
G1 X55.659 Y41.287 Z0 F1600
G1 X55.308 Y40.804 Z0 F1600
G1 X54.798 Y40.167 Z0 F1600
G1 X54.259 Y39.557 Z0 F1600
G1 X53.695 Y38.977 Z0 F1600
G1 X53.108 Y38.429 Z0 F1600
G1 X52.503 Y37.916 Z0 F1600
G1 X51.883 Y37.443 Z0 F1600
G1 X51.252 Y37.011 Z0 F1600
G1 X50.612 Y36.625 Z0 F1600
G1 X50.342 Y36.475 Z0 F1600
G1 X50.15 Y36.378 Z0 F1600
G1 X50.038 Y36.338 Z0 F1600
G1 X50.003 Y36.358 Z0 F1600
G1 X50.016 Y36.392 Z0 F1600
G0 Z3.5 F1000
G0 X83.379 Y36.307 Z3.5 
G1 Z0 F1000
G1 X83.563 Y36.182 Z0 F1600
G1 X83.596 Y36.158 Z0 F1600
G1 X83.663 Y36.113 Z0 F1600
G1 X83.783 Y36.045 Z0 F1600
G1 X84.003 Y35.929 Z0 F1600
G1 X84.251 Y35.805 Z0 F1600
G1 X84.568 Y35.651 Z0 F1600
G1 X84.903 Y35.494 Z0 F1600
G1 X85.279 Y35.321 Z0 F1600
G1 X85.659 Y35.149 Z0 F1600
G1 X86.468 Y34.794 Z0 F1600
G1 X87.242 Y34.467 Z0 F1600
G1 X87.587 Y34.327 Z0 F1600
G1 X87.917 Y34.197 Z0 F1600
G1 X88.072 Y34.138 Z0 F1600
G1 X88.088 Y34.358 Z0 F1600
G1 X88.123 Y34.98 Z0 F1600
G1 X88.15 Y35.695 Z0 F1600
G1 X88.167 Y36.474 Z0 F1600
G1 X88.174 Y37.254 Z0 F1600
G1 Y37.689 Z0 F1600
G1 X88.168 Y38.092 Z0 F1600
G1 X88.162 Y38.465 Z0 F1600
G1 X88.152 Y38.82 Z0 F1600
G1 X88.125 Y39.421 Z0 F1600
G1 X88.082 Y39.971 Z0 F1600
G1 X87.945 Y40.95 Z0 F1600
G1 X87.73 Y41.906 Z0 F1600
G1 X87.468 Y42.759 Z0 F1600
G1 X87.137 Y43.576 Z0 F1600
G1 X86.742 Y44.359 Z0 F1600
G1 X86.293 Y45.09 Z0 F1600
G1 X86.064 Y45.413 Z0 F1600
G1 X85.818 Y45.728 Z0 F1600
G1 X85.576 Y46.01 Z0 F1600
G1 X85.328 Y46.267 Z0 F1600
G1 X85.078 Y46.498 Z0 F1600
G1 X84.836 Y46.693 Z0 F1600
G1 X84.603 Y46.855 Z0 F1600
G1 X84.372 Y46.988 Z0 F1600
G1 X84.092 Y47.123 Z0 F1600
G1 X84.069 Y47.13 Z0 F1600
G1 X84.203 Y46.95 Z0 F1600
G1 X84.511 Y46.528 Z0 F1600
G1 X84.803 Y46.12 Z0 F1600
G1 X85.063 Y45.745 Z0 F1600
G1 X85.276 Y45.425 Z0 F1600
G1 X85.606 Y44.884 Z0 F1600
G1 X85.927 Y44.31 Z0 F1600
G1 X86.236 Y43.711 Z0 F1600
G1 X86.533 Y43.083 Z0 F1600
G1 X87.066 Y41.804 Z0 F1600
G1 X87.521 Y40.485 Z0 F1600
G1 X87.757 Y39.599 Z0 F1600
G1 X87.96 Y38.636 Z0 F1600
G1 X88.042 Y38.172 Z0 F1600
G1 X88.102 Y37.759 Z0 F1600
G1 X88.125 Y37.564 Z0 F1600
G1 X88.139 Y37.387 Z0 F1600
G1 X88.146 Y37.214 Z0 F1600
G1 X88.141 Y37.033 Z0 F1600
G1 X88.091 Y36.698 Z0 F1600
G1 X87.465 Y35.779 Z0 F1600
G1 X86.903 Y36.131 Z0 F1600
G1 X86.972 Y35.608 Z0 F1600
G1 X85.896 Y35.435 Z0 F1600
G1 X85.606 Y35.51 Z0 F1600
G1 X85.454 Y35.57 Z0 F1600
G1 X85.314 Y35.635 Z0 F1600
G1 X85.035 Y35.781 Z0 F1600
G1 X84.71 Y35.967 Z0 F1600
G1 X84.014 Y36.401 Z0 F1600
G1 X83.354 Y36.86 Z0 F1600
G1 X82.958 Y37.174 Z0 F1600
G1 X82.53 Y37.542 Z0 F1600
G1 X82.091 Y37.94 Z0 F1600
G1 X81.666 Y38.344 Z0 F1600
G1 X81.28 Y38.727 Z0 F1600
G1 X80.963 Y39.063 Z0 F1600
G1 X80.827 Y39.221 Z0 F1600
G1 X80.704 Y39.377 Z0 F1600
G1 X80.627 Y39.5 Z0 F1600
G1 X80.527 Y39.586 Z0 F1600
G1 X80.33 Y39.791 Z0 F1600
G1 X80.13 Y40.022 Z0 F1600
G1 X79.743 Y40.52 Z0 F1600
G1 X79.371 Y41.045 Z0 F1600
G1 X79.016 Y41.593 Z0 F1600
G1 X78.68 Y42.159 Z0 F1600
G1 X78.367 Y42.738 Z0 F1600
G1 X78.238 Y42.999 Z0 F1600
G1 Y42.714 Z0 F1600
G1 X78.245 Y42.474 Z0 F1600
G1 X78.255 Y42.274 Z0 F1600
G1 X78.267 Y42.152 Z0 F1600
G1 X78.312 Y41.908 Z0 F1600
G1 X78.392 Y41.64 Z0 F1600
G1 X78.577 Y41.154 Z0 F1600
G1 X78.799 Y40.684 Z0 F1600
G1 X79.064 Y40.221 Z0 F1600
G1 X79.374 Y39.763 Z0 F1600
G1 X79.741 Y39.295 Z0 F1600
G1 X80.158 Y38.825 Z0 F1600
G1 X80.646 Y38.333 Z0 F1600
G1 X81.192 Y37.833 Z0 F1600
G1 X81.474 Y37.592 Z0 F1600
G1 X81.729 Y37.396 Z0 F1600
G1 X81.889 Y37.283 Z0 F1600
G1 X82.064 Y37.165 Z0 F1600
G1 X82.301 Y37.009 Z0 F1600
G1 X82.95 Y36.588 Z0 F1600
G1 X83.379 Y36.307 Z0 F1600
G0 Z3.5 F1000
G0 X85.764 Y37.933 Z3.5 
G1 Z0 F1000
G1 X85.237 Y39.132 Z0 F1600
G1 X84.701 Y40.267 Z0 F1600
G1 X84.148 Y41.347 Z0 F1600
G1 X83.588 Y42.354 Z0 F1600
G1 X82.993 Y43.335 Z0 F1600
G1 X82.368 Y44.288 Z0 F1600
G1 X81.704 Y45.223 Z0 F1600
G1 X80.991 Y46.158 Z0 F1600
G1 X80.748 Y46.466 Z0 F1600
G1 X80.529 Y46.334 Z0 F1600
G1 X80.245 Y46.145 Z0 F1600
G1 X80.166 Y46.085 Z0 F1600
G1 X80.177 Y46.055 Z0 F1600
G1 X80.288 Y45.778 Z0 F1600
G1 X80.438 Y45.431 Z0 F1600
G1 Y45.425 Z0 F1600
G1 X80.445 Y45.415 Z0 F1600
G1 X80.611 Y45.048 Z0 F1600
G1 X80.812 Y44.627 Z0 F1600
G1 X81.014 Y44.22 Z0 F1600
G1 X81.457 Y43.395 Z0 F1600
G1 X81.932 Y42.599 Z0 F1600
G1 X82.459 Y41.804 Z0 F1600
G1 X83.034 Y41.016 Z0 F1600
G1 X83.68 Y40.207 Z0 F1600
G1 X84.374 Y39.401 Z0 F1600
G1 X85.162 Y38.548 Z0 F1600
G1 X85.764 Y37.933 Z0 F1600
G0 Z3.5 F1000
G0 X87.173 Y37.025 Z3.5 
G1 Z0 F1000
G1 X87.116 Y37.112 Z0 F1600
G1 X87.035 Y37.272 Z0 F1600
G1 X86.924 Y37.515 Z0 F1600
G1 X86.779 Y37.848 Z0 F1600
G1 X86.594 Y38.28 Z0 F1600
G1 X86.051 Y39.517 Z0 F1600
G1 X85.502 Y40.676 Z0 F1600
G1 X84.942 Y41.771 Z0 F1600
G1 X84.362 Y42.813 Z0 F1600
G1 X83.755 Y43.815 Z0 F1600
G1 X83.114 Y44.792 Z0 F1600
G1 X82.43 Y45.754 Z0 F1600
G1 X81.698 Y46.714 Z0 F1600
G1 X81.041 Y47.55 Z0 F1600
G1 X81 Y47.565 Z0 F1600
G1 X80.925 Y47.553 Z0 F1600
G1 X80.821 Y47.518 Z0 F1600
G1 X80.694 Y47.462 Z0 F1600
G1 X80.39 Y47.301 Z0 F1600
G1 X80.051 Y47.097 Z0 F1600
G1 X79.718 Y46.875 Z0 F1600
G1 X79.431 Y46.659 Z0 F1600
G1 X79.317 Y46.562 Z0 F1600
G1 X79.229 Y46.476 Z0 F1600
G1 X79.173 Y46.404 Z0 F1600
G1 X79.153 Y46.351 Z0 F1600
G1 X79.175 Y46.217 Z0 F1600
G1 X79.236 Y46.011 Z0 F1600
G1 X79.333 Y45.743 Z0 F1600
G1 X79.461 Y45.422 Z0 F1600
G1 X79.618 Y45.059 Z0 F1600
G1 X79.799 Y44.661 Z0 F1600
G1 X80 Y44.24 Z0 F1600
G1 X80.216 Y43.804 Z0 F1600
G1 X80.673 Y42.951 Z0 F1600
G1 X81.172 Y42.117 Z0 F1600
G1 X81.718 Y41.292 Z0 F1600
G1 X82.319 Y40.469 Z0 F1600
G1 X82.98 Y39.64 Z0 F1600
G1 X83.708 Y38.795 Z0 F1600
G1 X84.51 Y37.927 Z0 F1600
G1 X85.63 Y36.782 Z0 F1600
G1 X85.818 Y36.575 Z0 F1600
G1 X85.887 Y36.491 Z0 F1600
G1 X85.936 Y36.426 Z0 F1600
G1 X85.963 Y36.38 Z0 F1600
G1 X85.966 Y36.358 Z0 F1600
G1 X85.939 Y36.354 Z0 F1600
G1 X85.886 Y36.367 Z0 F1600
G1 X85.81 Y36.397 Z0 F1600
G1 X85.712 Y36.442 Z0 F1600
G1 X85.468 Y36.571 Z0 F1600
G1 X85.171 Y36.74 Z0 F1600
G1 X84.509 Y37.153 Z0 F1600
G1 X83.891 Y37.583 Z0 F1600
G1 X83.532 Y37.868 Z0 F1600
G1 X83.126 Y38.217 Z0 F1600
G1 X82.703 Y38.601 Z0 F1600
G1 X82.292 Y38.99 Z0 F1600
G1 X81.925 Y39.354 Z0 F1600
G1 X81.631 Y39.667 Z0 F1600
G1 X81.521 Y39.793 Z0 F1600
G1 X81.441 Y39.896 Z0 F1600
G1 X81.394 Y39.971 Z0 F1600
G1 X81.384 Y40.014 Z0 F1600
G1 X81.394 Y40.056 Z0 F1600
G1 X81.387 Y40.087 Z0 F1600
G1 X81.367 Y40.105 Z0 F1600
G1 X81.333 Z0 F1600
G1 X81.265 Y40.138 Z0 F1600
G1 X81.146 Y40.241 Z0 F1600
G1 X80.995 Y40.397 Z0 F1600
G1 X80.827 Y40.592 Z0 F1600
G1 X80.466 Y41.056 Z0 F1600
G1 X80.116 Y41.55 Z0 F1600
G1 X79.781 Y42.067 Z0 F1600
G1 X79.463 Y42.603 Z0 F1600
G1 X79.167 Y43.151 Z0 F1600
G1 X78.894 Y43.704 Z0 F1600
G1 X78.65 Y44.257 Z0 F1600
G1 X78.438 Y44.804 Z0 F1600
G1 X78.167 Y45.553 Z0 F1600
G1 X77.981 Y45.294 Z0 F1600
G1 X77.784 Y44.966 Z0 F1600
G1 X77.567 Y44.544 Z0 F1600
G1 X77.442 Y44.25 Z0 F1600
G1 X77.373 Y43.967 Z0 F1600
G1 X77.354 Y43.796 Z0 F1600
G1 X77.344 Y43.587 Z0 F1600
G1 X77.339 Y43.326 Z0 F1600
G1 Y42.999 Z0 F1600
G1 Y42.693 Z0 F1600
G1 X77.345 Y42.437 Z0 F1600
G1 X77.357 Y42.219 Z0 F1600
G1 X77.375 Y42.029 Z0 F1600
G1 X77.436 Y41.695 Z0 F1600
G1 X77.538 Y41.353 Z0 F1600
G1 X77.749 Y40.801 Z0 F1600
G1 X78.001 Y40.267 Z0 F1600
G1 X78.3 Y39.745 Z0 F1600
G1 X78.647 Y39.231 Z0 F1600
G1 X79.048 Y38.72 Z0 F1600
G1 X79.504 Y38.207 Z0 F1600
G1 X80.02 Y37.687 Z0 F1600
G1 X80.599 Y37.156 Z0 F1600
G1 X80.905 Y36.895 Z0 F1600
G1 X81.199 Y36.668 Z0 F1600
G1 X81.369 Y36.548 Z0 F1600
G1 X81.57 Y36.413 Z0 F1600
G1 X81.812 Y36.253 Z0 F1600
G1 X82.458 Y35.834 Z0 F1600
G1 X82.88 Y35.558 Z0 F1600
G1 X83.044 Y35.447 Z0 F1600
G1 X83.08 Y35.421 Z0 F1600
G1 X83.186 Y35.349 Z0 F1600
G1 X83.356 Y35.252 Z0 F1600
G1 X83.583 Y35.132 Z0 F1600
G1 X83.859 Y34.994 Z0 F1600
G1 X84.177 Y34.841 Z0 F1600
G1 X84.527 Y34.676 Z0 F1600
G1 X84.903 Y34.503 Z0 F1600
G1 X85.297 Y34.325 Z0 F1600
G1 X86.106 Y33.97 Z0 F1600
G1 X86.892 Y33.638 Z0 F1600
G1 X87.257 Y33.489 Z0 F1600
G1 X87.593 Y33.357 Z0 F1600
G1 X87.892 Y33.244 Z0 F1600
G1 X88.146 Y33.155 Z0 F1600
G1 X88.38 Y33.079 Z0 F1600
G1 X88.579 Y33.015 Z0 F1600
G1 X88.723 Y32.971 Z0 F1600
G1 X88.791 Y32.955 Z0 F1600
G1 X88.817 Y32.978 Z0 F1600
G1 X88.844 Y33.048 Z0 F1600
G1 X88.87 Y33.163 Z0 F1600
G1 X88.895 Y33.319 Z0 F1600
G1 X88.919 Y33.514 Z0 F1600
G1 X88.943 Y33.743 Z0 F1600
G1 X88.965 Y34.004 Z0 F1600
G1 X88.986 Y34.294 Z0 F1600
G1 X89.022 Y34.946 Z0 F1600
G1 X89.05 Y35.675 Z0 F1600
G1 X89.067 Y36.453 Z0 F1600
G1 X89.074 Y37.257 Z0 F1600
G1 Y37.698 Z0 F1600
G1 X89.068 Y38.108 Z0 F1600
G1 X89.062 Y38.49 Z0 F1600
G1 X89.052 Y38.845 Z0 F1600
G1 X89.022 Y39.491 Z0 F1600
G1 X88.977 Y40.068 Z0 F1600
G1 X88.833 Y41.107 Z0 F1600
G1 X88.6 Y42.141 Z0 F1600
G1 X88.318 Y43.058 Z0 F1600
G1 X87.957 Y43.949 Z0 F1600
G1 X87.528 Y44.798 Z0 F1600
G1 X87.044 Y45.586 Z0 F1600
G1 X86.785 Y45.952 Z0 F1600
G1 X86.516 Y46.296 Z0 F1600
G1 X86.24 Y46.617 Z0 F1600
G1 X85.957 Y46.912 Z0 F1600
G1 X85.668 Y47.178 Z0 F1600
G1 X85.376 Y47.414 Z0 F1600
G1 X85.083 Y47.618 Z0 F1600
G1 X84.789 Y47.786 Z0 F1600
G1 X84.43 Y47.959 Z0 F1600
G1 X84.132 Y48.057 Z0 F1600
G1 X83.971 Y48.086 Z0 F1600
G1 X83.781 Y48.107 Z0 F1600
G1 X83.55 Y48.122 Z0 F1600
G1 X83.263 Y48.134 Z0 F1600
G1 X82.901 Y48.142 Z0 F1600
G1 X82.595 Y48.137 Z0 F1600
G1 X82.472 Y48.131 Z0 F1600
G1 X82.375 Y48.122 Z0 F1600
G1 X82.308 Y48.11 Z0 F1600
G1 X82.274 Y48.096 Z0 F1600
G1 X82.266 Y48.044 Z0 F1600
G1 X82.297 Y47.958 Z0 F1600
G1 X82.364 Y47.85 Z0 F1600
G1 X82.461 Y47.728 Z0 F1600
G1 X82.548 Y47.626 Z0 F1600
G1 X82.65 Y47.5 Z0 F1600
G1 X82.896 Y47.19 Z0 F1600
G1 X83.178 Y46.82 Z0 F1600
G1 X83.479 Y46.416 Z0 F1600
G1 X83.782 Y46.001 Z0 F1600
G1 X84.067 Y45.602 Z0 F1600
G1 X84.318 Y45.24 Z0 F1600
G1 X84.517 Y44.941 Z0 F1600
G1 X84.83 Y44.429 Z0 F1600
G1 X85.134 Y43.884 Z0 F1600
G1 X85.429 Y43.313 Z0 F1600
G1 X85.71 Y42.718 Z0 F1600
G1 X86.225 Y41.483 Z0 F1600
G1 X86.66 Y40.223 Z0 F1600
G1 X86.881 Y39.39 Z0 F1600
G1 X87.077 Y38.466 Z0 F1600
G1 X87.153 Y38.03 Z0 F1600
G1 X87.209 Y37.643 Z0 F1600
G1 X87.229 Y37.476 Z0 F1600
G1 X87.241 Y37.33 Z0 F1600
G1 X87.246 Y37.208 Z0 F1600
G1 X87.243 Y37.113 Z0 F1600
G1 X87.231 Y37.034 Z0 F1600
G1 X87.209 Y37.002 Z0 F1600
G1 X87.173 Y37.025 Z0 F1600
;Cut @ 1500 mm/min, 80% power

M8
G0 Z3.5 F1000
G0 X71.391 Y40.998 Z3.5 
G1 Z0 F1000
;Layer Red
G1 X71.364 Y40.958 Z0 S800 F1600
G1 X71.339 Y40.951 Z0 F1600
G1 X71.285 Y40.945 Z0 F1600
G1 X71.099 Y40.932 Z0 F1600
G1 X70.818 Y40.92 Z0 F1600
G1 X70.455 Y40.91 Z0 F1600
G1 X70.021 Y40.902 Z0 F1600
G1 X69.529 Y40.895 Z0 F1600
G1 X68.991 Y40.891 Z0 F1600
G1 X68.418 Z0 F1600
G1 X67.672 Z0 F1600
G1 X67.055 Y40.894 Z0 F1600
G1 X66.556 Y40.901 Z0 F1600
G1 X66.166 Y40.911 Z0 F1600
G1 X65.875 Y40.925 Z0 F1600
G1 X65.672 Y40.943 Z0 F1600
G1 X65.548 Y40.966 Z0 F1600
G1 X65.492 Y40.994 Z0 F1600
G1 X65.469 Y41.038 Z0 F1600
G1 X65.44 Y41.125 Z0 F1600
G1 X65.404 Y41.248 Z0 F1600
G1 X65.364 Y41.403 Z0 F1600
G1 X65.274 Y41.788 Z0 F1600
G1 X65.18 Y42.239 Z0 F1600
G1 X65.08 Y42.738 Z0 F1600
G1 X64.924 Y43.501 Z0 F1600
G1 X64.732 Y44.407 Z0 F1600
G1 X64.67 Y44.721 Z0 F1600
G1 X64.618 Y45.002 Z0 F1600
G1 X64.583 Y45.214 Z0 F1600
G1 X64.565 Y45.358 Z0 F1600
G1 X64.546 Y45.465 Z0 F1600
G1 X64.507 Y45.542 Z0 F1600
G1 X64.429 Y45.6 Z0 F1600
G1 X64.293 Y45.647 Z0 F1600
G1 X64.079 Y45.693 Z0 F1600
G1 X63.937 Y45.718 Z0 F1600
G1 X63.147 Y45.851 Z0 F1600
G1 X62.992 Y45.873 Z0 F1600
G1 X62.872 Y45.886 Z0 F1600
G1 X62.779 Y45.889 Z0 F1600
G1 X62.656 Y45.863 Z0 F1600
G1 X62.574 Y45.794 Z0 F1600
G1 X62.538 Y45.748 Z0 F1600
G1 X62.406 Y45.564 Z0 F1600
G1 X62.091 Y45.102 Z0 F1600
G1 X61.827 Y44.708 Z0 F1600
G1 X61.244 Y43.826 Z0 F1600
G1 X60.536 Y42.731 Z0 F1600
G1 X60.392 Y42.52 Z0 F1600
G1 X60.334 Y42.438 Z0 F1600
G1 X60.288 Y42.377 Z0 F1600
G1 X60.256 Y42.338 Z0 F1600
G1 X60.238 Y42.324 Z0 F1600
G1 X60.23 Y42.346 Z0 F1600
G1 X60.222 Y42.409 Z0 F1600
G1 X60.214 Y42.508 Z0 F1600
G1 X60.208 Y42.64 Z0 F1600
G1 X60.198 Y42.982 Z0 F1600
G1 X60.191 Y43.727 Z0 F1600
G1 X60.185 Y43.994 Z0 F1600
G1 X60.173 Y44.217 Z0 F1600
G1 X60.152 Y44.408 Z0 F1600
G1 X60.081 Y44.752 Z0 F1600
G1 X59.954 Y45.137 Z0 F1600
G1 X59.718 Y45.796 Z0 F1600
G1 X61.615 Y48.631 Z0 F1600
G1 X62.187 Y49.479 Z0 F1600
G1 X62.63 Y50.127 Z0 F1600
G1 X62.844 Y50.434 Z0 F1600
G1 X62.918 Y50.535 Z0 F1600
G1 X62.932 Y50.551 Z0 F1600
G1 X62.997 Z0 F1600
G1 X63.132 Y50.532 Z0 F1600
G1 X63.318 Y50.491 Z0 F1600
G1 X63.535 Y50.435 Z0 F1600
G1 X63.973 Y50.327 Z0 F1600
G1 X64.455 Y50.234 Z0 F1600
G1 X64.975 Y50.155 Z0 F1600
G1 X65.527 Y50.09 Z0 F1600
G1 X66.698 Y50.004 Z0 F1600
G1 X67.919 Y49.975 Z0 F1600
G1 X69.139 Y50.003 Z0 F1600
G1 X70.309 Y50.088 Z0 F1600
G1 X70.859 Y50.152 Z0 F1600
G1 X71.377 Y50.23 Z0 F1600
G1 X71.858 Y50.323 Z0 F1600
G1 X72.295 Y50.43 Z0 F1600
G1 X72.545 Y50.499 Z0 F1600
G1 X72.739 Y50.548 Z0 F1600
G1 X72.884 Y50.577 Z0 F1600
G1 X72.991 Y50.587 Z0 F1600
G1 X73.122 Y50.549 Z0 F1600
G1 X73.201 Y50.433 Z0 F1600
G1 X73.238 Y50.371 Z0 F1600
G1 X73.31 Y50.258 Z0 F1600
G1 X73.545 Y49.902 Z0 F1600
G1 X73.872 Y49.418 Z0 F1600
G1 X74.256 Y48.858 Z0 F1600
G1 X75.547 Y46.983 Z0 F1600
G1 X75.666 Y46.798 Z0 F1600
G1 X75.753 Y46.636 Z0 F1600
G1 X75.801 Y46.515 Z0 F1600
G1 Y46.453 Z0 F1600
G1 X75.768 Y46.437 Z0 F1600
G1 X75.699 Y46.412 Z0 F1600
G1 X75.596 Y46.379 Z0 F1600
G1 X75.463 Y46.339 Z0 F1600
G1 X75.123 Y46.243 Z0 F1600
G1 X74.706 Y46.132 Z0 F1600
G1 X73.763 Y45.893 Z0 F1600
G1 X72.869 Y45.684 Z0 F1600
G1 X72.369 Y45.575 Z0 F1600
G1 X71.728 Y42.329 Z0 F1600
G1 X71.62 Y41.818 Z0 F1600
G1 X71.515 Y41.389 Z0 F1600
G1 X71.468 Y41.219 Z0 F1600
G1 X71.426 Y41.087 Z0 F1600
G1 X71.391 Y40.998 Z0 F1600
G0 Z3.5 F1000
G0 X82.857 Y50.44 Z3.5 
G1 Z0 F1000
G1 X81.814 Y52.492 Z0 F1600
G1 X81.486 Y53.13 Z0 F1600
G1 X81.22 Y53.644 Z0 F1600
G1 X81.046 Y53.971 Z0 F1600
G1 X80.968 Y54.11 Z0 F1600
G1 X80.952 Y54.168 Z0 F1600
G1 X80.961 Y54.23 Z0 F1600
G1 X81.001 Y54.303 Z0 F1600
G1 X81.079 Y54.397 Z0 F1600
G1 X81.201 Y54.519 Z0 F1600
G1 X81.374 Y54.679 Z0 F1600
G1 X81.602 Y54.885 Z0 F1600
G1 X82.563 Y55.782 Z0 F1600
G1 X83.449 Y56.679 Z0 F1600
G1 X84.262 Y57.581 Z0 F1600
G1 X85.006 Y58.492 Z0 F1600
G1 X85.684 Y59.415 Z0 F1600
G1 X86.298 Y60.353 Z0 F1600
G1 X86.852 Y61.312 Z0 F1600
G1 X87.348 Y62.294 Z0 F1600
G1 X87.546 Y62.74 Z0 F1600
G1 X87.753 Y63.252 Z0 F1600
G1 X87.963 Y63.809 Z0 F1600
G1 X88.168 Y64.392 Z0 F1600
G1 X88.362 Y64.982 Z0 F1600
G1 X88.539 Y65.56 Z0 F1600
G1 X88.691 Y66.106 Z0 F1600
G1 X88.813 Y66.6 Z0 F1600
G1 X89.035 Y67.745 Z0 F1600
G1 X89.195 Y68.926 Z0 F1600
G1 X89.293 Y70.13 Z0 F1600
G1 X89.329 Y71.34 Z0 F1600
G1 X89.303 Y72.544 Z0 F1600
G1 X89.214 Y73.728 Z0 F1600
G1 X89.063 Y74.875 Z0 F1600
G1 X88.85 Y75.973 Z0 F1600
G1 X88.766 Y76.319 Z0 F1600
G1 X88.661 Y76.714 Z0 F1600
G1 X88.543 Y77.137 Z0 F1600
G1 X88.417 Y77.567 Z0 F1600
G1 X88.29 Y77.983 Z0 F1600
G1 X88.169 Y78.362 Z0 F1600
G1 X88.058 Y78.685 Z0 F1600
G1 X87.966 Y78.929 Z0 F1600
G1 X87.705 Y79.562 Z0 F1600
G1 X87.657 Y79.673 Z0 F1600
G1 X87.593 Y79.812 Z0 F1600
G1 X87.428 Y80.158 Z0 F1600
G1 X87.226 Y80.565 Z0 F1600
G1 X87.007 Y80.999 Z0 F1600
G1 X86.786 Y81.425 Z0 F1600
G1 X86.583 Y81.81 Z0 F1600
G1 X86.414 Y82.118 Z0 F1600
G1 X86.348 Y82.232 Z0 F1600
G1 X86.297 Y82.314 Z0 F1600
G1 X86.145 Y82.543 Z0 F1600
G1 X85.939 Y82.844 Z0 F1600
G1 X85.7 Y83.188 Z0 F1600
G1 X85.212 Y83.885 Z0 F1600
G1 X84.919 Y84.294 Z0 F1600
G1 X84.798 Y84.457 Z0 F1600
G1 X84.768 Y84.494 Z0 F1600
G1 X84.597 Y84.695 Z0 F1600
G1 X84.304 Y85.047 Z0 F1600
G1 X83.924 Y85.494 Z0 F1600
G1 X83.544 Y85.921 Z0 F1600
G1 X83.392 Y86.089 Z0 F1600
G1 X83.26 Y86.241 Z0 F1600
G1 X83.161 Y86.361 Z0 F1600
G1 X83.11 Y86.431 Z0 F1600
G1 X83.107 Y86.489 Z0 F1600
G1 X83.133 Y86.601 Z0 F1600
G1 X83.189 Y86.769 Z0 F1600
G1 X83.275 Y86.994 Z0 F1600
G1 X83.393 Y87.279 Z0 F1600
G1 X83.542 Y87.625 Z0 F1600
G1 X83.724 Y88.033 Z0 F1600
G1 X84.009 Y88.661 Z0 F1600
G1 X84.204 Y89.111 Z0 F1600
G1 X84.451 Y89.691 Z0 F1600
G1 X84.584 Y89.994 Z0 F1600
G1 X84.703 Y90.256 Z0 F1600
G1 X84.808 Y90.474 Z0 F1600
G1 X84.897 Y90.648 Z0 F1600
G1 X84.97 Y90.774 Z0 F1600
G1 X85.026 Y90.851 Z0 F1600
G1 X85.063 Y90.877 Z0 F1600
G1 X85.129 Y90.84 Z0 F1600
G1 X85.257 Y90.74 Z0 F1600
G1 X85.429 Y90.591 Z0 F1600
G1 X85.626 Y90.409 Z0 F1600
G1 X86.474 Y89.606 Z0 F1600
G1 X87.31 Y89.995 Z0 F1600
G1 X88.235 Y90.423 Z0 F1600
G1 X88.765 Y90.661 Z0 F1600
G1 X89.286 Y90.899 Z0 F1600
G1 X89.696 Y91.08 Z0 F1600
G1 X90.038 Y91.215 Z0 F1600
G1 X90.32 Y91.306 Z0 F1600
G1 X90.547 Y91.354 Z0 F1600
G1 X90.728 Y91.359 Z0 F1600
G1 X90.869 Y91.322 Z0 F1600
G1 X90.978 Y91.244 Z0 F1600
G1 X91.062 Y91.126 Z0 F1600
G1 X91.096 Y91.071 Z0 F1600
G1 X91.163 Y90.971 Z0 F1600
G1 X91.382 Y90.654 Z0 F1600
G1 X91.697 Y90.208 Z0 F1600
G1 X92.081 Y89.667 Z0 F1600
G1 X92.964 Y88.438 Z0 F1600
G1 X93.835 Y87.24 Z0 F1600
G1 X94.036 Y86.954 Z0 F1600
G1 X94.201 Y86.696 Z0 F1600
G1 X94.264 Y86.586 Z0 F1600
G1 X94.312 Y86.494 Z0 F1600
G1 X94.342 Y86.423 Z0 F1600
G1 X94.353 Y86.377 Z0 F1600
G1 X94.311 Y86.271 Z0 F1600
G1 X94.198 Y86.101 Z0 F1600
G1 X94.03 Y85.889 Z0 F1600
G1 X93.825 Y85.66 Z0 F1600
G1 X92.579 Y84.342 Z0 F1600
G1 X92.03 Y83.754 Z0 F1600
G1 X91.826 Y83.531 Z0 F1600
G1 X91.665 Y83.349 Z0 F1600
G1 X91.54 Y83.202 Z0 F1600
G1 X91.449 Y83.085 Z0 F1600
G1 X91.387 Y82.993 Z0 F1600
G1 X91.349 Y82.92 Z0 F1600
G1 X91.331 Y82.862 Z0 F1600
G1 X91.339 Y82.766 Z0 F1600
G1 X91.435 Y82.5 Z0 F1600
G1 X91.53 Y82.26 Z0 F1600
G1 X91.647 Y81.973 Z0 F1600
G1 X92.068 Y80.968 Z0 F1600
G1 X92.454 Y80.009 Z0 F1600
G1 X92.559 Y79.771 Z0 F1600
G1 X92.646 Y79.591 Z0 F1600
G1 X92.705 Y79.495 Z0 F1600
G1 X92.758 Y79.467 Z0 F1600
G1 X92.864 Y79.442 Z0 F1600
G1 X93.032 Y79.419 Z0 F1600
G1 X93.265 Y79.399 Z0 F1600
G1 X93.571 Y79.381 Z0 F1600
G1 X93.956 Y79.364 Z0 F1600
G1 X94.425 Y79.349 Z0 F1600
G1 X95.626 Y79.317 Z0 F1600
G1 X96.133 Y79.301 Z0 F1600
G1 X96.523 Y79.285 Z0 F1600
G1 X96.814 Y79.265 Z0 F1600
G1 X97.021 Y79.242 Z0 F1600
G1 X97.162 Y79.214 Z0 F1600
G1 X97.253 Y79.18 Z0 F1600
G1 X97.311 Y79.137 Z0 F1600
G1 X97.38 Y79.021 Z0 F1600
G1 X97.455 Y78.815 Z0 F1600
G1 X97.529 Y78.535 Z0 F1600
G1 X97.597 Y78.201 Z0 F1600
G1 X97.712 Y77.565 Z0 F1600
G1 X97.851 Y76.817 Z0 F1600
G1 X98.034 Y75.855 Z0 F1600
G1 X98.279 Y74.576 Z0 F1600
G1 X98.36 Y74.121 Z0 F1600
G1 X98.418 Y73.728 Z0 F1600
G1 X98.437 Y73.568 Z0 F1600
G1 X98.449 Y73.438 Z0 F1600
G1 X98.452 Y73.346 Z0 F1600
G1 X98.445 Y73.295 Z0 F1600
G1 X98.396 Y73.199 Z0 F1600
G1 X98.251 Y73.109 Z0 F1600
G1 X98.1 Y73.048 Z0 F1600
G1 X97.876 Y72.965 Z0 F1600
G1 X96.569 Y72.506 Z0 F1600
G1 X96.022 Y72.31 Z0 F1600
G1 X95.514 Y72.124 Z0 F1600
G1 X95.058 Y71.954 Z0 F1600
G1 X94.671 Y71.806 Z0 F1600
G1 X94.368 Y71.685 Z0 F1600
G1 X94.253 Y71.637 Z0 F1600
G1 X94.164 Y71.597 Z0 F1600
G1 X94.104 Y71.568 Z0 F1600
G1 X94.075 Y71.549 Z0 F1600
G1 X94.06 Y71.504 Z0 F1600
G1 X94.043 Y71.401 Z0 F1600
G1 X94.024 Y71.246 Z0 F1600
G1 X94.004 Y71.046 Z0 F1600
G1 X93.984 Y70.807 Z0 F1600
G1 X93.964 Y70.537 Z0 F1600
G1 X93.946 Y70.242 Z0 F1600
G1 X93.894 Y69.301 Z0 F1600
G1 X93.862 Y68.741 Z0 F1600
G1 X93.834 Y68.31 Z0 F1600
G1 X93.815 Y68.07 Z0 F1600
G1 X93.805 Y67.895 Z0 F1600
G1 X93.847 Y67.778 Z0 F1600
G1 X93.897 Y67.727 Z0 F1600
G1 X93.972 Y67.676 Z0 F1600
G1 X94.077 Y67.617 Z0 F1600
G1 X94.215 Y67.545 Z0 F1600
G1 X95.299 Y66.974 Z0 F1600
G1 X96.404 Y66.363 Z0 F1600
G1 X96.885 Y66.087 Z0 F1600
G1 X97.276 Y65.855 Z0 F1600
G1 X97.429 Y65.761 Z0 F1600
G1 X97.547 Y65.684 Z0 F1600
G1 X97.627 Y65.627 Z0 F1600
G1 X97.666 Y65.593 Z0 F1600
G1 X97.701 Y65.52 Z0 F1600
G1 X97.721 Y65.426 Z0 F1600
G1 X97.724 Y65.308 Z0 F1600
G1 X97.71 Y65.164 Z0 F1600
G1 X97.679 Y64.99 Z0 F1600
G1 X97.631 Y64.785 Z0 F1600
G1 X97.564 Y64.545 Z0 F1600
G1 X97.48 Y64.267 Z0 F1600
G1 X97.339 Y63.82 Z0 F1600
G1 X96.681 Y61.704 Z0 F1600
G1 X96.557 Y61.309 Z0 F1600
G1 X96.441 Y60.954 Z0 F1600
G1 X96.335 Y60.641 Z0 F1600
G1 X96.239 Y60.375 Z0 F1600
G1 X96.155 Y60.157 Z0 F1600
G1 X96.084 Y59.991 Z0 F1600
G1 X96.027 Y59.878 Z0 F1600
G1 X95.984 Y59.823 Z0 F1600
G1 X95.927 Y59.785 Z0 F1600
G1 X95.857 Y59.759 Z0 F1600
G1 X95.741 Y59.748 Z0 F1600
G1 X95.547 Y59.754 Z0 F1600
G1 X95.412 Y59.763 Z0 F1600
G1 X95.042 Y59.797 Z0 F1600
G1 X94.515 Y59.853 Z0 F1600
G1 X92.368 Y60.09 Z0 F1600
G1 X92.128 Y60.113 Z0 F1600
G1 X91.927 Y60.128 Z0 F1600
G1 X91.759 Y60.133 Z0 F1600
G1 X91.621 Y60.127 Z0 F1600
G1 X91.508 Y60.111 Z0 F1600
G1 X91.339 Y60.039 Z0 F1600
G1 X91.217 Y59.909 Z0 F1600
G1 X91.107 Y59.713 Z0 F1600
G1 X90.973 Y59.444 Z0 F1600
G1 X90.576 Y58.714 Z0 F1600
G1 X90.121 Y57.936 Z0 F1600
G1 X89.928 Y57.614 Z0 F1600
G1 X89.77 Y57.337 Z0 F1600
G1 X89.709 Y57.225 Z0 F1600
G1 X89.663 Y57.135 Z0 F1600
G1 X89.634 Y57.07 Z0 F1600
G1 X89.624 Y57.036 Z0 F1600
G1 X89.649 Y56.98 Z0 F1600
G1 X89.721 Y56.856 Z0 F1600
G1 X89.834 Y56.671 Z0 F1600
G1 X89.984 Y56.432 Z0 F1600
G1 X90.165 Y56.149 Z0 F1600
G1 X90.373 Y55.828 Z0 F1600
G1 X91.102 Y54.721 Z0 F1600
G1 X91.335 Y54.36 Z0 F1600
G1 X91.543 Y54.029 Z0 F1600
G1 X91.723 Y53.735 Z0 F1600
G1 X91.87 Y53.486 Z0 F1600
G1 X91.98 Y53.287 Z0 F1600
G1 X92.049 Y53.146 Z0 F1600
G1 X92.073 Y53.069 Z0 F1600
G1 X92.057 Y53.005 Z0 F1600
G1 X92.008 Y52.913 Z0 F1600
G1 X91.926 Y52.794 Z0 F1600
G1 X91.808 Y52.644 Z0 F1600
G1 X91.653 Y52.463 Z0 F1600
G1 X91.461 Y52.249 Z0 F1600
G1 X91.229 Y52 Z0 F1600
G1 X90.956 Y51.714 Z0 F1600
G1 X90.204 Y50.936 Z0 F1600
G1 X89.579 Y50.294 Z0 F1600
G1 X89.071 Y49.778 Z0 F1600
G1 X88.669 Y49.379 Z0 F1600
G1 X88.505 Y49.219 Z0 F1600
G1 X88.364 Y49.085 Z0 F1600
G1 X88.245 Y48.975 Z0 F1600
G1 X88.145 Y48.887 Z0 F1600
G1 X88.065 Y48.821 Z0 F1600
G1 X88.003 Y48.776 Z0 F1600
G1 X87.957 Y48.75 Z0 F1600
G1 X87.927 Y48.741 Z0 F1600
G1 X87.862 Y48.767 Z0 F1600
G1 X87.727 Y48.842 Z0 F1600
G1 X87.529 Y48.959 Z0 F1600
G1 X87.276 Y49.115 Z0 F1600
G1 X86.978 Y49.304 Z0 F1600
G1 X86.642 Y49.521 Z0 F1600
G1 X86.277 Y49.76 Z0 F1600
G1 X85.89 Y50.016 Z0 F1600
G1 X83.98 Y51.29 Z0 F1600
G1 X82.857 Y50.44 Z0 F1600
G0 Z3.5 F1000
G0 X55.08 Y54.203 Z3.5 
G1 Z0 F1000
G1 X55.058 Y54.152 Z0 F1600
G1 X54.979 Y53.988 Z0 F1600
G1 X54.861 Y53.761 Z0 F1600
G1 X54.63 Y53.338 Z0 F1600
G1 X54.406 Y52.921 Z0 F1600
G1 X54.001 Y52.16 Z0 F1600
G1 X53.293 Y50.808 Z0 F1600
G1 X53.152 Y50.545 Z0 F1600
G1 X53.093 Y50.439 Z0 F1600
G1 X53.047 Y50.456 Z0 F1600
G1 X52.942 Y50.526 Z0 F1600
G1 X52.795 Y50.639 Z0 F1600
G1 X52.438 Y50.934 Z0 F1600
G1 X52.274 Y51.067 Z0 F1600
G1 X52.144 Y51.168 Z0 F1600
G1 X52.068 Y51.223 Z0 F1600
G1 X52.026 Y51.218 Z0 F1600
G1 X51.941 Y51.182 Z0 F1600
G1 X51.818 Y51.12 Z0 F1600
G1 X51.661 Y51.033 Z0 F1600
G1 X51.475 Y50.925 Z0 F1600
G1 X51.265 Y50.799 Z0 F1600
G1 X51.034 Y50.656 Z0 F1600
G1 X50.787 Y50.501 Z0 F1600
G1 X50.266 Y50.165 Z0 F1600
G1 X49.738 Y49.812 Z0 F1600
G1 X49.239 Y49.467 Z0 F1600
G1 X48.598 Y49.002 Z0 F1600
G1 X48.424 Y48.895 Z0 F1600
G1 X48.275 Y48.828 Z0 F1600
G1 X48.142 Y48.803 Z0 F1600
G1 X48.015 Y48.819 Z0 F1600
G1 X47.887 Y48.876 Z0 F1600
G1 X47.748 Y48.973 Z0 F1600
G1 X47.591 Y49.109 Z0 F1600
G1 X47.48 Y49.215 Z0 F1600
G1 X47.31 Y49.383 Z0 F1600
G1 X46.828 Y49.871 Z0 F1600
G1 X46.212 Y50.503 Z0 F1600
G1 X45.528 Y51.211 Z0 F1600
G1 X45.045 Y51.716 Z0 F1600
G1 X44.662 Y52.121 Z0 F1600
G1 X44.371 Y52.438 Z0 F1600
G1 X44.256 Y52.567 Z0 F1600
G1 X44.16 Y52.68 Z0 F1600
G1 X44.018 Y52.859 Z0 F1600
G1 X43.935 Y52.989 Z0 F1600
G1 X43.901 Y53.081 Z0 F1600
G1 X43.904 Y53.149 Z0 F1600
G1 X43.928 Y53.204 Z0 F1600
G1 X43.973 Y53.29 Z0 F1600
G1 X44.037 Y53.403 Z0 F1600
G1 X44.116 Y53.539 Z0 F1600
G1 X44.314 Y53.859 Z0 F1600
G1 X44.543 Y54.216 Z0 F1600
G1 X44.769 Y54.56 Z0 F1600
G1 X45.024 Y54.958 Z0 F1600
G1 X45.112 Y55.1 Z0 F1600
G1 X45.136 Y55.148 Z0 F1600
G1 X45.232 Y55.297 Z0 F1600
G1 X45.509 Y55.716 Z0 F1600
G1 X46.385 Y57.008 Z0 F1600
G1 X46.029 Y57.553 Z0 F1600
G1 X45.946 Y57.683 Z0 F1600
G1 X45.847 Y57.845 Z0 F1600
G1 X45.736 Y58.031 Z0 F1600
G1 X45.616 Y58.237 Z0 F1600
G1 X45.365 Y58.678 Z0 F1600
G1 X44.978 Y59.385 Z0 F1600
G1 X44.853 Y59.605 Z0 F1600
G1 X44.746 Y59.783 Z0 F1600
G1 X44.656 Y59.92 Z0 F1600
G1 X44.579 Y60.021 Z0 F1600
G1 X44.513 Y60.089 Z0 F1600
G1 X44.456 Y60.127 Z0 F1600
G1 X44.406 Y60.139 Z0 F1600
G1 X44.33 Y60.135 Z0 F1600
G1 X43.959 Y60.104 Z0 F1600
G1 X43.358 Y60.047 Z0 F1600
G1 X41.735 Y59.885 Z0 F1600
G1 X41.329 Y59.848 Z0 F1600
G1 X40.966 Y59.818 Z0 F1600
G1 X40.654 Y59.796 Z0 F1600
G1 X40.395 Y59.782 Z0 F1600
G1 X40.197 Y59.776 Z0 F1600
G1 X40.062 Y59.779 Z0 F1600
G1 X39.996 Y59.792 Z0 F1600
G1 X39.942 Y59.849 Z0 F1600
G1 X39.874 Y59.973 Z0 F1600
G1 X39.79 Y60.169 Z0 F1600
G1 X39.688 Y60.443 Z0 F1600
G1 X39.565 Y60.804 Z0 F1600
G1 X39.419 Y61.256 Z0 F1600
G1 X39.337 Y61.519 Z0 F1600
G1 X39.153 Y62.121 Z0 F1600
G1 X38.93 Y62.86 Z0 F1600
G1 X38.7 Y63.602 Z0 F1600
G1 X38.518 Y64.168 Z0 F1600
G1 X38.431 Y64.457 Z0 F1600
G1 X38.357 Y64.719 Z0 F1600
G1 X38.298 Y64.95 Z0 F1600
G1 X38.255 Y65.147 Z0 F1600
G1 X38.228 Y65.306 Z0 F1600
G1 X38.218 Y65.423 Z0 F1600
G1 X38.226 Y65.494 Z0 F1600
G1 X38.254 Y65.539 Z0 F1600
G1 X38.306 Y65.595 Z0 F1600
G1 X38.383 Y65.661 Z0 F1600
G1 X38.483 Y65.737 Z0 F1600
G1 X38.754 Y65.92 Z0 F1600
G1 X39.115 Y66.14 Z0 F1600
G1 X39.563 Y66.396 Z0 F1600
G1 X40.095 Y66.686 Z0 F1600
G1 X40.708 Y67.009 Z0 F1600
G1 X41.399 Y67.361 Z0 F1600
G1 X42.193 Y67.761 Z0 F1600
G1 X42.071 Y69.813 Z0 F1600
G1 X42.022 Y70.555 Z0 F1600
G1 X41.994 Y70.926 Z0 F1600
G1 X41.971 Y71.205 Z0 F1600
G1 X41.95 Y71.4 Z0 F1600
G1 X41.931 Y71.519 Z0 F1600
G1 X41.915 Y71.566 Z0 F1600
G1 X41.878 Y71.587 Z0 F1600
G1 X41.796 Y71.623 Z0 F1600
G1 X41.517 Y71.735 Z0 F1600
G1 X41.116 Y71.888 Z0 F1600
G1 X40.632 Y72.069 Z0 F1600
G1 X40.104 Y72.262 Z0 F1600
G1 X39.572 Y72.453 Z0 F1600
G1 X39.073 Y72.628 Z0 F1600
G1 X38.646 Y72.773 Z0 F1600
G1 X38.284 Y72.901 Z0 F1600
G1 X37.97 Y73.027 Z0 F1600
G1 X37.842 Y73.085 Z0 F1600
G1 X37.738 Y73.137 Z0 F1600
G1 X37.664 Y73.181 Z0 F1600
G1 X37.623 Y73.215 Z0 F1600
G1 X37.583 Y73.284 Z0 F1600
G1 X37.557 Y73.378 Z0 F1600
G1 X37.548 Y73.51 Z0 F1600
G1 X37.556 Y73.69 Z0 F1600
G1 X37.582 Y73.931 Z0 F1600
G1 X37.627 Y74.243 Z0 F1600
G1 X37.692 Y74.638 Z0 F1600
G1 X38.203 Y77.535 Z0 F1600
G1 X38.267 Y77.89 Z0 F1600
G1 X38.327 Y78.2 Z0 F1600
G1 X38.383 Y78.465 Z0 F1600
G1 X38.434 Y78.686 Z0 F1600
G1 X38.482 Y78.864 Z0 F1600
G1 X38.527 Y79.001 Z0 F1600
G1 X38.568 Y79.096 Z0 F1600
G1 X38.606 Y79.151 Z0 F1600
G1 X38.662 Y79.191 Z0 F1600
G1 X38.751 Y79.224 Z0 F1600
G1 X38.884 Y79.251 Z0 F1600
G1 X39.073 Y79.273 Z0 F1600
G1 X39.332 Y79.292 Z0 F1600
G1 X39.672 Y79.309 Z0 F1600
G1 X40.107 Y79.324 Z0 F1600
G1 X40.648 Y79.34 Z0 F1600
G1 X42.094 Y79.377 Z0 F1600
G1 X42.614 Y79.388 Z0 F1600
G1 X42.901 Y79.392 Z0 F1600
G1 X43.107 Y79.401 Z0 F1600
G1 X43.232 Y79.454 Z0 F1600
G1 X43.279 Y79.512 Z0 F1600
G1 X43.325 Y79.599 Z0 F1600
G1 X43.375 Y79.719 Z0 F1600
G1 X43.596 Y80.296 Z0 F1600
G1 X43.729 Y80.618 Z0 F1600
G1 X44.099 Y81.484 Z0 F1600
G1 X44.714 Y82.94 Z0 F1600
G1 X43.673 Y84.056 Z0 F1600
G1 X42.807 Y84.981 Z0 F1600
G1 X42.186 Y85.638 Z0 F1600
G1 X42.008 Y85.834 Z0 F1600
G1 X41.856 Y86.023 Z0 F1600
G1 X41.745 Y86.183 Z0 F1600
G1 X41.691 Y86.294 Z0 F1600
G1 X41.675 Y86.375 Z0 F1600
G1 X41.683 Y86.464 Z0 F1600
G1 X41.735 Y86.593 Z0 F1600
G1 X41.848 Y86.791 Z0 F1600
G1 X41.935 Y86.926 Z0 F1600
G1 X42.043 Y87.09 Z0 F1600
G1 X42.339 Y87.52 Z0 F1600
G1 X42.754 Y88.112 Z0 F1600
G1 X43.848 Y89.663 Z0 F1600
G1 X44.669 Y90.835 Z0 F1600
G1 X44.85 Y91.097 Z0 F1600
G1 X44.951 Y91.231 Z0 F1600
G1 X45.055 Y91.325 Z0 F1600
G1 X45.175 Y91.378 Z0 F1600
G1 X45.322 Y91.389 Z0 F1600
G1 X45.51 Y91.357 Z0 F1600
G1 X45.749 Y91.282 Z0 F1600
G1 X46.053 Y91.164 Z0 F1600
G1 X46.432 Y91 Z0 F1600
G1 X46.883 Y90.8 Z0 F1600
G1 X47.379 Y90.576 Z0 F1600
G1 X47.935 Y90.323 Z0 F1600
G1 X49.518 Y89.596 Z0 F1600
G1 X49.833 Y89.869 Z0 F1600
G1 X50.166 Y90.17 Z0 F1600
G1 X50.677 Y90.652 Z0 F1600
G1 X50.811 Y90.769 Z0 F1600
G1 X50.914 Y90.848 Z0 F1600
G1 X50.97 Y90.877 Z0 F1600
G1 X51.044 Y90.809 Z0 F1600
G1 X51.126 Y90.645 Z0 F1600
G1 X51.246 Y90.357 Z0 F1600
G1 X51.411 Y89.991 Z0 F1600
G1 X51.875 Y88.985 Z0 F1600
G1 X52.348 Y87.943 Z0 F1600
G1 X52.739 Y87.066 Z0 F1600
G1 X52.836 Y86.837 Z0 F1600
G1 X52.885 Y86.659 Z0 F1600
G1 X52.882 Y86.508 Z0 F1600
G1 X52.82 Y86.358 Z0 F1600
G1 X52.696 Y86.185 Z0 F1600
G1 X52.608 Y86.081 Z0 F1600
G1 X52.235 Y85.664 Z0 F1600
G1 X51.645 Y84.982 Z0 F1600
G1 X51.091 Y84.297 Z0 F1600
G1 X50.571 Y83.607 Z0 F1600
G1 X50.086 Y82.911 Z0 F1600
G1 X49.634 Y82.208 Z0 F1600
G1 X49.216 Y81.496 Z0 F1600
G1 X48.83 Y80.775 Z0 F1600
G1 X48.476 Y80.042 Z0 F1600
G1 X48.154 Y79.298 Z0 F1600
G1 X47.862 Y78.539 Z0 F1600
G1 X47.6 Y77.766 Z0 F1600
G1 X47.368 Y76.976 Z0 F1600
G1 X47.164 Y76.169 Z0 F1600
G1 X46.989 Y75.342 Z0 F1600
G1 X46.842 Y74.496 Z0 F1600
G1 X46.722 Y73.628 Z0 F1600
G1 X46.696 Y73.37 Z0 F1600
G1 X46.676 Y73.073 Z0 F1600
G1 X46.661 Y72.744 Z0 F1600
G1 X46.652 Y72.387 Z0 F1600
G1 X46.648 Y71.612 Z0 F1600
G1 X46.664 Y70.791 Z0 F1600
G1 X46.697 Y69.967 Z0 F1600
G1 X46.748 Y69.184 Z0 F1600
G1 X46.779 Y68.821 Z0 F1600
G1 X46.813 Y68.483 Z0 F1600
G1 X46.852 Y68.178 Z0 F1600
G1 X46.893 Y67.909 Z0 F1600
G1 X47.157 Y66.603 Z0 F1600
G1 X47.484 Y65.349 Z0 F1600
G1 X47.877 Y64.139 Z0 F1600
G1 X48.338 Y62.969 Z0 F1600
G1 X48.872 Y61.832 Z0 F1600
G1 X49.479 Y60.721 Z0 F1600
G1 X50.163 Y59.631 Z0 F1600
G1 X50.927 Y58.555 Z0 F1600
G1 X51.079 Y58.36 Z0 F1600
G1 X51.262 Y58.137 Z0 F1600
G1 X51.472 Y57.891 Z0 F1600
G1 X51.704 Y57.626 Z0 F1600
G1 X52.219 Y57.057 Z0 F1600
G1 X52.773 Y56.467 Z0 F1600
G1 X53.331 Y55.892 Z0 F1600
G1 X53.859 Y55.367 Z0 F1600
G1 X54.101 Y55.135 Z0 F1600
G1 X54.322 Y54.929 Z0 F1600
G1 X54.519 Y54.754 Z0 F1600
G1 X54.842 Y54.484 Z0 F1600
G1 X54.97 Y54.369 Z0 F1600
G1 X55.056 Y54.28 Z0 F1600
G1 X55.088 Y54.23 Z0 F1600
G1 X55.08 Y54.203 Z0 F1600
G0 Z3.5 F1000
G0 X58.902 Y90.539 Z3.5 
G1 Z0 F1000
G1 X58.878 Y90.555 Z0 F1600
G1 X58.835 Y90.601 Z0 F1600
G1 X58.775 Y90.673 Z0 F1600
G1 X58.701 Y90.769 Z0 F1600
G1 X58.518 Y91.017 Z0 F1600
G1 X58.308 Y91.321 Z0 F1600
G1 X58.091 Y91.64 Z0 F1600
G1 X57.802 Y92.061 Z0 F1600
G1 X57.571 Y92.389 Z0 F1600
G1 X57.001 Y93.215 Z0 F1600
G1 X55.854 Y94.895 Z0 F1600
G1 X55.086 Y96.012 Z0 F1600
G1 X54.18 Y97.319 Z0 F1600
G1 X53.947 Y97.668 Z0 F1600
G1 X53.859 Y97.804 Z0 F1600
G1 X53.794 Y97.909 Z0 F1600
G1 X53.756 Y97.977 Z0 F1600
G1 X53.747 Y98.004 Z0 F1600
G1 X53.816 Y98.051 Z0 F1600
G1 X53.941 Y98.122 Z0 F1600
G1 X54.113 Y98.214 Z0 F1600
G1 X54.326 Y98.324 Z0 F1600
G1 X54.838 Y98.578 Z0 F1600
G1 X55.413 Y98.855 Z0 F1600
G1 X55.987 Y99.124 Z0 F1600
G1 X56.494 Y99.354 Z0 F1600
G1 X56.702 Y99.445 Z0 F1600
G1 X56.87 Y99.514 Z0 F1600
G1 X56.989 Y99.559 Z0 F1600
G1 X57.051 Y99.575 Z0 F1600
G1 X57.177 Y99.55 Z0 F1600
G1 X57.31 Y99.465 Z0 F1600
G1 X57.385 Y99.395 Z0 F1600
G1 X57.469 Y99.303 Z0 F1600
G1 X57.565 Y99.188 Z0 F1600
G1 X58.061 Y98.55 Z0 F1600
G1 X58.806 Y97.625 Z0 F1600
G1 X59.413 Y96.845 Z0 F1600
G1 X59.58 Y96.634 Z0 F1600
G1 X59.711 Y96.472 Z0 F1600
G1 X59.902 Y96.253 Z0 F1600
G1 X60.021 Y96.096 Z0 F1600
G1 X60.094 Y96.007 Z0 F1600
G1 X60.164 Y95.967 Z0 F1600
G1 X60.254 Y95.97 Z0 F1600
G1 X60.611 Y96.092 Z0 F1600
G1 X60.933 Y96.185 Z0 F1600
G1 X61.318 Y96.287 Z0 F1600
G1 X61.737 Y96.39 Z0 F1600
G1 X62.16 Y96.487 Z0 F1600
G1 X62.557 Y96.57 Z0 F1600
G1 X62.899 Y96.634 Z0 F1600
G1 X63.155 Y96.671 Z0 F1600
G1 X63.418 Y96.706 Z0 F1600
G1 X63.602 Y96.749 Z0 F1600
G1 X63.722 Y96.806 Z0 F1600
G1 X63.789 Y96.88 Z0 F1600
G1 X63.814 Y96.953 Z0 F1600
G1 X63.853 Y97.104 Z0 F1600
G1 X63.906 Y97.323 Z0 F1600
G1 X63.968 Y97.6 Z0 F1600
G1 X64.04 Y97.928 Z0 F1600
G1 X64.117 Y98.296 Z0 F1600
G1 X64.2 Y98.695 Z0 F1600
G1 X64.376 Y99.568 Z0 F1600
G1 X64.462 Y99.977 Z0 F1600
G1 X64.543 Y100.339 Z0 F1600
G1 X64.616 Y100.649 Z0 F1600
G1 X64.681 Y100.903 Z0 F1600
G1 X64.736 Y101.095 Z0 F1600
G1 X64.78 Y101.22 Z0 F1600
G1 X64.812 Y101.274 Z0 F1600
G1 X64.839 Y101.281 Z0 F1600
G1 X64.897 Y101.288 Z0 F1600
G1 X64.983 Y101.295 Z0 F1600
G1 X65.097 Y101.302 Z0 F1600
G1 X65.399 Y101.314 Z0 F1600
G1 X65.79 Y101.325 Z0 F1600
G1 X66.257 Y101.334 Z0 F1600
G1 X66.787 Y101.34 Z0 F1600
G1 X67.367 Y101.345 Z0 F1600
G1 X67.984 Z0 F1600
G1 X71.043 Y101.348 Z0 F1600
G1 X71.167 Y101.158 Z0 F1600
G1 X71.226 Y101.024 Z0 F1600
G1 X71.296 Y100.801 Z0 F1600
G1 X71.368 Y100.518 Z0 F1600
G1 X71.433 Y100.208 Z0 F1600
G1 X71.728 Y98.683 Z0 F1600
G1 X72.113 Y96.75 Z0 F1600
G1 X72.868 Y96.645 Z0 F1600
G1 X73.042 Y96.618 Z0 F1600
G1 X73.247 Y96.581 Z0 F1600
G1 X73.476 Y96.537 Z0 F1600
G1 X73.722 Y96.486 Z0 F1600
G1 X74.232 Y96.372 Z0 F1600
G1 X74.716 Y96.253 Z0 F1600
G1 X75.811 Y95.965 Z0 F1600
G1 X76.093 Y96.327 Z0 F1600
G1 X76.704 Y97.098 Z0 F1600
G1 X77.229 Y97.765 Z0 F1600
G1 X77.983 Y98.744 Z0 F1600
G1 X78.197 Y99.015 Z0 F1600
G1 X78.368 Y99.222 Z0 F1600
G1 X78.505 Y99.372 Z0 F1600
G1 X78.616 Y99.473 Z0 F1600
G1 X78.71 Y99.535 Z0 F1600
G1 X78.795 Y99.566 Z0 F1600
G1 X78.879 Y99.575 Z0 F1600
G1 X78.957 Y99.558 Z0 F1600
G1 X79.092 Y99.509 Z0 F1600
G1 X79.276 Y99.434 Z0 F1600
G1 X79.5 Y99.336 Z0 F1600
G1 X80.035 Y99.088 Z0 F1600
G1 X80.628 Y98.801 Z0 F1600
G1 X81.209 Y98.507 Z0 F1600
G1 X81.71 Y98.243 Z0 F1600
G1 X81.908 Y98.132 Z0 F1600
G1 X82.061 Y98.041 Z0 F1600
G1 X82.159 Y97.974 Z0 F1600
G1 X82.193 Y97.936 Z0 F1600
G1 X82.159 Y97.841 Z0 F1600
G1 X82.077 Y97.724 Z0 F1600
G1 X82.04 Y97.676 Z0 F1600
G1 X81.886 Y97.467 Z0 F1600
G1 X81.512 Y96.945 Z0 F1600
G1 X80.89 Y96.061 Z0 F1600
G1 X80.451 Y95.43 Z0 F1600
G1 X80.223 Y95.098 Z0 F1600
G1 X79.875 Y94.584 Z0 F1600
G1 X79.242 Y93.673 Z0 F1600
G1 X78.787 Y93.009 Z0 F1600
G1 X78.194 Y92.138 Z0 F1600
G1 X77.469 Y91.067 Z0 F1600
G1 X77.324 Y90.862 Z0 F1600
G1 X77.193 Y90.695 Z0 F1600
G1 X77.089 Y90.581 Z0 F1600
G1 X77.028 Y90.539 Z0 F1600
G1 X76.949 Y90.56 Z0 F1600
G1 X76.794 Y90.616 Z0 F1600
G1 X76.587 Y90.699 Z0 F1600
G1 X76.349 Y90.801 Z0 F1600
G1 X75.73 Y91.051 Z0 F1600
G1 X75.035 Y91.295 Z0 F1600
G1 X74.285 Y91.527 Z0 F1600
G1 X73.503 Y91.741 Z0 F1600
G1 X72.712 Y91.932 Z0 F1600
G1 X71.933 Y92.094 Z0 F1600
G1 X71.19 Y92.221 Z0 F1600
G1 X70.504 Y92.307 Z0 F1600
G1 X69.963 Y92.348 Z0 F1600
G1 X69.344 Y92.376 Z0 F1600
G1 X68.674 Y92.391 Z0 F1600
G1 X67.977 Z0 F1600
G1 X67.278 Y92.381 Z0 F1600
G1 X66.602 Y92.356 Z0 F1600
G1 X65.974 Y92.319 Z0 F1600
G1 X65.419 Y92.269 Z0 F1600
G1 X64.632 Y92.167 Z0 F1600
G1 X63.833 Y92.035 Z0 F1600
G1 X63.034 Y91.874 Z0 F1600
G1 X62.247 Y91.688 Z0 F1600
G1 X61.483 Y91.481 Z0 F1600
G1 X60.755 Y91.254 Z0 F1600
G1 X60.075 Y91.012 Z0 F1600
G1 X59.455 Y90.756 Z0 F1600
G1 X59.26 Y90.672 Z0 F1600
G1 X59.091 Y90.603 Z0 F1600
G1 X58.966 Y90.557 Z0 F1600
G1 X58.902 Y90.539 Z0 F1600
M9
M5
G1 Z10 F1000
G90
G1 Z10 F800

