
G0 Z10 F1500;      ; Move to clearance level - Z motion limited to 500
; G0 X-10 Y-10 F1500; Homing
; G0 X-5 Y-5 F1500; go in
; G10 P0 L20 X0 Y0; set to zero
G1 F1500;           ; Set feed rate to 1000
;LightBurn 1.6.04
;Custom GCode device profile, absolute coords
;Bounds: X82.16 Y37.5 to X133.84 Y86.5
G00 G17 G40 G21 G54
G90
M3
G1 Z10 F1500
;Scan @ 1500 mm/min, 90% power

M8

; Washing sequence (no color)
G1 Z10 F1500;        ; Raise brush to safe height
G0 X5.000 Y5.000
G1 Z-1 F1500;         ; Lower brush for cleaning - controlled movement
G1 X10.000 Y12.000 Z8.000 F1500
G1 Z-1 F1500;         ; Lower brush for cleaning - controlled movement
G1 X25.000 Y14.000 Z6.000 F1500
G1 Z8 F1500;         ; Maintain brush height - controlled movement
; --- FIX X Backlash: -1.300mm ---
G0 X23.700 Y14.000 F1200
; --- FIX Y Backlash: -1.300mm ---
G0 X23.700 Y12.700 F1200
G0 X3.700 Y3.700
G1 Z-1 F1500;         ; Lower brush for cleaning - controlled movement
; --- FIX X Backlash: 1.300mm ---
G0 X5.000 Y3.700 F1200
; --- FIX Y Backlash: 1.300mm ---
G0 X5.000 Y5.000 F1200
G1 X15.000 Y12.000 Z8.000 F1500
G1 Z-1 F1500;         ; Lower brush for cleaning - controlled movement
G1 X25.000 Y14.000 Z6.000 F1500
G1 Z10 F1500;         ; Maintain brush height - controlled movement
G1 F1500;           ; Set feed rate to 1000

; Color picking sequence
G1 Z10 F1500;         ; Raise brush to safe height
; --- FIX Y Backlash: -1.300mm ---
G0 X25.000 Y12.700 F1200
G0 X86.000 Y3.700
G1 Z0 F1500;         ; Lower into color - controlled movement
; --- FIX X Backlash: -1.300mm ---
G0 X84.700 Y3.700 F1200
; --- FIX Y Backlash: 1.300mm ---
G0 X84.700 Y5.000 F1200
G1 X83.802 Y7.295 Z0.000 F1500
G1 X83.726 Y7.642 Z0.000 F1500
G1 X83.700 Y8.000 Z0.000 F1500
G1 X83.726 Y8.358 Z0.000 F1500
; --- FIX X Backlash: 1.300mm ---
G0 X85.026 Y8.358 F1200
G1 X85.102 Y8.705 Z0.000 F1500
G1 X85.225 Y9.041 Z0.000 F1500
G1 X85.393 Y9.362 Z0.000 F1500
G1 X85.603 Y9.668 Z0.000 F1500
G1 X85.854 Y9.957 Z0.000 F1500
G1 X86.142 Y10.226 Z0.000 F1500
G1 X86.464 Y10.475 Z0.000 F1500
G1 X86.820 Y10.701 Z0.000 F1500
G1 X87.204 Y10.902 Z0.000 F1500
G1 X87.617 Y11.078 Z0.000 F1500
G1 X88.054 Y11.225 Z0.000 F1500
G1 X88.513 Y11.343 Z0.000 F1500
G1 X88.992 Y11.429 Z0.000 F1500
G1 X89.489 Y11.482 Z0.000 F1500
G1 X90.000 Y11.500 Z0.000 F1500
G1 X90.511 Y11.482 Z0.000 F1500
; --- FIX Y Backlash: -1.300mm ---
G0 X90.511 Y10.182 F1200
G1 X91.008 Y10.129 Z0.000 F1500
G1 X91.487 Y10.043 Z0.000 F1500
G1 X91.946 Y9.925 Z0.000 F1500
G1 X92.383 Y9.778 Z0.000 F1500
G1 X92.796 Y9.602 Z0.000 F1500
G1 X93.180 Y9.401 Z0.000 F1500
G1 X93.536 Y9.175 Z0.000 F1500
G1 X93.858 Y8.926 Z0.000 F1500
G1 X94.146 Y8.657 Z0.000 F1500
G1 X94.397 Y8.368 Z0.000 F1500
G1 X94.607 Y8.062 Z0.000 F1500
G1 X94.775 Y7.741 Z0.000 F1500
G1 X94.898 Y7.405 Z0.000 F1500
G1 X94.974 Y7.058 Z0.000 F1500
G1 X95.000 Y6.700 Z0.000 F1500
G1 X94.974 Y6.342 Z0.000 F1500
; --- FIX X Backlash: -1.300mm ---
G0 X93.674 Y6.342 F1200
G1 X93.598 Y5.995 Z0.000 F1500
G1 X93.475 Y5.659 Z0.000 F1500
G1 X93.307 Y5.338 Z0.000 F1500
G1 X93.097 Y5.032 Z0.000 F1500
G1 X92.846 Y4.743 Z0.000 F1500
G1 X92.558 Y4.474 Z0.000 F1500
G1 X92.236 Y4.225 Z0.000 F1500
G1 X91.880 Y3.999 Z0.000 F1500
G1 X91.496 Y3.798 Z0.000 F1500
G1 X91.083 Y3.622 Z0.000 F1500
G1 X90.646 Y3.475 Z0.000 F1500
G1 X90.187 Y3.357 Z0.000 F1500
G1 X89.708 Y3.271 Z0.000 F1500
G1 X89.211 Y3.218 Z0.000 F1500
G1 X88.700 Y3.200 Z0.000 F1500
G1 X88.189 Y3.218 Z0.000 F1500
; --- FIX Y Backlash: 1.300mm ---
G0 X88.189 Y4.518 F1200
G1 X87.692 Y4.571 Z0.000 F1500
G1 X87.213 Y4.657 Z0.000 F1500
G1 X86.754 Y4.775 Z0.000 F1500
G1 X86.317 Y4.922 Z0.000 F1500
G1 X85.904 Y5.098 Z0.000 F1500
G1 X85.520 Y5.299 Z0.000 F1500
G1 X85.164 Y5.525 Z0.000 F1500
G1 X84.842 Y5.774 Z0.000 F1500
G1 X84.554 Y6.043 Z0.000 F1500
G1 X84.303 Y6.332 Z0.000 F1500
G1 X84.093 Y6.638 Z0.000 F1500
G1 X83.925 Y6.959 Z0.000 F1500
G1 Z7 F1500;         ; Raise from color - controlled movement
G1 X77.700 Y8.000 Z1.000 F1500
G1 X67.700 Y18.000 Z8.000 F1500
G1 F1500;           ; Set feed rate to 1000
G0 Z3.5 F1500
; --- FIX X Backlash: 1.300mm ---
G0 X69.000 Y18.000 F1200
G0 X101.374 Y37.500 Z3.500
G1 Z0 F1500
;Layer C2
G91
G0 Z2.5 F500
G1 X0.625 Z0 S0 F1500
G0 Z-2.5 F500
G1 X12.002 Z0 S900 F1500
G0 Z2.5 F500
G1 X0.625 Z0 S0 F1500
G1 X3.163 Y1 Z0 F1500
; --- FIX X Backlash (relative): -1.300mm ---
G0 X-1.300 F1200
G1 X-0.625 Z0 F1500
G0 Z-2.5 F500
G1 X-18.328 Z0 S900 F1500
G0 Z2.5 F500
G1 X-0.625 Z0 S0 F1500
G1 X-2.234 Y1 Z0 F1500
; --- FIX X Backlash (relative): 1.300mm ---
G0 X1.300 F1200
G1 X0.625 Z0 F1500
G0 Z-2.5 F500
G1 X22.796 Z0 S900 F1500
G0 Z2.5 F500
G1 X0.625 Z0 S0 F1500
G1 X1.795 Y1 Z0 F1500
; --- FIX X Backlash (relative): -1.300mm ---
G0 X-1.300 F1200
G1 X-0.625 Z0 F1500
G0 Z-2.5 F500
G1 X-26.386 Z0 S900 F1500
G0 Z2.5 F500
G1 X-0.625 Z0 S0 F1500
G1 X-1.496 Y1 Z0 F1500
; --- FIX X Backlash (relative): 1.300mm ---
G0 X1.300 F1200
G1 X0.625 Z0 F1500
G0 Z-2.5 F500
G1 X29.378 Z0 S900 F1500
G0 Z2.5 F500
G1 X0.625 Z0 S0 F1500
G1 X1.31 Y1 Z0 F1500
; --- FIX X Backlash (relative): -1.300mm ---
G0 X-1.300 F1200
G1 X-0.625 Z0 F1500
G0 Z-2.5 F500
G1 X-31.998 Z0 S900 F1500
G0 Z2.5 F500
G1 X-0.625 Z0 S0 F1500
G1 X-1.141 Y1 Z0 F1500
; --- FIX X Backlash (relative): 1.300mm ---
G0 X1.300 F1200
G1 X0.625 Z0 F1500
G0 Z-2.5 F500
G1 X34.28 Z0 S900 F1500
G0 Z2.5 F500
G1 X0.625 Z0 S0 F1500
G1 X1.017 Y1 Z0 F1500
; --- FIX X Backlash (relative): -1.300mm ---
G0 X-1.300 F1200
G1 X-0.625 Z0 F1500
G0 Z-2.5 F500
G1 X-36.314 Z0 S900 F1500
G0 Z2.5 F500
G1 X-0.625 Z0 S0 F1500
G1 X-0.913 Y1 Z0 F1500
; --- FIX X Backlash (relative): 1.300mm ---
G0 X1.300 F1200
G1 X0.625 Z0 F1500
G0 Z-2.5 F500
G1 X38.14 Z0 S900 F1500
G0 Z2.5 F500
G1 X0.625 Z0 S0 F1500
G1 X0.822 Y1 Z0 F1500
; --- FIX X Backlash (relative): -1.300mm ---
G0 X-1.300 F1200
G1 X-0.625 Z0 F1500
G0 Z-2.5 F500
G1 X-39.784 Z0 S900 F1500
G0 Z2.5 F500
G1 X-0.625 Z0 S0 F1500
G1 X-0.742 Y1 Z0 F1500
; --- FIX X Backlash (relative): 1.300mm ---
G0 X1.300 F1200
G1 X0.625 Z0 F1500
G0 Z-2.5 F500
G1 X41.268 Z0 S900 F1500
G0 Z2.5 F500
G1 X0.625 Z0 S0 F1500
G1 X0.669 Y1 Z0 F1500
; --- FIX X Backlash (relative): -1.300mm ---
G0 X-1.300 F1200
G1 X-0.625 Z0 F1500
G0 Z-2.5 F500
G1 X-42.606 Z0 S900 F1500
G90

; Color picking sequence
G1 Z10 F1500;         ; Raise brush to safe height
; --- FIX Y Backlash: -1.300mm ---
G0 X85.397 Y47.200 F1200
G0 X84.700 Y3.700
G1 Z0 F1500;         ; Lower into color - controlled movement
; --- FIX Y Backlash: 1.300mm ---
G0 X84.700 Y5.000 F1200
G1 X83.802 Y7.295 Z0.000 F1500
G1 X83.726 Y7.642 Z0.000 F1500
G1 X83.700 Y8.000 Z0.000 F1500
G1 X83.726 Y8.358 Z0.000 F1500
; --- FIX X Backlash: 1.300mm ---
G0 X85.026 Y8.358 F1200
G1 X85.102 Y8.705 Z0.000 F1500
G1 X85.225 Y9.041 Z0.000 F1500
G1 X85.393 Y9.362 Z0.000 F1500
G1 X85.603 Y9.668 Z0.000 F1500
G1 X85.854 Y9.957 Z0.000 F1500
G1 X86.142 Y10.226 Z0.000 F1500
G1 X86.464 Y10.475 Z0.000 F1500
G1 X86.820 Y10.701 Z0.000 F1500
G1 X87.204 Y10.902 Z0.000 F1500
G1 X87.617 Y11.078 Z0.000 F1500
G1 X88.054 Y11.225 Z0.000 F1500
G1 X88.513 Y11.343 Z0.000 F1500
G1 X88.992 Y11.429 Z0.000 F1500
G1 X89.489 Y11.482 Z0.000 F1500
G1 X90.000 Y11.500 Z0.000 F1500
G1 X90.511 Y11.482 Z0.000 F1500
; --- FIX Y Backlash: -1.300mm ---
G0 X90.511 Y10.182 F1200
G1 X91.008 Y10.129 Z0.000 F1500
G1 X91.487 Y10.043 Z0.000 F1500
G1 X91.946 Y9.925 Z0.000 F1500
G1 X92.383 Y9.778 Z0.000 F1500
G1 X92.796 Y9.602 Z0.000 F1500
G1 X93.180 Y9.401 Z0.000 F1500
G1 X93.536 Y9.175 Z0.000 F1500
G1 X93.858 Y8.926 Z0.000 F1500
G1 X94.146 Y8.657 Z0.000 F1500
G1 X94.397 Y8.368 Z0.000 F1500
G1 X94.607 Y8.062 Z0.000 F1500
G1 X94.775 Y7.741 Z0.000 F1500
G1 X94.898 Y7.405 Z0.000 F1500
G1 X94.974 Y7.058 Z0.000 F1500
G1 X95.000 Y6.700 Z0.000 F1500
G1 X94.974 Y6.342 Z0.000 F1500
; --- FIX X Backlash: -1.300mm ---
G0 X93.674 Y6.342 F1200
G1 X93.598 Y5.995 Z0.000 F1500
G1 X93.475 Y5.659 Z0.000 F1500
G1 X93.307 Y5.338 Z0.000 F1500
G1 X93.097 Y5.032 Z0.000 F1500
G1 X92.846 Y4.743 Z0.000 F1500
G1 X92.558 Y4.474 Z0.000 F1500
G1 X92.236 Y4.225 Z0.000 F1500
G1 X91.880 Y3.999 Z0.000 F1500
G1 X91.496 Y3.798 Z0.000 F1500
G1 X91.083 Y3.622 Z0.000 F1500
G1 X90.646 Y3.475 Z0.000 F1500
G1 X90.187 Y3.357 Z0.000 F1500
G1 X89.708 Y3.271 Z0.000 F1500
G1 X89.211 Y3.218 Z0.000 F1500
G1 X88.700 Y3.200 Z0.000 F1500
G1 X88.189 Y3.218 Z0.000 F1500
; --- FIX Y Backlash: 1.300mm ---
G0 X88.189 Y4.518 F1200
G1 X87.692 Y4.571 Z0.000 F1500
G1 X87.213 Y4.657 Z0.000 F1500
G1 X86.754 Y4.775 Z0.000 F1500
G1 X86.317 Y4.922 Z0.000 F1500
G1 X85.904 Y5.098 Z0.000 F1500
G1 X85.520 Y5.299 Z0.000 F1500
G1 X85.164 Y5.525 Z0.000 F1500
G1 X84.842 Y5.774 Z0.000 F1500
G1 X84.554 Y6.043 Z0.000 F1500
G1 X84.303 Y6.332 Z0.000 F1500
G1 X84.093 Y6.638 Z0.000 F1500
G1 X83.925 Y6.959 Z0.000 F1500
G1 Z7 F1500;         ; Raise from color - controlled movement
G1 X77.700 Y8.000 Z1.000 F1500
G1 X67.700 Y18.000 Z8.000 F1500
G1 F1500;           ; Set feed rate to 1000

G91
G90

; Return to drawing position
; --- FIX X Backlash: 1.300mm ---
G0 X69.000 Y18.000 F1200
G0 X86.697 Y48.500
G1 Z0 F1500;                       ; Lower Z to drawing position

G91
G0 Z2.5 F500
; --- FIX X Backlash (relative): -1.300mm ---
G0 X-1.300 F1200
G1 X-0.625 Z0 S0 F1500
G1 X-0.603 Y1 Z0 F1500
; --- FIX X Backlash (relative): 1.300mm ---
G0 X1.300 F1200
G1 X0.625 Z0 F1500
G0 Z-2.5 F500
G1 X43.812 Z0 S900 F1500
G0 Z2.5 F500
G1 X0.625 Z0 S0 F1500
G1 X0.542 Y1 Z0 F1500
; --- FIX X Backlash (relative): -1.300mm ---
G0 X-1.300 F1200
G1 X-0.625 Z0 F1500
G0 Z-2.5 F500
G1 X-44.896 Z0 S900 F1500
G0 Z2.5 F500
G1 X-0.625 Z0 S0 F1500
G1 X-0.486 Y1 Z0 F1500
; --- FIX X Backlash (relative): 1.300mm ---
G0 X1.300 F1200
G1 X0.625 Z0 F1500
G0 Z-2.5 F500
G1 X45.868 Z0 S900 F1500
G0 Z2.5 F500
G1 X0.625 Z0 S0 F1500
G1 X0.434 Y1 Z0 F1500
; --- FIX X Backlash (relative): -1.300mm ---
G0 X-1.300 F1200
G1 X-0.626 Z0 F1500
G0 Z-2.5 F500
G1 X-46.735 Z0 S900 F1500
G0 Z2.5 F500
G1 X-0.625 Z0 S0 F1500
G1 X-0.384 Y1 Z0 F1500
; --- FIX X Backlash (relative): 1.300mm ---
G0 X1.300 F1200
G1 X0.625 Z0 F1500
G0 Z-2.5 F500
G1 X47.504 Z0 S900 F1500
G0 Z2.5 F500
G1 X0.625 Z0 S0 F1500
G1 X0.338 Y1 Z0 F1500
; --- FIX X Backlash (relative): -1.300mm ---
G0 X-1.300 F1200
G1 X-0.625 Z0 F1500
G0 Z-2.5 F500
G1 X-48.18 Z0 S900 F1500
G0 Z2.5 F500
G1 X-0.625 Z0 S0 F1500
G1 X-0.284 Y1 Z0 F1500
; --- FIX X Backlash (relative): 1.300mm ---
G0 X1.300 F1200
G1 X0.625 Z0 F1500
G0 Z-2.5 F500
G1 X48.748 Z0 S900 F1500
G0 Z2.5 F500
G1 X0.625 Z0 S0 F1500
G1 X0.242 Y1 Z0 F1500
; --- FIX X Backlash (relative): -1.300mm ---
G0 X-1.300 F1200
G1 X-0.625 Z0 F1500
G0 Z-2.5 F500
G1 X-49.232 Z0 S900 F1500
G0 Z2.5 F500
G1 X-0.625 Z0 S0 F1500
G1 X-0.2 Y1 Z0 F1500
; --- FIX X Backlash (relative): 1.300mm ---
G0 X1.300 F1200
G1 X0.625 Z0 F1500
G0 Z-2.5 F500
G1 X49.632 Z0 S900 F1500
G90

; Color picking sequence
G1 Z10 F1500;         ; Raise brush to safe height
; --- FIX X Backlash: -1.300mm ---
G0 X131.516 Y57.500 F1200
; --- FIX Y Backlash: -1.300mm ---
G0 X131.516 Y56.200 F1200
G0 X84.700 Y3.700
G1 Z0 F1500;         ; Lower into color - controlled movement
; --- FIX Y Backlash: 1.300mm ---
G0 X84.700 Y5.000 F1200
G1 X83.802 Y7.295 Z0.000 F1500
G1 X83.726 Y7.642 Z0.000 F1500
G1 X83.700 Y8.000 Z0.000 F1500
G1 X83.726 Y8.358 Z0.000 F1500
; --- FIX X Backlash: 1.300mm ---
G0 X85.026 Y8.358 F1200
G1 X85.102 Y8.705 Z0.000 F1500
G1 X85.225 Y9.041 Z0.000 F1500
G1 X85.393 Y9.362 Z0.000 F1500
G1 X85.603 Y9.668 Z0.000 F1500
G1 X85.854 Y9.957 Z0.000 F1500
G1 X86.142 Y10.226 Z0.000 F1500
G1 X86.464 Y10.475 Z0.000 F1500
G1 X86.820 Y10.701 Z0.000 F1500
G1 X87.204 Y10.902 Z0.000 F1500
G1 X87.617 Y11.078 Z0.000 F1500
G1 X88.054 Y11.225 Z0.000 F1500
G1 X88.513 Y11.343 Z0.000 F1500
G1 X88.992 Y11.429 Z0.000 F1500
G1 X89.489 Y11.482 Z0.000 F1500
G1 X90.000 Y11.500 Z0.000 F1500
G1 X90.511 Y11.482 Z0.000 F1500
; --- FIX Y Backlash: -1.300mm ---
G0 X90.511 Y10.182 F1200
G1 X91.008 Y10.129 Z0.000 F1500
G1 X91.487 Y10.043 Z0.000 F1500
G1 X91.946 Y9.925 Z0.000 F1500
G1 X92.383 Y9.778 Z0.000 F1500
G1 X92.796 Y9.602 Z0.000 F1500
G1 X93.180 Y9.401 Z0.000 F1500
G1 X93.536 Y9.175 Z0.000 F1500
G1 X93.858 Y8.926 Z0.000 F1500
G1 X94.146 Y8.657 Z0.000 F1500
G1 X94.397 Y8.368 Z0.000 F1500
G1 X94.607 Y8.062 Z0.000 F1500
G1 X94.775 Y7.741 Z0.000 F1500
G1 X94.898 Y7.405 Z0.000 F1500
G1 X94.974 Y7.058 Z0.000 F1500
G1 X95.000 Y6.700 Z0.000 F1500
G1 X94.974 Y6.342 Z0.000 F1500
; --- FIX X Backlash: -1.300mm ---
G0 X93.674 Y6.342 F1200
G1 X93.598 Y5.995 Z0.000 F1500
G1 X93.475 Y5.659 Z0.000 F1500
G1 X93.307 Y5.338 Z0.000 F1500
G1 X93.097 Y5.032 Z0.000 F1500
G1 X92.846 Y4.743 Z0.000 F1500
G1 X92.558 Y4.474 Z0.000 F1500
G1 X92.236 Y4.225 Z0.000 F1500
G1 X91.880 Y3.999 Z0.000 F1500
G1 X91.496 Y3.798 Z0.000 F1500
G1 X91.083 Y3.622 Z0.000 F1500
G1 X90.646 Y3.475 Z0.000 F1500
G1 X90.187 Y3.357 Z0.000 F1500
G1 X89.708 Y3.271 Z0.000 F1500
G1 X89.211 Y3.218 Z0.000 F1500
G1 X88.700 Y3.200 Z0.000 F1500
G1 X88.189 Y3.218 Z0.000 F1500
; --- FIX Y Backlash: 1.300mm ---
G0 X88.189 Y4.518 F1200
G1 X87.692 Y4.571 Z0.000 F1500
G1 X87.213 Y4.657 Z0.000 F1500
G1 X86.754 Y4.775 Z0.000 F1500
G1 X86.317 Y4.922 Z0.000 F1500
G1 X85.904 Y5.098 Z0.000 F1500
G1 X85.520 Y5.299 Z0.000 F1500
G1 X85.164 Y5.525 Z0.000 F1500
G1 X84.842 Y5.774 Z0.000 F1500
G1 X84.554 Y6.043 Z0.000 F1500
G1 X84.303 Y6.332 Z0.000 F1500
G1 X84.093 Y6.638 Z0.000 F1500
G1 X83.925 Y6.959 Z0.000 F1500
G1 Z7 F1500;         ; Raise from color - controlled movement
G1 X77.700 Y8.000 Z1.000 F1500
G1 X67.700 Y18.000 Z8.000 F1500
G1 F1500;           ; Set feed rate to 1000

G91
G90

; Return to drawing position
; --- FIX X Backlash: 1.300mm ---
G0 X69.000 Y18.000 F1200
G0 X132.816 Y57.500
G1 Z0 F1500;                       ; Lower Z to drawing position

G91
G0 Z2.5 F500
G1 X0.625 Z0 S0 F1500
G1 X0.161 Y1 Z0 F1500
; --- FIX X Backlash (relative): -1.300mm ---
G0 X-1.300 F1200
G1 X-0.625 Z0 F1500
G0 Z-2.5 F500
G1 X-49.954 Z0 S900 F1500
G0 Z2.5 F500
G1 X-0.625 Z0 S0 F1500
G1 X-0.123 Y1 Z0 F1500
; --- FIX X Backlash (relative): 1.300mm ---
G0 X1.300 F1200
G1 X0.625 Z0 F1500
G0 Z-2.5 F500
G1 X50.2 Z0 S900 F1500
G0 Z2.5 F500
G1 X0.625 Z0 S0 F1500
G1 X0.076 Y1 Z0 F1500
; --- FIX X Backlash (relative): -1.300mm ---
G0 X-1.300 F1200
G1 X-0.625 Z0 F1500
G0 Z-2.5 F500
G1 X-50.352 Z0 S900 F1500
G0 Z2.5 F500
G1 X-0.625 Z0 S0 F1500
G1 X-0.036 Y1 Z0 F1500
; --- FIX X Backlash (relative): 1.300mm ---
G0 X1.300 F1200
G1 X0.625 Z0 F1500
G0 Z-2.5 F500
G1 X50.424 Z0 S900 F1500
G0 Z2.5 F500
G1 X0.625 Z0 S0 F1500
G1 Y1 Z0 F1500
; --- FIX X Backlash (relative): -1.300mm ---
G0 X-1.300 F1200
G1 X-0.625 Z0 F1500
G0 Z-2.5 F500
G1 X-50.424 Z0 S900 F1500
G0 Z2.5 F500
G1 X-0.625 Z0 S0 F1500
G1 X0.036 Y1 Z0 F1500
; --- FIX X Backlash (relative): 1.300mm ---
G0 X1.300 F1200
G1 X0.625 Z0 F1500
G0 Z-2.5 F500
G1 X50.352 Z0 S900 F1500
G0 Z2.5 F500
G1 X0.625 Z0 S0 F1500
; --- FIX X Backlash (relative): -1.300mm ---
G0 X-1.300 F1200
G1 X-0.076 Y1 Z0 F1500
G1 X-0.625 Z0 F1500
G0 Z-2.5 F500
G1 X-50.2 Z0 S900 F1500
G0 Z2.5 F500
G1 X-0.625 Z0 S0 F1500
; --- FIX X Backlash (relative): 1.300mm ---
G0 X1.300 F1200
G1 X0.123 Y1 Z0 F1500
G1 X0.625 Z0 F1500
G0 Z-2.5 F500
G1 X49.954 Z0 S900 F1500
G90

; Color picking sequence
G1 Z10 F1500;         ; Raise brush to safe height
; --- FIX X Backlash: -1.300mm ---
G0 X131.677 Y65.500 F1200
; --- FIX Y Backlash: -1.300mm ---
G0 X131.677 Y64.200 F1200
G0 X84.700 Y3.700
G1 Z0 F1500;         ; Lower into color - controlled movement
; --- FIX Y Backlash: 1.300mm ---
G0 X84.700 Y5.000 F1200
G1 X83.802 Y7.295 Z0.000 F1500
G1 X83.726 Y7.642 Z0.000 F1500
G1 X83.700 Y8.000 Z0.000 F1500
G1 X83.726 Y8.358 Z0.000 F1500
; --- FIX X Backlash: 1.300mm ---
G0 X85.026 Y8.358 F1200
G1 X85.102 Y8.705 Z0.000 F1500
G1 X85.225 Y9.041 Z0.000 F1500
G1 X85.393 Y9.362 Z0.000 F1500
G1 X85.603 Y9.668 Z0.000 F1500
G1 X85.854 Y9.957 Z0.000 F1500
G1 X86.142 Y10.226 Z0.000 F1500
G1 X86.464 Y10.475 Z0.000 F1500
G1 X86.820 Y10.701 Z0.000 F1500
G1 X87.204 Y10.902 Z0.000 F1500
G1 X87.617 Y11.078 Z0.000 F1500
G1 X88.054 Y11.225 Z0.000 F1500
G1 X88.513 Y11.343 Z0.000 F1500
G1 X88.992 Y11.429 Z0.000 F1500
G1 X89.489 Y11.482 Z0.000 F1500
G1 X90.000 Y11.500 Z0.000 F1500
G1 X90.511 Y11.482 Z0.000 F1500
; --- FIX Y Backlash: -1.300mm ---
G0 X90.511 Y10.182 F1200
G1 X91.008 Y10.129 Z0.000 F1500
G1 X91.487 Y10.043 Z0.000 F1500
G1 X91.946 Y9.925 Z0.000 F1500
G1 X92.383 Y9.778 Z0.000 F1500
G1 X92.796 Y9.602 Z0.000 F1500
G1 X93.180 Y9.401 Z0.000 F1500
G1 X93.536 Y9.175 Z0.000 F1500
G1 X93.858 Y8.926 Z0.000 F1500
G1 X94.146 Y8.657 Z0.000 F1500
G1 X94.397 Y8.368 Z0.000 F1500
G1 X94.607 Y8.062 Z0.000 F1500
G1 X94.775 Y7.741 Z0.000 F1500
G1 X94.898 Y7.405 Z0.000 F1500
G1 X94.974 Y7.058 Z0.000 F1500
G1 X95.000 Y6.700 Z0.000 F1500
G1 X94.974 Y6.342 Z0.000 F1500
; --- FIX X Backlash: -1.300mm ---
G0 X93.674 Y6.342 F1200
G1 X93.598 Y5.995 Z0.000 F1500
G1 X93.475 Y5.659 Z0.000 F1500
G1 X93.307 Y5.338 Z0.000 F1500
G1 X93.097 Y5.032 Z0.000 F1500
G1 X92.846 Y4.743 Z0.000 F1500
G1 X92.558 Y4.474 Z0.000 F1500
G1 X92.236 Y4.225 Z0.000 F1500
G1 X91.880 Y3.999 Z0.000 F1500
G1 X91.496 Y3.798 Z0.000 F1500
G1 X91.083 Y3.622 Z0.000 F1500
G1 X90.646 Y3.475 Z0.000 F1500
G1 X90.187 Y3.357 Z0.000 F1500
G1 X89.708 Y3.271 Z0.000 F1500
G1 X89.211 Y3.218 Z0.000 F1500
G1 X88.700 Y3.200 Z0.000 F1500
G1 X88.189 Y3.218 Z0.000 F1500
; --- FIX Y Backlash: 1.300mm ---
G0 X88.189 Y4.518 F1200
G1 X87.692 Y4.571 Z0.000 F1500
G1 X87.213 Y4.657 Z0.000 F1500
G1 X86.754 Y4.775 Z0.000 F1500
G1 X86.317 Y4.922 Z0.000 F1500
G1 X85.904 Y5.098 Z0.000 F1500
G1 X85.520 Y5.299 Z0.000 F1500
G1 X85.164 Y5.525 Z0.000 F1500
G1 X84.842 Y5.774 Z0.000 F1500
G1 X84.554 Y6.043 Z0.000 F1500
G1 X84.303 Y6.332 Z0.000 F1500
G1 X84.093 Y6.638 Z0.000 F1500
G1 X83.925 Y6.959 Z0.000 F1500
G1 Z7 F1500;         ; Raise from color - controlled movement
G1 X77.700 Y8.000 Z1.000 F1500
G1 X67.700 Y18.000 Z8.000 F1500
G1 F1500;           ; Set feed rate to 1000

G91
G90

; Return to drawing position
; --- FIX X Backlash: 1.300mm ---
G0 X69.000 Y18.000 F1200
G0 X132.977 Y65.500
G1 Z0 F1500;                       ; Lower Z to drawing position

G91
G0 Z2.5 F500
G1 X0.625 Z0 S0 F1500
; --- FIX X Backlash (relative): -1.300mm ---
G0 X-1.300 F1200
G1 X-0.161 Y1 Z0 F1500
G1 X-0.625 Z0 F1500
G0 Z-2.5 F500
G1 X-49.632 Z0 S900 F1500
G0 Z2.5 F500
G1 X-0.625 Z0 S0 F1500
; --- FIX X Backlash (relative): 1.300mm ---
G0 X1.300 F1200
G1 X0.2 Y1 Z0 F1500
G1 X0.625 Z0 F1500
G0 Z-2.5 F500
G1 X49.232 Z0 S900 F1500
G0 Z2.5 F500
G1 X0.625 Z0 S0 F1500
; --- FIX X Backlash (relative): -1.300mm ---
G0 X-1.300 F1200
G1 X-0.242 Y1 Z0 F1500
G1 X-0.625 Z0 F1500
G0 Z-2.5 F500
G1 X-48.748 Z0 S900 F1500
G0 Z2.5 F500
G1 X-0.625 Z0 S0 F1500
; --- FIX X Backlash (relative): 1.300mm ---
G0 X1.300 F1200
G1 X0.284 Y1 Z0 F1500
G1 X0.625 Z0 F1500
G0 Z-2.5 F500
G1 X48.18 Z0 S900 F1500
G0 Z2.5 F500
G1 X0.625 Z0 S0 F1500
; --- FIX X Backlash (relative): -1.300mm ---
G0 X-1.300 F1200
G1 X-0.338 Y1 Z0 F1500
G1 X-0.625 Z0 F1500
G0 Z-2.5 F500
G1 X-47.504 Z0 S900 F1500
G0 Z2.5 F500
G1 X-0.625 Z0 S0 F1500
; --- FIX X Backlash (relative): 1.300mm ---
G0 X1.300 F1200
G1 X0.384 Y1 Z0 F1500
G1 X0.625 Z0 F1500
G0 Z-2.5 F500
G1 X46.736 Z0 S900 F1500
G0 Z2.5 F500
G1 X0.624 Z0 S0 F1500
; --- FIX X Backlash (relative): -1.300mm ---
G0 X-1.300 F1200
G1 X-0.433 Y1 Z0 F1500
G1 X-0.625 Z0 F1500
G0 Z-2.5 F500
G1 X-45.868 Z0 S900 F1500
G0 Z2.5 F500
G1 X-0.625 Z0 S0 F1500
; --- FIX X Backlash (relative): 1.300mm ---
G0 X1.300 F1200
G1 X0.486 Y1 Z0 F1500
G1 X0.625 Z0 F1500
G0 Z-2.5 F500
G1 X44.896 Z0 S900 F1500
G0 Z2.5 F500
G1 X0.625 Z0 S0 F1500
; --- FIX X Backlash (relative): -1.300mm ---
G0 X-1.300 F1200
G1 X-0.542 Y1 Z0 F1500
G90

; Color picking sequence
G1 Z10 F1500;         ; Raise brush to safe height
; --- FIX Y Backlash: -1.300mm ---
G0 X129.231 Y73.200 F1200
G0 X84.700 Y3.700
G1 Z0 F1500;         ; Lower into color - controlled movement
G0 Z-2.5 F500
; --- FIX Y Backlash: 1.300mm ---
G0 X84.700 Y5.000 F1200
G1 X83.802 Y7.295 Z0.000 F1500
G1 X83.726 Y7.642 Z0.000 F1500
G1 X83.700 Y8.000 Z0.000 F1500
G1 X83.726 Y8.358 Z0.000 F1500
; --- FIX X Backlash: 1.300mm ---
G0 X85.026 Y8.358 F1200
G1 X85.102 Y8.705 Z0.000 F1500
G1 X85.225 Y9.041 Z0.000 F1500
G1 X85.393 Y9.362 Z0.000 F1500
G1 X85.603 Y9.668 Z0.000 F1500
G1 X85.854 Y9.957 Z0.000 F1500
G1 X86.142 Y10.226 Z0.000 F1500
G1 X86.464 Y10.475 Z0.000 F1500
G1 X86.820 Y10.701 Z0.000 F1500
G1 X87.204 Y10.902 Z0.000 F1500
G1 X87.617 Y11.078 Z0.000 F1500
G1 X88.054 Y11.225 Z0.000 F1500
G1 X88.513 Y11.343 Z0.000 F1500
G1 X88.992 Y11.429 Z0.000 F1500
G1 X89.489 Y11.482 Z0.000 F1500
G1 X90.000 Y11.500 Z0.000 F1500
G1 X90.511 Y11.482 Z0.000 F1500
; --- FIX Y Backlash: -1.300mm ---
G0 X90.511 Y10.182 F1200
G1 X91.008 Y10.129 Z0.000 F1500
G1 X91.487 Y10.043 Z0.000 F1500
G1 X91.946 Y9.925 Z0.000 F1500
G1 X92.383 Y9.778 Z0.000 F1500
G1 X92.796 Y9.602 Z0.000 F1500
G1 X93.180 Y9.401 Z0.000 F1500
G1 X93.536 Y9.175 Z0.000 F1500
G1 X93.858 Y8.926 Z0.000 F1500
G1 X94.146 Y8.657 Z0.000 F1500
G1 X94.397 Y8.368 Z0.000 F1500
G1 X94.607 Y8.062 Z0.000 F1500
G1 X94.775 Y7.741 Z0.000 F1500
G1 X94.898 Y7.405 Z0.000 F1500
G1 X94.974 Y7.058 Z0.000 F1500
G1 X95.000 Y6.700 Z0.000 F1500
G1 X94.974 Y6.342 Z0.000 F1500
; --- FIX X Backlash: -1.300mm ---
G0 X93.674 Y6.342 F1200
G1 X93.598 Y5.995 Z0.000 F1500
G1 X93.475 Y5.659 Z0.000 F1500
G1 X93.307 Y5.338 Z0.000 F1500
G1 X93.097 Y5.032 Z0.000 F1500
G1 X92.846 Y4.743 Z0.000 F1500
G1 X92.558 Y4.474 Z0.000 F1500
G1 X92.236 Y4.225 Z0.000 F1500
G1 X91.880 Y3.999 Z0.000 F1500
G1 X91.496 Y3.798 Z0.000 F1500
G1 X91.083 Y3.622 Z0.000 F1500
G1 X90.646 Y3.475 Z0.000 F1500
G1 X90.187 Y3.357 Z0.000 F1500
G1 X89.708 Y3.271 Z0.000 F1500
G1 X89.211 Y3.218 Z0.000 F1500
G1 X88.700 Y3.200 Z0.000 F1500
G1 X88.189 Y3.218 Z0.000 F1500
; --- FIX Y Backlash: 1.300mm ---
G0 X88.189 Y4.518 F1200
G1 X87.692 Y4.571 Z0.000 F1500
G1 X87.213 Y4.657 Z0.000 F1500
G1 X86.754 Y4.775 Z0.000 F1500
G1 X86.317 Y4.922 Z0.000 F1500
G1 X85.904 Y5.098 Z0.000 F1500
G1 X85.520 Y5.299 Z0.000 F1500
G1 X85.164 Y5.525 Z0.000 F1500
G1 X84.842 Y5.774 Z0.000 F1500
G1 X84.554 Y6.043 Z0.000 F1500
G1 X84.303 Y6.332 Z0.000 F1500
G1 X84.093 Y6.638 Z0.000 F1500
G1 X83.925 Y6.959 Z0.000 F1500
G1 Z7 F1500;         ; Raise from color - controlled movement
G1 X77.700 Y8.000 Z1.000 F1500
G1 X67.700 Y18.000 Z8.000 F1500
G1 F1500;           ; Set feed rate to 1000

G91
G90

; Return to drawing position
; --- FIX X Backlash: 1.300mm ---
G0 X69.000 Y18.000 F1200
G0 X130.531 Y74.500
G1 Z0 F1500;                       ; Lower Z to drawing position

G91
; --- FIX X Backlash (relative): -1.300mm ---
G0 X-1.300 F1200
G1 X-0.625 Z0 F1500
G1 X-43.812 Z0 S900 F1500
G0 Z2.5 F500
G1 X-0.625 Z0 S0 F1500
; --- FIX X Backlash (relative): 1.300mm ---
G0 X1.300 F1200
G1 X0.603 Y1 Z0 F1500
G1 X0.625 Z0 F1500
G0 Z-2.5 F500
G1 X42.606 Z0 S900 F1500
G0 Z2.5 F500
G1 X0.625 Z0 S0 F1500
; --- FIX X Backlash (relative): -1.300mm ---
G0 X-1.300 F1200
G1 X-0.669 Y1 Z0 F1500
G1 X-0.625 Z0 F1500
G0 Z-2.5 F500
G1 X-41.268 Z0 S900 F1500
G0 Z2.5 F500
G1 X-0.625 Z0 S0 F1500
; --- FIX X Backlash (relative): 1.300mm ---
G0 X1.300 F1200
G1 X0.742 Y1 Z0 F1500
G1 X0.625 Z0 F1500
G0 Z-2.5 F500
G1 X39.784 Z0 S900 F1500
G0 Z2.5 F500
G1 X0.625 Z0 S0 F1500
; --- FIX X Backlash (relative): -1.300mm ---
G0 X-1.300 F1200
G1 X-0.822 Y1 Z0 F1500
G1 X-0.625 Z0 F1500
G0 Z-2.5 F500
G1 X-38.14 Z0 S900 F1500
G0 Z2.5 F500
G1 X-0.625 Z0 S0 F1500
; --- FIX X Backlash (relative): 1.300mm ---
G0 X1.300 F1200
G1 X0.913 Y1 Z0 F1500
G1 X0.625 Z0 F1500
G0 Z-2.5 F500
G1 X36.314 Z0 S900 F1500
G0 Z2.5 F500
G1 X0.625 Z0 S0 F1500
; --- FIX X Backlash (relative): -1.300mm ---
G0 X-1.300 F1200
G1 X-1.017 Y1 Z0 F1500
G1 X-0.625 Z0 F1500
G0 Z-2.5 F500
G1 X-34.28 Z0 S900 F1500
G0 Z2.5 F500
G1 X-0.625 Z0 S0 F1500
; --- FIX X Backlash (relative): 1.300mm ---
G0 X1.300 F1200
G1 X1.141 Y1 Z0 F1500
G1 X0.625 Z0 F1500
G0 Z-2.5 F500
G1 X31.998 Z0 S900 F1500
G0 Z2.5 F500
G1 X0.625 Z0 S0 F1500
; --- FIX X Backlash (relative): -1.300mm ---
G0 X-1.300 F1200
G1 X-1.31 Y1 Z0 F1500
G1 X-0.625 Z0 F1500
G0 Z-2.5 F500
G1 X-29.378 Z0 S900 F1500
G0 Z2.5 F500
G1 X-0.625 Z0 S0 F1500
; --- FIX X Backlash (relative): 1.300mm ---
G0 X1.300 F1200
G1 X1.496 Y1 Z0 F1500
G1 X0.625 Z0 F1500
G0 Z-2.5 F500
G1 X26.386 Z0 S900 F1500
G0 Z2.5 F500
G1 X0.625 Z0 S0 F1500
; --- FIX X Backlash (relative): -1.300mm ---
G0 X-1.300 F1200
G1 X-1.795 Y1 Z0 F1500
G1 X-0.625 Z0 F1500
G0 Z-2.5 F500
G1 X-22.796 Z0 S900 F1500
G90

; Color picking sequence
G1 Z10 F1500;         ; Raise brush to safe height
; --- FIX Y Backlash: -1.300mm ---
G0 X95.302 Y83.200 F1200
G0 X84.700 Y3.700
G1 Z0 F1500;         ; Lower into color - controlled movement
; --- FIX Y Backlash: 1.300mm ---
G0 X84.700 Y5.000 F1200
G1 X83.802 Y7.295 Z0.000 F1500
G1 X83.726 Y7.642 Z0.000 F1500
G1 X83.700 Y8.000 Z0.000 F1500
G1 X83.726 Y8.358 Z0.000 F1500
; --- FIX X Backlash: 1.300mm ---
G0 X85.026 Y8.358 F1200
G1 X85.102 Y8.705 Z0.000 F1500
G1 X85.225 Y9.041 Z0.000 F1500
G1 X85.393 Y9.362 Z0.000 F1500
G1 X85.603 Y9.668 Z0.000 F1500
G1 X85.854 Y9.957 Z0.000 F1500
G1 X86.142 Y10.226 Z0.000 F1500
G1 X86.464 Y10.475 Z0.000 F1500
G1 X86.820 Y10.701 Z0.000 F1500
G1 X87.204 Y10.902 Z0.000 F1500
G1 X87.617 Y11.078 Z0.000 F1500
G1 X88.054 Y11.225 Z0.000 F1500
G1 X88.513 Y11.343 Z0.000 F1500
G1 X88.992 Y11.429 Z0.000 F1500
G1 X89.489 Y11.482 Z0.000 F1500
G1 X90.000 Y11.500 Z0.000 F1500
G1 X90.511 Y11.482 Z0.000 F1500
; --- FIX Y Backlash: -1.300mm ---
G0 X90.511 Y10.182 F1200
G1 X91.008 Y10.129 Z0.000 F1500
G1 X91.487 Y10.043 Z0.000 F1500
G1 X91.946 Y9.925 Z0.000 F1500
G1 X92.383 Y9.778 Z0.000 F1500
G1 X92.796 Y9.602 Z0.000 F1500
G1 X93.180 Y9.401 Z0.000 F1500
G1 X93.536 Y9.175 Z0.000 F1500
G1 X93.858 Y8.926 Z0.000 F1500
G1 X94.146 Y8.657 Z0.000 F1500
G1 X94.397 Y8.368 Z0.000 F1500
G1 X94.607 Y8.062 Z0.000 F1500
G1 X94.775 Y7.741 Z0.000 F1500
G1 X94.898 Y7.405 Z0.000 F1500
G1 X94.974 Y7.058 Z0.000 F1500
G1 X95.000 Y6.700 Z0.000 F1500
G1 X94.974 Y6.342 Z0.000 F1500
; --- FIX X Backlash: -1.300mm ---
G0 X93.674 Y6.342 F1200
G1 X93.598 Y5.995 Z0.000 F1500
G1 X93.475 Y5.659 Z0.000 F1500
G1 X93.307 Y5.338 Z0.000 F1500
G1 X93.097 Y5.032 Z0.000 F1500
G1 X92.846 Y4.743 Z0.000 F1500
G1 X92.558 Y4.474 Z0.000 F1500
G1 X92.236 Y4.225 Z0.000 F1500
G1 X91.880 Y3.999 Z0.000 F1500
G1 X91.496 Y3.798 Z0.000 F1500
G1 X91.083 Y3.622 Z0.000 F1500
G1 X90.646 Y3.475 Z0.000 F1500
G1 X90.187 Y3.357 Z0.000 F1500
G1 X89.708 Y3.271 Z0.000 F1500
G1 X89.211 Y3.218 Z0.000 F1500
G1 X88.700 Y3.200 Z0.000 F1500
G1 X88.189 Y3.218 Z0.000 F1500
; --- FIX Y Backlash: 1.300mm ---
G0 X88.189 Y4.518 F1200
G1 X87.692 Y4.571 Z0.000 F1500
G1 X87.213 Y4.657 Z0.000 F1500
G1 X86.754 Y4.775 Z0.000 F1500
G1 X86.317 Y4.922 Z0.000 F1500
G1 X85.904 Y5.098 Z0.000 F1500
G1 X85.520 Y5.299 Z0.000 F1500
G1 X85.164 Y5.525 Z0.000 F1500
G1 X84.842 Y5.774 Z0.000 F1500
G1 X84.554 Y6.043 Z0.000 F1500
G1 X84.303 Y6.332 Z0.000 F1500
G1 X84.093 Y6.638 Z0.000 F1500
G1 X83.925 Y6.959 Z0.000 F1500
G1 Z7 F1500;         ; Raise from color - controlled movement
G1 X77.700 Y8.000 Z1.000 F1500
G1 X67.700 Y18.000 Z8.000 F1500
G1 F1500;           ; Set feed rate to 1000

G91
G90

; Return to drawing position
; --- FIX X Backlash: 1.300mm ---
G0 X69.000 Y18.000 F1200
G0 X96.602 Y84.500
G1 Z0 F1500;                       ; Lower Z to drawing position

G91
G0 Z2.5 F500
; --- FIX X Backlash (relative): -1.300mm ---
G0 X-1.300 F1200
G1 X-0.625 Z0 S0 F1500
; --- FIX X Backlash (relative): 1.300mm ---
G0 X1.300 F1200
G1 X2.234 Y1 Z0 F1500
G1 X0.625 Z0 F1500
G0 Z-2.5 F500
G1 X18.328 Z0 S900 F1500
G0 Z2.5 F500
G1 X0.625 Z0 S0 F1500
; --- FIX X Backlash (relative): -1.300mm ---
G0 X-1.300 F1200
G1 X-3.163 Y1 Z0 F1500
G1 X-0.625 Z0 F1500
G0 Z-2.5 F500
G1 X-12.002 Z0 S900 F1500
G0 Z2.5 F500
G1 X-0.625 Z0 S0 F1500
G90
;Cut @ 1500 mm/min, 80% power

M8

; Washing sequence (no color)
G1 Z10 F1500;        ; Raise brush to safe height
; --- FIX Y Backlash: -1.300mm ---
G0 X100.074 Y85.200 F1200
G0 X3.700 Y3.700
G1 Z-1 F1500;         ; Lower brush for cleaning - controlled movement
; --- FIX X Backlash: 1.300mm ---
G0 X5.000 Y3.700 F1200
; --- FIX Y Backlash: 1.300mm ---
G0 X5.000 Y5.000 F1200
G1 X10.000 Y12.000 Z8.000 F1500
G1 Z-1 F1500;         ; Lower brush for cleaning - controlled movement
G1 X25.000 Y14.000 Z6.000 F1500
G1 Z8 F1500;         ; Maintain brush height - controlled movement
; --- FIX X Backlash: -1.300mm ---
G0 X23.700 Y14.000 F1200
; --- FIX Y Backlash: -1.300mm ---
G0 X23.700 Y12.700 F1200
G0 X3.700 Y3.700
G1 Z-1 F1500;         ; Lower brush for cleaning - controlled movement
; --- FIX X Backlash: 1.300mm ---
G0 X5.000 Y3.700 F1200
; --- FIX Y Backlash: 1.300mm ---
G0 X5.000 Y5.000 F1200
G1 X15.000 Y12.000 Z8.000 F1500
G1 Z-1 F1500;         ; Lower brush for cleaning - controlled movement
G1 X25.000 Y14.000 Z6.000 F1500
G1 Z10 F1500;         ; Maintain brush height - controlled movement
G1 F1500;           ; Set feed rate to 1000

; Color picking sequence
G1 Z10 F1500;         ; Raise brush to safe height
; --- FIX Y Backlash: -1.300mm ---
G0 X25.000 Y12.700 F1200
G0 X41.000 Y3.700
G1 Z0 F1500;         ; Lower into color - controlled movement
; --- FIX X Backlash: -1.300mm ---
G0 X39.700 Y3.700 F1200
; --- FIX Y Backlash: 1.300mm ---
G0 X39.700 Y5.000 F1200
G1 X38.802 Y7.295 Z0.000 F1500
G1 X38.726 Y7.642 Z0.000 F1500
G1 X38.700 Y8.000 Z0.000 F1500
G1 X38.726 Y8.358 Z0.000 F1500
; --- FIX X Backlash: 1.300mm ---
G0 X40.026 Y8.358 F1200
G1 X40.102 Y8.705 Z0.000 F1500
G1 X40.225 Y9.041 Z0.000 F1500
G1 X40.393 Y9.362 Z0.000 F1500
G1 X40.603 Y9.668 Z0.000 F1500
G1 X40.854 Y9.957 Z0.000 F1500
G1 X41.142 Y10.226 Z0.000 F1500
G1 X41.464 Y10.475 Z0.000 F1500
G1 X41.820 Y10.701 Z0.000 F1500
G1 X42.204 Y10.902 Z0.000 F1500
G1 X42.617 Y11.078 Z0.000 F1500
G1 X43.054 Y11.225 Z0.000 F1500
G1 X43.513 Y11.343 Z0.000 F1500
G1 X43.992 Y11.429 Z0.000 F1500
G1 X44.489 Y11.482 Z0.000 F1500
G1 X45.000 Y11.500 Z0.000 F1500
G1 X45.511 Y11.482 Z0.000 F1500
; --- FIX Y Backlash: -1.300mm ---
G0 X45.511 Y10.182 F1200
G1 X46.008 Y10.129 Z0.000 F1500
G1 X46.487 Y10.043 Z0.000 F1500
G1 X46.946 Y9.925 Z0.000 F1500
G1 X47.383 Y9.778 Z0.000 F1500
G1 X47.796 Y9.602 Z0.000 F1500
G1 X48.180 Y9.401 Z0.000 F1500
G1 X48.536 Y9.175 Z0.000 F1500
G1 X48.858 Y8.926 Z0.000 F1500
G1 X49.146 Y8.657 Z0.000 F1500
G1 X49.397 Y8.368 Z0.000 F1500
G1 X49.607 Y8.062 Z0.000 F1500
G1 X49.775 Y7.741 Z0.000 F1500
G1 X49.898 Y7.405 Z0.000 F1500
G1 X49.974 Y7.058 Z0.000 F1500
G1 X50.000 Y6.700 Z0.000 F1500
G1 X49.974 Y6.342 Z0.000 F1500
; --- FIX X Backlash: -1.300mm ---
G0 X48.674 Y6.342 F1200
G1 X48.598 Y5.995 Z0.000 F1500
G1 X48.475 Y5.659 Z0.000 F1500
G1 X48.307 Y5.338 Z0.000 F1500
G1 X48.097 Y5.032 Z0.000 F1500
G1 X47.846 Y4.743 Z0.000 F1500
G1 X47.558 Y4.474 Z0.000 F1500
G1 X47.236 Y4.225 Z0.000 F1500
G1 X46.880 Y3.999 Z0.000 F1500
G1 X46.496 Y3.798 Z0.000 F1500
G1 X46.083 Y3.622 Z0.000 F1500
G1 X45.646 Y3.475 Z0.000 F1500
G1 X45.187 Y3.357 Z0.000 F1500
G1 X44.708 Y3.271 Z0.000 F1500
G1 X44.211 Y3.218 Z0.000 F1500
G1 X43.700 Y3.200 Z0.000 F1500
G1 X43.189 Y3.218 Z0.000 F1500
; --- FIX Y Backlash: 1.300mm ---
G0 X43.189 Y4.518 F1200
G1 X42.692 Y4.571 Z0.000 F1500
G1 X42.213 Y4.657 Z0.000 F1500
G1 X41.754 Y4.775 Z0.000 F1500
G1 X41.317 Y4.922 Z0.000 F1500
G1 X40.904 Y5.098 Z0.000 F1500
G1 X40.520 Y5.299 Z0.000 F1500
G1 X40.164 Y5.525 Z0.000 F1500
G1 X39.842 Y5.774 Z0.000 F1500
G1 X39.554 Y6.043 Z0.000 F1500
G1 X39.303 Y6.332 Z0.000 F1500
G1 X39.093 Y6.638 Z0.000 F1500
G1 X38.925 Y6.959 Z0.000 F1500
G1 Z7 F1500;         ; Raise from color - controlled movement
G1 X32.700 Y8.000 Z1.000 F1500
G1 X22.700 Y18.000 Z8.000 F1500
G1 F1500;           ; Set feed rate to 1000
G0 Z3.5 F1500
; --- FIX X Backlash: 1.300mm ---
G0 X24.000 Y18.000 F1200
G0 X101.441 Y82.692 Z3.500
G1 Z0 F1500
;Layer C1
; --- FIX X Backlash: -1.300mm ---
G0 X100.141 Y82.692 F1200
G1 X99.990 Y82.670 Z0.000 F1500
; --- FIX Y Backlash: -1.300mm ---
G0 X99.990 Y81.370 F1200
G1 X99.804 Y81.316 Z0.000 F1500
G1 X99.625 Y81.254 Z0.000 F1500
G1 X99.388 Y81.183 Z0.000 F1500
G1 X99.248 Y81.137 Z0.000 F1500
G1 X99.079 Y81.079 Z0.000 F1500
G1 X98.892 Y81.012 Z0.000 F1500
G1 X98.781 Y80.953 Z0.000 F1500
G1 X98.720 Y80.865 Z0.000 F1500
G1 X98.700 Y80.805 Z0.000 F1500
G1 X98.697 Y80.744 Z0.000 F1500
G1 X98.714 Y80.660 Z0.000 F1500
G1 X98.753 Y80.531 Z0.000 F1500
; --- FIX X Backlash: 1.300mm ---
G0 X100.053 Y80.531 F1200
G1 X100.106 Y80.346 Z0.000 F1500
G1 X100.137 Y80.178 Z0.000 F1500
G1 X100.161 Y80.081 Z0.000 F1500
G1 X100.198 Y79.954 Z0.000 F1500
G1 X100.313 Y79.588 Z0.000 F1500
G1 X100.372 Y79.391 Z0.000 F1500
G1 X100.434 Y79.164 Z0.000 F1500
G1 X100.517 Y78.853 Z0.000 F1500
G1 X100.569 Y78.664 Z0.000 F1500
G1 X100.651 Y78.396 Z0.000 F1500
G1 X100.693 Y78.242 Z0.000 F1500
G1 X100.939 Y77.218 Z0.000 F1500
G1 X101.035 Y76.832 Z0.000 F1500
G1 X101.080 Y76.665 Z0.000 F1500
G1 X101.098 Y76.532 Z0.000 F1500
G1 X101.120 Y76.451 Z0.000 F1500
G1 X101.161 Y76.311 Z0.000 F1500
G1 X101.234 Y76.055 Z0.000 F1500
G1 X101.395 Y75.472 Z0.000 F1500
G1 X101.424 Y75.358 Z0.000 F1500
G1 X101.452 Y75.231 Z0.000 F1500
G1 X101.486 Y75.095 Z0.000 F1500
G1 X101.523 Y75.000 Z0.000 F1500
G1 X101.569 Y74.939 Z0.000 F1500
G1 X101.626 Y74.905 Z0.000 F1500
G1 X101.813 Y74.893 Z0.000 F1500
; --- FIX Y Backlash: 1.300mm ---
G0 X101.813 Y76.193 F1200
G1 X102.066 Y76.249 Z0.000 F1500
G1 X102.222 Y76.294 Z0.000 F1500
G1 X103.250 Y76.559 Z0.000 F1500
G1 X103.508 Y76.621 Z0.000 F1500
G1 X104.155 Y76.771 Z0.000 F1500
G1 X104.516 Y76.851 Z0.000 F1500
G1 X105.085 Y76.965 Z0.000 F1500
G1 X105.299 Y77.026 Z0.000 F1500
G1 X105.450 Y77.091 Z0.000 F1500
G1 X105.530 Y77.156 Z0.000 F1500
G1 X105.555 Y77.207 Z0.000 F1500
G1 X105.559 Y77.282 Z0.000 F1500
G1 X105.553 Y77.341 Z0.000 F1500
G1 X105.541 Y77.419 Z0.000 F1500
; --- FIX X Backlash: -1.300mm ---
G0 X104.241 Y77.419 F1200
G1 X104.167 Y77.832 Z0.000 F1500
G1 X104.115 Y78.145 Z0.000 F1500
G1 X104.102 Y78.242 Z0.000 F1500
G1 X104.079 Y78.370 Z0.000 F1500
G1 X104.044 Y78.475 Z0.000 F1500
G1 X103.997 Y78.554 Z0.000 F1500
G1 X103.940 Y78.603 Z0.000 F1500
G1 X103.904 Y78.614 Z0.000 F1500
G1 X103.849 Y78.614 Z0.000 F1500
G1 X103.768 Y78.606 Z0.000 F1500
G1 X103.653 Y78.585 Z0.000 F1500
G1 X103.500 Y78.551 Z0.000 F1500
G1 X103.300 Y78.502 Z0.000 F1500
; --- FIX Y Backlash: -1.300mm ---
G0 X103.300 Y77.202 F1200
G1 X102.735 Y77.054 Z0.000 F1500
G1 X102.434 Y76.981 Z0.000 F1500
G1 X102.086 Y76.906 Z0.000 F1500
G1 X101.923 Y76.874 Z0.000 F1500
G1 X101.781 Y76.848 Z0.000 F1500
G1 X101.672 Y76.830 Z0.000 F1500
G1 X101.608 Y76.824 Z0.000 F1500
G1 X101.542 Y76.850 Z0.000 F1500
; --- FIX Y Backlash: 1.300mm ---
G0 X101.542 Y78.150 F1200
G1 X101.478 Y78.221 Z0.000 F1500
G1 X101.423 Y78.327 Z0.000 F1500
G1 X101.383 Y78.459 Z0.000 F1500
G1 X101.360 Y78.556 Z0.000 F1500
G1 X101.264 Y78.938 Z0.000 F1500
G1 X101.138 Y79.431 Z0.000 F1500
G1 X101.017 Y79.927 Z0.000 F1500
G1 X100.889 Y80.490 Z0.000 F1500
G1 X100.791 Y80.885 Z0.000 F1500
G1 X100.521 Y82.019 Z0.000 F1500
G1 X100.465 Y82.270 Z0.000 F1500
G1 X100.411 Y82.460 Z0.000 F1500
G1 X100.343 Y82.593 Z0.000 F1500
G1 X100.258 Y82.674 Z0.000 F1500
G1 X100.141 Y82.692 Z0.000 F1500
G0 Z3.5 F1500
; --- FIX X Backlash: 1.300mm ---
G0 X101.441 Y82.692 F1200
; --- FIX Y Backlash: -1.300mm ---
G0 X101.441 Y81.392 F1200
G0 X107.436 Y79.989 Z3.500
G1 Z0 F1500
; --- FIX Y Backlash: 1.300mm ---
G0 X107.436 Y81.289 F1200
G1 X107.551 Y81.516 Z0.000 F1500
G1 X107.691 Y81.721 Z0.000 F1500
G1 X107.856 Y81.902 Z0.000 F1500
G1 X108.045 Y82.059 Z0.000 F1500
G1 X108.257 Y82.191 Z0.000 F1500
G1 X108.364 Y82.243 Z0.000 F1500
G1 X108.456 Y82.272 Z0.000 F1500
G1 X108.568 Y82.284 Z0.000 F1500
G1 X108.738 Y82.287 Z0.000 F1500
G1 X108.902 Y82.284 Z0.000 F1500
G1 X109.013 Y82.273 Z0.000 F1500
G1 X109.100 Y82.249 Z0.000 F1500
G1 X109.189 Y82.207 Z0.000 F1500
; --- FIX Y Backlash: -1.300mm ---
G0 X109.189 Y80.907 F1200
G1 X109.395 Y80.779 Z0.000 F1500
G1 X109.572 Y80.629 Z0.000 F1500
G1 X109.721 Y80.456 Z0.000 F1500
G1 X109.841 Y80.258 Z0.000 F1500
G1 X109.934 Y80.035 Z0.000 F1500
G1 X110.000 Y79.787 Z0.000 F1500
G1 X110.039 Y79.511 Z0.000 F1500
G1 X110.051 Y79.206 Z0.000 F1500
G1 X110.036 Y78.877 Z0.000 F1500
G1 X109.990 Y78.579 Z0.000 F1500
; --- FIX X Backlash: -1.300mm ---
G0 X108.690 Y78.579 F1200
G1 X108.610 Y78.301 Z0.000 F1500
G1 X108.493 Y78.032 Z0.000 F1500
G1 X108.372 Y77.848 Z0.000 F1500
G1 X108.206 Y77.665 Z0.000 F1500
G1 X108.017 Y77.505 Z0.000 F1500
G1 X107.827 Y77.390 Z0.000 F1500
G1 X107.607 Y77.309 Z0.000 F1500
G1 X107.320 Y77.287 Z0.000 F1500
G1 X107.122 Y77.287 Z0.000 F1500
G1 X106.956 Y77.302 Z0.000 F1500
G1 X106.826 Y77.329 Z0.000 F1500
G1 X106.732 Y77.368 Z0.000 F1500
G1 X106.682 Y77.395 Z0.000 F1500
G1 X106.624 Y77.422 Z0.000 F1500
; --- FIX Y Backlash: 1.300mm ---
G0 X106.624 Y78.722 F1200
G1 X106.353 Y78.976 Z0.000 F1500
G1 X106.161 Y79.250 Z0.000 F1500
G1 X106.144 Y79.299 Z0.000 F1500
G1 X106.104 Y79.394 Z0.000 F1500
G1 X106.018 Y79.630 Z0.000 F1500
G1 X105.965 Y79.887 Z0.000 F1500
G1 X105.943 Y80.171 Z0.000 F1500
G1 X105.951 Y80.489 Z0.000 F1500
G1 X105.986 Y80.775 Z0.000 F1500
; --- FIX X Backlash: 1.300mm ---
G0 X107.286 Y80.775 F1200
G1 X107.347 Y81.042 Z0.000 F1500
G1 X107.436 Y81.289 Z0.000 F1500
G0 Z3.5 F1500
; --- FIX X Backlash: -1.300mm ---
G0 X106.136 Y81.289 F1200
G0 X104.477 Y81.505 Z3.500
G1 Z0 F1500
; --- FIX Y Backlash: -1.300mm ---
G0 X104.477 Y80.205 F1200
G1 X104.370 Y79.686 Z0.000 F1500
G1 X104.321 Y79.169 Z0.000 F1500
G1 X104.331 Y78.664 Z0.000 F1500
; --- FIX X Backlash: 1.300mm ---
G0 X105.631 Y78.664 F1200
G1 X105.701 Y78.177 Z0.000 F1500
G1 X105.783 Y77.845 Z0.000 F1500
G1 X105.886 Y77.534 Z0.000 F1500
G1 X106.004 Y77.259 Z0.000 F1500
G1 X106.131 Y77.035 Z0.000 F1500
G1 X106.438 Y76.708 Z0.000 F1500
G1 X106.829 Y76.381 Z0.000 F1500
G1 X106.951 Y76.297 Z0.000 F1500
G1 X107.010 Y76.253 Z0.000 F1500
G1 X107.073 Y76.215 Z0.000 F1500
G1 X107.205 Y76.145 Z0.000 F1500
G1 X107.410 Y76.055 Z0.000 F1500
G1 X107.659 Y75.972 Z0.000 F1500
G1 X107.932 Y75.903 Z0.000 F1500
G1 X108.212 Y75.852 Z0.000 F1500
G1 X108.620 Y75.838 Z0.000 F1500
G1 X109.039 Y75.862 Z0.000 F1500
; --- FIX Y Backlash: 1.300mm ---
G0 X109.039 Y77.162 F1200
G1 X109.474 Y77.252 Z0.000 F1500
G1 X109.860 Y77.383 Z0.000 F1500
G1 X110.222 Y77.564 Z0.000 F1500
G1 X110.586 Y77.807 Z0.000 F1500
G1 X110.851 Y78.030 Z0.000 F1500
G1 X111.065 Y78.275 Z0.000 F1500
G1 X111.245 Y78.564 Z0.000 F1500
G1 X111.407 Y78.921 Z0.000 F1500
G1 X111.561 Y79.384 Z0.000 F1500
G1 X111.656 Y79.848 Z0.000 F1500
G1 X111.691 Y80.323 Z0.000 F1500
G1 X111.669 Y80.814 Z0.000 F1500
; --- FIX X Backlash: -1.300mm ---
G0 X110.369 Y80.814 F1200
G1 X110.298 Y81.307 Z0.000 F1500
G1 X110.191 Y81.751 Z0.000 F1500
G1 X110.047 Y82.149 Z0.000 F1500
G1 X109.865 Y82.502 Z0.000 F1500
G1 X109.644 Y82.810 Z0.000 F1500
G1 X109.383 Y83.076 Z0.000 F1500
G1 X109.081 Y83.301 Z0.000 F1500
G1 X108.737 Y83.486 Z0.000 F1500
G1 X108.405 Y83.619 Z0.000 F1500
G1 X108.074 Y83.711 Z0.000 F1500
G1 X107.734 Y83.766 Z0.000 F1500
G1 X107.378 Y83.785 Z0.000 F1500
G1 X107.142 Y83.779 Z0.000 F1500
G1 X106.923 Y83.762 Z0.000 F1500
G1 X106.758 Y83.738 Z0.000 F1500
G1 X106.684 Y83.710 Z0.000 F1500
G1 X106.653 Y83.692 Z0.000 F1500
G1 X106.526 Y83.671 Z0.000 F1500
G1 X106.397 Y83.631 Z0.000 F1500
; --- FIX Y Backlash: -1.300mm ---
G0 X106.397 Y82.331 F1200
G1 X106.217 Y82.267 Z0.000 F1500
G1 X105.991 Y82.179 Z0.000 F1500
G1 X105.757 Y82.064 Z0.000 F1500
G1 X105.532 Y81.911 Z0.000 F1500
G1 X105.324 Y81.726 Z0.000 F1500
G1 X105.139 Y81.513 Z0.000 F1500
G1 X105.060 Y81.413 Z0.000 F1500
G1 X105.017 Y81.362 Z0.000 F1500
G1 X104.969 Y81.299 Z0.000 F1500
G1 X104.879 Y81.167 Z0.000 F1500
G1 X104.753 Y80.961 Z0.000 F1500
G1 X104.652 Y80.750 Z0.000 F1500
G1 X104.564 Y80.508 Z0.000 F1500
G1 X104.477 Y80.205 Z0.000 F1500
G0 Z3.5 F1500
; --- FIX X Backlash: 1.300mm ---
G0 X105.777 Y80.205 F1200
; --- FIX Y Backlash: 1.300mm ---
G0 X105.777 Y81.505 F1200
G0 X112.819 Y83.095 Z3.500
G1 Z0 F1500
; --- FIX Y Backlash: -1.300mm ---
G0 X112.819 Y81.795 F1200
G1 X112.852 Y78.025 Z0.000 F1500
G1 X112.867 Y76.876 Z0.000 F1500
G1 X112.885 Y75.979 Z0.000 F1500
G1 X112.898 Y75.535 Z0.000 F1500
G1 X112.907 Y75.374 Z0.000 F1500
G1 X112.911 Y75.340 Z0.000 F1500
G1 X112.965 Y75.244 Z0.000 F1500
G1 X113.088 Y75.144 Z0.000 F1500
G1 X113.287 Y75.037 Z0.000 F1500
G1 X113.567 Y74.918 Z0.000 F1500
G1 X113.817 Y74.824 Z0.000 F1500
G1 X114.044 Y74.746 Z0.000 F1500
G1 X114.223 Y74.691 Z0.000 F1500
G1 X114.327 Y74.668 Z0.000 F1500
G1 X114.407 Y74.694 Z0.000 F1500
; --- FIX Y Backlash: 1.300mm ---
G0 X114.407 Y75.994 F1200
G1 X114.520 Y76.074 Z0.000 F1500
G1 X114.650 Y76.195 Z0.000 F1500
G1 X114.781 Y76.344 Z0.000 F1500
G1 X114.872 Y76.454 Z0.000 F1500
G1 X115.189 Y76.829 Z0.000 F1500
G1 X115.902 Y77.663 Z0.000 F1500
G1 X118.254 Y80.379 Z0.000 F1500
G1 X118.418 Y80.581 Z0.000 F1500
G1 X118.544 Y80.759 Z0.000 F1500
G1 X118.620 Y80.894 Z0.000 F1500
G1 X118.633 Y80.967 Z0.000 F1500
; --- FIX X Backlash: -1.300mm ---
G0 X117.333 Y80.967 F1200
G1 X117.258 Y81.031 Z0.000 F1500
G1 X117.102 Y81.128 Z0.000 F1500
G1 X116.890 Y81.246 Z0.000 F1500
G1 X116.649 Y81.370 Z0.000 F1500
G1 X116.404 Y81.489 Z0.000 F1500
G1 X116.180 Y81.590 Z0.000 F1500
G1 X116.004 Y81.660 Z0.000 F1500
G1 X115.899 Y81.686 Z0.000 F1500
G1 X115.847 Y81.672 Z0.000 F1500
; --- FIX Y Backlash: -1.300mm ---
G0 X115.847 Y80.372 F1200
G1 X115.774 Y80.319 Z0.000 F1500
G1 X115.666 Y80.208 Z0.000 F1500
G1 X115.508 Y80.020 Z0.000 F1500
G1 X115.283 Y79.736 Z0.000 F1500
G1 X114.978 Y79.338 Z0.000 F1500
G1 X114.577 Y78.807 Z0.000 F1500
G1 X114.065 Y78.124 Z0.000 F1500
G1 X113.740 Y77.702 Z0.000 F1500
G1 X113.461 Y77.360 Z0.000 F1500
G1 X113.347 Y77.230 Z0.000 F1500
G1 X113.256 Y77.134 Z0.000 F1500
G1 X113.191 Y77.075 Z0.000 F1500
G1 X113.156 Y77.058 Z0.000 F1500
G1 X113.118 Y77.095 Z0.000 F1500
; --- FIX Y Backlash: 1.300mm ---
G0 X113.118 Y78.395 F1200
G1 X113.091 Y78.489 Z0.000 F1500
G1 X113.077 Y78.654 Z0.000 F1500
G1 X113.074 Y78.899 Z0.000 F1500
G1 X113.078 Y79.057 Z0.000 F1500
G1 X113.085 Y79.239 Z0.000 F1500
G1 X113.107 Y79.685 Z0.000 F1500
G1 X113.143 Y80.248 Z0.000 F1500
; --- FIX X Backlash: 1.300mm ---
G0 X114.443 Y80.248 F1200
G1 X114.534 Y81.592 Z0.000 F1500
G1 X114.563 Y82.130 Z0.000 F1500
G1 X114.572 Y82.340 Z0.000 F1500
G1 X114.576 Y82.501 Z0.000 F1500
G1 X114.576 Y82.605 Z0.000 F1500
G1 X114.571 Y82.647 Z0.000 F1500
; --- FIX X Backlash: -1.300mm ---
G0 X113.271 Y82.647 F1200
G1 X113.183 Y82.700 Z0.000 F1500
G1 X113.018 Y82.769 Z0.000 F1500
G1 X112.800 Y82.848 Z0.000 F1500
G1 X112.553 Y82.928 Z0.000 F1500
G1 X112.301 Y83.004 Z0.000 F1500
G1 X112.066 Y83.067 Z0.000 F1500
G1 X111.872 Y83.110 Z0.000 F1500
G1 X111.744 Y83.126 Z0.000 F1500
G1 X111.734 Y83.126 Z0.000 F1500
G1 X111.519 Y83.095 Z0.000 F1500
G0 Z3.5 F1500
; --- FIX X Backlash: 1.300mm ---
G0 X112.819 Y83.095 F1200
; --- FIX Y Backlash: -1.300mm ---
G0 X112.819 Y81.795 F1200
G0 X119.883 Y78.625 Z3.500
G1 Z0 F1500
; --- FIX X Backlash: -1.300mm ---
G0 X118.583 Y78.625 F1200
G1 X118.502 Y78.545 Z0.000 F1500
G1 X118.405 Y78.441 Z0.000 F1500
G1 X118.290 Y78.310 Z0.000 F1500
G1 X118.154 Y78.149 Z0.000 F1500
G1 X117.996 Y77.956 Z0.000 F1500
G1 X117.814 Y77.729 Z0.000 F1500
G1 X117.367 Y77.161 Z0.000 F1500
G1 X116.798 Y76.425 Z0.000 F1500
G1 X116.088 Y75.501 Z0.000 F1500
G1 X115.852 Y75.188 Z0.000 F1500
G1 X115.641 Y74.902 Z0.000 F1500
G1 X115.459 Y74.645 Z0.000 F1500
G1 X115.305 Y74.420 Z0.000 F1500
G1 X115.183 Y74.230 Z0.000 F1500
G1 X115.094 Y74.077 Z0.000 F1500
G1 X115.039 Y73.963 Z0.000 F1500
G1 X115.020 Y73.891 Z0.000 F1500
G1 X115.037 Y73.802 Z0.000 F1500
; --- FIX X Backlash: 1.300mm ---
G0 X116.337 Y73.802 F1200
G1 X116.398 Y73.696 Z0.000 F1500
G1 X116.516 Y73.559 Z0.000 F1500
G1 X116.702 Y73.382 Z0.000 F1500
G1 X116.825 Y73.275 Z0.000 F1500
G1 X116.971 Y73.153 Z0.000 F1500
G1 X117.140 Y73.015 Z0.000 F1500
G1 X117.334 Y72.860 Z0.000 F1500
G1 X117.805 Y72.491 Z0.000 F1500
G1 X118.398 Y72.035 Z0.000 F1500
G1 X118.740 Y71.782 Z0.000 F1500
G1 X119.043 Y71.575 Z0.000 F1500
G1 X119.170 Y71.496 Z0.000 F1500
G1 X119.274 Y71.436 Z0.000 F1500
G1 X119.353 Y71.397 Z0.000 F1500
G1 X119.401 Y71.384 Z0.000 F1500
G1 X119.499 Y71.422 Z0.000 F1500
; --- FIX Y Backlash: 1.300mm ---
G0 X119.499 Y72.722 F1200
G1 X119.623 Y72.824 Z0.000 F1500
G1 X119.761 Y72.971 Z0.000 F1500
G1 X119.899 Y73.146 Z0.000 F1500
G1 X120.024 Y73.330 Z0.000 F1500
G1 X120.122 Y73.506 Z0.000 F1500
G1 X120.180 Y73.654 Z0.000 F1500
G1 X120.186 Y73.757 Z0.000 F1500
; --- FIX X Backlash: -1.300mm ---
G0 X118.886 Y73.757 F1200
G1 X118.817 Y73.851 Z0.000 F1500
G1 X118.669 Y73.994 Z0.000 F1500
G1 X118.463 Y74.165 Z0.000 F1500
G1 X118.222 Y74.346 Z0.000 F1500
G1 X117.960 Y74.535 Z0.000 F1500
G1 X117.699 Y74.729 Z0.000 F1500
G1 X117.468 Y74.905 Z0.000 F1500
G1 X117.298 Y75.040 Z0.000 F1500
G1 X116.984 Y75.301 Z0.000 F1500
; --- FIX X Backlash: 1.300mm ---
G0 X118.284 Y75.301 F1200
G1 X118.598 Y75.717 Z0.000 F1500
G1 X118.723 Y75.879 Z0.000 F1500
G1 X118.833 Y76.012 Z0.000 F1500
G1 X118.914 Y76.102 Z0.000 F1500
G1 X118.957 Y76.136 Z0.000 F1500
G1 X118.980 Y76.125 Z0.000 F1500
G1 X119.028 Y76.094 Z0.000 F1500
; --- FIX Y Backlash: -1.300mm ---
G0 X119.028 Y74.794 F1200
G1 X119.189 Y74.678 Z0.000 F1500
G1 X119.416 Y74.505 Z0.000 F1500
G1 X119.684 Y74.294 Z0.000 F1500
G1 X119.965 Y74.082 Z0.000 F1500
G1 X120.224 Y73.909 Z0.000 F1500
G1 X120.337 Y73.843 Z0.000 F1500
G1 X120.434 Y73.792 Z0.000 F1500
G1 X120.511 Y73.760 Z0.000 F1500
G1 X120.565 Y73.749 Z0.000 F1500
G1 X120.657 Y73.778 Z0.000 F1500
; --- FIX Y Backlash: 1.300mm ---
G0 X120.657 Y75.078 F1200
G1 X120.779 Y75.158 Z0.000 F1500
G1 X120.919 Y75.275 Z0.000 F1500
G1 X121.062 Y75.415 Z0.000 F1500
G1 X121.195 Y75.564 Z0.000 F1500
G1 X121.307 Y75.710 Z0.000 F1500
G1 X121.384 Y75.838 Z0.000 F1500
G1 X121.412 Y75.935 Z0.000 F1500
G1 X121.396 Y75.966 Z0.000 F1500
G1 X121.351 Y76.020 Z0.000 F1500
; --- FIX X Backlash: -1.300mm ---
G0 X120.051 Y76.020 F1200
G1 X119.980 Y76.093 Z0.000 F1500
G1 X119.885 Y76.182 Z0.000 F1500
G1 X119.639 Y76.397 Z0.000 F1500
G1 X119.339 Y76.642 Z0.000 F1500
G1 X119.039 Y76.883 Z0.000 F1500
G1 X118.793 Y77.087 Z0.000 F1500
G1 X118.699 Y77.169 Z0.000 F1500
G1 X118.627 Y77.233 Z0.000 F1500
G1 X118.582 Y77.277 Z0.000 F1500
G1 X118.566 Y77.298 Z0.000 F1500
G1 X118.591 Y77.355 Z0.000 F1500
; --- FIX X Backlash: 1.300mm ---
G0 X119.891 Y77.355 F1200
G1 X119.955 Y77.452 Z0.000 F1500
G1 X120.048 Y77.574 Z0.000 F1500
G1 X120.157 Y77.706 Z0.000 F1500
G1 X120.270 Y77.834 Z0.000 F1500
G1 X120.373 Y77.944 Z0.000 F1500
G1 X120.456 Y78.020 Z0.000 F1500
G1 X120.504 Y78.049 Z0.000 F1500
G1 X120.536 Y78.036 Z0.000 F1500
G1 X120.596 Y77.999 Z0.000 F1500
; --- FIX Y Backlash: -1.300mm ---
G0 X120.596 Y76.699 F1200
G1 X120.681 Y76.640 Z0.000 F1500
G1 X120.788 Y76.562 Z0.000 F1500
G1 X121.052 Y76.360 Z0.000 F1500
G1 X121.360 Y76.112 Z0.000 F1500
G1 X121.690 Y75.855 Z0.000 F1500
G1 X121.979 Y75.654 Z0.000 F1500
G1 X122.100 Y75.579 Z0.000 F1500
G1 X122.204 Y75.524 Z0.000 F1500
G1 X122.286 Y75.489 Z0.000 F1500
G1 X122.344 Y75.478 Z0.000 F1500
G1 X122.441 Y75.505 Z0.000 F1500
; --- FIX Y Backlash: 1.300mm ---
G0 X122.441 Y76.805 F1200
G1 X122.561 Y76.878 Z0.000 F1500
G1 X122.693 Y76.985 Z0.000 F1500
G1 X122.825 Y77.115 Z0.000 F1500
G1 X122.946 Y77.255 Z0.000 F1500
G1 X123.046 Y77.395 Z0.000 F1500
G1 X123.115 Y77.522 Z0.000 F1500
G1 X123.140 Y77.625 Z0.000 F1500
G1 X123.109 Y77.691 Z0.000 F1500
; --- FIX X Backlash: -1.300mm ---
G0 X121.809 Y77.691 F1200
G1 X121.720 Y77.796 Z0.000 F1500
G1 X121.583 Y77.935 Z0.000 F1500
G1 X121.403 Y78.102 Z0.000 F1500
G1 X120.949 Y78.494 Z0.000 F1500
G1 X120.421 Y78.924 Z0.000 F1500
G1 X119.879 Y79.343 Z0.000 F1500
G1 X119.385 Y79.703 Z0.000 F1500
G1 X119.175 Y79.845 Z0.000 F1500
G1 X119.000 Y79.954 Z0.000 F1500
G1 X118.867 Y80.024 Z0.000 F1500
G1 X118.785 Y80.048 Z0.000 F1500
G1 X118.704 Y80.021 Z0.000 F1500
; --- FIX Y Backlash: -1.300mm ---
G0 X118.704 Y78.721 F1200
G1 X118.583 Y78.625 Z0.000 F1500
G0 Z3.5 F1500
G0 X97.058 Y73.222 Z3.500
G1 Z0 F1500
; --- FIX Y Backlash: 1.300mm ---
G0 X97.058 Y74.522 F1200
G1 X96.908 Y74.750 Z0.000 F1500
G1 X96.748 Y74.933 Z0.000 F1500
G1 X96.731 Y74.951 Z0.000 F1500
G1 X96.724 Y74.979 Z0.000 F1500
G1 X96.699 Y75.030 Z0.000 F1500
G1 X96.639 Y75.104 Z0.000 F1500
G1 X96.589 Y75.162 Z0.000 F1500
G1 X96.512 Y75.258 Z0.000 F1500
G1 X96.288 Y75.551 Z0.000 F1500
G1 X95.987 Y75.953 Z0.000 F1500
G1 X95.634 Y76.433 Z0.000 F1500
G1 X95.091 Y77.177 Z0.000 F1500
G1 X94.891 Y77.456 Z0.000 F1500
G1 X94.717 Y77.703 Z0.000 F1500
G1 X94.530 Y77.964 Z0.000 F1500
G1 X94.297 Y78.274 Z0.000 F1500
G1 X94.049 Y78.609 Z0.000 F1500
G1 X93.675 Y79.142 Z0.000 F1500
G1 X93.554 Y79.289 Z0.000 F1500
G1 X93.455 Y79.374 Z0.000 F1500
G1 X93.376 Y79.403 Z0.000 F1500
G1 X93.361 Y79.403 Z0.000 F1500
G1 X93.348 Y79.399 Z0.000 F1500
; --- FIX Y Backlash: -1.300mm ---
G0 X93.348 Y78.099 F1200
G1 X93.073 Y77.962 Z0.000 F1500
G1 X92.767 Y77.766 Z0.000 F1500
G1 X92.669 Y77.695 Z0.000 F1500
G1 X92.616 Y77.666 Z0.000 F1500
G1 X92.412 Y77.509 Z0.000 F1500
G1 X92.179 Y77.292 Z0.000 F1500
G1 X92.141 Y77.214 Z0.000 F1500
G1 X92.127 Y77.110 Z0.000 F1500
G1 X92.145 Y77.003 Z0.000 F1500
; --- FIX X Backlash: 1.300mm ---
G0 X93.445 Y77.003 F1200
G1 X93.528 Y76.849 Z0.000 F1500
G1 X93.606 Y76.736 Z0.000 F1500
G1 X93.714 Y76.587 Z0.000 F1500
G1 X94.337 Y75.768 Z0.000 F1500
G1 X94.811 Y75.129 Z0.000 F1500
G1 X95.337 Y74.435 Z0.000 F1500
G1 X95.615 Y74.063 Z0.000 F1500
G1 X95.883 Y73.711 Z0.000 F1500
G1 X96.131 Y73.398 Z0.000 F1500
G1 X96.352 Y73.124 Z0.000 F1500
G1 X96.560 Y72.860 Z0.000 F1500
G1 X96.741 Y72.623 Z0.000 F1500
G1 X96.881 Y72.430 Z0.000 F1500
G1 X96.986 Y72.296 Z0.000 F1500
G1 X97.069 Y72.213 Z0.000 F1500
G1 X97.135 Y72.171 Z0.000 F1500
G1 X97.209 Y72.182 Z0.000 F1500
G1 X97.269 Y72.218 Z0.000 F1500
; --- FIX Y Backlash: 1.300mm ---
G0 X97.269 Y73.518 F1200
G1 X97.356 Y73.578 Z0.000 F1500
G1 X97.886 Y73.979 Z0.000 F1500
G1 X98.075 Y74.124 Z0.000 F1500
G1 X98.210 Y74.234 Z0.000 F1500
G1 X98.300 Y74.316 Z0.000 F1500
G1 X98.374 Y74.428 Z0.000 F1500
G1 X98.358 Y74.522 Z0.000 F1500
G0 Z3.5 F1500
; --- FIX X Backlash: -1.300mm ---
G0 X97.058 Y74.522 F1200
; --- FIX Y Backlash: -1.300mm ---
G0 X97.058 Y73.222 F1200
G0 X91.775 Y51.198 Z3.500
G1 Z0 F1500
G1 X91.772 Y51.174 Z0.000 F1500
G1 X91.754 Y51.127 Z0.000 F1500
G1 X91.721 Y51.057 Z0.000 F1500
G1 X91.677 Y50.968 Z0.000 F1500
G1 X91.558 Y50.742 Z0.000 F1500
G1 X91.407 Y50.469 Z0.000 F1500
G1 X91.242 Y50.183 Z0.000 F1500
G1 X91.096 Y49.943 Z0.000 F1500
G1 X91.036 Y49.848 Z0.000 F1500
G1 X90.987 Y49.774 Z0.000 F1500
G1 X90.951 Y49.724 Z0.000 F1500
G1 X90.929 Y49.701 Z0.000 F1500
G1 X90.867 Y49.716 Z0.000 F1500
; --- FIX Y Backlash: 1.300mm ---
G0 X90.867 Y51.016 F1200
G1 X90.768 Y51.097 Z0.000 F1500
G1 X90.648 Y51.223 Z0.000 F1500
G1 X90.520 Y51.375 Z0.000 F1500
G1 X90.402 Y51.534 Z0.000 F1500
G1 X90.308 Y51.680 Z0.000 F1500
G1 X90.253 Y51.794 Z0.000 F1500
G1 X90.253 Y51.856 Z0.000 F1500
; --- FIX X Backlash: 1.300mm ---
G0 X91.553 Y51.856 F1200
G1 X92.311 Y52.203 Z0.000 F1500
G1 X93.075 Y52.498 Z0.000 F1500
G0 Z3.5 F1500
; --- FIX Y Backlash: -1.300mm ---
G0 X93.075 Y51.198 F1200
G0 X94.655 Y50.838 Z3.500
G1 Z0 F1500
; --- FIX Y Backlash: 1.300mm ---
G0 X94.655 Y52.138 F1200
G1 X94.843 Y52.502 Z0.000 F1500
G1 X94.986 Y52.788 Z0.000 F1500
G1 X95.079 Y52.985 Z0.000 F1500
G1 X95.104 Y53.046 Z0.000 F1500
G1 X95.115 Y53.080 Z0.000 F1500
G1 X95.085 Y53.208 Z0.000 F1500
; --- FIX X Backlash: -1.300mm ---
G0 X93.785 Y53.208 F1200
G1 X93.682 Y53.391 Z0.000 F1500
G1 X93.526 Y53.608 Z0.000 F1500
G1 X93.337 Y53.836 Z0.000 F1500
G1 X93.136 Y54.052 Z0.000 F1500
G1 X92.940 Y54.234 Z0.000 F1500
G1 X92.772 Y54.360 Z0.000 F1500
G1 X92.649 Y54.408 Z0.000 F1500
G1 X92.594 Y54.400 Z0.000 F1500
G1 X92.502 Y54.378 Z0.000 F1500
G1 X92.378 Y54.344 Z0.000 F1500
G1 X92.227 Y54.299 Z0.000 F1500
; --- FIX Y Backlash: -1.300mm ---
G0 X92.227 Y52.999 F1200
G1 X91.864 Y52.881 Z0.000 F1500
G1 X91.452 Y52.738 Z0.000 F1500
G1 X88.778 Y51.777 Z0.000 F1500
G1 X88.093 Y51.529 Z0.000 F1500
G1 X87.585 Y51.340 Z0.000 F1500
G1 X87.390 Y51.264 Z0.000 F1500
G1 X87.229 Y51.199 Z0.000 F1500
G1 X87.099 Y51.142 Z0.000 F1500
G1 X86.918 Y51.048 Z0.000 F1500
G1 X86.819 Y50.969 Z0.000 F1500
G1 X86.775 Y50.894 Z0.000 F1500
G1 X86.759 Y50.809 Z0.000 F1500
G1 X86.769 Y50.678 Z0.000 F1500
; --- FIX X Backlash: 1.300mm ---
G0 X88.069 Y50.678 F1200
G1 X88.125 Y50.506 Z0.000 F1500
G1 X88.222 Y50.300 Z0.000 F1500
G1 X88.357 Y50.071 Z0.000 F1500
G1 X88.487 Y49.878 Z0.000 F1500
G1 X88.604 Y49.733 Z0.000 F1500
G1 X88.716 Y49.635 Z0.000 F1500
G1 X88.834 Y49.580 Z0.000 F1500
G1 X88.967 Y49.566 Z0.000 F1500
G1 X89.122 Y49.590 Z0.000 F1500
; --- FIX Y Backlash: 1.300mm ---
G0 X89.122 Y50.890 F1200
G1 X89.311 Y50.950 Z0.000 F1500
G1 X89.716 Y51.114 Z0.000 F1500
G1 X89.877 Y51.171 Z0.000 F1500
G1 X90.006 Y51.211 Z0.000 F1500
G1 X90.087 Y51.225 Z0.000 F1500
G1 X90.119 Y51.209 Z0.000 F1500
G1 X90.174 Y51.162 Z0.000 F1500
; --- FIX Y Backlash: -1.300mm ---
G0 X90.174 Y49.862 F1200
G1 X90.248 Y49.790 Z0.000 F1500
G1 X90.338 Y49.696 Z0.000 F1500
G1 X90.551 Y49.458 Z0.000 F1500
G1 X90.786 Y49.181 Z0.000 F1500
G1 X91.017 Y48.899 Z0.000 F1500
G1 X91.215 Y48.643 Z0.000 F1500
G1 X91.293 Y48.535 Z0.000 F1500
G1 X91.353 Y48.446 Z0.000 F1500
G1 X91.392 Y48.380 Z0.000 F1500
G1 X91.406 Y48.341 Z0.000 F1500
G1 X91.384 Y48.287 Z0.000 F1500
; --- FIX X Backlash: -1.300mm ---
G0 X90.084 Y48.287 F1200
G1 X90.025 Y48.176 Z0.000 F1500
G1 X89.939 Y48.024 Z0.000 F1500
G1 X89.833 Y47.848 Z0.000 F1500
G1 X89.727 Y47.658 Z0.000 F1500
G1 X89.641 Y47.471 Z0.000 F1500
G1 X89.584 Y47.306 Z0.000 F1500
G1 X89.564 Y47.187 Z0.000 F1500
G1 X89.595 Y47.068 Z0.000 F1500
; --- FIX X Backlash: 1.300mm ---
G0 X90.895 Y47.068 F1200
G1 X90.977 Y46.908 Z0.000 F1500
G1 X91.099 Y46.726 Z0.000 F1500
G1 X91.250 Y46.539 Z0.000 F1500
G1 X91.370 Y46.404 Z0.000 F1500
G1 X91.476 Y46.289 Z0.000 F1500
G1 X91.572 Y46.198 Z0.000 F1500
G1 X91.662 Y46.135 Z0.000 F1500
G1 X91.749 Y46.103 Z0.000 F1500
G1 X91.837 Y46.103 Z0.000 F1500
G1 X91.930 Y46.146 Z0.000 F1500
; --- FIX Y Backlash: 1.300mm ---
G0 X91.930 Y47.446 F1200
G1 X92.031 Y47.529 Z0.000 F1500
G1 X92.144 Y47.658 Z0.000 F1500
G1 X92.273 Y47.836 Z0.000 F1500
G1 X92.422 Y48.067 Z0.000 F1500
G1 X92.594 Y48.355 Z0.000 F1500
G1 X92.793 Y48.703 Z0.000 F1500
G1 X93.022 Y49.115 Z0.000 F1500
G1 X93.286 Y49.595 Z0.000 F1500
G1 X93.890 Y50.700 Z0.000 F1500
G1 X94.173 Y51.225 Z0.000 F1500
G1 X94.430 Y51.708 Z0.000 F1500
G1 X94.655 Y52.138 Z0.000 F1500
G0 Z3.5 F1500
; --- FIX Y Backlash: -1.300mm ---
G0 X94.655 Y50.838 F1200
G0 X97.488 Y47.969 Z3.500
G1 Z0 F1500
G1 X97.610 Y48.001 Z0.000 F1500
G1 X97.711 Y47.985 Z0.000 F1500
G1 X97.821 Y47.935 Z0.000 F1500
G1 X97.944 Y47.850 Z0.000 F1500
G1 X98.085 Y47.733 Z0.000 F1500
G1 X98.269 Y47.540 Z0.000 F1500
G1 X98.402 Y47.333 Z0.000 F1500
G1 X98.485 Y47.119 Z0.000 F1500
G1 X98.516 Y46.907 Z0.000 F1500
G1 X98.497 Y46.705 Z0.000 F1500
; --- FIX X Backlash: -1.300mm ---
G0 X97.197 Y46.705 F1200
G1 X97.126 Y46.521 Z0.000 F1500
G1 X97.003 Y46.363 Z0.000 F1500
G1 X96.829 Y46.239 Z0.000 F1500
G1 X96.598 Y46.146 Z0.000 F1500
G1 X96.407 Y46.110 Z0.000 F1500
G1 X96.234 Y46.134 Z0.000 F1500
; --- FIX Y Backlash: 1.300mm ---
G0 X96.234 Y47.434 F1200
G1 X96.052 Y47.496 Z0.000 F1500
G1 X95.872 Y47.586 Z0.000 F1500
G1 X95.706 Y47.695 Z0.000 F1500
G1 X95.565 Y47.816 Z0.000 F1500
G1 X95.460 Y47.939 Z0.000 F1500
G1 X95.403 Y48.057 Z0.000 F1500
G1 X95.403 Y48.160 Z0.000 F1500
G1 X95.450 Y48.249 Z0.000 F1500
; --- FIX X Backlash: 1.300mm ---
G0 X96.750 Y48.249 F1200
G1 X96.836 Y48.399 Z0.000 F1500
G1 X96.951 Y48.590 Z0.000 F1500
G1 X97.083 Y48.800 Z0.000 F1500
G1 X97.233 Y49.021 Z0.000 F1500
G1 X97.365 Y49.176 Z0.000 F1500
G1 X97.488 Y49.269 Z0.000 F1500
G0 Z3.5 F1500
G0 X98.719 Y50.234 Z3.500
G1 Z0 F1500
; --- FIX X Backlash: -1.300mm ---
G0 X97.419 Y50.234 F1200
G1 X96.969 Y50.579 Z0.000 F1500
G1 X96.601 Y50.856 Z0.000 F1500
G1 X96.305 Y51.069 Z0.000 F1500
G1 X96.075 Y51.226 Z0.000 F1500
G1 X95.902 Y51.330 Z0.000 F1500
G1 X95.778 Y51.389 Z0.000 F1500
G1 X95.695 Y51.407 Z0.000 F1500
G1 X95.625 Y51.381 Z0.000 F1500
; --- FIX Y Backlash: -1.300mm ---
G0 X95.625 Y50.081 F1200
G1 X95.525 Y49.994 Z0.000 F1500
G1 X95.387 Y49.837 Z0.000 F1500
G1 X95.202 Y49.597 Z0.000 F1500
G1 X95.090 Y49.443 Z0.000 F1500
G1 X94.963 Y49.263 Z0.000 F1500
G1 X94.820 Y49.058 Z0.000 F1500
G1 X94.482 Y48.562 Z0.000 F1500
G1 X94.069 Y47.944 Z0.000 F1500
G1 X93.496 Y47.076 Z0.000 F1500
G1 X93.181 Y46.592 Z0.000 F1500
G1 X92.895 Y46.145 Z0.000 F1500
G1 X92.643 Y45.748 Z0.000 F1500
G1 X92.433 Y45.410 Z0.000 F1500
G1 X92.272 Y45.143 Z0.000 F1500
G1 X92.213 Y45.040 Z0.000 F1500
G1 X92.168 Y44.959 Z0.000 F1500
G1 X92.139 Y44.901 Z0.000 F1500
G1 X92.126 Y44.867 Z0.000 F1500
G1 X92.131 Y44.754 Z0.000 F1500
; --- FIX X Backlash: 1.300mm ---
G0 X93.431 Y44.754 F1200
G1 X93.496 Y44.632 Z0.000 F1500
G1 X93.635 Y44.485 Z0.000 F1500
G1 X93.860 Y44.297 Z0.000 F1500
G1 X94.105 Y44.112 Z0.000 F1500
G1 X94.308 Y43.988 Z0.000 F1500
G1 X94.480 Y43.929 Z0.000 F1500
G1 X94.635 Y43.940 Z0.000 F1500
; --- FIX Y Backlash: 1.300mm ---
G0 X94.635 Y45.240 F1200
G1 X94.785 Y45.323 Z0.000 F1500
G1 X94.944 Y45.484 Z0.000 F1500
G1 X95.124 Y45.725 Z0.000 F1500
G1 X95.338 Y46.052 Z0.000 F1500
G1 X95.473 Y46.261 Z0.000 F1500
G1 X95.592 Y46.441 Z0.000 F1500
G1 X95.698 Y46.590 Z0.000 F1500
G1 X95.790 Y46.707 Z0.000 F1500
G1 X95.869 Y46.792 Z0.000 F1500
G1 X95.938 Y46.845 Z0.000 F1500
G1 X95.996 Y46.863 Z0.000 F1500
G1 X96.045 Y46.847 Z0.000 F1500
; --- FIX Y Backlash: -1.300mm ---
G0 X96.045 Y45.547 F1200
G1 X96.086 Y45.496 Z0.000 F1500
G1 X96.119 Y45.409 Z0.000 F1500
G1 X96.147 Y45.285 Z0.000 F1500
G1 X96.169 Y45.124 Z0.000 F1500
G1 X96.187 Y44.924 Z0.000 F1500
G1 X96.201 Y44.686 Z0.000 F1500
G1 X96.214 Y44.408 Z0.000 F1500
G1 X96.225 Y44.089 Z0.000 F1500
G1 X96.247 Y43.531 Z0.000 F1500
G1 X96.275 Y43.066 Z0.000 F1500
G1 X96.289 Y42.882 Z0.000 F1500
G1 X96.304 Y42.741 Z0.000 F1500
G1 X96.318 Y42.646 Z0.000 F1500
G1 X96.331 Y42.605 Z0.000 F1500
G1 X96.397 Y42.561 Z0.000 F1500
G1 X96.530 Y42.485 Z0.000 F1500
G1 X96.712 Y42.390 Z0.000 F1500
G1 X96.922 Y42.284 Z0.000 F1500
G1 X97.215 Y42.144 Z0.000 F1500
G1 X97.436 Y42.056 Z0.000 F1500
G1 X97.595 Y42.033 Z0.000 F1500
; --- FIX Y Backlash: 1.300mm ---
G0 X97.595 Y43.333 F1200
G1 X97.704 Y43.386 Z0.000 F1500
G1 X97.742 Y43.445 Z0.000 F1500
G1 X97.772 Y43.528 Z0.000 F1500
G1 X97.794 Y43.635 Z0.000 F1500
G1 X97.810 Y43.770 Z0.000 F1500
G1 X97.822 Y43.932 Z0.000 F1500
G1 X97.830 Y44.124 Z0.000 F1500
G1 X97.836 Y44.347 Z0.000 F1500
G1 X97.867 Y45.844 Z0.000 F1500
G1 X98.322 Y45.906 Z0.000 F1500
G1 X98.679 Y45.990 Z0.000 F1500
G1 X99.015 Y46.136 Z0.000 F1500
G1 X99.321 Y46.337 Z0.000 F1500
G1 X99.593 Y46.586 Z0.000 F1500
G1 X99.823 Y46.876 Z0.000 F1500
G1 X100.004 Y47.200 Z0.000 F1500
G1 X100.130 Y47.550 Z0.000 F1500
G1 X100.195 Y47.920 Z0.000 F1500
G1 X100.209 Y48.214 Z0.000 F1500
G1 X100.186 Y48.446 Z0.000 F1500
; --- FIX X Backlash: -1.300mm ---
G0 X98.886 Y48.446 F1200
G1 X98.815 Y48.673 Z0.000 F1500
G1 X98.683 Y48.951 Z0.000 F1500
G1 X98.542 Y49.188 Z0.000 F1500
G1 X98.371 Y49.415 Z0.000 F1500
G1 X98.175 Y49.626 Z0.000 F1500
G1 X97.959 Y49.814 Z0.000 F1500
G1 X97.419 Y50.234 Z0.000 F1500
G0 Z3.5 F1500
; --- FIX X Backlash: 1.300mm ---
G0 X98.719 Y50.234 F1200
; --- FIX Y Backlash: -1.300mm ---
G0 X98.719 Y48.934 F1200
G0 X101.386 Y47.355 Z3.500
G1 Z0 F1500
; --- FIX X Backlash: -1.300mm ---
G0 X100.086 Y47.355 F1200
G1 X100.025 Y47.286 Z0.000 F1500
G1 X99.954 Y47.135 Z0.000 F1500
G1 X99.879 Y46.931 Z0.000 F1500
G1 X99.809 Y46.699 Z0.000 F1500
G1 X99.750 Y46.465 Z0.000 F1500
G1 X99.710 Y46.255 Z0.000 F1500
G1 X99.696 Y46.097 Z0.000 F1500
G1 X99.716 Y46.016 Z0.000 F1500
G1 X99.746 Y45.998 Z0.000 F1500
; --- FIX X Backlash: 1.300mm ---
G0 X101.046 Y45.998 F1200
G1 X101.104 Y45.973 Z0.000 F1500
G1 X101.187 Y45.942 Z0.000 F1500
G1 X101.291 Y45.906 Z0.000 F1500
G1 X101.549 Y45.824 Z0.000 F1500
G1 X101.850 Y45.736 Z0.000 F1500
G1 X102.149 Y45.644 Z0.000 F1500
G1 X102.399 Y45.554 Z0.000 F1500
G1 X102.498 Y45.512 Z0.000 F1500
G1 X102.575 Y45.475 Z0.000 F1500
G1 X102.627 Y45.443 Z0.000 F1500
G1 X102.650 Y45.418 Z0.000 F1500
G1 X102.650 Y45.375 Z0.000 F1500
G1 X102.640 Y45.290 Z0.000 F1500
G1 X102.618 Y45.168 Z0.000 F1500
G1 X102.585 Y45.015 Z0.000 F1500
; --- FIX X Backlash: -1.300mm ---
G0 X101.285 Y45.015 F1200
G1 X101.192 Y44.634 Z0.000 F1500
G1 X101.072 Y44.188 Z0.000 F1500
G1 X100.761 Y43.047 Z0.000 F1500
G1 X100.480 Y41.959 Z0.000 F1500
G1 X100.366 Y41.495 Z0.000 F1500
G1 X100.277 Y41.115 Z0.000 F1500
G1 X100.244 Y40.964 Z0.000 F1500
G1 X100.219 Y40.844 Z0.000 F1500
G1 X100.204 Y40.756 Z0.000 F1500
G1 X100.199 Y40.704 Z0.000 F1500
G1 X100.236 Y40.633 Z0.000 F1500
; --- FIX X Backlash: 1.300mm ---
G0 X101.536 Y40.633 F1200
G1 X101.645 Y40.555 Z0.000 F1500
G1 X101.823 Y40.471 Z0.000 F1500
G1 X102.067 Y40.384 Z0.000 F1500
G1 X102.309 Y40.315 Z0.000 F1500
G1 X102.547 Y40.261 Z0.000 F1500
G1 X102.755 Y40.228 Z0.000 F1500
G1 X102.904 Y40.221 Z0.000 F1500
G1 X103.009 Y40.230 Z0.000 F1500
G1 X103.093 Y40.263 Z0.000 F1500
; --- FIX Y Backlash: 1.300mm ---
G0 X103.093 Y41.563 F1200
G1 X103.169 Y41.657 Z0.000 F1500
G1 X103.249 Y41.847 Z0.000 F1500
G1 X103.295 Y41.991 Z0.000 F1500
G1 X103.346 Y42.172 Z0.000 F1500
G1 X103.405 Y42.395 Z0.000 F1500
G1 X103.473 Y42.666 Z0.000 F1500
G1 X103.642 Y43.366 Z0.000 F1500
G1 X103.866 Y44.309 Z0.000 F1500
G1 X104.049 Y45.072 Z0.000 F1500
G1 X104.205 Y45.706 Z0.000 F1500
G1 X104.317 Y46.147 Z0.000 F1500
G1 X104.352 Y46.273 Z0.000 F1500
G1 X104.370 Y46.327 Z0.000 F1500
G1 X104.421 Y46.343 Z0.000 F1500
G1 X104.529 Y46.337 Z0.000 F1500
G1 X104.677 Y46.310 Z0.000 F1500
G1 X104.850 Y46.265 Z0.000 F1500
; --- FIX Y Backlash: -1.300mm ---
G0 X104.850 Y44.965 F1200
G1 X105.290 Y44.866 Z0.000 F1500
G1 X105.732 Y44.811 Z0.000 F1500
G1 X106.176 Y44.788 Z0.000 F1500
; --- FIX Y Backlash: 1.300mm ---
G0 X106.176 Y46.088 F1200
G1 X106.284 Y46.542 Z0.000 F1500
G1 X106.362 Y46.936 Z0.000 F1500
G1 X106.400 Y47.243 Z0.000 F1500
G1 X106.404 Y47.334 Z0.000 F1500
G1 X106.393 Y47.404 Z0.000 F1500
; --- FIX X Backlash: -1.300mm ---
G0 X105.093 Y47.404 F1200
G1 X105.041 Y47.463 Z0.000 F1500
G1 X104.924 Y47.519 Z0.000 F1500
G1 X104.832 Y47.549 Z0.000 F1500
G1 X104.715 Y47.582 Z0.000 F1500
G1 X104.568 Y47.618 Z0.000 F1500
G1 X104.390 Y47.660 Z0.000 F1500
G1 X103.923 Y47.763 Z0.000 F1500
G1 X103.290 Y47.901 Z0.000 F1500
G1 X102.201 Y48.156 Z0.000 F1500
G1 X101.178 Y48.424 Z0.000 F1500
G1 X100.836 Y48.516 Z0.000 F1500
G1 X100.532 Y48.589 Z0.000 F1500
G1 X100.288 Y48.638 Z0.000 F1500
G1 X100.129 Y48.658 Z0.000 F1500
G1 X100.103 Y48.658 Z0.000 F1500
G1 X100.086 Y48.655 Z0.000 F1500

; Color picking sequence
G1 Z10 F1500;         ; Raise brush to safe height
; --- FIX Y Backlash: -1.300mm ---
G0 X100.086 Y47.355 F1200
G0 X39.700 Y3.700
G1 Z0 F1500;         ; Lower into color - controlled movement
; --- FIX Y Backlash: 1.300mm ---
G0 X39.700 Y5.000 F1200
G1 X38.802 Y7.295 Z0.000 F1500
G1 X38.726 Y7.642 Z0.000 F1500
G1 X38.700 Y8.000 Z0.000 F1500
G1 X38.726 Y8.358 Z0.000 F1500
; --- FIX X Backlash: 1.300mm ---
G0 X40.026 Y8.358 F1200
G1 X40.102 Y8.705 Z0.000 F1500
G1 X40.225 Y9.041 Z0.000 F1500
G1 X40.393 Y9.362 Z0.000 F1500
G1 X40.603 Y9.668 Z0.000 F1500
G1 X40.854 Y9.957 Z0.000 F1500
G1 X41.142 Y10.226 Z0.000 F1500
G1 X41.464 Y10.475 Z0.000 F1500
G1 X41.820 Y10.701 Z0.000 F1500
G1 X42.204 Y10.902 Z0.000 F1500
G1 X42.617 Y11.078 Z0.000 F1500
G1 X43.054 Y11.225 Z0.000 F1500
G1 X43.513 Y11.343 Z0.000 F1500
G1 X43.992 Y11.429 Z0.000 F1500
G1 X44.489 Y11.482 Z0.000 F1500
G1 X45.000 Y11.500 Z0.000 F1500
G1 X45.511 Y11.482 Z0.000 F1500
; --- FIX Y Backlash: -1.300mm ---
G0 X45.511 Y10.182 F1200
G1 X46.008 Y10.129 Z0.000 F1500
G1 X46.487 Y10.043 Z0.000 F1500
G1 X46.946 Y9.925 Z0.000 F1500
G1 X47.383 Y9.778 Z0.000 F1500
G1 X47.796 Y9.602 Z0.000 F1500
G1 X48.180 Y9.401 Z0.000 F1500
G1 X48.536 Y9.175 Z0.000 F1500
G1 X48.858 Y8.926 Z0.000 F1500
G1 X49.146 Y8.657 Z0.000 F1500
G1 X49.397 Y8.368 Z0.000 F1500
G1 X49.607 Y8.062 Z0.000 F1500
G1 X49.775 Y7.741 Z0.000 F1500
G1 X49.898 Y7.405 Z0.000 F1500
G1 X49.974 Y7.058 Z0.000 F1500
G1 X50.000 Y6.700 Z0.000 F1500
G1 X49.974 Y6.342 Z0.000 F1500
; --- FIX X Backlash: -1.300mm ---
G0 X48.674 Y6.342 F1200
G1 X48.598 Y5.995 Z0.000 F1500
G1 X48.475 Y5.659 Z0.000 F1500
G1 X48.307 Y5.338 Z0.000 F1500
G1 X48.097 Y5.032 Z0.000 F1500
G1 X47.846 Y4.743 Z0.000 F1500
G1 X47.558 Y4.474 Z0.000 F1500
G1 X47.236 Y4.225 Z0.000 F1500
G1 X46.880 Y3.999 Z0.000 F1500
G1 X46.496 Y3.798 Z0.000 F1500
G1 X46.083 Y3.622 Z0.000 F1500
G1 X45.646 Y3.475 Z0.000 F1500
G1 X45.187 Y3.357 Z0.000 F1500
G1 X44.708 Y3.271 Z0.000 F1500
G1 X44.211 Y3.218 Z0.000 F1500
G1 X43.700 Y3.200 Z0.000 F1500
G1 X43.189 Y3.218 Z0.000 F1500
; --- FIX Y Backlash: 1.300mm ---
G0 X43.189 Y4.518 F1200
G1 X42.692 Y4.571 Z0.000 F1500
G1 X42.213 Y4.657 Z0.000 F1500
G1 X41.754 Y4.775 Z0.000 F1500
G1 X41.317 Y4.922 Z0.000 F1500
G1 X40.904 Y5.098 Z0.000 F1500
G1 X40.520 Y5.299 Z0.000 F1500
G1 X40.164 Y5.525 Z0.000 F1500
G1 X39.842 Y5.774 Z0.000 F1500
G1 X39.554 Y6.043 Z0.000 F1500
G1 X39.303 Y6.332 Z0.000 F1500
G1 X39.093 Y6.638 Z0.000 F1500
G1 X38.925 Y6.959 Z0.000 F1500
G1 Z7 F1500;         ; Raise from color - controlled movement
G1 X32.700 Y8.000 Z1.000 F1500
G1 X22.700 Y18.000 Z8.000 F1500
G1 F1500;           ; Set feed rate to 1000
G0 Z3.5 F1500
; --- FIX X Backlash: 1.300mm ---
G0 X24.000 Y18.000 F1200
G0 X107.746 Y47.415 Z3.500
G1 Z0 F1500
G1 X107.738 Y47.389 Z0.000 F1500
; --- FIX Y Backlash: -1.300mm ---
G0 X107.738 Y46.089 F1200
G1 X107.731 Y46.029 Z0.000 F1500
G1 X107.726 Y45.938 Z0.000 F1500
G1 X107.722 Y45.819 Z0.000 F1500
G1 X107.722 Y45.503 Z0.000 F1500
G1 X107.722 Y45.100 Z0.000 F1500
G1 X107.732 Y44.625 Z0.000 F1500
G1 X107.745 Y44.098 Z0.000 F1500
G1 X107.762 Y43.535 Z0.000 F1500
G1 X107.782 Y42.954 Z0.000 F1500
G1 X107.804 Y42.372 Z0.000 F1500
G1 X107.828 Y41.808 Z0.000 F1500
G1 X107.854 Y41.278 Z0.000 F1500
G1 X107.880 Y40.800 Z0.000 F1500
G1 X107.906 Y40.393 Z0.000 F1500
G1 X107.931 Y40.072 Z0.000 F1500
G1 X107.943 Y39.950 Z0.000 F1500
G1 X107.955 Y39.857 Z0.000 F1500
G1 X107.966 Y39.794 Z0.000 F1500
G1 X107.977 Y39.764 Z0.000 F1500
G1 X108.037 Y39.723 Z0.000 F1500
G1 X108.138 Y39.691 Z0.000 F1500
G1 X108.275 Y39.668 Z0.000 F1500
G1 X108.440 Y39.656 Z0.000 F1500
G1 X108.830 Y39.661 Z0.000 F1500
G1 X109.253 Y39.709 Z0.000 F1500
; --- FIX Y Backlash: 1.300mm ---
G0 X109.253 Y41.009 F1200
G1 X109.597 Y41.066 Z0.000 F1500
; --- FIX X Backlash: -1.300mm ---
G0 X108.297 Y41.066 F1200
G1 X108.236 Y43.840 Z0.000 F1500
G1 X108.213 Y44.727 Z0.000 F1500
G1 X108.191 Y45.491 Z0.000 F1500
G1 X108.168 Y46.130 Z0.000 F1500
G1 X108.146 Y46.646 Z0.000 F1500
G1 X108.123 Y47.038 Z0.000 F1500
G1 X108.112 Y47.187 Z0.000 F1500
G1 X108.101 Y47.306 Z0.000 F1500
G1 X108.090 Y47.395 Z0.000 F1500
G1 X108.078 Y47.452 Z0.000 F1500
G1 X108.067 Y47.479 Z0.000 F1500
G1 X107.980 Y47.500 Z0.000 F1500
G1 X107.794 Y47.510 Z0.000 F1500
G1 X107.403 Y47.510 Z0.000 F1500
G1 X106.974 Y47.488 Z0.000 F1500
G1 X106.781 Y47.474 Z0.000 F1500
G1 X106.619 Y47.456 Z0.000 F1500
G1 X106.503 Y47.437 Z0.000 F1500
G1 X106.446 Y47.415 Z0.000 F1500
G0 Z3.5 F1500
; --- FIX X Backlash: 1.300mm ---
G0 X107.746 Y47.415 F1200
; --- FIX Y Backlash: -1.300mm ---
G0 X107.746 Y46.115 F1200
G0 X111.302 Y45.540 Z3.500
G1 Z0 F1500
; --- FIX X Backlash: -1.300mm ---
G0 X110.002 Y45.540 F1200
G1 X109.939 Y45.298 Z0.000 F1500
G1 X109.909 Y45.051 Z0.000 F1500
G1 X109.912 Y44.803 Z0.000 F1500
G1 X109.949 Y44.555 Z0.000 F1500
; --- FIX X Backlash: 1.300mm ---
G0 X111.249 Y44.555 F1200
G1 X111.322 Y44.313 Z0.000 F1500
G1 X111.431 Y44.077 Z0.000 F1500
G1 X111.578 Y43.852 Z0.000 F1500
G1 X111.762 Y43.641 Z0.000 F1500
G1 X111.914 Y43.503 Z0.000 F1500
G1 X112.072 Y43.388 Z0.000 F1500
G1 X112.246 Y43.295 Z0.000 F1500
G1 X112.444 Y43.219 Z0.000 F1500
G1 X112.674 Y43.159 Z0.000 F1500
G1 X112.944 Y43.112 Z0.000 F1500
G1 X113.262 Y43.075 Z0.000 F1500
G1 X113.974 Y43.019 Z0.000 F1500
G1 X114.246 Y42.983 Z0.000 F1500
G1 X114.460 Y42.936 Z0.000 F1500
G1 X114.622 Y42.875 Z0.000 F1500
G1 X114.737 Y42.796 Z0.000 F1500
G1 X114.812 Y42.696 Z0.000 F1500
G1 X114.853 Y42.573 Z0.000 F1500
G1 X114.865 Y42.423 Z0.000 F1500
G1 X114.853 Y42.266 Z0.000 F1500
G1 X114.814 Y42.144 Z0.000 F1500
; --- FIX X Backlash: -1.300mm ---
G0 X113.514 Y42.144 F1200
G1 X113.442 Y42.044 Z0.000 F1500
G1 X113.329 Y41.955 Z0.000 F1500
G1 X113.184 Y41.880 Z0.000 F1500
G1 X113.008 Y41.823 Z0.000 F1500
G1 X112.810 Y41.783 Z0.000 F1500
G1 X112.598 Y41.762 Z0.000 F1500
G1 X112.172 Y41.775 Z0.000 F1500
; --- FIX Y Backlash: 1.300mm ---
G0 X112.172 Y43.075 F1200
G1 X111.801 Y43.168 Z0.000 F1500
G1 X111.655 Y43.225 Z0.000 F1500
G1 X111.516 Y43.271 Z0.000 F1500
G1 X111.399 Y43.303 Z0.000 F1500
G1 X111.321 Y43.314 Z0.000 F1500
G1 X111.256 Y43.275 Z0.000 F1500
; --- FIX Y Backlash: -1.300mm ---
G0 X111.256 Y41.975 F1200
G1 X111.172 Y41.870 Z0.000 F1500
G1 X111.078 Y41.717 Z0.000 F1500
G1 X110.981 Y41.532 Z0.000 F1500
G1 X110.891 Y41.334 Z0.000 F1500
G1 X110.816 Y41.139 Z0.000 F1500
G1 X110.765 Y40.966 Z0.000 F1500
G1 X110.746 Y40.833 Z0.000 F1500
G1 X110.786 Y40.703 Z0.000 F1500
; --- FIX X Backlash: 1.300mm ---
G0 X112.086 Y40.703 F1200
G1 X112.204 Y40.584 Z0.000 F1500
G1 X112.402 Y40.473 Z0.000 F1500
G1 X112.678 Y40.373 Z0.000 F1500
G1 X112.883 Y40.328 Z0.000 F1500
G1 X113.136 Y40.301 Z0.000 F1500
G1 X113.420 Y40.290 Z0.000 F1500
G1 X113.722 Y40.296 Z0.000 F1500
G1 X114.029 Y40.318 Z0.000 F1500
G1 X114.324 Y40.355 Z0.000 F1500
; --- FIX Y Backlash: 1.300mm ---
G0 X114.324 Y41.655 F1200
G1 X114.596 Y41.706 Z0.000 F1500
G1 X114.828 Y41.771 Z0.000 F1500
G1 X115.237 Y41.931 Z0.000 F1500
G1 X115.585 Y42.109 Z0.000 F1500
G1 X115.875 Y42.308 Z0.000 F1500
G1 X116.112 Y42.533 Z0.000 F1500
G1 X116.296 Y42.787 Z0.000 F1500
G1 X116.432 Y43.072 Z0.000 F1500
G1 X116.523 Y43.392 Z0.000 F1500
G1 X116.570 Y43.751 Z0.000 F1500
G1 X116.578 Y44.007 Z0.000 F1500
G1 X116.564 Y44.243 Z0.000 F1500
G1 X116.526 Y44.461 Z0.000 F1500
; --- FIX X Backlash: -1.300mm ---
G0 X115.226 Y44.461 F1200
G1 X115.164 Y44.662 Z0.000 F1500
G1 X115.077 Y44.849 Z0.000 F1500
G1 X114.965 Y45.023 Z0.000 F1500
G1 X114.827 Y45.187 Z0.000 F1500
G1 X114.663 Y45.341 Z0.000 F1500
G1 X114.373 Y45.541 Z0.000 F1500
G1 X114.022 Y45.677 Z0.000 F1500
G1 X113.798 Y45.728 Z0.000 F1500
G1 X113.529 Y45.771 Z0.000 F1500
G1 X113.206 Y45.809 Z0.000 F1500
G1 X112.470 Y45.876 Z0.000 F1500
G1 X112.189 Y45.912 Z0.000 F1500
G1 X111.970 Y45.955 Z0.000 F1500
G1 X111.806 Y46.007 Z0.000 F1500
G1 X111.691 Y46.071 Z0.000 F1500
G1 X111.616 Y46.151 Z0.000 F1500
G1 X111.576 Y46.247 Z0.000 F1500
G1 X111.565 Y46.365 Z0.000 F1500
G1 X111.597 Y46.532 Z0.000 F1500
; --- FIX X Backlash: 1.300mm ---
G0 X112.897 Y46.532 F1200
G1 X112.986 Y46.680 Z0.000 F1500
G1 X113.126 Y46.805 Z0.000 F1500
G1 X113.306 Y46.904 Z0.000 F1500
G1 X113.518 Y46.973 Z0.000 F1500
G1 X113.754 Y47.009 Z0.000 F1500
G1 X114.005 Y47.009 Z0.000 F1500
G1 X114.262 Y46.964 Z0.000 F1500
G1 X114.432 Y46.924 Z0.000 F1500
G1 X114.592 Y46.891 Z0.000 F1500
G1 X114.723 Y46.869 Z0.000 F1500
G1 X114.808 Y46.860 Z0.000 F1500
G1 X114.868 Y46.898 Z0.000 F1500
G1 X114.943 Y46.998 Z0.000 F1500
G1 X115.028 Y47.145 Z0.000 F1500
G1 X115.113 Y47.323 Z0.000 F1500
G1 X115.192 Y47.514 Z0.000 F1500
G1 X115.258 Y47.702 Z0.000 F1500
G1 X115.303 Y47.872 Z0.000 F1500
G1 X115.320 Y48.005 Z0.000 F1500
G1 X115.294 Y48.090 Z0.000 F1500
; --- FIX X Backlash: -1.300mm ---
G0 X113.994 Y48.090 F1200
G1 X113.919 Y48.166 Z0.000 F1500
G1 X113.802 Y48.232 Z0.000 F1500
G1 X113.647 Y48.289 Z0.000 F1500
G1 X113.249 Y48.369 Z0.000 F1500
G1 X112.768 Y48.401 Z0.000 F1500
G1 X112.460 Y48.396 Z0.000 F1500
G1 X112.148 Y48.371 Z0.000 F1500
G1 X111.842 Y48.326 Z0.000 F1500
; --- FIX Y Backlash: -1.300mm ---
G0 X111.842 Y47.026 F1200
G1 X111.551 Y46.959 Z0.000 F1500
G1 X111.265 Y46.860 Z0.000 F1500
G1 X111.003 Y46.733 Z0.000 F1500
G1 X110.766 Y46.580 Z0.000 F1500
G1 X110.556 Y46.405 Z0.000 F1500
G1 X110.374 Y46.210 Z0.000 F1500
G1 X110.220 Y46.000 Z0.000 F1500
G1 X110.096 Y45.775 Z0.000 F1500
G1 X110.002 Y45.540 Z0.000 F1500
G0 Z3.5 F1500
; --- FIX X Backlash: 1.300mm ---
G0 X111.302 Y45.540 F1200
; --- FIX Y Backlash: 1.300mm ---
G0 X111.302 Y46.840 F1200
G0 X116.320 Y48.127 Z3.500
G1 Z0 F1500
; --- FIX Y Backlash: -1.300mm ---
G0 X116.320 Y46.827 F1200
G1 X116.429 Y46.690 Z0.000 F1500
G1 X116.541 Y46.606 Z0.000 F1500
G1 X116.665 Y46.575 Z0.000 F1500
G1 X116.809 Y46.596 Z0.000 F1500
; --- FIX Y Backlash: 1.300mm ---
G0 X116.809 Y47.896 F1200
G1 X116.984 Y47.968 Z0.000 F1500
G1 X117.197 Y48.092 Z0.000 F1500
G1 X117.457 Y48.266 Z0.000 F1500
G1 X118.037 Y48.672 Z0.000 F1500
; --- FIX Y Backlash: -1.300mm ---
G0 X118.037 Y47.372 F1200
G1 X118.426 Y46.832 Z0.000 F1500
G1 X118.665 Y46.486 Z0.000 F1500
G1 X119.152 Y45.770 Z0.000 F1500
G1 X119.854 Y44.725 Z0.000 F1500
G1 X120.171 Y44.256 Z0.000 F1500
G1 X120.424 Y43.889 Z0.000 F1500
G1 X120.577 Y43.674 Z0.000 F1500
G1 X120.676 Y43.559 Z0.000 F1500
G1 X120.784 Y43.465 Z0.000 F1500
G1 X120.887 Y43.401 Z0.000 F1500
G1 X120.973 Y43.378 Z0.000 F1500
G1 X121.098 Y43.409 Z0.000 F1500
; --- FIX Y Backlash: 1.300mm ---
G0 X121.098 Y44.709 F1200
G1 X121.274 Y44.791 Z0.000 F1500
G1 X121.480 Y44.910 Z0.000 F1500
G1 X121.695 Y45.052 Z0.000 F1500
G1 X121.898 Y45.202 Z0.000 F1500
G1 X122.069 Y45.345 Z0.000 F1500
G1 X122.186 Y45.468 Z0.000 F1500
G1 X122.230 Y45.555 Z0.000 F1500
G1 X122.210 Y45.637 Z0.000 F1500
; --- FIX X Backlash: -1.300mm ---
G0 X120.910 Y45.637 F1200
G1 X120.855 Y45.753 Z0.000 F1500
G1 X120.774 Y45.889 Z0.000 F1500
G1 X120.675 Y46.029 Z0.000 F1500
G1 X120.601 Y46.129 Z0.000 F1500
G1 X120.488 Y46.288 Z0.000 F1500
G1 X120.169 Y46.748 Z0.000 F1500
G1 X119.762 Y47.345 Z0.000 F1500
G1 X119.313 Y48.013 Z0.000 F1500
G1 X118.207 Y49.665 Z0.000 F1500
; --- FIX X Backlash: 1.300mm ---
G0 X119.507 Y49.665 F1200
G1 X120.141 Y50.135 Z0.000 F1500
G1 X120.387 Y50.328 Z0.000 F1500
G1 X120.589 Y50.506 Z0.000 F1500
G1 X120.667 Y50.583 Z0.000 F1500
G1 X120.725 Y50.648 Z0.000 F1500
G1 X120.763 Y50.700 Z0.000 F1500
G1 X120.776 Y50.736 Z0.000 F1500
G1 X120.747 Y50.848 Z0.000 F1500
; --- FIX X Backlash: -1.300mm ---
G0 X119.447 Y50.848 F1200
G1 X119.369 Y50.997 Z0.000 F1500
G1 X119.255 Y51.167 Z0.000 F1500
G1 X119.119 Y51.342 Z0.000 F1500
G1 X118.974 Y51.505 Z0.000 F1500
G1 X118.832 Y51.642 Z0.000 F1500
G1 X118.708 Y51.736 Z0.000 F1500
G1 X118.615 Y51.771 Z0.000 F1500
G1 X118.560 Y51.757 Z0.000 F1500
G1 X118.475 Y51.720 Z0.000 F1500
; --- FIX Y Backlash: -1.300mm ---
G0 X118.475 Y50.420 F1200
G1 X118.363 Y50.360 Z0.000 F1500
G1 X118.230 Y50.282 Z0.000 F1500
G1 X117.916 Y50.077 Z0.000 F1500
G1 X117.566 Y49.827 Z0.000 F1500
G1 X116.655 Y49.170 Z0.000 F1500
G1 X115.679 Y48.492 Z0.000 F1500
G1 X115.442 Y48.329 Z0.000 F1500
G1 X115.235 Y48.181 Z0.000 F1500
G1 X115.059 Y48.049 Z0.000 F1500
G1 X114.915 Y47.934 Z0.000 F1500
G1 X114.802 Y47.834 Z0.000 F1500
G1 X114.721 Y47.751 Z0.000 F1500
G1 X114.673 Y47.685 Z0.000 F1500
G1 X114.656 Y47.635 Z0.000 F1500
G1 X114.676 Y47.535 Z0.000 F1500
; --- FIX X Backlash: 1.300mm ---
G0 X115.976 Y47.535 F1200
G1 X116.030 Y47.385 Z0.000 F1500
G1 X116.109 Y47.206 Z0.000 F1500
G1 X116.206 Y47.017 Z0.000 F1500
G1 X116.320 Y46.827 Z0.000 F1500
G0 Z3.5 F1500
; --- FIX Y Backlash: 1.300mm ---
G0 X116.320 Y48.127 F1200
G0 X121.656 Y51.106 Z3.500
G1 Z0 F1500
; --- FIX Y Backlash: -1.300mm ---
G0 X121.656 Y49.806 F1200
G1 X121.878 Y49.635 Z0.000 F1500
G1 X122.117 Y49.498 Z0.000 F1500
G1 X122.368 Y49.396 Z0.000 F1500
G1 X122.623 Y49.333 Z0.000 F1500
G1 X122.879 Y49.311 Z0.000 F1500
G1 X123.130 Y49.333 Z0.000 F1500
G1 X123.213 Y49.354 Z0.000 F1500
G1 X123.323 Y49.391 Z0.000 F1500
; --- FIX Y Backlash: 1.300mm ---
G0 X123.323 Y50.691 F1200
G1 X123.456 Y50.743 Z0.000 F1500
G1 X123.607 Y50.807 Z0.000 F1500
G1 X123.943 Y50.962 Z0.000 F1500
G1 X124.293 Y51.141 Z0.000 F1500
G1 X124.598 Y51.299 Z0.000 F1500
G1 X124.855 Y51.420 Z0.000 F1500
G1 X125.071 Y51.506 Z0.000 F1500
G1 X125.251 Y51.558 Z0.000 F1500
G1 X125.401 Y51.577 Z0.000 F1500
G1 X125.526 Y51.563 Z0.000 F1500
G1 X125.632 Y51.519 Z0.000 F1500
; --- FIX Y Backlash: -1.300mm ---
G0 X125.632 Y50.219 F1200
G1 X125.725 Y50.146 Z0.000 F1500
G1 X125.805 Y50.042 Z0.000 F1500
G1 X125.853 Y49.928 Z0.000 F1500
G1 X125.870 Y49.806 Z0.000 F1500
G1 X125.858 Y49.678 Z0.000 F1500
; --- FIX X Backlash: -1.300mm ---
G0 X124.558 Y49.678 F1200
G1 X124.456 Y49.415 Z0.000 F1500
G1 X124.266 Y49.159 Z0.000 F1500
G1 X124.004 Y48.926 Z0.000 F1500
G1 X123.687 Y48.737 Z0.000 F1500
G1 X123.333 Y48.609 Z0.000 F1500
G1 X122.959 Y48.562 Z0.000 F1500
G1 X122.799 Y48.530 Z0.000 F1500
G1 X122.694 Y48.454 Z0.000 F1500
G1 X122.665 Y48.358 Z0.000 F1500
G1 X122.649 Y48.201 Z0.000 F1500
G1 X122.645 Y48.003 Z0.000 F1500
G1 X122.653 Y47.784 Z0.000 F1500
G1 X122.670 Y47.567 Z0.000 F1500
G1 X122.695 Y47.371 Z0.000 F1500
G1 X122.728 Y47.219 Z0.000 F1500
G1 X122.767 Y47.129 Z0.000 F1500
; --- FIX X Backlash: 1.300mm ---
G0 X124.067 Y47.129 F1200
G1 X124.171 Y47.048 Z0.000 F1500
G1 X124.325 Y47.023 Z0.000 F1500
G1 X124.433 Y47.032 Z0.000 F1500
G1 X124.568 Y47.055 Z0.000 F1500
G1 X124.734 Y47.093 Z0.000 F1500
; --- FIX Y Backlash: 1.300mm ---
G0 X124.734 Y48.393 F1200
G1 X124.937 Y48.445 Z0.000 F1500
G1 X125.422 Y48.612 Z0.000 F1500
G1 X125.864 Y48.847 Z0.000 F1500
G1 X126.278 Y49.160 Z0.000 F1500
G1 X126.678 Y49.561 Z0.000 F1500
G1 X127.011 Y49.986 Z0.000 F1500
G1 X127.256 Y50.412 Z0.000 F1500
G1 X127.413 Y50.836 Z0.000 F1500
G1 X127.480 Y51.252 Z0.000 F1500
G1 X127.459 Y51.656 Z0.000 F1500
; --- FIX X Backlash: -1.300mm ---
G0 X126.159 Y51.656 F1200
G1 X126.049 Y52.043 Z0.000 F1500
G1 X125.849 Y52.410 Z0.000 F1500
G1 X125.559 Y52.751 Z0.000 F1500
G1 X125.223 Y53.004 Z0.000 F1500
G1 X124.823 Y53.183 Z0.000 F1500
G1 X124.612 Y53.241 Z0.000 F1500
G1 X124.401 Y53.276 Z0.000 F1500
G1 X124.195 Y53.285 Z0.000 F1500
G1 X124.000 Y53.267 Z0.000 F1500
G1 X123.906 Y53.245 Z0.000 F1500
G1 X123.785 Y53.207 Z0.000 F1500
; --- FIX Y Backlash: -1.300mm ---
G0 X123.785 Y51.907 F1200
G1 X123.642 Y51.855 Z0.000 F1500
G1 X123.482 Y51.791 Z0.000 F1500
G1 X123.131 Y51.637 Z0.000 F1500
G1 X122.427 Y51.287 Z0.000 F1500
G1 X122.111 Y51.146 Z0.000 F1500
G1 X121.974 Y51.092 Z0.000 F1500
G1 X121.858 Y51.051 Z0.000 F1500
G1 X121.767 Y51.025 Z0.000 F1500
G1 X121.705 Y51.016 Z0.000 F1500
G1 X121.541 Y51.056 Z0.000 F1500
; --- FIX Y Backlash: 1.300mm ---
G0 X121.541 Y52.356 F1200
G1 X121.411 Y52.468 Z0.000 F1500
G1 X121.325 Y52.638 Z0.000 F1500
G1 X121.294 Y52.853 Z0.000 F1500
G1 X121.318 Y52.962 Z0.000 F1500
; --- FIX X Backlash: 1.300mm ---
G0 X122.618 Y52.962 F1200
G1 X122.685 Y53.086 Z0.000 F1500
G1 X122.787 Y53.218 Z0.000 F1500
G1 X122.919 Y53.352 Z0.000 F1500
G1 X123.243 Y53.601 Z0.000 F1500
G1 X123.599 Y53.781 Z0.000 F1500
G1 X124.003 Y53.928 Z0.000 F1500
G1 X123.979 Y54.372 Z0.000 F1500
G1 X123.963 Y54.634 Z0.000 F1500
G1 X123.943 Y54.837 Z0.000 F1500
G1 X123.917 Y54.987 Z0.000 F1500
G1 X123.880 Y55.093 Z0.000 F1500
; --- FIX X Backlash: -1.300mm ---
G0 X122.580 Y55.093 F1200
G1 X122.527 Y55.163 Z0.000 F1500
G1 X122.457 Y55.203 Z0.000 F1500
G1 X122.364 Y55.221 Z0.000 F1500
G1 X122.244 Y55.226 Z0.000 F1500
G1 X121.963 Y55.188 Z0.000 F1500
; --- FIX Y Backlash: -1.300mm ---
G0 X121.963 Y53.888 F1200
G1 X121.652 Y53.781 Z0.000 F1500
G1 X121.327 Y53.615 Z0.000 F1500
G1 X121.002 Y53.400 Z0.000 F1500
G1 X120.691 Y53.148 Z0.000 F1500
G1 X120.408 Y52.869 Z0.000 F1500
G1 X120.167 Y52.573 Z0.000 F1500
G1 X119.983 Y52.270 Z0.000 F1500
G1 X119.874 Y52.012 Z0.000 F1500
G1 X119.796 Y51.743 Z0.000 F1500
G1 X119.750 Y51.468 Z0.000 F1500
G1 X119.734 Y51.195 Z0.000 F1500
G1 X119.750 Y50.928 Z0.000 F1500
G1 X119.796 Y50.676 Z0.000 F1500
; --- FIX X Backlash: 1.300mm ---
G0 X121.096 Y50.676 F1200
G1 X121.174 Y50.442 Z0.000 F1500
G1 X121.284 Y50.235 Z0.000 F1500
G1 X121.456 Y50.006 Z0.000 F1500
G1 X121.656 Y49.806 Z0.000 F1500
;Offset @ 1500 mm/min, 80% power

M8

; Washing sequence (no color)
G1 Z10 F1500;        ; Raise brush to safe height
; --- FIX X Backlash: -1.300mm ---
G0 X120.356 Y49.806 F1200
G0 X3.700 Y3.700
G1 Z-1 F1500;         ; Lower brush for cleaning - controlled movement
; --- FIX X Backlash: 1.300mm ---
G0 X5.000 Y3.700 F1200
; --- FIX Y Backlash: 1.300mm ---
G0 X5.000 Y5.000 F1200
G1 X10.000 Y12.000 Z8.000 F1500
G1 Z-1 F1500;         ; Lower brush for cleaning - controlled movement
G1 X25.000 Y14.000 Z6.000 F1500
G1 Z8 F1500;         ; Maintain brush height - controlled movement
; --- FIX X Backlash: -1.300mm ---
G0 X23.700 Y14.000 F1200
; --- FIX Y Backlash: -1.300mm ---
G0 X23.700 Y12.700 F1200
G0 X3.700 Y3.700
G1 Z-1 F1500;         ; Lower brush for cleaning - controlled movement
; --- FIX X Backlash: 1.300mm ---
G0 X5.000 Y3.700 F1200
; --- FIX Y Backlash: 1.300mm ---
G0 X5.000 Y5.000 F1200
G1 X15.000 Y12.000 Z8.000 F1500
G1 Z-1 F1500;         ; Lower brush for cleaning - controlled movement
G1 X25.000 Y14.000 Z6.000 F1500
G1 Z10 F1500;         ; Maintain brush height - controlled movement
G1 F1500;           ; Set feed rate to 1000

; Color picking sequence
G1 Z10 F1500;         ; Raise brush to safe height
; --- FIX Y Backlash: -1.300mm ---
G0 X25.000 Y12.700 F1200
G0 X131.000 Y3.700
G1 Z0 F1500;         ; Lower into color - controlled movement
; --- FIX X Backlash: -1.300mm ---
G0 X129.700 Y3.700 F1200
; --- FIX Y Backlash: 1.300mm ---
G0 X129.700 Y5.000 F1200
G1 X128.802 Y7.295 Z0.000 F1500
G1 X128.726 Y7.642 Z0.000 F1500
G1 X128.700 Y8.000 Z0.000 F1500
G1 X128.726 Y8.358 Z0.000 F1500
; --- FIX X Backlash: 1.300mm ---
G0 X130.026 Y8.358 F1200
G1 X130.102 Y8.705 Z0.000 F1500
G1 X130.225 Y9.041 Z0.000 F1500
G1 X130.393 Y9.362 Z0.000 F1500
G1 X130.603 Y9.668 Z0.000 F1500
G1 X130.854 Y9.957 Z0.000 F1500
G1 X131.142 Y10.226 Z0.000 F1500
G1 X131.464 Y10.475 Z0.000 F1500
G1 X131.820 Y10.701 Z0.000 F1500
G1 X132.204 Y10.902 Z0.000 F1500
G1 X132.617 Y11.078 Z0.000 F1500
G1 X133.054 Y11.225 Z0.000 F1500
G1 X133.513 Y11.343 Z0.000 F1500
G1 X133.992 Y11.429 Z0.000 F1500
G1 X134.489 Y11.482 Z0.000 F1500
G1 X135.000 Y11.500 Z0.000 F1500
G1 X135.511 Y11.482 Z0.000 F1500
; --- FIX Y Backlash: -1.300mm ---
G0 X135.511 Y10.182 F1200
G1 X136.008 Y10.129 Z0.000 F1500
G1 X136.487 Y10.043 Z0.000 F1500
G1 X136.946 Y9.925 Z0.000 F1500
G1 X137.383 Y9.778 Z0.000 F1500
G1 X137.796 Y9.602 Z0.000 F1500
G1 X138.180 Y9.401 Z0.000 F1500
G1 X138.536 Y9.175 Z0.000 F1500
G1 X138.858 Y8.926 Z0.000 F1500
G1 X139.146 Y8.657 Z0.000 F1500
G1 X139.397 Y8.368 Z0.000 F1500
G1 X139.607 Y8.062 Z0.000 F1500
G1 X139.775 Y7.741 Z0.000 F1500
G1 X139.898 Y7.405 Z0.000 F1500
G1 X139.974 Y7.058 Z0.000 F1500
G1 X140.000 Y6.700 Z0.000 F1500
G1 X139.974 Y6.342 Z0.000 F1500
; --- FIX X Backlash: -1.300mm ---
G0 X138.674 Y6.342 F1200
G1 X138.598 Y5.995 Z0.000 F1500
G1 X138.475 Y5.659 Z0.000 F1500
G1 X138.307 Y5.338 Z0.000 F1500
G1 X138.097 Y5.032 Z0.000 F1500
G1 X137.846 Y4.743 Z0.000 F1500
G1 X137.558 Y4.474 Z0.000 F1500
G1 X137.236 Y4.225 Z0.000 F1500
G1 X136.880 Y3.999 Z0.000 F1500
G1 X136.496 Y3.798 Z0.000 F1500
G1 X136.083 Y3.622 Z0.000 F1500
G1 X135.646 Y3.475 Z0.000 F1500
G1 X135.187 Y3.357 Z0.000 F1500
G1 X134.708 Y3.271 Z0.000 F1500
G1 X134.211 Y3.218 Z0.000 F1500
G1 X133.700 Y3.200 Z0.000 F1500
G1 X133.189 Y3.218 Z0.000 F1500
; --- FIX Y Backlash: 1.300mm ---
G0 X133.189 Y4.518 F1200
G1 X132.692 Y4.571 Z0.000 F1500
G1 X132.213 Y4.657 Z0.000 F1500
G1 X131.754 Y4.775 Z0.000 F1500
G1 X131.317 Y4.922 Z0.000 F1500
G1 X130.904 Y5.098 Z0.000 F1500
G1 X130.520 Y5.299 Z0.000 F1500
G1 X130.164 Y5.525 Z0.000 F1500
G1 X129.842 Y5.774 Z0.000 F1500
G1 X129.554 Y6.043 Z0.000 F1500
G1 X129.303 Y6.332 Z0.000 F1500
G1 X129.093 Y6.638 Z0.000 F1500
G1 X128.925 Y6.959 Z0.000 F1500
G1 Z7 F1500;         ; Raise from color - controlled movement
G1 X122.700 Y8.000 Z1.000 F1500
G1 X112.700 Y18.000 Z8.000 F1500
G1 F1500;           ; Set feed rate to 1000
G0 Z3.5 F1500
G0 X107.133 Y58.450 Z3.500
G1 Z0 F1500
;Layer C3
; --- FIX X Backlash: 1.300mm ---
G0 X108.433 Y58.450 F1200
G1 X108.887 Y58.455 Z0.000 F1500
G1 X109.626 Y58.490 Z0.000 F1500
G1 X110.364 Y58.563 Z0.000 F1500
G1 X111.119 Y58.668 Z0.000 F1500
G1 X112.000 Y58.819 Z0.000 F1500
G1 X112.773 Y58.946 Z0.000 F1500
G1 X113.374 Y59.089 Z0.000 F1500
G1 X114.056 Y59.291 Z0.000 F1500
G1 X115.360 Y59.731 Z0.000 F1500
G1 X115.802 Y59.898 Z0.000 F1500
G1 X116.190 Y60.064 Z0.000 F1500
G1 X116.764 Y60.348 Z0.000 F1500
G1 X117.258 Y60.550 Z0.000 F1500
G1 X117.563 Y60.704 Z0.000 F1500
G1 X118.042 Y60.969 Z0.000 F1500
G1 X118.462 Y61.203 Z0.000 F1500
G1 X118.998 Y61.533 Z0.000 F1500
G1 X119.614 Y61.908 Z0.000 F1500
G1 X119.830 Y62.045 Z0.000 F1500
G1 X119.966 Y62.139 Z0.000 F1500
G1 X120.022 Y62.181 Z0.000 F1500
G1 X120.221 Y62.355 Z0.000 F1500
G1 X120.767 Y62.783 Z0.000 F1500
G1 X121.138 Y63.102 Z0.000 F1500
G1 X121.378 Y63.341 Z0.000 F1500
G1 X121.626 Y63.649 Z0.000 F1500
G1 X121.887 Y64.000 Z0.000 F1500
G1 X122.042 Y64.245 Z0.000 F1500
G1 X122.153 Y64.460 Z0.000 F1500
G1 X122.184 Y64.535 Z0.000 F1500
G1 X122.203 Y64.622 Z0.000 F1500
G1 X122.214 Y64.707 Z0.000 F1500
; --- FIX X Backlash: -1.300mm ---
G0 X120.914 Y64.707 F1200
G1 X120.795 Y65.101 Z0.000 F1500
; --- FIX Y Backlash: -1.300mm ---
G0 X120.795 Y63.801 F1200
G1 X120.544 Y63.680 Z0.000 F1500
G1 X120.229 Y63.490 Z0.000 F1500
G1 X119.677 Y63.132 Z0.000 F1500
G1 X119.193 Y62.840 Z0.000 F1500
G1 X118.595 Y62.412 Z0.000 F1500
G1 X117.738 Y61.845 Z0.000 F1500
G1 X116.783 Y61.285 Z0.000 F1500
G1 X115.896 Y60.847 Z0.000 F1500
G1 X115.240 Y60.518 Z0.000 F1500
G1 X114.423 Y60.166 Z0.000 F1500
G1 X113.585 Y59.858 Z0.000 F1500
G1 X112.741 Y59.598 Z0.000 F1500
G1 X111.636 Y59.309 Z0.000 F1500
G1 X111.018 Y59.168 Z0.000 F1500
G1 X110.185 Y59.015 Z0.000 F1500
G1 X108.844 Y58.901 Z0.000 F1500
G1 X107.605 Y58.823 Z0.000 F1500
G1 X106.229 Y58.811 Z0.000 F1500
; --- FIX Y Backlash: 1.300mm ---
G0 X106.229 Y60.111 F1200
G1 X104.963 Y60.208 Z0.000 F1500
G1 X104.173 Y60.272 Z0.000 F1500
G1 X103.345 Y60.413 Z0.000 F1500
G1 X102.745 Y60.541 Z0.000 F1500
G1 X102.107 Y60.670 Z0.000 F1500
G1 X100.960 Y61.004 Z0.000 F1500
G1 X99.900 Y61.354 Z0.000 F1500
G1 X98.784 Y61.791 Z0.000 F1500
G1 X97.815 Y62.255 Z0.000 F1500
G1 X97.015 Y62.626 Z0.000 F1500
G1 X96.096 Y63.143 Z0.000 F1500
G1 X95.148 Y63.712 Z0.000 F1500
G1 X94.617 Y64.011 Z0.000 F1500
G1 X94.307 Y64.262 Z0.000 F1500
G1 X94.280 Y64.282 Z0.000 F1500
G1 X94.156 Y64.369 Z0.000 F1500
G1 X93.970 Y64.495 Z0.000 F1500
G1 X93.523 Y64.785 Z0.000 F1500
G1 X93.090 Y65.052 Z0.000 F1500
G1 X92.818 Y65.211 Z0.000 F1500
G1 X92.707 Y65.262 Z0.000 F1500
G1 X92.584 Y65.303 Z0.000 F1500
G1 X92.472 Y65.327 Z0.000 F1500
G1 X92.360 Y65.339 Z0.000 F1500
; --- FIX Y Backlash: -1.300mm ---
G0 X92.360 Y64.039 F1200
G1 X92.221 Y63.966 Z0.000 F1500
G1 X92.132 Y63.880 Z0.000 F1500
G1 X92.123 Y63.577 Z0.000 F1500
G1 X92.145 Y63.235 Z0.000 F1500
G1 X92.173 Y63.161 Z0.000 F1500
G1 X92.223 Y63.066 Z0.000 F1500
; --- FIX X Backlash: 1.300mm ---
G0 X93.523 Y63.066 F1200
G1 X93.622 Y62.922 Z0.000 F1500
G1 X93.844 Y62.656 Z0.000 F1500
G1 X94.117 Y62.346 Z0.000 F1500
G1 X94.265 Y62.201 Z0.000 F1500
G1 X94.750 Y61.837 Z0.000 F1500
G1 X95.249 Y61.370 Z0.000 F1500
G1 X95.509 Y61.178 Z0.000 F1500
G1 X96.050 Y60.818 Z0.000 F1500
G1 X96.441 Y60.541 Z0.000 F1500
G1 X97.186 Y60.139 Z0.000 F1500
G1 X98.031 Y59.674 Z0.000 F1500
G1 X99.522 Y58.983 Z0.000 F1500
G1 X101.063 Y58.357 Z0.000 F1500
G1 X101.771 Y58.110 Z0.000 F1500
G1 X102.478 Y57.896 Z0.000 F1500
G1 X103.178 Y57.719 Z0.000 F1500
G1 X103.964 Y57.564 Z0.000 F1500
G1 X104.778 Y57.415 Z0.000 F1500
G1 X105.531 Y57.309 Z0.000 F1500
G1 X106.294 Y57.234 Z0.000 F1500
G1 X107.163 Y57.181 Z0.000 F1500
G1 X107.590 Y57.155 Z0.000 F1500
G1 X107.979 Y57.148 Z0.000 F1500
G1 X108.433 Y57.148 Z0.000 F1500
G0 Z3.5 F1500
G0 X112.950 Y56.763 Z3.500
G1 Z0 F1500
; --- FIX Y Backlash: 1.300mm ---
G0 X112.950 Y58.063 F1200
G1 X113.605 Y58.219 Z0.000 F1500
G1 X114.327 Y58.433 Z0.000 F1500
G1 X115.673 Y58.887 Z0.000 F1500
G1 X116.141 Y59.063 Z0.000 F1500
G1 X116.560 Y59.243 Z0.000 F1500
G1 X117.134 Y59.527 Z0.000 F1500
G1 X117.628 Y59.729 Z0.000 F1500
G1 X117.984 Y59.909 Z0.000 F1500
G1 X118.463 Y60.173 Z0.000 F1500
G1 X118.925 Y60.430 Z0.000 F1500
G1 X119.468 Y60.766 Z0.000 F1500
G1 X120.093 Y61.146 Z0.000 F1500
G1 X120.322 Y61.292 Z0.000 F1500
G1 X120.495 Y61.410 Z0.000 F1500
G1 X120.590 Y61.482 Z0.000 F1500
G1 X120.795 Y61.662 Z0.000 F1500
G1 X121.342 Y62.091 Z0.000 F1500
G1 X121.744 Y62.436 Z0.000 F1500
G1 X122.048 Y62.737 Z0.000 F1500
G1 X122.340 Y63.100 Z0.000 F1500
G1 X122.627 Y63.488 Z0.000 F1500
G1 X122.823 Y63.798 Z0.000 F1500
G1 X122.970 Y64.082 Z0.000 F1500
G1 X123.046 Y64.269 Z0.000 F1500
G1 X123.089 Y64.462 Z0.000 F1500
G1 X123.131 Y64.782 Z0.000 F1500
; --- FIX X Backlash: -1.300mm ---
G0 X121.831 Y64.782 F1200
G1 X121.588 Y65.589 Z0.000 F1500
G1 X121.513 Y65.706 Z0.000 F1500
G1 X121.293 Y65.906 Z0.000 F1500
G1 X121.010 Y66.052 Z0.000 F1500
G1 X120.966 Y66.068 Z0.000 F1500
G1 X120.918 Y66.079 Z0.000 F1500
G1 X120.863 Y66.083 Z0.000 F1500
G1 X120.815 Y66.083 Z0.000 F1500
G1 X120.772 Y66.075 Z0.000 F1500
G1 X120.733 Y66.063 Z0.000 F1500
; --- FIX Y Backlash: -1.300mm ---
G0 X120.733 Y64.763 F1200
G1 X120.520 Y64.666 Z0.000 F1500
G1 X120.115 Y64.473 Z0.000 F1500
G1 X119.758 Y64.257 Z0.000 F1500
G1 X119.200 Y63.895 Z0.000 F1500
G1 X118.699 Y63.593 Z0.000 F1500
G1 X118.084 Y63.154 Z0.000 F1500
G1 X117.261 Y62.608 Z0.000 F1500
G1 X116.356 Y62.078 Z0.000 F1500
G1 X115.497 Y61.654 Z0.000 F1500
G1 X114.860 Y61.334 Z0.000 F1500
G1 X114.089 Y61.002 Z0.000 F1500
G1 X113.297 Y60.711 Z0.000 F1500
G1 X112.494 Y60.464 Z0.000 F1500
G1 X111.421 Y60.183 Z0.000 F1500
G1 X110.836 Y60.049 Z0.000 F1500
G1 X110.065 Y59.908 Z0.000 F1500
G1 X108.778 Y59.798 Z0.000 F1500
G1 X107.573 Y59.722 Z0.000 F1500
G1 X106.260 Y59.711 Z0.000 F1500
; --- FIX Y Backlash: 1.300mm ---
G0 X106.260 Y61.011 F1200
G1 X105.034 Y61.104 Z0.000 F1500
G1 X104.285 Y61.166 Z0.000 F1500
G1 X103.514 Y61.297 Z0.000 F1500
G1 X102.927 Y61.422 Z0.000 F1500
G1 X102.323 Y61.545 Z0.000 F1500
G1 X101.227 Y61.864 Z0.000 F1500
G1 X100.205 Y62.201 Z0.000 F1500
G1 X99.143 Y62.617 Z0.000 F1500
G1 X98.228 Y63.056 Z0.000 F1500
G1 X97.426 Y63.428 Z0.000 F1500
G1 X96.548 Y63.921 Z0.000 F1500
G1 X95.593 Y64.494 Z0.000 F1500
G1 X95.125 Y64.758 Z0.000 F1500
G1 X94.857 Y64.975 Z0.000 F1500
G1 X94.795 Y65.021 Z0.000 F1500
G1 X94.658 Y65.116 Z0.000 F1500
G1 X94.472 Y65.242 Z0.000 F1500
G1 X94.019 Y65.537 Z0.000 F1500
G1 X93.548 Y65.827 Z0.000 F1500
G1 X93.231 Y66.013 Z0.000 F1500
G1 X93.031 Y66.104 Z0.000 F1500
G1 X92.826 Y66.171 Z0.000 F1500
G1 X92.614 Y66.217 Z0.000 F1500
G1 X92.402 Y66.240 Z0.000 F1500
G1 X92.197 Y66.240 Z0.000 F1500
G1 X92.122 Y66.231 Z0.000 F1500
; --- FIX Y Backlash: -1.300mm ---
G0 X92.122 Y64.931 F1200
G1 X91.789 Y64.755 Z0.000 F1500
G1 X91.612 Y64.690 Z0.000 F1500
G1 X91.523 Y64.543 Z0.000 F1500
G1 X91.243 Y64.272 Z0.000 F1500
G1 X91.221 Y63.562 Z0.000 F1500
G1 X91.253 Y63.074 Z0.000 F1500
G1 X91.274 Y62.991 Z0.000 F1500
; --- FIX X Backlash: 1.300mm ---
G0 X92.574 Y62.991 F1200
G1 X92.651 Y62.789 Z0.000 F1500
G1 X92.750 Y62.600 Z0.000 F1500
G1 X92.904 Y62.378 Z0.000 F1500
G1 X93.155 Y62.076 Z0.000 F1500
G1 X93.467 Y61.722 Z0.000 F1500
G1 X93.677 Y61.517 Z0.000 F1500
G1 X94.171 Y61.146 Z0.000 F1500
G1 X94.673 Y60.676 Z0.000 F1500
G1 X94.986 Y60.445 Z0.000 F1500
G1 X95.540 Y60.076 Z0.000 F1500
G1 X95.966 Y59.774 Z0.000 F1500
G1 X96.755 Y59.349 Z0.000 F1500
G1 X97.628 Y58.868 Z0.000 F1500
G1 X99.159 Y58.159 Z0.000 F1500
G1 X100.753 Y57.512 Z0.000 F1500
G1 X101.483 Y57.257 Z0.000 F1500
G1 X102.234 Y57.029 Z0.000 F1500
G1 X102.979 Y56.841 Z0.000 F1500
G1 X103.798 Y56.679 Z0.000 F1500
G1 X104.631 Y56.527 Z0.000 F1500
G1 X105.428 Y56.415 Z0.000 F1500
G1 X106.227 Y56.336 Z0.000 F1500
G1 X107.108 Y56.283 Z0.000 F1500
G1 X107.553 Y56.255 Z0.000 F1500
G1 X107.969 Y56.247 Z0.000 F1500
G1 X108.458 Y56.250 Z0.000 F1500
G1 X108.901 Y56.255 Z0.000 F1500
G1 X109.699 Y56.293 Z0.000 F1500
; --- FIX Y Backlash: 1.300mm ---
G0 X109.699 Y57.593 F1200
G1 X110.458 Y57.667 Z0.000 F1500
G1 X111.266 Y57.781 Z0.000 F1500
G1 X112.148 Y57.931 Z0.000 F1500
G1 X112.950 Y58.063 Z0.000 F1500
G0 Z3.5 F1500
G0 X116.943 Y58.428 Z3.500
G1 Z0 F1500
G1 X117.505 Y58.706 Z0.000 F1500
G1 X118.006 Y58.912 Z0.000 F1500
G1 X118.401 Y59.111 Z0.000 F1500
G1 X118.901 Y59.387 Z0.000 F1500
G1 X119.380 Y59.654 Z0.000 F1500
G1 X119.938 Y59.999 Z0.000 F1500
G1 X120.561 Y60.377 Z0.000 F1500
G1 X120.814 Y60.538 Z0.000 F1500
G1 X121.024 Y60.682 Z0.000 F1500
G1 X121.159 Y60.784 Z0.000 F1500
G1 X121.370 Y60.969 Z0.000 F1500
G1 X121.910 Y61.392 Z0.000 F1500
G1 X122.357 Y61.776 Z0.000 F1500
G1 X122.718 Y62.134 Z0.000 F1500
G1 X123.047 Y62.543 Z0.000 F1500
G1 X123.374 Y62.984 Z0.000 F1500
G1 X123.603 Y63.346 Z0.000 F1500
G1 X123.790 Y63.708 Z0.000 F1500
G1 X123.909 Y63.998 Z0.000 F1500
G1 X123.977 Y64.308 Z0.000 F1500
G1 X124.034 Y64.741 Z0.000 F1500
G1 X124.037 Y64.833 Z0.000 F1500
G1 X124.033 Y64.903 Z0.000 F1500
G1 X124.030 Y64.920 Z0.000 F1500
; --- FIX X Backlash: -1.300mm ---
G0 X122.730 Y64.920 F1200
G1 X122.501 Y65.680 Z0.000 F1500
G1 X122.521 Y65.800 Z0.000 F1500
G1 X122.207 Y66.292 Z0.000 F1500
G1 X121.812 Y66.651 Z0.000 F1500
G1 X121.369 Y66.879 Z0.000 F1500
G1 X121.214 Y66.936 Z0.000 F1500
G1 X121.057 Y66.970 Z0.000 F1500
G1 X120.889 Y66.985 Z0.000 F1500
G1 X120.727 Y66.979 Z0.000 F1500
G1 X120.565 Y66.953 Z0.000 F1500
G1 X120.416 Y66.908 Z0.000 F1500
; --- FIX Y Backlash: -1.300mm ---
G0 X120.416 Y65.608 F1200
G1 X120.143 Y65.484 Z0.000 F1500
G1 X119.687 Y65.266 Z0.000 F1500
G1 X119.275 Y65.017 Z0.000 F1500
G1 X118.723 Y64.658 Z0.000 F1500
G1 X118.201 Y64.345 Z0.000 F1500
G1 X117.573 Y63.895 Z0.000 F1500
G1 X116.784 Y63.372 Z0.000 F1500
G1 X115.929 Y62.870 Z0.000 F1500
G1 X115.099 Y62.461 Z0.000 F1500
G1 X114.479 Y62.151 Z0.000 F1500
G1 X113.756 Y61.838 Z0.000 F1500
G1 X113.010 Y61.564 Z0.000 F1500
G1 X112.248 Y61.330 Z0.000 F1500
G1 X111.206 Y61.057 Z0.000 F1500
G1 X110.655 Y60.931 Z0.000 F1500
G1 X109.946 Y60.801 Z0.000 F1500
G1 X108.711 Y60.696 Z0.000 F1500
G1 X107.541 Y60.622 Z0.000 F1500
G1 X106.290 Y60.612 Z0.000 F1500
; --- FIX Y Backlash: 1.300mm ---
G0 X106.290 Y61.912 F1200
G1 X105.105 Y62.002 Z0.000 F1500
G1 X104.398 Y62.060 Z0.000 F1500
G1 X103.683 Y62.181 Z0.000 F1500
G1 X103.115 Y62.302 Z0.000 F1500
G1 X102.539 Y62.419 Z0.000 F1500
G1 X101.494 Y62.724 Z0.000 F1500
G1 X100.510 Y63.048 Z0.000 F1500
G1 X99.502 Y63.443 Z0.000 F1500
G1 X98.594 Y63.878 Z0.000 F1500
G1 X97.836 Y64.229 Z0.000 F1500
G1 X97.000 Y64.700 Z0.000 F1500
G1 X96.054 Y65.267 Z0.000 F1500
G1 X95.633 Y65.505 Z0.000 F1500
G1 X95.409 Y65.686 Z0.000 F1500
G1 X95.327 Y65.746 Z0.000 F1500
G1 X95.157 Y65.865 Z0.000 F1500
G1 X94.979 Y65.985 Z0.000 F1500
G1 X94.486 Y66.306 Z0.000 F1500
G1 X94.006 Y66.602 Z0.000 F1500
G1 X93.645 Y66.813 Z0.000 F1500
G1 X93.363 Y66.941 Z0.000 F1500
G1 X93.064 Y67.040 Z0.000 F1500
G1 X92.755 Y67.107 Z0.000 F1500
G1 X92.451 Y67.140 Z0.000 F1500
G1 X92.140 Y67.140 Z0.000 F1500
G1 X91.853 Y67.106 Z0.000 F1500
; --- FIX Y Backlash: -1.300mm ---
G0 X91.853 Y65.806 F1200
G1 X91.421 Y65.579 Z0.000 F1500
G1 X91.004 Y65.425 Z0.000 F1500
G1 X90.813 Y65.108 Z0.000 F1500
G1 X90.352 Y64.660 Z0.000 F1500
G1 X90.352 Y64.644 Z0.000 F1500
G1 X90.321 Y63.547 Z0.000 F1500
G1 X90.361 Y62.932 Z0.000 F1500
; --- FIX X Backlash: 1.300mm ---
G0 X91.661 Y62.932 F1200
G1 X91.715 Y62.719 Z0.000 F1500
G1 X91.831 Y62.417 Z0.000 F1500
G1 X91.979 Y62.132 Z0.000 F1500
G1 X92.186 Y61.834 Z0.000 F1500
G1 X92.466 Y61.497 Z0.000 F1500
G1 X92.813 Y61.103 Z0.000 F1500
G1 X93.090 Y60.833 Z0.000 F1500
G1 X93.591 Y60.456 Z0.000 F1500
G1 X94.093 Y59.985 Z0.000 F1500
G1 X94.480 Y59.701 Z0.000 F1500
G1 X95.030 Y59.334 Z0.000 F1500
G1 X95.490 Y59.009 Z0.000 F1500
G1 X96.324 Y58.559 Z0.000 F1500
G1 X97.215 Y58.068 Z0.000 F1500
G1 X98.802 Y57.333 Z0.000 F1500
G1 X100.437 Y56.669 Z0.000 F1500
G1 X101.207 Y56.400 Z0.000 F1500
G1 X101.991 Y56.162 Z0.000 F1500
G1 X102.794 Y55.960 Z0.000 F1500
G1 X103.631 Y55.794 Z0.000 F1500
G1 X104.485 Y55.638 Z0.000 F1500
G1 X105.310 Y55.523 Z0.000 F1500
G1 X106.162 Y55.439 Z0.000 F1500
G1 X107.052 Y55.385 Z0.000 F1500
G1 X107.523 Y55.355 Z0.000 F1500
G1 X107.958 Y55.347 Z0.000 F1500
G1 X108.463 Y55.350 Z0.000 F1500
G1 X108.928 Y55.355 Z0.000 F1500
G1 X109.761 Y55.395 Z0.000 F1500
; --- FIX Y Backlash: 1.300mm ---
G0 X109.761 Y56.695 F1200
G1 X110.577 Y56.775 Z0.000 F1500
G1 X111.394 Y56.890 Z0.000 F1500
G1 X112.296 Y57.043 Z0.000 F1500
G1 X113.125 Y57.179 Z0.000 F1500
G1 X113.838 Y57.349 Z0.000 F1500
G1 X114.606 Y57.577 Z0.000 F1500
G1 X115.961 Y58.034 Z0.000 F1500
G1 X116.482 Y58.230 Z0.000 F1500
G1 X116.943 Y58.428 Z0.000 F1500

; Color picking sequence
G1 Z10 F1500;         ; Raise brush to safe height
; --- FIX Y Backlash: -1.300mm ---
G0 X116.943 Y57.128 F1200
G0 X131.000 Y3.700
G1 Z0 F1500;         ; Lower into color - controlled movement
; --- FIX X Backlash: -1.300mm ---
G0 X129.700 Y3.700 F1200
; --- FIX Y Backlash: 1.300mm ---
G0 X129.700 Y5.000 F1200
G1 X128.802 Y7.295 Z0.000 F1500
G1 X128.726 Y7.642 Z0.000 F1500
G1 X128.700 Y8.000 Z0.000 F1500
G1 X128.726 Y8.358 Z0.000 F1500
; --- FIX X Backlash: 1.300mm ---
G0 X130.026 Y8.358 F1200
G1 X130.102 Y8.705 Z0.000 F1500
G1 X130.225 Y9.041 Z0.000 F1500
G1 X130.393 Y9.362 Z0.000 F1500
G1 X130.603 Y9.668 Z0.000 F1500
G1 X130.854 Y9.957 Z0.000 F1500
G1 X131.142 Y10.226 Z0.000 F1500
G1 X131.464 Y10.475 Z0.000 F1500
G1 X131.820 Y10.701 Z0.000 F1500
G1 X132.204 Y10.902 Z0.000 F1500
G1 X132.617 Y11.078 Z0.000 F1500
G1 X133.054 Y11.225 Z0.000 F1500
G1 X133.513 Y11.343 Z0.000 F1500
G1 X133.992 Y11.429 Z0.000 F1500
G1 X134.489 Y11.482 Z0.000 F1500
G1 X135.000 Y11.500 Z0.000 F1500
G1 X135.511 Y11.482 Z0.000 F1500
; --- FIX Y Backlash: -1.300mm ---
G0 X135.511 Y10.182 F1200
G1 X136.008 Y10.129 Z0.000 F1500
G1 X136.487 Y10.043 Z0.000 F1500
G1 X136.946 Y9.925 Z0.000 F1500
G1 X137.383 Y9.778 Z0.000 F1500
G1 X137.796 Y9.602 Z0.000 F1500
G1 X138.180 Y9.401 Z0.000 F1500
G1 X138.536 Y9.175 Z0.000 F1500
G1 X138.858 Y8.926 Z0.000 F1500
G1 X139.146 Y8.657 Z0.000 F1500
G1 X139.397 Y8.368 Z0.000 F1500
G1 X139.607 Y8.062 Z0.000 F1500
G1 X139.775 Y7.741 Z0.000 F1500
G1 X139.898 Y7.405 Z0.000 F1500
G1 X139.974 Y7.058 Z0.000 F1500
G1 X140.000 Y6.700 Z0.000 F1500
G1 X139.974 Y6.342 Z0.000 F1500
; --- FIX X Backlash: -1.300mm ---
G0 X138.674 Y6.342 F1200
G1 X138.598 Y5.995 Z0.000 F1500
G1 X138.475 Y5.659 Z0.000 F1500
G1 X138.307 Y5.338 Z0.000 F1500
G1 X138.097 Y5.032 Z0.000 F1500
G1 X137.846 Y4.743 Z0.000 F1500
G1 X137.558 Y4.474 Z0.000 F1500
G1 X137.236 Y4.225 Z0.000 F1500
G1 X136.880 Y3.999 Z0.000 F1500
G1 X136.496 Y3.798 Z0.000 F1500
G1 X136.083 Y3.622 Z0.000 F1500
G1 X135.646 Y3.475 Z0.000 F1500
G1 X135.187 Y3.357 Z0.000 F1500
G1 X134.708 Y3.271 Z0.000 F1500
G1 X134.211 Y3.218 Z0.000 F1500
G1 X133.700 Y3.200 Z0.000 F1500
G1 X133.189 Y3.218 Z0.000 F1500
; --- FIX Y Backlash: 1.300mm ---
G0 X133.189 Y4.518 F1200
G1 X132.692 Y4.571 Z0.000 F1500
G1 X132.213 Y4.657 Z0.000 F1500
G1 X131.754 Y4.775 Z0.000 F1500
G1 X131.317 Y4.922 Z0.000 F1500
G1 X130.904 Y5.098 Z0.000 F1500
G1 X130.520 Y5.299 Z0.000 F1500
G1 X130.164 Y5.525 Z0.000 F1500
G1 X129.842 Y5.774 Z0.000 F1500
G1 X129.554 Y6.043 Z0.000 F1500
G1 X129.303 Y6.332 Z0.000 F1500
G1 X129.093 Y6.638 Z0.000 F1500
G1 X128.925 Y6.959 Z0.000 F1500
G1 Z7 F1500;         ; Raise from color - controlled movement
G1 X122.700 Y8.000 Z1.000 F1500
G1 X112.700 Y18.000 Z8.000 F1500
G1 F1500;           ; Set feed rate to 1000
G0 Z3.5 F1500
; --- FIX X Backlash: 1.300mm ---
G0 X114.000 Y18.000 F1200
G0 X121.302 Y59.782 Z3.500
G1 Z0 F1500
G1 X121.552 Y59.953 Z0.000 F1500
G1 X121.728 Y60.086 Z0.000 F1500
G1 X121.945 Y60.276 Z0.000 F1500
G1 X122.485 Y60.699 Z0.000 F1500
G1 X122.971 Y61.117 Z0.000 F1500
G1 X123.388 Y61.531 Z0.000 F1500
G1 X123.754 Y61.986 Z0.000 F1500
G1 X124.118 Y62.477 Z0.000 F1500
G1 X124.385 Y62.899 Z0.000 F1500
G1 X124.607 Y63.328 Z0.000 F1500
G1 X124.770 Y63.727 Z0.000 F1500
G1 X124.864 Y64.154 Z0.000 F1500
G1 X124.932 Y64.668 Z0.000 F1500
G1 X124.938 Y64.845 Z0.000 F1500
G1 X124.929 Y65.001 Z0.000 F1500
G1 X124.908 Y65.127 Z0.000 F1500
; --- FIX X Backlash: -1.300mm ---
G0 X123.608 Y65.127 F1200
G1 X123.424 Y65.737 Z0.000 F1500
