
G0 Z10 F500;      ; Move to clearance level - Z motion limited to 500
; G0 X-10 Y-10 F1200; Homing
; G0 X-5 Y-5 F1200; go in
; G10 P0 L20 X0 Y0; set to zero
G1 F1000;           ; Set feed rate to 1000
;LightBurn 1.6.04
;Custom GCode device profile, absolute coords
;Bounds: X16.17 Y23.18 to X95.09 Y102.31
G00 G17 G40 G21 G54
G90
M3
G1 Z10 F500
;Cut @ 15 mm/sec, 90% power

M8

; Color 1 picking sequence
G1 Z10 F500;         ; Raise brush to safe height
G0 X2 Y0 F1000;     ; Rapid move to brush cleaning position
G1 Z0 F500;         ; Lower brush for cleaning - controlled movement
G1 Z2 F500;         ; Raise brush slightly - controlled movement
G1 X22 Y0 Z8 F500;     ; Move across cleaning area - controlled movement
G1 Z8 F500;         ; Maintain brush height - controlled movement
G0 X41 Y0 F1200;    ; Rapid move to color 1 position
G1 Z0 F500;         ; Lower into color - controlled movement
G1 X35 Y1 F500;     ; Small movement in paint - controlled movement
G1 Z7 F500;         ; Raise from color - controlled movement
G1 X38 Y1 F500;     ; Movement in paint - controlled movement
G1 Z1 F500;         ; Lower slightly - controlled movement
G1 X27 Y10 Z8 F500;     ; Move in paint - controlled movement
G1 Z8 F500;         ; Raise brush - controlled movement
G1 F1000;           ; Set feed rate to 1000
G0 Z2.8F500
G0 X19.993Y38.867Z2.8F1000
G1 Z0F500
;Layer C00
G1 X20.768Y39.318Z0S900F800
G1 X21.489Y39.734Z0F800
G1 X22.165Y40.116Z0F800
G1 X22.804Y40.464Z0F800
G1 X23.415Y40.78Z0F800
G1 X24.006Y41.065Z0F800
G1 X24.587Y41.318Z0F800
G1 X25.166Y41.541Z0F800
G1 X25.751Y41.735Z0F800
G1 X26.351Y41.901Z0F800
G1 X26.976Y42.039Z0F800
G1 X27.633Y42.15Z0F800
G1 X28.332Y42.235Z0F800
G1 X29.081Y42.294Z0F800
G1 X29.888Y42.33Z0F800
G1 X30.763Y42.341Z0F800
G1 Y42.605Z0F800
G1 X29.881Y42.593Z0F800
G1 X29.065Y42.557Z0F800
G1 X28.306Y42.495Z0F800
G1 X27.597Y42.408Z0F800
G1 X26.929Y42.294Z0F800
G1 X26.293Y42.153Z0F800
G1 X25.682Y41.985Z0F800
G1 X25.085Y41.787Z0F800
G1 X24.496Y41.561Z0F800
G1 X23.906Y41.304Z0F800
G1 X23.305Y41.017Z0F800
G1 X22.687Y40.698Z0F800
G1 X22.041Y40.347Z0F800
G1 X21.361Y39.964Z0F800
G1 X20.637Y39.546Z0F800
G1 X19.86Y39.095Z0F800
G1 X19.993Y38.867Z0F800
G0 Z2.8F500
G0 X20.499Y40.136Z2.8F1000
G1 Z0F500
G1 X21.019Y40.833Z0F800
G1 X21.488Y41.549Z0F800
G1 X21.916Y42.28Z0F800
G1 X22.309Y43.022Z0F800
G1 X23.022Y44.528Z0F800
G1 X23.69Y46.04Z0F800
G1 X24.374Y47.531Z0F800
G1 X25.135Y48.975Z0F800
G1 X25.563Y49.671Z0F800
G1 X26.033Y50.346Z0F800
G1 X26.553Y50.996Z0F800
G1 X27.13Y51.619Z0F800
G1 X26.942Y51.806Z0F800
G1 X26.352Y51.169Z0F800
G1 X25.821Y50.505Z0F800
G1 X25.342Y49.817Z0F800
G1 X24.906Y49.109Z0F800
G1 X24.136Y47.648Z0F800
G1 X23.448Y46.148Z0F800
G1 X22.781Y44.638Z0F800
G1 X22.073Y43.142Z0F800
G1 X21.686Y42.408Z0F800
G1 X21.265Y41.688Z0F800
G1 X20.803Y40.984Z0F800
G1 X20.294Y40.3Z0F800
G1 X20.499Y40.136Z0F800

; Color 1 picking sequence
G1 Z10 F500;         ; Raise brush to safe height
G0 X2 Y0 F1000;     ; Rapid move to brush cleaning position
G1 Z0 F500;         ; Lower brush for cleaning - controlled movement
G1 Z2 F500;         ; Raise brush slightly - controlled movement
G1 X22 Y0 Z8 F500;     ; Move across cleaning area - controlled movement
G1 Z8 F500;         ; Maintain brush height - controlled movement
G0 X41 Y0 F1200;    ; Rapid move to color 1 position
G1 Z0 F500;         ; Lower into color - controlled movement
G1 X35 Y1 F500;     ; Small movement in paint - controlled movement
G1 Z7 F500;         ; Raise from color - controlled movement
G1 X38 Y1 F500;     ; Movement in paint - controlled movement
G1 Z1 F500;         ; Lower slightly - controlled movement
G1 X27 Y10 Z8 F500;     ; Move in paint - controlled movement
G1 Z8 F500;         ; Raise brush - controlled movement
G1 F1000;           ; Set feed rate to 1000
G0 Z2.8F500
G0 X38.264Y36.863Z2.8F1000
G1 Z0F500
G1 X38.116Y36.491Z0F800
G1 X37.997Y36.12Z0F800
G1 X37.909Y35.749Z0F800
G1 X37.855Y35.38Z0F800
G1 X37.837Y35.011Z0F800
G1 X38.101Z0F800
G1 X38.118Y35.354Z0F800
G1 X38.171Y35.7Z0F800
G1 X38.255Y36.049Z0F800
G1 X38.37Y36.402Z0F800
G1 X38.514Y36.758Z0F800
G1 X38.685Y37.118Z0F800
G1 X38.881Y37.48Z0F800
G1 X39.099Y37.846Z0F800
G1 X39.599Y38.585Z0F800
G1 X40.168Y39.335Z0F800
G1 X40.792Y40.095Z0F800
G1 X41.456Y40.865Z0F800
G1 X42.84Y42.429Z0F800
G1 X44.192Y44.028Z0F800
G1 X44.817Y44.84Z0F800
G1 X45.387Y45.662Z0F800
G1 X45.886Y46.493Z0F800
G1 X46.298Y47.333Z0F800
G1 X46.056Y47.439Z0F800
G1 X45.654Y46.622Z0F800
G1 X45.165Y45.809Z0F800
G1 X44.603Y45Z0F800
G1 X43.985Y44.197Z0F800
G1 X42.641Y42.606Z0F800
G1 X41.257Y41.04Z0F800
G1 X40.589Y40.268Z0F800
G1 X39.956Y39.502Z0F800
G1 X39.377Y38.741Z0F800
G1 X38.866Y37.986Z0F800
G1 X38.641Y37.611Z0F800
G1 X38.44Y37.236Z0F800
G1 X38.264Y36.863Z0F800

; Color 1 picking sequence
G1 Z10 F500;         ; Raise brush to safe height
G0 X2 Y0 F1000;     ; Rapid move to brush cleaning position
G1 Z0 F500;         ; Lower brush for cleaning - controlled movement
G1 Z2 F500;         ; Raise brush slightly - controlled movement
G1 X22 Y0 Z8 F500;     ; Move across cleaning area - controlled movement
G1 Z8 F500;         ; Maintain brush height - controlled movement
G0 X41 Y0 F1200;    ; Rapid move to color 1 position
G1 Z0 F500;         ; Lower into color - controlled movement
G1 X35 Y1 F500;     ; Small movement in paint - controlled movement
G1 Z7 F500;         ; Raise from color - controlled movement
G1 X38 Y1 F500;     ; Movement in paint - controlled movement
G1 Z1 F500;         ; Lower slightly - controlled movement
G1 X27 Y10 Z8 F500;     ; Move in paint - controlled movement
G1 Z8 F500;         ; Raise brush - controlled movement
G1 F1000;           ; Set feed rate to 1000
G0 Z2.8F500
G0 X48.884Y31.226Z2.8F1000
G1 Z0F500
G1 X48.881Y30.758Z0F800
G1 X48.932Y30.326Z0F800
G1 X49.034Y29.928Z0F800
G1 X49.182Y29.563Z0F800
G1 X49.372Y29.23Z0F800
G1 X49.602Y28.926Z0F800
G1 X49.867Y28.65Z0F800
G1 X50.163Y28.402Z0F800
G1 X50.487Y28.178Z0F800
G1 X50.834Y27.974Z0F800
G1 X51.2Y27.79Z0F800
G1 X51.584Y27.622Z0F800
G1 X52.388Y27.327Z0F800
G1 X53.22Y27.068Z0F800
G1 X54.052Y26.827Z0F800
G1 X54.858Y26.589Z0F800
G1 X55.608Y26.337Z0F800
G1 X56.276Y26.054Z0F800
G1 X56.57Y25.897Z0F800
G1 X56.833Y25.727Z0F800
G1 X57.061Y25.543Z0F800
G1 X57.253Y25.343Z0F800
G1 X57.406Y25.127Z0F800
G1 X57.518Y24.891Z0F800
G1 X57.587Y24.631Z0F800
G1 X57.61Y24.343Z0F800
G1 X57.876Z0F800
G1 X57.848Y24.676Z0F800
G1 X57.765Y24.982Z0F800
G1 X57.633Y25.261Z0F800
G1 X57.456Y25.513Z0F800
G1 X57.239Y25.739Z0F800
G1 X56.987Y25.943Z0F800
G1 X56.703Y26.126Z0F800
G1 X56.392Y26.292Z0F800
G1 X55.699Y26.586Z0F800
G1 X54.935Y26.843Z0F800
G1 X54.125Y27.081Z0F800
G1 X53.296Y27.32Z0F800
G1 X52.474Y27.577Z0F800
G1 X51.686Y27.868Z0F800
G1 X51.314Y28.031Z0F800
G1 X50.96Y28.208Z0F800
G1 X50.629Y28.401Z0F800
G1 X50.323Y28.613Z0F800
G1 X50.046Y28.844Z0F800
G1 X49.8Y29.096Z0F800
G1 X49.589Y29.372Z0F800
G1 X49.414Y29.675Z0F800
G1 X49.28Y30.007Z0F800
G1 X49.189Y30.372Z0F800
G1 X49.144Y30.771Z0F800
G1 X49.148Y31.208Z0F800
G1 X48.884Y31.226Z0F800
G0 Z2.8F500
G0 X60.022Y29.559Z2.8F1000
G1 Z0F500
G1 X59.895Y29.164Z0F800
G1 X59.798Y28.759Z0F800
G1 X59.782Y28.626Z0F800
G1 Y28.468Z0F800
G1 X59.787Y28.286Z0F800
G1 X59.8Y28.082Z0F800
G1 X59.833Y27.617Z0F800
G1 X59.862Y27.119Z0F800
G1 X59.872Y26.628Z0F800
G1 X59.845Y26.189Z0F800
G1 X59.812Y26.004Z0F800
G1 X59.767Y25.852Z0F800
G1 X59.712Y25.736Z0F800
G1 X59.651Y25.662Z0F800
G1 X59.405Y25.432Z0F800
G1 X59.14Y25.14Z0F800
G1 X58.872Y24.807Z0F800
G1 X58.614Y24.451Z0F800
G1 X58.384Y24.092Z0F800
G1 X58.196Y23.751Z0F800
G1 X58.123Y23.594Z0F800
G1 X58.066Y23.447Z0F800
G1 X58.03Y23.309Z0F800
G1 X58.017Y23.179Z0F800
G1 X58.28Z0F800
G1 X58.29Y23.255Z0F800
G1 X58.319Y23.361Z0F800
G1 X58.367Y23.489Z0F800
G1 X58.433Y23.634Z0F800
G1 X58.61Y23.955Z0F800
G1 X58.833Y24.3Z0F800
G1 X59.084Y24.646Z0F800
G1 X59.344Y24.97Z0F800
G1 X59.596Y25.249Z0F800
G1 X59.819Y25.458Z0F800
G1 X59.936Y25.59Z0F800
G1 X60.017Y25.754Z0F800
G1 X60.072Y25.944Z0F800
G1 X60.107Y26.156Z0F800
G1 X60.136Y26.625Z0F800
G1 X60.126Y27.13Z0F800
G1 X60.096Y27.636Z0F800
G1 X60.064Y28.099Z0F800
G1 X60.052Y28.302Z0F800
G1 X60.047Y28.478Z0F800
G1 Y28.616Z0F800
G1 X60.058Y28.708Z0F800
G1 X60.151Y29.093Z0F800
G1 X60.273Y29.47Z0F800
G1 X60.42Y29.84Z0F800
G1 X60.59Y30.204Z0F800
G1 X60.982Y30.917Z0F800
G1 X61.422Y31.619Z0F800
G1 X61.883Y32.315Z0F800
G1 X62.339Y33.014Z0F800
G1 X62.763Y33.723Z0F800
G1 X63.128Y34.451Z0F800
G1 X62.886Y34.558Z0F800
G1 X62.531Y33.854Z0F800
G1 X62.111Y33.159Z0F800
G1 X61.656Y32.466Z0F800
G1 X61.192Y31.768Z0F800
G1 X60.746Y31.055Z0F800
G1 X60.347Y30.322Z0F800
G1 X60.174Y29.944Z0F800
G1 X60.022Y29.559Z0F800

; Color 1 picking sequence
G1 Z10 F500;         ; Raise brush to safe height
G0 X2 Y0 F1000;     ; Rapid move to brush cleaning position
G1 Z0 F500;         ; Lower brush for cleaning - controlled movement
G1 Z2 F500;         ; Raise brush slightly - controlled movement
G1 X22 Y0 Z8 F500;     ; Move across cleaning area - controlled movement
G1 Z8 F500;         ; Maintain brush height - controlled movement
G0 X41 Y0 F1200;    ; Rapid move to color 1 position
G1 Z0 F500;         ; Lower into color - controlled movement
G1 X35 Y1 F500;     ; Small movement in paint - controlled movement
G1 Z7 F500;         ; Raise from color - controlled movement
G1 X38 Y1 F500;     ; Movement in paint - controlled movement
G1 Z1 F500;         ; Lower slightly - controlled movement
G1 X27 Y10 Z8 F500;     ; Move in paint - controlled movement
G1 Z8 F500;         ; Raise brush - controlled movement
G1 F1000;           ; Set feed rate to 1000
G0 Z2.8F500
G0 X65.858Y39.32Z2.8F1000
G1 Z0F500
G1 X65.931Y39.302Z0F800
G1 X65.97Y39.296Z0F800
G1 X66.066Y39.285Z0F800
G1 X66.185Y39.277Z0F800
G1 X66.491Y39.265Z0F800
G1 X66.88Y39.257Z0F800
G1 X67.337Y39.254Z0F800
G1 X67.847Z0F800
G1 X68.966Y39.265Z0F800
G1 X70.117Y39.282Z0F800
G1 X72.03Y39.314Z0F800
G1 X72.546Y39.32Z0F800
G1 Y39.584Z0F800
G1 X72.333Z0F800
G1 X70.111Y39.545Z0F800
G1 X68.962Y39.529Z0F800
G1 X68.392Y39.523Z0F800
G1 X67.846Y39.52Z0F800
G1 X67.338Z0F800
G1 X66.884Y39.523Z0F800
G1 X66.499Y39.53Z0F800
G1 X66.2Y39.543Z0F800
G1 X66.089Y39.55Z0F800
G1 X66.007Y39.558Z0F800
G1 X65.962Y39.566Z0F800
G1 X65.696Y39.809Z0F800
G1 X65.4Y40.047Z0F800
G1 X65.078Y40.281Z0F800
G1 X64.733Y40.512Z0F800
G1 X63.992Y40.971Z0F800
G1 X63.206Y41.433Z0F800
G1 X62.401Y41.912Z0F800
G1 X61.621Y42.409Z0F800
G1 X60.901Y42.93Z0F800
G1 X60.275Y43.48Z0F800
G1 X60.155Y43.641Z0F800
G1 X60.061Y43.839Z0F800
G1 X59.974Y44.059Z0F800
G1 X59.876Y44.289Z0F800
G1 X59.888Y44.372Z0F800
G1 X59.905Y44.478Z0F800
G1 X59.912Y44.549Z0F800
G1 X59.909Y44.627Z0F800
G1 X59.89Y44.707Z0F800
G1 X59.847Y44.785Z0F800
G1 X59.531Y45.15Z0F800
G1 X59.186Y45.477Z0F800
G1 X58.84Y45.79Z0F800
G1 X58.519Y46.113Z0F800
G1 X57.287Y47.547Z0F800
G1 X56.071Y49.001Z0F800
G1 X55.868Y48.83Z0F800
G1 X57.083Y47.377Z0F800
G1 X58.321Y45.937Z0F800
G1 X58.658Y45.596Z0F800
G1 X59.006Y45.278Z0F800
G1 X59.341Y44.962Z0F800
G1 X59.636Y44.624Z0F800
G1 X59.648Y44.588Z0F800
G1 X59.644Y44.515Z0F800
G1 X59.623Y44.403Z0F800
G1 X59.609Y44.265Z0F800
G1 Y44.234Z0F800
G1 X59.622Y44.207Z0F800
G1 X59.713Y43.989Z0F800
G1 X59.803Y43.751Z0F800
G1 X59.919Y43.512Z0F800
G1 X60.087Y43.293Z0F800
G1 X60.736Y42.721Z0F800
G1 X61.473Y42.188Z0F800
G1 X62.263Y41.685Z0F800
G1 X63.072Y41.205Z0F800
G1 X63.866Y40.737Z0F800
G1 X64.61Y40.277Z0F800
G1 X64.952Y40.048Z0F800
G1 X65.268Y39.819Z0F800
G1 X65.554Y39.589Z0F800
G1 X65.806Y39.357Z0F800
G1 X65.858Y39.32Z0F800

; Color 1 picking sequence
G1 Z10 F500;         ; Raise brush to safe height
G0 X2 Y0 F1000;     ; Rapid move to brush cleaning position
G1 Z0 F500;         ; Lower brush for cleaning - controlled movement
G1 Z2 F500;         ; Raise brush slightly - controlled movement
G1 X22 Y0 Z8 F500;     ; Move across cleaning area - controlled movement
G1 Z8 F500;         ; Maintain brush height - controlled movement
G0 X41 Y0 F1200;    ; Rapid move to color 1 position
G1 Z0 F500;         ; Lower into color - controlled movement
G1 X35 Y1 F500;     ; Small movement in paint - controlled movement
G1 Z7 F500;         ; Raise from color - controlled movement
G1 X38 Y1 F500;     ; Movement in paint - controlled movement
G1 Z1 F500;         ; Lower slightly - controlled movement
G1 X27 Y10 Z8 F500;     ; Move in paint - controlled movement
G1 Z8 F500;         ; Raise brush - controlled movement
G1 F1000;           ; Set feed rate to 1000
G0 Z2.8F500
G0 X79.901Y45.481Z2.8F1000
G1 Z0F500
G1 X81.407Y45.876Z0F800
G1 X82.926Y46.209Z0F800
G1 X84.454Y46.508Z0F800
G1 X85.989Y46.799Z0F800
G1 X87.526Y47.112Z0F800
G1 X89.063Y47.475Z0F800
G1 X89.831Y47.684Z0F800
G1 X90.597Y47.916Z0F800
G1 X91.361Y48.174Z0F800
G1 X92.123Y48.462Z0F800
G1 X92.159Y48.479Z0F800
G1 X92.187Y48.503Z0F800
G1 X93.03Y49.349Z0F800
G1 X93.103Y49.353Z0F800
G1 X93.237Y49.327Z0F800
G1 X93.325Y49.306Z0F800
G1 X93.423Y49.294Z0F800
G1 X93.536Y49.306Z0F800
G1 X93.648Y49.361Z0F800
G1 X93.692Y49.429Z0F800
G1 X93.698Y49.47Z0F800
G1 X93.687Y49.523Z0F800
G1 X93.669Y49.567Z0F800
G1 X93.603Y49.694Z0F800
G1 X93.538Y49.814Z0F800
G1 X93.359Y50.133Z0F800
G1 X93.122Y50.546Z0F800
G1 X92.512Y51.593Z0F800
G1 X91.79Y52.82Z0F800
G1 X91.034Y54.094Z0F800
G1 X90.325Y55.282Z0F800
G1 X89.742Y56.253Z0F800
G1 X89.364Y56.874Z0F800
G1 X89.138Y56.734Z0F800
G1 X89.784Y55.668Z0F800
G1 X90.806Y53.959Z0F800
G1 X91.562Y52.685Z0F800
G1 X92.283Y51.459Z0F800
G1 X92.892Y50.414Z0F800
G1 X93.129Y50.001Z0F800
G1 X93.308Y49.685Z0F800
G1 X93.368Y49.57Z0F800
G1 X93.337Y49.576Z0F800
G1 X93.214Y49.606Z0F800
G1 X93.115Y49.623Z0F800
G1 X93.007Y49.62Z0F800
G1 X92.895Y49.579Z0F800
G1 X92.874Y49.565Z0F800
G1 X92.127Y48.817Z0F800
G1 X92.012Y48.704Z0F800
G1 X91.26Y48.42Z0F800
G1 X90.505Y48.166Z0F800
G1 X89.747Y47.938Z0F800
G1 X88.986Y47.731Z0F800
G1 X87.46Y47.372Z0F800
G1 X85.93Y47.061Z0F800
G1 X84.398Y46.769Z0F800
G1 X82.868Y46.469Z0F800
G1 X81.343Y46.134Z0F800
G1 X79.827Y45.735Z0F800
G1 X79.901Y45.481Z0F800

; Color 1 picking sequence
G1 Z10 F500;         ; Raise brush to safe height
G0 X2 Y0 F1000;     ; Rapid move to brush cleaning position
G1 Z0 F500;         ; Lower brush for cleaning - controlled movement
G1 Z2 F500;         ; Raise brush slightly - controlled movement
G1 X22 Y0 Z8 F500;     ; Move across cleaning area - controlled movement
G1 Z8 F500;         ; Maintain brush height - controlled movement
G0 X41 Y0 F1200;    ; Rapid move to color 1 position
G1 Z0 F500;         ; Lower into color - controlled movement
G1 X35 Y1 F500;     ; Small movement in paint - controlled movement
G1 Z7 F500;         ; Raise from color - controlled movement
G1 X38 Y1 F500;     ; Movement in paint - controlled movement
G1 Z1 F500;         ; Lower slightly - controlled movement
G1 X27 Y10 Z8 F500;     ; Move in paint - controlled movement
G1 Z8 F500;         ; Raise brush - controlled movement
G1 F1000;           ; Set feed rate to 1000
G0 Z2.8F500
G0 X67.178Y56.865Z2.8F1000
G1 Z0F500
G1 X67.358Y57.037Z0F800
G1 X67.145Y57.195Z0F800
G1 X67.026Y57.082Z0F800
G1 X66.865Y57.009Z0F800
G1 X66.664Y56.971Z0F800
G1 X66.423Y56.966Z0F800
G1 X65.848Y57.039Z0F800
G1 X65.206Y57.177Z0F800
G1 X64.55Y57.326Z0F800
G1 X63.925Y57.427Z0F800
G1 X63.634Y57.442Z0F800
G1 X63.364Y57.419Z0F800
G1 X63.123Y57.348Z0F800
G1 X62.917Y57.214Z0F800
G1 X62.841Y57.121Z0F800
G1 X62.794Y57.021Z0F800
G1 X62.767Y56.921Z0F800
G1 X62.747Y56.83Z0F800
G1 X62.726Y56.751Z0F800
G1 X62.704Y56.693Z0F800
G1 X62.684Y56.66Z0F800
G1 X62.661Y56.644Z0F800
G1 X62.509Y56.599Z0F800
G1 X62.326Y56.578Z0F800
G1 X62.126Y56.567Z0F800
G1 X61.921Y56.554Z0F800
G1 X61.721Y56.519Z0F800
G1 X61.538Y56.429Z0F800
G1 X61.462Y56.353Z0F800
G1 X61.406Y56.255Z0F800
G1 X61.371Y56.139Z0F800
G1 X61.358Y56.007Z0F800
G1 X61.622Z0F800
G1 X61.643Y56.148Z0F800
G1 X61.698Y56.218Z0F800
G1 X61.796Y56.264Z0F800
G1 X61.946Y56.291Z0F800
G1 X62.134Y56.299Z0F800
G1 X62.343Y56.307Z0F800
G1 X62.561Y56.334Z0F800
G1 X62.774Y56.404Z0F800
G1 X62.877Y56.48Z0F800
G1 X62.942Y56.578Z0F800
G1 X62.981Y56.675Z0F800
G1 X63.047Y56.927Z0F800
G1 X63.095Y57.017Z0F800
G1 X63.234Y57.104Z0F800
G1 X63.417Y57.156Z0F800
G1 X63.64Y57.175Z0F800
G1 X63.899Y57.164Z0F800
G1 X64.496Y57.067Z0F800
G1 X65.474Y56.844Z0F800
G1 X65.798Y56.778Z0F800
G1 X66.112Y56.728Z0F800
G1 X66.411Y56.703Z0F800
G1 X66.693Y56.709Z0F800
G1 X66.953Y56.76Z0F800
G1 X67.178Y56.865Z0F800
G0 Z2.8F500
G0 X70.503Y61.517Z2.8F1000
G1 Z0F500
G1 X71.156Y61.866Z0F800
G1 X71.817Y62.153Z0F800
G1 X72.488Y62.385Z0F800
G1 X73.166Y62.57Z0F800
G1 X73.85Y62.715Z0F800
G1 X74.54Y62.827Z0F800
G1 X75.235Y62.914Z0F800
G1 X75.935Y62.984Z0F800
G1 X77.341Y63.101Z0F800
G1 X78.749Y63.241Z0F800
G1 X79.451Y63.338Z0F800
G1 X80.15Y63.464Z0F800
G1 X80.845Y63.627Z0F800
G1 X81.534Y63.833Z0F800
G1 X82.061Y63.956Z0F800
G1 X82.616Y63.997Z0F800
G1 X83.191Y63.986Z0F800
G1 X83.778Y63.951Z0F800
G1 X84.371Y63.92Z0F800
G1 X84.96Y63.926Z0F800
G1 X85.251Y63.952Z0F800
G1 X85.537Y64.001Z0F800
G1 X85.818Y64.075Z0F800
G1 X86.093Y64.179Z0F800
G1 X86.221Y64.224Z0F800
G1 X86.382Y64.263Z0F800
G1 X86.569Y64.298Z0F800
G1 X86.777Y64.329Z0F800
G1 X87.233Y64.393Z0F800
G1 X87.702Y64.468Z0F800
G1 X87.929Y64.516Z0F800
G1 X88.145Y64.575Z0F800
G1 X88.346Y64.649Z0F800
G1 X88.528Y64.742Z0F800
G1 X88.687Y64.86Z0F800
G1 X88.812Y65.009Z0F800
G1 X88.895Y65.185Z0F800
G1 X88.925Y65.388Z0F800
G1 X88.661Z0F800
G1 X88.644Y65.256Z0F800
G1 X88.594Y65.146Z0F800
G1 X88.509Y65.052Z0F800
G1 X88.392Y64.968Z0F800
G1 X88.066Y64.828Z0F800
G1 X87.653Y64.728Z0F800
G1 X87.201Y64.659Z0F800
G1 X86.749Y64.6Z0F800
G1 X86.332Y64.529Z0F800
G1 X85.985Y64.421Z0F800
G1 X85.48Y64.261Z0F800
G1 X84.942Y64.191Z0F800
G1 X84.378Y64.185Z0F800
G1 X83.796Y64.214Z0F800
G1 X83.203Y64.251Z0F800
G1 X82.609Y64.263Z0F800
G1 X82.021Y64.218Z0F800
G1 X81.448Y64.083Z0F800
G1 X80.776Y63.882Z0F800
G1 X80.095Y63.723Z0F800
G1 X79.408Y63.6Z0F800
G1 X78.716Y63.504Z0F800
G1 X77.318Y63.365Z0F800
G1 X75.911Y63.247Z0F800
G1 X75.207Y63.177Z0F800
G1 X74.503Y63.089Z0F800
G1 X73.801Y62.975Z0F800
G1 X73.103Y62.827Z0F800
G1 X72.409Y62.638Z0F800
G1 X71.721Y62.4Z0F800
G1 X71.04Y62.105Z0F800
G1 X70.368Y61.746Z0F800
G1 X70.503Y61.517Z0F800

; Color 1 picking sequence
G1 Z10 F500;         ; Raise brush to safe height
G0 X2 Y0 F1000;     ; Rapid move to brush cleaning position
G1 Z0 F500;         ; Lower brush for cleaning - controlled movement
G1 Z2 F500;         ; Raise brush slightly - controlled movement
G1 X22 Y0 Z8 F500;     ; Move across cleaning area - controlled movement
G1 Z8 F500;         ; Maintain brush height - controlled movement
G0 X41 Y0 F1200;    ; Rapid move to color 1 position
G1 Z0 F500;         ; Lower into color - controlled movement
G1 X35 Y1 F500;     ; Small movement in paint - controlled movement
G1 Z7 F500;         ; Raise from color - controlled movement
G1 X38 Y1 F500;     ; Movement in paint - controlled movement
G1 Z1 F500;         ; Lower slightly - controlled movement
G1 X27 Y10 Z8 F500;     ; Move in paint - controlled movement
G1 Z8 F500;         ; Raise brush - controlled movement
G1 F1000;           ; Set feed rate to 1000
G0 Z2.8F500
G0 X69.28Y62.99Z2.8F1000
G1 Z0F500
G1 X68.998Y63.9Z0F800
G1 X68.687Y64.829Z0F800
G1 X68.346Y65.758Z0F800
G1 X67.978Y66.67Z0F800
G1 X67.581Y67.548Z0F800
G1 X67.158Y68.373Z0F800
G1 X66.708Y69.128Z0F800
G1 X66.231Y69.795Z0F800
G1 X66.206Y69.82Z0F800
G1 X66.155Y69.846Z0F800
G1 X66.106Y69.859Z0F800
G1 X66.049Y69.869Z0F800
G1 X65.979Y69.879Z0F800
G1 X65.797Y69.897Z0F800
G1 X65.559Y69.916Z0F800
G1 X65.268Y69.934Z0F800
G1 X64.929Y69.953Z0F800
G1 X64.545Y69.971Z0F800
G1 X63.659Y70.009Z0F800
G1 X62.647Y70.046Z0F800
G1 X60.969Y70.099Z0F800
G1 X59.796Y70.133Z0F800
G1 X57.476Y70.194Z0F800
G1 X55.427Y70.242Z0F800
G1 X53.933Y70.274Z0F800
G1 X53.264Y70.285Z0F800
G1 X51.477Y70.241Z0F800
G1 X49.732Y70.138Z0F800
G1 X48.005Y70.016Z0F800
G1 X46.274Y69.916Z0F800
G1 X47.833Y70.977Z0F800
G1 X49.348Y72.125Z0F800
G1 X50.118Y72.666Z0F800
G1 X50.911Y73.149Z0F800
G1 X51.319Y73.361Z0F800
G1 X51.738Y73.549Z0F800
G1 X52.167Y73.709Z0F800
G1 X52.61Y73.838Z0F800
G1 X53.434Y74.022Z0F800
G1 X54.275Y74.169Z0F800
G1 X55.129Y74.282Z0F800
G1 X55.996Y74.364Z0F800
G1 X57.759Y74.453Z0F800
G1 X59.548Y74.462Z0F800
G1 X61.347Y74.421Z0F800
G1 X63.142Y74.358Z0F800
G1 X64.916Y74.299Z0F800
G1 X66.655Y74.273Z0F800
G1 X66.806Y74.279Z0F800
G1 X67.325Y74.314Z0F800
G1 X67.64Y74.331Z0F800
G1 X67.949Y74.342Z0F800
G1 X68.216Y74.339Z0F800
G1 X68.322Y74.332Z0F800
G1 X68.401Y74.32Z0F800
G1 X68.438Y74.305Z0F800
G1 X68.421Y74.33Z0F800
G1 X68.477Y74.223Z0F800
G1 X68.516Y74.09Z0F800
G1 X68.538Y73.935Z0F800
G1 X68.546Y73.762Z0F800
G1 X68.527Y73.371Z0F800
G1 X68.474Y72.943Z0F800
G1 X68.405Y72.504Z0F800
G1 X68.35Y72.073Z0F800
G1 X68.34Y71.67Z0F800
G1 X68.403Y71.31Z0F800
G1 X68.61Y70.84Z0F800
G1 X69.105Y69.985Z0F800
G1 X69.282Y69.557Z0F800
G1 X69.359Y69.199Z0F800
G1 X69.395Y68.832Z0F800
G1 X69.398Y68.458Z0F800
G1 X69.38Y68.076Z0F800
G1 X69.315Y67.3Z0F800
G1 X69.276Y66.514Z0F800
G1 X69.28Y62.99Z0F800

; Color 1 picking sequence
G1 Z10 F500;         ; Raise brush to safe height
G0 X2 Y0 F1000;     ; Rapid move to brush cleaning position
G1 Z0 F500;         ; Lower brush for cleaning - controlled movement
G1 Z2 F500;         ; Raise brush slightly - controlled movement
G1 X22 Y0 Z8 F500;     ; Move across cleaning area - controlled movement
G1 Z8 F500;         ; Maintain brush height - controlled movement
G0 X41 Y0 F1200;    ; Rapid move to color 1 position
G1 Z0 F500;         ; Lower into color - controlled movement
G1 X35 Y1 F500;     ; Small movement in paint - controlled movement
G1 Z7 F500;         ; Raise from color - controlled movement
G1 X38 Y1 F500;     ; Movement in paint - controlled movement
G1 Z1 F500;         ; Lower slightly - controlled movement
G1 X27 Y10 Z8 F500;     ; Move in paint - controlled movement
G1 Z8 F500;         ; Raise brush - controlled movement
G1 F1000;           ; Set feed rate to 1000
G0 Z2.8F500
G0 X63.808Y62.376Z2.8F1000
G1 Z0F500
G1 X63.667Y62.601Z0F800
G1 X61.056Y60.982Z0F800
G1 Y60.908Z0F800
G1 X61.071Y60.772Z0F800
G1 X61.093Y60.665Z0F800
G1 X61.098Y60.607Z0F800
G1 X61.093Y60.591Z0F800
G1 X60.978Y60.499Z0F800
G1 X60.838Y60.425Z0F800
G1 X60.676Y60.365Z0F800
G1 X60.495Y60.316Z0F800
G1 X60.094Y60.229Z0F800
G1 X59.673Y60.117Z0F800
G1 X59.466Y60.035Z0F800
G1 X59.267Y59.926Z0F800
G1 X59.084Y59.783Z0F800
G1 X58.923Y59.601Z0F800
G1 X58.79Y59.374Z0F800
G1 X58.69Y59.101Z0F800
G1 X58.628Y58.775Z0F800
G1 X58.606Y58.394Z0F800
G1 X58.872Z0F800
G1 X58.891Y58.743Z0F800
G1 X58.945Y59.029Z0F800
G1 X59.028Y59.261Z0F800
G1 X59.136Y59.445Z0F800
G1 X59.264Y59.59Z0F800
G1 X59.413Y59.705Z0F800
G1 X59.578Y59.796Z0F800
G1 X59.759Y59.867Z0F800
G1 X60.151Y59.971Z0F800
G1 X60.558Y60.06Z0F800
G1 X60.756Y60.114Z0F800
G1 X60.947Y60.183Z0F800
G1 X61.123Y60.277Z0F800
G1 X61.28Y60.404Z0F800
G1 X61.333Y60.478Z0F800
G1 X61.357Y60.558Z0F800
G1 X61.362Y60.637Z0F800
G1 X61.355Y60.708Z0F800
G1 X61.331Y60.841Z0F800
G1 X63.808Y62.376Z0F800
G0 Z2.8F500
G0 X57.218Y65.826Z2.8F1000
G1 Z0F500
G1 X57.192Y66.089Z0F800
G1 X56.922Y66.051Z0F800
G1 X56.667Y65.989Z0F800
G1 X56.426Y65.906Z0F800
G1 X56.2Y65.803Z0F800
G1 X55.789Y65.546Z0F800
G1 X55.427Y65.232Z0F800
G1 X55.109Y64.874Z0F800
G1 X54.827Y64.486Z0F800
G1 X54.573Y64.079Z0F800
G1 X54.341Y63.665Z0F800
G1 X53.913Y62.87Z0F800
G1 X53.707Y62.512Z0F800
G1 X53.497Y62.197Z0F800
G1 X53.283Y61.938Z0F800
G1 X53.059Y61.745Z0F800
G1 X52.818Y61.625Z0F800
G1 X52.552Y61.583Z0F800
G1 Y61.32Z0F800
G1 X52.728Y61.334Z0F800
G1 X52.894Y61.373Z0F800
G1 X53.05Y61.437Z0F800
G1 X53.198Y61.523Z0F800
G1 X53.468Y61.75Z0F800
G1 X53.71Y62.039Z0F800
G1 X53.933Y62.373Z0F800
G1 X54.146Y62.742Z0F800
G1 X54.573Y63.54Z0F800
G1 X54.801Y63.946Z0F800
G1 X55.047Y64.339Z0F800
G1 X55.316Y64.709Z0F800
G1 X55.614Y65.044Z0F800
G1 X55.946Y65.334Z0F800
G1 X56.319Y65.568Z0F800
G1 X56.74Y65.735Z0F800
G1 X57.218Y65.826Z0F800
G0 Z2.8F500
G0 X49.278Y64.273Z2.8F1000
G1 Z0F500
G1 X49.046Y64.404Z0F800
G1 X48.699Y63.74Z0F800
G1 X48.422Y63.124Z0F800
G1 X48.202Y62.549Z0F800
G1 X48.021Y62.009Z0F800
G1 X47.718Y61.004Z0F800
G1 X47.39Y60.056Z0F800
G1 X47.634Y59.957Z0F800
G1 X47.971Y60.924Z0F800
G1 X48.274Y61.924Z0F800
G1 X48.452Y62.457Z0F800
G1 X48.668Y63.02Z0F800
G1 X48.938Y63.623Z0F800
G1 X49.278Y64.273Z0F800

; Color 1 picking sequence
G1 Z10 F500;         ; Raise brush to safe height
G0 X2 Y0 F1000;     ; Rapid move to brush cleaning position
G1 Z0 F500;         ; Lower brush for cleaning - controlled movement
G1 Z2 F500;         ; Raise brush slightly - controlled movement
G1 X22 Y0 Z8 F500;     ; Move across cleaning area - controlled movement
G1 Z8 F500;         ; Maintain brush height - controlled movement
G0 X41 Y0 F1200;    ; Rapid move to color 1 position
G1 Z0 F500;         ; Lower into color - controlled movement
G1 X35 Y1 F500;     ; Small movement in paint - controlled movement
G1 Z7 F500;         ; Raise from color - controlled movement
G1 X38 Y1 F500;     ; Movement in paint - controlled movement
G1 Z1 F500;         ; Lower slightly - controlled movement
G1 X27 Y10 Z8 F500;     ; Move in paint - controlled movement
G1 Z8 F500;         ; Raise brush - controlled movement
G1 F1000;           ; Set feed rate to 1000
G0 Z2.8F500
G0 X45.202Y60.623Z2.8F1000
G1 Z0F500
G1 X43.749Y60.627Z0F800
G1 X42.285Z0F800
G1 X40.826Y60.591Z0F800
G1 X39.384Y60.501Z0F800
G1 X38.673Y60.427Z0F800
G1 X37.971Y60.33Z0F800
G1 X37.28Y60.206Z0F800
G1 X36.602Y60.054Z0F800
G1 X35.938Y59.868Z0F800
G1 X35.289Y59.648Z0F800
G1 X34.658Y59.388Z0F800
G1 X34.046Y59.087Z0F800
G1 X33.894Y59.03Z0F800
G1 X33.71Y58.995Z0F800
G1 X33.502Y58.975Z0F800
G1 X33.053Y58.955Z0F800
G1 X32.827Y58.936Z0F800
G1 X32.61Y58.892Z0F800
G1 X32.409Y58.81Z0F800
G1 X31.68Y58.358Z0F800
G1 X30.998Y57.879Z0F800
G1 X30.323Y57.409Z0F800
G1 X29.614Y56.984Z0F800
G1 X29.442Y56.918Z0F800
G1 X29.25Y56.887Z0F800
G1 X29.039Z0F800
G1 X28.812Y56.915Z0F800
G1 X28.32Y57.028Z0F800
G1 X27.802Y57.175Z0F800
G1 X27.54Y57.246Z0F800
G1 X27.28Y57.304Z0F800
G1 X27.023Y57.343Z0F800
G1 X26.771Y57.355Z0F800
G1 X26.524Y57.329Z0F800
G1 X26.289Y57.257Z0F800
G1 X26.071Y57.133Z0F800
G1 X25.878Y56.951Z0F800
G1 X26.081Y56.783Z0F800
G1 X26.229Y56.925Z0F800
G1 X26.393Y57.018Z0F800
G1 X26.575Y57.071Z0F800
G1 X26.776Y57.089Z0F800
G1 X26.996Y57.079Z0F800
G1 X27.23Y57.044Z0F800
G1 X27.476Y56.989Z0F800
G1 X27.73Y56.921Z0F800
G1 X28.249Y56.773Z0F800
G1 X28.769Y56.654Z0F800
G1 X29.023Y56.623Z0F800
G1 X29.272Z0F800
G1 X29.511Y56.661Z0F800
G1 X29.737Y56.749Z0F800
G1 X30.468Y57.186Z0F800
G1 X31.152Y57.66Z0F800
G1 X31.828Y58.136Z0F800
G1 X32.538Y58.578Z0F800
G1 X32.683Y58.634Z0F800
G1 X32.864Y58.67Z0F800
G1 X33.069Y58.69Z0F800
G1 X33.518Y58.71Z0F800
G1 X33.746Y58.73Z0F800
G1 X33.966Y58.773Z0F800
G1 X34.171Y58.855Z0F800
G1 X34.767Y59.148Z0F800
G1 X35.383Y59.4Z0F800
G1 X36.017Y59.615Z0F800
G1 X36.668Y59.796Z0F800
G1 X37.335Y59.945Z0F800
G1 X38.015Y60.066Z0F800
G1 X38.707Y60.161Z0F800
G1 X39.409Y60.234Z0F800
G1 X40.838Y60.323Z0F800
G1 X42.289Y60.358Z0F800
G1 X43.748Y60.361Z0F800
G1 X45.202Y60.357Z0F800
G1 Y60.623Z0F800
G0 Z2.8F500
G0 X50.718Y56.716Z2.8F1000
G1 Z0F500
G1 X50.351Y56.356Z0F800
G1 X49.968Y55.996Z0F800
G1 X49.598Y55.613Z0F800
G1 X49.274Y55.183Z0F800
G1 X49.236Y55.104Z0F800
G1 X49.106Y54.706Z0F800
G1 X48.843Y53.857Z0F800
G1 X48.698Y53.406Z0F800
G1 X48.56Y53.005Z0F800
G1 X48.497Y52.84Z0F800
G1 X48.44Y52.708Z0F800
G1 X48.378Y52.593Z0F800
G1 X47.961Y52.259Z0F800
G1 X47.502Y51.911Z0F800
G1 X47.063Y51.548Z0F800
G1 X46.704Y51.165Z0F800
G1 X46.915Y51.005Z0F800
G1 X47.239Y51.346Z0F800
G1 X47.661Y51.693Z0F800
G1 X48.12Y52.044Z0F800
G1 X48.552Y52.394Z0F800
G1 X48.626Y52.485Z0F800
G1 X48.681Y52.597Z0F800
G1 X48.742Y52.741Z0F800
G1 X48.808Y52.914Z0F800
G1 X48.949Y53.322Z0F800
G1 X49.095Y53.777Z0F800
G1 X49.358Y54.626Z0F800
G1 X49.454Y54.923Z0F800
G1 X49.499Y55.042Z0F800
G1 X49.799Y55.438Z0F800
G1 X50.153Y55.804Z0F800
G1 X50.533Y56.162Z0F800
G1 X50.909Y56.535Z0F800
G1 X50.718Y56.716Z0F800

; Color 1 picking sequence
G1 Z10 F500;         ; Raise brush to safe height
G0 X2 Y0 F1000;     ; Rapid move to brush cleaning position
G1 Z0 F500;         ; Lower brush for cleaning - controlled movement
G1 Z2 F500;         ; Raise brush slightly - controlled movement
G1 X22 Y0 Z8 F500;     ; Move across cleaning area - controlled movement
G1 Z8 F500;         ; Maintain brush height - controlled movement
G0 X41 Y0 F1200;    ; Rapid move to color 1 position
G1 Z0 F500;         ; Lower into color - controlled movement
G1 X35 Y1 F500;     ; Small movement in paint - controlled movement
G1 Z7 F500;         ; Raise from color - controlled movement
G1 X38 Y1 F500;     ; Movement in paint - controlled movement
G1 Z1 F500;         ; Lower slightly - controlled movement
G1 X27 Y10 Z8 F500;     ; Move in paint - controlled movement
G1 Z8 F500;         ; Raise brush - controlled movement
G1 F1000;           ; Set feed rate to 1000
G0 Z2.8F500
G0 X53.313Y55.657Z2.8F1000
G1 Z0F500
G1 X53.163Y55.428Z0F800
G1 X53.062Y55.186Z0F800
G1 X52.999Y54.937Z0F800
G1 X52.946Y54.443Z0F800
G1 X52.915Y53.982Z0F800
G1 X52.884Y53.776Z0F800
G1 X52.833Y53.594Z0F800
G1 X52.754Y53.434Z0F800
G1 X52.64Y53.3Z0F800
G1 X52.491Y53.184Z0F800
G1 X52.327Y53.086Z0F800
G1 X52.15Y52.998Z0F800
G1 X51.772Y52.825Z0F800
G1 X51.578Y52.724Z0F800
G1 X51.39Y52.601Z0F800
G1 X51.212Y52.449Z0F800
G1 X51.399Y52.261Z0F800
G1 X51.548Y52.389Z0F800
G1 X51.712Y52.495Z0F800
G1 X51.887Y52.588Z0F800
G1 X52.071Y52.673Z0F800
G1 X52.261Y52.759Z0F800
G1 X52.453Y52.854Z0F800
G1 X52.64Y52.966Z0F800
G1 X52.817Y53.105Z0F800
G1 X52.974Y53.288Z0F800
G1 X53.078Y53.496Z0F800
G1 X53.141Y53.72Z0F800
G1 X53.177Y53.953Z0F800
G1 X53.211Y54.428Z0F800
G1 X53.261Y54.89Z0F800
G1 X53.313Y55.105Z0F800
G1 X53.396Y55.305Z0F800
G1 X53.517Y55.489Z0F800
G1 X53.687Y55.656Z0F800
G1 X53.917Y55.804Z0F800
G1 X54.222Y55.93Z0F800
G1 X54.405Y55.982Z0F800
G1 X54.611Y56.027Z0F800
G1 X54.841Y56.063Z0F800
G1 X55.097Y56.089Z0F800
G1 X55.077Y56.353Z0F800
G1 X54.563Y56.287Z0F800
G1 X54.138Y56.181Z0F800
G1 X53.794Y56.039Z0F800
G1 X53.521Y55.863Z0F800
G1 X53.313Y55.657Z0F800
G0 Z2.8F500
G0 X59.59Y52.354Z2.8F1000
G1 Z0F500
G1 X59.495Y52.257Z0F800
G1 X59.204Y51.844Z0F800
G1 X58.854Y51.472Z0F800
G1 X58.451Y51.139Z0F800
G1 X58Y50.842Z0F800
G1 X57.505Y50.581Z0F800
G1 X56.971Y50.353Z0F800
G1 X56.404Y50.157Z0F800
G1 X55.808Y49.99Z0F800
G1 X55.188Y49.85Z0F800
G1 X54.55Y49.737Z0F800
G1 X53.9Y49.646Z0F800
G1 X53.243Y49.577Z0F800
G1 X51.928Y49.494Z0F800
G1 X50.647Y49.47Z0F800
G1 Y49.205Z0F800
G1 X51.938Y49.228Z0F800
G1 X53.266Y49.312Z0F800
G1 X53.932Y49.382Z0F800
G1 X54.591Y49.474Z0F800
G1 X55.24Y49.59Z0F800
G1 X55.872Y49.732Z0F800
G1 X56.483Y49.903Z0F800
G1 X57.069Y50.105Z0F800
G1 X57.623Y50.342Z0F800
G1 X58.139Y50.615Z0F800
G1 X58.613Y50.926Z0F800
G1 X59.039Y51.28Z0F800
G1 X59.411Y51.677Z0F800
G1 X59.724Y52.121Z0F800
G1 X59.742Y52.133Z0F800
G1 X59.811Y52.169Z0F800
G1 X59.927Y52.208Z0F800
G1 X60.077Y52.246Z0F800
G1 X60.454Y52.317Z0F800
G1 X60.893Y52.392Z0F800
G1 X61.353Y52.48Z0F800
G1 X61.794Y52.593Z0F800
G1 X61.996Y52.663Z0F800
G1 X62.179Y52.745Z0F800
G1 X62.34Y52.844Z0F800
G1 X62.474Y52.964Z0F800
G1 X62.546Y53.012Z0F800
G1 X62.676Y53.055Z0F800
G1 X62.855Y53.089Z0F800
G1 X63.077Y53.107Z0F800
G1 X63.611Y53.096Z0F800
G1 X64.214Y53.046Z0F800
G1 X64.83Y52.981Z0F800
G1 X65.407Y52.923Z0F800
G1 X65.664Y52.903Z0F800
G1 X65.894Y52.892Z0F800
G1 X66.094Y52.898Z0F800
G1 X66.263Y52.923Z0F800
G1 X66.77Y53.078Z0F800
G1 X67.228Y53.271Z0F800
G1 X67.648Y53.498Z0F800
G1 X68.038Y53.756Z0F800
G1 X68.769Y54.342Z0F800
G1 X69.497Y54.994Z0F800
G1 X69.54Y55.072Z0F800
G1 Y55.084Z0F800
G1 X69.544Y55.119Z0F800
G1 X69.547Y56.021Z0F800
G1 Y61.103Z0F800
G1 X69.573Y60.931Z0F800
G1 X69.599Y60.738Z0F800
G1 X69.625Y60.504Z0F800
G1 X69.652Y60.209Z0F800
G1 X69.687Y59.73Z0F800
G1 X69.718Y59.21Z0F800
G1 X69.745Y58.663Z0F800
G1 X69.765Y58.101Z0F800
G1 X69.776Y57.539Z0F800
G1 Y56.989Z0F800
G1 X69.769Y56.465Z0F800
G1 X69.747Y55.982Z0F800
G1 X69.713Y55.554Z0F800
G1 X69.663Y55.195Z0F800
G1 X69.632Y55.046Z0F800
G1 X69.597Y54.922Z0F800
G1 X69.561Y54.825Z0F800
G1 X69.526Y54.759Z0F800
G1 X69.412Y54.596Z0F800
G1 X69.275Y54.411Z0F800
G1 X69.115Y54.208Z0F800
G1 X68.935Y53.987Z0F800
G1 X68.52Y53.498Z0F800
G1 X68.039Y52.956Z0F800
G1 X67.505Y52.372Z0F800
G1 X66.928Y51.758Z0F800
G1 X66.319Y51.126Z0F800
G1 X65.691Y50.487Z0F800
G1 X65.053Y49.853Z0F800
G1 X64.418Y49.235Z0F800
G1 X63.796Y48.645Z0F800
G1 X63.198Y48.093Z0F800
G1 X62.637Y47.593Z0F800
G1 X62.122Y47.155Z0F800
G1 X61.886Y46.963Z0F800
G1 X61.665Y46.79Z0F800
G1 X61.463Y46.64Z0F800
G1 X61.278Y46.511Z0F800
G1 X61.182Y46.457Z0F800
G1 X61.055Y46.401Z0F800
G1 X60.9Y46.342Z0F800
G1 X60.722Y46.283Z0F800
G1 X60.315Y46.164Z0F800
G1 X59.868Y46.051Z0F800
G1 X58.981Y45.845Z0F800
G1 X58.596Y45.751Z0F800
G1 X58.286Y45.664Z0F800
G1 X58.194Y45.643Z0F800
G1 X58.041Y45.619Z0F800
G1 X57.834Y45.595Z0F800
G1 X57.581Y45.572Z0F800
G1 X57.289Y45.551Z0F800
G1 X56.958Y45.531Z0F800
G1 X56.593Y45.513Z0F800
G1 X56.196Y45.496Z0F800
G1 X55.324Y45.466Z0F800
G1 X54.369Y45.443Z0F800
G1 X53.357Y45.426Z0F800
G1 X52.316Y45.418Z0F800
G1 X51.272Z0F800
G1 X50.252Y45.425Z0F800
G1 X49.285Y45.441Z0F800
G1 X48.396Y45.466Z0F800
G1 X47.989Y45.483Z0F800
G1 X47.612Y45.502Z0F800
G1 X47.268Y45.523Z0F800
G1 X46.962Y45.547Z0F800
G1 X46.695Y45.574Z0F800
G1 X46.473Y45.604Z0F800
G1 X46.303Y45.634Z0F800
G1 X46.191Y45.664Z0F800
G1 X45.759Y45.831Z0F800
G1 X45.284Y46.043Z0F800
G1 X44.773Y46.299Z0F800
G1 X44.235Y46.592Z0F800
G1 X43.68Y46.921Z0F800
G1 X43.115Y47.28Z0F800
G1 X42.55Y47.666Z0F800
G1 X41.993Y48.076Z0F800
G1 X41.454Y48.505Z0F800
G1 X40.939Y48.951Z0F800
G1 X40.458Y49.407Z0F800
G1 X40.02Y49.871Z0F800
G1 X39.631Y50.338Z0F800
G1 X39.301Y50.803Z0F800
G1 X39.038Y51.262Z0F800
G1 X38.851Y51.711Z0F800
G1 X38.633Y52.515Z0F800
G1 X38.49Y53.359Z0F800
G1 X38.409Y54.232Z0F800
G1 X38.374Y55.125Z0F800
G1 X38.389Y56.933Z0F800
G1 X38.419Y58.707Z0F800
G1 X38.423Y59.733Z0F800
G1 X38.446Y60.719Z0F800
G1 X38.511Y61.669Z0F800
G1 X38.636Y62.591Z0F800
G1 X38.728Y63.043Z0F800
G1 X38.843Y63.489Z0F800
G1 X38.983Y63.932Z0F800
G1 X39.151Y64.371Z0F800
G1 X39.349Y64.807Z0F800
G1 X39.58Y65.241Z0F800
G1 X39.847Y65.675Z0F800
G1 X40.151Y66.107Z0F800
G1 X40.532Y66.561Z0F800
G1 X40.95Y66.966Z0F800
G1 X41.4Y67.328Z0F800
G1 X41.876Y67.654Z0F800
G1 X42.889Y68.221Z0F800
G1 X43.944Y68.717Z0F800
G1 X43.938Y68.666Z0F800
G1 X43.93Y67.842Z0F800
G1 X43.964Y66.945Z0F800
G1 X44.019Y66.059Z0F800
G1 X44.081Y65.269Z0F800
G1 X44.148Y64.451Z0F800
G1 X44.153Y64.33Z0F800
G1 Y63.177Z0F800
G1 X44.158Y62.051Z0F800
G1 X44.174Y60.952Z0F800
G1 X44.208Y59.876Z0F800
G1 X44.266Y58.822Z0F800
G1 X44.355Y57.788Z0F800
G1 X44.481Y56.773Z0F800
G1 X44.652Y55.774Z0F800
G1 X44.874Y54.79Z0F800
G1 X45.153Y53.818Z0F800
G1 X45.496Y52.857Z0F800
G1 X45.909Y51.905Z0F800
G1 X46.4Y50.96Z0F800
G1 X46.975Y50.02Z0F800
G1 X47.639Y49.083Z0F800
G1 X48.401Y48.148Z0F800
G1 X48.603Y48.322Z0F800
G1 X47.851Y49.244Z0F800
G1 X47.195Y50.167Z0F800
G1 X46.629Y51.092Z0F800
G1 X46.145Y52.023Z0F800
G1 X45.737Y52.96Z0F800
G1 X45.399Y53.907Z0F800
G1 X45.124Y54.864Z0F800
G1 X44.906Y55.835Z0F800
G1 X44.738Y56.821Z0F800
G1 X44.614Y57.825Z0F800
G1 X44.527Y58.848Z0F800
G1 X44.47Y59.893Z0F800
G1 X44.437Y60.961Z0F800
G1 X44.421Y62.055Z0F800
G1 X44.417Y63.178Z0F800
G1 Y64.33Z0F800
G1 X44.411Y64.474Z0F800
G1 X44.396Y64.686Z0F800
G1 X44.345Y65.291Z0F800
G1 X44.283Y66.078Z0F800
G1 X44.227Y66.959Z0F800
G1 X44.195Y67.846Z0F800
G1 X44.204Y68.652Z0F800
G1 X44.224Y68.847Z0F800
G1 X45.009Y69.2Z0F800
G1 X45.769Y69.562Z0F800
G1 X45.862Y69.629Z0F800
G1 X47.711Y69.722Z0F800
G1 X49.544Y69.853Z0F800
G1 X51.386Y69.969Z0F800
G1 X53.265Y70.019Z0F800
G1 X53.92Y70.008Z0F800
G1 X55.421Y69.976Z0F800
G1 X57.47Y69.927Z0F800
G1 X59.79Y69.867Z0F800
G1 X60.963Y69.833Z0F800
G1 X62.097Y69.798Z0F800
G1 X63.157Y69.761Z0F800
G1 X64.108Y69.724Z0F800
G1 X64.916Y69.687Z0F800
G1 X65.254Y69.668Z0F800
G1 X65.542Y69.65Z0F800
G1 X65.775Y69.632Z0F800
G1 X65.948Y69.615Z0F800
G1 X66.04Y69.601Z0F800
G1 X66.298Y69.253Z0F800
G1 X66.55Y68.875Z0F800
G1 X66.796Y68.469Z0F800
G1 X67.036Y68.038Z0F800
G1 X67.496Y67.116Z0F800
G1 X67.925Y66.134Z0F800
G1 X68.322Y65.119Z0F800
G1 X68.682Y64.097Z0F800
G1 X69.003Y63.092Z0F800
G1 X69.28Y62.132Z0F800
G1 Y60.244Z0F800
G1 Y55.525Z0F800
G1 Y55.206Z0F800
G1 Y55.156Z0F800
G1 X68.568Y54.52Z0F800
G1 X67.869Y53.96Z0F800
G1 X67.499Y53.718Z0F800
G1 X67.104Y53.504Z0F800
G1 X66.674Y53.324Z0F800
G1 X66.198Y53.179Z0F800
G1 X66.078Y53.163Z0F800
G1 X65.903Y53.159Z0F800
G1 X65.683Y53.167Z0F800
G1 X65.431Y53.185Z0F800
G1 X64.859Y53.244Z0F800
G1 X64.241Y53.31Z0F800
G1 X63.628Y53.361Z0F800
G1 X63.069Y53.373Z0F800
G1 X62.823Y53.358Z0F800
G1 X62.605Y53.322Z0F800
G1 X62.42Y53.254Z0F800
G1 X62.274Y53.14Z0F800
G1 X62.182Y53.059Z0F800
G1 X62.055Y52.982Z0F800
G1 X61.898Y52.91Z0F800
G1 X61.716Y52.845Z0F800
G1 X61.298Y52.738Z0F800
G1 X60.849Y52.652Z0F800
G1 X60.41Y52.578Z0F800
G1 X60.02Y52.503Z0F800
G1 X59.855Y52.462Z0F800
G1 X59.712Y52.414Z0F800
G1 X59.59Y52.354Z0F800

; Color 1 picking sequence
G1 Z10 F500;         ; Raise brush to safe height
G0 X2 Y0 F1000;     ; Rapid move to brush cleaning position
G1 Z0 F500;         ; Lower brush for cleaning - controlled movement
G1 Z2 F500;         ; Raise brush slightly - controlled movement
G1 X22 Y0 Z8 F500;     ; Move across cleaning area - controlled movement
G1 Z8 F500;         ; Maintain brush height - controlled movement
G0 X41 Y0 F1200;    ; Rapid move to color 1 position
G1 Z0 F500;         ; Lower into color - controlled movement
G1 X35 Y1 F500;     ; Small movement in paint - controlled movement
G1 Z7 F500;         ; Raise from color - controlled movement
G1 X38 Y1 F500;     ; Movement in paint - controlled movement
G1 Z1 F500;         ; Lower slightly - controlled movement
G1 X27 Y10 Z8 F500;     ; Move in paint - controlled movement
G1 Z8 F500;         ; Raise brush - controlled movement
G1 F1000;           ; Set feed rate to 1000
G0 Z2.8F500
G0 X62.847Y70.933Z2.8F1000
G1 Z0F500
G1 X63.11Z0F800
G1 X63.079Y71.534Z0F800
G1 X63.028Y72.177Z0F800
G1 X63.015Y72.495Z0F800
G1 X63.019Y72.798Z0F800
G1 X63.047Y73.076Z0F800
G1 X63.104Y73.32Z0F800
G1 X63.33Y73.993Z0F800
G1 X63.491Y74.466Z0F800
G1 X63.724Y75.136Z0F800
G1 Y75.125Z0F800
G1 X63.742Y75.034Z0F800
G1 X63.815Y74.945Z0F800
G1 X63.885Y74.919Z0F800
G1 X63.956Z0F800
G1 X64.009Y74.944Z0F800
G1 X64.052Y74.974Z0F800
G1 X64.13Y75.052Z0F800
G1 X64.212Y75.16Z0F800
G1 X64.305Y75.306Z0F800
G1 X64.413Y75.496Z0F800
G1 X64.454Y75.635Z0F800
G1 X64.45Y75.777Z0F800
G1 X64.433Y75.927Z0F800
G1 X64.411Y76.082Z0F800
G1 X64.392Y76.23Z0F800
G1 X64.384Y76.355Z0F800
G1 X64.393Y76.43Z0F800
G1 X64.386Y76.437Z0F800
G1 X64.525Y76.54Z0F800
G1 X64.702Y76.636Z0F800
G1 X64.906Y76.726Z0F800
G1 X65.126Y76.814Z0F800
G1 X65.351Y76.901Z0F800
G1 X65.572Y76.994Z0F800
G1 X65.78Y77.1Z0F800
G1 X65.966Y77.226Z0F800
G1 X65.998Y77.26Z0F800
G1 X66.011Y77.285Z0F800
G1 X66.028Y77.328Z0F800
G1 X66.041Y77.374Z0F800
G1 X66.054Y77.427Z0F800
G1 X66.081Y77.561Z0F800
G1 X66.11Y77.726Z0F800
G1 X66.171Y78.13Z0F800
G1 X66.3Y79.054Z0F800
G1 X66.36Y79.468Z0F800
G1 X66.388Y79.639Z0F800
G1 X66.413Y79.777Z0F800
G1 X66.436Y79.877Z0F800
G1 X66.44Y79.902Z0F800
G1 X66.974Y80.906Z0F800
G1 X67.55Y81.854Z0F800
G1 X68.173Y82.747Z0F800
G1 X68.851Y83.585Z0F800
G1 X69.59Y84.37Z0F800
G1 X70.397Y85.102Z0F800
G1 X71.278Y85.781Z0F800
G1 X72.241Y86.408Z0F800
G1 X72.105Y86.634Z0F800
G1 X71.125Y85.996Z0F800
G1 X70.228Y85.304Z0F800
G1 X69.406Y84.559Z0F800
G1 X68.653Y83.759Z0F800
G1 X67.963Y82.906Z0F800
G1 X67.329Y81.999Z0F800
G1 X66.745Y81.037Z0F800
G1 X66.204Y80.021Z0F800
G1 X66.173Y79.931Z0F800
G1 X66.127Y79.682Z0F800
G1 X66.099Y79.507Z0F800
G1 X66.038Y79.09Z0F800
G1 X65.909Y78.168Z0F800
G1 X65.849Y77.769Z0F800
G1 X65.821Y77.608Z0F800
G1 X65.796Y77.484Z0F800
G1 X65.78Y77.421Z0F800
G1 X65.449Y77.232Z0F800
G1 X65.03Y77.06Z0F800
G1 X64.805Y76.972Z0F800
G1 X64.587Y76.877Z0F800
G1 X64.385Y76.767Z0F800
G1 X64.208Y76.634Z0F800
G1 X64.155Y76.569Z0F800
G1 X64.129Y76.499Z0F800
G1 X64.121Y76.426Z0F800
G1 Y76.353Z0F800
G1 X64.13Y76.201Z0F800
G1 X64.149Y76.044Z0F800
G1 X64.171Y75.892Z0F800
G1 X64.187Y75.757Z0F800
G1 Y75.657Z0F800
G1 X64.183Y75.624Z0F800
G1 X64.076Y75.452Z0F800
G1 X63.999Y75.351Z0F800
G1 X64.002Y75.418Z0F800
G1 X64.007Y75.49Z0F800
G1 X64.039Y75.708Z0F800
G1 X64.088Y76.003Z0F800
G1 X64.103Y76.112Z0F800
G1 X64.106Y76.17Z0F800
G1 X64.099Y76.212Z0F800
G1 X64.093Y76.23Z0F800
G1 X64.083Y76.251Z0F800
G1 X64.059Y76.281Z0F800
G1 X64.018Y76.306Z0F800
G1 X63.966Y76.316Z0F800
G1 X63.923Y76.31Z0F800
G1 X63.893Y76.296Z0F800
G1 X63.876Y76.283Z0F800
G1 X63.841Y76.245Z0F800
G1 X63.794Y76.144Z0F800
G1 X63.753Y76.041Z0F800
G1 X63.699Y75.896Z0F800
G1 X63.631Y75.707Z0F800
G1 X63.448Y75.177Z0F800
G1 X63.192Y74.419Z0F800
G1 X62.852Y73.402Z0F800
G1 X62.784Y73.117Z0F800
G1 X62.753Y72.811Z0F800
G1 X62.75Y72.49Z0F800
G1 X62.765Y72.162Z0F800
G1 X62.816Y71.512Z0F800
G1 X62.847Y70.933Z0F800

; Color 1 picking sequence
G1 Z10 F500;         ; Raise brush to safe height
G0 X2 Y0 F1000;     ; Rapid move to brush cleaning position
G1 Z0 F500;         ; Lower brush for cleaning - controlled movement
G1 Z2 F500;         ; Raise brush slightly - controlled movement
G1 X22 Y0 Z8 F500;     ; Move across cleaning area - controlled movement
G1 Z8 F500;         ; Maintain brush height - controlled movement
G0 X41 Y0 F1200;    ; Rapid move to color 1 position
G1 Z0 F500;         ; Lower into color - controlled movement
G1 X35 Y1 F500;     ; Small movement in paint - controlled movement
G1 Z7 F500;         ; Raise from color - controlled movement
G1 X38 Y1 F500;     ; Movement in paint - controlled movement
G1 Z1 F500;         ; Lower slightly - controlled movement
G1 X27 Y10 Z8 F500;     ; Move in paint - controlled movement
G1 Z8 F500;         ; Raise brush - controlled movement
G1 F1000;           ; Set feed rate to 1000
G0 Z2.8F500
G0 X54.989Y74.966Z2.8F1000
G1 Z0F500
G1 X54.766Y75.556Z0F800
G1 X54.549Y76.133Z0F800
G1 X54.317Y76.693Z0F800
G1 X54.044Y77.232Z0F800
G1 X53.706Y77.745Z0F800
G1 X53.281Y78.225Z0F800
G1 X53.028Y78.45Z0F800
G1 X52.745Y78.665Z0F800
G1 X52.429Y78.869Z0F800
G1 X52.077Y79.06Z0F800
G1 X51.644Y79.214Z0F800
G1 X51.13Y79.355Z0F800
G1 X50.89Y79.436Z0F800
G1 X50.681Y79.528Z0F800
G1 X50.514Y79.627Z0F800
G1 X50.402Y79.732Z0F800
G1 X50.414Y79.775Z0F800
G1 X50.435Y79.833Z0F800
G1 X50.517Y80.026Z0F800
G1 X50.64Y80.281Z0F800
G1 X50.8Y80.591Z0F800
G1 X50.994Y80.951Z0F800
G1 X51.217Y81.357Z0F800
G1 X51.468Y81.804Z0F800
G1 X51.742Y82.288Z0F800
G1 X53.362Y85.112Z0F800
G1 X54.066Y86.351Z0F800
G1 X54.764Y87.602Z0F800
G1 X55.433Y88.83Z0F800
G1 X55.748Y89.426Z0F800
G1 X56.047Y90.003Z0F800
G1 X56.326Y90.559Z0F800
G1 X56.581Y91.087Z0F800
G1 X56.811Y91.586Z0F800
G1 X57.011Y92.049Z0F800
G1 X57.179Y92.475Z0F800
G1 X57.312Y92.859Z0F800
G1 X57.407Y93.197Z0F800
G1 X57.46Y93.49Z0F800
G1 X57.47Y93.619Z0F800
G1 X57.466Y93.738Z0F800
G1 X57.447Y93.847Z0F800
G1 X57.407Y93.947Z0F800
G1 X57.175Y93.824Z0F800
G1 X57.201Y93.712Z0F800
G1 X57.196Y93.519Z0F800
G1 X57.149Y93.257Z0F800
G1 X57.06Y92.937Z0F800
G1 X56.931Y92.566Z0F800
G1 X56.766Y92.151Z0F800
G1 X56.568Y91.694Z0F800
G1 X56.341Y91.201Z0F800
G1 X56.087Y90.676Z0F800
G1 X55.81Y90.124Z0F800
G1 X55.513Y89.549Z0F800
G1 X55.199Y88.955Z0F800
G1 X54.532Y87.729Z0F800
G1 X53.835Y86.48Z0F800
G1 X53.132Y85.242Z0F800
G1 X51.808Y82.935Z0F800
G1 X51.237Y81.933Z0F800
G1 X50.986Y81.485Z0F800
G1 X50.761Y81.077Z0F800
G1 X50.566Y80.714Z0F800
G1 X50.403Y80.4Z0F800
G1 X50.276Y80.137Z0F800
G1 X50.187Y79.927Z0F800
G1 X50.157Y79.843Z0F800
G1 X50.138Y79.769Z0F800
G1 X50.126Y79.693Z0F800
G1 X50.159Y79.595Z0F800
G1 X50.324Y79.42Z0F800
G1 X50.54Y79.288Z0F800
G1 X50.79Y79.186Z0F800
G1 X51.056Y79.101Z0F800
G1 X51.577Y78.955Z0F800
G1 X51.796Y78.889Z0F800
G1 X51.96Y78.824Z0F800
G1 X52.295Y78.642Z0F800
G1 X52.595Y78.449Z0F800
G1 X52.862Y78.247Z0F800
G1 X53.099Y78.036Z0F800
G1 X53.498Y77.586Z0F800
G1 X53.816Y77.101Z0F800
G1 X54.077Y76.584Z0F800
G1 X54.303Y76.037Z0F800
G1 X54.517Y75.463Z0F800
G1 X54.743Y74.869Z0F800
G1 X54.989Y74.966Z0F800

; Color 1 picking sequence
G1 Z10 F500;         ; Raise brush to safe height
G0 X2 Y0 F1000;     ; Rapid move to brush cleaning position
G1 Z0 F500;         ; Lower brush for cleaning - controlled movement
G1 Z2 F500;         ; Raise brush slightly - controlled movement
G1 X22 Y0 Z8 F500;     ; Move across cleaning area - controlled movement
G1 Z8 F500;         ; Maintain brush height - controlled movement
G0 X41 Y0 F1200;    ; Rapid move to color 1 position
G1 Z0 F500;         ; Lower into color - controlled movement
G1 X35 Y1 F500;     ; Small movement in paint - controlled movement
G1 Z7 F500;         ; Raise from color - controlled movement
G1 X38 Y1 F500;     ; Movement in paint - controlled movement
G1 Z1 F500;         ; Lower slightly - controlled movement
G1 X27 Y10 Z8 F500;     ; Move in paint - controlled movement
G1 Z8 F500;         ; Raise brush - controlled movement
G1 F1000;           ; Set feed rate to 1000
G0 Z2.8F500
G0 X49.632Y74.679Z2.8F1000
G1 Z0F500
G1 X49.62Y74.479Z0F800
G1 X49.587Y74.311Z0F800
G1 X49.535Y74.179Z0F800
G1 X49.466Y74.085Z0F800
G1 X49.431Y74.06Z0F800
G1 X49.409Y74.056Z0F800
G1 X49.38Y74.063Z0F800
G1 X49.333Y74.091Z0F800
G1 X49.271Y74.149Z0F800
G1 X49.2Y74.237Z0F800
G1 X49.123Y74.35Z0F800
G1 X49.044Y74.488Z0F800
G1 X48.884Y74.823Z0F800
G1 X48.722Y75.224Z0F800
G1 X48.56Y75.672Z0F800
G1 X48.401Y76.15Z0F800
G1 X48.1Y77.129Z0F800
G1 X47.833Y78.029Z0F800
G1 X47.716Y78.407Z0F800
G1 X47.612Y78.718Z0F800
G1 X47.566Y78.844Z0F800
G1 X47.523Y78.949Z0F800
G1 X47.48Y79.033Z0F800
G1 X47.425Y79.105Z0F800
G1 X47.281Y79.278Z0F800
G1 X47.148Y79.496Z0F800
G1 X47.023Y79.755Z0F800
G1 X46.908Y80.052Z0F800
G1 X46.801Y80.381Z0F800
G1 X46.701Y80.74Z0F800
G1 X46.609Y81.124Z0F800
G1 X46.522Y81.529Z0F800
G1 X46.893Y81.124Z0F800
G1 X47.249Y80.692Z0F800
G1 X47.587Y80.229Z0F800
G1 X47.908Y79.734Z0F800
G1 X48.21Y79.203Z0F800
G1 X48.492Y78.635Z0F800
G1 X48.752Y78.026Z0F800
G1 X48.991Y77.374Z0F800
G1 X49.153Y76.895Z0F800
G1 X49.223Y76.679Z0F800
G1 X49.368Y76.193Z0F800
G1 X49.501Y75.669Z0F800
G1 X49.597Y75.149Z0F800
G1 X49.632Y74.679Z0F800
G0 Z2.8F500
G0 X44.553Y73.233Z2.8F1000
G1 Z0F500
G1 X44.257Y73.574Z0F800
G1 X43.973Y73.762Z0F800
G1 X43.645Y73.889Z0F800
G1 X43.289Y73.978Z0F800
G1 X42.921Y74.054Z0F800
G1 X42.556Y74.139Z0F800
G1 X42.208Y74.249Z0F800
G1 X41.89Y74.403Z0F800
G1 X41.614Y74.617Z0F800
G1 X41.245Y74.959Z0F800
G1 X40.842Y75.284Z0F800
G1 X40.407Y75.589Z0F800
G1 X39.94Y75.875Z0F800
G1 X39.443Y76.142Z0F800
G1 X38.917Y76.389Z0F800
G1 X38.363Y76.616Z0F800
G1 X37.783Y76.823Z0F800
G1 X37.178Y77.009Z0F800
G1 X36.548Y77.174Z0F800
G1 X35.895Y77.318Z0F800
G1 X35.221Y77.44Z0F800
G1 X34.525Y77.54Z0F800
G1 X33.811Y77.618Z0F800
G1 X33.078Y77.674Z0F800
G1 X32.329Y77.706Z0F800
G1 X32.321Y77.443Z0F800
G1 X33.062Y77.41Z0F800
G1 X33.786Y77.355Z0F800
G1 X34.491Y77.278Z0F800
G1 X35.177Y77.178Z0F800
G1 X35.841Y77.057Z0F800
G1 X36.484Y76.915Z0F800
G1 X37.103Y76.752Z0F800
G1 X37.697Y76.569Z0F800
G1 X38.266Y76.367Z0F800
G1 X38.808Y76.145Z0F800
G1 X39.322Y75.904Z0F800
G1 X39.806Y75.644Z0F800
G1 X40.26Y75.366Z0F800
G1 X40.682Y75.071Z0F800
G1 X41.072Y74.758Z0F800
G1 X41.427Y74.429Z0F800
G1 X41.75Y74.177Z0F800
G1 X42.109Y74.002Z0F800
G1 X42.488Y73.882Z0F800
G1 X42.868Y73.794Z0F800
G1 X43.232Y73.717Z0F800
G1 X43.566Y73.631Z0F800
G1 X43.854Y73.523Z0F800
G1 X44.081Y73.376Z0F800
G1 X44.332Y73.082Z0F800
G1 X44.556Y72.691Z0F800
G1 X44.764Y72.234Z0F800
G1 X45.169Y71.231Z0F800
G1 X45.396Y70.74Z0F800
G1 X45.663Y70.294Z0F800
G1 X45.987Y69.921Z0F800
G1 X46.165Y70.117Z0F800
G1 X45.88Y70.448Z0F800
G1 X45.634Y70.863Z0F800
G1 X45.414Y71.335Z0F800
G1 X45.21Y71.835Z0F800
G1 X45.01Y72.337Z0F800
G1 X44.798Y72.811Z0F800
G1 X44.553Y73.233Z0F800

; Color 1 picking sequence
G1 Z10 F500;         ; Raise brush to safe height
G0 X2 Y0 F1000;     ; Rapid move to brush cleaning position
G1 Z0 F500;         ; Lower brush for cleaning - controlled movement
G1 Z2 F500;         ; Raise brush slightly - controlled movement
G1 X22 Y0 Z8 F500;     ; Move across cleaning area - controlled movement
G1 Z8 F500;         ; Maintain brush height - controlled movement
G0 X41 Y0 F1200;    ; Rapid move to color 1 position
G1 Z0 F500;         ; Lower into color - controlled movement
G1 X35 Y1 F500;     ; Small movement in paint - controlled movement
G1 Z7 F500;         ; Raise from color - controlled movement
G1 X38 Y1 F500;     ; Movement in paint - controlled movement
G1 Z1 F500;         ; Lower slightly - controlled movement
G1 X27 Y10 Z8 F500;     ; Move in paint - controlled movement
G1 Z8 F500;         ; Raise brush - controlled movement
G1 F1000;           ; Set feed rate to 1000
G0 Z2.8F500
G0 X48.811Y74.364Z2.8F1000
G1 Z0F500
G1 X48.984Y74.081Z0F800
G1 X49.173Y73.881Z0F800
G1 X49.283Y73.817Z0F800
G1 X49.407Y73.792Z0F800
G1 X49.535Y73.819Z0F800
G1 X49.647Y73.893Z0F800
G1 X49.768Y74.047Z0F800
G1 X49.844Y74.234Z0F800
G1 X49.885Y74.448Z0F800
G1 X49.897Y74.68Z0F800
G1 X49.859Y75.188Z0F800
G1 X49.759Y75.729Z0F800
G1 X49.622Y76.268Z0F800
G1 X49.474Y76.763Z0F800
G1 X49.403Y76.982Z0F800
G1 X49.241Y77.46Z0F800
G1 X48.975Y78.178Z0F800
G1 X48.682Y78.846Z0F800
G1 X48.363Y79.466Z0F800
G1 X48.019Y80.042Z0F800
G1 X47.653Y80.577Z0F800
G1 X47.266Y81.074Z0F800
G1 X46.859Y81.536Z0F800
G1 X46.434Y81.967Z0F800
G1 X46.363Y82.302Z0F800
G1 X46.298Y82.651Z0F800
G1 X46.228Y83.307Z0F800
G1 X46.173Y83.995Z0F800
G1 X46.133Y84.71Z0F800
G1 X46.106Y85.45Z0F800
G1 X46.095Y86.981Z0F800
G1 X46.134Y88.555Z0F800
G1 X46.22Y90.137Z0F800
G1 X46.349Y91.692Z0F800
G1 X46.429Y92.449Z0F800
G1 X46.519Y93.187Z0F800
G1 X46.617Y93.901Z0F800
G1 X46.724Y94.587Z0F800
G1 X46.839Y95.241Z0F800
G1 X46.961Y95.858Z0F800
G1 X47.091Y96.435Z0F800
G1 X47.227Y96.966Z0F800
G1 X47.369Y97.447Z0F800
G1 X47.514Y97.872Z0F800
G1 X47.663Y98.238Z0F800
G1 X47.815Y98.54Z0F800
G1 X48.17Y99.139Z0F800
G1 X48.51Y99.673Z0F800
G1 X48.838Y100.145Z0F800
G1 X49.154Y100.557Z0F800
G1 X49.458Y100.912Z0F800
G1 X49.752Y101.213Z0F800
G1 X50.036Y101.462Z0F800
G1 X50.311Y101.663Z0F800
G1 X50.578Y101.818Z0F800
G1 X50.838Y101.932Z0F800
G1 X51.093Y102.007Z0F800
G1 X51.345Y102.044Z0F800
G1 X51.595Y102.049Z0F800
G1 X51.846Y102.023Z0F800
G1 X52.099Y101.969Z0F800
G1 X52.356Y101.888Z0F800
G1 X52.886Y101.655Z0F800
G1 X53.441Y101.343Z0F800
G1 X54.029Y100.973Z0F800
G1 X54.657Y100.568Z0F800
G1 X55.333Y100.148Z0F800
G1 X56.066Y99.734Z0F800
G1 X56.862Y99.35Z0F800
G1 X57.73Y99.015Z0F800
G1 X57.996Y98.952Z0F800
G1 X58.322Y98.916Z0F800
G1 X58.702Y98.897Z0F800
G1 X59.128Y98.888Z0F800
G1 X60.082Y98.878Z0F800
G1 X61.095Y98.843Z0F800
G1 X61.596Y98.802Z0F800
G1 X62.078Y98.74Z0F800
G1 X62.529Y98.65Z0F800
G1 X62.938Y98.529Z0F800
G1 X63.292Y98.373Z0F800
G1 X63.58Y98.181Z0F800
G1 X63.797Y97.947Z0F800
G1 X63.937Y97.665Z0F800
G1 X64.08Y97.057Z0F800
G1 X64.133Y96.417Z0F800
G1 X64.106Y95.752Z0F800
G1 X64.009Y95.066Z0F800
G1 X63.85Y94.366Z0F800
G1 X63.639Y93.656Z0F800
G1 X63.386Y92.941Z0F800
G1 X63.101Y92.228Z0F800
G1 X63.012Y92.023Z0F800
G1 X62.921Y91.82Z0F800
G1 X62.778Y91.705Z0F800
G1 X62.248Y91.367Z0F800
G1 X61.737Y90.983Z0F800
G1 X61.501Y90.767Z0F800
G1 X61.283Y90.53Z0F800
G1 X61.089Y90.269Z0F800
G1 X60.923Y89.982Z0F800
G1 X60.704Y89.459Z0F800
G1 X60.514Y88.901Z0F800
G1 X60.314Y88.338Z0F800
G1 X60.062Y87.802Z0F800
G1 X59.95Y87.577Z0F800
G1 X59.856Y87.331Z0F800
G1 X59.78Y87.063Z0F800
G1 X59.72Y86.777Z0F800
G1 X59.644Y86.153Z0F800
G1 X59.616Y85.468Z0F800
G1 X59.63Y84.734Z0F800
G1 X59.677Y83.963Z0F800
G1 X59.751Y83.166Z0F800
G1 X59.845Y82.355Z0F800
G1 X60.061Y80.74Z0F800
G1 X60.268Y79.216Z0F800
G1 X60.35Y78.52Z0F800
G1 X60.409Y77.886Z0F800
G1 X60.438Y77.326Z0F800
G1 X60.429Y76.853Z0F800
G1 X60.692Y76.833Z0F800
G1 X60.749Y78.114Z0F800
G1 X60.737Y79.409Z0F800
G1 X60.644Y82.015Z0F800
G1 X60.631Y83.312Z0F800
G1 X60.684Y84.596Z0F800
G1 X60.746Y85.231Z0F800
G1 X60.838Y85.86Z0F800
G1 X60.963Y86.483Z0F800
G1 X61.126Y87.097Z0F800
G1 X61.282Y87.557Z0F800
G1 X61.481Y88.06Z0F800
G1 X61.717Y88.6Z0F800
G1 X61.979Y89.172Z0F800
G1 X62.555Y90.389Z0F800
G1 X63.142Y91.666Z0F800
G1 X63.592Y91.939Z0F800
G1 X64.016Y92.224Z0F800
G1 X64.207Y92.377Z0F800
G1 X64.38Y92.542Z0F800
G1 X64.53Y92.721Z0F800
G1 X64.653Y92.916Z0F800
G1 X64.697Y93.029Z0F800
G1 X64.718Y93.15Z0F800
G1 X64.722Y93.28Z0F800
G1 X64.714Y93.416Z0F800
G1 X64.678Y93.704Z0F800
G1 X64.63Y94Z0F800
G1 X64.587Y94.283Z0F800
G1 X64.567Y94.533Z0F800
G1 X64.585Y94.718Z0F800
G1 X64.63Y94.818Z0F800
G1 X64.876Y95.077Z0F800
G1 X65.073Y95.3Z0F800
G1 X65.237Y95.496Z0F800
G1 X65.382Y95.675Z0F800
G1 X65.525Y95.848Z0F800
G1 X65.683Y96.027Z0F800
G1 X65.873Y96.222Z0F800
G1 X66.114Y96.447Z0F800
G1 X66.166Y96.518Z0F800
G1 X66.186Y96.589Z0F800
G1 X66.192Y96.656Z0F800
G1 Y96.722Z0F800
G1 X66.175Y96.863Z0F800
G1 X66.13Y97.145Z0F800
G1 X66.118Y97.257Z0F800
G1 Y97.275Z0F800
G1 X67.088Y97.294Z0F800
G1 X68.026Y97.307Z0F800
G1 X69.53Y97.323Z0F800
G1 X71.143Y97.335Z0F800
G1 X71.93Y97.338Z0F800
G1 X72.67Z0F800
G1 X73.339Y97.334Z0F800
G1 X73.913Y97.325Z0F800
G1 X74.367Y97.312Z0F800
G1 X74.54Y97.304Z0F800
G1 X74.673Y97.295Z0F800
G1 X74.722Y97.29Z0F800
G1 X74.779Y97.28Z0F800
G1 X74.769Y97.287Z0F800
G1 X75.091Y97.09Z0F800
G1 X75.406Y96.857Z0F800
G1 X75.732Y96.618Z0F800
G1 X76.087Y96.406Z0F800
G1 X76.335Y96.328Z0F800
G1 X76.598Y96.316Z0F800
G1 X76.869Y96.346Z0F800
G1 X77.138Y96.394Z0F800
G1 X77.398Y96.437Z0F800
G1 X77.638Y96.462Z0F800
G1 X77.848Y96.455Z0F800
G1 X78.019Y96.406Z0F800
G1 X78.203Y96.266Z0F800
G1 X78.365Y96.068Z0F800
G1 X78.685Y95.583Z0F800
G1 X78.776Y95.461Z0F800
G1 X78.879Y95.346Z0F800
G1 X78.995Y95.243Z0F800
G1 X79.128Y95.156Z0F800
G1 X79.264Y95.102Z0F800
G1 X79.418Y95.073Z0F800
G1 X79.587Y95.068Z0F800
G1 X79.767Y95.083Z0F800
G1 X80.434Y94.736Z0F800
G1 X81.006Y94.418Z0F800
G1 X81.489Y94.122Z0F800
G1 X81.89Y93.841Z0F800
G1 X82.216Y93.568Z0F800
G1 X82.474Y93.294Z0F800
G1 X82.674Y93.012Z0F800
G1 X82.824Y92.71Z0F800
G1 X82.932Y92.379Z0F800
G1 X83.004Y92.008Z0F800
G1 X83.047Y91.589Z0F800
G1 X83.068Y91.114Z0F800
G1 X83.072Y90.575Z0F800
G1 X83.068Y89.965Z0F800
G1 X83.06Y89.275Z0F800
G1 X83.056Y88.498Z0F800
G1 X83.026Y88.234Z0F800
G1 X82.946Y87.625Z0F800
G1 X82.891Y87.23Z0F800
G1 X82.759Y86.328Z0F800
G1 X82.612Y85.365Z0F800
G1 X82.537Y84.895Z0F800
G1 X82.464Y84.45Z0F800
G1 X82.394Y84.044Z0F800
G1 X82.329Y83.691Z0F800
G1 X82.271Y83.406Z0F800
G1 X82.243Y83.291Z0F800
G1 X82.217Y83.199Z0F800
G1 X82.19Y83.115Z0F800
G1 X81.921Y82.677Z0F800
G1 X81.58Y82.226Z0F800
G1 X81.177Y81.764Z0F800
G1 X80.721Y81.29Z0F800
G1 X80.221Y80.807Z0F800
G1 X79.684Y80.316Z0F800
G1 X79.12Y79.819Z0F800
G1 X78.538Y79.316Z0F800
G1 X77.353Y78.298Z0F800
G1 X76.197Y77.267Z0F800
G1 X75.652Y76.748Z0F800
G1 X75.14Y76.228Z0F800
G1 X74.67Y75.708Z0F800
G1 X74.205Y75.13Z0F800
G1 X74.043Y74.941Z0F800
G1 X73.653Y74.501Z0F800
G1 X72.944Y73.708Z0F800
G1 X72.539Y73.251Z0F800
G1 X72.118Y72.77Z0F800
G1 X71.694Y72.277Z0F800
G1 X71.282Y71.785Z0F800
G1 X70.893Y71.305Z0F800
G1 X70.543Y70.851Z0F800
G1 X70.243Y70.433Z0F800
G1 X70.007Y70.064Z0F800
G1 X69.847Y69.75Z0F800
G1 X69.799Y69.612Z0F800
G1 X69.778Y69.482Z0F800
G1 X69.797Y69.352Z0F800
G1 X69.874Y69.24Z0F800
G1 X69.92Y69.212Z0F800
G1 X69.978Y69.199Z0F800
G1 X70.074Y69.188Z0F800
G1 X70.153Y69.183Z0F800
G1 X70.338Y69.177Z0F800
G1 X70.544Z0F800
G1 X70.749Y69.18Z0F800
G1 X70.931Y69.187Z0F800
G1 X71.006Y69.192Z0F800
G1 X71.069Y69.199Z0F800
G1 X71.122Y69.207Z0F800
G1 X71.151Y69.215Z0F800
G1 X71.173Y69.225Z0F800
G1 X71.188Y69.235Z0F800
G1 X71.206Y69.25Z0F800
G1 X71.275Y69.363Z0F800
G1 X71.294Y69.483Z0F800
G1 X71.282Y69.588Z0F800
G1 X71.259Y69.682Z0F800
G1 X71.226Y69.833Z0F800
G1 Y69.914Z0F800
G1 X71.393Y70.184Z0F800
G1 X71.588Y70.448Z0F800
G1 X71.807Y70.706Z0F800
G1 X72.047Y70.957Z0F800
G1 X72.575Y71.438Z0F800
G1 X73.138Y71.889Z0F800
G1 X73.705Y72.307Z0F800
G1 X74.244Y72.691Z0F800
G1 X74.727Y73.043Z0F800
G1 X75.122Y73.362Z0F800
G1 X75.184Y73.438Z0F800
G1 X75.216Y73.524Z0F800
G1 X75.227Y73.615Z0F800
G1 Y73.707Z0F800
G1 X75.204Y73.896Z0F800
G1 X75.135Y74.277Z0F800
G1 X75.114Y74.44Z0F800
G1 X75.119Y74.549Z0F800
G1 X75.128Y74.586Z0F800
G1 X75.557Y74.976Z0F800
G1 X76.027Y75.333Z0F800
G1 X76.535Y75.657Z0F800
G1 X77.077Y75.947Z0F800
G1 X77.648Y76.203Z0F800
G1 X78.245Y76.425Z0F800
G1 X78.864Y76.612Z0F800
G1 X79.5Y76.765Z0F800
G1 X80.15Y76.882Z0F800
G1 X80.809Y76.964Z0F800
G1 X81.474Y77.01Z0F800
G1 X82.14Y77.02Z0F800
G1 X82.804Y76.994Z0F800
G1 X83.462Y76.931Z0F800
G1 X84.109Y76.831Z0F800
G1 X84.741Y76.694Z0F800
G1 X85.562Y76.457Z0F800
G1 X86.349Y76.169Z0F800
G1 X87.105Y75.832Z0F800
G1 X87.831Y75.45Z0F800
G1 X88.528Y75.025Z0F800
G1 X89.198Y74.561Z0F800
G1 X89.842Y74.062Z0F800
G1 X90.461Y73.53Z0F800
G1 X91.058Y72.97Z0F800
G1 X91.632Y72.383Z0F800
G1 X92.187Y71.773Z0F800
G1 X92.723Y71.144Z0F800
G1 X93.743Y69.841Z0F800
G1 X94.706Y68.498Z0F800
G1 X94.725Y68.453Z0F800
G1 X94.753Y68.35Z0F800
G1 X94.777Y68.201Z0F800
G1 X94.796Y68.014Z0F800
G1 X94.81Y67.793Z0F800
G1 X94.818Y67.542Z0F800
G1 X94.822Y67.263Z0F800
G1 Y66.959Z0F800
G1 X94.809Y66.29Z0F800
G1 X94.783Y65.557Z0F800
G1 X94.745Y64.782Z0F800
G1 X94.698Y63.987Z0F800
G1 X94.645Y63.193Z0F800
G1 X94.586Y62.423Z0F800
G1 X94.526Y61.699Z0F800
G1 X94.466Y61.043Z0F800
G1 X94.437Y60.748Z0F800
G1 X94.38Y60.235Z0F800
G1 X94.332Y59.846Z0F800
G1 X94.312Y59.705Z0F800
G1 X94.293Y59.606Z0F800
G1 X94.282Y59.563Z0F800
G1 X94.147Y59.295Z0F800
G1 X93.938Y59.04Z0F800
G1 X93.659Y58.799Z0F800
G1 X93.312Y58.573Z0F800
G1 X92.9Y58.361Z0F800
G1 X92.43Y58.164Z0F800
G1 X91.906Y57.983Z0F800
G1 X91.333Y57.817Z0F800
G1 X90.716Y57.666Z0F800
G1 X90.061Y57.529Z0F800
G1 X89.37Y57.405Z0F800
G1 X88.651Y57.294Z0F800
G1 X87.142Y57.106Z0F800
G1 X85.571Y56.959Z0F800
G1 X83.978Y56.848Z0F800
G1 X82.398Y56.765Z0F800
G1 X80.869Y56.705Z0F800
G1 X79.427Y56.661Z0F800
G1 X76.951Y56.597Z0F800
G1 X76.443Y56.581Z0F800
G1 X75.989Y56.563Z0F800
G1 X75.594Y56.543Z0F800
G1 X75.261Y56.52Z0F800
G1 X74.841Y56.463Z0F800
G1 X74.361Y56.362Z0F800
G1 X73.836Y56.224Z0F800
G1 X73.28Y56.054Z0F800
G1 X72.138Y55.648Z0F800
G1 X71.054Y55.196Z0F800
G1 X70.573Y54.97Z0F800
G1 X70.152Y54.752Z0F800
G1 X69.806Y54.545Z0F800
G1 X69.546Y54.354Z0F800
G1 X69.451Y54.262Z0F800
G1 X69.38Y54.166Z0F800
G1 X69.356Y54.11Z0F800
G1 X69.344Y54.047Z0F800
G1 X69.348Y53.981Z0F800
G1 X69.372Y53.918Z0F800
G1 X69.463Y53.829Z0F800
G1 X69.583Y53.783Z0F800
G1 X69.726Y53.76Z0F800
G1 X69.901Y53.752Z0F800
G1 X73.947Y53.781Z0F800
G1 X75.521Y53.789Z0F800
G1 X76.965Y53.793Z0F800
G1 X77.585Z0F800
G1 X78.107Y53.787Z0F800
G1 X78.511Y53.78Z0F800
G1 X78.661Y53.774Z0F800
G1 X78.772Y53.768Z0F800
G1 X78.806Y53.764Z0F800
G1 X78.971Y53.553Z0F800
G1 X79.116Y53.271Z0F800
G1 X79.238Y52.925Z0F800
G1 X79.337Y52.522Z0F800
G1 X79.413Y52.062Z0F800
G1 X79.469Y51.566Z0F800
G1 X79.506Y51.044Z0F800
G1 X79.528Y50.504Z0F800
G1 X79.536Y49.414Z0F800
G1 X79.515Y48.371Z0F800
G1 X79.486Y47.448Z0F800
G1 X79.476Y47.055Z0F800
G1 X79.472Y46.719Z0F800
G1 Y46.439Z0F800
G1 X79.493Y44.639Z0F800
G1 X79.497Y43.773Z0F800
G1 X79.49Y42.851Z0F800
G1 X79.468Y41.891Z0F800
G1 X79.426Y40.91Z0F800
G1 X79.358Y39.928Z0F800
G1 X79.26Y38.962Z0F800
G1 X79.127Y38.03Z0F800
G1 X78.954Y37.152Z0F800
G1 X78.737Y36.346Z0F800
G1 X78.611Y35.976Z0F800
G1 X78.471Y35.632Z0F800
G1 X78.319Y35.316Z0F800
G1 X78.154Y35.029Z0F800
G1 X77.976Y34.774Z0F800
G1 X77.784Y34.552Z0F800
G1 X77.579Y34.366Z0F800
G1 X77.36Y34.217Z0F800
G1 X77.278Y34.182Z0F800
G1 X77.166Y34.152Z0F800
G1 X77.03Y34.13Z0F800
G1 X76.874Y34.116Z0F800
G1 X76.518Y34.11Z0F800
G1 X76.13Y34.127Z0F800
G1 X75.737Y34.159Z0F800
G1 X75.365Y34.194Z0F800
G1 X75.035Y34.223Z0F800
G1 X74.77Y34.235Z0F800
G1 X74.236Y34.226Z0F800
G1 X73.66Y34.204Z0F800
G1 X73.05Y34.17Z0F800
G1 X72.412Y34.128Z0F800
G1 X71.078Y34.035Z0F800
G1 X69.714Y33.952Z0F800
G1 X68.371Y33.904Z0F800
G1 X67.107Y33.918Z0F800
G1 X66.523Y33.955Z0F800
G1 X65.98Y34.017Z0F800
G1 X65.485Y34.107Z0F800
G1 X65.046Y34.227Z0F800
G1 X64.654Y34.382Z0F800
G1 X64.339Y34.556Z0F800
G1 X64.082Y34.746Z0F800
G1 X63.864Y34.952Z0F800
G1 X63.479Y35.403Z0F800
G1 X63.056Y35.891Z0F800
G1 X62.914Y36.016Z0F800
G1 X62.728Y36.149Z0F800
G1 X62.502Y36.292Z0F800
G1 X62.239Y36.446Z0F800
G1 X61.628Y36.78Z0F800
G1 X60.944Y37.133Z0F800
G1 X59.563Y37.83Z0F800
G1 X59.253Y37.989Z0F800
G1 X58.97Y38.138Z0F800
G1 X58.721Y38.273Z0F800
G1 X58.513Y38.393Z0F800
G1 X57.691Y38.91Z0F800
G1 X56.833Y39.486Z0F800
G1 X55.959Y40.096Z0F800
G1 X54.238Y41.315Z0F800
G1 X53.429Y41.872Z0F800
G1 X53.046Y42.126Z0F800
G1 X52.68Y42.36Z0F800
G1 X52.333Y42.571Z0F800
G1 X52.009Y42.754Z0F800
G1 X51.825Y42.892Z0F800
G1 X51.67Y43.082Z0F800
G1 X51.541Y43.312Z0F800
G1 X51.433Y43.571Z0F800
G1 X51.38Y44.254Z0F800
G1 X51.33Y44.94Z0F800
G1 X51.291Y45.585Z0F800
G1 X51.275Y46.216Z0F800
G1 X51.268Y46.274Z0F800
G1 X51.257Y46.309Z0F800
G1 X51.241Y46.338Z0F800
G1 X51.194Y46.379Z0F800
G1 X51.153Y46.393Z0F800
G1 X51.108Z0F800
G1 X51.046Y46.364Z0F800
G1 X51.018Y46.336Z0F800
G1 X51.011Y46.326Z0F800
G1 X50.984Y46.261Z0F800
G1 X50.962Y46.139Z0F800
G1 X50.95Y46.055Z0F800
G1 X50.928Y45.845Z0F800
G1 X50.912Y45.585Z0F800
G1 X50.904Y45.287Z0F800
G1 X50.909Y44.959Z0F800
G1 X50.93Y44.614Z0F800
G1 X50.971Y44.259Z0F800
G1 X51.035Y43.907Z0F800
G1 X51.128Y43.565Z0F800
G1 X51.173Y43.502Z0F800
G1 X51.248Y42.361Z0F800
G1 X51.313Y41.194Z0F800
G1 X51.345Y40.528Z0F800
G1 X51.364Y39.876Z0F800
G1 X51.367Y39.244Z0F800
G1 X51.349Y38.639Z0F800
G1 X51.309Y38.07Z0F800
G1 X51.243Y37.544Z0F800
G1 X51.148Y37.068Z0F800
G1 X51.02Y36.649Z0F800
G1 X50.3Y34.928Z0F800
G1 X49.506Y33.246Z0F800
G1 X49.106Y32.405Z0F800
G1 X48.717Y31.556Z0F800
G1 X48.351Y30.695Z0F800
G1 X48.017Y29.815Z0F800
G1 X47.872Y29.321Z0F800
G1 X47.762Y28.817Z0F800
G1 X47.661Y28.319Z0F800
G1 X47.54Y27.838Z0F800
G1 X47.376Y27.39Z0F800
G1 X47.144Y26.985Z0F800
G1 X46.994Y26.801Z0F800
G1 X46.816Y26.63Z0F800
G1 X46.607Y26.475Z0F800
G1 X46.364Y26.334Z0F800
G1 X46.228Y26.282Z0F800
G1 X46.057Y26.242Z0F800
G1 X45.855Y26.212Z0F800
G1 X45.628Y26.194Z0F800
G1 X45.12Y26.184Z0F800
G1 X44.575Y26.206Z0F800
G1 X44.032Y26.248Z0F800
G1 X43.293Y26.315Z0F800
G1 X43.082Y26.332Z0F800
G1 X42.897Y26.344Z0F800
G1 X42.739Y26.348Z0F800
G1 X41.545Y26.351Z0F800
G1 X40.405Y26.375Z0F800
G1 X39.307Y26.439Z0F800
G1 X38.239Y26.565Z0F800
G1 X37.712Y26.657Z0F800
G1 X37.187Y26.772Z0F800
G1 X36.664Y26.912Z0F800
G1 X36.141Y27.081Z0F800
G1 X35.615Y27.28Z0F800
G1 X35.086Y27.513Z0F800
G1 X34.552Y27.782Z0F800
G1 X34.011Y28.088Z0F800
G1 X33.609Y28.358Z0F800
G1 X33.206Y28.682Z0F800
G1 X32.804Y29.055Z0F800
G1 X32.407Y29.472Z0F800
G1 X32.019Y29.928Z0F800
G1 X31.643Y30.416Z0F800
G1 X31.281Y30.931Z0F800
G1 X30.938Y31.467Z0F800
G1 X30.617Y32.02Z0F800
G1 X30.321Y32.582Z0F800
G1 X30.053Y33.149Z0F800
G1 X29.815Y33.714Z0F800
G1 X29.612Y34.272Z0F800
G1 X29.445Y34.817Z0F800
G1 X29.319Y35.343Z0F800
G1 X29.235Y35.844Z0F800
G1 X29.224Y36.154Z0F800
G1 X29.257Y36.467Z0F800
G1 X29.323Y36.785Z0F800
G1 X29.409Y37.108Z0F800
G1 X29.503Y37.437Z0F800
G1 X29.589Y37.773Z0F800
G1 X29.652Y38.116Z0F800
G1 X29.677Y38.467Z0F800
G1 X29.642Y38.994Z0F800
G1 X29.585Y39.581Z0F800
G1 X29.571Y39.869Z0F800
G1 X29.576Y40.134Z0F800
G1 X29.606Y40.363Z0F800
G1 X29.663Y40.54Z0F800
G1 X29.81Y40.805Z0F800
G1 X29.999Y41.102Z0F800
G1 X30.225Y41.427Z0F800
G1 X30.484Y41.772Z0F800
G1 X31.081Y42.502Z0F800
G1 X31.749Y43.247Z0F800
G1 X32.451Y43.964Z0F800
G1 X33.148Y44.612Z0F800
G1 X33.481Y44.896Z0F800
G1 X33.797Y45.147Z0F800
G1 X34.09Y45.359Z0F800
G1 X34.356Y45.526Z0F800
G1 X34.608Y45.646Z0F800
G1 X34.881Y45.739Z0F800
G1 X35.17Y45.819Z0F800
G1 X35.466Y45.895Z0F800
G1 X35.763Y45.98Z0F800
G1 X36.054Y46.087Z0F800
G1 X36.33Y46.231Z0F800
G1 X36.581Y46.424Z0F800
G1 X36.665Y46.533Z0F800
G1 X36.714Y46.655Z0F800
G1 X36.741Y46.784Z0F800
G1 X36.761Y46.911Z0F800
G1 X36.783Y47.029Z0F800
G1 X36.808Y47.131Z0F800
G1 X36.835Y47.208Z0F800
G1 X36.86Y47.251Z0F800
G1 X36.991Y47.323Z0F800
G1 X37.31Y47.477Z0F800
G1 X37.718Y47.683Z0F800
G1 X38.147Y47.93Z0F800
G1 X38.349Y48.066Z0F800
G1 X38.532Y48.211Z0F800
G1 X38.686Y48.366Z0F800
G1 X38.804Y48.534Z0F800
G1 X38.845Y48.625Z0F800
G1 X38.871Y48.721Z0F800
G1 X38.879Y48.82Z0F800
G1 X38.866Y48.92Z0F800
G1 X38.832Y49.018Z0F800
G1 X38.776Y49.111Z0F800
G1 X38.701Y49.199Z0F800
G1 X38.606Y49.282Z0F800
G1 X38.461Y49.369Z0F800
G1 X38.284Y49.435Z0F800
G1 X38.074Y49.485Z0F800
G1 X37.833Y49.524Z0F800
G1 X37.561Y49.553Z0F800
G1 X37.259Y49.573Z0F800
G1 X36.932Y49.585Z0F800
G1 X36.581Y49.59Z0F800
G1 X35.817Y49.582Z0F800
G1 X34.989Y49.553Z0F800
G1 X34.115Y49.508Z0F800
G1 X33.218Y49.454Z0F800
G1 X31.436Y49.336Z0F800
G1 X30.594Y49.285Z0F800
G1 X29.813Y49.245Z0F800
G1 X29.453Y49.231Z0F800
G1 X29.116Y49.222Z0F800
G1 X28.806Y49.218Z0F800
G1 X28.524Y49.221Z0F800
G1 X28.275Y49.231Z0F800
G1 X28.06Y49.249Z0F800
G1 X27.886Y49.273Z0F800
G1 X27.759Y49.303Z0F800
G1 X26.837Y49.601Z0F800
G1 X26.463Y49.727Z0F800
G1 X26.136Y49.842Z0F800
G1 X25.85Y49.952Z0F800
G1 X25.597Y50.06Z0F800
G1 X25.37Y50.17Z0F800
G1 X25.161Y50.287Z0F800
G1 X24.772Y50.559Z0F800
G1 X24.369Y50.907Z0F800
G1 X24.145Y51.121Z0F800
G1 X23.895Y51.366Z0F800
G1 X23.292Y51.969Z0F800
G1 X23.187Y52.046Z0F800
G1 X23.063Y52.095Z0F800
G1 X22.919Y52.126Z0F800
G1 X22.757Y52.149Z0F800
G1 X22.383Y52.184Z0F800
G1 X21.972Y52.209Z0F800
G1 X21.555Y52.237Z0F800
G1 X21.167Y52.278Z0F800
G1 X20.995Y52.307Z0F800
G1 X20.845Y52.342Z0F800
G1 X20.723Y52.383Z0F800
G1 X20.636Y52.426Z0F800
G1 X20.511Y52.535Z0F800
G1 X20.382Y52.699Z0F800
G1 X20.253Y52.913Z0F800
G1 X20.13Y53.169Z0F800
G1 X19.915Y53.774Z0F800
G1 X19.753Y54.456Z0F800
G1 X19.695Y54.807Z0F800
G1 X19.656Y55.155Z0F800
G1 X19.635Y55.493Z0F800
G1 Y55.813Z0F800
G1 X19.659Y56.108Z0F800
G1 X19.705Y56.369Z0F800
G1 X19.772Y56.589Z0F800
G1 X19.858Y56.758Z0F800
G1 X20.043Y56.968Z0F800
G1 X20.512Y57.372Z0F800
G1 X20.735Y57.618Z0F800
G1 X20.799Y57.735Z0F800
G1 X20.831Y57.864Z0F800
G1 X20.841Y58.004Z0F800
G1 X20.835Y58.151Z0F800
G1 X20.796Y58.462Z0F800
G1 X20.682Y59.096Z0F800
G1 X20.653Y59.372Z0F800
G1 Y59.483Z0F800
G1 X20.669Y59.572Z0F800
G1 X20.692Y59.636Z0F800
G1 X20.72Y59.676Z0F800
G1 X20.94Y59.825Z0F800
G1 X21.221Y59.936Z0F800
G1 X21.542Y60.019Z0F800
G1 X21.882Y60.083Z0F800
G1 X22.22Y60.137Z0F800
G1 X22.536Y60.198Z0F800
G1 X22.68Y60.235Z0F800
G1 X22.813Y60.282Z0F800
G1 X22.932Y60.341Z0F800
G1 X23.036Y60.419Z0F800
G1 X23.361Y60.779Z0F800
G1 X23.676Y61.231Z0F800
G1 X23.993Y61.753Z0F800
G1 X24.325Y62.323Z0F800
G1 X24.682Y62.919Z0F800
G1 X25.072Y63.518Z0F800
G1 X25.502Y64.096Z0F800
G1 X25.981Y64.631Z0F800
G1 X26.184Y64.808Z0F800
G1 X26.406Y64.962Z0F800
G1 X26.641Y65.102Z0F800
G1 X27.122Y65.369Z0F800
G1 X27.352Y65.513Z0F800
G1 X27.565Y65.678Z0F800
G1 X27.751Y65.874Z0F800
G1 X27.746Y65.862Z0F800
G1 X27.812Y65.887Z0F800
G1 X27.878Y65.905Z0F800
G1 X28.061Y65.93Z0F800
G1 X28.304Y65.95Z0F800
G1 X28.599Y65.962Z0F800
G1 X28.942Y65.969Z0F800
G1 X29.328Z0F800
G1 X29.753Y65.965Z0F800
G1 X30.212Y65.956Z0F800
G1 X30.701Y65.943Z0F800
G1 X31.215Y65.926Z0F800
G1 X31.751Y65.906Z0F800
G1 X32.869Y65.861Z0F800
G1 X35.176Y65.762Z0F800
G1 X36.297Y65.717Z0F800
G1 X36.834Y65.698Z0F800
G1 X37.351Y65.683Z0F800
G1 X37.843Y65.67Z0F800
G1 X38.306Y65.663Z0F800
G1 X38.735Y65.66Z0F800
G1 X39.127Z0F800
G1 X39.478Y65.671Z0F800
G1 X39.784Y65.686Z0F800
G1 X40.042Y65.709Z0F800
G1 X40.251Y65.741Z0F800
G1 X40.337Y65.758Z0F800
G1 X40.412Y65.78Z0F800
G1 X40.48Y65.815Z0F800
G1 X40.54Y65.872Z0F800
G1 X40.561Y66Z0F800
G1 X40.538Y66.041Z0F800
G1 X40.517Y66.061Z0F800
G1 X40.501Y66.073Z0F800
G1 X40.474Y66.088Z0F800
G1 X40.093Y66.28Z0F800
G1 X39.169Y66.731Z0F800
G1 X37.561Y67.512Z0F800
G1 X36.928Y67.798Z0F800
G1 X36.304Y68.028Z0F800
G1 X35.689Y68.221Z0F800
G1 X34.486Y68.568Z0F800
G1 X33.895Y68.759Z0F800
G1 X33.31Y68.986Z0F800
G1 X32.731Y69.268Z0F800
G1 X32.382Y69.415Z0F800
G1 X31.99Y69.507Z0F800
G1 X31.563Y69.555Z0F800
G1 X31.108Y69.567Z0F800
G1 X30.141Y69.527Z0F800
G1 X29.145Y69.469Z0F800
G1 X28.655Y69.457Z0F800
G1 X28.181Y69.467Z0F800
G1 X27.73Y69.507Z0F800
G1 X27.311Y69.586Z0F800
G1 X26.934Y69.711Z0F800
G1 X26.602Y69.889Z0F800
G1 X26.321Y70.129Z0F800
G1 X26.095Y70.44Z0F800
G1 X26.03Y70.588Z0F800
G1 X25.981Y70.774Z0F800
G1 X25.946Y70.992Z0F800
G1 X25.924Y71.237Z0F800
G1 X25.913Y71.789Z0F800
G1 X25.94Y72.389Z0F800
G1 X25.991Y72.996Z0F800
G1 X26.048Y73.578Z0F800
G1 X26.093Y74.1Z0F800
G1 X26.112Y74.53Z0F800
G1 X26.104Y74.755Z0F800
G1 X26.081Y75.074Z0F800
G1 X25.962Y76.477Z0F800
G1 X25.915Y77.05Z0F800
G1 X25.872Y77.65Z0F800
G1 X25.833Y78.264Z0F800
G1 X25.803Y78.878Z0F800
G1 X25.785Y79.476Z0F800
G1 X25.782Y80.045Z0F800
G1 X25.798Y80.569Z0F800
G1 X25.835Y81.033Z0F800
G1 X25.895Y81.42Z0F800
G1 X25.936Y81.58Z0F800
G1 X25.981Y81.713Z0F800
G1 X26.03Y81.817Z0F800
G1 X26.079Y81.889Z0F800
G1 X26.309Y82.094Z0F800
G1 X26.594Y82.288Z0F800
G1 X26.898Y82.485Z0F800
G1 X27.186Y82.704Z0F800
G1 X27.247Y82.778Z0F800
G1 X27.277Y82.861Z0F800
G1 X27.285Y82.949Z0F800
G1 X27.282Y83.037Z0F800
G1 X27.26Y83.219Z0F800
G1 X27.194Y83.586Z0F800
G1 X27.177Y83.739Z0F800
G1 Y83.797Z0F800
G1 X27.181Y83.836Z0F800
G1 X27.185Y83.85Z0F800
G1 X27.179Y83.844Z0F800
G1 X27.579Y84.079Z0F800
G1 X28.491Y84.465Z0F800
G1 X28.937Y84.723Z0F800
G1 X29.054Y84.83Z0F800
G1 X29.143Y84.954Z0F800
G1 X29.206Y85.091Z0F800
G1 X29.245Y85.235Z0F800
G1 X29.275Y85.536Z0F800
G1 X29.269Y85.844Z0F800
G1 X29.258Y86.145Z0F800
G1 X29.265Y86.426Z0F800
G1 X29.308Y86.674Z0F800
G1 X29.405Y86.878Z0F800
G1 X29.45Y86.907Z0F800
G1 X29.527Y86.948Z0F800
G1 X29.868Y87.113Z0F800
G1 X30.145Y87.243Z0F800
G1 X30.428Y87.372Z0F800
G1 X30.685Y87.493Z0F800
G1 X30.794Y87.546Z0F800
G1 X30.888Y87.594Z0F800
G1 X30.96Y87.635Z0F800
G1 X31.02Y87.68Z0F800
G1 X31.138Y87.832Z0F800
G1 X31.203Y88.019Z0F800
G1 X31.226Y88.233Z0F800
G1 X31.222Y88.467Z0F800
G1 X31.159Y88.98Z0F800
G1 X30.958Y90.066Z0F800
G1 X30.899Y90.547Z0F800
G1 Y90.747Z0F800
G1 X30.92Y90.908Z0F800
G1 X30.96Y91.028Z0F800
G1 X31.017Y91.104Z0F800
G1 X31.082Y91.133Z0F800
G1 X31.185Y91.126Z0F800
G1 X31.335Y91.072Z0F800
G1 X31.519Y90.969Z0F800
G1 X31.727Y90.824Z0F800
G1 X31.952Y90.642Z0F800
G1 X32.189Y90.433Z0F800
G1 X32.433Y90.204Z0F800
G1 X32.92Y89.715Z0F800
G1 X33.386Y89.234Z0F800
G1 X33.603Y89.013Z0F800
G1 X33.804Y88.815Z0F800
G1 X33.986Y88.646Z0F800
G1 X34.147Y88.514Z0F800
G1 X35.213Y87.777Z0F800
G1 X36.297Y87.133Z0F800
G1 X37.392Y86.563Z0F800
G1 X38.49Y86.049Z0F800
G1 X40.661Y85.111Z0F800
G1 X42.745Y84.169Z0F800
G1 X43.674Y83.675Z0F800
G1 X44.559Y83.126Z0F800
G1 X45.398Y82.512Z0F800
G1 X46.19Y81.825Z0F800
G1 X46.277Y81.348Z0F800
G1 X46.374Y80.895Z0F800
G1 X46.481Y80.471Z0F800
G1 X46.601Y80.079Z0F800
G1 X46.736Y79.724Z0F800
G1 X46.886Y79.41Z0F800
G1 X47.053Y79.14Z0F800
G1 X47.239Y78.919Z0F800
G1 X47.28Y78.84Z0F800
G1 X47.318Y78.748Z0F800
G1 X47.362Y78.629Z0F800
G1 X47.463Y78.328Z0F800
G1 X47.579Y77.954Z0F800
G1 X47.846Y77.055Z0F800
G1 X48.149Y76.071Z0F800
G1 X48.31Y75.588Z0F800
G1 X48.474Y75.132Z0F800
G1 X48.641Y74.719Z0F800
G1 X48.811Y74.364Z0F800

; Color 1 picking sequence
G1 Z10 F500;         ; Raise brush to safe height
G0 X2 Y0 F1000;     ; Rapid move to brush cleaning position
G1 Z0 F500;         ; Lower brush for cleaning - controlled movement
G1 Z2 F500;         ; Raise brush slightly - controlled movement
G1 X22 Y0 Z8 F500;     ; Move across cleaning area - controlled movement
G1 Z8 F500;         ; Maintain brush height - controlled movement
G0 X41 Y0 F1200;    ; Rapid move to color 1 position
G1 Z0 F500;         ; Lower into color - controlled movement
G1 X35 Y1 F500;     ; Small movement in paint - controlled movement
G1 Z7 F500;         ; Raise from color - controlled movement
G1 X38 Y1 F500;     ; Movement in paint - controlled movement
G1 Z1 F500;         ; Lower slightly - controlled movement
G1 X27 Y10 Z8 F500;     ; Move in paint - controlled movement
G1 Z8 F500;         ; Raise brush - controlled movement
G1 F1000;           ; Set feed rate to 1000
G0 Z2.8F500
G0 X45.208Y69.593Z2.8F1000
G1 Z0F500
G1 X44.738Y69.373Z0F800
G1 X44.257Y69.154Z0F800
G1 X44.27Y69.284Z0F800
G1 X44.328Y69.503Z0F800
G1 X44.39Y69.632Z0F800
G1 X44.407Y69.648Z0F800
G1 X44.435Y69.656Z0F800
G1 X44.486Z0F800
G1 X44.558Y69.648Z0F800
G1 X44.736Y69.606Z0F800
G1 X44.942Y69.579Z0F800
G1 X45.208Y69.593Z0F800
G0 Z2.8F500
G0 X45.363Y69.865Z2.8F1000
G1 Z0F500
G1 X44.942Y69.845Z0F800
G1 X44.796Y69.867Z0F800
G1 X44.605Y69.908Z0F800
G1 X44.501Y69.921Z0F800
G1 X44.392Y69.916Z0F800
G1 X44.278Y69.876Z0F800
G1 X44.181Y69.793Z0F800
G1 X44.076Y69.593Z0F800
G1 X44.009Y69.336Z0F800
G1 X43.99Y69.186Z0F800
G1 X43.976Y69.025Z0F800
G1 X42.868Y68.514Z0F800
G1 X41.796Y67.922Z0F800
G1 X41.287Y67.578Z0F800
G1 X40.804Y67.192Z0F800
G1 X40.353Y66.757Z0F800
G1 X39.94Y66.265Z0F800
G1 X39.627Y65.82Z0F800
G1 X39.352Y65.373Z0F800
G1 X39.114Y64.926Z0F800
G1 X38.91Y64.476Z0F800
G1 X38.737Y64.023Z0F800
G1 X38.592Y63.568Z0F800
G1 X38.474Y63.108Z0F800
G1 X38.379Y62.645Z0F800
G1 X38.249Y61.702Z0F800
G1 X38.182Y60.734Z0F800
G1 X38.157Y59.737Z0F800
G1 X38.153Y58.707Z0F800
G1 X38.122Y56.94Z0F800
G1 X38.106Y55.121Z0F800
G1 X38.142Y54.216Z0F800
G1 X38.226Y53.325Z0F800
G1 X38.374Y52.459Z0F800
G1 X38.601Y51.627Z0F800
G1 X38.801Y51.143Z0F800
G1 X39.077Y50.658Z0F800
G1 X39.419Y50.173Z0F800
G1 X39.82Y49.691Z0F800
G1 X40.27Y49.217Z0F800
G1 X40.761Y48.753Z0F800
G1 X41.285Y48.302Z0F800
G1 X41.833Y47.867Z0F800
G1 X42.397Y47.452Z0F800
G1 X42.968Y47.06Z0F800
G1 X43.539Y46.696Z0F800
G1 X44.102Y46.363Z0F800
G1 X44.647Y46.064Z0F800
G1 X45.168Y45.804Z0F800
G1 X45.656Y45.586Z0F800
G1 X46.103Y45.414Z0F800
G1 X46.25Y45.373Z0F800
G1 X46.438Y45.339Z0F800
G1 X46.667Y45.309Z0F800
G1 X46.939Y45.283Z0F800
G1 X47.25Y45.259Z0F800
G1 X47.597Y45.238Z0F800
G1 X47.977Y45.219Z0F800
G1 X48.386Y45.203Z0F800
G1 X49.279Y45.177Z0F800
G1 X50.25Y45.161Z0F800
G1 X51.271Y45.153Z0F800
G1 X52.317Z0F800
G1 X53.361Y45.162Z0F800
G1 X54.374Y45.178Z0F800
G1 X55.331Y45.201Z0F800
G1 X56.206Y45.23Z0F800
G1 X56.604Y45.247Z0F800
G1 X56.972Y45.266Z0F800
G1 X57.306Y45.287Z0F800
G1 X57.603Y45.308Z0F800
G1 X57.857Y45.33Z0F800
G1 X58.068Y45.354Z0F800
G1 X58.237Y45.38Z0F800
G1 X58.366Y45.412Z0F800
G1 X58.659Y45.494Z0F800
G1 X59.038Y45.586Z0F800
G1 X59.929Y45.795Z0F800
G1 X60.378Y45.906Z0F800
G1 X60.793Y46.022Z0F800
G1 X61.15Y46.149Z0F800
G1 X61.425Y46.291Z0F800
G1 X61.618Y46.424Z0F800
G1 X61.828Y46.58Z0F800
G1 X62.055Y46.756Z0F800
G1 X62.297Y46.952Z0F800
G1 X62.82Y47.394Z0F800
G1 X63.388Y47.897Z0F800
G1 X63.989Y48.449Z0F800
G1 X64.612Y49.039Z0F800
G1 X65.248Y49.656Z0F800
G1 X65.885Y50.29Z0F800
G1 X66.513Y50.928Z0F800
G1 X67.121Y51.56Z0F800
G1 X67.698Y52.176Z0F800
G1 X68.233Y52.763Z0F800
G1 X68.717Y53.312Z0F800
G1 X69.137Y53.81Z0F800
G1 X69.321Y54.037Z0F800
G1 X69.484Y54.248Z0F800
G1 X69.627Y54.44Z0F800
G1 X69.747Y54.613Z0F800
G1 X69.852Y54.843Z0F800
G1 X69.923Y55.148Z0F800
G1 X69.975Y55.526Z0F800
G1 X70.011Y55.966Z0F800
G1 X70.033Y56.458Z0F800
G1 X70.042Y56.987Z0F800
G1 Y57.541Z0F800
G1 X70.028Y58.107Z0F800
G1 X70.008Y58.673Z0F800
G1 X69.982Y59.224Z0F800
G1 X69.95Y59.748Z0F800
G1 X69.915Y60.23Z0F800
G1 X69.878Y60.657Z0F800
G1 X69.841Y61.016Z0F800
G1 X69.803Y61.298Z0F800
G1 X69.765Y61.496Z0F800
G1 X69.658Y61.828Z0F800
G1 X69.546Y62.17Z0F800
G1 X69.542Y66.513Z0F800
G1 X69.583Y67.278Z0F800
G1 X69.65Y68.059Z0F800
G1 X69.668Y68.453Z0F800
G1 X69.662Y68.847Z0F800
G1 X69.621Y69.239Z0F800
G1 X69.536Y69.629Z0F800
G1 X69.344Y70.107Z0F800
G1 X69.096Y70.545Z0F800
G1 X68.848Y70.967Z0F800
G1 X68.655Y71.394Z0F800
G1 X68.611Y71.681Z0F800
G1 X68.622Y72.046Z0F800
G1 X68.671Y72.463Z0F800
G1 X68.735Y72.904Z0F800
G1 X68.796Y73.345Z0F800
G1 X68.823Y73.768Z0F800
G1 X68.813Y73.967Z0F800
G1 X68.781Y74.154Z0F800
G1 X68.724Y74.326Z0F800
G1 X68.638Y74.482Z0F800
G1 X68.547Y74.557Z0F800
G1 X68.452Y74.58Z0F800
G1 X68.348Y74.595Z0F800
G1 X68.227Y74.603Z0F800
G1 X67.944Y74.606Z0F800
G1 X67.628Y74.595Z0F800
G1 X67.308Y74.577Z0F800
G1 X66.784Y74.543Z0F800
G1 X66.655Y74.537Z0F800
G1 X64.924Y74.563Z0F800
G1 X63.152Y74.623Z0F800
G1 X61.356Y74.688Z0F800
G1 X59.552Y74.73Z0F800
G1 X57.753Y74.72Z0F800
G1 X55.977Y74.629Z0F800
G1 X55.101Y74.545Z0F800
G1 X54.236Y74.43Z0F800
G1 X53.385Y74.28Z0F800
G1 X52.548Y74.093Z0F800
G1 X52.058Y73.949Z0F800
G1 X51.586Y73.77Z0F800
G1 X51.128Y73.559Z0F800
G1 X50.685Y73.322Z0F800
G1 X49.832Y72.782Z0F800
G1 X49.012Y72.185Z0F800
G1 X48.211Y71.563Z0F800
G1 X47.415Y70.951Z0F800
G1 X46.609Y70.382Z0F800
G1 X45.78Y69.89Z0F800
G1 X45.363Y69.865Z0F800

; Color 1 picking sequence
G1 Z10 F500;         ; Raise brush to safe height
G0 X2 Y0 F1000;     ; Rapid move to brush cleaning position
G1 Z0 F500;         ; Lower brush for cleaning - controlled movement
G1 Z2 F500;         ; Raise brush slightly - controlled movement
G1 X22 Y0 Z8 F500;     ; Move across cleaning area - controlled movement
G1 Z8 F500;         ; Maintain brush height - controlled movement
G0 X41 Y0 F1200;    ; Rapid move to color 1 position
G1 Z0 F500;         ; Lower into color - controlled movement
G1 X35 Y1 F500;     ; Small movement in paint - controlled movement
G1 Z7 F500;         ; Raise from color - controlled movement
G1 X38 Y1 F500;     ; Movement in paint - controlled movement
G1 Z1 F500;         ; Lower slightly - controlled movement
G1 X27 Y10 Z8 F500;     ; Move in paint - controlled movement
G1 Z8 F500;         ; Raise brush - controlled movement
G1 F1000;           ; Set feed rate to 1000
G0 Z2.8F500
G0 X26.345Y71.91Z2.8F1000
G1 Z0F500
G1 X26.12Y72.05Z0F800
G1 X25.908Y71.771Z0F800
G1 X25.652Y71.526Z0F800
G1 X25.358Y71.312Z0F800
G1 X25.029Y71.125Z0F800
G1 X24.291Y70.82Z0F800
G1 X23.48Y70.581Z0F800
G1 X22.638Y70.382Z0F800
G1 X21.813Y70.189Z0F800
G1 X21.42Y70.084Z0F800
G1 X21.046Y69.967Z0F800
G1 X20.697Y69.834Z0F800
G1 X20.378Y69.681Z0F800
G1 X20.134Y69.532Z0F800
G1 X19.839Y69.323Z0F800
G1 X19.502Y69.064Z0F800
G1 X19.136Y68.76Z0F800
G1 X18.354Y68.054Z0F800
G1 X17.577Y67.265Z0F800
G1 X17.218Y66.86Z0F800
G1 X16.893Y66.457Z0F800
G1 X16.615Y66.065Z0F800
G1 X16.394Y65.689Z0F800
G1 X16.308Y65.509Z0F800
G1 X16.241Y65.335Z0F800
G1 X16.196Y65.166Z0F800
G1 X16.173Y65.003Z0F800
G1 X16.177Y64.846Z0F800
G1 X16.212Y64.697Z0F800
G1 X16.279Y64.562Z0F800
G1 X16.38Y64.445Z0F800
G1 X16.497Y64.366Z0F800
G1 X16.634Y64.313Z0F800
G1 X16.788Y64.28Z0F800
G1 X16.958Y64.259Z0F800
G1 X17.331Y64.24Z0F800
G1 X17.724Z0F800
G1 X18.102Y64.243Z0F800
G1 X18.427Y64.236Z0F800
G1 X18.557Y64.225Z0F800
G1 X18.655Y64.208Z0F800
G1 X18.707Y64.189Z0F800
G1 X18.71Y64.193Z0F800
G1 X18.96Y63.887Z0F800
G1 X19.255Y63.639Z0F800
G1 X19.587Y63.435Z0F800
G1 X19.942Y63.261Z0F800
G1 X20.692Y62.95Z0F800
G1 X21.439Y62.605Z0F800
G1 X21.544Y62.561Z0F800
G1 X21.656Y62.539Z0F800
G1 X21.773Y62.533Z0F800
G1 X21.894Y62.538Z0F800
G1 X22.143Y62.57Z0F800
G1 X22.396Y62.615Z0F800
G1 X22.638Y62.655Z0F800
G1 X22.853Y62.675Z0F800
G1 X23.017Y62.662Z0F800
G1 X23.116Y62.619Z0F800
G1 X23.435Y62.304Z0F800
G1 X23.771Y61.942Z0F800
G1 X23.955Y61.765Z0F800
G1 X24.154Y61.604Z0F800
G1 X24.372Y61.467Z0F800
G1 X24.612Y61.365Z0F800
G1 X24.694Y61.617Z0F800
G1 X24.498Y61.703Z0F800
G1 X24.313Y61.823Z0F800
G1 X24.138Y61.97Z0F800
G1 X23.968Y62.135Z0F800
G1 X23.634Y62.489Z0F800
G1 X23.286Y62.822Z0F800
G1 X23.188Y62.884Z0F800
G1 X23.08Y62.92Z0F800
G1 X22.965Y62.937Z0F800
G1 X22.847Z0F800
G1 X22.601Y62.917Z0F800
G1 X22.349Y62.875Z0F800
G1 X22.101Y62.831Z0F800
G1 X21.874Y62.802Z0F800
G1 X21.689Z0F800
G1 X21.565Y62.835Z0F800
G1 X21.179Y63.028Z0F800
G1 X20.792Y63.195Z0F800
G1 X20.413Y63.348Z0F800
G1 X20.05Y63.501Z0F800
G1 X19.713Y63.666Z0F800
G1 X19.41Y63.852Z0F800
G1 X19.148Y64.072Z0F800
G1 X18.931Y64.337Z0F800
G1 X18.834Y64.424Z0F800
G1 X18.718Y64.464Z0F800
G1 X18.589Y64.487Z0F800
G1 X18.442Y64.5Z0F800
G1 X18.101Y64.507Z0F800
G1 X17.722Y64.504Z0F800
G1 X17.337Z0F800
G1 X16.985Y64.523Z0F800
G1 X16.834Y64.544Z0F800
G1 X16.708Y64.573Z0F800
G1 X16.613Y64.607Z0F800
G1 X16.556Y64.64Z0F800
G1 X16.496Y64.708Z0F800
G1 X16.457Y64.786Z0F800
G1 X16.437Y64.878Z0F800
G1 Y64.986Z0F800
G1 X16.494Y65.251Z0F800
G1 X16.63Y65.568Z0F800
G1 X16.837Y65.92Z0F800
G1 X17.105Y66.296Z0F800
G1 X17.42Y66.688Z0F800
G1 X17.772Y67.086Z0F800
G1 X18.542Y67.864Z0F800
G1 X19.319Y68.563Z0F800
G1 X19.68Y68.862Z0F800
G1 X20.006Y69.114Z0F800
G1 X20.285Y69.313Z0F800
G1 X20.505Y69.449Z0F800
G1 X20.8Y69.59Z0F800
G1 X21.13Y69.714Z0F800
G1 X21.491Y69.826Z0F800
G1 X21.876Y69.929Z0F800
G1 X22.697Y70.123Z0F800
G1 X23.546Y70.326Z0F800
G1 X24.381Y70.569Z0F800
G1 X25.157Y70.89Z0F800
G1 X25.508Y71.091Z0F800
G1 X25.827Y71.325Z0F800
G1 X26.108Y71.596Z0F800
G1 X26.345Y71.91Z0F800

; Color 1 picking sequence
G1 Z10 F500;         ; Raise brush to safe height
G0 X2 Y0 F1000;     ; Rapid move to brush cleaning position
G1 Z0 F500;         ; Lower brush for cleaning - controlled movement
G1 Z2 F500;         ; Raise brush slightly - controlled movement
G1 X22 Y0 Z8 F500;     ; Move across cleaning area - controlled movement
G1 Z8 F500;         ; Maintain brush height - controlled movement
G0 X41 Y0 F1200;    ; Rapid move to color 1 position
G1 Z0 F500;         ; Lower into color - controlled movement
G1 X35 Y1 F500;     ; Small movement in paint - controlled movement
G1 Z7 F500;         ; Raise from color - controlled movement
G1 X38 Y1 F500;     ; Movement in paint - controlled movement
G1 Z1 F500;         ; Lower slightly - controlled movement
G1 X27 Y10 Z8 F500;     ; Move in paint - controlled movement
G1 Z8 F500;         ; Raise brush - controlled movement
G1 F1000;           ; Set feed rate to 1000
G0 Z2.8F500
G0 X40.55Y83.214Z2.8F1000
G1 Z0F500
G1 X40.634Y83.206Z0F800
G1 X40.715Y83.24Z0F800
G1 X40.778Y83.296Z0F800
G1 X40.824Y83.367Z0F800
G1 X40.853Y83.445Z0F800
G1 X40.878Y83.612Z0F800
G1 X40.875Y83.802Z0F800
G1 X40.827Y84.129Z0F800
G1 X40.748Y84.488Z0F800
G1 X40.86Y84.604Z0F800
G1 X40.984Y84.765Z0F800
G1 X40.763Y84.911Z0F800
G1 X40.72Y84.856Z0F800
G1 X40.679Y84.81Z0F800
G1 X40.619Y85.024Z0F800
G1 X40.556Y85.23Z0F800
G1 X40.545Y85.532Z0F800
G1 X40.535Y85.845Z0F800
G1 X40.524Y86.85Z0F800
G1 X40.521Y87.801Z0F800
G1 Y89.128Z0F800
G1 X40.257Z0F800
G1 Y88.599Z0F800
G1 X40.106Y88.824Z0F800
G1 X39.921Y89.023Z0F800
G1 X39.716Y89.202Z0F800
G1 X39.285Y89.54Z0F800
G1 X39.086Y89.711Z0F800
G1 X38.917Y89.89Z0F800
G1 X38.791Y90.081Z0F800
G1 X38.539Y90.683Z0F800
G1 X38.348Y91.359Z0F800
G1 X38.207Y92.086Z0F800
G1 X38.107Y92.841Z0F800
G1 X38.038Y93.601Z0F800
G1 X37.992Y94.344Z0F800
G1 X37.929Y95.683Z0F800
G1 X37.665Y95.669Z0F800
G1 X37.725Y94.334Z0F800
G1 X37.769Y93.587Z0F800
G1 X37.837Y92.818Z0F800
G1 X37.939Y92.049Z0F800
G1 X38.086Y91.302Z0F800
G1 X38.288Y90.599Z0F800
G1 X38.556Y89.962Z0F800
G1 X38.71Y89.726Z0F800
G1 X38.902Y89.519Z0F800
G1 X39.118Y89.334Z0F800
G1 X39.558Y88.992Z0F800
G1 X39.755Y88.821Z0F800
G1 X39.923Y88.642Z0F800
G1 X40.048Y88.453Z0F800
G1 X40.116Y88.221Z0F800
G1 X40.125Y87.941Z0F800
G1 X40.093Y87.626Z0F800
G1 X40.036Y87.288Z0F800
G1 X39.975Y86.942Z0F800
G1 X39.936Y86.597Z0F800
G1 X39.95Y86.265Z0F800
G1 X40.046Y85.956Z0F800
G1 X40.085Y85.849Z0F800
G1 X40.162Y85.619Z0F800
G1 X40.143Y85.361Z0F800
G1 X40.132Y85.121Z0F800
G1 X40.138Y84.882Z0F800
G1 X40.16Y84.675Z0F800
G1 X40.177Y84.584Z0F800
G1 X40.201Y84.5Z0F800
G1 X40.239Y84.425Z0F800
G1 X40.296Y84.359Z0F800
G1 X40.322Y84.351Z0F800
G1 X40.332Y84.07Z0F800
G1 X40.359Y83.752Z0F800
G1 X40.392Y83.505Z0F800
G1 X40.412Y83.41Z0F800
G1 X40.439Y83.329Z0F800
G1 X40.457Y83.291Z0F800
G1 X40.488Y83.251Z0F800
G1 X40.55Y83.214Z0F800
G0 Z2.8F500
G0 X46.821Y86.289Z2.8F1000
G1 Z0F500
G1 X47.085Z0F800
G1 X47.09Y86.441Z0F800
G1 X47.104Y86.646Z0F800
G1 X47.125Y86.898Z0F800
G1 X47.208Y87.843Z0F800
G1 X47.261Y88.55Z0F800
G1 X47.292Y89.246Z0F800
G1 X47.284Y89.874Z0F800
G1 X47.26Y90.145Z0F800
G1 X47.218Y90.38Z0F800
G1 X47.153Y90.577Z0F800
G1 X47.046Y90.732Z0F800
G1 X46.743Y90.979Z0F800
G1 X46.379Y91.197Z0F800
G1 X45.963Y91.39Z0F800
G1 X45.502Y91.562Z0F800
G1 X44.474Y91.858Z0F800
G1 X43.356Y92.113Z0F800
G1 X42.21Y92.353Z0F800
G1 X41.1Y92.599Z0F800
G1 X40.579Y92.73Z0F800
G1 X40.092Y92.87Z0F800
G1 X39.646Y93.023Z0F800
G1 X39.251Y93.189Z0F800
G1 X39.138Y92.951Z0F800
G1 X39.554Y92.775Z0F800
G1 X40.015Y92.616Z0F800
G1 X40.513Y92.472Z0F800
G1 X41.042Y92.338Z0F800
G1 X42.158Y92.092Z0F800
G1 X43.302Y91.853Z0F800
G1 X43.864Y91.728Z0F800
G1 X44.41Y91.596Z0F800
G1 X44.93Y91.455Z0F800
G1 X45.417Y91.302Z0F800
G1 X45.861Y91.137Z0F800
G1 X46.255Y90.956Z0F800
G1 X46.591Y90.759Z0F800
G1 X46.86Y90.542Z0F800
G1 X46.909Y90.465Z0F800
G1 X46.96Y90.318Z0F800
G1 X46.997Y90.112Z0F800
G1 X47.02Y89.859Z0F800
G1 X47.028Y89.252Z0F800
G1 X46.997Y88.568Z0F800
G1 X46.945Y87.871Z0F800
G1 X46.841Y86.675Z0F800
G1 X46.826Y86.458Z0F800
G1 X46.821Y86.289Z0F800

; Color 1 picking sequence
G1 Z10 F500;         ; Raise brush to safe height
G0 X2 Y0 F1000;     ; Rapid move to brush cleaning position
G1 Z0 F500;         ; Lower brush for cleaning - controlled movement
G1 Z2 F500;         ; Raise brush slightly - controlled movement
G1 X22 Y0 Z8 F500;     ; Move across cleaning area - controlled movement
G1 Z8 F500;         ; Maintain brush height - controlled movement
G0 X41 Y0 F1200;    ; Rapid move to color 1 position
G1 Z0 F500;         ; Lower into color - controlled movement
G1 X35 Y1 F500;     ; Small movement in paint - controlled movement
G1 Z7 F500;         ; Raise from color - controlled movement
G1 X38 Y1 F500;     ; Movement in paint - controlled movement
G1 Z1 F500;         ; Lower slightly - controlled movement
G1 X27 Y10 Z8 F500;     ; Move in paint - controlled movement
G1 Z8 F500;         ; Raise brush - controlled movement
G1 F1000;           ; Set feed rate to 1000
G0 Z2.8F500
G0 X59.908Y86.131Z2.8F1000
G1 Z0F500
G1 X59.982Y86.73Z0F800
G1 X60.038Y87Z0F800
G1 X60.108Y87.248Z0F800
G1 X60.192Y87.472Z0F800
G1 X60.29Y87.671Z0F800
G1 X60.56Y88.24Z0F800
G1 X60.768Y88.817Z0F800
G1 X60.955Y89.369Z0F800
G1 X61.159Y89.863Z0F800
G1 X61.289Y90.086Z0F800
G1 X61.443Y90.29Z0F800
G1 X61.618Y90.477Z0F800
G1 X61.809Y90.649Z0F800
G1 X62.227Y90.963Z0F800
G1 X62.671Y91.253Z0F800
G1 X61.635Y89.058Z0F800
G1 X61.403Y88.545Z0F800
G1 X61.195Y88.056Z0F800
G1 X61.016Y87.598Z0F800
G1 X60.874Y87.173Z0F800
G1 X60.639Y86.248Z0F800
G1 X60.478Y85.313Z0F800
G1 X60.38Y84.371Z0F800
G1 X60.331Y83.422Z0F800
G1 X60.337Y81.515Z0F800
G1 X60.399Y79.611Z0F800
G1 X60.106Y82.388Z0F800
G1 X60.014Y83.194Z0F800
G1 X59.94Y83.983Z0F800
G1 X59.893Y84.744Z0F800
G1 X59.88Y85.464Z0F800
G1 X59.908Y86.131Z0F800
G0 Z2.8F500
G0 X63.362Y92.179Z2.8F1000
G1 Z0F500
G1 X63.647Y92.895Z0F800
G1 X63.901Y93.615Z0F800
G1 X64.114Y94.334Z0F800
G1 X64.275Y95.047Z0F800
G1 X64.374Y95.749Z0F800
G1 X64.399Y96.436Z0F800
G1 X64.341Y97.103Z0F800
G1 X64.188Y97.746Z0F800
G1 X64.113Y97.928Z0F800
G1 X64.015Y98.093Z0F800
G1 X63.894Y98.243Z0F800
G1 X63.753Y98.377Z0F800
G1 X63.418Y98.603Z0F800
G1 X63.026Y98.777Z0F800
G1 X62.589Y98.907Z0F800
G1 X62.118Y99.001Z0F800
G1 X61.621Y99.066Z0F800
G1 X61.11Y99.107Z0F800
G1 X60.085Y99.143Z0F800
G1 X59.131Y99.154Z0F800
G1 X58.708Y99.164Z0F800
G1 X58.336Y99.184Z0F800
G1 X58.032Y99.216Z0F800
G1 X57.811Y99.265Z0F800
G1 X56.967Y99.592Z0F800
G1 X56.191Y99.97Z0F800
G1 X55.473Y100.378Z0F800
G1 X54.806Y100.795Z0F800
G1 X54.178Y101.2Z0F800
G1 X53.582Y101.573Z0F800
G1 X53.007Y101.892Z0F800
G1 X52.446Y102.136Z0F800
G1 X52.166Y102.223Z0F800
G1 X51.886Y102.282Z0F800
G1 X51.604Y102.309Z0F800
G1 X51.321Y102.302Z0F800
G1 X51.036Y102.259Z0F800
G1 X50.749Y102.177Z0F800
G1 X50.46Y102.053Z0F800
G1 X50.167Y101.884Z0F800
G1 X49.871Y101.669Z0F800
G1 X49.57Y101.405Z0F800
G1 X49.262Y101.091Z0F800
G1 X48.947Y100.724Z0F800
G1 X48.623Y100.3Z0F800
G1 X48.289Y99.819Z0F800
G1 X47.943Y99.276Z0F800
G1 X47.585Y98.669Z0F800
G1 X47.421Y98.345Z0F800
G1 X47.263Y97.961Z0F800
G1 X47.112Y97.522Z0F800
G1 X46.968Y97.031Z0F800
G1 X46.832Y96.492Z0F800
G1 X46.702Y95.91Z0F800
G1 X46.579Y95.287Z0F800
G1 X46.464Y94.628Z0F800
G1 X46.356Y93.937Z0F800
G1 X46.257Y93.219Z0F800
G1 X46.167Y92.477Z0F800
G1 X46.086Y91.716Z0F800
G1 X45.955Y90.153Z0F800
G1 X45.868Y88.564Z0F800
G1 X45.829Y86.982Z0F800
G1 X45.841Y85.442Z0F800
G1 X45.867Y84.698Z0F800
G1 X45.908Y83.976Z0F800
G1 X45.963Y83.282Z0F800
G1 X46.034Y82.619Z0F800
G1 X46.076Y82.397Z0F800
G1 X46.12Y82.181Z0F800
G1 X45.359Y82.822Z0F800
G1 X44.564Y83.407Z0F800
G1 X43.733Y83.936Z0F800
G1 X42.862Y84.406Z0F800
G1 X40.766Y85.354Z0F800
G1 X38.6Y86.29Z0F800
G1 X37.51Y86.8Z0F800
G1 X36.426Y87.363Z0F800
G1 X35.355Y87.998Z0F800
G1 X34.306Y88.724Z0F800
G1 X34.165Y88.841Z0F800
G1 X33.994Y89Z0F800
G1 X33.8Y89.192Z0F800
G1 X33.585Y89.411Z0F800
G1 X33.114Y89.895Z0F800
G1 X32.616Y90.392Z0F800
G1 X32.368Y90.626Z0F800
G1 X32.124Y90.842Z0F800
G1 X31.888Y91.032Z0F800
G1 X31.661Y91.191Z0F800
G1 X31.446Y91.311Z0F800
G1 X31.239Y91.382Z0F800
G1 X31.136Y91.395Z0F800
G1 X31.034Y91.389Z0F800
G1 X30.937Y91.36Z0F800
G1 X30.849Y91.306Z0F800
G1 X30.727Y91.159Z0F800
G1 X30.659Y90.975Z0F800
G1 X30.633Y90.763Z0F800
G1 X30.636Y90.531Z0F800
G1 X30.697Y90.02Z0F800
G1 X30.898Y88.934Z0F800
G1 X30.958Y88.449Z0F800
G1 Y88.246Z0F800
G1 X30.94Y88.081Z0F800
G1 X30.901Y87.956Z0F800
G1 X30.845Y87.876Z0F800
G1 X30.761Y87.828Z0F800
G1 X30.675Y87.783Z0F800
G1 X30.569Y87.73Z0F800
G1 X30.317Y87.611Z0F800
G1 X29.757Y87.352Z0F800
G1 X29.509Y87.234Z0F800
G1 X29.406Y87.182Z0F800
G1 X29.321Y87.136Z0F800
G1 X29.286Y87.115Z0F800
G1 X29.225Y87.075Z0F800
G1 X29.192Y87.04Z0F800
G1 X29.051Y86.762Z0F800
G1 X28.995Y86.458Z0F800
G1 X28.99Y86.142Z0F800
G1 X29.005Y85.831Z0F800
G1 X29.01Y85.54Z0F800
G1 X28.985Y85.285Z0F800
G1 X28.957Y85.177Z0F800
G1 X28.916Y85.084Z0F800
G1 X28.859Y85.003Z0F800
G1 X28.782Y84.935Z0F800
G1 X28.377Y84.706Z0F800
G1 X27.926Y84.518Z0F800
G1 X27.463Y84.319Z0F800
G1 X27.021Y84.054Z0F800
G1 X26.955Y83.979Z0F800
G1 X26.923Y83.894Z0F800
G1 X26.912Y83.81Z0F800
G1 Y83.724Z0F800
G1 X26.933Y83.543Z0F800
G1 X26.999Y83.176Z0F800
G1 X27.018Y83.021Z0F800
G1 X27.012Y82.923Z0F800
G1 Y82.902Z0F800
G1 X26.75Y82.708Z0F800
G1 X26.45Y82.517Z0F800
G1 X26.149Y82.308Z0F800
G1 X25.881Y82.062Z0F800
G1 X25.799Y81.947Z0F800
G1 X25.733Y81.81Z0F800
G1 X25.679Y81.652Z0F800
G1 X25.635Y81.474Z0F800
G1 X25.571Y81.061Z0F800
G1 X25.534Y80.581Z0F800
G1 X25.518Y80.046Z0F800
G1 Y79.47Z0F800
G1 X25.539Y78.865Z0F800
G1 X25.569Y78.247Z0F800
G1 X25.608Y77.63Z0F800
G1 X25.651Y77.027Z0F800
G1 X25.698Y76.454Z0F800
G1 X25.784Y75.449Z0F800
G1 X25.83Y74.879Z0F800
G1 X25.846Y74.617Z0F800
G1 Y74.529Z0F800
G1 X25.843Y74.341Z0F800
G1 X25.829Y74.121Z0F800
G1 X25.809Y73.875Z0F800
G1 X25.728Y73.023Z0F800
G1 X25.676Y72.408Z0F800
G1 X25.644Y71.798Z0F800
G1 X25.65Y71.225Z0F800
G1 X25.674Y70.962Z0F800
G1 X25.716Y70.718Z0F800
G1 X25.779Y70.499Z0F800
G1 X25.866Y70.308Z0F800
G1 X25.989Y70.118Z0F800
G1 X26.128Y69.949Z0F800
G1 X26.284Y69.801Z0F800
G1 X26.453Y69.672Z0F800
G1 X26.83Y69.469Z0F800
G1 X27.247Y69.329Z0F800
G1 X27.695Y69.244Z0F800
G1 X28.167Y69.202Z0F800
G1 X28.657Y69.192Z0F800
G1 X29.157Y69.204Z0F800
G1 X30.158Y69.257Z0F800
G1 X31.11Y69.289Z0F800
G1 X31.547Y69.277Z0F800
G1 X31.947Y69.236Z0F800
G1 X32.302Y69.158Z0F800
G1 X32.604Y69.035Z0F800
G1 X33.203Y68.742Z0F800
G1 X33.803Y68.507Z0F800
G1 X34.403Y68.311Z0F800
G1 X35.005Y68.136Z0F800
G1 X35.609Y67.964Z0F800
G1 X36.217Y67.775Z0F800
G1 X36.828Y67.551Z0F800
G1 X37.444Y67.275Z0F800
G1 X38.058Y66.974Z0F800
G1 X39.977Y66.04Z0F800
G1 X40.086Y65.986Z0F800
G1 X39.942Y65.965Z0F800
G1 X39.766Y65.949Z0F800
G1 X39.468Y65.934Z0F800
G1 X39.123Y65.926Z0F800
G1 X38.736Z0F800
G1 X38.309Z0F800
G1 X37.849Y65.935Z0F800
G1 X37.359Y65.947Z0F800
G1 X36.843Y65.963Z0F800
G1 X36.307Y65.982Z0F800
G1 X35.187Y66.026Z0F800
G1 X32.881Y66.125Z0F800
G1 X31.762Y66.17Z0F800
G1 X31.225Y66.189Z0F800
G1 X30.71Y66.206Z0F800
G1 X30.219Y66.219Z0F800
G1 X29.758Y66.228Z0F800
G1 X29.331Y66.232Z0F800
G1 X28.94Z0F800
G1 X28.591Y66.225Z0F800
G1 X28.288Y66.212Z0F800
G1 X28.033Y66.192Z0F800
G1 X27.829Y66.163Z0F800
G1 X27.744Y66.148Z0F800
G1 X27.669Y66.128Z0F800
G1 X27.602Y66.094Z0F800
G1 X27.542Y66.037Z0F800
G1 X27.387Y65.875Z0F800
G1 X27.2Y65.731Z0F800
G1 X26.987Y65.597Z0F800
G1 X26.754Y65.466Z0F800
G1 X26.51Y65.332Z0F800
G1 X26.263Y65.185Z0F800
G1 X26.021Y65.017Z0F800
G1 X25.794Y64.818Z0F800
G1 X25.296Y64.262Z0F800
G1 X24.853Y63.668Z0F800
G1 X24.456Y63.058Z0F800
G1 X24.096Y62.456Z0F800
G1 X23.763Y61.887Z0F800
G1 X23.449Y61.373Z0F800
G1 X23.298Y61.145Z0F800
G1 X23.15Y60.94Z0F800
G1 X23.003Y60.762Z0F800
G1 X22.858Y60.613Z0F800
G1 X22.711Y60.528Z0F800
G1 X22.475Y60.455Z0F800
G1 X22.176Y60.397Z0F800
G1 X21.838Y60.343Z0F800
G1 X21.486Y60.28Z0F800
G1 X21.137Y60.193Z0F800
G1 X20.814Y60.063Z0F800
G1 X20.538Y59.871Z0F800
G1 X20.456Y59.765Z0F800
G1 X20.41Y59.641Z0F800
G1 X20.39Y59.505Z0F800
G1 Y59.361Z0F800
G1 X20.421Y59.055Z0F800
G1 X20.534Y58.417Z0F800
G1 X20.571Y58.13Z0F800
G1 X20.574Y58.008Z0F800
G1 X20.565Y57.906Z0F800
G1 X20.547Y57.827Z0F800
G1 X20.522Y57.775Z0F800
G1 X20.328Y57.569Z0F800
G1 X20.095Y57.373Z0F800
G1 X19.855Y57.161Z0F800
G1 X19.639Y56.906Z0F800
G1 X19.525Y56.687Z0F800
G1 X19.445Y56.429Z0F800
G1 X19.395Y56.139Z0F800
G1 X19.372Y55.822Z0F800
G1 Y55.484Z0F800
G1 X19.392Y55.131Z0F800
G1 X19.433Y54.769Z0F800
G1 X19.493Y54.406Z0F800
G1 X19.569Y54.047Z0F800
G1 X19.66Y53.699Z0F800
G1 X19.766Y53.368Z0F800
G1 X19.885Y53.062Z0F800
G1 X20.016Y52.786Z0F800
G1 X20.158Y52.546Z0F800
G1 X20.316Y52.349Z0F800
G1 X20.491Y52.203Z0F800
G1 X20.623Y52.134Z0F800
G1 X20.775Y52.083Z0F800
G1 X20.944Y52.045Z0F800
G1 X21.129Y52.015Z0F800
G1 X21.533Y51.973Z0F800
G1 X22.364Y51.919Z0F800
G1 X22.721Y51.884Z0F800
G1 X22.869Y51.858Z0F800
G1 X22.987Y51.828Z0F800
G1 X23.068Y51.799Z0F800
G1 X23.104Y51.781Z0F800
G1 X23.711Y51.176Z0F800
G1 X23.965Y50.927Z0F800
G1 X24.197Y50.71Z0F800
G1 X24.616Y50.351Z0F800
G1 X25.026Y50.068Z0F800
G1 X25.244Y49.944Z0F800
G1 X25.481Y49.828Z0F800
G1 X25.743Y49.714Z0F800
G1 X26.038Y49.6Z0F800
G1 X26.372Y49.48Z0F800
G1 X26.752Y49.351Z0F800
G1 X27.185Y49.209Z0F800
G1 X27.678Y49.05Z0F800
G1 X27.84Y49.01Z0F800
G1 X28.033Y48.982Z0F800
G1 X28.259Y48.964Z0F800
G1 X28.516Y48.955Z0F800
G1 X28.804Y48.951Z0F800
G1 X29.12Y48.955Z0F800
G1 X29.461Y48.964Z0F800
G1 X29.825Y48.978Z0F800
G1 X30.609Y49.018Z0F800
G1 X31.452Y49.071Z0F800
G1 X33.233Y49.189Z0F800
G1 X34.129Y49.243Z0F800
G1 X35Y49.288Z0F800
G1 X35.825Y49.317Z0F800
G1 X36.581Y49.326Z0F800
G1 X36.926Y49.32Z0F800
G1 X37.246Y49.308Z0F800
G1 X37.537Y49.288Z0F800
G1 X37.797Y49.259Z0F800
G1 X38.023Y49.222Z0F800
G1 X38.209Y49.176Z0F800
G1 X38.352Y49.124Z0F800
G1 X38.446Y49.072Z0F800
G1 X38.561Y48.957Z0F800
G1 X38.608Y48.859Z0F800
G1 Y48.765Z0F800
G1 X38.571Y48.66Z0F800
G1 X38.484Y48.539Z0F800
G1 X38.354Y48.411Z0F800
G1 X38.192Y48.281Z0F800
G1 X38.004Y48.154Z0F800
G1 X37.594Y47.917Z0F800
G1 X37.194Y47.714Z0F800
G1 X37.019Y47.63Z0F800
G1 X36.762Y47.503Z0F800
G1 X36.674Y47.439Z0F800
G1 X36.592Y47.329Z0F800
G1 X36.544Y47.206Z0F800
G1 X36.518Y47.078Z0F800
G1 X36.499Y46.951Z0F800
G1 X36.476Y46.833Z0F800
G1 X36.451Y46.732Z0F800
G1 X36.424Y46.656Z0F800
G1 X36.399Y46.615Z0F800
G1 X36.188Y46.453Z0F800
G1 X35.946Y46.329Z0F800
G1 X35.681Y46.231Z0F800
G1 X35.397Y46.15Z0F800
G1 X35.102Y46.074Z0F800
G1 X34.803Y45.992Z0F800
G1 X34.509Y45.89Z0F800
G1 X34.225Y45.753Z0F800
G1 X33.941Y45.575Z0F800
G1 X33.634Y45.355Z0F800
G1 X33.308Y45.098Z0F800
G1 X32.968Y44.808Z0F800
G1 X32.264Y44.152Z0F800
G1 X31.555Y43.427Z0F800
G1 X30.88Y42.676Z0F800
G1 X30.275Y41.938Z0F800
G1 X30.01Y41.586Z0F800
G1 X29.777Y41.253Z0F800
G1 X29.58Y40.941Z0F800
G1 X29.424Y40.658Z0F800
G1 X29.342Y40.419Z0F800
G1 X29.306Y40.151Z0F800
G1 X29.303Y39.861Z0F800
G1 X29.321Y39.56Z0F800
G1 X29.348Y39.257Z0F800
G1 X29.377Y38.964Z0F800
G1 X29.401Y38.696Z0F800
G1 X29.411Y38.466Z0F800
G1 X29.388Y38.15Z0F800
G1 X29.329Y37.831Z0F800
G1 X29.247Y37.507Z0F800
G1 X29.155Y37.179Z0F800
G1 X29.065Y36.846Z0F800
G1 X28.994Y36.507Z0F800
G1 X28.957Y36.162Z0F800
G1 X28.971Y35.81Z0F800
G1 X29.058Y35.288Z0F800
G1 X29.188Y34.745Z0F800
G1 X29.359Y34.186Z0F800
G1 X29.567Y33.615Z0F800
G1 X29.809Y33.039Z0F800
G1 X30.083Y32.463Z0F800
G1 X30.385Y31.891Z0F800
G1 X30.712Y31.33Z0F800
G1 X31.06Y30.784Z0F800
G1 X31.427Y30.259Z0F800
G1 X31.811Y29.761Z0F800
G1 X32.207Y29.295Z0F800
G1 X32.615Y28.866Z0F800
G1 X33.03Y28.481Z0F800
G1 X33.451Y28.144Z0F800
G1 X33.874Y27.861Z0F800
G1 X34.426Y27.548Z0F800
G1 X34.972Y27.274Z0F800
G1 X35.513Y27.036Z0F800
G1 X36.05Y26.832Z0F800
G1 X36.585Y26.66Z0F800
G1 X37.12Y26.516Z0F800
G1 X37.655Y26.398Z0F800
G1 X38.192Y26.304Z0F800
G1 X39.279Y26.175Z0F800
G1 X40.391Y26.109Z0F800
G1 X41.541Y26.085Z0F800
G1 X42.739Y26.081Z0F800
G1 X42.882Y26.077Z0F800
G1 X43.058Y26.066Z0F800
G1 X43.263Y26.05Z0F800
G1 X44.005Y25.983Z0F800
G1 X44.557Y25.941Z0F800
G1 X45.111Y25.914Z0F800
G1 X45.635Y25.919Z0F800
G1 X45.878Y25.938Z0F800
G1 X46.102Y25.973Z0F800
G1 X46.305Y26.025Z0F800
G1 X46.483Y26.097Z0F800
G1 X46.752Y26.253Z0F800
G1 X46.984Y26.428Z0F800
G1 X47.184Y26.621Z0F800
G1 X47.353Y26.829Z0F800
G1 X47.614Y27.28Z0F800
G1 X47.794Y27.763Z0F800
G1 X47.92Y28.263Z0F800
G1 X48.022Y28.765Z0F800
G1 X48.128Y29.258Z0F800
G1 X48.264Y29.726Z0F800
G1 X48.595Y30.595Z0F800
G1 X48.958Y31.448Z0F800
G1 X49.345Y32.291Z0F800
G1 X49.744Y33.13Z0F800
G1 X50.542Y34.816Z0F800
G1 X51.268Y36.554Z0F800
G1 X51.406Y37.002Z0F800
G1 X51.507Y37.502Z0F800
G1 X51.576Y38.046Z0F800
G1 X51.617Y38.628Z0F800
G1 X51.63Y39.882Z0F800
G1 X51.577Y41.208Z0F800
G1 X51.524Y42.163Z0F800
G1 X51.462Y43.103Z0F800
G1 X51.552Y42.94Z0F800
G1 X51.641Y42.777Z0F800
G1 X51.745Y42.631Z0F800
G1 X51.881Y42.521Z0F800
G1 X52.197Y42.342Z0F800
G1 X52.536Y42.136Z0F800
G1 X52.896Y41.905Z0F800
G1 X53.274Y41.654Z0F800
G1 X54.078Y41.1Z0F800
G1 X55.8Y39.882Z0F800
G1 X56.68Y39.269Z0F800
G1 X57.545Y38.688Z0F800
G1 X58.378Y38.165Z0F800
G1 X58.594Y38.041Z0F800
G1 X58.848Y37.902Z0F800
G1 X59.134Y37.752Z0F800
G1 X59.446Y37.592Z0F800
G1 X60.825Y36.896Z0F800
G1 X61.504Y36.544Z0F800
G1 X62.108Y36.214Z0F800
G1 X62.366Y36.062Z0F800
G1 X62.584Y35.923Z0F800
G1 X62.754Y35.802Z0F800
G1 X62.868Y35.705Z0F800
G1 X63.273Y35.234Z0F800
G1 X63.672Y34.767Z0F800
G1 X63.911Y34.544Z0F800
G1 X64.196Y34.334Z0F800
G1 X64.542Y34.144Z0F800
G1 X64.963Y33.976Z0F800
G1 X65.429Y33.848Z0F800
G1 X65.944Y33.753Z0F800
G1 X66.503Y33.689Z0F800
G1 X67.099Y33.65Z0F800
G1 X68.377Y33.638Z0F800
G1 X69.727Y33.687Z0F800
G1 X71.097Y33.771Z0F800
G1 X72.43Y33.863Z0F800
G1 X73.067Y33.904Z0F800
G1 X73.673Y33.938Z0F800
G1 X74.243Y33.96Z0F800
G1 X74.77Y33.968Z0F800
G1 X75.012Y33.957Z0F800
G1 X75.711Y33.894Z0F800
G1 X76.112Y33.863Z0F800
G1 X76.512Y33.844Z0F800
G1 X76.889Y33.849Z0F800
G1 X77.061Y33.863Z0F800
G1 X77.22Y33.889Z0F800
G1 X77.363Y33.928Z0F800
G1 X77.491Y33.986Z0F800
G1 X77.742Y34.155Z0F800
G1 X77.973Y34.363Z0F800
G1 X78.184Y34.606Z0F800
G1 X78.377Y34.882Z0F800
G1 X78.553Y35.188Z0F800
G1 X78.713Y35.523Z0F800
G1 X78.858Y35.882Z0F800
G1 X78.989Y36.265Z0F800
G1 X79.212Y37.091Z0F800
G1 X79.388Y37.985Z0F800
G1 X79.523Y38.928Z0F800
G1 X79.622Y39.904Z0F800
G1 X79.69Y40.894Z0F800
G1 X79.732Y41.881Z0F800
G1 X79.754Y42.847Z0F800
G1 X79.761Y43.773Z0F800
G1 X79.757Y44.642Z0F800
G1 X79.739Y46.133Z0F800
G1 X79.735Y46.718Z0F800
G1 X79.739Y47.047Z0F800
G1 X79.75Y47.437Z0F800
G1 X79.78Y48.36Z0F800
G1 X79.802Y49.41Z0F800
G1 X79.794Y50.511Z0F800
G1 X79.771Y51.058Z0F800
G1 X79.733Y51.59Z0F800
G1 X79.676Y52.098Z0F800
G1 X79.596Y52.574Z0F800
G1 X79.492Y53.008Z0F800
G1 X79.359Y53.393Z0F800
G1 X79.19Y53.72Z0F800
G1 X78.977Y53.98Z0F800
G1 X78.95Y54.001Z0F800
G1 X78.919Y54.014Z0F800
G1 X78.891Y54.021Z0F800
G1 X78.835Y54.028Z0F800
G1 X78.672Y54.038Z0F800
G1 X78.518Y54.043Z0F800
G1 X78.33Y54.047Z0F800
G1 X77.862Y54.053Z0F800
G1 X76.966Y54.057Z0F800
G1 X76.27Z0F800
G1 X74.739Y54.051Z0F800
G1 X73.164Y54.041Z0F800
G1 X70.573Y54.021Z0F800
G1 X69.901Y54.018Z0F800
G1 X69.75Y54.024Z0F800
G1 X69.647Y54.039Z0F800
G1 X69.62Y54.047Z0F800
G1 X69.654Y54.092Z0F800
G1 X69.717Y54.153Z0F800
G1 X69.818Y54.232Z0F800
G1 X69.947Y54.319Z0F800
G1 X70.1Y54.414Z0F800
G1 X70.277Y54.515Z0F800
G1 X70.688Y54.73Z0F800
G1 X71.163Y54.953Z0F800
G1 X72.236Y55.399Z0F800
G1 X73.369Y55.8Z0F800
G1 X73.916Y55.968Z0F800
G1 X74.428Y56.104Z0F800
G1 X74.889Y56.202Z0F800
G1 X75.282Y56.256Z0F800
G1 X75.607Y56.279Z0F800
G1 X75.996Y56.298Z0F800
G1 X76.446Y56.315Z0F800
G1 X76.95Y56.331Z0F800
G1 X79.425Y56.396Z0F800
G1 X80.871Y56.44Z0F800
G1 X82.406Y56.5Z0F800
G1 X83.992Y56.584Z0F800
G1 X85.592Y56.696Z0F800
G1 X87.169Y56.843Z0F800
G1 X88.687Y57.031Z0F800
G1 X89.412Y57.143Z0F800
G1 X90.109Y57.268Z0F800
G1 X90.773Y57.407Z0F800
G1 X91.399Y57.561Z0F800
G1 X91.984Y57.73Z0F800
G1 X92.523Y57.915Z0F800
G1 X93.011Y58.119Z0F800
G1 X93.444Y58.342Z0F800
G1 X93.818Y58.587Z0F800
G1 X94.128Y58.855Z0F800
G1 X94.368Y59.15Z0F800
G1 X94.53Y59.473Z0F800
G1 X94.552Y59.554Z0F800
G1 X94.571Y59.662Z0F800
G1 X94.593Y59.809Z0F800
G1 X94.618Y59.99Z0F800
G1 X94.643Y60.204Z0F800
G1 X94.67Y60.449Z0F800
G1 X94.727Y61.018Z0F800
G1 X94.788Y61.676Z0F800
G1 X94.849Y62.402Z0F800
G1 X94.907Y63.173Z0F800
G1 X94.962Y63.969Z0F800
G1 X95.009Y64.767Z0F800
G1 X95.047Y65.546Z0F800
G1 X95.074Y66.284Z0F800
G1 X95.087Y66.959Z0F800
G1 Y67.266Z0F800
G1 X95.082Y67.549Z0F800
G1 X95.073Y67.806Z0F800
G1 X95.059Y68.035Z0F800
G1 X95.039Y68.234Z0F800
G1 X95.012Y68.401Z0F800
G1 X94.978Y68.536Z0F800
G1 X94.923Y68.649Z0F800
G1 X93.954Y69.999Z0F800
G1 X92.924Y71.314Z0F800
G1 X92.383Y71.95Z0F800
G1 X91.821Y72.567Z0F800
G1 X91.239Y73.162Z0F800
G1 X90.634Y73.73Z0F800
G1 X90.005Y74.27Z0F800
G1 X89.35Y74.777Z0F800
G1 X88.669Y75.249Z0F800
G1 X87.959Y75.681Z0F800
G1 X87.219Y76.07Z0F800
