;LightBurn 1.6.04
;Custom GCode device profile, absolute coords
;Bounds: X15.97 Y25.28 to X110.03 Y136.72
G00 G17 G40 G21 G54
G90
G1 Z10 F1000
;Cut @ 1500 mm/min, 90% power

M8
G0 Z2.8F1000
G0 X17.274Y26.578Z2.8
G1 Z0F1000
;Layer Blue
G1 X18.694Y26.46Z0S900F1800
G0 Z2.8F1000
G0 X18.457Y27.525Z2.8F1500
G1 Z0F1000
G1 X18.339Y27.643Z0F1800
G0 Z2.8F1000
G0 X17.747Y27.406Z2.8
G1 Z0F1000
G1 X19.048Y27.761Z0F1800
G0 Z2.8F1000
G0 X21.06Y28.116Z2.8
G1 Z0F1000
G1 X21.437Y28.21Z0F1800
G1 X21.815Y28.343Z0F1800
G1 X22.193Y28.509Z0F1800
G1 X22.568Y28.698Z0F1800
G1 X23.306Y29.117Z0F1800
G1 X24.017Y29.536Z0F1800
G0 Z2.8F1000
G0 X23.544Y30.127Z2.8
G1 Z0F1000
G1 X23.426Y30.246Z0F1800
G0 Z2.8F1000
G0 X22.916Y30.959Z2.8
G1 Z0F1000
G1 X22.87Y31.071Z0F1800
G1 X22.916Y30.959Z0F1800
G0 Z2.8F1000
G0 X23.308Y31.902Z2.8
G1 Z0F1000
G1 X22.508Y31.737Z0F1800
G1 X21.799Y31.535Z0F1800
G1 X21.455Y31.406Z0F1800
G1 X21.105Y31.25Z0F1800
G1 X20.74Y31.063Z0F1800
G1 X20.35Y30.837Z0F1800
G0 Z2.8F1000
G0 X20.941Y30.009Z2.8
G1 Z0F1000
G1 X20.596Y29.901Z0F1800
G1 X20.225Y29.76Z0F1800
G1 X19.837Y29.599Z0F1800
G1 X19.437Y29.431Z0F1800
G1 X19.033Y29.269Z0F1800
G1 X18.632Y29.126Z0F1800
G1 X18.241Y29.013Z0F1800
G1 X17.865Y28.944Z0F1800
G0 Z2.8F1000
G0 X17.274Y30.364Z2.8
G1 Z0F1000
G1 X17.156Z0F1800
G0 Z2.8F1000
G0 X18.102Y31.429Z2.8
G1 Z0F1000
G1 X20.941Y32.271Z0F1800
G1 X22.716Y32.73Z0F1800
G0 Z2.8F1000
G0 X23.308Z2.8
G1 Z0F1000
G1 X24.021Y32.918Z0F1800
G1 X24.645Y33.121Z0F1800
G1 X25.25Y33.306Z0F1800
G1 X25.91Y33.44Z0F1800
G0 Z2.8F1000
G0 X26.265Y32.849Z2.8
G1 Z0F1000
G1 X26.912Y33.007Z0F1800
G1 X27.561Y33.181Z0F1800
G1 X28.213Y33.336Z0F1800
G1 X28.868Y33.44Z0F1800
G1 X28.513Z0F1800
G0 Z2.8F1000
G0 X28.276Y32.73Z2.8
G1 Z0F1000
G1 X27.979Y32.605Z0F1800
G1 X27.642Y32.456Z0F1800
G1 X26.888Y32.113Z0F1800
G1 X26.089Y31.754Z0F1800
G1 X25.319Y31.429Z0F1800
G0 Z2.8F1000
G0 Y32.257Z2.8
G1 Z0F1000
G1 X24.727Z0F1800
G0 Z2.8F1000
G0 X23.189Y33.558Z2.8
G1 Z0F1000
G1 X22.514Y33.386Z0F1800
G1 X21.888Y33.203Z0F1800
G0 Z2.8F1000
G0 X20.823Y33.795Z2.8
G1 Z0F1000
G1 X20.295Y33.696Z0F1800
G1 X19.771Y33.582Z0F1800
G1 X19.241Y33.487Z0F1800
G1 X18.694Y33.44Z0F1800
G0 Z2.8F1000
G0 X19.167Y34.268Z2.8
G1 Z0F1000
G1 X19.64Y34.505Z0F1800
G0 Z2.8F1000
G0 X20.468Y34.86Z2.8
G1 Z0F1000
G1 X19.656Y34.463Z0F1800
G1 X18.89Y34.135Z0F1800
G1 X18.115Y33.874Z0F1800
G1 X17.274Y33.677Z0F1800
G0 Z2.8F1000
G0 X16.919Y34.86Z2.8
G1 Z0F1000
G1 X17.437Y34.923Z0F1800
G1 X17.882Y35.027Z0F1800
G1 X18.319Y35.166Z0F1800
G1 X18.812Y35.333Z0F1800
G0 Z2.8F1000
G0 X19.048Y36.871Z2.8
G1 Z0F1000
G1 X20.113Y37.108Z0F1800
G0 Z2.8F1000
G0 X18.93Y37.226Z2.8
G1 Z0F1000
G1 X18.691Y37.269Z0F1800
G1 X18.515Y37.283Z0F1800
G1 X18.34Y37.269Z0F1800
G1 X18.102Y37.226Z0F1800
G0 Z2.8F1000
G0 X18.694Y37.936Z2.8
G1 Z0F1000
G1 Y37.463Z0F1800
G1 X18.836Y37.663Z0F1800
G1 X19.03Y37.834Z0F1800
G1 X19.268Y37.979Z0F1800
G1 X19.542Y38.099Z0F1800
G1 X20.162Y38.276Z0F1800
G1 X20.823Y38.385Z0F1800
G1 X21.294Y38.449Z0F1800
G1 X21.77Y38.492Z0F1800
G1 X22.094Y38.495Z0F1800
G1 X22.419Y38.487Z0F1800
G1 X22.745Y38.492Z0F1800
G1 X23.071Y38.527Z0F1800
G0 Z2.8F1000
G0 X22.953Y38.172Z2.8
G1 Z0F1000
G1 X23.189Y38.054Z0F1800
G0 Z2.8F1000
G0 X22.953Y37.581Z2.8
G1 Z0F1000
G1 X24.727Y38.054Z0F1800
G0 Z2.8F1000
G0 X25.319Y37.463Z2.8
G1 Z0F1000
G1 X25.91Y37.542Z0F1800
G1 X26.507Y37.651Z0F1800
G1 X27.101Y37.798Z0F1800
G1 X27.685Y37.988Z0F1800
G1 X28.239Y38.225Z0F1800
G1 X28.782Y38.491Z0F1800
G1 X29.338Y38.76Z0F1800
G1 X29.933Y39.004Z0F1800
G1 X31.309Y39.492Z0F1800
G1 X32.654Y39.947Z0F1800
G0 Z2.8F1000
G0 X32.181Y40.893Z2.8
G1 Z0F1000
G1 X32.55Y40.951Z0F1800
G1 X32.916Y40.987Z0F1800
G1 X33.328Y41.006Z0F1800
G1 X33.837Y41.012Z0F1800
G0 Z2.8F1000
G0 X33.955Y40.893Z2.8
G1 Z0F1000
G1 X34.102Y40.999Z0F1800
G1 X34.28Y41.068Z0F1800
G1 X34.394Y41.092Z0F1800
G1 X34.532Y41.109Z0F1800
G1 X34.699Y41.122Z0F1800
G1 X34.902Y41.13Z0F1800
G0 Z2.8F1000
G0 X35.001Y41.125Z2.8
G1 Z0F1000
G1 X35.06Y41.17Z0F1800
G1 X35.093Z0F1800
G1 X35.141Y41.161Z0F1800
G1 X35.158Y41.136Z0F1800
G1 X35.099Y41.091Z0F1800
G1 X35.065Z0F1800
G1 X35.017Y41.099Z0F1800
G1 X35.001Y41.125Z0F1800
G0 Z2.8F1000
G0 X35.257Y41.13Z2.8
G1 Z0F1000
G1 X35.612Z0F1800
G0 Z2.8F1000
G0 X35.257Y40.775Z2.8
G1 Z0F1000
G1 X35.494Y40.676Z0F1800
G1 X35.717Y40.618Z0F1800
G1 X35.937Y40.594Z0F1800
G1 X36.166Y40.599Z0F1800
G1 X36.415Y40.626Z0F1800
G1 X36.694Y40.669Z0F1800
G1 X37.014Y40.721Z0F1800
G1 X37.386Y40.775Z0F1800
G0 Z2.8F1000
G0 X37.859Y39.829Z2.8
G1 Z0F1000
G1 X37.592Y39.923Z0F1800
G1 X37.307Y39.975Z0F1800
G1 X37.006Y39.987Z0F1800
G1 X36.693Y39.959Z0F1800
G1 X36.371Y39.892Z0F1800
G1 X36.042Y39.789Z0F1800
G1 X35.709Y39.649Z0F1800
G1 X35.375Y39.474Z0F1800
G1 X35.739Y39.35Z0F1800
G1 X36.105Y39.308Z0F1800
G1 X36.473Y39.333Z0F1800
G1 X36.843Y39.413Z0F1800
G1 X37.586Y39.684Z0F1800
G1 X38.333Y40.016Z0F1800
G1 X38.745Y40.17Z0F1800
G1 X39.165Y40.278Z0F1800
G1 X39.59Y40.348Z0F1800
G1 X40.019Y40.389Z0F1800
G1 X40.889Y40.415Z0F1800
G1 X41.764Y40.42Z0F1800
G0 Z2.8F1000
G0 X42.119Z2.8
G1 Z0F1000
G1 X41.764Z0F1800
G1 X42.474Y40.184Z0F1800
G0 Z2.8F1000
G0 X42.828Z2.8
G1 Z0F1000
G1 X43.42Z0F1800
G0 Z2.8F1000
G0 X43.302Y41.367Z2.8
G1 Z0F1000
G1 X45.55Y40.888Z0F1800
G1 X47.561Y40.539Z0F1800
G0 Z2.8F1000
G0 X46.614Y39.71Z2.8
G1 Z0F1000
G1 X46.633Y39.525Z0F1800
G1 X46.69Y39.391Z0F1800
G1 X46.747Y39.34Z0F1800
G1 X46.828Y39.298Z0F1800
G1 X46.94Y39.264Z0F1800
G1 X47.088Y39.237Z0F1800
G1 X46.937Y39.354Z0F1800
G1 X46.808Y39.445Z0F1800
G1 X46.696Y39.512Z0F1800
G1 X46.598Y39.554Z0F1800
G1 X46.426Y39.563Z0F1800
G1 X46.259Y39.474Z0F1800
G0 Z2.8F1000
G0 X46.141Y39.592Z2.8
G1 Z0F1000
G1 X45.697Y39.641Z0F1800
G1 X45.259Y39.686Z0F1800
G1 X44.818Y39.702Z0F1800
G1 X44.366Y39.662Z0F1800
G1 X44.005Y39.587Z0F1800
G1 X43.693Y39.496Z0F1800
G1 X43.065Y39.283Z0F1800
G1 X42.167Y39.039Z0F1800
G1 X41.186Y38.827Z0F1800
G1 X40.715Y38.735Z0F1800
G1 X39.919Y38.585Z0F1800
G1 X39.634Y38.527Z0F1800
G0 Z2.8F1000
G0 X38.451Y39.355Z2.8
G1 Z0F1000
G1 X38.806Y39.336Z0F1800
G1 X39.159Y39.351Z0F1800
G1 X39.513Y39.388Z0F1800
G1 X40.146Y39.471Z0F1800
G1 X40.374Y39.509Z0F1800
G1 X40.558Y39.556Z0F1800
G1 X40.701Y39.618Z0F1800
G1 X40.807Y39.704Z0F1800
G1 X40.879Y39.822Z0F1800
G1 X40.921Y39.979Z0F1800
G1 X40.936Y40.184Z0F1800
G0 Z2.8F1000
G0 X42.119Y39.119Z2.8
G1 Z0F1000
G1 X42.592Z0F1800
G0 Z2.8F1000
G0 X42.71Y37.936Z2.8
G1 Z0F1000
G1 X43.125Y38.014Z0F1800
G1 X43.548Y38.071Z0F1800
G1 X44.485Y38.172Z0F1800
G0 Z2.8F1000
G0 X44.13Y37.463Z2.8
G1 Z0F1000
G1 X44.938Y37.631Z0F1800
G1 X45.839Y37.804Z0F1800
G1 X46.832Y37.972Z0F1800
G1 X47.916Y38.128Z0F1800
G1 X48.332Y38.176Z0F1800
G1 X48.677Y38.2Z0F1800
G1 X48.973Y38.204Z0F1800
G1 X49.242Y38.192Z0F1800
G1 X49.508Y38.167Z0F1800
G1 X50.123Y38.095Z0F1800
G1 X50.518Y38.054Z0F1800
G0 Z2.8F1000
G0 X50.755Y37.108Z2.8
G1 Z0F1000
G1 X49.927Z0F1800
G0 Z2.8F1000
G0 X51.938Y36.753Z2.8
G1 Z0F1000
G1 X51.345Y36.537Z0F1800
G1 X50.127Y36.022Z0F1800
G1 X49.454Y35.767Z0F1800
G1 X48.924Y35.578Z0F1800
G1 X48.389Y35.417Z0F1800
G1 X48.09Y35.366Z0F1800
G1 X47.804Y35.347Z0F1800
G1 X47.514Z0F1800
G1 X46.934Z0F1800
G1 X46.67Z0F1800
G1 X46.407Y35.33Z0F1800
G1 X46.141Y35.29Z0F1800
G1 X45.677Y35.151Z0F1800
G1 X45.24Y34.952Z0F1800
G1 X44.809Y34.725Z0F1800
G1 X44.366Y34.505Z0F1800
G0 Z2.8F1000
G0 X45.668Y33.795Z2.8
G1 Z0F1000
G1 X45.107Y33.583Z0F1800
G1 X44.493Y33.322Z0F1800
G1 X44.153Y33.188Z0F1800
G1 X43.786Y33.058Z0F1800
G1 X43.385Y32.94Z0F1800
G1 X42.947Y32.838Z0F1800
G1 X42.534Y32.782Z0F1800
G1 X42.141Y32.766Z0F1800
G1 X41.736Y32.755Z0F1800
G1 X41.29Y32.715Z0F1800
G1 X40.866Y32.639Z0F1800
G1 X40.499Y32.544Z0F1800
G1 X40.174Y32.439Z0F1800
G1 X39.876Y32.331Z0F1800
G1 X39.587Y32.23Z0F1800
G1 X39.292Y32.142Z0F1800
G1 X38.974Y32.078Z0F1800
G1 X38.618Y32.045Z0F1800
G1 X38.524Y32.051Z0F1800
G1 X38.453Y32.072Z0F1800
G1 X38.393Y32.103Z0F1800
G1 X38.333Y32.139Z0F1800
G0 Z2.8F1000
G0 X38.214Y32.02Z2.8
G1 Z0F1000
G1 X37.031Y31.784Z0F1800
G0 Z2.8F1000
G0 X36.913Y32.73Z2.8
G1 Z0F1000
G1 X37.859Y32.849Z0F1800
G0 Z2.8F1000
G0 X38.569Y33.795Z2.8
G1 Z0F1000
G1 X38.912Z0F1800
G1 X39.224Y33.832Z0F1800
G1 X39.534Y33.889Z0F1800
G1 X39.871Y33.96Z0F1800
G1 X40.322Y34.06Z0F1800
G1 X40.774Y34.176Z0F1800
G1 X41.217Y34.311Z0F1800
G1 X41.645Y34.468Z0F1800
G1 X42.042Y34.633Z0F1800
G1 X42.362Y34.787Z0F1800
G1 X42.679Y34.967Z0F1800
G1 X43.065Y35.215Z0F1800
G0 Z2.8F1000
G0 X43.42Y36.279Z2.8
G1 Z0F1000
G1 X43.183Y36.516Z0F1800
G0 Z2.8F1000
G0 X42.474Y36.398Z2.8
G1 Z0F1000
G1 X41.882Y36.279Z0F1800
G0 Z2.8F1000
G0 X41.172Z2.8
G1 Z0F1000
G1 X40.912Y36.404Z0F1800
G1 X40.727Y36.472Z0F1800
G1 X40.557Y36.503Z0F1800
G1 X40.344Y36.516Z0F1800
G0 Z2.8F1000
G0 X39.871Y36.279Z2.8
G1 Z0F1000
G1 X39.704Y36.089Z0F1800
G1 X39.513Y35.945Z0F1800
G1 X39.301Y35.834Z0F1800
G1 X39.073Y35.741Z0F1800
G1 X38.831Y35.65Z0F1800
G1 X38.58Y35.547Z0F1800
G1 X38.325Y35.417Z0F1800
G1 X38.068Y35.246Z0F1800
G1 X37.842Y35.088Z0F1800
G1 X37.544Y34.902Z0F1800
G1 X37.2Y34.698Z0F1800
G1 X36.482Y34.28Z0F1800
G1 X36.161Y34.089Z0F1800
G1 X35.902Y33.923Z0F1800
G1 X35.73Y33.795Z0F1800
G1 X35.967Y34.268Z0F1800
G0 Z2.8F1000
G0 X35.612Y33.795Z2.8
G1 Z0F1000
G1 X34.665Y33.203Z0F1800
G1 X34.783Y33.795Z0F1800
G0 Z2.8F1000
G0 X34.665Y33.203Z2.8
G1 Z0F1000
G1 X32.536Y32.494Z0F1800
G0 Z2.8F1000
G0 X33.127Y31.902Z2.8
G1 Z0F1000
G1 X33.183Y31.812Z0F1800
G1 X33.165Y31.747Z0F1800
G1 X33.087Y31.701Z0F1800
G1 X32.963Y31.669Z0F1800
G1 X32.637Y31.623Z0F1800
G1 X32.299Y31.567Z0F1800
G1 X31.775Y31.411Z0F1800
G1 X31.284Y31.25Z0F1800
G1 X31.034Y31.181Z0F1800
G1 X30.769Y31.125Z0F1800
G1 X30.483Y31.087Z0F1800
G1 X30.169Y31.074Z0F1800
G0 Z2.8F1000
G0 X29.578Y32.02Z2.8
G1 Z0F1000
G1 X29.933Y32.139Z0F1800
G0 Z2.8F1000
G0 X31.353Y32.494Z2.8
G1 Z0F1000
G1 X28.631Y31.429Z0F1800
G0 Z2.8F1000
G0 X28.395Y30.837Z2.8
G1 Z0F1000
G1 X27.212Y30.482Z0F1800
G0 Z2.8F1000
G0 X29.46Y27.643Z2.8
G1 Z0F1000
G1 X28.936Y27.559Z0F1800
G1 X28.495Y27.42Z0F1800
G1 X28.112Y27.249Z0F1800
G1 X27.76Y27.068Z0F1800
G1 X27.414Y26.899Z0F1800
G1 X27.046Y26.766Z0F1800
G1 X26.847Y26.72Z0F1800
G1 X26.633Y26.691Z0F1800
G1 X26.401Y26.682Z0F1800
G1 X26.147Y26.696Z0F1800
G0 Z2.8F1000
G0 X27.093Y25.277Z2.8
G1 Z0F1000
G1 X27.922Z0F1800
G0 Z2.8F1000
G0 X28.868Y25.75Z2.8
G1 Z0F1000
G1 X29.147Y25.835Z0F1800
G1 X29.463Y25.944Z0F1800
G1 X29.805Y26.072Z0F1800
G1 X30.159Y26.214Z0F1800
G1 X30.86Y26.517Z0F1800
G1 X31.471Y26.815Z0F1800
G0 Z2.8F1000
G0 X29.578Y27.406Z2.8
G1 Z0F1000
G1 X29.636Y27.472Z0F1800
G1 X29.77Y27.517Z0F1800
G1 X29.963Y27.547Z0F1800
G1 X30.193Y27.565Z0F1800
G1 X30.693Y27.585Z0F1800
G1 X31.116Y27.612Z0F1800
G1 X31.789Y27.692Z0F1800
G1 X32.461Y27.766Z0F1800
G1 X33.141Y27.855Z0F1800
G1 X33.837Y27.974Z0F1800
G1 X34.432Y28.11Z0F1800
G1 X34.986Y28.305Z0F1800
G1 X35.247Y28.439Z0F1800
G1 X35.498Y28.606Z0F1800
G1 X35.738Y28.812Z0F1800
G1 X35.967Y29.063Z0F1800
G0 Z2.8F1000
G0 X37.859Y28.589Z2.8
G1 Z0F1000
G1 X38.435Y28.714Z0F1800
G1 X38.939Y28.843Z0F1800
G1 X39.395Y28.977Z0F1800
G1 X39.831Y29.118Z0F1800
G1 X40.743Y29.425Z0F1800
G1 X41.271Y29.593Z0F1800
G1 X41.882Y29.773Z0F1800
G0 Z2.8F1000
G0 X41.172Y30.246Z2.8
G1 Z0F1000
G1 X41.827Y30.47Z0F1800
G1 X42.445Y30.678Z0F1800
G1 X42.765Y30.772Z0F1800
G1 X43.107Y30.859Z0F1800
G1 X43.479Y30.936Z0F1800
G1 X43.893Y31.003Z0F1800
G1 X44.665Y31.08Z0F1800
G1 X45.441Y31.124Z0F1800
G1 X46.212Y31.173Z0F1800
G1 X46.969Y31.269Z0F1800
G1 X47.355Y31.346Z0F1800
G1 X47.793Y31.447Z0F1800
G1 X48.262Y31.562Z0F1800
G1 X49.202Y31.797Z0F1800
G1 X49.629Y31.898Z0F1800
G1 X49.996Y31.976Z0F1800
G1 X50.282Y32.02Z0F1800
G0 Z2.8F1000
G0 X49.217Y31.902Z2.8
G1 Z0F1000
G1 X49.122Y31.791Z0F1800
G1 X49.084Y31.714Z0F1800
G1 X49.081Y31.669Z0F1800
G1 X49.092Y31.652Z0F1800
G1 X49.097Y31.658Z0F1800
G1 X49.075Y31.685Z0F1800
G1 X49.003Y31.728Z0F1800
G1 X48.862Y31.784Z0F1800
G0 Z2.8F1000
G0 X50.518Y33.44Z2.8
G1 Z0F1000
G1 X51.311Y33.46Z0F1800
G1 X52.062Y33.526Z0F1800
G1 X52.442Y33.58Z0F1800
G1 X52.839Y33.652Z0F1800
G1 X53.259Y33.743Z0F1800
G1 X53.713Y33.856Z0F1800
G1 X54.078Y33.96Z0F1800
G1 X54.391Y34.063Z0F1800
G1 X54.664Y34.161Z0F1800
G1 X54.909Y34.254Z0F1800
G1 X55.361Y34.408Z0F1800
G1 X55.842Y34.505Z0F1800
G0 Z2.8F1000
G0 X54.541Y33.203Z2.8
G1 Z0F1000
G1 X55.961Y33.481Z0F1800
G1 X59.273Y34.86Z0F1800
G0 Z2.8F1000
G0 X60.693Y33.322Z2.8
G1 Z0F1000
G1 X61.444Y33.612Z0F1800
G1 X62.232Y33.891Z0F1800
G1 X62.628Y34.051Z0F1800
G1 X63.019Y34.24Z0F1800
G1 X63.401Y34.467Z0F1800
G1 X63.769Y34.741Z0F1800
G0 Z2.8F1000
G0 X63.414Y35.451Z2.8
G1 Z0F1000
G1 X63.807Y35.447Z0F1800
G1 X64.209Y35.465Z0F1800
G1 X64.628Y35.509Z0F1800
G1 X65.07Y35.582Z0F1800
G1 X65.304Y35.624Z0F1800
G1 X65.535Y35.654Z0F1800
G1 X65.77Y35.668Z0F1800
G1 X66.017Y35.658Z0F1800
G1 X66.425Y35.592Z0F1800
G1 X66.784Y35.485Z0F1800
G1 X67.144Y35.349Z0F1800
G1 X67.555Y35.198Z0F1800
G1 X68.078Y35.056Z0F1800
G1 X68.62Y34.96Z0F1800
G1 X69.306Y34.841Z0F1800
G1 X69.977Y34.732Z0F1800
G1 X70.65Y34.652Z0F1800
G1 X71.341Y34.623Z0F1800
G1 X72.055Y34.665Z0F1800
G1 X72.76Y34.749Z0F1800
G1 X73.028Y34.776Z0F1800
G1 X73.258Y34.78Z0F1800
G1 X73.475Y34.76Z0F1800
G1 X73.707Y34.718Z0F1800
G1 X74.34Y34.59Z0F1800
G1 X75.008Y34.505Z0F1800
G0 Z2.8F1000
G0 X75.245Y33.085Z2.8
G1 Z0F1000
G1 X75.651Y33.167Z0F1800
G1 X76.02Y33.283Z0F1800
G1 X76.356Y33.425Z0F1800
G1 X76.664Y33.581Z0F1800
G1 X77.22Y33.897Z0F1800
G1 X77.729Y34.15Z0F1800
G0 Z2.8F1000
G0 X77.848Y34.032Z2.8
G1 Z0F1000
G1 X78.216Y33.97Z0F1800
G1 X78.577Y33.904Z0F1800
G1 X78.958Y33.857Z0F1800
G1 X79.386Y33.85Z0F1800
G1 X79.652Y33.87Z0F1800
G1 X79.88Y33.9Z0F1800
G1 X80.081Y33.939Z0F1800
G1 X80.266Y33.983Z0F1800
G1 X80.625Y34.074Z0F1800
G1 X81.042Y34.15Z0F1800
G0 Z2.8F1000
G0 X80.687Y33.203Z2.8
G1 Z0F1000
G1 X81.32Y33.346Z0F1800
G1 X81.903Y33.524Z0F1800
G1 X82.204Y33.621Z0F1800
G1 X82.528Y33.72Z0F1800
G1 X82.886Y33.818Z0F1800
G1 X83.29Y33.913Z0F1800
G0 Z2.8F1000
G0 X84Y33.558Z2.8
G1 Z0F1000
G1 X84.118Y33.677Z0F1800
G0 Z2.8F1000
G0 X84.828Y34.268Z2.8
G1 Z0F1000
G1 X85.183Y34.15Z0F1800
G1 X84.859Y34.311Z0F1800
G1 X84.587Y34.468Z0F1800
G1 X84.317Y34.644Z0F1800
G1 X84Y34.86Z0F1800
G0 Z2.8F1000
G0 X86.011Y33.795Z2.8
G1 Z0F1000
G1 X86.721Y34.387Z0F1800
G0 Z2.8F1000
G0 X87.667Y34.15Z2.8
G1 Z0F1000
G1 Y33.913Z0F1800
G0 Z2.8F1000
G0 X87.431Y33.795Z2.8
G1 Z0F1000
G1 X87.667Y33.322Z0F1800
G0 Z2.8F1000
G0 X87.431Z2.8
G1 Z0F1000
G1 X87.055Y33.05Z0F1800
G1 X86.716Y32.831Z0F1800
G1 X86.405Y32.656Z0F1800
G1 X86.116Y32.517Z0F1800
G1 X85.583Y32.31Z0F1800
G1 X85.064Y32.139Z0F1800
G0 Z2.8F1000
G0 X84.828Y32.967Z2.8
G1 Z0F1000
G1 X84.516Y32.791Z0F1800
G1 X84.235Y32.652Z0F1800
G1 X83.976Y32.541Z0F1800
G1 X83.731Y32.45Z0F1800
G1 X83.243Y32.299Z0F1800
G1 X82.698Y32.139Z0F1800
G0 Z2.8F1000
G0 X83.29Y31.311Z2.8
G1 Z0F1000
G1 X83.166Y31.045Z0F1800
G1 X83.025Y30.822Z0F1800
G1 X82.867Y30.636Z0F1800
G1 X82.689Y30.483Z0F1800
G1 X82.489Y30.361Z0F1800
G1 X82.268Y30.263Z0F1800
G1 X82.023Y30.187Z0F1800
G1 X81.752Y30.127Z0F1800
G0 Z2.8F1000
G0 X80.687Y28.708Z2.8
G1 Z0F1000
G1 X79.907Y28.531Z0F1800
G1 X79.113Y28.327Z0F1800
G1 X78.73Y28.219Z0F1800
G1 X78.367Y28.107Z0F1800
G1 X78.031Y27.994Z0F1800
G1 X77.729Y27.88Z0F1800
G0 Z2.8F1000
G0 X79.386Y26.696Z2.8
G1 Z0F1000
G1 X78.947Y26.401Z0F1800
G1 X78.493Y26.174Z0F1800
G1 X78.026Y26.003Z0F1800
G1 X77.55Y25.875Z0F1800
G1 X76.579Y25.696Z0F1800
G1 X75.6Y25.533Z0F1800
G1 X74.849Y25.373Z0F1800
G1 X74.48Y25.312Z0F1800
G1 X74.062Y25.277Z0F1800
G0 Z2.8F1000
G0 X74.89Y27.406Z2.8
G1 Z0F1000
G1 X70.158Y26.136Z0F1800
G1 X68.856Y25.987Z0F1800
G0 Z2.8F1000
G0 X65.899Y27.051Z2.8
G1 Z0F1000
G1 X65.07Y26.933Z0F1800
G0 Z2.8F1000
G0 X65.425Y27.761Z2.8
G1 Z0F1000
G1 X65.639Z0F1800
G1 X65.916Y27.766Z0F1800
G1 X66.24Y27.783Z0F1800
G1 X66.596Y27.808Z0F1800
G1 X67.342Y27.887Z0F1800
G1 X68.028Y28.002Z0F1800
G1 X68.82Y28.153Z0F1800
G1 X69.684Y28.26Z0F1800
G1 X70.139Y28.313Z0F1800
G1 X70.544Y28.378Z0F1800
G1 X70.932Y28.464Z0F1800
G1 X71.341Y28.574Z0F1800
G1 X72.02Y28.801Z0F1800
G1 X72.642Y29.063Z0F1800
G0 Z2.8F1000
G0 X73.944Y29.891Z2.8
G1 Z0F1000
G1 X74.457Y30.088Z0F1800
G1 X75.007Y30.311Z0F1800
G1 X75.587Y30.59Z0F1800
G1 X76.191Y30.956Z0F1800
G0 Z2.8F1000
G0 X75.6Y31.547Z2.8
G1 Z0F1000
G1 X76.073Y31.784Z0F1800
G0 Z2.8F1000
G0 X73.47Y32.139Z2.8
G1 Z0F1000
G1 X73.167Y31.886Z0F1800
G1 X72.874Y31.687Z0F1800
G1 X72.587Y31.537Z0F1800
G1 X72.302Y31.43Z0F1800
G1 X72.016Y31.36Z0F1800
G1 X71.724Y31.32Z0F1800
G1 X71.421Y31.306Z0F1800
G1 X71.104Y31.311Z0F1800
G0 Z2.8F1000
G0 X70.276Y30.482Z2.8
G1 Z0F1000
G1 X69.746Y30.154Z0F1800
G1 X69.159Y29.896Z0F1800
G1 X68.568Y29.694Z0F1800
G1 X68.028Y29.536Z0F1800
G0 Z2.8F1000
G0 X68.501Y31.902Z2.8
G1 Z0F1000
G1 X67.632Y31.445Z0F1800
G1 X67.433Y31.357Z0F1800
G1 X67.222Y31.282Z0F1800
G1 X66.99Y31.22Z0F1800
G1 X66.727Y31.172Z0F1800
G1 X66.002Y31.087Z0F1800
G1 X65.329Y31.022Z0F1800
G1 X64.704Y30.949Z0F1800
G1 X64.124Y30.837Z0F1800
G0 Z2.8F1000
G0 X63.887Y30.482Z2.8
G1 Z0F1000
G1 X63.406Y30.313Z0F1800
G1 X62.889Y30.174Z0F1800
G1 X62.35Y30.065Z0F1800
G1 X61.8Y29.984Z0F1800
G1 X61.253Y29.928Z0F1800
G1 X60.72Y29.895Z0F1800
G1 X60.213Y29.883Z0F1800
G1 X59.747Y29.891Z0F1800
G0 Z2.8F1000
G0 X60.22Y27.643Z2.8
G1 Z0F1000
G1 X62.823Y28.589Z0F1800
G0 Z2.8F1000
G0 X59.273Y26.696Z2.8
G1 Z0F1000
G1 X58.94Y26.517Z0F1800
G1 X58.583Y26.355Z0F1800
G1 X58.205Y26.21Z0F1800
G1 X57.809Y26.082Z0F1800
G1 X56.969Y25.88Z0F1800
G1 X56.079Y25.75Z0F1800
G0 Z2.8F1000
G0 X55.842Y27.288Z2.8
G1 Z0F1000
G1 X55.515Y27.264Z0F1800
G1 X55.166Y27.227Z0F1800
G1 X54.829Y27.174Z0F1800
G1 X54.541Y27.105Z0F1800
G1 X54.297Y27.012Z0F1800
G1 X54.08Y26.894Z0F1800
G1 X53.857Y26.745Z0F1800
G1 X53.594Y26.558Z0F1800
G1 X53.289Y26.368Z0F1800
G1 X52.965Y26.211Z0F1800
G1 X52.626Y26.082Z0F1800
G1 X52.277Y25.974Z0F1800
G1 X51.568Y25.798Z0F1800
G1 X50.873Y25.632Z0F1800
G0 Z2.8F1000
G0 X48.98Y25.277Z2.8
G1 Z0F1000
G1 X46.614Z0F1800
G0 Z2.8F1000
G0 X44.366Y27.643Z2.8
G1 Z0F1000
G1 X44.994Y27.746Z0F1800
G1 X47.081Y28.067Z0F1800
G1 X47.797Y28.184Z0F1800
G1 X48.499Y28.309Z0F1800
G1 X49.175Y28.443Z0F1800
G1 X49.809Y28.589Z0F1800
G0 Z2.8F1000
G0 X51.465Y27.998Z2.8
G1 Z0F1000
G1 X50.942Y27.747Z0F1800
G1 X50.48Y27.541Z0F1800
G1 X50.007Y27.358Z0F1800
G1 X49.454Y27.177Z0F1800
G1 X48.9Y26.988Z0F1800
G1 X48.347Y26.781Z0F1800
G1 X47.785Y26.596Z0F1800
G1 X47.206Y26.469Z0F1800
G1 X46.734Y26.404Z0F1800
G1 X46.259Y26.358Z0F1800
G1 X45.596Y26.341Z0F1800
G1 X44.958Y26.298Z0F1800
G1 X44.646Y26.234Z0F1800
G1 X44.355Y26.146Z0F1800
G1 X44.071Y26.04Z0F1800
G1 X43.775Y25.92Z0F1800
G1 X43.269Y25.719Z0F1800
G1 X42.71Y25.521Z0F1800
G1 X42.208Y25.387Z0F1800
G1 X41.72Y25.314Z0F1800
G1 X41.254Y25.283Z0F1800
G1 X40.817Y25.277Z0F1800
G0 Z2.8F1000
G0 X42.947Y27.288Z2.8
G1 Z0F1000
G1 X42.013Y26.931Z0F1800
G1 X41.54Y26.785Z0F1800
G1 X41.054Y26.707Z0F1800
G1 X39.947Y26.648Z0F1800
G1 X39.4Y26.593Z0F1800
G1 X38.806Y26.486Z0F1800
G1 X37.525Y26.156Z0F1800
G1 X36.258Y25.793Z0F1800
G1 X35.635Y25.624Z0F1800
G1 X35.023Y25.475Z0F1800
G1 X34.422Y25.356Z0F1800
G1 X33.837Y25.277Z0F1800
G0 Z2.8F1000
G0 X33.245Y29.891Z2.8
G1 Z0F1000
G1 X33.742Y29.856Z0F1800
G1 X34.225Y29.885Z0F1800
G1 X34.7Y29.964Z0F1800
G1 X35.167Y30.08Z0F1800
G1 X36.095Y30.373Z0F1800
G1 X37.031Y30.658Z0F1800
G1 X37.98Y30.882Z0F1800
G1 X38.89Y31.049Z0F1800
G1 X39.758Y31.154Z0F1800
G1 X40.581Y31.192Z0F1800
G0 Z2.8F1000
G0 X41.882Y28.708Z2.8
G1 Z0F1000
G1 X42.254Y28.76Z0F1800
G1 X42.64Y28.839Z0F1800
G1 X43.037Y28.941Z0F1800
G1 X43.441Y29.063Z0F1800
G1 X44.262Y29.345Z0F1800
G1 X45.076Y29.654Z0F1800
G1 X44.84Y29.772Z0F1800
G0 Z2.8F1000
G0 X45.195Y29.773Z2.8
G1 Z0F1000
G1 X46.023Z0F1800
G0 Z2.8F1000
G0 X51.347Y30.246Z2.8
G1 Z0F1000
G1 X53.594Y30.587Z0F1800
G1 X54.778Y30.773Z0F1800
G1 X57.262Y31.474Z0F1800
G1 X61.166Y32.02Z0F1800
G0 Z2.8F1000
G0 X65.662Y32.494Z2.8
G1 Z0F1000
G1 X66.136Y32.698Z0F1800
G1 X66.584Y32.964Z0F1800
G1 X66.791Y33.139Z0F1800
G1 X66.984Y33.351Z0F1800
G1 X67.161Y33.606Z0F1800
G1 X67.318Y33.913Z0F1800
G0 Z2.8F1000
G0 X67.555Y36.279Z2.8
G1 Z0F1000
G1 X67.935Y36.237Z0F1800
G1 X69.336Y36.067Z0F1800
G1 X69.826Y36.012Z0F1800
G1 X70.297Y35.967Z0F1800
G1 X70.729Y35.936Z0F1800
G1 X71.104Y35.925Z0F1800
G0 Z2.8F1000
G0 X71.696Y37.344Z2.8
G1 Z0F1000
G1 X72.328Y37.079Z0F1800
G1 X72.945Y36.894Z0F1800
G1 X73.529Y36.757Z0F1800
G1 X74.062Y36.634Z0F1800
G0 Z2.8F1000
G0 X72.879Y38.172Z2.8
G1 Z0F1000
G1 X73.516Y37.947Z0F1800
G1 X74.222Y37.73Z0F1800
G1 X74.974Y37.523Z0F1800
G1 X75.747Y37.33Z0F1800
G1 X76.517Y37.153Z0F1800
G1 X77.258Y36.996Z0F1800
G1 X77.946Y36.862Z0F1800
G1 X78.558Y36.753Z0F1800
G0 Z2.8F1000
G0 X78.912Y37.344Z2.8
G1 Z0F1000
G1 X79.513Y37.253Z0F1800
G1 X80.096Y37.159Z0F1800
G1 X80.859Y37.015Z0F1800
G1 X81.559Y36.918Z0F1800
G1 X81.889Y36.896Z0F1800
G1 X82.207Z0F1800
G1 X82.516Y36.928Z0F1800
G1 X82.817Y36.989Z0F1800
G0 Z2.8F1000
G0 X82.58Y36.871Z2.8
G1 Z0F1000
G1 X82.343Y36.634Z0F1800
G1 X82.817Y36.398Z0F1800
G0 Z2.8F1000
G0 X82.343Y36.634Z2.8
G1 Z0F1000
G1 X82.225Z0F1800
G0 Z2.8F1000
G0 X83.881Y36.753Z2.8
G1 Z0F1000
G1 X84.58Y36.549Z0F1800
G1 X85.309Y36.424Z0F1800
G1 X86.064Y36.323Z0F1800
G1 X86.839Y36.195Z0F1800
G1 X87.839Y35.973Z0F1800
G1 X88.857Y35.743Z0F1800
G1 X89.872Y35.553Z0F1800
G1 X90.862Y35.451Z0F1800
G0 Z2.8F1000
G0 X91.69Y34.86Z2.8
G1 Z0F1000
G1 X93.464Y34.252Z0F1800
G1 X95.002Y33.919Z0F1800
G1 X97.724Y33.384Z0F1800
G1 X99.262Y33.203Z0F1800
G0 Z2.8F1000
G0 X98.907Y34.032Z2.8
G1 Z0F1000
G1 X98.07Y34.054Z0F1800
G1 X97.274Y34.118Z0F1800
G1 X96.496Y34.227Z0F1800
G1 X95.712Y34.387Z0F1800
G0 Z2.8F1000
G0 X94.766Y33.085Z2.8
G1 Z0F1000
G1 X94.422Y33.097Z0F1800
G1 X94.106Y33.124Z0F1800
G1 X93.813Y33.163Z0F1800
G1 X93.538Y33.211Z0F1800
G1 X93.022Y33.324Z0F1800
G1 X92.518Y33.44Z0F1800
G0 Z2.8F1000
G0 X91.453Y33.322Z2.8
G1 Z0F1000
G1 X90.507Y33.913Z0F1800
G0 Z2.8F1000
G0 X89.797Y33.44Z2.8
G1 Z0F1000
G1 X89.377Y33.655Z0F1800
G1 X89.047Y33.842Z0F1800
G1 X88.736Y34.006Z0F1800
G1 X88.377Y34.15Z0F1800
G0 Z2.8F1000
G0 X87.667Y33.677Z2.8
G1 Z0F1000
G1 X87.312Y33.913Z0F1800
G1 Y34.15Z0F1800
G1 X87.5Y34.196Z0F1800
G1 X87.657Y34.226Z0F1800
G1 X87.79Y34.243Z0F1800
G1 X87.908Y34.247Z0F1800
G1 X88.127Y34.219Z0F1800
G1 X88.377Y34.15Z0F1800
G1 X87.667Y32.02Z0F1800
G0 Z2.8F1000
G0 X88.614Y32.139Z2.8
G1 Z0F1000
G1 X88.624Y31.854Z0F1800
G1 X88.656Y31.588Z0F1800
G1 X88.713Y31.337Z0F1800
G1 X88.8Y31.098Z0F1800
G1 X88.924Y30.87Z0F1800
G1 X89.089Y30.647Z0F1800
G1 X89.299Y30.429Z0F1800
G1 X89.561Y30.211Z0F1800
G1 X90.107Y29.863Z0F1800
G1 X90.735Y29.557Z0F1800
G1 X91.397Y29.286Z0F1800
G1 X92.045Y29.04Z0F1800
G1 X92.918Y28.658Z0F1800
G1 X93.789Y28.237Z0F1800
G1 X94.229Y28.043Z0F1800
G1 X94.675Y27.876Z0F1800
G1 X95.129Y27.747Z0F1800
G1 X95.594Y27.67Z0F1800
G1 X96.091Y27.65Z0F1800
G1 X96.55Y27.678Z0F1800
G1 X97.004Y27.723Z0F1800
G1 X97.487Y27.756Z0F1800
G1 X99.297Y27.817Z0F1800
G1 X101.036Y27.846Z0F1800
G1 X101.388Y27.855Z0F1800
G1 X101.701Y27.877Z0F1800
G1 X101.985Y27.91Z0F1800
G1 X102.253Y27.95Z0F1800
G1 X102.789Y28.038Z0F1800
G1 X103.402Y28.116Z0F1800
G0 Z2.8F1000
G0 X104.94Y28.708Z2.8
G1 Z0F1000
G1 X106.242Y28.375Z0F1800
G1 X108.963Y28.116Z0F1800
G0 Z2.8F1000
G0 X109.554Y29.418Z2.8
G1 Z0F1000
G1 X109.17Y29.575Z0F1800
G1 X108.689Y29.722Z0F1800
G1 X108.138Y29.857Z0F1800
G1 X107.546Y29.976Z0F1800
G1 X106.938Y30.076Z0F1800
G1 X106.342Y30.156Z0F1800
G1 X105.786Y30.212Z0F1800
G1 X105.295Y30.241Z0F1800
G1 X103.715Y30.284Z0F1800
G1 X102.104Y30.304Z0F1800
G1 X100.492Y30.297Z0F1800
G1 X98.907Y30.257Z0F1800
G1 X98.292Y30.211Z0F1800
G1 X97.636Y30.145Z0F1800
G1 X96.993Y30.101Z0F1800
G1 X96.422Y30.12Z0F1800
G1 X95.598Y30.245Z0F1800
G1 X94.766Y30.424Z0F1800
G1 X93.938Y30.647Z0F1800
G1 X93.109Y30.881Z0F1800
G1 X92.732Y31Z0F1800
G1 X92.39Y31.139Z0F1800
G1 X92.076Y31.293Z0F1800
G1 X91.782Y31.458Z0F1800
G1 X91.224Y31.801Z0F1800
G1 X90.653Y32.126Z0F1800
G1 X90.449Y32.206Z0F1800
G1 X90.27Y32.257Z0F1800
G0 Z2.8F1000
G0 X93.701Z2.8
G1 Z0F1000
G1 X94.129Y32.177Z0F1800
G1 X94.585Y32.056Z0F1800
G1 X95.06Y31.901Z0F1800
G1 X95.548Y31.719Z0F1800
G1 X96.534Y31.295Z0F1800
G1 X97.487Y30.837Z0F1800
G0 Z2.8F1000
G0 X99.616Y32.02Z2.8
G1 Z0F1000
G1 X99.029Y32.17Z0F1800
G1 X98.39Y32.329Z0F1800
G1 X97.743Y32.51Z0F1800
G1 X97.132Y32.73Z0F1800
G0 Z2.8F1000
G0 X101.983Y31.902Z2.8
G1 Z0F1000
G1 X104.349Y31.872Z0F1800
G1 X108.371Y31.31Z0F1800
G0 Z2.8F1000
G0 X108.963Y33.085Z2.8
G1 Z0F1000
G1 X106.597Y32.939Z0F1800
G1 X105.295Y32.849Z0F1800
G0 Z2.8F1000
G0 X107.425Y25.277Z2.8
G1 Z0F1000
G1 X105.177Y25.536Z0F1800
G1 X103.994Y25.669Z0F1800
G1 X102.101Y25.868Z0F1800
G1 X100.8Y26Z0F1800
G1 X98.788Y25.879Z0F1800
G1 X97.605Y26.022Z0F1800
G1 X96.659Y26.198Z0F1800
G1 X92.755Y26.578Z0F1800
G0 Z2.8F1000
G0 X91.808Y27.288Z2.8
G1 Z0F1000
G1 X91.359Y27.345Z0F1800
G1 X90.968Y27.409Z0F1800
G1 X90.617Y27.481Z0F1800
G1 X90.284Y27.562Z0F1800
G1 X89.949Y27.653Z0F1800
G1 X89.193Y27.869Z0F1800
G1 X88.732Y27.998Z0F1800
G0 Z2.8F1000
G0 X87.904Y28.471Z2.8
G1 Z0F1000
G1 X87.542Y28.703Z0F1800
G1 X87.201Y28.976Z0F1800
G1 X87.04Y29.138Z0F1800
G1 X86.886Y29.322Z0F1800
G1 X86.74Y29.533Z0F1800
G1 X86.603Y29.773Z0F1800
G0 Z2.8F1000
G0 X84.236Y28.944Z2.8
G1 Z0F1000
G1 X83.767Y28.631Z0F1800
G1 X83.275Y28.254Z0F1800
G1 X82.731Y27.862Z0F1800
G1 X82.107Y27.504Z0F1800
G1 X81.384Y27.219Z0F1800
G1 X80.666Y27.02Z0F1800
G1 X79.988Y26.861Z0F1800
G1 X79.386Y26.696Z0F1800
G1 X79.741Y26.815Z0F1800
G0 Z2.8F1000
G0 X81.515Y25.75Z2.8
G1 Z0F1000
G1 X81.988Y25.632Z0F1800
G0 Z2.8F1000
G0 X84.473Y26.933Z2.8
G1 Z0F1000
G1 X84.967Y26.601Z0F1800
G1 X85.441Y26.362Z0F1800
G1 X85.904Y26.172Z0F1800
G1 X86.366Y25.987Z0F1800
G0 Z2.8F1000
G0 X87.194Y26.46Z2.8
G1 Z0F1000
G1 X87.903Y26.212Z0F1800
G1 X88.614Y25.971Z0F1800
G1 X89.014Y25.861Z0F1800
G1 X89.385Y25.774Z0F1800
G1 X89.734Y25.707Z0F1800
G1 X90.071Y25.66Z0F1800
G1 X90.738Y25.617Z0F1800
G1 X91.453Y25.632Z0F1800
G0 Z2.8F1000
G0 X89.205Y25.277Z2.8
G1 Z0F1000
G1 X89.087Z0F1800
G0 Z2.8F1000
G0 X97.487Y25.868Z2.8
G1 Z0F1000
G1 X97.605Z0F1800
G0 Z2.8F1000
G0 X93.228Y35.688Z2.8
G1 Z0F1000
G1 X88.259Y36.753Z0F1800
G0 Z2.8F1000
G0 X87.194Y37.699Z2.8
G1 Z0F1000
G1 X86.6Y37.714Z0F1800
G1 X86.038Y37.756Z0F1800
G1 X85.499Y37.822Z0F1800
G1 X84.978Y37.909Z0F1800
G1 X83.962Y38.134Z0F1800
G1 X82.935Y38.409Z0F1800
G0 Z2.8F1000
G0 X80.924Y38.527Z2.8
G1 Z0F1000
G1 X80.599Y38.579Z0F1800
G1 X80.311Y38.615Z0F1800
G1 X80.049Y38.637Z0F1800
G1 X79.805Y38.648Z0F1800
G1 X79.326Z0F1800
G1 X78.794Z0F1800
G0 Z2.8F1000
G0 X77.256Y38.646Z2.8
G1 Z0F1000
G1 X73.589Y39.249Z0F1800
G1 X72.287Y39.474Z0F1800
G0 Z2.8F1000
G0 X72.76Y40.42Z2.8
G1 Z0F1000
G1 X74.614Y40.047Z0F1800
G1 X76.428Y39.71Z0F1800
G0 Z2.8F1000
G0 X71.341Y41.012Z2.8
G1 Z0F1000
G1 X71.111Y41.095Z0F1800
G1 X70.572Y41.3Z0F1800
G1 X68.974Y41.926Z0F1800
G1 X68.329Y42.173Z0F1800
G1 X67.735Y42.391Z0F1800
G1 X67.468Y42.484Z0F1800
G1 X67.228Y42.562Z0F1800
G1 X67.019Y42.625Z0F1800
G1 X66.845Y42.668Z0F1800
G0 Z2.8F1000
G0 X67.437Y41.13Z2.8
G1 Z0F1000
G1 X66.571Y41.543Z0F1800
G1 X65.662Y41.983Z0F1800
G1 X64.659Y42.511Z0F1800
G1 X63.667Y43.111Z0F1800
G1 X63.197Y43.422Z0F1800
G1 X62.755Y43.732Z0F1800
G1 X62.352Y44.035Z0F1800
G1 X61.994Y44.324Z0F1800
G0 Z2.8F1000
G0 X61.166Y43.141Z2.8
G1 Z0F1000
G1 X61.823Y42.7Z0F1800
G1 X62.56Y42.264Z0F1800
G1 X63.37Y41.846Z0F1800
G1 X64.242Y41.462Z0F1800
G1 X64.893Y41.2Z0F1800
G1 X65.544Y40.941Z0F1800
G1 X66.187Y40.705Z0F1800
G1 X66.802Y40.505Z0F1800
G1 X67.38Y40.333Z0F1800
G1 X67.91Y40.184Z0F1800
G0 Z2.8F1000
G0 X68.501Y40.42Z2.8
G1 Z0F1000
G1 X70.513Y40.065Z0F1800
G0 Z2.8F1000
G0 X70.158Y38.646Z2.8
G1 Z0F1000
G1 X69.918Y38.716Z0F1800
G1 X69.65Y38.788Z0F1800
G1 X69.356Y38.863Z0F1800
G1 X69.041Y38.939Z0F1800
G1 X68.362Y39.094Z0F1800
G1 X67.641Y39.25Z0F1800
G1 X66.198Y39.555Z0F1800
G1 X65.536Y39.697Z0F1800
G1 X64.952Y39.829Z0F1800
G0 Z2.8F1000
G0 X63.059Y39.474Z2.8
G1 Z0F1000
G1 X61.773Y39.991Z0F1800
G1 X60.496Y40.443Z0F1800
G1 X59.861Y40.68Z0F1800
G1 X59.229Y40.943Z0F1800
G1 X58.599Y41.246Z0F1800
G1 X57.972Y41.603Z0F1800
G0 Z2.8F1000
G0 X56.789Y41.012Z2.8
G1 Z0F1000
G1 X57.434Y40.701Z0F1800
G1 X58.09Y40.42Z0F1800
G0 Z2.8F1000
G0 X58.327Y38.764Z2.8
G1 Z0F1000
G1 X57.736Y38.887Z0F1800
G1 X57.125Y39.067Z0F1800
G1 X56.505Y39.286Z0F1800
G1 X55.89Y39.524Z0F1800
G1 X55.291Y39.764Z0F1800
G1 X54.721Y39.986Z0F1800
G1 X54.191Y40.171Z0F1800
G1 X53.713Y40.302Z0F1800
G0 Z2.8F1000
G0 X52.293Y39.474Z2.8
G1 Z0F1000
G1 X55.132Y38.764Z0F1800
G0 Z2.8F1000
G0 X55.487Y37.463Z2.8
G1 Z0F1000
G1 X54.719Y37.547Z0F1800
G1 X53.954Y37.727Z0F1800
G1 X53.187Y37.983Z0F1800
G1 X52.411Y38.291Z0F1800
G0 Z2.8F1000
G0 X52.175Y38.882Z2.8
G1 Z0F1000
G1 X51.228Y39.237Z0F1800
G0 Z2.8F1000
G0 X50.992Y39.355Z2.8
G1 Z0F1000
G1 X49.927Y39.592Z0F1800
G0 Z2.8F1000
G0 X51.347Y40.184Z2.8
G1 Z0F1000
G1 X48.744Y41.078Z0F1800
G1 X46.851Y41.722Z0F1800
G0 Z2.8F1000
G0 X47.916Y42.313Z2.8
G1 Z0F1000
G1 X48.98Y42.077Z0F1800
G0 Z2.8F1000
G0 X49.217Y41.84Z2.8
G1 Z0F1000
G1 X49.572Z0F1800
G0 Z2.8F1000
G0 X49.809Y41.603Z2.8
G1 Z0F1000
G1 X50.796Y41.292Z0F1800
G1 X51.702Y41.012Z0F1800
G0 Z2.8F1000
G0 X51.465Y41.958Z2.8
G1 Z0F1000
G1 X51.055Y42.187Z0F1800
G1 X50.673Y42.418Z0F1800
G1 X50.272Y42.686Z0F1800
G1 X49.809Y43.023Z0F1800
G0 Z2.8F1000
G0 X51.465Y43.378Z2.8
G1 Z0F1000
G1 X52.285Y42.821Z0F1800
G1 X53.121Y42.313Z0F1800
G0 Z2.8F1000
G0 X54.186Y43.023Z2.8
G1 Z0F1000
G1 X55.369Y42.195Z0F1800
G0 Z2.8F1000
G0 X56.671Y42.668Z2.8
G1 Z0F1000
G1 X56.292Y42.919Z0F1800
G1 X55.895Y43.204Z0F1800
G1 X55.706Y43.377Z0F1800
G1 X55.532Y43.577Z0F1800
G1 X55.379Y43.812Z0F1800
G1 X55.254Y44.089Z0F1800
G1 X55.171Y44.402Z0F1800
G1 X55.155Y44.69Z0F1800
G1 X55.194Y44.953Z0F1800
G1 X55.278Y45.195Z0F1800
G1 X55.536Y45.62Z0F1800
G1 X55.842Y45.981Z0F1800
G0 Z2.8F1000
G0 X57.38Y46.927Z2.8
G1 Z0F1000
G1 X57.789Y47.034Z0F1800
G1 X58.228Y47.178Z0F1800
G1 X58.689Y47.348Z0F1800
G1 X60.125Y47.912Z0F1800
G1 X61.048Y48.229Z0F1800
G0 Z2.8F1000
G0 X61.403Y47.874Z2.8
G1 Z0F1000
G1 X61.357Y48.031Z0F1800
G1 X61.338Y48.156Z0F1800
G1 X61.343Y48.254Z0F1800
G1 X61.37Y48.333Z0F1800
G1 X61.477Y48.458Z0F1800
G1 X61.639Y48.584Z0F1800
G0 Z2.8F1000
G0 X62.113Y47.164Z2.8
G1 Z0F1000
G1 X62.389Y47.302Z0F1800
G1 X62.746Y47.463Z0F1800
G1 X63.157Y47.635Z0F1800
G1 X63.599Y47.81Z0F1800
G1 X64.047Y47.979Z0F1800
G1 X64.478Y48.131Z0F1800
G1 X64.867Y48.256Z0F1800
G1 X65.189Y48.347Z0F1800
G0 Z2.8F1000
G0 X65.425Y47.637Z2.8
G1 Z0F1000
G1 X66.33Y47.862Z0F1800
G1 X67.157Y48.093Z0F1800
G1 X67.554Y48.193Z0F1800
G1 X67.947Y48.273Z0F1800
G1 X68.34Y48.327Z0F1800
G1 X68.738Y48.347Z0F1800
G0 Z2.8F1000
G0 X69.093Y47.992Z2.8
G1 Z0F1000
G1 X68.713Y47.914Z0F1800
G1 X68.371Y47.816Z0F1800
G1 X68.035Y47.688Z0F1800
G1 X67.673Y47.519Z0F1800
G0 Z2.8F1000
G0 X69.921Y46.691Z2.8
G1 Z0F1000
G1 X69.294Y46.41Z0F1800
G1 X68.64Y46.111Z0F1800
G1 X68.005Y45.836Z0F1800
G1 X67.437Y45.626Z0F1800
G0 Z2.8F1000
G0 X66.135Y45.508Z2.8
G1 Z0F1000
G1 X66.279Y45.204Z0F1800
G1 X66.45Y44.94Z0F1800
G1 X66.648Y44.707Z0F1800
G1 X66.872Y44.498Z0F1800
G1 X67.122Y44.306Z0F1800
G1 X67.398Y44.122Z0F1800
G1 X67.7Y43.94Z0F1800
G1 X68.028Y43.75Z0F1800
G1 X69.043Y43.216Z0F1800
G1 X70.055Y42.772Z0F1800
G1 X71.089Y42.394Z0F1800
G1 X72.169Y42.06Z0F1800
G1 X73.291Y41.755Z0F1800
G1 X74.417Y41.47Z0F1800
G1 X75.129Y41.276Z0F1800
G1 X75.836Y41.094Z0F1800
G1 X77.258Y40.81Z0F1800
G1 X78.676Y40.568Z0F1800
G1 X79.543Y40.465Z0F1800
G1 X80.433Y40.401Z0F1800
G1 X81.332Y40.325Z0F1800
G1 X82.225Y40.184Z0F1800
G1 X84.236Y39.747Z0F1800
G1 X85.119Y39.548Z0F1800
G1 X86.022Y39.322Z0F1800
G1 X86.918Y39.072Z0F1800
G1 X87.786Y38.798Z0F1800
G1 X88.086Y38.69Z0F1800
G1 X88.344Y38.588Z0F1800
G1 X88.783Y38.404Z0F1800
G1 X89.196Y38.262Z0F1800
G1 X89.679Y38.172Z0F1800
G1 X89.515Y38.291Z0F1800
G1 X89.425Y38.343Z0F1800
G1 X89.344Y38.369Z0F1800
G1 X89.205Y38.409Z0F1800
G0 Z2.8F1000
G0 X89.679Y38.172Z2.8
G1 Z0F1000
G1 X90.033Z0F1800
G0 Z2.8F1000
G0 Y37.581Z2.8
G1 Z0F1000
G1 X88.673Y37.969Z0F1800
G1 X88.377Y38.527Z0F1800
G0 Z2.8F1000
G0 X94.056Y43.26Z2.8
G1 Z0F1000
G1 X94.344Y43.27Z0F1800
G1 X94.666Y43.232Z0F1800
G1 X95.015Y43.164Z0F1800
G1 X95.383Y43.083Z0F1800
G1 X95.762Y43.006Z0F1800
G1 X96.146Y42.95Z0F1800
G1 X96.526Y42.933Z0F1800
G1 X96.895Y42.972Z0F1800
G1 X98.032Y43.288Z0F1800
G1 X98.315Y43.329Z0F1800
G1 X98.574Y43.318Z0F1800
G1 X98.797Y43.238Z0F1800
G1 X98.972Y43.07Z0F1800
G1 X99.118Y42.803Z0F1800
G1 X99.198Y42.608Z0F1800
G1 X99.241Y42.534Z0F1800
G1 X99.3Y42.473Z0F1800
G1 X99.387Y42.422Z0F1800
G1 X99.513Y42.381Z0F1800
G1 X99.695Y42.333Z0F1800
G1 X99.858Y42.274Z0F1800
G1 X100.002Y42.184Z0F1800
G1 X100.128Y42.047Z0F1800
G1 X100.265Y41.835Z0F1800
G1 X100.396Y41.656Z0F1800
G1 X100.472Y41.588Z0F1800
G1 X100.563Y41.537Z0F1800
G1 X100.673Y41.508Z0F1800
G1 X100.808Y41.503Z0F1800
G1 X101.108Y41.548Z0F1800
G1 X101.338Y41.609Z0F1800
G1 X101.557Y41.639Z0F1800
G1 X101.826Y41.59Z0F1800
G1 X102.11Y41.486Z0F1800
G1 X102.406Y41.388Z0F1800
G1 X102.717Y41.341Z0F1800
G1 X103.047Y41.386Z0F1800
G1 X103.469Y41.498Z0F1800
G1 X103.84Y41.558Z0F1800
G1 X104.175Y41.573Z0F1800
G1 X104.491Y41.549Z0F1800
G1 X104.805Y41.493Z0F1800
G1 X105.131Y41.413Z0F1800
G1 X105.887Y41.203Z0F1800
G1 X106.424Y41.032Z0F1800
G1 X106.879Y40.844Z0F1800
G1 X107.341Y40.64Z0F1800
G1 X107.898Y40.42Z0F1800
G0 Z2.8F1000
G0 X109.791Y40.539Z2.8
G1 Z0F1000
G1 X109.394Y40.99Z0F1800
G1 X108.978Y41.373Z0F1800
G1 X108.526Y41.723Z0F1800
G1 X108.016Y42.077Z0F1800
G0 Z2.8F1000
G0 X108.49Y45.271Z2.8
G1 Z0F1000
G1 X102.929Y46.454Z0F1800
G0 Z2.8F1000
G0 X101.983Y47.282Z2.8
G1 Z0F1000
G1 X103.516Y47.046Z0F1800
G1 X105.044Y46.754Z0F1800
G1 X105.801Y46.576Z0F1800
G1 X106.55Y46.371Z0F1800
G1 X107.289Y46.135Z0F1800
G1 X108.016Y45.862Z0F1800
G0 Z2.8F1000
G0 X109.436Y47.519Z2.8
G1 Z0F1000
G1 X107.543Y48.11Z0F1800
G0 Z2.8F1000
G0 X107.78Y48.938Z2.8
G1 Z0F1000
G1 X106.715Y49.293Z0F1800
G0 Z2.8F1000
G0 X106.478Z2.8
G1 Z0F1000
G1 X106.123Z0F1800
G0 Z2.8F1000
G0 X106.833Y49.53Z2.8
G1 Z0F1000
G1 X105.792Y49.705Z0F1800
G1 X104.719Y49.922Z0F1800
G1 X103.668Y50.179Z0F1800
G1 X102.692Y50.476Z0F1800
G0 Z2.8F1000
G0 X101.983Y50.595Z2.8
G1 Z0F1000
G1 X99.735Y50.95Z0F1800
G0 Z2.8F1000
G0 X98.788Y51.186Z2.8
G1 Z0F1000
G1 X98.67Z0F1800
G0 Z2.8F1000
G0 X97.96Y51.423Z2.8
G1 Z0F1000
G1 X98.315Y51.541Z0F1800
G1 X97.96Y51.66Z0F1800
G0 Z2.8F1000
G0 X97.369Y51.541Z2.8
G1 Z0F1000
G1 X97.25Z0F1800
G0 Z2.8F1000
G0 X97.605Y51.778Z2.8
G1 Z0F1000
G1 X97.842Y51.541Z0F1800
G1 X97.549Y51.61Z0F1800
G1 X97.294Y51.659Z0F1800
G1 X97.064Y51.693Z0F1800
G1 X96.846Y51.717Z0F1800
G1 X96.626Y51.733Z0F1800
G1 X96.131Y51.759Z0F1800
G1 X95.831Y51.778Z0F1800
G0 Z2.8F1000
G0 X95.594Y51.068Z2.8
G1 Z0F1000
G1 X101.036Y49.981Z0F1800
G1 X103.994Y49.314Z0F1800
G1 X109.436Y48.11Z0F1800
G0 Z2.8F1000
G0 X109.554Y48.702Z2.8
G1 Z0F1000
G1 X108.016Y48.938Z0F1800
G0 Z2.8F1000
G0 X108.726Y49.648Z2.8
G1 Z0F1000
G1 X109.791Y49.53Z0F1800
G0 Z2.8F1000
G0 X109.554Y50.122Z2.8
G1 Z0F1000
G1 X107.406Y50.702Z0F1800
G1 X105.295Y51.305Z0F1800
G0 Z2.8F1000
G0 X104.822Y51.541Z2.8
G1 Z0F1000
G1 X105.177Z0F1800
G1 X104.822Y51.66Z0F1800
G0 Z2.8F1000
G0 X104.467Y51.778Z2.8
G1 Z0F1000
G1 X104.822Y51.66Z0F1800
G1 X104.467Y51.541Z0F1800
G0 Z2.8F1000
G0 X104.23Y51.896Z2.8
G1 Z0F1000
G1 X104.467Y51.778Z0F1800
G1 X103.994Y51.896Z0F1800
G0 Z2.8F1000
G0 X103.876Y52.014Z2.8
G1 Z0F1000
G1 X103.521Z0F1800
G0 Z2.8F1000
G0 X102.929Y52.606Z2.8
G1 Z0F1000
G1 X102.217Y52.864Z0F1800
G1 X101.471Y53.085Z0F1800
G1 X100.703Y53.284Z0F1800
G1 X99.928Y53.472Z0F1800
G1 X99.158Y53.662Z0F1800
G1 X98.406Y53.869Z0F1800
G1 X97.687Y54.104Z0F1800
G1 X97.014Y54.381Z0F1800
G0 Z2.8F1000
G0 X96.067Y53.671Z2.8
G1 Z0F1000
G1 X97.108Y53.4Z0F1800
G1 X98.132Y53.173Z0F1800
G1 X98.644Y53.094Z0F1800
G1 X99.159Y53.047Z0F1800
G1 X99.68Y53.04Z0F1800
G1 X100.208Y53.079Z0F1800
G0 Z2.8F1000
G0 X99.735Y52.488Z2.8
G1 Z0F1000
G1 X100.09Y52.369Z0F1800
G0 Z2.8F1000
G0 X99.853Y51.778Z2.8
G1 Z0F1000
G1 X102.101Y51.305Z0F1800
G0 Z2.8F1000
G0 X103.402Y50.95Z2.8
G1 Z0F1000
G1 X104.822Y50.681Z0F1800
G1 X106.478Y50.122Z0F1800
G0 Z2.8F1000
G0 X107.306Y51.305Z2.8
G1 Z0F1000
G1 X107.07Y51.541Z0F1800
G0 Z2.8F1000
G0 X107.188Y51.778Z2.8
G1 Z0F1000
G1 X107.456Y51.586Z0F1800
G1 X107.561Y51.521Z0F1800
G1 X107.659Y51.477Z0F1800
G1 X107.757Y51.456Z0F1800
G1 X107.863Y51.459Z0F1800
G1 X107.987Y51.487Z0F1800
G1 X108.135Y51.541Z0F1800
G0 Z2.8F1000
G0 X107.78Y51.66Z2.8
G1 Z0F1000
G1 X107.543Z0F1800
G0 Z2.8F1000
G0 X106.833Y51.896Z2.8
G1 Z0F1000
G1 X107.188Y51.778Z0F1800
G1 X106.36Y52.014Z0F1800
G0 Z2.8F1000
G0 X105.887Y52.133Z2.8
G1 Z0F1000
G1 Y52.251Z0F1800
G0 Z2.8F1000
G0 X105.65Z2.8
G1 Z0F1000
G1 X103.047Y52.843Z0F1800
G0 Z2.8F1000
G0 X104.704Y53.316Z2.8
G1 Z0F1000
G1 X104.178Z0F1800
G1 X103.658Y53.346Z0F1800
G1 X103.143Y53.404Z0F1800
G1 X102.633Y53.487Z0F1800
G1 X101.623Y53.715Z0F1800
G1 X100.625Y54.005Z0F1800
G1 X98.645Y54.681Z0F1800
G1 X96.659Y55.327Z0F1800
G0 Z2.8F1000
G0 X97.25Y55.564Z2.8
G1 Z0F1000
G1 X95.239Y55.8Z0F1800
G0 Z2.8F1000
G0 Z2.8
G1 Z0F1000
G1 X94.766Y55.682Z0F1800
G1 X95.239Y55.8Z0F1800
G0 Z2.8F1000
G0 X94.056Y56.155Z2.8
G1 Z0F1000
G1 X94.766Y55.919Z0F1800
G1 X94.316Z0F1800
G1 X93.833Y56.005Z0F1800
G1 X93.33Y56.165Z0F1800
G1 X92.821Y56.375Z0F1800
G1 X92.318Y56.618Z0F1800
G1 X91.834Y56.872Z0F1800
G1 X90.98Y57.338Z0F1800
G0 Z2.8F1000
G0 X90.625Y57.575Z2.8
G1 Z0F1000
G1 X90.152Z0F1800
G0 Z2.8F1000
G0 X89.915Y57.812Z2.8
G1 Z0F1000
G1 X89.795Y57.713Z0F1800
G1 X89.653Y57.639Z0F1800
G1 X89.494Y57.59Z0F1800
G1 X89.319Y57.561Z0F1800
G1 X88.935Z0F1800
G1 X88.524Y57.615Z0F1800
G1 X88.11Y57.712Z0F1800
G1 X87.715Y57.831Z0F1800
G1 X87.363Y57.954Z0F1800
G1 X87.076Y58.064Z0F1800
G1 X86.13Y58.395Z0F1800
G1 X85.148Y58.668Z0F1800
G1 X84.154Y58.902Z0F1800
G1 X83.172Y59.113Z0F1800
G0 Z2.8F1000
G0 X82.462Y59.586Z2.8
G1 Z0F1000
G1 X82.107Z0F1800
G0 Z2.8F1000
G0 X81.989Y59.704Z2.8
G1 Z0F1000
G1 X80.214Y59.717Z0F1800
G1 X77.729Y59.935Z0F1800
G1 X76.073Y59.929Z0F1800
G1 X74.298Y60.296Z0F1800
G0 Z2.8F1000
G0 X73.825Y61.124Z2.8
G1 Z0F1000
G1 X73.131Y61.139Z0F1800
G1 X72.442Y61.182Z0F1800
G1 X71.758Y61.252Z0F1800
G1 X71.077Y61.348Z0F1800
G1 X69.725Y61.609Z0F1800
G1 X68.383Y61.952Z0F1800
G0 Z2.8F1000
G0 X67.082Y62.544Z2.8
G1 Z0F1000
G1 X65.899Y62.899Z0F1800
G0 Z2.8F1000
G0 X64.479Y62.426Z2.8
G1 Z0F1000
G1 X64.242Z0F1800
G0 Z2.8F1000
G0 X64.124Y62.307Z2.8
G1 Z0F1000
G1 X64.006Y62.544Z0F1800
G0 Z2.8F1000
G0 X66.372Y63.964Z2.8
G1 Z0F1000
G1 X64.952Y64.042Z0F1800
G1 X64.006Y64.126Z0F1800
G1 X62.941Y64.37Z0F1800
G1 X61.403Y64.792Z0F1800
G0 Z2.8F1000
G0 X61.285Y65.147Z2.8
G1 Z0F1000
G1 X59.273Y65.383Z0F1800
G0 Z2.8F1000
G0 X59.983Y65.857Z2.8
G1 Z0F1000
G1 X61.048Y65.62Z0F1800
G0 Z2.8F1000
G0 X62.349Y65.975Z2.8
G1 Z0F1000
G1 X62.832Y65.669Z0F1800
G1 X63.31Y65.407Z0F1800
G1 X63.789Y65.182Z0F1800
G1 X64.274Y64.989Z0F1800
G1 X64.77Y64.824Z0F1800
G1 X65.281Y64.68Z0F1800
G1 X65.814Y64.553Z0F1800
G1 X66.372Y64.437Z0F1800
G0 Z2.8F1000
G0 X67.318Y65.028Z2.8
G1 Z0F1000
G1 X64.597Y65.383Z0F1800
G0 Z2.8F1000
G0 X64.834Y67.04Z2.8
G1 Z0F1000
G1 X68.146Y65.919Z0F1800
G1 X70.394Y65.62Z0F1800
G0 Z2.8F1000
G0 X70.986Y65.857Z2.8
G1 Z0F1000
G1 X76.428Y65.334Z0F1800
G1 X81.752Y64.082Z0F1800
G0 Z2.8F1000
G0 X82.343Y63.727Z2.8
G1 Z0F1000
G1 X82.231Y63.627Z0F1800
G1 X82.091Y63.557Z0F1800
G1 X81.929Y63.514Z0F1800
G1 X81.747Y63.495Z0F1800
G1 X81.34Y63.52Z0F1800
G1 X80.9Y63.61Z0F1800
G1 X80.455Y63.744Z0F1800
G1 X80.035Y63.902Z0F1800
G1 X79.669Y64.061Z0F1800
G1 X79.386Y64.2Z0F1800
G0 Z2.8F1000
G0 X79.149Y64.082Z2.8
G1 Z0F1000
G1 X78.869Y63.991Z0F1800
G1 X78.593Y63.935Z0F1800
G1 X78.317Y63.908Z0F1800
G1 X78.041Y63.905Z0F1800
G1 X77.482Y63.951Z0F1800
G1 X76.901Y64.033Z0F1800
G1 X76.428Y64.123Z0F1800
G1 X76.013Y64.214Z0F1800
G1 X75.628Y64.256Z0F1800
G1 X75.245Y64.2Z0F1800
G0 Z2.8F1000
G0 X74.89Z2.8
G1 Z0F1000
G1 X74.71Y64.299Z0F1800
G1 X74.525Y64.364Z0F1800
G1 X74.33Y64.404Z0F1800
G1 X74.124Y64.424Z0F1800
G1 X73.663Y64.439Z0F1800
G1 X73.115Y64.465Z0F1800
G1 X71.97Y64.534Z0F1800
G1 X70.819Y64.608Z0F1800
G1 X70.241Y64.676Z0F1800
G1 X69.662Y64.781Z0F1800
G1 X69.082Y64.934Z0F1800
G1 X68.501Y65.147Z0F1800
G0 Z2.8F1000
G0 X68.146Y64.2Z2.8
G1 Z0F1000
G1 X68.856Y64.051Z0F1800
G1 X69.661Y63.917Z0F1800
G1 X70.045Y63.849Z0F1800
G1 X70.389Y63.776Z0F1800
G1 X70.67Y63.697Z0F1800
G1 X70.868Y63.609Z0F1800
G0 Z2.8F1000
G0 X70.986Y63.727Z2.8
G1 Z0F1000
G1 X72.997Y63.566Z0F1800
G1 X74.298Y63.313Z0F1800
G1 X75.718Y62.899Z0F1800
G0 Z2.8F1000
G0 X76.665Y62.426Z2.8
G1 Z0F1000
G1 X76.153Y62.45Z0F1800
G1 X75.616Y62.51Z0F1800
G1 X75.072Y62.602Z0F1800
G1 X74.543Y62.721Z0F1800
G1 X74.051Y62.862Z0F1800
G1 X73.615Y63.021Z0F1800
G1 X73.257Y63.192Z0F1800
G1 X72.997Y63.372Z0F1800
G0 Z2.8F1000
G0 X73.944Y61.952Z2.8
G1 Z0F1000
G1 X74.501Y61.706Z0F1800
G1 X75.058Y61.455Z0F1800
G1 X75.619Y61.217Z0F1800
G1 X76.191Y61.007Z0F1800
G1 X76.547Y60.906Z0F1800
G1 X76.895Y60.837Z0F1800
G1 X77.236Y60.793Z0F1800
G1 X77.572Y60.77Z0F1800
G1 X78.239Y60.763Z0F1800
G1 X78.912Y60.769Z0F1800
G0 Z2.8F1000
G0 X80.332Y61.006Z2.8
G1 Z0F1000
G1 X79.619Y61.118Z0F1800
G1 X78.911Y61.311Z0F1800
G1 X78.567Y61.439Z0F1800
G1 X78.233Y61.588Z0F1800
G1 X77.914Y61.759Z0F1800
G1 X77.611Y61.952Z0F1800
G0 Z2.8F1000
G0 X78.439Y62.426Z2.8
G1 Z0F1000
G1 X80.096Y61.716Z0F1800
G0 Z2.8F1000
G0 X80.569Y62.544Z2.8
G1 Z0F1000
G1 X79.741Y62.899Z0F1800
G0 Z2.8F1000
G0 X79.622Y63.727Z2.8
G1 Z0F1000
G1 X81.988Y62.606Z0F1800
G1 X85.538Y62.278Z0F1800
G1 X89.56Y61.361Z0F1800
G0 Z2.8F1000
G0 X89.679Y61.006Z2.8
G1 Z0F1000
G1 X89.915Y60.888Z0F1800
G0 Z2.8F1000
G0 Y61.716Z2.8
G1 Z0F1000
G1 X87.194Y62.426Z0F1800
G0 Z2.8F1000
G0 X86.248Y61.716Z2.8
G1 Z0F1000
G1 X85.065Z0F1800
G0 Z2.8F1000
G0 X86.129Y61.597Z2.8
G1 Z0F1000
G1 X87.431Y61.097Z0F1800
G1 X90.507Y60.059Z0F1800
G0 Z2.8F1000
G0 X91.335Y60.296Z2.8
G1 Z0F1000
G1 X91.568Y60.105Z0F1800
G1 X91.811Y59.943Z0F1800
G1 X92.062Y59.806Z0F1800
G1 X92.321Y59.693Z0F1800
G1 X92.86Y59.523Z0F1800
G1 X93.418Y59.407Z0F1800
G1 X94.568Y59.24Z0F1800
G1 X95.712Y58.995Z0F1800
G0 Z2.8F1000
G0 Y58.285Z2.8
G1 Z0F1000
G1 X91.808Y58.995Z0F1800
G0 Z2.8F1000
G0 X91.926Y58.285Z2.8
G1 Z0F1000
G1 X92.991Y58.048Z0F1800
G0 Z2.8F1000
G0 X94.411Y57.338Z2.8
G1 Z0F1000
G1 X96.067Y56.634Z0F1800
G1 X98.078Y56.037Z0F1800
G0 Z2.8F1000
G0 X98.315Y55.919Z2.8
G1 Z0F1000
G1 X100.09Y55.496Z0F1800
G1 X103.639Y54.617Z0F1800
G0 Z2.8F1000
G0 X104.467Y54.972Z2.8
G1 Z0F1000
G1 X107.543Y54.197Z0F1800
G1 X109.068Y54.038Z0F1800
G1 X109.554Y53.907Z0F1800
G0 Z2.8F1000
G0 X109.673Y54.026Z2.8
G1 Z0F1000
G1 X110.028Z0F1800
G0 Z2.8F1000
G0 Y53.198Z2.8
G1 Z0F1000
G1 X109.123Y53.321Z0F1800
G1 X108.193Y53.449Z0F1800
G1 X107.234Y53.58Z0F1800
G1 X106.242Y53.707Z0F1800
G1 X104.762Y53.938Z0F1800
G1 X103.274Y54.245Z0F1800
G1 X101.791Y54.6Z0F1800
G1 X100.326Y54.972Z0F1800
G0 Z2.8F1000
G0 X98.197Y55.564Z2.8
G1 Z0F1000
G1 X97.369Y55.682Z0F1800
G0 Z2.8F1000
G0 X96.304Y57.93Z2.8
G1 Z0F1000
G1 X99.616Y56.396Z0F1800
G1 X103.047Y55.564Z0F1800
G0 Z2.8F1000
G0 X100.563Y56.983Z2.8
G1 Z0F1000
G1 X102.574Y56.416Z0F1800
G1 X104.704Y55.975Z0F1800
G1 X108.016Y55.209Z0F1800
G0 Z2.8F1000
G0 X108.135Z2.8
G1 Z0F1000
G1 X108.403Y55.179Z0F1800
G1 X108.634Y55.144Z0F1800
G1 X108.84Y55.106Z0F1800
G1 X109.033Y55.063Z0F1800
G1 X109.427Y54.966Z0F1800
G1 X109.909Y54.854Z0F1800
G0 Z2.8F1000
G0 X107.425Y56.155Z2.8
G1 Z0F1000
G1 X100.563Y57.812Z0F1800
G0 Z2.8F1000
G0 X98.907Y57.93Z2.8
G1 Z0F1000
G1 X97.014Y58.521Z0F1800
G0 Z2.8F1000
G0 X96.895Y59.468Z2.8
G1 Z0F1000
G1 X98.157Y59.031Z0F1800
G1 X99.426Y58.656Z0F1800
G1 X100.701Y58.321Z0F1800
G1 X101.983Y58.002Z0F1800
G1 X103.696Y57.589Z0F1800
G1 X105.433Y57.224Z0F1800
G1 X106.309Y57.077Z0F1800
G1 X107.19Y56.964Z0F1800
G1 X108.074Y56.891Z0F1800
G1 X108.963Y56.865Z0F1800
G0 Z2.8F1000
G0 X108.608Y57.693Z2.8
G1 Z0F1000
G1 X103.284Y58.422Z0F1800
G1 X101.628Y58.799Z0F1800
G1 X100.208Y59.171Z0F1800
G1 X97.25Y60.178Z0F1800
G0 Z2.8F1000
G0 X96.422Y60.059Z2.8
G1 Z0F1000
G1 X95.732Y60.007Z0F1800
G1 X95.044Y60.015Z0F1800
G1 X94.367Y60.085Z0F1800
G1 X93.704Y60.216Z0F1800
G1 X93.064Y60.409Z0F1800
G1 X92.451Y60.664Z0F1800
G1 X91.873Y60.981Z0F1800
G1 X91.335Y61.361Z0F1800
G0 Z2.8F1000
G0 X92.636Y61.952Z2.8
G1 Z0F1000
G1 X89.205Y63.017Z0F1800
G0 Z2.8F1000
G0 X88.732Y63.727Z2.8
G1 Z0F1000
G1 X92.163Y62.662Z0F1800
G0 Z2.8F1000
G0 X93.228Y62.781Z2.8
G1 Z0F1000
G1 X98.433Y62.307Z0F1800
G0 Z2.8F1000
G0 X99.143Y63.017Z2.8
G1 Z0F1000
G1 X99.864Y62.785Z0F1800
G1 X100.587Y62.586Z0F1800
G1 X101.312Y62.419Z0F1800
G1 X102.043Y62.281Z0F1800
G1 X103.529Y62.077Z0F1800
G1 X105.059Y61.952Z0F1800
G0 Z2.8F1000
G0 X103.757Y61.361Z2.8
G1 Z0F1000
G1 X104.086Y61.417Z0F1800
G1 X104.433Y61.447Z0F1800
G1 X104.794Y61.453Z0F1800
G1 X105.168Y61.439Z0F1800
G1 X105.941Y61.354Z0F1800
G1 X106.733Y61.211Z0F1800
G1 X107.523Y61.028Z0F1800
G1 X108.289Y60.822Z0F1800
G1 X109.013Y60.611Z0F1800
G1 X109.673Y60.414Z0F1800
G0 Z2.8F1000
G0 X109.318Y59.823Z2.8
G1 Z0F1000
G1 X103.876Y61.006Z0F1800
G0 Z2.8F1000
G0 X101.154Y61.597Z2.8
G1 Z0F1000
G1 X100.208Y62.307Z0F1800
G1 X99.735Y62.189Z0F1800
G0 Z2.8F1000
G0 X102.338Y62.899Z2.8
G1 Z0F1000
G1 X103.761Y62.589Z0F1800
G1 X105.25Y62.262Z0F1800
G1 X105.996Y62.123Z0F1800
G1 X106.732Y62.017Z0F1800
G1 X107.447Y61.956Z0F1800
G1 X108.135Y61.952Z0F1800
G0 Z2.8F1000
G0 X108.016Y62.426Z2.8
G1 Z0F1000
G1 X103.047Y63.372Z0F1800
G0 Z2.8F1000
G0 X102.929Y63.254Z2.8
G1 Z0F1000
G1 X101.391Y63.845Z0F1800
G0 Z2.8F1000
G0 X100.563Y64.319Z2.8
G1 Z0F1000
G1 X97.724Y64.802Z0F1800
G1 X96.067Y65.738Z0F1800
G0 Z2.8F1000
G0 X96.304Y66.448Z2.8
G1 Z0F1000
G1 X98.197Y65.685Z0F1800
G1 X100.09Y65.156Z0F1800
G1 X101.509Y64.673Z0F1800
G1 X101.036Y64.91Z0F1800
G0 Z2.8F1000
G0 X101.509Y64.673Z2.8
G1 Z0F1000
G1 X104.467Y63.609Z0F1800
G0 Z2.8F1000
G0 X102.929Y63.727Z2.8
G1 Z0F1000
G1 X102.811Z0F1800
G0 Z2.8F1000
G0 X102.574Y65.265Z2.8
G1 Z0F1000
G1 X106.36Y64.673Z0F1800
G0 Z2.8F1000
G0 Y64.437Z2.8
G1 Z0F1000
G1 X109.554Y63.609Z0F1800
G0 Z2.8F1000
G0 X109.199Z2.8
G1 Z0F1000
G1 X106.833Y63.727Z0F1800
G0 Z2.8F1000
G0 X108.49Y65.147Z2.8
G1 Z0F1000
G1 X107.763Y65.157Z0F1800
G1 X107Y65.191Z0F1800
G1 X106.214Y65.251Z0F1800
G1 X105.42Y65.342Z0F1800
G1 X104.633Y65.468Z0F1800
G1 X103.866Y65.633Z0F1800
G1 X103.136Y65.84Z0F1800
G1 X102.456Y66.093Z0F1800
G0 Z2.8F1000
G0 X100.208Y67.276Z2.8
G1 Z0F1000
G1 X102.219Y66.739Z0F1800
G1 X103.284Y66.632Z0F1800
G1 X108.608Y65.975Z0F1800
G0 Z2.8F1000
G0 X106.478Y67.04Z2.8
G1 Z0F1000
G1 X100.326Y67.631Z0F1800
G0 Z2.8F1000
G0 X100.09Y68.459Z2.8
G1 Z0F1000
G1 X95.949Y68.933Z0F1800
G0 Z2.8F1000
G0 X95.712Z2.8
G1 Z0F1000
G1 X95.121Z0F1800
G0 Z2.8F1000
G0 X95.712Y69.642Z2.8
G1 Z0F1000
G1 X99.735Y69.287Z0F1800
G0 Z2.8F1000
G0 X99.853Y70.116Z2.8
G1 Z0F1000
G1 X100.09Z0F1800
G0 Z2.8F1000
G0 X100.445Z2.8
G1 Z0F1000
G1 X100.681Y69.879Z0F1800
G1 X100.445Y70.116Z0F1800
G0 Z2.8F1000
G0 X101.628Y69.051Z2.8
G1 Z0F1000
G1 X102.698Y68.969Z0F1800
G1 X103.757Y68.847Z0F1800
G1 X104.951Y68.742Z0F1800
G1 X106.158Y68.648Z0F1800
G1 X106.756Y68.575Z0F1800
G1 X107.347Y68.468Z0F1800
G1 X107.926Y68.315Z0F1800
G1 X108.49Y68.104Z0F1800
G1 X105.295Y67.986Z0F1800
G0 Z2.8F1000
G0 X105.177Y68.104Z2.8
G1 Z0F1000
G1 X104.644Y68.117Z0F1800
G1 X104.073Y68.15Z0F1800
G1 X103.479Y68.204Z0F1800
G1 X102.877Y68.275Z0F1800
G1 X102.282Y68.362Z0F1800
G1 X101.708Y68.462Z0F1800
G1 X101.169Y68.574Z0F1800
G1 X100.681Y68.696Z0F1800
G0 Z2.8F1000
G0 X98.433Y69.524Z2.8
G1 Z0F1000
G1 X98.315Y69.642Z0F1800
G0 Z2.8F1000
G0 X98.078Y69.761Z2.8
G1 Z0F1000
G1 X95.831Y70.352Z0F1800
G0 Z2.8F1000
G0 X95.476Y71.299Z2.8
G1 Z0F1000
G1 X96.651Y71.093Z0F1800
G1 X97.836Y70.898Z0F1800
G1 X99.025Y70.724Z0F1800
G1 X100.208Y70.581Z0F1800
G1 X100.739Y70.511Z0F1800
G1 X101.24Y70.463Z0F1800
G1 X101.485Y70.469Z0F1800
G1 X101.728Y70.506Z0F1800
G1 X101.972Y70.583Z0F1800
G1 X102.219Y70.707Z0F1800
G1 X101.891Y70.841Z0F1800
G1 X101.611Y70.913Z0F1800
G1 X101.31Y70.96Z0F1800
G1 X100.918Y71.019Z0F1800
G1 X99.772Y71.152Z0F1800
G1 X98.565Y71.285Z0F1800
G1 X97.974Y71.397Z0F1800
G1 X97.411Y71.562Z0F1800
G1 X97.144Y71.671Z0F1800
G1 X96.889Y71.8Z0F1800
G1 X96.648Y71.951Z0F1800
G1 X96.422Y72.127Z0F1800
G0 Z2.8F1000
G0 X97.132Y73.073Z2.8
G1 Z0F1000
G1 X96.422Y73.192Z0F1800
G0 Z2.8F1000
G0 X95.239Y72.837Z2.8
G1 Z0F1000
G1 X86.248Y73.602Z0F1800
G1 X80.569Y74.611Z0F1800
G0 Z2.8F1000
G0 X80.687Y75.44Z2.8
G1 Z0F1000
G1 X81.911Y75.13Z0F1800
G1 X83.143Y74.878Z0F1800
G1 X84.381Y74.673Z0F1800
G1 X85.624Y74.504Z0F1800
G1 X88.121Y74.237Z0F1800
G1 X90.625Y73.994Z0F1800
G1 X91.692Y73.851Z0F1800
G1 X92.752Y73.676Z0F1800
G1 X93.813Y73.518Z0F1800
G1 X94.884Y73.428Z0F1800
G0 Z2.8F1000
G0 X95.831Y74.138Z2.8
G1 Z0F1000
G1 X97.724Y73.902Z0F1800
G0 Z2.8F1000
G0 X98.315Y74.73Z2.8
G1 Z0F1000
G1 X99.143Z0F1800
G0 Z2.8F1000
G0 X99.025Y75.085Z2.8
G1 Z0F1000
G1 X98.197Y75.203Z0F1800
G0 Z2.8F1000
G0 X97.96Y75.913Z2.8
G1 Z0F1000
G1 X99.143Y75.794Z0F1800
G0 Z2.8F1000
G0 X99.735Y76.386Z2.8
G1 Z0F1000
G1 X99.853Z0F1800
G0 Z2.8F1000
G0 X100.09Y76.268Z2.8
G1 Z0F1000
G1 X102.574Y75.558Z0F1800
G0 Z2.8F1000
G0 Y75.321Z2.8
G1 Z0F1000
G1 X103.047Y75.085Z0F1800
G1 X101.391Y75.203Z0F1800
G0 Z2.8F1000
G0 X101.746Y74.375Z2.8
G1 Z0F1000
G1 X100.918Z0F1800
G0 Z2.8F1000
G0 X101.509Y73.665Z2.8
G1 Z0F1000
G1 Y73.428Z0F1800
G1 Y73.665Z0F1800
G0 Z2.8F1000
G0 X101.391Y73.547Z2.8
G1 Z0F1000
G1 X100.563Z0F1800
G0 Z2.8F1000
G0 X100.681Y72.955Z2.8
G1 Z0F1000
G1 X102.929Y73.073Z0F1800
G0 Z2.8F1000
G0 X103.047Y73.31Z2.8
G1 Z0F1000
G1 X101.746Y73.547Z0F1800
G0 Z2.8F1000
G0 X102.101Y74.138Z2.8
G1 Z0F1000
G1 X102.574Y74.02Z0F1800
G0 Z2.8F1000
G0 X103.166Y74.848Z2.8
G1 Z0F1000
G1 X105.414Y74.493Z0F1800
G0 Z2.8F1000
G0 X106.005Y74.611Z2.8
G1 Z0F1000
G1 X109.199Y73.783Z0F1800
G0 Z2.8F1000
G0 X109.318Y74.493Z2.8
G1 Z0F1000
G1 X106.242Y75.085Z0F1800
G0 Z2.8F1000
G0 X106.715Y75.913Z2.8
G1 Z0F1000
G1 X108.49Y75.558Z0F1800
G0 Z2.8F1000
G0 X108.253Y75.913Z2.8
G1 Z0F1000
G1 X106.715Y76.415Z0F1800
G1 X102.101Y77.569Z0F1800
G0 Z2.8F1000
G0 X103.876Y78.161Z2.8
G1 Z0F1000
G1 X104.112Y78.042Z0F1800
G0 Z2.8F1000
G0 X104.822Y78.516Z2.8
G1 Z0F1000
G1 X105.059Z0F1800
G0 Z2.8F1000
G0 X105.295Y78.397Z2.8
G1 Z0F1000
G1 X109.081Y77.687Z0F1800
G0 Z2.8F1000
G0 X108.963Y76.741Z2.8
G1 Z0F1000
G1 X107.852Y77.008Z0F1800
G1 X106.784Y77.291Z0F1800
G1 X105.711Y77.557Z0F1800
G1 X104.585Y77.773Z0F1800
G1 X103.061Y77.936Z0F1800
G1 X101.485Y78.081Z0F1800
G1 X100.706Y78.199Z0F1800
G1 X99.95Y78.376Z0F1800
G1 X99.584Y78.493Z0F1800
G1 X99.228Y78.632Z0F1800
G1 X98.884Y78.797Z0F1800
G1 X98.552Y78.989Z0F1800
G0 Z2.8F1000
G0 X97.96Y79.344Z2.8
G1 Z0F1000
G1 X90.27Y80.882Z0F1800
G0 Z2.8F1000
G0 X90.862Y81.71Z2.8
G1 Z0F1000
G1 X91.327Y81.607Z0F1800
G1 X91.841Y81.495Z0F1800
G1 X92.385Y81.391Z0F1800
G1 X92.945Y81.307Z0F1800
G1 X93.503Y81.259Z0F1800
G1 X94.043Z0F1800
G1 X94.548Y81.327Z0F1800
G1 X95.002Y81.473Z0F1800
G0 Z2.8F1000
G0 Y81.71Z2.8
G1 Z0F1000
G1 X94.884Z0F1800
G0 Z2.8F1000
G0 X94.647Z2.8
G1 Z0F1000
G1 X94.293Y81.822Z0F1800
G1 X93.923Y81.972Z0F1800
G1 X93.768Y82.073Z0F1800
G1 X93.65Y82.198Z0F1800
G1 X93.583Y82.351Z0F1800
G1 Y82.538Z0F1800
G0 Z2.8F1000
G0 X94.056Y82.42Z2.8
G1 Z0F1000
G1 X94.174Z0F1800
G0 Z2.8F1000
G0 Y82.775Z2.8
G1 Z0F1000
G1 X92.163Y83.248Z0F1800
G0 Z2.8F1000
G0 X91.808Y83.484Z2.8
G1 Z0F1000
G1 X91.69Y83.603Z0F1800
G0 Z2.8F1000
G0 X92.636Y84.668Z2.8
G1 Z0F1000
G1 X87.312Y85.377Z0F1800
G0 Z2.8F1000
G0 X87.076Y85.732Z2.8
G1 Z0F1000
G1 X87.667Y85.851Z0F1800
G0 Z2.8F1000
G0 X87.904Z2.8
G1 Z0F1000
G1 X93.819Y85.259Z0F1800
G0 Z2.8F1000
G0 X93.701Y85.969Z2.8
G1 Z0F1000
G1 X89.442Y86.405Z0F1800
G1 X85.893Y86.797Z0F1800
G0 Z2.8F1000
G0 X86.129Y87.507Z2.8
G1 Z0F1000
G1 X88.022Z0F1800
G0 Z2.8F1000
G0 X88.377Y87.98Z2.8
G1 Z0F1000
G1 X86.248Y88.217Z0F1800
G0 Z2.8F1000
G0 X87.076Y88.69Z2.8
G1 Z0F1000
G1 X83.408Y89.282Z0F1800
G0 Z2.8F1000
G0 X83.763Y89.755Z2.8
G1 Z0F1000
G1 X83.053Y89.991Z0F1800
G0 Z2.8F1000
G0 X84Y89.873Z2.8
G1 Z0F1000
G1 X85.538Y89.518Z0F1800
G0 Z2.8F1000
G0 X84.828Y88.335Z2.8
G1 Z0F1000
G1 X83.852Y88.41Z0F1800
G1 X82.86Y88.518Z0F1800
G1 X81.86Y88.659Z0F1800
G1 X80.859Y88.834Z0F1800
G1 X79.867Y89.043Z0F1800
G1 X78.89Y89.286Z0F1800
G1 X77.939Y89.562Z0F1800
G1 X77.02Y89.873Z0F1800
G0 Z2.8F1000
G0 X77.611Y90.11Z2.8
G1 Z0F1000
G1 X77.02Y90.346Z0F1800
G0 Z2.8F1000
G0 X77.374Y91.056Z2.8
G1 Z0F1000
G1 X77.665Y90.931Z0F1800
G1 X77.944Y90.828Z0F1800
G1 X78.213Y90.755Z0F1800
G1 X78.475Y90.717Z0F1800
G1 X78.732Y90.722Z0F1800
G1 X78.988Y90.776Z0F1800
G1 X79.244Y90.885Z0F1800
G1 X79.504Y91.056Z0F1800
G1 X79.715Y90.864Z0F1800
G1 X79.928Y90.712Z0F1800
G1 X80.146Y90.595Z0F1800
G1 X80.372Y90.506Z0F1800
G1 X80.855Y90.398Z0F1800
G1 X81.397Y90.346Z0F1800
G0 Z2.8F1000
G0 X81.16Y89.755Z2.8
G1 Z0F1000
G1 X79.386Y90.346Z0F1800
G0 Z2.8F1000
G0 X79.149Y90.583Z2.8
G1 Z0F1000
G1 X79.622Y90.82Z0F1800
G0 Z2.8F1000
G0 Y91.411Z2.8
G1 Z0F1000
G1 X82.343Y90.82Z0F1800
G0 Z2.8F1000
G0 X83.29Y92.239Z2.8
G1 Z0F1000
G1 X83.834Y91.958Z0F1800
G1 X84.424Y91.732Z0F1800
G1 X85.046Y91.551Z0F1800
G1 X85.686Y91.408Z0F1800
G1 X86.329Y91.296Z0F1800
G1 X86.962Y91.205Z0F1800
G1 X88.141Y91.056Z0F1800
G0 Z2.8F1000
G0 X87.904Y91.175Z2.8
G1 Z0F1000
G1 Y91.293Z0F1800
G0 Z2.8F1000
G0 X88.85Y91.175Z2.8
G1 Z0F1000
G1 X89.087Z0F1800
G0 Z2.8F1000
G0 X89.442Y91.056Z2.8
G1 Z0F1000
G1 Y91.293Z0F1800
G1 X89.773Y91.179Z0F1800
G1 X90.05Y91.101Z0F1800
G1 X90.348Y91.036Z0F1800
G1 X90.743Y90.963Z0F1800
G1 X91.451Y90.869Z0F1800
G1 X92.159Y90.819Z0F1800
G1 X92.869Y90.776Z0F1800
G1 X93.583Y90.701Z0F1800
G0 Z2.8F1000
G0 X94.293Y90.11Z2.8
G1 Z0F1000
G1 X92.873Y90.218Z0F1800
G1 X90.98Y90.228Z0F1800
G0 Z2.8F1000
G0 X89.324Y89.163Z2.8
G1 Z0F1000
G1 X90.064Y88.95Z0F1800
G1 X90.802Y88.768Z0F1800
G1 X92.281Y88.437Z0F1800
G1 X93.427Y88.194Z0F1800
G1 X94.577Y87.987Z0F1800
G1 X95.732Y87.802Z0F1800
G1 X96.895Y87.626Z0F1800
G1 X97.332Y87.566Z0F1800
G1 X97.729Y87.524Z0F1800
G1 X98.098Y87.498Z0F1800
G1 X98.448Y87.483Z0F1800
G1 X99.13Z0F1800
G1 X99.853Y87.507Z0F1800
G0 Z2.8F1000
G0 X99.735Y87.98Z2.8
G1 Z0F1000
G1 X98.951Y88.003Z0F1800
G1 X98.184Y88.069Z0F1800
G1 X97.424Y88.174Z0F1800
G1 X95.776Y88.472Z0F1800
G1 X94.171Y88.735Z0F1800
G1 X93.464Y88.853Z0F1800
G1 X92.801Y88.977Z0F1800
G1 X92.188Y89.115Z0F1800
G1 X91.609Y89.261Z0F1800
G1 X91.051Y89.408Z0F1800
G1 X90.498Y89.549Z0F1800
G1 X89.937Y89.678Z0F1800
G1 X89.353Y89.788Z0F1800
G1 X88.732Y89.873Z0F1800
G0 Z2.8F1000
G0 X89.679Y88.217Z2.8
G1 Z0F1000
G1 X94.529Y87.389Z0F1800
G0 Z2.8F1000
G0 X94.766Y87.27Z2.8
G1 Z0F1000
G1 X95.002Z0F1800
G0 Z2.8F1000
G0 X95.831Y86.797Z2.8
G1 Z0F1000
G1 X99.853Y86.087Z0F1800
G0 Z2.8F1000
G0 Y85.496Z2.8
G1 Z0F1000
G1 X98.913Y85.65Z0F1800
G1 X97.417Y85.845Z0F1800
G1 X96.937Y85.915Z0F1800
G1 X96.483Y85.995Z0F1800
G1 X96.067Y86.087Z0F1800
G0 Z2.8F1000
G0 X95.594Y85.259Z2.8
G1 Z0F1000
G1 X96.54Y85.141Z0F1800
G0 Z2.8F1000
G0 X95.712Y84.313Z2.8
G1 Z0F1000
G1 X96.895Y84.076Z0F1800
G0 Z2.8F1000
G0 X96.54Y83.484Z2.8
G1 Z0F1000
G1 X95.476Y83.603Z0F1800
G0 Z2.8F1000
G0 X95.594Y82.893Z2.8
G1 Z0F1000
G1 X96.659Y82.656Z0F1800
G0 Z2.8F1000
G0 X95.476Y82.183Z2.8
G1 Z0F1000
G1 X99.735Y81.355Z0F1800
G0 Z2.8F1000
G0 X99.971Y81.237Z2.8
G1 Z0F1000
G1 X103.047Y80.882Z0F1800
G0 Z2.8F1000
G0 X103.876Y81.473Z2.8
G1 Z0F1000
G1 X104.23Y81.355Z0F1800
G0 Z2.8F1000
G0 X104.704Y80.882Z2.8
G1 Z0F1000
G1 X105.887Y80.527Z0F1800
G0 Z2.8F1000
G0 X106.597Y81.237Z2.8
G1 Z0F1000
G1 X106.136Y81.272Z0F1800
G1 X105.673Y81.351Z0F1800
G1 X105.213Y81.463Z0F1800
G1 X104.763Y81.593Z0F1800
G1 X103.912Y81.863Z0F1800
G1 X103.523Y81.979Z0F1800
G1 X103.166Y82.065Z0F1800
G0 Z2.8F1000
G0 X102.574Y82.42Z2.8
G1 Z0F1000
G1 X103.166Y82.065Z0F1800
G1 X102.7Y81.962Z0F1800
G1 X102.195Y81.903Z0F1800
G1 X101.643Y81.895Z0F1800
G1 X101.036Y81.946Z0F1800
G0 Z2.8F1000
G0 X100.8Y82.183Z2.8
G1 Z0F1000
G1 X98.197Y82.656Z0F1800
G0 Z2.8F1000
G0 X98.315Y83.366Z2.8
G1 Z0F1000
G1 X98.67Z0F1800
G0 Z2.8F1000
G0 X98.907Y83.248Z2.8
G1 Z0F1000
G1 X102.338Y82.538Z0F1800
G0 Z2.8F1000
G0 X102.811Y83.011Z2.8
G1 Z0F1000
G1 X105.532Y82.183Z0F1800
G0 Z2.8F1000
G0 X106.478Y83.484Z2.8
G1 Z0F1000
G1 X102.692Y83.721Z0F1800
G0 Z2.8F1000
G0 X102.338Y83.958Z2.8
G1 Z0F1000
G1 X101.509Z0F1800
G0 Z2.8F1000
G0 X100.445Y83.603Z2.8
G1 Z0F1000
G1 X98.315Y84.668Z0F1800
G0 Z2.8F1000
G0 X98.078Z2.8
G1 Z0F1000
G1 X98.197Y84.431Z0F1800
G0 Z2.8F1000
G0 Y84.076Z2.8
G1 Z0F1000
G1 X98.907Y83.958Z0F1800
G0 Z2.8F1000
G0 Y84.786Z2.8
G1 Z0F1000
G1 X100.326Y84.549Z0F1800
G0 Z2.8F1000
G0 X100.918Y85.732Z2.8
G1 Z0F1000
G1 X103.166Y85.141Z0F1800
G0 Z2.8F1000
G0 X104.112Y84.668Z2.8
G1 Z0F1000
G1 X104.934Y84.519Z0F1800
G1 X105.84Y84.402Z0F1800
G1 X106.769Y84.33Z0F1800
G1 X107.661Y84.313Z0F1800
G0 Z2.8F1000
G0 X107.425Y85.022Z2.8
G1 Z0F1000
G1 X104.94Y85.271Z0F1800
G1 X102.101Y86.206Z0F1800
G0 Z2.8F1000
G0 X103.757Y86.324Z2.8
G1 Z0F1000
G1 X100.918Y87.152Z0F1800
G0 Z2.8F1000
G0 Y87.744Z2.8
G1 Z0F1000
G1 X103.757Y87.034Z0F1800
G0 Z2.8F1000
G0 X105.414Z2.8
G1 Z0F1000
G1 Y87.27Z0F1800
G1 Y87.034Z0F1800
G0 Z2.8F1000
G0 X105.059Y87.744Z2.8
G1 Z0F1000
G1 X104.822Y87.98Z0F1800
G0 Z2.8F1000
G0 X104.94Y88.69Z2.8
G1 Z0F1000
G1 X105.532Y88.572Z0F1800
G0 Z2.8F1000
G0 X105.768Y88.453Z2.8
G1 Z0F1000
G1 X106.123Z0F1800
G0 Z2.8F1000
G0 Y88.69Z2.8
G1 Z0F1000
G1 X106.715Y88.335Z0F1800
G0 Z2.8F1000
G0 X105.532Y89.4Z2.8
G1 Z0F1000
G1 X105.999Y89.216Z0F1800
G1 X106.487Y89.081Z0F1800
G1 X106.991Y88.986Z0F1800
G1 X107.505Y88.922Z0F1800
G1 X108.542Y88.855Z0F1800
G1 X109.554Y88.808Z0F1800
G0 Z2.8F1000
G0 X109.436Y89.282Z2.8
G1 Z0F1000
G1 X107.306Y89.755Z0F1800
G0 Z2.8F1000
G0 X106.952Y89.873Z2.8
G1 Z0F1000
G1 X106.833Y89.991Z0F1800
G0 Z2.8F1000
G0 X106.123Y90.346Z2.8
G1 Z0F1000
G1 X108.49Y89.991Z0F1800
G0 Z2.8F1000
G0 X108.726Z2.8
G1 Z0F1000
G1 X109.199Y89.873Z0F1800
G0 Z2.8F1000
G0 X107.188Y91.411Z2.8
G1 Z0F1000
G1 X106.833Z0F1800
G0 Z2.8F1000
G0 X107.07Y92.239Z2.8
G1 Z0F1000
G1 X107.425Y92.358Z0F1800
G1 X105.887Y92.594Z0F1800
G0 Z2.8F1000
G0 X105.414Y92.713Z2.8
G1 Z0F1000
G1 X105.295Z0F1800
G0 Z2.8F1000
G0 X104.94Y92.476Z2.8
G1 Z0F1000
G1 X106.833Y91.411Z0F1800
G1 X105.929Y91.356Z0F1800
G1 X105Y91.397Z0F1800
G1 X104.056Y91.516Z0F1800
G1 X103.109Y91.698Z0F1800
G1 X102.169Y91.925Z0F1800
G1 X101.246Y92.181Z0F1800
G1 X100.353Y92.449Z0F1800
G1 X99.498Y92.713Z0F1800
G0 Z2.8F1000
G0 X98.197Y92.831Z2.8
G1 Z0F1000
G1 X96.777Y93.186Z0F1800
G0 Z2.8F1000
G0 X96.659Z2.8
G1 Z0F1000
G1 X95.239Y93.659Z0F1800
G0 Z2.8F1000
G0 X95.476Y94.251Z2.8
G1 Z0F1000
G1 X96.275Y94.085Z0F1800
G1 X97.07Y93.916Z0F1800
G1 X97.866Y93.758Z0F1800
G1 X98.67Y93.628Z0F1800
G1 X99.27Y93.517Z0F1800
G1 X99.853Y93.361Z0F1800
G1 X100.362Y93.185Z0F1800
G1 X100.92Y92.998Z0F1800
G1 X101.21Y92.928Z0F1800
G1 X101.506Y92.889Z0F1800
G1 X101.803Y92.893Z0F1800
G1 X102.101Y92.949Z0F1800
G0 Z2.8F1000
G0 Y92.713Z2.8
G1 Z0F1000
G1 X103.521Y92.594Z0F1800
G0 Z2.8F1000
G0 X103.876Y92.713Z2.8
G1 Z0F1000
G1 X103.994Y92.476Z0F1800
G1 X101.746Y93.123Z0F1800
G1 X99.616Y94.158Z0F1800
G1 X96.777Y94.605Z0F1800
G0 Z2.8F1000
G0 X96.659Y95.197Z2.8
G1 Z0F1000
G1 X94.884Y95.315Z0F1800
G0 Z2.8F1000
G0 X94.056Y95.552Z2.8
G1 Z0F1000
G1 X92.518Y95.67Z0F1800
G0 Z2.8F1000
G0 X92.281Y95.789Z2.8
G1 Z0F1000
G1 X92.518Y95.67Z0F1800
G1 X92.045Y95.789Z0F1800
G0 Z2.8F1000
G0 X91.808Y95.907Z2.8
G1 Z0F1000
G1 Y95.67Z0F1800
G1 Y95.907Z0F1800
G0 Z2.8F1000
G0 X91.69Y95.789Z2.8
G1 Z0F1000
G1 X90.98Z0F1800
G0 Z2.8F1000
G0 X90.152Y96.025Z2.8
G1 Z0F1000
G1 X89.324Y96.143Z0F1800
G0 Z2.8F1000
G0 X88.495Y95.907Z2.8
G1 Z0F1000
G1 X83.881Y96.872Z0F1800
G1 X81.16Y97.795Z0F1800
G1 X77.493Y98.391Z0F1800
G0 Z2.8F1000
G0 X75.955Y98.628Z2.8
G1 Z0F1000
G1 X74.653Y98.865Z0F1800
G0 Z2.8F1000
G0 X73.825Y98.391Z2.8
G1 Z0F1000
G1 X72.051Y98.628Z0F1800
G0 Z2.8F1000
G0 X73.115Y97.8Z2.8
G1 Z0F1000
G1 X70.749Y97.918Z0F1800
G0 Z2.8F1000
G0 X69.329Y98.036Z2.8
G1 Z0F1000
G1 X66.49Y98.628Z0F1800
G0 Z2.8F1000
G0 X65.07Y98.746Z2.8
G1 Z0F1000
G1 X63.059Y99.101Z0F1800
G0 Z2.8F1000
G0 X63.296Y98.273Z2.8
G1 Z0F1000
G1 X65.07Y98.036Z0F1800
G0 Z2.8F1000
G0 X64.242Y97.208Z2.8
G1 Z0F1000
G1 X64.821Y96.86Z0F1800
G1 X65.441Y96.554Z0F1800
G1 X66.092Y96.284Z0F1800
G1 X66.764Y96.043Z0F1800
G1 X68.127Y95.616Z0F1800
G1 X69.448Y95.216Z0F1800
G1 X70.417Y94.906Z0F1800
G1 X71.341Y94.605Z0F1800
G0 Z2.8F1000
G0 X71.459Y94.014Z2.8
G1 Z0F1000
G1 X73.589Y93.659Z0F1800
G0 Z2.8F1000
G0 X74.772Y93.777Z2.8
G1 Z0F1000
G1 X75.955Z0F1800
G0 Z2.8F1000
G0 X75.245Y92.949Z2.8
G1 Z0F1000
G1 X80.096Y92.239Z0F1800
G0 Z2.8F1000
G0 X80.214Y92.831Z2.8
G1 Z0F1000
G1 X77.729Y93.186Z0F1800
G0 Z2.8F1000
G0 X77.493Y94.132Z2.8
G1 Z0F1000
G1 X77.908Y93.939Z0F1800
G1 X78.336Y93.794Z0F1800
G1 X78.775Y93.689Z0F1800
G1 X79.223Y93.618Z0F1800
G1 X80.131Y93.551Z0F1800
G1 X81.042Y93.541Z0F1800
G0 Z2.8F1000
G0 X81.515Y93.304Z2.8
G1 Z0F1000
G1 Y93.067Z0F1800
G1 Y93.304Z0F1800
G0 Z2.8F1000
G0 X81.752Y92.949Z2.8
G1 Z0F1000
G1 X81.87Z0F1800
G0 Z2.8F1000
G0 X82.935Y93.541Z2.8
G1 Z0F1000
G1 X86.011Y92.713Z0F1800
G0 Z2.8F1000
G0 X85.893Y92.831Z2.8
G1 Z0F1000
G1 Y93.067Z0F1800
G0 Z2.8F1000
G0 X86.484Y93.186Z2.8
G1 Z0F1000
G1 X87.786Y93.067Z0F1800
G0 Z2.8F1000
G0 X88.022Y92.831Z2.8
G1 Z0F1000
G1 X89.205Y92.594Z0F1800
G0 Z2.8F1000
G0 X89.324Y92.476Z2.8
G1 Z0F1000
G1 X89.766Y92.391Z0F1800
G1 X90.167Y92.331Z0F1800
G1 X90.541Y92.285Z0F1800
G1 X91.267Y92.208Z0F1800
G1 X91.648Y92.159Z0F1800
G1 X92.06Y92.092Z0F1800
G1 X92.518Y91.999Z0F1800
G1 X93.562Y91.75Z0F1800
G1 X94.616Y91.511Z0F1800
G1 X95.149Y91.413Z0F1800
G1 X95.686Y91.339Z0F1800
G1 X96.229Y91.297Z0F1800
G1 X96.777Y91.293Z0F1800
G0 Z2.8F1000
G0 X96.659Y91.884Z2.8
G1 Z0F1000
G1 X95.949Y92.003Z0F1800
G0 Z2.8F1000
G0 X95.594Y92.121Z2.8
G1 Z0F1000
G1 X94.766Z0F1800
G0 Z2.8F1000
G0 X93.938Z2.8
G1 Z0F1000
G1 X93.701Z0F1800
G0 Z2.8F1000
G0 X93.109Y92.713Z2.8
G1 Z0F1000
G1 X87.549Y93.541Z0F1800
G0 Z2.8F1000
G0 X87.194Y93.659Z2.8
G1 Z0F1000
G1 X84.473Y94.842Z0F1800
G0 Z2.8F1000
G0 X83.29Y94.96Z2.8
G1 Z0F1000
G1 X82.497Y95.24Z0F1800
G1 X81.752Y95.552Z0F1800
G0 Z2.8F1000
G0 X80.687Y95.079Z2.8
G1 Z0F1000
G1 X78.558Y95.907Z0F1800
G0 Z2.8F1000
G0 X79.149Y96.262Z2.8
G1 Z0F1000
G1 X77.374Y96.387Z0F1800
G1 X76.428Y96.473Z0F1800
G1 X72.76Y96.735Z0F1800
G1 X70.513Y96.749Z0F1800
G1 X69.566Y96.835Z0F1800
G1 X66.727Y97.327Z0F1800
G0 Z2.8F1000
G0 X69.448Y98.51Z2.8
G1 Z0F1000
G1 X63.296Y100.048Z0F1800
G0 Z2.8F1000
G0 X64.242Y100.876Z2.8
G1 Z0F1000
G1 X66.727Y100.166Z0F1800
G0 Z2.8F1000
G0 X64.952Y101.941Z2.8
G1 Z0F1000
G1 X65.715Y101.555Z0F1800
G1 X66.522Y101.213Z0F1800
G1 X67.362Y100.914Z0F1800
G1 X68.225Y100.653Z0F1800
G1 X69.1Y100.427Z0F1800
G1 X69.978Y100.233Z0F1800
G1 X70.846Y100.068Z0F1800
G1 X71.696Y99.929Z0F1800
G0 Z2.8F1000
G0 X70.868Y100.757Z2.8
G1 Z0F1000
G1 X69.609Y101.173Z0F1800
G1 X68.353Y101.629Z0F1800
G1 X67.112Y102.122Z0F1800
G1 X65.899Y102.65Z0F1800
G0 Z2.8F1000
G0 X67.555Y102.887Z2.8
G1 Z0F1000
G1 X68.529Y102.407Z0F1800
G1 X69.498Y101.971Z0F1800
G1 X69.993Y101.788Z0F1800
G1 X70.501Y101.638Z0F1800
G1 X71.028Y101.528Z0F1800
G1 X71.577Y101.467Z0F1800
G0 Z2.8F1000
G0 X73.115Y101.231Z2.8
G1 Z0F1000
G1 X73.47Y101.349Z0F1800
G0 Z2.8F1000
G0 X73.707Y101.467Z2.8
G1 Z0F1000
G1 X73.729Y101.626Z0F1800
G1 X73.682Y101.735Z0F1800
G1 X73.581Y101.804Z0F1800
G1 X73.44Y101.843Z0F1800
G1 X73.094Y101.87Z0F1800
G1 X72.76Y101.895Z0F1800
G1 X71.949Y102.071Z0F1800
G1 X71.196Y102.305Z0F1800
G1 X70.457Y102.582Z0F1800
G1 X69.684Y102.887Z0F1800
G0 Z2.8F1000
G0 X68.738Y104.543Z2.8
G1 Z0F1000
G1 X68.313Y104.641Z0F1800
G1 X67.917Y104.774Z0F1800
G1 X67.544Y104.937Z0F1800
G1 X67.187Y105.127Z0F1800
G1 X66.493Y105.573Z0F1800
G1 X65.78Y106.081Z0F1800
G0 Z2.8F1000
G0 X65.662Y104.78Z2.8
G1 Z0F1000
G1 X65.031Y104.923Z0F1800
G1 X64.445Y105.102Z0F1800
G1 X63.906Y105.327Z0F1800
G1 X63.414Y105.608Z0F1800
G0 Z2.8F1000
G0 X62.468Y105.253Z2.8
G1 Z0F1000
G1 X61.99Y105.48Z0F1800
G1 X61.561Y105.711Z0F1800
G1 X61.142Y105.95Z0F1800
G1 X60.693Y106.2Z0F1800
G0 Z2.8F1000
G0 X60.101Y105.608Z2.8
G1 Z0F1000
G1 X59.037Y106.081Z0F1800
G0 Z2.8F1000
G0 X58.918Y105.017Z2.8
G1 Z0F1000
G1 X58.161Y105.179Z0F1800
G1 X57.45Y105.363Z0F1800
G1 X56.763Y105.58Z0F1800
G1 X56.079Y105.845Z0F1800
G0 Z2.8F1000
G0 X55.724Y105.017Z2.8
G1 Z0F1000
G1 X55.17Y105.094Z0F1800
G1 X54.673Y105.231Z0F1800
G1 X54.436Y105.334Z0F1800
G1 X54.2Y105.467Z0F1800
G1 X53.96Y105.636Z0F1800
G1 X53.713Y105.845Z0F1800
G0 Z2.8F1000
G0 X53.24Y106.081Z2.8
G1 Z0F1000
G1 X54.186Y106.436Z0F1800
G0 Z2.8F1000
G0 X52.885Y105.135Z2.8
G1 Z0F1000
G1 X47.442Y105.963Z0F1800
G0 Z2.8F1000
G0 Y105.135Z2.8
G1 Z0F1000
G1 X46.12Y105.269Z0F1800
G1 X45.734Y105.303Z0F1800
G1 X45.347Y105.332Z0F1800
G1 X44.943Y105.353Z0F1800
G1 X44.503Y105.367Z0F1800
G1 X44.012Y105.372Z0F1800
G0 Z2.8F1000
G0 X45.076Y102.059Z2.8
G1 Z0F1000
G1 X45.701Y101.817Z0F1800
G1 X46.36Y101.623Z0F1800
G1 X47.046Y101.472Z0F1800
G1 X47.747Y101.356Z0F1800
G1 X49.16Y101.203Z0F1800
G1 X50.518Y101.112Z0F1800
G0 Z2.8F1000
G0 X50.4Y101.941Z2.8
G1 Z0F1000
G1 X50.164Z0F1800
G0 Z2.8F1000
G0 X49.927Z2.8
G1 Z0F1000
G1 X46.496Y102.296Z0F1800
G0 Z2.8F1000
G0 X46.378Y101.349Z2.8
G1 Z0F1000
G1 X49.099Y100.758Z0F1800
G0 Z2.8F1000
G0 Y99.456Z2.8
G1 Z0F1000
G1 X50.637Y99.338Z0F1800
G0 Z2.8F1000
G0 X51.465Y99.811Z2.8
G1 Z0F1000
G1 X46.614Y100.394Z0F1800
G1 X43.893Y100.994Z0F1800
G0 Z2.8F1000
G0 X43.657Y101.112Z2.8
G1 Z0F1000
G1 X42.355Y101.586Z0F1800
G0 Z2.8F1000
G0 X41.172Y100.876Z2.8
G1 Z0F1000
G1 X45.076Y100.097Z0F1800
G1 X47.797Y99.456Z0F1800
G0 Z2.8F1000
G0 X47.561Y99.338Z2.8
G1 Z0F1000
G1 X41.882Y99.958Z0F1800
G1 X38.569Y100.521Z0F1800
G0 Z2.8F1000
G0 X37.623Y100.166Z2.8
G1 Z0F1000
G1 X37.077Y100.206Z0F1800
G1 X36.549Y100.274Z0F1800
G1 X36.026Y100.355Z0F1800
G1 X35.493Y100.431Z0F1800
G1 X34.627Y100.49Z0F1800
G1 X33.762Y100.467Z0F1800
G1 X32.906Y100.396Z0F1800
G1 X32.062Y100.309Z0F1800
G1 X31.654Y100.261Z0F1800
G1 X31.3Y100.206Z0F1800
G1 X30.985Y100.145Z0F1800
G1 X30.694Y100.08Z0F1800
G1 X30.122Y99.945Z0F1800
G1 X29.46Y99.811Z0F1800
G0 Z2.8F1000
G0 X29.223Y98.746Z2.8
G1 Z0F1000
G1 X26.857Y98.273Z0F1800
G0 Z2.8F1000
G0 X27.33Y98.51Z2.8
G1 Z0F1000
G1 X27.448Y98.628Z0F1800
G0 Z2.8F1000
G0 X27.488Y98.865Z2.8
G1 Z0F1000
G1 X27.527Y98.983Z0F1800
G1 X27.488Y98.865Z0F1800
G0 Z2.8F1000
G0 X27.33Z2.8
G1 Z0F1000
G1 X26.968Y98.798Z0F1800
G1 X26.608Y98.715Z0F1800
G1 X25.792Y98.51Z0F1800
G0 Z2.8F1000
G0 X24.254Y98.983Z2.8
G1 Z0F1000
G1 X25.91Y99.408Z0F1800
G1 X27.567Y99.693Z0F1800
G0 Z2.8F1000
G0 X30.524Y98.865Z2.8
G1 Z0F1000
G1 X30.592Y98.944Z0F1800
G1 X30.635Y99.004Z0F1800
G1 X30.655Y99.046Z0F1800
G1 Y99.072Z0F1800
G1 X30.606Y99.081Z0F1800
G1 X30.508Y99.042Z0F1800
G1 X30.25Y98.865Z0F1800
G1 X30.051Y98.628Z0F1800
G1 X30.253Y98.59Z0F1800
G1 X30.435Y98.574Z0F1800
G1 X30.601Y98.578Z0F1800
G1 X30.756Y98.602Z0F1800
G1 X31.05Y98.702Z0F1800
G1 X31.353Y98.865Z0F1800
G0 Z2.8F1000
G0 X31.589Y98.746Z2.8
G1 Z0F1000
G1 X32.654Y98.983Z0F1800
G0 Z2.8F1000
G0 X33.364Y98.391Z2.8
G1 Z0F1000
G1 X33.955Z0F1800
G0 Z2.8F1000
G0 X34.192Y97.563Z2.8
G1 Z0F1000
G1 X33.769Y97.458Z0F1800
G1 X33.094Y97.283Z0F1800
G1 X32.772Y97.208Z0F1800
G0 Z2.8F1000
G0 X32.417Z2.8
G1 Z0F1000
G1 X31.826Y96.972Z0F1800
G0 Z2.8F1000
G0 X32.062Y97.8Z2.8
G1 Z0F1000
G1 X32.181Y97.918Z0F1800
G0 Z2.8F1000
G0 X34.665Y97.09Z2.8
G1 Z0F1000
G1 Y96.853Z0F1800
G1 Y97.09Z0F1800
G0 Z2.8F1000
G0 X36.085Y96.853Z2.8
G1 Z0F1000
G1 X37.15Y97.8Z0F1800
G0 Z2.8F1000
G0 Y98.155Z2.8
G1 Z0F1000
G1 Y97.918Z0F1800
G1 X37.741Y98.273Z0F1800
G0 Z2.8F1000
G0 X39.043Y97.918Z2.8
G1 Z0F1000
G1 X40.344Y98.628Z0F1800
G0 Z2.8F1000
G0 X41.882Z2.8
G1 Z0F1000
G1 X41.645Y98.983Z0F1800
G1 X42.07Y99.091Z0F1800
G1 X42.523Y99.134Z0F1800
G1 X42.979Y99.115Z0F1800
G1 X43.416Y99.035Z0F1800
G1 X43.809Y98.897Z0F1800
G1 X44.134Y98.703Z0F1800
G1 X44.263Y98.585Z0F1800
G1 X44.367Y98.455Z0F1800
G1 X44.442Y98.311Z0F1800
G1 X44.485Y98.155Z0F1800
G0 Z2.8F1000
G0 X45.786Z2.8
G1 Z0F1000
G1 X45.431Y97.918Z0F1800
G1 X45.786Y97.563Z0F1800
G0 Z2.8F1000
G0 X46.259Y97.09Z2.8
G1 Z0F1000
G1 X46.496Z0F1800
G0 Z2.8F1000
G0 X46.259Y96.617Z2.8
G1 Z0F1000
G1 X46.023Z0F1800
G0 Z2.8F1000
G0 X47.088Y97.445Z2.8
G1 Z0F1000
G1 Y97.918Z0F1800
G1 X46.851Z0F1800
G0 Z2.8F1000
G0 X48.152Y97.681Z2.8
G1 Z0F1000
G1 X48.273Y97.81Z0F1800
G1 X48.378Y97.908Z0F1800
G1 X48.472Y97.977Z0F1800
G1 X48.56Y98.023Z0F1800
G1 X48.746Y98.056Z0F1800
G1 X48.98Y98.036Z0F1800
G0 Z2.8F1000
G0 X49.572Y97.8Z2.8
G1 Z0F1000
G1 X49.927Y97.563Z0F1800
G1 X49.742Y97.529Z0F1800
G1 X49.633Y97.541Z0F1800
G1 X49.602Y97.572Z0F1800
G1 X49.583Y97.623Z0F1800
G1 X49.574Y97.698Z0F1800
G1 Y97.8Z0F1800
G0 Z2.8F1000
G0 X50.992Y97.918Z2.8
G1 Z0F1000
G1 X51.583Y97.8Z0F1800
G0 Z2.8F1000
G0 X52.293Y96.853Z2.8
G1 Z0F1000
G1 X52.056Y97.327Z0F1800
G1 X52.648Y97.09Z0F1800
G1 X52.885Z0F1800
G0 Z2.8F1000
G0 X53.003Y96.262Z2.8
G1 Z0F1000
G1 X53.045Y96.098Z0F1800
G1 X53.101Y95.96Z0F1800
G1 X53.169Y95.847Z0F1800
G1 X53.248Y95.757Z0F1800
G1 X53.432Y95.645Z0F1800
G1 X53.643Y95.614Z0F1800
G1 X53.871Y95.657Z0F1800
G1 X54.103Y95.765Z0F1800
G1 X54.33Y95.93Z0F1800
G1 X54.541Y96.143Z0F1800
G0 Z2.8F1000
G0 X54.659Y95.789Z2.8
G1 Z0F1000
G1 X54.541Y95.315Z0F1800
G0 Z2.8F1000
G0 X54.778Y95.197Z2.8
G1 Z0F1000
G1 X54.445Y95.003Z0F1800
G1 X54.146Y94.882Z0F1800
G1 X53.995Y94.857Z0F1800
G1 X53.837Z0F1800
G1 X53.666Y94.893Z0F1800
G1 X53.476Y94.96Z0F1800
G0 Z2.8F1000
G0 X53.121Y95.079Z2.8
G1 Z0F1000
G1 X52.961Y94.977Z0F1800
G1 X52.828Y94.906Z0F1800
G1 X52.715Y94.866Z0F1800
G1 X52.618Y94.855Z0F1800
G1 X52.532Y94.872Z0F1800
G1 X52.453Y94.916Z0F1800
G1 X52.375Y94.985Z0F1800
G1 X52.293Y95.079Z0F1800
G0 Z2.8F1000
G0 X52.766Y94.487Z2.8
G1 Z0F1000
G1 X53.358Y94.605Z0F1800
G0 Z2.8F1000
G0 X53.713Y95.434Z2.8
G1 Z0F1000
G1 X53.121Y95.079Z0F1800
G1 X53.24Y95.67Z0F1800
G0 Z2.8F1000
G0 X52.885Y95.907Z2.8
G1 Z0F1000
G1 X52.175Z0F1800
G0 Z2.8F1000
G0 X50.873Y96.617Z2.8
G1 Z0F1000
G1 X50.637Z0F1800
G0 Z2.8F1000
G0 X48.507Z2.8
G1 Z0F1000
G1 X48.271Y96.38Z0F1800
G1 Y96.853Z0F1800
G1 X48.507Y96.617Z0F1800
G0 Z2.8F1000
G0 X48.626Y95.789Z2.8
G1 Z0F1000
G1 X48.152Y95.67Z0F1800
G0 Z2.8F1000
G0 X47.797Y95.789Z2.8
G1 Z0F1000
G1 X48.862Y94.724Z0F1800
G0 Z2.8F1000
G0 X48.271Y95.197Z2.8
G1 Z0F1000
G1 X50.164Y95.079Z0F1800
G1 X49.69Y95.315Z0F1800
G0 Z2.8F1000
G0 X50.045Y94.251Z2.8
G1 Z0F1000
G1 X51.107Y94.099Z0F1800
G1 X51.583Y94.251Z0F1800
G0 Z2.8F1000
G0 X49.335Y93.304Z2.8
G1 Z0F1000
G1 X48.862Y93.186Z0F1800
G0 Z2.8F1000
G0 X48.507Y93.067Z2.8
G1 Z0F1000
G1 X48.862Y93.186Z0F1800
G1 X48.56Y93.264Z0F1800
G1 X48.288Y93.309Z0F1800
G1 X48.035Y93.324Z0F1800
G1 X47.789Y93.313Z0F1800
G1 X47.536Y93.282Z0F1800
G1 X47.264Y93.235Z0F1800
G1 X46.614Y93.111Z0F1800
G1 X46.353Y93.074Z0F1800
G1 X46.112Y93.062Z0F1800
G1 X45.884Y93.074Z0F1800
G1 X45.664Y93.107Z0F1800
G1 X45.218Y93.231Z0F1800
G1 X44.721Y93.422Z0F1800
G0 Z2.8F1000
G0 X44.958Y93.896Z2.8
G1 Z0F1000
G1 X43.538Y92.594Z0F1800
G0 Z2.8F1000
G0 X42.473Y92.476Z2.8
G1 Z0F1000
G1 X41.527Y92.239Z0F1800
G0 Z2.8F1000
G0 X42Y92.949Z2.8
G1 Z0F1000
G1 X40.699Y93.067Z0F1800
G0 Z2.8F1000
G0 X40.344Y93.304Z2.8
G1 Z0F1000
G1 X40.36Y93.035Z0F1800
G1 X40.316Y92.822Z0F1800
G1 X40.219Y92.654Z0F1800
G1 X40.08Y92.521Z0F1800
G1 X39.71Y92.316Z0F1800
G1 X39.279Y92.121Z0F1800
G1 X39.215Y92.273Z0F1800
G1 X39.178Y92.416Z0F1800
G1 X39.168Y92.548Z0F1800
G1 X39.18Y92.67Z0F1800
G1 X39.268Y92.886Z0F1800
G1 X39.421Y93.063Z0F1800
G1 X39.624Y93.205Z0F1800
G1 X39.858Y93.311Z0F1800
G1 X40.103Y93.383Z0F1800
G1 X40.344Y93.422Z0F1800
G0 Z2.8F1000
G0 X40.935Y93.541Z2.8
G1 Z0F1000
G1 X40.462Z0F1800
G1 X40.61Y93.78Z0F1800
G1 X40.781Y93.989Z0F1800
G1 X40.891Y94.087Z0F1800
G1 X41.029Y94.181Z0F1800
G1 X41.199Y94.275Z0F1800
G1 X41.409Y94.369Z0F1800
G0 Z2.8F1000
G0 X42.71Y94.487Z2.8
G1 Z0F1000
G1 X43.181Y94.963Z0F1800
G1 X43.566Y95.409Z0F1800
G1 X43.758Y95.607Z0F1800
G1 X43.966Y95.779Z0F1800
G1 X44.205Y95.921Z0F1800
G1 X44.485Y96.025Z0F1800
G0 Z2.8F1000
G0 X42.828Y96.262Z2.8
G1 Z0F1000
G1 X42.892Y96.233Z0F1800
G1 X42.939Y96.24Z0F1800
G1 X42.973Y96.277Z0F1800
G1 X42.996Y96.339Z0F1800
G1 X43.023Y96.518Z0F1800
G1 X43.045Y96.735Z0F1800
G1 X43.074Y97.072Z0F1800
G1 X43.065Y97.327Z0F1800
G0 Z2.8F1000
G0 X42.237Y97.918Z2.8
G1 Z0F1000
G1 Y98.155Z0F1800
G1 Y97.918Z0F1800
G0 Z2.8F1000
G0 X40.344Y96.38Z2.8
G1 Z0F1000
G1 X39.871Y95.907Z0F1800
G1 X40.344Y96.38Z0F1800
G0 Z2.8F1000
G0 X41.172Y96.025Z2.8
G1 Z0F1000
G1 X41.527Y95.789Z0F1800
G0 Z2.8F1000
G0 X40.935Z2.8
G1 Z0F1000
G1 Y95.434Z0F1800
G0 Z2.8F1000
G0 X42.71Y95.67Z2.8
G1 Z0F1000
G1 Y95.907Z0F1800
G0 Z2.8F1000
G0 X43.657Y94.369Z2.8
G1 Z0F1000
G1 X44.13Y94.251Z0F1800
G0 Z2.8F1000
G0 X44.84Y94.605Z2.8
G1 Z0F1000
G1 X43.302Y93.541Z0F1800
G0 Z2.8F1000
G0 X45.195Y94.132Z2.8
G1 Z0F1000
G1 X44.721Z0F1800
G1 X45.313Y94.487Z0F1800
G0 Z2.8F1000
G0 X45.55Y94.251Z2.8
G1 Z0F1000
G1 X45.195Y94.369Z0F1800
G1 X45.341Y94.302Z0F1800
G1 X45.513Y94.256Z0F1800
G1 X45.705Y94.228Z0F1800
G1 X45.911Y94.217Z0F1800
G1 X46.344Y94.238Z0F1800
G1 X46.766Y94.304Z0F1800
G1 X46.959Y94.349Z0F1800
G1 X47.132Y94.4Z0F1800
G1 X47.28Y94.455Z0F1800
G1 X47.397Y94.512Z0F1800
G1 X47.477Y94.569Z0F1800
G1 X47.515Y94.625Z0F1800
G1 X47.506Y94.677Z0F1800
G1 X47.442Y94.724Z0F1800
G0 Z2.8F1000
G0 X46.851Y94.842Z2.8
G1 Z0F1000
G1 X46.378Y94.724Z0F1800
G0 Z2.8F1000
G0 X49.809Y91.293Z2.8
G1 Z0F1000
G1 X57.735Y89.4Z0F1800
G0 Z2.8F1000
G0 X58.445Y90.11Z2.8
G1 Z0F1000
G1 X61.285Y89.4Z0F1800
G0 Z2.8F1000
G0 X59.273Y89.045Z2.8
G1 Z0F1000
G1 X63.177Y87.625Z0F1800
G0 Z2.8F1000
G0 X65.307Y88.335Z2.8
G1 Z0F1000
G1 X66.135Y87.98Z0F1800
G0 Z2.8F1000
G0 X66.253Z2.8
G1 Z0F1000
G1 X68.62Y87.751Z0F1800
G1 X72.76Y87.034Z0F1800
G0 Z2.8F1000
G0 X73.589Y86.797Z2.8
G1 Z0F1000
G1 X71.104Y87.152Z0F1800
G0 Z2.8F1000
G0 X70.394Y88.217Z2.8
G1 Z0F1000
G1 X65.07Y88.927Z0F1800
G0 Z2.8F1000
G0 X66.49Y89.282Z2.8
G1 Z0F1000
G1 X62.941Y90.346Z0F1800
G0 Z2.8F1000
G0 X63.177Y90.82Z2.8
G1 Z0F1000
G1 X67.082Y89.755Z0F1800
G0 Z2.8F1000
G0 X67.2Y89.518Z2.8
G1 Z0F1000
G1 X67.437Z0F1800
G0 Z2.8F1000
G0 Y90.228Z2.8
G1 Z0F1000
G1 X63.769Y91.293Z0F1800
G0 Z2.8F1000
G0 X64.597Y91.766Z2.8
G1 Z0F1000
G1 X66.963Y91.175Z0F1800
G0 Z2.8F1000
G0 X66.49Y92.239Z2.8
G1 Z0F1000
G1 X71.696Y90.701Z0F1800
G0 Z2.8F1000
G0 X71.932Y90.82Z2.8
G1 Z0F1000
G1 X74.298Y89.637Z0F1800
G0 Z2.8F1000
G0 X74.89Y89.045Z2.8
G1 Z0F1000
G1 X74.364Y89.104Z0F1800
G1 X73.857Y89.209Z0F1800
G1 X73.365Y89.351Z0F1800
G1 X72.884Y89.522Z0F1800
G1 X71.937Y89.922Z0F1800
G1 X70.986Y90.346Z0F1800
G0 Z2.8F1000
G0 X70.276Y90.82Z2.8
G1 Z0F1000
G1 X67.318Y91.262Z0F1800
G1 X65.662Y92.121Z0F1800
G0 Z2.8F1000
G0 X66.963Y92.713Z2.8
G1 Z0F1000
G1 X68.856Y92.121Z0F1800
G0 Z2.8F1000
G0 X70.039Y92.713Z2.8
G1 Z0F1000
G1 X73.47Y91.766Z0F1800
G0 Z2.8F1000
G0 X73.115Y91.529Z2.8
G1 Z0F1000
G1 X71.341Y92.003Z0F1800
G0 Z2.8F1000
G0 X69.566Y93.659Z2.8
G1 Z0F1000
G1 X69.199Y93.616Z0F1800
G1 X68.822Y93.599Z0F1800
G1 X68.438Y93.606Z0F1800
G1 X68.048Y93.636Z0F1800
G1 X67.258Y93.761Z0F1800
G1 X66.47Y93.961Z0F1800
G1 X65.699Y94.227Z0F1800
G1 X64.962Y94.548Z0F1800
G1 X64.273Y94.915Z0F1800
G1 X63.651Y95.315Z0F1800
G0 Z2.8F1000
G0 X63.177Y95.552Z2.8
G1 Z0F1000
G1 X60.456Y96.498Z0F1800
G0 Z2.8F1000
G0 X58.09Z2.8
G1 Z0F1000
G1 X58.698Y96.221Z0F1800
G1 X59.287Y95.925Z0F1800
G1 X59.87Y95.612Z0F1800
G1 X60.456Y95.282Z0F1800
G1 X61.59Y94.656Z0F1800
G1 X62.725Y94.115Z0F1800
G1 X63.308Y93.886Z0F1800
G1 X63.909Y93.691Z0F1800
G1 X64.534Y93.535Z0F1800
G1 X65.189Y93.422Z0F1800
G0 Z2.8F1000
G0 X65.899Y93.659Z2.8
G1 Z0F1000
G1 X65.52Y93.715Z0F1800
G1 X65.153Y93.805Z0F1800
G1 X64.795Y93.923Z0F1800
G1 X64.444Y94.065Z0F1800
G1 X63.753Y94.398Z0F1800
G1 X63.059Y94.76Z0F1800
G1 X62.215Y95.146Z0F1800
G1 X61.341Y95.485Z0F1800
G1 X60.468Y95.828Z0F1800
G1 X59.628Y96.224Z0F1800
G1 X59.09Y96.54Z0F1800
G1 X58.548Y96.892Z0F1800
G1 X58.013Y97.244Z0F1800
G1 X57.499Y97.563Z0F1800
G0 Z2.8F1000
G0 X58.209Y98.155Z2.8
G1 Z0F1000
G1 X58.8Y97.8Z0F1800
G0 Z2.8F1000
G0 X58.445Y98.865Z2.8
G1 Z0F1000
G1 X59.032Y98.535Z0F1800
G1 X59.671Y98.15Z0F1800
G1 X60.348Y97.738Z0F1800
G1 X61.051Y97.327Z0F1800
G1 X61.769Y96.946Z0F1800
G1 X62.489Y96.622Z0F1800
G1 X62.846Y96.491Z0F1800
G1 X63.199Y96.385Z0F1800
G1 X63.547Y96.307Z0F1800
G1 X63.887Y96.262Z0F1800
G0 Z2.8F1000
G0 X62.823Y97.208Z2.8
G1 Z0F1000
G1 X62.322Y97.508Z0F1800
G1 X61.86Y97.783Z0F1800
G1 X61.407Y98.065Z0F1800
G1 X60.93Y98.391Z0F1800
G0 Z2.8F1000
G0 X60.811Y100.048Z2.8
G1 Z0F1000
G1 X59.88Y100.058Z0F1800
G1 X58.972Y100.133Z0F1800
G1 X58.53Y100.217Z0F1800
G1 X58.097Y100.343Z0F1800
G1 X57.674Y100.521Z0F1800
G1 X57.262Y100.758Z0F1800
G0 Z2.8F1000
G0 X58.209Y101.231Z2.8
G1 Z0F1000
G1 X61.048Y100.876Z0F1800
G0 Z2.8F1000
G0 X61.403Y101.231Z2.8
G1 Z0F1000
G1 X54.541Y102.414Z0F1800
G0 Z2.8F1000
G0 X54.068Y101.231Z2.8
G1 Z0F1000
G1 X51.583Y101.822Z0F1800
G0 Z2.8F1000
G0 X51.82Y101.349Z2.8
G1 Z0F1000
G1 X54.068Y100.876Z0F1800
G0 Z2.8F1000
G0 X55.251Y100.166Z2.8
G1 Z0F1000
G1 X57.144Y99.574Z0F1800
G0 Z2.8F1000
G0 X56.789Y98.865Z2.8
G1 Z0F1000
G1 X55.369Y99.338Z0F1800
G0 Z2.8F1000
G0 X55.606Y98.391Z2.8
G1 Z0F1000
G1 X53.713Y99.219Z0F1800
G0 Z2.8F1000
G0 X56.316Y101.467Z2.8
G1 Z0F1000
G1 X50.045Y102.532Z0F1800
G0 Z2.8F1000
G0 X51.82Y107.501Z2.8
G1 Z0F1000
G1 X51.228Y108.329Z0F1800
G0 Z2.8F1000
G0 X52.885Y108.448Z2.8
G1 Z0F1000
G1 X53.24Y108.211Z0F1800
G0 Z2.8F1000
G0 X56.079Y107.856Z2.8
G1 Z0F1000
G1 X57.144Y107.264Z0F1800
G0 Z2.8F1000
G0 X59.628Y102.414Z2.8
G1 Z0F1000
G1 X62.586Y101.822Z0F1800
G0 Z2.8F1000
G0 X68.383Y106.081Z2.8
G1 Z0F1000
G1 X68.856Y105.845Z0F1800
G0 Z2.8F1000
G0 X69.093Y106.436Z2.8
G1 Z0F1000
G1 X69.642Y106.049Z0F1800
G1 X70.217Y105.712Z0F1800
G1 X70.525Y105.566Z0F1800
G1 X70.852Y105.44Z0F1800
G1 X71.201Y105.335Z0F1800
G1 X71.577Y105.253Z0F1800
G0 Z2.8F1000
G0 X71.814Y106.081Z2.8
G1 Z0F1000
G1 X72.163Y105.787Z0F1800
G1 X72.518Y105.567Z0F1800
G1 X72.707Y105.487Z0F1800
G1 X72.906Y105.427Z0F1800
G1 X73.12Y105.389Z0F1800
G1 X73.352Y105.373Z0F1800
G1 X73.664Z0F1800
G1 X74.154Y105.391Z0F1800
G1 X74.365Z0F1800
G1 X74.575Y105.374Z0F1800
G1 X74.8Y105.332Z0F1800
G1 X75.058Y105.255Z0F1800
G1 X75.363Y105.135Z0F1800
G0 Z2.8F1000
G0 X76.073Y105.372Z2.8
G1 Z0F1000
G1 X76.367Y105.334Z0F1800
G1 X76.63Y105.279Z0F1800
G1 X76.872Y105.209Z0F1800
G1 X77.106Y105.124Z0F1800
G1 X77.345Y105.025Z0F1800
G1 X77.881Y104.793Z0F1800
G1 X78.203Y104.662Z0F1800
G0 Z2.8F1000
G0 Y105.608Z2.8
G1 Z0F1000
G1 X78.617Y105.357Z0F1800
G1 X78.991Y105.126Z0F1800
G1 X79.385Y104.899Z0F1800
G1 X79.859Y104.662Z0F1800
G0 Z2.8F1000
G0 X82.343Y106.081Z2.8
G1 Z0F1000
G1 X84.591Y106.2Z0F1800
G0 Z2.8F1000
G0 X85.183Y105.963Z2.8
G1 Z0F1000
G1 X86.248Y105.845Z0F1800
G0 Z2.8F1000
G0 X87.076Z2.8
G1 Z0F1000
G1 Y106.081Z0F1800
G1 Y105.845Z0F1800
G0 Z2.8F1000
G0 X87.786Y105.963Z2.8
G1 Z0F1000
G1 X89.323Y105.996Z0F1800
G1 X90.641Y106.034Z0F1800
G1 X91.69Y105.912Z0F1800
G1 X92.873Y106.012Z0F1800
G1 X94.293Y105.845Z0F1800
G0 Z2.8F1000
G0 X94.766Y106.081Z2.8
G1 Z0F1000
G1 X95.831Y105.963Z0F1800
G0 Z2.8F1000
G0 X96.304Y106.2Z2.8
G1 Z0F1000
G1 X96.777Y106.081Z0F1800
G0 Z2.8F1000
G0 X91.926Y105.963Z2.8
G1 Z0F1000
G1 X91.808Y106.081Z0F1800
G0 Z2.8F1000
G0 X94.766Y103.005Z2.8
G1 Z0F1000
G1 Y102.887Z0F1800
G0 Z2.8F1000
G0 X94.293Y102.177Z2.8
G1 Z0F1000
G1 X94.056Y102.059Z0F1800
G0 Z2.8F1000
G0 Y101.822Z2.8
G1 Z0F1000
G1 X93.965Y101.778Z0F1800
G1 X93.914Y101.73Z0F1800
G1 X93.891Y101.687Z0F1800
G1 X93.885Y101.661Z0F1800
G1 X93.882Y101.702Z0F1800
G1 X93.864Y101.791Z0F1800
G1 X93.819Y101.941Z0F1800
G1 X95.476Y102.769Z0F1800
G0 Z2.8F1000
G0 X97.25Y102.65Z2.8
G1 Z0F1000
G1 X96.93Y102.537Z0F1800
G1 X96.587Y102.347Z0F1800
G1 X96.227Y102.101Z0F1800
G1 X95.858Y101.82Z0F1800
G1 X95.116Y101.23Z0F1800
G1 X94.755Y100.963Z0F1800
G1 X94.411Y100.74Z0F1800
G1 X94.045Y100.528Z0F1800
G1 X93.717Y100.335Z0F1800
G1 X93.418Y100.153Z0F1800
G1 X93.144Y99.973Z0F1800
G1 X92.643Y99.584Z0F1800
G1 X92.163Y99.101Z0F1800
G0 Z2.8F1000
G0 X90.743Y98.628Z2.8
G1 Z0F1000
G1 X91.082Y99.277Z0F1800
G1 X91.477Y99.851Z0F1800
G1 X91.702Y100.116Z0F1800
G1 X91.949Y100.37Z0F1800
G1 X92.221Y100.614Z0F1800
G1 X92.52Y100.852Z0F1800
G1 X93.216Y101.355Z0F1800
G1 X93.819Y101.822Z0F1800
G0 Z2.8F1000
G0 X92.163Y101.467Z2.8
G1 Z0F1000
G1 X91.293Y100.863Z0F1800
G1 X90.505Y100.29Z0F1800
G1 X90.117Y99.995Z0F1800
G1 X89.718Y99.684Z0F1800
G1 X89.299Y99.349Z0F1800
G1 X88.85Y98.983Z0F1800
G0 Z2.8F1000
G0 X87.786Y98.865Z2.8
G1 Z0F1000
G1 X88.205Y99.535Z0F1800
G1 X88.649Y100.127Z0F1800
G1 X89.14Y100.67Z0F1800
G1 X89.704Y101.192Z0F1800
G1 X90.208Y101.568Z0F1800
G1 X90.757Y101.89Z0F1800
G1 X91.336Y102.168Z0F1800
G1 X91.926Y102.414Z0F1800
G0 Z2.8F1000
G0 X90.388Z2.8
G1 Z0F1000
G1 X89.265Y102.085Z0F1800
G1 X88.19Y101.731Z0F1800
G1 X87.678Y101.51Z0F1800
G1 X87.186Y101.242Z0F1800
G1 X86.717Y100.914Z0F1800
G1 X86.274Y100.511Z0F1800
G1 X85.665Y99.823Z0F1800
G1 X85.065Y99.101Z0F1800
G0 Z2.8F1000
G0 X84Y99.574Z2.8
G1 Z0F1000
G1 X84.355Y100.079Z0F1800
G1 X84.782Y100.535Z0F1800
G1 X85.271Y100.946Z0F1800
G1 X85.811Y101.319Z0F1800
G1 X86.39Y101.659Z0F1800
G1 X86.999Y101.971Z0F1800
G1 X87.625Y102.26Z0F1800
G1 X88.259Y102.532Z0F1800
G0 Z2.8F1000
G0 X87.431Y100.521Z2.8
G1 Z0F1000
G1 X86.484Y99.219Z0F1800
G0 Z2.8F1000
G0 X83.763Y100.403Z2.8
G1 Z0F1000
G1 X82.343Y98.983Z0F1800
G0 Z2.8F1000
G0 X82.462Y98.155Z2.8
G1 Z0F1000
G1 X85.183Y97.079Z0F1800
G1 X88.141Y96.735Z0F1800
G0 Z2.8F1000
G0 X87.312Y95.197Z2.8
G1 Z0F1000
G1 X88.732Y94.605Z0F1800
G0 Z2.8F1000
G0 Y94.014Z2.8
G1 Z0F1000
G1 X87.549Y94.132Z0F1800
G0 Z2.8F1000
G0 X86.721Y93.541Z2.8
G1 Z0F1000
G1 X86.432Y93.463Z0F1800
G1 X86.135Y93.418Z0F1800
G1 X85.831Y93.404Z0F1800
G1 X85.521Y93.416Z0F1800
G1 X84.893Y93.51Z0F1800
G1 X84.264Y93.677Z0F1800
G1 X83.646Y93.894Z0F1800
G1 X83.052Y94.137Z0F1800
G1 X81.988Y94.605Z0F1800
G0 Z2.8F1000
G0 X80.687Y94.251Z2.8
G1 Z0F1000
G1 X78.794Y94.344Z0F1800
G1 X76.783Y94.466Z0F1800
G1 X75.718Z0F1800
G1 X72.879Y94.724Z0F1800
G0 Z2.8F1000
G0 X75.955Y95.079Z2.8
G1 Z0F1000
G1 X75.55Y95.063Z0F1800
G1 X75.1Y95.058Z0F1800
G1 X74.627Y95.076Z0F1800
G1 X74.151Y95.127Z0F1800
G1 X73.694Y95.224Z0F1800
G1 X73.276Y95.378Z0F1800
G1 X73.088Y95.481Z0F1800
G1 X72.918Y95.602Z0F1800
G1 X72.769Y95.744Z0F1800
G1 X72.642Y95.907Z0F1800
G1 X74.653Y95.738Z0F1800
G1 X77.493Y95.552Z0F1800
G0 Z2.8F1000
G0 X77.138Y95.315Z2.8
G1 Z0F1000
G1 X76.901Z0F1800
G0 Z2.8F1000
G0 X76.546Y95.197Z2.8
G1 Z0F1000
G1 X76.31Z0F1800
G0 Z2.8F1000
G0 X77.493Z2.8
G1 Z0F1000
G1 X80.332Y94.842Z0F1800
G0 Z2.8F1000
G0 X81.042Y96.38Z2.8
G1 Z0F1000
G1 X83.172Y95.763Z0F1800
G1 X86.129Y94.96Z0F1800
G0 Z2.8F1000
G0 X88.614Y95.315Z2.8
G1 Z0F1000
G1 X80.924Y97.167Z0F1800
G1 X74.772Y98.273Z0F1800
G0 Z2.8F1000
G0 X74.89Y97.563Z2.8
G1 Z0F1000
G1 X76.073Y97.445Z0F1800
G0 Z2.8F1000
G0 X76.31Y97.208Z2.8
G1 Z0F1000
G1 X76.783Z0F1800
G0 Z2.8F1000
G0 X76.901Y97.09Z2.8
G1 Z0F1000
G1 X77.091Y97.114Z0F1800
G1 X77.323Y97.103Z0F1800
G1 X77.584Y97.064Z0F1800
G1 X77.863Y97.006Z0F1800
G1 X78.426Y96.863Z0F1800
G1 X78.912Y96.735Z0F1800
G0 Z2.8F1000
G0 X79.031Y99.456Z2.8
G1 Z0F1000
G1 X79.388Y99.837Z0F1800
G1 X79.759Y100.177Z0F1800
G1 X80.146Y100.482Z0F1800
G1 X80.549Y100.758Z0F1800
G1 X81.407Y101.251Z0F1800
G1 X82.343Y101.704Z0F1800
G0 Z2.8F1000
G0 X84.591Y102.059Z2.8
G1 Z0F1000
G1 X83.556Y101.597Z0F1800
G1 X82.559Y101.077Z0F1800
G1 X82.085Y100.791Z0F1800
G1 X81.632Y100.485Z0F1800
G1 X81.205Y100.159Z0F1800
G1 X80.805Y99.811Z0F1800
G0 Z2.8F1000
G0 X78.439Y100.048Z2.8
G1 Z0F1000
G1 X78.76Y100.512Z0F1800
G1 X79.07Y100.889Z0F1800
G1 X79.389Y101.201Z0F1800
G1 X79.741Y101.467Z0F1800
G0 Z2.8F1000
G0 X79.267Y101.231Z2.8
G1 Z0F1000
G1 X78.794Y100.876Z0F1800
G0 Z2.8F1000
G0 Y100.994Z2.8
G1 Z0F1000
G1 X78.428Y100.88Z0F1800
G1 X78.096Y100.717Z0F1800
G1 X77.758Y100.486Z0F1800
G1 X77.374Y100.166Z0F1800
G0 Z2.8F1000
G0 X76.31Y100.403Z2.8
G1 Z0F1000
G1 X76.5Y100.671Z0F1800
G1 X76.688Y100.896Z0F1800
G1 X76.879Y101.084Z0F1800
G1 X77.079Y101.244Z0F1800
G1 X77.293Y101.385Z0F1800
G1 X77.528Y101.516Z0F1800
G1 X77.79Y101.645Z0F1800
G1 X78.084Y101.78Z0F1800
G1 X78.405Y101.914Z0F1800
G1 X78.723Y102.022Z0F1800
G1 X79.047Y102.109Z0F1800
G1 X79.386Y102.177Z0F1800
G0 Z2.8F1000
G0 X76.31Y101.822Z2.8
G1 Z0F1000
G1 X75.6Y101.349Z0F1800
G1 X76.073Y101.586Z0F1800
G0 Z2.8F1000
G0 X75.6Y101.112Z2.8
G1 Z0F1000
G1 X75.482Y100.521Z0F1800
G0 Z2.8F1000
G0 X73.589Y100.639Z2.8
G1 Z0F1000
G1 X73.234Z0F1800
G1 X73.778Y100.967Z0F1800
G1 X74.236Y101.246Z0F1800
G1 X74.667Y101.547Z0F1800
G1 X75.127Y101.941Z0F1800
G0 Z2.8F1000
G0 Y102.059Z2.8
G1 Z0F1000
G1 Y102.296Z0F1800
G1 Y102.059Z0F1800
G0 Z2.8F1000
G0 X75.008Y102.177Z2.8
G1 Z0F1000
G1 X74.653Z0F1800
G0 Z2.8F1000
G0 X73.944Y101.704Z2.8
G1 Z0F1000
G1 X74.653Y102.177Z0F1800
G1 X72.642Y102.532Z0F1800
G0 Z2.8F1000
G0 X72.879Y106.2Z2.8
G1 Z0F1000
G1 X72.051Y107.028Z0F1800
G0 Z2.8F1000
G0 X74.772Y110.577Z2.8
G1 Z0F1000
G1 Y110.695Z0F1800
G0 Z2.8F1000
G0 X76.665Y115.664Z2.8
G1 Z0F1000
G1 X76.866Y116.003Z0F1800
G1 X77.034Y116.364Z0F1800
G1 X77.176Y116.743Z0F1800
G1 X77.295Y117.134Z0F1800
G1 X77.485Y117.937Z0F1800
G1 X77.645Y118.74Z0F1800
G1 X77.755Y119.357Z0F1800
G1 X77.839Y119.985Z0F1800
G1 X77.884Y120.613Z0F1800
G1 X77.878Y121.225Z0F1800
G1 X77.887Y121.583Z0F1800
G1 X77.981Y122.268Z0F1800
G1 X77.997Y122.645Z0F1800
G1 X77.959Y123.498Z0F1800
G1 X77.878Y124.369Z0F1800
G1 X77.814Y124.795Z0F1800
G1 X77.731Y125.205Z0F1800
G1 X77.625Y125.595Z0F1800
G1 X77.493Y125.957Z0F1800
G0 Z2.8F1000
G0 X79.031Y126.904Z2.8
G1 Z0F1000
G1 X78.785Y126.211Z0F1800
G1 X78.585Y125.525Z0F1800
G1 X78.521Y125.176Z0F1800
G1 X78.49Y124.819Z0F1800
G1 X78.5Y124.449Z0F1800
G1 X78.558Y124.064Z0F1800
G0 Z2.8F1000
G0 X79.149Y122.763Z2.8
G1 Z0F1000
G1 X78.912Y121.58Z0F1800
G0 Z2.8F1000
G0 X76.31Y120.515Z2.8
G1 Z0F1000
G1 X76.328Y120.432Z0F1800
G1 X76.348Y120.411Z0F1800
G1 X76.343Y120.392Z0F1800
G1 X76.32Y120.353Z0F1800
G1 X76.191Y120.16Z0F1800
G1 X76.073Y120.278Z0F1800
G1 X76.214Y120.628Z0F1800
G1 X76.361Y121.014Z0F1800
G1 X76.409Y121.21Z0F1800
G1 X76.424Y121.402Z0F1800
G1 X76.395Y121.586Z0F1800
G1 X76.31Y121.757Z0F1800
G1 X76.148Y121.927Z0F1800
G1 X75.972Y122.019Z0F1800
G1 X75.785Y122.052Z0F1800
G1 X75.589Y122.046Z0F1800
G1 X75.181Y121.997Z0F1800
G1 X74.773Y122.027Z0F1800
G1 X74.54Y122.124Z0F1800
G1 X74.342Y122.253Z0F1800
G1 X74.168Y122.406Z0F1800
G1 X74.01Y122.576Z0F1800
G1 X73.699Y122.93Z0F1800
G1 X73.334Y123.249Z0F1800
G1 X73.139Y123.353Z0F1800
G1 X72.941Y123.409Z0F1800
G1 X72.739Y123.428Z0F1800
G1 X72.535Y123.417Z0F1800
G1 X72.118Y123.338Z0F1800
G1 X71.696Y123.236Z0F1800
G0 Z2.8F1000
G0 X70.986Y122.526Z2.8
G1 Z0F1000
G1 X70.429Y122.43Z0F1800
G1 X69.931Y122.324Z0F1800
G1 X69.693Y122.246Z0F1800
G1 X69.458Y122.141Z0F1800
G1 X69.22Y122.001Z0F1800
G1 X68.975Y121.816Z0F1800
G1 X68.753Y122.039Z0F1800
G1 X68.514Y122.236Z0F1800
G1 X68.259Y122.405Z0F1800
G1 X67.992Y122.546Z0F1800
G1 X67.715Y122.659Z0F1800
G1 X67.433Y122.744Z0F1800
G1 X67.147Y122.801Z0F1800
G1 X66.862Y122.827Z0F1800
G1 X66.579Y122.824Z0F1800
G1 X66.303Y122.791Z0F1800
G1 X66.036Y122.728Z0F1800
G1 X65.782Y122.633Z0F1800
G1 X65.544Y122.507Z0F1800
G1 X65.324Y122.348Z0F1800
G1 X65.125Y122.158Z0F1800
G1 X64.952Y121.935Z0F1800
G1 X64.607Y122.278Z0F1800
G1 X64.234Y122.66Z0F1800
G1 X64.028Y122.831Z0F1800
G1 X63.805Y122.97Z0F1800
G1 X63.562Y123.064Z0F1800
G1 X63.296Y123.099Z0F1800
G1 X63.037Y123.071Z0F1800
G1 X62.786Y122.997Z0F1800
G1 X62.54Y122.889Z0F1800
G1 X62.297Y122.761Z0F1800
G1 X61.804Y122.491Z0F1800
G1 X61.285Y122.29Z0F1800
G0 Z2.8F1000
G0 X61.048Y122.053Z2.8
G1 Z0F1000
G1 X61.027Y121.88Z0F1800
G1 Y121.719Z0F1800
G1 X61.049Y121.572Z0F1800
G1 X61.098Y121.443Z0F1800
G1 X61.179Y121.336Z0F1800
G1 X61.294Y121.253Z0F1800
G1 X61.447Y121.198Z0F1800
G1 X61.642Y121.174Z0F1800
G1 X61.898Y121.195Z0F1800
G1 X62.125Y121.266Z0F1800
G1 X62.33Y121.376Z0F1800
G1 X62.52Y121.511Z0F1800
G1 X62.89Y121.807Z0F1800
G1 X63.296Y122.053Z0F1800
G0 Z2.8F1000
G0 X63.651Y120.515Z2.8
G1 Z0F1000
G1 X64.242Y120.278Z0F1800
G0 Z2.8F1000
G0 X65.544Y119.923Z2.8
G1 Z0F1000
G1 X65.78Y120.042Z0F1800
G0 Z2.8F1000
G0 X66.372Y120.515Z2.8
G1 Z0F1000
G1 X66.264Y120.326Z0F1800
G1 X66.183Y120.14Z0F1800
G1 X66.127Y119.957Z0F1800
G1 X66.095Y119.777Z0F1800
G1 X66.098Y119.426Z0F1800
G1 X66.18Y119.084Z0F1800
G1 X66.331Y118.751Z0F1800
G1 X66.539Y118.426Z0F1800
G1 X66.792Y118.107Z0F1800
G1 X67.082Y117.794Z0F1800
G0 Z2.8F1000
G0 X66.963Y116.847Z2.8
G1 Z0F1000
G1 X66.859Y116.686Z0F1800
G1 X66.761Y116.556Z0F1800
G1 X66.667Y116.455Z0F1800
G1 X66.577Y116.379Z0F1800
G1 X66.401Y116.296Z0F1800
G1 X66.224Y116.282Z0F1800
G1 X66.036Y116.314Z0F1800
G1 X65.826Y116.369Z0F1800
G1 X65.585Y116.424Z0F1800
G1 X65.302Y116.456Z0F1800
G1 X65.005Y116.432Z0F1800
G1 X64.717Y116.362Z0F1800
G1 X64.427Y116.289Z0F1800
G1 X64.124Y116.256Z0F1800
G0 Z2.8F1000
G0 X64.242Y116.493Z2.8
G1 Z0F1000
G1 X63.414Y116.847Z0F1800
G0 Z2.8F1000
G0 Z2.8
G1 Z0F1000
G1 X63.059Y116.611Z0F1800
G1 X63.296Y116.966Z0F1800
G0 Z2.8F1000
G0 X62.941Y116.493Z2.8
G1 Z0F1000
G1 X62.113Y116.374Z0F1800
G0 Z2.8F1000
G0 X62.586Y116.138Z2.8
G1 Z0F1000
G1 X62.941Y116.374Z0F1800
G0 Z2.8F1000
G0 X61.048Z2.8
G1 Z0F1000
G1 Y116.138Z0F1800
G1 X60.575Y116.019Z0F1800
G0 Z2.8F1000
G0 X60.101Y116.611Z2.8
G1 Z0F1000
G1 X60.456Y116.138Z0F1800
G1 X60.343Y116.488Z0F1800
G1 X60.148Y116.823Z0F1800
G1 X60.029Y116.965Z0F1800
G1 X59.9Y117.081Z0F1800
G1 X59.765Y117.163Z0F1800
G1 X59.628Y117.202Z0F1800
G0 Z2.8F1000
G0 X58.563Y117.321Z2.8
G1 Z0F1000
G1 X58.445Y117.676Z0F1800
G0 Z2.8F1000
G0 X57.854Y118.267Z2.8
G1 Z0F1000
G1 X57.617Y118.504Z0F1800
G0 Z2.8F1000
G0 X56.434Z2.8
G1 Z0F1000
G1 X55.842Z0F1800
G0 Z2.8F1000
G0 X56.434Y117.084Z2.8
G1 Z0F1000
G1 X56.197Y116.611Z0F1800
G0 Z2.8F1000
G0 X55.132Y116.374Z2.8
G1 Z0F1000
G1 X54.896Y116.847Z0F1800
G1 X54.966Y116.703Z0F1800
G1 X55.055Y116.586Z0F1800
G1 X55.16Y116.501Z0F1800
G1 X55.281Y116.452Z0F1800
G1 X55.416Y116.443Z0F1800
G1 X55.565Y116.479Z0F1800
G1 X55.725Y116.562Z0F1800
G1 X55.895Y116.697Z0F1800
G1 X56.081Y116.887Z0F1800
G1 X56.364Y117.219Z0F1800
G1 X56.497Y117.346Z0F1800
G1 X56.648Y117.439Z0F1800
G1 X56.834Y117.49Z0F1800
G1 X57.072Y117.493Z0F1800
G1 X57.38Y117.439Z0F1800
G0 Z2.8F1000
G0 X57.617Y116.493Z2.8
G1 Z0F1000
G1 X57.792Y116.296Z0F1800
G1 X57.979Y116.165Z0F1800
G1 X58.176Y116.079Z0F1800
G1 X58.383Y116.014Z0F1800
G1 X58.597Y115.951Z0F1800
G1 X58.818Y115.866Z0F1800
G1 X59.044Y115.738Z0F1800
G1 X59.273Y115.546Z0F1800
G0 Z2.8F1000
G0 X61.521Y117.794Z2.8
G1 Z0F1000
G1 X61.31Y118.186Z0F1800
G1 X61.174Y118.601Z0F1800
G1 X61.099Y118.813Z0F1800
G1 X61.003Y119.026Z0F1800
G1 X60.872Y119.239Z0F1800
G1 X60.693Y119.45Z0F1800
G0 Z2.8F1000
G0 X61.285Y120.042Z2.8
G1 Z0F1000
G1 X61.994Y119.923Z0F1800
G0 Z2.8F1000
G0 X60.101Y120.515Z2.8
G1 Z0F1000
G1 X59.809Y120.632Z0F1800
G1 X59.596Y120.787Z0F1800
G1 X59.438Y120.968Z0F1800
G1 X59.18Y121.354Z0F1800
G1 X59.029Y121.533Z0F1800
G1 X58.828Y121.686Z0F1800
G1 X58.551Y121.799Z0F1800
G1 X58.334Y121.822Z0F1800
G1 X58.145Y121.776Z0F1800
G1 X57.977Y121.68Z0F1800
G1 X57.821Y121.556Z0F1800
G1 X57.669Y121.423Z0F1800
G1 X57.513Y121.303Z0F1800
G1 X57.344Y121.216Z0F1800
G1 X57.153Y121.182Z0F1800
G1 X56.975Y121.213Z0F1800
G1 X56.816Y121.293Z0F1800
G1 X56.669Y121.407Z0F1800
G1 X56.525Y121.538Z0F1800
G1 X56.378Y121.668Z0F1800
G1 X56.22Y121.782Z0F1800
G1 X56.043Y121.863Z0F1800
G1 X55.84Y121.893Z0F1800
G1 X55.501Y121.849Z0F1800
G1 X55.186Y121.731Z0F1800
G1 X54.89Y121.561Z0F1800
G1 X54.606Y121.359Z0F1800
G1 X54.329Y121.145Z0F1800
G1 X54.052Y120.938Z0F1800
G1 X53.77Y120.761Z0F1800
G1 X53.476Y120.633Z0F1800
G0 Z2.8F1000
G0 X53.003Y121.343Z2.8
G1 Z0F1000
G1 Y121.461Z0F1800
G1 Y121.343Z0F1800
G0 Z2.8F1000
G0 X51.347Y121.816Z2.8
G1 Z0F1000
G1 X51.238Y121.497Z0F1800
G1 X51.184Y121.205Z0F1800
G1 X51.164Y120.929Z0F1800
G1 X51.159Y120.66Z0F1800
G1 X51.147Y120.388Z0F1800
G1 X51.109Y120.102Z0F1800
G1 X51.025Y119.793Z0F1800
G1 X50.873Y119.45Z0F1800
G1 Y119.805Z0F1800
G0 Z2.8F1000
G0 X50.518Y118.977Z2.8
G1 Z0F1000
G1 X50.71Y118.786Z0F1800
G1 X50.747Y118.747Z0F1800
G1 X50.758Y118.729Z0F1800
G1 X50.745Y118.707Z0F1800
G1 X50.755Y118.622Z0F1800
G0 Z2.8F1000
G0 X50.637Y118.149Z2.8
G1 Z0F1000
G1 X49.927Y118.031Z0F1800
G0 Z2.8F1000
G0 Y117.202Z2.8
G1 Z0F1000
G1 X49.809Y117.084Z0F1800
G0 Z2.8F1000
G0 X49.335Y116.611Z2.8
G1 Z0F1000
G1 X48.744Z0F1800
G0 Z2.8F1000
G0 X48.271Y116.847Z2.8
G1 Z0F1000
G1 X48.034Y116.611Z0F1800
G1 X48.271Y116.847Z0F1800
G0 Z2.8F1000
G0 X49.217Y117.557Z2.8
G1 Z0F1000
G1 X49.602Y117.12Z0F1800
G1 X50.077Y116.702Z0F1800
G1 X50.343Y116.521Z0F1800
G1 X50.625Y116.369Z0F1800
G1 X50.92Y116.256Z0F1800
G1 X51.228Y116.19Z0F1800
G1 X51.449Z0F1800
G1 X51.636Y116.237Z0F1800
G1 X51.798Y116.325Z0F1800
G1 X51.942Y116.441Z0F1800
G1 X52.212Y116.708Z0F1800
G1 X52.513Y116.946Z0F1800
G1 X52.716Y117.035Z0F1800
G1 X52.889Y117.065Z0F1800
G1 X53.042Y117.061Z0F1800
G1 X53.184Y117.045Z0F1800
G1 X53.324Y117.04Z0F1800
G1 X53.473Y117.069Z0F1800
G1 X53.639Y117.155Z0F1800
G1 X53.831Y117.321Z0F1800
G1 X54.247Y117.011Z0F1800
G1 X54.659Y116.729Z0F1800
G0 Z2.8F1000
G0 X52.885Y117.084Z2.8
G1 Z0F1000
G1 X52.53Y116.729Z0F1800
G0 Z2.8F1000
G0 X53.24Y118.504Z2.8
G1 Z0F1000
G1 X53.003Y118.622Z0F1800
G0 Z2.8F1000
G0 X54.659Y119.805Z2.8
G1 Z0F1000
G1 X54.919Y120.031Z0F1800
G1 X55.193Y120.221Z0F1800
G1 X55.34Y120.287Z0F1800
G1 X55.496Y120.325Z0F1800
G1 X55.663Y120.328Z0F1800
G1 X55.842Y120.291Z0F1800
G1 X56.19Y120.137Z0F1800
G1 X56.482Y119.969Z0F1800
G1 X56.626Y119.896Z0F1800
G1 X56.779Y119.84Z0F1800
G1 X56.949Y119.807Z0F1800
G1 X57.144Z0F1800
G0 Z2.8F1000
G0 X58.8Y120.278Z2.8
G1 Z0F1000
G1 X59.037Z0F1800
G0 Z2.8F1000
G0 X59.273Y122.645Z2.8
G1 Z0F1000
G1 X59.072Y122.756Z0F1800
G1 X58.882Y122.839Z0F1800
G1 X58.7Y122.896Z0F1800
G1 X58.52Y122.924Z0F1800
G1 X58.338Z0F1800
G1 X58.15Y122.899Z0F1800
G1 X57.95Y122.845Z0F1800
G1 X57.735Y122.763Z0F1800
G0 Z2.8F1000
G0 X58.327Y123.946Z2.8
G1 Z0F1000
G1 Y124.064Z0F1800
G0 Z2.8F1000
G0 X58.445Y124.537Z2.8
G1 Z0F1000
G1 X59.037Y124.419Z0F1800
G0 Z2.8F1000
G0 X59.865Y123.828Z2.8
G1 Z0F1000
G1 X59.983Z0F1800
G0 Z2.8F1000
G0 X59.865Y125.247Z2.8
G1 Z0F1000
G1 X59.747Z0F1800
G0 Z2.8F1000
G0 X59.51Y126.194Z2.8
G1 Z0F1000
G1 X59.628Y127.022Z0F1800
G0 Z2.8F1000
G0 X61.048Y126.785Z2.8
G1 Z0F1000
G1 X61.166Y126.904Z0F1800
G0 Z2.8F1000
G0 X60.811Y126.075Z2.8
G1 Z0F1000
G1 X60.693Z0F1800
G0 Z2.8F1000
G0 X62.231Y125.011Z2.8
G1 Z0F1000
G1 X62.586Y125.247Z0F1800
G0 Z2.8F1000
G0 X62.823Y125.129Z2.8
G1 Z0F1000
G1 X63.296Y125.011Z0F1800
G0 Z2.8F1000
G0 X64.952Y127.022Z2.8
G1 Z0F1000
G1 X65.662Z0F1800
G0 Z2.8F1000
G0 X65.78Y126.667Z2.8
G1 Z0F1000
G1 X65.899Z0F1800
G0 Z2.8F1000
G0 X66.845Y125.957Z2.8
G1 Z0F1000
G1 X68.146Y126.312Z0F1800
G0 Z2.8F1000
G0 X69.093Z2.8
G1 Z0F1000
G1 X69.656Y126.155Z0F1800
G1 X70.261Y126.046Z0F1800
G1 X70.569Y126.017Z0F1800
G1 X70.874Y126.01Z0F1800
G1 X71.172Y126.029Z0F1800
G1 X71.459Y126.075Z0F1800
G0 Z2.8F1000
G0 X72.524Y126.43Z2.8
G1 Z0F1000
G1 X74.062Y125.957Z0F1800
G0 Z2.8F1000
G0 X76.191Y124.774Z2.8
G1 Z0F1000
G1 X75.838Y124.862Z0F1800
G1 X75.486Y124.967Z0F1800
G1 X75.132Y125.044Z0F1800
G1 X74.776Z0F1800
G1 X74.538Y124.978Z0F1800
G1 X74.373Y124.862Z0F1800
G1 X74.275Y124.709Z0F1800
G1 X74.239Y124.53Z0F1800
G1 X74.259Y124.336Z0F1800
G1 X74.331Y124.138Z0F1800
G1 X74.448Y123.946Z0F1800
G1 X74.605Y123.773Z0F1800
G1 X74.763Y123.658Z0F1800
G1 X74.949Y123.57Z0F1800
G1 X75.155Y123.503Z0F1800
G1 X75.372Y123.449Z0F1800
G1 X75.807Y123.355Z0F1800
G1 X76.191Y123.236Z0F1800
G0 Z2.8F1000
G0 X74.535Y120.752Z2.8
G1 Z0F1000
G1 X75.245Y120.278Z0F1800
G1 Y120.515Z0F1800
G0 Z2.8F1000
G0 X74.89Y120.042Z2.8
G1 Z0F1000
G1 X74.653Y120.16Z0F1800
G0 Z2.8F1000
G0 X72.76Y121.58Z2.8
G1 Z0F1000
G1 X72.58Y121.286Z0F1800
G1 X72.488Y121.028Z0F1800
G1 X72.461Y120.794Z0F1800
G1 X72.479Y120.572Z0F1800
G1 X72.561Y120.118Z0F1800
G1 X72.582Y119.863Z0F1800
G1 X72.56Y119.574Z0F1800
G1 X72.502Y119.369Z0F1800
G1 X72.406Y119.176Z0F1800
G1 X72.285Y118.991Z0F1800
G1 X72.148Y118.809Z0F1800
G1 X71.88Y118.438Z0F1800
G1 X71.696Y118.031Z0F1800
G0 Z2.8F1000
G0 X70.276Y118.74Z2.8
G1 Z0F1000
G1 X70.342Y119.097Z0F1800
G1 X70.391Y119.454Z0F1800
G1 X70.404Y119.781Z0F1800
G1 X70.364Y120.049Z0F1800
G1 X70.319Y120.151Z0F1800
G1 X70.254Y120.227Z0F1800
G1 X70.168Y120.273Z0F1800
G1 X70.057Y120.285Z0F1800
G1 X69.92Y120.26Z0F1800
G1 X69.755Y120.194Z0F1800
G1 X69.558Y120.083Z0F1800
G1 X69.329Y119.923Z0F1800
G0 Z2.8F1000
G0 X70.749Y120.752Z2.8
G1 Z0F1000
G1 X71.341Y121.698Z0F1800
G0 Z2.8F1000
G0 X67.2Y124.537Z2.8
G1 Z0F1000
G1 X66.845Y124.419Z0F1800
G0 Z2.8F1000
G0 X69.33Y125.602Z2.8
G1 Z0F1000
G1 X69.448Y125.839Z0F1800
G0 Z2.8F1000
G0 X80.805Z2.8
G1 Z0F1000
G1 X81.103Y125.769Z0F1800
G1 X81.406Y125.654Z0F1800
G1 X81.707Y125.558Z0F1800
G1 X81.997Y125.545Z0F1800
G1 X82.171Y125.598Z0F1800
G1 X82.326Y125.685Z0F1800
G1 X82.467Y125.796Z0F1800
G1 X82.601Y125.919Z0F1800
G1 X82.871Y126.159Z0F1800
G1 X83.188Y126.319Z0F1800
G1 X83.366Y126.343Z0F1800
G1 X83.54Y126.328Z0F1800
G1 X83.706Y126.281Z0F1800
G1 X83.863Y126.209Z0F1800
G1 X84.141Y126.026Z0F1800
G1 X84.355Y125.839Z0F1800
G0 Z2.8F1000
G0 X85.064Y124.301Z2.8
G1 Z0F1000
G1 X84.723Y125.721Z0F1800
G1 X84.682Y126.667Z0F1800
G1 X84.71Y127.614Z0F1800
G0 Z2.8F1000
G0 X84.473Y128.678Z2.8
G1 Z0F1000
G1 X83.526Y129.98Z0F1800
G0 Z2.8F1000
G0 X85.301Y128.797Z2.8
G1 Z0F1000
G1 X85.189Y130.216Z0F1800
G1 X85.064Y131.754Z0F1800
G0 Z2.8F1000
G0 X85.893Z2.8
G1 Z0F1000
G1 X85.777Y132.17Z0F1800
G1 X85.71Y132.517Z0F1800
G1 X85.669Y132.867Z0F1800
G1 X85.632Y133.292Z0F1800
G1 X85.619Y133.587Z0F1800
G1 X85.632Y133.86Z0F1800
G1 X85.666Y134.118Z0F1800
G1 X85.718Y134.368Z0F1800
G1 X85.856Y134.87Z0F1800
G1 X86.011Y135.422Z0F1800
G0 Z2.8F1000
G0 X86.721Y134.357Z2.8
G1 Z0F1000
G1 X86.756Y131.991Z0F1800
G1 X86.839Y130.69Z0F1800
G0 Z2.8F1000
G0 X87.904Y131.044Z2.8
G1 Z0F1000
G1 X87.842Y130.492Z0F1800
G1 X87.766Y129.993Z0F1800
G1 X87.678Y129.53Z0F1800
G1 X87.577Y129.085Z0F1800
G1 X87.466Y128.641Z0F1800
G1 X87.214Y127.686Z0F1800
G1 X87.076Y127.14Z0F1800
G0 Z2.8F1000
G0 X87.194Y125.602Z2.8
G1 Z0F1000
G1 X86.957Y124.301Z0F1800
G1 X87.194Y124.419Z0F1800
G0 Z2.8F1000
G0 X87.076Y124.183Z2.8
G1 Z0F1000
G1 X86.495Y122.171Z0F1800
G1 X86.527Y119.923Z0F1800
G1 X86.234Y118.504Z0F1800
G1 X85.707Y116.019Z0F1800
G1 X85.419Y114.836Z0F1800
G0 Z2.8F1000
G0 X86.839Y115.309Z2.8
G1 Z0F1000
G1 X87.194Y117.794Z0F1800
G0 Z2.8F1000
G0 X88.141Y118.149Z2.8
G1 Z0F1000
G1 X88.377Z0F1800
G0 Z2.8F1000
G0 X89.205Y117.439Z2.8
G1 Z0F1000
G1 X89.915Y117.676Z0F1800
G0 Z2.8F1000
G0 X90.388Y117.557Z2.8
G1 Z0F1000
G1 X90.745Y117.678Z0F1800
G1 X91.165Y117.73Z0F1800
G1 X91.359Y117.752Z0F1800
G1 X91.522Y117.784Z0F1800
G1 X91.637Y117.834Z0F1800
G1 X91.69Y117.912Z0F1800
G0 Z2.8F1000
G0 Y117.439Z2.8
G1 Z0F1000
G1 X91.523Y117.177Z0F1800
G1 X91.354Y116.939Z0F1800
G1 X91.177Y116.726Z0F1800
G1 X90.984Y116.542Z0F1800
G1 X90.769Y116.389Z0F1800
G1 X90.524Y116.268Z0F1800
G1 X90.241Y116.184Z0F1800
G1 X89.915Y116.138Z0F1800
G0 Z2.8F1000
G0 X88.969Y116.493Z2.8
G1 Z0F1000
G1 X87.904Y116.256Z0F1800
G1 X88.141Y116.493Z0F1800
G0 Z2.8F1000
G0 X84.236Y116.374Z2.8
G1 Z0F1000
G1 X83.29Y116.019Z0F1800
G1 X83.172Y116.847Z0F1800
G0 Z2.8F1000
G0 X82.698Y117.439Z2.8
G1 Z0F1000
G1 X81.279Y117.084Z0F1800
G0 Z2.8F1000
G0 X81.397Y116.256Z2.8
G1 Z0F1000
G1 X80.963Y116.468Z0F1800
G1 X80.601Y116.749Z0F1800
G1 X80.419Y116.882Z0F1800
G1 X80.222Y116.991Z0F1800
G1 X80Y117.063Z0F1800
G1 X79.741Y117.084Z0F1800
G0 Z2.8F1000
G0 X79.386Y117.912Z2.8
G1 Z0F1000
G1 Y119.332Z0F1800
G0 Z2.8F1000
G0 X78.676Y116.493Z2.8
G1 Z0F1000
G1 X78.439Y115.428Z0F1800
G0 Z2.8F1000
G0 X79.267Y115.901Z2.8
G1 Z0F1000
G1 X80.096Y116.256Z0F1800
G0 Z2.8F1000
G0 X80.569Y116.729Z2.8
G1 Z0F1000
G1 X80.401Y116.525Z0F1800
G1 X80.247Y116.344Z0F1800
G1 X80.096Y116.189Z0F1800
G1 X79.938Y116.063Z0F1800
G1 X79.762Y115.968Z0F1800
G1 X79.559Y115.908Z0F1800
G1 X79.319Y115.885Z0F1800
G1 X79.031Y115.901Z0F1800
G0 Z2.8F1000
G0 X75.955Y116.138Z2.8
G1 Z0F1000
G1 X74.653Z0F1800
G0 Z2.8F1000
G0 X73.589Y116.611Z2.8
G1 Z0F1000
G1 X73.484Y116.671Z0F1800
G1 X73.314Y116.705Z0F1800
G1 X73.107Y116.715Z0F1800
G1 X72.887Y116.704Z0F1800
G1 X72.681Y116.674Z0F1800
G1 X72.514Y116.627Z0F1800
G1 X72.414Y116.566Z0F1800
G1 X72.406Y116.493Z0F1800
G0 Z2.8F1000
G0 X72.287Y116.611Z2.8
G1 Z0F1000
G1 X71.963Y116.506Z0F1800
G1 X71.678Y116.459Z0F1800
G1 X71.54Y116.473Z0F1800
G1 X71.402Y116.518Z0F1800
G1 X71.258Y116.601Z0F1800
G1 X71.104Y116.729Z0F1800
G0 Z2.8F1000
G0 X70.986Y116.847Z2.8
G1 Z0F1000
G1 X70.394Y116.729Z0F1800
G0 Z2.8F1000
G0 X71.222Y116.493Z2.8
G1 Z0F1000
G1 X71.341Y116.611Z0F1800
G0 Z2.8F1000
G0 X71.814Y116.374Z2.8
G1 Z0F1000
G1 X72.287Z0F1800
G0 Z2.8F1000
G0 X71.814Y116.966Z2.8
G1 Z0F1000
G1 X71.533Y117.003Z0F1800
G1 X71.24Y117.068Z0F1800
G1 X70.949Y117.11Z0F1800
G1 X70.673Y117.078Z0F1800
G1 X70.414Y116.931Z0F1800
G1 X70.211Y116.744Z0F1800
G1 X70.107Y116.658Z0F1800
G1 X69.99Y116.589Z0F1800
G1 X69.851Y116.547Z0F1800
G1 X69.681Y116.541Z0F1800
G1 X69.478Y116.57Z0F1800
G1 X69.303Y116.618Z0F1800
G1 X69.149Y116.684Z0F1800
G1 X69.011Y116.765Z0F1800
G1 X68.759Y116.966Z0F1800
G1 X68.501Y117.202Z0F1800
G1 X68.553Y116.923Z0F1800
G1 X68.666Y116.707Z0F1800
G1 X68.757Y116.624Z0F1800
G1 X68.875Y116.561Z0F1800
G1 X69.025Y116.516Z0F1800
G1 X69.211Y116.493Z0F1800
G0 Z2.8F1000
G0 X64.597Y118.267Z2.8
G1 Z0F1000
G1 X64.548Y118.47Z0F1800
G1 X64.477Y118.646Z0F1800
G1 X64.388Y118.795Z0F1800
G1 X64.283Y118.918Z0F1800
G1 X64.166Y119.015Z0F1800
G1 X64.041Y119.086Z0F1800
G1 X63.91Y119.133Z0F1800
G1 X63.778Y119.155Z0F1800
G1 X63.522Y119.128Z0F1800
G1 X63.298Y119.008Z0F1800
G1 X63.207Y118.914Z0F1800
G1 X63.135Y118.798Z0F1800
G1 X63.085Y118.662Z0F1800
G1 X63.059Y118.504Z0F1800
G0 Z2.8F1000
G0 X54.541Y122.171Z2.8
G1 Z0F1000
G1 X53.121Y122.881Z0F1800
G0 Z2.8F1000
G0 X51.583Y122.999Z2.8
G1 Z0F1000
G1 X51.465Y123.118Z0F1800
G0 Z2.8F1000
G0 X50.992Y123.946Z2.8
G1 Z0F1000
G1 X51.82Y124.064Z0F1800
G0 Z2.8F1000
G0 X50.164Y124.656Z2.8
G1 Z0F1000
G1 Y124.774Z0F1800
G1 Y124.656Z0F1800
G0 Z2.8F1000
G0 X49.927Y125.366Z2.8
G1 Z0F1000
G1 X49.335Y125.602Z0F1800
G0 Z2.8F1000
G0 X50.045Y125.957Z2.8
G1 Z0F1000
G1 X50.282Y126.194Z0F1800
G0 Z2.8F1000
G0 X50.992Y125.839Z2.8
G1 Z0F1000
G1 Y125.721Z0F1800
G1 Y125.839Z0F1800
G0 Z2.8F1000
