;LightBurn 1.6.04
;Custom GCode device profile, absolute coords
;Bounds: X22.23 Y30.76 to X47.77 Y39.24
G00 G17 G40 G21 G54
G90
M3
G1 Z5F500
;Cut @ 15 mm/sec, 90% power

M8
G0 Z3F500
G0 X22.756Y32.697Z2F1000
G1 Z0F500
;Layer C00
G1 X23.258Y32.572Z0S900F800
G1 X23.77Y32.493Z0F800
G1 X24.288Y32.459Z0F800
G1 X24.579Y32.467Z0F800
G1 X24.883Y32.489Z0F800
G1 X25.184Y32.54Z0F800
G1 X25.478Y32.62Z0F800
G1 X25.764Y32.729Z0F800
G1 X25.988Y32.851Z0F800
G1 X26.188Y33.004Z0F800
G1 X26.36Y33.183Z0F800
G1 X26.503Y33.385Z0F800
G1 X26.614Y33.606Z0F800
G1 X26.691Y33.843Z0F800
G1 X26.732Y34.09Z0F800
G1 Y34.346Z0F800
G1 X26.722Y34.637Z0F800
G1 X26.662Y34.915Z0F800
G1 X26.559Y35.176Z0F800
G1 X26.415Y35.416Z0F800
G1 X26.233Y35.628Z0F800
G1 X26.019Y35.809Z0F800
G1 X25.774Y35.954Z0F800
G1 X25.502Y36.058Z0F800
G1 X24.756Y36.259Z0F800
G1 X24Y36.414Z0F800
G1 X23.73Y36.496Z0F800
G1 X23.553Y36.56Z0F800
G1 X23.397Y36.661Z0F800
G1 X23.268Y36.796Z0F800
G1 X23.172Y36.958Z0F800
G1 X23.124Y37.115Z0F800
G1 X23.102Y37.274Z0F800
G1 X23.107Y37.432Z0F800
G1 X23.137Y37.587Z0F800
G1 X23.191Y37.735Z0F800
G1 X23.268Y37.874Z0F800
G1 X23.368Y37.999Z0F800
G1 X23.49Y38.109Z0F800
G1 X23.795Y38.252Z0F800
G1 X24.116Y38.345Z0F800
G1 X24.447Y38.387Z0F800
G1 X24.784Y38.375Z0F800
G1 X25.19Y38.315Z0F800
G1 X25.588Y38.218Z0F800
G1 X25.975Y38.085Z0F800
G1 X26.35Y37.916Z0F800
G1 Y38.759Z0F800
G1 X25.773Y38.93Z0F800
G1 X25.183Y39.037Z0F800
G1 X24.585Y39.078Z0F800
G1 X23.984Y39.052Z0F800
G1 X23.583Y38.98Z0F800
G1 X23.207Y38.832Z0F800
G1 X22.867Y38.614Z0F800
G1 X22.575Y38.33Z0F800
G1 X22.425Y38.085Z0F800
G1 X22.318Y37.825Z0F800
G1 X22.254Y37.555Z0F800
G1 X22.232Y37.279Z0F800
G1 X22.253Y37.003Z0F800
G1 X22.316Y36.733Z0F800
G1 X22.422Y36.472Z0F800
G1 X22.57Y36.227Z0F800
G1 X22.798Y36.022Z0F800
G1 X23.052Y35.852Z0F800
G1 X23.327Y35.719Z0F800
G1 X23.62Y35.626Z0F800
G1 X24.259Y35.475Z0F800
G1 X24.902Y35.34Z0F800
G1 X25.162Y35.249Z0F800
G1 X25.311Y35.187Z0F800
G1 X25.445Y35.103Z0F800
G1 X25.562Y34.999Z0F800
G1 X25.661Y34.879Z0F800
G1 X25.739Y34.744Z0F800
G1 X25.794Y34.598Z0F800
G1 X25.826Y34.443Z0F800
G1 X25.831Y34.282Z0F800
G1 X25.795Y33.977Z0F800
G1 X25.671Y33.704Z0F800
G1 X25.471Y33.481Z0F800
G1 X25.207Y33.325Z0F800
G1 X24.735Y33.205Z0F800
G1 X24.253Y33.162Z0F800
G1 X23.77Y33.198Z0F800
G1 X23.296Y33.311Z0F800
G1 X22.768Y33.504Z0F800
G1 X22.265Y33.755Z0F800
G1 Y32.866Z0F800
G1 X22.756Y32.697Z0F800
G0 Z3F500
G0 X28.549Y35.401Z2F1000
G1 Z0F500
G1 X28.601Y35.72Z0F800
G1 X28.658Y35.926Z0F800
G1 X28.746Y36.117Z0F800
G1 X28.861Y36.29Z0F800
G1 X29.001Y36.443Z0F800
G1 X29.162Y36.573Z0F800
G1 X29.342Y36.677Z0F800
G1 X29.538Y36.753Z0F800
G1 X29.747Y36.798Z0F800
G1 X30.021Y36.828Z0F800
G1 X30.294Y36.805Z0F800
G1 X30.557Y36.73Z0F800
G1 X30.803Y36.604Z0F800
G1 X31.001Y36.425Z0F800
G1 X31.157Y36.212Z0F800
G1 X31.268Y35.972Z0F800
G1 X31.329Y35.712Z0F800
G1 X31.354Y35.406Z0F800
G1 X28.549Y35.401Z0F800
G0 Z3F500
G0 X27.744Y35.489Z2F1000
G1 Z0F500
G1 X27.697Y35.031Z0F800
G1 X27.719Y34.574Z0F800
G1 X27.808Y34.125Z0F800
G1 X27.965Y33.693Z0F800
G1 X28.123Y33.431Z0F800
G1 X28.312Y33.196Z0F800
G1 X28.528Y32.99Z0F800
G1 X28.77Y32.815Z0F800
G1 X29.031Y32.674Z0F800
G1 X29.311Y32.567Z0F800
G1 X29.604Y32.499Z0F800
G1 X29.909Y32.47Z0F800
G1 X30.162Y32.459Z0F800
G1 X30.415Y32.465Z0F800
G1 X30.812Y32.505Z0F800
G1 X31.203Y32.579Z0F800
G1 X31.585Y32.686Z0F800
G1 X31.958Y32.827Z0F800
G1 Y33.572Z0F800
G1 X31.696Y33.438Z0F800
G1 X31.425Y33.327Z0F800
G1 X31.146Y33.242Z0F800
G1 X30.861Y33.18Z0F800
G1 X30.572Y33.144Z0F800
G1 X30.281Y33.133Z0F800
G1 X29.988Y33.147Z0F800
G1 X29.697Y33.187Z0F800
G1 X29.483Y33.254Z0F800
G1 X29.285Y33.352Z0F800
G1 X29.106Y33.476Z0F800
G1 X28.947Y33.625Z0F800
G1 X28.813Y33.795Z0F800
G1 X28.704Y33.984Z0F800
G1 X28.624Y34.19Z0F800
G1 X28.575Y34.409Z0F800
G1 X28.543Y34.599Z0F800
G1 X28.525Y34.791Z0F800
G1 X32.141Z0F800
G1 X32.154Y35.185Z0F800
G1 X32.121Y35.576Z0F800
G1 X32.044Y35.961Z0F800
G1 X31.922Y36.336Z0F800
G1 X31.782Y36.599Z0F800
G1 X31.606Y36.833Z0F800
G1 X31.399Y37.036Z0F800
G1 X31.166Y37.204Z0F800
G1 X30.91Y37.337Z0F800
G1 X30.636Y37.43Z0F800
G1 X30.348Y37.481Z0F800
G1 X30.05Y37.487Z0F800
G1 X29.618Y37.465Z0F800
G1 X29.209Y37.363Z0F800
G1 X28.833Y37.188Z0F800
G1 X28.498Y36.948Z0F800
G1 X28.213Y36.651Z0F800
G1 X27.987Y36.304Z0F800
G1 X27.827Y35.914Z0F800
G1 X27.744Y35.489Z0F800
G0 Z3F500
G0 X34.192Y35.134Z2F1000
G1 Z0F500
G1 X34.222Y35.409Z0F800
G1 X34.278Y35.68Z0F800
G1 X34.36Y35.947Z0F800
G1 X34.467Y36.206Z0F800
G1 X34.591Y36.391Z0F800
G1 X34.744Y36.546Z0F800
G1 X34.918Y36.67Z0F800
G1 X35.111Y36.762Z0F800
G1 X35.317Y36.818Z0F800
G1 X35.53Y36.838Z0F800
G1 X35.747Y36.819Z0F800
G1 X35.962Y36.76Z0F800
G1 X36.256Y36.589Z0F800
G1 X36.497Y36.356Z0F800
G1 X36.675Y36.072Z0F800
G1 X36.781Y35.748Z0F800
G1 X36.87Y35.24Z0F800
G1 Y34.728Z0F800
G1 X36.776Y34.225Z0F800
G1 X36.596Y33.742Z0F800
G1 X36.497Y33.586Z0F800
G1 X36.376Y33.45Z0F800
G1 X36.238Y33.335Z0F800
G1 X36.085Y33.242Z0F800
G1 X35.92Y33.174Z0F800
G1 X35.745Y33.131Z0F800
G1 X35.564Y33.114Z0F800
G1 X35.38Y33.126Z0F800
G1 X35.196Y33.163Z0F800
G1 X35.023Y33.226Z0F800
G1 X34.863Y33.313Z0F800
G1 X34.718Y33.422Z0F800
G1 X34.59Y33.55Z0F800
G1 X34.482Y33.697Z0F800
G1 X34.395Y33.859Z0F800
G1 X34.333Y34.036Z0F800
G1 X34.258Y34.306Z0F800
G1 X34.21Y34.58Z0F800
G1 X34.188Y34.857Z0F800
G1 X34.192Y35.134Z0F800
G0 Z3F500
G0 X34.193Y36.646Z2F1000
G1 Z0F500
G1 Y37.373Z0F800
G1 X33.403Z0F800
G1 Y30.763Z0F800
G1 X34.193Z0F800
G1 Y33.302Z0F800
G1 X34.321Y33.106Z0F800
G1 X34.473Y32.932Z0F800
G1 X34.646Y32.783Z0F800
G1 X34.837Y32.659Z0F800
G1 X35.044Y32.564Z0F800
G1 X35.263Y32.497Z0F800
G1 X35.49Y32.462Z0F800
G1 X35.725Y32.459Z0F800
G1 X35.989Y32.477Z0F800
G1 X36.243Y32.533Z0F800
G1 X36.485Y32.624Z0F800
G1 X36.71Y32.747Z0F800
G1 X36.916Y32.901Z0F800
G1 X37.098Y33.084Z0F800
G1 X37.254Y33.293Z0F800
G1 X37.38Y33.526Z0F800
G1 X37.528Y33.904Z0F800
G1 X37.629Y34.292Z0F800
G1 X37.684Y34.687Z0F800
G1 X37.693Y35.084Z0F800
G1 X37.655Y35.479Z0F800
G1 X37.572Y35.869Z0F800
G1 X37.443Y36.249Z0F800
G1 X37.269Y36.615Z0F800
G1 X37.093Y36.859Z0F800
G1 X36.885Y37.067Z0F800
G1 X36.648Y37.236Z0F800
G1 X36.389Y37.366Z0F800
G1 X36.113Y37.452Z0F800
G1 X35.825Y37.494Z0F800
G1 X35.53Y37.489Z0F800
G1 X35.235Y37.436Z0F800
G1 X34.915Y37.327Z0F800
G1 X34.628Y37.154Z0F800
G1 X34.385Y36.925Z0F800
G1 X34.193Y36.646Z0F800
G0 Z3F500
G0 X39.918Y35.947Z2F1000
G1 Z0F500
G1 X40.025Y36.206Z0F800
G1 X40.149Y36.391Z0F800
G1 X40.302Y36.546Z0F800
G1 X40.476Y36.671Z0F800
G1 X40.669Y36.762Z0F800
G1 X40.875Y36.818Z0F800
G1 X41.088Y36.838Z0F800
G1 X41.305Y36.819Z0F800
G1 X41.52Y36.76Z0F800
G1 X41.814Y36.589Z0F800
G1 X42.055Y36.356Z0F800
G1 X42.233Y36.072Z0F800
G1 X42.338Y35.748Z0F800
G1 X42.427Y35.24Z0F800
G1 Y34.728Z0F800
G1 X42.334Y34.225Z0F800
G1 X42.154Y33.742Z0F800
G1 X42.055Y33.586Z0F800
G1 X41.934Y33.45Z0F800
G1 X41.796Y33.335Z0F800
G1 X41.643Y33.242Z0F800
G1 X41.478Y33.174Z0F800
G1 X41.303Y33.131Z0F800
G1 X41.122Y33.114Z0F800
G1 X40.937Y33.126Z0F800
G1 X40.754Y33.163Z0F800
G1 X40.581Y33.226Z0F800
G1 X40.421Y33.313Z0F800
G1 X40.276Y33.422Z0F800
G1 X40.148Y33.55Z0F800
G1 X40.04Y33.697Z0F800
G1 X39.953Y33.859Z0F800
G1 X39.891Y34.036Z0F800
G1 X39.816Y34.306Z0F800
G1 X39.768Y34.58Z0F800
G1 X39.746Y34.857Z0F800
G1 X39.75Y35.134Z0F800
G1 X39.78Y35.409Z0F800
G1 X39.836Y35.68Z0F800
G1 X39.918Y35.947Z0F800
G0 Z3F500
G0 X39.751Y36.646Z2F1000
G1 Z0F500
G1 Y37.373Z0F800
G1 X38.96Z0F800
G1 Y30.763Z0F800
G1 X39.751Z0F800
G1 Y33.302Z0F800
G1 X39.879Y33.106Z0F800
G1 X40.031Y32.932Z0F800
G1 X40.204Y32.783Z0F800
G1 X40.395Y32.659Z0F800
G1 X40.602Y32.564Z0F800
G1 X40.82Y32.497Z0F800
G1 X41.048Y32.462Z0F800
G1 X41.282Y32.459Z0F800
G1 X41.546Y32.477Z0F800
G1 X41.801Y32.533Z0F800
G1 X42.043Y32.624Z0F800
G1 X42.268Y32.747Z0F800
G1 X42.474Y32.901Z0F800
G1 X42.656Y33.084Z0F800
G1 X42.812Y33.293Z0F800
G1 X42.938Y33.526Z0F800
G1 X43.086Y33.904Z0F800
G1 X43.187Y34.292Z0F800
G1 X43.242Y34.687Z0F800
G1 X43.25Y35.084Z0F800
G1 X43.213Y35.479Z0F800
G1 X43.13Y35.869Z0F800
G1 X43.001Y36.249Z0F800
G1 X42.827Y36.615Z0F800
G1 X42.652Y36.859Z0F800
G1 X42.443Y37.067Z0F800
G1 X42.206Y37.236Z0F800
G1 X41.947Y37.365Z0F800
G1 X41.671Y37.452Z0F800
G1 X41.383Y37.494Z0F800
G1 X41.088Y37.489Z0F800
G1 X40.793Y37.436Z0F800
G1 X40.473Y37.327Z0F800
G1 X40.186Y37.154Z0F800
G1 X39.943Y36.925Z0F800
G1 X39.751Y36.646Z0F800
G0 Z3F500
G0 X44.548Y39.237Z2F1000
G1 Z0F500
G1 Y32.583Z0F800
G1 X45.335Z0F800
G1 Y39.237Z0F800
G1 X44.548Z0F800
G0 Z3F500
G0 X46.981Z2F1000
G1 Z0F500
G1 Y38.24Z0F800
G1 X47.768Z0F800
G1 Y39.237Z0F800
G1 X46.981Z0F800
G0 Z3F500
G0 Y37.373Z2F1000
G1 Z0F500
G1 Y32.583Z0F800
G1 X47.768Z0F800
G1 Y37.373Z0F800
G1 X46.981Z0F800
M5
G1 Z5F500
M9
G90
M2
