;LightBurn 1.6.04
;Custom GCode device profile, absolute coords
;Bounds: X6.69 Y72.09 to X125.03 Y85.12
G00 G17 G40 G21 G54
G90
M3
G1 Z10 F500
;Cut @ 1200 mm/min, 90% power

M8
G0 Z4.8F800
G0 X8.42Y72.427Z4.8F1500
G1 Z0F800
;Layer C00
G1 X8.482Y72.434Z0S900F1200
G1 X8.551Y72.528Z0F1200
G1 X8.621Y72.676Z0F1200
G1 X8.696Y72.91Z0F1200
G1 X8.778Y73.203Z0F1200
G1 X8.866Y73.573Z0F1200
G1 X8.959Y73.993Z0F1200
G1 X9.266Y75.455Z0F1200
G1 X9.375Y75.96Z0F1200
G1 X9.481Y76.434Z0F1200
G1 X9.584Y76.867Z0F1200
G1 X9.674Y77.224Z0F1200
G1 X9.749Y77.512Z0F1200
G1 X9.776Y77.609Z0F1200
G1 X9.804Y77.691Z0F1200
G1 X9.829Y77.753Z0F1200
G1 X9.846Y77.782Z0F1200
G1 X9.859Z0F1200
G1 X9.867Y77.75Z0F1200
G1 X9.871Y77.701Z0F1200
G1 Y77.632Z0F1200
G1 X9.863Y77.536Z0F1200
G1 X9.829Y77.102Z0F1200
G1 X9.793Y76.717Z0F1200
G1 X9.748Y76.279Z0F1200
G1 X9.7Y75.799Z0F1200
G1 X9.661Y75.313Z0F1200
G1 X9.626Y74.828Z0F1200
G1 X9.588Y74.355Z0F1200
G1 X9.56Y73.923Z0F1200
G1 X9.549Y73.534Z0F1200
G1 X9.559Y73.224Z0F1200
G1 X9.57Y73.084Z0F1200
G1 X9.584Y72.982Z0F1200
G1 X9.603Y72.905Z0F1200
G1 X9.629Y72.843Z0F1200
G1 X9.656Y72.798Z0F1200
G1 X9.683Y72.781Z0F1200
G1 X9.714Y72.793Z0F1200
G1 X9.755Y72.835Z0F1200
G1 X9.797Y72.899Z0F1200
G1 X9.837Y72.98Z0F1200
G1 X9.882Y73.087Z0F1200
G1 X9.936Y73.228Z0F1200
G1 X10.045Y73.532Z0F1200
G1 X10.167Y73.904Z0F1200
G1 X10.296Y74.31Z0F1200
G1 X10.57Y75.192Z0F1200
G1 X10.707Y75.624Z0F1200
G1 X10.842Y76.027Z0F1200
G1 X10.964Y76.376Z0F1200
G1 X11.071Y76.676Z0F1200
G1 X11.157Y76.893Z0F1200
G1 X11.196Y76.984Z0F1200
G1 X11.224Y77.044Z0F1200
G1 X11.248Y77.079Z0F1200
G1 X11.272Y77.093Z0F1200
G1 X11.31Y77.063Z0F1200
G1 X11.336Y76.935Z0F1200
G1 X11.355Y76.747Z0F1200
G1 X11.368Y76.477Z0F1200
G1 X11.38Y76.154Z0F1200
G1 X11.433Y74.452Z0F1200
G1 X11.451Y74.012Z0F1200
G1 X11.471Y73.594Z0F1200
G1 X11.499Y73.228Z0F1200
G1 X11.539Y72.908Z0F1200
G1 X11.595Y72.676Z0F1200
G1 X11.631Y72.583Z0F1200
G1 X11.667Y72.523Z0F1200
G1 X11.707Y72.491Z0F1200
G1 X11.757Y72.481Z0F1200
G1 X11.81Y72.493Z0F1200
G1 X11.859Y72.528Z0F1200
G1 X11.912Y72.59Z0F1200
G1 X11.977Y72.679Z0F1200
G1 X12.102Y72.895Z0F1200
G1 X12.239Y73.181Z0F1200
G1 X12.383Y73.504Z0F1200
G1 X12.808Y74.51Z0F1200
G1 X12.934Y74.795Z0F1200
G1 X13.043Y75.027Z0F1200
G1 X13.136Y75.214Z0F1200
G1 X13.207Y75.336Z0F1200
G1 X13.259Y75.409Z0F1200
G1 X13.289Y75.419Z0F1200
G1 X13.307Y75.389Z0F1200
G1 X13.31Y75.299Z0F1200
G1 X13.305Y75.169Z0F1200
G1 X13.29Y74.986Z0F1200
G1 X13.242Y74.508Z0F1200
G1 X13.218Y74.23Z0F1200
G1 X13.197Y73.943Z0F1200
G1 X13.18Y73.663Z0F1200
G1 X13.174Y73.404Z0F1200
G1 X13.179Y73.169Z0F1200
G1 X13.198Y72.975Z0F1200
G1 X13.228Y72.817Z0F1200
G1 X13.271Y72.719Z0F1200
G1 X13.323Y72.675Z0F1200
G1 X13.382Y72.695Z0F1200
G1 X13.445Y72.756Z0F1200
G1 X13.509Y72.874Z0F1200
G1 X13.572Y73.03Z0F1200
G1 X13.623Y73.229Z0F1200
G1 X13.658Y73.453Z0F1200
G1 X13.671Y73.687Z0F1200
G1 X13.666Y73.915Z0F1200
G1 X13.633Y74.112Z0F1200
G1 X13.577Y74.268Z0F1200
G1 X13.496Y74.368Z0F1200
G1 X13.4Y74.421Z0F1200
G1 X13.293Y74.411Z0F1200
G1 X13.182Y74.354Z0F1200
G1 X13.075Y74.249Z0F1200
G1 X12.98Y74.12Z0F1200
G1 X12.902Y73.97Z0F1200
G1 X12.84Y73.821Z0F1200
G1 X12.802Y73.675Z0F1200
G1 X12.783Y73.538Z0F1200
G1 X12.793Y73.418Z0F1200
G1 X12.823Y73.309Z0F1200
G1 X12.882Y73.227Z0F1200
G1 X12.962Y73.17Z0F1200
G1 X13.065Y73.148Z0F1200
G1 X13.178Y73.156Z0F1200
G1 X13.31Y73.202Z0F1200
G1 X13.458Y73.272Z0F1200
G1 X13.62Y73.376Z0F1200
G1 X13.79Y73.503Z0F1200
G1 X13.964Y73.653Z0F1200
G1 X14.136Y73.81Z0F1200
G1 X14.299Y73.969Z0F1200
G1 X14.581Y74.257Z0F1200
G1 X14.691Y74.364Z0F1200
G1 X14.775Y74.429Z0F1200
G1 X14.841Y74.456Z0F1200
G1 X14.882Y74.432Z0F1200
G1 X14.902Y74.371Z0F1200
G1 Y74.26Z0F1200
G1 X14.894Y74.11Z0F1200
G1 X14.84Y73.492Z0F1200
G1 X14.824Y73.281Z0F1200
G1 X14.805Y72.956Z0F1200
G1 Y72.872Z0F1200
G1 X14.808Y72.839Z0F1200
G1 X14.817Y72.879Z0F1200
G1 X14.827Y72.976Z0F1200
G1 X14.837Y73.135Z0F1200
G1 X14.868Y74.002Z0F1200
G1 X14.872Y74.2Z0F1200
G1 Y74.359Z0F1200
G1 X14.865Y74.48Z0F1200
G1 X14.856Y74.565Z0F1200
G1 X14.863Y74.536Z0F1200
G1 X14.881Y74.482Z0F1200
G1 X14.917Y74.408Z0F1200
G1 X14.971Y74.337Z0F1200
G1 X15.05Y74.27Z0F1200
G1 X15.15Y74.213Z0F1200
G1 X15.272Y74.18Z0F1200
G1 X15.406Y74.174Z0F1200
G1 X15.558Y74.2Z0F1200
G1 X15.725Y74.251Z0F1200
G1 X15.906Y74.33Z0F1200
G1 X16.095Y74.424Z0F1200
G1 X16.284Y74.538Z0F1200
G1 X16.464Y74.665Z0F1200
G1 X16.629Y74.796Z0F1200
G1 X16.781Y74.922Z0F1200
G1 X16.907Y75.03Z0F1200
G1 X17.014Y75.118Z0F1200
G1 X17.087Y75.174Z0F1200
G1 X17.13Y75.204Z0F1200
G1 X17.136Y75.191Z0F1200
G1 X17.118Y75.145Z0F1200
G1 X17.004Y74.923Z0F1200
G1 X16.919Y74.752Z0F1200
G1 X16.824Y74.553Z0F1200
G1 X16.726Y74.326Z0F1200
G1 X16.633Y74.085Z0F1200
G1 X16.556Y73.841Z0F1200
G1 X16.496Y73.609Z0F1200
G1 X16.467Y73.401Z0F1200
G1 Y73.221Z0F1200
G1 X16.505Y73.081Z0F1200
G1 X16.57Y72.969Z0F1200
G1 X16.669Y72.907Z0F1200
G1 X16.789Y72.889Z0F1200
G1 X16.932Y72.924Z0F1200
G1 X17.088Y72.998Z0F1200
G1 X17.248Y73.104Z0F1200
G1 X17.403Y73.218Z0F1200
G1 X17.539Y73.333Z0F1200
G1 X17.66Y73.439Z0F1200
G1 X17.736Y73.512Z0F1200
G1 X17.764Y73.542Z0F1200
G1 X17.732Y73.518Z0F1200
G1 X17.532Y73.342Z0F1200
G1 X17.395Y73.229Z0F1200
G1 X17.241Y73.114Z0F1200
G1 X17.082Y73.009Z0F1200
G1 X16.928Y72.935Z0F1200
G1 X16.789Y72.901Z0F1200
G1 X16.672Y72.918Z0F1200
G1 X16.577Y72.977Z0F1200
G1 X16.514Y73.085Z0F1200
G1 X16.477Y73.223Z0F1200
G1 Y73.4Z0F1200
G1 X16.505Y73.607Z0F1200
G1 X16.565Y73.839Z0F1200
G1 X16.642Y74.082Z0F1200
G1 X16.736Y74.323Z0F1200
G1 X16.835Y74.548Z0F1200
G1 X16.931Y74.746Z0F1200
G1 X17.084Y75.045Z0F1200
G1 X17.129Y75.141Z0F1200
G1 X17.141Y75.191Z0F1200
G1 X17.13Y75.208Z0F1200
G1 X17.082Y75.183Z0F1200
G1 X17.007Y75.128Z0F1200
G1 X16.899Y75.04Z0F1200
G1 X16.773Y74.931Z0F1200
G1 X16.623Y74.804Z0F1200
G1 X16.458Y74.673Z0F1200
G1 X16.278Y74.546Z0F1200
G1 X16.09Y74.433Z0F1200
G1 X15.901Y74.34Z0F1200
G1 X15.721Y74.262Z0F1200
G1 X15.555Y74.212Z0F1200
G1 X15.405Y74.187Z0F1200
G1 X15.275Y74.195Z0F1200
G1 X15.157Y74.231Z0F1200
G1 X15.062Y74.289Z0F1200
G1 X14.986Y74.352Z0F1200
G1 X14.932Y74.42Z0F1200
G1 X14.893Y74.489Z0F1200
G1 X14.87Y74.54Z0F1200
G1 X14.856Y74.566Z0F1200
G1 X14.852Y74.546Z0F1200
G1 X14.859Y74.359Z0F1200
G1 Y74.2Z0F1200
G1 Y74.002Z0F1200
G1 X14.824Y73.136Z0F1200
G1 X14.808Y72.88Z0F1200
G1 Y72.839Z0F1200
G1 X14.811Y72.871Z0F1200
G1 X14.852Y73.491Z0F1200
G1 X14.871Y73.71Z0F1200
G1 X14.909Y74.109Z0F1200
G1 X14.917Y74.26Z0F1200
G1 X14.913Y74.374Z0F1200
G1 X14.888Y74.437Z0F1200
G1 X14.841Y74.464Z0F1200
G1 X14.77Y74.439Z0F1200
G1 X14.683Y74.374Z0F1200
G1 X14.572Y74.265Z0F1200
G1 X14.292Y73.976Z0F1200
G1 X14.13Y73.817Z0F1200
G1 X13.958Y73.66Z0F1200
G1 X13.784Y73.512Z0F1200
G1 X13.614Y73.385Z0F1200
G1 X13.451Y73.282Z0F1200
G1 X13.305Y73.214Z0F1200
G1 X13.176Y73.17Z0F1200
G1 X13.066Y73.164Z0F1200
G1 X12.967Y73.183Z0F1200
G1 X12.891Y73.237Z0F1200
G1 X12.836Y73.315Z0F1200
G1 X12.808Y73.42Z0F1200
G1 X12.798Y73.538Z0F1200
G1 X12.816Y73.672Z0F1200
G1 X12.853Y73.816Z0F1200
G1 X12.915Y73.964Z0F1200
G1 X12.992Y74.112Z0F1200
G1 X13.086Y74.24Z0F1200
G1 X13.189Y74.343Z0F1200
G1 X13.296Y74.399Z0F1200
G1 X13.398Y74.41Z0F1200
G1 X13.488Y74.359Z0F1200
G1 X13.567Y74.263Z0F1200
G1 X13.622Y74.109Z0F1200
G1 X13.655Y73.914Z0F1200
G1 X13.66Y73.688Z0F1200
G1 X13.647Y73.454Z0F1200
G1 X13.611Y73.231Z0F1200
G1 X13.559Y73.034Z0F1200
G1 X13.496Y72.879Z0F1200
G1 X13.435Y72.763Z0F1200
G1 X13.377Y72.703Z0F1200
G1 X13.325Y72.681Z0F1200
G1 X13.28Y72.724Z0F1200
G1 X13.238Y72.82Z0F1200
G1 X13.208Y72.977Z0F1200
G1 X13.188Y73.169Z0F1200
G1 X13.182Y73.404Z0F1200
G1 X13.188Y73.663Z0F1200
G1 X13.205Y73.942Z0F1200
G1 X13.226Y74.229Z0F1200
G1 X13.252Y74.507Z0F1200
G1 X13.302Y74.984Z0F1200
G1 X13.32Y75.169Z0F1200
G1 X13.324Y75.299Z0F1200
G1 X13.316Y75.391Z0F1200
G1 X13.29Y75.422Z0F1200
G1 X13.254Y75.414Z0F1200
G1 X13.198Y75.341Z0F1200
G1 X13.128Y75.218Z0F1200
G1 X13.036Y75.03Z0F1200
G1 X12.928Y74.797Z0F1200
G1 X12.802Y74.513Z0F1200
G1 X12.376Y73.507Z0F1200
G1 X12.232Y73.184Z0F1200
G1 X12.095Y72.898Z0F1200
G1 X11.97Y72.684Z0F1200
G1 X11.907Y72.595Z0F1200
G1 X11.855Y72.534Z0F1200
G1 X11.808Y72.5Z0F1200
G1 X11.757Y72.488Z0F1200
G1 X11.709Y72.497Z0F1200
G1 X11.671Y72.527Z0F1200
G1 X11.637Y72.586Z0F1200
G1 X11.602Y72.679Z0F1200
G1 X11.545Y72.909Z0F1200
G1 X11.505Y73.229Z0F1200
G1 X11.476Y73.595Z0F1200
G1 X11.456Y74.012Z0F1200
G1 X11.438Y74.452Z0F1200
G1 X11.41Y75.351Z0F1200
G1 X11.387Y76.154Z0F1200
G1 X11.364Y76.748Z0F1200
G1 X11.345Y76.936Z0F1200
G1 X11.315Y77.066Z0F1200
G1 X11.271Y77.097Z0F1200
G1 X11.245Y77.082Z0F1200
G1 X11.22Y77.047Z0F1200
G1 X11.19Y76.987Z0F1200
G1 X11.15Y76.896Z0F1200
G1 X11.064Y76.678Z0F1200
G1 X10.837Y76.028Z0F1200
G1 X10.703Y75.625Z0F1200
G1 X10.565Y75.193Z0F1200
G1 X10.29Y74.312Z0F1200
G1 X10.161Y73.906Z0F1200
G1 X10.039Y73.535Z0F1200
G1 X9.929Y73.23Z0F1200
G1 X9.874Y73.09Z0F1200
G1 X9.83Y72.984Z0F1200
G1 X9.79Y72.904Z0F1200
G1 X9.748Y72.841Z0F1200
G1 X9.711Y72.798Z0F1200
G1 X9.683Y72.786Z0F1200
G1 X9.66Y72.802Z0F1200
G1 X9.635Y72.846Z0F1200
G1 X9.611Y72.907Z0F1200
G1 X9.592Y72.983Z0F1200
G1 X9.577Y73.086Z0F1200
G1 X9.565Y73.225Z0F1200
G1 X9.555Y73.534Z0F1200
G1 X9.565Y73.923Z0F1200
G1 X9.592Y74.355Z0F1200
G1 X9.631Y74.828Z0F1200
G1 X9.666Y75.312Z0F1200
G1 X9.705Y75.798Z0F1200
G1 X9.753Y76.278Z0F1200
G1 X9.8Y76.716Z0F1200
G1 X9.837Y77.102Z0F1200
G1 X9.861Y77.402Z0F1200
G1 X9.877Y77.632Z0F1200
G1 Y77.701Z0F1200
G1 X9.873Y77.751Z0F1200
G1 X9.861Y77.781Z0F1200
G1 X9.846Y77.784Z0F1200
G1 X9.825Y77.755Z0F1200
G1 X9.797Y77.693Z0F1200
G1 X9.769Y77.611Z0F1200
G1 X9.742Y77.514Z0F1200
G1 X9.579Y76.868Z0F1200
G1 X9.477Y76.435Z0F1200
G1 X9.371Y75.961Z0F1200
G1 X9.262Y75.456Z0F1200
G1 X8.953Y73.994Z0F1200
G1 X8.86Y73.575Z0F1200
G1 X8.771Y73.205Z0F1200
G1 X8.689Y72.912Z0F1200
G1 X8.612Y72.68Z0F1200
G1 X8.542Y72.533Z0F1200
G1 X8.478Y72.44Z0F1200
G1 X8.422Y72.433Z0F1200
G1 X8.37Y72.489Z0F1200
G1 X8.325Y72.626Z0F1200
G1 X8.29Y72.811Z0F1200
G1 X8.261Y73.058Z0F1200
G1 X8.232Y73.342Z0F1200
G1 X8.202Y73.661Z0F1200
G1 X8.131Y74.327Z0F1200
G1 X8.061Y74.95Z0F1200
G1 X8.01Y75.449Z0F1200
G1 X7.969Y75.913Z0F1200
G1 X7.965Y75.935Z0F1200
G1 Y75.913Z0F1200
G1 Y75.865Z0F1200
G1 X7.969Y75.768Z0F1200
G1 X7.999Y75.448Z0F1200
G1 X8.052Y74.949Z0F1200
G1 X8.124Y74.326Z0F1200
G1 X8.195Y73.66Z0F1200
G1 X8.225Y73.341Z0F1200
G1 X8.253Y73.057Z0F1200
G1 X8.281Y72.809Z0F1200
G1 X8.316Y72.623Z0F1200
G1 X8.363Y72.485Z0F1200
G1 X8.42Y72.427Z0F1200
G0 Z4.8F800
G0 X7.108Y79.442Z4.8F1500
G1 Z0F800
G1 X8.687Y83.627Z0F1200
G1 X8.279Z0F1200
G1 X9.581Z0F1200
G1 X9.835Y83.487Z0F1200
G1 X10.039Y83.206Z0F1200
G1 X10.108Y82.842Z0F1200
G1 X10.099Y82.318Z0F1200
G1 X9.972Y81.794Z0F1200
G1 X9.709Y81.091Z0F1200
G1 X9.426Y80.606Z0F1200
G1 X9.1Y80.184Z0F1200
G1 X8.669Y79.764Z0F1200
G1 X8.32Y79.542Z0F1200
G1 X7.968Y79.421Z0F1200
G1 X6.694Z0F1200
G0 Z4.8F800
G0 X10.186Y79.583Z4.8F1500
G1 Z0F800
G1 X10.416Y79.381Z0F1200
G1 X10.637Y79.361Z0F1200
G1 X10.931Y79.401Z0F1200
G1 X11.31Y79.643Z0F1200
G1 X11.678Y80.024Z0F1200
G1 X11.961Y80.51Z0F1200
G1 X12.176Y81.034Z0F1200
G1 X12.293Y81.474Z0F1200
G1 X12.304Y81.896Z0F1200
G1 X12.201Y82.177Z0F1200
G1 X12Y82.382Z0F1200
G1 X11.792Y82.42Z0F1200
G1 X11.433Y82.362Z0F1200
G1 X10.968Y81.998Z0F1200
G1 X10.621Y81.557Z0F1200
G1 X10.331Y80.989Z0F1200
G1 X10.149Y80.446Z0F1200
G1 X10.111Y79.967Z0F1200
G1 X10.186Y79.583Z0F1200
G0 Z4.8F800
G0 X12.115Y79.401Z4.8F1500
G1 Z0F800
G1 X12.88Z0F1200
G1 X12.524Z0F1200
G1 X13.646Y82.382Z0F1200
G1 X13.25Z0F1200
G1 X13.63Z0F1200
G1 X13.354Y81.615Z0F1200
G1 X13.715Y82.017Z0F1200
G1 X14.103Y82.337Z0F1200
G1 X14.399Y82.401Z0F1200
G1 X14.625Y82.337Z0F1200
G1 X14.702Y82.139Z0F1200
G1 Y81.756Z0F1200
G1 X14.61Y81.411Z0F1200
G1 X13.852Y79.421Z0F1200
G1 X13.496Z0F1200
G1 X14.211Z0F1200
G1 X13.864Z0F1200
G1 X14.634Y81.455Z0F1200
G1 X14.751Y81.653Z0F1200
G1 X15.062Y82.017Z0F1200
G1 X15.424Y82.318Z0F1200
G1 X15.701Y82.401Z0F1200
G1 X15.905Y82.362Z0F1200
G1 X16.027Y82.196Z0F1200
G1 X16.077Y81.896Z0F1200
G1 X15.992Y81.532Z0F1200
G1 X15.202Y79.421Z0F1200
G1 X14.834Z0F1200
G1 X15.574Z0F1200
G0 Z4.8F800
G0 X16.013Y79.401Z4.8F1500
G1 Z0F800
G1 X16.855Z0F1200
G1 X16.422Z0F1200
G1 X17.544Y82.382Z0F1200
G1 X17.136Z0F1200
G0 Z4.8F800
G0 X17.757Y83.001Z4.8F1500
G1 Z0F800
G1 X17.901Y83.104Z0F1200
G1 X17.968Y83.263Z0F1200
G1 X17.93Y83.366Z0F1200
G1 X17.807Y83.327Z0F1200
G1 X17.712Y83.167Z0F1200
G1 X17.702Y83.084Z0F1200
G1 X17.757Y83.001Z0F1200
G0 Z4.8F800
G0 X21.135Y82.382Z4.8F1500
G1 Z0F800
G1 X21.543Z0F1200
G1 X20.421Y79.401Z0F1200
G1 X20.854Z0F1200
G1 X20.013Z0F1200
G0 Z4.8F800
G0 X19.631Y79.442Z4.8F1500
G1 Z0F800
G1 X18.855Z0F1200
G1 X19.211Z0F1200
G1 X19.922Y81.315Z0F1200
G1 X20.035Y81.634Z0F1200
G1 X20.076Y81.896Z0F1200
G1 X20.042Y82.196Z0F1200
G1 X19.88Y82.362Z0F1200
G1 X19.657Y82.42Z0F1200
G1 X19.433Y82.401Z0F1200
G1 X19.142Y82.216Z0F1200
G1 X18.853Y81.979Z0F1200
G1 X18.479Y81.532Z0F1200
G1 X18.788Y82.362Z0F1200
G1 X18.404Z0F1200
G1 X18.788Z0F1200
G1 X17.672Y79.401Z0F1200
G1 X18.015Z0F1200
G1 X17.288Z0F1200
G0 Z4.8F800
G0 X20.994Y77.559Z4.8F1500
G1 Z0F800
G1 X20.987Y77.543Z0F1200
G1 X20.973Y77.51Z0F1200
G1 X20.954Y77.431Z0F1200
G1 X20.937Y77.309Z0F1200
G1 X20.892Y76.906Z0F1200
G1 X20.87Y76.624Z0F1200
G1 X20.854Y76.297Z0F1200
G1 X20.851Y75.924Z0F1200
G1 X20.86Y75.526Z0F1200
G1 X20.884Y75.109Z0F1200
G1 X20.917Y74.692Z0F1200
G1 X20.994Y73.898Z0F1200
G1 X21.035Y73.541Z0F1200
G1 X21.076Y73.206Z0F1200
G1 X21.118Y72.93Z0F1200
G1 X21.163Y72.716Z0F1200
G1 X21.204Y72.591Z0F1200
G1 X21.225Y72.548Z0F1200
G1 X21.243Y72.531Z0F1200
G1 X21.257Y72.537Z0F1200
G1 X21.27Y72.566Z0F1200
G1 X21.281Y72.664Z0F1200
G1 Y73.107Z0F1200
G1 X21.27Y73.433Z0F1200
G1 X21.24Y73.8Z0F1200
G1 X21.159Y74.6Z0F1200
G1 X21.075Y75.392Z0F1200
G1 X21.033Y75.76Z0F1200
G1 X20.916Y76.683Z0F1200
G1 X20.89Y76.91Z0F1200
G1 X20.872Y77.105Z0F1200
G1 X20.867Y77.249Z0F1200
G1 X20.87Y77.358Z0F1200
G1 X20.89Y77.412Z0F1200
G1 X20.92Y77.424Z0F1200
G1 X20.976Y77.379Z0F1200
G1 X21.057Y77.295Z0F1200
G1 X21.168Y77.16Z0F1200
G1 X21.303Y76.993Z0F1200
G1 X21.46Y76.787Z0F1200
G1 X21.628Y76.558Z0F1200
G1 X21.804Y76.306Z0F1200
G1 X21.982Y76.049Z0F1200
G1 X22.151Y75.783Z0F1200
G1 X22.308Y75.513Z0F1200
G1 X22.437Y75.24Z0F1200
G1 X22.538Y74.965Z0F1200
G1 X22.598Y74.697Z0F1200
G1 X22.624Y74.441Z0F1200
G1 X22.604Y74.201Z0F1200
G1 X22.553Y73.969Z0F1200
G1 X22.46Y73.758Z0F1200
G1 X22.339Y73.561Z0F1200
G1 X22.187Y73.393Z0F1200
G1 X22.017Y73.247Z0F1200
G1 X21.835Y73.135Z0F1200
G1 X21.651Y73.049Z0F1200
G1 X21.477Y72.999Z0F1200
G1 X21.314Y72.974Z0F1200
G1 X21.187Y72.988Z0F1200
G1 X21.097Y73.031Z0F1200
G1 X21.061Y73.11Z0F1200
G1 X21.072Y73.209Z0F1200
G1 X21.137Y73.334Z0F1200
G1 X21.238Y73.476Z0F1200
G1 X21.381Y73.63Z0F1200
G1 X21.546Y73.782Z0F1200
G1 X21.737Y73.933Z0F1200
G1 X21.941Y74.083Z0F1200
G1 X22.148Y74.217Z0F1200
G1 X22.345Y74.331Z0F1200
G1 X22.523Y74.41Z0F1200
G1 X22.681Y74.458Z0F1200
G1 X22.805Y74.462Z0F1200
G1 X22.897Y74.43Z0F1200
G1 X22.956Y74.349Z0F1200
G1 X22.996Y74.226Z0F1200
G1 X23.015Y74.068Z0F1200
G1 X23.027Y73.899Z0F1200
G1 X23.037Y73.556Z0F1200
G1 X23.046Y73.411Z0F1200
G1 X23.067Y73.294Z0F1200
G1 X23.1Y73.222Z0F1200
G1 X23.143Y73.188Z0F1200
G1 X23.199Y73.208Z0F1200
G1 X23.264Y73.267Z0F1200
G1 X23.342Y73.378Z0F1200
G1 X23.431Y73.527Z0F1200
G1 X23.526Y73.71Z0F1200
G1 X23.709Y74.101Z0F1200
G1 X23.795Y74.281Z0F1200
G1 X23.872Y74.422Z0F1200
G1 X23.94Y74.52Z0F1200
G1 X23.994Y74.554Z0F1200
G1 X24.033Y74.533Z0F1200
G1 X24.062Y74.448Z0F1200
G1 X24.091Y74.322Z0F1200
G1 X24.122Y74.156Z0F1200
G1 X24.157Y73.978Z0F1200
G1 X24.199Y73.795Z0F1200
G1 X24.246Y73.622Z0F1200
G1 X24.306Y73.476Z0F1200
G1 X24.38Y73.357Z0F1200
G1 X24.472Y73.284Z0F1200
G1 X24.58Y73.249Z0F1200
G1 X24.7Y73.27Z0F1200
G1 X24.827Y73.336Z0F1200
G1 X24.959Y73.458Z0F1200
G1 X25.092Y73.618Z0F1200
G1 X25.223Y73.817Z0F1200
G1 X25.348Y74.037Z0F1200
G1 X25.463Y74.268Z0F1200
G1 X25.571Y74.494Z0F1200
G1 X25.661Y74.7Z0F1200
G1 X25.736Y74.882Z0F1200
G1 X25.787Y75.022Z0F1200
G1 X25.815Y75.124Z0F1200
G1 X25.821Y75.177Z0F1200
G1 X25.814Y75.193Z0F1200
G1 X25.8Y75.163Z0F1200
G1 X25.788Y75.103Z0F1200
G1 X25.784Y75.006Z0F1200
G1 X25.792Y74.886Z0F1200
G1 X25.819Y74.743Z0F1200
G1 X25.865Y74.592Z0F1200
G1 X25.933Y74.434Z0F1200
G1 X26.019Y74.278Z0F1200
G1 X26.121Y74.126Z0F1200
G1 X26.232Y73.979Z0F1200
G1 X26.351Y73.842Z0F1200
G1 X26.474Y73.712Z0F1200
G1 X26.696Y73.497Z0F1200
G1 X26.843Y73.348Z0F1200
G1 X26.874Y73.294Z0F1200
G1 Y73.243Z0F1200
G1 X26.835Y73.195Z0F1200
G1 X26.771Y73.147Z0F1200
G1 X26.675Y73.102Z0F1200
G1 X26.558Y73.059Z0F1200
G1 X26.424Y73.026Z0F1200
G1 X26.285Y73.009Z0F1200
G1 X26.153Z0F1200
G1 X26.038Y73.014Z0F1200
G1 X25.95Y73.04Z0F1200
G1 X25.888Y73.079Z0F1200
G1 X25.867Y73.147Z0F1200
G1 X25.878Y73.239Z0F1200
G1 X25.931Y73.36Z0F1200
G1 X26.01Y73.494Z0F1200
G1 X26.131Y73.652Z0F1200
G1 X26.286Y73.824Z0F1200
G1 X26.475Y74.021Z0F1200
G1 X26.678Y74.237Z0F1200
G1 X26.894Y74.47Z0F1200
G1 X27.11Y74.712Z0F1200
G1 X27.32Y74.953Z0F1200
G1 X27.7Y75.394Z0F1200
G1 X27.862Y75.568Z0F1200
G1 X28.077Y75.785Z0F1200
G1 X28.125Y75.822Z0F1200
G1 X28.145Z0F1200
G1 X28.136Y75.77Z0F1200
G1 X28.113Y75.69Z0F1200
G1 X28.075Y75.57Z0F1200
G1 X28.031Y75.423Z0F1200
G1 X27.987Y75.248Z0F1200
G1 X27.949Y75.057Z0F1200
G1 X27.919Y74.853Z0F1200
G1 X27.896Y74.646Z0F1200
G1 X27.882Y74.442Z0F1200
G1 X27.875Y74.248Z0F1200
G1 Y74.072Z0F1200
G1 X27.884Y73.913Z0F1200
G1 X27.908Y73.673Z0F1200
G1 X27.924Y73.532Z0F1200
G1 Y73.492Z0F1200
G1 X27.915Y73.46Z0F1200
G1 X27.891Y73.442Z0F1200
G1 X27.852Y73.431Z0F1200
G1 X27.797Y73.427Z0F1200
G1 X27.65Z0F1200
G1 X27.568Y73.424Z0F1200
G1 X27.487Y73.416Z0F1200
G1 X27.411Y73.405Z0F1200
G1 X27.349Y73.388Z0F1200
G1 X27.301Y73.365Z0F1200
G1 X27.28Y73.335Z0F1200
G1 Y73.296Z0F1200
G1 X27.32Y73.255Z0F1200
G1 X27.387Y73.216Z0F1200
G1 X27.493Y73.187Z0F1200
G1 X27.629Y73.171Z0F1200
G1 X27.803Y73.174Z0F1200
G1 X28Y73.192Z0F1200
G1 X28.225Y73.237Z0F1200
G1 X28.467Y73.303Z0F1200
G1 X28.722Y73.4Z0F1200
G1 X28.98Y73.521Z0F1200
G1 X29.236Y73.672Z0F1200
G1 X29.487Y73.844Z0F1200
G1 X29.72Y74.04Z0F1200
G1 X29.936Y74.251Z0F1200
G1 X30.117Y74.472Z0F1200
G1 X30.263Y74.694Z0F1200
G1 X30.365Y74.907Z0F1200
G1 X30.435Y75.11Z0F1200
G1 X30.461Y75.286Z0F1200
G1 X30.457Y75.436Z0F1200
G1 X30.415Y75.543Z0F1200
G1 X30.347Y75.622Z0F1200
G1 X30.254Y75.647Z0F1200
G1 X30.149Y75.629Z0F1200
G1 X30.034Y75.555Z0F1200
G1 X29.916Y75.443Z0F1200
G1 X29.804Y75.284Z0F1200
G1 X29.703Y75.098Z0F1200
G1 X29.622Y74.883Z0F1200
G1 X29.56Y74.654Z0F1200
G1 X29.53Y74.42Z0F1200
G1 X29.526Y74.194Z0F1200
G1 X29.557Y73.985Z0F1200
G1 X29.611Y73.796Z0F1200
G1 X29.699Y73.643Z0F1200
G1 X29.81Y73.52Z0F1200
G1 X29.949Y73.448Z0F1200
G1 X30.106Y73.421Z0F1200
G1 X30.279Y73.451Z0F1200
G1 X30.459Y73.519Z0F1200
G1 X30.646Y73.637Z0F1200
G1 X30.838Y73.788Z0F1200
G1 X31.028Y73.976Z0F1200
G1 X31.215Y74.185Z0F1200
G1 X31.386Y74.403Z0F1200
G1 X31.54Y74.618Z0F1200
G1 X31.663Y74.802Z0F1200
G1 X31.759Y74.953Z0F1200
G1 X31.817Y75.036Z0F1200
G1 X31.843Y75.05Z0F1200
G1 X31.834Y74.98Z0F1200
G1 X31.76Y74.655Z0F1200
G1 X31.713Y74.429Z0F1200
G1 X31.67Y74.183Z0F1200
G1 X31.64Y73.941Z0F1200
G1 X31.629Y73.722Z0F1200
G1 X31.637Y73.539Z0F1200
G1 X31.673Y73.397Z0F1200
G1 X31.732Y73.276Z0F1200
G1 X31.817Y73.207Z0F1200
G1 X31.918Y73.183Z0F1200
G1 X32.038Y73.225Z0F1200
G1 X32.169Y73.315Z0F1200
G1 X32.315Y73.472Z0F1200
G1 X32.47Y73.674Z0F1200
G1 X32.638Y73.937Z0F1200
G1 X32.813Y74.241Z0F1200
G1 X32.994Y74.593Z0F1200
G1 X33.177Y74.973Z0F1200
G1 X33.357Y75.374Z0F1200
G1 X33.529Y75.777Z0F1200
G1 X33.689Y76.167Z0F1200
G1 X33.838Y76.536Z0F1200
G1 X33.966Y76.862Z0F1200
G1 X34.082Y77.149Z0F1200
G1 X34.168Y77.373Z0F1200
G1 X34.226Y77.548Z0F1200
G1 X34.247Y77.651Z0F1200
G1 Y77.688Z0F1200
G1 X34.242Y77.705Z0F1200
G1 X34.228Y77.702Z0F1200
G1 X34.206Y77.681Z0F1200
G1 X34.152Y77.599Z0F1200
G1 X34.078Y77.44Z0F1200
G1 X33.993Y77.23Z0F1200
G1 X33.9Y76.952Z0F1200
G1 X33.804Y76.628Z0F1200
G1 X33.717Y76.252Z0F1200
G1 X33.646Y75.839Z0F1200
G1 X33.598Y75.406Z0F1200
G1 X33.57Y74.973Z0F1200
G1 X33.573Y74.567Z0F1200
G1 X33.602Y74.199Z0F1200
G1 X33.668Y73.894Z0F1200
G1 X33.761Y73.643Z0F1200
G1 X33.888Y73.477Z0F1200
G1 X33.965Y73.415Z0F1200
G1 X34.038Y73.38Z0F1200
G1 X34.118Y73.368Z0F1200
G1 X34.213Y73.375Z0F1200
G1 X34.396Y73.433Z0F1200
G1 X34.594Y73.577Z0F1200
G1 X34.803Y73.777Z0F1200
G1 X35.015Y74.052Z0F1200
G1 X35.225Y74.373Z0F1200
G1 X35.42Y74.745Z0F1200
G1 X35.599Y75.142Z0F1200
G1 X35.751Y75.556Z0F1200
G1 X35.884Y75.971Z0F1200
G1 X35.985Y76.369Z0F1200
G1 X36.062Y76.74Z0F1200
G1 X36.107Y77.061Z0F1200
G1 X36.13Y77.336Z0F1200
G1 X36.123Y77.54Z0F1200
G1 X36.1Y77.693Z0F1200
G1 X36.05Y77.771Z0F1200
G1 X35.981Y77.801Z0F1200
G1 X35.89Y77.756Z0F1200
G1 X35.789Y77.662Z0F1200
G1 X35.679Y77.494Z0F1200
G1 X35.566Y77.275Z0F1200
G1 X35.458Y76.989Z0F1200
G1 X35.358Y76.659Z0F1200
G1 X35.275Y76.287Z0F1200
G1 X35.205Y75.901Z0F1200
G1 X35.161Y75.505Z0F1200
G1 X35.137Y75.112Z0F1200
G1 X35.149Y74.741Z0F1200
G1 X35.19Y74.396Z0F1200
G1 X35.267Y74.103Z0F1200
G1 X35.37Y73.862Z0F1200
G1 X35.506Y73.688Z0F1200
G1 X35.586Y73.612Z0F1200
G1 X35.662Y73.561Z0F1200
G1 X35.745Y73.526Z0F1200
G1 X35.844Y73.502Z0F1200
G1 X36.042Y73.492Z0F1200
G1 X36.252Y73.546Z0F1200
G1 X36.467Y73.638Z0F1200
G1 X36.679Y73.782Z0F1200
G1 X36.884Y73.956Z0F1200
G1 X37.07Y74.164Z0F1200
G1 X37.236Y74.392Z0F1200
G1 X37.373Y74.629Z0F1200
G1 X37.485Y74.859Z0F1200
G1 X37.563Y75.072Z0F1200
G1 X37.617Y75.265Z0F1200
G1 X37.634Y75.423Z0F1200
G1 X37.622Y75.551Z0F1200
G1 X37.576Y75.63Z0F1200
G1 X37.509Y75.67Z0F1200
G1 X37.422Y75.651Z0F1200
G1 X37.329Y75.589Z0F1200
G1 X37.229Y75.472Z0F1200
G1 X37.125Y75.319Z0F1200
G1 X37.031Y75.129Z0F1200
G1 X36.956Y74.919Z0F1200
G1 X36.912Y74.695Z0F1200
G1 X36.9Y74.469Z0F1200
G1 X36.929Y74.256Z0F1200
G1 X36.983Y74.066Z0F1200
G1 X37.074Y73.912Z0F1200
G1 X37.191Y73.789Z0F1200
G1 X37.342Y73.714Z0F1200
G1 X37.517Y73.672Z0F1200
G1 X37.719Y73.683Z0F1200
G1 X37.935Y73.735Z0F1200
G1 X38.166Y73.838Z0F1200
G1 X38.407Y73.974Z0F1200
G1 X38.643Y74.142Z0F1200
G1 X38.862Y74.325Z0F1200
G1 X39.059Y74.512Z0F1200
G1 X39.238Y74.69Z0F1200
G1 X39.387Y74.844Z0F1200
G1 X39.515Y74.973Z0F1200
G1 X39.65Y75.1Z0F1200
G1 X39.659Y75.079Z0F1200
G1 X39.647Y75.002Z0F1200
G1 X39.615Y74.858Z0F1200
G1 X39.575Y74.667Z0F1200
G1 X39.532Y74.436Z0F1200
G1 X39.494Y74.188Z0F1200
G1 X39.465Y73.937Z0F1200
G1 X39.445Y73.698Z0F1200
G1 X39.441Y73.49Z0F1200
G1 X39.455Y73.316Z0F1200
G1 X39.486Y73.208Z0F1200
G1 X39.506Y73.174Z0F1200
G1 X39.527Y73.161Z0F1200
G1 X39.55Y73.169Z0F1200
G1 X39.579Y73.202Z0F1200
G1 X39.637Y73.313Z0F1200
G1 X39.704Y73.504Z0F1200
G1 X39.775Y73.743Z0F1200
G1 X39.852Y74.031Z0F1200
G1 X40.01Y74.651Z0F1200
G1 X40.092Y74.955Z0F1200
G1 X40.171Y75.226Z0F1200
G1 X40.244Y75.457Z0F1200
G1 X40.309Y75.628Z0F1200
G1 X40.362Y75.746Z0F1200
G1 X40.411Y75.805Z0F1200
G1 X40.463Y75.832Z0F1200
G1 X40.524Y75.813Z0F1200
G1 X40.596Y75.762Z0F1200
G1 X40.687Y75.687Z0F1200
G1 X40.792Y75.608Z0F1200
G1 X40.919Y75.526Z0F1200
G1 X41.069Y75.45Z0F1200
G1 X41.224Y75.383Z0F1200
G1 X41.367Y75.327Z0F1200
G1 X41.496Y75.286Z0F1200
G1 X41.62Y75.258Z0F1200
G1 X41.703Y75.246Z0F1200
G1 X41.735Y75.243Z0F1200
G1 X41.704Y75.253Z0F1200
G1 X41.622Y75.269Z0F1200
G1 X41.5Y75.299Z0F1200
G1 X41.372Y75.34Z0F1200
G1 X41.229Y75.397Z0F1200
G1 X41.075Y75.463Z0F1200
G1 X40.927Y75.539Z0F1200
G1 X40.802Y75.621Z0F1200
G1 X40.696Y75.7Z0F1200
G1 X40.604Y75.775Z0F1200
G1 X40.528Y75.823Z0F1200
G1 X40.462Y75.84Z0F1200
G1 X40.405Y75.812Z0F1200
G1 X40.354Y75.751Z0F1200
G1 X40.3Y75.631Z0F1200
G1 X40.236Y75.459Z0F1200
G1 X40.163Y75.228Z0F1200
G1 X40.085Y74.957Z0F1200
G1 X40.003Y74.653Z0F1200
G1 X39.844Y74.033Z0F1200
G1 X39.766Y73.746Z0F1200
G1 X39.694Y73.507Z0F1200
G1 X39.627Y73.317Z0F1200
G1 X39.572Y73.207Z0F1200
G1 X39.546Y73.175Z0F1200
G1 X39.527Y73.166Z0F1200
G1 X39.511Y73.179Z0F1200
G1 X39.494Y73.211Z0F1200
G1 X39.466Y73.318Z0F1200
G1 X39.452Y73.491Z0F1200
G1 X39.455Y73.697Z0F1200
G1 X39.475Y73.936Z0F1200
G1 X39.504Y74.187Z0F1200
G1 X39.543Y74.434Z0F1200
G1 X39.587Y74.665Z0F1200
G1 X39.658Y75Z0F1200
G1 X39.665Y75.08Z0F1200
G1 X39.649Y75.104Z0F1200
G1 X39.595Y75.063Z0F1200
G1 X39.507Y74.981Z0F1200
G1 X39.232Y74.696Z0F1200
G1 X39.053Y74.518Z0F1200
G1 X38.857Y74.331Z0F1200
G1 X38.638Y74.148Z0F1200
G1 X38.403Y73.98Z0F1200
G1 X38.162Y73.845Z0F1200
G1 X37.932Y73.743Z0F1200
G1 X37.718Y73.692Z0F1200
G1 X37.518Y73.681Z0F1200
G1 X37.346Y73.723Z0F1200
G1 X37.197Y73.797Z0F1200
G1 X37.082Y73.917Z0F1200
G1 X36.991Y74.07Z0F1200
G1 X36.938Y74.258Z0F1200
G1 X36.91Y74.469Z0F1200
G1 X36.922Y74.694Z0F1200
G1 X36.966Y74.917Z0F1200
G1 X37.042Y75.125Z0F1200
G1 X37.136Y75.313Z0F1200
G1 X37.24Y75.464Z0F1200
G1 X37.338Y75.579Z0F1200
G1 X37.428Y75.64Z0F1200
G1 X37.508Y75.66Z0F1200
G1 X37.569Y75.624Z0F1200
G1 X37.612Y75.548Z0F1200
G1 X37.624Y75.423Z0F1200
G1 X37.607Y75.267Z0F1200
G1 X37.554Y75.075Z0F1200
G1 X37.478Y74.862Z0F1200
G1 X37.366Y74.632Z0F1200
G1 X37.23Y74.396Z0F1200
G1 X37.064Y74.169Z0F1200
G1 X36.878Y73.961Z0F1200
G1 X36.675Y73.788Z0F1200
G1 X36.463Y73.646Z0F1200
G1 X36.249Y73.554Z0F1200
G1 X36.041Y73.501Z0F1200
G1 X35.846Y73.51Z0F1200
G1 X35.666Y73.567Z0F1200
G1 X35.511Y73.693Z0F1200
G1 X35.376Y73.865Z0F1200
G1 X35.273Y74.105Z0F1200
G1 X35.195Y74.397Z0F1200
G1 X35.154Y74.741Z0F1200
G1 X35.143Y75.112Z0F1200
G1 X35.166Y75.505Z0F1200
G1 X35.211Y75.9Z0F1200
G1 X35.281Y76.286Z0F1200
G1 X35.365Y76.657Z0F1200
G1 X35.465Y76.987Z0F1200
G1 X35.574Y77.271Z0F1200
G1 X35.687Y77.489Z0F1200
G1 X35.798Y77.655Z0F1200
G1 X35.897Y77.748Z0F1200
G1 X35.982Y77.793Z0F1200
G1 X36.045Y77.766Z0F1200
G1 X36.092Y77.69Z0F1200
G1 X36.115Y77.54Z0F1200
G1 X36.122Y77.336Z0F1200
G1 X36.101Y77.062Z0F1200
G1 X36.057Y76.741Z0F1200
G1 X35.98Y76.37Z0F1200
G1 X35.879Y75.973Z0F1200
G1 X35.747Y75.558Z0F1200
G1 X35.594Y75.144Z0F1200
G1 X35.416Y74.748Z0F1200
G1 X35.22Y74.376Z0F1200
G1 X35.01Y74.055Z0F1200
G1 X34.798Y73.782Z0F1200
G1 X34.589Y73.582Z0F1200
G1 X34.393Y73.44Z0F1200
G1 X34.211Y73.383Z0F1200
G1 X34.118Y73.375Z0F1200
G1 X34.04Y73.387Z0F1200
G1 X33.969Y73.421Z0F1200
G1 X33.893Y73.483Z0F1200
G1 X33.767Y73.646Z0F1200
G1 X33.673Y73.896Z0F1200
G1 X33.607Y74.199Z0F1200
G1 X33.578Y74.567Z0F1200
G1 X33.575Y74.973Z0F1200
G1 X33.603Y75.405Z0F1200
G1 X33.651Y75.838Z0F1200
G1 X33.723Y76.25Z0F1200
G1 X33.811Y76.627Z0F1200
G1 X33.908Y76.949Z0F1200
G1 X34.002Y77.227Z0F1200
G1 X34.087Y77.436Z0F1200
G1 X34.161Y77.594Z0F1200
G1 X34.212Y77.676Z0F1200
G1 X34.241Y77.703Z0F1200
G1 Y77.652Z0F1200
G1 X34.218Y77.551Z0F1200
G1 X34.161Y77.376Z0F1200
G1 X34.076Y77.151Z0F1200
G1 X33.833Y76.538Z0F1200
G1 X33.685Y76.169Z0F1200
G1 X33.525Y75.779Z0F1200
G1 X33.352Y75.376Z0F1200
G1 X33.172Y74.975Z0F1200
G1 X32.989Y74.595Z0F1200
G1 X32.808Y74.244Z0F1200
G1 X32.632Y73.941Z0F1200
G1 X32.464Y73.678Z0F1200
G1 X32.308Y73.477Z0F1200
G1 X32.162Y73.323Z0F1200
G1 X32.033Y73.235Z0F1200
G1 X31.917Y73.194Z0F1200
G1 X31.822Y73.217Z0F1200
G1 X31.74Y73.283Z0F1200
G1 X31.684Y73.401Z0F1200
G1 X31.648Y73.541Z0F1200
G1 X31.639Y73.722Z0F1200
G1 X31.65Y73.94Z0F1200
G1 X31.682Y74.181Z0F1200
G1 X31.724Y74.427Z0F1200
G1 X31.772Y74.653Z0F1200
G1 X31.818Y74.847Z0F1200
G1 X31.845Y74.979Z0F1200
G1 Y75.052Z0F1200
G1 X31.812Y75.04Z0F1200
G1 X31.752Y74.959Z0F1200
G1 X31.655Y74.808Z0F1200
G1 X31.532Y74.623Z0F1200
G1 X31.379Y74.409Z0F1200
G1 X31.208Y74.19Z0F1200
G1 X31.022Y73.981Z0F1200
G1 X30.832Y73.794Z0F1200
G1 X30.641Y73.644Z0F1200
G1 X30.454Y73.527Z0F1200
G1 X30.277Y73.461Z0F1200
G1 X30.106Y73.431Z0F1200
G1 X29.953Y73.458Z0F1200
G1 X29.816Y73.528Z0F1200
G1 X29.707Y73.649Z0F1200
G1 X29.62Y73.8Z0F1200
G1 X29.566Y73.987Z0F1200
G1 X29.535Y74.194Z0F1200
G1 X29.54Y74.42Z0F1200
G1 X29.57Y74.653Z0F1200
G1 X29.631Y74.88Z0F1200
G1 X29.712Y75.094Z0F1200
G1 X29.814Y75.278Z0F1200
G1 X29.926Y75.435Z0F1200
G1 X30.042Y75.545Z0F1200
G1 X30.154Y75.617Z0F1200
G1 X30.254Y75.635Z0F1200
G1 X30.342Y75.612Z0F1200
G1 X30.404Y75.538Z0F1200
G1 X30.446Y75.433Z0F1200
G1 X30.451Y75.287Z0F1200
G1 X30.426Y75.112Z0F1200
G1 X30.358Y74.91Z0F1200
G1 X30.257Y74.697Z0F1200
G1 X30.111Y74.477Z0F1200
G1 X29.931Y74.256Z0F1200
G1 X29.716Y74.045Z0F1200
G1 X29.483Y73.849Z0F1200
G1 X29.232Y73.678Z0F1200
G1 X28.977Y73.527Z0F1200
G1 X28.719Y73.407Z0F1200
G1 X28.464Y73.311Z0F1200
G1 X28.223Y73.246Z0F1200
G1 X27.998Y73.203Z0F1200
G1 X27.802Y73.186Z0F1200
G1 X27.63Z0F1200
G1 X27.496Y73.205Z0F1200
G1 X27.393Y73.232Z0F1200
G1 X27.328Y73.267Z0F1200
G1 X27.291Y73.302Z0F1200
G1 X27.288Y73.333Z0F1200
G1 X27.308Y73.356Z0F1200
G1 X27.354Y73.373Z0F1200
G1 X27.415Y73.386Z0F1200
G1 X27.489Y73.395Z0F1200
G1 X27.569Y73.401Z0F1200
G1 X27.651Y73.405Z0F1200
G1 X27.73Z0F1200
G1 X27.798Y73.408Z0F1200
G1 X27.856Y73.416Z0F1200
G1 X27.896Y73.432Z0F1200
G1 X27.922Y73.455Z0F1200
G1 X27.933Y73.49Z0F1200
G1 X27.936Y73.532Z0F1200
G1 X27.897Y73.914Z0F1200
G1 X27.888Y74.072Z0F1200
G1 X27.885Y74.248Z0F1200
G1 X27.892Y74.442Z0F1200
G1 X27.906Y74.645Z0F1200
G1 X27.93Y74.851Z0F1200
G1 X27.961Y75.055Z0F1200
G1 X28Y75.245Z0F1200
G1 X28.046Y75.419Z0F1200
G1 X28.127Y75.686Z0F1200
G1 X28.146Y75.768Z0F1200
G1 X28.149Y75.822Z0F1200
G1 X28.123Y75.827Z0F1200
G1 X28.072Y75.792Z0F1200
G1 X27.981Y75.703Z0F1200
G1 X27.855Y75.574Z0F1200
G1 X27.694Y75.399Z0F1200
G1 X27.315Y74.958Z0F1200
G1 X27.105Y74.717Z0F1200
G1 X26.888Y74.475Z0F1200
G1 X26.672Y74.242Z0F1200
G1 X26.469Y74.027Z0F1200
G1 X26.28Y73.831Z0F1200
G1 X26.123Y73.658Z0F1200
G1 X26Y73.501Z0F1200
G1 X25.919Y73.366Z0F1200
G1 X25.865Y73.243Z0F1200
G1 X25.855Y73.146Z0F1200
G1 X25.879Y73.073Z0F1200
G1 X25.944Y73.028Z0F1200
G1 X26.034Y72.999Z0F1200
G1 X26.153Y72.99Z0F1200
G1 X26.286Z0F1200
G1 X26.427Y73.008Z0F1200
G1 X26.563Y73.04Z0F1200
G1 X26.682Y73.085Z0F1200
G1 X26.78Y73.133Z0F1200
G1 X26.844Y73.186Z0F1200
G1 X26.883Y73.239Z0F1200
G1 Y73.297Z0F1200
G1 X26.854Y73.355Z0F1200
G1 X26.79Y73.425Z0F1200
G1 X26.706Y73.507Z0F1200
G1 X26.483Y73.721Z0F1200
G1 X26.359Y73.85Z0F1200
G1 X26.24Y73.986Z0F1200
G1 X26.13Y74.133Z0F1200
G1 X26.029Y74.284Z0F1200
G1 X25.945Y74.439Z0F1200
G1 X25.879Y74.597Z0F1200
G1 X25.836Y74.747Z0F1200
G1 X25.812Y74.889Z0F1200
G1 X25.804Y75.007Z0F1200
G1 Y75.103Z0F1200
G1 X25.808Y75.161Z0F1200
G1 X25.815Y75.192Z0F1200
G1 Y75.178Z0F1200
G1 X25.805Y75.127Z0F1200
G1 X25.775Y75.026Z0F1200
G1 X25.725Y74.886Z0F1200
G1 X25.652Y74.704Z0F1200
G1 X25.562Y74.498Z0F1200
G1 X25.455Y74.272Z0F1200
G1 X25.34Y74.041Z0F1200
G1 X25.215Y73.822Z0F1200
G1 X25.084Y73.624Z0F1200
G1 X24.951Y73.466Z0F1200
G1 X24.82Y73.346Z0F1200
G1 X24.696Y73.281Z0F1200
G1 X24.58Y73.261Z0F1200
G1 X24.478Y73.296Z0F1200
G1 X24.389Y73.366Z0F1200
G1 X24.317Y73.482Z0F1200
G1 X24.258Y73.627Z0F1200
G1 X24.212Y73.798Z0F1200
G1 X24.171Y73.981Z0F1200
G1 X24.136Y74.159Z0F1200
G1 X24.106Y74.325Z0F1200
G1 X24.076Y74.453Z0F1200
G1 X24.04Y74.539Z0F1200
G1 X23.994Y74.561Z0F1200
G1 X23.933Y74.527Z0F1200
G1 X23.861Y74.429Z0F1200
G1 X23.783Y74.287Z0F1200
G1 X23.515Y73.716Z0F1200
G1 X23.419Y73.534Z0F1200
G1 X23.33Y73.386Z0F1200
G1 X23.254Y73.276Z0F1200
G1 X23.193Y73.217Z0F1200
G1 X23.143Y73.196Z0F1200
G1 X23.108Y73.227Z0F1200
G1 X23.079Y73.298Z0F1200
G1 X23.062Y73.414Z0F1200
G1 X23.053Y73.557Z0F1200
G1 X23.041Y73.9Z0F1200
G1 X23.028Y74.07Z0F1200
G1 X23.008Y74.229Z0F1200
G1 X22.967Y74.355Z0F1200
G1 X22.904Y74.439Z0F1200
G1 X22.806Y74.473Z0F1200
G1 X22.679Y74.469Z0F1200
G1 X22.52Y74.419Z0F1200
G1 X22.341Y74.339Z0F1200
G1 X22.143Y74.225Z0F1200
G1 X21.936Y74.091Z0F1200
G1 X21.731Y73.94Z0F1200
G1 X21.54Y73.79Z0F1200
G1 X21.373Y73.638Z0F1200
G1 X21.229Y73.484Z0F1200
G1 X21.127Y73.34Z0F1200
G1 X21.06Y73.212Z0F1200
G1 X21.051Y73.108Z0F1200
G1 X21.089Y73.024Z0F1200
G1 X21.183Y72.976Z0F1200
G1 X21.314Y72.962Z0F1200
G1 X21.479Y72.988Z0F1200
G1 X21.655Y73.039Z0F1200
G1 X21.839Y73.127Z0F1200
G1 X22.023Y73.24Z0F1200
G1 X22.193Y73.387Z0F1200
G1 X22.346Y73.557Z0F1200
G1 X22.467Y73.754Z0F1200
G1 X22.56Y73.967Z0F1200
G1 X22.611Y74.2Z0F1200
G1 X22.631Y74.442Z0F1200
G1 X22.604Y74.698Z0F1200
G1 X22.544Y74.967Z0F1200
G1 X22.443Y75.242Z0F1200
G1 X22.313Y75.516Z0F1200
G1 X22.157Y75.786Z0F1200
G1 X21.988Y76.053Z0F1200
G1 X21.635Y76.563Z0F1200
G1 X21.467Y76.793Z0F1200
G1 X21.311Y77Z0F1200
G1 X21.066Y77.304Z0F1200
G1 X20.984Y77.389Z0F1200
G1 X20.922Y77.431Z0F1200
G1 X20.885Y77.416Z0F1200
G1 X20.861Y77.36Z0F1200
G1 X20.856Y77.249Z0F1200
G1 X20.862Y77.104Z0F1200
G1 X20.882Y76.909Z0F1200
G1 X20.909Y76.682Z0F1200
G1 X21.028Y75.759Z0F1200
G1 X21.07Y75.391Z0F1200
G1 X21.153Y74.599Z0F1200
G1 X21.233Y73.799Z0F1200
G1 X21.262Y73.433Z0F1200
G1 X21.273Y73.107Z0F1200
G1 Y72.665Z0F1200
G1 X21.263Y72.567Z0F1200
G1 X21.254Y72.539Z0F1200
G1 X21.244Y72.533Z0F1200
G1 X21.23Y72.551Z0F1200
G1 X21.213Y72.594Z0F1200
G1 X21.172Y72.719Z0F1200
G1 X21.126Y72.932Z0F1200
G1 X21.082Y73.206Z0F1200
G1 X21.04Y73.542Z0F1200
G1 X21Y73.898Z0F1200
G1 X20.922Y74.692Z0F1200
G1 X20.89Y75.109Z0F1200
G1 X20.866Y75.526Z0F1200
G1 X20.857Y75.924Z0F1200
G1 X20.861Y76.297Z0F1200
G1 X20.878Y76.623Z0F1200
G1 X20.902Y76.905Z0F1200
G1 X20.951Y77.307Z0F1200
G1 X20.969Y77.428Z0F1200
G1 X20.984Y77.507Z0F1200
G1 X20.993Y77.542Z0F1200
G1 Y77.559Z0F1200
G0 Z4.8F800
G0 X25.209Y79.401Z4.8F1500
G1 Z0F800
G1 X25.998Z0F1200
G1 X25.63Z0F1200
G1 X27.209Y83.589Z0F1200
G1 X26.805Z0F1200
G1 X27.286Z0F1200
G1 X26.926Y79.442Z0F1200
G1 X29.725Y83.608Z0F1200
G1 X30.194Z0F1200
G1 X29.778Z0F1200
G1 X28.189Y79.401Z0F1200
G1 X27.845Z0F1200
G1 X28.598Z0F1200
G0 Z4.8F800
G0 X31.07Y79.421Z4.8F1500
G1 Z0F800
G1 X30.677Z0F1200
G1 X31.288Y81.053Z0F1200
G1 X30.548Z0F1200
G1 X30.175Y80.989Z0F1200
G1 X29.769Y80.708Z0F1200
G1 X29.514Y80.324Z0F1200
G1 X29.382Y79.967Z0F1200
G1 X29.385Y79.643Z0F1200
G1 X29.576Y79.401Z0F1200
G1 X29.934Y79.361Z0F1200
G1 X30.271Y79.522Z0F1200
G1 X30.665Y79.864Z0F1200
G1 X30.975Y80.209Z0F1200
G1 X31.497Y81.596Z0F1200
G1 X31.553Y81.915Z0F1200
G1 X31.484Y82.279Z0F1200
G1 X31.289Y82.401Z0F1200
G1 X30.968Y82.439Z0F1200
G1 X30.616Y82.318Z0F1200
G1 X30.304Y82.056Z0F1200
G0 Z4.8F800
G0 X33.074Y83.608Z4.8F1500
G1 Z0F800
G1 X33.466Z0F1200
G1 X31.886Y79.421Z0F1200
G1 X31.504Z0F1200
G1 X32.242Z0F1200
G1 X31.886Z0F1200
G1 X32.706Y81.596Z0F1200
G1 X33.074Y81.979Z0F1200
G1 X33.409Y82.279Z0F1200
G1 X33.753Y82.42Z0F1200
G1 X33.98Z0F1200
G1 X34.178Y82.299Z0F1200
G1 X34.272Y82.12Z0F1200
G1 X34.287Y81.794Z0F1200
G1 X34.156Y81.391Z0F1200
G1 X33.41Y79.401Z0F1200
G1 X33.054Z0F1200
G1 X33.79Z0F1200
G0 Z4.8F800
G0 X34.239Z4.8F1500
G1 Z0F800
G1 X34.966Z0F1200
G1 X34.623Z0F1200
G1 X35.739Y82.362Z0F1200
G1 X35.355Z0F1200
G1 X35.739Z0F1200
G1 X35.43Y81.532Z0F1200
G1 X35.804Y81.979Z0F1200
G1 X36.093Y82.216Z0F1200
G1 X36.385Y82.401Z0F1200
G1 X36.608Y82.42Z0F1200
G1 X36.831Y82.362Z0F1200
G1 X36.993Y82.196Z0F1200
G1 X37.027Y81.896Z0F1200
G1 X36.986Y81.634Z0F1200
G1 X36.873Y81.315Z0F1200
G1 X36.162Y79.442Z0F1200
G1 X35.806Z0F1200
G1 X36.582Z0F1200
G0 Z4.8F800
G0 X36.964Y79.401Z4.8F1500
G1 Z0F800
G1 X37.805Z0F1200
G1 X37.372Z0F1200
G1 X38.494Y82.382Z0F1200
G1 X38.086Z0F1200
G0 Z4.8F800
G0 X38.707Y83.001Z4.8F1500
G1 Z0F800
G1 X38.851Y83.104Z0F1200
G1 X38.918Y83.263Z0F1200
G1 X38.88Y83.366Z0F1200
G1 X38.757Y83.327Z0F1200
G1 X38.662Y83.167Z0F1200
G1 X38.652Y83.084Z0F1200
G1 X38.707Y83.001Z0F1200
G0 Z4.8F800
G0 X39.19Y83.751Z4.8F1500
G1 Z0F800
G1 X39.292Y83.716Z0F1200
G1 X39.357Y83.628Z0F1200
G1 X39.447Y83.558Z0F1200
G1 X39.524Y83.477Z0F1200
G1 X39.587Y83.389Z0F1200
G1 X39.765Y83.16Z0F1200
G1 X39.873Y83.064Z0F1200
G1 X39.929Y83.052Z0F1200
G1 X39.987Y83.074Z0F1200
G1 X40.051Y83.136Z0F1200
G1 X40.12Y83.246Z0F1200
G1 X40.18Y83.367Z0F1200
G1 X40.232Y83.492Z0F1200
G1 X40.271Y83.576Z0F1200
G1 X40.332Y83.644Z0F1200
G1 X40.381Y83.721Z0F1200
G1 X40.437Y83.792Z0F1200
G1 X40.536Y83.894Z0F1200
G1 X40.625Y84.005Z0F1200
G0 Z4.8F800
G0 X41.03Y82.382Z4.8F1500
G1 Z0F800
G1 X40.64Y81.353Z0F1200
G1 X40.787Y81.756Z0F1200
G1 X40.653Y82.12Z0F1200
G1 X40.379Y82.382Z0F1200
G1 X40.087Z0F1200
G1 X39.784Y82.26Z0F1200
G1 X39.476Y81.998Z0F1200
G1 X39.163Y81.596Z0F1200
G1 X38.926Y81.129Z0F1200
G1 X38.718Y80.586Z0F1200
G1 X38.635Y80.126Z0F1200
G1 X38.663Y79.663Z0F1200
G1 X38.864Y79.401Z0F1200
G1 X39.068Y79.361Z0F1200
G1 X39.311Z0F1200
G1 X39.739Y79.542Z0F1200
G1 X40.056Y79.824Z0F1200
G0 Z4.8F800
G0 X45.993Y79.284Z4.8F1500
G1 Z0F800
G1 X46.29Y79.32Z0F1200
G1 X46.688Y79.374Z0F1200
G1 X47.106Y79.517Z0F1200
G1 X47.506Y79.733Z0F1200
G1 X47.875Y80.036Z0F1200
G1 X48.144Y80.361Z0F1200
G1 X48.294Y80.72Z0F1200
G1 X48.401Y81.028Z0F1200
G1 X48.418Y81.33Z0F1200
G1 X48.355Y81.547Z0F1200
G1 X48.163Y81.707Z0F1200
G1 X47.857Y81.798Z0F1200
G1 X47.447Y81.747Z0F1200
G1 X47.109Y81.604Z0F1200
G1 X46.852Y81.439Z0F1200
G1 X47.54Y83.184Z0F1200
G1 X49.156Z0F1200
G0 Z4.8F800
G0 X50.572Y81.832Z4.8F1500
G1 Z0F800
G1 X51.612Z0F1200
G1 X51.83Y81.707Z0F1200
G1 X51.979Y81.53Z0F1200
G1 X52.061Y81.239Z0F1200
G1 X52.027Y80.954Z0F1200
G1 X51.898Y80.578Z0F1200
G1 X51.719Y80.201Z0F1200
G1 X51.419Y79.859Z0F1200
G1 X51.143Y79.608Z0F1200
G1 X50.804Y79.428Z0F1200
G1 X50.473Y79.41Z0F1200
G1 X50.237Y79.463Z0F1200
G1 X50.051Y79.661Z0F1200
G1 X49.931Y80.002Z0F1200
G1 X49.968Y80.486Z0F1200
G1 X50.131Y80.954Z0F1200
G1 X50.348Y81.473Z0F1200
G1 X50.517Y81.764Z0F1200
G1 X50.784Y82.174Z0F1200
G1 X51.129Y82.591Z0F1200
G1 X51.549Y82.933Z0F1200
G1 X51.963Y83.201Z0F1200
G1 X52.347Y83.361Z0F1200
G1 X52.673Y83.344Z0F1200
G0 Z4.8F800
G0 X54.261Y82.5Z4.8F1500
G1 Z0F800
G1 X55.162Y83.218Z0F1200
G1 X53.677Y79.446Z0F1200
G1 X54.095Z0F1200
G1 X53.255Z0F1200
G0 Z4.8F800
G0 X52.452Y79.535Z4.8F1500
G1 Z0F800
G1 X52.508Y79.697Z0F1200
G1 X52.489Y79.769Z0F1200
G1 X52.405Y79.805Z0F1200
G1 X52.262Y79.715Z0F1200
G1 X52.149Y79.535Z0F1200
G1 X52.173Y79.428Z0F1200
G1 X52.242Y79.391Z0F1200
G1 X52.327Y79.41Z0F1200
G1 X52.452Y79.535Z0F1200
G0 Z4.8F800
G0 X54.881Y79.284Z4.8F1500
G1 Z0F800
G1 X55.163Y79.302Z0F1200
G1 X55.515Y79.446Z0F1200
G1 X55.854Y79.625Z0F1200
G1 X56.192Y79.859Z0F1200
G1 X56.542Y80.235Z0F1200
G1 X56.868Y80.629Z0F1200
G1 X57.121Y81.08Z0F1200
G1 X57.358Y81.53Z0F1200
G1 X57.504Y81.941Z0F1200
G1 X57.616Y82.408Z0F1200
G1 X57.567Y82.825Z0F1200
G1 X57.414Y83.127Z0F1200
G1 X57.217Y83.235Z0F1200
G1 X56.941Z0F1200
G1 X56.587Y83.144Z0F1200
G1 X56.203Y82.876Z0F1200
G1 X55.948Y82.608Z0F1200
G1 X55.723Y82.214Z0F1200
G1 X55.556Y81.832Z0F1200
G1 X55.483Y81.405Z0F1200
G1 X55.525Y81.171Z0F1200
G1 X55.623Y80.988Z0F1200
G1 X55.856Y80.829Z0F1200
G1 X56.135Y80.794Z0F1200
G1 X56.966Z0F1200
G0 Z4.8F800
G0 X57.707Y80.612Z4.8F1500
G1 Z0F800
G1 X57.51Y80.167Z0F1200
G1 X57.503Y79.842Z0F1200
G1 X57.6Y79.608Z0F1200
G1 X57.795Y79.463Z0F1200
G1 X58.031Y79.41Z0F1200
G1 X58.203Z0F1200
G1 X58.555Y79.446Z0F1200
G1 X58.965Y79.608Z0F1200
G1 X59.35Y79.91Z0F1200
G1 X59.57Y80.253Z0F1200
G1 X59.669Y80.578Z0F1200
G1 X59.648Y80.846Z0F1200
G1 X59.53Y81.045Z0F1200
G1 X59.354Y81.171Z0F1200
G1 X59.04Y81.37Z0F1200
G1 X58.752Y81.53Z0F1200
G1 X58.517Y81.73Z0F1200
G1 X58.438Y81.981Z0F1200
G1 X58.487Y82.357Z0F1200
G1 X58.653Y82.699Z0F1200
G1 X59.007Y83.041Z0F1200
G1 X59.392Y83.201Z0F1200
G1 X59.735Y83.252Z0F1200
G1 X59.977Y83.218Z0F1200
G1 X60.269Y83.076Z0F1200
G1 X60.375Y82.785Z0F1200
G1 X60.333Y82.482Z0F1200
G1 X60.192Y82.14Z0F1200
G1 X59.893Y81.815Z0F1200
G1 X59.553Y81.621Z0F1200
G1 X59.154Y81.456Z0F1200
G1 X58.608Y81.239Z0F1200
G1 X58.219Y81.062Z0F1200
G1 X57.911Y80.829Z0F1200
G1 X57.707Y80.612Z0F1200
G0 Z4.8F800
G0 X60.016Y79.446Z4.8F1500
G1 Z0F800
G1 X60.856Z0F1200
G1 X60.438Z0F1200
G1 X61.923Y83.218Z0F1200
G1 X61.022Y82.5Z0F1200
G0 Z4.8F800
G0 X65.662Y83.895Z4.8F1500
G1 Z0F800
G1 X66.431Z0F1200
G1 X66.024Z0F1200
G1 X64.539Y79.776Z0F1200
G1 X64.197Z0F1200
G1 X65.786Z0F1200
G1 X66.104Y80.642Z0F1200
G0 Z4.8F800
G0 X67.772Y79.776Z4.8F1500
G1 Z0F800
G1 X67.443Z0F1200
G1 X68.016Y81.374Z0F1200
G1 X67.396Z0F1200
G1 X67.081Y81.311Z0F1200
G1 X66.73Y81.036Z0F1200
G1 X66.502Y80.661Z0F1200
G1 X66.378Y80.31Z0F1200
G1 X66.368Y79.993Z0F1200
G1 X66.519Y79.756Z0F1200
G1 X66.817Y79.717Z0F1200
G1 X67.107Y79.875Z0F1200
G1 X67.45Y80.21Z0F1200
G1 X67.722Y80.548Z0F1200
G1 X68.211Y81.906Z0F1200
G1 X68.27Y82.218Z0F1200
G1 X68.226Y82.575Z0F1200
G1 X68.068Y82.694Z0F1200
G1 X67.8Y82.732Z0F1200
G1 X67.5Y82.613Z0F1200
G1 X67.229Y82.356Z0F1200
G0 Z4.8F800
G0 X68.184Y79.756Z4.8F1500
G1 Z0F800
G1 X68.793Z0F1200
G1 X68.505Z0F1200
G1 X69.552Y82.656Z0F1200
G1 X69.23Z0F1200
G1 X69.552Z0F1200
G1 X69.262Y81.843Z0F1200
G1 X69.591Y82.281Z0F1200
G1 X69.843Y82.513Z0F1200
G1 X70.094Y82.694Z0F1200
G1 X70.282Y82.713Z0F1200
G1 X70.467Y82.656Z0F1200
G1 X70.597Y82.494Z0F1200
G1 X70.613Y82.2Z0F1200
G1 X70.569Y81.943Z0F1200
G1 X70.462Y81.63Z0F1200
G1 X69.796Y79.796Z0F1200
G1 X69.498Z0F1200
G1 X70.149Z0F1200
G0 Z4.8F800
G0 X70.983Y80.17Z4.8F1500
G1 Z0F800
G1 X70.7Y79.993Z0F1200
G1 X70.456Y79.717Z0F1200
G1 X70.293Y79.382Z0F1200
G1 X70.177Y78.987Z0F1200
G1 X70.27Y78.652Z0F1200
G1 X70.49Y78.552Z0F1200
G1 X70.778Y78.514Z0F1200
G1 X71.092Y78.533Z0F1200
G1 X71.396Y78.671Z0F1200
G1 X71.637Y78.89Z0F1200
G1 X71.825Y79.165Z0F1200
G1 X71.974Y79.559Z0F1200
G1 X71.998Y79.895Z0F1200
G1 X71.867Y80.092Z0F1200
G1 X71.655Y80.21Z0F1200
G1 X71.451Z0F1200
G1 X71.233Y80.191Z0F1200
G1 X71.024Y80.17Z0F1200
G1 X70.88Y80.229Z0F1200
G1 X70.752Y80.348Z0F1200
G1 X70.799Y80.567Z0F1200
G1 X70.941Y80.779Z0F1200
G1 X71.174Y80.98Z0F1200
G1 X71.277Y80.842Z0F1200
G1 X71.464Y80.742Z0F1200
G1 X71.711Z0F1200
G1 X71.997Y80.861Z0F1200
G1 X72.317Y81.136Z0F1200
G1 X72.512Y81.474Z0F1200
G1 X72.695Y81.962Z0F1200
G1 X72.744Y82.262Z0F1200
G1 X72.723Y82.475Z0F1200
G1 X72.949Y82.675Z0F1200
G1 X73.267Z0F1200
G1 X72.999Y81.943Z0F1200
G1 X73.267Y82.675Z0F1200
G1 X72.969Z0F1200
G1 X72.723Y82.475Z0F1200
G1 X72.595Y82.631Z0F1200
G1 X72.318Y82.713Z0F1200
G1 X71.988Y82.631Z0F1200
G1 X71.563Y82.319Z0F1200
G1 X71.315Y81.868Z0F1200
G1 X71.182Y81.449Z0F1200
G1 X71.16Y81.117Z0F1200
G1 X71.18Y80.961Z0F1200
G0 Z4.8F800
G0 X73.508Y82.656Z4.8F1500
G1 Z0F800
G1 X73.872Z0F1200
G1 X73.14Y80.623Z0F1200
G1 X73.062Y80.366Z0F1200
G1 X73.045Y80.111Z0F1200
G1 X73.081Y79.914Z0F1200
G1 X73.154Y79.756Z0F1200
G1 X73.332Y79.697Z0F1200
G1 X73.561Y79.756Z0F1200
G1 X73.836Y79.914Z0F1200
G1 X74.108Y80.21Z0F1200
G1 X74.381Y80.548Z0F1200
G1 X74.093Y79.756Z0F1200
G1 X74.435Z0F1200
G1 X74.093Z0F1200
G1 X75.145Y82.675Z0F1200
G1 X74.806Z0F1200
G0 Z4.8F800
G0 X77.213Y82.656Z4.8F1500
G1 Z0F800
G1 X76.848Y81.649Z0F1200
G1 X76.991Y82.062Z0F1200
G1 X76.958Y82.218Z0F1200
G1 X76.908Y82.437Z0F1200
G1 X76.824Y82.594Z0F1200
G1 X76.678Y82.694Z0F1200
G1 X76.4Z0F1200
G1 X76.194Y82.631Z0F1200
G1 X75.929Y82.4Z0F1200
G1 X75.752Y82.143Z0F1200
G1 X75.654Y81.887Z0F1200
G1 X75.611Y81.649Z0F1200
G1 X75.677Y81.449Z0F1200
G1 X75.81Y81.311Z0F1200
G1 X76.083Y81.217Z0F1200
G1 X76.368Y81.117Z0F1200
G1 X76.506Y80.998Z0F1200
G1 X76.577Y80.779Z0F1200
G1 X76.494Y80.467Z0F1200
G1 X76.367Y80.191Z0F1200
G1 X76.159Y79.934Z0F1200
G1 X75.858Y79.756Z0F1200
G1 X75.585Y79.697Z0F1200
G1 X75.402Y79.737Z0F1200
G1 X75.241Y79.895Z0F1200
G1 X75.161Y80.111Z0F1200
G1 X75.106Y80.348Z0F1200
G1 X75.264Y80.779Z0F1200
G1 X74.896Y79.756Z0F1200
G0 Z4.8F800
G0 X77.152Y79.934Z4.8F1500
G1 Z0F800
G1 X77.337Y79.737Z0F1200
G1 X77.522Y79.717Z0F1200
G1 X77.769Y79.756Z0F1200
G1 X78.096Y79.993Z0F1200
G1 X78.419Y80.366Z0F1200
G1 X78.674Y80.842Z0F1200
G1 X78.874Y81.355Z0F1200
G1 X78.989Y81.787Z0F1200
G1 X79.014Y82.2Z0F1200
G1 X78.937Y82.475Z0F1200
G1 X78.777Y82.675Z0F1200
G1 X78.604Y82.713Z0F1200
G1 X78.301Y82.656Z0F1200
G1 X77.898Y82.3Z0F1200
G1 X77.591Y81.868Z0F1200
G1 X77.326Y81.311Z0F1200
G1 X77.153Y80.779Z0F1200
G1 X77.104Y80.31Z0F1200
G1 X77.152Y79.934Z0F1200
G0 Z4.8F800
G0 X73.956Y77.791Z4.8F1500
G1 Z0F800
G1 X73.72Z0F1200
G1 X73.692Y77.49Z0F1200
G1 X73.91Z0F1200
G1 X73.956Y77.791Z0F1200
G0 Z4.8F800
G0 X72.826Z4.8F1500
G1 Z0F800
G1 X72.59Z0F1200
G1 X72.562Y77.49Z0F1200
G1 X72.779Z0F1200
G1 X72.826Y77.791Z0F1200
G0 Z4.8F800
G0 X73.011Y76.486Z4.8F1500
G1 Z0F800
G1 X72.761Y76.431Z0F1200
G1 X72.515Y76.257Z0F1200
G1 X72.293Y75.974Z0F1200
G1 X72.15Y75.71Z0F1200
G1 X72.006Y75.313Z0F1200
G1 X71.974Y75.006Z0F1200
G1 X71.946Y74.651Z0F1200
G1 X71.974Y74.326Z0F1200
G1 X72.108Y74.023Z0F1200
G1 X72.279Y73.814Z0F1200
G1 X72.483Y73.701Z0F1200
G1 X72.691Y73.682Z0F1200
G1 X72.705Z0F1200
G1 X73.011Y73.776Z0F1200
G1 X73.317Y74.023Z0F1200
G1 X73.534Y74.404Z0F1200
G1 X73.683Y74.819Z0F1200
G1 X73.738Y75.216Z0F1200
G1 Y75.577Z0F1200
G1 X73.697Y75.896Z0F1200
G1 X73.595Y76.143Z0F1200
G1 X73.405Y76.371Z0F1200
G1 X73.201Y76.468Z0F1200
G1 X73.011Y76.486Z0F1200
G0 Z4.8F800
G0 X68.796Y76.185Z4.8F1500
G1 Z0F800
G1 X68.755Y76.299Z0F1200
G1 X68.579Y76.407Z0F1200
G1 X68.333Y76.468Z0F1200
G1 X68.009Y76.407Z0F1200
G1 X67.703Y76.203Z0F1200
G1 X67.425Y75.842Z0F1200
G1 X67.254Y75.385Z0F1200
G1 X67.18Y74.892Z0F1200
G1 X67.194Y74.422Z0F1200
G1 X67.337Y74.023Z0F1200
G1 X67.629Y73.739Z0F1200
G1 X67.94Y73.682Z0F1200
G1 X68.287Y73.776Z0F1200
G1 X68.565Y74.004Z0F1200
G0 Z4.8F800
G0 X69.38Y73.701Z4.8F1500
G1 Z0F800
G1 X69.963Y77.869Z0F1200
G1 X69.672Y75.764Z0F1200
G1 X69.917Y76.071Z0F1200
G1 X70.139Y76.299Z0F1200
G1 X70.445Y76.449Z0F1200
G1 X70.723Y76.486Z0F1200
G1 X71.015Y76.257Z0F1200
G1 X71.103Y75.992Z0F1200
G1 X71.084Y75.559Z0F1200
G1 X70.839Y73.682Z0F1200
G0 Z4.8F800
G0 X74.544Y73.663Z4.8F1500
G1 Z0F800
G1 X74.924Y76.468Z0F1200
G1 X74.836Y75.788Z0F1200
G1 X75.067Y76.052Z0F1200
G1 X75.29Y76.275Z0F1200
G1 X75.447Y76.389Z0F1200
G1 X75.683Y76.468Z0F1200
G1 X75.827Y76.486Z0F1200
G1 X76.045Y76.407Z0F1200
G1 X76.147Y76.299Z0F1200
G1 X76.235Y76.107Z0F1200
G1 X76.281Y75.842Z0F1200
G1 X75.975Y73.663Z0F1200
G0 Z4.8F800
G0 X77.156Y75.162Z4.8F1500
G1 Z0F800
G1 X78.763Z0F1200
G1 X78.805Y75.499Z0F1200
G1 X78.791Y75.938Z0F1200
G1 X78.629Y76.275Z0F1200
G1 X78.425Y76.468Z0F1200
G1 X78.12Y76.486Z0F1200
G1 X77.8Y76.371Z0F1200
G1 X77.508Y76.089Z0F1200
G1 X77.346Y75.806Z0F1200
G1 X77.189Y75.445Z0F1200
G1 X77.115Y75.066Z0F1200
G1 Y74.609Z0F1200
G1 X77.189Y74.194Z0F1200
G1 X77.406Y73.852Z0F1200
G1 X77.638Y73.701Z0F1200
G1 X77.944Y73.663Z0F1200
G1 X78.208Y73.758Z0F1200
G1 X78.499Y73.928Z0F1200
G0 Z4.8F800
G0 X79.68Y73.814Z4.8F1500
G1 Z0F800
G1 X79.417Y73.549Z0F1200
G1 X79.243Y73.227Z0F1200
G1 X79.171Y72.888Z0F1200
G1 X79.315Y72.6Z0F1200
G1 X79.639Y72.413Z0F1200
G1 X80.019Y72.353Z0F1200
G1 X80.394Y72.467Z0F1200
G1 X80.774Y72.774Z0F1200
G1 X80.95Y73.057Z0F1200
G1 X80.977Y73.379Z0F1200
G1 X80.894Y73.682Z0F1200
G1 X80.584Y73.796Z0F1200
G1 X79.694Z0F1200
G1 X79.537Y73.966Z0F1200
G1 X79.477Y74.23Z0F1200
G1 X79.551Y74.476Z0F1200
G1 X79.856Y74.837Z0F1200
G1 X80Y74.705Z0F1200
G1 X80.236Y74.651Z0F1200
G1 X80.556Y74.783Z0F1200
G1 X80.806Y75.048Z0F1200
G1 X80.963Y75.367Z0F1200
G1 X81.01Y75.746Z0F1200
G1 X80.95Y76.089Z0F1200
G1 X80.875Y76.239Z0F1200
G1 X80.704Y76.407Z0F1200
G1 X81.403Z0F1200
G1 X80.69Z0F1200
G1 X80.482Y76.468Z0F1200
G1 X80.148Y76.431Z0F1200
G1 X79.884Y76.185Z0F1200
G1 X79.694Y75.842Z0F1200
G1 X79.625Y75.463Z0F1200
G1 X79.653Y75.162Z0F1200
G1 X79.741Y74.97Z0F1200
G1 X79.843Y74.819Z0F1200
G0 Z4.8F800
G0 X82.205Z4.8F1500
G1 Z0F800
G1 X82.103Y74.97Z0F1200
G1 X82.015Y75.162Z0F1200
G1 X81.987Y75.463Z0F1200
G1 X82.056Y75.842Z0F1200
G1 X82.246Y76.185Z0F1200
G1 X82.51Y76.431Z0F1200
G1 X82.844Y76.468Z0F1200
G1 X83.052Y76.407Z0F1200
G1 X83.766Z0F1200
G1 X83.066Z0F1200
G1 X83.238Y76.239Z0F1200
G1 X83.312Y76.089Z0F1200
G1 X83.372Y75.746Z0F1200
G1 X83.326Y75.367Z0F1200
G1 X83.168Y75.048Z0F1200
G1 X82.918Y74.783Z0F1200
G1 X82.598Y74.651Z0F1200
G1 X82.362Y74.705Z0F1200
G1 X82.219Y74.837Z0F1200
G1 X81.913Y74.476Z0F1200
G1 X81.839Y74.23Z0F1200
G1 X81.899Y73.966Z0F1200
G1 X82.056Y73.796Z0F1200
G1 X82.946Z0F1200
G1 X83.256Y73.682Z0F1200
G1 X83.339Y73.379Z0F1200
G1 X83.312Y73.057Z0F1200
G1 X83.136Y72.774Z0F1200
G1 X82.756Y72.467Z0F1200
G1 X82.381Y72.353Z0F1200
G1 X82.001Y72.413Z0F1200
G1 X81.677Y72.6Z0F1200
G1 X81.533Y72.888Z0F1200
G1 X81.605Y73.227Z0F1200
G1 X81.779Y73.549Z0F1200
G1 X82.043Y73.814Z0F1200
G0 Z4.8F800
G0 X83.967Y74.042Z4.8F1500
G1 Z0F800
G1 X84.201Y73.814Z0F1200
G1 X84.465Y73.701Z0F1200
G1 X84.696Y73.663Z0F1200
G1 X85.002Y73.796Z0F1200
G1 X85.266Y74.023Z0F1200
G1 X85.368Y74.362Z0F1200
G1 X85.354Y74.705Z0F1200
G1 X85.136Y74.988Z0F1200
G1 X84.798Y75.18Z0F1200
G1 X84.493Y75.367Z0F1200
G1 X84.331Y75.613Z0F1200
G1 Y75.896Z0F1200
G1 X84.451Y76.167Z0F1200
G1 X84.71Y76.431Z0F1200
G1 X85.016Y76.486Z0F1200
G1 X85.294Y76.407Z0F1200
G1 X85.516Y76.221Z0F1200
G0 Z4.8F800
G0 X86.725Y77.244Z4.8F1500
G1 Z0F800
G1 X86.605Y76.389Z0F1200
G1 X87.29Z0F1200
G1 X86.169Z0F1200
G1 X86.605Z0F1200
G1 X86.331Y74.44Z0F1200
G1 X86.299Y74.023Z0F1200
G1 X86.415Y73.776Z0F1200
G1 X86.605Y73.701Z0F1200
G1 X86.813Z0F1200
G1 X86.984Y73.796Z0F1200
G0 Z4.8F800
G0 X87.73Y73.682Z4.8F1500
G1 Z0F800
G1 X88.11Y76.468Z0F1200
G1 X87.994Y75.613Z0F1200
G1 X88.17Y75.956Z0F1200
G1 X88.416Y76.299Z0F1200
G1 X88.647Y76.431Z0F1200
G1 X88.869Y76.468Z0F1200
G1 X88.999Y76.449Z0F1200
G0 Z4.8F800
G0 X92.473Y77.033Z4.8F1500
G1 Z0F800
G1 X92.751Y77.262Z0F1200
G1 X93.07Y77.436Z0F1200
G1 X93.316Z0F1200
G1 X93.566Y77.34Z0F1200
G1 X93.756Y77.111Z0F1200
G1 X93.83Y76.81Z0F1200
G1 X93.816Y76.449Z0F1200
G1 X93.696Y76.125Z0F1200
G1 X93.422Y75.878Z0F1200
G1 X93.112Y75.692Z0F1200
G1 X92.88Y75.631Z0F1200
G1 X92.69Z0F1200
G1 X92.908Z0F1200
G1 X93.126Y75.595Z0F1200
G1 X93.362Y75.481Z0F1200
G1 X93.566Y75.234Z0F1200
G1 X93.654Y75.006Z0F1200
G1 X93.668Y74.741Z0F1200
G1 X93.608Y74.458Z0F1200
G1 X93.538Y74.23Z0F1200
G1 X93.362Y73.966Z0F1200
G1 X93.126Y73.796Z0F1200
G1 X92.853Y73.701Z0F1200
G1 X92.589Z0F1200
G1 X92.325Y73.796Z0F1200
G1 X92.093Y73.985Z0F1200
G1 X91.947Y74.176Z0F1200
G0 Z4.8F800
G0 X89.434Y74.004Z4.8F1500
G1 Z0F800
G1 X89.203Z0F1200
G1 X89.175Y73.701Z0F1200
G1 X89.393Z0F1200
G1 X89.434Y74.004Z0F1200
G0 Z4.8F800
G0 X95.493Y73.663Z4.8F1500
G1 Z0F800
G1 X96.002Y77.358Z0F1200
G1 X94.298Y74.892Z0F1200
G1 X96.136Z0F1200
G0 Z4.8F800
G0 X94.919Y79.579Z4.8F1500
G1 Z0F800
G1 X95.163Y79.618Z0F1200
G1 X95.491Y79.678Z0F1200
G1 X95.841Y79.835Z0F1200
G1 X96.181Y80.072Z0F1200
G1 X96.503Y80.404Z0F1200
G1 X96.747Y80.761Z0F1200
G1 X96.896Y81.155Z0F1200
G1 X97.005Y81.493Z0F1200
G1 X97.043Y81.824Z0F1200
G1 X97.007Y82.062Z0F1200
G1 X96.864Y82.237Z0F1200
G1 X96.623Y82.337Z0F1200
G1 X96.286Y82.281Z0F1200
G1 X96.001Y82.125Z0F1200
G1 X95.78Y81.943Z0F1200
G1 X96.47Y83.858Z0F1200
G1 X97.782Z0F1200
G0 Z4.8F800
G0 X94.831Y83.107Z4.8F1500
G1 Z0F800
G1 X95.616Y83.895Z0F1200
G1 X94.126Y79.756Z0F1200
G1 X94.464Z0F1200
G1 X93.783Z0F1200
G0 Z4.8F800
G0 X91.972Y79.776Z4.8F1500
G1 Z0F800
G1 X91.644Z0F1200
G1 X92.216Y81.374Z0F1200
G1 X91.596Z0F1200
G1 X91.282Y81.311Z0F1200
G1 X90.931Y81.036Z0F1200
G1 X90.703Y80.661Z0F1200
G1 X90.578Y80.31Z0F1200
G1 X90.569Y79.993Z0F1200
G1 X90.72Y79.756Z0F1200
G1 X91.018Y79.717Z0F1200
G1 X91.307Y79.875Z0F1200
G1 X91.65Y80.21Z0F1200
G1 X91.923Y80.548Z0F1200
G1 X92.412Y81.906Z0F1200
G1 X92.471Y82.218Z0F1200
G1 X92.427Y82.575Z0F1200
G1 X92.268Y82.694Z0F1200
G1 X92Y82.732Z0F1200
G1 X91.701Y82.613Z0F1200
G1 X91.43Y82.356Z0F1200
G0 Z4.8F800
G0 X90.938Y82.675Z4.8F1500
G1 Z0F800
G1 X90.573Y81.668Z0F1200
G1 X90.711Y82.062Z0F1200
G1 X90.613Y82.419Z0F1200
G1 X90.393Y82.675Z0F1200
G1 X90.149Z0F1200
G1 X89.89Y82.556Z0F1200
G1 X89.622Y82.3Z0F1200
G1 X89.345Y81.906Z0F1200
G1 X89.129Y81.449Z0F1200
G1 X88.934Y80.917Z0F1200
G1 X88.847Y80.467Z0F1200
G1 X88.853Y80.012Z0F1200
G1 X89.012Y79.756Z0F1200
G1 X89.182Y79.717Z0F1200
G1 X89.385Z0F1200
G1 X89.75Y79.895Z0F1200
G1 X90.027Y80.17Z0F1200
G0 Z4.8F800
G0 X87.419Y79.756Z4.8F1500
G1 Z0F800
G1 X88.125Z0F1200
G1 X87.762Z0F1200
G1 X88.814Y82.675Z0F1200
G1 X88.472Z0F1200
G0 Z4.8F800
G0 X89.015Y83.282Z4.8F1500
G1 Z0F800
G1 X89.14Y83.382Z0F1200
G1 X89.202Y83.539Z0F1200
G1 X89.174Y83.639Z0F1200
G1 X89.07Y83.601Z0F1200
G1 X88.984Y83.445Z0F1200
G1 X88.973Y83.363Z0F1200
G1 X89.015Y83.282Z0F1200
G0 Z4.8F800
G0 X87.867Y83.895Z4.8F1500
G1 Z0F800
G1 X88.185Z0F1200
G1 X86.705Y79.756Z0F1200
G1 X87.047Z0F1200
G1 X86.384Z0F1200
G0 Z4.8F800
G0 X82.501Y79.776Z4.8F1500
G1 Z0F800
G1 X82.173Z0F1200
G1 X82.746Y81.374Z0F1200
G1 X82.126Z0F1200
G1 X81.811Y81.311Z0F1200
G1 X81.46Y81.036Z0F1200
G1 X81.232Y80.661Z0F1200
G1 X81.107Y80.31Z0F1200
G1 X81.098Y79.993Z0F1200
G1 X81.249Y79.756Z0F1200
G1 X81.547Y79.717Z0F1200
G1 X81.836Y79.875Z0F1200
G1 X82.179Y80.21Z0F1200
G1 X82.452Y80.548Z0F1200
G1 X82.941Y81.906Z0F1200
G1 X83Y82.218Z0F1200
G1 X82.956Y82.575Z0F1200
G1 X82.797Y82.694Z0F1200
G1 X82.53Y82.732Z0F1200
G1 X82.23Y82.613Z0F1200
G1 X81.959Y82.356Z0F1200
G0 Z4.8F800
G0 X81.015Y82.656Z4.8F1500
G1 Z0F800
G1 X81.632Z0F1200
G1 X81.358Z0F1200
G1 X79.611Y79.737Z0F1200
G1 X79.978Y82.656Z0F1200
G1 X80.321Z0F1200
G1 X79.648Z0F1200
G0 Z4.8F800
G0 X85.124Z4.8F1500
G1 Z0F800
G1 X85.488Z0F1200
G1 X84.756Y80.623Z0F1200
G1 X84.678Y80.366Z0F1200
G1 X84.661Y80.111Z0F1200
G1 X84.697Y79.914Z0F1200
G1 X84.77Y79.756Z0F1200
G1 X84.947Y79.697Z0F1200
G1 X85.177Y79.756Z0F1200
G1 X85.452Y79.914Z0F1200
G1 X85.724Y80.21Z0F1200
G1 X85.996Y80.548Z0F1200
G1 X85.709Y79.756Z0F1200
G1 X86.051Z0F1200
G1 X85.709Z0F1200
G1 X86.76Y82.675Z0F1200
G1 X86.422Z0F1200
G0 Z4.8F800
G0 X105.718Y79.473Z4.8F1500
G1 Z0F800
G1 X105.921Y79.792Z0F1200
G1 X106.06Y80.039Z0F1200
G1 X106.184Y80.248Z0F1200
G1 X106.338Y80.455Z0F1200
G1 X106.578Y80.935Z0F1200
G1 X106.656Y81.102Z0F1200
G1 X106.721Y81.257Z0F1200
G1 X106.807Y81.412Z0F1200
G1 X106.925Y81.593Z0F1200
G1 X107.034Y81.778Z0F1200
G1 X107.093Y81.942Z0F1200
G1 X107.174Y82.111Z0F1200
G1 X107.238Y82.233Z0F1200
G1 X107.385Y82.481Z0F1200
G1 X107.434Y82.576Z0F1200
G1 X107.49Y82.702Z0F1200
G1 X107.559Y82.877Z0F1200
G1 X107.661Y83.028Z0F1200
G1 X107.755Y83.21Z0F1200
G1 X107.832Y83.396Z0F1200
G1 X107.885Y83.563Z0F1200
G1 X108.049Y83.932Z0F1200
G1 X108.2Y84.304Z0F1200
G0 Z4.8F800
G0 X104.518Y82.879Z4.8F1500
G1 Z0F800
G1 X104.522Y83.012Z0F1200
G1 X104.532Y83.144Z0F1200
G1 X104.56Y83.272Z0F1200
G1 X104.618Y83.394Z0F1200
G1 X104.758Y83.575Z0F1200
G1 X104.908Y83.744Z0F1200
G1 X105.079Y83.904Z0F1200
G1 X105.283Y84.059Z0F1200
G1 X105.502Y84.149Z0F1200
G1 X105.699Y84.269Z0F1200
G1 X105.904Y84.374Z0F1200
G1 X106.147Y84.415Z0F1200
G1 X106.45Y84.513Z0F1200
G1 X106.765Y84.571Z0F1200
G1 X107.087Y84.6Z0F1200
G1 X107.414Y84.609Z0F1200
G1 X107.895Y84.576Z0F1200
G1 X108.376Y84.534Z0F1200
G1 X108.953Y84.501Z0F1200
G1 X109.521Y84.412Z0F1200
G1 X110.026Y84.263Z0F1200
G1 X110.561Y84.088Z0F1200
G1 X110.954Y83.891Z0F1200
G1 X111.355Y83.649Z0F1200
G1 X111.546Y83.515Z0F1200
G1 X111.717Y83.328Z0F1200
G1 X111.854Y83.087Z0F1200
G1 X111.939Y82.793Z0F1200
G1 X111.957Y82.612Z0F1200
G1 X111.927Y82.398Z0F1200
G1 X111.835Y82.18Z0F1200
G1 X111.669Y81.984Z0F1200
G1 X111.481Y81.808Z0F1200
G1 X111.258Y81.604Z0F1200
G1 X111.027Y81.408Z0F1200
G1 X110.351Y80.931Z0F1200
G1 X109.871Y80.639Z0F1200
G1 X109.727Y80.554Z0F1200
G1 X109.514Y80.461Z0F1200
G1 X109.407Y80.412Z0F1200
G1 X109.266Y80.343Z0F1200
G1 X109.082Y80.247Z0F1200
G1 X108.787Y80.062Z0F1200
G1 X108.422Y79.865Z0F1200
G1 X107.656Y79.471Z0F1200
G1 X107.142Y79.265Z0F1200
G1 X106.635Y79.063Z0F1200
G1 X105.966Y78.889Z0F1200
G1 X105.317Y78.718Z0F1200
G1 X105.248Y78.686Z0F1200
G1 X105.144Y78.674Z0F1200
G1 X105.019Y78.677Z0F1200
G1 X104.885Y78.689Z0F1200
G1 X104.642Y78.715Z0F1200
G1 X104.557Z0F1200
G1 X104.449Y78.688Z0F1200
G1 X104.351Y78.708Z0F1200
G1 X104.24Y78.759Z0F1200
G1 X104.137Y78.831Z0F1200
G1 X104.065Y78.916Z0F1200
G1 X104.045Y79.005Z0F1200
G1 X104.098Y79.09Z0F1200
G1 X104.246Y79.162Z0F1200
G1 X104.289Y79.189Z0F1200
G1 X104.326Y79.219Z0F1200
G0 Z4.8F800
G0 X107.603Y73.854Z4.8F1500
G1 Z0F800
G1 X107.343Y73.387Z0F1200
G1 X107.239Y73.253Z0F1200
G1 X107.148Y73.167Z0F1200
G1 X107.07Y73.123Z0F1200
G1 X107.004Y73.117Z0F1200
G1 X106.949Y73.144Z0F1200
G1 X106.907Y73.199Z0F1200
G1 X106.874Y73.278Z0F1200
G1 X106.853Y73.376Z0F1200
G1 X106.839Y73.61Z0F1200
G1 X106.862Y73.864Z0F1200
G1 X106.918Y74.1Z0F1200
G1 X107.002Y74.281Z0F1200
G1 X107.049Y74.414Z0F1200
G1 X107.075Y74.51Z0F1200
G1 X107.082Y74.572Z0F1200
G1 X107.074Y74.604Z0F1200
G1 X107.015Y74.59Z0F1200
G1 X106.915Y74.498Z0F1200
G1 X106.65Y74.195Z0F1200
G1 X106.405Y73.926Z0F1200
G1 X106.082Y73.736Z0F1200
G1 X105.804Y73.624Z0F1200
G1 X105.581Y73.582Z0F1200
G1 X105.422Y73.608Z0F1200
G1 X105.371Y73.643Z0F1200
G1 X105.34Y73.694Z0F1200
G1 X105.33Y73.758Z0F1200
G1 X105.344Y73.836Z0F1200
G1 X105.381Y73.926Z0F1200
G1 X105.444Y74.028Z0F1200
G1 X105.534Y74.141Z0F1200
G1 X105.652Y74.265Z0F1200
G1 X105.911Y74.708Z0F1200
G1 X106.193Y75.107Z0F1200
G1 X106.343Y75.314Z0F1200
G1 X106.5Y75.541Z0F1200
G1 X106.665Y75.796Z0F1200
G1 X106.836Y76.091Z0F1200
G1 X106.96Y76.31Z0F1200
G1 X107.05Y76.488Z0F1200
G1 X107.108Y76.628Z0F1200
G1 X107.138Y76.731Z0F1200
G1 X107.142Y76.802Z0F1200
G1 X107.124Y76.841Z0F1200
G1 X107.085Y76.853Z0F1200
G1 X107.03Y76.839Z0F1200
G1 X106.877Y76.745Z0F1200
G1 X106.689Y76.582Z0F1200
G1 X106.486Y76.369Z0F1200
G1 X106.293Y76.129Z0F1200
G1 X106.054Y75.95Z0F1200
G1 X105.836Y75.742Z0F1200
G1 X105.635Y75.512Z0F1200
G1 X105.447Y75.268Z0F1200
G1 X105.092Y74.765Z0F1200
G1 X104.739Y74.292Z0F1200
G1 X104.397Y73.731Z0F1200
G1 X103.965Y73.182Z0F1200
G1 X103.529Y72.638Z0F1200
G1 X103.17Y72.091Z0F1200
G0 Z4.8F800
G0 X108.552Y72.976Z4.8F1500
G1 Z0F800
G1 X108.382Y72.791Z0F1200
G1 X108.263Y72.647Z0F1200
G1 X108.191Y72.539Z0F1200
G1 X108.161Y72.467Z0F1200
G1 X108.169Y72.426Z0F1200
G1 X108.211Y72.414Z0F1200
G1 X108.281Y72.429Z0F1200
G1 X108.376Y72.467Z0F1200
G1 X108.622Y72.603Z0F1200
G1 X108.913Y72.8Z0F1200
G1 X109.214Y73.035Z0F1200
G1 X109.489Y73.287Z0F1200
G1 X109.839Y73.622Z0F1200
G1 X110.149Y73.933Z0F1200
G1 X110.439Y74.271Z0F1200
G1 X110.73Y74.69Z0F1200
G1 X111.041Y75.022Z0F1200
G1 X111.355Y75.409Z0F1200
G1 X111.93Y76.152Z0F1200
G1 X112.172Y76.456Z0F1200
G1 X112.38Y76.652Z0F1200
G1 X112.653Y76.864Z0F1200
G1 X112.97Y77.086Z0F1200
G1 X113.31Y77.312Z0F1200
G1 X113.652Y77.535Z0F1200
G1 X113.975Y77.75Z0F1200
G1 X114.259Y77.951Z0F1200
G1 X114.484Y78.131Z0F1200
G1 X114.477Y78.019Z0F1200
G1 X114.441Y77.898Z0F1200
G1 X114.378Y77.769Z0F1200
G1 X114.292Y77.633Z0F1200
G1 X114.069Y77.349Z0F1200
G1 X113.802Y77.054Z0F1200
G1 X113.521Y76.76Z0F1200
G1 X113.257Y76.477Z0F1200
G1 X113.04Y76.215Z0F1200
G1 X112.901Y75.986Z0F1200
G1 X112.456Y75.41Z0F1200
G1 X111.986Y74.891Z0F1200
G1 X111.769Y74.629Z0F1200
G1 X111.58Y74.352Z0F1200
G1 X111.429Y74.05Z0F1200
G1 X111.328Y73.714Z0F1200
G1 X111.504Y73.545Z0F1200
G1 X111.711Y73.468Z0F1200
G1 X111.941Z0F1200
G1 X112.185Y73.524Z0F1200
G1 X112.684Y73.738Z0F1200
G1 X113.142Y73.969Z0F1200
G1 X113.282Y74.046Z0F1200
G1 X113.447Y74.165Z0F1200
G1 X113.622Y74.308Z0F1200
G1 X113.79Y74.458Z0F1200
G1 X113.938Y74.597Z0F1200
G1 X114.048Y74.706Z0F1200
G1 X114.106Y74.768Z0F1200
G1 X114.097Y74.765Z0F1200
G1 X114.017Y74.508Z0F1200
G1 X113.98Y74.306Z0F1200
G1 Y74.156Z0F1200
G1 X114.018Y74.051Z0F1200
G1 X114.084Y73.988Z0F1200
G1 X114.176Y73.961Z0F1200
G1 X114.289Y73.966Z0F1200
G1 X114.419Y73.997Z0F1200
G1 X115.022Y74.298Z0F1200
G1 X115.551Y74.646Z0F1200
G1 X115.617Y74.62Z0F1200
G1 X115.638Y74.576Z0F1200
G1 X115.621Y74.515Z0F1200
G1 X115.574Y74.441Z0F1200
G1 X115.414Y74.264Z0F1200
G1 X115.215Y74.066Z0F1200
G1 X115.032Y73.87Z0F1200
G1 X114.923Y73.699Z0F1200
G1 X114.913Y73.629Z0F1200
G1 X114.942Y73.574Z0F1200
G1 X115.017Y73.536Z0F1200
G1 X115.145Y73.518Z0F1200
G1 X115.29Y73.53Z0F1200
G1 X115.393Y73.512Z0F1200
G1 X115.418Y73.479Z0F1200
G1 X115.421Y73.424Z0F1200
G1 X115.397Y73.339Z0F1200
G1 X115.342Y73.222Z0F1200
G1 X115.223Y73.071Z0F1200
G1 X115.111Y72.888Z0F1200
G1 X115.025Y72.704Z0F1200
G1 X114.983Y72.548Z0F1200
G1 Y72.49Z0F1200
G1 X115.002Y72.45Z0F1200
G1 X115.041Y72.431Z0F1200
G1 X115.102Y72.438Z0F1200
G1 X115.187Y72.474Z0F1200
G1 X115.299Y72.542Z0F1200
G1 X115.44Y72.647Z0F1200
G1 X115.612Y72.792Z0F1200
G1 X115.848Y72.944Z0F1200
G1 X116.042Y73.105Z0F1200
G1 X116.211Y73.278Z0F1200
G1 X116.548Y73.659Z0F1200
G1 X116.752Y73.87Z0F1200
G1 X117.004Y74.096Z0F1200
G1 X117.322Y74.338Z0F1200
G1 X117.734Y74.828Z0F1200
G1 X118.139Y75.283Z0F1200
G1 X118.536Y75.702Z0F1200
G1 X118.923Y76.082Z0F1200
G1 X119.297Y76.418Z0F1200
G1 X119.656Y76.709Z0F1200
G1 X119.997Y76.95Z0F1200
G1 X120.319Y77.14Z0F1200
G1 X120.522Y77.263Z0F1200
G1 X120.711Y77.354Z0F1200
G1 X120.885Y77.421Z0F1200
G1 X121.044Y77.469Z0F1200
G1 X121.317Y77.537Z0F1200
G1 X121.527Y77.607Z0F1200
G1 X121.6Y77.623Z0F1200
G1 X121.655Y77.605Z0F1200
G1 X121.694Y77.557Z0F1200
G1 X121.718Y77.483Z0F1200
G1 X121.726Y77.272Z0F1200
G1 X121.691Y77.004Z0F1200
G1 X121.625Y76.711Z0F1200
G1 X121.539Y76.425Z0F1200
G1 X121.446Y76.177Z0F1200
G1 X121.357Y75.999Z0F1200
G1 X121.066Y75.497Z0F1200
G1 X120.795Y74.984Z0F1200
G1 X120.57Y74.457Z0F1200
G1 X120.417Y73.913Z0F1200
G1 X120.464Y73.836Z0F1200
G1 X120.537Y73.803Z0F1200
G1 X120.635Y73.809Z0F1200
G1 X120.752Y73.85Z0F1200
G1 X121.035Y74.011Z0F1200
G1 X121.361Y74.245Z0F1200
G1 X121.704Y74.508Z0F1200
G1 X122.039Y74.758Z0F1200
G1 X122.194Y74.865Z0F1200
G1 X122.338Y74.953Z0F1200
G1 X122.467Y75.016Z0F1200
G1 X122.577Y75.049Z0F1200
G1 X122.676Y75.303Z0F1200
G1 X122.836Y75.521Z0F1200
G1 X122.904Y75.573Z0F1200
G1 X122.948Y75.564Z0F1200
G1 X122.955Y75.53Z0F1200
G1 X122.951Y75.475Z0F1200
G1 X122.935Y75.396Z0F1200
G1 X122.903Y75.29Z0F1200
G1 X122.641Y74.891Z0F1200
G1 X122.353Y74.529Z0F1200
G1 X122.259Y74.356Z0F1200
G1 X122.228Y74.186Z0F1200
G1 X122.244Y74.1Z0F1200
G1 X122.285Y74.015Z0F1200
G1 X122.353Y73.928Z0F1200
G1 X122.452Y73.841Z0F1200
G1 X122.544Y73.723Z0F1200
G1 X122.628Y73.599Z0F1200
G0 Z4.8F800
G0 X125.027Y76.584Z4.8F1500
G1 Z0F800
G1 X124.414Y76.561Z0F1200
G1 X123.428Y76.538Z0F1200
G1 X122.936Y76.523Z0F1200
G1 X122.664Y76.511Z0F1200
G1 X122.366Y76.496Z0F1200
G1 X122.034Y76.477Z0F1200
G1 X121.661Y76.451Z0F1200
G1 X121.238Y76.42Z0F1200
G1 X120.76Y76.381Z0F1200
G1 X120.218Y76.334Z0F1200
G1 X119.606Y76.278Z0F1200
G1 X118.812Y76.272Z0F1200
G1 X118.002Y76.235Z0F1200
G1 X117.193Y76.178Z0F1200
G1 X116.399Y76.113Z0F1200
G1 X116.282Y76.013Z0F1200
G1 X116.25Y75.945Z0F1200
G1 X116.284Y75.902Z0F1200
G1 X116.365Y75.877Z0F1200
G1 X116.592Y75.853Z0F1200
G1 X116.78Y75.816Z0F1200
G0 Z4.8F800
G0 X116.568Y83.49Z4.8F1500
G1 Z0F800
G1 X116.609Y83.548Z0F1200
G1 X116.647Y83.609Z0F1200
G1 X116.678Y83.643Z0F1200
G1 X116.715Y83.67Z0F1200
G1 X116.796Y83.718Z0F1200
G1 X116.842Y83.734Z0F1200
G1 X116.889Y83.747Z0F1200
G1 X116.921Y83.77Z0F1200
G1 X116.929Y83.805Z0F1200
G1 X116.916Y83.868Z0F1200
G1 X116.876Y83.921Z0F1200
G0 Z4.8F800
G0 X115.663Y83.835Z4.8F1500
G1 Z0F800
G1 Y83.874Z0F1200
G1 X115.659Y83.913Z0F1200
G1 X115.643Y83.948Z0F1200
G1 X115.615Y83.976Z0F1200
G1 X115.574Y84.022Z0F1200
G1 X115.549Y84.074Z0F1200
G1 X115.498Y84.112Z0F1200
G0 Z4.8F800
G0 X112.182Y81.7Z4.8F1500
G1 Z0F800
G1 X111.805Y81.641Z0F1200
G1 X111.419Y81.528Z0F1200
G1 X111.242Y81.448Z0F1200
G1 X111.085Y81.349Z0F1200
G1 X110.956Y81.229Z0F1200
G1 X110.863Y81.088Z0F1200
G1 X110.692Y80.777Z0F1200
G1 X110.575Y80.405Z0F1200
G1 X110.562Y80.22Z0F1200
G1 X110.595Y80.05Z0F1200
G1 X110.682Y79.904Z0F1200
G1 X110.836Y79.792Z0F1200
G1 X111.021Y79.799Z0F1200
G1 X111.2Y79.835Z0F1200
G1 X111.371Y79.897Z0F1200
G1 X111.532Y79.981Z0F1200
G1 X111.82Y80.204Z0F1200
G1 X112.053Y80.474Z0F1200
G1 X112.368Y81.009Z0F1200
G1 X112.649Y81.557Z0F1200
G1 X112.76Y81.805Z0F1200
G1 X112.89Y82.058Z0F1200
G1 X112.94Y82.115Z0F1200
G1 X112.969Y82.09Z0F1200
G1 X112.973Y82.037Z0F1200
G1 X112.968Y81.953Z0F1200
G1 X112.954Y81.834Z0F1200
G1 X112.928Y81.677Z0F1200
G1 X112.815Y81.382Z0F1200
G1 X112.652Y81.042Z0F1200
G1 X112.59Y80.874Z0F1200
G1 X112.565Y80.718Z0F1200
G1 X112.59Y80.581Z0F1200
G1 X112.683Y80.471Z0F1200
G1 X112.801Y80.375Z0F1200
G1 X112.935Y80.359Z0F1200
G1 X113.075Y80.407Z0F1200
G1 X113.212Y80.504Z0F1200
G1 X113.338Y80.636Z0F1200
G1 X113.443Y80.789Z0F1200
G1 X113.518Y80.947Z0F1200
G1 X113.555Y81.096Z0F1200
G1 X113.693Y81.395Z0F1200
G1 X113.897Y81.703Z0F1200
G1 X113.99Y81.816Z0F1200
G1 X114.058Y81.879Z0F1200
G1 X114.089Y81.874Z0F1200
G1 X114.068Y81.784Z0F1200
G1 X113.951Y81.477Z0F1200
G1 X113.918Y81.369Z0F1200
G1 X113.907Y81.283Z0F1200
G1 X113.828Y81.018Z0F1200
G1 X113.822Y80.708Z0F1200
G1 X113.863Y80.58Z0F1200
G1 X113.943Y80.495Z0F1200
G1 X114.069Y80.47Z0F1200
G1 X114.247Y80.523Z0F1200
G1 X114.412Y80.764Z0F1200
G1 X114.55Y81.029Z0F1200
G1 X114.655Y81.288Z0F1200
G1 X114.723Y81.51Z0F1200
G1 X114.832Y81.731Z0F1200
G1 X114.992Y81.926Z0F1200
G1 X115.06Y81.977Z0F1200
G1 X115.102Z0F1200
G1 X115.105Y81.911Z0F1200
G1 X115.057Y81.765Z0F1200
G1 X114.922Y81.404Z0F1200
G1 X114.826Y81.054Z0F1200
G1 X114.801Y80.896Z0F1200
G1 X114.796Y80.756Z0F1200
G1 X114.815Y80.641Z0F1200
G1 X114.861Y80.555Z0F1200
G1 X114.961Y80.614Z0F1200
G1 X115.061Y80.736Z0F1200
G1 X115.159Y80.9Z0F1200
G1 X115.354Y81.276Z0F1200
G1 X115.45Y81.449Z0F1200
G1 X115.546Y81.584Z0F1200
G1 X115.641Y81.662Z0F1200
G1 X115.723Y81.718Z0F1200
G1 X115.812Y81.781Z0F1200
G1 X115.846Y81.795Z0F1200
G1 X115.867Y81.788Z0F1200
G1 X115.87Y81.751Z0F1200
G1 X115.851Y81.676Z0F1200
G1 X115.696Y81.231Z0F1200
G1 X115.635Y81.04Z0F1200
G1 X115.594Y80.871Z0F1200
G1 X115.578Y80.725Z0F1200
G1 X115.594Y80.603Z0F1200
G1 X115.648Y80.506Z0F1200
G1 X115.745Y80.433Z0F1200
G1 X115.877Y80.441Z0F1200
G1 X116.01Y80.515Z0F1200
G1 X116.14Y80.637Z0F1200
G1 X116.265Y80.792Z0F1200
G1 X116.494Y81.132Z0F1200
G1 X116.679Y81.401Z0F1200
G1 X116.834Y81.636Z0F1200
G1 X116.948Y81.849Z0F1200
G1 X116.985Y81.907Z0F1200
G1 X117.008Y81.913Z0F1200
G1 X117.015Y81.849Z0F1200
G1 X117.004Y81.702Z0F1200
G1 X116.941Y81.397Z0F1200
G1 X116.875Y81.11Z0F1200
G1 X116.865Y80.973Z0F1200
G1 X116.884Y80.839Z0F1200
G1 X116.942Y80.709Z0F1200
G1 X117.049Y80.582Z0F1200
G1 X117.183Y80.569Z0F1200
G1 X117.272Y80.623Z0F1200
G1 X117.33Y80.727Z0F1200
G1 X117.371Y80.862Z0F1200
G1 X117.408Y81.01Z0F1200
G1 X117.455Y81.155Z0F1200
G1 X117.524Y81.278Z0F1200
G1 X117.63Y81.361Z0F1200
G1 X117.719Y81.44Z0F1200
G1 X117.79Y81.445Z0F1200
G1 X117.823Y81.411Z0F1200
G1 X117.859Y81.35Z0F1200
G1 X117.897Y81.257Z0F1200
G1 X117.942Y81.13Z0F1200
G1 X118.026Y80.964Z0F1200
G1 X118.129Y80.897Z0F1200
G1 X118.246Y80.907Z0F1200
G1 X118.369Y80.977Z0F1200
G1 X118.614Y81.219Z0F1200
G1 X118.812Y81.47Z0F1200
G1 X118.932Y81.652Z0F1200
G1 X119.079Y81.965Z0F1200
G1 X119.122Y82.043Z0F1200
G1 X119.162Y82.091Z0F1200
G1 X119.202Y82.101Z0F1200
G1 X119.288Y81.96Z0F1200
G1 X119.35Y81.853Z0F1200
G1 X119.458Y81.634Z0F1200
G1 X119.641Y81.438Z0F1200
G1 X119.743Y81.385Z0F1200
G1 X119.842Y81.382Z0F1200
G1 X119.932Y81.444Z0F1200
G1 X120.005Y81.586Z0F1200
G1 X120.052Y81.907Z0F1200
G1 X120.07Y82.259Z0F1200
G1 X120.101Y82.611Z0F1200
G1 X120.186Y82.931Z0F1200
G1 X120.225Y83.175Z0F1200
G1 X120.233Y83.409Z0F1200
G1 X120.221Y83.648Z0F1200
G1 X120.195Y83.905Z0F1200
G1 X120.154Y84.157Z0F1200
G1 X120.093Y84.392Z0F1200
G1 X120.037Y84.623Z0F1200
G1 X120.009Y84.859Z0F1200
G1 X119.948Y84.99Z0F1200
G1 X119.929Y85.086Z0F1200
G1 X119.952Y85.112Z0F1200
G1 X120.005Y85.117Z0F1200
G1 X120.096Y85.099Z0F1200
G1 X120.23Y85.053Z0F1200
G1 X120.553Y84.969Z0F1200
G1 X120.859Y84.833Z0F1200
G1 X121.124Y84.65Z0F1200
G1 X121.325Y84.425Z0F1200
G1 X121.462Y84.179Z0F1200
G1 X121.573Y83.93Z0F1200
G1 X121.668Y83.677Z0F1200
G1 X121.759Y83.421Z0F1200
G1 X121.816Y83.233Z0F1200
G1 X121.833Y83.072Z0F1200
G1 X121.813Y82.906Z0F1200
G1 X121.764Y82.701Z0F1200
G1 X121.711Y82.433Z0F1200
G1 X121.678Y82.218Z0F1200
G1 X121.652Y82.113Z0F1200
G1 X121.61Y81.999Z0F1200
G1 X121.545Y81.87Z0F1200
G1 X121.45Y81.718Z0F1200
G1 X121.063Y81.294Z0F1200
G1 X120.847Y81.113Z0F1200
G1 X120.579Y80.977Z0F1200
G1 X120.021Y80.709Z0F1200
G1 X119.468Y80.433Z0F1200
G1 X119.428Y80.369Z0F1200
G1 X119.46Y80.33Z0F1200
G1 X119.546Y80.31Z0F1200
G1 X119.669Y80.303Z0F1200
G1 X119.95Y80.308Z0F1200
G1 X120.893Y80.272Z0F1200
G1 X121.256Y80.238Z0F1200
G1 X121.608Y80.167Z0F1200
G1 X122.033Y80.056Z0F1200
G1 X122.429Y79.887Z0F1200
G1 X122.5Y79.841Z0F1200
G1 X122.587Y79.776Z0F1200
G1 X122.837Y79.57Z0F1200
G0 Z4.8F800
G0 X66.624Y77.147Z4.8F1500
G1 Z0F800
G1 X66.434Y77.358Z0F1200
G1 X66.23Y77.508Z0F1200
G1 X65.925Y77.55Z0F1200
G1 X65.587Y77.49Z0F1200
G1 X65.239Y77.225Z0F1200
G1 X65.063Y76.828Z0F1200
G1 X65.003Y76.449Z0F1200
G1 X65.151Y76.143Z0F1200
G1 X65.457Y75.86Z0F1200
G1 X65.999Y75.517Z0F1200
G1 X66.305Y75.234Z0F1200
G1 X66.406Y74.892Z0F1200
G1 X66.374Y74.555Z0F1200
G1 X66.23Y74.176Z0F1200
G1 X65.953Y73.891Z0F1200
G1 X65.559Y73.701Z0F1200
G1 X65.225Y73.72Z0F1200
G1 X64.948Y73.796Z0F1200
G1 X64.744Y73.947Z0F1200
G1 X64.521Y74.212Z0F1200
G0 Z4.8F800
G0 X59.948Y73.724Z4.8F1500
G1 Z0F800
G1 X60.07Y73.491Z0F1200
G1 X60.23Y73.322Z0F1200
G1 X60.413Y73.194Z0F1200
G1 X60.596Y73.173Z0F1200
G1 X60.88Y73.3Z0F1200
G1 X61.114Y73.576Z0F1200
G1 X61.309Y73.976Z0F1200
G1 X61.418Y74.447Z0F1200
G1 X61.445Y74.999Z0F1200
G1 X61.348Y75.423Z0F1200
G1 X61.102Y75.699Z0F1200
G1 X60.818Y75.739Z0F1200
G1 X60.596Y75.652Z0F1200
G1 X60.378Y75.464Z0F1200
G1 X60.351Y75.524Z0F1200
G1 X60.623Y77.308Z0F1200
G1 X61.628Z0F1200
G0 Z4.8F800
G0 X58.388Y77.328Z4.8F1500
G1 Z0F800
G1 X59.802Z0F1200
G1 X59.568Y76.884Z0F1200
G1 X59.334Y76.372Z0F1200
G1 X59.124Y75.827Z0F1200
G1 X58.906Y75.127Z0F1200
G1 X58.735Y74.319Z0F1200
G1 X58.563Y73.194Z0F1200
G0 Z4.8F800
G0 X56.122Y73.576Z4.8F1500
G1 Z0F800
G1 X56.243Y73.342Z0F1200
G1 X56.437Y73.216Z0F1200
G1 X56.671Y73.173Z0F1200
G1 X56.944Y73.385Z0F1200
G1 X57.212Y73.787Z0F1200
G1 X57.407Y74.4Z0F1200
G1 X57.543Y75.147Z0F1200
G1 X57.617Y75.847Z0F1200
G1 X57.605Y76.5Z0F1200
G1 X57.504Y77.012Z0F1200
G1 X57.31Y77.308Z0F1200
G1 X57.041Y77.395Z0F1200
G1 X56.745Y77.22Z0F1200
G1 X56.55Y76.924Z0F1200
G1 X56.402Y76.547Z0F1200
G1 X56.328Y76.164Z0F1200
G1 X56.305Y75.739Z0F1200
G1 X56.391Y75.295Z0F1200
G1 X56.613Y75.019Z0F1200
G1 X56.893Y74.952Z0F1200
G1 X57.247Y75.188Z0F1200
G1 X57.469Y75.504Z0F1200
G1 X57.617Y75.78Z0F1200
G0 Z4.8F800
G0 X55.211Y77.093Z4.8F1500
G1 Z0F800
G1 X54.81Y77.072Z0F1200
G1 X55.25Y77.348Z0F1200
G1 X54.833Y73.279Z0F1200
G1 X54.218Z0F1200
G1 X55.433Z0F1200
G0 Z4.8F800
G0 X53.384Y73.216Z4.8F1500
G1 Z0F800
G1 X53.42Y73.554Z0F1200
G1 X53.225Z0F1200
G1 X53.201Y73.216Z0F1200
G1 X53.384Z0F1200
G0 Z4.8F800
G0 X52.501Y73.279Z4.8F1500
G1 Z0F800
G1 X51.286Z0F1200
G1 X51.901Z0F1200
G1 X52.318Y77.348Z0F1200
G1 X51.877Y77.072Z0F1200
G1 X52.279Y77.093Z0F1200
G0 Z4.8F800
G0 X50.316Z4.8F1500
G1 Z0F800
G1 X49.915Y77.072Z0F1200
G1 X50.355Y77.348Z0F1200
G1 X49.938Y73.279Z0F1200
G1 X49.323Z0F1200
G1 X50.538Z0F1200
G0 Z4.8F800
G0 X48.49Y73.216Z4.8F1500
G1 Z0F800
G1 X48.525Y73.554Z0F1200
G1 X48.33Z0F1200
G1 X48.307Y73.216Z0F1200
G1 X48.49Z0F1200
G0 Z4.8F800
G0 X47.275Y73.173Z4.8F1500
G1 Z0F800
G1 X47.703Y77.308Z0F1200
G1 X46.27Y74.548Z0F1200
G1 X47.816Z0F1200
G0 Z4.8F800
G0 X48.614Y79.391Z4.8F1500
G1 Z0F800
G1 X48.698Y79.41Z0F1200
G1 X48.823Y79.535Z0F1200
G1 X48.879Y79.697Z0F1200
G1 X48.86Y79.769Z0F1200
G1 X48.776Y79.805Z0F1200
G1 X48.634Y79.715Z0F1200
G1 X48.52Y79.535Z0F1200
G1 X48.544Y79.428Z0F1200
G1 X48.614Y79.391Z0F1200
G0 Z4.8F800
G0 X21.967Y83.263Z4.8F1500
G1 Z0F800
G1 X21.929Y83.366Z0F1200
G1 X21.806Y83.327Z0F1200
G1 X21.711Y83.167Z0F1200
G1 X21.701Y83.084Z0F1200
G1 X21.756Y83.001Z0F1200
G1 X21.9Y83.104Z0F1200
G1 X21.967Y83.263Z0F1200
G0 Z4.8F800
G0 X22.779Y83.627Z4.8F1500
G1 Z0F800
G1 X23.196Z0F1200
G1 X21.611Y79.421Z0F1200
G1 X21.204Z0F1200
G1 X21.979Z0F1200
G1 X21.623Z0F1200
G1 X21.942Y80.286Z0F1200
G1 X23.92Y82.362Z0F1200
G1 X24.263Z0F1200
G1 X23.475Z0F1200
G1 X23.92Z0F1200
G1 X22.793Y81.193Z0F1200
G1 X22.932Y79.401Z0F1200
G1 X23.276Z0F1200
G1 X22.512Z0F1200
M9
M5
G1 Z10 F500
G90
G1 Z10 F800
