(GCode generated by: DrawingBotV3 Free 1.6.25 Stable)
(Time: 2025-12-04 at 23:06:55 CET)
G21 (programming in millimeters, mm)
G90 (programming in absolute positioning)
G28 (auto homing)
G1 F8000 (set speed)
G0 Z1


G0 X452.018 Y357.544
G1 Z0

G1 X466.053 Y354.035
G1 X466.053 Y340.000
G1 X504.649 Y354.035
G1 X511.667 Y340.000
G1 X536.228 Y259.298
G1 X539.737 Y69.825
G1 X550.263 Y76.842
G0 Z1

G0 X546.754 Y203.158
G1 Z0

G1 X532.719 Y238.246
G1 X525.702 Y266.316
G1 X501.140 Y322.456
G1 X466.053 Y311.930
G1 X430.965 Y336.491
G1 X423.947 Y325.965
G1 X392.368 Y515.439
G1 X381.842 Y511.930
G1 X378.333 Y525.965
G1 X360.789 Y504.912
G1 X353.772 Y508.421
G1 X346.754 Y497.895
G1 X336.228 Y497.895
G0 Z1

G0 X318.684 Y325.965
G1 Z0

G1 X259.035 Y378.596
G1 X259.035 Y389.123
G1 X255.526 Y396.140
G1 X230.965 Y361.053
G1 X220.439 Y347.018
G1 X188.860 Y452.281
G1 X59.035 Y389.123
G1 X37.982 Y371.579
G1 X30.965 Y385.614
G1 X-11.140 Y385.614
G1 X-32.193 Y448.772
G1 X-56.754 Y494.386
G1 X-67.281 Y494.386
G1 X-105.877 Y554.035
G1 X-109.386 Y578.596
G1 X-176.053 Y490.877
G1 X-211.140 Y497.895
G1 X-225.175 Y455.789
G1 X-253.246 Y434.737
G1 X-291.842 Y462.807
G1 X-302.368 Y441.754
G1 X-302.368 Y462.807
G0 Z1

G0 X-298.860 Y462.807
G1 Z0

G1 X-291.842 Y455.789
G1 X-274.298 Y445.263
G1 X-267.281 Y441.754
G1 X-267.281 Y431.228
G1 X-200.614 Y413.684
G0 Z1

G0 X-274.298 Y434.737
G1 Z0

G1 X-291.842 Y438.246
G0 Z1

G0 X-288.333 Y434.737
G1 Z0

G1 X-288.333 Y427.719
G1 X-242.719 Y368.070
G1 X-225.175 Y371.579
G1 X-242.719 Y62.807
G1 X-214.649 Y59.298
G1 X-190.088 Y76.842
G1 X-162.018 Y73.333
G1 X-91.842 Y104.912
G1 X-74.298 Y76.842
G1 X-32.193 Y94.386
G1 X227.456 Y301.404
G1 X259.035 Y161.053
G1 X276.579 Y189.123
G1 X406.404 Y343.509
G1 X409.912 Y318.947
G1 X409.912 Y290.877
G1 X416.930 Y294.386
G1 X441.491 Y231.228
G1 X462.544 Y238.246
G1 X480.088 Y276.842
G1 X504.649 Y241.754
G1 X518.684 Y217.193
G1 X543.246 Y248.772
G1 X546.754 Y238.246
G1 X546.754 Y220.702
G1 X550.263 Y213.684
G0 Z1

G0 X546.754 Y217.193
G1 Z0

G1 X525.702 Y231.228
G1 X522.193 Y241.754
G1 X508.158 Y238.246
G1 X494.123 Y231.228
G1 X487.105 Y238.246
G1 X480.088 Y238.246
G1 X437.982 Y248.772
G1 X406.404 Y238.246
G1 X392.368 Y227.719
G1 X287.105 Y385.614
G1 X227.456 Y410.175
G1 X188.860 Y340.000
G1 X157.281 Y361.053
G1 X153.772 Y368.070
G1 X146.754 Y420.702
G1 X129.211 Y417.193
G1 X87.105 Y413.684
G1 X80.088 Y410.175
G1 X73.070 Y417.193
G1 X59.035 Y434.737
G1 X23.947 Y424.211
G1 X-28.684 Y466.316
G1 X-144.474 Y466.316
G1 X-158.509 Y487.368
G1 X-207.632 Y483.860
G1 X-218.158 Y480.351
G1 X-246.228 Y480.351
G1 X-246.228 Y490.877
G1 X-260.263 Y504.912
G0 Z1

G0 X-263.772 Y504.912
G1 Z0

G1 X-263.772 Y459.298
G1 X-162.018 Y455.789
G1 X-151.491 Y452.281
G1 X-39.211 Y610.175
G1 X20.439 Y571.579
G1 X59.035 Y603.158
G1 X83.596 Y599.649
G1 X136.228 Y585.614
G1 X174.825 Y627.719
G1 X209.912 Y599.649
G1 X252.018 Y610.175
G1 X273.070 Y273.333
G1 X402.895 Y196.140
G1 X441.491 Y227.719
G1 X452.018 Y175.088
G1 X459.035 Y185.614
G1 X466.053 Y185.614
G1 X473.070 Y203.158
G1 X455.526 Y-158.246
G1 X508.158 Y-144.211
G1 X525.702 Y-196.842
G1 X546.754 Y-207.368
G1 X550.263 Y-214.386
G0 Z1

G0 X550.263 Y-112.632
G1 Z0

G1 X487.105 Y-31.930
G1 X452.018 Y-112.632
G1 X427.456 Y-158.246
G1 X423.947 Y-130.175
G1 X423.947 Y-60.000
G1 X399.386 Y-35.439
G1 X395.877 Y6.667
G1 X395.877 Y52.281
G1 X378.333 Y52.281
G1 X371.316 Y38.246
G1 X371.316 Y45.263
G0 Z1

G0 X283.596 Y199.649
G1 Z0

G1 X290.614 Y210.175
G1 X315.175 Y248.772
G1 X350.263 Y252.281
G1 X378.333 Y245.263
G1 X392.368 Y280.351
G1 X409.912 Y283.860
G1 X466.053 Y308.421
G1 X476.579 Y287.368
G1 X497.632 Y276.842
G1 X532.719 Y255.789
G1 X550.263 Y276.842
G1 X550.263 Y248.772
G0 Z1

G0 X550.263 Y318.947
G1 Z0

G1 X550.263 Y357.544
G1 X546.754 Y375.088
G1 X518.684 Y413.684
G1 X518.684 Y434.737
G1 X504.649 Y427.719
G1 X473.070 Y371.579
G1 X473.070 Y378.596
G1 X459.035 Y357.544
G1 X399.386 Y554.035
G1 X385.351 Y571.579
G1 X357.281 Y547.018
G1 X350.263 Y529.474
G1 X241.491 Y547.018
G1 X237.982 Y610.175
G1 X220.439 Y627.719
G1 X83.596 Y652.281
G1 X69.561 Y641.754
G1 X-190.088 Y532.982
G1 X-221.667 Y529.474
G1 X-246.228 Y501.404
G1 X-256.754 Y504.912
G0 Z1

G0 X-242.719 Y497.895
G1 Z0

G1 X-232.193 Y494.386
G1 X-228.684 Y487.368
G1 X-186.579 Y522.456
G1 X-176.053 Y501.404
G1 X-162.018 Y515.439
G1 X-137.456 Y508.421
G1 X-130.439 Y518.947
G1 X-88.333 Y575.088
G1 X-42.719 Y497.895
G1 X-7.632 Y413.684
G1 X9.912 Y406.667
G1 X27.456 Y452.281
G1 X34.474 Y459.298
G1 X66.053 Y511.930
G1 X139.737 Y550.526
G1 X241.491 Y515.439
G1 X241.491 Y508.421
G1 X269.561 Y501.404
G1 X343.246 Y547.018
G1 X374.825 Y610.175
G1 X381.842 Y603.158
G1 X399.386 Y561.053
G1 X452.018 Y571.579
G1 X550.263 Y666.316
G0 Z1

G0 X550.263 Y490.877
G1 Z0

G1 X522.193 Y410.175
G1 X497.632 Y399.649
G1 X487.105 Y385.614
G1 X476.579 Y368.070
G1 X473.070 Y403.158
G1 X459.035 Y392.632
G1 X409.912 Y462.807
G1 X199.386 Y554.035
G1 X192.368 Y550.526
G1 X153.772 Y575.088
G1 X143.246 Y561.053
G1 X139.737 Y578.596
G1 X87.105 Y578.596
G1 X80.088 Y564.561
G1 X37.982 Y522.456
G1 X-105.877 Y631.228
G1 X-162.018 Y518.947
G1 X-186.579 Y525.965
G1 X-197.105 Y518.947
G1 X-218.158 Y469.825
G1 X-225.175 Y466.316
G1 X-232.193 Y466.316
G1 X-239.211 Y469.825
G1 X-253.246 Y473.333
G0 Z1

G0 X-242.719 Y490.877
G1 Z0

G1 X-242.719 Y483.860
G1 X-214.649 Y540.000
G1 X-186.579 Y536.491
G1 X-130.439 Y620.702
G1 X-88.333 Y578.596
G1 X-56.754 Y655.789
G1 X48.509 Y652.281
G1 X83.596 Y659.298
G1 X118.684 Y631.228
G1 X157.281 Y617.193
G1 X157.281 Y603.158
G1 X167.807 Y603.158
G1 X195.877 Y627.719
G1 X213.421 Y610.175
G1 X213.421 Y596.140
G1 X220.439 Y589.123
G1 X230.965 Y596.140
G1 X248.509 Y603.158
G1 X259.035 Y592.632
G1 X273.070 Y592.632
G1 X304.649 Y655.789
G1 X325.702 Y641.754
G1 X325.702 Y620.702
G1 X360.789 Y543.509
G1 X395.877 Y578.596
G1 X402.895 Y564.561
G1 X466.053 Y357.544
G1 X473.070 Y368.070
G1 X476.579 Y347.018
G1 X504.649 Y382.105
G1 X515.175 Y368.070
G1 X550.263 Y371.579
G0 Z1

G0 X532.719 Y455.789
G1 Z0

G1 X539.737 Y659.298
G1 X515.175 Y715.439
G1 X473.070 Y740.000
G1 X413.421 Y603.158
G1 X395.877 Y582.105
G1 X395.877 Y610.175
G1 X318.684 Y641.754
G1 X311.667 Y645.263
G1 X290.614 Y645.263
G1 X273.070 Y666.316
G1 X216.930 Y631.228
G1 X171.316 Y655.789
G1 X153.772 Y627.719
G1 X122.193 Y624.211
G1 X45.000 Y620.702
G1 X-211.140 Y410.175
G1 X-260.263 Y417.193
G1 X-260.263 Y473.333
G1 X-281.316 Y466.316
G1 X-298.860 Y466.316
G0 Z1

G0 X-330.439 Y413.684
G1 Z0

G1 X-323.421 Y417.193
G1 X-312.895 Y399.649
G1 X-298.860 Y431.228
G1 X-274.298 Y438.246
G1 X-190.088 Y578.596
G1 X-183.070 Y547.018
G1 X-28.684 Y508.421
G1 X30.965 Y540.000
G1 X69.561 Y536.491
G1 X136.228 Y575.088
G1 X139.737 Y561.053
G1 X181.842 Y554.035
G1 X188.860 Y543.509
G1 X202.895 Y550.526
G1 X209.912 Y532.982
G1 X230.965 Y536.491
G1 X339.737 Y547.018
G1 X339.737 Y501.404
G1 X346.754 Y504.912
G1 X346.754 Y483.860
G1 X353.772 Y483.860
G1 X353.772 Y431.228
G1 X385.351 Y462.807
G1 X395.877 Y452.281
G1 X399.386 Y361.053
G1 X409.912 Y357.544
G1 X441.491 Y382.105
G1 X448.509 Y357.544
G1 X455.526 Y354.035
G1 X469.561 Y357.544
G1 X518.684 Y396.140
G1 X550.263 Y480.351
G0 Z1

G0 X-74.298 Y-245.965
G1 Z0

G1 X-67.281 Y-242.456
G1 X-53.246 Y-249.474
G1 X-32.193 Y-249.474
G1 X-28.684 Y-256.491
G1 X-18.158 Y-242.456
G1 X-4.123 Y-252.982
G1 X48.509 Y-221.404
G1 X94.123 Y-242.456
G1 X290.614 Y-393.333
G1 X311.667 Y-386.316
G1 X318.684 Y-389.825
G1 X325.702 Y-396.842
G1 X371.316 Y-424.912
G1 X459.035 Y-498.597
G1 X490.614 Y-523.158
G1 X487.105 Y-607.368
G1 X490.614 Y-614.386
G1 X550.263 Y-614.386
G0 Z1

G0 X550.263 Y-638.947
G1 Z0

G1 X469.561 Y-642.456
G1 X452.018 Y-607.368
G1 X420.439 Y-638.947
G1 X409.912 Y-603.860
G1 X336.228 Y-610.877
G1 X311.667 Y-621.404
G1 X252.018 Y-596.842
G1 X223.947 Y-572.281
G1 X150.263 Y-624.912
G1 X108.158 Y-733.684
G1 X90.614 Y-712.632
G1 X87.105 Y-600.351
G1 X76.579 Y-600.351
G1 X27.456 Y-719.649
G1 X-4.123 Y-733.684
G1 X-35.702 Y-702.105
G1 X-35.702 Y-695.088
G1 X-162.018 Y-561.754
G1 X-165.526 Y-547.719
G1 X-260.263 Y-519.649
G1 X-277.807 Y-530.175
G1 X-284.825 Y-516.140
G1 X-326.930 Y-533.684
G1 X-344.474 Y-452.982
G1 X-351.491 Y-452.982
G0 Z1

G0 X-351.491 Y-456.491
G1 Z0

G1 X-309.386 Y-456.491
G1 X-267.281 Y-424.912
G1 X-256.754 Y-424.912
G1 X-249.737 Y-435.439
G1 X-246.228 Y-456.491
G1 X-239.211 Y-456.491
G1 X-211.140 Y-477.544
G1 X-207.632 Y-470.526
G1 X-179.561 Y-467.018
G1 X-130.439 Y-688.070
G1 X-119.912 Y-691.579
G1 X-116.404 Y-730.175
G1 X-95.351 Y-733.684
G1 X-53.246 Y-652.982
G1 X13.421 Y-663.509
G1 X23.947 Y-638.947
G1 X30.965 Y-663.509
G1 X55.526 Y-635.439
G1 X97.632 Y-667.018
G1 X101.140 Y-674.035
G1 X118.684 Y-652.982
G1 X132.719 Y-649.474
G1 X220.439 Y-631.930
G1 X318.684 Y-551.228
G1 X339.737 Y-554.737
G1 X339.737 Y-716.140
G1 X357.281 Y-726.667
G1 X388.860 Y-730.175
G1 X395.877 Y-726.667
G1 X406.404 Y-705.614
G1 X413.421 Y-709.123
G1 X455.526 Y-660.000
G1 X480.088 Y-674.035
G1 X490.614 Y-660.000
G1 X494.123 Y-649.474
G1 X550.263 Y-645.965
G0 Z1

G0 X546.754 Y-642.456
G1 Z0

G1 X539.737 Y-603.860
G1 X539.737 Y-586.316
G1 X483.597 Y-589.825
G1 X462.544 Y-600.351
G1 X301.140 Y-554.737
G1 X297.632 Y-537.193
G1 X273.070 Y-544.211
G1 X269.561 Y-537.193
G1 X252.018 Y-442.456
G1 X245.000 Y-452.982
G1 X241.491 Y-386.316
G1 X6.404 Y-344.211
G1 X9.912 Y-260.000
G1 X9.912 Y-252.982
G1 X-28.684 Y-242.456
G1 X-49.737 Y-231.930
G1 X-70.789 Y-260.000
G1 X-140.965 Y-217.895
G1 X-277.807 Y-182.807
G1 X-337.456 Y-165.263
G1 X-414.649 Y-200.351
G1 X-414.649 Y-116.140
G1 X-421.667 Y-109.123
G0 Z1

G0 X-421.667 Y-116.140
G1 Z0

G1 X-421.667 Y-210.877
G1 X-411.140 Y-200.351
G1 X-414.649 Y-245.965
G1 X-414.649 Y-316.140
G1 X-390.088 Y-340.702
G1 X-379.561 Y-354.737
G1 X-379.561 Y-368.772
G1 X-376.053 Y-379.298
G1 X-340.965 Y-358.246
G1 X-333.947 Y-361.754
G1 X-295.351 Y-410.877
G1 X-274.298 Y-410.877
G1 X-25.175 Y-509.123
G1 X30.965 Y-610.877
G1 X66.053 Y-607.368
G1 X69.561 Y-614.386
G1 X76.579 Y-635.439
G1 X171.316 Y-456.491
G1 X185.351 Y-456.491
G1 X230.965 Y-428.421
G1 X230.965 Y-435.439
G1 X315.175 Y-407.368
G1 X494.123 Y-540.702
G1 X529.211 Y-530.175
G1 X550.263 Y-519.649
G0 Z1

G0 X550.263 Y-509.123
G1 Z0

G1 X550.263 Y-491.579
G1 X525.702 Y-526.667
G1 X518.684 Y-505.614
G1 X515.175 Y-512.632
G1 X508.158 Y-491.579
G1 X487.105 Y-544.211
G1 X445.000 Y-516.140
G1 X416.930 Y-509.123
G1 X262.544 Y-372.281
G1 X223.947 Y-403.860
G1 X108.158 Y-628.421
G1 X-165.526 Y-460.000
G1 X-211.140 Y-175.789
G1 X-270.789 Y-193.333
G1 X-277.807 Y-161.754
G1 X-312.895 Y-133.684
G1 X-390.088 Y-168.772
G1 X-397.105 Y-175.789
G1 X-414.649 Y-214.386
G1 X-414.649 Y-207.368
G0 Z1

G0 X-418.158 Y-102.105
G1 Z0

G1 X-400.614 Y-98.596
G1 X-358.509 Y-81.053
G1 X-323.421 Y-200.351
G1 X-281.316 Y-133.684
G1 X-263.772 Y-270.526
G1 X-256.754 Y-277.544
G1 X-221.667 Y-417.895
G1 X-193.596 Y-400.351
G1 X-32.193 Y-256.491
G1 X-28.684 Y-270.526
G1 X62.544 Y-256.491
G1 X76.579 Y-245.965
G1 X83.596 Y-242.456
G1 X94.123 Y-252.982
G1 X157.281 Y-252.982
G1 X413.421 Y-568.772
G1 X416.930 Y-579.298
G1 X416.930 Y-603.860
G1 X448.509 Y-645.965
G1 X459.035 Y-642.456
G1 X462.544 Y-635.439
G1 X469.561 Y-635.439
G1 X522.193 Y-540.702
G1 X532.719 Y-544.211
G1 X546.754 Y-537.193
G1 X550.263 Y-544.211
G0 Z1

G0 X546.754 Y-547.719
G1 Z0

G1 X539.737 Y-561.754
G1 X497.632 Y-505.614
G1 X487.105 Y-488.070
G1 X409.912 Y-530.175
G1 X399.386 Y-523.158
G1 X388.860 Y-502.105
G1 X371.316 Y-491.579
G1 X350.263 Y-452.982
G1 X290.614 Y-586.316
G1 X283.596 Y-589.825
G1 X266.053 Y-575.790
G1 X230.965 Y-575.790
G1 X213.421 Y-572.281
G1 X174.825 Y-561.754
G1 X-28.684 Y-309.123
G1 X-53.246 Y-330.175
G1 X-295.351 Y-84.561
G1 X-312.895 Y-126.667
G1 X-326.930 Y-123.158
G1 X-326.930 Y-112.632
G1 X-337.456 Y-84.561
G1 X-407.632 Y-109.123
G1 X-418.158 Y-95.088
G1 X-453.246 Y-70.526
G1 X-460.263 Y-74.035
G0 Z1

G0 X-460.263 Y-70.526
G1 Z0

G1 X-456.754 Y-77.544
G1 X-446.228 Y-81.053
G1 X-442.719 Y-137.193
G1 X-425.175 Y-158.246
G1 X-421.667 Y-165.263
G1 X-418.158 Y-316.140
G1 X-316.404 Y-312.632
G1 X-256.754 Y-302.105
G1 X-172.544 Y-431.930
G1 X-158.509 Y-421.404
G1 X-151.491 Y-456.491
G1 X-123.421 Y-452.982
G1 X-84.825 Y-460.000
G1 X-74.298 Y-460.000
G1 X-46.228 Y-467.018
G1 X6.404 Y-516.140
G1 X34.474 Y-600.351
G1 X41.491 Y-593.333
G1 X101.140 Y-540.702
G1 X108.158 Y-540.702
G1 X245.000 Y-572.281
G1 X273.070 Y-530.175
G1 X364.298 Y-488.070
G1 X367.807 Y-505.614
G1 X434.474 Y-575.790
G1 X455.526 Y-579.298
G1 X455.526 Y-631.930
G1 X466.053 Y-603.860
G1 X490.614 Y-652.982
G1 X497.632 Y-652.982
G1 X511.667 Y-642.456
G1 X518.684 Y-645.965
G1 X546.754 Y-688.070
G1 X550.263 Y-695.088
G0 Z1

G0 X550.263 Y-677.544
G1 Z0

G1 X497.632 Y-688.070
G1 X487.105 Y-719.649
G1 X480.088 Y-719.649
G1 X437.982 Y-723.158
G1 X420.439 Y-730.175
G1 X406.404 Y-733.684
G1 X392.368 Y-719.649
G1 X360.789 Y-723.158
G1 X353.772 Y-649.474
G1 X336.228 Y-663.509
G1 X301.140 Y-509.123
G1 X297.632 Y-474.035
G1 X297.632 Y-463.509
G1 X252.018 Y-431.930
G1 X115.175 Y-558.246
G1 X76.579 Y-537.193
G1 X27.456 Y-670.526
G1 X20.439 Y-667.018
G1 X-42.719 Y-702.105
G1 X-130.439 Y-638.947
G1 X-151.491 Y-617.895
G1 X-183.070 Y-593.333
G1 X-242.719 Y-579.298
G1 X-263.772 Y-575.790
G1 X-263.772 Y-558.246
G1 X-281.316 Y-512.632
G1 X-333.947 Y-481.053
G1 X-337.456 Y-474.035
G1 X-351.491 Y-470.526
G1 X-358.509 Y-463.509
G0 Z1

G0 X-347.982 Y-424.912
G1 Z0

G1 X-340.965 Y-417.895
G1 X-337.456 Y-424.912
G1 X-260.263 Y-516.140
G1 X-242.719 Y-519.649
G1 X-193.596 Y-607.368
G1 X-190.088 Y-617.895
G1 X-183.070 Y-631.930
G1 X-144.474 Y-645.965
G1 X-126.930 Y-617.895
G1 X-116.404 Y-645.965
G1 X-116.404 Y-663.509
G1 X-109.386 Y-674.035
G1 X-91.842 Y-684.561
G1 X-88.333 Y-674.035
G1 X-11.140 Y-589.825
G1 X20.439 Y-596.842
G1 X37.982 Y-628.421
G1 X55.526 Y-631.930
G1 X66.053 Y-610.877
G1 X80.088 Y-621.404
G1 X266.053 Y-726.667
G1 X315.175 Y-596.842
G1 X332.719 Y-681.053
G1 X360.789 Y-667.018
G1 X374.825 Y-663.509
G1 X413.421 Y-670.526
G1 X416.930 Y-677.544
G1 X434.474 Y-670.526
G1 X437.982 Y-663.509
G1 X462.544 Y-649.474
G1 X469.561 Y-652.982
G1 X473.070 Y-667.018
G1 X490.614 Y-624.912
G1 X494.123 Y-631.930
G0 Z1

G0 X416.930 Y-582.807
G1 Z0

G1 X399.386 Y-579.298
G1 X364.298 Y-589.825
G1 X339.737 Y-589.825
G1 X332.719 Y-593.333
G1 X332.719 Y-547.719
G1 X304.649 Y-547.719
G1 X294.123 Y-481.053
G1 X171.316 Y-579.298
G1 X160.789 Y-589.825
G1 X-123.421 Y-579.298
G1 X-151.491 Y-554.737
G1 X-186.579 Y-614.386
G1 X-239.211 Y-614.386
G1 X-267.281 Y-519.649
G1 X-291.842 Y-533.684
G1 X-298.860 Y-533.684
G0 Z1

G0 X-347.982 Y-421.404
G1 Z0

G1 X-340.965 Y-414.386
G1 X-333.947 Y-417.895
G1 X-319.912 Y-403.860
G1 X-312.895 Y-424.912
G1 X-263.772 Y-333.684
G1 X-256.754 Y-330.175
G1 X-176.053 Y-445.965
G1 X-179.561 Y-533.684
G1 X-169.035 Y-530.175
G1 X-49.737 Y-481.053
G1 X115.175 Y-547.719
G1 X160.789 Y-572.281
G1 X332.719 Y-519.649
G1 X367.807 Y-519.649
G1 X371.316 Y-540.702
G1 X374.825 Y-593.333
G1 X388.860 Y-596.842
G1 X399.386 Y-596.842
G1 X409.912 Y-589.825
G1 X413.421 Y-596.842
G1 X420.439 Y-698.597
G1 X476.579 Y-709.123
G1 X487.105 Y-698.597
G1 X532.719 Y-730.175
G1 X536.228 Y-723.158
G1 X543.246 Y-726.667
G1 X543.246 Y-733.684
G1 X550.263 Y-726.667
G0 Z1



G0 X543.246 Y-712.632
G1 Z0

G1 X543.246 Y-730.175
G1 X550.263 Y-726.667
G1 X550.263 Y-733.684
G0 Z1

G0 X546.754 Y-733.684
G1 Z0

G1 X536.228 Y-733.684
G1 X532.719 Y-719.649
G1 X525.702 Y-716.140
G1 X490.614 Y-719.649
G1 X483.597 Y-733.684
G1 X473.070 Y-642.456
G1 X473.070 Y-624.912
G1 X466.053 Y-596.842
G1 X455.526 Y-600.351
G1 X399.386 Y-526.667
G1 X276.579 Y-614.386
G1 X129.211 Y-551.228
G1 X-4.123 Y-470.526
G1 X-21.667 Y-463.509
G1 X-147.982 Y-445.965
G1 X-165.526 Y-379.298
G1 X-242.719 Y-263.509
G1 X-263.772 Y-260.000
G1 X-270.789 Y-274.035
G1 X-340.965 Y-228.421
G1 X-340.965 Y-221.404
G1 X-379.561 Y-238.947
G1 X-390.088 Y-270.526
G1 X-397.105 Y-267.018
G0 Z1

G0 X-393.596 Y-270.526
G1 Z0

G1 X-393.596 Y-277.544
G1 X-397.105 Y-347.719
G1 X-386.579 Y-344.211
G1 X-379.561 Y-333.684
G1 X-369.035 Y-414.386
G1 X-344.474 Y-431.930
G1 X-333.947 Y-424.912
G1 X-326.930 Y-421.404
G1 X-239.211 Y-505.614
G1 X-126.930 Y-438.947
G1 X-4.123 Y-463.509
G1 X185.351 Y-582.807
G1 X185.351 Y-624.912
G1 X364.298 Y-645.965
G1 X374.825 Y-638.947
G1 X378.333 Y-656.491
G1 X437.982 Y-670.526
G1 X459.035 Y-645.965
G1 X469.561 Y-649.474
G1 X480.088 Y-642.456
G1 X487.105 Y-624.912
G1 X494.123 Y-617.895
G1 X518.684 Y-572.281
G1 X525.702 Y-600.351
G1 X550.263 Y-582.807
G0 Z1

G0 X550.263 Y-579.298
G1 Z0

G1 X420.439 Y-242.456
G1 X381.842 Y-256.491
G1 X364.298 Y-284.561
G1 X45.000 Y-217.895
G1 X6.404 Y-245.965
G1 X-25.175 Y-333.684
G1 X-25.175 Y-161.754
G1 X-42.719 Y-165.263
G1 X-25.175 Y90.877
G1 X-32.193 Y108.421
G1 X-74.298 Y94.386
G1 X-81.316 Y94.386
G1 X-84.825 Y104.912
G1 X-137.456 Y73.333
G1 X-158.509 Y73.333
G1 X-260.263 Y325.965
G1 X-288.333 Y396.140
G1 X-295.351 Y396.140
G1 X-295.351 Y427.719
G1 X-298.860 Y420.702
G1 X-302.368 Y427.719
G0 Z1

G0 X-242.719 Y462.807
G1 Z0

G1 X-228.684 Y462.807
G1 X-228.684 Y452.281
G1 X-207.632 Y424.211
G1 X-151.491 Y480.351
G1 X-140.965 Y476.842
G1 X-133.947 Y483.860
G1 X-116.404 Y434.737
G1 X-14.649 Y438.246
G1 X27.456 Y392.632
G1 X66.053 Y392.632
G1 X76.579 Y364.561
G1 X83.596 Y368.070
G1 X220.439 Y473.333
G1 X322.193 Y441.754
G1 X336.228 Y476.842
G1 X332.719 Y406.667
G1 X402.895 Y452.281
G1 X406.404 Y441.754
G1 X420.439 Y452.281
G1 X413.421 Y336.491
G1 X416.930 Y311.930
G1 X437.982 Y336.491
G1 X452.018 Y357.544
G0 Z1

G0 X455.526 Y283.860
G1 Z0

G1 X420.439 Y259.298
G1 X409.912 Y266.316
G1 X385.351 Y248.772
G1 X160.789 Y294.386
G1 X62.544 Y406.667
G1 X45.000 Y424.211
G1 X-.614 Y371.579
G1 X-11.140 Y382.105
G1 X-35.702 Y389.123
G1 X-35.702 Y434.737
G1 X-39.211 Y441.754
G0 Z1

G0 X-39.211 Y427.719
G1 Z0

G1 X-39.211 Y420.702
G1 X-32.193 Y413.684
G1 X37.982 Y385.614
G1 X48.509 Y368.070
G1 X192.368 Y529.474
G1 X199.386 Y532.982
G1 X420.439 Y455.789
G1 X437.982 Y441.754
G1 X455.526 Y420.702
G1 X504.649 Y399.649
G1 X518.684 Y389.123
G1 X515.175 Y294.386
G1 X550.263 Y301.404
G0 Z1

G0 X550.263 Y315.439
G1 Z0

G1 X511.667 Y347.018
G1 X490.614 Y329.474
G1 X483.597 Y343.509
G1 X466.053 Y332.982
G1 X455.526 Y322.456
G1 X437.982 Y340.000
G1 X280.088 Y375.088
G1 X237.982 Y483.860
G1 X220.439 Y480.351
G1 X206.404 Y480.351
G1 X115.175 Y508.421
G1 X108.158 Y504.912
G1 X108.158 Y515.439
G1 X97.632 Y501.404
G1 X37.982 Y441.754
G1 X6.404 Y438.246
G1 X-.614 Y427.719
G1 X-28.684 Y413.684
G1 X-25.175 Y483.860
G1 X-39.211 Y480.351
G1 X-130.439 Y497.895
G1 X-126.930 Y525.965
G1 X-151.491 Y494.386
G1 X-225.175 Y501.404
G1 X-232.193 Y497.895
G1 X-249.737 Y511.930
G1 X-256.754 Y508.421
G1 X-263.772 Y508.421
G0 Z1

G0 X-253.246 Y508.421
G1 Z0

G1 X-253.246 Y501.404
G1 X-235.702 Y490.877
G1 X-221.667 Y476.842
G1 X-221.667 Y455.789
G1 X-183.070 Y445.263
G1 X-151.491 Y445.263
G1 X-39.211 Y669.825
G1 X13.421 Y613.684
G1 X83.596 Y603.158
G1 X157.281 Y585.614
G1 X153.772 Y529.474
G1 X248.509 Y599.649
G1 X227.456 Y220.702
G1 X255.526 Y259.298
G1 X287.105 Y311.930
G1 X287.105 Y287.368
G1 X297.632 Y269.825
G1 X385.351 Y283.860
G1 X409.912 Y280.351
G1 X437.982 Y252.281
G1 X466.053 Y231.228
G1 X466.053 Y224.211
G1 X497.632 Y241.754
G1 X504.649 Y238.246
G1 X504.649 Y220.702
G1 X515.175 Y241.754
G1 X529.211 Y224.211
G1 X546.754 Y199.649
G1 X550.263 Y192.632
G1 X550.263 Y185.614
G0 Z1

G0 X550.263 Y175.088
G1 Z0

G1 X515.175 Y199.649
G1 X515.175 Y213.684
G1 X497.632 Y227.719
G1 X497.632 Y238.246
G1 X490.614 Y241.754
G1 X487.105 Y252.281
G1 X480.088 Y343.509
G1 X480.088 Y371.579
G1 X462.544 Y325.965
G1 X459.035 Y336.491
G1 X452.018 Y347.018
G1 X423.947 Y347.018
G1 X234.474 Y420.702
G1 X227.456 Y420.702
G1 X69.561 Y501.404
G1 X37.982 Y466.316
G1 X45.000 Y568.070
G1 X34.474 Y568.070
G1 X-39.211 Y617.193
G1 X-84.825 Y582.105
G1 X-88.333 Y610.175
G1 X-88.333 Y620.702
G1 X-133.947 Y589.123
G1 X-140.965 Y585.614
G1 X-147.982 Y575.088
G0 Z1

G0 X-102.368 Y617.193
G1 Z0

G1 X-98.860 Y624.211
G1 X-88.333 Y624.211
G1 X-70.789 Y599.649
G1 X-39.211 Y620.702
G1 X-32.193 Y606.667
G1 X-39.211 Y497.895
G1 X-21.667 Y494.386
G1 X6.404 Y364.561
G1 X23.947 Y364.561
G1 X55.526 Y361.053
G1 X76.579 Y382.105
G1 X195.877 Y290.877
G1 X202.895 Y304.912
G1 X230.965 Y336.491
G1 X294.123 Y178.596
G1 X311.667 Y140.000
G1 X311.667 Y132.982
G1 X374.825 Y213.684
G1 X395.877 Y217.193
G1 X406.404 Y196.140
G1 X430.965 Y168.070
G1 X430.965 Y147.018
G1 X434.474 Y154.035
G1 X441.491 Y143.509
G1 X448.509 Y143.509
G1 X448.509 Y132.982
G1 X501.140 Y147.018
G1 X550.263 Y97.895
G0 Z1

G0 X550.263 Y129.474
G1 Z0

G1 X525.702 Y143.509
G1 X501.140 Y171.579
G1 X501.140 Y227.719
G1 X473.070 Y196.140
G1 X452.018 Y136.491
G1 X437.982 Y104.912
G1 X434.474 Y115.439
G1 X406.404 Y122.456
G1 X392.368 Y83.860
G1 X283.596 Y108.421
G1 X283.596 Y189.123
G0 Z1

G0 X283.596 Y192.632
G1 Z0

G1 X287.105 Y185.614
G1 X406.404 Y227.719
G1 X406.404 Y210.175
G1 X413.421 Y220.702
G1 X413.421 Y199.649
G1 X441.491 Y220.702
G1 X459.035 Y224.211
G1 X469.561 Y238.246
G1 X476.579 Y234.737
G1 X476.579 Y210.175
G1 X483.597 Y213.684
G1 X501.140 Y252.281
G1 X508.158 Y245.263
G1 X529.211 Y266.316
G1 X536.228 Y252.281
G1 X550.263 Y269.825
G0 Z1

G0 X546.754 Y227.719
G1 Z0

G1 X522.193 Y217.193
G1 X518.684 Y206.667
G1 X511.667 Y245.263
G1 X480.088 Y336.491
G1 X466.053 Y322.456
G1 X459.035 Y350.526
G1 X420.439 Y294.386
G1 X413.421 Y297.895
G1 X385.351 Y280.351
G1 X378.333 Y262.807
G1 X371.316 Y262.807
G0 Z1

G0 X283.596 Y196.140
G1 Z0

G1 X290.614 Y196.140
G1 X297.632 Y192.632
G1 X378.333 Y-45.965
G1 X399.386 Y-38.947
G1 X406.404 Y-60.000
G1 X420.439 Y-60.000
G1 X427.456 Y-67.018
G1 X448.509 Y-42.456
G1 X466.053 Y-10.877
G1 X490.614 Y-21.404
G1 X543.246 Y-186.316
G1 X550.263 Y-207.368
G0 Z1

G0 X550.263 Y-84.561
G1 Z0

G1 X511.667 Y-105.614
G1 X473.070 Y-60.000
G1 X455.526 Y-67.018
G1 X416.930 Y-165.263
G1 X413.421 Y-151.228
G1 X402.895 Y-154.737
G1 X413.421 Y41.754
G1 X399.386 Y59.298
G1 X388.860 Y90.877
G1 X318.684 Y406.667
G1 X301.140 Y413.684
G1 X304.649 Y455.789
G1 X234.474 Y561.053
G1 X199.386 Y561.053
G1 X153.772 Y578.596
G1 X73.070 Y515.439
G1 X62.544 Y518.947
G1 X-32.193 Y487.368
G1 X-49.737 Y487.368
G1 X-63.772 Y490.877
G1 X-63.772 Y501.404
G0 Z1

G0 X343.246 Y511.930
G1 Z0

G1 X343.246 Y504.912
G1 X353.772 Y518.947
G1 X360.789 Y511.930
G1 X395.877 Y543.509
G1 X539.737 Y740.000
G1 X550.263 Y722.456
G0 Z1

G0 X357.281 Y132.982
G1 Z0

G1 X364.298 Y125.965
G1 X388.860 Y129.474
G1 X395.877 Y118.947
G1 X402.895 Y118.947
G1 X413.421 Y94.386
G1 X420.439 Y66.316
G1 X445.000 Y83.860
G1 X455.526 Y66.316
G1 X480.088 Y31.228
G1 X546.754 Y48.772
G1 X550.263 Y-3.860
G0 Z1

G0 X550.263 Y-565.263
G1 Z0

G1 X550.263 Y-526.667
G1 X515.175 Y-540.702
G1 X480.088 Y-551.228
G1 X437.982 Y-558.246
G1 X399.386 Y-516.140
G1 X318.684 Y-540.702
G1 X252.018 Y-481.053
G1 X178.333 Y-263.509
G1 X164.298 Y-217.895
G1 X132.719 Y-245.965
G1 X87.105 Y-260.000
G1 X55.526 Y-249.474
G1 X34.474 Y-245.965
G1 X16.930 Y-256.491
G1 X-18.158 Y-228.421
G1 X-242.719 Y-231.930
G1 X-267.281 Y-217.895
G1 X-295.351 Y-214.386
G1 X-302.368 Y-217.895
G1 X-305.877 Y-210.877
G1 X-312.895 Y-203.860
G1 X-337.456 Y-200.351
G1 X-337.456 Y-193.333
G1 X-376.053 Y-224.912
G1 X-379.561 Y-235.439
G1 X-379.561 Y-221.404
G1 X-386.579 Y-210.877
G0 Z1

G0 X-390.088 Y-207.368
G1 Z0

G1 X-379.561 Y-217.895
G1 X-340.965 Y-200.351
G1 X-305.877 Y-274.035
G1 X-284.825 Y-291.579
G1 X-284.825 Y-312.632
G1 X-267.281 Y-347.719
G1 X-256.754 Y-337.193
G1 X-267.281 Y-484.561
G1 X-200.614 Y-631.930
G1 X-183.070 Y-614.386
G1 X-144.474 Y-579.298
G1 X-119.912 Y-582.807
G1 X-105.877 Y-677.544
G1 X188.860 Y-438.947
G1 X185.351 Y-530.175
G1 X209.912 Y-533.684
G1 X371.316 Y-495.088
G1 X371.316 Y-519.649
G1 X402.895 Y-544.211
G1 X413.421 Y-537.193
G1 X430.965 Y-660.000
G1 X452.018 Y-649.474
G1 X455.526 Y-656.491
G1 X473.070 Y-674.035
G1 X504.649 Y-716.140
G1 X532.719 Y-733.684
G1 X536.228 Y-726.667
G1 X539.737 Y-733.684
G1 X550.263 Y-712.632
G1 X550.263 Y-730.175
G0 Z1

G0 X550.263 Y-723.158
G1 Z0

G1 X543.246 Y-688.070
G1 X532.719 Y-688.070
G1 X525.702 Y-667.018
G1 X504.649 Y-726.667
G1 X497.632 Y-723.158
G1 X480.088 Y-730.175
G1 X480.088 Y-723.158
G1 X462.544 Y-733.684
G1 X455.526 Y-719.649
G1 X445.000 Y-719.649
G1 X427.456 Y-733.684
G1 X420.439 Y-716.140
G1 X416.930 Y-705.614
G1 X392.368 Y-698.597
G1 X392.368 Y-684.561
G1 X318.684 Y-663.509
G1 X153.772 Y-652.982
G1 X94.123 Y-603.860
G1 X83.596 Y-579.298
G1 X34.474 Y-688.070
G1 X2.895 Y-709.123
G1 X-74.298 Y-652.982
G1 X-95.351 Y-698.597
G1 X-130.439 Y-695.088
G1 X-144.474 Y-698.597
G1 X-151.491 Y-677.544
G1 X-165.526 Y-681.053
G1 X-186.579 Y-537.193
G1 X-239.211 Y-523.158
G1 X-239.211 Y-502.105
G1 X-246.228 Y-477.544
G1 X-260.263 Y-488.070
G1 X-267.281 Y-495.088
G1 X-274.298 Y-467.018
G1 X-277.807 Y-435.439
G1 X-323.421 Y-435.439
G1 X-330.439 Y-431.930
G1 X-337.456 Y-438.947
G1 X-355.000 Y-470.526
G1 X-362.018 Y-463.509
G0 Z1

G0 X-355.000 Y-463.509
G1 Z0

G1 X-347.982 Y-470.526
G1 X-347.982 Y-481.053
G1 X-337.456 Y-470.526
G1 X-295.351 Y-491.579
G1 X-267.281 Y-523.158
G1 X-211.140 Y-614.386
G1 X-158.509 Y-667.018
G1 X-126.930 Y-684.561
G1 X-88.333 Y-698.597
G1 X41.491 Y-719.649
G1 X45.000 Y-726.667
G1 X146.754 Y-526.667
G1 X311.667 Y-561.754
G1 X332.719 Y-551.228
G1 X346.754 Y-540.702
G1 X350.263 Y-547.719
G1 X360.789 Y-551.228
G1 X381.842 Y-575.790
G1 X420.439 Y-603.860
G1 X441.491 Y-596.842
G1 X441.491 Y-695.088
G1 X469.561 Y-677.544
G1 X483.597 Y-709.123
G1 X490.614 Y-712.632
G1 X518.684 Y-733.684
G1 X539.737 Y-716.140
G1 X546.754 Y-730.175
G1 X539.737 Y-733.684
G1 X539.737 Y-726.667
G1 X532.719 Y-716.140
G1 X511.667 Y-726.667
G1 X473.070 Y-649.474
G1 X437.982 Y-621.404
G1 X409.912 Y-600.351
G1 X339.737 Y-607.368
G1 X332.719 Y-596.842
G1 X297.632 Y-586.316
G1 X290.614 Y-589.825
G1 X269.561 Y-572.281
G1 X248.509 Y-614.386
G1 X213.421 Y-603.860
G1 X76.579 Y-733.684
G1 X37.982 Y-733.684
G1 X37.982 Y-726.667
G1 X9.912 Y-730.175
G1 X-7.632 Y-716.140
G1 X-67.281 Y-716.140
G1 X-102.368 Y-730.175
G1 X-116.404 Y-674.035
G1 X-126.930 Y-681.053
G1 X-123.421 Y-589.825
G1 X-137.456 Y-582.807
G1 X-144.474 Y-561.754
G1 X-158.509 Y-572.281
G1 X-218.158 Y-484.561
G1 X-218.158 Y-477.544
G1 X-225.175 Y-438.947
G1 X-239.211 Y-435.439
G1 X-256.754 Y-442.456
G1 X-267.281 Y-452.982
G1 X-270.789 Y-407.368
G1 X-291.842 Y-389.825
G1 X-337.456 Y-354.737
G1 X-337.456 Y-347.719
G1 X-340.965 Y-340.702
G1 X-355.000 Y-330.175
G1 X-369.035 Y-295.088
G1 X-386.579 Y-284.561
G1 X-390.088 Y-270.526
G0 Z1

G0 X-390.088 Y-274.035
G1 Z0

G1 X-390.088 Y-305.614
G1 X-386.579 Y-298.597
G1 X-365.526 Y-291.579
G1 X-235.702 Y-333.684
G1 X-235.702 Y-614.386
G1 X-186.579 Y-649.474
G1 X-18.158 Y-649.474
G1 X30.965 Y-667.018
G1 X30.965 Y-681.053
G1 X52.018 Y-695.088
G1 X66.053 Y-674.035
G1 X94.123 Y-691.579
G1 X111.667 Y-698.597
G1 X164.298 Y-589.825
G1 X178.333 Y-631.930
G1 X276.579 Y-617.895
G1 X276.579 Y-624.912
G1 X325.702 Y-607.368
G1 X336.228 Y-596.842
G1 X343.246 Y-596.842
G1 X343.246 Y-607.368
G1 X441.491 Y-579.298
G1 X476.579 Y-596.842
G1 X497.632 Y-628.421
G1 X550.263 Y-617.895
G1 X550.263 Y-624.912
G0 Z1

G0 X550.263 Y-684.561
G1 Z0

G1 X504.649 Y-607.368
G1 X497.632 Y-568.772
G1 X473.070 Y-589.825
G1 X413.421 Y-540.702
G1 X381.842 Y-572.281
G1 X374.825 Y-561.754
G1 X371.316 Y-288.070
G1 X357.281 Y-295.088
G1 X118.684 Y-256.491
G1 X115.175 Y-242.456
G1 X62.544 Y-224.912
G1 X30.965 Y-252.982
G1 X6.404 Y-242.456
G1 X-11.140 Y-263.509
G1 X-25.175 Y-140.702
G1 X-25.175 Y-98.596
G1 X-39.211 Y-126.667
G1 X-46.228 Y-137.193
G1 X-49.737 Y-102.105
G1 X-56.754 Y-105.614
G0 Z1

G0 X-383.070 Y-207.368
G1 Z0

G1 X-376.053 Y-203.860
G1 X-340.965 Y-217.895
G1 X-298.860 Y-291.579
G1 X-288.333 Y-284.561
G1 X-274.298 Y-291.579
G1 X-263.772 Y-277.544
G1 X-253.246 Y-281.053
G1 X-249.737 Y-270.526
G1 X-260.263 Y-586.316
G1 X-239.211 Y-572.281
G1 X-239.211 Y-593.333
G1 X-193.596 Y-642.456
G1 X-179.561 Y-614.386
G1 X-137.456 Y-645.965
G1 X-56.754 Y-733.684
G1 X34.474 Y-705.614
G1 X59.035 Y-695.088
G1 X73.070 Y-716.140
G1 X178.333 Y-719.649
G1 X294.123 Y-733.684
G1 X392.368 Y-652.982
G1 X437.982 Y-635.439
G1 X437.982 Y-642.456
G1 X473.070 Y-628.421
G1 X483.597 Y-614.386
G1 X497.632 Y-596.842
G1 X511.667 Y-649.474
G1 X522.193 Y-695.088
G1 X550.263 Y-691.579
G0 Z1

G0 X550.263 Y-688.070
G1 Z0

G1 X532.719 Y-702.105
G1 X494.123 Y-674.035
G1 X487.105 Y-681.053
G1 X476.579 Y-660.000
G1 X469.561 Y-656.491
G1 X466.053 Y-645.965
G1 X462.544 Y-652.982
G1 X437.982 Y-698.597
G1 X416.930 Y-712.632
G1 X399.386 Y-726.667
G1 X392.368 Y-702.105
G1 X143.246 Y-674.035
G1 X-147.982 Y-554.737
G1 X-242.719 Y-505.614
G1 X-260.263 Y-509.123
G1 X-277.807 Y-491.579
G1 X-288.333 Y-463.509
G1 X-319.912 Y-442.456
G1 X-330.439 Y-449.474
G1 X-340.965 Y-452.982
G1 X-347.982 Y-456.491
G0 Z1

G0 X-386.579 Y-267.018
G1 Z0

G1 X-379.561 Y-270.526
G1 X-365.526 Y-281.053
G1 X-362.018 Y-288.070
G1 X-323.421 Y-193.333
G1 X-305.877 Y-217.895
G1 X-295.351 Y-224.912
G1 X-246.228 Y-312.632
G1 X-242.719 Y-305.614
G1 X-242.719 Y-330.175
G1 X-232.193 Y-330.175
G1 X-221.667 Y-351.228
G1 X-151.491 Y-389.825
G1 X-63.772 Y-498.597
G1 X13.421 Y-593.333
G1 X41.491 Y-677.544
G1 X69.561 Y-695.088
G1 X101.140 Y-670.526
G1 X139.737 Y-681.053
G1 X185.351 Y-638.947
G1 X185.351 Y-645.965
G1 X195.877 Y-645.965
G1 X476.579 Y-600.351
G1 X476.579 Y-660.000
G1 X529.211 Y-649.474
G1 X539.737 Y-705.614
G1 X550.263 Y-698.597
G1 X550.263 Y-709.123
G0 Z1

G0 X546.754 Y-698.597
G1 Z0

G1 X536.228 Y-698.597
G1 X511.667 Y-677.544
G1 X518.684 Y-593.333
G1 X473.070 Y-660.000
G1 X437.982 Y-667.018
G1 X437.982 Y-660.000
G1 X399.386 Y-688.070
G1 X350.263 Y-649.474
G1 X132.719 Y-698.597
G1 X115.175 Y-733.684
G1 X111.667 Y-726.667
G1 X108.158 Y-677.544
G1 X66.053 Y-670.526
G1 X-39.211 Y-477.544
G1 X-91.842 Y-467.018
G1 X-119.912 Y-460.000
G1 X-123.421 Y-428.421
G1 X-186.579 Y-403.860
G1 X-253.246 Y-274.035
G1 X-277.807 Y-231.930
G1 X-319.912 Y-217.895
G1 X-362.018 Y-245.965
G1 X-365.526 Y-252.982
G1 X-379.561 Y-256.491
G1 X-383.070 Y-263.509
G0 Z1



G0 X-242.719 Y420.702
G1 Z0

G1 X-253.246 Y431.228
G1 X-263.772 Y413.684
G1 X-263.772 Y438.246
G1 X-256.754 Y452.281
G1 X-133.947 Y487.368
G1 X-74.298 Y473.333
G1 X-81.316 Y497.895
G1 X-60.263 Y487.368
G1 X-14.649 Y371.579
G1 X13.421 Y368.070
G1 X-14.649 Y378.596
G1 X-25.175 Y406.667
G1 X9.912 Y466.316
G1 X20.439 Y452.281
G1 X-7.632 Y459.298
G1 X-21.667 Y501.404
G1 X6.404 Y473.333
G1 X27.456 Y480.351
G1 X16.930 Y473.333
G1 X27.456 Y473.333
G1 X9.912 Y459.298
G1 X-4.123 Y406.667
G1 X30.965 Y396.140
G1 X55.526 Y368.070
G1 X66.053 Y406.667
G1 X34.474 Y375.088
G1 X9.912 Y371.579
G1 X87.105 Y343.509
G1 X80.088 Y350.526
G1 X97.632 Y347.018
G1 X73.070 Y399.649
G1 X80.088 Y392.632
G1 X37.982 Y459.298
G1 X55.526 Y487.368
G1 X76.579 Y483.860
G1 X97.632 Y466.316
G1 X55.526 Y438.246
G1 X59.035 Y459.298
G1 X37.982 Y483.860
G1 X48.509 Y480.351
G1 X41.491 Y494.386
G1 X30.965 Y494.386
G1 X9.912 Y480.351
G1 X27.456 Y483.860
G1 X-204.123 Y462.807
G1 X-214.649 Y441.754
G1 X-235.702 Y406.667
G1 X-256.754 Y364.561
G1 X-267.281 Y375.088
G1 X-281.316 Y382.105
G1 X-288.333 Y368.070
G1 X-295.351 Y375.088
G1 X-302.368 Y332.982
G1 X-295.351 Y347.018
G1 X-277.807 Y332.982
G1 X-298.860 Y227.719
G1 X-312.895 Y192.632
G1 X-330.439 Y199.649
G1 X-316.404 Y217.193
G1 X-316.404 Y227.719
G1 X-333.947 Y248.772
G1 X-347.982 Y273.333
G1 X-355.000 Y255.789
G1 X-347.982 Y245.263
G1 X-362.018 Y234.737
G1 X-365.526 Y213.684
G1 X-355.000 Y189.123
G1 X-351.491 Y182.105
G1 X-351.491 Y171.579
G1 X-355.000 Y157.544
G1 X-351.491 Y150.526
G1 X-400.614 Y234.737
G1 X-330.439 Y392.632
G1 X-337.456 Y354.035
G1 X-365.526 Y294.386
G1 X-376.053 Y269.825
G1 X-393.596 Y301.404
G1 X-393.596 Y255.789
G1 X-383.070 Y245.263
G1 X-369.035 Y238.246
G1 X-372.544 Y224.211
G1 X-372.544 Y217.193
G1 X-379.561 Y210.175
G1 X-372.544 Y210.175
G1 X-358.509 Y192.632
G1 X-369.035 Y189.123
G1 X-365.526 Y147.018
G1 X-358.509 Y143.509
G1 X-347.982 Y132.982
G1 X-355.000 Y125.965
G1 X-344.474 Y94.386
G1 X-319.912 Y73.333
G1 X-330.439 Y76.842
G1 X-326.930 Y90.877
G1 X-347.982 Y115.439
G1 X-344.474 Y122.456
G1 X-330.439 Y108.421
G1 X-305.877 Y87.368
G1 X-309.386 Y136.491
G1 X-305.877 Y161.053
G1 X-305.877 Y175.088
G1 X-319.912 Y-81.053
G1 X-312.895 Y-67.018
G1 X-312.895 Y13.684
G1 X-337.456 Y38.246
G1 X-340.965 Y62.807
G1 X-358.509 Y94.386
G1 X-369.035 Y108.421
G1 X-362.018 Y90.877
G1 X-355.000 Y111.930
G1 X-369.035 Y90.877
G1 X-369.035 Y83.860
G1 X-347.982 Y27.719
G1 X-344.474 Y38.246
G1 X-358.509 Y24.211
G1 X-355.000 Y34.737
G1 X-337.456 Y-28.421
G1 X-347.982 Y-35.439
G1 X-347.982 Y-52.982
G1 X-344.474 Y-60.000
G1 X-351.491 Y-81.053
G1 X-330.439 Y-60.000
G1 X-326.930 Y-49.474
G1 X-337.456 Y-17.895
G1 X-330.439 Y-14.386
G1 X-316.404 Y27.719
G1 X-323.421 Y48.772
G1 X-319.912 Y66.316
G1 X-333.947 Y45.263
G1 X-337.456 Y76.842
G1 X-330.439 Y66.316
G1 X-330.439 Y73.333
G1 X-312.895 Y87.368
G1 X-309.386 Y62.807
G1 X-309.386 Y-3.860
G1 X-312.895 Y-91.579
G1 X-309.386 Y-119.649
G1 X-309.386 Y-182.807
G1 X-291.842 Y-147.719
G1 X-302.368 Y-154.737
G1 X-302.368 Y-161.754
G1 X-291.842 Y-193.333
G1 X-302.368 Y-189.825
G1 X-298.860 Y-182.807
G1 X-274.298 Y-235.439
G1 X-284.825 Y-249.474
G1 X-288.333 Y-260.000
G1 X-302.368 Y-235.439
G1 X-302.368 Y-252.982
G1 X-295.351 Y-252.982
G1 X-284.825 Y-189.825
G1 X-295.351 Y-168.772
G1 X-302.368 Y-133.684
G1 X-330.439 Y-151.228
G1 X-330.439 Y-126.667
G1 X-333.947 Y-133.684
G1 X-326.930 Y-144.211
G1 X-330.439 Y-161.754
G1 X-337.456 Y-172.281
G1 X-330.439 Y-245.965
G1 X-323.421 Y-281.053
G1 X-333.947 Y-309.123
G1 X-326.930 Y-312.632
G1 X-330.439 Y-305.614
G1 X-323.421 Y-302.105
G1 X-326.930 Y-365.263
G1 X-333.947 Y-375.789
G1 X-330.439 Y-354.737
G1 X-246.228 Y-379.298
G1 X-242.719 Y-368.772
G1 X-253.246 Y-379.298
G1 X-260.263 Y-382.807
G1 X-256.754 Y-389.825
G1 X-263.772 Y-386.316
G1 X-295.351 Y-375.789
G1 X-302.368 Y-396.842
G1 X-288.333 Y-382.807
G1 X-277.807 Y-386.316
G1 X-270.789 Y-396.842
G1 X-228.684 Y-417.895
G1 X-239.211 Y-410.877
G1 X-228.684 Y-414.386
G1 X-235.702 Y-449.474
G1 X-200.614 Y-523.158
G1 X-214.649 Y-431.930
G1 X-232.193 Y-467.018
G1 X-214.649 Y-502.105
G1 X-197.105 Y-530.175
G1 X-200.614 Y-498.597
G1 X-211.140 Y-417.895
G1 X-207.632 Y-410.877
G1 X-207.632 Y-389.825
G1 X-221.667 Y-379.298
G1 X-235.702 Y-382.807
G1 X-214.649 Y-386.316
G1 X-211.140 Y-361.754
G1 X-225.175 Y-333.684
G1 X-277.807 Y-365.263
G1 X-256.754 Y-372.281
G1 X-270.789 Y-375.789
G1 X-256.754 Y-365.263
G1 X-249.737 Y-354.737
G1 X-225.175 Y-365.263
G1 X-214.649 Y-368.772
G1 X-221.667 Y-375.789
G1 X-214.649 Y-372.281
G1 X-207.632 Y-375.789
G1 X-211.140 Y-382.807
G1 X-312.895 Y-530.175
G1 X-365.526 Y-435.439
G1 X-362.018 Y-456.491
G1 X-319.912 Y-474.035
G1 X-270.789 Y-414.386
G1 X-246.228 Y-421.404
G1 X-309.386 Y-467.018
G1 X-340.965 Y-463.509
G1 X-316.404 Y-442.456
G1 X-312.895 Y-431.930
G1 X-298.860 Y-421.404
G1 X-291.842 Y-431.930
G1 X-277.807 Y-414.386
G1 X-305.877 Y-421.404
G1 X-277.807 Y-470.526
G1 X-260.263 Y-526.667
G1 X-295.351 Y-540.702
G1 X-312.895 Y-526.667
G1 X-333.947 Y-470.526
G1 X-319.912 Y-463.509
G1 X-284.825 Y-467.018
G1 X-281.316 Y-449.474
G1 X-298.860 Y-463.509
G1 X-176.053 Y-663.509
G1 X-179.561 Y-617.895
G1 X-144.474 Y-684.561
G1 X-91.842 Y-712.632
G0 Z1

G0 X-214.649 Y-488.070
G1 Z0

G1 X-218.158 Y-365.263
G1 X-225.175 Y-368.772
G1 X-288.333 Y-340.702
G1 X-298.860 Y-337.193
G1 X-326.930 Y-330.175
G1 X-333.947 Y-333.684
G1 X-358.509 Y-375.789
G1 X-383.070 Y-305.614
G1 X-390.088 Y-298.597
G0 Z1

G0 X-390.088 Y-302.105
G1 Z0

G1 X-390.088 Y-309.123
G1 X-383.070 Y-302.105
G1 X-326.930 Y-428.421
G1 X-298.860 Y-358.246
G1 X-291.842 Y-361.754
G1 X-281.316 Y-358.246
G1 X-239.211 Y-484.561
G1 X-225.175 Y-484.561
G1 X-225.175 Y-502.105
G1 X-158.509 Y-540.702
G1 X-102.368 Y-596.842
G1 X48.509 Y-723.158
G1 X108.158 Y-712.632
G1 X252.018 Y-723.158
G1 X413.421 Y-688.070
G1 X430.965 Y-733.684
G1 X452.018 Y-733.684
G1 X476.579 Y-688.070
G1 X497.632 Y-656.491
G1 X501.140 Y-695.088
G1 X543.246 Y-712.632
G0 Z1

G0 X550.263 Y-719.649
G1 Z0

G1 X546.754 Y-712.632
G1 X508.158 Y-691.579
G1 X501.140 Y-617.895
G1 X480.088 Y-593.333
G1 X392.368 Y-502.105
G1 X374.825 Y-519.649
G1 X371.316 Y-526.667
G1 X364.298 Y-519.649
G0 Z1

G0 X430.965 Y-642.456
G1 Z0

G1 X437.982 Y-645.965
G1 X448.509 Y-677.544
G1 X469.561 Y-674.035
G1 X483.597 Y-656.491
G1 X497.632 Y-631.930
G1 X504.649 Y-691.579
G1 X550.263 Y-726.667
G0 Z1

G0 X511.667 Y-733.684
G1 Z0

G1 X494.123 Y-733.684
G1 X494.123 Y-709.123
G1 X469.561 Y-716.140
G1 X452.018 Y-716.140
G1 X441.491 Y-698.597
G1 X402.895 Y-698.597
G0 Z1

G0 X392.368 Y-730.175
G1 Z0

G1 X399.386 Y-730.175
G1 X430.965 Y-723.158
G1 X455.526 Y-712.632
G1 X473.070 Y-712.632
G0 Z1

G0 X360.789 Y-733.684
G1 Z0

G1 X399.386 Y-681.053
G1 X423.947 Y-688.070
G1 X437.982 Y-716.140
G1 X476.579 Y-684.561
G1 X487.105 Y-705.614
G1 X504.649 Y-695.088
G1 X550.263 Y-621.404
G0 Z1

G0 X550.263 Y-319.649
G1 Z0

G1 X504.649 Y-316.140
G1 X504.649 Y-260.000
G1 X476.579 Y-214.386
G1 X462.544 Y-214.386
G1 X445.000 Y-116.140
G1 X427.456 Y-126.667
G1 X381.842 Y-235.439
G1 X374.825 Y-221.404
G1 X371.316 Y-210.877
G1 X192.368 Y-168.772
G1 X143.246 Y-126.667
G1 X59.035 Y-112.632
G1 X9.912 Y-112.632
G1 X-14.649 Y-133.684
G1 X-28.684 Y-130.175
G1 X-42.719 Y-116.140
G1 X-49.737 Y-112.632
G1 X-53.246 Y-105.614
G0 Z1

G0 X132.719 Y90.877
G1 Z0

G1 X139.737 Y90.877
G1 X132.719 Y87.368
G1 X143.246 Y104.912
G1 X164.298 Y101.404
G1 X188.860 Y90.877
G1 X171.316 Y104.912
G1 X115.175 Y108.421
G1 X143.246 Y90.877
G1 X125.702 Y104.912
G1 X143.246 Y101.404
G1 X136.228 Y104.912
G1 X111.667 Y90.877
G1 X108.158 Y118.947
G1 X160.789 Y108.421
G1 X157.281 Y76.842
G1 X111.667 Y108.421
G1 X115.175 Y97.895
G1 X132.719 Y90.877
G1 X115.175 Y80.351
G1 X94.123 Y118.947
G1 X118.684 Y122.456
G1 X174.825 Y108.421
G1 X199.386 Y80.351
G1 X164.298 Y97.895
G1 X160.789 Y83.860
G1 X178.333 Y108.421
G1 X202.895 Y83.860
G1 X185.351 Y80.351
G1 X195.877 Y94.386
G1 X181.842 Y108.421
G1 X94.123 Y136.491
G1 X87.105 Y87.368
G1 X101.140 Y115.439
G1 X129.211 Y111.930
G1 X136.228 Y115.439
G1 X378.333 Y385.614
G1 X287.105 Y487.368
G1 X311.667 Y494.386
G1 X276.579 Y529.474
G1 X273.070 Y494.386
G1 X294.123 Y494.386
G1 X350.263 Y420.702
G1 X343.246 Y406.667
G1 X353.772 Y375.088
G1 X357.281 Y350.526
G1 X343.246 Y238.246
G1 X332.719 Y136.491
G1 X318.684 Y185.614
G1 X332.719 Y224.211
G1 X329.211 Y189.123
G1 X315.175 Y140.000
G1 X318.684 Y132.982
G1 X315.175 Y118.947
G1 X318.684 Y125.965
G1 X315.175 Y97.895
G1 X318.684 Y108.421
G1 X378.333 Y55.789
G1 X353.772 Y55.789
G1 X378.333 Y69.825
G1 X381.842 Y118.947
G1 X350.263 Y76.842
G1 X325.702 Y-17.895
G1 X325.702 Y-31.930
G1 X339.737 Y-49.474
G1 X339.737 Y-56.491
G1 X325.702 Y-10.877
G1 X322.193 Y-3.860
G1 X318.684 Y27.719
G1 X332.719 Y55.789
G1 X343.246 Y38.246
G1 X339.737 Y13.684
G1 X343.246 Y6.667
G1 X364.298 Y-3.860
G1 X353.772 Y-10.877
G1 X353.772 Y-24.912
G1 X350.263 Y-31.930
G1 X395.877 Y-168.772
G1 X364.298 Y-158.246
G1 X360.789 Y-105.614
G1 X364.298 Y-81.053
G1 X388.860 Y-161.754
G1 X367.807 Y-137.193
G1 X364.298 Y-98.596
G1 X378.333 Y-144.211
G1 X367.807 Y-165.263
G1 X357.281 Y-179.298
G1 X339.737 Y-165.263
G1 X336.228 Y-193.333
G1 X311.667 Y-154.737
G1 X318.684 Y-158.246
G1 X315.175 Y-165.263
G1 X308.158 Y-175.789
G1 X315.175 Y-200.351
G1 X308.158 Y-196.842
G1 X311.667 Y-217.895
G1 X339.737 Y-260.000
G1 X318.684 Y-298.597
G1 X322.193 Y-263.509
G1 X350.263 Y-274.035
G1 X322.193 Y-305.614
G1 X346.754 Y-302.105
G1 X353.772 Y-267.018
G1 X325.702 Y-210.877
G1 X350.263 Y-203.860
G1 X378.333 Y-196.842
G1 X364.298 Y-175.789
G1 X346.754 Y-168.772
G1 X336.228 Y-151.228
G1 X329.211 Y-91.579
G1 X318.684 Y-42.456
G1 X308.158 Y-17.895
G1 X311.667 Y-24.912
G1 X248.509 Y-186.316
G1 X259.035 Y-217.895
G1 X273.070 Y-207.368
G1 X259.035 Y-210.877
G1 X252.018 Y-224.912
G1 X245.000 Y-214.386
G1 X259.035 Y-224.912
G1 X287.105 Y-210.877
G1 X266.053 Y-231.930
G1 X259.035 Y-249.474
G1 X252.018 Y-235.439
G1 X294.123 Y-281.053
G1 X304.649 Y-242.456
G1 X294.123 Y-252.982
G1 X287.105 Y-281.053
G1 X297.632 Y-291.579
G1 X315.175 Y-323.158
G1 X301.140 Y-337.193
G1 X378.333 Y-207.368
G1 X343.246 Y-175.789
G1 X350.263 Y-189.825
G1 X339.737 Y-179.298
G1 X325.702 Y-186.316
G1 X329.211 Y-168.772
G1 X315.175 Y-186.316
G1 X315.175 Y-193.333
G1 X308.158 Y-210.877
G1 X255.526 Y-200.351
G1 X269.561 Y-172.281
G1 X262.544 Y-161.754
G1 X259.035 Y-144.211
G1 X252.018 Y-172.281
G1 X273.070 Y-102.105
G1 X276.579 Y-81.053
G1 X280.088 Y-74.035
G1 X276.579 Y-67.018
G1 X276.579 Y-52.982
G1 X301.140 Y-10.877
G1 X318.684 Y-102.105
G1 X329.211 Y-109.123
G1 X325.702 Y-123.158
G1 X329.211 Y-116.140
G1 X329.211 Y-123.158
G1 X315.175 Y-154.737
G1 X308.158 Y-161.754
G1 X301.140 Y-147.719
G1 X301.140 Y-137.193
G1 X283.596 Y-126.667
G1 X283.596 Y-119.649
G1 X290.614 Y-88.070
G1 X287.105 Y-95.088
G1 X273.070 Y-70.526
G1 X269.561 Y-98.596
G1 X269.561 Y-105.614
G1 X276.579 Y-109.123
G1 X273.070 Y-91.579
G1 X283.596 Y-84.561
G1 X308.158 Y252.281
G1 X290.614 Y182.105
G1 X290.614 Y129.474
G1 X287.105 Y104.912
G1 X290.614 Y97.895
G1 X283.596 Y83.860
G1 X290.614 Y38.246
G1 X466.053 Y318.947
G1 X367.807 Y399.649
G1 X350.263 Y378.596
G1 X276.579 Y476.842
G1 X266.053 Y473.333
G1 X255.526 Y480.351
G1 X220.439 Y490.877
G1 X188.860 Y476.842
G1 X192.368 Y487.368
G1 X181.842 Y476.842
G1 X178.333 Y483.860
G1 X202.895 Y536.491
G1 X245.000 Y494.386
G1 X209.912 Y501.404
G1 X188.860 Y501.404
G1 X206.404 Y529.474
G1 X237.982 Y497.895
G1 X209.912 Y504.912
G1 X195.877 Y504.912
G1 X255.526 Y536.491
G1 X252.018 Y508.421
G1 X237.982 Y532.982
G1 X216.930 Y564.561
G1 X220.439 Y554.035
G1 X237.982 Y529.474
G1 X248.509 Y547.018
G1 X220.439 Y617.193
G1 X245.000 Y578.596
G1 X329.211 Y410.175
G1 X336.228 Y413.684
G1 X437.982 Y276.842
G1 X459.035 Y294.386
G1 X480.088 Y220.702
G1 X515.175 Y238.246
G1 X532.719 Y196.140
G1 X550.263 Y161.053
G0 Z1

G0 X550.263 Y178.596
G1 Z0

G1 X550.263 Y252.281
G1 X501.140 Y168.070
G1 X476.579 Y168.070
G1 X476.579 Y203.158
G1 X455.526 Y280.351
G1 X448.509 Y269.825
G1 X434.474 Y262.807
G1 X416.930 Y217.193
G1 X406.404 Y206.667
G1 X399.386 Y217.193
G1 X388.860 Y248.772
G1 X385.351 Y266.316
G1 X378.333 Y266.316
G0 Z1

G0 X381.842 Y269.825
G1 Z0

G1 X388.860 Y266.316
G1 X409.912 Y276.842
G1 X413.421 Y283.860
G1 X409.912 Y171.579
G1 X420.439 Y168.070
G1 X427.456 Y175.088
G1 X448.509 Y234.737
G0 Z1

G0 X550.263 Y245.263
G1 Z0

G1 X546.754 Y252.281
G1 X522.193 Y245.263
G1 X515.175 Y248.772
G1 X511.667 Y241.754
G1 X487.105 Y248.772
G1 X469.561 Y213.684
G1 X462.544 Y210.175
G1 X462.544 Y224.211
G1 X452.018 Y231.228
G1 X427.456 Y294.386
G1 X420.439 Y287.368
G1 X353.772 Y343.509
G1 X350.263 Y332.982
G1 X329.211 Y340.000
G1 X329.211 Y347.018
G1 X315.175 Y336.491
G1 X311.667 Y354.035
G1 X287.105 Y375.088
G1 X276.579 Y368.070
G1 X266.053 Y347.018
G1 X252.018 Y357.544
G1 X245.000 Y585.614
G1 X223.947 Y617.193
G1 X220.439 Y638.246
G1 X160.789 Y631.228
G1 X160.789 Y652.281
G1 X118.684 Y627.719
G1 X76.579 Y631.228
G1 X69.561 Y652.281
G1 X-7.632 Y659.298
G1 X-28.684 Y648.772
G1 X-32.193 Y641.754
G0 Z1

G0 X-60.263 Y638.246
G1 Z0

G1 X-53.246 Y631.228
G1 X-46.228 Y638.246
G1 X-28.684 Y662.807
G1 X-28.684 Y518.947
G1 X-14.649 Y511.930
G1 X-.614 Y529.474
G1 X76.579 Y511.930
G1 X118.684 Y497.895
G1 X164.298 Y592.632
G1 X195.877 Y550.526
G1 X241.491 Y578.596
G1 X259.035 Y610.175
G1 X339.737 Y364.561
G1 X402.895 Y406.667
G1 X448.509 Y385.614
G1 X473.070 Y392.632
G1 X480.088 Y378.596
G1 X487.105 Y375.088
G1 X497.632 Y389.123
G1 X508.158 Y385.614
G1 X522.193 Y385.614
G1 X550.263 Y420.702
G1 X550.263 Y413.684
G0 Z1

G0 X550.263 Y392.632
G1 Z0

G1 X515.175 Y403.158
G1 X483.597 Y385.614
G1 X459.035 Y417.193
G1 X427.456 Y420.702
G1 X420.439 Y431.228
G1 X199.386 Y557.544
G1 X178.333 Y564.561
G1 X178.333 Y592.632
G1 X23.947 Y641.754
G1 X-81.316 Y620.702
G1 X-88.333 Y606.667
G1 X-95.351 Y613.684
G0 Z1

G0 X-162.018 Y494.386
G1 Z0

G1 X-155.000 Y487.368
G1 X-144.474 Y497.895
G1 X-144.474 Y487.368
G1 X-133.947 Y490.877
G1 X-109.386 Y487.368
G1 X-109.386 Y473.333
G1 X-98.860 Y462.807
G1 X-81.316 Y469.825
G1 X-18.158 Y473.333
G1 X-14.649 Y459.298
G1 X-4.123 Y452.281
G1 X55.526 Y424.211
G1 X115.175 Y522.456
G1 X118.684 Y515.439
G1 X252.018 Y561.053
G1 X255.526 Y568.070
G1 X262.544 Y589.123
G1 X304.649 Y308.421
G1 X427.456 Y283.860
G1 X430.965 Y273.333
G1 X459.035 Y322.456
G1 X466.053 Y315.439
G1 X469.561 Y308.421
G1 X490.614 Y336.491
G1 X518.684 Y304.912
G1 X550.263 Y354.035
G0 Z1



G0 X118.684 Y-540.702
G1 Z0

G1 X143.246 Y-526.667
G1 X181.842 Y-477.544
G1 X192.368 Y-435.439
G1 X199.386 Y-400.351
G1 X220.439 Y-386.316
G1 X202.895 Y-403.860
G1 X199.386 Y-382.807
G1 X206.404 Y-372.281
G1 X216.930 Y-379.298
G1 X259.035 Y-326.667
G1 X241.491 Y-312.632
G1 X230.965 Y-340.702
G1 X227.456 Y-312.632
G1 X269.561 Y-217.895
G1 X301.140 Y-193.333
G1 X252.018 Y-270.526
G1 X248.509 Y-277.544
G1 X252.018 Y-295.088
G1 X241.491 Y-309.123
G1 X248.509 Y-316.140
G1 X283.596 Y-295.088
G1 X280.088 Y-309.123
G1 X290.614 Y-319.649
G1 X308.158 Y-263.509
G1 X304.649 Y-217.895
G1 X287.105 Y-252.982
G1 X276.579 Y-224.912
G1 X255.526 Y-260.000
G1 X248.509 Y-235.439
G1 X262.544 Y-228.421
G1 X237.982 Y-249.474
G1 X245.000 Y-260.000
G1 X248.509 Y-242.456
G1 X241.491 Y-249.474
G1 X353.772 Y-263.509
G1 X304.649 Y-319.649
G1 X311.667 Y-288.070
G1 X322.193 Y-207.368
G1 X353.772 Y-200.351
G1 X360.789 Y-49.474
G1 X339.737 Y-130.175
G1 X315.175 Y-14.386
G1 X308.158 Y-70.526
G1 X304.649 Y-88.070
G1 X304.649 Y-98.596
G1 X294.123 Y-84.561
G1 X294.123 Y-63.509
G1 X287.105 Y-56.491
G1 X280.088 Y-42.456
G1 X283.596 Y-10.877
G1 X297.632 Y136.491
G1 X287.105 Y94.386
G1 X311.667 Y45.263
G1 X304.649 Y55.789
G1 X301.140 Y17.193
G1 X308.158 Y3.158
G1 X304.649 Y-35.439
G1 X301.140 Y-28.421
G1 X304.649 Y-3.860
G1 X297.632 Y13.684
G1 X304.649 Y34.737
G1 X311.667 Y27.719
G1 X315.175 Y-10.877
G1 X346.754 Y34.737
G1 X339.737 Y104.912
G1 X353.772 Y115.439
G1 X343.246 Y150.526
G1 X339.737 Y143.509
G1 X322.193 Y111.930
G1 X325.702 Y154.035
G1 X311.667 Y125.965
G1 X318.684 Y94.386
G1 X315.175 Y83.860
G1 X308.158 Y73.333
G1 X308.158 Y87.368
G1 X301.140 Y83.860
G1 X353.772 Y427.719
G1 X343.246 Y424.211
G1 X339.737 Y396.140
G1 X346.754 Y410.175
G1 X325.702 Y311.930
G1 X318.684 Y255.789
G1 X311.667 Y164.561
G1 X329.211 Y115.439
G1 X329.211 Y83.860
G1 X318.684 Y69.825
G1 X315.175 Y76.842
G1 X339.737 Y-35.439
G1 X332.719 Y-84.561
G1 X353.772 Y-133.684
G1 X350.263 Y-147.719
G1 X343.246 Y-151.228
G1 X346.754 Y-144.211
G1 X339.737 Y-147.719
G1 X353.772 Y-126.667
G1 X353.772 Y-112.632
G1 X357.281 Y-70.526
G1 X388.860 Y-28.421
G1 X392.368 Y-49.474
G1 X374.825 Y-28.421
G1 X395.877 Y-3.860
G1 X388.860 Y31.228
G1 X343.246 Y164.561
G1 X353.772 Y161.053
G1 X332.719 Y262.807
G1 X329.211 Y308.421
G1 X318.684 Y354.035
G1 X315.175 Y297.895
G1 X273.070 Y199.649
G1 X283.596 Y178.596
G1 X280.088 Y115.439
G1 X280.088 Y343.509
G1 X220.439 Y413.684
G1 X230.965 Y417.193
G1 X230.965 Y410.175
G1 X252.018 Y410.175
G1 X237.982 Y417.193
G1 X322.193 Y501.404
G1 X280.088 Y497.895
G1 X280.088 Y518.947
G1 X308.158 Y494.386
G1 X283.596 Y490.877
G1 X287.105 Y473.333
G1 X227.456 Y462.807
G1 X209.912 Y441.754
G1 X216.930 Y427.719
G1 X209.912 Y413.684
G1 X195.877 Y403.158
G1 X150.263 Y431.228
G1 X164.298 Y438.246
G1 X157.281 Y441.754
G1 X160.789 Y431.228
G1 X174.825 Y427.719
G1 X139.737 Y410.175
G1 X129.211 Y389.123
G1 X160.789 Y413.684
G1 X171.316 Y406.667
G1 X160.789 Y396.140
G1 X139.737 Y392.632
G1 X160.789 Y406.667
G1 X206.404 Y304.912
G1 X213.421 Y294.386
G1 X181.842 Y304.912
G1 X160.789 Y315.439
G1 X129.211 Y354.035
G1 X153.772 Y343.509
G1 X171.316 Y332.982
G1 X188.860 Y311.930
G1 X178.333 Y311.930
G1 X276.579 Y220.702
G1 X276.579 Y252.281
G1 X248.509 Y318.947
G1 X252.018 Y336.491
G1 X262.544 Y354.035
G1 X273.070 Y340.000
G1 X234.474 Y241.754
G1 X209.912 Y210.175
G1 X202.895 Y192.632
G1 X83.596 Y150.526
G1 X171.316 Y161.053
G1 X143.246 Y175.088
G1 X83.596 Y157.544
G1 X153.772 Y161.053
G1 X139.737 Y168.070
G1 X171.316 Y171.579
G1 X157.281 Y164.561
G1 X129.211 Y164.561
G1 X118.684 Y171.579
G1 X94.123 Y164.561
G1 X153.772 Y150.526
G1 X181.842 Y157.544
G1 X220.439 Y161.053
G1 X164.298 Y175.088
G1 X146.754 Y182.105
G1 X76.579 Y164.561
G1 X83.596 Y147.018
G1 X132.719 Y150.526
G1 X171.316 Y157.544
G1 X185.351 Y150.526
G1 X216.930 Y157.544
G0 Z1

G0 X-144.474 Y90.877
G1 Z0

G1 X-151.491 Y87.368
G1 X-155.000 Y101.404
G1 X-190.088 Y101.404
G1 X-207.632 Y80.351
G1 X-169.035 Y97.895
G1 X-140.965 Y90.877
G1 X-165.526 Y111.930
G1 X-197.105 Y90.877
G1 X-183.070 Y94.386
G1 X-165.526 Y108.421
G1 X-112.895 Y101.404
G1 X-77.807 Y73.333
G1 X-53.246 Y132.982
G1 X-186.579 Y157.544
G1 X-74.298 Y150.526
G1 X-144.474 Y164.561
G1 X-112.895 Y147.018
G1 X-81.316 Y147.018
G1 X-109.386 Y140.000
G1 X-172.544 Y150.526
G1 X-200.614 Y150.526
G1 X-176.053 Y164.561
G1 X-151.491 Y157.544
G1 X-137.456 Y157.544
G1 X-179.561 Y171.579
G1 X-218.158 Y140.000
G1 X-190.088 Y147.018
G1 X-140.965 Y143.509
G1 X-49.737 Y83.860
G1 X-60.263 Y129.474
G1 X-95.351 Y83.860
G1 X-112.895 Y97.895
G1 X-144.474 Y101.404
G1 X-172.544 Y94.386
G1 X-169.035 Y76.842
G1 X-162.018 Y69.825
G1 X-137.456 Y69.825
G1 X-123.421 Y94.386
G1 X-165.526 Y80.351
G1 X-144.474 Y97.895
G1 X-225.175 Y66.316
G1 X-190.088 Y104.912
G1 X-176.053 Y108.421
G1 X-183.070 Y104.912
G1 X-155.000 Y104.912
G1 X-140.965 Y111.930
G1 X-116.404 Y104.912
G1 X-91.842 Y108.421
G1 X-49.737 Y147.018
G1 X-112.895 Y161.053
G1 X-126.930 Y157.544
G1 X-137.456 Y150.526
G1 X-123.421 Y150.526
G1 X-102.368 Y154.035
G1 X-116.404 Y147.018
G1 X-53.246 Y90.877
G1 X-46.228 Y104.912
G1 X-53.246 Y125.965
G1 X-56.754 Y97.895
G1 X-67.281 Y90.877
G1 X-49.737 Y80.351
G1 X-67.281 Y83.860
G1 X-49.737 Y73.333
G1 X-102.368 Y69.825
G1 X-70.789 Y101.404
G1 X-63.772 Y122.456
G1 X-88.333 Y136.491
G1 X-60.263 Y143.509
G1 X-105.877 Y111.930
G1 X-88.333 Y115.439
G1 X-119.912 Y140.000
G1 X-211.140 Y140.000
G1 X-253.246 Y118.947
G1 X-190.088 Y171.579
G1 X-214.649 Y161.053
G1 X-253.246 Y125.965
G1 X-383.070 Y17.193
G1 X-386.579 Y-10.877
G1 X-319.912 Y41.754
G1 X-330.439 Y6.667
G1 X-323.421 Y-7.368
G1 X-326.930 Y-17.895
G1 X-340.965 Y13.684
G1 X-337.456 Y24.211
G1 X-326.930 Y31.228
G1 X-337.456 Y10.175
G1 X-330.439 Y20.702
G1 X-319.912 Y129.474
G1 X-312.895 Y157.544
G1 X-319.912 Y178.596
G1 X-333.947 Y157.544
G1 X-319.912 Y150.526
G1 X-323.421 Y164.561
G1 X-288.333 Y304.912
G1 X-242.719 Y382.105
G1 X-288.333 Y445.263
G1 X-333.947 Y403.158
G1 X-291.842 Y392.632
G1 X-302.368 Y371.579
G1 X-284.825 Y343.509
G1 X-274.298 Y364.561
G1 X-267.281 Y382.105
G1 X-260.263 Y396.140
G1 X-281.316 Y424.211
G1 X-284.825 Y406.667
G1 X-253.246 Y445.263
G1 X-253.246 Y466.316
G1 X-291.842 Y420.702
G1 X-291.842 Y410.175
G1 X-288.333 Y417.193
G1 X-298.860 Y441.754
G1 X-333.947 Y406.667
G1 X-302.368 Y361.053
G1 X-309.386 Y336.491
G1 X-323.421 Y354.035
G1 X-316.404 Y378.596
G1 X-319.912 Y396.140
G1 X-288.333 Y378.596
G1 X-267.281 Y424.211
G1 X-274.298 Y431.228
G1 X-155.000 Y592.632
G1 X-183.070 Y536.491
G1 X-165.526 Y557.544
G1 X-235.702 Y424.211
G1 X-242.719 Y420.702
G0 Z1

G0 X259.035 Y-484.561
G1 Z0

G1 X262.544 Y-477.544
G1 X241.491 Y-586.316
G1 X227.456 Y-582.807
G1 X241.491 Y-565.263
G1 X237.982 Y-572.281
G1 X245.000 Y-586.316
G1 X276.579 Y-414.386
G1 X280.088 Y-438.947
G1 X294.123 Y-417.895
G1 X322.193 Y-435.439
G1 X315.175 Y-456.491
G1 X311.667 Y-442.456
G1 X339.737 Y-488.070
G1 X329.211 Y-442.456
G1 X304.649 Y-477.544
G1 X304.649 Y-484.561
G1 X311.667 Y-474.035
G1 X304.649 Y-488.070
G1 X318.684 Y-477.544
G1 X301.140 Y-456.491
G1 X301.140 Y-474.035
G1 X283.596 Y-452.982
G1 X294.123 Y-442.456
G1 X290.614 Y-449.474
G1 X280.088 Y-442.456
G1 X294.123 Y-438.947
G1 X241.491 Y-495.088
G1 X237.982 Y-502.105
G1 X245.000 Y-498.597
G1 X237.982 Y-512.632
G1 X234.474 Y-495.088
G1 X237.982 Y-488.070
G1 X234.474 Y-502.105
G1 X248.509 Y-481.053
G1 X237.982 Y-467.018
G1 X252.018 Y-452.982
G1 X262.544 Y-431.930
G1 X259.035 Y-407.368
G1 X255.526 Y-389.825
G1 X213.421 Y-463.509
G1 X223.947 Y-481.053
G1 X209.912 Y-495.088
G1 X199.386 Y-498.597
G1 X206.404 Y-505.614
G1 X195.877 Y-519.649
G1 X199.386 Y-526.667
G1 X195.877 Y-537.193
G1 X206.404 Y-582.807
G1 X174.825 Y-523.158
G1 X181.842 Y-509.123
G1 X178.333 Y-523.158
G1 X188.860 Y-505.614
G1 X171.316 Y-509.123
G1 X167.807 Y-519.649
G1 X188.860 Y-537.193
G1 X192.368 Y-551.228
G1 X188.860 Y-561.754
G1 X202.895 Y-607.368
G1 X213.421 Y-670.526
G1 X220.439 Y-691.579
G1 X241.491 Y-733.684
G1 X252.018 Y-712.632
G1 X273.070 Y-719.649
G1 X304.649 Y-733.684
G1 X259.035 Y-723.158
G1 X287.105 Y-705.614
G1 X304.649 Y-716.140
G1 X301.140 Y-709.123
G1 X318.684 Y-730.175
G1 X304.649 Y-698.597
G1 X294.123 Y-691.579
G1 X304.649 Y-688.070
G1 X301.140 Y-702.105
G1 X287.105 Y-688.070
G1 X280.088 Y-698.597
G1 X294.123 Y-705.614
G1 X304.649 Y-723.158
G1 X311.667 Y-702.105
G1 X287.105 Y-681.053
G1 X311.667 Y-677.544
G1 X332.719 Y-677.544
G1 X392.368 Y-628.421
G1 X402.895 Y-652.982
G1 X378.333 Y-667.018
G1 X392.368 Y-610.877
G1 X409.912 Y-617.895
G1 X360.789 Y-526.667
G1 X318.684 Y-407.368
G1 X297.632 Y-365.263
G1 X301.140 Y-407.368
G1 X111.667 Y-596.842
G1 X108.158 Y-589.825
G1 X111.667 Y-614.386
G1 X101.140 Y-635.439
G1 X108.158 Y-593.333
G1 X111.667 Y-645.965
G1 X108.158 Y-638.947
G1 X111.667 Y-656.491
G1 X94.123 Y-631.930
G1 X104.649 Y-561.754
G1 X87.105 Y-530.175
G1 X129.211 Y-512.632
G1 X167.807 Y-474.035
G1 X185.351 Y-488.070
G1 X181.842 Y-481.053
G1 X171.316 Y-498.597
G1 X192.368 Y-491.579
G1 X188.860 Y-474.035
G1 X216.930 Y-505.614
G1 X220.439 Y-533.684
G1 X227.456 Y-561.754
G1 X220.439 Y-568.772
G1 X216.930 Y-554.737
G1 X248.509 Y-502.105
G1 X220.439 Y-645.965
G1 X227.456 Y-663.509
G1 X220.439 Y-674.035
G1 X223.947 Y-684.561
G1 X230.965 Y-677.544
G1 X209.912 Y-663.509
G1 X220.439 Y-642.456
G1 X213.421 Y-645.965
G1 X216.930 Y-614.386
G1 X241.491 Y-649.474
G1 X248.509 Y-635.439
G1 X259.035 Y-649.474
G1 X262.544 Y-638.947
G1 X241.491 Y-677.544
G1 X241.491 Y-670.526
G1 X230.965 Y-656.491
G1 X241.491 Y-660.000
G1 X252.018 Y-698.597
G1 X280.088 Y-712.632
G1 X273.070 Y-695.088
G1 X311.667 Y-733.684
G1 X283.596 Y-719.649
G1 X332.719 Y-684.561
G1 X339.737 Y-726.667
G1 X315.175 Y-684.561
G1 X318.684 Y-705.614
G1 X329.211 Y-723.158
G1 X325.702 Y-733.684
G1 X371.316 Y-730.175
G1 X430.965 Y-674.035
G1 X402.895 Y-624.912
G1 X406.404 Y-638.947
G1 X385.351 Y-607.368
G1 X420.439 Y-635.439
G1 X395.877 Y-677.544
G1 X178.333 Y-691.579
G1 X167.807 Y-674.035
G1 X164.298 Y-667.018
G1 X178.333 Y-684.561
G1 X167.807 Y-712.632
G1 X160.789 Y-719.649
G1 X174.825 Y-716.140
G1 X153.772 Y-698.597
G1 X150.263 Y-712.632
G1 X143.246 Y-730.175
G1 X157.281 Y-733.684
G1 X136.228 Y-719.649
G1 X129.211 Y-733.684
G1 X125.702 Y-716.140
G1 X115.175 Y-712.632
G1 X97.632 Y-733.684
G1 X94.123 Y-712.632
G1 X111.667 Y-677.544
G1 X104.649 Y-649.474
G1 X139.737 Y-593.333
G1 X146.754 Y-614.386
G1 X157.281 Y-624.912
G1 X150.263 Y-638.947
G1 X188.860 Y-691.579
G1 X188.860 Y-705.614
G1 X171.316 Y-726.667
G1 X164.298 Y-733.684
G1 X185.351 Y-730.175
G1 X192.368 Y-733.684
G1 X181.842 Y-733.684
G1 X160.789 Y-723.158
G1 X185.351 Y-726.667
G1 X125.702 Y-691.579
G1 X132.719 Y-684.561
G1 X125.702 Y-688.070
G1 X150.263 Y-663.509
G1 X160.789 Y-635.439
G1 X143.246 Y-621.404
G1 X136.228 Y-607.368
G1 X125.702 Y-593.333
G1 X125.702 Y-579.298
G1 X129.211 Y-565.263
G1 X136.228 Y-554.737
G1 X143.246 Y-558.246
G1 X150.263 Y-579.298
G1 X146.754 Y-596.842
G1 X139.737 Y-575.790
G1 X129.211 Y-572.281
G1 X136.228 Y-586.316
G1 X122.193 Y-614.386
G1 X118.684 Y-544.211
G1 X122.193 Y-561.754
G1 X97.632 Y-540.702
G1 X62.544 Y-656.491
G1 X80.088 Y-691.579
G1 X48.509 Y-667.018
G1 X48.509 Y-645.965
G1 X76.579 Y-660.000
G1 X48.509 Y-730.175
G1 X80.088 Y-730.175
G1 X45.000 Y-712.632
G1 X80.088 Y-695.088
G1 X41.491 Y-702.105
G1 X52.018 Y-575.790
G1 X69.561 Y-554.737
G1 X115.175 Y-523.158
G1 X157.281 Y-498.597
G1 X153.772 Y-509.123
G1 X129.211 Y-523.158
G1 X111.667 Y-530.175
G1 X80.088 Y-638.947
G1 X30.965 Y-638.947
G1 X37.982 Y-603.860
G1 X66.053 Y-561.754
G1 X118.684 Y-523.158
G1 X150.263 Y-509.123
G1 X164.298 Y-481.053
G1 X153.772 Y-526.667
G1 X146.754 Y-544.211
G1 X132.719 Y-530.175
G1 X118.684 Y-537.193
G1 X150.263 Y-558.246
G1 X153.772 Y-575.790
G1 X167.807 Y-586.316
G1 X178.333 Y-568.772
G1 X185.351 Y-544.211
G1 X160.789 Y-530.175
G1 X188.860 Y-417.895
G1 X185.351 Y-452.982
G1 X199.386 Y-474.035
G1 X192.368 Y-502.105
G1 X125.702 Y-656.491
G1 X122.193 Y-670.526
G1 X129.211 Y-681.053
G1 X143.246 Y-660.000
G1 X150.263 Y-677.544
G1 X157.281 Y-698.597
G1 X199.386 Y-733.684
G1 X234.474 Y-705.614
G1 X259.035 Y-733.684
G1 X245.000 Y-702.105
G1 X322.193 Y-733.684
G1 X308.158 Y-670.526
G1 X336.228 Y-656.491
G1 X437.982 Y-688.070
G1 X353.772 Y-568.772
G1 X371.316 Y-558.246
G1 X353.772 Y-537.193
G1 X329.211 Y-523.158
G1 X308.158 Y-519.649
G1 X290.614 Y-502.105
G1 X290.614 Y-526.667
G1 X276.579 Y-547.719
G1 X283.596 Y-502.105
G1 X297.632 Y-488.070
G1 X283.596 Y-474.035
G1 X273.070 Y-470.526
G1 X283.596 Y-463.509
G1 X301.140 Y-488.070
G1 X311.667 Y-414.386
G1 X283.596 Y-379.298
G1 X280.088 Y-410.877
G1 X259.035 Y-379.298
G1 X273.070 Y-361.754
G1 X266.053 Y-337.193
G1 X280.088 Y-361.754
G1 X276.579 Y-389.825
G1 X287.105 Y-368.772
G1 X280.088 Y-340.702
G1 X245.000 Y-389.825
G1 X237.982 Y-337.193
G1 X252.018 Y-326.667
G1 X237.982 Y-316.140
G1 X234.474 Y-309.123
G1 X269.561 Y-256.491
G1 X273.070 Y-267.018
G1 X290.614 Y-291.579
G1 X269.561 Y-295.088
G1 X301.140 Y-228.421
G1 X297.632 Y-252.982
G1 X287.105 Y-238.947
G1 X297.632 Y-217.895
G1 X297.632 Y-203.860
G1 X262.544 Y-260.000
G1 X287.105 Y-312.632
G1 X255.526 Y-344.211
G1 X259.035 Y-358.246
G1 X245.000 Y-354.737
G1 X262.544 Y-333.684
G1 X269.561 Y-393.333
G1 X248.509 Y-428.421
G1 X230.965 Y-470.526
G1 X276.579 Y-509.123
G1 X269.561 Y-607.368
G1 X276.579 Y-635.439
G1 X259.035 Y-614.386
G1 X245.000 Y-652.982
G1 X237.982 Y-652.982
G1 X241.491 Y-624.912
G1 X266.053 Y-607.368
G1 X269.561 Y-631.930
G1 X241.491 Y-603.860
G1 X216.930 Y-610.877
G1 X234.474 Y-635.439
G1 X206.404 Y-674.035
G1 X209.912 Y-698.597
G1 X230.965 Y-667.018
G1 X297.632 Y-337.193
G1 X308.158 Y-326.667
G1 X297.632 Y-330.175
G1 X283.596 Y-358.246
G1 X294.123 Y-431.930
G1 X350.263 Y-505.614
G1 X318.684 Y-491.579
G1 X301.140 Y-526.667
G1 X339.737 Y-512.632
G1 X353.772 Y-530.175
G1 X350.263 Y-509.123
G1 X332.719 Y-537.193
G1 X392.368 Y-589.825
G1 X353.772 Y-572.281
G1 X343.246 Y-561.754
G1 X367.807 Y-572.281
G1 X357.281 Y-596.842
G1 X371.316 Y-607.368
G1 X399.386 Y-652.982
G1 X392.368 Y-656.491
G0 Z1



G0 X94.123 Y466.316
G1 Z0

G1 X108.158 Y441.754
G1 X122.193 Y476.842
G1 X101.140 Y480.351
G1 X111.667 Y459.298
G1 X97.632 Y564.561
G1 X132.719 Y494.386
G1 X104.649 Y525.965
G1 X83.596 Y497.895
G1 X59.035 Y501.404
G1 X90.614 Y511.930
G1 X76.579 Y501.404
G1 X62.544 Y497.895
G1 X-4.123 Y511.930
G1 X30.965 Y490.877
G1 X73.070 Y431.228
G1 X73.070 Y424.211
G1 X34.474 Y480.351
G1 X30.965 Y452.281
G1 X83.596 Y483.860
G1 X55.526 Y476.842
G1 X76.579 Y487.368
G1 X104.649 Y494.386
G1 X59.035 Y578.596
G1 X62.544 Y543.509
G1 X23.947 Y568.070
G1 X59.035 Y561.053
G1 X-.614 Y599.649
G1 X-14.649 Y652.281
G1 X52.018 Y568.070
G1 X37.982 Y603.158
G1 X6.404 Y599.649
G1 X41.491 Y578.596
G1 X16.930 Y568.070
G1 X83.596 Y529.474
G1 X80.088 Y511.930
G1 X97.632 Y540.000
G1 X62.544 Y578.596
G1 X139.737 Y554.035
G1 X104.649 Y529.474
G1 X115.175 Y554.035
G1 X146.754 Y511.930
G1 X146.754 Y438.246
G1 X195.877 Y406.667
G1 X188.860 Y434.737
G1 X192.368 Y466.316
G1 X216.930 Y438.246
G1 X213.421 Y459.298
G1 X262.544 Y403.158
G1 X304.649 Y399.649
G1 X325.702 Y399.649
G1 X199.386 Y578.596
G1 X195.877 Y620.702
G1 X164.298 Y627.719
G1 X167.807 Y606.667
G1 X157.281 Y624.211
G1 X259.035 Y487.368
G1 X199.386 Y550.526
G1 X216.930 Y585.614
G1 X202.895 Y568.070
G1 X178.333 Y599.649
G1 X188.860 Y624.211
G1 X276.579 Y483.860
G1 X227.456 Y466.316
G1 X252.018 Y483.860
G1 X230.965 Y480.351
G1 X227.456 Y469.825
G1 X237.982 Y476.842
G1 X178.333 Y473.333
G1 X213.421 Y297.895
G1 X234.474 Y308.421
G1 X178.333 Y308.421
G1 X139.737 Y332.982
G1 X115.175 Y371.579
G1 X136.228 Y431.228
G1 X188.860 Y399.649
G1 X122.193 Y382.105
G1 X108.158 Y350.526
G1 X66.053 Y354.035
G1 X52.018 Y385.614
G1 X41.491 Y364.561
G1 X104.649 Y357.544
G1 X80.088 Y417.193
G1 X90.614 Y438.246
G1 X69.561 Y466.316
G1 X80.088 Y473.333
G1 X94.123 Y455.789
G1 X87.105 Y434.737
G1 X97.632 Y417.193
G1 X94.123 Y445.263
G1 X122.193 Y431.228
G1 X111.667 Y389.123
G1 X262.544 Y343.509
G1 X248.509 Y308.421
G1 X241.491 Y343.509
G1 X255.526 Y315.439
G1 X294.123 Y382.105
G1 X290.614 Y361.053
G1 X245.000 Y396.140
G1 X227.456 Y385.614
G1 X245.000 Y452.281
G1 X223.947 Y424.211
G1 X223.947 Y445.263
G1 X241.491 Y403.158
G1 X280.088 Y417.193
G1 X315.175 Y403.158
G1 X262.544 Y406.667
G1 X188.860 Y497.895
G1 X252.018 Y490.877
G1 X195.877 Y547.018
G1 X213.421 Y554.035
G1 X223.947 Y540.000
G1 X220.439 Y532.982
G1 X206.404 Y554.035
G1 X227.456 Y592.632
G1 X241.491 Y543.509
G1 X223.947 Y522.456
G1 X202.895 Y543.509
G1 X125.702 Y392.632
G1 X195.877 Y368.070
G1 X167.807 Y389.123
G1 X122.193 Y375.088
G1 X171.316 Y340.000
G1 X188.860 Y315.439
G1 X262.544 Y375.088
G1 X252.018 Y350.526
G1 X262.544 Y357.544
G1 X234.474 Y368.070
G1 X223.947 Y375.088
G1 X213.421 Y403.158
G1 X171.316 Y389.123
G1 X195.877 Y375.088
G1 X206.404 Y385.614
G1 X206.404 Y343.509
G1 X227.456 Y311.930
G1 X237.982 Y347.018
G1 X209.912 Y329.474
G1 X188.860 Y245.263
G1 X199.386 Y266.316
G1 X199.386 Y280.351
G1 X237.982 Y304.912
G1 X223.947 Y301.404
G1 X216.930 Y304.912
G1 X213.421 Y329.474
G1 X136.228 Y375.088
G1 X111.667 Y354.035
G1 X132.719 Y361.053
G1 X153.772 Y350.526
G1 X192.368 Y385.614
G1 X132.719 Y410.175
G1 X171.316 Y378.596
G1 X146.754 Y361.053
G1 X202.895 Y329.474
G1 X192.368 Y361.053
G1 X157.281 Y343.509
G1 X125.702 Y361.053
G1 X-112.895 Y592.632
G1 X-60.263 Y522.456
G1 X-95.351 Y476.842
G1 X-84.825 Y497.895
G1 X-105.877 Y487.368
G1 X-137.456 Y511.930
G1 X-158.509 Y518.947
G1 X-133.947 Y494.386
G1 X-91.842 Y511.930
G1 X-67.281 Y504.912
G1 X-102.368 Y575.088
G1 X-102.368 Y550.526
G1 X-98.860 Y536.491
G1 X-105.877 Y522.456
G1 X-147.982 Y540.000
G1 X-137.456 Y547.018
G1 X-162.018 Y564.561
G1 X-158.509 Y547.018
G1 X-140.965 Y532.982
G1 X-147.982 Y529.474
G1 X-155.000 Y532.982
G1 X-162.018 Y532.982
G1 X-221.667 Y438.246
G1 X-260.263 Y361.053
G1 X-295.351 Y297.895
G1 X-319.912 Y185.614
G1 X-340.965 Y161.053
G1 X-347.982 Y182.105
G1 X-344.474 Y217.193
G1 X-358.509 Y171.579
G1 X-362.018 Y125.965
G1 X-351.491 Y161.053
G1 X-344.474 Y185.614
G1 X-347.982 Y199.649
G1 X-344.474 Y192.632
G1 X-305.877 Y189.123
G1 X-319.912 Y83.860
G1 X-330.439 Y104.912
G1 X-347.982 Y48.772
G1 X-312.895 Y-21.404
G1 X-337.456 Y-52.982
G1 X-333.947 Y-81.053
G1 X-316.404 Y-140.702
G1 X-323.421 Y-63.509
G1 X-333.947 Y-42.456
G1 X-344.474 Y-14.386
G1 X-358.509 Y31.228
G1 X-347.982 Y17.193
G1 X-323.421 Y-52.982
G1 X-312.895 Y122.456
G1 X-330.439 Y147.018
G1 X-330.439 Y136.491
G1 X-358.509 Y73.333
G1 X-362.018 Y66.316
G1 X-379.561 Y38.246
G1 X-376.053 Y73.333
G1 X-379.561 Y90.877
G1 X-383.070 Y118.947
G1 X-376.053 Y136.491
G1 X-376.053 Y108.421
G1 X-351.491 Y66.316
G1 X-344.474 Y83.860
G1 X-358.509 Y111.930
G1 X-337.456 Y147.018
G1 X-333.947 Y140.000
G1 X-376.053 Y48.772
G1 X-369.035 Y-17.895
G1 X-355.000 Y-.351
G1 X-358.509 Y-70.526
G1 X-355.000 Y-63.509
G1 X-351.491 Y-31.930
G1 X-351.491 Y-21.404
G1 X-421.667 Y-84.561
G1 X-425.175 Y-133.684
G1 X-414.649 Y-168.772
G1 X-379.561 Y-214.386
G1 X-386.579 Y-182.807
G1 X-404.123 Y-161.754
G1 X-397.105 Y-133.684
G1 X-390.088 Y-112.632
G1 X-404.123 Y-88.070
G1 X-390.088 Y-67.018
G1 X-428.684 Y140.000
G1 X-407.632 Y101.404
G1 X-404.123 Y122.456
G1 X-379.561 Y203.158
G1 X-386.579 Y231.228
G1 X-383.070 Y224.211
G1 X-344.474 Y297.895
G1 X-351.491 Y304.912
G1 X-344.474 Y318.947
G1 X-347.982 Y343.509
G1 X-390.088 Y245.263
G1 X-404.123 Y182.105
G1 X-407.632 Y147.018
G1 X-411.140 Y129.474
G1 X-414.649 Y175.088
G1 X-397.105 Y157.544
G1 X-393.596 Y143.509
G1 X-386.579 Y66.316
G1 X-379.561 Y55.789
G1 X-379.561 Y69.825
G1 X-397.105 Y-17.895
G1 X-421.667 Y-49.474
G1 X-404.123 Y-10.877
G1 X-397.105 Y24.211
G1 X-446.228 Y-74.035
G1 X-428.684 Y-119.649
G1 X-435.702 Y-168.772
G1 X-442.719 Y-200.351
G1 X-411.140 Y-154.737
G1 X-407.632 Y-126.667
G1 X-414.649 Y-140.702
G1 X-414.649 Y-151.228
G1 X-439.211 Y-123.158
G1 X-439.211 Y-175.789
G1 X-411.140 Y-193.333
G1 X-400.614 Y-168.772
G1 X-390.088 Y-154.737
G1 X-376.053 Y-189.825
G1 X-397.105 Y-147.719
G1 X-393.596 Y-140.702
G1 X-369.035 Y-81.053
G1 X-372.544 Y-49.474
G1 X-379.561 Y-95.088
G1 X-376.053 Y-119.649
G1 X-372.544 Y-133.684
G1 X-372.544 Y-154.737
G1 X-386.579 Y-137.193
G1 X-390.088 Y-126.667
G1 X-400.614 Y-112.632
G1 X-386.579 Y-91.579
G1 X-383.070 Y-74.035
G1 X-407.632 Y-112.632
G1 X-411.140 Y-126.667
G1 X-404.123 Y-116.140
G1 X-404.123 Y-123.158
G1 X-456.754 Y-52.982
G1 X-400.614 Y80.351
G1 X-393.596 Y69.825
G1 X-383.070 Y-14.386
G1 X-393.596 Y-17.895
G1 X-397.105 Y6.667
G1 X-411.140 Y69.825
G1 X-400.614 Y66.316
G1 X-393.596 Y45.263
G1 X-439.211 Y-52.982
G1 X-432.193 Y-67.018
G1 X-404.123 Y-31.930
G1 X-414.649 Y-14.386
G1 X-428.684 Y-60.000
G1 X-467.281 Y-70.526
G1 X-421.667 Y-10.877
G1 X-414.649 Y41.754
G1 X-432.193 Y136.491
G1 X-418.158 Y168.070
G1 X-418.158 Y125.965
G1 X-425.175 Y108.421
G1 X-411.140 Y90.877
G1 X-414.649 Y76.842
G1 X-411.140 Y83.860
G1 X-418.158 Y94.386
G1 X-411.140 Y101.404
G1 X-414.649 Y108.421
G1 X-407.632 Y122.456
G1 X-242.719 Y445.263
G1 X-249.737 Y483.860
G1 X-260.263 Y462.807
G1 X-158.509 Y557.544
G1 X-147.982 Y547.018
G1 X-137.456 Y578.596
G1 X-137.456 Y557.544
G1 X-151.491 Y575.088
G1 X-147.982 Y557.544
G1 X-155.000 Y550.526
G1 X52.018 Y448.772
G1 X9.912 Y494.386
G1 X-18.158 Y448.772
G1 X-.614 Y413.684
G1 X23.947 Y403.158
G1 X-25.175 Y462.807
G1 X2.895 Y487.368
G1 X9.912 Y476.842
G1 X27.456 Y462.807
G1 X30.965 Y483.860
G1 X16.930 Y490.877
G1 X27.456 Y501.404
G1 X69.561 Y508.421
G1 X87.105 Y497.895
G1 X101.140 Y518.947
G1 X97.632 Y525.965
G1 X76.579 Y550.526
G1 X59.035 Y522.456
G1 X80.088 Y522.456
G1 X23.947 Y554.035
G1 X41.491 Y550.526
G1 X20.439 Y561.053
G1 X-46.228 Y645.263
G1 X-21.667 Y596.140
G1 X45.000 Y638.246
G1 X55.526 Y568.070
G1 X94.123 Y540.000
G1 X94.123 Y564.561
G1 X73.070 Y532.982
G1 X66.053 Y557.544
G1 X37.982 Y561.053
G1 X59.035 Y550.526
G1 X-25.175 Y525.965
G1 X30.965 Y508.421
G1 X-56.754 Y585.614
G1 X-18.158 Y648.772
G1 X-25.175 Y610.175
G1 X2.895 Y624.211
G1 X6.404 Y603.158
G1 X69.561 Y645.263
G1 X23.947 Y648.772
G1 X41.491 Y624.211
G1 X66.053 Y634.737
G1 X139.737 Y585.614
G1 X139.737 Y631.228
G1 X69.561 Y568.070
G1 X80.088 Y554.035
G1 X90.614 Y575.088
G1 X143.246 Y557.544
G1 X143.246 Y434.737
G1 X129.211 Y459.298
G1 X122.193 Y497.895
G1 X132.719 Y483.860
G1 X129.211 Y494.386
G1 X111.667 Y476.842
G1 X125.702 Y445.263
G1 X97.632 Y382.105
G1 X108.158 Y364.561
G1 X94.123 Y361.053
G1 X76.579 Y406.667
G1 X87.105 Y392.632
G1 X104.649 Y403.158
G1 X111.667 Y431.228
G1 X167.807 Y399.649
G1 X178.333 Y403.158
G1 X178.333 Y462.807
G1 X153.772 Y441.754
G1 X174.825 Y431.228
G1 X150.263 Y455.789
G1 X150.263 Y511.930
G1 X118.684 Y557.544
G1 X132.719 Y554.035
G1 X125.702 Y550.526
G1 X139.737 Y480.351
G1 X132.719 Y490.877
G1 X125.702 Y536.491
G1 X108.158 Y518.947
G1 X118.684 Y504.912
G1 X125.702 Y515.439
G1 X118.684 Y536.491
G1 X115.175 Y543.509
G1 X108.158 Y561.053
G1 X97.632 Y547.018
G1 X94.123 Y518.947
G1 X83.596 Y511.930
G1 X16.930 Y550.526
G1 X-126.930 Y624.211
G1 X-42.719 Y529.474
G1 X-.614 Y487.368
G1 X-14.649 Y518.947
G1 X-.614 Y515.439
G1 X52.018 Y543.509
G1 X80.088 Y525.965
G1 X83.596 Y540.000
G1 X90.614 Y554.035
G1 X69.561 Y592.632
G1 X97.632 Y596.140
G1 X59.035 Y620.702
G1 X97.632 Y610.175
G1 X111.667 Y599.649
G1 X188.860 Y645.263
G1 X220.439 Y603.158
G1 X206.404 Y575.088
G1 X199.386 Y603.158
G1 X167.807 Y624.211
G1 X185.351 Y627.719
G1 X195.877 Y582.105
G1 X171.316 Y617.193
G1 X174.825 Y603.158
G1 X143.246 Y585.614
G1 X160.789 Y466.316
G1 X150.263 Y452.281
G1 X150.263 Y445.263
G1 X195.877 Y494.386
G1 X223.947 Y483.860
G1 X220.439 Y466.316
G1 X423.947 Y269.825
G1 X409.912 Y224.211
G1 X413.421 Y276.842
G1 X423.947 Y259.298
G1 X413.421 Y224.211
G1 X469.561 Y231.228
G1 X455.526 Y238.246
G1 X430.965 Y231.228
G1 X462.544 Y227.719
G1 X318.684 Y392.632
G1 X304.649 Y389.123
G1 X311.667 Y392.632
G1 X301.140 Y392.632
G1 X287.105 Y378.596
G1 X283.596 Y389.123
G1 X290.614 Y385.614
G1 X357.281 Y322.456
G1 X322.193 Y308.421
G1 X315.175 Y252.281
G1 X332.719 Y245.263
G1 X357.281 Y-28.421
G1 X346.754 Y-70.526
G1 X381.842 Y-31.930
G1 X378.333 Y34.737
G1 X392.368 Y-14.386
G1 X357.281 Y-49.474
G1 X364.298 Y-45.965
G1 X374.825 Y20.702
G1 X353.772 Y52.281
G1 X381.842 Y48.772
G1 X388.860 Y6.667
G1 X374.825 Y-3.860
G1 X367.807 Y-35.439
G1 X378.333 Y-14.386
G1 X374.825 Y6.667
G1 X353.772 Y45.263
G1 X346.754 Y-7.368
G1 X353.772 Y-31.930
G1 X315.175 Y-144.211
G1 X325.702 Y-154.737
G1 X311.667 Y-126.667
G1 X311.667 Y-119.649
G1 X381.842 Y-158.246
G1 X350.263 Y-151.228
G1 X378.333 Y-168.772
G1 X322.193 Y-203.860
G1 X371.316 Y-193.333
G1 X332.719 Y-165.263
G1 X343.246 Y-196.842
G1 X385.351 Y-172.281
G1 X371.316 Y-168.772
G0 Z1

G0 X118.684 Y-540.702
G1 Z0

G1 X136.228 Y-568.772
G1 X111.667 Y-565.263
G1 X111.667 Y-589.825
G1 X94.123 Y-565.263
G1 X90.614 Y-589.825
G1 X111.667 Y-554.737
G1 X80.088 Y-709.123
G1 X45.000 Y-730.175
G1 X41.491 Y-705.614
G1 X83.596 Y-730.175
G1 X80.088 Y-642.456
G1 X30.965 Y-642.456
G1 X34.474 Y-681.053
G1 X41.491 Y-733.684
G1 X87.105 Y-733.684
G1 X83.596 Y-635.439
G1 X104.649 Y-670.526
G1 X94.123 Y-705.614
G1 X111.667 Y-733.684
G1 X122.193 Y-709.123
G1 X143.246 Y-733.684
G1 X188.860 Y-663.509
G1 X188.860 Y-684.561
G1 X181.842 Y-698.597
G1 X192.368 Y-628.421
G1 X192.368 Y-723.158
G1 X160.789 Y-677.544
G1 X164.298 Y-684.561
G1 X178.333 Y-660.000
G1 X185.351 Y-628.421
G1 X153.772 Y-667.018
G1 X164.298 Y-638.947
G1 X157.281 Y-610.877
G1 X181.842 Y-568.772
G1 X150.263 Y-526.667
G1 X132.719 Y-551.228
G1 X143.246 Y-572.281
G1 X122.193 Y-649.474
G1 X118.684 Y-582.807
G1 X132.719 Y-540.702
G1 X157.281 Y-551.228
G1 X122.193 Y-660.000
G1 X143.246 Y-681.053
G1 X125.702 Y-698.597
G1 X146.754 Y-716.140
G1 X143.246 Y-684.561
G1 X90.614 Y-733.684
G1 X94.123 Y-660.000
G1 X115.175 Y-621.404
G1 X115.175 Y-695.088
G1 X97.632 Y-645.965
G1 X220.439 Y-431.930
G1 X234.474 Y-414.386
G1 X213.421 Y-460.000
G1 X202.895 Y-442.456
G1 X227.456 Y-393.333
G1 X213.421 Y-403.860
G1 X241.491 Y-396.842
G1 X237.982 Y-379.298
G1 X234.474 Y-368.772
G1 X255.526 Y-379.298
G1 X266.053 Y-407.368
G1 X230.965 Y-474.035
G1 X248.509 Y-498.597
G1 X255.526 Y-456.491
G1 X223.947 Y-502.105
G1 X209.912 Y-554.737
G1 X202.895 Y-540.702
G1 X213.421 Y-582.807
G1 X230.965 Y-561.754
G1 X209.912 Y-621.404
G1 X202.895 Y-677.544
G1 X206.404 Y-709.123
G1 X199.386 Y-702.105
G1 X199.386 Y-645.965
G1 X220.439 Y-705.614
G1 X269.561 Y-691.579
G1 X301.140 Y-705.614
G1 X269.561 Y-681.053
G1 X367.807 Y-635.439
G1 X395.877 Y-596.842
G1 X336.228 Y-575.790
G1 X350.263 Y-572.281
G1 X332.719 Y-558.246
G1 X357.281 Y-561.754
G1 X325.702 Y-540.702
G1 X392.368 Y-526.667
G1 X318.684 Y-575.790
G1 X294.123 Y-565.263
G1 X294.123 Y-558.246
G1 X290.614 Y-551.228
G1 X287.105 Y-565.263
G1 X276.579 Y-558.246
G1 X290.614 Y-565.263
G1 X294.123 Y-540.702
G1 X283.596 Y-523.158
G1 X273.070 Y-484.561
G1 X297.632 Y-449.474
G1 X269.561 Y-463.509
G1 X273.070 Y-403.860
G1 X332.719 Y-495.088
G1 X322.193 Y-512.632
G1 X346.754 Y-505.614
G1 X318.684 Y-547.719
G1 X332.719 Y-575.790
G1 X325.702 Y-547.719
G1 X308.158 Y-540.702
G1 X322.193 Y-575.790
G1 X304.649 Y-561.754
G1 X297.632 Y-516.140
G1 X329.211 Y-452.982
G1 X297.632 Y-607.368
G1 X304.649 Y-649.474
G1 X290.614 Y-645.965
G1 X294.123 Y-607.368
G1 X273.070 Y-670.526
G1 X343.246 Y-628.421
G1 X367.807 Y-652.982
G1 X315.175 Y-635.439
G1 X336.228 Y-617.895
G1 X381.842 Y-600.351
G1 X360.789 Y-596.842
G1 X336.228 Y-614.386
G1 X301.140 Y-642.456
G1 X322.193 Y-600.351
G1 X301.140 Y-600.351
G1 X297.632 Y-642.456
G1 X276.579 Y-607.368
G1 X245.000 Y-660.000
G1 X199.386 Y-730.175
G1 X199.386 Y-709.123
G1 X223.947 Y-660.000
G1 X266.053 Y-649.474
G1 X227.456 Y-698.597
G1 X237.982 Y-677.544
G1 X202.895 Y-596.842
G1 X273.070 Y-642.456
G1 X266.053 Y-684.561
G1 X374.825 Y-656.491
G1 X353.772 Y-621.404
G1 X311.667 Y-642.456
G1 X290.614 Y-674.035
G1 X385.351 Y-631.930
G1 X346.754 Y-596.842
G1 X332.719 Y-607.368
G1 X364.298 Y-617.895
G1 X304.649 Y-656.491
G1 X301.140 Y-663.509
G0 Z1



G0 X-242.719 Y-319.649
G1 Z0

G1 X-239.211 Y-312.632
G1 X-288.333 Y-337.193
G1 X-211.140 Y-379.298
G1 X-309.386 Y-417.895
G1 X-225.175 Y-351.228
G1 X-298.860 Y-312.632
G1 X-256.754 Y-319.649
G1 X-274.298 Y-221.404
G1 X-351.491 Y-242.456
G1 X-316.404 Y-305.614
G1 X-316.404 Y-386.316
G1 X-260.263 Y-337.193
G1 X-214.649 Y-365.263
G1 X-277.807 Y-396.842
G1 X-305.877 Y-452.982
G1 X-267.281 Y-403.860
G1 X-211.140 Y-389.825
G1 X-218.158 Y-424.912
G1 X-235.702 Y-393.333
G1 X-253.246 Y-389.825
G1 X-225.175 Y-375.789
G1 X-369.035 Y-337.193
G1 X-351.491 Y-302.105
G1 X-312.895 Y-235.439
G1 X-309.386 Y-242.456
G1 X-316.404 Y-245.965
G1 X-319.912 Y-347.719
G1 X-355.000 Y-295.088
G1 X-355.000 Y-200.351
G1 X-323.421 Y-81.053
G1 X-358.509 Y-126.667
G1 X-355.000 Y-193.333
G1 X-274.298 Y-238.947
G1 X-263.772 Y-316.140
G1 X-316.404 Y-298.597
G1 X-330.439 Y-274.035
G1 X-344.474 Y-242.456
G1 X-319.912 Y-270.526
G1 X-372.544 Y76.842
G1 X-369.035 Y157.544
G1 X-281.316 Y406.667
G1 X-358.509 Y259.298
G1 X-386.579 Y132.982
G1 X-383.070 Y66.316
G1 X-340.965 Y171.579
G1 X-340.965 Y231.228
G1 X-291.842 Y325.965
G1 X-312.895 Y332.982
G1 X-383.070 Y132.982
G1 X-376.053 Y94.386
G1 X-319.912 Y-49.474
G1 X-337.456 Y-95.088
G1 X-323.421 Y-144.211
G1 X-323.421 Y-88.070
G1 X-362.018 Y27.719
G1 X-323.421 Y132.982
G1 X-355.000 Y129.474
G1 X-316.404 Y175.088
G1 X-319.912 Y164.561
G1 X-326.930 Y147.018
G1 X-362.018 Y171.579
G1 X-365.526 Y115.439
G1 X-411.140 Y73.333
G1 X-376.053 Y199.649
G1 X-379.561 Y245.263
G1 X-305.877 Y368.070
G1 X-291.842 Y434.737
G1 X-256.754 Y371.579
G1 X-232.193 Y476.842
G1 X-295.351 Y361.053
G1 X-260.263 Y371.579
G1 X-337.456 Y227.719
G1 X-337.456 Y168.070
G1 X-298.860 Y294.386
G1 X-309.386 Y315.439
G1 X-319.912 Y340.000
G1 X-376.053 Y227.719
G1 X-404.123 Y143.509
G1 X-337.456 Y-182.807
G1 X-355.000 Y-147.719
G1 X-347.982 Y-116.140
G1 X-355.000 Y-70.526
G1 X-379.561 Y-347.719
G1 X-323.421 Y-351.228
G1 X-312.895 Y-452.982
G1 X-291.842 Y-414.386
G1 X-312.895 Y-421.404
G1 X-284.825 Y-442.456
G1 X-288.333 Y-421.404
G1 X-277.807 Y-407.368
G1 X-214.649 Y-428.421
G1 X-211.140 Y-400.351
G1 X-225.175 Y-389.825
G1 X-242.719 Y-386.316
G1 X-312.895 Y-365.263
G1 X-246.228 Y-319.649
G1 X-214.649 Y-361.754
G1 X-263.772 Y-256.491
G1 X-288.333 Y-151.228
G1 X-305.877 Y-186.316
G1 X-305.877 Y-144.211
G1 X-288.333 Y-168.772
G1 X-277.807 Y-207.368
G1 X-305.877 Y-189.825
G1 X-284.825 Y-158.246
G1 X-312.895 Y-347.719
G1 X-235.702 Y-368.772
G1 X-221.667 Y-358.246
G1 X-235.702 Y-347.719
G1 X-253.246 Y-351.228
G1 X-298.860 Y-326.667
G1 X-274.298 Y-319.649
G1 X-232.193 Y-340.702
G1 X-249.737 Y-326.667
G1 X-260.263 Y-270.526
G1 X-302.368 Y-298.597
G1 X-274.298 Y-305.614
G1 X-284.825 Y-235.439
G1 X-274.298 Y-256.491
G1 X-270.789 Y-309.123
G1 X-288.333 Y-312.632
G1 X-347.982 Y-410.877
G1 X-333.947 Y-354.737
G1 X-355.000 Y-393.333
G1 X-337.456 Y-281.053
G1 X-323.421 Y-305.614
G1 X-330.439 Y-344.211
G1 X-340.965 Y-323.158
G1 X-330.439 Y-284.561
G1 X-351.491 Y-249.474
G1 X-344.474 Y-305.614
G1 X-365.526 Y-344.211
G1 X-397.105 Y-305.614
G1 X-376.053 Y-252.982
G1 X-362.018 Y-74.035
G1 X-386.579 Y-70.526
G1 X-372.544 Y-168.772
G1 X-414.649 Y-91.579
G1 X-362.018 Y-28.421
G1 X-369.035 Y41.754
G1 X-340.965 Y97.895
G1 X-326.930 Y129.474
G1 X-358.509 Y122.456
G1 X-365.526 Y83.860
G1 X-355.000 Y59.298
G1 X-323.421 Y-17.895
G1 X-347.982 Y-56.491
G1 X-337.456 Y-116.140
G1 X-333.947 Y-154.737
G1 X-316.404 Y-235.439
G1 X-302.368 Y-263.509
G1 X-309.386 Y-221.404
G1 X-323.421 Y-231.930
G1 X-323.421 Y-214.386
G1 X-351.491 Y-238.947
G1 X-333.947 Y-189.825
G1 X-351.491 Y-179.298
G1 X-347.982 Y-140.702
G1 X-340.965 Y-112.632
G1 X-333.947 Y-98.596
G1 X-340.965 Y-56.491
G1 X-351.491 Y-10.877
G1 X-323.421 Y125.965
G1 X-309.386 Y185.614
G1 X-319.912 Y182.105
G1 X-351.491 Y140.000
G1 X-333.947 Y136.491
G1 X-369.035 Y199.649
G1 X-323.421 Y311.930
G1 X-319.912 Y329.474
G1 X-358.509 Y241.754
G1 X-344.474 Y234.737
G1 X-246.228 Y427.719
G1 X-249.737 Y459.298
G1 X-225.175 Y490.877
G1 X-239.211 Y424.211
G1 X-211.140 Y476.842
G1 X-225.175 Y473.333
G1 X-221.667 Y483.860
G1 X-63.772 Y522.456
G1 X-109.386 Y497.895
G1 X-77.807 Y504.912
G1 X-105.877 Y490.877
G1 X-81.316 Y578.596
G1 X-56.754 Y554.035
G1 X-91.842 Y518.947
G1 X-95.351 Y554.035
G1 X-102.368 Y540.000
G1 X-98.860 Y529.474
G1 X-102.368 Y515.439
G1 X-169.035 Y532.982
G1 X-130.439 Y554.035
G1 X-137.456 Y529.474
G1 X-165.526 Y540.000
G1 X-130.439 Y557.544
G1 X-133.947 Y585.614
G1 X-179.561 Y525.965
G1 X-133.947 Y518.947
G1 X-169.035 Y501.404
G1 X-144.474 Y522.456
G1 X-172.544 Y529.474
G1 X-246.228 Y399.649
G1 X-249.737 Y417.193
G1 X-260.263 Y382.105
G1 X-291.842 Y322.456
G1 X-298.860 Y304.912
G1 X-333.947 Y196.140
G1 X-330.439 Y234.737
G1 X-316.404 Y262.807
G1 X-340.965 Y287.368
G1 X-326.930 Y389.123
G1 X-309.386 Y357.544
G1 X-291.842 Y347.018
G1 X-274.298 Y396.140
G1 X-309.386 Y413.684
G1 X-312.895 Y368.070
G1 X-330.439 Y332.982
G1 X-323.421 Y378.596
G1 X-386.579 Y241.754
G1 X-411.140 Y118.947
G1 X-397.105 Y90.877
G1 X-390.088 Y136.491
G1 X-383.070 Y164.561
G1 X-393.596 Y185.614
G1 X-383.070 Y238.246
G1 X-337.456 Y343.509
G1 X-340.965 Y315.439
G1 X-358.509 Y287.368
G1 X-372.544 Y206.667
G1 X-372.544 Y118.947
G1 X-379.561 Y132.982
G1 X-376.053 Y147.018
G1 X-379.561 Y154.035
G1 X-376.053 Y171.579
G1 X-390.088 Y192.632
G1 X-404.123 Y210.175
G1 X-418.158 Y104.912
G1 X-393.596 Y80.351
G1 X-400.614 Y55.789
G1 X-369.035 Y-133.684
G1 X-365.526 Y-161.754
G1 X-358.509 Y-203.860
G1 X-358.509 Y-260.000
G1 X-365.526 Y-326.667
G1 X-351.491 Y-291.579
G1 X-351.491 Y-263.509
G1 X-326.930 Y-245.965
G1 X-319.912 Y-288.070
G1 X-333.947 Y-323.158
G1 X-337.456 Y-295.088
G1 X-344.474 Y-281.053
G1 X-333.947 Y-256.491
G1 X-337.456 Y-207.368
G1 X-351.491 Y-200.351
G1 X-344.474 Y-228.421
G1 X-337.456 Y-235.439
G1 X-347.982 Y-238.947
G1 X-421.667 Y-123.158
G1 X-411.140 Y-91.579
G1 X-379.561 Y-137.193
G1 X-397.105 Y-84.561
G1 X-383.070 Y-60.000
G1 X-369.035 Y-42.456
G1 X-365.526 Y-70.526
G1 X-369.035 Y-119.649
G1 X-411.140 Y-175.789
G1 X-400.614 Y-123.158
G1 X-372.544 Y-179.298
G1 X-414.649 Y-112.632
G1 X-418.158 Y-151.228
G1 X-376.053 Y-207.368
G1 X-365.526 Y-309.123
G1 X-386.579 Y-270.526
G1 X-400.614 Y-305.614
G1 X-355.000 Y-403.860
G1 X-316.404 Y-456.491
G1 X-326.930 Y-379.298
G1 X-344.474 Y-424.912
G1 X-323.421 Y-456.491
G1 X-351.491 Y-445.965
G1 X-277.807 Y-379.298
G1 X-228.684 Y-410.877
G1 X-214.649 Y-393.333
G1 X-249.737 Y-410.877
G1 X-235.702 Y-400.351
G1 X-267.281 Y-407.368
G1 X-225.175 Y-421.404
G1 X-218.158 Y-400.351
G1 X-218.158 Y-414.386
G1 X-235.702 Y-456.491
G1 X-218.158 Y-431.930
G1 X-263.772 Y-428.421
G1 X-305.877 Y-460.000
G1 X-347.982 Y-460.000
G1 X-309.386 Y-431.930
G1 X-305.877 Y-445.965
G1 X-309.386 Y-438.947
G1 X-305.877 Y-431.930
G1 X-312.895 Y-428.421
G1 X-309.386 Y-368.772
G1 X-281.316 Y-393.333
G1 X-302.368 Y-403.860
G1 X-274.298 Y-386.316
G1 X-260.263 Y-393.333
G1 X-274.298 Y-400.351
G1 X-291.842 Y-407.368
G1 X-284.825 Y-400.351
G1 X-309.386 Y-410.877
G1 X-302.368 Y-379.298
G1 X-270.789 Y-351.228
G1 X-249.737 Y-361.754
G1 X-235.702 Y-354.737
G1 X-288.333 Y-326.667
G1 X-277.807 Y-326.667
G1 X-270.789 Y-319.649
G1 X-260.263 Y-281.053
G1 X-232.193 Y-333.684
G1 X-228.684 Y-326.667
G1 X-235.702 Y-309.123
G1 X-260.263 Y-256.491
G1 X-267.281 Y-228.421
G1 X-319.912 Y-207.368
G1 X-312.895 Y-228.421
G1 X-284.825 Y-217.895
G1 X-295.351 Y-291.579
G1 X-277.807 Y-302.105
G1 X-295.351 Y-309.123
G1 X-312.895 Y-270.526
G1 X-312.895 Y-249.474
G1 X-305.877 Y-263.509
G1 X-312.895 Y-284.561
G1 X-309.386 Y-298.597
G1 X-312.895 Y-330.175
G1 X-305.877 Y-347.719
G1 X-284.825 Y-344.211
G1 X-270.789 Y-354.737
G1 X-246.228 Y-326.667
G1 X-249.737 Y-305.614
G1 X-246.228 Y-298.597
G1 X-253.246 Y-284.561
G1 X-256.754 Y-309.123
G1 X-260.263 Y-316.140
G1 X-298.860 Y-231.930
G1 X-309.386 Y-235.439
G1 X-284.825 Y-270.526
G1 X-281.316 Y-295.088
G1 X-295.351 Y-298.597
G1 X-298.860 Y-281.053
G1 X-295.351 Y-260.000
G1 X-312.895 Y-291.579
G1 X-312.895 Y-312.632
G1 X-369.035 Y-361.754
G1 X-340.965 Y-393.333
G1 X-326.930 Y-368.772
G1 X-323.421 Y-386.316
G1 X-337.456 Y-414.386
G1 X-323.421 Y-438.947
G1 X-326.930 Y-396.842
G1 X-347.982 Y-365.263
G1 X-344.474 Y-386.316
G1 X-351.491 Y-400.351
G1 X-383.070 Y-375.789
G1 X-383.070 Y-281.053
G1 X-376.053 Y-267.018
G1 X-379.561 Y-309.123
G1 X-379.561 Y-323.158
G1 X-369.035 Y-368.772
G1 X-358.509 Y-389.825
G1 X-347.982 Y-316.140
G1 X-358.509 Y-298.597
G1 X-365.526 Y-217.895
G1 X-362.018 Y-203.860
G1 X-358.509 Y-172.281
G1 X-355.000 Y-154.737
G1 X-351.491 Y-147.719
G1 X-355.000 Y-126.667
G1 X-355.000 Y-105.614
G0 Z1

G0 X216.930 Y-344.211
G1 Z0

G1 X223.947 Y-344.211
G1 X199.386 Y-396.842
G1 X230.965 Y-375.789
G1 X195.877 Y-365.263
G1 X237.982 Y-252.982
G1 X287.105 Y-337.193
G1 X227.456 Y-288.070
G1 X209.912 Y-365.263
G1 X252.018 Y-281.053
G1 X223.947 Y-312.632
G1 X227.456 Y-354.737
G1 X276.579 Y-305.614
G1 X290.614 Y-337.193
G1 X227.456 Y-274.035
G1 X273.070 Y-137.193
G1 X297.632 Y-42.456
G1 X294.123 Y6.667
G1 X308.158 Y104.912
G1 X332.719 Y62.807
G1 X294.123 Y69.825
G1 X315.175 Y129.474
G1 X329.211 Y73.333
G1 X308.158 Y34.737
G1 X311.667 Y62.807
G1 X336.228 Y129.474
G1 X311.667 Y-151.228
G1 X374.825 Y-175.789
G1 X318.684 Y-126.667
G1 X325.702 Y-38.947
G1 X346.754 Y31.228
G1 X339.737 Y-88.070
G1 X318.684 Y-175.789
G1 X273.070 Y-84.561
G1 X294.123 Y-28.421
G1 X304.649 Y-144.211
G1 X325.702 Y59.298
G1 X297.632 Y6.667
G1 X294.123 Y-24.912
G1 X318.684 Y41.754
G1 X297.632 Y-105.614
G1 X297.632 Y-130.175
G1 X262.544 Y-175.789
G1 X259.035 Y-196.842
G1 X280.088 Y-158.246
G1 X276.579 Y-179.298
G1 X266.053 Y-193.333
G1 X241.491 Y-242.456
G1 X266.053 Y-295.088
G1 X304.649 Y-323.158
G1 X283.596 Y-326.667
G1 X192.368 Y-417.895
G1 X199.386 Y-368.772
G1 X209.912 Y-347.719
G1 X206.404 Y-319.649
G1 X220.439 Y-291.579
G1 X273.070 Y-330.175
G1 X118.684 Y-698.597
G1 X174.825 Y-652.982
G1 X185.351 Y-705.614
G1 X143.246 Y-649.474
G1 X171.316 Y-589.825
G1 X353.772 Y-593.333
G1 X311.667 Y-631.930
G1 X325.702 Y-596.842
G1 X294.123 Y-596.842
G1 X273.070 Y-660.000
G1 X388.860 Y-600.351
G1 X262.544 Y-561.754
G1 X332.719 Y-523.158
G1 X294.123 Y-498.597
G1 X297.632 Y-568.772
G1 X259.035 Y-586.316
G1 X266.053 Y-565.263
G1 X325.702 Y-589.825
G1 X266.053 Y-586.316
G1 X188.860 Y-526.667
G1 X234.474 Y-379.298
G1 X206.404 Y-407.368
G1 X181.842 Y-491.579
G1 X192.368 Y-495.088
G1 X115.175 Y-533.684
G1 X118.684 Y-691.579
G1 X171.316 Y-526.667
G1 X129.211 Y-519.649
G1 X171.316 Y-561.754
G1 X136.228 Y-645.965
G1 X160.789 Y-733.684
G1 X97.632 Y-684.561
G1 X122.193 Y-733.684
G1 X164.298 Y-663.509
G1 X223.947 Y-452.982
G1 X248.509 Y-407.368
G1 X269.561 Y-495.088
G1 X301.140 Y-452.982
G1 X266.053 Y-467.018
G1 X357.281 Y-537.193
G1 X287.105 Y-582.807
G1 X311.667 Y-586.316
G1 X360.789 Y-572.281
G1 X318.684 Y-621.404
G1 X290.614 Y-600.351
G1 X195.877 Y-593.333
G1 X181.842 Y-677.544
G1 X153.772 Y-695.088
G1 X171.316 Y-660.000
G1 X164.298 Y-610.877
G1 X171.316 Y-596.842
G1 X248.509 Y-695.088
G1 X287.105 Y-603.860
G1 X227.456 Y-600.351
G1 X195.877 Y-603.860
G1 X195.877 Y-733.684
G1 X157.281 Y-684.561
G1 X143.246 Y-652.982
G1 X150.263 Y-642.456
G1 X174.825 Y-614.386
G1 X192.368 Y-533.684
G1 X202.895 Y-512.632
G1 X220.439 Y-586.316
G1 X188.860 Y-586.316
G1 X220.439 Y-558.246
G1 X209.912 Y-512.632
G1 X230.965 Y-456.491
G1 X276.579 Y-361.754
G1 X195.877 Y-452.982
G1 X213.421 Y-498.597
G1 X280.088 Y-565.263
G1 X318.684 Y-481.053
G1 X287.105 Y-502.105
G1 X283.596 Y-547.719
G1 X241.491 Y-561.754
G1 X259.035 Y-467.018
G1 X276.579 Y-368.772
G1 X378.333 Y45.263
G1 X346.754 Y-17.895
G1 X343.246 Y-88.070
G1 X353.772 Y-105.614
G1 X332.719 Y-154.737
G1 X364.298 Y-168.772
G1 X329.211 Y-144.211
G1 X322.193 Y-116.140
G1 X339.737 Y-7.368
G1 X332.719 Y24.211
G1 X339.737 Y132.982
G1 X280.088 Y392.632
G1 X329.211 Y378.596
G1 X290.614 Y357.544
G1 X322.193 Y361.053
G1 X290.614 Y318.947
G1 X290.614 Y336.491
G1 X202.895 Y441.754
G1 X227.456 Y375.088
G1 X262.544 Y361.053
G1 X216.930 Y410.175
G1 X227.456 Y490.877
G1 X280.088 Y480.351
G1 X276.579 Y511.930
G1 X248.509 Y476.842
G1 X202.895 Y494.386
G1 X220.439 Y462.807
G1 X-4.123 Y504.912
G1 X30.965 Y487.368
G1 X122.193 Y501.404
G1 X69.561 Y462.807
G1 X48.509 Y487.368
G1 X90.614 Y399.649
G1 X132.719 Y476.842
G1 X132.719 Y462.807
G1 X108.158 Y354.035
G1 X59.035 Y357.544
G1 X62.544 Y375.088
G1 X94.123 Y476.842
G1 X115.175 Y438.246
G1 X262.544 Y347.018
G1 X276.579 Y392.632
G1 X241.491 Y375.088
G1 X220.439 Y403.158
G1 X343.246 Y392.632
G1 X297.632 Y364.561
G1 X297.632 Y385.614
G1 X311.667 Y375.088
G1 X339.737 Y417.193
G1 X311.667 Y262.807
G1 X311.667 Y343.509
G1 X301.140 Y322.456
G1 X294.123 Y354.035
G1 X315.175 Y357.544
G1 X294.123 Y343.509
G1 X283.596 Y94.386
G1 X297.632 Y45.263
G1 X280.088 Y-56.491
G1 X294.123 Y-91.579
G1 X280.088 Y-123.158
G1 X273.070 Y-158.246
G1 X280.088 Y-144.211
G1 X294.123 Y-98.596
G1 X290.614 Y-133.684
G1 X325.702 Y-200.351
G1 X336.228 Y-158.246
G1 X248.509 Y-231.930
G1 X294.123 Y-214.386
G1 X230.965 Y-347.719
G1 X255.526 Y-319.649
G1 X266.053 Y-309.123
G1 X255.526 Y-288.070
G1 X245.000 Y-284.561
G1 X237.982 Y-260.000
G1 X241.491 Y-284.561
G1 X227.456 Y-298.597
G1 X230.965 Y-319.649
G1 X241.491 Y-330.175
G1 X259.035 Y-302.105
G1 X301.140 Y-214.386
G1 X315.175 Y-60.000
G1 X301.140 Y-35.439
G1 X301.140 Y-67.018
G1 X308.158 Y-81.053
G1 X304.649 Y-119.649
G1 X297.632 Y-140.702
G1 X318.684 Y-319.649
G1 X290.614 Y-330.175
G1 X308.158 Y-288.070
G1 X269.561 Y-319.649
G1 X220.439 Y-379.298
G1 X206.404 Y-386.316
G1 X223.947 Y-351.228
G1 X255.526 Y-361.754
G1 X230.965 Y-396.842
G1 X245.000 Y-417.895
G1 X234.474 Y-442.456
G1 X223.947 Y-463.509
G1 X234.474 Y-512.632
G1 X209.912 Y-474.035
G1 X188.860 Y-410.877
G1 X195.877 Y-368.772
G1 X206.404 Y-347.719
G1 X202.895 Y-330.175
G1 X195.877 Y-344.211
G1 X195.877 Y-358.246
G1 X269.561 Y-133.684
G1 X276.579 Y-98.596
G1 X290.614 Y-52.982
G1 X287.105 Y-31.930
G1 X290.614 Y-17.895
G1 X287.105 Y3.158
G1 X294.123 Y48.772
G1 X301.140 Y76.842
G1 X297.632 Y101.404
G1 X322.193 Y73.333
G1 X315.175 Y52.281
G1 X294.123 Y269.825
G1 X311.667 Y241.754
G1 X304.649 Y108.421
G1 X301.140 Y101.404
G1 X294.123 Y248.772
G1 X304.649 Y259.298
G1 X308.158 Y318.947
G1 X308.158 Y329.474
G1 X301.140 Y315.439
G1 X304.649 Y297.895
G1 X297.632 Y276.842
G1 X276.579 Y385.614
G1 X245.000 Y371.579
G1 X230.965 Y378.596
G1 X118.684 Y445.263
G1 X94.123 Y483.860
G1 X62.544 Y466.316
G1 X111.667 Y378.596
G1 X94.123 Y466.316
G0 Z1


G0 Z1
G0 X0 Y0

(Distance Moved: 195526.828 mm)
(Distance Moved - Pen Up: 13332.226 mm)
(Distance Moved - Pen Down: 182194.953 mm)
(Points Plotted: 3847 points)
(Pen Lifted: 81 times)
(Pen Dropped: 80 times)
(Min X: -467.281 Max X: 550.263)
(Min Y: -733.684 Max Y: 740.000)
