;LightBurn 1.6.04
;Custom GCode device profile, absolute coords
;Bounds: X103.05 Y68.89 to X140.95 Y103.11
G00 G17 G40 G21 G54
G90
M3
G1 Z10 F500
;Cut @ 900 mm/min, 80% power

M8
G0 Z2.8
G0 X117.644Y73.459Z2.8
G0 Z0
;Layer Brown
G1 X117.026Y73.854Z0S800F900
G1 X116.436Y74.298Z0
G1 X115.887Y74.789Z0
G1 X115.389Y75.321Z0
G1 X115.141Y75.638Z0
G1 X114.852Y76.044Z0
G1 X114.573Y76.465Z0
G1 X114.354Y76.829Z0
G1 X113.535Y78.669Z0
G1 X113.059Y80.636Z0
G1 X112.926Y82.726Z0
G1 X113.137Y84.933Z0
G1 X113.29Y85.632Z0
G1 X113.518Y86.394Z0
G1 X113.792Y87.141Z0
G1 X114.087Y87.793Z0
G1 X115Y89.168Z0
G1 X116.161Y90.216Z0
G1 X117.568Y90.938Z0
G1 X119.222Y91.332Z0
G1 X119.518Y91.367Z0
G1 X119.808Y91.391Z0
G1 X120.1Y91.407Z0
G1 X120.398Y91.415Z0
G1 X120.71Y91.412Z0
G1 X121.043Y91.4Z0
G1 X121.402Y91.381Z0
G1 X121.794Y91.353Z0
G1 X122.648Y91.234Z0
G1 X123.767Y91.025Z0
G1 X124.736Y90.812Z0
G1 X125.14Y90.677Z0
G1 X125.095Y90.607Z0
G1 X124.983Y90.456Z0
G1 X124.82Y90.245Z0
G1 X124.119Y89.366Z0
G1 X123.369Y89.525Z0
G1 X121.871Y89.758Z0
G1 X120.458Y89.828Z0
G1 X119.199Y89.737Z0
G1 X118.16Y89.485Z0
G1 X118.057Y89.439Z0
G1 X117.925Y89.37Z0
G1 X117.78Y89.287Z0
G1 X117.64Y89.199Z0
G1 X117.475Y89.085Z0
G1 X117.36Y88.989Z0
G1 X117.276Y88.892Z0
G1 X117.206Y88.778Z0
G1 X117.081Y88.403Z0
G1 X117.112Y88.017Z0
G1 X117.301Y87.614Z0
G1 X117.649Y87.185Z0
G1 X117.965Y86.891Z0
G1 X118.343Y86.604Z0
G1 X118.796Y86.312Z0
G1 X119.339Y86.006Z0
G1 X119.605Y85.878Z0
G1 X119.98Y85.712Z0
G1 X120.333Y85.563Z0
G1 X120.534Y85.488Z0
G1 X120.502Y85.289Z0
G1 X120.393Y84.75Z0
G1 X120.222Y83.953Z0
G1 X119.796Y82.014Z0
G1 X119.629Y81.229Z0
G1 X119.523Y80.708Z0
G1 X119.497Y80.531Z0
G1 X119.613Y80.724Z0
G1 X119.898Y81.214Z0
G1 X120.307Y81.924Z0
G1 X122.057Y84.983Z0
G1 X122.312Y84.92Z0
G1 X121.931Y83.181Z0
G1 X121.867Y82.856Z0
G1 X121.862Y82.744Z0
G1 X121.904Y82.764Z0
G1 X122.111Y82.973Z0
G1 X122.506Y83.383Z0
G1 X122.971Y83.871Z0
G1 X123.387Y84.313Z0
G1 X123.695Y84.644Z0
G1 X124.131Y84.596Z0
G1 X126.096Y84.514Z0
G1 X127.655Y84.719Z0
G1 X128.707Y85.184Z0
G1 X129.15Y85.885Z0
G1 X129.145Y86.171Z0
G1 X129.057Y86.469Z0
G1 X128.89Y86.775Z0
G1 X128.644Y87.084Z0
G1 X128.572Y87.166Z0
G1 X128.514Y87.237Z0
G1 X128.476Y87.29Z0
G1 X128.463Y87.318Z0
G1 X128.608Y87.513Z0
G1 X128.924Y87.921Z0
G1 X129.246Y88.328Z0
G1 X129.407Y88.524Z0
G1 X129.49Y88.467Z0
G1 X129.666Y88.303Z0
G1 X129.879Y88.087Z0
G1 X130.073Y87.873Z0
G1 X130.825Y86.771Z0
G1 X131.317Y85.53Z0
G1 X131.548Y84.156Z0
G1 X131.515Y82.653Z0
G1 X131.421Y82.012Z0
G1 X131.268Y81.258Z0
G1 X131.085Y80.512Z0
G1 X130.898Y79.896Z0
G1 X130.071Y78.021Z0
G1 X128.995Y76.361Z0
G1 X127.7Y74.944Z0
G1 X126.256Y73.638Z0
G0 Z2.8
G0 X125.269Y86.383Z2.8
G0 Z0
G1 X124.966Y86.375Z0
G1 X124.459Y86.484Z0
G1 X124.144Y86.724Z0
G1 X123.982Y86.963Z0
G1 X123.936Y87.072Z0
G1 X132.973Y96.092Z0
G1 Y96.086Z0
G1 X133.973Y95.266Z0
G1 X125.811Y86.43Z0
G1 X125.541Y86.402Z0
G1 X125.269Y86.383Z0
G0 Z2.8
G0 X126.281Y73.372Z2.8
G0 Z0
G1 X126.943Y71.85Z0
G1 X127.444Y70.709Z0
G1 X127.491Y70.641Z0
G1 X127.557Y70.6Z0
G1 X127.634Y70.588Z0
G1 X127.713Y70.612Z0
G1 X129.339Y71.487Z0
G1 X129.423Y71.518Z0
G1 X129.518Y71.526Z0
G1 X129.612Y71.51Z0
G1 X129.693Y71.471Z0
G1 X133.384Y68.929Z0
G1 X133.464Y68.894Z0
G1 X133.553Y68.889Z0
G1 X133.638Y68.913Z0
G1 X133.709Y68.961Z0
G1 X137.097Y72.36Z0
G1 X137.145Y72.431Z0
G1 X137.167Y72.516Z0
G1 X137.162Y72.604Z0
G1 X137.128Y72.683Z0
G1 X134.548Y76.453Z0
G1 X134.509Y76.534Z0
G1 X134.491Y76.629Z0
G1 X134.495Y76.726Z0
G1 X134.521Y76.812Z0
G1 X135.936Y80.367Z0
G1 X135.977Y80.448Z0
G1 X136.041Y80.52Z0
G1 X136.12Y80.575Z0
G1 X136.205Y80.606Z0
G1 X140.745Y81.451Z0
G1 X140.824Y81.483Z0
G1 X140.889Y81.541Z0
G1 X140.933Y81.617Z0
G1 X140.949Y81.702Z0
G1 X140.952Y86.506Z0
G1 X140.936Y86.591Z0
G1 X140.892Y86.667Z0
G1 X140.826Y86.725Z0
G1 X140.746Y86.756Z0
G1 X136.091Y87.625Z0
G1 X136.004Y87.656Z0
G1 X135.923Y87.71Z0
G1 X135.856Y87.782Z0
G1 X135.813Y87.862Z0
G1 X134.389Y91.202Z0
G1 X134.361Y91.288Z0
G1 X134.355Y91.385Z0
G1 X134.371Y91.481Z0
G1 X134.409Y91.563Z0
G1 X137.125Y95.527Z0
G1 X137.159Y95.606Z0
G1 X137.164Y95.693Z0
G1 X137.142Y95.779Z0
G1 X137.094Y95.85Z0
G1 X133.706Y99.246Z0
G1 X133.635Y99.294Z0
G1 X133.551Y99.314Z0
G1 X133.465Y99.306Z0
G1 X133.387Y99.271Z0
G1 X129.365Y96.504Z0
G1 X129.283Y96.465Z0
G1 X129.188Y96.445Z0
G1 X129.09Y96.449Z0
G1 X129.003Y96.476Z0
G1 X125.775Y97.802Z0
G1 X125.695Y97.843Z0
G1 X125.623Y97.908Z0
G1 X125.568Y97.988Z0
G1 X125.538Y98.074Z0
G1 X124.642Y102.902Z0
G1 X124.611Y102.983Z0
G1 X124.553Y103.05Z0
G1 X124.478Y103.095Z0
G1 X124.393Y103.111Z0
G1 X119.601Z0
G1 X119.605Y103.107Z0
G1 X119.522Y103.091Z0
G1 X119.449Y103.046Z0
G1 X119.393Y102.979Z0
G1 X119.362Y102.898Z0
G1 X118.461Y98.07Z0
G1 X118.43Y97.984Z0
G1 X118.376Y97.904Z0
G1 X118.305Y97.839Z0
G1 X118.225Y97.798Z0
G1 X115.001Y96.473Z0
G1 X114.915Y96.445Z0
G1 X114.818Y96.441Z0
G1 X114.722Y96.461Z0
G1 X114.639Y96.501Z0
G1 X110.617Y99.267Z0
G1 X110.538Y99.303Z0
G1 X110.451Y99.311Z0
G1 X110.366Y99.291Z0
G1 X110.294Y99.243Z0
G1 X106.907Y95.846Z0
G1 X106.859Y95.775Z0
G1 X106.838Y95.69Z0
G1 X106.844Y95.601Z0
G1 X106.879Y95.523Z0
G1 X109.591Y91.559Z0
G1 X109.629Y91.477Z0
G1 X109.645Y91.381Z0
G1 X109.64Y91.284Z0
G1 X109.612Y91.197Z0
G1 X108.185Y87.858Z0
G1 X108.142Y87.777Z0
G1 X108.076Y87.706Z0
G1 X107.995Y87.652Z0
G1 X107.909Y87.62Z0
G1 X103.252Y86.752Z0
G1 X103.173Y86.72Z0
G1 X103.108Y86.662Z0
G1 X103.064Y86.586Z0
G1 X103.048Y86.501Z0
G1 Y81.697Z0
G1 X103.065Y81.612Z0
G1 X103.11Y81.536Z0
G1 X103.176Y81.477Z0
G1 X103.256Y81.446Z0
G1 X107.796Y80.601Z0
G1 X107.881Y80.569Z0
G1 X107.96Y80.514Z0
G1 X108.024Y80.443Z0
G1 X108.065Y80.362Z0
G1 X109.482Y76.808Z0
G1 X109.508Y76.721Z0
G1 Y76.624Z0
G1 X109.491Y76.529Z0
G1 X109.452Y76.448Z0
G1 X106.874Y72.678Z0
G1 X106.84Y72.599Z0
G1 X106.833Y72.511Z0
G1 X106.855Y72.426Z0
G1 X106.903Y72.355Z0
G1 X110.292Y68.956Z0
G1 X110.364Y68.909Z0
G1 X110.449Y68.889Z0
G1 X110.536Y68.897Z0
G1 X110.615Y68.932Z0
G1 X114.306Y71.474Z0
G1 X114.387Y71.514Z0
G1 X114.481Y71.529Z0
G1 X114.576Y71.522Z0
G1 X114.661Y71.49Z0
G1 X116.286Y70.615Z0
G1 X116.366Y70.592Z0
G1 X116.442Y70.604Z0
G1 X116.508Y70.645Z0
G1 X116.555Y70.712Z0
G1 X117.099Y72.065Z0
G1 X117.595Y73.244Z0
M9
M5
G1 Z10 F500
G90
G1 Z10 F500
