
G0 Z10 F500;      ; Move to clearance level - Z motion limited to 500
; G0 X-10 Y-10 F1200; Homing
; G0 X-5 Y-5 F1200; go in
; G10 P0 L20 X0 Y0; set to zero
G1 F1200;           ; Set feed rate to 1000
;LightBurn 1.6.04
;Custom GCode device profile, absolute coords
;Bounds: X36.79 Y10.09 to X83.21 Y73.91
G00 G17 G40 G21 G54
G90
M3
G1 Z10 F500
;Cut @ 1200 mm/min, 90% power

M8

; Washing sequence (no color)
G1 Z10 F1000;        ; Raise brush to safe height
G0 X5 Y5 F1200;     ; Rapid move to brush cleaning position
G1 Z-1 F800;         ; Lower brush for cleaning - controlled movement
G1 X10 Y12 Z8 F1200;     ; Rapid move to brush cleaning position
G1 Z-1 F800;         ; Lower brush for cleaning - controlled movement
G1 X25 Y14 Z6 F800;     ; Move across cleaning area - controlled movement
G1 Z8 F800;         ; Maintain brush height - controlled movement
G0 X5 Y5 F1200;     ; Rapid move to brush cleaning position
G1 Z-1 F800;         ; Lower brush for cleaning - controlled movement
G1 X15 Y12 Z8 F1200;     ; Rapid move to brush cleaning position
G1 Z-1 F800;         ; Lower brush for cleaning - controlled movement
G1 X25 Y14 Z6 F800;     ; Move across cleaning area - controlled movement
G1 Z10 F800;         ; Maintain brush height - controlled movement
G1 F1200;           ; Set feed rate to 1000

; Color 1 picking sequence
G1 Z10 F500;         ; Raise brush to safe height
G0 X41 Y5 F1200;    ; Rapid move to color 1 position
G1 Z0 F500;         ; Lower into color - controlled movement
G1 X40.102Y7.295Z0S800F1200
G1 X40.026Y7.642Z0F1200
G1 X40Y8Z0F1200
G1 X40.026Y8.358Z0F1200
G1 X40.102Y8.705Z0F1200
G1 X40.225Y9.041Z0F1200
G1 X40.393Y9.362Z0F1200
G1 X40.603Y9.668Z0F1200
G1 X40.854Y9.957Z0F1200
G1 X41.142Y10.226Z0F1200
G1 X41.464Y10.475Z0F1200
G1 X41.82Y10.701Z0F1200
G1 X42.204Y10.902Z0F1200
G1 X42.617Y11.078Z0F1200
G1 X43.054Y11.225Z0F1200
G1 X43.513Y11.343Z0F1200
G1 X43.992Y11.429Z0F1200
G1 X44.489Y11.482Z0F1200
G1 X45Y11.5Z0F1200
G1 X45.511Y11.482Z0F1200
G1 X46.008Y11.429Z0F1200
G1 X46.487Y11.343Z0F1200
G1 X46.946Y11.225Z0F1200
G1 X47.383Y11.078Z0F1200
G1 X47.796Y10.902Z0F1200
G1 X48.18Y10.701Z0F1200
G1 X48.536Y10.475Z0F1200
G1 X48.858Y10.226Z0F1200
G1 X49.146Y9.957Z0F1200
G1 X49.397Y9.668Z0F1200
G1 X49.607Y9.362Z0F1200
G1 X49.775Y9.041Z0F1200
G1 X49.898Y8.705Z0F1200
G1 X49.974Y8.358Z0F1200
G1 X50Y8Z0F1200
G1 X49.974Y7.642Z0F1200
G1 X49.898Y7.295Z0F1200
G1 X49.775Y6.959Z0F1200
G1 X49.607Y6.638Z0F1200
G1 X49.397Y6.332Z0F1200
G1 X49.146Y6.043Z0F1200
G1 X48.858Y5.774Z0F1200
G1 X48.536Y5.525Z0F1200
G1 X48.18Y5.299Z0F1200
G1 X47.796Y5.098Z0F1200
G1 X47.383Y4.922Z0F1200
G1 X46.946Y4.775Z0F1200
G1 X46.487Y4.657Z0F1200
G1 X46.008Y4.571Z0F1200
G1 X45.511Y4.518Z0F1200
G1 X45Y4.5Z0F1200
G1 X44.489Y4.518Z0F1200
G1 X43.992Y4.571Z0F1200
G1 X43.513Y4.657Z0F1200
G1 X43.054Y4.775Z0F1200
G1 X42.617Y4.922Z0F1200
G1 X42.204Y5.098Z0F1200
G1 X41.82Y5.299Z0F1200
G1 X41.464Y5.525Z0F1200
G1 X41.142Y5.774Z0F1200
G1 X40.854Y6.043Z0F1200
G1 X40.603Y6.332Z0F1200
G1 X40.393Y6.638Z0F1200
G1 X40.225Y6.959Z0F1200
G1 Z7 F800;         ; Raise from color - controlled movement
G1 X34 Y8 Z1 F1200;     ; Movement in paint - controlled movement
G1 X24 Y12 Z8 F500;     ; Move in paint - controlled movement
G1 F1200;           ; Set feed rate to 1000
G0 Z2.8F500
G0 X44.544Y44.522Z2.8F1500
G1 Z0F500
;Layer Green
G1 X43.093Y47.287Z0S900F1200
G1 X43.365Y50.485Z0F1200
G1 X43.224Y52.473Z0F1200
G1 X42.285Y55.255Z0F1200
G1 X41.411Y56.851Z0F1200
G1 X42.124Y58.109Z0F1200
G1 X42.878Y56.835Z0F1200
G1 X43.406Y54.704Z0F1200
G1 X44.367Y51.88Z0F1200
G1 X45.647Y51.349Z0F1200
G1 X46.704Y51.751Z0F1200
G1 X47.886Y53.196Z0F1200
G1 X47.942Y56.433Z0F1200
G1 X48.233Y58.959Z0F1200
G1 X49.573Y59.316Z0F1200
G1 X49.796Y58.372Z0F1200
G1 X49.196Y55.809Z0F1200
G1 X48.917Y50.307Z0F1200
G1 X49.354Y49.9Z0F1200
G1 X49.469Y49.539Z0F1200
G1 X49.582Y49.21Z0F1200
G1 X49.692Y48.91Z0F1200
G1 X49.8Y48.636Z0F1200
G1 X50.011Y48.154Z0F1200
G1 X50.217Y47.737Z0F1200
G1 X50.62Y46.992Z0F1200
G1 X51.029Y46.195Z0F1200
G0 Z2.8F500
G0 X66.911Y48.925Z2.8F1500
G1 Z0F500
G1 X66.933Y48.531Z0F1200
G1 X66.946Y48.252Z0F1200
G1 X66.957Y47.916Z0F1200
G1 X66.965Y47.534Z0F1200
G1 X66.969Y47.115Z0F1200
G1 X66.965Y46.671Z0F1200
G1 X66.928Y45.748Z0F1200
G1 X66.839Y44.845Z0F1200
G1 X66.77Y44.428Z0F1200
G1 X66.682Y44.047Z0F1200
G1 X66.573Y43.712Z0F1200
G1 X66.44Y43.434Z0F1200
G1 X66.108Y42.922Z0F1200
G1 X65.711Y42.384Z0F1200
G1 X65.275Y41.841Z0F1200
G1 X64.829Y41.314Z0F1200
G1 X64.4Y40.824Z0F1200
G1 X63.706Y40.044Z0F1200
G1 X63.586Y39.906Z0F1200
G1 X63.496Y39.796Z0F1200
G1 X63.124Y39.316Z0F1200
G1 X62.193Y38.098Z0F1200
G1 X61.918Y37.046Z0F1200
G1 X63.17Y36.352Z0F1200
G1 X63.376Y37.769Z0F1200
G1 X66.493Y41.4Z0F1200
G1 X67.767Y42.023Z0F1200
G1 X69.47Y41.988Z0F1200
G1 X69.961Y40.849Z0F1200
G1 X68.622Y36.514Z0F1200
G1 X68.582Y36.282Z0F1200
G1 X68.489Y35.717Z0F1200
G1 X68.42Y35.25Z0F1200
G1 X68.36Y34.778Z0F1200
G1 X68.321Y34.36Z0F1200
G1 X68.314Y34.188Z0F1200
G1 X68.318Y34.052Z0F1200
G1 X68.333Y33.957Z0F1200
G1 X68.362Y33.912Z0F1200
G1 X68.46Y33.848Z0F1200
G1 X68.6Y33.74Z0F1200
G1 X68.765Y33.604Z0F1200
G1 X68.938Y33.457Z0F1200
G1 X69.239Y33.192Z0F1200
G1 X69.37Y33.075Z0F1200
G1 X70.518Y34.023Z0F1200
G1 X70.184Y37.356Z0F1200
G1 X70.625Y39.153Z0F1200
G1 X71.486Y40.798Z0F1200
G1 X71.854Y42.714Z0F1200
G1 X74.082Y45.198Z0F1200
;Offset @ 1200 mm/min, 80% power

M8

; Washing sequence (no color)
G1 Z10 F1000;        ; Raise brush to safe height
G0 X5 Y5 F1200;     ; Rapid move to brush cleaning position
G1 Z-1 F800;         ; Lower brush for cleaning - controlled movement
G1 X10 Y12 Z8 F1200;     ; Rapid move to brush cleaning position
G1 Z-1 F800;         ; Lower brush for cleaning - controlled movement
G1 X25 Y14 Z6 F800;     ; Move across cleaning area - controlled movement
G1 Z8 F800;         ; Maintain brush height - controlled movement
G0 X5 Y5 F1200;     ; Rapid move to brush cleaning position
G1 Z-1 F800;         ; Lower brush for cleaning - controlled movement
G1 X15 Y12 Z8 F1200;     ; Rapid move to brush cleaning position
G1 Z-1 F800;         ; Lower brush for cleaning - controlled movement
G1 X25 Y14 Z6 F800;     ; Move across cleaning area - controlled movement
G1 Z10 F800;         ; Maintain brush height - controlled movement
G1 F1200;           ; Set feed rate to 1000

; Color 1 picking sequence
G1 Z10 F500;         ; Raise brush to safe height
G0 X131 Y5 F1200;    ; Rapid move to color 1 position
G1 Z0 F500;         ; Lower into color - controlled movement
G1 X130.102Y7.295Z0S800F1200
G1 X130.026Y7.642Z0F1200
G1 X130Y8Z0F1200
G1 X130.026Y8.358Z0F1200
G1 X130.102Y8.705Z0F1200
G1 X130.225Y9.041Z0F1200
G1 X130.393Y9.362Z0F1200
G1 X130.603Y9.668Z0F1200
G1 X130.854Y9.957Z0F1200
G1 X131.142Y10.226Z0F1200
G1 X131.464Y10.475Z0F1200
G1 X131.82Y10.701Z0F1200
G1 X132.204Y10.902Z0F1200
G1 X132.617Y11.078Z0F1200
G1 X133.054Y11.225Z0F1200
G1 X133.513Y11.343Z0F1200
G1 X133.992Y11.429Z0F1200
G1 X134.489Y11.482Z0F1200
G1 X135Y11.5Z0F1200
G1 X135.511Y11.482Z0F1200
G1 X136.008Y11.429Z0F1200
G1 X136.487Y11.343Z0F1200
G1 X136.946Y11.225Z0F1200
G1 X137.383Y11.078Z0F1200
G1 X137.796Y10.902Z0F1200
G1 X138.18Y10.701Z0F1200
G1 X138.536Y10.475Z0F1200
G1 X138.858Y10.226Z0F1200
G1 X139.146Y9.957Z0F1200
G1 X139.397Y9.668Z0F1200
G1 X139.607Y9.362Z0F1200
G1 X139.775Y9.041Z0F1200
G1 X139.898Y8.705Z0F1200
G1 X139.974Y8.358Z0F1200
G1 X140Y8Z0F1200
G1 X139.974Y7.642Z0F1200
G1 X139.898Y7.295Z0F1200
G1 X139.775Y6.959Z0F1200
G1 X139.607Y6.638Z0F1200
G1 X139.397Y6.332Z0F1200
G1 X139.146Y6.043Z0F1200
G1 X138.858Y5.774Z0F1200
G1 X138.536Y5.525Z0F1200
G1 X138.18Y5.299Z0F1200
G1 X137.796Y5.098Z0F1200
G1 X137.383Y4.922Z0F1200
G1 X136.946Y4.775Z0F1200
G1 X136.487Y4.657Z0F1200
G1 X136.008Y4.571Z0F1200
G1 X135.511Y4.518Z0F1200
G1 X135Y4.5Z0F1200
G1 X134.489Y4.518Z0F1200
G1 X133.992Y4.571Z0F1200
G1 X133.513Y4.657Z0F1200
G1 X133.054Y4.775Z0F1200
G1 X132.617Y4.922Z0F1200
G1 X132.204Y5.098Z0F1200
G1 X131.82Y5.299Z0F1200
G1 X131.464Y5.525Z0F1200
G1 X131.142Y5.774Z0F1200
G1 X130.854Y6.043Z0F1200
G1 X130.603Y6.332Z0F1200
G1 X130.393Y6.638Z0F1200
G1 X130.225Y6.959Z0F1200
G1 Z7 F800;         ; Raise from color - controlled movement
G1 X124 Y8 Z1 F1200;     ; Movement in paint - controlled movement
G1 X114 Y12 Z8 F500;     ; Move in paint - controlled movement
G1 F1200;           ; Set feed rate to 1000
G0 Z2.8F500
G0 X74.85Y56.865Z2.8F1500
G1 Z0F500
;Layer Red
G1 X75.016Y57.918Z0S800F1200
G1 X75.11Y58.946Z0F1200
G1 X75.12Y59.336Z0F1200
G1 X75.107Y59.781Z0F1200
G1 X75.069Y60.218Z0F1200
G1 X75.001Y60.686Z0F1200
G1 X74.899Y61.17Z0F1200
G1 X74.755Y61.693Z0F1200
G1 X74.558Y62.272Z0F1200
G1 X74.278Y62.956Z0F1200
G1 X73.924Y63.759Z0F1200
G1 X73.618Y64.404Z0F1200
G1 X73.546Y64.536Z0F1200
G1 X73.486Y64.634Z0F1200
G1 X73.451Y64.683Z0F1200
G1 X73.431Y64.708Z0F1200
G1 X73.408Y64.731Z0F1200
G1 X73.353Y64.78Z0F1200
G1 X73.242Y64.864Z0F1200
G1 X73.064Y64.98Z0F1200
G1 X72.79Y65.136Z0F1200
G1 X72.577Y65.242Z0F1200
G1 X72.558Y65.236Z0F1200
G1 X72.401Y64.996Z0F1200
G1 X72.231Y64.703Z0F1200
G1 X73.731Y63.776Z0F1200
G1 X74.238Y61.249Z0F1200
G1 X74.293Y60.95Z0F1200
G1 X74.357Y60.576Z0F1200
G1 X74.428Y60.125Z0F1200
G1 X74.499Y59.602Z0F1200
G1 X74.565Y59.022Z0F1200
G1 X74.627Y58.347Z0F1200
G1 X74.693Y56.96Z0F1200
G1 X74.662Y55.875Z0F1200
G1 X74.85Y56.865Z0F1200
G0 Z2.8F500
G0 X75.888Y60.842Z2.8F1500
G1 Z0F500
G1 X75.774Y61.381Z0F1200
G1 X75.614Y61.966Z0F1200
G1 X75.403Y62.583Z0F1200
G1 X75.109Y63.301Z0F1200
G1 X74.735Y64.149Z0F1200
G1 X74.422Y64.809Z0F1200
G1 X74.33Y64.98Z0F1200
G1 X74.235Y65.133Z0F1200
G1 X74.166Y65.231Z0F1200
G1 X74.103Y65.307Z0F1200
G1 X74.027Y65.386Z0F1200
G1 X73.923Y65.478Z0F1200
G1 X73.759Y65.602Z0F1200
G1 X73.536Y65.747Z0F1200
G1 X73.21Y65.932Z0F1200
G1 X72.79Y66.142Z0F1200
G1 X72.636Y66.211Z0F1200
G1 X72.02Y66.005Z0F1200
G1 X72.014Z0F1200
G1 X71.992Y65.981Z0F1200
G1 X71.828Y65.765Z0F1200
G1 X71.631Y65.463Z0F1200
G1 X71.417Y65.093Z0F1200
G1 X71.188Y64.653Z0F1200
G1 X71.055Y64.372Z0F1200
G1 X72.925Y63.216Z0F1200
G1 X73.354Y61.078Z0F1200
G1 X73.407Y60.792Z0F1200
G1 X73.469Y60.431Z0F1200
G1 X73.537Y59.995Z0F1200
G1 X73.606Y59.49Z0F1200
G1 X73.67Y58.93Z0F1200
G1 X73.729Y58.285Z0F1200
G1 X73.792Y56.952Z0F1200
G1 X73.751Y55.511Z0F1200
G1 X73.66Y54.652Z0F1200
G1 X73.512Y53.802Z0F1200
G1 X73.277Y52.905Z0F1200
G1 X72.965Y52.077Z0F1200
G1 X72.676Y51.458Z0F1200
G1 X72.439Y50.985Z0F1200
G1 X72.21Y50.557Z0F1200
G1 X71.99Y50.168Z0F1200
G1 X71.757Y49.78Z0F1200
G1 X71.906Y49.771Z0F1200
G1 X72.615Y49.675Z0F1200
G1 X72.621Z0F1200
G1 X72.713Y49.771Z0F1200
G1 X73.008Y50.11Z0F1200
G1 X73.323Y50.499Z0F1200
G1 X73.644Y50.927Z0F1200
G1 X73.951Y51.369Z0F1200
G1 X74.246Y51.83Z0F1200
G1 X74.517Y52.297Z0F1200
G1 X74.755Y52.754Z0F1200
G1 X74.948Y53.174Z0F1200
G1 X75.098Y53.564Z0F1200
G1 X75.195Y53.878Z0F1200
G1 X75.28Y54.271Z0F1200
G1 X75.503Y55.478Z0F1200
G1 X75.737Y56.712Z0F1200
G1 X75.91Y57.808Z0F1200
G1 X76.009Y58.894Z0F1200
G1 X76.02Y59.339Z0F1200
G1 X76.006Y59.825Z0F1200
G1 X75.963Y60.326Z0F1200
G1 X75.888Y60.842Z0F1200
G0 Z2.8F500
G0 X75.56Y64.509Z2.8F1500
G1 Z0F500
G1 X75.222Y65.222Z0F1200
G1 X75.108Y65.433Z0F1200
G1 X74.985Y65.632Z0F1200
G1 X74.883Y65.776Z0F1200
G1 X74.772Y65.91Z0F1200
G1 X74.649Y66.038Z0F1200
G1 X74.492Y66.176Z0F1200
G1 X74.282Y66.334Z0F1200
G1 X73.999Y66.52Z0F1200
G1 X73.634Y66.727Z0F1200
G1 X73.188Y66.95Z0F1200
G1 X72.682Y67.175Z0F1200
G1 X71.888Y66.91Z0F1200
G1 X71.662Y66.917Z0F1200
G1 X71.604Y66.875Z0F1200
G1 X71.473Y66.753Z0F1200
G1 X71.295Y66.553Z0F1200
G1 X71.091Y66.283Z0F1200
G1 X70.868Y65.941Z0F1200
G1 X70.626Y65.522Z0F1200
G1 X70.378Y65.046Z0F1200
G1 X70.133Y64.528Z0F1200
G1 X69.911Y64.021Z0F1200
G1 X72.12Y62.656Z0F1200
G1 X72.47Y60.907Z0F1200
G1 X72.521Y60.634Z0F1200
G1 X72.581Y60.286Z0F1200
G1 X72.646Y59.864Z0F1200
G1 X72.713Y59.377Z0F1200
G1 X72.774Y58.837Z0F1200
G1 X72.831Y58.222Z0F1200
G1 X72.892Y56.943Z0F1200
G1 X72.853Y55.571Z0F1200
G1 X72.769Y54.777Z0F1200
G1 X72.632Y53.994Z0F1200
G1 X72.418Y53.179Z0F1200
G1 X72.135Y52.426Z0F1200
G1 X71.866Y51.85Z0F1200
G1 X71.64Y51.399Z0F1200
G1 X71.422Y50.991Z0F1200
G1 X71.212Y50.622Z0F1200
G1 X70.882Y50.07Z0F1200
G1 X70.752Y49.855Z0F1200
G1 X70.801Y49.531Z0F1200
G1 X70.866Y49.216Z0F1200
G1 Y49.208Z0F1200
G1 X71.19Y48.985Z0F1200
G1 X71.294Y48.905Z0F1200
G1 X71.819Y48.875Z0F1200
G1 X72.476Y48.785Z0F1200
G1 X72.929Y48.706Z0F1200
G1 X73.093Y48.864Z0F1200
G1 X73.385Y49.172Z0F1200
G1 X73.7Y49.533Z0F1200
G1 X74.026Y49.937Z0F1200
G1 X74.376Y50.402Z0F1200
G1 X74.698Y50.867Z0F1200
G1 X75.021Y51.373Z0F1200
G1 X75.305Y51.86Z0F1200
G1 X75.562Y52.354Z0F1200
G1 X75.779Y52.828Z0F1200
G1 X75.949Y53.268Z0F1200
G1 X76.067Y53.651Z0F1200
G1 X76.163Y54.092Z0F1200
G1 X76.387Y55.312Z0F1200
G1 X76.622Y56.545Z0F1200
G1 X76.805Y57.705Z0F1200
G1 X76.908Y58.834Z0F1200
G1 X76.92Y59.343Z0F1200
G1 X76.905Y59.876Z0F1200
G1 X76.857Y60.435Z0F1200
G1 X76.774Y60.998Z0F1200
G1 X76.649Y61.595Z0F1200
G1 X76.476Y62.226Z0F1200
G1 X76.247Y62.896Z0F1200
G1 X75.93Y63.67Z0F1200
G1 X75.56Y64.509Z0F1200

; Color 1 picking sequence
G1 Z10 F500;         ; Raise brush to safe height
G0 X131 Y5 F1200;    ; Rapid move to color 1 position
G1 Z0 F500;         ; Lower into color - controlled movement
G1 X130.102Y7.295Z0S800F1200
G1 X130.026Y7.642Z0F1200
G1 X130Y8Z0F1200
G1 X130.026Y8.358Z0F1200
G1 X130.102Y8.705Z0F1200
G1 X130.225Y9.041Z0F1200
G1 X130.393Y9.362Z0F1200
G1 X130.603Y9.668Z0F1200
G1 X130.854Y9.957Z0F1200
G1 X131.142Y10.226Z0F1200
G1 X131.464Y10.475Z0F1200
G1 X131.82Y10.701Z0F1200
G1 X132.204Y10.902Z0F1200
G1 X132.617Y11.078Z0F1200
G1 X133.054Y11.225Z0F1200
G1 X133.513Y11.343Z0F1200
G1 X133.992Y11.429Z0F1200
G1 X134.489Y11.482Z0F1200
G1 X135Y11.5Z0F1200
G1 X135.511Y11.482Z0F1200
G1 X136.008Y11.429Z0F1200
G1 X136.487Y11.343Z0F1200
G1 X136.946Y11.225Z0F1200
G1 X137.383Y11.078Z0F1200
G1 X137.796Y10.902Z0F1200
G1 X138.18Y10.701Z0F1200
G1 X138.536Y10.475Z0F1200
G1 X138.858Y10.226Z0F1200
G1 X139.146Y9.957Z0F1200
G1 X139.397Y9.668Z0F1200
G1 X139.607Y9.362Z0F1200
G1 X139.775Y9.041Z0F1200
G1 X139.898Y8.705Z0F1200
G1 X139.974Y8.358Z0F1200
G1 X140Y8Z0F1200
G1 X139.974Y7.642Z0F1200
G1 X139.898Y7.295Z0F1200
G1 X139.775Y6.959Z0F1200
G1 X139.607Y6.638Z0F1200
G1 X139.397Y6.332Z0F1200
G1 X139.146Y6.043Z0F1200
G1 X138.858Y5.774Z0F1200
G1 X138.536Y5.525Z0F1200
G1 X138.18Y5.299Z0F1200
G1 X137.796Y5.098Z0F1200
G1 X137.383Y4.922Z0F1200
G1 X136.946Y4.775Z0F1200
G1 X136.487Y4.657Z0F1200
G1 X136.008Y4.571Z0F1200
G1 X135.511Y4.518Z0F1200
G1 X135Y4.5Z0F1200
G1 X134.489Y4.518Z0F1200
G1 X133.992Y4.571Z0F1200
G1 X133.513Y4.657Z0F1200
G1 X133.054Y4.775Z0F1200
G1 X132.617Y4.922Z0F1200
G1 X132.204Y5.098Z0F1200
G1 X131.82Y5.299Z0F1200
G1 X131.464Y5.525Z0F1200
G1 X131.142Y5.774Z0F1200
G1 X130.854Y6.043Z0F1200
G1 X130.603Y6.332Z0F1200
G1 X130.393Y6.638Z0F1200
G1 X130.225Y6.959Z0F1200
G1 Z7 F800;         ; Raise from color - controlled movement
G1 X124 Y8 Z1 F1200;     ; Movement in paint - controlled movement
G1 X114 Y12 Z8 F500;     ; Move in paint - controlled movement
G1 F1200;           ; Set feed rate to 1000
G0 Z2.8F500
G0 X74.467Y67.289Z2.8F1500
G1 Z0F500
G1 X74.065Y67.518Z0F1200
G1 X73.567Y67.767Z0F1200
G1 X72.97Y68.032Z0F1200
G1 X72.687Y68.146Z0F1200
G1 X72.545Y68.078Z0F1200
G1 X71.755Y67.814Z0F1200
G1 X71.463Y67.824Z0F1200
G1 X71.35Y67.78Z0F1200
G1 X71.204Y67.698Z0F1200
G1 X71.028Y67.568Z0F1200
G1 X70.828Y67.381Z0F1200
G1 X70.602Y67.128Z0F1200
G1 X70.354Y66.799Z0F1200
G1 X70.099Y66.409Z0F1200
G1 X69.842Y65.964Z0F1200
G1 X69.571Y65.444Z0F1200
G1 X69.316Y64.905Z0F1200
G1 X69.057Y64.313Z0F1200
G1 X68.793Y63.653Z0F1200
G1 X71.314Y62.096Z0F1200
G1 X71.587Y60.737Z0F1200
G1 X71.635Y60.476Z0F1200
G1 X71.692Y60.141Z0F1200
G1 X71.756Y59.734Z0F1200
G1 X71.82Y59.266Z0F1200
G1 X71.879Y58.745Z0F1200
G1 X71.933Y58.16Z0F1200
G1 X71.991Y56.935Z0F1200
G1 X71.954Y55.632Z0F1200
G1 X71.876Y54.902Z0F1200
G1 X71.752Y54.186Z0F1200
G1 X71.56Y53.452Z0F1200
G1 X71.305Y52.775Z0F1200
G1 X71.056Y52.242Z0F1200
G1 X70.84Y51.813Z0F1200
G1 X70.633Y51.426Z0F1200
G1 X70.435Y51.075Z0F1200
G1 X70.111Y50.534Z0F1200
G1 X69.882Y50.155Z0F1200
G1 X69.823Y50.045Z0F1200
G1 X69.854Y49.78Z0F1200
G1 X69.915Y49.373Z0F1200
G1 X69.991Y49.001Z0F1200
G1 X70.076Y48.697Z0F1200
G1 X70.103Y48.625Z0F1200
G1 X70.222Y48.56Z0F1200
G1 X70.659Y48.258Z0F1200
G1 X70.923Y48.055Z0F1200
G1 X70.971Y48.02Z0F1200
G1 X71.106Y48.014Z0F1200
G1 X71.732Y47.978Z0F1200
G1 X72.338Y47.896Z0F1200
G1 X72.783Y47.817Z0F1200
G1 X73.075Y47.769Z0F1200
G1 X73.204Y47.756Z0F1200
G1 X73.253Y47.792Z0F1200
G1 X73.466Y47.973Z0F1200
G1 X73.73Y48.228Z0F1200
G1 X74.045Y48.56Z0F1200
G1 X74.384Y48.949Z0F1200
G1 X74.752Y49.403Z0F1200
G1 X75.097Y49.863Z0F1200
G1 X75.452Y50.374Z0F1200
G1 X75.784Y50.894Z0F1200
G1 X76.093Y51.426Z0F1200
G1 X76.373Y51.962Z0F1200
G1 X76.608Y52.476Z0F1200
G1 X76.798Y52.97Z0F1200
G1 X76.939Y53.427Z0F1200
G1 X77.043Y53.909Z0F1200
G1 X77.272Y55.146Z0F1200
G1 X77.508Y56.39Z0F1200
G1 X77.697Y57.587Z0F1200
G1 X77.807Y58.79Z0F1200
G1 X77.821Y59.347Z0F1200
G1 X77.804Y59.929Z0F1200
G1 X77.752Y60.534Z0F1200
G1 X77.661Y61.154Z0F1200
G1 X77.525Y61.806Z0F1200
G1 X77.336Y62.491Z0F1200
G1 X77.089Y63.214Z0F1200
G1 X76.761Y64.015Z0F1200
G1 X76.372Y64.899Z0F1200
G1 X76.026Y65.627Z0F1200
G1 X75.886Y65.887Z0F1200
G1 X75.743Y66.118Z0F1200
G1 X75.595Y66.328Z0F1200
G1 X75.445Y66.509Z0F1200
G1 X75.271Y66.689Z0F1200
G1 X75.064Y66.871Z0F1200
G1 X74.795Y67.075Z0F1200
G1 X74.467Y67.289Z0F1200
G0 Z2.8F500
G0 X72.208Y68.914Z2.8F1500
G1 Z0F500
G1 X71.623Y68.719Z0F1200
G1 X71.374Y68.727Z0F1200
G1 X71.208Y68.69Z0F1200
G1 X70.966Y68.596Z0F1200
G1 X70.714Y68.455Z0F1200
G1 X70.455Y68.264Z0F1200
G1 X70.182Y68.01Z0F1200
G1 X69.904Y67.697Z0F1200
G1 X69.62Y67.32Z0F1200
G1 X69.332Y66.88Z0F1200
G1 X69.045Y66.385Z0F1200
G1 X68.773Y65.862Z0F1200
G1 X68.49Y65.262Z0F1200
G1 X68.229Y64.666Z0F1200
G1 X67.688Y63.312Z0F1200
G1 X67.678Y63.285Z0F1200
G1 X70.509Y61.535Z0F1200
G1 X70.703Y60.566Z0F1200
G1 X70.749Y60.318Z0F1200
G1 X70.804Y59.996Z0F1200
G1 X70.865Y59.604Z0F1200
G1 X70.927Y59.153Z0F1200
G1 X70.984Y58.653Z0F1200
G1 X71.035Y58.097Z0F1200
G1 X71.091Y56.926Z0F1200
G1 X71.056Y55.692Z0F1200
G1 X70.985Y55.027Z0F1200
G1 X70.872Y54.377Z0F1200
G1 X70.701Y53.726Z0F1200
G1 X70.475Y53.125Z0F1200
G1 X70.246Y52.634Z0F1200
G1 X70.041Y52.227Z0F1200
G1 X69.845Y51.86Z0F1200
G1 X69.657Y51.528Z0F1200
G1 X69.34Y50.998Z0F1200
G1 X69.103Y50.605Z0F1200
G1 X68.97Y50.358Z0F1200
G1 X68.927Y50.248Z0F1200
G1 X68.917Y50.199Z0F1200
G1 Y50.032Z0F1200
G1 X68.961Y49.66Z0F1200
G1 X69.03Y49.21Z0F1200
G1 X69.116Y48.791Z0F1200
G1 X69.218Y48.42Z0F1200
G1 X69.326Y48.135Z0F1200
G1 X69.411Y47.978Z0F1200
G1 X69.749Y47.793Z0F1200
G1 X70.128Y47.531Z0F1200
G1 X70.392Y47.328Z0F1200
G1 X70.534Y47.224Z0F1200
G1 X70.607Y47.181Z0F1200
G1 X70.688Y47.147Z0F1200
G1 X70.693Z0F1200
G1 X70.753Y47.135Z0F1200
G1 X70.855Y47.124Z0F1200
G1 X71.061Y47.115Z0F1200
G1 X71.646Y47.082Z0F1200
G1 X72.199Y47.006Z0F1200
G1 X72.635Y46.93Z0F1200
G1 X72.957Y46.876Z0F1200
G1 X73.173Y46.855Z0F1200
G1 X73.306Y46.859Z0F1200
G1 X73.439Y46.883Z0F1200
G1 X73.61Y46.945Z0F1200
G1 X73.651Y46.968Z0F1200
G1 X73.816Y47.088Z0F1200
G1 X74.061Y47.297Z0F1200
G1 X74.377Y47.602Z0F1200
G1 X74.713Y47.957Z0F1200
G1 X75.073Y48.37Z0F1200
G1 X75.455Y48.841Z0F1200
G1 X75.828Y49.339Z0F1200
G1 X76.205Y49.881Z0F1200
G1 X76.549Y50.42Z0F1200
G1 X76.883Y50.994Z0F1200
G1 X77.181Y51.565Z0F1200
G1 X77.438Y52.128Z0F1200
G1 X77.649Y52.676Z0F1200
G1 X77.81Y53.196Z0F1200
G1 X77.928Y53.743Z0F1200
G1 X78.157Y54.98Z0F1200
G1 X78.398Y56.254Z0F1200
G1 X78.591Y57.476Z0F1200
G1 X78.706Y58.737Z0F1200
G1 X78.721Y59.341Z0F1200
G1 X78.703Y59.981Z0F1200
G1 X78.646Y60.635Z0F1200
G1 X78.546Y61.317Z0F1200
G1 X78.4Y62.019Z0F1200
G1 X78.197Y62.754Z0F1200
G1 X77.932Y63.532Z0F1200
G1 X77.586Y64.375Z0F1200
G1 X77.197Y65.259Z0F1200

; Color 1 picking sequence
G1 Z10 F500;         ; Raise brush to safe height
G0 X131 Y5 F1200;    ; Rapid move to color 1 position
G1 Z0 F500;         ; Lower into color - controlled movement
G1 X130.102Y7.295Z0S800F1200
G1 X130.026Y7.642Z0F1200
G1 X130Y8Z0F1200
G1 X130.026Y8.358Z0F1200
G1 X130.102Y8.705Z0F1200
G1 X130.225Y9.041Z0F1200
G1 X130.393Y9.362Z0F1200
G1 X130.603Y9.668Z0F1200
G1 X130.854Y9.957Z0F1200
G1 X131.142Y10.226Z0F1200
G1 X131.464Y10.475Z0F1200
G1 X131.82Y10.701Z0F1200
G1 X132.204Y10.902Z0F1200
G1 X132.617Y11.078Z0F1200
G1 X133.054Y11.225Z0F1200
G1 X133.513Y11.343Z0F1200
G1 X133.992Y11.429Z0F1200
G1 X134.489Y11.482Z0F1200
G1 X135Y11.5Z0F1200
G1 X135.511Y11.482Z0F1200
G1 X136.008Y11.429Z0F1200
G1 X136.487Y11.343Z0F1200
G1 X136.946Y11.225Z0F1200
G1 X137.383Y11.078Z0F1200
G1 X137.796Y10.902Z0F1200
G1 X138.18Y10.701Z0F1200
G1 X138.536Y10.475Z0F1200
G1 X138.858Y10.226Z0F1200
G1 X139.146Y9.957Z0F1200
G1 X139.397Y9.668Z0F1200
G1 X139.607Y9.362Z0F1200
G1 X139.775Y9.041Z0F1200
G1 X139.898Y8.705Z0F1200
G1 X139.974Y8.358Z0F1200
G1 X140Y8Z0F1200
G1 X139.974Y7.642Z0F1200
G1 X139.898Y7.295Z0F1200
G1 X139.775Y6.959Z0F1200
G1 X139.607Y6.638Z0F1200
G1 X139.397Y6.332Z0F1200
G1 X139.146Y6.043Z0F1200
G1 X138.858Y5.774Z0F1200
G1 X138.536Y5.525Z0F1200
G1 X138.18Y5.299Z0F1200
G1 X137.796Y5.098Z0F1200
G1 X137.383Y4.922Z0F1200
G1 X136.946Y4.775Z0F1200
G1 X136.487Y4.657Z0F1200
G1 X136.008Y4.571Z0F1200
G1 X135.511Y4.518Z0F1200
G1 X135Y4.5Z0F1200
G1 X134.489Y4.518Z0F1200
G1 X133.992Y4.571Z0F1200
G1 X133.513Y4.657Z0F1200
G1 X133.054Y4.775Z0F1200
G1 X132.617Y4.922Z0F1200
G1 X132.204Y5.098Z0F1200
G1 X131.82Y5.299Z0F1200
G1 X131.464Y5.525Z0F1200
G1 X131.142Y5.774Z0F1200
G1 X130.854Y6.043Z0F1200
G1 X130.603Y6.332Z0F1200
G1 X130.393Y6.638Z0F1200
G1 X130.225Y6.959Z0F1200
G1 Z7 F800;         ; Raise from color - controlled movement
G1 X124 Y8 Z1 F1200;     ; Movement in paint - controlled movement
G1 X114 Y12 Z8 F500;     ; Move in paint - controlled movement
G1 F1200;           ; Set feed rate to 1000

; Return to drawing position
G0 X77.197 Y65.259 F1200;  ; Return to position with raised Z
G1 Z0 F1000;                       ; Lower Z to drawing position
G1 X76.83Y66.032Z0F1200
G1 X76.662Y66.343Z0F1200
G1 X76.496Y66.612Z0F1200
G1 X76.31Y66.875Z0F1200
G1 X76.117Y67.109Z0F1200
G1 X75.893Y67.34Z0F1200
G1 X75.629Y67.572Z0F1200
G1 X75.316Y67.81Z0F1200
G1 X74.938Y68.056Z0F1200
G1 X74.485Y68.313Z0F1200
G1 X73.951Y68.581Z0F1200
G1 X73.322Y68.861Z0F1200
G1 X72.656Y69.127Z0F1200
G1 X72.208Y68.914Z0F1200
G0 Z2.8F500
G0 X68.563Y67.348Z2.8F1500
G1 Z0F500
G1 X68.261Y66.828Z0F1200
G1 X67.96Y66.25Z0F1200
G1 X67.679Y65.653Z0F1200
G1 X67.393Y65.001Z0F1200
G1 X66.847Y63.633Z0F1200
G1 X66.578Y62.906Z0F1200
G1 X69.703Y60.975Z0F1200
G1 X69.819Y60.396Z0F1200
G1 X69.863Y60.16Z0F1200
G1 X69.916Y59.85Z0F1200
G1 X69.975Y59.474Z0F1200
G1 X70.034Y59.042Z0F1200
G1 X70.089Y58.561Z0F1200
G1 X70.137Y58.035Z0F1200
G1 X70.19Y56.917Z0F1200
G1 X70.157Y55.753Z0F1200
G1 X70.093Y55.152Z0F1200
G1 X69.992Y54.569Z0F1200
G1 X69.842Y53.999Z0F1200
G1 X69.645Y53.474Z0F1200
G1 X69.436Y53.027Z0F1200
G1 X69.242Y52.641Z0F1200
G1 X69.057Y52.294Z0F1200
G1 X68.879Y51.98Z0F1200
G1 X68.568Y51.461Z0F1200
G1 X68.317Y51.046Z0F1200
G1 X68.152Y50.738Z0F1200
G1 X68.058Y50.499Z0F1200
G1 X68.017Y50.28Z0F1200
G1 X68.02Y49.974Z0F1200
G1 X68.069Y49.543Z0F1200
G1 X68.142Y49.062Z0F1200
G1 X68.24Y48.581Z0F1200
G1 X68.363Y48.136Z0F1200
G1 X68.504Y47.764Z0F1200
G1 X68.669Y47.458Z0F1200
G1 X68.729Y47.375Z0F1200
G1 X68.792Y47.307Z0F1200
G1 X68.839Y47.269Z0F1200
G1 X68.944Y47.208Z0F1200
G1 X69.276Y47.026Z0F1200
G1 X69.598Y46.804Z0F1200
G1 X69.837Y46.619Z0F1200
G1 X70.043Y46.468Z0F1200
G1 X70.205Y46.372Z0F1200
G1 X70.4Y46.293Z0F1200
G1 X70.491Y46.269Z0F1200
G1 X70.629Y46.243Z0F1200
G1 X70.78Y46.227Z0F1200
G1 X71.016Y46.216Z0F1200
G1 X71.56Y46.185Z0F1200
G1 X72.061Y46.117Z0F1200
G1 X72.49Y46.042Z0F1200
G1 X72.84Y45.983Z0F1200
G1 X73.135Y45.955Z0F1200
G1 X73.404Y45.961Z0F1200
G1 X73.673Y46.011Z0F1200
G1 X73.986Y46.124Z0F1200
G1 X74.136Y46.208Z0F1200
G1 X74.373Y46.38Z0F1200
G1 X74.673Y46.637Z0F1200
G1 X75.008Y46.96Z0F1200
G1 X75.379Y47.352Z0F1200
G1 X75.765Y47.794Z0F1200
G1 X76.174Y48.299Z0F1200
G1 X76.559Y48.812Z0F1200
G1 X76.945Y49.368Z0F1200
G1 X77.325Y49.964Z0F1200
G1 X77.673Y50.562Z0F1200
G1 X77.988Y51.166Z0F1200
G1 X78.267Y51.775Z0F1200
G1 X78.501Y52.384Z0F1200
G1 X78.682Y52.971Z0F1200
G1 X78.807Y53.545Z0F1200
G1 X79.041Y54.814Z0F1200
G1 X79.283Y56.086Z0F1200
G1 X79.484Y57.366Z0F1200
G1 X79.605Y58.685Z0F1200
G1 X79.621Y59.348Z0F1200
G1 X79.602Y60.033Z0F1200
G1 X79.542Y60.735Z0F1200
G1 X79.434Y61.474Z0F1200
G1 X79.275Y62.23Z0F1200
G1 X79.056Y63.024Z0F1200
G1 X78.776Y63.845Z0F1200
G1 X78.421Y64.711Z0F1200
G1 X78.009Y65.646Z0F1200
G1 X77.631Y66.444Z0F1200
G1 X77.448Y66.782Z0F1200
G1 X77.242Y67.116Z0F1200
G1 X77.027Y67.42Z0F1200
G1 X76.789Y67.708Z0F1200
G1 X76.515Y67.992Z0F1200
G1 X76.201Y68.268Z0F1200
G1 X75.832Y68.548Z0F1200
G1 X75.403Y68.827Z0F1200
G1 X74.913Y69.106Z0F1200
G1 X74.334Y69.395Z0F1200
G1 X73.672Y69.689Z0F1200
G1 X72.94Y69.983Z0F1200
G1 X72.815Y70.023Z0F1200
G1 X72.737Y70.039Z0F1200
G1 X72.66Y70.046Z0F1200
G1 X72.622Z0F1200
G1 X72.462Y70.015Z0F1200
G1 X72.31Y69.959Z0F1200
G1 X71.871Y69.75Z0F1200
G1 X71.491Y69.624Z0F1200
G1 X71.289Y69.63Z0F1200
G1 X70.946Y69.553Z0F1200
G1 X70.579Y69.411Z0F1200
G1 X70.227Y69.214Z0F1200
G1 X69.879Y68.957Z0F1200
G1 X69.539Y68.641Z0F1200
G1 X69.206Y68.266Z0F1200
G1 X68.885Y67.841Z0F1200
G1 X68.563Y67.348Z0F1200
G0 Z2.8F500
G0 X66.011Y63.966Z2.8F1500
G1 Z0F500
G1 X65.479Y62.528Z0F1200
G1 X68.897Y60.415Z0F1200
G1 X68.936Y60.225Z0F1200
G1 X68.977Y60.001Z0F1200
G1 X69.028Y59.705Z0F1200
G1 X69.084Y59.344Z0F1200
G1 X69.141Y58.929Z0F1200
G1 X69.193Y58.469Z0F1200
G1 X69.239Y57.972Z0F1200
G1 X69.29Y56.909Z0F1200
G1 X69.258Y55.813Z0F1200
G1 X69.201Y55.277Z0F1200
G1 X69.111Y54.76Z0F1200
G1 X68.983Y54.272Z0F1200
G1 X68.814Y53.824Z0F1200
G1 X68.625Y53.419Z0F1200
G1 X68.443Y53.055Z0F1200
G1 X68.268Y52.728Z0F1200
G1 X68.101Y52.434Z0F1200
G1 X67.797Y51.925Z0F1200
G1 X67.538Y51.497Z0F1200
G1 X67.333Y51.115Z0F1200
G1 X67.189Y50.748Z0F1200
G1 X67.116Y50.36Z0F1200
G1 X67.12Y49.92Z0F1200
G1 X67.177Y49.422Z0F1200
G1 X67.256Y48.898Z0F1200
G1 X67.365Y48.37Z0F1200
G1 X67.506Y47.859Z0F1200
G1 X67.685Y47.388Z0F1200
G1 X67.905Y46.978Z0F1200
G1 X68.033Y46.803Z0F1200
G1 X68.172Y46.651Z0F1200
G1 X68.325Y46.526Z0F1200
G1 X68.491Y46.43Z0F1200
G1 X68.803Y46.259Z0F1200
G1 X69.067Y46.077Z0F1200
G1 X69.305Y45.893Z0F1200
G1 X69.543Y45.719Z0F1200
G1 X69.804Y45.563Z0F1200
G1 X70.113Y45.438Z0F1200
G1 X70.293Y45.39Z0F1200
G1 X70.494Y45.353Z0F1200
G1 X70.719Y45.328Z0F1200
G1 X70.971Y45.317Z0F1200
G1 X71.473Y45.289Z0F1200
G1 X71.922Y45.228Z0F1200
G1 X72.334Y45.155Z0F1200
G1 X72.723Y45.091Z0F1200
G1 X73.105Y45.053Z0F1200
G1 X73.496Y45.063Z0F1200
G1 X73.909Y45.14Z0F1200
G1 X74.361Y45.302Z0F1200
G1 X74.624Y45.45Z0F1200
G1 X74.932Y45.674Z0F1200
G1 X75.276Y45.969Z0F1200
G1 X75.65Y46.329Z0F1200
G1 X76.046Y46.747Z0F1200
G1 X76.456Y47.217Z0F1200
G1 X76.874Y47.732Z0F1200
G1 X77.29Y48.288Z0F1200
G1 X77.698Y48.875Z0F1200

; Color 1 picking sequence
G1 Z10 F500;         ; Raise brush to safe height
G0 X131 Y5 F1200;    ; Rapid move to color 1 position
G1 Z0 F500;         ; Lower into color - controlled movement
G1 X130.102Y7.295Z0S800F1200
G1 X130.026Y7.642Z0F1200
G1 X130Y8Z0F1200
G1 X130.026Y8.358Z0F1200
G1 X130.102Y8.705Z0F1200
G1 X130.225Y9.041Z0F1200
G1 X130.393Y9.362Z0F1200
G1 X130.603Y9.668Z0F1200
G1 X130.854Y9.957Z0F1200
G1 X131.142Y10.226Z0F1200
G1 X131.464Y10.475Z0F1200
G1 X131.82Y10.701Z0F1200
G1 X132.204Y10.902Z0F1200
G1 X132.617Y11.078Z0F1200
G1 X133.054Y11.225Z0F1200
G1 X133.513Y11.343Z0F1200
G1 X133.992Y11.429Z0F1200
G1 X134.489Y11.482Z0F1200
G1 X135Y11.5Z0F1200
G1 X135.511Y11.482Z0F1200
G1 X136.008Y11.429Z0F1200
G1 X136.487Y11.343Z0F1200
G1 X136.946Y11.225Z0F1200
G1 X137.383Y11.078Z0F1200
G1 X137.796Y10.902Z0F1200
G1 X138.18Y10.701Z0F1200
G1 X138.536Y10.475Z0F1200
G1 X138.858Y10.226Z0F1200
G1 X139.146Y9.957Z0F1200
G1 X139.397Y9.668Z0F1200
G1 X139.607Y9.362Z0F1200
G1 X139.775Y9.041Z0F1200
G1 X139.898Y8.705Z0F1200
G1 X139.974Y8.358Z0F1200
G1 X140Y8Z0F1200
G1 X139.974Y7.642Z0F1200
G1 X139.898Y7.295Z0F1200
G1 X139.775Y6.959Z0F1200
G1 X139.607Y6.638Z0F1200
G1 X139.397Y6.332Z0F1200
G1 X139.146Y6.043Z0F1200
G1 X138.858Y5.774Z0F1200
G1 X138.536Y5.525Z0F1200
G1 X138.18Y5.299Z0F1200
G1 X137.796Y5.098Z0F1200
G1 X137.383Y4.922Z0F1200
G1 X136.946Y4.775Z0F1200
G1 X136.487Y4.657Z0F1200
G1 X136.008Y4.571Z0F1200
G1 X135.511Y4.518Z0F1200
G1 X135Y4.5Z0F1200
G1 X134.489Y4.518Z0F1200
G1 X133.992Y4.571Z0F1200
G1 X133.513Y4.657Z0F1200
G1 X133.054Y4.775Z0F1200
G1 X132.617Y4.922Z0F1200
G1 X132.204Y5.098Z0F1200
G1 X131.82Y5.299Z0F1200
G1 X131.464Y5.525Z0F1200
G1 X131.142Y5.774Z0F1200
G1 X130.854Y6.043Z0F1200
G1 X130.603Y6.332Z0F1200
G1 X130.393Y6.638Z0F1200
G1 X130.225Y6.959Z0F1200
G1 Z7 F800;         ; Raise from color - controlled movement
G1 X124 Y8 Z1 F1200;     ; Movement in paint - controlled movement
G1 X114 Y12 Z8 F500;     ; Move in paint - controlled movement
G1 F1200;           ; Set feed rate to 1000

; Return to drawing position
G0 X77.698 Y48.875 F1200;  ; Return to position with raised Z
G1 Z0 F1000;                       ; Lower Z to drawing position
G1 X78.09Y49.49Z0F1200
G1 X78.459Y50.125Z0F1200
G1 X78.798Y50.773Z0F1200
G1 X79.098Y51.43Z0F1200
G1 X79.352Y52.087Z0F1200
G1 X79.553Y52.74Z0F1200
G1 X79.692Y53.382Z0F1200
G1 X79.926Y54.649Z0F1200
G1 X80.17Y55.934Z0F1200
G1 X80.378Y57.255Z0F1200
G1 X80.504Y58.633Z0F1200
G1 X80.521Y59.348Z0F1200
G1 X80.5Y60.084Z0F1200
G1 X80.435Y60.844Z0F1200
G1 X80.32Y61.629Z0F1200
G1 X80.15Y62.443Z0F1200
G1 X79.917Y63.287Z0F1200
G1 X79.618Y64.163Z0F1200
G1 X79.245Y65.075Z0F1200
G1 X78.833Y66.009Z0F1200
G1 X78.435Y66.85Z0F1200
G1 X78.224Y67.239Z0F1200
G1 X77.995Y67.611Z0F1200
G1 X77.742Y67.968Z0F1200
G1 X77.458Y68.311Z0F1200
G1 X77.137Y68.644Z0F1200
G1 X76.77Y68.966Z0F1200
G1 X76.352Y69.283Z0F1200
G1 X75.875Y69.594Z0F1200
G1 X75.333Y69.902Z0F1200
G1 X74.718Y70.209Z0F1200
G1 X74.024Y70.519Z0F1200
G1 X73.244Y70.831Z0F1200
G1 X73.047Y70.895Z0F1200
G1 X72.861Y70.932Z0F1200
G1 X72.687Y70.947Z0F1200
G1 X72.523Y70.942Z0F1200
G1 X72.225Y70.886Z0F1200
G1 X71.964Y70.792Z0F1200
G1 X71.534Y70.587Z0F1200
G1 X71.358Y70.528Z0F1200
G1 X71.203Y70.533Z0F1200
G1 X70.684Y70.417Z0F1200
G1 X70.196Y70.228Z0F1200
G1 X69.737Y69.971Z0F1200
G1 X69.304Y69.651Z0F1200
G1 X68.896Y69.271Z0F1200
G1 X68.51Y68.838Z0F1200
G1 X68.145Y68.354Z0F1200
G1 X67.799Y67.826Z0F1200
G1 X67.47Y67.257Z0F1200
G1 X67.156Y66.652Z0F1200
G1 X66.855Y66.016Z0F1200
G1 X66.565Y65.354Z0F1200
G1 X66.011Y63.966Z0F1200
G0 Z2.8F500
G0 X52.702Y35.413Z2.8F1500
G1 Z0F500
G1 X52.221Y35.972Z0F1200
G1 X51.742Y36.555Z0F1200
G1 X51.259Y37.159Z0F1200
G1 X50.773Y37.78Z0F1200
G1 X50.288Y38.411Z0F1200
G1 X49.657Y39.241Z0F1200
G1 X49.662Y39.088Z0F1200
G1 X49.697Y38.552Z0F1200
G1 X49.747Y38.046Z0F1200
G1 X49.798Y37.656Z0F1200
G1 X49.847Y37.589Z0F1200
G1 X50.029Y37.385Z0F1200
G1 X50.341Y37.087Z0F1200
G1 X50.788Y36.708Z0F1200
G1 X51.37Y36.257Z0F1200
G1 X52.07Y35.747Z0F1200
G1 X52.928Y35.145Z0F1200
G1 X52.978Y35.11Z0F1200
G1 X52.702Y35.413Z0F1200
G0 Z2.8F500
G0 X56.989Y32.291Z2.8F1500
G1 Z0F500
G1 X57.087Y32.22Z0F1200
G1 X57.084Y32.247Z0F1200
G1 X56.989Y32.291Z0F1200
G0 Z2.8F500
G0 X54.355Y33.062Z2.8F1500
G1 Z0F500
G1 X55.464Y32.282Z0F1200
G1 X56.647Y31.427Z0F1200
G1 X57.586Y30.725Z0F1200
G1 X58.002Y30.81Z0F1200
G1 X58.106Y30.836Z0F1200
G1 X58.101Y31.094Z0F1200
G1 X58.078Y31.47Z0F1200
G1 X58.032Y31.933Z0F1200
G1 X57.967Y32.436Z0F1200
G1 X57.899Y32.867Z0F1200
G1 X57.707Y32.949Z0F1200
G1 X56.874Y33.338Z0F1200
G1 X56.409Y33.577Z0F1200
G1 X55.953Y33.829Z0F1200
G1 X55.484Y34.115Z0F1200
G1 X54.999Y34.448Z0F1200
G1 X54.652Y34.724Z0F1200
G1 X54.354Y34.989Z0F1200
G1 X54.086Y35.248Z0F1200
G1 X53.824Y35.518Z0F1200
G1 X53.376Y36.009Z0F1200
G1 X52.91Y36.551Z0F1200
G1 X52.441Y37.122Z0F1200
G1 X51.965Y37.717Z0F1200
G1 X51.484Y38.332Z0F1200
G1 X51.002Y38.958Z0F1200
G1 X50.07Y40.185Z0F1200
G1 X49.211Y41.321Z0F1200
G1 X48.832Y41.82Z0F1200
G1 X48.805Y41.508Z0F1200
G1 X48.773Y41.033Z0F1200
G1 X48.752Y40.559Z0F1200
G1 X48.743Y40.071Z0F1200
G1 X48.746Y39.543Z0F1200
G1 X48.764Y39.029Z0F1200
G1 X48.798Y38.5Z0F1200
G1 X48.854Y37.935Z0F1200
G1 X48.921Y37.427Z0F1200
G1 X48.934Y37.361Z0F1200
G1 X48.938Y37.345Z0F1200
G1 X49.018Y37.199Z0F1200
G1 X49.144Y37.026Z0F1200
G1 X49.381Y36.759Z0F1200
G1 X49.736Y36.42Z0F1200
G1 X50.226Y36.005Z0F1200
G1 X50.826Y35.541Z0F1200
G1 X51.554Y35.01Z0F1200
G1 X52.41Y34.408Z0F1200
G1 X54.355Y33.062Z0F1200
G0 Z2.8F500
G0 X58.704Y30.061Z2.8F1500
G1 Z0F500
G1 X58.965Y30.151Z0F1200
G1 X58.982Y30.264Z0F1200
G1 X59Y30.479Z0F1200
G1 X59.008Y30.774Z0F1200
G1 X59Y31.121Z0F1200
G1 X58.974Y31.559Z0F1200
G1 X58.928Y32.024Z0F1200
G1 X58.858Y32.566Z0F1200
G1 X58.76Y33.191Z0F1200
G1 X58.704Y33.502Z0F1200
G1 X58.074Y33.771Z0F1200
G1 X57.271Y34.147Z0F1200
G1 X56.832Y34.371Z0F1200
G1 X56.405Y34.607Z0F1200
G1 X55.973Y34.871Z0F1200
G1 X55.534Y35.172Z0F1200
G1 X55.232Y35.413Z0F1200
G1 X54.966Y35.649Z0F1200
G1 X54.722Y35.885Z0F1200
G1 X54.479Y36.135Z0F1200
G1 X54.05Y36.605Z0F1200
G1 X53.599Y37.13Z0F1200
G1 X53.14Y37.689Z0F1200
G1 X52.671Y38.276Z0F1200
G1 X52.195Y38.884Z0F1200
G1 X51.717Y39.504Z0F1200
G1 X50.787Y40.729Z0F1200
G1 X49.919Y41.877Z0F1200
G1 X49.548Y42.364Z0F1200
G1 X49.212Y42.799Z0F1200
G1 X48.908Y43.185Z0F1200
G1 X48.794Y43.324Z0F1200
G1 X48.608Y43.506Z0F1200
G1 X48.226Y43.951Z0F1200
G1 X48.208Y43.978Z0F1200
G1 X48.187Y43.984Z0F1200
G1 X48.089Y43.265Z0F1200
G1 X48.038Y42.869Z0F1200
G1 X47.991Y42.463Z0F1200
G1 X47.947Y42.04Z0F1200
G1 X47.906Y41.563Z0F1200
G1 X47.876Y41.11Z0F1200

; Color 1 picking sequence
G1 Z10 F500;         ; Raise brush to safe height
G0 X131 Y5 F1200;    ; Rapid move to color 1 position
G1 Z0 F500;         ; Lower into color - controlled movement
G1 X130.102Y7.295Z0S800F1200
G1 X130.026Y7.642Z0F1200
G1 X130Y8Z0F1200
G1 X130.026Y8.358Z0F1200
G1 X130.102Y8.705Z0F1200
G1 X130.225Y9.041Z0F1200
G1 X130.393Y9.362Z0F1200
G1 X130.603Y9.668Z0F1200
G1 X130.854Y9.957Z0F1200
G1 X131.142Y10.226Z0F1200
G1 X131.464Y10.475Z0F1200
G1 X131.82Y10.701Z0F1200
G1 X132.204Y10.902Z0F1200
G1 X132.617Y11.078Z0F1200
G1 X133.054Y11.225Z0F1200
G1 X133.513Y11.343Z0F1200
G1 X133.992Y11.429Z0F1200
G1 X134.489Y11.482Z0F1200
G1 X135Y11.5Z0F1200
G1 X135.511Y11.482Z0F1200
G1 X136.008Y11.429Z0F1200
G1 X136.487Y11.343Z0F1200
G1 X136.946Y11.225Z0F1200
G1 X137.383Y11.078Z0F1200
G1 X137.796Y10.902Z0F1200
G1 X138.18Y10.701Z0F1200
G1 X138.536Y10.475Z0F1200
G1 X138.858Y10.226Z0F1200
G1 X139.146Y9.957Z0F1200
G1 X139.397Y9.668Z0F1200
G1 X139.607Y9.362Z0F1200
G1 X139.775Y9.041Z0F1200
G1 X139.898Y8.705Z0F1200
G1 X139.974Y8.358Z0F1200
G1 X140Y8Z0F1200
G1 X139.974Y7.642Z0F1200
G1 X139.898Y7.295Z0F1200
G1 X139.775Y6.959Z0F1200
G1 X139.607Y6.638Z0F1200
G1 X139.397Y6.332Z0F1200
G1 X139.146Y6.043Z0F1200
G1 X138.858Y5.774Z0F1200
G1 X138.536Y5.525Z0F1200
G1 X138.18Y5.299Z0F1200
G1 X137.796Y5.098Z0F1200
G1 X137.383Y4.922Z0F1200
G1 X136.946Y4.775Z0F1200
G1 X136.487Y4.657Z0F1200
G1 X136.008Y4.571Z0F1200
G1 X135.511Y4.518Z0F1200
G1 X135Y4.5Z0F1200
G1 X134.489Y4.518Z0F1200
G1 X133.992Y4.571Z0F1200
G1 X133.513Y4.657Z0F1200
G1 X133.054Y4.775Z0F1200
G1 X132.617Y4.922Z0F1200
G1 X132.204Y5.098Z0F1200
G1 X131.82Y5.299Z0F1200
G1 X131.464Y5.525Z0F1200
G1 X131.142Y5.774Z0F1200
G1 X130.854Y6.043Z0F1200
G1 X130.603Y6.332Z0F1200
G1 X130.393Y6.638Z0F1200
G1 X130.225Y6.959Z0F1200
G1 Z7 F800;         ; Raise from color - controlled movement
G1 X124 Y8 Z1 F1200;     ; Movement in paint - controlled movement
G1 X114 Y12 Z8 F500;     ; Move in paint - controlled movement
G1 F1200;           ; Set feed rate to 1000

; Return to drawing position
G0 X47.876 Y41.110 F1200;  ; Return to position with raised Z
G1 Z0 F1000;                       ; Lower Z to drawing position
G1 X47.853Y40.577Z0F1200
G1 X47.842Y40.084Z0F1200
G1 X47.846Y39.523Z0F1200
G1 X47.865Y38.987Z0F1200
G1 X47.902Y38.415Z0F1200
G1 X47.958Y37.841Z0F1200
G1 X48.033Y37.279Z0F1200
G1 X48.055Y37.164Z0F1200
G1 X48.078Y37.075Z0F1200
G1 X48.104Y37.001Z0F1200
G1 X48.117Y36.968Z0F1200
G1 X48.256Y36.718Z0F1200
G1 X48.441Y36.461Z0F1200
G1 X48.734Y36.132Z0F1200
G1 X49.131Y35.752Z0F1200
G1 X49.659Y35.307Z0F1200
G1 X50.301Y34.81Z0F1200
G1 X51.012Y34.291Z0F1200
G1 X51.893Y33.672Z0F1200
G1 X53.84Y32.324Z0F1200
G1 X54.942Y31.549Z0F1200
G1 X56.114Y30.702Z0F1200
G1 X57.353Y29.776Z0F1200
G1 X57.364Y29.767Z0F1200
G1 X57.549Y29.8Z0F1200
G1 X58.21Y29.934Z0F1200
G1 X58.704Y30.061Z0F1200
G0 Z2.8F500
G0 X59.899Y30.432Z2.8F1500
G1 Z0F500
G1 X59.908Y30.768Z0F1200
G1 X59.9Y31.159Z0F1200
G1 X59.872Y31.622Z0F1200
G1 X59.822Y32.13Z0F1200
G1 X59.749Y32.696Z0F1200
G1 X59.648Y33.334Z0F1200
G1 X59.526Y34.016Z0F1200
G1 X59.499Y34.149Z0F1200
G1 X59.192Y34.273Z0F1200
G1 X58.441Y34.592Z0F1200
G1 X57.667Y34.955Z0F1200
G1 X57.255Y35.166Z0F1200
G1 X56.858Y35.386Z0F1200
G1 X56.462Y35.627Z0F1200
G1 X56.07Y35.896Z0F1200
G1 X55.812Y36.102Z0F1200
G1 X55.578Y36.31Z0F1200
G1 X55.357Y36.523Z0F1200
G1 X55.135Y36.751Z0F1200
G1 X54.724Y37.202Z0F1200
G1 X54.289Y37.709Z0F1200
G1 X53.839Y38.256Z0F1200
G1 X53.377Y38.834Z0F1200
G1 X52.907Y39.436Z0F1200
G1 X52.432Y40.051Z0F1200
G1 X51.504Y41.272Z0F1200
G1 X50.644Y42.412Z0F1200
G1 X50.249Y42.929Z0F1200
G1 X49.919Y43.357Z0F1200
G1 X49.614Y43.743Z0F1200
G1 X49.459Y43.932Z0F1200
G1 X49.266Y44.122Z0F1200
G1 X48.938Y44.502Z0F1200
G1 X48.752Y44.77Z0F1200
G1 X48.567Y44.809Z0F1200
G1 X47.966Y44.99Z0F1200
G1 X47.671Y44.787Z0F1200
G1 X47.523Y44.683Z0F1200
G1 X47.385Y44.569Z0F1200
G1 X47.352Y44.536Z0F1200
G1 X47.341Y44.444Z0F1200
G1 X47.2Y43.406Z0F1200
G1 X47.146Y42.983Z0F1200
G1 X47.099Y42.591Z0F1200
G1 X47.051Y42.122Z0F1200
G1 X47.008Y41.618Z0F1200
G1 X46.977Y41.146Z0F1200
G1 X46.953Y40.614Z0F1200
G1 X46.942Y40.078Z0F1200
G1 X46.945Y39.521Z0F1200
G1 X46.966Y38.944Z0F1200
G1 X47.005Y38.347Z0F1200
G1 X47.065Y37.729Z0F1200
G1 X47.143Y37.144Z0F1200
G1 X47.178Y36.959Z0F1200
G1 X47.215Y36.818Z0F1200
G1 X47.264Y36.675Z0F1200
G1 X47.306Y36.576Z0F1200
G1 X47.496Y36.232Z0F1200
G1 X47.74Y35.895Z0F1200
G1 X48.081Y35.513Z0F1200
G1 X48.536Y35.078Z0F1200
G1 X49.089Y34.609Z0F1200
G1 X49.749Y34.099Z0F1200
G1 X50.515Y33.54Z0F1200
G1 X51.359Y32.947Z0F1200
G1 X53.325Y31.585Z0F1200
G1 X54.419Y30.816Z0F1200
G1 X55.582Y29.977Z0F1200
G1 X56.806Y29.061Z0F1200
G1 X57.125Y28.812Z0F1200
G1 X57.721Y28.917Z0F1200
G1 X58.411Y29.057Z0F1200
G1 X58.965Y29.198Z0F1200
G1 X59.352Y29.333Z0F1200
G1 X59.64Y29.473Z0F1200
G1 X59.658Y29.485Z0F1200
G1 X59.684Y29.505Z0F1200
G1 X59.703Y29.523Z0F1200
G1 X59.709Y29.531Z0F1200
G1 X59.722Y29.549Z0F1200
G1 X59.742Y29.587Z0F1200
G1 X59.77Y29.653Z0F1200
G1 X59.806Y29.771Z0F1200
G1 X59.844Y29.937Z0F1200
G1 X59.876Y30.154Z0F1200
G1 X59.899Y30.432Z0F1200
G0 Z2.8F500
G0 X60.411Y34.181Z2.8F1500
G1 Z0F500
G1 X60.284Y34.81Z0F1200
G1 X60.203Y34.84Z0F1200
G1 X59.885Y34.964Z0F1200
G1 X59.536Y35.104Z0F1200
G1 X58.808Y35.415Z0F1200
G1 X58.063Y35.763Z0F1200
G1 X57.679Y35.96Z0F1200
G1 X57.31Y36.164Z0F1200
G1 X56.952Y36.383Z0F1200
G1 X56.605Y36.62Z0F1200
G1 X56.392Y36.79Z0F1200
G1 X56.19Y36.97Z0F1200
G1 X55.992Y37.161Z0F1200
G1 X55.791Y37.368Z0F1200
G1 X55.398Y37.799Z0F1200
G1 X54.978Y38.289Z0F1200
G1 X54.538Y38.823Z0F1200
G1 X54.083Y39.392Z0F1200
G1 X53.618Y39.987Z0F1200
G1 X53.147Y40.598Z0F1200
G1 X52.222Y41.815Z0F1200
G1 X51.359Y42.957Z0F1200
G1 X50.973Y43.465Z0F1200
G1 X50.613Y43.93Z0F1200
G1 X50.331Y44.289Z0F1200
G1 X50.124Y44.54Z0F1200
G1 X49.923Y44.737Z0F1200
G1 X49.65Y45.055Z0F1200
G1 X49.419Y45.386Z0F1200
G1 X49.32Y45.569Z0F1200
G1 X48.791Y45.682Z0F1200
G1 X48.125Y45.882Z0F1200
G1 X47.775Y46.005Z0F1200
G1 X47.768Y45.998Z0F1200
G1 X47.424Y45.71Z0F1200
G1 X47.146Y45.518Z0F1200
G1 X46.978Y45.4Z0F1200
G1 X46.786Y45.241Z0F1200
G1 X46.699Y45.157Z0F1200
G1 X46.564Y45.016Z0F1200
G1 X46.488Y44.93Z0F1200
G1 X46.485Y44.882Z0F1200
G1 X46.448Y44.556Z0F1200
G1 X46.305Y43.507Z0F1200
G1 X46.255Y43.115Z0F1200
G1 X46.201Y42.656Z0F1200
G1 X46.155Y42.207Z0F1200
G1 X46.111Y41.694Z0F1200
G1 X46.078Y41.202Z0F1200
G1 X46.054Y40.652Z0F1200
G1 X46.042Y40.071Z0F1200
G1 X46.046Y39.5Z0F1200
G1 X46.066Y38.903Z0F1200
G1 X46.108Y38.262Z0F1200
G1 X46.17Y37.633Z0F1200
G1 X46.254Y36.998Z0F1200
G1 X46.299Y36.762Z0F1200
G1 X46.353Y36.557Z0F1200
G1 X46.423Y36.353Z0F1200
G1 X46.497Y36.18Z0F1200
G1 X46.734Y35.75Z0F1200
G1 X47.037Y35.332Z0F1200
G1 X47.437Y34.883Z0F1200
G1 X47.931Y34.411Z0F1200
G1 X48.521Y33.911Z0F1200
G1 X49.215Y33.374Z0F1200
G1 X49.977Y32.818Z0F1200
G1 X50.857Y32.199Z0F1200
G1 X52.811Y30.848Z0F1200
G1 X53.897Y30.083Z0F1200

; Color 1 picking sequence
G1 Z10 F500;         ; Raise brush to safe height
G0 X131 Y5 F1200;    ; Rapid move to color 1 position
G1 Z0 F500;         ; Lower into color - controlled movement
G1 X130.102Y7.295Z0S800F1200
G1 X130.026Y7.642Z0F1200
G1 X130Y8Z0F1200
G1 X130.026Y8.358Z0F1200
G1 X130.102Y8.705Z0F1200
G1 X130.225Y9.041Z0F1200
G1 X130.393Y9.362Z0F1200
G1 X130.603Y9.668Z0F1200
G1 X130.854Y9.957Z0F1200
G1 X131.142Y10.226Z0F1200
G1 X131.464Y10.475Z0F1200
G1 X131.82Y10.701Z0F1200
G1 X132.204Y10.902Z0F1200
G1 X132.617Y11.078Z0F1200
G1 X133.054Y11.225Z0F1200
G1 X133.513Y11.343Z0F1200
G1 X133.992Y11.429Z0F1200
G1 X134.489Y11.482Z0F1200
G1 X135Y11.5Z0F1200
G1 X135.511Y11.482Z0F1200
G1 X136.008Y11.429Z0F1200
G1 X136.487Y11.343Z0F1200
G1 X136.946Y11.225Z0F1200
G1 X137.383Y11.078Z0F1200
G1 X137.796Y10.902Z0F1200
G1 X138.18Y10.701Z0F1200
G1 X138.536Y10.475Z0F1200
G1 X138.858Y10.226Z0F1200
G1 X139.146Y9.957Z0F1200
G1 X139.397Y9.668Z0F1200
G1 X139.607Y9.362Z0F1200
G1 X139.775Y9.041Z0F1200
G1 X139.898Y8.705Z0F1200
G1 X139.974Y8.358Z0F1200
G1 X140Y8Z0F1200
G1 X139.974Y7.642Z0F1200
G1 X139.898Y7.295Z0F1200
G1 X139.775Y6.959Z0F1200
G1 X139.607Y6.638Z0F1200
G1 X139.397Y6.332Z0F1200
G1 X139.146Y6.043Z0F1200
G1 X138.858Y5.774Z0F1200
G1 X138.536Y5.525Z0F1200
G1 X138.18Y5.299Z0F1200
G1 X137.796Y5.098Z0F1200
G1 X137.383Y4.922Z0F1200
G1 X136.946Y4.775Z0F1200
G1 X136.487Y4.657Z0F1200
G1 X136.008Y4.571Z0F1200
G1 X135.511Y4.518Z0F1200
G1 X135Y4.5Z0F1200
G1 X134.489Y4.518Z0F1200
G1 X133.992Y4.571Z0F1200
G1 X133.513Y4.657Z0F1200
G1 X133.054Y4.775Z0F1200
G1 X132.617Y4.922Z0F1200
G1 X132.204Y5.098Z0F1200
G1 X131.82Y5.299Z0F1200
G1 X131.464Y5.525Z0F1200
G1 X131.142Y5.774Z0F1200
G1 X130.854Y6.043Z0F1200
G1 X130.603Y6.332Z0F1200
G1 X130.393Y6.638Z0F1200
G1 X130.225Y6.959Z0F1200
G1 Z7 F800;         ; Raise from color - controlled movement
G1 X124 Y8 Z1 F1200;     ; Movement in paint - controlled movement
G1 X114 Y12 Z8 F500;     ; Move in paint - controlled movement
G1 F1200;           ; Set feed rate to 1000

; Return to drawing position
G0 X53.897 Y30.083 F1200;  ; Return to position with raised Z
G1 Z0 F1000;                       ; Lower Z to drawing position
G1 X55.048Y29.252Z0F1200
G1 X56.26Y28.346Z0F1200
G1 X56.885Y27.857Z0F1200
G1 X57.044Y27.884Z0F1200
G1 X57.873Y28.029Z0F1200
G1 X58.618Y28.18Z0F1200
G1 X59.22Y28.334Z0F1200
G1 X59.703Y28.502Z0F1200
G1 X60.08Y28.686Z0F1200
G1 X60.178Y28.75Z0F1200
G1 X60.274Y28.825Z0F1200
G1 X60.357Y28.903Z0F1200
G1 X60.428Y28.988Z0F1200
G1 X60.491Y29.08Z0F1200
G1 X60.555Y29.199Z0F1200
G1 X60.618Y29.35Z0F1200
G1 X60.675Y29.535Z0F1200
G1 X60.729Y29.773Z0F1200
G1 X60.77Y30.046Z0F1200
G1 X60.798Y30.385Z0F1200
G1 X60.808Y30.76Z0F1200
G1 X60.799Y31.211Z0F1200
G1 X60.77Y31.684Z0F1200
G1 X60.715Y32.238Z0F1200
G1 X60.64Y32.818Z0F1200
G1 X60.536Y33.486Z0F1200
G1 X60.411Y34.181Z0F1200
G0 Z2.8F500
G0 X60.216Y35.801Z2.8F1500
G1 Z0F500
G1 X59.881Y35.936Z0F1200
G1 X59.175Y36.236Z0F1200
G1 X58.459Y36.572Z0F1200
G1 X58.102Y36.754Z0F1200
G1 X57.763Y36.942Z0F1200
G1 X57.44Y37.139Z0F1200
G1 X57.141Y37.344Z0F1200
G1 X56.972Y37.479Z0F1200
G1 X56.802Y37.63Z0F1200
G1 X56.628Y37.798Z0F1200
G1 X56.446Y37.985Z0F1200
G1 X56.072Y38.395Z0F1200
G1 X55.667Y38.868Z0F1200
G1 X55.237Y39.39Z0F1200
G1 X54.789Y39.95Z0F1200
G1 X54.329Y40.539Z0F1200
G1 X53.862Y41.145Z0F1200
G1 X52.939Y42.359Z0F1200
G1 X52.075Y43.502Z0F1200
G1 X51.685Y44.015Z0F1200
G1 X51.332Y44.473Z0F1200
G1 X51.015Y44.874Z0F1200
G1 X50.788Y45.15Z0F1200
G1 X50.581Y45.353Z0F1200
G1 X50.363Y45.607Z0F1200
G1 X50.187Y45.859Z0F1200
G1 X50.037Y46.137Z0F1200
G1 X49.959Y46.387Z0F1200
G1 X49.705Y46.408Z0F1200
G1 X49.014Y46.554Z0F1200
G1 X48.404Y46.738Z0F1200
G1 X47.885Y46.92Z0F1200
G1 X47.494Y47.056Z0F1200
G1 X47.491Z0F1200
G1 X47.453Y47.001Z0F1200
G1 X47.31Y46.823Z0F1200
G1 X47.15Y46.654Z0F1200
G1 X46.879Y46.428Z0F1200
G1 X46.634Y46.258Z0F1200
G1 X46.426Y46.112Z0F1200
G1 X46.19Y45.917Z0F1200
G1 X46.062Y45.793Z0F1200
G1 X45.908Y45.632Z0F1200
G1 X45.715Y45.413Z0F1200
G1 X45.607Y45.281Z0F1200
G1 X45.588Y44.96Z0F1200
G1 X45.555Y44.668Z0F1200
G1 X45.413Y43.628Z0F1200
G1 X45.36Y43.212Z0F1200
G1 X45.308Y42.775Z0F1200
G1 X45.258Y42.281Z0F1200
G1 X45.214Y41.771Z0F1200
G1 X45.178Y41.231Z0F1200
G1 X45.154Y40.689Z0F1200
G1 X45.142Y40.078Z0F1200
G1 X45.146Y39.48Z0F1200
G1 X45.168Y38.844Z0F1200
G1 X45.209Y38.211Z0F1200
G1 X45.276Y37.523Z0F1200
G1 X45.365Y36.859Z0F1200
G1 X45.42Y36.564Z0F1200
G1 X45.492Y36.294Z0F1200
G1 X45.583Y36.027Z0F1200
G1 X45.686Y35.788Z0F1200
G1 X45.974Y35.266Z0F1200
G1 X46.337Y34.764Z0F1200
G1 X46.786Y34.26Z0F1200
G1 X47.33Y33.739Z0F1200
G1 X47.952Y33.213Z0F1200
G1 X48.66Y32.665Z0F1200
G1 X49.472Y32.073Z0F1200
G1 X50.334Y31.467Z0F1200
G1 X52.295Y30.109Z0F1200
G1 X53.375Y29.351Z0F1200
G1 X54.515Y28.527Z0F1200
G1 X55.713Y27.63Z0F1200
G1 X56.645Y26.903Z0F1200
G1 X57.189Y26.995Z0F1200
G1 X58.061Y27.148Z0F1200
G1 X58.809Y27.3Z0F1200
G1 X59.487Y27.474Z0F1200
G1 X60.044Y27.667Z0F1200
G1 X60.521Y27.9Z0F1200
G1 X60.7Y28.015Z0F1200
G1 X60.864Y28.144Z0F1200
G1 X61.013Y28.286Z0F1200
G1 X61.144Y28.44Z0F1200
G1 X61.264Y28.616Z0F1200
G1 X61.37Y28.813Z0F1200
G1 X61.462Y29.037Z0F1200
G1 X61.547Y29.306Z0F1200
G1 X61.614Y29.603Z0F1200
G1 X61.665Y29.944Z0F1200
G1 X61.697Y30.338Z0F1200
G1 X61.708Y30.756Z0F1200
G1 X61.699Y31.237Z0F1200
G1 X61.666Y31.773Z0F1200
G1 X61.612Y32.321Z0F1200
G1 X61.53Y32.954Z0F1200
G1 X61.424Y33.629Z0F1200
G1 X61.293Y34.355Z0F1200
G1 X61.136Y35.137Z0F1200
G1 X61.061Y35.48Z0F1200
G1 X61.052Y35.483Z0F1200
G1 X60.806Y35.574Z0F1200
G1 X60.526Y35.68Z0F1200
G1 X60.216Y35.801Z0F1200
G0 Z2.8F500
G0 X58.215Y37.721Z2.8F1500
G1 Z0F500
G1 X57.93Y37.895Z0F1200
G1 X57.676Y38.068Z0F1200
G1 X57.552Y38.167Z0F1200
G1 X57.414Y38.291Z0F1200
G1 X57.263Y38.436Z0F1200
G1 X57.102Y38.602Z0F1200
G1 X56.746Y38.992Z0F1200
G1 X56.355Y39.447Z0F1200
G1 X55.936Y39.957Z0F1200
G1 X55.495Y40.508Z0F1200
G1 X55.04Y41.091Z0F1200
G1 X54.577Y41.692Z0F1200
G1 X53.656Y42.903Z0F1200
G1 X52.792Y44.047Z0F1200
G1 X52.397Y44.565Z0F1200
G1 X52.038Y45.03Z0F1200
G1 X51.721Y45.432Z0F1200
G1 X51.453Y45.758Z0F1200
G1 X51.239Y45.968Z0F1200
G1 X51.075Y46.159Z0F1200
G1 X50.954Y46.332Z0F1200
G1 X50.871Y46.486Z0F1200
G1 X50.791Y46.746Z0F1200
G1 X50.784Y46.943Z0F1200
G1 X50.798Y47.085Z0F1200
G1 X50.784Y47.179Z0F1200
G1 X50.75Y47.21Z0F1200
G1 X50.69Y47.231Z0F1200
G1 X50.597Y47.244Z0F1200
G1 X50.464Y47.249Z0F1200
G1 X49.835Y47.3Z0F1200
G1 X49.238Y47.427Z0F1200
G1 X48.683Y47.594Z0F1200
G1 X48.183Y47.77Z0F1200
G1 X47.748Y47.919Z0F1200
G1 X47.391Y48.01Z0F1200
G1 X47.244Y48.022Z0F1200
G1 X47.121Y48.008Z0F1200
G1 X47.023Y47.962Z0F1200
G1 X46.952Y47.88Z0F1200
G1 X46.839Y47.694Z0F1200
G1 X46.732Y47.541Z0F1200
G1 X46.631Y47.415Z0F1200
G1 X46.532Y47.311Z0F1200
G1 X46.334Y47.145Z0F1200
G1 X46.123Y46.999Z0F1200
G1 X45.88Y46.828Z0F1200
G1 X45.591Y46.589Z0F1200
G1 X45.424Y46.429Z0F1200
G1 X45.24Y46.236Z0F1200
G1 X45.035Y46.002Z0F1200
G1 X44.808Y45.725Z0F1200
G1 X44.742Y45.59Z0F1200
G1 X44.714Y45.424Z0F1200
G1 X44.691Y45.039Z0F1200
G1 X44.662Y44.781Z0F1200
G1 X44.521Y43.749Z0F1200
G1 X44.467Y43.326Z0F1200
G1 X44.413Y42.867Z0F1200
G1 X44.362Y42.374Z0F1200
G1 X44.317Y41.848Z0F1200
G1 X44.28Y41.292Z0F1200
G1 X44.254Y40.707Z0F1200
G1 X44.242Y40.096Z0F1200
G1 X44.246Y39.46Z0F1200
G1 X44.269Y38.802Z0F1200
G1 X44.313Y38.124Z0F1200
G1 X44.381Y37.427Z0F1200
G1 X44.477Y36.713Z0F1200
G1 X44.542Y36.367Z0F1200
G1 X44.63Y36.031Z0F1200
G1 X44.742Y35.707Z0F1200
G1 X44.876Y35.391Z0F1200
G1 X45.211Y34.784Z0F1200

; Color 1 picking sequence
G1 Z10 F500;         ; Raise brush to safe height
G0 X131 Y5 F1200;    ; Rapid move to color 1 position
G1 Z0 F500;         ; Lower into color - controlled movement
G1 X130.102Y7.295Z0S800F1200
G1 X130.026Y7.642Z0F1200
G1 X130Y8Z0F1200
G1 X130.026Y8.358Z0F1200
G1 X130.102Y8.705Z0F1200
G1 X130.225Y9.041Z0F1200
G1 X130.393Y9.362Z0F1200
G1 X130.603Y9.668Z0F1200
G1 X130.854Y9.957Z0F1200
G1 X131.142Y10.226Z0F1200
G1 X131.464Y10.475Z0F1200
G1 X131.82Y10.701Z0F1200
G1 X132.204Y10.902Z0F1200
G1 X132.617Y11.078Z0F1200
G1 X133.054Y11.225Z0F1200
G1 X133.513Y11.343Z0F1200
G1 X133.992Y11.429Z0F1200
G1 X134.489Y11.482Z0F1200
G1 X135Y11.5Z0F1200
G1 X135.511Y11.482Z0F1200
G1 X136.008Y11.429Z0F1200
G1 X136.487Y11.343Z0F1200
G1 X136.946Y11.225Z0F1200
G1 X137.383Y11.078Z0F1200
G1 X137.796Y10.902Z0F1200
G1 X138.18Y10.701Z0F1200
G1 X138.536Y10.475Z0F1200
G1 X138.858Y10.226Z0F1200
G1 X139.146Y9.957Z0F1200
G1 X139.397Y9.668Z0F1200
G1 X139.607Y9.362Z0F1200
G1 X139.775Y9.041Z0F1200
G1 X139.898Y8.705Z0F1200
G1 X139.974Y8.358Z0F1200
G1 X140Y8Z0F1200
G1 X139.974Y7.642Z0F1200
G1 X139.898Y7.295Z0F1200
G1 X139.775Y6.959Z0F1200
G1 X139.607Y6.638Z0F1200
G1 X139.397Y6.332Z0F1200
G1 X139.146Y6.043Z0F1200
G1 X138.858Y5.774Z0F1200
G1 X138.536Y5.525Z0F1200
G1 X138.18Y5.299Z0F1200
G1 X137.796Y5.098Z0F1200
G1 X137.383Y4.922Z0F1200
G1 X136.946Y4.775Z0F1200
G1 X136.487Y4.657Z0F1200
G1 X136.008Y4.571Z0F1200
G1 X135.511Y4.518Z0F1200
G1 X135Y4.5Z0F1200
G1 X134.489Y4.518Z0F1200
G1 X133.992Y4.571Z0F1200
G1 X133.513Y4.657Z0F1200
G1 X133.054Y4.775Z0F1200
G1 X132.617Y4.922Z0F1200
G1 X132.204Y5.098Z0F1200
G1 X131.82Y5.299Z0F1200
G1 X131.464Y5.525Z0F1200
G1 X131.142Y5.774Z0F1200
G1 X130.854Y6.043Z0F1200
G1 X130.603Y6.332Z0F1200
G1 X130.393Y6.638Z0F1200
G1 X130.225Y6.959Z0F1200
G1 Z7 F800;         ; Raise from color - controlled movement
G1 X124 Y8 Z1 F1200;     ; Movement in paint - controlled movement
G1 X114 Y12 Z8 F500;     ; Move in paint - controlled movement
G1 F1200;           ; Set feed rate to 1000

; Return to drawing position
G0 X45.211 Y34.784 F1200;  ; Return to position with raised Z
G1 Z0 F1000;                       ; Lower Z to drawing position
G1 X45.634Y34.201Z0F1200
G1 X46.139Y33.633Z0F1200
G1 X46.726Y33.072Z0F1200
G1 X47.39Y32.51Z0F1200
G1 X48.129Y31.938Z0F1200
G1 X48.941Y31.346Z0F1200
G1 X49.822Y30.727Z0F1200
G1 X51.781Y29.371Z0F1200
G1 X52.853Y28.618Z0F1200
G1 X53.982Y27.802Z0F1200
G1 X55.167Y26.916Z0F1200
G1 X56.403Y25.95Z0F1200
G1 X57.344Y26.109Z0F1200
G1 X58.216Y26.262Z0F1200
G1 X59.017Y26.424Z0F1200
G1 X59.743Y26.61Z0F1200
G1 X60.393Y26.836Z0F1200
G1 X60.964Y27.115Z0F1200
G1 X61.22Y27.279Z0F1200
G1 X61.455Y27.463Z0F1200
G1 X61.669Y27.667Z0F1200
G1 X61.862Y27.895Z0F1200
G1 X62.033Y28.147Z0F1200
G1 X62.183Y28.426Z0F1200
G1 X62.311Y28.733Z0F1200
G1 X62.416Y29.07Z0F1200
G1 X62.499Y29.439Z0F1200
G1 X62.559Y29.843Z0F1200
G1 X62.596Y30.282Z0F1200
G1 X62.609Y30.76Z0F1200
G1 X62.598Y31.276Z0F1200
G1 X62.563Y31.835Z0F1200
G1 X62.504Y32.437Z0F1200
G1 X62.421Y33.083Z0F1200
G1 X62.312Y33.777Z0F1200
G1 X62.178Y34.521Z0F1200
G1 X62.019Y35.314Z0F1200
G1 X61.833Y36.161Z0F1200
G1 X61.706Y36.205Z0F1200
G1 X61.36Y36.329Z0F1200
G1 X61.122Y36.417Z0F1200
G1 X60.849Y36.521Z0F1200
G1 X60.547Y36.638Z0F1200
G1 X60.225Y36.768Z0F1200
G1 X59.542Y37.058Z0F1200
G1 X58.855Y37.38Z0F1200
G1 X58.525Y37.549Z0F1200
G1 X58.215Y37.721Z0F1200
;Cut @ 1200 mm/min, 90% power

M8

; Washing sequence (no color)
G1 Z10 F1000;        ; Raise brush to safe height
G0 X5 Y5 F1200;     ; Rapid move to brush cleaning position
G1 Z-1 F800;         ; Lower brush for cleaning - controlled movement
G1 X10 Y12 Z8 F1200;     ; Rapid move to brush cleaning position
G1 Z-1 F800;         ; Lower brush for cleaning - controlled movement
G1 X25 Y14 Z6 F800;     ; Move across cleaning area - controlled movement
G1 Z8 F800;         ; Maintain brush height - controlled movement
G0 X5 Y5 F1200;     ; Rapid move to brush cleaning position
G1 Z-1 F800;         ; Lower brush for cleaning - controlled movement
G1 X15 Y12 Z8 F1200;     ; Rapid move to brush cleaning position
G1 Z-1 F800;         ; Lower brush for cleaning - controlled movement
G1 X25 Y14 Z6 F800;     ; Move across cleaning area - controlled movement
G1 Z10 F800;         ; Maintain brush height - controlled movement
G1 F1200;           ; Set feed rate to 1000

; Color 1 picking sequence
G1 Z10 F500;         ; Raise brush to safe height
G0 X86 Y5 F1200;    ; Rapid move to color 1 position
G1 Z0 F500;         ; Lower into color - controlled movement
G1 X85.102Y7.295Z0S800F1200
G1 X85.026Y7.642Z0F1200
G1 X85Y8Z0F1200
G1 X85.026Y8.358Z0F1200
G1 X85.102Y8.705Z0F1200
G1 X85.225Y9.041Z0F1200
G1 X85.393Y9.362Z0F1200
G1 X85.603Y9.668Z0F1200
G1 X85.854Y9.957Z0F1200
G1 X86.142Y10.226Z0F1200
G1 X86.464Y10.475Z0F1200
G1 X86.82Y10.701Z0F1200
G1 X87.204Y10.902Z0F1200
G1 X87.617Y11.078Z0F1200
G1 X88.054Y11.225Z0F1200
G1 X88.513Y11.343Z0F1200
G1 X88.992Y11.429Z0F1200
G1 X89.489Y11.482Z0F1200
G1 X90Y11.5Z0F1200
G1 X90.511Y11.482Z0F1200
G1 X91.008Y11.429Z0F1200
G1 X91.487Y11.343Z0F1200
G1 X91.946Y11.225Z0F1200
G1 X92.383Y11.078Z0F1200
G1 X92.796Y10.902Z0F1200
G1 X93.18Y10.701Z0F1200
G1 X93.536Y10.475Z0F1200
G1 X93.858Y10.226Z0F1200
G1 X94.146Y9.957Z0F1200
G1 X94.397Y9.668Z0F1200
G1 X94.607Y9.362Z0F1200
G1 X94.775Y9.041Z0F1200
G1 X94.898Y8.705Z0F1200
G1 X94.974Y8.358Z0F1200
G1 X95Y8Z0F1200
G1 X94.974Y7.642Z0F1200
G1 X94.898Y7.295Z0F1200
G1 X94.775Y6.959Z0F1200
G1 X94.607Y6.638Z0F1200
G1 X94.397Y6.332Z0F1200
G1 X94.146Y6.043Z0F1200
G1 X93.858Y5.774Z0F1200
G1 X93.536Y5.525Z0F1200
G1 X93.18Y5.299Z0F1200
G1 X92.796Y5.098Z0F1200
G1 X92.383Y4.922Z0F1200
G1 X91.946Y4.775Z0F1200
G1 X91.487Y4.657Z0F1200
G1 X91.008Y4.571Z0F1200
G1 X90.511Y4.518Z0F1200
G1 X90Y4.5Z0F1200
G1 X89.489Y4.518Z0F1200
G1 X88.992Y4.571Z0F1200
G1 X88.513Y4.657Z0F1200
G1 X88.054Y4.775Z0F1200
G1 X87.617Y4.922Z0F1200
G1 X87.204Y5.098Z0F1200
G1 X86.82Y5.299Z0F1200
G1 X86.464Y5.525Z0F1200
G1 X86.142Y5.774Z0F1200
G1 X85.854Y6.043Z0F1200
G1 X85.603Y6.332Z0F1200
G1 X85.393Y6.638Z0F1200
G1 X85.225Y6.959Z0F1200
G1 Z7 F800;         ; Raise from color - controlled movement
G1 X79 Y8 Z1 F1200;     ; Movement in paint - controlled movement
G1 X69 Y12 Z8 F500;     ; Move in paint - controlled movement
G1 F1200;           ; Set feed rate to 1000
G0 Z2.8F500
G0 X57.833Y37.273Z2.8F1500
G1 Z0F500
;Layer Blue
G1 X58.144Y37.101Z0S900F1200
G1 X58.473Y36.932Z0F1200
G1 X59.161Y36.61Z0F1200
G1 X59.843Y36.32Z0F1200
G1 X60.166Y36.19Z0F1200
G1 X60.467Y36.072Z0F1200
G1 X60.74Y35.969Z0F1200
G1 X60.978Y35.881Z0F1200
G1 X61.324Y35.757Z0F1200
G1 X61.451Y35.713Z0F1200
G1 X61.637Y34.866Z0F1200
G1 X61.796Y34.072Z0F1200
G1 X61.93Y33.329Z0F1200
G1 X62.039Y32.635Z0F1200
G1 X62.123Y31.988Z0F1200
G1 X62.182Y31.387Z0F1200
G1 X62.216Y30.828Z0F1200
G1 X62.227Y30.311Z0F1200
G1 X62.214Y29.834Z0F1200
G1 X62.177Y29.395Z0F1200
G1 X62.117Y28.991Z0F1200
G1 X62.034Y28.622Z0F1200
G1 X61.929Y28.285Z0F1200
G1 X61.801Y27.978Z0F1200
G1 X61.651Y27.699Z0F1200
G1 X61.48Y27.447Z0F1200
G1 X61.287Y27.22Z0F1200
G1 X61.073Y27.015Z0F1200
G1 X60.838Y26.831Z0F1200
G1 X60.582Y26.667Z0F1200
G1 X60.011Y26.388Z0F1200
G1 X59.361Y26.162Z0F1200
G1 X58.635Y25.976Z0F1200
G1 X57.834Y25.814Z0F1200
G1 X56.963Y25.661Z0F1200
G1 X56.021Y25.502Z0F1200
G1 X54.785Y26.467Z0F1200
G1 X53.6Y27.354Z0F1200
G1 X52.471Y28.169Z0F1200
G1 X51.399Y28.923Z0F1200
G1 X49.44Y30.279Z0F1200
G1 X48.559Y30.898Z0F1200
G1 X47.748Y31.489Z0F1200
G1 X47.008Y32.062Z0F1200
G1 X46.344Y32.624Z0F1200
G1 X45.757Y33.185Z0F1200
G1 X45.252Y33.753Z0F1200
G1 X44.83Y34.336Z0F1200
G1 X44.494Y34.943Z0F1200
G1 X44.36Y35.259Z0F1200
G1 X44.248Y35.583Z0F1200
G1 X44.16Y35.918Z0F1200
G1 X44.095Y36.265Z0F1200
G1 X44Y36.979Z0F1200
G1 X43.931Y37.676Z0F1200
G1 X43.887Y38.354Z0F1200
G1 X43.864Y39.012Z0F1200
G1 X43.861Y39.648Z0F1200
G1 X43.873Y40.259Z0F1200
G1 X43.899Y40.843Z0F1200
G1 X43.935Y41.4Z0F1200
G1 X43.981Y41.925Z0F1200
G1 X44.031Y42.419Z0F1200
G1 X44.085Y42.878Z0F1200
G1 X44.14Y43.301Z0F1200
G1 X44.28Y44.332Z0F1200
G1 X44.31Y44.591Z0F1200
G1 X44.332Y44.976Z0F1200
G1 X44.36Y45.141Z0F1200
G1 X44.426Y45.276Z0F1200
G1 X44.653Y45.554Z0F1200
G1 X44.858Y45.787Z0F1200
G1 X45.043Y45.981Z0F1200
G1 X45.21Y46.14Z0F1200
G1 X45.498Y46.38Z0F1200
G1 X45.741Y46.551Z0F1200
G1 X45.952Y46.697Z0F1200
G1 X46.15Y46.863Z0F1200
G1 X46.249Y46.967Z0F1200
G1 X46.351Y47.093Z0F1200
G1 X46.457Y47.246Z0F1200
G1 X46.57Y47.432Z0F1200
G1 X46.641Y47.514Z0F1200
G1 X46.739Y47.56Z0F1200
G1 X46.862Y47.574Z0F1200
G1 X47.009Y47.562Z0F1200
G1 X47.366Y47.471Z0F1200
G1 X47.801Y47.321Z0F1200
G1 X48.301Y47.146Z0F1200
G1 X48.856Y46.979Z0F1200
G1 X49.454Y46.852Z0F1200
G1 X50.083Y46.8Z0F1200
G1 X50.215Y46.796Z0F1200
G1 X50.308Y46.783Z0F1200
G1 X50.368Y46.762Z0F1200
G1 X50.402Y46.731Z0F1200
G1 X50.417Y46.637Z0F1200
G1 X50.402Y46.495Z0F1200
G1 X50.409Y46.297Z0F1200
G1 X50.489Y46.038Z0F1200
G1 X50.572Y45.884Z0F1200
G1 X50.693Y45.711Z0F1200
G1 X50.857Y45.52Z0F1200
G1 X51.071Y45.309Z0F1200
G1 X51.339Y44.984Z0F1200
G1 X51.656Y44.582Z0F1200
G1 X52.016Y44.117Z0F1200
G1 X52.41Y43.599Z0F1200
G1 X53.275Y42.455Z0F1200
G1 X54.195Y41.244Z0F1200
G1 X54.658Y40.643Z0F1200
G1 X55.113Y40.06Z0F1200
G1 X55.554Y39.508Z0F1200
G1 X55.974Y38.999Z0F1200
G1 X56.364Y38.543Z0F1200
G1 X56.72Y38.154Z0F1200
G1 X56.881Y37.988Z0F1200
G1 X57.032Y37.842Z0F1200
G1 X57.17Y37.719Z0F1200
G1 X57.294Y37.62Z0F1200
G1 X57.548Y37.446Z0F1200
G1 X57.833Y37.273Z0F1200
G0 Z2.8F500
G0 X69.161Y45.27Z2.8F1500
G1 Z0F500
G1 X68.924Y45.445Z0F1200
G1 X68.685Y45.629Z0F1200
G1 X68.422Y45.811Z0F1200
G1 X68.109Y45.982Z0F1200
G1 X67.943Y46.078Z0F1200
G1 X67.79Y46.203Z0F1200
G1 X67.651Y46.355Z0F1200
G1 X67.523Y46.53Z0F1200
G1 X67.303Y46.94Z0F1200
G1 X67.124Y47.411Z0F1200
G1 X66.983Y47.922Z0F1200
G1 X66.875Y48.45Z0F1200
G1 X66.795Y48.974Z0F1200
G1 X66.738Y49.472Z0F1200
G1 X66.734Y49.912Z0F1200
G1 X66.808Y50.299Z0F1200
G1 X66.951Y50.667Z0F1200
G1 X67.156Y51.048Z0F1200
G1 X67.415Y51.477Z0F1200
G1 X67.719Y51.985Z0F1200
G1 X67.886Y52.28Z0F1200
G1 X68.061Y52.607Z0F1200
G1 X68.244Y52.971Z0F1200
G1 X68.432Y53.376Z0F1200
G1 X68.602Y53.825Z0F1200
G1 X68.729Y54.312Z0F1200
G1 X68.82Y54.829Z0F1200
G1 X68.876Y55.365Z0F1200
G1 X68.908Y56.461Z0F1200
G1 X68.857Y57.524Z0F1200
G1 X68.812Y58.021Z0F1200
G1 X68.759Y58.481Z0F1200
G1 X68.702Y58.896Z0F1200
G1 X68.646Y59.257Z0F1200
G1 X68.595Y59.553Z0F1200
G1 X68.554Y59.777Z0F1200
G1 X68.516Y59.967Z0F1200
G1 X65.097Y62.08Z0F1200
G1 X65.629Y63.518Z0F1200
G1 X66.183Y64.905Z0F1200
G1 X66.473Y65.568Z0F1200
G1 X66.774Y66.204Z0F1200
G1 X67.088Y66.809Z0F1200
G1 X67.417Y67.378Z0F1200
G1 X67.763Y67.906Z0F1200
G1 X68.128Y68.39Z0F1200
G1 X68.514Y68.823Z0F1200
G1 X68.922Y69.203Z0F1200
G1 X69.355Y69.523Z0F1200
G1 X69.814Y69.78Z0F1200
G1 X70.302Y69.969Z0F1200
G1 X70.821Y70.085Z0F1200
G1 X70.976Y70.08Z0F1200
G1 X71.153Y70.139Z0F1200
G1 X71.582Y70.343Z0F1200
G1 X71.843Y70.438Z0F1200
G1 X72.141Y70.494Z0F1200
G1 X72.305Y70.498Z0F1200
G1 X72.479Y70.484Z0F1200
G1 X72.665Y70.446Z0F1200
G1 X72.862Y70.383Z0F1200
G1 X73.642Y70.07Z0F1200
G1 X74.336Y69.762Z0F1200
G1 X74.951Y69.454Z0F1200
G1 X75.493Y69.146Z0F1200
G1 X75.97Y68.834Z0F1200
G1 X76.388Y68.518Z0F1200
G1 X76.755Y68.195Z0F1200

; Color 1 picking sequence
G1 Z10 F500;         ; Raise brush to safe height
G0 X86 Y5 F1200;    ; Rapid move to color 1 position
G1 Z0 F500;         ; Lower into color - controlled movement
G1 X85.102Y7.295Z0S800F1200
G1 X85.026Y7.642Z0F1200
G1 X85Y8Z0F1200
G1 X85.026Y8.358Z0F1200
G1 X85.102Y8.705Z0F1200
G1 X85.225Y9.041Z0F1200
G1 X85.393Y9.362Z0F1200
G1 X85.603Y9.668Z0F1200
G1 X85.854Y9.957Z0F1200
G1 X86.142Y10.226Z0F1200
G1 X86.464Y10.475Z0F1200
G1 X86.82Y10.701Z0F1200
G1 X87.204Y10.902Z0F1200
G1 X87.617Y11.078Z0F1200
G1 X88.054Y11.225Z0F1200
G1 X88.513Y11.343Z0F1200
G1 X88.992Y11.429Z0F1200
G1 X89.489Y11.482Z0F1200
G1 X90Y11.5Z0F1200
G1 X90.511Y11.482Z0F1200
G1 X91.008Y11.429Z0F1200
G1 X91.487Y11.343Z0F1200
G1 X91.946Y11.225Z0F1200
G1 X92.383Y11.078Z0F1200
G1 X92.796Y10.902Z0F1200
G1 X93.18Y10.701Z0F1200
G1 X93.536Y10.475Z0F1200
G1 X93.858Y10.226Z0F1200
G1 X94.146Y9.957Z0F1200
G1 X94.397Y9.668Z0F1200
G1 X94.607Y9.362Z0F1200
G1 X94.775Y9.041Z0F1200
G1 X94.898Y8.705Z0F1200
G1 X94.974Y8.358Z0F1200
G1 X95Y8Z0F1200
G1 X94.974Y7.642Z0F1200
G1 X94.898Y7.295Z0F1200
G1 X94.775Y6.959Z0F1200
G1 X94.607Y6.638Z0F1200
G1 X94.397Y6.332Z0F1200
G1 X94.146Y6.043Z0F1200
G1 X93.858Y5.774Z0F1200
G1 X93.536Y5.525Z0F1200
G1 X93.18Y5.299Z0F1200
G1 X92.796Y5.098Z0F1200
G1 X92.383Y4.922Z0F1200
G1 X91.946Y4.775Z0F1200
G1 X91.487Y4.657Z0F1200
G1 X91.008Y4.571Z0F1200
G1 X90.511Y4.518Z0F1200
G1 X90Y4.5Z0F1200
G1 X89.489Y4.518Z0F1200
G1 X88.992Y4.571Z0F1200
G1 X88.513Y4.657Z0F1200
G1 X88.054Y4.775Z0F1200
G1 X87.617Y4.922Z0F1200
G1 X87.204Y5.098Z0F1200
G1 X86.82Y5.299Z0F1200
G1 X86.464Y5.525Z0F1200
G1 X86.142Y5.774Z0F1200
G1 X85.854Y6.043Z0F1200
G1 X85.603Y6.332Z0F1200
G1 X85.393Y6.638Z0F1200
G1 X85.225Y6.959Z0F1200
G1 Z7 F800;         ; Raise from color - controlled movement
G1 X79 Y8 Z1 F1200;     ; Movement in paint - controlled movement
G1 X69 Y12 Z8 F500;     ; Move in paint - controlled movement
G1 F1200;           ; Set feed rate to 1000

; Return to drawing position
G0 X76.755 Y68.195 F1200;  ; Return to position with raised Z
G1 Z0 F1000;                       ; Lower Z to drawing position
G1 X77.076Y67.863Z0F1200
G1 X77.36Y67.52Z0F1200
G1 X77.613Y67.163Z0F1200
G1 X77.842Y66.791Z0F1200
G1 X78.053Y66.401Z0F1200
G1 X78.451Y65.561Z0F1200
G1 X78.863Y64.626Z0F1200
G1 X79.236Y63.715Z0F1200
G1 X79.536Y62.838Z0F1200
G1 X79.768Y61.995Z0F1200
G1 X79.939Y61.181Z0F1200
G1 X80.053Y60.396Z0F1200
G1 X80.118Y59.636Z0F1200
G1 X80.139Y58.9Z0F1200
G1 X80.122Y58.185Z0F1200
G1 X79.997Y56.807Z0F1200
G1 X79.788Y55.486Z0F1200
G1 X79.544Y54.201Z0F1200
G1 X79.31Y52.934Z0F1200
G1 X79.171Y52.292Z0F1200
G1 X78.97Y51.639Z0F1200
G1 X78.716Y50.982Z0F1200
G1 X78.416Y50.325Z0F1200
G1 X78.078Y49.676Z0F1200
G1 X77.709Y49.042Z0F1200
G1 X77.316Y48.427Z0F1200
G1 X76.908Y47.839Z0F1200
G1 X76.492Y47.284Z0F1200
G1 X76.074Y46.769Z0F1200
G1 X75.664Y46.299Z0F1200
G1 X75.268Y45.881Z0F1200
G1 X74.894Y45.521Z0F1200
G1 X74.55Y45.226Z0F1200
G1 X74.242Y45.001Z0F1200
G1 X73.98Y44.854Z0F1200
G1 X73.528Y44.691Z0F1200
G1 X73.114Y44.615Z0F1200
G1 X72.724Y44.605Z0F1200
G1 X72.341Y44.643Z0F1200
G1 X71.952Y44.707Z0F1200
G1 X71.54Y44.78Z0F1200
G1 X71.091Y44.84Z0F1200
G1 X70.589Y44.869Z0F1200
G1 X70.337Y44.88Z0F1200
G1 X70.112Y44.904Z0F1200
G1 X69.911Y44.942Z0F1200
G1 X69.731Y44.99Z0F1200
G1 X69.422Y45.115Z0F1200
G1 X69.161Y45.27Z0F1200
G0 Z2.8F500
G0 X46.084Y58.974Z2.8F1500
G1 Z0F500
G1 X47.349Y60.304Z0F1200
G1 X49.728Y61.743Z0F1200
G0 Z2.8F500
G0 X44.373Y58.36Z2.8F1500
G1 Z0F500
G1 X44.158Y58.189Z0F1200
G1 X43.997Y58.069Z0F1200
G1 X43.795Y57.925Z0F1200
G1 X43.556Y57.762Z0F1200
G1 X43.281Y57.585Z0F1200
G1 X42.972Y57.397Z0F1200
G1 X42.633Y57.205Z0F1200
G1 X42.265Y57.011Z0F1200
G1 X41.87Y56.822Z0F1200
G1 X41.453Y56.642Z0F1200
G1 X41.014Y56.476Z0F1200
G1 X40.556Y56.327Z0F1200
G1 X40.081Y56.201Z0F1200
G1 X39.593Y56.103Z0F1200
G1 X36.955Y55.661Z0F1200
G0 Z2.8F500
G0 X74.451Y70.489Z2.8F1500
G1 Z0F500
G1 X74.112Y70.679Z0F1200
G1 X73.293Y71.173Z0F1200
G1 X72.774Y71.475Z0F1200
G1 X72.48Y71.64Z0F1200
G1 X72.158Y71.813Z0F1200
G1 X71.808Y71.994Z0F1200
G1 X71.426Y72.184Z0F1200
G1 X71.01Y72.381Z0F1200
G1 X70.559Y72.587Z0F1200
G1 X70.068Y72.8Z0F1200
G1 X69.537Y73.021Z0F1200
G1 X68.952Y73.244Z0F1200
G1 X68.38Y73.431Z0F1200
G1 X67.821Y73.585Z0F1200
G1 X67.276Y73.707Z0F1200
G1 X66.744Y73.798Z0F1200
G1 X66.225Y73.862Z0F1200
G1 X65.72Y73.899Z0F1200
G1 X65.229Y73.912Z0F1200
G1 X64.284Y73.872Z0F1200
G1 X63.393Y73.756Z0F1200
G1 X62.553Y73.58Z0F1200
G1 X61.765Y73.359Z0F1200
G1 X61.029Y73.107Z0F1200
G1 X60.343Y72.839Z0F1200
G1 X59.708Y72.571Z0F1200
G1 X59.123Y72.316Z0F1200
G1 X58.587Y72.091Z0F1200
G1 X58.101Y71.909Z0F1200
G1 X57.663Y71.786Z0F1200
G1 X57.275Y71.737Z0F1200
G1 X57.083Y71.72Z0F1200
G1 X56.875Y71.676Z0F1200
G1 X56.65Y71.608Z0F1200
G1 X56.411Y71.516Z0F1200
G1 X55.894Y71.267Z0F1200
G1 X55.331Y70.941Z0F1200
G1 X54.733Y70.549Z0F1200
G1 X54.109Y70.102Z0F1200
G1 X53.468Y69.61Z0F1200
G1 X52.82Y69.086Z0F1200
G1 X51.541Y67.982Z0F1200
G1 X50.345Y66.879Z0F1200
G1 X49.803Y66.355Z0F1200
G1 X49.31Y65.865Z0F1200
G1 X48.875Y65.419Z0F1200
G1 X48.509Y65.029Z0F1200
G1 X48.117Y64.623Z0F1200
G1 X47.655Y64.179Z0F1200
G1 X47.135Y63.706Z0F1200
G1 X46.571Y63.212Z0F1200
G1 X45.365Y62.199Z0F1200
G1 X44.14Y61.212Z0F1200
G1 X43.554Y60.749Z0F1200
G1 X43.004Y60.32Z0F1200
G1 X42.502Y59.932Z0F1200
G1 X41.868Y59.449Z0F1200
G1 X41.18Y58.931Z0F1200
G1 X41.042Y58.718Z0F1200
G1 X40.865Y58.509Z0F1200
G1 X40.653Y58.305Z0F1200
G1 X40.411Y58.106Z0F1200
G1 X39.854Y57.724Z0F1200
G1 X39.23Y57.364Z0F1200
G1 X38.575Y57.029Z0F1200
G1 X37.925Y56.72Z0F1200
G1 X37.317Y56.44Z0F1200
G1 X36.786Y56.191Z0F1200
G1 X40.025Y54.538Z0F1200
G1 X40.336Y54.436Z0F1200
G1 X40.791Y54.282Z0F1200
G1 X40.962Y54.23Z0F1200
G1 X41.261Y54.177Z0F1200
G1 X41.591Y54.191Z0F1200
G1 X41.801Y54.223Z0F1200
G1 X42.059Y54.272Z0F1200
G1 X43.258Y54.517Z0F1200
G1 X43.844Y54.632Z0F1200
G1 X44.545Y54.764Z0F1200
G1 X46.241Y55.065Z0F1200
G1 X47.051Y55.214Z0F1200
G1 X47.807Y55.359Z0F1200
G1 X48.512Y55.5Z0F1200

; Color 1 picking sequence
G1 Z10 F500;         ; Raise brush to safe height
G0 X86 Y5 F1200;    ; Rapid move to color 1 position
G1 Z0 F500;         ; Lower into color - controlled movement
G1 X85.102Y7.295Z0S800F1200
G1 X85.026Y7.642Z0F1200
G1 X85Y8Z0F1200
G1 X85.026Y8.358Z0F1200
G1 X85.102Y8.705Z0F1200
G1 X85.225Y9.041Z0F1200
G1 X85.393Y9.362Z0F1200
G1 X85.603Y9.668Z0F1200
G1 X85.854Y9.957Z0F1200
G1 X86.142Y10.226Z0F1200
G1 X86.464Y10.475Z0F1200
G1 X86.82Y10.701Z0F1200
G1 X87.204Y10.902Z0F1200
G1 X87.617Y11.078Z0F1200
G1 X88.054Y11.225Z0F1200
G1 X88.513Y11.343Z0F1200
G1 X88.992Y11.429Z0F1200
G1 X89.489Y11.482Z0F1200
G1 X90Y11.5Z0F1200
G1 X90.511Y11.482Z0F1200
G1 X91.008Y11.429Z0F1200
G1 X91.487Y11.343Z0F1200
G1 X91.946Y11.225Z0F1200
G1 X92.383Y11.078Z0F1200
G1 X92.796Y10.902Z0F1200
G1 X93.18Y10.701Z0F1200
G1 X93.536Y10.475Z0F1200
G1 X93.858Y10.226Z0F1200
G1 X94.146Y9.957Z0F1200
G1 X94.397Y9.668Z0F1200
G1 X94.607Y9.362Z0F1200
G1 X94.775Y9.041Z0F1200
G1 X94.898Y8.705Z0F1200
G1 X94.974Y8.358Z0F1200
G1 X95Y8Z0F1200
G1 X94.974Y7.642Z0F1200
G1 X94.898Y7.295Z0F1200
G1 X94.775Y6.959Z0F1200
G1 X94.607Y6.638Z0F1200
G1 X94.397Y6.332Z0F1200
G1 X94.146Y6.043Z0F1200
G1 X93.858Y5.774Z0F1200
G1 X93.536Y5.525Z0F1200
G1 X93.18Y5.299Z0F1200
G1 X92.796Y5.098Z0F1200
G1 X92.383Y4.922Z0F1200
G1 X91.946Y4.775Z0F1200
G1 X91.487Y4.657Z0F1200
G1 X91.008Y4.571Z0F1200
G1 X90.511Y4.518Z0F1200
G1 X90Y4.5Z0F1200
G1 X89.489Y4.518Z0F1200
G1 X88.992Y4.571Z0F1200
G1 X88.513Y4.657Z0F1200
G1 X88.054Y4.775Z0F1200
G1 X87.617Y4.922Z0F1200
G1 X87.204Y5.098Z0F1200
G1 X86.82Y5.299Z0F1200
G1 X86.464Y5.525Z0F1200
G1 X86.142Y5.774Z0F1200
G1 X85.854Y6.043Z0F1200
G1 X85.603Y6.332Z0F1200
G1 X85.393Y6.638Z0F1200
G1 X85.225Y6.959Z0F1200
G1 Z7 F800;         ; Raise from color - controlled movement
G1 X79 Y8 Z1 F1200;     ; Movement in paint - controlled movement
G1 X69 Y12 Z8 F500;     ; Move in paint - controlled movement
G1 F1200;           ; Set feed rate to 1000

; Return to drawing position
G0 X48.512 Y55.500 F1200;  ; Return to position with raised Z
G1 Z0 F1000;                       ; Lower Z to drawing position
G1 X49.169Y55.637Z0F1200
G1 X49.78Y55.771Z0F1200
G1 X50.347Y55.902Z0F1200
G1 X50.873Y56.029Z0F1200
G1 X51.36Y56.154Z0F1200
G1 X51.81Y56.277Z0F1200
G1 X52.227Y56.397Z0F1200
G1 X52.612Y56.515Z0F1200
G1 X53.298Y56.746Z0F1200
G1 X53.886Y56.971Z0F1200
G1 X55.658Y57.851Z0F1200
G1 X57.432Y58.783Z0F1200
G1 X58.285Y59.175Z0F1200
G1 X59.059Y59.537Z0F1200
G1 X59.759Y59.87Z0F1200
G1 X60.39Y60.175Z0F1200
G1 X60.956Y60.452Z0F1200
G1 X62.672Y61.3Z0F1200
G1 X62.988Y61.451Z0F1200
G1 X63.268Y61.579Z0F1200
G1 X63.516Y61.684Z0F1200
G1 X63.739Y61.769Z0F1200
G1 X63.939Y61.832Z0F1200
G1 X64.123Y61.876Z0F1200
G1 X64.295Y61.9Z0F1200
G1 X64.502Y61.922Z0F1200
G1 X64.734Y61.918Z0F1200
G1 X64.987Y61.891Z0F1200
G1 X65.253Y61.846Z0F1200
G1 X65.798Y61.722Z0F1200
G1 X66.316Y61.581Z0F1200
G1 X66.549Y61.516Z0F1200
G1 X66.755Y61.46Z0F1200
G1 X66.928Y61.418Z0F1200
G1 X67.062Y61.396Z0F1200
G1 X67.149Z0F1200
G1 X67.184Y61.424Z0F1200
G1 X67.159Y61.485Z0F1200
G1 X67.068Y61.582Z0F1200
G1 X66.926Y61.748Z0F1200
G1 X66.806Y61.956Z0F1200
G1 X66.709Y62.203Z0F1200
G1 X66.636Y62.487Z0F1200
G1 X66.585Y62.803Z0F1200
G1 X66.557Y63.147Z0F1200
G1 X66.553Y63.517Z0F1200
G1 X66.572Y63.908Z0F1200
G1 X66.615Y64.317Z0F1200
G1 X66.682Y64.741Z0F1200
G1 X66.773Y65.176Z0F1200
G1 X66.889Y65.618Z0F1200
G1 X67.193Y66.511Z0F1200
G1 X67.596Y67.391Z0F1200
G1 X67.835Y67.817Z0F1200
G1 X68.099Y68.23Z0F1200
G1 X68.389Y68.625Z0F1200
G1 X68.704Y68.999Z0F1200
G1 X69.045Y69.348Z0F1200
G1 X69.412Y69.67Z0F1200
G1 X69.805Y69.96Z0F1200
G1 X70.225Y70.214Z0F1200
G1 X70.67Y70.431Z0F1200
G1 X71.143Y70.604Z0F1200
G1 X71.642Y70.733Z0F1200
G1 X72.168Y70.811Z0F1200
G1 X72.721Y70.837Z0F1200
G1 X73.301Y70.807Z0F1200
G1 X73.909Y70.716Z0F1200
G1 X74.544Y70.562Z0F1200
G0 Z2.8F500
G0 X76.104Y21.547Z2.8F1500
G1 Z0F500
G1 X77.643Y18.934Z0F1200
G0 Z2.8F500
G0 X78.12Y17.417Z2.8F1500
G1 Z0F500
G1 X78.183Y17.361Z0F1200
G1 X78.355Y17.203Z0F1200
G1 X78.613Y16.955Z0F1200
G1 X78.933Y16.63Z0F1200
G1 X79.29Y16.241Z0F1200
G1 X79.661Y15.8Z0F1200
G1 X80.022Y15.321Z0F1200
G1 X80.347Y14.816Z0F1200
G1 X80.663Y14.25Z0F1200
G1 X80.998Y13.609Z0F1200
G1 X81.331Y12.939Z0F1200
G1 X81.646Y12.288Z0F1200
G1 X81.923Y11.701Z0F1200
G1 X82.144Y11.224Z0F1200
G1 X82.343Y10.787Z0F1200
G0 Z2.8F500
G0 X82.966Y10.503Z2.8F1500
G1 Z0F500
G1 X82.8Y10.358Z0F1200
G1 X82.623Y10.232Z0F1200
G1 X82.452Y10.138Z0F1200
G1 X82.306Y10.088Z0F1200
G1 X82.202Y10.094Z0F1200
G1 X81.973Y10.22Z0F1200
G1 X81.728Y10.373Z0F1200
G1 X81.468Y10.553Z0F1200
G1 X81.193Y10.758Z0F1200
G1 X80.902Y10.987Z0F1200
G1 X80.594Y11.24Z0F1200
G1 X80.271Y11.514Z0F1200
G1 X79.93Y11.808Z0F1200
G1 X79.199Y12.454Z0F1200
G1 X78.399Y13.168Z0F1200
G1 X77.528Y13.941Z0F1200
G1 X76.584Y14.762Z0F1200
G1 X75.566Y15.622Z0F1200
G1 X74.47Y16.512Z0F1200
G1 X73.295Y17.422Z0F1200
G1 X72.04Y18.342Z0F1200
G1 X70.702Y19.264Z0F1200
G1 X69.279Y20.176Z0F1200
G1 X67.77Y21.07Z0F1200
G1 X66.172Y21.936Z0F1200
G1 X65.312Y22.377Z0F1200
G1 X64.497Y22.786Z0F1200
G1 X63.725Y23.167Z0F1200
G1 X62.995Y23.518Z0F1200
G1 X62.307Y23.843Z0F1200
G1 X61.659Y24.14Z0F1200
G1 X61.05Y24.413Z0F1200
G1 X60.478Y24.662Z0F1200
G1 X59.944Y24.887Z0F1200
G1 X59.445Y25.091Z0F1200
G1 X58.98Y25.273Z0F1200
G1 X58.549Y25.436Z0F1200
G1 X58.149Y25.581Z0F1200
G1 X57.781Y25.707Z0F1200
G1 X57.443Y25.818Z0F1200
G1 X57.133Y25.913Z0F1200
G1 X56.851Y25.993Z0F1200
G1 X56.596Y26.061Z0F1200
G1 X56.365Y26.116Z0F1200
G1 X56.159Y26.161Z0F1200
G1 X55.815Y26.221Z0F1200
G1 X55.554Y26.251Z0F1200
G1 X55.367Y26.259Z0F1200
G1 X55.244Y26.254Z0F1200
G1 X55.177Y26.244Z0F1200
G1 X55.157Y26.239Z0F1200
G1 X55.314Y26.264Z0F1200
G1 X55.745Y26.339Z0F1200
G1 X56.154Y26.418Z0F1200
G1 X56.64Y26.52Z0F1200
G1 X57.185Y26.646Z0F1200
G1 X57.772Y26.795Z0F1200
G1 X58.381Y26.968Z0F1200
G1 X58.995Y27.166Z0F1200
G1 X59.597Y27.388Z0F1200
G1 X60.168Y27.636Z0F1200
G1 X60.69Y27.908Z0F1200
G1 X61.146Y28.206Z0F1200
G1 X61.518Y28.53Z0F1200
G1 X61.666Y28.702Z0F1200
G1 X61.787Y28.88Z0F1200
G1 X61.878Y29.065Z0F1200
G1 X61.936Y29.256Z0F1200
G1 X61.997Y29.684Z0F1200
G1 X62.02Y30.179Z0F1200
G1 X62.008Y30.728Z0F1200
G1 X61.966Y31.318Z0F1200
G1 X61.814Y32.569Z0F1200
G1 X61.603Y33.827Z0F1200
G1 X61.487Y34.426Z0F1200
G1 X61.371Y34.988Z0F1200
G1 X61.259Y35.499Z0F1200
G1 X61.157Y35.946Z0F1200
G1 X61.069Y36.317Z0F1200
G1 X61Y36.598Z0F1200
G1 X60.939Y36.839Z0F1200
G1 X61.248Y36.743Z0F1200
G1 X61.762Y36.579Z0F1200
G1 X62.484Y36.341Z0F1200
G1 X62.912Y36.196Z0F1200
G1 X63.379Y36.035Z0F1200
G1 X63.882Y35.858Z0F1200
G1 X64.415Y35.666Z0F1200
G1 X64.975Y35.459Z0F1200
G1 X66.158Y35.007Z0F1200
G1 X67.396Y34.506Z0F1200

; Color 1 picking sequence
G1 Z10 F500;         ; Raise brush to safe height
G0 X86 Y5 F1200;    ; Rapid move to color 1 position
G1 Z0 F500;         ; Lower into color - controlled movement
G1 X85.102Y7.295Z0S800F1200
G1 X85.026Y7.642Z0F1200
G1 X85Y8Z0F1200
G1 X85.026Y8.358Z0F1200
G1 X85.102Y8.705Z0F1200
G1 X85.225Y9.041Z0F1200
G1 X85.393Y9.362Z0F1200
G1 X85.603Y9.668Z0F1200
G1 X85.854Y9.957Z0F1200
G1 X86.142Y10.226Z0F1200
G1 X86.464Y10.475Z0F1200
G1 X86.82Y10.701Z0F1200
G1 X87.204Y10.902Z0F1200
G1 X87.617Y11.078Z0F1200
G1 X88.054Y11.225Z0F1200
G1 X88.513Y11.343Z0F1200
G1 X88.992Y11.429Z0F1200
G1 X89.489Y11.482Z0F1200
G1 X90Y11.5Z0F1200
G1 X90.511Y11.482Z0F1200
G1 X91.008Y11.429Z0F1200
G1 X91.487Y11.343Z0F1200
G1 X91.946Y11.225Z0F1200
G1 X92.383Y11.078Z0F1200
G1 X92.796Y10.902Z0F1200
G1 X93.18Y10.701Z0F1200
G1 X93.536Y10.475Z0F1200
G1 X93.858Y10.226Z0F1200
G1 X94.146Y9.957Z0F1200
G1 X94.397Y9.668Z0F1200
G1 X94.607Y9.362Z0F1200
G1 X94.775Y9.041Z0F1200
G1 X94.898Y8.705Z0F1200
G1 X94.974Y8.358Z0F1200
G1 X95Y8Z0F1200
G1 X94.974Y7.642Z0F1200
G1 X94.898Y7.295Z0F1200
G1 X94.775Y6.959Z0F1200
G1 X94.607Y6.638Z0F1200
G1 X94.397Y6.332Z0F1200
G1 X94.146Y6.043Z0F1200
G1 X93.858Y5.774Z0F1200
G1 X93.536Y5.525Z0F1200
G1 X93.18Y5.299Z0F1200
G1 X92.796Y5.098Z0F1200
G1 X92.383Y4.922Z0F1200
G1 X91.946Y4.775Z0F1200
G1 X91.487Y4.657Z0F1200
G1 X91.008Y4.571Z0F1200
G1 X90.511Y4.518Z0F1200
G1 X90Y4.5Z0F1200
G1 X89.489Y4.518Z0F1200
G1 X88.992Y4.571Z0F1200
G1 X88.513Y4.657Z0F1200
G1 X88.054Y4.775Z0F1200
G1 X87.617Y4.922Z0F1200
G1 X87.204Y5.098Z0F1200
G1 X86.82Y5.299Z0F1200
G1 X86.464Y5.525Z0F1200
G1 X86.142Y5.774Z0F1200
G1 X85.854Y6.043Z0F1200
G1 X85.603Y6.332Z0F1200
G1 X85.393Y6.638Z0F1200
G1 X85.225Y6.959Z0F1200
G1 Z7 F800;         ; Raise from color - controlled movement
G1 X79 Y8 Z1 F1200;     ; Movement in paint - controlled movement
G1 X69 Y12 Z8 F500;     ; Move in paint - controlled movement
G1 F1200;           ; Set feed rate to 1000

; Return to drawing position
G0 X67.396 Y34.506 F1200;  ; Return to position with raised Z
G1 Z0 F1000;                       ; Lower Z to drawing position
G1 X68.658Y33.961Z0F1200
G1 X69.907Y33.379Z0F1200
G1 X71.112Y32.765Z0F1200
G1 X72.238Y32.125Z0F1200
G1 X72.762Y31.797Z0F1200
G1 X73.252Y31.464Z0F1200
G1 X73.707Y31.127Z0F1200
G1 X74.12Y30.787Z0F1200
G1 X74.489Y30.445Z0F1200
G1 X74.809Y30.101Z0F1200
G1 X75.076Y29.756Z0F1200
G1 X75.284Y29.411Z0F1200
G1 X75.669Y28.748Z0F1200
G1 X76.102Y28.124Z0F1200
G1 X76.577Y27.517Z0F1200
G1 X77.086Y26.904Z0F1200
G1 X77.623Y26.263Z0F1200
G1 X78.179Y25.572Z0F1200
G1 X78.747Y24.808Z0F1200
G1 X79.32Y23.948Z0F1200
G1 X79.607Y23.475Z0F1200
G1 X79.891Y22.97Z0F1200
G1 X80.174Y22.43Z0F1200
G1 X80.453Y21.852Z0F1200
G1 X80.728Y21.234Z0F1200
G1 X80.998Y20.572Z0F1200
G1 X81.262Y19.863Z0F1200
G1 X81.519Y19.106Z0F1200
G1 X81.768Y18.296Z0F1200
G1 X82.008Y17.432Z0F1200
G1 X82.238Y16.51Z0F1200
G1 X82.458Y15.528Z0F1200
G1 X82.667Y14.483Z0F1200
G1 X82.863Y13.372Z0F1200
G1 X83.046Y12.192Z0F1200
G1 X83.214Y10.941Z0F1200
G1 X83.191Y10.807Z0F1200
G1 X83.102Y10.657Z0F1200
G1 X82.966Y10.503Z0F1200
M9
M5
G1 Z10 F500
G90
G1 Z10 F500

; Return to 2,0 wash and park
G1 Z10 F1000;        ; Raise brush to safe height
G0 X5 Y5 F1200;     ; Rapid move to brush cleaning position
G1 Z-1 F800;         ; Lower brush for cleaning - controlled movement
G1 X10 Y12 Z8 F1200;     ; Rapid move to brush cleaning position
G1 Z-1 F800;         ; Lower brush for cleaning - controlled movement
G1 X25 Y14 Z6 F800;     ; Move across cleaning area - controlled movement
G0 X5 Y5 F1200;     ; Rapid move to brush cleaning position
G1 Z-1 F800;         ; Lower brush for cleaning - controlled movement
G1 X15 Y12 Z8 F1200;     ; Rapid move to brush cleaning position
G1 Z-1 F800;         ; Lower brush for cleaning - controlled movement
G1 X25 Y14 Z6 F800;     ; Move across cleaning area - controlled movement
G1 Z10 F800;         ; Maintain brush height - controlled movement
G0 X20 Y110 Z10 F500;; Move to parking position with Z at safe height
M2;                 ; End program
