; generated by PrusaSlicer 2.8.1+linux-x64-GTK3 on 2025-11-26 at 17:23:45 UTC

; 

; external perimeters extrusion width = 0.45mm
; perimeters extrusion width = 0.45mm
; infill extrusion width = 0.45mm
; solid infill extrusion width = 0.45mm
; top infill extrusion width = 0.40mm
; first layer extrusion width = 0.40mm

; external perimeters extrusion width = 0.45mm
; perimeters extrusion width = 0.45mm
; infill extrusion width = 0.45mm
; solid infill extrusion width = 0.45mm
; top infill extrusion width = 0.40mm
; first layer extrusion width = 0.40mm

; external perimeters extrusion width = 0.45mm
; perimeters extrusion width = 0.45mm
; infill extrusion width = 0.45mm
; solid infill extrusion width = 0.45mm
; top infill extrusion width = 0.40mm
; first layer extrusion width = 0.40mm

; external perimeters extrusion width = 0.45mm
; perimeters extrusion width = 0.45mm
; infill extrusion width = 0.45mm
; solid infill extrusion width = 0.45mm
; top infill extrusion width = 0.40mm
; first layer extrusion width = 0.40mm

; external perimeters extrusion width = 0.45mm
; perimeters extrusion width = 0.45mm
; infill extrusion width = 0.45mm
; solid infill extrusion width = 0.45mm
; top infill extrusion width = 0.40mm
; first layer extrusion width = 0.40mm

; external perimeters extrusion width = 0.45mm
; perimeters extrusion width = 0.45mm
; infill extrusion width = 0.45mm
; solid infill extrusion width = 0.45mm
; top infill extrusion width = 0.40mm
; first layer extrusion width = 0.40mm

M201 X500 Y500 Z100 E5000 ; sets maximum accelerations, mm/sec^2
M203 X500 Y500 Z10 E60 ; sets maximum feedrates, mm / sec
M204 S500 T1000 ; sets acceleration (S) and retract acceleration (R), mm/sec^2
M205 X8.00 Y8.00 Z0.40 E5.00 ; sets the jerk limits, mm/sec
M205 S0 T0 ; sets the minimum extruding and travel feed rate, mm/sec
;TYPE:Custom
G90 ; use absolute coordinates
M83 ; extruder relative mode
M104 S150 ; set temporary nozzle temp to prevent oozing during homing
M140 S60 ; set final bed temp
G4 S30 ; allow partial nozzle warmup
G28 ; home all axis and restore leveling
G1 Z50 F240
G1 X2.0 Y10 F3000
M104 S220 ; set final nozzle temp
M190 S60 ; wait for bed temp to stabilize
M109 S220 ; wait for nozzle temp to stabilize
G1 Z0.28 F240
G92 E0
G1 X2.0 Y140 E10 F1500 ; prime the nozzle
G1 X2.3 Y140 F5000
G92 E0
G1 X2.3 Y10 E10 F1200 ; prime the nozzle
G92 E0
G21 ; set units to millimeters
G90 ; use absolute coordinates
M83 ; use relative distances for extrusion
; Filament gcode
M107
;LAYER_CHANGE
;Z:0.2
;HEIGHT:0.2
G1 E-2 F2400
G1 Z.2 F7800
G1 X108.68 Y85.985
G1 Z.2
G1 E2 F1800
;TYPE:Skirt/Brim
;WIDTH:0.4
G1 X109.571 Y84.949 E.04057
G1 X110.55 Y84.026 E.03995
G1 X111.637 Y83.198 E.04057
G1 X112.787 Y82.499 E.03996
G1 X114.022 Y81.915 E.04056
G1 X115.292 Y81.47 E.03996
G1 X116.621 Y81.156 E.04055
G1 X117.956 Y80.984 E.03997
G1 X119.81 Y80.993 E.05505
G1 X121.16 Y81.125 E.04027
G1 X137.154 Y83.738 E.48118
G1 X139.304 Y84.491 E.06764
G1 X141.065 Y85.936 E.06764
G1 X142.43 Y88.558 E.08777
G1 X147.207 Y107.106 E.56869
G1 X147.515 Y108.762 E.05001
G1 X148.667 Y127.343 E.55275
G1 X148.525 Y146.11 E.55723
G1 X148.296 Y147.633 E.04573
G1 X147.872 Y149.108 E.04557
G1 X147.259 Y150.516 E.0456
G1 X146.271 Y152.105 E.05556
G1 X145.278 Y153.279 E.04565
G1 X143.804 Y154.573 E.05824
G1 X142.212 Y155.562 E.05565
G1 X140.805 Y156.175 E.04557
G1 X139.661 Y156.522 E.0355
G1 X138.151 Y156.794 E.04556
G1 X114.595 Y158.915 E.70224
G1 X113.661 Y158.941 E.02774
G1 X111.97 Y158.718 E.05064
G1 X108.796 Y157.868 E.09756
G1 X106.922 Y157.043 E.06079
G1 X105.57 Y156.006 E.05059
G1 X103.243 Y153.68 E.09769
G1 X102.203 Y152.325 E.05072
G1 X101.375 Y150.447 E.06094
G1 X100.525 Y147.273 E.09756
G1 X100.317 Y146.024 E.0376
G1 X98.56 Y120.101 E.77145
G1 X98.581 Y118.879 E.03629
G1 X98.794 Y117.739 E.03443
G1 X106.475 Y90.291 E.84628
G1 X107.259 Y88.29 E.06381
G1 X107.914 Y87.091 E.04057
G1 X108.646 Y86.034 E.03817
G1 X108.646 Y86.034 F7800
G1 X108.94 Y86.238
G1 F1800
G1 X108.974 Y86.188 E.0018
G1 X109.816 Y85.209 E.03834
G1 X110.795 Y84.286 E.03995
G1 X111.823 Y83.503 E.03837
G1 X112.972 Y82.804 E.03993
G1 X114.14 Y82.252 E.03836
G1 X115.41 Y81.807 E.03996
G1 X116.667 Y81.51 E.03835
G1 X118.001 Y81.339 E.03993
G1 X119.781 Y81.349 E.05285
G1 X121.102 Y81.478 E.03941
G1 X137.097 Y84.09 E.4812
G1 X139.183 Y84.833 E.06575
G1 X140.873 Y86.263 E.06573
G1 X142.084 Y88.647 E.07939
G1 X146.861 Y107.195 E.56869
G1 X147.159 Y108.797 E.04838
G1 X148.31 Y127.355 E.55207
G1 X148.169 Y146.075 E.55584
G1 X147.948 Y147.552 E.04434
G1 X147.538 Y148.983 E.0442
G1 X146.944 Y150.347 E.04417
G1 X145.98 Y151.897 E.0542
G1 X145.018 Y153.035 E.04424
G1 X143.596 Y154.282 E.05616
G1 X142.044 Y155.247 E.05426
G1 X140.679 Y155.841 E.0442
G1 X139.249 Y156.252 E.04418
G1 X138.116 Y156.439 E.0341
G1 X114.563 Y158.559 E.70215
G1 X113.661 Y158.584 E.02679
G1 X112.062 Y158.373 E.04789
G1 X108.889 Y157.523 E.09753
G1 X107.1 Y156.734 E.05805
G1 X105.822 Y155.753 E.04784
G1 X103.495 Y153.428 E.09767
G1 X102.512 Y152.147 E.04794
G1 X101.72 Y150.355 E.05817
G1 X100.87 Y147.181 E.09756
G1 X100.674 Y146 E.03555
G1 X98.917 Y120.077 E.77145
G1 X98.936 Y118.916 E.03448
G1 X99.138 Y117.835 E.03265
G1 X106.819 Y90.387 E.84628
G1 X107.588 Y88.428 E.06249
G1 X108.208 Y87.295 E.03835
G1 X108.906 Y86.287 E.0364
;WIPE_START
G1 F6240
G1 X108.94 Y86.238 E-.02179
G1 X108.974 Y86.188 E-.02209
G1 X109.816 Y85.209 E-.47181
G1 X110.795 Y84.286 E-.49162
G1 X111.823 Y83.503 E-.47216
G1 X112.972 Y82.804 E-.49141
G1 X113.044 Y82.77 E-.02912
;WIPE_END
G1 X113.45 Y121.215 F7800
G1 E2 F1800
;TYPE:Perimeter
;WIDTH:0.383384
G1 X113.731 Y121.489 E.01111
;WIPE_START
G1 F6240
G1 X113.45 Y121.215 E-.1434
G1 X113.731 Y121.489 E-.1434
;WIPE_END
G1 E-1.7132 F2400
G1 X112.884 Y119.813 F7800
G1 E2 F1800
;WIDTH:0.371816
G1 X112.883 Y119.448 E.00998
;WIPE_START
G1 F6240
G1 X112.884 Y119.813 E-.13337
G1 X112.883 Y119.448 E-.13337
;WIPE_END
G1 E-1.73326 F2400
G1 X113.682 Y117.778 F7800
G1 E2 F1800
;WIDTH:0.385362
G1 X113.442 Y118.016 E.00962
;WIPE_START
G1 F6240
G1 X113.682 Y117.778 E-.1235
G1 X113.442 Y118.016 E-.1235
;WIPE_END
G1 E-1.753 F2400
G1 X114.225 Y121.9 F7800
G1 E2 F1800
;WIDTH:0.508709
G1 X113.912 Y121.708 E.01422
G1 X114.011 Y121.883 E.00779
G1 X114.062 Y122.208 E.01274
G1 X114.023 Y122.358 E.006
;WIDTH:0.459099
G1 X113.983 Y122.509 E.00541
;WIDTH:0.409488
G1 X113.943 Y122.659 E.00473
;WIDTH:0.399999
G1 X113.698 Y123.145 E.01616
G1 X113.337 Y123.444 E.01392
;WIDTH:0.440871
G1 X113.07 Y123.544 E.00943
;WIDTH:0.481743
G1 X112.802 Y123.643 E.01042
;WIDTH:0.49487
G1 X112.401 Y123.612 E.01511
G1 X112.157 Y123.473 E.01055
;WIDTH:0.447435
G1 X111.912 Y123.333 E.00949
;WIDTH:0.399999
G1 X111.73 Y123.162 E.00741
G1 X111.504 Y122.835 E.0118
;WIDTH:0.441509
G1 X111.43 Y122.621 E.0075
;WIDTH:0.483018
G1 X111.356 Y122.406 E.00832
G1 X111.41 Y122.13 E.01029
;WIDTH:0.441509
G1 X111.464 Y121.855 E.00929
;WIDTH:0.399999
G1 X111.675 Y121.471 E.01301
G1 X111.997 Y121.189 E.01271
G1 X112.486 Y120.999 E.01558
;WIDTH:0.435821
G1 X112.604 Y120.972 E.00395
;WIDTH:0.471617
G1 X112.723 Y120.946 E.00434
;WIDTH:0.507413
G1 X112.842 Y120.919 E.00471
G1 X113.065 Y120.997 E.00912
;WIDTH:0.478546
G1 X113.288 Y121.075 E.00856
G1 X113.154 Y120.863 E.00908
;WIDTH:0.507413
G1 X113.02 Y120.651 E.00969
G1 X112.869 Y120.169 E.01951
;WIDTH:0.495099
G1 X112.874 Y120.05 E.00448
;WIDTH:0.454005
G1 X112.879 Y119.932 E.00404
;WIDTH:0.412911
G1 X112.884 Y119.813 E.00366
G1 X112.866 Y119.931 E.00367
;WIDTH:0.454005
G1 X112.847 Y120.049 E.00409
;WIDTH:0.495099
G1 X112.828 Y120.166 E.00446
;WIDTH:0.507413
G1 X112.664 Y120.472 E.01341
G1 X112.541 Y120.554 E.00571
;WIDTH:0.463808
G1 X112.417 Y120.635 E.00518
;WIDTH:0.420203
G1 X112.293 Y120.717 E.00466
;WIDTH:0.379199
G1 X111.813 Y120.899 E.01435
;WIDTH:0.399999
G1 X111.623 Y120.924 E.00569
G1 X111.201 Y120.87 E.01263
;WIDTH:0.426811
G1 X110.966 Y120.756 E.00834
;WIDTH:0.453623
G1 X110.732 Y120.642 E.00889
;WIDTH:0.489476
G1 X110.602 Y120.535 E.00625
G1 X110.479 Y120.288 E.01025
;WIDTH:0.444738
G1 X110.356 Y120.041 E.00922
;WIDTH:0.399999
G1 X110.276 Y119.611 E.01299
G1 X110.386 Y119.084 E.01598
;WIDTH:0.443862
G1 X110.458 Y118.936 E.00549
;WIDTH:0.487724
G1 X110.53 Y118.787 E.00612
G1 X110.651 Y118.679 E.006
;WIDTH:0.454116
G1 X110.772 Y118.572 E.00552
;WIDTH:0.420507
G1 X111.252 Y118.339 E.01675
;WIDTH:0.399999
G1 X111.788 Y118.31 E.01594
;WIDTH:0.392914
G1 X112.293 Y118.505 E.01575
;WIDTH:0.420203
G1 X112.417 Y118.586 E.00465
;WIDTH:0.463809
G1 X112.541 Y118.668 E.0052
;WIDTH:0.507414
G1 X112.664 Y118.749 E.00569
G1 X112.863 Y119.051 E.01397
G1 X113.02 Y118.571 E.01951
G1 X113.156 Y118.36 E.0097
;WIDTH:0.477144
G1 X113.292 Y118.15 E.00903
;WIDTH:0.446874
G1 X113.367 Y118.083 E.00338
;WIDTH:0.416118
G1 X113.442 Y118.016 E.00312
;WIDTH:0.434601
G1 X113.312 Y118.105 E.00513
;WIDTH:0.483839
G1 X113.183 Y118.195 E.00577
;WIDTH:0.507414
G1 X112.842 Y118.303 E.01382
G1 X112.712 Y118.271 E.00517
;WIDTH:0.469658
G1 X112.582 Y118.24 E.00474
;WIDTH:0.431902
G1 X112.453 Y118.208 E.0043
;WIDTH:0.394146
G1 X112.323 Y118.177 E.0039
;WIDTH:0.392914
G1 X111.914 Y117.98 E.01321
;WIDTH:0.399999
G1 X111.746 Y117.834 E.00661
G1 X111.524 Y117.522 E.01137
;WIDTH:0.441038
G1 X111.434 Y117.219 E.01046
;WIDTH:0.482077
G1 X111.344 Y116.916 E.01154
G1 X111.424 Y116.651 E.01011
;WIDTH:0.441038
G1 X111.504 Y116.387 E.00913
;WIDTH:0.399999
G1 X111.849 Y115.931 E.01698
;WIDTH:0.4348
G1 X112.033 Y115.822 E.00697
;WIDTH:0.469601
G1 X112.217 Y115.714 E.00757
;WIDTH:0.504402
G1 X112.401 Y115.605 E.00821
G1 X112.841 Y115.595 E.01689
;WIDTH:0.454895
G1 X113.088 Y115.686 E.00902
;WIDTH:0.427447
G1 X113.335 Y115.776 E.00841
;WIDTH:0.399999
G1 X113.732 Y116.115 E.0155
;WIDTH:0.393855
G1 X113.948 Y116.573 E.01478
;WIDTH:0.410254
G1 X113.986 Y116.72 E.00464
;WIDTH:0.459482
G1 X114.024 Y116.867 E.00526
;WIDTH:0.50871
G1 X114.062 Y117.014 E.00588
G1 X114.011 Y117.339 E.01274
G1 X113.957 Y117.46 E.00513
G1 X114.447 Y117.206 E.02138
G1 X114.823 Y117.073 E.01545
G1 X114.454 Y116.843 E.01684
G1 X114.389 Y116.721 E.00535
;WIDTH:0.470792
G1 X114.324 Y116.6 E.00489
;WIDTH:0.432874
G1 X114.259 Y116.478 E.00448
;WIDTH:0.394956
G1 X114.194 Y116.356 E.00405
;WIDTH:0.399999
G1 X114.063 Y115.888 E.01443
G1 X114.14 Y115.392 E.0149
;WIDTH:0.426575
G1 X114.27 Y115.153 E.00868
;WIDTH:0.45315
G1 X114.4 Y114.914 E.00928
;WIDTH:0.488418
G1 X114.565 Y114.742 E.00883
G1 X114.823 Y114.645 E.01021
;WIDTH:0.444209
G1 X115.082 Y114.549 E.00922
;WIDTH:0.399999
G1 X115.557 Y114.52 E.01413
;WIDTH:0.434922
G1 X115.76 Y114.584 E.00694
;WIDTH:0.469845
G1 X115.963 Y114.647 E.00755
;WIDTH:0.504767
G1 X116.166 Y114.711 E.00817
G1 X116.412 Y114.956 E.01333
;WIDTH:0.470857
G1 X116.524 Y115.201 E.00959
;WIDTH:0.435428
G1 X116.637 Y115.447 E.00884
;WIDTH:0.399999
G1 X116.683 Y115.664 E.00659
G1 X116.678 Y115.991 E.00971
;WIDTH:0.389917
G1 X116.493 Y116.502 E.01568
;WIDTH:0.419791
G1 X116.426 Y116.612 E.00404
;WIDTH:0.46484
G1 X116.36 Y116.722 E.0045
;WIDTH:0.509889
G1 X116.293 Y116.833 E.00503
G1 X115.904 Y117.085 E.018
G1 X116.421 Y117.25 E.02107
G1 X116.774 Y117.427 E.01533
G1 X116.682 Y116.986 E.01749
G1 X116.732 Y116.827 E.00647
;WIDTH:0.461411
G1 X116.782 Y116.668 E.0058
;WIDTH:0.412933
G1 X116.832 Y116.509 E.00513
;WIDTH:0.399137
G1 X117.097 Y116.038 E.01601
;WIDTH:0.399999
G1 X117.262 Y115.889 E.0066
;WIDTH:0.417688
G1 X117.756 Y115.648 E.01713
;WIDTH:0.46402
G1 X117.916 Y115.608 E.00577
;WIDTH:0.510352
G1 X118.076 Y115.568 E.00641
G1 X118.245 Y115.604 E.00672
;WIDTH:0.480054
G1 X118.414 Y115.641 E.00629
;WIDTH:0.449755
G1 X118.92 Y115.939 E.01987
;WIDTH:0.399999
G1 X119.256 Y116.387 E.01663
;WIDTH:0.441527
G1 X119.336 Y116.651 E.00914
;WIDTH:0.483054
G1 X119.417 Y116.915 E.01011
G1 X119.324 Y117.223 E.01177
;WIDTH:0.441527
G1 X119.231 Y117.531 E.01066
;WIDTH:0.399999
G1 X118.986 Y117.862 E.01223
G1 X118.752 Y118.042 E.00877
;WIDTH:0.396837
G1 X118.247 Y118.239 E.01595
;WIDTH:0.434871
G1 X118.141 Y118.255 E.00349
;WIDTH:0.472904
G1 X118.036 Y118.272 E.0038
;WIDTH:0.510937
G1 X117.931 Y118.289 E.00414
G1 X117.557 Y118.226 E.01476
G1 X117.786 Y118.677 E.01968
G1 X117.903 Y119.05 E.01521
G1 X118.167 Y118.671 E.01797
G1 X118.291 Y118.607 E.00543
;WIDTH:0.473323
G1 X118.415 Y118.544 E.00498
;WIDTH:0.435708
G1 X118.539 Y118.481 E.00454
;WIDTH:0.398094
G1 X118.663 Y118.418 E.00411
;WIDTH:0.384969
G1 X118.924 Y118.333 E.00781
;WIDTH:0.399999
G1 X119.327 Y118.301 E.012
G1 X119.721 Y118.422 E.01224
;WIDTH:0.444831
G1 X119.954 Y118.57 E.00922
;WIDTH:0.489662
G1 X120.187 Y118.718 E.01025
G1 X120.309 Y118.922 E.00883
;WIDTH:0.44598
G1 X120.466 Y119.436 E.01801
;WIDTH:0.399999
G1 X120.456 Y119.877 E.0131
G1 X120.288 Y120.29 E.01324
G1 X120.157 Y120.47 E.00661
G1 X119.914 Y120.689 E.00971
G1 X119.508 Y120.869 E.01319
G1 X119.189 Y120.924 E.00961
G1 X118.716 Y120.828 E.01433
;WIDTH:0.394111
G1 X118.549 Y120.744 E.00546
;WIDTH:0.433609
G1 X118.382 Y120.661 E.00606
;WIDTH:0.473107
G1 X118.214 Y120.578 E.0067
;WIDTH:0.510938
G1 X117.903 Y120.172 E.0199
G1 X117.741 Y120.652 E.01971
G1 X117.564 Y121.003 E.0153
G1 X118.005 Y120.925 E.01743
G1 X118.138 Y120.967 E.00543
;WIDTH:0.473316
G1 X118.27 Y121.009 E.00496
;WIDTH:0.435693
G1 X118.402 Y121.051 E.00452
;WIDTH:0.39807
G1 X118.535 Y121.092 E.00411
;WIDTH:0.378246
G1 X118.799 Y121.217 E.00814
;WIDTH:0.399999
G1 X119.156 Y121.56 E.0147
;WIDTH:0.405347
G1 X119.36 Y122.095 E.01726
;WIDTH:0.445122
G1 X119.379 Y122.303 E.00699
;WIDTH:0.484896
G1 X119.398 Y122.511 E.00768
G1 X119.289 Y122.738 E.00925
;WIDTH:0.442448
G1 X119.179 Y122.965 E.00838
;WIDTH:0.399999
G1 X119.021 Y123.17 E.00768
G1 X118.731 Y123.42 E.01137
;WIDTH:0.435249
G1 X118.594 Y123.489 E.005
;WIDTH:0.470499
G1 X118.456 Y123.558 E.00549
;WIDTH:0.505749
G1 X118.319 Y123.626 E.00589
G1 X118.078 Y123.634 E.00928
;WIDTH:0.469433
G1 X117.811 Y123.565 E.00978
;WIDTH:0.434716
G1 X117.545 Y123.496 E.00895
;WIDTH:0.399999
G1 X117.207 Y123.297 E.01165
G1 X116.904 Y122.884 E.01521
;WIDTH:0.389466
G1 X116.821 Y122.642 E.00737
;WIDTH:0.417905
G1 X116.738 Y122.399 E.00801
;WIDTH:0.463897
G1 X116.715 Y122.286 E.00404
;WIDTH:0.509889
G1 X116.691 Y122.172 E.00452
G1 X116.765 Y121.788 E.01518
G1 X116.314 Y122.016 E.01962
G1 X115.94 Y122.148 E.0154
G1 X116.293 Y122.389 E.0166
G1 X116.36 Y122.499 E.005
;WIDTH:0.46484
G1 X116.426 Y122.61 E.00453
;WIDTH:0.419791
G1 X116.493 Y122.72 E.00404
;WIDTH:0.388735
G1 X116.678 Y123.231 E.01563
;WIDTH:0.399999
G1 X116.679 Y123.623 E.01164
;WIDTH:0.4287
G1 X116.574 Y123.907 E.00971
;WIDTH:0.4574
G1 X116.469 Y124.19 E.0104
;WIDTH:0.50225
G1 X116.408 Y124.291 E.00451
G1 X116.148 Y124.516 E.01313
;WIDTH:0.4897
G1 X115.888 Y124.6 E.01015
;WIDTH:0.44485
G1 X115.628 Y124.684 E.00913
;WIDTH:0.399999
G1 X115.31 Y124.697 E.00945
G1 X114.986 Y124.654 E.0097
G1 X114.557 Y124.422 E.01448
G1 X114.23 Y124.028 E.0152
G1 X114.139 Y123.825 E.00661
G1 X114.063 Y123.333 E.01478
G1 X114.223 Y122.806 E.01635
;WIDTH:0.409488
G1 X114.317 Y122.65 E.00555
;WIDTH:0.459099
G1 X114.41 Y122.494 E.00628
;WIDTH:0.508709
G1 X114.503 Y122.338 E.00703
G1 X114.82 Y122.129 E.01471
G1 X114.34 Y121.971 E.01957
G1 X114.276 Y121.932 E.0029
G1 X114.42 Y121.536 F7800
;TYPE:External perimeter
;WIDTH:0.399999
G1 F1800
G1 X114.189 Y121.424 E.00762
G1 X113.834 Y121.132 E.01365
G1 X113.567 Y120.802 E.0126
G1 X113.369 Y120.425 E.01264
G1 X113.244 Y119.962 E.01424
G1 X113.222 Y119.481 E.0143
G1 X113.301 Y119.021 E.01386
G1 X113.459 Y118.622 E.01274
G1 X113.72 Y118.228 E.01403
G1 X114.063 Y117.897 E.01415
G1 X114.521 Y117.62 E.01589
;WIDTH:0.42771
G1 X114.818 Y117.529 E.00994
;WIDTH:0.45542
G1 X115.114 Y117.438 E.01062
;WIDTH:0.503037
G1 X115.256 Y117.402 E.0056
;WIDTH:0.550653
G1 X115.397 Y117.367 E.00613
G1 X115.573 Y117.418 E.00774
;WIDTH:0.51299
G1 X115.748 Y117.469 E.00712
;WIDTH:0.475326
G1 X115.924 Y117.52 E.00659
;WIDTH:0.437663
G1 X116.099 Y117.571 E.00598
;WIDTH:0.399999
G1 X116.571 Y117.797 E.01554
;WIDTH:0.43759
G1 X116.679 Y117.864 E.00417
;WIDTH:0.47518
G1 X116.787 Y117.931 E.00457
;WIDTH:0.51277
