;LightBurn 1.6.04
;Custom GCode device profile, absolute coords
;Bounds: X4.17 Y27.02 to X146.36 Y129.72
G00 G17 G40 G21 G54
G90
M3
G1 Z10 F500
;Cut @ 1500 mm/min, 90% power

M8
G0 Z3.5 F500
G0 X21.362 Y27.05 Z3.5 
G1 Z0 F500
;Layer Blue
G1 Y29.617 Z0 S900 F800
G0 Z3.5 F500
G0 X47.028 Z3.5 F1500
G1 Z0 F500
G1 Y27.05 Z0 F800
G0 Z3.5 F500
G0 X52.689 Y31.01 Z3.5 
G1 Z0 F500
G1 X52.849 Y30.948 Z0 F800
G1 X52.995 Y30.937 Z0 F800
G1 X53.005 Z0 F800
G1 X53.215 Y30.989 Z0 F800
G1 X53.414 Y31.126 Z0 F800
G1 X53.537 Y31.337 Z0 F800
G1 X53.59 Y31.566 Z0 F800
G1 X53.6 Y31.786 Z0 F800
G1 X53.571 Y31.985 Z0 F800
G1 X53.497 Y32.162 Z0 F800
G1 X53.391 Y32.298 Z0 F800
G1 X53.244 Y32.424 Z0 F800
G1 X53.088 Y32.478 Z0 F800
G1 X52.942 Y32.488 Z0 F800
G1 X52.772 Y32.458 Z0 F800
G1 X52.616 Y32.361 Z0 F800
G1 X52.479 Y32.205 Z0 F800
G1 X52.406 Y32.059 Z0 F800
G1 X52.344 Y31.839 Z0 F800
G1 Y31.669 Z0 F800
G1 X52.365 Y31.473 Z0 F800
G1 X52.416 Y31.293 Z0 F800
G1 X52.543 Y31.126 Z0 F800
G1 X52.689 Y31.01 Z0 F800
G0 Z3.5 F500
G0 X54.346 Y31.189 Z3.5 
G1 Z0 F500
G1 X54.515 Y31.073 Z0 F800
G1 X54.692 Y30.979 Z0 F800
G1 X54.851 Y30.948 Z0 F800
G1 X55.048 Y30.958 Z0 F800
G1 X55.174 Y31.021 Z0 F800
G1 X55.344 Y31.178 Z0 F800
G1 X55.457 Y31.42 Z0 F800
G1 X55.49 Y31.649 Z0 F800
G1 Y31.922 Z0 F800
G1 X55.417 Y32.162 Z0 F800
G1 X55.271 Y32.371 Z0 F800
G1 X55.101 Y32.468 Z0 F800
G1 X54.881 Z0 F800
G1 X54.702 Y32.434 Z0 F800
G1 X54.492 Y32.321 Z0 F800
G1 X54.316 Y32.142 Z0 F800
G1 Y32.478 Z0 F800
G1 Y30.225 Z0 F800
G0 Z3.5 F500
G0 X56.086 Y31.756 Z3.5 
G1 Z0 F500
G1 X57.24 Z0 F800
G1 Y31.942 Z0 F800
G1 X57.187 Y32.185 Z0 F800
G1 X57.03 Y32.371 Z0 F800
G1 X56.871 Y32.478 Z0 F800
G1 X56.651 Y32.488 Z0 F800
G1 X56.432 Y32.424 Z0 F800
G1 X56.242 Y32.268 Z0 F800
G1 X56.169 Y32.112 Z0 F800
G1 X56.086 Y31.912 Z0 F800
G1 X56.065 Y31.703 Z0 F800
G1 X56.118 Y31.45 Z0 F800
G1 X56.212 Y31.22 Z0 F800
G1 X56.402 Y31.031 Z0 F800
G1 X56.578 Y30.948 Z0 F800
G1 X56.798 Y30.927 Z0 F800
G1 X56.987 Y30.979 Z0 F800
G1 X57.167 Y31.073 Z0 F800
G0 Z3.5 F500
G0 X57.889 Y30.927 Z3.5 
G1 Z0 F500
G1 Y32.478 Z0 F800
G1 Y32.102 Z0 F800
G1 X58.035 Y32.248 Z0 F800
G1 X58.172 Y32.371 Z0 F800
G1 X58.278 Y32.434 Z0 F800
G1 X58.434 Y32.478 Z0 F800
G1 X58.538 Y32.488 Z0 F800
G1 X58.697 Y32.444 Z0 F800
G1 X58.79 Y32.385 Z0 F800
G1 X58.864 Y32.278 Z0 F800
G1 X58.927 Y32.132 Z0 F800
G1 Y30.927 Z0 F800
G0 Z3.5 F500
G0 X59.755 Y32.185 Z3.5 
G1 Z0 F500
G1 X59.965 Y32.351 Z0 F800
G1 X60.164 Y32.458 Z0 F800
G1 X60.364 Y32.498 Z0 F800
G1 X60.554 Y32.458 Z0 F800
G1 X60.69 Y32.385 Z0 F800
G1 X60.846 Y32.185 Z0 F800
G1 X60.896 Y31.942 Z0 F800
G1 X60.91 Y31.683 Z0 F800
G1 X60.866 Y31.42 Z0 F800
G1 X60.763 Y31.21 Z0 F800
G1 X60.627 Y31.063 Z0 F800
G1 X60.404 Y30.937 Z0 F800
G1 X60.218 Y30.948 Z0 F800
G1 X60.028 Y31 Z0 F800
G1 X59.852 Y31.115 Z0 F800
G1 X59.735 Y31.21 Z0 F800
G1 Y30.927 Z0 F800
G1 Y33.263 Z0 F800
G0 Z3.5 F500
G0 X59.695 Y33.851 Z3.5 
G1 Z0 F500
G1 X59.818 Y33.882 Z0 F800
G1 X59.935 Y33.962 Z0 F800
G1 X60.007 Y34.086 Z0 F800
G1 X60.039 Y34.221 Z0 F800
G1 X60.044 Y34.349 Z0 F800
G1 X60.027 Y34.467 Z0 F800
G1 X59.984 Y34.57 Z0 F800
G1 X59.921 Y34.65 Z0 F800
G1 X59.835 Y34.724 Z0 F800
G1 X59.744 Y34.756 Z0 F800
G1 X59.658 Y34.762 Z0 F800
G1 X59.558 Y34.744 Z0 F800
G1 X59.466 Y34.687 Z0 F800
G1 X59.386 Y34.596 Z0 F800
G1 X59.343 Y34.51 Z0 F800
G1 X59.307 Y34.381 Z0 F800
G1 Y34.281 Z0 F800
G1 X59.319 Y34.166 Z0 F800
G1 X59.349 Y34.06 Z0 F800
G1 X59.423 Y33.962 Z0 F800
G1 X59.509 Y33.894 Z0 F800
G1 X59.603 Y33.858 Z0 F800
G1 X59.689 Y33.851 Z0 F800
G1 X59.695 Z0 F800
G0 Z3.5 F500
G0 X60.476 Z3.5 
G1 Z0 F500
G1 Y34.756 Z0 F800
G1 Y34.478 Z0 F800
G1 X60.533 Y34.59 Z0 F800
G1 X60.619 Y34.701 Z0 F800
G1 X60.71 Y34.744 Z0 F800
G1 X60.796 Y34.756 Z0 F800
G1 X60.851 Y34.75 Z0 F800
G0 Z3.5 F500
G0 X61.128 Y33.845 Z3.5 
G1 Z0 F500
G1 Y34.75 Z0 F800
G1 Y34.547 Z0 F800
G1 X61.214 Y34.621 Z0 F800
G1 X61.294 Y34.687 Z0 F800
G1 X61.368 Y34.736 Z0 F800
G1 X61.46 Y34.762 Z0 F800
G1 X61.54 Y34.75 Z0 F800
G1 X61.595 Y34.724 Z0 F800
G1 X61.657 Y34.664 Z0 F800
G1 X61.7 Y34.558 Z0 F800
G1 X61.712 Y34.43 Z0 F800
G1 Y33.845 Z0 F800
G1 Y34.527 Z0 F800
G1 X61.738 Y34.578 Z0 F800
G1 X61.866 Y34.693 Z0 F800
G1 X61.964 Y34.744 Z0 F800
G1 X62.044 Y34.767 Z0 F800
G1 X62.13 Y34.744 Z0 F800
G1 X62.187 Y34.713 Z0 F800
G1 X62.253 Y34.633 Z0 F800
G1 X62.284 Y34.472 Z0 F800
G1 Y33.851 Z0 F800
G0 Z3.5 F500
G0 X62.747 Y34.65 Z3.5 
G1 Z0 F500
G1 X62.876 Y34.724 Z0 F800
G1 X62.985 Y34.756 Z0 F800
G1 X63.097 Y34.767 Z0 F800
G1 X63.183 Y34.736 Z0 F800
G1 X63.257 Y34.67 Z0 F800
G1 X63.306 Y34.57 Z0 F800
G1 X63.312 Y34.435 Z0 F800
G1 Y33.858 Z0 F800
G1 X63.306 Y34.023 Z0 F800
G1 X63.226 Y33.968 Z0 F800
G1 X63.14 Y33.907 Z0 F800
G1 X63.042 Y33.864 Z0 F800
G1 X62.931 Y33.845 Z0 F800
G1 X62.839 Y33.876 Z0 F800
G1 X62.765 Y33.925 Z0 F800
G1 X62.709 Y34.005 Z0 F800
G1 Y34.123 Z0 F800
G1 X62.753 Y34.215 Z0 F800
G1 X62.851 Y34.295 Z0 F800
G1 X62.948 Y34.332 Z0 F800
G1 X63.065 Y34.369 Z0 F800
G1 X63.177 Y34.387 Z0 F800
G1 X63.245 Y34.392 Z0 F800
G1 X63.3 Z0 F800
G0 Z3.5 F500
G0 X63.806 Y35.008 Z3.5 
G1 Z0 F500
G1 Y34.73 Z0 F800
G1 X64.1 Z0 F800
G1 X63.626 Z0 F800
G1 X63.806 Z0 F800
G1 Y34.098 Z0 F800
G1 X63.817 Y33.962 Z0 F800
G1 X63.886 Y33.882 Z0 F800
G1 X63.964 Y33.858 Z0 F800
G1 X64.052 Z0 F800
G1 X64.118 Y33.888 Z0 F800
G0 Z3.5 F500
G0 X64.432 Y33.845 Z3.5 
G1 Z0 F500
G1 Y34.75 Z0 F800
G0 Z3.5 F500
G0 X64.475 Y35.027 Z3.5 
G1 Z0 F500
G1 Y35.125 Z0 F800
G1 X64.377 Z0 F800
G1 Y35.027 Z0 F800
G1 X64.475 Z0 F800
G0 Z3.5 F500
G0 X65.016 Y34.687 Z3.5 
G1 Z0 F500
G1 X64.936 Y34.596 Z0 F800
G1 X64.893 Y34.51 Z0 F800
G1 X64.857 Y34.381 Z0 F800
G1 Y34.281 Z0 F800
G1 X64.869 Y34.166 Z0 F800
G1 X64.899 Y34.06 Z0 F800
G1 X64.973 Y33.962 Z0 F800
G1 X65.059 Y33.894 Z0 F800
G1 X65.153 Y33.858 Z0 F800
G1 X65.239 Y33.851 Z0 F800
G1 X65.245 Z0 F800
G1 X65.368 Y33.882 Z0 F800
G1 X65.485 Y33.962 Z0 F800
G1 X65.557 Y34.086 Z0 F800
G1 X65.588 Y34.221 Z0 F800
G1 X65.594 Y34.349 Z0 F800
G1 X65.577 Y34.467 Z0 F800
G1 X65.534 Y34.57 Z0 F800
G1 X65.471 Y34.65 Z0 F800
G1 X65.385 Y34.724 Z0 F800
G1 X65.294 Y34.756 Z0 F800
G1 X65.208 Y34.762 Z0 F800
G1 X65.108 Y34.744 Z0 F800
G1 X65.016 Y34.687 Z0 F800
G0 Z3.5 F500
G0 X66.02 Y33.845 Z3.5 
G1 Z0 F500
G1 Y34.756 Z0 F800
G1 Y34.535 Z0 F800
G1 X66.106 Y34.621 Z0 F800
G1 X66.186 Y34.693 Z0 F800
G1 X66.249 Y34.73 Z0 F800
G1 X66.34 Y34.756 Z0 F800
G1 X66.401 Y34.762 Z0 F800
G1 X66.495 Y34.736 Z0 F800
G1 X66.549 Y34.701 Z0 F800
G1 X66.592 Y34.638 Z0 F800
G1 X66.629 Y34.553 Z0 F800
G1 Y33.845 Z0 F800
G0 Z3.5 F500
G0 X68.175 Y32.458 Z3.5 
G1 Z0 F500
G1 X68.019 Y32.361 Z0 F800
G1 X67.883 Y32.205 Z0 F800
G1 X67.809 Y32.059 Z0 F800
G1 X67.748 Y31.839 Z0 F800
G1 Y31.669 Z0 F800
G1 X67.768 Y31.473 Z0 F800
G1 X67.819 Y31.293 Z0 F800
G1 X67.946 Y31.126 Z0 F800
G1 X68.092 Y31.01 Z0 F800
G1 X68.252 Y30.948 Z0 F800
G1 X68.398 Y30.937 Z0 F800
G1 X68.408 Z0 F800
G1 X68.618 Y30.989 Z0 F800
G1 X68.818 Y31.126 Z0 F800
G1 X68.941 Y31.337 Z0 F800
G1 X68.994 Y31.566 Z0 F800
G1 X69.004 Y31.786 Z0 F800
G1 X68.974 Y31.985 Z0 F800
G1 X68.901 Y32.162 Z0 F800
G1 X68.794 Y32.298 Z0 F800
G1 X68.648 Y32.424 Z0 F800
G1 X68.492 Y32.478 Z0 F800
G1 X68.345 Y32.488 Z0 F800
G1 X68.175 Y32.458 Z0 F800
G0 Z3.5 F500
G0 X69.895 Y31.566 Z3.5 
G1 Z0 F500
G1 X69.802 Y31.649 Z0 F800
G1 X69.719 Y31.756 Z0 F800
G1 X69.676 Y31.922 Z0 F800
G1 X69.686 Y32.132 Z0 F800
G1 X69.782 Y32.321 Z0 F800
G1 X69.949 Y32.458 Z0 F800
G1 X70.192 Y32.478 Z0 F800
G1 X70.348 Y32.444 Z0 F800
G1 X70.85 Z0 F800
G1 X70.348 Z0 F800
G1 X70.494 Y32.351 Z0 F800
G1 X70.557 Y32.268 Z0 F800
G1 X70.641 Y32.078 Z0 F800
G1 Y31.869 Z0 F800
G1 X70.567 Y31.693 Z0 F800
G1 X70.411 Y31.546 Z0 F800
G1 X70.192 Y31.473 Z0 F800
G1 X70.012 Y31.503 Z0 F800
G1 X69.895 Y31.576 Z0 F800
G1 X69.719 Y31.377 Z0 F800
G1 X69.686 Y31.24 Z0 F800
G1 X69.749 Y31.094 Z0 F800
G1 X69.885 Y31 Z0 F800
G1 X70.524 Z0 F800
G1 X70.757 Y30.937 Z0 F800
G1 X70.85 Y30.769 Z0 F800
G1 X70.86 Y30.591 Z0 F800
G1 X70.767 Y30.435 Z0 F800
G1 X70.514 Y30.265 Z0 F800
G1 X70.265 Y30.202 Z0 F800
G1 X69.982 Y30.235 Z0 F800
G1 X69.739 Y30.339 Z0 F800
G1 X69.593 Y30.498 Z0 F800
G1 X69.614 Y30.686 Z0 F800
G1 X69.719 Y30.864 Z0 F800
G1 X69.875 Y31.01 Z0 F800
G0 Z3.5 F500
G0 X71.436 Y30.937 Z3.5 
G1 Z0 F500
G1 Y32.478 Z0 F800
G1 Y32.005 Z0 F800
G1 X71.532 Y32.195 Z0 F800
G1 X71.679 Y32.385 Z0 F800
G1 X71.835 Y32.458 Z0 F800
G1 X71.981 Y32.478 Z0 F800
G1 X72.075 Y32.468 Z0 F800
G0 Z3.5 F500
G0 X72.527 Y32.298 Z3.5 
G1 Z0 F500
G1 X72.747 Y32.424 Z0 F800
G1 X72.933 Y32.478 Z0 F800
G1 X73.122 Y32.498 Z0 F800
G1 X73.269 Y32.444 Z0 F800
G1 X73.395 Y32.331 Z0 F800
G1 X73.478 Y32.162 Z0 F800
G1 X73.488 Y31.932 Z0 F800
G1 Y30.948 Z0 F800
G1 X73.478 Y31.23 Z0 F800
G1 X73.342 Y31.136 Z0 F800
G1 X73.196 Y31.031 Z0 F800
G1 X73.029 Y30.958 Z0 F800
G1 X72.84 Y30.927 Z0 F800
G1 X72.683 Y30.979 Z0 F800
G1 X72.557 Y31.063 Z0 F800
G1 X72.462 Y31.199 Z0 F800
G1 Y31.4 Z0 F800
G1 X72.537 Y31.556 Z0 F800
G1 X72.703 Y31.693 Z0 F800
G1 X72.87 Y31.756 Z0 F800
G1 X73.069 Y31.819 Z0 F800
G1 X73.259 Y31.849 Z0 F800
G1 X73.375 Y31.859 Z0 F800
G1 X73.468 Z0 F800
G0 Z3.5 F500
G0 X74.307 Y31.189 Z3.5 
G1 Z0 F500
G1 X74.477 Y31.073 Z0 F800
G1 X74.653 Y30.979 Z0 F800
G1 X74.813 Y30.948 Z0 F800
G1 X75.009 Y30.958 Z0 F800
G1 X75.135 Y31.021 Z0 F800
G1 X75.305 Y31.178 Z0 F800
G1 X75.418 Y31.42 Z0 F800
G1 X75.451 Y31.649 Z0 F800
G1 Y31.922 Z0 F800
G1 X75.378 Y32.162 Z0 F800
G1 X75.232 Y32.371 Z0 F800
G1 X75.062 Y32.468 Z0 F800
G1 X74.842 Z0 F800
G1 X74.663 Y32.434 Z0 F800
G1 X74.453 Y32.321 Z0 F800
G1 X74.277 Y32.142 Z0 F800
G1 Y32.478 Z0 F800
G1 Y30.225 Z0 F800
G0 Z3.5 F500
G0 X72.695 Y29.499 Z3.5 
G1 Z0 F500
G1 Y27.016 Z0 F800
G0 Z3.5 F500
G0 X76.173 Y30.948 Z3.5 
G1 Z0 F500
G1 Y33.253 Z0 F800
G1 Y32.088 Z0 F800
G1 X76.33 Y32.258 Z0 F800
G1 X76.466 Y32.385 Z0 F800
G1 X76.666 Y32.468 Z0 F800
G1 X76.865 Y32.488 Z0 F800
G1 X77.095 Y32.361 Z0 F800
G1 X77.178 Y32.215 Z0 F800
G1 X77.221 Y31.975 Z0 F800
G1 Y30.937 Z0 F800
G0 Z3.5 F500
G0 X77.922 Y30.948 Z3.5 
G1 Z0 F500
G1 X78.089 Z0 F800
G1 Y31.115 Z0 F800
G1 X77.922 Z0 F800
G1 Y30.948 Z0 F800
G0 Z3.5 F500
G0 X78.991 Y31.01 Z3.5 
G1 Z0 F500
G1 X78.835 Y30.864 Z0 F800
G1 X78.73 Y30.686 Z0 F800
G1 X78.708 Y30.498 Z0 F800
G1 X78.855 Y30.339 Z0 F800
G1 X79.098 Y30.235 Z0 F800
G1 X79.38 Y30.202 Z0 F800
G1 X79.63 Y30.265 Z0 F800
G1 X79.883 Y30.435 Z0 F800
G1 X79.976 Y30.591 Z0 F800
G1 X79.966 Y30.769 Z0 F800
G1 X79.873 Y30.937 Z0 F800
G1 X79.64 Y31 Z0 F800
G1 X79.001 Z0 F800
G1 X78.865 Y31.094 Z0 F800
G1 X78.801 Y31.24 Z0 F800
G1 X78.835 Y31.377 Z0 F800
G1 X79.011 Y31.576 Z0 F800
G1 X79.127 Y31.503 Z0 F800
G1 X79.307 Y31.473 Z0 F800
G1 X79.527 Y31.546 Z0 F800
G1 X79.683 Y31.693 Z0 F800
G1 X79.756 Y31.869 Z0 F800
G1 Y32.078 Z0 F800
G1 X79.673 Y32.268 Z0 F800
G1 X79.61 Y32.351 Z0 F800
G1 X79.463 Y32.444 Z0 F800
G1 X79.966 Z0 F800
G1 X79.463 Z0 F800
G1 X79.307 Y32.478 Z0 F800
G1 X79.064 Y32.458 Z0 F800
G1 X78.898 Y32.321 Z0 F800
G1 X78.801 Y32.132 Z0 F800
G1 X78.791 Y31.922 Z0 F800
G1 X78.835 Y31.756 Z0 F800
G1 X78.918 Y31.649 Z0 F800
G1 X79.011 Y31.566 Z0 F800
G0 Z3.5 F500
G0 X80.541 Y30.927 Z3.5 
G1 Z0 F500
G1 Y32.468 Z0 F800
G0 Z3.5 F500
G0 X80.615 Y32.94 Z3.5 
G1 Z0 F500
G1 Y33.106 Z0 F800
G1 X80.447 Z0 F800
G1 Y32.94 Z0 F800
G1 X80.615 Z0 F800
G0 Z3.5 F500
G0 X81.423 Y32.907 Z3.5 
G1 Z0 F500
G1 Y32.434 Z0 F800
G1 X81.925 Z0 F800
G1 X81.118 Z0 F800
G1 X81.423 Z0 F800
G1 Y31.357 Z0 F800
G1 X81.443 Y31.126 Z0 F800
G1 X81.559 Y30.989 Z0 F800
G1 X81.692 Y30.948 Z0 F800
G1 X81.842 Z0 F800
G1 X81.955 Y31 Z0 F800
G0 Z3.5 F500
G0 X82.491 Y30.948 Z3.5 
G1 Z0 F500
G1 Y33.253 Z0 F800
G1 Y32.088 Z0 F800
G1 X82.647 Y32.258 Z0 F800
G1 X82.784 Y32.385 Z0 F800
G1 X82.983 Y32.468 Z0 F800
G1 X83.183 Y32.488 Z0 F800
G1 X83.412 Y32.361 Z0 F800
G1 X83.496 Y32.215 Z0 F800
G1 X83.539 Y31.975 Z0 F800
G1 Y30.937 Z0 F800
G0 Z3.5 F500
G0 X84.314 Y32.458 Z3.5 
G1 Z0 F500
G1 Y31.483 Z0 F800
G1 X84.324 Y31.22 Z0 F800
G1 X84.397 Y31.084 Z0 F800
G1 X84.524 Y30.979 Z0 F800
G1 X84.71 Y30.927 Z0 F800
G1 X84.89 Y30.958 Z0 F800
G1 X85.079 Y31.063 Z0 F800
G1 X85.216 Y31.199 Z0 F800
G1 X85.329 Y31.337 Z0 F800
G1 Y30.937 Z0 F800
G1 Y32.458 Z0 F800
G0 Z3.5 F500
G0 X86.187 Y32.185 Z3.5 
G1 Z0 F500
G1 X86.397 Y32.351 Z0 F800
G1 X86.596 Y32.458 Z0 F800
G1 X86.796 Y32.498 Z0 F800
G1 X86.986 Y32.458 Z0 F800
G1 X87.122 Y32.385 Z0 F800
G1 X87.278 Y32.185 Z0 F800
G1 X87.328 Y31.942 Z0 F800
G1 X87.341 Y31.683 Z0 F800
G1 X87.298 Y31.42 Z0 F800
G1 X87.195 Y31.21 Z0 F800
G1 X87.059 Y31.063 Z0 F800
G1 X86.836 Y30.937 Z0 F800
G1 X86.65 Y30.948 Z0 F800
G1 X86.46 Y31 Z0 F800
G1 X86.284 Y31.115 Z0 F800
G1 X86.167 Y31.21 Z0 F800
G1 Y30.927 Z0 F800
G1 Y33.263 Z0 F800
G0 Z3.5 F500
G0 X88.787 Y33.106 Z3.5 
G1 Z0 F500
G1 Y32.94 Z0 F800
G1 X88.955 Z0 F800
G1 Y33.106 Z0 F800
G1 X88.787 Z0 F800
G0 Z3.5 F500
G0 X88.882 Y32.468 Z3.5 
G1 Z0 F500
G1 Y30.927 Z0 F800
G0 Z3.5 F500
G0 X88.127 Y30.948 Z3.5 
G1 Z0 F500
G1 Y31.115 Z0 F800
G1 X87.959 Z0 F800
G1 Y30.948 Z0 F800
G1 X88.127 Z0 F800
G0 Z3.5 F500
G0 X89.677 Y31.293 Z3.5 
G1 Z0 F500
G1 X89.803 Y31.126 Z0 F800
G1 X89.95 Y31.01 Z0 F800
G1 X90.109 Y30.948 Z0 F800
G1 X90.256 Y30.937 Z0 F800
G1 X90.266 Z0 F800
G1 X90.475 Y30.989 Z0 F800
G1 X90.675 Y31.126 Z0 F800
G1 X90.798 Y31.337 Z0 F800
G1 X90.851 Y31.566 Z0 F800
G1 X90.861 Y31.786 Z0 F800
G1 X90.831 Y31.985 Z0 F800
G1 X90.758 Y32.162 Z0 F800
G1 X90.652 Y32.298 Z0 F800
G1 X90.505 Y32.424 Z0 F800
G1 X90.349 Y32.478 Z0 F800
G1 X90.203 Y32.488 Z0 F800
G1 X90.033 Y32.458 Z0 F800
G1 X89.877 Y32.361 Z0 F800
G1 X89.74 Y32.205 Z0 F800
G1 X89.667 Y32.059 Z0 F800
G1 X89.605 Y31.839 Z0 F800
G1 Y31.669 Z0 F800
G1 X89.626 Y31.473 Z0 F800
G1 X89.677 Y31.293 Z0 F800
G0 Z3.5 F500
G0 X94.477 Y31.046 Z3.5 
G1 Z0 F500
G1 X94.31 Y30.918 Z0 F800
G1 X94.085 Y30.839 Z0 F800
G1 X93.862 Y30.87 Z0 F800
G1 X93.655 Y30.982 Z0 F800
G1 X93.496 Y31.173 Z0 F800
G1 X93.417 Y31.373 Z0 F800
G1 X93.393 Y31.674 Z0 F800
G1 X93.417 Y31.955 Z0 F800
G1 X93.521 Y32.185 Z0 F800
G1 X93.68 Y32.36 Z0 F800
G1 X93.862 Y32.449 Z0 F800
G1 X94.07 Y32.464 Z0 F800
G1 X94.255 Y32.426 Z0 F800
G1 X94.381 Y32.345 Z0 F800
G1 X94.422 Y32.297 Z0 F800
G0 Z3.5 F500
G0 X95.801 Y32.426 Z3.5 
G1 Z0 F500
G1 X94.986 Z0 F800
G1 Y31.7 Z0 F800
G1 X95.69 Z0 F800
G1 X94.986 Z0 F800
G1 Y30.878 Z0 F800
G1 X95.832 Z0 F800
G0 Z3.5 F500
G0 X96.343 Y30.846 Z3.5 
G1 Z0 F500
G1 Y32.441 Z0 F800
G1 X96.877 Z0 F800
G1 X97.006 Y32.401 Z0 F800
G1 X97.148 Y32.33 Z0 F800
G1 X97.251 Y32.17 Z0 F800
G1 Y32.034 Z0 F800
G1 X97.229 Y31.882 Z0 F800
G1 X97.132 Y31.748 Z0 F800
G1 X97.013 Y31.674 Z0 F800
G1 X96.821 Y31.629 Z0 F800
G1 X96.35 Z0 F800
G1 X96.806 Z0 F800
G1 X97.269 Y30.846 Z0 F800
G0 Z3.5 F500
G0 X97.803 Y30.854 Z3.5 
G1 Z0 F500
G1 Y32.441 Z0 F800
G1 X97.859 Z0 F800
G1 X98.808 Y30.854 Z0 F800
G1 Y32.449 Z0 F800
G0 Z3.5 F500
G0 X99.285 Y31.459 Z3.5 
G1 Z0 F500
G1 X99.802 Z0 F800
G0 Z3.5 F500
G0 X100.203 Y31.563 Z3.5 
G1 Z0 F500
G1 X100.235 Y31.355 Z0 F800
G1 X100.314 Y31.165 Z0 F800
G1 X100.428 Y31.014 Z0 F800
G1 X100.554 Y30.91 Z0 F800
G1 X100.691 Y30.862 Z0 F800
G1 X100.817 Y30.854 Z0 F800
G1 X101.025 Y30.886 Z0 F800
G1 X101.232 Y31.022 Z0 F800
G1 X101.374 Y31.236 Z0 F800
G1 X101.448 Y31.517 Z0 F800
G1 Y31.778 Z0 F800
G1 X101.407 Y31.993 Z0 F800
G1 X101.329 Y32.17 Z0 F800
G1 X101.2 Y32.337 Z0 F800
G1 X101.025 Y32.441 Z0 F800
G1 X100.848 Y32.474 Z0 F800
G1 X100.698 Y32.449 Z0 F800
G1 X100.529 Y32.385 Z0 F800
G1 X100.372 Y32.249 Z0 F800
G1 X100.25 Y32.018 Z0 F800
G1 X100.211 Y31.836 Z0 F800
G1 X100.203 Y31.563 Z0 F800
G0 Z3.5 F500
G0 X102.02 Y30.854 Z3.5 
G1 Z0 F500
G1 Y32.449 Z0 F800
G1 Y31.707 Z0 F800
G1 X103.032 Z0 F800
G1 Y32.441 Z0 F800
G1 Y30.854 Z0 F800
G0 Z3.5 F500
G0 X104.507 Y30.878 Z3.5 
G1 Z0 F500
G1 X103.71 Z0 F800
G1 Y32.456 Z0 F800
G0 Z3.5 F500
G0 X104.762 Y31.459 Z3.5 
G1 Z0 F500
G1 X105.279 Z0 F800
G0 Z3.5 F500
G0 X105.783 Y31.588 Z3.5 
G1 Z0 F500
G1 X106.168 Z0 F800
G1 X106.357 Y31.596 Z0 F800
G1 X106.524 Y31.659 Z0 F800
G1 X106.643 Y31.755 Z0 F800
G1 X106.709 Y31.915 Z0 F800
G1 X106.717 Y32.059 Z0 F800
G1 X106.684 Y32.218 Z0 F800
G1 X106.605 Y32.322 Z0 F800
G1 X106.502 Y32.401 Z0 F800
G1 X106.357 Y32.441 Z0 F800
G1 X105.791 Z0 F800
G1 Y30.839 Z0 F800
G0 Z3.5 F500
G0 X107.06 Y31.459 Z3.5 
G1 Z0 F500
G1 X107.577 Z0 F800
G0 Z3.5 F500
G0 X107.938 Y32.211 Z3.5 
G1 Z0 F500
G1 X108.043 Y32.312 Z0 F800
G1 X108.17 Y32.393 Z0 F800
G1 X108.329 Y32.433 Z0 F800
G1 X108.466 Y32.408 Z0 F800
G1 X108.607 Y32.337 Z0 F800
G1 X108.696 Y32.218 Z0 F800
G1 X108.736 Y32.041 Z0 F800
G1 X108.726 Y31.892 Z0 F800
G1 X108.648 Y31.707 Z0 F800
G1 X108.504 Y31.5 Z0 F800
G1 X108.329 Y31.284 Z0 F800
G1 X108.17 Y31.117 Z0 F800
G1 X107.954 Y30.878 Z0 F800
G1 X108.855 Z0 F800
G0 Z3.5 F500
G0 X109.269 Y30.854 Z3.5 
G1 Z0 F500
G1 X109.397 Z0 F800
G1 Y30.982 Z0 F800
G1 X109.269 Z0 F800
G1 Y30.854 Z0 F800
G0 Z3.5 F500
G0 X109.972 Y31.038 Z3.5 
G1 Z0 F500
G1 X110.068 Y30.934 Z0 F800
G1 X110.164 Y30.854 Z0 F800
G1 X110.275 Y30.846 Z0 F800
G1 X110.427 Y30.878 Z0 F800
G1 X110.587 Y31.038 Z0 F800
G1 X110.657 Y31.206 Z0 F800
G1 X110.69 Y31.396 Z0 F800
G1 X110.705 Y31.659 Z0 F800
G1 X110.69 Y31.907 Z0 F800
G1 X110.632 Y32.145 Z0 F800
G1 X110.554 Y32.297 Z0 F800
G1 X110.427 Y32.393 Z0 F800
G1 X110.313 Y32.433 Z0 F800
G1 X110.22 Y32.426 Z0 F800
G1 X110.068 Y32.337 Z0 F800
G1 X109.964 Y32.193 Z0 F800
G1 X109.892 Y31.963 Z0 F800
G1 X109.868 Y31.722 Z0 F800
G1 X109.86 Y31.484 Z0 F800
G1 X109.892 Y31.262 Z0 F800
G1 X109.972 Y31.038 Z0 F800
G0 Z3.5 F500
G0 X113.13 Y32.28 Z3.5 
G1 Z0 F500
G1 X113.24 Y32.387 Z0 F800
G1 X113.374 Y32.473 Z0 F800
G1 X113.543 Y32.516 Z0 F800
G1 X113.687 Y32.489 Z0 F800
G1 X113.837 Y32.414 Z0 F800
G1 X113.931 Y32.288 Z0 F800
G1 X113.973 Y32.101 Z0 F800
G1 X113.963 Y31.943 Z0 F800
G1 X113.88 Y31.748 Z0 F800
G1 X113.727 Y31.529 Z0 F800
G1 X113.543 Y31.301 Z0 F800
G1 X113.374 Y31.125 Z0 F800
G1 X113.147 Y30.872 Z0 F800
G1 X114.099 Z0 F800
G0 Z3.5 F500
G0 X114.436 Y31.058 Z3.5 
G1 Z0 F500
G1 X114.529 Y30.973 Z0 F800
G1 X114.68 Y30.889 Z0 F800
G1 X114.832 Y30.847 Z0 F800
G1 X114.993 Z0 F800
G1 X115.143 Y30.889 Z0 F800
G1 X115.263 Y30.964 Z0 F800
G1 X115.346 Y31.082 Z0 F800
G1 X115.373 Y31.183 Z0 F800
G1 X115.381 Y31.309 Z0 F800
G1 X115.354 Y31.427 Z0 F800
G1 X115.287 Y31.529 Z0 F800
G1 X115.143 Y31.638 Z0 F800
G1 X115.009 Y31.689 Z0 F800
G1 X114.875 Y31.705 Z0 F800
G1 X114.747 Z0 F800
G1 X114.848 Z0 F800
G1 X114.985 Y31.732 Z0 F800
G1 X115.143 Y31.815 Z0 F800
G1 X115.287 Y31.925 Z0 F800
G1 X115.33 Y32.069 Z0 F800
G1 X115.303 Y32.229 Z0 F800
G1 X115.244 Y32.363 Z0 F800
G1 X115.118 Y32.465 Z0 F800
G1 X114.966 Y32.508 Z0 F800
G1 X114.824 Z0 F800
G1 X114.648 Y32.43 Z0 F800
G1 X114.512 Y32.328 Z0 F800
G0 Z3.5 F500
G0 X113.165 Y33.342 Z3.5 
G1 Z0 F500
G1 X113.473 Z0 F800
G1 X113.592 Y33.349 Z0 F800
G1 X113.749 Y33.394 Z0 F800
G1 X113.912 Y33.491 Z0 F800
G1 X114.019 Y33.649 Z0 F800
G1 X114.078 Y33.775 Z0 F800
G1 X114.1 Y33.955 Z0 F800
G1 X114.107 Y34.112 Z0 F800
G1 Y34.23 Z0 F800
G1 X114.071 Y34.425 Z0 F800
G1 X113.964 Y34.598 Z0 F800
G1 X113.877 Y34.686 Z0 F800
G1 X113.749 Y34.754 Z0 F800
G1 X113.578 Y34.799 Z0 F800
G1 X113.158 Z0 F800
G1 Y33.342 Z0 F800
G0 Z3.5 F500
G0 X114.61 Y34.282 Z3.5 
G1 Z0 F500
G1 X114.766 Y34.373 Z0 F800
G1 X114.899 Y34.41 Z0 F800
G1 X115.034 Y34.425 Z0 F800
G1 X115.139 Y34.387 Z0 F800
G1 X115.229 Y34.306 Z0 F800
G1 X115.288 Y34.185 Z0 F800
G1 X115.295 Y34.021 Z0 F800
G1 Y33.32 Z0 F800
G1 X115.288 Y33.521 Z0 F800
G1 X115.191 Y33.454 Z0 F800
G1 X115.086 Y33.379 Z0 F800
G1 X114.968 Y33.327 Z0 F800
G1 X114.833 Y33.305 Z0 F800
G1 X114.721 Y33.342 Z0 F800
G1 X114.631 Y33.402 Z0 F800
G1 X114.564 Y33.499 Z0 F800
G1 Y33.642 Z0 F800
G1 X114.617 Y33.753 Z0 F800
G1 X114.735 Y33.851 Z0 F800
G1 X114.854 Y33.896 Z0 F800
G1 X114.996 Y33.941 Z0 F800
G1 X115.131 Y33.962 Z0 F800
G1 X115.214 Y33.969 Z0 F800
G1 X115.281 Z0 F800
G0 Z3.5 F500
G0 X115.895 Y34.716 Z3.5 
G1 Z0 F500
G1 Y34.38 Z0 F800
G1 X116.253 Z0 F800
G1 X115.677 Z0 F800
G1 X115.895 Z0 F800
G1 Y33.611 Z0 F800
G1 X115.909 Y33.447 Z0 F800
G1 X115.992 Y33.349 Z0 F800
G1 X116.087 Y33.32 Z0 F800
G1 X116.194 Z0 F800
G1 X116.275 Y33.357 Z0 F800
G0 Z3.5 F500
G0 X116.567 Y33.896 Z3.5 
G1 Z0 F500
G1 X117.39 Z0 F800
G1 Y34.029 Z0 F800
G1 X117.352 Y34.202 Z0 F800
G1 X117.24 Y34.335 Z0 F800
G1 X117.126 Y34.41 Z0 F800
G1 X116.97 Y34.418 Z0 F800
G1 X116.813 Y34.373 Z0 F800
G1 X116.678 Y34.261 Z0 F800
G1 X116.626 Y34.15 Z0 F800
G1 X116.567 Y34.007 Z0 F800
G1 X116.552 Y33.858 Z0 F800
G1 X116.589 Y33.678 Z0 F800
G1 X116.657 Y33.514 Z0 F800
G1 X116.792 Y33.379 Z0 F800
G1 X116.918 Y33.32 Z0 F800
G1 X117.074 Y33.305 Z0 F800
G1 X117.209 Y33.342 Z0 F800
G1 X117.337 Y33.409 Z0 F800
G0 Z3.5 F500
G0 X117.785 Y33.439 Z3.5 
G1 Z0 F500
G1 Y33.327 Z0 F800
G1 X117.897 Z0 F800
G1 Y33.439 Z0 F800
G1 X117.785 Z0 F800
G0 Z3.5 F500
G0 Y34.23 Z3.5 
G1 Z0 F500
G1 X117.897 Z0 F800
G1 Y34.344 Z0 F800
G1 X117.785 Z0 F800
G1 Y34.23 Z0 F800
G0 Z3.5 F500
G0 X118.332 Y32.387 Z3.5 
G1 Z0 F500
G1 X118.053 Y32.379 Z0 F800
G1 X118.34 Y32.489 Z0 F800
G1 Y30.872 Z0 F800
G1 X117.917 Z0 F800
G1 X118.752 Z0 F800
G0 Z3.5 F500
G0 X119.232 Y30.847 Z3.5 
G1 Z0 F500
G1 X119.367 Z0 F800
G1 Y30.981 Z0 F800
G1 X119.232 Z0 F800
G1 Y30.847 Z0 F800
G0 Z3.5 F500
G0 X120.809 Y30.872 Z3.5 
G1 Z0 F500
G1 X119.856 Z0 F800
G1 X120.084 Y31.125 Z0 F800
G1 X120.252 Y31.301 Z0 F800
G1 X120.437 Y31.529 Z0 F800
G1 X120.589 Y31.748 Z0 F800
G1 X120.672 Y31.943 Z0 F800
G1 X120.683 Y32.101 Z0 F800
G1 X120.64 Y32.288 Z0 F800
G1 X120.547 Y32.414 Z0 F800
G1 X120.397 Y32.489 Z0 F800
G1 X120.252 Y32.516 Z0 F800
G1 X120.084 Y32.473 Z0 F800
G1 X119.95 Y32.387 Z0 F800
G1 X119.839 Y32.28 Z0 F800
G0 Z3.5 F500
G0 X122.047 Y32.473 Z3.5 
G1 Z0 F500
G1 X121.357 Z0 F800
G1 X121.306 Y31.764 Z0 F800
G1 X121.322 Y31.74 Z0 F800
G1 X121.467 Y31.815 Z0 F800
G1 X121.609 Y31.85 Z0 F800
G1 X121.804 Y31.834 Z0 F800
G1 X121.997 Y31.724 Z0 F800
G1 X122.09 Y31.555 Z0 F800
G1 X122.114 Y31.336 Z0 F800
G1 X122.072 Y31.149 Z0 F800
G1 X121.962 Y30.99 Z0 F800
G1 X121.828 Y30.88 Z0 F800
G1 X121.635 Y30.83 Z0 F800
G1 X121.507 Y30.838 Z0 F800
G1 X121.373 Y30.889 Z0 F800
G1 X121.256 Y30.956 Z0 F800
G1 X121.146 Y31.049 Z0 F800
G0 Z3.5 F500
G0 X124.029 Y29.617 Z3.5 
G1 Z0 F500
G1 Y27.05 Z0 F800
G0 Z3.5 F500
G0 X128.859 Y30.604 Z3.5 
G1 Z0 F500
G1 X128.849 Y30.655 Z0 F800
G1 X128.832 Y30.777 Z0 F800
G1 X128.799 Y31.034 Z0 F800
G1 X128.789 Y31.623 Z0 F800
G1 X128.81 Y32.222 Z0 F800
G1 X128.859 Y32.533 Z0 F800
G1 X128.916 Y32.794 Z0 F800
G1 X128.986 Y33.019 Z0 F800
G1 X129.071 Y33.219 Z0 F800
G1 X129.224 Y33.496 Z0 F800
G1 X129.365 Y33.702 Z0 F800
G1 X129.53 Y33.878 Z0 F800
G1 X129.677 Y34.006 Z0 F800
G1 X129.811 Y34.09 Z0 F800
G1 X129.938 Y34.135 Z0 F800
G1 X130.073 Y34.153 Z0 F800
G1 X130.221 Y34.157 Z0 F800
G1 X130.341 Y34.149 Z0 F800
G1 X130.39 Y34.128 Z0 F800
G1 X130.386 Y34.107 Z0 F800
G1 X130.375 Y34.094 Z0 F800
G1 X130.329 Y34.046 Z0 F800
G1 X130.24 Y33.936 Z0 F800
G1 X130.13 Y33.792 Z0 F800
G1 X130.021 Y33.643 Z0 F800
G1 X129.784 Y33.275 Z0 F800
G1 X129.588 Y32.896 Z0 F800
G1 X129.43 Y32.497 Z0 F800
G1 X129.304 Y32.067 Z0 F800
G1 X129.267 Y31.89 Z0 F800
G1 X129.238 Y31.702 Z0 F800
G1 X129.223 Y31.558 Z0 F800
G1 X129.23 Y31.512 Z0 F800
G1 X129.245 Y31.54 Z0 F800
G1 X129.373 Y31.837 Z0 F800
G1 X129.616 Y32.37 Z0 F800
G1 X129.876 Y32.873 Z0 F800
G1 X130.238 Y33.442 Z0 F800
G1 X130.626 Y33.957 Z0 F800
G1 X130.685 Y34.011 Z0 F800
G1 X130.749 Y33.997 Z0 F800
G1 X130.972 Y33.864 Z0 F800
G1 X131.1 Y33.74 Z0 F800
G1 X131.079 Y33.656 Z0 F800
G1 X131.025 Y33.51 Z0 F800
G1 X130.951 Y33.334 Z0 F800
G1 X130.87 Y33.163 Z0 F800
G1 X130.571 Y32.647 Z0 F800
G1 X130.196 Y32.147 Z0 F800
G1 X129.964 Y31.877 Z0 F800
G1 X129.557 Y31.455 Z0 F800
G1 X129.517 Y31.4 Z0 F800
G1 X129.552 Y31.405 Z0 F800
G1 X129.66 Y31.462 Z0 F800
G1 X129.957 Y31.654 Z0 F800
G1 X130.243 Y31.884 Z0 F800
G1 X130.512 Y32.148 Z0 F800
G1 X130.757 Y32.439 Z0 F800
G1 X130.92 Y32.675 Z0 F800
G1 X131.074 Y32.935 Z0 F800
G1 X131.204 Y33.195 Z0 F800
G1 X131.297 Y33.431 Z0 F800
G1 X131.33 Y33.525 Z0 F800
G1 X131.347 Y33.564 Z0 F800
G1 X131.422 Y33.44 Z0 F800
G1 X131.512 Y33.234 Z0 F800
G1 X131.544 Y33.101 Z0 F800
G1 X131.554 Y32.947 Z0 F800
G1 X131.536 Y32.739 Z0 F800
G1 X131.48 Y32.531 Z0 F800
G1 X131.389 Y32.323 Z0 F800
G1 X131.263 Y32.117 Z0 F800
G1 X131.104 Y31.914 Z0 F800
G1 X130.913 Y31.717 Z0 F800
G1 X130.69 Y31.526 Z0 F800
G1 X130.437 Y31.343 Z0 F800
G1 X130.132 Y31.16 Z0 F800
G1 X129.766 Y30.972 Z0 F800
G1 X129.376 Y30.796 Z0 F800
G1 X129 Y30.651 Z0 F800
G1 X128.859 Y30.604 Z0 F800
G0 Z3.5 F500
G0 X131.91 Y32.795 Z3.5 
G1 Z0 F500
G1 X131.906 Y32.814 Z0 F800
G1 X131.902 Y32.868 Z0 F800
G1 X131.899 Y33.046 Z0 F800
G1 X131.889 Y33.282 Z0 F800
G1 X131.843 Y33.452 Z0 F800
G1 X131.788 Y33.606 Z0 F800
G1 X132.301 Y34.373 Z0 F800
G1 X132.505 Y34.671 Z0 F800
G1 X132.539 Y34.717 Z0 F800
G1 X132.586 Y34.713 Z0 F800
G1 X132.68 Y34.69 Z0 F800
G1 X132.895 Y34.643 Z0 F800
G1 X133.145 Y34.61 Z0 F800
G1 X133.419 Y34.59 Z0 F800
G1 X133.705 Y34.583 Z0 F800
G1 X133.99 Y34.589 Z0 F800
G1 X134.263 Y34.609 Z0 F800
G1 X134.513 Y34.643 Z0 F800
G1 X134.727 Y34.689 Z0 F800
G1 X134.831 Y34.717 Z0 F800
G1 X134.89 Y34.726 Z0 F800
G1 X134.921 Y34.717 Z0 F800
G1 X135.02 Y34.566 Z0 F800
G1 X135.186 Y34.322 Z0 F800
G1 X135.487 Y33.884 Z0 F800
G1 X135.536 Y33.802 Z0 F800
G1 X135.547 Y33.76 Z0 F800
G1 X135.523 Y33.75 Z0 F800
G1 X135.388 Y33.711 Z0 F800
G1 X135.07 Y33.629 Z0 F800
G1 X134.862 Y33.58 Z0 F800
G1 X134.745 Y33.554 Z0 F800
G1 X134.595 Y32.796 Z0 F800
G1 X134.57 Y32.676 Z0 F800
G1 X134.545 Y32.576 Z0 F800
G1 X134.524 Y32.506 Z0 F800
G1 X134.51 Y32.475 Z0 F800
G1 X134.448 Y32.469 Z0 F800
G1 X134.297 Y32.464 Z0 F800
G1 X134.081 Y32.461 Z0 F800
G1 X133.821 Z0 F800
G1 X133.503 Z0 F800
G1 X133.295 Y32.464 Z0 F800
G1 X133.179 Y32.472 Z0 F800
G1 X133.137 Y32.484 Z0 F800
G1 X133.125 Y32.514 Z0 F800
G1 X133.107 Y32.579 Z0 F800
G1 X133.086 Y32.669 Z0 F800
G1 X132.945 Y33.355 Z0 F800
G1 X132.925 Y33.47 Z0 F800
G1 X132.916 Y33.529 Z0 F800
G1 X132.889 Y33.56 Z0 F800
G1 X132.807 Y33.582 Z0 F800
G1 X132.635 Y33.611 Z0 F800
G1 X132.503 Y33.628 Z0 F800
G1 X132.455 Y33.606 Z0 F800
G1 X132.395 Y33.521 Z0 F800
G1 X132.281 Y33.352 Z0 F800
G1 X131.945 Y32.84 Z0 F800
G1 X131.91 Y32.795 Z0 F800
G0 Z3.5 F500
G0 X131.565 Y33.808 Z3.5 
G1 Z0 F500
G1 X131.538 Z0 F800
G1 X131.497 Y33.839 Z0 F800
G1 X131.436 Y33.898 Z0 F800
G1 X131.274 Y34.047 Z0 F800
G1 X131.066 Y34.188 Z0 F800
G1 X130.763 Y34.339 Z0 F800
G1 X130.517 Y34.413 Z0 F800
G1 X130.484 Y34.418 Z0 F800
G1 X130.471 Y34.433 Z0 F800
G1 X130.478 Y34.462 Z0 F800
G1 X130.556 Y34.59 Z0 F800
G1 X130.633 Y34.723 Z0 F800
G1 X130.722 Y34.882 Z0 F800
G1 X130.87 Y35.154 Z0 F800
G1 X130.941 Y35.278 Z0 F800
G1 X131.08 Y35.544 Z0 F800
G1 X131.12 Y35.617 Z0 F800
G1 X131.161 Y35.697 Z0 F800
G1 X131.249 Y35.877 Z0 F800
G1 X131.494 Y36.391 Z0 F800
G1 X131.529 Y36.455 Z0 F800
G1 X131.551 Y36.478 Z0 F800
G1 X132.655 Y35.808 Z0 F800
G1 X132.769 Y35.732 Z0 F800
G1 X132.817 Y35.688 Z0 F800
G1 X132.781 Y35.623 Z0 F800
G1 X132.696 Y35.498 Z0 F800
G1 X132.454 Y35.156 Z0 F800
G1 X132.311 Y34.949 Z0 F800
G1 X132.152 Y34.71 Z0 F800
G1 X131.908 Y34.34 Z0 F800
G1 X131.684 Y33.994 Z0 F800
G1 X131.582 Y33.832 Z0 F800
G1 X131.565 Y33.808 Z0 F800
G0 Z3.5 F500
G0 X130.24 Y34.691 Z3.5 
G1 Z0 F500
G1 X130.204 Y34.712 Z0 F800
G1 X130.048 Y34.838 Z0 F800
G1 X130 Y34.874 Z0 F800
G1 X129.97 Y34.865 Z0 F800
G1 X129.905 Y34.83 Z0 F800
G1 X129.812 Y34.775 Z0 F800
G1 X129.701 Y34.706 Z0 F800
G1 X129.455 Y34.545 Z0 F800
G1 X129.237 Y34.39 Z0 F800
G1 X129.148 Y34.33 Z0 F800
G1 X129.082 Y34.309 Z0 F800
G1 X129.023 Y34.326 Z0 F800
G1 X128.953 Y34.38 Z0 F800
G1 X128.888 Y34.445 Z0 F800
G1 X128.631 Y34.706 Z0 F800
G1 X128.358 Y34.99 Z0 F800
G1 X128.201 Y35.158 Z0 F800
G1 X128.152 Y35.215 Z0 F800
G1 X128.099 Y35.287 Z0 F800
G1 X128.092 Y35.325 Z0 F800
G1 X128.141 Y35.416 Z0 F800
G1 X128.241 Y35.574 Z0 F800
G1 X128.337 Y35.721 Z0 F800
G1 X128.388 Y35.806 Z0 F800
G1 X128.467 Y35.925 Z0 F800
G1 X128.672 Y36.227 Z0 F800
G1 X128.588 Y36.354 Z0 F800
G1 X128.492 Y36.514 Z0 F800
G1 X128.314 Y36.834 Z0 F800
G1 X128.268 Y36.907 Z0 F800
G1 X128.234 Y36.947 Z0 F800
G1 X128.209 Y36.958 Z0 F800
G1 X128.156 Y36.955 Z0 F800
G1 X127.49 Y36.89 Z0 F800
G1 X127.332 Y36.878 Z0 F800
G1 X127.225 Y36.874 Z0 F800
G1 X127.178 Y36.877 Z0 F800
G1 X127.15 Y36.92 Z0 F800
G1 X127.106 Y37.03 Z0 F800
G1 X127.044 Y37.219 Z0 F800
G1 X126.901 Y37.687 Z0 F800
G1 X126.813 Y37.968 Z0 F800
G1 X126.782 Y38.083 Z0 F800
G1 X126.765 Y38.166 Z0 F800
G1 Y38.21 Z0 F800
G1 X126.825 Y38.267 Z0 F800
G1 X126.972 Y38.361 Z0 F800
G1 X127.202 Y38.489 Z0 F800
G1 X127.506 Y38.646 Z0 F800
G1 X127.692 Y38.74 Z0 F800
G1 X127.659 Y39.283 Z0 F800
G1 X127.646 Y39.479 Z0 F800
G1 X127.635 Y39.59 Z0 F800
G1 X127.627 Y39.629 Z0 F800
G1 X127.599 Y39.642 Z0 F800
G1 X127.44 Y39.704 Z0 F800
G1 X127.079 Y39.836 Z0 F800
G1 X126.863 Y39.911 Z0 F800
G1 X126.705 Y39.971 Z0 F800
G1 X126.624 Y40.015 Z0 F800
G1 X126.609 Y40.053 Z0 F800
G1 Y40.126 Z0 F800
G1 X126.625 Y40.255 Z0 F800
G1 X126.66 Y40.462 Z0 F800
G1 X126.759 Y41.024 Z0 F800
G1 X126.788 Y41.18 Z0 F800
G1 X126.813 Y41.293 Z0 F800
G1 X126.835 Y41.367 Z0 F800
G1 X126.854 Y41.402 Z0 F800
G1 X126.887 Y41.419 Z0 F800
G1 X126.963 Y41.43 Z0 F800
G1 X127.103 Y41.439 Z0 F800
G1 X127.51 Y41.451 Z0 F800
G1 X127.906 Y41.46 Z0 F800
G1 X127.935 Y41.473 Z0 F800
G1 X127.956 Y41.506 Z0 F800
G1 X128.02 Y41.669 Z0 F800
G1 X128.281 Y42.287 Z0 F800
G1 X127.69 Y42.918 Z0 F800
G1 X127.613 Y43.008 Z0 F800
G1 X127.575 Y43.071 Z0 F800
G1 Y43.111 Z0 F800
G1 X127.611 Y43.188 Z0 F800
G1 X127.657 Y43.257 Z0 F800
G1 X127.726 Y43.358 Z0 F800
G1 X128.313 Y44.194 Z0 F800
G1 X128.361 Y44.247 Z0 F800
G1 X128.423 Y44.262 Z0 F800
G1 X128.523 Y44.237 Z0 F800
G1 X128.683 Y44.171 Z0 F800
G1 X128.904 Y44.072 Z0 F800
G1 X129.404 Y43.843 Z0 F800
G1 X129.477 Y43.907 Z0 F800
G1 X129.555 Y43.977 Z0 F800
G1 X129.639 Y44.057 Z0 F800
G1 X129.706 Y44.117 Z0 F800
G1 X129.743 Y44.143 Z0 F800
G1 X129.761 Y44.127 Z0 F800
G1 X129.78 Y44.088 Z0 F800
G1 X129.808 Y44.021 Z0 F800
G1 X130.082 Y43.419 Z0 F800
G1 X130.179 Y43.198 Z0 F800
G1 X130.19 Y43.121 Z0 F800
G1 X130.147 Y43.046 Z0 F800
G1 X130.039 Y42.924 Z0 F800
G1 X129.772 Y42.604 Z0 F800
G1 X129.537 Y42.281 Z0 F800
G1 X129.333 Y41.95 Z0 F800
G1 X129.16 Y41.61 Z0 F800
G1 X129.017 Y41.259 Z0 F800
G1 X128.901 Y40.894 Z0 F800
G1 X128.813 Y40.512 Z0 F800
G1 X128.75 Y40.111 Z0 F800
G1 X128.737 Y39.448 Z0 F800
G1 X128.79 Y38.774 Z0 F800
G1 X128.928 Y38.176 Z0 F800
G1 X129.128 Y37.62 Z0 F800
G1 X129.395 Y37.094 Z0 F800
G1 X129.733 Y36.588 Z0 F800
G1 X130.165 Y36.1 Z0 F800
G1 X130.612 Y35.667 Z0 F800
G1 X130.678 Y35.61 Z0 F800
G1 X130.706 Y35.577 Z0 F800
G1 X130.68 Y35.521 Z0 F800
G1 X130.516 Y35.215 Z0 F800
G1 X130.24 Y34.691 Z0 F800
G0 Z3.5 F500
G0 X132.297 Y36.395 Z3.5 
G1 Z0 F500
G1 X131.865 Y36.653 Z0 F800
G1 X131.697 Y36.751 Z0 F800
G1 X131.665 Y36.767 Z0 F800
G1 Y36.794 Z0 F800
G1 X131.676 Y36.861 Z0 F800
G1 X131.702 Y36.961 Z0 F800
G1 X131.738 Y37.086 Z0 F800
G1 X131.832 Y37.377 Z0 F800
G1 X131.939 Y37.669 Z0 F800
G1 X132.127 Y38.099 Z0 F800
G1 X132.361 Y38.538 Z0 F800
G1 X132.505 Y38.777 Z0 F800
G1 X132.672 Y39.036 Z0 F800
G1 X132.864 Y39.323 Z0 F800
G1 X133.695 Y40.51 Z0 F800
G1 X133.993 Y40.931 Z0 F800
G1 X134.243 Y41.28 Z0 F800
G1 X134.381 Y41.468 Z0 F800
G1 X135.323 Y42.781 Z0 F800
G1 X136.291 Y44.135 Z0 F800
G1 X136.922 Y45.034 Z0 F800
G1 X137.695 Y46.147 Z0 F800
G1 X137.777 Y46.262 Z0 F800
G1 X138.11 Y46.748 Z0 F800
G1 X138.241 Y46.931 Z0 F800
G1 X138.273 Y46.969 Z0 F800
G1 X138.341 Y46.987 Z0 F800
G1 X138.415 Y46.97 Z0 F800
G1 X138.476 Y46.926 Z0 F800
G1 X138.501 Y46.867 Z0 F800
G1 X138.495 Y46.837 Z0 F800
G1 X138.476 Y46.78 Z0 F800
G1 X138.402 Y46.586 Z0 F800
G1 X138.28 Y46.289 Z0 F800
G1 X137.702 Y44.935 Z0 F800
G1 X136.252 Y41.626 Z0 F800
G1 X135.679 Y40.324 Z0 F800
G1 X135.334 Y39.544 Z0 F800
G1 X135.039 Y38.889 Z0 F800
G1 X134.772 Y38.327 Z0 F800
G1 X134.527 Y37.845 Z0 F800
G1 X134.295 Y37.43 Z0 F800
G1 X134.067 Y37.067 Z0 F800
G1 X133.836 Y36.743 Z0 F800
G1 X133.594 Y36.445 Z0 F800
G1 X133.333 Y36.159 Z0 F800
G1 X133.19 Y36.013 Z0 F800
G1 X133.113 Y35.938 Z0 F800
G1 X133.079 Z0 F800
G1 X133.004 Y35.971 Z0 F800
G1 X132.864 Y36.05 Z0 F800
G1 X132.639 Y36.186 Z0 F800
G1 X132.297 Y36.395 Z0 F800
G0 Z3.5 F500
G0 X133.923 Y36.384 Z3.5 
G1 Z0 F500
G1 X133.941 Y36.415 Z0 F800
G1 X133.989 Y36.463 Z0 F800
G1 X134.066 Y36.559 Z0 F800
G1 X134.164 Y36.693 Z0 F800
G1 X134.275 Y36.85 Z0 F800
G1 X134.497 Y37.184 Z0 F800
G1 X134.661 Y37.458 Z0 F800
G1 X134.809 Y37.737 Z0 F800
G1 X134.993 Y38.09 Z0 F800
G1 X135.131 Y38.361 Z0 F800
G1 X135.168 Y38.424 Z0 F800
G1 X135.189 Y38.439 Z0 F800
G1 X135.202 Y38.419 Z0 F800
G1 X135.477 Y37.742 Z0 F800
G1 X135.57 Y37.501 Z0 F800
G1 X135.639 Y37.307 Z0 F800
G1 X135.746 Y36.985 Z0 F800
G1 X135.791 Y36.839 Z0 F800
G1 X135.797 Y36.811 Z0 F800
G1 X135.76 Y36.781 Z0 F800
G1 X135.659 Y36.714 Z0 F800
G1 X135.51 Y36.619 Z0 F800
G1 X134.623 Y36.08 Z0 F800
G1 X134.449 Y35.977 Z0 F800
G1 X134.391 Y35.945 Z0 F800
G1 X134.363 Y35.933 Z0 F800
G1 X134.338 Y35.949 Z0 F800
G1 X134.286 Y35.991 Z0 F800
G1 X134.214 Y36.055 Z0 F800
G1 X134.131 Y36.132 Z0 F800
G1 X134.013 Y36.25 Z0 F800
G1 X133.945 Y36.331 Z0 F800
G1 X133.923 Y36.384 Z0 F800
G0 Z3.5 F500
G0 X134.756 Y35.795 Z3.5 
G1 Z0 F500
G1 X134.886 Y35.873 Z0 F800
G1 X135.238 Y36.092 Z0 F800
G1 X135.662 Y36.346 Z0 F800
G1 X135.855 Y36.456 Z0 F800
G1 X135.89 Y36.473 Z0 F800
G1 X135.934 Y36.421 Z0 F800
G1 X136.003 Y36.286 Z0 F800
G1 X136.35 Y35.57 Z0 F800
G1 X136.766 Y34.813 Z0 F800
G1 X136.843 Y34.679 Z0 F800
G1 X136.949 Y34.486 Z0 F800
G1 X136.967 Y34.451 Z0 F800
G1 X136.928 Y34.424 Z0 F800
G1 X136.827 Y34.391 Z0 F800
G1 X136.625 Y34.32 Z0 F800
G1 X136.418 Y34.215 Z0 F800
G1 X136.215 Y34.082 Z0 F800
G1 X136.026 Y33.925 Z0 F800
G1 X135.946 Y33.851 Z0 F800
G1 X135.903 Y33.815 Z0 F800
G1 X135.877 Y33.832 Z0 F800
G1 X135.838 Y33.886 Z0 F800
G1 X135.772 Y33.993 Z0 F800
G1 X135.289 Y34.723 Z0 F800
G1 X135.078 Y35.034 Z0 F800
G1 X134.887 Y35.307 Z0 F800
G1 X134.65 Y35.634 Z0 F800
G1 X134.613 Y35.694 Z0 F800
G1 X134.655 Y35.731 Z0 F800
G1 X134.756 Y35.795 Z0 F800
G0 Z3.5 F500
G0 X136.751 Y35.563 Z3.5 
G1 Z0 F500
G1 X136.762 Y35.594 Z0 F800
G1 X136.809 Y35.645 Z0 F800
G1 X136.903 Y35.73 Z0 F800
G1 X137.334 Y36.15 Z0 F800
G1 X137.698 Y36.573 Z0 F800
G1 X138 Y37.008 Z0 F800
G1 X138.246 Y37.462 Z0 F800
G1 X138.437 Y37.952 Z0 F800
G1 X138.588 Y38.469 Z0 F800
G1 X138.677 Y39.012 Z0 F800
G1 X138.709 Y39.576 Z0 F800
G1 X138.682 Y40.134 Z0 F800
G1 X138.597 Y40.659 Z0 F800
G1 X138.496 Y41.032 Z0 F800
G1 X138.39 Y41.35 Z0 F800
G1 X138.329 Y41.498 Z0 F800
G1 X138.166 Y41.834 Z0 F800
G1 X138 Y42.141 Z0 F800
G1 X137.802 Y42.429 Z0 F800
G1 X137.643 Y42.651 Z0 F800
G1 X137.445 Y42.884 Z0 F800
G1 X137.29 Y43.059 Z0 F800
G1 X137.255 Y43.103 Z0 F800
G1 X137.26 Y43.143 Z0 F800
G1 X137.294 Y43.235 Z0 F800
G1 X137.356 Y43.382 Z0 F800
G1 X137.487 Y43.674 Z0 F800
G1 X137.6 Y43.936 Z0 F800
G1 X137.652 Y44.048 Z0 F800
G1 X137.69 Y44.118 Z0 F800
G1 X137.711 Y44.143 Z0 F800
G1 X137.757 Y44.11 Z0 F800
G1 X137.843 Y44.033 Z0 F800
G1 X138.041 Y43.845 Z0 F800
G1 X138.237 Y43.936 Z0 F800
G1 X138.699 Y44.148 Z0 F800
G1 X138.874 Y44.222 Z0 F800
G1 X138.993 Y44.254 Z0 F800
G1 X139.069 Y44.246 Z0 F800
G1 X139.114 Y44.201 Z0 F800
G1 X139.137 Y44.165 Z0 F800
G1 X139.262 Y43.986 Z0 F800
G1 X139.558 Y43.572 Z0 F800
G1 X139.762 Y43.292 Z0 F800
G1 X139.847 Y43.165 Z0 F800
G1 X139.883 Y43.091 Z0 F800
G1 X139.847 Y43.026 Z0 F800
G1 X139.759 Y42.923 Z0 F800
G1 X139.551 Y42.703 Z0 F800
G1 X139.292 Y42.426 Z0 F800
G1 X139.225 Y42.349 Z0 F800
G1 X139.177 Y42.269 Z0 F800
G1 X139.187 Y42.223 Z0 F800
G1 X139.223 Y42.128 Z0 F800
G1 X139.349 Y41.826 Z0 F800
G1 X139.413 Y41.666 Z0 F800
G1 X139.463 Y41.547 Z0 F800
G1 X139.498 Y41.482 Z0 F800
G1 X139.535 Y41.47 Z0 F800
G1 X139.629 Y41.46 Z0 F800
G1 X139.79 Y41.452 Z0 F800
G1 X140.299 Y41.437 Z0 F800
G1 X140.458 Y41.429 Z0 F800
G1 X140.539 Y41.417 Z0 F800
G1 X140.574 Y41.399 Z0 F800
G1 X140.608 Y41.323 Z0 F800
G1 X140.641 Y41.18 Z0 F800
G1 X140.7 Y40.856 Z0 F800
G1 X140.8 Y40.333 Z0 F800
G1 X140.819 Y40.226 Z0 F800
G1 X140.833 Y40.134 Z0 F800
G1 X140.84 Y40.067 Z0 F800
G1 Y40.033 Z0 F800
G1 X140.828 Y40.011 Z0 F800
G1 X140.794 Y39.99 Z0 F800
G1 X140.706 Y39.956 Z0 F800
G1 X140.273 Y39.803 Z0 F800
G1 X140.048 Y39.72 Z0 F800
G1 X139.886 Y39.657 Z0 F800
G1 X139.818 Y39.625 Z0 F800
G1 X139.81 Y39.59 Z0 F800
G1 X139.801 Y39.507 Z0 F800
G1 X139.792 Y39.389 Z0 F800
G1 X139.768 Y38.969 Z0 F800
G1 X139.757 Y38.812 Z0 F800
G1 X139.764 Y38.744 Z0 F800
G1 X139.85 Y38.689 Z0 F800
G1 X140.104 Y38.556 Z0 F800
G1 X140.362 Y38.413 Z0 F800
G1 X140.566 Y38.294 Z0 F800
G1 X140.629 Y38.254 Z0 F800
G1 X140.657 Y38.233 Z0 F800
G1 X140.67 Y38.194 Z0 F800
G1 Y38.133 Z0 F800
G1 X140.649 Y38.044 Z0 F800
G1 X140.614 Y37.923 Z0 F800
G1 X140.427 Y37.324 Z0 F800
G1 X140.371 Y37.149 Z0 F800
G1 X140.324 Y37.013 Z0 F800
G1 X140.287 Y36.924 Z0 F800
G1 X140.264 Y36.885 Z0 F800
G1 X140.234 Y36.87 Z0 F800
G1 X140.162 Z0 F800
G1 X139.987 Y36.884 Z0 F800
G1 X139.363 Y36.952 Z0 F800
G1 X139.277 Y36.957 Z0 F800
G1 X139.218 Y36.952 Z0 F800
G1 X139.15 Y36.905 Z0 F800
G1 X139.093 Y36.796 Z0 F800
G1 X139 Y36.625 Z0 F800
G1 X138.812 Y36.304 Z0 F800
G1 X138.778 Y36.233 Z0 F800
G1 X138.8 Y36.191 Z0 F800
G1 X138.862 Y36.092 Z0 F800
G1 X139.177 Y35.608 Z0 F800
G1 X139.268 Y35.462 Z0 F800
G1 X139.328 Y35.357 Z0 F800
G1 X139.35 Y35.306 Z0 F800
G1 X139.335 Y35.27 Z0 F800
G1 X139.288 Y35.207 Z0 F800
G1 X139.207 Y35.114 Z0 F800
G1 X139.089 Y34.989 Z0 F800
G1 X138.648 Y34.537 Z0 F800
G1 X138.483 Y34.375 Z0 F800
G1 X138.432 Y34.329 Z0 F800
G1 X138.399 Y34.303 Z0 F800
G1 X138.381 Y34.294 Z0 F800
G1 X138.334 Y34.318 Z0 F800
G1 X138.229 Y34.382 Z0 F800
G1 X138.081 Y34.477 Z0 F800
G1 X137.905 Y34.592 Z0 F800
G1 X137.458 Y34.89 Z0 F800
G1 X137.196 Y34.692 Z0 F800
G1 X136.842 Y35.385 Z0 F800
G1 X136.763 Y35.534 Z0 F800
G1 X136.751 Y35.563 Z0 F800
G0 Z3.5 F500
G0 X137.135 Y34.153 Z3.5 
G1 Z0 F500
G1 X137.291 Z0 F800
G1 X137.494 Y34.135 Z0 F800
G1 X137.647 Y34.071 Z0 F800
G1 X137.785 Y33.984 Z0 F800
G1 X137.92 Y33.867 Z0 F800
G1 X138.051 Y33.723 Z0 F800
G1 X138.175 Y33.557 Z0 F800
G1 X138.388 Y33.174 Z0 F800
G1 X138.538 Y32.752 Z0 F800
G1 X138.593 Y32.51 Z0 F800
G1 X138.626 Y32.267 Z0 F800
G1 X138.644 Y31.982 Z0 F800
G1 X138.649 Y31.61 Z0 F800
G1 X138.643 Y31.241 Z0 F800
G1 X138.628 Y30.918 Z0 F800
G1 X138.618 Y30.789 Z0 F800
G1 X138.607 Y30.69 Z0 F800
G1 X138.595 Y30.627 Z0 F800
G1 X138.583 Y30.605 Z0 F800
G1 X138.533 Y30.619 Z0 F800
G1 X138.432 Y30.652 Z0 F800
G1 X138.139 Y30.764 Z0 F800
G1 X137.766 Y30.925 Z0 F800
G1 X137.586 Y31.007 Z0 F800
G1 X137.43 Y31.081 Z0 F800
G1 X137.313 Y31.142 Z0 F800
G1 X137.248 Y31.181 Z0 F800
G1 X137.173 Y31.232 Z0 F800
G1 X137.021 Y31.331 Z0 F800
G1 X136.808 Y31.473 Z0 F800
G1 X136.668 Y31.587 Z0 F800
G1 X136.412 Y31.832 Z0 F800
G1 X136.212 Y32.072 Z0 F800
G1 X136.061 Y32.314 Z0 F800
G1 X135.953 Y32.568 Z0 F800
G1 X135.915 Y32.726 Z0 F800
G1 X135.906 Y32.952 Z0 F800
G1 X135.914 Y33.179 Z0 F800
G1 X135.96 Y33.314 Z0 F800
G1 X136.01 Y33.412 Z0 F800
G1 X136.056 Y33.489 Z0 F800
G1 X136.1 Y33.549 Z0 F800
G1 X136.163 Y33.374 Z0 F800
G1 X136.27 Y33.117 Z0 F800
G1 X136.403 Y32.86 Z0 F800
G1 X136.555 Y32.614 Z0 F800
G1 X136.721 Y32.39 Z0 F800
G1 X136.796 Y32.308 Z0 F800
G1 X136.84 Y32.276 Z0 F800
G1 X136.852 Y32.272 Z0 F800
G1 Y32.255 Z0 F800
G1 X136.865 Y32.227 Z0 F800
G1 X136.909 Y32.174 Z0 F800
G1 X136.978 Y32.101 Z0 F800
G1 X137.064 Y32.015 Z0 F800
G1 X137.259 Y31.835 Z0 F800
G1 X137.438 Y31.686 Z0 F800
G1 X137.582 Y31.586 Z0 F800
G1 X137.737 Y31.49 Z0 F800
G1 X137.863 Y31.42 Z0 F800
G1 X137.923 Y31.4 Z0 F800
G1 X137.888 Y31.451 Z0 F800
G1 X137.395 Y31.97 Z0 F800
G1 X137.07 Y32.361 Z0 F800
G1 X136.802 Y32.746 Z0 F800
G1 X136.579 Y33.14 Z0 F800
G1 X136.481 Y33.341 Z0 F800
G1 X136.402 Y33.519 Z0 F800
G1 X136.35 Y33.656 Z0 F800
G1 X136.33 Y33.736 Z0 F800
G1 X136.54 Y33.91 Z0 F800
G1 X136.771 Y34.016 Z0 F800
G1 X136.925 Y33.821 Z0 F800
G1 X137.256 Y33.371 Z0 F800
G1 X137.548 Y32.909 Z0 F800
G1 X137.814 Y32.409 Z0 F800
G1 X138.069 Y31.849 Z0 F800
G1 X138.147 Y31.671 Z0 F800
G1 X138.191 Y31.576 Z0 F800
G1 X138.213 Y31.551 Z0 F800
G1 X138.221 Y31.577 Z0 F800
G1 X138.213 Y31.701 Z0 F800
G1 X138.182 Y31.893 Z0 F800
G1 X138.137 Y32.109 Z0 F800
G1 X138.085 Y32.303 Z0 F800
G1 X137.983 Y32.598 Z0 F800
G1 X137.863 Y32.887 Z0 F800
G1 X137.728 Y33.159 Z0 F800
G1 X137.584 Y33.406 Z0 F800
G1 X137.341 Y33.751 Z0 F800
G1 X137.103 Y34.058 Z0 F800
G1 X137.065 Y34.112 Z0 F800
G1 X137.06 Y34.144 Z0 F800
G1 X137.135 Y34.153 Z0 F800
G0 Z3.5 F500
G0 X132.342 Y39.071 Z3.5 
G1 Z0 F500
G1 X132.325 Y39.097 Z0 F800
G1 X132.288 Y39.171 Z0 F800
G1 X132.176 Y39.411 Z0 F800
G1 X131.818 Y40.216 Z0 F800
G1 X131.774 Y40.326 Z0 F800
G1 X131.669 Y40.559 Z0 F800
G1 X130.914 Y42.267 Z0 F800
G1 X130.583 Y43.023 Z0 F800
G1 X130.312 Y43.635 Z0 F800
G1 X129.939 Y44.489 Z0 F800
G1 X129.899 Y44.589 Z0 F800
G1 X129.815 Y44.777 Z0 F800
G1 X129.781 Y44.869 Z0 F800
G1 X129.657 Y45.149 Z0 F800
G1 X129.491 Y45.535 Z0 F800
G1 X129.009 Y46.669 Z0 F800
G1 X128.963 Y46.807 Z0 F800
G1 X128.957 Y46.905 Z0 F800
G1 X128.993 Y46.964 Z0 F800
G1 X129.07 Y46.984 Z0 F800
G1 X129.142 Y46.968 Z0 F800
G1 X129.243 Y46.868 Z0 F800
G1 X129.323 Y46.764 Z0 F800
G1 X129.434 Y46.61 Z0 F800
G1 X130.156 Y45.572 Z0 F800
G1 X130.635 Y44.89 Z0 F800
G1 X130.971 Y44.407 Z0 F800
G1 X132.015 Y42.928 Z0 F800
G1 X133.1 Y41.404 Z0 F800
G1 X133.344 Y41.066 Z0 F800
G1 X133.442 Y40.926 Z0 F800
G1 X133.493 Y40.846 Z0 F800
G1 X133.508 Y40.809 Z0 F800
G1 X133.494 Y40.771 Z0 F800
G1 X133.436 Y40.679 Z0 F800
G1 X133.382 Y40.6 Z0 F800
G1 X132.841 Y39.828 Z0 F800
G1 X132.65 Y39.55 Z0 F800
G1 X132.512 Y39.341 Z0 F800
G1 X132.372 Y39.11 Z0 F800
G1 X132.342 Y39.071 Z0 F800
G0 Z3.5 F500
G0 X131.597 Y44.064 Z3.5 
G1 Z0 F500
G1 X131.55 Y44.117 Z0 F800
G1 X131.458 Y44.246 Z0 F800
G1 X131.361 Y44.39 Z0 F800
G1 X131.264 Y44.528 Z0 F800
G1 X130.763 Y45.258 Z0 F800
G1 X130.494 Y45.648 Z0 F800
G1 X130.403 Y45.786 Z0 F800
G1 X130.392 Y45.808 Z0 F800
G1 X130.782 Y46.007 Z0 F800
G1 X131.165 Y46.175 Z0 F800
G1 X131.225 Y46.15 Z0 F800
G1 X131.31 Y46.052 Z0 F800
G1 X131.401 Y45.936 Z0 F800
G1 X131.575 Y45.72 Z0 F800
G1 X131.756 Y45.488 Z0 F800
G1 X131.831 Y45.399 Z0 F800
G1 X131.859 Y45.362 Z0 F800
G1 X131.892 Y45.332 Z0 F800
G1 X131.943 Y45.343 Z0 F800
G1 X132.26 Y45.431 Z0 F800
G1 X132.591 Y45.497 Z0 F800
G1 X132.696 Y45.515 Z0 F800
G1 X132.739 Y45.546 Z0 F800
G1 X132.754 Y45.598 Z0 F800
G1 X132.781 Y45.714 Z0 F800
G1 X132.816 Y45.876 Z0 F800
G1 X132.897 Y46.269 Z0 F800
G1 X132.933 Y46.426 Z0 F800
G1 X132.961 Y46.531 Z0 F800
G1 X132.978 Y46.572 Z0 F800
G1 X133.045 Y46.579 Z0 F800
G1 X133.207 Y46.584 Z0 F800
G1 X133.44 Y46.588 Z0 F800
G1 X134.435 Z0 F800
G1 X134.464 Y46.545 Z0 F800
G1 X134.494 Y46.462 Z0 F800
G1 X134.526 Y46.323 Z0 F800
G1 X134.685 Y45.515 Z0 F800
G1 X134.861 Y45.491 Z0 F800
G1 X135.061 Y45.453 Z0 F800
G1 X135.293 Y45.399 Z0 F800
G1 X135.549 Y45.332 Z0 F800
G1 X135.88 Y45.752 Z0 F800
G1 X136.107 Y46.045 Z0 F800
G1 X136.179 Y46.128 Z0 F800
G1 X136.227 Y46.166 Z0 F800
G1 X136.266 Y46.175 Z0 F800
G1 X136.675 Y45.994 Z0 F800
G1 X137.041 Y45.792 Z0 F800
G1 X137.033 Y45.77 Z0 F800
G1 X136.81 Y45.46 Z0 F800
G1 X136.245 Y44.641 Z0 F800
G1 X135.937 Y44.187 Z0 F800
G1 X135.872 Y44.1 Z0 F800
G1 X135.834 Y44.064 Z0 F800
G1 X135.779 Y44.082 Z0 F800
G1 X135.675 Y44.125 Z0 F800
G1 X135.368 Y44.24 Z0 F800
G1 X135.01 Y44.345 Z0 F800
G1 X134.643 Y44.427 Z0 F800
G1 X134.309 Y44.477 Z0 F800
G1 X133.718 Y44.497 Z0 F800
G1 X133.12 Y44.468 Z0 F800
G1 X132.75 Y44.413 Z0 F800
G1 X132.379 Y44.332 Z0 F800
G1 X132.03 Y44.231 Z0 F800
G1 X131.726 Y44.114 Z0 F800
G1 X131.641 Y44.078 Z0 F800
G1 X131.597 Y44.064 Z0 F800
G0 Z3.5 F500
G0 X123.279 Y48.077 Z3.5 
G1 Z0 F500
G1 Y29.62 Z0 F800
G1 X143.772 Z0 F800
G1 Y48.077 Z0 F800
G1 X123.279 Z0 F800
G0 Z3.5 F500
G0 X127.879 Y52.974 Z3.5 
G1 Z0 F500
G1 X133.012 Y51.69 Z0 F800
G1 Y56.824 Z0 F800
G1 X127.879 Y55.54 Z0 F800
G1 Y52.974 Z0 F800
G0 Z3.5 F500
G0 X127.365 Y54.257 Z3.5 
G1 Z0 F500
G1 X139.685 Z0 F800
G0 Z3.5 F500
G0 X137.889 Z3.5 
G1 Z0 F500
G1 X137.863 Y54.516 Z0 F800
G1 X137.788 Y54.757 Z0 F800
G1 X137.669 Y54.975 Z0 F800
G1 X137.513 Y55.164 Z0 F800
G1 X137.323 Y55.321 Z0 F800
G1 X137.105 Y55.44 Z0 F800
G1 X136.864 Y55.514 Z0 F800
G1 X136.605 Y55.54 Z0 F800
G1 X136.347 Y55.514 Z0 F800
G1 X136.106 Y55.44 Z0 F800
G1 X135.888 Y55.321 Z0 F800
G1 X135.698 Y55.164 Z0 F800
G1 X135.541 Y54.975 Z0 F800
G1 X135.423 Y54.757 Z0 F800
G1 X135.348 Y54.516 Z0 F800
G1 X135.322 Y54.257 Z0 F800
G1 X135.348 Y53.998 Z0 F800
G1 X135.423 Y53.757 Z0 F800
G1 X135.541 Y53.54 Z0 F800
G1 X135.698 Y53.35 Z0 F800
G1 X135.888 Y53.193 Z0 F800
G1 X136.106 Y53.075 Z0 F800
G1 X136.347 Y53 Z0 F800
G1 X136.605 Y52.974 Z0 F800
G1 X136.864 Y53 Z0 F800
G1 X137.105 Y53.075 Z0 F800
G1 X137.323 Y53.193 Z0 F800
G1 X137.513 Y53.35 Z0 F800
G1 X137.669 Y53.54 Z0 F800
G1 X137.788 Y53.757 Z0 F800
G1 X137.863 Y53.998 Z0 F800
G1 X137.889 Y54.257 Z0 F800
G0 Z3.5 F500
G0 X139.172 Z3.5 
G1 Z0 F500
G1 X139.159 Y54.519 Z0 F800
G1 X139.12 Y54.774 Z0 F800
G1 X139.057 Y55.02 Z0 F800
G1 X138.97 Y55.256 Z0 F800
G1 X138.734 Y55.692 Z0 F800
G1 X138.42 Y56.072 Z0 F800
G1 X138.04 Y56.385 Z0 F800
G1 X137.604 Y56.622 Z0 F800
G1 X137.369 Y56.708 Z0 F800
G1 X137.123 Y56.772 Z0 F800
G1 X136.868 Y56.81 Z0 F800
G1 X136.605 Y56.824 Z0 F800
G1 X136.343 Y56.81 Z0 F800
G1 X136.088 Y56.772 Z0 F800
G1 X135.842 Y56.708 Z0 F800
G1 X135.606 Y56.622 Z0 F800
G1 X135.17 Y56.385 Z0 F800
G1 X134.79 Y56.072 Z0 F800
G1 X134.477 Y55.692 Z0 F800
G1 X134.24 Y55.256 Z0 F800
G1 X134.154 Y55.02 Z0 F800
G1 X134.091 Y54.774 Z0 F800
G1 X134.052 Y54.519 Z0 F800
G1 X134.039 Y54.257 Z0 F800
G1 X134.052 Y53.995 Z0 F800
G1 X134.091 Y53.74 Z0 F800
G1 X134.154 Y53.494 Z0 F800
G1 X134.24 Y53.258 Z0 F800
G1 X134.477 Y52.822 Z0 F800
G1 X134.79 Y52.442 Z0 F800
G1 X135.17 Y52.129 Z0 F800
G1 X135.606 Y51.892 Z0 F800
G1 X135.842 Y51.806 Z0 F800
G1 X136.088 Y51.743 Z0 F800
G1 X136.343 Y51.704 Z0 F800
G1 X136.605 Y51.69 Z0 F800
G1 X136.868 Y51.704 Z0 F800
G1 X137.123 Y51.743 Z0 F800
G1 X137.369 Y51.806 Z0 F800
G1 X137.604 Y51.892 Z0 F800
G1 X138.04 Y52.129 Z0 F800
G1 X138.42 Y52.442 Z0 F800
G1 X138.734 Y52.822 Z0 F800
G1 X138.97 Y53.258 Z0 F800
G1 X139.057 Y53.494 Z0 F800
G1 X139.12 Y53.74 Z0 F800
G1 X139.159 Y53.995 Z0 F800
G1 X139.172 Y54.257 Z0 F800
G0 Z3.5 F500
G0 X143.792 Y52.717 Z3.5 
G1 Z0 F500
G1 X146.359 Z0 F800
G0 Z3.5 F500
G0 X136.605 Y51.177 Z3.5 
G1 Z0 F500
G1 Y57.337 Z0 F800
G0 Z3.5 F500
G0 X145.011 Y64.903 Z3.5 
G1 Z0 F500
G1 X144.902 Y64.96 Z0 F800
G1 X144.808 Y65.04 Z0 F800
G1 X144.733 Y65.139 Z0 F800
G1 X144.68 Y65.255 Z0 F800
G1 X144.648 Y65.387 Z0 F800
G1 X144.637 Y65.537 Z0 F800
G1 X144.648 Y65.686 Z0 F800
G1 X144.68 Y65.819 Z0 F800
G1 X144.733 Y65.935 Z0 F800
G1 X144.808 Y66.034 Z0 F800
G1 X144.902 Y66.114 Z0 F800
G1 X145.011 Y66.171 Z0 F800
G1 X145.136 Y66.205 Z0 F800
G1 X145.277 Y66.217 Z0 F800
G1 X145.391 Y66.209 Z0 F800
G1 X145.498 Y66.185 Z0 F800
G1 X145.599 Y66.146 Z0 F800
G1 X145.693 Y66.092 Z0 F800
G1 Y65.905 Z0 F800
G1 X145.601 Y65.978 Z0 F800
G1 X145.503 Y66.03 Z0 F800
G1 X145.398 Y66.061 Z0 F800
G1 X145.287 Y66.071 Z0 F800
G1 X145.182 Y66.062 Z0 F800
G1 X145.089 Y66.037 Z0 F800
G1 X145.01 Y65.994 Z0 F800
G1 X144.943 Y65.934 Z0 F800
G1 X144.854 Y65.766 Z0 F800
G1 X144.824 Y65.537 Z0 F800
G1 X144.854 Y65.308 Z0 F800
G1 X144.943 Y65.14 Z0 F800
G1 X145.01 Y65.08 Z0 F800
G1 X145.089 Y65.038 Z0 F800
G1 X145.182 Y65.012 Z0 F800
G1 X145.287 Y65.003 Z0 F800
G1 X145.398 Y65.014 Z0 F800
G1 X145.503 Y65.044 Z0 F800
G1 X145.601 Y65.096 Z0 F800
G1 X145.693 Y65.169 Z0 F800
G1 Y64.984 Z0 F800
G1 X145.598 Y64.929 Z0 F800
G1 X145.497 Y64.889 Z0 F800
G1 X145.39 Y64.865 Z0 F800
G1 X145.277 Y64.858 Z0 F800
G1 X145.136 Y64.869 Z0 F800
G1 X145.011 Y64.903 Z0 F800
G0 Z3.5 F500
G0 X146.359 Y78.384 Z3.5 
G1 Z0 F500
G1 X141.225 Z0 F800
G0 Z3.5 F500
G0 X144.953 Y90.695 Z3.5 
G1 Z0 F500
G1 X145.237 Z0 F800
G1 X145.361 Y90.71 Z0 F800
G1 X145.449 Y90.755 Z0 F800
G1 X145.501 Y90.83 Z0 F800
G1 X145.518 Y90.936 Z0 F800
G1 X145.501 Y91.043 Z0 F800
G1 X145.449 Y91.117 Z0 F800
G1 X145.361 Y91.161 Z0 F800
G1 X145.237 Y91.175 Z0 F800
G1 X144.953 Z0 F800
G1 Y90.695 Z0 F800
G0 Z3.5 F500
G0 Y91.319 Z3.5 
G1 Z0 F500
G1 X145.215 Z0 F800
G1 X145.328 Y91.331 Z0 F800
G1 X145.408 Y91.368 Z0 F800
G1 X145.456 Y91.429 Z0 F800
G1 X145.472 Y91.517 Z0 F800
G1 X145.456 Y91.603 Z0 F800
G1 X145.408 Y91.665 Z0 F800
G1 X145.328 Y91.702 Z0 F800
G1 X145.215 Y91.714 Z0 F800
G1 X144.953 Z0 F800
G1 Y91.319 Z0 F800
G0 Z3.5 F500
G0 X145.429 Y91.256 Z3.5 
G1 Z0 F500
G1 X145.545 Y91.213 Z0 F800
G1 X145.632 Y91.139 Z0 F800
G1 X145.687 Y91.039 Z0 F800
G1 X145.705 Y90.916 Z0 F800
G1 X145.675 Y90.761 Z0 F800
G1 X145.585 Y90.645 Z0 F800
G1 X145.441 Y90.574 Z0 F800
G1 X145.246 Y90.55 Z0 F800
G1 X144.775 Z0 F800
G1 Y91.86 Z0 F800
G1 X145.228 Z0 F800
G1 X145.408 Y91.839 Z0 F800
G1 X145.541 Y91.775 Z0 F800
G1 X145.623 Y91.673 Z0 F800
G1 X145.65 Y91.536 Z0 F800
G1 X145.636 Y91.428 Z0 F800
G1 X145.594 Y91.345 Z0 F800
G1 X145.525 Y91.287 Z0 F800
G1 X145.429 Y91.256 Z0 F800
G0 Z3.5 F500
G0 X131.883 Y99.184 Z3.5 
G1 Z0 F500
G1 X131.631 Y99.253 Z0 F800
G1 X131.39 Y99.352 Z0 F800
G1 X131.284 Y99.409 Z0 F800
G1 X131.184 Y99.474 Z0 F800
G1 X131.097 Y99.542 Z0 F800
G1 X131.022 Y99.622 Z0 F800
G0 Z3.5 F500
G0 Z3.5 
G1 Z0 F500
G1 X130.687 Y100.12 Z0 F800
G0 Z3.5 F500
G0 Z3.5 
G1 Z0 F500
G1 X130.054 Y99.803 Z0 F800
G0 Z3.5 F500
G0 Z3.5 
G1 Z0 F500
G1 X130.251 Y99.237 Z0 F800
G0 Z3.5 F500
G0 Z3.5 
G1 Z0 F500
G1 X130.269 Y99.128 Z0 F800
G1 X130.272 Y99.018 Z0 F800
G1 X130.263 Y98.899 Z0 F800
G1 X130.245 Y98.781 Z0 F800
G1 X130.179 Y98.528 Z0 F800
G1 X130.084 Y98.285 Z0 F800
G0 Z3.5 F500
G0 Z3.5 
G1 Z0 F500
G1 X129.695 Y98.215 Z0 F800
G0 Z3.5 F500
G0 Z3.5 
G1 Z0 F500
G1 X129.521 Y98.41 Z0 F800
G1 X129.371 Y98.624 Z0 F800
G1 X129.313 Y98.728 Z0 F800
G1 X129.264 Y98.837 Z0 F800
G1 X129.228 Y98.941 Z0 F800
G1 X129.207 Y99.049 Z0 F800
G0 Z3.5 F500
G0 Z3.5 
G1 Z0 F500
G1 X129.195 Y99.649 Z0 F800
G0 Z3.5 F500
G0 Z3.5 
G1 Z0 F500
G1 X128.491 Y99.725 Z0 F800
G0 Z3.5 F500
G0 Z3.5 
G1 Z0 F500
G1 X128.351 Y99.142 Z0 F800
G0 Z3.5 F500
G0 Z3.5 
G1 Z0 F500
G1 X128.307 Y99.041 Z0 F800
G1 X128.25 Y98.947 Z0 F800
G1 X128.178 Y98.851 Z0 F800
G1 X128.099 Y98.761 Z0 F800
G1 X127.907 Y98.584 Z0 F800
G1 X127.696 Y98.432 Z0 F800
G0 Z3.5 F500
G0 Z3.5 
G1 Z0 F500
G1 X127.33 Y98.583 Z0 F800
G0 Z3.5 F500
G0 Z3.5 
G1 Z0 F500
G1 X127.289 Y98.841 Z0 F800
G1 X127.279 Y99.102 Z0 F800
G1 X127.287 Y99.221 Z0 F800
G1 X127.304 Y99.34 Z0 F800
G1 X127.33 Y99.447 Z0 F800
G1 X127.371 Y99.549 Z0 F800
G0 Z3.5 F500
G0 Z3.5 
G1 Z0 F500
G1 X127.685 Y100.06 Z0 F800
G0 Z3.5 F500
G0 Z3.5 
G1 Z0 F500
G1 X127.134 Y100.505 Z0 F800
G0 Z3.5 F500
G0 Z3.5 
G1 Z0 F500
G1 X126.701 Y100.09 Z0 F800
G0 Z3.5 F500
G0 Z3.5 
G1 Z0 F500
G1 X126.61 Y100.028 Z0 F800
G1 X126.511 Y99.98 Z0 F800
G1 X126.399 Y99.938 Z0 F800
G1 X126.284 Y99.905 Z0 F800
G1 X126.026 Y99.86 Z0 F800
G1 X125.766 Y99.846 Z0 F800
G0 Z3.5 F500
G0 Z3.5 
G1 Z0 F500
G1 X125.54 Y100.171 Z0 F800
G0 Z3.5 F500
G0 Z3.5 
G1 Z0 F500
G1 X125.645 Y100.41 Z0 F800
G1 X125.778 Y100.635 Z0 F800
G1 X125.849 Y100.732 Z0 F800
G1 X125.927 Y100.822 Z0 F800
G1 X126.007 Y100.898 Z0 F800
G1 X126.097 Y100.961 Z0 F800
G0 Z3.5 F500
G0 Z3.5 
G1 Z0 F500
G1 X126.637 Y101.222 Z0 F800
G0 Z3.5 F500
G0 Z3.5 
G1 Z0 F500
G1 X126.414 Y101.894 Z0 F800
G0 Z3.5 F500
G0 Z3.5 
G1 Z0 F500
G1 X125.825 Y101.779 Z0 F800
G0 Z3.5 F500
G0 Z3.5 
G1 Z0 F500
G1 X125.715 Y101.776 Z0 F800
G1 X125.606 Y101.79 Z0 F800
G1 X125.489 Y101.815 Z0 F800
G1 X125.375 Y101.85 Z0 F800
G1 X125.134 Y101.951 Z0 F800
G1 X124.907 Y102.08 Z0 F800
G0 Z3.5 F500
G0 Z3.5 
G1 Z0 F500
G1 X124.893 Y102.475 Z0 F800
G0 Z3.5 F500
G0 Z3.5 
G1 Z0 F500
G1 X125.111 Y102.619 Z0 F800
G1 X125.344 Y102.737 Z0 F800
G1 X125.455 Y102.78 Z0 F800
G1 X125.57 Y102.813 Z0 F800
G1 X125.679 Y102.834 Z0 F800
G1 X125.788 Y102.839 Z0 F800
G0 Z3.5 F500
G0 Z3.5 
G1 Z0 F500
G1 X126.384 Y102.765 Z0 F800
G0 Z3.5 F500
G0 Z3.5 
G1 Z0 F500
G1 X126.56 Y103.452 Z0 F800
G0 Z3.5 F500
G0 Z3.5 
G1 Z0 F500
G1 X126.002 Y103.673 Z0 F800
G0 Z3.5 F500
G0 Z3.5 
G1 Z0 F500
G1 X125.908 Y103.731 Z0 F800
G1 X125.823 Y103.801 Z0 F800
G1 X125.739 Y103.885 Z0 F800
G1 X125.661 Y103.976 Z0 F800
G1 X125.513 Y104.192 Z0 F800
G1 X125.392 Y104.423 Z0 F800
G0 Z3.5 F500
G0 Z3.5 
G1 Z0 F500
G1 X125.594 Y104.763 Z0 F800
G0 Z3.5 F500
G0 Z3.5 
G1 Z0 F500
G1 X125.855 Y104.767 Z0 F800
G1 X126.115 Y104.74 Z0 F800
G1 X126.232 Y104.715 Z0 F800
G1 X126.347 Y104.681 Z0 F800
G1 X126.449 Y104.64 Z0 F800
G1 X126.544 Y104.585 Z0 F800
G0 Z3.5 F500
G0 Z3.5 
G1 Z0 F500
G1 X127.005 Y104.201 Z0 F800
G0 Z3.5 F500
G0 Z3.5 
G1 Z0 F500
G1 X127.524 Y104.684 Z0 F800
G0 Z3.5 F500
G0 Z3.5 
G1 Z0 F500
G1 X127.175 Y105.171 Z0 F800
G0 Z3.5 F500
G0 Z3.5 
G1 Z0 F500
G1 X127.127 Y105.27 Z0 F800
G1 X127.093 Y105.375 Z0 F800
G1 X127.068 Y105.492 Z0 F800
G1 X127.052 Y105.611 Z0 F800
G1 X127.044 Y105.872 Z0 F800
G1 X127.067 Y106.132 Z0 F800
G0 Z3.5 F500
G0 Z3.5 
G1 Z0 F500
G1 X127.421 Y106.309 Z0 F800
G0 Z3.5 F500
G0 Z3.5 
G1 Z0 F500
G1 X127.642 Y106.171 Z0 F800
G1 X127.846 Y106.008 Z0 F800
G1 X127.931 Y105.924 Z0 F800
G1 X128.01 Y105.833 Z0 F800
G1 X128.073 Y105.743 Z0 F800
G1 X128.124 Y105.645 Z0 F800
G0 Z3.5 F500
G0 Z3.5 
G1 Z0 F500
G1 X128.304 Y105.073 Z0 F800
G0 Z3.5 F500
G0 Z3.5 
G1 Z0 F500
G1 X129.001 Y105.199 Z0 F800
G0 Z3.5 F500
G0 Z3.5 
G1 Z0 F500
G1 X128.971 Y105.798 Z0 F800
G0 Z3.5 F500
G0 Z3.5 
G1 Z0 F500
G1 X128.985 Y105.907 Z0 F800
G1 X129.013 Y106.013 Z0 F800
G1 X129.055 Y106.125 Z0 F800
G1 X129.106 Y106.234 Z0 F800
G1 X129.24 Y106.458 Z0 F800
G1 X129.4 Y106.664 Z0 F800
G0 Z3.5 F500
G0 Z3.5 
G1 Z0 F500
G1 X129.793 Y106.621 Z0 F800
G0 Z3.5 F500
G0 Z3.5 
G1 Z0 F500
G1 X129.905 Y106.386 Z0 F800
G1 X129.988 Y106.138 Z0 F800
G1 X130.014 Y106.022 Z0 F800
G1 X130.031 Y105.903 Z0 F800
G1 X130.036 Y105.793 Z0 F800
G1 X130.026 Y105.684 Z0 F800
G0 Z3.5 F500
G0 Z3.5 
G1 Z0 F500
G1 X129.868 Y105.105 Z0 F800
G0 Z3.5 F500
G0 Z3.5 
G1 Z0 F500
G1 X130.523 Y104.833 Z0 F800
G0 Z3.5 F500
G0 Z3.5 
G1 Z0 F500
G1 X130.821 Y105.353 Z0 F800
G0 Z3.5 F500
G0 Z3.5 
G1 Z0 F500
G1 X130.891 Y105.438 Z0 F800
G1 X130.973 Y105.512 Z0 F800
G1 X131.069 Y105.584 Z0 F800
G1 X131.17 Y105.648 Z0 F800
G1 X131.404 Y105.763 Z0 F800
G1 X131.65 Y105.85 Z0 F800
G0 Z3.5 F500
G0 Z3.5 
G1 Z0 F500
G1 X131.958 Y105.602 Z0 F800
G0 Z3.5 F500
G0 Z3.5 
G1 Z0 F500
G1 X131.925 Y105.343 Z0 F800
G1 X131.861 Y105.09 Z0 F800
G1 X131.82 Y104.978 Z0 F800
G1 X131.77 Y104.869 Z0 F800
G1 X131.715 Y104.773 Z0 F800
G1 X131.647 Y104.687 Z0 F800
G0 Z3.5 F500
G0 Z3.5 
G1 Z0 F500
G1 X131.201 Y104.285 Z0 F800
G0 Z3.5 F500
G0 Z3.5 
G1 Z0 F500
G1 X131.605 Y103.703 Z0 F800
G0 Z3.5 F500
G0 Z3.5 
G1 Z0 F500
G1 X132.137 Y103.979 Z0 F800
G0 Z3.5 F500
G0 Z3.5 
G1 Z0 F500
G1 X132.242 Y104.013 Z0 F800
G1 X132.351 Y104.031 Z0 F800
G1 X132.47 Y104.039 Z0 F800
G1 X132.59 Z0 F800
G1 X132.849 Y104.009 Z0 F800
G1 X133.103 Y103.949 Z0 F800
G0 Z3.5 F500
G0 Z3.5 
G1 Z0 F500
G1 X133.228 Y103.574 Z0 F800
G0 Z3.5 F500
G0 Z3.5 
G1 Z0 F500
G1 X133.06 Y103.374 Z0 F800
G1 X132.87 Y103.196 Z0 F800
G1 X132.774 Y103.123 Z0 F800
G1 X132.673 Y103.059 Z0 F800
G1 X132.576 Y103.008 Z0 F800
G1 X132.472 Y102.973 Z0 F800
G0 Z3.5 F500
G0 Z3.5 
G1 Z0 F500
G1 X131.88 Y102.875 Z0 F800
G0 Z3.5 F500
G0 Z3.5 
G1 Z0 F500
G1 X131.904 Y102.167 Z0 F800
G0 Z3.5 F500
G0 Z3.5 
G1 Z0 F500
G1 X132.502 Y102.112 Z0 F800
G0 Z3.5 F500
G0 Z3.5 
G1 Z0 F500
G1 X132.608 Y102.083 Z0 F800
G1 X132.709 Y102.04 Z0 F800
G1 X132.814 Y101.982 Z0 F800
G1 X132.914 Y101.917 Z0 F800
G1 X133.117 Y101.752 Z0 F800
G1 X133.298 Y101.565 Z0 F800
G0 Z3.5 F500
G0 Z3.5 
G1 Z0 F500
G1 X133.2 Y101.181 Z0 F800
G0 Z3.5 F500
G0 Z3.5 
G1 Z0 F500
G1 X132.951 Y101.104 Z0 F800
G1 X132.694 Y101.057 Z0 F800
G1 X132.575 Y101.047 Z0 F800
G1 X132.455 Z0 F800
G1 X132.345 Y101.058 Z0 F800
G1 X132.239 Y101.084 Z0 F800
G0 Z3.5 F500
G0 Z3.5 
G1 Z0 F500
G1 X131.688 Y101.323 Z0 F800
G0 Z3.5 F500
G0 Z3.5 
G1 Z0 F500
G1 X131.326 Y100.714 Z0 F800
G0 Z3.5 F500
G0 Z3.5 
G1 Z0 F500
G1 X131.798 Y100.344 Z0 F800
G0 Z3.5 F500
G0 Z3.5 
G1 Z0 F500
G1 X131.872 Y100.262 Z0 F800
G1 X131.934 Y100.171 Z0 F800
G1 X131.991 Y100.066 Z0 F800
G1 X132.04 Y99.957 Z0 F800
G1 X132.121 Y99.709 Z0 F800
G1 X132.173 Y99.453 Z0 F800
G0 Z3.5 F500
G0 Z3.5 
G1 Z0 F500
G1 X131.883 Y99.184 Z0 F800
G0 Z3.5 F500
G0 X130.246 Y101.591 Z3.5 
G1 Z0 F500
G1 X128.094 Y101.516 Z0 F800
G0 Z3.5 F500
G0 Z3.5 
G1 Z0 F500
G1 X127.952 Y101.711 Z0 F800
G1 X127.848 Y101.923 Z0 F800
G1 X127.782 Y102.147 Z0 F800
G1 X127.754 Y102.377 Z0 F800
G1 X127.766 Y102.608 Z0 F800
G1 X127.816 Y102.836 Z0 F800
G1 X127.905 Y103.055 Z0 F800
G1 X128.033 Y103.26 Z0 F800
G0 Z3.5 F500
G0 Z3.5 
G1 Z0 F500
G1 X130.185 Y103.335 Z0 F800
G0 Z3.5 F500
G0 Z3.5 
G1 Z0 F500
G1 X130.327 Y103.14 Z0 F800
G1 X130.432 Y102.928 Z0 F800
G1 X130.497 Y102.704 Z0 F800
G1 X130.525 Y102.474 Z0 F800
G1 X130.513 Y102.242 Z0 F800
G1 X130.463 Y102.014 Z0 F800
G1 X130.374 Y101.796 Z0 F800
G1 X130.246 Y101.591 Z0 F800
G0 Z3.5 F500
G0 X130.036 Y109.538 Z3.5 
G1 Z0 F500
G1 X129.793 Z0 F800
G0 Z3.5 F500
G0 Z3.5 
G1 Z0 F500
G1 X129.4 Z0 F800
G0 Z3.5 F500
G0 Z3.5 
G1 Z0 F500
G1 X128.971 Z0 F800
G0 Z3.5 F500
G0 Z3.5 
G1 Z0 F500
G1 X128.304 Z0 F800
G0 Z3.5 F500
G0 Z3.5 
G1 Z0 F500
G1 X128.124 Z0 F800
G0 Z3.5 F500
G0 Z3.5 
G1 Z0 F500
G1 X127.421 Z0 F800
G0 Z3.5 F500
G0 Z3.5 
G1 Z0 F500
G1 X127.067 Z0 F800
G0 Z3.5 F500
G0 Z3.5 
G1 Z0 F500
G1 X127.043 Z0 F800
G0 Z3.5 F500
G0 Z3.5 
G1 Z0 F500
G1 X127.005 Z0 F800
G0 Z3.5 F500
G0 Z3.5 
G1 Z0 F500
G1 X126.544 Z0 F800
G0 Z3.5 F500
G0 Z3.5 
G1 Z0 F500
G1 X125.594 Z0 F800
G0 Z3.5 F500
G0 Z3.5 
G1 Z0 F500
G1 X125.392 Z0 F800
G0 Z3.5 F500
G0 Z3.5 
G1 Z0 F500
G1 X124.893 Z0 F800
G0 Z3.5 F500
G0 Z3.5 
G1 Z0 F500
G1 Y112.104 Z0 F800
G0 Z3.5 F500
G0 Z3.5 
G1 Z0 F500
G1 X125.392 Z0 F800
G0 Z3.5 F500
G0 Z3.5 
G1 Z0 F500
G1 X125.594 Z0 F800
G0 Z3.5 F500
G0 Z3.5 
G1 Z0 F500
G1 X126.544 Z0 F800
G0 Z3.5 F500
G0 Z3.5 
G1 Z0 F500
G1 X127.005 Z0 F800
G0 Z3.5 F500
G0 Z3.5 
G1 Z0 F500
G1 X127.043 Z0 F800
G0 Z3.5 F500
G0 Z3.5 
G1 Z0 F500
G1 X127.067 Z0 F800
G0 Z3.5 F500
G0 Z3.5 
G1 Z0 F500
G1 X127.421 Z0 F800
G0 Z3.5 F500
G0 Z3.5 
G1 Z0 F500
G1 X128.124 Z0 F800
G0 Z3.5 F500
G0 Z3.5 
G1 Z0 F500
G1 X128.304 Z0 F800
G0 Z3.5 F500
G0 Z3.5 
G1 Z0 F500
G1 X128.971 Z0 F800
G0 Z3.5 F500
G0 Z3.5 
G1 Z0 F500
G1 X129.4 Z0 F800
G0 Z3.5 F500
G0 Z3.5 
G1 Z0 F500
G1 X129.793 Z0 F800
G0 Z3.5 F500
G0 Z3.5 
G1 Z0 F500
G1 X130.036 Z0 F800
G0 Z3.5 F500
G0 Z3.5 
G1 Z0 F500
G1 X130.523 Z0 F800
G0 Z3.5 F500
G0 Z3.5 
G1 Z0 F500
G1 X130.821 Z0 F800
G0 Z3.5 F500
G0 Z3.5 
G1 Z0 F500
G1 X131.65 Z0 F800
G0 Z3.5 F500
G0 Z3.5 
G1 Z0 F500
G1 X131.958 Z0 F800
G0 Z3.5 F500
G0 Z3.5 
G1 Z0 F500
G1 X132.137 Z0 F800
G0 Z3.5 F500
G0 Z3.5 
G1 Z0 F500
G1 X133.103 Z0 F800
G0 Z3.5 F500
G0 Z3.5 
G1 Z0 F500
G1 X133.228 Z0 F800
G0 Z3.5 F500
G0 Z3.5 
G1 Z0 F500
G1 X133.298 Z0 F800
G0 Z3.5 F500
G0 Z3.5 
G1 Z0 F500
G1 Y109.538 Z0 F800
G0 Z3.5 F500
G0 Z3.5 
G1 Z0 F500
G1 X133.228 Z0 F800
G0 Z3.5 F500
G0 Z3.5 
G1 Z0 F500
G1 X133.103 Z0 F800
G0 Z3.5 F500
G0 Z3.5 
G1 Z0 F500
G1 X132.137 Z0 F800
G0 Z3.5 F500
G0 Z3.5 
G1 Z0 F500
G1 X131.958 Z0 F800
G0 Z3.5 F500
G0 Z3.5 
G1 Z0 F500
G1 X131.65 Z0 F800
G0 Z3.5 F500
G0 Z3.5 
G1 Z0 F500
G1 X130.821 Z0 F800
G0 Z3.5 F500
G0 Z3.5 
G1 Z0 F500
G1 X130.523 Z0 F800
G0 Z3.5 F500
G0 Z3.5 
G1 Z0 F500
G1 X130.036 Z0 F800
G0 Z3.5 F500
G0 Z3.5 
G1 Z0 F500
G1 Y112.104 Z0 F800
G0 Z3.5 F500
G0 X129.793 Z3.5 
G1 Z0 F500
G1 Y109.538 Z0 F800
G0 Z3.5 F500
G0 X129.4 Z3.5 
G1 Z0 F500
G1 Y112.104 Z0 F800
G0 Z3.5 F500
G0 X128.971 Z3.5 
G1 Z0 F500
G0 Z3.5 F500
G0 Z3.5 
G1 Z0 F500
G1 Y109.538 Z0 F800
G0 Z3.5 F500
G0 Z3.5 
G1 Z0 F500
G0 Z3.5 F500
G0 X128.304 Z3.5 
G1 Z0 F500
G1 Y112.104 Z0 F800
G0 Z3.5 F500
G0 X128.124 Z3.5 
G1 Z0 F500
G1 Y109.538 Z0 F800
G0 Z3.5 F500
G0 X127.421 Z3.5 
G1 Z0 F500
G1 Y112.104 Z0 F800
G0 Z3.5 F500
G0 X127.067 Z3.5 
G1 Z0 F500
G1 Y109.538 Z0 F800
G0 Z3.5 F500
G0 X127.043 Z3.5 
G1 Z0 F500
G1 Y112.104 Z0 F800
G0 Z3.5 F500
G0 X127.005 Z3.5 
G1 Z0 F500
G1 Y109.538 Z0 F800
G0 Z3.5 F500
G0 X126.544 Z3.5 
G1 Z0 F500
G1 Y112.104 Z0 F800
G0 Z3.5 F500
G0 X125.594 Z3.5 
G1 Z0 F500
G1 Y109.538 Z0 F800
G0 Z3.5 F500
G0 X125.392 Z3.5 
G1 Z0 F500
G1 Y112.104 Z0 F800
G0 Z3.5 F500
G0 X124.893 Z3.5 
G1 Z0 F500
G1 Y115.9 Z0 F800
G0 Z3.5 F500
G0 Y114.463 Z3.5 
G1 Z0 F500
G1 X133.298 Z0 F800
G0 Z3.5 F500
G0 Z3.5 
G1 Z0 F500
G1 X131.502 Y114.762 Z0 F800
G1 Y114.164 Z0 F800
G1 X133.298 Y114.463 Z0 F800
G0 Z3.5 F500
G0 Y115.9 Z3.5 
G1 Z0 F500
G1 Y112.104 Z0 F800
G0 Z3.5 F500
G0 X133.228 Z3.5 
G1 Z0 F500
G1 Y109.538 Z0 F800
G0 Z3.5 F500
G0 X133.103 Z3.5 
G1 Z0 F500
G1 Y112.104 Z0 F800
G0 Z3.5 F500
G0 X132.137 Z3.5 
G1 Z0 F500
G1 Y109.538 Z0 F800
G0 Z3.5 F500
G0 X131.958 Z3.5 
G1 Z0 F500
G1 Y112.104 Z0 F800
G0 Z3.5 F500
G0 X131.65 Z3.5 
G1 Z0 F500
G1 Y109.538 Z0 F800
G0 Z3.5 F500
G0 X130.821 Z3.5 
G1 Z0 F500
G1 Y112.104 Z0 F800
G0 Z3.5 F500
G0 X130.523 Z3.5 
G1 Z0 F500
G1 Y109.538 Z0 F800
G0 Z3.5 F500
G0 X126.69 Y114.164 Z3.5 
G1 Z0 F500
G1 Y114.762 Z0 F800
G1 X124.894 Y114.463 Z0 F800
G1 X126.69 Y114.164 Z0 F800
G0 Z3.5 F500
G0 X126.466 Y117.007 Z3.5 
G1 Z0 F500
G1 X125.316 Z0 F800
G1 X125.899 Z0 F800
G1 Y119.236 Z0 F800
G1 X125.504 Y119.084 Z0 F800
G1 X125.888 Y119.096 Z0 F800
G0 Z3.5 F500
G0 X127.082 Y117.868 Z3.5 
G1 Z0 F500
G1 X127.255 Y118.052 Z0 F800
G1 X127.465 Y118.215 Z0 F800
G1 X127.675 Y118.285 Z0 F800
G1 X127.908 Z0 F800
G1 X128.081 Y118.204 Z0 F800
G1 X128.21 Y118.086 Z0 F800
G1 X128.302 Y117.868 Z0 F800
G1 X128.335 Y117.61 Z0 F800
G1 X128.28 Y117.345 Z0 F800
G1 X128.151 Y117.124 Z0 F800
G1 X127.952 Y116.984 Z0 F800
G1 X127.72 Y116.95 Z0 F800
G1 X127.513 Y117.019 Z0 F800
G1 X127.325 Y117.158 Z0 F800
G1 X127.174 Y117.389 Z0 F800
G1 X127.105 Y117.717 Z0 F800
G1 X127.082 Y118.063 Z0 F800
G1 X127.128 Y118.506 Z0 F800
G1 X127.211 Y118.771 Z0 F800
G1 X127.314 Y118.981 Z0 F800
G1 X127.487 Y119.155 Z0 F800
G1 X127.709 Y119.247 Z0 F800
G1 X127.93 Y119.261 Z0 F800
G1 X128.14 Y119.191 Z0 F800
G1 X128.291 Y119.062 Z0 F800
G0 Z3.5 F500
G0 X129.847 Y119.014 Z3.5 
G1 Z0 F500
G1 X130.034 Y119.155 Z0 F800
G1 X130.278 Y119.261 Z0 F800
G1 X130.473 Z0 F800
G1 X130.683 Y119.202 Z0 F800
G1 X130.856 Y119.062 Z0 F800
G1 X130.937 Y118.878 Z0 F800
G1 X130.974 Y118.657 Z0 F800
G1 X130.915 Y118.458 Z0 F800
G1 X130.716 Y118.307 Z0 F800
G1 X130.499 Y118.192 Z0 F800
G1 X130.311 Y118.156 Z0 F800
G1 X130.171 Z0 F800
G1 X130.348 Z0 F800
G1 X130.532 Y118.133 Z0 F800
G1 X130.716 Y118.063 Z0 F800
G1 X130.915 Y117.912 Z0 F800
G1 X131.007 Y117.772 Z0 F800
G1 X131.044 Y117.61 Z0 F800
G1 X131.033 Y117.437 Z0 F800
G1 X130.996 Y117.297 Z0 F800
G1 X130.882 Y117.135 Z0 F800
G1 X130.716 Y117.031 Z0 F800
G1 X130.51 Y116.973 Z0 F800
G1 X130.289 Z0 F800
G1 X130.079 Y117.031 Z0 F800
G1 X129.87 Y117.147 Z0 F800
G1 X129.743 Y117.264 Z0 F800
G0 Z3.5 F500
G0 X129.15 Y117.158 Z3.5 
G1 Z0 F500
G1 X128.964 Z0 F800
G1 Y116.973 Z0 F800
G1 X129.15 Z0 F800
G1 Y117.158 Z0 F800
G0 Z3.5 F500
G0 X132.183 Y116.961 Z3.5 
G1 Z0 F500
G1 X132.228 Y117.577 Z0 F800
G1 X132.32 Y118.019 Z0 F800
G1 X132.449 Y118.403 Z0 F800
G1 X132.611 Y118.701 Z0 F800
G1 X132.784 Y118.981 Z0 F800
G1 X132.961 Y119.225 Z0 F800
G1 X131.625 Z0 F800
G0 Z3.5 F500
G0 X145.079 Y117.352 Z3.5 
G1 Z0 F500
G1 X144.838 Y116.7 Z0 F800
G1 X145.32 Z0 F800
G1 X145.079 Y117.352 Z0 F800
G0 Z3.5 F500
G0 X144.978 Y117.526 Z3.5 
G1 Z0 F500
G1 X145.179 Z0 F800
G1 X145.679 Y116.216 Z0 F800
G1 X145.494 Z0 F800
G1 X145.375 Y116.553 Z0 F800
G1 X144.785 Z0 F800
G1 X144.665 Y116.216 Z0 F800
G1 X144.478 Z0 F800
G1 X144.978 Y117.526 Z0 F800
G0 Z3.5 F500
G0 X137.095 Y127.902 Z3.5 
G1 Z0 F500
G1 X137.177 Y127.963 Z0 F800
G1 X137.229 Y128.06 Z0 F800
G1 X137.247 Y128.187 Z0 F800
G1 X137.229 Y128.314 Z0 F800
G1 X137.177 Y128.41 Z0 F800
G1 X137.095 Y128.472 Z0 F800
G1 X136.988 Y128.492 Z0 F800
G1 X136.881 Y128.472 Z0 F800
G1 X136.799 Y128.41 Z0 F800
G1 X136.747 Y128.314 Z0 F800
G1 X136.729 Y128.187 Z0 F800
G1 X136.747 Y128.06 Z0 F800
G1 X136.799 Y127.963 Z0 F800
G1 X136.881 Y127.902 Z0 F800
G1 X136.988 Y127.881 Z0 F800
G1 X137.095 Y127.902 Z0 F800
G0 Z3.5 F500
G0 X137.166 Y127.771 Z3.5 
G1 Z0 F500
G1 X136.988 Y127.741 Z0 F800
G1 X136.881 Y127.752 Z0 F800
G1 X136.787 Y127.785 Z0 F800
G1 X136.707 Y127.839 Z0 F800
G1 X136.64 Y127.915 Z0 F800
G1 X136.588 Y128.012 Z0 F800
G1 X136.55 Y128.128 Z0 F800
G1 X136.528 Y128.264 Z0 F800
G1 X136.52 Y128.42 Z0 F800
G1 X136.53 Y128.567 Z0 F800
G1 X136.557 Y128.699 Z0 F800
G1 X136.603 Y128.815 Z0 F800
G1 X136.668 Y128.915 Z0 F800
G1 X136.748 Y128.996 Z0 F800
G1 X136.84 Y129.054 Z0 F800
G1 X136.945 Y129.088 Z0 F800
G1 X137.063 Y129.1 Z0 F800
G1 X137.13 Y129.097 Z0 F800
G1 X137.198 Y129.087 Z0 F800
G1 X137.267 Y129.07 Z0 F800
G1 X137.34 Y129.047 Z0 F800
G1 Y128.886 Z0 F800
G1 X137.273 Y128.914 Z0 F800
G1 X137.205 Y128.934 Z0 F800
G1 X137.137 Y128.947 Z0 F800
G1 X137.07 Y128.951 Z0 F800
G1 X136.916 Y128.921 Z0 F800
G1 X136.802 Y128.832 Z0 F800
G1 X136.73 Y128.684 Z0 F800
G1 X136.697 Y128.475 Z0 F800
G1 X136.755 Y128.542 Z0 F800
G1 X136.826 Y128.592 Z0 F800
G1 X136.909 Y128.622 Z0 F800
G1 X136.998 Y128.632 Z0 F800
G1 X137.175 Y128.602 Z0 F800
G1 X137.31 Y128.513 Z0 F800
G1 X137.396 Y128.371 Z0 F800
G1 X137.425 Y128.187 Z0 F800
G1 X137.395 Y128.005 Z0 F800
G1 X137.306 Y127.863 Z0 F800
G1 X137.166 Y127.771 Z0 F800
G0 Z3.5 F500
G0 X124.029 Y127.151 Z3.5 
G1 Z0 F500
G1 Y129.717 Z0 F800
G0 Z3.5 F500
G0 X111.654 Y129.076 Z3.5 
G1 Z0 F500
G1 Y128.927 Z0 F800
G1 X111.12 Z0 F800
G1 Y128.606 Z0 F800
G1 X111.159 Y128.618 Z0 F800
G1 X111.197 Y128.626 Z0 F800
G1 X111.236 Y128.631 Z0 F800
G1 X111.275 Z0 F800
G1 X111.471 Y128.602 Z0 F800
G1 X111.622 Y128.512 Z0 F800
G1 X111.678 Y128.447 Z0 F800
G1 X111.718 Y128.371 Z0 F800
G1 X111.742 Y128.284 Z0 F800
G1 X111.75 Y128.187 Z0 F800
G1 X111.742 Y128.087 Z0 F800
G1 X111.717 Y127.999 Z0 F800
G1 X111.676 Y127.923 Z0 F800
G1 X111.619 Y127.858 Z0 F800
G1 X111.46 Y127.77 Z0 F800
G1 X111.247 Y127.741 Z0 F800
G1 X111.164 Y127.744 Z0 F800
G1 X111.079 Y127.755 Z0 F800
G1 X110.993 Y127.773 Z0 F800
G1 X110.903 Y127.797 Z0 F800
G1 Y127.975 Z0 F800
G1 X110.983 Y127.938 Z0 F800
G1 X111.066 Y127.911 Z0 F800
G1 X111.152 Y127.896 Z0 F800
G1 X111.244 Y127.89 Z0 F800
G1 X111.38 Y127.91 Z0 F800
G1 X111.484 Y127.97 Z0 F800
G1 X111.551 Y128.064 Z0 F800
G1 X111.573 Y128.187 Z0 F800
G1 X111.551 Y128.309 Z0 F800
G1 X111.484 Y128.403 Z0 F800
G1 X111.38 Y128.463 Z0 F800
G1 X111.244 Y128.483 Z0 F800
G1 X111.173 Y128.479 Z0 F800
G1 X111.102 Y128.467 Z0 F800
G1 X111.031 Y128.447 Z0 F800
G1 X110.958 Y128.418 Z0 F800
G1 Y129.076 Z0 F800
G1 X111.654 Z0 F800
G0 Z3.5 F500
G0 X98.362 Y129.717 Z3.5 
G1 Z0 F500
G1 Y127.151 Z0 F800
G0 Z3.5 F500
G0 X85.714 Y128.223 Z3.5 
G1 Z0 F500
G1 Y128.922 Z0 F800
G1 X85.266 Y128.223 Z0 F800
G1 X85.714 Z0 F800
G0 Z3.5 F500
G0 X85.89 Z3.5 
G1 Z0 F500
G1 X86.077 Z0 F800
G1 Y128.075 Z0 F800
G1 X85.89 Z0 F800
G1 Y127.767 Z0 F800
G1 X85.714 Z0 F800
G1 Y128.075 Z0 F800
G1 X85.122 Z0 F800
G1 Y128.246 Z0 F800
G1 X85.667 Y129.076 Z0 F800
G1 X85.89 Z0 F800
G1 Y128.223 Z0 F800
G0 Z3.5 F500
G0 X72.695 Y129.717 Z3.5 
G1 Z0 F500
G1 Y124.584 Z0 F800
G0 Z3.5 F500
G0 X60.346 Y127.906 Z3.5 
G1 Z0 F500
G1 X60.287 Y127.847 Z0 F800
G1 X60.126 Y127.768 Z0 F800
G1 X59.908 Y127.741 Z0 F800
G1 X59.825 Y127.745 Z0 F800
G1 X59.739 Y127.757 Z0 F800
G1 X59.65 Y127.778 Z0 F800
G1 X59.559 Y127.806 Z0 F800
G1 Y127.977 Z0 F800
G1 X59.636 Y127.939 Z0 F800
G1 X59.72 Y127.912 Z0 F800
G1 X59.81 Y127.896 Z0 F800
G1 X59.903 Y127.89 Z0 F800
G1 X60.05 Y127.907 Z0 F800
G1 X60.157 Y127.956 Z0 F800
G1 X60.223 Y128.037 Z0 F800
G1 X60.244 Y128.147 Z0 F800
G1 X60.224 Y128.25 Z0 F800
G1 X60.163 Y128.328 Z0 F800
G1 X60.066 Y128.377 Z0 F800
G1 X59.938 Y128.394 Z0 F800
G1 X59.785 Z0 F800
G1 Y128.539 Z0 F800
G1 X59.945 Z0 F800
G1 X60.06 Y128.552 Z0 F800
G1 X60.145 Y128.592 Z0 F800
G1 X60.197 Y128.655 Z0 F800
G1 X60.214 Y128.742 Z0 F800
G1 X60.196 Y128.831 Z0 F800
G1 X60.142 Y128.897 Z0 F800
G1 X60.055 Y128.937 Z0 F800
G1 X59.938 Y128.951 Z0 F800
G1 X59.862 Y128.947 Z0 F800
G1 X59.781 Y128.935 Z0 F800
G1 X59.694 Y128.915 Z0 F800
G1 X59.598 Y128.886 Z0 F800
G1 Y129.044 Z0 F800
G1 X59.696 Y129.068 Z0 F800
G1 X59.787 Y129.086 Z0 F800
G1 X59.873 Y129.096 Z0 F800
G1 X59.953 Y129.1 Z0 F800
G1 X60.134 Y129.077 Z0 F800
G1 X60.273 Y129.008 Z0 F800
G1 X60.361 Y128.901 Z0 F800
G1 X60.39 Y128.761 Z0 F800
G1 X60.375 Y128.66 Z0 F800
G1 X60.328 Y128.577 Z0 F800
G1 X60.252 Y128.513 Z0 F800
G1 X60.151 Y128.473 Z0 F800
G1 X60.264 Y128.431 Z0 F800
G1 X60.349 Y128.36 Z0 F800
G1 X60.403 Y128.263 Z0 F800
G1 X60.421 Y128.147 Z0 F800
G1 X60.412 Y128.056 Z0 F800
G1 X60.387 Y127.975 Z0 F800
G1 X60.346 Y127.906 Z0 F800
G0 Z3.5 F500
G0 X47.028 Y127.151 Z3.5 
G1 Z0 F500
G1 Y129.717 Z0 F800
G0 Z3.5 F500
G0 X34.729 Y128.726 Z3.5 
G1 Z0 F500
G1 X34.722 Y128.648 Z0 F800
G1 X34.699 Y128.573 Z0 F800
G1 X34.656 Y128.494 Z0 F800
G1 X34.589 Y128.403 Z0 F800
G1 X34.449 Y128.256 Z0 F800
G1 X34.118 Y127.916 Z0 F800
G1 X34.736 Z0 F800
G1 Y127.767 Z0 F800
G1 X33.905 Z0 F800
G1 Y127.916 Z0 F800
G1 X34.321 Y128.341 Z0 F800
G1 X34.398 Y128.423 Z0 F800
G1 X34.471 Y128.511 Z0 F800
G1 X34.517 Y128.585 Z0 F800
G1 X34.543 Y128.65 Z0 F800
G1 X34.551 Y128.715 Z0 F800
G1 X34.533 Y128.81 Z0 F800
G1 X34.478 Y128.885 Z0 F800
G1 X34.393 Y128.934 Z0 F800
G1 X34.287 Y128.951 Z0 F800
G1 X34.201 Y128.944 Z0 F800
G1 X34.111 Y128.922 Z0 F800
G1 X34.015 Y128.886 Z0 F800
G1 X33.913 Y128.834 Z0 F800
G1 Y129.013 Z0 F800
G1 X34.017 Y129.051 Z0 F800
G1 X34.113 Y129.078 Z0 F800
G1 X34.202 Y129.094 Z0 F800
G1 X34.284 Y129.1 Z0 F800
G1 X34.466 Y129.075 Z0 F800
G1 X34.608 Y128.998 Z0 F800
G1 X34.699 Y128.879 Z0 F800
G1 X34.729 Y128.726 Z0 F800
G0 Z3.5 F500
G0 X21.362 Y129.717 Z3.5 
G1 Z0 F500
G1 Y127.151 Z0 F800
G0 Z3.5 F500
G0 X9.101 Y127.767 Z3.5 
G1 Z0 F500
G1 X8.347 Z0 F800
G1 Y127.916 Z0 F800
G1 X8.636 Z0 F800
G1 Y128.915 Z0 F800
G1 X8.321 Y128.852 Z0 F800
G1 Y129.013 Z0 F800
G1 X8.635 Y129.076 Z0 F800
G1 X8.812 Z0 F800
G1 Y127.916 Z0 F800
G1 X9.101 Z0 F800
G1 Y127.767 Z0 F800
G0 Z3.5 F500
G0 X16.906 Y119.302 Z3.5 
G1 Z0 F500
G1 Y108.266 Z0 F800
G0 Z3.5 F500
G0 X17.206 Y110.062 Z3.5 
G1 Z0 F500
G1 X16.906 Y111.859 Z0 F800
G1 X16.607 Y110.062 Z0 F800
G1 X17.206 Z0 F800
G0 Z3.5 F500
G0 X18.119 Y111.859 Z3.5 
G1 Z0 F500
G1 X21.666 Z0 F800
G0 Z3.5 F500
G0 Z3.5 
G1 Z0 F500
G1 Y114.426 Z0 F800
G0 Z3.5 F500
G0 Z3.5 
G1 Z0 F500
G1 X21.922 Z0 F800
G0 Z3.5 F500
G0 Z3.5 
G1 Z0 F500
G1 Y111.859 Z0 F800
G0 Z3.5 F500
G0 Z3.5 
G1 Z0 F500
G1 X21.666 Z0 F800
G0 Z3.5 F500
G0 Z3.5 
G1 Z0 F500
G1 X21.152 Y112.372 Z0 F800
G0 Z3.5 F500
G0 Z3.5 
G1 Z0 F500
G1 Y113.912 Z0 F800
G0 Z3.5 F500
G0 Z3.5 
G1 Z0 F500
G1 X21.666 Y114.426 Z0 F800
G0 Z3.5 F500
G0 Z3.5 
G1 Z0 F500
G1 X19.916 Z0 F800
G0 Z3.5 F500
G0 Z3.5 
G1 Z0 F500
G1 X20.128 Y113.912 Z0 F800
G0 Z3.5 F500
G0 Z3.5 
G1 Z0 F500
G1 X21.152 Z0 F800
G0 Z3.5 F500
G0 X20.686 Y114.426 Z3.5 
G1 Z0 F500
G1 Y115.196 Z0 F800
G0 Z3.5 F500
G0 Z3.5 
G1 Z0 F500
G1 X20.172 Y115.709 Z0 F800
G0 Z3.5 F500
G0 Z3.5 
G1 Z0 F500
G1 Y114.426 Z0 F800
G0 Z3.5 F500
G0 X19.916 Z3.5 
G1 Z0 F500
G1 X18.119 Y112.629 Z0 F800
G0 Z3.5 F500
G0 Z3.5 
G1 Z0 F500
G1 X18.632 Y112.416 Z0 F800
G0 Z3.5 F500
G0 Z3.5 
G1 Z0 F500
G1 X20.128 Y113.912 Z0 F800
G0 Z3.5 F500
G0 X21.922 Y114.426 Z3.5 
G1 Z0 F500
G1 X23.392 Z0 F800
G0 Z3.5 F500
G0 Z3.5 
G1 Z0 F500
G1 Y111.859 Z0 F800
G0 Z3.5 F500
G0 Z3.5 
G1 Z0 F500
G1 X21.922 Z0 F800
G0 Z3.5 F500
G0 X21.152 Y112.372 Z3.5 
G1 Z0 F500
G1 X18.632 Z0 F800
G0 Z3.5 F500
G0 Z3.5 
G1 Z0 F500
G1 X18.119 Y111.859 Z0 F800
G0 Z3.5 F500
G0 Z3.5 
G1 Z0 F500
G1 Y112.629 Z0 F800
G0 Z3.5 F500
G0 X18.632 Y112.416 Z3.5 
G1 Z0 F500
G1 Y112.372 Z0 F800
G0 Z3.5 F500
G0 X15.469 Y111.859 Z3.5 
G1 Z0 F500
G1 X29.104 Z0 F800
G0 Z3.5 F500
G0 X30.644 Y112.372 Z3.5 
G1 Z0 F500
G1 X31.158 Y111.859 Z0 F800
G0 Z3.5 F500
G0 Z3.5 
G1 Z0 F500
G1 X23.392 Z0 F800
G0 Z3.5 F500
G0 Y112.372 Z3.5 
G1 Z0 F500
G1 X30.644 Z0 F800
G0 Z3.5 F500
G0 Z3.5 
G1 Z0 F500
G1 Y112.416 Z0 F800
G0 Z3.5 F500
G0 Z3.5 
G1 Z0 F500
G1 X31.158 Y112.629 Z0 F800
G0 Z3.5 F500
G0 Z3.5 
G1 Z0 F500
G1 Y111.859 Z0 F800
G0 Z3.5 F500
G0 X30.644 Y112.416 Z3.5 
G1 Z0 F500
G1 X29.148 Y113.912 Z0 F800
G0 Z3.5 F500
G0 Z3.5 
G1 Z0 F500
G1 X29.361 Y114.426 Z0 F800
G0 Z3.5 F500
G0 Z3.5 
G1 Z0 F500
G1 X31.158 Y112.629 Z0 F800
G0 Z3.5 F500
G0 X29.148 Y113.912 Z3.5 
G1 Z0 F500
G1 X28.591 Z0 F800
G0 Z3.5 F500
G0 Z3.5 
G1 Z0 F500
G1 X29.104 Y114.426 Z0 F800
G0 Z3.5 F500
G0 Z3.5 
G1 Z0 F500
G1 X29.361 Z0 F800
G0 Z3.5 F500
G0 X29.104 Z3.5 
G1 Z0 F500
G1 Y115.709 Z0 F800
G0 Z3.5 F500
G0 Z3.5 
G1 Z0 F500
G1 X20.172 Z0 F800
G0 Z3.5 F500
G0 X20.686 Y115.196 Z3.5 
G1 Z0 F500
G1 X28.591 Z0 F800
G0 Z3.5 F500
G0 Z3.5 
G1 Z0 F500
G1 X29.104 Y115.709 Z0 F800
G0 Z3.5 F500
G0 Z3.5 
G1 Z0 F500
G1 X15.469 Z0 F800
G0 Z3.5 F500
G0 X16.906 Z3.5 
G1 Z0 F500
G1 X17.206 Y117.506 Z0 F800
G1 X16.607 Z0 F800
G1 X16.906 Y115.709 Z0 F800
G0 Z3.5 F500
G0 X14.082 Y114.368 Z3.5 
G1 Z0 F500
G1 X14.215 Y114.527 Z0 F800
G1 X14.313 Y114.697 Z0 F800
G1 X14.386 Y114.89 Z0 F800
G1 X14.398 Y115.076 Z0 F800
G1 X14.325 Y115.354 Z0 F800
G1 X14.167 Y115.547 Z0 F800
G1 X13.937 Y115.705 Z0 F800
G1 X13.667 Y115.767 Z0 F800
G1 X13.35 Y115.733 Z0 F800
G1 X13.106 Y115.597 Z0 F800
G1 X12.948 Y115.319 Z0 F800
G1 X12.925 Y115.037 Z0 F800
G1 X12.975 Y114.832 Z0 F800
G1 X13.083 Y114.623 Z0 F800
G1 X13.048 Y114.6 Z0 F800
G1 X12.024 Y114.674 Z0 F800
G1 Y115.671 Z0 F800
G0 Z3.5 F500
G0 X14.179 Y113.746 Z3.5 
G1 Z0 F500
G1 Y113.551 Z0 F800
G1 X14.373 Z0 F800
G1 Y113.746 Z0 F800
G1 X14.179 Z0 F800
G0 Z3.5 F500
G0 X14.386 Y112.092 Z3.5 
G1 Z0 F500
G1 X13.74 Y112.139 Z0 F800
G1 X13.276 Y112.235 Z0 F800
G1 X12.874 Y112.37 Z0 F800
G1 X12.561 Y112.54 Z0 F800
G1 X12.268 Y112.722 Z0 F800
G1 X12.013 Y112.908 Z0 F800
G1 Y111.507 Z0 F800
G0 Z3.5 F500
G0 X6.732 Y104.05 Z3.5 
G1 Z0 F500
G1 X4.165 Z0 F800
G0 Z3.5 F500
G0 X16.727 Y90.663 Z3.5 
G1 Z0 F500
G1 X16.877 Y90.576 Z0 F800
G0 Z3.5 F500
G0 Z3.5 
G1 Z0 F500
G1 X27.767 Y84.289 Z0 F800
G0 Z3.5 F500
G0 Z3.5 
G1 Z0 F500
G1 X34.083 Y87.935 Z0 F800
G0 Z3.5 F500
G0 Z3.5 
G1 Z0 F500
G1 X34.146 Y87.882 Z0 F800
G1 X34.194 Y87.807 Z0 F800
G1 X34.223 Y87.713 Z0 F800
G1 X34.233 Y87.603 Z0 F800
G0 Z3.5 F500
G0 Z3.5 
G1 Z0 F500
G1 X34.194 Y87.353 Z0 F800
G1 X34.083 Y87.097 Z0 F800
G0 Z3.5 F500
G0 Z3.5 
G1 Z0 F500
G1 X28.493 Y83.87 Z0 F800
G0 Z3.5 F500
G0 Z3.5 
G1 Z0 F500
G1 X27.767 Y84.289 Z0 F800
G0 Z3.5 F500
G0 X28.493 Y83.87 Z3.5 
G1 Z0 F500
G1 Y82.822 Z0 F800
G0 Z3.5 F500
G0 Z3.5 
G1 Z0 F500
G1 X27.767 Y83.241 Z0 F800
G0 Z3.5 F500
G0 Z3.5 
G1 Z0 F500
G1 X27.585 Y83.136 Z0 F800
G0 Z3.5 F500
G0 Z3.5 
G1 Z0 F500
G1 X65.683 Y61.14 Z0 F800
G0 Z3.5 F500
G0 Z3.5 
G1 Z0 F500
G1 X65.725 Y61.115 Z0 F800
G1 X65.811 Y61.052 Z0 F800
G1 X65.899 Y60.978 Z0 F800
G1 X65.984 Y60.895 Z0 F800
G1 X66.042 Y60.829 Z0 F800
G1 X66.095 Y60.763 Z0 F800
G1 X66.154 Y60.678 Z0 F800
G1 X66.177 Y60.637 Z0 F800
G1 X66.196 Y60.598 Z0 F800
G0 Z3.5 F500
G0 Z3.5 
G1 Z0 F500
G1 X66.921 Y61.016 Z0 F800
G0 Z3.5 F500
G0 Z3.5 
G1 Z0 F500
G1 X67.032 Y61.273 Z0 F800
G1 X67.071 Y61.522 Z0 F800
G0 Z3.5 F500
G0 Z3.5 
G1 Z0 F500
G1 X67.061 Y61.632 Z0 F800
G1 X67.032 Y61.726 Z0 F800
G1 X66.984 Y61.802 Z0 F800
G1 X66.921 Y61.855 Z0 F800
G0 Z3.5 F500
G0 Z3.5 
G1 Z0 F500
G1 X67.102 Y61.959 Z0 F800
G0 Z3.5 F500
G0 Z3.5 
G1 Z0 F500
G1 Y59.864 Z0 F800
G0 Z3.5 F500
G0 Z3.5 
G1 Z0 F500
G1 X67.071 Y59.846 Z0 F800
G0 Z3.5 F500
G0 X66.921 Y59.759 Z3.5 
G1 Z0 F500
G1 X67.071 Y59.672 Z0 F800
G0 Z3.5 F500
G0 Z3.5 
G1 Z0 F500
G1 Y61.522 Z0 F800
G0 Z3.5 F500
G0 X66.921 Y61.855 Z3.5 
G1 Z0 F500
G1 X65.683 Y61.14 Z0 F800
G0 Z3.5 F500
G0 Z3.5 
G1 Z0 F500
G1 X64.413 Y58.94 Z0 F800
G0 Z3.5 F500
G0 Z3.5 
G1 Z0 F500
G1 X26.315 Y80.936 Z0 F800
G0 Z3.5 F500
G0 Z3.5 
G1 Z0 F500
G1 X15.425 Y87.223 Z0 F800
G0 Z3.5 F500
G0 Z3.5 
G1 Z0 F500
G1 X15.314 Y87.306 Z0 F800
G1 X15.275 Y87.381 Z0 F800
G0 Z3.5 F500
G0 Z3.5 
G1 Z0 F500
G1 Y87.396 Z0 F800
G1 X15.282 Y87.409 Z0 F800
G0 Z3.5 F500
G0 Z3.5 
G1 Z0 F500
G1 X16.463 Y89.454 Z0 F800
G0 Z3.5 F500
G0 Z3.5 
G1 Z0 F500
G1 X16.472 Y89.465 Z0 F800
G1 X16.483 Y89.474 Z0 F800
G0 Z3.5 F500
G0 Z3.5 
G1 Z0 F500
G1 X16.568 Y89.478 Z0 F800
G1 X16.696 Y89.423 Z0 F800
G0 Z3.5 F500
G0 Z3.5 
G1 Z0 F500
G1 X27.585 Y83.136 Z0 F800
G0 Z3.5 F500
G0 Z3.5 
G1 Z0 F500
G1 X27.767 Y83.241 Z0 F800
G0 Z3.5 F500
G0 Z3.5 
G1 Z0 F500
G1 X16.877 Y89.528 Z0 F800
G0 Z3.5 F500
G0 Z3.5 
G1 Z0 F500
G1 X16.727 Y89.615 Z0 F800
G0 Z3.5 F500
G0 Z3.5 
G1 Z0 F500
G1 X16.483 Y89.474 Z0 F800
G0 Z3.5 F500
G0 X16.696 Y89.423 Z3.5 
G1 Z0 F500
G1 X16.877 Y89.528 Z0 F800
G0 Z3.5 F500
G0 X16.727 Y89.615 Z3.5 
G1 Z0 F500
G1 Y90.663 Z0 F800
G0 Z3.5 F500
G0 Z3.5 
G1 Z0 F500
G1 X22.83 Y94.186 Z0 F800
G0 Z3.5 F500
G0 Z3.5 
G1 Z0 F500
G1 X22.93 Y94.233 Z0 F800
G1 X23.026 Y94.254 Z0 F800
G1 X23.115 Y94.251 Z0 F800
G1 X23.193 Y94.222 Z0 F800
G0 Z3.5 F500
G0 Z3.5 
G1 Z0 F500
G1 X34.083 Y87.935 Z0 F800
G0 Z3.5 F500
G0 X34.233 Y87.603 Z3.5 
G1 Z0 F500
G1 Y86.555 Z0 F800
G0 Z3.5 F500
G0 Z3.5 
G1 Z0 F500
G1 X34.194 Y86.306 Z0 F800
G1 X34.083 Y86.049 Z0 F800
G0 Z3.5 F500
G0 Z3.5 
G1 Z0 F500
G1 X34.477 Y86.277 Z0 F800
G0 Z3.5 F500
G0 Z3.5 
G1 Z0 F500
G1 X35.535 Y85.666 Z0 F800
G0 Z3.5 F500
G0 Z3.5 
G1 Z0 F500
G1 X35.646 Y85.829 Z0 F800
G1 X35.685 Y85.998 Z0 F800
G0 Z3.5 F500
G0 Z3.5 
G1 Z0 F500
G1 X35.675 Y86.078 Z0 F800
G1 X35.646 Y86.149 Z0 F800
G1 X35.598 Y86.21 Z0 F800
G1 X35.535 Y86.259 Z0 F800
G0 Z3.5 F500
G0 Z3.5 
G1 Z0 F500
G1 X34.264 Y86.992 Z0 F800
G0 Z3.5 F500
G0 Z3.5 
G1 Z0 F500
G1 X34.233 Y87.01 Z0 F800
G0 Z3.5 F500
G0 X34.264 Y86.992 Z3.5 
G1 Z0 F500
G1 X35.535 Y86.259 Z0 F800
G0 Z3.5 F500
G0 X35.685 Y85.998 Z3.5 
G1 Z0 F500
G1 Y85.543 Z0 F800
G0 Z3.5 F500
G0 Z3.5 
G1 Z0 F500
G1 X35.535 Y85.63 Z0 F800
G0 Z3.5 F500
G0 Z3.5 
G1 Z0 F500
G1 X31.327 Y83.201 Z0 F800
G0 Z3.5 F500
G0 Y83.027 Z3.5 
G1 Z0 F500
G1 X35.685 Y85.543 Z0 F800
G0 Z3.5 F500
G0 X35.535 Y85.63 Z3.5 
G1 Z0 F500
G1 Y85.666 Z0 F800
G0 Z3.5 F500
G0 X34.083 Y86.049 Z3.5 
G1 Z0 F500
G1 Y87.097 Z0 F800
G0 Z3.5 F500
G0 X34.233 Y86.974 Z3.5 
G1 Z0 F500
G1 X34.264 Y86.992 Z0 F800
G0 Z3.5 F500
G0 X29.11 Y87.16 Z3.5 
G1 Z0 F500
G1 X28.77 Y87.03 Z0 F800
G1 X28.384 Y86.986 Z0 F800
G1 X27.997 Y87.03 Z0 F800
G1 X27.658 Y87.16 Z0 F800
G0 Z3.5 F500
G0 Z3.5 
G1 Z0 F500
G1 X27.526 Y87.253 Z0 F800
G1 X27.432 Y87.356 Z0 F800
G1 X27.376 Y87.466 Z0 F800
G1 X27.357 Y87.579 Z0 F800
G1 X27.376 Y87.692 Z0 F800
G1 X27.432 Y87.802 Z0 F800
G1 X27.526 Y87.905 Z0 F800
G1 X27.658 Y87.998 Z0 F800
G1 X27.997 Y88.128 Z0 F800
G1 X28.384 Y88.172 Z0 F800
G1 X28.77 Y88.128 Z0 F800
G1 X29.11 Y87.998 Z0 F800
G0 Z3.5 F500
G0 Z3.5 
G1 Z0 F500
G1 X29.241 Y87.905 Z0 F800
G1 X29.335 Y87.802 Z0 F800
G1 X29.392 Y87.692 Z0 F800
G1 X29.41 Y87.579 Z0 F800
G1 X29.392 Y87.466 Z0 F800
G1 X29.335 Y87.356 Z0 F800
G1 X29.241 Y87.253 Z0 F800
G1 X29.11 Y87.16 Z0 F800
G0 Z3.5 F500
G0 X28.955 Y87.086 Z3.5 
G1 Z0 F500
G1 X29.027 Y87.182 Z0 F800
G1 X29.051 Y87.286 Z0 F800
G0 Z3.5 F500
G0 Z3.5 
G1 Z0 F500
G1 X29.038 Y87.361 Z0 F800
G1 X29 Y87.433 Z0 F800
G1 X28.939 Y87.499 Z0 F800
G1 X28.856 Y87.558 Z0 F800
G0 Z3.5 F500
G0 Z3.5 
G1 Z0 F500
G1 X28.697 Y87.626 Z0 F800
G1 X28.514 Y87.663 Z0 F800
G1 X28.32 Y87.669 Z0 F800
G1 X28.128 Y87.641 Z0 F800
G1 X27.959 Y87.583 Z0 F800
G1 X27.829 Y87.5 Z0 F800
G1 X27.746 Y87.399 Z0 F800
G1 X27.716 Y87.286 Z0 F800
G0 Z3.5 F500
G0 Z3.5 
G1 Z0 F500
G1 X27.741 Y87.182 Z0 F800
G1 X27.812 Y87.086 Z0 F800
G0 Z3.5 F500
G0 X29.367 Y83.746 Z3.5 
G1 Z0 F500
G1 X28.602 Y83.277 Z0 F800
G0 Z3.5 F500
G0 X29.367 Y83.746 Z3.5 
G1 Z0 F500
G1 X29.52 Y83.658 Z0 F800
G0 Z3.5 F500
G0 Z3.5 
G1 Z0 F500
G1 X30.938 Y84.039 Z0 F800
G0 Z3.5 F500
G0 Z3.5 
G1 Z0 F500
G1 X31.327 Y83.815 Z0 F800
G0 Z3.5 F500
G0 Z3.5 
G1 Z0 F500
G1 Y82.915 Z0 F800
G0 Z3.5 F500
G0 X30.971 Y82.82 Z3.5 
G1 Z0 F500
G1 X32.389 Y83.201 Z0 F800
G0 Z3.5 F500
G0 Z3.5 
G1 Z0 F500
G1 X32.778 Y82.977 Z0 F800
G0 Z3.5 F500
G0 Z3.5 
G1 Z0 F500
G1 Y82.078 Z0 F800
G0 Z3.5 F500
G0 X32.422 Y81.982 Z3.5 
G1 Z0 F500
G1 X33.84 Y82.363 Z0 F800
G0 Z3.5 F500
G0 Z3.5 
G1 Z0 F500
G1 X34.23 Y82.139 Z0 F800
G0 Z3.5 F500
G0 Z3.5 
G1 Z0 F500
G1 Y81.24 Z0 F800
G0 Z3.5 F500
G0 X33.874 Y81.144 Z3.5 
G1 Z0 F500
G1 X35.292 Y81.526 Z0 F800
G0 Z3.5 F500
G0 Z3.5 
G1 Z0 F500
G1 X35.681 Y81.301 Z0 F800
G0 Z3.5 F500
G0 Z3.5 
G1 Z0 F500
G1 Y80.402 Z0 F800
G0 Z3.5 F500
G0 X35.325 Y80.306 Z3.5 
G1 Z0 F500
G1 X36.743 Y80.688 Z0 F800
G0 Z3.5 F500
G0 Z3.5 
G1 Z0 F500
G1 X37.132 Y80.463 Z0 F800
G0 Z3.5 F500
G0 Z3.5 
G1 Z0 F500
G1 Y79.564 Z0 F800
G0 Z3.5 F500
G0 X36.776 Y79.468 Z3.5 
G1 Z0 F500
G1 X38.194 Y79.85 Z0 F800
G0 Z3.5 F500
G0 Z3.5 
G1 Z0 F500
G1 X38.584 Y79.625 Z0 F800
G0 Z3.5 F500
G0 Z3.5 
G1 Z0 F500
G1 Y78.726 Z0 F800
G0 Z3.5 F500
G0 X38.228 Y78.63 Z3.5 
G1 Z0 F500
G1 X39.646 Y79.012 Z0 F800
G0 Z3.5 F500
G0 Z3.5 
G1 Z0 F500
G1 X40.035 Y78.787 Z0 F800
G0 Z3.5 F500
G0 Z3.5 
G1 Z0 F500
G1 Y77.888 Z0 F800
G0 Z3.5 F500
G0 X39.679 Y77.792 Z3.5 
G1 Z0 F500
G1 X41.097 Y78.174 Z0 F800
G0 Z3.5 F500
G0 Z3.5 
G1 Z0 F500
G1 X41.486 Y77.949 Z0 F800
G0 Z3.5 F500
G0 Z3.5 
G1 Z0 F500
G1 Y77.05 Z0 F800
G0 Z3.5 F500
G0 X41.131 Y76.954 Z3.5 
G1 Z0 F500
G1 X42.548 Y77.336 Z0 F800
G0 Z3.5 F500
G0 Z3.5 
G1 Z0 F500
G1 X42.938 Y77.111 Z0 F800
G0 Z3.5 F500
G0 Z3.5 
G1 Z0 F500
G1 Y76.212 Z0 F800
G0 Z3.5 F500
G0 X42.582 Y76.116 Z3.5 
G1 Z0 F500
G1 X44 Y76.498 Z0 F800
G0 Z3.5 F500
G0 Z3.5 
G1 Z0 F500
G1 X44.389 Y76.273 Z0 F800
G0 Z3.5 F500
G0 Z3.5 
G1 Z0 F500
G1 Y75.374 Z0 F800
G0 Z3.5 F500
G0 X44.033 Y75.278 Z3.5 
G1 Z0 F500
G1 X45.451 Y75.66 Z0 F800
G0 Z3.5 F500
G0 Z3.5 
G1 Z0 F500
G1 X45.84 Y75.435 Z0 F800
G0 Z3.5 F500
G0 Z3.5 
G1 Z0 F500
G1 Y74.536 Z0 F800
G0 Z3.5 F500
G0 X45.485 Y74.44 Z3.5 
G1 Z0 F500
G1 X46.902 Y74.822 Z0 F800
G0 Z3.5 F500
G0 Z3.5 
G1 Z0 F500
G1 X47.292 Y74.597 Z0 F800
G0 Z3.5 F500
G0 Z3.5 
G1 Z0 F500
G1 Y73.698 Z0 F800
G0 Z3.5 F500
G0 X46.936 Y73.602 Z3.5 
G1 Z0 F500
G1 X48.354 Y73.984 Z0 F800
G0 Z3.5 F500
G0 Z3.5 
G1 Z0 F500
G1 X48.743 Y73.759 Z0 F800
G0 Z3.5 F500
G0 Z3.5 
G1 Z0 F500
G1 Y72.86 Z0 F800
G0 Z3.5 F500
G0 X48.387 Y72.764 Z3.5 
G1 Z0 F500
G1 X49.805 Y73.146 Z0 F800
G0 Z3.5 F500
G0 Z3.5 
G1 Z0 F500
G1 X50.194 Y72.921 Z0 F800
G0 Z3.5 F500
G0 Z3.5 
G1 Z0 F500
G1 Y72.022 Z0 F800
G0 Z3.5 F500
G0 X49.839 Y71.927 Z3.5 
G1 Z0 F500
G1 X51.256 Y72.308 Z0 F800
G0 Z3.5 F500
G0 Z3.5 
G1 Z0 F500
G1 X51.646 Y72.083 Z0 F800
G0 Z3.5 F500
G0 Z3.5 
G1 Z0 F500
G1 Y71.184 Z0 F800
G0 Z3.5 F500
G0 X51.29 Y71.089 Z3.5 
G1 Z0 F500
G1 X52.708 Y71.47 Z0 F800
G0 Z3.5 F500
G0 Z3.5 
G1 Z0 F500
G1 X53.097 Y71.246 Z0 F800
G0 Z3.5 F500
G0 Z3.5 
G1 Z0 F500
G1 Y70.346 Z0 F800
G0 Z3.5 F500
G0 X52.741 Y70.251 Z3.5 
G1 Z0 F500
G1 X54.159 Y70.632 Z0 F800
G0 Z3.5 F500
G0 Z3.5 
G1 Z0 F500
G1 X54.548 Y70.408 Z0 F800
G0 Z3.5 F500
G0 Z3.5 
G1 Z0 F500
G1 Y69.509 Z0 F800
G0 Z3.5 F500
G0 X54.193 Y69.413 Z3.5 
G1 Z0 F500
G1 X55.61 Y69.794 Z0 F800
G0 Z3.5 F500
G0 Z3.5 
G1 Z0 F500
G1 X56 Y69.57 Z0 F800
G0 Z3.5 F500
G0 Z3.5 
G1 Z0 F500
G1 Y68.671 Z0 F800
G0 Z3.5 F500
G0 X55.644 Y68.575 Z3.5 
G1 Z0 F500
G1 X57.062 Y68.957 Z0 F800
G0 Z3.5 F500
G0 Z3.5 
G1 Z0 F500
G1 X57.451 Y68.732 Z0 F800
G0 Z3.5 F500
G0 Z3.5 
G1 Z0 F500
G1 Y67.833 Z0 F800
G0 Z3.5 F500
G0 X57.095 Y67.737 Z3.5 
G1 Z0 F500
G1 X58.513 Y68.119 Z0 F800
G0 Z3.5 F500
G0 Z3.5 
G1 Z0 F500
G1 X58.902 Y67.894 Z0 F800
G0 Z3.5 F500
G0 Z3.5 
G1 Z0 F500
G1 Y66.995 Z0 F800
G0 Z3.5 F500
G0 X58.547 Y66.899 Z3.5 
G1 Z0 F500
G1 X59.964 Y67.281 Z0 F800
G0 Z3.5 F500
G0 Z3.5 
G1 Z0 F500
G1 X60.354 Y67.056 Z0 F800
G0 Z3.5 F500
G0 Z3.5 
G1 Z0 F500
G1 Y66.157 Z0 F800
G0 Z3.5 F500
G0 X59.998 Y66.061 Z3.5 
G1 Z0 F500
G1 X61.416 Y66.443 Z0 F800
G0 Z3.5 F500
G0 Z3.5 
G1 Z0 F500
G1 X61.805 Y66.218 Z0 F800
G0 Z3.5 F500
G0 Z3.5 
G1 Z0 F500
G1 Y65.319 Z0 F800
G0 Z3.5 F500
G0 X61.449 Y65.223 Z3.5 
G1 Z0 F500
G1 X62.867 Y65.605 Z0 F800
G0 Z3.5 F500
G0 Z3.5 
G1 Z0 F500
G1 X63.257 Y65.38 Z0 F800
G0 Z3.5 F500
G0 Z3.5 
G1 Z0 F500
G1 Y64.481 Z0 F800
G0 Z3.5 F500
G0 X62.901 Y64.385 Z3.5 
G1 Z0 F500
G1 X64.318 Y64.767 Z0 F800
G0 Z3.5 F500
G0 Z3.5 
G1 Z0 F500
G1 X64.708 Y64.542 Z0 F800
G0 Z3.5 F500
G0 Z3.5 
G1 Z0 F500
G1 Y63.643 Z0 F800
G0 Z3.5 F500
G0 X64.352 Y63.547 Z3.5 
G1 Z0 F500
G1 X65.77 Y63.929 Z0 F800
G0 Z3.5 F500
G0 Z3.5 
G1 Z0 F500
G1 X66.159 Y63.704 Z0 F800
G0 Z3.5 F500
G0 Z3.5 
G1 Z0 F500
G1 Y62.805 Z0 F800
G0 Z3.5 F500
G0 X65.803 Y62.709 Z3.5 
G1 Z0 F500
G1 X67.221 Y63.091 Z0 F800
G0 Z3.5 F500
G0 Z3.5 
G1 Z0 F500
G1 X67.611 Y62.866 Z0 F800
G0 Z3.5 F500
G0 Z3.5 
G1 Z0 F500
G1 Y60.77 Z0 F800
G0 Z3.5 F500
G0 Z3.5 
G1 Z0 F500
G1 X67.102 Y60.141 Z0 F800
G0 Z3.5 F500
G0 X66.921 Y59.759 Z3.5 
G1 Z0 F500
G1 Y61.016 Z0 F800
G0 Z3.5 F500
G0 X66.196 Y60.598 Z3.5 
G1 Z0 F500
G1 X65.139 Y58.766 Z0 F800
G0 Z3.5 F500
G0 Z3.5 
G1 Z0 F500
G1 X65.096 Y58.763 Z0 F800
G1 X65.049 Z0 F800
G1 X64.945 Y58.771 Z0 F800
G1 X64.862 Y58.784 Z0 F800
G1 X64.776 Y58.802 Z0 F800
G1 X64.661 Y58.834 Z0 F800
G1 X64.553 Y58.873 Z0 F800
G1 X64.456 Y58.917 Z0 F800
G1 X64.413 Y58.94 Z0 F800
G0 Z3.5 F500
G0 Z3.5 
G1 Z0 F500
G1 Y58.311 Z0 F800
G0 Z3.5 F500
G0 Z3.5 
G1 Z0 F500
G1 X26.315 Y80.307 Z0 F800
G0 Z3.5 F500
G0 Z3.5 
G1 Z0 F500
G1 X15.425 Y86.594 Z0 F800
G0 Z3.5 F500
G0 Z3.5 
G1 Z0 F500
G1 X15.362 Y86.647 Z0 F800
G1 X15.314 Y86.722 Z0 F800
G1 X15.285 Y86.816 Z0 F800
G1 X15.275 Y86.926 Z0 F800
G0 Z3.5 F500
G0 Z3.5 
G1 Z0 F500
G1 Y87.381 Z0 F800
G0 Z3.5 F500
G0 X21.85 Y90.513 Z3.5 
G1 Z0 F500
G1 X21.719 Y90.606 Z0 F800
G1 X21.625 Y90.709 Z0 F800
G1 X21.568 Y90.819 Z0 F800
G1 X21.549 Y90.932 Z0 F800
G1 X21.568 Y91.045 Z0 F800
G1 X21.625 Y91.155 Z0 F800
G1 X21.719 Y91.258 Z0 F800
G1 X21.85 Y91.351 Z0 F800
G1 X22.19 Y91.481 Z0 F800
G1 X22.576 Y91.525 Z0 F800
G1 X22.962 Y91.481 Z0 F800
G1 X23.302 Y91.351 Z0 F800
G0 Z3.5 F500
G0 Z3.5 
G1 Z0 F500
G1 X23.434 Y91.258 Z0 F800
G1 X23.528 Y91.155 Z0 F800
G1 X23.584 Y91.045 Z0 F800
G1 X23.603 Y90.932 Z0 F800
G1 X23.584 Y90.819 Z0 F800
G1 X23.528 Y90.709 Z0 F800
G1 X23.434 Y90.606 Z0 F800
G1 X23.302 Y90.513 Z0 F800
G0 Z3.5 F500
G0 Z3.5 
G1 Z0 F500
G1 X22.962 Y90.383 Z0 F800
G1 X22.576 Y90.339 Z0 F800
G1 X22.19 Y90.383 Z0 F800
G1 X21.85 Y90.513 Z0 F800
G0 Z3.5 F500
G0 X22.005 Y90.44 Z3.5 
G1 Z0 F500
G1 X21.933 Y90.535 Z0 F800
G1 X21.909 Y90.639 Z0 F800
G0 Z3.5 F500
G0 Z3.5 
G1 Z0 F500
G1 X21.938 Y90.752 Z0 F800
G1 X22.021 Y90.853 Z0 F800
G1 X22.151 Y90.936 Z0 F800
G1 X22.321 Y90.995 Z0 F800
G1 X22.513 Y91.022 Z0 F800
G1 X22.706 Y91.017 Z0 F800
G1 X22.889 Y90.979 Z0 F800
G1 X23.048 Y90.911 Z0 F800
G0 Z3.5 F500
G0 Z3.5 
G1 Z0 F500
G1 X23.131 Y90.852 Z0 F800
G1 X23.193 Y90.786 Z0 F800
G1 X23.23 Y90.714 Z0 F800
G1 X23.243 Y90.639 Z0 F800
G0 Z3.5 F500
G0 Z3.5 
G1 Z0 F500
G1 X23.219 Y90.535 Z0 F800
G1 X23.147 Y90.44 Z0 F800
G0 Z3.5 F500
G0 X31.327 Y83.815 Z3.5 
G1 Z0 F500
G1 X30.666 Y82.996 Z0 F800
G0 Z3.5 F500
G0 Z3.5 
G1 Z0 F500
G1 X30.971 Y82.82 Z0 F800
G0 Z3.5 F500
G0 X32.117 Y82.158 Z3.5 
G1 Z0 F500
G1 X32.422 Y81.982 Z0 F800
G0 Z3.5 F500
G0 X32.117 Y82.158 Z3.5 
G1 Z0 F500
G1 X32.778 Y82.977 Z0 F800
G0 Z3.5 F500
G0 X34.23 Y82.139 Z3.5 
G1 Z0 F500
G1 X33.568 Y81.32 Z0 F800
G0 Z3.5 F500
G0 Z3.5 
G1 Z0 F500
G1 X33.874 Y81.144 Z0 F800
G0 Z3.5 F500
G0 X35.02 Y80.482 Z3.5 
G1 Z0 F500
G1 X35.325 Y80.306 Z0 F800
G0 Z3.5 F500
G0 X35.02 Y80.482 Z3.5 
G1 Z0 F500
G1 X35.681 Y81.301 Z0 F800
G0 Z3.5 F500
G0 X37.132 Y80.463 Z3.5 
G1 Z0 F500
G1 X36.471 Y79.644 Z0 F800
G0 Z3.5 F500
G0 Z3.5 
G1 Z0 F500
G1 X36.776 Y79.468 Z0 F800
G0 Z3.5 F500
G0 X37.923 Y78.806 Z3.5 
G1 Z0 F500
G1 X38.228 Y78.63 Z0 F800
G0 Z3.5 F500
G0 X37.923 Y78.806 Z3.5 
G1 Z0 F500
G1 X38.584 Y79.625 Z0 F800
G0 Z3.5 F500
G0 X40.035 Y78.787 Z3.5 
G1 Z0 F500
G1 X39.374 Y77.968 Z0 F800
G0 Z3.5 F500
G0 Z3.5 
G1 Z0 F500
G1 X39.679 Y77.792 Z0 F800
G0 Z3.5 F500
G0 X40.825 Y77.13 Z3.5 
G1 Z0 F500
G1 X41.131 Y76.954 Z0 F800
G0 Z3.5 F500
G0 X40.825 Y77.13 Z3.5 
G1 Z0 F500
G1 X41.486 Y77.949 Z0 F800
G0 Z3.5 F500
G0 X42.938 Y77.111 Z3.5 
G1 Z0 F500
G1 X42.277 Y76.292 Z0 F800
G0 Z3.5 F500
G0 Z3.5 
G1 Z0 F500
G1 X42.582 Y76.116 Z0 F800
G0 Z3.5 F500
G0 X43.728 Y75.455 Z3.5 
G1 Z0 F500
G1 X44.033 Y75.278 Z0 F800
G0 Z3.5 F500
G0 X43.728 Y75.455 Z3.5 
G1 Z0 F500
G1 X44.389 Y76.273 Z0 F800
G0 Z3.5 F500
G0 X45.84 Y75.435 Z3.5 
G1 Z0 F500
G1 X45.179 Y74.617 Z0 F800
G0 Z3.5 F500
G0 Z3.5 
G1 Z0 F500
G1 X45.485 Y74.44 Z0 F800
G0 Z3.5 F500
G0 X46.631 Y73.779 Z3.5 
G1 Z0 F500
G1 X46.936 Y73.602 Z0 F800
G0 Z3.5 F500
G0 X46.631 Y73.779 Z3.5 
G1 Z0 F500
G1 X47.292 Y74.597 Z0 F800
G0 Z3.5 F500
G0 X48.743 Y73.759 Z3.5 
G1 Z0 F500
G1 X48.082 Y72.941 Z0 F800
G0 Z3.5 F500
G0 Z3.5 
G1 Z0 F500
G1 X48.387 Y72.764 Z0 F800
G0 Z3.5 F500
G0 X49.533 Y72.103 Z3.5 
G1 Z0 F500
G1 X49.839 Y71.927 Z0 F800
G0 Z3.5 F500
G0 X49.533 Y72.103 Z3.5 
G1 Z0 F500
G1 X50.194 Y72.921 Z0 F800
G0 Z3.5 F500
G0 X51.646 Y72.083 Z3.5 
G1 Z0 F500
G1 X50.985 Y71.265 Z0 F800
G0 Z3.5 F500
G0 Z3.5 
G1 Z0 F500
G1 X51.29 Y71.089 Z0 F800
G0 Z3.5 F500
G0 X52.436 Y70.427 Z3.5 
G1 Z0 F500
G1 X52.741 Y70.251 Z0 F800
G0 Z3.5 F500
G0 X52.436 Y70.427 Z3.5 
G1 Z0 F500
G1 X53.097 Y71.246 Z0 F800
G0 Z3.5 F500
G0 X54.548 Y70.408 Z3.5 
G1 Z0 F500
G1 X53.887 Y69.589 Z0 F800
G0 Z3.5 F500
G0 Z3.5 
G1 Z0 F500
G1 X54.193 Y69.413 Z0 F800
G0 Z3.5 F500
G0 X55.339 Y68.751 Z3.5 
G1 Z0 F500
G1 X55.644 Y68.575 Z0 F800
G0 Z3.5 F500
G0 X55.339 Y68.751 Z3.5 
G1 Z0 F500
G1 X56 Y69.57 Z0 F800
G0 Z3.5 F500
G0 X57.451 Y68.732 Z3.5 
G1 Z0 F500
G1 X56.79 Y67.913 Z0 F800
G0 Z3.5 F500
G0 Z3.5 
G1 Z0 F500
G1 X57.095 Y67.737 Z0 F800
G0 Z3.5 F500
G0 X58.241 Y67.075 Z3.5 
G1 Z0 F500
G1 X58.547 Y66.899 Z0 F800
G0 Z3.5 F500
G0 X58.241 Y67.075 Z3.5 
G1 Z0 F500
G1 X58.902 Y67.894 Z0 F800
G0 Z3.5 F500
G0 X60.354 Y67.056 Z3.5 
G1 Z0 F500
G1 X59.693 Y66.237 Z0 F800
G0 Z3.5 F500
G0 Z3.5 
G1 Z0 F500
G1 X59.998 Y66.061 Z0 F800
G0 Z3.5 F500
G0 X61.144 Y65.399 Z3.5 
G1 Z0 F500
G1 X61.449 Y65.223 Z0 F800
G0 Z3.5 F500
G0 X61.144 Y65.399 Z3.5 
G1 Z0 F500
G1 X61.805 Y66.218 Z0 F800
G0 Z3.5 F500
G0 X63.257 Y65.38 Z3.5 
G1 Z0 F500
G1 X62.595 Y64.561 Z0 F800
G0 Z3.5 F500
G0 Z3.5 
G1 Z0 F500
G1 X62.901 Y64.385 Z0 F800
G0 Z3.5 F500
G0 X64.047 Y63.724 Z3.5 
G1 Z0 F500
G1 X64.352 Y63.547 Z0 F800
G0 Z3.5 F500
G0 X64.047 Y63.724 Z3.5 
G1 Z0 F500
G1 X64.708 Y64.542 Z0 F800
G0 Z3.5 F500
G0 X66.159 Y63.704 Z3.5 
G1 Z0 F500
G1 X65.498 Y62.886 Z0 F800
G0 Z3.5 F500
G0 Z3.5 
G1 Z0 F500
G1 X65.803 Y62.709 Z0 F800
G0 Z3.5 F500
G0 X66.949 Y62.048 Z3.5 
G1 Z0 F500
G1 X67.102 Y61.959 Z0 F800
G0 Z3.5 F500
G0 X66.949 Y62.048 Z3.5 
G1 Z0 F500
G1 X67.611 Y62.866 Z0 F800
G0 Z3.5 F500
G0 X66.921 Y59.759 Z3.5 
G1 Z0 F500
G1 X65.139 Y58.73 Z0 F800
G0 Z3.5 F500
G0 Z3.5 
G1 Z0 F500
G1 X64.972 Y58.506 Z0 F800
G1 X64.776 Y58.347 Z0 F800
G0 Z3.5 F500
G0 Z3.5 
G1 Z0 F500
G1 X67.071 Y59.672 Z0 F800
G0 Z3.5 F500
G0 X65.139 Y58.766 Z3.5 
G1 Z0 F500
G1 Y58.73 Z0 F800
G0 Z3.5 F500
G0 X64.776 Y58.347 Z3.5 
G1 Z0 F500
G1 X64.676 Y58.301 Z0 F800
G1 X64.579 Y58.279 Z0 F800
G1 X64.491 Y58.282 Z0 F800
G1 X64.413 Y58.311 Z0 F800
G0 Z3.5 F500
G0 X67.777 Y45.941 Z3.5 
G1 Z0 F500
G1 X67.634 Y45.957 Z0 F800
G1 X67.41 Y45.926 Z0 F800
G1 X67.171 Y45.814 Z0 F800
G1 X66.947 Y45.524 Z0 F800
G1 X66.799 Y45.233 Z0 F800
G1 Y45.957 Z0 F800
G1 Y43.597 Z0 F800
G0 Z3.5 F500
G0 X63.762 Y43.646 Z3.5 
G1 Z0 F500
G1 X64.664 Z0 F800
G1 X64.954 Y43.677 Z0 F800
G1 X65.352 Y43.838 Z0 F800
G1 X65.576 Y44.031 Z0 F800
G1 X65.708 Y44.336 Z0 F800
G1 Y44.657 Z0 F800
G1 X65.657 Y44.882 Z0 F800
G1 X65.515 Y45.04 Z0 F800
G1 X65.255 Y45.218 Z0 F800
G1 X64.934 Y45.299 Z0 F800
G1 X64.664 Y45.345 Z0 F800
G1 X63.762 Z0 F800
G1 X64.649 Z0 F800
G1 X64.934 Y45.396 Z0 F800
G1 X65.143 Y45.493 Z0 F800
G1 X65.387 Y45.666 Z0 F800
G1 X65.5 Y45.926 Z0 F800
G1 Y46.211 Z0 F800
G1 X65.433 Y46.456 Z0 F800
G1 X65.209 Y46.665 Z0 F800
G1 X64.934 Y46.777 Z0 F800
G1 X64.664 Y46.792 Z0 F800
G1 X63.732 Z0 F800
G1 Y43.646 Z0 F800
G0 Z3.5 F500
G0 X62.463 Y43.581 Z3.5 
G1 Z0 F500
G1 Y45.427 Z0 F800
G1 X62.366 Y45.651 Z0 F800
G1 X62.254 Y45.814 Z0 F800
G1 X62.111 Y45.906 Z0 F800
G1 X61.867 Y45.972 Z0 F800
G1 X61.709 Y45.957 Z0 F800
G1 X61.469 Y45.89 Z0 F800
G1 X61.306 Y45.794 Z0 F800
G1 X61.097 Y45.605 Z0 F800
G1 X60.873 Y45.381 Z0 F800
G1 Y45.957 Z0 F800
G1 Y43.581 Z0 F800
G0 Z3.5 F500
G0 X59.768 Y43.806 Z3.5 
G1 Z0 F500
G1 X59.492 Y43.661 Z0 F800
G1 X59.202 Y43.581 Z0 F800
G1 X58.866 Y43.613 Z0 F800
G1 X58.596 Y43.741 Z0 F800
G1 X58.305 Y44.031 Z0 F800
G1 X58.161 Y44.382 Z0 F800
G1 X58.081 Y44.769 Z0 F800
G1 X58.113 Y45.09 Z0 F800
G1 X58.239 Y45.396 Z0 F800
G1 X58.351 Y45.636 Z0 F800
G1 X58.642 Y45.875 Z0 F800
G1 X58.978 Y45.972 Z0 F800
G1 X59.314 Y45.957 Z0 F800
G1 X59.559 Y45.794 Z0 F800
G1 X59.798 Y45.508 Z0 F800
G1 X59.88 Y45.136 Z0 F800
G1 Y44.851 Z0 F800
G1 X58.113 Z0 F800
G0 Z3.5 F500
G0 X55.447 Y43.982 Z3.5 
G1 Z0 F500
G1 X55.707 Y43.806 Z0 F800
G1 X55.977 Y43.661 Z0 F800
G1 X56.221 Y43.613 Z0 F800
G1 X56.522 Y43.629 Z0 F800
G1 X56.716 Y43.726 Z0 F800
G1 X56.975 Y43.966 Z0 F800
G1 X57.149 Y44.336 Z0 F800
G1 X57.2 Y44.688 Z0 F800
G1 Y45.106 Z0 F800
G1 X57.088 Y45.473 Z0 F800
G1 X56.863 Y45.794 Z0 F800
G1 X56.604 Y45.941 Z0 F800
G1 X56.267 Z0 F800
G1 X55.992 Y45.89 Z0 F800
G1 X55.671 Y45.717 Z0 F800
G1 X55.401 Y45.442 Z0 F800
G1 Y45.957 Z0 F800
G1 Y42.507 Z0 F800
G0 Z3.5 F500
G0 X55.436 Y41.159 Z3.5 
G1 Z0 F500
G1 Y40.855 Z0 F800
G1 X55.759 Z0 F800
G1 X55.239 Z0 F800
G1 X55.436 Z0 F800
G1 Y40.161 Z0 F800
G1 X55.449 Y40.012 Z0 F800
G1 X55.524 Y39.924 Z0 F800
G1 X55.609 Y39.897 Z0 F800
G1 X55.706 Z0 F800
G1 X55.779 Y39.931 Z0 F800
G0 Z3.5 F500
G0 X54.686 Y39.89 Z3.5 
G1 Z0 F500
G1 Y40.882 Z0 F800
G1 Y40.578 Z0 F800
G1 X54.748 Y40.7 Z0 F800
G1 X54.843 Y40.823 Z0 F800
G1 X54.943 Y40.87 Z0 F800
G1 X55.037 Y40.882 Z0 F800
G1 X55.097 Y40.876 Z0 F800
G0 Z3.5 F500
G0 X54.153 Y40.484 Z3.5 
G1 Z0 F500
G1 X54.093 Z0 F800
G1 X54.018 Y40.478 Z0 F800
G1 X53.896 Y40.458 Z0 F800
G1 X53.767 Y40.418 Z0 F800
G1 X53.66 Y40.377 Z0 F800
G1 X53.553 Y40.289 Z0 F800
G1 X53.505 Y40.188 Z0 F800
G1 Y40.059 Z0 F800
G1 X53.566 Y39.971 Z0 F800
G1 X53.647 Y39.917 Z0 F800
G1 X53.748 Y39.884 Z0 F800
G1 X53.87 Y39.904 Z0 F800
G1 X53.977 Y39.951 Z0 F800
G1 X54.071 Y40.019 Z0 F800
G1 X54.159 Y40.079 Z0 F800
G1 X54.166 Y39.897 Z0 F800
G1 Y40.531 Z0 F800
G1 X54.159 Y40.679 Z0 F800
G1 X54.106 Y40.788 Z0 F800
G1 X54.024 Y40.861 Z0 F800
G1 X53.93 Y40.895 Z0 F800
G1 X53.808 Y40.882 Z0 F800
G1 X53.688 Y40.848 Z0 F800
G1 X53.547 Y40.767 Z0 F800
G0 Z3.5 F500
G0 X52.336 Y40.518 Z3.5 
G1 Z0 F500
G1 X52.662 Z0 F800
G1 X52.822 Y40.525 Z0 F800
G1 X52.964 Y40.578 Z0 F800
G1 X53.065 Y40.66 Z0 F800
G1 X53.12 Y40.795 Z0 F800
G1 X53.127 Y40.917 Z0 F800
G1 X53.099 Y41.052 Z0 F800
G1 X53.032 Y41.14 Z0 F800
G1 X52.945 Y41.206 Z0 F800
G1 X52.822 Y41.24 Z0 F800
G1 X52.343 Z0 F800
G1 Y39.884 Z0 F800
G0 Z3.5 F500
G0 X52.347 Y38.737 Z3.5 
G1 Z0 F500
G1 X52.883 Y37.673 Z0 F800
G1 Y36.97 Z0 F800
G1 Y37.682 Z0 F800
G1 X53.41 Y38.728 Z0 F800
G0 Z3.5 F500
G0 X53.7 Y37.637 Z3.5 
G1 Z0 F500
G1 X54.27 Z0 F800
G0 Z3.5 F500
G0 X54.817 Y36.961 Z3.5 
G1 Z0 F500
G1 Y38.254 Z0 F800
G1 Y37.858 Z0 F800
G1 X54.898 Y38.017 Z0 F800
G1 X55.02 Y38.176 Z0 F800
G1 X55.152 Y38.237 Z0 F800
G1 X55.274 Y38.254 Z0 F800
G1 X55.352 Y38.245 Z0 F800
G0 Z3.5 F500
G0 X55.732 Y38.103 Z3.5 
G1 Z0 F500
G1 X55.916 Y38.209 Z0 F800
G1 X56.073 Y38.254 Z0 F800
G1 X56.232 Y38.271 Z0 F800
G1 X56.354 Y38.226 Z0 F800
G1 X56.46 Y38.131 Z0 F800
G1 X56.53 Y37.989 Z0 F800
G1 X56.539 Y37.796 Z0 F800
G1 Y36.97 Z0 F800
G1 X56.53 Y37.207 Z0 F800
G1 X56.416 Y37.129 Z0 F800
G1 X56.293 Y37.04 Z0 F800
G1 X56.153 Y36.979 Z0 F800
G1 X55.994 Y36.953 Z0 F800
G1 X55.863 Y36.997 Z0 F800
G1 X55.757 Y37.067 Z0 F800
G1 X55.678 Y37.181 Z0 F800
G1 Y37.35 Z0 F800
G1 X55.74 Y37.481 Z0 F800
G1 X55.88 Y37.595 Z0 F800
G1 X56.019 Y37.648 Z0 F800
G1 X56.187 Y37.701 Z0 F800
G1 X56.346 Y37.726 Z0 F800
G1 X56.444 Y37.735 Z0 F800
G1 X56.522 Z0 F800
G0 Z3.5 F500
G0 X57.973 Y38.123 Z3.5 
G1 Z0 F500
G1 X57.928 Y38.176 Z0 F800
G1 X57.822 Y38.226 Z0 F800
G1 X57.666 Y38.254 Z0 F800
G1 X57.482 Y38.226 Z0 F800
G1 X57.314 Y38.131 Z0 F800
G1 X57.172 Y37.964 Z0 F800
G1 X57.103 Y37.751 Z0 F800
G1 Y37.523 Z0 F800
G1 X57.147 Y37.305 Z0 F800
G1 X57.261 Y37.12 Z0 F800
G1 X57.462 Y36.988 Z0 F800
G1 X57.658 Y36.961 Z0 F800
G1 X57.867 Y37.005 Z0 F800
G1 X58.009 Y37.111 Z0 F800
G0 Z3.5 F500
G0 X58.517 Y36.953 Z3.5 
G1 Z0 F500
G1 Y38.912 Z0 F800
G0 Z3.5 F500
G0 X59.29 Y38.245 Z3.5 
G1 Z0 F500
G1 X58.526 Y37.322 Z0 F800
G0 Z3.5 F500
G0 X58.886 Y37.763 Z3.5 
G1 Z0 F500
G1 X59.388 Y36.953 Z0 F800
G0 Z3.5 F500
G0 X59.129 Y35.193 Z3.5 
G1 Z0 F500
G1 X59.072 Y35.217 Z0 F800
G1 X58.992 Y35.228 Z0 F800
G1 X58.9 Y35.193 Z0 F800
G1 X58.84 Y35.099 Z0 F800
G1 X58.82 Y35.008 Z0 F800
G1 Y34.736 Z0 F800
G1 X59.06 Z0 F800
G1 X58.679 Z0 F800
G1 X58.826 Z0 F800
G1 Y33.851 Z0 F800
G0 Z3.5 F500
G0 X58.328 Y33.845 Z3.5 
G1 Z0 F500
G1 Y34.553 Z0 F800
G1 X58.291 Y34.638 Z0 F800
G1 X58.248 Y34.701 Z0 F800
G1 X58.193 Y34.736 Z0 F800
G1 X58.099 Y34.762 Z0 F800
G1 X58.039 Y34.756 Z0 F800
G1 X57.947 Y34.73 Z0 F800
G1 X57.885 Y34.693 Z0 F800
G1 X57.805 Y34.621 Z0 F800
G1 X57.719 Y34.535 Z0 F800
G1 Y34.756 Z0 F800
G1 Y33.845 Z0 F800
G0 Z3.5 F500
G0 X57.226 Z3.5 
G1 Z0 F500
G1 Y34.75 Z0 F800
G0 Z3.5 F500
G0 X57.269 Y35.027 Z3.5 
G1 Z0 F500
G1 Y35.125 Z0 F800
G1 X57.171 Z0 F800
G1 Y35.027 Z0 F800
G1 X57.269 Z0 F800
G0 Z3.5 F500
G0 X56.065 Y33.931 Z3.5 
G1 Z0 F500
G1 X55.959 Y33.876 Z0 F800
G1 X55.848 Y33.845 Z0 F800
G1 X55.719 Y33.858 Z0 F800
G1 X55.615 Y33.907 Z0 F800
G1 X55.504 Y34.017 Z0 F800
G1 X55.449 Y34.152 Z0 F800
G1 X55.418 Y34.301 Z0 F800
G1 X55.43 Y34.424 Z0 F800
G1 X55.479 Y34.541 Z0 F800
G1 X55.522 Y34.633 Z0 F800
G1 X55.633 Y34.724 Z0 F800
G1 X55.762 Y34.762 Z0 F800
G1 X55.891 Y34.756 Z0 F800
G1 X55.984 Y34.693 Z0 F800
G1 X56.076 Y34.584 Z0 F800
G1 X56.108 Y34.441 Z0 F800
G1 Y34.332 Z0 F800
G1 X55.43 Z0 F800
G0 Z3.5 F500
G0 X55.221 Y34.75 Z3.5 
G1 Z0 F500
G1 X55.166 Y34.756 Z0 F800
G1 X55.08 Y34.744 Z0 F800
G1 X54.989 Y34.701 Z0 F800
G1 X54.903 Y34.59 Z0 F800
G1 X54.846 Y34.478 Z0 F800
G1 Y34.756 Z0 F800
G1 Y33.851 Z0 F800
G0 Z3.5 F500
G0 X54.305 Y33.962 Z3.5 
G1 Z0 F500
G1 X54.377 Y34.086 Z0 F800
G1 X54.409 Y34.221 Z0 F800
G1 X54.414 Y34.349 Z0 F800
G1 X54.397 Y34.467 Z0 F800
G1 X54.354 Y34.57 Z0 F800
G1 X54.291 Y34.65 Z0 F800
G1 X54.205 Y34.724 Z0 F800
G1 X54.114 Y34.756 Z0 F800
G1 X54.028 Y34.762 Z0 F800
G1 X53.928 Y34.744 Z0 F800
G1 X53.836 Y34.687 Z0 F800
G1 X53.756 Y34.596 Z0 F800
G1 X53.713 Y34.51 Z0 F800
G1 X53.677 Y34.381 Z0 F800
G1 Y34.281 Z0 F800
G1 X53.689 Y34.166 Z0 F800
G1 X53.719 Y34.06 Z0 F800
G1 X53.793 Y33.962 Z0 F800
G1 X53.879 Y33.894 Z0 F800
G1 X53.973 Y33.858 Z0 F800
G1 X54.059 Y33.851 Z0 F800
G1 X54.065 Z0 F800
G1 X54.188 Y33.882 Z0 F800
G1 X54.305 Y33.962 Z0 F800
G0 Z3.5 F500
G0 X53.227 Y33.851 Z3.5 
G1 Z0 F500
G1 Y35.088 Z0 F800
G1 X53.184 Z0 F800
G1 X52.784 Y34.005 Z0 F800
G1 X52.385 Y35.093 Z0 F800
G1 X52.323 Z0 F800
G1 Y33.845 Z0 F800
G0 Z3.5 F500
G0 X62.27 Y32.468 Z3.5 
G1 Z0 F500
G1 X62.177 Y32.478 Z0 F800
G1 X62.031 Y32.458 Z0 F800
G1 X61.874 Y32.385 Z0 F800
G1 X61.728 Y32.195 Z0 F800
G1 X61.632 Y32.005 Z0 F800
G1 Y32.478 Z0 F800
G1 Y30.937 Z0 F800
G0 Z3.5 F500
G0 X62.733 Y32.458 Z3.5 
G1 Z0 F500
G1 Y31.483 Z0 F800
G1 X62.743 Y31.22 Z0 F800
G1 X62.816 Y31.084 Z0 F800
G1 X62.942 Y30.979 Z0 F800
G1 X63.129 Y30.927 Z0 F800
G1 X63.308 Y30.958 Z0 F800
G1 X63.498 Y31.063 Z0 F800
G1 X63.634 Y31.199 Z0 F800
G1 X63.747 Y31.337 Z0 F800
G1 Y30.937 Z0 F800
G1 Y32.458 Z0 F800
G0 Z3.5 F500
G0 X65.298 Y32.341 Z3.5 
G1 Z0 F500
G1 X65.121 Y32.444 Z0 F800
G1 X64.908 Y32.488 Z0 F800
G1 X64.702 Y32.458 Z0 F800
G1 X64.533 Y32.311 Z0 F800
G1 X64.481 Y32.162 Z0 F800
G1 X64.513 Y32.005 Z0 F800
G1 X64.649 Y31.869 Z0 F800
G1 X64.889 Y31.766 Z0 F800
G1 X65.151 Y31.659 Z0 F800
G1 X65.341 Y31.503 Z0 F800
G1 X65.381 Y31.313 Z0 F800
G1 X65.328 Y31.126 Z0 F800
G1 X65.171 Y31 Z0 F800
G1 X64.962 Y30.927 Z0 F800
G1 X64.795 Y30.948 Z0 F800
G1 X64.586 Y31.01 Z0 F800
G1 X64.396 Y31.136 Z0 F800
G0 Z3.5 F500
G0 X66.02 Y30.948 Z3.5 
G1 Z0 F500
G1 Y33.253 Z0 F800
G1 Y32.088 Z0 F800
G1 X66.176 Y32.258 Z0 F800
G1 X66.312 Y32.385 Z0 F800
G1 X66.512 Y32.468 Z0 F800
G1 X66.712 Y32.488 Z0 F800
G1 X66.941 Y32.361 Z0 F800
G1 X67.024 Y32.215 Z0 F800
G1 X67.068 Y31.975 Z0 F800
G1 Y30.937 Z0 F800
G0 Z3.5 F500
G0 X65.882 Y36.364 Z3.5 
G1 Z0 F500
G1 Y38.254 Z0 F800
G1 Y37.972 Z0 F800
G1 X66.03 Y38.123 Z0 F800
G1 X66.206 Y38.218 Z0 F800
G1 X66.357 Y38.245 Z0 F800
G1 X66.541 Z0 F800
G1 X66.683 Y38.165 Z0 F800
G1 X66.806 Y37.989 Z0 F800
G1 X66.867 Y37.788 Z0 F800
G1 Y37.559 Z0 F800
G1 X66.839 Y37.366 Z0 F800
G1 X66.745 Y37.164 Z0 F800
G1 X66.602 Y37.032 Z0 F800
G1 X66.496 Y36.979 Z0 F800
G1 X66.331 Y36.97 Z0 F800
G1 X66.198 Y36.997 Z0 F800
G1 X66.05 Y37.076 Z0 F800
G1 X65.907 Y37.172 Z0 F800
G0 Z3.5 F500
G0 X65.352 Y37.637 Z3.5 
G1 Z0 F500
G1 X64.782 Z0 F800
