G90 ; Absolutno pozicioniranje
G21 ; Milimetri
;LightBurn 1.6.04
;Custom GCode device profile, absolute coords
;Bounds: X3.85 Y31.63 to X146.15 Y134.37
G00 G17 G40 G21 G54
G90
G1 Z10 F1000
;Cut @ 1500 mm/min, 90% power

M8
G0 Z3.5F1000
G0 X21.061 Y31.629 Z3.500
G1 Z0F1000
;Layer Blue
G1 X21.061 Y34.198 F1800
G0 Z3.5F1000
G0 X46.746 Y34.198 Z3.500
G1 Z0F1000
; --- FIX Y Backlash: -0.900mm ---
G0 X46.746 Y33.298 F1200
G1 X46.746 Y30.729 F1800
G0 Z3.5F1000
; --- FIX Y Backlash: 0.900mm ---
G0 X46.746 Y31.629 F1200
G0 X51.113 Y34.198 Z3.500
G1 Z0F1000
G1 X92.209 Y34.198 F1800
G1 X92.209 Y40.362 F1800
; --- FIX X Backlash: -0.900mm ---
G0 X91.309 Y40.362 F1200
G1 X50.213 Y40.362 F1800
; --- FIX Y Backlash: -0.900mm ---
G0 X50.213 Y39.462 F1200
G1 X50.213 Y33.298 F1800
G0 Z3.5F1000
; --- FIX Y Backlash: 0.900mm ---
G0 X50.213 Y34.198 F1200
G0 X50.213 Y40.362 Z3.500
G1 Z0F1000
; --- FIX X Backlash: 0.900mm ---
G0 X51.113 Y40.362 F1200
G1 X92.209 Y40.362 F1800
G1 X92.209 Y46.527 F1800
; --- FIX X Backlash: -0.900mm ---
G0 X91.309 Y46.527 F1200
G1 X50.213 Y46.527 F1800
; --- FIX Y Backlash: -0.900mm ---
G0 X50.213 Y45.627 F1200
G1 X50.213 Y39.462 F1800
G0 Z3.5F1000
; --- FIX Y Backlash: 0.900mm ---
G0 X50.213 Y40.362 F1200
G0 X50.213 Y46.527 Z3.500
G1 Z0F1000
; --- FIX X Backlash: 0.900mm ---
G0 X51.113 Y46.527 F1200
G1 X92.209 Y46.527 F1800
G1 X92.209 Y52.691 F1800
; --- FIX X Backlash: -0.900mm ---
G0 X91.309 Y52.691 F1200
G1 X50.213 Y52.691 F1800
; --- FIX Y Backlash: -0.900mm ---
G0 X50.213 Y51.791 F1200
G1 X50.213 Y45.627 F1800
G0 Z3.5F1000
; --- FIX X Backlash: 0.900mm ---
G0 X51.113 Y45.627 F1200
G0 X72.431 Y33.812 Z3.500
G1 Z0F1000
G1 X72.431 Y30.729 F1800
G0 Z3.5F1000
; --- FIX Y Backlash: 0.900mm ---
G0 X72.431 Y31.629 F1200
G0 X92.209 Y34.198 Z3.500
G1 Z0F1000
G1 X102.483 Y34.198 F1800
G1 X102.483 Y40.362 F1800
; --- FIX X Backlash: -0.900mm ---
G0 X101.583 Y40.362 F1200
G1 X91.309 Y40.362 F1800
; --- FIX Y Backlash: -0.900mm ---
G0 X91.309 Y39.462 F1200
G1 X91.309 Y33.298 F1800
G0 Z3.5F1000
; --- FIX X Backlash: 0.900mm ---
G0 X92.209 Y33.298 F1200
G0 X98.117 Y33.298 Z3.500
G1 Z0F1000
G1 X98.117 Y30.729 F1800
G0 Z3.5F1000
; --- FIX Y Backlash: 0.900mm ---
G0 X98.117 Y31.629 F1200
G0 X102.483 Y34.198 Z3.500
G1 Z0F1000
G1 X123.032 Y34.198 F1800
G1 X123.032 Y40.362 F1800
; --- FIX X Backlash: -0.900mm ---
G0 X122.132 Y40.362 F1200
G1 X101.583 Y40.362 F1800
; --- FIX Y Backlash: -0.900mm ---
G0 X101.583 Y39.462 F1200
G1 X101.583 Y33.298 F1800
G0 Z3.5F1000
; --- FIX Y Backlash: 0.900mm ---
G0 X101.583 Y34.198 F1200
G0 X91.309 Y40.362 Z3.500
G1 Z0F1000
; --- FIX X Backlash: 0.900mm ---
G0 X92.209 Y40.362 F1200
G1 X123.032 Y40.362 F1800
G1 X123.032 Y46.527 F1800
; --- FIX X Backlash: -0.900mm ---
G0 X122.132 Y46.527 F1200
G1 X91.309 Y46.527 F1800
; --- FIX Y Backlash: -0.900mm ---
G0 X91.309 Y45.627 F1200
G1 X91.309 Y39.462 F1800
G0 Z3.5F1000
; --- FIX Y Backlash: 0.900mm ---
G0 X91.309 Y40.362 F1200
G0 X91.309 Y46.527 Z3.500
G1 Z0F1000
; --- FIX X Backlash: 0.900mm ---
G0 X92.209 Y46.527 F1200
G1 X123.032 Y46.527 F1800
G1 X123.032 Y52.691 F1800
; --- FIX X Backlash: -0.900mm ---
G0 X122.132 Y52.691 F1200
G1 X91.309 Y52.691 F1800
; --- FIX Y Backlash: -0.900mm ---
G0 X91.309 Y51.791 F1200
G1 X91.309 Y45.627 F1800
G0 Z3.5F1000
; --- FIX X Backlash: 0.900mm ---
G0 X92.209 Y45.627 F1200
; --- FIX Y Backlash: 0.900mm ---
G0 X92.209 Y46.527 F1200
G0 X123.032 Y52.691 Z3.500
G1 Z0F1000
; --- FIX Y Backlash: -0.900mm ---
G0 X123.032 Y51.791 F1200
G1 X123.032 Y39.462 F1800
G1 X143.580 Y39.462 F1800
; --- FIX Y Backlash: 0.900mm ---
G0 X143.580 Y40.362 F1200
G1 X143.580 Y52.691 F1800
; --- FIX X Backlash: -0.900mm ---
G0 X142.680 Y52.691 F1200
G1 X122.132 Y52.691 F1800
G0 Z3.5F1000
; --- FIX X Backlash: 0.900mm ---
G0 X123.032 Y52.691 F1200
G0 X127.655 Y57.572 Z3.500
G1 Z0F1000
; --- FIX Y Backlash: -0.900mm ---
G0 X127.655 Y56.672 F1200
G1 X132.792 Y55.387 F1800
; --- FIX Y Backlash: 0.900mm ---
G0 X132.792 Y56.287 F1200
G1 X132.792 Y61.424 F1800
; --- FIX X Backlash: -0.900mm ---
G0 X131.892 Y61.424 F1200
; --- FIX Y Backlash: -0.900mm ---
G0 X131.892 Y60.524 F1200
G1 X126.755 Y59.240 F1800
G1 X126.755 Y56.672 F1800
G0 Z3.5F1000
; --- FIX Y Backlash: 0.900mm ---
G0 X126.755 Y57.572 F1200
G0 X126.241 Y58.856 Z3.500
G1 Z0F1000
; --- FIX X Backlash: 0.900mm ---
G0 X127.141 Y58.856 F1200
G1 X139.470 Y58.856 F1800
G0 Z3.5F1000
; --- FIX X Backlash: -0.900mm ---
G0 X138.570 Y58.856 F1200
G0 X136.772 Y58.856 Z3.500
G1 Z0F1000
G1 X136.746 Y59.115 F1800
G1 X136.671 Y59.356 F1800
G1 X136.553 Y59.574 F1800
G1 X136.396 Y59.764 F1800
G1 X136.206 Y59.921 F1800
G1 X135.988 Y60.039 F1800
G1 X135.747 Y60.114 F1800
G1 X135.488 Y60.140 F1800
G1 X135.229 Y60.114 F1800
; --- FIX Y Backlash: -0.900mm ---
G0 X135.229 Y59.214 F1200
G1 X134.988 Y59.139 F1800
G1 X134.770 Y59.021 F1800
G1 X134.580 Y58.864 F1800
G1 X134.423 Y58.674 F1800
G1 X134.305 Y58.456 F1800
G1 X134.230 Y58.215 F1800
G1 X134.204 Y57.956 F1800
G1 X134.230 Y57.697 F1800
; --- FIX X Backlash: 0.900mm ---
G0 X135.130 Y57.697 F1200
G1 X135.205 Y57.456 F1800
G1 X135.323 Y57.238 F1800
G1 X135.480 Y57.048 F1800
G1 X135.670 Y56.891 F1800
G1 X135.888 Y56.772 F1800
G1 X136.129 Y56.698 F1800
G1 X136.388 Y56.672 F1800
G1 X136.647 Y56.698 F1800
; --- FIX Y Backlash: 0.900mm ---
G0 X136.647 Y57.598 F1200
G1 X136.888 Y57.672 F1800
G1 X137.106 Y57.791 F1800
G1 X137.296 Y57.948 F1800
G1 X137.453 Y58.138 F1800
G1 X137.571 Y58.356 F1800
G1 X137.646 Y58.597 F1800
G1 X137.672 Y58.856 F1800
G0 Z3.5F1000
G0 X138.956 Y58.856 Z3.500
G1 Z0F1000
G1 X138.943 Y59.118 F1800
G1 X138.904 Y59.373 F1800
; --- FIX X Backlash: -0.900mm ---
G0 X138.004 Y59.373 F1200
G1 X137.941 Y59.620 F1800
G1 X137.855 Y59.856 F1800
G1 X137.618 Y60.292 F1800
G1 X137.304 Y60.672 F1800
G1 X136.924 Y60.986 F1800
G1 X136.488 Y61.223 F1800
G1 X136.252 Y61.309 F1800
G1 X136.006 Y61.372 F1800
G1 X135.750 Y61.411 F1800
G1 X135.488 Y61.424 F1800
G1 X135.225 Y61.411 F1800
G1 X134.970 Y61.372 F1800
; --- FIX Y Backlash: -0.900mm ---
G0 X134.970 Y60.472 F1200
G1 X134.724 Y60.409 F1800
G1 X134.488 Y60.323 F1800
G1 X134.052 Y60.086 F1800
G1 X133.672 Y59.772 F1800
G1 X133.358 Y59.392 F1800
G1 X133.121 Y58.956 F1800
G1 X133.035 Y58.720 F1800
G1 X132.972 Y58.473 F1800
G1 X132.933 Y58.218 F1800
G1 X132.919 Y57.956 F1800
G1 X132.933 Y57.693 F1800
G1 X132.972 Y57.438 F1800
; --- FIX X Backlash: 0.900mm ---
G0 X133.872 Y57.438 F1200
G1 X133.935 Y57.192 F1800
G1 X134.021 Y56.956 F1800
G1 X134.258 Y56.520 F1800
G1 X134.572 Y56.140 F1800
G1 X134.952 Y55.826 F1800
G1 X135.388 Y55.589 F1800
G1 X135.624 Y55.503 F1800
G1 X135.870 Y55.439 F1800
G1 X136.125 Y55.401 F1800
G1 X136.388 Y55.387 F1800
G1 X136.650 Y55.401 F1800
G1 X136.906 Y55.439 F1800
; --- FIX Y Backlash: 0.900mm ---
G0 X136.906 Y56.339 F1200
G1 X137.152 Y56.403 F1800
G1 X137.388 Y56.489 F1800
G1 X137.824 Y56.726 F1800
G1 X138.204 Y57.040 F1800
G1 X138.518 Y57.420 F1800
G1 X138.755 Y57.856 F1800
G1 X138.841 Y58.092 F1800
G1 X138.904 Y58.338 F1800
G1 X138.943 Y58.593 F1800
G1 X138.956 Y58.856 F1800
G0 Z3.5F1000
; --- FIX Y Backlash: -0.900mm ---
G0 X138.956 Y57.956 F1200
G0 X143.580 Y56.415 Z3.500
G1 Z0F1000
G1 X146.148 Y56.415 F1800
G0 Z3.5F1000
; --- FIX X Backlash: -0.900mm ---
G0 X145.248 Y56.415 F1200
G0 X135.488 Y54.874 Z3.500
G1 Z0F1000
; --- FIX Y Backlash: 0.900mm ---
G0 X135.488 Y55.774 F1200
G1 X135.488 Y61.938 F1800
G0 Z3.5F1000
; --- FIX X Backlash: 0.900mm ---
G0 X136.388 Y61.938 F1200
G0 X144.800 Y69.510 Z3.500
G1 Z0F1000
; --- FIX X Backlash: -0.900mm ---
G0 X143.900 Y69.510 F1200
G1 X143.790 Y69.566 F1800
G1 X143.697 Y69.646 F1800
G1 X143.622 Y69.746 F1800
G1 X143.568 Y69.862 F1800
G1 X143.536 Y69.994 F1800
G1 X143.526 Y70.144 F1800
G1 X143.536 Y70.293 F1800
G1 X143.568 Y70.426 F1800
; --- FIX X Backlash: 0.900mm ---
G0 X144.468 Y70.426 F1200
G1 X144.522 Y70.542 F1800
G1 X144.597 Y70.642 F1800
G1 X144.690 Y70.721 F1800
G1 X144.800 Y70.778 F1800
G1 X144.925 Y70.813 F1800
G1 X145.066 Y70.824 F1800
G1 X145.180 Y70.816 F1800
G1 X145.287 Y70.793 F1800
G1 X145.388 Y70.754 F1800
; --- FIX Y Backlash: -0.900mm ---
G0 X145.388 Y69.854 F1200
G1 X145.483 Y69.799 F1800
G1 X145.483 Y69.612 F1800
; --- FIX X Backlash: -0.900mm ---
G0 X144.583 Y69.612 F1200
; --- FIX Y Backlash: 0.900mm ---
G0 X144.583 Y70.512 F1200
G1 X144.490 Y70.585 F1800
G1 X144.392 Y70.637 F1800
G1 X144.287 Y70.668 F1800
G1 X144.176 Y70.678 F1800
G1 X144.070 Y70.670 F1800
G1 X143.978 Y70.644 F1800
G1 X143.898 Y70.601 F1800
; --- FIX Y Backlash: -0.900mm ---
G0 X143.898 Y69.701 F1200
G1 X143.832 Y69.641 F1800
G1 X143.742 Y69.473 F1800
G1 X143.713 Y69.244 F1800
G1 X143.742 Y69.015 F1800
; --- FIX X Backlash: 0.900mm ---
G0 X144.642 Y69.015 F1200
G1 X144.732 Y68.847 F1800
G1 X144.798 Y68.787 F1800
G1 X144.878 Y68.744 F1800
G1 X144.970 Y68.718 F1800
G1 X145.076 Y68.710 F1800
G1 X145.187 Y68.720 F1800
G1 X145.292 Y68.751 F1800
; --- FIX Y Backlash: 0.900mm ---
G0 X145.292 Y69.651 F1200
G1 X145.390 Y69.703 F1800
G1 X145.483 Y69.776 F1800
; --- FIX Y Backlash: -0.900mm ---
G0 X145.483 Y68.876 F1200
G1 X145.483 Y68.690 F1800
; --- FIX X Backlash: -0.900mm ---
G0 X144.583 Y68.690 F1200
G1 X144.487 Y68.635 F1800
G1 X144.386 Y68.596 F1800
G1 X144.279 Y68.572 F1800
G1 X144.166 Y68.564 F1800
G1 X144.025 Y68.575 F1800
G1 X143.900 Y68.610 F1800
G0 Z3.5F1000
; --- FIX X Backlash: 0.900mm ---
G0 X144.800 Y68.610 F1200
; --- FIX Y Backlash: 0.900mm ---
G0 X144.800 Y69.510 F1200
G0 X146.148 Y83.000 Z3.500
G1 Z0F1000
; --- FIX X Backlash: -0.900mm ---
G0 X145.248 Y83.000 F1200
G1 X140.111 Y83.000 F1800
G0 Z3.5F1000
; --- FIX X Backlash: 0.900mm ---
G0 X141.011 Y83.000 F1200
G0 X144.741 Y95.321 Z3.500
G1 Z0F1000
G1 X145.026 Y95.321 F1800
G1 X145.150 Y95.335 F1800
G1 X145.238 Y95.380 F1800
G1 X145.290 Y95.455 F1800
G1 X145.307 Y95.561 F1800
G1 X145.290 Y95.668 F1800
; --- FIX X Backlash: -0.900mm ---
G0 X144.390 Y95.668 F1200
G1 X144.338 Y95.742 F1800
G1 X144.250 Y95.786 F1800
G1 X144.126 Y95.801 F1800
G1 X143.841 Y95.801 F1800
; --- FIX Y Backlash: -0.900mm ---
G0 X143.841 Y94.901 F1200
G1 X143.841 Y94.421 F1800
G0 Z3.5F1000
; --- FIX Y Backlash: 0.900mm ---
G0 X143.841 Y95.321 F1200
G0 X143.841 Y95.945 Z3.500
G1 Z0F1000
; --- FIX X Backlash: 0.900mm ---
G0 X144.741 Y95.945 F1200
G1 X145.004 Y95.945 F1800
G1 X145.117 Y95.957 F1800
G1 X145.197 Y95.994 F1800
G1 X145.245 Y96.055 F1800
G1 X145.261 Y96.142 F1800
G1 X145.245 Y96.229 F1800
G1 X145.197 Y96.291 F1800
; --- FIX X Backlash: -0.900mm ---
G0 X144.297 Y96.291 F1200
G1 X144.217 Y96.328 F1800
G1 X144.104 Y96.340 F1800
G1 X143.841 Y96.340 F1800
; --- FIX Y Backlash: -0.900mm ---
G0 X143.841 Y95.440 F1200
G1 X143.841 Y95.045 F1800
G0 Z3.5F1000
; --- FIX X Backlash: 0.900mm ---
G0 X144.741 Y95.045 F1200
G0 X145.218 Y94.982 Z3.500
G1 Z0F1000
G1 X145.334 Y94.938 F1800
G1 X145.421 Y94.864 F1800
G1 X145.476 Y94.764 F1800
G1 X145.494 Y94.642 F1800
G1 X145.464 Y94.486 F1800
; --- FIX X Backlash: -0.900mm ---
G0 X144.564 Y94.486 F1200
G1 X144.474 Y94.370 F1800
G1 X144.330 Y94.299 F1800
G1 X144.135 Y94.275 F1800
G1 X143.664 Y94.275 F1800
; --- FIX Y Backlash: 0.900mm ---
G0 X143.664 Y95.175 F1200
G1 X143.664 Y96.486 F1800
; --- FIX X Backlash: 0.900mm ---
G0 X144.564 Y96.486 F1200
G1 X145.017 Y96.486 F1800
G1 X145.197 Y96.465 F1800
; --- FIX Y Backlash: -0.900mm ---
G0 X145.197 Y95.565 F1200
G1 X145.330 Y95.501 F1800
G1 X145.412 Y95.399 F1800
G1 X145.439 Y95.262 F1800
G1 X145.425 Y95.154 F1800
G1 X145.383 Y95.070 F1800
; --- FIX X Backlash: -0.900mm ---
G0 X144.483 Y95.070 F1200
G1 X144.414 Y95.012 F1800
G1 X144.318 Y94.982 F1800
G0 Z3.5F1000
; --- FIX X Backlash: 0.900mm ---
G0 X145.218 Y94.982 F1200
; --- FIX Y Backlash: 0.900mm ---
G0 X145.218 Y95.882 F1200
G0 X146.148 Y108.685 Z3.500
G1 Z0F1000
; --- FIX X Backlash: -0.900mm ---
G0 X145.248 Y108.685 F1200
G1 X142.680 Y108.685 F1800
G0 Z3.5F1000
; --- FIX X Backlash: 0.900mm ---
G0 X143.580 Y108.685 F1200
G0 X144.627 Y121.344 Z3.500
G1 Z0F1000
G1 X145.109 Y121.344 F1800
; --- FIX X Backlash: -0.900mm ---
G0 X144.209 Y121.344 F1200
G1 X143.967 Y121.996 F1800
; --- FIX Y Backlash: -0.900mm ---
G0 X143.967 Y121.096 F1200
G1 X143.727 Y120.444 F1800
G0 Z3.5F1000
G0 X143.673 Y120.296 Z3.500
G1 Z0F1000
G1 X143.554 Y119.960 F1800
G1 X143.367 Y119.960 F1800
; --- FIX X Backlash: 0.900mm ---
G0 X144.267 Y119.960 F1200
; --- FIX Y Backlash: 0.900mm ---
G0 X144.267 Y120.860 F1200
G1 X144.767 Y122.171 F1800
G1 X144.968 Y122.171 F1800
; --- FIX Y Backlash: -0.900mm ---
G0 X144.968 Y121.271 F1200
G1 X145.468 Y119.960 F1800
; --- FIX X Backlash: -0.900mm ---
G0 X144.568 Y119.960 F1200
G1 X144.383 Y119.960 F1800
; --- FIX Y Backlash: 0.900mm ---
G0 X144.383 Y120.860 F1200
G1 X144.264 Y121.196 F1800
G1 X143.673 Y121.196 F1800
G0 Z3.5F1000
G0 X135.978 Y132.554 Z3.500
G1 Z0F1000
; --- FIX X Backlash: 0.900mm ---
G0 X136.878 Y132.554 F1200
G1 X136.960 Y132.616 F1800
G1 X137.012 Y132.713 F1800
G1 X137.030 Y132.839 F1800
G1 X137.012 Y132.966 F1800
; --- FIX X Backlash: -0.900mm ---
G0 X136.112 Y132.966 F1200
G1 X136.060 Y133.063 F1800
G1 X135.978 Y133.124 F1800
G1 X135.871 Y133.144 F1800
G1 X135.764 Y133.124 F1800
; --- FIX Y Backlash: -0.900mm ---
G0 X135.764 Y132.224 F1200
G1 X135.682 Y132.163 F1800
G1 X135.629 Y132.066 F1800
G1 X135.612 Y131.939 F1800
G1 X135.629 Y131.813 F1800
; --- FIX X Backlash: 0.900mm ---
G0 X136.529 Y131.813 F1200
G1 X136.582 Y131.716 F1800
G1 X136.664 Y131.654 F1800
G1 X136.771 Y131.633 F1800
G1 X136.878 Y131.654 F1800
G0 Z3.5F1000
G0 X136.949 Y131.523 Z3.500
G1 Z0F1000
; --- FIX X Backlash: -0.900mm ---
G0 X136.049 Y131.523 F1200
G1 X135.871 Y131.493 F1800
G1 X135.764 Y131.504 F1800
G1 X135.670 Y131.537 F1800
; --- FIX Y Backlash: 0.900mm ---
G0 X135.670 Y132.437 F1200
G1 X135.590 Y132.491 F1800
G1 X135.523 Y132.567 F1800
G1 X135.470 Y132.664 F1800
G1 X135.433 Y132.781 F1800
G1 X135.410 Y132.917 F1800
G1 X135.403 Y133.073 F1800
G1 X135.412 Y133.220 F1800
G1 X135.440 Y133.352 F1800
G1 X135.486 Y133.468 F1800
; --- FIX X Backlash: 0.900mm ---
G0 X136.386 Y133.468 F1200
G1 X136.450 Y133.568 F1800
G1 X136.530 Y133.649 F1800
G1 X136.623 Y133.707 F1800
G1 X136.728 Y133.741 F1800
G1 X136.846 Y133.753 F1800
G1 X136.913 Y133.750 F1800
G1 X136.981 Y133.740 F1800
G1 X137.050 Y133.723 F1800
G1 X137.123 Y133.700 F1800
; --- FIX Y Backlash: -0.900mm ---
G0 X137.123 Y132.800 F1200
G1 X137.123 Y132.639 F1800
; --- FIX X Backlash: -0.900mm ---
G0 X136.223 Y132.639 F1200
G1 X136.156 Y132.667 F1800
G1 X136.088 Y132.687 F1800
G1 X136.020 Y132.700 F1800
G1 X135.953 Y132.704 F1800
G1 X135.798 Y132.674 F1800
G1 X135.685 Y132.585 F1800
G1 X135.612 Y132.436 F1800
G1 X135.579 Y132.227 F1800
; --- FIX X Backlash: 0.900mm ---
G0 X136.479 Y132.227 F1200
; --- FIX Y Backlash: 0.900mm ---
G0 X136.479 Y133.127 F1200
G1 X136.538 Y133.195 F1800
G1 X136.609 Y133.244 F1800
G1 X136.691 Y133.275 F1800
G1 X136.781 Y133.285 F1800
G1 X136.958 Y133.255 F1800
; --- FIX Y Backlash: -0.900mm ---
G0 X136.958 Y132.355 F1200
G1 X137.093 Y132.265 F1800
G1 X137.179 Y132.124 F1800
G1 X137.208 Y131.939 F1800
G1 X137.178 Y131.757 F1800
; --- FIX X Backlash: -0.900mm ---
G0 X136.278 Y131.757 F1200
G1 X136.189 Y131.615 F1800
G1 X136.049 Y131.523 F1800
G0 Z3.5F1000
G0 X122.902 Y130.902 Z3.500
G1 Z0F1000
; --- FIX Y Backlash: 0.900mm ---
G0 X122.902 Y131.802 F1200
G1 X122.902 Y134.371 F1800
G0 Z3.5F1000
; --- FIX Y Backlash: -0.900mm ---
G0 X122.902 Y133.471 F1200
G0 X110.518 Y132.829 Z3.500
G1 Z0F1000
G1 X110.518 Y132.680 F1800
G1 X109.984 Y132.680 F1800
G1 X109.984 Y132.359 F1800
G1 X110.023 Y132.370 F1800
G1 X110.062 Y132.378 F1800
G1 X110.100 Y132.383 F1800
G1 X110.139 Y132.383 F1800
; --- FIX X Backlash: 0.900mm ---
G0 X111.039 Y132.383 F1200
G1 X111.236 Y132.355 F1800
G1 X111.387 Y132.265 F1800
G1 X111.443 Y132.199 F1800
G1 X111.483 Y132.123 F1800
G1 X111.507 Y132.036 F1800
G1 X111.515 Y131.939 F1800
G1 X111.507 Y131.839 F1800
G1 X111.482 Y131.751 F1800
G1 X111.441 Y131.675 F1800
; --- FIX X Backlash: -0.900mm ---
G0 X110.541 Y131.675 F1200
G1 X110.483 Y131.610 F1800
G1 X110.324 Y131.522 F1800
G1 X110.112 Y131.493 F1800
G1 X110.028 Y131.496 F1800
G1 X109.944 Y131.507 F1800
G1 X109.857 Y131.525 F1800
G1 X109.767 Y131.549 F1800
; --- FIX Y Backlash: 0.900mm ---
G0 X109.767 Y132.449 F1200
G1 X109.767 Y132.628 F1800
; --- FIX X Backlash: 0.900mm ---
G0 X110.667 Y132.628 F1200
G1 X110.747 Y132.590 F1800
G1 X110.830 Y132.563 F1800
G1 X110.917 Y132.548 F1800
G1 X111.008 Y132.542 F1800
G1 X111.144 Y132.562 F1800
G1 X111.249 Y132.622 F1800
G1 X111.315 Y132.716 F1800
G1 X111.337 Y132.839 F1800
G1 X111.315 Y132.962 F1800
; --- FIX X Backlash: -0.900mm ---
G0 X110.415 Y132.962 F1200
G1 X110.349 Y133.056 F1800
G1 X110.244 Y133.116 F1800
G1 X110.108 Y133.136 F1800
G1 X110.037 Y133.132 F1800
G1 X109.966 Y133.120 F1800
G1 X109.895 Y133.100 F1800
G1 X109.822 Y133.071 F1800
G1 X109.822 Y133.729 F1800
; --- FIX X Backlash: 0.900mm ---
G0 X110.722 Y133.729 F1200
G1 X111.418 Y133.729 F1800
G0 Z3.5F1000
; --- FIX X Backlash: -0.900mm ---
G0 X110.518 Y133.729 F1200
G0 X97.217 Y134.371 Z3.500
G1 Z0F1000
; --- FIX Y Backlash: -0.900mm ---
G0 X97.217 Y133.471 F1200
G1 X97.217 Y130.902 F1800
G0 Z3.5F1000
; --- FIX Y Backlash: 0.900mm ---
G0 X97.217 Y131.802 F1200
G0 X84.559 Y132.875 Z3.500
G1 Z0F1000
G1 X84.559 Y133.575 F1800
; --- FIX Y Backlash: -0.900mm ---
G0 X84.559 Y132.675 F1200
G1 X84.111 Y131.975 F1800
; --- FIX X Backlash: 0.900mm ---
G0 X85.011 Y131.975 F1200
G1 X85.459 Y131.975 F1800
G0 Z3.5F1000
G0 X85.636 Y131.975 Z3.500
G1 Z0F1000
G1 X85.823 Y131.975 F1800
G1 X85.823 Y131.828 F1800
; --- FIX X Backlash: -0.900mm ---
G0 X84.923 Y131.828 F1200
G1 X84.736 Y131.828 F1800
G1 X84.736 Y131.519 F1800
G1 X84.559 Y131.519 F1800
; --- FIX Y Backlash: 0.900mm ---
G0 X84.559 Y132.419 F1200
G1 X84.559 Y132.728 F1800
G1 X83.968 Y132.728 F1800
G1 X83.968 Y132.899 F1800
; --- FIX X Backlash: 0.900mm ---
G0 X84.868 Y132.899 F1200
G1 X85.413 Y133.729 F1800
G1 X85.636 Y133.729 F1800
; --- FIX Y Backlash: -0.900mm ---
G0 X85.636 Y132.829 F1200
G1 X85.636 Y131.975 F1800
G0 Z3.5F1000
; --- FIX X Backlash: -0.900mm ---
G0 X84.736 Y131.975 F1200
; --- FIX Y Backlash: 0.900mm ---
G0 X84.736 Y132.875 F1200
G0 X71.531 Y134.371 Z3.500
G1 Z0F1000
; --- FIX Y Backlash: -0.900mm ---
G0 X71.531 Y133.471 F1200
G1 X71.531 Y128.334 F1800
G0 Z3.5F1000
; --- FIX Y Backlash: 0.900mm ---
G0 X71.531 Y129.234 F1200
G0 X59.173 Y132.558 Z3.500
G1 Z0F1000
; --- FIX Y Backlash: -0.900mm ---
G0 X59.173 Y131.658 F1200
G1 X59.115 Y131.599 F1800
G1 X58.953 Y131.520 F1800
G1 X58.735 Y131.493 F1800
G1 X58.652 Y131.497 F1800
G1 X58.566 Y131.509 F1800
G1 X58.477 Y131.530 F1800
G1 X58.385 Y131.558 F1800
; --- FIX Y Backlash: 0.900mm ---
G0 X58.385 Y132.458 F1200
G1 X58.385 Y132.629 F1800
; --- FIX X Backlash: 0.900mm ---
G0 X59.285 Y132.629 F1200
G1 X59.363 Y132.592 F1800
G1 X59.447 Y132.564 F1800
G1 X59.537 Y132.548 F1800
G1 X59.630 Y132.542 F1800
G1 X59.777 Y132.559 F1800
G1 X59.884 Y132.608 F1800
G1 X59.950 Y132.689 F1800
G1 X59.972 Y132.799 F1800
G1 X59.951 Y132.903 F1800
; --- FIX X Backlash: -0.900mm ---
G0 X59.051 Y132.903 F1200
G1 X58.991 Y132.981 F1800
G1 X58.893 Y133.030 F1800
G1 X58.765 Y133.046 F1800
G1 X58.612 Y133.046 F1800
G1 X58.612 Y133.192 F1800
; --- FIX X Backlash: 0.900mm ---
G0 X59.512 Y133.192 F1200
G1 X59.672 Y133.192 F1800
G1 X59.787 Y133.205 F1800
G1 X59.872 Y133.244 F1800
G1 X59.924 Y133.308 F1800
G1 X59.941 Y133.395 F1800
G1 X59.923 Y133.484 F1800
; --- FIX X Backlash: -0.900mm ---
G0 X59.023 Y133.484 F1200
G1 X58.970 Y133.550 F1800
G1 X58.883 Y133.590 F1800
G1 X58.765 Y133.604 F1800
G1 X58.689 Y133.600 F1800
G1 X58.608 Y133.588 F1800
G1 X58.521 Y133.568 F1800
G1 X58.425 Y133.539 F1800
G1 X58.425 Y133.697 F1800
; --- FIX X Backlash: 0.900mm ---
G0 X59.325 Y133.697 F1200
G1 X59.423 Y133.721 F1800
G1 X59.514 Y133.739 F1800
G1 X59.600 Y133.749 F1800
G1 X59.680 Y133.753 F1800
G1 X59.861 Y133.730 F1800
; --- FIX Y Backlash: -0.900mm ---
G0 X59.861 Y132.830 F1200
G1 X60.000 Y132.761 F1800
G1 X60.088 Y132.653 F1800
G1 X60.118 Y132.513 F1800
G1 X60.102 Y132.413 F1800
G1 X60.055 Y132.329 F1800
; --- FIX X Backlash: -0.900mm ---
G0 X59.155 Y132.329 F1200
G1 X59.080 Y132.266 F1800
G1 X58.978 Y132.225 F1800
; --- FIX X Backlash: 0.900mm ---
G0 X59.878 Y132.225 F1200
G1 X59.991 Y132.183 F1800
G1 X60.077 Y132.112 F1800
G1 X60.130 Y132.016 F1800
G1 X60.148 Y131.899 F1800
G1 X60.140 Y131.808 F1800
G1 X60.115 Y131.728 F1800
G1 X60.073 Y131.658 F1800
G0 Z3.5F1000
; --- FIX X Backlash: -0.900mm ---
G0 X59.173 Y131.658 F1200
G0 X45.846 Y130.902 Z3.500
G1 Z0F1000
; --- FIX Y Backlash: 0.900mm ---
G0 X45.846 Y131.802 F1200
G1 X45.846 Y134.371 F1800
G0 Z3.5F1000
; --- FIX Y Backlash: -0.900mm ---
G0 X45.846 Y133.471 F1200
G0 X33.538 Y132.479 Z3.500
G1 Z0F1000
G1 X33.530 Y132.400 F1800
G1 X33.508 Y132.326 F1800
G1 X33.465 Y132.247 F1800
G1 X33.397 Y132.155 F1800
G1 X33.258 Y132.008 F1800
G1 X32.926 Y131.668 F1800
; --- FIX X Backlash: 0.900mm ---
G0 X33.826 Y131.668 F1200
G1 X34.445 Y131.668 F1800
G1 X34.445 Y131.519 F1800
; --- FIX X Backlash: -0.900mm ---
G0 X33.545 Y131.519 F1200
G1 X32.713 Y131.519 F1800
; --- FIX Y Backlash: 0.900mm ---
G0 X32.713 Y132.419 F1200
G1 X32.713 Y132.568 F1800
; --- FIX X Backlash: 0.900mm ---
G0 X33.613 Y132.568 F1200
G1 X34.030 Y132.993 F1800
G1 X34.107 Y133.075 F1800
G1 X34.179 Y133.164 F1800
G1 X34.226 Y133.237 F1800
G1 X34.251 Y133.303 F1800
G1 X34.260 Y133.368 F1800
G1 X34.241 Y133.462 F1800
; --- FIX X Backlash: -0.900mm ---
G0 X33.341 Y133.462 F1200
G1 X33.286 Y133.538 F1800
G1 X33.202 Y133.587 F1800
G1 X33.095 Y133.604 F1800
G1 X33.010 Y133.597 F1800
G1 X32.919 Y133.575 F1800
G1 X32.824 Y133.538 F1800
; --- FIX Y Backlash: -0.900mm ---
G0 X32.824 Y132.638 F1200
G1 X32.721 Y132.587 F1800
; --- FIX Y Backlash: 0.900mm ---
G0 X32.721 Y133.487 F1200
G1 X32.721 Y133.666 F1800
; --- FIX X Backlash: 0.900mm ---
G0 X33.621 Y133.666 F1200
G1 X33.725 Y133.704 F1800
G1 X33.822 Y133.731 F1800
G1 X33.911 Y133.747 F1800
G1 X33.992 Y133.753 F1800
G1 X34.175 Y133.728 F1800
; --- FIX Y Backlash: -0.900mm ---
G0 X34.175 Y132.828 F1200
G1 X34.317 Y132.751 F1800
G1 X34.408 Y132.632 F1800
G1 X34.438 Y132.479 F1800
G0 Z3.5F1000
; --- FIX X Backlash: -0.900mm ---
G0 X33.538 Y132.479 F1200
; --- FIX Y Backlash: 0.900mm ---
G0 X33.538 Y133.379 F1200
G0 X20.161 Y134.371 Z3.500
G1 Z0F1000
; --- FIX Y Backlash: -0.900mm ---
G0 X20.161 Y133.471 F1200
G1 X20.161 Y130.902 F1800
G0 Z3.5F1000
; --- FIX Y Backlash: 0.900mm ---
G0 X20.161 Y131.802 F1200
G0 X7.892 Y132.419 Z3.500
G1 Z0F1000
G1 X7.137 Y132.419 F1800
G1 X7.137 Y132.568 F1800
; --- FIX X Backlash: 0.900mm ---
G0 X8.037 Y132.568 F1200
G1 X8.326 Y132.568 F1800
G1 X8.326 Y133.568 F1800
; --- FIX X Backlash: -0.900mm ---
G0 X7.426 Y133.568 F1200
; --- FIX Y Backlash: -0.900mm ---
G0 X7.426 Y132.668 F1200
G1 X7.111 Y132.605 F1800
; --- FIX Y Backlash: 0.900mm ---
G0 X7.111 Y133.505 F1200
G1 X7.111 Y133.666 F1800
; --- FIX X Backlash: 0.900mm ---
G0 X8.011 Y133.666 F1200
G1 X8.325 Y133.729 F1800
G1 X8.502 Y133.729 F1800
; --- FIX Y Backlash: -0.900mm ---
G0 X8.502 Y132.829 F1200
G1 X8.502 Y131.668 F1800
G1 X8.792 Y131.668 F1800
G1 X8.792 Y131.519 F1800
G0 Z3.5F1000
; --- FIX X Backlash: -0.900mm ---
G0 X7.892 Y131.519 F1200
G0 X5.520 Y107.785 Z3.500
G1 Z0F1000
G1 X2.952 Y107.785 F1800
G0 Z3.5F1000
G0 X2.952 Y82.100 Z3.500
G1 Z0F1000
; --- FIX X Backlash: 0.900mm ---
G0 X3.852 Y82.100 F1200
G1 X8.989 Y82.100 F1800
G0 Z3.5F1000
; --- FIX X Backlash: -0.900mm ---
G0 X8.089 Y82.100 F1200
G0 X5.520 Y56.415 Z3.500
G1 Z0F1000
G1 X2.952 Y56.415 F1800
G0 Z3.5F1000
; --- FIX X Backlash: 0.900mm ---
G0 X3.852 Y56.415 F1200
G0 X123.032 Y39.462 Z3.500
G1 Z0F1000
G1 X123.032 Y33.298 F1800
G1 X133.306 Y33.298 F1800
; --- FIX Y Backlash: 0.900mm ---
G0 X133.306 Y34.198 F1200
G1 X133.306 Y40.362 F1800
; --- FIX X Backlash: -0.900mm ---
G0 X132.406 Y40.362 F1200
G1 X122.132 Y40.362 F1800
G0 Z3.5F1000
; --- FIX X Backlash: 0.900mm ---
G0 X123.032 Y40.362 F1200
; --- FIX Y Backlash: -0.900mm ---
G0 X123.032 Y39.462 F1200
G0 X123.802 Y33.298 Z3.500
G1 Z0F1000
G1 X123.802 Y30.729 F1800
G0 Z3.5F1000
; --- FIX Y Backlash: 0.900mm ---
G0 X123.802 Y31.629 F1200
G0 X133.306 Y34.198 Z3.500
G1 Z0F1000
G1 X143.580 Y34.198 F1800
G1 X143.580 Y40.362 F1800
; --- FIX X Backlash: -0.900mm ---
G0 X142.680 Y40.362 F1200
G1 X132.406 Y40.362 F1800
; --- FIX Y Backlash: -0.900mm ---
G0 X132.406 Y39.462 F1200
G1 X132.406 Y33.298 F1800
G0 Z3.5F1000
; --- FIX X Backlash: 0.900mm ---
G0 X133.306 Y33.298 F1200
G0 X136.118 Y32.482 Z3.500
G1 Z0F1000
; --- FIX X Backlash: -0.900mm ---
G0 X135.218 Y32.482 F1200
G1 X134.977 Y31.830 F1800
; --- FIX X Backlash: 0.900mm ---
G0 X135.877 Y31.830 F1200
G1 X136.359 Y31.830 F1800
; --- FIX X Backlash: -0.900mm ---
G0 X135.459 Y31.830 F1200
; --- FIX Y Backlash: 0.900mm ---
G0 X135.459 Y32.730 F1200
G1 X135.218 Y33.382 F1800
G0 Z3.5F1000
G0 X135.117 Y33.557 Z3.500
G1 Z0F1000
; --- FIX X Backlash: 0.900mm ---
G0 X136.017 Y33.557 F1200
G1 X136.219 Y33.557 F1800
; --- FIX Y Backlash: -0.900mm ---
G0 X136.219 Y32.657 F1200
G1 X136.718 Y31.346 F1800
; --- FIX X Backlash: -0.900mm ---
G0 X135.818 Y31.346 F1200
G1 X135.634 Y31.346 F1800
; --- FIX Y Backlash: 0.900mm ---
G0 X135.634 Y32.246 F1200
G1 X135.514 Y32.582 F1800
G1 X134.924 Y32.582 F1800
; --- FIX Y Backlash: -0.900mm ---
G0 X134.924 Y31.682 F1200
G1 X134.804 Y31.346 F1800
G1 X134.617 Y31.346 F1800
; --- FIX X Backlash: 0.900mm ---
G0 X135.517 Y31.346 F1200
; --- FIX Y Backlash: 0.900mm ---
G0 X135.517 Y32.246 F1200
G1 X136.017 Y33.557 F1800
G0 Z3.5F1000
; --- FIX Y Backlash: -0.900mm ---
G0 X136.017 Y32.657 F1200
G0 X137.413 Y32.502 Z3.500
G1 Z0F1000
; --- FIX X Backlash: -0.900mm ---
G0 X136.513 Y32.502 F1200
G1 X136.065 Y31.802 F1800
; --- FIX X Backlash: 0.900mm ---
G0 X136.965 Y31.802 F1200
G1 X137.413 Y31.802 F1800
; --- FIX Y Backlash: 0.900mm ---
G0 X137.413 Y32.702 F1200
G1 X137.413 Y33.402 F1800
G0 Z3.5F1000
G0 X137.366 Y33.557 Z3.500
G1 Z0F1000
G1 X137.589 Y33.557 F1800
; --- FIX Y Backlash: -0.900mm ---
G0 X137.589 Y32.657 F1200
G1 X137.589 Y31.802 F1800
G1 X137.776 Y31.802 F1800
G1 X137.776 Y31.655 F1800
; --- FIX X Backlash: -0.900mm ---
G0 X136.876 Y31.655 F1200
G1 X136.689 Y31.655 F1800
G1 X136.689 Y31.346 F1800
G1 X136.513 Y31.346 F1800
; --- FIX Y Backlash: 0.900mm ---
G0 X136.513 Y32.246 F1200
G1 X136.513 Y32.555 F1800
G1 X135.921 Y32.555 F1800
G1 X135.921 Y32.726 F1800
; --- FIX X Backlash: 0.900mm ---
G0 X136.821 Y32.726 F1200
G1 X137.366 Y33.557 F1800
G0 Z3.5F1000
G0 X143.580 Y34.198 Z3.500
G1 Z0F1000
G1 X143.580 Y52.691 F1800
; --- FIX X Backlash: -0.900mm ---
G0 X142.680 Y52.691 F1200
G1 X50.213 Y52.691 F1800
; --- FIX Y Backlash: -0.900mm ---
G0 X50.213 Y51.791 F1200
G1 X50.213 Y33.298 F1800
; --- FIX X Backlash: 0.900mm ---
G0 X51.113 Y33.298 F1200
G1 X143.580 Y33.298 F1800
G0 Z3.5F1000
G0 Z3.5
G1 Z0F1000
; --- FIX Y Backlash: 0.900mm ---
G0 X143.580 Y34.198 F1200
G1 X143.580 Y131.802 F1800
; --- FIX X Backlash: -0.900mm ---
G0 X142.680 Y131.802 F1200
G1 X5.520 Y131.802 F1800
; --- FIX Y Backlash: -0.900mm ---
G0 X5.520 Y130.902 F1200
G1 X5.520 Y33.298 F1800
; --- FIX X Backlash: 0.900mm ---
G0 X6.420 Y33.298 F1200
G1 X143.580 Y33.298 F1800
G0 Z3.5F1000
; --- FIX Y Backlash: 0.900mm ---
G0 X143.580 Y34.198 F1200
G0 X144.651 Y43.950 Z3.500
G1 Z0F1000
G1 X144.866 Y43.950 F1800
G1 X144.992 Y43.958 F1800
G1 X145.101 Y43.981 F1800
G1 X145.191 Y44.019 F1800
G1 X145.263 Y44.073 F1800
G1 X145.318 Y44.143 F1800
G1 X145.357 Y44.231 F1800
G1 X145.381 Y44.337 F1800
G1 X145.389 Y44.461 F1800
G1 X145.381 Y44.584 F1800
G1 X145.357 Y44.689 F1800
G1 X145.318 Y44.777 F1800
; --- FIX X Backlash: -0.900mm ---
G0 X144.418 Y44.777 F1200
G1 X144.363 Y44.847 F1800
G1 X144.291 Y44.900 F1800
G1 X144.201 Y44.939 F1800
G1 X144.092 Y44.962 F1800
G1 X143.966 Y44.969 F1800
G1 X143.751 Y44.969 F1800
; --- FIX Y Backlash: -0.900mm ---
G0 X143.751 Y44.069 F1200
G1 X143.751 Y43.050 F1800
G0 Z3.5F1000
G0 X143.574 Y42.904 Z3.500
G1 Z0F1000
; --- FIX Y Backlash: 0.900mm ---
G0 X143.574 Y43.804 F1200
G1 X143.574 Y45.115 F1800
; --- FIX X Backlash: 0.900mm ---
G0 X144.474 Y45.115 F1200
G1 X144.838 Y45.115 F1800
G1 X145.016 Y45.105 F1800
G1 X145.169 Y45.075 F1800
G1 X145.296 Y45.026 F1800
; --- FIX Y Backlash: -0.900mm ---
G0 X145.296 Y44.126 F1200
G1 X145.398 Y44.057 F1800
G1 X145.476 Y43.966 F1800
G1 X145.531 Y43.853 F1800
G1 X145.565 Y43.718 F1800
G1 X145.576 Y43.561 F1800
G1 X145.565 Y43.403 F1800
G1 X145.531 Y43.267 F1800
; --- FIX X Backlash: -0.900mm ---
G0 X144.631 Y43.267 F1200
G1 X144.575 Y43.154 F1800
G1 X144.497 Y43.063 F1800
G1 X144.395 Y42.994 F1800
G1 X144.268 Y42.944 F1800
G1 X144.116 Y42.914 F1800
G1 X143.938 Y42.904 F1800
G1 X143.574 Y42.904 F1800
G0 Z3.5F1000
; --- FIX X Backlash: 0.900mm ---
G0 X144.474 Y42.904 F1200
G0 X146.148 Y30.729 Z3.500
G1 Z0F1000
; --- FIX Y Backlash: 0.900mm ---
G0 X146.148 Y31.629 F1200
G1 X146.148 Y134.371 F1800
; --- FIX X Backlash: -0.900mm ---
G0 X145.248 Y134.371 F1200
G1 X2.952 Y134.371 F1800
; --- FIX Y Backlash: -0.900mm ---
G0 X2.952 Y133.471 F1200
G1 X2.952 Y30.729 F1800
; --- FIX X Backlash: 0.900mm ---
G0 X3.852 Y30.729 F1200
G1 X146.148 Y30.729 F1800
M9
G1 Z10 F1000
G90
G1 Z10 F800
M2 ; Konec G-kode