;LightBurn 1.6.04
;Custom GCode device profile, absolute coords
;Bounds: X3.92 Y26.66 to X146.08 Y129.34
G00 G17 G40 G21 G54
G90
M3
G1 Z10 F1000
;Cut @ 1500 mm/min, 90% power

M8
G0 Z3.5 F1000
G0 X21.112 Y26.696 Z2.100
G1 Z0 F1000
;Layer Blue
G1 X21.112 Y29.262 Z0.000 F1600
G0 Z3.5 F1000
G0 X46.773 Y29.262 Z2.100
G1 Z0 F1000
; --- FIX Y Backlash: -1.300mm ---
G0 X46.773 Y27.962 F1200
G1 X46.773 Y25.396 Z0.000 F1600
G0 Z3.5 F1000
; --- FIX Y Backlash: 1.300mm ---
G0 X46.773 Y26.696 F1200
G0 X52.432 Y30.655 Z2.100
G1 Z0 F1000
; --- FIX Y Backlash: -1.300mm ---
G0 X52.432 Y29.355 F1200
G1 X52.592 Y29.292 Z0.000 F1600
G1 X52.738 Y29.282 Z0.000 F1600
G1 X52.748 Y29.282 Z0.000 F1600
; --- FIX Y Backlash: 1.300mm ---
G0 X52.748 Y30.582 F1200
G1 X52.958 Y30.634 Z0.000 F1600
G1 X53.157 Y30.770 Z0.000 F1600
G1 X53.280 Y30.981 Z0.000 F1600
G1 X53.334 Y31.211 Z0.000 F1600
G1 X53.344 Y31.430 Z0.000 F1600
G1 X53.314 Y31.630 Z0.000 F1600
; --- FIX X Backlash: -1.300mm ---
G0 X52.014 Y31.630 F1200
G1 X51.941 Y31.806 Z0.000 F1600
G1 X51.834 Y31.942 Z0.000 F1600
G1 X51.688 Y32.069 Z0.000 F1600
G1 X51.531 Y32.122 Z0.000 F1600
G1 X51.385 Y32.132 Z0.000 F1600
G1 X51.215 Y32.102 Z0.000 F1600
; --- FIX Y Backlash: -1.300mm ---
G0 X51.215 Y30.802 F1200
G1 X51.059 Y30.706 Z0.000 F1600
G1 X50.923 Y30.549 Z0.000 F1600
G1 X50.850 Y30.403 Z0.000 F1600
G1 X50.788 Y30.183 Z0.000 F1600
G1 X50.788 Y30.014 Z0.000 F1600
G1 X50.808 Y29.818 Z0.000 F1600
; --- FIX X Backlash: 1.300mm ---
G0 X52.108 Y29.818 F1200
G1 X52.160 Y29.638 Z0.000 F1600
G1 X52.286 Y29.470 Z0.000 F1600
G1 X52.432 Y29.355 Z0.000 F1600
G0 Z3.5 F1000
; --- FIX Y Backlash: 1.300mm ---
G0 X52.432 Y30.655 F1200
G0 X54.089 Y30.833 Z2.100
G1 Z0 F1000
; --- FIX Y Backlash: -1.300mm ---
G0 X54.089 Y29.533 F1200
G1 X54.258 Y29.418 Z0.000 F1600
G1 X54.435 Y29.324 Z0.000 F1600
G1 X54.594 Y29.292 Z0.000 F1600
G1 X54.791 Y29.303 Z0.000 F1600
; --- FIX Y Backlash: 1.300mm ---
G0 X54.791 Y30.603 F1200
G1 X54.917 Y30.666 Z0.000 F1600
G1 X55.087 Y30.823 Z0.000 F1600
G1 X55.200 Y31.064 Z0.000 F1600
G1 X55.233 Y31.294 Z0.000 F1600
G1 X55.233 Y31.567 Z0.000 F1600
; --- FIX X Backlash: -1.300mm ---
G0 X53.933 Y31.567 F1200
G1 X53.860 Y31.806 Z0.000 F1600
G1 X53.713 Y32.016 Z0.000 F1600
G1 X53.544 Y32.112 Z0.000 F1600
G1 X53.324 Y32.112 Z0.000 F1600
G1 X53.145 Y32.079 Z0.000 F1600
; --- FIX Y Backlash: -1.300mm ---
G0 X53.145 Y30.779 F1200
G1 X52.935 Y30.666 Z0.000 F1600
G1 X52.759 Y30.486 Z0.000 F1600
; --- FIX Y Backlash: 1.300mm ---
G0 X52.759 Y31.786 F1200
G1 X52.759 Y32.122 Z0.000 F1600
; --- FIX Y Backlash: -1.300mm ---
G0 X52.759 Y30.822 F1200
G1 X52.759 Y28.570 Z0.000 F1600
G0 Z3.5 F1000
; --- FIX X Backlash: 1.300mm ---
G0 X54.059 Y28.570 F1200
; --- FIX Y Backlash: 1.300mm ---
G0 X54.059 Y29.870 F1200
G0 X55.829 Y31.400 Z2.100
G1 Z0 F1000
G1 X56.982 Y31.400 Z0.000 F1600
G1 X56.982 Y31.587 Z0.000 F1600
; --- FIX X Backlash: -1.300mm ---
G0 X55.682 Y31.587 F1200
G1 X55.629 Y31.829 Z0.000 F1600
G1 X55.473 Y32.016 Z0.000 F1600
G1 X55.313 Y32.122 Z0.000 F1600
G1 X55.094 Y32.132 Z0.000 F1600
; --- FIX Y Backlash: -1.300mm ---
G0 X55.094 Y30.832 F1200
G1 X54.874 Y30.769 Z0.000 F1600
G1 X54.685 Y30.613 Z0.000 F1600
G1 X54.611 Y30.456 Z0.000 F1600
G1 X54.529 Y30.257 Z0.000 F1600
G1 X54.508 Y30.047 Z0.000 F1600
; --- FIX X Backlash: 1.300mm ---
G0 X55.808 Y30.047 F1200
G1 X55.860 Y29.794 Z0.000 F1600
G1 X55.955 Y29.565 Z0.000 F1600
G1 X56.144 Y29.376 Z0.000 F1600
G1 X56.321 Y29.292 Z0.000 F1600
G1 X56.540 Y29.271 Z0.000 F1600
; --- FIX Y Backlash: 1.300mm ---
G0 X56.540 Y30.571 F1200
G1 X56.730 Y30.624 Z0.000 F1600
G1 X56.909 Y30.718 Z0.000 F1600
G0 Z3.5 F1000
; --- FIX Y Backlash: -1.300mm ---
G0 X56.909 Y29.418 F1200
G0 X57.631 Y29.271 Z2.100
G1 Z0 F1000
; --- FIX Y Backlash: 1.300mm ---
G0 X57.631 Y30.571 F1200
G1 X57.631 Y32.122 Z0.000 F1600
; --- FIX Y Backlash: -1.300mm ---
G0 X57.631 Y30.822 F1200
G1 X57.631 Y30.446 Z0.000 F1600
; --- FIX Y Backlash: 1.300mm ---
G0 X57.631 Y31.746 F1200
G1 X57.777 Y31.893 Z0.000 F1600
G1 X57.914 Y32.016 Z0.000 F1600
G1 X58.020 Y32.079 Z0.000 F1600
G1 X58.176 Y32.122 Z0.000 F1600
G1 X58.280 Y32.132 Z0.000 F1600
G1 X58.439 Y32.089 Z0.000 F1600
; --- FIX Y Backlash: -1.300mm ---
G0 X58.439 Y30.789 F1200
G1 X58.532 Y30.729 Z0.000 F1600
G1 X58.606 Y30.623 Z0.000 F1600
G1 X58.669 Y30.476 Z0.000 F1600
G1 X58.669 Y29.271 Z0.000 F1600
G0 Z3.5 F1000
; --- FIX Y Backlash: 1.300mm ---
G0 X58.669 Y30.571 F1200
G0 X59.497 Y31.829 Z2.100
G1 Z0 F1000
G1 X59.706 Y31.996 Z0.000 F1600
G1 X59.906 Y32.102 Z0.000 F1600
G1 X60.106 Y32.142 Z0.000 F1600
G1 X60.295 Y32.102 Z0.000 F1600
; --- FIX Y Backlash: -1.300mm ---
G0 X60.295 Y30.802 F1200
G1 X60.432 Y30.729 Z0.000 F1600
G1 X60.588 Y30.529 Z0.000 F1600
G1 X60.638 Y30.287 Z0.000 F1600
G1 X60.651 Y30.027 Z0.000 F1600
G1 X60.608 Y29.764 Z0.000 F1600
; --- FIX X Backlash: -1.300mm ---
G0 X59.308 Y29.764 F1200
G1 X59.205 Y29.555 Z0.000 F1600
G1 X59.068 Y29.408 Z0.000 F1600
G1 X58.846 Y29.282 Z0.000 F1600
G1 X58.659 Y29.292 Z0.000 F1600
; --- FIX Y Backlash: 1.300mm ---
G0 X58.659 Y30.592 F1200
G1 X58.470 Y30.645 Z0.000 F1600
G1 X58.293 Y30.760 Z0.000 F1600
G1 X58.177 Y30.855 Z0.000 F1600
; --- FIX Y Backlash: -1.300mm ---
G0 X58.177 Y29.555 F1200
G1 X58.177 Y29.271 Z0.000 F1600
; --- FIX Y Backlash: 1.300mm ---
G0 X58.177 Y30.571 F1200
G1 X58.177 Y32.907 Z0.000 F1600
G0 Z3.5 F1000
G0 X58.137 Y33.495 Z2.100
G1 Z0 F1000
; --- FIX X Backlash: 1.300mm ---
G0 X59.437 Y33.495 F1200
G1 X59.560 Y33.526 Z0.000 F1600
G1 X59.677 Y33.606 Z0.000 F1600
G1 X59.749 Y33.730 Z0.000 F1600
G1 X59.780 Y33.865 Z0.000 F1600
G1 X59.786 Y33.993 Z0.000 F1600
G1 X59.769 Y34.111 Z0.000 F1600
G1 X59.726 Y34.214 Z0.000 F1600
; --- FIX X Backlash: -1.300mm ---
G0 X58.426 Y34.214 F1200
G1 X58.363 Y34.294 Z0.000 F1600
G1 X58.277 Y34.368 Z0.000 F1600
G1 X58.185 Y34.399 Z0.000 F1600
G1 X58.100 Y34.405 Z0.000 F1600
G1 X58.000 Y34.388 Z0.000 F1600
; --- FIX Y Backlash: -1.300mm ---
G0 X58.000 Y33.088 F1200
G1 X57.908 Y33.031 Z0.000 F1600
G1 X57.828 Y32.939 Z0.000 F1600
G1 X57.785 Y32.853 Z0.000 F1600
G1 X57.749 Y32.725 Z0.000 F1600
G1 X57.749 Y32.625 Z0.000 F1600
G1 X57.761 Y32.510 Z0.000 F1600
G1 X57.791 Y32.404 Z0.000 F1600
; --- FIX X Backlash: 1.300mm ---
G0 X59.091 Y32.404 F1200
G1 X59.165 Y32.306 Z0.000 F1600
G1 X59.251 Y32.238 Z0.000 F1600
G1 X59.345 Y32.202 Z0.000 F1600
G1 X59.431 Y32.195 Z0.000 F1600
G1 X59.437 Y32.195 Z0.000 F1600
G0 Z3.5 F1000
G0 X60.218 Y32.195 Z2.100
G1 Z0 F1000
; --- FIX Y Backlash: 1.300mm ---
G0 X60.218 Y33.495 F1200
G1 X60.218 Y34.399 Z0.000 F1600
; --- FIX Y Backlash: -1.300mm ---
G0 X60.218 Y33.099 F1200
G1 X60.218 Y32.822 Z0.000 F1600
; --- FIX Y Backlash: 1.300mm ---
G0 X60.218 Y34.122 F1200
G1 X60.274 Y34.234 Z0.000 F1600
G1 X60.360 Y34.345 Z0.000 F1600
G1 X60.452 Y34.388 Z0.000 F1600
G1 X60.538 Y34.399 Z0.000 F1600
G1 X60.592 Y34.394 Z0.000 F1600
G0 Z3.5 F1000
; --- FIX Y Backlash: -1.300mm ---
G0 X60.592 Y33.094 F1200
G0 X60.870 Y32.189 Z2.100
G1 Z0 F1000
; --- FIX Y Backlash: 1.300mm ---
G0 X60.870 Y33.489 F1200
G1 X60.870 Y34.394 Z0.000 F1600
; --- FIX Y Backlash: -1.300mm ---
G0 X60.870 Y33.094 F1200
G1 X60.870 Y32.891 Z0.000 F1600
; --- FIX Y Backlash: 1.300mm ---
G0 X60.870 Y34.191 F1200
G1 X60.956 Y34.265 Z0.000 F1600
G1 X61.036 Y34.331 Z0.000 F1600
G1 X61.110 Y34.380 Z0.000 F1600
G1 X61.202 Y34.405 Z0.000 F1600
G1 X61.282 Y34.394 Z0.000 F1600
G1 X61.336 Y34.368 Z0.000 F1600
; --- FIX Y Backlash: -1.300mm ---
G0 X61.336 Y33.068 F1200
G1 X61.399 Y33.008 Z0.000 F1600
G1 X61.442 Y32.902 Z0.000 F1600
G1 X61.453 Y32.773 Z0.000 F1600
G1 X61.453 Y32.189 Z0.000 F1600
; --- FIX Y Backlash: 1.300mm ---
G0 X61.453 Y33.489 F1200
G1 X61.453 Y34.171 Z0.000 F1600
G1 X61.479 Y34.222 Z0.000 F1600
G1 X61.608 Y34.337 Z0.000 F1600
G1 X61.705 Y34.388 Z0.000 F1600
G1 X61.785 Y34.411 Z0.000 F1600
G1 X61.871 Y34.388 Z0.000 F1600
G1 X61.928 Y34.357 Z0.000 F1600
; --- FIX Y Backlash: -1.300mm ---
G0 X61.928 Y33.057 F1200
G1 X61.994 Y32.976 Z0.000 F1600
G1 X62.025 Y32.816 Z0.000 F1600
G1 X62.025 Y32.195 Z0.000 F1600
G0 Z3.5 F1000
; --- FIX Y Backlash: 1.300mm ---
G0 X62.025 Y33.495 F1200
G0 X62.488 Y34.294 Z2.100
G1 Z0 F1000
G1 X62.617 Y34.368 Z0.000 F1600
G1 X62.726 Y34.399 Z0.000 F1600
G1 X62.838 Y34.411 Z0.000 F1600
G1 X62.924 Y34.380 Z0.000 F1600
; --- FIX Y Backlash: -1.300mm ---
G0 X62.924 Y33.080 F1200
G1 X62.998 Y33.014 Z0.000 F1600
G1 X63.047 Y32.914 Z0.000 F1600
G1 X63.052 Y32.779 Z0.000 F1600
G1 X63.052 Y32.202 Z0.000 F1600
; --- FIX Y Backlash: 1.300mm ---
G0 X63.052 Y33.502 F1200
G1 X63.047 Y33.667 Z0.000 F1600
; --- FIX X Backlash: -1.300mm ---
G0 X61.747 Y33.667 F1200
; --- FIX Y Backlash: -1.300mm ---
G0 X61.747 Y32.367 F1200
G1 X61.667 Y32.312 Z0.000 F1600
G1 X61.581 Y32.251 Z0.000 F1600
G1 X61.483 Y32.208 Z0.000 F1600
G1 X61.372 Y32.189 Z0.000 F1600
G1 X61.280 Y32.220 Z0.000 F1600
G1 X61.206 Y32.269 Z0.000 F1600
; --- FIX Y Backlash: 1.300mm ---
G0 X61.206 Y33.569 F1200
G1 X61.150 Y33.649 Z0.000 F1600
G1 X61.150 Y33.767 Z0.000 F1600
G1 X61.194 Y33.859 Z0.000 F1600
; --- FIX X Backlash: 1.300mm ---
G0 X62.494 Y33.859 F1200
G1 X62.592 Y33.939 Z0.000 F1600
G1 X62.689 Y33.976 Z0.000 F1600
G1 X62.806 Y34.013 Z0.000 F1600
G1 X62.918 Y34.030 Z0.000 F1600
G1 X62.986 Y34.036 Z0.000 F1600
G1 X63.041 Y34.036 Z0.000 F1600
G0 Z3.5 F1000
G0 X63.546 Y34.651 Z2.100
G1 Z0 F1000
; --- FIX Y Backlash: -1.300mm ---
G0 X63.546 Y33.351 F1200
G1 X63.546 Y33.074 Z0.000 F1600
G1 X63.841 Y33.074 Z0.000 F1600
; --- FIX X Backlash: -1.300mm ---
G0 X62.541 Y33.074 F1200
G1 X62.067 Y33.074 Z0.000 F1600
; --- FIX X Backlash: 1.300mm ---
G0 X63.367 Y33.074 F1200
G1 X63.546 Y33.074 Z0.000 F1600
G1 X63.546 Y32.442 Z0.000 F1600
G1 X63.558 Y32.306 Z0.000 F1600
G1 X63.626 Y32.226 Z0.000 F1600
G1 X63.705 Y32.202 Z0.000 F1600
G1 X63.792 Y32.202 Z0.000 F1600
G1 X63.859 Y32.232 Z0.000 F1600
G0 Z3.5 F1000
G0 X64.173 Y32.189 Z2.100
G1 Z0 F1000
; --- FIX Y Backlash: 1.300mm ---
G0 X64.173 Y33.489 F1200
G1 X64.173 Y34.394 Z0.000 F1600
G0 Z3.5 F1000
G0 X64.216 Y34.671 Z2.100
G1 Z0 F1000
G1 X64.216 Y34.768 Z0.000 F1600
; --- FIX X Backlash: -1.300mm ---
G0 X62.916 Y34.768 F1200
G1 X62.818 Y34.768 Z0.000 F1600
; --- FIX Y Backlash: -1.300mm ---
G0 X62.818 Y33.468 F1200
G1 X62.818 Y33.371 Z0.000 F1600
; --- FIX X Backlash: 1.300mm ---
G0 X64.118 Y33.371 F1200
G1 X64.216 Y33.371 Z0.000 F1600
G0 Z3.5 F1000
G0 X64.757 Y33.031 Z2.100
G1 Z0 F1000
; --- FIX X Backlash: -1.300mm ---
G0 X63.457 Y33.031 F1200
G1 X63.377 Y32.939 Z0.000 F1600
G1 X63.334 Y32.853 Z0.000 F1600
G1 X63.298 Y32.725 Z0.000 F1600
G1 X63.298 Y32.625 Z0.000 F1600
G1 X63.310 Y32.510 Z0.000 F1600
G1 X63.340 Y32.404 Z0.000 F1600
; --- FIX X Backlash: 1.300mm ---
G0 X64.640 Y32.404 F1200
G1 X64.714 Y32.306 Z0.000 F1600
G1 X64.800 Y32.238 Z0.000 F1600
G1 X64.894 Y32.202 Z0.000 F1600
G1 X64.979 Y32.195 Z0.000 F1600
G1 X64.985 Y32.195 Z0.000 F1600
G1 X65.108 Y32.226 Z0.000 F1600
; --- FIX Y Backlash: 1.300mm ---
G0 X65.108 Y33.526 F1200
G1 X65.225 Y33.606 Z0.000 F1600
G1 X65.298 Y33.730 Z0.000 F1600
G1 X65.329 Y33.865 Z0.000 F1600
G1 X65.335 Y33.993 Z0.000 F1600
G1 X65.317 Y34.111 Z0.000 F1600
G1 X65.274 Y34.214 Z0.000 F1600
; --- FIX X Backlash: -1.300mm ---
G0 X63.974 Y34.214 F1200
G1 X63.912 Y34.294 Z0.000 F1600
G1 X63.826 Y34.368 Z0.000 F1600
G1 X63.734 Y34.399 Z0.000 F1600
G1 X63.648 Y34.405 Z0.000 F1600
G1 X63.549 Y34.388 Z0.000 F1600
; --- FIX Y Backlash: -1.300mm ---
G0 X63.549 Y33.088 F1200
G1 X63.457 Y33.031 Z0.000 F1600
G0 Z3.5 F1000
; --- FIX X Backlash: 1.300mm ---
G0 X64.757 Y33.031 F1200
G0 X65.760 Y32.189 Z2.100
G1 Z0 F1000
; --- FIX Y Backlash: 1.300mm ---
G0 X65.760 Y33.489 F1200
G1 X65.760 Y34.399 Z0.000 F1600
; --- FIX Y Backlash: -1.300mm ---
G0 X65.760 Y33.099 F1200
G1 X65.760 Y32.879 Z0.000 F1600
; --- FIX Y Backlash: 1.300mm ---
G0 X65.760 Y34.179 F1200
G1 X65.846 Y34.265 Z0.000 F1600
G1 X65.926 Y34.337 Z0.000 F1600
G1 X65.989 Y34.374 Z0.000 F1600
G1 X66.081 Y34.399 Z0.000 F1600
G1 X66.141 Y34.405 Z0.000 F1600
G1 X66.235 Y34.380 Z0.000 F1600
G1 X66.289 Y34.345 Z0.000 F1600
; --- FIX Y Backlash: -1.300mm ---
G0 X66.289 Y33.045 F1200
G1 X66.332 Y32.982 Z0.000 F1600
G1 X66.370 Y32.896 Z0.000 F1600
G1 X66.370 Y32.189 Z0.000 F1600
G0 Z3.5 F1000
G0 X67.915 Y30.802 Z2.100
G1 Z0 F1000
; --- FIX X Backlash: -1.300mm ---
G0 X66.615 Y30.802 F1200
G1 X66.459 Y30.706 Z0.000 F1600
G1 X66.323 Y30.549 Z0.000 F1600
G1 X66.249 Y30.403 Z0.000 F1600
G1 X66.188 Y30.183 Z0.000 F1600
G1 X66.188 Y30.014 Z0.000 F1600
G1 X66.208 Y29.818 Z0.000 F1600
; --- FIX X Backlash: 1.300mm ---
G0 X67.508 Y29.818 F1200
G1 X67.559 Y29.638 Z0.000 F1600
G1 X67.686 Y29.470 Z0.000 F1600
G1 X67.832 Y29.355 Z0.000 F1600
G1 X67.992 Y29.292 Z0.000 F1600
G1 X68.138 Y29.282 Z0.000 F1600
G1 X68.148 Y29.282 Z0.000 F1600
; --- FIX Y Backlash: 1.300mm ---
G0 X68.148 Y30.582 F1200
G1 X68.358 Y30.634 Z0.000 F1600
G1 X68.557 Y30.770 Z0.000 F1600
G1 X68.680 Y30.981 Z0.000 F1600
G1 X68.733 Y31.211 Z0.000 F1600
G1 X68.743 Y31.430 Z0.000 F1600
G1 X68.714 Y31.630 Z0.000 F1600
; --- FIX X Backlash: -1.300mm ---
G0 X67.414 Y31.630 F1200
G1 X67.340 Y31.806 Z0.000 F1600
G1 X67.234 Y31.942 Z0.000 F1600
G1 X67.088 Y32.069 Z0.000 F1600
G1 X66.931 Y32.122 Z0.000 F1600
G1 X66.785 Y32.132 Z0.000 F1600
G1 X66.615 Y32.102 Z0.000 F1600
G0 Z3.5 F1000
; --- FIX X Backlash: 1.300mm ---
G0 X67.915 Y32.102 F1200
; --- FIX Y Backlash: -1.300mm ---
G0 X67.915 Y30.802 F1200
G0 X69.635 Y29.911 Z2.100
G1 Z0 F1000
; --- FIX X Backlash: -1.300mm ---
G0 X68.335 Y29.911 F1200
; --- FIX Y Backlash: 1.300mm ---
G0 X68.335 Y31.211 F1200
G1 X68.242 Y31.294 Z0.000 F1600
G1 X68.159 Y31.400 Z0.000 F1600
G1 X68.115 Y31.567 Z0.000 F1600
G1 X68.125 Y31.776 Z0.000 F1600
; --- FIX X Backlash: 1.300mm ---
G0 X69.425 Y31.776 F1200
G1 X69.522 Y31.966 Z0.000 F1600
G1 X69.688 Y32.102 Z0.000 F1600
G1 X69.931 Y32.122 Z0.000 F1600
G1 X70.087 Y32.089 Z0.000 F1600
G1 X70.589 Y32.089 Z0.000 F1600
; --- FIX X Backlash: -1.300mm ---
G0 X69.289 Y32.089 F1200
G1 X68.787 Y32.089 Z0.000 F1600
; --- FIX X Backlash: 1.300mm ---
G0 X70.087 Y32.089 F1200
; --- FIX Y Backlash: -1.300mm ---
G0 X70.087 Y30.789 F1200
G1 X70.234 Y30.696 Z0.000 F1600
G1 X70.297 Y30.613 Z0.000 F1600
G1 X70.380 Y30.423 Z0.000 F1600
G1 X70.380 Y30.213 Z0.000 F1600
; --- FIX X Backlash: -1.300mm ---
G0 X69.080 Y30.213 F1200
G1 X69.007 Y30.037 Z0.000 F1600
G1 X68.850 Y29.891 Z0.000 F1600
G1 X68.631 Y29.818 Z0.000 F1600
G1 X68.451 Y29.848 Z0.000 F1600
; --- FIX Y Backlash: 1.300mm ---
G0 X68.451 Y31.148 F1200
G1 X68.335 Y31.221 Z0.000 F1600
; --- FIX Y Backlash: -1.300mm ---
G0 X68.335 Y29.921 F1200
G1 X68.159 Y29.721 Z0.000 F1600
G1 X68.125 Y29.585 Z0.000 F1600
; --- FIX X Backlash: 1.300mm ---
G0 X69.425 Y29.585 F1200
G1 X69.488 Y29.439 Z0.000 F1600
G1 X69.625 Y29.345 Z0.000 F1600
G1 X70.263 Y29.345 Z0.000 F1600
G1 X70.496 Y29.282 Z0.000 F1600
G1 X70.589 Y29.114 Z0.000 F1600
G1 X70.599 Y28.936 Z0.000 F1600
; --- FIX X Backlash: -1.300mm ---
G0 X69.299 Y28.936 F1200
G1 X69.206 Y28.780 Z0.000 F1600
G1 X68.953 Y28.610 Z0.000 F1600
G1 X68.704 Y28.547 Z0.000 F1600
G1 X68.421 Y28.580 Z0.000 F1600
; --- FIX Y Backlash: 1.300mm ---
G0 X68.421 Y29.880 F1200
G1 X68.178 Y29.983 Z0.000 F1600
G1 X68.032 Y30.143 Z0.000 F1600
G1 X68.053 Y30.330 Z0.000 F1600
; --- FIX X Backlash: 1.300mm ---
G0 X69.353 Y30.330 F1200
G1 X69.459 Y30.508 Z0.000 F1600
G1 X69.615 Y30.655 Z0.000 F1600
G0 Z3.5 F1000
; --- FIX Y Backlash: -1.300mm ---
G0 X69.615 Y29.355 F1200
G0 X71.175 Y29.282 Z2.100
G1 Z0 F1000
; --- FIX Y Backlash: 1.300mm ---
G0 X71.175 Y30.582 F1200
G1 X71.175 Y32.122 Z0.000 F1600
; --- FIX Y Backlash: -1.300mm ---
G0 X71.175 Y30.822 F1200
G1 X71.175 Y30.350 Z0.000 F1600
; --- FIX Y Backlash: 1.300mm ---
G0 X71.175 Y31.650 F1200
G1 X71.271 Y31.839 Z0.000 F1600
G1 X71.418 Y32.029 Z0.000 F1600
G1 X71.574 Y32.102 Z0.000 F1600
G1 X71.720 Y32.122 Z0.000 F1600
G1 X71.813 Y32.112 Z0.000 F1600
G0 Z3.5 F1000
; --- FIX Y Backlash: -1.300mm ---
G0 X71.813 Y30.812 F1200
G0 X72.266 Y30.642 Z2.100
G1 Z0 F1000
; --- FIX Y Backlash: 1.300mm ---
G0 X72.266 Y31.942 F1200
G1 X72.485 Y32.069 Z0.000 F1600
G1 X72.672 Y32.122 Z0.000 F1600
G1 X72.861 Y32.142 Z0.000 F1600
; --- FIX Y Backlash: -1.300mm ---
G0 X72.861 Y30.842 F1200
G1 X73.007 Y30.789 Z0.000 F1600
G1 X73.134 Y30.676 Z0.000 F1600
G1 X73.217 Y30.506 Z0.000 F1600
G1 X73.227 Y30.277 Z0.000 F1600
G1 X73.227 Y29.292 Z0.000 F1600
; --- FIX Y Backlash: 1.300mm ---
G0 X73.227 Y30.592 F1200
G1 X73.217 Y30.875 Z0.000 F1600
; --- FIX X Backlash: -1.300mm ---
G0 X71.917 Y30.875 F1200
; --- FIX Y Backlash: -1.300mm ---
G0 X71.917 Y29.575 F1200
G1 X71.781 Y29.481 Z0.000 F1600
G1 X71.634 Y29.376 Z0.000 F1600
G1 X71.468 Y29.303 Z0.000 F1600
G1 X71.278 Y29.271 Z0.000 F1600
; --- FIX Y Backlash: 1.300mm ---
G0 X71.278 Y30.571 F1200
G1 X71.122 Y30.624 Z0.000 F1600
G1 X70.996 Y30.708 Z0.000 F1600
G1 X70.901 Y30.844 Z0.000 F1600
G1 X70.901 Y31.044 Z0.000 F1600
; --- FIX X Backlash: 1.300mm ---
G0 X72.201 Y31.044 F1200
G1 X72.276 Y31.201 Z0.000 F1600
G1 X72.442 Y31.337 Z0.000 F1600
G1 X72.608 Y31.400 Z0.000 F1600
G1 X72.808 Y31.464 Z0.000 F1600
G1 X72.997 Y31.493 Z0.000 F1600
G1 X73.114 Y31.503 Z0.000 F1600
G1 X73.207 Y31.503 Z0.000 F1600
G0 Z3.5 F1000
; --- FIX Y Backlash: -1.300mm ---
G0 X73.207 Y30.203 F1200
G0 X74.045 Y29.533 Z2.100
G1 Z0 F1000
G1 X74.215 Y29.418 Z0.000 F1600
G1 X74.391 Y29.324 Z0.000 F1600
G1 X74.551 Y29.292 Z0.000 F1600
G1 X74.747 Y29.303 Z0.000 F1600
; --- FIX Y Backlash: 1.300mm ---
G0 X74.747 Y30.603 F1200
G1 X74.873 Y30.666 Z0.000 F1600
G1 X75.043 Y30.823 Z0.000 F1600
G1 X75.156 Y31.064 Z0.000 F1600
G1 X75.189 Y31.294 Z0.000 F1600
G1 X75.189 Y31.567 Z0.000 F1600
; --- FIX X Backlash: -1.300mm ---
G0 X73.889 Y31.567 F1200
G1 X73.816 Y31.806 Z0.000 F1600
G1 X73.670 Y32.016 Z0.000 F1600
G1 X73.500 Y32.112 Z0.000 F1600
G1 X73.281 Y32.112 Z0.000 F1600
G1 X73.101 Y32.079 Z0.000 F1600
; --- FIX Y Backlash: -1.300mm ---
G0 X73.101 Y30.779 F1200
G1 X72.892 Y30.666 Z0.000 F1600
G1 X72.715 Y30.486 Z0.000 F1600
; --- FIX Y Backlash: 1.300mm ---
G0 X72.715 Y31.786 F1200
G1 X72.715 Y32.122 Z0.000 F1600
; --- FIX Y Backlash: -1.300mm ---
G0 X72.715 Y30.822 F1200
G1 X72.715 Y28.570 Z0.000 F1600
G0 Z3.5 F1000
G0 X71.134 Y27.844 Z2.100
G1 Z0 F1000
G1 X71.134 Y25.361 Z0.000 F1600
G0 Z3.5 F1000
; --- FIX X Backlash: 1.300mm ---
G0 X72.434 Y25.361 F1200
; --- FIX Y Backlash: 1.300mm ---
G0 X72.434 Y26.661 F1200
G0 X75.911 Y30.592 Z2.100
G1 Z0 F1000
G1 X75.911 Y32.897 Z0.000 F1600
; --- FIX Y Backlash: -1.300mm ---
G0 X75.911 Y31.597 F1200
G1 X75.911 Y30.433 Z0.000 F1600
; --- FIX Y Backlash: 1.300mm ---
G0 X75.911 Y31.733 F1200
G1 X76.067 Y31.903 Z0.000 F1600
G1 X76.204 Y32.029 Z0.000 F1600
G1 X76.403 Y32.112 Z0.000 F1600
G1 X76.603 Y32.132 Z0.000 F1600
; --- FIX Y Backlash: -1.300mm ---
G0 X76.603 Y30.832 F1200
G1 X76.832 Y30.706 Z0.000 F1600
G1 X76.916 Y30.559 Z0.000 F1600
G1 X76.959 Y30.320 Z0.000 F1600
G1 X76.959 Y29.282 Z0.000 F1600
G0 Z3.5 F1000
G0 X77.659 Y29.292 Z2.100
G1 Z0 F1000
G1 X77.827 Y29.292 Z0.000 F1600
; --- FIX Y Backlash: 1.300mm ---
G0 X77.827 Y30.592 F1200
G1 X77.827 Y30.760 Z0.000 F1600
; --- FIX X Backlash: -1.300mm ---
G0 X76.527 Y30.760 F1200
G1 X76.359 Y30.760 Z0.000 F1600
; --- FIX Y Backlash: -1.300mm ---
G0 X76.359 Y29.460 F1200
G1 X76.359 Y29.292 Z0.000 F1600
G0 Z3.5 F1000
; --- FIX X Backlash: 1.300mm ---
G0 X77.659 Y29.292 F1200
; --- FIX Y Backlash: 1.300mm ---
G0 X77.659 Y30.592 F1200
G0 X78.728 Y30.655 Z2.100
G1 Z0 F1000
; --- FIX X Backlash: -1.300mm ---
G0 X77.428 Y30.655 F1200
; --- FIX Y Backlash: -1.300mm ---
G0 X77.428 Y29.355 F1200
G1 X77.272 Y29.208 Z0.000 F1600
G1 X77.167 Y29.030 Z0.000 F1600
G1 X77.146 Y28.843 Z0.000 F1600
; --- FIX X Backlash: 1.300mm ---
G0 X78.446 Y28.843 F1200
G1 X78.592 Y28.683 Z0.000 F1600
G1 X78.835 Y28.580 Z0.000 F1600
G1 X79.117 Y28.547 Z0.000 F1600
; --- FIX Y Backlash: 1.300mm ---
G0 X79.117 Y29.847 F1200
G1 X79.367 Y29.910 Z0.000 F1600
G1 X79.620 Y30.080 Z0.000 F1600
G1 X79.713 Y30.236 Z0.000 F1600
G1 X79.703 Y30.414 Z0.000 F1600
; --- FIX X Backlash: -1.300mm ---
G0 X78.403 Y30.414 F1200
G1 X78.310 Y30.582 Z0.000 F1600
G1 X78.077 Y30.645 Z0.000 F1600
G1 X77.438 Y30.645 Z0.000 F1600
G1 X77.302 Y30.739 Z0.000 F1600
G1 X77.239 Y30.885 Z0.000 F1600
G1 X77.272 Y31.021 Z0.000 F1600
; --- FIX X Backlash: 1.300mm ---
G0 X78.572 Y31.021 F1200
G1 X78.748 Y31.221 Z0.000 F1600
; --- FIX Y Backlash: -1.300mm ---
G0 X78.748 Y29.921 F1200
G1 X78.865 Y29.848 Z0.000 F1600
G1 X79.044 Y29.818 Z0.000 F1600
; --- FIX Y Backlash: 1.300mm ---
G0 X79.044 Y31.118 F1200
G1 X79.264 Y31.191 Z0.000 F1600
G1 X79.420 Y31.337 Z0.000 F1600
G1 X79.493 Y31.513 Z0.000 F1600
G1 X79.493 Y31.723 Z0.000 F1600
; --- FIX X Backlash: -1.300mm ---
G0 X78.193 Y31.723 F1200
G1 X78.110 Y31.913 Z0.000 F1600
G1 X78.047 Y31.996 Z0.000 F1600
G1 X77.901 Y32.089 Z0.000 F1600
; --- FIX X Backlash: 1.300mm ---
G0 X79.201 Y32.089 F1200
G1 X79.703 Y32.089 Z0.000 F1600
; --- FIX X Backlash: -1.300mm ---
G0 X78.403 Y32.089 F1200
G1 X77.901 Y32.089 Z0.000 F1600
G1 X77.744 Y32.122 Z0.000 F1600
G1 X77.502 Y32.102 Z0.000 F1600
; --- FIX Y Backlash: -1.300mm ---
G0 X77.502 Y30.802 F1200
G1 X77.335 Y30.666 Z0.000 F1600
G1 X77.239 Y30.476 Z0.000 F1600
G1 X77.229 Y30.267 Z0.000 F1600
G1 X77.272 Y30.100 Z0.000 F1600
; --- FIX X Backlash: 1.300mm ---
G0 X78.572 Y30.100 F1200
G1 X78.655 Y29.994 Z0.000 F1600
G1 X78.748 Y29.911 Z0.000 F1600
G0 Z3.5 F1000
G0 X80.278 Y29.271 Z2.100
G1 Z0 F1000
; --- FIX Y Backlash: 1.300mm ---
G0 X80.278 Y30.571 F1200
G1 X80.278 Y32.112 Z0.000 F1600
G0 Z3.5 F1000
G0 X80.351 Y32.584 Z2.100
G1 Z0 F1000
G1 X80.351 Y32.751 Z0.000 F1600
; --- FIX X Backlash: -1.300mm ---
G0 X79.051 Y32.751 F1200
G1 X78.884 Y32.751 Z0.000 F1600
; --- FIX Y Backlash: -1.300mm ---
G0 X78.884 Y31.451 F1200
G1 X78.884 Y31.284 Z0.000 F1600
; --- FIX X Backlash: 1.300mm ---
G0 X80.184 Y31.284 F1200
G1 X80.351 Y31.284 Z0.000 F1600
G0 Z3.5 F1000
G0 X81.160 Y31.251 Z2.100
G1 Z0 F1000
G1 X81.160 Y30.779 Z0.000 F1600
G1 X81.662 Y30.779 Z0.000 F1600
; --- FIX X Backlash: -1.300mm ---
G0 X80.362 Y30.779 F1200
G1 X79.554 Y30.779 Z0.000 F1600
; --- FIX X Backlash: 1.300mm ---
G0 X80.854 Y30.779 F1200
G1 X81.160 Y30.779 Z0.000 F1600
G1 X81.160 Y29.701 Z0.000 F1600
G1 X81.180 Y29.470 Z0.000 F1600
G1 X81.296 Y29.334 Z0.000 F1600
G1 X81.429 Y29.292 Z0.000 F1600
G1 X81.579 Y29.292 Z0.000 F1600
; --- FIX Y Backlash: 1.300mm ---
G0 X81.579 Y30.592 F1200
G1 X81.692 Y30.645 Z0.000 F1600
G0 Z3.5 F1000
; --- FIX Y Backlash: -1.300mm ---
G0 X81.692 Y29.345 F1200
G0 X82.227 Y29.292 Z2.100
G1 Z0 F1000
; --- FIX Y Backlash: 1.300mm ---
G0 X82.227 Y30.592 F1200
G1 X82.227 Y32.897 Z0.000 F1600
; --- FIX Y Backlash: -1.300mm ---
G0 X82.227 Y31.597 F1200
G1 X82.227 Y30.433 Z0.000 F1600
; --- FIX Y Backlash: 1.300mm ---
G0 X82.227 Y31.733 F1200
G1 X82.384 Y31.903 Z0.000 F1600
G1 X82.520 Y32.029 Z0.000 F1600
G1 X82.720 Y32.112 Z0.000 F1600
G1 X82.919 Y32.132 Z0.000 F1600
; --- FIX Y Backlash: -1.300mm ---
G0 X82.919 Y30.832 F1200
G1 X83.149 Y30.706 Z0.000 F1600
G1 X83.232 Y30.559 Z0.000 F1600
G1 X83.275 Y30.320 Z0.000 F1600
G1 X83.275 Y29.282 Z0.000 F1600
G0 Z3.5 F1000
; --- FIX Y Backlash: 1.300mm ---
G0 X83.275 Y30.582 F1200
G0 X84.050 Y32.102 Z2.100
G1 Z0 F1000
; --- FIX Y Backlash: -1.300mm ---
G0 X84.050 Y30.802 F1200
G1 X84.050 Y29.828 Z0.000 F1600
G1 X84.060 Y29.565 Z0.000 F1600
G1 X84.133 Y29.428 Z0.000 F1600
G1 X84.260 Y29.324 Z0.000 F1600
G1 X84.446 Y29.271 Z0.000 F1600
G1 X84.625 Y29.303 Z0.000 F1600
; --- FIX Y Backlash: 1.300mm ---
G0 X84.625 Y30.603 F1200
G1 X84.815 Y30.708 Z0.000 F1600
G1 X84.951 Y30.844 Z0.000 F1600
G1 X85.065 Y30.981 Z0.000 F1600
; --- FIX Y Backlash: -1.300mm ---
G0 X85.065 Y29.681 F1200
G1 X85.065 Y29.282 Z0.000 F1600
; --- FIX Y Backlash: 1.300mm ---
G0 X85.065 Y30.582 F1200
G1 X85.065 Y32.102 Z0.000 F1600
G0 Z3.5 F1000
; --- FIX Y Backlash: -1.300mm ---
G0 X85.065 Y30.802 F1200
G0 X85.923 Y30.529 Z2.100
G1 Z0 F1000
; --- FIX Y Backlash: 1.300mm ---
G0 X85.923 Y31.829 F1200
G1 X86.132 Y31.996 Z0.000 F1600
G1 X86.332 Y32.102 Z0.000 F1600
G1 X86.531 Y32.142 Z0.000 F1600
G1 X86.721 Y32.102 Z0.000 F1600
; --- FIX Y Backlash: -1.300mm ---
G0 X86.721 Y30.802 F1200
G1 X86.857 Y30.729 Z0.000 F1600
G1 X87.014 Y30.529 Z0.000 F1600
G1 X87.063 Y30.287 Z0.000 F1600
G1 X87.077 Y30.027 Z0.000 F1600
G1 X87.034 Y29.764 Z0.000 F1600
; --- FIX X Backlash: -1.300mm ---
G0 X85.734 Y29.764 F1200
G1 X85.630 Y29.555 Z0.000 F1600
G1 X85.494 Y29.408 Z0.000 F1600
G1 X85.271 Y29.282 Z0.000 F1600
G1 X85.085 Y29.292 Z0.000 F1600
; --- FIX Y Backlash: 1.300mm ---
G0 X85.085 Y30.592 F1200
G1 X84.895 Y30.645 Z0.000 F1600
G1 X84.719 Y30.760 Z0.000 F1600
G1 X84.603 Y30.855 Z0.000 F1600
; --- FIX Y Backlash: -1.300mm ---
G0 X84.603 Y29.555 F1200
G1 X84.603 Y29.271 Z0.000 F1600
; --- FIX Y Backlash: 1.300mm ---
G0 X84.603 Y30.571 F1200
G1 X84.603 Y32.907 Z0.000 F1600
G0 Z3.5 F1000
; --- FIX X Backlash: 1.300mm ---
G0 X85.903 Y32.907 F1200
; --- FIX Y Backlash: -1.300mm ---
G0 X85.903 Y31.607 F1200
G0 X88.522 Y31.451 Z2.100
G1 Z0 F1000
G1 X88.522 Y31.284 Z0.000 F1600
G1 X88.690 Y31.284 Z0.000 F1600
; --- FIX Y Backlash: 1.300mm ---
G0 X88.690 Y32.584 F1200
G1 X88.690 Y32.751 Z0.000 F1600
; --- FIX X Backlash: -1.300mm ---
G0 X87.390 Y32.751 F1200
G1 X87.222 Y32.751 Z0.000 F1600
G0 Z3.5 F1000
; --- FIX X Backlash: 1.300mm ---
G0 X88.522 Y32.751 F1200
; --- FIX Y Backlash: -1.300mm ---
G0 X88.522 Y31.451 F1200
G0 X88.617 Y30.812 Z2.100
G1 Z0 F1000
G1 X88.617 Y29.271 Z0.000 F1600
G0 Z3.5 F1000
; --- FIX X Backlash: -1.300mm ---
G0 X87.317 Y29.271 F1200
G0 X86.562 Y29.292 Z2.100
G1 Z0 F1000
; --- FIX Y Backlash: 1.300mm ---
G0 X86.562 Y30.592 F1200
G1 X86.562 Y30.760 Z0.000 F1600
G1 X86.394 Y30.760 Z0.000 F1600
; --- FIX Y Backlash: -1.300mm ---
G0 X86.394 Y29.460 F1200
G1 X86.394 Y29.292 Z0.000 F1600
; --- FIX X Backlash: 1.300mm ---
G0 X87.694 Y29.292 F1200
G1 X87.862 Y29.292 Z0.000 F1600
G0 Z3.5 F1000
; --- FIX Y Backlash: 1.300mm ---
G0 X87.862 Y30.592 F1200
G0 X89.412 Y30.938 Z2.100
G1 Z0 F1000
; --- FIX Y Backlash: -1.300mm ---
G0 X89.412 Y29.638 F1200
G1 X89.538 Y29.470 Z0.000 F1600
G1 X89.684 Y29.355 Z0.000 F1600
G1 X89.844 Y29.292 Z0.000 F1600
G1 X89.990 Y29.282 Z0.000 F1600
G1 X90.000 Y29.282 Z0.000 F1600
; --- FIX Y Backlash: 1.300mm ---
G0 X90.000 Y30.582 F1200
G1 X90.210 Y30.634 Z0.000 F1600
G1 X90.410 Y30.770 Z0.000 F1600
G1 X90.533 Y30.981 Z0.000 F1600
G1 X90.586 Y31.211 Z0.000 F1600
G1 X90.596 Y31.430 Z0.000 F1600
G1 X90.566 Y31.630 Z0.000 F1600
; --- FIX X Backlash: -1.300mm ---
G0 X89.266 Y31.630 F1200
G1 X89.193 Y31.806 Z0.000 F1600
G1 X89.086 Y31.942 Z0.000 F1600
G1 X88.940 Y32.069 Z0.000 F1600
G1 X88.784 Y32.122 Z0.000 F1600
G1 X88.637 Y32.132 Z0.000 F1600
G1 X88.468 Y32.102 Z0.000 F1600
; --- FIX Y Backlash: -1.300mm ---
G0 X88.468 Y30.802 F1200
G1 X88.311 Y30.706 Z0.000 F1600
G1 X88.175 Y30.549 Z0.000 F1600
G1 X88.102 Y30.403 Z0.000 F1600
G1 X88.040 Y30.183 Z0.000 F1600
G1 X88.040 Y30.014 Z0.000 F1600
G1 X88.061 Y29.818 Z0.000 F1600
; --- FIX X Backlash: 1.300mm ---
G0 X89.361 Y29.818 F1200
G1 X89.412 Y29.638 Z0.000 F1600
G0 Z3.5 F1000
G0 X94.211 Y29.390 Z2.100
G1 Z0 F1000
; --- FIX X Backlash: -1.300mm ---
G0 X92.911 Y29.390 F1200
G1 X92.744 Y29.263 Z0.000 F1600
G1 X92.519 Y29.183 Z0.000 F1600
G1 X92.296 Y29.215 Z0.000 F1600
; --- FIX Y Backlash: 1.300mm ---
G0 X92.296 Y30.515 F1200
G1 X92.089 Y30.626 Z0.000 F1600
G1 X91.929 Y30.818 Z0.000 F1600
G1 X91.851 Y31.018 Z0.000 F1600
G1 X91.827 Y31.319 Z0.000 F1600
G1 X91.851 Y31.600 Z0.000 F1600
; --- FIX X Backlash: 1.300mm ---
G0 X93.151 Y31.600 F1200
G1 X93.255 Y31.830 Z0.000 F1600
G1 X93.414 Y32.004 Z0.000 F1600
G1 X93.596 Y32.093 Z0.000 F1600
G1 X93.804 Y32.108 Z0.000 F1600
G1 X93.988 Y32.070 Z0.000 F1600
; --- FIX Y Backlash: -1.300mm ---
G0 X93.988 Y30.770 F1200
G1 X94.115 Y30.689 Z0.000 F1600
G1 X94.155 Y30.641 Z0.000 F1600
G0 Z3.5 F1000
; --- FIX Y Backlash: 1.300mm ---
G0 X94.155 Y31.941 F1200
G0 X95.534 Y32.070 Z2.100
G1 Z0 F1000
; --- FIX X Backlash: -1.300mm ---
G0 X94.234 Y32.070 F1200
G1 X93.420 Y32.070 Z0.000 F1600
; --- FIX Y Backlash: -1.300mm ---
G0 X93.420 Y30.770 F1200
G1 X93.420 Y30.044 Z0.000 F1600
; --- FIX X Backlash: 1.300mm ---
G0 X94.720 Y30.044 F1200
G1 X95.423 Y30.044 Z0.000 F1600
; --- FIX X Backlash: -1.300mm ---
G0 X94.123 Y30.044 F1200
G1 X93.420 Y30.044 Z0.000 F1600
G1 X93.420 Y29.223 Z0.000 F1600
; --- FIX X Backlash: 1.300mm ---
G0 X94.720 Y29.223 F1200
G1 X95.565 Y29.223 Z0.000 F1600
G0 Z3.5 F1000
G0 X96.076 Y29.191 Z2.100
G1 Z0 F1000
; --- FIX Y Backlash: 1.300mm ---
G0 X96.076 Y30.491 F1200
G1 X96.076 Y32.085 Z0.000 F1600
G1 X96.610 Y32.085 Z0.000 F1600
G1 X96.739 Y32.045 Z0.000 F1600
; --- FIX Y Backlash: -1.300mm ---
G0 X96.739 Y30.745 F1200
G1 X96.881 Y30.674 Z0.000 F1600
G1 X96.984 Y30.515 Z0.000 F1600
G1 X96.984 Y30.378 Z0.000 F1600
G1 X96.962 Y30.226 Z0.000 F1600
; --- FIX X Backlash: -1.300mm ---
G0 X95.662 Y30.226 F1200
G1 X95.565 Y30.092 Z0.000 F1600
G1 X95.446 Y30.019 Z0.000 F1600
G1 X95.254 Y29.973 Z0.000 F1600
G1 X94.784 Y29.973 Z0.000 F1600
; --- FIX X Backlash: 1.300mm ---
G0 X96.084 Y29.973 F1200
G1 X96.539 Y29.973 Z0.000 F1600
G1 X97.002 Y29.191 Z0.000 F1600
G0 Z3.5 F1000
G0 X97.536 Y29.199 Z2.100
G1 Z0 F1000
; --- FIX Y Backlash: 1.300mm ---
G0 X97.536 Y30.499 F1200
G1 X97.536 Y32.085 Z0.000 F1600
G1 X97.592 Y32.085 Z0.000 F1600
; --- FIX Y Backlash: -1.300mm ---
G0 X97.592 Y30.785 F1200
G1 X98.540 Y29.199 Z0.000 F1600
; --- FIX Y Backlash: 1.300mm ---
G0 X98.540 Y30.499 F1200
G1 X98.540 Y32.093 Z0.000 F1600
G0 Z3.5 F1000
; --- FIX Y Backlash: -1.300mm ---
G0 X98.540 Y30.793 F1200
G0 X99.018 Y29.804 Z2.100
G1 Z0 F1000
G1 X99.535 Y29.804 Z0.000 F1600
G0 Z3.5 F1000
; --- FIX Y Backlash: 1.300mm ---
G0 X99.535 Y31.104 F1200
G0 X99.936 Y31.207 Z2.100
G1 Z0 F1000
; --- FIX Y Backlash: -1.300mm ---
G0 X99.936 Y29.907 F1200
G1 X99.968 Y29.700 Z0.000 F1600
G1 X100.046 Y29.510 Z0.000 F1600
G1 X100.160 Y29.359 Z0.000 F1600
G1 X100.286 Y29.255 Z0.000 F1600
G1 X100.423 Y29.207 Z0.000 F1600
G1 X100.550 Y29.199 Z0.000 F1600
G1 X100.757 Y29.231 Z0.000 F1600
; --- FIX Y Backlash: 1.300mm ---
G0 X100.757 Y30.531 F1200
G1 X100.964 Y30.666 Z0.000 F1600
G1 X101.106 Y30.881 Z0.000 F1600
G1 X101.180 Y31.162 Z0.000 F1600
G1 X101.180 Y31.423 Z0.000 F1600
G1 X101.139 Y31.638 Z0.000 F1600
; --- FIX X Backlash: -1.300mm ---
G0 X99.839 Y31.638 F1200
G1 X99.761 Y31.815 Z0.000 F1600
G1 X99.632 Y31.982 Z0.000 F1600
G1 X99.457 Y32.085 Z0.000 F1600
G1 X99.280 Y32.118 Z0.000 F1600
G1 X99.131 Y32.093 Z0.000 F1600
; --- FIX Y Backlash: -1.300mm ---
G0 X99.131 Y30.793 F1200
G1 X98.961 Y30.730 Z0.000 F1600
G1 X98.804 Y30.593 Z0.000 F1600
G1 X98.683 Y30.363 Z0.000 F1600
G1 X98.644 Y30.181 Z0.000 F1600
G1 X98.636 Y29.907 Z0.000 F1600
G0 Z3.5 F1000
; --- FIX X Backlash: 1.300mm ---
G0 X99.936 Y29.907 F1200
G0 X101.751 Y29.199 Z2.100
G1 Z0 F1000
; --- FIX Y Backlash: 1.300mm ---
G0 X101.751 Y30.499 F1200
G1 X101.751 Y32.093 Z0.000 F1600
; --- FIX Y Backlash: -1.300mm ---
G0 X101.751 Y30.793 F1200
G1 X101.751 Y30.052 Z0.000 F1600
G1 X102.764 Y30.052 Z0.000 F1600
; --- FIX Y Backlash: 1.300mm ---
G0 X102.764 Y31.352 F1200
G1 X102.764 Y32.085 Z0.000 F1600
; --- FIX Y Backlash: -1.300mm ---
G0 X102.764 Y30.785 F1200
G1 X102.764 Y29.199 Z0.000 F1600
G0 Z3.5 F1000
G0 X104.239 Y29.223 Z2.100
G1 Z0 F1000
; --- FIX X Backlash: -1.300mm ---
G0 X102.939 Y29.223 F1200
G1 X102.142 Y29.223 Z0.000 F1600
; --- FIX Y Backlash: 1.300mm ---
G0 X102.142 Y30.523 F1200
G1 X102.142 Y32.101 Z0.000 F1600
G0 Z3.5 F1000
; --- FIX X Backlash: 1.300mm ---
G0 X103.442 Y32.101 F1200
; --- FIX Y Backlash: -1.300mm ---
G0 X103.442 Y30.801 F1200
G0 X104.493 Y29.804 Z2.100
G1 Z0 F1000
G1 X105.010 Y29.804 Z0.000 F1600
G0 Z3.5 F1000
; --- FIX Y Backlash: 1.300mm ---
G0 X105.010 Y31.104 F1200
G0 X105.514 Y31.233 Z2.100
G1 Z0 F1000
G1 X105.899 Y31.233 Z0.000 F1600
G1 X106.088 Y31.240 Z0.000 F1600
G1 X106.255 Y31.304 Z0.000 F1600
G1 X106.374 Y31.400 Z0.000 F1600
G1 X106.440 Y31.559 Z0.000 F1600
G1 X106.448 Y31.703 Z0.000 F1600
G1 X106.415 Y31.863 Z0.000 F1600
; --- FIX X Backlash: -1.300mm ---
G0 X105.115 Y31.863 F1200
G1 X105.036 Y31.967 Z0.000 F1600
G1 X104.933 Y32.045 Z0.000 F1600
G1 X104.788 Y32.085 Z0.000 F1600
G1 X104.222 Y32.085 Z0.000 F1600
; --- FIX Y Backlash: -1.300mm ---
G0 X104.222 Y30.785 F1200
G1 X104.222 Y29.183 Z0.000 F1600
G0 Z3.5 F1000
; --- FIX X Backlash: 1.300mm ---
G0 X105.522 Y29.183 F1200
; --- FIX Y Backlash: 1.300mm ---
G0 X105.522 Y30.483 F1200
G0 X106.791 Y31.104 Z2.100
G1 Z0 F1000
G1 X107.308 Y31.104 Z0.000 F1600
G0 Z3.5 F1000
G0 X107.669 Y31.855 Z2.100
G1 Z0 F1000
G1 X107.773 Y31.956 Z0.000 F1600
G1 X107.900 Y32.037 Z0.000 F1600
G1 X108.059 Y32.078 Z0.000 F1600
G1 X108.196 Y32.053 Z0.000 F1600
; --- FIX Y Backlash: -1.300mm ---
G0 X108.196 Y30.753 F1200
G1 X108.338 Y30.682 Z0.000 F1600
G1 X108.426 Y30.563 Z0.000 F1600
G1 X108.467 Y30.386 Z0.000 F1600
G1 X108.457 Y30.236 Z0.000 F1600
; --- FIX X Backlash: -1.300mm ---
G0 X107.157 Y30.236 F1200
G1 X107.078 Y30.052 Z0.000 F1600
G1 X106.934 Y29.844 Z0.000 F1600
G1 X106.759 Y29.629 Z0.000 F1600
G1 X106.600 Y29.462 Z0.000 F1600
G1 X106.385 Y29.223 Z0.000 F1600
; --- FIX X Backlash: 1.300mm ---
G0 X107.685 Y29.223 F1200
G1 X108.586 Y29.223 Z0.000 F1600
G0 Z3.5 F1000
G0 X109.000 Y29.199 Z2.100
G1 Z0 F1000
G1 X109.127 Y29.199 Z0.000 F1600
; --- FIX Y Backlash: 1.300mm ---
G0 X109.127 Y30.499 F1200
G1 X109.127 Y30.626 Z0.000 F1600
; --- FIX X Backlash: -1.300mm ---
G0 X107.827 Y30.626 F1200
G1 X107.700 Y30.626 Z0.000 F1600
; --- FIX Y Backlash: -1.300mm ---
G0 X107.700 Y29.326 F1200
G1 X107.700 Y29.199 Z0.000 F1600
G0 Z3.5 F1000
; --- FIX X Backlash: 1.300mm ---
G0 X109.000 Y29.199 F1200
; --- FIX Y Backlash: 1.300mm ---
G0 X109.000 Y30.499 F1200
G0 X109.702 Y30.682 Z2.100
G1 Z0 F1000
; --- FIX Y Backlash: -1.300mm ---
G0 X109.702 Y29.382 F1200
G1 X109.798 Y29.279 Z0.000 F1600
G1 X109.894 Y29.199 Z0.000 F1600
G1 X110.005 Y29.191 Z0.000 F1600
G1 X110.157 Y29.223 Z0.000 F1600
; --- FIX Y Backlash: 1.300mm ---
G0 X110.157 Y30.523 F1200
G1 X110.316 Y30.682 Z0.000 F1600
G1 X110.387 Y30.851 Z0.000 F1600
G1 X110.420 Y31.040 Z0.000 F1600
G1 X110.435 Y31.304 Z0.000 F1600
G1 X110.420 Y31.552 Z0.000 F1600
; --- FIX X Backlash: -1.300mm ---
G0 X109.120 Y31.552 F1200
G1 X109.062 Y31.789 Z0.000 F1600
G1 X108.984 Y31.941 Z0.000 F1600
G1 X108.857 Y32.037 Z0.000 F1600
G1 X108.743 Y32.078 Z0.000 F1600
G1 X108.650 Y32.070 Z0.000 F1600
; --- FIX Y Backlash: -1.300mm ---
G0 X108.650 Y30.770 F1200
G1 X108.498 Y30.682 Z0.000 F1600
G1 X108.394 Y30.537 Z0.000 F1600
G1 X108.322 Y30.307 Z0.000 F1600
G1 X108.298 Y30.067 Z0.000 F1600
G1 X108.290 Y29.829 Z0.000 F1600
G1 X108.322 Y29.606 Z0.000 F1600
; --- FIX X Backlash: 1.300mm ---
G0 X109.622 Y29.606 F1200
G1 X109.702 Y29.382 Z0.000 F1600
G0 Z3.5 F1000
; --- FIX Y Backlash: 1.300mm ---
G0 X109.702 Y30.682 F1200
G0 X112.859 Y31.925 Z2.100
G1 Z0 F1000
G1 X112.970 Y32.032 Z0.000 F1600
G1 X113.103 Y32.117 Z0.000 F1600
G1 X113.272 Y32.160 Z0.000 F1600
G1 X113.416 Y32.133 Z0.000 F1600
; --- FIX Y Backlash: -1.300mm ---
G0 X113.416 Y30.833 F1200
G1 X113.566 Y30.758 Z0.000 F1600
G1 X113.660 Y30.633 Z0.000 F1600
G1 X113.703 Y30.446 Z0.000 F1600
G1 X113.692 Y30.288 Z0.000 F1600
; --- FIX X Backlash: -1.300mm ---
G0 X112.392 Y30.288 F1200
G1 X112.309 Y30.092 Z0.000 F1600
G1 X112.156 Y29.873 Z0.000 F1600
G1 X111.972 Y29.646 Z0.000 F1600
G1 X111.803 Y29.469 Z0.000 F1600
G1 X111.576 Y29.217 Z0.000 F1600
; --- FIX X Backlash: 1.300mm ---
G0 X112.876 Y29.217 F1200
G1 X113.828 Y29.217 Z0.000 F1600
G0 Z3.5 F1000
; --- FIX Y Backlash: 1.300mm ---
G0 X113.828 Y30.517 F1200
G0 X114.165 Y30.702 Z2.100
G1 Z0 F1000
; --- FIX Y Backlash: -1.300mm ---
G0 X114.165 Y29.402 F1200
G1 X114.258 Y29.318 Z0.000 F1600
G1 X114.409 Y29.233 Z0.000 F1600
G1 X114.561 Y29.191 Z0.000 F1600
G1 X114.722 Y29.191 Z0.000 F1600
G1 X114.871 Y29.233 Z0.000 F1600
; --- FIX Y Backlash: 1.300mm ---
G0 X114.871 Y30.533 F1200
G1 X114.992 Y30.609 Z0.000 F1600
G1 X115.075 Y30.727 Z0.000 F1600
G1 X115.101 Y30.828 Z0.000 F1600
G1 X115.109 Y30.954 Z0.000 F1600
G1 X115.083 Y31.072 Z0.000 F1600
; --- FIX X Backlash: -1.300mm ---
G0 X113.783 Y31.072 F1200
G1 X113.716 Y31.173 Z0.000 F1600
G1 X113.571 Y31.283 Z0.000 F1600
G1 X113.438 Y31.334 Z0.000 F1600
G1 X113.304 Y31.350 Z0.000 F1600
G1 X113.176 Y31.350 Z0.000 F1600
; --- FIX X Backlash: 1.300mm ---
G0 X114.476 Y31.350 F1200
G1 X114.577 Y31.350 Z0.000 F1600
G1 X114.714 Y31.376 Z0.000 F1600
G1 X114.871 Y31.459 Z0.000 F1600
G1 X115.016 Y31.569 Z0.000 F1600
G1 X115.059 Y31.713 Z0.000 F1600
G1 X115.032 Y31.874 Z0.000 F1600
; --- FIX X Backlash: -1.300mm ---
G0 X113.732 Y31.874 F1200
G1 X113.673 Y32.008 Z0.000 F1600
G1 X113.547 Y32.109 Z0.000 F1600
G1 X113.395 Y32.152 Z0.000 F1600
G1 X113.253 Y32.152 Z0.000 F1600
; --- FIX Y Backlash: -1.300mm ---
G0 X113.253 Y30.852 F1200
G1 X113.077 Y30.775 Z0.000 F1600
G1 X112.941 Y30.673 Z0.000 F1600
G0 Z3.5 F1000
; --- FIX X Backlash: 1.300mm ---
G0 X114.241 Y30.673 F1200
G0 X115.598 Y29.326 Z2.100
G1 Z0 F1000
G1 X115.598 Y29.191 Z0.000 F1600
G1 X115.733 Y29.191 Z0.000 F1600
; --- FIX Y Backlash: 1.300mm ---
G0 X115.733 Y30.491 F1200
G1 X115.733 Y30.626 Z0.000 F1600
; --- FIX X Backlash: -1.300mm ---
G0 X114.433 Y30.626 F1200
G1 X114.298 Y30.626 Z0.000 F1600
G0 Z3.5 F1000
; --- FIX X Backlash: 1.300mm ---
G0 X115.598 Y30.626 F1200
; --- FIX Y Backlash: -1.300mm ---
G0 X115.598 Y29.326 F1200
G0 X117.131 Y29.217 Z2.100
G1 Z0 F1000
; --- FIX X Backlash: -1.300mm ---
G0 X115.831 Y29.217 F1200
G1 X114.997 Y29.217 Z0.000 F1600
; --- FIX X Backlash: 1.300mm ---
G0 X116.297 Y29.217 F1200
G1 X116.720 Y29.217 Z0.000 F1600
; --- FIX Y Backlash: 1.300mm ---
G0 X116.720 Y30.517 F1200
G1 X116.720 Y32.133 Z0.000 F1600
; --- FIX X Backlash: -1.300mm ---
G0 X115.420 Y32.133 F1200
; --- FIX Y Backlash: -1.300mm ---
G0 X115.420 Y30.833 F1200
G1 X115.133 Y30.724 Z0.000 F1600
; --- FIX X Backlash: 1.300mm ---
G0 X116.433 Y30.724 F1200
G1 X116.712 Y30.732 Z0.000 F1600
G0 Z3.5 F1000
G0 X118.060 Y30.732 Z2.100
G1 Z0 F1000
; --- FIX X Backlash: -1.300mm ---
G0 X116.760 Y30.732 F1200
G1 X116.481 Y30.724 Z0.000 F1600
; --- FIX X Backlash: 1.300mm ---
G0 X117.781 Y30.724 F1200
; --- FIX Y Backlash: 1.300mm ---
G0 X117.781 Y32.024 F1200
G1 X118.068 Y32.133 Z0.000 F1600
; --- FIX Y Backlash: -1.300mm ---
G0 X118.068 Y30.833 F1200
G1 X118.068 Y29.217 Z0.000 F1600
; --- FIX X Backlash: -1.300mm ---
G0 X116.768 Y29.217 F1200
G1 X116.345 Y29.217 Z0.000 F1600
; --- FIX X Backlash: 1.300mm ---
G0 X117.645 Y29.217 F1200
G1 X118.479 Y29.217 Z0.000 F1600
G0 Z3.5 F1000
G0 X118.960 Y29.191 Z2.100
G1 Z0 F1000
G1 X119.095 Y29.191 Z0.000 F1600
; --- FIX Y Backlash: 1.300mm ---
G0 X119.095 Y30.491 F1200
G1 X119.095 Y30.626 Z0.000 F1600
; --- FIX X Backlash: -1.300mm ---
G0 X117.795 Y30.626 F1200
G1 X117.660 Y30.626 Z0.000 F1600
; --- FIX Y Backlash: -1.300mm ---
G0 X117.660 Y29.326 F1200
G1 X117.660 Y29.191 Z0.000 F1600
G0 Z3.5 F1000
; --- FIX X Backlash: 1.300mm ---
G0 X118.960 Y29.191 F1200
G0 X120.536 Y29.217 Z2.100
G1 Z0 F1000
; --- FIX X Backlash: -1.300mm ---
G0 X119.236 Y29.217 F1200
G1 X118.284 Y29.217 Z0.000 F1600
; --- FIX X Backlash: 1.300mm ---
G0 X119.584 Y29.217 F1200
; --- FIX Y Backlash: 1.300mm ---
G0 X119.584 Y30.517 F1200
G1 X119.811 Y30.769 Z0.000 F1600
G1 X119.980 Y30.946 Z0.000 F1600
G1 X120.165 Y31.173 Z0.000 F1600
G1 X120.317 Y31.392 Z0.000 F1600
G1 X120.400 Y31.588 Z0.000 F1600
G1 X120.411 Y31.746 Z0.000 F1600
G1 X120.368 Y31.933 Z0.000 F1600
; --- FIX X Backlash: -1.300mm ---
G0 X119.068 Y31.933 F1200
G1 X118.974 Y32.058 Z0.000 F1600
G1 X118.824 Y32.133 Z0.000 F1600
G1 X118.680 Y32.160 Z0.000 F1600
G1 X118.511 Y32.117 Z0.000 F1600
; --- FIX Y Backlash: -1.300mm ---
G0 X118.511 Y30.817 F1200
G1 X118.378 Y30.732 Z0.000 F1600
G1 X118.267 Y30.625 Z0.000 F1600
G0 Z3.5 F1000
; --- FIX X Backlash: 1.300mm ---
G0 X119.567 Y30.625 F1200
; --- FIX Y Backlash: 1.300mm ---
G0 X119.567 Y31.925 F1200
G0 X121.775 Y32.117 Z2.100
G1 Z0 F1000
; --- FIX X Backlash: -1.300mm ---
G0 X120.475 Y32.117 F1200
G1 X119.785 Y32.117 Z0.000 F1600
; --- FIX Y Backlash: -1.300mm ---
G0 X119.785 Y30.817 F1200
G1 X119.734 Y30.109 Z0.000 F1600
G1 X119.750 Y30.084 Z0.000 F1600
; --- FIX X Backlash: 1.300mm ---
G0 X121.050 Y30.084 F1200
; --- FIX Y Backlash: 1.300mm ---
G0 X121.050 Y31.384 F1200
G1 X121.194 Y31.459 Z0.000 F1600
G1 X121.336 Y31.494 Z0.000 F1600
G1 X121.531 Y31.478 Z0.000 F1600
; --- FIX Y Backlash: -1.300mm ---
G0 X121.531 Y30.178 F1200
G1 X121.724 Y30.068 Z0.000 F1600
G1 X121.817 Y29.900 Z0.000 F1600
G1 X121.842 Y29.681 Z0.000 F1600
G1 X121.799 Y29.493 Z0.000 F1600
; --- FIX X Backlash: -1.300mm ---
G0 X120.499 Y29.493 F1200
G1 X120.389 Y29.334 Z0.000 F1600
G1 X120.255 Y29.225 Z0.000 F1600
G1 X120.063 Y29.175 Z0.000 F1600
G1 X119.934 Y29.183 Z0.000 F1600
; --- FIX Y Backlash: 1.300mm ---
G0 X119.934 Y30.483 F1200
G1 X119.801 Y30.533 Z0.000 F1600
G1 X119.683 Y30.601 Z0.000 F1600
G1 X119.573 Y30.693 Z0.000 F1600
G0 Z3.5 F1000
; --- FIX X Backlash: 1.300mm ---
G0 X120.873 Y30.693 F1200
; --- FIX Y Backlash: -1.300mm ---
G0 X120.873 Y29.393 F1200
G0 X123.755 Y27.962 Z2.100
G1 Z0 F1000
G1 X123.755 Y25.396 Z0.000 F1600
G0 Z3.5 F1000
; --- FIX Y Backlash: 1.300mm ---
G0 X123.755 Y26.696 F1200
G0 X128.585 Y30.249 Z2.100
G1 Z0 F1000
G1 X128.575 Y30.299 Z0.000 F1600
G1 X128.558 Y30.421 Z0.000 F1600
G1 X128.525 Y30.679 Z0.000 F1600
G1 X128.514 Y31.268 Z0.000 F1600
G1 X128.536 Y31.867 Z0.000 F1600
G1 X128.585 Y32.177 Z0.000 F1600
G1 X128.642 Y32.438 Z0.000 F1600
G1 X128.712 Y32.663 Z0.000 F1600
G1 X128.797 Y32.863 Z0.000 F1600
G1 X128.950 Y33.140 Z0.000 F1600
G1 X129.090 Y33.346 Z0.000 F1600
G1 X129.255 Y33.522 Z0.000 F1600
G1 X129.402 Y33.650 Z0.000 F1600
G1 X129.536 Y33.734 Z0.000 F1600
G1 X129.663 Y33.779 Z0.000 F1600
G1 X129.798 Y33.797 Z0.000 F1600
G1 X129.946 Y33.801 Z0.000 F1600
G1 X130.066 Y33.793 Z0.000 F1600
G1 X130.115 Y33.772 Z0.000 F1600
G1 X130.111 Y33.751 Z0.000 F1600
G1 X130.100 Y33.738 Z0.000 F1600
G1 X130.055 Y33.690 Z0.000 F1600
; --- FIX X Backlash: -1.300mm ---
G0 X128.755 Y33.690 F1200
; --- FIX Y Backlash: -1.300mm ---
G0 X128.755 Y32.390 F1200
G1 X128.666 Y32.280 Z0.000 F1600
G1 X128.555 Y32.136 Z0.000 F1600
G1 X128.447 Y31.987 Z0.000 F1600
G1 X128.209 Y31.619 Z0.000 F1600
G1 X128.014 Y31.240 Z0.000 F1600
G1 X127.855 Y30.841 Z0.000 F1600
G1 X127.730 Y30.412 Z0.000 F1600
G1 X127.693 Y30.234 Z0.000 F1600
G1 X127.664 Y30.047 Z0.000 F1600
G1 X127.649 Y29.903 Z0.000 F1600
G1 X127.656 Y29.856 Z0.000 F1600
; --- FIX Y Backlash: 1.300mm ---
G0 X127.656 Y31.156 F1200
G1 X127.702 Y31.256 Z0.000 F1600
; --- FIX X Backlash: 1.300mm ---
G0 X129.002 Y31.256 F1200
G1 X129.099 Y31.482 Z0.000 F1600
G1 X129.341 Y32.014 Z0.000 F1600
G1 X129.601 Y32.518 Z0.000 F1600
G1 X129.964 Y33.086 Z0.000 F1600
G1 X130.351 Y33.601 Z0.000 F1600
G1 X130.410 Y33.655 Z0.000 F1600
G1 X130.474 Y33.641 Z0.000 F1600
; --- FIX Y Backlash: -1.300mm ---
G0 X130.474 Y32.341 F1200
G1 X130.697 Y32.208 Z0.000 F1600
G1 X130.825 Y32.084 Z0.000 F1600
G1 X130.804 Y32.001 Z0.000 F1600
; --- FIX X Backlash: -1.300mm ---
G0 X129.504 Y32.001 F1200
G1 X129.450 Y31.854 Z0.000 F1600
G1 X129.376 Y31.679 Z0.000 F1600
G1 X129.295 Y31.508 Z0.000 F1600
G1 X128.996 Y30.991 Z0.000 F1600
G1 X128.621 Y30.491 Z0.000 F1600
G1 X128.389 Y30.222 Z0.000 F1600
G1 X127.983 Y29.799 Z0.000 F1600
G1 X127.943 Y29.745 Z0.000 F1600
G1 X127.977 Y29.750 Z0.000 F1600
; --- FIX X Backlash: 1.300mm ---
G0 X129.277 Y29.750 F1200
; --- FIX Y Backlash: 1.300mm ---
G0 X129.277 Y31.050 F1200
G1 X129.385 Y31.107 Z0.000 F1600
G1 X129.682 Y31.298 Z0.000 F1600
G1 X129.968 Y31.529 Z0.000 F1600
G1 X130.237 Y31.792 Z0.000 F1600
G1 X130.482 Y32.084 Z0.000 F1600
G1 X130.646 Y32.319 Z0.000 F1600
G1 X130.799 Y32.579 Z0.000 F1600
G1 X130.929 Y32.840 Z0.000 F1600
G1 X131.022 Y33.075 Z0.000 F1600
G1 X131.055 Y33.169 Z0.000 F1600
G1 X131.072 Y33.208 Z0.000 F1600
; --- FIX Y Backlash: -1.300mm ---
G0 X131.072 Y31.908 F1200
G1 X131.147 Y31.784 Z0.000 F1600
G1 X131.237 Y31.578 Z0.000 F1600
G1 X131.269 Y31.445 Z0.000 F1600
G1 X131.279 Y31.291 Z0.000 F1600
G1 X131.261 Y31.084 Z0.000 F1600
; --- FIX X Backlash: -1.300mm ---
G0 X129.961 Y31.084 F1200
G1 X129.905 Y30.875 Z0.000 F1600
G1 X129.814 Y30.667 Z0.000 F1600
G1 X129.688 Y30.461 Z0.000 F1600
G1 X129.529 Y30.259 Z0.000 F1600
G1 X129.338 Y30.061 Z0.000 F1600
G1 X129.115 Y29.870 Z0.000 F1600
G1 X128.862 Y29.687 Z0.000 F1600
G1 X128.557 Y29.504 Z0.000 F1600
G1 X128.192 Y29.316 Z0.000 F1600
G1 X127.802 Y29.141 Z0.000 F1600
G1 X127.426 Y28.996 Z0.000 F1600
G1 X127.285 Y28.949 Z0.000 F1600
G0 Z3.5 F1000
; --- FIX X Backlash: 1.300mm ---
G0 X128.585 Y28.949 F1200
; --- FIX Y Backlash: 1.300mm ---
G0 X128.585 Y30.249 F1200
G0 X131.634 Y32.439 Z2.100
G1 Z0 F1000
G1 X131.631 Y32.459 Z0.000 F1600
G1 X131.627 Y32.513 Z0.000 F1600
G1 X131.624 Y32.690 Z0.000 F1600
G1 X131.614 Y32.926 Z0.000 F1600
G1 X131.568 Y33.096 Z0.000 F1600
; --- FIX X Backlash: -1.300mm ---
G0 X130.268 Y33.096 F1200
G1 X130.213 Y33.250 Z0.000 F1600
; --- FIX X Backlash: 1.300mm ---
G0 X131.513 Y33.250 F1200
G1 X132.026 Y34.016 Z0.000 F1600
G1 X132.230 Y34.315 Z0.000 F1600
G1 X132.264 Y34.361 Z0.000 F1600
G1 X132.311 Y34.357 Z0.000 F1600
G1 X132.405 Y34.334 Z0.000 F1600
G1 X132.620 Y34.287 Z0.000 F1600
G1 X132.870 Y34.254 Z0.000 F1600
G1 X133.144 Y34.233 Z0.000 F1600
G1 X133.429 Y34.227 Z0.000 F1600
G1 X133.714 Y34.233 Z0.000 F1600
G1 X133.988 Y34.253 Z0.000 F1600
G1 X134.237 Y34.286 Z0.000 F1600
G1 X134.452 Y34.333 Z0.000 F1600
G1 X134.555 Y34.360 Z0.000 F1600
G1 X134.614 Y34.370 Z0.000 F1600
G1 X134.645 Y34.361 Z0.000 F1600
; --- FIX Y Backlash: -1.300mm ---
G0 X134.645 Y33.061 F1200
G1 X134.744 Y32.910 Z0.000 F1600
G1 X134.910 Y32.666 Z0.000 F1600
G1 X135.211 Y32.228 Z0.000 F1600
G1 X135.260 Y32.146 Z0.000 F1600
G1 X135.271 Y32.104 Z0.000 F1600
G1 X135.247 Y32.094 Z0.000 F1600
; --- FIX X Backlash: -1.300mm ---
G0 X133.947 Y32.094 F1200
G1 X133.812 Y32.055 Z0.000 F1600
G1 X133.495 Y31.973 Z0.000 F1600
G1 X133.286 Y31.924 Z0.000 F1600
G1 X133.169 Y31.898 Z0.000 F1600
G1 X133.019 Y31.140 Z0.000 F1600
G1 X132.994 Y31.021 Z0.000 F1600
G1 X132.969 Y30.920 Z0.000 F1600
G1 X132.949 Y30.850 Z0.000 F1600
G1 X132.934 Y30.820 Z0.000 F1600
G1 X132.872 Y30.814 Z0.000 F1600
G1 X132.722 Y30.809 Z0.000 F1600
G1 X132.505 Y30.805 Z0.000 F1600
G1 X132.246 Y30.805 Z0.000 F1600
G1 X131.927 Y30.805 Z0.000 F1600
G1 X131.720 Y30.809 Z0.000 F1600
G1 X131.604 Y30.816 Z0.000 F1600
G1 X131.562 Y30.828 Z0.000 F1600
G1 X131.550 Y30.859 Z0.000 F1600
; --- FIX Y Backlash: 1.300mm ---
G0 X131.550 Y32.159 F1200
G1 X131.532 Y32.224 Z0.000 F1600
G1 X131.511 Y32.314 Z0.000 F1600
G1 X131.370 Y32.999 Z0.000 F1600
G1 X131.350 Y33.114 Z0.000 F1600
G1 X131.341 Y33.173 Z0.000 F1600
G1 X131.314 Y33.204 Z0.000 F1600
G1 X131.232 Y33.226 Z0.000 F1600
G1 X131.060 Y33.255 Z0.000 F1600
G1 X130.928 Y33.272 Z0.000 F1600
G1 X130.880 Y33.250 Z0.000 F1600
; --- FIX Y Backlash: -1.300mm ---
G0 X130.880 Y31.950 F1200
G1 X130.820 Y31.865 Z0.000 F1600
G1 X130.706 Y31.696 Z0.000 F1600
G1 X130.370 Y31.185 Z0.000 F1600
G1 X130.334 Y31.139 Z0.000 F1600
G0 Z3.5 F1000
; --- FIX Y Backlash: 1.300mm ---
G0 X130.334 Y32.439 F1200
G0 X129.990 Y33.452 Z2.100
G1 Z0 F1000
G1 X129.963 Y33.452 Z0.000 F1600
G1 X129.922 Y33.483 Z0.000 F1600
G1 X129.861 Y33.542 Z0.000 F1600
G1 X129.699 Y33.691 Z0.000 F1600
G1 X129.491 Y33.832 Z0.000 F1600
G1 X129.188 Y33.983 Z0.000 F1600
G1 X128.942 Y34.057 Z0.000 F1600
G1 X128.909 Y34.061 Z0.000 F1600
G1 X128.896 Y34.077 Z0.000 F1600
G1 X128.904 Y34.106 Z0.000 F1600
; --- FIX X Backlash: 1.300mm ---
G0 X130.204 Y34.106 F1200
G1 X130.282 Y34.234 Z0.000 F1600
G1 X130.359 Y34.367 Z0.000 F1600
G1 X130.448 Y34.526 Z0.000 F1600
G1 X130.595 Y34.798 Z0.000 F1600
G1 X130.666 Y34.922 Z0.000 F1600
G1 X130.805 Y35.187 Z0.000 F1600
G1 X130.846 Y35.260 Z0.000 F1600
G1 X130.886 Y35.341 Z0.000 F1600
G1 X130.974 Y35.520 Z0.000 F1600
G1 X131.219 Y36.035 Z0.000 F1600
G1 X131.254 Y36.099 Z0.000 F1600
G1 X131.276 Y36.121 Z0.000 F1600
; --- FIX Y Backlash: -1.300mm ---
G0 X131.276 Y34.821 F1200
G1 X132.379 Y34.152 Z0.000 F1600
G1 X132.494 Y34.076 Z0.000 F1600
G1 X132.542 Y34.031 Z0.000 F1600
G1 X132.506 Y33.967 Z0.000 F1600
; --- FIX X Backlash: -1.300mm ---
G0 X131.206 Y33.967 F1200
G1 X131.121 Y33.842 Z0.000 F1600
G1 X130.879 Y33.500 Z0.000 F1600
G1 X130.736 Y33.293 Z0.000 F1600
G1 X130.576 Y33.054 Z0.000 F1600
G1 X130.333 Y32.683 Z0.000 F1600
G1 X130.109 Y32.338 Z0.000 F1600
G1 X130.007 Y32.176 Z0.000 F1600
G1 X129.990 Y32.152 Z0.000 F1600
G0 Z3.5 F1000
; --- FIX Y Backlash: 1.300mm ---
G0 X129.990 Y33.452 F1200
G0 X128.665 Y34.335 Z2.100
G1 Z0 F1000
G1 X128.630 Y34.356 Z0.000 F1600
G1 X128.473 Y34.482 Z0.000 F1600
G1 X128.425 Y34.518 Z0.000 F1600
G1 X128.396 Y34.509 Z0.000 F1600
G1 X128.330 Y34.474 Z0.000 F1600
; --- FIX Y Backlash: -1.300mm ---
G0 X128.330 Y33.174 F1200
G1 X128.238 Y33.119 Z0.000 F1600
G1 X128.126 Y33.050 Z0.000 F1600
G1 X127.881 Y32.889 Z0.000 F1600
G1 X127.663 Y32.734 Z0.000 F1600
G1 X127.574 Y32.674 Z0.000 F1600
G1 X127.508 Y32.653 Z0.000 F1600
G1 X127.448 Y32.670 Z0.000 F1600
; --- FIX Y Backlash: 1.300mm ---
G0 X127.448 Y33.970 F1200
G1 X127.379 Y34.024 Z0.000 F1600
G1 X127.314 Y34.088 Z0.000 F1600
G1 X127.057 Y34.350 Z0.000 F1600
G1 X126.784 Y34.634 Z0.000 F1600
G1 X126.627 Y34.802 Z0.000 F1600
G1 X126.577 Y34.859 Z0.000 F1600
G1 X126.525 Y34.931 Z0.000 F1600
G1 X126.518 Y34.968 Z0.000 F1600
G1 X126.567 Y35.059 Z0.000 F1600
; --- FIX X Backlash: 1.300mm ---
G0 X127.867 Y35.059 F1200
G1 X127.967 Y35.218 Z0.000 F1600
G1 X128.063 Y35.365 Z0.000 F1600
G1 X128.114 Y35.449 Z0.000 F1600
G1 X128.193 Y35.568 Z0.000 F1600
G1 X128.397 Y35.870 Z0.000 F1600
; --- FIX X Backlash: -1.300mm ---
G0 X127.097 Y35.870 F1200
G1 X127.014 Y35.997 Z0.000 F1600
G1 X126.918 Y36.157 Z0.000 F1600
G1 X126.739 Y36.477 Z0.000 F1600
G1 X126.693 Y36.550 Z0.000 F1600
G1 X126.660 Y36.590 Z0.000 F1600
G1 X126.635 Y36.602 Z0.000 F1600
G1 X126.582 Y36.598 Z0.000 F1600
; --- FIX Y Backlash: -1.300mm ---
G0 X126.582 Y35.298 F1200
G1 X125.916 Y35.234 Z0.000 F1600
G1 X125.758 Y35.222 Z0.000 F1600
G1 X125.651 Y35.217 Z0.000 F1600
G1 X125.604 Y35.221 Z0.000 F1600
G1 X125.576 Y35.263 Z0.000 F1600
; --- FIX Y Backlash: 1.300mm ---
G0 X125.576 Y36.563 F1200
G1 X125.532 Y36.673 Z0.000 F1600
G1 X125.470 Y36.863 Z0.000 F1600
G1 X125.327 Y37.330 Z0.000 F1600
G1 X125.239 Y37.611 Z0.000 F1600
G1 X125.208 Y37.726 Z0.000 F1600
G1 X125.191 Y37.809 Z0.000 F1600
G1 X125.191 Y37.853 Z0.000 F1600
; --- FIX X Backlash: 1.300mm ---
G0 X126.491 Y37.853 F1200
G1 X126.551 Y37.910 Z0.000 F1600
G1 X126.699 Y38.004 Z0.000 F1600
G1 X126.928 Y38.132 Z0.000 F1600
G1 X127.232 Y38.289 Z0.000 F1600
G1 X127.418 Y38.383 Z0.000 F1600
G1 X127.385 Y38.926 Z0.000 F1600
G1 X127.371 Y39.122 Z0.000 F1600
G1 X127.361 Y39.233 Z0.000 F1600
G1 X127.353 Y39.272 Z0.000 F1600
G1 X127.325 Y39.285 Z0.000 F1600
; --- FIX X Backlash: -1.300mm ---
G0 X126.025 Y39.285 F1200
G1 X125.866 Y39.347 Z0.000 F1600
G1 X125.505 Y39.479 Z0.000 F1600
G1 X125.289 Y39.554 Z0.000 F1600
G1 X125.131 Y39.613 Z0.000 F1600
G1 X125.050 Y39.657 Z0.000 F1600
G1 X125.035 Y39.695 Z0.000 F1600
G1 X125.035 Y39.768 Z0.000 F1600
G1 X125.051 Y39.897 Z0.000 F1600
G1 X125.086 Y40.104 Z0.000 F1600
; --- FIX X Backlash: 1.300mm ---
G0 X126.386 Y40.104 F1200
G1 X126.485 Y40.667 Z0.000 F1600
G1 X126.514 Y40.822 Z0.000 F1600
G1 X126.540 Y40.935 Z0.000 F1600
G1 X126.561 Y41.009 Z0.000 F1600
G1 X126.580 Y41.044 Z0.000 F1600
G1 X126.613 Y41.061 Z0.000 F1600
G1 X126.689 Y41.073 Z0.000 F1600
G1 X126.829 Y41.081 Z0.000 F1600
G1 X127.236 Y41.093 Z0.000 F1600
G1 X127.631 Y41.102 Z0.000 F1600
G1 X127.661 Y41.115 Z0.000 F1600
G1 X127.682 Y41.149 Z0.000 F1600
G1 X127.746 Y41.312 Z0.000 F1600
G1 X128.007 Y41.930 Z0.000 F1600
; --- FIX X Backlash: -1.300mm ---
G0 X126.707 Y41.930 F1200
G1 X126.116 Y42.560 Z0.000 F1600
G1 X126.039 Y42.650 Z0.000 F1600
G1 X126.001 Y42.713 Z0.000 F1600
G1 X126.001 Y42.753 Z0.000 F1600
G1 X126.037 Y42.829 Z0.000 F1600
G1 X126.083 Y42.899 Z0.000 F1600
; --- FIX X Backlash: 1.300mm ---
G0 X127.383 Y42.899 F1200
G1 X127.452 Y43.000 Z0.000 F1600
G1 X128.039 Y43.836 Z0.000 F1600
G1 X128.087 Y43.889 Z0.000 F1600
G1 X128.149 Y43.904 Z0.000 F1600
G1 X128.249 Y43.879 Z0.000 F1600
; --- FIX Y Backlash: -1.300mm ---
G0 X128.249 Y42.579 F1200
G1 X128.408 Y42.513 Z0.000 F1600
G1 X128.630 Y42.414 Z0.000 F1600
G1 X129.129 Y42.185 Z0.000 F1600
; --- FIX Y Backlash: 1.300mm ---
G0 X129.129 Y43.485 F1200
G1 X129.203 Y43.549 Z0.000 F1600
G1 X129.281 Y43.619 Z0.000 F1600
G1 X129.365 Y43.698 Z0.000 F1600
G1 X129.432 Y43.759 Z0.000 F1600
G1 X129.469 Y43.784 Z0.000 F1600
G1 X129.486 Y43.768 Z0.000 F1600
G1 X129.505 Y43.730 Z0.000 F1600
; --- FIX Y Backlash: -1.300mm ---
G0 X129.505 Y42.430 F1200
G1 X129.533 Y42.363 Z0.000 F1600
G1 X129.807 Y41.761 Z0.000 F1600
G1 X129.905 Y41.540 Z0.000 F1600
G1 X129.915 Y41.463 Z0.000 F1600
G1 X129.872 Y41.388 Z0.000 F1600
; --- FIX X Backlash: -1.300mm ---
G0 X128.572 Y41.388 F1200
G1 X128.464 Y41.266 Z0.000 F1600
G1 X128.197 Y40.947 Z0.000 F1600
G1 X127.962 Y40.623 Z0.000 F1600
G1 X127.759 Y40.292 Z0.000 F1600
G1 X127.586 Y39.952 Z0.000 F1600
G1 X127.442 Y39.601 Z0.000 F1600
G1 X127.327 Y39.236 Z0.000 F1600
G1 X127.239 Y38.854 Z0.000 F1600
G1 X127.176 Y38.454 Z0.000 F1600
G1 X127.162 Y37.791 Z0.000 F1600
; --- FIX X Backlash: 1.300mm ---
G0 X128.462 Y37.791 F1200
G1 X128.516 Y37.117 Z0.000 F1600
G1 X128.654 Y36.519 Z0.000 F1600
G1 X128.854 Y35.963 Z0.000 F1600
G1 X129.120 Y35.438 Z0.000 F1600
G1 X129.459 Y34.932 Z0.000 F1600
G1 X129.890 Y34.444 Z0.000 F1600
G1 X130.337 Y34.011 Z0.000 F1600
G1 X130.403 Y33.953 Z0.000 F1600
G1 X130.431 Y33.921 Z0.000 F1600
G1 X130.405 Y33.864 Z0.000 F1600
; --- FIX X Backlash: -1.300mm ---
G0 X129.105 Y33.864 F1200
G1 X128.941 Y33.558 Z0.000 F1600
G1 X128.665 Y33.035 Z0.000 F1600
G0 Z3.5 F1000
; --- FIX X Backlash: 1.300mm ---
G0 X129.965 Y33.035 F1200
; --- FIX Y Backlash: 1.300mm ---
G0 X129.965 Y34.335 F1200
G0 X132.022 Y36.038 Z2.100
G1 Z0 F1000
; --- FIX X Backlash: -1.300mm ---
G0 X130.722 Y36.038 F1200
G1 X130.290 Y36.297 Z0.000 F1600
G1 X130.122 Y36.394 Z0.000 F1600
G1 X130.090 Y36.410 Z0.000 F1600
G1 X130.090 Y36.437 Z0.000 F1600
G1 X130.101 Y36.505 Z0.000 F1600
G1 X130.127 Y36.605 Z0.000 F1600
G1 X130.163 Y36.730 Z0.000 F1600
; --- FIX X Backlash: 1.300mm ---
G0 X131.463 Y36.730 F1200
G1 X131.557 Y37.020 Z0.000 F1600
G1 X131.664 Y37.312 Z0.000 F1600
G1 X131.852 Y37.742 Z0.000 F1600
G1 X132.086 Y38.181 Z0.000 F1600
G1 X132.230 Y38.420 Z0.000 F1600
G1 X132.396 Y38.679 Z0.000 F1600
G1 X132.589 Y38.966 Z0.000 F1600
G1 X133.419 Y40.152 Z0.000 F1600
G1 X133.717 Y40.573 Z0.000 F1600
G1 X133.968 Y40.923 Z0.000 F1600
G1 X134.106 Y41.111 Z0.000 F1600
G1 X135.047 Y42.423 Z0.000 F1600
G1 X136.015 Y43.777 Z0.000 F1600
G1 X136.646 Y44.676 Z0.000 F1600
G1 X137.418 Y45.789 Z0.000 F1600
G1 X137.501 Y45.903 Z0.000 F1600
G1 X137.834 Y46.389 Z0.000 F1600
G1 X137.964 Y46.572 Z0.000 F1600
G1 X137.997 Y46.610 Z0.000 F1600
G1 X138.064 Y46.628 Z0.000 F1600
G1 X138.139 Y46.611 Z0.000 F1600
G1 X138.200 Y46.567 Z0.000 F1600
; --- FIX Y Backlash: -1.300mm ---
G0 X138.200 Y45.267 F1200
G1 X138.225 Y45.208 Z0.000 F1600
G1 X138.218 Y45.178 Z0.000 F1600
G1 X138.200 Y45.121 Z0.000 F1600
; --- FIX X Backlash: -1.300mm ---
G0 X136.900 Y45.121 F1200
G1 X136.826 Y44.927 Z0.000 F1600
G1 X136.704 Y44.630 Z0.000 F1600
G1 X136.126 Y43.277 Z0.000 F1600
G1 X134.676 Y39.968 Z0.000 F1600
G1 X134.103 Y38.666 Z0.000 F1600
G1 X133.758 Y37.887 Z0.000 F1600
G1 X133.463 Y37.232 Z0.000 F1600
G1 X133.197 Y36.670 Z0.000 F1600
G1 X132.952 Y36.188 Z0.000 F1600
G1 X132.719 Y35.773 Z0.000 F1600
G1 X132.492 Y35.410 Z0.000 F1600
G1 X132.261 Y35.087 Z0.000 F1600
G1 X132.019 Y34.789 Z0.000 F1600
G1 X131.757 Y34.503 Z0.000 F1600
G1 X131.614 Y34.357 Z0.000 F1600
G1 X131.537 Y34.282 Z0.000 F1600
G1 X131.504 Y34.282 Z0.000 F1600
G1 X131.428 Y34.314 Z0.000 F1600
; --- FIX Y Backlash: 1.300mm ---
G0 X131.428 Y35.614 F1200
G1 X131.289 Y35.694 Z0.000 F1600
G1 X131.064 Y35.830 Z0.000 F1600
G1 X130.722 Y36.038 Z0.000 F1600
G0 Z3.5 F1000
; --- FIX X Backlash: 1.300mm ---
G0 X132.022 Y36.038 F1200
G0 X133.647 Y36.028 Z2.100
G1 Z0 F1000
G1 X133.666 Y36.059 Z0.000 F1600
G1 X133.713 Y36.106 Z0.000 F1600
G1 X133.790 Y36.203 Z0.000 F1600
G1 X133.889 Y36.336 Z0.000 F1600
G1 X133.999 Y36.493 Z0.000 F1600
G1 X134.221 Y36.827 Z0.000 F1600
G1 X134.386 Y37.101 Z0.000 F1600
G1 X134.533 Y37.380 Z0.000 F1600
G1 X134.717 Y37.733 Z0.000 F1600
G1 X134.855 Y38.004 Z0.000 F1600
G1 X134.892 Y38.067 Z0.000 F1600
G1 X134.913 Y38.082 Z0.000 F1600
G1 X134.927 Y38.062 Z0.000 F1600
; --- FIX Y Backlash: -1.300mm ---
G0 X134.927 Y36.762 F1200
G1 X135.201 Y36.085 Z0.000 F1600
G1 X135.294 Y35.845 Z0.000 F1600
G1 X135.363 Y35.651 Z0.000 F1600
G1 X135.470 Y35.328 Z0.000 F1600
G1 X135.515 Y35.183 Z0.000 F1600
G1 X135.521 Y35.154 Z0.000 F1600
G1 X135.484 Y35.124 Z0.000 F1600
; --- FIX X Backlash: -1.300mm ---
G0 X134.184 Y35.124 F1200
G1 X134.083 Y35.057 Z0.000 F1600
G1 X133.934 Y34.963 Z0.000 F1600
G1 X133.047 Y34.423 Z0.000 F1600
G1 X132.873 Y34.320 Z0.000 F1600
G1 X132.815 Y34.289 Z0.000 F1600
G1 X132.788 Y34.277 Z0.000 F1600
G1 X132.762 Y34.292 Z0.000 F1600
G1 X132.710 Y34.335 Z0.000 F1600
; --- FIX Y Backlash: 1.300mm ---
G0 X132.710 Y35.635 F1200
G1 X132.639 Y35.698 Z0.000 F1600
G1 X132.556 Y35.775 Z0.000 F1600
G1 X132.438 Y35.893 Z0.000 F1600
G1 X132.370 Y35.975 Z0.000 F1600
G1 X132.347 Y36.028 Z0.000 F1600
G0 Z3.5 F1000
; --- FIX X Backlash: 1.300mm ---
G0 X133.647 Y36.028 F1200
; --- FIX Y Backlash: -1.300mm ---
G0 X133.647 Y34.728 F1200
G0 X134.481 Y34.139 Z2.100
G1 Z0 F1000
; --- FIX Y Backlash: 1.300mm ---
G0 X134.481 Y35.439 F1200
G1 X134.611 Y35.517 Z0.000 F1600
G1 X134.962 Y35.736 Z0.000 F1600
G1 X135.386 Y35.990 Z0.000 F1600
G1 X135.579 Y36.100 Z0.000 F1600
G1 X135.614 Y36.117 Z0.000 F1600
; --- FIX Y Backlash: -1.300mm ---
G0 X135.614 Y34.817 F1200
G1 X135.658 Y34.764 Z0.000 F1600
G1 X135.727 Y34.629 Z0.000 F1600
G1 X136.074 Y33.914 Z0.000 F1600
G1 X136.490 Y33.157 Z0.000 F1600
G1 X136.566 Y33.023 Z0.000 F1600
G1 X136.673 Y32.830 Z0.000 F1600
G1 X136.690 Y32.795 Z0.000 F1600
G1 X136.652 Y32.768 Z0.000 F1600
; --- FIX X Backlash: -1.300mm ---
G0 X135.352 Y32.768 F1200
G1 X135.251 Y32.735 Z0.000 F1600
G1 X135.048 Y32.664 Z0.000 F1600
G1 X134.842 Y32.559 Z0.000 F1600
G1 X134.639 Y32.426 Z0.000 F1600
G1 X134.450 Y32.269 Z0.000 F1600
G1 X134.370 Y32.196 Z0.000 F1600
G1 X134.327 Y32.159 Z0.000 F1600
G1 X134.300 Y32.176 Z0.000 F1600
; --- FIX Y Backlash: 1.300mm ---
G0 X134.300 Y33.476 F1200
G1 X134.262 Y33.531 Z0.000 F1600
G1 X134.196 Y33.637 Z0.000 F1600
G1 X133.713 Y34.367 Z0.000 F1600
G1 X133.502 Y34.678 Z0.000 F1600
G1 X133.311 Y34.950 Z0.000 F1600
G1 X133.074 Y35.278 Z0.000 F1600
G1 X133.038 Y35.338 Z0.000 F1600
G1 X133.080 Y35.374 Z0.000 F1600
; --- FIX X Backlash: 1.300mm ---
G0 X134.380 Y35.374 F1200
G1 X134.481 Y35.439 Z0.000 F1600
G0 Z3.5 F1000
; --- FIX Y Backlash: -1.300mm ---
G0 X134.481 Y34.139 F1200
G0 X136.474 Y33.907 Z2.100
G1 Z0 F1000
G1 X136.486 Y33.938 Z0.000 F1600
G1 X136.533 Y33.988 Z0.000 F1600
; --- FIX Y Backlash: 1.300mm ---
G0 X136.533 Y35.288 F1200
G1 X136.626 Y35.374 Z0.000 F1600
G1 X137.058 Y35.793 Z0.000 F1600
G1 X137.422 Y36.217 Z0.000 F1600
G1 X137.724 Y36.652 Z0.000 F1600
G1 X137.969 Y37.105 Z0.000 F1600
G1 X138.161 Y37.596 Z0.000 F1600
G1 X138.311 Y38.112 Z0.000 F1600
G1 X138.401 Y38.655 Z0.000 F1600
G1 X138.432 Y39.219 Z0.000 F1600
G1 X138.405 Y39.777 Z0.000 F1600
; --- FIX X Backlash: -1.300mm ---
G0 X137.105 Y39.777 F1200
G1 X137.020 Y40.302 Z0.000 F1600
G1 X136.919 Y40.674 Z0.000 F1600
G1 X136.813 Y40.992 Z0.000 F1600
G1 X136.752 Y41.140 Z0.000 F1600
G1 X136.589 Y41.476 Z0.000 F1600
G1 X136.423 Y41.783 Z0.000 F1600
G1 X136.226 Y42.071 Z0.000 F1600
G1 X136.066 Y42.293 Z0.000 F1600
G1 X135.869 Y42.526 Z0.000 F1600
G1 X135.714 Y42.701 Z0.000 F1600
G1 X135.679 Y42.745 Z0.000 F1600
G1 X135.684 Y42.785 Z0.000 F1600
G1 X135.717 Y42.877 Z0.000 F1600
; --- FIX X Backlash: 1.300mm ---
G0 X137.017 Y42.877 F1200
G1 X137.080 Y43.024 Z0.000 F1600
G1 X137.210 Y43.316 Z0.000 F1600
G1 X137.323 Y43.578 Z0.000 F1600
G1 X137.376 Y43.690 Z0.000 F1600
G1 X137.413 Y43.760 Z0.000 F1600
G1 X137.435 Y43.784 Z0.000 F1600
G1 X137.481 Y43.752 Z0.000 F1600
; --- FIX Y Backlash: -1.300mm ---
G0 X137.481 Y42.452 F1200
G1 X137.567 Y42.375 Z0.000 F1600
G1 X137.765 Y42.187 Z0.000 F1600
; --- FIX Y Backlash: 1.300mm ---
G0 X137.765 Y43.487 F1200
G1 X137.960 Y43.578 Z0.000 F1600
G1 X138.422 Y43.789 Z0.000 F1600
G1 X138.598 Y43.863 Z0.000 F1600
G1 X138.717 Y43.896 Z0.000 F1600
G1 X138.792 Y43.888 Z0.000 F1600
G1 X138.837 Y43.842 Z0.000 F1600
G1 X138.860 Y43.806 Z0.000 F1600
; --- FIX Y Backlash: -1.300mm ---
G0 X138.860 Y42.506 F1200
G1 X138.985 Y42.328 Z0.000 F1600
G1 X139.281 Y41.914 Z0.000 F1600
G1 X139.485 Y41.634 Z0.000 F1600
G1 X139.570 Y41.507 Z0.000 F1600
G1 X139.606 Y41.433 Z0.000 F1600
G1 X139.570 Y41.368 Z0.000 F1600
; --- FIX X Backlash: -1.300mm ---
G0 X138.270 Y41.368 F1200
G1 X138.182 Y41.265 Z0.000 F1600
G1 X137.974 Y41.045 Z0.000 F1600
G1 X137.715 Y40.768 Z0.000 F1600
G1 X137.649 Y40.691 Z0.000 F1600
G1 X137.600 Y40.611 Z0.000 F1600
G1 X137.610 Y40.565 Z0.000 F1600
G1 X137.646 Y40.471 Z0.000 F1600
; --- FIX X Backlash: 1.300mm ---
G0 X138.946 Y40.471 F1200
G1 X139.072 Y40.169 Z0.000 F1600
G1 X139.136 Y40.008 Z0.000 F1600
G1 X139.187 Y39.889 Z0.000 F1600
G1 X139.221 Y39.825 Z0.000 F1600
G1 X139.258 Y39.812 Z0.000 F1600
G1 X139.352 Y39.802 Z0.000 F1600
G1 X139.513 Y39.794 Z0.000 F1600
G1 X140.022 Y39.779 Z0.000 F1600
G1 X140.181 Y39.771 Z0.000 F1600
G1 X140.262 Y39.759 Z0.000 F1600
G1 X140.297 Y39.741 Z0.000 F1600
G1 X140.331 Y39.666 Z0.000 F1600
G1 X140.364 Y39.522 Z0.000 F1600
G1 X140.423 Y39.199 Z0.000 F1600
G1 X140.523 Y38.675 Z0.000 F1600
G1 X140.542 Y38.569 Z0.000 F1600
G1 X140.556 Y38.477 Z0.000 F1600
G1 X140.563 Y38.409 Z0.000 F1600
G1 X140.563 Y38.376 Z0.000 F1600
G1 X140.551 Y38.353 Z0.000 F1600
G1 X140.517 Y38.332 Z0.000 F1600
; --- FIX X Backlash: -1.300mm ---
G0 X139.217 Y38.332 F1200
G1 X139.129 Y38.299 Z0.000 F1600
G1 X138.696 Y38.146 Z0.000 F1600
G1 X138.471 Y38.062 Z0.000 F1600
G1 X138.309 Y38.000 Z0.000 F1600
G1 X138.241 Y37.968 Z0.000 F1600
G1 X138.233 Y37.933 Z0.000 F1600
G1 X138.224 Y37.850 Z0.000 F1600
G1 X138.215 Y37.731 Z0.000 F1600
G1 X138.191 Y37.312 Z0.000 F1600
G1 X138.180 Y37.155 Z0.000 F1600
G1 X138.188 Y37.087 Z0.000 F1600
; --- FIX X Backlash: 1.300mm ---
G0 X139.488 Y37.087 F1200
G1 X139.574 Y37.032 Z0.000 F1600
G1 X139.827 Y36.899 Z0.000 F1600
G1 X140.085 Y36.756 Z0.000 F1600
G1 X140.289 Y36.637 Z0.000 F1600
G1 X140.352 Y36.597 Z0.000 F1600
G1 X140.380 Y36.576 Z0.000 F1600
G1 X140.393 Y36.537 Z0.000 F1600
G1 X140.390 Y36.476 Z0.000 F1600
G1 X140.372 Y36.387 Z0.000 F1600
G1 X140.336 Y36.266 Z0.000 F1600
; --- FIX X Backlash: -1.300mm ---
G0 X139.036 Y36.266 F1200
G1 X138.850 Y35.667 Z0.000 F1600
G1 X138.794 Y35.492 Z0.000 F1600
G1 X138.747 Y35.357 Z0.000 F1600
G1 X138.710 Y35.267 Z0.000 F1600
G1 X138.687 Y35.228 Z0.000 F1600
G1 X138.657 Y35.213 Z0.000 F1600
G1 X138.585 Y35.213 Z0.000 F1600
G1 X138.410 Y35.228 Z0.000 F1600
; --- FIX Y Backlash: 1.300mm ---
G0 X138.410 Y36.528 F1200
G1 X137.786 Y36.596 Z0.000 F1600
G1 X137.700 Y36.600 Z0.000 F1600
G1 X137.641 Y36.595 Z0.000 F1600
G1 X137.573 Y36.548 Z0.000 F1600
; --- FIX Y Backlash: -1.300mm ---
G0 X137.573 Y35.248 F1200
G1 X137.516 Y35.139 Z0.000 F1600
G1 X137.423 Y34.969 Z0.000 F1600
G1 X137.235 Y34.647 Z0.000 F1600
G1 X137.201 Y34.577 Z0.000 F1600
G1 X137.223 Y34.535 Z0.000 F1600
; --- FIX X Backlash: 1.300mm ---
G0 X138.523 Y34.535 F1200
G1 X138.585 Y34.436 Z0.000 F1600
G1 X138.901 Y33.951 Z0.000 F1600
G1 X138.991 Y33.805 Z0.000 F1600
G1 X139.051 Y33.701 Z0.000 F1600
G1 X139.073 Y33.650 Z0.000 F1600
G1 X139.058 Y33.613 Z0.000 F1600
G1 X139.011 Y33.550 Z0.000 F1600
; --- FIX X Backlash: -1.300mm ---
G0 X137.711 Y33.550 F1200
G1 X137.630 Y33.458 Z0.000 F1600
G1 X137.512 Y33.333 Z0.000 F1600
G1 X137.072 Y32.881 Z0.000 F1600
G1 X136.906 Y32.719 Z0.000 F1600
G1 X136.855 Y32.673 Z0.000 F1600
G1 X136.822 Y32.647 Z0.000 F1600
G1 X136.804 Y32.638 Z0.000 F1600
G1 X136.758 Y32.662 Z0.000 F1600
; --- FIX Y Backlash: 1.300mm ---
G0 X136.758 Y33.962 F1200
G1 X136.652 Y34.026 Z0.000 F1600
G1 X136.504 Y34.121 Z0.000 F1600
G1 X136.328 Y34.236 Z0.000 F1600
G1 X135.882 Y34.534 Z0.000 F1600
; --- FIX Y Backlash: -1.300mm ---
G0 X135.882 Y33.234 F1200
G1 X135.620 Y33.035 Z0.000 F1600
; --- FIX Y Backlash: 1.300mm ---
G0 X135.620 Y34.335 F1200
G1 X135.266 Y35.029 Z0.000 F1600
G1 X135.187 Y35.178 Z0.000 F1600
G1 X135.174 Y35.207 Z0.000 F1600
G0 Z3.5 F1000
; --- FIX X Backlash: 1.300mm ---
G0 X136.474 Y35.207 F1200
; --- FIX Y Backlash: -1.300mm ---
G0 X136.474 Y33.907 F1200
G0 X136.858 Y32.497 Z2.100
G1 Z0 F1000
G1 X137.014 Y32.497 Z0.000 F1600
G1 X137.218 Y32.479 Z0.000 F1600
G1 X137.371 Y32.415 Z0.000 F1600
G1 X137.508 Y32.328 Z0.000 F1600
G1 X137.644 Y32.211 Z0.000 F1600
G1 X137.775 Y32.067 Z0.000 F1600
G1 X137.898 Y31.901 Z0.000 F1600
G1 X138.111 Y31.519 Z0.000 F1600
G1 X138.262 Y31.096 Z0.000 F1600
G1 X138.316 Y30.855 Z0.000 F1600
G1 X138.350 Y30.612 Z0.000 F1600
G1 X138.367 Y30.326 Z0.000 F1600
G1 X138.372 Y29.955 Z0.000 F1600
G1 X138.367 Y29.585 Z0.000 F1600
G1 X138.352 Y29.263 Z0.000 F1600
G1 X138.342 Y29.134 Z0.000 F1600
G1 X138.331 Y29.035 Z0.000 F1600
G1 X138.319 Y28.971 Z0.000 F1600
G1 X138.306 Y28.950 Z0.000 F1600
G1 X138.257 Y28.964 Z0.000 F1600
; --- FIX X Backlash: -1.300mm ---
G0 X136.957 Y28.964 F1200
G1 X136.856 Y28.996 Z0.000 F1600
; --- FIX Y Backlash: 1.300mm ---
G0 X136.856 Y30.296 F1200
G1 X136.562 Y30.409 Z0.000 F1600
G1 X136.190 Y30.570 Z0.000 F1600
G1 X136.010 Y30.652 Z0.000 F1600
G1 X135.854 Y30.726 Z0.000 F1600
G1 X135.736 Y30.786 Z0.000 F1600
G1 X135.672 Y30.826 Z0.000 F1600
G1 X135.597 Y30.877 Z0.000 F1600
G1 X135.444 Y30.976 Z0.000 F1600
G1 X135.232 Y31.117 Z0.000 F1600
G1 X135.092 Y31.231 Z0.000 F1600
G1 X134.836 Y31.477 Z0.000 F1600
G1 X134.636 Y31.716 Z0.000 F1600
G1 X134.485 Y31.958 Z0.000 F1600
G1 X134.377 Y32.212 Z0.000 F1600
G1 X134.339 Y32.370 Z0.000 F1600
G1 X134.330 Y32.597 Z0.000 F1600
G1 X134.338 Y32.823 Z0.000 F1600
G1 X134.384 Y32.958 Z0.000 F1600
; --- FIX X Backlash: 1.300mm ---
G0 X135.684 Y32.958 F1200
G1 X135.734 Y33.056 Z0.000 F1600
G1 X135.780 Y33.133 Z0.000 F1600
G1 X135.824 Y33.194 Z0.000 F1600
; --- FIX Y Backlash: -1.300mm ---
G0 X135.824 Y31.894 F1200
G1 X135.887 Y31.718 Z0.000 F1600
G1 X135.994 Y31.461 Z0.000 F1600
G1 X136.127 Y31.204 Z0.000 F1600
G1 X136.279 Y30.958 Z0.000 F1600
G1 X136.445 Y30.734 Z0.000 F1600
G1 X136.520 Y30.652 Z0.000 F1600
G1 X136.564 Y30.621 Z0.000 F1600
G1 X136.576 Y30.616 Z0.000 F1600
G1 X136.576 Y30.599 Z0.000 F1600
G1 X136.589 Y30.572 Z0.000 F1600
G1 X136.633 Y30.518 Z0.000 F1600
G1 X136.702 Y30.445 Z0.000 F1600
G1 X136.788 Y30.360 Z0.000 F1600
G1 X136.982 Y30.179 Z0.000 F1600
G1 X137.161 Y30.031 Z0.000 F1600
G1 X137.306 Y29.931 Z0.000 F1600
G1 X137.460 Y29.834 Z0.000 F1600
G1 X137.587 Y29.765 Z0.000 F1600
G1 X137.646 Y29.745 Z0.000 F1600
G1 X137.611 Y29.795 Z0.000 F1600
; --- FIX X Backlash: -1.300mm ---
G0 X136.311 Y29.795 F1200
; --- FIX Y Backlash: 1.300mm ---
G0 X136.311 Y31.095 F1200
G1 X135.819 Y31.614 Z0.000 F1600
G1 X135.494 Y32.006 Z0.000 F1600
G1 X135.226 Y32.390 Z0.000 F1600
G1 X135.003 Y32.785 Z0.000 F1600
G1 X134.905 Y32.985 Z0.000 F1600
G1 X134.826 Y33.163 Z0.000 F1600
G1 X134.773 Y33.300 Z0.000 F1600
G1 X134.754 Y33.380 Z0.000 F1600
; --- FIX X Backlash: 1.300mm ---
G0 X136.054 Y33.380 F1200
G1 X136.264 Y33.554 Z0.000 F1600
G1 X136.495 Y33.660 Z0.000 F1600
; --- FIX Y Backlash: -1.300mm ---
G0 X136.495 Y32.360 F1200
G1 X136.649 Y32.165 Z0.000 F1600
G1 X136.980 Y31.716 Z0.000 F1600
G1 X137.271 Y31.253 Z0.000 F1600
G1 X137.538 Y30.754 Z0.000 F1600
G1 X137.793 Y30.194 Z0.000 F1600
G1 X137.870 Y30.015 Z0.000 F1600
G1 X137.915 Y29.921 Z0.000 F1600
G1 X137.937 Y29.895 Z0.000 F1600
G1 X137.945 Y29.921 Z0.000 F1600
; --- FIX Y Backlash: 1.300mm ---
G0 X137.945 Y31.221 F1200
G1 X137.937 Y31.345 Z0.000 F1600
G1 X137.906 Y31.537 Z0.000 F1600
G1 X137.860 Y31.753 Z0.000 F1600
; --- FIX X Backlash: -1.300mm ---
G0 X136.560 Y31.753 F1200
G1 X136.508 Y31.948 Z0.000 F1600
G1 X136.407 Y32.243 Z0.000 F1600
G1 X136.286 Y32.531 Z0.000 F1600
G1 X136.152 Y32.804 Z0.000 F1600
G1 X136.007 Y33.050 Z0.000 F1600
G1 X135.765 Y33.395 Z0.000 F1600
G1 X135.527 Y33.702 Z0.000 F1600
G1 X135.489 Y33.756 Z0.000 F1600
G1 X135.483 Y33.788 Z0.000 F1600
; --- FIX X Backlash: 1.300mm ---
G0 X136.783 Y33.788 F1200
G1 X136.858 Y33.797 Z0.000 F1600
G0 Z3.5 F1000
; --- FIX X Backlash: -1.300mm ---
G0 X135.558 Y33.797 F1200
G0 X130.767 Y38.713 Z2.100
G1 Z0 F1000
G1 X130.750 Y38.740 Z0.000 F1600
G1 X130.713 Y38.813 Z0.000 F1600
G1 X130.601 Y39.054 Z0.000 F1600
G1 X130.243 Y39.859 Z0.000 F1600
G1 X130.199 Y39.968 Z0.000 F1600
G1 X130.093 Y40.202 Z0.000 F1600
G1 X129.339 Y41.909 Z0.000 F1600
G1 X129.008 Y42.665 Z0.000 F1600
G1 X128.737 Y43.277 Z0.000 F1600
G1 X128.364 Y44.131 Z0.000 F1600
G1 X128.324 Y44.231 Z0.000 F1600
G1 X128.241 Y44.418 Z0.000 F1600
G1 X128.206 Y44.511 Z0.000 F1600
G1 X128.082 Y44.791 Z0.000 F1600
G1 X127.916 Y45.177 Z0.000 F1600
G1 X127.434 Y46.310 Z0.000 F1600
G1 X127.388 Y46.448 Z0.000 F1600
G1 X127.383 Y46.546 Z0.000 F1600
G1 X127.419 Y46.605 Z0.000 F1600
; --- FIX X Backlash: 1.300mm ---
G0 X128.719 Y46.605 F1200
G1 X128.795 Y46.625 Z0.000 F1600
G1 X128.867 Y46.609 Z0.000 F1600
; --- FIX Y Backlash: -1.300mm ---
G0 X128.867 Y45.309 F1200
G1 X128.968 Y45.209 Z0.000 F1600
G1 X129.049 Y45.105 Z0.000 F1600
G1 X129.159 Y44.951 Z0.000 F1600
G1 X129.881 Y43.914 Z0.000 F1600
G1 X130.360 Y43.231 Z0.000 F1600
G1 X130.696 Y42.748 Z0.000 F1600
G1 X131.740 Y41.270 Z0.000 F1600
G1 X132.824 Y39.747 Z0.000 F1600
G1 X133.069 Y39.408 Z0.000 F1600
G1 X133.167 Y39.268 Z0.000 F1600
G1 X133.218 Y39.188 Z0.000 F1600
G1 X133.232 Y39.151 Z0.000 F1600
G1 X133.218 Y39.114 Z0.000 F1600
; --- FIX X Backlash: -1.300mm ---
G0 X131.918 Y39.114 F1200
G1 X131.860 Y39.021 Z0.000 F1600
G1 X131.807 Y38.943 Z0.000 F1600
G1 X131.266 Y38.171 Z0.000 F1600
G1 X131.075 Y37.893 Z0.000 F1600
G1 X130.937 Y37.684 Z0.000 F1600
G1 X130.797 Y37.453 Z0.000 F1600
G1 X130.767 Y37.413 Z0.000 F1600
G0 Z3.5 F1000
; --- FIX Y Backlash: 1.300mm ---
G0 X130.767 Y38.713 F1200
G0 X130.022 Y43.705 Z2.100
G1 Z0 F1000
G1 X129.975 Y43.759 Z0.000 F1600
G1 X129.883 Y43.888 Z0.000 F1600
G1 X129.786 Y44.031 Z0.000 F1600
G1 X129.689 Y44.169 Z0.000 F1600
G1 X129.189 Y44.900 Z0.000 F1600
G1 X128.919 Y45.289 Z0.000 F1600
G1 X128.829 Y45.427 Z0.000 F1600
G1 X128.818 Y45.450 Z0.000 F1600
; --- FIX X Backlash: 1.300mm ---
G0 X130.118 Y45.450 F1200
G1 X130.507 Y45.648 Z0.000 F1600
G1 X130.890 Y45.816 Z0.000 F1600
G1 X130.950 Y45.791 Z0.000 F1600
; --- FIX Y Backlash: -1.300mm ---
G0 X130.950 Y44.491 F1200
G1 X131.035 Y44.393 Z0.000 F1600
G1 X131.126 Y44.277 Z0.000 F1600
G1 X131.300 Y44.061 Z0.000 F1600
G1 X131.481 Y43.829 Z0.000 F1600
G1 X131.556 Y43.740 Z0.000 F1600
G1 X131.584 Y43.704 Z0.000 F1600
G1 X131.617 Y43.673 Z0.000 F1600
G1 X131.668 Y43.684 Z0.000 F1600
; --- FIX Y Backlash: 1.300mm ---
G0 X131.668 Y44.984 F1200
G1 X131.985 Y45.072 Z0.000 F1600
G1 X132.316 Y45.138 Z0.000 F1600
G1 X132.420 Y45.156 Z0.000 F1600
G1 X132.464 Y45.187 Z0.000 F1600
G1 X132.479 Y45.239 Z0.000 F1600
G1 X132.506 Y45.355 Z0.000 F1600
G1 X132.541 Y45.518 Z0.000 F1600
G1 X132.621 Y45.911 Z0.000 F1600
G1 X132.657 Y46.068 Z0.000 F1600
G1 X132.685 Y46.172 Z0.000 F1600
G1 X132.703 Y46.213 Z0.000 F1600
G1 X132.770 Y46.220 Z0.000 F1600
G1 X132.932 Y46.225 Z0.000 F1600
G1 X133.165 Y46.229 Z0.000 F1600
G1 X134.159 Y46.229 Z0.000 F1600
G1 X134.188 Y46.186 Z0.000 F1600
; --- FIX Y Backlash: -1.300mm ---
G0 X134.188 Y44.886 F1200
G1 X134.218 Y44.803 Z0.000 F1600
G1 X134.250 Y44.664 Z0.000 F1600
G1 X134.409 Y43.856 Z0.000 F1600
G1 X134.585 Y43.832 Z0.000 F1600
G1 X134.785 Y43.795 Z0.000 F1600
G1 X135.017 Y43.740 Z0.000 F1600
G1 X135.273 Y43.673 Z0.000 F1600
; --- FIX Y Backlash: 1.300mm ---
G0 X135.273 Y44.973 F1200
G1 X135.604 Y45.394 Z0.000 F1600
G1 X135.831 Y45.686 Z0.000 F1600
G1 X135.903 Y45.769 Z0.000 F1600
G1 X135.951 Y45.807 Z0.000 F1600
G1 X135.990 Y45.817 Z0.000 F1600
; --- FIX Y Backlash: -1.300mm ---
G0 X135.990 Y44.517 F1200
G1 X136.399 Y44.336 Z0.000 F1600
G1 X136.765 Y44.134 Z0.000 F1600
G1 X136.757 Y44.111 Z0.000 F1600
; --- FIX X Backlash: -1.300mm ---
G0 X135.457 Y44.111 F1200
G1 X135.234 Y43.801 Z0.000 F1600
G1 X134.669 Y42.982 Z0.000 F1600
G1 X134.361 Y42.529 Z0.000 F1600
G1 X134.296 Y42.442 Z0.000 F1600
G1 X134.258 Y42.405 Z0.000 F1600
G1 X134.203 Y42.423 Z0.000 F1600
G1 X134.099 Y42.466 Z0.000 F1600
; --- FIX Y Backlash: 1.300mm ---
G0 X134.099 Y43.766 F1200
G1 X133.792 Y43.882 Z0.000 F1600
G1 X133.434 Y43.986 Z0.000 F1600
G1 X133.067 Y44.069 Z0.000 F1600
G1 X132.733 Y44.118 Z0.000 F1600
G1 X132.143 Y44.138 Z0.000 F1600
G1 X131.545 Y44.109 Z0.000 F1600
; --- FIX Y Backlash: -1.300mm ---
G0 X131.545 Y42.809 F1200
G1 X131.174 Y42.755 Z0.000 F1600
G1 X130.804 Y42.674 Z0.000 F1600
G1 X130.455 Y42.572 Z0.000 F1600
G1 X130.151 Y42.456 Z0.000 F1600
G1 X130.066 Y42.420 Z0.000 F1600
G1 X130.022 Y42.405 Z0.000 F1600
G0 Z3.5 F1000
; --- FIX Y Backlash: 1.300mm ---
G0 X130.022 Y43.705 F1200
G0 X121.706 Y47.718 Z2.100
G1 Z0 F1000
; --- FIX Y Backlash: -1.300mm ---
G0 X121.706 Y46.418 F1200
G1 X121.706 Y27.965 Z0.000 F1600
; --- FIX X Backlash: 1.300mm ---
G0 X123.006 Y27.965 F1200
G1 X143.494 Y27.965 Z0.000 F1600
; --- FIX Y Backlash: 1.300mm ---
G0 X143.494 Y29.265 F1200
G1 X143.494 Y47.718 Z0.000 F1600
; --- FIX X Backlash: -1.300mm ---
G0 X142.194 Y47.718 F1200
G1 X121.706 Y47.718 Z0.000 F1600
G0 Z3.5 F1000
; --- FIX X Backlash: 1.300mm ---
G0 X123.006 Y47.718 F1200
G0 X127.604 Y52.613 Z2.100
G1 Z0 F1000
; --- FIX Y Backlash: -1.300mm ---
G0 X127.604 Y51.313 F1200
G1 X132.737 Y50.030 Z0.000 F1600
; --- FIX Y Backlash: 1.300mm ---
G0 X132.737 Y51.330 F1200
G1 X132.737 Y56.462 Z0.000 F1600
; --- FIX X Backlash: -1.300mm ---
G0 X131.437 Y56.462 F1200
; --- FIX Y Backlash: -1.300mm ---
G0 X131.437 Y55.162 F1200
G1 X126.304 Y53.879 Z0.000 F1600
G1 X126.304 Y51.313 Z0.000 F1600
G0 Z3.5 F1000
; --- FIX Y Backlash: 1.300mm ---
G0 X126.304 Y52.613 F1200
G0 X125.791 Y53.896 Z2.100
G1 Z0 F1000
; --- FIX X Backlash: 1.300mm ---
G0 X127.091 Y53.896 F1200
G1 X139.408 Y53.896 Z0.000 F1600
G0 Z3.5 F1000
; --- FIX X Backlash: -1.300mm ---
G0 X138.108 Y53.896 F1200
G0 X136.312 Y53.896 Z2.100
G1 Z0 F1000
G1 X136.286 Y54.155 Z0.000 F1600
G1 X136.211 Y54.396 Z0.000 F1600
G1 X136.093 Y54.614 Z0.000 F1600
G1 X135.936 Y54.804 Z0.000 F1600
G1 X135.746 Y54.960 Z0.000 F1600
G1 X135.529 Y55.079 Z0.000 F1600
G1 X135.288 Y55.153 Z0.000 F1600
G1 X135.029 Y55.179 Z0.000 F1600
G1 X134.771 Y55.153 Z0.000 F1600
; --- FIX Y Backlash: -1.300mm ---
G0 X134.771 Y53.853 F1200
G1 X134.530 Y53.779 Z0.000 F1600
G1 X134.312 Y53.660 Z0.000 F1600
G1 X134.122 Y53.504 Z0.000 F1600
G1 X133.965 Y53.314 Z0.000 F1600
G1 X133.847 Y53.096 Z0.000 F1600
G1 X133.772 Y52.855 Z0.000 F1600
G1 X133.746 Y52.596 Z0.000 F1600
G1 X133.772 Y52.338 Z0.000 F1600
; --- FIX X Backlash: 1.300mm ---
G0 X135.072 Y52.338 F1200
G1 X135.147 Y52.097 Z0.000 F1600
G1 X135.265 Y51.879 Z0.000 F1600
G1 X135.422 Y51.689 Z0.000 F1600
G1 X135.612 Y51.532 Z0.000 F1600
G1 X135.830 Y51.414 Z0.000 F1600
G1 X136.071 Y51.339 Z0.000 F1600
G1 X136.329 Y51.313 Z0.000 F1600
G1 X136.588 Y51.339 Z0.000 F1600
; --- FIX Y Backlash: 1.300mm ---
G0 X136.588 Y52.639 F1200
G1 X136.829 Y52.714 Z0.000 F1600
G1 X137.046 Y52.832 Z0.000 F1600
G1 X137.236 Y52.989 Z0.000 F1600
G1 X137.393 Y53.179 Z0.000 F1600
G1 X137.511 Y53.397 Z0.000 F1600
G1 X137.586 Y53.638 Z0.000 F1600
G1 X137.612 Y53.896 Z0.000 F1600
G0 Z3.5 F1000
G0 X138.895 Y53.896 Z2.100
G1 Z0 F1000
G1 X138.882 Y54.159 Z0.000 F1600
G1 X138.843 Y54.413 Z0.000 F1600
; --- FIX X Backlash: -1.300mm ---
G0 X137.543 Y54.413 F1200
G1 X137.480 Y54.659 Z0.000 F1600
G1 X137.394 Y54.895 Z0.000 F1600
G1 X137.157 Y55.331 Z0.000 F1600
G1 X136.844 Y55.711 Z0.000 F1600
G1 X136.464 Y56.024 Z0.000 F1600
G1 X136.028 Y56.261 Z0.000 F1600
G1 X135.792 Y56.347 Z0.000 F1600
G1 X135.546 Y56.410 Z0.000 F1600
G1 X135.291 Y56.449 Z0.000 F1600
G1 X135.029 Y56.462 Z0.000 F1600
G1 X134.767 Y56.449 Z0.000 F1600
G1 X134.512 Y56.410 Z0.000 F1600
; --- FIX Y Backlash: -1.300mm ---
G0 X134.512 Y55.110 F1200
G1 X134.266 Y55.047 Z0.000 F1600
G1 X134.030 Y54.961 Z0.000 F1600
G1 X133.594 Y54.724 Z0.000 F1600
G1 X133.215 Y54.411 Z0.000 F1600
G1 X132.901 Y54.031 Z0.000 F1600
G1 X132.665 Y53.595 Z0.000 F1600
G1 X132.578 Y53.359 Z0.000 F1600
G1 X132.515 Y53.113 Z0.000 F1600
G1 X132.476 Y52.859 Z0.000 F1600
G1 X132.463 Y52.596 Z0.000 F1600
G1 X132.476 Y52.334 Z0.000 F1600
G1 X132.515 Y52.079 Z0.000 F1600
; --- FIX X Backlash: 1.300mm ---
G0 X133.815 Y52.079 F1200
G1 X133.878 Y51.833 Z0.000 F1600
G1 X133.965 Y51.597 Z0.000 F1600
G1 X134.201 Y51.162 Z0.000 F1600
G1 X134.515 Y50.782 Z0.000 F1600
G1 X134.894 Y50.468 Z0.000 F1600
G1 X135.330 Y50.232 Z0.000 F1600
G1 X135.566 Y50.146 Z0.000 F1600
G1 X135.812 Y50.082 Z0.000 F1600
G1 X136.067 Y50.043 Z0.000 F1600
G1 X136.329 Y50.030 Z0.000 F1600
G1 X136.591 Y50.043 Z0.000 F1600
G1 X136.846 Y50.082 Z0.000 F1600
; --- FIX Y Backlash: 1.300mm ---
G0 X136.846 Y51.382 F1200
G1 X137.092 Y51.446 Z0.000 F1600
G1 X137.328 Y51.532 Z0.000 F1600
G1 X137.764 Y51.768 Z0.000 F1600
G1 X138.144 Y52.082 Z0.000 F1600
G1 X138.457 Y52.462 Z0.000 F1600
G1 X138.694 Y52.897 Z0.000 F1600
G1 X138.780 Y53.133 Z0.000 F1600
G1 X138.843 Y53.379 Z0.000 F1600
G1 X138.882 Y53.634 Z0.000 F1600
G1 X138.895 Y53.896 Z0.000 F1600
G0 Z3.5 F1000
; --- FIX Y Backlash: -1.300mm ---
G0 X138.895 Y52.596 F1200
G0 X143.514 Y51.057 Z2.100
G1 Z0 F1000
G1 X146.080 Y51.057 Z0.000 F1600
G0 Z3.5 F1000
; --- FIX X Backlash: -1.300mm ---
G0 X144.780 Y51.057 F1200
G0 X135.029 Y49.517 Z2.100
G1 Z0 F1000
; --- FIX Y Backlash: 1.300mm ---
G0 X135.029 Y50.817 F1200
G1 X135.029 Y56.976 Z0.000 F1600
G0 Z3.5 F1000
G0 X126.339 Y63.118 Z2.100
G1 Z0 F1000
; --- FIX X Backlash: 1.300mm ---
G0 X127.639 Y63.118 F1200
G1 X128.015 Y63.564 Z0.000 F1600
G1 X128.378 Y64.022 Z0.000 F1600
G1 X128.727 Y64.491 Z0.000 F1600
G1 X129.062 Y64.970 Z0.000 F1600
G1 X129.382 Y65.459 Z0.000 F1600
G1 X129.687 Y65.957 Z0.000 F1600
G1 X129.977 Y66.464 Z0.000 F1600
G1 X130.252 Y66.980 Z0.000 F1600
G1 X130.511 Y67.503 Z0.000 F1600
G1 X130.754 Y68.035 Z0.000 F1600
G1 X130.981 Y68.573 Z0.000 F1600
G1 X131.192 Y69.118 Z0.000 F1600
G1 X131.387 Y69.669 Z0.000 F1600
G1 X131.565 Y70.225 Z0.000 F1600
G0 Z3.5 F1000
G0 Z2.1 
G1 Z0 F1000
G1 X131.686 Y70.644 Z0.000 F1600
G1 X131.799 Y71.066 Z0.000 F1600
G0 Z3.5 F1000
G0 Z2.1 
G1 Z0 F1000
; --- FIX X Backlash: -1.300mm ---
G0 X130.499 Y71.066 F1200
G1 X112.852 Y81.255 Z0.000 F1600
G0 Z3.5 F1000
G0 Z2.1 
G1 Z0 F1000
G1 X112.852 Y83.612 Z0.000 F1600
G0 Z3.5 F1000
; --- FIX Y Backlash: -1.300mm ---
G0 X112.852 Y82.312 F1200
G0 X112.006 Y81.824 Z2.100
G1 Z0 F1000
G1 X112.006 Y79.467 Z0.000 F1600
G0 Z3.5 F1000
G0 Z2.1 
G1 Z0 F1000
G1 X93.169 Y68.591 Z0.000 F1600
G0 Z3.5 F1000
G0 Z2.1 
G1 Z0 F1000
; --- FIX Y Backlash: 1.300mm ---
G0 X93.169 Y69.891 F1200
G1 X92.871 Y70.906 Z0.000 F1600
G1 X92.629 Y71.936 Z0.000 F1600
G0 Z3.5 F1000
G0 Z2.1 
G1 Z0 F1000
G1 X92.496 Y72.650 Z0.000 F1600
G1 X92.390 Y73.369 Z0.000 F1600
G0 Z3.5 F1000
G0 Z2.1 
G1 Z0 F1000
G1 X92.343 Y73.764 Z0.000 F1600
G1 X92.304 Y74.159 Z0.000 F1600
G1 X92.273 Y74.556 Z0.000 F1600
G1 X92.250 Y74.953 Z0.000 F1600
G1 X92.236 Y75.350 Z0.000 F1600
G1 X92.230 Y75.747 Z0.000 F1600
G1 X92.230 Y76.145 Z0.000 F1600
G1 X92.241 Y76.542 Z0.000 F1600
G1 X92.259 Y76.939 Z0.000 F1600
G1 X92.285 Y77.336 Z0.000 F1600
G1 X92.320 Y77.732 Z0.000 F1600
G1 X92.362 Y78.127 Z0.000 F1600
G1 X92.412 Y78.522 Z0.000 F1600
; --- FIX X Backlash: 1.300mm ---
G0 X93.712 Y78.522 F1200
G1 X93.771 Y78.915 Z0.000 F1600
G0 Z3.5 F1000
G0 Z2.1 
G1 Z0 F1000
G1 X93.984 Y80.041 Z0.000 F1600
G1 X94.263 Y81.152 Z0.000 F1600
G0 Z3.5 F1000
G0 Z2.1 
G1 Z0 F1000
G1 X112.461 Y91.658 Z0.000 F1600
G0 Z3.5 F1000
G0 Z2.1 
G1 Z0 F1000
G1 X112.760 Y91.798 Z0.000 F1600
G1 X113.082 Y91.888 Z0.000 F1600
G1 X113.425 Y91.927 Z0.000 F1600
G1 X113.785 Y91.915 Z0.000 F1600
; --- FIX Y Backlash: -1.300mm ---
G0 X113.785 Y90.615 F1200
G1 X114.160 Y90.554 Z0.000 F1600
G1 X114.547 Y90.443 Z0.000 F1600
G1 X114.944 Y90.282 Z0.000 F1600
G1 X115.347 Y90.072 Z0.000 F1600
G0 Z3.5 F1000
G0 Z2.1 
G1 Z0 F1000
G1 X118.584 Y88.203 Z0.000 F1600
G0 Z3.5 F1000
G0 Z2.1 
G1 Z0 F1000
G1 X118.697 Y88.136 Z0.000 F1600
G1 X118.807 Y88.067 Z0.000 F1600
G1 X118.913 Y87.997 Z0.000 F1600
G1 X119.015 Y87.925 Z0.000 F1600
G1 X119.114 Y87.851 Z0.000 F1600
G1 X119.208 Y87.776 Z0.000 F1600
G1 X119.299 Y87.700 Z0.000 F1600
G1 X119.384 Y87.623 Z0.000 F1600
G1 X119.466 Y87.545 Z0.000 F1600
G1 X119.543 Y87.466 Z0.000 F1600
G1 X119.615 Y87.386 Z0.000 F1600
G1 X119.682 Y87.306 Z0.000 F1600
G1 X119.744 Y87.225 Z0.000 F1600
G1 X119.801 Y87.145 Z0.000 F1600
G0 Z3.5 F1000
G0 Z2.1 
G1 Z0 F1000
; --- FIX X Backlash: -1.300mm ---
G0 X118.501 Y87.145 F1200
G1 X92.390 Y72.069 Z0.000 F1600
G0 Z3.5 F1000
; --- FIX X Backlash: 1.300mm ---
G0 X93.690 Y72.069 F1200
G0 X93.929 Y70.636 Z2.100
G1 Z0 F1000
; --- FIX Y Backlash: 1.300mm ---
G0 X93.929 Y71.936 F1200
G1 X118.068 Y85.873 Z0.000 F1600
G0 Z3.5 F1000
G0 Z2.1 
G1 Z0 F1000
G1 X118.216 Y85.967 Z0.000 F1600
G1 X118.363 Y86.078 Z0.000 F1600
G1 X118.508 Y86.205 Z0.000 F1600
G1 X118.651 Y86.348 Z0.000 F1600
G1 X118.791 Y86.507 Z0.000 F1600
G1 X118.928 Y86.679 Z0.000 F1600
G1 X119.059 Y86.864 Z0.000 F1600
G1 X119.186 Y87.062 Z0.000 F1600
G1 X119.307 Y87.271 Z0.000 F1600
G1 X119.421 Y87.490 Z0.000 F1600
G1 X119.528 Y87.718 Z0.000 F1600
G1 X119.627 Y87.954 Z0.000 F1600
G1 X119.718 Y88.197 Z0.000 F1600
G1 X119.801 Y88.445 Z0.000 F1600
G0 Z3.5 F1000
; --- FIX X Backlash: -1.300mm ---
G0 X118.501 Y88.445 F1200
G0 X114.047 Y91.372 Z2.100
G1 Z0 F1000
; --- FIX Y Backlash: -1.300mm ---
G0 X114.047 Y90.072 F1200
G1 X92.471 Y77.615 Z0.000 F1600
G0 Z3.5 F1000
; --- FIX Y Backlash: 1.300mm ---
G0 X92.471 Y78.915 F1200
G0 X88.151 Y87.341 Z2.100
G1 Z0 F1000
G1 X88.151 Y89.933 Z0.000 F1600
G0 Z3.5 F1000
G0 X88.156 Y90.058 Z2.100
G1 Z0 F1000
G1 X88.135 Y90.307 Z0.000 F1600
G1 X88.076 Y90.563 Z0.000 F1600
G1 X87.982 Y90.817 Z0.000 F1600
G1 X87.857 Y91.063 Z0.000 F1600
G1 X87.706 Y91.295 Z0.000 F1600
G1 X87.533 Y91.503 Z0.000 F1600
G1 X87.341 Y91.682 Z0.000 F1600
G1 X87.136 Y91.825 Z0.000 F1600
G0 Z3.5 F1000
G0 Z2.1 
G1 Z0 F1000
G1 X86.326 Y92.292 Z0.000 F1600
G0 Z3.5 F1000
G0 Z2.1 
G1 Z0 F1000
G1 X86.108 Y92.395 Z0.000 F1600
G1 X85.868 Y92.468 Z0.000 F1600
G0 Z3.5 F1000
G0 Z2.1 
G1 Z0 F1000
; --- FIX Y Backlash: -1.300mm ---
G0 X85.868 Y91.168 F1200
G1 X29.405 Y58.569 Z0.000 F1600
G0 Z3.5 F1000
; --- FIX X Backlash: 1.300mm ---
G0 X30.705 Y58.569 F1200
G0 X30.802 Y58.179 Z2.100
G1 Z0 F1000
G1 X30.755 Y57.907 Z0.000 F1600
; --- FIX X Backlash: -1.300mm ---
G0 X29.455 Y57.907 F1200
G1 X29.318 Y57.647 Z0.000 F1600
G1 X29.097 Y57.408 Z0.000 F1600
G1 X28.797 Y57.197 Z0.000 F1600
G0 Z3.5 F1000
G0 Z2.1 
G1 Z0 F1000
G1 X16.891 Y50.323 Z0.000 F1600
G0 Z3.5 F1000
G0 Z2.1 
G1 Z0 F1000
G1 X16.891 Y45.020 Z0.000 F1600
G0 Z3.5 F1000
G0 Z2.1 
G1 Z0 F1000
G1 X16.618 Y44.885 Z0.000 F1600
G1 X16.318 Y44.776 Z0.000 F1600
G1 X15.996 Y44.694 Z0.000 F1600
G1 X15.660 Y44.640 Z0.000 F1600
G1 X15.313 Y44.615 Z0.000 F1600
G1 X14.962 Y44.620 Z0.000 F1600
G1 X14.612 Y44.654 Z0.000 F1600
; --- FIX Y Backlash: 1.300mm ---
G0 X14.612 Y45.954 F1200
G1 X14.270 Y46.019 Z0.000 F1600
G1 X13.948 Y46.113 Z0.000 F1600
G1 X13.659 Y46.232 Z0.000 F1600
G1 X13.405 Y46.372 Z0.000 F1600
G1 X13.190 Y46.531 Z0.000 F1600
G1 X13.018 Y46.706 Z0.000 F1600
G1 X12.891 Y46.895 Z0.000 F1600
G1 X12.812 Y47.095 Z0.000 F1600
G1 X12.785 Y47.302 Z0.000 F1600
G0 Z3.5 F1000
G0 Z2.1 
G1 Z0 F1000
G1 X12.785 Y52.605 Z0.000 F1600
G0 Z3.5 F1000
G0 Z2.1 
G1 Z0 F1000
G1 X12.832 Y52.877 Z0.000 F1600
; --- FIX X Backlash: 1.300mm ---
G0 X14.132 Y52.877 F1200
G1 X14.268 Y53.137 Z0.000 F1600
G1 X14.489 Y53.376 Z0.000 F1600
G1 X14.790 Y53.587 Z0.000 F1600
G0 Z3.5 F1000
G0 Z2.1 
G1 Z0 F1000
G1 X17.223 Y54.992 Z0.000 F1600
G0 Z3.5 F1000
G0 Z2.1 
G1 Z0 F1000
; --- FIX Y Backlash: -1.300mm ---
G0 X17.223 Y53.692 F1200
G1 X18.001 Y53.491 Z0.000 F1600
G1 X18.809 Y53.368 Z0.000 F1600
G1 X19.631 Y53.321 Z0.000 F1600
G1 X20.451 Y53.351 Z0.000 F1600
; --- FIX Y Backlash: 1.300mm ---
G0 X20.451 Y54.651 F1200
G1 X21.252 Y54.754 Z0.000 F1600
G1 X22.020 Y54.931 Z0.000 F1600
G1 X22.736 Y55.179 Z0.000 F1600
G1 X23.386 Y55.497 Z0.000 F1600
G0 Z3.5 F1000
G0 Z2.1 
G1 Z0 F1000
G1 X23.731 Y55.717 Z0.000 F1600
G1 X24.034 Y55.953 Z0.000 F1600
G1 X24.294 Y56.204 Z0.000 F1600
G1 X24.510 Y56.468 Z0.000 F1600
G1 X24.680 Y56.743 Z0.000 F1600
G1 X24.804 Y57.027 Z0.000 F1600
G1 X24.879 Y57.317 Z0.000 F1600
G1 X24.904 Y57.613 Z0.000 F1600
G0 Z3.5 F1000
G0 Z2.1 
G1 Z0 F1000
G1 X24.863 Y57.989 Z0.000 F1600
; --- FIX X Backlash: -1.300mm ---
G0 X23.563 Y57.989 F1200
G1 X23.441 Y58.358 Z0.000 F1600
G1 X23.240 Y58.715 Z0.000 F1600
G1 X22.962 Y59.056 Z0.000 F1600
G0 Z3.5 F1000
G0 Z2.1 
G1 Z0 F1000
; --- FIX Y Backlash: -1.300mm ---
G0 X22.962 Y57.756 F1200
G1 X22.962 Y54.870 Z0.000 F1600
G0 Z3.5 F1000
; --- FIX Y Backlash: 1.300mm ---
G0 X22.962 Y56.170 F1200
G0 X22.962 Y59.056 Z2.100
G1 Z0 F1000
; --- FIX X Backlash: 1.300mm ---
G0 X24.262 Y59.056 F1200
G1 X26.695 Y60.461 Z0.000 F1600
G0 Z3.5 F1000
G0 Z2.1 
G1 Z0 F1000
G1 X26.969 Y60.597 Z0.000 F1600
G1 X27.269 Y60.706 Z0.000 F1600
G1 X27.590 Y60.787 Z0.000 F1600
G1 X27.927 Y60.841 Z0.000 F1600
G1 X28.274 Y60.866 Z0.000 F1600
G1 X28.625 Y60.861 Z0.000 F1600
G1 X28.974 Y60.827 Z0.000 F1600
; --- FIX Y Backlash: -1.300mm ---
G0 X28.974 Y59.527 F1200
G1 X29.317 Y59.462 Z0.000 F1600
G1 X29.639 Y59.368 Z0.000 F1600
G1 X29.928 Y59.250 Z0.000 F1600
G1 X30.181 Y59.110 Z0.000 F1600
G1 X30.396 Y58.950 Z0.000 F1600
G1 X30.569 Y58.775 Z0.000 F1600
G1 X30.696 Y58.586 Z0.000 F1600
G1 X30.775 Y58.386 Z0.000 F1600
G1 X30.802 Y58.179 Z0.000 F1600
G0 Z3.5 F1000
G0 Z2.1 
G1 Z0 F1000
G1 X30.802 Y54.893 Z0.000 F1600
G0 Z3.5 F1000
G0 X30.785 Y54.827 Z2.100
G1 Z0 F1000
; --- FIX Y Backlash: 1.300mm ---
G0 X30.785 Y56.127 F1200
G1 X89.456 Y90.058 Z0.000 F1600
G0 Z3.5 F1000
; --- FIX X Backlash: -1.300mm ---
G0 X88.156 Y90.058 F1200
G0 X87.136 Y91.825 Z2.100
G1 Z0 F1000
; --- FIX Y Backlash: -1.300mm ---
G0 X87.136 Y90.525 F1200
G1 X29.540 Y57.305 Z0.000 F1600
G0 Z3.5 F1000
; --- FIX Y Backlash: 1.300mm ---
G0 X29.540 Y58.605 F1200
G0 X27.777 Y59.086 Z2.100
G1 Z0 F1000
; --- FIX Y Backlash: -1.300mm ---
G0 X27.777 Y57.786 F1200
G1 X27.458 Y57.664 Z0.000 F1600
G1 X27.096 Y57.623 Z0.000 F1600
G1 X26.734 Y57.664 Z0.000 F1600
; --- FIX Y Backlash: 1.300mm ---
G0 X26.734 Y58.964 F1200
G1 X26.416 Y59.086 Z0.000 F1600
G0 Z3.5 F1000
; --- FIX X Backlash: 1.300mm ---
G0 X27.716 Y59.086 F1200
; --- FIX Y Backlash: -1.300mm ---
G0 X27.716 Y57.786 F1200
G0 X27.861 Y57.717 Z2.100
G1 Z0 F1000
; --- FIX X Backlash: -1.300mm ---
G0 X26.561 Y57.717 F1200
; --- FIX Y Backlash: 1.300mm ---
G0 X26.561 Y59.017 F1200
G1 X26.494 Y59.107 Z0.000 F1600
G1 X26.471 Y59.204 Z0.000 F1600
G0 Z3.5 F1000
G0 Z2.1 
G1 Z0 F1000
G1 X26.520 Y59.344 Z0.000 F1600
; --- FIX X Backlash: 1.300mm ---
G0 X27.820 Y59.344 F1200
G1 X27.954 Y59.459 Z0.000 F1600
G1 X28.153 Y59.537 Z0.000 F1600
G1 X28.396 Y59.565 Z0.000 F1600
G1 X28.640 Y59.537 Z0.000 F1600
; --- FIX Y Backlash: -1.300mm ---
G0 X28.640 Y58.237 F1200
G1 X28.838 Y58.159 Z0.000 F1600
G1 X28.972 Y58.044 Z0.000 F1600
G1 X29.022 Y57.904 Z0.000 F1600
G0 Z3.5 F1000
G0 Z2.1 
G1 Z0 F1000
G1 X28.999 Y57.807 Z0.000 F1600
; --- FIX X Backlash: -1.300mm ---
G0 X27.699 Y57.807 F1200
G1 X27.632 Y57.717 Z0.000 F1600
G0 Z3.5 F1000
; --- FIX X Backlash: 1.300mm ---
G0 X28.932 Y57.717 F1200
; --- FIX Y Backlash: 1.300mm ---
G0 X28.932 Y59.017 F1200
G0 X29.077 Y59.086 Z2.100
G1 Z0 F1000
G1 X29.200 Y59.173 Z0.000 F1600
G1 X29.288 Y59.270 Z0.000 F1600
G1 X29.341 Y59.373 Z0.000 F1600
G1 X29.358 Y59.479 Z0.000 F1600
G1 X29.341 Y59.585 Z0.000 F1600
; --- FIX X Backlash: -1.300mm ---
G0 X28.041 Y59.585 F1200
G1 X27.988 Y59.688 Z0.000 F1600
G1 X27.900 Y59.785 Z0.000 F1600
G1 X27.777 Y59.872 Z0.000 F1600
G1 X27.458 Y59.994 Z0.000 F1600
G1 X27.096 Y60.034 Z0.000 F1600
G1 X26.734 Y59.994 Z0.000 F1600
; --- FIX Y Backlash: -1.300mm ---
G0 X26.734 Y58.694 F1200
G1 X26.416 Y58.572 Z0.000 F1600
G1 X26.293 Y58.485 Z0.000 F1600
G1 X26.205 Y58.388 Z0.000 F1600
G1 X26.152 Y58.285 Z0.000 F1600
G1 X26.134 Y58.179 Z0.000 F1600
G1 X26.152 Y58.073 Z0.000 F1600
; --- FIX X Backlash: 1.300mm ---
G0 X27.452 Y58.073 F1200
G1 X27.505 Y57.970 Z0.000 F1600
G1 X27.593 Y57.873 Z0.000 F1600
G1 X27.716 Y57.786 Z0.000 F1600
G0 Z3.5 F1000
G0 X30.097 Y51.894 Z2.100
G1 Z0 F1000
; --- FIX X Backlash: -1.300mm ---
G0 X28.797 Y51.894 F1200
G1 X20.123 Y46.886 Z0.000 F1600
G0 Z3.5 F1000
G0 Z2.1 
G1 Z0 F1000
G1 X16.891 Y45.020 Z0.000 F1600
G0 Z3.5 F1000
; --- FIX Y Backlash: 1.300mm ---
G0 X16.891 Y46.320 F1200
G0 X16.891 Y51.623 Z2.100
G1 Z0 F1000
; --- FIX Y Backlash: -1.300mm ---
G0 X16.891 Y50.323 F1200
G1 X16.618 Y50.187 Z0.000 F1600
G1 X16.318 Y50.078 Z0.000 F1600
G1 X15.996 Y49.997 Z0.000 F1600
G1 X15.660 Y49.943 Z0.000 F1600
G1 X15.313 Y49.918 Z0.000 F1600
G1 X14.962 Y49.923 Z0.000 F1600
G1 X14.612 Y49.957 Z0.000 F1600
; --- FIX Y Backlash: 1.300mm ---
G0 X14.612 Y51.257 F1200
G1 X14.270 Y51.322 Z0.000 F1600
G1 X13.948 Y51.416 Z0.000 F1600
G1 X13.659 Y51.534 Z0.000 F1600
G1 X13.405 Y51.674 Z0.000 F1600
G1 X13.190 Y51.834 Z0.000 F1600
G1 X13.018 Y52.009 Z0.000 F1600
G1 X12.891 Y52.198 Z0.000 F1600
G1 X12.812 Y52.397 Z0.000 F1600
G1 X12.785 Y52.605 Z0.000 F1600
G0 Z3.5 F1000
; --- FIX Y Backlash: -1.300mm ---
G0 X12.785 Y51.305 F1200
G0 X12.785 Y51.123 Z2.100
G1 Z0 F1000
; --- FIX Y Backlash: 1.300mm ---
G0 X12.785 Y52.423 F1200
G1 X9.237 Y54.471 Z0.000 F1600
G0 Z3.5 F1000
G0 Z2.1 
G1 Z0 F1000
G1 X9.237 Y57.063 Z0.000 F1600
G0 Z3.5 F1000
G0 Z2.1 
G1 Z0 F1000
G1 X9.257 Y57.283 Z0.000 F1600
; --- FIX X Backlash: 1.300mm ---
G0 X10.557 Y57.283 F1200
G1 X10.615 Y57.469 Z0.000 F1600
G1 X10.709 Y57.618 Z0.000 F1600
G1 X10.836 Y57.724 Z0.000 F1600
G0 Z3.5 F1000
G0 Z2.1 
G1 Z0 F1000
G1 X10.992 Y57.781 Z0.000 F1600
G1 X11.167 Y57.788 Z0.000 F1600
G1 X11.358 Y57.745 Z0.000 F1600
; --- FIX Y Backlash: -1.300mm ---
G0 X11.358 Y56.445 F1200
G1 X11.558 Y56.352 Z0.000 F1600
G0 Z3.5 F1000
G0 Z2.1 
G1 Z0 F1000
G1 X12.367 Y55.885 Z0.000 F1600
G0 Z3.5 F1000
G0 Z2.1 
G1 Z0 F1000
G1 X12.585 Y55.782 Z0.000 F1600
G1 X12.826 Y55.710 Z0.000 F1600
G0 Z3.5 F1000
G0 Z2.1 
G1 Z0 F1000
; --- FIX Y Backlash: 1.300mm ---
G0 X12.826 Y57.010 F1200
G1 X80.705 Y96.200 Z0.000 F1600
G0 Z3.5 F1000
G0 Z2.1 
G1 Z0 F1000
; --- FIX X Backlash: -1.300mm ---
G0 X79.405 Y96.200 F1200
G1 X79.279 Y96.338 Z0.000 F1600
G1 X79.100 Y96.464 Z0.000 F1600
G0 Z3.5 F1000
G0 Z2.1 
G1 Z0 F1000
G1 X78.291 Y96.931 Z0.000 F1600
G0 Z3.5 F1000
G0 Z2.1 
G1 Z0 F1000
G1 X78.091 Y97.024 Z0.000 F1600
G1 X77.901 Y97.067 Z0.000 F1600
G1 X77.725 Y97.060 Z0.000 F1600
; --- FIX Y Backlash: -1.300mm ---
G0 X77.725 Y95.760 F1200
G1 X77.570 Y95.703 Z0.000 F1600
G0 Z3.5 F1000
G0 Z2.1 
G1 Z0 F1000
G1 X9.536 Y56.424 Z0.000 F1600
G0 Z3.5 F1000
; --- FIX X Backlash: 1.300mm ---
G0 X10.836 Y56.424 F1200
G0 X11.558 Y56.352 Z2.100
G1 Z0 F1000
; --- FIX Y Backlash: 1.300mm ---
G0 X11.558 Y57.652 F1200
G1 X79.591 Y96.931 Z0.000 F1600
G0 Z3.5 F1000
; --- FIX Y Backlash: -1.300mm ---
G0 X79.591 Y95.631 F1200
G0 X80.705 Y94.900 Z2.100
G1 Z0 F1000
; --- FIX X Backlash: -1.300mm ---
G0 X79.405 Y94.900 F1200
G1 X79.323 Y94.689 Z0.000 F1600
G1 X79.219 Y94.505 Z0.000 F1600
G1 X79.186 Y94.458 Z0.000 F1600
G1 X79.152 Y94.415 Z0.000 F1600
G1 X79.117 Y94.376 Z0.000 F1600
G1 X79.082 Y94.340 Z0.000 F1600
G1 X79.045 Y94.308 Z0.000 F1600
G1 X79.008 Y94.280 Z0.000 F1600
G1 X78.972 Y94.257 Z0.000 F1600
G0 Z3.5 F1000
G0 Z2.1 
G1 Z0 F1000
G1 X11.959 Y55.567 Z0.000 F1600
G0 Z3.5 F1000
G0 Z2.1 
G1 Z0 F1000
G1 X11.922 Y55.548 Z0.000 F1600
G1 X11.885 Y55.533 Z0.000 F1600
G1 X11.849 Y55.523 Z0.000 F1600
G1 X11.813 Y55.517 Z0.000 F1600
G1 X11.778 Y55.517 Z0.000 F1600
G1 X11.744 Y55.520 Z0.000 F1600
G1 X11.711 Y55.529 Z0.000 F1600
G1 X11.679 Y55.542 Z0.000 F1600
G1 X11.649 Y55.559 Z0.000 F1600
G1 X11.621 Y55.581 Z0.000 F1600
G1 X11.594 Y55.607 Z0.000 F1600
G1 X11.569 Y55.637 Z0.000 F1600
G1 X11.546 Y55.671 Z0.000 F1600
G1 X11.526 Y55.710 Z0.000 F1600
G0 Z3.5 F1000
; --- FIX X Backlash: 1.300mm ---
G0 X12.826 Y55.710 F1200
G0 X13.259 Y55.567 Z2.100
G1 Z0 F1000
; --- FIX X Backlash: -1.300mm ---
G0 X11.959 Y55.567 F1200
G1 X10.768 Y54.879 Z0.000 F1600
G0 Z3.5 F1000
G0 Z2.1 
G1 Z0 F1000
G1 X10.768 Y54.290 Z0.000 F1600
G0 Z3.5 F1000
G0 Z2.1 
G1 Z0 F1000
G1 X9.748 Y53.701 Z0.000 F1600
G0 Z3.5 F1000
G0 Z2.1 
G1 Z0 F1000
; --- FIX Y Backlash: 1.300mm ---
G0 X9.748 Y55.001 F1200
G1 X9.748 Y56.424 Z0.000 F1600
G0 Z3.5 F1000
G0 Z2.1 
G1 Z0 F1000
; --- FIX X Backlash: 1.300mm ---
G0 X11.048 Y56.424 F1200
; --- FIX Y Backlash: -1.300mm ---
G0 X11.048 Y55.124 F1200
G1 X11.108 Y55.065 Z0.000 F1600
G1 X11.174 Y55.011 Z0.000 F1600
G1 X11.245 Y54.962 Z0.000 F1600
G1 X11.320 Y54.919 Z0.000 F1600
G1 X11.397 Y54.882 Z0.000 F1600
G1 X11.477 Y54.852 Z0.000 F1600
G1 X11.558 Y54.829 Z0.000 F1600
G1 X11.639 Y54.813 Z0.000 F1600
G1 X11.719 Y54.805 Z0.000 F1600
G1 X11.796 Y54.805 Z0.000 F1600
G1 X11.871 Y54.812 Z0.000 F1600
G1 X11.942 Y54.827 Z0.000 F1600
G1 X12.008 Y54.850 Z0.000 F1600
G1 X12.068 Y54.879 Z0.000 F1600
G0 Z3.5 F1000
G0 X12.068 Y54.290 Z2.100
G1 Z0 F1000
; --- FIX Y Backlash: 1.300mm ---
G0 X12.068 Y55.590 F1200
G1 X79.081 Y94.280 Z0.000 F1600
G0 Z3.5 F1000
G0 Z2.1 
G1 Z0 F1000
G1 X79.292 Y94.402 Z0.000 F1600
G0 Z3.5 F1000
G0 Z2.1 
G1 Z0 F1000
G1 X79.292 Y94.991 Z0.000 F1600
G0 Z3.5 F1000
; --- FIX X Backlash: -1.300mm ---
G0 X77.992 Y94.991 F1200
; --- FIX Y Backlash: -1.300mm ---
G0 X77.992 Y93.691 F1200
G0 X77.781 Y93.569 Z2.100
G1 Z0 F1000
G1 X77.781 Y92.980 Z0.000 F1600
G0 Z3.5 F1000
G0 Z2.1 
G1 Z0 F1000
; --- FIX X Backlash: 1.300mm ---
G0 X79.081 Y92.980 F1200
G1 X84.694 Y89.740 Z0.000 F1600
G0 Z3.5 F1000
; --- FIX Y Backlash: 1.300mm ---
G0 X84.694 Y91.040 F1200
G0 X84.905 Y91.162 Z2.100
G1 Z0 F1000
; --- FIX X Backlash: -1.300mm ---
G0 X83.605 Y91.162 F1200
G1 X77.992 Y94.402 Z0.000 F1600
G0 Z3.5 F1000
; --- FIX X Backlash: 1.300mm ---
G0 X79.292 Y94.402 F1200
; --- FIX Y Backlash: -1.300mm ---
G0 X79.292 Y93.102 F1200
G0 X80.715 Y90.918 Z2.100
G1 Z0 F1000
G1 X80.680 Y90.714 Z0.000 F1600
; --- FIX X Backlash: -1.300mm ---
G0 X79.380 Y90.714 F1200
G1 X79.278 Y90.519 Z0.000 F1600
G1 X79.112 Y90.340 Z0.000 F1600
G1 X78.887 Y90.181 Z0.000 F1600
G0 Z3.5 F1000
G0 Z2.1 
G1 Z0 F1000
G1 X78.682 Y90.080 Z0.000 F1600
G1 X78.456 Y89.998 Z0.000 F1600
G1 X78.216 Y89.937 Z0.000 F1600
G1 X77.963 Y89.896 Z0.000 F1600
G1 X77.440 Y89.881 Z0.000 F1600
; --- FIX Y Backlash: 1.300mm ---
G0 X77.440 Y91.181 F1200
G1 X76.921 Y91.256 Z0.000 F1600
G1 X76.679 Y91.326 Z0.000 F1600
G1 X76.462 Y91.415 Z0.000 F1600
G1 X76.272 Y91.520 Z0.000 F1600
G1 X76.111 Y91.639 Z0.000 F1600
G1 X75.982 Y91.771 Z0.000 F1600
G1 X75.886 Y91.913 Z0.000 F1600
G1 X75.827 Y92.062 Z0.000 F1600
G1 X75.807 Y92.218 Z0.000 F1600
G0 Z3.5 F1000
G0 Z2.1 
G1 Z0 F1000
G1 X75.844 Y92.428 Z0.000 F1600
; --- FIX X Backlash: 1.300mm ---
G0 X77.144 Y92.428 F1200
G1 X77.249 Y92.623 Z0.000 F1600
G1 X77.415 Y92.800 Z0.000 F1600
G1 X77.635 Y92.954 Z0.000 F1600
G1 X77.902 Y93.082 Z0.000 F1600
G1 X78.209 Y93.178 Z0.000 F1600
G1 X78.547 Y93.238 Z0.000 F1600
G1 X78.911 Y93.260 Z0.000 F1600
G1 X79.275 Y93.238 Z0.000 F1600
; --- FIX Y Backlash: -1.300mm ---
G0 X79.275 Y91.938 F1200
G1 X79.613 Y91.878 Z0.000 F1600
G1 X79.920 Y91.782 Z0.000 F1600
G1 X80.187 Y91.654 Z0.000 F1600
G1 X80.407 Y91.500 Z0.000 F1600
G1 X80.573 Y91.323 Z0.000 F1600
G1 X80.678 Y91.128 Z0.000 F1600
G1 X80.715 Y90.918 Z0.000 F1600
G0 Z3.5 F1000
; --- FIX X Backlash: -1.300mm ---
G0 X79.415 Y90.918 F1200
G0 X79.252 Y90.486 Z2.100
G1 Z0 F1000
; --- FIX Y Backlash: 1.300mm ---
G0 X79.252 Y91.786 F1200
G1 X79.127 Y91.919 Z0.000 F1600
G1 X78.972 Y92.038 Z0.000 F1600
G1 X78.791 Y92.142 Z0.000 F1600
G1 X78.587 Y92.230 Z0.000 F1600
G1 X78.124 Y92.352 Z0.000 F1600
G1 X77.611 Y92.395 Z0.000 F1600
G1 X77.098 Y92.352 Z0.000 F1600
; --- FIX Y Backlash: -1.300mm ---
G0 X77.098 Y91.052 F1200
G1 X76.635 Y90.930 Z0.000 F1600
G1 X76.431 Y90.842 Z0.000 F1600
G1 X76.250 Y90.738 Z0.000 F1600
G1 X76.095 Y90.619 Z0.000 F1600
G1 X75.969 Y90.486 Z0.000 F1600
G0 Z3.5 F1000
; --- FIX X Backlash: 1.300mm ---
G0 X77.269 Y90.486 F1200
G0 X78.141 Y90.054 Z2.100
G1 Z0 F1000
; --- FIX Y Backlash: 1.300mm ---
G0 X78.141 Y91.354 F1200
G1 X78.157 Y91.443 Z0.000 F1600
G1 X78.202 Y91.527 Z0.000 F1600
G1 X78.273 Y91.602 Z0.000 F1600
G1 X78.367 Y91.668 Z0.000 F1600
G1 X78.611 Y91.763 Z0.000 F1600
G1 X78.911 Y91.798 Z0.000 F1600
G1 X79.211 Y91.763 Z0.000 F1600
; --- FIX Y Backlash: -1.300mm ---
G0 X79.211 Y90.463 F1200
G1 X79.455 Y90.368 Z0.000 F1600
G1 X79.549 Y90.302 Z0.000 F1600
G1 X79.620 Y90.227 Z0.000 F1600
G1 X79.665 Y90.143 Z0.000 F1600
G1 X79.681 Y90.054 Z0.000 F1600
G0 Z3.5 F1000
G0 Z2.1 
G1 Z0 F1000
G1 X79.677 Y90.013 Z0.000 F1600
G1 X79.668 Y89.972 Z0.000 F1600
G0 Z3.5 F1000
; --- FIX X Backlash: -1.300mm ---
G0 X78.368 Y89.972 F1200
G0 X77.969 Y89.897 Z2.100
G1 Z0 F1000
G1 X77.794 Y89.936 Z0.000 F1600
G1 X77.611 Y89.948 Z0.000 F1600
G1 X77.428 Y89.936 Z0.000 F1600
G1 X77.252 Y89.897 Z0.000 F1600
G0 Z3.5 F1000
; --- FIX Y Backlash: 1.300mm ---
G0 X77.252 Y91.197 F1200
G0 X76.854 Y91.272 Z2.100
G1 Z0 F1000
G1 X76.844 Y91.313 Z0.000 F1600
G1 X76.841 Y91.354 Z0.000 F1600
G0 Z3.5 F1000
; --- FIX Y Backlash: -1.300mm ---
G0 X76.841 Y90.054 F1200
G0 X73.706 Y89.064 Z2.100
G1 Z0 F1000
; --- FIX X Backlash: 1.300mm ---
G0 X75.006 Y89.064 F1200
G1 X75.283 Y88.694 Z0.000 F1600
G1 X75.594 Y88.352 Z0.000 F1600
G1 X75.936 Y88.041 Z0.000 F1600
G1 X76.306 Y87.764 Z0.000 F1600
G1 X76.702 Y87.524 Z0.000 F1600
G1 X77.123 Y87.321 Z0.000 F1600
G1 X77.565 Y87.159 Z0.000 F1600
G1 X78.026 Y87.041 Z0.000 F1600
G1 X78.504 Y86.968 Z0.000 F1600
G1 X78.996 Y86.943 Z0.000 F1600
G1 X79.487 Y86.968 Z0.000 F1600
; --- FIX Y Backlash: 1.300mm ---
G0 X79.487 Y88.268 F1200
G1 X79.965 Y88.341 Z0.000 F1600
G1 X80.426 Y88.459 Z0.000 F1600
G1 X80.868 Y88.621 Z0.000 F1600
G1 X81.289 Y88.824 Z0.000 F1600
G1 X81.685 Y89.064 Z0.000 F1600
G1 X82.056 Y89.341 Z0.000 F1600
G1 X82.397 Y89.652 Z0.000 F1600
G1 X82.708 Y89.994 Z0.000 F1600
G1 X82.985 Y90.364 Z0.000 F1600
G1 X83.226 Y90.761 Z0.000 F1600
G1 X83.428 Y91.181 Z0.000 F1600
G1 X83.590 Y91.623 Z0.000 F1600
G1 X83.708 Y92.084 Z0.000 F1600
G1 X83.781 Y92.562 Z0.000 F1600
G1 X83.806 Y93.054 Z0.000 F1600
G1 X83.781 Y93.545 Z0.000 F1600
; --- FIX X Backlash: -1.300mm ---
G0 X82.481 Y93.545 F1200
G1 X82.408 Y94.023 Z0.000 F1600
G1 X82.290 Y94.484 Z0.000 F1600
G1 X82.128 Y94.926 Z0.000 F1600
G1 X81.926 Y95.347 Z0.000 F1600
G1 X81.685 Y95.743 Z0.000 F1600
G1 X81.408 Y96.114 Z0.000 F1600
G1 X81.097 Y96.455 Z0.000 F1600
G1 X80.756 Y96.766 Z0.000 F1600
G1 X80.385 Y97.043 Z0.000 F1600
G1 X79.989 Y97.284 Z0.000 F1600
G1 X79.568 Y97.486 Z0.000 F1600
G1 X79.126 Y97.648 Z0.000 F1600
G1 X78.665 Y97.767 Z0.000 F1600
G1 X78.187 Y97.839 Z0.000 F1600
G1 X77.696 Y97.864 Z0.000 F1600
G1 X77.204 Y97.839 Z0.000 F1600
; --- FIX Y Backlash: -1.300mm ---
G0 X77.204 Y96.539 F1200
G1 X76.726 Y96.467 Z0.000 F1600
G1 X76.265 Y96.348 Z0.000 F1600
G1 X75.823 Y96.186 Z0.000 F1600
G1 X75.402 Y95.984 Z0.000 F1600
G1 X75.006 Y95.743 Z0.000 F1600
G1 X74.636 Y95.466 Z0.000 F1600
G1 X74.294 Y95.155 Z0.000 F1600
G1 X73.983 Y94.814 Z0.000 F1600
G1 X73.706 Y94.443 Z0.000 F1600
G1 X73.465 Y94.047 Z0.000 F1600
G1 X73.263 Y93.626 Z0.000 F1600
G1 X73.101 Y93.184 Z0.000 F1600
G1 X72.983 Y92.723 Z0.000 F1600
G1 X72.910 Y92.245 Z0.000 F1600
G1 X72.885 Y91.754 Z0.000 F1600
G1 X72.910 Y91.262 Z0.000 F1600
; --- FIX X Backlash: 1.300mm ---
G0 X74.210 Y91.262 F1200
G1 X74.283 Y90.784 Z0.000 F1600
G1 X74.401 Y90.323 Z0.000 F1600
G1 X74.563 Y89.881 Z0.000 F1600
G1 X74.765 Y89.461 Z0.000 F1600
G1 X75.006 Y89.064 Z0.000 F1600
G0 Z3.5 F1000
; --- FIX Y Backlash: 1.300mm ---
G0 X75.006 Y90.364 F1200
G0 X84.399 Y94.400 Z2.100
G1 Z0 F1000
G1 X84.399 Y94.668 Z0.000 F1600
G1 X84.918 Y94.668 Z0.000 F1600
G1 X84.918 Y96.461 Z0.000 F1600
