
G0 Z10 F500;      ; Move to clearance level - Z motion limited to 500
; G0 X-10 Y-10 F1200; Homing
; G0 X-5 Y-5 F1200; go in
; G10 P0 L20 X0 Y0; set to zero
G1 F1200;           ; Set feed rate to 1000
;LightBurn 1.6.04
;Custom GCode device profile, absolute coords
;Bounds: X22.66 Y37.34 to X67.34 Y52.66
G00 G17 G40 G21 G54
G90
M4
;Cut @ 1500 mm/min, 80% power

M8

; Washing sequence (no color)
G1 Z10 F1000;        ; Raise brush to safe height
G0 X5 Y5 F1200;     ; Rapid move to brush cleaning position
G1 Z-1 F800;         ; Lower brush for cleaning - controlled movement
G1 X10 Y12 Z8 F1200;     ; Rapid move to brush cleaning position
G1 Z-1 F800;         ; Lower brush for cleaning - controlled movement
G1 X25 Y14 Z6 F800;     ; Move across cleaning area - controlled movement
G1 Z8 F800;         ; Maintain brush height - controlled movement
G0 X5 Y5 F1200;     ; Rapid move to brush cleaning position
G1 Z-1 F800;         ; Lower brush for cleaning - controlled movement
G1 X15 Y12 Z8 F1200;     ; Rapid move to brush cleaning position
G1 Z-1 F800;         ; Lower brush for cleaning - controlled movement
G1 X25 Y14 Z6 F800;     ; Move across cleaning area - controlled movement
G1 Z10 F800;         ; Maintain brush height - controlled movement
G1 F1200;           ; Set feed rate to 1000

; Color picking sequence
G1 Z10 F1000;         ; Raise brush to safe height
G0 X41 Y5 F1200;    ; Rapid move to color 1 position
G1 Z0 F1000;         ; Lower into color - controlled movement
G1 X40.102Y7.295Z0S800F1200
G1 X40.026Y7.642Z0F1200
G1 X40Y8Z0F1200
G1 X40.026Y8.358Z0F1200
G1 X40.102Y8.705Z0F1200
G1 X40.225Y9.041Z0F1200
G1 X40.393Y9.362Z0F1200
G1 X40.603Y9.668Z0F1200
G1 X40.854Y9.957Z0F1200
G1 X41.142Y10.226Z0F1200
G1 X41.464Y10.475Z0F1200
G1 X41.82Y10.701Z0F1200
G1 X42.204Y10.902Z0F1200
G1 X42.617Y11.078Z0F1200
G1 X43.054Y11.225Z0F1200
G1 X43.513Y11.343Z0F1200
G1 X43.992Y11.429Z0F1200
G1 X44.489Y11.482Z0F1200
G1 X45Y11.5Z0F1200
G1 X45.511Y11.482Z0F1200
G1 X46.008Y11.429Z0F1200
G1 X46.487Y11.343Z0F1200
G1 X46.946Y11.225Z0F1200
G1 X47.383Y11.078Z0F1200
G1 X47.796Y10.902Z0F1200
G1 X48.18Y10.701Z0F1200
G1 X48.536Y10.475Z0F1200
G1 X48.858Y10.226Z0F1200
G1 X49.146Y9.957Z0F1200
G1 X49.397Y9.668Z0F1200
G1 X49.607Y9.362Z0F1200
G1 X49.775Y9.041Z0F1200
G1 X49.898Y8.705Z0F1200
G1 X49.974Y8.358Z0F1200
G1 X50Y8Z0F1200
G1 X49.974Y7.642Z0F1200
G1 X49.898Y7.295Z0F1200
G1 X49.775Y6.959Z0F1200
G1 X49.607Y6.638Z0F1200
G1 X49.397Y6.332Z0F1200
G1 X49.146Y6.043Z0F1200
G1 X48.858Y5.774Z0F1200
G1 X48.536Y5.525Z0F1200
G1 X48.18Y5.299Z0F1200
G1 X47.796Y5.098Z0F1200
G1 X47.383Y4.922Z0F1200
G1 X46.946Y4.775Z0F1200
G1 X46.487Y4.657Z0F1200
G1 X46.008Y4.571Z0F1200
G1 X45.511Y4.518Z0F1200
G1 X45Y4.5Z0F1200
G1 X44.489Y4.518Z0F1200
G1 X43.992Y4.571Z0F1200
G1 X43.513Y4.657Z0F1200
G1 X43.054Y4.775Z0F1200
G1 X42.617Y4.922Z0F1200
G1 X42.204Y5.098Z0F1200
G1 X41.82Y5.299Z0F1200
G1 X41.464Y5.525Z0F1200
G1 X41.142Y5.774Z0F1200
G1 X40.854Y6.043Z0F1200
G1 X40.603Y6.332Z0F1200
G1 X40.393Y6.638Z0F1200
G1 X40.225Y6.959Z0F1200
G1 Z7 F800;         ; Raise from color - controlled movement
G1 X34 Y8 Z1 F1200;     ; Movement in paint - controlled movement
G1 X24 Y18 Z8 F500;     ; Move in paint - controlled movement
G1 F1200;           ; Set feed rate to 1000
G0 Z3.5 F1000
G0 X26.633 Y39.237 Z3.5 
G1 Z0 F1000
;Layer C1
G1 X26.9 Y39.644 Z0 S800 F1000
G1 X27.115 Y39.997 Z0 F1000
G1 X27.293 Y40.307 Z0 F1000
G1 X27.447 Y40.583 Z0 F1000
G1 X27.741 Y41.08 Z0 F1000
G1 X28.109 Y41.573 Z0 F1000
G1 X28.435 Y42.225 Z0 F1000
G1 X28.678 Y42.716 Z0 F1000
G1 X28.864 Y43.112 Z0 F1000
G1 X29.018 Y43.48 Z0 F1000
G1 X29.224 Y43.85 Z0 F1000
G1 X29.504 Y44.281 Z0 F1000
G1 X29.642 Y44.503 Z0 F1000
G1 X29.763 Y44.719 Z0 F1000
G1 X29.854 Y44.924 Z0 F1000
G1 X29.904 Y45.11 Z0 F1000
G1 X30.005 Y45.326 Z0 F1000
G1 X30.095 Y45.511 Z0 F1000
G1 X30.176 Y45.667 Z0 F1000
G1 X30.249 Y45.802 Z0 F1000
G1 X30.377 Y46.021 Z0 F1000
G1 X30.489 Y46.206 Z0 F1000
G1 X30.598 Y46.392 Z0 F1000
G1 X30.713 Y46.617 Z0 F1000
G1 X30.778 Y46.756 Z0 F1000
G1 X30.848 Y46.918 Z0 F1000
G1 X30.926 Y47.109 Z0 F1000
G1 X31.012 Y47.332 Z0 F1000
G1 X31.255 Y47.693 Z0 F1000
G1 X31.478 Y48.125 Z0 F1000
G1 X31.661 Y48.569 Z0 F1000
G1 X31.787 Y48.964 Z0 F1000
G1 X31.984 Y49.359 Z0 F1000
G1 X32.176 Y49.843 Z0 F1000
G1 X32.361 Y50.328 Z0 F1000
G1 X32.536 Y50.726 Z0 F1000
G0 Z3.5 F1000
G0 X23.779 Y47.337 Z3.5 F1500
G1 Z0 F1000
G1 X23.788 Y47.655 Z0 F1000
G1 X23.812 Y47.968 Z0 F1000
G1 X23.879 Y48.272 Z0 F1000
G1 X24.018 Y48.563 Z0 F1000
G1 X24.349 Y48.993 Z0 F1000
G1 X24.706 Y49.394 Z0 F1000
G1 X25.115 Y49.775 Z0 F1000
G1 X25.6 Y50.144 Z0 F1000
G1 X26.121 Y50.358 Z0 F1000
G1 X26.588 Y50.644 Z0 F1000
G1 X26.825 Y50.78 Z0 F1000
G1 X27.076 Y50.892 Z0 F1000
G1 X27.349 Y50.968 Z0 F1000
G1 X27.655 Y50.992 Z0 F1000
G1 X28.375 Y51.223 Z0 F1000
G1 X29.123 Y51.363 Z0 F1000
G1 X29.89 Y51.432 Z0 F1000
G1 X30.666 Y51.453 Z0 F1000
G1 X31.811 Y51.374 Z0 F1000
G1 X32.955 Y51.273 Z0 F1000
G1 X33.645 Y51.258 Z0 F1000
G1 X34.327 Y51.196 Z0 F1000
G1 X35.003 Y51.099 Z0 F1000
G1 X35.676 Y50.984 Z0 F1000
G1 X36.292 Y50.815 Z0 F1000
G1 X36.878 Y50.63 Z0 F1000
G1 X37.481 Y50.429 Z0 F1000
G1 X38.151 Y50.212 Z0 F1000
G1 X38.65 Y49.984 Z0 F1000
G1 X39.086 Y49.745 Z0 F1000
G1 X40.039 Y49.17 Z0 F1000
G1 X40.27 Y49.026 Z0 F1000
G1 X40.493 Y48.85 Z0 F1000
G1 X40.705 Y48.643 Z0 F1000
G1 X40.901 Y48.405 Z0 F1000
G1 X41.076 Y48.135 Z0 F1000
G1 X41.225 Y47.834 Z0 F1000
G1 X41.343 Y47.5 Z0 F1000
G1 X41.428 Y47.135 Z0 F1000
G1 X41.462 Y46.932 Z0 F1000
G1 X41.471 Y46.702 Z0 F1000
G1 X41.451 Y46.454 Z0 F1000
G1 X41.399 Y46.195 Z0 F1000
G1 X41.31 Y45.933 Z0 F1000
G1 X41.181 Y45.676 Z0 F1000
G1 X41.007 Y45.432 Z0 F1000
G1 X40.786 Y45.21 Z0 F1000
G1 X40.08 Y44.551 Z0 F1000
G1 X39.809 Y44.306 Z0 F1000
G1 X39.533 Y44.065 Z0 F1000
G1 X39.258 Y43.84 Z0 F1000
G1 X38.993 Y43.641 Z0 F1000
G1 X38.743 Y43.479 Z0 F1000
G1 X38.231 Y43.086 Z0 F1000
G1 X37.652 Y42.705 Z0 F1000
G1 X36.509 Y42.011 Z0 F1000
G1 X36.168 Y41.809 Z0 F1000
G1 X35.858 Y41.671 Z0 F1000
G1 X35.661 Y41.587 Z0 F1000
G1 X35.406 Y41.47 Z0 F1000
G1 X35.249 Y41.395 Z0 F1000
G1 X35.07 Y41.306 Z0 F1000
G1 X34.866 Y41.201 Z0 F1000
G1 X34.633 Y41.078 Z0 F1000
G1 X34.309 Y40.863 Z0 F1000
G1 X33.931 Y40.639 Z0 F1000
G1 X33.512 Y40.407 Z0 F1000
G1 X33.065 Y40.17 Z0 F1000
G1 X32.135 Y39.695 Z0 F1000
G1 X31.242 Y39.234 Z0 F1000
G1 X30.021 Y38.743 Z0 F1000
G1 X28.813 Y38.263 Z0 F1000
G1 X27.224 Y37.85 Z0 F1000
G1 X25.68 Y37.442 Z0 F1000
G1 X25.515 Y37.367 Z0 F1000
G1 X25.269 Y37.339 Z0 F1000
G1 X24.971 Y37.346 Z0 F1000
G1 X24.653 Y37.373 Z0 F1000
G1 X24.344 Y37.407 Z0 F1000
G1 X24.074 Y37.435 Z0 F1000
G1 X23.962 Y37.441 Z0 F1000
G1 X23.873 Z0 F1000
G1 X23.807 Y37.432 Z0 F1000
G1 X23.707 Y37.379 Z0 F1000
G1 X23.617 Y37.37 Z0 F1000
G1 X23.506 Y37.385 Z0 F1000
G1 X23.382 Y37.42 Z0 F1000
G1 X23.117 Y37.54 Z0 F1000
G1 X22.874 Y37.711 Z0 F1000
G1 X22.776 Y37.81 Z0 F1000
G1 X22.703 Y37.913 Z0 F1000
G1 X22.661 Y38.019 Z0 F1000
G1 X22.655 Y38.125 Z0 F1000
G1 X22.693 Y38.229 Z0 F1000
G1 X22.781 Y38.327 Z0 F1000
G1 X22.926 Y38.417 Z0 F1000
G1 X23.133 Y38.498 Z0 F1000
G1 X23.234 Y38.564 Z0 F1000
G1 X23.324 Y38.633 Z0 F1000
G0 Z3.5 F1000
G0 X50.285 Y49.613 Z3.5 
G1 Z0 F1000
G1 Y49.705 Z0 F1000
G1 X50.274 Y49.797 Z0 F1000
G1 X50.237 Y49.88 Z0 F1000
G1 X50.17 Y49.948 Z0 F1000
G1 X50.074 Y50.055 Z0 F1000
G1 X50.013 Y50.181 Z0 F1000
G1 X49.892 Y50.271 Z0 F1000
G0 Z3.5 F1000
G0 X53.169 Y49.817 Z3.5 
G1 Z0 F1000
G1 X53.264 Y49.69 Z0 F1000
G1 X53.295 Y49.541 Z0 F1000
G1 X53.276 Y49.456 Z0 F1000
G1 X53.2 Y49.403 Z0 F1000
G1 X53.087 Y49.373 Z0 F1000
G1 X52.979 Y49.333 Z0 F1000
G1 X52.884 Y49.275 Z0 F1000
G1 X52.787 Y49.22 Z0 F1000
G1 X52.698 Y49.156 Z0 F1000
G1 X52.623 Y49.075 Z0 F1000
G1 X52.577 Y49.003 Z0 F1000
G1 X52.533 Y48.928 Z0 F1000
G1 X52.436 Y48.792 Z0 F1000
G0 Z3.5 F1000
G0 X42.006 Y44.534 Z3.5 
G1 Z0 F1000
G1 X41.569 Y44.478 Z0 F1000
G1 X41.109 Y44.394 Z0 F1000
G1 X40.644 Y44.278 Z0 F1000
G1 X40.192 Y44.126 Z0 F1000
G1 X39.771 Y43.934 Z0 F1000
G1 X39.397 Y43.698 Z0 F1000
G1 X39.091 Y43.415 Z0 F1000
G1 X38.868 Y43.079 Z0 F1000
G1 X38.662 Y42.74 Z0 F1000
G1 X38.463 Y42.34 Z0 F1000
G1 X38.295 Y41.904 Z0 F1000
G1 X38.184 Y41.454 Z0 F1000
G1 X38.157 Y41.232 Z0 F1000
G1 X38.154 Y41.015 Z0 F1000
G1 X38.177 Y40.807 Z0 F1000
G1 X38.231 Y40.61 Z0 F1000
G1 X38.317 Y40.427 Z0 F1000
G1 X38.439 Y40.262 Z0 F1000
G1 X38.601 Y40.117 Z0 F1000
G1 X38.804 Y39.996 Z0 F1000
G1 X39.246 Y40.012 Z0 F1000
G1 X39.671 Y40.099 Z0 F1000
G1 X40.077 Y40.246 Z0 F1000
G1 X40.46 Y40.447 Z0 F1000
G1 X40.817 Y40.693 Z0 F1000
G1 X41.145 Y40.976 Z0 F1000
G1 X41.44 Y41.287 Z0 F1000
G1 X41.7 Y41.619 Z0 F1000
G1 X41.872 Y41.892 Z0 F1000
G1 X42.059 Y42.203 Z0 F1000
G1 X42.253 Y42.54 Z0 F1000
G1 X42.449 Y42.89 Z0 F1000
G1 X42.639 Y43.243 Z0 F1000
G1 X42.818 Y43.585 Z0 F1000
G1 X42.979 Y43.906 Z0 F1000
G1 X43.115 Y44.194 Z0 F1000
G1 X43.379 Y44.784 Z0 F1000
G1 X43.689 Y45.385 Z0 F1000
G1 X43.754 Y45.474 Z0 F1000
G1 X43.809 Y45.522 Z0 F1000
G1 X43.851 Z0 F1000
G1 X43.878 Y45.462 Z0 F1000
G1 X43.887 Y45.336 Z0 F1000
G1 X43.875 Y45.137 Z0 F1000
G1 X43.841 Y44.854 Z0 F1000
G1 X43.78 Y44.48 Z0 F1000
G1 X43.68 Y44.151 Z0 F1000
G1 X43.512 Y43.777 Z0 F1000
G1 X43.313 Y43.377 Z0 F1000
G1 X43.122 Y42.969 Z0 F1000
G1 X42.977 Y42.571 Z0 F1000
G1 X42.916 Y42.2 Z0 F1000
G1 X42.929 Y42.03 Z0 F1000
G1 X42.977 Y41.874 Z0 F1000
G1 X43.064 Y41.733 Z0 F1000
G1 X43.197 Y41.61 Z0 F1000
G1 X43.332 Y41.471 Z0 F1000
G1 X43.479 Y41.384 Z0 F1000
G1 X43.634 Y41.343 Z0 F1000
G1 X43.796 Z0 F1000
G1 X43.962 Y41.385 Z0 F1000
G1 X44.129 Y41.458 Z0 F1000
G1 X44.295 Y41.562 Z0 F1000
G1 X44.456 Y41.69 Z0 F1000
G1 X44.755 Y42.005 Z0 F1000
G1 X45.005 Y42.368 Z0 F1000
G1 X45.184 Y42.744 Z0 F1000
G1 X45.272 Y43.098 Z0 F1000
G1 X45.399 Y43.431 Z0 F1000
G1 X45.598 Y43.81 Z0 F1000
G1 X45.837 Y44.193 Z0 F1000
G1 X46.084 Y44.541 Z0 F1000
G1 X46.2 Y44.687 Z0 F1000
G1 X46.305 Y44.81 Z0 F1000
G1 X46.396 Y44.902 Z0 F1000
G1 X46.468 Y44.959 Z0 F1000
G1 X46.518 Y44.976 Z0 F1000
G1 X46.541 Y44.948 Z0 F1000
G1 X46.533 Y44.869 Z0 F1000
G1 X46.491 Y44.734 Z0 F1000
G1 X46.213 Y44.003 Z0 F1000
G1 X46.134 Y43.747 Z0 F1000
G1 X46.108 Y43.542 Z0 F1000
G1 X46.001 Y43.263 Z0 F1000
G1 X45.92 Y42.913 Z0 F1000
G1 X45.883 Y42.536 Z0 F1000
G1 X45.905 Y42.174 Z0 F1000
G1 X45.943 Y42.012 Z0 F1000
G1 X46.003 Y41.87 Z0 F1000
G1 X46.085 Y41.754 Z0 F1000
G1 X46.193 Y41.668 Z0 F1000
G1 X46.328 Y41.617 Z0 F1000
G1 X46.492 Y41.608 Z0 F1000
G1 X46.688 Y41.646 Z0 F1000
G1 X46.916 Y41.736 Z0 F1000
G1 X47.309 Y42.309 Z0 F1000
G1 X47.637 Y42.939 Z0 F1000
G1 X47.773 Y43.253 Z0 F1000
G1 X47.887 Y43.554 Z0 F1000
G1 X47.98 Y43.833 Z0 F1000
G1 X48.05 Y44.083 Z0 F1000
G1 X48.148 Y44.336 Z0 F1000
G1 X48.308 Y44.609 Z0 F1000
G1 X48.498 Y44.866 Z0 F1000
G1 X48.689 Y45.072 Z0 F1000
G1 X48.775 Y45.146 Z0 F1000
G1 X48.85 Y45.193 Z0 F1000
G1 X48.909 Y45.21 Z0 F1000
G1 X48.949 Y45.193 Z0 F1000
G1 X48.967 Y45.136 Z0 F1000
G1 X48.957 Y45.036 Z0 F1000
G1 X48.917 Y44.888 Z0 F1000
G1 X48.521 Y43.83 Z0 F1000
G1 X48.293 Y42.997 Z0 F1000
G1 X48.234 Y42.622 Z0 F1000
G1 X48.223 Y42.29 Z0 F1000
G1 X48.268 Y42.016 Z0 F1000
G1 X48.376 Y41.811 Z0 F1000
G1 X48.496 Y41.86 Z0 F1000
G1 X48.616 Y41.952 Z0 F1000
G1 X48.734 Y42.081 Z0 F1000
G1 X48.852 Y42.241 Z0 F1000
G1 X49.087 Y42.632 Z0 F1000
G1 X49.319 Y43.076 Z0 F1000
G1 X49.549 Y43.527 Z0 F1000
G1 X49.778 Y43.937 Z0 F1000
G1 X49.892 Y44.111 Z0 F1000
G1 X50.005 Y44.258 Z0 F1000
G1 X50.118 Y44.372 Z0 F1000
G1 X50.231 Y44.445 Z0 F1000
G1 X50.427 Y44.577 Z0 F1000
G1 X50.638 Y44.726 Z0 F1000
G1 X50.72 Y44.761 Z0 F1000
G1 X50.77 Y44.743 Z0 F1000
G1 X50.78 Y44.709 Z0 F1000
G1 X50.777 Y44.655 Z0 F1000
G1 X50.762 Y44.579 Z0 F1000
G1 X50.73 Y44.477 Z0 F1000
G1 X50.362 Y43.418 Z0 F1000
G1 X50.218 Y42.964 Z0 F1000
G1 X50.12 Y42.563 Z0 F1000
G1 X50.083 Y42.217 Z0 F1000
G1 X50.121 Y41.926 Z0 F1000
G1 X50.172 Y41.803 Z0 F1000
G1 X50.248 Y41.694 Z0 F1000
G1 X50.349 Y41.6 Z0 F1000
G1 X50.478 Y41.522 Z0 F1000
G1 X50.636 Y41.509 Z0 F1000
G1 X50.794 Y41.54 Z0 F1000
G1 X50.952 Y41.61 Z0 F1000
G1 X51.109 Y41.715 Z0 F1000
G1 X51.418 Y42.007 Z0 F1000
G1 X51.716 Y42.376 Z0 F1000
G1 X51.999 Y42.781 Z0 F1000
G1 X52.495 Y43.545 Z0 F1000
G1 X52.895 Y44.09 Z0 F1000
G1 X53.069 Y44.382 Z0 F1000
G1 X53.339 Y44.888 Z0 F1000
G1 X53.388 Y44.97 Z0 F1000
G1 X53.429 Y45.026 Z0 F1000
G1 X53.461 Y45.051 Z0 F1000
G1 X53.483 Y45.04 Z0 F1000
G1 X53.496 Y44.987 Z0 F1000
G1 X53.499 Y44.89 Z0 F1000
G1 X53.491 Y44.742 Z0 F1000
G1 X53.473 Y44.539 Z0 F1000
G1 X53.324 Y43.814 Z0 F1000
G1 X53.166 Y43.132 Z0 F1000
G1 X53.142 Y42.805 Z0 F1000
G1 X53.187 Y42.488 Z0 F1000
G1 X53.243 Y42.332 Z0 F1000
G1 X53.325 Y42.178 Z0 F1000
G1 X53.436 Y42.026 Z0 F1000
G1 X53.58 Y41.876 Z0 F1000
G1 X53.754 Y41.838 Z0 F1000
G1 X53.898 Y41.845 Z0 F1000
G1 X54.015 Y41.892 Z0 F1000
G1 X54.11 Y41.974 Z0 F1000
G1 X54.249 Y42.22 Z0 F1000
G1 X54.347 Y42.54 Z0 F1000
G1 X54.435 Y42.894 Z0 F1000
G1 X54.545 Y43.238 Z0 F1000
G1 X54.619 Y43.393 Z0 F1000
G1 X54.71 Y43.531 Z0 F1000
G1 X54.824 Y43.644 Z0 F1000
G1 X54.962 Y43.729 Z0 F1000
G1 X55.076 Y43.84 Z0 F1000
G1 X55.173 Y43.915 Z0 F1000
G1 X55.26 Y43.947 Z0 F1000
G1 X55.342 Y43.927 Z0 F1000
G1 X55.422 Y43.848 Z0 F1000
G1 X55.506 Y43.702 Z0 F1000
G1 X55.598 Y43.481 Z0 F1000
G1 X55.703 Y43.178 Z0 F1000
G1 X55.796 Y42.95 Z0 F1000
G1 X55.903 Y42.785 Z0 F1000
G1 X56.021 Y42.678 Z0 F1000
G1 X56.149 Y42.624 Z0 F1000
G1 X56.284 Y42.616 Z0 F1000
G1 X56.426 Y42.649 Z0 F1000
G1 X56.572 Y42.717 Z0 F1000
G1 X56.721 Y42.815 Z0 F1000
G1 X57.017 Y43.078 Z0 F1000
G1 X57.301 Y43.391 Z0 F1000
G1 X57.558 Y43.709 Z0 F1000
G1 X57.773 Y43.987 Z0 F1000
G1 X58.059 Y44.419 Z0 F1000
G1 X58.408 Y45.165 Z0 F1000
G1 X58.509 Y45.349 Z0 F1000
G1 X58.606 Y45.465 Z0 F1000
G1 X58.7 Y45.488 Z0 F1000
G1 X58.809 Y45.273 Z0 F1000
G1 X58.988 Y45.052 Z0 F1000
G1 X59.052 Y44.899 Z0 F1000
G1 X59.15 Y44.65 Z0 F1000
G1 X59.309 Y44.378 Z0 F1000
G1 X59.513 Y44.12 Z0 F1000
G1 X59.745 Y43.91 Z0 F1000
G1 X59.866 Y43.835 Z0 F1000
G1 X59.987 Y43.784 Z0 F1000
G1 X60.107 Y43.764 Z0 F1000
G1 X60.224 Y43.778 Z0 F1000
G1 X60.334 Y43.83 Z0 F1000
G1 X60.437 Y43.925 Z0 F1000
G1 X60.53 Y44.068 Z0 F1000
G1 X60.611 Y44.262 Z0 F1000
G1 X60.681 Y44.63 Z0 F1000
G1 X60.723 Y45.026 Z0 F1000
G1 X60.746 Y45.441 Z0 F1000
G1 X60.765 Y45.864 Z0 F1000
G1 X60.792 Y46.287 Z0 F1000
G1 X60.838 Y46.701 Z0 F1000
G1 X60.917 Y47.096 Z0 F1000
G1 X61.04 Y47.462 Z0 F1000
G1 X61.132 Y48.042 Z0 F1000
G1 X61.153 Y48.598 Z0 F1000
G1 X61.123 Y49.166 Z0 F1000
G1 X61.063 Y49.779 Z0 F1000
G1 X60.964 Y50.377 Z0 F1000
G1 X60.819 Y50.937 Z0 F1000
G1 X60.686 Y51.485 Z0 F1000
G1 X60.62 Y52.048 Z0 F1000
G1 X60.543 Y52.209 Z0 F1000
G1 X60.475 Y52.359 Z0 F1000
G1 X60.432 Y52.487 Z0 F1000
G1 Y52.587 Z0 F1000
G1 X60.484 Y52.648 Z0 F1000
G1 X60.611 Y52.661 Z0 F1000
G1 X60.707 Y52.647 Z0 F1000
G1 X60.826 Y52.618 Z0 F1000
G1 X60.971 Y52.572 Z0 F1000
G1 X61.144 Y52.509 Z0 F1000
G1 X61.531 Y52.425 Z0 F1000
G1 X61.914 Y52.308 Z0 F1000
G1 X62.286 Y52.161 Z0 F1000
G1 X62.641 Y51.985 Z0 F1000
G1 X62.971 Y51.781 Z0 F1000
G1 X63.27 Y51.55 Z0 F1000
G1 X63.532 Y51.294 Z0 F1000
G1 X63.749 Y51.014 Z0 F1000
G1 X64.076 Y50.43 Z0 F1000
G1 X64.339 Y49.837 Z0 F1000
G1 X64.565 Y49.235 Z0 F1000
G1 X64.781 Y48.626 Z0 F1000
G1 X64.863 Y48.389 Z0 F1000
G1 X64.918 Y48.179 Z0 F1000
G1 X64.949 Y47.985 Z0 F1000
G1 X64.957 Y47.798 Z0 F1000
G1 X64.943 Y47.607 Z0 F1000
G1 X64.911 Y47.403 Z0 F1000
G1 X64.86 Y47.175 Z0 F1000
G1 X64.793 Y46.914 Z0 F1000
G1 X64.715 Y46.572 Z0 F1000
G1 X64.666 Y46.278 Z0 F1000
G1 X64.63 Y46.015 Z0 F1000
G1 X64.59 Y45.767 Z0 F1000
G1 X64.528 Y45.516 Z0 F1000
G1 X64.428 Y45.245 Z0 F1000
G1 X64.273 Y44.938 Z0 F1000
G1 X64.046 Y44.577 Z0 F1000
G1 X63.581 Y44.064 Z0 F1000
G1 X63.125 Y43.57 Z0 F1000
G1 X62.88 Y43.343 Z0 F1000
G1 X62.613 Y43.138 Z0 F1000
G1 X62.314 Y42.96 Z0 F1000
G1 X61.976 Y42.815 Z0 F1000
G1 X61.316 Y42.476 Z0 F1000
G1 X60.649 Y42.176 Z0 F1000
G1 X59.984 Y41.873 Z0 F1000
G1 X59.333 Y41.522 Z0 F1000
G1 X59.261 Y41.438 Z0 F1000
G1 X59.238 Y41.37 Z0 F1000
G1 X59.257 Y41.317 Z0 F1000
G1 X59.314 Y41.276 Z0 F1000
G1 X59.519 Y41.228 Z0 F1000
G1 X59.81 Y41.212 Z0 F1000
G1 X60.145 Y41.215 Z0 F1000
G1 X60.48 Y41.224 Z0 F1000
G1 X60.774 Z0 F1000
G1 X60.983 Y41.205 Z0 F1000
G1 X61.85 Y41.173 Z0 F1000
G1 X62.723 Y41.138 Z0 F1000
G1 X63.585 Y41.058 Z0 F1000
G1 X64.422 Y40.889 Z0 F1000
G1 X64.934 Y40.771 Z0 F1000
G1 X65.433 Y40.624 Z0 F1000
G1 X65.916 Y40.443 Z0 F1000
G1 X66.374 Y40.222 Z0 F1000
G1 X66.544 Y40.114 Z0 F1000
G1 X66.751 Y39.958 Z0 F1000
G1 X67.013 Y39.745 Z0 F1000
G1 X67.345 Y39.468 Z0 F1000
M9

G90
G1 Z10 F800

; Return to 2,0 wash and park
G1 Z10 F1000;        ; Raise brush to safe height
G0 X5 Y5 F1200;     ; Rapid move to brush cleaning position
G1 Z-1 F800;         ; Lower brush for cleaning - controlled movement
G1 X10 Y12 Z8 F1200;     ; Rapid move to brush cleaning position
G1 Z-1 F800;         ; Lower brush for cleaning - controlled movement
G1 X25 Y14 Z6 F800;     ; Move across cleaning area - controlled movement
G0 X5 Y5 F1200;     ; Rapid move to brush cleaning position
G1 Z-1 F800;         ; Lower brush for cleaning - controlled movement
G1 X15 Y12 Z8 F1200;     ; Rapid move to brush cleaning position
G1 Z-1 F800;         ; Lower brush for cleaning - controlled movement
G1 X25 Y14 Z6 F800;     ; Move across cleaning area - controlled movement
G1 Z10 F800;         ; Maintain brush height - controlled movement
G0 X20 Y130 Z10 F500;; Move to parking position with Z at safe height
M2;                 ; End program
