G90 ; Force absolute mode
;LightBurn 1.6.04
;Custom GCode device profile, absolute coords
;Bounds: X4.5 Y3.5 to X51.5 Y43.22
G00 G17 G40 G21 G54
M3
G1 Z10 F1000
;Offset @ 1498.998 mm/min, 80% power
M8
G0 Z4.800 F800
G0 X31.831 Y9.019 Z4.800 F1500
G1 Z0 F1500
;Layer C1
G1 X32.132 Y9.058 F1500
G1 X32.419 Y9.121 Z0 F1500
G1 X32.692 Y9.207 Z0 F1500
G1 X32.932 Y9.306 Z0 F1500
G1 X33.157 Y9.423 Z0 F1500
G1 X33.351 Y9.548 Z0 F1500
G1 X33.516 Y9.676 Z0 F1500
G1 X33.654 Y9.806 Z0 F1500
G1 X33.766 Y9.935 Z0 F1500
G1 X33.847 Y10.049 Z0 F1500
G1 X33.906 Y10.154 Z0 F1500
G1 X33.948 Y10.253 Z0 F1500
G1 X33.973 Y10.333 Z0 F1500
G1 X33.987 Y10.417 Z0 F1500
G1 X33.992 Y10.500 Z0 F1500
G1 X33.987 Y10.583 Z0 F1500
G1 X33.973 Y10.667 Z0 F1500
G1 X33.948 Y10.747 Z0 F1500
G1 X33.906 Y10.846 Z0 F1500
; --- FIX X Backlash ---
G1 X33.006 Y10.846 F500
G1 X32.947 Y10.951 Z0 F1500
G1 X32.866 Y11.065 Z0 F1500
G1 X32.755 Y11.193 Z0 F1500
G1 X32.616 Y11.324 Z0 F1500
G1 X32.451 Y11.452 Z0 F1500
G1 X32.257 Y11.577 Z0 F1500
G1 X32.032 Y11.694 Z0 F1500
G1 X31.792 Y11.793 Z0 F1500
G1 X31.519 Y11.879 Z0 F1500
G1 X31.232 Y11.942 Z0 F1500
G1 X30.931 Y11.981 Z0 F1500
G1 X30.600 Y11.996 Z0 F1500
G1 X30.269 Y11.981 Z0 F1500
G1 X29.968 Y11.942 Z0 F1500
; --- FIX Y Backlash ---
G1 X29.968 Y11.142 F500
G1 X29.681 Y11.079 Z0 F1500
G1 X29.408 Y10.993 Z0 F1500
G1 X29.168 Y10.894 Z0 F1500
G1 X28.943 Y10.777 Z0 F1500
G1 X28.749 Y10.652 Z0 F1500
G1 X28.584 Y10.524 Z0 F1500
G1 X28.445 Y10.393 Z0 F1500
G1 X28.334 Y10.265 Z0 F1500
G1 X28.253 Y10.151 Z0 F1500
G1 X28.194 Y10.046 Z0 F1500
G1 X28.152 Y9.947 Z0 F1500
G1 X28.127 Y9.867 Z0 F1500
G1 X28.113 Y9.783 Z0 F1500
G1 X28.108 Y9.700 Z0 F1500
G1 X28.113 Y9.617 Z0 F1500
G1 X28.127 Y9.533 Z0 F1500
G1 X28.152 Y9.453 Z0 F1500
G1 X28.194 Y9.354 Z0 F1500
; --- FIX X Backlash ---
G1 X29.094 Y9.354 F500
G1 X29.153 Y9.249 Z0 F1500
G1 X29.234 Y9.135 Z0 F1500
G1 X29.346 Y9.006 Z0 F1500
G1 X29.484 Y8.876 Z0 F1500
G1 X29.649 Y8.748 Z0 F1500
G1 X29.843 Y8.623 Z0 F1500
G1 X30.068 Y8.506 Z0 F1500
G1 X30.308 Y8.407 Z0 F1500
G1 X30.581 Y8.321 Z0 F1500
G1 X30.868 Y8.258 Z0 F1500
G1 X31.169 Y8.219 Z0 F1500
G1 X31.500 Y8.204 Z0 F1500
G1 X31.831 Y8.219 Z0 F1500
G0 Z4.800 F800
G0 X34.943 Y8.202 Z4.800 F1500
G1 Z0 F1500
; --- FIX Y Backlash ---
G1 X34.943 Y9.002 F500
G1 X35.118 Y9.249 Z0 F1500
G1 X35.253 Y9.490 Z0 F1500
G1 X35.361 Y9.741 Z0 F1500
G1 X35.435 Y9.987 Z0 F1500
G1 X35.479 Y10.240 Z0 F1500
G1 X35.495 Y10.500 Z0 F1500
G1 X35.479 Y10.760 Z0 F1500
G1 X35.435 Y11.013 Z0 F1500
; --- FIX X Backlash ---
G1 X34.535 Y11.013 F500
G1 X34.461 Y11.259 Z0 F1500
G1 X34.353 Y11.510 Z0 F1500
G1 X34.218 Y11.751 Z0 F1500
G1 X34.043 Y11.998 Z0 F1500
G1 X33.836 Y12.235 Z0 F1500
G1 X33.596 Y12.462 Z0 F1500
G1 X33.316 Y12.680 Z0 F1500
G1 X33.006 Y12.878 Z0 F1500
G1 X32.673 Y13.052 Z0 F1500
G1 X32.297 Y13.207 Z0 F1500
G1 X31.912 Y13.328 Z0 F1500
G1 X31.493 Y13.420 Z0 F1500
G1 X31.051 Y13.478 Z0 F1500
G1 X30.600 Y13.498 Z0 F1500
G1 X30.149 Y13.478 Z0 F1500
; --- FIX Y Backlash ---
G1 X30.149 Y12.678 F500
G1 X29.707 Y12.620 Z0 F1500
G1 X29.288 Y12.528 Z0 F1500
G1 X28.903 Y12.407 Z0 F1500
G1 X28.527 Y12.252 Z0 F1500
G1 X28.194 Y12.078 Z0 F1500
G1 X27.884 Y11.880 Z0 F1500
G1 X27.604 Y11.662 Z0 F1500
G1 X27.364 Y11.435 Z0 F1500
G1 X27.157 Y11.198 Z0 F1500
G1 X26.982 Y10.951 Z0 F1500
G1 X26.847 Y10.710 Z0 F1500
G1 X26.739 Y10.459 Z0 F1500
G1 X26.665 Y10.213 Z0 F1500
G1 X26.621 Y9.960 Z0 F1500
G1 X26.605 Y9.700 Z0 F1500
G1 X26.621 Y9.440 Z0 F1500
G1 X26.665 Y9.187 Z0 F1500
; --- FIX X Backlash ---
G1 X27.565 Y9.187 F500
G1 X27.639 Y8.941 Z0 F1500
G1 X27.747 Y8.690 Z0 F1500
G1 X27.882 Y8.449 Z0 F1500
G1 X28.057 Y8.202 Z0 F1500
G1 X28.264 Y7.965 Z0 F1500
G1 X28.504 Y7.738 Z0 F1500
G1 X28.784 Y7.520 Z0 F1500
G1 X29.094 Y7.322 Z0 F1500
G1 X29.427 Y7.148 Z0 F1500
G1 X29.803 Y6.993 Z0 F1500
G1 X30.188 Y6.872 Z0 F1500
G1 X30.607 Y6.780 Z0 F1500
G1 X31.049 Y6.722 Z0 F1500
G1 X31.500 Y6.702 Z0 F1500
G1 X31.951 Y6.722 Z0 F1500
; --- FIX Y Backlash ---
G1 X31.951 Y7.522 F500
G1 X32.393 Y7.580 Z0 F1500
G1 X32.812 Y7.672 Z0 F1500
G1 X33.197 Y7.793 Z0 F1500
G1 X33.573 Y7.948 Z0 F1500
G1 X33.906 Y8.122 Z0 F1500
G1 X34.216 Y8.320 Z0 F1500
G1 X34.496 Y8.538 Z0 F1500
G1 X34.736 Y8.765 Z0 F1500
G1 X34.943 Y9.002 Z0 F1500
G0 Z4.800 F800
G0 X36.896 Y11.363 Z4.800 F1500
G1 Z0 F1500
; --- FIX X Backlash ---
G1 X35.996 Y11.363 F500
G1 X35.872 Y11.773 Z0 F1500
G1 X35.704 Y12.169 Z0 F1500
G1 X35.484 Y12.560 Z0 F1500
G1 X35.227 Y12.922 Z0 F1500
G1 X34.919 Y13.275 Z0 F1500
G1 X34.570 Y13.605 Z0 F1500
G1 X34.187 Y13.903 Z0 F1500
G1 X33.760 Y14.177 Z0 F1500
G1 X33.305 Y14.414 Z0 F1500
G1 X32.812 Y14.617 Z0 F1500
G1 X32.291 Y14.781 Z0 F1500
G1 X31.755 Y14.898 Z0 F1500
G1 X31.184 Y14.974 Z0 F1500
G1 X30.600 Y14.999 Z0 F1500
G1 X30.016 Y14.974 Z0 F1500
; --- FIX Y Backlash ---
G1 X30.016 Y14.174 F500
G1 X29.445 Y14.098 Z0 F1500
G1 X28.909 Y13.981 Z0 F1500
G1 X28.388 Y13.817 Z0 F1500
G1 X27.895 Y13.614 Z0 F1500
G1 X27.440 Y13.377 Z0 F1500
G1 X27.013 Y13.103 Z0 F1500
G1 X26.630 Y12.805 Z0 F1500
G1 X26.281 Y12.475 Z0 F1500
G1 X25.973 Y12.122 Z0 F1500
G1 X25.716 Y11.760 Z0 F1500
G1 X25.496 Y11.369 Z0 F1500
G1 X25.328 Y10.973 Z0 F1500
G1 X25.204 Y10.563 Z0 F1500
G1 X25.128 Y10.137 Z0 F1500
G1 X25.103 Y9.700 Z0 F1500
G1 X25.128 Y9.263 Z0 F1500
; --- FIX X Backlash ---
G1 X26.028 Y9.263 F500
G1 X26.104 Y8.837 Z0 F1500
G1 X26.228 Y8.427 Z0 F1500
G1 X26.396 Y8.031 Z0 F1500
G1 X26.616 Y7.640 Z0 F1500
G1 X26.873 Y7.278 Z0 F1500
G1 X27.181 Y6.925 Z0 F1500
G1 X27.530 Y6.595 Z0 F1500
G1 X27.913 Y6.297 Z0 F1500
G1 X28.340 Y6.023 Z0 F1500
G1 X28.795 Y5.786 Z0 F1500
G1 X29.288 Y5.583 Z0 F1500
G1 X29.809 Y5.419 Z0 F1500
G1 X30.345 Y5.302 Z0 F1500
G1 X30.916 Y5.226 Z0 F1500
G1 X31.500 Y5.201 Z0 F1500
G1 X32.084 Y5.226 Z0 F1500
; --- FIX Y Backlash ---
G1 X32.084 Y6.026 F500
G1 X32.655 Y6.102 Z0 F1500
G1 X33.191 Y6.219 Z0 F1500
G1 X33.712 Y6.383 Z0 F1500
G1 X34.205 Y6.586 Z0 F1500
G1 X34.660 Y6.823 Z0 F1500
G1 X35.087 Y7.097 Z0 F1500
G1 X35.470 Y7.395 Z0 F1500
G1 X35.819 Y7.725 Z0 F1500
G1 X36.127 Y8.078 Z0 F1500
G1 X36.384 Y8.440 Z0 F1500
G1 X36.604 Y8.831 Z0 F1500
G1 X36.772 Y9.227 Z0 F1500
G1 X36.896 Y9.637 Z0 F1500
G1 X36.972 Y10.063 Z0 F1500
G1 X36.997 Y10.500 Z0 F1500
G1 X36.972 Y10.937 Z0 F1500
; --- FIX X Backlash ---
G1 X36.072 Y10.937 F500
G1 X35.996 Y11.363 Z0 F1500
G0 Z4.800 F800
G0 X35.550 Y14.743 Z4.800 F1500
G1 Z0 F1500
G1 X35.053 Y15.130 Z0 F1500
G1 X34.514 Y15.475 Z0 F1500
G1 X33.936 Y15.776 Z0 F1500
G1 X33.325 Y16.028 Z0 F1500
G1 X32.682 Y16.230 Z0 F1500
G1 X32.011 Y16.378 Z0 F1500
G1 X31.316 Y16.469 Z0 F1500
G1 X30.600 Y16.500 Z0 F1500
G1 X29.884 Y16.469 Z0 F1500
; --- FIX Y Backlash ---
G1 X29.884 Y15.669 F500
G1 X29.189 Y15.578 Z0 F1500
G1 X28.518 Y15.430 Z0 F1500
G1 X27.875 Y15.228 Z0 F1500
G1 X27.264 Y14.976 Z0 F1500
G1 X26.686 Y14.675 Z0 F1500
G1 X26.147 Y14.330 Z0 F1500
G1 X25.650 Y13.943 Z0 F1500
G1 X25.199 Y13.516 Z0 F1500
G1 X24.795 Y13.054 Z0 F1500
G1 X24.445 Y12.560 Z0 F1500
G1 X24.150 Y12.035 Z0 F1500
G1 X23.915 Y11.484 Z0 F1500
G1 X23.742 Y10.909 Z0 F1500
G1 X23.636 Y10.313 Z0 F1500
G1 X23.600 Y9.700 Z0 F1500
G1 X23.636 Y9.087 Z0 F1500
; --- FIX X Backlash ---
G1 X24.536 Y9.087 F500
G1 X24.642 Y8.491 Z0 F1500
G1 X24.815 Y7.916 Z0 F1500
G1 X25.050 Y7.365 Z0 F1500
G1 X25.345 Y6.840 Z0 F1500
G1 X25.695 Y6.346 Z0 F1500
G1 X26.099 Y5.884 Z0 F1500
G1 X26.550 Y5.457 Z0 F1500
G1 X27.047 Y5.070 Z0 F1500
G1 X27.586 Y4.725 Z0 F1500
G1 X28.164 Y4.424 Z0 F1500
G1 X28.775 Y4.172 Z0 F1500
G1 X29.418 Y3.970 Z0 F1500
G1 X30.089 Y3.822 Z0 F1500
G1 X30.784 Y3.731 Z0 F1500
G1 X31.500 Y3.700 Z0 F1500
G1 X32.216 Y3.731 Z0 F1500
; --- FIX Y Backlash ---
G1 X32.216 Y4.531 F500
G1 X32.911 Y4.622 Z0 F1500
G1 X33.582 Y4.770 Z0 F1500
G1 X34.225 Y4.972 Z0 F1500
G1 X34.836 Y5.224 Z0 F1500
G1 X35.414 Y5.525 Z0 F1500
G1 X35.953 Y5.870 Z0 F1500
G1 X36.450 Y6.257 Z0 F1500
G1 X36.901 Y6.684 Z0 F1500
G1 X37.305 Y7.146 Z0 F1500
G1 X37.655 Y7.640 Z0 F1500
G1 X37.950 Y8.165 Z0 F1500
G1 X38.185 Y8.716 Z0 F1500
G1 X38.358 Y9.291 Z0 F1500
G1 X38.464 Y9.887 Z0 F1500
G1 X38.500 Y10.500 Z0 F1500
G1 X38.464 Y11.113 Z0 F1500
; --- FIX X Backlash ---
G1 X37.564 Y11.113 F500
G1 X37.458 Y11.709 Z0 F1500
G1 X37.285 Y12.284 Z0 F1500
G1 X37.050 Y12.835 Z0 F1500
G1 X36.755 Y13.360 Z0 F1500
G1 X36.405 Y13.854 Z0 F1500
G1 X36.001 Y14.316 Z0 F1500
G1 X35.550 Y14.743 Z0 F1500
;Cut @ 444 mm/min, 80% power
M8
G0 Z4.800 F800
; --- FIX X Backlash ---
G1 X36.450 Y14.743 F500
; --- FIX Y Backlash ---
G1 X36.450 Y13.943 F500
G0 X41.893 Y12.646 Z4.800 F1500
G1 Z0 F1500
;Layer C3
; --- FIX Y Backlash ---
G1 X41.893 Y13.446 F500
G1 X42.103 Y13.883 Z0 F1500
G1 X42.354 Y14.296 Z0 F1500
G1 X42.642 Y14.680 Z0 F1500
G1 X42.964 Y15.036 Z0 F1500
G1 X43.320 Y15.358 Z0 F1500
G1 X43.704 Y15.646 Z0 F1500
G1 X44.117 Y15.897 Z0 F1500
G1 X44.554 Y16.107 Z0 F1500
G1 X45.013 Y16.275 Z0 F1500
G1 X45.492 Y16.398 Z0 F1500
G1 X45.989 Y16.474 Z0 F1500
G1 X46.500 Y16.500 Z0 F1500
G1 X47.011 Y16.474 Z0 F1500
; --- FIX Y Backlash ---
G1 X47.011 Y15.674 F500
G1 X47.508 Y15.598 Z0 F1500
G1 X47.987 Y15.475 Z0 F1500
G1 X48.446 Y15.307 Z0 F1500
G1 X48.883 Y15.097 Z0 F1500
G1 X49.296 Y14.846 Z0 F1500
G1 X49.680 Y14.558 Z0 F1500
G1 X50.036 Y14.236 Z0 F1500
G1 X50.358 Y13.880 Z0 F1500
G1 X50.646 Y13.496 Z0 F1500
G1 X50.897 Y13.083 Z0 F1500
G1 X51.107 Y12.646 Z0 F1500
G1 X51.275 Y12.187 Z0 F1500
G1 X51.398 Y11.708 Z0 F1500
G1 X51.474 Y11.211 Z0 F1500
G1 X51.500 Y10.700 Z0 F1500
G1 X51.474 Y10.189 Z0 F1500
; --- FIX X Backlash ---
G1 X50.574 Y10.189 F500
G1 X50.498 Y9.692 Z0 F1500
G1 X50.375 Y9.213 Z0 F1500
G1 X50.207 Y8.754 Z0 F1500
G1 X49.997 Y8.317 Z0 F1500
G1 X49.746 Y7.904 Z0 F1500
G1 X49.458 Y7.520 Z0 F1500
G1 X49.136 Y7.164 Z0 F1500
G1 X48.780 Y6.842 Z0 F1500
G1 X48.396 Y6.554 Z0 F1500
G1 X47.983 Y6.303 Z0 F1500
G1 X47.546 Y6.093 Z0 F1500
G1 X47.087 Y5.925 Z0 F1500
G1 X46.608 Y5.802 Z0 F1500
G1 X46.111 Y5.726 Z0 F1500
G1 X45.600 Y5.700 Z0 F1500
G1 X45.089 Y5.726 Z0 F1500
; --- FIX Y Backlash ---
G1 X45.089 Y6.526 F500
G1 X44.592 Y6.602 Z0 F1500
G1 X44.113 Y6.725 Z0 F1500
G1 X43.654 Y6.893 Z0 F1500
G1 X43.217 Y7.103 Z0 F1500
G1 X42.804 Y7.354 Z0 F1500
G1 X42.420 Y7.642 Z0 F1500
G1 X42.064 Y7.964 Z0 F1500
G1 X41.742 Y8.320 Z0 F1500
G1 X41.454 Y8.704 Z0 F1500
G1 X41.203 Y9.117 Z0 F1500
G1 X40.993 Y9.554 Z0 F1500
G1 X40.825 Y10.013 Z0 F1500
G1 X40.702 Y10.492 Z0 F1500
G1 X40.626 Y10.989 Z0 F1500
G1 X40.600 Y11.500 Z0 F1500
G1 X40.626 Y12.011 Z0 F1500
; --- FIX X Backlash ---
G1 X41.526 Y12.011 F500
G1 X41.602 Y12.508 Z0 F1500
G1 X41.725 Y12.987 Z0 F1500
G1 X41.893 Y13.446 Z0 F1500
G0 Z4.800 F800
; --- FIX X Backlash ---
G1 X40.993 Y13.446 F500
; --- FIX Y Backlash ---
G1 X40.993 Y12.646 F500
G0 X17.458 Y11.111 Z4.800 F1500
G1 Z0 F1500
; --- FIX X Backlash ---
G1 X18.358 Y11.111 F500
G1 X18.464 Y10.416 Z0 F1500
G1 X18.500 Y9.700 Z0 F1500
G1 X18.464 Y8.984 Z0 F1500
; --- FIX X Backlash ---
G1 X17.564 Y8.984 F500
G1 X17.458 Y8.289 Z0 F1500
G1 X17.285 Y7.618 Z0 F1500
G1 X17.050 Y6.975 Z0 F1500
G1 X16.755 Y6.363 Z0 F1500
G1 X16.405 Y5.786 Z0 F1500
G1 X16.002 Y5.247 Z0 F1500
G1 X15.550 Y4.750 Z0 F1500
G1 X15.053 Y4.298 Z0 F1500
G1 X14.514 Y3.895 Z0 F1500
G1 X13.937 Y3.545 Z0 F1500
G1 X13.325 Y3.250 Z0 F1500
G1 X12.682 Y3.015 Z0 F1500
G1 X12.011 Y2.842 Z0 F1500
G1 X11.316 Y2.736 Z0 F1500
G1 X10.600 Y2.700 Z0 F1500
G1 X9.884 Y2.736 Z0 F1500
; --- FIX Y Backlash ---
G1 X9.884 Y3.536 F500
G1 X9.189 Y3.642 Z0 F1500
G1 X8.518 Y3.815 Z0 F1500
G1 X7.875 Y4.050 Z0 F1500
G1 X7.263 Y4.345 Z0 F1500
G1 X6.686 Y4.695 Z0 F1500
G1 X6.147 Y5.098 Z0 F1500
G1 X5.650 Y5.550 Z0 F1500
G1 X5.198 Y6.047 Z0 F1500
G1 X4.795 Y6.586 Z0 F1500
G1 X4.445 Y7.163 Z0 F1500
G1 X4.150 Y7.775 Z0 F1500
G1 X3.915 Y8.418 Z0 F1500
G1 X3.742 Y9.089 Z0 F1500
G1 X3.636 Y9.784 Z0 F1500
G1 X3.600 Y10.500 Z0 F1500
G1 X3.636 Y11.216 Z0 F1500
; --- FIX X Backlash ---
G1 X4.536 Y11.216 F500
G1 X4.642 Y11.911 Z0 F1500
G1 X4.815 Y12.582 Z0 F1500
G1 X5.050 Y13.225 Z0 F1500
G1 X5.345 Y13.837 Z0 F1500
G1 X5.695 Y14.414 Z0 F1500
G1 X6.098 Y14.953 Z0 F1500
G1 X6.550 Y15.450 Z0 F1500
G1 X7.047 Y15.902 Z0 F1500
G1 X7.586 Y16.305 Z0 F1500
G1 X8.163 Y16.655 Z0 F1500
G1 X8.775 Y16.950 Z0 F1500
G1 X9.418 Y17.185 Z0 F1500
G1 X10.089 Y17.358 Z0 F1500
G1 X10.784 Y17.464 Z0 F1500
G1 X11.500 Y17.500 Z0 F1500
G1 X12.216 Y17.464 Z0 F1500
; --- FIX Y Backlash ---
G1 X12.216 Y16.664 F500
G1 X12.911 Y16.558 Z0 F1500
G1 X13.582 Y16.385 Z0 F1500
G1 X14.225 Y16.150 Z0 F1500
G1 X14.837 Y15.855 Z0 F1500
G1 X15.414 Y15.505 Z0 F1500
G1 X15.953 Y15.102 Z0 F1500
G1 X16.450 Y14.650 Z0 F1500
G1 X16.902 Y14.153 Z0 F1500
G1 X17.305 Y13.614 Z0 F1500
G1 X17.655 Y13.037 Z0 F1500
G1 X17.950 Y12.425 Z0 F1500
G1 X18.185 Y11.782 Z0 F1500
G1 X18.358 Y11.111 Z0 F1500
;Scan @ 555 mm/min, 90% power
M8
G0 Z4.800 F800
; --- FIX Y Backlash ---
G1 X18.358 Y11.911 F500
G0 X20.941 Y21.219 Z4.800 F1500
G1 Z0 F1500
;Layer C1
G1 Z2.500 F800 ; Lift S=0
G1 X21.589 F1500
G1 Z0 F800 ; Drop S>0
G1 X35.411 F1500
G1 Z2.500 F800 ; Lift S=0
G1 X36.059 F1500
G1 X41.954 Y23.219 Z2.500 F1500
; --- FIX X Backlash ---
G1 X41.054 Y23.219 F500
G1 X40.407 Z2.500 F1500
G1 Z0 F800 ; Drop S>0
G1 X14.793 F1500
G1 Z2.500 F800 ; Lift S=0
G1 X14.146 F1500
G1 X10.912 Y25.219 Z2.500 F1500
; --- FIX X Backlash ---
G1 X11.812 Y25.219 F500
G1 X12.459 Z2.500 F1500
G1 Z0 F800 ; Drop S>0
G1 X44.541 F1500
G1 Z2.500 F800 ; Lift S=0
G1 X45.188 F1500
G1 X47.238 Y27.219 Z2.500 F1500
; --- FIX X Backlash ---
G1 X46.338 Y27.219 F500
G1 X45.690 Z2.500 F1500
G1 Z0 F800 ; Drop S>0
G1 X9.510 F1500
G1 Z2.500 F800 ; Lift S=0
G1 X8.862 F1500
G1 X7.617 Y29.219 Z2.500 F1500
; --- FIX X Backlash ---
G1 X8.517 Y29.219 F500
G1 X9.164 Z2.500 F1500
G1 Z0 F800 ; Drop S>0
G1 X47.836 F1500
G1 Z2.500 F800 ; Lift S=0
G1 X48.483 F1500
G1 X49.070 Y31.219 Z2.500 F1500
; --- FIX X Backlash ---
G1 X48.170 Y31.219 F500
G1 X47.522 Z2.500 F1500
G1 Z0 F800 ; Drop S>0
G1 X7.678 F1500
G1 Z2.500 F800 ; Lift S=0
G1 X7.030 F1500
G1 Y33.219 Z2.500 F1500
; --- FIX X Backlash ---
G1 X7.930 Y33.219 F500
G1 X8.578 Z2.500 F1500
G1 Z0 F800 ; Drop S>0
G1 X48.422 F1500
G1 Z2.500 F800 ; Lift S=0
G1 X49.070 F1500
; --- FIX X Backlash ---
G1 X48.170 Y33.219 F500
G1 X47.583 Y35.219 Z2.500 F1500
G1 X46.936 Z2.500 F1500
G1 Z0 F800 ; Drop S>0
G1 X8.264 F1500
G1 Z2.500 F800 ; Lift S=0
G1 X7.617 F1500
; --- FIX X Backlash ---
G1 X8.517 Y35.219 F500
G1 X9.762 Y37.219 Z2.500 F1500
G1 X10.410 Z2.500 F1500
G1 Z0 F800 ; Drop S>0
G1 X46.590 F1500
G1 Z2.500 F800 ; Lift S=0
G1 X47.238 F1500
; --- FIX X Backlash ---
G1 X46.338 Y37.219 F500
G1 X44.288 Y39.219 Z2.500 F1500
G1 X43.641 Z2.500 F1500
G1 Z0 F800 ; Drop S>0
G1 X11.559 F1500
G1 Z2.500 F800 ; Lift S=0
G1 X10.912 F1500
; --- FIX X Backlash ---
G1 X11.812 Y39.219 F500
G1 X15.046 Y41.219 Z2.500 F1500
G1 X15.693 Z2.500 F1500
G1 Z0 F800 ; Drop S>0
G1 X41.307 F1500
G1 Z2.500 F800 ; Lift S=0
G1 X41.954 F1500
; --- FIX X Backlash ---
G1 X41.054 Y41.219 F500
G1 X35.159 Y43.219 Z2.500 F1500
G1 X34.511 Z2.500 F1500
G1 Z0 F800 ; Drop S>0
G1 X20.689 F1500
G1 Z2.500 F800 ; Lift S=0
G1 X20.041 F1500
M9
M5
G1 Z10 F1000
G1 Z10 F800
; --- FIX X Backlash ---
G1 X20.941 Y43.219 F500
G1 X120 F1500