;LightBurn 1.6.04
;Custom GCode device profile, absolute coords
;Bounds: X88.81 Y33.76 to X141.19 Y48.24
G00 G17 G40 G21 G54
G90
M4
;Cut @ 1500 mm/min, 90% power

M8
G0 Z3.5 F1000
G0 X88.809 Y33.762 Z3.5 
G1 Z0 F1000
;Layer C00
G1 X89.203 Y34.42 Z0 S900 F1000
G1 X89.668 Y35.073 Z0 F1000
G1 X90.18 Y35.725 Z0 F1000
G1 X90.714 Y36.376 Z0 F1000
G1 X91.245 Y37.031 Z0 F1000
G1 X91.748 Y37.691 Z0 F1000
G1 X92.198 Y38.359 Z0 F1000
G1 X92.569 Y39.038 Z0 F1000
G1 X93.416 Y40.17 Z0 F1000
G1 X94.265 Y41.375 Z0 F1000
G1 X94.716 Y41.961 Z0 F1000
G1 X95.197 Y42.512 Z0 F1000
G1 X95.72 Y43.011 Z0 F1000
G1 X96.293 Y43.439 Z0 F1000
G1 X96.757 Y44.016 Z0 F1000
G1 X97.241 Y44.525 Z0 F1000
G1 X97.474 Y44.739 Z0 F1000
G1 X97.693 Y44.917 Z0 F1000
G1 X97.889 Y45.053 Z0 F1000
G1 X98.058 Y45.141 Z0 F1000
G1 X98.192 Y45.174 Z0 F1000
G1 X98.285 Y45.146 Z0 F1000
G1 X98.329 Y45.051 Z0 F1000
G1 X98.318 Y44.883 Z0 F1000
G1 X98.29 Y44.769 Z0 F1000
G1 X98.246 Y44.635 Z0 F1000
G1 X98.185 Y44.479 Z0 F1000
G1 X98.106 Y44.301 Z0 F1000
G1 X98.009 Y44.099 Z0 F1000
G1 X97.892 Y43.874 Z0 F1000
G1 X97.754 Y43.624 Z0 F1000
G1 X97.595 Y43.349 Z0 F1000
G1 X97.184 Y42.642 Z0 F1000
G1 X96.79 Y42.03 Z0 F1000
G1 X96.413 Y41.487 Z0 F1000
G1 X95.707 Y40.514 Z0 F1000
G1 X95.377 Y40.035 Z0 F1000
G1 X95.06 Y39.529 Z0 F1000
G1 X94.756 Y38.972 Z0 F1000
G1 X94.473 Y38.675 Z0 F1000
G1 X94.258 Y38.404 Z0 F1000
G1 X94.107 Y38.159 Z0 F1000
G1 X94.017 Y37.943 Z0 F1000
G1 X93.986 Y37.757 Z0 F1000
G1 X94.009 Y37.603 Z0 F1000
G1 X94.083 Y37.482 Z0 F1000
G1 X94.206 Y37.396 Z0 F1000
G1 X94.375 Y37.347 Z0 F1000
G1 X94.585 Y37.336 Z0 F1000
G1 X94.835 Y37.365 Z0 F1000
G1 X95.121 Y37.435 Z0 F1000
G1 X95.44 Y37.548 Z0 F1000
G1 X95.788 Y37.705 Z0 F1000
G1 X96.162 Y37.909 Z0 F1000
G1 X96.561 Y38.161 Z0 F1000
G1 X97.149 Y38.805 Z0 F1000
G1 X97.783 Y39.531 Z0 F1000
G1 X97.914 Y39.66 Z0 F1000
G1 X98.024 Y39.751 Z0 F1000
G1 X98.109 Y39.795 Z0 F1000
G1 X98.164 Y39.784 Z0 F1000
G1 X98.185 Y39.709 Z0 F1000
G1 X98.166 Y39.56 Z0 F1000
G1 X98.141 Y39.456 Z0 F1000
G1 X98.104 Y39.33 Z0 F1000
G1 X98.055 Y39.182 Z0 F1000
G1 X97.993 Y39.01 Z0 F1000
G1 X97.883 Y38.815 Z0 F1000
G1 X97.79 Y38.576 Z0 F1000
G1 X97.714 Y38.304 Z0 F1000
G1 X97.657 Y38.01 Z0 F1000
G1 X97.602 Y37.402 Z0 F1000
G1 X97.635 Y36.841 Z0 F1000
G1 X97.687 Y36.607 Z0 F1000
G1 X97.763 Y36.418 Z0 F1000
G1 X97.866 Y36.285 Z0 F1000
G1 X97.996 Y36.221 Z0 F1000
G1 X98.155 Y36.236 Z0 F1000
G1 X98.343 Y36.341 Z0 F1000
G1 X98.448 Y36.431 Z0 F1000
G1 X98.561 Y36.548 Z0 F1000
G1 X98.682 Y36.693 Z0 F1000
G1 X98.811 Y36.868 Z0 F1000
G1 X99.432 Y37.987 Z0 F1000
G0 Z3.5 F1000
G0 X101.708 Y35.883 Z3.5 F1500
G1 Z0 F1000
G1 X101.488 Y35.649 Z0 F1000
G1 X101.301 Y35.44 Z0 F1000
G1 X101.143 Y35.255 Z0 F1000
G1 X101.015 Y35.093 Z0 F1000
G1 X100.916 Y34.954 Z0 F1000
G1 X100.842 Y34.836 Z0 F1000
G1 X100.794 Y34.739 Z0 F1000
G1 X100.771 Y34.662 Z0 F1000
G1 Y34.604 Z0 F1000
G1 X100.79 Y34.565 Z0 F1000
G1 X100.83 Y34.543 Z0 F1000
G1 X100.889 Y34.537 Z0 F1000
G1 X101.057 Y34.572 Z0 F1000
G1 X101.285 Y34.664 Z0 F1000
G1 X101.561 Y34.805 Z0 F1000
G1 X101.874 Y34.99 Z0 F1000
G1 X102.215 Y35.211 Z0 F1000
G1 X102.572 Y35.461 Z0 F1000
G1 X103.293 Y36.025 Z0 F1000
G1 X103.953 Y36.628 Z0 F1000
G1 X104.793 Y37.432 Z0 F1000
G1 X105.173 Y37.804 Z0 F1000
G1 X105.535 Y38.176 Z0 F1000
G1 X105.885 Y38.565 Z0 F1000
G1 X106.23 Y38.987 Z0 F1000
G1 X106.575 Y39.456 Z0 F1000
G1 X106.926 Y39.99 Z0 F1000
G1 X107.305 Y40.376 Z0 F1000
G1 X107.673 Y40.787 Z0 F1000
G1 X108.042 Y41.231 Z0 F1000
G1 X108.425 Y41.715 Z0 F1000
G1 X109.293 Y42.838 Z0 F1000
G1 X109.803 Y43.494 Z0 F1000
G1 X110.083 Y43.849 Z0 F1000
G1 X110.382 Y44.224 Z0 F1000
G1 X110.61 Y44.453 Z0 F1000
G1 X110.882 Y44.693 Z0 F1000
G1 X111.193 Y44.943 Z0 F1000
G1 X111.536 Y45.201 Z0 F1000
G1 X112.295 Y45.733 Z0 F1000
G1 X113.109 Y46.274 Z0 F1000
G1 X113.929 Y46.809 Z0 F1000
G1 X114.704 Y47.325 Z0 F1000
G1 X115.06 Y47.57 Z0 F1000
G1 X115.386 Y47.806 Z0 F1000
G1 X115.676 Y48.029 Z0 F1000
G1 X115.924 Y48.238 Z0 F1000
G1 X115.908 Y47.969 Z0 F1000
G1 X115.82 Y47.679 Z0 F1000
G1 X115.669 Y47.37 Z0 F1000
G1 X115.464 Y47.045 Z0 F1000
G1 X115.215 Y46.709 Z0 F1000
G1 X114.929 Y46.363 Z0 F1000
G1 X114.618 Y46.011 Z0 F1000
G1 X114.289 Y45.656 Z0 F1000
G1 X113.616 Y44.951 Z0 F1000
G1 X112.983 Y44.273 Z0 F1000
G1 X112.705 Y43.952 Z0 F1000
G1 X112.464 Y43.646 Z0 F1000
G1 X112.269 Y43.36 Z0 F1000
G1 X112.13 Y43.097 Z0 F1000
G1 X111.618 Y42.378 Z0 F1000
G1 X111.064 Y41.716 Z0 F1000
G1 X109.937 Y40.473 Z0 F1000
G1 X109.418 Y39.844 Z0 F1000
G1 X108.964 Y39.181 Z0 F1000
G1 X108.77 Y38.828 Z0 F1000
G1 X108.602 Y38.458 Z0 F1000
G1 X108.464 Y38.067 Z0 F1000
G1 X108.359 Y37.653 Z0 F1000
G1 X108.56 Y37.419 Z0 F1000
G1 X108.782 Y37.246 Z0 F1000
G1 X109.022 Y37.129 Z0 F1000
G1 X109.278 Y37.062 Z0 F1000
G1 X109.548 Y37.041 Z0 F1000
G1 X109.829 Y37.06 Z0 F1000
G1 X110.118 Y37.113 Z0 F1000
G1 X110.414 Y37.195 Z0 F1000
G1 X111.014 Y37.426 Z0 F1000
G1 X111.61 Y37.709 Z0 F1000
G1 X112.181 Y38.002 Z0 F1000
G1 X112.866 Y38.339 Z0 F1000
G1 X113.044 Y38.446 Z0 F1000
G1 X113.237 Y38.579 Z0 F1000
G1 X113.44 Y38.732 Z0 F1000
G1 X113.858 Y39.076 Z0 F1000
G1 X114.262 Y39.436 Z0 F1000
G1 X114.447 Y39.608 Z0 F1000
G1 X114.614 Y39.768 Z0 F1000
G1 X114.76 Y39.91 Z0 F1000
G1 X114.879 Y40.03 Z0 F1000
G1 X114.967 Y40.121 Z0 F1000
G1 X115.019 Y40.179 Z0 F1000
G1 X115.03 Y40.197 Z0 F1000
G1 X114.996 Y40.172 Z0 F1000
G1 X114.887 Y39.846 Z0 F1000
G1 X114.805 Y39.555 Z0 F1000
G1 X114.749 Y39.297 Z0 F1000
G1 X114.717 Y39.071 Z0 F1000
G1 X114.709 Y38.876 Z0 F1000
G1 X114.722 Y38.71 Z0 F1000
G1 X114.755 Y38.571 Z0 F1000
G1 X114.808 Y38.459 Z0 F1000
G1 X114.879 Y38.371 Z0 F1000
G1 X114.966 Y38.307 Z0 F1000
G1 X115.069 Y38.265 Z0 F1000
G1 X115.186 Y38.243 Z0 F1000
G1 X115.457 Y38.254 Z0 F1000
G1 X115.768 Y38.331 Z0 F1000
G1 X116.11 Y38.46 Z0 F1000
G1 X116.472 Y38.631 Z0 F1000
G1 X116.843 Y38.832 Z0 F1000
G1 X117.213 Y39.051 Z0 F1000
G1 X117.573 Y39.278 Z0 F1000
G1 X117.911 Y39.5 Z0 F1000
G1 X118.48 Y39.885 Z0 F1000
G1 X118.574 Y39.861 Z0 F1000
G1 X118.639 Y39.824 Z0 F1000
G1 X118.677 Y39.776 Z0 F1000
G1 X118.689 Y39.717 Z0 F1000
G1 X118.649 Y39.572 Z0 F1000
G1 X118.535 Y39.394 Z0 F1000
G1 X118.364 Y39.191 Z0 F1000
G1 X118.153 Y38.969 Z0 F1000
G1 X117.676 Y38.496 Z0 F1000
G1 X117.444 Y38.257 Z0 F1000
G1 X117.238 Y38.027 Z0 F1000
G1 X117.077 Y37.81 Z0 F1000
G1 X116.975 Y37.616 Z0 F1000
G1 X116.953 Y37.528 Z0 F1000
G1 Y37.448 Z0 F1000
G1 X116.973 Y37.377 Z0 F1000
G1 X117.021 Y37.316 Z0 F1000
G1 X117.096 Y37.265 Z0 F1000
G1 X117.201 Y37.225 Z0 F1000
G1 X117.338 Y37.196 Z0 F1000
G1 X117.509 Y37.181 Z0 F1000
G1 X117.69 Y37.198 Z0 F1000
G1 X117.855 Y37.21 Z0 F1000
G1 X117.996 Y37.204 Z0 F1000
G1 X118.102 Y37.168 Z0 F1000
G1 X118.163 Y37.09 Z0 F1000
G1 X118.17 Y36.956 Z0 F1000
G1 X118.15 Y36.864 Z0 F1000
G1 X118.113 Y36.754 Z0 F1000
G1 X118.057 Y36.624 Z0 F1000
G1 X117.981 Y36.473 Z0 F1000
G1 X117.695 Y36.11 Z0 F1000
G1 X117.427 Y35.672 Z0 F1000
G1 X117.314 Y35.448 Z0 F1000
G1 X117.221 Y35.232 Z0 F1000
G1 X117.155 Y35.032 Z0 F1000
G1 X117.12 Y34.858 Z0 F1000
G1 Y34.718 Z0 F1000
G1 X117.166 Y34.622 Z0 F1000
G1 X117.259 Y34.577 Z0 F1000
G1 X117.404 Y34.593 Z0 F1000
G1 X117.499 Y34.627 Z0 F1000
G1 X117.608 Y34.679 Z0 F1000
G1 X117.734 Y34.751 Z0 F1000
G1 X117.877 Y34.843 Z0 F1000
G1 X118.036 Y34.957 Z0 F1000
G1 X118.214 Y35.095 Z0 F1000
G1 X118.411 Y35.256 Z0 F1000
G1 X118.627 Y35.442 Z0 F1000
G1 X118.926 Y35.621 Z0 F1000
G1 X119.193 Y35.806 Z0 F1000
G1 X119.435 Y35.996 Z0 F1000
G1 X119.657 Y36.193 Z0 F1000
G1 X120.063 Y36.606 Z0 F1000
G1 X120.87 Y37.521 Z0 F1000
G1 X121.36 Y38.027 Z0 F1000
G1 X121.645 Y38.293 Z0 F1000
G1 X121.964 Y38.568 Z0 F1000
G1 X122.323 Y38.853 Z0 F1000
G1 X122.727 Y39.148 Z0 F1000
G1 X123.713 Y40.32 Z0 F1000
G1 X124.685 Y41.413 Z0 F1000
G1 X125.636 Y42.417 Z0 F1000
G1 X126.563 Y43.326 Z0 F1000
G1 X127.015 Y43.743 Z0 F1000
G1 X127.459 Y44.133 Z0 F1000
G1 X127.893 Y44.495 Z0 F1000
G1 X128.318 Y44.829 Z0 F1000
G1 X128.733 Y45.134 Z0 F1000
G1 X129.137 Y45.408 Z0 F1000
G1 X129.529 Y45.651 Z0 F1000
G1 X129.908 Y45.863 Z0 F1000
G1 X130.395 Y46.157 Z0 F1000
G1 X130.847 Y46.376 Z0 F1000
G1 X131.264 Y46.536 Z0 F1000
G1 X131.646 Y46.652 Z0 F1000
G1 X131.991 Y46.74 Z0 F1000
G1 X132.299 Y46.813 Z0 F1000
G1 X132.57 Y46.889 Z0 F1000
G1 X132.803 Y46.981 Z0 F1000
G1 X132.979 Y47.02 Z0 F1000
G1 X133.111 Y46.977 Z0 F1000
G1 X133.204 Y46.862 Z0 F1000
G1 X133.261 Y46.684 Z0 F1000
G1 X133.285 Y46.453 Z0 F1000
G1 X133.28 Y46.179 Z0 F1000
G1 X133.249 Y45.87 Z0 F1000
G1 X133.196 Y45.537 Z0 F1000
G1 X133.038 Y44.835 Z0 F1000
G1 X132.833 Y44.149 Z0 F1000
G1 X132.722 Y43.835 Z0 F1000
G1 X132.61 Y43.554 Z0 F1000
G1 X132.499 Y43.315 Z0 F1000
G1 X132.395 Y43.127 Z0 F1000
G1 X131.698 Y41.924 Z0 F1000
G1 X131.049 Y40.696 Z0 F1000
G1 X130.762 Y40.069 Z0 F1000
G1 X130.51 Y39.434 Z0 F1000
G1 X130.301 Y38.787 Z0 F1000
G1 X130.143 Y38.129 Z0 F1000
G1 X130.191 Y38.022 Z0 F1000
G1 X130.255 Y37.943 Z0 F1000
G1 X130.336 Y37.892 Z0 F1000
G1 X130.432 Y37.865 Z0 F1000
G1 X130.665 Y37.88 Z0 F1000
G1 X130.946 Y37.977 Z0 F1000
G1 X131.269 Y38.142 Z0 F1000
G1 X131.625 Y38.364 Z0 F1000
G1 X132.007 Y38.628 Z0 F1000
G1 X132.407 Y38.923 Z0 F1000
G1 X133.229 Y39.554 Z0 F1000
G1 X134.03 Y40.153 Z0 F1000
G1 X134.403 Y40.41 Z0 F1000
G1 X134.747 Y40.62 Z0 F1000
G1 X135.056 Y40.772 Z0 F1000
G1 X135.32 Y40.852 Z0 F1000
G1 X135.405 Y41.146 Z0 F1000
G1 X135.558 Y41.461 Z0 F1000
G1 X135.747 Y41.754 Z0 F1000
G1 X135.94 Y41.984 Z0 F1000
G1 X136.028 Y42.061 Z0 F1000
G1 X136.105 Y42.108 Z0 F1000
G1 X136.166 Y42.117 Z0 F1000
G1 X136.208 Y42.085 Z0 F1000
G1 X136.227 Y42.005 Z0 F1000
G1 X136.218 Y41.873 Z0 F1000
G1 X136.177 Y41.683 Z0 F1000
G1 X136.101 Y41.43 Z0 F1000
G1 X135.823 Y40.937 Z0 F1000
G1 X135.473 Y40.473 Z0 F1000
G1 X135.108 Y40.031 Z0 F1000
G1 X134.784 Y39.605 Z0 F1000
G1 X134.655 Y39.397 Z0 F1000
G1 X134.557 Y39.191 Z0 F1000
G1 X134.498 Y38.986 Z0 F1000
G1 X134.484 Y38.782 Z0 F1000
G1 X134.522 Y38.578 Z0 F1000
G1 X134.619 Y38.372 Z0 F1000
G1 X134.783 Y38.166 Z0 F1000
G1 X135.02 Y37.957 Z0 F1000
G1 X135.241 Y37.673 Z0 F1000
G1 X135.441 Y37.377 Z0 F1000
G0 Z3.5 F1000
G0 X141.191 Y44.531 Z3.5 
G1 Z0 F1000
G1 X140.419 Y44.499 Z0 F1000
G1 X139.723 Y44.476 Z0 F1000
G1 X139.087 Y44.458 Z0 F1000
G1 X137.359 Y44.419 Z0 F1000
G1 X136.18 Y44.383 Z0 F1000
G1 X135.529 Y44.356 Z0 F1000
G1 X134.815 Y44.32 Z0 F1000
G1 X134.019 Y44.273 Z0 F1000
G1 X133.124 Y44.212 Z0 F1000
G1 X132.112 Y44.136 Z0 F1000
G1 X130.965 Y44.043 Z0 F1000
G1 X129.667 Y43.93 Z0 F1000
G1 X128.199 Y43.796 Z0 F1000
G1 X126.296 Y43.782 Z0 F1000
G1 X124.356 Y43.694 Z0 F1000
G1 X122.416 Y43.557 Z0 F1000
G1 X120.514 Y43.401 Z0 F1000
G1 X120.346 Y43.271 Z0 F1000
G1 X120.234 Y43.161 Z0 F1000
G1 X120.173 Y43.071 Z0 F1000
G1 X120.157 Y42.999 Z0 F1000
G1 X120.181 Y42.941 Z0 F1000
G1 X120.238 Y42.896 Z0 F1000
G1 X120.323 Y42.862 Z0 F1000
G1 X120.431 Y42.836 Z0 F1000
G1 X120.975 Y42.778 Z0 F1000
G1 X121.426 Y42.69 Z0 F1000
M9

G90
G1 Z10 F800
