G90 ; Force absolute mode
;LightBurn 1.6.04
;Custom GCode device profile, absolute coords
;Bounds: X4.5 Y3.5 to X51.5 Y42.72
G00 G17 G40 G21 G54
M3
G1 Z10 F1000
;Cut @ 444 mm/min, 80% power
M8
G0 Z4.800 F800
G0 X7.586 Y4.695 Z4.800 F1500
G1 Z0 F1500
;Layer C3
; --- FIX X Backlash ---
G1 X6.586 Y4.695 F500
G1 X6.047 Y5.098 Z0 F1500
G1 X5.550 Y5.550 Z0 F1500
G1 X5.098 Y6.047 Z0 F1500
G1 X4.695 Y6.586 Z0 F1500
G1 X4.345 Y7.163 Z0 F1500
G1 X4.050 Y7.775 Z0 F1500
G1 X3.815 Y8.418 Z0 F1500
G1 X3.642 Y9.089 Z0 F1500
G1 X3.536 Y9.784 Z0 F1500
G1 X3.500 Y10.500 Z0 F1500
G1 X3.536 Y11.216 Z0 F1500
; --- FIX X Backlash ---
G1 X4.536 Y11.216 F500
G1 X4.642 Y11.911 Z0 F1500
G1 X4.815 Y12.582 Z0 F1500
G1 X5.050 Y13.225 Z0 F1500
G1 X5.345 Y13.837 Z0 F1500
G1 X5.695 Y14.414 Z0 F1500
G1 X6.098 Y14.953 Z0 F1500
G1 X6.550 Y15.450 Z0 F1500
G1 X7.047 Y15.902 Z0 F1500
G1 X7.586 Y16.305 Z0 F1500
G1 X8.163 Y16.655 Z0 F1500
G1 X8.775 Y16.950 Z0 F1500
G1 X9.418 Y17.185 Z0 F1500
G1 X10.089 Y17.358 Z0 F1500
G1 X10.784 Y17.464 Z0 F1500
G1 X11.500 Y17.500 Z0 F1500
G1 X12.216 Y17.464 Z0 F1500
; --- FIX Y Backlash ---
G1 X12.216 Y14.464 F500
G1 X12.911 Y14.358 Z0 F1500
G1 X13.582 Y14.185 Z0 F1500
G1 X14.225 Y13.950 Z0 F1500
G1 X14.837 Y13.655 Z0 F1500
G1 X15.414 Y13.305 Z0 F1500
G1 X15.953 Y12.902 Z0 F1500
G1 X16.450 Y12.450 Z0 F1500
G1 X16.902 Y11.953 Z0 F1500
G1 X17.305 Y11.414 Z0 F1500
G1 X17.655 Y10.837 Z0 F1500
G1 X17.950 Y10.225 Z0 F1500
G1 X18.185 Y9.582 Z0 F1500
G1 X18.358 Y8.911 Z0 F1500
G1 X18.464 Y8.216 Z0 F1500
G1 X18.500 Y7.500 Z0 F1500
G1 X18.464 Y6.784 Z0 F1500
; --- FIX X Backlash ---
G1 X17.464 Y6.784 F500
G1 X17.358 Y6.089 Z0 F1500
G1 X17.185 Y5.418 Z0 F1500
G1 X16.950 Y4.775 Z0 F1500
G1 X16.655 Y4.163 Z0 F1500
G1 X16.305 Y3.586 Z0 F1500
G1 X15.902 Y3.047 Z0 F1500
G1 X15.450 Y2.550 Z0 F1500
G1 X14.953 Y2.098 Z0 F1500
G1 X14.414 Y1.695 Z0 F1500
G1 X13.837 Y1.345 Z0 F1500
G1 X13.225 Y1.050 Z0 F1500
G1 X12.582 Y0.815 Z0 F1500
G1 X11.911 Y0.642 Z0 F1500
G1 X11.216 Y0.536 Z0 F1500
G1 X10.500 Y0.500 Z0 F1500
G1 X9.784 Y0.536 Z0 F1500
; --- FIX Y Backlash ---
G1 X9.784 Y3.536 F500
G1 X9.089 Y3.642 Z0 F1500
G1 X8.418 Y3.815 Z0 F1500
G1 X7.775 Y4.050 Z0 F1500
G1 X7.163 Y4.345 Z0 F1500
G1 X6.586 Y4.695 Z0 F1500
G0 Z4.800 F800
; --- FIX X Backlash ---
G1 X7.586 Y4.695 F500
G0 X25.050 Y8.165 Z4.800 F1500
G1 Z0 F1500
; --- FIX X Backlash ---
G1 X24.050 Y8.165 F500
G1 X23.815 Y8.716 Z0 F1500
G1 X23.642 Y9.291 Z0 F1500
G1 X23.536 Y9.887 Z0 F1500
G1 X23.500 Y10.500 Z0 F1500
G1 X23.536 Y11.113 Z0 F1500
; --- FIX X Backlash ---
G1 X24.536 Y11.113 F500
G1 X24.642 Y11.709 Z0 F1500
G1 X24.815 Y12.284 Z0 F1500
G1 X25.050 Y12.835 Z0 F1500
G1 X25.345 Y13.360 Z0 F1500
G1 X25.695 Y13.855 Z0 F1500
G1 X26.098 Y14.317 Z0 F1500
G1 X26.550 Y14.743 Z0 F1500
G1 X27.047 Y15.130 Z0 F1500
G1 X27.586 Y15.475 Z0 F1500
G1 X28.163 Y15.776 Z0 F1500
G1 X28.775 Y16.028 Z0 F1500
G1 X29.418 Y16.230 Z0 F1500
G1 X30.089 Y16.378 Z0 F1500
G1 X30.784 Y16.469 Z0 F1500
G1 X31.500 Y16.500 Z0 F1500
G1 X32.216 Y16.469 Z0 F1500
; --- FIX Y Backlash ---
G1 X32.216 Y13.469 F500
G1 X32.911 Y13.378 Z0 F1500
G1 X33.582 Y13.230 Z0 F1500
G1 X34.225 Y13.028 Z0 F1500
G1 X34.837 Y12.776 Z0 F1500
G1 X35.414 Y12.475 Z0 F1500
G1 X35.953 Y12.130 Z0 F1500
G1 X36.450 Y11.743 Z0 F1500
G1 X36.902 Y11.317 Z0 F1500
G1 X37.305 Y10.855 Z0 F1500
G1 X37.655 Y10.360 Z0 F1500
G1 X37.950 Y9.835 Z0 F1500
G1 X38.185 Y9.284 Z0 F1500
G1 X38.358 Y8.709 Z0 F1500
G1 X38.464 Y8.113 Z0 F1500
G1 X38.500 Y7.500 Z0 F1500
G1 X38.464 Y6.887 Z0 F1500
; --- FIX X Backlash ---
G1 X37.464 Y6.887 F500
G1 X37.358 Y6.291 Z0 F1500
G1 X37.185 Y5.716 Z0 F1500
G1 X36.950 Y5.165 Z0 F1500
G1 X36.655 Y4.640 Z0 F1500
G1 X36.305 Y4.145 Z0 F1500
G1 X35.902 Y3.683 Z0 F1500
G1 X35.450 Y3.257 Z0 F1500
G1 X34.953 Y2.870 Z0 F1500
G1 X34.414 Y2.525 Z0 F1500
G1 X33.837 Y2.224 Z0 F1500
G1 X33.225 Y1.972 Z0 F1500
G1 X32.582 Y1.770 Z0 F1500
G1 X31.911 Y1.622 Z0 F1500
G1 X31.216 Y1.531 Z0 F1500
G1 X30.500 Y1.500 Z0 F1500
G1 X29.784 Y1.531 Z0 F1500
; --- FIX Y Backlash ---
G1 X29.784 Y4.531 F500
G1 X29.089 Y4.622 Z0 F1500
G1 X28.418 Y4.770 Z0 F1500
G1 X27.775 Y4.972 Z0 F1500
G1 X27.163 Y5.224 Z0 F1500
G1 X26.586 Y5.525 Z0 F1500
G1 X26.047 Y5.870 Z0 F1500
G1 X25.550 Y6.257 Z0 F1500
G1 X25.098 Y6.683 Z0 F1500
G1 X24.695 Y7.145 Z0 F1500
G1 X24.345 Y7.640 Z0 F1500
G1 X24.050 Y8.165 Z0 F1500
G0 Z4.800 F800
; --- FIX X Backlash ---
G1 X25.050 Y8.165 F500
G0 X41.725 Y10.013 Z4.800 F1500
G1 Z0 F1500
; --- FIX X Backlash ---
G1 X40.725 Y10.013 F500
G1 X40.602 Y10.492 Z0 F1500
G1 X40.526 Y10.989 Z0 F1500
G1 X40.500 Y11.500 Z0 F1500
G1 X40.526 Y12.011 Z0 F1500
; --- FIX X Backlash ---
G1 X41.526 Y12.011 F500
G1 X41.602 Y12.508 Z0 F1500
G1 X41.725 Y12.987 Z0 F1500
G1 X41.893 Y13.446 Z0 F1500
G1 X42.103 Y13.883 Z0 F1500
G1 X42.354 Y14.296 Z0 F1500
G1 X42.642 Y14.680 Z0 F1500
G1 X42.964 Y15.036 Z0 F1500
G1 X43.320 Y15.358 Z0 F1500
G1 X43.704 Y15.646 Z0 F1500
G1 X44.117 Y15.897 Z0 F1500
G1 X44.554 Y16.107 Z0 F1500
G1 X45.013 Y16.275 Z0 F1500
G1 X45.492 Y16.398 Z0 F1500
G1 X45.989 Y16.474 Z0 F1500
G1 X46.500 Y16.500 Z0 F1500
G1 X47.011 Y16.474 Z0 F1500
; --- FIX Y Backlash ---
G1 X47.011 Y13.474 F500
G1 X47.508 Y13.398 Z0 F1500
G1 X47.987 Y13.275 Z0 F1500
G1 X48.446 Y13.107 Z0 F1500
G1 X48.883 Y12.897 Z0 F1500
G1 X49.296 Y12.646 Z0 F1500
G1 X49.680 Y12.358 Z0 F1500
G1 X50.036 Y12.036 Z0 F1500
G1 X50.358 Y11.680 Z0 F1500
G1 X50.646 Y11.296 Z0 F1500
G1 X50.897 Y10.883 Z0 F1500
G1 X51.107 Y10.446 Z0 F1500
G1 X51.275 Y9.987 Z0 F1500
G1 X51.398 Y9.508 Z0 F1500
G1 X51.474 Y9.011 Z0 F1500
G1 X51.500 Y8.500 Z0 F1500
G1 X51.474 Y7.989 Z0 F1500
; --- FIX X Backlash ---
G1 X50.474 Y7.989 F500
G1 X50.398 Y7.492 Z0 F1500
G1 X50.275 Y7.013 Z0 F1500
G1 X50.107 Y6.554 Z0 F1500
G1 X49.897 Y6.117 Z0 F1500
G1 X49.646 Y5.704 Z0 F1500
G1 X49.358 Y5.320 Z0 F1500
G1 X49.036 Y4.964 Z0 F1500
G1 X48.680 Y4.642 Z0 F1500
G1 X48.296 Y4.354 Z0 F1500
G1 X47.883 Y4.103 Z0 F1500
G1 X47.446 Y3.893 Z0 F1500
G1 X46.987 Y3.725 Z0 F1500
G1 X46.508 Y3.602 Z0 F1500
G1 X46.011 Y3.526 Z0 F1500
G1 X45.500 Y3.500 Z0 F1500
G1 X44.989 Y3.526 Z0 F1500
; --- FIX Y Backlash ---
G1 X44.989 Y6.526 F500
G1 X44.492 Y6.602 Z0 F1500
G1 X44.013 Y6.725 Z0 F1500
G1 X43.554 Y6.893 Z0 F1500
G1 X43.117 Y7.103 Z0 F1500
G1 X42.704 Y7.354 Z0 F1500
G1 X42.320 Y7.642 Z0 F1500
G1 X41.964 Y7.964 Z0 F1500
G1 X41.642 Y8.320 Z0 F1500
G1 X41.354 Y8.704 Z0 F1500
G1 X41.103 Y9.117 Z0 F1500
G1 X40.893 Y9.554 Z0 F1500
G1 X40.725 Y10.013 Z0 F1500
;Scan @ 555 mm/min, 90% power
M8
G0 Z4.800 F800
G0 X17.970 Y21.719 Z4.800 F1500
G1 Z0 F1500
;Layer C1
G1 Z5 F800 ; Lift S=0
; --- FIX X Backlash ---
G1 X18.970 Y21.719 F500
G1 X19.618 F1500
G1 Z0 F800 ; Drop S>0
G1 X37.382 F1500
G1 Z5 F800 ; Lift S=0
G1 X38.030 F1500
G1 X44.513 Y24.719 Z5 F1500
; --- FIX X Backlash ---
G1 X43.513 Y24.719 F500
G1 X42.866 Z5 F1500
G1 Z0 F800 ; Drop S>0
G1 X12.134 F1500
G1 Z5 F800 ; Lift S=0
G1 X11.487 F1500
G1 X8.383 Y27.719 Z5 F1500
; --- FIX X Backlash ---
G1 X9.383 Y27.719 F500
G1 X10.030 Z5 F1500
G1 Z0 F800 ; Drop S>0
G1 X46.970 F1500
G1 Z5 F800 ; Lift S=0
G1 X47.617 F1500
G1 X48.979 Y30.719 Z5 F1500
; --- FIX X Backlash ---
G1 X47.979 Y30.719 F500
G1 X47.331 Z5 F1500
G1 Z0 F800 ; Drop S>0
G1 X7.669 F1500
G1 Z5 F800 ; Lift S=0
G1 X7.021 F1500
G1 Y33.719 Z5 F1500
; --- FIX X Backlash ---
G1 X8.021 Y33.719 F500
G1 X8.669 Z5 F1500
G1 Z0 F800 ; Drop S>0
G1 X48.331 F1500
G1 Z5 F800 ; Lift S=0
G1 X48.979 F1500
; --- FIX X Backlash ---
G1 X47.979 Y33.719 F500
G1 X46.617 Y36.719 Z5 F1500
G1 X45.970 Z5 F1500
G1 Z0 F800 ; Drop S>0
G1 X9.030 F1500
G1 Z5 F800 ; Lift S=0
G1 X8.383 F1500
; --- FIX X Backlash ---
G1 X9.383 Y36.719 F500
G1 X12.487 Y39.719 Z5 F1500
G1 X13.134 Z5 F1500
G1 Z0 F800 ; Drop S>0
G1 X43.866 F1500
G1 Z5 F800 ; Lift S=0
G1 X44.513 F1500
; --- FIX X Backlash ---
G1 X43.513 Y39.719 F500
G1 X37.030 Y42.719 Z5 F1500
G1 X36.382 Z5 F1500
G1 Z0 F800 ; Drop S>0
G1 X18.618 F1500
G1 Z5 F800 ; Lift S=0
G1 X17.970 F1500
M9
M5
G1 Z10 F1000
G1 Z10 F800
; --- FIX X Backlash ---
G1 X18.970 Y42.719 F500
G1 X120 F1500