;LightBurn 1.6.04
;Custom GCode device profile, absolute coords
;Bounds: X4.5 Y3.5 to X51.5 Y43.22
G00 G17 G40 G21 G54
G90
M3
G1 Z10 F1000
;Offset @ 1498.998 mm/min, 80% power

M8
G0 Z4.8F800
G0 X31.831Y9.019Z4.8F1500
G1 Z0F1500
;Layer C1
G1 X32.132Y9.058Z0S800F1500
G1 X32.419Y9.121Z0F1500
G1 X32.692Y9.207Z0F1500
G1 X32.932Y9.306Z0F1500
G1 X33.157Y9.423Z0F1500
G1 X33.351Y9.548Z0F1500
G1 X33.516Y9.676Z0F1500
G1 X33.654Y9.806Z0F1500
G1 X33.766Y9.935Z0F1500
G1 X33.847Y10.049Z0F1500
G1 X33.906Y10.154Z0F1500
G1 X33.948Y10.253Z0F1500
G1 X33.973Y10.333Z0F1500
G1 X33.987Y10.417Z0F1500
G1 X33.992Y10.5Z0F1500
G1 X33.987Y10.583Z0F1500
G1 X33.973Y10.667Z0F1500
G1 X33.948Y10.747Z0F1500
G1 X33.906Y10.846Z0F1500
G1 X33.847Y10.951Z0F1500
G1 X33.766Y11.065Z0F1500
G1 X33.655Y11.193Z0F1500
G1 X33.516Y11.324Z0F1500
G1 X33.351Y11.452Z0F1500
G1 X33.157Y11.577Z0F1500
G1 X32.932Y11.694Z0F1500
G1 X32.692Y11.793Z0F1500
G1 X32.419Y11.879Z0F1500
G1 X32.132Y11.942Z0F1500
G1 X31.831Y11.981Z0F1500
G1 X31.5Y11.996Z0F1500
G1 X31.169Y11.981Z0F1500
G1 X30.868Y11.942Z0F1500
G1 X30.581Y11.879Z0F1500
G1 X30.308Y11.793Z0F1500
G1 X30.068Y11.694Z0F1500
G1 X29.843Y11.577Z0F1500
G1 X29.649Y11.452Z0F1500
G1 X29.484Y11.324Z0F1500
G1 X29.345Y11.193Z0F1500
G1 X29.234Y11.065Z0F1500
G1 X29.153Y10.951Z0F1500
G1 X29.094Y10.846Z0F1500
G1 X29.052Y10.747Z0F1500
G1 X29.027Y10.667Z0F1500
G1 X29.013Y10.583Z0F1500
G1 X29.008Y10.5Z0F1500
G1 X29.013Y10.417Z0F1500
G1 X29.027Y10.333Z0F1500
G1 X29.052Y10.253Z0F1500
G1 X29.094Y10.154Z0F1500
G1 X29.153Y10.049Z0F1500
G1 X29.234Y9.935Z0F1500
G1 X29.346Y9.806Z0F1500
G1 X29.484Y9.676Z0F1500
G1 X29.649Y9.548Z0F1500
G1 X29.843Y9.423Z0F1500
G1 X30.068Y9.306Z0F1500
G1 X30.308Y9.207Z0F1500
G1 X30.581Y9.121Z0F1500
G1 X30.868Y9.058Z0F1500
G1 X31.169Y9.019Z0F1500
G1 X31.5Y9.004Z0F1500
G1 X31.831Y9.019Z0F1500
G0 Z4.8F800
G0 X34.943Y9.002Z4.8F1500
G1 Z0F1500
G1 X35.118Y9.249Z0F1500
G1 X35.253Y9.49Z0F1500
G1 X35.361Y9.741Z0F1500
G1 X35.435Y9.987Z0F1500
G1 X35.479Y10.24Z0F1500
G1 X35.495Y10.5Z0F1500
G1 X35.479Y10.76Z0F1500
G1 X35.435Y11.013Z0F1500
G1 X35.361Y11.259Z0F1500
G1 X35.253Y11.51Z0F1500
G1 X35.118Y11.751Z0F1500
G1 X34.943Y11.998Z0F1500
G1 X34.736Y12.235Z0F1500
G1 X34.496Y12.462Z0F1500
G1 X34.216Y12.68Z0F1500
G1 X33.906Y12.878Z0F1500
G1 X33.573Y13.052Z0F1500
G1 X33.197Y13.207Z0F1500
G1 X32.812Y13.328Z0F1500
G1 X32.393Y13.42Z0F1500
G1 X31.951Y13.478Z0F1500
G1 X31.5Y13.498Z0F1500
G1 X31.049Y13.478Z0F1500
G1 X30.607Y13.42Z0F1500
G1 X30.188Y13.328Z0F1500
G1 X29.803Y13.207Z0F1500
G1 X29.427Y13.052Z0F1500
G1 X29.094Y12.878Z0F1500
G1 X28.784Y12.68Z0F1500
G1 X28.504Y12.462Z0F1500
G1 X28.264Y12.235Z0F1500
G1 X28.057Y11.998Z0F1500
G1 X27.882Y11.751Z0F1500
G1 X27.747Y11.51Z0F1500
G1 X27.639Y11.259Z0F1500
G1 X27.565Y11.013Z0F1500
G1 X27.521Y10.76Z0F1500
G1 X27.505Y10.5Z0F1500
G1 X27.521Y10.24Z0F1500
G1 X27.565Y9.987Z0F1500
G1 X27.639Y9.741Z0F1500
G1 X27.747Y9.49Z0F1500
G1 X27.882Y9.249Z0F1500
G1 X28.057Y9.002Z0F1500
G1 X28.264Y8.765Z0F1500
G1 X28.504Y8.538Z0F1500
G1 X28.784Y8.32Z0F1500
G1 X29.094Y8.122Z0F1500
G1 X29.427Y7.948Z0F1500
G1 X29.803Y7.793Z0F1500
G1 X30.188Y7.672Z0F1500
G1 X30.607Y7.58Z0F1500
G1 X31.049Y7.522Z0F1500
G1 X31.5Y7.502Z0F1500
G1 X31.951Y7.522Z0F1500
G1 X32.393Y7.58Z0F1500
G1 X32.812Y7.672Z0F1500
G1 X33.197Y7.793Z0F1500
G1 X33.573Y7.948Z0F1500
G1 X33.906Y8.122Z0F1500
G1 X34.216Y8.32Z0F1500
G1 X34.496Y8.538Z0F1500
G1 X34.736Y8.765Z0F1500
G1 X34.943Y9.002Z0F1500
G0 Z4.8F800
G0 X36.896Y11.363Z4.8F1500
G1 Z0F1500
G1 X36.772Y11.773Z0F1500
G1 X36.604Y12.169Z0F1500
G1 X36.384Y12.56Z0F1500
G1 X36.127Y12.922Z0F1500
G1 X35.819Y13.275Z0F1500
G1 X35.47Y13.605Z0F1500
G1 X35.087Y13.903Z0F1500
G1 X34.66Y14.177Z0F1500
G1 X34.205Y14.414Z0F1500
G1 X33.712Y14.617Z0F1500
G1 X33.191Y14.781Z0F1500
G1 X32.655Y14.898Z0F1500
G1 X32.084Y14.974Z0F1500
G1 X31.5Y14.999Z0F1500
G1 X30.916Y14.974Z0F1500
G1 X30.345Y14.898Z0F1500
G1 X29.809Y14.781Z0F1500
G1 X29.288Y14.617Z0F1500
G1 X28.795Y14.414Z0F1500
G1 X28.34Y14.177Z0F1500
G1 X27.913Y13.903Z0F1500
G1 X27.53Y13.605Z0F1500
G1 X27.181Y13.275Z0F1500
G1 X26.873Y12.922Z0F1500
G1 X26.616Y12.56Z0F1500
G1 X26.396Y12.169Z0F1500
G1 X26.228Y11.773Z0F1500
G1 X26.104Y11.363Z0F1500
G1 X26.028Y10.937Z0F1500
G1 X26.003Y10.5Z0F1500
G1 X26.028Y10.063Z0F1500
G1 X26.104Y9.637Z0F1500
G1 X26.228Y9.227Z0F1500
G1 X26.396Y8.831Z0F1500
G1 X26.616Y8.44Z0F1500
G1 X26.873Y8.078Z0F1500
G1 X27.181Y7.725Z0F1500
G1 X27.53Y7.395Z0F1500
G1 X27.913Y7.097Z0F1500
G1 X28.34Y6.823Z0F1500
G1 X28.795Y6.586Z0F1500
G1 X29.288Y6.383Z0F1500
G1 X29.809Y6.219Z0F1500
G1 X30.345Y6.102Z0F1500
G1 X30.916Y6.026Z0F1500
G1 X31.5Y6.001Z0F1500
G1 X32.084Y6.026Z0F1500
G1 X32.655Y6.102Z0F1500
G1 X33.191Y6.219Z0F1500
G1 X33.712Y6.383Z0F1500
G1 X34.205Y6.586Z0F1500
G1 X34.66Y6.823Z0F1500
G1 X35.087Y7.097Z0F1500
G1 X35.47Y7.395Z0F1500
G1 X35.819Y7.725Z0F1500
G1 X36.127Y8.078Z0F1500
G1 X36.384Y8.44Z0F1500
G1 X36.604Y8.831Z0F1500
G1 X36.772Y9.227Z0F1500
G1 X36.896Y9.637Z0F1500
G1 X36.972Y10.063Z0F1500
G1 X36.997Y10.5Z0F1500
G1 X36.972Y10.937Z0F1500
G1 X36.896Y11.363Z0F1500
G0 Z4.8F800
G0 X36.45Y14.743Z4.8F1500
G1 Z0F1500
G1 X35.953Y15.13Z0F1500
G1 X35.414Y15.475Z0F1500
G1 X34.836Y15.776Z0F1500
G1 X34.225Y16.028Z0F1500
G1 X33.582Y16.23Z0F1500
G1 X32.911Y16.378Z0F1500
G1 X32.216Y16.469Z0F1500
G1 X31.5Y16.5Z0F1500
G1 X30.784Y16.469Z0F1500
G1 X30.089Y16.378Z0F1500
G1 X29.418Y16.23Z0F1500
G1 X28.775Y16.028Z0F1500
G1 X28.164Y15.776Z0F1500
G1 X27.586Y15.475Z0F1500
G1 X27.047Y15.13Z0F1500
G1 X26.55Y14.743Z0F1500
G1 X26.099Y14.316Z0F1500
G1 X25.695Y13.854Z0F1500
G1 X25.345Y13.36Z0F1500
G1 X25.05Y12.835Z0F1500
G1 X24.815Y12.284Z0F1500
G1 X24.642Y11.709Z0F1500
G1 X24.536Y11.113Z0F1500
G1 X24.5Y10.5Z0F1500
G1 X24.536Y9.887Z0F1500
G1 X24.642Y9.291Z0F1500
G1 X24.815Y8.716Z0F1500
G1 X25.05Y8.165Z0F1500
G1 X25.345Y7.64Z0F1500
G1 X25.695Y7.146Z0F1500
G1 X26.099Y6.684Z0F1500
G1 X26.55Y6.257Z0F1500
G1 X27.047Y5.87Z0F1500
G1 X27.586Y5.525Z0F1500
G1 X28.164Y5.224Z0F1500
G1 X28.775Y4.972Z0F1500
G1 X29.418Y4.77Z0F1500
G1 X30.089Y4.622Z0F1500
G1 X30.784Y4.531Z0F1500
G1 X31.5Y4.5Z0F1500
G1 X32.216Y4.531Z0F1500
G1 X32.911Y4.622Z0F1500
G1 X33.582Y4.77Z0F1500
G1 X34.225Y4.972Z0F1500
G1 X34.836Y5.224Z0F1500
G1 X35.414Y5.525Z0F1500
G1 X35.953Y5.87Z0F1500
G1 X36.45Y6.257Z0F1500
G1 X36.901Y6.684Z0F1500
G1 X37.305Y7.146Z0F1500
G1 X37.655Y7.64Z0F1500
G1 X37.95Y8.165Z0F1500
G1 X38.185Y8.716Z0F1500
G1 X38.358Y9.291Z0F1500
G1 X38.464Y9.887Z0F1500
G1 X38.5Y10.5Z0F1500
G1 X38.464Y11.113Z0F1500
G1 X38.358Y11.709Z0F1500
G1 X38.185Y12.284Z0F1500
G1 X37.95Y12.835Z0F1500
G1 X37.655Y13.36Z0F1500
G1 X37.305Y13.854Z0F1500
G1 X36.901Y14.316Z0F1500
G1 X36.45Y14.743Z0F1500
;Cut @ 444 mm/min, 80% power

M8
G0 Z4.8F800
G0 X41.893Y13.446Z4.8F1500
G1 Z0F1500
;Layer C3
G1 X42.103Y13.883Z0F1500
G1 X42.354Y14.296Z0F1500
G1 X42.642Y14.68Z0F1500
G1 X42.964Y15.036Z0F1500
G1 X43.32Y15.358Z0F1500
G1 X43.704Y15.646Z0F1500
G1 X44.117Y15.897Z0F1500
G1 X44.554Y16.107Z0F1500
G1 X45.013Y16.275Z0F1500
G1 X45.492Y16.398Z0F1500
G1 X45.989Y16.474Z0F1500
G1 X46.5Y16.5Z0F1500
G1 X47.011Y16.474Z0F1500
G1 X47.508Y16.398Z0F1500
G1 X47.987Y16.275Z0F1500
G1 X48.446Y16.107Z0F1500
G1 X48.883Y15.897Z0F1500
G1 X49.296Y15.646Z0F1500
G1 X49.68Y15.358Z0F1500
G1 X50.036Y15.036Z0F1500
G1 X50.358Y14.68Z0F1500
G1 X50.646Y14.296Z0F1500
G1 X50.897Y13.883Z0F1500
G1 X51.107Y13.446Z0F1500
G1 X51.275Y12.987Z0F1500
G1 X51.398Y12.508Z0F1500
G1 X51.474Y12.011Z0F1500
G1 X51.5Y11.5Z0F1500
G1 X51.474Y10.989Z0F1500
G1 X51.398Y10.492Z0F1500
G1 X51.275Y10.013Z0F1500
G1 X51.107Y9.554Z0F1500
G1 X50.897Y9.117Z0F1500
G1 X50.646Y8.704Z0F1500
G1 X50.358Y8.32Z0F1500
G1 X50.036Y7.964Z0F1500
G1 X49.68Y7.642Z0F1500
G1 X49.296Y7.354Z0F1500
G1 X48.883Y7.103Z0F1500
G1 X48.446Y6.893Z0F1500
G1 X47.987Y6.725Z0F1500
G1 X47.508Y6.602Z0F1500
G1 X47.011Y6.526Z0F1500
G1 X46.5Y6.5Z0F1500
G1 X45.989Y6.526Z0F1500
G1 X45.492Y6.602Z0F1500
G1 X45.013Y6.725Z0F1500
G1 X44.554Y6.893Z0F1500
G1 X44.117Y7.103Z0F1500
G1 X43.704Y7.354Z0F1500
G1 X43.32Y7.642Z0F1500
G1 X42.964Y7.964Z0F1500
G1 X42.642Y8.32Z0F1500
G1 X42.354Y8.704Z0F1500
G1 X42.103Y9.117Z0F1500
G1 X41.893Y9.554Z0F1500
G1 X41.725Y10.013Z0F1500
G1 X41.602Y10.492Z0F1500
G1 X41.526Y10.989Z0F1500
G1 X41.5Y11.5Z0F1500
G1 X41.526Y12.011Z0F1500
G1 X41.602Y12.508Z0F1500
G1 X41.725Y12.987Z0F1500
G1 X41.893Y13.446Z0F1500
G0 Z4.8F800
G0 X18.358Y11.911Z4.8F1500
G1 Z0F1500
G1 X18.464Y11.216Z0F1500
G1 X18.5Y10.5Z0F1500
G1 X18.464Y9.784Z0F1500
G1 X18.358Y9.089Z0F1500
G1 X18.185Y8.418Z0F1500
G1 X17.95Y7.775Z0F1500
G1 X17.655Y7.163Z0F1500
G1 X17.305Y6.586Z0F1500
G1 X16.902Y6.047Z0F1500
G1 X16.45Y5.55Z0F1500
G1 X15.953Y5.098Z0F1500
G1 X15.414Y4.695Z0F1500
G1 X14.837Y4.345Z0F1500
G1 X14.225Y4.05Z0F1500
G1 X13.582Y3.815Z0F1500
G1 X12.911Y3.642Z0F1500
G1 X12.216Y3.536Z0F1500
G1 X11.5Y3.5Z0F1500
G1 X10.784Y3.536Z0F1500
G1 X10.089Y3.642Z0F1500
G1 X9.418Y3.815Z0F1500
G1 X8.775Y4.05Z0F1500
G1 X8.163Y4.345Z0F1500
G1 X7.586Y4.695Z0F1500
G1 X7.047Y5.098Z0F1500
G1 X6.55Y5.55Z0F1500
G1 X6.098Y6.047Z0F1500
G1 X5.695Y6.586Z0F1500
G1 X5.345Y7.163Z0F1500
G1 X5.05Y7.775Z0F1500
G1 X4.815Y8.418Z0F1500
G1 X4.642Y9.089Z0F1500
G1 X4.536Y9.784Z0F1500
G1 X4.5Y10.5Z0F1500
G1 X4.536Y11.216Z0F1500
G1 X4.642Y11.911Z0F1500
G1 X4.815Y12.582Z0F1500
G1 X5.05Y13.225Z0F1500
G1 X5.345Y13.837Z0F1500
G1 X5.695Y14.414Z0F1500
G1 X6.098Y14.953Z0F1500
G1 X6.55Y15.45Z0F1500
G1 X7.047Y15.902Z0F1500
G1 X7.586Y16.305Z0F1500
G1 X8.163Y16.655Z0F1500
G1 X8.775Y16.95Z0F1500
G1 X9.418Y17.185Z0F1500
G1 X10.089Y17.358Z0F1500
G1 X10.784Y17.464Z0F1500
G1 X11.5Y17.5Z0F1500
G1 X12.216Y17.464Z0F1500
G1 X12.911Y17.358Z0F1500
G1 X13.582Y17.185Z0F1500
G1 X14.225Y16.95Z0F1500
G1 X14.837Y16.655Z0F1500
G1 X15.414Y16.305Z0F1500
G1 X15.953Y15.902Z0F1500
G1 X16.45Y15.45Z0F1500
G1 X16.902Y14.953Z0F1500
G1 X17.305Y14.414Z0F1500
G1 X17.655Y13.837Z0F1500
G1 X17.95Y13.225Z0F1500
G1 X18.185Y12.582Z0F1500
G1 X18.358Y11.911Z0F1500
;Scan @ 555 mm/min, 90% power

M8
G0 Z4.8F800
G0 X20.941Y21.219Z4.8F1500
G1 Z0F1500
;Layer C1
G91
G1 X0.648Z0S0F1500
G1 X13.822Z0S900F1500
G1 X0.648Z0S0F1500
G1 X5.895Y2Z0F1500
G1 X-0.647Z0F1500
G1 X-25.614Z0S900F1500
G1 X-0.647Z0S0F1500
G1 X-3.234Y2Z0F1500
G1 X0.647Z0F1500
G1 X32.082Z0S900F1500
G1 X0.647Z0S0F1500
G1 X2.05Y2Z0F1500
G1 X-0.648Z0F1500
G1 X-36.18Z0S900F1500
G1 X-0.648Z0S0F1500
G1 X-1.245Y2Z0F1500
G1 X0.647Z0F1500
G1 X38.672Z0S900F1500
G1 X0.647Z0S0F1500
G1 X0.587Y2Z0F1500
G1 X-0.648Z0F1500
G1 X-39.844Z0S900F1500
G1 X-0.648Z0S0F1500
G1 Y2Z0F1500
G1 X0.648Z0F1500
G1 X39.844Z0S900F1500
G1 X0.648Z0S0F1500
G1 X-0.587Y2Z0F1500
G1 X-0.647Z0F1500
G1 X-38.672Z0S900F1500
G1 X-0.647Z0S0F1500
G1 X1.245Y2Z0F1500
G1 X0.648Z0F1500
G1 X36.18Z0S900F1500
G1 X0.648Z0S0F1500
G1 X-2.05Y2Z0F1500
G1 X-0.647Z0F1500
G1 X-32.082Z0S900F1500
G1 X-0.647Z0S0F1500
G1 X3.234Y2Z0F1500
G1 X0.647Z0F1500
G1 X25.614Z0S900F1500
G1 X0.647Z0S0F1500
G1 X-5.895Y2Z0F1500
G1 X-0.648Z0F1500
G1 X-13.822Z0S900F1500
G1 X-0.648Z0S0F1500
G90
M9
M5
G1 Z10 F1000
G90
G1 Z10 F800
G1 X120 F1500
