;LightBurn 1.6.04
;Custom GCode device profile, absolute coords
;Bounds: X14 Y45 to X107.31 Y80.19
G00 G17 G40 G21 G54
G90
M3
G1 Z5F500
;Offset @ 15 mm/sec, 80% power

M8
G0 Z3F500
G0 X24.295Y68.193Z2F1000
G1 Z0F500
;Layer Green
G1 X24.898Y68.68Z0S800F800
G1 X24.672Y68.718Z0F800
G1 X24.522Y68.733Z0F800
G1 X24.408Y68.736Z0F800
G1 X24.333Y68.733Z0F800
G1 X24.28Y68.727Z0F800
G1 X24.274Z0F800
G1 X24.237Y68.707Z0F800
G1 X24.22Y68.695Z0F800
G1 X24.183Y68.661Z0F800
G1 X24.123Y68.592Z0F800
G1 X24.047Y68.483Z0F800
G1 X23.968Y68.348Z0F800
G1 X23.903Y68.215Z0F800
G1 X23.842Y68.066Z0F800
G1 X23.816Y67.993Z0F800
G1 X23.759Y67.535Z0F800
G1 X24.295Y68.193Z0F800
G0 Z3F500
G0 X25.017Y68.964Z2F1000
G1 Z0F500
G1 X24.716Y69.015Z0F800
G1 X24.541Y69.032Z0F800
G1 X24.411Y69.036Z0F800
G1 X24.304Y69.032Z0F800
G1 X24.231Y69.023Z0F800
G1 X24.184Y69.014Z0F800
G1 X24.174Y69.011Z0F800
G1 X24.08Y68.963Z0F800
G1 X24.035Y68.932Z0F800
G1 X23.968Y68.871Z0F800
G1 X23.884Y68.773Z0F800
G1 X23.795Y68.648Z0F800
G1 X23.707Y68.496Z0F800
G1 X23.627Y68.333Z0F800
G1 X23.564Y68.181Z0F800
G1 X23.522Y68.063Z0F800
G1 X23.232Y65.741Z0F800
G1 X23.302Y66.074Z0F800
G1 X23.747Y67.045Z0F800
G1 X24.508Y67.979Z0F800
G1 X25.253Y68.582Z0F800
G1 X25.658Y68.85Z0F800
G1 X25.017Y68.964Z0F800
G0 Z3F500
G0 X23.103Y64.7Z2F1000
G1 Z0F500
G1 X22.984Y63.752Z0F800
G1 X23.211Y63.695Z0F800
G1 X23.125Y64.036Z0F800
G1 X23.103Y64.7Z0F800
G0 Z3F500
G0 X23.228Y68.126Z2F1000
G1 Z0F500
G1 X22.653Y63.525Z0F800
G1 X23.626Y63.282Z0F800
G1 X23.423Y64.079Z0F800
G1 X23.392Y65.036Z0F800
G1 X23.589Y65.979Z0F800
G1 X24.003Y66.886Z0F800
G1 X24.721Y67.766Z0F800
G1 X25.43Y68.339Z0F800
G1 X25.993Y68.711Z0F800
G1 X26.461Y68.998Z0F800
G1 X26.496Y69.02Z0F800
G1 X26.034Y69.087Z0F800
G1 X25.075Y69.259Z0F800
G1 X24.75Y69.313Z0F800
G1 X24.565Y69.332Z0F800
G1 X24.406Y69.336Z0F800
G1 X24.282Y69.331Z0F800
G1 X24.187Y69.32Z0F800
G1 X24.114Y69.305Z0F800
G1 X24.064Y69.291Z0F800
G1 X23.927Y69.222Z0F800
G1 X23.845Y69.165Z0F800
G1 X23.753Y69.082Z0F800
G1 X23.648Y68.96Z0F800
G1 X23.541Y68.808Z0F800
G1 X23.443Y68.64Z0F800
G1 X23.354Y68.458Z0F800
G1 X23.282Y68.284Z0F800
G1 X23.235Y68.15Z0F800
G1 X23.228Y68.126Z0F800
G0 Z3F500
G0 X22.322Y63.299Z2F1000
G1 Z0F500
G1 X24.15Y62.842Z0F800
G1 X23.921Y63.341Z0F800
G1 X23.722Y64.121Z0F800
G1 X23.692Y65.01Z0F800
G1 X23.876Y65.885Z0F800
G1 X24.26Y66.726Z0F800
G1 X24.934Y67.552Z0F800
G1 X25.608Y68.097Z0F800
G1 X26.154Y68.458Z0F800
G1 X26.619Y68.743Z0F800
G1 X27.063Y69.02Z0F800
G1 X27.344Y69.207Z0F800
G1 X27.067Y69.24Z0F800
G1 X26.082Y69.383Z0F800
G1 X25.104Y69.558Z0F800
G1 X24.793Y69.61Z0F800
G1 X24.576Y69.632Z0F800
G1 X24.409Y69.637Z0F800
G1 X24.259Y69.63Z0F800
G1 X24.138Y69.616Z0F800
G1 X24.041Y69.597Z0F800
G1 X23.964Y69.575Z0F800
G1 X23.954Y69.571Z0F800
G1 X23.773Y69.48Z0F800
G1 X23.656Y69.398Z0F800
G1 X23.537Y69.29Z0F800
G1 X23.413Y69.146Z0F800
G1 X23.288Y68.969Z0F800
G1 X23.178Y68.78Z0F800
G1 X23.081Y68.582Z0F800
G1 X23.003Y68.395Z0F800
G1 X22.947Y68.234Z0F800
G1 X22.933Y68.188Z0F800
G1 X22.322Y63.299Z0F800
G0 Z3F500
G0 X21.992Y63.072Z2F1000
G1 Z0F500
G1 X24.219Y62.516Z0F800
G1 X26.609Y60.125Z0F800
G1 X27.005Y60.282Z0F800
G1 X27.039Y60.296Z0F800
G1 X26.906Y60.391Z0F800
G1 X26.477Y60.72Z0F800
G1 X26.101Y61.024Z0F800
G1 X25.749Y61.328Z0F800
G1 X25.416Y61.644Z0F800
G1 X25.095Y61.986Z0F800
G1 X24.78Y62.378Z0F800
G1 X24.476Y62.852Z0F800
G1 X24.205Y63.441Z0F800
G1 X24.021Y64.164Z0F800
G1 X23.994Y64.984Z0F800
G1 X24.163Y65.791Z0F800
G1 X24.517Y66.566Z0F800
G1 X25.146Y67.338Z0F800
G1 X25.785Y67.854Z0F800
G1 X26.315Y68.205Z0F800
G1 X26.778Y68.489Z0F800
G1 X27.232Y68.771Z0F800
G1 X27.653Y69.053Z0F800
G1 X28.072Y69.366Z0F800
G1 X28.13Y69.416Z0F800
G1 X28.011Y69.429Z0F800
G1 X27.106Y69.538Z0F800
G1 X26.129Y69.679Z0F800
G1 X25.156Y69.854Z0F800
G1 X24.836Y69.907Z0F800
G1 X24.594Y69.932Z0F800
G1 X24.404Y69.937Z0F800
G1 X24.236Y69.93Z0F800
G1 X24.09Y69.912Z0F800
G1 X23.976Y69.89Z0F800
G1 X23.872Y69.86Z0F800
G1 X23.832Y69.846Z0F800
G1 X23.616Y69.738Z0F800
G1 X23.473Y69.637Z0F800
G1 X23.321Y69.499Z0F800
G1 X23.176Y69.331Z0F800
G1 X23.035Y69.131Z0F800
G1 X22.913Y68.921Z0F800
G1 X22.808Y68.707Z0F800
G1 X22.721Y68.497Z0F800
G1 X22.663Y68.331Z0F800
G1 X22.639Y68.252Z0F800
G1 X21.992Y63.072Z0F800
G0 Z3F500
G0 X21.661Y62.846Z2F1000
G1 Z0F500
G1 X24.065Y62.245Z0F800
G1 X26.532Y59.778Z0F800
G1 X26.713Y59.843Z0F800
G1 X27.119Y60.004Z0F800
G1 X27.571Y60.201Z0F800
G1 X27.65Y60.239Z0F800
G1 X27.564Y60.293Z0F800
G1 X27.084Y60.632Z0F800
G1 X26.662Y60.956Z0F800
G1 X26.293Y61.254Z0F800
G1 X25.951Y61.551Z0F800
G1 X25.628Y61.856Z0F800
G1 X25.322Y62.183Z0F800
G1 X25.024Y62.554Z0F800
G1 X24.74Y62.996Z0F800
G1 X24.489Y63.542Z0F800
G1 X24.319Y64.206Z0F800
G1 X24.294Y64.958Z0F800
G1 X24.449Y65.697Z0F800
G1 X24.774Y66.407Z0F800
G1 X25.359Y67.125Z0F800
G1 X25.963Y67.612Z0F800
G1 X26.476Y67.952Z0F800
G1 X26.937Y68.234Z0F800
G1 X27.387Y68.514Z0F800
G1 X27.832Y68.811Z0F800
G1 X28.259Y69.131Z0F800
G1 X28.709Y69.518Z0F800
G1 X28.836Y69.641Z0F800
G1 X28.045Y69.727Z0F800
G1 X27.146Y69.835Z0F800
G1 X26.178Y69.976Z0F800
G1 X25.209Y70.149Z0F800
G1 X24.872Y70.206Z0F800
G1 X24.619Y70.231Z0F800
G1 X24.4Y70.237Z0F800
G1 X24.214Y70.229Z0F800
G1 X24.046Y70.209Z0F800
G1 X23.897Y70.18Z0F800
G1 X23.784Y70.148Z0F800
G1 X23.71Y70.121Z0F800
G1 X23.465Y69.998Z0F800
G1 X23.281Y69.869Z0F800
G1 X23.105Y69.708Z0F800
G1 X22.94Y69.518Z0F800
G1 X22.784Y69.296Z0F800
G1 X22.647Y69.062Z0F800
G1 X22.535Y68.831Z0F800
G1 X22.442Y68.608Z0F800
G1 X22.378Y68.425Z0F800
G1 X22.344Y68.311Z0F800
G1 X21.661Y62.846Z0F800
G0 Z3F500
G0 X21.33Y62.619Z2F1000
G1 Z0F500
G1 X23.912Y61.974Z0F800
G1 X26.454Y59.432Z0F800
G1 X26.475Y59.439Z0F800
G1 X26.827Y59.565Z0F800
G1 X27.223Y59.723Z0F800
G1 X27.697Y59.929Z0F800
G1 X28.215Y60.175Z0F800
G1 X28.276Y60.206Z0F800
G1 X28.218Y60.238Z0F800
G1 X27.73Y60.542Z0F800
G1 X27.262Y60.874Z0F800
G1 X26.848Y61.191Z0F800
G1 X26.485Y61.484Z0F800
G1 X26.152Y61.773Z0F800
G1 X25.841Y62.067Z0F800
G1 X25.548Y62.379Z0F800
G1 X25.268Y62.729Z0F800
G1 X25.004Y63.14Z0F800
G1 X24.773Y63.643Z0F800
G1 X24.618Y64.249Z0F800
G1 X24.596Y64.932Z0F800
G1 X24.736Y65.603Z0F800
G1 X25.031Y66.247Z0F800
G1 X25.572Y66.911Z0F800
G1 X26.14Y67.37Z0F800
G1 X26.637Y67.699Z0F800
G1 X27.095Y67.979Z0F800
G1 X27.549Y68.262Z0F800
G1 X28.005Y68.566Z0F800
G1 X28.449Y68.898Z0F800
G1 X28.91Y69.295Z0F800
G1 X29.109Y69.488Z0F800
G1 X29.336Y69.728Z0F800
G1 X29.463Y69.875Z0F800
G1 X28.08Y70.025Z0F800
G1 X27.186Y70.132Z0F800
G1 X26.226Y70.271Z0F800
G1 X25.267Y70.443Z0F800
G1 X24.915Y70.502Z0F800
G1 X24.637Y70.53Z0F800
G1 X24.396Y70.538Z0F800
G1 X24.191Y70.528Z0F800
G1 X23.998Y70.505Z0F800
G1 X23.832Y70.473Z0F800
G1 X23.687Y70.432Z0F800
G1 X23.592Y70.397Z0F800
G1 X23.313Y70.257Z0F800
G1 X23.094Y70.104Z0F800
G1 X22.889Y69.917Z0F800
G1 X22.703Y69.701Z0F800
G1 X22.531Y69.458Z0F800
G1 X22.381Y69.2Z0F800
G1 X22.259Y68.952Z0F800
G1 X22.163Y68.719Z0F800
G1 X22.093Y68.519Z0F800
G1 X22.051Y68.379Z0F800
G1 Y68.372Z0F800
G1 X21.33Y62.619Z0F800
G0 Z3F500
G0 X21Y62.393Z2F1000
G1 Z0F500
G1 X23.759Y61.703Z0F800
G1 X26.371Y59.09Z0F800
G1 X26.572Y59.155Z0F800
G1 X26.927Y59.282Z0F800
G1 X27.345Y59.448Z0F800
G1 X27.817Y59.654Z0F800
G1 X28.333Y59.899Z0F800
G1 X28.92Y60.199Z0F800
G1 X28.841Y60.237Z0F800
G1 X28.37Y60.497Z0F800
G1 X27.896Y60.792Z0F800
G1 X27.439Y61.115Z0F800
G1 X27.033Y61.427Z0F800
G1 X26.678Y61.714Z0F800
G1 X26.354Y61.996Z0F800
G1 X26.054Y62.279Z0F800
G1 X25.775Y62.576Z0F800
G1 X25.512Y62.904Z0F800
G1 X25.268Y63.285Z0F800
G1 X25.057Y63.743Z0F800
G1 X24.917Y64.291Z0F800
G1 X24.896Y64.905Z0F800
G1 X25.023Y65.508Z0F800
G1 X25.288Y66.087Z0F800
G1 X25.785Y66.697Z0F800
G1 X26.318Y67.128Z0F800
G1 X26.798Y67.446Z0F800
G1 X27.253Y67.724Z0F800
G1 X27.726Y68.019Z0F800
G1 X28.173Y68.317Z0F800
G1 X28.631Y68.66Z0F800
G1 X29.12Y69.08Z0F800
G1 X29.324Y69.279Z0F800
G1 X29.552Y69.52Z0F800
G1 X29.785Y69.789Z0F800
G1 X30.007Y70.07Z0F800
G1 X30.034Y70.107Z0F800
G1 X29.653Y70.156Z0F800
G1 X28.114Y70.323Z0F800
G1 X27.225Y70.43Z0F800
G1 X26.273Y70.568Z0F800
G1 X25.338Y70.736Z0F800
G1 X24.943Y70.801Z0F800
G1 X24.661Y70.83Z0F800
G1 X24.398Y70.837Z0F800
G1 X24.162Y70.827Z0F800
G1 X23.948Y70.802Z0F800
G1 X23.766Y70.766Z0F800
G1 X23.59Y70.716Z0F800
G1 X23.475Y70.674Z0F800
G1 X23.155Y70.513Z0F800
G1 X22.907Y70.339Z0F800
G1 X22.675Y70.127Z0F800
G1 X22.465Y69.885Z0F800
G1 X22.279Y69.621Z0F800
G1 X22.118Y69.344Z0F800
G1 X21.984Y69.07Z0F800
G1 X21.884Y68.83Z0F800
G1 X21.806Y68.606Z0F800
G1 X21.763Y68.461Z0F800
G1 X21.754Y68.43Z0F800
G1 X21Y62.393Z0F800
G0 Z3F500
G0 X20.669Y62.166Z2F1000
G1 Z0F500
G1 X23.605Y61.432Z0F800
G1 X26.286Y58.752Z0F800
G1 X26.362Y58.773Z0F800
G1 X26.67Y58.871Z0F800
G1 X27.036Y59.002Z0F800
G1 X27.453Y59.168Z0F800
G1 X27.943Y59.382Z0F800
G1 X28.471Y59.632Z0F800
G1 X29.072Y59.939Z0F800
G1 X29.588Y60.223Z0F800
G1 X29.448Y60.278Z0F800
G1 X28.979Y60.504Z0F800
G1 X28.521Y60.755Z0F800
G1 X28.063Y61.042Z0F800
G1 X27.618Y61.357Z0F800
G1 X27.219Y61.663Z0F800
G1 X26.871Y61.944Z0F800
G1 X26.555Y62.218Z0F800
G1 X26.267Y62.491Z0F800
G1 X26.001Y62.773Z0F800
G1 X25.756Y63.08Z0F800
G1 X25.531Y63.429Z0F800
G1 X25.341Y63.844Z0F800
G1 X25.216Y64.333Z0F800
G1 X25.198Y64.879Z0F800
G1 X25.31Y65.414Z0F800
G1 X25.544Y65.927Z0F800
G1 X25.998Y66.483Z0F800
G1 X26.495Y66.885Z0F800
G1 X26.959Y67.193Z0F800
G1 X27.422Y67.477Z0F800
G1 X27.888Y67.766Z0F800
G1 X28.347Y68.072Z0F800
G1 X28.821Y68.427Z0F800
G1 X29.321Y68.857Z0F800
G1 X29.539Y69.069Z0F800
G1 X29.775Y69.318Z0F800
G1 X30.01Y69.59Z0F800
G1 X30.251Y69.896Z0F800
G1 X30.467Y70.195Z0F800
G1 X30.56Y70.333Z0F800
G1 X30.313Y70.375Z0F800
G1 X29.696Y70.453Z0F800
G1 X28.148Y70.621Z0F800
G1 X27.265Y70.727Z0F800
G1 X26.321Y70.864Z0F800
G1 X25.381Y71.032Z0F800
G1 X24.986Y71.099Z0F800
G1 X24.679Y71.129Z0F800
G1 X24.394Y71.138Z0F800
G1 X24.14Y71.126Z0F800
G1 X23.898Y71.098Z0F800
G1 X23.693Y71.057Z0F800
G1 X23.506Y71.004Z0F800
G1 X23.353Y70.948Z0F800
G1 X23.002Y70.772Z0F800
G1 X22.717Y70.573Z0F800
G1 X22.461Y70.338Z0F800
G1 X22.23Y70.072Z0F800
G1 X22.026Y69.783Z0F800
G1 X21.853Y69.485Z0F800
G1 X21.71Y69.195Z0F800
G1 X21.603Y68.932Z0F800
G1 X21.521Y68.7Z0F800
G1 X21.474Y68.543Z0F800
G1 X21.459Y68.486Z0F800
G1 X20.669Y62.166Z0F800
G0 Z3F500
G0 X20.338Y61.939Z2F1000
G1 Z0F500
G1 X23.452Y61.161Z0F800
G1 X26.197Y58.416Z0F800
G1 X26.442Y58.484Z0F800
G1 X26.764Y58.586Z0F800
G1 X27.148Y58.724Z0F800
G1 X27.568Y58.891Z0F800
G1 X28.07Y59.11Z0F800
G1 X28.595Y59.359Z0F800
G1 X29.212Y59.675Z0F800
G1 X29.882Y60.042Z0F800
G1 X30.278Y60.274Z0F800
G1 X29.568Y60.553Z0F800
G1 X29.116Y60.771Z0F800
G1 X28.674Y61.015Z0F800
G1 X28.229Y61.292Z0F800
G1 X27.795Y61.599Z0F800
G1 X27.405Y61.898Z0F800
G1 X27.063Y62.174Z0F800
G1 X26.756Y62.44Z0F800
G1 X26.479Y62.703Z0F800
G1 X26.229Y62.97Z0F800
G1 X26Y63.255Z0F800
G1 X25.795Y63.573Z0F800
G1 X25.625Y63.944Z0F800
G1 X25.515Y64.376Z0F800
G1 X25.499Y64.853Z0F800
G1 X25.597Y65.32Z0F800
G1 X25.801Y65.768Z0F800
G1 X26.211Y66.27Z0F800
G1 X26.673Y66.643Z0F800
G1 X27.121Y66.94Z0F800
G1 X27.579Y67.221Z0F800
G1 X28.043Y67.509Z0F800
G1 X28.521Y67.828Z0F800
G1 X29.011Y68.195Z0F800
G1 X29.518Y68.63Z0F800
G1 X29.754Y68.859Z0F800
G1 X30.002Y69.122Z0F800
G1 X30.246Y69.403Z0F800
G1 X30.486Y69.709Z0F800
G1 X30.713Y70.022Z0F800
G1 X30.898Y70.301Z0F800
G1 X31.037Y70.534Z0F800
G1 X31.042Y70.544Z0F800
G1 X30.868Y70.586Z0F800
G1 X30.363Y70.67Z0F800
G1 X29.709Y70.753Z0F800
G1 X28.182Y70.919Z0F800
G1 X27.304Y71.024Z0F800
G1 X26.37Y71.16Z0F800
G1 X25.437Y71.327Z0F800
G1 X25.029Y71.396Z0F800
G1 X24.697Y71.429Z0F800
G1 X24.39Y71.438Z0F800
G1 X24.111Y71.426Z0F800
G1 X23.862Y71.396Z0F800
G1 X23.622Y71.349Z0F800
G1 X23.411Y71.289Z0F800
G1 X23.235Y71.225Z0F800
G1 X22.849Y71.031Z0F800
G1 X22.528Y70.806Z0F800
G1 X22.245Y70.547Z0F800
G1 X21.993Y70.256Z0F800
G1 X21.775Y69.947Z0F800
G1 X21.588Y69.626Z0F800
G1 X21.436Y69.317Z0F800
G1 X21.325Y69.046Z0F800
G1 X21.236Y68.793Z0F800
G1 X21.182Y68.613Z0F800
G1 X21.164Y68.542Z0F800
G1 X20.338Y61.939Z0F800
G0 Z3F500
G0 X20.008Y61.713Z2F1000
G1 Z0F500
G1 X23.298Y60.89Z0F800
G1 X26.104Y58.084Z0F800
G1 X26.257Y58.121Z0F800
G1 X26.535Y58.198Z0F800
G1 X26.861Y58.302Z0F800
G1 X27.249Y58.441Z0F800
G1 X27.689Y58.617Z0F800
G1 X28.184Y58.832Z0F800
G1 X28.733Y59.092Z0F800
G1 X29.359Y59.413Z0F800
G1 X30.023Y59.778Z0F800
G1 X30.737Y60.195Z0F800
G1 X31.009Y60.364Z0F800
G1 X30.493Y60.513Z0F800
G1 X29.688Y60.829Z0F800
G1 X29.253Y61.038Z0F800
G1 X28.826Y61.273Z0F800
G1 X28.395Y61.542Z0F800
G1 X27.973Y61.84Z0F800
G1 X27.59Y62.134Z0F800
G1 X27.256Y62.404Z0F800
G1 X26.958Y62.663Z0F800
G1 X26.692Y62.915Z0F800
G1 X26.455Y63.167Z0F800
G1 X26.244Y63.43Z0F800
G1 X26.059Y63.718Z0F800
G1 X25.909Y64.045Z0F800
G1 X25.813Y64.419Z0F800
G1 X25.8Y64.827Z0F800
G1 X25.883Y65.225Z0F800
G1 X26.058Y65.608Z0F800
G1 X26.423Y66.056Z0F800
G1 X26.85Y66.401Z0F800
G1 X27.282Y66.687Z0F800
G1 X27.736Y66.965Z0F800
G1 X28.209Y67.259Z0F800
G1 X28.688Y67.579Z0F800
G1 X29.202Y67.963Z0F800
G1 X29.723Y68.411Z0F800
G1 X29.969Y68.65Z0F800
G1 X30.219Y68.914Z0F800
G1 X30.476Y69.211Z0F800
G1 X30.731Y69.535Z0F800
G1 X30.96Y69.852Z0F800
G1 X31.151Y70.139Z0F800
G1 X31.3Y70.39Z0F800
G1 X31.405Y70.594Z0F800
G1 X31.467Y70.739Z0F800
G1 X31.352Y70.778Z0F800
G1 X30.928Y70.881Z0F800
G1 X30.401Y70.968Z0F800
G1 X29.752Y71.05Z0F800
G1 X28.216Y71.217Z0F800
G1 X27.344Y71.322Z0F800
G1 X26.417Y71.457Z0F800
G1 X25.486Y71.623Z0F800
G1 X25.064Y71.694Z0F800
G1 X24.722Y71.728Z0F800
G1 X24.386Y71.738Z0F800
G1 X24.088Y71.725Z0F800
G1 X23.813Y71.692Z0F800
G1 X23.555Y71.641Z0F800
G1 X23.314Y71.574Z0F800
G1 X23.117Y71.501Z0F800
G1 X22.692Y71.288Z0F800
G1 X22.343Y71.043Z0F800
G1 X22.027Y70.754Z0F800
G1 X21.757Y70.443Z0F800
G1 X21.522Y70.109Z0F800
G1 X21.323Y69.767Z0F800
G1 X21.163Y69.441Z0F800
G1 X21.042Y69.146Z0F800
G1 X20.952Y68.893Z0F800
G1 X20.892Y68.691Z0F800
G1 X20.869Y68.602Z0F800
G1 X20.008Y61.713Z0F800
G0 Z3F500
G0 X19.677Y61.486Z2F1000
G1 Z0F500
G1 X23.145Y60.619Z0F800
G1 X26.007Y57.757Z0F800
G1 X26.093Y57.773Z0F800
G1 X26.328Y57.829Z0F800
G1 X26.619Y57.91Z0F800
G1 X26.959Y58.019Z0F800
G1 X27.345Y58.157Z0F800
G1 X27.811Y58.343Z0F800
G1 X28.316Y58.563Z0F800
G1 X28.864Y58.823Z0F800
G1 X29.493Y59.145Z0F800
G1 X30.17Y59.517Z0F800
G1 X30.901Y59.944Z0F800
G1 X31.71Y60.446Z0F800
G1 X31.783Y60.493Z0F800
G1 X31.339Y60.582Z0F800
G1 X30.59Y60.797Z0F800
G1 X29.809Y61.104Z0F800
G1 X29.391Y61.305Z0F800
G1 X28.978Y61.532Z0F800
G1 X28.561Y61.792Z0F800
G1 X28.151Y62.082Z0F800
G1 X27.776Y62.37Z0F800
G1 X27.449Y62.634Z0F800
G1 X27.159Y62.885Z0F800
G1 X26.904Y63.126Z0F800
G1 X26.682Y63.364Z0F800
G1 X26.487Y63.606Z0F800
G1 X26.323Y63.862Z0F800
G1 X26.192Y64.146Z0F800
G1 X26.112Y64.461Z0F800
G1 X26.101Y64.801Z0F800
G1 X26.17Y65.131Z0F800
G1 X26.315Y65.448Z0F800
G1 X26.636Y65.842Z0F800
G1 X27.028Y66.159Z0F800
G1 X27.443Y66.434Z0F800
G1 X27.887Y66.706Z0F800
G1 X28.371Y67.006Z0F800
G1 X28.867Y67.337Z0F800
G1 X29.389Y67.729Z0F800
G1 X29.923Y68.188Z0F800
G1 X30.178Y68.435Z0F800
G1 X30.446Y68.718Z0F800
G1 X30.71Y69.024Z0F800
G1 X30.961Y69.342Z0F800
G1 X31.206Y69.68Z0F800
G1 X31.41Y69.988Z0F800
G1 X31.56Y70.239Z0F800
G1 X31.677Y70.466Z0F800
G1 X31.755Y70.65Z0F800
G1 X31.798Y70.79Z0F800
G1 X31.813Y70.877Z0F800
G1 Y70.898Z0F800
G1 X31.788Y70.918Z0F800
G1 X31.707Y70.963Z0F800
G1 X31.58Y71.018Z0F800
G1 X31.438Y71.066Z0F800
G1 X30.99Y71.175Z0F800
G1 X30.449Y71.265Z0F800
G1 X29.784Y71.349Z0F800
G1 X28.25Y71.515Z0F800
G1 X27.383Y71.62Z0F800
G1 X26.465Y71.752Z0F800
G1 X25.536Y71.919Z0F800
G1 X25.106Y71.991Z0F800
G1 X24.733Y72.028Z0F800
G1 X24.388Y72.039Z0F800
G1 X24.066Y72.024Z0F800
G1 X23.764Y71.989Z0F800
G1 X23.484Y71.933Z0F800
G1 X23.223Y71.859Z0F800
G1 X22.997Y71.776Z0F800
G1 X22.541Y71.548Z0F800
G1 X22.153Y71.276Z0F800
G1 X21.814Y70.967Z0F800
G1 X21.52Y70.626Z0F800
G1 X21.269Y70.271Z0F800
G1 X21.058Y69.908Z0F800
G1 X20.89Y69.566Z0F800
G1 X20.763Y69.256Z0F800
G1 X20.665Y68.978Z0F800
G1 X20.607Y68.786Z0F800
G1 X20.573Y68.654Z0F800
G1 X19.677Y61.486Z0F800
G0 Z3F500
G0 X19.346Y61.26Z2F1000
G1 Z0F500
G1 X22.992Y60.349Z0F800
G1 X25.906Y57.434Z0F800
G1 X25.967Y57.443Z0F800
G1 X26.168Y57.483Z0F800
G1 X26.398Y57.538Z0F800
G1 X26.703Y57.622Z0F800
G1 X27.052Y57.733Z0F800
G1 X27.463Y57.881Z0F800
G1 X27.915Y58.061Z0F800
G1 X28.444Y58.291Z0F800
G1 X29.002Y58.556Z0F800
G1 X29.633Y58.879Z0F800
G1 X30.311Y59.251Z0F800
G1 X31.067Y59.694Z0F800
G1 X31.862Y60.187Z0F800
G1 X32.616Y60.668Z0F800
G1 X32.077Y60.739Z0F800
G1 X31.41Y60.874Z0F800
G1 X30.686Y61.082Z0F800
G1 X29.928Y61.379Z0F800
G1 X29.528Y61.571Z0F800
G1 X29.129Y61.791Z0F800
G1 X28.727Y62.042Z0F800
G1 X28.329Y62.323Z0F800
G1 X27.962Y62.605Z0F800
G1 X27.641Y62.865Z0F800
G1 X27.361Y63.107Z0F800
G1 X27.117Y63.338Z0F800
G1 X26.908Y63.561Z0F800
G1 X26.731Y63.781Z0F800
G1 X26.586Y64.007Z0F800
G1 X26.477Y64.246Z0F800
G1 X26.411Y64.504Z0F800
G1 X26.402Y64.774Z0F800
G1 X26.457Y65.037Z0F800
G1 X26.572Y65.288Z0F800
G1 X26.849Y65.628Z0F800
G1 X27.205Y65.916Z0F800
G1 X27.604Y66.181Z0F800
G1 X28.049Y66.453Z0F800
G1 X28.526Y66.75Z0F800
G1 X29.041Y67.093Z0F800
G1 X29.575Y67.493Z0F800
G1 X30.129Y67.969Z0F800
G1 X30.393Y68.225Z0F800
G1 X30.669Y68.517Z0F800
G1 X30.936Y68.826Z0F800
G1 X31.206Y69.167Z0F800
G1 X31.453Y69.51Z0F800
G1 X31.658Y69.818Z0F800
G1 X31.826Y70.101Z0F800
G1 X31.948Y70.336Z0F800
G1 X32.038Y70.55Z0F800
G1 X32.09Y70.719Z0F800
G1 X32.113Y70.848Z0F800
G1 Y70.936Z0F800
G1 X32.106Y70.996Z0F800
G1 X32.091Y71.035Z0F800
G1 X32.068Y71.069Z0F800
G1 X32.024Y71.115Z0F800
G1 X31.951Y71.171Z0F800
G1 X31.839Y71.233Z0F800
G1 X31.694Y71.296Z0F800
G1 X31.518Y71.355Z0F800
G1 X31.051Y71.468Z0F800
G1 X30.484Y71.563Z0F800
G1 X29.832Y71.645Z0F800
G1 X28.284Y71.813Z0F800
G1 X27.422Y71.917Z0F800
G1 X26.513Y72.049Z0F800
G1 X25.579Y72.216Z0F800
G1 X25.15Y72.288Z0F800
G1 X24.751Y72.328Z0F800
G1 X24.391Y72.338Z0F800
G1 X24.037Y72.323Z0F800
G1 X23.714Y72.285Z0F800
G1 X23.418Y72.226Z0F800
G1 X23.132Y72.146Z0F800
G1 X22.875Y72.051Z0F800
G1 X22.388Y71.807Z0F800
G1 X21.964Y71.51Z0F800
G1 X21.598Y71.176Z0F800
G1 X21.285Y70.813Z0F800
G1 X21.015Y70.431Z0F800
G1 X20.795Y70.054Z0F800
G1 X20.616Y69.687Z0F800
G1 X20.48Y69.359Z0F800
G1 X20.379Y69.071Z0F800
G1 X20.319Y68.869Z0F800
G1 X20.281Y68.722Z0F800
G1 X20.276Y68.702Z0F800
G1 X19.346Y61.26Z0F800
G0 Z3F500
G0 X19.016Y61.033Z2F1000
G1 Z0F500
G1 X22.838Y60.078Z0F800
G1 X25.799Y57.117Z0F800
G1 X25.867Y57.124Z0F800
G1 X26.01Y57.146Z0F800
G1 X26.223Y57.188Z0F800
G1 X26.486Y57.25Z0F800
G1 X26.792Y57.335Z0F800
G1 X27.156Y57.452Z0F800
G1 X27.562Y57.597Z0F800
G1 X28.04Y57.788Z0F800
G1 X28.555Y58.012Z0F800
G1 X29.134Y58.287Z0F800
G1 X29.77Y58.612Z0F800
G1 X30.469Y58.996Z0F800
G1 X31.212Y59.431Z0F800
G1 X32.023Y59.935Z0F800
G1 X33.072Y60.604Z0F800
G1 X33.324Y60.768Z0F800
G1 X33.525Y60.902Z0F800
G1 X33.203Y60.919Z0F800
G1 X32.705Y60.959Z0F800
G1 X32.126Y61.036Z0F800
G1 X31.481Y61.166Z0F800
G1 X30.783Y61.366Z0F800
G1 X30.048Y61.654Z0F800
G1 X29.666Y61.838Z0F800
G1 X29.281Y62.05Z0F800
G1 X28.894Y62.292Z0F800
G1 X28.507Y62.565Z0F800
G1 X28.147Y62.841Z0F800
G1 X27.834Y63.095Z0F800
G1 X27.562Y63.33Z0F800
G1 X27.33Y63.55Z0F800
G1 X27.135Y63.757Z0F800
G1 X26.975Y63.957Z0F800
G1 X26.851Y64.151Z0F800
G1 X26.76Y64.347Z0F800
G1 X26.709Y64.546Z0F800
G1 X26.703Y64.749Z0F800
G1 X26.744Y64.942Z0F800
G1 X26.829Y65.128Z0F800
G1 X27.062Y65.415Z0F800
G1 X27.383Y65.674Z0F800
G1 X27.766Y65.927Z0F800
G1 X28.204Y66.196Z0F800
G1 X28.695Y66.502Z0F800
G1 X29.214Y66.848Z0F800
G1 X29.761Y67.257Z0F800
G1 X30.33Y67.747Z0F800
G1 X30.613Y68.021Z0F800
G1 X30.886Y68.31Z0F800
G1 X31.174Y68.643Z0F800
G1 X31.442Y68.982Z0F800
G1 X31.696Y69.333Z0F800
G1 X31.915Y69.663Z0F800
G1 X32.086Y69.95Z0F800
G1 X32.223Y70.216Z0F800
G1 X32.318Y70.442Z0F800
G1 X32.381Y70.646Z0F800
G1 X32.413Y70.819Z0F800
G1 X32.416Y70.956Z0F800
G1 X32.397Y71.073Z0F800
G1 X32.36Y71.171Z0F800
G1 X32.305Y71.256Z0F800
G1 X32.223Y71.341Z0F800
G1 X32.115Y71.422Z0F800
G1 X31.974Y71.502Z0F800
G1 X31.794Y71.579Z0F800
G1 X31.605Y71.643Z0F800
G1 X31.111Y71.763Z0F800
G1 X30.534Y71.858Z0F800
G1 X29.859Y71.944Z0F800
G1 X28.318Y72.111Z0F800
G1 X27.462Y72.214Z0F800
G1 X26.562Y72.345Z0F800
G1 X25.635Y72.511Z0F800
G1 X25.185Y72.586Z0F800
G1 X24.776Y72.627Z0F800
G1 X24.386Y72.639Z0F800
G1 X24.015Y72.623Z0F800
G1 X23.671Y72.582Z0F800
G1 X23.341Y72.517Z0F800
G1 X23.042Y72.432Z0F800
G1 X22.757Y72.327Z0F800
G1 X22.23Y72.063Z0F800
G1 X21.778Y71.747Z0F800
G1 X21.384Y71.387Z0F800
G1 X21.045Y70.995Z0F800
G1 X20.763Y70.595Z0F800
G1 X20.53Y70.195Z0F800
G1 X20.342Y69.812Z0F800
G1 X20.202Y69.47Z0F800
G1 X20.095Y69.167Z0F800
G1 X20.025Y68.934Z0F800
G1 X19.988Y68.788Z0F800
G1 X19.981Y68.759Z0F800
G1 X19.016Y61.033Z0F800
G0 Z3F500
G0 X18.685Y60.807Z2F1000
G1 Z0F500
G1 X22.685Y59.807Z0F800
G1 X25.685Y56.807Z0F800
G1 X25.78Y56.813Z0F800
G1 X25.899Y56.826Z0F800
G1 X26.068Y56.852Z0F800
G1 X26.286Y56.895Z0F800
G1 X26.555Y56.958Z0F800
G1 X26.875Y57.047Z0F800
G1 X27.248Y57.166Z0F800
G1 X27.672Y57.318Z0F800
G1 X28.151Y57.509Z0F800
G1 X28.684Y57.741Z0F800
G1 X29.271Y58.02Z0F800
G1 X29.914Y58.349Z0F800
G1 X30.614Y58.733Z0F800
G1 X31.371Y59.176Z0F800
G1 X32.185Y59.682Z0F800
G1 X33.233Y60.352Z0F800
G1 X33.491Y60.519Z0F800
G1 X33.704Y60.661Z0F800
G1 X33.876Y60.781Z0F800
G1 X34.007Y60.88Z0F800
G1 X34.099Y60.961Z0F800
G1 X34.154Y61.026Z0F800
G1 X34.173Y61.076Z0F800
G1 X34.158Y61.115Z0F800
G1 X34.11Y61.143Z0F800
G1 X34.031Y61.163Z0F800
G1 X33.922Y61.178Z0F800
G1 X33.786Y61.188Z0F800
G1 X33.223Y61.218Z0F800
G1 X32.737Y61.258Z0F800
G1 X32.176Y61.332Z0F800
G1 X31.552Y61.457Z0F800
G1 X30.879Y61.65Z0F800
G1 X30.168Y61.929Z0F800
G1 X29.803Y62.105Z0F800
G1 X29.433Y62.309Z0F800
G1 X29.06Y62.542Z0F800
G1 X28.685Y62.807Z0F800
G1 X28.333Y63.077Z0F800
G1 X28.026Y63.325Z0F800
G1 X27.764Y63.552Z0F800
G1 X27.542Y63.762Z0F800
G1 X27.362Y63.954Z0F800
G1 X27.219Y64.132Z0F800
G1 X27.114Y64.295Z0F800
G1 X27.044Y64.447Z0F800
G1 X27.008Y64.589Z0F800
G1 X27.004Y64.722Z0F800
G1 X27.03Y64.848Z0F800
G1 X27.085Y64.969Z0F800
G1 X27.275Y65.201Z0F800
G1 X27.56Y65.432Z0F800
G1 X27.927Y65.674Z0F800
G1 X28.363Y65.941Z0F800
G1 X28.854Y66.247Z0F800
G1 X29.388Y66.604Z0F800
G1 X29.951Y67.025Z0F800
G1 X30.531Y67.523Z0F800
G1 X30.822Y67.806Z0F800
G1 X31.113Y68.113Z0F800
G1 X31.401Y68.446Z0F800
G1 X31.685Y68.807Z0F800
G1 X31.946Y69.167Z0F800
G1 X32.167Y69.5Z0F800
G1 X32.349Y69.806Z0F800
G1 X32.494Y70.086Z0F800
G1 X32.602Y70.342Z0F800
G1 X32.674Y70.576Z0F800
G1 X32.712Y70.787Z0F800
G1 X32.716Y70.979Z0F800
G1 X32.688Y71.151Z0F800
G1 X32.63Y71.306Z0F800
G1 X32.541Y71.443Z0F800
G1 X32.423Y71.566Z0F800
G1 X32.278Y71.675Z0F800
G1 X32.105Y71.772Z0F800
G1 X31.908Y71.857Z0F800
G1 X31.685Y71.932Z0F800
G1 X31.171Y72.057Z0F800
G1 X30.572Y72.156Z0F800
G1 X29.896Y72.242Z0F800
G1 X28.353Y72.409Z0F800
G1 X27.501Y72.512Z0F800
G1 X26.609Y72.641Z0F800
G1 X25.685Y72.807Z0F800
G1 X25.228Y72.883Z0F800
G1 X24.793Y72.927Z0F800
G1 X24.382Y72.939Z0F800
G1 X23.992Y72.922Z0F800
G1 X23.623Y72.878Z0F800
G1 X23.274Y72.809Z0F800
G1 X22.947Y72.717Z0F800
G1 X22.638Y72.604Z0F800
G1 X22.078Y72.322Z0F800
G1 X21.589Y71.98Z0F800
G1 X21.168Y71.595Z0F800
G1 X20.81Y71.182Z0F800
G1 X20.51Y70.757Z0F800
G1 X20.265Y70.336Z0F800
G1 X20.069Y69.936Z0F800
G1 X19.919Y69.572Z0F800
G1 X19.81Y69.262Z0F800
G1 X19.738Y69.02Z0F800
G1 X19.697Y68.863Z0F800
G1 X19.685Y68.807Z0F800
G1 X18.685Y60.807Z0F800
;Cut @ 15 mm/sec, 90% power

M8
G0 Z3F500
G0 X44.685Y53.807Z2F1000
G1 Z0F500
;Layer Blue
G1 X47.435Y58.137Z0S900F800
G1 X52.935Z0F800
G1 X55.685Y53.807Z0F800
G1 X52.935Y49.477Z0F800
G1 X47.435Z0F800
G1 X44.685Y53.807Z0F800
G0 Z3F500
G0 X38.744Y53.438Z2F1000
G1 Z0F500
G1 X38.7Y53.869Z0F800
G1 X38.685Y54.307Z0F800
G1 X38.7Y54.744Z0F800
G1 X38.744Y55.176Z0F800
G1 X38.818Y55.601Z0F800
G1 X38.919Y56.02Z0F800
G1 X39.047Y56.431Z0F800
G1 X39.202Y56.834Z0F800
G1 X39.383Y57.229Z0F800
G1 X39.589Y57.615Z0F800
G1 X39.819Y57.992Z0F800
G1 X40.073Y58.358Z0F800
G1 X40.35Y58.714Z0F800
G1 X40.649Y59.059Z0F800
G1 X41.311Y59.713Z0F800
G1 X42.053Y60.317Z0F800
G1 X42.87Y60.866Z0F800
G1 X43.755Y61.355Z0F800
G1 X44.703Y61.781Z0F800
G1 X45.709Y62.139Z0F800
G1 X46.765Y62.425Z0F800
G1 X47.867Y62.634Z0F800
G1 X49.009Y62.763Z0F800
G1 X50.185Y62.807Z0F800
G1 X51.361Y62.763Z0F800
G1 X52.503Y62.634Z0F800
G1 X53.605Y62.425Z0F800
G1 X54.661Y62.139Z0F800
G1 X55.667Y61.781Z0F800
G1 X56.615Y61.355Z0F800
G1 X57.5Y60.866Z0F800
G1 X58.317Y60.317Z0F800
G1 X59.059Y59.713Z0F800
G1 X59.721Y59.059Z0F800
G1 X60.02Y58.714Z0F800
G1 X60.297Y58.358Z0F800
G1 X60.551Y57.992Z0F800
G1 X60.781Y57.615Z0F800
G1 X60.987Y57.229Z0F800
G1 X61.168Y56.834Z0F800
G1 X61.323Y56.431Z0F800
G1 X61.451Y56.02Z0F800
G1 X61.552Y55.601Z0F800
G1 X61.626Y55.176Z0F800
G1 X61.67Y54.744Z0F800
G1 X61.685Y54.307Z0F800
G1 X61.67Y53.869Z0F800
G1 X61.626Y53.438Z0F800
G1 X61.552Y53.012Z0F800
G1 X61.451Y52.594Z0F800
G1 X61.323Y52.182Z0F800
G1 X61.168Y51.779Z0F800
G1 X60.987Y51.384Z0F800
G1 X60.781Y50.998Z0F800
G1 X60.551Y50.622Z0F800
G1 X60.297Y50.255Z0F800
G1 X60.02Y49.899Z0F800
G1 X59.721Y49.554Z0F800
G1 X59.059Y48.9Z0F800
G1 X58.317Y48.296Z0F800
G1 X57.5Y47.748Z0F800
G1 X56.615Y47.258Z0F800
G1 X55.667Y46.833Z0F800
G1 X54.661Y46.475Z0F800
G1 X53.605Y46.189Z0F800
G1 X52.503Y45.979Z0F800
G1 X51.361Y45.851Z0F800
G1 X50.185Y45.807Z0F800
G1 X49.009Y45.851Z0F800
G1 X47.867Y45.979Z0F800
G1 X46.765Y46.189Z0F800
G1 X45.709Y46.475Z0F800
G1 X44.703Y46.833Z0F800
G1 X43.755Y47.258Z0F800
G1 X42.87Y47.748Z0F800
G1 X42.053Y48.296Z0F800
G1 X41.311Y48.9Z0F800
G1 X40.649Y49.554Z0F800
G1 X40.35Y49.899Z0F800
G1 X40.073Y50.255Z0F800
G1 X39.819Y50.622Z0F800
G1 X39.589Y50.998Z0F800
G1 X39.383Y51.384Z0F800
G1 X39.202Y51.779Z0F800
G1 X39.047Y52.182Z0F800
G1 X38.919Y52.594Z0F800
G1 X38.818Y53.012Z0F800
G1 X38.744Y53.438Z0F800
;Offset @ 15 mm/sec, 80% power

M8
G0 Z3F500
G0 X67.252Y70.982Z2F1000
G1 Z0F500
;Layer Brown
G1 X67.041Y71.295Z0S800F800
G1 X66.929Y70.898Z0F800
G1 X67.252Y70.982Z0F800
G0 Z3F500
G0 X68.224Y70.616Z2F1000
G1 Z0F500
G1 X67.478Y71.72Z0F800
G1 Y74.203Z0F800
G1 X69.982Z0F800
G1 Y74.61Z0F800
G1 X67.478Z0F800
G1 Y79.593Z0F800
G1 X67.118Z0F800
G1 Y74.61Z0F800
G1 X64.226Z0F800
G1 Y74.203Z0F800
G1 X67.097Z0F800
G1 X66.732Y72.519Z0F800
G1 X66.493Y71.561Z0F800
G1 X66.225Y70.611Z0F800
G1 X66.155Y70.389Z0F800
G1 X67.118Y70.248Z0F800
G1 Y59.691Z0F800
G1 X67.478Z0F800
G1 Y70.421Z0F800
G1 X68.224Y70.616Z0F800
G0 Z3F500
G0 X69.429Y68.729Z2F1000
G1 Z0F500
G1 X69.515Y68.563Z0F800
G1 X69.899Y67.77Z0F800
G1 X69.958Y67.851Z0F800
G1 X69.545Y68.542Z0F800
G1 X69.429Y68.729Z0F800
G0 Z3F500
G0 X65.549Y68.597Z2F1000
G1 Z0F500
G1 X65.25Y67.817Z0F800
G1 X64.869Y66.907Z0F800
G1 X64.455Y65.998Z0F800
G1 X64.071Y65.281Z0F800
G1 X63.853Y64.93Z0F800
G1 X64Y64.701Z0F800
G1 X64.341Y65.37Z0F800
G1 X64.704Y66.194Z0F800
G1 X65.018Y67.033Z0F800
G1 X65.504Y68.448Z0F800
G1 X65.549Y68.597Z0F800
G0 Z3F500
G0 X65.65Y70.783Z2F1000
G1 Z0F500
G1 X65.359Y69.859Z0F800
G1 X65.04Y68.945Z0F800
G1 X64.693Y68.041Z0F800
G1 X64.319Y67.147Z0F800
G1 X63.917Y66.264Z0F800
G1 X63.552Y65.582Z0F800
G1 X63.142Y64.925Z0F800
G1 X63.548Y64.296Z0F800
G1 X63.916Y63.645Z0F800
G1 X63.992Y63.479Z0F800
G1 X64.461Y64.284Z0F800
G1 X64.884Y65.113Z0F800
G1 X65.259Y65.965Z0F800
G1 X65.585Y66.838Z0F800
G1 X66.079Y68.275Z0F800
G1 X66.518Y69.729Z0F800
G1 Y59.091Z0F800
G1 X68.078Z0F800
G1 Y69.958Z0F800
G1 X68.541Y69.132Z0F800
G1 X68.979Y68.293Z0F800
G1 X69.392Y67.442Z0F800
G1 X69.779Y66.579Z0F800
G1 X70.675Y67.82Z0F800
G1 X70.055Y68.859Z0F800
G1 X69.415Y69.886Z0F800
G1 X68.756Y70.901Z0F800
G1 X68.078Y71.903Z0F800
G1 Y73.603Z0F800
G1 X70.582Z0F800
G1 Y75.21Z0F800
G1 X68.078Z0F800
G1 Y80.193Z0F800
G1 X66.518Z0F800
G1 Y75.21Z0F800
G1 X63.626Z0F800
G1 Y73.603Z0F800
G1 X66.353Z0F800
G1 X66.147Y72.655Z0F800
G1 X65.913Y71.715Z0F800
G1 X65.65Y70.783Z0F800
G0 Z3F500
G0 X72.717Y74.407Z2F1000
G1 Z0F500
G1 Y77.667Z0F800
G1 X75.357Z0F800
G1 Y74.407Z0F800
G1 X72.717Z0F800
G0 Z3F500
G0 X72.117Y73.807Z2F1000
G1 Z0F500
G1 Y78.268Z0F800
G1 X75.958Z0F800
G1 Y73.807Z0F800
G1 X72.117Z0F800
G0 Z3F500
G0 X72.717Y72.939Z2F1000
G1 Z0F500
G1 X75.357Z0F800
G1 Y69.632Z0F800
G1 X72.717Z0F800
G1 Y72.939Z0F800
G0 Z3F500
G0 X72.117Y73.54Z2F1000
G1 Z0F500
G1 X75.958Z0F800
G1 Y69.032Z0F800
G1 X72.117Z0F800
G1 Y73.54Z0F800
G0 Z3F500
G0 X72.717Y68.139Z2F1000
G1 Z0F500
G1 X75.357Z0F800
G1 Y64.819Z0F800
G1 X74.038Y64.611Z0F800
G1 X72.717Y64.407Z0F800
G1 Y68.139Z0F800
G0 Z3F500
G0 X72.117Y68.739Z2F1000
G1 Z0F500
G1 X75.958Z0F800
G1 Y64.307Z0F800
G1 X74.13Y64.018Z0F800
G1 X72.117Y63.708Z0F800
G1 Y68.739Z0F800
G0 Z3F500
G0 X71.871Y78.268Z2F1000
G1 Z0F500
G1 Y63.672Z0F800
G1 X70.505Y63.478Z0F800
G1 X70.316Y63.453Z0F800
G1 X70.411Y63.065Z0F800
G1 X71.27Y63.215Z0F800
G1 X75.958Y64.058Z0F800
G1 Y59.624Z0F800
G1 X76.25Z0F800
G1 Y78.268Z0F800
G1 X77.168Z0F800
G1 Y78.585Z0F800
G1 X70.633Z0F800
G1 Y78.268Z0F800
G1 X71.871Z0F800
G0 Z3F500
G0 X76.85Y77.667Z2F1000
G1 Z0F500
G1 X77.768Z0F800
G1 Y79.185Z0F800
G1 X70.033Z0F800
G1 Y77.667Z0F800
G1 X71.271Z0F800
G1 Y64.193Z0F800
G1 X70.423Y64.072Z0F800
G1 X69.574Y63.96Z0F800
G1 X69.961Y62.377Z0F800
G1 X71.373Y62.625Z0F800
G1 X75.357Y63.34Z0F800
G1 Y59.023Z0F800
G1 X76.85Z0F800
G1 Y77.667Z0F800
G0 Z3F500
G0 X79.328Y78.361Z2F1000
G1 Z0F500
G1 X83.326Z0F800
G1 X83.09Y77.332Z0F800
G1 X82.737Y75.863Z0F800
G1 X82.364Y74.398Z0F800
G1 X81.973Y72.939Z0F800
G1 X81.636Y71.746Z0F800
G1 X81.947Y71.254Z0F800
G1 X82.372Y70.503Z0F800
G1 X82.761Y69.733Z0F800
G1 X83.115Y68.937Z0F800
G1 X83.328Y68.338Z0F800
G1 X83.486Y67.719Z0F800
G1 X83.586Y67.088Z0F800
G1 X83.627Y66.453Z0F800
G1 X83.62Y65.982Z0F800
G1 X83.572Y65.513Z0F800
G1 X83.483Y65.049Z0F800
G1 X83.344Y64.555Z0F800
G1 X83.191Y64.271Z0F800
G1 X82.937Y63.974Z0F800
G1 X82.563Y63.806Z0F800
G1 X82.261Y63.717Z0F800
G1 X81.95Y63.67Z0F800
G1 X81.664Y63.667Z0F800
G1 X81.531Y63.67Z0F800
G1 X81.57Y63.485Z0F800
G1 X81.778Y63.479Z0F800
G1 X82.066Y63.493Z0F800
G1 X82.359Y63.528Z0F800
G1 X82.653Y63.586Z0F800
G1 X82.816Y63.631Z0F800
G1 X82.958Y63.692Z0F800
G1 X83.089Y63.771Z0F800
G1 X83.21Y63.867Z0F800
G1 X83.314Y63.975Z0F800
G1 X83.404Y64.097Z0F800
G1 X83.477Y64.23Z0F800
G1 X83.539Y64.394Z0F800
G1 X83.695Y64.952Z0F800
G1 X83.797Y65.519Z0F800
G1 X83.846Y66.098Z0F800
G1 X83.84Y66.675Z0F800
G1 X83.781Y67.243Z0F800
G1 X83.667Y67.813Z0F800
G1 X83.501Y68.365Z0F800
G1 X83.274Y68.922Z0F800
G1 X82.962Y69.586Z0F800
G1 X82.628Y70.229Z0F800
G1 X82.253Y70.884Z0F800
G1 X81.712Y71.748Z0F800
G1 X82.798Y75.442Z0F800
G1 X83.647Y78.42Z0F800
G1 X83.21Y78.647Z0F800
G1 X83.129Y78.632Z0F800
G1 X79.035Z0F800
G1 Y59.67Z0F800
G1 X79.328Z0F800
G1 Y78.361Z0F800
G0 Z3F500
G0 X78.435Y79.232Z2F1000
G1 Z0F500
G1 Y59.07Z0F800
G1 X79.928Z0F800
G1 Y77.761Z0F800
G1 X82.573Z0F800
G1 X82.506Y77.469Z0F800
G1 X82.154Y76.007Z0F800
G1 X81.783Y74.55Z0F800
G1 X81.394Y73.098Z0F800
G1 X80.986Y71.651Z0F800
G1 X81.432Y70.946Z0F800
G1 X81.843Y70.22Z0F800
G1 X82.218Y69.476Z0F800
G1 X82.557Y68.713Z0F800
G1 X82.753Y68.163Z0F800
G1 X82.897Y67.598Z0F800
G1 X82.989Y67.021Z0F800
G1 X83.027Y66.438Z0F800
G1 X83.021Y66.018Z0F800
G1 X82.978Y65.6Z0F800
G1 X82.899Y65.187Z0F800
G1 X82.785Y64.781Z0F800
G1 X82.693Y64.612Z0F800
G1 X82.568Y64.466Z0F800
G1 X82.355Y64.37Z0F800
G1 X82.132Y64.305Z0F800
G1 X81.901Y64.27Z0F800
G1 X81.667Y64.267Z0F800
G1 X81.164Y64.279Z0F800
G1 X80.663Y64.329Z0F800
G1 X80.74Y64.172Z0F800
G1 X80.853Y63.864Z0F800
G1 X80.943Y63.55Z0F800
G1 X81.01Y63.229Z0F800
G1 X81.054Y62.905Z0F800
G1 X81.444Y62.889Z0F800
G1 X81.783Y62.879Z0F800
G1 X82.12Y62.895Z0F800
G1 X82.455Y62.936Z0F800
G1 X82.787Y63.001Z0F800
G1 X83.016Y63.064Z0F800
G1 X83.232Y63.157Z0F800
G1 X83.431Y63.276Z0F800
G1 X83.613Y63.42Z0F800
G1 X83.773Y63.587Z0F800
G1 X83.911Y63.774Z0F800
G1 X84.023Y63.98Z0F800
G1 X84.108Y64.202Z0F800
G1 X84.281Y64.818Z0F800
G1 X84.394Y65.444Z0F800
G1 X84.446Y66.075Z0F800
G1 X84.44Y66.707Z0F800
G1 X84.375Y67.335Z0F800
G1 X84.25Y67.957Z0F800
G1 X84.067Y68.565Z0F800
G1 X83.826Y69.158Z0F800
G1 X83.501Y69.85Z0F800
G1 X83.149Y70.527Z0F800
G1 X82.77Y71.19Z0F800
G1 X82.364Y71.838Z0F800
G1 X83.375Y75.278Z0F800
G1 X84.358Y78.726Z0F800
G1 X83.304Y79.275Z0F800
G1 X83.074Y79.232Z0F800
G1 X78.435Z0F800
G0 Z3F500
G0 X103.278Y77.411Z2F1000
G1 Z0F500
G1 X102.958Z0F800
G1 X103.029Y77.205Z0F800
G1 X103.278Y77.411Z0F800
G0 Z3F500
G0 X103.941Y78.054Z2F1000
G1 Z0F500
G1 X103.756Y78.011Z0F800
G1 X89.454Z0F800
G1 Y77.489Z0F800
G1 X102.295Z0F800
G1 X102.576Y76.684Z0F800
G1 X101.094Y75.51Z0F800
G1 X99.894Y74.648Z0F800
G1 X98.654Y73.846Z0F800
G1 X97.249Y73.028Z0F800
G1 X96.618Z0F800
G1 Y69.329Z0F800
G1 X87.068Z0F800
G1 Y68.808Z0F800
G1 X96.618Z0F800
G1 Y61.319Z0F800
G1 X96.622Y61.158Z0F800
G1 X96.579Y60.924Z0F800
G1 X96.487Y60.702Z0F800
G1 X96.291Y60.417Z0F800
G1 X95.834Y60.211Z0F800
G1 X95.451Y60.145Z0F800
G1 X93.361Y60.154Z0F800
G1 X92.309Y60.174Z0F800
G1 X92.375Y60.017Z0F800
G1 X92.519Y59.619Z0F800
G1 X93.33Y59.611Z0F800
G1 X94.15Y59.633Z0F800
G1 X94.968Y59.685Z0F800
G1 X95.795Y59.769Z0F800
G1 X96.089Y59.817Z0F800
G1 X96.363Y59.892Z0F800
G1 X96.629Y59.996Z0F800
G1 X96.834Y60.103Z0F800
G1 X96.958Y60.22Z0F800
G1 X97.066Y60.379Z0F800
G1 X97.138Y60.556Z0F800
G1 X97.179Y60.788Z0F800
G1 X97.204Y61.041Z0F800
G1 X97.211Y61.298Z0F800
G1 Y68.808Z0F800
G1 X106.715Z0F800
G1 Y69.329Z0F800
G1 X97.211Z0F800
G1 Y72.568Z0F800
G1 X97.755Y72.859Z0F800
G1 X98.659Y73.376Z0F800
G1 X99.523Y73.904Z0F800
G1 X100.401Y74.476Z0F800
G1 X101.24Y75.058Z0F800
G1 X102.069Y75.668Z0F800
G1 X102.888Y76.308Z0F800
G1 X103.673Y76.959Z0F800
G1 X104.441Y77.633Z0F800
G1 X104.466Y77.658Z0F800
G1 X103.941Y78.054Z0F800
G0 Z3F500
G0 X103.688Y78.611Z2F1000
G1 Z0F500
G1 X88.854Z0F800
G1 Y76.889Z0F800
G1 X101.869Z0F800
G1 X100.733Y75.989Z0F800
G1 X99.556Y75.144Z0F800
G1 X98.34Y74.357Z0F800
G1 X97.087Y73.628Z0F800
G1 X96.018Z0F800
G1 Y69.929Z0F800
G1 X86.468Z0F800
G1 Y68.208Z0F800
G1 X96.018Z0F800
G1 Y61.319Z0F800
G1 X96.021Y61.205Z0F800
G1 X96Y61.094Z0F800
G1 X95.957Y60.99Z0F800
G1 X95.892Y60.896Z0F800
G1 X95.656Y60.79Z0F800
G1 X95.401Y60.745Z0F800
G1 X93.368Y60.754Z0F800
G1 X91.336Y60.792Z0F800
G1 X91.476Y60.536Z0F800
G1 X91.657Y60.171Z0F800
G1 X91.817Y59.797Z0F800
G1 X91.955Y59.414Z0F800
G1 X92.071Y59.023Z0F800
G1 X93.327Y59.011Z0F800
G1 X94.177Y59.034Z0F800
G1 X95.026Y59.088Z0F800
G1 X95.873Y59.173Z0F800
G1 X96.217Y59.229Z0F800
G1 X96.553Y59.322Z0F800
G1 X96.877Y59.448Z0F800
G1 X97.187Y59.609Z0F800
G1 X97.419Y59.831Z0F800
G1 X97.598Y60.094Z0F800
G1 X97.718Y60.389Z0F800
G1 X97.774Y60.705Z0F800
G1 X97.803Y61.001Z0F800
G1 X97.812Y61.298Z0F800
G1 Y68.208Z0F800
G1 X107.315Z0F800
G1 Y69.929Z0F800
G1 X97.812Z0F800
G1 Y72.208Z0F800
G1 X98.047Y72.334Z0F800
G1 X98.957Y72.855Z0F800
G1 X99.851Y73.401Z0F800
G1 X100.729Y73.973Z0F800
G1 X101.589Y74.569Z0F800
G1 X102.432Y75.19Z0F800
G1 X103.257Y75.835Z0F800
G1 X104.063Y76.503Z0F800
G1 X104.851Y77.195Z0F800
G1 X105.388Y77.714Z0F800
G1 X104.079Y78.701Z0F800
G1 X103.688Y78.611Z0F800
G0 Z3F500
G0 X83.27Y51.807Z2F1000
G1 Z0F500
G1 X83.12Y51.937Z0F800
G1 X76.25Z0F800
G1 X76.101Y51.807Z0F800
G1 X76.25Y51.677Z0F800
G1 X83.12Z0F800
G1 X83.27Y51.807Z0F800
G0 Z3F500
G0 X83.343Y52.537Z2F1000
G1 Z0F500
G1 X76.027Z0F800
G1 X75.184Y51.807Z0F800
G1 X76.027Y51.077Z0F800
G1 X83.343Z0F800
G1 X84.186Y51.807Z0F800
G1 X83.343Y52.537Z0F800
G0 Z3F500
G0 X83.567Y53.137Z2F1000
G1 Z0F500
G1 X75.803Z0F800
G1 X74.267Y51.807Z0F800
G1 X75.803Y50.477Z0F800
G1 X83.567Z0F800
G1 X85.103Y51.807Z0F800
G1 X83.567Y53.137Z0F800
G0 Z3F500
G0 X83.79Y53.737Z2F1000
G1 Z0F500
G1 X75.58Z0F800
G1 X73.352Y51.807Z0F800
G1 X75.58Y49.876Z0F800
G1 X83.79Z0F800
G1 X86.019Y51.807Z0F800
G1 X83.79Y53.737Z0F800
G0 Z3F500
G0 X84.014Y54.337Z2F1000
G1 Z0F500
G1 X75.356Z0F800
G1 X72.435Y51.807Z0F800
G1 X75.356Y49.276Z0F800
G1 X84.014Z0F800
G1 X86.936Y51.807Z0F800
G1 X84.014Y54.337Z0F800
G0 Z3F500
G0 X84.238Y54.937Z2F1000
G1 Z0F500
G1 X75.132Z0F800
G1 X71.518Y51.807Z0F800
G1 X75.132Y48.677Z0F800
G1 X84.238Z0F800
G1 X87.852Y51.807Z0F800
G1 X84.238Y54.937Z0F800
G0 Z3F500
G0 X84.461Y55.537Z2F1000
G1 Z0F500
G1 X74.909Z0F800
G1 X70.602Y51.807Z0F800
G1 X74.909Y48.077Z0F800
G1 X84.461Z0F800
G1 X88.769Y51.807Z0F800
G1 X84.461Y55.537Z0F800
G0 Z3F500
G0 X84.685Y56.137Z2F1000
G1 Z0F500
G1 X74.685Z0F800
G1 X69.685Y51.807Z0F800
G1 X74.685Y47.477Z0F800
G1 X84.685Z0F800
G1 X89.685Y51.807Z0F800
G1 X84.685Y56.137Z0F800
;Cut @ 15 mm/sec, 80% power

M8
G0 Z3F500
G0 X35Y54Z2F1000
G1 Z0F500
;Layer C03
G1 X33Y45Z0F800
G1 X14Y57Z0F800
M5
G1 Z5F500
M9
G90
M2
