;FLAVOR:Marlin
;TIME:6666
;Filament used: 0m
;Layer height: 1
;MINX:2.14748e+06
;MINY:2.14748e+06
;MINZ:2.14748e+06
;MAXX:-2.14748e+06
;MAXY:-2.14748e+06
;MAXZ:-2.14748e+06

;Generated with Cura_SteamEngine 4.13.0
M104 S200
M105
M109 S200
M82 ;absolute extrusion mode
G28 ;Home
G1 Z15.0 F6000 ;Move the platform down 15mm
;Prime the extruder
G92 E0
G1 F200 E3
G92 E0
G92 E0
G92 E0
G1 F1500 E-6.5
;LAYER_COUNT:1
;LAYER:0
M107
G1 F600 Z6
;MESH:threshold_yellow.stl
G0 F3600 X57.909 Y79.97 Z6
;TYPE:SKIN
G1 F600 Z1
G1 F1500 E0
G1 F1800 X57.943 Y80.004 E122.44302
G0 F3600 X58.255 Y80.034
G1 F1800 X58.555 Y80.051 E1176.77513
G1 X59.549 Y79.914 E4697.50492
G1 X60.503 Y80.019 E8065.12485
G1 F1500 E8058.62485
G1 F600 Z6
G0 F3600 X110.167 Y138.52 Z6
;TYPE:FILL
G1 F600 Z1
G1 F1500 E8065.12485
G1 F1800 X111.708 Y138.52 E15913.3734
G0 F3600 X111.829 Y139.02
G1 F1800 X110.938 Y139.02 E20451.19914
G1 X110.898 Y139.02
G1 F1500 E20444.69914
G1 F600 Z6
G0 F3600 X49.886 Y104.52 Z6
G1 F600 Z1
G1 F1500 E20451.19914
G1 F1800 X49.276 Y104.52 E23557.90363
G0 F3600 X48.973 Y104.02
G1 F1800 X49.814 Y104.02 E27841.08146
G0 F3600 X49.442 Y103.52
G1 F1800 X48.818 Y103.52 E31019.08736
G1 F1500 E31012.58736
G1 F600 Z6
G0 F3600 X42.657 Y104.52 Z6
G1 F600 Z1
G1 F1500 E31019.08736
G1 F1800 X40.442 Y104.52 E42299.98973
G0 F3600 X39.914 Y105.02
G1 F1800 X42.449 Y105.02 E55210.63871
G1 X42.489 Y105.02
G0 F3600 X42.075 Y104.02
G1 F1800 X41.913 Y104.02 E56035.69793
G0 F3600 X42.136 Y104.079
;TYPE:SKIN
G1 F1800 X42.258 Y103.917 E56844.48726
G1 X42.445 Y103.822 E57680.98225
G0 F3600 X42.825 Y103.919
G1 F1800 X42.353 Y103.447 E59380.77945
G0 F3600 X42.106 Y103.2
G1 F1800 X41.86 Y103.237 E60214.38136
G1 X41.393 Y103.335 E61813.3533
G0 F3600 X42.545 Y103.356
G1 F1800 X42.656 Y103.184 E63106.338
G1 F1500 E63099.838
G1 F600 Z6
G0 F3600 X117.761 Y83.02 Z6
;TYPE:FILL
G1 F600 Z1
G1 F1500 E63106.338
G1 F1800 X118.184 Y83.02 E65260.65931
G0 F3600 X118.124 Y82.52
G1 F1800 X117.874 Y82.52 E66533.89885
G1 F1500 E66527.39885
G1 F600 Z6
G0 F3600 X165.62 Y97.52 Z6
G1 F600 Z1
G1 F1500 E66533.89885
G1 F1800 X166.521 Y97.52 E71122.65417
G1 X166.561 Y97.52
G1 F1500 E71116.15417
G1 F600 Z6
G0 F3600 X193.259 Y99.02 Z6
G1 F600 Z1
G1 F1500 E71122.65417
G1 F1800 X193.652 Y99.02 E73124.18673
G1 F1500 E73117.68673
G1 F600 Z6
G0 F3600 X194.448 Y101.02 Z6
G1 F600 Z1
G1 F1500 E73124.18673
G1 F1800 X195.439 Y101.02 E78171.30829
G0 F3600 X195.361 Y101.52
G1 F1800 X194.807 Y101.52 E80992.80712
G0 F3600 X194.123 Y102.02
G1 F1800 X193.514 Y102.02 E84094.41865
G0 F3600 X193.693 Y102.52
G1 F1800 X193.911 Y102.52 E85204.68353
G1 F1500 E85198.18353
G1 F600 Z6
G0 F3600 X194.356 Y106.52 Z6
G1 F600 Z1
G1 F1500 E85204.68353
G1 F1800 X195 Y106.52 E88484.5486
G1 F1500 E88478.0486
G1 F600 Z6
G0 F3600 X195.018 Y110.52 Z6
G1 F600 Z1
G1 F1500 E88484.5486
G1 F1800 X194.793 Y110.52 E89630.46419
G0 F3600 X195.068 Y111.02
G1 F1800 X194.423 Y111.02 E92915.42222
G1 F1500 E92908.92222
G1 F600 Z6
G0 F3600 X194.272 Y121.02 Z6
G1 F600 Z1
G1 F1500 E92915.42222
G1 F1800 X193.206 Y121.02 E98344.51564
G0 F3600 X193.494 Y121.52
G1 F1800 X194.287 Y121.52 E102383.23147
G1 F1500 E102376.73147
G1 F600 Z6
G0 F3600 X195.519 Y126.02 Z6
G1 F600 Z1
G1 F1500 E102383.23147
G1 F1800 X186.624 Y126.02 E147685.09447
G0 F3600 X186.829 Y125.52
G1 F1800 X187.848 Y125.52 E152874.81886
G1 X187.888 Y125.52
G1 F1500 E152868.31886
G1 F600 Z6
G0 F3600 X186.117 Y126.52 Z6
G1 F600 Z1
G1 F1500 E152874.81886
G1 F1800 X196.923 Y126.52 E207909.32494
G0 F3600 X196.634 Y127.02
G1 F1800 X191.179 Y127.02 E235691.41181
G0 F3600 X190.804 Y127.02
G1 F1800 X185.726 Y127.02 E261553.45344
G0 F3600 X185.717 Y127.52
G1 F1800 X189.489 Y127.52 E280764.09169
G1 X189.529 Y127.52
G1 F1500 E280757.59169
G1 F600 Z6
G0 F3600 X192.93 Y127.52 Z6
G1 F600 Z1
G1 F1500 E280764.09169
G1 F1800 X196.512 Y127.52 E299007.06789
G1 X196.552 Y127.52
G1 F1500 E299000.56789
G1 F600 Z6
G0 F3600 X204.433 Y128.02 Z6
G1 F600 Z1
G1 F1500 E299007.06789
G1 F1800 X206.314 Y128.02 E308586.92222
G0 F3600 X205.963 Y128.52
G1 F1800 X205.027 Y128.52 E313353.93108
G1 X204.987 Y128.52
G0 F3600 X204.333 Y127.966
;TYPE:SKIN
G1 F1800 X204.086 Y128.002 E314584.92651
G1 X202.609 Y128.221 E321948.65482
G1 X202.152 Y128.33 E324265.6529
G1 F1500 E324259.1529
G1 F600 Z6
G0 F3600 X204.413 Y127.762 Z6
G1 F600 Z1
G1 F1500 E324265.6529
G1 F1800 X204.477 Y127.827 E324497.94148
G1 F1500 E324491.44148
G1 F600 Z6
G0 F3600 X204.707 Y133.02 Z6
;TYPE:FILL
G1 F600 Z1
G1 F1500 E324497.94148
G1 F1800 X203.978 Y133.02 E328210.708
G0 F3600 X203.746 Y133.52
G1 F1800 X206.063 Y133.52 E340011.0921
G1 X206.103 Y133.52
G1 F1500 E340004.5921
G1 F600 Z6
G0 F3600 X206.446 Y136.018 Z6
;TYPE:SKIN
G1 F600 Z1
G1 F1500 E340011.0921
G1 F1800 X206.739 Y136.028 E340883.94747
G1 X206.995 Y136.002 E341650.05588
G1 X207.747 Y136.188 E343956.45089
G1 X208.791 Y136.1 E347075.76961
G1 X209.082 Y136.108 E347942.48981
G1 F1500 E347935.98981
G1 F600 Z6
G0 F3600 X206.147 Y136.002 Z6
G1 F600 Z1
G1 F1500 E347942.48981
G1 F1800 X205.936 Y136.074 E348741.36096
G1 X204.886 Y136.155 E352514.94839
G1 X203.469 Y136.153 E357592.4139
G1 F1500 E357585.9139
G1 F600 Z6
G0 F3600 X194.124 Y132.02 Z6
;TYPE:FILL
G1 F600 Z1
G1 F1500 E357592.4139
G1 F1800 X193.208 Y132.02 E362257.56359
G1 X193.168 Y132.02
G1 F1500 E362251.06359
G1 F600 Z6
G0 F3600 X235.479 Y133.52 Z6
G1 F600 Z1
G1 F1500 E362257.56359
G1 F1800 X237.187 Y133.52 E370956.33616
G1 X237.373 Y133.52
G1 X258.035 Y133.52 E476187.03805
G0 F3600 X258.027 Y133.02
G1 F1800 X238.239 Y133.02 E576966.4945
G0 F3600 X238.048 Y132.52
G1 F1800 X259.265 Y132.52 E685023.78818
G0 F3600 X259.717 Y132.02
G1 F1800 X239.706 Y132.02 E786938.9743
G0 F3600 X239.653 Y131.52
G1 F1800 X256.744 Y131.52 E873982.72254
G0 F3600 X257.188 Y131.52
G1 F1800 X258.306 Y131.52 E879676.64978
G1 X258.346 Y131.52
G1 F1500 E879670.14978
G1 F600 Z6
G0 F3600 X257.089 Y134.02 Z6
G1 F600 Z1
G1 F1500 E879676.64978
G1 F1800 X245.52 Y134.02 E938597.08295
G1 X245.48 Y134.02
G0 F3600 X244.255 Y134.02
G1 F1800 X239.602 Y134.02 E962294.61736
G1 X239.562 Y134.02
G0 F3600 X238.6 Y134.02
G1 F1800 X237.719 Y134.02 E966781.51351
G0 F3600 X236.932 Y134.02
G1 F1800 X236.046 Y134.02 E971293.87446
G0 F3600 X235.721 Y134.02
G1 F1800 X235.602 Y134.02 E971899.93648
G1 F1500 E971893.43648
G1 F600 Z6
G0 F3600 X236.887 Y131.02 Z6
G1 F600 Z1
G1 F1500 E971899.93648
G1 F1800 X255.043 Y131.02 E1064367.68518
G0 F3600 X255.546 Y130.52
G1 F1800 X238.633 Y130.52 E1150504.88686
G0 F3600 X238.251 Y130.02
G1 F1800 X255.527 Y130.02 E1238490.83236
G0 F3600 X255.354 Y129.52
G1 F1800 X240.87 Y129.52 E1312257.23862
G1 X240.83 Y129.52
G1 F1500 E1312250.73862
G1 F600 Z6
G0 F3600 X241.627 Y127.52 Z6
G1 F600 Z1
G1 F1500 E1312257.23862
G1 F1800 X241.844 Y127.52 E1313362.41055
G0 F3600 X241.345 Y127.02
G1 F1800 X254.866 Y127.02 E1382224.29809
G0 F3600 X255.091 Y126.52
G1 F1800 X241.714 Y126.52 E1450352.79965
G1 X241.674 Y126.52
G1 F1500 E1450346.29965
G1 F600 Z6
G0 F3600 X242.885 Y127.52 Z6
G1 F600 Z1
G1 F1500 E1450352.79965
G1 F1800 X255.706 Y127.52 E1515649.61646
G0 F3600 X255.731 Y128.02
G1 F1800 X243.701 Y128.02 E1576917.90335
G1 X243.661 Y128.02
G0 F3600 X243.957 Y129.02
G1 F1800 X255.384 Y129.02 E1635115.13646
G0 F3600 X255.934 Y128.52
G1 F1800 X245.107 Y128.52 E1690256.59467
G1 X245.067 Y128.52
G1 F1500 E1690250.09467
G1 F600 Z6
G0 F3600 X247.119 Y124.02 Z6
G1 F600 Z1
G1 F1500 E1690256.59467
G1 F1800 X241.124 Y124.02 E1720788.87895
G0 F3600 X240.528 Y123.52
G1 F1800 X248.386 Y123.52 E1760809.34432
G1 X248.426 Y123.52
G0 F3600 X249.618 Y123.52
G1 F1800 X249.703 Y123.52 E1761242.24576
G0 F3600 X250.116 Y123.52
G1 F1800 X254.905 Y123.52 E1785632.42248
G1 X254.945 Y123.52
G0 F3600 X255.926 Y123.02
G1 F1800 X240.282 Y123.02 E1865306.66023
G0 F3600 X240.69 Y122.52
G1 F1800 X255.451 Y122.52 E1940483.81591
G0 F3600 X255.417 Y122.02
G1 F1800 X255.003 Y122.02 E1942592.3006
G0 F3600 X254.091 Y122.02
G1 F1800 X242.223 Y122.02 E2003035.52827
G0 F3600 X242.149 Y121.52
G1 F1800 X253.935 Y121.52 E2063061.13336
G0 F3600 X254.182 Y121.02
G1 F1800 X240.673 Y121.02 E2131861.9054
G0 F3600 X240.837 Y121.52
G1 F1800 X241.34 Y121.52 E2134423.66337
G0 F3600 X241.176 Y120.52
G1 F1800 X242.322 Y120.52 E2140260.19344
G0 F3600 X242.638 Y120.52
G1 F1800 X254.435 Y120.52 E2200341.82108
G0 F3600 X254.239 Y120.02
G1 F1800 X244.269 Y120.02 E2251118.61412
G0 F3600 X243.722 Y119.52
G1 F1800 X256.001 Y119.52 E2313655.0476
G1 X256.041 Y119.52
G0 F3600 X255.098 Y119.02
G1 F1800 X242.476 Y119.02 E2377938.36574
G0 F3600 X242.418 Y118.52
G1 F1800 X254.372 Y118.52 E2438819.58781
G1 X254.412 Y118.52
G0 F3600 X253.289 Y118.02
G1 F1800 X242.563 Y118.02 E2493446.65723
G1 X242.523 Y118.02
G0 F3600 X243.475 Y117.52
G1 F1800 X249.622 Y117.52 E2524753.07116
G1 X249.662 Y117.52
G0 F3600 X250.439 Y117.52
G1 F1800 X253.376 Y117.52 E2539711.08933
G0 F3600 X253.079 Y117.02
G1 F1800 X244.326 Y117.02 E2584289.75227
G0 F3600 X243.958 Y117.02
G1 F1800 X242.062 Y117.02 E2593946.00098
G1 X242.022 Y117.02
G0 F3600 X243.285 Y116.52
G1 F1800 X243.689 Y116.52 E2596003.55608
G0 F3600 X244.514 Y116.52
G1 F1800 X252.489 Y116.52 E2636619.89756
G1 X252.529 Y116.52
G0 F3600 X253.523 Y116.52
G1 F1800 X253.924 Y116.52 E2638662.17379
G0 F3600 X254.566 Y116.02
G1 F1800 X249.099 Y116.02 E2666505.37615
G0 F3600 X249.702 Y115.52
G1 F1800 X254.145 Y115.52 E2689133.38934
G0 F3600 X254.3 Y115.02
G1 F1800 X251.218 Y115.02 E2704829.88645
G0 F3600 X250.464 Y115.02
G1 F1800 X249.487 Y115.02 E2709805.70659
G0 F3600 X248.93 Y115.02
G1 F1800 X247.133 Y115.02 E2718957.75244
G1 X247.093 Y115.02
G0 F3600 X248.002 Y114.52
G1 F1800 X254.009 Y114.52 E2749551.15222
G1 X254.049 Y114.52
G0 F3600 X253.154 Y114.02
G1 F1800 X250.708 Y114.02 E2762008.52793
G0 F3600 X250.974 Y113.52
G1 F1800 X253.298 Y113.52 E2773844.56273
G0 F3600 X253.513 Y113.02
G1 F1800 X245.953 Y113.02 E2812347.32657
G0 F3600 X246.257 Y113.52
G1 F1800 X246.683 Y113.52 E2814516.92675
G0 F3600 X246.324 Y112.52
G1 F1800 X253.786 Y112.52 E2852520.58068
G1 X253.826 Y112.52
G1 F1500 E2852514.08068
G1 F600 Z6
G0 F3600 X252.219 Y112.02 Z6
G1 F600 Z1
G1 F1500 E2852520.58068
G1 F1800 X246.558 Y112.02 E2881351.81693
G0 F3600 X246.115 Y111.52
G1 F1800 X251.187 Y111.52 E2907183.30082
G1 X251.227 Y111.52
G1 F1500 E2907176.80082
G1 F600 Z6
G0 F3600 X249.928 Y110.02 Z6
G1 F600 Z1
G1 F1500 E2907183.30082
G1 F1800 X249.334 Y110.02 E2910208.51797
G0 F3600 X248.936 Y109.52
G1 F1800 X250.048 Y109.52 E2915871.88747
G1 X250.088 Y109.52
G1 F1500 E2915865.38747
G1 F600 Z6
G0 F3600 X246.272 Y109.52 Z6
G1 F600 Z1
G1 F1500 E2915871.88747
G1 F1800 X243.259 Y109.52 E2931216.97046
G0 F3600 X242.934 Y110.02
G1 F1800 X243.736 Y110.02 E2935301.52292
G1 X243.776 Y110.02
G1 F1500 E2935295.02292
G1 F600 Z6
G0 F3600 X245.557 Y110.02 Z6
G1 F600 Z1
G1 F1500 E2935301.52292
G1 F1800 X246.161 Y110.02 E2938377.66966
G1 F1500 E2938371.16966
G1 F600 Z6
G0 F3600 X247.77 Y113.52 Z6
G1 F600 Z1
G1 F1500 E2938377.66966
G1 F1800 X248.558 Y113.52 E2942390.92071
G0 F3600 X249.244 Y113.52
G1 F1800 X249.74 Y113.52 E2944917.02796
G0 F3600 X249.801 Y114.02
G1 F1800 X249.319 Y114.02 E2947371.83381
G1 F1500 E2947365.33381
G1 F600 Z6
G0 F3600 X248.381 Y115.52 Z6
G1 F600 Z1
G1 F1500 E2947371.83381
G1 F1800 X248.142 Y115.52 E2948589.05081
G1 F1500 E2948582.55081
G1 F600 Z6
G0 F3600 X246.079 Y116.02 Z6
G1 F600 Z1
G1 F1500 E2948589.05081
G1 F1800 X244.547 Y116.02 E2956391.46274
G1 X244.507 Y116.02
G1 F1500 E2956384.96274
G1 F600 Z6
G0 F3600 X241.129 Y120.52 Z6
G1 F600 Z1
G1 F1500 E2956391.46274
G1 F1800 X241.014 Y120.52 E2956977.15293
G1 F1500 E2956970.65293
G1 F600 Z6
G0 F3600 X237.341 Y124.52 Z6
G1 F600 Z1
G1 F1500 E2956977.15293
G1 F1800 X249.667 Y124.52 E3019752.95545
G1 X249.707 Y124.52
G1 F1500 E3019746.45545
G1 F600 Z6
G0 F3600 X252.114 Y125.02 Z6
G1 F600 Z1
G1 F1500 E3019752.95545
G1 F1800 X237.759 Y125.02 E3092862.3701
G0 F3600 X237.428 Y125.52
G1 F1800 X253.99 Y125.52 E3177211.94346
G0 F3600 X253.986 Y126.02
G1 F1800 X239.924 Y126.02 E3248829.12138
G1 X239.884 Y126.02
G1 F1500 E3248822.62138
G1 F600 Z6
G0 F3600 X238.499 Y131.52 Z6
G1 F600 Z1
G1 F1500 E3248829.12138
G1 F1800 X238.017 Y131.52 E3251283.92722
G1 F1500 E3251277.42722
G1 F600 Z6
G0 F3600 X255.781 Y134.52 Z6
G1 F600 Z1
G1 F1500 E3251283.92722
G1 F1800 X257.161 Y134.52 E3258312.2095
G1 X257.201 Y134.52
G1 F1500 E3258305.7095
G1 F600 Z6
G0 F3600 X235.219 Y133.678 Z6
;TYPE:SKIN
G1 F600 Z1
G1 F1500 E3258312.2095
G1 F1800 X234.982 Y133.724 E3259107.91082
G1 X234.467 Y133.775 E3260813.59273
G1 X233.529 Y133.686 E3263919.01516
G1 X232.481 Y133.769 E3267383.91542
G1 X232.302 Y133.873 E3268066.22672
G1 X232.047 Y133.618 E3269254.80243
G1 F1500 E3269248.30243
G1 F600 Z6
G0 F3600 X235.19 Y124.599 Z6
G1 F600 Z1
G1 F1500 E3269254.80243
G1 F1800 X235.457 Y124.583 E3270026.72778
G1 X237.118 Y124.546 E3274821.44516
G1 X237.308 Y124.453 E3275431.93344
G1 F1500 E3275425.43344
G1 F600 Z6
G0 F3600 X247.209 Y109.465 Z6
G1 F600 Z1
G1 F1500 E3275431.93344
G1 F1800 X247.472 Y109.445 E3276312.91943
G1 X248.533 Y109.374 E3279864.70488
G1 X249.018 Y109.293 E3281507.09641
G1 F1500 E3281500.59641
G1 F600 Z6
G0 F3600 X244.158 Y113.02 Z6
;TYPE:FILL
G1 F600 Z1
G1 F1500 E3281507.09641
G1 F1800 X243.08 Y113.02 E3286997.30533
G0 F3600 X242.932 Y112.52
G1 F1800 X243.986 Y112.52 E3292365.28325
G0 F3600 X243.732 Y112.02
G1 F1800 X242.613 Y112.02 E3298064.30345
G1 X242.573 Y112.02
G1 F1500 E3298057.80345
G1 F600 Z6
G0 F3600 X242.577 Y113.52 Z6
G1 F600 Z1
G1 F1500 E3298064.30345
G1 F1800 X243.346 Y113.52 E3301980.78829
G1 F1500 E3301974.28829
G1 F600 Z6
G0 F3600 X247.197 Y107.02 Z6
G1 F600 Z1
G1 F1500 E3301980.78829
G1 F1800 X248.328 Y107.02 E3307740.92399
G1 X248.368 Y107.02
G0 F3600 X247.751 Y106.02
G1 F1800 X246.297 Y106.02 E3315146.08518
G0 F3600 X246.775 Y106.52
G1 F1800 X249.686 Y106.52 E3329971.68644
G1 X249.726 Y106.52
G1 F1500 E3329965.18644
G1 F600 Z6
G0 F3600 X252.165 Y105.52 Z6
G1 F600 Z1
G1 F1500 E3329971.68644
G1 F1800 X253.042 Y105.52 E3334438.21077
G1 X253.082 Y105.52
G0 F3600 X252.44 Y105.928
;TYPE:SKIN
G1 F1800 X252.366 Y106.136 E3334957.35577
G1 X252.052 Y106.388 E3335904.11037
G1 X249.838 Y106.437 E3341111.61746
G1 X249.679 Y106.561 E3341585.76508
G1 F1500 E3341579.26508
G1 F600 Z6
G0 F3600 X245.501 Y99.52 Z6
;TYPE:FILL
G1 F600 Z1
G1 F1500 E3341585.76508
G1 F1800 X244.824 Y99.52 E3345033.69777
G0 F3600 X243.871 Y99.02
G1 F1800 X243.079 Y99.02 E3349067.32065
G1 F1500 E3349060.82065
G1 F600 Z6
G0 F3600 X247.155 Y91.02 Z6
G1 F600 Z1
G1 F1500 E3349067.32065
G1 F1800 X253.711 Y91.02 E3382456.75447
G0 F3600 X253.471 Y91.52
G1 F1800 X252.275 Y91.52 E3388547.93245
G1 X252.235 Y91.52
G0 F3600 X253.103 Y92.02
G1 F1800 X253.399 Y92.02 E3390055.44807
G1 F1500 E3390048.94807
G1 F600 Z6
G0 F3600 X252.835 Y90.52 Z6
G1 F600 Z1
G1 F1500 E3390055.44807
G1 F1800 X250.529 Y90.52 E3401799.80963
G0 F3600 X250.29 Y90.52
G1 F1800 X248.81 Y90.52 E3409337.38774
G1 X248.77 Y90.52
G1 F1500 E3409330.88774
G1 F600 Z6
G0 F3600 X250.188 Y91.52 Z6
G1 F600 Z1
G1 F1500 E3409337.38774
G1 F1800 X251.066 Y91.52 E3413809.00502
G1 X251.106 Y91.52
G1 F1500 E3413802.50502
G1 F600 Z6
G0 F3600 X250.722 Y90.02 Z6
G1 F600 Z1
G1 F1500 E3413809.00502
G1 F1800 X252.086 Y90.02 E3420755.79998
G1 X252.126 Y90.02
G1 F1500 E3420749.29998
G1 F600 Z6
G0 F3600 X246.75 Y90.338 Z6
;TYPE:SKIN
G1 F600 Z1
G1 F1500 E3420755.79998
G1 F1800 X246.222 Y90.093 E3423967.03696
G1 X245.522 Y89.958 E3427900.02749
G1 F1500 E3427893.52749
G1 F600 Z6
G0 F3600 X247.094 Y100.02 Z6
;TYPE:FILL
G1 F600 Z1
G1 F1500 E3427900.02749
G1 F1800 X248.535 Y100.02 E3435238.98022
G0 F3600 X248.252 Y100.52
G1 F1800 X247.403 Y100.52 E3439562.90172
G0 F3600 X247.275 Y101.02
G1 F1800 X254.628 Y101.02 E3477011.42321
G0 F3600 X254.142 Y100.52
G1 F1800 X251.02 Y100.52 E3492911.63864
G0 F3600 X250.974 Y100.02
G1 F1800 X254.135 Y100.02 E3509010.47945
G0 F3600 X253.9 Y99.52
G1 F1800 X249.765 Y99.52 E3530069.86152
G1 X249.725 Y99.52
G0 F3600 X250.515 Y99.02
G1 F1800 X252.155 Y99.02 E3538422.31293
G0 F3600 X252.501 Y99.02
G1 F1800 X253.541 Y99.02 E3543718.98944
G1 X253.581 Y99.02
G0 F3600 X253.403 Y98.02
