
G0 Z10 F500;      ; Move to clearance level - Z motion limited to 500
; G0 X-10 Y-10 F1200; Homing
; G0 X-5 Y-5 F1200; go in
; G10 P0 L20 X0 Y0; set to zero
G1 F1200;           ; Set feed rate to 1000
;LightBurn 1.6.04
;Custom GCode device profile, absolute coords
;Bounds: X4.63 Y29.68 to X143.37 Y108.32
G00 G17 G40 G21 G54
G90
M3
G1 Z10 F1000
;Cut @ 1600 mm/min, 90% power

M8

; Washing sequence (no color)
G1 Z10 F1000;        ; Raise brush to safe height
G0 X5 Y5 F1200;     ; Rapid move to brush cleaning position
G1 Z-1 F800;         ; Lower brush for cleaning - controlled movement
G1 X10 Y12 Z8 F1200;     ; Rapid move to brush cleaning position
G1 Z-1 F800;         ; Lower brush for cleaning - controlled movement
G1 X25 Y14 Z6 F800;     ; Move across cleaning area - controlled movement
G1 Z8 F800;         ; Maintain brush height - controlled movement
G0 X5 Y5 F1200;     ; Rapid move to brush cleaning position
G1 Z-1 F800;         ; Lower brush for cleaning - controlled movement
G1 X15 Y12 Z8 F1200;     ; Rapid move to brush cleaning position
G1 Z-1 F800;         ; Lower brush for cleaning - controlled movement
G1 X25 Y14 Z6 F800;     ; Move across cleaning area - controlled movement
G1 Z10 F800;         ; Maintain brush height - controlled movement
G1 F1200;           ; Set feed rate to 1000

; Color picking sequence
G1 Z10 F1000;         ; Raise brush to safe height
G0 X131 Y5 F1200;    ; Rapid move to color 1 position
G1 Z0 F1000;         ; Lower into color - controlled movement
G1 X130.102Y7.295Z0S800F1200
G1 X130.026Y7.642Z0F1200
G1 X130Y8Z0F1200
G1 X130.026Y8.358Z0F1200
G1 X130.102Y8.705Z0F1200
G1 X130.225Y9.041Z0F1200
G1 X130.393Y9.362Z0F1200
G1 X130.603Y9.668Z0F1200
G1 X130.854Y9.957Z0F1200
G1 X131.142Y10.226Z0F1200
G1 X131.464Y10.475Z0F1200
G1 X131.82Y10.701Z0F1200
G1 X132.204Y10.902Z0F1200
G1 X132.617Y11.078Z0F1200
G1 X133.054Y11.225Z0F1200
G1 X133.513Y11.343Z0F1200
G1 X133.992Y11.429Z0F1200
G1 X134.489Y11.482Z0F1200
G1 X135Y11.5Z0F1200
G1 X135.511Y11.482Z0F1200
G1 X136.008Y11.429Z0F1200
G1 X136.487Y11.343Z0F1200
G1 X136.946Y11.225Z0F1200
G1 X137.383Y11.078Z0F1200
G1 X137.796Y10.902Z0F1200
G1 X138.18Y10.701Z0F1200
G1 X138.536Y10.475Z0F1200
G1 X138.858Y10.226Z0F1200
G1 X139.146Y9.957Z0F1200
G1 X139.397Y9.668Z0F1200
G1 X139.607Y9.362Z0F1200
G1 X139.775Y9.041Z0F1200
G1 X139.898Y8.705Z0F1200
G1 X139.974Y8.358Z0F1200
G1 X140Y8Z0F1200
G1 X139.974Y7.642Z0F1200
G1 X139.898Y7.295Z0F1200
G1 X139.775Y6.959Z0F1200
G1 X139.607Y6.638Z0F1200
G1 X139.397Y6.332Z0F1200
G1 X139.146Y6.043Z0F1200
G1 X138.858Y5.774Z0F1200
G1 X138.536Y5.525Z0F1200
G1 X138.18Y5.299Z0F1200
G1 X137.796Y5.098Z0F1200
G1 X137.383Y4.922Z0F1200
G1 X136.946Y4.775Z0F1200
G1 X136.487Y4.657Z0F1200
G1 X136.008Y4.571Z0F1200
G1 X135.511Y4.518Z0F1200
G1 X135Y4.5Z0F1200
G1 X134.489Y4.518Z0F1200
G1 X133.992Y4.571Z0F1200
G1 X133.513Y4.657Z0F1200
G1 X133.054Y4.775Z0F1200
G1 X132.617Y4.922Z0F1200
G1 X132.204Y5.098Z0F1200
G1 X131.82Y5.299Z0F1200
G1 X131.464Y5.525Z0F1200
G1 X131.142Y5.774Z0F1200
G1 X130.854Y6.043Z0F1200
G1 X130.603Y6.332Z0F1200
G1 X130.393Y6.638Z0F1200
G1 X130.225Y6.959Z0F1200
G1 Z7 F800;         ; Raise from color - controlled movement
G1 X124 Y8 Z1 F1200;     ; Movement in paint - controlled movement
G1 X114 Y18 Z8 F500;     ; Move in paint - controlled movement
G1 F1200;           ; Set feed rate to 1000
G0 Z4.8F1000
G0 X4.628Y29.769Z4.8
G1 Z0F1000
;Layer C3
G1 X48.679Y29.764Z0S900F1600
G1 X70.878Y29.767Z0F1600
G1 X72.266Z0F1600
G1 X72.439Y29.755Z0F1600
G1 X72.613Y29.752Z0F1600
G1 X72.786Z0F1600
G1 X73.133Y29.76Z0F1600
G1 X73.827Y29.769Z0F1600
G1 X75.561Z0F1600
G1 X75.734Y29.772Z0F1600
G1 X75.908Y29.783Z0F1600
G1 X76.081Y29.8Z0F1600
G1 X76.255Y29.811Z0F1600
G1 X76.428Y29.814Z0F1600
G1 X76.775Y29.83Z0F1600
G1 X76.948Y29.833Z0F1600
G1 X77.295Y29.814Z0F1600
G1 X77.642Y29.809Z0F1600
G1 X77.989Y29.8Z0F1600
G1 X78.162Y29.805Z0F1600
G1 X78.509Y29.809Z0F1600
G1 X78.683Y29.804Z0F1600
G1 X79.03Y29.811Z0F1600
G1 X79.203Y29.821Z0F1600
G1 X79.376Z0F1600
G1 X79.55Y29.811Z0F1600
G1 X79.723Y29.797Z0F1600
G1 X79.897Y29.79Z0F1600
G1 X80.07Y29.793Z0F1600
G1 X80.244Z0F1600
G1 X80.417Y29.786Z0F1600
G1 X80.59Y29.792Z0F1600
G1 X80.937Z0F1600
G1 X81.111Y29.785Z0F1600
G1 X81.284Y29.776Z0F1600
G1 X81.458Y29.772Z0F1600
G1 X108.166Y29.769Z0F1600
G1 X108.513Y29.766Z0F1600
G1 X108.86Y29.757Z0F1600
G1 X109.033Z0F1600
G1 X109.207Y29.753Z0F1600
G1 X109.553Y29.743Z0F1600
G1 X110.074Y29.715Z0F1600
G1 X110.247Y29.712Z0F1600
G1 X110.594Y29.701Z0F1600
G1 X110.767Y29.693Z0F1600
G1 X111.114Y29.684Z0F1600
G1 X111.288Y29.691Z0F1600
G1 X111.461Y29.682Z0F1600
G1 X111.808Y29.688Z0F1600
G1 X111.981Y29.698Z0F1600
G1 X112.328Y29.708Z0F1600
G1 X112.849Y29.741Z0F1600
G1 X113.542Y29.79Z0F1600
G1 X113.889Y29.811Z0F1600
G1 X114.409Y29.83Z0F1600
G1 X114.583Y29.844Z0F1600
G1 X114.756Y29.854Z0F1600
G1 X114.93Z0F1600
G1 X115.103Y29.861Z0F1600
G1 X115.277Z0F1600
G1 X115.623Y29.866Z0F1600
G1 X115.97Y29.857Z0F1600
G1 X116.664Y29.812Z0F1600
G1 X117.358Y29.745Z0F1600
G1 X117.705Y29.719Z0F1600
G1 X117.878Y29.712Z0F1600
G1 X118.052Z0F1600
G1 X118.225Y29.703Z0F1600
G1 X118.398Y29.7Z0F1600
G1 X118.745Y29.708Z0F1600
G1 X119.092Y29.727Z0F1600
G1 X119.266Y29.741Z0F1600
G1 X119.612Y29.764Z0F1600
G1 X119.786Y29.757Z0F1600
G1 X119.959Y29.764Z0F1600
G1 X121.173Z0F1600
G1 X121.347Y29.755Z0F1600
G1 X121.52Y29.752Z0F1600
G1 X121.694Y29.745Z0F1600
G1 X121.867Y29.753Z0F1600
G1 X122.04Z0F1600
G1 X122.214Y29.738Z0F1600
G1 X122.387Y29.714Z0F1600
G1 X122.561Y29.677Z0F1600
G1 X122.734Y29.7Z0F1600
G1 X122.908Y29.727Z0F1600
G1 X123.081Y29.75Z0F1600
G1 X123.254Y29.766Z0F1600
G1 X141.985Z0F1600
G1 X142.679Z0F1600
G1 X143.372Y29.769Z0F1600
G0 Z4.8F1000
G0 Y31.333Z4.8F1600
G1 Z0F1000
G1 X143.199Y31.365Z0F1600
G1 X143.026Z0F1600
G1 X142.852Y31.368Z0F1600
G1 X142.679Z0F1600
G1 X142.505Y31.371Z0F1600
G1 X142.332Z0F1600
G1 X142.158Z0F1600
G1 X141.812Y31.359Z0F1600
G1 X141.638Y31.363Z0F1600
G1 X141.291Z0F1600
G1 X141.118Y31.352Z0F1600
G1 X140.944Z0F1600
G1 X140.598Y31.333Z0F1600
G1 X129.498Z0F1600
G1 X124.642Z0F1600
G1 X124.468Y31.342Z0F1600
G1 X123.775Y31.332Z0F1600
G1 X122.387Z0F1600
G1 X121.52Y31.342Z0F1600
G1 X121.173Y31.339Z0F1600
G1 X121Y31.333Z0F1600
G1 X120.653Y31.311Z0F1600
G1 X119.959Y31.259Z0F1600
G1 X119.612Y31.241Z0F1600
G1 X119.439Y31.234Z0F1600
G1 X119.266Z0F1600
G1 X118.919Y31.228Z0F1600
G1 X118.745Y31.231Z0F1600
G1 X118.398Y31.243Z0F1600
G1 X117.705Y31.288Z0F1600
G1 X117.358Y31.313Z0F1600
G1 X116.664Y31.368Z0F1600
G1 X116.317Y31.392Z0F1600
G1 X115.97Y31.41Z0F1600
G1 X115.45Y31.429Z0F1600
G1 X114.93Z0F1600
G1 X114.756Y31.422Z0F1600
G1 X114.409Y31.406Z0F1600
G1 X114.236Y31.391Z0F1600
G1 X113.889Y31.37Z0F1600
G1 X113.195Y31.319Z0F1600
G1 X112.502Y31.28Z0F1600
G1 X112.328Y31.271Z0F1600
G1 X111.808Y31.262Z0F1600
G1 X111.635Y31.266Z0F1600
G1 X111.461Y31.273Z0F1600
G1 X111.288Z0F1600
G1 X110.941Z0F1600
G1 X110.594Y31.276Z0F1600
G1 X110.421Y31.283Z0F1600
G1 X110.074Z0F1600
G1 X109.9Y31.288Z0F1600
G1 X109.727Z0F1600
G1 X109.38Y31.297Z0F1600
G1 X109.033Y31.314Z0F1600
G1 X108.686Y31.326Z0F1600
G1 X86.834Y31.33Z0F1600
G1 X86.14Y31.337Z0F1600
G1 X85.793Y31.345Z0F1600
G1 X85.62Y31.358Z0F1600
G1 X85.446Y31.361Z0F1600
G1 X85.273Y31.378Z0F1600
G1 X85.1Y31.399Z0F1600
G1 X84.926Y31.411Z0F1600
G1 X84.753Y31.42Z0F1600
G1 X84.406Y31.427Z0F1600
G1 X84.232Z0F1600
G1 X84.059Z0F1600
G1 X83.539Y31.42Z0F1600
G1 X83.018Y31.375Z0F1600
G1 X82.672Y31.356Z0F1600
G1 X82.325Y31.34Z0F1600
G1 X82.151Y31.335Z0F1600
G1 X81.458Y31.332Z0F1600
G1 X81.111Y31.323Z0F1600
G1 X80.937Y31.314Z0F1600
G1 X80.59Y31.285Z0F1600
G1 X80.417Y31.267Z0F1600
G1 X80.07Y31.247Z0F1600
G1 X79.897Y31.234Z0F1600
G1 X79.723Y31.228Z0F1600
G1 X79.203Y31.219Z0F1600
G1 X79.03Y31.21Z0F1600
G1 X78.683Y31.217Z0F1600
G1 X78.509Y31.238Z0F1600
G1 X78.336Y31.269Z0F1600
G1 X77.989Y31.325Z0F1600
G1 X77.815Y31.347Z0F1600
G1 X77.642Y31.375Z0F1600
G1 X77.469Y31.399Z0F1600
G1 X77.295Y31.406Z0F1600
G1 X77.122Y31.396Z0F1600
G1 X76.775Y31.415Z0F1600
G1 X76.601Y31.429Z0F1600
G1 X76.428Y31.413Z0F1600
G1 X76.255Y31.394Z0F1600
G1 X76.081Y31.391Z0F1600
G1 X75.908Y31.396Z0F1600
G1 X75.734Y31.389Z0F1600
G1 X75.387Y31.384Z0F1600
G1 X75.214Z0F1600
G1 X75.041Z0F1600
G1 X74.694Z0F1600
G1 X74.52Z0F1600
G1 X74.347Y31.365Z0F1600
G1 X74.173Y31.351Z0F1600
G1 X73.827Y31.332Z0F1600
G1 X72.613Z0F1600
G1 X72.439Z0F1600
G1 X72.092Y31.328Z0F1600
G1 X71.745Z0F1600
G1 X71.572Z0F1600
G1 X70.185Z0F1600
G1 X69.838Z0F1600
G1 X69.144Y31.311Z0F1600
G1 X68.797Y31.306Z0F1600
G1 X68.624Y31.314Z0F1600
G1 X68.45Y31.326Z0F1600
G1 X46.251Z0F1600
G1 X24.052Z0F1600
G1 X4.628Y31.33Z0F1600
G0 Z4.8F1000
G0 Y32.891Z4.8
G1 Z0F1000
G1 X22.491Y32.887Z0F1600
G1 X44.69Z0F1600
G1 X66.889Z0F1600
G1 X67.236Y32.858Z0F1600
G1 X67.41Y32.853Z0F1600
G1 X67.583Y32.858Z0F1600
G1 X67.93Y32.88Z0F1600
G1 X68.277Y32.899Z0F1600
G1 X68.624Y32.908Z0F1600
G1 X68.797Z0F1600
G1 X69.144Y32.912Z0F1600
G1 X69.317Y32.917Z0F1600
G1 X69.664Z0F1600
G1 X70.011Y32.906Z0F1600
G1 X70.185Y32.894Z0F1600
G1 X71.399Z0F1600
G1 X71.572Z0F1600
G1 X72.613Z0F1600
G1 X72.786Y32.922Z0F1600
G1 X72.959Y32.964Z0F1600
G1 X73.133Z0F1600
G1 X73.48Y32.955Z0F1600
G1 X73.827Y32.95Z0F1600
G1 X74.173Y32.934Z0F1600
G1 X74.347Y32.945Z0F1600
G1 X74.694Y32.95Z0F1600
G1 X74.867Y32.964Z0F1600
G1 X75.041Y32.99Z0F1600
G1 X75.214Z0F1600
G1 X75.387Y32.945Z0F1600
G1 X75.561Y32.865Z0F1600
G1 X75.734Y32.782Z0F1600
G1 X75.908Y32.723Z0F1600
G1 X76.081Y32.69Z0F1600
G1 X76.255Y32.681Z0F1600
G1 X76.428Y32.69Z0F1600
G1 X76.601Y32.723Z0F1600
G1 X76.775Y32.762Z0F1600
G1 X77.122Y32.83Z0F1600
G1 X77.295Y32.87Z0F1600
G1 X77.642Y32.955Z0F1600
G1 X77.815Y32.993Z0F1600
G1 X77.989Y33.024Z0F1600
G1 X78.162Y33.052Z0F1600
G1 X78.336Y33.066Z0F1600
G1 X78.509Z0F1600
G1 X78.683Y33.056Z0F1600
G1 X78.856Y33.033Z0F1600
G1 X79.03Y33.003Z0F1600
G1 X79.203Y32.964Z0F1600
G1 X79.376Y32.919Z0F1600
G1 X79.55Y32.88Z0F1600
G1 X79.723Y32.851Z0F1600
G1 X79.897Y32.842Z0F1600
G1 X80.07Z0F1600
G1 X80.59Y32.851Z0F1600
G1 X80.764Y32.842Z0F1600
G1 X80.937Y32.849Z0F1600
G1 X81.284Y32.87Z0F1600
G1 X81.458Z0F1600
G1 X81.631Y32.865Z0F1600
G1 X81.978Z0F1600
G1 X82.151Y32.849Z0F1600
G1 X82.498Y32.853Z0F1600
G1 X82.672Y32.868Z0F1600
G1 X82.845Z0F1600
G1 X83.018Y32.863Z0F1600
G1 X83.192Y32.872Z0F1600
G1 X83.365Y32.875Z0F1600
G1 X83.539Y32.886Z0F1600
G1 X87.354Z0F1600
G1 X87.528Y32.795Z0F1600
G1 X87.874Y32.887Z0F1600
G1 X88.048Y32.856Z0F1600
G1 X88.221Y32.776Z0F1600
G1 X88.395Y32.818Z0F1600
G1 X88.568Y32.854Z0F1600
G1 X88.742Y32.83Z0F1600
G1 X88.915Y32.889Z0F1600
G1 X89.089Z0F1600
G1 X89.435Y32.91Z0F1600
G1 X89.609Z0F1600
G1 X89.782Y32.92Z0F1600
G1 X89.956Y32.938Z0F1600
G1 X90.303Y33.01Z0F1600
G1 X90.476Y33.017Z0F1600
G1 X90.649Y33.038Z0F1600
G1 X90.823Y33.056Z0F1600
G1 X90.996Y33.035Z0F1600
G1 X91.17Y33.005Z0F1600
G1 X91.343Y32.983Z0F1600
G1 X91.517Y32.988Z0F1600
G1 X91.69Y32.967Z0F1600
G1 X91.863Y32.913Z0F1600
G1 X92.037Y32.827Z0F1600
G1 X92.21Y32.703Z0F1600
G1 X92.384Y32.613Z0F1600
G1 X92.557Y32.596Z0F1600
G1 X92.731Y32.622Z0F1600
G1 X92.904Y32.7Z0F1600
G1 X93.077Y32.825Z0F1600
G1 X93.251Y32.962Z0F1600
G1 X93.424Y33.076Z0F1600
G1 X93.598Y33.144Z0F1600
G1 X93.771Y33.186Z0F1600
G1 X93.945Y33.172Z0F1600
G1 X94.118Y33.094Z0F1600
G1 X94.291Y32.955Z0F1600
G1 X94.465Y32.809Z0F1600
G1 X94.638Y32.683Z0F1600
G1 X94.812Y32.612Z0F1600
G1 X94.985Y32.589Z0F1600
G1 X95.159Y32.634Z0F1600
G1 X95.332Y32.716Z0F1600
G1 X95.505Y32.818Z0F1600
G1 X95.679Y32.927Z0F1600
G1 X95.852Y33.031Z0F1600
G1 X96.026Y33.12Z0F1600
G1 X96.199Y33.168Z0F1600
G1 X96.373Y33.16Z0F1600
G1 X96.546Y33.116Z0F1600
G1 X96.719Y33.036Z0F1600
G1 X96.893Y32.908Z0F1600
G1 X97.066Y32.754Z0F1600
G1 X97.24Y32.634Z0F1600
G1 X97.413Y32.605Z0F1600
G1 X97.587Y32.617Z0F1600
G1 X97.76Y32.657Z0F1600
G1 X97.934Y32.742Z0F1600
G1 X98.107Y32.854Z0F1600
G1 X98.28Y32.951Z0F1600
G1 X98.454Y33.045Z0F1600
G1 X98.627Y33.114Z0F1600
G1 X98.801Y33.161Z0F1600
G1 X98.974Z0F1600
G1 X99.148Y33.109Z0F1600
G1 X99.494Y32.924Z0F1600
G1 X99.668Y32.816Z0F1600
G1 X99.841Y32.735Z0F1600
G1 X100.015Y32.69Z0F1600
G1 X100.188Y32.686Z0F1600
G1 X100.362Y32.671Z0F1600
G1 X100.535Y32.69Z0F1600
G1 X100.708Y32.738Z0F1600
G1 X100.882Y32.781Z0F1600
G1 X101.055Y32.834Z0F1600
G1 X101.229Y32.88Z0F1600
G1 X101.402Y32.908Z0F1600
G1 X101.576Y32.912Z0F1600
G1 X101.749Y32.901Z0F1600
G1 X101.922Z0F1600
G1 X102.096Y32.892Z0F1600
G1 X109.207Z0F1600
G1 X109.553Y32.905Z0F1600
G1 X110.247Y32.931Z0F1600
G1 X110.594Y32.946Z0F1600
G1 X110.767Y32.951Z0F1600
G1 X111.288Y32.955Z0F1600
G1 X111.635Y32.965Z0F1600
G1 X111.808Z0F1600
G1 X111.981Z0F1600
G1 X112.155Y32.958Z0F1600
G1 X112.328Z0F1600
G1 X112.675Y32.946Z0F1600
G1 X113.022Y32.932Z0F1600
G1 X113.369Y32.913Z0F1600
G1 X114.063Y32.863Z0F1600
G1 X114.236Y32.846Z0F1600
G1 X114.409Y32.832Z0F1600
G1 X114.583Y32.827Z0F1600
G1 X115.277Y32.795Z0F1600
G1 X115.623Z0F1600
G1 X115.797Z0F1600
G1 X116.144Y32.808Z0F1600
G1 X116.491Y32.821Z0F1600
G1 X117.184Y32.861Z0F1600
G1 X117.531Y32.889Z0F1600
G1 X117.878Y32.92Z0F1600
G1 X118.225Y32.946Z0F1600
G1 X118.398Y32.955Z0F1600
G1 X118.572Y32.958Z0F1600
G1 X118.919Y32.971Z0F1600
G1 X119.266Y32.986Z0F1600
G1 X119.612Y32.995Z0F1600
G1 X120.306Y32.972Z0F1600
G1 X120.48Y32.958Z0F1600
G1 X121.173Y32.891Z0F1600
G1 X121.52Y32.86Z0F1600
G1 X122.04Y32.821Z0F1600
G1 X122.387Y32.802Z0F1600
G1 X122.561Y32.795Z0F1600
G1 X122.908Z0F1600
G1 X123.081Y32.816Z0F1600
G1 X123.254Z0F1600
G1 X123.428Y32.825Z0F1600
G1 X123.601Y32.84Z0F1600
G1 X123.775Y32.853Z0F1600
G1 X124.122Y32.872Z0F1600
G1 X124.468Y32.887Z0F1600
G1 X137.302Z0F1600
G1 X138.69Z0F1600
G1 X138.863Y32.882Z0F1600
G1 X139.384Y32.877Z0F1600
G1 X139.73Z0F1600
G1 X139.904Y32.884Z0F1600
G1 X140.077Z0F1600
G1 X140.771Y32.898Z0F1600
G1 X141.118Y32.901Z0F1600
G1 X141.291Y32.906Z0F1600
G1 X141.465Z0F1600
G1 X141.812Y32.917Z0F1600
G1 X142.158Z0F1600
G1 X142.505Y32.929Z0F1600
G1 X143.199Y32.939Z0F1600
G1 X143.372Y32.894Z0F1600

; Color picking sequence
G1 Z10 F1000;         ; Raise brush to safe height
G0 X131 Y5 F1200;    ; Rapid move to color 1 position
G1 Z0 F1000;         ; Lower into color - controlled movement
G1 X130.102Y7.295Z0S800F1200
G1 X130.026Y7.642Z0F1200
G1 X130Y8Z0F1200
G1 X130.026Y8.358Z0F1200
G1 X130.102Y8.705Z0F1200
G1 X130.225Y9.041Z0F1200
G1 X130.393Y9.362Z0F1200
G1 X130.603Y9.668Z0F1200
G1 X130.854Y9.957Z0F1200
G1 X131.142Y10.226Z0F1200
G1 X131.464Y10.475Z0F1200
G1 X131.82Y10.701Z0F1200
G1 X132.204Y10.902Z0F1200
G1 X132.617Y11.078Z0F1200
G1 X133.054Y11.225Z0F1200
G1 X133.513Y11.343Z0F1200
G1 X133.992Y11.429Z0F1200
G1 X134.489Y11.482Z0F1200
G1 X135Y11.5Z0F1200
G1 X135.511Y11.482Z0F1200
G1 X136.008Y11.429Z0F1200
G1 X136.487Y11.343Z0F1200
G1 X136.946Y11.225Z0F1200
G1 X137.383Y11.078Z0F1200
G1 X137.796Y10.902Z0F1200
G1 X138.18Y10.701Z0F1200
G1 X138.536Y10.475Z0F1200
G1 X138.858Y10.226Z0F1200
G1 X139.146Y9.957Z0F1200
G1 X139.397Y9.668Z0F1200
G1 X139.607Y9.362Z0F1200
G1 X139.775Y9.041Z0F1200
G1 X139.898Y8.705Z0F1200
G1 X139.974Y8.358Z0F1200
G1 X140Y8Z0F1200
G1 X139.974Y7.642Z0F1200
G1 X139.898Y7.295Z0F1200
G1 X139.775Y6.959Z0F1200
G1 X139.607Y6.638Z0F1200
G1 X139.397Y6.332Z0F1200
G1 X139.146Y6.043Z0F1200
G1 X138.858Y5.774Z0F1200
G1 X138.536Y5.525Z0F1200
G1 X138.18Y5.299Z0F1200
G1 X137.796Y5.098Z0F1200
G1 X137.383Y4.922Z0F1200
G1 X136.946Y4.775Z0F1200
G1 X136.487Y4.657Z0F1200
G1 X136.008Y4.571Z0F1200
G1 X135.511Y4.518Z0F1200
G1 X135Y4.5Z0F1200
G1 X134.489Y4.518Z0F1200
G1 X133.992Y4.571Z0F1200
G1 X133.513Y4.657Z0F1200
G1 X133.054Y4.775Z0F1200
G1 X132.617Y4.922Z0F1200
G1 X132.204Y5.098Z0F1200
G1 X131.82Y5.299Z0F1200
G1 X131.464Y5.525Z0F1200
G1 X131.142Y5.774Z0F1200
G1 X130.854Y6.043Z0F1200
G1 X130.603Y6.332Z0F1200
G1 X130.393Y6.638Z0F1200
G1 X130.225Y6.959Z0F1200
G1 Z7 F800;         ; Raise from color - controlled movement
G1 X124 Y8 Z1 F1200;     ; Movement in paint - controlled movement
G1 X114 Y18 Z8 F500;     ; Move in paint - controlled movement
G1 F1200;           ; Set feed rate to 1000
G0 Z4.8F1000
G0 Y34.446Z4.8
G1 Z0F1000
G1 X143.199Y34.408Z0F1600
G1 X143.026Y34.403Z0F1600
G1 X142.679Z0F1600
G1 X142.332Z0F1600
G1 X141.985Y34.408Z0F1600
G1 X141.638Z0F1600
G1 X140.944Y34.417Z0F1600
G1 X140.771Y34.42Z0F1600
G1 X140.598Y34.427Z0F1600
G1 X140.424Z0F1600
G1 X140.251Z0F1600
G1 X139.557Y34.436Z0F1600
G1 X138.863Y34.453Z0F1600
G1 X138.516Y34.464Z0F1600
G1 X138.343Y34.467Z0F1600
G1 X138.17Y34.474Z0F1600
G1 X137.996Z0F1600
G1 X137.823Y34.481Z0F1600
G1 X137.649Z0F1600
G1 X137.476Y34.476Z0F1600
G1 X137.302Z0F1600
G1 X137.129Y34.472Z0F1600
G1 X136.782Y34.455Z0F1600
G1 X127.07Z0F1600
G1 X126.376Z0F1600
G1 X126.203Y34.481Z0F1600
G1 X126.029Y34.476Z0F1600
G1 X125.856Y34.493Z0F1600
G1 X125.682Y34.505Z0F1600
G1 X125.509Y34.509Z0F1600
G1 X125.336Y34.526Z0F1600
G1 X125.162Y34.521Z0F1600
G1 X124.989Y34.531Z0F1600
G1 X124.815Z0F1600
G1 X124.468Y34.526Z0F1600
G1 X124.122Y34.511Z0F1600
G1 X123.775Y34.49Z0F1600
G1 X123.081Y34.436Z0F1600
G1 X122.908Y34.427Z0F1600
G1 X122.734Y34.412Z0F1600
G1 X122.561Z0F1600
G1 X122.387Y34.398Z0F1600
G1 X122.214Y34.393Z0F1600
G1 X122.04Y34.381Z0F1600
G1 X121.694Y34.37Z0F1600
G1 X121.52Y34.36Z0F1600
G1 X121.347Y34.353Z0F1600
G1 X121.173Z0F1600
G1 X120.826Y34.356Z0F1600
G1 X120.48Y34.375Z0F1600
G1 X120.306Y34.381Z0F1600
G1 X120.133Y34.389Z0F1600
G1 X119.959Y34.401Z0F1600
G1 X119.786Y34.419Z0F1600
G1 X119.439Y34.445Z0F1600
G1 X119.266Y34.46Z0F1600
G1 X118.919Y34.486Z0F1600
G1 X118.745Y34.497Z0F1600
G1 X118.572Y34.504Z0F1600
G1 X118.225Y34.526Z0F1600
G1 X117.878Y34.538Z0F1600
G1 X117.705Z0F1600
G1 X117.358Y34.55Z0F1600
G1 X117.184Z0F1600
G1 X117.011Y34.54Z0F1600
G1 X116.491Y34.521Z0F1600
G1 X116.144Y34.502Z0F1600
G1 X115.277Y34.441Z0F1600
G1 X115.103Y34.422Z0F1600
G1 X114.93Y34.407Z0F1600
G1 X114.756Y34.398Z0F1600
G1 X114.583Y34.384Z0F1600
G1 X114.063Y34.365Z0F1600
G1 X113.716Z0F1600
G1 X113.369Y34.368Z0F1600
G1 X113.022Y34.381Z0F1600
G1 X112.849Z0F1600
G1 X112.675Y34.391Z0F1600
G1 X112.328Y34.4Z0F1600
G1 X112.155Y34.408Z0F1600
G1 X111.981Y34.413Z0F1600
G1 X111.808Y34.424Z0F1600
G1 X111.461Y34.438Z0F1600
G1 X111.114Y34.448Z0F1600
G1 X110.421Y34.46Z0F1600
G1 X109.9Y34.464Z0F1600
G1 X109.553Y34.459Z0F1600
G1 X109.38Y34.453Z0F1600
G1 X104.35Z0F1600
G1 X104.177Y34.495Z0F1600
G1 X104.004Y34.594Z0F1600
G1 X103.83Y34.651Z0F1600
G1 X103.657Y34.668Z0F1600
G1 X103.483Y34.648Z0F1600
G1 X103.31Y34.667Z0F1600
G1 X103.136Y34.656Z0F1600
G1 X102.963Y34.557Z0F1600
G1 X102.79Y34.393Z0F1600
G1 X102.616Y34.249Z0F1600
G1 X102.443Y34.134Z0F1600
G1 X102.269Y34.105Z0F1600
G1 X102.096Y34.162Z0F1600
G1 X101.922Y34.308Z0F1600
G1 X101.749Y34.478Z0F1600
G1 X101.576Y34.637Z0F1600
G1 X101.402Y34.759Z0F1600
G1 X101.229Y34.819Z0F1600
G1 X101.055Y34.79Z0F1600
G1 X100.882Y34.634Z0F1600
G1 X100.708Y34.342Z0F1600
G1 X100.535Y34.145Z0F1600
G1 X100.362Y34.074Z0F1600
G1 X100.188Y34.098Z0F1600
G1 X100.015Y34.252Z0F1600
G1 X99.841Y34.471Z0F1600
G1 X99.668Y34.703Z0F1600
G1 X99.494Y34.861Z0F1600
G1 X99.321Y34.837Z0F1600
G1 X99.148Y34.696Z0F1600
G1 X98.974Y34.467Z0F1600
G1 X98.801Y34.249Z0F1600
G1 X98.627Y34.091Z0F1600
G1 X98.454Y34.049Z0F1600
G1 X98.28Y34.15Z0F1600
G1 X98.107Y34.361Z0F1600
G1 X97.934Y34.613Z0F1600
G1 X97.76Y34.805Z0F1600
G1 X97.587Y34.878Z0F1600
G1 X97.413Y34.785Z0F1600
G1 X97.24Y34.552Z0F1600
G1 X97.066Y34.294Z0F1600
G1 X96.893Y34.067Z0F1600
G1 X96.719Y33.98Z0F1600
G1 X96.546Y34.12Z0F1600
G1 X96.373Y34.431Z0F1600
G1 X96.199Y34.734Z0F1600
G1 X96.026Y34.882Z0F1600
G1 X95.852Y34.854Z0F1600
G1 X95.679Y34.665Z0F1600
G1 X95.505Y34.375Z0F1600
G1 X95.332Y34.122Z0F1600
G1 X95.159Y33.999Z0F1600
G1 X94.985Y34.082Z0F1600
G1 X94.812Y34.315Z0F1600
G1 X94.638Y34.585Z0F1600
G1 X94.465Y34.798Z0F1600
G1 X94.291Y34.866Z0F1600
G1 X94.118Y34.788Z0F1600
G1 X93.945Y34.596Z0F1600
G1 X93.771Y34.309Z0F1600
G1 X93.598Y34.054Z0F1600
G1 X93.424Y33.982Z0F1600
G1 X93.251Y34.133Z0F1600
G1 X93.077Y34.422Z0F1600
G1 X92.904Y34.729Z0F1600
G1 X92.731Y34.882Z0F1600
G1 X92.557Y34.852Z0F1600
G1 X92.384Y34.67Z0F1600
G1 X92.21Y34.389Z0F1600
G1 X92.037Y34.146Z0F1600
G1 X91.863Y34.034Z0F1600
G1 X91.69Y34.07Z0F1600
G1 X91.517Y34.275Z0F1600
G1 X91.343Y34.507Z0F1600
G1 X91.17Y34.705Z0F1600
G1 X90.996Y34.814Z0F1600
G1 X90.823Y34.8Z0F1600
G1 X90.649Y34.689Z0F1600
G1 X90.476Y34.535Z0F1600
G1 X90.303Y34.349Z0F1600
G1 X90.129Y34.159Z0F1600
G1 X89.956Y34.084Z0F1600
G1 X89.782Y34.145Z0F1600
G1 X89.609Y34.271Z0F1600
G1 X89.435Y34.384Z0F1600
G1 X89.262Y34.49Z0F1600
G1 X89.089Y34.582Z0F1600
G1 X88.915Y34.627Z0F1600
G1 X88.742Y34.648Z0F1600
G1 X88.568Y34.635Z0F1600
G1 X88.395Y34.642Z0F1600
G1 X88.221Y34.623Z0F1600
G1 X88.048Y34.594Z0F1600
G1 X87.874Y34.537Z0F1600
G1 X87.528Y34.412Z0F1600
G1 X87.354Y34.36Z0F1600
G1 X87.181Y34.313Z0F1600
G1 X87.007Y34.27Z0F1600
G1 X86.834Y34.237Z0F1600
G1 X86.66Y34.23Z0F1600
G1 X86.487Y34.268Z0F1600
G1 X86.314Y34.33Z0F1600
G1 X85.967Y34.398Z0F1600
G1 X85.793Y34.441Z0F1600
G1 X85.62Y34.49Z0F1600
G1 X85.446Y34.509Z0F1600
G1 X85.1Y34.5Z0F1600
G1 X84.926Z0F1600
G1 X84.753Y34.505Z0F1600
G1 X84.579Y34.502Z0F1600
G1 X84.406Y34.505Z0F1600
G1 X84.059Y34.49Z0F1600
G1 X83.886Y34.5Z0F1600
G1 X83.712Y34.495Z0F1600
G1 X83.539Z0F1600
G1 X83.365Y34.488Z0F1600
G1 X83.192Y34.498Z0F1600
G1 X83.018Z0F1600
G1 X82.845Y34.488Z0F1600
G1 X82.672Y34.497Z0F1600
G1 X82.498Z0F1600
G1 X82.325Y34.483Z0F1600
G1 X81.978Y34.474Z0F1600
G1 X81.804Y34.485Z0F1600
G1 X81.631Y34.479Z0F1600
G1 X81.284Z0F1600
G1 X80.764Y34.472Z0F1600
G1 X80.417Y34.478Z0F1600
G1 X80.244Z0F1600
G1 X79.897Y34.471Z0F1600
G1 X79.723Y34.476Z0F1600
G1 X79.55Z0F1600
G1 X79.203Y34.453Z0F1600
G1 X79.03Y34.429Z0F1600
G1 X78.683Y34.361Z0F1600
G1 X78.336Y34.311Z0F1600
G1 X78.162Y34.301Z0F1600
G1 X77.989Y34.297Z0F1600
G1 X77.815Y34.302Z0F1600
G1 X77.642Z0F1600
G1 X77.295Y34.344Z0F1600
G1 X77.122Y34.386Z0F1600
G1 X76.948Y34.419Z0F1600
G1 X76.775Y34.474Z0F1600
G1 X76.601Y34.535Z0F1600
G1 X76.428Y34.592Z0F1600
G1 X76.255Y34.644Z0F1600
G1 X76.081Y34.663Z0F1600
G1 X75.908Y34.675Z0F1600
G1 X75.734Y34.665Z0F1600
G1 X75.561Y34.627Z0F1600
G1 X75.387Y34.554Z0F1600
G1 X75.214Y34.453Z0F1600
G1 X75.041Y34.349Z0F1600
G1 X74.867Y34.264Z0F1600
G1 X74.694Y34.214Z0F1600
G1 X74.52Y34.204Z0F1600
G1 X74.347Y34.233Z0F1600
G1 X74.173Y34.311Z0F1600
G1 X74Y34.349Z0F1600
G1 X73.827Y34.405Z0F1600
G1 X73.653Y34.439Z0F1600
G1 X73.48Y34.455Z0F1600
G1 X73.133Y34.467Z0F1600
G1 X72.786Y34.471Z0F1600
G1 X72.613Y34.476Z0F1600
G1 X72.266Y34.5Z0F1600
G1 X72.092Z0F1600
G1 X71.919Y34.518Z0F1600
G1 X71.745Y34.509Z0F1600
G1 X71.572Y34.455Z0F1600
G1 X70.011Z0F1600
G1 X69.838Y34.497Z0F1600
G1 X69.664Y34.492Z0F1600
G1 X69.491Y34.497Z0F1600
G1 X69.317Z0F1600
G1 X69.144Z0F1600
G1 X68.97Y34.488Z0F1600
G1 X68.797Y34.502Z0F1600
G1 X68.624Y34.507Z0F1600
G1 X68.45Z0F1600
G1 X68.277Y34.512Z0F1600
G1 X68.103Y34.509Z0F1600
G1 X67.93Y34.502Z0F1600
G1 X67.756Y34.511Z0F1600
G1 X67.583Y34.498Z0F1600
G1 X67.41Y34.509Z0F1600
G1 X67.063Z0F1600
G1 X66.889Y34.497Z0F1600
G1 X66.369Y34.462Z0F1600
G1 X66.022Y34.431Z0F1600
G1 X65.849Y34.412Z0F1600
G1 X65.675Y34.4Z0F1600
G1 X65.502Y34.407Z0F1600
G1 X65.328Y34.441Z0F1600
G1 X65.155Y34.448Z0F1600
G1 X42.956Z0F1600
G1 X20.757Z0F1600
G1 X4.628Y34.452Z0F1600
G0 Z4.8F1000
G0 Y36.013Z4.8
G1 Z0F1000
G1 X34.805Y36.009Z0F1600
G1 X34.978Y36.004Z0F1600
G1 X35.151Z0F1600
G1 X35.325Y35.997Z0F1600
G1 X35.845Y36.009Z0F1600
G1 X41.048Z0F1600
G1 X63.247Z0F1600
G1 X63.421Y36Z0F1600
G1 X63.594Y35.969Z0F1600
G1 X63.768Y35.955Z0F1600
G1 X63.941Y35.969Z0F1600
G1 X64.114Y35.993Z0F1600
G1 X64.288Y36.021Z0F1600
G1 X64.461Y36.045Z0F1600
G1 X64.635Y36.059Z0F1600
G1 X64.982Y36.091Z0F1600
G1 X65.328Z0F1600
G1 X65.502Y36.104Z0F1600
G1 X65.675Y36.099Z0F1600
G1 X66.022Y36.092Z0F1600
G1 X66.196Y36.104Z0F1600
G1 X66.369Y36.091Z0F1600
G1 X66.542Z0F1600
G1 X67.063Y36.071Z0F1600
G1 X67.236Y36.063Z0F1600
G1 X67.583Y36.04Z0F1600
G1 X68.103Y36.025Z0F1600
G1 X68.277Z0F1600
G1 X68.624Z0F1600
G1 X68.797Y36.021Z0F1600
G1 X69.317Y35.995Z0F1600
G1 X69.491Y35.981Z0F1600
G1 X69.664Y35.988Z0F1600
G1 X69.838Z0F1600
G1 X70.011Y36.011Z0F1600
G1 X70.705Z0F1600
G1 X70.878Y35.962Z0F1600
G1 X71.225Y35.941Z0F1600
G1 X71.399Y35.961Z0F1600
G1 X71.745Y35.971Z0F1600
G1 X71.919Z0F1600
G1 X72.092Y35.959Z0F1600
G1 X72.266Y35.954Z0F1600
G1 X72.439Y35.938Z0F1600
G1 X72.613Y35.9Z0F1600
G1 X72.786Y35.867Z0F1600
G1 X72.959Y35.856Z0F1600
G1 X73.133Y35.888Z0F1600
G1 X73.306Y35.938Z0F1600
G1 X73.48Y36.026Z0F1600
G1 X73.653Y36.143Z0F1600
G1 X73.827Y36.231Z0F1600
G1 X74Y36.3Z0F1600
G1 X74.173Z0F1600
G1 X74.347Y36.252Z0F1600
G1 X74.52Y36.153Z0F1600
G1 X74.867Y35.924Z0F1600
G1 X75.041Y35.837Z0F1600
G1 X75.214Y35.808Z0F1600
G1 X75.387Z0F1600
G1 X75.561Z0F1600
G1 X75.734Y35.832Z0F1600
G1 X75.908Y35.863Z0F1600
G1 X76.255Y35.954Z0F1600
G1 X76.428Y35.981Z0F1600
G1 X76.601Y36.013Z0F1600
G1 X76.775Y36.049Z0F1600
G1 X76.948Y36.075Z0F1600
G1 X77.122Y36.106Z0F1600
G1 X77.295Y36.13Z0F1600
G1 X77.469Y36.15Z0F1600
G1 X77.642Y36.156Z0F1600
G1 X77.815Z0F1600
G1 X77.989Y36.148Z0F1600
G1 X78.162Y36.12Z0F1600
G1 X78.336Y36.096Z0F1600
G1 X78.856Y36.045Z0F1600
G1 X79.203Y36.037Z0F1600
G1 X79.376Y36.028Z0F1600
G1 X79.55Y36.025Z0F1600
G1 X79.723Y36.03Z0F1600
G1 X79.897Y36.018Z0F1600
G1 X80.07Y36.021Z0F1600
G1 X80.244Z0F1600
G1 X80.417Y36.03Z0F1600
G1 X80.59Z0F1600
G1 X80.764Z0F1600
G1 X81.111Y36.018Z0F1600
G1 X81.458Y36.002Z0F1600
G1 X81.804Y35.983Z0F1600
G1 X81.978Y35.967Z0F1600
G1 X82.325Y35.947Z0F1600
G1 X82.672Y35.95Z0F1600
G1 X82.845Y35.961Z0F1600
G1 X83.018Z0F1600
G1 X83.365Y35.992Z0F1600
G1 X83.712Y35.997Z0F1600
G1 X83.886Y35.985Z0F1600
G1 X84.059Y35.957Z0F1600
G1 X84.232Y35.903Z0F1600
G1 X84.406Y35.886Z0F1600
G1 X84.579Y35.882Z0F1600
G1 X84.753Y35.87Z0F1600
G1 X84.926Y35.907Z0F1600
G1 X85.1Y35.967Z0F1600
G1 X85.273Y36.085Z0F1600
G1 X85.446Y36.221Z0F1600
G1 X85.62Y36.297Z0F1600
G1 X85.967Y36.243Z0F1600
G1 X86.14Y36.198Z0F1600
G1 X86.314Y36.132Z0F1600
G1 X86.487Y36.016Z0F1600
G1 X86.66Y35.869Z0F1600
G1 X86.834Y35.744Z0F1600
G1 X87.007Y35.697Z0F1600
G1 X87.181Y35.723Z0F1600
G1 X87.354Y35.791Z0F1600
G1 X87.528Y35.903Z0F1600
G1 X87.701Y36.037Z0F1600
G1 X87.874Y36.162Z0F1600
G1 X88.048Y36.252Z0F1600
G1 X88.221Y36.307Z0F1600
G1 X88.395Y36.297Z0F1600
G1 X88.568Y36.257Z0F1600
G1 X88.742Y36.111Z0F1600
G1 X88.915Y35.919Z0F1600
G1 X89.089Y35.765Z0F1600
G1 X89.262Y35.669Z0F1600
G1 X89.435Y35.648Z0F1600
G1 X89.609Y35.759Z0F1600
G1 X89.782Y36.014Z0F1600
G1 X89.956Y36.276Z0F1600
G1 X90.129Y36.422Z0F1600
G1 X90.303Y36.417Z0F1600
G1 X90.476Y36.25Z0F1600
G1 X90.649Y36.033Z0F1600
G1 X90.823Y35.832Z0F1600
G1 X90.996Y35.704Z0F1600
G1 X91.17Y35.638Z0F1600
G1 X91.343Y35.693Z0F1600
G1 X91.517Y35.858Z0F1600
G1 X91.69Y36.141Z0F1600
G1 X91.863Y36.361Z0F1600
G1 X92.037Y36.446Z0F1600
G1 X92.21Y36.366Z0F1600
G1 X92.384Y36.113Z0F1600
G1 X92.557Y35.806Z0F1600
G1 X92.731Y35.579Z0F1600
G1 X92.904Y35.551Z0F1600
G1 X93.077Y35.759Z0F1600
G1 X93.424Y36.377Z0F1600
G1 X93.598Y36.474Z0F1600
G1 X93.771Y36.378Z0F1600
G1 X93.945Y36.136Z0F1600
G1 X94.118Y35.777Z0F1600
G1 X94.291Y35.579Z0F1600
G1 X94.465Y35.572Z0F1600
G1 X94.638Y35.751Z0F1600
G1 X94.812Y36.115Z0F1600
G1 X94.985Y36.465Z0F1600
G1 X95.159Y36.531Z0F1600
G1 X95.332Y36.304Z0F1600
G1 X95.505Y35.896Z0F1600
G1 X95.679Y35.579Z0F1600
G1 X95.852Y35.517Z0F1600
G1 X96.026Y35.7Z0F1600
G1 X96.199Y36.026Z0F1600
G1 X96.373Y36.32Z0F1600
G1 X96.546Y36.479Z0F1600
G1 X96.719Y36.411Z0F1600
G1 X96.893Y36.169Z0F1600
G1 X97.066Y35.83Z0F1600
G1 X97.24Y35.581Z0F1600
G1 X97.413Y35.523Z0F1600
G1 X97.587Y35.752Z0F1600
G1 X97.76Y36.103Z0F1600
G1 X97.934Y36.387Z0F1600
G1 X98.107Y36.493Z0F1600
G1 X98.28Y36.361Z0F1600
G1 X98.454Y36.089Z0F1600
G1 X98.627Y35.791Z0F1600
G1 X98.801Y35.56Z0F1600
G1 X98.974Y35.553Z0F1600
G1 X99.148Y35.792Z0F1600
G1 X99.321Y36.12Z0F1600
G1 X99.494Y36.42Z0F1600
G1 X99.668Y36.505Z0F1600
G1 X99.841Y36.335Z0F1600
G1 X100.015Y36.019Z0F1600
G1 X100.188Y35.742Z0F1600
G1 X100.362Y35.6Z0F1600
G1 X100.535Y35.614Z0F1600
G1 X100.708Y35.771Z0F1600
G1 X100.882Y36.018Z0F1600
G1 X101.055Y36.273Z0F1600
G1 X101.229Y36.439Z0F1600
G1 X101.402Y36.427Z0F1600
G1 X101.576Y36.233Z0F1600
G1 X101.749Y35.955Z0F1600
G1 X101.922Y35.714Z0F1600
G1 X102.096Y35.634Z0F1600
G1 X102.269Y35.681Z0F1600
G1 X102.443Y35.775Z0F1600
G1 X102.616Y35.914Z0F1600
G1 X102.79Y36.078Z0F1600
G1 X102.963Y36.212Z0F1600
G1 X103.136Y36.3Z0F1600
G1 X103.31Y36.311Z0F1600
G1 X103.483Y36.276Z0F1600
G1 X103.657Y36.203Z0F1600
G1 X103.83Y36.077Z0F1600
G1 X104.004Y35.919Z0F1600
G1 X104.177Y35.856Z0F1600
G1 X104.35Y35.87Z0F1600
G1 X104.524Y35.856Z0F1600
G1 X104.697Y35.87Z0F1600
G1 X104.871Z0F1600
G1 X105.044Y35.882Z0F1600
G1 X105.218Y35.898Z0F1600
G1 X105.391Y35.928Z0F1600
G1 X105.564Y35.966Z0F1600
G1 X105.738Y36.009Z0F1600
G1 X109.727Z0F1600
G1 X109.9Z0F1600
G1 X110.074Y36.006Z0F1600
G1 X110.247Y36.009Z0F1600
G1 X110.421Y36.004Z0F1600
G1 X110.594Y35.995Z0F1600
G1 X110.767Y35.99Z0F1600
G1 X111.288Y35.995Z0F1600
G1 X111.461Z0F1600
G1 X111.808Y36Z0F1600
G1 X112.328Y36.021Z0F1600
G1 X112.502Y36.032Z0F1600
G1 X112.849Y36.045Z0F1600
G1 X113.022Y36.058Z0F1600
G1 X113.195Y36.066Z0F1600
G1 X113.369Y36.072Z0F1600
G1 X113.542Z0F1600
G1 X113.716Z0F1600
G1 X114.409Y36.104Z0F1600
G1 X114.583Y36.11Z0F1600
G1 X114.756Y36.106Z0F1600
G1 X115.103Y36.094Z0F1600
G1 X115.277Y36.082Z0F1600
G1 X115.623Y36.07Z0F1600
G1 X115.97Y36.049Z0F1600
G1 X116.317Y36.019Z0F1600
G1 X116.664Y35.987Z0F1600
G1 X116.837Y35.976Z0F1600
G1 X117.011Y35.961Z0F1600
G1 X117.358Y35.938Z0F1600
G1 X117.705Y35.919Z0F1600
G1 X118.052Y35.91Z0F1600
G1 X118.225Y35.914Z0F1600
G1 X118.398Z0F1600
G1 X118.572Y35.919Z0F1600
G1 X118.745Y35.931Z0F1600
G1 X118.919Z0F1600
G1 X119.092Y35.938Z0F1600
G1 X119.266Y35.952Z0F1600
G1 X119.612Y35.974Z0F1600
G1 X120.306Y36.026Z0F1600
G1 X120.653Y36.049Z0F1600
G1 X121Y36.068Z0F1600
G1 X121.173Y36.082Z0F1600
G1 X121.52Y36.098Z0F1600
G1 X121.867Y36.104Z0F1600
G1 X122.214Z0F1600
G1 X122.387Y36.108Z0F1600
G1 X122.561Y36.104Z0F1600
G1 X122.908Y36.091Z0F1600
G1 X123.081Y36.078Z0F1600
G1 X123.428Y36.058Z0F1600
G1 X123.775Y36.032Z0F1600
G1 X123.948Y36.021Z0F1600
G1 X124.295Y35.997Z0F1600
G1 X124.468Y35.988Z0F1600
G1 X124.642Y35.974Z0F1600
G1 X125.162Y35.945Z0F1600
G1 X125.509Y35.921Z0F1600
G1 X125.682Y35.912Z0F1600
G1 X125.856Y35.907Z0F1600
G1 X126.029Y35.914Z0F1600
G1 X126.203Y35.902Z0F1600
G1 X126.376Y35.905Z0F1600
G1 X126.723Y35.926Z0F1600
G1 X126.896Y35.945Z0F1600
G1 X127.59Y35.995Z0F1600
G1 X127.764Y36.004Z0F1600
G1 X128.111Y36.013Z0F1600
G1 X135.048Z0F1600
G1 X135.742Y36.023Z0F1600
G1 X135.915Y36.028Z0F1600
G1 X136.609Y36.037Z0F1600
G1 X136.782Y36.047Z0F1600
G1 X136.956Y36.054Z0F1600
G1 X137.649Y36.066Z0F1600
G1 X137.823Z0F1600
G1 X138.17Y36.061Z0F1600
G1 X138.516Y36.065Z0F1600
G1 X139.037Y36.061Z0F1600
G1 X139.384Y36.056Z0F1600
G1 X139.557Z0F1600
G1 X140.077Y36.047Z0F1600
G1 X140.251Z0F1600
G1 X140.598Z0F1600
G1 X141.812Y36.026Z0F1600
G1 X142.505Y36.009Z0F1600
G1 X143.199Y35.988Z0F1600
G1 X143.372Y36.011Z0F1600
G0 Z4.8F1000
G0 Y37.573Z4.8
G1 Z0F1000
G1 X143.199Z0F1600
G1 X141.812Y37.528Z0F1600
G1 X141.638Y37.525Z0F1600
G1 X141.465Y37.518Z0F1600
G1 X141.291Y37.521Z0F1600
G1 X141.118Z0F1600
G1 X140.944Z0F1600
G1 X140.598Y37.514Z0F1600
G1 X140.424Z0F1600
G1 X140.251Y37.52Z0F1600
G1 X139.904Z0F1600
G1 X139.557Z0F1600
G1 X139.21Y37.525Z0F1600
G1 X139.037Z0F1600
G1 X138.863Y37.53Z0F1600
G1 X138.69Z0F1600
G1 X138.516Y37.537Z0F1600
G1 X137.649Y37.549Z0F1600
G1 X137.302Y37.563Z0F1600
G1 X136.609Y37.586Z0F1600
G1 X136.262Y37.599Z0F1600
G1 X135.568Y37.615Z0F1600
G1 X135.221Y37.62Z0F1600
G1 X134.874Y37.632Z0F1600
G1 X134.701Y37.629Z0F1600
G1 X134.354Y37.632Z0F1600
G1 X134.181Y37.624Z0F1600
G1 X134.007Y37.631Z0F1600
G1 X133.313Y37.579Z0F1600
G1 X129.498Z0F1600
G1 X129.325Y37.586Z0F1600
G1 X129.151Z0F1600
G1 X128.978Y37.606Z0F1600
G1 X128.804Y37.653Z0F1600
G1 X128.631Z0F1600
G1 X128.284Y37.641Z0F1600
G1 X126.896Y37.521Z0F1600
G1 X126.723Y37.509Z0F1600
G1 X126.376Y37.492Z0F1600
G1 X126.203Y37.481Z0F1600
G1 X126.029Z0F1600
G1 X125.856Y37.478Z0F1600
G1 X125.682Y37.469Z0F1600
G1 X124.989Y37.487Z0F1600
G1 X124.642Y37.506Z0F1600
G1 X124.295Y37.539Z0F1600
G1 X124.122Y37.551Z0F1600
G1 X123.775Y37.582Z0F1600
G1 X123.428Y37.61Z0F1600
G1 X123.254Y37.62Z0F1600
G1 X123.081Y37.634Z0F1600
G1 X122.908Y37.639Z0F1600
G1 X122.734Y37.653Z0F1600
G1 X122.561Z0F1600
G1 X122.387Y37.658Z0F1600
G1 X122.214Y37.667Z0F1600
G1 X121.867Z0F1600
G1 X121.52Z0F1600
G1 X121Y37.643Z0F1600
G1 X120.826Y37.632Z0F1600
G1 X120.48Y37.603Z0F1600
G1 X120.306Y37.598Z0F1600
G1 X119.612Y37.54Z0F1600
G1 X119.092Y37.504Z0F1600
G1 X118.745Y37.485Z0F1600
G1 X118.572Y37.481Z0F1600
G1 X118.398Z0F1600
G1 X118.225Y37.485Z0F1600
G1 X118.052Y37.481Z0F1600
G1 X117.531Z0F1600
G1 X117.358Y37.487Z0F1600
G1 X117.184Y37.501Z0F1600
G1 X117.011Y37.511Z0F1600
G1 X116.664Y37.539Z0F1600
G1 X115.97Y37.603Z0F1600
G1 X115.797Y37.62Z0F1600
G1 X115.45Y37.636Z0F1600
G1 X115.277Y37.648Z0F1600
G1 X115.103Y37.655Z0F1600
G1 X114.93Y37.648Z0F1600
G1 X114.756Z0F1600
G1 X114.583Z0F1600
G1 X114.409Y37.655Z0F1600
G1 X114.236Y37.669Z0F1600
G1 X114.063Y37.657Z0F1600
G1 X113.716Y37.643Z0F1600
G1 X113.542Z0F1600
G1 X113.369Y37.627Z0F1600
G1 X113.022Y37.608Z0F1600
G1 X112.502Y37.599Z0F1600
G1 X112.155Y37.587Z0F1600
G1 X111.808Y37.579Z0F1600
G1 X110.941Y37.568Z0F1600
G1 X110.247Y37.572Z0F1600
G1 X106.952Z0F1600
G1 X106.778Y37.56Z0F1600
G1 X106.605Y37.521Z0F1600
G1 X106.432Y37.504Z0F1600
G1 X106.085Y37.494Z0F1600
G1 X105.911Y37.478Z0F1600
G1 X105.738Y37.468Z0F1600
G1 X105.564Y37.436Z0F1600
G1 X105.391Y37.402Z0F1600
G1 X105.218Y37.37Z0F1600
G1 X105.044Y37.348Z0F1600
G1 X104.871Y37.426Z0F1600
G1 X104.697Y37.546Z0F1600
G1 X104.524Y37.672Z0F1600
G1 X104.35Y37.775Z0F1600
G1 X104.177Y37.86Z0F1600
G1 X104.004Y37.901Z0F1600
G1 X103.83Y37.849Z0F1600
G1 X103.657Y37.74Z0F1600
G1 X103.31Y37.416Z0F1600
G1 X103.136Y37.244Z0F1600
G1 X102.963Y37.18Z0F1600
G1 X102.79Y37.24Z0F1600
G1 X102.616Y37.412Z0F1600
G1 X102.443Y37.667Z0F1600
G1 X102.269Y37.903Z0F1600
G1 X102.096Y38.009Z0F1600
G1 X101.922Y37.941Z0F1600
G1 X101.749Y37.723Z0F1600
G1 X101.576Y37.442Z0F1600
G1 X101.402Y37.204Z0F1600
G1 X101.229Y37.11Z0F1600
G1 X101.055Y37.235Z0F1600
G1 X100.882Y37.502Z0F1600
G1 X100.708Y37.788Z0F1600
G1 X100.535Y38.005Z0F1600
G1 X100.362Y38.056Z0F1600
G1 X100.188Y37.847Z0F1600
G1 X100.015Y37.447Z0F1600
G1 X99.841Y37.105Z0F1600
G1 X99.668Y37.06Z0F1600
G1 X99.494Y37.338Z0F1600
G1 X99.321Y37.657Z0F1600
G1 X99.148Y37.955Z0F1600
G1 X98.974Y38.075Z0F1600
G1 X98.801Y37.919Z0F1600
G1 X98.627Y37.612Z0F1600
G1 X98.454Y37.266Z0F1600
G1 X98.28Y37.041Z0F1600
G1 X98.107Y37.131Z0F1600
G1 X97.934Y37.501Z0F1600
G1 X97.76Y37.929Z0F1600
G1 X97.587Y38.121Z0F1600
G1 X97.413Y37.917Z0F1600
G1 X97.24Y37.624Z0F1600
G1 X97.066Y37.344Z0F1600
G1 X96.893Y37.129Z0F1600
G1 X96.719Y37.112Z0F1600
G1 X96.546Y37.336Z0F1600
G1 X96.373Y37.669Z0F1600
G1 X96.199Y37.979Z0F1600
G1 X96.026Y38.068Z0F1600
G1 X95.852Y37.884Z0F1600
G1 X95.679Y37.591Z0F1600
G1 X95.505Y37.282Z0F1600
G1 X95.332Y37.119Z0F1600
G1 X95.159Y37.161Z0F1600
G1 X94.985Y37.388Z0F1600
G1 X94.812Y37.716Z0F1600
G1 X94.638Y38.026Z0F1600
G1 X94.465Y38.014Z0F1600
G1 X94.291Y37.846Z0F1600
G1 X94.118Y37.575Z0F1600
G1 X93.945Y37.275Z0F1600
G1 X93.771Y37.117Z0F1600
G1 X93.598Y37.161Z0F1600
G1 X93.424Y37.402Z0F1600
G1 X93.251Y37.709Z0F1600
G1 X93.077Y37.95Z0F1600
G1 X92.904Y38.026Z0F1600
G1 X92.731Y37.906Z0F1600
G1 X92.557Y37.643Z0F1600
G1 X92.384Y37.331Z0F1600
G1 X92.21Y37.131Z0F1600
G1 X92.037Z0F1600
G1 X91.863Y37.346Z0F1600
G1 X91.69Y37.655Z0F1600
G1 X91.517Y37.899Z0F1600
G1 X91.343Y38.009Z0F1600
G1 X91.17Y37.936Z0F1600
G1 X90.996Y37.728Z0F1600
G1 X90.823Y37.461Z0F1600
G1 X90.649Y37.24Z0F1600
G1 X90.476Y37.14Z0F1600
G1 X90.303Y37.201Z0F1600
G1 X90.129Y37.416Z0F1600
G1 X89.956Y37.79Z0F1600
G1 X89.782Y38.03Z0F1600
G1 X89.609Y37.99Z0F1600
G1 X89.435Y37.792Z0F1600
G1 X89.262Y37.561Z0F1600
G1 X89.089Y37.339Z0F1600
G1 X88.915Y37.187Z0F1600
G1 X88.742Y37.204Z0F1600
G1 X88.568Y37.327Z0F1600
G1 X88.395Y37.494Z0F1600
G1 X88.221Y37.676Z0F1600
G1 X88.048Y37.865Z0F1600
G1 X87.874Y38Z0F1600
G1 X87.701Y37.965Z0F1600
G1 X87.528Y37.747Z0F1600
G1 X87.354Y37.514Z0F1600
G1 X87.181Y37.294Z0F1600
G1 X87.007Y37.19Z0F1600
G1 X86.834Y37.251Z0F1600
G1 X86.66Y37.402Z0F1600
G1 X86.487Y37.502Z0F1600
G1 X86.314Y37.592Z0F1600
G1 X86.14Y37.749Z0F1600
G1 X85.967Y37.887Z0F1600
G1 X85.793Y37.929Z0F1600
G1 X85.62Y37.858Z0F1600
G1 X85.446Y37.728Z0F1600
G1 X85.273Y37.605Z0F1600
G1 X85.1Y37.495Z0F1600
G1 X84.926Y37.419Z0F1600
G1 X84.753Y37.329Z0F1600
G1 X84.579Y37.266Z0F1600
G1 X84.406Y37.242Z0F1600
G1 X84.232Y37.339Z0F1600
G1 X84.059Y37.52Z0F1600
G1 X83.886Y37.662Z0F1600
G1 X83.712Y37.747Z0F1600
G1 X83.539Y37.788Z0F1600
G1 X83.365Y37.782Z0F1600
G1 X83.192Y37.716Z0F1600
G1 X83.018Y37.671Z0F1600
G1 X82.845Y37.598Z0F1600
G1 X82.672Y37.579Z0F1600
G1 X82.498Z0F1600
G1 X82.325Z0F1600
G1 X82.151Z0F1600
G1 X81.978Y37.608Z0F1600
G1 X81.804Y37.613Z0F1600
G1 X81.631Y37.627Z0F1600
G1 X81.458Y37.624Z0F1600
G1 X81.284Y37.612Z0F1600
G1 X80.937Y37.599Z0F1600
G1 X80.417Y37.566Z0F1600
G1 X80.07Y37.539Z0F1600
G1 X79.897Y37.521Z0F1600
G1 X79.723Y37.518Z0F1600
G1 X79.55Y37.502Z0F1600
G1 X79.376Z0F1600
G1 X79.203Y37.492Z0F1600
G1 X79.03Z0F1600
G1 X78.856Y37.501Z0F1600
G1 X78.509Y37.504Z0F1600
G1 X78.336Z0F1600
G1 X78.162Y37.495Z0F1600
G1 X77.989Y37.502Z0F1600
G1 X77.642Y37.506Z0F1600
G1 X77.469Y37.509Z0F1600
G1 X77.122Z0F1600
G1 X76.948Y37.518Z0F1600
G1 X76.775Y37.53Z0F1600
G1 X76.601Y37.547Z0F1600
G1 X76.428Y37.575Z0F1600
G1 X75.908Y37.676Z0F1600
G1 X75.734Y37.703Z0F1600
G1 X75.561Y37.724Z0F1600
G1 X75.387Y37.738Z0F1600
G1 X75.214Y37.747Z0F1600
G1 X75.041Y37.742Z0F1600
G1 X74.867Y37.731Z0F1600
G1 X74.694Y37.698Z0F1600
G1 X74.52Y37.662Z0F1600
G1 X74.347Y37.584Z0F1600
G1 X74.173Y37.488Z0F1600
G1 X74Y37.397Z0F1600
G1 X73.827Y37.331Z0F1600
G1 X73.653Y37.303Z0F1600
G1 X73.48Y37.306Z0F1600
G1 X73.306Y37.376Z0F1600
G1 X73.133Y37.471Z0F1600
G1 X72.959Y37.57Z0F1600
G1 X72.613Y37.782Z0F1600
G1 X72.439Y37.863Z0F1600
G1 X72.266Y37.889Z0F1600
G1 X72.092Y37.846Z0F1600
G1 X71.919Y37.671Z0F1600
G1 X71.745Y37.591Z0F1600
G1 X71.572Y37.58Z0F1600
G1 X71.399Y37.573Z0F1600
G1 X71.225Y37.57Z0F1600
G1 X70.705Y37.542Z0F1600
G1 X70.531Y37.521Z0F1600
G1 X70.358Y37.57Z0F1600
G1 X69.838Z0F1600
G1 X69.664Y37.537Z0F1600
G1 X69.144Y37.497Z0F1600
G1 X68.624Y37.48Z0F1600
G1 X68.277Y37.513Z0F1600
G1 X68.103Z0F1600
G1 X67.93Y37.53Z0F1600
G1 X67.756Y37.534Z0F1600
G1 X67.583Y37.553Z0F1600
G1 X67.41Y37.549Z0F1600
G1 X67.236Y37.535Z0F1600
G1 X67.063Y37.532Z0F1600
G1 X66.889Y37.535Z0F1600
G1 X66.716Y37.532Z0F1600
G1 X66.542Y37.525Z0F1600
G1 X66.196Z0F1600
G1 X66.022Y37.532Z0F1600
G1 X65.328Y37.582Z0F1600
G1 X64.808Y37.627Z0F1600
G1 X64.635Y37.638Z0F1600
G1 X64.288Y37.653Z0F1600
G1 X64.114Y37.667Z0F1600
G1 X63.941Y37.691Z0F1600
G1 X63.768Y37.703Z0F1600
G1 X63.421Z0F1600
G1 X63.247Y37.684Z0F1600
G1 X63.074Y37.674Z0F1600
G1 X62.9Y37.667Z0F1600
G1 X62.727Y37.632Z0F1600
G1 X62.554Y37.61Z0F1600
G1 X62.207Y37.577Z0F1600
G1 X62.033Y37.57Z0F1600
G1 X61.34Y37.573Z0F1600
G1 X50.24Y37.57Z0F1600
G1 X36.886Z0F1600
G1 X36.712Y37.535Z0F1600
G1 X36.539Z0F1600
G1 X36.365Y37.513Z0F1600
G1 X36.192Y37.523Z0F1600
G1 X36.019Y37.518Z0F1600
G1 X35.672Y37.523Z0F1600
G1 X35.498Y37.532Z0F1600
G1 X35.151Y37.54Z0F1600
G1 X34.978Z0F1600
G1 X34.805Y37.52Z0F1600
G1 X34.631Y37.57Z0F1600
G1 X4.628Y37.573Z0F1600

; Color picking sequence
G1 Z10 F1000;         ; Raise brush to safe height
G0 X131 Y5 F1200;    ; Rapid move to color 1 position
G1 Z0 F1000;         ; Lower into color - controlled movement
G1 X130.102Y7.295Z0S800F1200
G1 X130.026Y7.642Z0F1200
G1 X130Y8Z0F1200
G1 X130.026Y8.358Z0F1200
G1 X130.102Y8.705Z0F1200
G1 X130.225Y9.041Z0F1200
G1 X130.393Y9.362Z0F1200
G1 X130.603Y9.668Z0F1200
G1 X130.854Y9.957Z0F1200
G1 X131.142Y10.226Z0F1200
G1 X131.464Y10.475Z0F1200
G1 X131.82Y10.701Z0F1200
G1 X132.204Y10.902Z0F1200
G1 X132.617Y11.078Z0F1200
G1 X133.054Y11.225Z0F1200
G1 X133.513Y11.343Z0F1200
G1 X133.992Y11.429Z0F1200
G1 X134.489Y11.482Z0F1200
G1 X135Y11.5Z0F1200
G1 X135.511Y11.482Z0F1200
G1 X136.008Y11.429Z0F1200
G1 X136.487Y11.343Z0F1200
G1 X136.946Y11.225Z0F1200
G1 X137.383Y11.078Z0F1200
G1 X137.796Y10.902Z0F1200
G1 X138.18Y10.701Z0F1200
G1 X138.536Y10.475Z0F1200
G1 X138.858Y10.226Z0F1200
G1 X139.146Y9.957Z0F1200
G1 X139.397Y9.668Z0F1200
G1 X139.607Y9.362Z0F1200
G1 X139.775Y9.041Z0F1200
G1 X139.898Y8.705Z0F1200
G1 X139.974Y8.358Z0F1200
G1 X140Y8Z0F1200
G1 X139.974Y7.642Z0F1200
G1 X139.898Y7.295Z0F1200
G1 X139.775Y6.959Z0F1200
G1 X139.607Y6.638Z0F1200
G1 X139.397Y6.332Z0F1200
G1 X139.146Y6.043Z0F1200
G1 X138.858Y5.774Z0F1200
G1 X138.536Y5.525Z0F1200
G1 X138.18Y5.299Z0F1200
G1 X137.796Y5.098Z0F1200
G1 X137.383Y4.922Z0F1200
G1 X136.946Y4.775Z0F1200
G1 X136.487Y4.657Z0F1200
G1 X136.008Y4.571Z0F1200
G1 X135.511Y4.518Z0F1200
G1 X135Y4.5Z0F1200
G1 X134.489Y4.518Z0F1200
G1 X133.992Y4.571Z0F1200
G1 X133.513Y4.657Z0F1200
G1 X133.054Y4.775Z0F1200
G1 X132.617Y4.922Z0F1200
G1 X132.204Y5.098Z0F1200
G1 X131.82Y5.299Z0F1200
G1 X131.464Y5.525Z0F1200
G1 X131.142Y5.774Z0F1200
G1 X130.854Y6.043Z0F1200
G1 X130.603Y6.332Z0F1200
G1 X130.393Y6.638Z0F1200
G1 X130.225Y6.959Z0F1200
G1 Z7 F800;         ; Raise from color - controlled movement
G1 X124 Y8 Z1 F1200;     ; Movement in paint - controlled movement
G1 X114 Y18 Z8 F500;     ; Move in paint - controlled movement
G1 F1200;           ; Set feed rate to 1000
G0 Z4.8F1000
G0 Y39.134Z4.8
G1 Z0F1000
G1 X34.458Y39.131Z0F1600
G1 X34.805Y39.065Z0F1600
G1 X34.978Y39.077Z0F1600
G1 X35.151Y39.067Z0F1600
G1 X35.325Z0F1600
G1 X35.498Y39.06Z0F1600
G1 X35.672Z0F1600
G1 X35.845Z0F1600
G1 X36.019Z0F1600
G1 X36.539Y39.089Z0F1600
G1 X36.886Y39.105Z0F1600
G1 X37.059Z0F1600
G1 X37.233Y39.108Z0F1600
G1 X37.406Y39.117Z0F1600
G1 X37.753Y39.131Z0F1600
G1 X37.926Y39.134Z0F1600
G1 X59.258Y39.138Z0F1600
G1 X59.432Y39.157Z0F1600
G1 X59.605Z0F1600
G1 X59.779Y39.169Z0F1600
G1 X59.952Y39.148Z0F1600
G1 X60.126Y39.138Z0F1600
G1 X60.299Z0F1600
G1 X60.472Y39.148Z0F1600
G1 X60.646Y39.172Z0F1600
G1 X60.819Y39.181Z0F1600
G1 X60.993Y39.223Z0F1600
G1 X61.166Y39.254Z0F1600
G1 X61.34Y39.27Z0F1600
G1 X61.513Y39.254Z0F1600
G1 X61.686Y39.257Z0F1600
G1 X61.86Y39.245Z0F1600
G1 X62.033Y39.228Z0F1600
G1 X62.207Y39.2Z0F1600
G1 X62.9Y39.1Z0F1600
G1 X63.421Y39.039Z0F1600
G1 X63.594Y39.032Z0F1600
G1 X63.768Y39.02Z0F1600
G1 X64.114Z0F1600
G1 X64.288Y39.023Z0F1600
G1 X64.635Y39.041Z0F1600
G1 X64.808Y39.046Z0F1600
G1 X64.982Y39.06Z0F1600
G1 X65.155Y39.068Z0F1600
G1 X65.328Y39.087Z0F1600
G1 X65.502Y39.098Z0F1600
G1 X65.675Y39.113Z0F1600
G1 X65.849Y39.124Z0F1600
G1 X66.196Y39.148Z0F1600
G1 X66.369Y39.157Z0F1600
G1 X66.542Z0F1600
G1 X67.236Y39.136Z0F1600
G1 X67.583Z0F1600
G1 X67.93Y39.159Z0F1600
G1 X68.103Y39.179Z0F1600
G1 X68.277Y39.211Z0F1600
G1 X68.45Y39.233Z0F1600
G1 X68.624Y39.245Z0F1600
G1 X68.797Y39.252Z0F1600
G1 X69.144Y39.237Z0F1600
G1 X69.317Y39.226Z0F1600
G1 X69.491Y39.204Z0F1600
G1 X69.664Y39.185Z0F1600
G1 X69.838Y39.138Z0F1600
G1 X70.011Z0F1600
G1 X70.358Y39.178Z0F1600
G1 X70.531Z0F1600
G1 X70.705Y39.174Z0F1600
G1 X70.878Z0F1600
G1 X71.052Y39.162Z0F1600
G1 X71.225Y39.19Z0F1600
G1 X71.399Y39.15Z0F1600
G1 X71.572Y38.978Z0F1600
G1 X71.745Y38.878Z0F1600
G1 X71.919Y38.827Z0F1600
G1 X72.092Y38.831Z0F1600
G1 X72.266Y38.902Z0F1600
G1 X72.439Y39.034Z0F1600
G1 X72.613Y39.185Z0F1600
G1 X72.786Y39.32Z0F1600
G1 X72.959Y39.403Z0F1600
G1 X73.133Y39.453Z0F1600
G1 X73.306Y39.389Z0F1600
G1 X73.48Y39.33Z0F1600
G1 X73.827Y39.133Z0F1600
G1 X74Y39.06Z0F1600
G1 X74.173Y39.013Z0F1600
G1 X74.347Y38.982Z0F1600
G1 X74.52Y38.964Z0F1600
G1 X74.867Z0F1600
G1 X75.041Y38.982Z0F1600
G1 X75.214Y39.004Z0F1600
G1 X75.387Y39.032Z0F1600
G1 X75.561Y39.067Z0F1600
G1 X75.908Y39.11Z0F1600
G1 X76.081Y39.124Z0F1600
G1 X76.775Y39.16Z0F1600
G1 X77.122Y39.183Z0F1600
G1 X77.295Y39.204Z0F1600
G1 X77.469Y39.219Z0F1600
G1 X77.989Y39.247Z0F1600
G1 X78.162Z0F1600
G1 X78.509Y39.24Z0F1600
G1 X78.683Y39.231Z0F1600
G1 X78.856Y39.219Z0F1600
G1 X79.03Y39.211Z0F1600
G1 X79.203Y39.19Z0F1600
G1 X79.376Y39.183Z0F1600
G1 X79.55Y39.165Z0F1600
G1 X79.897Y39.139Z0F1600
G1 X80.07Y39.131Z0F1600
G1 X80.244Y39.126Z0F1600
G1 X80.59Y39.133Z0F1600
G1 X80.764Y39.122Z0F1600
G1 X80.937Y39.107Z0F1600
G1 X81.111Y39.082Z0F1600
G1 X81.458Y39.025Z0F1600
G1 X81.631Y39.001Z0F1600
G1 X81.804Y38.99Z0F1600
G1 X81.978Y38.969Z0F1600
G1 X82.151Y38.983Z0F1600
G1 X82.325Y38.964Z0F1600
G1 X82.498Y38.997Z0F1600
G1 X82.672Y39.053Z0F1600
G1 X82.845Y39.164Z0F1600
G1 X83.018Y39.289Z0F1600
G1 X83.192Y39.396Z0F1600
G1 X83.365Y39.441Z0F1600
G1 X83.539Y39.438Z0F1600
G1 X83.712Y39.36Z0F1600
G1 X83.886Y39.143Z0F1600
G1 X84.059Y38.923Z0F1600
G1 X84.232Y38.789Z0F1600
G1 X84.406Y38.761Z0F1600
G1 X84.579Y38.86Z0F1600
G1 X84.753Y38.983Z0F1600
G1 X84.926Y39.117Z0F1600
G1 X85.1Y39.299Z0F1600
G1 X85.273Y39.431Z0F1600
G1 X85.446Y39.472Z0F1600
G1 X85.62Y39.445Z0F1600
G1 X85.793Y39.332Z0F1600
G1 X85.967Y39.191Z0F1600
G1 X86.14Y39.027Z0F1600
G1 X86.314Y38.867Z0F1600
G1 X86.487Y38.761Z0F1600
G1 X86.66Y38.777Z0F1600
G1 X86.834Y38.919Z0F1600
G1 X87.007Y39.148Z0F1600
G1 X87.181Y39.374Z0F1600
G1 X87.354Y39.504Z0F1600
G1 X87.528Y39.514Z0F1600
G1 X87.701Y39.405Z0F1600
G1 X87.874Y39.209Z0F1600
G1 X88.048Y38.949Z0F1600
G1 X88.221Y38.751Z0F1600
G1 X88.395Y38.708Z0F1600
G1 X88.568Y38.831Z0F1600
G1 X88.742Y39.067Z0F1600
G1 X88.915Y39.309Z0F1600
G1 X89.089Y39.483Z0F1600
G1 X89.262Y39.538Z0F1600
G1 X89.435Y39.445Z0F1600
G1 X89.609Y39.27Z0F1600
G1 X89.782Y39.046Z0F1600
G1 X89.956Y38.846Z0F1600
G1 X90.129Y38.749Z0F1600
G1 X90.303Y38.775Z0F1600
G1 X90.476Y38.914Z0F1600
G1 X90.649Y39.171Z0F1600
G1 X90.823Y39.387Z0F1600
G1 X90.996Y39.53Z0F1600
G1 X91.17Y39.512Z0F1600
G1 X91.343Y39.387Z0F1600
G1 X91.517Y39.141Z0F1600
G1 X91.69Y38.888Z0F1600
G1 X91.863Y38.671Z0F1600
G1 X92.037Y38.689Z0F1600
G1 X92.21Y38.971Z0F1600
G1 X92.384Y39.337Z0F1600
G1 X92.557Y39.608Z0F1600
G1 X92.731Y39.611Z0F1600
G1 X92.904Y39.368Z0F1600
G1 X93.077Y39.063Z0F1600
G1 X93.251Y38.791Z0F1600
G1 X93.424Y38.664Z0F1600
G1 X93.598Y38.761Z0F1600
G1 X93.771Y39.028Z0F1600
G1 X93.945Y39.349Z0F1600
G1 X94.118Y39.592Z0F1600
G1 X94.291Z0F1600
G1 X94.465Y39.37Z0F1600
G1 X94.638Y39.058Z0F1600
G1 X94.812Y38.801Z0F1600
G1 X94.985Y38.663Z0F1600
G1 X95.159Y38.758Z0F1600
G1 X95.332Y39.046Z0F1600
G1 X95.505Y39.37Z0F1600
G1 X95.679Y39.57Z0F1600
G1 X95.852Z0F1600
G1 X96.026Y39.382Z0F1600
G1 X96.199Y38.968Z0F1600
G1 X96.373Y38.604Z0F1600
G1 X96.546Y38.64Z0F1600
G1 X96.719Y38.923Z0F1600
G1 X96.893Y39.387Z0F1600
G1 X97.066Y39.661Z0F1600
G1 X97.24Y39.622Z0F1600
G1 X97.413Y39.294Z0F1600
G1 X97.587Y38.995Z0F1600
G1 X97.76Y38.739Z0F1600
G1 X97.934Y38.662Z0F1600
G1 X98.107Y38.815Z0F1600
G1 X98.28Y39.132Z0F1600
G1 X98.454Y39.374Z0F1600
G1 X98.627Y39.557Z0F1600
G1 X98.801Y39.594Z0F1600
G1 X98.974Y39.311Z0F1600
G1 X99.148Y38.933Z0F1600
G1 X99.321Y38.661Z0F1600
G1 X99.494Y38.673Z0F1600
G1 X99.668Y38.884Z0F1600
G1 X99.841Y39.216Z0F1600
G1 X100.015Y39.478Z0F1600
G1 X100.188Y39.544Z0F1600
G1 X100.362Y39.512Z0F1600
G1 X100.535Y39.297Z0F1600
G1 X100.708Y39.016Z0F1600
G1 X100.882Y38.777Z0F1600
G1 X101.055Y38.68Z0F1600
G1 X101.229Y38.789Z0F1600
G1 X101.402Y39.039Z0F1600
G1 X101.576Y39.304Z0F1600
G1 X101.749Y39.488Z0F1600
G1 X101.922Y39.521Z0F1600
G1 X102.096Y39.457Z0F1600
G1 X102.269Y39.28Z0F1600
G1 X102.443Y39.053Z0F1600
G1 X102.616Y38.874Z0F1600
G1 X102.79Y38.768Z0F1600
G1 X102.963Y38.786Z0F1600
G1 X103.136Y38.89Z0F1600
G1 X103.31Y39.046Z0F1600
G1 X103.483Y39.212Z0F1600
G1 X103.657Y39.358Z0F1600
G1 X103.83Y39.438Z0F1600
G1 X104.004Y39.446Z0F1600
G1 X104.177Y39.377Z0F1600
G1 X104.35Y39.296Z0F1600
G1 X104.524Y39.209Z0F1600
G1 X104.697Y39.106Z0F1600
G1 X104.871Y39.015Z0F1600
G1 X105.044Y38.956Z0F1600
G1 X105.218Y38.916Z0F1600
G1 X105.391Y38.886Z0F1600
G1 X105.564Y38.893Z0F1600
G1 X105.738Y38.938Z0F1600
G1 X105.911Y39.028Z0F1600
G1 X106.085Y39.124Z0F1600
G1 X106.258Y39.214Z0F1600
G1 X106.432Y39.278Z0F1600
G1 X106.605Y39.283Z0F1600
G1 X106.778Y39.315Z0F1600
G1 X106.952Y39.309Z0F1600
G1 X107.125Y39.294Z0F1600
G1 X107.299Y39.287Z0F1600
G1 X107.472Y39.256Z0F1600
G1 X107.646Y39.183Z0F1600
G1 X107.819Y39.138Z0F1600
G1 X111.114Z0F1600
G1 X111.288Y39.146Z0F1600
G1 X111.461Z0F1600
G1 X111.981Y39.153Z0F1600
G1 X112.155Y39.15Z0F1600
G1 X112.502Z0F1600
G1 X112.849Y39.146Z0F1600
G1 X113.195Y39.138Z0F1600
G1 X113.369Y39.129Z0F1600
G1 X113.716Y39.117Z0F1600
G1 X114.063Y39.101Z0F1600
G1 X114.236Y39.096Z0F1600
G1 X114.409Y39.077Z0F1600
G1 X114.583Y39.074Z0F1600
G1 X114.756Z0F1600
G1 X114.93Y39.067Z0F1600
G1 X115.103Y39.054Z0F1600
G1 X115.277Y39.048Z0F1600
G1 X115.45Y39.054Z0F1600
G1 X115.623Z0F1600
G1 X115.97Y39.039Z0F1600
G1 X116.144Y39.046Z0F1600
G1 X116.317Y39.058Z0F1600
G1 X116.491Z0F1600
G1 X116.664Y39.067Z0F1600
G1 X116.837Y39.08Z0F1600
G1 X117.184Y39.101Z0F1600
G1 X118.398Y39.193Z0F1600
G1 X118.745Y39.209Z0F1600
G1 X118.919Y39.219Z0F1600
G1 X119.092Y39.226Z0F1600
G1 X119.439Y39.231Z0F1600
G1 X119.959Y39.221Z0F1600
G1 X120.133Y39.214Z0F1600
G1 X120.306Z0F1600
G1 X120.48Y39.202Z0F1600
G1 X120.653Y39.186Z0F1600
G1 X120.826Z0F1600
G1 X121Y39.174Z0F1600
G1 X121.867Y39.094Z0F1600
G1 X122.214Y39.068Z0F1600
G1 X122.734Y39.044Z0F1600
G1 X122.908Y39.041Z0F1600
G1 X123.081Z0F1600
G1 X123.254Y39.046Z0F1600
G1 X123.428Y39.041Z0F1600
G1 X123.948Y39.048Z0F1600
G1 X124.122Y39.054Z0F1600
G1 X124.295Y39.065Z0F1600
G1 X125.162Y39.139Z0F1600
G1 X125.509Y39.172Z0F1600
G1 X125.682Y39.185Z0F1600
G1 X125.856Y39.202Z0F1600
G1 X126.029Y39.211Z0F1600
G1 X126.203Y39.224Z0F1600
G1 X126.376Y39.231Z0F1600
G1 X126.55Y39.243Z0F1600
G1 X126.723Y39.249Z0F1600
G1 X127.07Z0F1600
G1 X127.243Y39.237Z0F1600
G1 X127.417Y39.23Z0F1600
G1 X127.59Y39.216Z0F1600
G1 X127.764Y39.198Z0F1600
G1 X127.937Y39.186Z0F1600
G1 X128.631Y39.115Z0F1600
G1 X129.325Y39.049Z0F1600
G1 X129.498Y39.046Z0F1600
G1 X129.671Y39.07Z0F1600
G1 X129.845Y39.129Z0F1600
G1 X131.232Z0F1600
G1 X131.406Y39.1Z0F1600
G1 X131.579Y39.094Z0F1600
G1 X131.753Y39.079Z0F1600
G1 X131.926Y39.075Z0F1600
G1 X132.099Y39.08Z0F1600
G1 X132.273Y39.075Z0F1600
G1 X132.446Z0F1600
G1 X132.62Y39.072Z0F1600
G1 X132.793Z0F1600
G1 X133.313Y39.08Z0F1600
G1 X133.487Y39.087Z0F1600
G1 X133.66Y39.091Z0F1600
G1 X134.007Y39.101Z0F1600
G1 X134.354Y39.106Z0F1600
G1 X135.221Y39.139Z0F1600
G1 X135.915Y39.162Z0F1600
G1 X136.088Y39.172Z0F1600
G1 X136.609Y39.191Z0F1600
G1 X136.956Y39.2Z0F1600
G1 X137.649Y39.205Z0F1600
G1 X137.823Y39.197Z0F1600
G1 X138.343Z0F1600
G1 X138.69Y39.19Z0F1600
G1 X138.863Y39.183Z0F1600
G1 X139.037Z0F1600
G1 X140.077Y39.157Z0F1600
G1 X140.771Y39.133Z0F1600
G1 X141.118Y39.117Z0F1600
G1 X141.812Y39.089Z0F1600
G1 X142.158Y39.079Z0F1600
G1 X142.505Y39.072Z0F1600
G1 X143.199Y39.063Z0F1600
G1 X143.372Y39.129Z0F1600
G0 Z4.8F1000
G0 Y40.697Z4.8
G1 Z0F1000
G1 X143.199Y40.737Z0F1600
G1 X142.852Y40.714Z0F1600
G1 X142.679Y40.7Z0F1600
G1 X142.332Y40.678Z0F1600
G1 X141.638Y40.647Z0F1600
G1 X140.944Y40.619Z0F1600
G1 X140.771Y40.615Z0F1600
G1 X140.598Y40.624Z0F1600
G1 X140.251Z0F1600
G1 X140.077Z0F1600
G1 X139.73Y40.628Z0F1600
G1 X139.384Y40.634Z0F1600
G1 X139.21Z0F1600
G1 X139.037Y40.641Z0F1600
G1 X138.863Y40.65Z0F1600
G1 X138.516Y40.662Z0F1600
G1 X137.129Y40.723Z0F1600
G1 X136.782Y40.737Z0F1600
G1 X136.435Y40.745Z0F1600
G1 X136.262Y40.754Z0F1600
G1 X135.915Y40.763Z0F1600
G1 X135.742Y40.775Z0F1600
G1 X135.395Z0F1600
G1 X135.221Y40.78Z0F1600
G1 X135.048Z0F1600
G1 X134.874Z0F1600
G1 X134.527Y40.766Z0F1600
G1 X134.354Y40.754Z0F1600
G1 X134.181Y40.747Z0F1600
G1 X134.007Y40.744Z0F1600
G1 X133.66Y40.723Z0F1600
G1 X133.313Y40.713Z0F1600
G1 X132.273Y40.671Z0F1600
G1 X131.753Y40.655Z0F1600
G1 X131.579Y40.66Z0F1600
G1 X131.406Y40.626Z0F1600
G1 X131.232Y40.631Z0F1600
G1 X131.059Y40.626Z0F1600
G1 X130.885Z0F1600
G1 X130.712Y40.619Z0F1600
G1 X130.539Z0F1600
G1 X130.192Y40.629Z0F1600
G1 X130.018Y40.622Z0F1600
G1 X129.671Y40.631Z0F1600
G1 X129.498Y40.64Z0F1600
G1 X129.325Y40.617Z0F1600
G1 X129.151Y40.624Z0F1600
G1 X128.978Y40.628Z0F1600
G1 X128.804Y40.64Z0F1600
G1 X128.631Y40.648Z0F1600
G1 X128.457Y40.667Z0F1600
G1 X128.111Y40.714Z0F1600
G1 X127.59Y40.775Z0F1600
G1 X127.417Y40.787Z0F1600
G1 X127.243Y40.792Z0F1600
G1 X126.896Z0F1600
G1 X126.723Y40.803Z0F1600
G1 X126.55Z0F1600
G1 X126.203Y40.791Z0F1600
G1 X126.029Y40.778Z0F1600
G1 X125.856Z0F1600
G1 X125.682Y40.761Z0F1600
G1 X125.509Y40.754Z0F1600
G1 X125.336Y40.733Z0F1600
G1 X125.162Y40.718Z0F1600
G1 X124.468Y40.647Z0F1600
G1 X124.295Y40.633Z0F1600
G1 X124.122Y40.624Z0F1600
G1 X123.775Y40.6Z0F1600
G1 X123.601Z0F1600
G1 X123.254Y40.595Z0F1600
G1 X123.081Y40.6Z0F1600
G1 X122.908Y40.596Z0F1600
G1 X122.734Y40.603Z0F1600
G1 X122.561Z0F1600
G1 X122.387Y40.621Z0F1600
G1 X122.214Y40.631Z0F1600
G1 X122.04Y40.634Z0F1600
G1 X121.867Y40.655Z0F1600
G1 X121.173Y40.716Z0F1600
G1 X120.653Y40.759Z0F1600
G1 X120.48Y40.768Z0F1600
G1 X120.133Y40.796Z0F1600
G1 X119.959Z0F1600
G1 X119.786Y40.803Z0F1600
G1 X119.612Z0F1600
G1 X119.439Y40.796Z0F1600
G1 X119.266Z0F1600
G1 X119.092Y40.787Z0F1600
G1 X118.919Y40.775Z0F1600
G1 X118.745Y40.758Z0F1600
G1 X118.572Y40.751Z0F1600
G1 X118.398Y40.739Z0F1600
G1 X118.225Y40.732Z0F1600
G1 X117.705Y40.688Z0F1600
G1 X117.358Y40.654Z0F1600
G1 X117.184Y40.633Z0F1600
G1 X117.011Y40.629Z0F1600
G1 X116.317Y40.607Z0F1600
G1 X116.144Y40.603Z0F1600
G1 X115.623Y40.612Z0F1600
G1 X115.45Y40.621Z0F1600
G1 X115.103Y40.626Z0F1600
G1 X114.93Y40.633Z0F1600
G1 X114.409Y40.667Z0F1600
G1 X113.369Y40.697Z0F1600
G1 X113.022Y40.7Z0F1600
G1 X111.635Y40.697Z0F1600
G1 X108.513Z0F1600
G1 X108.339Y40.706Z0F1600
G1 X108.166Y40.723Z0F1600
G1 X107.993Y40.747Z0F1600
G1 X107.819Y40.765Z0F1600
G1 X107.646Y40.799Z0F1600
G1 X107.472Y40.839Z0F1600
G1 X107.299Y40.865Z0F1600
G1 X107.125Y40.879Z0F1600
G1 X106.952Y40.87Z0F1600
G1 X106.778Y40.856Z0F1600
G1 X106.605Y40.834Z0F1600
G1 X106.432Y40.782Z0F1600
G1 X106.258Y40.726Z0F1600
G1 X106.085Y40.66Z0F1600
G1 X105.738Y40.494Z0F1600
G1 X105.564Y40.392Z0F1600
G1 X105.391Y40.34Z0F1600
G1 X105.218Y40.485Z0F1600
G1 X105.044Y40.57Z0F1600
G1 X104.871Y40.671Z0F1600
G1 X104.697Y40.815Z0F1600
G1 X104.524Y40.941Z0F1600
G1 X104.35Y41.026Z0F1600
G1 X104.177Y41.054Z0F1600
G1 X104.004Y40.967Z0F1600
G1 X103.83Y40.756Z0F1600
G1 X103.657Y40.534Z0F1600
G1 X103.483Y40.378Z0F1600
G1 X103.31Y40.312Z0F1600
G1 X103.136Y40.378Z0F1600
G1 X102.963Y40.534Z0F1600
G1 X102.616Y40.896Z0F1600
G1 X102.443Y41.049Z0F1600
G1 X102.269Y41.103Z0F1600
G1 X102.096Y40.995Z0F1600
G1 X101.922Y40.789Z0F1600
G1 X101.749Y40.56Z0F1600
G1 X101.576Y40.347Z0F1600
G1 X101.402Y40.244Z0F1600
G1 X101.229Y40.338Z0F1600
G1 X101.055Y40.593Z0F1600
G1 X100.882Y40.905Z0F1600
G1 X100.708Y41.124Z0F1600
G1 X100.535Y41.13Z0F1600
G1 X100.362Y40.96Z0F1600
G1 X100.188Y40.674Z0F1600
G1 X100.015Y40.376Z0F1600
G1 X99.841Y40.192Z0F1600
G1 X99.668Y40.263Z0F1600
G1 X99.494Y40.607Z0F1600
G1 X99.321Y40.974Z0F1600
G1 X99.148Y41.179Z0F1600
G1 X98.974Y41.132Z0F1600
G1 X98.801Y40.863Z0F1600
G1 X98.627Y40.492Z0F1600
G1 X98.454Y40.305Z0F1600
G1 X98.28Y40.336Z0F1600
G1 X98.107Y40.343Z0F1600
G1 X97.934Y40.645Z0F1600
G1 X97.76Y40.992Z0F1600
G1 X97.587Y41.132Z0F1600
G1 X97.413Y41.136Z0F1600
G1 X97.24Y40.891Z0F1600
G1 X97.066Y40.478Z0F1600
G1 X96.893Y40.206Z0F1600
G1 X96.719Y40.237Z0F1600
G1 X96.546Y40.473Z0F1600
G1 X96.373Y40.882Z0F1600
G1 X96.199Y41.174Z0F1600
G1 X96.026Y41.17Z0F1600
G1 X95.852Y40.924Z0F1600
G1 X95.679Y40.572Z0F1600
G1 X95.505Y40.341Z0F1600
G1 X95.332Y40.246Z0F1600
G1 X95.159Y40.347Z0F1600
G1 X94.985Y40.596Z0F1600
G1 X94.812Y40.905Z0F1600
G1 X94.638Y41.118Z0F1600
G1 X94.465Y41.15Z0F1600
G1 X94.291Y40.966Z0F1600
G1 X94.118Y40.652Z0F1600
G1 X93.945Y40.353Z0F1600
G1 X93.771Y40.173Z0F1600
G1 X93.598Y40.284Z0F1600
G1 X93.424Y40.66Z0F1600
G1 X93.251Y41.065Z0F1600
G1 X93.077Y41.233Z0F1600
G1 X92.904Y41.066Z0F1600
G1 X92.731Y40.709Z0F1600
G1 X92.557Y40.366Z0F1600
G1 X92.384Y40.196Z0F1600
G1 X92.21Y40.27Z0F1600
G1 X92.037Y40.608Z0F1600
G1 X91.863Y41.016Z0F1600
G1 X91.69Y41.247Z0F1600
G1 X91.517Y41.085Z0F1600
G1 X91.17Y40.438Z0F1600
G1 X90.996Y40.173Z0F1600
G1 X90.823Y40.227Z0F1600
G1 X90.476Y40.902Z0F1600
G1 X90.303Y41.129Z0F1600
G1 X90.129Y41.182Z0F1600
G1 X89.956Y40.948Z0F1600
G1 X89.782Y40.614Z0F1600
G1 X89.609Y40.371Z0F1600
G1 X89.435Y40.286Z0F1600
G1 X89.262Y40.303Z0F1600
G1 X89.089Y40.513Z0F1600
G1 X88.915Y40.872Z0F1600
G1 X88.742Y41.146Z0F1600
G1 X88.568Y41.167Z0F1600
G1 X88.395Y40.96Z0F1600
G1 X88.221Y40.626Z0F1600
G1 X88.048Y40.402Z0F1600
G1 X87.874Y40.274Z0F1600
G1 X87.701Z0F1600
G1 X87.528Y40.491Z0F1600
G1 X87.354Y40.856Z0F1600
G1 X87.181Y41.12Z0F1600
G1 X87.007Y41.151Z0F1600
G1 X86.834Y40.978Z0F1600
G1 X86.66Y40.688Z0F1600
G1 X86.487Y40.381Z0F1600
G1 X86.314Y40.22Z0F1600
G1 X86.14Y40.307Z0F1600
G1 X85.967Y40.555Z0F1600
G1 X85.793Y40.823Z0F1600
G1 X85.62Y41.037Z0F1600
G1 X85.446Y41.106Z0F1600
G1 X85.273Y41.028Z0F1600
G1 X85.1Y40.837Z0F1600
G1 X84.926Y40.619Z0F1600
G1 X84.753Y40.409Z0F1600
G1 X84.579Y40.31Z0F1600
G1 X84.406Y40.378Z0F1600
G1 X84.232Y40.532Z0F1600
G1 X84.059Y40.61Z0F1600
G1 X83.886Y40.754Z0F1600
G1 X83.712Y40.915Z0F1600
G1 X83.539Y41.011Z0F1600
G1 X83.365Y41.023Z0F1600
G1 X83.192Y40.969Z0F1600
G1 X83.018Y40.855Z0F1600
G1 X82.845Y40.669Z0F1600
G1 X82.672Y40.506Z0F1600
G1 X82.498Y40.406Z0F1600
G1 X82.325Y40.357Z0F1600
G1 X82.151Y40.399Z0F1600
G1 X81.978Y40.525Z0F1600
G1 X81.804Y40.666Z0F1600
G1 X81.631Y40.77Z0F1600
G1 X81.458Y40.837Z0F1600
G1 X81.284Y40.877Z0F1600
G1 X81.111Y40.895Z0F1600
G1 X80.937Y40.862Z0F1600
G1 X80.764Y40.82Z0F1600
G1 X80.59Y40.765Z0F1600
G1 X80.417Y40.733Z0F1600
G1 X80.244Z0F1600
G1 X80.07Y40.719Z0F1600
G1 X79.897Z0F1600
G1 X79.723Y40.704Z0F1600
G1 X79.55Y40.719Z0F1600
G1 X79.376Y40.732Z0F1600
G1 X79.203Z0F1600
G1 X79.03Y40.719Z0F1600
G1 X78.856Z0F1600
G1 X78.336Y40.702Z0F1600
G1 X77.989Y40.683Z0F1600
G1 X77.642Y40.65Z0F1600
G1 X77.295Y40.629Z0F1600
G1 X76.948Y40.603Z0F1600
G1 X76.775Y40.596Z0F1600
G1 X76.601Y40.603Z0F1600
G1 X76.428Y40.595Z0F1600
G1 X76.255Y40.603Z0F1600
G1 X76.081Y40.617Z0F1600
G1 X75.908Z0F1600
G1 X75.734Y40.61Z0F1600
G1 X75.561Y40.619Z0F1600
G1 X75.387Y40.633Z0F1600
G1 X75.214Y40.641Z0F1600
G1 X75.041Y40.638Z0F1600
G1 X74.867Y40.641Z0F1600
G1 X74.694Y40.654Z0F1600
G1 X74.52Y40.685Z0F1600
G1 X74.173Y40.766Z0F1600
G1 X74Y40.81Z0F1600
G1 X73.827Y40.844Z0F1600
G1 X73.653Y40.863Z0F1600
G1 X73.48Y40.922Z0F1600
G1 X73.306Y40.954Z0F1600
G1 X73.133Y40.915Z0F1600
G1 X72.959Y40.836Z0F1600
G1 X72.786Y40.723Z0F1600
G1 X72.613Y40.595Z0F1600
G1 X72.439Y40.473Z0F1600
G1 X72.266Y40.374Z0F1600
G1 X72.092Y40.355Z0F1600
G1 X71.919Y40.435Z0F1600
G1 X71.745Y40.57Z0F1600
G1 X71.572Y40.737Z0F1600
G1 X71.399Y40.931Z0F1600
G1 X71.225Y41.058Z0F1600
G1 X71.052Y41.032Z0F1600
G1 X70.878Y40.889Z0F1600
G1 X70.705Y40.761Z0F1600
G1 X70.531Y40.706Z0F1600
G1 X70.358Y40.695Z0F1600
G1 X69.838Z0F1600
G1 X69.491Y40.7Z0F1600
G1 X69.317Y40.692Z0F1600
G1 X69.144Y40.676Z0F1600
G1 X68.797Y40.633Z0F1600
G1 X68.624Y40.621Z0F1600
G1 X68.45Y40.612Z0F1600
G1 X68.277Y40.591Z0F1600
G1 X68.103Z0F1600
G1 X67.93Y40.617Z0F1600
G1 X67.756Y40.648Z0F1600
G1 X67.583Y40.69Z0F1600
G1 X67.236Z0F1600
G1 X67.063Y40.683Z0F1600
G1 X66.889Y40.652Z0F1600
G1 X66.716Y40.628Z0F1600
G1 X66.369Y40.612Z0F1600
G1 X66.196Y40.598Z0F1600
G1 X66.022Y40.605Z0F1600
G1 X65.849Y40.634Z0F1600
G1 X65.675Y40.631Z0F1600
G1 X65.502Y40.64Z0F1600
G1 X64.808Y40.704Z0F1600
G1 X64.461Y40.733Z0F1600
G1 X64.114Y40.768Z0F1600
G1 X63.941Y40.775Z0F1600
G1 X63.768Z0F1600
G1 X63.594Y40.778Z0F1600
G1 X63.247Y40.813Z0F1600
G1 X63.074Y40.822Z0F1600
G1 X62.9Z0F1600
G1 X62.727Y40.818Z0F1600
G1 X62.38Y40.791Z0F1600
G1 X62.033Y40.739Z0F1600
G1 X61.513Y40.652Z0F1600
G1 X61.166Y40.579Z0F1600
G1 X60.993Y40.546Z0F1600
G1 X60.819Y40.523Z0F1600
G1 X60.646Z0F1600
G1 X60.472Y40.532Z0F1600
G1 X60.299Y40.546Z0F1600
G1 X60.126Y40.581Z0F1600
G1 X59.952Y40.603Z0F1600
G1 X59.605Y40.671Z0F1600
G1 X59.432Y40.699Z0F1600
G1 X59.258Y40.702Z0F1600
G1 X58.911Y40.697Z0F1600
G1 X58.738Y40.704Z0F1600
G1 X58.565Z0F1600
G1 X58.218Y40.718Z0F1600
G1 X58.044Z0F1600
G1 X57.871Y40.697Z0F1600
G1 X40.181Z0F1600
G1 X40.007Y40.726Z0F1600
G1 X39.834Y40.775Z0F1600
G1 X39.661Y40.789Z0F1600
G1 X39.487Y40.792Z0F1600
G1 X39.14Z0F1600
G1 X38.967Z0F1600
G1 X38.793Y40.78Z0F1600
G1 X38.62Y40.777Z0F1600
G1 X38.447Y40.758Z0F1600
G1 X38.273Y40.747Z0F1600
G1 X37.926Y40.718Z0F1600
G1 X37.579Y40.692Z0F1600
G1 X36.886Y40.648Z0F1600
G1 X36.539Y40.638Z0F1600
G1 X35.672Y40.626Z0F1600
G1 X35.325Y40.629Z0F1600
G1 X35.151Y40.622Z0F1600
G1 X34.978Y40.626Z0F1600
G1 X34.805Y40.636Z0F1600
G1 X34.631Y40.68Z0F1600
G1 X34.458Y40.692Z0F1600
G1 X4.628Y40.695Z0F1600

; Color picking sequence
G1 Z10 F1000;         ; Raise brush to safe height
G0 X131 Y5 F1200;    ; Rapid move to color 1 position
G1 Z0 F1000;         ; Lower into color - controlled movement
G1 X130.102Y7.295Z0S800F1200
G1 X130.026Y7.642Z0F1200
G1 X130Y8Z0F1200
G1 X130.026Y8.358Z0F1200
G1 X130.102Y8.705Z0F1200
G1 X130.225Y9.041Z0F1200
G1 X130.393Y9.362Z0F1200
G1 X130.603Y9.668Z0F1200
G1 X130.854Y9.957Z0F1200
G1 X131.142Y10.226Z0F1200
G1 X131.464Y10.475Z0F1200
G1 X131.82Y10.701Z0F1200
G1 X132.204Y10.902Z0F1200
G1 X132.617Y11.078Z0F1200
G1 X133.054Y11.225Z0F1200
G1 X133.513Y11.343Z0F1200
G1 X133.992Y11.429Z0F1200
G1 X134.489Y11.482Z0F1200
G1 X135Y11.5Z0F1200
G1 X135.511Y11.482Z0F1200
G1 X136.008Y11.429Z0F1200
G1 X136.487Y11.343Z0F1200
G1 X136.946Y11.225Z0F1200
G1 X137.383Y11.078Z0F1200
G1 X137.796Y10.902Z0F1200
G1 X138.18Y10.701Z0F1200
G1 X138.536Y10.475Z0F1200
G1 X138.858Y10.226Z0F1200
G1 X139.146Y9.957Z0F1200
G1 X139.397Y9.668Z0F1200
G1 X139.607Y9.362Z0F1200
G1 X139.775Y9.041Z0F1200
G1 X139.898Y8.705Z0F1200
G1 X139.974Y8.358Z0F1200
G1 X140Y8Z0F1200
G1 X139.974Y7.642Z0F1200
G1 X139.898Y7.295Z0F1200
G1 X139.775Y6.959Z0F1200
G1 X139.607Y6.638Z0F1200
G1 X139.397Y6.332Z0F1200
G1 X139.146Y6.043Z0F1200
G1 X138.858Y5.774Z0F1200
G1 X138.536Y5.525Z0F1200
G1 X138.18Y5.299Z0F1200
G1 X137.796Y5.098Z0F1200
G1 X137.383Y4.922Z0F1200
G1 X136.946Y4.775Z0F1200
G1 X136.487Y4.657Z0F1200
G1 X136.008Y4.571Z0F1200
G1 X135.511Y4.518Z0F1200
G1 X135Y4.5Z0F1200
G1 X134.489Y4.518Z0F1200
G1 X133.992Y4.571Z0F1200
G1 X133.513Y4.657Z0F1200
G1 X133.054Y4.775Z0F1200
G1 X132.617Y4.922Z0F1200
G1 X132.204Y5.098Z0F1200
G1 X131.82Y5.299Z0F1200
G1 X131.464Y5.525Z0F1200
G1 X131.142Y5.774Z0F1200
G1 X130.854Y6.043Z0F1200
G1 X130.603Y6.332Z0F1200
G1 X130.393Y6.638Z0F1200
G1 X130.225Y6.959Z0F1200
G1 Z7 F800;         ; Raise from color - controlled movement
G1 X124 Y8 Z1 F1200;     ; Movement in paint - controlled movement
G1 X114 Y18 Z8 F500;     ; Move in paint - controlled movement
G1 F1200;           ; Set feed rate to 1000
G0 Z4.8F1000
G0 Y42.256Z4.8
G1 Z0F1000
G1 X34.805Y42.253Z0F1600
G1 X34.978Y42.22Z0F1600
G1 X35.151Y42.201Z0F1600
G1 X35.325Y42.188Z0F1600
G1 X35.498Y42.183Z0F1600
G1 X35.672Z0F1600
G1 X35.845Y42.176Z0F1600
G1 X36.019Z0F1600
G1 X36.192Y42.181Z0F1600
G1 X36.365Z0F1600
G1 X36.886Y42.201Z0F1600
G1 X37.406Y42.237Z0F1600
G1 X37.753Y42.265Z0F1600
G1 X37.926Y42.275Z0F1600
G1 X38.447Y42.315Z0F1600
G1 X38.793Y42.336Z0F1600
G1 X38.967Y42.353Z0F1600
G1 X39.314Y42.369Z0F1600
G1 X39.661Z0F1600
G1 X39.834Z0F1600
G1 X40.007Y42.357Z0F1600
G1 X40.354Y42.331Z0F1600
G1 X40.701Y42.294Z0F1600
G1 X41.048Y42.24Z0F1600
G1 X41.222Y42.223Z0F1600
G1 X41.395Y42.211Z0F1600
G1 X41.742Y42.176Z0F1600
G1 X42.089Y42.161Z0F1600
G1 X42.262Y42.164Z0F1600
G1 X42.436Y42.194Z0F1600
G1 X42.609Y42.242Z0F1600
G1 X42.782Y42.251Z0F1600
G1 X58.044Z0F1600
G1 X58.218Y42.235Z0F1600
G1 X58.391Y42.173Z0F1600
G1 X58.565Y42.155Z0F1600
G1 X58.738Y42.152Z0F1600
G1 X59.085Y42.298Z0F1600
G1 X59.258Y42.355Z0F1600
G1 X59.432Y42.386Z0F1600
G1 X59.605Y42.423Z0F1600
G1 X59.779Y42.416Z0F1600
G1 X59.952Y42.423Z0F1600
G1 X60.126Y42.395Z0F1600
G1 X60.299Z0F1600
G1 X60.472Y42.379Z0F1600
G1 X60.646Y42.357Z0F1600
G1 X60.819Y42.329Z0F1600
G1 X60.993Y42.292Z0F1600
G1 X61.34Y42.214Z0F1600
G1 X61.513Y42.178Z0F1600
G1 X61.686Y42.147Z0F1600
G1 X61.86Y42.129Z0F1600
G1 X62.033Y42.103Z0F1600
G1 X62.207Y42.1Z0F1600
G1 X62.38Y42.112Z0F1600
G1 X62.554Y42.128Z0F1600
G1 X62.727Y42.135Z0F1600
G1 X62.9Y42.161Z0F1600
G1 X63.074Y42.171Z0F1600
G1 X63.247Y42.19Z0F1600
G1 X63.421Y42.213Z0F1600
G1 X63.768Y42.261Z0F1600
G1 X63.941Y42.289Z0F1600
G1 X64.288Y42.334Z0F1600
G1 X64.635Y42.357Z0F1600
G1 X64.808Y42.362Z0F1600
G1 X64.982Y42.371Z0F1600
G1 X65.155Y42.365Z0F1600
G1 X65.328Y42.357Z0F1600
G1 X65.502Y42.364Z0F1600
G1 X65.675Z0F1600
G1 X65.849Y42.346Z0F1600
G1 X66.022Y42.336Z0F1600
G1 X66.196Y42.318Z0F1600
G1 X66.369Y42.308Z0F1600
G1 X66.716Y42.277Z0F1600
G1 X67.063Y42.261Z0F1600
G1 X67.236Y42.258Z0F1600
G1 X67.583Z0F1600
G1 X67.756Y42.261Z0F1600
G1 X67.93Z0F1600
G1 X68.624Y42.192Z0F1600
G1 X68.97Y42.173Z0F1600
G1 X69.144Z0F1600
G1 X69.317Y42.181Z0F1600
G1 X69.491Y42.206Z0F1600
G1 X69.664Y42.239Z0F1600
G1 X69.838Y42.253Z0F1600
G1 X70.011Z0F1600
G1 X70.185Y42.168Z0F1600
G1 X70.358Y42.024Z0F1600
G1 X70.531Y42.034Z0F1600
G1 X70.705Y42.107Z0F1600
G1 X70.878Y42.261Z0F1600
G1 X71.052Y42.419Z0F1600
G1 X71.225Y42.544Z0F1600
G1 X71.399Y42.594Z0F1600
G1 X71.572Y42.563Z0F1600
G1 X71.745Y42.454Z0F1600
G1 X71.919Y42.305Z0F1600
G1 X72.092Y42.159Z0F1600
G1 X72.266Y42.051Z0F1600
G1 X72.439Y41.998Z0F1600
G1 X72.613Y41.984Z0F1600
G1 X72.786Y42.01Z0F1600
G1 X72.959Y42.072Z0F1600
G1 X73.133Y42.157Z0F1600
G1 X73.306Y42.225Z0F1600
G1 X73.48Y42.28Z0F1600
G1 X73.653Y42.327Z0F1600
G1 X73.827Y42.35Z0F1600
G1 X74Y42.376Z0F1600
G1 X74.173Y42.346Z0F1600
G1 X74.347Y42.355Z0F1600
G1 X74.694Y42.332Z0F1600
G1 X74.867Y42.338Z0F1600
G1 X75.214Y42.327Z0F1600
G1 X75.387Z0F1600
G1 X75.561Z0F1600
G1 X76.255Y42.305Z0F1600
G1 X76.428Y42.292Z0F1600
G1 X76.775Y42.273Z0F1600
G1 X76.948Y42.27Z0F1600
G1 X77.122Y42.273Z0F1600
G1 X77.469Y42.268Z0F1600
G1 X77.642Y42.251Z0F1600
G1 X77.815Y42.221Z0F1600
G1 X78.162Y42.176Z0F1600
G1 X78.509Y42.147Z0F1600
G1 X78.856Y42.114Z0F1600
G1 X79.03Y42.093Z0F1600
G1 X79.203Y42.096Z0F1600
G1 X79.376Y42.114Z0F1600
G1 X79.55Y42.138Z0F1600
G1 X79.723Y42.18Z0F1600
G1 X80.07Y42.31Z0F1600
G1 X80.417Y42.456Z0F1600
G1 X80.59Y42.473Z0F1600
G1 X80.764Y42.462Z0F1600
G1 X80.937Y42.469Z0F1600
G1 X81.111Y42.443Z0F1600
G1 X81.284Y42.372Z0F1600
G1 X81.458Y42.247Z0F1600
G1 X81.631Y42.098Z0F1600
G1 X81.804Y42.003Z0F1600
G1 X81.978Y41.949Z0F1600
G1 X82.151Y41.956Z0F1600
G1 X82.325Y42.024Z0F1600
G1 X82.498Y42.18Z0F1600
G1 X82.845Y42.598Z0F1600
G1 X83.018Y42.679Z0F1600
G1 X83.192Y42.582Z0F1600
G1 X83.365Y42.402Z0F1600
G1 X83.539Y42.188Z0F1600
G1 X83.712Y41.992Z0F1600
G1 X83.886Y41.887Z0F1600
G1 X84.059Y41.906Z0F1600
G1 X84.232Y42.001Z0F1600
G1 X84.406Y42.228Z0F1600
G1 X84.579Y42.511Z0F1600
G1 X84.753Y42.712Z0F1600
G1 X84.926Y42.695Z0F1600
G1 X85.1Y42.457Z0F1600
G1 X85.273Y42.209Z0F1600
G1 X85.446Y41.951Z0F1600
G1 X85.62Y41.795Z0F1600
G1 X85.793Y41.881Z0F1600
G1 X85.967Y42.081Z0F1600
G1 X86.14Y42.339Z0F1600
G1 X86.314Y42.563Z0F1600
G1 X86.487Y42.676Z0F1600
G1 X86.66Y42.622Z0F1600
G1 X86.834Y42.447Z0F1600
G1 X87.181Y41.947Z0F1600
G1 X87.354Y41.835Z0F1600
G1 X87.528Y41.84Z0F1600
G1 X87.701Y42.14Z0F1600
G1 X87.874Y42.513Z0F1600
G1 X88.048Y42.756Z0F1600
G1 X88.221Y42.709Z0F1600
G1 X88.395Y42.424Z0F1600
G1 X88.568Y42.055Z0F1600
G1 X88.742Y41.784Z0F1600
G1 X88.915Y41.772Z0F1600
G1 X89.089Y42.034Z0F1600
G1 X89.262Y42.424Z0F1600
G1 X89.435Y42.7Z0F1600
G1 X89.609Y42.752Z0F1600
G1 X89.782Y42.52Z0F1600
G1 X89.956Y42.123Z0F1600
G1 X90.129Y41.843Z0F1600
G1 X90.303Y41.793Z0F1600
G1 X90.476Y41.932Z0F1600
G1 X90.649Y42.22Z0F1600
G1 X90.823Y42.556Z0F1600
G1 X90.996Y42.731Z0F1600
G1 X91.17Y42.693Z0F1600
G1 X91.343Y42.381Z0F1600
G1 X91.517Y42.015Z0F1600
G1 X91.69Y41.786Z0F1600
G1 X91.863Y41.802Z0F1600
G1 X92.037Y42.046Z0F1600
G1 X92.21Y42.393Z0F1600
G1 X92.384Y42.624Z0F1600
G1 X92.557Y42.69Z0F1600
G1 X92.731Y42.584Z0F1600
G1 X92.904Y42.398Z0F1600
G1 X93.077Y42.155Z0F1600
G1 X93.251Y41.916Z0F1600
G1 X93.424Y41.793Z0F1600
G1 X93.598Y41.895Z0F1600
G1 X93.771Y42.159Z0F1600
G1 X93.945Y42.388Z0F1600
G1 X94.118Y42.528Z0F1600
G1 X94.291Y42.629Z0F1600
G1 X94.465Y42.61Z0F1600
G1 X94.638Y42.462Z0F1600
G1 X94.812Y42.23Z0F1600
G1 X94.985Y42.008Z0F1600
G1 X95.159Y41.887Z0F1600
G1 X95.332Y41.873Z0F1600
G1 X95.505Y41.987Z0F1600
G1 X95.679Y42.206Z0F1600
G1 X95.852Y42.386Z0F1600
G1 X96.026Y42.554Z0F1600
G1 X96.199Y42.651Z0F1600
G1 X96.373Y42.596Z0F1600
G1 X96.546Y42.426Z0F1600
G1 X96.719Y42.112Z0F1600
G1 X96.893Y41.888Z0F1600
G1 X97.066Y41.8Z0F1600
G1 X97.24Y41.921Z0F1600
G1 X97.413Y42.19Z0F1600
G1 X97.587Y42.449Z0F1600
G1 X97.76Y42.561Z0F1600
G1 X97.934Y42.613Z0F1600
G1 X98.107Y42.58Z0F1600
G1 X98.28Y42.435Z0F1600
G1 X98.627Y42.015Z0F1600
G1 X98.801Y41.885Z0F1600
G1 X98.974Y41.881Z0F1600
G1 X99.148Y41.987Z0F1600
G1 X99.321Y42.194Z0F1600
G1 X99.494Y42.424Z0F1600
G1 X99.668Y42.615Z0F1600
G1 X99.841Y42.676Z0F1600
G1 X100.015Y42.561Z0F1600
G1 X100.188Y42.376Z0F1600
G1 X100.362Y42.136Z0F1600
G1 X100.535Y41.94Z0F1600
G1 X100.708Y41.892Z0F1600
G1 X100.882Y41.911Z0F1600
G1 X101.055Y42.048Z0F1600
G1 X101.229Y42.272Z0F1600
G1 X101.402Y42.518Z0F1600
G1 X101.576Y42.676Z0F1600
G1 X101.749Y42.658Z0F1600
G1 X101.922Y42.482Z0F1600
G1 X102.096Y42.242Z0F1600
G1 X102.269Y41.994Z0F1600
G1 X102.443Y41.845Z0F1600
G1 X102.616Y41.817Z0F1600
G1 X102.79Y42.053Z0F1600
G1 X102.963Y42.249Z0F1600
G1 X103.136Y42.45Z0F1600
G1 X103.31Y42.572Z0F1600
G1 X103.483Y42.617Z0F1600
G1 X103.657Y42.554Z0F1600
G1 X103.83Y42.424Z0F1600
G1 X104.004Y42.247Z0F1600
G1 X104.177Y42.079Z0F1600
G1 X104.35Y41.963Z0F1600
G1 X104.524Y41.913Z0F1600
G1 X104.697Y41.951Z0F1600
G1 X104.871Y42.07Z0F1600
G1 X105.218Y42.376Z0F1600
G1 X105.391Y42.49Z0F1600
G1 X105.564Y42.547Z0F1600
G1 X105.738Y42.567Z0F1600
G1 X105.911Y42.48Z0F1600
G1 X106.085Y42.405Z0F1600
G1 X106.258Y42.31Z0F1600
G1 X106.432Y42.202Z0F1600
G1 X106.605Y42.119Z0F1600
G1 X106.778Y42.053Z0F1600
G1 X106.952Y42.022Z0F1600
G1 X107.125Y42.005Z0F1600
G1 X107.299Y42.017Z0F1600
G1 X107.472Y42.093Z0F1600
G1 X107.646Y42.181Z0F1600
G1 X107.819Y42.244Z0F1600
G1 X107.993Y42.299Z0F1600
G1 X108.166Y42.348Z0F1600
G1 X108.339Y42.377Z0F1600
G1 X108.686Y42.289Z0F1600
G1 X108.86Y42.27Z0F1600
G1 X109.033Y42.261Z0F1600
G1 X110.421Z0F1600
G1 X113.195Z0F1600
G1 X113.369Y42.27Z0F1600
G1 X113.542Y42.289Z0F1600
G1 X113.716Y42.298Z0F1600
G1 X113.889Y42.303Z0F1600
G1 X114.063Z0F1600
G1 X114.236Y42.32Z0F1600
G1 X114.409Z0F1600
G1 X114.583Y42.327Z0F1600
G1 X114.756Z0F1600
G1 X115.103Y42.319Z0F1600
G1 X115.277Y42.322Z0F1600
G1 X115.45Y42.313Z0F1600
G1 X115.623Y42.31Z0F1600
G1 X115.797Y42.303Z0F1600
G1 X116.491Y42.266Z0F1600
G1 X116.837Y42.242Z0F1600
G1 X117.011Y42.227Z0F1600
G1 X117.184Y42.216Z0F1600
G1 X117.531Y42.185Z0F1600
G1 X117.705Y42.176Z0F1600
G1 X117.878Y42.171Z0F1600
G1 X118.225Y42.155Z0F1600
G1 X118.398Z0F1600
G1 X118.572Y42.162Z0F1600
G1 X118.919Z0F1600
G1 X119.439Y42.19Z0F1600
G1 X119.612Y42.194Z0F1600
G1 X120.306Y42.246Z0F1600
G1 X120.48Y42.263Z0F1600
G1 X120.826Y42.292Z0F1600
G1 X121Y42.305Z0F1600
G1 X121.173Y42.32Z0F1600
G1 X121.347Y42.332Z0F1600
G1 X121.694Y42.351Z0F1600
G1 X122.04Y42.36Z0F1600
G1 X122.214Y42.357Z0F1600
G1 X122.387Y42.362Z0F1600
G1 X122.561Y42.343Z0F1600
G1 X122.734Z0F1600
G1 X122.908Y42.346Z0F1600
G1 X123.081Y42.334Z0F1600
G1 X123.428Y42.306Z0F1600
G1 X123.601Y42.287Z0F1600
G1 X124.295Y42.22Z0F1600
G1 X124.815Y42.18Z0F1600
G1 X124.989Y42.171Z0F1600
G1 X125.162Y42.166Z0F1600
G1 X125.336Y42.15Z0F1600
G1 X125.509Y42.142Z0F1600
G1 X125.682Y42.157Z0F1600
G1 X125.856Y42.143Z0F1600
G1 X126.029Y42.161Z0F1600
G1 X126.203Y42.152Z0F1600
G1 X126.376Y42.18Z0F1600
G1 X126.55Z0F1600
G1 X126.723Y42.194Z0F1600
G1 X127.07Y42.23Z0F1600
G1 X127.417Y42.27Z0F1600
G1 X127.59Y42.287Z0F1600
G1 X127.937Y42.306Z0F1600
G1 X128.111Y42.313Z0F1600
G1 X128.284Y42.317Z0F1600
G1 X128.457Y42.324Z0F1600
G1 X128.631Z0F1600
G1 X128.978Y42.336Z0F1600
G1 X129.151Z0F1600
G1 X129.498Y42.327Z0F1600
G1 X129.671Z0F1600
G1 X129.845Y42.324Z0F1600
G1 X130.192Y42.32Z0F1600
G1 X130.365Y42.313Z0F1600
G1 X130.712Y42.308Z0F1600
G1 X130.885Y42.299Z0F1600
G1 X131.232Y42.289Z0F1600
G1 X131.753Y42.265Z0F1600
G1 X132.099Y42.246Z0F1600
G1 X132.793Y42.199Z0F1600
G1 X132.967Y42.195Z0F1600
G1 X133.14Y42.188Z0F1600
G1 X133.313Y42.178Z0F1600
G1 X133.66Y42.173Z0F1600
G1 X133.834Y42.166Z0F1600
G1 X134.007Y42.173Z0F1600
G1 X134.181Y42.169Z0F1600
G1 X134.527Y42.182Z0F1600
G1 X134.701Z0F1600
G1 X135.395Y42.209Z0F1600
G1 X135.915Y42.24Z0F1600
G1 X136.956Y42.294Z0F1600
G1 X137.476Y42.308Z0F1600
G1 X138.17Y42.331Z0F1600
G1 X138.516Y42.336Z0F1600
G1 X138.863Z0F1600
G1 X139.557Y42.325Z0F1600
G1 X139.73Y42.319Z0F1600
G1 X140.424Y42.28Z0F1600
G1 X140.771Y42.258Z0F1600
G1 X141.291Y42.218Z0F1600
G1 X141.638Y42.195Z0F1600
G1 X141.812Y42.182Z0F1600
G1 X141.985Y42.173Z0F1600
G1 X142.332Y42.161Z0F1600
G1 X142.852Y42.154Z0F1600
G1 X143.026Z0F1600
G1 X143.199Y42.161Z0F1600
G1 X143.372Y42.253Z0F1600
G0 Z4.8F1000
G0 Y43.813Z4.8
G1 Z0F1000
G1 X143.199Y43.784Z0F1600
G1 X143.026Z0F1600
G1 X142.852Y43.781Z0F1600
G1 X142.679Y43.753Z0F1600
G1 X142.332Y43.723Z0F1600
G1 X141.985Y43.709Z0F1600
G1 X141.812Y43.706Z0F1600
G1 X141.465Y43.711Z0F1600
G1 X141.291Y43.716Z0F1600
G1 X141.118Y43.734Z0F1600
G1 X140.944Y43.748Z0F1600
G1 X140.771Y43.765Z0F1600
G1 X140.598Y43.777Z0F1600
G1 X140.424Y43.798Z0F1600
G1 X140.251Y43.815Z0F1600
G1 X139.904Y43.857Z0F1600
G1 X139.73Y43.876Z0F1600
G1 X139.557Y43.892Z0F1600
G1 X139.384Y43.9Z0F1600
G1 X139.21Y43.904Z0F1600
G1 X139.037Y43.918Z0F1600
G1 X138.863Y43.923Z0F1600
G1 X138.69Z0F1600
G1 X138.516Z0F1600
G1 X138.343Z0F1600
G1 X138.17Y43.911Z0F1600
G1 X137.996Y43.9Z0F1600
G1 X137.823Y43.897Z0F1600
G1 X137.649Y43.888Z0F1600
G1 X137.302Y43.855Z0F1600
G1 X136.956Y43.829Z0F1600
G1 X135.742Y43.758Z0F1600
G1 X135.221Y43.734Z0F1600
G1 X135.048Z0F1600
G1 X134.701Y43.718Z0F1600
G1 X134.354Z0F1600
G1 X134.181Y43.732Z0F1600
G1 X134.007Y43.739Z0F1600
G1 X133.834Y43.742Z0F1600
G1 X133.487Y43.763Z0F1600
G1 X133.313Y43.772Z0F1600
G1 X132.967Y43.794Z0F1600
G1 X132.273Y43.846Z0F1600
G1 X131.926Y43.874Z0F1600
G1 X131.753Y43.89Z0F1600
G1 X131.579Y43.898Z0F1600
G1 X131.406Y43.895Z0F1600
G1 X131.232Y43.912Z0F1600
G1 X130.885Z0F1600
G1 X130.712Y43.919Z0F1600
G1 X130.365Y43.9Z0F1600
G1 X130.018Y43.89Z0F1600
G1 X129.845Y43.878Z0F1600
G1 X128.804Y43.824Z0F1600
G1 X128.457Y43.813Z0F1600
G1 X127.937Y43.793Z0F1600
G1 X127.764Y43.789Z0F1600
G1 X127.59Y43.781Z0F1600
G1 X127.243Y43.768Z0F1600
G1 X126.896Y43.765Z0F1600
G1 X126.723Y43.742Z0F1600
G1 X126.376Y43.716Z0F1600
G1 X126.203Y43.708Z0F1600
G1 X126.029Z0F1600
G1 X125.856Y43.702Z0F1600
G1 X125.682Y43.706Z0F1600
G1 X125.509Y43.725Z0F1600
G1 X125.336Y43.73Z0F1600
G1 X125.162Y43.746Z0F1600
G1 X124.989Y43.767Z0F1600
G1 X124.815Y43.781Z0F1600
G1 X124.468Y43.817Z0F1600
G1 X124.295Y43.833Z0F1600
G1 X123.775Y43.888Z0F1600
G1 X123.601Y43.893Z0F1600
G1 X123.428Y43.907Z0F1600
G1 X123.254Y43.916Z0F1600
G1 X122.908Y43.923Z0F1600
G1 X122.734Y43.933Z0F1600
G1 X122.387Y43.924Z0F1600
G1 X122.214Z0F1600
G1 X122.04Y43.904Z0F1600
G1 X121.694Y43.871Z0F1600
G1 X121Y43.8Z0F1600
G1 X120.653Y43.768Z0F1600
G1 X120.306Y43.742Z0F1600
G1 X120.133Y43.732Z0F1600
G1 X119.959Y43.727Z0F1600
G1 X119.612Y43.708Z0F1600
G1 X119.439Z0F1600
G1 X119.092Y43.711Z0F1600
G1 X118.919Y43.718Z0F1600
G1 X118.572Y43.748Z0F1600
G1 X118.398Y43.756Z0F1600
G1 X118.225Y43.77Z0F1600
G1 X117.878Y43.803Z0F1600
G1 X117.531Y43.833Z0F1600
G1 X117.011Y43.867Z0F1600
G1 X116.664Y43.885Z0F1600
G1 X116.491Z0F1600
G1 X116.144Y43.893Z0F1600
G1 X115.97Y43.902Z0F1600
G1 X115.797Z0F1600
G1 X115.623Y43.898Z0F1600
G1 X115.45Y43.891Z0F1600
G1 X115.277Y43.881Z0F1600
G1 X114.93Y43.876Z0F1600
G1 X114.756Y43.865Z0F1600
G1 X114.583Y43.852Z0F1600
G1 X114.409Z0F1600
G1 X114.236Y43.846Z0F1600
G1 X114.063Y43.838Z0F1600
G1 X113.889Y43.833Z0F1600
G1 X113.716Y43.82Z0F1600
G1 X110.074Z0F1600
G1 X109.38Y43.834Z0F1600
G1 X109.207Y43.841Z0F1600
G1 X109.033Z0F1600
G1 X108.86Y43.831Z0F1600
G1 X108.513Y43.791Z0F1600
G1 X108.339Y43.741Z0F1600
G1 X108.166Y43.682Z0F1600
G1 X107.993Y43.638Z0F1600
G1 X107.819Y43.616Z0F1600
G1 X107.646Y43.588Z0F1600
G1 X107.472Y43.571Z0F1600
G1 X107.299Y43.619Z0F1600
G1 X107.125Y43.715Z0F1600
G1 X106.952Y43.833Z0F1600
G1 X106.778Y43.968Z0F1600
G1 X106.605Y44.072Z0F1600
G1 X106.432Y44.146Z0F1600
G1 X106.258Y44.119Z0F1600
G1 X106.085Y44.042Z0F1600
G1 X105.911Y43.904Z0F1600
G1 X105.738Y43.746Z0F1600
G1 X105.564Y43.602Z0F1600
G1 X105.391Y43.512Z0F1600
G1 X105.218Y43.5Z0F1600
G1 X105.044Y43.546Z0F1600
G1 X104.871Y43.654Z0F1600
G1 X104.697Y43.808Z0F1600
G1 X104.524Y43.966Z0F1600
G1 X104.35Y44.087Z0F1600
G1 X104.177Y44.119Z0F1600
G1 X104.004Y44.134Z0F1600
G1 X103.83Y44.056Z0F1600
G1 X103.657Y43.895Z0F1600
G1 X103.483Y43.727Z0F1600
G1 X103.31Y43.565Z0F1600
G1 X103.136Y43.515Z0F1600
G1 X102.963Y43.522Z0F1600
G1 X102.79Y43.588Z0F1600
G1 X102.443Y43.786Z0F1600
G1 X102.269Y43.904Z0F1600
G1 X102.096Y44.006Z0F1600
G1 X101.922Y44.075Z0F1600
G1 X101.749Y44.122Z0F1600
G1 X101.576Y44.098Z0F1600
G1 X101.402Y44.015Z0F1600
G1 X101.229Y43.878Z0F1600
G1 X101.055Y43.713Z0F1600
G1 X100.882Y43.585Z0F1600
G1 X100.708Y43.501Z0F1600
G1 X100.535Y43.491Z0F1600
G1 X100.362Y43.557Z0F1600
G1 X100.188Y43.695Z0F1600
G1 X100.015Y43.852Z0F1600
G1 X99.841Y43.994Z0F1600
G1 X99.668Y44.089Z0F1600
G1 X99.494Y44.157Z0F1600
G1 X99.321Y44.152Z0F1600
G1 X99.148Y44.02Z0F1600
G1 X98.974Y43.819Z0F1600
G1 X98.801Y43.671Z0F1600
G1 X98.627Y43.588Z0F1600
G1 X98.454Y43.536Z0F1600
G1 X98.28Y43.527Z0F1600
G1 X98.107Y43.569Z0F1600
G1 X97.934Y43.678Z0F1600
G1 X97.76Y43.826Z0F1600
G1 X97.587Y43.964Z0F1600
G1 X97.413Y44.079Z0F1600
G1 X97.24Y44.139Z0F1600
G1 X97.066Y44.133Z0F1600
G1 X96.893Y44.039Z0F1600
G1 X96.719Y43.902Z0F1600
G1 X96.546Y43.735Z0F1600
G1 X96.373Y43.598Z0F1600
G1 X96.199Y43.508Z0F1600
G1 X96.026Y43.484Z0F1600
G1 X95.852Y43.548Z0F1600
G1 X95.679Y43.671Z0F1600
G1 X95.505Y43.827Z0F1600
G1 X95.332Y43.999Z0F1600
G1 X95.159Y44.146Z0F1600
G1 X94.985Y44.198Z0F1600
G1 X94.812Y44.129Z0F1600
G1 X94.638Y43.957Z0F1600
G1 X94.465Y43.756Z0F1600
G1 X94.291Y43.541Z0F1600
G1 X94.118Y43.435Z0F1600
G1 X93.945Y43.444Z0F1600
G1 X93.771Y43.588Z0F1600
G1 X93.598Y43.798Z0F1600
G1 X93.424Y44.004Z0F1600
G1 X93.251Y44.188Z0F1600
G1 X93.077Y44.226Z0F1600
G1 X92.904Y44.126Z0F1600
G1 X92.731Y43.911Z0F1600
G1 X92.557Y43.631Z0F1600
G1 X92.384Y43.46Z0F1600
G1 X92.21Y43.402Z0F1600
G1 X92.037Y43.5Z0F1600
G1 X91.863Y43.722Z0F1600
G1 X91.69Y44.028Z0F1600
G1 X91.517Y44.278Z0F1600
G1 X91.343Y44.313Z0F1600
G1 X91.17Y44.053Z0F1600
G1 X90.996Y43.637Z0F1600
G1 X90.823Y43.309Z0F1600
G1 X90.649Y43.314Z0F1600
G1 X90.476Y43.623Z0F1600
G1 X90.303Y44.049Z0F1600
G1 X90.129Y44.33Z0F1600
G1 X89.956Y44.306Z0F1600
G1 X89.782Y43.973Z0F1600
G1 X89.609Y43.524Z0F1600
G1 X89.435Y43.257Z0F1600
G1 X89.262Y43.39Z0F1600
G1 X89.089Y43.754Z0F1600
G1 X88.915Y44.167Z0F1600
G1 X88.742Y44.377Z0F1600
G1 X88.568Y44.23Z0F1600
G1 X88.395Y43.796Z0F1600
G1 X88.221Y43.342Z0F1600
G1 X88.048Y43.258Z0F1600
G1 X87.874Y43.548Z0F1600
G1 X87.701Y44.008Z0F1600
G1 X87.528Y44.325Z0F1600
G1 X87.354Y44.313Z0F1600
G1 X87.181Y43.987Z0F1600
G1 X87.007Y43.616Z0F1600
G1 X86.834Y43.291Z0F1600
G1 X86.66Y43.317Z0F1600
G1 X86.487Y43.649Z0F1600
G1 X86.314Y44.08Z0F1600
G1 X86.14Y44.365Z0F1600
G1 X85.967Y44.283Z0F1600
G1 X85.793Y43.902Z0F1600
G1 X85.62Y43.532Z0F1600
G1 X85.446Y43.501Z0F1600
G1 X85.273Y43.473Z0F1600
G1 X85.1Y43.527Z0F1600
G1 X84.926Y43.721Z0F1600
G1 X84.753Y44.087Z0F1600
G1 X84.579Y44.311Z0F1600
G1 X84.406Y44.245Z0F1600
G1 X84.232Y43.975Z0F1600
G1 X84.059Y43.664Z0F1600
G1 X83.886Y43.439Z0F1600
G1 X83.712Y43.385Z0F1600
G1 X83.539Y43.487Z0F1600
G1 X83.365Y43.741Z0F1600
G1 X83.192Y44.061Z0F1600
G1 X83.018Y44.141Z0F1600
G1 X82.845Y44.103Z0F1600
G1 X82.672Y44.028Z0F1600
G1 X82.498Y43.98Z0F1600
G1 X82.325Y43.872Z0F1600
G1 X82.151Y43.645Z0F1600
G1 X81.978Y43.475Z0F1600
G1 X81.804Y43.446Z0F1600
G1 X81.631Y43.524Z0F1600
G1 X81.458Y43.671Z0F1600
G1 X81.284Y43.839Z0F1600
G1 X81.111Y43.978Z0F1600
G1 X80.937Y44.065Z0F1600
G1 X80.764Y44.086Z0F1600
G1 X80.59Y44.067Z0F1600
G1 X80.417Y44.018Z0F1600
G1 X80.244Y43.956Z0F1600
G1 X80.07Y43.853Z0F1600
G1 X79.897Y43.76Z0F1600
G1 X79.723Y43.695Z0F1600
G1 X79.55Y43.642Z0F1600
G1 X79.376Y43.576Z0F1600
G1 X79.203Y43.56Z0F1600
G1 X79.03Y43.579Z0F1600
G1 X78.856Y43.637Z0F1600
G1 X78.683Y43.73Z0F1600
G1 X78.509Y43.813Z0F1600
G1 X78.162Y43.914Z0F1600
G1 X77.989Y43.956Z0F1600
G1 X77.815Y44.023Z0F1600
G1 X77.642Y44.06Z0F1600
G1 X77.469Y44.053Z0F1600
G1 X77.122Y43.949Z0F1600
G1 X76.948Y43.886Z0F1600
G1 X76.775Y43.82Z0F1600
G1 X76.601Y43.768Z0F1600
G1 X76.428Y43.73Z0F1600
G1 X76.081Y43.685Z0F1600
G1 X75.908Y43.673Z0F1600
G1 X75.734Z0F1600
G1 X75.561Y43.692Z0F1600
G1 X75.387Y43.699Z0F1600
G1 X75.214Y43.741Z0F1600
G1 X75.041Y43.777Z0F1600
G1 X74.867Y43.796Z0F1600
G1 X74.694Y43.806Z0F1600
G1 X74.52Y43.801Z0F1600
G1 X74.173Y43.784Z0F1600
G1 X73.827Y43.761Z0F1600
G1 X73.653Y43.77Z0F1600
G1 X73.48Y43.782Z0F1600
G1 X73.306Y43.805Z0F1600
G1 X73.133Y43.846Z0F1600
G1 X72.959Y43.9Z0F1600
G1 X72.786Y43.964Z0F1600
G1 X72.613Y44.035Z0F1600
G1 X72.439Y44.093Z0F1600
G1 X72.266Y44.098Z0F1600
G1 X72.092Y44.044Z0F1600
G1 X71.919Y43.943Z0F1600
G1 X71.745Y43.813Z0F1600
G1 X71.572Y43.687Z0F1600
G1 X71.399Y43.572Z0F1600
G1 X71.225Y43.489Z0F1600
G1 X71.052Y43.494Z0F1600
G1 X70.878Y43.578Z0F1600
G1 X70.705Y43.72Z0F1600
G1 X70.531Y43.881Z0F1600
G1 X70.358Y44.023Z0F1600
G1 X70.185Y44.067Z0F1600
G1 X70.011Y43.917Z0F1600
G1 X69.838Y43.846Z0F1600
G1 X69.664Y43.864Z0F1600
G1 X69.491Y43.869Z0F1600
G1 X69.317Y43.891Z0F1600
G1 X69.144Y43.888Z0F1600
G1 X68.97Y43.9Z0F1600
G1 X68.797Y43.907Z0F1600
G1 X68.277Y43.857Z0F1600
G1 X68.103Y43.827Z0F1600
G1 X67.93Y43.812Z0F1600
G1 X67.756Y43.808Z0F1600
G1 X67.583Y43.815Z0F1600
G1 X67.063Z0F1600
G1 X66.889Y43.81Z0F1600
G1 X66.542Y43.791Z0F1600
G1 X66.369Y43.777Z0F1600
G1 X66.196Y43.76Z0F1600
G1 X65.849Y43.735Z0F1600
G1 X65.675Y43.716Z0F1600
G1 X65.502Y43.708Z0F1600
G1 X65.328Y43.716Z0F1600
G1 X64.982Y43.694Z0F1600
G1 X64.635Y43.706Z0F1600
G1 X64.461Z0F1600
G1 X64.114Y43.751Z0F1600
G1 X63.941Y43.789Z0F1600
G1 X63.594Y43.85Z0F1600
G1 X63.074Y43.93Z0F1600
G1 X62.9Y43.952Z0F1600
G1 X62.554Y43.985Z0F1600
G1 X62.38Y43.98Z0F1600
G1 X62.207Y43.97Z0F1600
G1 X62.033Y43.935Z0F1600
G1 X61.86Y43.911Z0F1600
G1 X61.686Y43.872Z0F1600
G1 X61.34Y43.808Z0F1600
G1 X60.646Y43.701Z0F1600
G1 X60.472Y43.676Z0F1600
G1 X60.299Y43.647Z0F1600
G1 X59.952Y43.626Z0F1600
G1 X59.779Y43.647Z0F1600
G1 X59.605Y43.682Z0F1600
G1 X59.432Y43.734Z0F1600
G1 X59.258Y43.812Z0F1600
G1 X59.085Y43.893Z0F1600
G1 X58.911Y43.935Z0F1600
G1 X58.738Y43.891Z0F1600
G1 X58.565Y43.864Z0F1600
G1 X58.218Y43.82Z0F1600
G1 X44.864Z0F1600
G1 X44.69Y43.864Z0F1600
G1 X44.517Y43.902Z0F1600
G1 X44.17Y43.917Z0F1600
G1 X43.996Z0F1600
G1 X43.823Y43.905Z0F1600
G1 X43.65Y43.891Z0F1600
G1 X43.476Y43.86Z0F1600
G1 X43.303Y43.824Z0F1600
G1 X42.956Y43.758Z0F1600
G1 X42.782Y43.728Z0F1600
G1 X42.609Y43.709Z0F1600
G1 X42.436Y43.687Z0F1600
G1 X42.262Y43.678Z0F1600
G1 X42.089Y43.664Z0F1600
G1 X41.915Z0F1600
G1 X41.742Y43.685Z0F1600
G1 X41.568Y43.699Z0F1600
G1 X40.528Y43.839Z0F1600
G1 X40.007Y43.905Z0F1600
G1 X39.834Z0F1600
G1 X39.661Y43.921Z0F1600
G1 X39.487Y43.926Z0F1600
G1 X39.314Y43.947Z0F1600
G1 X39.14Z0F1600
G1 X38.967Y43.938Z0F1600
G1 X38.793Y43.935Z0F1600
G1 X38.62Y43.914Z0F1600
G1 X38.447Y43.898Z0F1600
G1 X38.1Y43.86Z0F1600
G1 X37.926Y43.843Z0F1600
G1 X37.753Y43.829Z0F1600
G1 X37.406Y43.796Z0F1600
G1 X37.059Y43.767Z0F1600
G1 X36.886Y43.76Z0F1600
G1 X36.712Y43.741Z0F1600
G1 X36.539Y43.728Z0F1600
G1 X36.365Y43.735Z0F1600
G1 X36.192Y43.727Z0F1600
G1 X36.019Z0F1600
G1 X35.845Y43.73Z0F1600
G1 X35.672Y43.742Z0F1600
G1 X35.498Z0F1600
G1 X35.325Y43.763Z0F1600
G1 X35.151Y43.813Z0F1600
G1 X4.628Y43.817Z0F1600

; Color picking sequence
G1 Z10 F1000;         ; Raise brush to safe height
G0 X131 Y5 F1200;    ; Rapid move to color 1 position
G1 Z0 F1000;         ; Lower into color - controlled movement
G1 X130.102Y7.295Z0S800F1200
G1 X130.026Y7.642Z0F1200
G1 X130Y8Z0F1200
G1 X130.026Y8.358Z0F1200
G1 X130.102Y8.705Z0F1200
G1 X130.225Y9.041Z0F1200
G1 X130.393Y9.362Z0F1200
G1 X130.603Y9.668Z0F1200
G1 X130.854Y9.957Z0F1200
G1 X131.142Y10.226Z0F1200
G1 X131.464Y10.475Z0F1200
G1 X131.82Y10.701Z0F1200
G1 X132.204Y10.902Z0F1200
G1 X132.617Y11.078Z0F1200
G1 X133.054Y11.225Z0F1200
G1 X133.513Y11.343Z0F1200
G1 X133.992Y11.429Z0F1200
G1 X134.489Y11.482Z0F1200
G1 X135Y11.5Z0F1200
G1 X135.511Y11.482Z0F1200
G1 X136.008Y11.429Z0F1200
G1 X136.487Y11.343Z0F1200
G1 X136.946Y11.225Z0F1200
G1 X137.383Y11.078Z0F1200
G1 X137.796Y10.902Z0F1200
G1 X138.18Y10.701Z0F1200
G1 X138.536Y10.475Z0F1200
G1 X138.858Y10.226Z0F1200
G1 X139.146Y9.957Z0F1200
G1 X139.397Y9.668Z0F1200
G1 X139.607Y9.362Z0F1200
G1 X139.775Y9.041Z0F1200
G1 X139.898Y8.705Z0F1200
G1 X139.974Y8.358Z0F1200
G1 X140Y8Z0F1200
G1 X139.974Y7.642Z0F1200
G1 X139.898Y7.295Z0F1200
G1 X139.775Y6.959Z0F1200
G1 X139.607Y6.638Z0F1200
G1 X139.397Y6.332Z0F1200
G1 X139.146Y6.043Z0F1200
G1 X138.858Y5.774Z0F1200
G1 X138.536Y5.525Z0F1200
G1 X138.18Y5.299Z0F1200
G1 X137.796Y5.098Z0F1200
G1 X137.383Y4.922Z0F1200
G1 X136.946Y4.775Z0F1200
G1 X136.487Y4.657Z0F1200
G1 X136.008Y4.571Z0F1200
G1 X135.511Y4.518Z0F1200
G1 X135Y4.5Z0F1200
G1 X134.489Y4.518Z0F1200
G1 X133.992Y4.571Z0F1200
G1 X133.513Y4.657Z0F1200
G1 X133.054Y4.775Z0F1200
G1 X132.617Y4.922Z0F1200
G1 X132.204Y5.098Z0F1200
G1 X131.82Y5.299Z0F1200
G1 X131.464Y5.525Z0F1200
G1 X131.142Y5.774Z0F1200
G1 X130.854Y6.043Z0F1200
G1 X130.603Y6.332Z0F1200
G1 X130.393Y6.638Z0F1200
G1 X130.225Y6.959Z0F1200
G1 Z7 F800;         ; Raise from color - controlled movement
G1 X124 Y8 Z1 F1200;     ; Movement in paint - controlled movement
G1 X114 Y18 Z8 F500;     ; Move in paint - controlled movement
G1 F1200;           ; Set feed rate to 1000
G0 Z4.8F1000
G0 Y45.378Z4.8
G1 Z0F1000
G1 X27.347Y45.374Z0F1600
G1 X27.52Y45.369Z0F1600
G1 X27.694Z0F1600
G1 X27.867Y45.341Z0F1600
G1 X28.041Y45.3Z0F1600
G1 X28.214Y45.281Z0F1600
G1 X28.388Y45.241Z0F1600
G1 X28.561Y45.206Z0F1600
G1 X28.734Y45.197Z0F1600
G1 X28.908Y45.222Z0F1600
G1 X29.081Y45.272Z0F1600
G1 X29.255Y45.38Z0F1600
G1 X29.428Y45.525Z0F1600
G1 X29.602Y45.655Z0F1600
G1 X29.775Y45.728Z0F1600
G1 X29.948Y45.716Z0F1600
G1 X30.122Y45.563Z0F1600
G1 X30.295Y45.31Z0F1600
G1 X30.469Y45.083Z0F1600
G1 X30.642Y44.965Z0F1600
G1 X30.816Y44.998Z0F1600
G1 X30.989Y45.178Z0F1600
G1 X31.162Y45.433Z0F1600
G1 X31.336Y45.657Z0F1600
G1 X31.509Y45.766Z0F1600
G1 X31.683Y45.745Z0F1600
G1 X31.856Y45.615Z0F1600
G1 X32.03Y45.406Z0F1600
G1 X32.203Y45.189Z0F1600
G1 X32.377Y45.043Z0F1600
G1 X32.55Y44.989Z0F1600
G1 X32.723Y45.062Z0F1600
G1 X32.897Y45.258Z0F1600
G1 X33.07Y45.52Z0F1600
G1 X33.244Y45.735Z0F1600
G1 X33.417Y45.81Z0F1600
G1 X33.591Y45.713Z0F1600
G1 X33.764Y45.482Z0F1600
G1 X33.937Y45.21Z0F1600
G1 X34.111Y45Z0F1600
G1 X34.284Y44.949Z0F1600
G1 X34.458Y45.066Z0F1600
G1 X34.631Y45.284Z0F1600
G1 X34.805Y45.454Z0F1600
G1 X34.978Y45.392Z0F1600
G1 X35.151Y45.38Z0F1600
G1 X35.672Z0F1600
G1 X35.845Y45.402Z0F1600
G1 X36.019Y45.433Z0F1600
G1 X36.365Y45.452Z0F1600
G1 X36.539Y45.466Z0F1600
G1 X36.712Y45.47Z0F1600
G1 X36.886Y45.477Z0F1600
G1 X37.233Y45.485Z0F1600
G1 X37.579Y45.491Z0F1600
G1 X37.753Y45.482Z0F1600
G1 X38.1Y45.449Z0F1600
G1 X38.62Y45.388Z0F1600
G1 X38.967Y45.345Z0F1600
G1 X39.14Y45.321Z0F1600
G1 X39.314Y45.303Z0F1600
G1 X39.661Y45.281Z0F1600
G1 X39.834Y45.265Z0F1600
G1 X40.007Y45.255Z0F1600
G1 X40.354Y45.249Z0F1600
G1 X40.528Y45.253Z0F1600
G1 X40.875Y45.281Z0F1600
G1 X41.048Y45.3Z0F1600
G1 X41.395Y45.347Z0F1600
G1 X42.089Y45.478Z0F1600
G1 X42.262Y45.485Z0F1600
G1 X42.609Y45.52Z0F1600
G1 X42.782Y45.529Z0F1600
G1 X43.129Y45.517Z0F1600
G1 X43.476Y45.477Z0F1600
G1 X43.65Y45.449Z0F1600
G1 X43.823Y45.418Z0F1600
G1 X44.517Y45.305Z0F1600
G1 X44.69Y45.282Z0F1600
G1 X44.864Y45.267Z0F1600
G1 X45.037Y45.244Z0F1600
G1 X45.21Y45.236Z0F1600
G1 X45.384Z0F1600
G1 X45.731Y45.244Z0F1600
G1 X45.904Y45.256Z0F1600
G1 X46.424Y45.341Z0F1600
G1 X46.771Y45.402Z0F1600
G1 X47.118Y45.432Z0F1600
G1 X47.292Y45.437Z0F1600
G1 X47.465Y45.425Z0F1600
G1 X47.638Y45.407Z0F1600
G1 X47.812Y45.381Z0F1600
G1 X59.085Z0F1600
G1 X59.258Y45.439Z0F1600
G1 X59.432Y45.485Z0F1600
G1 X59.605Y45.581Z0F1600
G1 X59.779Y45.577Z0F1600
G1 X59.952Y45.515Z0F1600
G1 X60.126Y45.44Z0F1600
G1 X60.299Y45.373Z0F1600
G1 X60.472Y45.326Z0F1600
G1 X60.646Y45.282Z0F1600
G1 X60.819Y45.253Z0F1600
G1 X60.993Y45.237Z0F1600
G1 X61.166Y45.229Z0F1600
G1 X61.513Y45.236Z0F1600
G1 X61.686Y45.248Z0F1600
G1 X61.86Y45.256Z0F1600
G1 X62.207Y45.293Z0F1600
G1 X62.727Y45.39Z0F1600
G1 X63.074Y45.451Z0F1600
G1 X63.247Y45.473Z0F1600
G1 X63.594Y45.511Z0F1600
G1 X63.768Y45.523Z0F1600
G1 X64.114Y45.51Z0F1600
G1 X64.461Y45.492Z0F1600
G1 X64.635Y45.459Z0F1600
G1 X64.808Y45.452Z0F1600
G1 X64.982Y45.428Z0F1600
G1 X65.675Y45.324Z0F1600
G1 X65.849Y45.317Z0F1600
G1 X66.022Y45.303Z0F1600
G1 X66.196Y45.293Z0F1600
G1 X66.369Z0F1600
G1 X66.542Y45.307Z0F1600
G1 X66.716Y45.333Z0F1600
G1 X66.889Y45.374Z0F1600
G1 X67.41Z0F1600
G1 X67.583Y45.362Z0F1600
G1 X67.756Y45.31Z0F1600
G1 X67.93Y45.302Z0F1600
G1 X68.103Y45.263Z0F1600
G1 X68.624Y45.286Z0F1600
G1 X68.797Y45.305Z0F1600
G1 X68.97Y45.317Z0F1600
G1 X69.144Y45.334Z0F1600
G1 X69.317Y45.362Z0F1600
G1 X69.491Y45.366Z0F1600
G1 X69.838Y45.345Z0F1600
G1 X70.011Y45.426Z0F1600
G1 X70.185Y45.593Z0F1600
G1 X70.358Y45.719Z0F1600
G1 X70.531Y45.726Z0F1600
G1 X70.705Y45.652Z0F1600
G1 X70.878Y45.497Z0F1600
G1 X71.052Y45.326Z0F1600
G1 X71.225Y45.189Z0F1600
G1 X71.399Y45.09Z0F1600
G1 X71.572Y45.062Z0F1600
G1 X71.745Y45.099Z0F1600
G1 X71.919Y45.196Z0F1600
G1 X72.092Y45.307Z0F1600
G1 X72.266Y45.432Z0F1600
G1 X72.439Y45.53Z0F1600
G1 X72.613Y45.588Z0F1600
G1 X72.786Y45.593Z0F1600
G1 X72.959Y45.563Z0F1600
G1 X73.133Y45.478Z0F1600
G1 X73.306Y45.454Z0F1600
G1 X73.48Y45.451Z0F1600
G1 X73.653Y45.458Z0F1600
G1 X73.827Y45.451Z0F1600
G1 X74Z0F1600
G1 X74.347Y45.43Z0F1600
G1 X74.52Y45.407Z0F1600
G1 X74.867Y45.352Z0F1600
G1 X75.041Y45.286Z0F1600
G1 X75.214Y45.196Z0F1600
G1 X75.387Y45.168Z0F1600
G1 X75.561Y45.173Z0F1600
G1 X75.734Y45.199Z0F1600
G1 X75.908Y45.213Z0F1600
G1 X76.081Y45.236Z0F1600
G1 X76.255Y45.272Z0F1600
G1 X76.428Y45.336Z0F1600
G1 X76.775Y45.497Z0F1600
G1 X76.948Y45.555Z0F1600
G1 X77.122Y45.615Z0F1600
G1 X77.295Y45.631Z0F1600
G1 X77.469Y45.624Z0F1600
G1 X77.642Y45.56Z0F1600
G1 X77.989Y45.364Z0F1600
G1 X78.162Y45.27Z0F1600
G1 X78.336Y45.184Z0F1600
G1 X78.509Y45.125Z0F1600
G1 X78.683Y45.132Z0F1600
G1 X79.03Y45.19Z0F1600
G1 X79.203Y45.263Z0F1600
G1 X79.376Y45.366Z0F1600
G1 X79.55Y45.487Z0F1600
G1 X79.723Y45.595Z0F1600
G1 X79.897Y45.626Z0F1600
G1 X80.07Y45.68Z0F1600
G1 X80.244Y45.634Z0F1600
G1 X80.417Y45.543Z0F1600
G1 X80.59Y45.437Z0F1600
G1 X80.764Y45.324Z0F1600
G1 X80.937Y45.227Z0F1600
G1 X81.111Y45.158Z0F1600
G1 X81.284Y45.13Z0F1600
G1 X81.458Z0F1600
G1 X81.631Y45.154Z0F1600
G1 X81.804Y45.208Z0F1600
G1 X81.978Y45.419Z0F1600
G1 X82.151Y45.645Z0F1600
G1 X82.325Y45.709Z0F1600
G1 X82.498Y45.752Z0F1600
G1 X82.672Y45.643Z0F1600
G1 X82.845Y45.449Z0F1600
G1 X83.018Y45.147Z0F1600
G1 X83.192Y44.944Z0F1600
G1 X83.365Y44.925Z0F1600
G1 X83.539Y45.145Z0F1600
G1 X83.712Y45.506Z0F1600
G1 X83.886Y45.784Z0F1600
G1 X84.059Y45.863Z0F1600
G1 X84.232Y45.699Z0F1600
G1 X84.406Y45.319Z0F1600
G1 X84.579Y44.953Z0F1600
G1 X84.753Y44.859Z0F1600
G1 X84.926Y45.045Z0F1600
G1 X85.1Y45.385Z0F1600
G1 X85.273Y45.784Z0F1600
G1 X85.446Y45.955Z0F1600
G1 X85.62Y45.706Z0F1600
G1 X85.793Y45.246Z0F1600
G1 X85.967Y44.877Z0F1600
G1 X86.14Y44.842Z0F1600
G1 X86.314Y45.159Z0F1600
G1 X86.487Y45.612Z0F1600
G1 X86.66Y45.907Z0F1600
G1 X86.834Y45.862Z0F1600
G1 X87.007Y45.499Z0F1600
G1 X87.181Y45.007Z0F1600
G1 X87.354Y44.786Z0F1600
G1 X87.528Y44.988Z0F1600
G1 X87.701Y45.466Z0F1600
G1 X87.874Y45.879Z0F1600
G1 X88.048Y45.933Z0F1600
G1 X88.221Y45.612Z0F1600
G1 X88.395Y45.163Z0F1600
G1 X88.568Y44.84Z0F1600
G1 X88.742Y44.885Z0F1600
G1 X88.915Y45.225Z0F1600
G1 X89.089Y45.598Z0F1600
G1 X89.262Y45.846Z0F1600
G1 X89.435Y45.853Z0F1600
G1 X89.609Y45.596Z0F1600
G1 X89.782Y45.272Z0F1600
G1 X89.956Y45.022Z0F1600
G1 X90.129Y44.948Z0F1600
G1 X90.303Y45.036Z0F1600
G1 X90.476Y45.218Z0F1600
G1 X90.649Y45.458Z0F1600
G1 X90.823Y45.669Z0F1600
G1 X90.996Y45.773Z0F1600
G1 X91.17Y45.74Z0F1600
G1 X91.343Y45.596Z0F1600
G1 X91.517Y45.371Z0F1600
G1 X91.69Y45.121Z0F1600
G1 X91.863Y44.981Z0F1600
G1 X92.037Y44.988Z0F1600
G1 X92.21Y45.128Z0F1600
G1 X92.384Y45.314Z0F1600
G1 X92.557Y45.504Z0F1600
G1 X92.731Y45.664Z0F1600
G1 X92.904Y45.77Z0F1600
G1 X93.077Y45.73Z0F1600
G1 X93.251Y45.56Z0F1600
G1 X93.424Y45.275Z0F1600
G1 X93.598Y45.027Z0F1600
G1 X93.771Y44.922Z0F1600
G1 X93.945Y45.015Z0F1600
G1 X94.118Y45.279Z0F1600
G1 X94.291Y45.61Z0F1600
G1 X94.465Y45.829Z0F1600
G1 X94.638Y45.824Z0F1600
G1 X94.812Y45.619Z0F1600
G1 X94.985Y45.402Z0F1600
G1 X95.332Y45.093Z0F1600
G1 X95.505Y44.981Z0F1600
G1 X95.679Y45.05Z0F1600
G1 X95.852Y45.194Z0F1600
G1 X96.199Y45.596Z0F1600
G1 X96.373Y45.732Z0F1600
G1 X96.546Y45.752Z0F1600
G1 X96.719Y45.65Z0F1600
G1 X96.893Y45.503Z0F1600
G1 X97.066Y45.321Z0F1600
G1 X97.24Y45.145Z0F1600
G1 X97.413Y45.045Z0F1600
G1 X97.587Y45.034Z0F1600
G1 X97.76Y45.107Z0F1600
G1 X97.934Y45.248Z0F1600
G1 X98.107Y45.411Z0F1600
G1 X98.28Y45.548Z0F1600
G1 X98.454Y45.667Z0F1600
G1 X98.627Y45.735Z0F1600
G1 X98.801Y45.673Z0F1600
G1 X98.974Y45.555Z0F1600
G1 X99.321Y45.251Z0F1600
G1 X99.494Y45.128Z0F1600
G1 X99.668Y45.08Z0F1600
G1 X99.841Z0F1600
G1 X100.015Y45.14Z0F1600
G1 X100.188Y45.244Z0F1600
G1 X100.362Y45.378Z0F1600
G1 X100.535Y45.536Z0F1600
G1 X100.708Y45.638Z0F1600
G1 X100.882Y45.693Z0F1600
G1 X101.055Y45.674Z0F1600
G1 X101.229Y45.589Z0F1600
G1 X101.402Y45.485Z0F1600
G1 X101.576Y45.338Z0F1600
G1 X101.749Y45.196Z0F1600
G1 X101.922Y45.093Z0F1600
G1 X102.096Y45.055Z0F1600
G1 X102.269Y45.092Z0F1600
G1 X102.443Y45.187Z0F1600
G1 X102.616Y45.308Z0F1600
G1 X102.79Y45.421Z0F1600
G1 X102.963Y45.513Z0F1600
G1 X103.136Y45.581Z0F1600
G1 X103.31Y45.629Z0F1600
G1 X103.483Y45.603Z0F1600
G1 X103.657Y45.596Z0F1600
G1 X103.83Y45.553Z0F1600
G1 X104.004Y45.477Z0F1600
G1 X104.177Y45.386Z0F1600
G1 X104.35Y45.291Z0F1600
G1 X104.524Y45.199Z0F1600
G1 X104.697Y45.116Z0F1600
G1 X104.871Y45.08Z0F1600
G1 X105.044Y45.106Z0F1600
G1 X105.218Y45.192Z0F1600
G1 X105.391Y45.345Z0F1600
G1 X105.564Y45.548Z0F1600
G1 X105.738Y45.709Z0F1600
G1 X105.911Y45.749Z0F1600
G1 X106.085Y45.697Z0F1600
G1 X106.258Y45.536Z0F1600
G1 X106.432Y45.331Z0F1600
G1 X106.605Y45.159Z0F1600
G1 X106.778Y45.069Z0F1600
G1 X106.952Y45.034Z0F1600
G1 X107.125Y45.106Z0F1600
G1 X107.299Y45.215Z0F1600
G1 X107.472Y45.374Z0F1600
G1 X107.646Y45.503Z0F1600
G1 X107.819Y45.638Z0F1600
G1 X107.993Y45.643Z0F1600
G1 X108.166Y45.603Z0F1600
G1 X108.339Y45.579Z0F1600
G1 X108.513Y45.537Z0F1600
G1 X108.686Y45.475Z0F1600
G1 X108.86Y45.435Z0F1600
G1 X109.033Y45.388Z0F1600
G1 X109.207Y45.352Z0F1600
G1 X109.38Y45.334Z0F1600
G1 X109.727Y45.308Z0F1600
G1 X109.9Y45.321Z0F1600
G1 X110.247Y45.333Z0F1600
G1 X110.421Y45.326Z0F1600
G1 X110.594Z0F1600
G1 X110.767Y45.334Z0F1600
G1 X110.941Z0F1600
G1 X111.114Y45.367Z0F1600
G1 X111.288Y45.373Z0F1600
G1 X114.063Z0F1600
G1 X114.409Y45.364Z0F1600
G1 X114.756Y45.36Z0F1600
G1 X114.93Y45.354Z0F1600
G1 X115.103Y45.336Z0F1600
G1 X115.277Y45.329Z0F1600
G1 X115.45Z0F1600
G1 X115.623Z0F1600
G1 X115.797Y45.324Z0F1600
G1 X115.97Y45.314Z0F1600
G1 X116.144Z0F1600
G1 X116.664Y45.322Z0F1600
G1 X116.837Y45.333Z0F1600
G1 X117.011Y45.347Z0F1600
G1 X117.184Y45.352Z0F1600
G1 X117.358Y45.367Z0F1600
G1 X117.878Y45.406Z0F1600
G1 X118.052Y45.413Z0F1600
G1 X118.398Y45.439Z0F1600
G1 X118.572Y45.449Z0F1600
G1 X118.745Y45.468Z0F1600
G1 X118.919Y45.475Z0F1600
G1 X119.092Y45.491Z0F1600
G1 X119.266Z0F1600
G1 X119.439Y45.477Z0F1600
G1 X119.612Z0F1600
G1 X119.786Y45.47Z0F1600
G1 X119.959Z0F1600
G1 X120.133Y45.459Z0F1600
G1 X120.306Y45.454Z0F1600
G1 X120.826Y45.406Z0F1600
G1 X121Y45.385Z0F1600
G1 X121.347Y45.338Z0F1600
G1 X121.694Y45.303Z0F1600
G1 X121.867Y45.291Z0F1600
G1 X122.214Y45.279Z0F1600
G1 X122.387Y45.288Z0F1600
G1 X122.561Y45.282Z0F1600
G1 X122.734Z0F1600
G1 X122.908Y45.275Z0F1600
G1 X123.254Y45.281Z0F1600
G1 X123.428Y45.293Z0F1600
G1 X123.601Y45.3Z0F1600
G1 X123.948Y45.329Z0F1600
G1 X124.122Y45.354Z0F1600
G1 X124.468Y45.411Z0F1600
G1 X124.642Y45.437Z0F1600
G1 X124.815Y45.47Z0F1600
G1 X124.989Y45.48Z0F1600
G1 X125.162Y45.475Z0F1600
G1 X125.336Y45.461Z0F1600
G1 X125.509Y45.454Z0F1600
G1 X125.682Z0F1600
G1 X125.856Y45.444Z0F1600
G1 X126.203Y45.456Z0F1600
G1 X126.376Y45.433Z0F1600
G1 X126.896Y45.43Z0F1600
G1 X127.07Z0F1600
G1 X127.59Y45.421Z0F1600
G1 X127.764Y45.414Z0F1600
G1 X127.937Z0F1600
G1 X128.284Y45.399Z0F1600
G1 X128.804Y45.367Z0F1600
G1 X129.151Y45.341Z0F1600
G1 X129.325Y45.324Z0F1600
G1 X129.498Y45.317Z0F1600
G1 X129.671Y45.296Z0F1600
G1 X129.845Y45.282Z0F1600
G1 X130.018Y45.277Z0F1600
G1 X130.192Y45.267Z0F1600
G1 X130.539Y45.272Z0F1600
G1 X130.885Z0F1600
G1 X131.232Y45.303Z0F1600
G1 X131.579Y45.326Z0F1600
G1 X132.62Y45.414Z0F1600
G1 X132.967Y45.437Z0F1600
G1 X133.313Y45.454Z0F1600
G1 X133.66Y45.466Z0F1600
G1 X134.007Y45.475Z0F1600
G1 X134.181Y45.468Z0F1600
G1 X134.354Y45.471Z0F1600
G1 X134.527Y45.468Z0F1600
G1 X134.701Y45.459Z0F1600
G1 X134.874Y45.454Z0F1600
G1 X135.221Y45.439Z0F1600
G1 X135.568Y45.414Z0F1600
G1 X136.435Y45.338Z0F1600
G1 X136.609Y45.319Z0F1600
G1 X136.782Y45.295Z0F1600
G1 X136.956Y45.275Z0F1600
G1 X137.129Y45.263Z0F1600
G1 X137.302Y45.256Z0F1600
G1 X137.476Y45.246Z0F1600
G1 X137.823Z0F1600
G1 X137.996Y45.26Z0F1600
G1 X138.17Y45.277Z0F1600
G1 X138.516Y45.319Z0F1600
G1 X138.863Y45.373Z0F1600
G1 X139.557Y45.468Z0F1600
G1 X139.73Y45.48Z0F1600
G1 X139.904Z0F1600
G1 X140.077Y45.487Z0F1600
G1 X140.251Z0F1600
G1 X140.424Y45.477Z0F1600
G1 X140.771Y45.452Z0F1600
G1 X141.118Y45.433Z0F1600
G1 X141.812Y45.413Z0F1600
G1 X141.985Y45.402Z0F1600
G1 X142.158Y45.395Z0F1600
G1 X142.332Y45.392Z0F1600
G1 X142.679Z0F1600
G1 X143.026Y45.385Z0F1600
G1 X143.199Z0F1600
G1 X143.372Y45.38Z0F1600
G0 Z4.8F1000
G0 Y46.94Z4.8
G1 Z0F1000
G1 X143.199Y46.946Z0F1600
G1 X142.852Z0F1600
G1 X142.332Y46.951Z0F1600
G1 X141.638Y46.935Z0F1600
G1 X141.465Y46.93Z0F1600
G1 X141.118Y46.927Z0F1600
G1 X140.771Z0F1600
G1 X140.598Y46.923Z0F1600
G1 X140.424Z0F1600
G1 X140.077Y46.918Z0F1600
G1 X139.73Y46.901Z0F1600
G1 X139.557Y46.868Z0F1600
G1 X139.384Y46.817Z0F1600
G1 X139.21Y46.762Z0F1600
G1 X139.037Y46.748Z0F1600
G1 X138.863Y46.765Z0F1600
G1 X138.69Y46.805Z0F1600
G1 X138.516Y46.842Z0F1600
G1 X138.343Y46.857Z0F1600
G1 X138.17Y46.868Z0F1600
G1 X137.823Y46.913Z0F1600
G1 X137.476Y46.97Z0F1600
G1 X137.302Y47.001Z0F1600
G1 X136.956Y47.051Z0F1600
G1 X136.782Y47.067Z0F1600
G1 X136.609Y47.077Z0F1600
G1 X136.435Y47.074Z0F1600
G1 X136.262Z0F1600
G1 X136.088Y47.07Z0F1600
G1 X135.915Y47.055Z0F1600
G1 X135.568Y47.017Z0F1600
G1 X135.395Y46.996Z0F1600
G1 X135.221Y46.965Z0F1600
G1 X134.701Y46.899Z0F1600
G1 X134.527Y46.883Z0F1600
G1 X134.354Y46.861Z0F1600
G1 X134.181Y46.85Z0F1600
G1 X134.007Y46.857Z0F1600
G1 X133.66Y46.833Z0F1600
G1 X133.487Y46.829Z0F1600
G1 X133.14Y46.835Z0F1600
G1 X132.967Y46.84Z0F1600
G1 X132.793Y46.848Z0F1600
G1 X132.446Y46.875Z0F1600
G1 X132.273Y46.885Z0F1600
G1 X131.926Y46.911Z0F1600
G1 X131.232Y46.979Z0F1600
G1 X130.885Y47.01Z0F1600
G1 X130.712Y47.029Z0F1600
G1 X130.539Y47.043Z0F1600
G1 X130.018Y47.057Z0F1600
G1 X129.671Y47.046Z0F1600
G1 X129.498Z0F1600
G1 X129.325Y47.031Z0F1600
G1 X129.151Y47.018Z0F1600
G1 X128.978Y46.998Z0F1600
G1 X128.804Y46.982Z0F1600
G1 X128.631Y46.961Z0F1600
G1 X128.284Y46.927Z0F1600
G1 X128.111Y46.911Z0F1600
G1 X127.764Y46.888Z0F1600
G1 X127.59Y46.875Z0F1600
G1 X127.243Y46.855Z0F1600
G1 X127.07Z0F1600
G1 X126.896Y46.847Z0F1600
G1 X126.723Y46.836Z0F1600
G1 X126.55Z0F1600
G1 X126.203Y46.855Z0F1600
G1 X126.029Z0F1600
G1 X125.856Y46.871Z0F1600
G1 X125.682Y46.866Z0F1600
G1 X125.509Y46.876Z0F1600
G1 X125.336Y46.881Z0F1600
G1 X125.162Y46.897Z0F1600
G1 X124.815Y46.918Z0F1600
G1 X124.468Y46.944Z0F1600
G1 X124.122Y46.966Z0F1600
G1 X123.948Y46.98Z0F1600
G1 X123.775Y46.999Z0F1600
G1 X123.601Y47.031Z0F1600
G1 X123.428Y47.057Z0F1600
G1 X123.254Y47.074Z0F1600
G1 X123.081Y47.081Z0F1600
G1 X122.734Y47.069Z0F1600
G1 X122.387Y47.05Z0F1600
G1 X122.214Y47.025Z0F1600
G1 X122.04Y47.006Z0F1600
G1 X121.694Y46.959Z0F1600
G1 X121Y46.881Z0F1600
G1 X120.826Y46.868Z0F1600
G1 X120.653Y46.859Z0F1600
G1 X120.48Y46.842Z0F1600
G1 X120.306Y46.836Z0F1600
G1 X120.133Y46.821Z0F1600
G1 X119.959Z0F1600
G1 X119.786Y46.814Z0F1600
G1 X119.439Y46.836Z0F1600
G1 X119.266Y46.843Z0F1600
G1 X119.092Y46.861Z0F1600
G1 X118.919Y46.881Z0F1600
G1 X118.745Y46.895Z0F1600
G1 X118.572Y46.913Z0F1600
G1 X117.878Y46.97Z0F1600
G1 X117.705Y46.979Z0F1600
G1 X117.531Y46.991Z0F1600
G1 X117.358Y46.996Z0F1600
G1 X117.011Y47.017Z0F1600
G1 X116.664Y47.02Z0F1600
G1 X116.491Y47.017Z0F1600
G1 X116.144Z0F1600
G1 X115.97Y47.012Z0F1600
G1 X115.623Y46.975Z0F1600
G1 X115.45Y46.97Z0F1600
G1 X115.277Z0F1600
G1 X114.756Y46.958Z0F1600
G1 X114.583Y46.946Z0F1600
G1 X114.409Y46.942Z0F1600
G1 X112.502Z0F1600
G1 X112.155Y46.977Z0F1600
G1 X111.981Y46.973Z0F1600
G1 X111.808Z0F1600
G1 X111.635Y46.987Z0F1600
G1 X111.461Z0F1600
G1 X111.114Y46.953Z0F1600
G1 X110.594Y46.887Z0F1600
G1 X110.247Y46.852Z0F1600
G1 X110.074Y46.826Z0F1600
G1 X109.9Y46.79Z0F1600
G1 X109.727Y46.757Z0F1600
G1 X109.553Y46.739Z0F1600
G1 X109.38Z0F1600
G1 X109.207Y46.764Z0F1600
G1 X109.033Y46.821Z0F1600
G1 X108.86Y46.911Z0F1600
G1 X108.686Y47.013Z0F1600
G1 X108.513Y47.129Z0F1600
G1 X108.339Y47.225Z0F1600
G1 X108.166Y47.242Z0F1600
G1 X107.993Y47.204Z0F1600
G1 X107.819Y47.126Z0F1600
