;LightBurn 1.6.04
;Custom GCode device profile, absolute coords
;Bounds: X24.16 Y11.09 to X86.7 Y36.8
G00 G17 G40 G21 G54
G90
M3
G1 Z1F500
;Cut @ 15 mm/sec, 90% power

M8
G0 Z0.8F500
G0 X24.158Y17.788Z0.8F1000
G1 Z0F500
;Layer C00
G1 X25.044Y18.979Z0S900F800
G1 X25.888Y20.134Z0F800
G1 X26.245Y20.724Z0F800
G1 X26.532Y21.337Z0F800
G1 X26.642Y21.656Z0F800
G1 X26.728Y21.984Z0F800
G1 X26.785Y22.323Z0F800
G1 X26.813Y22.675Z0F800
G1 X27.074Y23.612Z0F800
G1 X27.319Y24.521Z0F800
G1 X27.551Y25.407Z0F800
G1 X27.773Y26.276Z0F800
G1 X28.197Y27.979Z0F800
G1 X28.61Y29.669Z0F800
G1 X28.589Y29.867Z0F800
G1 X28.584Y30.095Z0F800
G1 X28.59Y30.347Z0F800
G1 X28.605Y30.616Z0F800
G1 X28.647Y31.184Z0F800
G1 X28.681Y31.749Z0F800
G1 X28.686Y32.015Z0F800
G1 X28.679Y32.262Z0F800
G1 X28.656Y32.483Z0F800
G1 X28.614Y32.673Z0F800
G1 X28.548Y32.825Z0F800
G1 X28.456Y32.933Z0F800
G1 X28.334Y32.991Z0F800
G1 X28.179Z0F800
G1 X28.117Y32.008Z0F800
G1 X28.09Y31.022Z0F800
G1 X28.101Y30.036Z0F800
G1 X28.157Y29.053Z0F800
G1 X28.261Y28.072Z0F800
G1 X28.42Y27.095Z0F800
G1 X28.637Y26.123Z0F800
G1 X28.918Y25.155Z0F800
G1 X29.457Y23.753Z0F800
G1 X29.997Y22.331Z0F800
G1 X30.199Y21.613Z0F800
G1 X30.318Y20.892Z0F800
G1 X30.338Y20.53Z0F800
G1 X30.327Y20.167Z0F800
G1 X30.282Y19.804Z0F800
G1 X30.199Y19.439Z0F800
G1 X30.116Y19.236Z0F800
G1 X30.014Y19.055Z0F800
G1 X29.893Y18.896Z0F800
G1 X29.755Y18.756Z0F800
G1 X29.437Y18.537Z0F800
G1 X29.071Y18.391Z0F800
G1 X28.67Y18.315Z0F800
G1 X28.248Y18.303Z0F800
G1 X27.816Y18.349Z0F800
G1 X27.388Y18.449Z0F800
G1 X26.976Y18.597Z0F800
G1 X26.593Y18.787Z0F800
G1 X26.252Y19.016Z0F800
G1 X25.966Y19.276Z0F800
G1 X25.746Y19.564Z0F800
G1 X25.607Y19.874Z0F800
G1 X25.572Y20.036Z0F800
G1 X25.561Y20.201Z0F800
G1 X25.577Y20.369Z0F800
G1 X25.62Y20.539Z0F800
G1 X25.589Y20.695Z0F800
G1 X25.569Y20.881Z0F800
G1 X25.558Y21.091Z0F800
G1 Y21.32Z0F800
G1 X25.571Y21.808Z0F800
G1 X25.604Y22.301Z0F800
G1 X25.643Y22.753Z0F800
G1 X25.678Y23.118Z0F800
G1 X25.698Y23.351Z0F800
G1 Y23.404Z0F800
G1 X25.692Y23.407Z0F800
G1 X25.687Y22.799Z0F800
G1 X25.713Y22.168Z0F800
G1 X25.789Y21.527Z0F800
G1 X25.929Y20.887Z0F800
G1 X26.149Y20.259Z0F800
G1 X26.467Y19.656Z0F800
G1 X26.667Y19.367Z0F800
G1 X26.897Y19.089Z0F800
G1 X27.16Y18.822Z0F800
G1 X27.457Y18.57Z0F800
G1 X27.735Y18.419Z0F800
G1 X28.01Y18.299Z0F800
G1 X28.283Y18.207Z0F800
G1 X28.553Y18.142Z0F800
G1 X29.081Y18.089Z0F800
G1 X29.591Y18.129Z0F800
G1 X30.079Y18.253Z0F800
G1 X30.542Y18.45Z0F800
G1 X30.975Y18.71Z0F800
G1 X31.376Y19.022Z0F800
G1 X31.74Y19.376Z0F800
G1 X32.064Y19.761Z0F800
G1 X32.344Y20.168Z0F800
G1 X32.577Y20.586Z0F800
G1 X32.758Y21.005Z0F800
G1 X32.886Y21.414Z0F800
G1 X32.954Y21.803Z0F800
G1 X32.961Y22.162Z0F800
G1 X32.958Y22.331Z0F800
G1 X32.943Y22.539Z0F800
G1 X32.918Y22.774Z0F800
G1 X32.883Y23.026Z0F800
G1 X32.778Y23.542Z0F800
G1 X32.631Y24.003Z0F800
G1 X32.54Y24.187Z0F800
G1 X32.439Y24.326Z0F800
G1 X32.326Y24.41Z0F800
G1 X32.203Y24.428Z0F800
G1 X32.068Y24.37Z0F800
G1 X31.922Y24.226Z0F800
G1 X31.844Y24.118Z0F800
G1 X31.764Y23.985Z0F800
G1 X31.681Y23.825Z0F800
G1 X31.596Y23.637Z0F800
G1 X31.485Y23.078Z0F800
G1 X31.355Y22.435Z0F800
G1 X31.253Y21.751Z0F800
G1 X31.23Y21.07Z0F800
G1 X31.262Y20.743Z0F800
G1 X31.332Y20.433Z0F800
G1 X31.446Y20.145Z0F800
G1 X31.609Y19.885Z0F800
G1 X31.829Y19.656Z0F800
G1 X32.11Y19.466Z0F800
G1 X32.46Y19.319Z0F800
G1 X32.883Y19.221Z0F800
G1 X33.704Y20.298Z0F800
G1 X34.488Y21.435Z0F800
G1 X34.843Y22.004Z0F800
G1 X35.162Y22.563Z0F800
G1 X35.436Y23.102Z0F800
G1 X35.655Y23.612Z0F800
G1 X35.497Y23.446Z0F800
G1 X35.362Y23.253Z0F800
G1 X35.248Y23.035Z0F800
G1 X35.156Y22.797Z0F800
G1 X35.036Y22.269Z0F800
G1 X34.997Y21.696Z0F800
G1 X35.037Y21.105Z0F800
G1 X35.153Y20.52Z0F800
G1 X35.34Y19.969Z0F800
G1 X35.596Y19.478Z0F800
G1 X35.792Y19.422Z0F800
G1 X35.974Y19.392Z0F800
G1 X36.142Y19.387Z0F800
G1 X36.298Y19.406Z0F800
G1 X36.574Y19.506Z0F800
G1 X36.806Y19.68Z0F800
G1 X37.001Y19.915Z0F800
G1 X37.163Y20.198Z0F800
G1 X37.297Y20.516Z0F800
G1 X37.408Y20.855Z0F800
G1 X37.582Y21.547Z0F800
G1 X37.727Y22.171Z0F800
G1 X37.8Y22.424Z0F800
G1 X37.881Y22.622Z0F800
G1 X37.975Y22.75Z0F800
G1 X38.087Y22.796Z0F800
G1 X38.122Y22.567Z0F800
G1 X38.116Y22.302Z0F800
G1 X38.08Y22.008Z0F800
G1 X38.024Y21.694Z0F800
G1 X37.889Y21.03Z0F800
G1 X37.79Y20.372Z0F800
G1 X37.777Y20.064Z0F800
G1 X37.802Y19.779Z0F800
G1 X37.875Y19.526Z0F800
G1 X38.004Y19.311Z0F800
G1 X38.201Y19.143Z0F800
G1 X38.474Y19.029Z0F800
G1 X38.642Y18.994Z0F800
G1 X38.834Y18.976Z0F800
G1 X39.049Z0F800
G1 X39.289Y18.991Z0F800
G1 X39.526Y19.205Z0F800
G1 X39.739Y19.475Z0F800
G1 X39.929Y19.789Z0F800
G1 X40.097Y20.14Z0F800
G1 X40.377Y20.909Z0F800
G1 X40.591Y21.704Z0F800
G1 X40.677Y22.087Z0F800
G1 X40.75Y22.447Z0F800
G1 X40.868Y23.06Z0F800
G1 X40.914Y23.294Z0F800
G1 X40.955Y23.467Z0F800
G1 X40.992Y23.568Z0F800
G1 X41.025Y23.588Z0F800
G1 X41.015Y22.932Z0F800
G1 X40.93Y22.25Z0F800
G1 X40.82Y21.555Z0F800
G1 X40.736Y20.862Z0F800
G1 X40.72Y20.52Z0F800
G1 X40.729Y20.183Z0F800
G1 X40.769Y19.854Z0F800
G1 X40.847Y19.533Z0F800
G1 X40.97Y19.224Z0F800
G1 X41.143Y18.926Z0F800
G1 X41.373Y18.643Z0F800
G1 X41.667Y18.375Z0F800
G1 X41.884Y18.299Z0F800
G1 X42.082Y18.247Z0F800
G1 X42.263Y18.218Z0F800
G1 X42.427Y18.212Z0F800
G1 X42.706Y18.262Z0F800
G1 X42.926Y18.386Z0F800
G1 X43.092Y18.573Z0F800
G1 X43.209Y18.814Z0F800
G1 X43.283Y19.097Z0F800
G1 X43.32Y19.414Z0F800
G1 X43.304Y20.105Z0F800
G1 X43.206Y20.805Z0F800
G1 X43.139Y21.132Z0F800
G1 X43.069Y21.431Z0F800
G1 X43Y21.691Z0F800
G1 X42.938Y21.902Z0F800
G1 X42.852Y22.131Z0F800
G1 X42.761Y22.325Z0F800
G1 X42.666Y22.486Z0F800
G1 X42.567Y22.616Z0F800
G1 X42.465Y22.717Z0F800
G1 X42.361Y22.789Z0F800
G1 X42.255Y22.835Z0F800
G1 X42.149Y22.855Z0F800
G1 X41.935Y22.827Z0F800
G1 X41.726Y22.717Z0F800
G1 X41.527Y22.538Z0F800
G1 X41.343Y22.302Z0F800
G1 X41.18Y22.021Z0F800
G1 X41.043Y21.708Z0F800
G1 X40.938Y21.375Z0F800
G1 X40.871Y21.034Z0F800
G1 X40.846Y20.698Z0F800
G1 X40.869Y20.38Z0F800
G1 X40.946Y20.091Z0F800
G1 X41.082Y19.844Z0F800
G1 X41.101Y19.621Z0F800
G1 X41.139Y19.423Z0F800
G1 X41.195Y19.248Z0F800
G1 X41.268Y19.095Z0F800
G1 X41.459Y18.854Z0F800
G1 X41.702Y18.695Z0F800
G1 X41.987Y18.611Z0F800
G1 X42.304Y18.597Z0F800
G1 X42.642Y18.646Z0F800
G1 X42.992Y18.753Z0F800
G1 X43.344Y18.911Z0F800
G1 X43.688Y19.115Z0F800
G1 X44.013Y19.359Z0F800
G1 X44.309Y19.637Z0F800
G1 X44.566Y19.943Z0F800
G1 X44.775Y20.271Z0F800
G1 X44.925Y20.614Z0F800
G1 X45.006Y20.969Z0F800
G1 X45.344Y22.078Z0F800
G1 X45.452Y22.588Z0F800
G1 X45.476Y23.12Z0F800
G1 X45.741Y23.796Z0F800
G1 X45.954Y24.504Z0F800
G1 X46.127Y25.235Z0F800
G1 X46.273Y25.978Z0F800
G1 X46.534Y27.47Z0F800
G1 X46.835Y28.906Z0F800
G1 X46.945Y29.173Z0F800
G1 X47.022Y29.427Z0F800
G1 X47.067Y29.664Z0F800
G1 X47.083Y29.88Z0F800
G1 X47.075Y30.07Z0F800
G1 X47.045Y30.231Z0F800
G1 X46.995Y30.357Z0F800
G1 X46.929Y30.444Z0F800
G1 X46.851Y30.489Z0F800
G1 X46.762Y30.486Z0F800
G1 X46.666Y30.433Z0F800
G1 X46.567Y30.323Z0F800
G1 X46.466Y30.153Z0F800
G1 X46.368Y29.919Z0F800
G1 X46.274Y29.616Z0F800
G1 X46.189Y29.241Z0F800
G1 X45.999Y28.759Z0F800
G1 X45.867Y28.275Z0F800
G1 X45.783Y27.789Z0F800
G1 X45.741Y27.3Z0F800
G1 X45.752Y26.318Z0F800
G1 X45.839Y25.331Z0F800
G1 X45.942Y24.342Z0F800
G1 X45.999Y23.355Z0F800
G1 X45.992Y22.863Z0F800
G1 X45.95Y22.372Z0F800
G1 X45.867Y21.883Z0F800
G1 X45.735Y21.395Z0F800
G1 X45.554Y21.078Z0F800
G1 X45.459Y20.759Z0F800
G1 X45.442Y20.446Z0F800
G1 X45.492Y20.146Z0F800
G1 X45.602Y19.866Z0F800
G1 X45.761Y19.614Z0F800
G1 X45.962Y19.396Z0F800
G1 X46.195Y19.219Z0F800
G1 X46.452Y19.091Z0F800
G1 X46.723Y19.019Z0F800
G1 X46.999Y19.01Z0F800
G1 X47.272Y19.071Z0F800
G1 X47.532Y19.209Z0F800
G1 X47.77Y19.431Z0F800
G1 X47.879Y19.576Z0F800
G1 X47.979Y19.745Z0F800
G1 X48.068Y19.938Z0F800
G1 X48.147Y20.157Z0F800
G1 X48.262Y20.549Z0F800
G1 X48.445Y21Z0F800
G1 X48.649Y21.483Z0F800
G1 X48.829Y21.97Z0F800
G1 X48.895Y22.206Z0F800
G1 X48.939Y22.432Z0F800
G1 X48.953Y22.645Z0F800
G1 X48.932Y22.842Z0F800
G1 X48.871Y23.019Z0F800
G1 X48.763Y23.172Z0F800
G1 X48.604Y23.298Z0F800
G1 X48.386Y23.393Z0F800
G1 X48.11Y22.825Z0F800
G1 X47.9Y22.219Z0F800
G1 X47.762Y21.587Z0F800
G1 X47.702Y20.942Z0F800
G1 X47.722Y20.296Z0F800
G1 X47.829Y19.66Z0F800
G1 X47.916Y19.35Z0F800
G1 X48.027Y19.047Z0F800
G1 X48.162Y18.753Z0F800
G1 X48.321Y18.469Z0F800
G1 X48.705Y18.631Z0F800
G1 X49.047Y18.834Z0F800
G1 X49.349Y19.074Z0F800
G1 X49.613Y19.346Z0F800
G1 X49.844Y19.646Z0F800
G1 X50.042Y19.97Z0F800
G1 X50.212Y20.314Z0F800
G1 X50.357Y20.673Z0F800
G1 X50.579Y21.422Z0F800
G1 X50.731Y22.182Z0F800
G1 X50.837Y22.921Z0F800
G1 X50.917Y23.604Z0F800
G1 X50.922Y23.774Z0F800
G1 X50.93Y24.735Z0F800
G1 X50.941Y25.616Z0F800
G1 X50.97Y26.561Z0F800
G1 X50.995Y27.024Z0F800
G1 X51.027Y27.461Z0F800
G1 X51.069Y27.86Z0F800
G1 X51.121Y28.207Z0F800
G1 X51.185Y28.487Z0F800
G1 X51.263Y28.687Z0F800
G1 X51.307Y28.753Z0F800
G1 X51.355Y28.794Z0F800
G1 X51.407Y28.808Z0F800
G1 X51.463Y28.794Z0F800
G1 X51.482Y28.372Z0F800
G1 X51.535Y27.903Z0F800
G1 X51.62Y27.394Z0F800
G1 X51.735Y26.853Z0F800
G1 X51.877Y26.287Z0F800
G1 X52.045Y25.703Z0F800
G1 X52.235Y25.11Z0F800
G1 X52.446Y24.514Z0F800
G1 X52.922Y23.344Z0F800
G1 X53.454Y22.253Z0F800
G1 X53.735Y21.755Z0F800
G1 X54.024Y21.3Z0F800
G1 X54.318Y20.895Z0F800
G1 X54.615Y20.546Z0F800
G1 X54.92Y20.307Z0F800
G1 X55.144Y20.083Z0F800
G1 X55.293Y19.876Z0F800
G1 X55.372Y19.688Z0F800
G1 X55.385Y19.519Z0F800
G1 X55.34Y19.372Z0F800
G1 X55.241Y19.247Z0F800
G1 X55.093Y19.146Z0F800
G1 X54.902Y19.07Z0F800
G1 X54.674Y19.02Z0F800
G1 X54.413Y18.999Z0F800
G1 X54.126Y19.007Z0F800
G1 X53.817Y19.046Z0F800
G1 X53.493Y19.117Z0F800
G1 X53.158Y19.221Z0F800
G1 X52.818Y19.36Z0F800
G1 X52.275Y19.379Z0F800
G1 X51.759Y19.444Z0F800
G1 X51.278Y19.547Z0F800
G1 X50.839Y19.681Z0F800
G1 X50.452Y19.837Z0F800
G1 X50.124Y20.009Z0F800
G1 X49.865Y20.187Z0F800
G1 X49.681Y20.365Z0F800
G1 X49.583Y20.535Z0F800
G1 X49.577Y20.688Z0F800
G1 X49.612Y20.756Z0F800
G1 X49.673Y20.817Z0F800
G1 X49.762Y20.871Z0F800
G1 X49.879Y20.915Z0F800
G1 X50.025Y20.949Z0F800
G1 X50.202Y20.973Z0F800
G1 X50.411Y20.984Z0F800
G1 X50.653Z0F800
G1 X50.928Y20.968Z0F800
G1 X51.238Y20.938Z0F800
G1 X51.583Y20.893Z0F800
G1 X51.966Y20.83Z0F800
G1 X52.506Y20.967Z0F800
G1 X52.987Y21.161Z0F800
G1 X53.414Y21.407Z0F800
G1 X53.79Y21.697Z0F800
G1 X54.119Y22.027Z0F800
G1 X54.407Y22.391Z0F800
G1 X54.657Y22.782Z0F800
G1 X54.874Y23.194Z0F800
G1 X55.224Y24.061Z0F800
G1 X55.492Y24.942Z0F800
G1 X55.712Y25.792Z0F800
G1 X55.919Y26.561Z0F800
G1 X56.261Y27.222Z0F800
G1 X56.53Y27.873Z0F800
G1 X56.741Y28.52Z0F800
G1 X56.912Y29.168Z0F800
G1 X57.196Y30.492Z0F800
G1 X57.516Y31.892Z0F800
G1 X57.845Y32.481Z0F800
G1 X58.114Y33.081Z0F800
G1 X58.333Y33.69Z0F800
G1 X58.513Y34.307Z0F800
G1 X58.798Y35.552Z0F800
G1 X59.053Y36.802Z0F800
G1 X58.965Y35.135Z0F800
G1 X58.789Y33.483Z0F800
G1 X58.675Y32.633Z0F800
G1 X58.549Y31.752Z0F800
G1 X58.269Y29.85Z0F800
G1 X58.145Y29.469Z0F800
G1 X58.062Y29.08Z0F800
G1 X58.014Y28.685Z0F800
G1 X57.995Y28.285Z0F800
G1 X58.021Y27.473Z0F800
G1 X58.161Y25.835Z0F800
G1 X58.181Y25.025Z0F800
G1 X58.158Y24.625Z0F800
G1 X58.105Y24.231Z0F800
G1 X58.017Y23.843Z0F800
G1 X57.886Y23.462Z0F800
G1 X57.654Y22.267Z0F800
G1 X57.374Y21.059Z0F800
G1 X57.3Y20.456Z0F800
G1 X57.313Y19.858Z0F800
G1 X57.362Y19.561Z0F800
G1 X57.446Y19.267Z0F800
G1 X57.569Y18.974Z0F800
G1 X57.734Y18.685Z0F800
G1 X58.045Y19.95Z0F800
G1 X58.352Y21.214Z0F800
G1 X58.546Y21.837Z0F800
G1 X58.788Y22.451Z0F800
G1 X59.097Y23.053Z0F800
G1 X59.487Y23.639Z0F800
G1 X59.66Y24.017Z0F800
G1 X59.729Y24.16Z0F800
G1 X59.786Y24.275Z0F800
G1 X59.833Y24.363Z0F800
G1 X59.87Y24.425Z0F800
G1 X59.896Y24.464Z0F800
G1 X59.914Y24.48Z0F800
G1 X59.924Y24.45Z0F800
G1 X59.903Y24.348Z0F800
G1 X59.855Y24.186Z0F800
G1 X59.786Y23.976Z0F800
G1 X59.596Y23.457Z0F800
G1 X59.366Y22.887Z0F800
G1 X59.247Y22.612Z0F800
G1 X59.13Y22.359Z0F800
G1 X59.019Y22.142Z0F800
G1 X58.919Y21.97Z0F800
G1 X58.692Y21.673Z0F800
G1 X58.527Y21.37Z0F800
G1 X58.418Y21.071Z0F800
G1 X58.364Y20.78Z0F800
G1 X58.361Y20.505Z0F800
G1 X58.406Y20.252Z0F800
G1 X58.496Y20.029Z0F800
G1 X58.628Y19.843Z0F800
G1 X58.798Y19.698Z0F800
G1 X59.003Y19.604Z0F800
G1 X59.24Y19.566Z0F800
G1 X59.506Y19.591Z0F800
G1 X59.798Y19.686Z0F800
G1 X60.113Y19.858Z0F800
G1 X60.447Y20.113Z0F800
G1 X60.797Y20.459Z0F800
G1 X61.016Y20.599Z0F800
G1 X61.238Y20.78Z0F800
G1 X61.46Y20.993Z0F800
G1 X61.678Y21.232Z0F800
G1 X62.092Y21.763Z0F800
G1 X62.452Y22.316Z0F800
G1 X62.605Y22.585Z0F800
G1 X62.735Y22.839Z0F800
G1 X62.838Y23.071Z0F800
G1 X62.913Y23.276Z0F800
G1 X62.955Y23.445Z0F800
G1 X62.961Y23.572Z0F800
G1 X62.928Y23.651Z0F800
G1 X62.854Y23.675Z0F800
G1 X62.698Y23.359Z0F800
G1 X62.504Y23.043Z0F800
G1 X62.28Y22.728Z0F800
G1 X62.035Y22.413Z0F800
G1 X61.517Y21.78Z0F800
G1 X61.021Y21.143Z0F800
G1 X60.804Y20.822Z0F800
G1 X60.618Y20.499Z0F800
G1 X60.473Y20.173Z0F800
G1 X60.378Y19.845Z0F800
G1 X60.341Y19.513Z0F800
G1 X60.371Y19.178Z0F800
G1 X60.478Y18.839Z0F800
G1 X60.67Y18.496Z0F800
G1 X61.11Y18.618Z0F800
G1 X61.514Y18.776Z0F800
G1 X61.882Y18.965Z0F800
G1 X62.216Y19.183Z0F800
G1 X62.519Y19.426Z0F800
G1 X62.792Y19.691Z0F800
G1 X63.036Y19.976Z0F800
G1 X63.253Y20.277Z0F800
G1 X63.615Y20.916Z0F800
G1 X63.892Y21.582Z0F800
G1 X64.096Y22.25Z0F800
G1 X64.243Y22.897Z0F800
G1 X64.356Y23.224Z0F800
G1 X64.497Y23.544Z0F800
G1 X64.644Y23.822Z0F800
G1 X64.773Y24.022Z0F800
G1 X64.823Y24.082Z0F800
G1 X64.86Y24.109Z0F800
G1 X64.881Y24.099Z0F800
G1 Y24.048Z0F800
G1 X64.862Y23.95Z0F800
G1 X64.817Y23.802Z0F800
G1 X64.744Y23.599Z0F800
G1 X64.64Y23.336Z0F800
G1 X64.58Y23.067Z0F800
G1 X64.481Y22.779Z0F800
G1 X64.354Y22.476Z0F800
G1 X64.206Y22.162Z0F800
G1 X63.884Y21.513Z0F800
G1 X63.586Y20.862Z0F800
G1 X63.467Y20.545Z0F800
G1 X63.38Y20.238Z0F800
G1 X63.334Y19.945Z0F800
G1 X63.337Y19.67Z0F800
G1 X63.398Y19.416Z0F800
G1 X63.526Y19.186Z0F800
G1 X63.729Y18.986Z0F800
G1 X64.017Y18.817Z0F800
G1 X64.505Y18.965Z0F800
G1 X64.919Y19.154Z0F800
G1 X65.266Y19.379Z0F800
G1 X65.554Y19.635Z0F800
G1 X65.79Y19.918Z0F800
G1 X65.983Y20.224Z0F800
G1 X66.139Y20.548Z0F800
G1 X66.268Y20.885Z0F800
G1 X66.471Y21.584Z0F800
G1 X66.655Y22.286Z0F800
G1 X66.759Y22.626Z0F800
G1 X66.881Y22.954Z0F800
G1 X67.03Y23.265Z0F800
G1 X67.212Y23.554Z0F800
G1 X67.45Y23.826Z0F800
G1 X67.681Y24.082Z0F800
G1 X67.889Y24.297Z0F800
G1 X68.055Y24.44Z0F800
G1 X68.116Y24.477Z0F800
G1 X68.16Y24.486Z0F800
G1 X68.184Y24.464Z0F800
G1 X68.187Y24.406Z0F800
G1 X68.165Y24.31Z0F800
G1 X68.116Y24.173Z0F800
G1 X68.039Y23.99Z0F800
G1 X67.93Y23.759Z0F800
G1 X67.881Y23.499Z0F800
G1 X67.794Y23.214Z0F800
G1 X67.679Y22.91Z0F800
G1 X67.542Y22.591Z0F800
G1 X67.243Y21.924Z0F800
G1 X66.964Y21.251Z0F800
G1 X66.853Y20.923Z0F800
G1 X66.773Y20.607Z0F800
G1 X66.732Y20.307Z0F800
G1 X66.739Y20.027Z0F800
G1 X66.801Y19.773Z0F800
G1 X66.928Y19.549Z0F800
G1 X67.128Y19.36Z0F800
G1 X67.41Y19.209Z0F800
G1 X67.789Y19.361Z0F800
G1 X68.145Y19.528Z0F800
G1 X68.48Y19.71Z0F800
G1 X68.794Y19.906Z0F800
G1 X69.367Y20.335Z0F800
G1 X69.873Y20.807Z0F800
G1 X70.32Y21.313Z0F800
G1 X70.718Y21.847Z0F800
G1 X71.075Y22.4Z0F800
G1 X71.4Y22.964Z0F800
G1 X71.544Y23.274Z0F800
G1 X71.618Y23.565Z0F800
G1 X71.634Y23.81Z0F800
G1 X71.602Y23.979Z0F800
G1 X71.572Y24.026Z0F800
G1 X71.534Y24.044Z0F800
G1 X71.49Y24.028Z0F800
G1 X71.441Y23.974Z0F800
G1 X71.389Y23.88Z0F800
G1 X71.334Y23.742Z0F800
G1 X71.279Y23.556Z0F800
G1 X71.225Y23.318Z0F800
G1 X71.032Y22.849Z0F800
G1 X70.799Y22.297Z0F800
G1 X70.566Y21.699Z0F800
G1 X70.371Y21.095Z0F800
G1 X70.3Y20.804Z0F800
G1 X70.253Y20.525Z0F800
G1 X70.235Y20.264Z0F800
G1 X70.251Y20.026Z0F800
G1 X70.305Y19.816Z0F800
G1 X70.403Y19.639Z0F800
G1 X70.55Y19.499Z0F800
G1 X70.75Y19.402Z0F800
G1 X71.116Y19.577Z0F800
G1 X71.468Y19.78Z0F800
G1 X71.804Y20.01Z0F800
G1 X72.122Y20.261Z0F800
G1 X72.705Y20.816Z0F800
G1 X73.208Y21.414Z0F800
G1 X73.623Y22.028Z0F800
G1 X73.942Y22.629Z0F800
G1 X74.062Y22.915Z0F800
G1 X74.155Y23.187Z0F800
G1 X74.22Y23.441Z0F800
G1 X74.256Y23.673Z0F800
G1 X74.134Y23.095Z0F800
G1 X73.943Y22.491Z0F800
G1 X73.722Y21.873Z0F800
G1 X73.51Y21.253Z0F800
G1 X73.345Y20.644Z0F800
G1 X73.267Y20.057Z0F800
G1 X73.272Y19.776Z0F800
G1 X73.314Y19.505Z0F800
G1 X73.397Y19.245Z0F800
G1 X73.525Y18.999Z0F800
G1 X73.955Y19.183Z0F800
G1 X74.367Y19.394Z0F800
G1 X74.756Y19.629Z0F800
G1 X75.121Y19.887Z0F800
G1 X75.458Y20.165Z0F800
G1 X75.764Y20.461Z0F800
G1 X76.036Y20.774Z0F800
G1 X76.271Y21.1Z0F800
G1 X76.466Y21.437Z0F800
G1 X76.619Y21.784Z0F800
G1 X76.726Y22.138Z0F800
G1 X76.784Y22.497Z0F800
G1 X76.791Y22.859Z0F800
G1 X76.743Y23.221Z0F800
G1 X76.637Y23.582Z0F800
G1 X76.471Y23.939Z0F800
G1 X76.388Y23.318Z0F800
G1 X76.241Y22.707Z0F800
G1 X76.053Y22.101Z0F800
G1 X75.847Y21.498Z0F800
G1 X75.643Y20.895Z0F800
G1 X75.466Y20.288Z0F800
G1 X75.337Y19.675Z0F800
G1 X75.279Y19.052Z0F800
G1 X75.407Y18.865Z0F800
G1 X75.56Y18.754Z0F800
G1 X75.737Y18.711Z0F800
G1 X75.932Y18.728Z0F800
G1 X76.143Y18.796Z0F800
G1 X76.365Y18.908Z0F800
G1 X76.596Y19.057Z0F800
G1 X76.831Y19.233Z0F800
G1 X77.303Y19.637Z0F800
G1 X77.751Y20.058Z0F800
G1 X77.957Y20.255Z0F800
G1 X78.147Y20.432Z0F800
G1 X78.317Y20.582Z0F800
G1 X78.463Y20.695Z0F800
G1 X78.614Y20.838Z0F800
G1 X78.757Y21.023Z0F800
G1 X78.892Y21.242Z0F800
G1 X79.017Y21.488Z0F800
G1 X79.227Y22.03Z0F800
G1 X79.374Y22.588Z0F800
G1 X79.42Y22.854Z0F800
G1 X79.444Y23.101Z0F800
G1 Y23.322Z0F800
G1 X79.421Y23.509Z0F800
G1 X79.371Y23.655Z0F800
G1 X79.292Y23.752Z0F800
G1 X79.184Y23.792Z0F800
G1 X79.043Y23.769Z0F800
G1 X78.636Y22.652Z0F800
G1 X78.424Y22.003Z0F800
G1 X78.264Y21.351Z0F800
G1 X78.216Y21.038Z0F800
G1 X78.196Y20.741Z0F800
G1 X78.211Y20.466Z0F800
G1 X78.264Y20.217Z0F800
G1 X78.361Y20Z0F800
G1 X78.508Y19.821Z0F800
G1 X78.709Y19.685Z0F800
G1 X78.971Y19.597Z0F800
G1 X79.664Y20.011Z0F800
G1 X80.344Y20.515Z0F800
G1 X80.666Y20.793Z0F800
G1 X80.97Y21.085Z0F800
G1 X81.251Y21.389Z0F800
G1 X81.502Y21.702Z0F800
G1 X81.72Y22.02Z0F800
G1 X81.899Y22.342Z0F800
G1 X82.034Y22.665Z0F800
G1 X82.12Y22.986Z0F800
G1 X82.151Y23.301Z0F800
G1 X82.123Y23.61Z0F800
G1 X82.031Y23.908Z0F800
G1 X81.869Y24.193Z0F800
G1 X81.725Y23.947Z0F800
G1 X81.602Y23.665Z0F800
G1 X81.502Y23.353Z0F800
G1 X81.427Y23.019Z0F800
G1 X81.378Y22.669Z0F800
G1 X81.359Y22.312Z0F800
G1 X81.37Y21.954Z0F800
G1 X81.414Y21.603Z0F800
G1 X81.492Y21.265Z0F800
G1 X81.607Y20.949Z0F800
G1 X81.76Y20.661Z0F800
G1 X81.953Y20.409Z0F800
G1 X82.189Y20.199Z0F800
G1 X82.468Y20.04Z0F800
G1 X82.794Y19.938Z0F800
G1 X83.167Y19.901Z0F800
G1 X83.399Y20.07Z0F800
G1 X83.588Y20.284Z0F800
G1 X83.741Y20.537Z0F800
G1 X83.861Y20.819Z0F800
G1 X84.024Y21.442Z0F800
G1 X84.116Y22.09Z0F800
G1 X84.176Y22.698Z0F800
G1 X84.205Y22.967Z0F800
G1 X84.241Y23.202Z0F800
G1 X84.289Y23.396Z0F800
G1 X84.352Y23.54Z0F800
G1 X84.436Y23.627Z0F800
G1 X84.546Y23.648Z0F800
G1 X84.613Y22.145Z0F800
G1 X84.6Y20.643Z0F800
G1 X84.654Y19.901Z0F800
G1 X84.797Y19.169Z0F800
G1 X84.912Y18.808Z0F800
G1 X85.064Y18.45Z0F800
G1 X85.256Y18.097Z0F800
G1 X85.492Y17.748Z0F800
G1 X85.736Y17.809Z0F800
G1 X85.937Y17.93Z0F800
G1 X86.101Y18.105Z0F800
G1 X86.23Y18.326Z0F800
G1 X86.328Y18.587Z0F800
G1 X86.399Y18.881Z0F800
G1 X86.448Y19.2Z0F800
G1 X86.477Y19.537Z0F800
G1 X86.492Y20.241Z0F800
G1 X86.475Y20.936Z0F800
G1 X86.463Y21.263Z0F800
G1 X86.455Y21.566Z0F800
G1 Y21.84Z0F800
G1 X86.464Y22.077Z0F800
G1 X86.571Y23.201Z0F800
G1 X86.65Y24.241Z0F800
G1 X86.695Y25.222Z0F800
G1 X86.704Y26.169Z0F800
G1 X86.67Y27.107Z0F800
G1 X86.591Y28.059Z0F800
G1 X86.461Y29.051Z0F800
G1 X86.276Y30.108Z0F800
G1 X86.38Y30.713Z0F800
G1 X86.469Y31.292Z0F800
G1 X86.542Y31.844Z0F800
G1 X86.6Y32.368Z0F800
G1 X86.645Y32.863Z0F800
G1 X86.677Y33.328Z0F800
G1 X86.696Y33.762Z0F800
G1 X86.704Y34.164Z0F800
G1 X86.701Y34.532Z0F800
G1 X86.687Y34.867Z0F800
G1 X86.664Y35.166Z0F800
G1 X86.633Y35.428Z0F800
G1 X86.593Y35.654Z0F800
G1 X86.547Y35.84Z0F800
G1 X86.494Y35.988Z0F800
G1 X86.435Y36.094Z0F800
G1 X86.371Y36.159Z0F800
G1 X86.302Y36.182Z0F800
G1 X86.23Y36.16Z0F800
G1 X86.155Y36.094Z0F800
G1 X86.079Y35.982Z0F800
G1 X86Y35.822Z0F800
G1 X85.921Y35.615Z0F800
G1 X85.842Y35.359Z0F800
G1 X85.764Y35.053Z0F800
G1 X85.688Y34.695Z0F800
G1 X85.613Y34.285Z0F800
G1 X85.542Y33.822Z0F800
G1 X85.474Y33.305Z0F800
G1 X85.411Y32.732Z0F800
G1 X85.353Y32.103Z0F800
G1 X85.301Y31.416Z0F800
G1 X85.038Y30.893Z0F800
G1 X84.816Y30.355Z0F800
G1 X84.631Y29.803Z0F800
G1 X84.477Y29.24Z0F800
G1 X84.245Y28.087Z0F800
G1 X84.079Y26.914Z0F800
G1 X83.938Y25.736Z0F800
G1 X83.782Y24.57Z0F800
G1 X83.686Y23.997Z0F800
G1 X83.571Y23.432Z0F800
G1 X83.432Y22.879Z0F800
G1 X83.264Y22.339Z0F800
G1 X83.218Y21.814Z0F800
G1 X83.149Y21.305Z0F800
G1 X83.059Y20.81Z0F800
G1 X82.948Y20.328Z0F800
G1 X82.664Y19.395Z0F800
G1 X82.299Y18.496Z0F800
G1 X81.855Y17.617Z0F800
G1 X81.335Y16.747Z0F800
G1 X80.74Y15.874Z0F800
G1 X80.074Y14.988Z0F800
G1 X79.567Y14.415Z0F800
G1 X79.042Y13.874Z0F800
G1 X78.505Y13.362Z0F800
G1 X77.968Y12.873Z0F800
G1 X76.926Y11.954Z0F800
G1 X76.441Y11.515Z0F800
G1 X75.991Y11.086Z0F800
M5
G1 Z1F500
M9
G90
G1 Z1F500
G1 Z2 F500;         ; Raise brush slightly
G0 X22 Y0 F1000;     ; Move across cleaning area
G1 Z5 F500;         ; Raise brush completely
G0 X20 Y110 Z10 F1000;; Move to parking position with Z at safe height
M2;                 ; End program
