; This file was generated with "Universal Gcode Sender 2.1.17"
;
; Tool: 3.0mm
; Depth per pass: 1.0mm
; Plunge speed: 400mm/min
; Safe height: 5.0mm
; Tool step over: 0.3mm
; Spindle Start Command: M3

G21 ; millimeters
G90 ; absolute coordinate
G17 ; XY plane
G94 ; units per minute feed rate mode

; Path - Mill - On path (1/11)
M3 S255
G0 Z5
G0 X21.398Y20
G0 Z5
G1 F400 X21.398Y20Z-0
G1 F1000 X21.398Y20Z-0
G1 X21.311Y20.012Z-0
G1 X21.208Y20.021Z-0
G1 X20.877Y20.124Z-0
G1 X20.476Y20.252Z-0
G1 X20.137Y20.36Z-0
G1 X20Y20.422Z-0
G1 X20Y20.633Z-0
G1 X24.807Y35.435Z-0
G1 X31.289Y33.338Z-0
G1 X31.384Y33.284Z-0
G1 X31.479Y33.234Z-0
G1 X31.479Y33.193Z-0
G1 X31.479Y33.127Z-0
G1 X31.392Y32.895Z-0
G1 X31.264Y32.535Z-0
G1 X31.148Y32.163Z-0
G1 X31.078Y31.919Z-0
G1 X31.024Y31.803Z-0
G1 X30.97Y31.708Z-0
G1 X30.867Y31.605Z-0
G1 X25.824Y33.214Z-0
G1 X21.526Y20.021Z-0
G1 X21.473Y20.012Z-0
G1 X21.398Y20Z-0
G0 Z5
G0 X21.018Y20.74
G0 Z-0
G1 F400 X21.018Y20.74Z-0
G1 F1000 X21.018Y20.74Z-0
G1 X21.018Y21.038Z-0
G1 X20.807Y21.038Z-0
G1 X20.807Y20.74Z-0
G1 X21.018Y20.74Z-0
G0 Z5
; Path - Mill - On path (2/11)
M3 S255
G0 Z5
G0 X31.988Y34.314
G0 Z5
G1 F400 X31.988Y34.314Z-0
G1 F1000 X31.988Y34.314Z-0
G1 X31.901Y34.326Z-0
G1 X31.797Y34.334Z-0
G1 X31.466Y34.438Z-0
G1 X31.065Y34.566Z-0
G1 X30.726Y34.674Z-0
G1 X30.589Y34.736Z-0
G1 X30.589Y34.947Z-0
G1 X35.396Y49.748Z-0
G1 X41.878Y47.652Z-0
G1 X41.973Y47.598Z-0
G1 X42.068Y47.548Z-0
G1 X42.068Y47.507Z-0
G1 X42.068Y47.441Z-0
G1 X41.981Y47.209Z-0
G1 X41.853Y46.849Z-0
G1 X41.737Y46.477Z-0
G1 X41.667Y46.233Z-0
G1 X41.613Y46.117Z-0
G1 X41.559Y46.022Z-0
G1 X41.456Y45.919Z-0
G1 X36.414Y47.527Z-0
G1 X32.116Y34.334Z-0
G1 X32.062Y34.326Z-0
G1 X31.988Y34.314Z-0
G0 Z5
G0 X31.607Y35.054
G0 Z-0
G1 F400 X31.607Y35.054Z-0
G1 F1000 X31.607Y35.054Z-0
G1 X31.607Y35.352Z-0
G1 X31.396Y35.352Z-0
G1 X31.396Y35.054Z-0
G1 X31.607Y35.054Z-0
G0 Z5
; Path - Mill - On path (3/11)
M3 S255
G0 Z5
G0 X40.989Y34.334
G0 Z5
G1 F400 X40.989Y34.334Z-0
G1 F1000 X40.989Y34.334Z-0
G1 X40.902Y34.347Z-0
G1 X40.798Y34.355Z-0
G1 X40.467Y34.459Z-0
G1 X40.066Y34.587Z-0
G1 X39.727Y34.694Z-0
G1 X39.59Y34.756Z-0
G1 X39.59Y34.967Z-0
G1 X44.397Y49.769Z-0
G1 X50.879Y47.672Z-0
G1 X50.974Y47.618Z-0
G1 X51.069Y47.569Z-0
G1 X51.069Y47.527Z-0
G1 X51.069Y47.461Z-0
G1 X50.982Y47.23Z-0
G1 X50.854Y46.87Z-0
G1 X50.738Y46.498Z-0
G1 X50.668Y46.254Z-0
G1 X50.614Y46.138Z-0
G1 X50.56Y46.043Z-0
G1 X50.457Y45.939Z-0
G1 X45.415Y47.548Z-0
G1 X41.117Y34.355Z-0
G1 X41.063Y34.347Z-0
G1 X40.989Y34.334Z-0
G0 Z5
G0 X40.608Y35.075
G0 Z-0
G1 F400 X40.608Y35.075Z-0
G1 F1000 X40.608Y35.075Z-0
G1 X40.608Y35.373Z-0
G1 X40.397Y35.373Z-0
G1 X40.397Y35.075Z-0
G1 X40.608Y35.075Z-0
G0 Z5
; Path - Mill - On path (4/11)
M3 S255
G0 Z5
G0 X30.399Y20.021
G0 Z5
G1 F400 X30.399Y20.021Z-0
G1 F1000 X30.399Y20.021Z-0
G1 X30.312Y20.033Z-0
G1 X30.209Y20.041Z-0
G1 X29.878Y20.145Z-0
G1 X29.477Y20.273Z-0
G1 X29.138Y20.38Z-0
G1 X29.001Y20.443Z-0
G1 X29.001Y20.653Z-0
G1 X33.808Y35.455Z-0
G1 X40.29Y33.358Z-0
G1 X40.385Y33.305Z-0
G1 X40.48Y33.255Z-0
G1 X40.48Y33.214Z-0
G1 X40.48Y33.148Z-0
G1 X40.393Y32.916Z-0
G1 X40.265Y32.556Z-0
G1 X40.149Y32.184Z-0
G1 X40.079Y31.94Z-0
G1 X40.025Y31.824Z-0
G1 X39.971Y31.729Z-0
G1 X39.868Y31.626Z-0
G1 X34.825Y33.234Z-0
G1 X30.527Y20.041Z-0
G1 X30.474Y20.033Z-0
G1 X30.399Y20.021Z-0
G0 Z5
G0 X30.019Y20.761
G0 Z-0
G1 F400 X30.019Y20.761Z-0
G1 F1000 X30.019Y20.761Z-0
G1 X30.019Y21.059Z-0
G1 X29.808Y21.059Z-0
G1 X29.808Y20.761Z-0
G1 X30.019Y20.761Z-0
G0 Z5
; Path - Mill - On path (5/11)
M3 S255
G0 Z5
G0 X50.254Y34.334
G0 Z5
G1 F400 X50.254Y34.334Z-0
G1 F1000 X50.254Y34.334Z-0
G1 X50.168Y34.347Z-0
G1 X50.064Y34.355Z-0
G1 X49.733Y34.459Z-0
G1 X49.332Y34.587Z-0
G1 X48.993Y34.694Z-0
G1 X48.856Y34.756Z-0
G1 X48.856Y34.967Z-0
G1 X53.663Y49.769Z-0
G1 X60.145Y47.672Z-0
G1 X60.24Y47.618Z-0
G1 X60.335Y47.569Z-0
G1 X60.335Y47.527Z-0
G1 X60.335Y47.461Z-0
G1 X60.248Y47.23Z-0
G1 X60.12Y46.87Z-0
G1 X60.004Y46.498Z-0
G1 X59.934Y46.254Z-0
G1 X59.88Y46.138Z-0
G1 X59.826Y46.043Z-0
G1 X59.723Y45.939Z-0
G1 X54.68Y47.548Z-0
G1 X50.383Y34.355Z-0
G1 X50.329Y34.347Z-0
G1 X50.254Y34.334Z-0
G0 Z5
G0 X49.874Y35.075
G0 Z-0
G1 F400 X49.874Y35.075Z-0
G1 F1000 X49.874Y35.075Z-0
G1 X49.874Y35.373Z-0
G1 X49.663Y35.373Z-0
G1 X49.663Y35.075Z-0
G1 X49.874Y35.075Z-0
G0 Z5
; Path - Mill - On path (6/11)
M3 S255
G0 Z5
G0 X59.255Y34.355
G0 Z5
G1 F400 X59.255Y34.355Z-0
G1 F1000 X59.255Y34.355Z-0
G1 X59.169Y34.368Z-0
G1 X59.065Y34.376Z-0
G1 X58.734Y34.479Z-0
G1 X58.333Y34.607Z-0
G1 X57.994Y34.715Z-0
G1 X57.857Y34.777Z-0
G1 X57.857Y34.988Z-0
G1 X62.664Y49.79Z-0
G1 X69.146Y47.693Z-0
G1 X69.241Y47.639Z-0
G1 X69.336Y47.589Z-0
G1 X69.336Y47.548Z-0
G1 X69.336Y47.482Z-0
G1 X69.249Y47.25Z-0
G1 X69.121Y46.891Z-0
G1 X69.005Y46.518Z-0
G1 X68.935Y46.274Z-0
G1 X68.881Y46.159Z-0
G1 X68.827Y46.063Z-0
G1 X68.724Y45.96Z-0
G1 X63.681Y47.569Z-0
G1 X59.384Y34.376Z-0
G1 X59.33Y34.368Z-0
G1 X59.255Y34.355Z-0
G0 Z5
G0 X58.875Y35.095
G0 Z-0
G1 F400 X58.875Y35.095Z-0
G1 F1000 X58.875Y35.095Z-0
G1 X58.875Y35.393Z-0
G1 X58.664Y35.393Z-0
G1 X58.664Y35.095Z-0
G1 X58.875Y35.095Z-0
G0 Z5
; Path - Mill - On path (7/11)
M3 S255
G0 Z5
G0 X39.665Y20.021
G0 Z5
G1 F400 X39.665Y20.021Z-0
G1 F1000 X39.665Y20.021Z-0
G1 X39.578Y20.033Z-0
G1 X39.475Y20.041Z-0
G1 X39.144Y20.145Z-0
G1 X38.743Y20.273Z-0
G1 X38.403Y20.38Z-0
G1 X38.267Y20.443Z-0
G1 X38.267Y20.653Z-0
G1 X43.073Y35.455Z-0
G1 X49.555Y33.358Z-0
G1 X49.65Y33.305Z-0
G1 X49.746Y33.255Z-0
G1 X49.746Y33.214Z-0
G1 X49.746Y33.148Z-0
G1 X49.659Y32.916Z-0
G1 X49.531Y32.556Z-0
G1 X49.415Y32.184Z-0
G1 X49.344Y31.94Z-0
G1 X49.291Y31.824Z-0
G1 X49.237Y31.729Z-0
G1 X49.133Y31.626Z-0
G1 X44.091Y33.234Z-0
G1 X39.793Y20.041Z-0
G1 X39.739Y20.033Z-0
G1 X39.665Y20.021Z-0
G0 Z5
G0 X39.284Y20.761
G0 Z-0
G1 F400 X39.284Y20.761Z-0
G1 F1000 X39.284Y20.761Z-0
G1 X39.284Y21.059Z-0
G1 X39.073Y21.059Z-0
G1 X39.073Y20.761Z-0
G1 X39.284Y20.761Z-0
G0 Z5
; Path - Mill - On path (8/11)
M3 S255
G0 Z5
G0 X48.666Y20.041
G0 Z5
G1 F400 X48.666Y20.041Z-0
G1 F1000 X48.666Y20.041Z-0
G1 X48.579Y20.054Z-0
G1 X48.476Y20.062Z-0
G1 X48.145Y20.165Z-0
G1 X47.744Y20.294Z-0
G1 X47.404Y20.401Z-0
G1 X47.268Y20.463Z-0
G1 X47.268Y20.674Z-0
G1 X52.074Y35.476Z-0
G1 X58.556Y33.379Z-0
G1 X58.651Y33.325Z-0
G1 X58.747Y33.276Z-0
G1 X58.747Y33.234Z-0
G1 X58.747Y33.168Z-0
G1 X58.66Y32.937Z-0
G1 X58.532Y32.577Z-0
G1 X58.416Y32.205Z-0
G1 X58.345Y31.961Z-0
G1 X58.292Y31.845Z-0
G1 X58.238Y31.75Z-0
G1 X58.134Y31.646Z-0
G1 X53.092Y33.255Z-0
G1 X48.794Y20.062Z-0
G1 X48.74Y20.054Z-0
G1 X48.666Y20.041Z-0
G0 Z5
G0 X48.285Y20.782
G0 Z-0
G1 F400 X48.285Y20.782Z-0
G1 F1000 X48.285Y20.782Z-0
G1 X48.285Y21.079Z-0
G1 X48.074Y21.079Z-0
G1 X48.074Y20.782Z-0
G1 X48.285Y20.782Z-0
G0 Z5
; Path - Mill - On path (9/11)
M3 S255
G0 Z5
G0 X64.984Y54.165
G0 Z5
G1 F400 X64.984Y54.165Z-0
G1 F1000 X64.984Y54.165Z-0
G1 X63.942Y54.298Z-0
G1 X63.016Y54.695Z-0
G1 X62.46Y55.133Z-0
G1 X61.977Y55.687Z-0
G1 X61.638Y56.217Z-0
G1 X61.195Y56.283Z-0
G1 X60.57Y56.195Z-0
G1 X59.987Y55.933Z-0
G1 X59.446Y55.496Z-0
G1 X58.949Y54.885Z-0
G1 X58.705Y55.849Z-0
G1 X58.188Y56.663Z-0
G1 X57.551Y57.172Z-0
G1 X56.769Y57.321Z-0
G1 X56.231Y57.267Z-0
G1 X55.695Y57.104Z-0
G1 X54.631Y56.452Z-0
G1 X54.631Y56.452Z-0
G1 X54.585Y57.097Z-0
G1 X54.343Y57.654Z-0
G1 X53.906Y58.123Z-0
G1 X53.274Y58.504Z-0
G1 X52.364Y58.611Z-0
G1 X51.082Y58.463Z-0
G1 X49.65Y58.02Z-0
G1 X49.65Y58.02Z-0
G1 X51.255Y60.431Z-0
G1 X52.686Y62.153Z-0
G1 X53.337Y62.756Z-0
G1 X53.944Y63.186Z-0
G1 X54.508Y63.445Z-0
G1 X55.029Y63.531Z-0
G1 X55.16Y63.524Z-0
G1 X56.763Y62.619Z-0
G1 X59.586Y60.621Z-0
G1 X59.684Y61.29Z-0
G1 X59.913Y61.919Z-0
G1 X60.275Y62.508Z-0
G1 X60.769Y63.057Z-0
G1 X61.079Y65.382Z-0
G1 X61.412Y67.065Z-0
G1 X61.768Y68.104Z-0
G1 X61.954Y68.382Z-0
G1 X62.147Y68.5Z-0
G1 X62.201Y68.505Z-0
G1 X62.61Y68.26Z-0
G1 X63.083Y67.525Z-0
G1 X63.621Y66.299Z-0
G1 X64.223Y64.583Z-0
G1 X65.026Y64.625Z-0
G1 X65.622Y64.604Z-0
G1 X66.23Y66.311Z-0
G1 X66.77Y67.53Z-0
G1 X67.241Y68.261Z-0
G1 X67.644Y68.505Z-0
G1 X67.698Y68.5Z-0
G1 X67.891Y68.385Z-0
G1 X68.077Y68.116Z-0
G1 X68.432Y67.112Z-0
G1 X68.764Y65.489Z-0
G1 X69.071Y63.247Z-0
G1 X69.66Y62.653Z-0
G1 X70.089Y62.01Z-0
G1 X70.359Y61.319Z-0
G1 X70.469Y60.58Z-0
G1 X73.023Y62.364Z-0
G1 X74.494Y63.185Z-0
G1 X74.626Y63.191Z-0
G1 X75.146Y63.105Z-0
G1 X75.709Y62.847Z-0
G1 X76.315Y62.417Z-0
G1 X76.965Y61.814Z-0
G1 X78.396Y60.092Z-0
G1 X80Y57.681Z-0
G1 X80Y57.681Z-0
G1 X78.572Y58.124Z-0
G1 X77.291Y58.272Z-0
G1 X76.381Y58.165Z-0
G1 X75.747Y57.784Z-0
G1 X75.309Y57.315Z-0
G1 X75.068Y56.758Z-0
G1 X75.024Y56.113Z-0
G1 X75.024Y56.113Z-0
G1 X73.965Y56.765Z-0
G1 X73.435Y56.927Z-0
G1 X72.906Y56.982Z-0
G1 X72.103Y56.833Z-0
G1 X71.555Y56.412Z-0
G1 X71.14Y55.891Z-0
G1 X70.856Y55.269Z-0
G1 X70.705Y54.546Z-0
G1 X70.286Y55.232Z-0
G1 X69.771Y55.721Z-0
G1 X69.163Y56.015Z-0
G1 X68.459Y56.113Z-0
G1 X68.12Y56.093Z-0
G1 X67.839Y55.534Z-0
G1 X67.442Y55.065Z-0
G1 X66.929Y54.686Z-0
G1 X66.3Y54.397Z-0
G1 X64.984Y54.165Z-0
G0 Z5
G0 X64.856Y58.082
G0 Z-0
G1 F400 X64.856Y58.082Z-0
G1 F1000 X64.856Y58.082Z-0
G1 X65.759Y58.246Z-0
G1 X66.43Y58.547Z-0
G1 X66.871Y58.986Z-0
G1 X67.082Y59.562Z-0
G1 X65.884Y59.023Z-0
G1 X64.666Y58.843Z-0
G1 X63.699Y58.975Z-0
G1 X62.825Y59.372Z-0
G1 X62.95Y58.983Z-0
G1 X63.175Y58.663Z-0
G1 X63.5Y58.412Z-0
G1 X63.926Y58.231Z-0
G1 X64.856Y58.082Z-0
G0 Z5
G0 X62.064Y60.282
G0 Z-0
G1 F400 X62.064Y60.282Z-0
G1 F1000 X62.064Y60.282Z-0
G1 X62.418Y60.348Z-0
G1 X62.718Y60.547Z-0
G1 X62.926Y60.847Z-0
G1 X62.995Y61.217Z-0
G1 X62.926Y61.57Z-0
G1 X62.718Y61.87Z-0
G1 X62.418Y62.078Z-0
G1 X62.064Y62.147Z-0
G1 X61.706Y62.078Z-0
G1 X61.402Y61.87Z-0
G1 X61.198Y61.57Z-0
G1 X61.129Y61.217Z-0
G1 X61.198Y60.847Z-0
G1 X61.402Y60.547Z-0
G1 X61.706Y60.348Z-0
G1 X62.064Y60.282Z-0
G0 Z5
G0 X67.698Y60.282
G0 Z-0
G1 F400 X67.698Y60.282Z-0
G1 F1000 X67.698Y60.282Z-0
G1 X68.052Y60.348Z-0
G1 X68.352Y60.547Z-0
G1 X68.559Y60.847Z-0
G1 X68.629Y61.217Z-0
G1 X68.559Y61.57Z-0
G1 X68.352Y61.87Z-0
G1 X68.052Y62.078Z-0
G1 X67.698Y62.147Z-0
G1 X67.34Y62.078Z-0
G1 X67.036Y61.87Z-0
G1 X66.831Y61.57Z-0
G1 X66.763Y61.217Z-0
G1 X66.831Y60.847Z-0
G1 X67.036Y60.547Z-0
G1 X67.34Y60.348Z-0
G1 X67.698Y60.282Z-0
G0 Z5
; Path - Mill - On path (10/11)
M3 S255
G0 Z5
G0 X34.072Y52.048
G0 Z5
G1 F400 X34.072Y52.048Z-0
G1 F1000 X34.072Y52.048Z-0
G1 X32.595Y52.135Z-0
G1 X31.15Y52.397Z-0
G1 X29.737Y52.834Z-0
G1 X28.356Y53.446Z-0
G1 X26.901Y54.355Z-0
G1 X25.861Y55.393Z-0
G1 X25.498Y55.959Z-0
G1 X25.238Y56.558Z-0
G1 X25.082Y57.188Z-0
G1 X25.03Y57.85Z-0
G1 X25.133Y58.632Z-0
G1 X25.68Y60.315Z-0
G1 X26.469Y61.767Z-0
G1 X25.923Y62.293Z-0
G1 X25.533Y62.898Z-0
G1 X25.298Y63.583Z-0
G1 X25.22Y64.347Z-0
G1 X25.278Y65.001Z-0
G1 X25.453Y65.606Z-0
G1 X25.744Y66.161Z-0
G1 X26.151Y66.668Z-0
G1 X26.643Y67.089Z-0
G1 X27.188Y67.39Z-0
G1 X27.787Y67.571Z-0
G1 X28.438Y67.631Z-0
G1 X29.533Y67.443Z-0
G1 X30.482Y66.879Z-0
G1 X31.195Y66.031Z-0
G1 X31.574Y64.984Z-0
G1 X32.792Y65.174Z-0
G1 X34.072Y65.237Z-0
G1 X35.872Y65.071Z-0
G1 X36.281Y66.071Z-0
G1 X36.997Y66.87Z-0
G1 X37.929Y67.394Z-0
G1 X38.987Y67.569Z-0
G1 X39.627Y67.51Z-0
G1 X40.218Y67.33Z-0
G1 X40.759Y67.032Z-0
G1 X41.249Y66.614Z-0
G1 X41.658Y66.113Z-0
G1 X41.95Y65.561Z-0
G1 X42.126Y64.959Z-0
G1 X42.184Y64.306Z-0
G1 X42.131Y63.691Z-0
G1 X41.972Y63.116Z-0
G1 X41.707Y62.581Z-0
G1 X41.336Y62.085Z-0
G1 X42.087Y61.105Z-0
G1 X42.624Y60.11Z-0
G1 X42.945Y59.103Z-0
G1 X43.053Y58.082Z-0
G1 X43.002Y57.39Z-0
G1 X42.852Y56.732Z-0
G1 X42.6Y56.109Z-0
G1 X42.248Y55.52Z-0
G1 X41.243Y54.445Z-0
G1 X39.835Y53.508Z-0
G1 X38.474Y52.869Z-0
G1 X37.06Y52.413Z-0
G1 X35.593Y52.139Z-0
G1 X34.072Y52.048Z-0
G0 Z5
G0 X34.134Y55.117
G0 Z-0
G1 F400 X34.134Y55.117Z-0
G1 F1000 X34.134Y55.117Z-0
G1 X35.362Y55.196Z-0
G1 X36.46Y55.434Z-0
G1 X37.428Y55.831Z-0
G1 X38.267Y56.386Z-0
G1 X38.938Y57.064Z-0
G1 X39.346Y57.743Z-0
G1 X38.395Y58.123Z-0
G1 X38.07Y57.615Z-0
G1 X37.526Y57.106Z-0
G1 X36.837Y56.681Z-0
G1 X36.041Y56.377Z-0
G1 X35.141Y56.195Z-0
G1 X34.134Y56.134Z-0
G1 X33.091Y56.192Z-0
G1 X32.14Y56.367Z-0
G1 X31.281Y56.657Z-0
G1 X30.515Y57.064Z-0
G1 X29.88Y57.558Z-0
G1 X29.456Y58.061Z-0
G1 X29.415Y58.144Z-0
G1 X28.587Y57.552Z-0
G1 X29.085Y56.922Z-0
G1 X29.857Y56.303Z-0
G1 X30.776Y55.784Z-0
G1 X31.795Y55.413Z-0
G1 X32.915Y55.191Z-0
G1 X34.134Y55.117Z-0
G0 Z5
G0 X28.335Y63.483
G0 Z-0
G1 F400 X28.335Y63.483Z-0
G1 F1000 X28.335Y63.483Z-0
G1 X28.759Y63.562Z-0
G1 X29.104Y63.797Z-0
G1 X29.337Y64.153Z-0
G1 X29.415Y64.583Z-0
G1 X29.335Y64.995Z-0
G1 X29.096Y65.344Z-0
G1 X28.747Y65.583Z-0
G1 X28.335Y65.663Z-0
G1 X27.905Y65.585Z-0
G1 X27.549Y65.352Z-0
G1 X27.31Y65.007Z-0
G1 X27.231Y64.583Z-0
G1 X27.31Y64.153Z-0
G1 X27.549Y63.797Z-0
G1 X27.905Y63.562Z-0
G1 X28.335Y63.483Z-0
G0 Z5
G0 X38.987Y63.289
G0 Z-0
G1 F400 X38.987Y63.289Z-0
G1 F1000 X38.987Y63.289Z-0
G1 X39.416Y63.368Z-0
G1 X39.768Y63.607Z-0
G1 X40.007Y63.963Z-0
G1 X40.087Y64.393Z-0
G1 X40.007Y64.817Z-0
G1 X39.768Y65.162Z-0
G1 X39.416Y65.395Z-0
G1 X38.987Y65.472Z-0
G1 X38.572Y65.393Z-0
G1 X38.221Y65.154Z-0
G1 X37.986Y64.804Z-0
G1 X37.907Y64.393Z-0
G1 X37.983Y63.963Z-0
G1 X38.213Y63.607Z-0
G1 X38.559Y63.368Z-0
G1 X38.987Y63.289Z-0
G0 Z5
; Ellipse - Mill - On path (11/11)
M3 S255
G0 Z5
G0 X69Y27
G0 Z5
G1 F400 X69Y27Z-0
G1 F1000 X69Y27Z-0
G1 X67.992Y27.091Z-0
G1 X67.054Y27.354Z-0
G1 X66.204Y27.769Z-0
G1 X65.464Y28.318Z-0
G1 X64.854Y28.984Z-0
G1 X64.393Y29.748Z-0
G1 X64.102Y30.593Z-0
G1 X64Y31.5Z-0
G1 X64.102Y32.407Z-0
G1 X64.393Y33.252Z-0
G1 X64.854Y34.016Z-0
G1 X65.464Y34.682Z-0
G1 X66.204Y35.231Z-0
G1 X67.054Y35.646Z-0
G1 X67.992Y35.909Z-0
G1 X69Y36Z-0
G1 X70.008Y35.909Z-0
G1 X70.946Y35.646Z-0
G1 X71.796Y35.231Z-0
G1 X72.536Y34.682Z-0
G1 X73.146Y34.016Z-0
G1 X73.607Y33.252Z-0
G1 X73.898Y32.407Z-0
G1 X74Y31.5Z-0
G1 X73.898Y30.593Z-0
G1 X73.607Y29.748Z-0
G1 X73.146Y28.984Z-0
G1 X72.536Y28.318Z-0
G1 X71.796Y27.769Z-0
G1 X70.946Y27.354Z-0
G1 X70.008Y27.091Z-0
G1 X69Y27Z-0
G0 Z5

; Turning off spindle
M5
