;LightBurn 1.6.04
;Custom GCode device profile, absolute coords
;Bounds: X8.71 Y35.21 to X73.94 Y129.14
G00 G17 G40 G21 G54
G90
M3
G1 Z10 F1000
;Scan @ 1500 mm/min, 80% power

M8
G0 Z3.5 F1000
G0 X9.034 Y35.693 Z3.5 
G1 Z0 F1000
;Layer Wash
G91
G1 X0.582 Z0 S800 F1600
G1 X2.415 Z0 S0 F1600
G1 X0.4 Z0 S800 F1600
G1 X0.169 Z0 S0 F1600
G1 X0.612 Z0 S800 F1600
G1 X1.587 Z0 S0 F1600
G1 X0.882 Z0 S800 F1600
G1 X0.524 Z0 S0 F1600
G1 X1.207 Z0 S800 F1600
G1 X0.857 Z0 S0 F1600
G1 X0.113 Z0 S800 F1600
G1 X0.619 Z0 S0 F1600
G1 X1.567 Z0 S800 F1600
G1 X5.242 Z0 S0 F1600
G1 X0.886 Z0 S800 F1600
G1 X3.045 Z0 S0 F1600
G1 X4.253 Z0 S800 F1600
G1 X8.316 Z0 S0 F1600
G1 X31.157 Z0 S800 F1600
G1 X0.132 Y0.9 Z0 S0 F1600
G1 X-30.812 Z0 S800 F1600
G1 X-0.081 Z0 S0 F1600
G1 X-0.998 Z0 S800 F1600
G1 X-0.076 Z0 S0 F1600
G1 X-0.162 Z0 S800 F1600
G1 X-4.349 Z0 S0 F1600
G1 X-0.085 Z0 S800 F1600
G1 X-1.846 Z0 S0 F1600
G1 X-6.29 Z0 S800 F1600
G1 X-1.024 Z0 S0 F1600
G1 X-1.822 Z0 S800 F1600
G1 X-1.529 Z0 S0 F1600
G1 X-4.002 Z0 S800 F1600
G1 X-1.903 Z0 S0 F1600
G1 X-0.34 Z0 S800 F1600
G1 X-0.095 Z0 S0 F1600
G1 X-1.695 Z0 S800 F1600
G1 X-0.43 Z0 S0 F1600
G1 X-1.141 Z0 S800 F1600
G1 X-1.609 Z0 S0 F1600
G1 X-1.084 Z0 S800 F1600
G1 X-3.001 Y0.9 Z0 S0 F1600
G1 X0.823 Z0 S800 F1600
G1 X1.354 Z0 S0 F1600
G1 X0.455 Z0 S800 F1600
G1 X0.217 Z0 S0 F1600
G1 X0.197 Z0 S800 F1600
G1 X0.18 Z0 S0 F1600
G1 X1.212 Z0 S800 F1600
G1 X1.4 Z0 S0 F1600
G1 X1.09 Z0 S800 F1600
G1 X0.629 Z0 S0 F1600
G1 X1.122 Z0 S800 F1600
G1 X0.238 Z0 S0 F1600
G1 X0.79 Z0 S800 F1600
G1 X0.461 Z0 S0 F1600
G1 X0.634 Z0 S800 F1600
G1 X0.544 Z0 S0 F1600
G1 X1.125 Z0 S800 F1600
G1 X1.235 Z0 S0 F1600
G1 X8.551 Z0 S800 F1600
G1 X0.272 Z0 S0 F1600
G1 X41.852 Z0 S800 F1600
G1 X-0.004 Y0.9 Z0 S0 F1600
G1 X-41.771 Z0 S800 F1600
G1 X-2.003 Z0 S0 F1600
G1 X-3.147 Z0 S800 F1600
G1 X-2.648 Z0 S0 F1600
G1 X-0.14 Z0 S800 F1600
G1 X-2.233 Z0 S0 F1600
G1 X-0.776 Z0 S800 F1600
G1 X-0.77 Z0 S0 F1600
G1 X-0.587 Z0 S800 F1600
G1 X-1.647 Z0 S0 F1600
G1 X-0.513 Z0 S800 F1600
G1 X-0.92 Z0 S0 F1600
G1 X-1.054 Z0 S800 F1600
G1 X-0.748 Z0 S0 F1600
G1 X-3.104 Z0 S800 F1600
G1 X-1.445 Z0 S0 F1600
G1 X-1.041 Z0 S800 F1600
G1 X-0.003 Y0.9 Z0 S0 F1600
G1 X0.543 Z0 S800 F1600
G1 X0.101 Z0 S0 F1600
G1 X0.35 Z0 S800 F1600
G1 X1.753 Z0 S0 F1600
G1 X0.949 Z0 S800 F1600
G1 X0.535 Z0 S0 F1600
G1 X1.728 Z0 S800 F1600
G1 X1.01 Z0 S0 F1600
G1 X0.828 Z0 S800 F1600
G1 X0.83 Z0 S0 F1600
G1 X1.223 Z0 S800 F1600
G1 X0.979 Z0 S0 F1600
G1 X0.338 Z0 S800 F1600
G1 X0.81 Z0 S0 F1600
G1 X6.931 Z0 S800 F1600
G1 X1.828 Z0 S0 F1600
G1 X43.733 Z0 S800 F1600
G1 X-0.53 Y0.9 Z0 S0 F1600
G1 X-0.281 Z0 S800 F1600
G1 X-0.651 Z0 S0 F1600
G1 X-0.112 Z0 S800 F1600
G1 X-0.463 Z0 S0 F1600
G1 X-1.742 Z0 S800 F1600
G1 X-0.524 Z0 S0 F1600
G1 X-22.317 Z0 S800 F1600
G1 X-0.661 Z0 S0 F1600
G1 X-18.437 Z0 S800 F1600
G1 X-0.947 Z0 S0 F1600
G1 X-5.494 Z0 S800 F1600
G1 X-0.976 Z0 S0 F1600
G1 X-0.449 Z0 S800 F1600
G1 X-0.616 Z0 S0 F1600
G1 X-0.187 Z0 S800 F1600
G1 X-1.868 Z0 S0 F1600
G1 X-1 Z0 S800 F1600
G1 X-1.066 Z0 S0 F1600
G1 X-1.451 Z0 S800 F1600
G1 X-0.918 Z0 S0 F1600
G1 X-0.736 Z0 S800 F1600
G1 X-3.053 Y0.9 Z0 S0 F1600
G1 X0.752 Z0 S800 F1600
G1 X2.576 Z0 S0 F1600
G1 X0.822 Z0 S800 F1600
G1 X1.157 Z0 S0 F1600
G1 X1.103 Z0 S800 F1600
G1 X0.938 Z0 S0 F1600
G1 X1.341 Z0 S800 F1600
G1 X0.85 Z0 S0 F1600
G1 X0.879 Z0 S800 F1600
G1 X2.056 Z0 S0 F1600
G1 X0.372 Z0 S800 F1600
G1 X1.251 Z0 S0 F1600
G1 X0.675 Z0 S800 F1600
G1 X1.644 Z0 S0 F1600
G1 X4.021 Z0 S800 F1600
G1 X6.225 Z0 S0 F1600
G1 X3.263 Z0 S800 F1600
G1 X0.578 Z0 S0 F1600
G1 X28.414 Z0 S800 F1600
G1 X0.529 Z0 S0 F1600
G1 X0.442 Z0 S800 F1600
G1 X0.584 Z0 S0 F1600
G1 X0.429 Z0 S800 F1600
G1 X0.818 Z0 S0 F1600
G1 X0.375 Z0 S800 F1600
G1 X0.285 Z0 S0 F1600
G1 X0.242 Z0 S800 F1600
G1 X0.325 Z0 S0 F1600
G1 X0.216 Z0 S800 F1600
G1 X0.464 Z0 S0 F1600
G1 X0.923 Z0 S800 F1600
G1 X-0.266 Y0.9 Z0 S0 F1600
G1 X-35.798 Z0 S800 F1600
G1 X-0.297 Z0 S0 F1600
G1 X-2.669 Z0 S800 F1600
G1 X-0.344 Z0 S0 F1600
G1 X-3.288 Z0 S800 F1600
G1 X-2.686 Z0 S0 F1600
G1 X-2.68 Z0 S800 F1600
G1 X-1.713 Z0 S0 F1600
G1 X-0.762 Z0 S800 F1600
G1 X-0.272 Z0 S0 F1600
G1 X-0.84 Z0 S800 F1600
G1 X-0.852 Z0 S0 F1600
G1 X-0.497 Z0 S800 F1600
G1 X-0.251 Z0 S0 F1600
G1 X-0.218 Z0 S800 F1600
G1 X-0.261 Z0 S0 F1600
G1 X-0.807 Z0 S800 F1600
G1 X-0.869 Z0 S0 F1600
G1 X-3.26 Z0 S800 F1600
G1 X-1.379 Z0 S0 F1600
G1 X-0.969 Z0 S800 F1600
G1 X0.158 Y0.9 Z0 S0 F1600
G1 X1.194 Z0 S800 F1600
G1 X1.615 Z0 S0 F1600
G1 X0.739 Z0 S800 F1600
G1 X1.1 Z0 S0 F1600
G1 X1.258 Z0 S800 F1600
G1 X0.849 Z0 S0 F1600
G1 X0.718 Z0 S800 F1600
G1 X0.908 Z0 S0 F1600
G1 X0.347 Z0 S800 F1600
G1 X1.462 Z0 S0 F1600
G1 X5.016 Z0 S800 F1600
G1 X2.703 Z0 S0 F1600
G1 X2.575 Z0 S800 F1600
G1 X1.004 Z0 S0 F1600
G1 X0.439 Z0 S800 F1600
G1 X1.571 Z0 S0 F1600
G1 X0.783 Z0 S800 F1600
G1 X1.351 Z0 S0 F1600
G1 X11.399 Z0 S800 F1600
G1 X0.603 Z0 S0 F1600
G1 X3.849 Z0 S800 F1600
G1 X0.444 Z0 S0 F1600
G1 X18.803 Z0 S800 F1600
G1 X0.054 Y0.9 Z0 S0 F1600
G1 X-23.47 Z0 S800 F1600
G1 X-1.947 Z0 S0 F1600
G1 X-9.487 Z0 S800 F1600
G1 X-0.28 Z0 S0 F1600
G1 X-1.677 Z0 S800 F1600
G1 X-8.412 Z0 S0 F1600
G1 X-2.085 Z0 S800 F1600
G1 X-0.507 Z0 S0 F1600
G1 X-0.434 Z0 S800 F1600
G1 X-3.124 Z0 S0 F1600
G1 X-0.299 Z0 S800 F1600
G1 X-1.144 Z0 S0 F1600
G1 X-0.499 Z0 S800 F1600
G1 X-1.285 Z0 S0 F1600
G1 X-0.955 Z0 S800 F1600
G1 X-0.347 Z0 S0 F1600
G1 X-0.284 Z0 S800 F1600
G1 X-0.732 Z0 S0 F1600
G1 X-0.286 Z0 S800 F1600
G1 X-0.681 Z0 S0 F1600
G1 X-0.213 Z0 S800 F1600
G1 X-1.092 Z0 S0 F1600
G1 X-1.181 Z0 S800 F1600
G1 X-0.975 Y0.9 Z0 S0 F1600
G1 X0.29 Z0 S800 F1600
G1 X1.371 Z0 S0 F1600
G1 X0.814 Z0 S800 F1600
G1 X1.119 Z0 S0 F1600
G1 X0.54 Z0 S800 F1600
G1 X2.274 Z0 S0 F1600
G1 X0.919 Z0 S800 F1600
G1 X0.658 Z0 S0 F1600
G1 X0.343 Z0 S800 F1600
G1 X1.594 Z0 S0 F1600
G1 X0.645 Z0 S800 F1600
G1 X0.96 Z0 S0 F1600
G1 X3.786 Z0 S800 F1600
G1 X2.685 Z0 S0 F1600
G1 X15.519 Z0 S800 F1600
G1 X1.74 Z0 S0 F1600
G1 X26.163 Z0 S800 F1600
G1 X0.013 Y0.9 Z0 S0 F1600
G1 X-29.122 Z0 S800 F1600
G1 X-1.207 Z0 S0 F1600
G1 X-3.611 Z0 S800 F1600
G1 X-0.852 Z0 S0 F1600
G1 X-1.467 Z0 S800 F1600
G1 X-0.784 Z0 S0 F1600
G1 X-1.176 Z0 S800 F1600
G1 X-0.236 Z0 S0 F1600
G1 X-0.462 Z0 S800 F1600
G1 X-2.6 Z0 S0 F1600
G1 X-7.329 Z0 S800 F1600
G1 X-1.927 Z0 S0 F1600
G1 X-1.345 Z0 S800 F1600
G1 X-0.5 Z0 S0 F1600
G1 X-0.417 Z0 S800 F1600
G1 X-0.613 Z0 S0 F1600
G1 X-0.687 Z0 S800 F1600
G1 X-0.527 Z0 S0 F1600
G1 X-0.585 Z0 S800 F1600
G1 X-1.336 Z0 S0 F1600
G1 X-0.747 Z0 S800 F1600
G1 X-3.253 Z0 S0 F1600
G1 X-0.458 Z0 S800 F1600
G1 X-2.998 Y0.9 Z0 S0 F1600
G1 X0.32 Z0 S800 F1600
G1 X2.861 Z0 S0 F1600
G1 X0.651 Z0 S800 F1600
G1 X0.922 Z0 S0 F1600
G1 X1.071 Z0 S800 F1600
G1 X1.097 Z0 S0 F1600
G1 X0.919 Z0 S800 F1600
G1 X1.891 Z0 S0 F1600
G1 X0.32 Z0 S800 F1600
G1 X0.503 Z0 S0 F1600
G1 X0.432 Z0 S800 F1600
G1 X1.028 Z0 S0 F1600
G1 X1.939 Z0 S800 F1600
G1 X0.913 Z0 S0 F1600
G1 X1.572 Z0 S800 F1600
G1 X2.283 Z0 S0 F1600
G1 X3.624 Z0 S800 F1600
G1 X1.124 Z0 S0 F1600
G1 X0.171 Z0 S800 F1600
G1 X0.152 Z0 S0 F1600
G1 X0.829 Z0 S800 F1600
G1 X0.209 Z0 S0 F1600
G1 X3.92 Z0 S800 F1600
G1 X0.95 Z0 S0 F1600
G1 X1.37 Z0 S800 F1600
G1 X1.369 Z0 S0 F1600
G1 X0.2 Z0 S800 F1600
G1 X0.634 Z0 S0 F1600
G1 X0.782 Z0 S800 F1600
G1 X0.14 Z0 S0 F1600
G1 X4.873 Z0 S800 F1600
G1 X0.208 Z0 S0 F1600
G1 X24.968 Z0 S800 F1600
G1 X0.003 Y0.9 Z0 S0 F1600
G1 X-18.869 Z0 S800 F1600
G1 X-0.147 Z0 S0 F1600
G1 X-0.228 Z0 S800 F1600
G1 X-3.767 Z0 S0 F1600
G1 X-2.51 Z0 S800 F1600
G1 X-0.609 Z0 S0 F1600
G1 X-2.038 Z0 S800 F1600
G1 X-2.046 Z0 S0 F1600
G1 X-3.644 Z0 S800 F1600
G1 X-2.401 Z0 S0 F1600
G1 X-0.777 Z0 S800 F1600
G1 X-4.897 Z0 S0 F1600
G1 X-4.903 Z0 S800 F1600
G1 X-1.074 Z0 S0 F1600
G1 X-0.342 Z0 S800 F1600
G1 X-0.035 Z0 S0 F1600
G1 X-0.207 Z0 S800 F1600
G1 X-1.499 Z0 S0 F1600
G1 X-1.512 Z0 S800 F1600
G1 X-6.62 Z0 S0 F1600
G1 X-0.451 Z0 S800 F1600
G1 X-1.529 Z0 S0 F1600
G1 X-0.697 Z0 S800 F1600
G1 X-2.751 Z0 S0 F1600
G1 X-0.935 Z0 S800 F1600
G1 X0.046 Y0.9 Z0 S0 F1600
G1 X1.069 Z0 S800 F1600
G1 X2.826 Z0 S0 F1600
G1 X0.69 Z0 S800 F1600
G1 X2.981 Z0 S0 F1600
G1 X1.069 Z0 S800 F1600
G1 X1.984 Z0 S0 F1600
G1 X1.151 Z0 S800 F1600
G1 X1.249 Z0 S0 F1600
G1 X1.509 Z0 S800 F1600
G1 X2.031 Z0 S0 F1600
G1 X2.265 Z0 S800 F1600
G1 X0.722 Z0 S0 F1600
G1 X0.803 Z0 S800 F1600
G1 X2.801 Z0 S0 F1600
G1 X4.343 Z0 S800 F1600
G1 X0.847 Z0 S0 F1600
G1 X3.173 Z0 S800 F1600
G1 X2.584 Z0 S0 F1600
G1 X0.467 Z0 S800 F1600
G1 X0.174 Z0 S0 F1600
G1 X0.303 Z0 S800 F1600
G1 X0.994 Z0 S0 F1600
G1 X1.373 Z0 S800 F1600
G1 X0.79 Z0 S0 F1600
G1 X0.77 Z0 S800 F1600
G1 X0.673 Z0 S0 F1600
G1 X0.656 Z0 S800 F1600
G1 X0.259 Z0 S0 F1600
G1 X1.035 Z0 S800 F1600
G1 X1.645 Z0 S0 F1600
G1 X0.76 Z0 S800 F1600
G1 X1.617 Z0 S0 F1600
G1 X18.831 Z0 S800 F1600
G1 Y0.9 Z0 S0 F1600
G1 X-11.923 Z0 S800 F1600
G1 X-1.495 Z0 S0 F1600
G1 X-5.851 Z0 S800 F1600
G1 X-3.572 Z0 S0 F1600
G1 X-0.485 Z0 S800 F1600
G1 X-0.731 Z0 S0 F1600
G1 X-0.279 Z0 S800 F1600
G1 X-0.81 Z0 S0 F1600
G1 X-1.621 Z0 S800 F1600
G1 X-0.853 Z0 S0 F1600
G1 X-3.091 Z0 S800 F1600
G1 X-1.559 Z0 S0 F1600
G1 X-0.841 Z0 S800 F1600
G1 X-1.753 Z0 S0 F1600
G1 X-1.869 Z0 S800 F1600
G1 X-0.607 Z0 S0 F1600
G1 X-4.468 Z0 S800 F1600
G1 X-0.339 Z0 S0 F1600
G1 X-3.948 Z0 S800 F1600
G1 X-6.243 Z0 S0 F1600
G1 X-1.053 Z0 S800 F1600
G1 X-2.17 Z0 S0 F1600
G1 X-0.745 Z0 S800 F1600
G1 X-3.352 Z0 S0 F1600
G1 X-0.844 Z0 S800 F1600
G1 X-2.709 Z0 S0 F1600
G1 X-0.901 Z0 S800 F1600
G1 X0.712 Y0.9 Z0 S0 F1600
G1 X0.32 Z0 S800 F1600
G1 X2.804 Z0 S0 F1600
G1 X0.772 Z0 S800 F1600
G1 X1.06 Z0 S0 F1600
G1 X0.282 Z0 S800 F1600
G1 X4.046 Z0 S0 F1600
G1 X0.316 Z0 S800 F1600
G1 X0.832 Z0 S0 F1600
G1 X0.499 Z0 S800 F1600
G1 X0.152 Z0 S0 F1600
G1 X0.293 Z0 S800 F1600
G1 X0.237 Z0 S0 F1600
G1 X0.611 Z0 S800 F1600
G1 X0.607 Z0 S0 F1600
G1 X1.233 Z0 S800 F1600
G1 X1.157 Z0 S0 F1600
G1 X1.734 Z0 S800 F1600
G1 X1.237 Z0 S0 F1600
G1 X1.867 Z0 S800 F1600
G1 X1.103 Z0 S0 F1600
G1 X4.59 Z0 S800 F1600
G1 X0.601 Z0 S0 F1600
G1 X0.189 Z0 S800 F1600
G1 X2.021 Z0 S0 F1600
G1 X0.14 Z0 S800 F1600
G1 X0.277 Z0 S0 F1600
G1 X0.09 Z0 S800 F1600
G1 X0.732 Z0 S0 F1600
G1 X5.292 Z0 S800 F1600
G1 X1.067 Z0 S0 F1600
G1 X0.802 Z0 S800 F1600
G1 X0.17 Z0 S0 F1600
G1 X1.104 Z0 S800 F1600
G1 X1.136 Z0 S0 F1600
G1 X0.119 Z0 S800 F1600
G1 X0.197 Z0 S0 F1600
G1 X0.165 Z0 S800 F1600
G1 X0.242 Z0 S0 F1600
G1 X7.675 Z0 S800 F1600
G1 X1.969 Z0 S0 F1600
G1 X12.055 Z0 S800 F1600
G1 X0.178 Z0 S0 F1600
G1 X1.428 Z0 S800 F1600
G1 Y0.9 Z0 S0 F1600
G1 X-15.784 Z0 S800 F1600
G1 X-1.681 Z0 S0 F1600
G1 X-4.302 Z0 S800 F1600
G1 X-3.264 Z0 S0 F1600
G1 X-0.48 Z0 S800 F1600
G1 X-0.421 Z0 S0 F1600
G1 X-0.398 Z0 S800 F1600
G1 X-0.323 Z0 S0 F1600
G1 X-1.037 Z0 S800 F1600
G1 X-1.221 Z0 S0 F1600
G1 X-5.338 Z0 S800 F1600
G1 X-1.556 Z0 S0 F1600
G1 X-0.859 Z0 S800 F1600
G1 X-1.481 Z0 S0 F1600
G1 X-4.147 Z0 S800 F1600
G1 X-0.383 Z0 S0 F1600
G1 X-0.365 Z0 S800 F1600
G1 X-1.87 Z0 S0 F1600
G1 X-3.132 Z0 S800 F1600
G1 X-0.895 Z0 S0 F1600
G1 X-1.034 Z0 S800 F1600
G1 X-0.557 Z0 S0 F1600
G1 X-1.341 Z0 S800 F1600
G1 X-1.446 Z0 S0 F1600
G1 X-0.468 Z0 S800 F1600
G1 X-3.557 Z0 S0 F1600
G1 X-1 Z0 S800 F1600
G1 X-5.193 Z0 S0 F1600
G1 X-0.5 Z0 S800 F1600
G1 X-0.463 Z0 S0 F1600
G1 X-0.033 Z0 S800 F1600
G1 X0.692 Y0.9 Z0 S0 F1600
G1 X0.647 Z0 S800 F1600
G1 X3.139 Z0 S0 F1600
G1 X0.116 Z0 S800 F1600
G1 X1.805 Z0 S0 F1600
G1 X0.157 Z0 S800 F1600
G1 X6.223 Z0 S0 F1600
G1 X2.093 Z0 S800 F1600
G1 X0.702 Z0 S0 F1600
G1 X0.117 Z0 S800 F1600
G1 X1.065 Z0 S0 F1600
G1 X4.18 Z0 S800 F1600
G1 X1.556 Z0 S0 F1600
G1 X2.364 Z0 S800 F1600
G1 X3.165 Z0 S0 F1600
G1 X0.587 Z0 S800 F1600
G1 X2.955 Z0 S0 F1600
G1 X3.133 Z0 S800 F1600
G1 X1.398 Z0 S0 F1600
G1 X3.157 Z0 S800 F1600
G1 X1.291 Z0 S0 F1600
G1 X5.434 Z0 S800 F1600
G1 X1.084 Z0 S0 F1600
G1 X17.468 Z0 S800 F1600
G1 Y0.9 Z0 S0 F1600
G1 X-18.665 Z0 S800 F1600
G1 X-1.175 Z0 S0 F1600
G1 X-5.319 Z0 S800 F1600
G1 X-0.941 Z0 S0 F1600
G1 X-3.338 Z0 S800 F1600
G1 X-1.344 Z0 S0 F1600
G1 X-4.446 Z0 S800 F1600
G1 X-1.722 Z0 S0 F1600
G1 X-1.78 Z0 S800 F1600
G1 X-3.681 Z0 S0 F1600
G1 X-2.895 Z0 S800 F1600
G1 X-1.452 Z0 S0 F1600
G1 X-0.75 Z0 S800 F1600
G1 X-1.12 Z0 S0 F1600
G1 X-2.495 Z0 S800 F1600
G1 X-5.565 Z0 S0 F1600
G1 X-1.362 Z0 S800 F1600
G1 X-1.481 Z0 S0 F1600
G1 X-0.545 Z0 S800 F1600
G1 X10.49 Y0.9 Z0 S0 F1600
G1 X1.258 Z0 S800 F1600
G1 X0.949 Z0 S0 F1600
G1 X0.864 Z0 S800 F1600
G1 X0.723 Z0 S0 F1600
G1 X0.936 Z0 S800 F1600
G1 X7.431 Z0 S0 F1600
G1 X0.671 Z0 S800 F1600
G1 X0.765 Z0 S0 F1600
G1 X0.383 Z0 S800 F1600
G1 X5.307 Z0 S0 F1600
G1 X3.637 Z0 S800 F1600
G1 X0.701 Z0 S0 F1600
G1 X3.618 Z0 S800 F1600
G1 X7.209 Z0 S0 F1600
G1 X15.131 Z0 S800 F1600
G1 X-0.004 Y0.9 Z0 S0 F1600
G1 X-20.674 Z0 S800 F1600
G1 X-6.671 Z0 S0 F1600
G1 X-0.955 Z0 S800 F1600
G1 X-2.005 Z0 S0 F1600
G1 X-0.526 Z0 S800 F1600
G1 X-1.618 Z0 S0 F1600
G1 X-4.114 Z0 S800 F1600
G1 X-0.592 Z0 S0 F1600
G1 X-3.561 Z0 S800 F1600
G1 X-16.5 Z0 S0 F1600
G1 X-0.378 Z0 S800 F1600
G1 X-1.382 Z0 S0 F1600
G1 X-0.478 Z0 S800 F1600
G1 X-0.108 Z0 S0 F1600
G1 X-0.378 Z0 S800 F1600
G1 X0.254 Y0.9 Z0 S0 F1600
G1 X0.947 Z0 S800 F1600
G1 X1.259 Z0 S0 F1600
G1 X1.238 Z0 S800 F1600
G1 X1.522 Z0 S0 F1600
G1 X0.734 Z0 S800 F1600
G1 X2.813 Z0 S0 F1600
G1 X0.614 Z0 S800 F1600
G1 X5.791 Z0 S0 F1600
G1 X2.591 Z0 S800 F1600
G1 X0.315 Z0 S0 F1600
G1 X1.79 Z0 S800 F1600
G1 X1.499 Z0 S0 F1600
G1 X0.649 Z0 S800 F1600
G1 X1.009 Z0 S0 F1600
G1 X3.711 Z0 S800 F1600
G1 X1.07 Z0 S0 F1600
G1 X9.367 Z0 S800 F1600
G1 X0.957 Z0 S0 F1600
G1 X21.805 Z0 S800 F1600
G1 X-0.009 Y0.9 Z0 S0 F1600
G1 X-2.508 Z0 S800 F1600
G1 X-6.812 Z0 S0 F1600
G1 X-13.148 Z0 S800 F1600
G1 X-1.205 Z0 S0 F1600
G1 X-8.764 Z0 S800 F1600
G1 X-5.455 Z0 S0 F1600
G1 X-2.719 Z0 S800 F1600
G1 X-3.019 Z0 S0 F1600
G1 X-0.837 Z0 S800 F1600
G1 X-2.837 Z0 S0 F1600
G1 X-1.776 Z0 S800 F1600
G1 X-0.525 Z0 S0 F1600
G1 X-1.212 Z0 S800 F1600
G1 X-5.376 Z0 S0 F1600
G1 X-0.631 Z0 S800 F1600
G1 X-1.706 Z0 S0 F1600
G1 X-0.351 Z0 S800 F1600
G1 X-1.017 Y0.9 Z0 S0 F1600
G1 X1.121 Z0 S800 F1600
G1 X1.694 Z0 S0 F1600
G1 X0.837 Z0 S800 F1600
G1 X0.199 Z0 S0 F1600
G1 X0.446 Z0 S800 F1600
G1 X4.888 Z0 S0 F1600
G1 X1.498 Z0 S800 F1600
G1 X0.481 Z0 S0 F1600
G1 X1.867 Z0 S800 F1600
G1 X0.981 Z0 S0 F1600
G1 X0.582 Z0 S800 F1600
G1 X6.841 Z0 S0 F1600
G1 X0.582 Z0 S800 F1600
G1 X0.786 Z0 S0 F1600
G1 X1.557 Z0 S800 F1600
G1 X0.761 Z0 S0 F1600
G1 X3.567 Z0 S800 F1600
G1 X16.038 Z0 S0 F1600
G1 X0.713 Z0 S800 F1600
G1 X4.371 Z0 S0 F1600
G1 X1.317 Z0 S800 F1600
G1 X0.338 Z0 S0 F1600
G1 X8.419 Z0 S800 F1600
G1 X-0.027 Y0.9 Z0 S0 F1600
G1 X-14.674 Z0 S800 F1600
G1 X-0.693 Z0 S0 F1600
G1 X-6.924 Z0 S800 F1600
G1 X-1.608 Z0 S0 F1600
G1 X-7.188 Z0 S800 F1600
G1 X-1.066 Z0 S0 F1600
G1 X-4.377 Z0 S800 F1600
G1 X-1.482 Z0 S0 F1600
G1 X-3.531 Z0 S800 F1600
G1 X-0.274 Z0 S0 F1600
G1 X-0.689 Z0 S800 F1600
G1 X-0.821 Z0 S0 F1600
G1 X-2.065 Z0 S800 F1600
G1 X-1.615 Z0 S0 F1600
G1 X-1.279 Z0 S800 F1600
G1 X-0.26 Z0 S0 F1600
G1 X-1.054 Z0 S800 F1600
G1 X-3.841 Z0 S0 F1600
G1 X-0.211 Z0 S800 F1600
G1 X-1.357 Z0 S0 F1600
G1 X-0.882 Z0 S800 F1600
G1 X-3.686 Y0.9 Z0 S0 F1600
G1 X0.473 Z0 S800 F1600
G1 X0.943 Z0 S0 F1600
G1 X0.319 Z0 S800 F1600
G1 X0.935 Z0 S0 F1600
G1 X0.147 Z0 S800 F1600
G1 X0.583 Z0 S0 F1600
G1 X0.549 Z0 S800 F1600
G1 X1.306 Z0 S0 F1600
G1 X1.817 Z0 S800 F1600
G1 X1.961 Z0 S0 F1600
G1 X2.246 Z0 S800 F1600
G1 X0.685 Z0 S0 F1600
G1 X1.387 Z0 S800 F1600
G1 X1.721 Z0 S0 F1600
G1 X1.879 Z0 S800 F1600
G1 X1.419 Z0 S0 F1600
G1 X2.898 Z0 S800 F1600
G1 X0.916 Z0 S0 F1600
G1 X2.983 Z0 S800 F1600
G1 X1.864 Z0 S0 F1600
G1 X10.033 Z0 S800 F1600
G1 X1.161 Z0 S0 F1600
G1 X7.764 Z0 S800 F1600
G1 X1.423 Z0 S0 F1600
G1 X12.065 Z0 S800 F1600
G1 X0.107 Y0.9 Z0 S0 F1600
G1 X-8.195 Z0 S800 F1600
G1 X-1.873 Z0 S0 F1600
G1 X-9.472 Z0 S800 F1600
G1 X-1.555 Z0 S0 F1600
G1 X-4.973 Z0 S800 F1600
G1 X-1.133 Z0 S0 F1600
G1 X-2.576 Z0 S800 F1600
G1 X-0.949 Z0 S0 F1600
G1 X-1.854 Z0 S800 F1600
G1 X-9.98 Z0 S0 F1600
G1 X-2.204 Z0 S800 F1600
G1 X-0.777 Z0 S0 F1600
G1 X-1.488 Z0 S800 F1600
G1 X-0.837 Z0 S0 F1600
G1 X-2.308 Z0 S800 F1600
G1 X-2.335 Z0 S0 F1600
G1 X-0.793 Z0 S800 F1600
G1 X15.06 Y0.9 Z0 S0 F1600
G1 X3.268 Z0 S800 F1600
G1 X0.675 Z0 S0 F1600
G1 X1.896 Z0 S800 F1600
G1 X4.034 Z0 S0 F1600
G1 X2.605 Z0 S800 F1600
G1 X2.181 Z0 S0 F1600
G1 X5.577 Z0 S800 F1600
G1 X0.402 Z0 S0 F1600
G1 X17.641 Z0 S800 F1600
G1 X0.015 Y0.9 Z0 S0 F1600
G1 X-14.652 Z0 S800 F1600
G1 X-0.442 Z0 S0 F1600
G1 X-13.747 Z0 S800 F1600
G1 X-0.982 Z0 S0 F1600
G1 X-2.738 Z0 S800 F1600
G1 X-1.316 Z0 S0 F1600
G1 X-2.277 Z0 S800 F1600
G1 X-1.349 Z0 S0 F1600
G1 X-1.319 Z0 S800 F1600
G1 X-0.848 Z0 S0 F1600
G1 X-0.596 Z0 S800 F1600
G1 X-1.606 Z0 S0 F1600
G1 X-1.525 Z0 S800 F1600
G1 X-0.262 Z0 S0 F1600
G1 X-2.224 Z0 S800 F1600
G1 X-1.138 Z0 S0 F1600
G1 X-2.579 Z0 S800 F1600
G1 X-2.711 Z0 S0 F1600
G1 X-2.476 Z0 S800 F1600
G1 X-0.756 Z0 S0 F1600
G1 X-0.806 Z0 S800 F1600
G1 X-0.279 Y0.9 Z0 S0 F1600
G1 X1.195 Z0 S800 F1600
G1 X0.852 Z0 S0 F1600
G1 X2.614 Z0 S800 F1600
G1 X1.347 Z0 S0 F1600
G1 X0.354 Z0 S800 F1600
G1 X2.036 Z0 S0 F1600
G1 X2.112 Z0 S800 F1600
G1 X0.856 Z0 S0 F1600
G1 X4.018 Z0 S800 F1600
G1 X0.846 Z0 S0 F1600
G1 X0.297 Z0 S800 F1600
G1 X0.712 Z0 S0 F1600
G1 X0.496 Z0 S800 F1600
G1 X1.897 Z0 S0 F1600
G1 X0.966 Z0 S800 F1600
G1 X1.832 Z0 S0 F1600
G1 X5.553 Z0 S800 F1600
G1 X1.842 Z0 S0 F1600
G1 X7.425 Z0 S800 F1600
G1 X1.075 Z0 S0 F1600
G1 X18.269 Z0 S800 F1600
G1 X-0.163 Y0.9 Z0 S0 F1600
G1 X-20.359 Z0 S800 F1600
G1 X-1.463 Z0 S0 F1600
G1 X-8.778 Z0 S800 F1600
G1 X-1.837 Z0 S0 F1600
G1 X-2.549 Z0 S800 F1600
G1 X-2.089 Z0 S0 F1600
G1 X-2.878 Z0 S800 F1600
G1 X-1.044 Z0 S0 F1600
G1 X-3.143 Z0 S800 F1600
G1 X-1.524 Z0 S0 F1600
G1 X-1.308 Z0 S800 F1600
G1 X-2.19 Z0 S0 F1600
G1 X-0.47 Z0 S800 F1600
G1 X-0.263 Z0 S0 F1600
G1 X-0.617 Z0 S800 F1600
G1 X-1.098 Z0 S0 F1600
G1 X-2.25 Z0 S800 F1600
G1 X-1.359 Z0 S0 F1600
G1 X-1.003 Z0 S800 F1600
G1 X2.816 Y0.9 Z0 S0 F1600
G1 X1.708 Z0 S800 F1600
G1 X1.55 Z0 S0 F1600
G1 X0.165 Z0 S800 F1600
G1 X0.329 Z0 S0 F1600
G1 X1.554 Z0 S800 F1600
G1 X1.601 Z0 S0 F1600
G1 X0.215 Z0 S800 F1600
G1 X3.864 Z0 S0 F1600
G1 X1.342 Z0 S800 F1600
G1 X0.754 Z0 S0 F1600
G1 X1.448 Z0 S800 F1600
G1 X1.5 Z0 S0 F1600
G1 X1.239 Z0 S800 F1600
G1 X0.901 Z0 S0 F1600
G1 X2.27 Z0 S800 F1600
G1 X2.896 Z0 S0 F1600
G1 X2.857 Z0 S800 F1600
G1 X1.24 Z0 S0 F1600
G1 X2.504 Z0 S800 F1600
G1 X0.74 Z0 S0 F1600
G1 X22.324 Z0 S800 F1600
G1 X0.599 Y0.9 Z0 S0 F1600
G1 X-0.694 Z0 S800 F1600
G1 X-0.996 Z0 S0 F1600
G1 X-0.725 Z0 S800 F1600
G1 X-0.328 Z0 S0 F1600
G1 X-0.36 Z0 S800 F1600
G1 X-0.469 Z0 S0 F1600
G1 X-0.897 Z0 S800 F1600
G1 X-0.076 Z0 S0 F1600
G1 X-0.745 Z0 S800 F1600
G1 X-0.263 Z0 S0 F1600
G1 X-0.349 Z0 S800 F1600
G1 X-0.215 Z0 S0 F1600
G1 X-11.743 Z0 S800 F1600
G1 X-1.79 Z0 S0 F1600
G1 X-4.056 Z0 S800 F1600
G1 X-0.384 Z0 S0 F1600
G1 X-4.29 Z0 S800 F1600
G1 X-2.265 Z0 S0 F1600
G1 X-1.784 Z0 S800 F1600
G1 X-0.641 Z0 S0 F1600
G1 X-7.063 Z0 S800 F1600
G1 X-0.557 Z0 S0 F1600
G1 X-0.213 Z0 S800 F1600
G1 X-1.071 Z0 S0 F1600
G1 X-0.216 Z0 S800 F1600
G1 X-0.922 Z0 S0 F1600
G1 X-2.822 Z0 S800 F1600
G1 X-1.588 Z0 S0 F1600
G1 X-1.887 Z0 S800 F1600
G1 X-2.24 Z0 S0 F1600
G1 X-0.416 Z0 S800 F1600
G1 X-0.377 Z0 S0 F1600
G1 X-0.533 Z0 S800 F1600
G1 X-1.058 Z0 S0 F1600
G1 X-0.208 Z0 S800 F1600
G1 X-8.886 Z0 S0 F1600
G1 X-0.31 Z0 S800 F1600
G1 X9.368 Y0.9 Z0 S0 F1600
G1 X0.964 Z0 S800 F1600
G1 X1.186 Z0 S0 F1600
G1 X0.494 Z0 S800 F1600
G1 X1.094 Z0 S0 F1600
G1 X0.765 Z0 S800 F1600
G1 X1.105 Z0 S0 F1600
G1 X1.165 Z0 S800 F1600
G1 X0.472 Z0 S0 F1600
G1 X0.908 Z0 S800 F1600
G1 X0.859 Z0 S0 F1600
G1 X2.402 Z0 S800 F1600
G1 X7.345 Z0 S0 F1600
G1 X1.748 Z0 S800 F1600
G1 X0.588 Z0 S0 F1600
G1 X0.511 Z0 S800 F1600
G1 X1.385 Z0 S0 F1600
G1 X4.11 Z0 S800 F1600
G1 X1.04 Z0 S0 F1600
G1 X1.412 Z0 S800 F1600
G1 X0.383 Z0 S0 F1600
G1 X1.676 Z0 S800 F1600
G1 X11.487 Z0 S0 F1600
G1 X4.522 Z0 S800 F1600
G1 X1.234 Z0 S0 F1600
G1 X0.272 Z0 S800 F1600
G1 X0.365 Z0 S0 F1600
G1 X2.761 Z0 S800 F1600
G1 X1.423 Z0 S0 F1600
G1 X0.087 Z0 S800 F1600
G1 X-0.927 Y0.9 Z0 S0 F1600
G1 X-0.434 Z0 S800 F1600
G1 X-0.016 Z0 S0 F1600
G1 X-1.324 Z0 S800 F1600
G1 X-0.451 Z0 S0 F1600
G1 X-0.187 Z0 S800 F1600
G1 X-1.15 Z0 S0 F1600
G1 X-18.554 Z0 S800 F1600
G1 X-2.525 Z0 S0 F1600
G1 X-1.126 Z0 S800 F1600
G1 X-1.931 Z0 S0 F1600
G1 X-3.548 Z0 S800 F1600
G1 X-1.8 Z0 S0 F1600
G1 X-4.872 Z0 S800 F1600
G1 X-1.927 Z0 S0 F1600
G1 X-1.105 Z0 S800 F1600
G1 X-1.028 Z0 S0 F1600
G1 X-0.897 Z0 S800 F1600
G1 X-0.9 Z0 S0 F1600
G1 X-1.595 Z0 S800 F1600
G1 X-1.638 Z0 S0 F1600
G1 X-1.875 Z0 S800 F1600
G1 X-1.926 Z0 S0 F1600
G1 X-0.759 Z0 S800 F1600
G1 X-0.693 Z0 S0 F1600
G1 X-0.31 Z0 S800 F1600
G1 X0.785 Y0.9 Z0 S0 F1600
G1 X1.85 Z0 S800 F1600
G1 X6.521 Z0 S0 F1600
G1 X0.35 Z0 S800 F1600
G1 X0.933 Z0 S0 F1600
G1 X8.387 Z0 S800 F1600
G1 X1.33 Z0 S0 F1600
G1 X2.392 Z0 S800 F1600
G1 X1.93 Z0 S0 F1600
G1 X1.727 Z0 S800 F1600
G1 X0.36 Z0 S0 F1600
G1 X1.642 Z0 S800 F1600
G1 X0.11 Z0 S0 F1600
G1 X1.012 Z0 S800 F1600
G1 X2.861 Z0 S0 F1600
G1 X3.826 Z0 S800 F1600
G1 X0.229 Z0 S0 F1600
G1 X0.177 Z0 S800 F1600
G1 X0.957 Z0 S0 F1600
G1 X0.395 Z0 S800 F1600
G1 X0.104 Z0 S0 F1600
G1 X8.094 Z0 S800 F1600
G1 X0.453 Z0 S0 F1600
G1 X0.355 Z0 S800 F1600
G1 X0.106 Z0 S0 F1600
G1 X0.113 Z0 S800 F1600
G1 X6.413 Z0 S0 F1600
G1 X0.085 Z0 S800 F1600
G1 X-0.256 Y0.9 Z0 S0 F1600
G1 X-0.464 Z0 S800 F1600
G1 X-1.537 Z0 S0 F1600
G1 X-0.24 Z0 S800 F1600
G1 X-5.374 Z0 S0 F1600
G1 X-0.333 Z0 S800 F1600
G1 X-0.259 Z0 S0 F1600
G1 X-1.438 Z0 S800 F1600
G1 X-0.356 Z0 S0 F1600
G1 X-0.115 Z0 S800 F1600
G1 X-0.617 Z0 S0 F1600
G1 X-1.483 Z0 S800 F1600
G1 X-0.17 Z0 S0 F1600
G1 X-0.476 Z0 S800 F1600
G1 X-0.357 Z0 S0 F1600
G1 X-0.148 Z0 S800 F1600
G1 X-0.19 Z0 S0 F1600
G1 X-0.698 Z0 S800 F1600
G1 X-2.387 Z0 S0 F1600
G1 X-1.909 Z0 S800 F1600
G1 X-8.665 Z0 S0 F1600
G1 X-2.968 Z0 S800 F1600
G1 X-2.492 Z0 S0 F1600
G1 X-1.842 Z0 S800 F1600
G1 X-5.158 Z0 S0 F1600
G1 X-1.095 Z0 S800 F1600
G1 X-2.946 Z0 S0 F1600
G1 X-2.378 Z0 S800 F1600
G1 X-4.822 Z0 S0 F1600
G1 X-0.322 Z0 S800 F1600
G1 X-11.298 Y0.9 Z0 S0 F1600
G1 X0.58 Z0 S800 F1600
G1 X15.51 Z0 S0 F1600
G1 X0.749 Z0 S800 F1600
G1 X0.191 Z0 S0 F1600
G1 X3.831 Z0 S800 F1600
G1 X1.264 Z0 S0 F1600
G1 X3.761 Z0 S800 F1600
G1 X0.953 Z0 S0 F1600
G1 X1.738 Z0 S800 F1600
G1 X0.327 Z0 S0 F1600
G1 X3.42 Z0 S800 F1600
G1 X12.294 Z0 S0 F1600
G1 X0.116 Z0 S800 F1600
G1 X3.791 Z0 S0 F1600
G1 X0.238 Z0 S800 F1600
G1 X1.07 Z0 S0 F1600
G1 X0.384 Z0 S800 F1600
G1 X1.086 Z0 S0 F1600
G1 X0.739 Z0 S800 F1600
G1 X0.261 Z0 F1600
G1 X0.451 Z0 S0 F1600
G1 X0.436 Z0 S800 F1600
G1 X0.764 Z0 S0 F1600
G1 X0.411 Z0 S800 F1600
G1 X6.489 Z0 S0 F1600
G1 X0.353 Z0 S800 F1600
G1 X1.387 Z0 S0 F1600
G1 X0.505 Z0 S800 F1600
G1 X-0.048 Y0.9 Z0 S0 F1600
G1 X-0.422 Z0 S800 F1600
G1 X-10.39 Z0 S0 F1600
G1 X-0.212 Z0 S800 F1600
G1 X-1.022 Z0 S0 F1600
G1 X-0.033 Z0 S800 F1600
G1 X-17.21 Z0 S0 F1600
G1 X-1.707 Z0 S800 F1600
G1 X-1.259 Z0 S0 F1600
G1 X-0.969 Z0 S800 F1600
G1 X-2.487 Z0 S0 F1600
G1 X-1.012 Z0 S800 F1600
G1 X-5.077 Z0 S0 F1600
G1 X-0.262 Z0 S800 F1600
G1 X-6.216 Z0 S0 F1600
G1 X-0.197 Z0 S800 F1600
G1 X2.018 Y0.9 Z0 S0 F1600
G1 X3.696 Z0 S800 F1600
G1 X7.494 Z0 S0 F1600
G1 X0.304 Z0 S800 F1600
G1 X4.471 Z0 S0 F1600
G1 X2.829 Z0 S800 F1600
G1 X11.371 Y0.9 Z0 S0 F1600
G1 X-1.155 Z0 S800 F1600
G1 X-10.839 Z0 S0 F1600
G1 X-1.538 Z0 S800 F1600
G1 X-0.177 Z0 S0 F1600
G1 X-1.194 Z0 S800 F1600
G1 X-1.352 Z0 S0 F1600
G1 X-0.25 Z0 S800 F1600
G1 X-0.073 Z0 S0 F1600
G1 X-0.296 Z0 S800 F1600
G1 X-0.741 Z0 S0 F1600
G1 X-1.191 Z0 S800 F1600
G1 X-1.335 Z0 S0 F1600
G1 X-4.585 Z0 S800 F1600
G1 X4.086 Y0.9 Z0 S0 F1600
G1 X4.14 Z0 S800 F1600
G1 X21.758 Z0 S0 F1600
G1 X0.238 Z0 S800 F1600
G1 X10.815 Y0.9 Z0 S0 F1600
G1 X-0.47 Z0 S800 F1600
G1 X-9.394 Z0 S0 F1600
G1 X-0.643 Z0 S800 F1600
G1 X-0.435 Z0 S0 F1600
G1 X-0.852 Z0 S800 F1600
G1 X-28.62 Z0 S0 F1600
G1 X-2.913 Z0 S800 F1600
G1 X-1.193 Z0 S0 F1600
G1 X-0.067 Z0 S800 F1600
G1 X-2.13 Z0 S0 F1600
G1 X-0.774 Z0 S800 F1600
G1 X-7.335 Y0.9 Z0 S0 F1600
G1 X0.111 Z0 S800 F1600
G1 X7.798 Z0 S0 F1600
G1 X1.393 Z0 S800 F1600
G1 X1.698 Z0 S0 F1600
G1 X0.437 Z0 S800 F1600
G1 X1.079 Z0 S0 F1600
G1 X2.783 Z0 S800 F1600
G1 X0.285 Z0 S0 F1600
G1 X0.395 Z0 S800 F1600
G1 X28.621 Z0 S0 F1600
G1 X0.152 Z0 S800 F1600
G1 X0.741 Z0 S0 F1600
G1 X0.475 Z0 S800 F1600
G1 X1.701 Z0 S0 F1600
G1 X0.155 Z0 S800 F1600
G1 X3.8 Z0 S0 F1600
G1 X0.122 Z0 S800 F1600
G1 X1.185 Z0 S0 F1600
G1 X1.185 Z0 S800 F1600
G1 X-1.721 Y0.9 Z0 S0 F1600
G1 X-0.947 Z0 S800 F1600
G1 X-3.027 Z0 S0 F1600
G1 X-0.349 Z0 S800 F1600
G1 X-0.071 Z0 S0 F1600
G1 X-0.087 Z0 S800 F1600
G1 X-0.212 Z0 S0 F1600
G1 X-0.692 Z0 S800 F1600
G1 X-0.124 Z0 S0 F1600
G1 X-1.019 Z0 S800 F1600
G1 X-0.198 Z0 S0 F1600
G1 X-2.744 Z0 S800 F1600
G1 X-27.287 Z0 S0 F1600
G1 X-0.92 Z0 S800 F1600
G1 X-2.024 Z0 S0 F1600
G1 X-3.762 Z0 S800 F1600
G1 X-11.871 Y0.9 Z0 S0 F1600
G1 X0.842 Z0 S800 F1600
G1 X1.689 Z0 S0 F1600
G1 X1.935 Z0 S800 F1600
G1 X5.647 Z0 S0 F1600
G1 X0.543 Z0 S800 F1600
G1 X2.379 Z0 S0 F1600
G1 X4.589 Z0 S800 F1600
G1 X1.721 Z0 S0 F1600
G1 X0.037 Z0 S800 F1600
G1 X8.399 Z0 S0 F1600
G1 X0.409 Z0 S800 F1600
G1 X15.886 Z0 S0 F1600
G1 X0.287 Z0 S800 F1600
G1 X0.433 Z0 S0 F1600
G1 X7.254 Z0 S800 F1600
G1 X0.073 Z0 S0 F1600
G1 X0.129 Z0 S800 F1600
G1 X5.049 Z0 S0 F1600
G1 X0.111 Z0 S800 F1600
G1 X-0.114 Y0.9 Z0 S0 F1600
G1 X-0.219 Z0 S800 F1600
G1 X-3.114 Z0 S0 F1600
G1 X-5.126 Z0 S800 F1600
G1 X-0.26 Z0 S0 F1600
G1 X-6.225 Z0 S800 F1600
G1 X-13.327 Z0 S0 F1600
G1 X-2.38 Z0 S800 F1600
G1 X-9.851 Z0 S0 F1600
G1 X-1.466 Z0 S800 F1600
G1 X-8.006 Z0 S0 F1600
G1 X-0.828 Z0 S800 F1600
G1 X-1.897 Z0 S0 F1600
G1 X-1.451 Z0 S800 F1600
G1 X-2.152 Z0 S0 F1600
G1 X-0.932 Z0 S800 F1600
G1 X0.319 Y0.9 Z0 S0 F1600
G1 X0.967 Z0 S800 F1600
G1 X2.598 Z0 S0 F1600
G1 X0.886 Z0 S800 F1600
G1 X1.951 Z0 S0 F1600
G1 X1.648 Z0 S800 F1600
G1 X4.885 Z0 S0 F1600
G1 X1.176 Z0 S800 F1600
G1 X0.364 Z0 S0 F1600
G1 X0.07 Z0 S800 F1600
G1 X3.323 Z0 S0 F1600
G1 X0.897 Z0 S800 F1600
G1 X4.986 Z0 S0 F1600
G1 X0.585 Z0 S800 F1600
G1 X0.066 Z0 S0 F1600
G1 X0.462 Z0 S800 F1600
G1 X0.232 Z0 S0 F1600
G1 X0.631 Z0 S800 F1600
G1 X0.224 Z0 S0 F1600
G1 X1.22 Z0 S800 F1600
G1 X1.748 Z0 S0 F1600
G1 X0.191 Z0 S800 F1600
G1 X9.999 Z0 S0 F1600
G1 X2.228 Z0 S800 F1600
G1 X0.691 Z0 S0 F1600
G1 X4.15 Z0 S800 F1600
G1 X0.623 Z0 S0 F1600
G1 X8.432 Z0 S800 F1600
G1 X1.087 Z0 S0 F1600
G1 X0.999 Z0 S800 F1600
G1 X0.084 Y0.9 Z0 S0 F1600
G1 X-0.635 Z0 S800 F1600
G1 X-0.056 Z0 S0 F1600
G1 X-0.574 Z0 S800 F1600
G1 X-1.411 Z0 S0 F1600
G1 X-8.817 Z0 S800 F1600
G1 X-0.701 Z0 S0 F1600
G1 X-4.011 Z0 S800 F1600
G1 X-1.179 Z0 S0 F1600
G1 X-2.377 Z0 S800 F1600
G1 X-14.569 Z0 S0 F1600
G1 X-0.402 Z0 S800 F1600
G1 X-1.744 Z0 S0 F1600
G1 X-1.637 Z0 S800 F1600
G1 X-5.603 Z0 S0 F1600
G1 X-0.103 Z0 S800 F1600
G1 X-0.502 Z0 S0 F1600
G1 X-0.203 Z0 S800 F1600
G1 X-4.695 Z0 S0 F1600
G1 X-1.39 Z0 S800 F1600
G1 X-1.693 Z0 S0 F1600
G1 X-0.622 Z0 S800 F1600
G1 X-0.89 Z0 S0 F1600
G1 X-0.264 Z0 S800 F1600
G1 X-1.958 Z0 S0 F1600
G1 X-0.8 Z0 S800 F1600
G1 X-5.6 Y0.9 Z0 S0 F1600
G1 X0.605 Z0 S800 F1600
G1 X0.226 Z0 S0 F1600
G1 X0.759 Z0 S800 F1600
G1 X4.959 Z0 S0 F1600
G1 X0.535 Z0 S800 F1600
G1 X1.456 Z0 S0 F1600
G1 X1.082 Z0 S800 F1600
G1 X2.334 Z0 S0 F1600
G1 X1.787 Z0 S800 F1600
G1 X5.972 Z0 S0 F1600
G1 X1.437 Z0 S800 F1600
G1 X1.888 Z0 S0 F1600
G1 X4.973 Z0 S800 F1600
G1 X0.286 Z0 S0 F1600
G1 X1.093 Z0 S800 F1600
G1 X8.473 Z0 S0 F1600
G1 X4.577 Z0 S800 F1600
G1 X2.468 Z0 S0 F1600
G1 X4.255 Z0 S800 F1600
G1 X0.26 Z0 S0 F1600
G1 X0.219 Z0 S800 F1600
G1 X0.467 Z0 S0 F1600
G1 X0.136 Z0 S800 F1600
G1 X2.589 Z0 S0 F1600
G1 X1.203 Z0 S800 F1600
G1 X4.873 Z0 S0 F1600
G1 X3.449 Z0 S800 F1600
G1 X0.069 Y0.9 Z0 S0 F1600
G1 X-0.598 Z0 S800 F1600
G1 X-0.314 Z0 S0 F1600
G1 X-3.277 Z0 S800 F1600
G1 X-0.141 Z0 S0 F1600
G1 X-1.181 Z0 S800 F1600
G1 X-4.441 Z0 S0 F1600
G1 X-3.208 Z0 S800 F1600
G1 X-2.898 Z0 S0 F1600
G1 X-1.177 Z0 S800 F1600
G1 X-7.574 Z0 S0 F1600
G1 X-0.912 Z0 S800 F1600
G1 X-0.161 Z0 S0 F1600
G1 X-0.332 Z0 S800 F1600
G1 X-3.27 Z0 S0 F1600
G1 X-4.13 Z0 S800 F1600
G1 X-18.042 Z0 S0 F1600
G1 X-2.514 Z0 S800 F1600
G1 X-8.376 Z0 S0 F1600
G1 X-0.924 Z0 S800 F1600
G1 X0.006 Y0.9 Z0 S0 F1600
G1 X0.531 Z0 S800 F1600
G1 X1.554 Z0 S0 F1600
G1 X0.107 Z0 S800 F1600
G1 X12.207 Z0 S0 F1600
G1 X0.354 Z0 S800 F1600
G1 X3.804 Z0 S0 F1600
G1 X3.015 Z0 S800 F1600
G1 X1.151 Z0 S0 F1600
G1 X1.64 Z0 S800 F1600
G1 X15.947 Z0 S0 F1600
G1 X0.446 Z0 S800 F1600
G1 X0.649 Z0 S0 F1600
G1 X0.777 Z0 S800 F1600
G1 X0.787 Z0 S0 F1600
G1 X0.205 Z0 S800 F1600
G1 X0.341 Z0 S0 F1600
G1 X0.12 Z0 S800 F1600
G1 X5.335 Z0 S0 F1600
G1 X3.766 Z0 S800 F1600
G1 X7.138 Z0 S0 F1600
G1 X0.102 Z0 S800 F1600
G1 X0.745 Z0 S0 F1600
G1 X0.113 Z0 S800 F1600
G1 X0.926 Z0 S0 F1600
G1 X0.144 Z0 S800 F1600
G1 X0.697 Z0 S0 F1600
G1 X0.144 Z0 S800 F1600
G1 X0.743 Y0.9 Z0 S0 F1600
G1 X-4.017 Z0 S800 F1600
G1 X-21.599 Z0 S0 F1600
G1 X-2.293 Z0 S800 F1600
G1 X-0.763 Z0 S0 F1600
G1 X-1.859 Z0 S800 F1600
G1 X-0.523 Z0 S0 F1600
G1 X-4.251 Z0 S800 F1600
G1 X-7.555 Z0 S0 F1600
G1 X-1.352 Z0 S800 F1600
G1 X-4.907 Z0 S0 F1600
G1 X-0.508 Z0 S800 F1600
G1 X-0.964 Z0 S0 F1600
G1 X-1.426 Z0 S800 F1600
G1 X1.15 Y0.9 Z0 S0 F1600
G1 X0.873 Z0 S800 F1600
G1 X0.573 Z0 S0 F1600
G1 X0.746 Z0 S800 F1600
G1 X13.064 Z0 S0 F1600
G1 X1.74 Z0 S800 F1600
G1 X5.304 Z0 S0 F1600
G1 X0.769 Z0 S800 F1600
G1 X3.427 Z0 S0 F1600
G1 X0.097 Z0 S800 F1600
G1 X1.82 Z0 S0 F1600
G1 X0.322 Z0 S800 F1600
G1 X6.254 Z0 S0 F1600
G1 X2.569 Z0 S800 F1600
G1 X0.501 Z0 S0 F1600
G1 X0.316 Z0 S800 F1600
G1 X0.765 Z0 S0 F1600
G1 X0.466 Z0 S800 F1600
G1 X1.573 Z0 S0 F1600
G1 X0.738 Z0 S800 F1600
G1 X-26.228 Y0.9 Z0 S0 F1600
G1 X-1.784 Z0 S800 F1600
G1 X-5.476 Z0 S0 F1600
G1 X-2.114 Z0 S800 F1600
G1 X-3.908 Z0 S0 F1600
G1 X-1.468 Z0 S800 F1600
G1 X-2.923 Z0 S0 F1600
G1 X-0.439 Z0 S800 F1600
G1 X-0.272 Z0 S0 F1600
G1 X-0.275 Z0 S800 F1600
G1 X0.261 Y0.9 Z0 S0 F1600
G1 X0.25 Z0 S800 F1600
G1 X0.244 Z0 S0 F1600
G1 X0.476 Z0 S800 F1600
G1 X0.038 Z0 S0 F1600
G1 X0.637 Z0 S800 F1600
G1 X2.765 Z0 S0 F1600
G1 X0.612 Z0 S800 F1600
G1 X4.098 Z0 S0 F1600
G1 X4.19 Z0 S800 F1600
G1 X1.69 Z0 S0 F1600
G1 X3.983 Z0 S800 F1600
G1 X2.306 Z0 S0 F1600
G1 X0.955 Z0 S800 F1600
G1 X2.338 Z0 S0 F1600
G1 X3.607 Z0 S800 F1600
G1 X11.777 Z0 S0 F1600
G1 X1.941 Z0 S800 F1600
G1 X4.969 Z0 S0 F1600
G1 X0.881 Z0 S800 F1600
G1 X-4.264 Y0.9 Z0 S0 F1600
G1 X-0.039 Z0 S800 F1600
G1 X-26.425 Z0 S0 F1600
G1 X-0.448 Z0 S800 F1600
G1 X-1.378 Z0 S0 F1600
G1 X-1.126 Z0 S800 F1600
G1 X-1.447 Z0 S0 F1600
G1 X-1.709 Z0 S800 F1600
G1 X-0.035 Z0 S0 F1600
G1 X-0.596 Z0 S800 F1600
G1 X-16.616 Z0 S0 F1600
G1 X-3.292 Z0 S800 F1600
G1 X-1.171 Z0 S0 F1600
G1 X-0.109 Z0 S800 F1600
G1 X-0.101 Y0.9 Z0 S0 F1600
G1 X1.583 Z0 S800 F1600
G1 X0.911 Z0 S0 F1600
G1 X2.653 Z0 S800 F1600
G1 X19.044 Z0 S0 F1600
G1 X2.634 Z0 S800 F1600
G1 X1.488 Z0 S0 F1600
G1 X3.696 Z0 S800 F1600
G1 X3.761 Z0 S0 F1600
G1 X0.588 Z0 S800 F1600
G1 X7.132 Z0 S0 F1600
G1 X8.705 Z0 S800 F1600
G1 X0.382 Z0 S0 F1600
G1 X0.434 Z0 S800 F1600
G1 X0.034 Z0 S0 F1600
G1 X0.168 Z0 S800 F1600
G1 X0.889 Z0 S0 F1600
G1 X0.254 Z0 S800 F1600
G1 X0.287 Z0 S0 F1600
G1 X0.092 Z0 S800 F1600
G1 X1.628 Z0 S0 F1600
G1 X0.607 Z0 S800 F1600
G1 X0.091 Z0 S0 F1600
G1 X0.446 Z0 S800 F1600
G1 X0.14 Z0 S0 F1600
G1 X0.186 Z0 S800 F1600
G1 X0.272 Z0 S0 F1600
G1 X0.552 Z0 S800 F1600
G1 X0.698 Z0 S0 F1600
G1 X0.407 Z0 S800 F1600
G1 X0.103 Z0 S0 F1600
G1 X0.405 Z0 S800 F1600
G1 X0.134 Z0 S0 F1600
G1 X0.394 Z0 S800 F1600
G1 X0.131 Z0 S0 F1600
G1 X0.384 Z0 S800 F1600
G1 X0.861 Z0 S0 F1600
G1 X0.183 Z0 S800 F1600
G1 X0.364 Z0 S0 F1600
G1 X0.644 Z0 S800 F1600
G1 X0.199 Z0 S0 F1600
G1 X0.205 Z0 S800 F1600
G1 X0.185 Z0 S0 F1600
G1 X0.233 Z0 S800 F1600
G1 X0.112 Z0 S0 F1600
G1 X0.237 Z0 S800 F1600
G1 X-0.319 Y0.9 Z0 S0 F1600
G1 X-1.517 Z0 S800 F1600
G1 X-10.592 Z0 S0 F1600
G1 X-1.103 Z0 S800 F1600
G1 X-2.647 Z0 S0 F1600
G1 X-1.639 Z0 S800 F1600
G1 X-0.222 Z0 S0 F1600
G1 X-0.373 Z0 S800 F1600
G1 X-0.338 Z0 S0 F1600
G1 X-0.364 Z0 S800 F1600
G1 X-4.516 Z0 S0 F1600
G1 X-1.839 Z0 S800 F1600
G1 X-2.416 Z0 S0 F1600
G1 X-1.177 Z0 S800 F1600
G1 X-0.532 Z0 S0 F1600
G1 X-0.421 Z0 S800 F1600
G1 X-4.064 Z0 S0 F1600
G1 X-1.359 Z0 S800 F1600
G1 X-1.329 Z0 S0 F1600
G1 X-2.6 Z0 S800 F1600
G1 X-1.761 Z0 S0 F1600
G1 X-0.395 Z0 S800 F1600
G1 X-0.227 Z0 S0 F1600
G1 X-0.189 Z0 S800 F1600
G1 X-17.176 Z0 S0 F1600
G1 X-1.933 Z0 S800 F1600
G1 X-0.487 Z0 S0 F1600
G1 X-2.998 Z0 S800 F1600
G1 X0.04 Y0.9 Z0 S0 F1600
G1 X3.861 Z0 S800 F1600
G1 X0.533 Z0 S0 F1600
G1 X1.127 Z0 S800 F1600
G1 X5.208 Z0 S0 F1600
G1 X0.241 Z0 S800 F1600
G1 X28.315 Z0 S0 F1600
G1 X0.516 Z0 S800 F1600
G1 X0.935 Z0 S0 F1600
G1 X0.584 Z0 S800 F1600
G1 X0.153 Z0 S0 F1600
G1 X0.95 Z0 S800 F1600
G1 X1.367 Z0 S0 F1600
G1 X1.574 Z0 S800 F1600
G1 X3.263 Z0 S0 F1600
G1 X15.747 Z0 S800 F1600
G1 X0.057 Y0.9 Z0 S0 F1600
G1 X-2.913 Z0 S800 F1600
G1 X-10.792 Z0 S0 F1600
G1 X-8.856 Z0 S800 F1600
G1 X-36.242 Z0 S0 F1600
G1 X-0.294 Z0 S800 F1600
G1 X-0.759 Z0 S0 F1600
G1 X-4.052 Z0 S800 F1600
G1 X1.659 Y0.9 Z0 S0 F1600
G1 X1.679 Z0 S800 F1600
G1 X7.879 Z0 S0 F1600
G1 X0.085 Z0 S800 F1600
G1 X21.18 Z0 S0 F1600
G1 X4.964 Z0 S800 F1600
G1 X1.611 Z0 S0 F1600
G1 X3.099 Z0 S800 F1600
G1 X4.909 Z0 S0 F1600
G1 X16.874 Z0 S800 F1600
G1 X0.02 Y0.9 Z0 S0 F1600
G1 X-13.733 Z0 S800 F1600
G1 X-0.737 Z0 S0 F1600
G1 X-3.889 Z0 S800 F1600
G1 X-1.202 Z0 S0 F1600
G1 X-2.872 Z0 S800 F1600
G1 X-0.081 Z0 S0 F1600
G1 X-1.28 Z0 S800 F1600
G1 X-1.17 Z0 S0 F1600
G1 X-3.318 Z0 S800 F1600
G1 X-2.968 Z0 S0 F1600
G1 X-3.394 Z0 S800 F1600
G1 X-24.634 Z0 S0 F1600
G1 X-1.23 Z0 S800 F1600
G1 X-3.259 Z0 S0 F1600
G1 X-0.757 Z0 S800 F1600
G1 X0.157 Y0.9 Z0 S0 F1600
G1 X0.469 Z0 S800 F1600
G1 X1.199 Z0 S0 F1600
G1 X0.084 Z0 S800 F1600
G1 X29.415 Z0 S0 F1600
G1 X0.396 Z0 S800 F1600
G1 X0.118 Z0 S0 F1600
G1 X3.787 Z0 S800 F1600
G1 X0.14 Z0 S0 F1600
G1 X5.1 Z0 S800 F1600
G1 X0.571 Z0 S0 F1600
G1 X0.104 Z0 S800 F1600
G1 X1.138 Z0 S0 F1600
G1 X0.25 Z0 S800 F1600
G1 X0.998 Z0 S0 F1600
G1 X2.189 Z0 S800 F1600
G1 X1.739 Z0 S0 F1600
G1 X1.2 Z0 S800 F1600
G1 X1.002 Z0 S0 F1600
G1 X14.481 Z0 S800 F1600
G1 X0.009 Y0.9 Z0 S0 F1600
G1 X-15.498 Z0 S800 F1600
G1 X-1.184 Z0 S0 F1600
G1 X-1.644 Z0 S800 F1600
G1 X-1.074 Z0 S0 F1600
G1 X-0.608 Z0 S800 F1600
G1 X-0.316 Z0 S0 F1600
G1 X-0.351 Z0 S800 F1600
G1 X-3.712 Z0 S0 F1600
G1 X-2.15 Z0 S800 F1600
G1 X-4.081 Y0.9 Z0 S0 F1600
G1 X0.781 Z0 S800 F1600
G1 X0.588 Z0 S0 F1600
G1 X1.419 Z0 S800 F1600
G1 X0.939 Z0 S0 F1600
G1 X3.367 Z0 S800 F1600
G1 X4.61 Z0 S0 F1600
G1 X1.448 Z0 S800 F1600
G1 X2.069 Z0 S0 F1600
G1 X15.405 Z0 S800 F1600
G1 X0.005 Y0.9 Z0 S0 F1600
G1 X-16.914 Z0 S800 F1600
G1 X-2.182 Z0 S0 F1600
G1 X-3.688 Z0 S800 F1600
G1 X-1.513 Z0 S0 F1600
G1 X-3.488 Z0 S800 F1600
G1 X-3.023 Z0 S0 F1600
G1 X-1.908 Z0 S800 F1600
G1 X-1.53 Z0 S0 F1600
G1 X-0.379 Z0 S800 F1600
G1 X-1.261 Z0 S0 F1600
G1 X-0.238 Z0 S800 F1600
G1 X-1.207 Y0.9 Z0 S0 F1600
G1 X3.011 Z0 S800 F1600
G1 X1.409 Z0 S0 F1600
G1 X3.04 Z0 S800 F1600
G1 X0.956 Z0 S0 F1600
G1 X0.754 Z0 S800 F1600
G1 X2.398 Z0 S0 F1600
G1 X4.492 Z0 S800 F1600
G1 X1.901 Z0 S0 F1600
G1 X19.374 Z0 S800 F1600
G1 X0.003 Y0.9 Z0 S0 F1600
G1 X-18.307 Z0 S800 F1600
G1 X-1.029 Z0 S0 F1600
G1 X-2.608 Z0 S800 F1600
G1 X-1.4 Z0 S0 F1600
G1 X-4.465 Z0 S800 F1600
G1 X-6.972 Z0 S0 F1600
G1 X-1.221 Z0 S800 F1600
G1 X-2.294 Z0 S0 F1600
G1 X-2.214 Z0 S800 F1600
G1 X-23.542 Z0 S0 F1600
G1 X-0.233 Z0 S800 F1600
G1 X23.28 Y0.9 Z0 S0 F1600
G1 X0.127 Z0 S800 F1600
G1 X8.474 Z0 S0 F1600
G1 X4.972 Z0 S800 F1600
G1 X6.165 Z0 S0 F1600
G1 X7.686 Z0 S800 F1600
G1 X3.895 Z0 S0 F1600
G1 X9.689 Z0 S800 F1600
G1 Y0.9 Z0 S0 F1600
G1 X-16.185 Z0 S800 F1600
G1 X-2.386 Z0 S0 F1600
G1 X-3.749 Z0 S800 F1600
G1 X-2.757 Z0 S0 F1600
G1 X-5.457 Z0 S800 F1600
G1 X-5.128 Z0 S0 F1600
G1 X-0.105 Z0 S800 F1600
G1 X-1.305 Z0 S0 F1600
G1 X-1.217 Z0 S800 F1600
G1 X-0.569 Z0 S0 F1600
G1 X-0.164 Z0 S800 F1600
G1 X0.512 Y0.9 Z0 S0 F1600
G1 X1.582 Z0 S800 F1600
G1 X10.382 Z0 S0 F1600
G1 X5.23 Z0 S800 F1600
G1 X1.473 Z0 S0 F1600
G1 X6.085 Z0 S800 F1600
G1 X1.649 Z0 S0 F1600
G1 X12.111 Z0 S800 F1600
G1 Y0.9 Z0 S0 F1600
G1 X-20.542 Z0 S800 F1600
G1 X-2.114 Z0 S0 F1600
G1 X-6.558 Z0 S800 F1600
G1 X-0.162 Z0 S0 F1600
G1 X-0.036 Z0 S800 F1600
G1 X-3.032 Z0 S0 F1600
G1 X-3.891 Z0 S800 F1600
G1 X-1.774 Z0 S0 F1600
G1 X-1.429 Z0 S800 F1600
G1 X-0.964 Z0 S0 F1600
G1 X-1.339 Z0 S800 F1600
G1 X1.005 Y0.9 Z0 S0 F1600
G1 X1.019 Z0 S800 F1600
G1 X0.846 Z0 S0 F1600
G1 X2.777 Z0 S800 F1600
G1 X3.017 Z0 S0 F1600
G1 X4.28 Z0 S800 F1600
G1 X2.493 Z0 S0 F1600
G1 X26.406 Z0 S800 F1600
G1 Y0.9 Z0 S0 F1600
G1 X-5.438 Z0 S800 F1600
G1 X-0.411 Z0 S0 F1600
G1 X-2.614 Z0 S800 F1600
G1 X-0.701 Z0 S0 F1600
G1 X-0.717 Z0 S800 F1600
G1 X-0.231 Z0 S0 F1600
G1 X-0.282 Z0 S800 F1600
G1 X-0.411 Z0 S0 F1600
G1 X-0.996 Z0 S800 F1600
G1 X-0.614 Z0 S0 F1600
G1 X-9.539 Z0 S800 F1600
G1 X-2.065 Z0 S0 F1600
G1 X-14.091 Z0 S800 F1600
G1 X-0.914 Z0 S0 F1600
G1 X-0.752 Z0 S800 F1600
G1 X-0.576 Z0 S0 F1600
G1 X-0.853 Z0 S800 F1600
G1 X-2.075 Y0.9 Z0 S0 F1600
G1 X0.771 Z0 S800 F1600
G1 X2.073 Z0 S0 F1600
G1 X2.757 Z0 S800 F1600
G1 X0.882 Z0 S0 F1600
G1 X5.595 Z0 S800 F1600
G1 X1.472 Z0 S0 F1600
G1 X17.858 Z0 S800 F1600
G1 X0.495 Z0 S0 F1600
G1 X4.389 Z0 S800 F1600
G1 X0.286 Z0 S0 F1600
G1 X0.382 Z0 S800 F1600
G1 X0.256 Z0 S0 F1600
G1 X6.065 Z0 S800 F1600
G1 Y0.9 Z0 S0 F1600
G1 X-10.047 Z0 S800 F1600
G1 X-1.452 Z0 S0 F1600
G1 X-9.624 Z0 S800 F1600
G1 X-7.941 Z0 S0 F1600
G1 X-2.24 Z0 S800 F1600
G1 X-1.141 Z0 S0 F1600
G1 X-3.211 Z0 S800 F1600
G1 X-0.685 Z0 S0 F1600
G1 X-4.162 Z0 S800 F1600
G1 X4.187 Y0.9 Z0 S0 F1600
G1 X3.042 Z0 S800 F1600
G1 X0.912 Z0 S0 F1600
G1 X0.889 Z0 S800 F1600
G1 X3.795 Z0 S0 F1600
G1 X16.941 Z0 S800 F1600
G1 X0.959 Z0 S0 F1600
G1 X9.778 Z0 S800 F1600
G1 Y0.9 Z0 S0 F1600
G1 X-11.249 Z0 S800 F1600
G1 X-0.291 Z0 S0 F1600
G1 X-13.635 Z0 S800 F1600
G1 X-4.486 Z0 S0 F1600
G1 X-2.919 Z0 S800 F1600
G1 X-1.593 Z0 S0 F1600
G1 X-2.299 Z0 S800 F1600
G1 X19.314 Y0.9 Z0 S0 F1600
G1 X0.348 Z0 S800 F1600
G1 X0.991 Z0 S0 F1600
G1 X15.819 Z0 S800 F1600
G1 Y0.9 Z0 S0 F1600
G1 X-17.799 Z0 S800 F1600
G1 X-5.034 Z0 S0 F1600
G1 X-1.328 Z0 S800 F1600
G1 X-10.561 Z0 S0 F1600
G1 X-0.452 Z0 S800 F1600
G1 X11.057 Y0.9 Z0 S0 F1600
G1 X24.117 Z0 S800 F1600
G1 Y0.9 Z0 S0 F1600
G1 X-23.807 Z0 S800 F1600
G1 X-9.695 Y0.9 Z0 S0 F1600
G1 X0.239 Z0 S800 F1600
G1 X0.643 Z0 S0 F1600
G1 X0.429 Z0 S800 F1600
G1 X0.484 Z0 S0 F1600
G1 X0.052 Z0 S800 F1600
G1 X3.767 Z0 S0 F1600
G1 X0.264 Z0 S800 F1600
G1 X0.443 Z0 S0 F1600
G1 X0.013 Z0 S800 F1600
G1 X0.909 Z0 S0 F1600
G1 X0.394 Z0 S800 F1600
G1 X0.56 Z0 S0 F1600
G1 X0.286 Z0 S800 F1600
G1 X0.039 Z0 S0 F1600
G1 X0.299 Z0 S800 F1600
G1 X3.276 Z0 S0 F1600
G1 X21.405 Z0 S800 F1600
G1 Y0.9 Z0 S0 F1600
G1 X-20.844 Z0 S800 F1600
G1 X-2.582 Z0 S0 F1600
G1 X-8.063 Z0 S800 F1600
G1 X2.621 Y0.9 Z0 S0 F1600
G1 X0.172 Z0 S800 F1600
G1 X0.167 Z0 S0 F1600
G1 X0.726 Z0 S800 F1600
G1 X0.197 Z0 S0 F1600
G1 X0.412 Z0 S800 F1600
G1 X0.402 Z0 S0 F1600
G1 X0.154 Z0 S800 F1600
G1 X0.543 Z0 S0 F1600
G1 X0.328 Z0 S800 F1600
G1 X0.218 Z0 S0 F1600
G1 X0.568 Z0 S800 F1600
G1 X0.089 Z0 S0 F1600
G1 X1.031 Z0 S800 F1600
G1 X5.856 Z0 S0 F1600
G1 X4.283 Z0 S800 F1600
G1 X0.413 Z0 S0 F1600
G1 X13.309 Z0 S800 F1600
G1 Y0.9 Z0 S0 F1600
G1 X-13.467 Z0 S800 F1600
G1 X-0.914 Z0 S0 F1600
G1 X-3.244 Z0 S800 F1600
G1 X-0.086 Z0 S0 F1600
G1 X-0.124 Z0 S800 F1600
G1 X-5.922 Z0 S0 F1600
G1 X-0.066 Z0 S800 F1600
G1 X-0.162 Z0 S0 F1600
G1 X-0.122 Z0 S800 F1600
G1 X-1.864 Z0 S0 F1600
G1 X-1.037 Z0 S800 F1600
G1 X-0.966 Y0.9 Z0 S0 F1600
G1 X0.229 Z0 S800 F1600
G1 X1.283 Z0 S0 F1600
G1 X0.236 Z0 S800 F1600
G1 X7.855 Z0 S0 F1600
G1 X0.18 Z0 S800 F1600
G1 X0.555 Z0 S0 F1600
G1 X1.717 Z0 S800 F1600
G1 X1.513 Z0 S0 F1600
G1 X14.406 Z0 S800 F1600
G1 Y0.9 Z0 S0 F1600
G1 X-14.22 Z0 S800 F1600
G1 X-16.162 Z0 S0 F1600
G1 X-0.31 Z0 S800 F1600
G1 X-1.396 Z0 S0 F1600
G1 X-0.376 Z0 S800 F1600
G1 X-0.306 Z0 S0 F1600
G1 X-3.011 Z0 S800 F1600
G1 X-12.451 Z0 S0 F1600
G1 X-0.314 Z0 S800 F1600
G1 X-0.226 Z0 S0 F1600
G1 X-0.575 Z0 S800 F1600
G1 X-0.288 Z0 S0 F1600
G1 X-0.403 Z0 S800 F1600
G1 X-0.796 Z0 S0 F1600
G1 X-1.113 Z0 S800 F1600
G1 X-12.286 Y0.9 Z0 S0 F1600
G1 X0.348 Z0 S800 F1600
G1 X0.246 Z0 S0 F1600
G1 X0.358 Z0 S800 F1600
G1 X2.288 Z0 S0 F1600
G1 X0.122 Z0 S800 F1600
G1 X7.936 Z0 S0 F1600
G1 X2.191 Z0 S800 F1600
G1 X1.068 Z0 S0 F1600
G1 X1.604 Z0 S800 F1600
G1 X1.271 Z0 S0 F1600
G1 X0.252 Z0 S800 F1600
G1 X8.916 Z0 S0 F1600
G1 X2.511 Z0 S800 F1600
G1 X0.403 Z0 S0 F1600
G1 X1.291 Z0 S800 F1600
G1 X0.23 Z0 S0 F1600
G1 X1.809 Z0 S800 F1600
G1 X10.971 Z0 S0 F1600
G1 X20.418 Z0 S800 F1600
G1 Y0.9 Z0 S0 F1600
G1 X-21.129 Z0 S800 F1600
G1 X-16.042 Z0 S0 F1600
G1 X-9.14 Z0 S800 F1600
G1 X-0.138 Z0 S0 F1600
G1 X-0.263 Z0 S800 F1600
G1 X-1.24 Z0 S0 F1600
G1 X-1.104 Z0 S800 F1600
G1 X-0.808 Z0 S0 F1600
G1 X-0.305 Z0 S800 F1600
G1 X-0.507 Z0 S0 F1600
G1 X-2.788 Z0 S800 F1600
G1 X-1.752 Z0 S0 F1600
G1 X-0.104 Z0 S800 F1600
G1 X-0.593 Z0 S0 F1600
G1 X-3.108 Z0 S800 F1600
G1 X-2.201 Z0 S0 F1600
G1 X-1.677 Z0 S800 F1600
G1 X-1.635 Y0.9 Z0 S0 F1600
G1 X0.515 Z0 S800 F1600
G1 X3.893 Z0 S0 F1600
G1 X5.042 Z0 S800 F1600
G1 X0.713 Z0 S0 F1600
G1 X3.783 Z0 S800 F1600
G1 X0.806 Z0 S0 F1600
G1 X1.986 Z0 S800 F1600
G1 X1.073 Z0 S0 F1600
G1 X6.562 Z0 S800 F1600
G1 X1.174 Z0 S0 F1600
G1 X10.825 Z0 S800 F1600
G1 X0.558 Z0 S0 F1600
G1 X0.755 Z0 S800 F1600
G1 X4.999 Z0 S0 F1600
G1 X21.85 Z0 S800 F1600
G1 Y0.9 Z0 S0 F1600
G1 X-21.716 Z0 S800 F1600
G1 X-0.166 Z0 S0 F1600
G1 X-18.578 Z0 S800 F1600
G1 X-2.364 Z0 S0 F1600
G1 X-3.58 Z0 S800 F1600
G1 X-1.249 Z0 S0 F1600
G1 X-2.026 Z0 S800 F1600
G1 X-0.845 Z0 S0 F1600
G1 X-8.008 Z0 S800 F1600
G1 X-2.403 Z0 S0 F1600
G1 X-3.633 Z0 S800 F1600
G1 X-0.007 Y0.9 Z0 S0 F1600
G1 X4.325 Z0 S800 F1600
G1 X0.41 Z0 S0 F1600
G1 X0.836 Z0 S800 F1600
G1 X7.713 Z0 S0 F1600
G1 X3.718 Z0 S800 F1600
G1 X4.674 Z0 S0 F1600
G1 X0.876 Z0 S800 F1600
G1 X0.234 Z0 S0 F1600
G1 X0.449 Z0 S800 F1600
G1 X0.771 Z0 S0 F1600
G1 X1.906 Z0 S800 F1600
G1 X0.371 Z0 S0 F1600
G1 X1.88 Z0 S800 F1600
G1 X0.537 Z0 S0 F1600
G1 X0.382 Z0 S800 F1600
G1 X2.272 Z0 S0 F1600
G1 X0.241 Z0 S800 F1600
G1 X0.74 Z0 S0 F1600
G1 X0.156 Z0 S800 F1600
G1 X1.729 Z0 S0 F1600
G1 X1.008 Z0 S800 F1600
G1 X0.207 Z0 S0 F1600
G1 X29.14 Z0 S800 F1600
G1 Y0.9 Z0 S0 F1600
G1 X-30.331 Z0 S800 F1600
G1 X-8.853 Z0 S0 F1600
G1 X-0.109 Z0 S800 F1600
G1 X-8.724 Z0 S0 F1600
G1 X-0.344 Z0 S800 F1600
G1 X-0.22 Z0 S0 F1600
G1 X-1.182 Z0 S800 F1600
G1 X-0.331 Z0 S0 F1600
G1 X-0.976 Z0 S800 F1600
G1 X-6.067 Z0 S0 F1600
G1 X-1.975 Z0 S800 F1600
G1 X-0.539 Z0 S0 F1600
G1 X-4.907 Z0 S800 F1600
G1 X0.126 Y0.9 Z0 S0 F1600
G1 X6.015 Z0 S800 F1600
G1 X1.299 Z0 S0 F1600
G1 X0.763 Z0 S800 F1600
G1 X0.106 Z0 S0 F1600
G1 X2.271 Z0 S800 F1600
G1 X6.161 Z0 S0 F1600
G1 X0.596 Z0 S800 F1600
G1 X0.968 Z0 S0 F1600
G1 X2.794 Z0 S800 F1600
G1 X12.498 Z0 S0 F1600
G1 X1.221 Z0 S800 F1600
G1 X0.35 Z0 S0 F1600
G1 X3.46 Z0 S800 F1600
G1 X1.773 Z0 S0 F1600
G1 X24.157 Z0 S800 F1600
G1 Y0.9 Z0 S0 F1600
G1 X-24.784 Z0 S800 F1600
G1 X-0.692 Z0 S0 F1600
G1 X-0.766 Z0 S800 F1600
G1 X-1.301 Z0 S0 F1600
G1 X-8.541 Z0 S800 F1600
G1 X-3.999 Z0 S0 F1600
G1 X-6.045 Z0 S800 F1600
G1 X-0.869 Z0 S0 F1600
G1 X-9.442 Z0 S800 F1600
G1 X-0.378 Z0 S0 F1600
G1 X-5.567 Z0 S800 F1600
G1 X-2.062 Y0.9 Z0 S0 F1600
G1 X1.779 Z0 S800 F1600
G1 X3.742 Z0 S0 F1600
G1 X3.354 Z0 S800 F1600
G1 X1.398 Z0 S0 F1600
G1 X4.626 Z0 S800 F1600
G1 X0.941 Z0 S0 F1600
G1 X1.71 Z0 S800 F1600
G1 X1.18 Z0 S0 F1600
G1 X9.729 Z0 S800 F1600
G1 X1.999 Z0 S0 F1600
G1 X1.922 Z0 S800 F1600
G1 X0.141 Z0 S0 F1600
G1 X0.415 Z0 S800 F1600
G1 X1.549 Z0 S0 F1600
G1 X7.039 Z0 S800 F1600
G1 X0.042 Z0 S0 F1600
G1 X0.493 Z0 S800 F1600
G1 X0.168 Z0 S0 F1600
G1 X22.219 Z0 S800 F1600
G1 Y0.9 Z0 S0 F1600
G1 X-29.46 Z0 S800 F1600
G1 X-2.518 Z0 S0 F1600
G1 X-5.781 Z0 S800 F1600
G1 X-2.733 Z0 S0 F1600
G1 X-2.92 Z0 S800 F1600
G1 X-3.155 Z0 S0 F1600
G1 X-3.902 Z0 S800 F1600
G1 X-3.309 Z0 S0 F1600
G1 X-3.877 Z0 S800 F1600
G1 X-1.503 Z0 S0 F1600
G1 X-5.401 Z0 S800 F1600
G1 X-0.016 Y0.9 Z0 S0 F1600
G1 X7.701 Z0 S800 F1600
G1 X0.311 Z0 S0 F1600
G1 X4.546 Z0 S800 F1600
G1 X1.988 Z0 S0 F1600
G1 X3.553 Z0 S800 F1600
G1 X0.854 Z0 S0 F1600
G1 X2.364 Z0 S800 F1600
G1 X3.208 Z0 S0 F1600
G1 X40.05 Z0 S800 F1600
G1 Y0.9 Z0 S0 F1600
G1 X-38.49 Z0 S800 F1600
G1 X-0.69 Z0 S0 F1600
G1 X-6.054 Z0 S800 F1600
G1 X-1.181 Z0 S0 F1600
G1 X-1.827 Z0 S800 F1600
G1 X-2.184 Z0 S0 F1600
G1 X-14.149 Z0 S800 F1600
G1 Y0.9 Z0 S0 F1600
G1 X16.626 Z0 S800 F1600
G1 X0.393 Z0 S0 F1600
G1 X1.203 Z0 S800 F1600
G1 X1.747 Z0 S0 F1600
G1 X44.607 Z0 S800 F1600
G1 Y0.9 Z0 S0 F1600
G1 X-43.833 Z0 S800 F1600
G1 X-0.273 Z0 S0 F1600
G1 X-1.344 Z0 S800 F1600
G1 X-1.061 Z0 S0 F1600
G1 X-18.065 Z0 S800 F1600
G90
;Offset @ 1500 mm/min, 90% power

M8
G0 Z3.5 F1000
G0 X12.417 Y123.009 Z3.5 F1500
G1 Z0 F1000
;Layer C1
G1 X12.68 Y123.052 Z0 S900 F1600
G1 X12.974 Y123.116 Z0 F1600
G1 X13.292 Y123.199 Z0 F1600
G1 X13.958 Y123.413 Z0 F1600
G1 X14.609 Y123.672 Z0 F1600
G1 X14.907 Y123.813 Z0 F1600
G1 X15.172 Y123.957 Z0 F1600
G1 X15.398 Y124.103 Z0 F1600
G1 X15.575 Y124.247 Z0 F1600
G1 X15.799 Y124.437 Z0 F1600
G1 X16.049 Y124.605 Z0 F1600
G1 X16.294 Y124.736 Z0 F1600
G1 X16.504 Y124.809 Z0 F1600
G1 X16.792 Y124.931 Z0 F1600
G1 X17.076 Y125.147 Z0 F1600
G1 X17.197 Y125.272 Z0 F1600
G1 X17.293 Y125.397 Z0 F1600
G1 X17.357 Y125.517 Z0 F1600
G1 X17.38 Y125.623 Z0 F1600
G1 X17.327 Y125.637 Z0 F1600
G1 X17.183 Y125.628 Z0 F1600
G1 X16.97 Y125.598 Z0 F1600
G1 X16.708 Y125.552 Z0 F1600
G1 X16.132 Y125.43 Z0 F1600
G1 X15.63 Y125.292 Z0 F1600
G1 X15.441 Y125.214 Z0 F1600
G1 X15.248 Y125.106 Z0 F1600
G1 X15.072 Y124.982 Z0 F1600
G1 X14.75 Y124.682 Z0 F1600
G1 X14.515 Y124.521 Z0 F1600
G1 X14.235 Y124.375 Z0 F1600
G1 X13.914 Y124.246 Z0 F1600
G1 X13.553 Y124.134 Z0 F1600
G1 X13.156 Y124.041 Z0 F1600
G1 X12.726 Y123.967 Z0 F1600
G1 X11.771 Y123.86 Z0 F1600
G1 X11.303 Y123.788 Z0 F1600
G1 X11.096 Y123.749 Z0 F1600
G1 X10.915 Y123.709 Z0 F1600
G1 X10.767 Y123.67 Z0 F1600
G1 X10.474 Y123.566 Z0 F1600
G1 X10.275 Y123.517 Z0 F1600
G1 X10.087 Y123.488 Z0 F1600
G1 X9.934 Z0 F1600
G1 X9.776 Y123.492 Z0 F1600
G1 X9.64 Y123.479 Z0 F1600
G1 X9.53 Y123.452 Z0 F1600
G1 X9.453 Y123.413 Z0 F1600
G1 X9.412 Y123.366 Z0 F1600
G1 Y123.314 Z0 F1600
G1 X9.461 Y123.262 Z0 F1600
G1 X9.56 Y123.213 Z0 F1600
G1 X9.678 Y123.187 Z0 F1600
G1 X9.8 Z0 F1600
G1 X9.913 Y123.208 Z0 F1600
G1 X10.001 Y123.254 Z0 F1600
G1 X10.079 Y123.307 Z0 F1600
G1 X10.132 Y123.319 Z0 F1600
G1 X10.164 Y123.293 Z0 F1600
G1 X10.174 Y123.228 Z0 F1600
G1 X10.189 Y123.171 Z0 F1600
G1 X10.231 Y123.162 Z0 F1600
G1 X10.299 Y123.198 Z0 F1600
G1 X10.392 Y123.28 Z0 F1600
G1 X10.495 Y123.373 Z0 F1600
G1 X10.587 Y123.439 Z0 F1600
G1 X10.668 Y123.477 Z0 F1600
G1 X10.737 Y123.487 Z0 F1600
G1 X10.794 Y123.47 Z0 F1600
G1 X10.837 Y123.426 Z0 F1600
G1 X10.865 Y123.354 Z0 F1600
G1 X10.878 Y123.255 Z0 F1600
G1 X10.888 Y123.168 Z0 F1600
G1 X10.905 Y123.126 Z0 F1600
G1 X10.93 Y123.132 Z0 F1600
G1 X10.959 Y123.187 Z0 F1600
G1 X10.997 Y123.248 Z0 F1600
G1 X11.046 Y123.287 Z0 F1600
G1 X11.102 Y123.299 Z0 F1600
G1 X11.156 Y123.282 Z0 F1600
G1 X11.206 Y123.275 Z0 F1600
G1 X11.246 Y123.313 Z0 F1600
G1 X11.273 Y123.389 Z0 F1600
G1 X11.283 Y123.496 Z0 F1600
G1 Y123.589 Z0 F1600
G1 X11.29 Y123.657 Z0 F1600
G1 X11.303 Y123.699 Z0 F1600
G1 X11.328 Y123.715 Z0 F1600
G1 X11.368 Y123.707 Z0 F1600
G1 X11.427 Y123.674 Z0 F1600
G1 X11.508 Y123.618 Z0 F1600
G1 X11.615 Y123.539 Z0 F1600
G1 X11.74 Y123.436 Z0 F1600
G1 X11.835 Y123.339 Z0 F1600
G1 X11.892 Y123.261 Z0 F1600
G1 X11.899 Y123.21 Z0 F1600
G1 X11.867 Y123.106 Z0 F1600
G1 X11.912 Y123.037 Z0 F1600
G1 X12.024 Y122.999 Z0 F1600
G1 X12.196 Y122.991 Z0 F1600
G1 X12.417 Y123.009 Z0 F1600
G0 Z3.5 F1000
G0 X11.07 Y122.706 Z3.5 
G1 Z0 F1000
G1 X11.185 Y122.744 Z0 F1600
G1 X11.275 Y122.787 Z0 F1600
G1 X11.338 Y122.834 Z0 F1600
G1 X11.367 Y122.879 Z0 F1600
G1 X11.356 Y122.917 Z0 F1600
G1 X11.313 Y122.933 Z0 F1600
G1 X11.251 Y122.92 Z0 F1600
G1 X11.18 Y122.882 Z0 F1600
G1 X11.107 Y122.822 Z0 F1600
G1 X11.035 Y122.741 Z0 F1600
G1 X11.021 Y122.704 Z0 F1600
G1 X11.07 Z0 F1600
G0 Z3.5 F1000
G0 X9.385 Y122.155 Z3.5 
G1 Z0 F1000
G1 X9.435 Y122.175 Z0 F1600
G1 X9.62 Y122.261 Z0 F1600
G1 X9.763 Y122.331 Z0 F1600
G1 X9.875 Y122.388 Z0 F1600
G1 X9.957 Y122.434 Z0 F1600
G1 X10.009 Y122.47 Z0 F1600
G1 X10.033 Y122.497 Z0 F1600
G1 X10.03 Y122.514 Z0 F1600
G1 X10.001 Y122.524 Z0 F1600
G1 X9.947 Y122.527 Z0 F1600
G1 X9.873 Y122.51 Z0 F1600
G1 X9.772 Y122.464 Z0 F1600
G1 X9.658 Y122.396 Z0 F1600
G1 X9.542 Y122.312 Z0 F1600
G1 X9.402 Y122.196 Z0 F1600
G1 X9.37 Y122.166 Z0 F1600
G1 X9.364 Y122.152 Z0 F1600
G1 X9.385 Y122.155 Z0 F1600
G0 Z3.5 F1000
G0 X14.904 Y121.459 Z3.5 
G1 Z0 F1000
G1 X14.886 Y121.557 Z0 F1600
G1 X14.897 Y121.611 Z0 F1600
G1 X14.929 Y121.655 Z0 F1600
G1 X14.976 Y121.685 Z0 F1600
G1 X15.033 Y121.696 Z0 F1600
G1 X15.083 Y121.685 Z0 F1600
G1 X15.111 Y121.655 Z0 F1600
G1 X15.116 Y121.611 Z0 F1600
G1 X15.094 Y121.557 Z0 F1600
G1 X15.016 Y121.459 Z0 F1600
G1 X14.947 Y121.419 Z0 F1600
G1 X14.904 Y121.459 Z0 F1600
G0 Z3.5 F1000
G0 X14.726 Y121.394 Z3.5 
G1 Z0 F1000
G1 X14.712 Y121.369 Z0 F1600
G1 X14.665 Y121.308 Z0 F1600
G1 X14.47 Y121.072 Z0 F1600
G1 X14.215 Y120.762 Z0 F1600
G1 X14.13 Y120.654 Z0 F1600
G1 X14.089 Y120.599 Z0 F1600
G1 X14.065 Z0 F1600
G1 X14.055 Y120.679 Z0 F1600
G1 X14.084 Y120.759 Z0 F1600
G1 X14.167 Y120.875 Z0 F1600
G1 X14.288 Y121.011 Z0 F1600
G1 X14.436 Y121.152 Z0 F1600
G1 X14.65 Y121.34 Z0 F1600
G1 X14.706 Y121.384 Z0 F1600
G1 X14.726 Y121.394 Z0 F1600
G0 Z3.5 F1000
G0 X15.693 Y121.82 Z3.5 
G1 Z0 F1000
G1 X15.821 Y121.855 Z0 F1600
G1 X16.035 Y121.871 Z0 F1600
G1 X16.324 Y121.864 Z0 F1600
G1 X16.542 Y121.853 Z0 F1600
G1 X16.707 Y121.848 Z0 F1600
G1 X16.819 Y121.851 Z0 F1600
G1 X16.886 Y121.863 Z0 F1600
G1 X16.909 Y121.886 Z0 F1600
G1 X16.895 Y121.922 Z0 F1600
G1 X16.845 Y121.972 Z0 F1600
G1 X16.765 Y122.038 Z0 F1600
G1 X16.67 Y122.125 Z0 F1600
G1 X16.62 Y122.208 Z0 F1600
G1 X16.616 Y122.291 Z0 F1600
G1 X16.664 Y122.38 Z0 F1600
G1 X16.767 Y122.48 Z0 F1600
G1 X16.93 Y122.596 Z0 F1600
G1 X17.156 Y122.733 Z0 F1600
G1 X17.45 Y122.896 Z0 F1600
G1 X17.617 Y122.991 Z0 F1600
G1 X17.764 Y123.083 Z0 F1600
G1 X17.875 Y123.163 Z0 F1600
G1 X17.935 Y123.219 Z0 F1600
G1 X17.992 Y123.267 Z0 F1600
G1 X18.096 Y123.325 Z0 F1600
G1 X18.231 Y123.386 Z0 F1600
G1 X18.385 Y123.442 Z0 F1600
G1 X18.53 Y123.5 Z0 F1600
G1 X18.644 Y123.563 Z0 F1600
G1 X18.715 Y123.625 Z0 F1600
G1 X18.731 Y123.678 Z0 F1600
G1 X18.768 Y123.747 Z0 F1600
G1 X18.892 Y123.84 Z0 F1600
G1 X19.079 Y123.947 Z0 F1600
G1 X19.3 Y124.056 Z0 F1600
G1 X19.531 Y124.153 Z0 F1600
G1 X19.744 Y124.228 Z0 F1600
G1 X19.913 Y124.267 Z0 F1600
G1 X20.013 Y124.26 Z0 F1600
G1 X20.062 Y124.249 Z0 F1600
G1 X20.112 Y124.269 Z0 F1600
G1 X20.16 Y124.316 Z0 F1600
G1 X20.197 Y124.386 Z0 F1600
G1 X20.26 Y124.469 Z0 F1600
G1 X20.375 Y124.551 Z0 F1600
G1 X20.528 Y124.622 Z0 F1600
G1 X20.896 Y124.735 Z0 F1600
G1 X21.114 Y124.832 Z0 F1600
G1 X21.326 Y124.95 Z0 F1600
G1 X21.506 Y125.077 Z0 F1600
G1 X21.708 Y125.229 Z0 F1600
G1 X21.977 Y125.416 Z0 F1600
G1 X22.278 Y125.613 Z0 F1600
G1 X22.577 Y125.797 Z0 F1600
G1 X23.002 Y126.042 Z0 F1600
G1 X23.455 Y126.283 Z0 F1600
G1 X23.725 Y126.418 Z0 F1600
G1 X24.043 Y126.574 Z0 F1600
G1 X24.877 Y126.972 Z0 F1600
G1 X25.12 Y127.068 Z0 F1600
G1 X25.378 Y127.139 Z0 F1600
G1 X25.636 Y127.186 Z0 F1600
G1 X25.872 Y127.206 Z0 F1600
G1 X26.07 Y127.2 Z0 F1600
G1 X26.211 Y127.167 Z0 F1600
G1 X26.277 Y127.106 Z0 F1600
G1 X26.249 Y127.018 Z0 F1600
G1 X26.142 Y126.878 Z0 F1600
G1 X26.117 Y126.841 Z0 F1600
G1 X26.11 Y126.824 Z0 F1600
G1 X26.124 Z0 F1600
G1 X26.157 Y126.847 Z0 F1600
G1 X26.284 Y126.944 Z0 F1600
G1 X26.419 Y127.065 Z0 F1600
G1 X26.502 Y127.173 Z0 F1600
G1 X26.537 Y127.266 Z0 F1600
G1 X26.522 Y127.342 Z0 F1600
G1 X26.461 Y127.397 Z0 F1600
G1 X26.354 Y127.432 Z0 F1600
G1 X26.202 Y127.442 Z0 F1600
G1 X26.007 Y127.425 Z0 F1600
G1 X25.604 Y127.355 Z0 F1600
G1 X25.201 Y127.253 Z0 F1600
G1 X24.782 Y127.114 Z0 F1600
G1 X24.33 Y126.93 Z0 F1600
G1 X23.829 Y126.694 Z0 F1600
G1 X23.265 Y126.4 Z0 F1600
G1 X22.954 Y126.229 Z0 F1600
G1 X22.621 Y126.04 Z0 F1600
G1 X22.265 Y125.833 Z0 F1600
G1 X21.882 Y125.607 Z0 F1600
G1 X21.438 Y125.355 Z0 F1600
G1 X20.947 Y125.098 Z0 F1600
G1 X20.47 Y124.864 Z0 F1600
G1 X19.305 Y124.353 Z0 F1600
G1 X18.638 Y123.997 Z0 F1600
G1 X18.309 Y123.792 Z0 F1600
G1 X17.966 Y123.56 Z0 F1600
G1 X17.598 Y123.293 Z0 F1600
G1 X17.193 Y122.985 Z0 F1600
G1 X16.808 Y122.7 Z0 F1600
G1 X16.463 Y122.466 Z0 F1600
G1 X16.317 Y122.376 Z0 F1600
G1 X16.195 Y122.308 Z0 F1600
G1 X16.102 Y122.265 Z0 F1600
G1 X16.042 Y122.25 Z0 F1600
G1 X15.97 Y122.239 Z0 F1600
G1 X15.926 Y122.207 Z0 F1600
G1 X15.912 Y122.16 Z0 F1600
G1 X15.952 Y122.047 Z0 F1600
G1 X15.94 Y122.005 Z0 F1600
G1 X15.901 Y121.982 Z0 F1600
G1 X15.835 Z0 F1600
G1 X15.522 Y121.993 Z0 F1600
G1 X15.243 Y121.925 Z0 F1600
G1 X15.102 Y121.854 Z0 F1600
G1 X14.952 Y121.755 Z0 F1600
G1 X14.787 Y121.626 Z0 F1600
G1 X14.602 Y121.465 Z0 F1600
G1 X14.216 Y121.08 Z0 F1600
G1 X13.923 Y120.726 Z0 F1600
G1 X13.833 Y120.592 Z0 F1600
G1 X13.793 Y120.502 Z0 F1600
G1 X13.813 Y120.471 Z0 F1600
G1 X13.902 Y120.51 Z0 F1600
G1 X13.961 Y120.532 Z0 F1600
G1 X14.01 Y120.522 Z0 F1600
G1 X14.043 Y120.485 Z0 F1600
G1 X14.055 Y120.422 Z0 F1600
G1 X14.076 Y120.386 Z0 F1600
G1 X14.133 Y120.421 Z0 F1600
G1 X14.217 Y120.521 Z0 F1600
G1 X14.319 Y120.674 Z0 F1600
G1 X14.467 Y120.863 Z0 F1600
G1 X14.672 Y121.056 Z0 F1600
G1 X14.908 Y121.232 Z0 F1600
G1 X15.148 Y121.367 Z0 F1600
G1 X15.363 Y121.479 Z0 F1600
G1 X15.532 Y121.591 Z0 F1600
G1 X15.637 Y121.691 Z0 F1600
G1 X15.663 Y121.766 Z0 F1600
G1 X15.693 Y121.82 Z0 F1600
G0 Z3.5 F1000
G0 X16.814 Y121.034 Z3.5 
G1 Z0 F1000
G1 X16.933 Y121.055 Z0 F1600
G1 X17.09 Y121.092 Z0 F1600
G1 X17.284 Y121.144 Z0 F1600
G1 X17.509 Y121.208 Z0 F1600
G1 X17.761 Y121.287 Z0 F1600
G1 X18.294 Y121.447 Z0 F1600
G1 X18.799 Y121.58 Z0 F1600
G1 X19.022 Y121.632 Z0 F1600
G1 X19.218 Y121.672 Z0 F1600
G1 X19.377 Y121.698 Z0 F1600
G1 X19.494 Y121.709 Z0 F1600
G1 X19.914 Y121.755 Z0 F1600
G1 X20.291 Y121.846 Z0 F1600
G1 X20.348 Y121.873 Z0 F1600
G1 Y121.896 Z0 F1600
G1 X20.297 Y121.912 Z0 F1600
G1 X20.19 Y121.923 Z0 F1600
G1 X20.03 Y121.93 Z0 F1600
G1 X19.816 Z0 F1600
G1 X19.549 Y121.925 Z0 F1600
G1 X18.898 Y121.905 Z0 F1600
G1 X18.604 Y121.902 Z0 F1600
G1 X18.35 Y121.905 Z0 F1600
G1 X18.133 Y121.915 Z0 F1600
G1 X17.956 Y121.932 Z0 F1600
G1 X17.816 Y121.955 Z0 F1600
G1 X17.716 Y121.985 Z0 F1600
G1 X17.654 Y122.021 Z0 F1600
G1 X17.579 Y122.085 Z0 F1600
G1 X17.553 Z0 F1600
G1 X17.575 Y122.014 Z0 F1600
G1 X17.646 Y121.869 Z0 F1600
G1 X17.717 Y121.713 Z0 F1600
G1 X17.735 Y121.618 Z0 F1600
G1 X17.698 Y121.57 Z0 F1600
G1 X17.52 Y121.543 Z0 F1600
G1 X17.438 Y121.506 Z0 F1600
G1 X17.369 Y121.451 Z0 F1600
G1 X17.322 Y121.384 Z0 F1600
G1 X17.295 Y121.35 Z0 F1600
G1 X17.283 Y121.384 Z0 F1600
G1 X17.286 Y121.479 Z0 F1600
G1 X17.324 Y121.774 Z0 F1600
G1 X17.328 Y121.869 Z0 F1600
G1 X17.318 Y121.904 Z0 F1600
G1 X17.25 Y121.802 Z0 F1600
G1 X17.185 Y121.747 Z0 F1600
G1 X17.107 Y121.709 Z0 F1600
G1 X17.027 Y121.696 Z0 F1600
G1 X16.954 Y121.681 Z0 F1600
G1 X16.91 Y121.637 Z0 F1600
G1 X16.897 Y121.57 Z0 F1600
G1 X16.917 Y121.481 Z0 F1600
G1 X16.931 Y121.381 Z0 F1600
G1 X16.902 Y121.272 Z0 F1600
G1 X16.837 Y121.167 Z0 F1600
G1 X16.739 Y121.072 Z0 F1600
G1 X16.713 Y121.042 Z0 F1600
G1 X16.74 Y121.029 Z0 F1600
G1 X16.814 Y121.034 Z0 F1600
G0 Z3.5 F1000
G0 X15.001 Y120.202 Z3.5 
G1 Z0 F1000
G1 X15.092 Y120.231 Z0 F1600
G1 X15.208 Y120.274 Z0 F1600
G1 X15.348 Y120.331 Z0 F1600
G1 X15.51 Y120.4 Z0 F1600
G1 X15.786 Y120.525 Z0 F1600
G1 X16.023 Y120.637 Z0 F1600
G1 X16.216 Y120.732 Z0 F1600
G1 X16.356 Y120.808 Z0 F1600
G1 X16.438 Y120.859 Z0 F1600
G1 X16.456 Y120.884 Z0 F1600
G1 X16.403 Y120.877 Z0 F1600
G1 X16.272 Y120.836 Z0 F1600
G1 X16.045 Y120.759 Z0 F1600
G1 X15.86 Y120.699 Z0 F1600
G1 X15.713 Y120.657 Z0 F1600
G1 X15.604 Y120.631 Z0 F1600
G1 X15.528 Y120.622 Z0 F1600
G1 X15.485 Y120.628 Z0 F1600
G1 X15.472 Y120.651 Z0 F1600
G1 X15.486 Y120.688 Z0 F1600
G1 X15.501 Y120.739 Z0 F1600
G1 X15.484 Y120.78 Z0 F1600
G1 X15.438 Y120.808 Z0 F1600
G1 X15.367 Y120.818 Z0 F1600
G1 X15.28 Y120.809 Z0 F1600
G1 X15.244 Y120.778 Z0 F1600
G1 X15.258 Y120.721 Z0 F1600
G1 X15.37 Y120.562 Z0 F1600
G1 X15.391 Y120.503 Z0 F1600
G1 X15.383 Y120.463 Z0 F1600
G1 X15.345 Y120.449 Z0 F1600
G1 X15.274 Y120.433 Z0 F1600
G1 X15.175 Y120.388 Z0 F1600
G1 X15.062 Y120.322 Z0 F1600
G1 X14.947 Y120.241 Z0 F1600
G1 X14.91 Y120.207 Z0 F1600
G1 Y120.189 Z0 F1600
G1 X14.939 Z0 F1600
G1 X15.001 Y120.202 Z0 F1600
G0 Z3.5 F1000
G0 X14.258 Y119.795 Z3.5 
G1 Z0 F1000
G1 X14.372 Y119.834 Z0 F1600
G1 X14.463 Y119.876 Z0 F1600
G1 X14.525 Y119.923 Z0 F1600
G1 X14.554 Y119.968 Z0 F1600
G1 X14.543 Y120.006 Z0 F1600
G1 X14.5 Y120.022 Z0 F1600
G1 X14.438 Y120.01 Z0 F1600
G1 X14.367 Y119.972 Z0 F1600
G1 X14.295 Y119.912 Z0 F1600
G1 X14.222 Y119.831 Z0 F1600
G1 X14.208 Y119.793 Z0 F1600
G1 X14.258 Z0 F1600
G0 Z3.5 F1000
G0 X12.481 Y118.968 Z3.5 
G1 Z0 F1000
G1 X12.669 Y119.063 Z0 F1600
G1 X12.739 Y119.115 Z0 F1600
G1 X12.775 Y119.158 Z0 F1600
G1 Y119.187 Z0 F1600
G1 X12.738 Y119.197 Z0 F1600
G1 X12.579 Y119.158 Z0 F1600
G1 X12.392 Y119.063 Z0 F1600
G1 X12.322 Y119.011 Z0 F1600
G1 X12.286 Y118.968 Z0 F1600
G1 Y118.939 Z0 F1600
G1 X12.322 Y118.928 Z0 F1600
G1 X12.481 Y118.968 Z0 F1600
G0 Z3.5 F1000
G0 X11.189 Y118.564 Z3.5 
G1 Z0 F1000
G1 X11.353 Y118.594 Z0 F1600
G1 X11.707 Y118.694 Z0 F1600
G1 X11.976 Y118.806 Z0 F1600
G1 X12.037 Y118.852 Z0 F1600
G1 X12.021 Y118.873 Z0 F1600
G1 X11.932 Y118.868 Z0 F1600
G1 X11.768 Y118.838 Z0 F1600
G1 X11.414 Y118.739 Z0 F1600
G1 X11.145 Y118.626 Z0 F1600
G1 X11.083 Y118.581 Z0 F1600
G1 X11.099 Y118.56 Z0 F1600
G1 X11.189 Y118.564 Z0 F1600
G0 Z3.5 F1000
G0 X12.6 Y117.693 Z3.5 
G1 Z0 F1000
G1 X12.557 Y117.712 Z0 F1600
G1 X12.495 Y117.748 Z0 F1600
G1 X12.412 Y117.8 Z0 F1600
G1 X12.343 Y117.856 Z0 F1600
G1 X12.312 Y117.911 Z0 F1600
G1 X12.318 Y117.961 Z0 F1600
G1 X12.362 Y118.005 Z0 F1600
G1 X12.422 Y118.022 Z0 F1600
G1 X12.484 Y118.005 Z0 F1600
G1 X12.539 Y117.958 Z0 F1600
G1 X12.581 Y117.884 Z0 F1600
G1 X12.628 Y117.748 Z0 F1600
G1 X12.625 Y117.692 Z0 F1600
G1 X12.6 Z0 F1600
G0 Z3.5 F1000
G0 X13.373 Y117.608 Z3.5 
G1 Z0 F1000
G1 X13.403 Y117.645 Z0 F1600
G1 X13.464 Y117.668 Z0 F1600
G1 X13.558 Y117.677 Z0 F1600
G1 X13.64 Y117.69 Z0 F1600
G1 X13.717 Y117.728 Z0 F1600
G1 X13.782 Y117.783 Z0 F1600
G1 X13.824 Y117.85 Z0 F1600
G1 X13.854 Y117.903 Z0 F1600
G1 X13.878 Y117.909 Z0 F1600
G1 X13.896 Y117.867 Z0 F1600
G1 X13.905 Y117.781 Z0 F1600
G1 X13.92 Y117.687 Z0 F1600
G1 X13.954 Y117.609 Z0 F1600
G1 X14.001 Y117.558 Z0 F1600
G1 X14.056 Y117.539 Z0 F1600
G1 X14.098 Y117.528 Z0 F1600
G1 X14.164 Y117.5 Z0 F1600
G1 X14.251 Y117.456 Z0 F1600
G1 X14.355 Y117.397 Z0 F1600
G1 X14.603 Y117.245 Z0 F1600
G1 X14.879 Y117.058 Z0 F1600
G1 X15.173 Y116.864 Z0 F1600
G1 X15.466 Y116.692 Z0 F1600
G1 X15.726 Y116.561 Z0 F1600
G1 X15.917 Y116.489 Z0 F1600
G1 X16.055 Y116.444 Z0 F1600
G1 X16.167 Y116.39 Z0 F1600
G1 X16.244 Y116.331 Z0 F1600
G1 X16.272 Y116.276 Z0 F1600
G1 X16.253 Y116.206 Z0 F1600
G1 X16.197 Y116.167 Z0 F1600
G1 X16.101 Y116.162 Z0 F1600
G1 X15.962 Y116.189 Z0 F1600
G1 X15.779 Y116.251 Z0 F1600
G1 X15.548 Y116.349 Z0 F1600
G1 X15.269 Y116.481 Z0 F1600
G1 X14.938 Y116.649 Z0 F1600
G1 X13.674 Y117.308 Z0 F1600
G1 X13.557 Y117.376 Z0 F1600
G1 X13.467 Y117.442 Z0 F1600
G1 X13.406 Y117.505 Z0 F1600
G1 X13.375 Y117.561 Z0 F1600
G1 Y117.608 Z0 F1600
G0 Z3.5 F1000
G0 X12.927 Y117.427 Z3.5 
G1 Z0 F1000
G1 X12.977 Y117.348 Z0 F1600
G1 X13.006 Y117.234 Z0 F1600
G1 X13.023 Y117.078 Z0 F1600
G1 X13.044 Y116.708 Z0 F1600
G1 X13.048 Y116.589 Z0 F1600
G1 Y116.512 Z0 F1600
G1 X13.036 Y116.475 Z0 F1600
G1 X13.016 Y116.478 Z0 F1600
G1 X12.984 Y116.518 Z0 F1600
G1 X12.94 Y116.592 Z0 F1600
G1 X12.881 Y116.7 Z0 F1600
G1 X12.815 Y116.844 Z0 F1600
G1 X12.77 Y116.984 Z0 F1600
G1 X12.749 Y117.104 Z0 F1600
G1 X12.756 Y117.19 Z0 F1600
G1 Y117.249 Z0 F1600
G1 X12.715 Y117.296 Z0 F1600
G1 X12.638 Y117.329 Z0 F1600
G1 X12.534 Y117.34 Z0 F1600
G1 X12.425 Y117.326 Z0 F1600
G1 X12.335 Y117.286 Z0 F1600
G1 X12.275 Y117.227 Z0 F1600
G1 X12.253 Y117.154 Z0 F1600
G1 X12.264 Y117.089 Z0 F1600
G1 X12.294 Y117.048 Z0 F1600
G1 X12.338 Y117.035 Z0 F1600
G1 X12.392 Y117.053 Z0 F1600
G1 X12.445 Y117.074 Z0 F1600
G1 X12.489 Y117.068 Z0 F1600
G1 X12.519 Y117.037 Z0 F1600
G1 X12.53 Y116.983 Z0 F1600
G1 X12.51 Y116.927 Z0 F1600
G1 X12.456 Y116.895 Z0 F1600
G1 X12.371 Y116.889 Z0 F1600
G1 X12.265 Y116.911 Z0 F1600
G1 X12.154 Y116.932 Z0 F1600
G1 X12.049 Y116.925 Z0 F1600
G1 X11.961 Y116.893 Z0 F1600
G1 X11.851 Y116.792 Z0 F1600
G1 X11.79 Y116.804 Z0 F1600
G1 X11.722 Y116.872 Z0 F1600
G1 X11.555 Y117.156 Z0 F1600
G1 X11.46 Y117.274 Z0 F1600
G1 X11.37 Y117.349 Z0 F1600
G1 X11.289 Y117.381 Z0 F1600
G1 X11.224 Y117.369 Z0 F1600
G1 X11.18 Y117.312 Z0 F1600
G1 X11.162 Y117.209 Z0 F1600
G1 X11.177 Y117.06 Z0 F1600
G1 X11.204 Y116.87 Z0 F1600
G1 X11.188 Y116.766 Z0 F1600
G1 X11.119 Y116.731 Z0 F1600
G1 X10.882 Y116.768 Z0 F1600
G1 X10.783 Y116.763 Z0 F1600
G1 X10.702 Y116.737 Z0 F1600
G1 X10.651 Y116.694 Z0 F1600
G1 X10.633 Y116.645 Z0 F1600
G1 X10.64 Y116.605 Z0 F1600
G1 X10.67 Y116.578 Z0 F1600
G1 X10.721 Y116.568 Z0 F1600
G1 X10.8 Y116.557 Z0 F1600
G1 X10.848 Y116.525 Z0 F1600
G1 X10.869 Y116.48 Z0 F1600
G1 X10.863 Y116.43 Z0 F1600
G1 X10.783 Y116.333 Z0 F1600
G1 X10.625 Y116.286 Z0 F1600
G1 X10.526 Y116.274 Z0 F1600
G1 X10.508 Y116.24 Z0 F1600
G1 X10.575 Y116.178 Z0 F1600
G1 X10.729 Y116.083 Z0 F1600
G1 X10.838 Y116.02 Z0 F1600
G1 X10.913 Y115.971 Z0 F1600
G1 X10.948 Y115.936 Z0 F1600
G1 X10.941 Y115.911 Z0 F1600
G1 X10.889 Y115.896 Z0 F1600
G1 X10.787 Y115.887 Z0 F1600
G1 X10.634 Y115.882 Z0 F1600
G1 X10.425 Z0 F1600
G1 X10.169 Y115.887 Z0 F1600
G1 X9.952 Y115.908 Z0 F1600
G1 X9.796 Y115.939 Z0 F1600
G1 X9.726 Y115.979 Z0 F1600
G1 X9.689 Y116.108 Z0 F1600
G1 X9.673 Y116.28 Z0 F1600
G1 Y116.479 Z0 F1600
G1 X9.691 Y116.685 Z0 F1600
G1 X9.722 Y116.881 Z0 F1600
G1 X9.764 Y117.049 Z0 F1600
G1 X9.815 Y117.172 Z0 F1600
G1 X9.874 Y117.23 Z0 F1600
G1 X9.942 Y117.239 Z0 F1600
G1 X9.994 Y117.218 Z0 F1600
G1 X10.024 Y117.171 Z0 F1600
G1 X10.029 Y117.103 Z0 F1600
G1 X10.01 Y116.832 Z0 F1600
G1 X10.033 Y116.619 Z0 F1600
G1 X10.094 Y116.479 Z0 F1600
G1 X10.189 Y116.43 Z0 F1600
G1 X10.248 Y116.455 Z0 F1600
G1 X10.278 Y116.526 Z0 F1600
G1 Y116.641 Z0 F1600
G1 X10.251 Y116.794 Z0 F1600
G1 X10.227 Y116.902 Z0 F1600
G1 X10.213 Y116.984 Z0 F1600
G1 Y117.044 Z0 F1600
G1 X10.226 Y117.084 Z0 F1600
G1 X10.302 Y117.111 Z0 F1600
G1 X10.593 Y117.055 Z0 F1600
G1 X10.67 Y117.066 Z0 F1600
G1 X10.693 Y117.119 Z0 F1600
G1 X10.644 Y117.309 Z0 F1600
G1 X10.656 Y117.361 Z0 F1600
G1 X10.707 Y117.375 Z0 F1600
G1 X10.796 Y117.35 Z0 F1600
G1 X10.882 Y117.332 Z0 F1600
G1 X10.948 Y117.346 Z0 F1600
G1 X10.991 Y117.391 Z0 F1600
G1 X11.006 Y117.464 Z0 F1600
G1 X11.028 Y117.551 Z0 F1600
G1 X11.089 Y117.629 Z0 F1600
G1 X11.179 Y117.693 Z0 F1600
G1 X11.289 Y117.743 Z0 F1600
G1 X11.409 Y117.772 Z0 F1600
G1 X11.531 Y117.78 Z0 F1600
G1 X11.644 Y117.762 Z0 F1600
G1 X11.843 Y117.665 Z0 F1600
G1 X12 Y117.617 Z0 F1600
G1 X12.19 Y117.578 Z0 F1600
G1 X12.392 Y117.553 Z0 F1600
G1 X12.591 Y117.534 Z0 F1600
G1 X12.742 Y117.513 Z0 F1600
G1 X12.852 Y117.479 Z0 F1600
G1 X12.927 Y117.427 Z0 F1600
G0 Z3.5 F1000
G0 X12.114 Y116.43 Z3.5 
G1 Z0 F1000
G1 X12.103 Y116.376 Z0 F1600
G1 X12.069 Y116.332 Z0 F1600
G1 X12.021 Y116.302 Z0 F1600
G1 X11.961 Y116.291 Z0 F1600
G1 X11.908 Y116.275 Z0 F1600
G1 X11.876 Y116.23 Z0 F1600
G1 X11.869 Y116.164 Z0 F1600
G1 X11.887 Y116.083 Z0 F1600
G1 X11.916 Y116.004 Z0 F1600
G1 X11.935 Y115.941 Z0 F1600
G1 X11.942 Y115.902 Z0 F1600
G1 X11.937 Y115.892 Z0 F1600
G1 X11.849 Y115.921 Z0 F1600
G1 X11.678 Y115.968 Z0 F1600
G1 X11.584 Y116.014 Z0 F1600
G1 X11.496 Y116.093 Z0 F1600
G1 X11.424 Y116.194 Z0 F1600
G1 X11.377 Y116.307 Z0 F1600
G1 X11.349 Y116.439 Z0 F1600
G1 X11.357 Y116.499 Z0 F1600
G1 X11.406 Y116.491 Z0 F1600
G1 X11.592 Y116.354 Z0 F1600
G1 X11.653 Y116.331 Z0 F1600
G1 X11.688 Y116.351 Z0 F1600
G1 X11.699 Y116.413 Z0 F1600
G1 X11.715 Y116.473 Z0 F1600
G1 X11.76 Y116.522 Z0 F1600
G1 X11.826 Y116.556 Z0 F1600
G1 X11.907 Y116.568 Z0 F1600
G1 X11.987 Y116.558 Z0 F1600
G1 X12.053 Y116.528 Z0 F1600
G1 X12.098 Y116.483 Z0 F1600
G1 X12.114 Y116.43 Z0 F1600
G0 Z3.5 F1000
G0 X10.107 Y115.244 Z3.5 
G1 Z0 F1000
G1 X10.086 Y115.199 Z0 F1600
G1 X10.046 Y115.183 Z0 F1600
G1 X9.938 Y115.244 Z0 F1600
G1 X9.847 Y115.391 Z0 F1600
G1 X9.826 Y115.471 Z0 F1600
G1 Y115.537 Z0 F1600
G1 X9.847 Y115.582 Z0 F1600
G1 X9.887 Y115.598 Z0 F1600
G1 X9.995 Y115.537 Z0 F1600
G1 X10.086 Y115.391 Z0 F1600
G1 X10.107 Y115.31 Z0 F1600
G1 Y115.244 Z0 F1600
G0 Z3.5 F1000
G0 X9.992 Y113.324 Z3.5 
G1 Z0 F1000
G1 X10.194 Y113.251 Z0 F1600
G1 X10.412 Y113.214 Z0 F1600
G1 X10.68 Y113.19 Z0 F1600
G1 X10.966 Y113.179 Z0 F1600
G1 X11.241 Z0 F1600
G1 X11.475 Y113.197 Z0 F1600
G1 X11.567 Y113.211 Z0 F1600
G1 X11.638 Y113.229 Z0 F1600
G1 X11.683 Y113.25 Z0 F1600
G1 X11.699 Y113.274 Z0 F1600
G1 X11.709 Y113.315 Z0 F1600
G1 X11.739 Y113.336 Z0 F1600
G1 X11.784 Z0 F1600
G1 X11.837 Y113.312 Z0 F1600
G1 X11.892 Y113.299 Z0 F1600
G1 X11.938 Y113.325 Z0 F1600
G1 X11.971 Y113.387 Z0 F1600
G1 X11.985 Y113.477 Z0 F1600
G1 X11.995 Y113.597 Z0 F1600
G1 X12.019 Y113.631 Z0 F1600
G1 X12.063 Y113.577 Z0 F1600
G1 X12.138 Y113.432 Z0 F1600
G1 X12.227 Y113.291 Z0 F1600
G1 X12.343 Y113.165 Z0 F1600
G1 X12.476 Y113.059 Z0 F1600
G1 X12.612 Y112.978 Z0 F1600
G1 X12.74 Y112.93 Z0 F1600
G1 X12.846 Y112.92 Z0 F1600
G1 X12.919 Y112.954 Z0 F1600
G1 X12.946 Y113.038 Z0 F1600
G1 X12.956 Y113.117 Z0 F1600
G1 X12.984 Y113.183 Z0 F1600
G1 X13.025 Y113.227 Z0 F1600
G1 X13.075 Y113.243 Z0 F1600
G1 X13.132 Y113.265 Z0 F1600
G1 X13.193 Y113.326 Z0 F1600
G1 X13.25 Y113.417 Z0 F1600
G1 X13.295 Y113.527 Z0 F1600
G1 X13.325 Y113.618 Z0 F1600
G1 X13.353 Y113.682 Z0 F1600
G1 X13.382 Y113.718 Z0 F1600
G1 X13.417 Y113.726 Z0 F1600
G1 X13.463 Y113.705 Z0 F1600
G1 X13.525 Y113.653 Z0 F1600
G1 X13.607 Y113.571 Z0 F1600
G1 X13.713 Y113.458 Z0 F1600
G1 X13.856 Y113.317 Z0 F1600
G1 X13.991 Y113.214 Z0 F1600
G1 X14.117 Y113.148 Z0 F1600
G1 X14.233 Y113.12 Z0 F1600
G1 X14.341 Y113.129 Z0 F1600
G1 X14.439 Y113.175 Z0 F1600
G1 X14.529 Y113.259 Z0 F1600
G1 X14.608 Y113.38 Z0 F1600
G1 X14.633 Y113.503 Z0 F1600
G1 X14.593 Y113.638 Z0 F1600
G1 X14.499 Y113.776 Z0 F1600
G1 X14.362 Y113.909 Z0 F1600
G1 X14.192 Y114.028 Z0 F1600
G1 X14.001 Y114.125 Z0 F1600
G1 X13.799 Y114.188 Z0 F1600
G1 X13.598 Y114.212 Z0 F1600
G1 X13.474 Y114.241 Z0 F1600
G1 X13.322 Y114.32 Z0 F1600
G1 X13.16 Y114.437 Z0 F1600
G1 X13.009 Y114.58 Z0 F1600
G1 X12.876 Y114.711 Z0 F1600
G1 X12.769 Y114.797 Z0 F1600
G1 X12.696 Y114.832 Z0 F1600
G1 X12.669 Y114.806 Z0 F1600
G1 X12.622 Y114.736 Z0 F1600
G1 X12.483 Y114.703 Z0 F1600
G1 X12.256 Y114.708 Z0 F1600
G1 X11.941 Y114.75 Z0 F1600
G1 X11.868 Y114.823 Z0 F1600
G1 X11.837 Y114.975 Z0 F1600
G1 X11.818 Y115.055 Z0 F1600
G1 X11.766 Y115.119 Z0 F1600
G1 X11.689 Y115.16 Z0 F1600
G1 X11.595 Y115.172 Z0 F1600
G1 X11.508 Y115.163 Z0 F1600
G1 X11.467 Y115.145 Z0 F1600
G1 X11.472 Y115.121 Z0 F1600
G1 X11.612 Y115.045 Z0 F1600
G1 X11.668 Y114.994 Z0 F1600
G1 X11.693 Y114.94 Z0 F1600
G1 X11.69 Y114.888 Z0 F1600
G1 X11.659 Y114.84 Z0 F1600
G1 X11.602 Y114.802 Z0 F1600
G1 X11.52 Y114.776 Z0 F1600
G1 X11.414 Y114.767 Z0 F1600
G1 X11.31 Y114.778 Z0 F1600
G1 X11.237 Y114.808 Z0 F1600
G1 X11.203 Y114.852 Z0 F1600
G1 X11.214 Y114.906 Z0 F1600
G1 X11.229 Y114.959 Z0 F1600
G1 X11.208 Y115.003 Z0 F1600
G1 X11.155 Y115.033 Z0 F1600
G1 X11.075 Y115.044 Z0 F1600
G1 X10.995 Y115.033 Z0 F1600
G1 X10.942 Y115.003 Z0 F1600
G1 X10.921 Y114.959 Z0 F1600
G1 X10.937 Y114.906 Z0 F1600
G1 X10.943 Y114.851 Z0 F1600
G1 X10.897 Y114.807 Z0 F1600
G1 X10.804 Y114.778 Z0 F1600
G1 X10.672 Y114.767 Z0 F1600
G1 X10.514 Y114.778 Z0 F1600
G1 X10.419 Y114.814 Z0 F1600
G1 X10.383 Y114.879 Z0 F1600
G1 X10.401 Y114.975 Z0 F1600
G1 X10.476 Y115.102 Z0 F1600
G1 X10.588 Y115.177 Z0 F1600
G1 X10.75 Y115.207 Z0 F1600
G1 X10.971 Y115.193 Z0 F1600
G1 X11.039 Z0 F1600
G1 X11.094 Y115.215 Z0 F1600
G1 X11.131 Y115.252 Z0 F1600
G1 X11.145 Y115.301 Z0 F1600
G1 X11.186 Y115.348 Z0 F1600
G1 X11.298 Y115.381 Z0 F1600
G1 X11.46 Y115.398 Z0 F1600
G1 X11.654 Y115.402 Z0 F1600
G1 X11.859 Y115.392 Z0 F1600
G1 X12.056 Y115.367 Z0 F1600
G1 X12.226 Y115.33 Z0 F1600
G1 X12.347 Y115.279 Z0 F1600
G1 X12.415 Y115.255 Z0 F1600
G1 X12.48 Y115.261 Z0 F1600
G1 X12.537 Y115.295 Z0 F1600
G1 X12.577 Y115.355 Z0 F1600
G1 X12.615 Y115.421 Z0 F1600
G1 X12.659 Y115.449 Z0 F1600
G1 X12.708 Y115.439 Z0 F1600
G1 X12.762 Y115.391 Z0 F1600
G1 X12.843 Y115.335 Z0 F1600
G1 X12.977 Y115.287 Z0 F1600
G1 X13.146 Y115.25 Z0 F1600
G1 X13.332 Y115.231 Z0 F1600
G1 X13.442 Y115.218 Z0 F1600
G1 X13.58 Y115.188 Z0 F1600
G1 X13.741 Y115.142 Z0 F1600
G1 X13.919 Y115.084 Z0 F1600
G1 X14.304 Y114.937 Z0 F1600
G1 X15.075 Y114.584 Z0 F1600
G1 X15.45 Y114.438 Z0 F1600
G1 X15.621 Y114.381 Z0 F1600
G1 X15.773 Y114.337 Z0 F1600
G1 X15.902 Y114.309 Z0 F1600
G1 X16.003 Y114.296 Z0 F1600
G1 X16.161 Y114.282 Z0 F1600
G1 X16.29 Y114.253 Z0 F1600
G1 X16.378 Y114.213 Z0 F1600
G1 X16.428 Y114.142 Z0 F1600
G1 X16.476 Y114.154 Z0 F1600
G1 X16.548 Y114.201 Z0 F1600
G1 X16.635 Y114.279 Z0 F1600
G1 X16.718 Y114.423 Z0 F1600
G1 X16.772 Y114.642 Z0 F1600
G1 X16.799 Y114.909 Z0 F1600
G1 Y115.195 Z0 F1600
G1 X16.776 Y115.474 Z0 F1600
G1 X16.729 Y115.717 Z0 F1600
G1 X16.658 Y115.896 Z0 F1600
G1 X16.566 Y115.985 Z0 F1600
G1 X16.479 Y116.037 Z0 F1600
G1 X16.426 Y116.115 Z0 F1600
G1 X16.403 Y116.21 Z0 F1600
G1 X16.41 Y116.312 Z0 F1600
G1 X16.443 Y116.408 Z0 F1600
G1 X16.501 Y116.49 Z0 F1600
G1 X16.582 Y116.547 Z0 F1600
G1 X16.683 Y116.568 Z0 F1600
G1 X16.804 Y116.556 Z0 F1600
G1 X16.874 Y116.516 Z0 F1600
G1 X16.894 Y116.444 Z0 F1600
G1 X16.868 Y116.338 Z0 F1600
G1 X16.838 Y116.23 Z0 F1600
G1 X16.856 Y116.171 Z0 F1600
G1 X16.929 Y116.157 Z0 F1600
G1 X17.062 Y116.182 Z0 F1600
G1 X17.219 Y116.187 Z0 F1600
G1 X17.42 Y116.135 Z0 F1600
G1 X17.653 Y116.031 Z0 F1600
G1 X17.908 Y115.878 Z0 F1600
G1 X18.205 Y115.707 Z0 F1600
G1 X18.529 Y115.573 Z0 F1600
G1 X18.884 Y115.478 Z0 F1600
G1 X19.273 Y115.417 Z0 F1600
G1 X19.634 Y115.366 Z0 F1600
G1 X19.918 Y115.295 Z0 F1600
G1 X20.125 Y115.204 Z0 F1600
G1 X20.253 Y115.094 Z0 F1600
G1 X20.321 Y115.009 Z0 F1600
G1 X20.377 Y114.957 Z0 F1600
G1 X20.415 Y114.94 Z0 F1600
G1 X20.445 Y114.996 Z0 F1600
G1 X20.488 Z0 F1600
G1 X20.552 Y114.967 Z0 F1600
G1 X20.631 Y114.911 Z0 F1600
G1 X20.721 Y114.853 Z0 F1600
G1 X20.816 Y114.819 Z0 F1600
G1 X20.906 Y114.812 Z0 F1600
G1 X20.979 Y114.834 Z0 F1600
G1 X21.008 Y114.917 Z0 F1600
G1 X20.976 Y115.073 Z0 F1600
G1 X20.897 Y115.275 Z0 F1600
G1 X20.785 Y115.498 Z0 F1600
G1 X20.655 Y115.716 Z0 F1600
G1 X20.521 Y115.903 Z0 F1600
G1 X20.395 Y116.034 Z0 F1600
G1 X20.293 Y116.083 Z0 F1600
G1 X20.237 Y116.094 Z0 F1600
G1 X20.189 Y116.124 Z0 F1600
G1 X20.155 Y116.168 Z0 F1600
G1 X20.138 Y116.222 Z0 F1600
G1 X20.08 Y116.439 Z0 F1600
G1 X19.971 Y116.633 Z0 F1600
G1 X19.907 Y116.708 Z0 F1600
G1 X19.843 Y116.76 Z0 F1600
G1 X19.783 Y116.783 Z0 F1600
G1 X19.731 Y116.773 Z0 F1600
G1 X19.686 Y116.757 Z0 F1600
G1 X19.66 Y116.772 Z0 F1600
G1 X19.655 Y116.814 Z0 F1600
G1 X19.673 Y116.882 Z0 F1600
G1 X19.685 Y116.971 Z0 F1600
G1 X19.657 Y117.069 Z0 F1600
G1 X19.596 Y117.172 Z0 F1600
G1 X19.504 Y117.274 Z0 F1600
G1 X19.247 Y117.465 Z0 F1600
G1 X18.922 Y117.606 Z0 F1600
G1 X18.768 Y117.646 Z0 F1600
G1 X18.685 Z0 F1600
G1 X18.666 Y117.605 Z0 F1600
G1 X18.729 Y117.458 Z0 F1600
G1 X18.709 Y117.446 Z0 F1600
G1 X18.648 Y117.48 Z0 F1600
G1 X18.547 Y117.56 Z0 F1600
G1 X18.432 Y117.633 Z0 F1600
G1 X18.313 Y117.664 Z0 F1600
G1 X18.2 Y117.656 Z0 F1600
G1 X18.1 Y117.614 Z0 F1600
G1 X18.02 Y117.544 Z0 F1600
G1 X17.968 Y117.45 Z0 F1600
G1 X17.952 Y117.336 Z0 F1600
G1 X17.979 Y117.208 Z0 F1600
G1 X17.965 Y117.135 Z0 F1600
G1 X17.876 Y117.079 Z0 F1600
G1 X17.731 Y117.042 Z0 F1600
G1 X17.55 Y117.023 Z0 F1600
G1 X17.352 Y117.026 Z0 F1600
G1 X17.157 Y117.049 Z0 F1600
G1 X16.986 Y117.094 Z0 F1600
G1 X16.857 Y117.161 Z0 F1600
G1 X16.781 Y117.207 Z0 F1600
G1 X16.703 Y117.228 Z0 F1600
G1 X16.633 Y117.224 Z0 F1600
G1 X16.58 Y117.193 Z0 F1600
G1 X16.555 Y117.146 Z0 F1600
G1 X16.56 Y117.098 Z0 F1600
G1 X16.593 Y117.056 Z0 F1600
G1 X16.653 Y117.023 Z0 F1600
G1 X16.775 Y116.941 Z0 F1600
G1 X16.826 Y116.832 Z0 F1600
G1 X16.794 Y116.788 Z0 F1600
G1 X16.709 Y116.77 Z0 F1600
G1 X16.588 Y116.774 Z0 F1600
G1 X16.447 Y116.797 Z0 F1600
G1 X16.303 Y116.835 Z0 F1600
G1 X16.172 Y116.886 Z0 F1600
G1 X16.071 Y116.944 Z0 F1600
G1 X16.018 Y117.006 Z0 F1600
G1 X15.99 Y117.046 Z0 F1600
G1 X15.95 Y117.068 Z0 F1600
G1 X15.903 Y117.071 Z0 F1600
G1 X15.854 Y117.052 Z0 F1600
G1 X15.801 Y117.035 Z0 F1600
G1 X15.746 Y117.042 Z0 F1600
G1 X15.692 Y117.071 Z0 F1600
G1 X15.649 Y117.121 Z0 F1600
G1 X15.628 Y117.175 Z0 F1600
G1 X15.634 Y117.22 Z0 F1600
G1 X15.664 Y117.25 Z0 F1600
G1 X15.77 Y117.273 Z0 F1600
G1 X15.799 Y117.306 Z0 F1600
G1 X15.802 Y117.355 Z0 F1600
G1 X15.777 Y117.415 Z0 F1600
G1 X15.729 Y117.474 Z0 F1600
G1 X15.679 Y117.49 Z0 F1600
G1 X15.628 Y117.461 Z0 F1600
G1 X15.508 Y117.307 Z0 F1600
G1 X15.44 Y117.28 Z0 F1600
G1 X15.357 Y117.308 Z0 F1600
G1 X15.158 Y117.452 Z0 F1600
G1 X15.088 Y117.483 Z0 F1600
G1 X15.041 Z0 F1600
G1 X15.022 Y117.451 Z0 F1600
G1 X15.013 Y117.418 Z0 F1600
G1 X14.987 Z0 F1600
G1 X14.951 Y117.45 Z0 F1600
G1 X14.906 Y117.51 Z0 F1600
G1 X14.825 Y117.599 Z0 F1600
G1 X14.689 Y117.707 Z0 F1600
G1 X14.517 Y117.82 Z0 F1600
G1 X14.13 Y118.035 Z0 F1600
G1 X13.981 Y118.137 Z0 F1600
G1 X13.883 Y118.23 Z0 F1600
G1 X13.833 Y118.316 Z0 F1600
G1 Y118.393 Z0 F1600
G1 X13.884 Y118.46 Z0 F1600
G1 X13.984 Y118.519 Z0 F1600
G1 X14.134 Y118.568 Z0 F1600
G1 X14.272 Y118.609 Z0 F1600
G1 X14.375 Y118.653 Z0 F1600
G1 X14.433 Y118.694 Z0 F1600
G1 X14.437 Y118.727 Z0 F1600
G1 X14.392 Y118.739 Z0 F1600
G1 X14.304 Y118.732 Z0 F1600
G1 X14.179 Y118.71 Z0 F1600
G1 X14.025 Y118.673 Z0 F1600
G1 X13.651 Y118.567 Z0 F1600
G1 X13.232 Y118.431 Z0 F1600
G1 X12.819 Y118.282 Z0 F1600
G1 X12.461 Y118.138 Z0 F1600
G1 X12.319 Y118.073 Z0 F1600
G1 X12.209 Y118.016 Z0 F1600
G1 X12.139 Y117.968 Z0 F1600
G1 X12.114 Y117.932 Z0 F1600
G1 X12.091 Y117.878 Z0 F1600
G1 X12.026 Y117.848 Z0 F1600
G1 X11.928 Y117.843 Z0 F1600
G1 X11.805 Y117.864 Z0 F1600
G1 X11.629 Y117.872 Z0 F1600
G1 X11.37 Y117.835 Z0 F1600
G1 X11.056 Y117.763 Z0 F1600
G1 X10.715 Y117.664 Z0 F1600
G1 X10.374 Y117.547 Z0 F1600
G1 X10.062 Y117.422 Z0 F1600
G1 X9.805 Y117.296 Z0 F1600
G1 X9.633 Y117.179 Z0 F1600
G1 X9.578 Y117.108 Z0 F1600
G1 X9.528 Y117.006 Z0 F1600
G1 X9.485 Y116.878 Z0 F1600
G1 X9.448 Y116.729 Z0 F1600
G1 X9.395 Y116.386 Z0 F1600
G1 X9.368 Y116.019 Z0 F1600
G1 X9.371 Y115.666 Z0 F1600
G1 X9.403 Y115.368 Z0 F1600
G1 X9.431 Y115.251 Z0 F1600
G1 X9.467 Y115.163 Z0 F1600
G1 X9.511 Y115.109 Z0 F1600
G1 X9.564 Y115.093 Z0 F1600
G1 X9.66 Y115.088 Z0 F1600
G1 X9.746 Y115.061 Z0 F1600
G1 X9.814 Y115.015 Z0 F1600
G1 X9.854 Y114.954 Z0 F1600
G1 X9.857 Y114.894 Z0 F1600
G1 X9.821 Y114.848 Z0 F1600
G1 X9.754 Y114.82 Z0 F1600
G1 X9.662 Y114.816 Z0 F1600
G1 X9.604 Y114.798 Z0 F1600
G1 X9.551 Y114.739 Z0 F1600
G1 X9.502 Y114.644 Z0 F1600
G1 X9.459 Y114.519 Z0 F1600
G1 X9.392 Y114.199 Z0 F1600
G1 X9.35 Y113.825 Z0 F1600
G1 X9.338 Y113.44 Z0 F1600
G1 X9.358 Y113.089 Z0 F1600
G1 X9.382 Y112.941 Z0 F1600
G1 X9.415 Y112.817 Z0 F1600
G1 X9.457 Y112.725 Z0 F1600
G1 X9.51 Y112.668 Z0 F1600
G1 X9.595 Y112.616 Z0 F1600
G1 X9.661 Y112.581 Z0 F1600
G1 X9.708 Y112.563 Z0 F1600
G1 X9.739 Z0 F1600
G1 X9.751 Y112.622 Z0 F1600
G1 X9.708 Y112.758 Z0 F1600
G1 X9.688 Y112.838 Z0 F1600
G1 X9.692 Y112.905 Z0 F1600
G1 X9.717 Y112.949 Z0 F1600
G1 X9.815 Y112.983 Z0 F1600
G1 X9.858 Y113.029 Z0 F1600
G1 X9.887 Y113.098 Z0 F1600
G1 X9.909 Y113.262 Z0 F1600
G1 X9.942 Y113.31 Z0 F1600
G1 X9.992 Y113.324 Z0 F1600
G0 Z3.5 F1000
G0 X11.623 Y110.616 Z3.5 
G1 Z0 F1000
G1 X11.735 Y110.632 Z0 F1600
G1 X11.792 Y110.656 Z0 F1600
G1 Y110.687 Z0 F1600
G1 X11.743 Y110.72 Z0 F1600
G1 X11.642 Y110.755 Z0 F1600
G1 X11.491 Y110.789 Z0 F1600
G1 X11.293 Y110.82 Z0 F1600
G1 X11.124 Y110.832 Z0 F1600
G1 X11.003 Y110.822 Z0 F1600
G1 X10.939 Y110.792 Z0 F1600
G1 Y110.742 Z0 F1600
G1 X11.006 Y110.691 Z0 F1600
G1 X11.125 Y110.648 Z0 F1600
G1 X11.279 Y110.62 Z0 F1600
G1 X11.453 Y110.61 Z0 F1600
G1 X11.623 Y110.616 Z0 F1600
G0 Z3.5 F1000
G0 X12.399 Y110.367 Z3.5 
G1 Z0 F1000
G1 X12.491 Y110.491 Z0 F1600
G1 X12.528 Y110.644 Z0 F1600
G1 X12.507 Y110.685 Z0 F1600
G1 X12.448 Y110.718 Z0 F1600
G1 X12.36 Y110.74 Z0 F1600
G1 X12.253 Y110.748 Z0 F1600
G1 X12.15 Y110.733 Z0 F1600
G1 X12.07 Y110.691 Z0 F1600
G1 X12.014 Y110.63 Z0 F1600
G1 X11.983 Y110.558 Z0 F1600
G1 X11.979 Y110.481 Z0 F1600
G1 X12.005 Y110.407 Z0 F1600
G1 X12.061 Y110.343 Z0 F1600
G1 X12.149 Y110.295 Z0 F1600
G1 X12.278 Z0 F1600
G1 X12.399 Y110.367 Z0 F1600
G0 Z3.5 F1000
G0 X16.634 Y109.927 Z3.5 
G1 Z0 F1000
G1 X16.589 Y109.956 Z0 F1600
G1 X16.56 Y109.997 Z0 F1600
G1 X16.549 Y110.047 Z0 F1600
G1 X16.589 Y110.165 Z0 F1600
G1 X16.688 Y110.264 Z0 F1600
G1 X16.741 Y110.28 Z0 F1600
G1 X16.785 Y110.261 Z0 F1600
G1 X16.815 Y110.21 Z0 F1600
G1 X16.826 Y110.133 Z0 F1600
G1 X16.815 Y110.049 Z0 F1600
G1 X16.785 Y109.98 Z0 F1600
G1 X16.741 Y109.934 Z0 F1600
G1 X16.688 Y109.917 Z0 F1600
G1 X16.634 Y109.927 Z0 F1600
G0 Z3.5 F1000
G0 X16.167 Y110.014 Z3.5 
G1 Z0 F1000
G1 X16.063 Y109.98 Z0 F1600
G1 X15.99 Y109.99 Z0 F1600
G1 X15.938 Y110.005 Z0 F1600
G1 X15.899 Y109.987 Z0 F1600
G1 X15.872 Y109.943 Z0 F1600
G1 X15.859 Y109.88 Z0 F1600
G1 X15.875 Y109.728 Z0 F1600
G1 X15.952 Y109.59 Z0 F1600
G1 X16.032 Y109.439 Z0 F1600
G1 X16.164 Y108.931 Z0 F1600
G1 X16.277 Y108.66 Z0 F1600
G1 X16.342 Y108.556 Z0 F1600
G1 X16.414 Y108.471 Z0 F1600
G1 X16.483 Y108.414 Z0 F1600
G1 X16.542 Y108.393 Z0 F1600
G1 X16.618 Y108.408 Z0 F1600
G1 X16.672 Y108.45 Z0 F1600
G1 X16.707 Y108.512 Z0 F1600
G1 X16.72 Y108.589 Z0 F1600
G1 X16.684 Y108.763 Z0 F1600
G1 X16.561 Y108.924 Z0 F1600
G1 X16.45 Y109.021 Z0 F1600
G1 X16.415 Y109.066 Z0 F1600
G1 X16.458 Z0 F1600
G1 X16.579 Y109.034 Z0 F1600
G1 X16.681 Y109.007 Z0 F1600
G1 X16.762 Y109.004 Z0 F1600
G1 X16.827 Y109.03 Z0 F1600
G1 X16.878 Y109.091 Z0 F1600
G1 X16.919 Y109.194 Z0 F1600
G1 X16.955 Y109.345 Z0 F1600
G1 X16.987 Y109.551 Z0 F1600
G1 X17.021 Y109.818 Z0 F1600
G1 X17.04 Y110.067 Z0 F1600
G1 X17.031 Y110.259 Z0 F1600
G1 X16.995 Y110.393 Z0 F1600
G1 X16.932 Y110.468 Z0 F1600
G1 X16.841 Y110.486 Z0 F1600
G1 X16.723 Y110.445 Z0 F1600
G1 X16.578 Y110.346 Z0 F1600
G1 X16.405 Y110.189 Z0 F1600
G1 X16.285 Y110.086 Z0 F1600
G1 X16.167 Y110.014 Z0 F1600
G0 Z3.5 F1000
G0 X17.983 Y108.958 Z3.5 
G1 Z0 F1000
G1 X18.03 Y108.987 Z0 F1600
G1 X18.062 Y109.032 Z0 F1600
G1 X18.073 Y109.085 Z0 F1600
G1 X18.055 Y109.183 Z0 F1600
G1 X18.012 Y109.224 Z0 F1600
G1 X17.944 Y109.183 Z0 F1600
G1 X17.865 Y109.085 Z0 F1600
G1 X17.844 Y109.032 Z0 F1600
G1 X17.848 Y108.987 Z0 F1600
G1 X17.876 Y108.958 Z0 F1600
G1 X17.926 Y108.947 Z0 F1600
G1 X17.983 Y108.958 Z0 F1600
G0 Z3.5 F1000
G0 X18.609 Y108.849 Z3.5 
G1 Z0 F1000
G1 X18.627 Y108.947 Z0 F1600
G1 X18.616 Y109.001 Z0 F1600
G1 X18.584 Y109.045 Z0 F1600
G1 X18.538 Y109.075 Z0 F1600
G1 X18.481 Y109.086 Z0 F1600
G1 X18.431 Y109.075 Z0 F1600
G1 X18.402 Y109.045 Z0 F1600
G1 X18.398 Y109.001 Z0 F1600
G1 X18.419 Y108.947 Z0 F1600
G1 X18.498 Y108.849 Z0 F1600
G1 X18.566 Y108.809 Z0 F1600
G1 X18.609 Y108.849 Z0 F1600
G0 Z3.5 F1000
G0 X19.681 Y109.001 Z3.5 
G1 Z0 F1000
G1 X19.753 Y109.062 Z0 F1600
G1 X19.802 Y109.164 Z0 F1600
G1 X19.825 Y109.305 Z0 F1600
G1 X19.819 Y109.446 Z0 F1600
G1 X19.786 Y109.548 Z0 F1600
G1 X19.733 Y109.611 Z0 F1600
G1 X19.668 Y109.633 Z0 F1600
G1 X19.598 Y109.616 Z0 F1600
G1 X19.53 Y109.559 Z0 F1600
G1 X19.472 Y109.46 Z0 F1600
G1 X19.43 Y109.321 Z0 F1600
G1 X19.416 Y109.178 Z0 F1600
G1 X19.437 Y109.075 Z0 F1600
G1 X19.494 Y109.012 Z0 F1600
G1 X19.587 Y108.986 Z0 F1600
G1 X19.681 Y109.001 Z0 F1600
G0 Z3.5 F1000
G0 X21.936 Y108.572 Z3.5 
G1 Z0 F1000
G1 X21.953 Y108.67 Z0 F1600
G1 X21.942 Y108.724 Z0 F1600
G1 X21.91 Y108.768 Z0 F1600
G1 X21.864 Y108.798 Z0 F1600
G1 X21.807 Y108.809 Z0 F1600
G1 X21.756 Y108.798 Z0 F1600
G1 X21.728 Y108.768 Z0 F1600
G1 X21.724 Y108.724 Z0 F1600
G1 X21.746 Y108.67 Z0 F1600
G1 X21.824 Y108.572 Z0 F1600
G1 X21.892 Y108.531 Z0 F1600
G1 X21.936 Y108.572 Z0 F1600
G0 Z3.5 F1000
G0 X23.232 Y108.303 Z3.5 
G1 Z0 F1000
G1 X23.391 Y108.338 Z0 F1600
G1 X23.524 Y108.391 Z0 F1600
G1 X23.616 Y108.461 Z0 F1600
G1 X23.684 Y108.555 Z0 F1600
G1 X23.709 Y108.62 Z0 F1600
G1 X23.692 Y108.658 Z0 F1600
G1 X23.573 Y108.681 Z0 F1600
G1 X23.523 Y108.71 Z0 F1600
G1 X23.49 Y108.755 Z0 F1600
G1 X23.478 Y108.809 Z0 F1600
G1 X23.456 Y108.884 Z0 F1600
G1 X23.396 Y108.988 Z0 F1600
G1 X23.308 Y109.106 Z0 F1600
G1 X23.201 Y109.224 Z0 F1600
G1 X23.093 Y109.32 Z0 F1600
G1 X23.005 Y109.377 Z0 F1600
G1 X22.945 Y109.39 Z0 F1600
G1 X22.923 Y109.354 Z0 F1600
G1 X22.913 Y109.304 Z0 F1600
G1 X22.886 Y109.274 Z0 F1600
G1 X22.846 Y109.268 Z0 F1600
G1 X22.796 Y109.286 Z0 F1600
G1 X22.742 Y109.303 Z0 F1600
G1 X22.687 Y109.291 Z0 F1600
G1 X22.637 Y109.252 Z0 F1600
G1 X22.599 Y109.19 Z0 F1600
G1 X22.552 Y109.121 Z0 F1600
G1 X22.496 Y109.109 Z0 F1600
G1 X22.436 Y109.149 Z0 F1600
G1 X22.375 Y109.23 Z0 F1600
G1 X22.275 Y109.489 Z0 F1600
G1 X22.232 Y109.821 Z0 F1600
G1 X22.221 Y109.966 Z0 F1600
G1 X22.192 Y110.072 Z0 F1600
G1 X22.149 Y110.13 Z0 F1600
G1 X22.098 Z0 F1600
G1 X22.053 Y110.081 Z0 F1600
G1 X22.027 Y110.011 Z0 F1600
G1 X22.023 Y109.929 Z0 F1600
G1 X22.043 Y109.843 Z0 F1600
G1 X22.061 Y109.759 Z0 F1600
G1 X22.043 Y109.695 Z0 F1600
G1 X21.992 Y109.654 Z0 F1600
G1 X21.91 Y109.64 Z0 F1600
G1 X21.823 Y109.654 Z0 F1600
G1 X21.741 Y109.691 Z0 F1600
G1 X21.673 Y109.746 Z0 F1600
G1 X21.602 Y109.856 Z0 F1600
G1 X21.577 Y109.844 Z0 F1600
G1 X21.558 Y109.782 Z0 F1600
G1 X21.548 Y109.675 Z0 F1600
G1 X21.552 Y109.555 Z0 F1600
G1 X21.571 Y109.459 Z0 F1600
G1 X21.602 Y109.397 Z0 F1600
G1 X21.642 Y109.379 Z0 F1600
G1 X21.837 Y109.385 Z0 F1600
G1 X21.977 Y109.322 Z0 F1600
G1 X22.073 Y109.18 Z0 F1600
G1 X22.189 Y108.779 Z0 F1600
G1 X22.259 Y108.648 Z0 F1600
G1 X22.343 Y108.562 Z0 F1600
G1 X22.435 Y108.531 Z0 F1600
G1 X22.517 Y108.523 Z0 F1600
G1 X22.584 Y108.5 Z0 F1600
G1 X22.629 Y108.465 Z0 F1600
G1 X22.646 Y108.422 Z0 F1600
G1 X22.681 Y108.357 Z0 F1600
G1 X22.773 Y108.313 Z0 F1600
G1 X22.907 Y108.29 Z0 F1600
G1 X23.065 Y108.287 Z0 F1600
G1 X23.232 Y108.303 Z0 F1600
G0 Z3.5 F1000
G0 X22.641 Y107.246 Z3.5 
G1 Z0 F1000
G1 X22.747 Y107.275 Z0 F1600
G1 X22.837 Y107.317 Z0 F1600
G1 X22.9 Y107.368 Z0 F1600
G1 X22.923 Y107.427 Z0 F1600
G1 X22.904 Y107.466 Z0 F1600
G1 X22.852 Y107.491 Z0 F1600
G1 X22.775 Y107.5 Z0 F1600
G1 X22.681 Y107.491 Z0 F1600
G1 X22.477 Y107.455 Z0 F1600
G1 X22.326 Y107.434 Z0 F1600
G1 X22.289 Y107.419 Z0 F1600
G1 X22.27 Y107.389 Z0 F1600
G1 Y107.347 Z0 F1600
G1 X22.292 Y107.297 Z0 F1600
G1 X22.345 Y107.254 Z0 F1600
G1 X22.428 Y107.233 Z0 F1600
G1 X22.531 Z0 F1600
G1 X22.641 Y107.246 Z0 F1600
G0 Z3.5 F1000
G0 X23.304 Y105.375 Z3.5 
G1 Z0 F1000
G1 X23.363 Y105.434 Z0 F1600
G1 X23.427 Y105.534 Z0 F1600
G1 X23.506 Y105.676 Z0 F1600
G1 X23.622 Y105.896 Z0 F1600
G1 X23.696 Y106.068 Z0 F1600
G1 X23.725 Y106.197 Z0 F1600
G1 X23.705 Y106.29 Z0 F1600
G1 X23.632 Y106.353 Z0 F1600
G1 X23.503 Y106.391 Z0 F1600
G1 X23.314 Y106.41 Z0 F1600
G1 X23.062 Y106.417 Z0 F1600
G1 X22.792 Z0 F1600
G1 X22.596 Y106.404 Z0 F1600
G1 X22.47 Y106.373 Z0 F1600
G1 X22.412 Y106.318 Z0 F1600
G1 X22.42 Y106.232 Z0 F1600
G1 X22.492 Y106.11 Z0 F1600
G1 X22.626 Y105.945 Z0 F1600
G1 X22.819 Y105.731 Z0 F1600
G1 X22.969 Y105.571 Z0 F1600
G1 X23.083 Y105.456 Z0 F1600
G1 X23.172 Y105.386 Z0 F1600
G1 X23.243 Y105.359 Z0 F1600
G1 X23.304 Y105.375 Z0 F1600
G0 Z3.5 F1000
G0 X25.513 Y104.885 Z3.5 
G1 Z0 F1000
G1 X25.555 Y104.912 Z0 F1600
G1 X25.508 Y104.936 Z0 F1600
G1 X25.505 Y104.923 Z0 F1600
G1 X25.49 Y104.874 Z0 F1600
G1 X25.513 Y104.885 Z0 F1600
G0 Z3.5 F1000
G0 X26.98 Y105.331 Z3.5 
G1 Z0 F1000
G1 X26.311 Y105.655 Z0 F1600
G1 X25.63 Y105.99 Z0 F1600
G1 X25.362 Y106.11 Z0 F1600
G1 X25.14 Y106.181 Z0 F1600
G1 X24.958 Y106.2 Z0 F1600
G1 X24.817 Y106.166 Z0 F1600
G1 X24.712 Y106.078 Z0 F1600
G1 X24.64 Y105.934 Z0 F1600
G1 X24.599 Y105.733 Z0 F1600
G1 X24.586 Y105.474 Z0 F1600
G1 X24.574 Y105.343 Z0 F1600
G1 X24.537 Y105.176 Z0 F1600
G1 X24.476 Y104.973 Z0 F1600
G1 X24.389 Y104.731 Z0 F1600
G1 X24.276 Y104.451 Z0 F1600
G1 X24.138 Y104.132 Z0 F1600
G1 X23.973 Y103.771 Z0 F1600
G1 X23.782 Y103.37 Z0 F1600
G1 X23.767 Y103.325 Z0 F1600
G1 X23.775 Y103.294 Z0 F1600
G1 X23.811 Y103.277 Z0 F1600
G1 X23.876 Y103.274 Z0 F1600
G1 X23.976 Y103.287 Z0 F1600
G1 X24.114 Y103.313 Z0 F1600
G1 X24.292 Y103.355 Z0 F1600
G1 X24.517 Y103.412 Z0 F1600
G1 X25.157 Y103.62 Z0 F1600
G1 X25.764 Y103.886 Z0 F1600
G1 X26.022 Y104.024 Z0 F1600
G1 X26.231 Y104.157 Z0 F1600
G1 X26.379 Y104.277 Z0 F1600
G1 X26.452 Y104.379 Z0 F1600
G1 X26.511 Y104.464 Z0 F1600
G1 X26.615 Y104.538 Z0 F1600
G1 X26.751 Y104.594 Z0 F1600
G1 X26.903 Y104.623 Z0 F1600
G1 X27.156 Y104.657 Z0 F1600
G1 X27.34 Y104.711 Z0 F1600
G1 X27.455 Y104.784 Z0 F1600
G1 X27.5 Y104.871 Z0 F1600
G1 X27.476 Y104.972 Z0 F1600
G1 X27.381 Y105.083 Z0 F1600
G1 X27.216 Y105.204 Z0 F1600
G1 X26.98 Y105.331 Z0 F1600
G0 Z3.5 F1000
G0 X28.392 Y107.063 Z3.5 
G1 Z0 F1000
G1 X29.482 Y107.941 Z0 F1600
G1 X29.737 Y108.143 Z0 F1600
G1 X29.974 Y108.326 Z0 F1600
G1 X29.983 Y108.332 Z0 F1600
G1 X29.741 Y108.272 Z0 F1600
G1 X29.542 Y108.257 Z0 F1600
G1 X29.146 Y108.239 Z0 F1600
G1 X28.966 Y108.229 Z0 F1600
G1 X28.878 Y108.218 Z0 F1600
G1 X28.846 Y108.211 Z0 F1600
G1 X28.839 Y108.208 Z0 F1600
G1 X28.829 Y108.203 Z0 F1600
G1 X28.78 Y108.167 Z0 F1600
G1 X28.686 Y108.085 Z0 F1600
G1 X28.52 Y107.926 Z0 F1600
G1 X28.211 Y107.654 Z0 F1600
G1 X27.859 Y107.394 Z0 F1600
G1 X27.875 Y107.382 Z0 F1600
G1 X27.898 Y107.351 Z0 F1600
G1 X28.087 Y107.446 Z0 F1600
G1 X28.359 Y107.038 Z0 F1600
G1 X28.392 Y107.063 Z0 F1600
G0 Z3.5 F1000
G0 X26.942 Y106.791 Z3.5 
G1 Z0 F1000
G1 X26.901 Y106.748 Z0 F1600
G1 X26.803 Y106.729 Z0 F1600
G1 X26.75 Y106.741 Z0 F1600
G1 X26.706 Y106.772 Z0 F1600
G1 X26.676 Y106.819 Z0 F1600
G1 X26.665 Y106.876 Z0 F1600
G1 X26.676 Y106.926 Z0 F1600
G1 X26.706 Y106.955 Z0 F1600
G1 X26.75 Y106.959 Z0 F1600
G1 X26.803 Y106.938 Z0 F1600
G1 X26.901 Y106.859 Z0 F1600
G1 X26.942 Y106.791 Z0 F1600
G0 Z3.5 F1000
G0 X27.061 Y106.581 Z3.5 
G1 Z0 F1000
G1 X27.083 Y106.639 Z0 F1600
G1 X27.093 Y106.688 Z0 F1600
G1 X27.12 Y106.696 Z0 F1600
G1 X27.161 Y106.666 Z0 F1600
G1 X27.212 Y106.598 Z0 F1600
G1 X27.282 Y106.423 Z0 F1600
G1 X27.271 Y106.286 Z0 F1600
G1 X27.235 Y106.202 Z0 F1600
G1 X27.23 Y106.127 Z0 F1600
G1 X27.254 Y106.065 Z0 F1600
G1 X27.299 Y106.019 Z0 F1600
G1 X27.362 Y105.993 Z0 F1600
G1 X27.438 Y105.99 Z0 F1600
G1 X27.52 Y106.012 Z0 F1600
G1 X27.604 Y106.064 Z0 F1600
G1 X27.694 Y106.131 Z0 F1600
G1 X27.745 Y106.157 Z0 F1600
G1 X27.756 Y106.139 Z0 F1600
G1 X27.728 Y106.08 Z0 F1600
G1 X27.708 Y106.004 Z0 F1600
G1 X27.729 Y105.921 Z0 F1600
G1 X27.785 Y105.841 Z0 F1600
G1 X27.875 Y105.772 Z0 F1600
G1 X27.973 Y105.717 Z0 F1600
G1 X28.06 Y105.67 Z0 F1600
G1 X28.126 Y105.638 Z0 F1600
G1 X28.162 Y105.625 Z0 F1600
G1 X28.198 Y105.646 Z0 F1600
G1 X28.283 Y105.708 Z0 F1600
G1 X28.581 Y105.938 Z0 F1600
G1 X29.012 Y106.278 Z0 F1600
G1 X30.106 Y107.16 Z0 F1600
G1 X30.353 Y107.355 Z0 F1600
G1 X30.577 Y107.528 Z0 F1600
G1 X30.968 Y107.817 Z0 F1600
G1 X31.308 Y108.044 Z0 F1600
G1 X31.623 Y108.226 Z0 F1600
G1 X31.939 Y108.379 Z0 F1600
G1 X32.286 Y108.522 Z0 F1600
G1 X32.688 Y108.67 Z0 F1600
G1 X33.067 Y108.843 Z0 F1600
G1 X33.378 Y109.056 Z0 F1600
G1 X33.612 Y109.287 Z0 F1600
G1 X33.758 Y109.513 Z0 F1600
G1 X33.795 Y109.618 Z0 F1600
G1 X33.806 Y109.713 Z0 F1600
G1 X33.791 Y109.796 Z0 F1600
G1 X33.746 Y109.863 Z0 F1600
G1 X33.672 Y109.913 Z0 F1600
G1 X33.568 Y109.942 Z0 F1600
G1 X33.431 Y109.947 Z0 F1600
G1 X33.261 Y109.926 Z0 F1600
G1 X33.17 Y109.935 Z0 F1600
G1 X33.015 Y109.974 Z0 F1600
G1 X32.816 Y110.038 Z0 F1600
G1 X32.596 Y110.12 Z0 F1600
G1 X32.356 Y110.204 Z0 F1600
G1 X32.104 Y110.272 Z0 F1600
G1 X31.869 Y110.318 Z0 F1600
G1 X31.681 Y110.335 Z0 F1600
G1 X31.295 Y110.349 Z0 F1600
G1 X30.892 Y110.381 Z0 F1600
G1 X30.685 Z0 F1600
G1 X30.476 Y110.337 Z0 F1600
G1 X30.267 Y110.248 Z0 F1600
G1 X30.06 Y110.114 Z0 F1600
G1 X29.866 Y109.984 Z0 F1600
G1 X29.644 Y109.863 Z0 F1600
G1 X29.423 Y109.764 Z0 F1600
G1 X29.229 Y109.701 Z0 F1600
G1 X28.998 Y109.641 Z0 F1600
G1 X28.831 Y109.587 Z0 F1600
G1 X28.727 Y109.539 Z0 F1600
G1 X28.687 Y109.495 Z0 F1600
G1 X28.71 Y109.454 Z0 F1600
G1 X28.797 Y109.417 Z0 F1600
G1 X28.946 Y109.382 Z0 F1600
G1 X29.159 Y109.349 Z0 F1600
G1 X29.509 Y109.3 Z0 F1600
G1 X29.594 Y109.284 Z0 F1600
G1 X29.618 Y109.272 Z0 F1600
G1 X29.581 Y109.263 Z0 F1600
G1 X29.481 Y109.255 Z0 F1600
G1 X29.09 Y109.238 Z0 F1600
G1 X28.883 Y109.226 Z0 F1600
G1 X28.708 Y109.205 Z0 F1600
G1 X28.558 Y109.171 Z0 F1600
G1 X28.421 Y109.12 Z0 F1600
G1 X28.291 Y109.048 Z0 F1600
G1 X28.156 Y108.951 Z0 F1600
G1 X28.01 Y108.823 Z0 F1600
G1 X27.843 Y108.663 Z0 F1600
G1 X27.582 Y108.433 Z0 F1600
G1 X27.281 Y108.21 Z0 F1600
G1 X26.978 Y108.022 Z0 F1600
G1 X26.709 Y107.893 Z0 F1600
G1 X26.46 Y107.783 Z0 F1600
G1 X26.293 Y107.677 Z0 F1600
G1 X26.208 Y107.575 Z0 F1600
G1 X26.205 Y107.477 Z0 F1600
G1 X26.219 Y107.397 Z0 F1600
G1 X26.196 Y107.336 Z0 F1600
G1 X26.138 Y107.297 Z0 F1600
G1 X26.048 Y107.284 Z0 F1600
G1 X25.965 Y107.295 Z0 F1600
G1 X25.91 Y107.325 Z0 F1600
G1 X25.888 Y107.369 Z0 F1600
G1 X25.903 Y107.422 Z0 F1600
G1 X25.921 Y107.476 Z0 F1600
G1 X25.907 Y107.521 Z0 F1600
G1 X25.865 Y107.55 Z0 F1600
G1 X25.798 Y107.561 Z0 F1600
G1 X25.666 Y107.516 Z0 F1600
G1 X25.532 Y107.397 Z0 F1600
G1 X25.407 Y107.228 Z0 F1600
G1 X25.304 Y107.034 Z0 F1600
G1 X25.231 Y106.838 Z0 F1600
G1 X25.201 Y106.666 Z0 F1600
G1 X25.225 Y106.541 Z0 F1600
G1 X25.313 Y106.488 Z0 F1600
G1 X25.425 Y106.491 Z0 F1600
G1 X25.495 Y106.522 Z0 F1600
G1 X25.521 Y106.58 Z0 F1600
G1 X25.504 Y106.666 Z0 F1600
G1 X25.495 Y106.755 Z0 F1600
G1 X25.528 Y106.849 Z0 F1600
G1 X25.599 Y106.937 Z0 F1600
G1 X25.7 Y107.009 Z0 F1600
G1 X25.821 Y107.065 Z0 F1600
G1 X25.906 Y107.084 Z0 F1600
G1 X25.956 Y107.066 Z0 F1600
G1 X25.972 Y107.012 Z0 F1600
G1 X25.954 Y106.956 Z0 F1600
G1 X25.904 Y106.91 Z0 F1600
G1 X25.831 Y106.879 Z0 F1600
G1 X25.741 Y106.868 Z0 F1600
G1 X25.658 Y106.861 Z0 F1600
G1 X25.603 Y106.843 Z0 F1600
G1 X25.581 Y106.815 Z0 F1600
G1 X25.596 Y106.782 Z0 F1600
G1 X25.67 Y106.747 Z0 F1600
G1 X25.779 Y106.739 Z0 F1600
G1 X25.908 Y106.755 Z0 F1600
G1 X26.042 Y106.79 Z0 F1600
G1 X26.165 Y106.837 Z0 F1600
G1 X26.262 Y106.893 Z0 F1600
G1 X26.317 Y106.952 Z0 F1600
G1 Y107.011 Z0 F1600
G1 X26.295 Y107.063 Z0 F1600
G1 X26.3 Y107.105 Z0 F1600
G1 X26.329 Y107.135 Z0 F1600
G1 X26.379 Y107.145 Z0 F1600
G1 X26.437 Y107.125 Z0 F1600
G1 X26.483 Y107.068 Z0 F1600
G1 X26.515 Y106.985 Z0 F1600
G1 X26.526 Y106.884 Z0 F1600
G1 X26.548 Y106.777 Z0 F1600
G1 X26.607 Y106.678 Z0 F1600
G1 X26.695 Y106.6 Z0 F1600
G1 X26.803 Y106.551 Z0 F1600
G1 X26.914 Y106.534 Z0 F1600
G1 X27.002 Y106.545 Z0 F1600
G1 X27.061 Y106.581 Z0 F1600
G0 Z3.5 F1000
G0 X31.719 Y105.038 Z3.5 
G1 Z0 F1000
G1 X31.761 Y105.097 Z0 F1600
G1 X31.812 Y105.198 Z0 F1600
G1 X31.875 Y105.345 Z0 F1600
G1 X31.953 Y105.541 Z0 F1600
G1 X32.038 Y105.78 Z0 F1600
G1 X32.095 Y106.002 Z0 F1600
G1 X32.125 Y106.206 Z0 F1600
G1 X32.129 Y106.39 Z0 F1600
G1 X32.106 Y106.554 Z0 F1600
G1 X32.057 Y106.696 Z0 F1600
G1 X31.98 Y106.817 Z0 F1600
G1 X31.877 Y106.915 Z0 F1600
G1 X31.846 Y106.954 Z0 F1600
G1 X31.877 Y106.973 Z0 F1600
G1 X31.966 Z0 F1600
G1 X32.104 Y106.947 Z0 F1600
G1 X32.284 Y106.919 Z0 F1600
G1 X32.401 Y106.929 Z0 F1600
G1 X32.465 Y106.979 Z0 F1600
G1 X32.513 Y107.217 Z0 F1600
G1 X32.59 Y107.277 Z0 F1600
G1 X32.706 Y107.252 Z0 F1600
G1 X32.85 Y107.142 Z0 F1600
G1 X33.019 Y107.07 Z0 F1600
G1 X33.218 Y107.089 Z0 F1600
G1 X33.304 Y107.125 Z0 F1600
G1 X33.366 Y107.174 Z0 F1600
G1 X33.394 Y107.233 Z0 F1600
G1 X33.365 Y107.348 Z0 F1600
G1 X33.389 Y107.387 Z0 F1600
G1 X33.443 Y107.414 Z0 F1600
G1 X33.605 Y107.434 Z0 F1600
G1 X33.66 Y107.46 Z0 F1600
G1 X33.683 Y107.5 Z0 F1600
G1 X33.671 Y107.549 Z0 F1600
G1 X33.619 Y107.592 Z0 F1600
G1 X33.535 Y107.617 Z0 F1600
G1 X33.431 Y107.621 Z0 F1600
G1 X33.318 Y107.603 Z0 F1600
G1 X33.216 Y107.566 Z0 F1600
G1 X33.143 Y107.521 Z0 F1600
G1 X33.104 Y107.472 Z0 F1600
G1 X33.107 Y107.425 Z0 F1600
G1 X33.086 Y107.39 Z0 F1600
G1 X32.981 Y107.37 Z0 F1600
G1 X32.808 Z0 F1600
G1 X32.585 Y107.386 Z0 F1600
G1 X32.333 Z0 F1600
G1 X32.087 Y107.34 Z0 F1600
G1 X31.856 Y107.251 Z0 F1600
G1 X31.652 Y107.13 Z0 F1600
G1 X31.487 Y106.984 Z0 F1600
G1 X31.37 Y106.821 Z0 F1600
G1 X31.313 Y106.65 Z0 F1600
G1 X31.329 Y106.478 Z0 F1600
G1 X31.352 Y106.39 Z0 F1600
G1 Y106.348 Z0 F1600
G1 X31.33 Y106.353 Z0 F1600
G1 X31.286 Y106.404 Z0 F1600
G1 X31.249 Y106.435 Z0 F1600
G1 X31.197 Y106.443 Z0 F1600
G1 X31.132 Y106.43 Z0 F1600
G1 X31.051 Y106.395 Z0 F1600
G1 X30.954 Y106.336 Z0 F1600
G1 X30.84 Y106.255 Z0 F1600
G1 X30.71 Y106.151 Z0 F1600
G1 X30.562 Y106.023 Z0 F1600
G1 X30.371 Y105.853 Z0 F1600
G1 X30.231 Y105.722 Z0 F1600
G1 X30.139 Y105.626 Z0 F1600
G1 X30.092 Y105.561 Z0 F1600
G1 X30.089 Y105.519 Z0 F1600
G1 X30.125 Y105.496 Z0 F1600
G1 X30.201 Y105.486 Z0 F1600
G1 X30.311 Z0 F1600
G1 X30.456 Y105.495 Z0 F1600
G1 X30.588 Y105.524 Z0 F1600
G1 X30.691 Y105.568 Z0 F1600
G1 X30.862 Y105.72 Z0 F1600
G1 X31.003 Y105.759 Z0 F1600
G1 X31.065 Y105.751 Z0 F1600
G1 X31.083 Y105.729 Z0 F1600
G1 X31.056 Y105.692 Z0 F1600
G1 X30.984 Y105.64 Z0 F1600
G1 X30.903 Y105.578 Z0 F1600
G1 X30.883 Y105.528 Z0 F1600
G1 X30.925 Y105.482 Z0 F1600
G1 X31.031 Y105.433 Z0 F1600
G1 X31.229 Y105.392 Z0 F1600
G1 X31.379 Y105.416 Z0 F1600
G1 X31.432 Y105.42 Z0 F1600
G1 X31.49 Y105.376 Z0 F1600
G1 X31.546 Y105.294 Z0 F1600
G1 X31.593 Y105.18 Z0 F1600
G1 X31.624 Y105.093 Z0 F1600
G1 X31.653 Y105.039 Z0 F1600
G1 X31.684 Y105.02 Z0 F1600
G1 X31.719 Y105.038 Z0 F1600
G0 Z3.5 F1000
G0 X33.913 Y105.506 Z3.5 
G1 Z0 F1000
G1 X33.803 Y105.529 Z0 F1600
G1 X33.718 Y105.568 Z0 F1600
G1 X33.663 Y105.623 Z0 F1600
G1 X33.673 Y105.68 Z0 F1600
G1 X33.779 Y105.721 Z0 F1600
G1 X33.972 Y105.746 Z0 F1600
G1 X34.244 Y105.751 Z0 F1600
G1 X34.413 Y105.747 Z0 F1600
G1 X34.544 Y105.741 Z0 F1600
G1 X34.641 Y105.731 Z0 F1600
G1 X34.704 Y105.718 Z0 F1600
G1 X34.733 Y105.701 Z0 F1600
G1 X34.73 Y105.679 Z0 F1600
G1 X34.696 Y105.653 Z0 F1600
G1 X34.633 Y105.623 Z0 F1600
G1 X34.333 Y105.529 Z0 F1600
G1 X34.042 Y105.499 Z0 F1600
G1 X33.913 Y105.506 Z0 F1600
G0 Z3.5 F1000
G0 X32.847 Y105.705 Z3.5 
G1 Z0 F1000
G1 X32.765 Y105.408 Z0 F1600
G1 X32.683 Y105.163 Z0 F1600
G1 X32.667 Y105.071 Z0 F1600
G1 X32.692 Y104.992 Z0 F1600
G1 X32.756 Y104.93 Z0 F1600
G1 X32.856 Y104.889 Z0 F1600
G1 X33.016 Y104.85 Z0 F1600
G1 X33.145 Y104.825 Z0 F1600
G1 X33.245 Y104.814 Z0 F1600
G1 X33.318 Y104.818 Z0 F1600
G1 X33.365 Y104.837 Z0 F1600
G1 X33.389 Y104.871 Z0 F1600
G1 Y104.92 Z0 F1600
G1 X33.372 Y104.985 Z0 F1600
G1 X33.354 Y105.067 Z0 F1600
G1 X33.358 Y105.146 Z0 F1600
G1 X33.385 Y105.214 Z0 F1600
G1 X33.431 Y105.261 Z0 F1600
G1 X33.489 Y105.277 Z0 F1600
G1 X33.549 Y105.259 Z0 F1600
G1 X33.603 Y105.21 Z0 F1600
G1 X33.644 Y105.137 Z0 F1600
G1 X33.698 Y105.056 Z0 F1600
G1 X33.785 Y104.991 Z0 F1600
G1 X33.895 Y104.946 Z0 F1600
G1 X34.013 Y104.93 Z0 F1600
G1 X34.12 Y104.939 Z0 F1600
G1 X34.196 Y104.964 Z0 F1600
G1 X34.235 Y105.002 Z0 F1600
G1 X34.229 Y105.048 Z0 F1600
G1 X34.242 Y105.074 Z0 F1600
G1 X34.306 Y105.101 Z0 F1600
G1 X34.416 Y105.128 Z0 F1600
G1 X34.566 Y105.155 Z0 F1600
G1 X34.753 Y105.181 Z0 F1600
G1 X34.972 Y105.206 Z0 F1600
G1 X35.215 Y105.227 Z0 F1600
G1 X35.479 Y105.246 Z0 F1600
G1 X35.989 Y105.294 Z0 F1600
G1 X36.459 Y105.372 Z0 F1600
G1 X36.875 Y105.472 Z0 F1600
G1 X37.218 Y105.588 Z0 F1600
G1 X37.357 Y105.65 Z0 F1600
G1 X37.472 Y105.714 Z0 F1600
G1 X37.561 Y105.778 Z0 F1600
G1 X37.621 Y105.842 Z0 F1600
G1 X37.651 Y105.905 Z0 F1600
G1 X37.647 Y105.966 Z0 F1600
G1 X37.61 Y106.024 Z0 F1600
G1 X37.535 Y106.079 Z0 F1600
G1 X37.446 Y106.116 Z0 F1600
G1 X37.351 Y106.133 Z0 F1600
G1 X37.263 Y106.129 Z0 F1600
G1 X37.14 Y106.085 Z0 F1600
G1 X37.104 Y106.097 Z0 F1600
G1 X37.085 Y106.137 Z0 F1600
G1 X37.089 Y106.201 Z0 F1600
G1 Y106.269 Z0 F1600
G1 X37.056 Y106.317 Z0 F1600
G1 X36.998 Y106.341 Z0 F1600
G1 X36.919 Y106.336 Z0 F1600
G1 X36.865 Y106.328 Z0 F1600
G1 X36.778 Y106.317 Z0 F1600
G1 X36.521 Y106.295 Z0 F1600
G1 X36.175 Y106.272 Z0 F1600
G1 X35.767 Y106.249 Z0 F1600
G1 X34.867 Y106.208 Z0 F1600
G1 X34.036 Y106.184 Z0 F1600
G1 X33.839 Y106.171 Z0 F1600
G1 X33.715 Y106.139 Z0 F1600
G1 X33.661 Y106.088 Z0 F1600
G1 X33.676 Y106.017 Z0 F1600
G1 X33.708 Y105.955 Z0 F1600
G1 X33.705 Y105.925 Z0 F1600
G1 X33.669 Y105.929 Z0 F1600
G1 X33.6 Y105.965 Z0 F1600
G1 X33.52 Y105.995 Z0 F1600
G1 X33.439 Y105.989 Z0 F1600
G1 X33.365 Y105.952 Z0 F1600
G1 X33.303 Y105.883 Z0 F1600
G1 X33.247 Y105.804 Z0 F1600
G1 X33.209 Y105.775 Z0 F1600
G1 X33.188 Y105.795 Z0 F1600
G1 X33.168 Y105.959 Z0 F1600
G1 X33.139 Y106.017 Z0 F1600
G1 X33.096 Y106.039 Z0 F1600
G1 X33.045 Y106.028 Z0 F1600
G1 X32.99 Y105.988 Z0 F1600
G1 X32.935 Y105.918 Z0 F1600
G1 X32.886 Y105.823 Z0 F1600
G1 X32.847 Y105.705 Z0 F1600
G0 Z3.5 F1000
G0 X33.311 Y106.197 Z3.5 
G1 Z0 F1000
G1 X33.517 Y106.262 Z0 F1600
G1 X33.617 Y106.312 Z0 F1600
G1 X33.66 Y106.37 Z0 F1600
G1 X33.646 Y106.443 Z0 F1600
G1 X33.579 Y106.541 Z0 F1600
G1 X33.508 Y106.598 Z0 F1600
G1 X33.425 Y106.625 Z0 F1600
G1 X33.335 Z0 F1600
G1 X33.247 Y106.596 Z0 F1600
G1 X33.167 Y106.547 Z0 F1600
G1 X33.101 Y106.479 Z0 F1600
G1 X33.056 Y106.395 Z0 F1600
G1 X33.039 Y106.298 Z0 F1600
G1 X33.07 Y106.215 Z0 F1600
G1 X33.162 Y106.181 Z0 F1600
G1 X33.311 Y106.197 Z0 F1600
G0 Z3.5 F1000
G0 X34.441 Y106.466 Z3.5 
G1 Z0 F1000
G1 X34.507 Y106.48 Z0 F1600
G1 X34.538 Y106.505 Z0 F1600
G1 X34.526 Y106.536 Z0 F1600
G1 X34.414 Y106.574 Z0 F1600
G1 X34.26 Y106.547 Z0 F1600
G1 X34.204 Y106.517 Z0 F1600
G1 X34.2 Y106.492 Z0 F1600
G1 X34.248 Y106.473 Z0 F1600
G1 X34.344 Y106.463 Z0 F1600
G1 X34.441 Y106.466 Z0 F1600
G0 Z3.5 F1000
G0 X35.411 Z3.5 
G1 Z0 F1000
G1 X35.477 Y106.48 Z0 F1600
G1 X35.508 Y106.505 Z0 F1600
G1 X35.496 Y106.536 Z0 F1600
G1 X35.384 Y106.574 Z0 F1600
G1 X35.23 Y106.547 Z0 F1600
G1 X35.174 Y106.517 Z0 F1600
G1 X35.17 Y106.492 Z0 F1600
G1 X35.217 Y106.473 Z0 F1600
G1 X35.314 Y106.463 Z0 F1600
G1 X35.411 Y106.466 Z0 F1600
G0 Z3.5 F1000
G0 X36.372 Y106.531 Z3.5 
G1 Z0 F1000
G1 X36.573 Y106.556 Z0 F1600
G1 X36.794 Y106.596 Z0 F1600
G1 X36.988 Y106.647 Z0 F1600
G1 X37.133 Y106.703 Z0 F1600
G1 X37.208 Y106.757 Z0 F1600
G1 X37.272 Y106.799 Z0 F1600
G1 X37.388 Y106.823 Z0 F1600
G1 X37.537 Y106.826 Z0 F1600
G1 X37.705 Y106.807 Z0 F1600
G1 X37.882 Y106.793 Z0 F1600
G1 X38.014 Y106.817 Z0 F1600
G1 X38.097 Y106.869 Z0 F1600
G1 X38.132 Y106.939 Z0 F1600
G1 X38.118 Y107.021 Z0 F1600
G1 X38.052 Y107.104 Z0 F1600
G1 X37.934 Y107.179 Z0 F1600
G1 X37.762 Y107.237 Z0 F1600
G1 X37.391 Y107.357 Z0 F1600
G1 X37 Y107.527 Z0 F1600
G1 X36.777 Y107.626 Z0 F1600
G1 X36.563 Y107.698 Z0 F1600
G1 X36.365 Y107.742 Z0 F1600
G1 X36.185 Y107.757 Z0 F1600
G1 X36.03 Y107.744 Z0 F1600
G1 X35.905 Y107.702 Z0 F1600
G1 X35.814 Y107.632 Z0 F1600
G1 X35.764 Y107.534 Z0 F1600
G1 X35.724 Y107.422 Z0 F1600
G1 X35.674 Y107.345 Z0 F1600
G1 X35.618 Y107.303 Z0 F1600
G1 X35.557 Y107.294 Z0 F1600
G1 X35.496 Y107.32 Z0 F1600
G1 X35.436 Y107.379 Z0 F1600
G1 X35.381 Y107.471 Z0 F1600
G1 X35.334 Y107.596 Z0 F1600
G1 X35.303 Y107.695 Z0 F1600
G1 X35.279 Y107.767 Z0 F1600
G1 X35.257 Y107.811 Z0 F1600
G1 X35.237 Y107.827 Z0 F1600
G1 X35.216 Y107.817 Z0 F1600
G1 X35.191 Y107.781 Z0 F1600
G1 X35.162 Y107.718 Z0 F1600
G1 X35.124 Y107.63 Z0 F1600
G1 X35.084 Y107.495 Z0 F1600
G1 X35.087 Y107.377 Z0 F1600
G1 X35.135 Y107.274 Z0 F1600
G1 X35.228 Y107.18 Z0 F1600
G1 X35.337 Y107.087 Z0 F1600
G1 X35.369 Y107.035 Z0 F1600
G1 X35.319 Y107.012 Z0 F1600
G1 X35.186 Y107.007 Z0 F1600
G1 X35.077 Y106.998 Z0 F1600
G1 X35.021 Y106.972 Z0 F1600
G1 Y106.927 Z0 F1600
G1 X35.068 Y106.863 Z0 F1600
G1 X35.151 Y106.81 Z0 F1600
G1 X35.261 Y106.789 Z0 F1600
G1 X35.395 Y106.802 Z0 F1600
G1 X35.718 Y106.896 Z0 F1600
G1 X35.867 Y106.904 Z0 F1600
G1 X36.005 Y106.872 Z0 F1600
G1 X36.135 Y106.798 Z0 F1600
G1 X36.241 Y106.71 Z0 F1600
G1 X36.287 Y106.643 Z0 F1600
G1 X36.272 Y106.591 Z0 F1600
G1 X36.199 Y106.548 Z0 F1600
G1 X36.173 Y106.527 Z0 F1600
G1 X36.234 Y106.521 Z0 F1600
G1 X36.372 Y106.531 Z0 F1600
G0 Z3.5 F1000
G0 X34.944 Y107.492 Z3.5 
G1 Z0 F1000
G1 X34.979 Y107.626 Z0 F1600
G1 X34.965 Y107.705 Z0 F1600
G1 X34.923 Y107.753 Z0 F1600
G1 X34.858 Y107.769 Z0 F1600
G1 X34.772 Y107.75 Z0 F1600
