;LightBurn 1.6.04
;Custom GCode device profile, absolute coords
;Bounds: X19.16 Y18.79 to X82.23 Y44.45
G00 G17 G40 G21 G54
G90
M3
G1 Z1F500
;Cut @ 15 mm/sec, 80% power

M8
G0 Z0.8F500
G0 X29.724Y28.98Z0.8F1000
G1 Z0F500
;Layer C02
G1 X29.863Y28.965Z0S800F800
G1 X30.044Y28.953Z0F800
G1 X30.26Y28.946Z0F800
G1 X30.504Y28.943Z0F800
G1 X31.05Y28.951Z0F800
G1 X31.623Y28.977Z0F800
G1 X32.359Y29.022Z0F800
G1 X35.975Y35.966Z0F800
G1 X36.631Y37.219Z0F800
G1 X34.206Z0F800
G1 X32.888Y34.506Z0F800
G1 X32.373Y33.452Z0F800
G1 X31.944Y32.589Z0F800
G1 X31.776Y32.257Z0F800
G1 X31.598Y31.913Z0F800
G1 X31.536Y31.805Z0F800
G1 X31.525Y31.79Z0F800
G1 X31.513Y31.803Z0F800
G1 X31.449Y31.903Z0F800
G1 X31.264Y32.221Z0F800
G1 X31.089Y32.53Z0F800
G1 X30.642Y33.332Z0F800
G1 X30.104Y34.311Z0F800
G1 X29.562Y35.304Z0F800
G1 X29.102Y36.14Z0F800
G1 X28.775Y36.732Z0F800
G1 X28.675Y36.909Z0F800
G1 X28.627Y36.992Z0F800
G1 X28.589Y37.044Z0F800
G1 X28.539Y37.082Z0F800
G1 X28.455Y37.11Z0F800
G1 X28.316Y37.129Z0F800
G1 X28.101Y37.14Z0F800
G1 X27.788Y37.146Z0F800
G1 X27.589Z0F800
G1 X25.05Y37.149Z0F800
G1 X25.072Y36.949Z0F800
G1 X25.086Y36.908Z0F800
G1 X25.122Y36.829Z0F800
G1 X25.179Y36.714Z0F800
G1 X25.352Y36.384Z0F800
G1 X25.596Y35.935Z0F800
G1 X26.075Y35.072Z0F800
G1 X26.455Y34.396Z0F800
G1 X26.874Y33.659Z0F800
G1 X27.662Y32.287Z0F800
G1 X28.24Y31.288Z0F800
G1 X28.695Y30.508Z0F800
G1 X29.044Y29.922Z0F800
G1 X29.183Y29.694Z0F800
G1 X29.302Y29.504Z0F800
G1 X29.402Y29.349Z0F800
G1 X29.485Y29.226Z0F800
G1 X29.554Y29.133Z0F800
G1 X29.656Y29.019Z0F800
G1 X29.724Y28.98Z0F800
G0 Z0.8F500
G0 X40.217Y34.239Z0.8F1000
G1 Z0F500
G1 X40.176Y34.373Z0F800
G1 X40.204Y34.565Z0F800
G1 X40.301Y34.821Z0F800
G1 X40.464Y35.108Z0F800
G1 X40.675Y35.376Z0F800
G1 X40.918Y35.605Z0F800
G1 X41.173Y35.774Z0F800
G1 X41.344Y35.847Z0F800
G1 X41.547Y35.898Z0F800
G1 X41.811Y35.931Z0F800
G1 X42.166Y35.952Z0F800
G1 X42.383Y35.96Z0F800
G1 X42.558Z0F800
G1 X42.763Y35.955Z0F800
G1 X42.926Y35.929Z0F800
G1 X43.078Y35.882Z0F800
G1 X43.249Y35.809Z0F800
G1 X43.493Y35.685Z0F800
G1 X43.706Y35.55Z0F800
G1 X43.889Y35.403Z0F800
G1 X44.043Y35.241Z0F800
G1 X44.171Y35.062Z0F800
G1 X44.273Y34.864Z0F800
G1 X44.352Y34.645Z0F800
G1 X44.41Y34.403Z0F800
G1 X44.469Y34.085Z0F800
G1 X42.476Y34.09Z0F800
G1 X42.073Z0F800
G1 X41.69Y34.096Z0F800
G1 X41.337Y34.103Z0F800
G1 X41.023Y34.111Z0F800
G1 X40.755Y34.121Z0F800
G1 X40.544Y34.132Z0F800
G1 X40.399Y34.144Z0F800
G1 X40.326Y34.157Z0F800
G1 X40.217Y34.239Z0F800
G0 Z0.8F500
G0 X40.531Y32.458Z0.8F1000
G1 Z0F500
G1 X40.825Y32.47Z0F800
G1 X41.228Y32.482Z0F800
G1 X42.003Y32.499Z0F800
G1 X43.276Y32.522Z0F800
G1 X47.482Y32.575Z0F800
G1 Y32.79Z0F800
G1 X47.456Y33.135Z0F800
G1 X47.388Y33.563Z0F800
G1 X47.286Y34.028Z0F800
G1 X47.157Y34.487Z0F800
G1 X47.039Y34.823Z0F800
G1 X46.903Y35.139Z0F800
G1 X46.746Y35.435Z0F800
G1 X46.571Y35.712Z0F800
G1 X46.376Y35.971Z0F800
G1 X46.161Y36.21Z0F800
G1 X45.927Y36.43Z0F800
G1 X45.673Y36.631Z0F800
G1 X45.399Y36.813Z0F800
G1 X45.105Y36.976Z0F800
G1 X44.791Y37.121Z0F800
G1 X44.457Y37.247Z0F800
G1 X44.103Y37.355Z0F800
G1 X43.728Y37.444Z0F800
G1 X43.332Y37.515Z0F800
G1 X42.916Y37.567Z0F800
G1 X42.56Y37.594Z0F800
G1 X42.202Y37.601Z0F800
G1 X41.427Y37.55Z0F800
G1 X40.655Y37.41Z0F800
G1 X39.891Y37.181Z0F800
G1 X39.139Y36.864Z0F800
G1 X38.609Y36.571Z0F800
G1 X38.149Y36.239Z0F800
G1 X37.758Y35.866Z0F800
G1 X37.433Y35.451Z0F800
G1 X37.175Y34.99Z0F800
G1 X36.981Y34.482Z0F800
G1 X36.851Y33.926Z0F800
G1 X36.783Y33.319Z0F800
G1 X36.775Y32.86Z0F800
G1 X36.808Y32.424Z0F800
G1 X36.882Y32.01Z0F800
G1 X36.996Y31.618Z0F800
G1 X37.151Y31.247Z0F800
G1 X37.347Y30.898Z0F800
G1 X37.585Y30.569Z0F800
G1 X37.864Y30.261Z0F800
G1 X38.157Y29.994Z0F800
G1 X38.476Y29.756Z0F800
G1 X38.822Y29.546Z0F800
G1 X39.199Y29.361Z0F800
G1 X39.61Y29.201Z0F800
G1 X40.058Y29.065Z0F800
G1 X40.545Y28.951Z0F800
G1 X41.075Y28.857Z0F800
G1 X41.412Y28.809Z0F800
G1 X41.708Y28.773Z0F800
G1 X41.975Y28.748Z0F800
G1 X42.223Y28.736Z0F800
G1 X42.704Y28.745Z0F800
G1 X43.236Y28.796Z0F800
G1 X43.795Y28.88Z0F800
G1 X44.323Y28.991Z0F800
G1 X44.818Y29.127Z0F800
G1 X45.279Y29.288Z0F800
G1 X45.701Y29.473Z0F800
G1 X46.085Y29.682Z0F800
G1 X46.426Y29.912Z0F800
G1 X46.724Y30.164Z0F800
G1 X46.994Y30.448Z0F800
G1 X47.212Y30.728Z0F800
G1 X47.296Y30.857Z0F800
G1 X47.359Y30.975Z0F800
G1 X47.398Y31.076Z0F800
G1 X47.412Y31.158Z0F800
G1 X47.39Y31.175Z0F800
G1 X47.325Y31.189Z0F800
G1 X47.217Y31.202Z0F800
G1 X47.066Y31.212Z0F800
G1 X46.874Y31.22Z0F800
G1 X46.639Y31.226Z0F800
G1 X46.363Y31.229Z0F800
G1 X44.681Z0F800
G1 X44.308Y30.889Z0F800
G1 X44.131Y30.739Z0F800
G1 X43.959Y30.615Z0F800
G1 X43.784Y30.517Z0F800
G1 X43.599Y30.442Z0F800
G1 X43.398Y30.387Z0F800
G1 X43.174Y30.351Z0F800
G1 X42.921Y30.331Z0F800
G1 X42.63Y30.325Z0F800
G1 X42.364Y30.331Z0F800
G1 X42.126Y30.35Z0F800
G1 X41.908Y30.384Z0F800
G1 X41.707Y30.435Z0F800
G1 X41.328Y30.595Z0F800
G1 X40.942Y30.843Z0F800
G1 X40.728Y31.033Z0F800
G1 X40.538Y31.263Z0F800
G1 X40.382Y31.513Z0F800
G1 X40.264Y31.766Z0F800
G1 X40.193Y32.004Z0F800
G1 X40.175Y32.208Z0F800
G1 X40.217Y32.36Z0F800
G1 X40.327Y32.443Z0F800
G1 X40.361Y32.448Z0F800
G1 X40.531Y32.458Z0F800
G0 Z0.8F500
G0 X49.156Y32.164Z0.8F1000
G1 Z0F500
G1 X49.166Y30.902Z0F800
G1 X49.173Y30.381Z0F800
G1 X49.18Y29.957Z0F800
G1 X49.189Y29.646Z0F800
G1 X49.198Y29.465Z0F800
G1 X49.243Y28.932Z0F800
G1 X51.187Z0F800
G1 X52.1Y28.94Z0F800
G1 X53.691Y28.961Z0F800
G1 X54.712Y28.978Z0F800
G1 X57.021Y29.024Z0F800
G1 Y30.952Z0F800
G1 X52.356Z0F800
G1 Y37.219Z0F800
G1 X49.153Z0F800
G1 Y33.608Z0F800
G1 X49.156Y32.164Z0F800
G0 Z0.8F500
G0 X58.762Y32.435Z0.8F1000
G1 Z0F500
G1 Y31.307Z0F800
G1 X58.768Y30.457Z0F800
G1 X58.775Y29.844Z0F800
G1 X58.78Y29.615Z0F800
G1 X58.787Y29.431Z0F800
G1 X58.795Y29.287Z0F800
G1 X58.805Y29.177Z0F800
G1 X58.817Y29.097Z0F800
G1 X58.846Y29.008Z0F800
G1 X58.884Y28.98Z0F800
G1 X58.938Y28.973Z0F800
G1 X59.046Y28.967Z0F800
G1 X59.395Y28.955Z0F800
G1 X59.88Y28.946Z0F800
G1 X60.451Y28.94Z0F800
G1 X61.896Y28.932Z0F800
G1 Y37.219Z0F800
G1 X58.762Z0F800
G1 Y32.435Z0F800
G0 Z0.8F500
G0 X63.552Y35.502Z0.8F1000
G1 Z0F500
G1 X63.634Y35.513Z0F800
G1 X63.861Y35.564Z0F800
G1 X64.08Y35.642Z0F800
G1 X64.24Y35.745Z0F800
G1 X64.409Y35.902Z0F800
G1 X64.553Y36.077Z0F800
G1 X64.64Y36.236Z0F800
G1 X64.662Y36.336Z0F800
G1 X64.681Y36.476Z0F800
G1 X64.713Y37.163Z0F800
G1 X64.733Y37.937Z0F800
G1 Y38.028Z0F800
G1 X62.941Z0F800
G1 Y36.688Z0F800
G1 X63.223Z0F800
G1 X63.48Y36.683Z0F800
G1 X63.697Y36.671Z0F800
G1 X63.858Y36.652Z0F800
G1 X63.949Y36.627Z0F800
G1 X63.999Y36.59Z0F800
G1 X64.033Y36.536Z0F800
G1 X64.053Y36.465Z0F800
G1 X64.058Y36.373Z0F800
G1 X64.026Y36.157Z0F800
G1 X63.943Y35.97Z0F800
G1 X63.815Y35.823Z0F800
G1 X63.651Y35.728Z0F800
G1 X63.585Y35.699Z0F800
G1 X63.548Y35.667Z0F800
G1 X63.534Y35.624Z0F800
G1 X63.54Y35.562Z0F800
G1 X63.552Y35.502Z0F800
G0 Z0.8F500
G0 X65.229Y35.097Z0.8F1000
G1 Z0F500
G1 X65.174Y34.676Z0F800
G1 X65.177Y34.466Z0F800
G1 X65.2Y34.266Z0F800
G1 X65.243Y34.081Z0F800
G1 X65.306Y33.916Z0F800
G1 X65.462Y33.655Z0F800
G1 X65.673Y33.423Z0F800
G1 X65.953Y33.211Z0F800
G1 X66.316Y33.015Z0F800
G1 X66.534Y32.919Z0F800
G1 X66.777Y32.825Z0F800
G1 X67.049Y32.732Z0F800
G1 X67.351Y32.637Z0F800
G1 X67.685Y32.541Z0F800
G1 X68.052Y32.443Z0F800
G1 X68.454Y32.341Z0F800
G1 X69.338Y32.129Z0F800
G1 X69.774Y32.02Z0F800
G1 X70.153Y31.922Z0F800
G1 X70.423Y31.847Z0F800
G1 X70.762Y31.719Z0F800
G1 X71.029Y31.563Z0F800
G1 X71.22Y31.383Z0F800
G1 X71.334Y31.185Z0F800
G1 X71.37Y30.973Z0F800
G1 X71.325Y30.753Z0F800
G1 X71.197Y30.529Z0F800
G1 X70.986Y30.308Z0F800
G1 X70.866Y30.223Z0F800
G1 X70.721Y30.151Z0F800
G1 X70.551Y30.092Z0F800
G1 X70.358Y30.045Z0F800
G1 X70.141Y30.012Z0F800
G1 X69.903Y29.993Z0F800
G1 X69.643Y29.987Z0F800
G1 X69.363Y29.995Z0F800
G1 X69.045Y30.019Z0F800
G1 X68.775Y30.059Z0F800
G1 X68.547Y30.118Z0F800
G1 X68.353Y30.2Z0F800
G1 X68.187Y30.308Z0F800
G1 X68.042Y30.447Z0F800
G1 X67.91Y30.619Z0F800
G1 X67.786Y30.829Z0F800
G1 X67.571Y31.228Z0F800
G1 X66.293Z0F800
G1 X65.944Z0F800
G1 X65.807Y31.222Z0F800
G1 X65.598Y31.202Z0F800
G1 X65.468Y31.162Z0F800
G1 X65.403Y31.096Z0F800
G1 X65.392Y30.997Z0F800
G1 X65.422Y30.859Z0F800
G1 X65.482Y30.675Z0F800
G1 X65.627Y30.353Z0F800
G1 X65.84Y30.051Z0F800
G1 X66.114Y29.772Z0F800
G1 X66.444Y29.52Z0F800
G1 X66.824Y29.3Z0F800
G1 X67.247Y29.114Z0F800
G1 X67.708Y28.968Z0F800
G1 X68.2Y28.865Z0F800
G1 X68.326Y28.85Z0F800
G1 X68.481Y28.838Z0F800
G1 X68.662Y28.829Z0F800
G1 X68.864Y28.824Z0F800
G1 X69.317Z0F800
G1 X69.808Y28.833Z0F800
G1 X70.304Y28.855Z0F800
G1 X70.774Y28.885Z0F800
G1 X71.186Y28.925Z0F800
G1 X71.506Y28.971Z0F800
G1 X71.993Y29.081Z0F800
G1 X72.437Y29.217Z0F800
G1 X72.836Y29.378Z0F800
G1 X73.191Y29.564Z0F800
G1 X73.5Y29.775Z0F800
G1 X73.764Y30.011Z0F800
G1 X73.98Y30.27Z0F800
G1 X74.149Y30.553Z0F800
G1 X74.328Y31.005Z0F800
G1 X74.413Y31.439Z0F800
G1 X74.406Y31.852Z0F800
G1 X74.308Y32.241Z0F800
G1 X74.12Y32.601Z0F800
G1 X73.844Y32.931Z0F800
G1 X73.481Y33.225Z0F800
G1 X73.032Y33.481Z0F800
G1 X72.508Y33.703Z0F800
G1 X71.92Y33.886Z0F800
G1 X71.573Y33.97Z0F800
G1 X71.175Y34.053Z0F800
G1 X70.716Y34.139Z0F800
G1 X69.7Y34.313Z0F800
G1 X69.301Y34.392Z0F800
G1 X68.978Y34.469Z0F800
G1 X68.72Y34.548Z0F800
G1 X68.518Y34.632Z0F800
G1 X68.363Y34.724Z0F800
G1 X68.246Y34.829Z0F800
G1 X68.157Y34.948Z0F800
G1 X68.075Y35.112Z0F800
G1 X68.035Y35.269Z0F800
G1 Y35.417Z0F800
G1 X68.075Y35.558Z0F800
G1 X68.156Y35.689Z0F800
G1 X68.276Y35.811Z0F800
G1 X68.435Y35.921Z0F800
G1 X68.634Y36.021Z0F800
G1 X68.991Y36.145Z0F800
G1 X69.364Y36.21Z0F800
G1 X69.768Y36.22Z0F800
G1 X70.22Y36.175Z0F800
G1 X70.532Y36.119Z0F800
G1 X70.81Y36.05Z0F800
G1 X71.054Y35.967Z0F800
G1 X71.265Y35.869Z0F800
G1 X71.443Y35.758Z0F800
G1 X71.589Y35.631Z0F800
G1 X71.703Y35.489Z0F800
G1 X71.787Y35.332Z0F800
G1 X71.871Y35.13Z0F800
G1 X74.231Z0F800
G1 X74.185Y35.287Z0F800
G1 X74.086Y35.554Z0F800
G1 X73.949Y35.813Z0F800
G1 X73.778Y36.062Z0F800
G1 X73.572Y36.299Z0F800
G1 X73.336Y36.522Z0F800
G1 X73.071Y36.728Z0F800
G1 X72.78Y36.914Z0F800
G1 X72.464Y37.079Z0F800
G1 X71.979Y37.279Z0F800
G1 X71.497Y37.407Z0F800
G1 X71.231Y37.447Z0F800
G1 X70.934Y37.473Z0F800
G1 X70.596Y37.487Z0F800
G1 X70.205Y37.491Z0F800
G1 X69.954Y37.488Z0F800
G1 X69.273Y37.474Z0F800
G1 X68.952Y37.464Z0F800
G1 X68.699Y37.449Z0F800
G1 X68.493Y37.428Z0F800
G1 X68.143Y37.357Z0F800
G1 X67.745Y37.23Z0F800
G1 X67.323Y37.069Z0F800
G1 X66.931Y36.888Z0F800
G1 X66.571Y36.688Z0F800
G1 X66.247Y36.471Z0F800
G1 X65.961Y36.24Z0F800
G1 X65.716Y35.997Z0F800
G1 X65.515Y35.744Z0F800
G1 X65.362Y35.483Z0F800
G1 X65.229Y35.097Z0F800
;Offset @ 15 mm/sec, 90% power

M8
G0 Z0.8F500
G0 X77.145Y39.932Z0.8F1000
G1 Z0F500
;Layer Blue
G1 X77.26Y40.449Z0S900F800
G1 X74.982Z0F800
G1 X75.553Y40.079Z0F800
G1 X76.136Y39.612Z0F800
G1 X76.677Y39.082Z0F800
G1 X76.896Y38.815Z0F800
G1 X77.145Y39.932Z0F800
G0 Z0.8F500
G0 X31.179Y40.438Z0.8F1000
G1 Z0F500
G1 X31.069Z0F800
G1 X31.144Y40.366Z0F800
G1 X31.179Y40.438Z0F800
G0 Z0.8F500
G0 X32.269Y40.389Z0.8F1000
G1 Z0F500
G1 X35.497Z0F800
G1 X36.063Y40.384Z0F800
G1 X36.553Y40.37Z0F800
G1 X36.792Y40.358Z0F800
G1 X37.035Y40.338Z0F800
G1 X37.587Y40.266Z0F800
G1 X38.315Y39.962Z0F800
G1 X38.406Y40.001Z0F800
G1 X39.017Y40.221Z0F800
G1 X39.644Y40.404Z0F800
G1 X40.292Y40.556Z0F800
G1 X40.806Y40.647Z0F800
G1 X41.324Y40.71Z0F800
G1 X41.839Y40.745Z0F800
G1 X42.371Y40.753Z0F800
G1 X43.115Y40.719Z0F800
G1 X43.87Y40.628Z0F800
G1 X44.611Y40.481Z0F800
G1 X45.338Y40.278Z0F800
G1 X46.051Y40.014Z0F800
G1 X46.651Y39.728Z0F800
G1 X48.419Y40.285Z0F800
G1 X48.883Y40.337Z0F800
G1 X49.15Y40.355Z0F800
G1 X49.421Y40.367Z0F800
G1 X49.717Y40.376Z0F800
G1 X50.044Y40.383Z0F800
G1 X50.398Y40.388Z0F800
G1 X50.764Z0F800
G1 X55.496Z0F800
G1 Y34.062Z0F800
G1 X55.597Z0F800
G1 Y40.389Z0F800
G1 X59.814Z0F800
G1 Y41.142Z0F800
G1 X67.94Z0F800
G1 X67.924Y40.525Z0F800
G1 X68.308Y40.589Z0F800
G1 X68.713Y40.622Z0F800
G1 X69.07Y40.637Z0F800
G1 X69.448Y40.644Z0F800
G1 X69.887Z0F800
G1 X70.436Z0F800
G1 X70.947Y40.632Z0F800
G1 X71.449Y40.599Z0F800
G1 X71.96Y40.534Z0F800
G1 X72.477Y40.425Z0F800
G1 X72.969Y40.278Z0F800
G1 X73.413Y40.108Z0F800
G1 X73.875Y39.907Z0F800
G1 X74.418Y39.625Z0F800
G1 X74.966Y39.268Z0F800
G1 X75.472Y38.863Z0F800
G1 X75.939Y38.405Z0F800
G1 X76.361Y37.892Z0F800
G1 X76.731Y37.318Z0F800
G1 X77.039Y36.675Z0F800
G1 X77.227Y36.072Z0F800
G1 X77.269Y35.883Z0F800
G1 X78.122Y39.716Z0F800
G1 X78.505Y41.448Z0F800
G1 X78.389Z0F800
G1 X70.702Y41.454Z0F800
G1 X60.026Z0F800
G1 X50.68Y41.449Z0F800
G1 X22.911Y41.433Z0F800
G1 X23.175Y40.262Z0F800
G1 X27.185Y40.301Z0F800
G1 X27.676Z0F800
G1 X28.078Z0F800
G1 X28.441Y40.289Z0F800
G1 X28.845Y40.256Z0F800
G1 X29.427Y40.149Z0F800
G1 X30.312Y39.779Z0F800
G1 X31.01Y39.106Z0F800
G1 X31.252Y38.729Z0F800
G1 X31.362Y38.54Z0F800
G1 X32.269Y40.389Z0F800
G0 Z0.8F500
G0 X35.759Y26.593Z0.8F1000
G1 Z0F500
G1 X35.657Y26.397Z0F800
G1 X35.679Z0F800
G1 X36.01Y26.409Z0F800
G1 X35.902Y26.479Z0F800
G1 X35.759Y26.593Z0F800
G0 Z0.8F500
G0 X27.552Y25.366Z0.8F1000
G1 Z0F500
G1 X27.71Y24.666Z0F800
G1 X27.867Y24.728Z0F800
G1 X28.571Y24.979Z0F800
G1 X27.83Y25.183Z0F800
G1 X27.552Y25.366Z0F800
G0 Z0.8F500
G0 X72.754Y24.996Z0.8F1000
G1 Z0F500
G1 X73.732Y24.65Z0F800
G1 X73.885Y25.329Z0F800
G1 X73.537Y25.207Z0F800
G1 X72.962Y25.043Z0F800
G1 X72.754Y24.996Z0F800
G0 Z0.8F500
G0 X50.733Y23.378Z0.8F1000
G1 Z0F500
G1 X51.047Y23.539Z0F800
G1 X51.65Y23.833Z0F800
G1 X52.259Y24.115Z0F800
G1 X52.864Y24.381Z0F800
G1 X53.461Y24.628Z0F800
G1 X53.979Y24.825Z0F800
G1 X47.493Y24.794Z0F800
G1 X48.291Y24.5Z0F800
G1 X49.566Y23.955Z0F800
G1 X50.733Y23.378Z0F800
G0 Z0.8F500
G0 X52.079Y22.929Z0.8F1000
G1 Z0F500
G1 X52.671Y23.204Z0F800
G1 X53.257Y23.461Z0F800
G1 X53.831Y23.699Z0F800
G1 X54.38Y23.908Z0F800
G1 X55.155Y24.171Z0F800
G1 X55.96Y24.414Z0F800
G1 X56.784Y24.635Z0F800
G1 X57.623Y24.834Z0F800
G1 X58.469Y25.011Z0F800
G1 X59.319Y25.163Z0F800
G1 X60.166Y25.288Z0F800
G1 X60.997Y25.385Z0F800
G1 X61.283Y25.409Z0F800
G1 X61.582Y25.428Z0F800
G1 X61.895Y25.442Z0F800
G1 X62.227Y25.454Z0F800
G1 X62.914Y25.469Z0F800
G1 X63.643Y25.474Z0F800
G1 X64.371Y25.469Z0F800
G1 X65.058Y25.454Z0F800
G1 X65.391Y25.442Z0F800
G1 X65.704Y25.428Z0F800
G1 X66.002Y25.409Z0F800
G1 X66.305Y25.383Z0F800
G1 X67.764Y25.198Z0F800
G1 X69.235Y24.928Z0F800
G1 X70.687Y24.582Z0F800
G1 X72.114Y24.162Z0F800
G1 X73.505Y23.67Z0F800
G1 X74.449Y23.277Z0F800
G1 X75.225Y26.732Z0F800
G1 X75.331Y27.209Z0F800
G1 X75.195Y27.104Z0F800
G1 X74.724Y26.807Z0F800
G1 X74.24Y26.554Z0F800
G1 X73.742Y26.339Z0F800
G1 X73.233Y26.16Z0F800
G1 X72.714Y26.012Z0F800
G1 X72.186Y25.892Z0F800
G1 X71.632Y25.795Z0F800
G1 X71.159Y25.739Z0F800
G1 X70.664Y25.701Z0F800
G1 X70.156Y25.677Z0F800
G1 X69.641Y25.665Z0F800
G1 X69.132Z0F800
G1 X68.639Y25.678Z0F800
G1 X68.152Y25.708Z0F800
G1 X67.657Y25.766Z0F800
G1 X66.83Y25.943Z0F800
G1 X66.038Y26.193Z0F800
G1 X65.267Y26.534Z0F800
G1 X65.061Y26.659Z0F800
G1 Y25.803Z0F800
G1 X60.37Z0F800
G1 X59.69Y25.807Z0F800
G1 X59.374Y25.812Z0F800
G1 X59.09Y25.818Z0F800
G1 X58.831Y25.828Z0F800
G1 X58.59Y25.84Z0F800
G1 X58.513Y25.847Z0F800
G1 X46.09Y25.787Z0F800
G1 X46.085Y26.225Z0F800
G1 X45.452Y26.021Z0F800
G1 X44.595Y25.82Z0F800
G1 X43.729Y25.684Z0F800
G1 X42.925Y25.603Z0F800
G1 X42.171Y25.589Z0F800
G1 X41.73Y25.613Z0F800
G1 X41.325Y25.651Z0F800
G1 X40.91Y25.704Z0F800
G1 X40.421Y25.772Z0F800
G1 X39.744Y25.895Z0F800
G1 X39.047Y26.069Z0F800
G1 X38.37Y26.293Z0F800
G1 X37.715Y26.57Z0F800
G1 X37.086Y26.901Z0F800
G1 X36.489Y27.291Z0F800
G1 X35.931Y27.737Z0F800
G1 X35.466Y28.193Z0F800
G1 X34.251Y25.865Z0F800
G1 X30.632Y25.816Z0F800
G1 X30.279Z0F800
G1 X29.969Y25.819Z0F800
G1 X29.682Y25.829Z0F800
G1 X29.369Y25.851Z0F800
G1 X28.966Y25.908Z0F800
G1 X28.249Y26.104Z0F800
G1 X27.296Y26.735Z0F800
G1 X26.905Y27.333Z0F800
G1 X26.755Y27.581Z0F800
G1 X26.55Y27.932Z0F800
G1 X25.753Y29.305Z0F800
G1 X25.569Y29.625Z0F800
G1 X26.994Y23.291Z0F800
G1 X27.019Y23.302Z0F800
G1 X27.455Y23.489Z0F800
G1 X28.219Y23.792Z0F800
G1 X29.003Y24.072Z0F800
G1 X29.804Y24.328Z0F800
G1 X30.623Y24.561Z0F800
G1 X31.458Y24.77Z0F800
G1 X32.314Y24.957Z0F800
G1 X33.19Y25.123Z0F800
G1 X34.112Y25.272Z0F800
G1 X34.469Y25.315Z0F800
G1 X34.859Y25.35Z0F800
G1 X35.271Y25.377Z0F800
G1 X35.72Y25.399Z0F800
G1 X36.664Y25.43Z0F800
G1 X37.67Y25.443Z0F800
G1 X38.675Z0F800
G1 X39.612Y25.422Z0F800
G1 X40.061Y25.406Z0F800
G1 X40.472Y25.383Z0F800
G1 X40.862Y25.354Z0F800
G1 X41.234Y25.311Z0F800
G1 X42.638Y25.082Z0F800
G1 X44.009Y24.792Z0F800
G1 X45.348Y24.444Z0F800
G1 X46.653Y24.037Z0F800
G1 X47.921Y23.57Z0F800
G1 X49.148Y23.045Z0F800
G1 X50.332Y22.461Z0F800
G1 X50.72Y22.242Z0F800
G1 X50.931Y22.356Z0F800
G1 X51.494Y22.644Z0F800
G1 X52.079Y22.929Z0F800
G0 Z0.8F500
G0 X59.119Y26.818Z0.8F1000
G1 Z0F500
G1 X58.875Y26.827Z0F800
G1 X58.66Y26.838Z0F800
G1 X58.554Y26.847Z0F800
G1 X47.079Y26.792Z0F800
G1 X47.068Y27.764Z0F800
G1 X46.633Y27.525Z0F800
G1 X45.929Y27.225Z0F800
G1 X45.184Y26.985Z0F800
G1 X44.403Y26.802Z0F800
G1 X43.601Y26.676Z0F800
G1 X42.866Y26.602Z0F800
G1 X42.189Y26.589Z0F800
G1 X41.805Y26.611Z0F800
G1 X41.434Y26.646Z0F800
G1 X41.042Y26.695Z0F800
G1 X40.58Y26.76Z0F800
G1 X39.954Y26.873Z0F800
G1 X39.326Y27.03Z0F800
G1 X38.722Y27.23Z0F800
G1 X38.144Y27.474Z0F800
G1 X37.593Y27.765Z0F800
G1 X37.075Y28.102Z0F800
G1 X36.595Y28.486Z0F800
G1 X36.155Y28.917Z0F800
G1 X35.764Y29.394Z0F800
G1 X35.426Y29.91Z0F800
G1 X35.331Y30.097Z0F800
G1 X33.641Y26.856Z0F800
G1 X30.624Y26.816Z0F800
G1 X30.284Z0F800
G1 X29.993Y26.819Z0F800
G1 X29.734Y26.828Z0F800
G1 X29.474Y26.846Z0F800
G1 X29.169Y26.889Z0F800
G1 X28.667Y27.027Z0F800
G1 X28.02Y27.456Z0F800
G1 X27.752Y27.864Z0F800
G1 X27.616Y28.091Z0F800
G1 X27.414Y28.436Z0F800
G1 X26.62Y29.805Z0F800
G1 X25.757Y31.303Z0F800
G1 X23.139Y35.867Z0F800
G1 X26.293Y21.851Z0F800
G1 X26.54Y21.973Z0F800
G1 X26.989Y22.188Z0F800
G1 X27.425Y22.388Z0F800
G1 X27.836Y22.565Z0F800
G1 X28.571Y22.855Z0F800
G1 X29.324Y23.124Z0F800
G1 X30.093Y23.371Z0F800
G1 X30.881Y23.594Z0F800
G1 X31.687Y23.796Z0F800
G1 X32.514Y23.977Z0F800
G1 X33.363Y24.138Z0F800
G1 X34.252Y24.282Z0F800
G1 X34.573Y24.321Z0F800
G1 X34.935Y24.353Z0F800
G1 X35.329Y24.378Z0F800
G1 X35.761Y24.4Z0F800
G1 X36.687Y24.43Z0F800
G1 X37.676Y24.443Z0F800
G1 X38.664Z0F800
G1 X39.584Y24.422Z0F800
G1 X40.015Y24.407Z0F800
G1 X40.407Y24.385Z0F800
G1 X40.768Y24.357Z0F800
G1 X41.097Y24.32Z0F800
G1 X42.455Y24.098Z0F800
G1 X43.78Y23.819Z0F800
G1 X45.073Y23.482Z0F800
G1 X46.331Y23.09Z0F800
G1 X47.552Y22.641Z0F800
G1 X48.73Y22.137Z0F800
G1 X49.864Y21.577Z0F800
G1 X50.716Y21.095Z0F800
G1 X50.884Y21.193Z0F800
G1 X51.397Y21.471Z0F800
G1 X51.941Y21.75Z0F800
G1 X52.508Y22.026Z0F800
G1 X53.083Y22.292Z0F800
G1 X53.65Y22.542Z0F800
G1 X54.199Y22.769Z0F800
G1 X54.719Y22.967Z0F800
G1 X55.46Y23.219Z0F800
G1 X56.234Y23.452Z0F800
G1 X57.029Y23.666Z0F800
G1 X57.84Y23.858Z0F800
G1 X58.659Y24.029Z0F800
G1 X59.48Y24.176Z0F800
G1 X60.297Y24.296Z0F800
G1 X61.097Y24.39Z0F800
G1 X61.357Y24.412Z0F800
G1 X61.636Y24.429Z0F800
G1 X61.935Y24.443Z0F800
G1 X62.255Y24.454Z0F800
G1 X62.928Y24.469Z0F800
G1 X63.643Y24.474Z0F800
G1 X64.356Y24.469Z0F800
G1 X65.029Y24.454Z0F800
G1 X65.35Y24.443Z0F800
G1 X65.649Y24.429Z0F800
G1 X65.928Y24.412Z0F800
G1 X66.199Y24.389Z0F800
G1 X67.61Y24.209Z0F800
G1 X69.029Y23.949Z0F800
G1 X70.43Y23.615Z0F800
G1 X71.806Y23.209Z0F800
G1 X73.146Y22.736Z0F800
G1 X74.442Y22.197Z0F800
G1 X75.152Y21.853Z0F800
G1 X75.359Y22.765Z0F800
G1 X76.201Y26.514Z0F800
G1 X77.685Y33.15Z0F800
G1 X79.098Y39.5Z0F800
G1 X79.75Y42.446Z0F800
G1 X78.391Z0F800
G1 X70.702Y42.454Z0F800
G1 X60.026Z0F800
G1 X50.679Y42.449Z0F800
G1 X21.661Y42.432Z0F800
G1 X22.376Y39.254Z0F800
G1 X27.191Y39.301Z0F800
G1 X27.674Z0F800
G1 X28.059Z0F800
G1 X28.386Y39.29Z0F800
G1 X28.714Y39.263Z0F800
G1 X29.14Y39.185Z0F800
G1 X29.753Y38.928Z0F800
G1 X30.232Y38.468Z0F800
G1 X30.398Y38.208Z0F800
G1 X30.501Y38.032Z0F800
G1 X30.709Y37.661Z0F800
G1 X31.11Y36.936Z0F800
G1 X31.416Y36.378Z0F800
G1 X32.892Y39.389Z0F800
G1 X35.493Z0F800
G1 X36.044Y39.384Z0F800
G1 X36.513Y39.371Z0F800
G1 X36.728Y39.36Z0F800
G1 X36.931Y39.344Z0F800
G1 X37.325Y39.292Z0F800
G1 X38.324Y38.874Z0F800
G1 X38.776Y39.071Z0F800
G1 X39.327Y39.27Z0F800
G1 X39.898Y39.437Z0F800
G1 X40.494Y39.576Z0F800
G1 X40.953Y39.658Z0F800
G1 X41.417Y39.714Z0F800
G1 X41.881Y39.746Z0F800
G1 X42.355Y39.753Z0F800
G1 X43.032Y39.722Z0F800
G1 X43.712Y39.64Z0F800
G1 X44.379Y39.507Z0F800
G1 X45.029Y39.326Z0F800
G1 X45.661Y39.092Z0F800
G1 X46.27Y38.802Z0F800
G1 X46.851Y38.45Z0F800
G1 X47.107Y38.251Z0F800
G1 X47.188Y38.849Z0F800
G1 X48.627Y39.302Z0F800
G1 X48.973Y39.341Z0F800
G1 X49.206Y39.356Z0F800
G1 X49.459Y39.368Z0F800
G1 X49.744Y39.377Z0F800
G1 X50.061Y39.383Z0F800
G1 X50.405Y39.388Z0F800
G1 X50.765Z0F800
G1 X54.496Z0F800
G1 Y33.062Z0F800
G1 X56.598Z0F800
G1 Y39.389Z0F800
G1 X60.814Z0F800
G1 Y40.142Z0F800
G1 X66.913Z0F800
G1 X66.888Y39.198Z0F800
G1 X67.296Y39.343Z0F800
G1 X67.869Y39.502Z0F800
G1 X68.43Y39.596Z0F800
G1 X68.773Y39.624Z0F800
G1 X69.1Y39.637Z0F800
G1 X69.46Y39.644Z0F800
G1 X69.889Z0F800
G1 X70.422Z0F800
G1 X70.901Y39.633Z0F800
G1 X71.353Y39.603Z0F800
G1 X71.794Y39.546Z0F800
G1 X72.23Y39.455Z0F800
G1 X72.646Y39.331Z0F800
G1 X73.035Y39.183Z0F800
G1 X73.444Y39.004Z0F800
G1 X73.914Y38.76Z0F800
G1 X74.379Y38.457Z0F800
G1 X74.808Y38.113Z0F800
G1 X75.201Y37.729Z0F800
G1 X75.552Y37.301Z0F800
G1 X75.857Y36.829Z0F800
G1 X76.105Y36.309Z0F800
G1 X76.259Y35.814Z0F800
G1 X76.891Y32.979Z0F800
G1 X76.324Z0F800
G1 X76.435Y32.653Z0F800
G1 X76.534Y32.133Z0F800
G1 X76.565Y31.625Z0F800
G1 X76.542Y31.134Z0F800
G1 X76.469Y30.655Z0F800
G1 X76.343Y30.186Z0F800
G1 X76.165Y29.731Z0F800
G1 X75.936Y29.302Z0F800
G1 X75.661Y28.902Z0F800
G1 X75.345Y28.539Z0F800
G1 X74.999Y28.215Z0F800
G1 X74.623Y27.926Z0F800
G1 X74.224Y27.674Z0F800
G1 X73.81Y27.458Z0F800
G1 X73.377Y27.271Z0F800
G1 X72.929Y27.113Z0F800
G1 X72.467Y26.981Z0F800
G1 X71.989Y26.873Z0F800
G1 X71.487Y26.785Z0F800
G1 X71.062Y26.734Z0F800
G1 X70.602Y26.699Z0F800
G1 X70.12Y26.676Z0F800
G1 X69.629Y26.665Z0F800
G1 X69.145Z0F800
G1 X68.682Y26.677Z0F800
G1 X68.241Y26.704Z0F800
G1 X67.821Y26.754Z0F800
G1 X67.085Y26.911Z0F800
G1 X66.391Y27.13Z0F800
G1 X65.73Y27.422Z0F800
G1 X65.111Y27.797Z0F800
G1 X64.546Y28.261Z0F800
G1 X64.061Y28.811Z0F800
G1 Y26.803Z0F800
G1 X60.373Z0F800
G1 X59.701Y26.807Z0F800
G1 X59.393Y26.812Z0F800
G1 X59.119Y26.818Z0F800
G0 Z0.8F500
G0 X40.439Y34.262Z0.8F1000
G1 Z0F500
G1 X40.6Y34.245Z0F800
G1 X40.712Y34.239Z0F800
G1 X41.01Y34.231Z0F800
G1 X41.424Y34.227Z0F800
G1 X41.97Z0F800
G1 X44.304Z0F800
G1 X44.254Y34.508Z0F800
G1 X44.148Y34.842Z0F800
G1 X43.958Y35.143Z0F800
G1 X43.689Y35.404Z0F800
G1 X43.345Y35.619Z0F800
G1 X43.086Y35.738Z0F800
G1 X42.861Y35.806Z0F800
G1 X42.605Y35.837Z0F800
G1 X42.253Y35.844Z0F800
G1 X42.001Y35.838Z0F800
G1 X41.781Y35.819Z0F800
G1 X41.585Y35.786Z0F800
G1 X41.41Y35.735Z0F800
G1 X41.099Y35.576Z0F800
G1 X40.806Y35.327Z0F800
G1 X40.624Y35.105Z0F800
G1 X40.461Y34.835Z0F800
G1 X40.343Y34.569Z0F800
G1 X40.296Y34.357Z0F800
G1 X40.306Y34.316Z0F800
G1 X40.347Y34.285Z0F800
G1 X40.439Y34.262Z0F800
G0 Z0.8F500
G0 X47.652Y32.438Z0.8F1000
G1 Z0F500
G1 X43.279Y32.396Z0F800
G1 X42.594Y32.386Z0F800
G1 X41.971Y32.375Z0F800
G1 X41.425Y32.364Z0F800
G1 X40.972Y32.352Z0F800
G1 X40.626Y32.339Z0F800
G1 X40.403Y32.327Z0F800
G1 X40.343Y32.322Z0F800
G1 X40.318Y32.316Z0F800
G1 X40.298Y32.258Z0F800
G1 X40.303Y32.158Z0F800
G1 X40.329Y32.026Z0F800
G1 X40.372Y31.876Z0F800
G1 X40.497Y31.561Z0F800
G1 X40.648Y31.3Z0F800
G1 X40.875Y31.064Z0F800
G1 X41.178Y30.838Z0F800
G1 X41.512Y30.649Z0F800
G1 X41.838Y30.524Z0F800
G1 X42.216Y30.458Z0F800
G1 X42.663Y30.439Z0F800
G1 X43.111Y30.464Z0F800
G1 X43.496Y30.535Z0F800
G1 X43.688Y30.603Z0F800
G1 X43.869Y30.699Z0F800
G1 X44.047Y30.83Z0F800
G1 X44.233Y31.001Z0F800
G1 X44.595Y31.363Z0F800
G1 X47.62Z0F800
G1 X47.574Y31.134Z0F800
G1 X47.475Y30.875Z0F800
G1 X47.301Y30.576Z0F800
G1 X47.009Y30.214Z0F800
G1 X46.652Y29.884Z0F800
G1 X46.234Y29.587Z0F800
G1 X45.759Y29.326Z0F800
G1 X45.229Y29.101Z0F800
G1 X44.648Y28.914Z0F800
G1 X44.019Y28.766Z0F800
G1 X43.345Y28.66Z0F800
G1 X42.747Y28.6Z0F800
G1 X42.226Y28.59Z0F800
G1 X41.954Y28.605Z0F800
G1 X41.652Y28.634Z0F800
G1 X41.306Y28.677Z0F800
G1 X40.897Y28.735Z0F800
G1 X40.375Y28.829Z0F800
G1 X39.885Y28.952Z0F800
G1 X39.426Y29.104Z0F800
G1 X39Y29.284Z0F800
G1 X38.607Y29.491Z0F800
G1 X38.248Y29.725Z0F800
G1 X37.923Y29.984Z0F800
G1 X37.633Y30.27Z0F800
G1 X37.378Y30.58Z0F800
G1 X37.159Y30.914Z0F800
G1 X36.977Y31.272Z0F800
G1 X36.832Y31.653Z0F800
G1 X36.724Y32.057Z0F800
G1 X36.654Y32.482Z0F800
G1 X36.623Y32.93Z0F800
G1 X36.631Y33.397Z0F800
G1 X36.671Y33.807Z0F800
G1 X36.741Y34.197Z0F800
G1 X36.843Y34.568Z0F800
G1 X36.974Y34.921Z0F800
G1 X37.136Y35.254Z0F800
G1 X37.329Y35.567Z0F800
G1 X37.551Y35.861Z0F800
G1 X37.804Y36.136Z0F800
G1 X38.086Y36.391Z0F800
G1 X38.399Y36.626Z0F800
G1 X38.741Y36.841Z0F800
G1 X39.113Y37.037Z0F800
G1 X39.515Y37.212Z0F800
G1 X39.947Y37.367Z0F800
G1 X40.407Y37.502Z0F800
G1 X40.897Y37.617Z0F800
G1 X41.249Y37.679Z0F800
G1 X41.605Y37.722Z0F800
G1 X41.965Y37.747Z0F800
G1 X42.326Y37.752Z0F800
G1 X42.865Y37.728Z0F800
G1 X43.397Y37.663Z0F800
G1 X43.915Y37.561Z0F800
G1 X44.412Y37.422Z0F800
G1 X44.882Y37.248Z0F800
G1 X45.319Y37.04Z0F800
G1 X45.716Y36.799Z0F800
G1 X46.067Y36.527Z0F800
G1 X46.384Y36.209Z0F800
G1 X46.668Y35.846Z0F800
G1 X46.918Y35.439Z0F800
G1 X47.133Y34.991Z0F800
G1 X47.312Y34.503Z0F800
G1 X47.453Y33.978Z0F800
G1 X47.557Y33.417Z0F800
G1 X47.623Y32.823Z0F800
G1 X47.652Y32.438Z0F800
G0 Z0.8F500
G0 X63.463Y35.409Z0.8F1000
G1 Z0F500
G1 X63.43Y35.491Z0F800
G1 X63.417Y35.624Z0F800
G1 X63.428Y35.702Z0F800
G1 X63.462Y35.762Z0F800
G1 X63.522Y35.808Z0F800
G1 X63.608Y35.839Z0F800
G1 X63.741Y35.91Z0F800
G1 X63.847Y36.04Z0F800
G1 X63.918Y36.213Z0F800
G1 X63.943Y36.415Z0F800
G1 X63.927Y36.493Z0F800
G1 X63.852Y36.537Z0F800
G1 X63.781Y36.549Z0F800
G1 X63.681Y36.556Z0F800
G1 X63.549Y36.559Z0F800
G1 X62.814Z0F800
G1 Y38.142Z0F800
G1 X64.859Z0F800
G1 X64.826Y36.867Z0F800
G1 X64.816Y36.628Z0F800
G1 X64.803Y36.445Z0F800
G1 X64.784Y36.306Z0F800
G1 X64.718Y36.108Z0F800
G1 X64.599Y35.933Z0F800
G1 X64.39Y35.708Z0F800
G1 X64.185Y35.554Z0F800
G1 X63.975Y35.47Z0F800
G1 X63.753Y35.411Z0F800
G1 X63.567Y35.388Z0F800
G1 X63.463Y35.409Z0F800
G0 Z0.8F500
G0 X65.047Y35.039Z0.8F1000
G1 Z0F500
G1 X65.191Y35.474Z0F800
G1 X65.428Y35.884Z0F800
G1 X65.756Y36.265Z0F800
G1 X66.17Y36.614Z0F800
G1 X66.668Y36.928Z0F800
G1 X67.246Y37.202Z0F800
G1 X67.9Y37.435Z0F800
G1 X68.303Y37.547Z0F800
G1 X68.675Y37.609Z0F800
G1 X68.894Y37.627Z0F800
G1 X69.158Y37.638Z0F800
G1 X69.485Y37.644Z0F800
G1 X69.894Z0F800
G1 X70.394Z0F800
G1 X70.81Y37.635Z0F800
G1 X71.159Y37.611Z0F800
G1 X71.462Y37.573Z0F800
G1 X71.737Y37.515Z0F800
G1 X72.002Y37.436Z0F800
G1 X72.278Y37.331Z0F800
G1 X72.582Y37.198Z0F800
G1 X72.905Y37.03Z0F800
G1 X73.205Y36.834Z0F800
G1 X73.479Y36.615Z0F800
G1 X73.724Y36.375Z0F800
G1 X73.935Y36.119Z0F800
G1 X74.107Y35.852Z0F800
G1 X74.239Y35.577Z0F800
G1 X74.325Y35.299Z0F800
G1 X74.396Y34.979Z0F800
G1 X71.814Z0F800
G1 X71.662Y35.299Z0F800
G1 X71.573Y35.458Z0F800
G1 X71.469Y35.585Z0F800
G1 X71.339Y35.691Z0F800
G1 X71.173Y35.786Z0F800
G1 X70.989Y35.863Z0F800
G1 X70.772Y35.931Z0F800
G1 X70.531Y35.988Z0F800
G1 X70.275Y36.034Z0F800
G1 X69.759Y36.084Z0F800
G1 X69.3Y36.07Z0F800
G1 X69.076Y36.033Z0F800
G1 X68.874Y35.981Z0F800
G1 X68.696Y35.917Z0F800
G1 X68.543Y35.842Z0F800
G1 X68.414Y35.757Z0F800
G1 X68.311Y35.664Z0F800
G1 X68.233Y35.564Z0F800
G1 X68.182Y35.459Z0F800
G1 X68.158Y35.352Z0F800
G1 X68.161Y35.243Z0F800
G1 X68.193Y35.133Z0F800
G1 X68.253Y35.025Z0F800
G1 X68.343Y34.92Z0F800
G1 X68.462Y34.819Z0F800
G1 X68.612Y34.725Z0F800
G1 X68.792Y34.639Z0F800
G1 X68.873Y34.611Z0F800
G1 X68.993Y34.58Z0F800
G1 X69.145Y34.546Z0F800
G1 X69.325Y34.51Z0F800
G1 X69.741Y34.437Z0F800
G1 X70.736Y34.292Z0F800
G1 X71.238Y34.201Z0F800
G1 X71.703Y34.098Z0F800
G1 X72.132Y33.984Z0F800
G1 X72.525Y33.857Z0F800
G1 X72.883Y33.718Z0F800
G1 X73.206Y33.567Z0F800
G1 X73.493Y33.403Z0F800
G1 X73.746Y33.226Z0F800
G1 X73.963Y33.036Z0F800
G1 X74.147Y32.833Z0F800
G1 X74.297Y32.616Z0F800
G1 X74.413Y32.385Z0F800
G1 X74.496Y32.141Z0F800
G1 X74.545Y31.883Z0F800
G1 X74.562Y31.611Z0F800
G1 X74.549Y31.332Z0F800
G1 X74.508Y31.065Z0F800
G1 X74.44Y30.812Z0F800
G1 X74.346Y30.571Z0F800
G1 X74.224Y30.343Z0F800
G1 X74.077Y30.129Z0F800
G1 X73.902Y29.928Z0F800
G1 X73.703Y29.741Z0F800
G1 X73.477Y29.568Z0F800
G1 X73.226Y29.409Z0F800
G1 X72.949Y29.265Z0F800
G1 X72.648Y29.135Z0F800
G1 X72.321Y29.02Z0F800
G1 X71.971Y28.919Z0F800
G1 X71.596Y28.834Z0F800
G1 X71.196Y28.765Z0F800
G1 X70.868Y28.726Z0F800
G1 X70.478Y28.696Z0F800
G1 X70.049Y28.675Z0F800
G1 X69.606Y28.665Z0F800
G1 X69.172Z0F800
G1 X68.769Y28.676Z0F800
G1 X68.419Y28.697Z0F800
G1 X68.148Y28.729Z0F800
G1 X67.597Y28.847Z0F800
G1 X67.099Y29.004Z0F800
G1 X66.656Y29.2Z0F800
G1 X66.269Y29.434Z0F800
G1 X65.939Y29.705Z0F800
G1 X65.667Y30.013Z0F800
G1 X65.454Y30.356Z0F800
G1 X65.301Y30.735Z0F800
G1 X65.242Y30.932Z0F800
G1 X65.193Y31.104Z0F800
G1 X65.161Y31.231Z0F800
G1 X65.148Y31.296Z0F800
G1 X65.174Y31.31Z0F800
G1 X65.249Y31.322Z0F800
G1 X65.366Y31.333Z0F800
G1 X65.522Y31.344Z0F800
G1 X65.926Y31.358Z0F800
G1 X66.419Y31.364Z0F800
G1 X67.689Z0F800
G1 X67.817Y31.028Z0F800
G1 X67.975Y30.733Z0F800
G1 X68.196Y30.48Z0F800
G1 X68.46Y30.29Z0F800
G1 X68.743Y30.181Z0F800
G1 X68.907Y30.158Z0F800
G1 X69.143Y30.14Z0F800
G1 X69.42Y30.127Z0F800
G1 X69.706Y30.124Z0F800
G1 X70.056Y30.132Z0F800
G1 X70.312Y30.159Z0F800
G1 X70.513Y30.21Z0F800
G1 X70.698Y30.292Z0F800
G1 X70.891Y30.411Z0F800
G1 X71.044Y30.543Z0F800
G1 X71.157Y30.684Z0F800
G1 X71.227Y30.83Z0F800
G1 X71.254Y30.977Z0F800
G1 X71.236Y31.123Z0F800
G1 X71.173Y31.263Z0F800
G1 X71.063Y31.393Z0F800
G1 X70.964Y31.471Z0F800
G1 X70.836Y31.545Z0F800
G1 X70.67Y31.619Z0F800
G1 X70.456Y31.695Z0F800
G1 X70.184Y31.776Z0F800
G1 X69.843Y31.866Z0F800
G1 X69.425Y31.967Z0F800
G1 X68.394Y32.205Z0F800
G1 X67.942Y32.314Z0F800
G1 X67.555Y32.415Z0F800
G1 X67.224Y32.508Z0F800
G1 X66.938Y32.599Z0F800
G1 X66.689Y32.688Z0F800
G1 X66.467Y32.781Z0F800
G1 X66.263Y32.877Z0F800
G1 X65.958Y33.046Z0F800
G1 X65.698Y33.225Z0F800
G1 X65.481Y33.415Z0F800
G1 X65.306Y33.617Z0F800
G1 X65.171Y33.833Z0F800
G1 X65.076Y34.064Z0F800
G1 X65.019Y34.313Z0F800
G1 X65Y34.581Z0F800
G1 X65.047Y35.039Z0F800
G0 Z0.8F500
G0 X36.827Y37.333Z0.8F1000
G1 Z0F500
G1 X36.814Y37.305Z0F800
G1 X36.726Y37.125Z0F800
G1 X36.558Y36.794Z0F800
G1 X36.02Y35.75Z0F800
G1 X35.063Y33.907Z0F800
G1 X32.42Y28.84Z0F800
G1 X30.607Y28.816Z0F800
G1 X30.294Z0F800
G1 X30.04Z0F800
G1 X29.838Y28.825Z0F800
G1 X29.686Y28.836Z0F800
G1 X29.576Y28.852Z0F800
G1 X29.504Y28.871Z0F800
G1 X29.467Y28.896Z0F800
G1 X29.446Y28.927Z0F800
G1 X29.336Y29.111Z0F800
G1 X29.141Y29.443Z0F800
G1 X28.351Y30.806Z0F800
G1 X27.491Y32.3Z0F800
G1 X24.636Y37.276Z0F800
G1 X27.204Y37.301Z0F800
G1 X27.668Z0F800
G1 X28.02Z0F800
G1 X28.276Y37.292Z0F800
G1 X28.453Y37.278Z0F800
G1 X28.567Y37.257Z0F800
G1 X28.636Y37.228Z0F800
G1 X28.675Y37.19Z0F800
G1 X28.692Y37.164Z0F800
G1 X28.765Y37.039Z0F800
G1 X28.962Y36.688Z0F800
G1 X29.358Y35.971Z0F800
G1 X29.863Y35.05Z0F800
G1 X31.513Y32.018Z0F800
G1 X32.011Y33.042Z0F800
G1 X32.838Y34.736Z0F800
G1 X34.139Y37.389Z0F800
G1 X35.484Z0F800
G1 X36.007Y37.384Z0F800
G1 X36.434Y37.372Z0F800
G1 X36.598Y37.364Z0F800
G1 X36.722Y37.354Z0F800
G1 X36.8Y37.344Z0F800
G1 X36.827Y37.333Z0F800
G0 Z0.8F500
G0 X48.998Y33.879Z0.8F1000
G1 Z0F500
G1 X48.987Y35.399Z0F800
G1 X48.984Y36.312Z0F800
G1 Y36.778Z0F800
G1 X48.989Y37.112Z0F800
G1 X48.995Y37.293Z0F800
G1 X48.999Y37.322Z0F800
G1 X49.042Y37.336Z0F800
G1 X49.151Y37.348Z0F800
G1 X49.318Y37.359Z0F800
G1 X49.536Y37.369Z0F800
G1 X49.797Y37.377Z0F800
G1 X50.094Y37.384Z0F800
G1 X50.42Y37.388Z0F800
G1 X50.768Z0F800
G1 X52.496Z0F800
G1 Y31.062Z0F800
G1 X57.169Z0F800
G1 X57.128Y28.84Z0F800
G1 X49.056Y28.801Z0F800
G1 X48.998Y33.879Z0F800
G0 Z0.8F500
G0 X58.596Y37.389Z0.8F1000
G1 Z0F500
G1 X62.061Z0F800
G1 Y28.803Z0F800
G1 X60.378Z0F800
G1 X59.722Y28.807Z0F800
G1 X59.431Y28.812Z0F800
G1 X59.176Y28.817Z0F800
G1 X58.963Y28.825Z0F800
G1 X58.799Y28.833Z0F800
G1 X58.691Y28.843Z0F800
G1 X58.646Y28.853Z0F800
G1 X58.642Y28.88Z0F800
G1 X58.637Y28.949Z0F800
G1 X58.632Y29.059Z0F800
G1 X58.623Y29.391Z0F800
G1 X58.615Y29.856Z0F800
G1 X58.605Y30.769Z0F800
G1 X58.601Y31.495Z0F800
G1 X58.598Y32.292Z0F800
G1 Y37.389Z0F800
G0 Z0.8F500
G0 X57.596Y38.389Z0.8F1000
G1 Z0F500
G1 X61.814Z0F800
G1 Y39.142Z0F800
G1 X65.886Z0F800
G1 X65.845Y37.591Z0F800
G1 X66.185Y37.806Z0F800
G1 X66.862Y38.127Z0F800
G1 X67.598Y38.389Z0F800
G1 X68.086Y38.525Z0F800
G1 X68.553Y38.603Z0F800
G1 X68.833Y38.625Z0F800
G1 X69.129Y38.637Z0F800
G1 X69.473Y38.644Z0F800
G1 X69.892Z0F800
G1 X70.408Z0F800
G1 X70.855Y38.634Z0F800
G1 X71.256Y38.607Z0F800
G1 X71.628Y38.56Z0F800
G1 X71.983Y38.485Z0F800
G1 X72.325Y38.383Z0F800
G1 X72.656Y38.256Z0F800
G1 X73.013Y38.101Z0F800
G1 X73.409Y37.895Z0F800
G1 X73.792Y37.646Z0F800
G1 X74.144Y37.364Z0F800
G1 X74.462Y37.052Z0F800
G1 X74.743Y36.71Z0F800
G1 X74.982Y36.34Z0F800
G1 X75.172Y35.943Z0F800
G1 X75.292Y35.557Z0F800
G1 X75.644Y33.979Z0F800
G1 X74.404Z0F800
G1 X74.665Y33.75Z0F800
G1 X74.933Y33.455Z0F800
G1 X75.159Y33.127Z0F800
G1 X75.337Y32.773Z0F800
G1 X75.465Y32.397Z0F800
G1 X75.54Y32.008Z0F800
G1 X75.563Y31.618Z0F800
G1 X75.545Y31.233Z0F800
G1 X75.489Y30.86Z0F800
G1 X75.392Y30.499Z0F800
G1 X75.255Y30.151Z0F800
G1 X75.08Y29.823Z0F800
G1 X74.869Y29.516Z0F800
G1 X74.624Y29.233Z0F800
G1 X74.351Y28.978Z0F800
G1 X74.05Y28.747Z0F800
G1 X73.725Y28.542Z0F800
G1 X73.379Y28.361Z0F800
G1 X73.013Y28.203Z0F800
G1 X72.625Y28.066Z0F800
G1 X72.219Y27.95Z0F800
G1 X71.792Y27.854Z0F800
G1 X71.341Y27.775Z0F800
G1 X70.965Y27.73Z0F800
G1 X70.54Y27.698Z0F800
G1 X70.085Y27.676Z0F800
G1 X69.618Y27.665Z0F800
G1 X69.159Z0F800
G1 X68.725Y27.677Z0F800
G1 X68.33Y27.7Z0F800
G1 X67.985Y27.741Z0F800
G1 X67.341Y27.879Z0F800
G1 X66.745Y28.067Z0F800
G1 X66.193Y28.311Z0F800
G1 X65.69Y28.616Z0F800
G1 X65.242Y28.983Z0F800
G1 X64.861Y29.415Z0F800
G1 X64.559Y29.902Z0F800
G1 X64.357Y30.404Z0F800
G1 X64.282Y30.651Z0F800
G1 X64.228Y30.842Z0F800
G1 X64.184Y31.014Z0F800
G1 X64.029Y31.836Z0F800
G1 X64.849Y32.269Z0F800
G1 X65.117Y32.314Z0F800
G1 X65.241Y32.326Z0F800
G1 X65.084Y32.434Z0F800
G1 X64.771Y32.707Z0F800
G1 X64.499Y33.021Z0F800
G1 X64.278Y33.375Z0F800
G1 X64.119Y33.761Z0F800
G1 X64.027Y34.165Z0F800
G1 X64.007Y34.444Z0F800
G1 X63.944Y34.427Z0F800
G1 X63.527Y34.375Z0F800
G1 X63.061Y34.471Z0F800
G1 Y27.803Z0F800
G1 X60.375Z0F800
G1 X59.711Y27.807Z0F800
G1 X59.412Y27.812Z0F800
G1 X59.147Y27.818Z0F800
G1 X58.919Y27.826Z0F800
G1 X58.729Y27.836Z0F800
G1 X58.54Y27.852Z0F800
G1 X58.111Y27.946Z0F800
G1 Y27.845Z0F800
G1 X48.067Y27.796Z0F800
G1 X48.043Y29.903Z0F800
G1 X47.741Y29.529Z0F800
G1 X47.283Y29.106Z0F800
G1 X46.767Y28.739Z0F800
G1 X46.196Y28.425Z0F800
G1 X45.579Y28.163Z0F800
G1 X44.916Y27.949Z0F800
G1 X44.211Y27.784Z0F800
G1 X43.473Y27.668Z0F800
G1 X42.807Y27.601Z0F800
G1 X42.208Y27.59Z0F800
G1 X41.879Y27.608Z0F800
G1 X41.543Y27.64Z0F800
G1 X41.174Y27.686Z0F800
G1 X40.739Y27.748Z0F800
G1 X40.165Y27.851Z0F800
G1 X39.605Y27.991Z0F800
G1 X39.074Y28.167Z0F800
G1 X38.572Y28.379Z0F800
G1 X38.101Y28.627Z0F800
G1 X37.662Y28.913Z0F800
G1 X37.259Y29.235Z0F800
G1 X36.894Y29.594Z0F800
G1 X36.571Y29.987Z0F800
G1 X36.292Y30.412Z0F800
G1 X36.062Y30.866Z0F800
G1 X35.879Y31.345Z0F800
G1 X35.745Y31.847Z0F800
G1 X35.66Y32.366Z0F800
G1 X35.627Y32.827Z0F800
G1 X33.03Y27.849Z0F800
G1 X30.616Y27.816Z0F800
G1 X30.289Z0F800
G1 X30.017Z0F800
G1 X29.786Y27.826Z0F800
G1 X29.58Y27.841Z0F800
G1 X29.373Y27.871Z0F800
G1 X29.086Y27.949Z0F800
G1 X28.743Y28.176Z0F800
G1 X28.599Y28.396Z0F800
G1 X28.476Y28.601Z0F800
G1 X28.277Y28.939Z0F800
G1 X27.485Y30.305Z0F800
G1 X26.624Y31.801Z0F800
G1 X22.919Y38.259Z0F800
G1 X27.198Y38.301Z0F800
G1 X27.671Z0F800
G1 X28.04Z0F800
G1 X28.331Y38.291Z0F800
G1 X28.583Y38.271Z0F800
G1 X28.854Y38.221Z0F800
G1 X29.194Y38.078Z0F800
G1 X29.454Y37.829Z0F800
G1 X29.545Y37.686Z0F800
G1 X29.633Y37.535Z0F800
G1 X29.835Y37.174Z0F800
G1 X30.234Y36.453Z0F800
G1 X30.741Y35.529Z0F800
G1 X31.463Y34.201Z0F800
G1 X31.939Y35.175Z0F800
G1 X33.515Y38.389Z0F800
G1 X35.489Z0F800
G1 X36.025Y38.384Z0F800
G1 X36.474Y38.372Z0F800
G1 X36.663Y38.362Z0F800
G1 X36.826Y38.349Z0F800
G1 X37.063Y38.318Z0F800
G1 X38.151Y37.863Z0F800
G1 X38.023Y37.571Z0F800
G1 X38.242Y37.708Z0F800
G1 X38.68Y37.939Z0F800
G1 X39.146Y38.142Z0F800
G1 X39.637Y38.318Z0F800
G1 X40.153Y38.469Z0F800
G1 X40.696Y38.597Z0F800
G1 X41.101Y38.668Z0F800
G1 X41.511Y38.718Z0F800
G1 X41.923Y38.746Z0F800
G1 X42.341Y38.753Z0F800
G1 X42.949Y38.725Z0F800
G1 X43.555Y38.651Z0F800
G1 X44.147Y38.534Z0F800
G1 X44.721Y38.374Z0F800
G1 X45.272Y38.17Z0F800
G1 X45.795Y37.921Z0F800
G1 X46.284Y37.625Z0F800
G1 X46.729Y37.279Z0F800
G1 X47.135Y36.873Z0F800
G1 X47.491Y36.417Z0F800
G1 X47.797Y35.918Z0F800
G1 X47.986Y35.523Z0F800
G1 Y36.312Z0F800
G1 Y36.785Z0F800
G1 X47.989Y37.134Z0F800
G1 X47.998Y37.378Z0F800
G1 X48.093Y38.085Z0F800
G1 X48.835Y38.319Z0F800
G1 X49.062Y38.344Z0F800
G1 X49.262Y38.358Z0F800
G1 X49.498Y38.369Z0F800
G1 X49.771Y38.377Z0F800
G1 X50.077Y38.384Z0F800
G1 X50.413Y38.388Z0F800
G1 X50.767Z0F800
G1 X53.496Z0F800
G1 Y32.062Z0F800
G1 X57.599Z0F800
G1 Y32.291Z0F800
G1 X57.596Y38.389Z0F800
G0 Z0.8F500
G0 X60.025Y43.453Z0.8F1000
G1 Z0F500
G1 X50.679Y43.449Z0F800
G1 X20.412Y43.432Z0F800
G1 X25.604Y20.362Z0F800
G1 X25.696Y20.414Z0F800
G1 X26.106Y20.633Z0F800
G1 X26.538Y20.855Z0F800
G1 X26.978Y21.074Z0F800
G1 X27.414Y21.283Z0F800
G1 X27.831Y21.474Z0F800
G1 X28.218Y21.641Z0F800
G1 X28.923Y21.919Z0F800
G1 X29.645Y22.177Z0F800
G1 X30.382Y22.413Z0F800
G1 X31.139Y22.628Z0F800
G1 X31.915Y22.822Z0F800
G1 X32.714Y22.997Z0F800
G1 X33.537Y23.153Z0F800
G1 X34.393Y23.292Z0F800
G1 X34.677Y23.326Z0F800
G1 X35.012Y23.355Z0F800
G1 X35.387Y23.38Z0F800
G1 X35.802Y23.401Z0F800
G1 X36.709Y23.43Z0F800
G1 X37.682Y23.443Z0F800
G1 X38.652Z0F800
G1 X39.555Y23.423Z0F800
G1 X39.968Y23.408Z0F800
G1 X40.341Y23.387Z0F800
G1 X40.673Y23.362Z0F800
G1 X40.959Y23.329Z0F800
G1 X42.271Y23.115Z0F800
G1 X43.551Y22.845Z0F800
G1 X44.798Y22.521Z0F800
G1 X46.009Y22.143Z0F800
G1 X47.182Y21.711Z0F800
G1 X48.312Y21.228Z0F800
G1 X49.396Y20.693Z0F800
G1 X50.417Y20.116Z0F800
G1 X50.719Y19.935Z0F800
G1 X50.947Y20.073Z0F800
G1 X51.374Y20.321Z0F800
G1 X51.863Y20.586Z0F800
G1 X52.388Y20.855Z0F800
G1 X52.938Y21.123Z0F800
G1 X53.494Y21.381Z0F800
G1 X54.042Y21.622Z0F800
G1 X54.568Y21.84Z0F800
G1 X55.057Y22.025Z0F800
G1 X55.766Y22.267Z0F800
G1 X56.508Y22.49Z0F800
G1 X57.275Y22.696Z0F800
G1 X58.058Y22.882Z0F800
G1 X58.849Y23.047Z0F800
G1 X59.642Y23.188Z0F800
G1 X60.428Y23.305Z0F800
G1 X61.197Y23.395Z0F800
G1 X61.43Y23.415Z0F800
G1 X61.691Y23.431Z0F800
G1 X61.976Y23.444Z0F800
G1 X62.284Y23.455Z0F800
G1 X62.943Y23.469Z0F800
G1 X63.643Y23.474Z0F800
G1 X64.342Y23.469Z0F800
G1 X65.001Y23.455Z0F800
G1 X65.309Y23.444Z0F800
G1 X65.594Y23.431Z0F800
G1 X65.855Y23.415Z0F800
G1 X66.094Y23.394Z0F800
G1 X67.457Y23.221Z0F800
G1 X68.822Y22.97Z0F800
G1 X70.172Y22.648Z0F800
G1 X71.498Y22.258Z0F800
G1 X72.788Y21.802Z0F800
G1 X74.031Y21.285Z0F800
G1 X75.219Y20.708Z0F800
G1 X75.839Y20.357Z0F800
G1 X76.334Y22.547Z0F800
G1 X77.177Y26.296Z0F800
G1 X78.661Y32.933Z0F800
G1 X80.074Y39.283Z0F800
G1 X80.792Y42.523Z0F800
G1 X80.993Y43.443Z0F800
G1 X80.791Z0F800
G1 X78.393Y43.448Z0F800
G1 X70.703Y43.454Z0F800
G1 X60.025Z0F800
G0 Z0.8F500
G0 X50.678Y44.449Z0.8F1000
G1 Z0F500
G1 X19.162Y44.431Z0F800
G1 X24.928Y18.808Z0F800
G1 X24.976Y18.832Z0F800
G1 X25.104Y18.905Z0F800
G1 X25.292Y19.019Z0F800
G1 X25.521Y19.16Z0F800
G1 X25.821Y19.338Z0F800
G1 X26.176Y19.537Z0F800
G1 X26.57Y19.748Z0F800
G1 X26.989Y19.963Z0F800
G1 X27.417Y20.175Z0F800
G1 X27.838Y20.377Z0F800
G1 X28.237Y20.56Z0F800
G1 X28.6Y20.716Z0F800
G1 X29.275Y20.983Z0F800
G1 X29.965Y21.229Z0F800
G1 X30.671Y21.456Z0F800
G1 X31.397Y21.662Z0F800
G1 X32.144Y21.849Z0F800
G1 X32.914Y22.017Z0F800
G1 X33.709Y22.168Z0F800
G1 X34.533Y22.301Z0F800
G1 X34.781Y22.332Z0F800
G1 X35.088Y22.358Z0F800
G1 X35.445Y22.382Z0F800
G1 X35.843Y22.402Z0F800
G1 X36.732Y22.43Z0F800
G1 X37.688Y22.443Z0F800
G1 X38.641Z0F800
G1 X39.526Y22.423Z0F800
G1 X39.922Y22.409Z0F800
G1 X40.276Y22.389Z0F800
G1 X40.579Y22.366Z0F800
G1 X40.822Y22.338Z0F800
G1 X42.087Y22.132Z0F800
G1 X43.322Y21.872Z0F800
G1 X44.523Y21.559Z0F800
G1 X45.688Y21.196Z0F800
G1 X46.813Y20.782Z0F800
G1 X47.894Y20.319Z0F800
G1 X48.929Y19.809Z0F800
G1 X49.914Y19.251Z0F800
G1 X50.216Y19.071Z0F800
G1 X50.568Y18.866Z0F800
G1 X50.698Y18.795Z0F800
G1 X50.721Y18.786Z0F800
G1 X50.743Y18.794Z0F800
G1 X50.862Y18.859Z0F800
G1 X51.183Y19.047Z0F800
G1 X51.458Y19.212Z0F800
G1 X51.864Y19.449Z0F800
G1 X52.329Y19.701Z0F800
G1 X52.835Y19.96Z0F800
G1 X53.367Y20.22Z0F800
G1 X53.906Y20.469Z0F800
G1 X54.435Y20.702Z0F800
G1 X54.938Y20.91Z0F800
G1 X55.396Y21.084Z0F800
G1 X56.071Y21.314Z0F800
G1 X56.782Y21.528Z0F800
G1 X57.52Y21.727Z0F800
G1 X58.275Y21.906Z0F800
G1 X59.039Y22.065Z0F800
G1 X59.803Y22.202Z0F800
G1 X60.559Y22.313Z0F800
G1 X61.297Y22.399Z0F800
G1 X61.504Y22.417Z0F800
G1 X61.746Y22.432Z0F800
G1 X62.017Y22.445Z0F800
G1 X62.312Y22.455Z0F800
G1 X62.958Y22.469Z0F800
G1 X63.643Y22.474Z0F800
G1 X64.327Y22.469Z0F800
G1 X64.973Y22.455Z0F800
G1 X65.269Y22.445Z0F800
G1 X65.54Y22.432Z0F800
G1 X65.781Y22.417Z0F800
G1 X65.988Y22.399Z0F800
G1 X67.303Y22.232Z0F800
G1 X68.616Y21.991Z0F800
G1 X69.915Y21.682Z0F800
G1 X71.19Y21.306Z0F800
G1 X72.429Y20.869Z0F800
G1 X73.621Y20.373Z0F800
G1 X74.754Y19.822Z0F800
G1 X75.818Y19.22Z0F800
G1 X76.036Y19.088Z0F800
G1 X76.203Y18.99Z0F800
G1 X76.326Y18.923Z0F800
G1 X76.414Y18.884Z0F800
G1 X76.472Y18.871Z0F800
G1 X76.509Y18.881Z0F800
G1 X76.531Y18.913Z0F800
G1 X76.546Y18.962Z0F800
G1 X76.716Y19.699Z0F800
G1 X77.31Y22.327Z0F800
G1 X78.152Y26.078Z0F800
G1 X79.637Y32.715Z0F800
G1 X81.05Y39.067Z0F800
G1 X81.769Y42.309Z0F800
G1 X82.109Y43.865Z0F800
G1 X82.217Y44.367Z0F800
G1 X82.229Y44.434Z0F800
G1 X82.062Y44.438Z0F800
G1 X80.796Y44.444Z0F800
G1 X78.395Y44.448Z0F800
G1 X70.704Y44.454Z0F800
G1 X60.025Z0F800
G1 X50.678Y44.449Z0F800
M5
G1 Z1F500
M9
G90
G1 Z1F500
G1 Z2 F500;         ; Raise brush slightly
G1 X22 Y0 F500;     ; Move across cleaning area
G1 Z5 F500;         ; Raise brush completely
G0 X20 Y110 Z10 F500;; Move to parking position with Z at safe height
M2;                 ; End program
