;LightBurn 1.6.04
;Custom GCode device profile, absolute coords
;Bounds: X14.09 Y10.94 to X77.91 Y83.06
G00 G17 G40 G21 G54
G90
M3
G1 Z10 F500
;Offset @ 1500 mm/min, 90% power

M8
G0 Z2.8F500
G0 X38.601Y69.33Z2.8F1500
G1 Z0F500
;Layer Blue
G1 X38.58Y69.131Z0S900F1200
G1 X38.784Y69.08Z0F1200
G1 X38.601Y69.33Z0F1200
G0 Z2.8F500
G0 X21.504Y62.072Z2.8F1500
G1 Z0F500
G1 X21.062Y61.566Z0F1200
G1 X21.178Y61.493Z0F1200
G1 X21.757Y61.099Z0F1200
G1 X21.547Y61.682Z0F1200
G1 X21.504Y62.072Z0F1200
G0 Z2.8F500
G0 X28.335Y55.113Z2.8F1500
G1 Z0F500
G1 X28.458Y54.957Z0F1200
G1 X28.465Y55.115Z0F1200
G1 X28.335Z0F1200
G0 Z2.8F500
G0 X55.543Y45.568Z2.8F1500
G1 Z0F500
G1 X55.843Y45.579Z0F1200
G1 X56.048Y45.505Z0F1200
G1 X55.636Y46.068Z0F1200
G1 X55.645Y45.849Z0F1200
G1 X55.543Y45.568Z0F1200
G0 Z2.8F500
G0 X55.671Y44.472Z2.8F1500
G1 Z0F500
G1 X57.051Y43.976Z0F1200
G1 X57.913Y43.191Z0F1200
G1 X59.13Y41.528Z0F1200
G1 X59.745Y41.844Z0F1200
G1 X60.074Y41.87Z0F1200
G1 X52.784Y51.827Z0F1200
G1 Y51.83Z0F1200
G1 X33.767Y77.789Z0F1200
G1 X32.813Y76.695Z0F1200
G1 X33.295Y76.418Z0F1200
G1 X33.853Y75.847Z0F1200
G1 X35.826Y73.202Z0F1200
G1 X36.174Y72.731Z0F1200
G1 X36.452Y72.346Z0F1200
G1 X36.583Y72.157Z0F1200
G1 X36.719Y71.955Z0F1200
G1 X36.978Y71.535Z0F1200
G1 X37.32Y70.805Z0F1200
G1 X37.533Y69.7Z0F1200
G1 X37.418Y68.592Z0F1200
G1 X37.215Y68.032Z0F1200
G1 X37.381Y68.062Z0F1200
G1 X38.204Y68.091Z0F1200
G1 X39.221Y67.835Z0F1200
G1 X40.124Y67.316Z0F1200
G1 X40.692Y66.731Z0F1200
G1 X41.782Y65.241Z0F1200
G1 X41.987Y64.959Z0F1200
G1 X42.184Y64.683Z0F1200
G1 X42.363Y64.424Z0F1200
G1 X42.526Y64.184Z0F1200
G1 X42.679Y63.952Z0F1200
G1 X42.813Y63.735Z0F1200
G1 X42.913Y63.561Z0F1200
G1 X43.039Y63.314Z0F1200
G1 X43.184Y62.974Z0F1200
G1 X43.292Y62.591Z0F1200
G1 X43.367Y62.224Z0F1200
G1 X43.425Y62.19Z0F1200
G1 X44.076Y61.75Z0F1200
G1 X44.704Y61.269Z0F1200
G1 X45.315Y60.744Z0F1200
G1 X45.772Y60.307Z0F1200
G1 X46.203Y59.846Z0F1200
G1 X46.607Y59.366Z0F1200
G1 X46.996Y58.853Z0F1200
G1 X47.494Y58.102Z0F1200
G1 X47.944Y57.303Z0F1200
G1 X48.334Y56.472Z0F1200
G1 X48.66Y55.608Z0F1200
G1 X48.913Y54.716Z0F1200
G1 X49.085Y53.792Z0F1200
G1 X49.103Y53.578Z0F1200
G1 X49.234Y53.55Z0F1200
G1 X49.603Y53.428Z0F1200
G1 X49.938Y53.279Z0F1200
G1 X50.276Y53.087Z0F1200
G1 X50.519Y52.913Z0F1200
G1 X50.708Y52.762Z0F1200
G1 X50.898Y52.589Z0F1200
G1 X51.083Y52.396Z0F1200
G1 X51.209Y52.253Z0F1200
G1 X51.394Y52.034Z0F1200
G1 X51.603Y51.775Z0F1200
G1 X51.825Y51.49Z0F1200
G1 X52.063Y51.178Z0F1200
G1 X52.315Y50.84Z0F1200
G1 X52.575Y50.489Z0F1200
G1 X53.995Y48.547Z0F1200
G1 X54.482Y47.488Z0F1200
G1 X54.538Y46.021Z0F1200
G1 X54.041Y44.641Z0F1200
G1 X53.573Y44.126Z0F1200
G1 X54.204Y44.417Z0F1200
G1 X55.671Y44.472Z0F1200
G0 Z2.8F500
G0 X39.457Y36.513Z2.8F1500
G1 Z0F500
G1 X35.894Y41.334Z0F1200
G1 X35.266Y42.682Z0F1200
G1 X35.226Y43.56Z0F1200
G1 X34.971Y43.712Z0F1200
G1 X34.706Y43.904Z0F1200
G1 X34.95Y43.189Z0F1200
G1 X35.413Y41.575Z0F1200
G1 X35.789Y39.954Z0F1200
G1 X36.053Y38.444Z0F1200
G1 X36.404Y38.268Z0F1200
G1 X37.115Y37.893Z0F1200
G1 X37.818Y37.503Z0F1200
G1 X38.506Y37.105Z0F1200
G1 X39.168Y36.701Z0F1200
G1 X39.457Y36.513Z0F1200
G0 Z2.8F500
G0 X69.489Y24.148Z2.8F1500
G1 Z0F500
G1 X71.141Y24.873Z0F1200
G1 X70.863Y25.253Z0F1200
G1 X69.692Y26.855Z0F1200
G1 X69.729Y26.256Z0F1200
G1 X69.692Y25.347Z0F1200
G1 X69.562Y24.435Z0F1200
G1 X69.489Y24.148Z0F1200
G0 Z2.8F500
G0 X68.846Y22.666Z2.8F1500
G1 Z0F500
G1 X72.836Y24.415Z0F1200
G1 X71.75Y25.904Z0F1200
G1 X69.026Y29.632Z0F1200
G1 X65.786Y34.062Z0F1200
G1 X65.698Y33.83Z0F1200
G1 X65.35Y33.465Z0F1200
G1 X65.458Y33.34Z0F1200
G1 X65.731Y33Z0F1200
G1 X66.015Y32.629Z0F1200
G1 X66.334Y32.2Z0F1200
G1 X66.729Y31.656Z0F1200
G1 X67.086Y31.135Z0F1200
G1 X67.412Y30.615Z0F1200
G1 X67.708Y30.074Z0F1200
G1 X67.964Y29.508Z0F1200
G1 X68.171Y28.935Z0F1200
G1 X68.329Y28.376Z0F1200
G1 X68.464Y27.78Z0F1200
G1 X68.58Y27.039Z0F1200
G1 X68.627Y26.245Z0F1200
G1 X68.595Y25.447Z0F1200
G1 X68.481Y24.649Z0F1200
G1 X68.277Y23.852Z0F1200
G1 X67.971Y23.063Z0F1200
G1 X67.549Y22.292Z0F1200
G1 X67.333Y22.005Z0F1200
G1 X68.846Y22.666Z0F1200
G0 Z2.8F500
G0 X54.12Y17.437Z2.8F1500
G1 Z0F500
G1 X53.844Y17.625Z0F1200
G1 X53.275Y18.068Z0F1200
G1 X53.237Y18.102Z0F1200
G1 X53.516Y17.173Z0F1200
G1 X54.12Y17.437Z0F1200
G0 Z2.8F500
G0 X55.605Y17.808Z2.8F1500
G1 Z0F500
G1 X55.034Y18.144Z0F1200
G1 X54.493Y18.514Z0F1200
G1 X53.975Y18.917Z0F1200
G1 X53.479Y19.349Z0F1200
G1 X52.995Y19.815Z0F1200
G1 X52.605Y20.231Z0F1200
G1 X52.214Y20.682Z0F1200
G1 X51.827Y21.157Z0F1200
G1 X51.447Y21.648Z0F1200
G1 X51.081Y22.149Z0F1200
G1 X50.737Y22.651Z0F1200
G1 X50.417Y23.158Z0F1200
G1 X50.12Y23.69Z0F1200
G1 X49.703Y24.626Z0F1200
G1 X49.38Y25.597Z0F1200
G1 X49.167Y26.604Z0F1200
G1 X49.087Y27.555Z0F1200
G1 X48.659Y27.539Z0F1200
G1 X47.279Y28.035Z0F1200
G1 X46.417Y28.82Z0F1200
G1 X44.783Y31.055Z0F1200
G1 X44.546Y31.385Z0F1200
G1 X44.328Y31.692Z0F1200
G1 X44.133Y31.973Z0F1200
G1 X43.955Y32.235Z0F1200
G1 X43.729Y32.585Z0F1200
G1 X43.572Y32.858Z0F1200
G1 X43.452Y33.107Z0F1200
G1 X43.413Y33.206Z0F1200
G1 X42.977Y33.6Z0F1200
G1 X36.844Y41.899Z0F1200
G1 X36.354Y42.95Z0F1200
G1 X36.297Y44.202Z0F1200
G1 X35.577Y44.631Z0F1200
G1 X34.722Y45.251Z0F1200
G1 X33.914Y45.946Z0F1200
G1 X33.158Y46.699Z0F1200
G1 X32.509Y47.425Z0F1200
G1 X31.959Y48.151Z0F1200
G1 X31.672Y48.591Z0F1200
G1 X31.419Y49.014Z0F1200
G1 X31.17Y49.459Z0F1200
G1 X30.89Y49.982Z0F1200
G1 X30.522Y50.738Z0F1200
G1 X30.195Y51.545Z0F1200
G1 X29.93Y52.368Z0F1200
G1 X29.731Y53.209Z0F1200
G1 X29.605Y54.063Z0F1200
G1 X29.558Y54.929Z0F1200
G1 X29.596Y55.8Z0F1200
G1 X29.679Y56.37Z0F1200
G1 X28.671Y56.217Z0F1200
G1 X27.878Y56.208Z0F1200
G1 X26.91Y56.46Z0F1200
G1 X26.035Y56.96Z0F1200
G1 X25.477Y57.525Z0F1200
G1 X24.026Y59.452Z0F1200
G1 X23.779Y59.789Z0F1200
G1 X23.561Y60.093Z0F1200
G1 X23.362Y60.385Z0F1200
G1 X23.159Y60.708Z0F1200
G1 X22.993Y61.02Z0F1200
G1 X22.851Y61.311Z0F1200
G1 X22.626Y61.933Z0F1200
G1 X22.525Y62.844Z0F1200
G1 X22.634Y63.636Z0F1200
G1 X22.818Y64.278Z0F1200
G1 X22.925Y64.477Z0F1200
G1 X22.977Y64.6Z0F1200
G1 X23.425Y65.632Z0F1200
G1 X23.701Y66.261Z0F1200
G1 X19.379Y61.312Z0F1200
G1 X19.738Y61.101Z0F1200
G1 X20.575Y60.572Z0F1200
G1 X21.403Y60.01Z0F1200
G1 X22.221Y59.415Z0F1200
G1 X23.027Y58.786Z0F1200
G1 X23.824Y58.124Z0F1200
G1 X24.614Y57.425Z0F1200
G1 X25.396Y56.694Z0F1200
G1 X26.19Y55.911Z0F1200
G1 X26.488Y55.594Z0F1200
G1 X26.802Y55.239Z0F1200
G1 X27.128Y54.853Z0F1200
G1 X27.471Y54.433Z0F1200
G1 X28.171Y53.542Z0F1200
G1 X28.895Y52.583Z0F1200
G1 X29.602Y51.612Z0F1200
G1 X30.247Y50.685Z0F1200
G1 X30.548Y50.235Z0F1200
G1 X30.82Y49.813Z0F1200
G1 X31.069Y49.408Z0F1200
G1 X31.291Y49.016Z0F1200
G1 X32.063Y47.496Z0F1200
G1 X32.755Y45.963Z0F1200
G1 X33.369Y44.417Z0F1200
G1 X33.9Y42.86Z0F1200
G1 X34.348Y41.299Z0F1200
G1 X34.71Y39.734Z0F1200
G1 X34.984Y38.169Z0F1200
G1 X35.037Y37.718Z0F1200
G1 X35.218Y37.632Z0F1200
G1 X35.9Y37.29Z0F1200
G1 X36.591Y36.925Z0F1200
G1 X37.276Y36.545Z0F1200
G1 X37.943Y36.159Z0F1200
G1 X38.582Y35.77Z0F1200
G1 X39.175Y35.384Z0F1200
G1 X39.98Y34.819Z0F1200
G1 X40.787Y34.211Z0F1200
G1 X41.586Y33.57Z0F1200
G1 X42.374Y32.899Z0F1200
G1 X43.147Y32.202Z0F1200
G1 X43.897Y31.485Z0F1200
G1 X44.619Y30.754Z0F1200
G1 X45.303Y30.016Z0F1200
G1 X45.53Y29.755Z0F1200
G1 X45.761Y29.479Z0F1200
G1 X46Y29.185Z0F1200
G1 X46.249Y28.869Z0F1200
G1 X46.752Y28.213Z0F1200
G1 X47.271Y27.513Z0F1200
G1 X47.782Y26.806Z0F1200
G1 X48.256Y26.125Z0F1200
G1 X48.48Y25.793Z0F1200
G1 X48.689Y25.477Z0F1200
G1 X48.882Y25.173Z0F1200
G1 X49.07Y24.864Z0F1200
G1 X49.927Y23.315Z0F1200
G1 X50.709Y21.697Z0F1200
G1 X51.405Y20.042Z0F1200
G1 X52.011Y18.359Z0F1200
G1 X52.521Y16.66Z0F1200
G1 X52.766Y15.647Z0F1200
G1 X56.651Y17.338Z0F1200
G1 X56.205Y17.514Z0F1200
G1 X55.605Y17.808Z0F1200
G0 Z2.8F500
G0 X50.38Y19.643Z2.8F1500
G1 Z0F500
G1 X50.965Y18.015Z0F1200
G1 X51.459Y16.373Z0F1200
G1 X51.853Y14.742Z0F1200
G1 X51.978Y14.106Z0F1200
G1 X53.118Y14.601Z0F1200
G1 X57.182Y16.37Z0F1200
G1 X64.379Y19.512Z0F1200
G1 X69.287Y21.658Z0F1200
G1 X73.49Y23.5Z0F1200
G1 X74.531Y23.958Z0F1200
G1 X72.638Y26.552Z0F1200
G1 X69.914Y30.281Z0F1200
G1 X62.829Y39.968Z0F1200
G1 X53.84Y52.246Z0F1200
G1 Y52.25Z0F1200
G1 X33.843Y79.547Z0F1200
G1 X30.812Y76.076Z0F1200
G1 X31.35Y76.068Z0F1200
G1 X32.002Y75.893Z0F1200
G1 X32.615Y75.541Z0F1200
G1 X33.015Y75.131Z0F1200
G1 X34.943Y72.546Z0F1200
G1 X35.286Y72.083Z0F1200
G1 X35.555Y71.71Z0F1200
G1 X35.675Y71.537Z0F1200
G1 X35.793Y71.36Z0F1200
G1 X36.008Y71.011Z0F1200
G1 X36.266Y70.462Z0F1200
G1 X36.422Y69.651Z0F1200
G1 X36.338Y68.84Z0F1200
G1 X36.187Y68.421Z0F1200
G1 X35.873Y67.732Z0F1200
G1 X35.454Y66.831Z0F1200
G1 X35.338Y66.582Z0F1200
G1 X37.497Y66.965Z0F1200
G1 X38.087Y66.986Z0F1200
G1 X38.805Y66.806Z0F1200
G1 X39.441Y66.439Z0F1200
G1 X39.85Y66.02Z0F1200
G1 X40.893Y64.593Z0F1200
G1 X41.094Y64.317Z0F1200
G1 X41.284Y64.049Z0F1200
G1 X41.457Y63.801Z0F1200
G1 X41.611Y63.574Z0F1200
G1 X41.75Y63.362Z0F1200
G1 X41.868Y63.17Z0F1200
G1 X41.947Y63.034Z0F1200
G1 X42.042Y62.848Z0F1200
G1 X42.144Y62.608Z0F1200
G1 X42.222Y62.331Z0F1200
G1 X42.293Y61.986Z0F1200
G1 Y61.575Z0F1200
G1 X42.839Y61.258Z0F1200
G1 X43.433Y60.857Z0F1200
G1 X44.01Y60.414Z0F1200
G1 X44.576Y59.929Z0F1200
G1 X44.99Y59.533Z0F1200
G1 X45.38Y59.115Z0F1200
G1 X45.748Y58.68Z0F1200
G1 X46.098Y58.216Z0F1200
G1 X46.556Y57.527Z0F1200
G1 X46.966Y56.798Z0F1200
G1 X47.32Y56.043Z0F1200
G1 X47.614Y55.264Z0F1200
G1 X47.84Y54.464Z0F1200
G1 X47.994Y53.645Z0F1200
G1 X48.063Y52.809Z0F1200
G1 X48.057Y52.578Z0F1200
G1 X48.547Y52.573Z0F1200
G1 X48.945Y52.487Z0F1200
G1 X49.207Y52.4Z0F1200
G1 X49.441Y52.296Z0F1200
G1 X49.682Y52.159Z0F1200
G1 X49.854Y52.036Z0F1200
G1 X49.994Y51.924Z0F1200
G1 X50.131Y51.8Z0F1200
G1 X50.273Y51.652Z0F1200
G1 X50.376Y51.535Z0F1200
G1 X50.545Y51.334Z0F1200
G1 X50.74Y51.092Z0F1200
G1 X50.954Y50.819Z0F1200
G1 X51.186Y50.515Z0F1200
G1 X51.432Y50.185Z0F1200
G1 X51.688Y49.838Z0F1200
G1 X53.042Y47.987Z0F1200
G1 X53.392Y47.227Z0F1200
G1 X53.43Y46.192Z0F1200
G1 X53.08Y45.219Z0F1200
G1 X52.518Y44.601Z0F1200
G1 X48.361Y41.56Z0F1200
G1 X49.55Y39.936Z0F1200
G1 X53.705Y42.976Z0F1200
G1 X54.465Y43.326Z0F1200
G1 X55.5Y43.365Z0F1200
G1 X56.473Y43.015Z0F1200
G1 X57.091Y42.452Z0F1200
G1 X58.428Y40.625Z0F1200
G1 X58.859Y40.052Z0F1200
G1 X59.354Y40.407Z0F1200
G1 X60.05Y40.765Z0F1200
G1 X61.13Y40.848Z0F1200
G1 X62.166Y40.473Z0F1200
G1 X62.783Y39.888Z0F1200
G1 X63.624Y38.739Z0F1200
G1 X64.735Y37.246Z0F1200
G1 X65.09Y36.464Z0F1200
G1 X65.12Y35.413Z0F1200
G1 X64.748Y34.427Z0F1200
G1 X64.161Y33.813Z0F1200
G1 X63.739Y33.521Z0F1200
G1 X63.844Y33.437Z0F1200
G1 X64.342Y32.949Z0F1200
G1 X64.613Y32.636Z0F1200
G1 X64.866Y32.322Z0F1200
G1 X65.137Y31.967Z0F1200
G1 X65.448Y31.549Z0F1200
G1 X65.831Y31.021Z0F1200
G1 X66.166Y30.532Z0F1200
G1 X66.462Y30.059Z0F1200
G1 X66.722Y29.583Z0F1200
G1 X66.944Y29.093Z0F1200
G1 X67.123Y28.598Z0F1200
G1 X67.262Y28.104Z0F1200
G1 X67.383Y27.573Z0F1200
G1 X67.485Y26.921Z0F1200
G1 X67.526Y26.234Z0F1200
G1 X67.499Y25.546Z0F1200
G1 X67.401Y24.864Z0F1200
G1 X67.228Y24.189Z0F1200
G1 X66.971Y23.528Z0F1200
G1 X66.623Y22.889Z0F1200
G1 X66.225Y22.36Z0F1200
G1 X65.743Y21.812Z0F1200
G1 X64.964Y21.253Z0F1200
G1 X63.968Y21.082Z0F1200
G1 X63.694Y20.542Z0F1200
G1 X63.315Y19.995Z0F1200
G1 X62.867Y19.503Z0F1200
G1 X62.365Y19.082Z0F1200
G1 X61.844Y18.74Z0F1200
G1 X61.303Y18.461Z0F1200
G1 X60.737Y18.245Z0F1200
G1 X60.153Y18.092Z0F1200
G1 X59.554Y18.005Z0F1200
G1 X58.948Y17.986Z0F1200
G1 X58.347Y18.033Z0F1200
G1 X57.758Y18.143Z0F1200
G1 X57.19Y18.309Z0F1200
G1 X56.649Y18.521Z0F1200
G1 X56.127Y18.777Z0F1200
G1 X55.625Y19.073Z0F1200
G1 X55.142Y19.403Z0F1200
G1 X54.674Y19.767Z0F1200
G1 X54.223Y20.161Z0F1200
G1 X53.778Y20.588Z0F1200
G1 X53.422Y20.968Z0F1200
G1 X53.056Y21.39Z0F1200
G1 X52.688Y21.841Z0F1200
G1 X52.327Y22.309Z0F1200
G1 X51.979Y22.785Z0F1200
G1 X51.656Y23.256Z0F1200
G1 X51.363Y23.72Z0F1200
G1 X51.105Y24.183Z0F1200
G1 X50.729Y25.025Z0F1200
G1 X50.444Y25.885Z0F1200
G1 X50.257Y26.764Z0F1200
G1 X50.182Y27.66Z0F1200
G1 X50.235Y28.563Z0F1200
G1 X50.306Y28.887Z0F1200
G1 X49.866Y28.685Z0F1200
G1 X48.831Y28.646Z0F1200
G1 X47.858Y28.996Z0F1200
G1 X47.239Y29.559Z0F1200
G1 X45.674Y31.701Z0F1200
G1 X45.441Y32.024Z0F1200
G1 X45.229Y32.324Z0F1200
G1 X45.04Y32.596Z0F1200
G1 X44.871Y32.843Z0F1200
G1 X44.668Y33.158Z0F1200
G1 X44.545Y33.372Z0F1200
G1 X44.459Y33.551Z0F1200
G1 X44.378Y33.753Z0F1200
G1 X44.354Y33.837Z0F1200
G1 X43.796Y34.342Z0F1200
G1 X37.795Y42.464Z0F1200
G1 X37.443Y43.218Z0F1200
G1 X37.396Y44.244Z0F1200
G1 X37.586Y44.792Z0F1200
G1 X36.995Y45.066Z0F1200
G1 X36.182Y45.551Z0F1200
G1 X35.405Y46.115Z0F1200
G1 X34.661Y46.754Z0F1200
G1 X33.957Y47.456Z0F1200
G1 X33.359Y48.125Z0F1200
G1 X32.859Y48.784Z0F1200
G1 X32.605Y49.174Z0F1200
G1 X32.371Y49.565Z0F1200
G1 X32.135Y49.987Z0F1200
G1 X31.87Y50.483Z0F1200
G1 X31.527Y51.186Z0F1200
G1 X31.229Y51.921Z0F1200
G1 X30.99Y52.664Z0F1200
G1 X30.813Y53.416Z0F1200
G1 X30.701Y54.173Z0F1200
G1 X30.659Y54.935Z0F1200
G1 X30.692Y55.696Z0F1200
G1 X30.803Y56.451Z0F1200
G1 X30.994Y57.192Z0F1200
G1 X31.191Y57.712Z0F1200
G1 X28.581Y57.316Z0F1200
G1 X28.012Y57.309Z0F1200
G1 X27.329Y57.487Z0F1200
G1 X26.711Y57.84Z0F1200
G1 X26.311Y58.246Z0F1200
G1 X24.909Y60.108Z0F1200
G1 X24.669Y60.435Z0F1200
G1 X24.463Y60.723Z0F1200
G1 X24.283Y60.987Z0F1200
G1 X24.11Y61.261Z0F1200
G1 X23.973Y61.52Z0F1200
G1 X23.866Y61.739Z0F1200
G1 X23.705Y62.184Z0F1200
G1 X23.633Y62.83Z0F1200
G1 X23.713Y63.408Z0F1200
G1 X23.844Y63.862Z0F1200
G1 X23.919Y64.003Z0F1200
G1 X23.988Y64.166Z0F1200
G1 X24.433Y65.192Z0F1200
G1 X24.757Y65.928Z0F1200
G1 X25.776Y68.23Z0F1200
G1 X27.659Y72.465Z0F1200
G1 X17.655Y61.008Z0F1200
G1 X17.667Y61.002Z0F1200
G1 X18.195Y60.718Z0F1200
G1 X18.698Y60.437Z0F1200
G1 X19.165Y60.162Z0F1200
G1 X19.973Y59.652Z0F1200
G1 X20.771Y59.11Z0F1200
G1 X21.559Y58.536Z0F1200
G1 X22.337Y57.929Z0F1200
G1 X23.108Y57.288Z0F1200
G1 X23.874Y56.612Z0F1200
G1 X24.634Y55.9Z0F1200
G1 X25.403Y55.142Z0F1200
G1 X25.675Y54.853Z0F1200
G1 X25.97Y54.52Z0F1200
G1 X26.282Y54.15Z0F1200
G1 X26.613Y53.745Z0F1200
G1 X27.3Y52.871Z0F1200
G1 X28.011Y51.928Z0F1200
G1 X28.706Y50.974Z0F1200
G1 X29.339Y50.064Z0F1200
G1 X29.629Y49.631Z0F1200
G1 X29.889Y49.228Z0F1200
G1 X30.121Y48.849Z0F1200
G1 X30.322Y48.496Z0F1200
G1 X31.07Y47.02Z0F1200
G1 X31.742Y45.533Z0F1200
G1 X32.336Y44.036Z0F1200
G1 X32.85Y42.531Z0F1200
G1 X33.282Y41.023Z0F1200
G1 X33.632Y39.516Z0F1200
G1 X33.895Y38.011Z0F1200
G1 X34.016Y36.981Z0F1200
G1 X34.098Y36.946Z0F1200
G1 X34.736Y36.644Z0F1200
G1 X35.396Y36.312Z0F1200
G1 X36.068Y35.957Z0F1200
G1 X36.734Y35.588Z0F1200
G1 X37.381Y35.214Z0F1200
G1 X37.995Y34.839Z0F1200
G1 X38.559Y34.473Z0F1200
G1 X39.333Y33.929Z0F1200
G1 X40.111Y33.343Z0F1200
G1 X40.885Y32.722Z0F1200
G1 X41.649Y32.071Z0F1200
G1 X42.398Y31.396Z0F1200
G1 X43.125Y30.701Z0F1200
G1 X43.824Y29.994Z0F1200
G1 X44.485Y29.281Z0F1200
G1 X44.693Y29.042Z0F1200
G1 X44.912Y28.781Z0F1200
G1 X45.14Y28.498Z0F1200
G1 X45.38Y28.193Z0F1200
G1 X45.874Y27.55Z0F1200
G1 X46.384Y26.864Z0F1200
G1 X46.884Y26.17Z0F1200
G1 X47.349Y25.503Z0F1200
G1 X47.565Y25.182Z0F1200
G1 X47.766Y24.879Z0F1200
G1 X47.948Y24.592Z0F1200
G1 X48.119Y24.312Z0F1200
G1 X48.949Y22.809Z0F1200
G1 X49.707Y21.244Z0F1200
G1 X50.38Y19.643Z0F1200
G0 Z2.8F500
G0 X41.946Y53.014Z2.8F1500
G1 Z0F500
G1 X42.072Y53.24Z0F1200
G1 X42.157Y53.496Z0F1200
G1 X42.19Y53.787Z0F1200
G1 X42.164Y54.116Z0F1200
G1 X42.109Y54.413Z0F1200
G1 X42.041Y54.619Z0F1200
G1 X41.988Y54.718Z0F1200
G1 X41.916Y54.83Z0F1200
G1 X41.818Y54.968Z0F1200
G1 X41.689Y55.144Z0F1200
G1 X41.523Y55.364Z0F1200
G1 X41.378Y55.54Z0F1200
G1 X41.245Y55.677Z0F1200
G1 X41.114Y55.782Z0F1200
G1 X40.979Y55.86Z0F1200
G1 X40.83Y55.918Z0F1200
G1 X40.659Y55.962Z0F1200
G1 X40.457Y55.999Z0F1200
G1 X40.194Y56.01Z0F1200
G1 X39.872Y55.983Z0F1200
G1 X39.813Y55.967Z0F1200
G1 X39.884Y55.862Z0F1200
G1 X40.067Y55.597Z0F1200
G1 X40.321Y55.24Z0F1200
G1 X40.664Y54.767Z0F1200
G1 X41.946Y53.014Z0F1200
G0 Z2.8F500
G0 X44.687Y49.31Z2.8F1500
G1 Z0F500
G1 X44.256Y48.772Z0F1200
G1 X43.764Y48.25Z0F1200
G1 X43.211Y47.744Z0F1200
G1 X42.859Y47.445Z0F1200
G1 X42.697Y47.358Z0F1200
G1 X42.521Y47.343Z0F1200
G1 X42.353Y47.398Z0F1200
G1 X42.215Y47.52Z0F1200
G1 X39.611Y51.01Z0F1200
G1 X39.086Y51.711Z0F1200
G1 X38.594Y52.365Z0F1200
G1 X38.145Y52.957Z0F1200
G1 X37.749Y53.474Z0F1200
G1 X37.461Y53.845Z0F1200
G1 X37.233Y54.135Z0F1200
G1 X37.055Y53.845Z0F1200
G1 X36.951Y53.619Z0F1200
G1 X36.924Y53.49Z0F1200
G1 X36.909Y53.326Z0F1200
G1 X36.904Y53.137Z0F1200
G1 X36.91Y52.934Z0F1200
G1 X36.952Y52.531Z0F1200
G1 X37.032Y52.205Z0F1200
G1 X37.103Y52.05Z0F1200
G1 X37.207Y51.867Z0F1200
G1 X37.336Y51.668Z0F1200
G1 X37.481Y51.463Z0F1200
G1 X37.636Y51.263Z0F1200
G1 X37.791Y51.079Z0F1200
G1 X37.938Y50.922Z0F1200
G1 X38.071Y50.803Z0F1200
G1 X38.222Y50.698Z0F1200
G1 X38.385Y50.62Z0F1200
G1 X38.582Y50.56Z0F1200
G1 X38.837Y50.511Z0F1200
G1 X39.442Y50.417Z0F1200
G1 X39.605Y50.357Z0F1200
G1 X39.732Y50.24Z0F1200
G1 X41.87Y47.317Z0F1200
G1 X41.949Y47.134Z0F1200
G1 X41.942Y46.943Z0F1200
G1 X41.856Y46.772Z0F1200
G1 X41.698Y46.65Z0F1200
G1 X41.444Y46.534Z0F1200
G1 X41.226Y46.452Z0F1200
G1 X41.003Y46.402Z0F1200
G1 X40.775Y46.375Z0F1200
G1 X40.54Y46.363Z0F1200
G1 X39.917Y46.392Z0F1200
G1 X39.289Y46.512Z0F1200
G1 X38.656Y46.721Z0F1200
G1 X38.023Y47.015Z0F1200
G1 X37.394Y47.39Z0F1200
G1 X36.771Y47.842Z0F1200
G1 X36.156Y48.37Z0F1200
G1 X35.555Y48.969Z0F1200
G1 X35.059Y49.524Z0F1200
G1 X34.66Y50.051Z0F1200
G1 X34.471Y50.341Z0F1200
G1 X34.276Y50.667Z0F1200
G1 X34.065Y51.043Z0F1200
G1 X33.829Y51.484Z0F1200
G1 X33.538Y52.082Z0F1200
G1 X33.299Y52.672Z0F1200
G1 X33.111Y53.255Z0F1200
G1 X32.975Y53.83Z0F1200
G1 X32.892Y54.394Z0F1200
G1 X32.862Y54.947Z0F1200
G1 X32.885Y55.488Z0F1200
G1 X32.962Y56.015Z0F1200
G1 X33.094Y56.526Z0F1200
G1 X33.28Y57.018Z0F1200
G1 X33.519Y57.488Z0F1200
G1 X33.809Y57.937Z0F1200
G1 X34.151Y58.362Z0F1200
G1 X34.542Y58.762Z0F1200
G1 X34.982Y59.134Z0F1200
G1 X35.469Y59.479Z0F1200
G1 X35.924Y59.748Z0F1200
G1 X36.386Y59.971Z0F1200
G1 X36.854Y60.149Z0F1200
G1 X37.327Y60.282Z0F1200
G1 X37.805Y60.369Z0F1200
G1 X38.286Y60.409Z0F1200
G1 X38.77Y60.402Z0F1200
G1 X39.255Y60.348Z0F1200
G1 X39.741Y60.248Z0F1200
G1 X40.225Y60.101Z0F1200
G1 X40.707Y59.91Z0F1200
G1 X41.188Y59.674Z0F1200
G1 X41.668Y59.394Z0F1200
G1 X42.146Y59.071Z0F1200
G1 X42.623Y58.706Z0F1200
G1 X43.098Y58.298Z0F1200
G1 X43.425Y57.985Z0F1200
G1 X43.735Y57.654Z0F1200
G1 X44.028Y57.306Z0F1200
G1 X44.302Y56.943Z0F1200
G1 X44.678Y56.377Z0F1200
G1 X45.009Y55.79Z0F1200
G1 X45.292Y55.187Z0F1200
G1 X45.522Y54.575Z0F1200
G1 X45.696Y53.961Z0F1200
G1 X45.811Y53.351Z0F1200
G1 X45.861Y52.749Z0F1200
G1 X45.844Y52.164Z0F1200
G1 X45.753Y51.579Z0F1200
G1 X45.59Y50.999Z0F1200
G1 X45.356Y50.425Z0F1200
G1 X45.054Y49.862Z0F1200
G1 X44.687Y49.31Z0F1200
G0 Z2.8F500
G0 X35.163Y60.54Z2.8F1500
G1 Z0F500
G1 X28.402Y59.514Z0F1200
G1 X28.281Z0F1200
G1 X28.167Y59.542Z0F1200
G1 X28.064Y59.601Z0F1200
G1 X27.979Y59.687Z0F1200
G1 X26.674Y61.422Z0F1200
G1 X26.449Y61.727Z0F1200
G1 X26.267Y61.981Z0F1200
G1 X26.124Y62.192Z0F1200
G1 X26.015Y62.366Z0F1200
G1 X25.933Y62.52Z0F1200
G1 X25.895Y62.597Z0F1200
G1 X25.863Y62.686Z0F1200
G1 X25.85Y62.8Z0F1200
G1 X25.871Y62.951Z0F1200
G1 X25.894Y63.031Z0F1200
G1 X25.905Y63.052Z0F1200
G1 X26.01Y63.299Z0F1200
G1 X26.449Y64.312Z0F1200
G1 X26.77Y65.041Z0F1200
G1 X27.787Y67.338Z0F1200
G1 X30.577Y73.612Z0F1200
G1 X30.641Y73.716Z0F1200
G1 X30.726Y73.795Z0F1200
G1 X30.825Y73.848Z0F1200
G1 X30.934Y73.874Z0F1200
G1 X31.045Z0F1200
G1 X31.154Y73.843Z0F1200
G1 X31.254Y73.785Z0F1200
G1 X31.339Y73.698Z0F1200
G1 X33.177Y71.234Z0F1200
G1 X33.509Y70.785Z0F1200
G1 X33.76Y70.438Z0F1200
G1 X33.859Y70.295Z0F1200
G1 X33.942Y70.171Z0F1200
G1 X34.069Y69.964Z0F1200
G1 X34.157Y69.777Z0F1200
G1 X34.2Y69.554Z0F1200
G1 X34.178Y69.335Z0F1200
G1 X34.148Y69.253Z0F1200
G1 X33.874Y68.651Z0F1200
G1 X33.46Y67.761Z0F1200
G1 X32.927Y66.623Z0F1200
G1 X31.533Y63.666Z0F1200
G1 X34.247Y64.154Z0F1200
G1 X37.729Y64.772Z0F1200
G1 X37.854Y64.776Z0F1200
G1 X37.972Y64.747Z0F1200
G1 X38.078Y64.686Z0F1200
G1 X38.165Y64.596Z0F1200
G1 X39.115Y63.297Z0F1200
G1 X39.308Y63.032Z0F1200
G1 X39.485Y62.783Z0F1200
G1 X39.644Y62.555Z0F1200
G1 X39.781Y62.353Z0F1200
G1 X39.893Y62.182Z0F1200
G1 X39.98Y62.041Z0F1200
G1 X40.015Y61.98Z0F1200
G1 X40.048Y61.916Z0F1200
G1 X40.064Y61.877Z0F1200
G1 X40.083Y61.811Z0F1200
G1 X40.094Y61.756Z0F1200
G1 Y61.664Z0F1200
G1 X40.083Y61.596Z0F1200
G1 X40.052Y61.509Z0F1200
G1 X39.885Y61.32Z0F1200
G1 X39.801Y61.279Z0F1200
G1 X39.782Y61.273Z0F1200
G1 X39.72Y61.257Z0F1200
G1 X39.453Y61.211Z0F1200
G1 X38.393Y61.04Z0F1200
G1 X37.62Y60.918Z0F1200
G1 X35.163Y60.54Z0F1200
G0 Z2.8F500
G0 X39.669Y44.083Z2.8F1500
G1 Z0F500
G1 X39.786Y44.213Z0F1200
G1 X43.833Y47.248Z0F1200
G1 X45.414Y48.428Z0F1200
G1 X46.111Y48.945Z0F1200
G1 X46.724Y49.397Z0F1200
G1 X47.235Y49.77Z0F1200
G1 X47.628Y50.054Z0F1200
G1 X47.89Y50.238Z0F1200
G1 X47.977Y50.295Z0F1200
G1 X48.021Y50.321Z0F1200
G1 X48.063Y50.342Z0F1200
G1 X48.107Y50.358Z0F1200
G1 X48.208Y50.376Z0F1200
G1 X48.3Z0F1200
G1 X48.366Y50.361Z0F1200
G1 X48.413Y50.346Z0F1200
G1 X48.448Y50.33Z0F1200
G1 X48.495Y50.304Z0F1200
G1 X48.524Y50.283Z0F1200
G1 X48.566Y50.249Z0F1200
G1 X48.597Y50.221Z0F1200
G1 X48.652Y50.163Z0F1200
G1 X48.71Y50.098Z0F1200
G1 X48.848Y49.934Z0F1200
G1 X49.016Y49.726Z0F1200
G1 X49.211Y49.475Z0F1200
G1 X49.43Y49.189Z0F1200
G1 X49.666Y48.874Z0F1200
G1 X49.915Y48.536Z0F1200
G1 X51.136Y46.866Z0F1200
G1 X51.209Y46.706Z0F1200
G1 X51.216Y46.536Z0F1200
G1 X51.158Y46.376Z0F1200
G1 X51.04Y46.246Z0F1200
G1 X45.287Y42.037Z0F1200
G1 X48.327Y37.881Z0F1200
G1 X48.401Y37.719Z0F1200
G1 X48.406Y37.546Z0F1200
G1 X48.346Y37.385Z0F1200
G1 X48.223Y37.255Z0F1200
G1 X46.049Y35.727Z0F1200
G1 X45.89Y35.656Z0F1200
G1 X45.722Y35.651Z0F1200
G1 X45.564Y35.709Z0F1200
G1 X45.436Y35.826Z0F1200
G1 X39.695Y43.594Z0F1200
G1 X39.621Y43.753Z0F1200
G1 X39.613Y43.922Z0F1200
G1 X39.669Y44.083Z0F1200
G0 Z2.8F500
G0 X54.826Y41.07Z2.8F1500
G1 Z0F500
G1 X54.986Y41.144Z0F1200
G1 X55.156Y41.15Z0F1200
G1 X55.316Y41.093Z0F1200
G1 X55.446Y40.974Z0F1200
G1 X56.67Y39.302Z0F1200
G1 X57.917Y37.645Z0F1200
G1 X57.991Y37.484Z0F1200
G1 X57.998Y37.314Z0F1200
G1 X57.94Y37.154Z0F1200
G1 X57.821Y37.024Z0F1200
G1 X49.505Y30.94Z0F1200
G1 X49.345Y30.867Z0F1200
G1 X49.175Y30.86Z0F1200
G1 X49.015Y30.918Z0F1200
G1 X48.884Y31.037Z0F1200
G1 X47.456Y32.991Z0F1200
G1 X47.232Y33.303Z0F1200
G1 X47.029Y33.589Z0F1200
G1 X46.852Y33.843Z0F1200
G1 X46.705Y34.059Z0F1200
G1 X46.548Y34.303Z0F1200
G1 X46.493Y34.398Z0F1200
G1 X46.474Y34.438Z0F1200
G1 X46.463Y34.464Z0F1200
G1 X46.444Y34.531Z0F1200
G1 X46.438Y34.569Z0F1200
G1 X46.434Y34.622Z0F1200
G1 X46.438Y34.7Z0F1200
G1 X46.487Y34.843Z0F1200
G1 X46.521Y34.898Z0F1200
G1 X46.543Y34.927Z0F1200
G1 X46.583Y34.969Z0F1200
G1 X46.641Y35.019Z0F1200
G1 X46.792Y35.142Z0F1200
G1 X46.934Y35.253Z0F1200
G1 X47.11Y35.389Z0F1200
G1 X47.557Y35.727Z0F1200
G1 X48.117Y36.146Z0F1200
G1 X48.773Y36.634Z0F1200
G1 X49.902Y37.467Z0F1200
G1 X54.826Y41.07Z0F1200
G0 Z2.8F500
G0 X60.661Y38.605Z2.8F1500
G1 Z0F500
G1 X60.827Y38.618Z0F1200
G1 X60.986Y38.56Z0F1200
G1 X61.125Y38.428Z0F1200
G1 X61.848Y37.44Z0F1200
G1 X62.83Y36.121Z0F1200
G1 X62.904Y35.958Z0F1200
G1 X62.909Y35.785Z0F1200
G1 X62.848Y35.623Z0F1200
G1 X62.724Y35.494Z0F1200
G1 X61.098Y34.368Z0F1200
G1 X60.854Y34.204Z0F1200
G1 X60.649Y34.077Z0F1200
G1 X60.467Y33.979Z0F1200
G1 X60.288Y33.91Z0F1200
G1 X60.11Y33.87Z0F1200
G1 X59.938Y33.852Z0F1200
G1 X59.775Z0F1200
G1 X59.514Y33.913Z0F1200
G1 X59.21Y34.056Z0F1200
G1 X58.663Y34.364Z0F1200
G1 X58.41Y34.5Z0F1200
G1 X58.19Y34.665Z0F1200
G1 X58.08Y34.771Z0F1200
G1 X57.917Y34.962Z0F1200
G1 X57.838Y35.068Z0F1200
G1 X57.78Y35.218Z0F1200
G1 X57.777Y35.421Z0F1200
G1 X57.811Y35.564Z0F1200
G1 X57.852Y35.647Z0F1200
G1 X57.897Y35.697Z0F1200
G1 X57.941Y35.739Z0F1200
G1 X58.03Y35.828Z0F1200
G1 X58.129Y35.909Z0F1200
G1 X58.226Y35.968Z0F1200
G1 X58.34Y36.016Z0F1200
G1 X58.466Y36.044Z0F1200
G1 X58.598Y36.047Z0F1200
G1 X58.714Y36.025Z0F1200
G1 X58.816Y35.985Z0F1200
G1 X58.906Y35.933Z0F1200
G1 X58.986Y35.875Z0F1200
G1 X58.953Y35.924Z0F1200
G1 X58.51Y36.531Z0F1200
G1 X58.437Y36.691Z0F1200
G1 X58.43Y36.861Z0F1200
G1 X58.488Y37.021Z0F1200
G1 X58.606Y37.152Z0F1200
G1 X59.371Y37.711Z0F1200
G1 X60.504Y38.524Z0F1200
G1 X60.661Y38.605Z0F1200
G0 Z2.8F500
G0 X60.776Y32.947Z2.8F1500
G1 Z0F500
G1 X61.045Y32.784Z0F1200
G1 X61.327Y32.592Z0F1200
G1 X61.632Y32.369Z0F1200
G1 X61.974Y32.114Z0F1200
G1 X62.385Y31.787Z0F1200
G1 X62.738Y31.441Z0F1200
G1 X62.924Y31.226Z0F1200
G1 X63.134Y30.965Z0F1200
G1 X63.38Y30.643Z0F1200
G1 X63.675Y30.246Z0F1200
G1 X64.033Y29.753Z0F1200
G1 X64.326Y29.326Z0F1200
G1 X64.563Y28.947Z0F1200
G1 X64.752Y28.6Z0F1200
G1 X64.904Y28.265Z0F1200
G1 X65.027Y27.925Z0F1200
G1 X65.129Y27.562Z0F1200
G1 X65.221Y27.159Z0F1200
G1 X65.295Y26.685Z0F1200
G1 X65.323Y26.212Z0F1200
G1 X65.305Y25.746Z0F1200
G1 X65.24Y25.294Z0F1200
G1 X65.129Y24.862Z0F1200
G1 X64.972Y24.457Z0F1200
G1 X64.768Y24.083Z0F1200
G1 X64.517Y23.75Z0F1200
G1 X64.257Y23.454Z0F1200
G1 X64.093Y23.336Z0F1200
G1 X63.903Y23.303Z0F1200
G1 X63.717Y23.354Z0F1200
G1 X63.564Y23.485Z0F1200
G1 X61.74Y25.979Z0F1200
G1 X61.681Y26.09Z0F1200
G1 X61.655Y26.211Z0F1200
G1 X61.664Y26.334Z0F1200
G1 X61.708Y26.453Z0F1200
G1 X61.91Y26.828Z0F1200
G1 X61.979Y26.964Z0F1200
G1 X62.011Y27.072Z0F1200
G1 Y27.19Z0F1200
G1 X61.989Y27.355Z0F1200
G1 X61.943Y27.534Z0F1200
G1 X61.863Y27.753Z0F1200
G1 X61.755Y28Z0F1200
G1 X61.627Y28.259Z0F1200
G1 X61.486Y28.517Z0F1200
G1 X61.339Y28.759Z0F1200
G1 X61.193Y28.971Z0F1200
G1 X61.054Y29.138Z0F1200
G1 X60.886Y29.301Z0F1200
G1 X60.727Y29.428Z0F1200
G1 X60.58Y29.524Z0F1200
G1 X60.447Y29.592Z0F1200
G1 X60.332Y29.637Z0F1200
G1 X60.238Y29.662Z0F1200
G1 X60.168Y29.67Z0F1200
G1 X60.125Y29.666Z0F1200
G1 X60.083Y29.647Z0F1200
G1 X60.049Y29.572Z0F1200
G1 X60.03Y29.488Z0F1200
G1 X60.023Y29.369Z0F1200
G1 X60.034Y29.213Z0F1200
G1 X60.069Y29.025Z0F1200
G1 X60.13Y28.87Z0F1200
G1 X60.2Y28.702Z0F1200
G1 X60.289Y28.505Z0F1200
G1 X60.506Y28.063Z0F1200
G1 X61.069Y27Z0F1200
G1 X61.344Y26.437Z0F1200
G1 X61.582Y25.898Z0F1200
G1 X61.782Y25.383Z0F1200
G1 X61.945Y24.891Z0F1200
G1 X62.071Y24.419Z0F1200
G1 X62.158Y23.968Z0F1200
G1 X62.206Y23.537Z0F1200
G1 X62.212Y23.124Z0F1200
G1 X62.174Y22.728Z0F1200
G1 X62.092Y22.353Z0F1200
G1 X61.967Y22Z0F1200
G1 X61.8Y21.671Z0F1200
G1 X61.591Y21.369Z0F1200
G1 X61.34Y21.094Z0F1200
G1 X61.049Y20.85Z0F1200
G1 X60.733Y20.642Z0F1200
G1 X60.404Y20.473Z0F1200
G1 X60.064Y20.343Z0F1200
G1 X59.716Y20.252Z0F1200
G1 X59.36Y20.2Z0F1200
G1 X59Y20.189Z0F1200
G1 X58.635Y20.217Z0F1200
G1 X58.269Y20.286Z0F1200
G1 X57.903Y20.393Z0F1200
G1 X57.537Y20.537Z0F1200
G1 X57.17Y20.716Z0F1200
G1 X56.805Y20.931Z0F1200
G1 X56.439Y21.181Z0F1200
G1 X56.074Y21.465Z0F1200
G1 X55.709Y21.783Z0F1200
G1 X55.344Y22.134Z0F1200
G1 X55.056Y22.442Z0F1200
G1 X54.74Y22.806Z0F1200
G1 X54.412Y23.208Z0F1200
G1 X54.085Y23.631Z0F1200
G1 X53.774Y24.057Z0F1200
G1 X53.493Y24.467Z0F1200
G1 X53.255Y24.843Z0F1200
G1 X53.075Y25.167Z0F1200
G1 X52.783Y25.822Z0F1200
G1 X52.57Y26.462Z0F1200
G1 X52.438Y27.085Z0F1200
G1 X52.388Y27.687Z0F1200
G1 X52.421Y28.263Z0F1200
G1 X52.54Y28.81Z0F1200
G1 X52.747Y29.324Z0F1200
G1 X53.042Y29.8Z0F1200
G1 X53.193Y30.001Z0F1200
G1 X53.329Y30.175Z0F1200
G1 X53.439Y30.309Z0F1200
G1 X53.471Y30.354Z0F1200
G1 X53.569Y30.436Z0F1200
G1 X53.752Y30.515Z0F1200
G1 X53.81Y30.519Z0F1200
G1 X53.896Z0F1200
G1 X53.985Y30.499Z0F1200
G1 X54.04Y30.476Z0F1200
G1 X54.106Y30.436Z0F1200
G1 X54.144Y30.405Z0F1200
G1 X54.201Y30.354Z0F1200
G1 X54.25Y30.304Z0F1200
G1 X54.359Y30.183Z0F1200
G1 X54.486Y30.032Z0F1200
G1 X54.632Y29.85Z0F1200
G1 X54.794Y29.641Z0F1200
G1 X54.969Y29.41Z0F1200
G1 X55.153Y29.161Z0F1200
G1 X56.05Y27.935Z0F1200
G1 X56.112Y27.815Z0F1200
G1 X56.135Y27.686Z0F1200
G1 X56.12Y27.555Z0F1200
G1 X56.065Y27.432Z0F1200
G1 X55.833Y27.069Z0F1200
G1 X55.713Y26.806Z0F1200
G1 X55.651Y26.508Z0F1200
G1 X55.647Y26.224Z0F1200
G1 X55.7Y26Z0F1200
G1 X55.723Y25.958Z0F1200
G1 X55.767Y25.882Z0F1200
G1 X55.905Y25.659Z0F1200
G1 X56.084Y25.385Z0F1200
G1 X56.277Y25.111Z0F1200
G1 X56.406Y24.938Z0F1200
G1 X56.511Y24.802Z0F1200
G1 X56.599Y24.696Z0F1200
G1 X56.675Y24.614Z0F1200
G1 X56.815Y24.499Z0F1200
G1 X56.979Y24.408Z0F1200
G1 X57.169Y24.331Z0F1200
G1 X57.33Y24.294Z0F1200
G1 X57.455Y24.287Z0F1200
G1 X57.54Y24.3Z0F1200
G1 X57.592Y24.319Z0F1200
G1 X57.627Y24.345Z0F1200
G1 X57.649Y24.395Z0F1200
G1 X57.664Y24.485Z0F1200
G1 Y24.575Z0F1200
G1 X57.647Y24.702Z0F1200
G1 X57.605Y24.875Z0F1200
G1 X57.534Y25.107Z0F1200
G1 X57.428Y25.406Z0F1200
G1 X57.282Y25.784Z0F1200
G1 X57.192Y26.005Z0F1200
G1 X57.091Y26.25Z0F1200
G1 X56.977Y26.521Z0F1200
G1 X56.593Y27.415Z0F1200
G1 X56.377Y27.935Z0F1200
G1 X56.197Y28.389Z0F1200
G1 X56.049Y28.788Z0F1200
G1 X55.93Y29.142Z0F1200
G1 X55.836Y29.462Z0F1200
G1 X55.764Y29.76Z0F1200
G1 X55.709Y30.046Z0F1200
G1 X55.652Y30.498Z0F1200
G1 X55.64Y30.922Z0F1200
G1 X55.675Y31.322Z0F1200
G1 X55.761Y31.698Z0F1200
G1 X55.902Y32.047Z0F1200
G1 X56.098Y32.365Z0F1200
G1 X56.344Y32.65Z0F1200
G1 X56.636Y32.899Z0F1200
G1 X56.928Y33.074Z0F1200
G1 X57.27Y33.209Z0F1200
G1 X57.647Y33.309Z0F1200
G1 X58.047Y33.375Z0F1200
G1 X58.458Y33.409Z0F1200
G1 X58.865Y33.414Z0F1200
G1 X59.256Y33.393Z0F1200
G1 X59.618Y33.348Z0F1200
G1 X59.942Y33.282Z0F1200
G1 X60.236Y33.194Z0F1200
G1 X60.51Y33.083Z0F1200
G1 X60.776Y32.947Z0F1200
G0 Z2.8F500
G0 X64.258Y31.305Z2.8F1500
G1 Z0F500
G1 X64.561Y30.897Z0F1200
G1 X64.932Y30.387Z0F1200
G1 X65.246Y29.929Z0F1200
G1 X65.512Y29.503Z0F1200
G1 X65.737Y29.091Z0F1200
G1 X65.924Y28.679Z0F1200
G1 X66.075Y28.261Z0F1200
G1 X66.196Y27.833Z0F1200
G1 X66.302Y27.366Z0F1200
G1 X66.39Y26.803Z0F1200
G1 X66.424Y26.223Z0F1200
G1 X66.401Y25.646Z0F1200
G1 X66.321Y25.08Z0F1200
G1 X66.179Y24.525Z0F1200
G1 X65.972Y23.992Z0F1200
G1 X65.695Y23.486Z0F1200
G1 X65.371Y23.055Z0F1200
G1 X65Y22.633Z0F1200
G1 X64.528Y22.295Z0F1200
G1 X63.85Y22.178Z0F1200
G1 X63.218Y22.349Z0F1200
G1 X63.152Y22.051Z0F1200
G1 X62.98Y21.565Z0F1200
G1 X62.747Y21.107Z0F1200
G1 X62.453Y20.682Z0F1200
G1 X62.104Y20.298Z0F1200
G1 X61.707Y19.966Z0F1200
G1 X61.289Y19.691Z0F1200
G1 X60.854Y19.467Z0F1200
G1 X60.401Y19.293Z0F1200
G1 X59.935Y19.172Z0F1200
G1 X59.457Y19.103Z0F1200
G1 X58.974Y19.087Z0F1200
G1 X58.491Y19.125Z0F1200
G1 X58.013Y19.214Z0F1200
G1 X57.546Y19.351Z0F1200
G1 X57.093Y19.529Z0F1200
G1 X56.649Y19.747Z0F1200
G1 X56.214Y20.002Z0F1200
G1 X55.79Y20.292Z0F1200
G1 X55.374Y20.616Z0F1200
G1 X54.966Y20.972Z0F1200
G1 X54.561Y21.361Z0F1200
G1 X54.239Y21.705Z0F1200
G1 X53.898Y22.098Z0F1200
G1 X53.55Y22.525Z0F1200
G1 X53.206Y22.97Z0F1200
G1 X52.876Y23.421Z0F1200
G1 X52.574Y23.861Z0F1200
G1 X52.309Y24.281Z0F1200
G1 X52.09Y24.675Z0F1200
G1 X51.756Y25.423Z0F1200
G1 X51.507Y26.174Z0F1200
G1 X51.348Y26.925Z0F1200
G1 X51.285Y27.673Z0F1200
G1 X51.328Y28.413Z0F1200
G1 X51.485Y29.134Z0F1200
G1 X51.761Y29.822Z0F1200
G1 X52.133Y30.422Z0F1200
G1 X52.32Y30.67Z0F1200
G1 X52.471Y30.864Z0F1200
G1 X52.569Y30.983Z0F1200
G1 X52.656Y31.105Z0F1200
G1 X52.983Y31.381Z0F1200
G1 X53.489Y31.6Z0F1200
G1 X53.773Y31.619Z0F1200
G1 X54.017Z0F1200
G1 X54.323Y31.551Z0F1200
G1 X54.541Y31.458Z0F1200
G1 X54.581Y31.434Z0F1200
G1 X54.586Y31.495Z0F1200
G1 X54.708Y32.03Z0F1200
G1 X54.917Y32.545Z0F1200
G1 X55.208Y33.017Z0F1200
G1 X55.565Y33.432Z0F1200
G1 X55.992Y33.796Z0F1200
G1 X56.44Y34.063Z0F1200
G1 X56.925Y34.256Z0F1200
G1 X57.046Y34.289Z0F1200
G1 X56.866Y34.533Z0F1200
G1 X56.736Y34.867Z0F1200
G1 X50.065Y29.987Z0F1200
G1 X49.605Y29.776Z0F1200
G1 X49.003Y29.753Z0F1200
G1 X48.436Y29.957Z0F1200
G1 X48.062Y30.298Z0F1200
G1 X46.565Y32.346Z0F1200
G1 X46.336Y32.664Z0F1200
G1 X46.128Y32.957Z0F1200
G1 X45.946Y33.22Z0F1200
G1 X45.788Y33.451Z0F1200
G1 X45.608Y33.73Z0F1200
G1 X45.52Y33.885Z0F1200
G1 X45.467Y33.994Z0F1200
G1 X45.421Y34.108Z0F1200
G1 X45.371Y34.283Z0F1200
G1 X45.345Y34.431Z0F1200
G1 X45.331Y34.611Z0F1200
G1 Y34.623Z0F1200
G1 X44.985Y34.75Z0F1200
G1 X44.616Y35.084Z0F1200
G1 X38.745Y43.029Z0F1200
G1 X38.532Y43.485Z0F1200
G1 X38.505Y44.083Z0F1200
G1 X38.702Y44.651Z0F1200
G1 X39.038Y45.027Z0F1200
G1 X39.477Y45.356Z0F1200
G1 X39.011Y45.445Z0F1200
G1 X38.251Y45.697Z0F1200
G1 X37.509Y46.041Z0F1200
G1 X36.788Y46.47Z0F1200
G1 X36.088Y46.979Z0F1200
G1 X35.409Y47.562Z0F1200
G1 X34.756Y48.212Z0F1200
G1 X34.209Y48.824Z0F1200
G1 X33.76Y49.418Z0F1200
G1 X33.538Y49.758Z0F1200
G1 X33.324Y50.116Z0F1200
G1 X33.101Y50.515Z0F1200
G1 X32.85Y50.984Z0F1200
G1 X32.533Y51.634Z0F1200
G1 X32.264Y52.297Z0F1200
G1 X32.05Y52.959Z0F1200
G1 X31.894Y53.623Z0F1200
G1 X31.796Y54.284Z0F1200
G1 X31.761Y54.941Z0F1200
G1 X31.789Y55.592Z0F1200
G1 X31.882Y56.233Z0F1200
G1 X32.044Y56.859Z0F1200
G1 X32.272Y57.462Z0F1200
G1 X32.563Y58.037Z0F1200
G1 X32.917Y58.583Z0F1200
G1 X33.327Y59.093Z0F1200
G1 X33.392Y59.159Z0F1200
G1 X28.492Y58.415Z0F1200
G1 X28.147Y58.411Z0F1200
G1 X27.748Y58.515Z0F1200
G1 X27.388Y58.721Z0F1200
G1 X27.145Y58.966Z0F1200
G1 X25.792Y60.765Z0F1200
G1 X25.559Y61.081Z0F1200
G1 X25.365Y61.352Z0F1200
G1 X25.204Y61.589Z0F1200
G1 X25.063Y61.813Z0F1200
G1 X24.953Y62.02Z0F1200
G1 X24.88Y62.168Z0F1200
G1 X24.784Y62.435Z0F1200
G1 X24.742Y62.814Z0F1200
G1 X24.792Y63.179Z0F1200
G1 X24.869Y63.447Z0F1200
G1 X24.913Y63.528Z0F1200
G1 X24.999Y63.732Z0F1200
G1 X25.441Y64.752Z0F1200
G1 X25.763Y65.484Z0F1200
G1 X26.781Y67.784Z0F1200
G1 X29.601Y74.126Z0F1200
G1 X29.783Y74.421Z0F1200
G1 X30.083Y74.699Z0F1200
G1 X30.433Y74.885Z0F1200
G1 X30.812Y74.975Z0F1200
G1 X31.197Y74.97Z0F1200
G1 X31.578Y74.868Z0F1200
G1 X31.934Y74.663Z0F1200
G1 X32.177Y74.414Z0F1200
G1 X34.06Y71.89Z0F1200
G1 X34.397Y71.434Z0F1200
G1 X34.657Y71.074Z0F1200
G1 X34.767Y70.916Z0F1200
G1 X34.868Y70.766Z0F1200
G1 X35.039Y70.488Z0F1200
G1 X35.211Y70.12Z0F1200
G1 X35.311Y69.603Z0F1200
G1 X35.258Y69.088Z0F1200
G1 X35.167Y68.837Z0F1200
G1 X34.874Y68.192Z0F1200
G1 X34.458Y67.296Z0F1200
G1 X33.923Y66.155Z0F1200
G1 X33.438Y65.126Z0F1200
G1 X34.053Y65.237Z0F1200
G1 X37.613Y65.869Z0F1200
G1 X37.97Y65.881Z0F1200
G1 X38.389Y65.776Z0F1200
G1 X38.76Y65.563Z0F1200
G1 X39.007Y65.308Z0F1200
G1 X40.004Y63.945Z0F1200
G1 X40.201Y63.675Z0F1200
G1 X40.384Y63.417Z0F1200
G1 X40.55Y63.178Z0F1200
G1 X40.696Y62.963Z0F1200
G1 X40.822Y62.771Z0F1200
G1 X40.924Y62.605Z0F1200
G1 X40.981Y62.507Z0F1200
G1 X41.045Y62.382Z0F1200
G1 X41.104Y62.243Z0F1200
G1 X41.152Y62.071Z0F1200
G1 X41.194Y61.871Z0F1200
G1 Y61.572Z0F1200
G1 X41.151Y61.316Z0F1200
G1 X41.027Y60.966Z0F1200
G1 X41.152Y60.917Z0F1200
G1 X41.708Y60.644Z0F1200
G1 X42.254Y60.326Z0F1200
G1 X42.79Y59.964Z0F1200
G1 X43.316Y59.56Z0F1200
G1 X43.837Y59.113Z0F1200
G1 X44.208Y58.759Z0F1200
G1 X44.558Y58.384Z0F1200
G1 X44.888Y57.993Z0F1200
G1 X45.2Y57.58Z0F1200
G1 X45.617Y56.952Z0F1200
G1 X45.988Y56.294Z0F1200
G1 X46.306Y55.615Z0F1200
G1 X46.568Y54.919Z0F1200
G1 X46.769Y54.213Z0F1200
G1 X46.902Y53.498Z0F1200
G1 X46.962Y52.779Z0F1200
G1 X46.941Y52.063Z0F1200
G1 X46.83Y51.345Z0F1200
G1 X46.65Y50.705Z0F1200
G1 X46.99Y50.95Z0F1200
G1 X47.271Y51.147Z0F1200
G1 X47.399Y51.232Z0F1200
G1 X47.496Y51.288Z0F1200
G1 X47.625Y51.354Z0F1200
G1 X47.819Y51.423Z0F1200
G1 X48.113Y51.478Z0F1200
G1 X48.424Y51.474Z0F1200
G1 X48.655Y51.424Z0F1200
G1 X48.81Y51.373Z0F1200
G1 X48.945Y51.313Z0F1200
G1 X49.088Y51.231Z0F1200
G1 X49.189Y51.159Z0F1200
G1 X49.28Y51.086Z0F1200
G1 X49.364Y51.011Z0F1200
G1 X49.462Y50.907Z0F1200
G1 X49.543Y50.816Z0F1200
G1 X49.697Y50.634Z0F1200
G1 X49.878Y50.409Z0F1200
G1 X50.083Y50.147Z0F1200
G1 X50.308Y49.852Z0F1200
G1 X50.549Y49.529Z0F1200
G1 X50.801Y49.187Z0F1200
G1 X52.089Y47.427Z0F1200
G1 X52.3Y46.967Z0F1200
G1 X52.323Y46.364Z0F1200
G1 X52.119Y45.797Z0F1200
G1 X51.778Y45.423Z0F1200
G1 X46.824Y41.798Z0F1200
G1 X49.281Y38.44Z0F1200
G1 X49.303Y38.392Z0F1200
G1 X54.265Y42.023Z0F1200
G1 X54.725Y42.235Z0F1200
G1 X55.328Y42.258Z0F1200
G1 X55.895Y42.054Z0F1200
G1 X56.269Y41.713Z0F1200
G1 X57.549Y39.963Z0F1200
G1 X58.628Y38.53Z0F1200
G1 X58.726Y38.602Z0F1200
G1 X59.929Y39.465Z0F1200
G1 X60.355Y39.685Z0F1200
G1 X60.979Y39.732Z0F1200
G1 X61.576Y39.516Z0F1200
G1 X61.954Y39.158Z0F1200
G1 X62.73Y38.097Z0F1200
G1 X63.782Y36.683Z0F1200
G1 X63.997Y36.211Z0F1200
G1 X64.014Y35.599Z0F1200
G1 X63.798Y35.025Z0F1200
G1 X63.442Y34.653Z0F1200
G1 X61.861Y33.559Z0F1200
G1 X61.96Y33.491Z0F1200
G1 X62.285Y33.254Z0F1200
G1 X62.646Y32.985Z0F1200
G1 X63.114Y32.612Z0F1200
G1 X63.54Y32.195Z0F1200
G1 X63.769Y31.931Z0F1200
G1 X64Y31.643Z0F1200
G1 X64.258Y31.305Z0F1200
G0 Z2.8F500
G0 X69.729Y20.651Z2.8F1500
G1 Z0F500
G1 X73.93Y22.492Z0F1200
G1 X76.225Y23.501Z0F1200
G1 X75.586Y24.378Z0F1200
G1 X73.527Y27.2Z0F1200
G1 X70.802Y30.931Z0F1200
G1 X63.717Y40.617Z0F1200
G1 X54.896Y52.666Z0F1200
G1 Y52.67Z0F1200
G1 X33.918Y81.306Z0F1200
G1 X15.894Y60.665Z0F1200
G1 X16.102Y60.565Z0F1200
G1 X16.626Y60.303Z0F1200
G1 X17.153Y60.03Z0F1200
G1 X17.666Y59.754Z0F1200
G1 X18.15Y59.482Z0F1200
G1 X18.593Y59.222Z0F1200
G1 X19.37Y58.731Z0F1200
G1 X20.138Y58.21Z0F1200
G1 X20.896Y57.658Z0F1200
G1 X21.647Y57.072Z0F1200
G1 X22.392Y56.453Z0F1200
G1 X23.133Y55.798Z0F1200
G1 X23.872Y55.107Z0F1200
G1 X24.616Y54.373Z0F1200
G1 X24.863Y54.111Z0F1200
G1 X25.138Y53.8Z0F1200
G1 X25.436Y53.447Z0F1200
G1 X25.754Y53.057Z0F1200
G1 X26.428Y52.2Z0F1200
G1 X27.127Y51.273Z0F1200
G1 X27.809Y50.336Z0F1200
G1 X28.43Y49.444Z0F1200
G1 X28.709Y49.027Z0F1200
G1 X28.958Y48.642Z0F1200
G1 X29.174Y48.29Z0F1200
G1 X29.352Y47.975Z0F1200
G1 X30.078Y46.544Z0F1200
G1 X30.729Y45.104Z0F1200
G1 X31.304Y43.655Z0F1200
G1 X31.8Y42.201Z0F1200
G1 X32.217Y40.747Z0F1200
G1 X32.553Y39.296Z0F1200
G1 X32.806Y37.852Z0F1200
G1 X32.973Y36.437Z0F1200
G1 X32.992Y36.226Z0F1200
G1 X33.089Y36.185Z0F1200
G1 X33.643Y35.944Z0F1200
G1 X34.253Y35.655Z0F1200
G1 X34.893Y35.334Z0F1200
G1 X35.545Y34.99Z0F1200
G1 X36.192Y34.631Z0F1200
G1 X36.819Y34.268Z0F1200
G1 X37.409Y33.908Z0F1200
G1 X37.943Y33.561Z0F1200
G1 X38.686Y33.04Z0F1200
G1 X39.436Y32.475Z0F1200
G1 X40.184Y31.874Z0F1200
G1 X40.924Y31.244Z0F1200
G1 X41.65Y30.589Z0F1200
G1 X42.354Y29.917Z0F1200
G1 X43.029Y29.233Z0F1200
G1 X43.667Y28.545Z0F1200
G1 X43.856Y28.327Z0F1200
G1 X44.062Y28.082Z0F1200
G1 X44.281Y27.811Z0F1200
G1 X44.512Y27.518Z0F1200
G1 X44.996Y26.887Z0F1200
G1 X45.496Y26.214Z0F1200
G1 X45.987Y25.534Z0F1200
G1 X46.442Y24.88Z0F1200
G1 X46.651Y24.571Z0F1200
G1 X46.842Y24.281Z0F1200
G1 X47.014Y24.011Z0F1200
G1 X47.167Y23.759Z0F1200
G1 X47.972Y22.303Z0F1200
G1 X48.704Y20.791Z0F1200
G1 X49.355Y19.243Z0F1200
G1 X49.92Y17.67Z0F1200
G1 X50.397Y16.084Z0F1200
G1 X50.778Y14.507Z0F1200
G1 X50.935Y13.709Z0F1200
G1 X51.065Y12.924Z0F1200
G1 X51.117Y12.534Z0F1200
G1 X51.233Y12.584Z0F1200
G1 X53.558Y13.593Z0F1200
G1 X57.62Y15.361Z0F1200
G1 X64.82Y18.504Z0F1200
G1 X69.729Y20.651Z0F1200
G0 Z2.8F500
G0 X74.373Y21.485Z2.8F1500
G1 Z0F500
G1 X76.723Y22.519Z0F1200
G1 X77.914Y23.047Z0F1200
G1 X77.777Y23.237Z0F1200
G1 X76.475Y25.026Z0F1200
G1 X74.416Y27.849Z0F1200
G1 X71.689Y31.58Z0F1200
G1 X64.605Y41.267Z0F1200
G1 X55.952Y53.085Z0F1200
G1 Y53.089Z0F1200
G1 X33.993Y83.064Z0F1200
G1 X14.086Y60.267Z0F1200
G1 X14.276Y60.188Z0F1200
G1 X14.675Y60.019Z0F1200
G1 X15.128Y59.812Z0F1200
G1 X15.618Y59.577Z0F1200
G1 X16.127Y59.323Z0F1200
G1 X16.639Y59.057Z0F1200
G1 X17.136Y58.79Z0F1200
G1 X17.603Y58.528Z0F1200
G1 X18.02Y58.283Z0F1200
G1 X18.768Y57.811Z0F1200
G1 X19.505Y57.311Z0F1200
G1 X20.234Y56.779Z0F1200
G1 X20.957Y56.215Z0F1200
G1 X21.676Y55.618Z0F1200
G1 X22.393Y54.984Z0F1200
G1 X23.11Y54.313Z0F1200
G1 X23.829Y53.604Z0F1200
G1 X24.05Y53.369Z0F1200
G1 X24.306Y53.081Z0F1200
G1 X24.589Y52.745Z0F1200
G1 X24.896Y52.369Z0F1200
G1 X25.557Y51.529Z0F1200
G1 X26.243Y50.619Z0F1200
G1 X26.913Y49.698Z0F1200
G1 X27.522Y48.824Z0F1200
G1 X27.79Y48.423Z0F1200
G1 X28.026Y48.057Z0F1200
G1 X28.226Y47.731Z0F1200
G1 X28.383Y47.455Z0F1200
G1 X29.086Y46.069Z0F1200
G1 X29.716Y44.674Z0F1200
G1 X30.271Y43.274Z0F1200
G1 X30.75Y41.872Z0F1200
G1 X31.152Y40.471Z0F1200
G1 X31.475Y39.077Z0F1200
G1 X31.717Y37.692Z0F1200
G1 X31.878Y36.322Z0F1200
G1 X31.917Y35.906Z0F1200
G1 X31.962Y35.471Z0F1200
G1 X32.308Y35.32Z0F1200
G1 X32.656Y35.174Z0F1200
G1 X33.188Y34.942Z0F1200
G1 X33.771Y34.666Z0F1200
G1 X34.389Y34.356Z0F1200
G1 X35.021Y34.022Z0F1200
G1 X35.65Y33.674Z0F1200
G1 X36.257Y33.323Z0F1200
G1 X36.822Y32.978Z0F1200
G1 X37.327Y32.649Z0F1200
G1 X38.039Y32.15Z0F1200
G1 X38.76Y31.606Z0F1200
G1 X39.483Y31.026Z0F1200
G1 X40.199Y30.417Z0F1200
G1 X40.902Y29.783Z0F1200
G1 X41.583Y29.133Z0F1200
G1 X42.234Y28.473Z0F1200
G1 X42.848Y27.81Z0F1200
G1 X43.02Y27.613Z0F1200
G1 X43.212Y27.383Z0F1200
G1 X43.421Y27.125Z0F1200
G1 X43.644Y26.842Z0F1200
G1 X44.118Y26.225Z0F1200
G1 X44.608Y25.564Z0F1200
G1 X45.089Y24.897Z0F1200
G1 X45.535Y24.258Z0F1200
G1 X45.736Y23.96Z0F1200
G1 X45.919Y23.683Z0F1200
G1 X46.08Y23.43Z0F1200
G1 X46.216Y23.207Z0F1200
G1 X46.995Y21.797Z0F1200
G1 X47.701Y20.338Z0F1200
G1 X48.33Y18.843Z0F1200
G1 X48.875Y17.325Z0F1200
G1 X49.335Y15.797Z0F1200
G1 X49.704Y14.271Z0F1200
G1 X49.853Y13.514Z0F1200
G1 X49.977Y12.761Z0F1200
G1 X50.077Y12.016Z0F1200
G1 X50.171Y11.072Z0F1200
G1 X50.188Y10.936Z0F1200
G1 X51.671Y11.575Z0F1200
G1 X53.996Y12.583Z0F1200
G1 X58.06Y14.353Z0F1200
G1 X65.261Y17.497Z0F1200
G1 X70.17Y19.644Z0F1200
G1 X74.373Y21.485Z0F1200
M9
G1 Z10 F500
G1 X80 F1200
M5
G90
G1 Z10 F500
G1 X80 F1200
