;LightBurn 1.6.04
;Custom GCode device profile, absolute coords
;Bounds: X3.34 Y3.53 to X84.46 Y95.2
G00 G17 G40 G21 G54
G90
M3
G1 Z10 F500
;Offset @ 1500 mm/min, 90% power

M8
G0 Z2.8F500
G0 X31.882Y39.697Z2.8F1500
G1 Z0F500
;Layer Blue
G1 X31.916Y39.521Z0S900F1200
G1 X31.994Y39.032Z0F1200
G1 X32.079Y38.989Z0F1200
G1 X32.615Y38.706Z0F1200
G1 X31.882Y39.697Z0F1200
G0 Z2.8F500
G0 X30.707Y41.448Z2.8F1500
G1 Z0F500
G1 X30.932Y40.417Z0F1200
G1 X31.127Y39.383Z0F1200
G1 X31.27Y38.5Z0F1200
G1 X31.712Y38.278Z0F1200
G1 X32.615Y37.801Z0F1200
G1 X33.509Y37.306Z0F1200
G1 X34.385Y36.798Z0F1200
G1 X35.225Y36.286Z0F1200
G1 X35.559Y36.069Z0F1200
G1 X35.036Y36.777Z0F1200
G1 X31.055Y42.162Z0F1200
G1 X30.253Y43.878Z0F1200
G1 X30.203Y44.992Z0F1200
G1 X29.882Y45.183Z0F1200
G1 X29.565Y45.413Z0F1200
G1 X29.856Y44.563Z0F1200
G1 X30.174Y43.504Z0F1200
G1 X30.455Y42.476Z0F1200
G1 X30.707Y41.448Z0F1200
G0 Z2.8F500
G0 X31.346Y37.567Z2.8F1500
G1 Z0F500
G1 X32.234Y37.097Z0F1200
G1 X33.115Y36.61Z0F1200
G1 X33.976Y36.111Z0F1200
G1 X34.798Y35.609Z0F1200
G1 X35.568Y35.109Z0F1200
G1 X36.61Y34.377Z0F1200
G1 X37.649Y33.595Z0F1200
G1 X38.68Y32.768Z0F1200
G1 X39.521Y32.052Z0F1200
G1 X35.678Y37.253Z0F1200
G1 X31.746Y42.573Z0F1200
G1 X31.045Y44.073Z0F1200
G1 X30.982Y45.458Z0F1200
G1 X30.322Y45.852Z0F1200
G1 X29.195Y46.67Z0F1200
G1 X28.132Y47.583Z0F1200
G1 X27.762Y47.952Z0F1200
G1 X28.419Y46.294Z0F1200
G1 X29.094Y44.318Z0F1200
G1 X29.405Y43.284Z0F1200
G1 X29.68Y42.275Z0F1200
G1 X29.928Y41.268Z0F1200
G1 X30.148Y40.257Z0F1200
G1 X30.339Y39.245Z0F1200
G1 X30.502Y38.234Z0F1200
G1 X30.537Y37.973Z0F1200
G1 X31.346Y37.567Z0F1200
G0 Z2.8F500
G0 X34.713Y77.443Z2.8F1500
G1 Z0F500
G1 X34.502Y77.731Z0F1200
G1 X34.498Y77.498Z0F1200
G1 X34.713Y77.443Z0F1200
G0 Z2.8F500
G0 X35.516Y76.415Z2.8F1500
G1 Z0F500
G1 X36.809Y75.674Z0F1200
G1 X37.592Y74.868Z0F1200
G1 X28.316Y87.53Z0F1200
G1 X28.085Y87.265Z0F1200
G1 X28.135Y87.236Z0F1200
G1 X28.926Y86.427Z0F1200
G1 X31.203Y83.377Z0F1200
G1 X31.696Y82.713Z0F1200
G1 X32.089Y82.175Z0F1200
G1 X32.271Y81.922Z0F1200
G1 X32.435Y81.686Z0F1200
G1 X32.614Y81.419Z0F1200
G1 X32.972Y80.839Z0F1200
G1 X33.376Y79.976Z0F1200
G1 X33.615Y79.098Z0F1200
G1 X33.713Y78.268Z0F1200
G1 X33.695Y77.377Z0F1200
G1 X33.576Y76.765Z0F1200
G1 X34.069Y76.781Z0F1200
G1 X35.516Y76.415Z0F1200
G0 Z2.8F500
G0 X13.078Y67.308Z2.8F1500
G1 Z0F500
G1 X12.819Y68.024Z0F1200
G1 X12.766Y68.505Z0F1200
G1 X12.222Y67.882Z0F1200
G1 X12.36Y67.795Z0F1200
G1 X13.078Y67.308Z0F1200
G0 Z2.8F500
G0 X14.35Y66.487Z2.8F1500
G1 Z0F500
G1 X14.124Y66.91Z0F1200
G1 X13.926Y67.317Z0F1200
G1 X13.604Y68.207Z0F1200
G1 X13.458Y69.517Z0F1200
G1 X13.614Y70.636Z0F1200
G1 X13.638Y70.721Z0F1200
G1 X11.004Y67.705Z0F1200
G1 X11.922Y67.126Z0F1200
G1 X12.993Y66.399Z0F1200
G1 X14.048Y65.63Z0F1200
G1 X15.088Y64.819Z0F1200
G1 X16.115Y63.965Z0F1200
G1 X16.198Y63.892Z0F1200
G1 X15.85Y64.354Z0F1200
G1 X15.49Y64.835Z0F1200
G1 X15.172Y65.266Z0F1200
G1 X14.89Y65.661Z0F1200
G1 X14.626Y66.046Z0F1200
G1 X14.35Y66.487Z0F1200
G0 Z2.8F500
G0 X21.47Y59.672Z2.8F1500
G1 Z0F500
G1 X21.603Y59.503Z0F1200
G1 X21.61Y59.674Z0F1200
G1 X21.47Z0F1200
G0 Z2.8F500
G0 X20.385Y59.737Z2.8F1500
G1 Z0F500
G1 X20.829Y59.194Z0F1200
G1 X21.725Y58.054Z0F1200
G1 X22.652Y56.825Z0F1200
G1 X22.734Y56.712Z0F1200
G1 X22.632Y57.146Z0F1200
G1 X22.464Y58.285Z0F1200
G1 X22.401Y59.442Z0F1200
G1 X22.449Y60.557Z0F1200
G1 X21.938Y60.479Z0F1200
G1 X20.805Y60.461Z0F1200
G1 X19.442Y60.818Z0F1200
G1 X19.554Y60.699Z0F1200
G1 X19.964Y60.235Z0F1200
G1 X20.385Y59.737Z0F1200
G0 Z2.8F500
G0 X56.045Y47.558Z2.8F1500
G1 Z0F500
G1 X56.415Y47.572Z0F1200
G1 X56.655Y47.485Z0F1200
G1 X56.161Y48.159Z0F1200
G1 X56.171Y47.907Z0F1200
G1 X56.045Y47.558Z0F1200
G0 Z2.8F500
G0 X56.29Y46.767Z2.8F1500
G1 Z0F500
G1 X58.271Y46.052Z0F1200
G1 X59.499Y44.933Z0F1200
G1 X60.774Y43.19Z0F1200
G1 X60.786Y43.196Z0F1200
G1 X58.369Y46.499Z0F1200
G1 X52.028Y55.157Z0F1200
G1 Y55.163Z0F1200
G1 X47.588Y61.222Z0F1200
G1 X47.86Y60.499Z0F1200
G1 X48.196Y59.313Z0F1200
G1 X48.404Y58.203Z0F1200
G1 X48.694Y58.106Z0F1200
G1 X49.176Y57.895Z0F1200
G1 X49.665Y57.616Z0F1200
G1 X50.006Y57.372Z0F1200
G1 X50.283Y57.151Z0F1200
G1 X50.557Y56.901Z0F1200
G1 X50.807Y56.64Z0F1200
G1 X50.983Y56.44Z0F1200
G1 X51.226Y56.153Z0F1200
G1 X51.497Y55.817Z0F1200
G1 X51.789Y55.443Z0F1200
G1 X52.095Y55.042Z0F1200
G1 X52.417Y54.61Z0F1200
G1 X52.749Y54.16Z0F1200
G1 X54.588Y51.646Z0F1200
G1 X55.285Y50.137Z0F1200
G1 X55.365Y48.031Z0F1200
G1 X54.891Y46.713Z0F1200
G1 X56.29Y46.767Z0F1200
G0 Z2.8F500
G0 X74.025Y23.74Z2.8F1500
G1 Z0F500
G1 X74.068Y23.006Z0F1200
G1 X74.023Y21.851Z0F1200
G1 X73.857Y20.686Z0F1200
G1 X73.769Y20.341Z0F1200
G1 X75.843Y21.25Z0F1200
G1 X75.497Y21.726Z0F1200
G1 X74.025Y23.74Z0F1200
G0 Z2.8F500
G0 X73.049Y25.055Z2.8F1500
G1 Z0F500
G1 X73.204Y24.065Z0F1200
G1 X73.268Y22.998Z0F1200
G1 X73.226Y21.923Z0F1200
G1 X73.071Y20.842Z0F1200
G1 X72.793Y19.761Z0F1200
G1 X72.456Y18.893Z0F1200
G1 X72.699Y18.999Z0F1200
G1 X77.076Y20.917Z0F1200
G1 X76.142Y22.198Z0F1200
G1 X72.679Y26.938Z0F1200
G1 X72.395Y27.327Z0F1200
G1 X72.658Y26.594Z0F1200
G1 X72.87Y25.848Z0F1200
G1 X73.049Y25.055Z0F1200
G0 Z2.8F500
G0 X72.466Y22.989Z2.8F1500
G1 Z0F500
G1 X72.428Y21.995Z0F1200
G1 X72.286Y20.999Z0F1200
G1 X72.03Y20.006Z0F1200
G1 X71.65Y19.028Z0F1200
G1 X71.129Y18.074Z0F1200
G1 X70.544Y17.294Z0F1200
G1 X70.385Y17.113Z0F1200
G1 X73.017Y18.265Z0F1200
G1 X78.31Y20.583Z0F1200
G1 X76.788Y22.669Z0F1200
G1 X73.324Y27.411Z0F1200
G1 X69.13Y33.147Z0F1200
G1 X68.996Y33.332Z0F1200
G1 X68.772Y32.741Z0F1200
G1 X68.234Y32.174Z0F1200
G1 X68.485Y31.884Z0F1200
G1 X68.824Y31.461Z0F1200
G1 X69.007Y31.224Z0F1200
G1 X69.191Y30.981Z0F1200
G1 X69.584Y30.454Z0F1200
G1 X69.844Y30.1Z0F1200
G1 X70.089Y29.757Z0F1200
G1 X70.317Y29.43Z0F1200
G1 X70.549Y29.085Z0F1200
G1 X70.949Y28.446Z0F1200
G1 X71.318Y27.771Z0F1200
G1 X71.639Y27.064Z0F1200
G1 X71.896Y26.35Z0F1200
G1 X72.094Y25.65Z0F1200
G1 X72.263Y24.904Z0F1200
G1 X72.408Y23.979Z0F1200
G1 X72.466Y22.989Z0F1200
G0 Z2.8F500
G0 X73.338Y17.532Z2.8F1500
G1 Z0F500
G1 X78.676Y19.871Z0F1200
G1 X79.542Y20.251Z0F1200
G1 X77.434Y23.142Z0F1200
G1 X73.97Y27.883Z0F1200
G1 X69.776Y33.619Z0F1200
G1 X68.591Y35.238Z0F1200
G1 X68.61Y34.576Z0F1200
G1 X68.081Y33.175Z0F1200
G1 X67.251Y32.301Z0F1200
G1 X67.096Y32.193Z0F1200
G1 X67.508Y31.79Z0F1200
G1 X67.871Y31.372Z0F1200
G1 X68.195Y30.967Z0F1200
G1 X68.372Y30.738Z0F1200
G1 X68.551Y30.501Z0F1200
G1 X68.94Y29.978Z0F1200
G1 X69.196Y29.63Z0F1200
G1 X69.436Y29.296Z0F1200
G1 X69.657Y28.978Z0F1200
G1 X69.878Y28.649Z0F1200
G1 X70.258Y28.042Z0F1200
G1 X70.602Y27.413Z0F1200
G1 X70.897Y26.763Z0F1200
G1 X71.134Y26.104Z0F1200
G1 X71.318Y25.453Z0F1200
G1 X71.476Y24.754Z0F1200
G1 X71.611Y23.893Z0F1200
G1 X71.666Y22.981Z0F1200
G1 X71.63Y22.067Z0F1200
G1 X71.5Y21.156Z0F1200
G1 X71.268Y20.252Z0F1200
G1 X70.923Y19.366Z0F1200
G1 X70.455Y18.508Z0F1200
G1 X69.923Y17.799Z0F1200
G1 X69.389Y17.192Z0F1200
G1 X68.875Y16.728Z0F1200
G1 X68.122Y16.316Z0F1200
G1 X67.329Y16.088Z0F1200
G1 X67.01Y16.068Z0F1200
G1 X66.739Y15.535Z0F1200
G1 X66.229Y14.796Z0F1200
G1 X65.663Y14.176Z0F1200
G1 X67.103Y14.805Z0F1200
G1 X73.338Y17.532Z0F1200
G0 Z2.8F500
G0 X54.208Y11.797Z2.8F1500
G1 Z0F500
G1 X53.867Y12.03Z0F1200
G1 X53.145Y12.592Z0F1200
G1 X53.13Y12.605Z0F1200
G1 X53.228Y12.296Z0F1200
G1 X53.463Y11.473Z0F1200
G1 X54.208Y11.797Z0F1200
G0 Z2.8F500
G0 X55.062Y12.182Z2.8F1500
G1 Z0F500
G1 X54.339Y12.677Z0F1200
G1 X53.654Y13.21Z0F1200
G1 X53Y13.78Z0F1200
G1 X52.364Y14.392Z0F1200
G1 X51.848Y14.941Z0F1200
G1 X51.336Y15.532Z0F1200
G1 X51.173Y15.732Z0F1200
G1 X51.337Y15.326Z0F1200
G1 X51.742Y14.246Z0F1200
G1 X52.117Y13.159Z0F1200
G1 X52.461Y12.065Z0F1200
G1 X52.775Y10.968Z0F1200
G1 X52.929Y10.368Z0F1200
G1 X54.59Y11.091Z0F1200
G1 X55.938Y11.678Z0F1200
G1 X55.824Y11.734Z0F1200
G1 X55.062Y12.182Z0F1200
G0 Z2.8F500
G0 X41.1Y69.088Z2.8F1500
G1 Z0F500
G1 X41.813Y68.606Z0F1200
G1 X42.638Y67.974Z0F1200
G1 X42.649Y67.963Z0F1200
G1 X39.413Y72.382Z0F1200
G1 X39.549Y72.191Z0F1200
G1 X39.781Y71.858Z0F1200
G1 X39.993Y71.545Z0F1200
G1 X40.197Y71.234Z0F1200
G1 X40.37Y70.952Z0F1200
G1 X40.505Y70.721Z0F1200
G1 X40.691Y70.36Z0F1200
G1 X40.896Y69.875Z0F1200
G1 X41.055Y69.317Z0F1200
G1 X41.1Y69.088Z0F1200
G0 Z2.8F500
G0 X41.345Y67.957Z2.8F1500
G1 Z0F500
G1 X42.134Y67.353Z0F1200
G1 X42.903Y66.693Z0F1200
G1 X43.476Y66.145Z0F1200
G1 X44.018Y65.565Z0F1200
G1 X44.525Y64.962Z0F1200
G1 X45.01Y64.321Z0F1200
G1 X45.637Y63.377Z0F1200
G1 X46.203Y62.374Z0F1200
G1 X46.692Y61.33Z0F1200
G1 X47.1Y60.249Z0F1200
G1 X47.417Y59.13Z0F1200
G1 X47.632Y57.975Z0F1200
G1 X47.666Y57.57Z0F1200
G1 X47.966Y57.504Z0F1200
G1 X48.407Y57.359Z0F1200
G1 X48.815Y57.179Z0F1200
G1 X49.233Y56.941Z0F1200
G1 X49.523Y56.733Z0F1200
G1 X49.764Y56.542Z0F1200
G1 X49.998Y56.328Z0F1200
G1 X50.218Y56.098Z0F1200
G1 X50.377Y55.918Z0F1200
G1 X50.609Y55.644Z0F1200
G1 X50.871Y55.32Z0F1200
G1 X51.155Y54.955Z0F1200
G1 X51.456Y54.56Z0F1200
G1 X51.775Y54.133Z0F1200
G1 X52.104Y53.687Z0F1200
G1 X53.896Y51.237Z0F1200
G1 X54.491Y49.946Z0F1200
G1 X54.56Y48.156Z0F1200
G1 X53.954Y46.47Z0F1200
G1 X52.995Y45.418Z0F1200
G1 X48.587Y42.194Z0F1200
G1 X48.676Y42.074Z0F1200
G1 X53.083Y45.297Z0F1200
G1 X54.375Y45.892Z0F1200
G1 X56.165Y45.961Z0F1200
G1 X57.85Y45.354Z0F1200
G1 X58.9Y44.396Z0F1200
G1 X60.532Y42.166Z0F1200
G1 X61.421Y42.624Z0F1200
G1 X62.154Y42.682Z0F1200
G1 X59.014Y46.971Z0F1200
G1 X52.782Y55.481Z0F1200
G1 Y55.487Z0F1200
G1 X28.371Y88.809Z0F1200
G1 X26.843Y87.059Z0F1200
G1 X27.64Y86.598Z0F1200
G1 X28.317Y85.905Z0F1200
G1 X30.561Y82.899Z0F1200
G1 X31.052Y82.239Z0F1200
G1 X31.441Y81.707Z0F1200
G1 X31.617Y81.461Z0F1200
G1 X31.774Y81.234Z0F1200
G1 X31.942Y80.985Z0F1200
G1 X32.267Y80.458Z0F1200
G1 X32.622Y79.699Z0F1200
G1 X32.827Y78.945Z0F1200
G1 X32.912Y78.229Z0F1200
G1 X32.896Y77.462Z0F1200
G1 X32.745Y76.679Z0F1200
G1 X32.546Y76.137Z0F1200
G1 X32.414Y75.845Z0F1200
G1 X32.973Y75.944Z0F1200
G1 X33.982Y75.978Z0F1200
G1 X35.213Y75.666Z0F1200
G1 X36.313Y75.036Z0F1200
G1 X37.011Y74.318Z0F1200
G1 X38.388Y72.436Z0F1200
G1 X38.647Y72.077Z0F1200
G1 X38.895Y71.73Z0F1200
G1 X39.122Y71.404Z0F1200
G1 X39.327Y71.101Z0F1200
G1 X39.521Y70.805Z0F1200
G1 X39.684Y70.541Z0F1200
G1 X39.804Y70.335Z0F1200
G1 X39.966Y70.021Z0F1200
G1 X40.14Y69.608Z0F1200
G1 X40.277Y69.129Z0F1200
G1 X40.381Y68.595Z0F1200
G1 X40.527Y68.51Z0F1200
G1 X41.345Y67.957Z0F1200
G0 Z2.8F500
G0 X42.366Y66.1Z2.8F1500
G1 Z0F500
G1 X42.907Y65.582Z0F1200
G1 X43.419Y65.034Z0F1200
G1 X43.9Y64.463Z0F1200
G1 X44.357Y63.858Z0F1200
G1 X44.954Y62.959Z0F1200
G1 X45.491Y62.007Z0F1200
G1 X45.955Y61.019Z0F1200
G1 X46.339Y59.998Z0F1200
G1 X46.637Y58.947Z0F1200
G1 X46.838Y57.868Z0F1200
G1 X46.923Y56.858Z0F1200
G1 X47.191Y56.854Z0F1200
G1 X47.755Y56.731Z0F1200
G1 X48.12Y56.611Z0F1200
G1 X48.456Y56.463Z0F1200
G1 X48.801Y56.266Z0F1200
G1 X49.042Y56.095Z0F1200
G1 X49.244Y55.933Z0F1200
G1 X49.439Y55.755Z0F1200
G1 X49.63Y55.557Z0F1200
G1 X49.771Y55.396Z0F1200
G1 X49.992Y55.135Z0F1200
G1 X50.244Y54.822Z0F1200
G1 X50.521Y54.467Z0F1200
G1 X50.817Y54.078Z0F1200
G1 X51.132Y53.657Z0F1200
G1 X51.458Y53.213Z0F1200
G1 X53.203Y50.83Z0F1200
G1 X53.698Y49.756Z0F1200
G1 X53.755Y48.28Z0F1200
G1 X53.255Y46.891Z0F1200
G1 X52.458Y46.017Z0F1200
G1 X47.469Y42.367Z0F1200
G1 X48.502Y40.955Z0F1200
G1 X53.491Y44.604Z0F1200
G1 X54.565Y45.099Z0F1200
G1 X56.04Y45.156Z0F1200
G1 X57.428Y44.655Z0F1200
G1 X58.302Y43.859Z0F1200
G1 X60.021Y41.509Z0F1200
G1 X60.332Y41.096Z0F1200
G1 X60.664Y41.334Z0F1200
G1 X61.644Y41.838Z0F1200
G1 X63.188Y41.96Z0F1200
G1 X63.848Y41.72Z0F1200
G1 X59.66Y47.443Z0F1200
G1 X53.536Y55.806Z0F1200
G1 Y55.811Z0F1200
G1 X28.425Y90.087Z0F1200
G1 X25.454Y86.685Z0F1200
G1 X26.272Y86.465Z0F1200
G1 X27.144Y85.96Z0F1200
G1 X27.708Y85.384Z0F1200
G1 X29.919Y82.421Z0F1200
G1 X30.408Y81.764Z0F1200
G1 X30.793Y81.237Z0F1200
G1 X30.963Y81Z0F1200
G1 X31.114Y80.782Z0F1200
G1 X31.27Y80.552Z0F1200
G1 X31.562Y80.077Z0F1200
G1 X31.869Y79.422Z0F1200
G1 X32.04Y78.792Z0F1200
G1 X32.111Y78.19Z0F1200
G1 X32.098Y77.546Z0F1200
G1 X31.972Y76.895Z0F1200
G1 X31.805Y76.44Z0F1200
G1 X31.502Y75.771Z0F1200
G1 X31.047Y74.79Z0F1200
G1 X33.057Y75.146Z0F1200
G1 X33.896Y75.174Z0F1200
G1 X34.911Y74.917Z0F1200
G1 X35.818Y74.398Z0F1200
G1 X36.398Y73.801Z0F1200
G1 X37.741Y71.965Z0F1200
G1 X37.998Y71.61Z0F1200
G1 X38.24Y71.27Z0F1200
G1 X38.462Y70.951Z0F1200
G1 X38.662Y70.657Z0F1200
G1 X38.845Y70.377Z0F1200
G1 X38.997Y70.129Z0F1200
G1 X39.103Y69.95Z0F1200
G1 X39.24Y69.682Z0F1200
G1 X39.384Y69.342Z0F1200
G1 X39.498Y68.942Z0F1200
G1 X39.595Y68.446Z0F1200
G1 X39.598Y68.125Z0F1200
G1 X40.102Y67.832Z0F1200
G1 X40.877Y67.308Z0F1200
G1 X41.629Y66.731Z0F1200
G1 X42.366Y66.1Z0F1200
G0 Z2.8F500
G0 X47.257Y24.026Z2.8F1500
G1 Z0F500
G1 X47.192Y24.023Z0F1200
G1 X46.507Y24.27Z0F1200
G1 X46.663Y24.053Z0F1200
G1 X47.27Y23.183Z0F1200
G1 X47.402Y22.987Z0F1200
G1 X47.336Y23.352Z0F1200
G1 X47.257Y24.026Z0F1200
G0 Z2.8F500
G0 X47.316Y24.829Z2.8F1500
G1 Z0F500
G1 X45.63Y25.436Z0F1200
G1 X44.578Y26.395Z0F1200
G1 X42.828Y28.788Z0F1200
G1 X42.513Y29.22Z0F1200
G1 X42.215Y29.636Z0F1200
G1 X41.939Y30.023Z0F1200
G1 X41.69Y30.381Z0F1200
G1 X41.47Y30.706Z0F1200
G1 X41.291Y30.981Z0F1200
G1 X41.187Y31.145Z0F1200
G1 X41.067Y31.348Z0F1200
G1 X40.967Y31.534Z0F1200
G1 X40.834Y31.807Z0F1200
G1 X40.779Y31.95Z0F1200
G1 X40.203Y32.475Z0F1200
G1 X36.323Y37.728Z0F1200
G1 X32.437Y42.984Z0F1200
G1 X31.837Y44.268Z0F1200
G1 X31.762Y45.925Z0F1200
G1 X30.763Y46.521Z0F1200
G1 X29.691Y47.299Z0F1200
G1 X28.675Y48.171Z0F1200
G1 X27.742Y49.1Z0F1200
G1 X27.306Y49.576Z0F1200
G1 X26.92Y50.021Z0F1200
G1 X26.547Y50.491Z0F1200
G1 X26.192Y50.982Z0F1200
G1 X25.858Y51.495Z0F1200
G1 X25.541Y52.025Z0F1200
G1 X25.227Y52.586Z0F1200
G1 X24.873Y53.248Z0F1200
G1 X24.41Y54.198Z0F1200
G1 X24Y55.212Z0F1200
G1 X23.667Y56.244Z0F1200
G1 X23.418Y57.297Z0F1200
G1 X23.261Y58.365Z0F1200
G1 X23.202Y59.446Z0F1200
G1 X23.249Y60.534Z0F1200
G1 X23.392Y61.509Z0F1200
G1 X21.872Y61.278Z0F1200
G1 X20.901Y61.263Z0F1200
G1 X19.712Y61.574Z0F1200
G1 X18.646Y62.185Z0F1200
G1 X17.967Y62.873Z0F1200
G1 X16.489Y64.835Z0F1200
G1 X16.132Y65.312Z0F1200
G1 X15.819Y65.736Z0F1200
G1 X15.545Y66.119Z0F1200
G1 X15.296Y66.485Z0F1200
G1 X15.042Y66.889Z0F1200
G1 X14.836Y67.274Z0F1200
G1 X14.664Y67.629Z0F1200
G1 X14.388Y68.39Z0F1200
G1 X14.264Y69.506Z0F1200
G1 X14.398Y70.47Z0F1200
G1 X14.626Y71.267Z0F1200
G1 X14.758Y71.509Z0F1200
G1 X14.821Y71.659Z0F1200
G1 X15.391Y72.97Z0F1200
G1 X15.802Y73.909Z0F1200
G1 X16.255Y74.935Z0F1200
G1 X9.771Y67.508Z0F1200
G1 X9.806Y67.489Z0F1200
G1 X10.426Y67.124Z0F1200
G1 X11.484Y66.457Z0F1200
G1 X12.533Y65.745Z0F1200
G1 X13.566Y64.992Z0F1200
G1 X14.586Y64.196Z0F1200
G1 X15.594Y63.358Z0F1200
G1 X16.593Y62.475Z0F1200
G1 X17.584Y61.548Z0F1200
G1 X18.587Y60.559Z0F1200
G1 X18.963Y60.16Z0F1200
G1 X19.359Y59.711Z0F1200
G1 X19.77Y59.226Z0F1200
G1 X20.204Y58.694Z0F1200
G1 X21.091Y57.565Z0F1200
G1 X22.009Y56.349Z0F1200
G1 X22.905Y55.117Z0F1200
G1 X23.724Y53.941Z0F1200
G1 X24.104Y53.374Z0F1200
G1 X24.447Y52.842Z0F1200
G1 X24.76Y52.331Z0F1200
G1 X25.039Y51.84Z0F1200
G1 X26.016Y49.915Z0F1200
G1 X26.893Y47.974Z0F1200
G1 X27.668Y46.017Z0F1200
G1 X28.332Y44.073Z0F1200
G1 X28.636Y43.063Z0F1200
G1 X28.906Y42.075Z0F1200
G1 X29.148Y41.087Z0F1200
G1 X29.364Y40.098Z0F1200
G1 X29.551Y39.107Z0F1200
G1 X29.71Y38.119Z0F1200
G1 X29.8Y37.438Z0F1200
G1 X30.114Y37.29Z0F1200
G1 X30.979Y36.855Z0F1200
G1 X31.854Y36.394Z0F1200
G1 X32.721Y35.914Z0F1200
G1 X33.567Y35.423Z0F1200
G1 X34.372Y34.932Z0F1200
G1 X35.121Y34.446Z0F1200
G1 X36.14Y33.73Z0F1200
G1 X37.158Y32.963Z0F1200
G1 X38.17Y32.151Z0F1200
G1 X39.168Y31.301Z0F1200
G1 X40.146Y30.42Z0F1200
G1 X41.096Y29.513Z0F1200
G1 X42.009Y28.587Z0F1200
G1 X42.874Y27.654Z0F1200
G1 X43.16Y27.325Z0F1200
G1 X43.451Y26.977Z0F1200
G1 X43.75Y26.607Z0F1200
G1 X44.066Y26.208Z0F1200
G1 X44.704Y25.375Z0F1200
G1 X45.364Y24.488Z0F1200
G1 X46.011Y23.59Z0F1200
G1 X46.61Y22.729Z0F1200
G1 X46.895Y22.309Z0F1200
G1 X47.158Y21.91Z0F1200
G1 X47.401Y21.527Z0F1200
G1 X47.625Y21.161Z0F1200
G1 X48.186Y20.178Z0F1200
G1 X48.722Y19.176Z0F1200
G1 X49.23Y18.159Z0F1200
G1 X49.711Y17.13Z0F1200
G1 X50.166Y16.088Z0F1200
G1 X50.592Y15.036Z0F1200
G1 X50.989Y13.975Z0F1200
G1 X51.357Y12.908Z0F1200
G1 X51.695Y11.835Z0F1200
G1 X52.003Y10.759Z0F1200
G1 X52.28Y9.681Z0F1200
G1 X52.376Y9.255Z0F1200
G1 X54.906Y10.355Z0F1200
G1 X57.976Y11.694Z0F1200
G1 X57.738Y11.763Z0F1200
G1 X56.951Y12.072Z0F1200
G1 X56.204Y12.439Z0F1200
G1 X55.491Y12.858Z0F1200
G1 X54.811Y13.323Z0F1200
G1 X54.163Y13.828Z0F1200
G1 X53.54Y14.37Z0F1200
G1 X52.934Y14.955Z0F1200
G1 X52.442Y15.477Z0F1200
G1 X51.949Y16.046Z0F1200
G1 X51.461Y16.646Z0F1200
G1 X50.982Y17.265Z0F1200
G1 X50.521Y17.896Z0F1200
G1 X50.086Y18.529Z0F1200
G1 X49.684Y19.167Z0F1200
G1 X49.336Y19.792Z0F1200
G1 X49.043Y20.41Z0F1200
G1 X48.796Y21Z0F1200
G1 X48.579Y21.603Z0F1200
G1 X48.394Y22.213Z0F1200
G1 X48.243Y22.834Z0F1200
G1 X48.127Y23.47Z0F1200
G1 X48.053Y24.113Z0F1200
G1 X48.02Y24.765Z0F1200
G1 Y24.856Z0F1200
G1 X47.316Y24.829Z0F1200
G0 Z2.8F500
G0 X44.066Y24.894Z2.8F1500
G1 Z0F500
G1 X44.718Y24.016Z0F1200
G1 X45.358Y23.128Z0F1200
G1 X45.951Y22.277Z0F1200
G1 X46.229Y21.864Z0F1200
G1 X46.486Y21.475Z0F1200
G1 X46.722Y21.104Z0F1200
G1 X46.936Y20.754Z0F1200
G1 X47.485Y19.791Z0F1200
G1 X48.011Y18.809Z0F1200
G1 X48.51Y17.811Z0F1200
G1 X48.982Y16.801Z0F1200
G1 X49.428Y15.778Z0F1200
G1 X49.846Y14.745Z0F1200
G1 X50.236Y13.705Z0F1200
G1 X50.597Y12.657Z0F1200
G1 X50.929Y11.605Z0F1200
G1 X51.231Y10.549Z0F1200
G1 X51.502Y9.493Z0F1200
G1 X51.742Y8.435Z0F1200
G1 X51.801Y8.133Z0F1200
G1 X55.226Y9.623Z0F1200
G1 X60.891Y12.092Z0F1200
G1 X60.928Y12.108Z0F1200
G1 X60.354Y12.09Z0F1200
G1 X59.543Y12.152Z0F1200
G1 X58.752Y12.301Z0F1200
G1 X57.997Y12.521Z0F1200
G1 X57.274Y12.805Z0F1200
G1 X56.583Y13.144Z0F1200
G1 X55.92Y13.534Z0F1200
G1 X55.283Y13.969Z0F1200
G1 X54.671Y14.445Z0F1200
G1 X54.081Y14.96Z0F1200
G1 X53.502Y15.517Z0F1200
G1 X53.036Y16.013Z0F1200
G1 X52.562Y16.561Z0F1200
G1 X52.088Y17.143Z0F1200
G1 X51.622Y17.746Z0F1200
G1 X51.173Y18.359Z0F1200
G1 X50.754Y18.97Z0F1200
G1 X50.372Y19.575Z0F1200
G1 X50.048Y20.158Z0F1200
G1 X49.774Y20.736Z0F1200
G1 X49.542Y21.291Z0F1200
G1 X49.339Y21.854Z0F1200
G1 X49.166Y22.424Z0F1200
G1 X49.026Y23.001Z0F1200
G1 X48.919Y23.587Z0F1200
G1 X48.85Y24.179Z0F1200
G1 X48.82Y24.776Z0F1200
G1 X48.833Y25.383Z0F1200
G1 X48.863Y25.689Z0F1200
G1 X47.441Y25.634Z0F1200
G1 X46.051Y26.134Z0F1200
G1 X45.177Y26.932Z0F1200
G1 X43.474Y29.259Z0F1200
G1 X43.162Y29.689Z0F1200
G1 X42.866Y30.101Z0F1200
G1 X42.594Y30.483Z0F1200
G1 X42.35Y30.834Z0F1200
G1 X42.136Y31.149Z0F1200
G1 X41.963Y31.414Z0F1200
G1 X41.87Y31.562Z0F1200
G1 X41.764Y31.741Z0F1200
G1 X41.68Y31.897Z0F1200
G1 X41.569Y32.126Z0F1200
G1 X41.472Y32.377Z0F1200
G1 X41.461Y32.411Z0F1200
G1 X40.799Y33.013Z0F1200
G1 X36.966Y38.203Z0F1200
G1 X33.127Y43.396Z0F1200
G1 X32.629Y44.463Z0F1200
G1 X32.563Y45.929Z0F1200
G1 X32.706Y46.341Z0F1200
G1 X32.234Y46.576Z0F1200
G1 X31.204Y47.189Z0F1200
G1 X30.188Y47.927Z0F1200
G1 X29.219Y48.759Z0F1200
G1 X28.319Y49.654Z0F1200
G1 X27.903Y50.108Z0F1200
G1 X27.536Y50.532Z0F1200
G1 X27.185Y50.974Z0F1200
G1 X26.852Y51.435Z0F1200
G1 X26.537Y51.918Z0F1200
G1 X26.233Y52.426Z0F1200
G1 X25.929Y52.97Z0F1200
G1 X25.585Y53.612Z0F1200
G1 X25.141Y54.524Z0F1200
G1 X24.752Y55.485Z0F1200
G1 X24.438Y56.459Z0F1200
G1 X24.205Y57.447Z0F1200
G1 X24.058Y58.445Z0F1200
G1 X24.003Y59.451Z0F1200
G1 X24.046Y60.458Z0F1200
G1 X24.193Y61.459Z0F1200
G1 X24.447Y62.443Z0F1200
G1 X24.46Y62.48Z0F1200
G1 X21.805Y62.077Z0F1200
G1 X20.998Y62.064Z0F1200
G1 X20.018Y62.321Z0F1200
G1 X19.138Y62.825Z0F1200
G1 X18.574Y63.397Z0F1200
G1 X17.128Y65.315Z0F1200
G1 X16.774Y65.789Z0F1200
G1 X16.467Y66.206Z0F1200
G1 X16.201Y66.577Z0F1200
G1 X15.965Y66.923Z0F1200
G1 X15.734Y67.291Z0F1200
G1 X15.549Y67.638Z0F1200
G1 X15.401Y67.941Z0F1200
G1 X15.173Y68.573Z0F1200
G1 X15.07Y69.495Z0F1200
G1 X15.183Y70.305Z0F1200
G1 X15.371Y70.962Z0F1200
G1 X15.479Y71.161Z0F1200
G1 X15.557Y71.344Z0F1200
G1 X16.124Y72.65Z0F1200
G1 X16.535Y73.586Z0F1200
G1 X17.013Y74.67Z0F1200
G1 X17.831Y76.515Z0F1200
G1 X19.137Y79.45Z0F1200
G1 X8.517Y67.289Z0F1200
G1 X8.76Y67.158Z0F1200
G1 X9.407Y66.795Z0F1200
G1 X10.009Y66.44Z0F1200
G1 X11.046Y65.787Z0F1200
G1 X12.072Y65.09Z0F1200
G1 X13.084Y64.353Z0F1200
G1 X14.084Y63.573Z0F1200
G1 X15.073Y62.75Z0F1200
G1 X16.055Y61.883Z0F1200
G1 X17.029Y60.971Z0F1200
G1 X18.015Y59.999Z0F1200
G1 X18.372Y59.621Z0F1200
G1 X18.753Y59.188Z0F1200
G1 X19.154Y58.715Z0F1200
G1 X19.58Y58.193Z0F1200
G1 X20.457Y57.077Z0F1200
G1 X21.366Y55.873Z0F1200
G1 X22.253Y54.653Z0F1200
G1 X23.063Y53.491Z0F1200
G1 X23.435Y52.934Z0F1200
G1 X23.77Y52.416Z0F1200
G1 X24.071Y51.924Z0F1200
G1 X24.333Y51.461Z0F1200
G1 X25.294Y49.569Z0F1200
G1 X26.156Y47.662Z0F1200
G1 X26.917Y45.74Z0F1200
G1 X27.57Y43.829Z0F1200
G1 X27.867Y42.842Z0F1200
G1 X28.131Y41.874Z0F1200
G1 X28.369Y40.906Z0F1200
G1 X28.58Y39.938Z0F1200
G1 X28.763Y38.969Z0F1200
G1 X28.918Y38.003Z0F1200
G1 X29.046Y37.039Z0F1200
G1 X29.06Y36.903Z0F1200
G1 X29.764Y36.57Z0F1200
G1 X30.613Y36.144Z0F1200
G1 X31.473Y35.689Z0F1200
G1 X32.327Y35.217Z0F1200
G1 X33.158Y34.736Z0F1200
G1 X33.945Y34.255Z0F1200
G1 X34.673Y33.783Z0F1200
G1 X35.669Y33.083Z0F1200
G1 X36.667Y32.331Z0F1200
G1 X37.66Y31.535Z0F1200
G1 X38.641Y30.7Z0F1200
G1 X39.602Y29.833Z0F1200
G1 X40.535Y28.942Z0F1200
G1 X41.431Y28.034Z0F1200
G1 X42.278Y27.119Z0F1200
G1 X42.551Y26.806Z0F1200
G1 X42.833Y26.469Z0F1200
G1 X43.125Y26.107Z0F1200
G1 X43.435Y25.716Z0F1200
G1 X44.066Y24.894Z0F1200
G0 Z2.8F500
G0 X45.291Y21.824Z2.8F1500
G1 Z0F500
G1 X45.564Y21.42Z0F1200
G1 X45.815Y21.04Z0F1200
G1 X46.043Y20.682Z0F1200
G1 X46.246Y20.348Z0F1200
G1 X46.785Y19.404Z0F1200
G1 X47.3Y18.441Z0F1200
G1 X47.79Y17.462Z0F1200
G1 X48.253Y16.471Z0F1200
G1 X48.691Y15.468Z0F1200
G1 X49.101Y14.455Z0F1200
G1 X49.483Y13.434Z0F1200
G1 X49.837Y12.407Z0F1200
G1 X50.163Y11.375Z0F1200
G1 X50.458Y10.34Z0F1200
G1 X50.724Y9.305Z0F1200
G1 X50.959Y8.27Z0F1200
G1 X51.162Y7.237Z0F1200
G1 X51.201Y7Z0F1200
G1 X52.024Y7.357Z0F1200
G1 X55.546Y8.889Z0F1200
G1 X61.211Y11.359Z0F1200
G1 X67.421Y14.071Z0F1200
G1 X73.659Y16.799Z0F1200
G1 X78.998Y19.139Z0F1200
G1 X80.774Y19.919Z0F1200
G1 X78.081Y23.613Z0F1200
G1 X74.616Y28.354Z0F1200
G1 X70.422Y34.091Z0F1200
G1 X65.612Y40.665Z0F1200
G1 X60.306Y47.916Z0F1200
G1 X54.29Y56.13Z0F1200
G1 Y56.135Z0F1200
G1 X28.48Y91.367Z0F1200
G1 X23.419Y85.571Z0F1200
G1 X23.762Y85.752Z0F1200
G1 X24.486Y85.927Z0F1200
G1 X25.23Y85.917Z0F1200
G1 X25.963Y85.72Z0F1200
G1 X26.649Y85.323Z0F1200
G1 X27.099Y84.863Z0F1200
G1 X29.278Y81.943Z0F1200
G1 X29.764Y81.29Z0F1200
G1 X30.145Y80.769Z0F1200
G1 X30.309Y80.539Z0F1200
G1 X30.454Y80.331Z0F1200
G1 X30.597Y80.118Z0F1200
G1 X30.856Y79.697Z0F1200
G1 X31.115Y79.146Z0F1200
G1 X31.252Y78.64Z0F1200
G1 X31.31Y78.15Z0F1200
G1 X31.3Y77.631Z0F1200
G1 X31.198Y77.109Z0F1200
G1 X31.064Y76.743Z0F1200
G1 X30.775Y76.104Z0F1200
G1 X30.143Y74.74Z0F1200
G1 X29.67Y73.733Z0F1200
G1 X33.141Y74.349Z0F1200
G1 X33.81Y74.371Z0F1200
G1 X34.608Y74.169Z0F1200
G1 X35.323Y73.76Z0F1200
G1 X35.785Y73.284Z0F1200
G1 X37.094Y71.494Z0F1200
G1 X37.348Y71.144Z0F1200
G1 X37.586Y70.809Z0F1200
G1 X37.803Y70.498Z0F1200
G1 X37.996Y70.213Z0F1200
G1 X38.17Y69.948Z0F1200
G1 X38.311Y69.718Z0F1200
G1 X38.401Y69.564Z0F1200
G1 X38.515Y69.343Z0F1200
G1 X38.628Y69.076Z0F1200
G1 X38.72Y68.754Z0F1200
G1 X38.796Y68.365Z0F1200
G1 X38.801Y67.808Z0F1200
G1 X38.776Y67.665Z0F1200
G1 X38.923Y67.593Z0F1200
G1 X39.676Y67.154Z0F1200
G1 X40.41Y66.658Z0F1200
G1 X41.125Y66.109Z0F1200
G1 X41.828Y65.506Z0F1200
G1 X42.338Y65.019Z0F1200
G1 X42.821Y64.503Z0F1200
G1 X43.274Y63.964Z0F1200
G1 X43.705Y63.395Z0F1200
G1 X44.272Y62.541Z0F1200
G1 X44.78Y61.64Z0F1200
G1 X45.217Y60.708Z0F1200
G1 X45.579Y59.748Z0F1200
G1 X45.857Y58.764Z0F1200
G1 X46.044Y57.761Z0F1200
G1 X46.13Y56.74Z0F1200
G1 X46.108Y55.989Z0F1200
G1 X46.222Y56.012Z0F1200
G1 X46.531Y56.063Z0F1200
G1 X47.1Y56.056Z0F1200
G1 X47.544Y55.959Z0F1200
G1 X47.832Y55.864Z0F1200
G1 X48.095Y55.748Z0F1200
G1 X48.37Y55.591Z0F1200
G1 X48.559Y55.456Z0F1200
G1 X48.724Y55.324Z0F1200
G1 X48.88Y55.182Z0F1200
G1 X49.041Y55.015Z0F1200
G1 X49.166Y54.873Z0F1200
G1 X49.375Y54.625Z0F1200
G1 X49.617Y54.325Z0F1200
G1 X49.887Y53.979Z0F1200
G1 X50.179Y53.596Z0F1200
G1 X50.49Y53.18Z0F1200
G1 X50.813Y52.74Z0F1200
G1 X52.51Y50.422Z0F1200
G1 X52.905Y49.566Z0F1200
G1 X52.949Y48.405Z0F1200
G1 X52.556Y47.313Z0F1200
G1 X51.92Y46.615Z0F1200
G1 X46.351Y42.541Z0F1200
G1 X48.329Y39.837Z0F1200
G1 X48.493Y39.958Z0F1200
G1 X53.898Y43.911Z0F1200
G1 X54.754Y44.306Z0F1200
G1 X55.915Y44.35Z0F1200
G1 X57.007Y43.957Z0F1200
G1 X57.704Y43.321Z0F1200
G1 X59.382Y41.028Z0F1200
G1 X60.163Y39.99Z0F1200
G1 X61.083Y40.65Z0F1200
G1 X61.867Y41.054Z0F1200
G1 X63.078Y41.149Z0F1200
G1 X64.237Y40.728Z0F1200
G1 X64.935Y40.068Z0F1200
G1 X65.972Y38.65Z0F1200
G1 X65.976Y38.646Z0F1200
G1 X65.983Y38.635Z0F1200
G1 X67.372Y36.769Z0F1200
G1 X67.772Y35.888Z0F1200
G1 X67.806Y34.711Z0F1200
G1 X67.39Y33.608Z0F1200
G1 X66.729Y32.912Z0F1200
G1 X65.785Y32.26Z0F1200
G1 X66.319Y31.834Z0F1200
G1 X66.925Y31.241Z0F1200
G1 X67.256Y30.859Z0F1200
G1 X67.566Y30.472Z0F1200
G1 X67.736Y30.252Z0F1200
G1 X67.912Y30.021Z0F1200
G1 X68.297Y29.502Z0F1200
G1 X68.549Y29.16Z0F1200
G1 X68.782Y28.834Z0F1200
G1 X68.997Y28.525Z0F1200
G1 X69.208Y28.214Z0F1200
G1 X69.567Y27.638Z0F1200
G1 X69.886Y27.055Z0F1200
G1 X70.155Y26.461Z0F1200
G1 X70.372Y25.86Z0F1200
G1 X70.542Y25.256Z0F1200
G1 X70.69Y24.604Z0F1200
G1 X70.815Y23.807Z0F1200
G1 X70.865Y22.973Z0F1200
G1 X70.833Y22.14Z0F1200
G1 X70.714Y21.313Z0F1200
G1 X70.504Y20.497Z0F1200
G1 X70.196Y19.704Z0F1200
G1 X69.78Y18.942Z0F1200
G1 X69.302Y18.304Z0F1200
G1 X68.818Y17.755Z0F1200
G1 X68.409Y17.384Z0F1200
G1 X67.816Y17.06Z0F1200
G1 X67.191Y16.881Z0F1200
G1 X66.547Y16.84Z0F1200
G1 X66.479Y16.851Z0F1200
G1 X66.407Y16.646Z0F1200
G1 X66.05Y15.946Z0F1200
G1 X65.601Y15.295Z0F1200
G1 X65.065Y14.708Z0F1200
G1 X64.466Y14.206Z0F1200
G1 X63.839Y13.793Z0F1200
G1 X63.191Y13.46Z0F1200
G1 X62.514Y13.201Z0F1200
G1 X61.812Y13.017Z0F1200
G1 X61.094Y12.914Z0F1200
G1 X60.372Y12.891Z0F1200
G1 X59.648Y12.947Z0F1200
G1 X58.938Y13.08Z0F1200
G1 X58.255Y13.279Z0F1200
G1 X57.597Y13.538Z0F1200
G1 X56.962Y13.849Z0F1200
G1 X56.349Y14.209Z0F1200
G1 X55.755Y14.616Z0F1200
G1 X55.181Y15.063Z0F1200
G1 X54.621Y15.55Z0F1200
G1 X54.072Y16.08Z0F1200
G1 X53.63Y16.549Z0F1200
G1 X53.174Y17.076Z0F1200
G1 X52.715Y17.64Z0F1200
G1 X52.262Y18.227Z0F1200
G1 X51.826Y18.822Z0F1200
G1 X51.423Y19.41Z0F1200
G1 X51.06Y19.983Z0F1200
G1 X50.76Y20.523Z0F1200
G1 X50.505Y21.062Z0F1200
G1 X50.288Y21.581Z0F1200
G1 X50.098Y22.106Z0F1200
G1 X49.938Y22.635Z0F1200
G1 X49.809Y23.167Z0F1200
G1 X49.711Y23.705Z0F1200
G1 X49.648Y24.246Z0F1200
G1 X49.621Y24.788Z0F1200
G1 X49.632Y25.335Z0F1200
G1 X49.685Y25.88Z0F1200
G1 X49.78Y26.419Z0F1200
G1 X49.919Y26.952Z0F1200
G1 X50.001Y27.186Z0F1200
G1 X49.581Y26.879Z0F1200
G1 X48.725Y26.484Z0F1200
G1 X47.565Y26.44Z0F1200
G1 X46.473Y26.833Z0F1200
G1 X45.775Y27.469Z0F1200
G1 X44.121Y29.73Z0F1200
G1 X43.81Y30.158Z0F1200
G1 X43.517Y30.565Z0F1200
G1 X43.249Y30.943Z0F1200
G1 X43.009Y31.288Z0F1200
G1 X42.802Y31.592Z0F1200
G1 X42.637Y31.846Z0F1200
G1 X42.552Y31.979Z0F1200
G1 X42.461Y32.133Z0F1200
G1 X42.393Y32.261Z0F1200
G1 X42.303Y32.445Z0F1200
G1 X42.228Y32.642Z0F1200
G1 X42.171Y32.821Z0F1200
G1 X42.15Y32.901Z0F1200
G1 X42.083Y32.926Z0F1200
G1 X41.396Y33.552Z0F1200
G1 X37.609Y38.679Z0F1200
G1 X33.818Y43.807Z0F1200
G1 X33.421Y44.658Z0F1200
G1 X33.369Y45.811Z0F1200
G1 X33.705Y46.775Z0F1200
G1 X33.684Y46.783Z0F1200
G1 X33.158Y47.009Z0F1200
G1 X32.617Y47.278Z0F1200
G1 X31.645Y47.858Z0F1200
G1 X30.685Y48.555Z0F1200
G1 X29.763Y49.347Z0F1200
G1 X28.896Y50.208Z0F1200
G1 X28.5Y50.64Z0F1200
G1 X28.151Y51.043Z0F1200
G1 X27.823Y51.458Z0F1200
G1 X27.512Y51.888Z0F1200
G1 X27.215Y52.343Z0F1200
G1 X26.926Y52.827Z0F1200
G1 X26.63Y53.354Z0F1200
G1 X26.298Y53.976Z0F1200
G1 X25.873Y54.85Z0F1200
G1 X25.504Y55.758Z0F1200
G1 X25.209Y56.674Z0F1200
G1 X24.991Y57.598Z0F1200
G1 X24.854Y58.525Z0F1200
G1 X24.804Y59.456Z0F1200
G1 X24.844Y60.383Z0F1200
G1 X24.979Y61.301Z0F1200
G1 X25.21Y62.201Z0F1200
G1 X25.538Y63.069Z0F1200
G1 X25.749Y63.485Z0F1200
G1 X21.738Y62.876Z0F1200
G1 X21.095Y62.866Z0F1200
G1 X20.323Y63.068Z0F1200
G1 X19.631Y63.465Z0F1200
G1 X19.181Y63.921Z0F1200
G1 X17.768Y65.796Z0F1200
G1 X17.416Y66.266Z0F1200
G1 X17.114Y66.676Z0F1200
G1 X16.857Y67.035Z0F1200
G1 X16.635Y67.361Z0F1200
G1 X16.427Y67.692Z0F1200
G1 X16.262Y68.001Z0F1200
G1 X16.139Y68.254Z0F1200
G1 X15.957Y68.755Z0F1200
G1 X15.876Y69.483Z0F1200
G1 X15.968Y70.139Z0F1200
G1 X16.116Y70.657Z0F1200
G1 X16.201Y70.813Z0F1200
G1 X16.292Y71.029Z0F1200
G1 X16.857Y72.33Z0F1200
G1 X17.267Y73.264Z0F1200
G1 X17.745Y74.346Z0F1200
G1 X18.563Y76.19Z0F1200
G1 X22.023Y83.973Z0F1200
G1 X7.25Y67.053Z0F1200
G1 X7.709Y66.814Z0F1200
G1 X8.375Y66.457Z0F1200
G1 X9.009Y66.102Z0F1200
G1 X9.593Y65.757Z0F1200
G1 X10.608Y65.118Z0F1200
G1 X11.612Y64.436Z0F1200
G1 X12.603Y63.714Z0F1200
G1 X13.583Y62.95Z0F1200
G1 X14.553Y62.143Z0F1200
G1 X15.516Y61.292Z0F1200
G1 X16.475Y60.394Z0F1200
G1 X17.443Y59.44Z0F1200
G1 X17.781Y59.081Z0F1200
G1 X18.148Y58.666Z0F1200
G1 X18.539Y58.204Z0F1200
G1 X18.956Y57.693Z0F1200
G1 X19.823Y56.589Z0F1200
G1 X20.724Y55.396Z0F1200
G1 X21.602Y54.189Z0F1200
G1 X22.402Y53.04Z0F1200
G1 X22.766Y52.495Z0F1200
G1 X23.093Y51.99Z0F1200
G1 X23.382Y51.518Z0F1200
G1 X23.629Y51.083Z0F1200
G1 X24.573Y49.223Z0F1200
G1 X25.419Y47.349Z0F1200
G1 X26.167Y45.463Z0F1200
G1 X26.809Y43.584Z0F1200
G1 X27.098Y42.622Z0F1200
G1 X27.356Y41.673Z0F1200
G1 X27.589Y40.726Z0F1200
G1 X27.796Y39.778Z0F1200
G1 X27.975Y38.831Z0F1200
G1 X28.127Y37.887Z0F1200
G1 X28.251Y36.946Z0F1200
G1 X28.311Y36.361Z0F1200
G1 X28.614Y36.229Z0F1200
G1 X29.414Y35.851Z0F1200
G1 X30.247Y35.433Z0F1200
G1 X31.093Y34.986Z0F1200
G1 X31.933Y34.521Z0F1200
G1 X32.749Y34.048Z0F1200
G1 X33.519Y33.578Z0F1200
G1 X34.225Y33.12Z0F1200
G1 X35.198Y32.436Z0F1200
G1 X36.176Y31.7Z0F1200
G1 X37.15Y30.918Z0F1200
G1 X38.114Y30.098Z0F1200
G1 X39.058Y29.247Z0F1200
G1 X39.973Y28.372Z0F1200
G1 X40.853Y27.481Z0F1200
G1 X41.683Y26.584Z0F1200
G1 X41.943Y26.287Z0F1200
G1 X42.215Y25.96Z0F1200
G1 X42.501Y25.607Z0F1200
G1 X42.803Y25.225Z0F1200
G1 X43.427Y24.411Z0F1200
G1 X44.073Y23.543Z0F1200
G1 X44.705Y22.666Z0F1200
G1 X45.291Y21.824Z0F1200
G0 Z2.8F500
G0 X38.751Y57.012Z2.8F1500
G1 Z0F500
G1 X38.913Y57.299Z0F1200
G1 X39.02Y57.625Z0F1200
G1 X39.063Y57.994Z0F1200
G1 X39.029Y58.413Z0F1200
G1 X38.992Y58.624Z0F1200
G1 X38.958Y58.79Z0F1200
G1 X38.921Y58.927Z0F1200
G1 X38.872Y59.051Z0F1200
G1 X38.805Y59.177Z0F1200
G1 X38.713Y59.32Z0F1200
G1 X38.589Y59.496Z0F1200
G1 X38.426Y59.719Z0F1200
G1 X38.215Y59.999Z0F1200
G1 X38.03Y60.222Z0F1200
G1 X37.86Y60.396Z0F1200
G1 X37.695Y60.529Z0F1200
G1 X37.522Y60.629Z0F1200
G1 X37.333Y60.703Z0F1200
G1 X37.116Y60.759Z0F1200
G1 X36.859Y60.805Z0F1200
G1 X36.525Y60.82Z0F1200
G1 X36.116Y60.786Z0F1200
G1 X36.078Y60.777Z0F1200
G1 X36.041Y60.766Z0F1200
G1 X36.13Y60.631Z0F1200
G1 X36.363Y60.294Z0F1200
G1 X36.686Y59.841Z0F1200
G1 X37.122Y59.24Z0F1200
G1 X38.751Y57.012Z0F1200
G0 Z2.8F500
G0 X42.235Y52.305Z2.8F1500
G1 Z0F500
G1 X41.687Y51.621Z0F1200
G1 X41.062Y50.957Z0F1200
G1 X40.359Y50.314Z0F1200
G1 X39.912Y49.934Z0F1200
G1 X39.706Y49.823Z0F1200
G1 X39.482Y49.805Z0F1200
G1 X39.269Y49.874Z0F1200
G1 X39.094Y50.029Z0F1200
G1 X35.784Y54.465Z0F1200
G1 X35.118Y55.356Z0F1200
G1 X34.492Y56.187Z0F1200
G1 X33.92Y56.939Z0F1200
G1 X33.417Y57.597Z0F1200
G1 X33.052Y58.068Z0F1200
G1 X32.762Y58.437Z0F1200
G1 X32.643Y58.255Z0F1200
G1 X32.536Y58.068Z0F1200
G1 X32.452Y57.902Z0F1200
G1 X32.403Y57.781Z0F1200
G1 X32.37Y57.617Z0F1200
G1 X32.35Y57.409Z0F1200
G1 X32.344Y57.168Z0F1200
G1 X32.352Y56.911Z0F1200
G1 X32.372Y56.649Z0F1200
G1 X32.404Y56.398Z0F1200
G1 X32.449Y56.172Z0F1200
G1 X32.506Y55.983Z0F1200
G1 X32.597Y55.787Z0F1200
G1 X32.729Y55.555Z0F1200
G1 X32.893Y55.301Z0F1200
G1 X33.078Y55.041Z0F1200
G1 X33.273Y54.786Z0F1200
G1 X33.471Y54.552Z0F1200
G1 X33.658Y54.353Z0F1200
G1 X33.827Y54.202Z0F1200
G1 X34.019Y54.069Z0F1200
G1 X34.225Y53.969Z0F1200
G1 X34.476Y53.893Z0F1200
G1 X34.8Y53.831Z0F1200
G1 X35.569Y53.711Z0F1200
G1 X35.677Y53.684Z0F1200
G1 X35.776Y53.635Z0F1200
G1 X35.864Y53.569Z0F1200
G1 X35.938Y53.486Z0F1200
G1 X38.655Y49.772Z0F1200
G1 X38.72Y49.659Z0F1200
G1 X38.756Y49.539Z0F1200
G1 X38.765Y49.417Z0F1200
G1 X38.747Y49.296Z0F1200
G1 X38.704Y49.183Z0F1200
G1 X38.637Y49.08Z0F1200
G1 X38.547Y48.992Z0F1200
G1 X38.436Y48.924Z0F1200
G1 X38.114Y48.776Z0F1200
G1 X37.837Y48.672Z0F1200
G1 X37.554Y48.608Z0F1200
G1 X37.263Y48.574Z0F1200
G1 X36.964Y48.559Z0F1200
G1 X36.57Y48.563Z0F1200
G1 X36.174Y48.596Z0F1200
G1 X35.775Y48.658Z0F1200
G1 X35.374Y48.749Z0F1200
G1 X34.973Y48.868Z0F1200
G1 X34.57Y49.014Z0F1200
G1 X34.168Y49.188Z0F1200
G1 X33.767Y49.387Z0F1200
G1 X32.966Y49.864Z0F1200
G1 X32.174Y50.439Z0F1200
G1 X31.393Y51.11Z0F1200
G1 X30.628Y51.871Z0F1200
G1 X30.292Y52.237Z0F1200
G1 X29.999Y52.576Z0F1200
G1 X29.736Y52.907Z0F1200
G1 X29.491Y53.247Z0F1200
G1 X29.251Y53.615Z0F1200
G1 X29.003Y54.029Z0F1200
G1 X28.736Y54.507Z0F1200
G1 X28.436Y55.068Z0F1200
G1 X28.066Y55.827Z0F1200
G1 X27.762Y56.578Z0F1200
G1 X27.523Y57.319Z0F1200
G1 X27.351Y58.049Z0F1200
G1 X27.245Y58.766Z0F1200
G1 X27.207Y59.469Z0F1200
G1 X27.236Y60.156Z0F1200
G1 X27.334Y60.826Z0F1200
G1 X27.502Y61.476Z0F1200
G1 X27.738Y62.1Z0F1200
G1 X28.041Y62.699Z0F1200
G1 X28.411Y63.269Z0F1200
G1 X28.844Y63.809Z0F1200
G1 X29.342Y64.317Z0F1200
G1 X29.901Y64.791Z0F1200
G1 X30.521Y65.229Z0F1200
G1 X31.098Y65.569Z0F1200
G1 X31.685Y65.854Z0F1200
G1 X32.28Y66.081Z0F1200
G1 X32.881Y66.249Z0F1200
G1 X33.489Y66.359Z0F1200
G1 X34.101Y66.411Z0F1200
G1 X34.715Y66.402Z0F1200
G1 X35.332Y66.333Z0F1200
G1 X35.949Y66.205Z0F1200
G1 X36.563Y66.019Z0F1200
G1 X37.177Y65.776Z0F1200
G1 X37.789Y65.476Z0F1200
G1 X38.398Y65.121Z0F1200
G1 X39.006Y64.71Z0F1200
G1 X39.612Y64.245Z0F1200
G1 X40.216Y63.727Z0F1200
G1 X40.631Y63.33Z0F1200
G1 X41.025Y62.909Z0F1200
G1 X41.397Y62.467Z0F1200
G1 X41.746Y62.006Z0F1200
G1 X42.224Y61.286Z0F1200
G1 X42.645Y60.54Z0F1200
G1 X43.004Y59.773Z0F1200
G1 X43.297Y58.997Z0F1200
G1 X43.518Y58.216Z0F1200
G1 X43.663Y57.439Z0F1200
G1 X43.727Y56.675Z0F1200
G1 X43.705Y55.931Z0F1200
G1 X43.59Y55.188Z0F1200
G1 X43.383Y54.45Z0F1200
G1 X43.085Y53.722Z0F1200
G1 X42.702Y53.006Z0F1200
G1 X42.235Y52.305Z0F1200
G0 Z2.8F500
G0 X34.621Y54.685Z2.8F1500
G1 Z0F500
G1 X34.479Y54.875Z0F1200
G1 X33.854Y55.703Z0F1200
G1 X33.285Y56.453Z0F1200
G1 X33.188Y56.581Z0F1200
G1 X33.195Y56.525Z0F1200
G1 X33.227Y56.366Z0F1200
G1 X33.255Y56.269Z0F1200
G1 X33.31Y56.15Z0F1200
G1 X33.41Y55.975Z0F1200
G1 X33.561Y55.742Z0F1200
G1 X33.723Y55.514Z0F1200
G1 X33.896Y55.288Z0F1200
G1 X34.065Y55.088Z0F1200
G1 X34.219Y54.924Z0F1200
G1 X34.321Y54.833Z0F1200
G1 X34.425Y54.761Z0F1200
G1 X34.517Y54.716Z0F1200
G1 X34.621Y54.685Z0F1200
G0 Z2.8F500
G0 X56.988Y23.332Z2.8F1500
G1 Z0F500
G1 X56.965Y23.218Z0F1200
G1 X56.959Y23.128Z0F1200
G1 X56.962Y23.044Z0F1200
G1 X56.97Y22.998Z0F1200
G1 X57.001Y22.945Z0F1200
G1 X57.073Y22.826Z0F1200
G1 X57.162Y22.684Z0F1200
G1 X57.381Y22.349Z0F1200
G1 X57.431Y22.278Z0F1200
G1 X57.39Y22.38Z0F1200
G1 X57.263Y22.686Z0F1200
G1 X57.12Y23.025Z0F1200
G1 X56.988Y23.332Z0F1200
G0 Z2.8F500
G0 X36.384Y67.918Z2.8F1500
G1 Z0F500
G1 X36.345Y67.808Z0F1200
G1 X36.133Y67.568Z0F1200
G1 X36.025Y67.516Z0F1200
G1 X36.001Y67.509Z0F1200
G1 X35.922Y67.489Z0F1200
G1 X35.841Y67.474Z0F1200
G1 X35.583Y67.429Z0F1200
G1 X35.022Y67.338Z0F1200
G1 X34.236Y67.211Z0F1200
G1 X33.254Y67.058Z0F1200
G1 X32.104Y66.879Z0F1200
G1 X30.131Y66.577Z0F1200
G1 X21.538Y65.273Z0F1200
G1 X21.385Z0F1200
G1 X21.239Y65.309Z0F1200
G1 X21.109Y65.384Z0F1200
G1 X21.001Y65.493Z0F1200
G1 X19.687Y67.238Z0F1200
G1 X19.342Y67.698Z0F1200
G1 X19.057Y68.085Z0F1200
G1 X18.825Y68.409Z0F1200
G1 X18.643Y68.676Z0F1200
G1 X18.504Y68.897Z0F1200
G1 X18.4Y69.093Z0F1200
G1 X18.352Y69.191Z0F1200
G1 X18.311Y69.304Z0F1200
G1 X18.295Y69.449Z0F1200
G1 X18.322Y69.642Z0F1200
G1 X18.351Y69.743Z0F1200
G1 X18.365Y69.77Z0F1200
G1 X18.498Y70.083Z0F1200
G1 X19.057Y71.37Z0F1200
G1 X19.463Y72.297Z0F1200
G1 X19.939Y73.375Z0F1200
G1 X20.756Y75.216Z0F1200
G1 X24.302Y83.19Z0F1200
G1 X24.383Y83.323Z0F1200
G1 X24.491Y83.423Z0F1200
G1 X24.618Y83.49Z0F1200
G1 X24.755Y83.523Z0F1200
G1 X24.897Z0F1200
G1 X25.035Y83.484Z0F1200
G1 X25.163Y83.41Z0F1200
G1 X25.271Y83.299Z0F1200
G1 X27.353Y80.51Z0F1200
G1 X27.832Y79.865Z0F1200
G1 X28.2Y79.362Z0F1200
G1 X28.348Y79.156Z0F1200
G1 X28.473Y78.975Z0F1200
G1 X28.579Y78.818Z0F1200
G1 X28.741Y78.555Z0F1200
G1 X28.853Y78.316Z0F1200
G1 X28.89Y78.181Z0F1200
G1 X28.907Y78.033Z0F1200
G1 X28.904Y77.886Z0F1200
G1 X28.879Y77.755Z0F1200
G1 X28.841Y77.651Z0F1200
G1 X28.593Y77.104Z0F1200
G1 X27.967Y75.754Z0F1200
G1 X27.29Y74.308Z0F1200
G1 X25.518Y70.55Z0F1200
G1 X28.966Y71.17Z0F1200
G1 X33.392Y71.956Z0F1200
G1 X33.551Y71.961Z0F1200
G1 X33.701Y71.923Z0F1200
G1 X33.836Y71.846Z0F1200
G1 X33.946Y71.732Z0F1200
G1 X35.154Y70.081Z0F1200
G1 X35.398Y69.744Z0F1200
G1 X35.624Y69.428Z0F1200
G1 X35.825Y69.138Z0F1200
G1 X36Y68.881Z0F1200
G1 X36.143Y68.663Z0F1200
G1 X36.252Y68.484Z0F1200
G1 X36.297Y68.407Z0F1200
G1 X36.339Y68.326Z0F1200
G1 X36.36Y68.276Z0F1200
G1 X36.384Y68.192Z0F1200
G1 X36.398Y68.123Z0F1200
G1 Y68.005Z0F1200
G1 X36.384Y67.918Z0F1200
G0 Z2.8F500
G0 X35.787Y45.458Z2.8F1500
G1 Z0F500
G1 X35.858Y45.661Z0F1200
G1 X36.006Y45.827Z0F1200
G1 X41.15Y49.683Z0F1200
G1 X42.187Y50.459Z0F1200
G1 X43.615Y51.521Z0F1200
G1 X44.45Y52.139Z0F1200
G1 X45.166Y52.665Z0F1200
G1 X45.743Y53.084Z0F1200
G1 X46.161Y53.383Z0F1200
G1 X46.306Y53.484Z0F1200
G1 X46.416Y53.556Z0F1200
G1 X46.473Y53.589Z0F1200
G1 X46.526Y53.616Z0F1200
G1 X46.582Y53.636Z0F1200
G1 X46.655Y53.651Z0F1200
G1 X46.709Y53.66Z0F1200
G1 X46.827Z0F1200
G1 X46.91Y53.641Z0F1200
G1 X46.971Y53.621Z0F1200
G1 X47.015Y53.601Z0F1200
G1 X47.074Y53.567Z0F1200
G1 X47.112Y53.541Z0F1200
G1 X47.165Y53.498Z0F1200
G1 X47.204Y53.462Z0F1200
G1 X47.275Y53.389Z0F1200
G1 X47.348Y53.306Z0F1200
G1 X47.523Y53.098Z0F1200
G1 X47.737Y52.833Z0F1200
G1 X47.986Y52.514Z0F1200
G1 X48.263Y52.15Z0F1200
G1 X48.563Y51.75Z0F1200
G1 X48.879Y51.32Z0F1200
G1 X50.431Y49.198Z0F1200
G1 X50.525Y48.995Z0F1200
G1 X50.533Y48.779Z0F1200
G1 X50.46Y48.575Z0F1200
G1 X50.309Y48.41Z0F1200
G1 X42.997Y43.061Z0F1200
G1 X46.861Y37.779Z0F1200
G1 X46.955Y37.573Z0F1200
G1 X46.962Y37.354Z0F1200
G1 X46.885Y37.149Z0F1200
G1 X46.729Y36.984Z0F1200
G1 X45.347Y36.014Z0F1200
G1 X43.966Y35.042Z0F1200
G1 X43.764Y34.952Z0F1200
G1 X43.551Y34.945Z0F1200
G1 X43.35Y35.019Z0F1200
G1 X43.187Y35.167Z0F1200
G1 X39.539Y40.105Z0F1200
G1 X35.891Y45.041Z0F1200
G1 X35.797Y45.242Z0F1200
G1 X35.787Y45.458Z0F1200
G0 Z2.8F500
G0 X49.912Y38.021Z2.8F1500
G1 Z0F500
G1 X55.121Y41.832Z0F1200
G1 X55.324Y41.926Z0F1200
G1 X55.541Y41.934Z0F1200
G1 X55.744Y41.861Z0F1200
G1 X55.909Y41.71Z0F1200
G1 X57.464Y39.584Z0F1200
G1 X59.05Y37.479Z0F1200
G1 X59.144Y37.275Z0F1200
G1 X59.152Y37.059Z0F1200
G1 X59.079Y36.855Z0F1200
G1 X58.928Y36.689Z0F1200
G1 X48.358Y28.958Z0F1200
G1 X48.155Y28.864Z0F1200
G1 X47.939Y28.856Z0F1200
G1 X47.735Y28.929Z0F1200
G1 X47.57Y29.08Z0F1200
G1 X46.06Y31.145Z0F1200
G1 X45.754Y31.564Z0F1200
G1 X45.47Y31.96Z0F1200
G1 X45.212Y32.324Z0F1200
G1 X44.987Y32.647Z0F1200
G1 X44.8Y32.922Z0F1200
G1 X44.656Y33.143Z0F1200
G1 X44.6Y33.231Z0F1200
G1 X44.553Y33.312Z0F1200
G1 X44.531Y33.353Z0F1200
G1 X44.506Y33.403Z0F1200
G1 X44.493Y33.437Z0F1200
G1 X44.478Y33.486Z0F1200
G1 X44.468Y33.522Z0F1200
G1 X44.46Y33.57Z0F1200
G1 X44.455Y33.636Z0F1200
G1 X44.46Y33.736Z0F1200
G1 X44.522Y33.918Z0F1200
G1 X44.565Y33.988Z0F1200
G1 X44.594Y34.025Z0F1200
G1 X44.615Y34.047Z0F1200
G1 X44.646Y34.078Z0F1200
G1 X44.718Y34.141Z0F1200
G1 X44.911Y34.297Z0F1200
G1 X45.091Y34.439Z0F1200
G1 X45.315Y34.612Z0F1200
G1 X45.883Y35.041Z0F1200
G1 X46.594Y35.574Z0F1200
G1 X47.429Y36.194Z0F1200
G1 X48.864Y37.253Z0F1200
G1 X49.912Y38.021Z0F1200
G0 Z2.8F500
G0 X62.537Y38.699Z2.8F1500
G1 Z0F500
G1 X62.747Y38.716Z0F1200
G1 X62.95Y38.642Z0F1200
G1 X63.127Y38.475Z0F1200
G1 X64.046Y37.218Z0F1200
G1 X65.293Y35.542Z0F1200
G1 X65.387Y35.334Z0F1200
G1 X65.394Y35.115Z0F1200
G1 X65.316Y34.91Z0F1200
G1 X65.159Y34.745Z0F1200
G1 X63.092Y33.315Z0F1200
G1 X62.781Y33.105Z0F1200
G1 X62.522Y32.944Z0F1200
G1 X62.29Y32.82Z0F1200
G1 X62.063Y32.733Z0F1200
G1 X61.837Y32.682Z0F1200
G1 X61.619Y32.658Z0F1200
G1 X61.412Y32.655Z0F1200
G1 X61.256Y32.678Z0F1200
G1 X61.079Y32.735Z0F1200
G1 X60.889Y32.818Z0F1200
G1 X60.693Y32.918Z0F1200
G1 X59.998Y33.31Z0F1200
G1 X59.676Y33.482Z0F1200
G1 X59.397Y33.691Z0F1200
G1 X59.257Y33.828Z0F1200
G1 X59.049Y34.069Z0F1200
G1 X58.949Y34.205Z0F1200
G1 X58.875Y34.395Z0F1200
G1 X58.872Y34.653Z0F1200
G1 X58.914Y34.834Z0F1200
G1 X58.967Y34.94Z0F1200
G1 X59.025Y35.003Z0F1200
G1 X59.081Y35.057Z0F1200
G1 X59.192Y35.169Z0F1200
G1 X59.319Y35.272Z0F1200
G1 X59.442Y35.348Z0F1200
G1 X59.587Y35.409Z0F1200
G1 X59.748Y35.445Z0F1200
G1 X59.916Y35.449Z0F1200
G1 X60.063Y35.421Z0F1200
G1 X60.192Y35.37Z0F1200
G1 X60.307Y35.304Z0F1200
G1 X60.408Y35.229Z0F1200
G1 X60.367Y35.292Z0F1200
G1 X60.311Y35.371Z0F1200
G1 X59.804Y36.063Z0F1200
G1 X59.71Y36.267Z0F1200
G1 X59.702Y36.483Z0F1200
G1 X59.775Y36.687Z0F1200
G1 X59.926Y36.852Z0F1200
G1 X60.897Y37.563Z0F1200
G1 X62.338Y38.597Z0F1200
G1 X62.537Y38.699Z0F1200
G0 Z2.8F500
G0 X62.684Y31.508Z2.8F1500
G1 Z0F500
G1 X63.025Y31.301Z0F1200
G1 X63.383Y31.057Z0F1200
G1 X63.771Y30.774Z0F1200
G1 X64.205Y30.45Z0F1200
G1 X64.728Y30.034Z0F1200
G1 X65.176Y29.594Z0F1200
G1 X65.413Y29.321Z0F1200
G1 X65.68Y28.989Z0F1200
G1 X65.829Y28.795Z0F1200
G1 X65.992Y28.58Z0F1200
G1 X66.367Y28.076Z0F1200
G1 X66.606Y27.75Z0F1200
G1 X66.822Y27.449Z0F1200
G1 X67.018Y27.168Z0F1200
G1 X67.194Y26.906Z0F1200
G1 X67.495Y26.425Z0F1200
G1 X67.737Y25.983Z0F1200
G1 X67.93Y25.558Z0F1200
G1 X68.085Y25.125Z0F1200
G1 X68.216Y24.665Z0F1200
G1 X68.332Y24.152Z0F1200
G1 X68.426Y23.549Z0F1200
G1 X68.462Y22.948Z0F1200
G1 X68.439Y22.356Z0F1200
G1 X68.357Y21.782Z0F1200
G1 X68.216Y21.233Z0F1200
G1 X68.016Y20.718Z0F1200
G1 X67.756Y20.244Z0F1200
G1 X67.438Y19.819Z0F1200
G1 X67.107Y19.443Z0F1200
G1 X67.009Y19.354Z0F1200
G1 X66.898Y19.294Z0F1200
G1 X66.779Y19.26Z0F1200
G1 X66.657Y19.252Z0F1200
G1 X66.536Y19.271Z0F1200
G1 X66.42Y19.316Z0F1200
G1 X66.316Y19.387Z0F1200
G1 X66.227Y19.483Z0F1200
G1 X63.908Y22.652Z0F1200
G1 X63.833Y22.794Z0F1200
G1 X63.8Y22.948Z0F1200
G1 X63.812Y23.104Z0F1200
G1 X63.867Y23.254Z0F1200
G1 X64.124Y23.731Z0F1200
G1 X64.211Y23.904Z0F1200
G1 X64.253Y24.042Z0F1200
G1 Y24.191Z0F1200
G1 X64.225Y24.402Z0F1200
G1 X64.166Y24.628Z0F1200
G1 X64.064Y24.908Z0F1200
G1 X63.928Y25.221Z0F1200
G1 X63.765Y25.55Z0F1200
G1 X63.586Y25.878Z0F1200
G1 X63.399Y26.186Z0F1200
G1 X63.213Y26.455Z0F1200
G1 X63.037Y26.667Z0F1200
G1 X62.823Y26.875Z0F1200
G1 X62.621Y27.036Z0F1200
G1 X62.434Y27.158Z0F1200
G1 X62.265Y27.245Z0F1200
G1 X62.119Y27.302Z0F1200
G1 X62Y27.333Z0F1200
G1 X61.91Y27.343Z0F1200
G1 X61.855Y27.338Z0F1200
G1 X61.803Y27.314Z0F1200
G1 X61.759Y27.219Z0F1200
G1 X61.735Y27.113Z0F1200
G1 X61.726Y26.96Z0F1200
G1 X61.74Y26.763Z0F1200
G1 X61.784Y26.523Z0F1200
G1 X61.862Y26.327Z0F1200
G1 X61.951Y26.113Z0F1200
G1 X62.063Y25.863Z0F1200
G1 X62.341Y25.301Z0F1200
G1 X63.056Y23.949Z0F1200
G1 X63.404Y23.234Z0F1200
G1 X63.707Y22.55Z0F1200
G1 X63.962Y21.896Z0F1200
G1 X64.169Y21.269Z0F1200
G1 X64.329Y20.67Z0F1200
G1 X64.439Y20.097Z0F1200
G1 X64.5Y19.549Z0F1200
G1 X64.508Y19.023Z0F1200
G1 X64.46Y18.521Z0F1200
G1 X64.356Y18.044Z0F1200
G1 X64.197Y17.596Z0F1200
G1 X63.984Y17.178Z0F1200
G1 X63.719Y16.793Z0F1200
G1 X63.4Y16.444Z0F1200
G1 X63.031Y16.134Z0F1200
G1 X62.628Y15.87Z0F1200
G1 X62.21Y15.655Z0F1200
G1 X61.778Y15.489Z0F1200
G1 X61.336Y15.374Z0F1200
G1 X60.884Y15.309Z0F1200
G1 X60.426Y15.294Z0F1200
G1 X59.962Y15.33Z0F1200
G1 X59.497Y15.417Z0F1200
G1 X59.031Y15.553Z0F1200
G1 X58.566Y15.735Z0F1200
G1 X58.101Y15.964Z0F1200
G1 X57.636Y16.237Z0F1200
G1 X57.171Y16.555Z0F1200
G1 X56.707Y16.916Z0F1200
G1 X56.243Y17.32Z0F1200
G1 X55.78Y17.767Z0F1200
G1 X55.413Y18.157Z0F1200
G1 X55.012Y18.62Z0F1200
G1 X54.595Y19.131Z0F1200
G1 X54.18Y19.669Z0F1200
G1 X53.785Y20.209Z0F1200
G1 X53.427Y20.73Z0F1200
G1 X53.125Y21.208Z0F1200
G1 X52.896Y21.621Z0F1200
G1 X52.698Y22.039Z0F1200
G1 X52.525Y22.453Z0F1200
G1 X52.377Y22.862Z0F1200
G1 X52.254Y23.267Z0F1200
G1 X52.157Y23.666Z0F1200
G1 X52.086Y24.059Z0F1200
G1 X52.041Y24.445Z0F1200
G1 X52.022Y24.823Z0F1200
G1 X52.03Y25.194Z0F1200
G1 X52.065Y25.555Z0F1200
G1 X52.127Y25.908Z0F1200
G1 X52.216Y26.25Z0F1200
G1 X52.333Y26.583Z0F1200
G1 X52.478Y26.903Z0F1200
G1 X52.651Y27.212Z0F1200
G1 X52.853Y27.509Z0F1200
G1 X53.046Y27.765Z0F1200
G1 X53.218Y27.986Z0F1200
G1 X53.359Y28.156Z0F1200
G1 X53.399Y28.212Z0F1200
G1 X53.523Y28.317Z0F1200
G1 X53.756Y28.417Z0F1200
G1 X53.83Y28.422Z0F1200
G1 X53.938Z0F1200
G1 X54.052Y28.397Z0F1200
G1 X54.122Y28.367Z0F1200
G1 X54.206Y28.317Z0F1200
G1 X54.254Y28.278Z0F1200
G1 X54.327Y28.213Z0F1200
G1 X54.389Y28.149Z0F1200
G1 X54.528Y27.996Z0F1200
G1 X54.689Y27.803Z0F1200
G1 X54.875Y27.572Z0F1200
G1 X55.081Y27.307Z0F1200
G1 X55.303Y27.013Z0F1200
G1 X55.537Y26.696Z0F1200
G1 X56.677Y25.138Z0F1200
G1 X56.755Y24.986Z0F1200
G1 X56.785Y24.821Z0F1200
G1 X56.765Y24.655Z0F1200
G1 X56.695Y24.499Z0F1200
G1 X56.4Y24.039Z0F1200
G1 X56.248Y23.704Z0F1200
G1 X56.17Y23.326Z0F1200
G1 X56.159Y23.139Z0F1200
G1 X56.165Y22.964Z0F1200
G1 X56.189Y22.809Z0F1200
G1 X56.232Y22.68Z0F1200
G1 X56.261Y22.625Z0F1200
G1 X56.317Y22.529Z0F1200
G1 X56.396Y22.4Z0F1200
G1 X56.493Y22.246Z0F1200
G1 X56.721Y21.897Z0F1200
G1 X56.965Y21.55Z0F1200
G1 X57.129Y21.331Z0F1200
G1 X57.263Y21.157Z0F1200
G1 X57.375Y21.021Z0F1200
G1 X57.471Y20.917Z0F1200
G1 X57.65Y20.771Z0F1200
G1 X57.858Y20.656Z0F1200
G1 X58.1Y20.559Z0F1200
G1 X58.303Y20.511Z0F1200
G1 X58.462Y20.502Z0F1200
G1 X58.57Y20.519Z0F1200
G1 X58.637Y20.543Z0F1200
G1 X58.681Y20.576Z0F1200
G1 X58.708Y20.64Z0F1200
G1 X58.728Y20.753Z0F1200
G1 Y20.868Z0F1200
G1 X58.707Y21.029Z0F1200
G1 X58.653Y21.25Z0F1200
G1 X58.563Y21.544Z0F1200
G1 X58.501Y21.723Z0F1200
G1 X58.428Y21.924Z0F1200
G1 X58.342Y22.151Z0F1200
G1 X58.243Y22.404Z0F1200
G1 X58.129Y22.686Z0F1200
G1 X58Y22.998Z0F1200
G1 X57.855Y23.341Z0F1200
G1 X57.367Y24.477Z0F1200
G1 X57.224Y24.819Z0F1200
G1 X57.092Y25.139Z0F1200
G1 X56.863Y25.716Z0F1200
G1 X56.675Y26.222Z0F1200
G1 X56.524Y26.672Z0F1200
G1 X56.405Y27.08Z0F1200
G1 X56.313Y27.458Z0F1200
G1 X56.243Y27.822Z0F1200
G1 X56.171Y28.395Z0F1200
G1 X56.155Y28.935Z0F1200
G1 X56.2Y29.443Z0F1200
G1 X56.31Y29.921Z0F1200
G1 X56.489Y30.365Z0F1200
G1 X56.738Y30.769Z0F1200
G1 X57.05Y31.131Z0F1200
G1 X57.421Y31.448Z0F1200
G1 X57.792Y31.67Z0F1200
G1 X58.227Y31.842Z0F1200
G1 X58.706Y31.968Z0F1200
G1 X59.215Y32.052Z0F1200
G1 X59.736Y32.095Z0F1200
G1 X60.254Y32.102Z0F1200
G1 X60.751Y32.075Z0F1200
G1 X61.211Y32.018Z0F1200
G1 X61.623Y31.934Z0F1200
G1 X61.997Y31.823Z0F1200
G1 X62.346Y31.682Z0F1200
G1 X62.684Y31.508Z0F1200
G0 Z2.8F500
G0 X65.759Y30.143Z2.8F1500
G1 Z0F500
G1 X66.027Y29.834Z0F1200
G1 X66.309Y29.483Z0F1200
G1 X66.465Y29.281Z0F1200
G1 X66.632Y29.06Z0F1200
G1 X67.011Y28.551Z0F1200
G1 X67.253Y28.22Z0F1200
G1 X67.476Y27.911Z0F1200
G1 X67.677Y27.621Z0F1200
G1 X67.865Y27.342Z0F1200
G1 X68.186Y26.83Z0F1200
G1 X68.453Y26.34Z0F1200
G1 X68.671Y25.859Z0F1200
G1 X68.848Y25.37Z0F1200
G1 X68.991Y24.862Z0F1200
G1 X69.118Y24.303Z0F1200
G1 X69.223Y23.635Z0F1200
G1 X69.263Y22.957Z0F1200
G1 X69.237Y22.284Z0F1200
G1 X69.143Y21.625Z0F1200
G1 X68.979Y20.988Z0F1200
G1 X68.743Y20.38Z0F1200
G1 X68.431Y19.81Z0F1200
G1 X68.059Y19.314Z0F1200
G1 X67.677Y18.88Z0F1200
G1 X67.476Y18.698Z0F1200
G1 X67.204Y18.549Z0F1200
G1 X66.917Y18.467Z0F1200
G1 X66.621Y18.448Z0F1200
G1 X66.326Y18.494Z0F1200
G1 X66.046Y18.603Z0F1200
G1 X65.791Y18.776Z0F1200
G1 X65.608Y18.974Z0F1200
G1 X65.303Y19.391Z0F1200
G1 X65.309Y18.991Z0F1200
G1 X65.252Y18.397Z0F1200
G1 X65.127Y17.824Z0F1200
G1 X64.934Y17.279Z0F1200
G1 X64.673Y16.767Z0F1200
G1 X64.346Y16.293Z0F1200
G1 X63.955Y15.866Z0F1200
G1 X63.509Y15.491Z0F1200
G1 X63.032Y15.178Z0F1200
G1 X62.537Y14.923Z0F1200
G1 X62.023Y14.727Z0F1200
G1 X61.495Y14.588Z0F1200
G1 X60.954Y14.51Z0F1200
G1 X60.408Y14.493Z0F1200
G1 X59.857Y14.535Z0F1200
G1 X59.311Y14.638Z0F1200
G1 X58.772Y14.795Z0F1200
G1 X58.243Y15.003Z0F1200
G1 X57.721Y15.259Z0F1200
G1 X57.207Y15.561Z0F1200
G1 X56.699Y15.908Z0F1200
G1 X56.198Y16.298Z0F1200
G1 X55.703Y16.73Z0F1200
G1 X55.21Y17.204Z0F1200
G1 X54.818Y17.621Z0F1200
G1 X54.399Y18.105Z0F1200
G1 X53.968Y18.634Z0F1200
G1 X53.541Y19.188Z0F1200
G1 X53.132Y19.747Z0F1200
G1 X52.759Y20.29Z0F1200
G1 X52.437Y20.8Z0F1200
G1 X52.184Y21.255Z0F1200
G1 X51.967Y21.713Z0F1200
G1 X51.779Y22.162Z0F1200
G1 X51.617Y22.61Z0F1200
G1 X51.482Y23.056Z0F1200
G1 X51.375Y23.5Z0F1200
G1 X51.294Y23.941Z0F1200
G1 X51.243Y24.378Z0F1200
G1 X51.222Y24.812Z0F1200
G1 X51.23Y25.241Z0F1200
G1 X51.271Y25.664Z0F1200
G1 X51.345Y26.078Z0F1200
G1 X51.451Y26.484Z0F1200
G1 X51.59Y26.88Z0F1200
G1 X51.763Y27.265Z0F1200
G1 X51.97Y27.634Z0F1200
G1 X52.203Y27.976Z0F1200
G1 X52.411Y28.251Z0F1200
G1 X52.594Y28.487Z0F1200
G1 X52.723Y28.642Z0F1200
G1 X52.805Y28.758Z0F1200
G1 X53.099Y29.005Z0F1200
G1 X53.566Y29.207Z0F1200
G1 X53.802Y29.222Z0F1200
G1 X54.025Z0F1200
G1 X54.3Y29.162Z0F1200
G1 X54.486Y29.082Z0F1200
G1 X54.666Y28.975Z0F1200
G1 X54.773Y28.887Z0F1200
G1 X54.88Y28.792Z0F1200
G1 X54.974Y28.696Z0F1200
G1 X55.132Y28.521Z0F1200
G1 X55.308Y28.311Z0F1200
G1 X55.389Y28.209Z0F1200
G1 X55.373Y28.333Z0F1200
G1 X55.354Y28.958Z0F1200
G1 X55.408Y29.568Z0F1200
G1 X55.544Y30.162Z0F1200
G1 X55.773Y30.727Z0F1200
G1 X56.09Y31.243Z0F1200
G1 X56.484Y31.699Z0F1200
G1 X56.952Y32.1Z0F1200
G1 X57.438Y32.39Z0F1200
G1 X57.977Y32.603Z0F1200
G1 X58.539Y32.751Z0F1200
G1 X59.117Y32.846Z0F1200
G1 X59.183Y32.852Z0F1200
G1 X58.875Y33.082Z0F1200
G1 X58.673Y33.279Z0F1200
G1 X58.423Y33.569Z0F1200
G1 X58.241Y33.817Z0F1200
G1 X58.078Y34.241Z0F1200
G1 X58.07Y34.74Z0F1200
G1 X58.157Y35.109Z0F1200
G1 X58.177Y35.149Z0F1200
G1 X48.766Y28.265Z0F1200
G1 X48.345Y28.071Z0F1200
G1 X47.814Y28.051Z0F1200
G1 X47.314Y28.23Z0F1200
G1 X46.972Y28.543Z0F1200
G1 X45.413Y30.673Z0F1200
G1 X45.106Y31.096Z0F1200
G1 X44.819Y31.496Z0F1200
G1 X44.558Y31.864Z0F1200
G1 X44.328Y32.194Z0F1200
G1 X44.134Y32.479Z0F1200
G1 X43.983Y32.71Z0F1200
G1 X43.917Y32.814Z0F1200
G1 X43.855Y32.919Z0F1200
G1 X43.818Y32.989Z0F1200
G1 X43.772Y33.083Z0F1200
G1 X43.738Y33.172Z0F1200
G1 X43.708Y33.265Z0F1200
G1 X43.686Y33.353Z0F1200
G1 X43.665Y33.472Z0F1200
G1 X43.653Y33.628Z0F1200
G1 X43.667Y33.89Z0F1200
G1 X43.756Y34.151Z0F1200
G1 X43.421Y34.141Z0F1200
G1 X42.928Y34.321Z0F1200
G1 X42.59Y34.629Z0F1200
G1 X38.896Y39.63Z0F1200
G1 X35.2Y44.629Z0F1200
G1 X35.005Y45.047Z0F1200
G1 X34.981Y45.575Z0F1200
G1 X35.155Y46.074Z0F1200
G1 X35.462Y46.419Z0F1200
G1 X37.269Y47.773Z0F1200
G1 X36.98Y47.758Z0F1200
G1 X36.533Y47.763Z0F1200
G1 X36.079Y47.801Z0F1200
G1 X35.625Y47.872Z0F1200
G1 X35.171Y47.974Z0F1200
G1 X34.722Y48.107Z0F1200
G1 X34.275Y48.271Z0F1200
G1 X33.832Y48.461Z0F1200
G1 X33.383Y48.684Z0F1200
G1 X32.526Y49.195Z0F1200
G1 X31.677Y49.812Z0F1200
G1 X30.85Y50.522Z0F1200
G1 X30.051Y51.317Z0F1200
G1 X29.695Y51.705Z0F1200
G1 X29.383Y52.065Z0F1200
G1 X29.099Y52.424Z0F1200
G1 X28.832Y52.794Z0F1200
G1 X28.572Y53.191Z0F1200
G1 X28.311Y53.628Z0F1200
G1 X28.034Y54.123Z0F1200
G1 X27.723Y54.704Z0F1200
G1 X27.335Y55.501Z0F1200
G1 X27.009Y56.305Z0F1200
G1 X26.751Y57.104Z0F1200
G1 X26.564Y57.898Z0F1200
G1 X26.448Y58.686Z0F1200
G1 X26.406Y59.465Z0F1200
G1 X26.439Y60.232Z0F1200
G1 X26.549Y60.984Z0F1200
G1 X26.738Y61.717Z0F1200
G1 X27.004Y62.423Z0F1200
G1 X27.347Y63.098Z0F1200
G1 X27.762Y63.738Z0F1200
G1 X28.245Y64.34Z0F1200
G1 X28.796Y64.903Z0F1200
G1 X29.411Y65.423Z0F1200
G1 X29.834Y65.723Z0F1200
G1 X21.605Y64.475Z0F1200
G1 X21.288Y64.469Z0F1200
G1 X20.934Y64.562Z0F1200
G1 X20.616Y64.744Z0F1200
G1 X20.395Y64.969Z0F1200
G1 X19.047Y66.757Z0F1200
G1 X18.7Y67.221Z0F1200
G1 X18.409Y67.616Z0F1200
G1 X18.169Y67.951Z0F1200
G1 X17.974Y68.238Z0F1200
G1 X17.812Y68.495Z0F1200
G1 X17.687Y68.729Z0F1200
G1 X17.614Y68.878Z0F1200
G1 X17.526Y69.121Z0F1200
G1 X17.489Y69.46Z0F1200
G1 X17.537Y69.807Z0F1200
G1 X17.605Y70.047Z0F1200
G1 X17.644Y70.118Z0F1200
G1 X17.763Y70.398Z0F1200
G1 X18.323Y71.69Z0F1200
G1 X18.731Y72.619Z0F1200
G1 X19.208Y73.699Z0F1200
G1 X20.025Y75.541Z0F1200
G1 X23.593Y83.563Z0F1200
G1 X23.759Y83.834Z0F1200
G1 X24.024Y84.081Z0F1200
G1 X24.333Y84.244Z0F1200
G1 X24.666Y84.324Z0F1200
G1 X25.008Y84.319Z0F1200
G1 X25.345Y84.229Z0F1200
G1 X25.658Y84.048Z0F1200
G1 X25.88Y83.82Z0F1200
G1 X27.995Y80.988Z0F1200
G1 X28.476Y80.34Z0F1200
G1 X28.848Y79.831Z0F1200
G1 X29.001Y79.617Z0F1200
G1 X29.133Y79.427Z0F1200
G1 X29.251Y79.251Z0F1200
G1 X29.446Y78.936Z0F1200
G1 X29.607Y78.592Z0F1200
G1 X29.677Y78.334Z0F1200
G1 X29.708Y78.072Z0F1200
G1 X29.703Y77.801Z0F1200
G1 X29.652Y77.54Z0F1200
G1 X29.582Y77.348Z0F1200
G1 X29.321Y76.771Z0F1200
G1 X28.692Y75.417Z0F1200
G1 X28.014Y73.967Z0F1200
G1 X26.903Y71.612Z0F1200
G1 X28.826Y71.958Z0F1200
G1 X33.308Y72.753Z0F1200
G1 X33.637Y72.764Z0F1200
G1 X34.003Y72.671Z0F1200
G1 X34.332Y72.484Z0F1200
G1 X34.559Y72.249Z0F1200
G1 X35.801Y70.552Z0F1200
G1 X36.048Y70.211Z0F1200
G1 X36.278Y69.888Z0F1200
G1 X36.484Y69.591Z0F1200
G1 X36.665Y69.325Z0F1200
G1 X36.818Y69.091Z0F1200
G1 X36.938Y68.895Z0F1200
G1 X36.999Y68.793Z0F1200
G1 X37.064Y68.665Z0F1200
G1 X37.116Y68.542Z0F1200
G1 X37.163Y68.38Z0F1200
G1 X37.197Y68.204Z0F1200
G1 X37.2Y67.939Z0F1200
G1 X37.16Y67.715Z0F1200
G1 X37.047Y67.395Z0F1200
G1 X36.626Y66.919Z0F1200
G1 X36.521Y66.868Z0F1200
G1 X36.827Y66.775Z0F1200
G1 X37.501Y66.508Z0F1200
G1 X38.167Y66.182Z0F1200
G1 X38.824Y65.798Z0F1200
G1 X39.474Y65.359Z0F1200
G1 X40.117Y64.867Z0F1200
G1 X40.753Y64.32Z0F1200
G1 X41.2Y63.893Z0F1200
G1 X41.624Y63.44Z0F1200
G1 X42.023Y62.966Z0F1200
G1 X42.399Y62.469Z0F1200
G1 X42.907Y61.705Z0F1200
G1 X43.356Y60.906Z0F1200
G1 X43.742Y60.085Z0F1200
G1 X44.058Y59.247Z0F1200
G1 X44.298Y58.398Z0F1200
G1 X44.457Y57.546Z0F1200
G1 X44.528Y56.697Z0F1200
G1 X44.503Y55.858Z0F1200
G1 X44.374Y55.018Z0F1200
G1 X44.141Y54.19Z0F1200
G1 X43.811Y53.381Z0F1200
G1 X43.389Y52.594Z0F1200
G1 X43.067Y52.111Z0F1200
G1 X43.138Y52.164Z0F1200
G1 X43.975Y52.783Z0F1200
G1 X44.694Y53.311Z0F1200
G1 X45.275Y53.733Z0F1200
G1 X45.699Y54.036Z0F1200
G1 X45.858Y54.147Z0F1200
G1 X45.998Y54.238Z0F1200
G1 X46.091Y54.292Z0F1200
G1 X46.206Y54.351Z0F1200
G1 X46.363Y54.408Z0F1200
G1 X46.511Y54.438Z0F1200
G1 X46.65Y54.461Z0F1200
G1 X46.918Y54.458Z0F1200
G1 X47.122Y54.414Z0F1200
G1 X47.258Y54.368Z0F1200
G1 X47.375Y54.317Z0F1200
G1 X47.506Y54.242Z0F1200
G1 X47.594Y54.179Z0F1200
G1 X47.685Y54.107Z0F1200
G1 X47.763Y54.036Z0F1200
G1 X47.864Y53.931Z0F1200
G1 X47.954Y53.828Z0F1200
G1 X48.141Y53.607Z0F1200
G1 X48.364Y53.331Z0F1200
G1 X48.62Y53.002Z0F1200
G1 X48.901Y52.632Z0F1200
G1 X49.205Y52.226Z0F1200
G1 X49.524Y51.793Z0F1200
G1 X51.124Y49.606Z0F1200
G1 X51.318Y49.186Z0F1200
G1 X51.338Y48.654Z0F1200
G1 X51.159Y48.154Z0F1200
G1 X50.846Y47.812Z0F1200
G1 X44.115Y42.887Z0F1200
G1 X47.555Y38.186Z0F1200
G1 X47.75Y37.758Z0F1200
G1 X47.76Y37.433Z0F1200
G1 X48.39Y37.897Z0F1200
G1 X49.439Y38.667Z0F1200
G1 X54.713Y42.525Z0F1200
G1 X55.134Y42.719Z0F1200
G1 X55.666Y42.739Z0F1200
G1 X56.165Y42.56Z0F1200
G1 X56.507Y42.247Z0F1200
G1 X58.104Y40.065Z0F1200
G1 X59.741Y37.891Z0F1200
G1 X59.804Y37.754Z0F1200
G1 X60.428Y38.211Z0F1200
G1 X61.919Y39.281Z0F1200
G1 X62.314Y39.484Z0F1200
G1 X62.857Y39.527Z0F1200
G1 X63.379Y39.337Z0F1200
G1 X63.729Y39.006Z0F1200
G1 X64.688Y37.695Z0F1200
G1 X65.986Y35.951Z0F1200
G1 X66.182Y35.519Z0F1200
G1 X66.198Y34.98Z0F1200
G1 X66.007Y34.476Z0F1200
G1 X65.682Y34.134Z0F1200
G1 X63.543Y32.654Z0F1200
G1 X63.217Y32.434Z0F1200
G1 X62.953Y32.27Z0F1200
G1 X63.075Y32.207Z0F1200
G1 X63.458Y31.974Z0F1200
G1 X63.844Y31.711Z0F1200
G1 X64.247Y31.418Z0F1200
G1 X64.694Y31.083Z0F1200
G1 X65.258Y30.634Z0F1200
G1 X65.759Y30.143Z0F1200
G0 Z2.8F500
G0 X68.337Y28.073Z2.8F1500
G1 Z0F500
G1 X68.536Y27.778Z0F1200
G1 X68.876Y27.234Z0F1200
G1 X69.169Y26.698Z0F1200
G1 X69.413Y26.16Z0F1200
G1 X69.61Y25.615Z0F1200
G1 X69.767Y25.059Z0F1200
G1 X69.904Y24.453Z0F1200
G1 X70.019Y23.721Z0F1200
G1 X70.064Y22.965Z0F1200
G1 X70.035Y22.212Z0F1200
G1 X69.928Y21.469Z0F1200
G1 X69.742Y20.743Z0F1200
G1 X69.469Y20.042Z0F1200
G1 X69.105Y19.376Z0F1200
G1 X68.681Y18.809Z0F1200
G1 X68.248Y18.317Z0F1200
G1 X67.942Y18.041Z0F1200
G1 X67.51Y17.805Z0F1200
G1 X67.054Y17.674Z0F1200
G1 X66.583Y17.644Z0F1200
G1 X66.116Y17.717Z0F1200
G1 X65.938Y17.787Z0F1200
G1 X65.898Y17.605Z0F1200
G1 X65.67Y16.963Z0F1200
G1 X65.362Y16.356Z0F1200
G1 X64.974Y15.794Z0F1200
G1 X64.51Y15.287Z0F1200
G1 X63.987Y14.848Z0F1200
G1 X63.435Y14.485Z0F1200
G1 X62.864Y14.192Z0F1200
G1 X62.269Y13.964Z0F1200
G1 X61.653Y13.803Z0F1200
G1 X61.024Y13.712Z0F1200
G1 X60.39Y13.692Z0F1200
G1 X59.753Y13.741Z0F1200
G1 X59.125Y13.859Z0F1200
G1 X58.514Y14.037Z0F1200
G1 X57.92Y14.27Z0F1200
G1 X57.342Y14.554Z0F1200
G1 X56.778Y14.885Z0F1200
G1 X56.228Y15.262Z0F1200
G1 X55.689Y15.681Z0F1200
G1 X55.162Y16.14Z0F1200
G1 X54.641Y16.642Z0F1200
G1 X54.225Y17.085Z0F1200
G1 X53.787Y17.59Z0F1200
G1 X53.342Y18.137Z0F1200
G1 X52.901Y18.708Z0F1200
G1 X52.479Y19.284Z0F1200
G1 X52.091Y19.85Z0F1200
G1 X51.749Y20.392Z0F1200
G1 X51.472Y20.889Z0F1200
G1 X51.236Y21.387Z0F1200
G1 X51.034Y21.872Z0F1200
G1 X50.858Y22.358Z0F1200
G1 X50.71Y22.846Z0F1200
G1 X50.591Y23.333Z0F1200
G1 X50.502Y23.823Z0F1200
G1 X50.446Y24.312Z0F1200
G1 X50.421Y24.8Z0F1200
G1 X50.432Y25.288Z0F1200
G1 X50.479Y25.771Z0F1200
G1 X50.563Y26.249Z0F1200
G1 X50.685Y26.718Z0F1200
G1 X50.847Y27.178Z0F1200
G1 X51.049Y27.625Z0F1200
G1 X51.29Y28.055Z0F1200
G1 X51.552Y28.441Z0F1200
G1 X51.776Y28.739Z0F1200
G1 X51.971Y28.988Z0F1200
G1 X52.087Y29.128Z0F1200
G1 X52.211Y29.303Z0F1200
G1 X52.673Y29.694Z0F1200
G1 X53.377Y29.996Z0F1200
G1 X53.773Y30.022Z0F1200
G1 X54.112Z0F1200
G1 X54.547Y29.926Z0F1200
G1 X54.659Y29.878Z0F1200
G1 X54.778Y30.403Z0F1200
G1 X55.056Y31.089Z0F1200
G1 X55.442Y31.717Z0F1200
G1 X55.918Y32.268Z0F1200
G1 X56.484Y32.752Z0F1200
G1 X57.083Y33.11Z0F1200
G1 X57.613Y33.32Z0F1200
G1 X57.533Y33.429Z0F1200
G1 X57.455Y33.63Z0F1200
G1 X49.173Y27.572Z0F1200
G1 X48.535Y27.278Z0F1200
G1 X47.69Y27.245Z0F1200
G1 X46.894Y27.532Z0F1200
G1 X46.373Y28.006Z0F1200
G1 X44.767Y30.202Z0F1200
G1 X44.458Y30.627Z0F1200
G1 X44.168Y31.03Z0F1200
G1 X43.903Y31.403Z0F1200
G1 X43.668Y31.741Z0F1200
G1 X43.468Y32.035Z0F1200
G1 X43.31Y32.278Z0F1200
G1 X43.235Y32.396Z0F1200
G1 X43.158Y32.526Z0F1200
G1 X43.105Y32.625Z0F1200
G1 X43.038Y32.765Z0F1200
G1 X42.983Y32.907Z0F1200
G1 X42.939Y33.043Z0F1200
G1 X42.903Y33.183Z0F1200
G1 X42.87Y33.374Z0F1200
G1 X42.861Y33.494Z0F1200
G1 X42.506Y33.624Z0F1200
G1 X41.993Y34.09Z0F1200
G1 X38.252Y39.154Z0F1200
G1 X34.509Y44.218Z0F1200
G1 X34.213Y44.853Z0F1200
G1 X34.175Y45.693Z0F1200
G1 X34.452Y46.488Z0F1200
G1 X34.918Y47.011Z0F1200
G1 X35.124Y47.165Z0F1200
G1 X34.969Y47.2Z0F1200
G1 X34.471Y47.348Z0F1200
G1 X33.979Y47.526Z0F1200
G1 X33.495Y47.735Z0F1200
G1 X33Y47.981Z0F1200
G1 X32.085Y48.526Z0F1200
G1 X31.181Y49.183Z0F1200
G1 X30.306Y49.935Z0F1200
G1 X29.474Y50.763Z0F1200
G1 X29.098Y51.172Z0F1200
G1 X28.768Y51.554Z0F1200
G1 X28.46Y51.94Z0F1200
G1 X28.172Y52.341Z0F1200
G1 X27.894Y52.767Z0F1200
G1 X27.619Y53.228Z0F1200
G1 X27.333Y53.738Z0F1200
G1 X27.011Y54.34Z0F1200
G1 X26.604Y55.175Z0F1200
G1 X26.257Y56.031Z0F1200
G1 X25.98Y56.889Z0F1200
G1 X25.778Y57.748Z0F1200
G1 X25.651Y58.605Z0F1200
G1 X25.604Y59.46Z0F1200
G1 X25.642Y60.307Z0F1200
G1 X25.764Y61.143Z0F1200
G1 X25.975Y61.959Z0F1200
G1 X26.271Y62.746Z0F1200
G1 X26.652Y63.498Z0F1200
G1 X27.112Y64.207Z0F1200
G1 X27.381Y64.542Z0F1200
G1 X21.671Y63.675Z0F1200
G1 X21.191Y63.667Z0F1200
G1 X20.628Y63.815Z0F1200
G1 X20.124Y64.104Z0F1200
G1 X19.788Y64.445Z0F1200
G1 X18.408Y66.277Z0F1200
G1 X18.058Y66.744Z0F1200
G1 X17.762Y67.146Z0F1200
G1 X17.513Y67.493Z0F1200
G1 X17.304Y67.8Z0F1200
G1 X17.12Y68.094Z0F1200
G1 X16.975Y68.365Z0F1200
G1 X16.876Y68.566Z0F1200
G1 X16.742Y68.938Z0F1200
G1 X16.683Y69.472Z0F1200
G1 X16.752Y69.973Z0F1200
G1 X16.861Y70.353Z0F1200
G1 X16.922Y70.465Z0F1200
G1 X17.027Y70.714Z0F1200
G1 X17.59Y72.01Z0F1200
G1 X17.999Y72.941Z0F1200
G1 X18.476Y74.022Z0F1200
G1 X19.293Y75.866Z0F1200
G1 X22.883Y83.937Z0F1200
G1 X23.134Y84.346Z0F1200
G1 X23.557Y84.739Z0F1200
G1 X24.047Y84.998Z0F1200
G1 X24.576Y85.125Z0F1200
G1 X25.119Y85.118Z0F1200
G1 X25.654Y84.975Z0F1200
G1 X26.153Y84.686Z0F1200
G1 X26.489Y84.342Z0F1200
G1 X28.636Y81.465Z0F1200
G1 X29.12Y80.814Z0F1200
G1 X29.497Y80.3Z0F1200
G1 X29.655Y80.078Z0F1200
G1 X29.793Y79.878Z0F1200
G1 X29.924Y79.685Z0F1200
G1 X30.151Y79.316Z0F1200
G1 X30.361Y78.869Z0F1200
G1 X30.465Y78.487Z0F1200
G1 X30.509Y78.111Z0F1200
G1 X30.501Y77.716Z0F1200
G1 X30.425Y77.325Z0F1200
G1 X30.323Y77.045Z0F1200
G1 X30.048Y76.437Z0F1200
G1 X29.417Y75.078Z0F1200
G1 X28.738Y73.627Z0F1200
G1 X28.289Y72.674Z0F1200
G1 X28.685Y72.746Z0F1200
G1 X33.225Y73.551Z0F1200
G1 X33.724Y73.568Z0F1200
G1 X34.306Y73.42Z0F1200
G1 X34.827Y73.122Z0F1200
G1 X35.172Y72.766Z0F1200
G1 X36.448Y71.023Z0F1200
G1 X36.698Y70.677Z0F1200
G1 X36.932Y70.349Z0F1200
G1 X37.144Y70.045Z0F1200
G1 X37.331Y69.769Z0F1200
G1 X37.494Y69.52Z0F1200
G1 X37.625Y69.307Z0F1200
G1 X37.7Y69.179Z0F1200
G1 X37.79Y69.004Z0F1200
G1 X37.872Y68.809Z0F1200
G1 X37.941Y68.567Z0F1200
G1 X37.997Y68.284Z0F1200
G1 X38Y67.874Z0F1200
G1 X37.937Y67.511Z0F1200
G1 X37.839Y67.233Z0F1200
G1 X38.544Y66.887Z0F1200
G1 X39.25Y66.476Z0F1200
G1 X39.942Y66.009Z0F1200
G1 X40.621Y65.488Z0F1200
G1 X41.291Y64.913Z0F1200
G1 X41.769Y64.456Z0F1200
G1 X42.223Y63.972Z0F1200
G1 X42.648Y63.465Z0F1200
G1 X43.052Y62.932Z0F1200
G1 X43.589Y62.123Z0F1200
G1 X44.068Y61.273Z0F1200
G1 X44.479Y60.396Z0F1200
G1 X44.818Y59.498Z0F1200
G1 X45.078Y58.582Z0F1200
G1 X45.251Y57.654Z0F1200
G1 X45.329Y56.719Z0F1200
G1 X45.301Y55.785Z0F1200
G1 X45.157Y54.848Z0F1200
G1 X45.081Y54.578Z0F1200
G1 X45.237Y54.69Z0F1200
G1 X45.41Y54.81Z0F1200
G1 X45.58Y54.921Z0F1200
G1 X45.709Y54.996Z0F1200
G1 X45.885Y55.086Z0F1200
G1 X46.146Y55.18Z0F1200
G1 X46.366Y55.226Z0F1200
G1 X46.59Y55.262Z0F1200
G1 X47.009Y55.256Z0F1200
G1 X47.333Y55.186Z0F1200
G1 X47.545Y55.116Z0F1200
G1 X47.735Y55.032Z0F1200
G1 X47.938Y54.917Z0F1200
G1 X48.077Y54.818Z0F1200
G1 X48.205Y54.716Z0F1200
G1 X48.322Y54.609Z0F1200
G1 X48.452Y54.473Z0F1200
G1 X48.56Y54.351Z0F1200
G1 X48.757Y54.116Z0F1200
G1 X48.991Y53.828Z0F1200
G1 X49.253Y53.491Z0F1200
G1 X49.54Y53.114Z0F1200
G1 X49.847Y52.703Z0F1200
G1 X50.169Y52.267Z0F1200
G1 X51.817Y50.014Z0F1200
G1 X52.111Y49.375Z0F1200
G1 X52.144Y48.53Z0F1200
G1 X51.857Y47.733Z0F1200
G1 X51.383Y47.213Z0F1200
G1 X45.233Y42.714Z0F1200
G1 X48.156Y38.718Z0F1200
G1 X48.966Y39.312Z0F1200
G1 X54.306Y43.218Z0F1200
G1 X54.944Y43.512Z0F1200
G1 X55.791Y43.545Z0F1200
G1 X56.586Y43.258Z0F1200
G1 X57.105Y42.784Z0F1200
G1 X58.756Y40.529Z0F1200
G1 X59.994Y38.884Z0F1200
G1 X61.501Y39.965Z0F1200
G1 X62.091Y40.269Z0F1200
G1 X62.967Y40.338Z0F1200
G1 X63.808Y40.032Z0F1200
G1 X64.332Y39.537Z0F1200
G1 X65.337Y38.163Z0F1200
G1 X66.679Y36.359Z0F1200
G1 X66.977Y35.704Z0F1200
G1 X67.002Y34.846Z0F1200
G1 X66.699Y34.042Z0F1200
G1 X66.206Y33.523Z0F1200
G1 X64.415Y32.284Z0F1200
G1 X64.721Y32.062Z0F1200
G1 X65.183Y31.717Z0F1200
G1 X65.789Y31.234Z0F1200
G1 X66.342Y30.692Z0F1200
G1 X66.642Y30.346Z0F1200
G1 X66.938Y29.978Z0F1200
G1 X67.101Y29.766Z0F1200
G1 X67.272Y29.54Z0F1200
G1 X67.654Y29.027Z0F1200
G1 X67.901Y28.69Z0F1200
G1 X68.129Y28.372Z0F1200
G1 X68.337Y28.073Z0F1200
G0 Z2.8F500
G0 X73.98Y16.066Z2.8F1500
G1 Z0F500
G1 X79.32Y18.406Z0F1200
G1 X81.431Y19.334Z0F1200
G1 X82.006Y19.587Z0F1200
G1 X78.725Y24.086Z0F1200
G1 X75.262Y28.827Z0F1200
G1 X71.067Y34.563Z0F1200
G1 X66.258Y41.137Z0F1200
G1 X60.951Y48.388Z0F1200
G1 X55.044Y56.454Z0F1200
G1 Y56.46Z0F1200
G1 X28.535Y92.646Z0F1200
G1 X5.968Y66.803Z0F1200
G1 X5.994Y66.79Z0F1200
G1 X6.664Y66.456Z0F1200
G1 X7.336Y66.107Z0F1200
G1 X7.99Y65.755Z0F1200
G1 X8.61Y65.408Z0F1200
G1 X9.176Y65.074Z0F1200
G1 X10.169Y64.448Z0F1200
G1 X11.151Y63.782Z0F1200
G1 X12.121Y63.075Z0F1200
G1 X13.081Y62.327Z0F1200
G1 X14.032Y61.536Z0F1200
G1 X14.978Y60.7Z0F1200
G1 X15.921Y59.817Z0F1200
G1 X16.871Y58.88Z0F1200
G1 X17.19Y58.542Z0F1200
G1 X17.543Y58.143Z0F1200
G1 X17.923Y57.692Z0F1200
G1 X18.331Y57.193Z0F1200
G1 X19.189Y56.101Z0F1200
G1 X20.081Y54.92Z0F1200
G1 X20.95Y53.725Z0F1200
G1 X21.742Y52.588Z0F1200
G1 X22.098Y52.056Z0F1200
G1 X22.416Y51.563Z0F1200
G1 X22.692Y51.111Z0F1200
G1 X22.924Y50.704Z0F1200
G1 X23.851Y48.877Z0F1200
G1 X24.682Y47.037Z0F1200
G1 X25.416Y45.187Z0F1200
G1 X26.047Y43.34Z0F1200
G1 X26.329Y42.401Z0F1200
G1 X26.582Y41.473Z0F1200
G1 X26.81Y40.545Z0F1200
G1 X27.012Y39.619Z0F1200
G1 X27.187Y38.693Z0F1200
G1 X27.335Y37.771Z0F1200
G1 X27.457Y36.853Z0F1200
G1 X27.549Y35.954Z0F1200
G1 X27.562Y35.815Z0F1200
G1 X27.574Y35.81Z0F1200
G1 X28.283Y35.501Z0F1200
G1 X29.063Y35.132Z0F1200
G1 X29.88Y34.722Z0F1200
G1 X30.712Y34.282Z0F1200
G1 X31.539Y33.825Z0F1200
G1 X32.34Y33.361Z0F1200
G1 X33.092Y32.901Z0F1200
G1 X33.777Y32.457Z0F1200
G1 X34.728Y31.789Z0F1200
G1 X35.685Y31.068Z0F1200
G1 X36.641Y30.301Z0F1200
G1 X37.586Y29.496Z0F1200
G1 X38.513Y28.66Z0F1200
G1 X39.412Y27.802Z0F1200
G1 X40.274Y26.928Z0F1200
G1 X41.088Y26.049Z0F1200
G1 X41.334Y25.768Z0F1200
G1 X41.597Y25.453Z0F1200
G1 X41.876Y25.108Z0F1200
G1 X42.172Y24.733Z0F1200
G1 X42.789Y23.929Z0F1200
G1 X43.427Y23.071Z0F1200
G1 X44.052Y22.203Z0F1200
G1 X44.632Y21.372Z0F1200
G1 X44.899Y20.976Z0F1200
G1 X45.144Y20.605Z0F1200
G1 X45.364Y20.259Z0F1200
G1 X45.557Y19.942Z0F1200
G1 X46.085Y19.017Z0F1200
G1 X46.59Y18.073Z0F1200
G1 X47.07Y17.114Z0F1200
G1 X47.524Y16.142Z0F1200
G1 X47.953Y15.158Z0F1200
G1 X48.355Y14.164Z0F1200
G1 X48.73Y13.163Z0F1200
G1 X49.078Y12.156Z0F1200
G1 X49.396Y11.144Z0F1200
G1 X49.687Y10.131Z0F1200
G1 X49.946Y9.117Z0F1200
G1 X50.176Y8.104Z0F1200
G1 X50.375Y7.095Z0F1200
G1 X50.541Y6.09Z0F1200
G1 X50.572Y5.856Z0F1200
G1 X52.342Y6.624Z0F1200
G1 X55.865Y8.156Z0F1200
G1 X61.53Y10.625Z0F1200
G1 X67.742Y13.338Z0F1200
G1 X73.98Y16.066Z0F1200
G0 Z2.8F500
G0 X79.643Y17.674Z2.8F1500
G1 Z0F500
G1 X81.752Y18.601Z0F1200
G1 X83.237Y19.256Z0F1200
G1 X82.944Y19.66Z0F1200
G1 X79.372Y24.557Z0F1200
G1 X75.908Y29.299Z0F1200
G1 X71.713Y35.036Z0F1200
G1 X66.904Y41.61Z0F1200
G1 X61.597Y48.861Z0F1200
G1 X55.798Y56.778Z0F1200
G1 Y56.784Z0F1200
G1 X28.59Y93.924Z0F1200
G1 X4.669Y66.531Z0F1200
G1 X5.008Y66.376Z0F1200
G1 X5.643Y66.071Z0F1200
G1 X6.301Y65.743Z0F1200
G1 X6.962Y65.4Z0F1200
G1 X7.605Y65.054Z0F1200
G1 X8.211Y64.714Z0F1200
G1 X8.76Y64.391Z0F1200
G1 X9.731Y63.778Z0F1200
G1 X10.691Y63.127Z0F1200
G1 X11.64Y62.436Z0F1200
G1 X12.579Y61.704Z0F1200
G1 X13.511Y60.928Z0F1200
G1 X14.439Y60.107Z0F1200
G1 X15.367Y59.24Z0F1200
G1 X16.299Y58.321Z0F1200
G1 X16.599Y58.002Z0F1200
G1 X16.938Y57.619Z0F1200
G1 X17.308Y57.181Z0F1200
G1 X17.707Y56.693Z0F1200
G1 X18.556Y55.613Z0F1200
G1 X19.438Y54.444Z0F1200
G1 X20.298Y53.261Z0F1200
G1 X21.081Y52.138Z0F1200
G1 X21.429Y51.617Z0F1200
G1 X21.738Y51.138Z0F1200
G1 X22.003Y50.705Z0F1200
G1 X22.219Y50.325Z0F1200
G1 X23.129Y48.531Z0F1200
G1 X23.945Y46.725Z0F1200
G1 X24.665Y44.91Z0F1200
G1 X25.285Y43.095Z0F1200
G1 X25.56Y42.181Z0F1200
G1 X25.808Y41.272Z0F1200
G1 X26.03Y40.365Z0F1200
G1 X26.228Y39.459Z0F1200
G1 X26.399Y38.555Z0F1200
G1 X26.543Y37.655Z0F1200
G1 X26.662Y36.759Z0F1200
G1 X26.753Y35.875Z0F1200
G1 X26.802Y35.351Z0F1200
G1 X26.811Y35.263Z0F1200
G1 X26.822Y35.258Z0F1200
G1 X27.259Y35.074Z0F1200
G1 X27.952Y34.772Z0F1200
G1 X28.713Y34.413Z0F1200
G1 X29.514Y34.011Z0F1200
G1 X30.332Y33.578Z0F1200
G1 X31.145Y33.129Z0F1200
G1 X31.931Y32.673Z0F1200
G1 X32.666Y32.224Z0F1200
G1 X33.329Y31.793Z0F1200
G1 X34.257Y31.142Z0F1200
G1 X35.194Y30.437Z0F1200
G1 X36.131Y29.685Z0F1200
G1 X37.059Y28.894Z0F1200
G1 X37.969Y28.074Z0F1200
G1 X38.851Y27.231Z0F1200
G1 X39.696Y26.375Z0F1200
G1 X40.493Y25.515Z0F1200
G1 X40.726Y25.248Z0F1200
G1 X40.979Y24.944Z0F1200
G1 X41.251Y24.608Z0F1200
G1 X41.541Y24.242Z0F1200
G1 X42.15Y23.447Z0F1200
G1 X42.781Y22.599Z0F1200
G1 X43.399Y21.74Z0F1200
G1 X43.972Y20.918Z0F1200
G1 X44.234Y20.532Z0F1200
G1 X44.472Y20.17Z0F1200
G1 X44.685Y19.836Z0F1200
G1 X44.868Y19.536Z0F1200
G1 X45.385Y18.629Z0F1200
G1 X45.879Y17.705Z0F1200
G1 X46.35Y16.766Z0F1200
G1 X46.795Y15.813Z0F1200
G1 X47.216Y14.848Z0F1200
G1 X47.61Y13.874Z0F1200
G1 X47.978Y12.892Z0F1200
G1 X48.318Y11.905Z0F1200
G1 X48.63Y10.914Z0F1200
G1 X48.914Y9.921Z0F1200
G1 X49.169Y8.929Z0F1200
G1 X49.394Y7.938Z0F1200
G1 X49.587Y6.952Z0F1200
G1 X49.75Y5.972Z0F1200
G1 X49.88Y5Z0F1200
G1 X49.91Y4.699Z0F1200
G1 X50.793Y5.08Z0F1200
G1 X52.66Y5.889Z0F1200
G1 X56.185Y7.422Z0F1200
G1 X61.85Y9.892Z0F1200
G1 X68.063Y12.605Z0F1200
G1 X74.301Y15.333Z0F1200
G1 X79.643Y17.674Z0F1200
G0 Z2.8F500
G0 X84.29Y19.168Z2.8F1500
G1 Z0F500
G1 X83.59Y20.131Z0F1200
G1 X80.018Y25.029Z0F1200
G1 X76.554Y29.771Z0F1200
G1 X72.359Y35.508Z0F1200
G1 X67.549Y42.082Z0F1200
G1 X62.242Y49.333Z0F1200
G1 X56.553Y57.103Z0F1200
G1 Y57.108Z0F1200
G1 X28.645Y95.204Z0F1200
G1 X3.344Y66.229Z0F1200
G1 X3.585Y66.13Z0F1200
G1 X4.093Y65.915Z0F1200
G1 X4.668Y65.652Z0F1200
G1 X5.291Y65.353Z0F1200
G1 X5.938Y65.03Z0F1200
G1 X6.588Y64.692Z0F1200
G1 X7.22Y64.353Z0F1200
G1 X7.813Y64.021Z0F1200
G1 X8.343Y63.708Z0F1200
G1 X9.293Y63.109Z0F1200
G1 X10.231Y62.473Z0F1200
G1 X11.158Y61.797Z0F1200
G1 X12.077Y61.081Z0F1200
G1 X12.99Y60.321Z0F1200
G1 X13.901Y59.516Z0F1200
G1 X14.813Y58.663Z0F1200
G1 X15.727Y57.762Z0F1200
G1 X16.008Y57.463Z0F1200
G1 X16.332Y57.096Z0F1200
G1 X16.693Y56.669Z0F1200
G1 X17.083Y56.192Z0F1200
G1 X17.922Y55.125Z0F1200
G1 X18.795Y53.968Z0F1200
G1 X19.646Y52.797Z0F1200
G1 X20.42Y51.687Z0F1200
G1 X20.76Y51.177Z0F1200
G1 X21.061Y50.711Z0F1200
G1 X21.314Y50.298Z0F1200
G1 X21.514Y49.946Z0F1200
G1 X22.408Y48.186Z0F1200
G1 X23.208Y46.413Z0F1200
G1 X23.914Y44.633Z0F1200
G1 X24.523Y42.851Z0F1200
G1 X24.791Y41.96Z0F1200
G1 X25.033Y41.071Z0F1200
G1 X25.251Y40.184Z0F1200
G1 X25.444Y39.299Z0F1200
G1 X25.611Y38.417Z0F1200
G1 X25.752Y37.54Z0F1200
G1 X25.867Y36.666Z0F1200
G1 X25.957Y35.797Z0F1200
G1 X26.006Y35.269Z0F1200
G1 X26.063Y34.716Z0F1200
G1 X26.502Y34.524Z0F1200
G1 X26.945Y34.339Z0F1200
G1 X27.621Y34.044Z0F1200
G1 X28.362Y33.693Z0F1200
G1 X29.147Y33.299Z0F1200
G1 X29.951Y32.875Z0F1200
G1 X30.75Y32.433Z0F1200
G1 X31.521Y31.986Z0F1200
G1 X32.239Y31.547Z0F1200
G1 X32.881Y31.13Z0F1200
G1 X33.786Y30.495Z0F1200
G1 X34.703Y29.805Z0F1200
G1 X35.621Y29.068Z0F1200
G1 X36.532Y28.292Z0F1200
G1 X37.425Y27.487Z0F1200
G1 X38.29Y26.661Z0F1200
G1 X39.118Y25.822Z0F1200
G1 X39.898Y24.98Z0F1200
G1 X40.117Y24.729Z0F1200
G1 X40.361Y24.437Z0F1200
G1 X40.626Y24.108Z0F1200
G1 X40.91Y23.75Z0F1200
G1 X41.512Y22.965Z0F1200
G1 X42.136Y22.126Z0F1200
G1 X42.747Y21.278Z0F1200
G1 X43.313Y20.466Z0F1200
G1 X43.568Y20.087Z0F1200
G1 X43.801Y19.735Z0F1200
G1 X44.005Y19.414Z0F1200
G1 X44.178Y19.129Z0F1200
G1 X44.685Y18.242Z0F1200
G1 X45.169Y17.337Z0F1200
G1 X45.629Y16.417Z0F1200
G1 X46.066Y15.483Z0F1200
G1 X46.478Y14.538Z0F1200
G1 X46.864Y13.583Z0F1200
G1 X47.225Y12.622Z0F1200
G1 X47.558Y11.654Z0F1200
G1 X47.864Y10.684Z0F1200
G1 X48.142Y9.712Z0F1200
G1 X48.391Y8.741Z0F1200
G1 X48.611Y7.773Z0F1200
G1 X48.8Y6.81Z0F1200
G1 X48.958Y5.854Z0F1200
G1 X49.085Y4.906Z0F1200
G1 X49.205Y3.707Z0F1200
G1 X49.228Y3.534Z0F1200
G1 X51.112Y4.346Z0F1200
G1 X52.979Y5.155Z0F1200
G1 X56.505Y6.689Z0F1200
G1 X62.17Y9.159Z0F1200
G1 X68.383Y11.872Z0F1200
G1 X74.623Y14.601Z0F1200
G1 X79.964Y16.941Z0F1200
G1 X82.075Y17.869Z0F1200
G1 X83.692Y18.583Z0F1200
G1 X84.464Y18.926Z0F1200
G1 X84.29Y19.168Z0F1200
M9
G1 Z10 F500
G1 X40 Y80 F1200
M5
G90
G1 Z10 F500
G1 X80 F1200
