;LightBurn 1.6.04
;Custom GCode device profile, absolute coords
;Bounds: X8.58 Y10.43 to X65.42 Y33.57
G00 G17 G40 G21 G54
G90
M3
G1 Z1F500
;Cut @ 15 mm/sec, 90% power

M8
G0 Z0.8F500
G0 X17.902Y19.523Z0.8F1000
G1 Z0F500
;Layer Blue
G1 X17.868Y19.545Z0S900F800
G1 X17.849Y19.573Z0F800
G1 X17.75Y19.739Z0F800
G1 X17.574Y20.038Z0F800
G1 X16.862Y21.266Z0F800
G1 X16.087Y22.612Z0F800
G1 X13.514Y27.097Z0F800
G1 X15.828Y27.12Z0F800
G1 X16.247Z0F800
G1 X16.564Z0F800
G1 X16.795Y27.112Z0F800
G1 X16.954Y27.099Z0F800
G1 X17.057Y27.08Z0F800
G1 X17.119Y27.054Z0F800
G1 X17.155Y27.02Z0F800
G1 X17.196Y26.951Z0F800
G1 X17.413Y26.567Z0F800
G1 X17.77Y25.921Z0F800
G1 X18.225Y25.091Z0F800
G1 X19.712Y22.358Z0F800
G1 X20.161Y23.281Z0F800
G1 X20.906Y24.808Z0F800
G1 X22.078Y27.199Z0F800
G1 X23.291Z0F800
G1 X23.762Y27.195Z0F800
G1 X24.147Y27.184Z0F800
G1 X24.295Y27.176Z0F800
G1 X24.406Y27.168Z0F800
G1 X24.477Y27.158Z0F800
G1 X24.501Y27.148Z0F800
G1 X24.49Y27.123Z0F800
G1 X24.41Y26.961Z0F800
G1 X24.259Y26.663Z0F800
G1 X23.621Y25.426Z0F800
G1 X22.912Y24.061Z0F800
G1 X20.529Y19.495Z0F800
G1 X18.896Y19.473Z0F800
G1 X18.614Z0F800
G1 X18.384Z0F800
G1 X18.203Y19.481Z0F800
G1 X18.065Y19.491Z0F800
G1 X17.966Y19.505Z0F800
G1 X17.902Y19.523Z0F800
G0 Z0.8F500
G0 X27.636Y24.43Z0.8F1000
G1 Z0F500
G1 X27.674Y24.402Z0F800
G1 X27.757Y24.381Z0F800
G1 X27.902Y24.366Z0F800
G1 X28.125Y24.356Z0F800
G1 X28.444Y24.351Z0F800
G1 X29.136Y24.348Z0F800
G1 X31.239Z0F800
G1 X31.195Y24.603Z0F800
G1 X31.099Y24.904Z0F800
G1 X30.928Y25.175Z0F800
G1 X30.685Y25.41Z0F800
G1 X30.376Y25.604Z0F800
G1 X30.142Y25.711Z0F800
G1 X29.939Y25.773Z0F800
G1 X29.708Y25.801Z0F800
G1 X29.391Y25.807Z0F800
G1 X29.165Y25.802Z0F800
G1 X28.966Y25.785Z0F800
G1 X28.789Y25.754Z0F800
G1 X28.631Y25.708Z0F800
G1 X28.351Y25.565Z0F800
G1 X28.087Y25.341Z0F800
G1 X27.923Y25.141Z0F800
G1 X27.776Y24.898Z0F800
G1 X27.67Y24.658Z0F800
G1 X27.628Y24.467Z0F800
G1 X27.636Y24.43Z0F800
G0 Z0.8F500
G0 X27.925Y22.648Z0.8F1000
G1 Z0F500
G1 X27.724Y22.637Z0F800
G1 X27.67Y22.632Z0F800
G1 X27.648Y22.627Z0F800
G1 X27.63Y22.575Z0F800
G1 X27.634Y22.484Z0F800
G1 X27.657Y22.366Z0F800
G1 X27.696Y22.231Z0F800
G1 X27.809Y21.946Z0F800
G1 X27.945Y21.712Z0F800
G1 X28.15Y21.499Z0F800
G1 X28.422Y21.296Z0F800
G1 X28.724Y21.125Z0F800
G1 X29.017Y21.012Z0F800
G1 X29.358Y20.953Z0F800
G1 X29.76Y20.935Z0F800
G1 X30.165Y20.958Z0F800
G1 X30.511Y21.022Z0F800
G1 X30.685Y21.083Z0F800
G1 X30.847Y21.17Z0F800
G1 X31.008Y21.288Z0F800
G1 X31.176Y21.442Z0F800
G1 X31.502Y21.769Z0F800
G1 X34.228Z0F800
G1 X34.187Y21.562Z0F800
G1 X34.097Y21.329Z0F800
G1 X33.941Y21.059Z0F800
G1 X33.677Y20.733Z0F800
G1 X33.356Y20.435Z0F800
G1 X32.979Y20.168Z0F800
G1 X32.551Y19.932Z0F800
G1 X32.074Y19.73Z0F800
G1 X31.55Y19.561Z0F800
G1 X30.983Y19.428Z0F800
G1 X30.376Y19.332Z0F800
G1 X29.837Y19.278Z0F800
G1 X29.367Y19.269Z0F800
G1 X29.122Y19.283Z0F800
G1 X28.85Y19.309Z0F800
G1 X28.537Y19.348Z0F800
G1 X28.17Y19.4Z0F800
G1 X27.699Y19.485Z0F800
G1 X27.257Y19.596Z0F800
G1 X26.844Y19.733Z0F800
G1 X26.46Y19.894Z0F800
G1 X26.106Y20.081Z0F800
G1 X25.782Y20.292Z0F800
G1 X25.489Y20.526Z0F800
G1 X25.228Y20.783Z0F800
G1 X24.998Y21.062Z0F800
G1 X24.801Y21.364Z0F800
G1 X24.636Y21.686Z0F800
G1 X24.505Y22.03Z0F800
G1 X24.408Y22.394Z0F800
G1 X24.345Y22.777Z0F800
G1 X24.317Y23.18Z0F800
G1 X24.325Y23.601Z0F800
G1 X24.36Y23.971Z0F800
G1 X24.424Y24.323Z0F800
G1 X24.515Y24.657Z0F800
G1 X24.634Y24.975Z0F800
G1 X24.78Y25.275Z0F800
G1 X24.953Y25.557Z0F800
G1 X25.154Y25.823Z0F800
G1 X25.381Y26.07Z0F800
G1 X25.636Y26.3Z0F800
G1 X25.918Y26.512Z0F800
G1 X26.227Y26.706Z0F800
G1 X26.562Y26.882Z0F800
G1 X26.924Y27.04Z0F800
G1 X27.313Y27.179Z0F800
G1 X27.728Y27.301Z0F800
G1 X28.17Y27.404Z0F800
G1 X28.808Y27.499Z0F800
G1 X29.457Y27.527Z0F800
G1 X29.943Y27.504Z0F800
G1 X30.423Y27.446Z0F800
G1 X30.889Y27.354Z0F800
G1 X31.337Y27.229Z0F800
G1 X31.761Y27.072Z0F800
G1 X32.155Y26.884Z0F800
G1 X32.512Y26.667Z0F800
G1 X32.829Y26.422Z0F800
G1 X33.115Y26.136Z0F800
G1 X33.371Y25.809Z0F800
G1 X33.596Y25.442Z0F800
G1 X33.789Y25.038Z0F800
G1 X33.95Y24.598Z0F800
G1 X34.078Y24.125Z0F800
G1 X34.172Y23.619Z0F800
G1 X34.231Y23.084Z0F800
G1 X34.257Y22.737Z0F800
G1 X30.316Y22.699Z0F800
G1 X29.137Y22.681Z0F800
G1 X28.645Y22.67Z0F800
G1 X28.237Y22.659Z0F800
G1 X27.925Y22.648Z0F800
G0 Z0.8F500
G0 X35.47Y24.036Z0.8F1000
G1 Z0F500
G1 X35.46Y25.406Z0F800
G1 Y26.228Z0F800
G1 Y26.649Z0F800
G1 Y26.949Z0F800
G1 X35.467Y27.113Z0F800
G1 X35.471Y27.139Z0F800
G1 X35.51Y27.151Z0F800
G1 X35.608Y27.162Z0F800
G1 X35.759Y27.173Z0F800
G1 X35.955Y27.181Z0F800
G1 X36.19Y27.189Z0F800
G1 X36.458Y27.194Z0F800
G1 X36.752Y27.198Z0F800
G1 X37.065Z0F800
G1 X38.623Z0F800
G1 Y21.497Z0F800
G1 X42.835Z0F800
G1 X42.797Y19.495Z0F800
G1 X35.522Y19.46Z0F800
G1 X35.47Y24.036Z0F800
G0 Z0.8F500
G0 X44.122Y22.606Z0.8F1000
G1 Z0F500
G1 Y27.199Z0F800
G1 X47.243Z0F800
G1 Y19.461Z0F800
G1 X45.727Z0F800
G1 X45.135Y19.465Z0F800
G1 X44.643Y19.474Z0F800
G1 X44.451Y19.481Z0F800
G1 X44.303Y19.488Z0F800
G1 X44.206Y19.497Z0F800
G1 X44.166Y19.506Z0F800
G1 X44.161Y19.53Z0F800
G1 X44.157Y19.593Z0F800
G1 X44.153Y19.692Z0F800
G1 X44.144Y19.991Z0F800
G1 X44.137Y20.411Z0F800
G1 X44.128Y21.233Z0F800
G1 X44.122Y22.606Z0F800
G0 Z0.8F500
G0 X50.026Y21.708Z0.8F1000
G1 Z0F500
G1 X50.049Y21.72Z0F800
G1 X50.116Y21.732Z0F800
G1 X50.222Y21.742Z0F800
G1 X50.362Y21.751Z0F800
G1 X50.726Y21.764Z0F800
G1 X51.171Y21.769Z0F800
G1 X52.316Z0F800
G1 X52.431Y21.466Z0F800
G1 X52.573Y21.201Z0F800
G1 X52.773Y20.973Z0F800
G1 X53.01Y20.801Z0F800
G1 X53.265Y20.703Z0F800
G1 X53.413Y20.682Z0F800
G1 X53.626Y20.666Z0F800
G1 X53.875Y20.655Z0F800
G1 X54.133Y20.652Z0F800
G1 X54.449Y20.659Z0F800
G1 X54.679Y20.683Z0F800
G1 X54.86Y20.729Z0F800
G1 X55.027Y20.803Z0F800
G1 X55.201Y20.91Z0F800
G1 X55.339Y21.029Z0F800
G1 X55.44Y21.156Z0F800
G1 X55.504Y21.288Z0F800
G1 X55.528Y21.421Z0F800
G1 X55.512Y21.552Z0F800
G1 X55.455Y21.678Z0F800
G1 X55.356Y21.795Z0F800
G1 X55.267Y21.866Z0F800
G1 X55.152Y21.933Z0F800
G1 X55.002Y21.999Z0F800
G1 X54.809Y22.067Z0F800
G1 X54.563Y22.14Z0F800
G1 X54.257Y22.221Z0F800
G1 X53.88Y22.313Z0F800
G1 X52.95Y22.527Z0F800
G1 X52.543Y22.626Z0F800
G1 X52.195Y22.716Z0F800
G1 X51.896Y22.801Z0F800
G1 X51.415Y22.963Z0F800
G1 X51.03Y23.133Z0F800
G1 X50.756Y23.286Z0F800
G1 X50.521Y23.446Z0F800
G1 X50.326Y23.617Z0F800
G1 X50.167Y23.799Z0F800
G1 X50.046Y23.994Z0F800
G1 X49.96Y24.203Z0F800
G1 X49.909Y24.427Z0F800
G1 X49.891Y24.668Z0F800
G1 X49.934Y25.081Z0F800
G1 X50.064Y25.473Z0F800
G1 X50.278Y25.843Z0F800
G1 X50.573Y26.186Z0F800
G1 X50.947Y26.501Z0F800
G1 X51.395Y26.783Z0F800
G1 X51.916Y27.031Z0F800
G1 X52.506Y27.241Z0F800
G1 X52.869Y27.342Z0F800
G1 X53.204Y27.398Z0F800
G1 X53.401Y27.414Z0F800
G1 X53.64Y27.423Z0F800
G1 X53.934Y27.428Z0F800
G1 X54.302Y27.431Z0F800
G1 X54.753Z0F800
G1 X55.128Y27.42Z0F800
G1 X55.443Y27.4Z0F800
G1 X55.716Y27.365Z0F800
G1 X56.203Y27.241Z0F800
G1 X56.725Y27.027Z0F800
G1 X57.016Y26.876Z0F800
G1 X57.287Y26.699Z0F800
G1 X57.534Y26.501Z0F800
G1 X57.754Y26.285Z0F800
G1 X57.944Y26.055Z0F800
G1 X58.1Y25.814Z0F800
G1 X58.218Y25.566Z0F800
G1 X58.296Y25.315Z0F800
G1 X58.36Y25.027Z0F800
G1 X56.033Z0F800
G1 X55.896Y25.315Z0F800
G1 X55.816Y25.458Z0F800
G1 X55.722Y25.573Z0F800
G1 X55.605Y25.669Z0F800
G1 X55.455Y25.754Z0F800
G1 X55.094Y25.885Z0F800
G1 X54.646Y25.978Z0F800
G1 X54.181Y26.024Z0F800
G1 X53.767Y26.011Z0F800
G1 X53.383Y25.931Z0F800
G1 X53.085Y25.805Z0F800
G1 X52.875Y25.644Z0F800
G1 X52.759Y25.46Z0F800
G1 X52.738Y25.363Z0F800
G1 X52.741Y25.265Z0F800
G1 X52.769Y25.166Z0F800
G1 X52.824Y25.069Z0F800
G1 X52.904Y24.974Z0F800
G1 X53.012Y24.883Z0F800
G1 X53.147Y24.798Z0F800
G1 X53.31Y24.721Z0F800
G1 X53.383Y24.696Z0F800
G1 X53.49Y24.668Z0F800
G1 X53.628Y24.637Z0F800
G1 X53.789Y24.605Z0F800
G1 X54.165Y24.539Z0F800
G1 X55.061Y24.408Z0F800
G1 X55.513Y24.326Z0F800
G1 X55.933Y24.234Z0F800
G1 X56.32Y24.13Z0F800
G1 X56.674Y24.016Z0F800
G1 X56.997Y23.891Z0F800
G1 X57.287Y23.755Z0F800
G1 X57.546Y23.607Z0F800
G1 X57.774Y23.447Z0F800
G1 X57.97Y23.276Z0F800
G1 X58.136Y23.093Z0F800
G1 X58.271Y22.897Z0F800
G1 X58.375Y22.69Z0F800
G1 X58.45Y22.47Z0F800
G1 X58.495Y22.237Z0F800
G1 X58.51Y21.992Z0F800
G1 X58.498Y21.741Z0F800
G1 X58.461Y21.5Z0F800
G1 X58.4Y21.272Z0F800
G1 X58.315Y21.054Z0F800
G1 X58.205Y20.849Z0F800
G1 X58.072Y20.656Z0F800
G1 X57.915Y20.475Z0F800
G1 X57.735Y20.307Z0F800
G1 X57.532Y20.151Z0F800
G1 X57.305Y20.008Z0F800
G1 X57.056Y19.877Z0F800
G1 X56.784Y19.76Z0F800
G1 X56.49Y19.656Z0F800
G1 X56.174Y19.566Z0F800
G1 X55.836Y19.489Z0F800
G1 X55.476Y19.427Z0F800
G1 X55.18Y19.391Z0F800
G1 X54.828Y19.364Z0F800
G1 X54.443Y19.346Z0F800
G1 X54.043Y19.337Z0F800
G1 X53.652Z0F800
G1 X53.288Y19.346Z0F800
G1 X52.974Y19.365Z0F800
G1 X52.73Y19.395Z0F800
G1 X52.232Y19.501Z0F800
G1 X51.784Y19.642Z0F800
G1 X51.384Y19.819Z0F800
G1 X51.036Y20.03Z0F800
G1 X50.738Y20.274Z0F800
G1 X50.493Y20.552Z0F800
G1 X50.301Y20.861Z0F800
G1 X50.163Y21.203Z0F800
G1 X50.11Y21.38Z0F800
G1 X50.066Y21.534Z0F800
G1 X50.037Y21.649Z0F800
G1 X50.026Y21.708Z0F800
G0 Z0.8F500
G0 X48.768Y25.417Z0.8F1000
G1 Z0F500
G1 X48.601Y25.396Z0F800
G1 X48.507Y25.415Z0F800
G1 X48.477Y25.489Z0F800
G1 X48.465Y25.608Z0F800
G1 X48.475Y25.678Z0F800
G1 X48.506Y25.733Z0F800
G1 X48.56Y25.774Z0F800
G1 X48.637Y25.802Z0F800
G1 X48.757Y25.866Z0F800
G1 X48.853Y25.983Z0F800
G1 X48.917Y26.14Z0F800
G1 X48.94Y26.321Z0F800
G1 X48.925Y26.392Z0F800
G1 X48.857Y26.431Z0F800
G1 X48.793Y26.442Z0F800
G1 X48.704Y26.448Z0F800
G1 X48.584Y26.451Z0F800
G1 X47.922Z0F800
G1 Y27.878Z0F800
G1 X49.765Z0F800
G1 X49.735Y26.729Z0F800
G1 X49.726Y26.514Z0F800
G1 X49.714Y26.349Z0F800
G1 X49.697Y26.223Z0F800
G1 X49.637Y26.045Z0F800
G1 X49.531Y25.887Z0F800
G1 X49.342Y25.684Z0F800
G1 X49.157Y25.546Z0F800
G1 X48.968Y25.47Z0F800
G1 X48.768Y25.417Z0F800
G0 Z0.8F500
G0 X50.498Y33.567Z0.8F1000
G1 Z0F500
G1 X36.984Y33.562Z0F800
G1 X8.58Y33.545Z0F800
G1 X13.778Y10.454Z0F800
G1 X13.821Y10.474Z0F800
G1 X13.936Y10.541Z0F800
G1 X14.105Y10.643Z0F800
G1 X14.312Y10.77Z0F800
G1 X14.582Y10.931Z0F800
G1 X14.902Y11.11Z0F800
G1 X15.257Y11.3Z0F800
G1 X15.635Y11.494Z0F800
G1 X16.02Y11.686Z0F800
G1 X16.4Y11.867Z0F800
G1 X16.76Y12.032Z0F800
G1 X17.087Y12.173Z0F800
G1 X18.317Y12.636Z0F800
G1 X19.607Y13.025Z0F800
G1 X20.28Y13.194Z0F800
G1 X20.974Y13.346Z0F800
G1 X21.692Y13.481Z0F800
G1 X22.434Y13.602Z0F800
G1 X22.658Y13.629Z0F800
G1 X22.934Y13.653Z0F800
G1 X23.256Y13.674Z0F800
G1 X23.615Y13.692Z0F800
G1 X24.416Y13.718Z0F800
G1 X25.277Y13.73Z0F800
G1 X26.136Z0F800
G1 X26.934Y13.712Z0F800
G1 X27.291Y13.698Z0F800
G1 X27.61Y13.681Z0F800
G1 X27.882Y13.66Z0F800
G1 X28.102Y13.635Z0F800
G1 X29.242Y13.449Z0F800
G1 X30.354Y13.214Z0F800
G1 X31.437Y12.933Z0F800
G1 X32.487Y12.605Z0F800
G1 X33.5Y12.232Z0F800
G1 X34.475Y11.815Z0F800
G1 X35.408Y11.355Z0F800
G1 X36.296Y10.853Z0F800
G1 X36.568Y10.69Z0F800
G1 X36.885Y10.505Z0F800
G1 X37.002Y10.442Z0F800
G1 X37.023Y10.433Z0F800
G1 X37.086Y10.464Z0F800
G1 X37.232Y10.546Z0F800
G1 X37.44Y10.668Z0F800
G1 X37.687Y10.818Z0F800
G1 X38.053Y11.031Z0F800
G1 X38.472Y11.258Z0F800
G1 X38.929Y11.492Z0F800
G1 X39.408Y11.725Z0F800
G1 X39.893Y11.951Z0F800
G1 X40.37Y12.16Z0F800
G1 X40.823Y12.348Z0F800
G1 X41.236Y12.505Z0F800
G1 X41.845Y12.712Z0F800
G1 X42.486Y12.905Z0F800
G1 X43.15Y13.083Z0F800
G1 X43.831Y13.245Z0F800
G1 X45.209Y13.512Z0F800
G1 X46.554Y13.69Z0F800
G1 X46.741Y13.706Z0F800
G1 X46.959Y13.719Z0F800
G1 X47.203Y13.731Z0F800
G1 X47.47Y13.74Z0F800
G1 X48.051Y13.753Z0F800
G1 X48.668Y13.757Z0F800
G1 X49.286Y13.753Z0F800
G1 X49.867Y13.74Z0F800
G1 X50.134Y13.731Z0F800
G1 X50.378Y13.719Z0F800
G1 X50.596Y13.706Z0F800
G1 X50.783Y13.69Z0F800
G1 X51.968Y13.539Z0F800
G1 X53.151Y13.322Z0F800
G1 X54.322Y13.043Z0F800
G1 X55.47Y12.705Z0F800
G1 X56.587Y12.31Z0F800
G1 X57.661Y11.864Z0F800
G1 X58.683Y11.367Z0F800
G1 X59.642Y10.825Z0F800
G1 X59.838Y10.706Z0F800
G1 X59.988Y10.617Z0F800
G1 X60.1Y10.557Z0F800
G1 X60.178Y10.522Z0F800
G1 X60.264Y10.519Z0F800
G1 X60.298Y10.592Z0F800
G1 X60.451Y11.256Z0F800
G1 X60.986Y13.625Z0F800
G1 X61.745Y17.005Z0F800
G1 X63.083Y22.987Z0F800
G1 X64.357Y28.711Z0F800
G1 X65.004Y31.633Z0F800
G1 X65.312Y33.035Z0F800
G1 X65.408Y33.488Z0F800
G1 X65.42Y33.549Z0F800
G1 X65.269Y33.552Z0F800
G1 X64.128Y33.557Z0F800
G1 X61.964Y33.561Z0F800
G1 X58.893Y33.564Z0F800
G1 X50.498Y33.567Z0F800
M5
G1 Z1F500
M9
G90
G1 Z1F500
G1 Z2 F500;         ; Raise brush slightly
G0 X22 Y0 F1000;     ; Move across cleaning area
G1 Z5 F500;         ; Raise brush completely
G0 X20 Y110 Z10 F1000;; Move to parking position with Z at safe height
M2;                 ; End program
