;LightBurn 1.6.04
;Custom GCode device profile, absolute coords
;Bounds: X2.16 Y3.69 to X85.11 Y37
G00 G17 G40 G21 G54
G90
M3
G1 Z10 F500
;Offset @ 1500 mm/min, 90% power

M8
G0 Z2.8F500
G0 X34.482Y24.201Z2.8F1500
G1 Z0F500
;Layer Blue
G1 X34.361Y24.463Z0S900F1200
G1 X34.186Y24.708Z0F1200
G1 X33.946Y24.929Z0F1200
G1 X33.631Y25.121Z0F1200
G1 X33.463Y25.204Z0F1200
G1 X33.327Y25.266Z0F1200
G1 X33.21Y25.31Z0F1200
G1 X33.097Y25.339Z0F1200
G1 X32.973Y25.356Z0F1200
G1 X32.824Y25.365Z0F1200
G1 X32.635Z0F1200
G1 X32.392Z0F1200
G1 X32.085Y25.361Z0F1200
G1 X31.831Y25.345Z0F1200
G1 X31.62Y25.314Z0F1200
G1 X31.44Y25.266Z0F1200
G1 X31.28Y25.195Z0F1200
G1 X31.13Y25.099Z0F1200
G1 X30.978Y24.974Z0F1200
G1 X30.813Y24.815Z0F1200
G1 X30.63Y24.586Z0F1200
G1 X30.443Y24.277Z0F1200
G1 X30.43Y24.246Z0F1200
G1 X30.419Y24.213Z0F1200
G1 X30.561Y24.208Z0F1200
G1 X30.92Y24.2Z0F1200
G1 X31.408Y24.195Z0F1200
G1 X32.06Z0F1200
G1 X34.482Y24.201Z0F1200
G0 Z2.8F500
G0 X39.622Y24.245Z2.8F1500
G1 Z0F500
G1 X39.824Y23.503Z0F1200
G1 X39.973Y22.716Z0F1200
G1 X40.067Y21.886Z0F1200
G1 X40.105Y21.373Z0F1200
G1 X40.078Y21.169Z0F1200
G1 X39.976Y21.001Z0F1200
G1 X39.816Y20.885Z0F1200
G1 X39.616Y20.841Z0F1200
G1 X34.759Y20.781Z0F1200
G1 X33.783Y20.767Z0F1200
G1 X32.87Y20.751Z0F1200
G1 X32.041Y20.734Z0F1200
G1 X31.315Y20.716Z0F1200
G1 X30.792Y20.7Z0F1200
G1 X30.38Y20.685Z0F1200
G1 X30.448Y20.506Z0F1200
G1 X30.525Y20.333Z0F1200
G1 X30.6Y20.188Z0F1200
G1 X30.661Y20.091Z0F1200
G1 X30.759Y19.983Z0F1200
G1 X30.897Y19.861Z0F1200
G1 X31.065Y19.733Z0F1200
G1 X31.252Y19.605Z0F1200
G1 X31.643Y19.379Z0F1200
G1 X31.99Y19.237Z0F1200
G1 X32.176Y19.2Z0F1200
G1 X32.409Y19.174Z0F1200
G1 X32.673Y19.159Z0F1200
G1 X32.954Y19.156Z0F1200
G1 X33.236Y19.164Z0F1200
G1 X33.503Y19.183Z0F1200
G1 X33.742Y19.213Z0F1200
G1 X33.936Y19.255Z0F1200
G1 X34.129Y19.323Z0F1200
G1 X34.307Y19.418Z0F1200
G1 X34.491Y19.557Z0F1200
G1 X34.702Y19.755Z0F1200
G1 X35.183Y20.239Z0F1200
G1 X35.259Y20.301Z0F1200
G1 X35.344Y20.347Z0F1200
G1 X35.437Y20.375Z0F1200
G1 X35.534Y20.385Z0F1200
G1 X39.572Y20.397Z0F1200
G1 X39.79Y20.348Z0F1200
G1 X39.957Y20.217Z0F1200
G1 X40.054Y20.027Z0F1200
G1 X40.061Y19.804Z0F1200
G1 X40Y19.499Z0F1200
G1 X39.931Y19.249Z0F1200
G1 X39.83Y19.015Z0F1200
G1 X39.705Y18.791Z0F1200
G1 X39.561Y18.571Z0F1200
G1 X39.355Y18.293Z0F1200
G1 X39.127Y18.028Z0F1200
G1 X38.876Y17.777Z0F1200
G1 X38.605Y17.54Z0F1200
G1 X38.002Y17.106Z0F1200
G1 X37.323Y16.728Z0F1200
G1 X36.572Y16.406Z0F1200
G1 X35.754Y16.14Z0F1200
G1 X34.875Y15.932Z0F1200
G1 X33.94Y15.782Z0F1200
G1 X33.507Y15.732Z0F1200
G1 X33.115Y15.699Z0F1200
G1 X32.745Y15.683Z0F1200
G1 X32.377Z0F1200
G1 X31.992Y15.704Z0F1200
G1 X31.57Y15.742Z0F1200
G1 X31.092Y15.799Z0F1200
G1 X30.54Y15.875Z0F1200
G1 X29.81Y16.004Z0F1200
G1 X29.12Y16.176Z0F1200
G1 X28.471Y16.389Z0F1200
G1 X27.863Y16.643Z0F1200
G1 X27.3Y16.938Z0F1200
G1 X26.781Y17.273Z0F1200
G1 X26.309Y17.649Z0F1200
G1 X25.883Y18.064Z0F1200
G1 X25.509Y18.519Z0F1200
G1 X25.188Y19.008Z0F1200
G1 X24.919Y19.532Z0F1200
G1 X24.705Y20.089Z0F1200
G1 X24.545Y20.675Z0F1200
G1 X24.441Y21.291Z0F1200
G1 X24.394Y21.932Z0F1200
G1 X24.402Y22.598Z0F1200
G1 X24.458Y23.184Z0F1200
G1 X24.56Y23.747Z0F1200
G1 X24.706Y24.286Z0F1200
G1 X24.896Y24.8Z0F1200
G1 X25.131Y25.289Z0F1200
G1 X25.411Y25.749Z0F1200
G1 X25.734Y26.181Z0F1200
G1 X26.101Y26.583Z0F1200
G1 X26.51Y26.955Z0F1200
G1 X26.959Y27.295Z0F1200
G1 X27.449Y27.605Z0F1200
G1 X27.977Y27.885Z0F1200
G1 X28.544Y28.135Z0F1200
G1 X29.149Y28.354Z0F1200
G1 X29.792Y28.544Z0F1200
G1 X30.471Y28.706Z0F1200
G1 X30.967Y28.795Z0F1200
G1 X31.47Y28.858Z0F1200
G1 X31.976Y28.894Z0F1200
G1 X32.482Y28.904Z0F1200
G1 X33.24Y28.872Z0F1200
G1 X33.987Y28.785Z0F1200
G1 X34.716Y28.645Z0F1200
G1 X35.419Y28.452Z0F1200
G1 X36.087Y28.206Z0F1200
G1 X36.713Y27.908Z0F1200
G1 X37.289Y27.56Z0F1200
G1 X37.806Y27.16Z0F1200
G1 X38.274Y26.694Z0F1200
G1 X38.69Y26.167Z0F1200
G1 X39.054Y25.58Z0F1200
G1 X39.365Y24.938Z0F1200
G1 X39.622Y24.245Z0F1200
G0 Z2.8F500
G0 X78.537Y30.326Z2.8F1500
G1 Z0F500
G1 X78.793Y31.494Z0F1200
G1 X78.902Y31.993Z0F1200
G1 X78.491Z0F1200
G1 X76.594Y31.987Z0F1200
G1 X76.895Y31.795Z0F1200
G1 X77.699Y31.161Z0F1200
G1 X78.446Y30.436Z0F1200
G1 X78.537Y30.326Z0F1200
G0 Z2.8F500
G0 X78.851Y28.194Z2.8F1500
G1 Z0F500
G1 X79.017Y27.844Z0F1200
G1 X79.771Y31.284Z0F1200
G1 X80.145Y32.995Z0F1200
G1 X78.489Y32.992Z0F1200
G1 X73.337Y32.979Z0F1200
G1 X67.706Y32.963Z0F1200
G1 X67.729Y32.836Z0F1200
G1 X68.128Y32.854Z0F1200
G1 X68.651Y32.867Z0F1200
G1 X69.242Y32.874Z0F1200
G1 X69.634Z0F1200
G1 X70.007Z0F1200
G1 X70.362Y32.866Z0F1200
G1 X70.74Y32.853Z0F1200
G1 X71.423Y32.805Z0F1200
G1 X72.125Y32.714Z0F1200
G1 X72.828Y32.57Z0F1200
G1 X73.502Y32.374Z0F1200
G1 X74.132Y32.143Z0F1200
G1 X74.776Y31.865Z0F1200
G1 X75.541Y31.474Z0F1200
G1 X76.314Y30.979Z0F1200
G1 X77.04Y30.407Z0F1200
G1 X77.71Y29.757Z0F1200
G1 X78.319Y29.021Z0F1200
G1 X78.851Y28.194Z0F1200
G0 Z2.8F500
G0 X79.541Y25.568Z2.8F1500
G1 Z0F500
G1 X80.748Y31.067Z0F1200
G1 X81.387Y33.997Z0F1200
G1 X78.486Y33.992Z0F1200
G1 X73.334Y33.979Z0F1200
G1 X65.953Y33.958Z0F1200
G1 X65.957Z0F1200
G1 X66.72Y32.794Z0F1200
G1 X66.914Y31.742Z0F1200
G1 X67.201Y31.791Z0F1200
G1 X67.697Y31.833Z0F1200
G1 X68.164Y31.855Z0F1200
G1 X68.669Y31.867Z0F1200
G1 X69.25Y31.874Z0F1200
G1 X69.632Z0F1200
G1 X69.993Z0F1200
G1 X70.335Y31.866Z0F1200
G1 X70.688Y31.854Z0F1200
G1 X71.324Y31.81Z0F1200
G1 X71.96Y31.727Z0F1200
G1 X72.588Y31.598Z0F1200
G1 X73.19Y31.423Z0F1200
G1 X73.761Y31.213Z0F1200
G1 X74.35Y30.959Z0F1200
G1 X75.042Y30.605Z0F1200
G1 X75.734Y30.163Z0F1200
G1 X76.38Y29.654Z0F1200
G1 X76.975Y29.077Z0F1200
G1 X77.51Y28.43Z0F1200
G1 X77.975Y27.708Z0F1200
G1 X78.354Y26.908Z0F1200
G1 X78.589Y26.144Z0F1200
G1 X78.786Y25.264Z0F1200
G1 X78.775Y24.012Z0F1200
G1 X78.345Y23.133Z0F1200
G1 X78.544Y22.741Z0F1200
G1 X78.774Y22.085Z0F1200
G1 X79.541Y25.568Z0F1200
G0 Z2.8F500
G0 X50.22Y31.907Z2.8F1500
G1 Z0F500
G1 X50.014Z0F1200
G1 X50.117Y31.753Z0F1200
G1 X50.22Y31.907Z0F1200
G0 Z2.8F500
G0 X52.417Y32.203Z2.8F1500
G1 Z0F500
G1 X53.785Y32.484Z0F1200
G1 X55.84Y32.491Z0F1200
G1 X55.906Y32.927Z0F1200
G1 X42.462Y32.88Z0F1200
G1 X42.458Z0F1200
G1 X33.66Y32.85Z0F1200
G1 X34.596Y32.742Z0F1200
G1 X35.626Y32.543Z0F1200
G1 X36.642Y32.264Z0F1200
G1 X37.64Y31.897Z0F1200
G1 X38.614Y31.434Z0F1200
G1 X38.637Y31.42Z0F1200
G1 X38.961Y31.653Z0F1200
G1 X39.334Y31.867Z0F1200
G1 X39.757Y32.061Z0F1200
G1 X40.1Y32.174Z0F1200
G1 X40.402Y32.258Z0F1200
G1 X40.711Y32.317Z0F1200
G1 X40.989Y32.356Z0F1200
G1 X41.211Y32.377Z0F1200
G1 X41.542Y32.401Z0F1200
G1 X41.918Y32.42Z0F1200
G1 X42.327Y32.434Z0F1200
G1 X42.771Y32.444Z0F1200
G1 X43.239Y32.45Z0F1200
G1 X43.728Y32.454Z0F1200
G1 X46.446Y32.461Z0F1200
G1 X47.812Y32.188Z0F1200
G1 X49.28Y31.207Z0F1200
G1 X50.122Y29.962Z0F1200
G1 X50.956Y31.209Z0F1200
G1 X52.417Y32.203Z0F1200
G0 Z2.8F500
G0 X39.369Y11.323Z2.8F1500
G1 Z0F500
G1 X38.595Y11.833Z0F1200
G1 X38.333Y11.721Z0F1200
G1 X38.26Y11.697Z0F1200
G1 X38.787Y11.535Z0F1200
G1 X39.369Y11.323Z0F1200
G0 Z2.8F500
G0 X74.338Y11.26Z2.8F1500
G1 Z0F500
G1 X74.438Y11.71Z0F1200
G1 X74.241Y11.64Z0F1200
G1 X73.715Y11.488Z0F1200
G1 X73.723Y11.485Z0F1200
G1 X74.338Y11.26Z0F1200
G0 Z2.8F500
G0 X75.46Y11.7Z2.8F1500
G1 Z0F500
G1 X75.838Y13.412Z0F1200
G1 X75.341Y13.149Z0F1200
G1 X74.645Y12.845Z0F1200
G1 X73.934Y12.592Z0F1200
G1 X73.212Y12.384Z0F1200
G1 X72.481Y12.216Z0F1200
G1 X71.729Y12.083Z0F1200
G1 X71.084Y12.001Z0F1200
G1 X70.407Y11.943Z0F1200
G1 X69.715Y11.905Z0F1200
G1 X69.016Y11.885Z0F1200
G1 X68.545Z0F1200
G1 X68.549Z0F1200
G1 X70.514Y11.421Z0F1200
G1 X72.419Y10.867Z0F1200
G1 X73.393Y10.541Z0F1200
G1 X74.328Y10.2Z0F1200
G1 X75.063Y9.909Z0F1200
G1 X75.46Y11.7Z0F1200
G0 Z2.8F500
G0 X13.648Y11.28Z2.8F1500
G1 Z0F500
G1 X13.249Y11.395Z0F1200
G1 X13.042Y11.513Z0F1200
G1 X13.137Y11.094Z0F1200
G1 X13.179Y11.11Z0F1200
G1 X13.648Y11.28Z0F1200
G0 Z2.8F500
G0 X15.188Y11.979Z2.8F1500
G1 Z0F500
G1 X14.782Y12.036Z0F1200
G1 X14.41Y12.102Z0F1200
G1 X13.641Y12.322Z0F1200
G1 X12.683Y12.871Z0F1200
G1 X11.996Y13.53Z0F1200
G1 X11.508Y14.157Z0F1200
G1 X11.391Y14.396Z0F1200
G1 X11.337Y14.486Z0F1200
G1 X12.423Y9.73Z0F1200
G1 X12.5Y9.763Z0F1200
G1 X13.534Y10.175Z0F1200
G1 X14.596Y10.559Z0F1200
G1 X15.68Y10.909Z0F1200
G1 X16.785Y11.227Z0F1200
G1 X17.915Y11.513Z0F1200
G1 X19.07Y11.77Z0F1200
G1 X20.253Y11.998Z0F1200
G1 X21.488Y12.201Z0F1200
G1 X21.982Y12.265Z0F1200
G1 X22.518Y12.315Z0F1200
G1 X23.084Y12.357Z0F1200
G1 X23.695Y12.392Z0F1200
G1 X24.963Y12.439Z0F1200
G1 X26.31Y12.464Z0F1200
G1 X27.603Z0F1200
G1 X27.073Y12.638Z0F1200
G1 X26.16Y13.02Z0F1200
G1 X25.283Y13.479Z0F1200
G1 X24.444Y14.021Z0F1200
G1 X23.659Y14.646Z0F1200
G1 X23.496Y14.806Z0F1200
G1 X23.159Y14.156Z0F1200
G1 X22.611Y13.385Z0F1200
G1 X21.682Y12.62Z0F1200
G1 X20.571Y12.123Z0F1200
G1 X19.636Y11.982Z0F1200
G1 X16.928Y11.937Z0F1200
G1 X16.456Y11.934Z0F1200
G1 X16.031Y11.938Z0F1200
G1 X15.632Y11.95Z0F1200
G1 X15.188Y11.979Z0F1200
G0 Z2.8F500
G0 X39.423Y11.303Z2.8F1500
G1 Z0F500
G1 X40.553Y10.892Z0F1200
G1 X42.266Y10.165Z0F1200
G1 X43.761Y9.433Z0F1200
G1 X44.11Y9.613Z0F1200
G1 X44.916Y10.009Z0F1200
G1 X45.731Y10.39Z0F1200
G1 X46.544Y10.75Z0F1200
G1 X47.24Y11.039Z0F1200
G1 X46.931Z0F1200
G1 X41.045Y10.989Z0F1200
G1 X39.423Y11.303Z0F1200
G0 Z2.8F500
G0 X35.653Y12.006Z2.8F1500
G1 Z0F500
G1 X34.486Y11.818Z0F1200
G1 X34.054Y11.769Z0F1200
G1 X34.89Y11.596Z0F1200
G1 X36.701Y11.131Z0F1200
G1 X38.468Y10.586Z0F1200
G1 X40.186Y9.961Z0F1200
G1 X41.851Y9.254Z0F1200
G1 X43.458Y8.468Z0F1200
G1 X43.753Y8.302Z0F1200
G1 X43.797Y8.326Z0F1200
G1 X44.561Y8.72Z0F1200
G1 X45.348Y9.107Z0F1200
G1 X46.146Y9.479Z0F1200
G1 X46.939Y9.831Z0F1200
G1 X47.715Y10.153Z0F1200
G1 X48.461Y10.439Z0F1200
G1 X49.51Y10.799Z0F1200
G1 X50.596Y11.131Z0F1200
G1 X51.708Y11.435Z0F1200
G1 X52.842Y11.708Z0F1200
G1 X53.984Y11.95Z0F1200
G1 X54.621Y12.065Z0F1200
G1 X54.54Y12.068Z0F1200
G1 X54.235Y12.083Z0F1200
G1 X54.036Y12.097Z0F1200
G1 X53.674Y12.135Z0F1200
G1 X53.349Y12.197Z0F1200
G1 X53.311Y12.207Z0F1200
G1 X52.705Y12.081Z0F1200
G1 X46.922Y12.037Z0F1200
G1 X41.137Y11.99Z0F1200
G1 X39.773Y12.254Z0F1200
G1 X38.696Y12.964Z0F1200
G1 X37.981Y12.658Z0F1200
G1 X36.834Y12.285Z0F1200
G1 X35.653Y12.006Z0F1200
G0 Z2.8F500
G0 X59.759Y28.638Z2.8F1500
G1 Z0F500
G1 X59.719Y28.83Z0F1200
G1 X59.716Y29.887Z0F1200
G1 X59.726Y31.442Z0F1200
G1 X59.755Y31.637Z0F1200
G1 X59.852Y31.794Z0F1200
G1 X60.009Y31.9Z0F1200
G1 X60.219Y31.939Z0F1200
G1 X61.585Y31.943Z0F1200
G1 X63.419Y31.963Z0F1200
G1 X63.615Y31.924Z0F1200
G1 X63.773Y31.815Z0F1200
G1 X63.879Y31.654Z0F1200
G1 X63.916Y31.458Z0F1200
G1 X63.864Y29.252Z0F1200
G1 X63.853Y28.923Z0F1200
G1 X63.833Y28.656Z0F1200
G1 X63.801Y28.428Z0F1200
G1 X63.746Y28.221Z0F1200
G1 X63.666Y28.035Z0F1200
G1 X63.57Y27.868Z0F1200
G1 X63.465Y27.719Z0F1200
G1 X63.368Y27.62Z0F1200
G1 X63.237Y27.524Z0F1200
G1 X63.08Y27.432Z0F1200
G1 X62.908Y27.345Z0F1200
G1 X62.271Y27.053Z0F1200
G1 X61.982Y26.913Z0F1200
G1 X61.69Y26.823Z0F1200
G1 X61.521Y26.794Z0F1200
G1 X61.242Y26.771Z0F1200
G1 X61.094Z0F1200
G1 X60.921Y26.816Z0F1200
G1 X60.736Y26.947Z0F1200
G1 X60.63Y27.07Z0F1200
G1 X60.582Y27.163Z0F1200
G1 X60.567Y27.236Z0F1200
G1 X60.558Y27.304Z0F1200
G1 X60.535Y27.441Z0F1200
G1 X60.528Y27.584Z0F1200
G1 X60.538Y27.71Z0F1200
G1 X60.569Y27.845Z0F1200
G1 X60.626Y27.978Z0F1200
G1 X60.71Y28.099Z0F1200
G1 X60.806Y28.188Z0F1200
G1 X60.909Y28.254Z0F1200
G1 X61.015Y28.301Z0F1200
G1 X61.12Y28.335Z0F1200
G1 X61.054Y28.338Z0F1200
G1 X60.969Z0F1200
G1 X60.216Z0F1200
G1 X60.023Y28.375Z0F1200
G1 X59.866Y28.48Z0F1200
G1 X59.759Y28.638Z0F1200
G0 Z2.8F500
G0 X63.536Y26.951Z2.8F1500
G1 Z0F500
G1 X63.813Y27.248Z0F1200
G1 X64.086Y27.497Z0F1200
G1 X64.358Y27.705Z0F1200
G1 X64.638Y27.879Z0F1200
G1 X64.936Y28.03Z0F1200
G1 X65.259Y28.166Z0F1200
G1 X65.617Y28.293Z0F1200
G1 X66.018Y28.424Z0F1200
G1 X66.472Y28.564Z0F1200
G1 X67.037Y28.72Z0F1200
G1 X67.581Y28.812Z0F1200
G1 X67.896Y28.839Z0F1200
G1 X68.27Y28.857Z0F1200
G1 X68.722Y28.868Z0F1200
G1 X69.273Y28.874Z0F1200
G1 X69.627Z0F1200
G1 X69.953Z0F1200
G1 X70.253Y28.867Z0F1200
G1 X70.53Y28.857Z0F1200
G1 X71.027Y28.823Z0F1200
G1 X71.465Y28.766Z0F1200
G1 X71.867Y28.684Z0F1200
G1 X72.254Y28.571Z0F1200
G1 X72.648Y28.426Z0F1200
G1 X73.072Y28.244Z0F1200
G1 X73.548Y28Z0F1200
G1 X73.994Y27.715Z0F1200
G1 X74.402Y27.394Z0F1200
G1 X74.767Y27.039Z0F1200
G1 X75.084Y26.656Z0F1200
G1 X75.347Y26.248Z0F1200
G1 X75.55Y25.819Z0F1200
G1 X75.687Y25.373Z0F1200
G1 X75.783Y24.944Z0F1200
G1 Y24.72Z0F1200
G1 X75.687Y24.526Z0F1200
G1 X75.519Y24.392Z0F1200
G1 X75.3Y24.34Z0F1200
G1 X71.854Y24.33Z0F1200
G1 X71.715Y24.349Z0F1200
G1 X71.589Y24.406Z0F1200
G1 X71.483Y24.494Z0F1200
G1 X71.405Y24.611Z0F1200
G1 X71.2Y25.04Z0F1200
G1 X71.122Y25.191Z0F1200
G1 X71.046Y25.291Z0F1200
G1 X70.94Y25.37Z0F1200
G1 X70.775Y25.458Z0F1200
G1 X70.584Y25.533Z0F1200
G1 X70.333Y25.604Z0F1200
G1 X70.041Y25.669Z0F1200
G1 X69.723Y25.724Z0F1200
G1 X69.398Y25.766Z0F1200
G1 X69.083Y25.791Z0F1200
G1 X68.796Y25.798Z0F1200
G1 X68.554Y25.783Z0F1200
G1 X68.297Y25.738Z0F1200
G1 X68.078Y25.678Z0F1200
G1 X67.895Y25.608Z0F1200
G1 X67.746Y25.533Z0F1200
G1 X67.63Y25.458Z0F1200
G1 X67.547Y25.39Z0F1200
G1 X67.493Y25.332Z0F1200
G1 X67.468Y25.291Z0F1200
G1 X67.458Y25.241Z0F1200
G1 X67.503Y25.161Z0F1200
G1 X67.567Y25.089Z0F1200
G1 X67.67Y25.004Z0F1200
G1 X67.817Y24.912Z0F1200
G1 X68.01Y24.819Z0F1200
G1 X68.19Y24.773Z0F1200
G1 X68.388Y24.726Z0F1200
G1 X68.624Y24.677Z0F1200
G1 X69.165Y24.584Z0F1200
G1 X70.494Y24.394Z0F1200
G1 X71.181Y24.272Z0F1200
G1 X71.823Y24.134Z0F1200
G1 X72.419Y23.978Z0F1200
G1 X72.971Y23.802Z0F1200
G1 X73.478Y23.605Z0F1200
G1 X73.942Y23.388Z0F1200
G1 X74.363Y23.149Z0F1200
G1 X74.74Y22.883Z0F1200
G1 X75.072Y22.59Z0F1200
G1 X75.356Y22.27Z0F1200
G1 X75.593Y21.926Z0F1200
G1 X75.78Y21.559Z0F1200
G1 X75.916Y21.172Z0F1200
G1 X75.999Y20.766Z0F1200
G1 X76.028Y20.343Z0F1200
G1 X76.008Y19.921Z0F1200
G1 X75.945Y19.514Z0F1200
G1 X75.84Y19.122Z0F1200
G1 X75.694Y18.748Z0F1200
G1 X75.507Y18.394Z0F1200
G1 X75.281Y18.061Z0F1200
G1 X75.016Y17.75Z0F1200
G1 X74.714Y17.465Z0F1200
G1 X74.377Y17.205Z0F1200
G1 X74.008Y16.968Z0F1200
G1 X73.605Y16.756Z0F1200
G1 X73.172Y16.567Z0F1200
G1 X72.707Y16.401Z0F1200
G1 X72.21Y16.258Z0F1200
G1 X71.684Y16.137Z0F1200
G1 X71.128Y16.039Z0F1200
G1 X70.662Y15.979Z0F1200
G1 X70.126Y15.934Z0F1200
G1 X69.548Y15.902Z0F1200
G1 X68.952Y15.885Z0F1200
G1 X68.364Z0F1200
G1 X67.81Y15.898Z0F1200
G1 X67.315Y15.93Z0F1200
G1 X66.904Y15.98Z0F1200
G1 X66.122Y16.146Z0F1200
G1 X65.404Y16.374Z0F1200
G1 X64.755Y16.663Z0F1200
G1 X64.18Y17.012Z0F1200
G1 X63.921Y17.209Z0F1200
G1 X63.682Y17.42Z0F1200
G1 X63.464Y17.646Z0F1200
G1 X63.267Y17.886Z0F1200
G1 X63.092Y18.141Z0F1200
G1 X62.938Y18.409Z0F1200
G1 X62.809Y18.692Z0F1200
G1 X62.702Y18.988Z0F1200
G1 X62.62Y19.257Z0F1200
G1 X62.552Y19.493Z0F1200
G1 X62.504Y19.681Z0F1200
G1 X62.484Y19.739Z0F1200
G1 X62.475Y19.881Z0F1200
G1 X62.523Y20.098Z0F1200
G1 X62.558Y20.153Z0F1200
G1 X62.614Y20.23Z0F1200
G1 X62.69Y20.297Z0F1200
G1 X62.748Y20.332Z0F1200
G1 X62.827Y20.366Z0F1200
G1 X62.879Y20.379Z0F1200
G1 X62.963Y20.398Z0F1200
G1 X63.04Y20.409Z0F1200
G1 X63.221Y20.428Z0F1200
G1 X63.44Y20.443Z0F1200
G1 X63.7Y20.456Z0F1200
G1 X63.995Y20.465Z0F1200
G1 X64.318Y20.471Z0F1200
G1 X64.664Y20.474Z0F1200
G1 X66.358Y20.479Z0F1200
G1 X66.506Y20.457Z0F1200
G1 X66.639Y20.393Z0F1200
G1 X66.747Y20.292Z0F1200
G1 X66.821Y20.163Z0F1200
G1 X66.996Y19.715Z0F1200
G1 X67.155Y19.435Z0F1200
G1 X67.384Y19.184Z0F1200
G1 X67.637Y18.994Z0F1200
G1 X67.874Y18.895Z0F1200
G1 X67.927Y18.887Z0F1200
G1 X68.025Y18.877Z0F1200
G1 X68.316Y18.856Z0F1200
G1 X68.681Y18.838Z0F1200
G1 X69.054Y18.832Z0F1200
G1 X69.294Y18.835Z0F1200
G1 X69.487Y18.841Z0F1200
G1 X69.64Y18.85Z0F1200
G1 X69.764Y18.865Z0F1200
G1 X69.96Y18.916Z0F1200
G1 X70.149Y19.005Z0F1200
G1 X70.343Y19.126Z0F1200
G1 X70.482Y19.246Z0F1200
G1 X70.57Y19.354Z0F1200
G1 X70.614Y19.439Z0F1200
G1 X70.632Y19.5Z0F1200
G1 Y19.548Z0F1200
G1 X70.6Y19.6Z0F1200
G1 X70.529Y19.672Z0F1200
G1 X70.448Y19.733Z0F1200
G1 X70.322Y19.8Z0F1200
G1 X70.138Y19.876Z0F1200
G1 X69.882Y19.963Z0F1200
G1 X69.543Y20.064Z0F1200
G1 X69.107Y20.18Z0F1200
G1 X68.848Y20.245Z0F1200
G1 X68.561Y20.313Z0F1200
G1 X68.242Y20.388Z0F1200
G1 X67.184Y20.628Z0F1200
G1 X66.572Y20.774Z0F1200
G1 X66.044Y20.909Z0F1200
G1 X65.588Y21.038Z0F1200
G1 X65.19Y21.162Z0F1200
G1 X64.84Y21.288Z0F1200
G1 X64.523Y21.417Z0F1200
G1 X64.229Y21.556Z0F1200
G1 X63.785Y21.801Z0F1200
G1 X63.394Y22.068Z0F1200
G1 X63.056Y22.362Z0F1200
G1 X62.773Y22.687Z0F1200
G1 X62.551Y23.043Z0F1200
G1 X62.393Y23.428Z0F1200
G1 X62.297Y23.836Z0F1200
G1 X62.263Y24.263Z0F1200
G1 X62.297Y24.642Z0F1200
G1 X62.399Y25.039Z0F1200
G1 X62.557Y25.444Z0F1200
G1 X62.76Y25.848Z0F1200
G1 X62.999Y26.241Z0F1200
G1 X63.261Y26.611Z0F1200
G1 X63.536Y26.951Z0F1200
G0 Z2.8F500
G0 X59.28Y28.23Z2.8F1500
G1 Z0F500
G1 X59.319Y28.038Z0F1200
G1 X59.354Y16.545Z0F1200
G1 X59.316Y16.353Z0F1200
G1 X59.21Y16.195Z0F1200
G1 X59.053Y16.088Z0F1200
G1 X58.86Y16.048Z0F1200
G1 X56.16Y16.042Z0F1200
G1 X55.732Z0F1200
G1 X55.341Y16.048Z0F1200
G1 X54.996Y16.055Z0F1200
G1 X54.705Y16.064Z0F1200
G1 X54.474Y16.076Z0F1200
G1 X54.381Y16.083Z0F1200
G1 X54.26Y16.095Z0F1200
G1 X54.211Y16.104Z0F1200
G1 X54.18Y16.112Z0F1200
G1 X54.137Y16.127Z0F1200
G1 X54.107Y16.139Z0F1200
G1 X54.069Y16.158Z0F1200
G1 X54.019Y16.188Z0F1200
G1 X53.951Y16.244Z0F1200
G1 X53.854Y16.382Z0F1200
G1 X53.827Y16.448Z0F1200
G1 X53.815Y16.487Z0F1200
G1 X53.804Y16.551Z0F1200
G1 X53.796Y16.636Z0F1200
G1 X53.785Y16.853Z0F1200
G1 X53.777Y17.054Z0F1200
G1 X53.771Y17.302Z0F1200
G1 X53.758Y17.927Z0F1200
G1 X53.747Y18.707Z0F1200
G1 X53.738Y19.619Z0F1200
G1 X53.727Y21.184Z0F1200
G1 X53.722Y22.324Z0F1200
G1 X53.705Y27.989Z0F1200
G1 X53.743Y28.181Z0F1200
G1 X53.849Y28.339Z0F1200
G1 X54.006Y28.446Z0F1200
G1 X54.198Y28.485Z0F1200
G1 X56.509Y28.493Z0F1200
G1 X58.823Y28.531Z0F1200
G1 X59.016Y28.493Z0F1200
G1 X59.173Y28.387Z0F1200
G1 X59.28Y28.23Z0F1200
G0 Z2.8F500
G0 X52.816Y19.53Z2.8F1500
G1 Z0F500
G1 X52.792Y18.048Z0F1200
G1 X52.77Y16.566Z0F1200
G1 X52.729Y16.376Z0F1200
G1 X52.623Y16.222Z0F1200
G1 X52.468Y16.117Z0F1200
G1 X52.278Y16.078Z0F1200
G1 X46.89Y16.037Z0F1200
G1 X41.504Y15.993Z0F1200
G1 X41.313Y16.03Z0F1200
G1 X41.155Y16.134Z0F1200
G1 X41.047Y16.29Z0F1200
G1 X41.006Y16.481Z0F1200
G1 X40.907Y23.258Z0F1200
G1 X40.894Y24.323Z0F1200
G1 X40.885Y25.291Z0F1200
G1 X40.879Y26.14Z0F1200
G1 Y26.845Z0F1200
G1 Y27.386Z0F1200
G1 X40.885Y27.743Z0F1200
G1 X40.891Y27.858Z0F1200
G1 X40.896Y27.917Z0F1200
G1 X40.905Y27.968Z0F1200
G1 X40.919Y28.018Z0F1200
G1 X40.946Y28.078Z0F1200
G1 X40.968Y28.121Z0F1200
G1 X41.03Y28.204Z0F1200
G1 X41.085Y28.253Z0F1200
G1 X41.131Y28.286Z0F1200
G1 X41.167Y28.307Z0F1200
G1 X41.222Y28.332Z0F1200
G1 X41.26Y28.345Z0F1200
G1 X41.318Y28.361Z0F1200
G1 X41.364Y28.37Z0F1200
G1 X41.453Y28.382Z0F1200
G1 X41.549Y28.391Z0F1200
G1 X41.787Y28.409Z0F1200
G1 X42.085Y28.423Z0F1200
G1 X42.44Y28.436Z0F1200
G1 X42.841Y28.444Z0F1200
G1 X43.281Y28.45Z0F1200
G1 X43.749Y28.454Z0F1200
G1 X46.056Y28.46Z0F1200
G1 X46.249Y28.422Z0F1200
G1 X46.406Y28.316Z0F1200
G1 X46.513Y28.159Z0F1200
G1 X46.552Y27.967Z0F1200
G1 X46.577Y20.016Z0F1200
G1 X52.319Y20.034Z0F1200
G1 X52.515Y19.994Z0F1200
G1 X52.673Y19.886Z0F1200
G1 X52.779Y19.726Z0F1200
G1 X52.816Y19.53Z0F1200
G0 Z2.8F500
G0 X19.658Y16.135Z2.8F1500
G1 Z0F500
G1 X19.556Y16.051Z0F1200
G1 X19.436Y15.997Z0F1200
G1 X19.303Y15.977Z0F1200
G1 X16.881Y15.937Z0F1200
G1 X16.459Y15.934Z0F1200
G1 X16.11Y15.937Z0F1200
G1 X15.826Y15.946Z0F1200
G1 X15.598Y15.961Z0F1200
G1 X15.405Y15.988Z0F1200
G1 X15.311Y16.004Z0F1200
G1 X15.209Y16.034Z0F1200
G1 X15.098Y16.097Z0F1200
G1 X14.975Y16.215Z0F1200
G1 X14.918Y16.288Z0F1200
G1 X14.907Y16.312Z0F1200
G1 X14.752Y16.568Z0F1200
G1 X14.127Y17.629Z0F1200
G1 X13.68Y18.396Z0F1200
G1 X12.274Y20.82Z0F1200
G1 X8.443Y27.452Z0F1200
G1 X8.391Y27.578Z0F1200
G1 X8.375Y27.706Z0F1200
G1 X8.394Y27.83Z0F1200
G1 X8.441Y27.945Z0F1200
G1 X8.515Y28.045Z0F1200
G1 X8.613Y28.124Z0F1200
G1 X8.731Y28.176Z0F1200
G1 X8.866Y28.196Z0F1200
G1 X12.294Y28.239Z0F1200
G1 X12.917Y28.244Z0F1200
G1 X13.395Z0F1200
G1 X13.587Y28.238Z0F1200
G1 X13.754Y28.231Z0F1200
G1 X14.024Y28.211Z0F1200
G1 X14.251Y28.167Z0F1200
G1 X14.48Y28.06Z0F1200
G1 X14.663Y27.896Z0F1200
G1 X14.717Y27.815Z0F1200
G1 X14.978Y27.357Z0F1200
G1 X15.613Y26.217Z0F1200
G1 X16.291Y24.989Z0F1200
G1 X18.043Y21.792Z0F1200
G1 X19.382Y24.561Z0F1200
G1 X21.109Y28.107Z0F1200
G1 X21.187Y28.223Z0F1200
G1 X21.292Y28.31Z0F1200
G1 X21.416Y28.366Z0F1200
G1 X21.554Y28.386Z0F1200
G1 X23.349Y28.391Z0F1200
G1 X23.714Z0F1200
G1 X24.055Y28.387Z0F1200
G1 X24.364Y28.381Z0F1200
G1 X24.637Y28.372Z0F1200
G1 X24.865Y28.361Z0F1200
G1 X25.049Y28.347Z0F1200
G1 X25.127Y28.339Z0F1200
G1 X25.206Y28.327Z0F1200
G1 X25.252Y28.316Z0F1200
G1 X25.324Y28.29Z0F1200
G1 X25.381Y28.264Z0F1200
G1 X25.464Y28.204Z0F1200
G1 X25.519Y28.148Z0F1200
G1 X25.577Y28.063Z0F1200
G1 X25.637Y27.789Z0F1200
G1 X25.619Y27.686Z0F1200
G1 X25.612Y27.665Z0F1200
G1 X25.585Y27.599Z0F1200
G1 X25.452Y27.327Z0F1200
G1 X24.912Y26.259Z0F1200
G1 X24.048Y24.574Z0F1200
G1 X23.244Y23.017Z0F1200
G1 X19.736Y16.244Z0F1200
G1 X19.658Y16.135Z0F1200
G0 Z2.8F500
G0 X19.386Y14.979Z2.8F1500
G1 Z0F500
G1 X16.893Y14.937Z0F1200
G1 X16.458Y14.934Z0F1200
G1 X16.09Y14.937Z0F1200
G1 X15.778Y14.947Z0F1200
G1 X15.495Y14.965Z0F1200
G1 X15.25Y15Z0F1200
G1 X15.086Y15.029Z0F1200
G1 X14.817Y15.106Z0F1200
G1 X14.494Y15.291Z0F1200
G1 X14.23Y15.544Z0F1200
G1 X14.066Y15.755Z0F1200
G1 X14.029Y15.832Z0F1200
G1 X13.893Y16.057Z0F1200
G1 X13.265Y17.123Z0F1200
G1 X12.815Y17.893Z0F1200
G1 X11.408Y20.319Z0F1200
G1 X7.543Y27.01Z0F1200
G1 X7.415Y27.323Z0F1200
G1 X7.367Y27.718Z0F1200
G1 X7.422Y28.096Z0F1200
G1 X7.564Y28.442Z0F1200
G1 X7.788Y28.743Z0F1200
G1 X8.087Y28.985Z0F1200
G1 X8.45Y29.146Z0F1200
G1 X8.786Y29.195Z0F1200
G1 X12.284Y29.239Z0F1200
G1 X12.915Y29.244Z0F1200
G1 X13.407Z0F1200
G1 X13.617Y29.237Z0F1200
G1 X13.811Y29.23Z0F1200
G1 X14.158Y29.204Z0F1200
G1 X14.563Y29.125Z0F1200
G1 X15.038Y28.902Z0F1200
G1 X15.423Y28.558Z0F1200
G1 X15.568Y28.342Z0F1200
G1 X15.85Y27.848Z0F1200
G1 X16.488Y26.702Z0F1200
G1 X17.167Y25.471Z0F1200
G1 X17.987Y23.974Z0F1200
G1 X18.482Y24.997Z0F1200
G1 X20.241Y28.609Z0F1200
G1 X20.438Y28.9Z0F1200
G1 X20.756Y29.167Z0F1200
G1 X21.135Y29.335Z0F1200
G1 X21.48Y29.386Z0F1200
G1 X23.348Y29.391Z0F1200
G1 X23.72Z0F1200
G1 X24.07Y29.387Z0F1200
G1 X24.391Y29.38Z0F1200
G1 X24.677Y29.371Z0F1200
G1 X24.928Y29.359Z0F1200
G1 X25.138Y29.343Z0F1200
G1 X25.253Y29.331Z0F1200
G1 X25.396Y29.309Z0F1200
G1 X25.539Y29.276Z0F1200
G1 X25.705Y29.215Z0F1200
G1 X25.885Y29.133Z0F1200
G1 X26.12Y28.964Z0F1200
G1 X26.294Y28.785Z0F1200
G1 X26.511Y28.469Z0F1200
G1 X26.564Y28.229Z0F1200
G1 X26.946Y28.471Z0F1200
G1 X27.541Y28.786Z0F1200
G1 X28.172Y29.063Z0F1200
G1 X28.837Y29.305Z0F1200
G1 X29.535Y29.511Z0F1200
G1 X30.267Y29.685Z0F1200
G1 X30.816Y29.784Z0F1200
G1 X31.373Y29.854Z0F1200
G1 X31.93Y29.894Z0F1200
G1 X32.494Y29.904Z0F1200
G1 X33.319Y29.869Z0F1200
G1 X34.139Y29.774Z0F1200
G1 X34.944Y29.62Z0F1200
G1 X35.725Y29.405Z0F1200
G1 X36.476Y29.129Z0F1200
G1 X37.188Y28.79Z0F1200
G1 X37.855Y28.385Z0F1200
G1 X38.466Y27.914Z0F1200
G1 X39.022Y27.361Z0F1200
G1 X39.511Y26.742Z0F1200
G1 X39.879Y26.147Z0F1200
G1 Y26.846Z0F1200
G1 Y27.396Z0F1200
G1 X39.885Y27.776Z0F1200
G1 X39.893Y27.934Z0F1200
G1 X39.904Y28.046Z0F1200
G1 X39.927Y28.186Z0F1200
G1 X39.978Y28.365Z0F1200
G1 X40.044Y28.511Z0F1200
G1 X40.115Y28.649Z0F1200
G1 X40.288Y28.882Z0F1200
G1 X40.458Y29.034Z0F1200
G1 X40.588Y29.128Z0F1200
G1 X40.709Y29.197Z0F1200
G1 X40.855Y29.264Z0F1200
G1 X40.97Y29.302Z0F1200
G1 X41.089Y29.335Z0F1200
G1 X41.201Y29.356Z0F1200
G1 X41.337Y29.375Z0F1200
G1 X41.465Y29.388Z0F1200
G1 X41.726Y29.407Z0F1200
G1 X42.044Y29.422Z0F1200
G1 X42.412Y29.435Z0F1200
G1 X42.824Y29.444Z0F1200
G1 X43.271Y29.45Z0F1200
G1 X43.743Y29.454Z0F1200
G1 X46.153Y29.461Z0F1200
G1 X46.639Y29.363Z0F1200
G1 X47.125Y29.039Z0F1200
G1 X47.452Y28.555Z0F1200
G1 X47.552Y28.07Z0F1200
G1 X47.574Y21.019Z0F1200
G1 X52.418Y21.034Z0F1200
G1 X52.728Y20.971Z0F1200
G1 Y21.178Z0F1200
G1 X52.722Y22.321Z0F1200
G1 X52.704Y28.086Z0F1200
G1 X52.802Y28.572Z0F1200
G1 X53.125Y29.056Z0F1200
G1 X53.609Y29.385Z0F1200
G1 X54.095Y29.485Z0F1200
G1 X56.493Y29.493Z0F1200
G1 X58.717Y29.529Z0F1200
G1 Y29.888Z0F1200
G1 X58.726Y31.521Z0F1200
G1 X58.797Y31.987Z0F1200
G1 X59.113Y32.501Z0F1200
G1 X59.622Y32.846Z0F1200
G1 X60.126Y32.939Z0F1200
G1 X61.574Y32.943Z0F1200
G1 X63.514Y32.964Z0F1200
G1 X64.013Y32.864Z0F1200
G1 X64.501Y32.528Z0F1200
G1 X64.826Y32.034Z0F1200
G1 X64.917Y31.537Z0F1200
G1 X64.864Y29.223Z0F1200
G1 X64.859Y29.082Z0F1200
G1 X64.897Y29.098Z0F1200
G1 X65.294Y29.24Z0F1200
G1 X65.716Y29.377Z0F1200
G1 X66.191Y29.524Z0F1200
G1 X66.82Y29.698Z0F1200
G1 X67.454Y29.805Z0F1200
G1 X67.83Y29.837Z0F1200
G1 X68.235Y29.856Z0F1200
G1 X68.704Y29.868Z0F1200
G1 X69.265Y29.874Z0F1200
G1 X69.628Z0F1200
G1 X69.966Z0F1200
G1 X70.28Y29.867Z0F1200
G1 X70.583Y29.856Z0F1200
G1 X71.126Y29.818Z0F1200
G1 X71.63Y29.753Z0F1200
G1 X72.107Y29.655Z0F1200
G1 X72.566Y29.522Z0F1200
G1 X73.019Y29.355Z0F1200
G1 X73.498Y29.149Z0F1200
G1 X74.046Y28.869Z0F1200
G1 X74.574Y28.531Z0F1200
G1 X75.062Y28.147Z0F1200
G1 X75.503Y27.718Z0F1200
G1 X75.893Y27.247Z0F1200
G1 X76.223Y26.734Z0F1200
G1 X76.484Y26.182Z0F1200
G1 X76.654Y25.63Z0F1200
G1 X76.784Y25.051Z0F1200
G1 X76.779Y24.484Z0F1200
G1 X76.487Y23.887Z0F1200
G1 X75.969Y23.47Z0F1200
G1 X75.666Y23.399Z0F1200
G1 X75.779Y23.299Z0F1200
G1 X76.145Y22.888Z0F1200
G1 X76.455Y22.438Z0F1200
G1 X76.701Y21.953Z0F1200
G1 X76.881Y21.439Z0F1200
G1 X76.992Y20.902Z0F1200
G1 X77.03Y20.354Z0F1200
G1 X77.005Y19.821Z0F1200
G1 X76.925Y19.308Z0F1200
G1 X76.792Y18.809Z0F1200
G1 X76.604Y18.331Z0F1200
G1 X76.365Y17.878Z0F1200
G1 X76.077Y17.453Z0F1200
G1 X75.742Y17.061Z0F1200
G1 X75.365Y16.704Z0F1200
G1 X74.954Y16.386Z0F1200
G1 X74.511Y16.104Z0F1200
G1 X74.039Y15.854Z0F1200
G1 X73.54Y15.637Z0F1200
G1 X73.013Y15.449Z0F1200
G1 X72.461Y15.289Z0F1200
G1 X71.883Y15.157Z0F1200
G1 X71.279Y15.05Z0F1200
G1 X70.767Y14.985Z0F1200
G1 X70.197Y14.936Z0F1200
G1 X69.59Y14.903Z0F1200
G1 X68.968Y14.885Z0F1200
G1 X68.352Z0F1200
G1 X67.765Y14.899Z0F1200
G1 X67.222Y14.934Z0F1200
G1 X66.739Y14.993Z0F1200
G1 X65.866Y15.178Z0F1200
G1 X65.048Y15.438Z0F1200
G1 X64.291Y15.775Z0F1200
G1 X63.616Y16.185Z0F1200
G1 X63.286Y16.436Z0F1200
G1 X62.99Y16.697Z0F1200
G1 X62.716Y16.98Z0F1200
G1 X62.467Y17.285Z0F1200
G1 X62.244Y17.608Z0F1200
G1 X62.048Y17.952Z0F1200
G1 X61.882Y18.313Z0F1200
G1 X61.753Y18.673Z0F1200
G1 X61.662Y18.972Z0F1200
G1 X61.586Y19.231Z0F1200
G1 X61.544Y19.397Z0F1200
G1 X61.496Y19.541Z0F1200
G1 X61.467Y19.958Z0F1200
G1 X61.585Y20.481Z0F1200
G1 X61.727Y20.711Z0F1200
G1 X61.87Y20.907Z0F1200
G1 X62.098Y21.109Z0F1200
G1 X62.292Y21.224Z0F1200
G1 X62.501Y21.314Z0F1200
G1 X62.646Y21.352Z0F1200
G1 X62.684Y21.36Z0F1200
G1 X62.347Y21.653Z0F1200
G1 X61.967Y22.09Z0F1200
G1 X61.659Y22.584Z0F1200
G1 X61.438Y23.121Z0F1200
G1 X61.306Y23.682Z0F1200
G1 X61.259Y24.269Z0F1200
G1 X61.309Y24.812Z0F1200
G1 X61.445Y25.345Z0F1200
G1 X61.622Y25.799Z0F1200
G1 X61.287Y25.771Z0F1200
G1 X60.966Z0F1200
G1 X60.49Y25.897Z0F1200
G1 X60.325Y26.013Z0F1200
G1 X60.355Y16.447Z0F1200
G1 X60.257Y15.96Z0F1200
G1 X59.933Y15.478Z0F1200
G1 X59.451Y15.148Z0F1200
G1 X58.963Y15.049Z0F1200
G1 X56.159Y15.042Z0F1200
G1 X55.724Z0F1200
G1 X55.325Y15.048Z0F1200
G1 X54.97Y15.056Z0F1200
G1 X54.663Y15.065Z0F1200
G1 X54.414Y15.078Z0F1200
G1 X54.295Y15.086Z0F1200
G1 X54.113Y15.105Z0F1200
G1 X53.996Y15.127Z0F1200
G1 X53.897Y15.152Z0F1200
G1 X53.792Y15.188Z0F1200
G1 X53.702Y15.224Z0F1200
G1 X53.583Y15.282Z0F1200
G1 X53.44Y15.371Z0F1200
G1 X53.308Y15.477Z0F1200
G1 X52.863Y15.178Z0F1200
G1 X52.385Y15.079Z0F1200
G1 X46.898Y15.037Z0F1200
G1 X41.413Y14.993Z0F1200
G1 X40.928Y15.086Z0F1200
G1 X40.442Y15.406Z0F1200
G1 X40.112Y15.884Z0F1200
G1 X40.007Y16.367Z0F1200
G1 X39.991Y17.499Z0F1200
G1 X39.861Y17.348Z0F1200
G1 X39.561Y17.047Z0F1200
G1 X39.228Y16.756Z0F1200
G1 X38.54Y16.261Z0F1200
G1 X37.764Y15.829Z0F1200
G1 X36.924Y15.469Z0F1200
G1 X36.024Y15.176Z0F1200
G1 X35.07Y14.951Z0F1200
G1 X34.077Y14.792Z0F1200
G1 X33.606Y14.737Z0F1200
G1 X33.179Y14.701Z0F1200
G1 X32.764Y14.683Z0F1200
G1 X32.35Z0F1200
G1 X31.922Y14.707Z0F1200
G1 X31.466Y14.747Z0F1200
G1 X30.965Y14.807Z0F1200
G1 X30.384Y14.887Z0F1200
G1 X29.602Y15.026Z0F1200
G1 X28.843Y15.214Z0F1200
G1 X28.121Y15.451Z0F1200
G1 X27.438Y15.737Z0F1200
G1 X26.795Y16.073Z0F1200
G1 X26.196Y16.46Z0F1200
G1 X25.646Y16.898Z0F1200
G1 X25.146Y17.387Z0F1200
G1 X24.703Y17.924Z0F1200
G1 X24.322Y18.504Z0F1200
G1 X24.005Y19.124Z0F1200
G1 X23.753Y19.777Z0F1200
G1 X23.567Y20.46Z0F1200
G1 X23.448Y21.17Z0F1200
G1 X23.443Y21.228Z0F1200
G1 X20.592Y15.722Z0F1200
G1 X20.396Y15.447Z0F1200
G1 X20.087Y15.193Z0F1200
G1 X19.72Y15.028Z0F1200
G1 X19.386Y14.979Z0F1200
G0 Z2.8F500
G0 X15.093Y14.012Z2.8F1500
G1 Z0F500
G1 X14.86Y14.053Z0F1200
G1 X14.425Y14.178Z0F1200
G1 X13.891Y14.484Z0F1200
G1 X13.486Y14.873Z0F1200
G1 X13.213Y15.223Z0F1200
G1 X13.148Y15.355Z0F1200
G1 X13.034Y15.545Z0F1200
G1 X12.402Y16.617Z0F1200
G1 X11.951Y17.39Z0F1200
G1 X10.543Y19.818Z0F1200
G1 X6.644Y26.568Z0F1200
G1 X6.438Y27.068Z0F1200
G1 X6.358Y27.729Z0F1200
G1 X6.45Y28.362Z0F1200
G1 X6.687Y28.938Z0F1200
G1 X7.062Y29.441Z0F1200
G1 X7.561Y29.846Z0F1200
G1 X8.169Y30.115Z0F1200
G1 X8.706Y30.194Z0F1200
G1 X12.274Y30.239Z0F1200
G1 X12.913Y30.244Z0F1200
G1 X13.419Z0F1200
G1 X13.646Y30.237Z0F1200
G1 X13.868Y30.229Z0F1200
G1 X14.291Y30.196Z0F1200
G1 X14.875Y30.083Z0F1200
G1 X15.596Y29.746Z0F1200
G1 X16.183Y29.219Z0F1200
G1 X16.418Y28.87Z0F1200
G1 X16.721Y28.338Z0F1200
G1 X17.362Y27.187Z0F1200
G1 X17.933Y26.152Z0F1200
G1 X19.373Y29.111Z0F1200
G1 X19.689Y29.577Z0F1200
G1 X20.222Y30.022Z0F1200
G1 X20.854Y30.305Z0F1200
G1 X21.406Y30.385Z0F1200
G1 X23.348Y30.391Z0F1200
G1 X23.725Z0F1200
G1 X24.085Y30.387Z0F1200
G1 X24.417Y30.38Z0F1200
G1 X24.718Y30.371Z0F1200
G1 X24.991Y30.357Z0F1200
G1 X25.226Y30.339Z0F1200
G1 X25.38Y30.324Z0F1200
G1 X25.584Y30.292Z0F1200
G1 X25.825Y30.236Z0F1200
G1 X26.086Y30.141Z0F1200
G1 X26.39Y30.001Z0F1200
G1 X26.775Y29.725Z0F1200
G1 X26.912Y29.584Z0F1200
G1 X27.105Y29.687Z0F1200
G1 X27.8Y29.992Z0F1200
G1 X28.524Y30.255Z0F1200
G1 X29.277Y30.478Z0F1200
G1 X30.062Y30.664Z0F1200
G1 X30.666Y30.773Z0F1200
G1 X31.275Y30.849Z0F1200
G1 X31.885Y30.893Z0F1200
G1 X32.506Y30.905Z0F1200
G1 X33.398Y30.867Z0F1200
G1 X34.292Y30.763Z0F1200
G1 X35.171Y30.594Z0F1200
G1 X36.03Y30.358Z0F1200
G1 X36.864Y30.052Z0F1200
G1 X37.664Y29.671Z0F1200
G1 X38.422Y29.211Z0F1200
G1 X39.045Y28.729Z0F1200
G1 X39.143Y28.943Z0F1200
G1 X39.262Y29.178Z0F1200
G1 X39.546Y29.56Z0F1200
G1 X39.831Y29.814Z0F1200
G1 X40.046Y29.97Z0F1200
G1 X40.251Y30.087Z0F1200
G1 X40.489Y30.196Z0F1200
G1 X40.68Y30.259Z0F1200
G1 X40.86Y30.309Z0F1200
G1 X41.038Y30.344Z0F1200
G1 X41.221Y30.369Z0F1200
G1 X41.38Y30.384Z0F1200
G1 X41.665Y30.405Z0F1200
G1 X42.002Y30.422Z0F1200
G1 X42.384Y30.435Z0F1200
G1 X42.806Y30.444Z0F1200
G1 X43.26Y30.45Z0F1200
G1 X43.738Y30.454Z0F1200
G1 X46.251Y30.461Z0F1200
G1 X47.03Y30.305Z0F1200
G1 X47.843Y29.762Z0F1200
G1 X48.392Y28.951Z0F1200
G1 X48.552Y28.173Z0F1200
G1 X48.57Y22.022Z0F1200
G1 X51.723Y22.032Z0F1200
G1 Y22.317Z0F1200
G1 X51.704Y28.184Z0F1200
G1 X51.86Y28.963Z0F1200
G1 X52.402Y29.774Z0F1200
G1 X53.211Y30.324Z0F1200
G1 X53.992Y30.485Z0F1200
G1 X56.503Y30.493Z0F1200
G1 X57.72Y30.513Z0F1200
G1 X57.727Y31.601Z0F1200
G1 X57.839Y32.338Z0F1200
G1 X58.373Y33.209Z0F1200
G1 X59.234Y33.791Z0F1200
G1 X60.032Y33.939Z0F1200
G1 X61.563Y33.943Z0F1200
G1 X63.608Y33.965Z0F1200
G1 X64.41Y33.804Z0F1200
G1 X65.229Y33.242Z0F1200
G1 X65.773Y32.414Z0F1200
G1 X65.92Y31.617Z0F1200
G1 X65.894Y30.479Z0F1200
G1 X65.91Y30.484Z0F1200
G1 X66.603Y30.675Z0F1200
G1 X67.327Y30.797Z0F1200
G1 X67.763Y30.835Z0F1200
G1 X68.199Y30.856Z0F1200
G1 X68.687Y30.867Z0F1200
G1 X69.257Y30.874Z0F1200
G1 X69.63Z0F1200
G1 X69.979Z0F1200
G1 X70.308Y30.867Z0F1200
G1 X70.635Y30.855Z0F1200
G1 X71.225Y30.814Z0F1200
G1 X71.795Y30.74Z0F1200
G1 X72.347Y30.626Z0F1200
G1 X72.878Y30.473Z0F1200
G1 X73.39Y30.285Z0F1200
G1 X73.924Y30.054Z0F1200
G1 X74.544Y29.737Z0F1200
G1 X75.154Y29.347Z0F1200
G1 X75.721Y28.9Z0F1200
G1 X76.239Y28.398Z0F1200
G1 X76.701Y27.838Z0F1200
G1 X77.099Y27.221Z0F1200
G1 X77.419Y26.545Z0F1200
G1 X77.622Y25.887Z0F1200
G1 X77.785Y25.157Z0F1200
G1 X77.777Y24.248Z0F1200
G1 X77.287Y23.247Z0F1200
G1 X77.174Y23.156Z0F1200
G1 X77.316Y22.95Z0F1200
G1 X77.623Y22.347Z0F1200
G1 X77.847Y21.707Z0F1200
G1 X77.985Y21.038Z0F1200
G1 X78.032Y20.365Z0F1200
G1 X78.001Y19.721Z0F1200
G1 X77.905Y19.101Z0F1200
G1 X77.743Y18.496Z0F1200
G1 X77.515Y17.914Z0F1200
G1 X77.224Y17.362Z0F1200
G1 X76.874Y16.846Z0F1200
G1 X76.468Y16.371Z0F1200
G1 X76.017Y15.943Z0F1200
G1 X75.53Y15.567Z0F1200
G1 X75.015Y15.238Z0F1200
G1 X74.473Y14.952Z0F1200
G1 X73.908Y14.706Z0F1200
G1 X73.32Y14.497Z0F1200
G1 X72.711Y14.321Z0F1200
G1 X72.083Y14.177Z0F1200
G1 X71.429Y14.061Z0F1200
G1 X70.873Y13.99Z0F1200
G1 X70.267Y13.938Z0F1200
G1 X69.632Y13.903Z0F1200
G1 X68.984Y13.885Z0F1200
G1 X68.34Z0F1200
G1 X67.719Y13.9Z0F1200
G1 X67.129Y13.938Z0F1200
G1 X66.575Y14.005Z0F1200
G1 X65.61Y14.21Z0F1200
G1 X64.692Y14.501Z0F1200
G1 X63.826Y14.888Z0F1200
G1 X63.053Y15.356Z0F1200
G1 X62.651Y15.662Z0F1200
G1 X62.298Y15.974Z0F1200
G1 X61.969Y16.315Z0F1200
G1 X61.667Y16.683Z0F1200
G1 X61.397Y17.076Z0F1200
G1 X61.353Y17.153Z0F1200
G1 Y16.35Z0F1200
G1 X61.198Y15.568Z0F1200
G1 X60.655Y14.76Z0F1200
G1 X59.849Y14.209Z0F1200
G1 X59.066Y14.049Z0F1200
G1 X56.158Y14.042Z0F1200
G1 X55.715Z0F1200
G1 X55.309Y14.049Z0F1200
G1 X54.944Y14.056Z0F1200
G1 X54.622Y14.066Z0F1200
G1 X54.354Y14.08Z0F1200
G1 X54.209Y14.09Z0F1200
G1 X53.967Y14.115Z0F1200
G1 X53.78Y14.151Z0F1200
G1 X53.614Y14.192Z0F1200
G1 X53.448Y14.249Z0F1200
G1 X53.338Y14.292Z0F1200
G1 X53.259Y14.239Z0F1200
G1 X52.491Y14.079Z0F1200
G1 X46.906Y14.037Z0F1200
G1 X41.321Y13.992Z0F1200
G1 X40.543Y14.142Z0F1200
G1 X39.73Y14.678Z0F1200
G1 X39.177Y15.478Z0F1200
G1 Y15.486Z0F1200
G1 X39.076Y15.415Z0F1200
G1 X38.206Y14.931Z0F1200
G1 X37.276Y14.532Z0F1200
G1 X36.294Y14.213Z0F1200
G1 X35.264Y13.969Z0F1200
G1 X34.213Y13.8Z0F1200
G1 X33.706Y13.742Z0F1200
G1 X33.243Y13.703Z0F1200
G1 X32.784Y13.683Z0F1200
G1 X32.322Z0F1200
G1 X31.852Y13.708Z0F1200
G1 X31.362Y13.752Z0F1200
G1 X30.837Y13.815Z0F1200
G1 X30.228Y13.899Z0F1200
G1 X29.394Y14.047Z0F1200
G1 X28.567Y14.252Z0F1200
G1 X27.772Y14.513Z0F1200
G1 X27.012Y14.832Z0F1200
G1 X26.291Y15.208Z0F1200
G1 X25.612Y15.647Z0F1200
G1 X24.984Y16.147Z0F1200
G1 X24.409Y16.709Z0F1200
G1 X23.897Y17.33Z0F1200
G1 X23.457Y18Z0F1200
G1 X23.179Y18.542Z0F1200
G1 X21.448Y15.2Z0F1200
G1 X21.135Y14.76Z0F1200
G1 X20.619Y14.335Z0F1200
G1 X20.003Y14.06Z0F1200
G1 X19.47Y13.979Z0F1200
G1 X16.905Y13.937Z0F1200
G1 X16.458Y13.934Z0F1200
G1 X16.07Y13.938Z0F1200
G1 X15.729Y13.948Z0F1200
G1 X15.393Y13.97Z0F1200
G1 X15.093Y14.012Z0F1200
G0 Z2.8F500
G0 X7.353Y31.94Z2.8F1500
G1 Z0F500
G1 X7.608Y32.053Z0F1200
G1 X8.545Y32.193Z0F1200
G1 X12.253Y32.239Z0F1200
G1 X12.909Y32.244Z0F1200
G1 X13.443Z0F1200
G1 X13.704Y32.236Z0F1200
G1 X13.981Y32.226Z0F1200
G1 X14.558Y32.182Z0F1200
G1 X15.5Y32Z0F1200
G1 X16.711Y31.431Z0F1200
G1 X17.704Y30.542Z0F1200
G1 X17.815Y30.377Z0F1200
G1 X18.191Y30.931Z0F1200
G1 X19.151Y31.735Z0F1200
G1 X20.291Y32.244Z0F1200
G1 X21.258Y32.385Z0F1200
G1 X23.346Y32.391Z0F1200
G1 X23.737Z0F1200
G1 X24.116Y32.387Z0F1200
G1 X24.47Y32.379Z0F1200
G1 X24.799Y32.369Z0F1200
G1 X25.117Y32.354Z0F1200
G1 X25.403Y32.331Z0F1200
G1 X25.633Y32.308Z0F1200
G1 X25.963Y32.257Z0F1200
G1 X26.398Y32.157Z0F1200
G1 X26.847Y31.991Z0F1200
G1 X27.112Y31.87Z0F1200
G1 X27.898Y32.156Z0F1200
G1 X28.763Y32.411Z0F1200
G1 X29.652Y32.623Z0F1200
G1 X30.364Y32.751Z0F1200
G1 X31.079Y32.84Z0F1200
G1 X7.168Y32.751Z0F1200
G1 X7.353Y31.94Z0F1200
G0 Z2.8F500
G0 X7.889Y31.084Z2.8F1500
G1 Z0F500
G1 X8.625Y31.193Z0F1200
G1 X12.264Y31.239Z0F1200
G1 X12.911Y31.244Z0F1200
G1 X13.431Z0F1200
G1 X13.675Y31.237Z0F1200
G1 X13.924Y31.227Z0F1200
G1 X14.424Y31.189Z0F1200
G1 X15.188Y31.042Z0F1200
G1 X16.154Y30.588Z0F1200
G1 X16.943Y29.881Z0F1200
G1 X17.27Y29.396Z0F1200
G1 X17.592Y28.829Z0F1200
G1 X17.875Y28.32Z0F1200
G1 X18.505Y29.613Z0F1200
G1 X18.94Y30.254Z0F1200
G1 X19.687Y30.879Z0F1200
G1 X20.572Y31.274Z0F1200
G1 X21.333Y31.385Z0F1200
G1 X23.347Y31.391Z0F1200
G1 X23.731Z0F1200
G1 X24.101Y31.387Z0F1200
G1 X24.443Y31.38Z0F1200
G1 X24.759Y31.37Z0F1200
G1 X25.054Y31.355Z0F1200
G1 X25.314Y31.335Z0F1200
G1 X25.506Y31.316Z0F1200
G1 X25.774Y31.274Z0F1200
G1 X26.111Y31.196Z0F1200
G1 X26.466Y31.066Z0F1200
G1 X26.895Y30.871Z0F1200
G1 X27.053Y30.756Z0F1200
G1 X27.427Y30.921Z0F1200
G1 X28.211Y31.206Z0F1200
G1 X29.02Y31.444Z0F1200
G1 X29.857Y31.643Z0F1200
G1 X30.515Y31.762Z0F1200
G1 X31.178Y31.845Z0F1200
G1 X31.84Y31.892Z0F1200
G1 X32.517Y31.905Z0F1200
G1 X33.477Y31.864Z0F1200
G1 X34.443Y31.752Z0F1200
G1 X35.398Y31.569Z0F1200
G1 X36.336Y31.311Z0F1200
G1 X37.251Y30.975Z0F1200
G1 X38.139Y30.552Z0F1200
G1 X38.759Y30.176Z0F1200
G1 X38.805Y30.238Z0F1200
G1 X39.203Y30.595Z0F1200
G1 X39.503Y30.811Z0F1200
G1 X39.792Y30.977Z0F1200
G1 X40.123Y31.129Z0F1200
G1 X40.39Y31.217Z0F1200
G1 X40.631Y31.284Z0F1200
G1 X40.874Y31.331Z0F1200
G1 X41.105Y31.362Z0F1200
G1 X41.295Y31.38Z0F1200
G1 X41.603Y31.403Z0F1200
G1 X41.96Y31.421Z0F1200
G1 X42.355Y31.435Z0F1200
G1 X42.789Y31.444Z0F1200
G1 X43.25Y31.45Z0F1200
G1 X43.733Y31.454Z0F1200
G1 X46.348Y31.461Z0F1200
G1 X47.421Y31.247Z0F1200
G1 X48.562Y30.484Z0F1200
G1 X49.331Y29.347Z0F1200
G1 X49.551Y28.276Z0F1200
G1 X49.567Y23.025Z0F1200
G1 X50.72Y23.029Z0F1200
G1 X50.704Y28.282Z0F1200
G1 X50.918Y29.354Z0F1200
G1 X51.679Y30.491Z0F1200
G1 X52.814Y31.264Z0F1200
G1 X53.888Y31.484Z0F1200
G1 X56.486Y31.493Z0F1200
G1 X56.726Y31.497Z0F1200
G1 Y31.68Z0F1200
G1 X56.882Y32.689Z0F1200
G1 X57.634Y33.916Z0F1200
G1 X57.658Y33.933Z0F1200
G1 X42.748Y33.881Z0F1200
G1 X42.744Z0F1200
G1 X5.915Y33.747Z0F1200
G1 X6.675Y30.415Z0F1200
G1 X7.035Y30.707Z0F1200
G1 X7.889Y31.084Z0F1200
G0 Z2.8F500
G0 X62.229Y13.517Z2.8F1500
G1 Z0F500
G1 X62.101Y13.325Z0F1200
G1 X61.041Y12.602Z0F1200
G1 X61.958Y12.599Z0F1200
G1 X62.888Y12.58Z0F1200
G1 X63.34Y12.564Z0F1200
G1 X63.765Y12.544Z0F1200
G1 X64.17Y12.52Z0F1200
G1 X64.38Y12.502Z0F1200
G1 X63.98Y12.629Z0F1200
G1 X62.897Y13.112Z0F1200
G1 X62.229Y13.517Z0F1200
G0 Z2.8F500
G0 X61.378Y14.042Z2.8F1500
G1 Z0F500
G1 X60.246Y13.27Z0F1200
G1 X59.168Y13.049Z0F1200
G1 X56.157Y13.042Z0F1200
G1 X55.707Z0F1200
G1 X55.293Y13.049Z0F1200
G1 X54.918Y13.056Z0F1200
G1 X54.581Y13.067Z0F1200
G1 X54.294Y13.082Z0F1200
G1 X54.123Y13.093Z0F1200
G1 X53.82Y13.125Z0F1200
G1 X53.564Y13.174Z0F1200
G1 X53.331Y13.232Z0F1200
G1 X52.598Y13.08Z0F1200
G1 X46.915Y13.037Z0F1200
G1 X41.229Y12.991Z0F1200
G1 X40.158Y13.198Z0F1200
G1 X39.018Y13.95Z0F1200
G1 X38.874Y14.158Z0F1200
G1 X38.647Y14.032Z0F1200
G1 X37.629Y13.595Z0F1200
G1 X36.564Y13.249Z0F1200
G1 X35.459Y12.987Z0F1200
G1 X34.349Y12.81Z0F1200
G1 X33.805Y12.747Z0F1200
G1 X33.307Y12.705Z0F1200
G1 X32.804Y12.683Z0F1200
G1 X32.295Z0F1200
G1 X31.783Y12.711Z0F1200
G1 X31.258Y12.757Z0F1200
G1 X30.709Y12.823Z0F1200
G1 X30.073Y12.911Z0F1200
G1 X29.186Y13.068Z0F1200
G1 X28.29Y13.291Z0F1200
G1 X27.422Y13.575Z0F1200
G1 X26.586Y13.926Z0F1200
G1 X25.787Y14.344Z0F1200
G1 X25.028Y14.834Z0F1200
G1 X24.322Y15.397Z0F1200
G1 X23.671Y16.031Z0F1200
G1 X23.262Y16.528Z0F1200
G1 X22.303Y14.678Z0F1200
G1 X21.873Y14.072Z0F1200
G1 X21.15Y13.477Z0F1200
G1 X20.288Y13.091Z0F1200
G1 X19.553Y12.981Z0F1200
G1 X16.917Y12.937Z0F1200
G1 X16.457Y12.934Z0F1200
G1 X16.051Y12.938Z0F1200
G1 X15.681Y12.949Z0F1200
G1 X15.291Y12.975Z0F1200
G1 X14.938Y13.024Z0F1200
G1 X14.635Y13.077Z0F1200
G1 X14.033Y13.25Z0F1200
G1 X13.287Y13.677Z0F1200
G1 X12.741Y14.202Z0F1200
G1 X12.361Y14.69Z0F1200
G1 X12.269Y14.877Z0F1200
G1 X12.175Y15.033Z0F1200
G1 X11.54Y16.111Z0F1200
G1 X11.086Y16.887Z0F1200
G1 X9.677Y19.317Z0F1200
G1 X8.902Y20.659Z0F1200
G1 X11.719Y8.318Z0F1200
G1 X11.723Z0F1200
G1 X12.317Y8.593Z0F1200
G1 X12.885Y8.84Z0F1200
G1 X13.889Y9.241Z0F1200
G1 X14.919Y9.612Z0F1200
G1 X15.972Y9.952Z0F1200
G1 X17.046Y10.261Z0F1200
G1 X18.146Y10.54Z0F1200
G1 X19.273Y10.791Z0F1200
G1 X20.429Y11.013Z0F1200
G1 X21.633Y11.212Z0F1200
G1 X22.093Y11.271Z0F1200
G1 X22.602Y11.319Z0F1200
G1 X23.149Y11.359Z0F1200
G1 X23.742Y11.393Z0F1200
G1 X24.991Y11.44Z0F1200
G1 X26.319Y11.464Z0F1200
G1 X27.646Z0F1200
G1 X28.893Y11.439Z0F1200
G1 X29.482Y11.416Z0F1200
G1 X30.028Y11.386Z0F1200
G1 X30.537Y11.345Z0F1200
G1 X31.008Y11.292Z0F1200
G1 X32.857Y10.996Z0F1200
G1 X34.664Y10.622Z0F1200
G1 X36.429Y10.169Z0F1200
G1 X38.149Y9.638Z0F1200
G1 X39.819Y9.03Z0F1200
G1 X41.436Y8.345Z0F1200
G1 X42.993Y7.583Z0F1200
G1 X43.747Y7.159Z0F1200
G1 X44.267Y7.443Z0F1200
G1 X45.01Y7.827Z0F1200
G1 X45.78Y8.205Z0F1200
G1 X46.56Y8.569Z0F1200
G1 X47.333Y8.912Z0F1200
G1 X48.086Y9.225Z0F1200
G1 X48.802Y9.5Z0F1200
G1 X49.819Y9.848Z0F1200
G1 X50.874Y10.17Z0F1200
G1 X51.958Y10.466Z0F1200
G1 X53.063Y10.732Z0F1200
G1 X54.177Y10.968Z0F1200
G1 X55.296Y11.172Z0F1200
G1 X56.41Y11.34Z0F1200
G1 X57.502Y11.471Z0F1200
G1 X57.87Y11.503Z0F1200
G1 X58.257Y11.529Z0F1200
G1 X58.668Y11.551Z0F1200
G1 X59.109Y11.569Z0F1200
G1 X60.022Y11.592Z0F1200
G1 X60.983Y11.602Z0F1200
G1 X61.947Y11.599Z0F1200
G1 X62.86Y11.58Z0F1200
G1 X63.3Y11.565Z0F1200
G1 X63.711Y11.546Z0F1200
G1 X64.098Y11.522Z0F1200
G1 X64.482Y11.491Z0F1200
G1 X66.408Y11.252Z0F1200
G1 X68.346Y10.903Z0F1200
G1 X70.26Y10.454Z0F1200
G1 X72.121Y9.912Z0F1200
G1 X73.063Y9.597Z0F1200
G1 X73.972Y9.265Z0F1200
G1 X74.868Y8.91Z0F1200
G1 X75.747Y8.532Z0F1200
G1 X75.778Y8.518Z0F1200
G1 X76.438Y11.488Z0F1200
G1 X77.424Y15.95Z0F1200
G1 X77.194Y15.682Z0F1200
G1 X76.667Y15.183Z0F1200
G1 X76.106Y14.749Z0F1200
G1 X75.519Y14.374Z0F1200
G1 X74.907Y14.05Z0F1200
G1 X74.276Y13.776Z0F1200
G1 X73.627Y13.544Z0F1200
G1 X72.962Y13.352Z0F1200
G1 X72.282Y13.196Z0F1200
G1 X71.579Y13.072Z0F1200
G1 X70.979Y12.996Z0F1200
G1 X70.337Y12.94Z0F1200
G1 X69.673Y12.904Z0F1200
G1 X69Y12.885Z0F1200
G1 X68.328Z0F1200
G1 X67.673Y12.9Z0F1200
G1 X67.037Y12.941Z0F1200
G1 X66.41Y13.018Z0F1200
G1 X65.354Y13.242Z0F1200
G1 X64.336Y13.565Z0F1200
G1 X63.362Y14Z0F1200
G1 X62.489Y14.529Z0F1200
G1 X62.016Y14.889Z0F1200
G1 X61.972Y14.927Z0F1200
G1 X61.378Y14.042Z0F1200
G0 Z2.8F500
G0 X59.142Y10.569Z2.8F1500
G1 Z0F500
G1 X60.04Y10.592Z0F1200
G1 X60.987Y10.602Z0F1200
G1 X61.935Y10.599Z0F1200
G1 X62.833Y10.581Z0F1200
G1 X63.26Y10.566Z0F1200
G1 X63.657Y10.547Z0F1200
G1 X64.027Y10.525Z0F1200
G1 X64.379Y10.496Z0F1200
G1 X66.258Y10.263Z0F1200
G1 X68.143Y9.924Z0F1200
G1 X70.005Y9.486Z0F1200
G1 X71.822Y8.958Z0F1200
G1 X72.732Y8.653Z0F1200
G1 X73.617Y8.33Z0F1200
G1 X74.486Y7.985Z0F1200
G1 X75.339Y7.619Z0F1200
G1 X76.174Y7.232Z0F1200
G1 X76.482Y7.077Z0F1200
G1 X77.413Y11.269Z0F1200
G1 X78.583Y16.564Z0F1200
G1 X80.518Y25.354Z0F1200
G1 X81.724Y30.854Z0F1200
G1 X82.465Y34.246Z0F1200
G1 X82.628Y34.999Z0F1200
G1 X82.38Z0F1200
G1 X78.484Y34.992Z0F1200
G1 X73.332Y34.979Z0F1200
G1 X59.947Y34.94Z0F1200
G1 X43.033Y34.882Z0F1200
G1 X43.029Y34.885Z0F1200
G1 X4.662Y34.742Z0F1200
G1 X11.025Y6.864Z0F1200
G1 X11.553Y7.128Z0F1200
G1 X12.149Y7.415Z0F1200
G1 X12.726Y7.681Z0F1200
G1 X13.27Y7.917Z0F1200
G1 X14.244Y8.306Z0F1200
G1 X15.243Y8.666Z0F1200
G1 X16.264Y8.995Z0F1200
G1 X17.308Y9.295Z0F1200
G1 X18.378Y9.567Z0F1200
G1 X19.476Y9.811Z0F1200
G1 X20.605Y10.028Z0F1200
G1 X21.779Y10.222Z0F1200
G1 X22.204Y10.277Z0F1200
G1 X22.686Y10.323Z0F1200
G1 X23.213Y10.362Z0F1200
G1 X23.789Y10.394Z0F1200
G1 X25.019Y10.44Z0F1200
G1 X26.328Y10.464Z0F1200
G1 X27.636Z0F1200
G1 X28.863Y10.439Z0F1200
G1 X29.435Y10.417Z0F1200
G1 X29.961Y10.388Z0F1200
G1 X30.442Y10.35Z0F1200
G1 X30.874Y10.301Z0F1200
G1 X32.676Y10.012Z0F1200
G1 X34.438Y9.647Z0F1200
G1 X36.157Y9.206Z0F1200
G1 X37.831Y8.69Z0F1200
G1 X39.453Y8.099Z0F1200
G1 X41.02Y7.435Z0F1200
G1 X42.527Y6.697Z0F1200
G1 X43.752Y6.009Z0F1200
G1 X44.056Y6.188Z0F1200
G1 X44.736Y6.56Z0F1200
G1 X45.46Y6.934Z0F1200
G1 X46.212Y7.303Z0F1200
G1 X46.974Y7.659Z0F1200
G1 X47.728Y7.993Z0F1200
G1 X48.457Y8.296Z0F1200
G1 X49.144Y8.56Z0F1200
G1 X50.127Y8.896Z0F1200
G1 X51.151Y9.209Z0F1200
G1 X52.207Y9.498Z0F1200
G1 X53.283Y9.757Z0F1200
G1 X54.37Y9.987Z0F1200
G1 X55.461Y10.186Z0F1200
G1 X56.544Y10.35Z0F1200
G1 X57.606Y10.476Z0F1200
G1 X57.948Y10.506Z0F1200
G1 X58.317Y10.531Z0F1200
G1 X58.714Y10.552Z0F1200
G1 X59.142Y10.569Z0F1200
G0 Z2.8F500
G0 X62.806Y9.581Z2.8F1500
G1 Z0F500
G1 X63.22Y9.566Z0F1200
G1 X63.604Y9.549Z0F1200
G1 X63.955Y9.527Z0F1200
G1 X64.277Y9.501Z0F1200
G1 X66.107Y9.274Z0F1200
G1 X67.94Y8.944Z0F1200
G1 X69.751Y8.519Z0F1200
G1 X71.523Y8.003Z0F1200
G1 X72.402Y7.709Z0F1200
G1 X73.261Y7.396Z0F1200
G1 X74.104Y7.061Z0F1200
G1 X74.931Y6.706Z0F1200
G1 X75.739Y6.331Z0F1200
G1 X76.527Y5.937Z0F1200
G1 X77.174Y5.586Z0F1200
G1 X77.454Y6.838Z0F1200
G1 X78.39Y11.053Z0F1200
G1 X79.56Y16.348Z0F1200
G1 X81.495Y25.14Z0F1200
G1 X82.702Y30.641Z0F1200
G1 X83.442Y34.034Z0F1200
G1 X83.824Y35.789Z0F1200
G1 X83.869Y36Z0F1200
G1 X82.378Z0F1200
G1 X78.481Y35.992Z0F1200
G1 X73.328Y35.979Z0F1200
G1 X59.944Y35.94Z0F1200
G1 X43.318Y35.883Z0F1200
G1 X43.314Y35.886Z0F1200
G1 X3.409Y35.737Z0F1200
G1 X10.34Y5.373Z0F1200
G1 X10.828Y5.636Z0F1200
G1 X11.405Y5.936Z0F1200
G1 X11.993Y6.23Z0F1200
G1 X12.575Y6.51Z0F1200
G1 X13.134Y6.768Z0F1200
G1 X13.654Y6.994Z0F1200
G1 X14.599Y7.371Z0F1200
G1 X15.566Y7.719Z0F1200
G1 X16.555Y8.039Z0F1200
G1 X17.569Y8.33Z0F1200
G1 X18.609Y8.594Z0F1200
G1 X19.679Y8.832Z0F1200
G1 X20.781Y9.044Z0F1200
G1 X21.924Y9.233Z0F1200
G1 X22.315Y9.283Z0F1200
G1 X22.77Y9.326Z0F1200
G1 X23.278Y9.364Z0F1200
G1 X23.836Y9.395Z0F1200
G1 X25.046Y9.44Z0F1200
G1 X26.337Y9.464Z0F1200
G1 X27.626Z0F1200
G1 X28.833Y9.439Z0F1200
G1 X29.388Y9.418Z0F1200
G1 X29.894Y9.39Z0F1200
G1 X30.346Y9.354Z0F1200
G1 X30.738Y9.31Z0F1200
G1 X32.496Y9.028Z0F1200
G1 X34.212Y8.673Z0F1200
G1 X35.886Y8.244Z0F1200
G1 X37.512Y7.742Z0F1200
G1 X39.086Y7.168Z0F1200
G1 X40.605Y6.524Z0F1200
G1 X42.063Y5.811Z0F1200
G1 X43.44Y5.038Z0F1200
G1 X43.758Y4.849Z0F1200
G1 X43.973Y4.979Z0F1200
G1 X44.55Y5.318Z0F1200
G1 X45.206Y5.677Z0F1200
G1 X45.91Y6.041Z0F1200
G1 X46.644Y6.401Z0F1200
G1 X47.388Y6.749Z0F1200
G1 X48.123Y7.074Z0F1200
G1 X48.828Y7.367Z0F1200
G1 X49.485Y7.619Z0F1200
G1 X50.436Y7.945Z0F1200
G1 X51.429Y8.249Z0F1200
G1 X52.455Y8.529Z0F1200
G1 X53.504Y8.782Z0F1200
G1 X54.563Y9.006Z0F1200
G1 X55.625Y9.199Z0F1200
G1 X56.678Y9.358Z0F1200
G1 X57.709Y9.481Z0F1200
G1 X58.025Y9.509Z0F1200
G1 X58.377Y9.533Z0F1200
G1 X58.761Y9.553Z0F1200
G1 X59.175Y9.57Z0F1200
G1 X60.058Y9.593Z0F1200
G1 X60.99Y9.602Z0F1200
G1 X61.923Y9.599Z0F1200
G1 X62.806Y9.581Z0F1200
G0 Z2.8F500
G0 X65.958Y8.285Z2.8F1500
G1 Z0F500
G1 X67.737Y7.965Z0F1200
G1 X69.497Y7.551Z0F1200
G1 X71.225Y7.048Z0F1200
G1 X72.072Y6.765Z0F1200
G1 X72.905Y6.461Z0F1200
G1 X73.723Y6.137Z0F1200
G1 X74.523Y5.793Z0F1200
G1 X75.305Y5.43Z0F1200
G1 X76.065Y5.049Z0F1200
G1 X76.803Y4.65Z0F1200
G1 X77.716Y4.117Z0F1200
G1 X77.851Y4.043Z0F1200
G1 X78.088Y5.091Z0F1200
G1 X78.43Y6.62Z0F1200
G1 X79.366Y10.837Z0F1200
G1 X80.536Y16.133Z0F1200
G1 X82.471Y24.925Z0F1200
G1 X83.678Y30.427Z0F1200
G1 X84.419Y33.821Z0F1200
G1 X84.801Y35.579Z0F1200
G1 X85.106Y36.999Z0F1200
G1 X84.844Z0F1200
G1 X82.376Z0F1200
G1 X78.479Y36.992Z0F1200
G1 X73.326Y36.979Z0F1200
G1 X59.94Y36.94Z0F1200
G1 X43.603Y36.884Z0F1200
G1 X43.599Y36.887Z0F1200
G1 X2.156Y36.733Z0F1200
G1 X9.668Y3.822Z0F1200
G1 X9.864Y3.942Z0F1200
G1 X10.279Y4.191Z0F1200
G1 X10.762Y4.464Z0F1200
G1 X11.295Y4.752Z0F1200
G1 X11.859Y5.044Z0F1200
G1 X12.434Y5.333Z0F1200
G1 X13.001Y5.605Z0F1200
G1 X13.543Y5.855Z0F1200
G1 X14.039Y6.07Z0F1200
G1 X14.954Y6.436Z0F1200
G1 X15.889Y6.773Z0F1200
G1 X16.847Y7.082Z0F1200
G1 X17.83Y7.365Z0F1200
G1 X18.841Y7.621Z0F1200
G1 X19.882Y7.853Z0F1200
G1 X20.958Y8.06Z0F1200
G1 X22.069Y8.243Z0F1200
G1 X22.426Y8.289Z0F1200
G1 X22.854Y8.33Z0F1200
G1 X23.343Y8.366Z0F1200
G1 X23.883Y8.396Z0F1200
G1 X25.074Y8.441Z0F1200
G1 X26.346Y8.464Z0F1200
G1 X27.616Z0F1200
G1 X28.804Y8.44Z0F1200
G1 X29.341Y8.419Z0F1200
G1 X29.827Y8.392Z0F1200
G1 X30.251Y8.358Z0F1200
G1 X30.604Y8.319Z0F1200
G1 X32.315Y8.044Z0F1200
G1 X33.986Y7.698Z0F1200
G1 X35.614Y7.281Z0F1200
G1 X37.193Y6.793Z0F1200
G1 X38.72Y6.238Z0F1200
G1 X40.189Y5.614Z0F1200
G1 X41.598Y4.925Z0F1200
G1 X42.94Y4.171Z0F1200
G1 X43.34Y3.934Z0F1200
G1 X43.763Y3.689Z0F1200
G1 X44.125Y3.902Z0F1200
G1 X44.485Y4.121Z0F1200
G1 X45.043Y4.448Z0F1200
G1 X45.675Y4.794Z0F1200
G1 X46.36Y5.147Z0F1200
G1 X47.076Y5.5Z0F1200
G1 X47.802Y5.838Z0F1200
G1 X48.517Y6.155Z0F1200
G1 X49.199Y6.438Z0F1200
G1 X49.826Y6.679Z0F1200
G1 X50.744Y6.994Z0F1200
G1 X51.707Y7.288Z0F1200
G1 X52.704Y7.56Z0F1200
G1 X53.725Y7.806Z0F1200
G1 X54.756Y8.024Z0F1200
G1 X55.79Y8.212Z0F1200
G1 X56.812Y8.367Z0F1200
G1 X57.813Y8.486Z0F1200
G1 X58.104Y8.512Z0F1200
G1 X58.437Y8.535Z0F1200
G1 X58.807Y8.554Z0F1200
G1 X59.208Y8.57Z0F1200
G1 X60.076Y8.593Z0F1200
G1 X60.993Y8.602Z0F1200
G1 X61.911Y8.599Z0F1200
G1 X62.779Y8.581Z0F1200
G1 X63.18Y8.567Z0F1200
G1 X63.55Y8.55Z0F1200
G1 X63.883Y8.53Z0F1200
G1 X64.174Y8.506Z0F1200
G1 X65.958Y8.285Z0F1200
M9
G1 Z10 F500
G1 X40 Y80 F1200
M5
G90
G1 Z10 F500
G1 X80 F1200
