(GCode generated by: DrawingBotV3 Free 1.6.25 Stable)
(Time: 2025-12-04 at 17:15:11 CET)
G21 (programming in millimeters, mm)
G90 (programming in absolute positioning)
G28 (auto homing)
G1 F8000 (set speed)
G0 Z1


G0 X-320.799 Y-128.604
G1 Z0

G1 X-369.500 Y-167.565
G1 X-327.292 Y-193.539
G1 X-369.500 Y-213.019
G1 X-369.500 Y-274.708
G1 X-327.292 Y-281.201
G1 X-275.344 Y-261.721
G1 X-298.071 Y-307.175
G1 X-275.344 Y-355.877
G1 X-226.643 Y-368.864
G1 X-278.591 Y-394.838
G1 X-249.370 Y-352.630
G1 X-291.578 Y-352.630
G1 X-259.110 Y-401.331
G1 X-262.357 Y-443.539
G1 X-324.045 Y-362.370
G1 X-314.305 Y-316.916
G1 X-311.058 Y-362.370
G1 X-268.851 Y-372.110
G1 X-294.825 Y-414.318
G1 X-272.097 Y-469.513
G1 X-229.890 Y-488.994
G1 X-272.097 Y-511.721
G1 X-294.825 Y-430.552
G1 X-340.279 Y-437.045
G1 X-343.526 Y-394.838
G1 X-343.526 Y-437.045
G1 X-333.786 Y-511.721
G1 X-366.253 Y-459.773
G1 X-369.500 Y-501.981
G1 X-327.292 Y-495.487
G1 X-246.123 Y-488.994
G1 X-291.578 Y-479.253
G1 X-249.370 Y-501.981
G1 X-203.916 Y-505.227
G1 X-197.422 Y-463.019
G1 X-145.474 Y-417.565
G1 X-96.773 Y-463.019
G1 X-83.786 Y-401.331
G1 X-28.591 Y-511.721
G1 X-70.799 Y-508.474
G1 X-113.007 Y-511.721
G1 X.630 Y-492.240
G1 X46.084 Y-498.734
G1 X26.604 Y-453.279
G1 X20.110 Y-411.071
G1 X-9.110 Y-456.526
G1 X-54.565 Y-427.305
G1 X-12.357 Y-404.578
G1 X-28.591 Y-446.786
G1 X-48.071 Y-498.734
G1 X-90.279 Y-495.487
G1 X-48.071 Y-485.747
G1 X29.851 Y-472.760
G1 X78.552 Y-488.994
G1 X33.097 Y-463.019
G1 X55.825 Y-511.721
G1 X120.760 Y-485.747
G1 X166.214 Y-472.760
G1 X124.007 Y-476.006
G1 X156.474 Y-401.331
G1 X143.487 Y-443.539
G1 X111.019 Y-401.331
G1 X68.812 Y-401.331
G1 X120.760 Y-424.058
G1 X68.812 Y-414.318
G1 X20.110 Y-437.045
G1 X-9.110 Y-485.747
G1 X-77.292 Y-498.734
G1 X-18.851 Y-511.721
G1 X-61.058 Y-482.500
G1 X-35.084 Y-404.578
G1 X-74.045 Y-355.877
G1 X-61.058 Y-398.084
G1 X-103.266 Y-433.799
G1 X-90.279 Y-391.591
G1 X-135.734 Y-346.136
G1 X-113.007 Y-303.929
G1 X-119.500 Y-349.383
G1 X-184.435 Y-404.578
G1 X-216.903 Y-359.123
G1 X-190.929 Y-307.175
G1 X-236.383 Y-300.682
G1 X-203.916 Y-342.890
G1 X-249.370 Y-339.643
G1 X-203.916 Y-359.123
G1 X-278.591 Y-417.565
G1 X-337.032 Y-368.864
G1 X-285.084 Y-394.838
G1 X-255.864 Y-440.292
G1 X-226.643 Y-378.604
G1 X-181.188 Y-378.604
G1 X-138.981 Y-414.318
G1 X-119.500 Y-472.760
G1 X-57.812 Y-365.617
G1 X-12.357 Y-388.344
G1 X-80.539 Y-375.357
G1 X-5.864 Y-378.604
G1 X.630 Y-424.058
G1 X-35.084 Y-466.266
G1 X42.838 Y-446.786
G1 X94.786 Y-420.812
G1 X111.019 Y-498.734
G1 X149.981 Y-456.526
G1 X172.708 Y-404.578
G1 X124.007 Y-414.318
G1 X78.552 Y-388.344
G1 X133.747 Y-355.877
G1 X111.019 Y-307.175
G1 X175.955 Y-271.461
G1 X124.007 Y-264.968
G1 X169.461 Y-258.474
G1 X192.188 Y-300.682
G1 X179.201 Y-258.474
G1 X221.409 Y-232.500
G1 X263.617 Y-190.292
G1 X214.916 Y-187.045
G1 X198.682 Y-144.838
G1 X127.253 Y-164.318
G1 X136.993 Y-122.110
G1 X182.448 Y-89.643
G1 X140.240 Y-79.903
G1 X149.981 Y-138.344
G1 X205.175 Y-118.864
G1 X208.422 Y-70.162
G1 X250.630 Y-96.136
G1 X195.435 Y-128.604
G1 X188.942 Y-73.409
G1 X146.734 Y-53.929
G1 X81.799 Y17.500
G1 X94.786 Y59.708
G1 X72.058 Y101.916
G1 X23.357 Y186.331
G1 X36.344 Y144.123
G1 X46.084 Y98.669
G1 X39.591 Y56.461
G1 X29.851 Y98.669
G1 X16.864 Y56.461
G1 X-48.071 Y137.630
G1 X-5.864 Y121.396
G1 X-51.318 Y157.110
G1 X16.864 Y209.058
G1 X78.552 Y179.838
G1 X65.565 Y241.526
G1 X111.019 Y218.799
G1 X62.318 Y196.071
G1 X10.370 Y205.812
G1 X-35.084 Y183.084
G1 X-2.617 Y140.877
G1 X.630 Y183.084
G1 X42.838 Y170.097
G1 X88.292 Y160.357
G1 X46.084 Y124.643
G1 X-67.552 Y82.435
G1 X-41.578 Y40.227
G1 X-116.253 Y111.656
G1 X-103.266 Y69.448
G1 X-145.474 Y59.708
G1 X-155.214 Y108.409
G1 X-229.890 Y124.643
G1 X-187.682 Y153.864
G1 X-229.890 Y179.838
G1 X-262.357 Y231.786
G1 X-311.058 Y202.565
G1 X-337.032 Y248.019
G1 X-340.279 Y199.318
G1 X-298.071 Y222.045
G1 X-340.279 Y209.058
G1 X-369.500 Y163.604
G1 X-346.773 Y218.799
G1 X-356.513 Y303.214
G1 X-317.552 Y345.422
G1 X-307.812 Y303.214
G1 X-229.890 Y400.617
G1 X-174.695 Y394.123
G1 X-216.903 Y407.110
G1 X-174.695 Y374.643
G1 X-142.227 Y416.851
G1 X-184.435 Y442.825
G1 X-138.981 Y485.032
G1 X-181.188 Y433.084
G1 X-168.201 Y488.279
G1 X-125.993 Y494.773
G1 X-54.565 Y481.786
G1 X-103.266 Y439.578
G1 X-100.019 Y481.786
G1 X-57.812 Y517.500
G1 X33.097 Y517.500
G1 X81.799 Y514.253
G1 X49.331 Y465.552
G0 Z1

G0 X-31.838 Y1.266
G1 Z0

G1 X26.604 Y49.968
G1 X-2.617 Y92.175
G1 X49.331 Y114.903
G1 X29.851 Y66.201
G1 X-5.864 Y108.409
G1 X-57.812 Y105.162
G1 X-103.266 Y49.968
G1 X-44.825 Y56.461
G1 X-22.097 Y101.916
G1 X-87.032 Y118.149
G1 X-44.825 Y114.903
G1 X-77.292 Y30.487
G1 X-41.578 Y-27.955
G1 X-28.591 Y14.253
G1 X13.617 Y46.721
G1 X29.851 Y-1.981
G1 X46.084 Y43.474
G1 X36.344 Y92.175
G1 X78.552 Y56.461
G1 X75.305 Y1.266
G1 X29.851 Y20.747
G1 X72.058 Y-8.474
G1 X62.318 Y66.201
G1 X111.019 Y82.435
G1 X114.266 Y40.227
G1 X169.461 Y-5.227
G1 X124.007 Y-18.214
G1 X114.266 Y-66.916
G1 X104.526 Y-118.864
G1 X59.071 Y-128.604
G1 X33.097 Y-86.396
G1 X-28.591 Y-66.916
G1 X-61.058 Y-18.214
G1 X-54.565 Y23.993
G1 X-103.266 Y20.747
G1 X-106.513 Y62.955
G1 X-203.916 Y69.448
G1 X-252.617 Y124.643
G1 X-197.422 Y114.903
G1 X-181.188 Y66.201
G1 X-226.643 Y53.214
G1 X-268.851 Y75.942
G1 X-233.136 Y17.500
G1 X-236.383 Y-24.708
G1 X-194.175 Y-50.682
G1 X-151.968 Y-47.435
G1 X-125.993 Y-5.227
G1 X-109.760 Y-53.929
G1 X-87.032 Y-105.877
G1 X-148.721 Y-83.149
G1 X-161.708 Y-40.942
G1 X-203.916 Y-66.916
G1 X-207.162 Y-115.617
G1 X-190.929 Y-164.318
G1 X-171.448 Y-209.773
G1 X-135.734 Y-261.721
G1 X-87.032 Y-281.201
G1 X-67.552 Y-329.903
G1 X23.357 Y-219.513
G1 X-18.851 Y-190.292
G1 X-61.058 Y-196.786
G1 X-15.604 Y-164.318
G1 X-64.305 Y-118.864
G1 X-113.007 Y-109.123
G1 X-125.993 Y-164.318
G1 X-181.188 Y-138.344
G1 X-177.942 Y-190.292
G1 X-190.929 Y-245.487
G1 X-223.396 Y-287.695
G1 X-265.604 Y-264.968
G1 X-307.812 Y-294.188
G1 X-350.019 Y-284.448
G1 X-346.773 Y-238.994
G1 X-353.266 Y-83.149
G1 X-311.058 Y-89.643
G1 X-337.032 Y-47.435
G1 X-356.513 Y-5.227
G1 X-363.007 Y-53.929
G1 X-327.292 Y-96.136
G1 X-281.838 Y-151.331
G1 X-285.084 Y-83.149
G1 X-239.630 Y-96.136
G1 X-223.396 Y-141.591
G1 X-252.617 Y-190.292
G1 X-236.383 Y-232.500
G1 X-278.591 Y-196.786
G1 X-216.903 Y-206.526
G1 X-213.656 Y-164.318
G1 X-239.630 Y-122.110
G1 X-223.396 Y-177.305
G1 X-275.344 Y-170.812
G1 X-278.591 Y-213.019
G1 X-324.045 Y-177.305
G1 X-223.396 Y381.136
G1 X-181.188 Y390.877
G1 X-155.214 Y348.669
G1 X-74.045 Y390.877
G1 X-31.838 Y397.370
G1 X-2.617 Y332.435
G1 X29.851 Y384.383
G1 X-5.864 Y426.591
G1 X-2.617 Y475.292
G1 X-54.565 Y452.565
G1 X20.110 Y446.071
G1 X-9.110 Y494.773
G1 X13.617 Y449.318
G1 X-48.071 Y442.825
G1 X.630 Y465.552
G1 X-18.851 Y511.007
G1 X-77.292 Y511.007
G1 X-64.305 Y459.058
G1 X-74.045 Y416.851
G1 X-122.747 Y413.604
G1 X-87.032 Y468.799
G1 X-168.201 Y407.110
G1 X-125.993 Y426.591
G1 X-83.786 Y420.097
G1 X-74.045 Y358.409
G1 X-31.838 Y316.201
G1 X-74.045 Y312.955
G1 X-35.084 Y355.162
G1 X-54.565 Y306.461
G1 X-96.773 Y325.942
G1 X-103.266 Y368.149
G1 X-148.721 Y329.188
G1 X-190.929 Y322.695
G1 X-148.721 Y309.708
G1 X-184.435 Y244.773
G1 X-239.630 Y254.513
G1 X-190.929 Y209.058
G1 X-242.877 Y231.786
G1 X-246.123 Y189.578
G1 X-298.071 Y121.396
G1 X-320.799 Y163.604
G1 X-311.058 Y108.409
G1 X-324.045 Y66.201
G1 X-369.500 Y46.721
G1 X-366.253 Y1.266
G1 X-369.500 Y-66.916
G1 X-333.786 Y-11.721
G1 X-291.578 Y-40.942
G1 X-333.786 Y-34.448
G1 X-324.045 Y17.500
G1 X-278.591 Y14.253
G1 X-252.617 Y-40.942
G1 X-301.318 Y-14.968
G1 X-242.877 Y1.266
G1 X-200.669 Y-14.968
G1 X-223.396 Y-57.175
G1 X-226.643 Y-105.877
G1 X-148.721 Y95.422
G1 X-80.539 Y150.617
G1 X-125.993 Y173.344
G1 X-106.513 Y238.279
G1 X-109.760 Y186.331
G1 X-155.214 Y170.097
G1 X-226.643 Y147.370
G1 X-164.955 Y199.318
G1 X-145.474 Y261.007
G1 X-103.266 Y267.500
G1 X-125.993 Y312.955
G1 X-83.786 Y296.721
G1 X-41.578 Y273.993
G1 X13.617 Y325.942
G1 X36.344 Y273.993
G1 X52.578 Y319.448
G1 X68.812 Y273.993
G1 X166.214 Y345.422
G1 X169.461 Y390.877
G1 X127.253 Y381.136
G1 X162.968 Y309.708
G1 X166.214 Y351.916
G1 X221.409 Y254.513
G1 X175.955 Y303.214
G1 X227.903 Y196.071
G1 X224.656 Y238.279
G1 X318.812 Y218.799
G1 X344.786 Y261.007
G1 X344.786 Y303.214
G1 X361.019 Y261.007
G1 X348.032 Y218.799
G1 X296.084 Y248.019
G1 X318.812 Y196.071
G1 X325.305 Y134.383
G1 X322.058 Y92.175
G1 X289.591 Y153.864
G1 X263.617 Y111.656
G1 X250.630 Y160.357
G1 X237.643 Y118.149
G1 X276.604 Y163.604
G1 X302.578 Y205.812
G1 X244.136 Y225.292
G1 X218.162 Y267.500
G1 X205.175 Y212.305
G1 X247.383 Y251.266
G1 X195.435 Y225.292
G1 X153.227 Y241.526
G1 X153.227 Y189.578
G1 X192.188 Y231.786
G1 X237.643 Y192.825
G1 X289.591 Y134.383
G1 X351.279 Y166.851
G1 X364.266 Y244.773
G1 X364.266 Y153.864
G1 X309.071 Y140.877
G1 X260.370 Y85.682
G1 X305.825 Y92.175
G1 X312.318 Y134.383
G1 X305.825 Y176.591
G1 X273.357 Y222.045
G1 X315.565 Y254.513
G1 X322.058 Y209.058
G1 X244.136 Y338.929
G1 X201.929 Y351.916
G1 X244.136 Y348.669
G1 X130.500 Y452.565
G1 X88.292 Y442.825
G1 X46.084 Y478.539
G1 X88.292 Y517.500
G1 X13.617 Y511.007
G1 X-51.318 Y504.513
G1 X-61.058 Y462.305
G1 X-74.045 Y504.513
G1 X-129.240 Y485.032
G1 X-77.292 Y472.045
G1 X-35.084 Y501.266
G1 X7.123 Y478.539
G1 X10.370 Y429.838
G1 X29.851 Y472.045
G1 X20.110 Y517.500
G1 X62.318 Y449.318
G1 X104.526 Y452.565
G1 X149.981 Y455.812
G1 X75.305 Y429.838
G1 X124.007 Y397.370
G1 X81.799 Y407.110
G1 X133.747 Y400.617
G1 X72.058 Y416.851
G1 X-5.864 Y410.357
G1 X36.344 Y423.344
G1 X-5.864 Y335.682
G1 X52.578 Y390.877
G1 X98.032 Y342.175
G1 X149.981 Y351.916
G1 X195.435 Y319.448
G1 X136.993 Y299.968
G1 X72.058 Y325.942
G1 X114.266 Y355.162
G1 X72.058 Y348.669
G1 X36.344 Y290.227
G1 X-18.851 Y306.461
G1 X-70.799 Y319.448
G1 X-22.097 Y371.396
G1 X23.357 Y332.435
G1 X-41.578 Y251.266
G1 X-12.357 Y293.474
G1 X-54.565 Y251.266
G1 X-96.773 Y251.266
G1 X-148.721 Y273.993
G1 X-181.188 Y316.201
G1 X-122.747 Y358.409
G1 X-135.734 Y316.201
G1 X-93.526 Y286.981
G1 X-109.760 Y355.162
G1 X-54.565 Y374.643
G1 X-96.773 Y390.877
G1 X42.838 Y387.630
G1 X52.578 Y345.422
G1 X55.825 Y403.864
G1 X33.097 Y355.162
G1 X-9.110 Y351.916
G1 X65.565 Y338.929
G1 X111.019 Y283.734
G1 X120.760 Y241.526
G1 X162.968 Y251.266
G1 X98.032 Y280.487
G1 X94.786 Y238.279
G1 X49.331 Y248.019
G1 X.630 Y251.266
G1 X20.110 Y494.773
G1 X78.552 Y442.825
G1 X159.721 Y478.539
G1 X117.513 Y517.500
G1 X136.993 Y475.292
G1 X111.019 Y517.500
G1 X195.435 Y433.084
G1 X133.747 Y488.279
G1 X247.383 Y501.266
G1 X205.175 Y517.500
G1 X214.916 Y475.292
G1 X218.162 Y517.500
G1 X247.383 Y475.292
G1 X211.669 Y433.084
G1 X162.968 Y423.344
G1 X188.942 Y361.656
G1 X234.396 Y361.656
G1 X231.149 Y283.734
G1 X188.942 Y257.760
G1 X201.929 Y322.695
G1 X146.734 Y319.448
G1 X162.968 Y368.149
G1 X120.760 Y335.682
G1 X111.019 Y290.227
G1 X159.721 Y338.929
G1 X166.214 Y384.383
G1 X283.097 Y384.383
G1 X283.097 Y342.175
G1 X325.305 Y381.136
G1 X364.266 Y338.929
G1 X361.019 Y397.370
G1 X364.266 Y355.162
G1 X302.578 Y351.916
G1 X325.305 Y309.708
G1 X357.773 Y368.149
G1 X364.266 Y325.942
G1 X354.526 Y368.149
G1 X289.591 Y335.682
G1 X276.604 Y426.591
G1 X331.799 Y426.591
G1 X289.591 Y420.097
G1 X247.383 Y420.097
G1 X227.903 Y462.305
G1 X224.656 Y420.097
G1 X244.136 Y465.552
G1 X231.149 Y403.864
G1 X192.188 Y446.071
G1 X195.435 Y397.370
G1 X107.773 Y390.877
G1 X149.981 Y397.370
G1 X198.682 Y355.162
G1 X240.890 Y348.669
G1 X166.214 Y403.864
G1 X185.695 Y446.071
G1 X227.903 Y403.864
G1 X185.695 Y439.578
G1 X341.539 Y413.604
G1 X299.331 Y433.084
G1 X257.123 Y436.331
G1 X292.838 Y377.890
G1 X257.123 Y290.227
G1 X208.422 Y280.487
G1 X179.201 Y228.539
G1 X221.409 Y202.565
G1 X250.630 Y244.773
G1 X247.383 Y202.565
G1 X289.591 Y192.825
G1 X331.799 Y160.357
G1 X289.591 Y176.591
G1 X302.578 Y218.799
G1 X279.851 Y273.993
G1 X312.318 Y218.799
G1 X315.565 Y114.903
G1 X305.825 Y72.695
G1 X315.565 Y30.487
G1 X273.357 Y43.474
G1 X250.630 Y108.409
G1 X201.929 Y95.422
G1 X192.188 Y147.370
G1 X185.695 Y192.825
G1 X211.669 Y140.877
G1 X175.955 Y186.331
G1 X182.448 Y101.916
G1 X140.240 Y114.903
G1 X169.461 Y157.110
G1 X201.929 Y114.903
G1 X166.214 Y72.695
G1 X169.461 Y23.993
G1 X208.422 Y-21.461
G1 X221.409 Y-79.903
G1 X357.773 Y-47.435
G1 X351.279 Y-5.227
G1 X361.019 Y40.227
G1 X357.773 Y-1.981
G1 X331.799 Y-66.916
G1 X331.799 Y-21.461
G1 X351.279 Y-86.396
G1 X357.773 Y-128.604
G1 X335.045 Y-70.162
G1 X335.045 Y-115.617
G1 X276.604 Y-122.110
G1 X325.305 Y-99.383
G1 X279.851 Y-164.318
G1 X286.344 Y-206.526
G1 X270.110 Y-154.578
G1 X227.903 Y-183.799
G1 X263.617 Y-232.500
G1 X322.058 Y-226.006
G1 X364.266 Y-206.526
G1 X309.071 Y-216.266
G1 X354.526 Y-226.006
G1 X130.500 Y-255.227
G1 X179.201 Y-232.500
G1 X195.435 Y-167.565
G1 X172.708 Y-109.123
G1 X175.955 Y-60.422
G1 X198.682 Y-18.214
G1 X250.630 Y-47.435
G1 X244.136 Y-5.227
G1 X198.682 Y-37.695
G1 X143.487 Y-5.227
G1 X101.279 Y-1.981
G1 X55.825 Y-24.708
G1 X33.097 Y-73.409
G1 X-9.110 Y-40.942
G1 X29.851 Y-83.149
G1 X49.331 Y-128.604
G1 X98.032 Y-170.812
G1 X107.773 Y-128.604
G1 X65.565 Y-122.110
G1 X49.331 Y-164.318
G1 X3.877 Y-157.825
G1 X46.084 Y-196.786
G1 X-2.617 Y-219.513
G1 X81.799 Y-154.578
G1 X55.825 Y-219.513
G1 X101.279 Y-216.266
G1 X117.513 Y-258.474
G1 X68.812 Y-222.760
G1 X26.604 Y-229.253
G1 X75.305 Y-242.240
G1 X33.097 Y-251.981
G1 X-9.110 Y-245.487
G1 X55.825 Y-206.526
G1 X-12.357 Y-177.305
G1 X-64.305 Y-167.565
G1 X-25.344 Y-96.136
G1 X-35.084 Y-138.344
G1 X-93.526 Y-125.357
G1 X-125.993 Y-170.812
G1 X-77.292 Y-200.032
G1 X-25.344 Y-213.019
G1 X-103.266 Y-154.578
G1 X-61.058 Y-144.838
G1 X-54.565 Y-187.045
G1 X-96.773 Y-226.006
G1 X-67.552 Y-268.214
G1 X-83.786 Y-226.006
G1 X-155.214 Y-206.526
G1 X-109.760 Y-261.721
G1 X-249.370 Y-307.175
G1 X-236.383 Y-264.968
G1 X-255.864 Y-219.513
G1 X-200.669 Y-180.552
G1 X-242.877 Y-196.786
G1 X-259.110 Y-148.084
G1 X-220.149 Y-105.877
G1 X-239.630 Y-50.682
G1 X-226.643 Y11.007
G1 X-187.682 Y53.214
G1 X-207.162 Y101.916
G1 X-177.942 Y144.123
G1 X-226.643 Y140.877
G1 X-184.435 Y176.591
G1 X-187.682 Y218.799
G1 X-135.734 Y199.318
G1 X-100.019 Y244.773
G1 X-35.084 Y277.240
G1 X-77.292 Y267.500
G1 X-31.838 Y286.981
G1 X-83.786 Y257.760
G1 X-5.864 Y241.526
G1 X-64.305 Y212.305
G1 X-125.993 Y290.227
G1 X-83.786 Y312.955
G1 X-87.032 Y358.409
G1 X-129.240 Y368.149
G1 X-87.032 Y374.643
G1 X-90.279 Y329.188
G1 X-177.942 Y426.591
G1 X-161.708 Y475.292
G1 X-220.149 Y423.344
G1 X-255.864 Y465.552
G1 X-327.292 Y462.305
G1 X-356.513 Y420.097
G1 X-340.279 Y361.656
G1 X-337.032 Y403.864
G1 X-366.253 Y358.409
G1 X-314.305 Y410.357
G1 X-285.084 Y368.149
G1 X-272.097 Y416.851
G1 X-252.617 Y374.643
G1 X-294.825 Y355.162
G1 X-278.591 Y420.097
G1 X-216.903 Y439.578
G1 X-259.110 Y472.045
G1 X-249.370 Y517.500
G1 X-291.578 Y517.500
G1 X-249.370 Y514.253
G1 X-327.292 Y514.253
G1 X-161.708 Y501.266
G1 X-155.214 Y459.058
G1 X-197.422 Y465.552
G1 X-200.669 Y410.357
G1 X-158.461 Y374.643
G1 X-210.409 Y410.357
G1 X-171.448 Y361.656
G1 X-220.149 Y361.656
G1 X-249.370 Y420.097
G1 X-236.383 Y462.305
G1 X-288.331 Y455.812
G1 X-252.617 Y498.019
G1 X-301.318 Y472.045
G1 X-343.526 Y498.019
G1 X-311.058 Y446.071
G1 X-350.019 Y491.526
G1 X-278.591 Y452.565
G1 X-252.617 Y494.773
G1 X-294.825 Y465.552
G1 X-233.136 Y439.578
G1 X-255.864 Y481.786
G1 X-317.552 Y462.305
G1 X-337.032 Y390.877
G1 X-369.500 Y433.084
G1 X-317.552 Y436.331
G1 X-369.500 Y403.864
G1 X-317.552 Y446.071
G1 X-350.019 Y488.279
G1 X-285.084 Y270.747
G1 X-281.838 Y312.955
G1 X-233.136 Y338.929
G1 X-275.344 Y325.942
G1 X-272.097 Y384.383
G1 X-265.604 Y426.591
G1 X-249.370 Y381.136
G1 X-259.110 Y426.591
G1 X-298.071 Y377.890
G1 X-330.539 Y303.214
G1 X-281.838 Y238.279
G1 X-294.825 Y286.981
G1 X-226.643 Y335.682
G1 X-304.565 Y286.981
G1 X-288.331 Y238.279
G1 X-337.032 Y273.993
G1 X-294.825 Y205.812
G1 X-327.292 Y280.487
G1 X-343.526 Y322.695
G1 X-304.565 Y368.149
G1 X-252.617 Y390.877
G1 X-207.162 Y361.656
G1 X-255.864 Y345.422
G1 X-252.617 Y303.214
G1 X-187.682 Y286.981
G1 X-233.136 Y290.227
G1 X-249.370 Y241.526
G1 X-181.188 Y332.435
G1 X-216.903 Y261.007
G1 X-174.695 Y235.032
G1 X-220.149 Y257.760
G1 X-177.942 Y261.007
G1 X-213.656 Y319.448
G1 X-171.448 Y329.188
G1 X-226.643 Y241.526
G1 X-181.188 Y231.786
G1 X-226.643 Y244.773
G1 X-138.981 Y137.630
G1 X-87.032 Y79.188
G1 X-93.526 Y14.253
G1 X-106.513 Y56.461
G1 X-35.084 Y85.682
G1 X-28.591 Y43.474
G1 X.630 Y92.175
G1 X-41.578 Y134.383
G1 X-103.266 Y140.877
G1 X-80.539 Y202.565
G1 X-48.071 Y157.110
G1 X7.123 Y124.643
G1 X72.058 Y134.383
G1 X114.266 Y114.903
G1 X72.058 Y121.396
G1 X133.747 Y92.175
G1 X192.188 Y14.253
G1 X234.396 Y23.993
G1 X279.851 Y27.240
G1 X322.058 Y14.253
G1 X361.019 Y59.708
G1 X341.539 Y134.383
G1 X357.773 Y176.591
G1 X351.279 Y134.383
G1 X364.266 Y176.591
G1 X286.344 Y92.175
G1 X289.591 Y40.227
G1 X224.656 Y75.942
G1 X273.357 Y66.201
G1 X292.838 Y111.656
G1 X250.630 Y114.903
G1 X289.591 Y157.110
G1 X283.097 Y114.903
G1 X325.305 Y150.617
G1 X318.812 Y92.175
G1 X263.617 Y114.903
G1 X257.123 Y179.838
G1 X221.409 Y92.175
G1 X175.955 Y85.682
G1 X182.448 Y43.474
G1 X136.993 Y53.214
G1 X159.721 Y105.162
G1 X201.929 Y121.396
G1 X195.435 Y79.188
G1 X153.227 Y121.396
G1 X111.019 Y98.669
G1 X107.773 Y144.123
G1 X62.318 Y101.916
G1 X85.045 Y56.461
G1 X88.292 Y14.253
G1 X130.500 Y49.968
G1 X104.526 Y-14.968
G1 X55.825 Y-11.721
G1 X39.591 Y-57.175
G1 X81.799 Y-66.916
G1 X33.097 Y-66.916
G1 X-22.097 Y-76.656
G1 X-93.526 Y-47.435
G1 X-25.344 Y-18.214
G1 X26.604 Y-31.201
G1 X72.058 Y-86.396
G1 X29.851 Y-79.903
G1 X72.058 Y-135.097
G1 X101.279 Y-180.552
G1 X156.474 Y-183.799
G1 X136.993 Y-141.591
G1 X104.526 Y-99.383
G1 X3.877 Y-138.344
G1 X46.084 Y-151.331
G1 X10.370 Y-109.123
G1 X-9.110 Y-151.331
G1 X.630 Y-102.630
G1 X49.331 Y-148.084
G1 X33.097 Y-203.279
G1 X88.292 Y-251.981
G1 X72.058 Y-303.929
G1 X136.993 Y-316.916
G1 X182.448 Y-342.890
G1 X133.747 Y-339.643
G1 X205.175 Y-394.838
G1 X179.201 Y-352.630
G1 X221.409 Y-368.864
G1 X283.097 Y-359.123
G1 X341.539 Y-378.604
G1 X322.058 Y-420.812
G1 X364.266 Y-407.825
G1 X322.058 Y-381.851
G1 X279.851 Y-365.617
G1 X328.552 Y-375.357
G1 X283.097 Y-404.578
G1 X240.890 Y-407.825
G1 X279.851 Y-450.032
G1 X335.045 Y-411.071
G1 X318.812 Y-459.773
G1 X286.344 Y-505.227
G1 X312.318 Y-459.773
G1 X266.864 Y-472.760
G1 X283.097 Y-430.552
G1 X240.890 Y-437.045
G1 X296.084 Y-385.097
G1 X247.383 Y-391.591
G1 X263.617 Y-342.890
G1 X325.305 Y-323.409
G1 X341.539 Y-281.201
G1 X354.526 Y-329.903
G1 X361.019 Y-372.110
G1 X364.266 Y-417.565
G1 X328.552 Y-365.617
G1 X283.097 Y-365.617
G0 Z1



G0 X146.734 Y-105.877
G1 Z0

G1 X98.032 Y-79.903
G1 X10.370 Y-70.162
G1 X52.578 Y-92.890
G1 X364.266 Y-115.617
G1 X344.786 Y-174.058
G1 X302.578 Y-167.565
G1 X364.266 Y-122.110
G1 X325.305 Y-27.955
G1 X283.097 Y-40.942
G1 X244.136 Y4.513
G1 X253.877 Y-37.695
G1 X195.435 Y-5.227
G1 X240.890 Y1.266
G1 X195.435 Y14.253
G1 X240.890 Y17.500
G1 X237.643 Y59.708
G1 X208.422 Y105.162
G1 X250.630 Y79.188
G1 X263.617 Y144.123
G1 X221.409 Y108.409
G1 X257.123 Y186.331
G1 X224.656 Y127.890
G1 X253.877 Y186.331
G1 X192.188 Y209.058
G1 X185.695 Y166.851
G1 X208.422 Y244.773
G1 X140.240 Y231.786
G1 X182.448 Y212.305
G1 X140.240 Y241.526
G1 X185.695 Y251.266
G1 X234.396 Y225.292
G1 X240.890 Y267.500
G1 X224.656 Y215.552
G1 X172.708 Y244.773
G1 X214.916 Y231.786
G1 X172.708 Y235.032
G1 X140.240 Y157.110
G1 X182.448 Y144.123
G1 X179.201 Y186.331
G1 X205.175 Y319.448
G1 X153.227 Y329.188
G1 X133.747 Y371.396
G1 X78.552 Y429.838
G1 X143.487 Y459.058
G1 X81.799 Y442.825
G1 X10.370 Y507.760
G1 X52.578 Y517.500
G1 X94.786 Y517.500
G1 X136.993 Y507.760
G1 X-77.292 Y517.500
G1 X-57.812 Y472.045
G1 X-96.773 Y416.851
G1 X-77.292 Y459.058
G1 X-103.266 Y416.851
G1 X-148.721 Y423.344
G1 X-197.422 Y459.058
G1 X-145.474 Y488.279
G1 X-194.175 Y472.045
G1 X-194.175 Y429.838
G1 X-197.422 Y472.045
G1 X-151.968 Y501.266
G1 X-229.890 Y514.253
G1 X-187.682 Y504.513
G1 X-229.890 Y511.007
G1 X-187.682 Y517.500
G1 X-229.890 Y517.500
G1 X-181.188 Y504.513
G1 X-96.773 Y478.539
G1 X-145.474 Y498.019
G1 X-151.968 Y455.812
G1 X-135.734 Y498.019
G1 X-12.357 Y517.500
G1 X-74.045 Y514.253
G1 X-15.604 Y511.007
G1 X33.097 Y507.760
G1 X-5.864 Y459.058
G1 X62.318 Y384.383
G1 X39.591 Y426.591
G1 X81.799 Y410.357
G1 X33.097 Y420.097
G1 X91.539 Y423.344
G1 X3.877 Y413.604
G1 X-5.864 Y472.045
G1 X10.370 Y429.838
G1 X.630 Y475.292
G1 X-22.097 Y433.084
G1 X20.110 Y407.110
G1 X-12.357 Y468.799
G1 X36.344 Y517.500
G1 X85.045 Y514.253
G1 X127.253 Y517.500
G1 X140.240 Y475.292
G1 X81.799 Y446.071
G1 X39.591 Y472.045
G1 X13.617 Y514.253
G1 X59.071 Y475.292
G1 X10.370 Y504.513
G1 X.630 Y455.812
G1 X59.071 Y478.539
G1 X94.786 Y426.591
G1 X49.331 Y403.864
G1 X-41.578 Y381.136
G1 X23.357 Y400.617
G1 X-35.084 Y455.812
G1 X33.097 Y488.279
G1 X13.617 Y439.578
G1 X-41.578 Y452.565
G1 X-87.032 Y498.019
G1 X-54.565 Y449.318
G1 X-12.357 Y429.838
G1 X-77.292 Y449.318
G1 X-90.279 Y407.110
G1 X-83.786 Y452.565
G1 X-80.539 Y403.864
G1 X-70.799 Y449.318
G1 X-100.019 Y407.110
G1 X-106.513 Y449.318
G1 X-187.682 Y381.136
G1 X-135.734 Y348.669
G1 X-100.019 Y273.993
G1 X-142.227 Y264.253
G1 X-96.773 Y280.487
G1 X-158.461 Y235.032
G1 X-148.721 Y283.734
G1 X-174.695 Y209.058
G1 X-132.487 Y137.630
G1 X-148.721 Y179.838
G1 X-106.513 Y160.357
G1 X-109.760 Y79.188
G1 X-100.019 Y121.396
G1 X-57.812 Y101.916
G1 X.630 Y98.669
G1 X-5.864 Y144.123
G1 X-51.318 Y170.097
G1 X-5.864 Y192.825
G1 X10.370 Y144.123
G1 X39.591 Y186.331
G1 X49.331 Y228.539
G1 X65.565 Y137.630
G1 X101.279 Y179.838
G1 X59.071 Y173.344
G1 X59.071 Y-31.201
G1 X16.864 Y-40.942
G1 X-22.097 Y79.188
G1 X20.110 Y88.929
G1 X.630 Y153.864
G1 X-48.071 Y160.357
G1 X.630 Y131.136
G1 X7.123 Y176.591
G1 X-22.097 Y218.799
G1 X7.123 Y264.253
G1 X-41.578 Y345.422
G1 X-28.591 Y303.214
G1 X13.617 Y342.175
G1 X-38.331 Y261.007
G1 X-83.786 Y248.019
G1 X.630 Y248.019
G1 X-41.578 Y238.279
G1 X29.851 Y238.279
G1 X62.318 Y342.175
G1 X104.526 Y361.656
G1 X111.019 Y319.448
G1 X153.227 Y322.695
G1 X111.019 Y286.981
G1 X153.227 Y267.500
G1 X149.981 Y225.292
G1 X117.513 Y286.981
G1 X75.305 Y319.448
G1 X130.500 Y299.968
G1 X85.045 Y309.708
G1 X117.513 Y267.500
G1 X68.812 Y290.227
G1 X20.110 Y286.981
G1 X62.318 Y267.500
G1 X120.760 Y361.656
G1 X114.266 Y319.448
G1 X81.799 Y277.240
G1 X133.747 Y280.487
G1 X91.539 Y261.007
G1 X88.292 Y218.799
G1 X46.084 Y257.760
G1 X130.500 Y348.669
G1 X88.292 Y345.422
G1 X140.240 Y316.201
G1 X195.435 Y319.448
G1 X136.993 Y306.461
G1 X94.786 Y319.448
G1 X52.578 Y322.695
G1 X91.539 Y364.903
G1 X101.279 Y319.448
G1 X124.007 Y361.656
G1 X136.993 Y403.864
G1 X94.786 Y397.370
G1 X101.279 Y472.045
G1 X143.487 Y449.318
G1 X101.279 Y465.552
G1 X59.071 Y452.565
G1 X49.331 Y494.773
G1 X52.578 Y452.565
G1 X153.227 Y459.058
G1 X101.279 Y442.825
G1 X149.981 Y494.773
G1 X227.903 Y485.032
G1 X185.695 Y501.266
G1 X237.643 Y511.007
G1 X195.435 Y488.279
G1 X237.643 Y494.773
G1 X240.890 Y452.565
G1 X208.422 Y517.500
G1 X302.578 Y511.007
G1 X260.370 Y501.266
G1 X305.825 Y517.500
G1 X263.617 Y507.760
G1 X364.266 Y455.812
G1 X305.825 Y478.539
G1 X364.266 Y465.552
G1 X318.812 Y481.786
G1 X364.266 Y459.058
G1 X322.058 Y481.786
G1 X364.266 Y439.578
G1 X318.812 Y433.084
G1 X364.266 Y436.331
G1 X354.526 Y478.539
G1 X357.773 Y436.331
G1 X344.786 Y478.539
G1 X364.266 Y429.838
G1 X361.019 Y472.045
G1 X305.825 Y468.799
G0 Z1

G0 X279.851 Y-385.097
G1 Z0

G1 X322.058 Y-359.123
G1 X344.786 Y-401.331
G1 X315.565 Y-443.539
G1 X270.110 Y-459.773
G1 X312.318 Y-508.474
G1 X357.773 Y-485.747
G1 X315.565 Y-511.721
G1 X364.266 Y-488.994
G1 X312.318 Y-495.487
G1 X357.773 Y-508.474
G1 X289.591 Y-495.487
G1 X331.799 Y-466.266
G1 X273.357 Y-453.279
G1 X315.565 Y-492.240
G1 X357.773 Y-459.773
G1 X351.279 Y-394.838
G1 X361.019 Y-352.630
G1 X318.812 Y-394.838
G1 X273.357 Y-398.084
G1 X283.097 Y-323.409
G1 X266.864 Y-365.617
G1 X318.812 Y-385.097
G1 X364.266 Y-368.864
G1 X357.773 Y-310.422
G1 X315.565 Y-323.409
G1 X270.110 Y-329.903
G1 X218.162 Y-482.500
G1 X250.630 Y-440.292
G1 X175.955 Y-446.786
G1 X162.968 Y-391.591
G1 X149.981 Y-440.292
G1 X117.513 Y-482.500
G1 X39.591 Y-511.721
G1 X124.007 Y-469.513
G1 X208.422 Y-508.474
G1 X166.214 Y-501.981
G1 X72.058 Y-508.474
G1 X117.513 Y-498.734
G1 X159.721 Y-450.032
G1 X117.513 Y-466.266
G1 X85.045 Y-511.721
G1 X130.500 Y-508.474
G1 X214.916 Y-511.721
G1 X257.123 Y-505.227
G1 X344.786 Y-394.838
G1 X351.279 Y-437.045
G1 X318.812 Y-362.370
G1 X276.604 Y-355.877
G1 X260.370 Y-398.084
G1 X231.149 Y-446.786
G1 X188.942 Y-456.526
G1 X231.149 Y-501.981
G1 X182.448 Y-505.227
G1 X279.851 Y-18.214
G1 X227.903 Y-128.604
G1 X260.370 Y-86.396
G1 X218.162 Y-83.149
G1 X260.370 Y-102.630
G1 X305.825 Y-96.136
G1 X286.344 Y-138.344
G1 X364.266 Y-79.903
G1 X331.799 Y-125.357
G1 X341.539 Y-177.305
G1 X211.669 Y-183.799
G1 X182.448 Y-251.981
G1 X208.422 Y-209.773
G1 X159.721 Y-232.500
G1 X117.513 Y-261.721
G1 X211.669 Y-271.461
G1 X169.461 Y-297.435
G1 X166.214 Y-255.227
G1 X143.487 Y-300.682
G1 X68.812 Y-310.422
G1 X23.357 Y-320.162
G1 X65.565 Y-329.903
G1 X107.773 Y-226.006
G1 X62.318 Y-242.240
G1 X104.526 Y-268.214
G1 X140.240 Y-310.422
G1 X98.032 Y-349.383
G1 X16.864 Y-219.513
G1 X59.071 Y-200.032
G1 X16.864 Y-183.799
G1 X62.318 Y-187.045
G1 X20.110 Y-154.578
G1 X62.318 Y-135.097
G1 X107.773 Y-177.305
G1 X169.461 Y-154.578
G1 X211.669 Y-148.084
G1 X169.461 Y-177.305
G1 X195.435 Y-109.123
G1 X153.227 Y-115.617
G1 X205.175 Y-154.578
G1 X188.942 Y-112.370
G1 X179.201 Y-34.448
G1 X192.188 Y-76.656
G1 X234.396 Y-50.682
G1 X351.279 Y-47.435
G1 X354.526 Y-5.227
G1 X312.318 Y-50.682
G1 X341.539 Y-1.981
G1 X331.799 Y-63.669
G1 X357.773 Y-21.461
G1 X364.266 Y33.734
G1 X351.279 Y88.929
G1 X309.071 Y46.721
G1 X351.279 Y23.993
G1 X325.305 Y66.201
G1 X312.318 Y114.903
G1 X270.110 Y131.136
G1 X292.838 Y85.682
G1 X240.890 Y53.214
G1 X260.370 Y137.630
G1 X231.149 Y82.435
G1 X263.617 Y30.487
G1 X257.123 Y79.188
G1 X231.149 Y127.890
G1 X302.578 Y202.565
G1 X279.851 Y137.630
G1 X302.578 Y92.175
G1 X289.591 Y144.123
G1 X331.799 Y157.110
G1 X364.266 Y199.318
G1 X338.292 Y280.487
G1 X344.786 Y238.279
G1 X338.292 Y293.474
G1 X364.266 Y251.266
G1 X322.058 Y280.487
G1 X325.305 Y322.695
G1 X351.279 Y273.993
G1 X361.019 Y222.045
G1 X331.799 Y277.240
G1 X338.292 Y319.448
G1 X260.370 Y403.864
G1 X263.617 Y361.656
G1 X270.110 Y403.864
G1 X299.331 Y361.656
G1 X250.630 Y316.201
G1 X296.084 Y348.669
G1 X244.136 Y299.968
G1 X221.409 Y345.422
G1 X263.617 Y312.955
G1 X221.409 Y329.188
G1 X175.955 Y306.461
G1 X208.422 Y264.253
G1 X234.396 Y306.461
G1 X276.604 Y322.695
G1 X201.929 Y254.513
G1 X244.136 Y218.799
G1 X179.201 Y179.838
G1 X156.474 Y261.007
G1 X101.279 Y277.240
G1 X127.253 Y235.032
G1 X117.513 Y192.825
G1 X159.721 Y140.877
G1 X143.487 Y189.578
G1 X188.942 Y218.799
G1 X240.890 Y183.084
G1 X283.097 Y179.838
G1 X270.110 Y222.045
G1 X283.097 Y277.240
G1 X318.812 Y225.292
G1 X325.305 Y176.591
G1 X289.591 Y222.045
G1 X247.383 Y179.838
G1 X153.227 Y-24.708
G1 X201.929 Y-11.721
G1 X244.136 Y-37.695
G1 X224.656 Y4.513
G1 X175.955 Y14.253
G1 X172.708 Y56.461
G1 X227.903 Y56.461
G1 X270.110 Y23.993
G1 X266.864 Y66.201
G1 X221.409 Y53.214
G1 X179.201 Y82.435
G1 X133.747 Y40.227
G1 X72.058 Y-27.955
G1 X65.565 Y23.993
G1 X88.292 Y66.201
G1 X114.266 Y111.656
G1 X72.058 Y108.409
G1 X39.591 Y11.007
G1 X-48.071 Y43.474
G1 X-5.864 Y1.266
G1 X36.344 Y30.487
G1 X.630 Y72.695
G1 X16.864 Y30.487
G1 X-38.331 Y-5.227
G1 X-70.799 Y-63.669
G1 X-116.253 Y-24.708
G1 X-57.812 Y1.266
G1 X-103.266 Y-24.708
G1 X-61.058 Y-57.175
G1 X-103.266 Y-44.188
G1 X-119.500 Y-86.396
G1 X-155.214 Y-31.201
G1 X-138.981 Y-73.409
G1 X-181.188 Y-44.188
G1 X-213.656 Y-96.136
G1 X-255.864 Y-86.396
G1 X-278.591 Y-128.604
G1 X-278.591 Y-174.058
G1 X-207.162 Y-193.539
G1 X-161.708 Y-206.526
G1 X-203.916 Y-206.526
G1 X-145.474 Y-229.253
G1 X-187.682 Y-297.435
G1 X-132.487 Y-303.929
G1 X-57.812 Y-232.500
G1 X-70.799 Y-190.292
G1 X-106.513 Y-148.084
G1 X-41.578 Y-187.045
G1 X20.110 Y-235.747
G1 X-25.344 Y-193.539
G1 X23.357 Y-180.552
G1 X65.565 Y-183.799
G1 X111.019 Y-174.058
G1 X159.721 Y-193.539
G1 X153.227 Y-118.864
G1 X124.007 Y-161.071
G1 X88.292 Y-109.123
G1 X130.500 Y-115.617
G1 X153.227 Y-167.565
G1 X201.929 Y-154.578
G1 X182.448 Y-245.487
G1 X195.435 Y-203.279
G1 X153.227 Y-229.253
G1 X182.448 Y-183.799
G1 X136.993 Y-174.058
G1 X107.773 Y-216.266
G1 X65.565 Y-203.279
G1 X78.552 Y-245.487
G1 X29.851 Y-255.227
G1 X75.305 Y-284.448
G1 X7.123 Y-264.968
G1 X-80.539 Y-326.656
G1 X-83.786 Y-372.110
G1 X-135.734 Y-339.643
G1 X-93.526 Y-346.136
G1 X-135.734 Y-336.396
G1 X-113.007 Y-287.695
G1 X-155.214 Y-258.474
G1 X-106.513 Y-251.981
G1 X-171.448 Y-177.305
G1 X-129.240 Y-122.110
G1 X-145.474 Y-164.318
G1 X-96.773 Y-131.851
G1 X-74.045 Y-174.058
G1 X-57.812 Y-122.110
G1 X-15.604 Y-109.123
G1 X-35.084 Y-151.331
G1 X-2.617 Y-40.942
G1 X-61.058 Y-21.461
G1 X-80.539 Y23.993
G1 X-35.084 Y20.747
G1 X29.851 Y59.708
G1 X29.851 Y17.500
G1 X68.812 Y59.708
G1 X78.552 Y101.916
G1 X140.240 Y88.929
G1 X156.474 Y131.136
G1 X143.487 Y173.344
G1 X124.007 Y215.552
G1 X120.760 Y166.851
G1 X75.305 Y160.357
G1 X62.318 Y88.929
G1 X42.838 Y43.474
G1 X85.045 Y-21.461
G1 X127.253 Y-14.968
G1 X75.305 Y-1.981
G1 X78.552 Y-47.435
G1 X75.305 Y-92.890
G1 X117.513 Y-102.630
G1 X124.007 Y-151.331
G1 X81.799 Y-131.851
G1 X85.045 Y-89.643
G1 X127.253 Y-60.422
G1 X169.461 Y-24.708
G1 X127.253 Y-50.682
G1 X78.552 Y-79.903
G1 X120.760 Y-96.136
G1 X166.214 Y-76.656
G1 X114.266 Y-83.149
G1 X156.474 Y-92.890
G1 X201.929 Y-53.929
G1 X188.942 Y-11.721
G1 X146.734 Y-5.227
G1 X237.643 Y33.734
G1 X224.656 Y-8.474
G1 X175.955 Y-63.669
G1 X221.409 Y-47.435
G1 X175.955 Y-5.227
G1 X201.929 Y-73.409
G1 X214.916 Y-115.617
G1 X257.123 Y-112.370
G1 X214.916 Y-131.851
G1 X273.357 Y-76.656
G1 X286.344 Y-1.981
G1 X296.084 Y-44.188
G1 X250.630 Y-1.981
G1 X266.864 Y-44.188
G1 X263.617 Y-89.643
G1 X227.903 Y-138.344
G1 X322.058 Y-99.383
G1 X286.344 Y-141.591
G1 X244.136 Y-180.552
G1 X286.344 Y-209.773
G1 X302.578 Y-251.981
G1 X279.851 Y-209.773
G1 X253.877 Y-251.981
G1 X208.422 Y-216.266
G1 X182.448 Y-258.474
G1 X133.747 Y-284.448
G1 X175.955 Y-300.682
G1 X195.435 Y-342.890
G1 X146.734 Y-368.864
G1 X104.526 Y-378.604
G1 X162.968 Y-372.110
G1 X208.422 Y-401.331
G1 X211.669 Y-349.383
G1 X214.916 Y-300.682
G1 X257.123 Y-300.682
G1 X318.812 Y-316.916
G1 X263.617 Y-290.942
G1 X354.526 Y-313.669
G1 X341.539 Y-368.864
G1 X364.266 Y-326.656
G1 X351.279 Y-281.201
G1 X270.110 Y-277.955
G1 X227.903 Y-281.201
G1 X182.448 Y-261.721
G1 X224.656 Y-235.747
G1 X205.175 Y-193.539
G1 X250.630 Y-245.487
G1 X231.149 Y-200.032
G1 X273.357 Y-203.279
G1 X257.123 Y-157.825
G1 X263.617 Y-112.370
G1 X364.266 Y-83.149
G1 X296.084 Y-135.097
G1 X357.773 Y-122.110
G1 X315.565 Y-144.838
G1 X357.773 Y-161.071
G1 X315.565 Y-183.799
G1 X357.773 Y-174.058
G1 X338.292 Y-125.357
G1 X361.019 Y-79.903
G1 X315.565 Y-92.890
G1 X299.331 Y23.993
G1 X341.539 Y59.708
G1 X357.773 Y101.916
G1 X364.266 Y59.708
G1 X348.032 Y-5.227
G1 X296.084 Y-34.448
G1 X338.292 Y1.266
G1 X309.071 Y-44.188
G1 X364.266 Y-31.201
G1 X364.266 Y14.253
G1 X341.539 Y56.461
G1 X299.331 Y11.007
G1 X292.838 Y-31.201
G1 X335.045 Y-21.461
G1 X309.071 Y62.955
G1 X348.032 Y17.500
G1 X322.058 Y66.201
G1 X279.851 Y17.500
G1 X214.916 Y11.007
G1 X240.890 Y-31.201
G1 X208.422 Y11.007
G1 X218.162 Y-57.175
G1 X244.136 Y-102.630
G1 X263.617 Y-60.422
G1 X231.149 Y-102.630
G1 X188.942 Y-99.383
G1 X120.760 Y-76.656
G1 X107.773 Y-34.448
G1 X153.227 Y-31.201
G1 X195.435 Y4.513
G1 X240.890 Y-40.942
G1 X286.344 Y-21.461
G1 X296.084 Y36.981
G1 X250.630 Y36.981
G1 X309.071 Y23.993
G1 X302.578 Y-24.708
G1 X357.773 Y-37.695
G1 X299.331 Y-122.110
G1 X270.110 Y-53.929
G1 X283.097 Y-102.630
G1 X260.370 Y-144.838
G1 X214.916 Y-109.123
G1 X182.448 Y-157.825
G1 X166.214 Y-115.617
G1 X208.422 Y-151.331
G1 X250.630 Y-138.344
G1 X266.864 Y-209.773
G1 X312.318 Y-235.747
G1 X309.071 Y-281.201
G1 X302.578 Y-226.006
G1 X289.591 Y-268.214
G1 X237.643 Y-274.708
G1 X227.903 Y-326.656
G1 X214.916 Y-391.591
G1 X175.955 Y-346.136
G1 X130.500 Y-362.370
G1 X85.045 Y-381.851
G1 X101.279 Y-433.799
G1 X59.071 Y-411.071
G1 X52.578 Y-368.864
G1 X-12.357 Y-339.643
G1 X29.851 Y-342.890
G1 X-15.604 Y-316.916
G1 X-41.578 Y-261.721
G1 X29.851 Y-281.201
G1 X85.045 Y-251.981
G1 X111.019 Y-209.773
G1 X68.812 Y-196.786
G1 X114.266 Y-200.032
G1 X59.071 Y-213.019
G1 X136.993 Y-238.994
G1 X94.786 Y-258.474
G1 X188.942 Y-232.500
G1 X136.993 Y-258.474
G1 X179.201 Y-297.435
G1 X208.422 Y-359.123
G1 X195.435 Y-404.578
G1 X172.708 Y-349.383
G1 X130.500 Y-326.656
G1 X88.292 Y-352.630
G1 X-87.032 Y-313.669
G1 X-54.565 Y-248.734
G1 X-100.019 Y-261.721
G1 X-64.305 Y-316.916
G1 X-87.032 Y-271.461
G1 X-119.500 Y-226.006
G1 X-161.708 Y-200.032
G1 X-197.422 Y-157.825
G1 X-187.682 Y-219.513
G1 X-216.903 Y-274.708
G1 X-213.656 Y-326.656
G1 X-177.942 Y-271.461
G1 X-220.149 Y-271.461
G1 X-298.071 Y-261.721
G1 X-340.279 Y-300.682
G1 X-320.799 Y-226.006
G1 X-311.058 Y-271.461
G1 X-369.500 Y-196.786
G1 X-327.292 Y-180.552
G1 X-369.500 Y-144.838
G1 X-327.292 Y-161.071
G1 X-369.500 Y-157.825
G1 X-324.045 Y-125.357
G1 X-327.292 Y-83.149
G1 X-366.253 Y-31.201
G1 X-320.799 Y-40.942
G1 X-275.344 Y-18.214
G1 X-317.552 Y-47.435
G1 X-291.578 Y-1.981
G1 X-346.773 Y62.955
G1 X-327.292 Y20.747
G1 X-369.500 Y30.487
G1 X-304.565 Y-1.981
G1 X-324.045 Y-47.435
G1 X-294.825 Y-89.643
G1 X-278.591 Y-37.695
G1 X-324.045 Y-8.474
G1 X-363.007 Y40.227
G1 X-369.500 Y-11.721
G1 X-366.253 Y-53.929
G1 X-337.032 Y-131.851
G1 X-265.604 Y-79.903
G1 X-291.578 Y-131.851
G1 X-249.370 Y-144.838
G1 X-246.123 Y-99.383
G1 X-294.825 Y-109.123
G1 X-252.617 Y-76.656
G1 X-249.370 Y-31.201
G1 X-223.396 Y-73.409
G1 X-194.175 Y-11.721
G1 X-184.435 Y36.981
G1 X-226.643 Y1.266
G1 X-194.175 Y-40.942
G1 X-148.721 Y-27.955
G1 X-125.993 Y-73.409
G1 X-90.279 Y-115.617
G1 X33.097 Y-76.656
G1 X-28.591 Y-79.903
G1 X-57.812 Y-34.448
G1 X-15.604 Y-27.955
G1 X-57.812 Y-18.214
G1 X-109.760 Y30.487
G1 X-67.552 Y11.007
G1 X-100.019 Y56.461
G1 X-148.721 Y27.240
G1 X-151.968 Y105.162
G1 X-168.201 Y59.708
G1 X-125.993 Y43.474
G1 X-164.955 Y-1.981
G1 X-116.253 Y17.500
G1 X-113.007 Y-24.708
G1 X-197.422 Y-112.370
G1 X-155.214 Y-79.903
G1 X-181.188 Y-122.110
G1 X-194.175 Y-73.409
G1 X-236.383 Y-76.656
G1 X-259.110 Y-34.448
G1 X-317.552 Y11.007
G1 X-327.292 Y137.630
G1 X-369.500 Y176.591
G1 X-317.552 Y209.058
G1 X-330.539 Y157.110
G1 X-242.877 Y131.136
G1 X-268.851 Y173.344
G1 X-229.890 Y218.799
G1 X-262.357 Y157.110
G1 X-278.591 Y114.903
G1 X-311.058 Y170.097
G1 X-311.058 Y127.890
G1 X-294.825 Y170.097
G1 X-333.786 Y101.916
G1 X-327.292 Y144.123
G1 X-369.500 Y179.838
G1 X-369.500 Y85.682
G1 X-249.370 Y43.474
G1 X-207.162 Y66.201
G1 X-187.682 Y108.409
G1 X-233.136 Y72.695
G1 X-275.344 Y82.435
G1 X-252.617 Y40.227
G1 X-320.799 Y101.916
G1 X-337.032 Y46.721
G1 X-278.591 Y49.968
G1 X-307.812 Y92.175
G1 X-307.812 Y40.227
G1 X-291.578 Y82.435
G1 X-337.032 Y118.149
G1 X-333.786 Y179.838
G1 X-288.331 Y212.305
G1 X-304.565 Y273.993
G1 X-346.773 Y329.188
G1 X-343.526 Y286.981
G1 X-324.045 Y329.188
G1 X-298.071 Y280.487
G1 X-324.045 Y238.279
G1 X-324.045 Y296.721
G1 X-366.253 Y290.227
G1 X-346.773 Y144.123
G1 X-366.253 Y196.071
G1 X-369.500 Y241.526
G1 X-369.500 Y374.643
G1 X-359.760 Y332.435
G1 X-359.760 Y270.747
G1 X-223.396 Y329.188
G1 X-229.890 Y264.253
G1 X-259.110 Y222.045
G1 X-262.357 Y173.344
G1 X-249.370 Y131.136
G1 X-190.929 Y153.864
G1 X-233.136 Y124.643
G1 X-275.344 Y101.916
G1 X-259.110 Y144.123
G1 X-255.864 Y186.331
G1 X-213.656 Y215.552
G1 X-262.357 Y235.032
G1 X-216.903 Y290.227
G1 X-174.695 Y270.747
G1 X-151.968 Y312.955
G1 X-100.019 Y205.812
G1 X-142.227 Y186.331
G1 X-96.773 Y235.032
G1 X-38.331 Y215.552
G1 X-83.786 Y192.825
G1 X-90.279 Y140.877
G1 X-132.487 Y170.097
G1 X-190.929 Y134.383
G1 X-161.708 Y179.838
G1 X-129.240 Y105.162
G1 X-168.201 Y62.955
G1 X-158.461 Y111.656
G1 X-142.227 Y157.110
G1 X-145.474 Y114.903
G1 X-125.993 Y-57.175
G1 X-77.292 Y4.513
G1 X-142.227 Y-102.630
G1 X-100.019 Y-96.136
G1 X-119.500 Y-44.188
G1 X-171.448 Y-24.708
G1 X-242.877 Y59.708
G1 X-210.409 Y11.007
G1 X-200.669 Y53.214
G1 X-203.916 Y11.007
G1 X-249.370 Y-11.721
G1 X-304.565 Y4.513
G1 X-350.019 Y62.955
G1 X-346.773 Y4.513
G1 X-285.084 Y-40.942
G1 X-327.292 Y-57.175
G1 X-359.760 Y-11.721
G1 X-353.266 Y40.227
G1 X-311.058 Y-5.227
G1 X-356.513 Y-1.981
G1 X-330.539 Y-47.435
G1 X-343.526 Y-109.123
G1 X-301.318 Y-131.851
G1 X-356.513 Y-70.162
G1 X-327.292 Y-122.110
G1 X-304.565 Y-50.682
G1 X-281.838 Y-92.890
G1 X-272.097 Y-157.825
G1 X-239.630 Y-206.526
G1 X-288.331 Y-209.773
G1 X-301.318 Y-154.578
G1 X-304.565 Y-196.786
G1 X-369.500 Y-164.318
G1 X-369.500 Y-122.110
G1 X-359.760 Y-170.812
G1 X-320.799 Y-128.604
G0 Z1



G0 X-106.513 Y-219.513
G1 Z0

G1 X-142.227 Y-274.708
G1 X-194.175 Y-258.474
G1 X-145.474 Y-261.721
G1 X-135.734 Y-219.513
G1 X-164.955 Y-174.058
G1 X-177.942 Y-216.266
G1 X-138.981 Y-258.474
G1 X-229.890 Y-200.032
G1 X-223.396 Y-157.825
G1 X-278.591 Y-213.019
G1 X-236.383 Y-209.773
G1 X-226.643 Y-154.578
G1 X-255.864 Y-112.370
G1 X-220.149 Y-60.422
G1 X-181.188 Y-109.123
G1 X-168.201 Y-44.188
G0 Z1

G0 X146.734 Y-105.877
G1 Z0

G1 X114.266 Y-157.825
G1 X59.071 Y-131.851
G1 X75.305 Y-174.058
G1 X120.760 Y-190.292
G1 X42.838 Y-294.188
G1 X65.565 Y-336.396
G1 X107.773 Y-326.656
G1 X55.825 Y-333.149
G1 X16.864 Y-245.487
G1 X-35.084 Y-251.981
G1 X-93.526 Y-209.773
G1 X-83.786 Y-167.565
G1 X-151.968 Y-167.565
G1 X-194.175 Y-161.071
G1 X-138.981 Y-128.604
G1 X-190.929 Y-170.812
G1 X-129.240 Y-131.851
G1 X-87.032 Y-122.110
G1 X-31.838 Y-102.630
G1 X-38.331 Y-57.175
G1 X-9.110 Y-99.383
G1 X26.604 Y-144.838
G1 X68.812 Y-115.617
G1 X111.019 Y-138.344
G1 X98.032 Y-180.552
G1 X94.786 Y-131.851
G1 X111.019 Y-31.201
G1 X162.968 Y-11.721
G1 X114.266 Y-5.227
G1 X68.812 Y33.734
G1 X111.019 Y-8.474
G1 X159.721 Y118.149
G1 X88.292 Y131.136
G1 X107.773 Y79.188
G1 X55.825 Y108.409
G1 X101.279 Y150.617
G1 X26.604 Y111.656
G1 X46.084 Y153.864
G1 X49.331 Y75.942
G1 X26.604 Y137.630
G1 X68.812 Y153.864
G1 X117.513 Y205.812
G1 X159.721 Y241.526
G1 X78.552 Y209.058
G1 X65.565 Y251.266
G1 X23.357 Y244.773
G1 X78.552 Y241.526
G1 X65.565 Y196.071
G1 X26.604 Y140.877
G1 X-2.617 Y202.565
G1 X-35.084 Y150.617
G1 X-93.526 Y137.630
G1 X-87.032 Y192.825
G1 X-38.331 Y218.799
G1 X-190.929 Y166.851
G1 X-233.136 Y179.838
G1 X-190.929 Y140.877
G1 X-125.993 Y176.591
G1 X-74.045 Y202.565
G1 X-158.461 Y173.344
G1 X-213.656 Y101.916
G1 X-171.448 Y79.188
G1 X-210.409 Y121.396
G1 X-262.357 Y124.643
G1 X-278.591 Y82.435
G1 X-239.630 Y127.890
G1 X-281.838 Y134.383
G1 X-281.838 Y82.435
G1 X-200.669 Y56.461
G1 X-242.877 Y75.942
G1 X-255.864 Y27.240
G1 X-239.630 Y-18.214
G1 X-187.682 Y-24.708
G1 X-242.877 Y-44.188
G1 X-229.890 Y-99.383
G1 X-220.149 Y-14.968
G1 X-200.669 Y27.240
G1 X-171.448 Y72.695
G1 X-177.942 Y30.487
G1 X-155.214 Y72.695
G1 X-229.890 Y82.435
G1 X-187.682 Y69.448
G1 X-203.916 Y111.656
G1 X-259.110 Y33.734
G1 X-236.383 Y-8.474
G1 X-197.422 Y40.227
G1 X-181.188 Y-8.474
G1 X-210.409 Y33.734
G1 X-242.877 Y-11.721
G1 X-174.695 Y-57.175
G1 X-213.656 Y-14.968
G1 X-158.461 Y-24.708
G1 X-164.955 Y-70.162
G1 X-174.695 Y-27.955
G1 X-171.448 Y-92.890
G1 X-116.253 Y-102.630
G1 X-109.760 Y-164.318
G1 X-151.968 Y-157.825
G1 X-67.552 Y-209.773
G1 X-113.007 Y-187.045
G1 X-119.500 Y-141.591
G1 X-161.708 Y-128.604
G1 X-93.526 Y-118.864
G1 X-109.760 Y-76.656
G1 X-103.266 Y-128.604
G1 X-61.058 Y-141.591
G1 X-18.851 Y-128.604
G1 X-61.058 Y-118.864
G1 X7.123 Y-148.084
G1 X55.825 Y-161.071
G1 X16.864 Y-203.279
G1 X-31.838 Y-174.058
G1 X-44.825 Y-216.266
G1 X-35.084 Y-174.058
G1 X20.110 Y-213.019
G1 X62.318 Y-190.292
G1 X-9.110 Y-157.825
G1 X36.344 Y-135.097
G1 X-5.864 Y-135.097
G1 X-22.097 Y-66.916
G1 X26.604 Y-135.097
G1 X-15.604 Y-157.825
G1 X-35.084 Y-115.617
G1 X-67.552 Y-157.825
G1 X-57.812 Y-203.279
G1 X-9.110 Y-180.552
G1 X-61.058 Y-177.305
G1 X-12.357 Y-216.266
G1 X29.851 Y-200.032
G1 X117.513 Y-271.461
G1 X75.305 Y-277.955
G1 X33.097 Y-424.058
G1 X26.604 Y-466.266
G1 X-22.097 Y-433.799
G1 X-12.357 Y-479.253
G1 X29.851 Y-482.500
G1 X49.331 Y-433.799
G1 X91.539 Y-437.045
G1 X46.084 Y-440.292
G1 X36.344 Y-488.994
G1 X10.370 Y-446.786
G1 X-31.838 Y-427.305
G1 X-5.864 Y-469.513
G1 X-54.565 Y-482.500
G1 X20.110 Y-492.240
G1 X62.318 Y-511.721
G1 X26.604 Y-424.058
G1 X68.812 Y-411.071
G1 X26.604 Y-375.357
G1 X68.812 Y-388.344
G1 X26.604 Y-365.617
G1 X88.292 Y-420.812
G1 X130.500 Y-433.799
G1 X188.942 Y-498.734
G1 X260.370 Y-508.474
G1 X218.162 Y-511.721
G1 X172.708 Y-479.253
G1 X88.292 Y-430.552
G1 X46.084 Y-420.812
G1 X101.279 Y-404.578
G1 X49.331 Y-407.825
G1 X101.279 Y-378.604
G1 X143.487 Y-355.877
G1 X198.682 Y-368.864
G1 X192.188 Y-323.409
G1 X195.435 Y-401.331
G1 X234.396 Y-359.123
G1 X276.604 Y-378.604
G1 X250.630 Y-420.812
G1 X234.396 Y-476.006
G1 X185.695 Y-440.292
G1 X227.903 Y-479.253
G1 X133.747 Y-424.058
G1 X175.955 Y-411.071
G1 X146.734 Y-488.994
G1 X169.461 Y-446.786
G1 X111.019 Y-482.500
G1 X130.500 Y-440.292
G1 X85.045 Y-424.058
G1 X127.253 Y-427.305
G1 X175.955 Y-414.318
G1 X120.760 Y-346.136
G1 X172.708 Y-346.136
G1 X127.253 Y-355.877
G1 X218.162 Y-398.084
G1 X218.162 Y-326.656
G1 X221.409 Y-268.214
G1 X266.864 Y-274.708
G1 X322.058 Y-274.708
G1 X364.266 Y-284.448
G1 X322.058 Y-284.448
G1 X364.266 Y-300.682
G1 X312.318 Y-290.942
G1 X270.110 Y-290.942
G1 X335.045 Y-320.162
G1 X344.786 Y-277.955
G1 X283.097 Y-303.929
G1 X322.058 Y-222.760
G1 X364.266 Y-222.760
G1 X318.812 Y-203.279
G1 X361.019 Y-213.019
G1 X318.812 Y-238.994
G1 X312.318 Y-281.201
G1 X270.110 Y-284.448
G1 X224.656 Y-274.708
G1 X224.656 Y-326.656
G1 X234.396 Y-274.708
G1 X276.604 Y-303.929
G1 X234.396 Y-297.435
G1 X279.851 Y-300.682
G1 X237.643 Y-294.188
G1 X283.097 Y-281.201
G1 X214.916 Y-287.695
G1 X221.409 Y-329.903
G1 X218.162 Y-248.734
G1 X260.370 Y-219.513
G1 X198.682 Y-200.032
G1 X156.474 Y-164.318
G1 X133.747 Y-105.877
G1 X78.552 Y-148.084
G1 X133.747 Y-177.305
G1 X182.448 Y-196.786
G1 X133.747 Y-274.708
G1 X175.955 Y-297.435
G1 X130.500 Y-316.916
G1 X143.487 Y-274.708
G1 X101.279 Y-342.890
G1 X143.487 Y-339.643
G1 X188.942 Y-391.591
G1 X231.149 Y-359.123
G1 X283.097 Y-394.838
G1 X354.526 Y-352.630
G1 X338.292 Y-398.084
G1 X312.318 Y-446.786
G1 X361.019 Y-433.799
G1 X312.318 Y-456.526
G1 X270.110 Y-463.019
G1 X312.318 Y-479.253
G1 X260.370 Y-437.045
G1 X211.669 Y-450.032
G1 X221.409 Y-492.240
G1 X234.396 Y-450.032
G1 X192.188 Y-433.799
G1 X101.279 Y-414.318
G1 X13.617 Y-443.539
G1 X-18.851 Y-401.331
G1 X-61.058 Y-437.045
G1 X-9.110 Y-424.058
G1 X-93.526 Y-326.656
G1 X-51.318 Y-300.682
G1 X-80.539 Y-362.370
G1 X-125.993 Y-365.617
G1 X-168.201 Y-359.123
G1 X-210.409 Y-368.864
G1 X-369.500 Y-323.409
G1 X-369.500 Y-365.617
G1 X-304.565 Y-355.877
G1 X-223.396 Y-485.747
G1 X-164.955 Y-508.474
G1 X-122.747 Y-511.721
G1 X-187.682 Y-479.253
G1 X-252.617 Y-508.474
G1 X-317.552 Y-511.721
G1 X-275.344 Y-501.981
G1 X-223.396 Y-482.500
G1 X-164.955 Y-498.734
G1 X-249.370 Y-505.227
G1 X-301.318 Y-463.019
G1 X-343.526 Y-420.812
G1 X-285.084 Y-469.513
G1 X-353.266 Y-446.786
G1 X-359.760 Y-391.591
G1 X-359.760 Y-450.032
G1 X-311.058 Y-466.266
G1 X-265.604 Y-505.227
G1 X-223.396 Y-511.721
G1 X-158.461 Y-463.019
G1 X-229.890 Y-450.032
G1 X-272.097 Y-427.305
G1 X-216.903 Y-437.045
G1 X-155.214 Y-417.565
G1 X-210.409 Y-362.370
G1 X-194.175 Y-404.578
G1 X-151.968 Y-375.357
G1 X-122.747 Y-417.565
G1 X-113.007 Y-459.773
G1 X-142.227 Y-375.357
G1 X-168.201 Y-417.565
G1 X-177.942 Y-375.357
G1 X-252.617 Y-368.864
G1 X-246.123 Y-414.318
G1 X-291.578 Y-394.838
G1 X-324.045 Y-349.383
G1 X-369.500 Y-372.110
G1 X-320.799 Y-352.630
G1 X-369.500 Y-349.383
G1 X-298.071 Y-388.344
G1 X-304.565 Y-264.968
G1 X-346.773 Y-290.942
G1 X-350.019 Y-248.734
G1 X-356.513 Y-303.929
G1 X-369.500 Y-261.721
G1 X-285.084 Y-271.461
G1 X-327.292 Y-297.435
G1 X-369.500 Y-284.448
G1 X-356.513 Y-226.006
G1 X-359.760 Y-183.799
G1 X-350.019 Y-226.006
G1 X-298.071 Y-141.591
G1 X-340.279 Y-118.864
G1 X-324.045 Y-76.656
G1 X-291.578 Y-118.864
G1 X-281.838 Y-164.318
G1 X-291.578 Y-206.526
G1 X-233.136 Y-154.578
G1 X-262.357 Y-196.786
G1 X-304.565 Y-187.045
G1 X-301.318 Y-122.110
G1 X-366.253 Y-40.942
G1 X-363.007 Y1.266
G1 X-353.266 Y49.968
G1 X-311.058 Y33.734
G1 X-311.058 Y75.942
G1 X-353.266 Y114.903
G1 X-369.500 Y72.695
G1 X-359.760 Y131.136
G1 X-359.760 Y88.929
G1 X-369.500 Y137.630
G1 X-337.032 Y72.695
G1 X-353.266 Y387.630
G1 X-369.500 Y345.422
G1 X-320.799 Y351.916
G1 X-317.552 Y309.708
G1 X-291.578 Y374.643
G1 X-239.630 Y423.344
G1 X-236.383 Y468.799
G1 X-291.578 Y468.799
G1 X-366.253 Y410.357
G1 X-324.045 Y410.357
G1 X-327.292 Y455.812
G1 X-233.136 Y465.552
G1 X-275.344 Y485.032
G1 X-246.123 Y436.331
G1 X-301.318 Y364.903
G1 X-259.110 Y377.890
G1 X-200.669 Y364.903
G1 X-242.877 Y361.656
G1 X-275.344 Y319.448
G1 X-233.136 Y335.682
G1 X-275.344 Y312.955
G1 X-268.851 Y355.162
G1 X-226.643 Y319.448
G1 X-272.097 Y290.227
G1 X-330.539 Y248.019
G1 X-220.149 Y205.812
G1 X-233.136 Y248.019
G1 X-155.214 Y238.279
G1 X-158.461 Y293.474
G1 X-132.487 Y348.669
G1 X-177.942 Y309.708
G1 X-155.214 Y351.916
G1 X-190.929 Y394.123
G1 X-132.487 Y332.435
G1 X-119.500 Y377.890
G1 X-70.799 Y303.214
G1 X-113.007 Y293.474
G1 X-54.565 Y325.942
G1 X-25.344 Y368.149
G1 X16.864 Y348.669
G1 X-35.084 Y303.214
G1 X-54.565 Y345.422
G1 X-18.851 Y303.214
G1 X13.617 Y351.916
G1 X-31.838 Y325.942
G1 X-80.539 Y312.955
G1 X-119.500 Y358.409
G1 X-203.916 Y371.396
G1 X-246.123 Y351.916
G1 X-294.825 Y293.474
G1 X-226.643 Y322.695
G1 X-301.318 Y280.487
G1 X-259.110 Y296.721
G1 X-301.318 Y306.461
G1 X-340.279 Y358.409
G1 X-298.071 Y319.448
G1 X-340.279 Y338.929
G1 X-272.097 Y235.032
G1 X-307.812 Y192.825
G1 X-314.305 Y235.032
G1 X-272.097 Y218.799
G1 X-246.123 Y261.007
G1 X-229.890 Y303.214
G1 X-226.643 Y261.007
G1 X-190.929 Y218.799
G1 X-171.448 Y176.591
G1 X-177.942 Y218.799
G1 X-177.942 Y160.357
G1 X-164.955 Y209.058
G1 X-203.916 Y144.123
G1 X-229.890 Y186.331
G1 X-190.929 Y144.123
G1 X-122.747 Y209.058
G1 X-129.240 Y166.851
G1 X-5.864 Y114.903
G1 X-12.357 Y163.604
G1 X10.370 Y209.058
G1 X101.279 Y166.851
G1 X55.825 Y199.318
G1 X111.019 Y137.630
G1 X65.565 Y163.604
G1 X16.864 Y147.370
G1 X13.617 Y101.916
G1 X23.357 Y59.708
G1 X75.305 Y75.942
G1 X29.851 Y72.695
G1 X23.357 Y30.487
G1 X33.097 Y-14.968
G1 X-2.617 Y72.695
G1 X-44.825 Y95.422
G1 X.630 Y82.435
G1 X36.344 Y36.981
G1 X55.825 Y82.435
G1 X133.747 Y72.695
G1 X91.539 Y72.695
G1 X104.526 Y118.149
G1 X146.734 Y137.630
G1 X104.526 Y124.643
G1 X-31.838 Y121.396
G1 X-74.045 Y114.903
G1 X-41.578 Y72.695
G1 X-31.838 Y30.487
G1 X10.370 Y-14.968
G1 X-31.838 Y-21.461
G1 X-90.279 Y-40.942
G1 X-44.825 Y-40.942
G1 X-87.032 Y-47.435
G1 X-38.331 Y-66.916
G1 X29.851 Y-89.643
G1 X20.110 Y-37.695
G1 X-22.097 Y-31.201
G1 X23.357 Y-34.448
G1 X72.058 Y-70.162
G1 X120.760 Y-63.669
G1 X75.305 Y-83.149
G1 X120.760 Y-135.097
G1 X146.734 Y-92.890
G1 X153.227 Y-135.097
G1 X231.149 Y-47.435
G1 X188.942 Y-37.695
G1 X179.201 Y-86.396
G1 X185.695 Y-128.604
G1 X201.929 Y-170.812
G1 X133.747 Y-170.812
G1 X85.045 Y-144.838
G1 X42.838 Y-138.344
G1 X62.318 Y-180.552
G1 X10.370 Y-154.578
G1 X75.305 Y-164.318
G1 X59.071 Y-122.110
G1 X101.279 Y-141.591
G1 X46.084 Y-362.370
G1 X88.292 Y-391.591
G1 X42.838 Y-450.032
G1 X16.864 Y-492.240
G1 X-74.045 Y-492.240
G1 X-28.591 Y-501.981
G1 X3.877 Y-459.773
G1 X-9.110 Y-385.097
G1 X-100.019 Y-404.578
G1 X-96.773 Y-446.786
G1 X-106.513 Y-488.994
G1 X-135.734 Y-446.786
G1 X-116.253 Y-488.994
G1 X-138.981 Y-446.786
G1 X-109.760 Y-488.994
G1 X-103.266 Y-407.825
G1 X-61.058 Y-401.331
G1 X-103.266 Y-414.318
G1 X-103.266 Y-485.747
G1 X-148.721 Y-394.838
G1 X-151.968 Y-437.045
G1 X-161.708 Y-365.617
G1 X-203.916 Y-355.877
G1 X-132.487 Y-355.877
G1 X-103.266 Y-290.942
G1 X-151.968 Y-251.981
G1 X-197.422 Y-258.474
G1 X-223.396 Y-307.175
G1 X-174.695 Y-333.149
G1 X-210.409 Y-290.942
G1 X-252.617 Y-255.227
G1 X-252.617 Y-297.435
G1 X-210.409 Y-336.396
G1 X-252.617 Y-342.890
G1 X-197.422 Y-362.370
G1 X-213.656 Y-433.799
G1 X-161.708 Y-459.773
G1 X-207.162 Y-446.786
G1 X-262.357 Y-420.812
G1 X-259.110 Y-378.604
G1 X-213.656 Y-385.097
G1 X-337.032 Y-342.890
G1 X-294.825 Y-346.136
G1 X-294.825 Y-268.214
G1 X-278.591 Y-339.643
G1 X-236.383 Y-352.630
G1 X-194.175 Y-336.396
G1 X-194.175 Y-268.214
G1 X-142.227 Y-264.968
G1 X-129.240 Y-307.175
G1 X-177.942 Y-303.929
G1 X-207.162 Y-261.721
G1 X-158.461 Y-271.461
G1 X-203.916 Y-284.448
G1 X-132.487 Y-232.500
G1 X-77.292 Y-294.188
G1 X-119.500 Y-277.955
G1 X-77.292 Y-264.968
G1 X-109.760 Y-219.513
G1 X-164.955 Y-235.747
G1 X-213.656 Y-206.526
G1 X-259.110 Y-216.266
G1 X-301.318 Y-187.045
G1 X-268.851 Y-131.851
G1 X-288.331 Y-89.643
G1 X-242.877 Y-148.084
G1 X-242.877 Y-92.890
G1 X-216.903 Y-180.552
G1 X-174.695 Y-190.292
G1 X-177.942 Y-144.838
G1 X-135.734 Y-151.331
G1 X-93.526 Y-148.084
G1 X-80.539 Y-190.292
G1 X-57.812 Y-245.487
G1 X-106.513 Y-248.734
G1 X-74.045 Y-294.188
G1 X-158.461 Y-196.786
G1 X-151.968 Y-242.240
G1 X-168.201 Y-196.786
G1 X-210.409 Y-200.032
G1 X-229.890 Y-157.825
G1 X-265.604 Y-112.370
G1 X-249.370 Y-154.578
G1 X-255.864 Y-89.643
G1 X-304.565 Y-70.162
G1 X-311.058 Y-258.474
G1 X-330.539 Y-300.682
G1 X-317.552 Y-258.474
G1 X-236.383 Y-258.474
G1 X-249.370 Y-300.682
G1 X-190.929 Y-261.721
G1 X-236.383 Y-271.461
G1 X-239.630 Y-313.669
G1 X-194.175 Y-333.149
G1 X-246.123 Y-375.357
G1 X-291.578 Y-378.604
G1 X-249.370 Y-398.084
G1 X-291.578 Y-391.591
G1 X-298.071 Y-349.383
G1 X-255.864 Y-342.890
G1 X-285.084 Y-456.526
G1 X-327.292 Y-456.526
G1 X-369.500 Y-401.331
G1 X-307.812 Y-469.513
G1 X-259.110 Y-479.253
G1 X-281.838 Y-437.045
G1 X-350.019 Y-511.721
G1 X-350.019 Y-466.266
G1 X-343.526 Y-511.721
G1 X-346.773 Y-453.279
G1 X-301.318 Y-433.799
G1 X-369.500 Y-456.526
G1 X-363.007 Y-498.734
G1 X-320.799 Y-508.474
G1 X-363.007 Y-505.227
G1 X-363.007 Y-378.604
G1 X-369.500 Y-336.396
G1 X-353.266 Y-381.851
G1 X-369.500 Y-424.058
G1 X-369.500 Y-342.890
G1 X-210.409 Y-463.019
G1 X-161.708 Y-505.227
G1 X-213.656 Y-511.721
G1 X-161.708 Y-511.721
G1 X-194.175 Y-466.266
G1 X-190.929 Y-404.578
G1 X-148.721 Y-437.045
G1 X-151.968 Y-394.838
G1 X-181.188 Y-463.019
G1 X-226.643 Y-492.240
G1 X-268.851 Y-479.253
G1 X-226.643 Y-508.474
G1 X-164.955 Y-501.981
G1 X-210.409 Y-488.994
G1 X-203.916 Y-443.539
G1 X-246.123 Y-437.045
G1 X-311.058 Y-430.552
G1 X-265.604 Y-488.994
G1 X-220.149 Y-498.734
G1 X-262.357 Y-501.981
G1 X-281.838 Y-453.279
G1 X-268.851 Y-508.474
G1 X-275.344 Y-450.032
G1 X-324.045 Y-437.045
G1 X-246.123 Y-411.071
G1 X-226.643 Y-453.279
G1 X-177.942 Y-466.266
G1 X-174.695 Y-420.812
G1 X-210.409 Y-375.357
G1 X-148.721 Y-365.617
G1 X-100.019 Y-349.383
G1 X-125.993 Y-300.682
G1 X-113.007 Y-346.136
G1 X-106.513 Y-277.955
G1 X-74.045 Y-329.903
G1 X-28.591 Y-261.721
G1 X23.357 Y-261.721
G1 X-18.851 Y-290.942
G1 X-41.578 Y-245.487
G1 X-5.864 Y-287.695
G1 X42.838 Y-258.474
G1 X-18.851 Y-251.981
G1 X23.357 Y-251.981
G1 X-22.097 Y-274.708
G1 X-67.552 Y-222.760
G1 X-109.760 Y-226.006
G1 X-67.552 Y-255.227
G1 X-125.993 Y-277.955
G1 X-103.266 Y-235.747
G1 X-83.786 Y-190.292
G1 X-138.981 Y-154.578
G1 X-184.435 Y-115.617
G1 X-151.968 Y-70.162
G1 X-210.409 Y-60.422
G1 X-220.149 Y-102.630
G1 X-203.916 Y-60.422
G1 X-187.682 Y-112.370
G1 X-113.007 Y11.007
G1 X-155.214 Y43.474
G1 X-113.007 Y23.993
G1 X-116.253 Y-18.214
G1 X-155.214 Y30.487
G1 X-135.734 Y-11.721
G1 X-145.474 Y62.955
G1 X-96.773 Y75.942
G1 X-100.019 Y33.734
G1 X-54.565 Y66.201
G1 X-96.773 Y30.487
G1 X-51.318 Y11.007
G1 X-93.526 Y-18.214
G1 X-135.734 Y-37.695
G1 X-116.253 Y14.253
G1 X-148.721 Y-34.448
G1 X-125.993 Y-79.903
G1 X-161.708 Y-37.695
G1 X-119.500 Y-63.669
G1 X-119.500 Y-109.123
G1 X-109.760 Y-66.916
G1 X-151.968 Y-92.890
G1 X-109.760 Y-112.370
G1 X-103.266 Y-70.162
G1 X-18.851 Y-349.383
G1 X-22.097 Y-307.175
G1 X10.370 Y-362.370
G1 X52.578 Y-391.591
G1 X7.123 Y-336.396
G1 X-35.084 Y-303.929
G1 X-77.292 Y-320.162
G1 X-25.344 Y-284.448
G1 X-80.539 Y-258.474
G1 X-135.734 Y-242.240
G1 X-158.461 Y-174.058
G1 X-200.669 Y-161.071
G1 X-158.461 Y-190.292
G1 X-181.188 Y-232.500
G1 X-187.682 Y-190.292
G1 X-233.136 Y-180.552
G1 X-272.097 Y-131.851
G1 X-314.305 Y-138.344
G1 X-275.344 Y-21.461
G1 X-314.305 Y20.747
G1 X-262.357 Y-24.708
G1 X-239.630 Y-66.916
G1 X-190.929 Y-70.162
G1 X-233.136 Y-50.682
G1 X-200.669 Y-8.474
G1 X-255.864 Y-14.968
G1 X-259.110 Y27.240
G1 X-242.877 Y-18.214
G1 X-187.682 Y-8.474
G1 X-181.188 Y43.474
G1 X-223.396 Y11.007
G1 X-200.669 Y-31.201
G1 X-255.864 Y7.760
G1 X-242.877 Y49.968
G1 X-200.669 Y14.253
G1 X-151.968 Y108.409
G1 X-142.227 Y59.708
G1 X-100.019 Y95.422
G1 X-83.786 Y27.240
G1 X-22.097 Y7.760
G1 X.630 Y49.968
G1 X-9.110 Y7.760
G1 X33.097 Y43.474
G1 X75.305 Y23.993
G1 X101.279 Y66.201
G1 X153.227 Y62.955
G1 X127.253 Y20.747
G1 X81.799 Y49.968
G1 X88.292 Y98.669
G1 X68.812 Y56.461
G1 X26.604 Y88.929
G1 X-22.097 Y56.461
G1 X-38.331 Y111.656
G1 X-113.007 Y114.903
G1 X-70.799 Y108.409
G1 X-28.591 Y46.721
G1 X-77.292 Y56.461
G1 X159.721 Y176.591
G1 X201.929 Y183.084
G1 X208.422 Y140.877
G1 X182.448 Y189.578
G1 X185.695 Y140.877
G1 X198.682 Y189.578
G1 X208.422 Y72.695
G1 X166.214 Y75.942
G1 X208.422 Y59.708
G1 X250.630 Y72.695
G1 X305.825 Y1.266
G1 X309.071 Y53.214
G1 X351.279 Y33.734
G1 X348.032 Y-11.721
G1 X364.266 Y30.487
G1 X325.305 Y72.695
G1 X279.851 Y53.214
G1 X279.851 Y95.422
G1 X286.344 Y53.214
G1 X234.396 Y95.422
G1 X263.617 Y137.630
G1 X237.643 Y199.318
G1 X257.123 Y277.240
G1 X299.331 Y280.487
G1 X257.123 Y283.734
G1 X299.331 Y254.513
G1 X312.318 Y189.578
G1 X270.110 Y199.318
G1 X322.058 Y202.565
G1 X182.448 Y400.617
G1 X240.890 Y345.422
G1 X159.721 Y381.136
G1 X201.929 Y381.136
G1 X169.461 Y426.591
G1 X175.955 Y374.643
G1 X159.721 Y426.591
G1 X201.929 Y368.149
G1 X244.136 Y355.162
G1 X179.201 Y309.708
G1 X224.656 Y332.435
G1 X292.838 Y270.747
G1 X250.630 Y286.981
G1 X292.838 Y283.734
G1 X234.396 Y277.240
G1 X250.630 Y325.942
G1 X211.669 Y254.513
G1 X175.955 Y296.721
G1 X218.162 Y283.734
G1 X182.448 Y228.539
G1 X244.136 Y192.825
G1 X192.188 Y212.305
G1 X234.396 Y189.578
G1 X227.903 Y244.773
G1 X250.630 Y202.565
G1 X244.136 Y248.019
G1 X198.682 Y222.045
G1 X364.266 Y147.370
G1 X361.019 Y189.578
G1 X364.266 Y231.786
G1 X322.058 Y254.513
G1 X364.266 Y222.045
G1 X348.032 Y140.877
G1 X312.318 Y183.084
G1 X312.318 Y137.630
G1 X364.266 Y150.617
G1 X318.812 Y160.357
G1 X364.266 Y166.851
G1 X273.357 Y124.643
G1 X318.812 Y108.409
G1 X263.617 Y82.435
G1 X208.422 Y88.929
G1 X185.695 Y27.240
G1 X166.214 Y-24.708
G1 X124.007 Y-31.201
G1 X101.279 Y11.007
G1 X59.071 Y56.461
G1 X140.240 Y118.149
G1 X192.188 Y101.916
G1 X257.123 Y157.110
G1 X227.903 Y105.162
G1 X270.110 Y88.929
G1 X247.383 Y46.721
G1 X292.838 Y36.981
G1 X299.331 Y-11.721
G1 X341.539 Y-31.201
G1 X344.786 Y17.500
G1 X364.266 Y-24.708
G1 X322.058 Y-86.396
G1 X292.838 Y-128.604
G1 X240.890 Y-135.097
G1 X286.344 Y-190.292
G1 X253.877 Y-242.240
G1 X234.396 Y-193.539
G1 X133.747 Y-242.240
G1 X91.539 Y-235.747
G1 X146.734 Y-271.461
G1 X188.942 Y-281.201
G1 X136.993 Y-310.422
G1 X94.786 Y-326.656
G1 X185.695 Y-346.136
G1 X143.487 Y-329.903
G1 X88.292 Y-355.877
G1 X130.500 Y-329.903
G1 X140.240 Y-372.110
G1 X98.032 Y-375.357
G1 X172.708 Y-352.630
G1 X224.656 Y-355.877
G1 X221.409 Y-398.084
G1 X179.201 Y-368.864
G1 X227.903 Y-391.591
G1 X185.695 Y-385.097
G0 Z1



G0 X-343.526 Y-229.253
G1 Z0

G1 X-359.760 Y-148.084
G1 X-317.552 Y-174.058
G1 X-369.500 Y-154.578
G1 X-337.032 Y-200.032
G1 X-350.019 Y-151.331
G1 X-363.007 Y-209.773
G1 X-346.773 Y-167.565
G1 X-272.097 Y-209.773
G1 X-229.890 Y-277.955
G1 X-252.617 Y-232.500
G1 X-265.604 Y-170.812
G1 X-307.812 Y-177.305
G1 X-168.201 Y-193.539
G1 X-96.773 Y-290.942
G1 X-135.734 Y-349.383
G1 X-57.812 Y-391.591
G1 X-93.526 Y-433.799
G1 X-57.812 Y-372.110
G1 X-77.292 Y-417.565
G1 X-51.318 Y-375.357
G1 X-100.019 Y-365.617
G1 X-116.253 Y-307.175
G1 X-109.760 Y-349.383
G1 X-174.695 Y-365.617
G1 X-132.487 Y-411.071
G1 X-122.747 Y-453.279
G1 X-145.474 Y-411.071
G1 X-129.240 Y-476.006
G1 X-87.032 Y-469.513
G1 X-129.240 Y-456.526
G1 X-135.734 Y-414.318
G1 X-229.890 Y-453.279
G1 X-174.695 Y-488.994
G1 X-216.903 Y-495.487
G1 X-174.695 Y-505.227
G1 X-233.136 Y-485.747
G1 X-187.682 Y-511.721
G1 X-291.578 Y-511.721
G1 X-216.903 Y-482.500
G1 X-174.695 Y-485.747
G1 X-223.396 Y-453.279
G1 X-155.214 Y-427.305
G1 X-174.695 Y-469.513
G1 X-194.175 Y-427.305
G1 X-236.383 Y-450.032
G1 X-168.201 Y-424.058
G1 X-148.721 Y-378.604
G1 X-233.136 Y-352.630
G1 X-210.409 Y-394.838
G1 X-197.422 Y-352.630
G1 X-278.591 Y-372.110
G1 X-281.838 Y-414.318
G1 X-314.305 Y-372.110
G1 X-311.058 Y-320.162
G1 X-255.864 Y-381.851
G1 X-246.123 Y-424.058
G1 X-307.812 Y-443.539
G1 X-278.591 Y-495.487
G1 X-291.578 Y-443.539
G1 X-333.786 Y-456.526
G1 X-363.007 Y-414.318
G1 X-356.513 Y-511.721
G1 X-353.266 Y-394.838
G1 X-356.513 Y-453.279
G1 X-369.500 Y-495.487
G1 X-366.253 Y-453.279
G1 X-366.253 Y-398.084
G1 X-324.045 Y-446.786
G1 X-268.851 Y-424.058
G1 X-291.578 Y-375.357
G1 X-288.331 Y-323.409
G1 X-333.786 Y-375.357
G1 X-291.578 Y-401.331
G1 X-249.370 Y-420.812
G1 X-288.331 Y-378.604
G1 X-281.838 Y-326.656
G1 X-298.071 Y-281.201
G1 X-298.071 Y-329.903
G1 X-255.864 Y-359.123
G1 X-200.669 Y-329.903
G1 X-246.123 Y-307.175
G1 X-203.916 Y-277.955
G1 X-155.214 Y-268.214
G1 X-177.942 Y-203.279
G1 X-164.955 Y-161.071
G1 X-197.422 Y-206.526
G1 X-242.877 Y-187.045
G1 X-259.110 Y-235.747
G1 X-255.864 Y-193.539
G1 X-213.656 Y-200.032
G1 X-168.201 Y-238.994
G1 X-122.747 Y-226.006
G1 X-77.292 Y-261.721
G1 X-119.500 Y-251.981
G1 X-174.695 Y-284.448
G1 X-145.474 Y-235.747
G1 X-151.968 Y-277.955
G1 X-220.149 Y-290.942
G1 X-220.149 Y-248.734
G1 X-200.669 Y-339.643
G1 X-249.370 Y-297.435
G1 X-200.669 Y-320.162
G1 X-210.409 Y-277.955
G1 X-181.188 Y-333.149
G1 X-226.643 Y-313.669
G1 X-249.370 Y-258.474
G1 X-294.825 Y-264.968
G1 X-337.032 Y-300.682
G1 X-340.279 Y-258.474
G1 X-304.565 Y-216.266
G1 X-125.993 Y-47.435
G1 X-77.292 Y-37.695
G1 X-18.851 Y-24.708
G1 X36.344 Y-37.695
G1 X26.604 Y-83.149
G1 X88.292 Y-73.409
G1 X13.617 Y-66.916
G1 X52.578 Y-24.708
G1 X16.864 Y-73.409
G1 X75.305 Y-79.903
G1 X23.357 Y-31.201
G1 X-31.838 Y-18.214
G1 X10.370 Y-40.942
G1 X-31.838 Y-31.201
G1 X20.110 Y40.227
G1 X-31.838 Y20.747
G1 X-44.825 Y62.955
G1 X-96.773 Y43.474
G1 X-106.513 Y105.162
G1 X-145.474 Y147.370
G1 X-226.643 Y176.591
G1 X-187.682 Y134.383
G1 X-145.474 Y166.851
G1 X-187.682 Y147.370
G1 X-174.695 Y222.045
G1 X-168.201 Y166.851
G1 X-168.201 Y215.552
G1 X-158.461 Y170.097
G1 X-129.240 Y127.890
G1 X-155.214 Y173.344
G1 X-164.955 Y218.799
G1 X-164.955 Y166.851
G1 X-213.656 Y157.110
G1 X-255.864 Y114.903
G1 X-255.864 Y192.825
G1 X-252.617 Y147.370
G1 X-255.864 Y105.162
G1 X-307.812 Y170.097
G1 X-317.552 Y127.890
G1 X-304.565 Y257.760
G1 X-294.825 Y209.058
G1 X-294.825 Y261.007
G1 X-301.318 Y202.565
G1 X-366.253 Y205.812
G1 X-363.007 Y251.266
G1 X-314.305 Y306.461
G1 X-356.513 Y309.708
G1 X-320.799 Y351.916
G1 X-275.344 Y368.149
G1 X-275.344 Y420.097
G1 X-233.136 Y429.838
G1 X-265.604 Y488.279
G1 X-311.058 Y465.552
G1 X-252.617 Y455.812
G1 X-294.825 Y475.292
G1 X-252.617 Y472.045
G1 X-242.877 Y429.838
G1 X-285.084 Y361.656
G1 X-340.279 Y335.682
G1 X-356.513 Y277.240
G1 X-311.058 Y290.227
G1 X-265.604 Y293.474
G1 X-320.799 Y283.734
G1 X-363.007 Y248.019
G1 X-333.786 Y189.578
G1 X-317.552 Y235.032
G1 X-298.071 Y277.240
G1 X-255.864 Y303.214
G1 X-298.071 Y299.968
G1 X-340.279 Y329.188
G1 X-314.305 Y286.981
G1 X-356.513 Y283.734
G1 X-363.007 Y199.318
G1 X-304.565 Y196.071
G1 X-304.565 Y238.279
G1 X-346.773 Y186.331
G1 X-343.526 Y228.539
G1 X-369.500 Y179.838
G1 X-366.253 Y254.513
G1 X-337.032 Y69.448
G1 X-291.578 Y79.188
G1 X-333.786 Y98.669
G1 X-304.565 Y147.370
G1 X-317.552 Y192.825
G1 X-327.292 Y150.617
G1 X-333.786 Y192.825
G1 X-301.318 Y137.630
G1 X-307.812 Y179.838
G1 X-265.604 Y92.175
G1 X-203.916 Y62.955
G1 X-203.916 Y118.149
G1 X-174.695 Y62.955
G1 X-132.487 Y30.487
G1 X-155.214 Y79.188
G1 X-197.422 Y56.461
G1 X-197.422 Y11.007
G1 X-174.695 Y79.188
G1 X-216.903 Y72.695
G1 X-259.110 Y43.474
G1 X-216.903 Y66.201
G1 X-194.175 Y108.409
G1 X-213.656 Y62.955
G1 X-168.201 Y75.942
G1 X-210.409 Y98.669
G1 X-187.682 Y160.357
G1 X-181.188 Y218.799
G1 X-90.279 Y290.227
G1 X-106.513 Y225.292
G1 X-80.539 Y267.500
G1 X-113.007 Y225.292
G1 X-93.526 Y283.734
G1 X-135.734 Y270.747
G1 X-233.136 Y286.981
G1 X-229.890 Y244.773
G1 X-187.682 Y244.773
G1 X-233.136 Y251.266
G1 X-226.643 Y312.955
G1 X-259.110 Y384.383
G1 X-213.656 Y361.656
G1 X-259.110 Y374.643
G1 X-311.058 Y387.630
G1 X-229.890 Y312.955
G1 X-220.149 Y270.747
G1 X-223.396 Y312.955
G1 X-265.604 Y348.669
G1 X-148.721 Y501.266
G1 X-171.448 Y449.318
G1 X-138.981 Y491.526
G1 X-181.188 Y455.812
G1 X-132.487 Y491.526
G1 X-213.656 Y517.500
G1 X-369.500 Y517.500
G1 X-252.617 Y511.007
G1 X-294.825 Y517.500
G1 X-363.007 Y514.253
G1 X-278.591 Y218.799
G1 X-320.799 Y225.292
G1 X-340.279 Y114.903
G1 X-294.825 Y82.435
G1 X-314.305 Y40.227
G1 X-333.786 Y82.435
G1 X-350.019 Y11.007
G1 X-363.007 Y-50.682
G1 X-359.760 Y4.513
G1 X-346.773 Y53.214
G1 X-343.526 Y11.007
G1 X-301.318 Y-44.188
G1 X-298.071 Y-1.981
G1 X-324.045 Y-50.682
G1 X-281.838 Y-31.201
G1 X-311.058 Y-79.903
G1 X-353.266 Y-66.916
G1 X-330.539 Y-109.123
G1 X-346.773 Y-66.916
G1 X-259.110 Y-96.136
G1 X-262.357 Y-138.344
G1 X-278.591 Y-79.903
G1 X-236.383 Y-86.396
G1 X-291.578 Y-102.630
G1 X-288.331 Y-50.682
G1 X-320.799 Y20.747
G1 X-278.591 Y-14.968
G1 X-320.799 Y-8.474
G1 X-327.292 Y-50.682
G1 X-350.019 Y-8.474
G1 X-359.760 Y-50.682
G1 X-343.526 Y-1.981
G1 X-304.565 Y85.682
G1 X-288.331 Y43.474
G1 X-317.552 Y88.929
G1 X-275.344 Y49.968
G1 X-330.539 Y88.929
G1 X-320.799 Y140.877
G1 X-311.058 Y244.773
G1 X-246.123 Y218.799
G1 X-252.617 Y173.344
G1 X-226.643 Y215.552
G1 X-268.851 Y170.097
G1 X-259.110 Y118.149
G1 X-213.656 Y118.149
G1 X-255.864 Y127.890
G1 X-281.838 Y85.682
G1 X-268.851 Y131.136
G1 X-265.604 Y82.435
G1 X-213.656 Y75.942
G1 X-259.110 Y46.721
G1 X-252.617 Y88.929
G1 X-93.526 Y17.500
G1 X-93.526 Y59.708
G1 X-90.279 Y17.500
G1 X-151.968 Y49.968
G1 X-74.045 Y17.500
G1 X72.058 Y153.864
G1 X111.019 Y105.162
G1 X65.565 Y118.149
G1 X23.357 Y85.682
G1 X78.552 Y43.474
G1 X36.344 Y30.487
G1 X36.344 Y-11.721
G1 X29.851 Y88.929
G1 X101.279 Y79.188
G1 X68.812 Y23.993
G1 X33.097 Y75.942
G1 X42.838 Y11.007
G1 X81.799 Y69.448
G1 X153.227 Y69.448
G1 X124.007 Y20.747
G1 X78.552 Y46.721
G1 X124.007 Y23.993
G1 X146.734 Y66.201
G1 X94.786 Y62.955
G1 X42.838 Y108.409
G1 X-83.786 Y118.149
G1 X-38.331 Y95.422
G1 X-35.084 Y49.968
G1 X-64.305 Y95.422
G1 X-44.825 Y49.968
G1 X-5.864 Y4.513
G1 X16.864 Y46.721
G1 X10.370 Y92.175
G1 X-38.331 Y134.383
G1 X-44.825 Y79.188
G1 X-2.617 Y75.942
G1 X-70.799 Y114.903
G1 X-28.591 Y118.149
G1 X-25.344 Y173.344
G1 X.630 Y127.890
G1 X42.838 Y105.162
G1 X85.045 Y153.864
G1 X3.877 Y166.851
G1 X7.123 Y209.058
G1 X-5.864 Y157.110
G1 X39.591 Y173.344
G1 X49.331 Y215.552
G1 X49.331 Y134.383
G1 X88.292 Y179.838
G1 X46.084 Y183.084
G1 X20.110 Y111.656
G1 X26.604 Y160.357
G1 X-15.604 Y163.604
G1 X3.877 Y205.812
G1 X-31.838 Y144.123
G1 X-25.344 Y186.331
G1 X20.110 Y170.097
G1 X-15.604 Y212.305
G1 X-5.864 Y170.097
G1 X-31.838 Y82.435
G1 X-74.045 Y82.435
G1 X-31.838 Y69.448
G1 X-5.864 Y7.760
G1 X75.305 Y56.461
G1 X55.825 Y14.253
G1 X52.578 Y105.162
G1 X94.786 Y114.903
G1 X159.721 Y147.370
G1 X114.266 Y218.799
G1 X127.253 Y176.591
G1 X162.968 Y134.383
G1 X136.993 Y176.591
G1 X-15.604 Y40.227
G1 X-31.838 Y-5.227
G1 X-5.864 Y46.721
G1 X7.123 Y101.916
G1 X23.357 Y157.110
G1 X-18.851 Y108.409
G1 X-31.838 Y163.604
G1 X-74.045 Y183.084
G1 X-15.604 Y144.123
G1 X-57.812 Y150.617
G1 X-5.864 Y56.461
G1 X-100.019 Y46.721
G1 X-109.760 Y88.929
G1 X-61.058 Y75.942
G1 X-41.578 Y33.734
G1 X-194.175 Y-102.630
G1 X-125.993 Y-96.136
G1 X-122.747 Y-50.682
G1 X-164.955 Y-34.448
G1 X-168.201 Y-83.149
G1 X-125.993 Y-44.188
G1 X-80.539 Y-122.110
G1 X-122.747 Y-157.825
G1 X-61.058 Y-161.071
G1 X-70.799 Y-203.279
G1 X-113.007 Y-213.019
G1 X-61.058 Y-222.760
G1 X-12.357 Y-284.448
G1 X46.084 Y-284.448
G1 X98.032 Y-258.474
G1 X55.825 Y-287.695
G1 X33.097 Y-329.903
G1 X85.045 Y-310.422
G1 X26.604 Y-316.916
G1 X81.799 Y-303.929
G1 X-12.357 Y-258.474
G1 X52.578 Y-264.968
G1 X7.123 Y-219.513
G1 X52.578 Y-200.032
G1 X98.032 Y-203.279
G1 X36.344 Y-183.799
G1 X-9.110 Y-206.526
G1 X33.097 Y-219.513
G1 X75.305 Y-222.760
G1 X98.032 Y-274.708
G1 X169.461 Y-222.760
G1 X221.409 Y-190.292
G1 X182.448 Y-135.097
G1 X227.903 Y-122.110
G1 X185.695 Y-89.643
G1 X227.903 Y-109.123
G1 X270.110 Y-76.656
G1 X218.162 Y27.240
G1 X260.370 Y14.253
G1 X302.578 Y17.500
G1 X305.825 Y59.708
G1 X364.266 Y88.929
G1 X354.526 Y30.487
G1 X341.539 Y75.942
G1 X335.045 Y33.734
G1 X364.266 Y105.162
G1 X364.266 Y62.955
G1 X315.565 Y69.448
G1 X312.318 Y27.240
G1 X240.890 Y43.474
G1 X231.149 Y-21.461
G1 X172.708 Y23.993
G1 X159.721 Y66.201
G1 X182.448 Y7.760
G1 X175.955 Y49.968
G1 X208.422 Y-57.175
G1 X124.007 Y-102.630
G1 X133.747 Y-151.331
G1 X211.669 Y-216.266
G1 X169.461 Y-200.032
G1 X162.968 Y-242.240
G1 X120.760 Y-264.968
G1 X78.552 Y-268.214
G1 X120.760 Y-235.747
G1 X188.942 Y-277.955
G1 X192.188 Y-229.253
G1 X185.695 Y-271.461
G1 X140.240 Y-300.682
G1 X185.695 Y-294.188
G1 X101.279 Y-229.253
G1 X81.799 Y-281.201
G1 X124.007 Y-251.981
G1 X78.552 Y-274.708
G1 X120.760 Y-248.734
G1 X179.201 Y-229.253
G1 X185.695 Y-187.045
G1 X143.487 Y-180.552
G1 X185.695 Y-148.084
G1 X198.682 Y-105.877
G1 X117.513 Y-79.903
G1 X153.227 Y-122.110
G1 X127.253 Y-170.812
G1 X94.786 Y-219.513
G1 X52.578 Y-216.266
G1 X10.370 Y-180.552
G1 X-41.578 Y-190.292
G1 X42.838 Y-190.292
G1 X-2.617 Y-206.526
G1 X39.591 Y-242.240
G1 X-77.292 Y-329.903
G1 X-35.084 Y-264.968
G1 X16.864 Y-264.968
G1 X65.565 Y-268.214
G1 X36.344 Y-310.422
G1 X78.552 Y-336.396
G1 X124.007 Y-329.903
G1 X166.214 Y-352.630
G1 X198.682 Y-401.331
G1 X182.448 Y-359.123
G1 X130.500 Y-352.630
G1 X172.708 Y-339.643
G1 X127.253 Y-329.903
G1 X124.007 Y-375.357
G1 X81.799 Y-385.097
G1 X39.591 Y-417.565
G1 X13.617 Y-466.266
G1 X-61.058 Y-430.552
G1 X-12.357 Y-446.786
G1 X-28.591 Y-401.331
G1 X-41.578 Y-443.539
G1 X-28.591 Y-375.357
G1 X13.617 Y-385.097
G1 X-70.799 Y-385.097
G1 X-83.786 Y-342.890
G1 X-77.292 Y-385.097
G1 X-103.266 Y-437.045
G1 X-67.552 Y-394.838
G1 X-93.526 Y-437.045
G1 X-54.565 Y-391.591
G1 X-135.734 Y-346.136
G1 X-119.500 Y-303.929
G1 X-122.747 Y-349.383
G1 X-171.448 Y-362.370
G1 X-181.188 Y-404.578
G1 X-236.383 Y-365.617
G1 X-168.201 Y-355.877
G1 X-155.214 Y-437.045
G1 X-216.903 Y-459.773
G1 X-164.955 Y-511.721
G1 X-236.383 Y-492.240
G1 X-194.175 Y-495.487
G1 X-187.682 Y-427.305
G1 X-164.955 Y-469.513
G1 X-171.448 Y-427.305
G1 X-181.188 Y-385.097
G1 X-138.981 Y-404.578
G1 X-109.760 Y-469.513
G1 X-119.500 Y-511.721
G1 X10.370 Y-485.747
G1 X-31.838 Y-479.253
G1 X10.370 Y-443.539
G1 X-22.097 Y-401.331
G1 X-31.838 Y-446.786
G1 X20.110 Y-482.500
G1 X124.007 Y-511.721
G1 X81.799 Y-508.474
G1 X172.708 Y-446.786
G1 X214.916 Y-463.019
G1 X260.370 Y-424.058
G1 X305.825 Y-466.266
G1 X279.851 Y-508.474
G1 X322.058 Y-476.006
G1 X364.266 Y-498.734
G1 X364.266 Y-277.955
G1 X351.279 Y-378.604
G1 X302.578 Y-359.123
G1 X253.877 Y-411.071
G1 X279.851 Y-359.123
G1 X322.058 Y-368.864
G1 X273.357 Y-394.838
G1 X322.058 Y-388.344
G1 X351.279 Y-346.136
G1 X361.019 Y-417.565
G1 X315.565 Y-437.045
G1 X361.019 Y-401.331
G1 X318.812 Y-453.279
G1 X361.019 Y-424.058
G1 X312.318 Y-372.110
G1 X266.864 Y-359.123
G1 X302.578 Y-316.916
G1 X357.773 Y-303.929
G1 X266.864 Y-352.630
G1 X260.370 Y-394.838
G1 X205.175 Y-469.513
G1 X162.968 Y-433.799
G1 X149.981 Y-476.006
G1 X104.526 Y-485.747
G1 X153.227 Y-453.279
G1 X88.292 Y-440.292
G1 X136.993 Y-430.552
G1 X3.877 Y-342.890
G1 X-38.331 Y-329.903
G1 X68.812 Y-381.851
G1 X-2.617 Y-333.149
G1 X46.084 Y-391.591
G1 X88.292 Y-411.071
G1 X133.747 Y-446.786
G1 X85.045 Y-433.799
G1 X39.591 Y-424.058
G1 X29.851 Y-466.266
G1 X3.877 Y-424.058
G1 X72.058 Y-511.721
G1 X23.357 Y-488.994
G1 X101.279 Y-511.721
G1 X149.981 Y-466.266
G1 X101.279 Y-498.734
G1 X143.487 Y-511.721
G1 X101.279 Y-508.474
G1 X59.071 Y-495.487
G1 X124.007 Y-501.981
G1 X65.565 Y-492.240
G1 X23.357 Y-443.539
G1 X-22.097 Y-466.266
G1 X-44.825 Y-511.721
G1 X-100.019 Y-505.227
G1 X-35.084 Y-482.500
G1 X7.123 Y-472.760
G1 X-18.851 Y-420.812
G1 X-67.552 Y-437.045
G1 X-22.097 Y-414.318
G1 X-80.539 Y-346.136
G1 X-61.058 Y-391.591
G1 X-12.357 Y-375.357
G1 X-138.981 Y-359.123
G1 X-96.773 Y-372.110
G1 X-135.734 Y-329.903
G1 X-25.344 Y-66.916
G1 X29.851 Y-148.084
G1 X-12.357 Y-154.578
G1 X-5.864 Y-112.370
G1 X-48.071 Y-112.370
G1 X3.877 Y-102.630
G1 X20.110 Y-144.838
G1 X3.877 Y-222.760
G1 X46.084 Y-226.006
G1 X127.253 Y-200.032
G1 X75.305 Y-193.539
G1 X130.500 Y-193.539
G1 X172.708 Y-164.318
G1 X214.916 Y-170.812
G1 X227.903 Y-235.747
G1 X270.110 Y-200.032
G1 X218.162 Y-177.305
G1 X289.591 Y-187.045
G1 X273.357 Y-229.253
G1 X227.903 Y-219.513
G1 X270.110 Y-180.552
G1 X279.851 Y-222.760
G1 X208.422 Y-193.539
G1 X257.123 Y-235.747
G1 X247.383 Y-154.578
G1 X276.604 Y-102.630
G1 X318.812 Y-115.617
G1 X328.552 Y-157.825
G1 X344.786 Y-86.396
G1 X364.266 Y-128.604
G1 X348.032 Y-86.396
G1 X286.344 Y-138.344
G1 X328.552 Y-118.864
G1 X322.058 Y-190.292
G1 X348.032 Y-148.084
G1 X315.565 Y-190.292
G1 X357.773 Y-157.825
G1 X315.565 Y-180.552
G1 X325.305 Y-128.604
G1 X218.162 Y-122.110
G1 X198.682 Y-50.682
G1 X240.890 Y-57.175
G1 X195.435 Y-70.162
G1 X182.448 Y-27.955
G1 X227.903 Y33.734
G1 X244.136 Y-21.461
G1 X221.409 Y27.240
G1 X260.370 Y-14.968
G1 X201.929 Y-8.474
G1 X211.669 Y-50.682
G1 X146.734 Y-83.149
G1 X104.526 Y-70.162
G1 X169.461 Y-24.708
G1 X127.253 Y-44.188
G1 X104.526 Y-1.981
G1 X107.773 Y40.227
G1 X185.695 Y85.682
G1 X143.487 Y124.643
G1 X140.240 Y79.188
G1 X156.474 Y124.643
G1 X156.474 Y82.435
G1 X52.578 Y140.877
G1 X52.578 Y215.552
G1 X39.591 Y293.474
G1 X-44.825 Y316.201
G1 X13.617 Y316.201
G1 X-35.084 Y309.708
G1 X16.864 Y351.916
G1 X-38.331 Y267.500
G1 X-12.357 Y309.708
G1 X-44.825 Y267.500
G1 X20.110 Y322.695
G1 X-25.344 Y371.396
G1 X3.877 Y329.188
G1 X39.591 Y270.747
G1 X81.799 Y290.227
G1 X33.097 Y241.526
G1 X-35.084 Y244.773
G1 X7.123 Y231.786
G1 X-35.084 Y251.266
G1 X7.123 Y244.773
G1 X49.331 Y251.266
G1 X91.539 Y231.786
G1 X133.747 Y209.058
G1 X91.539 Y218.799
G1 X133.747 Y215.552
G1 X59.071 Y248.019
G1 X26.604 Y299.968
G1 X-44.825 Y319.448
G1 X13.617 Y319.448
G1 X-9.110 Y361.656
G1 X3.877 Y319.448
G1 X39.591 Y267.500
G1 X111.019 Y286.981
G1 X65.565 Y283.734
G1 X23.357 Y283.734
G1 X65.565 Y261.007
G1 X-31.838 Y238.279
G1 X-48.071 Y280.487
G1 X-5.864 Y286.981
G1 X-103.266 Y241.526
G1 X-109.760 Y296.721
G1 X-83.786 Y394.123
G1 X-129.240 Y371.396
G1 X-87.032 Y345.422
G1 X-158.461 Y358.409
G1 X-116.253 Y355.162
G1 X-161.708 Y348.669
G1 X-119.500 Y361.656
G1 X-161.708 Y355.162
G1 X-197.422 Y397.370
G1 X-155.214 Y501.266
G1 X-187.682 Y459.058
G1 X-142.227 Y491.526
G1 X-184.435 Y481.786
G1 X-203.916 Y439.578
G1 X-174.695 Y481.786
G1 X-187.682 Y429.838
G1 X-145.474 Y426.591
G1 X-155.214 Y384.383
G1 X-200.669 Y390.877
G1 X-158.461 Y371.396
G1 X-9.110 Y384.383
G1 X-51.318 Y387.630
G1 X-122.747 Y377.890
G1 X-93.526 Y332.435
G1 X-113.007 Y374.643
G1 X-87.032 Y332.435
G1 X-109.760 Y377.890
G1 X-61.058 Y374.643
G1 X-103.266 Y387.630
G1 X-15.604 Y381.136
G1 X-57.812 Y390.877
G1 X-113.007 Y381.136
G1 X-87.032 Y338.929
G1 X-96.773 Y381.136
G1 X-61.058 Y485.032
G1 X-90.279 Y429.838
G1 X-48.071 Y459.058
G1 X-93.526 Y436.331
G1 X-67.552 Y485.032
G1 X-51.318 Y442.825
G1 X-9.110 Y439.578
G1 X-51.318 Y449.318
G1 X-9.110 Y442.825
G1 X-54.565 Y446.071
G1 X-12.357 Y436.331
G1 X-54.565 Y439.578
G1 X-74.045 Y481.786
G1 X-122.747 Y481.786
G1 X-200.669 Y517.500
G1 X-158.461 Y504.513
G1 X-148.721 Y459.058
G1 X-190.929 Y478.539
G1 X-190.929 Y429.838
G1 X-181.188 Y472.045
G1 X-171.448 Y429.838
G1 X-109.760 Y413.604
G1 X-151.968 Y420.097
G1 X-203.916 Y436.331
G1 X-148.721 Y468.799
G1 X-207.162 Y429.838
G1 X-164.955 Y433.084
G1 X-161.708 Y238.279
G1 X-210.409 Y241.526
G1 X-252.617 Y257.760
G1 X-255.864 Y212.305
G1 X-249.370 Y170.097
G1 X-236.383 Y222.045
G1 X-278.591 Y235.032
G1 X-281.838 Y277.240
G1 X-272.097 Y235.032
G1 X-317.552 Y218.799
G1 X-275.344 Y241.526
G1 X-327.292 Y254.513
G1 X-366.253 Y202.565
G1 X-369.500 Y244.773
G1 X-311.058 Y283.734
G1 X-353.266 Y273.993
G1 X-343.526 Y316.201
G1 X-330.539 Y273.993
G1 X-320.799 Y322.695
G1 X-340.279 Y270.747
G1 X-252.617 Y335.682
G1 X-233.136 Y387.630
G1 X-275.344 Y416.851
G1 X-233.136 Y426.591
G1 X-272.097 Y488.279
G1 X-333.786 Y442.825
G1 X-330.539 Y491.526
G1 X-327.292 Y403.864
G1 X-359.760 Y361.656
G1 X-340.279 Y407.110
G1 X-333.786 Y491.526
G1 X-350.019 Y400.617
G1 X-353.266 Y442.825
G1 X-324.045 Y390.877
G1 X-369.500 Y368.149
G1 X-327.292 Y400.617
G1 X-285.084 Y358.409
G1 X-311.058 Y400.617
G1 X-278.591 Y358.409
G1 X-281.838 Y413.604
G1 X-255.864 Y364.903
G1 X-252.617 Y420.097
G1 X-229.890 Y371.396
G1 X-278.591 Y416.851
G1 X-233.136 Y381.136
G1 X-255.864 Y338.929
G1 X-213.656 Y286.981
G1 X-158.461 Y329.188
G1 X-200.669 Y319.448
G1 X-158.461 Y322.695
G1 X-155.214 Y267.500
G1 X-96.773 Y286.981
G1 X-100.019 Y209.058
G1 X-116.253 Y299.968
G1 X-93.526 Y257.760
G1 X-164.955 Y283.734
G1 X-164.955 Y235.032
G1 X-210.409 Y238.279
G1 X-164.955 Y160.357
G1 X-93.526 Y92.175
G1 X-135.734 Y127.890
G1 X-164.955 Y62.955
G1 X-132.487 Y20.747
G1 X-125.993 Y-24.708
G1 X-67.552 Y-60.422
G1 X-109.760 Y-40.942
G1 X-67.552 Y-31.201
G1 X-28.591 Y-83.149
G1 X-35.084 Y-131.851
G1 X-100.019 Y-128.604
G1 X-77.292 Y-177.305
G1 X-119.500 Y-144.838
G1 X-77.292 Y-131.851
G1 X-168.201 Y-148.084
G1 X-125.993 Y-180.552
G1 X-83.786 Y-193.539
G1 X-74.045 Y-151.331
G1 X-61.058 Y-200.032
G1 X-74.045 Y-264.968
G1 X-106.513 Y-219.513
G0 Z1



G0 X16.864 Y-476.006
G1 Z0

G1 X75.305 Y-488.994
G1 X16.864 Y-485.747
G1 X59.071 Y-479.253
G1 X10.370 Y-463.019
G1 X3.877 Y-420.812
G1 X-25.344 Y-463.019
G1 X-74.045 Y-511.721
G1 X-25.344 Y-508.474
G1 X-93.526 Y-501.981
G1 X-171.448 Y-391.591
G1 X-174.695 Y-463.019
G1 X-164.955 Y-420.812
G1 X-233.136 Y-372.110
G1 X-171.448 Y-359.123
G1 X-125.993 Y-414.318
G1 X-174.695 Y-362.370
G1 X-229.890 Y-381.851
G1 X-272.097 Y-355.877
G1 X-337.032 Y-346.136
G1 X-294.825 Y-378.604
G1 X-337.032 Y-352.630
G1 X-301.318 Y-394.838
G1 X-301.318 Y-313.669
G1 X-304.565 Y-251.981
G1 X-369.500 Y-277.955
G1 X-317.552 Y-287.695
G1 X-369.500 Y-268.214
G1 X-327.292 Y-258.474
G1 X-314.305 Y-213.019
G1 X-317.552 Y-271.461
G1 X-246.123 Y-261.721
G1 X-226.643 Y-303.929
G1 X-184.435 Y-323.409
G1 X-233.136 Y-349.383
G1 X-207.162 Y-391.591
G1 X-268.851 Y-355.877
G1 X-259.110 Y-414.318
G1 X-337.032 Y-372.110
G1 X-285.084 Y-385.097
G1 X-242.877 Y-355.877
G1 X-285.084 Y-339.643
G1 X-291.578 Y-274.708
G1 X-249.370 Y-264.968
G1 X-242.877 Y-310.422
G1 X-259.110 Y-268.214
G1 X-301.318 Y-258.474
G1 X-369.500 Y-281.201
G1 X-324.045 Y-294.188
G1 X-337.032 Y-251.981
G1 X-281.838 Y-281.201
G1 X-340.279 Y-268.214
G1 X-314.305 Y-219.513
G1 X-327.292 Y-277.955
G1 X-369.500 Y-251.981
G1 X-346.773 Y-294.188
G1 X-353.266 Y-251.981
G1 X-350.019 Y-294.188
G1 X-359.760 Y-251.981
G1 X-356.513 Y-294.188
G1 X-366.253 Y-251.981
G1 X-324.045 Y-261.721
G1 X-262.357 Y-258.474
G1 X-190.929 Y-310.422
G1 X-233.136 Y-365.617
G1 X-174.695 Y-404.578
G1 X-181.188 Y-456.526
G1 X-236.383 Y-443.539
G1 X-190.929 Y-459.773
G1 X-174.695 Y-394.838
G1 X-93.526 Y-469.513
G1 X-135.734 Y-459.773
G1 X-122.747 Y-414.318
G1 X-158.461 Y-372.110
G1 X-116.253 Y-333.149
G1 X-109.760 Y-274.708
G1 X-145.474 Y-213.019
G1 X-187.682 Y-203.279
G1 X-168.201 Y-157.825
G1 X-125.993 Y-148.084
G1 X-77.292 Y-167.565
G1 X-70.799 Y-229.253
G1 X-96.773 Y-187.045
G1 X-148.721 Y-161.071
G1 X-96.773 Y-193.539
G1 X-54.565 Y-200.032
G1 X-96.773 Y-164.318
G1 X-54.565 Y-164.318
G1 X-138.981 Y-40.942
G1 X-80.539 Y-44.188
G1 X-122.747 Y-37.695
G1 X-113.007 Y-89.643
G1 X-138.981 Y-47.435
G1 X-113.007 Y-5.227
G1 X-171.448 Y-73.409
G1 X-151.968 Y-31.201
G1 X-164.955 Y-96.136
G1 X-122.747 Y-102.630
G1 X-103.266 Y-60.422
G1 X-113.007 Y-105.877
G1 X33.097 Y-131.851
G1 X-22.097 Y-86.396
G1 X33.097 Y-135.097
G1 X-9.110 Y-128.604
G1 X-25.344 Y-70.162
G1 X-28.591 Y-115.617
G1 X-15.604 Y-73.409
G1 X-48.071 Y-115.617
G1 X-5.864 Y-96.136
G1 X29.851 Y-138.344
G1 X-12.357 Y-135.097
G1 X52.578 Y-157.825
G1 X-5.864 Y-102.630
G1 X-48.071 Y-109.123
G1 X-5.864 Y-92.890
G1 X-48.071 Y-105.877
G1 X-5.864 Y-109.123
G1 X-54.565 Y-128.604
G1 X.630 Y-131.851
G1 X-35.084 Y-66.916
G1 X7.123 Y-92.890
G1 X42.838 Y-47.435
G1 X-2.617 Y160.357
G1 X39.591 Y85.682
G1 X-5.864 Y79.188
G1 X39.591 Y95.422
G1 X-9.110 Y4.513
G1 X.630 Y46.721
G1 X23.357 Y88.929
G1 X-44.825 Y46.721
G1 X-67.552 Y88.929
G1 X-25.344 Y85.682
G1 X39.591 Y118.149
G1 X33.097 Y59.708
G1 X-12.357 Y7.760
G1 X-2.617 Y49.968
G1 X33.097 Y95.422
G1 X88.292 Y140.877
G1 X104.526 Y98.669
G1 X107.773 Y147.370
G1 X62.318 Y121.396
G1 X16.864 Y105.162
G1 X23.357 Y179.838
G1 X65.565 Y150.617
G1 X59.071 Y199.318
G1 X23.357 Y140.877
G1 X39.591 Y183.084
G1 X62.318 Y140.877
G1 X162.968 Y254.513
G1 X208.422 Y209.058
G1 X257.123 Y176.591
G1 X240.890 Y134.383
G1 X198.682 Y98.669
G1 X266.864 Y88.929
G1 X224.656 Y79.188
G1 X266.864 Y72.695
G1 X318.812 Y101.916
G1 X364.266 Y1.266
G1 X344.786 Y79.188
G1 X364.266 Y17.500
G1 X357.773 Y-34.448
G1 X309.071 Y-47.435
G1 X357.773 Y-18.214
G1 X309.071 Y-40.942
G1 X351.279 Y-31.201
G1 X354.526 Y11.007
G1 X289.591 Y-40.942
G1 X208.422 Y-63.669
G1 X182.448 Y23.993
G1 X188.942 Y-18.214
G1 X143.487 Y-5.227
G1 X185.695 Y-8.474
G1 X244.136 Y-1.981
G1 X201.929 Y-14.968
G1 X231.149 Y33.734
G1 X257.123 Y-53.929
G1 X214.916 Y-11.721
G1 X257.123 Y-44.188
G1 X224.656 Y1.266
G1 X107.773 Y-14.968
G1 X81.799 Y43.474
G1 X39.591 Y4.513
G1 X42.838 Y46.721
G1 X13.617 Y95.422
G1 X-38.331 Y30.487
G1 X-51.318 Y72.695
G1 X-5.864 Y101.916
G1 X36.344 Y114.903
G1 X59.071 Y163.604
G1 X-35.084 Y176.591
G1 X.630 Y134.383
G1 X-15.604 Y176.591
G1 X-25.344 Y111.656
G1 X13.617 Y62.955
G1 X-5.864 Y17.500
G1 X16.864 Y59.708
G1 X3.877 Y7.760
G1 X-38.331 Y27.240
G1 X-22.097 Y69.448
G1 X65.565 Y85.682
G1 X62.318 Y17.500
G1 X78.552 Y59.708
G1 X111.019 Y118.149
G1 X104.526 Y75.942
G1 X78.552 Y33.734
G1 X120.760 Y-18.214
G1 X179.201 Y-11.721
G1 X136.993 Y-24.708
G1 X201.929 Y-18.214
G1 X211.669 Y-60.422
G1 X270.110 Y-44.188
G1 X292.838 Y-1.981
G1 X283.097 Y40.227
G1 X325.305 Y43.474
G1 X364.266 Y98.669
G1 X354.526 Y56.461
G1 X357.773 Y98.669
G1 X348.032 Y46.721
G1 X364.266 Y-8.474
G1 X361.019 Y36.981
G1 X335.045 Y79.188
G1 X348.032 Y36.981
G1 X364.266 Y82.435
G1 X309.071 Y56.461
G1 X286.344 Y14.253
G1 X328.552 Y53.214
G1 X283.097 Y27.240
G1 X302.578 Y-14.968
G1 X341.539 Y-60.422
G1 X364.266 Y-14.968
G1 X318.812 Y-47.435
G1 X361.019 Y-40.942
G1 X357.773 Y1.266
G1 X315.565 Y-11.721
G1 X263.617 Y-66.916
G1 X253.877 Y-24.708
G1 X237.643 Y36.981
G1 X218.162 Y-5.227
G1 X247.383 Y-47.435
G1 X179.201 Y-63.669
G1 X192.188 Y-21.461
G1 X149.981 Y-11.721
G1 X98.032 Y-5.227
G1 X140.240 Y-18.214
G1 X81.799 Y-8.474
G1 X78.552 Y-135.097
G1 X133.747 Y-167.565
G1 X175.955 Y-167.565
G1 X179.201 Y-112.370
G1 X188.942 Y-154.578
G1 X185.695 Y-112.370
G1 X159.721 Y-190.292
G1 X85.045 Y-203.279
G1 X42.838 Y-216.266
G1 X104.526 Y-190.292
G1 X62.318 Y-222.760
G1 X16.864 Y-226.006
G1 X-28.591 Y-187.045
G1 X13.617 Y-209.773
G1 X55.825 Y-190.292
G1 X-9.110 Y-209.773
G1 X39.591 Y-222.760
G1 X7.123 Y-271.461
G1 X-54.565 Y-248.734
G1 X-96.773 Y-251.981
G1 X-151.968 Y-209.773
G1 X-187.682 Y-161.071
G1 X-181.188 Y-203.279
G1 X-288.331 Y-206.526
G1 X-223.396 Y-200.032
G1 X-168.201 Y-235.747
G1 X-210.409 Y-190.292
G1 X-168.201 Y-200.032
G1 X-155.214 Y-248.734
G1 X-200.669 Y-268.214
G1 X-197.422 Y-336.396
G1 X-369.500 Y-362.370
G1 X-311.058 Y-342.890
G1 X-369.500 Y-355.877
G1 X-324.045 Y-342.890
G1 X-272.097 Y-424.058
G1 X-320.799 Y-433.799
G1 X-249.370 Y-498.734
G1 X-275.344 Y-453.279
G1 X-255.864 Y-495.487
G1 X-285.084 Y-453.279
G1 X-343.526 Y-433.799
G1 X-301.318 Y-466.266
G1 X-343.526 Y-453.279
G1 X-340.279 Y-411.071
G1 X-333.786 Y-453.279
G1 X-291.578 Y-430.552
G1 X-272.097 Y-505.227
G1 X-291.578 Y-463.019
G1 X-249.370 Y-404.578
G1 X-246.123 Y-446.786
G1 X-255.864 Y-404.578
G1 X-242.877 Y-346.136
G1 X-278.591 Y-411.071
G1 X-265.604 Y-362.370
G1 X-307.812 Y-365.617
G1 X-246.123 Y-352.630
G1 X-200.669 Y-368.864
G1 X-242.877 Y-378.604
G1 X-330.539 Y-349.383
G1 X-307.812 Y-391.591
G1 X-353.266 Y-349.383
G1 X-307.812 Y-375.357
G1 X-291.578 Y-316.916
G1 X-301.318 Y-274.708
G1 X-259.110 Y-264.968
G1 X-213.656 Y-307.175
G1 X-151.968 Y-255.227
G1 X-100.019 Y-294.188
G1 X-138.981 Y-251.981
G1 X-87.032 Y-209.773
G1 X-18.851 Y-287.695
G1 X26.604 Y-281.201
G1 X68.812 Y-284.448
G1 X26.604 Y-248.734
G1 X-38.331 Y-261.721
G1 X-61.058 Y-219.513
G1 X-64.305 Y-261.721
G1 X-119.500 Y-229.253
G1 X-70.799 Y-209.773
G1 X-25.344 Y-287.695
G1 X-74.045 Y-323.409
G1 X-31.838 Y-303.929
G1 X-5.864 Y-346.136
G1 X36.344 Y-342.890
G1 X85.045 Y-307.175
G1 X42.838 Y-320.162
G1 X85.045 Y-313.669
G1 X188.942 Y-349.383
G1 X124.007 Y-349.383
G1 X166.214 Y-372.110
G1 X224.656 Y-372.110
G1 X182.448 Y-381.851
G1 X224.656 Y-378.604
G1 X153.227 Y-342.890
G1 X104.526 Y-339.643
G1 X146.734 Y-300.682
G1 X104.526 Y-329.903
G1 X146.734 Y-362.370
G1 X227.903 Y-359.123
G1 X169.461 Y-365.617
G1 X211.669 Y-401.331
G1 X208.422 Y-352.630
G1 X244.136 Y-271.461
G1 X201.929 Y-274.708
G1 X292.838 Y-310.422
G1 X335.045 Y-300.682
G1 X260.370 Y-352.630
G1 X250.630 Y-398.084
G1 X296.084 Y-375.357
G1 X338.292 Y-385.097
G1 X364.266 Y-427.305
G1 X318.812 Y-430.552
G1 X361.019 Y-398.084
G1 X341.539 Y-440.292
G1 X348.032 Y-394.838
G1 X305.825 Y-505.227
G1 X354.526 Y-479.253
G1 X312.318 Y-482.500
G1 X354.526 Y-508.474
G1 X296.084 Y-437.045
G1 X253.877 Y-437.045
G1 X302.578 Y-456.526
G1 X289.591 Y-511.721
G1 X364.266 Y-492.240
G1 X318.812 Y-476.006
G1 X361.019 Y-508.474
G1 X335.045 Y-466.266
G1 X292.838 Y-505.227
G1 X312.318 Y-463.019
G1 X270.110 Y-466.266
G1 X315.565 Y-450.032
G1 X247.383 Y-424.058
G1 X237.643 Y-466.266
G1 X195.435 Y-450.032
G1 X237.643 Y-453.279
G1 X185.695 Y-433.799
G1 X214.916 Y-479.253
G1 X195.435 Y-437.045
G1 X231.149 Y-479.253
G1 X237.643 Y-433.799
G1 X279.851 Y-430.552
G1 X364.266 Y-505.227
G1 X322.058 Y-508.474
G1 X364.266 Y-498.734
G1 X309.071 Y-492.240
G1 X257.123 Y-430.552
G1 X221.409 Y-476.006
G1 X169.461 Y-430.552
G1 X156.474 Y-476.006
G1 X114.266 Y-463.019
G1 X182.448 Y-437.045
G1 X104.526 Y-411.071
G1 X62.318 Y-388.344
G1 X46.084 Y-433.799
G1 X88.292 Y-404.578
G1 X130.500 Y-466.266
G1 X166.214 Y-404.578
G1 X153.227 Y-446.786
G1 X98.032 Y-411.071
G1 X52.578 Y-424.058
G1 X94.786 Y-433.799
G1 X20.110 Y-440.292
G1 X62.318 Y-417.565
G1 X133.747 Y-443.539
G1 X104.526 Y-401.331
G1 X146.734 Y-430.552
G1 X214.916 Y-446.786
G1 X309.071 Y-372.110
G1 X266.864 Y-372.110
G1 X315.565 Y-391.591
G1 X253.877 Y-404.578
G1 X270.110 Y-326.656
G1 X312.318 Y-329.903
G1 X364.266 Y-287.695
G1 X322.058 Y-284.448
G1 X260.370 Y-290.942
G1 X218.162 Y-284.448
G1 X231.149 Y-326.656
G1 X227.903 Y-284.448
G1 X270.110 Y-287.695
G1 X325.305 Y-238.994
G1 X322.058 Y-193.539
G1 X351.279 Y-151.331
G1 X315.565 Y-193.539
G1 X309.071 Y-245.487
G1 X338.292 Y-203.279
G1 X322.058 Y-248.734
G1 X325.305 Y-206.526
G1 X302.578 Y-251.981
G1 X328.552 Y-209.773
G1 X289.591 Y-307.175
G1 X348.032 Y-294.188
G1 X305.825 Y-287.695
G1 X354.526 Y-300.682
G1 X357.773 Y-365.617
G1 X361.019 Y-320.162
G1 X341.539 Y-362.370
G1 X331.799 Y-404.578
G1 X309.071 Y-450.032
G1 X364.266 Y-420.812
G1 X322.058 Y-427.305
G1 X364.266 Y-411.071
G1 X322.058 Y-456.526
G1 X266.864 Y-440.292
G1 X309.071 Y-443.539
G1 X257.123 Y-424.058
G1 X292.838 Y-466.266
G1 X364.266 Y-485.747
G1 X315.565 Y-488.994
G1 X361.019 Y-479.253
G1 X315.565 Y-501.981
G1 X273.357 Y-511.721
G1 X322.058 Y-511.721
G1 X240.890 Y-417.565
G1 X257.123 Y-375.357
G1 X266.864 Y-333.149
G1 X309.071 Y-333.149
G1 X296.084 Y-245.487
G1 X315.565 Y-203.279
G1 X357.773 Y-226.006
G1 X315.565 Y-209.773
G1 X279.851 Y-307.175
G1 X328.552 Y-290.942
G1 X286.344 Y-339.643
G1 X344.786 Y-300.682
G1 X302.578 Y-310.422
G1 X344.786 Y-313.669
G1 X296.084 Y-284.448
G1 X247.383 Y-271.461
G1 X130.500 Y-258.474
G1 X169.461 Y-300.682
G1 X127.253 Y-290.942
G1 X169.461 Y-271.461
G1 X120.760 Y-316.916
G1 X91.539 Y-359.123
G1 X127.253 Y-316.916
G1 X140.240 Y-274.708
G1 X94.786 Y-226.006
G1 X72.058 Y-268.214
G1 X85.045 Y-226.006
G1 X114.266 Y-183.799
G1 X39.591 Y-209.773
G1 X91.539 Y-213.019
G1 X133.747 Y-200.032
G1 X208.422 Y-148.084
G1 X101.279 Y-63.669
G1 X143.487 Y-115.617
G1 X101.279 Y-92.890
G1 X143.487 Y-105.877
G1 X127.253 Y-148.084
G1 X111.019 Y-99.383
G1 X166.214 Y-79.903
G1 X130.500 Y-122.110
G1 X46.084 Y-135.097
G1 X88.292 Y-115.617
G1 X114.266 Y-164.318
G1 X166.214 Y-180.552
G1 X81.799 Y-135.097
G1 X130.500 Y-105.877
G1 X65.565 Y-115.617
G1 X91.539 Y-157.825
G1 X133.747 Y-164.318
G1 X185.695 Y-161.071
G1 X169.461 Y-109.123
G1 X65.565 Y-63.669
G1 X10.370 Y-66.916
G1 X52.578 Y-89.643
G1 X94.786 Y-99.383
G1 X49.331 Y-131.851
G1 X98.032 Y-154.578
G1 X146.734 Y-187.045
G1 X237.643 Y-216.266
G1 X221.409 Y-174.058
G1 X263.617 Y-213.019
G1 X247.383 Y-144.838
G1 X289.591 Y-112.370
G1 X247.383 Y-89.643
G1 X305.825 Y-31.201
G1 X348.032 Y-40.942
G1 X341.539 Y4.513
G1 X309.071 Y-50.682
G1 X289.591 Y1.266
G1 X279.851 Y-40.942
G1 X312.318 Y23.993
G1 X325.305 Y75.942
G1 X283.097 Y127.890
G1 X302.578 Y85.682
G1 X273.357 Y134.383
G1 X185.695 Y82.435
G1 X250.630 Y137.630
G1 X240.890 Y251.266
G1 X234.396 Y209.058
G1 X247.383 Y251.266
G1 X237.643 Y209.058
G1 X192.188 Y212.305
G1 X188.942 Y254.513
G1 X231.149 Y277.240
G1 X192.188 Y235.032
G1 X149.981 Y251.266
G1 X224.656 Y212.305
G1 X175.955 Y218.799
G1 X227.903 Y280.487
G1 X185.695 Y286.981
G1 X227.903 Y270.747
G1 X188.942 Y225.292
G1 X146.734 Y267.500
G1 X88.292 Y283.734
G1 X130.500 Y306.461
G1 X78.552 Y316.201
G1 X120.760 Y277.240
G1 X78.552 Y286.981
G1 X124.007 Y283.734
G1 X78.552 Y319.448
G1 X127.253 Y309.708
G1 X85.045 Y351.916
G1 X127.253 Y345.422
G1 X169.461 Y342.175
G1 X94.786 Y290.227
G1 X124.007 Y248.019
G1 X101.279 Y351.916
G1 X55.825 Y338.929
G1 X94.786 Y296.721
G1 X149.981 Y306.461
G1 X104.526 Y319.448
G1 X111.019 Y264.253
G1 X120.760 Y306.461
G1 X162.968 Y312.955
G1 X127.253 Y377.890
G1 X146.734 Y335.682
G1 X124.007 Y377.890
G1 X101.279 Y332.435
G1 X91.539 Y374.643
G1 X124.007 Y316.201
G1 X166.214 Y309.708
G1 X218.162 Y254.513
G1 X244.136 Y329.188
G1 X182.448 Y325.942
G1 X185.695 Y280.487
G1 X227.903 Y267.500
G1 X247.383 Y329.188
G1 X312.318 Y358.409
G1 X270.110 Y351.916
G1 X253.877 Y400.617
G1 X296.084 Y377.890
G1 X286.344 Y335.682
G1 X286.344 Y381.136
G1 X292.838 Y338.929
G1 X289.591 Y384.383
G1 X247.383 Y407.110
G1 X309.071 Y439.578
G1 X260.370 Y423.344
G1 X328.552 Y436.331
G1 X250.630 Y429.838
G1 X201.929 Y507.760
G1 X244.136 Y498.019
G1 X195.435 Y491.526
G1 X237.643 Y517.500
G1 X218.162 Y475.292
G1 X224.656 Y517.500
G1 X240.890 Y446.071
G1 X208.422 Y514.253
G1 X240.890 Y436.331
G1 X283.097 Y429.838
G1 X331.799 Y429.838
G1 X276.604 Y420.097
G1 X322.058 Y439.578
G1 X328.552 Y397.370
G1 X331.799 Y439.578
G1 X250.630 Y433.084
G1 X266.864 Y371.396
G1 X322.058 Y348.669
G1 X364.266 Y371.396
G1 X364.266 Y329.188
G1 X338.292 Y371.396
G1 X354.526 Y329.188
G1 X364.266 Y387.630
G1 X351.279 Y345.422
G1 X273.357 Y189.578
G1 X309.071 Y235.032
G1 X305.825 Y183.084
G1 X283.097 Y225.292
G1 X266.864 Y183.084
G1 X318.812 Y163.604
G1 X318.812 Y215.552
G1 X309.071 Y257.760
G1 X289.591 Y215.552
G1 X351.279 Y140.877
G1 X364.266 Y183.084
G1 X357.773 Y140.877
G1 X286.344 Y173.344
G1 X279.851 Y215.552
G1 X305.825 Y257.760
G1 X315.565 Y212.305
G1 X296.084 Y170.097
G1 X172.708 Y176.591
G1 X214.916 Y170.097
G1 X172.708 Y173.344
G1 X240.890 Y325.942
G1 X162.968 Y394.123
G1 X107.773 Y397.370
G1 X149.981 Y381.136
G1 X192.188 Y394.123
G1 X149.981 Y390.877
G1 X107.773 Y394.123
G1 X244.136 Y351.916
G1 X195.435 Y358.409
G1 X237.643 Y342.175
G1 X182.448 Y397.370
G1 X201.929 Y351.916
G1 X172.708 Y397.370
G1 X260.370 Y309.708
G1 X214.916 Y345.422
G1 X257.123 Y306.461
G1 X270.110 Y348.669
G1 X322.058 Y355.162
G1 X257.123 Y394.123
G1 X299.331 Y374.643
G1 X354.526 Y273.993
G1 X335.045 Y319.448
G1 X331.799 Y270.747
G1 X318.812 Y312.955
G1 X328.552 Y270.747
G1 X224.656 Y82.435
G1 X266.864 Y75.942
G1 X322.058 Y111.656
G1 X276.604 Y118.149
G1 X318.812 Y105.162
G1 X276.604 Y79.188
G1 X218.162 Y105.162
G1 X240.890 Y157.110
G1 X214.916 Y114.903
G1 X263.617 Y134.383
G1 X179.201 Y72.695
G1 X231.149 Y101.916
G1 X266.864 Y27.240
G1 X263.617 Y69.448
G1 X221.409 Y59.708
G1 X169.461 Y79.188
G1 X211.669 Y111.656
G1 X260.370 Y30.487
G1 X309.071 Y36.981
G1 X299.331 Y-11.721
G1 X289.591 Y-53.929
G1 X247.383 Y-66.916
G1 X289.591 Y-60.422
G1 X179.201 Y-44.188
G1 X175.955 Y-115.617
G1 X299.331 Y-99.383
G1 X253.877 Y-115.617
G1 X315.565 Y-125.357
G1 X273.357 Y-135.097
G1 X227.903 Y-131.851
G1 X166.214 Y-89.643
G1 X120.760 Y-144.838
G1 X75.305 Y-125.357
G1 X-18.851 Y-193.539
G1 X-158.461 Y-229.253
G1 X-210.409 Y-206.526
G1 X-142.227 Y-222.760
G1 X-177.942 Y-157.825
G1 X-116.253 Y-141.591
G1 X-122.747 Y-183.799
G1 X-145.474 Y-135.097
G1 X-109.760 Y-177.305
G1 X-151.968 Y-154.578
G1 X-109.760 Y-161.071
G1 X-151.968 Y-141.591
G1 X-252.617 Y-44.188
G1 X-210.409 Y-27.955
G1 X-252.617 Y-5.227
G1 X-246.123 Y56.461
G1 X-255.864 Y11.007
G1 X-324.045 Y-112.370
G1 X-350.019 Y-66.916
G1 X-307.812 Y-102.630
G1 X-356.513 Y-76.656
G1 X-333.786 Y-135.097
G1 X-330.539 Y-70.162
G1 X-304.565 Y-135.097
G1 X-294.825 Y-1.981
G1 X-333.786 Y-44.188
G1 X-363.007 Y-1.981
G1 X-366.253 Y-50.682
G1 X-356.513 Y-8.474
G1 X-350.019 Y33.734
G1 X-330.539 Y-8.474
G1 X-333.786 Y46.721
G1 X-291.578 Y62.955
G1 X-330.539 Y108.409
G1 X-324.045 Y66.201
G1 X-356.513 Y118.149
G1 X-369.500 Y75.942
G1 X-366.253 Y134.383
G1 X-307.812 Y46.721
G1 X-333.786 Y4.513
G1 X-369.500 Y-47.435
G1 X-366.253 Y-5.227
G1 X-366.253 Y43.474
G1 X-343.526 Y-14.968
G1 X-369.500 Y27.240
G1 X-369.500 Y-44.188
G1 X-268.851 Y-11.721
G1 X-307.812 Y-57.175
G1 X-265.604 Y-118.864
G1 X-275.344 Y-76.656
G1 X-223.396 Y-105.877
G1 X-213.656 Y-63.669
G1 X-229.890 Y-105.877
G1 X-229.890 Y-180.552
G1 X-281.838 Y-118.864
G1 X-239.630 Y-112.370
G1 X-220.149 Y-14.968
G1 X-242.877 Y-60.422
G1 X-213.656 Y-11.721
G1 X-148.721 Y105.162
G1 X-171.448 Y46.721
G1 X-187.682 Y-1.981
G1 X-194.175 Y40.227
G1 X-200.669 Y118.149
G1 X-184.435 Y66.201
G1 X-233.136 Y69.448
G1 X-197.422 Y111.656
G1 X-226.643 Y62.955
G1 X-177.942 Y56.461
G1 X-184.435 Y14.253
G1 X-155.214 Y105.162
G1 X-229.890 Y183.084
G1 X-174.695 Y147.370
G1 X-220.149 Y170.097
G1 X-177.942 Y144.123
G1 X-135.734 Y176.591
G1 X-181.188 Y153.864
G1 X-223.396 Y183.084
G1 X-184.435 Y140.877
G1 X-142.227 Y176.591
G1 X-184.435 Y153.864
G1 X-168.201 Y225.292
G1 X-213.656 Y248.019
G1 X-171.448 Y231.786
G1 X-213.656 Y241.526
G1 X-265.604 Y160.357
G1 X-259.110 Y202.565
G1 X-281.838 Y98.669
G1 X-278.591 Y140.877
G1 X-320.799 Y166.851
G1 X-324.045 Y114.903
G1 X-311.058 Y4.513
G1 X-327.292 Y56.461
G1 X-317.552 Y-24.708
G1 X-275.344 Y-34.448
G1 X-320.799 Y-8.474
G1 X-278.591 Y-24.708
G1 X-333.786 Y-37.695
G1 X-249.370 Y-99.383
G1 X-259.110 Y-141.591
G1 X-343.526 Y-66.916
G1 X-314.305 Y-128.604
G1 X-317.552 Y-83.149
G1 X-272.097 Y-105.877
G1 X-229.890 Y-89.643
G1 X-236.383 Y-40.942
G1 X-210.409 Y-83.149
G1 X-246.123 Y-40.942
G1 X-197.422 Y-8.474
G1 X-242.877 Y-47.435
G1 X-278.591 Y-5.227
G1 X-320.799 Y-5.227
G1 X-311.058 Y95.422
G1 X-356.513 Y105.162
G1 X-281.838 Y49.968
G1 X-333.786 Y66.201
G1 X-359.760 Y23.993
G1 X-317.552 Y-31.201
G1 X-337.032 Y20.747
G1 X-356.513 Y-24.708
G1 X-353.266 Y-83.149
G1 X-320.799 Y-125.357
G1 X-353.266 Y-76.656
G1 X-311.058 Y-89.643
G1 X-320.799 Y-138.344
G1 X-346.773 Y-96.136
G1 X-327.292 Y-138.344
G1 X-288.331 Y-83.149
G1 X-294.825 Y-40.942
G1 X-298.071 Y-89.643
G1 X-265.604 Y-200.032
G1 X-307.812 Y-164.318
G1 X-265.604 Y-187.045
G1 X-281.838 Y-128.604
G1 X-239.630 Y-118.864
G1 X-236.383 Y-203.279
G1 X-278.591 Y-187.045
G1 X-285.084 Y-141.591
G1 X-233.136 Y-112.370
G1 X-236.383 Y-154.578
G1 X-281.838 Y-213.019
G1 X-288.331 Y-170.812
G1 X-369.500 Y-161.071
G1 X-327.292 Y-174.058
G1 X-356.513 Y-216.266
G1 X-340.279 Y-174.058
G1 X-343.526 Y-229.253
G0 Z1



G0 X-337.032 Y-122.110
G1 Z0

G1 X-294.825 Y-102.630
G1 X-249.370 Y-105.877
G1 X-246.123 Y-177.305
G1 X-298.071 Y-193.539
G1 X-239.630 Y-209.773
G1 X-246.123 Y-105.877
G1 X-294.825 Y-92.890
G1 X-346.773 Y-89.643
G1 X-304.565 Y-125.357
G1 X-301.318 Y-5.227
G1 X-353.266 Y4.513
G1 X-311.058 Y43.474
G1 X-340.279 Y85.682
G1 X-317.552 Y40.227
G1 X-327.292 Y-14.968
G1 X-330.539 Y46.721
G1 X-307.812 Y-37.695
G1 X-350.019 Y17.500
G1 X-307.812 Y11.007
G1 X-304.565 Y-37.695
G1 X-317.552 Y7.760
G1 X-369.500 Y-14.968
G1 X-327.292 Y17.500
G1 X-320.799 Y69.448
G1 X-356.513 Y-50.682
G1 X-369.500 Y-1.981
G1 X-369.500 Y40.227
G1 X-350.019 Y-18.214
G1 X-343.526 Y23.993
G1 X-314.305 Y-21.461
G1 X-268.851 Y-8.474
G1 X-311.058 Y-8.474
G1 X-320.799 Y43.474
G1 X-298.071 Y85.682
G1 X-340.279 Y98.669
G1 X-294.825 Y72.695
G1 X-337.032 Y108.409
G1 X-298.071 Y293.474
G1 X-353.266 Y261.007
G1 X-356.513 Y303.214
G1 X-281.838 Y293.474
G1 X-239.630 Y303.214
G1 X-353.266 Y286.981
G1 X-330.539 Y329.188
G1 X-346.773 Y267.500
G1 X-304.565 Y312.955
G1 X-311.058 Y355.162
G1 X-353.266 Y309.708
G1 X-350.019 Y267.500
G1 X-337.032 Y312.955
G1 X-275.344 Y384.383
G1 X-268.851 Y426.591
G1 X-242.877 Y355.162
G1 X-246.123 Y397.370
G1 X-233.136 Y355.162
G1 X-278.591 Y413.604
G1 X-281.838 Y361.656
G1 X-333.786 Y345.422
G1 X-304.565 Y299.968
G1 X-314.305 Y348.669
G1 X-340.279 Y280.487
G1 X-314.305 Y322.695
G1 X-291.578 Y212.305
G1 X-356.513 Y196.071
G1 X-304.565 Y199.318
G1 X-298.071 Y270.747
G1 X-324.045 Y150.617
G1 X-330.539 Y196.071
G1 X-330.539 Y153.864
G1 X-314.305 Y238.279
G1 X-327.292 Y192.825
G1 X-259.110 Y114.903
G1 X-259.110 Y189.578
G1 X-272.097 Y82.435
G1 X-281.838 Y137.630
G1 X-278.591 Y85.682
G1 X-246.123 Y127.890
G1 X-281.838 Y85.682
G1 X-272.097 Y127.890
G1 X-268.851 Y82.435
G1 X-262.357 Y131.136
G1 X-317.552 Y170.097
G1 X-346.773 Y222.045
G1 X-350.019 Y179.838
G1 X-369.500 Y251.266
G1 X-369.500 Y166.851
G1 X-356.513 Y218.799
G1 X-314.305 Y189.578
G1 X-317.552 Y147.370
G1 X-369.500 Y82.435
G1 X-369.500 Y134.383
G1 X-356.513 Y92.175
G1 X-363.007 Y134.383
G1 X-366.253 Y88.929
G1 X-311.058 Y163.604
G1 X-307.812 Y215.552
G1 X-252.617 Y235.032
G1 X-233.136 Y283.734
G1 X-255.864 Y238.279
G1 X-216.903 Y286.981
G1 X-246.123 Y244.773
G1 X-223.396 Y293.474
G1 X-262.357 Y228.539
G1 X-304.565 Y212.305
G1 X-353.266 Y202.565
G1 X-356.513 Y248.019
G1 X-333.786 Y348.669
G1 X-356.513 Y306.461
G1 X-307.812 Y299.968
G1 X-350.019 Y261.007
G1 X-294.825 Y290.227
G1 X-324.045 Y345.422
G1 X-333.786 Y303.214
G1 X-307.812 Y345.422
G1 X-288.331 Y387.630
G1 X-369.500 Y374.643
G1 X-327.292 Y390.877
G1 X-330.539 Y433.084
G1 X-343.526 Y387.630
G1 X-350.019 Y429.838
G1 X-330.539 Y384.383
G1 X-337.032 Y433.084
G1 X-346.773 Y390.877
G1 X-337.032 Y491.526
G1 X-327.292 Y423.344
G1 X-333.786 Y377.890
G1 X-346.773 Y491.526
G1 X-333.786 Y446.071
G1 X-343.526 Y494.773
G1 X-346.773 Y452.565
G1 X-278.591 Y472.045
G1 X-233.136 Y449.318
G1 X-268.851 Y403.864
G1 X-223.396 Y361.656
G1 X-304.565 Y381.136
G1 X-262.357 Y387.630
G1 X-239.630 Y433.084
G1 X-272.097 Y390.877
G1 X-239.630 Y446.071
G1 X-291.578 Y465.552
G1 X-239.630 Y462.305
G1 X-285.084 Y475.292
G1 X-346.773 Y429.838
G1 X-337.032 Y374.643
G1 X-356.513 Y436.331
G1 X-314.305 Y439.578
G1 X-353.266 Y481.786
G1 X-333.786 Y429.838
G1 X-327.292 Y381.136
G1 X-369.500 Y364.903
G1 X-301.318 Y-177.305
G1 X-249.370 Y-213.019
G1 X-294.825 Y-196.786
G1 X-246.123 Y-180.552
G1 X-255.864 Y-109.123
G1 X-298.071 Y-105.877
G1 X-304.565 Y-57.175
G1 X-288.331 Y-99.383
G1 X-340.279 Y-92.890
G1 X-311.058 Y-138.344
G1 X-307.812 Y-79.903
G1 X-350.019 Y-86.396
G1 X-330.539 Y-135.097
G1 X-324.045 Y-92.890
G1 X-317.552 Y-138.344
G1 X-343.526 Y-96.136
G1 X-324.045 Y-138.344
G1 X-346.773 Y-229.253
G1 X-356.513 Y-187.045
G1 X-314.305 Y-170.812
G1 X-369.500 Y-164.318
G1 X-317.552 Y-177.305
G1 X-366.253 Y-200.032
G1 X-340.279 Y-157.825
G1 X-346.773 Y-200.032
G1 X-356.513 Y-151.331
G1 X-314.305 Y-174.058
G1 X-252.617 Y-177.305
G1 X-304.565 Y-190.292
G1 X-168.201 Y-213.019
G1 X-148.721 Y-274.708
G1 X-119.500 Y-232.500
G1 X-164.955 Y-255.227
G1 X-207.162 Y-264.968
G1 X-203.916 Y-339.643
G1 X-252.617 Y-281.201
G1 X-210.409 Y-297.435
G1 X-210.409 Y-339.643
G1 X-294.825 Y-398.084
G1 X-301.318 Y-261.721
G1 X-259.110 Y-261.721
G1 X-213.656 Y-303.929
G1 X-216.903 Y-261.721
G1 X-197.422 Y-313.669
G1 X-242.877 Y-290.942
G1 X-200.669 Y-336.396
G1 X-291.578 Y-398.084
G1 X-249.370 Y-401.331
G1 X-298.071 Y-443.539
G1 X-249.370 Y-508.474
G1 X-340.279 Y-430.552
G1 X-265.604 Y-476.006
G1 X-298.071 Y-430.552
G1 X-255.864 Y-424.058
G1 X-259.110 Y-381.851
G1 X-333.786 Y-365.617
G1 X-288.331 Y-391.591
G1 X-298.071 Y-264.968
G1 X-255.864 Y-271.461
G1 X-213.656 Y-316.916
G1 X-249.370 Y-242.240
G1 X-262.357 Y-200.032
G1 X-135.734 Y-226.006
G1 X-129.240 Y-268.214
G1 X-200.669 Y-284.448
G1 X-135.734 Y-251.981
G1 X-155.214 Y-193.539
G1 X-125.993 Y-238.994
G1 X-203.916 Y-281.201
G1 X-132.487 Y-264.968
G1 X-151.968 Y-216.266
G1 X-194.175 Y-203.279
G1 X-142.227 Y-261.721
G1 X-155.214 Y-219.513
G1 X-96.773 Y-294.188
G1 X-177.942 Y-219.513
G1 X-181.188 Y-177.305
G1 X-164.955 Y-229.253
G1 X-207.162 Y-213.019
G1 X-161.708 Y-242.240
G1 X-96.773 Y-226.006
G1 X-138.981 Y-248.734
G1 X-203.916 Y-274.708
G1 X-207.162 Y-326.656
G1 X-249.370 Y-294.188
G1 X-242.877 Y-251.981
G1 X-294.825 Y-281.201
G1 X-275.344 Y-375.357
G1 X-333.786 Y-362.370
G1 X-252.617 Y-437.045
G1 X-272.097 Y-391.591
G1 X-288.331 Y-339.643
G1 X-246.123 Y-362.370
G1 X-288.331 Y-368.864
G1 X-246.123 Y-346.136
G1 X-288.331 Y-355.877
G1 X-275.344 Y-414.318
G1 X-249.370 Y-372.110
G1 X-197.422 Y-359.123
G1 X-200.669 Y-401.331
G1 X-229.890 Y-339.643
G1 X-197.422 Y-381.851
G1 X-96.773 Y-472.760
G1 X-132.487 Y-424.058
G1 X-190.929 Y-446.786
G1 X-200.669 Y-501.981
G1 X-158.461 Y-511.721
G1 X-213.656 Y-482.500
G1 X-171.448 Y-492.240
G1 X-236.383 Y-508.474
G1 X-168.201 Y-511.721
G1 X-236.383 Y-498.734
G1 X-187.682 Y-466.266
G1 X-168.201 Y-398.084
G1 X-164.955 Y-459.773
G1 X-184.435 Y-401.331
G1 X-135.734 Y-440.292
G1 X-116.253 Y-482.500
G1 X-122.747 Y-424.058
G1 X-103.266 Y-482.500
G1 X-132.487 Y-440.292
G1 X-164.955 Y-394.838
G1 X-161.708 Y-437.045
G1 X-213.656 Y-498.734
G1 X-304.565 Y-511.721
G1 X-249.370 Y-511.721
G1 X-291.578 Y-463.019
G1 X-340.279 Y-443.539
G1 X-291.578 Y-476.006
G1 X-298.071 Y-433.799
G1 X-340.279 Y-440.292
G1 X-298.071 Y-469.513
G1 X-255.864 Y-508.474
G1 X-288.331 Y-427.305
G1 X-246.123 Y-433.799
G1 X-255.864 Y-391.591
G1 X-317.552 Y-372.110
G1 X-275.344 Y-394.838
G1 X-259.110 Y-437.045
G1 X-203.916 Y-459.773
G1 X-171.448 Y-501.981
G1 X-229.890 Y-485.747
G1 X-181.188 Y-492.240
G1 X-226.643 Y-443.539
G1 X-181.188 Y-433.799
G1 X-194.175 Y-476.006
G1 X-236.383 Y-505.227
G1 X-194.175 Y-508.474
G1 X-236.383 Y-511.721
G1 X-317.552 Y-446.786
G1 X-275.344 Y-430.552
G1 X-320.799 Y-459.773
G1 X-363.007 Y-433.799
G1 X-356.513 Y-391.591
G1 X-359.760 Y-501.981
G1 X-369.500 Y-459.773
G1 X-366.253 Y-501.981
G1 X-359.760 Y-424.058
G1 X-353.266 Y-511.721
G1 X-343.526 Y-469.513
G1 X-346.773 Y-511.721
G1 X-346.773 Y-466.266
G1 X-340.279 Y-511.721
G1 X-340.279 Y-469.513
G1 X-337.032 Y-511.721
G1 X-259.110 Y-508.474
G1 X-301.318 Y-469.513
G1 X-262.357 Y-404.578
G1 X-285.084 Y-316.916
G1 X-294.825 Y-359.123
G1 X-291.578 Y-307.175
G1 X-337.032 Y-258.474
G1 X-333.786 Y-300.682
G1 X-320.799 Y-255.227
G1 X-369.500 Y-258.474
G1 X-314.305 Y-287.695
G1 X-327.292 Y-245.487
G1 X-337.032 Y-287.695
G1 X-259.110 Y-258.474
G1 X-216.903 Y-297.435
G1 X-164.955 Y-274.708
G1 X-116.253 Y-271.461
G1 X-268.851 Y-125.357
G1 X-249.370 Y-167.565
G1 X-262.357 Y-112.370
G1 X-223.396 Y-164.318
G1 X-239.630 Y-109.123
G1 X-239.630 Y-151.331
G1 X-229.890 Y-109.123
G1 X-353.266 Y-70.162
G1 X-317.552 Y-112.370
G1 X-327.292 Y-70.162
G1 X-255.864 Y-128.604
G1 X-233.136 Y-177.305
G1 X-233.136 Y-135.097
G1 X-239.630 Y-180.552
G1 X-281.838 Y-196.786
G1 X-369.500 Y-148.084
G1 X-346.773 Y-206.526
G1 X-333.786 Y-161.071
G1 X-281.838 Y-180.552
G1 X-330.539 Y-180.552
G1 X-353.266 Y-222.760
G1 X-346.773 Y-174.058
G1 X-359.760 Y-216.266
G1 X-353.266 Y-174.058
G1 X-142.227 Y-206.526
G1 X-184.435 Y-157.825
G1 X-135.734 Y-144.838
G1 X-74.045 Y-174.058
G1 X-64.305 Y-232.500
G1 X-90.279 Y-190.292
G1 X-161.708 Y-144.838
G1 X-116.253 Y-164.318
G1 X-80.539 Y-115.617
G1 X-122.747 Y-96.136
G1 X-129.240 Y-8.474
G1 X-168.201 Y-99.383
G1 X-161.708 Y-57.175
G1 X-184.435 Y-112.370
G1 X-158.461 Y-66.916
G1 X-113.007 Y-11.721
G1 X-158.461 Y-83.149
G1 X-138.981 Y-37.695
G1 X-181.188 Y-40.942
G1 X-236.383 Y-21.461
