
G0 Z10 F500;      ; Move to clearance level - Z motion limited to 500
; G0 X-10 Y-10 F1200; Homing
; G0 X-5 Y-5 F1200; go in
; G10 P0 L20 X0 Y0; set to zero
G1 F1200;           ; Set feed rate to 1000
;LightBurn 1.6.04
;Custom GCode device profile, absolute coords
;Bounds: X26 Y35.74 to X118 Y59.26
G00 G17 G40 G21 G54
G90
M3
G1 Z10 F1000
;Cut @ 999 mm/min, 90% power

M8

; Washing sequence (no color)
G1 Z10 F1000;        ; Raise brush to safe height
G0 X5 Y5 F1200;     ; Rapid move to brush cleaning position
G1 Z-1 F800;         ; Lower brush for cleaning - controlled movement
G1 X10 Y12 Z8 F1200;     ; Rapid move to brush cleaning position
G1 Z-1 F800;         ; Lower brush for cleaning - controlled movement
G1 X25 Y14 Z6 F800;     ; Move across cleaning area - controlled movement
G1 Z8 F800;         ; Maintain brush height - controlled movement
G0 X5 Y5 F1200;     ; Rapid move to brush cleaning position
G1 Z-1 F800;         ; Lower brush for cleaning - controlled movement
G1 X15 Y12 Z8 F1200;     ; Rapid move to brush cleaning position
G1 Z-1 F800;         ; Lower brush for cleaning - controlled movement
G1 X25 Y14 Z6 F800;     ; Move across cleaning area - controlled movement
G1 Z10 F800;         ; Maintain brush height - controlled movement
G1 F1200;           ; Set feed rate to 1000

; Color picking sequence
G1 Z10 F1000;         ; Raise brush to safe height
G0 X41 Y5 F1200;    ; Rapid move to color 1 position
G1 Z0 F1000;         ; Lower into color - controlled movement
G1 X40.102Y7.295Z0S800F1200
G1 X40.026Y7.642Z0F1200
G1 X40Y8Z0F1200
G1 X40.026Y8.358Z0F1200
G1 X40.102Y8.705Z0F1200
G1 X40.225Y9.041Z0F1200
G1 X40.393Y9.362Z0F1200
G1 X40.603Y9.668Z0F1200
G1 X40.854Y9.957Z0F1200
G1 X41.142Y10.226Z0F1200
G1 X41.464Y10.475Z0F1200
G1 X41.82Y10.701Z0F1200
G1 X42.204Y10.902Z0F1200
G1 X42.617Y11.078Z0F1200
G1 X43.054Y11.225Z0F1200
G1 X43.513Y11.343Z0F1200
G1 X43.992Y11.429Z0F1200
G1 X44.489Y11.482Z0F1200
G1 X45Y11.5Z0F1200
G1 X45.511Y11.482Z0F1200
G1 X46.008Y11.429Z0F1200
G1 X46.487Y11.343Z0F1200
G1 X46.946Y11.225Z0F1200
G1 X47.383Y11.078Z0F1200
G1 X47.796Y10.902Z0F1200
G1 X48.18Y10.701Z0F1200
G1 X48.536Y10.475Z0F1200
G1 X48.858Y10.226Z0F1200
G1 X49.146Y9.957Z0F1200
G1 X49.397Y9.668Z0F1200
G1 X49.607Y9.362Z0F1200
G1 X49.775Y9.041Z0F1200
G1 X49.898Y8.705Z0F1200
G1 X49.974Y8.358Z0F1200
G1 X50Y8Z0F1200
G1 X49.974Y7.642Z0F1200
G1 X49.898Y7.295Z0F1200
G1 X49.775Y6.959Z0F1200
G1 X49.607Y6.638Z0F1200
G1 X49.397Y6.332Z0F1200
G1 X49.146Y6.043Z0F1200
G1 X48.858Y5.774Z0F1200
G1 X48.536Y5.525Z0F1200
G1 X48.18Y5.299Z0F1200
G1 X47.796Y5.098Z0F1200
G1 X47.383Y4.922Z0F1200
G1 X46.946Y4.775Z0F1200
G1 X46.487Y4.657Z0F1200
G1 X46.008Y4.571Z0F1200
G1 X45.511Y4.518Z0F1200
G1 X45Y4.5Z0F1200
G1 X44.489Y4.518Z0F1200
G1 X43.992Y4.571Z0F1200
G1 X43.513Y4.657Z0F1200
G1 X43.054Y4.775Z0F1200
G1 X42.617Y4.922Z0F1200
G1 X42.204Y5.098Z0F1200
G1 X41.82Y5.299Z0F1200
G1 X41.464Y5.525Z0F1200
G1 X41.142Y5.774Z0F1200
G1 X40.854Y6.043Z0F1200
G1 X40.603Y6.332Z0F1200
G1 X40.393Y6.638Z0F1200
G1 X40.225Y6.959Z0F1200
G1 Z7 F800;         ; Raise from color - controlled movement
G1 X34 Y8 Z1 F1200;     ; Movement in paint - controlled movement
G1 X24 Y18 Z8 F500;     ; Move in paint - controlled movement
G1 F1200;           ; Set feed rate to 1000
G0 Z4.8F1000
G0 X64.5Y36.742Z4.8
G1 Z0F1000
;Layer C1
G1 X58Y48Z0S900F999
G1 X64.5Y59.258Z0F999
G1 X77.5Z0F999
G1 X84Y48Z0F999
G1 X77.5Y36.742Z0F999
G1 X64.5Z0F999
;Cut @ 1600 mm/min, 80% power

M8

; Washing sequence (no color)
G1 Z10 F1000;        ; Raise brush to safe height
G0 X5 Y5 F1200;     ; Rapid move to brush cleaning position
G1 Z-1 F800;         ; Lower brush for cleaning - controlled movement
G1 X10 Y12 Z8 F1200;     ; Rapid move to brush cleaning position
G1 Z-1 F800;         ; Lower brush for cleaning - controlled movement
G1 X25 Y14 Z6 F800;     ; Move across cleaning area - controlled movement
G1 Z8 F800;         ; Maintain brush height - controlled movement
G0 X5 Y5 F1200;     ; Rapid move to brush cleaning position
G1 Z-1 F800;         ; Lower brush for cleaning - controlled movement
G1 X15 Y12 Z8 F1200;     ; Rapid move to brush cleaning position
G1 Z-1 F800;         ; Lower brush for cleaning - controlled movement
G1 X25 Y14 Z6 F800;     ; Move across cleaning area - controlled movement
G1 Z10 F800;         ; Maintain brush height - controlled movement
G1 F1200;           ; Set feed rate to 1000

; Color picking sequence
G1 Z10 F1000;         ; Raise brush to safe height
G0 X86 Y5 F1200;    ; Rapid move to color 1 position
G1 Z0 F1000;         ; Lower into color - controlled movement
G1 X85.102Y7.295Z0S800F1200
G1 X85.026Y7.642Z0F1200
G1 X85Y8Z0F1200
G1 X85.026Y8.358Z0F1200
G1 X85.102Y8.705Z0F1200
G1 X85.225Y9.041Z0F1200
G1 X85.393Y9.362Z0F1200
G1 X85.603Y9.668Z0F1200
G1 X85.854Y9.957Z0F1200
G1 X86.142Y10.226Z0F1200
G1 X86.464Y10.475Z0F1200
G1 X86.82Y10.701Z0F1200
G1 X87.204Y10.902Z0F1200
G1 X87.617Y11.078Z0F1200
G1 X88.054Y11.225Z0F1200
G1 X88.513Y11.343Z0F1200
G1 X88.992Y11.429Z0F1200
G1 X89.489Y11.482Z0F1200
G1 X90Y11.5Z0F1200
G1 X90.511Y11.482Z0F1200
G1 X91.008Y11.429Z0F1200
G1 X91.487Y11.343Z0F1200
G1 X91.946Y11.225Z0F1200
G1 X92.383Y11.078Z0F1200
G1 X92.796Y10.902Z0F1200
G1 X93.18Y10.701Z0F1200
G1 X93.536Y10.475Z0F1200
G1 X93.858Y10.226Z0F1200
G1 X94.146Y9.957Z0F1200
G1 X94.397Y9.668Z0F1200
G1 X94.607Y9.362Z0F1200
G1 X94.775Y9.041Z0F1200
G1 X94.898Y8.705Z0F1200
G1 X94.974Y8.358Z0F1200
G1 X95Y8Z0F1200
G1 X94.974Y7.642Z0F1200
G1 X94.898Y7.295Z0F1200
G1 X94.775Y6.959Z0F1200
G1 X94.607Y6.638Z0F1200
G1 X94.397Y6.332Z0F1200
G1 X94.146Y6.043Z0F1200
G1 X93.858Y5.774Z0F1200
G1 X93.536Y5.525Z0F1200
G1 X93.18Y5.299Z0F1200
G1 X92.796Y5.098Z0F1200
G1 X92.383Y4.922Z0F1200
G1 X91.946Y4.775Z0F1200
G1 X91.487Y4.657Z0F1200
G1 X91.008Y4.571Z0F1200
G1 X90.511Y4.518Z0F1200
G1 X90Y4.5Z0F1200
G1 X89.489Y4.518Z0F1200
G1 X88.992Y4.571Z0F1200
G1 X88.513Y4.657Z0F1200
G1 X88.054Y4.775Z0F1200
G1 X87.617Y4.922Z0F1200
G1 X87.204Y5.098Z0F1200
G1 X86.82Y5.299Z0F1200
G1 X86.464Y5.525Z0F1200
G1 X86.142Y5.774Z0F1200
G1 X85.854Y6.043Z0F1200
G1 X85.603Y6.332Z0F1200
G1 X85.393Y6.638Z0F1200
G1 X85.225Y6.959Z0F1200
G1 Z7 F800;         ; Raise from color - controlled movement
G1 X79 Y8 Z1 F1200;     ; Movement in paint - controlled movement
G1 X69 Y18 Z8 F500;     ; Move in paint - controlled movement
G1 F1200;           ; Set feed rate to 1000
G0 Z4.8F1000
G0 X45.5Z4.8F999
G1 Z0F1000
;Layer C2
G1 X32.5Z0S800F1600
G1 X26Y48Z0F1600
G1 X32.5Y59.258Z0F1600

; Color picking sequence
G1 Z10 F1000;         ; Raise brush to safe height
G0 X86 Y5 F1200;    ; Rapid move to color 1 position
G1 Z0 F1000;         ; Lower into color - controlled movement
G1 X85.102Y7.295Z0S800F1200
G1 X85.026Y7.642Z0F1200
G1 X85Y8Z0F1200
G1 X85.026Y8.358Z0F1200
G1 X85.102Y8.705Z0F1200
G1 X85.225Y9.041Z0F1200
G1 X85.393Y9.362Z0F1200
G1 X85.603Y9.668Z0F1200
G1 X85.854Y9.957Z0F1200
G1 X86.142Y10.226Z0F1200
G1 X86.464Y10.475Z0F1200
G1 X86.82Y10.701Z0F1200
G1 X87.204Y10.902Z0F1200
G1 X87.617Y11.078Z0F1200
G1 X88.054Y11.225Z0F1200
G1 X88.513Y11.343Z0F1200
G1 X88.992Y11.429Z0F1200
G1 X89.489Y11.482Z0F1200
G1 X90Y11.5Z0F1200
G1 X90.511Y11.482Z0F1200
G1 X91.008Y11.429Z0F1200
G1 X91.487Y11.343Z0F1200
G1 X91.946Y11.225Z0F1200
G1 X92.383Y11.078Z0F1200
G1 X92.796Y10.902Z0F1200
G1 X93.18Y10.701Z0F1200
G1 X93.536Y10.475Z0F1200
G1 X93.858Y10.226Z0F1200
G1 X94.146Y9.957Z0F1200
G1 X94.397Y9.668Z0F1200
G1 X94.607Y9.362Z0F1200
G1 X94.775Y9.041Z0F1200
G1 X94.898Y8.705Z0F1200
G1 X94.974Y8.358Z0F1200
G1 X95Y8Z0F1200
G1 X94.974Y7.642Z0F1200
G1 X94.898Y7.295Z0F1200
G1 X94.775Y6.959Z0F1200
G1 X94.607Y6.638Z0F1200
G1 X94.397Y6.332Z0F1200
G1 X94.146Y6.043Z0F1200
G1 X93.858Y5.774Z0F1200
G1 X93.536Y5.525Z0F1200
G1 X93.18Y5.299Z0F1200
G1 X92.796Y5.098Z0F1200
G1 X92.383Y4.922Z0F1200
G1 X91.946Y4.775Z0F1200
G1 X91.487Y4.657Z0F1200
G1 X91.008Y4.571Z0F1200
G1 X90.511Y4.518Z0F1200
G1 X90Y4.5Z0F1200
G1 X89.489Y4.518Z0F1200
G1 X88.992Y4.571Z0F1200
G1 X88.513Y4.657Z0F1200
G1 X88.054Y4.775Z0F1200
G1 X87.617Y4.922Z0F1200
G1 X87.204Y5.098Z0F1200
G1 X86.82Y5.299Z0F1200
G1 X86.464Y5.525Z0F1200
G1 X86.142Y5.774Z0F1200
G1 X85.854Y6.043Z0F1200
G1 X85.603Y6.332Z0F1200
G1 X85.393Y6.638Z0F1200
G1 X85.225Y6.959Z0F1200
G1 Z7 F800;         ; Raise from color - controlled movement
G1 X79 Y8 Z1 F1200;     ; Movement in paint - controlled movement
G1 X69 Y18 Z8 F500;     ; Move in paint - controlled movement
G1 F1200;           ; Set feed rate to 1000

; Return to drawing position
G0 X32.500 Y59.258 F1200;  ; Return to position with raised Z
G1 Z0 F1000;                       ; Lower Z to drawing position
G1 X45.5Z0F1600
G1 X52Y48Z0F1600
G1 X45.5Y36.742Z0F1600
;Cut @ 888 mm/min, 90% power

M8

; Washing sequence (no color)
G1 Z10 F1000;        ; Raise brush to safe height
G0 X5 Y5 F1200;     ; Rapid move to brush cleaning position
G1 Z-1 F800;         ; Lower brush for cleaning - controlled movement
G1 X10 Y12 Z8 F1200;     ; Rapid move to brush cleaning position
G1 Z-1 F800;         ; Lower brush for cleaning - controlled movement
G1 X25 Y14 Z6 F800;     ; Move across cleaning area - controlled movement
G1 Z8 F800;         ; Maintain brush height - controlled movement
G0 X5 Y5 F1200;     ; Rapid move to brush cleaning position
G1 Z-1 F800;         ; Lower brush for cleaning - controlled movement
G1 X15 Y12 Z8 F1200;     ; Rapid move to brush cleaning position
G1 Z-1 F800;         ; Lower brush for cleaning - controlled movement
G1 X25 Y14 Z6 F800;     ; Move across cleaning area - controlled movement
G1 Z10 F800;         ; Maintain brush height - controlled movement
G1 F1200;           ; Set feed rate to 1000

; Color picking sequence
G1 Z10 F1000;         ; Raise brush to safe height
G0 X131 Y5 F1200;    ; Rapid move to color 1 position
G1 Z0 F1000;         ; Lower into color - controlled movement
G1 X130.102Y7.295Z0S800F1200
G1 X130.026Y7.642Z0F1200
G1 X130Y8Z0F1200
G1 X130.026Y8.358Z0F1200
G1 X130.102Y8.705Z0F1200
G1 X130.225Y9.041Z0F1200
G1 X130.393Y9.362Z0F1200
G1 X130.603Y9.668Z0F1200
G1 X130.854Y9.957Z0F1200
G1 X131.142Y10.226Z0F1200
G1 X131.464Y10.475Z0F1200
G1 X131.82Y10.701Z0F1200
G1 X132.204Y10.902Z0F1200
G1 X132.617Y11.078Z0F1200
G1 X133.054Y11.225Z0F1200
G1 X133.513Y11.343Z0F1200
G1 X133.992Y11.429Z0F1200
G1 X134.489Y11.482Z0F1200
G1 X135Y11.5Z0F1200
G1 X135.511Y11.482Z0F1200
G1 X136.008Y11.429Z0F1200
G1 X136.487Y11.343Z0F1200
G1 X136.946Y11.225Z0F1200
G1 X137.383Y11.078Z0F1200
G1 X137.796Y10.902Z0F1200
G1 X138.18Y10.701Z0F1200
G1 X138.536Y10.475Z0F1200
G1 X138.858Y10.226Z0F1200
G1 X139.146Y9.957Z0F1200
G1 X139.397Y9.668Z0F1200
G1 X139.607Y9.362Z0F1200
G1 X139.775Y9.041Z0F1200
G1 X139.898Y8.705Z0F1200
G1 X139.974Y8.358Z0F1200
G1 X140Y8Z0F1200
G1 X139.974Y7.642Z0F1200
G1 X139.898Y7.295Z0F1200
G1 X139.775Y6.959Z0F1200
G1 X139.607Y6.638Z0F1200
G1 X139.397Y6.332Z0F1200
G1 X139.146Y6.043Z0F1200
G1 X138.858Y5.774Z0F1200
G1 X138.536Y5.525Z0F1200
G1 X138.18Y5.299Z0F1200
G1 X137.796Y5.098Z0F1200
G1 X137.383Y4.922Z0F1200
G1 X136.946Y4.775Z0F1200
G1 X136.487Y4.657Z0F1200
G1 X136.008Y4.571Z0F1200
G1 X135.511Y4.518Z0F1200
G1 X135Y4.5Z0F1200
G1 X134.489Y4.518Z0F1200
G1 X133.992Y4.571Z0F1200
G1 X133.513Y4.657Z0F1200
G1 X133.054Y4.775Z0F1200
G1 X132.617Y4.922Z0F1200
G1 X132.204Y5.098Z0F1200
G1 X131.82Y5.299Z0F1200
G1 X131.464Y5.525Z0F1200
G1 X131.142Y5.774Z0F1200
G1 X130.854Y6.043Z0F1200
G1 X130.603Y6.332Z0F1200
G1 X130.393Y6.638Z0F1200
G1 X130.225Y6.959Z0F1200
G1 Z7 F800;         ; Raise from color - controlled movement
G1 X124 Y8 Z1 F1200;     ; Movement in paint - controlled movement
G1 X114 Y18 Z8 F500;     ; Move in paint - controlled movement
G1 F1200;           ; Set feed rate to 1000
G0 Z4.8F1000
G0 X92Y47Z4.8F1600
G1 Z0F1000
;Layer C3
G1 X98.5Y58.258Z0S900F888
G1 X111.5Z0F888
G1 X118Y47Z0F888
G1 X111.5Y35.742Z0F888
G1 X98.5Z0F888
G1 X92Y47Z0F888

; Color picking sequence
G1 Z10 F1000;         ; Raise brush to safe height
G0 X131 Y5 F1200;    ; Rapid move to color 1 position
G1 Z0 F1000;         ; Lower into color - controlled movement
G1 X130.102Y7.295Z0S800F1200
G1 X130.026Y7.642Z0F1200
G1 X130Y8Z0F1200
G1 X130.026Y8.358Z0F1200
G1 X130.102Y8.705Z0F1200
G1 X130.225Y9.041Z0F1200
G1 X130.393Y9.362Z0F1200
G1 X130.603Y9.668Z0F1200
G1 X130.854Y9.957Z0F1200
G1 X131.142Y10.226Z0F1200
G1 X131.464Y10.475Z0F1200
G1 X131.82Y10.701Z0F1200
G1 X132.204Y10.902Z0F1200
G1 X132.617Y11.078Z0F1200
G1 X133.054Y11.225Z0F1200
G1 X133.513Y11.343Z0F1200
G1 X133.992Y11.429Z0F1200
G1 X134.489Y11.482Z0F1200
G1 X135Y11.5Z0F1200
G1 X135.511Y11.482Z0F1200
G1 X136.008Y11.429Z0F1200
G1 X136.487Y11.343Z0F1200
G1 X136.946Y11.225Z0F1200
G1 X137.383Y11.078Z0F1200
G1 X137.796Y10.902Z0F1200
G1 X138.18Y10.701Z0F1200
G1 X138.536Y10.475Z0F1200
G1 X138.858Y10.226Z0F1200
G1 X139.146Y9.957Z0F1200
G1 X139.397Y9.668Z0F1200
G1 X139.607Y9.362Z0F1200
G1 X139.775Y9.041Z0F1200
G1 X139.898Y8.705Z0F1200
G1 X139.974Y8.358Z0F1200
G1 X140Y8Z0F1200
G1 X139.974Y7.642Z0F1200
G1 X139.898Y7.295Z0F1200
G1 X139.775Y6.959Z0F1200
G1 X139.607Y6.638Z0F1200
G1 X139.397Y6.332Z0F1200
G1 X139.146Y6.043Z0F1200
G1 X138.858Y5.774Z0F1200
G1 X138.536Y5.525Z0F1200
G1 X138.18Y5.299Z0F1200
G1 X137.796Y5.098Z0F1200
G1 X137.383Y4.922Z0F1200
G1 X136.946Y4.775Z0F1200
G1 X136.487Y4.657Z0F1200
G1 X136.008Y4.571Z0F1200
G1 X135.511Y4.518Z0F1200
G1 X135Y4.5Z0F1200
G1 X134.489Y4.518Z0F1200
G1 X133.992Y4.571Z0F1200
G1 X133.513Y4.657Z0F1200
G1 X133.054Y4.775Z0F1200
G1 X132.617Y4.922Z0F1200
G1 X132.204Y5.098Z0F1200
G1 X131.82Y5.299Z0F1200
G1 X131.464Y5.525Z0F1200
G1 X131.142Y5.774Z0F1200
G1 X130.854Y6.043Z0F1200
G1 X130.603Y6.332Z0F1200
G1 X130.393Y6.638Z0F1200
G1 X130.225Y6.959Z0F1200
G1 Z7 F800;         ; Raise from color - controlled movement
G1 X124 Y8 Z1 F1200;     ; Movement in paint - controlled movement
G1 X114 Y18 Z8 F500;     ; Move in paint - controlled movement
G1 F1200;           ; Set feed rate to 1000
M9
M5
G1 Z10 F1000
G90
G1 Z10 F800

; Return to 2,0 wash and park
G1 Z10 F1000;        ; Raise brush to safe height
G0 X5 Y5 F1200;     ; Rapid move to brush cleaning position
G1 Z-1 F800;         ; Lower brush for cleaning - controlled movement
G1 X10 Y12 Z8 F1200;     ; Rapid move to brush cleaning position
G1 Z-1 F800;         ; Lower brush for cleaning - controlled movement
G1 X25 Y14 Z6 F800;     ; Move across cleaning area - controlled movement
G0 X5 Y5 F1200;     ; Rapid move to brush cleaning position
G1 Z-1 F800;         ; Lower brush for cleaning - controlled movement
G1 X15 Y12 Z8 F1200;     ; Rapid move to brush cleaning position
G1 Z-1 F800;         ; Lower brush for cleaning - controlled movement
G1 X25 Y14 Z6 F800;     ; Move across cleaning area - controlled movement
G1 Z10 F800;         ; Maintain brush height - controlled movement
G0 X20 Y130 Z10 F500;; Move to parking position with Z at safe height
M2;                 ; End program
