;LightBurn 1.6.04
;Custom GCode device profile, absolute coords
;Bounds: X26 Y35.74 to X118 Y59.26
G00 G17 G40 G21 G54
G90
M3
G1 Z10 F1000
;Cut @ 999 mm/min, 90% power

M8
G0 Z4.8F1000
G0 X64.5Y36.742Z4.8
G1 Z0F1000
;Layer C1
G1 X58Y48Z0S900F1800
G1 X64.5Y59.258Z0F1800
G1 X77.5Z0F1800
G1 X84Y48Z0F1800
G1 X77.5Y36.742Z0F1800
G1 X64.5Z0F1800
;Cut @ 1600 mm/min, 80% power

M8
G0 Z4.8F1000
G0 X45.5Z4.8F999
G1 Z0F1000
;Layer C2
G1 X32.5Z0S800F1800
G1 X26Y48Z0F1800
G1 X32.5Y59.258Z0F1800
G1 X45.5Z0F1800
G1 X52Y48Z0F1800
G1 X45.5Y36.742Z0F1800
;Cut @ 888 mm/min, 90% power

M8
G0 Z4.8F1000
G0 X92Y47Z4.8F1600
G1 Z0F1000
;Layer C3
G1 X98.5Y58.258Z0S900F1800
G1 X111.5Z0F1800
G1 X118Y47Z0F1800
G1 X111.5Y35.742Z0F1800
G1 X98.5Z0F1800
G1 X92Y47Z0F1800
M9
M5
G1 Z10 F1000
G90
G1 Z10 F800
