;LightBurn 1.6.04
;Custom GCode device profile, absolute coords
;Bounds: X26.32 Y26.79 to X121.68 Y123.21
G00 G17 G40 G21 G54
G90
M3
G1 Z10 F500
;Cut @ 1299 mm/min, 90% power

M8
G0 Z3.5 F500
G0 X56.569 Y59.758 Z3.5 
G1 Z0 F500
;Layer C2
G1 X52.806 Y59.832 Z0 S900 F800
G1 X54.577 Y61.529 Z0 F800
G1 X53.544 Y70.752 Z0 F800
G1 X48.084 Y69.129 Z0 F800
G1 X58.635 Y76.064 Z0 F800
G1 X56.864 Y61.013 Z0 F800
G0 Z3.5 F500
G0 X65.423 Y65.661 Z3.5 F1299
G1 Z0 F500
G1 X65.571 Y69.94 Z0 F800
G1 X67.637 Y69.203 Z0 F800
G1 X67.932 Y68.317 Z0 F800
G1 X66.161 Y66.325 Z0 F800
G0 Z3.5 F500
G0 X80.623 Y63.374 Z3.5 
G1 Z0 F500
G1 X82.615 Y57.766 Z0 F800
G1 X78.778 Y51.642 Z0 F800
G1 X77.007 Y53.56 Z0 F800
G1 X80.254 Y62.562 Z0 F800
G0 Z3.5 F500
G0 X52.954 Y77.983 Z3.5 
G1 Z0 F500
G1 X59.225 Y78.573 Z0 F800
G1 X60.554 Y89.567 Z0 F800
G1 X52.733 Y87.206 Z0 F800
G1 X54.798 Y80.196 Z0 F800
G1 X53.692 Y78.721 Z0 F800
G0 Z3.5 F500
G0 X46.682 Y119.08 Z3.5 
G1 Z0 F500
G1 X46.83 Y92.518 Z0 F800
G1 X42.255 Y86.32 Z0 F800
G1 X38.566 Y98.126 Z0 F800
G1 X32.958 Y96.06 Z0 F800
G1 X32.021 Y96.292 Z0 F800
G1 X31.102 Y96.591 Z0 F800
G1 X30.652 Y96.772 Z0 F800
G1 X30.209 Y96.977 Z0 F800
G1 X29.773 Y97.21 Z0 F800
G1 X29.346 Y97.472 Z0 F800
G1 X28.928 Y97.765 Z0 F800
G1 X28.52 Y98.094 Z0 F800
G1 X28.122 Y98.459 Z0 F800
G1 X27.736 Y98.864 Z0 F800
G1 X27.362 Y99.311 Z0 F800
G1 X27 Y99.803 Z0 F800
G1 X26.652 Y100.341 Z0 F800
G1 X26.318 Y100.93 Z0 F800
G1 X28.236 Y81.156 Z0 F800
G1 X32.221 Y84.255 Z0 F800
G1 X29.86 Y81.893 Z0 F800
G1 X29.417 Y75.696 Z0 F800
G1 X27.351 Y78.794 Z0 F800
G1 X27.248 Y77.3 Z0 F800
G1 X27.19 Y75.861 Z0 F800
G1 X27.175 Y74.474 Z0 F800
G1 X27.201 Y73.139 Z0 F800
G1 X27.266 Y71.856 Z0 F800
G1 X27.367 Y70.623 Z0 F800
G1 X27.503 Y69.44 Z0 F800
G1 X27.671 Y68.305 Z0 F800
G1 X27.869 Y67.218 Z0 F800
G1 X28.095 Y66.178 Z0 F800
G1 X28.348 Y65.184 Z0 F800
G1 X28.624 Y64.234 Z0 F800
G1 X28.922 Y63.328 Z0 F800
G1 X29.24 Y62.466 Z0 F800
G1 X29.575 Y61.646 Z0 F800
G1 X29.926 Y60.867 Z0 F800
G1 X30.29 Y60.128 Z0 F800
G1 X30.665 Y59.429 Z0 F800
G1 X31.05 Y58.768 Z0 F800
G1 X31.441 Y58.145 Z0 F800
G1 X31.837 Y57.558 Z0 F800
G1 X32.236 Y57.008 Z0 F800
G1 X32.636 Y56.492 Z0 F800
G1 X33.034 Y56.01 Z0 F800
G1 X33.428 Y55.561 Z0 F800
G1 X33.817 Y55.144 Z0 F800
G1 X34.197 Y54.758 Z0 F800
G1 X34.568 Y54.403 Z0 F800
G1 X34.927 Y54.077 Z0 F800
G1 X35.272 Y53.779 Z0 F800
G1 X35.6 Y53.509 Z0 F800
G1 X35.91 Y53.265 Z0 F800
G1 X44.174 Y63.743 Z0 F800
G1 X43.141 Y49.871 Z0 F800
G1 X44.756 Y50.36 Z0 F800
G1 X46.388 Y50.928 Z0 F800
G1 X48.039 Y51.576 Z0 F800
G1 X49.707 Y52.306 Z0 F800
G1 X51.395 Y53.119 Z0 F800
G1 X53.1 Y54.017 Z0 F800
G1 X54.825 Y55 Z0 F800
G1 X56.569 Y56.069 Z0 F800
G1 X55.536 Y52.675 Z0 F800
G1 X66.309 Y43.526 Z0 F800
G1 X67.932 Y48.986 Z0 F800
G1 X72.949 Y37.033 Z0 F800
G1 X72.996 Z0 F800
G1 X73.09 Y37.063 Z0 F800
G1 X73.231 Y37.117 Z0 F800
G1 X73.414 Y37.195 Z0 F800
G1 X73.639 Y37.296 Z0 F800
G1 X73.903 Y37.419 Z0 F800
G1 X74.537 Y37.721 Z0 F800
G1 X75.298 Y38.092 Z0 F800
G1 X78.164 Y39.497 Z0 F800
G1 X80.374 Y40.564 Z0 F800
G1 X82.651 Y41.627 Z0 F800
G1 X83.77 Y42.129 Z0 F800
G1 X84.85 Y42.596 Z0 F800
G1 X85.873 Y43.016 Z0 F800
G1 X87.983 Y43.821 Z0 F800
G1 X89.202 Y44.318 Z0 F800
G1 X90.459 Y44.859 Z0 F800
G1 X91.735 Y45.433 Z0 F800
G1 X93.014 Y46.027 Z0 F800
G1 X94.275 Y46.629 Z0 F800
G1 X95.503 Y47.23 Z0 F800
G1 X96.678 Y47.816 Z0 F800
G1 X97.782 Y48.376 Z0 F800
G1 X98.798 Y48.899 Z0 F800
G1 X99.707 Y49.373 Z0 F800
G1 X100.492 Y49.788 Z0 F800
G1 X101.133 Y50.13 Z0 F800
G1 X102.02 Y50.609 Z0 F800
G1 X107.185 Y66.399 Z0 F800
G1 X108.513 Y56.807 Z0 F800
G1 X114.121 Y77.466 Z0 F800
G1 X111.907 Y85.73 Z0 F800
G1 X115.449 Y88.239 Z0 F800
G1 X113.088 Y60.496 Z0 F800
G1 X114.722 Y62.052 Z0 F800
G1 X116.326 Y63.641 Z0 F800
G1 X117.097 Y64.472 Z0 F800
G1 X117.836 Y65.341 Z0 F800
G1 X118.535 Y66.257 Z0 F800
G1 X119.185 Y67.23 Z0 F800
G1 X119.778 Y68.268 Z0 F800
G1 X120.306 Y69.383 Z0 F800
G1 X120.543 Y69.972 Z0 F800
G1 X120.761 Y70.583 Z0 F800
G1 X120.958 Y71.218 Z0 F800
G1 X121.134 Y71.879 Z0 F800
G1 X121.288 Y72.565 Z0 F800
G1 X121.418 Y73.279 Z0 F800
G1 X121.523 Y74.021 Z0 F800
G1 X121.603 Y74.793 Z0 F800
G1 X121.656 Y75.596 Z0 F800
G1 X121.682 Y76.432 Z0 F800
G1 X121.679 Y77.301 Z0 F800
G1 X121.646 Y78.204 Z0 F800
G1 X120.171 Y77.614 Z0 F800
G1 X120.909 Y95.912 Z0 F800
G1 X115.891 Y100.93 Z0 F800
G1 X111.022 Y96.798 Z0 F800
G1 X112.94 Y113.178 Z0 F800
G1 X103.348 Y90.305 Z0 F800
G1 X102.168 Y108.16 Z0 F800
G1 X92.428 Y123.212 Z0 F800
G1 X97.15 Y106.242 Z0 F800
G1 X97.445 Y104.766 Z0 F800
G1 X91.395 Y109.931 Z0 F800
G1 X94.494 Y93.551 Z0 F800
G1 X92.723 Y95.174 Z0 F800
G1 X83.574 Y79.975 Z0 F800
G1 X81.656 Y81.746 Z0 F800
G1 X86.378 Y100.634 Z0 F800
G1 X85.33 Y98.828 Z0 F800
G1 X84.256 Y97.035 Z0 F800
G1 X83.156 Y95.258 Z0 F800
G1 X82.029 Y93.496 Z0 F800
G1 X80.873 Y91.75 Z0 F800
G1 X79.689 Y90.022 Z0 F800
G1 X78.474 Y88.31 Z0 F800
G1 X77.227 Y86.616 Z0 F800
G1 X75.949 Y84.941 Z0 F800
G1 X74.637 Y83.285 Z0 F800
G1 X73.291 Y81.648 Z0 F800
G1 X71.91 Y80.031 Z0 F800
G1 X70.492 Y78.435 Z0 F800
G1 X69.038 Y76.861 Z0 F800
G1 X67.545 Y75.308 Z0 F800
G1 X66.014 Y73.777 Z0 F800
G1 X67.047 Y94.732 Z0 F800
G1 X64.095 Y104.029 Z0 F800
G1 X52.437 Y96.207 Z0 F800
G1 X47.125 Y120.851 Z0 F800
;Cut @ 1300.002 mm/min, 90% power

M8
G0 Z3.5 F500
G0 X27.957 Y45.653 Z3.5 
G1 Z0 F500
;Layer C1
G1 X28.096 Y48.497 Z0 F800
G1 X38.708 Y44.058 Z0 F800
G1 X38.569 Y33.238 Z0 F800
G1 X27.888 Y37.816 Z0 F800
G1 X28.027 Y42.879 Z0 F800
G1 X36.35 Y39.411 Z0 F800
G1 X36.142 Y36.567 Z0 F800
G1 X33.229 Y37.677 Z0 F800
G1 X33.298 Y40.035 Z0 F800
G0 Z3.5 F500
G0 X47.1 Y36.706 Z3.5 F1300
G1 Z0 F500
G1 X46.962 Y38.926 Z0 F800
G1 X44.118 Y39.897 Z0 F800
G1 X44.049 Y36.845 Z0 F800
G1 X52.441 Y34.972 Z0 F800
G1 X52.372 Y40.105 Z0 F800
G1 X41.621 Y42.74 Z0 F800
G1 Y32.267 Z0 F800
G1 X52.927 Y29.007 Z0 F800
G1 X47.586 Y34.001 Z0 F800
G0 Z3.5 F500
G0 X55.562 Y36.567 Z3.5 
G1 Z0 F500
G1 X55.632 Y39.619 Z0 F800
G1 X66.937 Y37.885 Z0 F800
G1 Y27.135 Z0 F800
G1 X55.77 Y28.73 Z0 F800
G1 X55.701 Y33.862 Z0 F800
G1 X64.232 Y32.891 Z0 F800
G1 Y29.493 Z0 F800
G1 X61.18 Y30.048 Z0 F800
G1 X61.25 Y32.545 Z0 F800
G0 Z3.5 F500
G0 X73.038 Y32.221 Z3.5 
G1 Z0 F500
G1 X76.962 Y32.024 Z0 F800
G0 Z3.5 F500
G0 X85.595 Y33.724 Z3.5 
G1 Z0 F500
G1 X85.664 Y35.596 Z0 F800
G1 X82.474 Y35.458 Z0 F800
G1 X82.612 Y32.198 Z0 F800
G1 X91.213 Y32.683 Z0 F800
G1 Y38.301 Z0 F800
G1 X80.324 Y37.608 Z0 F800
G1 X80.185 Y26.788 Z0 F800
G1 X91.282 Y27.689 Z0 F800
G1 Y30.256 Z0 F800
G0 Z3.5 F500
G0 X99.915 Y35.458 Z3.5 
G1 Z0 F500
G1 Y37.714 Z0 F800
G1 X96.972 Y37.027 Z0 F800
G1 X96.874 Y33.888 Z0 F800
G1 X105.309 Y35.85 Z0 F800
G1 X105.408 Y41.343 Z0 F800
G1 X94.618 Y39.087 Z0 F800
G1 Y28.101 Z0 F800
G1 X105.506 Y30.455 Z0 F800
G1 X105.702 Y33.3 Z0 F800
G0 Z3.5 F500
G0 X114.824 Y36.635 Z3.5 
G1 Z0 F500
G1 X118.846 Y35.163 Z0 F800
G1 X108.841 Y31.338 Z0 F800
G1 Y42.226 Z0 F800
G1 X119.042 Y46.051 Z0 F800
G1 X114.039 Y38.204 Z0 F800
G1 X111.097 Y37.714 Z0 F800
G1 Y40.754 Z0 F800
G1 X113.745 Y41.539 Z0 F800
G1 X113.843 Y39.479 Z0 F800
G0 Z3.5 F500
G0 X70.096 Y37.812 Z3.5 
G1 Z0 F500
G1 Y26.826 Z0 F800
;Offset @ 1500 mm/min, 80% power

M8
G0 Z3.5 F500
G0 X48.509 Y56.647 Z3.5 
G1 Z0 F500
;Layer C3
G1 X48.876 Y56.825 Z0 S800 F800
G1 X48.265 Y56.933 Z0 F800
G1 X48.218 Y56.522 Z0 F800
G1 X48.509 Y56.647 Z0 F800
G0 Z3.5 F500
G0 X50.087 Y57.422 Z3.5 F1500
G1 Z0 F500
G1 X47.567 Y57.868 Z0 F800
G1 X47.268 Y55.256 Z0 F800
G1 X47.508 Y55.346 Z0 F800
G1 X48.842 Y55.92 Z0 F800
G1 X50.198 Y56.573 Z0 F800
G1 X51.452 Y57.238 Z0 F800
G1 X51.023 Y57.287 Z0 F800
G1 X50.087 Y57.422 Z0 F800
G0 Z3.5 F500
G0 X50.32 Y66.427 Z3.5 
G1 Z0 F500
G1 X50.558 Y66.359 Z0 F800
G1 X51.099 Y66.228 Z0 F800
G1 X51.038 Y66.659 Z0 F800
G1 X50.32 Y66.427 Z0 F800
G0 Z3.5 F500
G0 X48.321 Y66.168 Z3.5 
G1 Z0 F500
G1 X50.354 Y65.585 Z0 F800
G1 X52.057 Y65.172 Z0 F800
G1 X51.992 Y65.63 Z0 F800
G1 X51.693 Y67.729 Z0 F800
G1 X51.247 Y67.567 Z0 F800
G1 X49.879 Y67.126 Z0 F800
G1 X48.526 Y66.748 Z0 F800
G1 X47.76 Y66.574 Z0 F800
G1 X46.325 Y54.054 Z0 F800
G1 X46.469 Y54.1 Z0 F800
G1 X47.809 Y54.605 Z0 F800
G1 X49.171 Y55.191 Z0 F800
G1 X50.563 Y55.861 Z0 F800
G1 X51.97 Y56.607 Z0 F800
G1 X53.377 Y57.421 Z0 F800
G1 X54.062 Y57.848 Z0 F800
G1 X52.977 Y57.896 Z0 F800
G1 X52.045 Y57.976 Z0 F800
G1 X51.125 Y58.081 Z0 F800
G1 X50.214 Y58.212 Z0 F800
G1 X47.672 Y58.662 Z0 F800
G1 X49.863 Y60.564 Z0 F800
G1 X50.798 Y61.411 Z0 F800
G1 X51.725 Y62.29 Z0 F800
G1 X52.373 Y62.935 Z0 F800
G1 X52.185 Y64.262 Z0 F800
G1 X50.55 Y62.655 Z0 F800
G1 X47.701 Y59.988 Z0 F800
G1 X48.049 Y63.667 Z0 F800
G1 X48.321 Y66.168 Z0 F800
G0 Z3.5 F500
G0 X49.014 Y65.137 Z3.5 
G1 Z0 F500
G1 X50.145 Y64.813 Z0 F800
G1 X51.315 Y64.529 Z0 F800
G1 X49.996 Y63.232 Z0 F800
G1 X48.696 Y62.015 Z0 F800
G1 X48.845 Y63.586 Z0 F800
G1 X49.014 Y65.137 Z0 F800
G0 Z3.5 F500
G0 X49.648 Y67.892 Z3.5 
G1 Z0 F500
G1 X48.329 Y67.524 Z0 F800
G1 X47.029 Y67.228 Z0 F800
G1 X45.389 Y52.914 Z0 F800
G1 X46.734 Y53.345 Z0 F800
G1 X48.107 Y53.862 Z0 F800
G1 X49.504 Y54.463 Z0 F800
G1 X50.922 Y55.146 Z0 F800
G1 X52.355 Y55.906 Z0 F800
G1 X53.801 Y56.742 Z0 F800
G1 X55.255 Y57.65 Z0 F800
G1 X56.713 Y58.628 Z0 F800
G1 X54.858 Y58.614 Z0 F800
G1 X53.029 Y58.694 Z0 F800
G1 X52.125 Y58.771 Z0 F800
G1 X51.229 Y58.874 Z0 F800
G1 X50.341 Y59.002 Z0 F800
G1 X49.463 Y59.158 Z0 F800
G1 X50.4 Y59.971 Z0 F800
G1 X51.342 Y60.824 Z0 F800
G1 X52.284 Y61.717 Z0 F800
G1 X53.221 Y62.65 Z0 F800
G1 X52.784 Y65.742 Z0 F800
G1 X52.347 Y68.815 Z0 F800
G1 X50.988 Y68.325 Z0 F800
G1 X49.648 Y67.892 Z0 F800
G0 Z3.5 F500
G0 X48.82 Y74.014 Z3.5 
G1 Z0 F500
G1 X48.966 Y74.101 Z0 F800
G1 X48.786 Y74.104 Z0 F800
G1 X48.772 Y73.987 Z0 F800
G1 X48.82 Y74.014 Z0 F800
G0 Z3.5 F500
G0 X51.62 Y74.856 Z3.5 
G1 Z0 F500
G1 X48.077 Y74.916 Z0 F800
G1 X47.794 Y72.542 Z0 F800
G1 X47.88 Y72.585 Z0 F800
G1 X49.216 Y73.319 Z0 F800
G1 X50.602 Y74.147 Z0 F800
G1 X51.705 Y74.859 Z0 F800
G1 X51.62 Y74.856 Z0 F800
G0 Z3.5 F500
G0 X48.364 Y77.327 Z3.5 
G1 Z0 F500
G1 X48.604 Y77.573 Z0 F800
G1 X48.404 Y77.665 Z0 F800
G1 X48.364 Y77.327 Z0 F800
G0 Z3.5 F500
G0 X47.909 Y75.719 Z3.5 
G1 Z0 F500
G1 X50.091 Y77.948 Z0 F800
G1 X50.984 Y78.897 Z0 F800
G1 X51.859 Y79.862 Z0 F800
G1 X52.465 Y80.552 Z0 F800
G1 X52.208 Y81.471 Z0 F800
G1 X50.893 Y79.972 Z0 F800
G1 X49.237 Y78.164 Z0 F800
G1 X48.177 Y78.649 Z0 F800
G1 X48.427 Y80.763 Z0 F800
G1 X48.675 Y83.104 Z0 F800
G1 X50.557 Y82.854 Z0 F800
G1 X51.861 Y82.708 Z0 F800
G1 X51.829 Y82.824 Z0 F800
G1 X51.333 Y84.569 Z0 F800
G1 X51.085 Y84.451 Z0 F800
G1 X49.977 Y83.968 Z0 F800
G1 X48.876 Y83.53 Z0 F800
G1 X48.268 Y83.311 Z0 F800
G1 X47.493 Y76.78 Z0 F800
G1 X46.825 Y71.171 Z0 F800
G1 X46.889 Y71.199 Z0 F800
G1 X48.24 Y71.87 Z0 F800
G1 X49.624 Y72.63 Z0 F800
G1 X51.02 Y73.465 Z0 F800
G1 X52.441 Y74.382 Z0 F800
G1 X53.865 Y75.365 Z0 F800
G1 X54.457 Y75.799 Z0 F800
G1 X53.508 Y75.722 Z0 F800
G1 X51.612 Y75.657 Z0 F800
G1 X47.909 Y75.719 Z0 F800
G0 Z3.5 F500
G0 X49.04 Y79.134 Z3.5 
G1 Z0 F500
G1 X49.222 Y80.678 Z0 F800
G1 X49.384 Y82.203 Z0 F800
G1 X50.459 Y82.061 Z0 F800
G1 X51.554 Y81.938 Z0 F800
G1 X50.297 Y80.506 Z0 F800
G1 X49.04 Y79.134 Z0 F800
G0 Z3.5 F500
G0 X46.699 Y76.875 Z3.5 
G1 Z0 F500
G1 X45.865 Y69.873 Z0 F800
G1 X47.228 Y70.474 Z0 F800
G1 X48.614 Y71.163 Z0 F800
G1 X50.021 Y71.935 Z0 F800
G1 X51.444 Y72.787 Z0 F800
G1 X52.882 Y73.714 Z0 F800
G1 X54.33 Y74.714 Z0 F800
G1 X55.784 Y75.781 Z0 F800
G1 X57.242 Y76.911 Z0 F800
G1 X55.343 Y76.674 Z0 F800
G1 X53.462 Y76.521 Z0 F800
G1 X51.605 Y76.457 Z0 F800
G1 X49.781 Y76.488 Z0 F800
G1 X50.674 Y77.4 Z0 F800
G1 X51.567 Y78.35 Z0 F800
G1 X52.46 Y79.334 Z0 F800
G1 X53.353 Y80.351 Z0 F800
G1 X52.599 Y83.043 Z0 F800
G1 X51.845 Y85.695 Z0 F800
G1 X50.754 Y85.18 Z0 F800
G1 X49.668 Y84.707 Z0 F800
G1 X48.593 Y84.278 Z0 F800
G1 X47.532 Y83.896 Z0 F800
G1 X46.699 Y76.875 Z0 F800
G0 Z3.5 F500
G0 X36.622 Y62.502 Z3.5 
G1 Z0 F500
G1 X36.492 Y62.389 Z0 F800
G1 X36.187 Y62.136 Z0 F800
G1 X36.252 Y62.029 Z0 F800
G1 X36.622 Y62.502 Z0 F800
G0 Z3.5 F500
G0 X37.851 Y64.763 Z3.5 
G1 Z0 F500
G1 X37.374 Y64.286 Z0 F800
G1 X36.902 Y63.832 Z0 F800
G1 X36.436 Y63.403 Z0 F800
G1 X35.973 Y62.997 Z0 F800
G1 X35.153 Y62.317 Z0 F800
G1 X35.266 Y62.108 Z0 F800
G1 X35.715 Y61.374 Z0 F800
G1 X36.193 Y60.682 Z0 F800
G1 X36.827 Y61.464 Z0 F800
G1 X37.594 Y62.449 Z0 F800
G1 X38.388 Y63.502 Z0 F800
G1 X39.22 Y64.644 Z0 F800
G1 X39.576 Y65.148 Z0 F800
G1 X39.768 Y66.851 Z0 F800
G1 X39.319 Y66.34 Z0 F800
G1 X38.824 Y65.792 Z0 F800
G1 X38.334 Y65.265 Z0 F800
G1 X37.851 Y64.763 Z0 F800
G0 Z3.5 F500
G0 X34.576 Y61.704 Z3.5 
G1 Z0 F500
G1 X35.042 Y60.94 Z0 F800
G1 X35.553 Y60.201 Z0 F800
G1 X36.074 Y59.53 Z0 F800
G1 X36.176 Y59.413 Z0 F800
G1 X36.681 Y60.012 Z0 F800
G1 X37.45 Y60.961 Z0 F800
G1 X38.231 Y61.964 Z0 F800
G1 X39.024 Y63.016 Z0 F800
G1 X39.867 Y64.173 Z0 F800
G1 X40.348 Y64.854 Z0 F800
G1 X40.863 Y69.423 Z0 F800
G1 X40.75 Y69.28 Z0 F800
G1 X40.229 Y68.638 Z0 F800
G1 X39.72 Y68.026 Z0 F800
G1 X39.218 Y67.437 Z0 F800
G1 X38.722 Y66.872 Z0 F800
G1 X38.234 Y66.332 Z0 F800
G1 X37.753 Y65.815 Z0 F800
G1 X37.279 Y65.323 Z0 F800
G1 X36.813 Y64.857 Z0 F800
G1 X36.354 Y64.415 Z0 F800
G1 X35.901 Y63.998 Z0 F800
G1 X35.454 Y63.606 Z0 F800
G1 X34.138 Y62.515 Z0 F800
G1 X34.576 Y61.704 Z0 F800
G0 Z3.5 F500
G0 X36.545 Y58.609 Z3.5 
G1 Z0 F500
G1 X37.285 Y59.487 Z0 F800
G1 X38.08 Y60.469 Z0 F800
G1 X38.865 Y61.476 Z0 F800
G1 X39.67 Y62.545 Z0 F800
G1 X40.513 Y63.702 Z0 F800
G1 X41.12 Y64.561 Z0 F800
G1 X41.979 Y72.187 Z0 F800
G1 X41.164 Y71.103 Z0 F800
G1 X40.125 Y69.779 Z0 F800
G1 X39.611 Y69.146 Z0 F800
G1 X39.108 Y68.542 Z0 F800
G1 X38.612 Y67.96 Z0 F800
G1 X38.124 Y67.404 Z0 F800
G1 X37.645 Y66.873 Z0 F800
G1 X37.172 Y66.365 Z0 F800
G1 X36.708 Y65.883 Z0 F800
G1 X36.253 Y65.428 Z0 F800
G1 X35.806 Y64.997 Z0 F800
G1 X35.367 Y64.593 Z0 F800
G1 X34.935 Y64.215 Z0 F800
G1 X33.148 Y62.734 Z0 F800
G1 X33.412 Y62.176 Z0 F800
G1 X33.88 Y61.307 Z0 F800
G1 X34.375 Y60.498 Z0 F800
G1 X34.901 Y59.736 Z0 F800
G1 X35.461 Y59.015 Z0 F800
G1 X36.05 Y58.337 Z0 F800
G1 X36.185 Y58.199 Z0 F800
G1 X36.545 Y58.609 Z0 F800
G0 Z3.5 F500
G0 X33.312 Y91.401 Z3.5 
G1 Z0 F500
G1 X33.16 Y91.398 Z0 F800
G1 X33.177 Y91.233 Z0 F800
G1 X33.312 Y91.401 Z0 F800
G0 Z3.5 F500
G0 X34.035 Y92.267 Z3.5 
G1 Z0 F500
G1 X33.302 Y92.201 Z0 F800
G1 X32.575 Y92.185 Z0 F800
G1 X32.271 Y92.201 Z0 F800
G1 X32.313 Y91.813 Z0 F800
G1 X32.461 Y90.369 Z0 F800
G1 X32.567 Y89.251 Z0 F800
G1 X32.802 Y89.523 Z0 F800
G1 X33.189 Y89.982 Z0 F800
G1 X33.61 Y90.494 Z0 F800
G1 X34.044 Y91.036 Z0 F800
G1 X35.162 Y92.458 Z0 F800
G1 X34.774 Y92.378 Z0 F800
G1 X34.035 Y92.267 Z0 F800
G0 Z3.5 F500
G0 X41.673 Y79.962 Z3.5 
G1 Z0 F500
G1 X41.939 Y78.977 Z0 F800
G1 X42.107 Y80.465 Z0 F800
G1 X41.673 Y79.962 Z0 F800
G0 Z3.5 F500
G0 X41.889 Y76.098 Z3.5 
G1 Z0 F500
G1 X42.264 Y74.714 Z0 F800
G1 X43.192 Y82.95 Z0 F800
G1 X41.363 Y80.828 Z0 F800
G1 X39.58 Y86.754 Z0 F800
G1 X38.655 Y89.791 Z0 F800
G1 X38.196 Y91.273 Z0 F800
G1 X37.74 Y92.731 Z0 F800
G1 X37.359 Y93.929 Z0 F800
G1 X36.778 Y93.722 Z0 F800
G1 X36.052 Y93.498 Z0 F800
G1 X35.338 Y93.312 Z0 F800
G1 X34.633 Y93.166 Z0 F800
G1 X33.939 Y93.061 Z0 F800
G1 X33.257 Y93 Z0 F800
G1 X32.587 Y92.985 Z0 F800
G1 X31.927 Y93.02 Z0 F800
G1 X31.366 Y93.096 Z0 F800
G1 X31.518 Y91.728 Z0 F800
G1 X31.665 Y90.291 Z0 F800
G1 X31.803 Y88.826 Z0 F800
G1 X31.93 Y87.366 Z0 F800
G1 X32.234 Y87.685 Z0 F800
G1 X32.606 Y88.088 Z0 F800
G1 X33.008 Y88.539 Z0 F800
G1 X33.393 Y88.983 Z0 F800
G1 X33.82 Y89.49 Z0 F800
G1 X34.234 Y89.994 Z0 F800
G1 X34.684 Y90.555 Z0 F800
G1 X37.081 Y93.607 Z0 F800
G1 X38.481 Y88.624 Z0 F800
G1 X39.034 Y86.628 Z0 F800
G1 X39.59 Y84.594 Z0 F800
G1 X40.153 Y82.522 Z0 F800
G1 X41.889 Y76.098 Z0 F800
G0 Z3.5 F500
G0 X34.197 Y73.233 Z3.5 
G1 Z0 F500
G1 X34.515 Y76.187 Z0 F800
G1 X34.832 Y79.16 Z0 F800
G1 X35.338 Y77.887 Z0 F800
G1 X35.864 Y76.594 Z0 F800
G1 X35.432 Y75.711 Z0 F800
G1 X35.011 Y74.854 Z0 F800
G1 X34.599 Y74.026 Z0 F800
G1 X34.197 Y73.233 Z0 F800
G0 Z3.5 F500
G0 X33.33 Y72.656 Z3.5 
G1 Z0 F500
G1 X33.719 Y76.272 Z0 F800
G1 X34.103 Y79.868 Z0 F800
G1 X35.344 Y80.038 Z0 F800
G1 X36.079 Y78.188 Z0 F800
G1 X36.74 Y76.563 Z0 F800
G1 X36.15 Y75.359 Z0 F800
G1 X35.728 Y74.5 Z0 F800
G1 X35.313 Y73.667 Z0 F800
G1 X34.609 Y72.277 Z0 F800
G1 X33.33 Y72.656 Z0 F800
G0 Z3.5 F500
G0 X33.583 Y80.604 Z3.5 
G1 Z0 F500
G1 X35.219 Y80.828 Z0 F800
G1 X35.175 Y81.052 Z0 F800
G1 X34.923 Y82.324 Z0 F800
G1 X34.48 Y81.735 Z0 F800
G1 X34.012 Y81.133 Z0 F800
G1 X33.583 Y80.604 Z0 F800
G0 Z3.5 F500
G0 X35.842 Y72.94 Z3.5 
G1 Z0 F500
G1 X35.883 Y72.96 Z0 F800
G1 X36.425 Y73.255 Z0 F800
G1 X36.673 Y73.402 Z0 F800
G1 X36.504 Y74.265 Z0 F800
G1 X36.445 Y74.145 Z0 F800
G1 X36.028 Y73.308 Z0 F800
G1 X35.842 Y72.94 Z0 F800
G0 Z3.5 F500
G0 X32.956 Y71.933 Z3.5 
G1 Z0 F500
G1 X32.764 Y71.989 Z0 F800
G1 X32.755 Y71.885 Z0 F800
G1 X32.956 Y71.933 Z0 F800
G0 Z3.5 F500
G0 X32.316 Y71.117 Z3.5 
G1 Z0 F500
G1 X31.884 Y70.759 Z0 F800
G1 X31.402 Y70.493 Z0 F800
G1 X31.133 Y70.402 Z0 F800
G1 X31.22 Y69.628 Z0 F800
G1 X31.41 Y68.391 Z0 F800
G1 X31.641 Y67.234 Z0 F800
G1 X31.92 Y66.106 Z0 F800
G1 X31.965 Y65.954 Z0 F800
G1 X32.107 Y67.934 Z0 F800
G1 X32.316 Y71.117 Z0 F800
G0 Z3.5 F500
G0 X31.95 Y71.853 Z3.5 
G1 Z0 F500
G1 X31.431 Y71.423 Z0 F800
G1 X31.078 Y71.228 Z0 F800
G1 X30.702 Y71.101 Z0 F800
G1 X30.311 Y71.045 Z0 F800
G1 X30.264 Z0 F800
G1 X30.279 Y70.841 Z0 F800
G1 X30.426 Y69.522 Z0 F800
G1 X30.619 Y68.269 Z0 F800
G1 X30.863 Y67.047 Z0 F800
G1 X31.146 Y65.902 Z0 F800
G1 X31.475 Y64.8 Z0 F800
G1 X31.843 Y63.754 Z0 F800
G1 X32.256 Y62.75 Z0 F800
G1 X32.699 Y61.812 Z0 F800
G1 X33.184 Y60.913 Z0 F800
G1 X33.707 Y60.059 Z0 F800
G1 X34.256 Y59.262 Z0 F800
G1 X34.842 Y58.508 Z0 F800
G1 X35.463 Y57.793 Z0 F800
G1 X36.11 Y57.129 Z0 F800
G1 X36.215 Y57.032 Z0 F800
G1 X36.402 Y57.235 Z0 F800
G1 X37.152 Y58.087 Z0 F800
G1 X37.907 Y58.983 Z0 F800
G1 X38.692 Y59.954 Z0 F800
G1 X39.497 Y60.985 Z0 F800
G1 X40.317 Y62.074 Z0 F800
G1 X41.16 Y63.231 Z0 F800
G1 X41.892 Y64.267 Z0 F800
G1 X44.277 Y85.434 Z0 F800
G1 X41.709 Y82.455 Z0 F800
G1 X40.347 Y86.982 Z0 F800
G1 X39.419 Y90.026 Z0 F800
G1 X38.96 Y91.512 Z0 F800
G1 X38.501 Y92.977 Z0 F800
G1 X38.046 Y94.408 Z0 F800
G1 X37.861 Y94.982 Z0 F800
G1 X37.233 Y94.732 Z0 F800
G1 X36.526 Y94.482 Z0 F800
G1 X35.833 Y94.268 Z0 F800
G1 X35.155 Y94.091 Z0 F800
G1 X34.492 Y93.954 Z0 F800
G1 X33.844 Y93.856 Z0 F800
G1 X33.213 Y93.799 Z0 F800
G1 X32.599 Y93.786 Z0 F800
G1 X32.002 Y93.817 Z0 F800
G1 X31.424 Y93.896 Z0 F800
G1 X30.867 Y94.023 Z0 F800
G1 X30.433 Y94.169 Z0 F800
G1 X30.567 Y93.048 Z0 F800
G1 X30.722 Y91.644 Z0 F800
G1 X30.869 Y90.212 Z0 F800
G1 X31.007 Y88.753 Z0 F800
G1 X31.136 Y87.268 Z0 F800
G1 X31.257 Y85.756 Z0 F800
G1 X31.266 Y85.635 Z0 F800
G1 X31.456 Y85.798 Z0 F800
G1 X31.78 Y86.094 Z0 F800
G1 X32.121 Y86.421 Z0 F800
G1 X32.458 Y86.761 Z0 F800
G1 X32.833 Y87.153 Z0 F800
G1 X33.212 Y87.565 Z0 F800
G1 X33.597 Y87.997 Z0 F800
G1 X34.005 Y88.468 Z0 F800
G1 X34.425 Y88.966 Z0 F800
G1 X34.858 Y89.493 Z0 F800
G1 X35.303 Y90.047 Z0 F800
G1 X36.737 Y91.874 Z0 F800
G1 X37.71 Y88.408 Z0 F800
G1 X38.263 Y86.416 Z0 F800
G1 X38.819 Y84.384 Z0 F800
G1 X39.381 Y82.313 Z0 F800
G1 X41.117 Y75.888 Z0 F800
G1 X41.818 Y73.303 Z0 F800
G1 X40.529 Y71.591 Z0 F800
G1 X39.5 Y70.278 Z0 F800
G1 X38.994 Y69.654 Z0 F800
G1 X38.496 Y69.057 Z0 F800
G1 X38.007 Y68.484 Z0 F800
G1 X37.526 Y67.936 Z0 F800
G1 X37.055 Y67.413 Z0 F800
G1 X36.591 Y66.915 Z0 F800
G1 X36.137 Y66.444 Z0 F800
G1 X35.693 Y65.999 Z0 F800
G1 X35.257 Y65.58 Z0 F800
G1 X34.832 Y65.188 Z0 F800
G1 X34.416 Y64.824 Z0 F800
G1 X32.577 Y63.299 Z0 F800
G1 X32.906 Y67.881 Z0 F800
G1 X33.12 Y71.149 Z0 F800
G1 X34.174 Y71.401 Z0 F800
G1 X34.656 Y71.552 Z0 F800
G1 X35.16 Y71.742 Z0 F800
G1 X35.691 Y71.974 Z0 F800
G1 X36.246 Y72.248 Z0 F800
G1 X36.814 Y72.556 Z0 F800
G1 X37.415 Y72.911 Z0 F800
G1 X37.566 Y73.007 Z0 F800
G1 X36.971 Y76.037 Z0 F800
G1 X35.96 Y81.207 Z0 F800
G1 X35.629 Y82.879 Z0 F800
G1 X35.349 Y84.285 Z0 F800
G1 X35.337 Y84.269 Z0 F800
G1 X34.821 Y83.541 Z0 F800
G1 X34.324 Y82.858 Z0 F800
G1 X33.845 Y82.221 Z0 F800
G1 X33.386 Y81.631 Z0 F800
G1 X32.945 Y81.088 Z0 F800
G1 X32.697 Y80.796 Z0 F800
G1 X31.95 Y71.853 Z0 F800
G0 Z3.5 F500
G0 X30.714 Y64.552 Z3.5 
G1 Z0 F500
G1 X31.097 Y63.466 Z0 F800
G1 X31.521 Y62.432 Z0 F800
G1 X31.987 Y61.447 Z0 F800
G1 X32.491 Y60.512 Z0 F800
G1 X33.033 Y59.626 Z0 F800
G1 X33.612 Y58.788 Z0 F800
G1 X34.226 Y57.998 Z0 F800
G1 X34.872 Y57.253 Z0 F800
G1 X35.551 Y56.556 Z0 F800
G1 X36.261 Y55.903 Z0 F800
G1 X36.996 Y56.699 Z0 F800
G1 X37.752 Y57.559 Z0 F800
G1 X38.528 Y58.48 Z0 F800
G1 X39.323 Y59.462 Z0 F800
G1 X40.135 Y60.503 Z0 F800
G1 X40.964 Y61.603 Z0 F800
G1 X41.807 Y62.76 Z0 F800
G1 X42.664 Y63.973 Z0 F800
G1 X45.362 Y87.918 Z0 F800
G1 X42.055 Y84.081 Z0 F800
G1 X41.112 Y87.215 Z0 F800
G1 X40.183 Y90.263 Z0 F800
G1 X39.723 Y91.751 Z0 F800
G1 X39.265 Y93.216 Z0 F800
G1 X38.808 Y94.654 Z0 F800
G1 X38.351 Y96.067 Z0 F800
G1 X37.644 Y95.757 Z0 F800
G1 X36.951 Y95.481 Z0 F800
G1 X36.274 Y95.241 Z0 F800
G1 X35.615 Y95.038 Z0 F800
G1 X34.973 Y94.871 Z0 F800
G1 X34.351 Y94.741 Z0 F800
G1 X33.749 Y94.65 Z0 F800
G1 X33.168 Y94.599 Z0 F800
G1 X32.611 Y94.586 Z0 F800
G1 X32.077 Y94.614 Z0 F800
G1 X31.567 Y94.684 Z0 F800
G1 X31.084 Y94.794 Z0 F800
G1 X30.628 Y94.948 Z0 F800
G1 X30.201 Y95.145 Z0 F800
G1 X29.802 Y95.385 Z0 F800
G1 X29.435 Y95.67 Z0 F800
G1 X29.608 Y94.327 Z0 F800
G1 X29.772 Y92.957 Z0 F800
G1 X29.927 Y91.559 Z0 F800
G1 X30.073 Y90.134 Z0 F800
G1 X30.21 Y88.681 Z0 F800
G1 X30.338 Y87.202 Z0 F800
G1 X30.459 Y85.695 Z0 F800
G1 X30.572 Y84.161 Z0 F800
G1 X30.824 Y84.306 Z0 F800
G1 X31.092 Y84.484 Z0 F800
G1 X31.377 Y84.693 Z0 F800
G1 X31.679 Y84.935 Z0 F800
G1 X31.996 Y85.208 Z0 F800
G1 X32.328 Y85.511 Z0 F800
G1 X32.675 Y85.844 Z0 F800
G1 X33.036 Y86.208 Z0 F800
G1 X33.411 Y86.601 Z0 F800
G1 X33.8 Y87.023 Z0 F800
G1 X34.202 Y87.473 Z0 F800
G1 X34.617 Y87.952 Z0 F800
G1 X35.043 Y88.458 Z0 F800
G1 X35.482 Y88.992 Z0 F800
G1 X35.932 Y89.553 Z0 F800
G1 X36.393 Y90.14 Z0 F800
G1 X36.94 Y88.193 Z0 F800
G1 X37.491 Y86.204 Z0 F800
G1 X38.047 Y84.173 Z0 F800
G1 X38.609 Y82.104 Z0 F800
G1 X40.345 Y75.679 Z0 F800
G1 X40.944 Y73.472 Z0 F800
G1 X39.895 Y72.078 Z0 F800
G1 X38.875 Y70.777 Z0 F800
G1 X38.375 Y70.163 Z0 F800
G1 X37.884 Y69.573 Z0 F800
G1 X37.402 Y69.007 Z0 F800
G1 X36.929 Y68.468 Z0 F800
G1 X36.465 Y67.954 Z0 F800
G1 X36.01 Y67.465 Z0 F800
G1 X35.566 Y67.004 Z0 F800
G1 X35.132 Y66.57 Z0 F800
G1 X34.709 Y66.163 Z0 F800
G1 X34.297 Y65.784 Z0 F800
G1 X33.897 Y65.433 Z0 F800
G1 X33.509 Y65.111 Z0 F800
G1 X33.704 Y67.829 Z0 F800
G1 X33.879 Y70.508 Z0 F800
G1 X34.387 Y70.629 Z0 F800
G1 X34.915 Y70.794 Z0 F800
G1 X35.462 Y71.001 Z0 F800
G1 X36.029 Y71.249 Z0 F800
G1 X36.613 Y71.537 Z0 F800
G1 X37.213 Y71.862 Z0 F800
G1 X37.828 Y72.226 Z0 F800
G1 X38.457 Y72.625 Z0 F800
G1 X37.756 Y76.191 Z0 F800
G1 X36.745 Y81.362 Z0 F800
G1 X36.414 Y83.035 Z0 F800
G1 X36.085 Y84.683 Z0 F800
G1 X35.758 Y86.304 Z0 F800
G1 X35.211 Y85.493 Z0 F800
G1 X34.682 Y84.727 Z0 F800
G1 X34.172 Y84.007 Z0 F800
G1 X33.681 Y83.334 Z0 F800
G1 X33.21 Y82.708 Z0 F800
G1 X32.759 Y82.129 Z0 F800
G1 X32.33 Y81.599 Z0 F800
G1 X31.921 Y81.118 Z0 F800
G1 X31.181 Y72.254 Z0 F800
G1 X30.979 Y72.087 Z0 F800
G1 X30.754 Y71.963 Z0 F800
G1 X30.516 Y71.883 Z0 F800
G1 X30.271 Y71.848 Z0 F800
G1 X30.027 Y71.858 Z0 F800
G1 X29.793 Y71.916 Z0 F800
G1 X29.575 Y72.021 Z0 F800
G1 X29.381 Y72.175 Z0 F800
G1 X29.482 Y70.769 Z0 F800
G1 X29.633 Y69.418 Z0 F800
G1 X29.833 Y68.122 Z0 F800
G1 X30.081 Y66.879 Z0 F800
G1 X30.375 Y65.689 Z0 F800
G1 X30.714 Y64.552 Z0 F800
G0 Z3.5 F500
G0 X72.965 Y74.254 Z3.5 
G1 Z0 F500
G1 X74.878 Y76.483 Z0 F800
G1 X76.768 Y78.782 Z0 F800
G1 X77.214 Y79.351 Z0 F800
G1 X77.174 Y79.415 Z0 F800
G1 X75.12 Y76.921 Z0 F800
G1 X72.874 Y74.337 Z0 F800
G1 X71.718 Y73.063 Z0 F800
G1 X71.392 Y72.715 Z0 F800
G1 X71.457 Y72.574 Z0 F800
G1 X72.965 Y74.254 Z0 F800
G0 Z3.5 F500
G0 X75.495 Y75.973 Z3.5 
G1 Z0 F500
G1 X77.386 Y78.274 Z0 F800
G1 X78.194 Y79.304 Z0 F800
G1 X77.327 Y80.662 Z0 F800
G1 X77.422 Y81.021 Z0 F800
G1 X76.692 Y80.088 Z0 F800
G1 X74.51 Y77.438 Z0 F800
G1 X72.276 Y74.868 Z0 F800
G1 X71.13 Y73.606 Z0 F800
G1 X70.379 Y72.804 Z0 F800
G1 X70.485 Y72.771 Z0 F800
G1 X71.24 Y71.135 Z0 F800
G1 X73.56 Y73.719 Z0 F800
G1 X75.495 Y75.973 Z0 F800
G0 Z3.5 F500
G0 X78.013 Y77.777 Z3.5 
G1 Z0 F500
G1 X79.174 Y79.256 Z0 F800
G1 X78.19 Y80.796 Z0 F800
G1 X79.13 Y84.333 Z0 F800
G1 X79.218 Y84.676 Z0 F800
G1 X78.179 Y83.285 Z0 F800
G1 X76.068 Y80.589 Z0 F800
G1 X73.899 Y77.955 Z0 F800
G1 X71.678 Y75.4 Z0 F800
G1 X70.542 Y74.148 Z0 F800
G1 X69.396 Y72.925 Z0 F800
G1 X68.914 Y72.426 Z0 F800
G1 X69.907 Y72.114 Z0 F800
G1 X71.933 Y67.723 Z0 F800
G1 X72.627 Y66.29 Z0 F800
G1 X71.593 Y70.332 Z0 F800
G1 X74.155 Y73.184 Z0 F800
G1 X76.111 Y75.462 Z0 F800
G1 X78.013 Y77.777 Z0 F800
G0 Z3.5 F500
G0 X85.819 Y54.58 Z3.5 
G1 Z0 F500
G1 X85.626 Y54.262 Z0 F800
G1 X85.842 Y54.498 Z0 F800
G1 X85.819 Y54.58 Z0 F800
G0 Z3.5 F500
G0 X86.082 Y56.558 Z3.5 
G1 Z0 F500
G1 X84.836 Y54.502 Z0 F800
G1 X83.482 Y52.341 Z0 F800
G1 X82.098 Y50.204 Z0 F800
G1 X81.012 Y48.585 Z0 F800
G1 X82.391 Y49.859 Z0 F800
G1 X84.169 Y51.597 Z0 F800
G1 X85.911 Y53.391 Z0 F800
G1 X86.736 Y54.287 Z0 F800
G1 X86.082 Y56.558 Z0 F800
G0 Z3.5 F500
G0 X82.204 Y70.734 Z3.5 
G1 Z0 F500
G1 X82.113 Y71.076 Z0 F800
G1 X81.822 Y72.228 Z0 F800
G1 X80.739 Y70.767 Z0 F800
G1 X82.204 Y70.734 Z0 F800
G0 Z3.5 F500
G0 X77.745 Y66.96 Z3.5 
G1 Z0 F500
G1 X77.212 Y66.308 Z0 F800
G1 X74.876 Y63.525 Z0 F800
G1 X75.803 Y61.705 Z0 F800
G1 X76.279 Y62.951 Z0 F800
G1 X77.427 Y66.065 Z0 F800
G1 X77.745 Y66.96 Z0 F800
G0 Z3.5 F500
G0 X78.852 Y69.622 Z3.5 
G1 Z0 F500
G1 X77.731 Y68.209 Z0 F800
G1 X76.596 Y66.818 Z0 F800
G1 X73.923 Y63.634 Z0 F800
G1 X75.594 Y60.352 Z0 F800
G1 X75.914 Y59.754 Z0 F800
G1 X77.03 Y62.674 Z0 F800
G1 X78.178 Y65.789 Z0 F800
G1 X79.669 Y69.991 Z0 F800
G1 X81.983 Y69.939 Z0 F800
G1 X83.12 Y66.209 Z0 F800
G1 X83.938 Y63.598 Z0 F800
G1 X84.77 Y61.001 Z0 F800
G1 X85.846 Y57.713 Z0 F800
G1 X84.155 Y54.922 Z0 F800
G1 X82.808 Y52.771 Z0 F800
G1 X81.43 Y50.645 Z0 F800
G1 X78.874 Y46.834 Z0 F800
G1 X78.517 Y47.238 Z0 F800
G1 X77.384 Y45.958 Z0 F800
G1 X74.769 Y43.114 Z0 F800
G1 X72.763 Y47.406 Z0 F800
G1 X71.778 Y49.553 Z0 F800
G1 X71.678 Y49.416 Z0 F800
G1 X72.37 Y47.884 Z0 F800
G1 X73.474 Y45.504 Z0 F800
G1 X74.585 Y43.18 Z0 F800
G1 X74.904 Y42.536 Z0 F800
G1 X75.357 Y42.863 Z0 F800
G1 X77.301 Y44.361 Z0 F800
G1 X79.208 Y45.927 Z0 F800
G1 X81.092 Y47.57 Z0 F800
G1 X82.949 Y49.287 Z0 F800
G1 X84.737 Y51.033 Z0 F800
G1 X86.499 Y52.848 Z0 F800
G1 X87.629 Y54.076 Z0 F800
G1 X86.17 Y59.141 Z0 F800
G1 X84.504 Y65.169 Z0 F800
G1 X82.888 Y71.276 Z0 F800
G1 X82.184 Y74.063 Z0 F800
G1 X82.115 Y73.966 Z0 F800
G1 X79.959 Y71.058 Z0 F800
G1 X78.852 Y69.622 Z0 F800
G0 Z3.5 F500
G0 X73.223 Y50.241 Z3.5 
G1 Z0 F500
G1 X74.2 Y49.68 Z0 F800
G1 X75.184 Y49.143 Z0 F800
G1 X76.173 Y48.626 Z0 F800
G1 X77.165 Y48.125 Z0 F800
G1 X76.196 Y47.03 Z0 F800
G1 X75.208 Y45.955 Z0 F800
G1 X74.215 Y48.078 Z0 F800
G1 X73.223 Y50.241 Z0 F800
G0 Z3.5 F500
G0 X73.116 Y51.226 Z3.5 
G1 Z0 F500
G1 X74.583 Y50.382 Z0 F800
G1 X75.567 Y49.846 Z0 F800
G1 X76.535 Y49.34 Z0 F800
G1 X78.451 Y48.37 Z0 F800
G1 X76.791 Y46.494 Z0 F800
G1 X74.988 Y44.534 Z0 F800
G1 X73.489 Y47.742 Z0 F800
G1 X72.252 Y50.438 Z0 F800
G1 X73.116 Y51.226 Z0 F800
G0 Z3.5 F500
G0 X73.477 Y51.941 Z3.5 
G1 Z0 F500
G1 X74.988 Y51.072 Z0 F800
G1 X75.321 Y50.891 Z0 F800
G1 X74.998 Y51.269 Z0 F800
G1 X73.917 Y52.577 Z0 F800
G1 X73.477 Y51.941 Z0 F800
G0 Z3.5 F500
G0 X70.757 Y49.511 Z3.5 
G1 Z0 F500
G1 X71.647 Y47.541 Z0 F800
G1 X72.744 Y45.176 Z0 F800
G1 X73.868 Y42.825 Z0 F800
G1 X74.605 Y41.335 Z0 F800
G1 X75.839 Y42.224 Z0 F800
G1 X77.799 Y43.735 Z0 F800
G1 X79.726 Y45.318 Z0 F800
G1 X81.633 Y46.981 Z0 F800
G1 X83.481 Y48.688 Z0 F800
G1 X85.304 Y50.469 Z0 F800
G1 X87.077 Y52.295 Z0 F800
G1 X88.522 Y53.866 Z0 F800
G1 X86.94 Y59.358 Z0 F800
G1 X85.276 Y65.378 Z0 F800
G1 X83.663 Y71.477 Z0 F800
G1 X82.532 Y75.951 Z0 F800
G1 X81.467 Y74.435 Z0 F800
G1 X79.321 Y71.541 Z0 F800
G1 X78.221 Y70.115 Z0 F800
G1 X77.108 Y68.711 Z0 F800
G1 X75.979 Y67.328 Z0 F800
G1 X73.839 Y64.779 Z0 F800
G1 X72.475 Y70.116 Z0 F800
G1 X74.768 Y72.67 Z0 F800
G1 X76.716 Y74.938 Z0 F800
G1 X78.642 Y77.283 Z0 F800
G1 X80.154 Y79.208 Z0 F800
G1 X79.054 Y80.931 Z0 F800
G1 X79.901 Y84.121 Z0 F800
G1 X80.632 Y86.973 Z0 F800
G1 X81.01 Y88.5 Z0 F800
G1 X79.582 Y86.5 Z0 F800
G1 X77.543 Y83.771 Z0 F800
G1 X75.444 Y81.09 Z0 F800
G1 X73.288 Y78.472 Z0 F800
G1 X71.08 Y75.931 Z0 F800
G1 X69.954 Y74.69 Z0 F800
G1 X68.817 Y73.477 Z0 F800
G1 X67.668 Y72.289 Z0 F800
G1 X67.433 Y72.054 Z0 F800
G1 X67.598 Y72 Z0 F800
G1 X69.329 Y71.457 Z0 F800
G1 X71.219 Y67.36 Z0 F800
G1 X73.017 Y63.651 Z0 F800
G1 X74.889 Y59.974 Z0 F800
G1 X76.024 Y57.854 Z0 F800
G1 X76.602 Y59.312 Z0 F800
G1 X77.781 Y62.398 Z0 F800
G1 X78.925 Y65.503 Z0 F800
G1 X80.229 Y69.178 Z0 F800
G1 X81.387 Y69.152 Z0 F800
G1 X82.356 Y65.97 Z0 F800
G1 X83.178 Y63.349 Z0 F800
G1 X84.01 Y60.752 Z0 F800
G1 X84.972 Y57.813 Z0 F800
G1 X83.474 Y55.341 Z0 F800
G1 X82.133 Y53.201 Z0 F800
G1 X80.762 Y51.085 Z0 F800
G1 X78.787 Y48.141 Z0 F800
G1 X76.851 Y50.331 Z0 F800
G1 X75.61 Y51.784 Z0 F800
G1 X74.385 Y53.266 Z0 F800
G1 X73.862 Y53.918 Z0 F800
G1 X73.488 Y53.363 Z0 F800
G1 X72.495 Y51.928 Z0 F800
G1 X71.492 Y50.518 Z0 F800
G1 X70.757 Y49.511 Z0 F800
G0 Z3.5 F500
G0 X69.836 Y49.606 Z3.5 
G1 Z0 F500
G1 X70.918 Y47.211 Z0 F800
G1 X72.022 Y44.831 Z0 F800
G1 X73.151 Y42.47 Z0 F800
G1 X74.308 Y40.134 Z0 F800
G1 X76.318 Y41.583 Z0 F800
G1 X78.298 Y43.11 Z0 F800
G1 X80.246 Y44.709 Z0 F800
G1 X82.159 Y46.378 Z0 F800
G1 X84.035 Y48.111 Z0 F800
G1 X85.872 Y49.905 Z0 F800
G1 X87.666 Y51.753 Z0 F800
G1 X89.416 Y53.654 Z0 F800
G1 X87.71 Y59.576 Z0 F800
G1 X86.049 Y65.587 Z0 F800
G1 X84.437 Y71.677 Z0 F800
G1 X82.88 Y77.837 Z0 F800
G1 X80.818 Y74.903 Z0 F800
G1 X78.683 Y72.023 Z0 F800
G1 X77.591 Y70.608 Z0 F800
G1 X76.484 Y69.212 Z0 F800
G1 X75.363 Y67.838 Z0 F800
G1 X74.229 Y66.486 Z0 F800
G1 X73.355 Y69.899 Z0 F800
G1 X75.363 Y72.135 Z0 F800
G1 X77.334 Y74.431 Z0 F800
G1 X79.26 Y76.775 Z0 F800
G1 X81.134 Y79.16 Z0 F800
G1 X79.917 Y81.065 Z0 F800
G1 X80.676 Y83.922 Z0 F800
G1 X81.409 Y86.78 Z0 F800
G1 X82.116 Y89.638 Z0 F800
G1 X82.801 Y92.495 Z0 F800
G1 X80.901 Y89.723 Z0 F800
G1 X78.936 Y86.972 Z0 F800
G1 X76.908 Y84.257 Z0 F800
G1 X74.82 Y81.591 Z0 F800
G1 X72.677 Y78.988 Z0 F800
G1 X70.481 Y76.462 Z0 F800
G1 X69.365 Y75.233 Z0 F800
G1 X68.237 Y74.028 Z0 F800
G1 X67.098 Y72.85 Z0 F800
G1 X65.947 Y71.699 Z0 F800
G1 X67.349 Y71.239 Z0 F800
G1 X68.751 Y70.799 Z0 F800
G1 X70.493 Y67.025 Z0 F800
G1 X72.304 Y63.289 Z0 F800
G1 X74.184 Y59.596 Z0 F800
G1 X76.133 Y55.956 Z0 F800
G1 X77.349 Y59.026 Z0 F800
G1 X78.531 Y62.121 Z0 F800
G1 X79.679 Y65.235 Z0 F800
G1 X80.79 Y68.365 Z0 F800
G1 X81.593 Y65.731 Z0 F800
G1 X82.414 Y63.11 Z0 F800
G1 X83.25 Y60.503 Z0 F800
G1 X84.097 Y57.914 Z0 F800
G1 X82.792 Y55.761 Z0 F800
G1 X81.458 Y53.631 Z0 F800
G1 X80.094 Y51.525 Z0 F800
G1 X78.7 Y49.447 Z0 F800
G1 X77.455 Y50.855 Z0 F800
G1 X76.223 Y52.298 Z0 F800
G1 X75.005 Y53.771 Z0 F800
G1 X73.805 Y55.268 Z0 F800
G1 X72.828 Y53.814 Z0 F800
G1 X71.84 Y52.388 Z0 F800
G1 X70.843 Y50.986 Z0 F800
G1 X69.836 Y49.606 Z0 F800
G0 Z3.5 F500
G0 X100.804 Y83.086 Z3.5 
G1 Z0 F500
G1 X99.646 Y83.845 Z0 F800
G1 X100.171 Y82.989 Z0 F800
G1 X100.947 Y81.756 Z0 F800
G1 X100.804 Y83.086 Z0 F800
G0 Z3.5 F500
G0 X100.94 Y83.954 Z3.5 
G1 Z0 F500
G1 X98.701 Y85.42 Z0 F800
G1 X97.684 Y86.117 Z0 F800
G1 X97.105 Y86.532 Z0 F800
G1 X97.629 Y85.636 Z0 F800
G1 X98.575 Y84.06 Z0 F800
G1 X99.508 Y82.541 Z0 F800
G1 X100.425 Y81.083 Z0 F800
G1 X101.369 Y79.621 Z0 F800
G1 X102.099 Y78.519 Z0 F800
G1 X101.481 Y84.274 Z0 F800
G1 X100.94 Y83.954 Z0 F800
G0 Z3.5 F500
G0 X98.826 Y82.122 Z3.5 
G1 Z0 F500
G1 X99.752 Y80.649 Z0 F800
G1 X100.687 Y79.203 Z0 F800
G1 X101.628 Y77.781 Z0 F800
G1 X102.543 Y76.438 Z0 F800
G1 X103.234 Y75.453 Z0 F800
G1 X103.002 Y77.6 Z0 F800
G1 X102.145 Y85.596 Z0 F800
G1 X100.961 Y84.896 Z0 F800
G1 X99.146 Y86.084 Z0 F800
G1 X98.143 Y86.772 Z0 F800
G1 X97.135 Y87.494 Z0 F800
G1 X96.124 Y88.248 Z0 F800
G1 X95.111 Y89.031 Z0 F800
G1 X94.363 Y89.631 Z0 F800
G1 X96.952 Y85.21 Z0 F800
G1 X97.88 Y83.662 Z0 F800
G1 X98.826 Y82.122 Z0 F800
G0 Z3.5 F500
G0 X89.072 Y77.818 Z3.5 
G1 Z0 F500
G1 X89.526 Y79.424 Z0 F800
G1 X89.987 Y81.09 Z0 F800
G1 X88.748 Y79.131 Z0 F800
G1 X89.072 Y77.818 Z0 F800
G0 Z3.5 F500
G0 X89.597 Y76.734 Z3.5 
G1 Z0 F500
G1 X90.298 Y79.211 Z0 F800
G1 X90.985 Y81.697 Z0 F800
G1 X91.655 Y84.167 Z0 F800
G1 X92.255 Y86.427 Z0 F800
G1 X91.439 Y85.029 Z0 F800
G1 X89.431 Y81.708 Z0 F800
G1 X87.89 Y79.271 Z0 F800
G1 X88.501 Y76.792 Z0 F800
G1 X89.014 Y74.752 Z0 F800
G1 X89.597 Y76.734 Z0 F800
G0 Z3.5 F500
G0 X91.069 Y78.998 Z3.5 
G1 Z0 F500
G1 X91.758 Y81.488 Z0 F800
G1 X92.428 Y83.962 Z0 F800
G1 X94.009 Y89.917 Z0 F800
G1 X93.558 Y90.291 Z0 F800
G1 X92.669 Y88.725 Z0 F800
G1 X90.751 Y85.438 Z0 F800
G1 X88.75 Y82.128 Z0 F800
G1 X87.031 Y79.41 Z0 F800
G1 X87.725 Y76.598 Z0 F800
G1 X88.593 Y73.147 Z0 F800
G1 X88.959 Y71.728 Z0 F800
G1 X90.36 Y76.493 Z0 F800
G1 X91.069 Y78.998 Z0 F800
G0 Z3.5 F500
G0 X95.951 Y54.335 Z3.5 
G1 Z0 F500
G1 X96.079 Y53.573 Z0 F800
G1 X95.268 Y52.491 Z0 F800
G1 X95.723 Y52.709 Z0 F800
G1 X97.333 Y53.572 Z0 F800
G1 X97.982 Y53.961 Z0 F800
G1 X98.039 Y54.119 Z0 F800
G1 X95.951 Y54.335 Z0 F800
G0 Z3.5 F500
G0 X95.233 Y53.779 Z3.5 
G1 Z0 F500
G1 X92.963 Y50.75 Z0 F800
G1 X92.763 Y50.495 Z0 F800
G1 X94.397 Y51.188 Z0 F800
G1 X96.089 Y51.997 Z0 F800
G1 X97.723 Y52.873 Z0 F800
G1 X98.639 Y53.421 Z0 F800
G1 X99.742 Y56.496 Z0 F800
G1 X101.041 Y60.291 Z0 F800
G1 X102.276 Y64.088 Z0 F800
G1 X103.301 Y67.408 Z0 F800
G1 X103.139 Y68.898 Z0 F800
G1 X102.041 Y65.213 Z0 F800
G1 X100.725 Y60.968 Z0 F800
G1 X98.748 Y54.85 Z0 F800
G1 X94.988 Y55.239 Z0 F800
G1 X95.233 Y53.779 Z0 F800
G0 Z3.5 F500
G0 X94.7 Y56.953 Z3.5 
G1 Z0 F500
G1 X94.115 Y62.436 Z0 F800
G1 X94.205 Y62.688 Z0 F800
G1 X93.755 Y62.691 Z0 F800
G1 X94.134 Y60.324 Z0 F800
G1 X94.7 Y56.953 Z0 F800
G0 Z3.5 F500
G0 X94.388 Y53.984 Z3.5 
G1 Z0 F500
G1 X92.329 Y51.237 Z0 F800
G1 X90.617 Y49.067 Z0 F800
G1 X90.389 Y48.791 Z0 F800
G1 X91.154 Y49.038 Z0 F800
G1 X92.954 Y49.707 Z0 F800
G1 X94.723 Y50.457 Z0 F800
G1 X96.442 Y51.279 Z0 F800
G1 X98.129 Y52.184 Z0 F800
G1 X99.295 Y52.881 Z0 F800
G1 X100.495 Y56.226 Z0 F800
G1 X101.801 Y60.043 Z0 F800
G1 X103.048 Y63.876 Z0 F800
G1 X104.114 Y67.33 Z0 F800
G1 X103.498 Y73.02 Z0 F800
G1 X102.523 Y69.631 Z0 F800
G1 X101.275 Y65.446 Z0 F800
G1 X99.962 Y61.209 Z0 F800
G1 X98.186 Y55.713 Z0 F800
G1 X95.608 Y55.979 Z0 F800
G1 X94.93 Y62.34 Z0 F800
G1 X95.335 Y63.481 Z0 F800
G1 X93.517 Y63.493 Z0 F800
G1 X93.01 Y67.3 Z0 F800
G1 X92.505 Y65.446 Z0 F800
G1 X93.344 Y60.197 Z0 F800
G1 X94.388 Y53.984 Z0 F800
G0 Z3.5 F500
G0 X94.919 Y65.084 Z3.5 
G1 Z0 F500
G1 X94.539 Y67.942 Z0 F800
G1 X94.178 Y70.799 Z0 F800
G1 X95.091 Y71.689 Z0 F800
G1 X96.003 Y72.598 Z0 F800
G1 X95.471 Y68.861 Z0 F800
G1 X94.919 Y65.084 Z0 F800
G0 Z3.5 F500
G0 X94.218 Y64.289 Z3.5 
G1 Z0 F500
G1 X93.745 Y67.839 Z0 F800
G1 X93.334 Y71.094 Z0 F800
G1 X94.526 Y72.256 Z0 F800
G1 X95.847 Y73.571 Z0 F800
G1 X96.876 Y73.056 Z0 F800
G1 X96.263 Y68.747 Z0 F800
G1 X95.61 Y64.279 Z0 F800
G1 X94.218 Y64.289 Z0 F800
G0 Z3.5 F500
G0 X94.639 Y73.498 Z3.5 
G1 Z0 F500
G1 X95.69 Y74.544 Z0 F800
G1 X97.129 Y73.824 Z0 F800
G1 X96.031 Y75.774 Z0 F800
G1 X95.465 Y76.806 Z0 F800
G1 X94.639 Y73.498 Z0 F800
G0 Z3.5 F500
G0 X97.012 Y68.339 Z3.5 
G1 Z0 F500
G1 X97.623 Y70.179 Z0 F800
G1 X98.204 Y71.963 Z0 F800
G1 X97.662 Y72.896 Z0 F800
G1 X97.055 Y68.633 Z0 F800
G1 X97.012 Y68.339 Z0 F800
G0 Z3.5 F500
G0 X96.696 Y64.925 Z3.5 
G1 Z0 F500
G1 X97.553 Y67.43 Z0 F800
G1 X98.382 Y69.927 Z0 F800
G1 X99.075 Y72.056 Z0 F800
G1 X97.997 Y73.914 Z0 F800
G1 X96.73 Y76.162 Z0 F800
G1 X95.458 Y78.484 Z0 F800
G1 X95.176 Y79.014 Z0 F800
G1 X94.736 Y77.187 Z0 F800
G1 X93.756 Y73.264 Z0 F800
G1 X92.726 Y69.306 Z0 F800
G1 X91.688 Y65.491 Z0 F800
G1 X92.553 Y60.078 Z0 F800
G1 X93.542 Y54.189 Z0 F800
G1 X91.695 Y51.725 Z0 F800
G1 X89.995 Y49.57 Z0 F800
G1 X88.251 Y47.46 Z0 F800
G1 X88.094 Y47.278 Z0 F800
G1 X89.544 Y47.677 Z0 F800
G1 X91.407 Y48.278 Z0 F800
G1 X93.25 Y48.964 Z0 F800
G1 X95.054 Y49.728 Z0 F800
G1 X96.809 Y50.567 Z0 F800
G1 X98.52 Y51.485 Z0 F800
G1 X99.951 Y52.342 Z0 F800
G1 X101.244 Y55.944 Z0 F800
G1 X102.562 Y59.795 Z0 F800
G1 X103.805 Y63.617 Z0 F800
G1 X104.927 Y67.253 Z0 F800
G1 X103.797 Y77.685 Z0 F800
G1 X102.807 Y86.923 Z0 F800
G1 X102.663 Y86.832 Z0 F800
G1 X100.983 Y85.838 Z0 F800
G1 X99.592 Y86.749 Z0 F800
G1 X98.603 Y87.427 Z0 F800
G1 X97.607 Y88.14 Z0 F800
G1 X96.608 Y88.885 Z0 F800
G1 X95.605 Y89.66 Z0 F800
G1 X94.602 Y90.465 Z0 F800
G1 X93.597 Y91.297 Z0 F800
G1 X93.336 Y91.521 Z0 F800
G1 X91.976 Y89.124 Z0 F800
G1 X90.064 Y85.846 Z0 F800
G1 X88.07 Y82.549 Z0 F800
G1 X86.173 Y79.549 Z0 F800
G1 X86.949 Y76.402 Z0 F800
G1 X87.82 Y72.942 Z0 F800
G1 X88.703 Y69.517 Z0 F800
G1 X88.894 Y68.8 Z0 F800
G1 X89.645 Y71.222 Z0 F800
G1 X91.132 Y76.283 Z0 F800
G1 X91.84 Y78.785 Z0 F800
G1 X92.53 Y81.279 Z0 F800
G1 X93.201 Y83.757 Z0 F800
G1 X94.348 Y88.074 Z0 F800
G1 X96.257 Y84.813 Z0 F800
G1 X97.203 Y83.237 Z0 F800
G1 X98.139 Y81.711 Z0 F800
G1 X99.081 Y80.216 Z0 F800
G1 X100.025 Y78.753 Z0 F800
G1 X100.956 Y77.348 Z0 F800
G1 X101.895 Y75.97 Z0 F800
G1 X103.043 Y74.333 Z0 F800
G1 X101.755 Y69.855 Z0 F800
G1 X100.51 Y65.678 Z0 F800
G1 X99.199 Y61.451 Z0 F800
G1 X97.624 Y56.575 Z0 F800
G1 X96.335 Y56.708 Z0 F800
G1 X95.744 Y62.244 Z0 F800
G1 X96.696 Y64.925 Z0 F800
G0 Z3.5 F500
G0 X98.312 Y67.178 Z3.5 
G1 Z0 F500
G1 X99.142 Y69.674 Z0 F800
G1 X99.946 Y72.148 Z0 F800
G1 X98.691 Y74.311 Z0 F800
G1 X97.429 Y76.551 Z0 F800
G1 X96.162 Y78.864 Z0 F800
G1 X94.893 Y81.25 Z0 F800
G1 X93.959 Y77.377 Z0 F800
G1 X92.981 Y73.461 Z0 F800
G1 X91.953 Y69.511 Z0 F800
G1 X90.871 Y65.534 Z0 F800
G1 X91.764 Y59.945 Z0 F800
G1 X92.696 Y54.395 Z0 F800
G1 X91.061 Y52.212 Z0 F800
G1 X89.373 Y50.072 Z0 F800
G1 X87.64 Y47.977 Z0 F800
G1 X85.87 Y45.928 Z0 F800
G1 X87.833 Y46.377 Z0 F800
G1 X89.769 Y46.909 Z0 F800
G1 X91.675 Y47.524 Z0 F800
G1 X93.546 Y48.22 Z0 F800
G1 X95.379 Y48.997 Z0 F800
G1 X97.17 Y49.854 Z0 F800
G1 X98.914 Y50.789 Z0 F800
G1 X100.607 Y51.802 Z0 F800
G1 X102.001 Y55.685 Z0 F800
G1 X103.323 Y59.548 Z0 F800
G1 X104.57 Y63.381 Z0 F800
G1 X105.74 Y67.174 Z0 F800
G1 X104.593 Y77.771 Z0 F800
G1 X103.465 Y88.288 Z0 F800
G1 X102.245 Y87.514 Z0 F800
G1 X101.004 Y86.78 Z0 F800
G1 X100.037 Y87.414 Z0 F800
G1 X99.062 Y88.083 Z0 F800
G1 X98.079 Y88.786 Z0 F800
G1 X97.092 Y89.522 Z0 F800
G1 X96.101 Y90.289 Z0 F800
G1 X95.107 Y91.085 Z0 F800
G1 X94.113 Y91.909 Z0 F800
G1 X93.12 Y92.76 Z0 F800
G1 X91.282 Y89.523 Z0 F800
G1 X89.376 Y86.254 Z0 F800
G1 X87.39 Y82.97 Z0 F800
G1 X85.314 Y79.689 Z0 F800
G1 X86.173 Y76.207 Z0 F800
G1 X87.044 Y72.747 Z0 F800
G1 X87.93 Y69.312 Z0 F800
G1 X88.833 Y65.904 Z0 F800
G1 X90.412 Y70.996 Z0 F800
G1 X91.899 Y76.058 Z0 F800
G1 X92.611 Y78.571 Z0 F800
G1 X93.302 Y81.07 Z0 F800
G1 X93.974 Y83.551 Z0 F800
G1 X94.628 Y86.013 Z0 F800
G1 X95.571 Y84.402 Z0 F800
G1 X96.517 Y82.825 Z0 F800
G1 X97.462 Y81.285 Z0 F800
G1 X98.408 Y79.782 Z0 F800
G1 X99.353 Y78.319 Z0 F800
G1 X100.294 Y76.897 Z0 F800
G1 X101.233 Y75.519 Z0 F800
G1 X102.168 Y74.186 Z0 F800
G1 X100.987 Y70.081 Z0 F800
G1 X99.744 Y65.911 Z0 F800
G1 X98.437 Y61.692 Z0 F800
G1 X97.062 Y57.438 Z0 F800
G1 X96.559 Y62.147 Z0 F800
G1 X97.453 Y64.666 Z0 F800
G1 X98.312 Y67.178 Z0 F800
G0 Z3.5 F500
G0 X108.998 Y89.674 Z3.5 
G1 Z0 F500
G1 X109.754 Y90.331 Z0 F800
G1 X110.077 Y90.63 Z0 F800
G1 X108.735 Y89.848 Z0 F800
G1 X108.78 Y89.497 Z0 F800
G1 X108.998 Y89.674 Z0 F800
G0 Z3.5 F500
G0 X112.49 Y91.914 Z3.5 
G1 Z0 F500
G1 X113.174 Y92.685 Z0 F800
G1 X113.826 Y93.47 Z0 F800
G1 X114.614 Y94.481 Z0 F800
G1 X113.896 Y93.962 Z0 F800
G1 X113.023 Y93.364 Z0 F800
G1 X112.13 Y92.784 Z0 F800
G1 X111.217 Y92.221 Z0 F800
G1 X107.875 Y90.272 Z0 F800
G1 X108.167 Y87.968 Z0 F800
G1 X109.509 Y89.059 Z0 F800
G1 X110.288 Y89.735 Z0 F800
G1 X111.056 Y90.448 Z0 F800
G1 X111.78 Y91.164 Z0 F800
G1 X112.49 Y91.914 Z0 F800
G0 Z3.5 F500
G0 X108.879 Y82.35 Z3.5 
G1 Z0 F500
G1 X109.7 Y75.877 Z0 F800
G1 X110.206 Y77.697 Z0 F800
G1 X109.786 Y79.174 Z0 F800
G1 X108.879 Y82.35 Z0 F800
G0 Z3.5 F500
G0 X108.356 Y87.092 Z3.5 
G1 Z0 F500
G1 X110.019 Y88.442 Z0 F800
G1 X110.829 Y89.146 Z0 F800
G1 X111.605 Y89.866 Z0 F800
G1 X112.358 Y90.61 Z0 F800
G1 X113.075 Y91.368 Z0 F800
G1 X113.777 Y92.159 Z0 F800
G1 X114.457 Y92.977 Z0 F800
G1 X115.854 Y94.772 Z0 F800
G1 X117.142 Y94.256 Z0 F800
G1 X116.805 Y94.586 Z0 F800
G1 X116.372 Y95.034 Z0 F800
G1 X115.911 Y95.532 Z0 F800
G1 X115.423 Y96.082 Z0 F800
G1 X115.408 Y96.099 Z0 F800
G1 X115.086 Y95.841 Z0 F800
G1 X114.271 Y95.221 Z0 F800
G1 X113.435 Y94.617 Z0 F800
G1 X112.579 Y94.029 Z0 F800
G1 X111.703 Y93.459 Z0 F800
G1 X110.806 Y92.907 Z0 F800
G1 X107.265 Y90.843 Z0 F800
G1 X107.421 Y92.827 Z0 F800
G1 X106.904 Y91.564 Z0 F800
G1 X109.398 Y71.895 Z0 F800
G1 X110.244 Y74.846 Z0 F800
G1 X111.037 Y77.699 Z0 F800
G1 X110.555 Y79.394 Z0 F800
G1 X108.356 Y87.092 Z0 F800
G0 Z3.5 F500
G0 X116.7 Y75.363 Z3.5 
G1 Z0 F500
G1 X116.653 Y74.496 Z0 F800
G1 X116.561 Y72.677 Z0 F800
G1 X116.472 Y70.854 Z0 F800
G1 X116.601 Y71.215 Z0 F800
G1 X116.793 Y71.852 Z0 F800
G1 X116.959 Y72.514 Z0 F800
G1 X117.104 Y73.224 Z0 F800
G1 X117.222 Y73.969 Z0 F800
G1 X117.307 Y74.707 Z0 F800
G1 X117.148 Y74.87 Z0 F800
G1 X116.937 Y75.098 Z0 F800
G1 X116.7 Y75.363 Z0 F800
G0 Z3.5 F500
G0 X115.95 Y76.328 Z3.5 
G1 Z0 F500
G1 X115.854 Y74.535 Z0 F800
G1 X115.762 Y72.718 Z0 F800
G1 X115.581 Y69.01 Z0 F800
G1 X115.505 Y67.385 Z0 F800
G1 X115.64 Y67.56 Z0 F800
G1 X115.982 Y68.055 Z0 F800
G1 X116.305 Y68.581 Z0 F800
G1 X116.6 Y69.125 Z0 F800
G1 X116.88 Y69.714 Z0 F800
G1 X117.132 Y70.323 Z0 F800
G1 X117.361 Y70.969 Z0 F800
G1 X117.564 Y71.639 Z0 F800
G1 X117.742 Y72.348 Z0 F800
G1 X117.892 Y73.081 Z0 F800
G1 X118.013 Y73.845 Z0 F800
G1 X118.107 Y74.664 Z0 F800
G1 X118.135 Y75.026 Z0 F800
G1 X118.083 Y75.069 Z0 F800
G1 X117.911 Y75.233 Z0 F800
G1 X117.728 Y75.421 Z0 F800
G1 X117.528 Y75.636 Z0 F800
G1 X117.104 Y76.111 Z0 F800
G1 X117.17 Y78.941 Z0 F800
G1 X117.247 Y81.401 Z0 F800
G1 X117.343 Y83.802 Z0 F800
G1 X117.459 Y86.143 Z0 F800
G1 X117.597 Y88.422 Z0 F800
G1 X117.757 Y90.639 Z0 F800
G1 X117.94 Y92.793 Z0 F800
G1 X118.105 Y94.455 Z0 F800
G1 X117.761 Y94.77 Z0 F800
G1 X117.372 Y95.15 Z0 F800
G1 X116.953 Y95.583 Z0 F800
G1 X116.504 Y96.069 Z0 F800
G1 X116.026 Y96.607 Z0 F800
G1 X115.521 Y97.196 Z0 F800
G1 X115.509 Y97.211 Z0 F800
G1 X115.373 Y97.097 Z0 F800
G1 X114.594 Y96.472 Z0 F800
G1 X113.794 Y95.863 Z0 F800
G1 X112.974 Y95.271 Z0 F800
G1 X112.134 Y94.694 Z0 F800
G1 X111.274 Y94.136 Z0 F800
G1 X110.395 Y93.594 Z0 F800
G1 X108.183 Y92.304 Z0 F800
G1 X108.482 Y96.091 Z0 F800
G1 X108.62 Y97.782 Z0 F800
G1 X108.308 Y97.05 Z0 F800
G1 X107.164 Y94.309 Z0 F800
G1 X106.084 Y91.672 Z0 F800
G1 X109.084 Y68.011 Z0 F800
G1 X110.058 Y71.291 Z0 F800
G1 X111.015 Y74.632 Z0 F800
G1 X111.868 Y77.703 Z0 F800
G1 X111.325 Y79.613 Z0 F800
G1 X109.271 Y86.804 Z0 F800
G1 X110.545 Y87.839 Z0 F800
G1 X111.353 Y88.54 Z0 F800
G1 X112.162 Y89.292 Z0 F800
G1 X112.918 Y90.039 Z0 F800
G1 X113.674 Y90.837 Z0 F800
G1 X114.381 Y91.635 Z0 F800
G1 X115.083 Y92.479 Z0 F800
G1 X116.115 Y93.806 Z0 F800
G1 X117.233 Y93.357 Z0 F800
G1 X117.018 Y91.24 Z0 F800
G1 X116.873 Y89.698 Z0 F800
G1 X116.736 Y88.125 Z0 F800
G1 X116.607 Y86.524 Z0 F800
G1 X116.484 Y84.894 Z0 F800
G1 X116.367 Y83.238 Z0 F800
G1 X116.256 Y81.548 Z0 F800
G1 X116.149 Y79.837 Z0 F800
G1 X116.048 Y78.094 Z0 F800
G1 X115.95 Y76.328 Z0 F800
G0 Z3.5 F500
G0 X114.963 Y72.758 Z3.5 
G1 Z0 F500
G1 X114.782 Y69.047 Z0 F800
G1 X114.604 Y65.243 Z0 F800
G1 X115.056 Y65.663 Z0 F800
G1 X115.487 Y66.11 Z0 F800
G1 X115.898 Y66.585 Z0 F800
G1 X116.287 Y67.088 Z0 F800
G1 X116.653 Y67.619 Z0 F800
G1 X116.997 Y68.179 Z0 F800
G1 X117.316 Y68.768 Z0 F800
G1 X117.61 Y69.387 Z0 F800
G1 X117.879 Y70.036 Z0 F800
G1 X118.121 Y70.715 Z0 F800
G1 X118.335 Y71.425 Z0 F800
G1 X118.521 Y72.167 Z0 F800
G1 X118.679 Y72.94 Z0 F800
G1 X118.807 Y73.746 Z0 F800
G1 X118.904 Y74.584 Z0 F800
G1 X118.969 Y75.456 Z0 F800
G1 X118.917 Z0 F800
G1 X118.841 Y75.489 Z0 F800
G1 X118.742 Y75.56 Z0 F800
G1 X118.619 Y75.664 Z0 F800
G1 X118.474 Y75.802 Z0 F800
G1 X118.307 Y75.973 Z0 F800
G1 X118.119 Y76.175 Z0 F800
G1 X117.911 Y76.408 Z0 F800
G1 X117.97 Y78.919 Z0 F800
G1 X118.046 Y81.373 Z0 F800
G1 X118.142 Y83.766 Z0 F800
G1 X118.258 Y86.099 Z0 F800
G1 X118.396 Y88.37 Z0 F800
G1 X118.555 Y90.577 Z0 F800
G1 X118.737 Y92.72 Z0 F800
G1 X118.943 Y94.797 Z0 F800
G1 X118.646 Y95.045 Z0 F800
G1 X118.311 Y95.351 Z0 F800
G1 X117.939 Y95.714 Z0 F800
G1 X117.534 Y96.133 Z0 F800
G1 X117.097 Y96.606 Z0 F800
G1 X116.629 Y97.133 Z0 F800
G1 X116.132 Y97.712 Z0 F800
G1 X115.609 Y98.342 Z0 F800
G1 X114.865 Y97.715 Z0 F800
G1 X114.101 Y97.103 Z0 F800
G1 X113.317 Y96.506 Z0 F800
G1 X112.514 Y95.925 Z0 F800
G1 X111.69 Y95.36 Z0 F800
G1 X110.847 Y94.812 Z0 F800
G1 X109.983 Y94.28 Z0 F800
G1 X109.101 Y93.765 Z0 F800
G1 X109.279 Y96.027 Z0 F800
G1 X109.461 Y98.247 Z0 F800
G1 X109.647 Y100.421 Z0 F800
G1 X109.841 Y102.549 Z0 F800
G1 X109.276 Y101.294 Z0 F800
G1 X108.709 Y100.011 Z0 F800
G1 X108.142 Y98.7 Z0 F800
G1 X107.572 Y97.363 Z0 F800
G1 X106.426 Y94.617 Z0 F800
G1 X105.264 Y91.781 Z0 F800
G1 X108.756 Y64.237 Z0 F800
G1 X109.819 Y67.674 Z0 F800
G1 X110.827 Y71.07 Z0 F800
G1 X111.785 Y74.417 Z0 F800
G1 X112.699 Y77.705 Z0 F800
G1 X112.094 Y79.833 Z0 F800
G1 X110.185 Y86.516 Z0 F800
G1 X111.055 Y87.222 Z0 F800
G1 X111.897 Y87.954 Z0 F800
G1 X112.711 Y88.709 Z0 F800
G1 X113.499 Y89.489 Z0 F800
G1 X114.259 Y90.292 Z0 F800
G1 X114.992 Y91.118 Z0 F800
G1 X115.698 Y91.967 Z0 F800
G1 X116.376 Y92.839 Z0 F800
G1 X116.222 Y91.321 Z0 F800
G1 X116.077 Y89.772 Z0 F800
G1 X115.939 Y88.195 Z0 F800
G1 X115.81 Y86.589 Z0 F800
G1 X115.686 Y84.954 Z0 F800
G1 X115.569 Y83.291 Z0 F800
G1 X115.458 Y81.601 Z0 F800
G1 X115.351 Y79.884 Z0 F800
G1 X115.249 Y78.141 Z0 F800
G1 X115.151 Y76.372 Z0 F800
G1 X115.056 Y74.578 Z0 F800
G1 X114.963 Y72.758 Z0 F800
G0 Z3.5 F500
G0 X96.389 Y100.645 Z3.5 
G1 Z0 F500
G1 X95.892 Y101.025 Z0 F800
G1 X95.99 Y100.436 Z0 F800
G1 X96.839 Y100.317 Z0 F800
G1 X96.389 Y100.645 Z0 F800
G0 Z3.5 F500
G0 X99.098 Y93.514 Z3.5 
G1 Z0 F500
G1 X99.156 Y93.48 Z0 F800
G1 X99.442 Y93.323 Z0 F800
G1 X99.423 Y93.637 Z0 F800
G1 X99.098 Y93.514 Z0 F800
G0 Z3.5 F500
G0 X97.338 Y93.622 Z3.5 
G1 Z0 F500
G1 X98.76 Y92.784 Z0 F800
G1 X100.167 Y92.013 Z0 F800
G1 X100.331 Y91.931 Z0 F800
G1 X99.915 Y98.593 Z0 F800
G1 X99.424 Y106.352 Z0 F800
G1 X98.696 Y107.568 Z0 F800
G1 X99.288 Y105.839 Z0 F800
G1 X99.433 Y99.414 Z0 F800
G1 X96.868 Y101.286 Z0 F800
G1 X95.607 Y102.25 Z0 F800
G1 X94.764 Y102.922 Z0 F800
G1 X95.297 Y99.725 Z0 F800
G1 X97.222 Y99.456 Z0 F800
G1 X98.923 Y99.243 Z0 F800
G1 X99.462 Y94.506 Z0 F800
G1 X98.295 Y94.067 Z0 F800
G1 X96.65 Y96.435 Z0 F800
G1 X95.586 Y98.008 Z0 F800
G1 X96.204 Y94.332 Z0 F800
G1 X97.338 Y93.622 Z0 F800
G0 Z3.5 F500
G0 X98.597 Y95.035 Z3.5 
G1 Z0 F500
G1 X97.31 Y96.887 Z0 F800
G1 X96.003 Y98.818 Z0 F800
G1 X97.111 Y98.663 Z0 F800
G1 X98.2 Y98.527 Z0 F800
G1 X98.597 Y95.035 Z0 F800
G0 Z3.5 F500
G0 X98.365 Y92.088 Z3.5 
G1 Z0 F500
G1 X99.798 Y91.303 Z0 F800
G1 X101.216 Y90.59 Z0 F800
G1 X100.713 Y98.643 Z0 F800
G1 X100.21 Y106.597 Z0 F800
G1 X99.016 Y108.592 Z0 F800
G1 X97.816 Y110.646 Z0 F800
G1 X96.616 Y112.759 Z0 F800
G1 X95.421 Y114.932 Z0 F800
G1 X96.18 Y112.581 Z0 F800
G1 X96.946 Y110.255 Z0 F800
G1 X97.717 Y107.959 Z0 F800
G1 X98.491 Y105.698 Z0 F800
G1 X98.597 Y101.015 Z0 F800
G1 X97.347 Y101.927 Z0 F800
G1 X96.1 Y102.88 Z0 F800
G1 X94.857 Y103.872 Z0 F800
G1 X93.623 Y104.904 Z0 F800
G1 X94.548 Y99.354 Z0 F800
G1 X95.475 Y93.844 Z0 F800
G1 X96.922 Y92.938 Z0 F800
G1 X98.365 Y92.088 Z0 F800
G0 Z3.5 F500
G0 X59.75 Y94.243 Z3.5 
G1 Z0 F500
G1 X62.229 Y95.134 Z0 F800
G1 X61.898 Y96.074 Z0 F800
G1 X60.942 Y95.397 Z0 F800
G1 X59.403 Y94.358 Z0 F800
G1 X58.657 Y93.881 Z0 F800
G1 X59.75 Y94.243 Z0 F800
G0 Z3.5 F500
G0 X63.247 Y94.65 Z3.5 
G1 Z0 F500
G1 X62.377 Y97.122 Z0 F800
G1 X62.301 Y97.349 Z0 F800
G1 X62.002 Y97.128 Z0 F800
G1 X60.487 Y96.055 Z0 F800
G1 X58.964 Y95.027 Z0 F800
G1 X57.435 Y94.048 Z0 F800
G1 X55.9 Y93.12 Z0 F800
G1 X54.362 Y92.25 Z0 F800
G1 X52.993 Y91.528 Z0 F800
G1 X53.431 Y91.615 Z0 F800
G1 X55.048 Y91.995 Z0 F800
G1 X56.692 Y92.437 Z0 F800
G1 X58.335 Y92.931 Z0 F800
G1 X60.002 Y93.483 Z0 F800
G1 X63.247 Y94.65 Z0 F800
G0 Z3.5 F500
G0 X64.224 Y94.282 Z3.5 
G1 Z0 F500
G1 X63.134 Y97.382 Z0 F800
G1 X62.709 Y98.647 Z0 F800
G1 X61.533 Y97.776 Z0 F800
G1 X60.033 Y96.713 Z0 F800
G1 X58.524 Y95.696 Z0 F800
G1 X57.012 Y94.728 Z0 F800
G1 X55.496 Y93.811 Z0 F800
G1 X53.978 Y92.951 Z0 F800
G1 X50.626 Y91.184 Z0 F800
G1 X50.566 Y91.455 Z0 F800
G1 Y90.284 Z0 F800
G1 X51.982 Y90.511 Z0 F800
G1 X53.6 Y90.833 Z0 F800
G1 X55.252 Y91.221 Z0 F800
G1 X56.896 Y91.663 Z0 F800
G1 X58.574 Y92.167 Z0 F800
G1 X60.254 Y92.724 Z0 F800
G1 X64.215 Y94.148 Z0 F800
G1 X64.224 Y94.282 Z0 F800
G0 Z3.5 F500
G0 X66.428 Y61.492 Z3.5 
G1 Z0 F500
G1 X64.997 Y60.048 Z0 F800
G1 X65.566 Y60.238 Z0 F800
G1 X66.719 Y60.654 Z0 F800
G1 X66.636 Y60.889 Z0 F800
G1 X66.428 Y61.492 Z0 F800
G0 Z3.5 F500
G0 X66.751 Y62.954 Z3.5 
G1 Z0 F500
G1 X62.188 Y58.351 Z0 F800
G1 X63.982 Y58.885 Z0 F800
G1 X64.896 Y59.171 Z0 F800
G1 X65.819 Y59.479 Z0 F800
G1 X67.741 Y60.172 Z0 F800
G1 X67.391 Y61.154 Z0 F800
G1 X66.764 Y62.968 Z0 F800
G1 X66.751 Y62.954 Z0 F800
G0 Z3.5 F500
G0 X61.038 Y56.053 Z3.5 
G1 Z0 F500
G1 X60.933 Y55.948 Z0 F800
G1 X61.25 Y60.757 Z0 F800
G1 X60.509 Y54.941 Z0 F800
G1 X60.965 Y54.468 Z0 F800
G1 X61.038 Y56.053 Z0 F800
G0 Z3.5 F500
G0 X61.873 Y58.032 Z3.5 
G1 Z0 F500
G1 X63.219 Y78.438 Z0 F800
G1 X64.006 Y90.845 Z0 F800
G1 X63.025 Y82.132 Z0 F800
G1 X61.914 Y72.659 Z0 F800
G1 X60.762 Y63.247 Z0 F800
G1 X59.667 Y54.663 Z0 F800
G1 X60.956 Y53.325 Z0 F800
G1 X61.681 Y52.613 Z0 F800
G1 X61.932 Y58.091 Z0 F800
G1 X61.873 Y58.032 Z0 F800
G0 Z3.5 F500
G0 X64.362 Y51.154 Z3.5 
G1 Z0 F500
G1 X64.807 Y50.741 Z0 F800
G1 X65.734 Y52.695 Z0 F800
G1 X64.362 Y51.154 Z0 F800
G0 Z3.5 F500
G0 X63.244 Y51.101 Z3.5 
G1 Z0 F500
G1 X64.685 Y49.763 Z0 F800
G1 X65.061 Y49.433 Z0 F800
G1 X65.391 Y50.104 Z0 F800
G1 X66.628 Y52.712 Z0 F800
G1 X67.823 Y55.322 Z0 F800
G1 X68.746 Y57.412 Z0 F800
G1 X68.708 Y57.514 Z0 F800
G1 X67.56 Y56.082 Z0 F800
G1 X66.557 Y54.867 Z0 F800
G1 X65.54 Y53.679 Z0 F800
G1 X63.244 Y51.101 Z0 F800
G0 Z3.5 F500
G0 X63.328 Y53.601 Z3.5 
G1 Z0 F500
G1 X63.486 Y57.067 Z0 F800
G1 X64.439 Y57.351 Z0 F800
G1 X65.391 Y57.649 Z0 F800
G1 X66.344 Y57.968 Z0 F800
G1 X67.296 Y58.311 Z0 F800
G1 X66.319 Y57.091 Z0 F800
G1 X65.332 Y55.896 Z0 F800
G1 X64.334 Y54.731 Z0 F800
G1 X63.328 Y53.601 Z0 F800
G0 Z3.5 F500
G0 X62.425 Y51.385 Z3.5 
G1 Z0 F500
G1 X62.713 Y57.672 Z0 F800
G1 X64.21 Y58.118 Z0 F800
G1 X65.138 Y58.408 Z0 F800
G1 X66.09 Y58.727 Z0 F800
G1 X67.595 Y59.269 Z0 F800
G1 X68.299 Y58.283 Z0 F800
G1 X66.939 Y56.586 Z0 F800
G1 X65.944 Y55.381 Z0 F800
G1 X64.937 Y54.205 Z0 F800
G1 X62.425 Y51.385 Z0 F800
G0 Z3.5 F500
G0 X62.251 Y50.931 Z3.5 
G1 Z0 F500
G1 X64.145 Y49.173 Z0 F800
G1 X65.319 Y48.144 Z0 F800
G1 X66.114 Y49.761 Z0 F800
G1 X67.346 Y52.36 Z0 F800
G1 X68.554 Y54.999 Z0 F800
G1 X69.608 Y57.385 Z0 F800
G1 X68.92 Y59.249 Z0 F800
G1 X68.146 Y61.419 Z0 F800
G1 X67.396 Y63.589 Z0 F800
G1 X67.095 Y64.488 Z0 F800
G1 X66.175 Y63.51 Z0 F800
G1 X62.812 Y60.116 Z0 F800
G1 X64.018 Y78.384 Z0 F800
G1 X65.033 Y94.394 Z0 F800
G1 X63.891 Y97.642 Z0 F800
G1 X63.112 Y99.959 Z0 F800
G1 X62.541 Y99.518 Z0 F800
G1 X61.063 Y98.424 Z0 F800
G1 X59.578 Y97.371 Z0 F800
G1 X58.085 Y96.364 Z0 F800
G1 X56.589 Y95.407 Z0 F800
G1 X55.092 Y94.501 Z0 F800
G1 X53.594 Y93.653 Z0 F800
G1 X51.183 Y92.382 Z0 F800
G1 X50.256 Y96.604 Z0 F800
G1 X49.799 Y98.707 Z0 F800
G1 X49.79 Y97.303 Z0 F800
G1 X49.769 Y92.92 Z0 F800
G1 X49.762 Y89.375 Z0 F800
G1 X50.488 Y89.461 Z0 F800
G1 X52.12 Y89.723 Z0 F800
G1 X53.771 Y90.051 Z0 F800
G1 X55.445 Y90.445 Z0 F800
G1 X57.117 Y90.894 Z0 F800
G1 X58.824 Y91.408 Z0 F800
G1 X60.511 Y91.966 Z0 F800
G1 X63.446 Y93.021 Z0 F800
G1 X62.231 Y82.223 Z0 F800
G1 X61.119 Y72.754 Z0 F800
G1 X59.968 Y63.346 Z0 F800
G1 X58.825 Y54.383 Z0 F800
G1 X60.384 Y52.765 Z0 F800
G1 X62.251 Y50.931 Z0 F800
G0 Z3.5 F500
G0 X65.577 Y46.854 Z3.5 
G1 Z0 F500
G1 X66.836 Y49.418 Z0 F800
G1 X68.074 Y52.027 Z0 F800
G1 X69.286 Y54.675 Z0 F800
G1 X70.471 Y57.358 Z0 F800
G1 X69.672 Y59.521 Z0 F800
G1 X68.9 Y61.684 Z0 F800
G1 X68.153 Y63.847 Z0 F800
G1 X67.429 Y66.01 Z0 F800
G1 X65.6 Y64.065 Z0 F800
G1 X63.751 Y62.2 Z0 F800
G1 X64.816 Y78.333 Z0 F800
G1 X65.841 Y94.506 Z0 F800
G1 X64.647 Y97.902 Z0 F800
G1 X63.513 Y101.279 Z0 F800
G1 X62.059 Y100.156 Z0 F800
G1 X60.594 Y99.072 Z0 F800
G1 X59.123 Y98.029 Z0 F800
G1 X57.646 Y97.033 Z0 F800
G1 X56.167 Y96.086 Z0 F800
G1 X54.688 Y95.192 Z0 F800
G1 X53.21 Y94.355 Z0 F800
G1 X51.739 Y93.58 Z0 F800
G1 X51.038 Y96.775 Z0 F800
G1 X50.36 Y99.89 Z0 F800
G1 X49.696 Y102.926 Z0 F800
G1 X49.04 Y105.883 Z0 F800
G1 X49.017 Y101.626 Z0 F800
G1 X48.99 Y97.307 Z0 F800
G1 X48.969 Y92.924 Z0 F800
G1 X48.961 Y88.473 Z0 F800
G1 X50.6 Y88.669 Z0 F800
G1 X52.261 Y88.935 Z0 F800
G1 X53.94 Y89.269 Z0 F800
G1 X55.635 Y89.667 Z0 F800
G1 X57.342 Y90.126 Z0 F800
G1 X59.059 Y90.643 Z0 F800
G1 X60.781 Y91.213 Z0 F800
G1 X62.507 Y91.833 Z0 F800
G1 X61.436 Y82.314 Z0 F800
G1 X60.325 Y72.85 Z0 F800
G1 X59.174 Y63.445 Z0 F800
G1 X57.983 Y54.104 Z0 F800
G1 X59.813 Y52.205 Z0 F800
G1 X61.69 Y50.36 Z0 F800
G1 X63.612 Y48.575 Z0 F800
G1 X65.577 Y46.854 Z0 F800
M9
M5
G1 Z10 F500
G90
G1 Z10 F800
