;LightBurn 1.6.04
;Custom GCode device profile, absolute coords
;Bounds: X48 Y46 to X68 Y66

;USER START SCRIPT
G1 Z10 F1000

;USER START SCRIPT
G00 G17 G40 G21 G54
G90
G1 Z10 F1000
;Cut @ 1200 mm/min, 90% power

M8
G0 Z3.5F1000
G0 X48Y46Z3.5
G1 Z0F1000
;Layer Blue
G1 Y66Z0S900F1800
G1 X68Z0F1800
G1 Y46Z0F1800
G1 X48Z0F1800
M9
G1 Z10 F1000
G90

;USER END SCRIPT
G1 X100 Y 100 Z10 F1000

;USER END SCRIPT
G1 Z10 F800
