;LightBurn 1.6.04
;Custom GCode device profile, absolute coords
;Bounds: X8.49 Y83.71 to X61.51 Y132.29
G00 G17 G40 G21 G54
G90
G1 Z10 F1000
;Cut @ 1200 mm/min, 90% power

M8
G0 Z1.8F1000
G0 X10.185Y83.711Z1.8
G1 Z0F1000
;Layer Green
G1 X9.842Y83.746Z0S900F1800
G1 X9.524Y83.844Z0F1800
G1 X9.236Y84.001Z0F1800
G1 X8.984Y84.208Z0F1800
G1 X8.777Y84.459Z0F1800
G1 X8.621Y84.748Z0F1800
G1 X8.522Y85.066Z0F1800
G1 X8.487Y85.408Z0F1800
G1 X8.522Y85.75Z0F1800
G1 X8.621Y86.069Z0F1800
G1 X8.777Y86.357Z0F1800
G1 X8.984Y86.608Z0F1800
G1 X9.236Y86.815Z0F1800
G1 X9.524Y86.972Z0F1800
G1 X9.842Y87.071Z0F1800
G1 X10.185Y87.105Z0F1800
G1 X10.527Y87.071Z0F1800
G1 X10.845Y86.972Z0F1800
G1 X11.133Y86.815Z0F1800
G1 X11.385Y86.608Z0F1800
G1 X11.592Y86.357Z0F1800
G1 X11.748Y86.069Z0F1800
G1 X11.847Y85.75Z0F1800
G1 X11.882Y85.408Z0F1800
G1 X11.847Y85.066Z0F1800
G1 X11.748Y84.748Z0F1800
G1 X11.592Y84.459Z0F1800
G1 X11.385Y84.208Z0F1800
G1 X11.133Y84.001Z0F1800
G1 X10.845Y83.844Z0F1800
G1 X10.527Y83.746Z0F1800
G1 X10.185Y83.711Z0F1800
G0 Z1.8F1000
G0 X16.3Y121.926Z1.8F1200
G1 Z0F1000
G1 X15.958Y121.961Z0F1800
G1 X15.639Y122.06Z0F1800
G1 X15.351Y122.216Z0F1800
G1 X15.1Y122.423Z0F1800
G1 X14.893Y122.674Z0F1800
G1 X14.736Y122.963Z0F1800
G1 X14.637Y123.281Z0F1800
G1 X14.603Y123.623Z0F1800
G1 X14.637Y123.965Z0F1800
G1 X14.736Y124.284Z0F1800
G1 X14.893Y124.572Z0F1800
G1 X15.1Y124.823Z0F1800
G1 X15.351Y125.031Z0F1800
G1 X15.639Y125.187Z0F1800
G1 X15.958Y125.286Z0F1800
G1 X16.3Y125.32Z0F1800
G1 X16.642Y125.286Z0F1800
G1 X16.96Y125.187Z0F1800
G1 X17.249Y125.031Z0F1800
G1 X17.5Y124.823Z0F1800
G1 X17.707Y124.572Z0F1800
G1 X17.864Y124.284Z0F1800
G1 X17.963Y123.965Z0F1800
G1 X17.997Y123.623Z0F1800
G1 X17.963Y123.281Z0F1800
G1 X17.864Y122.963Z0F1800
G1 X17.707Y122.674Z0F1800
G1 X17.5Y122.423Z0F1800
G1 X17.249Y122.216Z0F1800
G1 X16.96Y122.06Z0F1800
G1 X16.642Y121.961Z0F1800
G1 X16.3Y121.926Z0F1800
G0 Z1.8F1000
G0 X22.743Y123.468Z1.8
G1 Z0F1000
G1 X22.659Y123.697Z0F1800
G1 X22.597Y123.937Z0F1800
G1 X22.559Y124.185Z0F1800
G1 X22.546Y124.44Z0F1800
G1 X22.559Y124.696Z0F1800
G1 X22.597Y124.944Z0F1800
G1 X22.659Y125.183Z0F1800
G1 X22.743Y125.413Z0F1800
G1 X22.973Y125.837Z0F1800
G1 X23.278Y126.207Z0F1800
G1 X23.648Y126.512Z0F1800
G1 X24.072Y126.742Z0F1800
G1 X24.302Y126.826Z0F1800
G1 X24.541Y126.888Z0F1800
G1 X24.789Y126.926Z0F1800
G1 X25.045Y126.939Z0F1800
G1 X25.3Y126.926Z0F1800
G1 X25.548Y126.888Z0F1800
G1 X25.788Y126.826Z0F1800
G1 X26.017Y126.742Z0F1800
G1 X26.442Y126.512Z0F1800
G1 X26.811Y126.207Z0F1800
G1 X27.116Y125.837Z0F1800
G1 X27.347Y125.413Z0F1800
G1 X27.431Y125.183Z0F1800
G1 X27.492Y124.944Z0F1800
G1 X27.53Y124.696Z0F1800
G1 X27.543Y124.44Z0F1800
G1 X27.53Y124.185Z0F1800
G1 X27.492Y123.937Z0F1800
G1 X27.431Y123.697Z0F1800
G1 X27.347Y123.468Z0F1800
G1 X27.116Y123.043Z0F1800
G1 X26.811Y122.674Z0F1800
G1 X26.442Y122.368Z0F1800
G1 X26.017Y122.138Z0F1800
G1 X25.788Y122.054Z0F1800
G1 X25.548Y121.993Z0F1800
G1 X25.3Y121.955Z0F1800
G1 X25.045Y121.942Z0F1800
G1 X24.789Y121.955Z0F1800
G1 X24.541Y121.993Z0F1800
G1 X24.302Y122.054Z0F1800
G1 X24.072Y122.138Z0F1800
G1 X23.648Y122.368Z0F1800
G1 X23.278Y122.674Z0F1800
G1 X22.973Y123.043Z0F1800
G1 X22.743Y123.468Z0F1800
G0 Z1.8F1000
G0 X33.778Y124.672Z1.8
G1 Z0F1000
G1 X33.688Y125.02Z0F1800
G1 X33.633Y125.38Z0F1800
G1 X33.615Y125.751Z0F1800
G1 X33.633Y126.123Z0F1800
G1 X33.688Y126.483Z0F1800
G1 X33.778Y126.831Z0F1800
G1 X33.9Y127.164Z0F1800
G1 X34.053Y127.481Z0F1800
G1 X34.234Y127.781Z0F1800
G1 X34.443Y128.06Z0F1800
G1 X34.678Y128.318Z0F1800
G1 X34.935Y128.552Z0F1800
G1 X35.215Y128.761Z0F1800
G1 X35.514Y128.943Z0F1800
G1 X35.831Y129.096Z0F1800
G1 X36.165Y129.218Z0F1800
G1 X36.513Y129.307Z0F1800
G1 X36.873Y129.362Z0F1800
G1 X37.244Y129.381Z0F1800
G1 X37.615Y129.362Z0F1800
G1 X37.975Y129.307Z0F1800
G1 X38.323Y129.218Z0F1800
G1 X38.657Y129.096Z0F1800
G1 X38.974Y128.943Z0F1800
G1 X39.273Y128.761Z0F1800
G1 X39.553Y128.552Z0F1800
G1 X39.81Y128.318Z0F1800
G1 X40.045Y128.06Z0F1800
G1 X40.254Y127.781Z0F1800
G1 X40.435Y127.481Z0F1800
G1 X40.588Y127.164Z0F1800
G1 X40.71Y126.831Z0F1800
G1 X40.8Y126.483Z0F1800
G1 X40.855Y126.123Z0F1800
G1 X40.873Y125.751Z0F1800
G1 X40.855Y125.38Z0F1800
G1 X40.8Y125.02Z0F1800
G1 X40.71Y124.672Z0F1800
G1 X40.588Y124.339Z0F1800
G1 X40.435Y124.021Z0F1800
G1 X40.254Y123.722Z0F1800
G1 X40.045Y123.443Z0F1800
G1 X39.81Y123.185Z0F1800
G1 X39.553Y122.951Z0F1800
G1 X39.273Y122.742Z0F1800
G1 X38.974Y122.56Z0F1800
G1 X38.657Y122.407Z0F1800
G1 X38.323Y122.285Z0F1800
G1 X37.975Y122.196Z0F1800
G1 X37.615Y122.141Z0F1800
G1 X37.244Y122.122Z0F1800
G1 X36.873Y122.141Z0F1800
G1 X36.513Y122.196Z0F1800
G1 X36.165Y122.285Z0F1800
G1 X35.831Y122.407Z0F1800
G1 X35.514Y122.56Z0F1800
G1 X35.215Y122.742Z0F1800
G1 X34.935Y122.951Z0F1800
G1 X34.678Y123.185Z0F1800
G1 X34.443Y123.443Z0F1800
G1 X34.234Y123.722Z0F1800
G1 X34.053Y124.021Z0F1800
G1 X33.9Y124.339Z0F1800
G1 X33.778Y124.672Z0F1800
G0 Z1.8F1000
G0 X46.421Y126.181Z1.8
G1 Z0F1000
G1 X46.344Y126.686Z0F1800
G1 X46.317Y127.206Z0F1800
G1 X46.344Y127.725Z0F1800
G1 X46.421Y128.23Z0F1800
G1 X46.546Y128.717Z0F1800
G1 X46.717Y129.184Z0F1800
G1 X46.931Y129.629Z0F1800
G1 X47.186Y130.048Z0F1800
G1 X47.478Y130.439Z0F1800
G1 X47.806Y130.8Z0F1800
G1 X48.167Y131.128Z0F1800
G1 X48.559Y131.421Z0F1800
G1 X48.978Y131.675Z0F1800
G1 X49.422Y131.889Z0F1800
G1 X49.889Y132.06Z0F1800
G1 X50.376Y132.186Z0F1800
G1 X50.881Y132.263Z0F1800
G1 X51.401Y132.289Z0F1800
G1 X51.921Y132.263Z0F1800
G1 X52.425Y132.186Z0F1800
G1 X52.913Y132.06Z0F1800
G1 X53.38Y131.889Z0F1800
G1 X53.824Y131.675Z0F1800
G1 X54.243Y131.421Z0F1800
G1 X54.634Y131.128Z0F1800
G1 X54.995Y130.8Z0F1800
G1 X55.324Y130.439Z0F1800
G1 X55.616Y130.048Z0F1800
G1 X55.871Y129.629Z0F1800
G1 X56.085Y129.184Z0F1800
G1 X56.256Y128.717Z0F1800
G1 X56.381Y128.23Z0F1800
G1 X56.458Y127.725Z0F1800
G1 X56.484Y127.206Z0F1800
G1 X56.458Y126.686Z0F1800
G1 X56.381Y126.181Z0F1800
G1 X56.256Y125.694Z0F1800
G1 X56.085Y125.227Z0F1800
G1 X55.871Y124.782Z0F1800
G1 X55.616Y124.363Z0F1800
G1 X55.324Y123.972Z0F1800
G1 X54.995Y123.611Z0F1800
G1 X54.634Y123.283Z0F1800
G1 X54.243Y122.99Z0F1800
G1 X53.824Y122.736Z0F1800
G1 X53.38Y122.522Z0F1800
G1 X52.913Y122.351Z0F1800
G1 X52.425Y122.225Z0F1800
G1 X51.921Y122.148Z0F1800
G1 X51.401Y122.122Z0F1800
G1 X50.881Y122.148Z0F1800
G1 X50.376Y122.225Z0F1800
G1 X49.889Y122.351Z0F1800
G1 X49.422Y122.522Z0F1800
G1 X48.978Y122.736Z0F1800
G1 X48.559Y122.99Z0F1800
G1 X48.167Y123.283Z0F1800
G1 X47.806Y123.611Z0F1800
G1 X47.478Y123.972Z0F1800
G1 X47.186Y124.363Z0F1800
G1 X46.931Y124.782Z0F1800
G1 X46.717Y125.227Z0F1800
G1 X46.546Y125.694Z0F1800
G1 X46.421Y126.181Z0F1800
;Cut @ 1200 mm/min, 90% power

M8
G0 Z1.8F1000
G0 X44.389Y111.067Z1.8
G1 Z0F1000
;Layer C3
G1 X44.029Y111.8Z0F1800
G1 X43.284Y112.172Z0F1800
G1 X42.563Z0F1800
G1 X41.824Y111.8Z0F1800
G1 X41.458Y111.427Z0F1800
G1 X41.091Y110.706Z0F1800
G1 Y109.968Z0F1800
G1 X41.458Y109.235Z0F1800
G1 X42.191Y108.868Z0F1800
G1 X42.924Z0F1800
G1 X43.657Y109.235Z0F1800
G1 X44.029Y109.968Z0F1800
G1 X44.75Y112.172Z0F1800
G1 X44.389Y110.334Z0F1800
G1 Y109.235Z0F1800
G1 X44.75Y108.868Z0F1800
G1 X45.122Z0F1800
G1 X45.855Y109.235Z0F1800
G1 X46.216Y109.601Z0F1800
G1 X46.96Y110.706Z0F1800
G0 Z1.8F1000
G0 X46.954Z1.8
G1 Z0F1000
G1 X47.687Y111.8Z0F1800
G1 X48.054Y112.533Z0F1800
G1 Y111.8Z0F1800
G1 X48.787Y110.706Z0F1800
G1 X49.147Y109.968Z0F1800
G1 Y109.235Z0F1800
G1 X48.426Y108.868Z0F1800
G0 Z1.8F1000
G0 X46.954Y109.235Z1.8
G1 Z0F1000
G1 X47.687Y108.868Z0F1800
G1 X49.147Z0F1800
G1 X49.892Y109.235Z0F1800
G1 X50.252Y109.601Z0F1800
G1 X50.985Y110.706Z0F1800
G0 Z1.8F1000
G0 X50.979Z1.8
G1 Z0F1000
G1 X51.712Y111.8Z0F1800
G1 X52.812Y113.638Z0F1800
G1 X53.172Y114.359Z0F1800
G1 X53.544Y115.464Z0F1800
G1 Y116.197Z0F1800
G1 X53.172Y116.569Z0F1800
G1 X52.451Y116.197Z0F1800
G1 X52.079Y115.464Z0F1800
G1 X51.712Y113.998Z0F1800
G1 X51.346Y111.8Z0F1800
G1 X50.979Y108.868Z0F1800
G0 Z1.8F1000
G0 Z1.8
G1 Z0F1000
G1 X51.346Y109.968Z0F1800
G1 X51.712Y110.706Z0F1800
G1 X52.451Y111.8Z0F1800
G1 X53.172Y112.172Z0F1800
G1 X53.917Z0F1800
G1 X54.277Y111.8Z0F1800
G1 Y111.067Z0F1800
G1 X53.917Y109.968Z0F1800
G1 Y109.235Z0F1800
G1 X54.277Y108.868Z0F1800
G1 X54.638Z0F1800
G1 X55.382Y109.235Z0F1800
G1 X55.743Y109.601Z0F1800
G1 X56.476Y110.706Z0F1800
G0 Z1.8F1000
G0 X52.661Y102.799Z1.8
G1 Z0F1000
G1 Y102.504Z0F1800
G1 X52.365Z0F1800
G1 Y102.799Z0F1800
G1 X52.661Z0F1800
G0 Z1.8F1000
G0 X52.48Y101.509Z1.8
G1 Z0F1000
G1 Y97.827Z0F1800
G1 X52.502Y97.781Z0F1800
G0 Z1.8F1000
G0 X51.889Y98.032Z1.8
G1 Z0F1000
G1 X50.26Z0F1800
G1 X50.008Y98.304Z0F1800
G1 Y101.343Z0F1800
G1 X51.889Z0F1800
G1 X50.008Z0F1800
G1 Y102.843Z0F1800
G0 Z1.8F1000
G0 X54.138Y101.415Z1.8
G1 Z0F1000
G1 X53.684Y100.918Z0F1800
G1 Y98.395Z0F1800
G1 X54.066Y97.986Z0F1800
G1 X56.704Z0F1800
G1 X57.065Y98.35Z0F1800
G1 Y101.076Z0F1800
G1 X56.748Y101.415Z0F1800
G1 X54.138Z0F1800
G0 Z1.8F1000
G0 X48.963Y99.642Z1.8
G1 Z0F1000
G1 X45.582Z0F1800
G1 Y98.35Z0F1800
G1 X45.942Y97.986Z0F1800
G1 X49.006Z0F1800
G1 Y101.004Z0F1800
G1 X48.624Y101.372Z0F1800
G1 X45.423Z0F1800
G0 Z1.8F1000
G0 X44.515Y100.824Z1.8
G1 Z0F1000
G1 Y101.026Z0F1800
G1 X44.155Y101.394Z0F1800
G1 X41.588Z0F1800
G1 X41.199Y101.026Z0F1800
G1 Y100.01Z0F1800
G1 X41.567Y99.642Z0F1800
G1 X44.22Z0F1800
G1 X44.537Y99.325Z0F1800
G1 Y98.35Z0F1800
G1 X44.198Y97.986Z0F1800
G1 X41.473Z0F1800
G1 X41.156Y98.304Z0F1800
G1 Y98.531Z0F1800
G0 Z1.8F1000
G0 X40.154Y97.759Z1.8
G1 Z0F1000
G1 Y100.961Z0F1800
G1 X39.815Y101.3Z0F1800
G1 X36.73Z0F1800
G1 Y97.781Z0F1800
G0 Z1.8F1000
G0 X35.894Y97.964Z1.8
G1 Z0F1000
G1 X32.664Z0F1800
G1 X32.304Y98.35Z0F1800
G1 Y100.983Z0F1800
G1 X32.693Y101.394Z0F1800
G1 X35.324Z0F1800
G1 X35.706Y101.004Z0F1800
G1 Y99.692Z0F1800
G1 X32.282Z0F1800
G0 Z1.8F1000
G0 X28.145Y98.259Z1.8
G1 Z0F1000
G1 X28.469Y97.941Z0F1800
G1 X31.215Z0F1800
G1 X31.511Y98.236Z0F1800
G1 Y101.026Z0F1800
G1 X31.194Y101.322Z0F1800
G1 X28.101Z0F1800
G1 Y96.189Z0F1800
G0 Z1.8F1000
G0 X27.172Y97.781Z1.8
G1 Z0F1000
G1 Y100.983Z0F1800
G1 X26.811Y101.343Z0F1800
G1 X24.764Z0F1800
G1 X24.447Y101.026Z0F1800
G1 Y97.759Z0F1800
G1 Y101.026Z0F1800
G1 X24.108Y101.343Z0F1800
G1 X21.679Z0F1800
G1 Y97.827Z0F1800
G0 Z1.8F1000
G0 X20.655Y98.35Z1.8
G1 Z0F1000
G1 Y101.076Z0F1800
G1 X20.338Y101.415Z0F1800
G1 X17.728Z0F1800
G1 X17.274Y100.918Z0F1800
G1 Y98.395Z0F1800
G1 X17.656Y97.986Z0F1800
G1 X20.295Z0F1800
G1 X20.655Y98.35Z0F1800
G0 Z1.8F1000
G0 X16.301Y97.986Z1.8
G1 Z0F1000
G1 X13.079Z0F1800
G1 X12.69Y98.395Z0F1800
G1 Y101.004Z0F1800
G1 X13.079Y101.394Z0F1800
G1 X16.301Z0F1800
G0 Z1.8F1000
G0 X18.018Y109.968Z1.8
G1 Z0F1000
G1 X18.378Y109.235Z0F1800
G1 X19.123Y108.868Z0F1800
G1 X20.216Z0F1800
G1 X20.949Y109.235Z0F1800
G1 X21.31Y109.601Z0F1800
G1 X21.682Y110.334Z0F1800
G1 Y111.427Z0F1800
G1 X21.31Y112.172Z0F1800
G1 X20.949Y112.533Z0F1800
G1 X19.844Y112.893Z0F1800
G1 X19.483Z0F1800
G0 Z1.8F1000
G0 X19.844Z1.8
G1 Z0F1000
G1 X20.949Y113.265Z0F1800
G1 X21.682Y113.638Z0F1800
G1 X22.054Y113.998Z0F1800
G1 X22.415Y114.731Z0F1800
G1 Y115.464Z0F1800
G1 X22.054Y116.197Z0F1800
G1 X21.31Y116.569Z0F1800
G1 X20.216Z0F1800
G1 X19.123Y116.197Z0F1800
G1 X18.378Y115.825Z0F1800
G1 X17.657Y115.103Z0F1800
G1 X16.913Y113.998Z0F1800
G1 X16.552Y113.265Z0F1800
G1 X16.191Y112.172Z0F1800
G1 X15.819Y110.334Z0F1800
G1 Y109.235Z0F1800
G1 X16.191Y108.868Z0F1800
G1 X16.552Z0F1800
G1 X17.285Y109.235Z0F1800
G1 X18.018Y109.968Z0F1800
G1 X18.751Y111.067Z0F1800
G1 X19.123Y111.8Z0F1800
G1 X19.483Y112.893Z0F1800
G1 X19.844Y114.359Z0F1800
G1 Y115.464Z0F1800
G1 X19.483Y115.825Z0F1800
G0 Z1.8F1000
G0 X26.44Y111.067Z1.8
G1 Z0F1000
G1 X26.079Y111.8Z0F1800
G1 X25.335Y112.172Z0F1800
G1 X24.614Z0F1800
G1 X23.875Y111.8Z0F1800
G1 X23.508Y111.427Z0F1800
G1 X23.142Y110.706Z0F1800
G1 Y109.968Z0F1800
G1 X23.508Y109.235Z0F1800
G1 X24.241Y108.868Z0F1800
G1 X24.974Z0F1800
G1 X25.707Y109.235Z0F1800
G1 X26.079Y109.968Z0F1800
G1 X26.801Y112.172Z0F1800
G1 X26.44Y110.334Z0F1800
G1 Y109.235Z0F1800
G1 X26.801Y108.868Z0F1800
G1 X27.173Z0F1800
G1 X27.906Y109.235Z0F1800
G1 X28.266Y109.601Z0F1800
G1 X29.011Y110.706Z0F1800
G0 Z1.8F1000
G0 X31.57Y111.427Z1.8
G1 Z0F1000
G1 Y111.8Z0F1800
G1 X31.198Y112.172Z0F1800
G1 X30.477Z0F1800
G1 X29.738Y111.8Z0F1800
G1 X29.371Y111.427Z0F1800
G1 X29.005Y110.706Z0F1800
G1 Y109.968Z0F1800
G1 X29.371Y109.235Z0F1800
G1 X30.104Y108.868Z0F1800
G1 X31.198Z0F1800
G1 X32.303Y109.601Z0F1800
G1 X33.036Y110.706Z0F1800
G0 Z1.8F1000
G0 X33.03Z1.8
G1 Z0F1000
G1 X33.763Y111.8Z0F1800
G1 X34.862Y113.638Z0F1800
G1 X35.223Y114.359Z0F1800
G1 X35.595Y115.464Z0F1800
G1 Y116.197Z0F1800
G1 X35.223Y116.569Z0F1800
G1 X34.501Y116.197Z0F1800
G1 X34.129Y115.464Z0F1800
G1 X33.763Y113.998Z0F1800
G1 X33.396Y111.8Z0F1800
G1 X33.03Y108.868Z0F1800
G0 Z1.8F1000
G0 Z1.8
G1 Z0F1000
G1 X33.396Y109.968Z0F1800
G1 X33.763Y110.706Z0F1800
G1 X34.501Y111.8Z0F1800
G1 X35.223Y112.172Z0F1800
G1 X35.967Z0F1800
G1 X36.328Y111.8Z0F1800
G1 Y111.067Z0F1800
G1 X35.595Y110.706Z0F1800
G1 X34.501Z0F1800
G0 Z1.8F1000
G0 Z1.8
G1 Z0F1000
G1 X35.223Y110.334Z0F1800
G1 X35.595Y109.235Z0F1800
G1 X35.967Y108.868Z0F1800
G1 X36.328Z0F1800
G1 X37.061Y109.235Z0F1800
G1 X37.433Y109.601Z0F1800
G1 X38.154Y110.706Z0F1800
G0 Z1.8F1000
G0 X38.16Z1.8
G1 Z0F1000
G1 X38.893Y111.8Z0F1800
G1 X39.992Y113.638Z0F1800
G1 X40.353Y114.359Z0F1800
G1 X40.725Y115.464Z0F1800
G1 Y116.197Z0F1800
G1 X40.353Y116.569Z0F1800
G1 X39.632Y116.197Z0F1800
G1 X39.259Y115.464Z0F1800
G1 X38.893Y113.998Z0F1800
G1 X38.526Y111.427Z0F1800
G1 Y109.235Z0F1800
G1 X38.893Y108.868Z0F1800
G1 X39.259Z0F1800
G1 X39.992Y109.235Z0F1800
G1 X40.353Y109.601Z0F1800
G1 X41.097Y110.706Z0F1800
G0 Z1.8F1000
G0 X58.089Y97.781Z1.8
G1 Z0F1000
G1 Y101.3Z0F1800
G1 X61.174Z0F1800
G1 X61.513Y100.961Z0F1800
G1 Y97.759Z0F1800
G0 Z1.8F1000
G0 X53.302Y89.325Z1.8
G1 Z0F1000
G1 X52.963Y89.44Z0F1800
G1 X52.646Y89.462Z0F1800
G1 X52.279Y89.397Z0F1800
G1 X51.94Y89.188Z0F1800
G1 X51.644Y88.849Z0F1800
G1 X51.486Y88.532Z0F1800
G1 X51.352Y88.056Z0F1800
G1 Y87.689Z0F1800
G1 X51.396Y87.263Z0F1800
G1 X51.507Y86.874Z0F1800
G1 X51.781Y86.511Z0F1800
G1 X52.098Y86.261Z0F1800
G1 X52.444Y86.125Z0F1800
G1 X52.762Y86.102Z0F1800
G1 X52.783Z0F1800
G1 X53.237Y86.215Z0F1800
G1 X53.67Y86.511Z0F1800
G1 X53.937Y86.968Z0F1800
G1 X54.052Y87.465Z0F1800
G1 X54.074Y87.941Z0F1800
G1 X54.009Y88.373Z0F1800
G1 X53.85Y88.756Z0F1800
G1 X53.619Y89.051Z0F1800
G1 X53.302Y89.325Z0F1800
G0 Z1.8F1000
G0 X49.784Y89.419Z1.8
G1 Z0F1000
G1 Y86.08Z0F1800
G0 Z1.8F1000
G0 X48.624Y86.238Z1.8
G1 Z0F1000
G1 X48.379Y86.125Z0F1800
G1 X48.055Z0F1800
G1 X47.766Y86.215Z0F1800
G1 X47.514Y86.511Z0F1800
G1 X47.471Y87.011Z0F1800
G1 Y89.347Z0F1800
G1 X46.809Z0F1800
G1 X48.559Z0F1800
G1 X47.471Z0F1800
G1 Y90.37Z0F1800
G0 Z1.8F1000
G0 X49.58Y90.442Z1.8
G1 Z0F1000
G1 X49.943Z0F1800
G1 Y90.803Z0F1800
G1 X49.58Z0F1800
G1 Y90.442Z0F1800
G0 Z1.8F1000
G0 X45.604Y88.1Z1.8
G1 Z0F1000
G1 X45.402Z0F1800
G1 X45.149Y88.078Z0F1800
G1 X44.739Y88.013Z0F1800
G1 X44.306Y87.876Z0F1800
G1 X43.946Y87.739Z0F1800
G1 X43.585Y87.444Z0F1800
G1 X43.424Y87.105Z0F1800
G1 Y86.669Z0F1800
G1 X43.628Y86.375Z0F1800
G1 X43.902Y86.193Z0F1800
G1 X44.241Y86.08Z0F1800
G1 X44.652Y86.147Z0F1800
G1 X45.012Y86.306Z0F1800
G1 X45.33Y86.534Z0F1800
G1 X45.625Y86.737Z0F1800
G1 X45.647Y86.125Z0F1800
G1 Y88.258Z0F1800
G1 X45.625Y88.756Z0F1800
G1 X45.445Y89.123Z0F1800
G1 X45.171Y89.368Z0F1800
G1 X44.854Y89.484Z0F1800
G1 X44.443Y89.44Z0F1800
G1 X44.039Y89.325Z0F1800
G1 X43.564Y89.051Z0F1800
G0 Z1.8F1000
G0 X42.064Y89.145Z1.8
G1 Z0F1000
G1 X41.682Y89.368Z0F1800
G1 X41.221Y89.462Z0F1800
G1 X40.774Y89.397Z0F1800
G1 X40.406Y89.08Z0F1800
G1 X40.294Y88.756Z0F1800
G1 X40.363Y88.417Z0F1800
G1 X40.659Y88.121Z0F1800
G1 X41.178Y87.898Z0F1800
G1 X41.747Y87.667Z0F1800
G1 X42.158Y87.328Z0F1800
G1 X42.244Y86.917Z0F1800
G1 X42.129Y86.511Z0F1800
G1 X41.79Y86.238Z0F1800
G1 X41.336Y86.08Z0F1800
G1 X40.976Y86.125Z0F1800
G1 X40.522Y86.261Z0F1800
G1 X40.111Y86.534Z0F1800
G0 Z1.8F1000
G0 X38.77Y86.08Z1.8
G1 Z0F1000
G1 Y88.691Z0F1800
G1 X38.633Y89.008Z0F1800
G1 X38.474Y89.238Z0F1800
G1 X38.273Y89.368Z0F1800
G1 X37.927Y89.462Z0F1800
G1 X37.703Y89.44Z0F1800
G1 X37.364Y89.347Z0F1800
G1 X37.134Y89.21Z0F1800
G1 X36.838Y88.943Z0F1800
G1 X36.521Y88.626Z0F1800
G1 Y89.44Z0F1800
G1 Y86.08Z0F1800
G0 Z1.8F1000
G0 X34.957Y86.398Z1.8
G1 Z0F1000
G1 X34.568Y86.193Z0F1800
G1 X34.157Y86.08Z0F1800
G1 X33.681Y86.125Z0F1800
G1 X33.299Y86.306Z0F1800
G1 X32.888Y86.716Z0F1800
G1 X32.683Y87.213Z0F1800
G1 X32.57Y87.761Z0F1800
G1 X32.615Y88.215Z0F1800
G1 X32.794Y88.647Z0F1800
G1 X32.953Y88.986Z0F1800
G1 X33.364Y89.325Z0F1800
G1 X33.839Y89.462Z0F1800
G1 X34.315Y89.44Z0F1800
G1 X34.661Y89.21Z0F1800
G1 X35Y88.806Z0F1800
G1 X35.115Y88.28Z0F1800
G1 Y87.876Z0F1800
G1 X32.615Z0F1800
G0 Z1.8F1000
G0 X28.844Y86.647Z1.8
G1 Z0F1000
G1 X29.212Y86.398Z0F1800
G1 X29.594Y86.193Z0F1800
G1 X29.94Y86.125Z0F1800
G1 X30.365Y86.147Z0F1800
G1 X30.639Y86.284Z0F1800
G1 X31.007Y86.625Z0F1800
G1 X31.252Y87.148Z0F1800
G1 X31.324Y87.645Z0F1800
G1 Y88.236Z0F1800
G1 X31.165Y88.756Z0F1800
G1 X30.848Y89.21Z0F1800
G1 X30.48Y89.419Z0F1800
G1 X30.005Z0F1800
G1 X29.615Y89.347Z0F1800
G1 X29.161Y89.102Z0F1800
G1 X28.779Y88.712Z0F1800
G1 Y89.44Z0F1800
G1 Y84.56Z0F1800
G0 Z1.8F1000
G0 X27.027Y86.102Z1.8
G1 Z0F1000
G1 Y88.395Z0F1800
G1 X26.912Y88.986Z0F1800
G1 X26.667Y89.282Z0F1800
G1 X26.458Y89.397Z0F1800
G1 X26.141Y89.484Z0F1800
G1 X25.845Y89.397Z0F1800
G1 X25.485Y89.21Z0F1800
G1 X25.009Y88.784Z0F1800
G1 X24.915Y88.597Z0F1800
G1 Y86.08Z0F1800
G1 Y88.236Z0F1800
G1 X24.872Y88.712Z0F1800
G1 X24.714Y89.102Z0F1800
G1 X24.483Y89.325Z0F1800
G1 X24.281Y89.419Z0F1800
G1 X23.986Y89.462Z0F1800
G1 X23.647Y89.368Z0F1800
G1 X23.373Y89.188Z0F1800
G1 X23.077Y88.943Z0F1800
G1 X22.76Y88.669Z0F1800
G1 Y89.419Z0F1800
G1 Y86.08Z0F1800
G0 Z1.8F1000
G0 X20.807Y86.511Z1.8
G1 Z0F1000
G1 X21.073Y86.968Z0F1800
G1 X21.189Y87.465Z0F1800
G1 X21.21Y87.941Z0F1800
G1 X21.145Y88.373Z0F1800
G1 X20.987Y88.756Z0F1800
G1 X20.756Y89.051Z0F1800
G1 X20.439Y89.325Z0F1800
G1 X20.1Y89.44Z0F1800
G1 X19.783Y89.462Z0F1800
G1 X19.415Y89.397Z0F1800
G1 X19.077Y89.188Z0F1800
G1 X18.781Y88.849Z0F1800
G1 X18.622Y88.532Z0F1800
G1 X18.488Y88.056Z0F1800
G1 Y87.689Z0F1800
G1 X18.533Y87.263Z0F1800
G1 X18.644Y86.874Z0F1800
G1 X18.918Y86.511Z0F1800
G1 X19.235Y86.261Z0F1800
G1 X19.581Y86.125Z0F1800
G1 X19.898Y86.102Z0F1800
G1 X19.92Z0F1800
G1 X20.374Y86.215Z0F1800
G1 X20.807Y86.511Z0F1800
G0 Z1.8F1000
G0 X17.404Y86.488Z1.8
G1 Z0F1000
G1 X17.037Y86.215Z0F1800
G1 X16.496Y86.102Z0F1800
G1 X15.991Y86.171Z0F1800
G1 X15.472Y86.511Z0F1800
G1 X15.177Y86.989Z0F1800
G1 X15.063Y87.552Z0F1800
G1 Y88.143Z0F1800
G1 X15.242Y88.691Z0F1800
G1 X15.609Y89.123Z0F1800
G1 X16.042Y89.368Z0F1800
G1 X16.518Y89.44Z0F1800
G1 X16.921Y89.368Z0F1800
G1 X17.195Y89.238Z0F1800
G1 X17.31Y89.102Z0F1800
G0 Z1.8F1000
G0 X55.645Y86.08Z1.8
G1 Z0F1000
G1 Y89.44Z0F1800
G1 Y88.626Z0F1800
G1 X55.962Y88.943Z0F1800
G1 X56.258Y89.21Z0F1800
G1 X56.488Y89.347Z0F1800
G1 X56.827Y89.44Z0F1800
G1 X57.051Y89.462Z0F1800
G1 X57.397Y89.368Z0F1800
G1 X57.598Y89.238Z0F1800
G1 X57.757Y89.008Z0F1800
G1 X57.894Y88.691Z0F1800
G1 Y86.08Z0F1800
M9
G1 Z10 F1000
G90
G1 Z10 F800
