G90 ; Absolutno pozicioniranje
G21 ; Milimetri
;LightBurn 1.6.04
;Custom GCode device profile, absolute coords
;Bounds: X8.49 Y83.71 to X61.51 Y132.29
G00 G17 G40 G21 G54
G90
G1 Z10 F1000
;Cut @ 1200 mm/min, 90% power

M8
G0 Z1.8F1000
G0 X10.185 Y83.711 Z1.800
G1 Z0F1000
;Layer Green
; --- FIX X Backlash: -0.600mm ---
G0 X9.585 Y83.711 F200
G1 X9.242 Y83.746 F1800
G1 X8.924 Y83.844 F1800
G1 X8.636 Y84.001 F1800
G1 X8.384 Y84.208 F1800
G1 X8.177 Y84.459 F1800
G1 X8.021 Y84.748 F1800
G1 X7.922 Y85.066 F1800
G1 X7.887 Y85.408 F1800
G1 X7.922 Y85.750 F1800
; --- FIX X Backlash: 0.600mm ---
G0 X8.522 Y85.750 F200
G1 X8.621 Y86.069 F1800
G1 X8.777 Y86.357 F1800
G1 X8.984 Y86.608 F1800
G1 X9.236 Y86.815 F1800
G1 X9.524 Y86.972 F1800
G1 X9.842 Y87.071 F1800
G1 X10.185 Y87.105 F1800
G1 X10.527 Y87.071 F1800
; --- FIX Y Backlash: -1.600mm ---
G0 X10.527 Y85.471 F200
G1 X10.845 Y85.372 F1800
G1 X11.133 Y85.215 F1800
G1 X11.385 Y85.008 F1800
G1 X11.592 Y84.757 F1800
G1 X11.748 Y84.469 F1800
G1 X11.847 Y84.150 F1800
G1 X11.882 Y83.808 F1800
G1 X11.847 Y83.466 F1800
; --- FIX X Backlash: -0.600mm ---
G0 X11.247 Y83.466 F200
G1 X11.148 Y83.148 F1800
G1 X10.992 Y82.859 F1800
G1 X10.785 Y82.608 F1800
G1 X10.533 Y82.401 F1800
G1 X10.245 Y82.244 F1800
G1 X9.927 Y82.146 F1800
G1 X9.585 Y82.111 F1800
G0 Z1.8F1000
; --- FIX X Backlash: 0.600mm ---
G0 X10.185 Y82.111 F200
; --- FIX Y Backlash: 1.600mm ---
G0 X10.185 Y83.711 F200
G0 X16.300 Y121.926 Z1.800
G1 Z0F1000
; --- FIX X Backlash: -0.600mm ---
G0 X15.700 Y121.926 F200
G1 X15.358 Y121.961 F1800
G1 X15.039 Y122.060 F1800
G1 X14.751 Y122.216 F1800
G1 X14.500 Y122.423 F1800
G1 X14.293 Y122.674 F1800
G1 X14.136 Y122.963 F1800
G1 X14.037 Y123.281 F1800
G1 X14.003 Y123.623 F1800
G1 X14.037 Y123.965 F1800
; --- FIX X Backlash: 0.600mm ---
G0 X14.637 Y123.965 F200
G1 X14.736 Y124.284 F1800
G1 X14.893 Y124.572 F1800
G1 X15.100 Y124.823 F1800
G1 X15.351 Y125.031 F1800
G1 X15.639 Y125.187 F1800
G1 X15.958 Y125.286 F1800
G1 X16.300 Y125.320 F1800
G1 X16.642 Y125.286 F1800
; --- FIX Y Backlash: -1.600mm ---
G0 X16.642 Y123.686 F200
G1 X16.960 Y123.587 F1800
G1 X17.249 Y123.431 F1800
G1 X17.500 Y123.223 F1800
G1 X17.707 Y122.972 F1800
G1 X17.864 Y122.684 F1800
G1 X17.963 Y122.365 F1800
G1 X17.997 Y122.023 F1800
G1 X17.963 Y121.681 F1800
; --- FIX X Backlash: -0.600mm ---
G0 X17.363 Y121.681 F200
G1 X17.264 Y121.363 F1800
G1 X17.107 Y121.074 F1800
G1 X16.900 Y120.823 F1800
G1 X16.649 Y120.616 F1800
G1 X16.360 Y120.460 F1800
G1 X16.042 Y120.361 F1800
G1 X15.700 Y120.326 F1800
G0 Z1.8F1000
; --- FIX X Backlash: 0.600mm ---
G0 X16.300 Y120.326 F200
; --- FIX Y Backlash: 1.600mm ---
G0 X16.300 Y121.926 F200
G0 X22.743 Y123.468 Z1.800
G1 Z0F1000
; --- FIX X Backlash: -0.600mm ---
G0 X22.143 Y123.468 F200
G1 X22.059 Y123.697 F1800
G1 X21.997 Y123.937 F1800
G1 X21.959 Y124.185 F1800
G1 X21.946 Y124.440 F1800
G1 X21.959 Y124.696 F1800
G1 X21.997 Y124.944 F1800
; --- FIX X Backlash: 0.600mm ---
G0 X22.597 Y124.944 F200
G1 X22.659 Y125.183 F1800
G1 X22.743 Y125.413 F1800
G1 X22.973 Y125.837 F1800
G1 X23.278 Y126.207 F1800
G1 X23.648 Y126.512 F1800
G1 X24.072 Y126.742 F1800
G1 X24.302 Y126.826 F1800
G1 X24.541 Y126.888 F1800
G1 X24.789 Y126.926 F1800
G1 X25.045 Y126.939 F1800
G1 X25.300 Y126.926 F1800
G1 X25.548 Y126.888 F1800
; --- FIX Y Backlash: -1.600mm ---
G0 X25.548 Y125.288 F200
G1 X25.788 Y125.226 F1800
G1 X26.017 Y125.142 F1800
G1 X26.442 Y124.912 F1800
G1 X26.811 Y124.607 F1800
G1 X27.116 Y124.237 F1800
G1 X27.347 Y123.813 F1800
G1 X27.431 Y123.583 F1800
G1 X27.492 Y123.344 F1800
G1 X27.530 Y123.096 F1800
G1 X27.543 Y122.840 F1800
G1 X27.530 Y122.585 F1800
G1 X27.492 Y122.337 F1800
; --- FIX X Backlash: -0.600mm ---
G0 X26.892 Y122.337 F200
G1 X26.831 Y122.097 F1800
G1 X26.747 Y121.868 F1800
G1 X26.516 Y121.443 F1800
G1 X26.211 Y121.074 F1800
G1 X25.842 Y120.768 F1800
G1 X25.417 Y120.538 F1800
G1 X25.188 Y120.454 F1800
G1 X24.948 Y120.393 F1800
G1 X24.700 Y120.355 F1800
G1 X24.445 Y120.342 F1800
G1 X24.189 Y120.355 F1800
G1 X23.941 Y120.393 F1800
; --- FIX Y Backlash: 1.600mm ---
G0 X23.941 Y121.993 F200
G1 X23.702 Y122.054 F1800
G1 X23.472 Y122.138 F1800
G1 X23.048 Y122.368 F1800
G1 X22.678 Y122.674 F1800
G1 X22.373 Y123.043 F1800
G1 X22.143 Y123.468 F1800
G0 Z1.8F1000
; --- FIX X Backlash: 0.600mm ---
G0 X22.743 Y123.468 F200
G0 X33.778 Y124.672 Z1.800
G1 Z0F1000
; --- FIX X Backlash: -0.600mm ---
G0 X33.178 Y124.672 F200
G1 X33.088 Y125.020 F1800
G1 X33.033 Y125.380 F1800
G1 X33.015 Y125.751 F1800
G1 X33.033 Y126.123 F1800
; --- FIX X Backlash: 0.600mm ---
G0 X33.633 Y126.123 F200
G1 X33.688 Y126.483 F1800
G1 X33.778 Y126.831 F1800
G1 X33.900 Y127.164 F1800
G1 X34.053 Y127.481 F1800
G1 X34.234 Y127.781 F1800
G1 X34.443 Y128.060 F1800
G1 X34.678 Y128.318 F1800
G1 X34.935 Y128.552 F1800
G1 X35.215 Y128.761 F1800
G1 X35.514 Y128.943 F1800
G1 X35.831 Y129.096 F1800
G1 X36.165 Y129.218 F1800
G1 X36.513 Y129.307 F1800
G1 X36.873 Y129.362 F1800
G1 X37.244 Y129.381 F1800
G1 X37.615 Y129.362 F1800
; --- FIX Y Backlash: -1.600mm ---
G0 X37.615 Y127.762 F200
G1 X37.975 Y127.707 F1800
G1 X38.323 Y127.618 F1800
G1 X38.657 Y127.496 F1800
G1 X38.974 Y127.343 F1800
G1 X39.273 Y127.161 F1800
G1 X39.553 Y126.952 F1800
G1 X39.810 Y126.718 F1800
G1 X40.045 Y126.460 F1800
G1 X40.254 Y126.181 F1800
G1 X40.435 Y125.881 F1800
G1 X40.588 Y125.564 F1800
G1 X40.710 Y125.231 F1800
G1 X40.800 Y124.883 F1800
G1 X40.855 Y124.523 F1800
G1 X40.873 Y124.151 F1800
G1 X40.855 Y123.780 F1800
; --- FIX X Backlash: -0.600mm ---
G0 X40.255 Y123.780 F200
G1 X40.200 Y123.420 F1800
G1 X40.110 Y123.072 F1800
G1 X39.988 Y122.739 F1800
G1 X39.835 Y122.421 F1800
G1 X39.654 Y122.122 F1800
G1 X39.445 Y121.843 F1800
G1 X39.210 Y121.585 F1800
G1 X38.953 Y121.351 F1800
G1 X38.673 Y121.142 F1800
G1 X38.374 Y120.960 F1800
G1 X38.057 Y120.807 F1800
G1 X37.723 Y120.685 F1800
G1 X37.375 Y120.596 F1800
G1 X37.015 Y120.541 F1800
G1 X36.644 Y120.522 F1800
G1 X36.273 Y120.541 F1800
; --- FIX Y Backlash: 1.600mm ---
G0 X36.273 Y122.141 F200
G1 X35.913 Y122.196 F1800
G1 X35.565 Y122.285 F1800
G1 X35.231 Y122.407 F1800
G1 X34.914 Y122.560 F1800
G1 X34.615 Y122.742 F1800
G1 X34.335 Y122.951 F1800
G1 X34.078 Y123.185 F1800
G1 X33.843 Y123.443 F1800
G1 X33.634 Y123.722 F1800
G1 X33.453 Y124.021 F1800
G1 X33.300 Y124.339 F1800
G1 X33.178 Y124.672 F1800
G0 Z1.8F1000
; --- FIX X Backlash: 0.600mm ---
G0 X33.778 Y124.672 F200
G0 X46.421 Y126.181 Z1.800
G1 Z0F1000
; --- FIX X Backlash: -0.600mm ---
G0 X45.821 Y126.181 F200
G1 X45.744 Y126.686 F1800
G1 X45.717 Y127.206 F1800
G1 X45.744 Y127.725 F1800
; --- FIX X Backlash: 0.600mm ---
G0 X46.344 Y127.725 F200
G1 X46.421 Y128.230 F1800
G1 X46.546 Y128.717 F1800
G1 X46.717 Y129.184 F1800
G1 X46.931 Y129.629 F1800
G1 X47.186 Y130.048 F1800
G1 X47.478 Y130.439 F1800
G1 X47.806 Y130.800 F1800
G1 X48.167 Y131.128 F1800
G1 X48.559 Y131.421 F1800
G1 X48.978 Y131.675 F1800
G1 X49.422 Y131.889 F1800
G1 X49.889 Y132.060 F1800
G1 X50.376 Y132.186 F1800
G1 X50.881 Y132.263 F1800
G1 X51.401 Y132.289 F1800
G1 X51.921 Y132.263 F1800
; --- FIX Y Backlash: -1.600mm ---
G0 X51.921 Y130.663 F200
G1 X52.425 Y130.586 F1800
G1 X52.913 Y130.460 F1800
G1 X53.380 Y130.289 F1800
G1 X53.824 Y130.075 F1800
G1 X54.243 Y129.821 F1800
G1 X54.634 Y129.528 F1800
G1 X54.995 Y129.200 F1800
G1 X55.324 Y128.839 F1800
G1 X55.616 Y128.448 F1800
G1 X55.871 Y128.029 F1800
G1 X56.085 Y127.584 F1800
G1 X56.256 Y127.117 F1800
G1 X56.381 Y126.630 F1800
G1 X56.458 Y126.125 F1800
G1 X56.484 Y125.606 F1800
G1 X56.458 Y125.086 F1800
; --- FIX X Backlash: -0.600mm ---
G0 X55.858 Y125.086 F200
G1 X55.781 Y124.581 F1800
G1 X55.656 Y124.094 F1800
G1 X55.485 Y123.627 F1800
G1 X55.271 Y123.182 F1800
G1 X55.016 Y122.763 F1800
G1 X54.724 Y122.372 F1800
G1 X54.395 Y122.011 F1800
G1 X54.034 Y121.683 F1800
G1 X53.643 Y121.390 F1800
G1 X53.224 Y121.136 F1800
G1 X52.780 Y120.922 F1800
G1 X52.313 Y120.751 F1800
G1 X51.825 Y120.625 F1800
G1 X51.321 Y120.548 F1800
G1 X50.801 Y120.522 F1800
G1 X50.281 Y120.548 F1800
; --- FIX Y Backlash: 1.600mm ---
G0 X50.281 Y122.148 F200
G1 X49.776 Y122.225 F1800
G1 X49.289 Y122.351 F1800
G1 X48.822 Y122.522 F1800
G1 X48.378 Y122.736 F1800
G1 X47.959 Y122.990 F1800
G1 X47.567 Y123.283 F1800
G1 X47.206 Y123.611 F1800
G1 X46.878 Y123.972 F1800
G1 X46.586 Y124.363 F1800
G1 X46.331 Y124.782 F1800
G1 X46.117 Y125.227 F1800
G1 X45.946 Y125.694 F1800
G1 X45.821 Y126.181 F1800
;Cut @ 1200 mm/min, 90% power

M8
G0 Z1.8F1000
; --- FIX Y Backlash: -1.600mm ---
G0 X45.821 Y124.581 F200
G0 X43.789 Y109.467 Z1.800
G1 Z0F1000
;Layer C3
; --- FIX Y Backlash: 1.600mm ---
G0 X43.789 Y111.067 F200
G1 X43.429 Y111.800 F1800
G1 X42.684 Y112.172 F1800
G1 X41.963 Y112.172 F1800
; --- FIX Y Backlash: -1.600mm ---
G0 X41.963 Y110.572 F200
G1 X41.224 Y110.200 F1800
G1 X40.858 Y109.827 F1800
G1 X40.491 Y109.106 F1800
G1 X40.491 Y108.368 F1800
; --- FIX X Backlash: 0.600mm ---
G0 X41.091 Y108.368 F200
G1 X41.458 Y107.635 F1800
G1 X42.191 Y107.268 F1800
G1 X42.924 Y107.268 F1800
; --- FIX Y Backlash: 1.600mm ---
G0 X42.924 Y108.868 F200
G1 X43.657 Y109.235 F1800
G1 X44.029 Y109.968 F1800
G1 X44.750 Y112.172 F1800
; --- FIX X Backlash: -0.600mm ---
G0 X44.150 Y112.172 F200
; --- FIX Y Backlash: -1.600mm ---
G0 X44.150 Y110.572 F200
G1 X43.789 Y108.734 F1800
G1 X43.789 Y107.635 F1800
; --- FIX X Backlash: 0.600mm ---
G0 X44.389 Y107.635 F200
G1 X44.750 Y107.268 F1800
G1 X45.122 Y107.268 F1800
; --- FIX Y Backlash: 1.600mm ---
G0 X45.122 Y108.868 F200
G1 X45.855 Y109.235 F1800
G1 X46.216 Y109.601 F1800
G1 X46.960 Y110.706 F1800
G0 Z1.8F1000
G0 X46.954 Y110.706 Z1.800
G1 Z0F1000
G1 X47.687 Y111.800 F1800
G1 X48.054 Y112.533 F1800
; --- FIX Y Backlash: -1.600mm ---
G0 X48.054 Y110.933 F200
G1 X48.054 Y110.200 F1800
G1 X48.787 Y109.106 F1800
G1 X49.147 Y108.368 F1800
G1 X49.147 Y107.635 F1800
; --- FIX X Backlash: -0.600mm ---
G0 X48.547 Y107.635 F200
G1 X47.826 Y107.268 F1800
G0 Z1.8F1000
; --- FIX Y Backlash: 1.600mm ---
G0 X47.826 Y108.868 F200
G0 X46.354 Y109.235 Z1.800
G1 Z0F1000
; --- FIX X Backlash: 0.600mm ---
G0 X46.954 Y109.235 F200
; --- FIX Y Backlash: -1.600mm ---
G0 X46.954 Y107.635 F200
G1 X47.687 Y107.268 F1800
G1 X49.147 Y107.268 F1800
; --- FIX Y Backlash: 1.600mm ---
G0 X49.147 Y108.868 F200
G1 X49.892 Y109.235 F1800
G1 X50.252 Y109.601 F1800
G1 X50.985 Y110.706 F1800
G0 Z1.8F1000
G0 X50.979 Y110.706 Z1.800
G1 Z0F1000
G1 X51.712 Y111.800 F1800
G1 X52.812 Y113.638 F1800
G1 X53.172 Y114.359 F1800
G1 X53.544 Y115.464 F1800
G1 X53.544 Y116.197 F1800
; --- FIX X Backlash: -0.600mm ---
G0 X52.944 Y116.197 F200
G1 X52.572 Y116.569 F1800
; --- FIX Y Backlash: -1.600mm ---
G0 X52.572 Y114.969 F200
G1 X51.851 Y114.597 F1800
G1 X51.479 Y113.864 F1800
G1 X51.112 Y112.398 F1800
G1 X50.746 Y110.200 F1800
G1 X50.379 Y107.268 F1800
G0 Z1.8F1000
G0 Z1.8
G1 Z0F1000
; --- FIX X Backlash: 0.600mm ---
G0 X50.979 Y107.268 F200
; --- FIX Y Backlash: 1.600mm ---
G0 X50.979 Y108.868 F200
G1 X51.346 Y109.968 F1800
G1 X51.712 Y110.706 F1800
G1 X52.451 Y111.800 F1800
G1 X53.172 Y112.172 F1800
G1 X53.917 Y112.172 F1800
; --- FIX Y Backlash: -1.600mm ---
G0 X53.917 Y110.572 F200
G1 X54.277 Y110.200 F1800
G1 X54.277 Y109.467 F1800
; --- FIX X Backlash: -0.600mm ---
G0 X53.677 Y109.467 F200
G1 X53.317 Y108.368 F1800
G1 X53.317 Y107.635 F1800
; --- FIX X Backlash: 0.600mm ---
G0 X53.917 Y107.635 F200
G1 X54.277 Y107.268 F1800
G1 X54.638 Y107.268 F1800
; --- FIX Y Backlash: 1.600mm ---
G0 X54.638 Y108.868 F200
G1 X55.382 Y109.235 F1800
G1 X55.743 Y109.601 F1800
G1 X56.476 Y110.706 F1800
G0 Z1.8F1000
; --- FIX X Backlash: -0.600mm ---
G0 X55.876 Y110.706 F200
; --- FIX Y Backlash: -1.600mm ---
G0 X55.876 Y109.106 F200
G0 X52.061 Y101.199 Z1.800
G1 Z0F1000
G1 X52.061 Y100.904 F1800
G1 X51.765 Y100.904 F1800
; --- FIX Y Backlash: 1.600mm ---
G0 X51.765 Y102.504 F200
G1 X51.765 Y102.799 F1800
; --- FIX X Backlash: 0.600mm ---
G0 X52.365 Y102.799 F200
G1 X52.661 Y102.799 F1800
G0 Z1.8F1000
; --- FIX X Backlash: -0.600mm ---
G0 X52.061 Y102.799 F200
; --- FIX Y Backlash: -1.600mm ---
G0 X52.061 Y101.199 F200
G0 X51.880 Y99.909 Z1.800
G1 Z0F1000
G1 X51.880 Y96.227 F1800
G1 X51.902 Y96.181 F1800
G0 Z1.8F1000
; --- FIX Y Backlash: 1.600mm ---
G0 X51.902 Y97.781 F200
G0 X51.289 Y98.032 Z1.800
G1 Z0F1000
G1 X49.660 Y98.032 F1800
G1 X49.408 Y98.304 F1800
G1 X49.408 Y101.343 F1800
; --- FIX X Backlash: 0.600mm ---
G0 X50.008 Y101.343 F200
G1 X51.889 Y101.343 F1800
; --- FIX X Backlash: -0.600mm ---
G0 X51.289 Y101.343 F200
G1 X49.408 Y101.343 F1800
G1 X49.408 Y102.843 F1800
G0 Z1.8F1000
; --- FIX X Backlash: 0.600mm ---
G0 X50.008 Y102.843 F200
; --- FIX Y Backlash: -1.600mm ---
G0 X50.008 Y101.243 F200
G0 X54.138 Y99.815 Z1.800
G1 Z0F1000
; --- FIX X Backlash: -0.600mm ---
G0 X53.538 Y99.815 F200
G1 X53.084 Y99.318 F1800
G1 X53.084 Y96.795 F1800
; --- FIX X Backlash: 0.600mm ---
G0 X53.684 Y96.795 F200
G1 X54.066 Y96.386 F1800
G1 X56.704 Y96.386 F1800
; --- FIX Y Backlash: 1.600mm ---
G0 X56.704 Y97.986 F200
G1 X57.065 Y98.350 F1800
G1 X57.065 Y101.076 F1800
; --- FIX X Backlash: -0.600mm ---
G0 X56.465 Y101.076 F200
G1 X56.148 Y101.415 F1800
G1 X53.538 Y101.415 F1800
G0 Z1.8F1000
; --- FIX Y Backlash: -1.600mm ---
G0 X53.538 Y99.815 F200
G0 X48.363 Y98.042 Z1.800
G1 Z0F1000
G1 X44.982 Y98.042 F1800
G1 X44.982 Y96.750 F1800
; --- FIX X Backlash: 0.600mm ---
G0 X45.582 Y96.750 F200
G1 X45.942 Y96.386 F1800
G1 X49.006 Y96.386 F1800
; --- FIX Y Backlash: 1.600mm ---
G0 X49.006 Y97.986 F200
G1 X49.006 Y101.004 F1800
; --- FIX X Backlash: -0.600mm ---
G0 X48.406 Y101.004 F200
G1 X48.024 Y101.372 F1800
G1 X44.823 Y101.372 F1800
G0 Z1.8F1000
; --- FIX Y Backlash: -1.600mm ---
G0 X44.823 Y99.772 F200
G0 X43.915 Y99.224 Z1.800
G1 Z0F1000
; --- FIX Y Backlash: 1.600mm ---
G0 X43.915 Y100.824 F200
G1 X43.915 Y101.026 F1800
G1 X43.555 Y101.394 F1800
G1 X40.988 Y101.394 F1800
; --- FIX Y Backlash: -1.600mm ---
G0 X40.988 Y99.794 F200
G1 X40.599 Y99.426 F1800
G1 X40.599 Y98.410 F1800
; --- FIX X Backlash: 0.600mm ---
G0 X41.199 Y98.410 F200
G1 X41.567 Y98.042 F1800
G1 X44.220 Y98.042 F1800
G1 X44.537 Y97.725 F1800
G1 X44.537 Y96.750 F1800
; --- FIX X Backlash: -0.600mm ---
G0 X43.937 Y96.750 F200
G1 X43.598 Y96.386 F1800
G1 X40.873 Y96.386 F1800
; --- FIX Y Backlash: 1.600mm ---
G0 X40.873 Y97.986 F200
G1 X40.556 Y98.304 F1800
G1 X40.556 Y98.531 F1800
G0 Z1.8F1000
; --- FIX Y Backlash: -1.600mm ---
G0 X40.556 Y96.931 F200
G0 X39.554 Y96.159 Z1.800
G1 Z0F1000
; --- FIX Y Backlash: 1.600mm ---
G0 X39.554 Y97.759 F200
G1 X39.554 Y100.961 F1800
G1 X39.215 Y101.300 F1800
G1 X36.130 Y101.300 F1800
; --- FIX Y Backlash: -1.600mm ---
G0 X36.130 Y99.700 F200
G1 X36.130 Y96.181 F1800
G0 Z1.8F1000
; --- FIX Y Backlash: 1.600mm ---
G0 X36.130 Y97.781 F200
G0 X35.294 Y97.964 Z1.800
G1 Z0F1000
G1 X32.064 Y97.964 F1800
G1 X31.704 Y98.350 F1800
G1 X31.704 Y100.983 F1800
; --- FIX X Backlash: 0.600mm ---
G0 X32.304 Y100.983 F200
G1 X32.693 Y101.394 F1800
G1 X35.324 Y101.394 F1800
; --- FIX Y Backlash: -1.600mm ---
G0 X35.324 Y99.794 F200
G1 X35.706 Y99.404 F1800
G1 X35.706 Y98.092 F1800
; --- FIX X Backlash: -0.600mm ---
G0 X35.106 Y98.092 F200
G1 X31.682 Y98.092 F1800
G0 Z1.8F1000
G0 X27.545 Y96.659 Z1.800
G1 Z0F1000
; --- FIX X Backlash: 0.600mm ---
G0 X28.145 Y96.659 F200
G1 X28.469 Y96.341 F1800
G1 X31.215 Y96.341 F1800
; --- FIX Y Backlash: 1.600mm ---
G0 X31.215 Y97.941 F200
G1 X31.511 Y98.236 F1800
G1 X31.511 Y101.026 F1800
; --- FIX X Backlash: -0.600mm ---
G0 X30.911 Y101.026 F200
G1 X30.594 Y101.322 F1800
G1 X27.501 Y101.322 F1800
; --- FIX Y Backlash: -1.600mm ---
G0 X27.501 Y99.722 F200
G1 X27.501 Y94.589 F1800
G0 Z1.8F1000
; --- FIX Y Backlash: 1.600mm ---
G0 X27.501 Y96.189 F200
G0 X26.572 Y97.781 Z1.800
G1 Z0F1000
G1 X26.572 Y100.983 F1800
G1 X26.211 Y101.343 F1800
G1 X24.164 Y101.343 F1800
; --- FIX Y Backlash: -1.600mm ---
G0 X24.164 Y99.743 F200
G1 X23.847 Y99.426 F1800
G1 X23.847 Y96.159 F1800
; --- FIX Y Backlash: 1.600mm ---
G0 X23.847 Y97.759 F200
G1 X23.847 Y101.026 F1800
G1 X23.508 Y101.343 F1800
G1 X21.079 Y101.343 F1800
; --- FIX Y Backlash: -1.600mm ---
G0 X21.079 Y99.743 F200
G1 X21.079 Y96.227 F1800
G0 Z1.8F1000
; --- FIX Y Backlash: 1.600mm ---
G0 X21.079 Y97.827 F200
G0 X20.055 Y98.350 Z1.800
G1 Z0F1000
G1 X20.055 Y101.076 F1800
G1 X19.738 Y101.415 F1800
G1 X17.128 Y101.415 F1800
; --- FIX Y Backlash: -1.600mm ---
G0 X17.128 Y99.815 F200
G1 X16.674 Y99.318 F1800
G1 X16.674 Y96.795 F1800
; --- FIX X Backlash: 0.600mm ---
G0 X17.274 Y96.795 F200
G1 X17.656 Y96.386 F1800
G1 X20.295 Y96.386 F1800
; --- FIX Y Backlash: 1.600mm ---
G0 X20.295 Y97.986 F200
G1 X20.655 Y98.350 F1800
G0 Z1.8F1000
; --- FIX X Backlash: -0.600mm ---
G0 X20.055 Y98.350 F200
; --- FIX Y Backlash: -1.600mm ---
G0 X20.055 Y96.750 F200
G0 X15.701 Y96.386 Z1.800
G1 Z0F1000
G1 X12.479 Y96.386 F1800
; --- FIX Y Backlash: 1.600mm ---
G0 X12.479 Y97.986 F200
G1 X12.090 Y98.395 F1800
G1 X12.090 Y101.004 F1800
; --- FIX X Backlash: 0.600mm ---
G0 X12.690 Y101.004 F200
G1 X13.079 Y101.394 F1800
G1 X16.301 Y101.394 F1800
G0 Z1.8F1000
G0 X18.018 Y109.968 Z1.800
G1 Z0F1000
; --- FIX Y Backlash: -1.600mm ---
G0 X18.018 Y108.368 F200
G1 X18.378 Y107.635 F1800
G1 X19.123 Y107.268 F1800
G1 X20.216 Y107.268 F1800
; --- FIX Y Backlash: 1.600mm ---
G0 X20.216 Y108.868 F200
G1 X20.949 Y109.235 F1800
G1 X21.310 Y109.601 F1800
G1 X21.682 Y110.334 F1800
G1 X21.682 Y111.427 F1800
; --- FIX X Backlash: -0.600mm ---
G0 X21.082 Y111.427 F200
G1 X20.710 Y112.172 F1800
G1 X20.349 Y112.533 F1800
G1 X19.244 Y112.893 F1800
G1 X18.883 Y112.893 F1800
G0 Z1.8F1000
; --- FIX X Backlash: 0.600mm ---
G0 X19.483 Y112.893 F200
G0 X19.844 Y112.893 Z1.800
G1 Z0F1000
G1 X20.949 Y113.265 F1800
G1 X21.682 Y113.638 F1800
G1 X22.054 Y113.998 F1800
G1 X22.415 Y114.731 F1800
G1 X22.415 Y115.464 F1800
; --- FIX X Backlash: -0.600mm ---
G0 X21.815 Y115.464 F200
G1 X21.454 Y116.197 F1800
G1 X20.710 Y116.569 F1800
G1 X19.616 Y116.569 F1800
; --- FIX Y Backlash: -1.600mm ---
G0 X19.616 Y114.969 F200
G1 X18.523 Y114.597 F1800
G1 X17.778 Y114.225 F1800
G1 X17.057 Y113.503 F1800
G1 X16.313 Y112.398 F1800
G1 X15.952 Y111.665 F1800
G1 X15.591 Y110.572 F1800
G1 X15.219 Y108.734 F1800
G1 X15.219 Y107.635 F1800
; --- FIX X Backlash: 0.600mm ---
G0 X15.819 Y107.635 F200
G1 X16.191 Y107.268 F1800
G1 X16.552 Y107.268 F1800
; --- FIX Y Backlash: 1.600mm ---
G0 X16.552 Y108.868 F200
G1 X17.285 Y109.235 F1800
G1 X18.018 Y109.968 F1800
G1 X18.751 Y111.067 F1800
G1 X19.123 Y111.800 F1800
G1 X19.483 Y112.893 F1800
G1 X19.844 Y114.359 F1800
G1 X19.844 Y115.464 F1800
; --- FIX X Backlash: -0.600mm ---
G0 X19.244 Y115.464 F200
G1 X18.883 Y115.825 F1800
G0 Z1.8F1000
; --- FIX X Backlash: 0.600mm ---
G0 X19.483 Y115.825 F200
; --- FIX Y Backlash: -1.600mm ---
G0 X19.483 Y114.225 F200
G0 X26.440 Y109.467 Z1.800
G1 Z0F1000
; --- FIX X Backlash: -0.600mm ---
G0 X25.840 Y109.467 F200
; --- FIX Y Backlash: 1.600mm ---
G0 X25.840 Y111.067 F200
G1 X25.479 Y111.800 F1800
G1 X24.735 Y112.172 F1800
G1 X24.014 Y112.172 F1800
; --- FIX Y Backlash: -1.600mm ---
G0 X24.014 Y110.572 F200
G1 X23.275 Y110.200 F1800
G1 X22.908 Y109.827 F1800
G1 X22.542 Y109.106 F1800
G1 X22.542 Y108.368 F1800
; --- FIX X Backlash: 0.600mm ---
G0 X23.142 Y108.368 F200
G1 X23.508 Y107.635 F1800
G1 X24.241 Y107.268 F1800
G1 X24.974 Y107.268 F1800
; --- FIX Y Backlash: 1.600mm ---
G0 X24.974 Y108.868 F200
G1 X25.707 Y109.235 F1800
G1 X26.079 Y109.968 F1800
G1 X26.801 Y112.172 F1800
; --- FIX X Backlash: -0.600mm ---
G0 X26.201 Y112.172 F200
; --- FIX Y Backlash: -1.600mm ---
G0 X26.201 Y110.572 F200
G1 X25.840 Y108.734 F1800
G1 X25.840 Y107.635 F1800
; --- FIX X Backlash: 0.600mm ---
G0 X26.440 Y107.635 F200
G1 X26.801 Y107.268 F1800
G1 X27.173 Y107.268 F1800
; --- FIX Y Backlash: 1.600mm ---
G0 X27.173 Y108.868 F200
G1 X27.906 Y109.235 F1800
G1 X28.266 Y109.601 F1800
G1 X29.011 Y110.706 F1800
G0 Z1.8F1000
G0 X31.570 Y111.427 Z1.800
G1 Z0F1000
G1 X31.570 Y111.800 F1800
; --- FIX X Backlash: -0.600mm ---
G0 X30.970 Y111.800 F200
G1 X30.598 Y112.172 F1800
G1 X29.877 Y112.172 F1800
; --- FIX Y Backlash: -1.600mm ---
G0 X29.877 Y110.572 F200
G1 X29.138 Y110.200 F1800
G1 X28.771 Y109.827 F1800
G1 X28.405 Y109.106 F1800
G1 X28.405 Y108.368 F1800
; --- FIX X Backlash: 0.600mm ---
G0 X29.005 Y108.368 F200
G1 X29.371 Y107.635 F1800
G1 X30.104 Y107.268 F1800
G1 X31.198 Y107.268 F1800
; --- FIX Y Backlash: 1.600mm ---
G0 X31.198 Y108.868 F200
G1 X32.303 Y109.601 F1800
G1 X33.036 Y110.706 F1800
G0 Z1.8F1000
G0 X33.030 Y110.706 Z1.800
G1 Z0F1000
G1 X33.763 Y111.800 F1800
G1 X34.862 Y113.638 F1800
G1 X35.223 Y114.359 F1800
G1 X35.595 Y115.464 F1800
G1 X35.595 Y116.197 F1800
; --- FIX X Backlash: -0.600mm ---
G0 X34.995 Y116.197 F200
G1 X34.623 Y116.569 F1800
; --- FIX Y Backlash: -1.600mm ---
G0 X34.623 Y114.969 F200
G1 X33.901 Y114.597 F1800
G1 X33.529 Y113.864 F1800
G1 X33.163 Y112.398 F1800
G1 X32.796 Y110.200 F1800
G1 X32.430 Y107.268 F1800
G0 Z1.8F1000
G0 Z1.8
G1 Z0F1000
; --- FIX X Backlash: 0.600mm ---
G0 X33.030 Y107.268 F200
; --- FIX Y Backlash: 1.600mm ---
G0 X33.030 Y108.868 F200
G1 X33.396 Y109.968 F1800
G1 X33.763 Y110.706 F1800
G1 X34.501 Y111.800 F1800
G1 X35.223 Y112.172 F1800
G1 X35.967 Y112.172 F1800
; --- FIX Y Backlash: -1.600mm ---
G0 X35.967 Y110.572 F200
G1 X36.328 Y110.200 F1800
G1 X36.328 Y109.467 F1800
; --- FIX X Backlash: -0.600mm ---
G0 X35.728 Y109.467 F200
G1 X34.995 Y109.106 F1800
G1 X33.901 Y109.106 F1800
G0 Z1.8F1000
G0 Z1.8
G1 Z0F1000
; --- FIX X Backlash: 0.600mm ---
G0 X34.501 Y109.106 F200
G1 X35.223 Y108.734 F1800
G1 X35.595 Y107.635 F1800
G1 X35.967 Y107.268 F1800
G1 X36.328 Y107.268 F1800
; --- FIX Y Backlash: 1.600mm ---
G0 X36.328 Y108.868 F200
G1 X37.061 Y109.235 F1800
G1 X37.433 Y109.601 F1800
G1 X38.154 Y110.706 F1800
G0 Z1.8F1000
G0 X38.160 Y110.706 Z1.800
G1 Z0F1000
G1 X38.893 Y111.800 F1800
G1 X39.992 Y113.638 F1800
G1 X40.353 Y114.359 F1800
G1 X40.725 Y115.464 F1800
G1 X40.725 Y116.197 F1800
; --- FIX X Backlash: -0.600mm ---
G0 X40.125 Y116.197 F200
G1 X39.753 Y116.569 F1800
; --- FIX Y Backlash: -1.600mm ---
G0 X39.753 Y114.969 F200
G1 X39.032 Y114.597 F1800
G1 X38.659 Y113.864 F1800
G1 X38.293 Y112.398 F1800
G1 X37.926 Y109.827 F1800
G1 X37.926 Y107.635 F1800
; --- FIX X Backlash: 0.600mm ---
G0 X38.526 Y107.635 F200
G1 X38.893 Y107.268 F1800
G1 X39.259 Y107.268 F1800
; --- FIX Y Backlash: 1.600mm ---
G0 X39.259 Y108.868 F200
G1 X39.992 Y109.235 F1800
G1 X40.353 Y109.601 F1800
G1 X41.097 Y110.706 F1800
G0 Z1.8F1000
; --- FIX Y Backlash: -1.600mm ---
G0 X41.097 Y109.106 F200
G0 X58.089 Y96.181 Z1.800
G1 Z0F1000
; --- FIX Y Backlash: 1.600mm ---
G0 X58.089 Y97.781 F200
G1 X58.089 Y101.300 F1800
G1 X61.174 Y101.300 F1800
; --- FIX Y Backlash: -1.600mm ---
G0 X61.174 Y99.700 F200
G1 X61.513 Y99.361 F1800
G1 X61.513 Y96.159 F1800
G0 Z1.8F1000
; --- FIX X Backlash: -0.600mm ---
G0 X60.913 Y96.159 F200
G0 X52.702 Y87.725 Z1.800
G1 Z0F1000
; --- FIX Y Backlash: 1.600mm ---
G0 X52.702 Y89.325 F200
G1 X52.363 Y89.440 F1800
G1 X52.046 Y89.462 F1800
; --- FIX Y Backlash: -1.600mm ---
G0 X52.046 Y87.862 F200
G1 X51.679 Y87.797 F1800
G1 X51.340 Y87.588 F1800
G1 X51.044 Y87.249 F1800
G1 X50.886 Y86.932 F1800
G1 X50.752 Y86.456 F1800
G1 X50.752 Y86.089 F1800
G1 X50.796 Y85.663 F1800
; --- FIX X Backlash: 0.600mm ---
G0 X51.396 Y85.663 F200
G1 X51.507 Y85.274 F1800
G1 X51.781 Y84.911 F1800
G1 X52.098 Y84.661 F1800
G1 X52.444 Y84.525 F1800
G1 X52.762 Y84.502 F1800
G1 X52.783 Y84.502 F1800
; --- FIX Y Backlash: 1.600mm ---
G0 X52.783 Y86.102 F200
G1 X53.237 Y86.215 F1800
G1 X53.670 Y86.511 F1800
G1 X53.937 Y86.968 F1800
G1 X54.052 Y87.465 F1800
G1 X54.074 Y87.941 F1800
; --- FIX X Backlash: -0.600mm ---
G0 X53.474 Y87.941 F200
G1 X53.409 Y88.373 F1800
G1 X53.250 Y88.756 F1800
G1 X53.019 Y89.051 F1800
G1 X52.702 Y89.325 F1800
G0 Z1.8F1000
G0 X49.184 Y89.419 Z1.800
G1 Z0F1000
; --- FIX Y Backlash: -1.600mm ---
G0 X49.184 Y87.819 F200
G1 X49.184 Y84.480 F1800
G0 Z1.8F1000
; --- FIX Y Backlash: 1.600mm ---
G0 X49.184 Y86.080 F200
G0 X48.024 Y86.238 Z1.800
G1 Z0F1000
; --- FIX Y Backlash: -1.600mm ---
G0 X48.024 Y84.638 F200
G1 X47.779 Y84.525 F1800
G1 X47.455 Y84.525 F1800
; --- FIX Y Backlash: 1.600mm ---
G0 X47.455 Y86.125 F200
G1 X47.166 Y86.215 F1800
G1 X46.914 Y86.511 F1800
G1 X46.871 Y87.011 F1800
G1 X46.871 Y89.347 F1800
G1 X46.209 Y89.347 F1800
; --- FIX X Backlash: 0.600mm ---
G0 X46.809 Y89.347 F200
G1 X48.559 Y89.347 F1800
; --- FIX X Backlash: -0.600mm ---
G0 X47.959 Y89.347 F200
G1 X46.871 Y89.347 F1800
G1 X46.871 Y90.370 F1800
G0 Z1.8F1000
; --- FIX X Backlash: 0.600mm ---
G0 X47.471 Y90.370 F200
G0 X49.580 Y90.442 Z1.800
G1 Z0F1000
G1 X49.943 Y90.442 F1800
G1 X49.943 Y90.803 F1800
; --- FIX X Backlash: -0.600mm ---
G0 X49.343 Y90.803 F200
G1 X48.980 Y90.803 F1800
; --- FIX Y Backlash: -1.600mm ---
G0 X48.980 Y89.203 F200
G1 X48.980 Y88.842 F1800
G0 Z1.8F1000
G0 X45.004 Y86.500 Z1.800
G1 Z0F1000
G1 X44.802 Y86.500 F1800
G1 X44.549 Y86.478 F1800
G1 X44.139 Y86.413 F1800
G1 X43.706 Y86.276 F1800
G1 X43.346 Y86.139 F1800
G1 X42.985 Y85.844 F1800
G1 X42.824 Y85.505 F1800
G1 X42.824 Y85.069 F1800
; --- FIX X Backlash: 0.600mm ---
G0 X43.424 Y85.069 F200
G1 X43.628 Y84.775 F1800
G1 X43.902 Y84.593 F1800
G1 X44.241 Y84.480 F1800
; --- FIX Y Backlash: 1.600mm ---
G0 X44.241 Y86.080 F200
G1 X44.652 Y86.147 F1800
G1 X45.012 Y86.306 F1800
G1 X45.330 Y86.534 F1800
G1 X45.625 Y86.737 F1800
; --- FIX Y Backlash: -1.600mm ---
G0 X45.625 Y85.137 F200
G1 X45.647 Y84.525 F1800
; --- FIX Y Backlash: 1.600mm ---
G0 X45.647 Y86.125 F200
G1 X45.647 Y88.258 F1800
G1 X45.625 Y88.756 F1800
; --- FIX X Backlash: -0.600mm ---
G0 X45.025 Y88.756 F200
G1 X44.845 Y89.123 F1800
G1 X44.571 Y89.368 F1800
G1 X44.254 Y89.484 F1800
G1 X43.843 Y89.440 F1800
; --- FIX Y Backlash: -1.600mm ---
G0 X43.843 Y87.840 F200
G1 X43.439 Y87.725 F1800
G1 X42.964 Y87.451 F1800
G0 Z1.8F1000
; --- FIX Y Backlash: 1.600mm ---
G0 X42.964 Y89.051 F200
G0 X41.464 Y89.145 Z1.800
G1 Z0F1000
G1 X41.082 Y89.368 F1800
G1 X40.621 Y89.462 F1800
; --- FIX Y Backlash: -1.600mm ---
G0 X40.621 Y87.862 F200
G1 X40.174 Y87.797 F1800
G1 X39.806 Y87.480 F1800
G1 X39.694 Y87.156 F1800
; --- FIX X Backlash: 0.600mm ---
G0 X40.294 Y87.156 F200
G1 X40.363 Y86.817 F1800
G1 X40.659 Y86.521 F1800
G1 X41.178 Y86.298 F1800
G1 X41.747 Y86.067 F1800
G1 X42.158 Y85.728 F1800
G1 X42.244 Y85.317 F1800
; --- FIX X Backlash: -0.600mm ---
G0 X41.644 Y85.317 F200
G1 X41.529 Y84.911 F1800
G1 X41.190 Y84.638 F1800
G1 X40.736 Y84.480 F1800
G1 X40.376 Y84.525 F1800
; --- FIX Y Backlash: 1.600mm ---
G0 X40.376 Y86.125 F200
G1 X39.922 Y86.261 F1800
G1 X39.511 Y86.534 F1800
G0 Z1.8F1000
; --- FIX Y Backlash: -1.600mm ---
G0 X39.511 Y84.934 F200
G0 X38.170 Y84.480 Z1.800
G1 Z0F1000
; --- FIX Y Backlash: 1.600mm ---
G0 X38.170 Y86.080 F200
G1 X38.170 Y88.691 F1800
G1 X38.033 Y89.008 F1800
G1 X37.874 Y89.238 F1800
G1 X37.673 Y89.368 F1800
G1 X37.327 Y89.462 F1800
G1 X37.103 Y89.440 F1800
; --- FIX Y Backlash: -1.600mm ---
G0 X37.103 Y87.840 F200
G1 X36.764 Y87.747 F1800
G1 X36.534 Y87.610 F1800
G1 X36.238 Y87.343 F1800
G1 X35.921 Y87.026 F1800
; --- FIX Y Backlash: 1.600mm ---
G0 X35.921 Y88.626 F200
G1 X35.921 Y89.440 F1800
; --- FIX Y Backlash: -1.600mm ---
G0 X35.921 Y87.840 F200
G1 X35.921 Y84.480 F1800
G0 Z1.8F1000
; --- FIX Y Backlash: 1.600mm ---
G0 X35.921 Y86.080 F200
G0 X34.357 Y86.398 Z1.800
G1 Z0F1000
; --- FIX Y Backlash: -1.600mm ---
G0 X34.357 Y84.798 F200
G1 X33.968 Y84.593 F1800
G1 X33.557 Y84.480 F1800
G1 X33.081 Y84.525 F1800
; --- FIX Y Backlash: 1.600mm ---
G0 X33.081 Y86.125 F200
G1 X32.699 Y86.306 F1800
G1 X32.288 Y86.716 F1800
G1 X32.083 Y87.213 F1800
G1 X31.970 Y87.761 F1800
G1 X32.015 Y88.215 F1800
; --- FIX X Backlash: 0.600mm ---
G0 X32.615 Y88.215 F200
G1 X32.794 Y88.647 F1800
G1 X32.953 Y88.986 F1800
G1 X33.364 Y89.325 F1800
G1 X33.839 Y89.462 F1800
G1 X34.315 Y89.440 F1800
; --- FIX Y Backlash: -1.600mm ---
G0 X34.315 Y87.840 F200
G1 X34.661 Y87.610 F1800
G1 X35.000 Y87.206 F1800
G1 X35.115 Y86.680 F1800
G1 X35.115 Y86.276 F1800
; --- FIX X Backlash: -0.600mm ---
G0 X34.515 Y86.276 F200
G1 X32.015 Y86.276 F1800
G0 Z1.8F1000
G0 X28.244 Y85.047 Z1.800
G1 Z0F1000
; --- FIX X Backlash: 0.600mm ---
G0 X28.844 Y85.047 F200
G1 X29.212 Y84.798 F1800
G1 X29.594 Y84.593 F1800
G1 X29.940 Y84.525 F1800
G1 X30.365 Y84.547 F1800
; --- FIX Y Backlash: 1.600mm ---
G0 X30.365 Y86.147 F200
G1 X30.639 Y86.284 F1800
G1 X31.007 Y86.625 F1800
G1 X31.252 Y87.148 F1800
G1 X31.324 Y87.645 F1800
G1 X31.324 Y88.236 F1800
; --- FIX X Backlash: -0.600mm ---
G0 X30.724 Y88.236 F200
G1 X30.565 Y88.756 F1800
G1 X30.248 Y89.210 F1800
G1 X29.880 Y89.419 F1800
G1 X29.405 Y89.419 F1800
; --- FIX Y Backlash: -1.600mm ---
G0 X29.405 Y87.819 F200
G1 X29.015 Y87.747 F1800
G1 X28.561 Y87.502 F1800
G1 X28.179 Y87.112 F1800
; --- FIX Y Backlash: 1.600mm ---
G0 X28.179 Y88.712 F200
G1 X28.179 Y89.440 F1800
; --- FIX Y Backlash: -1.600mm ---
G0 X28.179 Y87.840 F200
G1 X28.179 Y82.960 F1800
G0 Z1.8F1000
; --- FIX Y Backlash: 1.600mm ---
G0 X28.179 Y84.560 F200
G0 X26.427 Y86.102 Z1.800
G1 Z0F1000
G1 X26.427 Y88.395 F1800
G1 X26.312 Y88.986 F1800
G1 X26.067 Y89.282 F1800
G1 X25.858 Y89.397 F1800
G1 X25.541 Y89.484 F1800
; --- FIX Y Backlash: -1.600mm ---
G0 X25.541 Y87.884 F200
G1 X25.245 Y87.797 F1800
G1 X24.885 Y87.610 F1800
G1 X24.409 Y87.184 F1800
G1 X24.315 Y86.997 F1800
G1 X24.315 Y84.480 F1800
; --- FIX Y Backlash: 1.600mm ---
G0 X24.315 Y86.080 F200
G1 X24.315 Y88.236 F1800
G1 X24.272 Y88.712 F1800
G1 X24.114 Y89.102 F1800
G1 X23.883 Y89.325 F1800
G1 X23.681 Y89.419 F1800
G1 X23.386 Y89.462 F1800
; --- FIX Y Backlash: -1.600mm ---
G0 X23.386 Y87.862 F200
G1 X23.047 Y87.768 F1800
G1 X22.773 Y87.588 F1800
G1 X22.477 Y87.343 F1800
G1 X22.160 Y87.069 F1800
; --- FIX Y Backlash: 1.600mm ---
G0 X22.160 Y88.669 F200
G1 X22.160 Y89.419 F1800
; --- FIX Y Backlash: -1.600mm ---
G0 X22.160 Y87.819 F200
G1 X22.160 Y84.480 F1800
G0 Z1.8F1000
; --- FIX Y Backlash: 1.600mm ---
G0 X22.160 Y86.080 F200
G0 X20.207 Y86.511 Z1.800
G1 Z0F1000
; --- FIX X Backlash: 0.600mm ---
G0 X20.807 Y86.511 F200
G1 X21.073 Y86.968 F1800
G1 X21.189 Y87.465 F1800
G1 X21.210 Y87.941 F1800
; --- FIX X Backlash: -0.600mm ---
G0 X20.610 Y87.941 F200
G1 X20.545 Y88.373 F1800
G1 X20.387 Y88.756 F1800
G1 X20.156 Y89.051 F1800
G1 X19.839 Y89.325 F1800
G1 X19.500 Y89.440 F1800
G1 X19.183 Y89.462 F1800
; --- FIX Y Backlash: -1.600mm ---
G0 X19.183 Y87.862 F200
G1 X18.815 Y87.797 F1800
G1 X18.477 Y87.588 F1800
G1 X18.181 Y87.249 F1800
G1 X18.022 Y86.932 F1800
G1 X17.888 Y86.456 F1800
G1 X17.888 Y86.089 F1800
G1 X17.933 Y85.663 F1800
; --- FIX X Backlash: 0.600mm ---
G0 X18.533 Y85.663 F200
G1 X18.644 Y85.274 F1800
G1 X18.918 Y84.911 F1800
G1 X19.235 Y84.661 F1800
G1 X19.581 Y84.525 F1800
G1 X19.898 Y84.502 F1800
G1 X19.920 Y84.502 F1800
; --- FIX Y Backlash: 1.600mm ---
G0 X19.920 Y86.102 F200
G1 X20.374 Y86.215 F1800
G1 X20.807 Y86.511 F1800
G0 Z1.8F1000
; --- FIX X Backlash: -0.600mm ---
G0 X20.207 Y86.511 F200
G0 X16.804 Y86.488 Z1.800
G1 Z0F1000
; --- FIX Y Backlash: -1.600mm ---
G0 X16.804 Y84.888 F200
G1 X16.437 Y84.615 F1800
G1 X15.896 Y84.502 F1800
; --- FIX Y Backlash: 1.600mm ---
G0 X15.896 Y86.102 F200
G1 X15.391 Y86.171 F1800
G1 X14.872 Y86.511 F1800
G1 X14.577 Y86.989 F1800
G1 X14.463 Y87.552 F1800
G1 X14.463 Y88.143 F1800
; --- FIX X Backlash: 0.600mm ---
G0 X15.063 Y88.143 F200
G1 X15.242 Y88.691 F1800
G1 X15.609 Y89.123 F1800
G1 X16.042 Y89.368 F1800
G1 X16.518 Y89.440 F1800
; --- FIX Y Backlash: -1.600mm ---
G0 X16.518 Y87.840 F200
G1 X16.921 Y87.768 F1800
G1 X17.195 Y87.638 F1800
G1 X17.310 Y87.502 F1800
G0 Z1.8F1000
G0 X55.645 Y84.480 Z1.800
G1 Z0F1000
; --- FIX Y Backlash: 1.600mm ---
G0 X55.645 Y86.080 F200
G1 X55.645 Y89.440 F1800
; --- FIX Y Backlash: -1.600mm ---
G0 X55.645 Y87.840 F200
G1 X55.645 Y87.026 F1800
; --- FIX Y Backlash: 1.600mm ---
G0 X55.645 Y88.626 F200
G1 X55.962 Y88.943 F1800
G1 X56.258 Y89.210 F1800
G1 X56.488 Y89.347 F1800
G1 X56.827 Y89.440 F1800
G1 X57.051 Y89.462 F1800
; --- FIX Y Backlash: -1.600mm ---
G0 X57.051 Y87.862 F200
G1 X57.397 Y87.768 F1800
G1 X57.598 Y87.638 F1800
G1 X57.757 Y87.408 F1800
G1 X57.894 Y87.091 F1800
G1 X57.894 Y84.480 F1800
M9
G1 Z10 F1000
G90
G1 Z10 F800
M2 ; Konec G-kode